Martins-Lucaas/twinforge/sensors/Data/celula de carga/20260713_152614__samples.csv
t_rel_s,t_unix,cycle,phase,setpoint_n,force_net_n,q1,q2,q3,q4,q5,q6,tcp_x,tcp_y,tcp_z,taxel_0,taxel_1,taxel_2,taxel_3,taxel_4,taxel_5,taxel_6,taxel_7,taxel_8,taxel_9,taxel_10,taxel_11,taxel_12,taxel_13,taxel_14,taxel_15,taxel_16,taxel_17,taxel_18,taxel_19,taxel_20,taxel_21,taxel_22,taxel_23,taxel_24,n_RA,n_SA,cn_mm,cn_ra,cn_sa
0.0725,1783967174.3663,1,0,6.0000,-0.0000,1.42244,0.00071,-2.63053,1.05907,1.57080,0.11675,-0.12764,-0.48152,0.03738,,,,,,,,,,,,,,,,,,,,,,,,,,0,0,0,0,0
0.0950,1783967174.3887,1,0,6.0000,-0.0000,1.42244,0.00071,-2.63053,1.05907,1.57080,0.11675,-0.12764,-0.48152,0.03738,,,,,,,,,,,,,,,,,,,,,,,,,,0,0,0,0,0
0.1031,1783967174.3969,1,0,6.0000,-0.0000,1.42244,0.00071,-2.63053,1.05907,1.57080,0.11675,-0.12764,-0.48152,0.03738,,,,,,,,,,,,,,,,,,,,,,,,,,0,0,0,0,0
0.1110,1783967174.4048,1,0,6.0000,-0.0000,1.42244,0.00071,-2.63053,1.05907,1.57080,0.11675,-0.12764,-0.48152,0.03738,,,,,,,,,,,,,,,,,,,,,,,,,,0,0,0,0,0
0.1208,1783967174.4145,1,0,6.0000,-0.0000,1.42244,0.00071,-2.63053,1.05907,1.57080,0.11675,-0.12764,-0.48152,0.03738,,,,,,,,,,,,,,,,,,,,,,,,,,0,0,0,0,0
0.1215,1783967174.4152,1,0,6.0000,-0.0000,1.42244,0.00071,-2.63053,1.05907,1.57080,0.11675,-0.12764,-0.48152,0.03738,,,,,,,,,,,,,,,,,,,,,,,,,,0,0,0,0,0
0.1217,1783967174.4155,1,0,6.0000,-0.0000,1.42244,0.00071,-2.63053,1.05907,1.57080,0.11675,-0.12764,-0.48152,0.03738,,,,,,,,,,,,,,,,,,,,,,,,,,0,0,0,0,0
0.1233,1783967174.4171,1,0,6.0000,-0.0000,1.42244,0.00071,-2.63053,1.05907,1.57080,0.11675,-0.12764,-0.48152,0.03738,,,,,,,,,,,,,,,,,,,,,,,,,,0,0,0,0,0
0.1236,1783967174.4173,1,0,6.0000,-0.0000,1.42244,0.00071,-2.63053,1.05907,1.57080,0.11675,-0.12764,-0.48152,0.03738,,,,,,,,,,,,,,,,,,,,,,,,,,0,0,0,0,0
0.1304,1783967174.4242,1,0,6.0000,-0.0000,1.42244,0.00071,-2.63053,1.05907,1.57080,0.11675,-0.12764,-0.48152,0.03738,,,,,,,,,,,,,,,,,,,,,,,,,,0,0,0,0,0
0.1309,1783967174.4247,1,0,6.0000,-0.0000,1.42244,0.00071,-2.63053,1.05907,1.57080,0.11675,-0.12764,-0.48152,0.03738,,,,,,,,,,,,,,,,,,,,,,,,,,0,0,0,0,0
0.1414,1783967174.4352,1,0,6.0000,-0.0000,1.42244,0.00071,-2.63053,1.05907,1.57080,0.11675,-0.12764,-0.48152,0.03738,,,,,,,,,,,,,,,,,,,,,,,,,,0,0,0,0,0
0.1423,1783967174.4361,1,0,6.0000,-0.0000,1.42244,0.00071,-2.63053,1.05907,1.57080,0.11675,-0.12764,-0.48152,0.03738,,,,,,,,,,,,,,,,,,,,,,,,,,0,0,0,0,0
0.1458,1783967174.4396,1,0,6.0000,-0.0000,1.42244,0.00071,-2.63053,1.05907,1.57080,0.11675,-0.12764,-0.48152,0.03738,,,,,,,,,,,,,,,,,,,,,,,,,,0,0,0,0,0
0.1463,1783967174.4400,1,0,6.0000,-0.0000,1.42244,0.00071,-2.63053,1.05907,1.57080,0.11675,-0.12764,-0.48152,0.03738,,,,,,,,,,,,,,,,,,,,,,,,,,0,0,0,0,0
0.1515,1783967174.4453,1,0,6.0000,-0.0000,1.42244,0.00071,-2.63053,1.05907,1.57080,0.11675,-0.12764,-0.48152,0.03738,,,,,,,,,,,,,,,,,,,,,,,,,,0,0,0,0,0
0.1519,1783967174.4457,1,0,6.0000,-0.0000,1.42244,0.00071,-2.63053,1.05907,1.57080,0.11675,-0.12764,-0.48152,0.03738,,,,,,,,,,,,,,,,,,,,,,,,,,0,0,0,0,0
0.1537,1783967174.4475,1,0,6.0000,-0.0000,1.42244,0.00071,-2.63053,1.05907,1.57080,0.11675,-0.12764,-0.48152,0.03738,,,,,,,,,,,,,,,,,,,,,,,,,,0,0,0,0,0
0.1540,1783967174.4478,1,0,6.0000,-0.0000,1.42244,0.00071,-2.63053,1.05907,1.57080,0.11675,-0.12764,-0.48152,0.03738,,,,,,,,,,,,,,,,,,,,,,,,,,0,0,0,0,0
0.1658,1783967174.4595,1,0,6.0000,-0.0000,1.42244,0.00071,-2.63053,1.05907,1.57080,0.11675,-0.12764,-0.48152,0.03738,,,,,,,,,,,,,,,,,,,,,,,,,,0,0,0,0,0
0.1747,1783967174.4684,1,0,6.0000,-0.0000,1.42244,0.00071,-2.63053,1.05907,1.57080,0.11675,-0.12764,-0.48152,0.03738,,,,,,,,,,,,,,,,,,,,,,,,,,0,0,0,0,0
0.1766,1783967174.4704,1,0,6.0000,-0.0000,1.42244,0.00071,-2.63053,1.05907,1.57080,0.11675,-0.12764,-0.48152,0.03738,,,,,,,,,,,,,,,,,,,,,,,,,,0,0,0,0,0
0.1771,1783967174.4708,1,0,6.0000,-0.0000,1.42244,0.00071,-2.63053,1.05907,1.57080,0.11675,-0.12764,-0.48152,0.03738,,,,,,,,,,,,,,,,,,,,,,,,,,0,0,0,0,0
0.1851,1783967174.4789,1,0,6.0000,-0.0000,1.42244,0.00071,-2.63053,1.05907,1.57080,0.11675,-0.12764,-0.48152,0.03738,,,,,,,,,,,,,,,,,,,,,,,,,,0,0,0,0,0
0.1864,1783967174.4802,1,0,6.0000,-0.0000,1.42244,0.00071,-2.63053,1.05907,1.57080,0.11675,-0.12764,-0.48152,0.03738,,,,,,,,,,,,,,,,,,,,,,,,,,0,0,0,0,0
0.1902,1783967174.4839,1,0,6.0000,-0.0000,1.42244,0.00071,-2.63053,1.05907,1.57080,0.11675,-0.12764,-0.48152,0.03738,,,,,,,,,,,,,,,,,,,,,,,,,,0,0,0,0,0
0.1987,1783967174.4924,1,0,6.0000,-0.0000,1.42244,0.00071,-2.63053,1.05907,1.57080,0.11675,-0.12764,-0.48152,0.03738,,,,,,,,,,,,,,,,,,,,,,,,,,0,0,0,0,0
0.2111,1783967174.5048,1,0,6.0000,-0.0000,1.42244,0.00071,-2.63053,1.05907,1.57080,0.11675,-0.12764,-0.48152,0.03738,,,,,,,,,,,,,,,,,,,,,,,,,,0,0,0,0,0
0.2233,1783967174.5170,1,0,6.0000,-0.0000,1.42244,0.00071,-2.63053,1.05907,1.57080,0.11675,-0.12764,-0.48152,0.03738,,,,,,,,,,,,,,,,,,,,,,,,,,0,0,0,0,0
0.2264,1783967174.5202,1,0,6.0000,-0.0000,1.42244,0.00071,-2.63053,1.05907,1.57080,0.11675,-0.12764,-0.48152,0.03738,,,,,,,,,,,,,,,,,,,,,,,,,,0,0,0,0,0
0.2302,1783967174.5240,1,0,6.0000,-0.0000,1.42244,0.00071,-2.63053,1.05907,1.57080,0.11675,-0.12764,-0.48152,0.03738,,,,,,,,,,,,,,,,,,,,,,,,,,0,0,0,0,0
0.2327,1783967174.5265,1,0,6.0000,-0.0000,1.42244,0.00071,-2.63053,1.05907,1.57080,0.11675,-0.12764,-0.48152,0.03738,,,,,,,,,,,,,,,,,,,,,,,,,,0,0,0,0,0
0.2332,1783967174.5270,1,0,6.0000,-0.0000,1.42244,0.00071,-2.63053,1.05907,1.57080,0.11675,-0.12764,-0.48152,0.03738,,,,,,,,,,,,,,,,,,,,,,,,,,0,0,0,0,0
0.2337,1783967174.5274,1,0,6.0000,-0.0000,1.42244,0.00071,-2.63053,1.05907,1.57080,0.11675,-0.12764,-0.48152,0.03738,,,,,,,,,,,,,,,,,,,,,,,,,,0,0,0,0,0
0.2342,1783967174.5279,1,0,6.0000,-0.0000,1.42244,0.00071,-2.63053,1.05907,1.57080,0.11675,-0.12764,-0.48152,0.03738,,,,,,,,,,,,,,,,,,,,,,,,,,0,0,0,0,0
0.2365,1783967174.5303,1,0,6.0000,-0.0000,1.42244,0.00071,-2.63053,1.05907,1.57080,0.11675,-0.12764,-0.48152,0.03738,,,,,,,,,,,,,,,,,,,,,,,,,,0,0,0,0,0
0.2368,1783967174.5306,1,0,6.0000,-0.0000,1.42244,0.00071,-2.63053,1.05907,1.57080,0.11675,-0.12764,-0.48152,0.03738,,,,,,,,,,,,,,,,,,,,,,,,,,0,0,0,0,0
0.2372,1783967174.5310,1,0,6.0000,-0.0000,1.42244,0.00071,-2.63053,1.05907,1.57080,0.11675,-0.12764,-0.48152,0.03738,,,,,,,,,,,,,,,,,,,,,,,,,,0,0,0,0,0
0.2377,1783967174.5314,1,0,6.0000,-0.0000,1.42244,0.00071,-2.63053,1.05907,1.57080,0.11675,-0.12764,-0.48152,0.03738,,,,,,,,,,,,,,,,,,,,,,,,,,0,0,0,0,0
0.2381,1783967174.5319,1,0,6.0000,-0.0000,1.42244,0.00071,-2.63053,1.05907,1.57080,0.11675,-0.12764,-0.48152,0.03738,,,,,,,,,,,,,,,,,,,,,,,,,,0,0,0,0,0
0.2457,1783967174.5395,1,0,6.0000,-0.0000,1.42244,0.00071,-2.63053,1.05907,1.57080,0.11675,-0.12764,-0.48152,0.03738,,,,,,,,,,,,,,,,,,,,,,,,,,0,0,0,0,0
0.2462,1783967174.5400,1,0,6.0000,-0.0000,1.42244,0.00071,-2.63053,1.05907,1.57080,0.11675,-0.12764,-0.48152,0.03738,,,,,,,,,,,,,,,,,,,,,,,,,,0,0,0,0,0
0.2539,1783967174.5477,1,0,6.0000,-0.0000,1.42244,0.00071,-2.63053,1.05907,1.57080,0.11675,-0.12764,-0.48152,0.03738,,,,,,,,,,,,,,,,,,,,,,,,,,0,0,0,0,0
0.2544,1783967174.5481,1,0,6.0000,-0.0000,1.42244,0.00071,-2.63053,1.05907,1.57080,0.11675,-0.12764,-0.48152,0.03738,,,,,,,,,,,,,,,,,,,,,,,,,,0,0,0,0,0
0.2554,1783967174.5491,1,0,6.0000,-0.0000,1.42244,0.00071,-2.63053,1.05907,1.57080,0.11675,-0.12764,-0.48152,0.03738,,,,,,,,,,,,,,,,,,,,,,,,,,0,0,0,0,0
0.2556,1783967174.5494,1,0,6.0000,-0.0000,1.42244,0.00071,-2.63053,1.05907,1.57080,0.11675,-0.12764,-0.48152,0.03738,,,,,,,,,,,,,,,,,,,,,,,,,,0,0,0,0,0
0.2610,1783967174.5547,1,0,6.0000,-0.0000,1.42244,0.00071,-2.63053,1.05907,1.57080,0.11675,-0.12764,-0.48152,0.03738,,,,,,,,,,,,,,,,,,,,,,,,,,0,0,0,0,0
0.2627,1783967174.5564,1,0,6.0000,-0.0000,1.42244,0.00071,-2.63053,1.05907,1.57080,0.11675,-0.12764,-0.48152,0.03738,,,,,,,,,,,,,,,,,,,,,,,,,,0,0,0,0,0
0.2631,1783967174.5568,1,0,6.0000,-0.0000,1.42244,0.00071,-2.63053,1.05907,1.57080,0.11675,-0.12764,-0.48152,0.03738,,,,,,,,,,,,,,,,,,,,,,,,,,0,0,0,0,0
0.2634,1783967174.5572,1,0,6.0000,-0.0000,1.42244,0.00071,-2.63053,1.05907,1.57080,0.11675,-0.12764,-0.48152,0.03738,,,,,,,,,,,,,,,,,,,,,,,,,,0,0,0,0,0
0.2637,1783967174.5575,1,0,6.0000,-0.0000,1.42244,0.00071,-2.63053,1.05907,1.57080,0.11675,-0.12764,-0.48152,0.03738,,,,,,,,,,,,,,,,,,,,,,,,,,0,0,0,0,0
0.2640,1783967174.5578,1,0,6.0000,-0.0000,1.42244,0.00071,-2.63053,1.05907,1.57080,0.11675,-0.12764,-0.48152,0.03738,,,,,,,,,,,,,,,,,,,,,,,,,,0,0,0,0,0
0.2646,1783967174.5584,1,0,6.0000,-0.0000,1.42244,0.00071,-2.63053,1.05907,1.57080,0.11675,-0.12764,-0.48152,0.03738,,,,,,,,,,,,,,,,,,,,,,,,,,0,0,0,0,0
0.2768,1783967174.5705,1,0,6.0000,-0.0000,1.42244,0.00071,-2.63053,1.05907,1.57080,0.11675,-0.12764,-0.48152,0.03738,,,,,,,,,,,,,,,,,,,,,,,,,,0,0,0,0,0
0.2779,1783967174.5717,1,0,6.0000,-0.0000,1.42244,0.00071,-2.63053,1.05907,1.57080,0.11675,-0.12764,-0.48152,0.03738,,,,,,,,,,,,,,,,,,,,,,,,,,0,0,0,0,0
0.2795,1783967174.5733,1,0,6.0000,-0.0000,1.42244,0.00071,-2.63053,1.05907,1.57080,0.11675,-0.12764,-0.48152,0.03738,,,,,,,,,,,,,,,,,,,,,,,,,,0,0,0,0,0
0.2904,1783967174.5842,1,0,6.0000,-0.0000,1.42244,0.00071,-2.63053,1.05907,1.57080,0.11675,-0.12764,-0.48152,0.03738,,,,,,,,,,,,,,,,,,,,,,,,,,0,0,0,0,0
0.2993,1783967174.5930,1,0,6.0000,-0.0000,1.42244,0.00071,-2.63053,1.05907,1.57080,0.11675,-0.12764,-0.48152,0.03738,,,,,,,,,,,,,,,,,,,,,,,,,,0,0,0,0,0
0.3140,1783967174.6078,1,0,6.0000,-0.0000,1.42244,0.00071,-2.63053,1.05907,1.57080,0.11675,-0.12764,-0.48152,0.03738,,,,,,,,,,,,,,,,,,,,,,,,,,0,0,0,0,0
0.3212,1783967174.6150,1,0,6.0000,-0.0000,1.42244,0.00071,-2.63053,1.05907,1.57080,0.11675,-0.12764,-0.48152,0.03738,,,,,,,,,,,,,,,,,,,,,,,,,,0,0,0,0,0
0.3343,1783967174.6280,1,0,6.0000,-0.0000,1.42244,0.00071,-2.63053,1.05907,1.57080,0.11675,-0.12764,-0.48152,0.03738,,,,,,,,,,,,,,,,,,,,,,,,,,0,0,0,0,0
0.3384,1783967174.6322,1,0,6.0000,-0.0000,1.42244,0.00071,-2.63053,1.05907,1.57080,0.11675,-0.12764,-0.48152,0.03738,,,,,,,,,,,,,,,,,,,,,,,,,,0,0,0,0,0
0.3495,1783967174.6433,1,0,6.0000,-0.0000,1.42244,0.00071,-2.63053,1.05907,1.57080,0.11675,-0.12764,-0.48152,0.03738,,,,,,,,,,,,,,,,,,,,,,,,,,0,0,0,0,0
0.3589,1783967174.6526,1,0,6.0000,-0.0000,1.42244,0.00071,-2.63053,1.05907,1.57080,0.11675,-0.12764,-0.48152,0.03738,,,,,,,,,,,,,,,,,,,,,,,,,,0,0,0,0,0
0.3690,1783967174.6627,1,0,6.0000,-0.0000,1.42244,0.00071,-2.63053,1.05907,1.57080,0.11675,-0.12764,-0.48152,0.03738,,,,,,,,,,,,,,,,,,,,,,,,,,0,0,0,0,0
0.3786,1783967174.6723,1,0,6.0000,-0.0000,1.42244,0.00071,-2.63053,1.05907,1.57080,0.11675,-0.12764,-0.48152,0.03738,,,,,,,,,,,,,,,,,,,,,,,,,,0,0,0,0,0
0.3888,1783967174.6825,1,0,6.0000,-0.0000,1.42244,0.00071,-2.63053,1.05907,1.57080,0.11675,-0.12764,-0.48152,0.03738,,,,,,,,,,,,,,,,,,,,,,,,,,0,0,0,0,0
0.4098,1783967174.7035,1,0,6.0000,-0.0000,1.42244,0.00071,-2.63053,1.05907,1.57080,0.11675,-0.12764,-0.48152,0.03738,,,,,,,,,,,,,,,,,,,,,,,,,,0,0,0,0,0
0.4103,1783967174.7041,1,0,6.0000,-0.0000,1.42244,0.00071,-2.63053,1.05907,1.57080,0.11675,-0.12764,-0.48152,0.03738,,,,,,,,,,,,,,,,,,,,,,,,,,0,0,0,0,0
0.4223,1783967174.7160,1,0,6.0000,-0.0000,1.42244,0.00071,-2.63053,1.05907,1.57080,0.11675,-0.12764,-0.48152,0.03738,,,,,,,,,,,,,,,,,,,,,,,,,,0,0,0,0,0
0.4286,1783967174.7223,1,0,6.0000,-0.0000,1.42244,0.00071,-2.63053,1.05907,1.57080,0.11675,-0.12764,-0.48152,0.03738,,,,,,,,,,,,,,,,,,,,,,,,,,0,0,0,0,0
0.4394,1783967174.7331,1,0,6.0000,-0.0000,1.42244,0.00071,-2.63053,1.05907,1.57080,0.11675,-0.12764,-0.48152,0.03738,,,,,,,,,,,,,,,,,,,,,,,,,,0,0,0,0,0
0.4487,1783967174.7424,1,0,6.0000,-0.0000,1.42244,0.00071,-2.63053,1.05907,1.57080,0.11675,-0.12764,-0.48152,0.03738,,,,,,,,,,,,,,,,,,,,,,,,,,0,0,0,0,0
0.4587,1783967174.7524,1,0,6.0000,-0.0000,1.42244,0.00071,-2.63053,1.05907,1.57080,0.11675,-0.12764,-0.48152,0.03738,,,,,,,,,,,,,,,,,,,,,,,,,,0,0,0,0,0
0.4592,1783967174.7530,1,0,6.0000,-0.0000,1.42244,0.00071,-2.63053,1.05907,1.57080,0.11675,-0.12764,-0.48152,0.03738,,,,,,,,,,,,,,,,,,,,,,,,,,0,0,0,0,0
0.4721,1783967174.7658,1,0,6.0000,-0.0000,1.42244,0.00071,-2.63053,1.05907,1.57080,0.11675,-0.12764,-0.48152,0.03738,,,,,,,,,,,,,,,,,,,,,,,,,,0,0,0,0,0
0.4727,1783967174.7664,1,0,6.0000,-0.0000,1.42244,0.00071,-2.63053,1.05907,1.57080,0.11675,-0.12764,-0.48152,0.03738,,,,,,,,,,,,,,,,,,,,,,,,,,0,0,0,0,0
0.4967,1783967174.7905,1,0,6.0000,-0.0000,1.42244,0.00071,-2.63053,1.05907,1.57080,0.11675,-0.12764,-0.48152,0.03738,,,,,,,,,,,,,,,,,,,,,,,,,,0,0,0,0,0
0.4998,1783967174.7936,1,0,6.0000,-0.0000,1.42244,0.00071,-2.63053,1.05907,1.57080,0.11675,-0.12764,-0.48152,0.03738,,,,,,,,,,,,,,,,,,,,,,,,,,0,0,0,0,0
0.5022,1783967174.7959,1,0,6.0000,-0.0000,1.42244,0.00071,-2.63053,1.05907,1.57080,0.11675,-0.12764,-0.48152,0.03738,,,,,,,,,,,,,,,,,,,,,,,,,,0,0,0,0,0
0.5025,1783967174.7962,1,0,6.0000,-0.0000,1.42244,0.00071,-2.63053,1.05907,1.57080,0.11675,-0.12764,-0.48152,0.03738,,,,,,,,,,,,,,,,,,,,,,,,,,0,0,0,0,0
0.5113,1783967174.8050,1,0,6.0000,-0.0000,1.42244,0.00071,-2.63053,1.05907,1.57080,0.11675,-0.12764,-0.48152,0.03738,,,,,,,,,,,,,,,,,,,,,,,,,,0,0,0,0,0
0.5217,1783967174.8155,1,0,6.0000,-0.0000,1.42244,0.00071,-2.63053,1.05907,1.57080,0.11675,-0.12764,-0.48152,0.03738,,,,,,,,,,,,,,,,,,,,,,,,,,0,0,0,0,0
0.5296,1783967174.8234,1,0,6.0000,-0.0000,1.42244,0.00071,-2.63053,1.05907,1.57080,0.11675,-0.12764,-0.48152,0.03738,,,,,,,,,,,,,,,,,,,,,,,,,,0,0,0,0,0
0.5299,1783967174.8237,1,0,6.0000,-0.0000,1.42244,0.00071,-2.63053,1.05907,1.57080,0.11675,-0.12764,-0.48152,0.03738,,,,,,,,,,,,,,,,,,,,,,,,,,0,0,0,0,0
0.5437,1783967174.8375,1,0,6.0000,-0.0000,1.42244,0.00071,-2.63053,1.05907,1.57080,0.11675,-0.12764,-0.48152,0.03738,,,,,,,,,,,,,,,,,,,,,,,,,,0,0,0,0,0
0.5505,1783967174.8442,1,0,6.0000,-0.0000,1.42244,0.00071,-2.63053,1.05907,1.57080,0.11675,-0.12764,-0.48152,0.03738,,,,,,,,,,,,,,,,,,,,,,,,,,0,0,0,0,0
0.5688,1783967174.8625,1,0,6.0000,-0.0000,1.42244,0.00071,-2.63053,1.05907,1.57080,0.11675,-0.12764,-0.48152,0.03738,,,,,,,,,,,,,,,,,,,,,,,,,,0,0,0,0,0
0.5699,1783967174.8637,1,0,6.0000,-0.0000,1.42244,0.00071,-2.63053,1.05907,1.57080,0.11675,-0.12764,-0.48152,0.03738,,,,,,,,,,,,,,,,,,,,,,,,,,0,0,0,0,0
0.5703,1783967174.8640,1,0,6.0000,-0.0000,1.42244,0.00071,-2.63053,1.05907,1.57080,0.11675,-0.12764,-0.48152,0.03738,,,,,,,,,,,,,,,,,,,,,,,,,,0,0,0,0,0
0.5812,1783967174.8750,1,0,6.0000,-0.0000,1.42244,0.00071,-2.63053,1.05907,1.57080,0.11675,-0.12764,-0.48152,0.03738,,,,,,,,,,,,,,,,,,,,,,,,,,0,0,0,0,0
0.5816,1783967174.8754,1,0,6.0000,-0.0000,1.42244,0.00071,-2.63053,1.05907,1.57080,0.11675,-0.12764,-0.48152,0.03738,,,,,,,,,,,,,,,,,,,,,,,,,,0,0,0,0,0
0.5946,1783967174.8884,1,0,6.0000,-0.0000,1.42244,0.00071,-2.63053,1.05907,1.57080,0.11675,-0.12764,-0.48152,0.03738,,,,,,,,,,,,,,,,,,,,,,,,,,0,0,0,0,0
0.6017,1783967174.8955,1,0,6.0000,-0.0000,1.42244,0.00071,-2.63053,1.05907,1.57080,0.11675,-0.12764,-0.48152,0.03738,,,,,,,,,,,,,,,,,,,,,,,,,,0,0,0,0,0
0.6147,1783967174.9085,1,0,6.0000,-0.0000,1.42244,0.00071,-2.63053,1.05907,1.57080,0.11675,-0.12764,-0.48152,0.03738,,,,,,,,,,,,,,,,,,,,,,,,,,0,0,0,0,0
0.6151,1783967174.9089,1,0,6.0000,-0.0000,1.42244,0.00071,-2.63053,1.05907,1.57080,0.11675,-0.12764,-0.48152,0.03738,,,,,,,,,,,,,,,,,,,,,,,,,,0,0,0,0,0
0.6212,1783967174.9149,1,0,6.0000,-0.0000,1.42244,0.00071,-2.63053,1.05907,1.57080,0.11675,-0.12764,-0.48152,0.03738,,,,,,,,,,,,,,,,,,,,,,,,,,0,0,0,0,0
0.6216,1783967174.9154,1,0,6.0000,-0.0000,1.42244,0.00071,-2.63053,1.05907,1.57080,0.11675,-0.12764,-0.48152,0.03738,,,,,,,,,,,,,,,,,,,,,,,,,,0,0,0,0,0
0.6410,1783967174.9348,1,0,6.0000,-0.0000,1.42244,0.00071,-2.63053,1.05907,1.57080,0.11675,-0.12764,-0.48152,0.03738,,,,,,,,,,,,,,,,,,,,,,,,,,0,0,0,0,0
0.6859,1783967174.9796,1,0,6.0000,-0.0000,1.42244,0.00071,-2.63053,1.05907,1.57080,0.11675,-0.12764,-0.48152,0.03738,,,,,,,,,,,,,,,,,,,,,,,,,,0,0,0,0,0
0.6862,1783967174.9800,1,0,6.0000,-0.0000,1.42244,0.00071,-2.63053,1.05907,1.57080,0.11675,-0.12764,-0.48152,0.03738,,,,,,,,,,,,,,,,,,,,,,,,,,0,0,0,0,0
0.6878,1783967174.9816,1,0,6.0000,-0.0000,1.42244,0.00071,-2.63053,1.05907,1.57080,0.11675,-0.12764,-0.48152,0.03738,,,,,,,,,,,,,,,,,,,,,,,,,,0,0,0,0,0
0.6883,1783967174.9820,1,0,6.0000,-0.0000,1.42244,0.00071,-2.63053,1.05907,1.57080,0.11675,-0.12764,-0.48152,0.03738,,,,,,,,,,,,,,,,,,,,,,,,,,0,0,0,0,0
0.6895,1783967174.9833,1,0,6.0000,-0.0000,1.42244,0.00071,-2.63053,1.05907,1.57080,0.11675,-0.12764,-0.48152,0.03738,,,,,,,,,,,,,,,,,,,,,,,,,,0,0,0,0,0
0.6898,1783967174.9836,1,0,6.0000,-0.0000,1.42244,0.00071,-2.63053,1.05907,1.57080,0.11675,-0.12764,-0.48152,0.03738,,,,,,,,,,,,,,,,,,,,,,,,,,0,0,0,0,0
0.7007,1783967174.9944,1,0,6.0000,-0.0000,1.42244,0.00071,-2.63053,1.05907,1.57080,0.11675,-0.12764,-0.48152,0.03738,,,,,,,,,,,,,,,,,,,,,,,,,,0,0,0,0,0
0.7010,1783967174.9948,1,0,6.0000,-0.0000,1.42244,0.00071,-2.63053,1.05907,1.57080,0.11675,-0.12764,-0.48152,0.03738,,,,,,,,,,,,,,,,,,,,,,,,,,0,0,0,0,0
0.7237,1783967175.0174,1,0,6.0000,-0.0000,1.42244,0.00071,-2.63053,1.05907,1.57080,0.11675,-0.12764,-0.48152,0.03738,,,,,,,,,,,,,,,,,,,,,,,,,,0,0,0,0,0
0.7289,1783967175.0226,1,1,6.0000,-0.0000,1.42244,0.00071,-2.63053,1.05907,1.57080,0.11675,-0.12764,-0.48152,0.03738,,,,,,,,,,,,,,,,,,,,,,,,,,0,0,0,0,0
0.7291,1783967175.0228,1,1,6.0000,-0.0000,1.42244,0.00071,-2.63053,1.05907,1.57080,0.11675,-0.12764,-0.48152,0.03738,,,,,,,,,,,,,,,,,,,,,,,,,,0,0,0,0,0
0.7358,1783967175.0296,1,1,6.0000,-0.0000,1.42244,0.00071,-2.63053,1.05907,1.57080,0.11675,-0.12764,-0.48152,0.03738,,,,,,,,,,,,,,,,,,,,,,,,,,0,0,0,0,0
0.7363,1783967175.0300,1,1,6.0000,-0.0000,1.42244,0.00071,-2.63053,1.05907,1.57080,0.11675,-0.12764,-0.48152,0.03738,,,,,,,,,,,,,,,,,,,,,,,,,,0,0,0,0,0
0.7436,1783967175.0374,1,1,6.0000,-0.0000,1.42244,0.00071,-2.63053,1.05907,1.57080,0.11675,-0.12764,-0.48152,0.03738,,,,,,,,,,,,,,,,,,,,,,,,,,0,0,0,0,0
0.7560,1783967175.0498,1,1,6.0000,-0.0000,1.42244,0.00071,-2.63053,1.05907,1.57080,0.11675,-0.12764,-0.48152,0.03738,,,,,,,,,,,,,,,,,,,,,,,,,,0,0,0,0,0
0.7607,1783967175.0544,1,1,6.0000,-0.0000,1.42244,0.00071,-2.63053,1.05907,1.57080,0.11675,-0.12764,-0.48152,0.03738,,,,,,,,,,,,,,,,,,,,,,,,,,0,0,0,0,0
0.7716,1783967175.0654,1,1,6.0000,-0.0000,1.42244,0.00071,-2.63053,1.05907,1.57080,0.11675,-0.12764,-0.48152,0.03738,,,,,,,,,,,,,,,,,,,,,,,,,,0,0,0,0,0
0.7862,1783967175.0799,1,1,6.0000,-0.0000,1.42244,0.00071,-2.63053,1.05907,1.57080,0.11675,-0.12764,-0.48152,0.03738,,,,,,,,,,,,,,,,,,,,,,,,,,0,0,0,0,0
0.7904,1783967175.0842,1,1,6.0000,-0.0000,1.42244,0.00071,-2.63053,1.05907,1.57080,0.11675,-0.12764,-0.48152,0.03738,,,,,,,,,,,,,,,,,,,,,,,,,,0,0,0,0,0
0.7907,1783967175.0845,1,1,6.0000,-0.0000,1.42244,0.00071,-2.63053,1.05907,1.57080,0.11675,-0.12764,-0.48152,0.03738,,,,,,,,,,,,,,,,,,,,,,,,,,0,0,0,0,0
0.8010,1783967175.0947,1,1,6.0000,-0.0000,1.42244,0.00071,-2.63053,1.05907,1.57080,0.11675,-0.12764,-0.48152,0.03738,,,,,,,,,,,,,,,,,,,,,,,,,,0,0,0,0,0
0.8250,1783967175.1187,1,1,6.0000,-0.0000,1.42244,0.00071,-2.63053,1.05907,1.57080,0.11675,-0.12764,-0.48152,0.03738,,,,,,,,,,,,,,,,,,,,,,,,,,0,0,0,0,0
0.8255,1783967175.1192,1,1,6.0000,-0.0000,1.42244,0.00071,-2.63053,1.05907,1.57080,0.11675,-0.12764,-0.48152,0.03738,,,,,,,,,,,,,,,,,,,,,,,,,,0,0,0,0,0
0.8360,1783967175.1297,1,1,6.0000,-0.0000,1.42244,0.00071,-2.63053,1.05907,1.57080,0.11675,-0.12764,-0.48152,0.03738,,,,,,,,,,,,,,,,,,,,,,,,,,0,0,0,0,0
0.8449,1783967175.1387,1,1,6.0000,-0.0000,1.42244,0.00071,-2.63053,1.05907,1.57080,0.11675,-0.12764,-0.48152,0.03738,,,,,,,,,,,,,,,,,,,,,,,,,,0,0,0,0,0
0.8453,1783967175.1391,1,1,6.0000,-0.0000,1.42244,0.00071,-2.63053,1.05907,1.57080,0.11675,-0.12764,-0.48152,0.03738,,,,,,,,,,,,,,,,,,,,,,,,,,0,0,0,0,0
0.8510,1783967175.1447,1,1,6.0000,-0.0000,1.42244,0.00071,-2.63053,1.05907,1.57080,0.11675,-0.12764,-0.48152,0.03738,,,,,,,,,,,,,,,,,,,,,,,,,,0,0,0,0,0
0.8528,1783967175.1466,1,1,6.0000,-0.0000,1.42244,0.00071,-2.63053,1.05907,1.57080,0.11675,-0.12764,-0.48152,0.03738,,,,,,,,,,,,,,,,,,,,,,,,,,0,0,0,0,0
0.8532,1783967175.1469,1,1,6.0000,-0.0000,1.42244,0.00071,-2.63053,1.05907,1.57080,0.11675,-0.12764,-0.48152,0.03738,,,,,,,,,,,,,,,,,,,,,,,,,,0,0,0,0,0
0.8597,1783967175.1535,1,1,6.0000,-0.0000,1.42244,0.00071,-2.63053,1.05907,1.57080,0.11675,-0.12764,-0.48152,0.03738,,,,,,,,,,,,,,,,,,,,,,,,,,0,0,0,0,0
0.8601,1783967175.1538,1,1,6.0000,-0.0000,1.42244,0.00071,-2.63053,1.05907,1.57080,0.11675,-0.12764,-0.48152,0.03738,,,,,,,,,,,,,,,,,,,,,,,,,,0,0,0,0,0
0.8695,1783967175.1632,1,1,6.0000,-0.0000,1.42244,0.00071,-2.63053,1.05907,1.57080,0.11675,-0.12764,-0.48152,0.03738,,,,,,,,,,,,,,,,,,,,,,,,,,0,0,0,0,0
0.8697,1783967175.1635,1,1,6.0000,-0.0000,1.42244,0.00071,-2.63053,1.05907,1.57080,0.11675,-0.12764,-0.48152,0.03738,,,,,,,,,,,,,,,,,,,,,,,,,,0,0,0,0,0
0.8810,1783967175.1747,1,1,6.0000,-0.0000,1.42244,0.00071,-2.63053,1.05907,1.57080,0.11675,-0.12764,-0.48152,0.03738,,,,,,,,,,,,,,,,,,,,,,,,,,0,0,0,0,0
0.8813,1783967175.1750,1,1,6.0000,-0.0000,1.42244,0.00071,-2.63053,1.05907,1.57080,0.11675,-0.12764,-0.48152,0.03738,,,,,,,,,,,,,,,,,,,,,,,,,,0,0,0,0,0
0.8900,1783967175.1837,1,1,6.0000,-0.0000,1.42244,0.00071,-2.63053,1.05907,1.57080,0.11675,-0.12764,-0.48152,0.03738,,,,,,,,,,,,,,,,,,,,,,,,,,0,0,0,0,0
0.8902,1783967175.1840,1,1,6.0000,-0.0000,1.42244,0.00071,-2.63053,1.05907,1.57080,0.11675,-0.12764,-0.48152,0.03738,,,,,,,,,,,,,,,,,,,,,,,,,,0,0,0,0,0
0.9004,1783967175.1941,1,1,6.0000,-0.0000,1.42244,0.00071,-2.63053,1.05907,1.57080,0.11675,-0.12764,-0.48152,0.03738,,,,,,,,,,,,,,,,,,,,,,,,,,0,0,0,0,0
0.9111,1783967175.2048,1,1,6.0000,-0.0000,1.42244,0.00071,-2.63053,1.05907,1.57080,0.11675,-0.12764,-0.48152,0.03738,,,,,,,,,,,,,,,,,,,,,,,,,,0,0,0,0,0
0.9114,1783967175.2052,1,1,6.0000,-0.0000,1.42244,0.00071,-2.63053,1.05907,1.57080,0.11675,-0.12764,-0.48152,0.03738,,,,,,,,,,,,,,,,,,,,,,,,,,0,0,0,0,0
0.9289,1783967175.2227,1,1,6.0000,-0.0000,1.42244,0.00071,-2.63053,1.05907,1.57080,0.11675,-0.12764,-0.48152,0.03738,,,,,,,,,,,,,,,,,,,,,,,,,,0,0,0,0,0
0.9355,1783967175.2292,1,1,6.0000,-0.0000,1.42244,0.00071,-2.63053,1.05907,1.57080,0.11675,-0.12764,-0.48152,0.03738,,,,,,,,,,,,,,,,,,,,,,,,,,0,0,0,0,0
0.9403,1783967175.2340,1,1,6.0000,-0.0000,1.42244,0.00071,-2.63053,1.05907,1.57080,0.11675,-0.12764,-0.48152,0.03738,,,,,,,,,,,,,,,,,,,,,,,,,,0,0,0,0,0
0.9408,1783967175.2346,1,1,6.0000,-0.0000,1.42244,0.00071,-2.63053,1.05907,1.57080,0.11675,-0.12764,-0.48152,0.03738,,,,,,,,,,,,,,,,,,,,,,,,,,0,0,0,0,0
0.9514,1783967175.2451,1,1,6.0000,-0.0000,1.42244,0.00071,-2.63053,1.05907,1.57080,0.11675,-0.12764,-0.48152,0.03738,,,,,,,,,,,,,,,,,,,,,,,,,,0,0,0,0,0
0.9640,1783967175.2577,1,1,6.0000,-0.0000,1.42244,0.00071,-2.63053,1.05907,1.57080,0.11675,-0.12764,-0.48152,0.03738,,,,,,,,,,,,,,,,,,,,,,,,,,0,0,0,0,0
0.9707,1783967175.2645,1,1,6.0000,-0.0000,1.42244,0.00071,-2.63053,1.05907,1.57080,0.11675,-0.12764,-0.48152,0.03738,,,,,,,,,,,,,,,,,,,,,,,,,,0,0,0,0,0
0.9711,1783967175.2648,1,1,6.0000,-0.0000,1.42244,0.00071,-2.63053,1.05907,1.57080,0.11675,-0.12764,-0.48152,0.03738,,,,,,,,,,,,,,,,,,,,,,,,,,0,0,0,0,0
0.9785,1783967175.2722,1,1,6.0000,-0.0000,1.42244,0.00071,-2.63053,1.05907,1.57080,0.11675,-0.12764,-0.48152,0.03738,,,,,,,,,,,,,,,,,,,,,,,,,,0,0,0,0,0
0.9896,1783967175.2834,1,1,6.0000,-0.0000,1.42244,0.00071,-2.63053,1.05907,1.57080,0.11675,-0.12764,-0.48152,0.03738,,,,,,,,,,,,,,,,,,,,,,,,,,0,0,0,0,0
0.9899,1783967175.2836,1,1,6.0000,-0.0000,1.42244,0.00071,-2.63053,1.05907,1.57080,0.11675,-0.12764,-0.48152,0.03738,,,,,,,,,,,,,,,,,,,,,,,,,,0,0,0,0,0
1.0110,1783967175.3047,1,1,6.0000,-0.0000,1.42244,0.00071,-2.63053,1.05907,1.57080,0.11675,-0.12764,-0.48152,0.03738,,,,,,,,,,,,,,,,,,,,,,,,,,0,0,0,0,0
1.0114,1783967175.3052,1,1,6.0000,-0.0000,1.42244,0.00071,-2.63053,1.05907,1.57080,0.11675,-0.12764,-0.48152,0.03738,,,,,,,,,,,,,,,,,,,,,,,,,,0,0,0,0,0
1.0243,1783967175.3180,1,1,6.0000,-0.0000,1.42244,0.00071,-2.63053,1.05907,1.57080,0.11675,-0.12764,-0.48152,0.03738,,,,,,,,,,,,,,,,,,,,,,,,,,0,0,0,0,0
1.0250,1783967175.3187,1,1,6.0000,-0.0000,1.42244,0.00071,-2.63053,1.05907,1.57080,0.11675,-0.12764,-0.48152,0.03738,,,,,,,,,,,,,,,,,,,,,,,,,,0,0,0,0,0
1.0252,1783967175.3190,1,1,6.0000,-0.0000,1.42244,0.00071,-2.63053,1.05907,1.57080,0.11675,-0.12764,-0.48152,0.03738,,,,,,,,,,,,,,,,,,,,,,,,,,0,0,0,0,0
1.0414,1783967175.3352,1,1,6.0000,-0.0000,1.42244,0.00071,-2.63053,1.05907,1.57080,0.11675,-0.12764,-0.48152,0.03738,,,,,,,,,,,,,,,,,,,,,,,,,,0,0,0,0,0
1.0671,1783967175.3609,1,1,6.0000,-0.0000,1.42244,0.00067,-2.63058,1.05908,1.57080,0.11675,-0.12764,-0.48149,0.03734,,,,,,,,,,,,,,,,,,,,,,,,,,0,0,0,0,0
1.0743,1783967175.3681,1,1,6.0000,-0.0000,1.42244,0.00065,-2.63059,1.05909,1.57080,0.11675,-0.12764,-0.48147,0.03733,,,,,,,,,,,,,,,,,,,,,,,,,,0,0,0,0,0
1.0746,1783967175.3683,1,1,6.0000,-0.0000,1.42244,0.00065,-2.63059,1.05909,1.57080,0.11675,-0.12764,-0.48147,0.03733,,,,,,,,,,,,,,,,,,,,,,,,,,0,0,0,0,0
1.0817,1783967175.3755,1,1,6.0000,-0.0000,1.42244,0.00060,-2.63062,1.05911,1.57080,0.11675,-0.12765,-0.48145,0.03730,,,,,,,,,,,,,,,,,,,,,,,,,,0,0,0,0,0
1.0821,1783967175.3759,1,1,6.0000,-0.0000,1.42244,0.00060,-2.63062,1.05911,1.57080,0.11675,-0.12765,-0.48145,0.03730,,,,,,,,,,,,,,,,,,,,,,,,,,0,0,0,0,0
1.0837,1783967175.3775,1,1,6.0000,-0.0000,1.42244,0.00060,-2.63062,1.05911,1.57080,0.11675,-0.12765,-0.48145,0.03730,,,,,,,,,,,,,,,,,,,,,,,,,,0,0,0,0,0
1.0943,1783967175.3880,1,1,6.0000,-0.0000,1.42244,0.00055,-2.63066,1.05914,1.57080,0.11675,-0.12765,-0.48142,0.03726,,,,,,,,,,,,,,,,,,,,,,,,,,0,0,0,0,0
1.0992,1783967175.3929,1,1,6.0000,-0.0000,1.42244,0.00054,-2.63066,1.05914,1.57080,0.11675,-0.12765,-0.48142,0.03726,,,,,,,,,,,,,,,,,,,,,,,,,,0,0,0,0,0
1.0998,1783967175.3935,1,1,6.0000,-0.0000,1.42244,0.00054,-2.63066,1.05914,1.57080,0.11675,-0.12765,-0.48142,0.03726,,,,,,,,,,,,,,,,,,,,,,,,,,0,0,0,0,0
1.1134,1783967175.4072,1,1,6.0000,-0.0000,1.42244,0.00046,-2.63069,1.05922,1.57080,0.11675,-0.12765,-0.48141,0.03722,,,,,,,,,,,,,,,,,,,,,,,,,,0,0,0,0,0
1.1320,1783967175.4258,1,1,6.0000,-0.0000,1.42244,0.00037,-2.63071,1.05931,1.57080,0.11675,-0.12765,-0.48140,0.03719,,,,,,,,,,,,,,,,,,,,,,,,,,0,0,0,0,0
1.1324,1783967175.4261,1,1,6.0000,-0.0000,1.42244,0.00037,-2.63071,1.05931,1.57080,0.11675,-0.12765,-0.48140,0.03719,,,,,,,,,,,,,,,,,,,,,,,,,,0,0,0,0,0
1.1401,1783967175.4339,1,1,6.0000,-0.0000,1.42244,0.00033,-2.63072,1.05936,1.57080,0.11675,-0.12765,-0.48140,0.03717,,,,,,,,,,,,,,,,,,,,,,,,,,0,0,0,0,0
1.1412,1783967175.4349,1,1,6.0000,-0.0000,1.42244,0.00029,-2.63073,1.05940,1.57080,0.11675,-0.12765,-0.48140,0.03716,,,,,,,,,,,,,,,,,,,,,,,,,,0,0,0,0,0
1.1416,1783967175.4354,1,1,6.0000,-0.0000,1.42244,0.00029,-2.63073,1.05940,1.57080,0.11675,-0.12765,-0.48140,0.03716,,,,,,,,,,,,,,,,,,,,,,,,,,0,0,0,0,0
1.1522,1783967175.4459,1,1,6.0000,-0.0000,1.42244,0.00025,-2.63073,1.05945,1.57080,0.11675,-0.12765,-0.48140,0.03715,,,,,,,,,,,,,,,,,,,,,,,,,,0,0,0,0,0
1.1657,1783967175.4595,1,1,6.0000,-0.0000,1.42244,0.00016,-2.63075,1.05956,1.57080,0.11675,-0.12765,-0.48141,0.03712,,,,,,,,,,,,,,,,,,,,,,,,,,0,0,0,0,0
1.1689,1783967175.4627,1,1,6.0000,-0.0000,1.42244,0.00011,-2.63076,1.05962,1.57080,0.11675,-0.12765,-0.48141,0.03710,,,,,,,,,,,,,,,,,,,,,,,,,,0,0,0,0,0
1.1693,1783967175.4630,1,1,6.0000,-0.0000,1.42244,0.00011,-2.63076,1.05962,1.57080,0.11675,-0.12765,-0.48141,0.03710,,,,,,,,,,,,,,,,,,,,,,,,,,0,0,0,0,0
1.1863,1783967175.4800,1,1,6.0000,-0.0000,1.42244,-0.00005,-2.63079,1.05982,1.57080,0.11675,-0.12765,-0.48141,0.03705,,,,,,,,,,,,,,,,,,,,,,,,,,0,0,0,0,0
1.1946,1783967175.4884,1,1,6.0000,-0.0000,1.42244,-0.00007,-2.63079,1.05984,1.57080,0.11675,-0.12765,-0.48142,0.03704,,,,,,,,,,,,,,,,,,,,,,,,,,0,0,0,0,0
1.1995,1783967175.4933,1,1,6.0000,-0.0000,1.42244,-0.00009,-2.63079,1.05986,1.57080,0.11675,-0.12765,-0.48142,0.03704,,,,,,,,,,,,,,,,,,,,,,,,,,0,0,0,0,0
1.1999,1783967175.4936,1,1,6.0000,-0.0000,1.42244,-0.00009,-2.63079,1.05986,1.57080,0.11675,-0.12765,-0.48142,0.03704,,,,,,,,,,,,,,,,,,,,,,,,,,0,0,0,0,0
1.2107,1783967175.5045,1,1,6.0000,-0.0000,1.42244,-0.00018,-2.63080,1.05998,1.57080,0.11675,-0.12765,-0.48143,0.03702,,,,,,,,,,,,,,,,,,,,,,,,,,0,0,0,0,0
1.2210,1783967175.5148,1,1,6.0000,-0.0000,1.42244,-0.00029,-2.63080,1.06013,1.57080,0.11675,-0.12764,-0.48145,0.03699,,,,,,,,,,,,,,,,,,,,,,,,,,0,0,0,0,0
1.2214,1783967175.5152,1,1,6.0000,-0.0000,1.42244,-0.00029,-2.63080,1.06013,1.57080,0.11675,-0.12764,-0.48145,0.03699,,,,,,,,,,,,,,,,,,,,,,,,,,0,0,0,0,0
1.2363,1783967175.5301,1,1,6.0000,-0.0000,1.42244,-0.00040,-2.63079,1.06028,1.57080,0.11675,-0.12764,-0.48148,0.03697,,,,,,,,,,,,,,,,,,,,,,,,,,0,0,0,0,0
1.2391,1783967175.5328,1,1,6.0000,-0.0000,1.42244,-0.00043,-2.63079,1.06032,1.57080,0.11675,-0.12764,-0.48149,0.03697,,,,,,,,,,,,,,,,,,,,,,,,,,0,0,0,0,0
1.2557,1783967175.5495,1,1,6.0000,-0.0000,1.42244,-0.00047,-2.63077,1.06038,1.57080,0.11675,-0.12764,-0.48151,0.03697,,,,,,,,,,,,,,,,,,,,,,,,,,0,0,0,0,0
1.2590,1783967175.5527,1,1,6.0000,-0.0000,1.42244,-0.00047,-2.63077,1.06038,1.57080,0.11675,-0.12764,-0.48151,0.03697,,,,,,,,,,,,,,,,,,,,,,,,,,0,0,0,0,0
1.2593,1783967175.5531,1,1,6.0000,-0.0000,1.42244,-0.00047,-2.63077,1.06038,1.57080,0.11675,-0.12764,-0.48151,0.03697,,,,,,,,,,,,,,,,,,,,,,,,,,0,0,0,0,0
1.2693,1783967175.5631,1,1,6.0000,-0.0000,1.42244,-0.00047,-2.63077,1.06038,1.57080,0.11675,-0.12764,-0.48151,0.03697,,,,,,,,,,,,,,,,,,,,,,,,,,0,0,0,0,0
1.2798,1783967175.5736,1,1,6.0000,-0.0000,1.42244,-0.00047,-2.63077,1.06038,1.57080,0.11675,-0.12764,-0.48151,0.03697,,,,,,,,,,,,,,,,,,,,,,,,,,0,0,0,0,0
1.2896,1783967175.5834,1,1,6.0000,-0.0000,1.42244,-0.00047,-2.63077,1.06038,1.57080,0.11675,-0.12764,-0.48151,0.03697,,,,,,,,,,,,,,,,,,,,,,,,,,0,0,0,0,0
1.2982,1783967175.5920,1,1,6.0000,-0.0000,1.42244,-0.00047,-2.63077,1.06038,1.57080,0.11675,-0.12764,-0.48151,0.03697,,,,,,,,,,,,,,,,,,,,,,,,,,0,0,0,0,0
1.3129,1783967175.6066,1,1,6.0000,-0.0000,1.42244,-0.00047,-2.63077,1.06038,1.57080,0.11675,-0.12764,-0.48151,0.03697,,,,,,,,,,,,,,,,,,,,,,,,,,0,0,0,0,0
1.3195,1783967175.6132,1,1,6.0000,-0.0000,1.42244,-0.00047,-2.63077,1.06038,1.57080,0.11675,-0.12764,-0.48151,0.03697,,,,,,,,,,,,,,,,,,,,,,,,,,0,0,0,0,0
1.3198,1783967175.6136,1,1,6.0000,-0.0000,1.42244,-0.00047,-2.63077,1.06038,1.57080,0.11675,-0.12764,-0.48151,0.03697,,,,,,,,,,,,,,,,,,,,,,,,,,0,0,0,0,0
1.3409,1783967175.6346,1,1,6.0000,-0.0000,1.42244,-0.00047,-2.63077,1.06038,1.57080,0.11675,-0.12764,-0.48151,0.03697,,,,,,,,,,,,,,,,,,,,,,,,,,0,0,0,0,0
1.3437,1783967175.6374,1,1,6.0000,-0.0000,1.42244,-0.00047,-2.63077,1.06038,1.57080,0.11675,-0.12764,-0.48151,0.03697,,,,,,,,,,,,,,,,,,,,,,,,,,0,0,0,0,0
1.3508,1783967175.6445,1,1,6.0000,-0.0000,1.42244,-0.00047,-2.63077,1.06038,1.57080,0.11675,-0.12764,-0.48151,0.03697,,,,,,,,,,,,,,,,,,,,,,,,,,0,0,0,0,0
1.3592,1783967175.6530,1,1,6.0000,-0.0000,1.42244,-0.00047,-2.63077,1.06038,1.57080,0.11675,-0.12764,-0.48151,0.03697,,,,,,,,,,,,,,,,,,,,,,,,,,0,0,0,0,0
1.3696,1783967175.6634,1,1,6.0000,-0.0000,1.42244,-0.00047,-2.63077,1.06038,1.57080,0.11675,-0.12764,-0.48151,0.03697,,,,,,,,,,,,,,,,,,,,,,,,,,0,0,0,0,0
1.3810,1783967175.6748,1,1,6.0000,-0.0000,1.42244,-0.00047,-2.63077,1.06038,1.57080,0.11675,-0.12764,-0.48151,0.03697,,,,,,,,,,,,,,,,,,,,,,,,,,0,0,0,0,0
1.3880,1783967175.6818,1,1,6.0000,-0.0000,1.42244,-0.00047,-2.63077,1.06038,1.57080,0.11675,-0.12764,-0.48151,0.03697,,,,,,,,,,,,,,,,,,,,,,,,,,0,0,0,0,0
1.3884,1783967175.6821,1,1,6.0000,-0.0000,1.42244,-0.00047,-2.63077,1.06038,1.57080,0.11675,-0.12764,-0.48151,0.03697,,,,,,,,,,,,,,,,,,,,,,,,,,0,0,0,0,0
1.4020,1783967175.6957,1,1,6.0000,-0.0000,1.42244,-0.00047,-2.63077,1.06038,1.57080,0.11675,-0.12764,-0.48151,0.03697,,,,,,,,,,,,,,,,,,,,,,,,,,0,0,0,0,0
1.4096,1783967175.7034,1,1,6.0000,-0.0000,1.42244,-0.00047,-2.63077,1.06038,1.57080,0.11675,-0.12764,-0.48151,0.03697,,,,,,,,,,,,,,,,,,,,,,,,,,0,0,0,0,0
1.4202,1783967175.7139,1,1,6.0000,-0.0000,1.42244,-0.00047,-2.63077,1.06038,1.57080,0.11675,-0.12764,-0.48151,0.03697,,,,,,,,,,,,,,,,,,,,,,,,,,0,0,0,0,0
1.4352,1783967175.7289,1,1,6.0000,-0.0000,1.42244,-0.00047,-2.63077,1.06040,1.57080,0.11675,-0.12764,-0.48151,0.03697,,,,,,,,,,,,,,,,,,,,,,,,,,0,0,0,0,0
1.4401,1783967175.7339,1,1,6.0000,-0.0000,1.42244,-0.00047,-2.63078,1.06041,1.57080,0.11675,-0.12764,-0.48151,0.03697,,,,,,,,,,,,,,,,,,,,,,,,,,0,0,0,0,0
1.4514,1783967175.7451,1,1,6.0000,-0.0000,1.42244,-0.00048,-2.63079,1.06045,1.57080,0.11675,-0.12764,-0.48151,0.03696,,,,,,,,,,,,,,,,,,,,,,,,,,0,0,0,0,0
1.4599,1783967175.7537,1,1,6.0000,-0.0000,1.42244,-0.00048,-2.63079,1.06045,1.57080,0.11675,-0.12764,-0.48151,0.03696,,,,,,,,,,,,,,,,,,,,,,,,,,0,0,0,0,0
1.4741,1783967175.7678,1,1,6.0000,-0.0000,1.42244,-0.00052,-2.63083,1.06051,1.57080,0.11675,-0.12764,-0.48149,0.03694,,,,,,,,,,,,,,,,,,,,,,,,,,0,0,0,0,0
1.4834,1783967175.7771,1,1,6.0000,-0.0000,1.42244,-0.00055,-2.63087,1.06056,1.57080,0.11675,-0.12764,-0.48147,0.03692,,,,,,,,,,,,,,,,,,,,,,,,,,0,0,0,0,0
1.4901,1783967175.7839,1,1,6.0000,-0.0000,1.42244,-0.00056,-2.63087,1.06056,1.57080,0.11675,-0.12764,-0.48147,0.03692,,,,,,,,,,,,,,,,,,,,,,,,,,0,0,0,0,0
1.5017,1783967175.7954,1,1,6.0000,-0.0000,1.42244,-0.00060,-2.63090,1.06062,1.57080,0.11675,-0.12764,-0.48146,0.03689,,,,,,,,,,,,,,,,,,,,,,,,,,0,0,0,0,0
1.5114,1783967175.8051,1,1,6.0000,-0.0000,1.42244,-0.00062,-2.63091,1.06065,1.57080,0.11675,-0.12764,-0.48145,0.03688,,,,,,,,,,,,,,,,,,,,,,,,,,0,0,0,0,0
1.5250,1783967175.8187,1,1,6.0000,-0.0000,1.42244,-0.00069,-2.63093,1.06074,1.57080,0.11675,-0.12764,-0.48145,0.03686,,,,,,,,,,,,,,,,,,,,,,,,,,0,0,0,0,0
1.5432,1783967175.8370,1,1,6.0000,-0.0000,1.42244,-0.00087,-2.63098,1.06097,1.57080,0.11675,-0.12764,-0.48145,0.03680,,,,,,,,,,,,,,,,,,,,,,,,,,0,0,0,0,0
1.5464,1783967175.8402,1,1,6.0000,-0.0000,1.42244,-0.00087,-2.63098,1.06097,1.57080,0.11675,-0.12764,-0.48145,0.03680,,,,,,,,,,,,,,,,,,,,,,,,,,0,0,0,0,0
1.5618,1783967175.8555,1,1,6.0000,-0.0000,1.42244,-0.00095,-2.63099,1.06107,1.57080,0.11675,-0.12764,-0.48145,0.03677,,,,,,,,,,,,,,,,,,,,,,,,,,0,0,0,0,0
1.5622,1783967175.8559,1,1,6.0000,-0.0000,1.42244,-0.00095,-2.63099,1.06107,1.57080,0.11675,-0.12764,-0.48145,0.03677,,,,,,,,,,,,,,,,,,,,,,,,,,0,0,0,0,0
1.5629,1783967175.8566,1,1,6.0000,-0.0000,1.42244,-0.00095,-2.63099,1.06107,1.57080,0.11675,-0.12764,-0.48145,0.03677,,,,,,,,,,,,,,,,,,,,,,,,,,0,0,0,0,0
1.5632,1783967175.8570,1,1,6.0000,-0.0000,1.42244,-0.00095,-2.63099,1.06107,1.57080,0.11675,-0.12764,-0.48145,0.03677,,,,,,,,,,,,,,,,,,,,,,,,,,0,0,0,0,0
1.5748,1783967175.8686,1,1,6.0000,-0.0000,1.42244,-0.00108,-2.63102,1.06123,1.57080,0.11675,-0.12764,-0.48145,0.03673,,,,,,,,,,,,,,,,,,,,,,,,,,0,0,0,0,0
1.5794,1783967175.8732,1,1,6.0000,-0.0000,1.42244,-0.00108,-2.63102,1.06123,1.57080,0.11675,-0.12764,-0.48145,0.03673,,,,,,,,,,,,,,,,,,,,,,,,,,0,0,0,0,0
1.5798,1783967175.8735,1,1,6.0000,-0.0000,1.42244,-0.00108,-2.63102,1.06123,1.57080,0.11675,-0.12764,-0.48145,0.03673,,,,,,,,,,,,,,,,,,,,,,,,,,0,0,0,0,0
1.5935,1783967175.8873,1,1,6.0000,-0.0000,1.42244,-0.00115,-2.63103,1.06132,1.57080,0.11675,-0.12764,-0.48146,0.03670,,,,,,,,,,,,,,,,,,,,,,,,,,0,0,0,0,0
1.5991,1783967175.8929,1,1,6.0000,-0.0000,1.42244,-0.00119,-2.63104,1.06136,1.57080,0.11675,-0.12764,-0.48146,0.03669,,,,,,,,,,,,,,,,,,,,,,,,,,0,0,0,0,0
1.6089,1783967175.9027,1,1,6.0000,-0.0000,1.42244,-0.00132,-2.63106,1.06153,1.57080,0.11675,-0.12764,-0.48146,0.03665,,,,,,,,,,,,,,,,,,,,,,,,,,0,0,0,0,0
1.6094,1783967175.9032,1,1,6.0000,-0.0000,1.42244,-0.00132,-2.63106,1.06153,1.57080,0.11675,-0.12764,-0.48146,0.03665,,,,,,,,,,,,,,,,,,,,,,,,,,0,0,0,0,0
1.6192,1783967175.9130,1,1,6.0000,-0.0000,1.42244,-0.00142,-2.63107,1.06164,1.57080,0.11675,-0.12764,-0.48147,0.03662,,,,,,,,,,,,,,,,,,,,,,,,,,0,0,0,0,0
1.6195,1783967175.9133,1,1,6.0000,-0.0000,1.42244,-0.00142,-2.63107,1.06164,1.57080,0.11675,-0.12764,-0.48147,0.03662,,,,,,,,,,,,,,,,,,,,,,,,,,0,0,0,0,0
1.6408,1783967175.9345,1,1,6.0000,-0.0000,1.42244,-0.00160,-2.63110,1.06188,1.57080,0.11675,-0.12764,-0.48149,0.03657,,,,,,,,,,,,,,,,,,,,,,,,,,0,0,0,0,0
1.6410,1783967175.9348,1,1,6.0000,-0.0000,1.42244,-0.00160,-2.63110,1.06188,1.57080,0.11675,-0.12764,-0.48149,0.03657,,,,,,,,,,,,,,,,,,,,,,,,,,0,0,0,0,0
1.6508,1783967175.9445,1,1,6.0000,-0.0000,1.42244,-0.00160,-2.63110,1.06188,1.57080,0.11675,-0.12764,-0.48149,0.03657,,,,,,,,,,,,,,,,,,,,,,,,,,0,0,0,0,0
1.6512,1783967175.9449,1,1,6.0000,-0.0000,1.42244,-0.00160,-2.63110,1.06188,1.57080,0.11675,-0.12764,-0.48149,0.03657,,,,,,,,,,,,,,,,,,,,,,,,,,0,0,0,0,0
1.6522,1783967175.9460,1,1,6.0000,-0.0000,1.42244,-0.00160,-2.63110,1.06188,1.57080,0.11675,-0.12764,-0.48149,0.03657,,,,,,,,,,,,,,,,,,,,,,,,,,0,0,0,0,0
1.6529,1783967175.9466,1,1,6.0000,-0.0000,1.42244,-0.00160,-2.63110,1.06188,1.57080,0.11675,-0.12764,-0.48149,0.03657,,,,,,,,,,,,,,,,,,,,,,,,,,0,0,0,0,0
1.6641,1783967175.9579,1,1,6.0000,-0.0000,1.42244,-0.00160,-2.63110,1.06188,1.57080,0.11675,-0.12764,-0.48149,0.03657,,,,,,,,,,,,,,,,,,,,,,,,,,0,0,0,0,0
1.6648,1783967175.9585,1,1,6.0000,-0.0000,1.42244,-0.00160,-2.63110,1.06188,1.57080,0.11675,-0.12764,-0.48149,0.03657,,,,,,,,,,,,,,,,,,,,,,,,,,0,0,0,0,0
1.6798,1783967175.9735,1,1,6.0000,-0.0000,1.42244,-0.00160,-2.63110,1.06188,1.57080,0.11675,-0.12764,-0.48149,0.03657,,,,,,,,,,,,,,,,,,,,,,,,,,0,0,0,0,0
1.6832,1783967175.9770,1,1,6.0000,-0.0000,1.42244,-0.00160,-2.63110,1.06188,1.57080,0.11675,-0.12764,-0.48149,0.03657,,,,,,,,,,,,,,,,,,,,,,,,,,0,0,0,0,0
1.6835,1783967175.9773,1,1,6.0000,-0.0000,1.42244,-0.00160,-2.63110,1.06188,1.57080,0.11675,-0.12764,-0.48149,0.03657,,,,,,,,,,,,,,,,,,,,,,,,,,0,0,0,0,0
1.6929,1783967175.9867,1,1,6.0000,-0.0000,1.42244,-0.00160,-2.63110,1.06188,1.57080,0.11675,-0.12764,-0.48149,0.03657,,,,,,,,,,,,,,,,,,,,,,,,,,0,0,0,0,0
1.6932,1783967175.9869,1,1,6.0000,-0.0000,1.42244,-0.00160,-2.63110,1.06188,1.57080,0.11675,-0.12764,-0.48149,0.03657,,,,,,,,,,,,,,,,,,,,,,,,,,0,0,0,0,0
1.7016,1783967175.9953,1,1,6.0000,-0.0000,1.42244,-0.00160,-2.63110,1.06188,1.57080,0.11675,-0.12764,-0.48149,0.03657,,,,,,,,,,,,,,,,,,,,,,,,,,0,0,0,0,0
1.7018,1783967175.9956,1,1,6.0000,-0.0000,1.42244,-0.00160,-2.63110,1.06188,1.57080,0.11675,-0.12764,-0.48149,0.03657,,,,,,,,,,,,,,,,,,,,,,,,,,0,0,0,0,0
1.7113,1783967176.0050,1,1,6.0000,-0.0000,1.42244,-0.00160,-2.63110,1.06188,1.57080,0.11675,-0.12764,-0.48149,0.03657,,,,,,,,,,,,,,,,,,,,,,,,,,0,0,0,0,0
1.7116,1783967176.0053,1,1,6.0000,-0.0000,1.42244,-0.00160,-2.63110,1.06188,1.57080,0.11675,-0.12764,-0.48149,0.03657,,,,,,,,,,,,,,,,,,,,,,,,,,0,0,0,0,0
1.7218,1783967176.0155,1,1,6.0000,-0.0000,1.42244,-0.00160,-2.63110,1.06188,1.57080,0.11675,-0.12764,-0.48149,0.03657,,,,,,,,,,,,,,,,,,,,,,,,,,0,0,0,0,0
1.7336,1783967176.0273,1,1,6.0000,-0.0000,1.42244,-0.00160,-2.63110,1.06188,1.57080,0.11675,-0.12764,-0.48149,0.03657,,,,,,,,,,,,,,,,,,,,,,,,,,0,0,0,0,0
1.7401,1783967176.0339,1,1,6.0000,-0.0000,1.42244,-0.00160,-2.63110,1.06188,1.57080,0.11675,-0.12764,-0.48149,0.03657,,,,,,,,,,,,,,,,,,,,,,,,,,0,0,0,0,0
1.7408,1783967176.0346,1,1,6.0000,-0.0000,1.42244,-0.00160,-2.63110,1.06188,1.57080,0.11675,-0.12764,-0.48149,0.03657,,,,,,,,,,,,,,,,,,,,,,,,,,0,0,0,0,0
1.7488,1783967176.0426,1,1,6.0000,-0.0000,1.42244,-0.00160,-2.63110,1.06188,1.57080,0.11675,-0.12764,-0.48149,0.03657,,,,,,,,,,,,,,,,,,,,,,,,,,0,0,0,0,0
1.7856,1783967176.0794,1,1,6.0000,-0.0000,1.42244,-0.00160,-2.63110,1.06188,1.57080,0.11675,-0.12764,-0.48149,0.03657,,,,,,,,,,,,,,,,,,,,,,,,,,0,0,0,0,0
1.7957,1783967176.0895,1,1,6.0000,-0.0000,1.42244,-0.00160,-2.63110,1.06188,1.57080,0.11675,-0.12764,-0.48149,0.03657,,,,,,,,,,,,,,,,,,,,,,,,,,0,0,0,0,0
1.8026,1783967176.0964,1,1,6.0000,-0.0000,1.42244,-0.00160,-2.63110,1.06188,1.57080,0.11675,-0.12764,-0.48149,0.03657,,,,,,,,,,,,,,,,,,,,,,,,,,0,0,0,0,0
1.8368,1783967176.1306,1,1,6.0000,-0.0000,1.42244,-0.00160,-2.63110,1.06188,1.57080,0.11675,-0.12764,-0.48149,0.03657,,,,,,,,,,,,,,,,,,,,,,,,,,0,0,0,0,0
1.8556,1783967176.1493,1,1,6.0000,-0.0000,1.42244,-0.00160,-2.63110,1.06189,1.57080,0.11675,-0.12764,-0.48149,0.03657,,,,,,,,,,,,,,,,,,,,,,,,,,0,0,0,0,0
1.8567,1783967176.1505,1,1,6.0000,-0.0000,1.42244,-0.00161,-2.63110,1.06190,1.57080,0.11675,-0.12764,-0.48149,0.03657,,,,,,,,,,,,,,,,,,,,,,,,,,0,0,0,0,0
1.8689,1783967176.1627,1,1,6.0000,-0.0000,1.42244,-0.00162,-2.63110,1.06192,1.57080,0.11675,-0.12764,-0.48149,0.03657,,,,,,,,,,,,,,,,,,,,,,,,,,0,0,0,0,0
1.8733,1783967176.1670,1,1,6.0000,-0.0000,1.42244,-0.00162,-2.63110,1.06192,1.57080,0.11675,-0.12764,-0.48149,0.03657,,,,,,,,,,,,,,,,,,,,,,,,,,0,0,0,0,0
1.8736,1783967176.1673,1,1,6.0000,-0.0000,1.42244,-0.00162,-2.63110,1.06192,1.57080,0.11675,-0.12764,-0.48149,0.03657,,,,,,,,,,,,,,,,,,,,,,,,,,0,0,0,0,0
1.8739,1783967176.1677,1,1,6.0000,-0.0000,1.42244,-0.00162,-2.63110,1.06192,1.57080,0.11675,-0.12764,-0.48149,0.03657,,,,,,,,,,,,,,,,,,,,,,,,,,0,0,0,0,0
1.8835,1783967176.1773,1,1,6.0000,-0.0000,1.42244,-0.00164,-2.63111,1.06194,1.57080,0.11675,-0.12764,-0.48149,0.03656,,,,,,,,,,,,,,,,,,,,,,,,,,0,0,0,0,0
1.8931,1783967176.1869,1,1,6.0000,-0.0000,1.42243,-0.00169,-2.63115,1.06200,1.57080,0.11675,-0.12764,-0.48147,0.03653,,,,,,,,,,,,,,,,,,,,,,,,,,0,0,0,0,0
1.9025,1783967176.1962,1,1,6.0000,-0.0000,1.42243,-0.00173,-2.63118,1.06206,1.57080,0.11675,-0.12764,-0.48145,0.03650,,,,,,,,,,,,,,,,,,,,,,,,,,0,0,0,0,0
1.9111,1783967176.2049,1,1,6.0000,-0.0000,1.42243,-0.00179,-2.63121,1.06212,1.57080,0.11675,-0.12764,-0.48143,0.03648,,,,,,,,,,,,,,,,,,,,,,,,,,0,0,0,0,0
1.9252,1783967176.2189,1,1,6.0000,-0.0000,1.42243,-0.00181,-2.63122,1.06214,1.57080,0.11675,-0.12764,-0.48143,0.03647,,,,,,,,,,,,,,,,,,,,,,,,,,0,0,0,0,0
1.9318,1783967176.2255,1,1,6.0000,-0.0000,1.42243,-0.00182,-2.63123,1.06216,1.57080,0.11675,-0.12765,-0.48143,0.03646,,,,,,,,,,,,,,,,,,,,,,,,,,0,0,0,0,0
1.9322,1783967176.2260,1,1,6.0000,-0.0000,1.42243,-0.00182,-2.63123,1.06216,1.57080,0.11675,-0.12765,-0.48143,0.03646,,,,,,,,,,,,,,,,,,,,,,,,,,0,0,0,0,0
1.9460,1783967176.2397,1,1,6.0000,-0.0000,1.42243,-0.00186,-2.63123,1.06221,1.57080,0.11675,-0.12765,-0.48143,0.03645,,,,,,,,,,,,,,,,,,,,,,,,,,0,0,0,0,0
1.9491,1783967176.2429,1,1,6.0000,-0.0000,1.42243,-0.00188,-2.63124,1.06224,1.57080,0.11675,-0.12765,-0.48143,0.03644,,,,,,,,,,,,,,,,,,,,,,,,,,0,0,0,0,0
1.9495,1783967176.2433,1,1,6.0000,-0.0000,1.42243,-0.00188,-2.63124,1.06224,1.57080,0.11675,-0.12765,-0.48143,0.03644,,,,,,,,,,,,,,,,,,,,,,,,,,0,0,0,0,0
1.9661,1783967176.2599,1,1,6.0000,-0.0000,1.42243,-0.00196,-2.63125,1.06233,1.57080,0.11675,-0.12764,-0.48143,0.03642,,,,,,,,,,,,,,,,,,,,,,,,,,0,0,0,0,0
1.9768,1783967176.2706,1,1,6.0000,-0.0000,1.42243,-0.00205,-2.63126,1.06244,1.57080,0.11675,-0.12764,-0.48144,0.03639,,,,,,,,,,,,,,,,,,,,,,,,,,0,0,0,0,0
1.9836,1783967176.2773,1,1,6.0000,-0.0000,1.42243,-0.00210,-2.63127,1.06250,1.57080,0.11675,-0.12764,-0.48144,0.03637,,,,,,,,,,,,,,,,,,,,,,,,,,0,0,0,0,0
1.9839,1783967176.2777,1,1,6.0000,-0.0000,1.42243,-0.00210,-2.63127,1.06250,1.57080,0.11675,-0.12764,-0.48144,0.03637,,,,,,,,,,,,,,,,,,,,,,,,,,0,0,0,0,0
1.9890,1783967176.2827,1,1,6.0000,-0.0000,1.42243,-0.00221,-2.63129,1.06263,1.57080,0.11675,-0.12764,-0.48145,0.03634,,,,,,,,,,,,,,,,,,,,,,,,,,0,0,0,0,0
2.0008,1783967176.2946,1,1,6.0000,-0.0000,1.42243,-0.00223,-2.63129,1.06266,1.57080,0.11675,-0.12764,-0.48145,0.03633,,,,,,,,,,,,,,,,,,,,,,,,,,0,0,0,0,0
2.0082,1783967176.3020,1,1,6.0000,-0.0000,1.42243,-0.00226,-2.63129,1.06269,1.57080,0.11675,-0.12764,-0.48145,0.03633,,,,,,,,,,,,,,,,,,,,,,,,,,0,0,0,0,0
2.0088,1783967176.3025,1,1,6.0000,-0.0000,1.42243,-0.00229,-2.63130,1.06273,1.57080,0.11675,-0.12764,-0.48145,0.03632,,,,,,,,,,,,,,,,,,,,,,,,,,0,0,0,0,0
2.0212,1783967176.3150,1,1,6.0000,-0.0000,1.42243,-0.00242,-2.63131,1.06288,1.57080,0.11675,-0.12764,-0.48146,0.03628,,,,,,,,,,,,,,,,,,,,,,,,,,0,0,0,0,0
2.0338,1783967176.3276,1,1,6.0000,-0.0000,1.42243,-0.00257,-2.63133,1.06307,1.57080,0.11675,-0.12764,-0.48147,0.03623,,,,,,,,,,,,,,,,,,,,,,,,,,0,0,0,0,0
2.0341,1783967176.3279,1,1,6.0000,-0.0000,1.42243,-0.00257,-2.63133,1.06307,1.57080,0.11675,-0.12764,-0.48147,0.03623,,,,,,,,,,,,,,,,,,,,,,,,,,0,0,0,0,0
2.0413,1783967176.3351,1,1,6.0000,-0.0000,1.42243,-0.00266,-2.63134,1.06318,1.57080,0.11675,-0.12764,-0.48148,0.03621,,,,,,,,,,,,,,,,,,,,,,,,,,0,0,0,0,0
2.0416,1783967176.3354,1,1,6.0000,-0.0000,1.42243,-0.00266,-2.63134,1.06318,1.57080,0.11675,-0.12764,-0.48148,0.03621,,,,,,,,,,,,,,,,,,,,,,,,,,0,0,0,0,0
2.0618,1783967176.3555,1,1,6.0000,-0.0000,1.42243,-0.00276,-2.63135,1.06331,1.57080,0.11675,-0.12763,-0.48149,0.03618,,,,,,,,,,,,,,,,,,,,,,,,,,0,0,0,0,0
2.0620,1783967176.3558,1,1,6.0000,-0.0000,1.42243,-0.00276,-2.63135,1.06331,1.57080,0.11675,-0.12763,-0.48149,0.03618,,,,,,,,,,,,,,,,,,,,,,,,,,0,0,0,0,0
2.0651,1783967176.3589,1,1,6.0000,-0.0000,1.42243,-0.00276,-2.63135,1.06331,1.57080,0.11675,-0.12763,-0.48149,0.03618,,,,,,,,,,,,,,,,,,,,,,,,,,0,0,0,0,0
2.0756,1783967176.3693,1,1,6.0000,-0.0000,1.42243,-0.00276,-2.63135,1.06331,1.57080,0.11675,-0.12763,-0.48149,0.03618,,,,,,,,,,,,,,,,,,,,,,,,,,0,0,0,0,0
2.1115,1783967176.4052,1,1,6.0000,-0.0000,1.42243,-0.00276,-2.63135,1.06331,1.57080,0.11675,-0.12763,-0.48149,0.03618,,,,,,,,,,,,,,,,,,,,,,,,,,0,0,0,0,0
2.1306,1783967176.4243,1,1,6.0000,-0.0000,1.42243,-0.00276,-2.63135,1.06331,1.57080,0.11675,-0.12763,-0.48149,0.03618,,,,,,,,,,,,,,,,,,,,,,,,,,0,0,0,0,0
2.1331,1783967176.4269,1,1,6.0000,-0.0000,1.42243,-0.00276,-2.63135,1.06331,1.57080,0.11675,-0.12763,-0.48149,0.03618,,,,,,,,,,,,,,,,,,,,,,,,,,0,0,0,0,0
2.1370,1783967176.4307,1,1,6.0000,-0.0000,1.42243,-0.00276,-2.63135,1.06331,1.57080,0.11675,-0.12763,-0.48149,0.03618,,,,,,,,,,,,,,,,,,,,,,,,,,0,0,0,0,0
2.1375,1783967176.4312,1,1,6.0000,-0.0000,1.42243,-0.00276,-2.63135,1.06331,1.57080,0.11675,-0.12763,-0.48149,0.03618,,,,,,,,,,,,,,,,,,,,,,,,,,0,0,0,0,0
2.1430,1783967176.4367,1,1,6.0000,-0.0000,1.42243,-0.00276,-2.63135,1.06331,1.57080,0.11675,-0.12763,-0.48149,0.03618,,,,,,,,,,,,,,,,,,,,,,,,,,0,0,0,0,0
2.1442,1783967176.4379,1,1,6.0000,-0.0000,1.42243,-0.00276,-2.63135,1.06331,1.57080,0.11675,-0.12763,-0.48149,0.03618,,,,,,,,,,,,,,,,,,,,,,,,,,0,0,0,0,0
2.1516,1783967176.4454,1,1,6.0000,-0.0000,1.42243,-0.00276,-2.63135,1.06331,1.57080,0.11675,-0.12763,-0.48149,0.03618,,,,,,,,,,,,,,,,,,,,,,,,,,0,0,0,0,0
2.1652,1783967176.4589,1,1,6.0000,-0.0000,1.42243,-0.00276,-2.63135,1.06331,1.57080,0.11675,-0.12763,-0.48149,0.03618,,,,,,,,,,,,,,,,,,,,,,,,,,0,0,0,0,0
2.1768,1783967176.4705,1,1,6.0000,-0.0000,1.42243,-0.00276,-2.63135,1.06331,1.57080,0.11675,-0.12763,-0.48149,0.03618,,,,,,,,,,,,,,,,,,,,,,,,,,0,0,0,0,0
2.1772,1783967176.4709,1,1,6.0000,-0.0000,1.42243,-0.00276,-2.63135,1.06331,1.57080,0.11675,-0.12763,-0.48149,0.03618,,,,,,,,,,,,,,,,,,,,,,,,,,0,0,0,0,0
2.1913,1783967176.4850,1,1,6.0000,-0.0000,1.42243,-0.00276,-2.63135,1.06331,1.57080,0.11675,-0.12763,-0.48149,0.03618,,,,,,,,,,,,,,,,,,,,,,,,,,0,0,0,0,0
2.2096,1783967176.5033,1,1,6.0000,-0.0000,1.42243,-0.00276,-2.63135,1.06331,1.57080,0.11675,-0.12763,-0.48149,0.03618,,,,,,,,,,,,,,,,,,,,,,,,,,0,0,0,0,0
2.2250,1783967176.5188,1,1,6.0000,-0.0000,1.42243,-0.00276,-2.63135,1.06331,1.57080,0.11675,-0.12763,-0.48149,0.03618,,,,,,,,,,,,,,,,,,,,,,,,,,0,0,0,0,0
2.2258,1783967176.5195,1,1,6.0000,-0.0000,1.42243,-0.00276,-2.63135,1.06331,1.57080,0.11675,-0.12763,-0.48149,0.03618,,,,,,,,,,,,,,,,,,,,,,,,,,0,0,0,0,0
2.2261,1783967176.5198,1,1,6.0000,-0.0000,1.42243,-0.00276,-2.63135,1.06331,1.57080,0.11675,-0.12763,-0.48149,0.03618,,,,,,,,,,,,,,,,,,,,,,,,,,0,0,0,0,0
2.2265,1783967176.5202,1,1,6.0000,-0.0000,1.42243,-0.00276,-2.63135,1.06331,1.57080,0.11675,-0.12763,-0.48149,0.03618,,,,,,,,,,,,,,,,,,,,,,,,,,0,0,0,0,0
2.2288,1783967176.5226,1,1,6.0000,-0.0000,1.42243,-0.00276,-2.63135,1.06331,1.57080,0.11675,-0.12763,-0.48149,0.03618,,,,,,,,,,,,,,,,,,,,,,,,,,0,0,0,0,0
2.2290,1783967176.5227,1,1,6.0000,-0.0000,1.42243,-0.00276,-2.63135,1.06331,1.57080,0.11675,-0.12763,-0.48149,0.03618,,,,,,,,,,,,,,,,,,,,,,,,,,0,0,0,0,0
2.2300,1783967176.5238,1,1,6.0000,-0.0000,1.42243,-0.00276,-2.63135,1.06331,1.57080,0.11675,-0.12763,-0.48149,0.03618,,,,,,,,,,,,,,,,,,,,,,,,,,0,0,0,0,0
2.2304,1783967176.5242,1,1,6.0000,-0.0000,1.42243,-0.00276,-2.63135,1.06331,1.57080,0.11675,-0.12763,-0.48149,0.03618,,,,,,,,,,,,,,,,,,,,,,,,,,0,0,0,0,0
2.2468,1783967176.5405,1,1,6.0000,-0.0000,1.42243,-0.00276,-2.63135,1.06331,1.57080,0.11675,-0.12763,-0.48149,0.03618,,,,,,,,,,,,,,,,,,,,,,,,,,0,0,0,0,0
2.2594,1783967176.5531,1,1,6.0000,-0.0000,1.42243,-0.00276,-2.63135,1.06331,1.57080,0.11675,-0.12763,-0.48149,0.03618,,,,,,,,,,,,,,,,,,,,,,,,,,0,0,0,0,0
2.2736,1783967176.5674,1,1,6.0000,-0.0000,1.42243,-0.00276,-2.63135,1.06332,1.57080,0.11675,-0.12763,-0.48149,0.03618,,,,,,,,,,,,,,,,,,,,,,,,,,0,0,0,0,0
2.2813,1783967176.5750,1,1,6.0000,-0.0000,1.42243,-0.00277,-2.63135,1.06334,1.57080,0.11675,-0.12763,-0.48150,0.03618,,,,,,,,,,,,,,,,,,,,,,,,,,0,0,0,0,0
2.2816,1783967176.5754,1,1,6.0000,-0.0000,1.42243,-0.00277,-2.63135,1.06334,1.57080,0.11675,-0.12763,-0.48150,0.03618,,,,,,,,,,,,,,,,,,,,,,,,,,0,0,0,0,0
2.2836,1783967176.5773,1,1,6.0000,-0.0000,1.42243,-0.00277,-2.63135,1.06334,1.57080,0.11675,-0.12763,-0.48150,0.03618,,,,,,,,,,,,,,,,,,,,,,,,,,0,0,0,0,0
2.2915,1783967176.5852,1,1,6.0000,-0.0000,1.42243,-0.00279,-2.63135,1.06336,1.57080,0.11675,-0.12763,-0.48150,0.03618,,,,,,,,,,,,,,,,,,,,,,,,,,0,0,0,0,0
2.3025,1783967176.5963,1,1,6.0000,-0.0000,1.42243,-0.00280,-2.63135,1.06338,1.57080,0.11675,-0.12763,-0.48150,0.03617,,,,,,,,,,,,,,,,,,,,,,,,,,0,0,0,0,0
2.3115,1783967176.6053,1,1,6.0000,-0.0000,1.42243,-0.00282,-2.63136,1.06340,1.57080,0.11675,-0.12763,-0.48150,0.03616,,,,,,,,,,,,,,,,,,,,,,,,,,0,0,0,0,0
2.3229,1783967176.6167,1,1,6.0000,-0.0000,1.42243,-0.00287,-2.63140,1.06345,1.57080,0.11675,-0.12764,-0.48148,0.03614,,,,,,,,,,,,,,,,,,,,,,,,,,0,0,0,0,0
2.3361,1783967176.6298,1,1,6.0000,-0.0000,1.42243,-0.00293,-2.63144,1.06353,1.57080,0.11675,-0.12764,-0.48145,0.03610,,,,,,,,,,,,,,,,,,,,,,,,,,0,0,0,0,0
2.3364,1783967176.6301,1,1,6.0000,-0.0000,1.42243,-0.00293,-2.63144,1.06353,1.57080,0.11675,-0.12764,-0.48145,0.03610,,,,,,,,,,,,,,,,,,,,,,,,,,0,0,0,0,0
2.3408,1783967176.6345,1,1,6.0000,-0.0000,1.42243,-0.00298,-2.63148,1.06359,1.57080,0.11675,-0.12764,-0.48144,0.03607,,,,,,,,,,,,,,,,,,,,,,,,,,0,0,0,0,0
2.3620,1783967176.6557,1,1,6.0000,-0.0000,1.42243,-0.00305,-2.63152,1.06366,1.57080,0.11675,-0.12764,-0.48142,0.03604,,,,,,,,,,,,,,,,,,,,,,,,,,0,0,0,0,0
2.3707,1783967176.6645,1,1,6.0000,-0.0000,1.42243,-0.00309,-2.63152,1.06371,1.57080,0.11675,-0.12764,-0.48142,0.03603,,,,,,,,,,,,,,,,,,,,,,,,,,0,0,0,0,0
2.3905,1783967176.6842,1,1,6.0000,-0.0000,1.42243,-0.00318,-2.63153,1.06381,1.57080,0.11675,-0.12764,-0.48143,0.03600,,,,,,,,,,,,,,,,,,,,,,,,,,0,0,0,0,0
2.4052,1783967176.6990,1,1,6.0000,-0.0000,1.42243,-0.00329,-2.63154,1.06395,1.57080,0.11675,-0.12764,-0.48144,0.03597,,,,,,,,,,,,,,,,,,,,,,,,,,0,0,0,0,0
2.4109,1783967176.7047,1,1,6.0000,-0.0000,1.42243,-0.00329,-2.63154,1.06395,1.57080,0.11675,-0.12764,-0.48144,0.03597,,,,,,,,,,,,,,,,,,,,,,,,,,0,0,0,0,0
2.4130,1783967176.7067,1,1,6.0000,-0.0000,1.42243,-0.00329,-2.63154,1.06396,1.57080,0.11675,-0.12764,-0.48144,0.03597,,,,,,,,,,,,,,,,,,,,,,,,,,0,0,0,0,0
2.4133,1783967176.7071,1,1,6.0000,-0.0000,1.42243,-0.00329,-2.63154,1.06396,1.57080,0.11675,-0.12764,-0.48144,0.03597,,,,,,,,,,,,,,,,,,,,,,,,,,0,0,0,0,0
2.4143,1783967176.7080,1,1,6.0000,-0.0000,1.42243,-0.00329,-2.63154,1.06396,1.57080,0.11675,-0.12764,-0.48144,0.03597,,,,,,,,,,,,,,,,,,,,,,,,,,0,0,0,0,0
2.4147,1783967176.7084,1,1,6.0000,-0.0000,1.42243,-0.00329,-2.63154,1.06396,1.57080,0.11675,-0.12764,-0.48144,0.03597,,,,,,,,,,,,,,,,,,,,,,,,,,0,0,0,0,0
2.4294,1783967176.7232,1,1,6.0000,-0.0000,1.42243,-0.00343,-2.63156,1.06412,1.57080,0.11675,-0.12764,-0.48145,0.03593,,,,,,,,,,,,,,,,,,,,,,,,,,0,0,0,0,0
2.4317,1783967176.7254,1,1,6.0000,-0.0000,1.42243,-0.00343,-2.63156,1.06412,1.57080,0.11675,-0.12764,-0.48145,0.03593,,,,,,,,,,,,,,,,,,,,,,,,,,0,0,0,0,0
2.4320,1783967176.7257,1,1,6.0000,-0.0000,1.42243,-0.00343,-2.63156,1.06412,1.57080,0.11675,-0.12764,-0.48145,0.03593,,,,,,,,,,,,,,,,,,,,,,,,,,0,0,0,0,0
2.4429,1783967176.7366,1,1,6.0000,-0.0000,1.42243,-0.00359,-2.63158,1.06431,1.57080,0.11675,-0.12764,-0.48146,0.03588,,,,,,,,,,,,,,,,,,,,,,,,,,0,0,0,0,0
2.4707,1783967176.7645,1,1,6.0000,-0.0000,1.42243,-0.00372,-2.63158,1.06447,1.57080,0.11675,-0.12763,-0.48148,0.03585,,,,,,,,,,,,,,,,,,,,,,,,,,0,0,0,0,0
2.4722,1783967176.7660,1,1,6.0000,-0.0000,1.42243,-0.00372,-2.63158,1.06447,1.57080,0.11675,-0.12763,-0.48148,0.03585,,,,,,,,,,,,,,,,,,,,,,,,,,0,0,0,0,0
2.4728,1783967176.7666,1,1,6.0000,-0.0000,1.42243,-0.00375,-2.63158,1.06451,1.57080,0.11675,-0.12763,-0.48148,0.03584,,,,,,,,,,,,,,,,,,,,,,,,,,0,0,0,0,0
2.4735,1783967176.7672,1,1,6.0000,-0.0000,1.42243,-0.00375,-2.63158,1.06451,1.57080,0.11675,-0.12763,-0.48148,0.03584,,,,,,,,,,,,,,,,,,,,,,,,,,0,0,0,0,0
2.4737,1783967176.7675,1,1,6.0000,-0.0000,1.42243,-0.00375,-2.63158,1.06451,1.57080,0.11675,-0.12763,-0.48148,0.03584,,,,,,,,,,,,,,,,,,,,,,,,,,0,0,0,0,0
2.5073,1783967176.8011,1,1,6.0000,-0.0000,1.42243,-0.00400,-2.63157,1.06483,1.57080,0.11675,-0.12763,-0.48154,0.03579,,,,,,,,,,,,,,,,,,,,,,,,,,0,0,0,0,0
2.5137,1783967176.8074,1,1,6.0000,-0.0000,1.42243,-0.00400,-2.63157,1.06483,1.57080,0.11675,-0.12763,-0.48154,0.03579,,,,,,,,,,,,,,,,,,,,,,,,,,0,0,0,0,0
2.5267,1783967176.8205,1,1,6.0000,-0.0000,1.42243,-0.00400,-2.63157,1.06483,1.57080,0.11675,-0.12763,-0.48154,0.03579,,,,,,,,,,,,,,,,,,,,,,,,,,0,0,0,0,0
2.5403,1783967176.8340,1,1,6.0000,-0.0000,1.42243,-0.00400,-2.63157,1.06483,1.57080,0.11675,-0.12763,-0.48154,0.03579,,,,,,,,,,,,,,,,,,,,,,,,,,0,0,0,0,0
2.6328,1783967176.9266,1,1,6.0000,-0.0000,1.42243,-0.00400,-2.63157,1.06483,1.57080,0.11675,-0.12763,-0.48154,0.03579,,,,,,,,,,,,,,,,,,,,,,,,,,0,0,0,0,0
2.6769,1783967176.9707,1,1,6.0000,-0.0000,1.42243,-0.00400,-2.63157,1.06483,1.57080,0.11675,-0.12763,-0.48154,0.03579,,,,,,,,,,,,,,,,,,,,,,,,,,0,0,0,0,0
2.6785,1783967176.9723,1,1,6.0000,-0.0000,1.42243,-0.00400,-2.63157,1.06483,1.57080,0.11675,-0.12763,-0.48154,0.03579,,,,,,,,,,,,,,,,,,,,,,,,,,0,0,0,0,0
2.6789,1783967176.9727,1,1,6.0000,-0.0000,1.42243,-0.00400,-2.63157,1.06483,1.57080,0.11675,-0.12763,-0.48154,0.03579,,,,,,,,,,,,,,,,,,,,,,,,,,0,0,0,0,0
2.6968,1783967176.9906,1,1,6.0000,-0.0000,1.42243,-0.00400,-2.63157,1.06483,1.57080,0.11675,-0.12763,-0.48154,0.03579,,,,,,,,,,,,,,,,,,,,,,,,,,0,0,0,0,0
2.8258,1783967177.1196,1,1,6.0000,-0.0000,1.42243,-0.00444,-2.63177,1.06536,1.57080,0.11675,-0.12764,-0.48146,0.03559,,,,,,,,,,,,,,,,,,,,,,,,,,0,0,0,0,0
2.8929,1783967177.1866,1,1,6.0000,-0.0000,1.42242,-0.00492,-2.63184,1.06595,1.57080,0.11675,-0.12763,-0.48148,0.03544,,,,,,,,,,,,,,,,,,,,,,,,,,0,0,0,0,0
2.8990,1783967177.1927,1,1,6.0000,-0.0000,1.42242,-0.00497,-2.63185,1.06601,1.57080,0.11675,-0.12763,-0.48149,0.03543,,,,,,,,,,,,,,,,,,,,,,,,,,0,0,0,0,0
2.9111,1783967177.2048,1,1,6.0000,-0.0000,1.42242,-0.00511,-2.63186,1.06618,1.57080,0.11675,-0.12763,-0.48150,0.03539,,,,,,,,,,,,,,,,,,,,,,,,,,0,0,0,0,0
2.9114,1783967177.2051,1,1,6.0000,-0.0000,1.42242,-0.00511,-2.63186,1.06618,1.57080,0.11675,-0.12763,-0.48150,0.03539,,,,,,,,,,,,,,,,,,,,,,,,,,0,0,0,0,0
2.9199,1783967177.2136,1,1,6.0000,-0.0000,1.42242,-0.00517,-2.63186,1.06625,1.57080,0.11675,-0.12763,-0.48151,0.03538,,,,,,,,,,,,,,,,,,,,,,,,,,0,0,0,0,0
2.9235,1783967177.2172,1,1,6.0000,-0.0000,1.42242,-0.00518,-2.63185,1.06627,1.57080,0.11675,-0.12763,-0.48152,0.03538,,,,,,,,,,,,,,,,,,,,,,,,,,0,0,0,0,0
2.9240,1783967177.2178,1,1,6.0000,-0.0000,1.42242,-0.00518,-2.63185,1.06627,1.57080,0.11675,-0.12763,-0.48152,0.03538,,,,,,,,,,,,,,,,,,,,,,,,,,0,0,0,0,0
2.9399,1783967177.2337,1,1,6.0000,-0.0000,1.42242,-0.00518,-2.63185,1.06627,1.57080,0.11675,-0.12763,-0.48152,0.03538,,,,,,,,,,,,,,,,,,,,,,,,,,0,0,0,0,0
2.9430,1783967177.2368,1,1,6.0000,-0.0000,1.42242,-0.00518,-2.63185,1.06627,1.57080,0.11675,-0.12763,-0.48152,0.03538,,,,,,,,,,,,,,,,,,,,,,,,,,0,0,0,0,0
2.9434,1783967177.2371,1,1,6.0000,-0.0000,1.42242,-0.00518,-2.63185,1.06627,1.57080,0.11675,-0.12763,-0.48152,0.03538,,,,,,,,,,,,,,,,,,,,,,,,,,0,0,0,0,0
2.9454,1783967177.2392,1,1,6.0000,-0.0000,1.42242,-0.00518,-2.63185,1.06627,1.57080,0.11675,-0.12763,-0.48152,0.03538,,,,,,,,,,,,,,,,,,,,,,,,,,0,0,0,0,0
2.9464,1783967177.2401,1,1,6.0000,-0.0000,1.42242,-0.00518,-2.63185,1.06627,1.57080,0.11675,-0.12763,-0.48152,0.03538,,,,,,,,,,,,,,,,,,,,,,,,,,0,0,0,0,0
2.9640,1783967177.2578,1,1,6.0000,-0.0000,1.42242,-0.00518,-2.63185,1.06627,1.57080,0.11675,-0.12763,-0.48152,0.03538,,,,,,,,,,,,,,,,,,,,,,,,,,0,0,0,0,0
2.9819,1783967177.2757,1,1,6.0000,-0.0000,1.42242,-0.00518,-2.63185,1.06627,1.57080,0.11675,-0.12763,-0.48152,0.03538,,,,,,,,,,,,,,,,,,,,,,,,,,0,0,0,0,0
2.9850,1783967177.2788,1,1,6.0000,-0.0000,1.42242,-0.00518,-2.63185,1.06627,1.57080,0.11675,-0.12763,-0.48152,0.03538,,,,,,,,,,,,,,,,,,,,,,,,,,0,0,0,0,0
3.0652,1783967177.3589,1,1,6.0000,-0.0000,1.42242,-0.00518,-2.63185,1.06627,1.57080,0.11675,-0.12763,-0.48152,0.03538,,,,,,,,,,,,,,,,,,,,,,,,,,0,0,0,0,0
3.0656,1783967177.3593,1,1,6.0000,-0.0000,1.42242,-0.00518,-2.63185,1.06627,1.57080,0.11675,-0.12763,-0.48152,0.03538,,,,,,,,,,,,,,,,,,,,,,,,,,0,0,0,0,0
3.0772,1783967177.3709,1,1,6.0000,-0.0000,1.42242,-0.00518,-2.63185,1.06627,1.57080,0.11675,-0.12763,-0.48152,0.03538,,,,,,,,,,,,,,,,,,,,,,,,,,0,0,0,0,0
3.0817,1783967177.3754,1,1,6.0000,-0.0000,1.42242,-0.00518,-2.63185,1.06627,1.57080,0.11675,-0.12763,-0.48152,0.03538,,,,,,,,,,,,,,,,,,,,,,,,,,0,0,0,0,0
3.0843,1783967177.3780,1,1,6.0000,-0.0000,1.42242,-0.00518,-2.63185,1.06627,1.57080,0.11675,-0.12763,-0.48152,0.03538,,,,,,,,,,,,,,,,,,,,,,,,,,0,0,0,0,0
3.0850,1783967177.3787,1,1,6.0000,-0.0000,1.42242,-0.00518,-2.63185,1.06627,1.57080,0.11675,-0.12763,-0.48152,0.03538,,,,,,,,,,,,,,,,,,,,,,,,,,0,0,0,0,0
3.0857,1783967177.3794,1,1,6.0000,-0.0000,1.42242,-0.00518,-2.63185,1.06627,1.57080,0.11675,-0.12763,-0.48152,0.03538,,,,,,,,,,,,,,,,,,,,,,,,,,0,0,0,0,0
3.0861,1783967177.3799,1,1,6.0000,-0.0000,1.42242,-0.00518,-2.63185,1.06627,1.57080,0.11675,-0.12763,-0.48152,0.03538,,,,,,,,,,,,,,,,,,,,,,,,,,0,0,0,0,0
3.0866,1783967177.3803,1,1,6.0000,-0.0000,1.42242,-0.00518,-2.63185,1.06627,1.57080,0.11675,-0.12763,-0.48152,0.03538,,,,,,,,,,,,,,,,,,,,,,,,,,0,0,0,0,0
3.0873,1783967177.3811,1,1,6.0000,-0.0000,1.42242,-0.00518,-2.63185,1.06627,1.57080,0.11675,-0.12763,-0.48152,0.03538,,,,,,,,,,,,,,,,,,,,,,,,,,0,0,0,0,0
3.0884,1783967177.3821,1,1,6.0000,-0.0000,1.42242,-0.00518,-2.63185,1.06627,1.57080,0.11675,-0.12763,-0.48152,0.03538,,,,,,,,,,,,,,,,,,,,,,,,,,0,0,0,0,0
3.0890,1783967177.3827,1,1,6.0000,-0.0000,1.42242,-0.00518,-2.63185,1.06627,1.57080,0.11675,-0.12763,-0.48152,0.03538,,,,,,,,,,,,,,,,,,,,,,,,,,0,0,0,0,0
3.0894,1783967177.3831,1,1,6.0000,-0.0000,1.42242,-0.00518,-2.63185,1.06627,1.57080,0.11675,-0.12763,-0.48152,0.03538,,,,,,,,,,,,,,,,,,,,,,,,,,0,0,0,0,0
3.0977,1783967177.3914,1,1,6.0000,-0.0000,1.42242,-0.00518,-2.63185,1.06627,1.57080,0.11675,-0.12763,-0.48152,0.03538,,,,,,,,,,,,,,,,,,,,,,,,,,0,0,0,0,0
3.1001,1783967177.3938,1,1,6.0000,-0.0000,1.42242,-0.00518,-2.63185,1.06627,1.57080,0.11675,-0.12763,-0.48152,0.03538,,,,,,,,,,,,,,,,,,,,,,,,,,0,0,0,0,0
3.1004,1783967177.3942,1,1,6.0000,-0.0000,1.42242,-0.00518,-2.63185,1.06627,1.57080,0.11675,-0.12763,-0.48152,0.03538,,,,,,,,,,,,,,,,,,,,,,,,,,0,0,0,0,0
3.1025,1783967177.3963,1,1,6.0000,-0.0000,1.42242,-0.00518,-2.63185,1.06627,1.57080,0.11675,-0.12763,-0.48152,0.03538,,,,,,,,,,,,,,,,,,,,,,,,,,0,0,0,0,0
3.1029,1783967177.3966,1,1,6.0000,-0.0000,1.42242,-0.00518,-2.63185,1.06627,1.57080,0.11675,-0.12763,-0.48152,0.03538,,,,,,,,,,,,,,,,,,,,,,,,,,0,0,0,0,0
3.1033,1783967177.3971,1,1,6.0000,-0.0000,1.42242,-0.00518,-2.63185,1.06627,1.57080,0.11675,-0.12763,-0.48152,0.03538,,,,,,,,,,,,,,,,,,,,,,,,,,0,0,0,0,0
3.1037,1783967177.3974,1,1,6.0000,-0.0000,1.42242,-0.00518,-2.63185,1.06627,1.57080,0.11675,-0.12763,-0.48152,0.03538,,,,,,,,,,,,,,,,,,,,,,,,,,0,0,0,0,0
3.1041,1783967177.3978,1,1,6.0000,-0.0000,1.42242,-0.00518,-2.63185,1.06627,1.57080,0.11675,-0.12763,-0.48152,0.03538,,,,,,,,,,,,,,,,,,,,,,,,,,0,0,0,0,0
3.1045,1783967177.3982,1,1,6.0000,-0.0000,1.42242,-0.00518,-2.63185,1.06627,1.57080,0.11675,-0.12763,-0.48152,0.03538,,,,,,,,,,,,,,,,,,,,,,,,,,0,0,0,0,0
3.1051,1783967177.3988,1,1,6.0000,-0.0000,1.42242,-0.00518,-2.63185,1.06627,1.57080,0.11675,-0.12763,-0.48152,0.03538,,,,,,,,,,,,,,,,,,,,,,,,,,0,0,0,0,0
3.1116,1783967177.4054,1,1,6.0000,-0.0000,1.42242,-0.00518,-2.63185,1.06627,1.57080,0.11675,-0.12763,-0.48152,0.03538,,,,,,,,,,,,,,,,,,,,,,,,,,0,0,0,0,0
3.1119,1783967177.4057,1,1,6.0000,-0.0000,1.42242,-0.00518,-2.63185,1.06627,1.57080,0.11675,-0.12763,-0.48152,0.03538,,,,,,,,,,,,,,,,,,,,,,,,,,0,0,0,0,0
3.1124,1783967177.4061,1,1,6.0000,-0.0000,1.42242,-0.00518,-2.63185,1.06627,1.57080,0.11675,-0.12763,-0.48152,0.03538,,,,,,,,,,,,,,,,,,,,,,,,,,0,0,0,0,0
3.1156,1783967177.4094,1,1,6.0000,-0.0000,1.42242,-0.00518,-2.63185,1.06627,1.57080,0.11675,-0.12763,-0.48152,0.03538,,,,,,,,,,,,,,,,,,,,,,,,,,0,0,0,0,0
3.1159,1783967177.4097,1,1,6.0000,-0.0000,1.42242,-0.00518,-2.63185,1.06627,1.57080,0.11675,-0.12763,-0.48152,0.03538,,,,,,,,,,,,,,,,,,,,,,,,,,0,0,0,0,0
3.1162,1783967177.4100,1,1,6.0000,-0.0000,1.42242,-0.00518,-2.63185,1.06627,1.57080,0.11675,-0.12763,-0.48152,0.03538,,,,,,,,,,,,,,,,,,,,,,,,,,0,0,0,0,0
3.1204,1783967177.4142,1,1,6.0000,-0.0000,1.42242,-0.00518,-2.63185,1.06627,1.57080,0.11675,-0.12763,-0.48152,0.03538,,,,,,,,,,,,,,,,,,,,,,,,,,0,0,0,0,0
3.1211,1783967177.4148,1,1,6.0000,-0.0000,1.42242,-0.00518,-2.63185,1.06627,1.57080,0.11675,-0.12763,-0.48152,0.03538,,,,,,,,,,,,,,,,,,,,,,,,,,0,0,0,0,0
3.1264,1783967177.4201,1,1,6.0000,-0.0000,1.42242,-0.00518,-2.63185,1.06627,1.57080,0.11675,-0.12763,-0.48152,0.03538,,,,,,,,,,,,,,,,,,,,,,,,,,0,0,0,0,0
3.1268,1783967177.4206,1,1,6.0000,-0.0000,1.42242,-0.00518,-2.63185,1.06627,1.57080,0.11675,-0.12763,-0.48152,0.03538,,,,,,,,,,,,,,,,,,,,,,,,,,0,0,0,0,0
3.1292,1783967177.4230,1,1,6.0000,-0.0000,1.42242,-0.00518,-2.63185,1.06627,1.57080,0.11675,-0.12763,-0.48152,0.03538,,,,,,,,,,,,,,,,,,,,,,,,,,0,0,0,0,0
3.1301,1783967177.4239,1,1,6.0000,-0.0000,1.42242,-0.00518,-2.63185,1.06627,1.57080,0.11675,-0.12763,-0.48152,0.03538,,,,,,,,,,,,,,,,,,,,,,,,,,0,0,0,0,0
3.1304,1783967177.4241,1,1,6.0000,-0.0000,1.42242,-0.00518,-2.63185,1.06627,1.57080,0.11675,-0.12763,-0.48152,0.03538,,,,,,,,,,,,,,,,,,,,,,,,,,0,0,0,0,0
3.1321,1783967177.4259,1,1,6.0000,-0.0000,1.42242,-0.00518,-2.63185,1.06627,1.57080,0.11675,-0.12763,-0.48152,0.03538,,,,,,,,,,,,,,,,,,,,,,,,,,0,0,0,0,0
3.1325,1783967177.4263,1,1,6.0000,-0.0000,1.42242,-0.00518,-2.63185,1.06627,1.57080,0.11675,-0.12763,-0.48152,0.03538,,,,,,,,,,,,,,,,,,,,,,,,,,0,0,0,0,0
3.1332,1783967177.4270,1,1,6.0000,-0.0000,1.42242,-0.00518,-2.63185,1.06627,1.57080,0.11675,-0.12763,-0.48152,0.03538,,,,,,,,,,,,,,,,,,,,,,,,,,0,0,0,0,0
3.1336,1783967177.4273,1,1,6.0000,-0.0000,1.42242,-0.00518,-2.63185,1.06627,1.57080,0.11675,-0.12763,-0.48152,0.03538,,,,,,,,,,,,,,,,,,,,,,,,,,0,0,0,0,0
3.1343,1783967177.4281,1,1,6.0000,-0.0000,1.42242,-0.00518,-2.63185,1.06627,1.57080,0.11675,-0.12763,-0.48152,0.03538,,,,,,,,,,,,,,,,,,,,,,,,,,0,0,0,0,0
3.1347,1783967177.4284,1,1,6.0000,-0.0000,1.42242,-0.00518,-2.63185,1.06627,1.57080,0.11675,-0.12763,-0.48152,0.03538,,,,,,,,,,,,,,,,,,,,,,,,,,0,0,0,0,0
3.1437,1783967177.4374,1,1,6.0000,-0.0000,1.42242,-0.00519,-2.63186,1.06628,1.57080,0.11675,-0.12763,-0.48151,0.03537,,,,,,,,,,,,,,,,,,,,,,,,,,0,0,0,0,0
3.1478,1783967177.4415,1,1,6.0000,-0.0000,1.42242,-0.00520,-2.63187,1.06629,1.57080,0.11675,-0.12763,-0.48151,0.03537,,,,,,,,,,,,,,,,,,,,,,,,,,0,0,0,0,0
3.1490,1783967177.4427,1,1,6.0000,-0.0000,1.42242,-0.00521,-2.63188,1.06631,1.57080,0.11675,-0.12763,-0.48151,0.03536,,,,,,,,,,,,,,,,,,,,,,,,,,0,0,0,0,0
3.1513,1783967177.4450,1,1,6.0000,-0.0000,1.42242,-0.00521,-2.63188,1.06631,1.57080,0.11675,-0.12763,-0.48151,0.03536,,,,,,,,,,,,,,,,,,,,,,,,,,0,0,0,0,0
3.1516,1783967177.4454,1,1,6.0000,-0.0000,1.42242,-0.00521,-2.63188,1.06631,1.57080,0.11675,-0.12763,-0.48151,0.03536,,,,,,,,,,,,,,,,,,,,,,,,,,0,0,0,0,0
3.1753,1783967177.4690,1,1,6.0000,-0.0000,1.42242,-0.00525,-2.63192,1.06637,1.57080,0.11675,-0.12763,-0.48148,0.03533,,,,,,,,,,,,,,,,,,,,,,,,,,0,0,0,0,0
3.1759,1783967177.4697,1,1,6.0000,-0.0000,1.42242,-0.00525,-2.63192,1.06637,1.57080,0.11675,-0.12763,-0.48148,0.03533,,,,,,,,,,,,,,,,,,,,,,,,,,0,0,0,0,0
3.1762,1783967177.4699,1,1,6.0000,-0.0000,1.42242,-0.00525,-2.63192,1.06637,1.57080,0.11675,-0.12763,-0.48148,0.03533,,,,,,,,,,,,,,,,,,,,,,,,,,0,0,0,0,0
3.1824,1783967177.4761,1,1,6.0000,-0.0000,1.42242,-0.00528,-2.63194,1.06640,1.57080,0.11675,-0.12763,-0.48147,0.03532,,,,,,,,,,,,,,,,,,,,,,,,,,0,0,0,0,0
3.1912,1783967177.4849,1,1,6.0000,-0.0000,1.42242,-0.00531,-2.63197,1.06644,1.57080,0.11675,-0.12763,-0.48146,0.03530,,,,,,,,,,,,,,,,,,,,,,,,,,0,0,0,0,0
3.2002,1783967177.4940,1,1,6.0000,-0.0000,1.42242,-0.00534,-2.63198,1.06647,1.57080,0.11675,-0.12763,-0.48145,0.03528,,,,,,,,,,,,,,,,,,,,,,,,,,0,0,0,0,0
3.2007,1783967177.4945,1,1,6.0000,-0.0000,1.42242,-0.00534,-2.63198,1.06647,1.57080,0.11675,-0.12763,-0.48145,0.03528,,,,,,,,,,,,,,,,,,,,,,,,,,0,0,0,0,0
3.2165,1783967177.5102,1,1,6.0000,-0.0000,1.42242,-0.00540,-2.63200,1.06653,1.57080,0.11675,-0.12764,-0.48145,0.03526,,,,,,,,,,,,,,,,,,,,,,,,,,0,0,0,0,0
3.2310,1783967177.5247,1,1,6.0000,-0.0000,1.42242,-0.00545,-2.63201,1.06660,1.57080,0.11675,-0.12764,-0.48145,0.03524,,,,,,,,,,,,,,,,,,,,,,,,,,0,0,0,0,0
3.2320,1783967177.5257,1,1,6.0000,-0.0000,1.42242,-0.00545,-2.63201,1.06660,1.57080,0.11675,-0.12764,-0.48145,0.03524,,,,,,,,,,,,,,,,,,,,,,,,,,0,0,0,0,0
3.2324,1783967177.5262,1,1,6.0000,-0.0000,1.42242,-0.00545,-2.63201,1.06660,1.57080,0.11675,-0.12764,-0.48145,0.03524,,,,,,,,,,,,,,,,,,,,,,,,,,0,0,0,0,0
3.2454,1783967177.5391,1,1,6.0000,-0.0000,1.42242,-0.00562,-2.63204,1.06680,1.57080,0.11675,-0.12763,-0.48145,0.03519,,,,,,,,,,,,,,,,,,,,,,,,,,0,0,0,0,0
3.2505,1783967177.5442,1,1,6.0000,-0.0000,1.42242,-0.00567,-2.63205,1.06687,1.57080,0.11675,-0.12763,-0.48145,0.03517,,,,,,,,,,,,,,,,,,,,,,,,,,0,0,0,0,0
3.2621,1783967177.5559,1,1,6.0000,-0.0000,1.42242,-0.00569,-2.63206,1.06690,1.57080,0.11675,-0.12763,-0.48145,0.03516,,,,,,,,,,,,,,,,,,,,,,,,,,0,0,0,0,0
3.2819,1783967177.5757,1,1,6.0000,-0.0000,1.42242,-0.00589,-2.63209,1.06713,1.57080,0.11675,-0.12763,-0.48146,0.03510,,,,,,,,,,,,,,,,,,,,,,,,,,0,0,0,0,0
3.2822,1783967177.5759,1,1,6.0000,-0.0000,1.42242,-0.00589,-2.63209,1.06713,1.57080,0.11675,-0.12763,-0.48146,0.03510,,,,,,,,,,,,,,,,,,,,,,,,,,0,0,0,0,0
3.2838,1783967177.5775,1,1,6.0000,-0.0000,1.42242,-0.00589,-2.63209,1.06713,1.57080,0.11675,-0.12763,-0.48146,0.03510,,,,,,,,,,,,,,,,,,,,,,,,,,0,0,0,0,0
3.2904,1783967177.5841,1,1,6.0000,-0.0000,1.42242,-0.00590,-2.63209,1.06714,1.57080,0.11675,-0.12763,-0.48146,0.03510,,,,,,,,,,,,,,,,,,,,,,,,,,0,0,0,0,0
3.3078,1783967177.6015,1,1,6.0000,-0.0000,1.42242,-0.00600,-2.63210,1.06726,1.57080,0.11675,-0.12763,-0.48147,0.03507,,,,,,,,,,,,,,,,,,,,,,,,,,0,0,0,0,0
3.3261,1783967177.6199,1,1,6.0000,-0.0000,1.42242,-0.00621,-2.63211,1.06752,1.57080,0.11675,-0.12763,-0.48150,0.03502,,,,,,,,,,,,,,,,,,,,,,,,,,0,0,0,0,0
3.3264,1783967177.6202,1,1,6.0000,-0.0000,1.42242,-0.00621,-2.63211,1.06752,1.57080,0.11675,-0.12763,-0.48150,0.03502,,,,,,,,,,,,,,,,,,,,,,,,,,0,0,0,0,0
3.3267,1783967177.6204,1,1,6.0000,-0.0000,1.42242,-0.00621,-2.63211,1.06752,1.57080,0.11675,-0.12763,-0.48150,0.03502,,,,,,,,,,,,,,,,,,,,,,,,,,0,0,0,0,0
3.3314,1783967177.6252,1,1,6.0000,-0.0000,1.42242,-0.00625,-2.63211,1.06757,1.57080,0.11675,-0.12763,-0.48150,0.03501,,,,,,,,,,,,,,,,,,,,,,,,,,0,0,0,0,0
3.3461,1783967177.6398,1,1,6.0000,-0.0000,1.42242,-0.00637,-2.63210,1.06773,1.57080,0.11675,-0.12762,-0.48153,0.03499,,,,,,,,,,,,,,,,,,,,,,,,,,0,0,0,0,0
3.3534,1783967177.6472,1,1,6.0000,-0.0000,1.42242,-0.00637,-2.63210,1.06773,1.57080,0.11675,-0.12762,-0.48153,0.03499,,,,,,,,,,,,,,,,,,,,,,,,,,0,0,0,0,0
3.3633,1783967177.6571,1,1,6.0000,-0.0000,1.42242,-0.00637,-2.63210,1.06773,1.57080,0.11675,-0.12762,-0.48153,0.03499,,,,,,,,,,,,,,,,,,,,,,,,,,0,0,0,0,0
3.3893,1783967177.6830,1,1,6.0000,-0.0000,1.42242,-0.00637,-2.63210,1.06773,1.57080,0.11675,-0.12762,-0.48153,0.03499,,,,,,,,,,,,,,,,,,,,,,,,,,0,0,0,0,0
3.3924,1783967177.6862,1,1,6.0000,-0.0000,1.42242,-0.00637,-2.63210,1.06773,1.57080,0.11675,-0.12762,-0.48153,0.03499,,,,,,,,,,,,,,,,,,,,,,,,,,0,0,0,0,0
3.3927,1783967177.6865,1,1,6.0000,-0.0000,1.42242,-0.00637,-2.63210,1.06773,1.57080,0.11675,-0.12762,-0.48153,0.03499,,,,,,,,,,,,,,,,,,,,,,,,,,0,0,0,0,0
3.3933,1783967177.6871,1,1,6.0000,-0.0000,1.42242,-0.00637,-2.63210,1.06773,1.57080,0.11675,-0.12762,-0.48153,0.03499,,,,,,,,,,,,,,,,,,,,,,,,,,0,0,0,0,0
3.4046,1783967177.6984,1,1,6.0000,-0.0000,1.42242,-0.00637,-2.63210,1.06773,1.57080,0.11675,-0.12762,-0.48153,0.03499,,,,,,,,,,,,,,,,,,,,,,,,,,0,0,0,0,0
3.4105,1783967177.7043,1,1,6.0000,-0.0000,1.42242,-0.00637,-2.63210,1.06773,1.57080,0.11675,-0.12762,-0.48153,0.03499,,,,,,,,,,,,,,,,,,,,,,,,,,0,0,0,0,0
3.4206,1783967177.7143,1,1,6.0000,-0.0000,1.42242,-0.00637,-2.63210,1.06773,1.57080,0.11675,-0.12762,-0.48153,0.03499,,,,,,,,,,,,,,,,,,,,,,,,,,0,0,0,0,0
3.4335,1783967177.7273,1,1,6.0000,-0.0000,1.42242,-0.00637,-2.63210,1.06773,1.57080,0.11675,-0.12762,-0.48153,0.03499,,,,,,,,,,,,,,,,,,,,,,,,,,0,0,0,0,0
3.4419,1783967177.7357,1,1,6.0000,-0.0000,1.42242,-0.00637,-2.63210,1.06773,1.57080,0.11675,-0.12762,-0.48153,0.03499,,,,,,,,,,,,,,,,,,,,,,,,,,0,0,0,0,0
3.4535,1783967177.7472,1,1,6.0000,-0.0000,1.42242,-0.00637,-2.63210,1.06773,1.57080,0.11675,-0.12762,-0.48153,0.03499,,,,,,,,,,,,,,,,,,,,,,,,,,0,0,0,0,0
3.4538,1783967177.7476,1,1,6.0000,-0.0000,1.42242,-0.00637,-2.63210,1.06773,1.57080,0.11675,-0.12762,-0.48153,0.03499,,,,,,,,,,,,,,,,,,,,,,,,,,0,0,0,0,0
3.4617,1783967177.7554,1,1,6.0000,-0.0000,1.42242,-0.00637,-2.63210,1.06773,1.57080,0.11675,-0.12762,-0.48153,0.03499,,,,,,,,,,,,,,,,,,,,,,,,,,0,0,0,0,0
3.4621,1783967177.7558,1,1,6.0000,-0.0000,1.42242,-0.00637,-2.63210,1.06773,1.57080,0.11675,-0.12762,-0.48153,0.03499,,,,,,,,,,,,,,,,,,,,,,,,,,0,0,0,0,0
3.4745,1783967177.7683,1,1,6.0000,-0.0000,1.42242,-0.00637,-2.63210,1.06773,1.57080,0.11675,-0.12762,-0.48153,0.03499,,,,,,,,,,,,,,,,,,,,,,,,,,0,0,0,0,0
3.4824,1783967177.7762,1,1,6.0000,-0.0000,1.42242,-0.00637,-2.63210,1.06773,1.57080,0.11675,-0.12762,-0.48153,0.03499,,,,,,,,,,,,,,,,,,,,,,,,,,0,0,0,0,0
3.4989,1783967177.7926,1,1,6.0000,-0.0000,1.42242,-0.00637,-2.63210,1.06773,1.57080,0.11675,-0.12762,-0.48153,0.03499,,,,,,,,,,,,,,,,,,,,,,,,,,0,0,0,0,0
3.5072,1783967177.8010,1,1,6.0000,-0.0000,1.42242,-0.00637,-2.63210,1.06773,1.57080,0.11675,-0.12762,-0.48153,0.03499,,,,,,,,,,,,,,,,,,,,,,,,,,0,0,0,0,0
3.5113,1783967177.8050,1,1,6.0000,-0.0000,1.42242,-0.00637,-2.63210,1.06773,1.57080,0.11675,-0.12762,-0.48153,0.03499,,,,,,,,,,,,,,,,,,,,,,,,,,0,0,0,0,0
3.5219,1783967177.8156,1,1,6.0000,-0.0000,1.42242,-0.00637,-2.63210,1.06773,1.57080,0.11675,-0.12762,-0.48153,0.03499,,,,,,,,,,,,,,,,,,,,,,,,,,0,0,0,0,0
3.5224,1783967177.8162,1,1,6.0000,-0.0000,1.42242,-0.00637,-2.63210,1.06773,1.57080,0.11675,-0.12762,-0.48153,0.03499,,,,,,,,,,,,,,,,,,,,,,,,,,0,0,0,0,0
3.5325,1783967177.8262,1,1,6.0000,-0.0000,1.42242,-0.00637,-2.63210,1.06773,1.57080,0.11675,-0.12762,-0.48153,0.03499,,,,,,,,,,,,,,,,,,,,,,,,,,0,0,0,0,0
3.5328,1783967177.8266,1,1,6.0000,-0.0000,1.42242,-0.00637,-2.63210,1.06773,1.57080,0.11675,-0.12762,-0.48153,0.03499,,,,,,,,,,,,,,,,,,,,,,,,,,0,0,0,0,0
3.5417,1783967177.8355,1,1,6.0000,-0.0000,1.42242,-0.00637,-2.63210,1.06773,1.57080,0.11675,-0.12762,-0.48153,0.03499,,,,,,,,,,,,,,,,,,,,,,,,,,0,0,0,0,0
3.5421,1783967177.8359,1,1,6.0000,-0.0000,1.42242,-0.00637,-2.63210,1.06773,1.57080,0.11675,-0.12762,-0.48153,0.03499,,,,,,,,,,,,,,,,,,,,,,,,,,0,0,0,0,0
3.5547,1783967177.8485,1,1,6.0000,-0.0000,1.42242,-0.00637,-2.63210,1.06773,1.57080,0.11675,-0.12762,-0.48153,0.03499,,,,,,,,,,,,,,,,,,,,,,,,,,0,0,0,0,0
3.5630,1783967177.8568,1,1,6.0000,-0.0000,1.42242,-0.00637,-2.63210,1.06773,1.57080,0.11675,-0.12762,-0.48153,0.03499,,,,,,,,,,,,,,,,,,,,,,,,,,0,0,0,0,0
3.5709,1783967177.8646,1,1,6.0000,-0.0000,1.42242,-0.00637,-2.63211,1.06774,1.57080,0.11675,-0.12762,-0.48153,0.03498,,,,,,,,,,,,,,,,,,,,,,,,,,0,0,0,0,0
3.5895,1783967177.8832,1,1,6.0000,-0.0000,1.42242,-0.00640,-2.63213,1.06777,1.57080,0.11675,-0.12762,-0.48152,0.03496,,,,,,,,,,,,,,,,,,,,,,,,,,0,0,0,0,0
3.5922,1783967177.8859,1,1,6.0000,-0.0000,1.42242,-0.00640,-2.63213,1.06777,1.57080,0.11675,-0.12762,-0.48152,0.03496,,,,,,,,,,,,,,,,,,,,,,,,,,0,0,0,0,0
3.5925,1783967177.8863,1,1,6.0000,-0.0000,1.42242,-0.00640,-2.63213,1.06777,1.57080,0.11675,-0.12762,-0.48152,0.03496,,,,,,,,,,,,,,,,,,,,,,,,,,0,0,0,0,0
3.6001,1783967177.8938,1,1,6.0000,-0.0000,1.42242,-0.00643,-2.63215,1.06780,1.57080,0.11675,-0.12763,-0.48150,0.03495,,,,,,,,,,,,,,,,,,,,,,,,,,0,0,0,0,0
3.6004,1783967177.8942,1,1,6.0000,-0.0000,1.42242,-0.00643,-2.63215,1.06780,1.57080,0.11675,-0.12763,-0.48150,0.03495,,,,,,,,,,,,,,,,,,,,,,,,,,0,0,0,0,0
3.6120,1783967177.9057,1,1,6.0000,-0.0000,1.42242,-0.00650,-2.63221,1.06788,1.57080,0.11675,-0.12763,-0.48147,0.03490,,,,,,,,,,,,,,,,,,,,,,,,,,0,0,0,0,0
3.7248,1783967178.0185,1,1,6.0000,-0.0000,1.42242,-0.00713,-2.63235,1.06864,1.57080,0.11675,-0.12763,-0.48147,0.03469,,,,,,,,,,,,,,,,,,,,,,,,,,0,0,0,0,0
3.7258,1783967178.0195,1,1,6.0000,-0.0000,1.42242,-0.00717,-2.63236,1.06869,1.57080,0.11675,-0.12763,-0.48147,0.03467,,,,,,,,,,,,,,,,,,,,,,,,,,0,0,0,0,0
3.7623,1783967178.0560,1,1,6.0000,-0.0000,1.42241,-0.00736,-2.63236,1.06893,1.57080,0.11675,-0.12762,-0.48150,0.03463,,,,,,,,,,,,,,,,,,,,,,,,,,0,0,0,0,0
3.7625,1783967178.0563,1,1,6.0000,-0.0000,1.42241,-0.00736,-2.63236,1.06893,1.57080,0.11675,-0.12762,-0.48150,0.03463,,,,,,,,,,,,,,,,,,,,,,,,,,0,0,0,0,0
3.7675,1783967178.0612,1,1,6.0000,-0.0000,1.42241,-0.00739,-2.63236,1.06897,1.57080,0.11675,-0.12762,-0.48150,0.03462,,,,,,,,,,,,,,,,,,,,,,,,,,0,0,0,0,0
3.7677,1783967178.0615,1,1,6.0000,-0.0000,1.42241,-0.00739,-2.63236,1.06897,1.57080,0.11675,-0.12762,-0.48150,0.03462,,,,,,,,,,,,,,,,,,,,,,,,,,0,0,0,0,0
3.7681,1783967178.0618,1,1,6.0000,-0.0000,1.42241,-0.00739,-2.63236,1.06897,1.57080,0.11675,-0.12762,-0.48150,0.03462,,,,,,,,,,,,,,,,,,,,,,,,,,0,0,0,0,0
3.7684,1783967178.0621,1,1,6.0000,-0.0000,1.42241,-0.00739,-2.63236,1.06897,1.57080,0.11675,-0.12762,-0.48150,0.03462,,,,,,,,,,,,,,,,,,,,,,,,,,0,0,0,0,0
3.7704,1783967178.0642,1,1,6.0000,-0.0000,1.42241,-0.00742,-2.63236,1.06900,1.57080,0.11675,-0.12762,-0.48151,0.03462,,,,,,,,,,,,,,,,,,,,,,,,,,0,0,0,0,0
3.7769,1783967178.0707,1,1,6.0000,-0.0000,1.42241,-0.00745,-2.63235,1.06904,1.57080,0.11675,-0.12762,-0.48152,0.03461,,,,,,,,,,,,,,,,,,,,,,,,,,0,0,0,0,0
3.7776,1783967178.0713,1,1,6.0000,-0.0000,1.42241,-0.00747,-2.63235,1.06908,1.57080,0.11675,-0.12762,-0.48153,0.03461,,,,,,,,,,,,,,,,,,,,,,,,,,0,0,0,0,0
3.7779,1783967178.0717,1,1,6.0000,-0.0000,1.42241,-0.00747,-2.63235,1.06908,1.57080,0.11675,-0.12762,-0.48153,0.03461,,,,,,,,,,,,,,,,,,,,,,,,,,0,0,0,0,0
3.7823,1783967178.0760,1,1,6.0000,-0.0000,1.42241,-0.00750,-2.63234,1.06911,1.57080,0.11675,-0.12762,-0.48154,0.03461,,,,,,,,,,,,,,,,,,,,,,,,,,0,0,0,0,0
4.0070,1783967178.3007,1,1,6.0000,-0.0000,1.42241,-0.00758,-2.63233,1.06921,1.57080,0.11675,-0.12761,-0.48156,0.03459,,,,,,,,,,,,,,,,,,,,,,,,,,0,0,0,0,0
4.0115,1783967178.3053,1,1,6.0000,-0.0000,1.42241,-0.00759,-2.63233,1.06922,1.57080,0.11675,-0.12761,-0.48156,0.03459,,,,,,,,,,,,,,,,,,,,,,,,,,0,0,0,0,0
4.0118,1783967178.3056,1,1,6.0000,-0.0000,1.42241,-0.00759,-2.63233,1.06922,1.57080,0.11675,-0.12761,-0.48156,0.03459,,,,,,,,,,,,,,,,,,,,,,,,,,0,0,0,0,0
4.0285,1783967178.3223,1,1,6.0000,-0.0000,1.42241,-0.00764,-2.63239,1.06928,1.57080,0.11675,-0.12762,-0.48152,0.03455,,,,,,,,,,,,,,,,,,,,,,,,,,0,0,0,0,0
4.0288,1783967178.3226,1,1,6.0000,-0.0000,1.42241,-0.00764,-2.63239,1.06928,1.57080,0.11675,-0.12762,-0.48152,0.03455,,,,,,,,,,,,,,,,,,,,,,,,,,0,0,0,0,0
4.0363,1783967178.3301,1,1,6.0000,-0.0000,1.42241,-0.00765,-2.63240,1.06929,1.57080,0.11675,-0.12762,-0.48152,0.03454,,,,,,,,,,,,,,,,,,,,,,,,,,0,0,0,0,0
4.0366,1783967178.3304,1,1,6.0000,-0.0000,1.42241,-0.00765,-2.63240,1.06929,1.57080,0.11675,-0.12762,-0.48152,0.03454,,,,,,,,,,,,,,,,,,,,,,,,,,0,0,0,0,0
4.0375,1783967178.3312,1,1,6.0000,-0.0000,1.42241,-0.00765,-2.63240,1.06929,1.57080,0.11675,-0.12762,-0.48152,0.03454,,,,,,,,,,,,,,,,,,,,,,,,,,0,0,0,0,0
4.0378,1783967178.3316,1,1,6.0000,-0.0000,1.42241,-0.00766,-2.63240,1.06930,1.57080,0.11675,-0.12762,-0.48152,0.03454,,,,,,,,,,,,,,,,,,,,,,,,,,0,0,0,0,0
4.0380,1783967178.3317,1,1,6.0000,-0.0000,1.42241,-0.00766,-2.63240,1.06930,1.57080,0.11675,-0.12762,-0.48152,0.03454,,,,,,,,,,,,,,,,,,,,,,,,,,0,0,0,0,0
4.0382,1783967178.3320,1,1,6.0000,-0.0000,1.42241,-0.00766,-2.63240,1.06930,1.57080,0.11675,-0.12762,-0.48152,0.03454,,,,,,,,,,,,,,,,,,,,,,,,,,0,0,0,0,0
4.0386,1783967178.3323,1,1,6.0000,-0.0000,1.42241,-0.00766,-2.63240,1.06930,1.57080,0.11675,-0.12762,-0.48152,0.03454,,,,,,,,,,,,,,,,,,,,,,,,,,0,0,0,0,0
4.0426,1783967178.3364,1,1,6.0000,-0.0000,1.42241,-0.00768,-2.63241,1.06932,1.57080,0.11675,-0.12762,-0.48151,0.03453,,,,,,,,,,,,,,,,,,,,,,,,,,0,0,0,0,0
4.0429,1783967178.3366,1,1,6.0000,-0.0000,1.42241,-0.00768,-2.63241,1.06932,1.57080,0.11675,-0.12762,-0.48151,0.03453,,,,,,,,,,,,,,,,,,,,,,,,,,0,0,0,0,0
4.0449,1783967178.3386,1,1,6.0000,-0.0000,1.42241,-0.00768,-2.63241,1.06932,1.57080,0.11675,-0.12762,-0.48151,0.03453,,,,,,,,,,,,,,,,,,,,,,,,,,0,0,0,0,0
4.0453,1783967178.3390,1,1,6.0000,-0.0000,1.42241,-0.00768,-2.63241,1.06932,1.57080,0.11675,-0.12762,-0.48151,0.03453,,,,,,,,,,,,,,,,,,,,,,,,,,0,0,0,0,0
4.0457,1783967178.3395,1,1,6.0000,-0.0000,1.42241,-0.00770,-2.63243,1.06935,1.57080,0.11675,-0.12762,-0.48151,0.03452,,,,,,,,,,,,,,,,,,,,,,,,,,0,0,0,0,0
4.0459,1783967178.3396,1,1,6.0000,-0.0000,1.42241,-0.00770,-2.63243,1.06935,1.57080,0.11675,-0.12762,-0.48151,0.03452,,,,,,,,,,,,,,,,,,,,,,,,,,0,0,0,0,0
4.0483,1783967178.3420,1,1,6.0000,-0.0000,1.42241,-0.00770,-2.63243,1.06935,1.57080,0.11675,-0.12762,-0.48151,0.03452,,,,,,,,,,,,,,,,,,,,,,,,,,0,0,0,0,0
4.0486,1783967178.3424,1,1,6.0000,-0.0000,1.42241,-0.00770,-2.63243,1.06935,1.57080,0.11675,-0.12762,-0.48151,0.03452,,,,,,,,,,,,,,,,,,,,,,,,,,0,0,0,0,0
4.0645,1783967178.3583,1,1,6.0000,-0.0000,1.42241,-0.00778,-2.63248,1.06945,1.57080,0.11675,-0.12763,-0.48148,0.03447,,,,,,,,,,,,,,,,,,,,,,,,,,0,0,0,0,0
4.0648,1783967178.3586,1,1,6.0000,-0.0000,1.42241,-0.00778,-2.63248,1.06945,1.57080,0.11675,-0.12763,-0.48148,0.03447,,,,,,,,,,,,,,,,,,,,,,,,,,0,0,0,0,0
4.0665,1783967178.3603,1,1,6.0000,-0.0000,1.42241,-0.00779,-2.63248,1.06946,1.57080,0.11675,-0.12763,-0.48148,0.03447,,,,,,,,,,,,,,,,,,,,,,,,,,0,0,0,0,0
4.0669,1783967178.3607,1,1,6.0000,-0.0000,1.42241,-0.00779,-2.63248,1.06946,1.57080,0.11675,-0.12763,-0.48148,0.03447,,,,,,,,,,,,,,,,,,,,,,,,,,0,0,0,0,0
4.0674,1783967178.3612,1,1,6.0000,-0.0000,1.42241,-0.00779,-2.63248,1.06946,1.57080,0.11675,-0.12763,-0.48148,0.03447,,,,,,,,,,,,,,,,,,,,,,,,,,0,0,0,0,0
4.0679,1783967178.3616,1,1,6.0000,-0.0000,1.42241,-0.00779,-2.63248,1.06946,1.57080,0.11675,-0.12763,-0.48148,0.03447,,,,,,,,,,,,,,,,,,,,,,,,,,0,0,0,0,0
4.0690,1783967178.3627,1,1,6.0000,-0.0000,1.42241,-0.00779,-2.63248,1.06946,1.57080,0.11675,-0.12763,-0.48148,0.03447,,,,,,,,,,,,,,,,,,,,,,,,,,0,0,0,0,0
4.0697,1783967178.3634,1,1,6.0000,-0.0000,1.42241,-0.00780,-2.63248,1.06947,1.57080,0.11675,-0.12763,-0.48148,0.03447,,,,,,,,,,,,,,,,,,,,,,,,,,0,0,0,0,0
4.0701,1783967178.3638,1,1,6.0000,-0.0000,1.42241,-0.00780,-2.63248,1.06947,1.57080,0.11675,-0.12763,-0.48148,0.03447,,,,,,,,,,,,,,,,,,,,,,,,,,0,0,0,0,0
4.0705,1783967178.3642,1,1,6.0000,-0.0000,1.42241,-0.00780,-2.63248,1.06947,1.57080,0.11675,-0.12763,-0.48148,0.03447,,,,,,,,,,,,,,,,,,,,,,,,,,0,0,0,0,0
4.0759,1783967178.3696,1,1,6.0000,-0.0000,1.42241,-0.00783,-2.63249,1.06950,1.57080,0.11675,-0.12763,-0.48148,0.03446,,,,,,,,,,,,,,,,,,,,,,,,,,0,0,0,0,0
4.0763,1783967178.3700,1,1,6.0000,-0.0000,1.42241,-0.00783,-2.63249,1.06950,1.57080,0.11675,-0.12763,-0.48148,0.03446,,,,,,,,,,,,,,,,,,,,,,,,,,0,0,0,0,0
4.0817,1783967178.3754,1,1,6.0000,-0.0000,1.42241,-0.00789,-2.63251,1.06958,1.57080,0.11675,-0.12763,-0.48147,0.03443,,,,,,,,,,,,,,,,,,,,,,,,,,0,0,0,0,0
4.0820,1783967178.3757,1,1,6.0000,-0.0000,1.42241,-0.00789,-2.63251,1.06958,1.57080,0.11675,-0.12763,-0.48147,0.03443,,,,,,,,,,,,,,,,,,,,,,,,,,0,0,0,0,0
4.0826,1783967178.3764,1,1,6.0000,-0.0000,1.42241,-0.00789,-2.63251,1.06958,1.57080,0.11675,-0.12763,-0.48147,0.03443,,,,,,,,,,,,,,,,,,,,,,,,,,0,0,0,0,0
4.0830,1783967178.3767,1,1,6.0000,-0.0000,1.42241,-0.00789,-2.63251,1.06958,1.57080,0.11675,-0.12763,-0.48147,0.03443,,,,,,,,,,,,,,,,,,,,,,,,,,0,0,0,0,0
4.0846,1783967178.3783,1,1,6.0000,-0.0000,1.42241,-0.00789,-2.63251,1.06958,1.57080,0.11675,-0.12763,-0.48147,0.03443,,,,,,,,,,,,,,,,,,,,,,,,,,0,0,0,0,0
4.0849,1783967178.3787,1,1,6.0000,-0.0000,1.42241,-0.00789,-2.63251,1.06958,1.57080,0.11675,-0.12763,-0.48147,0.03443,,,,,,,,,,,,,,,,,,,,,,,,,,0,0,0,0,0
4.0978,1783967178.3915,1,1,6.0000,-0.0000,1.42241,-0.00804,-2.63255,1.06975,1.57080,0.11675,-0.12763,-0.48147,0.03438,,,,,,,,,,,,,,,,,,,,,,,,,,0,0,0,0,0
4.1129,1783967178.4066,1,1,6.0000,-0.0000,1.42241,-0.00809,-2.63256,1.06981,1.57080,0.11675,-0.12763,-0.48147,0.03436,,,,,,,,,,,,,,,,,,,,,,,,,,0,0,0,0,0
4.1164,1783967178.4101,1,1,6.0000,-0.0000,1.42241,-0.00812,-2.63257,1.06985,1.57080,0.11675,-0.12763,-0.48147,0.03435,,,,,,,,,,,,,,,,,,,,,,,,,,0,0,0,0,0
4.1262,1783967178.4199,1,1,6.0000,-0.0000,1.42241,-0.00817,-2.63258,1.06990,1.57080,0.11675,-0.12763,-0.48147,0.03434,,,,,,,,,,,,,,,,,,,,,,,,,,0,0,0,0,0
4.1348,1783967178.4286,1,1,6.0000,-0.0000,1.42241,-0.00821,-2.63259,1.06996,1.57080,0.11675,-0.12763,-0.48147,0.03432,,,,,,,,,,,,,,,,,,,,,,,,,,0,0,0,0,0
4.1403,1783967178.4340,1,1,6.0000,-0.0000,1.42241,-0.00824,-2.63259,1.07000,1.57080,0.11675,-0.12763,-0.48147,0.03431,,,,,,,,,,,,,,,,,,,,,,,,,,0,0,0,0,0
4.1406,1783967178.4343,1,1,6.0000,-0.0000,1.42241,-0.00824,-2.63259,1.07000,1.57080,0.11675,-0.12763,-0.48147,0.03431,,,,,,,,,,,,,,,,,,,,,,,,,,0,0,0,0,0
4.1551,1783967178.4489,1,1,6.0000,-0.0000,1.42241,-0.00838,-2.63262,1.07016,1.57080,0.11675,-0.12763,-0.48147,0.03427,,,,,,,,,,,,,,,,,,,,,,,,,,0,0,0,0,0
4.1659,1783967178.4597,1,1,6.0000,-0.0000,1.42241,-0.00842,-2.63262,1.07021,1.57080,0.11675,-0.12762,-0.48148,0.03426,,,,,,,,,,,,,,,,,,,,,,,,,,0,0,0,0,0
4.1714,1783967178.4651,1,1,6.0000,-0.0000,1.42241,-0.00844,-2.63262,1.07024,1.57080,0.11675,-0.12762,-0.48148,0.03425,,,,,,,,,,,,,,,,,,,,,,,,,,0,0,0,0,0
4.1819,1783967178.4757,1,1,6.0000,-0.0000,1.42241,-0.00854,-2.63261,1.07036,1.57080,0.11675,-0.12762,-0.48150,0.03423,,,,,,,,,,,,,,,,,,,,,,,,,,0,0,0,0,0
4.1910,1783967178.4848,1,1,6.0000,-0.0000,1.42241,-0.00861,-2.63261,1.07045,1.57080,0.11675,-0.12762,-0.48152,0.03422,,,,,,,,,,,,,,,,,,,,,,,,,,0,0,0,0,0
4.2078,1783967178.5015,1,1,6.0000,-0.0000,1.42241,-0.00872,-2.63258,1.07059,1.57080,0.11675,-0.12761,-0.48156,0.03420,,,,,,,,,,,,,,,,,,,,,,,,,,0,0,0,0,0
4.2127,1783967178.5064,1,1,6.0000,-0.0000,1.42241,-0.00874,-2.63257,1.07061,1.57080,0.11675,-0.12761,-0.48157,0.03420,,,,,,,,,,,,,,,,,,,,,,,,,,0,0,0,0,0
4.2328,1783967178.5265,1,1,6.0000,-0.0000,1.42241,-0.00875,-2.63256,1.07062,1.57080,0.11675,-0.12761,-0.48158,0.03421,,,,,,,,,,,,,,,,,,,,,,,,,,0,0,0,0,0
4.2340,1783967178.5277,1,1,6.0000,-0.0000,1.42241,-0.00875,-2.63256,1.07062,1.57080,0.11675,-0.12761,-0.48158,0.03421,,,,,,,,,,,,,,,,,,,,,,,,,,0,0,0,0,0
4.2342,1783967178.5280,1,1,6.0000,-0.0000,1.42241,-0.00875,-2.63256,1.07062,1.57080,0.11675,-0.12761,-0.48158,0.03421,,,,,,,,,,,,,,,,,,,,,,,,,,0,0,0,0,0
4.2423,1783967178.5361,1,1,6.0000,-0.0000,1.42241,-0.00875,-2.63256,1.07062,1.57080,0.11675,-0.12761,-0.48158,0.03421,,,,,,,,,,,,,,,,,,,,,,,,,,0,0,0,0,0
4.2523,1783967178.5460,1,1,6.0000,-0.0000,1.42241,-0.00875,-2.63256,1.07062,1.57080,0.11675,-0.12761,-0.48158,0.03421,,,,,,,,,,,,,,,,,,,,,,,,,,0,0,0,0,0
4.2685,1783967178.5623,1,1,6.0000,-0.0000,1.42241,-0.00875,-2.63256,1.07062,1.57080,0.11675,-0.12761,-0.48158,0.03421,,,,,,,,,,,,,,,,,,,,,,,,,,0,0,0,0,0
4.2729,1783967178.5667,1,1,6.0000,-0.0000,1.42241,-0.00875,-2.63256,1.07062,1.57080,0.11675,-0.12761,-0.48158,0.03421,,,,,,,,,,,,,,,,,,,,,,,,,,0,0,0,0,0
4.2818,1783967178.5756,1,1,6.0000,-0.0000,1.42241,-0.00875,-2.63256,1.07062,1.57080,0.11675,-0.12761,-0.48158,0.03421,,,,,,,,,,,,,,,,,,,,,,,,,,0,0,0,0,0
4.2947,1783967178.5884,1,1,6.0000,-0.0000,1.42241,-0.00875,-2.63256,1.07062,1.57080,0.11675,-0.12761,-0.48158,0.03421,,,,,,,,,,,,,,,,,,,,,,,,,,0,0,0,0,0
4.3017,1783967178.5955,1,1,6.0000,-0.0000,1.42241,-0.00875,-2.63256,1.07062,1.57080,0.11675,-0.12761,-0.48158,0.03421,,,,,,,,,,,,,,,,,,,,,,,,,,0,0,0,0,0
4.3113,1783967178.6051,1,1,6.0000,-0.0000,1.42241,-0.00875,-2.63256,1.07062,1.57080,0.11675,-0.12761,-0.48158,0.03421,,,,,,,,,,,,,,,,,,,,,,,,,,0,0,0,0,0
4.3264,1783967178.6202,1,1,6.0000,-0.0000,1.42241,-0.00875,-2.63256,1.07062,1.57080,0.11675,-0.12761,-0.48158,0.03421,,,,,,,,,,,,,,,,,,,,,,,,,,0,0,0,0,0
4.3303,1783967178.6241,1,1,6.0000,-0.0000,1.42241,-0.00875,-2.63256,1.07062,1.57080,0.11675,-0.12761,-0.48158,0.03421,,,,,,,,,,,,,,,,,,,,,,,,,,0,0,0,0,0
4.3308,1783967178.6246,1,1,6.0000,-0.0000,1.42241,-0.00875,-2.63256,1.07062,1.57080,0.11675,-0.12761,-0.48158,0.03421,,,,,,,,,,,,,,,,,,,,,,,,,,0,0,0,0,0
4.3448,1783967178.6386,1,1,6.0000,-0.0000,1.42241,-0.00875,-2.63256,1.07062,1.57080,0.11675,-0.12761,-0.48158,0.03421,,,,,,,,,,,,,,,,,,,,,,,,,,0,0,0,0,0
4.3504,1783967178.6441,1,1,6.0000,-0.0000,1.42241,-0.00875,-2.63256,1.07062,1.57080,0.11675,-0.12761,-0.48158,0.03421,,,,,,,,,,,,,,,,,,,,,,,,,,0,0,0,0,0
4.3623,1783967178.6561,1,1,6.0000,-0.0000,1.42241,-0.00875,-2.63256,1.07062,1.57080,0.11675,-0.12761,-0.48158,0.03421,,,,,,,,,,,,,,,,,,,,,,,,,,0,0,0,0,0
4.3747,1783967178.6685,1,1,6.0000,-0.0000,1.42241,-0.00875,-2.63256,1.07062,1.57080,0.11675,-0.12761,-0.48158,0.03421,,,,,,,,,,,,,,,,,,,,,,,,,,0,0,0,0,0
4.3832,1783967178.6769,1,1,6.0000,-0.0000,1.42241,-0.00875,-2.63256,1.07062,1.57080,0.11675,-0.12761,-0.48158,0.03421,,,,,,,,,,,,,,,,,,,,,,,,,,0,0,0,0,0
4.3912,1783967178.6850,1,1,6.0000,-0.0000,1.42241,-0.00875,-2.63256,1.07062,1.57080,0.11675,-0.12761,-0.48158,0.03421,,,,,,,,,,,,,,,,,,,,,,,,,,0,0,0,0,0
4.4107,1783967178.7044,1,1,6.0000,-0.0000,1.42241,-0.00876,-2.63259,1.07064,1.57080,0.11675,-0.12761,-0.48156,0.03419,,,,,,,,,,,,,,,,,,,,,,,,,,0,0,0,0,0
4.4238,1783967178.7176,1,1,6.0000,-0.0000,1.42241,-0.00877,-2.63262,1.07066,1.57080,0.11675,-0.12761,-0.48154,0.03418,,,,,,,,,,,,,,,,,,,,,,,,,,0,0,0,0,0
4.4287,1783967178.7225,1,1,6.0000,-0.0000,1.42241,-0.00877,-2.63262,1.07066,1.57080,0.11675,-0.12761,-0.48154,0.03418,,,,,,,,,,,,,,,,,,,,,,,,,,0,0,0,0,0
4.4319,1783967178.7257,1,1,6.0000,-0.0000,1.42241,-0.00878,-2.63263,1.07067,1.57080,0.11675,-0.12762,-0.48153,0.03417,,,,,,,,,,,,,,,,,,,,,,,,,,0,0,0,0,0
4.4324,1783967178.7262,1,1,6.0000,-0.0000,1.42241,-0.00878,-2.63263,1.07067,1.57080,0.11675,-0.12762,-0.48153,0.03417,,,,,,,,,,,,,,,,,,,,,,,,,,0,0,0,0,0
4.4420,1783967178.7358,1,1,6.0000,-0.0000,1.42241,-0.00882,-2.63267,1.07072,1.57081,0.11675,-0.12762,-0.48151,0.03414,,,,,,,,,,,,,,,,,,,,,,,,,,0,0,0,0,0
4.4524,1783967178.7461,1,1,6.0000,-0.0000,1.42241,-0.00886,-2.63271,1.07076,1.57081,0.11675,-0.12762,-0.48148,0.03411,,,,,,,,,,,,,,,,,,,,,,,,,,0,0,0,0,0
4.4607,1783967178.7544,1,1,6.0000,-0.0000,1.42241,-0.00888,-2.63273,1.07079,1.57081,0.11675,-0.12762,-0.48147,0.03410,,,,,,,,,,,,,,,,,,,,,,,,,,0,0,0,0,0
4.4715,1783967178.7653,1,1,6.0000,-0.0000,1.42241,-0.00891,-2.63275,1.07082,1.57081,0.11675,-0.12763,-0.48147,0.03409,,,,,,,,,,,,,,,,,,,,,,,,,,0,0,0,0,0
4.4823,1783967178.7760,1,1,6.0000,-0.0000,1.42241,-0.00895,-2.63277,1.07087,1.57081,0.11675,-0.12763,-0.48146,0.03407,,,,,,,,,,,,,,,,,,,,,,,,,,0,0,0,0,0
4.4826,1783967178.7763,1,1,6.0000,-0.0000,1.42241,-0.00895,-2.63277,1.07087,1.57081,0.11675,-0.12763,-0.48146,0.03407,,,,,,,,,,,,,,,,,,,,,,,,,,0,0,0,0,0
4.4923,1783967178.7861,1,1,6.0000,-0.0000,1.42241,-0.00898,-2.63277,1.07090,1.57081,0.11675,-0.12763,-0.48146,0.03406,,,,,,,,,,,,,,,,,,,,,,,,,,0,0,0,0,0
4.5070,1783967178.8007,1,1,6.0000,-0.0000,1.42241,-0.00913,-2.63281,1.07108,1.57081,0.11675,-0.12763,-0.48146,0.03401,,,,,,,,,,,,,,,,,,,,,,,,,,0,0,0,0,0
4.5121,1783967178.8058,1,1,6.0000,-0.0000,1.42241,-0.00918,-2.63282,1.07114,1.57081,0.11675,-0.12763,-0.48146,0.03399,,,,,,,,,,,,,,,,,,,,,,,,,,0,0,0,0,0
4.5221,1783967178.8158,1,1,6.0000,-0.0000,1.42241,-0.00920,-2.63282,1.07117,1.57081,0.11675,-0.12763,-0.48146,0.03398,,,,,,,,,,,,,,,,,,,,,,,,,,0,0,0,0,0
4.5223,1783967178.8161,1,1,6.0000,-0.0000,1.42241,-0.00920,-2.63282,1.07117,1.57081,0.11675,-0.12763,-0.48146,0.03398,,,,,,,,,,,,,,,,,,,,,,,,,,0,0,0,0,0
4.5333,1783967178.8270,1,1,6.0000,-0.0000,1.42241,-0.00926,-2.63283,1.07124,1.57081,0.11675,-0.12763,-0.48146,0.03396,,,,,,,,,,,,,,,,,,,,,,,,,,0,0,0,0,0
4.5459,1783967178.8397,1,1,6.0000,-0.0000,1.42241,-0.00940,-2.63286,1.07141,1.57081,0.11675,-0.12763,-0.48146,0.03391,,,,,,,,,,,,,,,,,,,,,,,,,,0,0,0,0,0
4.5587,1783967178.8525,1,1,6.0000,-0.0000,1.42241,-0.00945,-2.63287,1.07146,1.57081,0.11675,-0.12763,-0.48146,0.03390,,,,,,,,,,,,,,,,,,,,,,,,,,0,0,0,0,0
4.5630,1783967178.8567,1,1,6.0000,-0.0000,1.42241,-0.00948,-2.63287,1.07150,1.57081,0.11675,-0.12763,-0.48146,0.03389,,,,,,,,,,,,,,,,,,,,,,,,,,0,0,0,0,0
4.5767,1783967178.8704,1,1,6.0000,-0.0000,1.42241,-0.00960,-2.63289,1.07164,1.57081,0.11675,-0.12762,-0.48147,0.03385,,,,,,,,,,,,,,,,,,,,,,,,,,0,0,0,0,0
4.5806,1783967178.8744,1,1,6.0000,-0.0000,1.42241,-0.00964,-2.63289,1.07170,1.57081,0.11675,-0.12762,-0.48147,0.03384,,,,,,,,,,,,,,,,,,,,,,,,,,0,0,0,0,0
4.5930,1783967178.8868,1,1,6.0000,-0.0000,1.42241,-0.00978,-2.63291,1.07186,1.57081,0.11675,-0.12762,-0.48148,0.03380,,,,,,,,,,,,,,,,,,,,,,,,,,0,0,0,0,0
4.5934,1783967178.8872,1,1,6.0000,-0.0000,1.42241,-0.00978,-2.63291,1.07186,1.57081,0.11675,-0.12762,-0.48148,0.03380,,,,,,,,,,,,,,,,,,,,,,,,,,0,0,0,0,0
4.6140,1783967178.9077,1,1,6.0000,-0.0000,1.42241,-0.00991,-2.63292,1.07203,1.57081,0.11675,-0.12762,-0.48149,0.03377,,,,,,,,,,,,,,,,,,,,,,,,,,0,0,0,0,0
4.6233,1783967178.9170,1,1,6.0000,-0.0000,1.42241,-0.00991,-2.63292,1.07203,1.57081,0.11675,-0.12762,-0.48150,0.03377,,,,,,,,,,,,,,,,,,,,,,,,,,0,0,0,0,0
4.6262,1783967178.9200,1,1,6.0000,-0.0000,1.42241,-0.00991,-2.63292,1.07203,1.57081,0.11675,-0.12762,-0.48150,0.03377,,,,,,,,,,,,,,,,,,,,,,,,,,0,0,0,0,0
4.6267,1783967178.9204,1,1,6.0000,-0.0000,1.42241,-0.00991,-2.63292,1.07203,1.57081,0.11675,-0.12762,-0.48150,0.03377,,,,,,,,,,,,,,,,,,,,,,,,,,0,0,0,0,0
4.6378,1783967178.9316,1,1,6.0000,-0.0000,1.42241,-0.00991,-2.63290,1.07204,1.57081,0.11675,-0.12762,-0.48151,0.03378,,,,,,,,,,,,,,,,,,,,,,,,,,0,0,0,0,0
4.6420,1783967178.9358,1,1,6.0000,-0.0000,1.42241,-0.00991,-2.63289,1.07204,1.57081,0.11675,-0.12761,-0.48152,0.03378,,,,,,,,,,,,,,,,,,,,,,,,,,0,0,0,0,0
4.6565,1783967178.9502,1,1,6.0000,-0.0000,1.42241,-0.00992,-2.63286,1.07205,1.57081,0.11675,-0.12761,-0.48155,0.03379,,,,,,,,,,,,,,,,,,,,,,,,,,0,0,0,0,0
4.6568,1783967178.9506,1,1,6.0000,-0.0000,1.42241,-0.00992,-2.63286,1.07205,1.57081,0.11675,-0.12761,-0.48155,0.03379,,,,,,,,,,,,,,,,,,,,,,,,,,0,0,0,0,0
4.6648,1783967178.9586,1,1,6.0000,-0.0000,1.42241,-0.00992,-2.63283,1.07206,1.57081,0.11675,-0.12761,-0.48157,0.03380,,,,,,,,,,,,,,,,,,,,,,,,,,0,0,0,0,0
4.6778,1783967178.9715,1,1,6.0000,-0.0000,1.42241,-0.00993,-2.63279,1.07208,1.57081,0.11675,-0.12760,-0.48160,0.03382,,,,,,,,,,,,,,,,,,,,,,,,,,0,0,0,0,0
4.6804,1783967178.9742,1,1,6.0000,-0.0000,1.42241,-0.00993,-2.63279,1.07208,1.57081,0.11675,-0.12760,-0.48160,0.03382,,,,,,,,,,,,,,,,,,,,,,,,,,0,0,0,0,0
4.7379,1783967179.0316,1,1,6.0000,-0.0000,1.42241,-0.00993,-2.63279,1.07208,1.57081,0.11675,-0.12760,-0.48160,0.03382,,,,,,,,,,,,,,,,,,,,,,,,,,0,0,0,0,0
4.7387,1783967179.0324,1,1,6.0000,-0.0000,1.42241,-0.00993,-2.63279,1.07208,1.57081,0.11675,-0.12760,-0.48160,0.03382,,,,,,,,,,,,,,,,,,,,,,,,,,0,0,0,0,0
4.7389,1783967179.0327,1,1,6.0000,-0.0000,1.42241,-0.00993,-2.63279,1.07208,1.57081,0.11675,-0.12760,-0.48160,0.03382,,,,,,,,,,,,,,,,,,,,,,,,,,0,0,0,0,0
4.7443,1783967179.0381,1,1,6.0000,-0.0000,1.42241,-0.00993,-2.63279,1.07208,1.57081,0.11675,-0.12760,-0.48160,0.03382,,,,,,,,,,,,,,,,,,,,,,,,,,0,0,0,0,0
4.7448,1783967179.0386,1,1,6.0000,-0.0000,1.42241,-0.00993,-2.63279,1.07208,1.57081,0.11675,-0.12760,-0.48160,0.03382,,,,,,,,,,,,,,,,,,,,,,,,,,0,0,0,0,0
4.7451,1783967179.0388,1,1,6.0000,-0.0000,1.42241,-0.00993,-2.63279,1.07208,1.57081,0.11675,-0.12760,-0.48160,0.03382,,,,,,,,,,,,,,,,,,,,,,,,,,0,0,0,0,0
4.7522,1783967179.0459,1,1,6.0000,-0.0000,1.42241,-0.00993,-2.63279,1.07208,1.57081,0.11675,-0.12760,-0.48160,0.03382,,,,,,,,,,,,,,,,,,,,,,,,,,0,0,0,0,0
4.7525,1783967179.0463,1,1,6.0000,-0.0000,1.42241,-0.00993,-2.63279,1.07208,1.57081,0.11675,-0.12760,-0.48160,0.03382,,,,,,,,,,,,,,,,,,,,,,,,,,0,0,0,0,0
4.7606,1783967179.0544,1,1,6.0000,-0.0000,1.42241,-0.00993,-2.63279,1.07208,1.57081,0.11675,-0.12760,-0.48160,0.03382,,,,,,,,,,,,,,,,,,,,,,,,,,0,0,0,0,0
4.7785,1783967179.0723,1,1,6.0000,-0.0000,1.42241,-0.00993,-2.63279,1.07208,1.57081,0.11675,-0.12760,-0.48160,0.03382,,,,,,,,,,,,,,,,,,,,,,,,,,0,0,0,0,0
4.7807,1783967179.0745,1,1,6.0000,-0.0000,1.42241,-0.00993,-2.63279,1.07208,1.57081,0.11675,-0.12760,-0.48160,0.03382,,,,,,,,,,,,,,,,,,,,,,,,,,0,0,0,0,0
4.7918,1783967179.0856,1,1,6.0000,-0.0000,1.42241,-0.00993,-2.63279,1.07208,1.57081,0.11675,-0.12760,-0.48160,0.03382,,,,,,,,,,,,,,,,,,,,,,,,,,0,0,0,0,0
4.7922,1783967179.0859,1,1,6.0000,-0.0000,1.42241,-0.00993,-2.63279,1.07208,1.57081,0.11675,-0.12760,-0.48160,0.03382,,,,,,,,,,,,,,,,,,,,,,,,,,0,0,0,0,0
4.8019,1783967179.0956,1,1,6.0000,-0.0000,1.42241,-0.00993,-2.63279,1.07208,1.57081,0.11675,-0.12760,-0.48160,0.03382,,,,,,,,,,,,,,,,,,,,,,,,,,0,0,0,0,0
4.8127,1783967179.1065,1,1,6.0000,-0.0000,1.42241,-0.00993,-2.63279,1.07208,1.57081,0.11675,-0.12760,-0.48160,0.03382,,,,,,,,,,,,,,,,,,,,,,,,,,0,0,0,0,0
4.8130,1783967179.1068,1,1,6.0000,-0.0000,1.42241,-0.00993,-2.63279,1.07208,1.57081,0.11675,-0.12760,-0.48160,0.03382,,,,,,,,,,,,,,,,,,,,,,,,,,0,0,0,0,0
4.8240,1783967179.1177,1,1,6.0000,-0.0000,1.42241,-0.00993,-2.63280,1.07208,1.57081,0.11675,-0.12760,-0.48159,0.03382,,,,,,,,,,,,,,,,,,,,,,,,,,0,0,0,0,0
4.8386,1783967179.1323,1,1,6.0000,-0.0000,1.42240,-0.00995,-2.63284,1.07210,1.57081,0.11675,-0.12761,-0.48156,0.03379,,,,,,,,,,,,,,,,,,,,,,,,,,0,0,0,0,0
4.8410,1783967179.1347,1,1,6.0000,-0.0000,1.42240,-0.00995,-2.63284,1.07210,1.57081,0.11675,-0.12761,-0.48156,0.03379,,,,,,,,,,,,,,,,,,,,,,,,,,0,0,0,0,0
4.8513,1783967179.1450,1,1,6.0000,-0.0000,1.42240,-0.00996,-2.63286,1.07211,1.57081,0.11675,-0.12761,-0.48156,0.03379,,,,,,,,,,,,,,,,,,,,,,,,,,0,0,0,0,0
4.8623,1783967179.1560,1,1,6.0000,-0.0000,1.42240,-0.00999,-2.63291,1.07215,1.57081,0.11675,-0.12761,-0.48152,0.03375,,,,,,,,,,,,,,,,,,,,,,,,,,0,0,0,0,0
4.8626,1783967179.1564,1,1,6.0000,-0.0000,1.42240,-0.00999,-2.63291,1.07215,1.57081,0.11675,-0.12761,-0.48152,0.03375,,,,,,,,,,,,,,,,,,,,,,,,,,0,0,0,0,0
4.8728,1783967179.1666,1,1,6.0000,-0.0000,1.42240,-0.01003,-2.63296,1.07219,1.57081,0.11675,-0.12762,-0.48149,0.03372,,,,,,,,,,,,,,,,,,,,,,,,,,0,0,0,0,0
4.8807,1783967179.1744,1,1,6.0000,-0.0000,1.42240,-0.01004,-2.63296,1.07220,1.57081,0.11675,-0.12762,-0.48149,0.03372,,,,,,,,,,,,,,,,,,,,,,,,,,0,0,0,0,0
4.8953,1783967179.1891,1,1,6.0000,-0.0000,1.42240,-0.01010,-2.63300,1.07227,1.57081,0.11675,-0.12762,-0.48147,0.03369,,,,,,,,,,,,,,,,,,,,,,,,,,0,0,0,0,0
4.9113,1783967179.2051,1,1,6.0000,-0.0000,1.42240,-0.01016,-2.63303,1.07234,1.57081,0.11675,-0.12762,-0.48145,0.03366,,,,,,,,,,,,,,,,,,,,,,,,,,0,0,0,0,0
4.9153,1783967179.2091,1,1,6.0000,-0.0000,1.42240,-0.01018,-2.63304,1.07236,1.57081,0.11675,-0.12762,-0.48145,0.03365,,,,,,,,,,,,,,,,,,,,,,,,,,0,0,0,0,0
4.9331,1783967179.2268,1,1,6.0000,-0.0000,1.42240,-0.01031,-2.63307,1.07251,1.57081,0.11675,-0.12762,-0.48145,0.03360,,,,,,,,,,,,,,,,,,,,,,,,,,0,0,0,0,0
4.9340,1783967179.2278,1,1,6.0000,-0.0000,1.42240,-0.01035,-2.63308,1.07257,1.57081,0.11675,-0.12763,-0.48145,0.03359,,,,,,,,,,,,,,,,,,,,,,,,,,0,0,0,0,0
4.9344,1783967179.2282,1,1,6.0000,-0.0000,1.42240,-0.01035,-2.63308,1.07257,1.57081,0.11675,-0.12763,-0.48145,0.03359,,,,,,,,,,,,,,,,,,,,,,,,,,0,0,0,0,0
4.9406,1783967179.2344,1,1,6.0000,-0.0000,1.42240,-0.01035,-2.63308,1.07257,1.57081,0.11675,-0.12763,-0.48145,0.03359,,,,,,,,,,,,,,,,,,,,,,,,,,0,0,0,0,0
4.9559,1783967179.2497,1,1,6.0000,-0.0000,1.42240,-0.01044,-2.63310,1.07267,1.57081,0.11675,-0.12762,-0.48145,0.03356,,,,,,,,,,,,,,,,,,,,,,,,,,0,0,0,0,0
4.9654,1783967179.2591,1,1,6.0000,-0.0000,1.42240,-0.01048,-2.63310,1.07272,1.57081,0.11675,-0.12762,-0.48145,0.03355,,,,,,,,,,,,,,,,,,,,,,,,,,0,0,0,0,0
4.9717,1783967179.2655,1,1,6.0000,-0.0000,1.42240,-0.01051,-2.63311,1.07275,1.57081,0.11675,-0.12762,-0.48145,0.03354,,,,,,,,,,,,,,,,,,,,,,,,,,0,0,0,0,0
4.9844,1783967179.2781,1,1,6.0000,-0.0000,1.42240,-0.01062,-2.63312,1.07288,1.57081,0.11675,-0.12762,-0.48146,0.03350,,,,,,,,,,,,,,,,,,,,,,,,,,0,0,0,0,0
5.0229,1783967179.3166,1,1,6.0000,-0.0000,1.42240,-0.01107,-2.63319,1.07343,1.57081,0.11675,-0.12762,-0.48148,0.03337,,,,,,,,,,,,,,,,,,,,,,,,,,0,0,0,0,0
5.0343,1783967179.3280,1,1,6.0000,-0.0000,1.42240,-0.01107,-2.63319,1.07343,1.57081,0.11675,-0.12762,-0.48148,0.03337,,,,,,,,,,,,,,,,,,,,,,,,,,0,0,0,0,0
5.0345,1783967179.3283,1,1,6.0000,-0.0000,1.42240,-0.01107,-2.63319,1.07343,1.57081,0.11675,-0.12762,-0.48148,0.03337,,,,,,,,,,,,,,,,,,,,,,,,,,0,0,0,0,0
5.0446,1783967179.3384,1,1,6.0000,-0.0000,1.42240,-0.01107,-2.63319,1.07343,1.57081,0.11675,-0.12762,-0.48148,0.03337,,,,,,,,,,,,,,,,,,,,,,,,,,0,0,0,0,0
5.0667,1783967179.3604,1,1,6.0000,-0.0000,1.42240,-0.01107,-2.63319,1.07343,1.57081,0.11675,-0.12762,-0.48148,0.03337,,,,,,,,,,,,,,,,,,,,,,,,,,0,0,0,0,0
5.0673,1783967179.3610,1,1,6.0000,-0.0000,1.42240,-0.01107,-2.63319,1.07343,1.57081,0.11675,-0.12762,-0.48148,0.03337,,,,,,,,,,,,,,,,,,,,,,,,,,0,0,0,0,0
5.0676,1783967179.3614,1,1,6.0000,-0.0000,1.42240,-0.01107,-2.63319,1.07343,1.57081,0.11675,-0.12762,-0.48148,0.03337,,,,,,,,,,,,,,,,,,,,,,,,,,0,0,0,0,0
5.0687,1783967179.3624,1,1,6.0000,-0.0000,1.42240,-0.01107,-2.63319,1.07343,1.57081,0.11675,-0.12762,-0.48148,0.03337,,,,,,,,,,,,,,,,,,,,,,,,,,0,0,0,0,0
5.0691,1783967179.3628,1,1,6.0000,-0.0000,1.42240,-0.01107,-2.63319,1.07343,1.57081,0.11675,-0.12762,-0.48148,0.03337,,,,,,,,,,,,,,,,,,,,,,,,,,0,0,0,0,0
5.0726,1783967179.3664,1,1,6.0000,-0.0000,1.42240,-0.01107,-2.63319,1.07343,1.57081,0.11675,-0.12762,-0.48148,0.03337,,,,,,,,,,,,,,,,,,,,,,,,,,0,0,0,0,0
5.0731,1783967179.3669,1,1,6.0000,-0.0000,1.42240,-0.01107,-2.63319,1.07343,1.57081,0.11675,-0.12762,-0.48148,0.03337,,,,,,,,,,,,,,,,,,,,,,,,,,0,0,0,0,0
5.0859,1783967179.3797,1,1,6.0000,-0.0000,1.42240,-0.01107,-2.63319,1.07343,1.57081,0.11675,-0.12762,-0.48148,0.03337,,,,,,,,,,,,,,,,,,,,,,,,,,0,0,0,0,0
5.0943,1783967179.3880,1,1,6.0000,-0.0000,1.42240,-0.01107,-2.63319,1.07343,1.57081,0.11675,-0.12762,-0.48148,0.03337,,,,,,,,,,,,,,,,,,,,,,,,,,0,0,0,0,0
5.0946,1783967179.3884,1,1,6.0000,-0.0000,1.42240,-0.01107,-2.63319,1.07343,1.57081,0.11675,-0.12762,-0.48148,0.03337,,,,,,,,,,,,,,,,,,,,,,,,,,0,0,0,0,0
5.1024,1783967179.3962,1,1,6.0000,-0.0000,1.42240,-0.01107,-2.63319,1.07343,1.57081,0.11675,-0.12762,-0.48148,0.03337,,,,,,,,,,,,,,,,,,,,,,,,,,0,0,0,0,0
5.1027,1783967179.3965,1,1,6.0000,-0.0000,1.42240,-0.01107,-2.63319,1.07343,1.57081,0.11675,-0.12762,-0.48148,0.03337,,,,,,,,,,,,,,,,,,,,,,,,,,0,0,0,0,0
5.1191,1783967179.4129,1,1,6.0000,-0.0000,1.42240,-0.01107,-2.63319,1.07343,1.57081,0.11675,-0.12762,-0.48148,0.03337,,,,,,,,,,,,,,,,,,,,,,,,,,0,0,0,0,0
5.1274,1783967179.4211,1,1,6.0000,-0.0000,1.42240,-0.01107,-2.63319,1.07343,1.57081,0.11675,-0.12762,-0.48148,0.03337,,,,,,,,,,,,,,,,,,,,,,,,,,0,0,0,0,0
5.1327,1783967179.4265,1,1,6.0000,-0.0000,1.42240,-0.01107,-2.63319,1.07343,1.57081,0.11675,-0.12762,-0.48148,0.03337,,,,,,,,,,,,,,,,,,,,,,,,,,0,0,0,0,0
5.1330,1783967179.4268,1,1,6.0000,-0.0000,1.42240,-0.01107,-2.63319,1.07343,1.57081,0.11675,-0.12762,-0.48148,0.03337,,,,,,,,,,,,,,,,,,,,,,,,,,0,0,0,0,0
5.1483,1783967179.4420,1,1,6.0000,-0.0000,1.42240,-0.01107,-2.63319,1.07343,1.57081,0.11675,-0.12762,-0.48148,0.03337,,,,,,,,,,,,,,,,,,,,,,,,,,0,0,0,0,0
5.1586,1783967179.4524,1,1,6.0000,-0.0000,1.42240,-0.01107,-2.63319,1.07343,1.57081,0.11675,-0.12762,-0.48148,0.03337,,,,,,,,,,,,,,,,,,,,,,,,,,0,0,0,0,0
5.1618,1783967179.4556,1,1,6.0000,-0.0000,1.42240,-0.01107,-2.63319,1.07343,1.57081,0.11675,-0.12762,-0.48148,0.03337,,,,,,,,,,,,,,,,,,,,,,,,,,0,0,0,0,0
5.1706,1783967179.4643,1,1,6.0000,-0.0000,1.42240,-0.01107,-2.63319,1.07343,1.57081,0.11675,-0.12762,-0.48148,0.03337,,,,,,,,,,,,,,,,,,,,,,,,,,0,0,0,0,0
5.1941,1783967179.4879,1,1,6.0000,-0.0000,1.42240,-0.01107,-2.63319,1.07343,1.57081,0.11675,-0.12762,-0.48148,0.03337,,,,,,,,,,,,,,,,,,,,,,,,,,0,0,0,0,0
