Martins-Lucaas/twinforge/sensors/Data/celula de carga/20260713_154326__samples.csv
t_rel_s,t_unix,cycle,phase,setpoint_n,force_net_n,q1,q2,q3,q4,q5,q6,tcp_x,tcp_y,tcp_z,taxel_0,taxel_1,taxel_2,taxel_3,taxel_4,taxel_5,taxel_6,taxel_7,taxel_8,taxel_9,taxel_10,taxel_11,taxel_12,taxel_13,taxel_14,taxel_15,taxel_16,taxel_17,taxel_18,taxel_19,taxel_20,taxel_21,taxel_22,taxel_23,taxel_24,n_RA,n_SA,cn_mm,cn_ra,cn_sa
0.0068,1783968206.8763,1,0,4.5000,-0.0000,1.42244,0.00068,-2.63054,1.05909,1.57084,0.11671,-0.12762,-0.48151,0.03737,,,,,,,,,,,,,,,,,,,,,,,,,,0,0,0,0,0
0.0122,1783968206.8818,1,0,4.5000,-0.0000,1.42244,0.00068,-2.63054,1.05909,1.57084,0.11671,-0.12762,-0.48151,0.03737,,,,,,,,,,,,,,,,,,,,,,,,,,0,0,0,0,0
0.0126,1783968206.8822,1,0,4.5000,-0.0000,1.42244,0.00068,-2.63054,1.05909,1.57084,0.11671,-0.12762,-0.48151,0.03737,,,,,,,,,,,,,,,,,,,,,,,,,,0,0,0,0,0
0.0228,1783968206.8923,1,0,4.5000,-0.0000,1.42244,0.00068,-2.63054,1.05909,1.57084,0.11671,-0.12762,-0.48151,0.03737,,,,,,,,,,,,,,,,,,,,,,,,,,0,0,0,0,0
0.0348,1783968206.9043,1,0,4.5000,-0.0000,1.42244,0.00068,-2.63054,1.05909,1.57084,0.11671,-0.12762,-0.48151,0.03737,,,,,,,,,,,,,,,,,,,,,,,,,,0,0,0,0,0
0.0419,1783968206.9115,1,0,4.5000,-0.0000,1.42244,0.00068,-2.63054,1.05909,1.57084,0.11671,-0.12762,-0.48151,0.03737,,,,,,,,,,,,,,,,,,,,,,,,,,0,0,0,0,0
0.0502,1783968206.9197,1,0,4.5000,-0.0000,1.42244,0.00068,-2.63054,1.05909,1.57084,0.11672,-0.12762,-0.48151,0.03737,,,,,,,,,,,,,,,,,,,,,,,,,,0,0,0,0,0
0.0634,1783968206.9329,1,0,4.5000,-0.0000,1.42244,0.00069,-2.63054,1.05909,1.57083,0.11672,-0.12763,-0.48152,0.03737,,,,,,,,,,,,,,,,,,,,,,,,,,0,0,0,0,0
0.0641,1783968206.9336,1,0,4.5000,-0.0000,1.42244,0.00069,-2.63054,1.05908,1.57082,0.11673,-0.12763,-0.48152,0.03737,,,,,,,,,,,,,,,,,,,,,,,,,,0,0,0,0,0
0.0728,1783968206.9423,1,0,4.5000,-0.0000,1.42244,0.00070,-2.63054,1.05908,1.57082,0.11674,-0.12763,-0.48152,0.03737,,,,,,,,,,,,,,,,,,,,,,,,,,0,0,0,0,0
0.0867,1783968206.9562,1,0,4.5000,-0.0000,1.42244,0.00070,-2.63053,1.05907,1.57080,0.11675,-0.12763,-0.48152,0.03738,,,,,,,,,,,,,,,,,,,,,,,,,,0,0,0,0,0
0.0939,1783968206.9634,1,0,4.5000,-0.0000,1.42244,0.00071,-2.63053,1.05907,1.57080,0.11675,-0.12763,-0.48152,0.03738,,,,,,,,,,,,,,,,,,,,,,,,,,0,0,0,0,0
0.0942,1783968206.9637,1,0,4.5000,-0.0000,1.42244,0.00071,-2.63053,1.05907,1.57080,0.11675,-0.12763,-0.48152,0.03738,,,,,,,,,,,,,,,,,,,,,,,,,,0,0,0,0,0
0.1004,1783968206.9700,1,0,4.5000,-0.0000,1.42244,0.00071,-2.63053,1.05907,1.57080,0.11675,-0.12764,-0.48152,0.03738,,,,,,,,,,,,,,,,,,,,,,,,,,0,0,0,0,0
0.1105,1783968206.9800,1,0,4.5000,-0.0000,1.42244,0.00071,-2.63053,1.05907,1.57080,0.11675,-0.12764,-0.48152,0.03738,,,,,,,,,,,,,,,,,,,,,,,,,,0,0,0,0,0
0.1233,1783968206.9928,1,0,4.5000,-0.0000,1.42244,0.00071,-2.63053,1.05907,1.57080,0.11675,-0.12764,-0.48152,0.03738,,,,,,,,,,,,,,,,,,,,,,,,,,0,0,0,0,0
0.1468,1783968207.0163,1,0,4.5000,-0.0000,1.42244,0.00071,-2.63053,1.05907,1.57080,0.11675,-0.12764,-0.48152,0.03738,,,,,,,,,,,,,,,,,,,,,,,,,,0,0,0,0,0
0.1536,1783968207.0231,1,0,4.5000,-0.0000,1.42244,0.00071,-2.63053,1.05907,1.57080,0.11675,-0.12764,-0.48152,0.03738,,,,,,,,,,,,,,,,,,,,,,,,,,0,0,0,0,0
0.1642,1783968207.0337,1,0,4.5000,-0.0000,1.42244,0.00071,-2.63053,1.05907,1.57080,0.11675,-0.12764,-0.48152,0.03738,,,,,,,,,,,,,,,,,,,,,,,,,,0,0,0,0,0
0.1647,1783968207.0342,1,0,4.5000,-0.0000,1.42244,0.00071,-2.63053,1.05907,1.57080,0.11675,-0.12764,-0.48152,0.03738,,,,,,,,,,,,,,,,,,,,,,,,,,0,0,0,0,0
0.1650,1783968207.0346,1,0,4.5000,-0.0000,1.42244,0.00071,-2.63053,1.05907,1.57080,0.11675,-0.12764,-0.48152,0.03738,,,,,,,,,,,,,,,,,,,,,,,,,,0,0,0,0,0
0.1767,1783968207.0462,1,0,4.5000,-0.0000,1.42244,0.00071,-2.63053,1.05907,1.57080,0.11675,-0.12764,-0.48152,0.03738,,,,,,,,,,,,,,,,,,,,,,,,,,0,0,0,0,0
0.1771,1783968207.0466,1,0,4.5000,-0.0000,1.42244,0.00071,-2.63053,1.05907,1.57080,0.11675,-0.12764,-0.48152,0.03738,,,,,,,,,,,,,,,,,,,,,,,,,,0,0,0,0,0
0.1857,1783968207.0553,1,0,4.5000,-0.0000,1.42244,0.00071,-2.63053,1.05907,1.57080,0.11675,-0.12764,-0.48152,0.03738,,,,,,,,,,,,,,,,,,,,,,,,,,0,0,0,0,0
0.1945,1783968207.0640,1,0,4.5000,-0.0000,1.42244,0.00071,-2.63053,1.05907,1.57080,0.11675,-0.12764,-0.48152,0.03738,,,,,,,,,,,,,,,,,,,,,,,,,,0,0,0,0,0
0.2039,1783968207.0735,1,0,4.5000,-0.0000,1.42244,0.00071,-2.63053,1.05907,1.57080,0.11675,-0.12764,-0.48152,0.03738,,,,,,,,,,,,,,,,,,,,,,,,,,0,0,0,0,0
0.2126,1783968207.0821,1,0,4.5000,-0.0000,1.42244,0.00071,-2.63053,1.05907,1.57080,0.11675,-0.12764,-0.48152,0.03738,,,,,,,,,,,,,,,,,,,,,,,,,,0,0,0,0,0
0.2129,1783968207.0824,1,0,4.5000,-0.0000,1.42244,0.00071,-2.63053,1.05907,1.57080,0.11675,-0.12764,-0.48152,0.03738,,,,,,,,,,,,,,,,,,,,,,,,,,0,0,0,0,0
0.2204,1783968207.0900,1,0,4.5000,-0.0000,1.42244,0.00071,-2.63053,1.05907,1.57080,0.11675,-0.12764,-0.48152,0.03738,,,,,,,,,,,,,,,,,,,,,,,,,,0,0,0,0,0
0.2327,1783968207.1022,1,0,4.5000,-0.0000,1.42244,0.00071,-2.63053,1.05907,1.57080,0.11675,-0.12764,-0.48152,0.03738,,,,,,,,,,,,,,,,,,,,,,,,,,0,0,0,0,0
0.2432,1783968207.1128,1,0,4.5000,-0.0000,1.42244,0.00071,-2.63053,1.05907,1.57080,0.11675,-0.12764,-0.48152,0.03738,,,,,,,,,,,,,,,,,,,,,,,,,,0,0,0,0,0
0.2550,1783968207.1246,1,0,4.5000,-0.0000,1.42244,0.00071,-2.63053,1.05907,1.57080,0.11675,-0.12764,-0.48152,0.03738,,,,,,,,,,,,,,,,,,,,,,,,,,0,0,0,0,0
0.2616,1783968207.1312,1,0,4.5000,-0.0000,1.42244,0.00071,-2.63053,1.05907,1.57080,0.11675,-0.12764,-0.48152,0.03738,,,,,,,,,,,,,,,,,,,,,,,,,,0,0,0,0,0
0.2716,1783968207.1411,1,0,4.5000,-0.0000,1.42244,0.00071,-2.63053,1.05907,1.57080,0.11675,-0.12764,-0.48152,0.03738,,,,,,,,,,,,,,,,,,,,,,,,,,0,0,0,0,0
0.2720,1783968207.1415,1,0,4.5000,-0.0000,1.42244,0.00071,-2.63053,1.05907,1.57080,0.11675,-0.12764,-0.48152,0.03738,,,,,,,,,,,,,,,,,,,,,,,,,,0,0,0,0,0
0.2873,1783968207.1568,1,0,4.5000,-0.0000,1.42244,0.00071,-2.63053,1.05907,1.57080,0.11675,-0.12764,-0.48152,0.03738,,,,,,,,,,,,,,,,,,,,,,,,,,0,0,0,0,0
0.2931,1783968207.1626,1,0,4.5000,-0.0000,1.42244,0.00071,-2.63053,1.05907,1.57080,0.11675,-0.12764,-0.48152,0.03738,,,,,,,,,,,,,,,,,,,,,,,,,,0,0,0,0,0
0.3064,1783968207.1759,1,0,4.5000,-0.0000,1.42244,0.00071,-2.63053,1.05907,1.57080,0.11675,-0.12764,-0.48152,0.03738,,,,,,,,,,,,,,,,,,,,,,,,,,0,0,0,0,0
0.3097,1783968207.1792,1,0,4.5000,-0.0000,1.42244,0.00071,-2.63053,1.05907,1.57080,0.11675,-0.12764,-0.48152,0.03738,,,,,,,,,,,,,,,,,,,,,,,,,,0,0,0,0,0
0.3102,1783968207.1797,1,0,4.5000,-0.0000,1.42244,0.00071,-2.63053,1.05907,1.57080,0.11675,-0.12764,-0.48152,0.03738,,,,,,,,,,,,,,,,,,,,,,,,,,0,0,0,0,0
0.3215,1783968207.1910,1,0,4.5000,-0.0000,1.42244,0.00071,-2.63053,1.05907,1.57080,0.11675,-0.12764,-0.48152,0.03738,,,,,,,,,,,,,,,,,,,,,,,,,,0,0,0,0,0
0.3219,1783968207.1914,1,0,4.5000,-0.0000,1.42244,0.00071,-2.63053,1.05907,1.57080,0.11675,-0.12764,-0.48152,0.03738,,,,,,,,,,,,,,,,,,,,,,,,,,0,0,0,0,0
0.3348,1783968207.2044,1,0,4.5000,-0.0000,1.42244,0.00071,-2.63053,1.05907,1.57080,0.11675,-0.12764,-0.48152,0.03738,,,,,,,,,,,,,,,,,,,,,,,,,,0,0,0,0,0
0.3455,1783968207.2150,1,0,4.5000,-0.0000,1.42244,0.00071,-2.63053,1.05907,1.57080,0.11675,-0.12764,-0.48152,0.03738,,,,,,,,,,,,,,,,,,,,,,,,,,0,0,0,0,0
0.3514,1783968207.2209,1,0,4.5000,-0.0000,1.42244,0.00071,-2.63053,1.05907,1.57080,0.11675,-0.12764,-0.48152,0.03738,,,,,,,,,,,,,,,,,,,,,,,,,,0,0,0,0,0
0.3520,1783968207.2215,1,0,4.5000,-0.0000,1.42244,0.00071,-2.63053,1.05907,1.57080,0.11675,-0.12764,-0.48152,0.03738,,,,,,,,,,,,,,,,,,,,,,,,,,0,0,0,0,0
0.3603,1783968207.2298,1,0,4.5000,-0.0000,1.42244,0.00071,-2.63053,1.05907,1.57080,0.11675,-0.12764,-0.48152,0.03738,,,,,,,,,,,,,,,,,,,,,,,,,,0,0,0,0,0
0.3607,1783968207.2302,1,0,4.5000,-0.0000,1.42244,0.00071,-2.63053,1.05907,1.57080,0.11675,-0.12764,-0.48152,0.03738,,,,,,,,,,,,,,,,,,,,,,,,,,0,0,0,0,0
0.3736,1783968207.2431,1,0,4.5000,-0.0000,1.42244,0.00071,-2.63053,1.05907,1.57080,0.11675,-0.12764,-0.48152,0.03738,,,,,,,,,,,,,,,,,,,,,,,,,,0,0,0,0,0
0.3817,1783968207.2512,1,0,4.5000,-0.0000,1.42244,0.00071,-2.63053,1.05907,1.57080,0.11675,-0.12764,-0.48152,0.03738,,,,,,,,,,,,,,,,,,,,,,,,,,0,0,0,0,0
0.3821,1783968207.2516,1,0,4.5000,-0.0000,1.42244,0.00071,-2.63053,1.05907,1.57080,0.11675,-0.12764,-0.48152,0.03738,,,,,,,,,,,,,,,,,,,,,,,,,,0,0,0,0,0
0.3942,1783968207.2638,1,0,4.5000,-0.0000,1.42244,0.00071,-2.63053,1.05907,1.57080,0.11675,-0.12764,-0.48152,0.03738,,,,,,,,,,,,,,,,,,,,,,,,,,0,0,0,0,0
0.3947,1783968207.2642,1,0,4.5000,-0.0000,1.42244,0.00071,-2.63053,1.05907,1.57080,0.11675,-0.12764,-0.48152,0.03738,,,,,,,,,,,,,,,,,,,,,,,,,,0,0,0,0,0
0.4015,1783968207.2710,1,0,4.5000,-0.0000,1.42244,0.00071,-2.63053,1.05907,1.57080,0.11675,-0.12764,-0.48152,0.03738,,,,,,,,,,,,,,,,,,,,,,,,,,0,0,0,0,0
0.4112,1783968207.2808,1,0,4.5000,-0.0000,1.42244,0.00071,-2.63053,1.05907,1.57080,0.11675,-0.12764,-0.48152,0.03738,,,,,,,,,,,,,,,,,,,,,,,,,,0,0,0,0,0
0.4208,1783968207.2904,1,0,4.5000,-0.0000,1.42244,0.00071,-2.63053,1.05907,1.57080,0.11675,-0.12764,-0.48152,0.03738,,,,,,,,,,,,,,,,,,,,,,,,,,0,0,0,0,0
0.4212,1783968207.2907,1,0,4.5000,-0.0000,1.42244,0.00071,-2.63053,1.05907,1.57080,0.11675,-0.12764,-0.48152,0.03738,,,,,,,,,,,,,,,,,,,,,,,,,,0,0,0,0,0
0.4347,1783968207.3042,1,0,4.5000,-0.0000,1.42244,0.00071,-2.63053,1.05907,1.57080,0.11675,-0.12764,-0.48152,0.03738,,,,,,,,,,,,,,,,,,,,,,,,,,0,0,0,0,0
0.4483,1783968207.3178,1,0,4.5000,-0.0000,1.42244,0.00071,-2.63053,1.05907,1.57080,0.11675,-0.12764,-0.48152,0.03738,,,,,,,,,,,,,,,,,,,,,,,,,,0,0,0,0,0
0.4525,1783968207.3221,1,0,4.5000,-0.0000,1.42244,0.00071,-2.63053,1.05907,1.57080,0.11675,-0.12764,-0.48152,0.03738,,,,,,,,,,,,,,,,,,,,,,,,,,0,0,0,0,0
0.4529,1783968207.3224,1,0,4.5000,-0.0000,1.42244,0.00071,-2.63053,1.05907,1.57080,0.11675,-0.12764,-0.48152,0.03738,,,,,,,,,,,,,,,,,,,,,,,,,,0,0,0,0,0
0.4612,1783968207.3307,1,0,4.5000,-0.0000,1.42244,0.00071,-2.63053,1.05907,1.57080,0.11675,-0.12764,-0.48152,0.03738,,,,,,,,,,,,,,,,,,,,,,,,,,0,0,0,0,0
0.4616,1783968207.3311,1,0,4.5000,-0.0000,1.42244,0.00071,-2.63053,1.05907,1.57080,0.11675,-0.12764,-0.48152,0.03738,,,,,,,,,,,,,,,,,,,,,,,,,,0,0,0,0,0
0.4735,1783968207.3431,1,0,4.5000,-0.0000,1.42244,0.00071,-2.63053,1.05907,1.57080,0.11675,-0.12764,-0.48152,0.03738,,,,,,,,,,,,,,,,,,,,,,,,,,0,0,0,0,0
0.4820,1783968207.3515,1,0,4.5000,-0.0000,1.42244,0.00071,-2.63053,1.05907,1.57080,0.11675,-0.12764,-0.48152,0.03738,,,,,,,,,,,,,,,,,,,,,,,,,,0,0,0,0,0
0.4824,1783968207.3520,1,0,4.5000,-0.0000,1.42244,0.00071,-2.63053,1.05907,1.57080,0.11675,-0.12764,-0.48152,0.03738,,,,,,,,,,,,,,,,,,,,,,,,,,0,0,0,0,0
0.4938,1783968207.3633,1,0,4.5000,-0.0000,1.42244,0.00071,-2.63053,1.05907,1.57080,0.11675,-0.12764,-0.48152,0.03738,,,,,,,,,,,,,,,,,,,,,,,,,,0,0,0,0,0
0.5139,1783968207.3834,1,0,4.5000,-0.0000,1.42244,0.00071,-2.63053,1.05907,1.57080,0.11675,-0.12764,-0.48152,0.03738,,,,,,,,,,,,,,,,,,,,,,,,,,0,0,0,0,0
0.5165,1783968207.3861,1,0,4.5000,-0.0000,1.42244,0.00071,-2.63053,1.05907,1.57080,0.11675,-0.12764,-0.48152,0.03738,,,,,,,,,,,,,,,,,,,,,,,,,,0,0,0,0,0
0.5168,1783968207.3863,1,0,4.5000,-0.0000,1.42244,0.00071,-2.63053,1.05907,1.57080,0.11675,-0.12764,-0.48152,0.03738,,,,,,,,,,,,,,,,,,,,,,,,,,0,0,0,0,0
0.5216,1783968207.3911,1,0,4.5000,-0.0000,1.42244,0.00071,-2.63053,1.05907,1.57080,0.11675,-0.12764,-0.48152,0.03738,,,,,,,,,,,,,,,,,,,,,,,,,,0,0,0,0,0
0.5219,1783968207.3914,1,0,4.5000,-0.0000,1.42244,0.00071,-2.63053,1.05907,1.57080,0.11675,-0.12764,-0.48152,0.03738,,,,,,,,,,,,,,,,,,,,,,,,,,0,0,0,0,0
0.5331,1783968207.4027,1,0,4.5000,-0.0000,1.42244,0.00071,-2.63053,1.05907,1.57080,0.11675,-0.12764,-0.48152,0.03738,,,,,,,,,,,,,,,,,,,,,,,,,,0,0,0,0,0
0.5514,1783968207.4209,1,0,4.5000,-0.0000,1.42244,0.00071,-2.63053,1.05907,1.57080,0.11675,-0.12764,-0.48152,0.03738,,,,,,,,,,,,,,,,,,,,,,,,,,0,0,0,0,0
0.5527,1783968207.4222,1,0,4.5000,-0.0000,1.42244,0.00071,-2.63053,1.05907,1.57080,0.11675,-0.12764,-0.48152,0.03738,,,,,,,,,,,,,,,,,,,,,,,,,,0,0,0,0,0
0.5529,1783968207.4225,1,0,4.5000,-0.0000,1.42244,0.00071,-2.63053,1.05907,1.57080,0.11675,-0.12764,-0.48152,0.03738,,,,,,,,,,,,,,,,,,,,,,,,,,0,0,0,0,0
0.5624,1783968207.4319,1,0,4.5000,-0.0000,1.42244,0.00071,-2.63053,1.05907,1.57080,0.11675,-0.12764,-0.48152,0.03738,,,,,,,,,,,,,,,,,,,,,,,,,,0,0,0,0,0
0.5978,1783968207.4674,1,0,4.5000,-0.0000,1.42244,0.00071,-2.63053,1.05907,1.57080,0.11675,-0.12764,-0.48152,0.03738,,,,,,,,,,,,,,,,,,,,,,,,,,0,0,0,0,0
0.6131,1783968207.4826,1,0,4.5000,-0.0000,1.42244,0.00071,-2.63053,1.05907,1.57080,0.11675,-0.12764,-0.48152,0.03738,,,,,,,,,,,,,,,,,,,,,,,,,,0,0,0,0,0
0.6133,1783968207.4829,1,0,4.5000,-0.0000,1.42244,0.00071,-2.63053,1.05907,1.57080,0.11675,-0.12764,-0.48152,0.03738,,,,,,,,,,,,,,,,,,,,,,,,,,0,0,0,0,0
0.6150,1783968207.4846,1,0,4.5000,-0.0000,1.42244,0.00071,-2.63053,1.05907,1.57080,0.11675,-0.12764,-0.48152,0.03738,,,,,,,,,,,,,,,,,,,,,,,,,,0,0,0,0,0
0.6153,1783968207.4849,1,0,4.5000,-0.0000,1.42244,0.00071,-2.63053,1.05907,1.57080,0.11675,-0.12764,-0.48152,0.03738,,,,,,,,,,,,,,,,,,,,,,,,,,0,0,0,0,0
0.6270,1783968207.4965,1,0,4.5000,-0.0000,1.42244,0.00071,-2.63053,1.05907,1.57080,0.11675,-0.12764,-0.48152,0.03738,,,,,,,,,,,,,,,,,,,,,,,,,,0,0,0,0,0
0.6276,1783968207.4971,1,0,4.5000,-0.0000,1.42244,0.00071,-2.63053,1.05907,1.57080,0.11675,-0.12764,-0.48152,0.03738,,,,,,,,,,,,,,,,,,,,,,,,,,0,0,0,0,0
0.6281,1783968207.4977,1,0,4.5000,-0.0000,1.42244,0.00071,-2.63053,1.05907,1.57080,0.11675,-0.12764,-0.48152,0.03738,,,,,,,,,,,,,,,,,,,,,,,,,,0,0,0,0,0
0.6338,1783968207.5033,1,0,4.5000,-0.0000,1.42244,0.00071,-2.63053,1.05907,1.57080,0.11675,-0.12764,-0.48152,0.03738,,,,,,,,,,,,,,,,,,,,,,,,,,0,0,0,0,0
0.6532,1783968207.5227,1,0,4.5000,-0.0000,1.42244,0.00071,-2.63053,1.05907,1.57080,0.11675,-0.12764,-0.48152,0.03738,,,,,,,,,,,,,,,,,,,,,,,,,,0,0,0,0,0
0.6604,1783968207.5300,1,0,4.5000,-0.0000,1.42244,0.00071,-2.63053,1.05907,1.57080,0.11675,-0.12764,-0.48152,0.03738,,,,,,,,,,,,,,,,,,,,,,,,,,0,0,0,0,0
0.6629,1783968207.5325,1,0,4.5000,-0.0000,1.42244,0.00071,-2.63053,1.05907,1.57080,0.11675,-0.12764,-0.48152,0.03738,,,,,,,,,,,,,,,,,,,,,,,,,,0,0,0,0,0
0.6633,1783968207.5329,1,0,4.5000,-0.0000,1.42244,0.00071,-2.63053,1.05907,1.57080,0.11675,-0.12764,-0.48152,0.03738,,,,,,,,,,,,,,,,,,,,,,,,,,0,0,0,0,0
0.6712,1783968207.5408,1,0,4.5000,-0.0000,1.42244,0.00071,-2.63053,1.05907,1.57080,0.11675,-0.12764,-0.48152,0.03738,,,,,,,,,,,,,,,,,,,,,,,,,,0,0,0,0,0
0.6719,1783968207.5415,1,0,4.5000,-0.0000,1.42244,0.00071,-2.63053,1.05907,1.57080,0.11675,-0.12764,-0.48152,0.03738,,,,,,,,,,,,,,,,,,,,,,,,,,0,0,0,0,0
0.6863,1783968207.5558,1,0,4.5000,-0.0000,1.42244,0.00071,-2.63053,1.05907,1.57080,0.11675,-0.12764,-0.48152,0.03738,,,,,,,,,,,,,,,,,,,,,,,,,,0,0,0,0,0
0.6925,1783968207.5620,1,0,4.5000,-0.0000,1.42244,0.00071,-2.63053,1.05907,1.57080,0.11675,-0.12764,-0.48152,0.03738,,,,,,,,,,,,,,,,,,,,,,,,,,0,0,0,0,0
0.7039,1783968207.5735,1,0,4.5000,-0.0000,1.42244,0.00071,-2.63053,1.05907,1.57080,0.11675,-0.12764,-0.48152,0.03738,,,,,,,,,,,,,,,,,,,,,,,,,,0,0,0,0,0
0.7041,1783968207.5737,1,0,4.5000,-0.0000,1.42244,0.00071,-2.63053,1.05907,1.57080,0.11675,-0.12764,-0.48152,0.03738,,,,,,,,,,,,,,,,,,,,,,,,,,0,0,0,0,0
0.7231,1783968207.5926,1,0,4.5000,-0.0000,1.42244,0.00071,-2.63053,1.05907,1.57080,0.11675,-0.12764,-0.48152,0.03738,,,,,,,,,,,,,,,,,,,,,,,,,,0,0,0,0,0
0.7260,1783968207.5956,1,0,4.5000,-0.0000,1.42244,0.00071,-2.63053,1.05907,1.57080,0.11675,-0.12764,-0.48152,0.03738,,,,,,,,,,,,,,,,,,,,,,,,,,0,0,0,0,0
0.7312,1783968207.6007,1,1,4.5000,-0.0000,1.42244,0.00071,-2.63053,1.05907,1.57080,0.11675,-0.12764,-0.48152,0.03738,,,,,,,,,,,,,,,,,,,,,,,,,,0,0,0,0,0
0.7435,1783968207.6131,1,1,4.5000,-0.0000,1.42244,0.00071,-2.63053,1.05907,1.57080,0.11675,-0.12764,-0.48152,0.03738,,,,,,,,,,,,,,,,,,,,,,,,,,0,0,0,0,0
0.7563,1783968207.6258,1,1,4.5000,-0.0000,1.42244,0.00071,-2.63053,1.05907,1.57080,0.11675,-0.12764,-0.48152,0.03738,,,,,,,,,,,,,,,,,,,,,,,,,,0,0,0,0,0
0.7566,1783968207.6261,1,1,4.5000,-0.0000,1.42244,0.00071,-2.63053,1.05907,1.57080,0.11675,-0.12764,-0.48152,0.03738,,,,,,,,,,,,,,,,,,,,,,,,,,0,0,0,0,0
0.7595,1783968207.6291,1,1,4.5000,-0.0000,1.42244,0.00071,-2.63053,1.05907,1.57080,0.11675,-0.12764,-0.48152,0.03738,,,,,,,,,,,,,,,,,,,,,,,,,,0,0,0,0,0
0.7601,1783968207.6296,1,1,4.5000,-0.0000,1.42244,0.00071,-2.63053,1.05907,1.57080,0.11675,-0.12764,-0.48152,0.03738,,,,,,,,,,,,,,,,,,,,,,,,,,0,0,0,0,0
0.7760,1783968207.6455,1,1,4.5000,-0.0000,1.42244,0.00071,-2.63053,1.05907,1.57080,0.11675,-0.12764,-0.48152,0.03738,,,,,,,,,,,,,,,,,,,,,,,,,,0,0,0,0,0
0.7821,1783968207.6516,1,1,4.5000,-0.0000,1.42244,0.00071,-2.63053,1.05907,1.57080,0.11675,-0.12764,-0.48152,0.03738,,,,,,,,,,,,,,,,,,,,,,,,,,0,0,0,0,0
0.7824,1783968207.6519,1,1,4.5000,-0.0000,1.42244,0.00071,-2.63053,1.05907,1.57080,0.11675,-0.12764,-0.48152,0.03738,,,,,,,,,,,,,,,,,,,,,,,,,,0,0,0,0,0
0.7943,1783968207.6638,1,1,4.5000,-0.0000,1.42244,0.00071,-2.63053,1.05907,1.57080,0.11675,-0.12764,-0.48152,0.03738,,,,,,,,,,,,,,,,,,,,,,,,,,0,0,0,0,0
0.8009,1783968207.6704,1,1,4.5000,-0.0000,1.42244,0.00071,-2.63053,1.05907,1.57080,0.11675,-0.12764,-0.48152,0.03738,,,,,,,,,,,,,,,,,,,,,,,,,,0,0,0,0,0
0.8013,1783968207.6708,1,1,4.5000,-0.0000,1.42244,0.00071,-2.63053,1.05907,1.57080,0.11675,-0.12764,-0.48152,0.03738,,,,,,,,,,,,,,,,,,,,,,,,,,0,0,0,0,0
0.8114,1783968207.6809,1,1,4.5000,-0.0000,1.42244,0.00071,-2.63053,1.05907,1.57080,0.11675,-0.12764,-0.48152,0.03738,,,,,,,,,,,,,,,,,,,,,,,,,,0,0,0,0,0
0.8120,1783968207.6815,1,1,4.5000,-0.0000,1.42244,0.00071,-2.63053,1.05907,1.57080,0.11675,-0.12764,-0.48152,0.03738,,,,,,,,,,,,,,,,,,,,,,,,,,0,0,0,0,0
0.8228,1783968207.6924,1,1,4.5000,-0.0000,1.42244,0.00071,-2.63053,1.05907,1.57080,0.11675,-0.12764,-0.48152,0.03738,,,,,,,,,,,,,,,,,,,,,,,,,,0,0,0,0,0
0.8354,1783968207.7050,1,1,4.5000,-0.0000,1.42244,0.00071,-2.63053,1.05907,1.57080,0.11675,-0.12764,-0.48152,0.03738,,,,,,,,,,,,,,,,,,,,,,,,,,0,0,0,0,0
0.8439,1783968207.7135,1,1,4.5000,-0.0000,1.42244,0.00071,-2.63053,1.05907,1.57080,0.11675,-0.12764,-0.48152,0.03738,,,,,,,,,,,,,,,,,,,,,,,,,,0,0,0,0,0
0.8536,1783968207.7231,1,1,4.5000,-0.0000,1.42244,0.00071,-2.63053,1.05907,1.57080,0.11675,-0.12764,-0.48152,0.03738,,,,,,,,,,,,,,,,,,,,,,,,,,0,0,0,0,0
0.8539,1783968207.7234,1,1,4.5000,-0.0000,1.42244,0.00071,-2.63053,1.05907,1.57080,0.11675,-0.12764,-0.48152,0.03738,,,,,,,,,,,,,,,,,,,,,,,,,,0,0,0,0,0
0.8629,1783968207.7325,1,1,4.5000,-0.0000,1.42244,0.00071,-2.63053,1.05907,1.57080,0.11675,-0.12764,-0.48152,0.03738,,,,,,,,,,,,,,,,,,,,,,,,,,0,0,0,0,0
0.8632,1783968207.7327,1,1,4.5000,-0.0000,1.42244,0.00071,-2.63053,1.05907,1.57080,0.11675,-0.12764,-0.48152,0.03738,,,,,,,,,,,,,,,,,,,,,,,,,,0,0,0,0,0
0.8708,1783968207.7404,1,1,4.5000,-0.0000,1.42244,0.00071,-2.63053,1.05907,1.57080,0.11675,-0.12764,-0.48152,0.03738,,,,,,,,,,,,,,,,,,,,,,,,,,0,0,0,0,0
0.8813,1783968207.7509,1,1,4.5000,-0.0000,1.42244,0.00071,-2.63053,1.05907,1.57080,0.11675,-0.12764,-0.48152,0.03738,,,,,,,,,,,,,,,,,,,,,,,,,,0,0,0,0,0
0.8818,1783968207.7514,1,1,4.5000,-0.0000,1.42244,0.00071,-2.63053,1.05907,1.57080,0.11675,-0.12764,-0.48152,0.03738,,,,,,,,,,,,,,,,,,,,,,,,,,0,0,0,0,0
0.8911,1783968207.7607,1,1,4.5000,-0.0000,1.42244,0.00071,-2.63053,1.05907,1.57080,0.11675,-0.12764,-0.48152,0.03738,,,,,,,,,,,,,,,,,,,,,,,,,,0,0,0,0,0
0.9033,1783968207.7729,1,1,4.5000,-0.0000,1.42244,0.00071,-2.63053,1.05907,1.57080,0.11675,-0.12764,-0.48152,0.03738,,,,,,,,,,,,,,,,,,,,,,,,,,0,0,0,0,0
0.9142,1783968207.7837,1,1,4.5000,-0.0000,1.42244,0.00071,-2.63053,1.05907,1.57080,0.11675,-0.12764,-0.48152,0.03738,,,,,,,,,,,,,,,,,,,,,,,,,,0,0,0,0,0
0.9225,1783968207.7921,1,1,4.5000,-0.0000,1.42244,0.00071,-2.63053,1.05907,1.57080,0.11675,-0.12764,-0.48152,0.03738,,,,,,,,,,,,,,,,,,,,,,,,,,0,0,0,0,0
0.9342,1783968207.8038,1,1,4.5000,-0.0000,1.42244,0.00071,-2.63053,1.05907,1.57080,0.11675,-0.12764,-0.48152,0.03738,,,,,,,,,,,,,,,,,,,,,,,,,,0,0,0,0,0
0.9439,1783968207.8135,1,1,4.5000,-0.0000,1.42244,0.00071,-2.63053,1.05907,1.57080,0.11675,-0.12764,-0.48152,0.03738,,,,,,,,,,,,,,,,,,,,,,,,,,0,0,0,0,0
0.9604,1783968207.8299,1,1,4.5000,-0.0000,1.42244,0.00071,-2.63053,1.05907,1.57080,0.11675,-0.12764,-0.48152,0.03738,,,,,,,,,,,,,,,,,,,,,,,,,,0,0,0,0,0
0.9615,1783968207.8310,1,1,4.5000,-0.0000,1.42244,0.00071,-2.63053,1.05907,1.57080,0.11675,-0.12764,-0.48152,0.03738,,,,,,,,,,,,,,,,,,,,,,,,,,0,0,0,0,0
0.9715,1783968207.8410,1,1,4.5000,-0.0000,1.42244,0.00071,-2.63053,1.05907,1.57080,0.11675,-0.12764,-0.48152,0.03738,,,,,,,,,,,,,,,,,,,,,,,,,,0,0,0,0,0
0.9809,1783968207.8504,1,1,4.5000,-0.0000,1.42244,0.00071,-2.63053,1.05907,1.57080,0.11675,-0.12764,-0.48152,0.03738,,,,,,,,,,,,,,,,,,,,,,,,,,0,0,0,0,0
0.9933,1783968207.8628,1,1,4.5000,-0.0000,1.42244,0.00071,-2.63053,1.05907,1.57080,0.11675,-0.12764,-0.48152,0.03738,,,,,,,,,,,,,,,,,,,,,,,,,,0,0,0,0,0
0.9935,1783968207.8631,1,1,4.5000,-0.0000,1.42244,0.00071,-2.63053,1.05907,1.57080,0.11675,-0.12764,-0.48152,0.03738,,,,,,,,,,,,,,,,,,,,,,,,,,0,0,0,0,0
1.0066,1783968207.8761,1,1,4.5000,-0.0000,1.42244,0.00071,-2.63053,1.05907,1.57080,0.11675,-0.12764,-0.48152,0.03738,,,,,,,,,,,,,,,,,,,,,,,,,,0,0,0,0,0
1.0139,1783968207.8834,1,1,4.5000,-0.0000,1.42244,0.00071,-2.63054,1.05907,1.57080,0.11675,-0.12764,-0.48152,0.03738,,,,,,,,,,,,,,,,,,,,,,,,,,0,0,0,0,0
1.0229,1783968207.8924,1,1,4.5000,-0.0000,1.42244,0.00071,-2.63054,1.05907,1.57080,0.11675,-0.12764,-0.48151,0.03737,,,,,,,,,,,,,,,,,,,,,,,,,,0,0,0,0,0
1.0324,1783968207.9019,1,1,4.5000,-0.0000,1.42244,0.00070,-2.63055,1.05907,1.57080,0.11675,-0.12764,-0.48151,0.03737,,,,,,,,,,,,,,,,,,,,,,,,,,0,0,0,0,0
1.0429,1783968207.9124,1,1,4.5000,-0.0000,1.42244,0.00070,-2.63055,1.05907,1.57080,0.11675,-0.12764,-0.48151,0.03737,,,,,,,,,,,,,,,,,,,,,,,,,,0,0,0,0,0
1.0433,1783968207.9128,1,1,4.5000,-0.0000,1.42244,0.00070,-2.63055,1.05907,1.57080,0.11675,-0.12764,-0.48151,0.03737,,,,,,,,,,,,,,,,,,,,,,,,,,0,0,0,0,0
1.0633,1783968207.9329,1,1,4.5000,-0.0000,1.42244,0.00068,-2.63058,1.05907,1.57080,0.11675,-0.12764,-0.48149,0.03735,,,,,,,,,,,,,,,,,,,,,,,,,,0,0,0,0,0
1.0641,1783968207.9337,1,1,4.5000,-0.0000,1.42244,0.00067,-2.63058,1.05908,1.57080,0.11675,-0.12764,-0.48148,0.03734,,,,,,,,,,,,,,,,,,,,,,,,,,0,0,0,0,0
1.0739,1783968207.9434,1,1,4.5000,-0.0000,1.42244,0.00064,-2.63061,1.05909,1.57080,0.11675,-0.12764,-0.48146,0.03732,,,,,,,,,,,,,,,,,,,,,,,,,,0,0,0,0,0
1.0819,1783968207.9515,1,1,4.5000,-0.0000,1.42244,0.00060,-2.63064,1.05911,1.57080,0.11675,-0.12765,-0.48144,0.03729,,,,,,,,,,,,,,,,,,,,,,,,,,0,0,0,0,0
1.0822,1783968207.9518,1,1,4.5000,-0.0000,1.42244,0.00060,-2.63064,1.05911,1.57080,0.11675,-0.12765,-0.48144,0.03729,,,,,,,,,,,,,,,,,,,,,,,,,,0,0,0,0,0
1.0965,1783968207.9661,1,1,4.5000,-0.0000,1.42244,0.00056,-2.63066,1.05913,1.57080,0.11675,-0.12765,-0.48142,0.03726,,,,,,,,,,,,,,,,,,,,,,,,,,0,0,0,0,0
1.1011,1783968207.9707,1,1,4.5000,-0.0000,1.42244,0.00054,-2.63067,1.05915,1.57080,0.11675,-0.12765,-0.48142,0.03726,,,,,,,,,,,,,,,,,,,,,,,,,,0,0,0,0,0
1.1135,1783968207.9830,1,1,4.5000,-0.0000,1.42244,0.00046,-2.63069,1.05923,1.57080,0.11675,-0.12765,-0.48141,0.03722,,,,,,,,,,,,,,,,,,,,,,,,,,0,0,0,0,0
1.1139,1783968207.9834,1,1,4.5000,-0.0000,1.42244,0.00046,-2.63069,1.05923,1.57080,0.11675,-0.12765,-0.48141,0.03722,,,,,,,,,,,,,,,,,,,,,,,,,,0,0,0,0,0
1.1252,1783968207.9948,1,1,4.5000,-0.0000,1.42244,0.00043,-2.63070,1.05925,1.57080,0.11675,-0.12765,-0.48141,0.03721,,,,,,,,,,,,,,,,,,,,,,,,,,0,0,0,0,0
1.1329,1783968208.0025,1,1,4.5000,-0.0000,1.42244,0.00037,-2.63071,1.05932,1.57080,0.11675,-0.12765,-0.48141,0.03719,,,,,,,,,,,,,,,,,,,,,,,,,,0,0,0,0,0
1.1721,1783968208.0417,1,1,4.5000,-0.0000,1.42244,0.00007,-2.63077,1.05967,1.57080,0.11675,-0.12765,-0.48141,0.03709,,,,,,,,,,,,,,,,,,,,,,,,,,0,0,0,0,0
1.2208,1783968208.0904,1,1,4.5000,-0.0000,1.42244,-0.00029,-2.63081,1.06014,1.57080,0.11675,-0.12765,-0.48144,0.03699,,,,,,,,,,,,,,,,,,,,,,,,,,0,0,0,0,0
1.2404,1783968208.1100,1,1,4.5000,-0.0000,1.42244,-0.00046,-2.63081,1.06037,1.57080,0.11675,-0.12764,-0.48148,0.03695,,,,,,,,,,,,,,,,,,,,,,,,,,0,0,0,0,0
1.2956,1783968208.1652,1,1,4.5000,-0.0000,1.42244,-0.00046,-2.63081,1.06037,1.57080,0.11675,-0.12764,-0.48148,0.03695,,,,,,,,,,,,,,,,,,,,,,,,,,0,0,0,0,0
1.2962,1783968208.1657,1,1,4.5000,-0.0000,1.42244,-0.00046,-2.63081,1.06037,1.57080,0.11675,-0.12764,-0.48148,0.03695,,,,,,,,,,,,,,,,,,,,,,,,,,0,0,0,0,0
1.3062,1783968208.1757,1,1,4.5000,-0.0000,1.42244,-0.00046,-2.63081,1.06037,1.57080,0.11675,-0.12764,-0.48148,0.03695,,,,,,,,,,,,,,,,,,,,,,,,,,0,0,0,0,0
1.3065,1783968208.1760,1,1,4.5000,-0.0000,1.42244,-0.00046,-2.63081,1.06037,1.57080,0.11675,-0.12764,-0.48148,0.03695,,,,,,,,,,,,,,,,,,,,,,,,,,0,0,0,0,0
1.3224,1783968208.1919,1,1,4.5000,-0.0000,1.42244,-0.00046,-2.63081,1.06037,1.57080,0.11675,-0.12764,-0.48148,0.03695,,,,,,,,,,,,,,,,,,,,,,,,,,0,0,0,0,0
1.3227,1783968208.1922,1,1,4.5000,-0.0000,1.42244,-0.00046,-2.63081,1.06037,1.57080,0.11675,-0.12764,-0.48148,0.03695,,,,,,,,,,,,,,,,,,,,,,,,,,0,0,0,0,0
1.3310,1783968208.2005,1,1,4.5000,-0.0000,1.42244,-0.00046,-2.63081,1.06037,1.57080,0.11675,-0.12764,-0.48148,0.03695,,,,,,,,,,,,,,,,,,,,,,,,,,0,0,0,0,0
1.3373,1783968208.2068,1,1,4.5000,-0.0000,1.42244,-0.00046,-2.63081,1.06037,1.57080,0.11675,-0.12764,-0.48148,0.03695,,,,,,,,,,,,,,,,,,,,,,,,,,0,0,0,0,0
1.3453,1783968208.2148,1,1,4.5000,-0.0000,1.42244,-0.00046,-2.63081,1.06037,1.57080,0.11675,-0.12764,-0.48148,0.03695,,,,,,,,,,,,,,,,,,,,,,,,,,0,0,0,0,0
1.3457,1783968208.2152,1,1,4.5000,-0.0000,1.42244,-0.00046,-2.63081,1.06037,1.57080,0.11675,-0.12764,-0.48148,0.03695,,,,,,,,,,,,,,,,,,,,,,,,,,0,0,0,0,0
1.3537,1783968208.2232,1,1,4.5000,-0.0000,1.42244,-0.00046,-2.63081,1.06037,1.57080,0.11675,-0.12764,-0.48148,0.03695,,,,,,,,,,,,,,,,,,,,,,,,,,0,0,0,0,0
1.3542,1783968208.2237,1,1,4.5000,-0.0000,1.42244,-0.00046,-2.63081,1.06037,1.57080,0.11675,-0.12764,-0.48148,0.03695,,,,,,,,,,,,,,,,,,,,,,,,,,0,0,0,0,0
1.3548,1783968208.2243,1,1,4.5000,-0.0000,1.42244,-0.00046,-2.63081,1.06037,1.57080,0.11675,-0.12764,-0.48148,0.03695,,,,,,,,,,,,,,,,,,,,,,,,,,0,0,0,0,0
1.3552,1783968208.2247,1,1,4.5000,-0.0000,1.42244,-0.00046,-2.63081,1.06037,1.57080,0.11675,-0.12764,-0.48148,0.03695,,,,,,,,,,,,,,,,,,,,,,,,,,0,0,0,0,0
1.3559,1783968208.2254,1,1,4.5000,-0.0000,1.42244,-0.00046,-2.63081,1.06037,1.57080,0.11675,-0.12764,-0.48148,0.03695,,,,,,,,,,,,,,,,,,,,,,,,,,0,0,0,0,0
1.3566,1783968208.2261,1,1,4.5000,-0.0000,1.42244,-0.00046,-2.63081,1.06037,1.57080,0.11675,-0.12764,-0.48148,0.03695,,,,,,,,,,,,,,,,,,,,,,,,,,0,0,0,0,0
1.3570,1783968208.2266,1,1,4.5000,-0.0000,1.42244,-0.00046,-2.63081,1.06037,1.57080,0.11675,-0.12764,-0.48148,0.03695,,,,,,,,,,,,,,,,,,,,,,,,,,0,0,0,0,0
1.3723,1783968208.2418,1,1,4.5000,-0.0000,1.42244,-0.00046,-2.63081,1.06037,1.57080,0.11675,-0.12764,-0.48148,0.03695,,,,,,,,,,,,,,,,,,,,,,,,,,0,0,0,0,0
1.3728,1783968208.2423,1,1,4.5000,-0.0000,1.42244,-0.00046,-2.63081,1.06037,1.57080,0.11675,-0.12764,-0.48148,0.03695,,,,,,,,,,,,,,,,,,,,,,,,,,0,0,0,0,0
1.3755,1783968208.2450,1,1,4.5000,-0.0000,1.42244,-0.00046,-2.63081,1.06037,1.57080,0.11675,-0.12764,-0.48148,0.03695,,,,,,,,,,,,,,,,,,,,,,,,,,0,0,0,0,0
1.3761,1783968208.2457,1,1,4.5000,-0.0000,1.42244,-0.00046,-2.63081,1.06037,1.57080,0.11675,-0.12764,-0.48148,0.03695,,,,,,,,,,,,,,,,,,,,,,,,,,0,0,0,0,0
1.3765,1783968208.2461,1,1,4.5000,-0.0000,1.42244,-0.00046,-2.63081,1.06037,1.57080,0.11675,-0.12764,-0.48148,0.03695,,,,,,,,,,,,,,,,,,,,,,,,,,0,0,0,0,0
1.3775,1783968208.2470,1,1,4.5000,-0.0000,1.42244,-0.00046,-2.63081,1.06037,1.57080,0.11675,-0.12764,-0.48148,0.03695,,,,,,,,,,,,,,,,,,,,,,,,,,0,0,0,0,0
1.3779,1783968208.2474,1,1,4.5000,-0.0000,1.42244,-0.00046,-2.63081,1.06037,1.57080,0.11675,-0.12764,-0.48148,0.03695,,,,,,,,,,,,,,,,,,,,,,,,,,0,0,0,0,0
1.3784,1783968208.2479,1,1,4.5000,-0.0000,1.42244,-0.00046,-2.63081,1.06037,1.57080,0.11675,-0.12764,-0.48148,0.03695,,,,,,,,,,,,,,,,,,,,,,,,,,0,0,0,0,0
1.3787,1783968208.2483,1,1,4.5000,-0.0000,1.42244,-0.00046,-2.63081,1.06037,1.57080,0.11675,-0.12764,-0.48148,0.03695,,,,,,,,,,,,,,,,,,,,,,,,,,0,0,0,0,0
1.3792,1783968208.2488,1,1,4.5000,-0.0000,1.42244,-0.00046,-2.63081,1.06037,1.57080,0.11675,-0.12764,-0.48148,0.03695,,,,,,,,,,,,,,,,,,,,,,,,,,0,0,0,0,0
1.3804,1783968208.2499,1,1,4.5000,-0.0000,1.42244,-0.00046,-2.63081,1.06037,1.57080,0.11675,-0.12764,-0.48148,0.03695,,,,,,,,,,,,,,,,,,,,,,,,,,0,0,0,0,0
1.3820,1783968208.2515,1,1,4.5000,-0.0000,1.42244,-0.00046,-2.63081,1.06037,1.57080,0.11675,-0.12764,-0.48148,0.03695,,,,,,,,,,,,,,,,,,,,,,,,,,0,0,0,0,0
1.3825,1783968208.2520,1,1,4.5000,-0.0000,1.42244,-0.00046,-2.63081,1.06037,1.57080,0.11675,-0.12764,-0.48148,0.03695,,,,,,,,,,,,,,,,,,,,,,,,,,0,0,0,0,0
1.3911,1783968208.2606,1,1,4.5000,-0.0000,1.42244,-0.00046,-2.63081,1.06037,1.57080,0.11675,-0.12764,-0.48148,0.03695,,,,,,,,,,,,,,,,,,,,,,,,,,0,0,0,0,0
1.4066,1783968208.2761,1,1,4.5000,-0.0000,1.42244,-0.00046,-2.63081,1.06037,1.57080,0.11675,-0.12764,-0.48148,0.03695,,,,,,,,,,,,,,,,,,,,,,,,,,0,0,0,0,0
1.4143,1783968208.2838,1,1,4.5000,-0.0000,1.42244,-0.00046,-2.63081,1.06037,1.57080,0.11675,-0.12764,-0.48148,0.03695,,,,,,,,,,,,,,,,,,,,,,,,,,0,0,0,0,0
1.4226,1783968208.2922,1,1,4.5000,-0.0000,1.42244,-0.00046,-2.63081,1.06037,1.57080,0.11675,-0.12764,-0.48148,0.03695,,,,,,,,,,,,,,,,,,,,,,,,,,0,0,0,0,0
1.4331,1783968208.3026,1,1,4.5000,-0.0000,1.42244,-0.00046,-2.63081,1.06039,1.57080,0.11675,-0.12764,-0.48148,0.03695,,,,,,,,,,,,,,,,,,,,,,,,,,0,0,0,0,0
1.4435,1783968208.3130,1,1,4.5000,-0.0000,1.42244,-0.00047,-2.63080,1.06041,1.57080,0.11675,-0.12764,-0.48149,0.03696,,,,,,,,,,,,,,,,,,,,,,,,,,0,0,0,0,0
1.4533,1783968208.3229,1,1,4.5000,-0.0000,1.42244,-0.00047,-2.63080,1.06044,1.57080,0.11675,-0.12764,-0.48150,0.03696,,,,,,,,,,,,,,,,,,,,,,,,,,0,0,0,0,0
1.4949,1783968208.3644,1,1,4.5000,-0.0000,1.42244,-0.00055,-2.63087,1.06056,1.57080,0.11675,-0.12764,-0.48147,0.03692,,,,,,,,,,,,,,,,,,,,,,,,,,0,0,0,0,0
1.4976,1783968208.3672,1,1,4.5000,-0.0000,1.42244,-0.00058,-2.63088,1.06059,1.57080,0.11675,-0.12764,-0.48146,0.03690,,,,,,,,,,,,,,,,,,,,,,,,,,0,0,0,0,0
1.4981,1783968208.3676,1,1,4.5000,-0.0000,1.42244,-0.00058,-2.63088,1.06059,1.57080,0.11675,-0.12764,-0.48146,0.03690,,,,,,,,,,,,,,,,,,,,,,,,,,0,0,0,0,0
1.5162,1783968208.3858,1,1,4.5000,-0.0000,1.42244,-0.00065,-2.63092,1.06068,1.57080,0.11675,-0.12764,-0.48145,0.03687,,,,,,,,,,,,,,,,,,,,,,,,,,0,0,0,0,0
1.5181,1783968208.3876,1,1,4.5000,-0.0000,1.42244,-0.00065,-2.63092,1.06068,1.57080,0.11675,-0.12764,-0.48145,0.03687,,,,,,,,,,,,,,,,,,,,,,,,,,0,0,0,0,0
1.5183,1783968208.3879,1,1,4.5000,-0.0000,1.42244,-0.00065,-2.63092,1.06068,1.57080,0.11675,-0.12764,-0.48145,0.03687,,,,,,,,,,,,,,,,,,,,,,,,,,0,0,0,0,0
1.5334,1783968208.4030,1,1,4.5000,-0.0000,1.42244,-0.00076,-2.63096,1.06083,1.57080,0.11675,-0.12764,-0.48144,0.03683,,,,,,,,,,,,,,,,,,,,,,,,,,0,0,0,0,0
1.5456,1783968208.4151,1,1,4.5000,-0.0000,1.42244,-0.00081,-2.63097,1.06089,1.57080,0.11675,-0.12764,-0.48144,0.03681,,,,,,,,,,,,,,,,,,,,,,,,,,0,0,0,0,0
1.5548,1783968208.4243,1,1,4.5000,-0.0000,1.42244,-0.00085,-2.63098,1.06094,1.57080,0.11675,-0.12764,-0.48144,0.03680,,,,,,,,,,,,,,,,,,,,,,,,,,0,0,0,0,0
1.5563,1783968208.4259,1,1,4.5000,-0.0000,1.42244,-0.00089,-2.63098,1.06098,1.57080,0.11675,-0.12764,-0.48145,0.03679,,,,,,,,,,,,,,,,,,,,,,,,,,0,0,0,0,0
1.5583,1783968208.4279,1,1,4.5000,-0.0000,1.42244,-0.00089,-2.63098,1.06098,1.57080,0.11675,-0.12764,-0.48145,0.03679,,,,,,,,,,,,,,,,,,,,,,,,,,0,0,0,0,0
1.5588,1783968208.4283,1,1,4.5000,-0.0000,1.42244,-0.00089,-2.63098,1.06098,1.57080,0.11675,-0.12764,-0.48145,0.03679,,,,,,,,,,,,,,,,,,,,,,,,,,0,0,0,0,0
1.5749,1783968208.4444,1,1,4.5000,-0.0000,1.42244,-0.00095,-2.63100,1.06107,1.57080,0.11675,-0.12764,-0.48145,0.03677,,,,,,,,,,,,,,,,,,,,,,,,,,0,0,0,0,0
1.5762,1783968208.4457,1,1,4.5000,-0.0000,1.42244,-0.00098,-2.63100,1.06111,1.57080,0.11675,-0.12764,-0.48145,0.03676,,,,,,,,,,,,,,,,,,,,,,,,,,0,0,0,0,0
1.5805,1783968208.4500,1,1,4.5000,-0.0000,1.42244,-0.00102,-2.63101,1.06115,1.57080,0.11675,-0.12764,-0.48145,0.03674,,,,,,,,,,,,,,,,,,,,,,,,,,0,0,0,0,0
1.5809,1783968208.4504,1,1,4.5000,-0.0000,1.42244,-0.00102,-2.63101,1.06115,1.57080,0.11675,-0.12764,-0.48145,0.03674,,,,,,,,,,,,,,,,,,,,,,,,,,0,0,0,0,0
1.5936,1783968208.4632,1,1,4.5000,-0.0000,1.42244,-0.00118,-2.63104,1.06134,1.57080,0.11675,-0.12764,-0.48145,0.03670,,,,,,,,,,,,,,,,,,,,,,,,,,0,0,0,0,0
1.6022,1783968208.4717,1,1,4.5000,-0.0000,1.42244,-0.00123,-2.63105,1.06141,1.57080,0.11675,-0.12764,-0.48146,0.03668,,,,,,,,,,,,,,,,,,,,,,,,,,0,0,0,0,0
1.6348,1783968208.5043,1,1,4.5000,-0.0000,1.42244,-0.00143,-2.63106,1.06166,1.57080,0.11675,-0.12764,-0.48148,0.03663,,,,,,,,,,,,,,,,,,,,,,,,,,0,0,0,0,0
1.6372,1783968208.5067,1,1,4.5000,-0.0000,1.42244,-0.00147,-2.63106,1.06171,1.57080,0.11675,-0.12764,-0.48149,0.03662,,,,,,,,,,,,,,,,,,,,,,,,,,0,0,0,0,0
1.6375,1783968208.5070,1,1,4.5000,-0.0000,1.42244,-0.00147,-2.63106,1.06171,1.57080,0.11675,-0.12764,-0.48149,0.03662,,,,,,,,,,,,,,,,,,,,,,,,,,0,0,0,0,0
1.6429,1783968208.5125,1,1,4.5000,-0.0000,1.42244,-0.00151,-2.63106,1.06176,1.57080,0.11675,-0.12764,-0.48149,0.03661,,,,,,,,,,,,,,,,,,,,,,,,,,0,0,0,0,0
1.6578,1783968208.5273,1,1,4.5000,-0.0000,1.42244,-0.00163,-2.63105,1.06192,1.57080,0.11675,-0.12763,-0.48152,0.03659,,,,,,,,,,,,,,,,,,,,,,,,,,0,0,0,0,0
1.6762,1783968208.5457,1,1,4.5000,-0.0000,1.42244,-0.00164,-2.63105,1.06194,1.57080,0.11675,-0.12763,-0.48153,0.03659,,,,,,,,,,,,,,,,,,,,,,,,,,0,0,0,0,0
1.6764,1783968208.5459,1,1,4.5000,-0.0000,1.42244,-0.00164,-2.63105,1.06194,1.57080,0.11675,-0.12763,-0.48153,0.03659,,,,,,,,,,,,,,,,,,,,,,,,,,0,0,0,0,0
1.6803,1783968208.5498,1,1,4.5000,-0.0000,1.42244,-0.00164,-2.63105,1.06194,1.57080,0.11675,-0.12763,-0.48153,0.03659,,,,,,,,,,,,,,,,,,,,,,,,,,0,0,0,0,0
1.6805,1783968208.5500,1,1,4.5000,-0.0000,1.42244,-0.00164,-2.63105,1.06194,1.57080,0.11675,-0.12763,-0.48153,0.03659,,,,,,,,,,,,,,,,,,,,,,,,,,0,0,0,0,0
1.6810,1783968208.5505,1,1,4.5000,-0.0000,1.42244,-0.00164,-2.63105,1.06194,1.57080,0.11675,-0.12763,-0.48153,0.03659,,,,,,,,,,,,,,,,,,,,,,,,,,0,0,0,0,0
1.6815,1783968208.5510,1,1,4.5000,-0.0000,1.42244,-0.00164,-2.63105,1.06194,1.57080,0.11675,-0.12763,-0.48153,0.03659,,,,,,,,,,,,,,,,,,,,,,,,,,0,0,0,0,0
1.6949,1783968208.5644,1,1,4.5000,-0.0000,1.42244,-0.00164,-2.63105,1.06194,1.57080,0.11675,-0.12763,-0.48153,0.03659,,,,,,,,,,,,,,,,,,,,,,,,,,0,0,0,0,0
1.7030,1783968208.5725,1,1,4.5000,-0.0000,1.42244,-0.00164,-2.63105,1.06194,1.57080,0.11675,-0.12763,-0.48153,0.03659,,,,,,,,,,,,,,,,,,,,,,,,,,0,0,0,0,0
1.7120,1783968208.5816,1,1,4.5000,-0.0000,1.42244,-0.00164,-2.63105,1.06194,1.57080,0.11675,-0.12763,-0.48153,0.03659,,,,,,,,,,,,,,,,,,,,,,,,,,0,0,0,0,0
1.7213,1783968208.5908,1,1,4.5000,-0.0000,1.42244,-0.00164,-2.63105,1.06194,1.57080,0.11675,-0.12763,-0.48153,0.03659,,,,,,,,,,,,,,,,,,,,,,,,,,0,0,0,0,0
1.7308,1783968208.6003,1,1,4.5000,-0.0000,1.42244,-0.00164,-2.63105,1.06194,1.57080,0.11675,-0.12763,-0.48153,0.03659,,,,,,,,,,,,,,,,,,,,,,,,,,0,0,0,0,0
1.7566,1783968208.6261,1,1,4.5000,-0.0000,1.42244,-0.00164,-2.63105,1.06194,1.57080,0.11675,-0.12763,-0.48153,0.03659,,,,,,,,,,,,,,,,,,,,,,,,,,0,0,0,0,0
1.7569,1783968208.6264,1,1,4.5000,-0.0000,1.42244,-0.00164,-2.63105,1.06194,1.57080,0.11675,-0.12763,-0.48153,0.03659,,,,,,,,,,,,,,,,,,,,,,,,,,0,0,0,0,0
1.7573,1783968208.6268,1,1,4.5000,-0.0000,1.42244,-0.00164,-2.63105,1.06194,1.57080,0.11675,-0.12763,-0.48153,0.03659,,,,,,,,,,,,,,,,,,,,,,,,,,0,0,0,0,0
1.7623,1783968208.6318,1,1,4.5000,-0.0000,1.42244,-0.00164,-2.63105,1.06194,1.57080,0.11675,-0.12763,-0.48153,0.03659,,,,,,,,,,,,,,,,,,,,,,,,,,0,0,0,0,0
1.7842,1783968208.6537,1,1,4.5000,-0.0000,1.42244,-0.00164,-2.63105,1.06194,1.57080,0.11675,-0.12763,-0.48153,0.03659,,,,,,,,,,,,,,,,,,,,,,,,,,0,0,0,0,0
1.7845,1783968208.6540,1,1,4.5000,-0.0000,1.42244,-0.00164,-2.63105,1.06194,1.57080,0.11675,-0.12763,-0.48153,0.03659,,,,,,,,,,,,,,,,,,,,,,,,,,0,0,0,0,0
1.7855,1783968208.6550,1,1,4.5000,-0.0000,1.42244,-0.00164,-2.63105,1.06194,1.57080,0.11675,-0.12763,-0.48153,0.03659,,,,,,,,,,,,,,,,,,,,,,,,,,0,0,0,0,0
1.7932,1783968208.6627,1,1,4.5000,-0.0000,1.42244,-0.00164,-2.63105,1.06194,1.57080,0.11675,-0.12763,-0.48153,0.03659,,,,,,,,,,,,,,,,,,,,,,,,,,0,0,0,0,0
1.7935,1783968208.6630,1,1,4.5000,-0.0000,1.42244,-0.00164,-2.63105,1.06194,1.57080,0.11675,-0.12763,-0.48153,0.03659,,,,,,,,,,,,,,,,,,,,,,,,,,0,0,0,0,0
1.8028,1783968208.6723,1,1,4.5000,-0.0000,1.42244,-0.00164,-2.63105,1.06194,1.57080,0.11675,-0.12763,-0.48153,0.03659,,,,,,,,,,,,,,,,,,,,,,,,,,0,0,0,0,0
1.8126,1783968208.6822,1,1,4.5000,-0.0000,1.42244,-0.00164,-2.63105,1.06194,1.57080,0.11675,-0.12763,-0.48153,0.03659,,,,,,,,,,,,,,,,,,,,,,,,,,0,0,0,0,0
1.8131,1783968208.6826,1,1,4.5000,-0.0000,1.42244,-0.00164,-2.63105,1.06194,1.57080,0.11675,-0.12763,-0.48153,0.03659,,,,,,,,,,,,,,,,,,,,,,,,,,0,0,0,0,0
1.8226,1783968208.6921,1,1,4.5000,-0.0000,1.42244,-0.00164,-2.63105,1.06194,1.57080,0.11675,-0.12763,-0.48153,0.03659,,,,,,,,,,,,,,,,,,,,,,,,,,0,0,0,0,0
1.8230,1783968208.6925,1,1,4.5000,-0.0000,1.42244,-0.00164,-2.63105,1.06194,1.57080,0.11675,-0.12763,-0.48153,0.03659,,,,,,,,,,,,,,,,,,,,,,,,,,0,0,0,0,0
1.8352,1783968208.7048,1,1,4.5000,-0.0000,1.42244,-0.00164,-2.63105,1.06194,1.57080,0.11675,-0.12763,-0.48153,0.03659,,,,,,,,,,,,,,,,,,,,,,,,,,0,0,0,0,0
1.8356,1783968208.7051,1,1,4.5000,-0.0000,1.42244,-0.00164,-2.63105,1.06194,1.57080,0.11675,-0.12763,-0.48153,0.03659,,,,,,,,,,,,,,,,,,,,,,,,,,0,0,0,0,0
1.8421,1783968208.7117,1,1,4.5000,-0.0000,1.42244,-0.00164,-2.63105,1.06194,1.57080,0.11675,-0.12763,-0.48153,0.03659,,,,,,,,,,,,,,,,,,,,,,,,,,0,0,0,0,0
1.8425,1783968208.7120,1,1,4.5000,-0.0000,1.42244,-0.00164,-2.63105,1.06194,1.57080,0.11675,-0.12763,-0.48153,0.03659,,,,,,,,,,,,,,,,,,,,,,,,,,0,0,0,0,0
1.8504,1783968208.7199,1,1,4.5000,-0.0000,1.42244,-0.00164,-2.63105,1.06194,1.57080,0.11675,-0.12763,-0.48153,0.03659,,,,,,,,,,,,,,,,,,,,,,,,,,0,0,0,0,0
1.8606,1783968208.7301,1,1,4.5000,-0.0000,1.42244,-0.00164,-2.63105,1.06194,1.57080,0.11675,-0.12763,-0.48153,0.03659,,,,,,,,,,,,,,,,,,,,,,,,,,0,0,0,0,0
1.8776,1783968208.7471,1,1,4.5000,-0.0000,1.42244,-0.00165,-2.63105,1.06195,1.57080,0.11675,-0.12763,-0.48153,0.03658,,,,,,,,,,,,,,,,,,,,,,,,,,0,0,0,0,0
1.8842,1783968208.7538,1,1,4.5000,-0.0000,1.42244,-0.00166,-2.63106,1.06197,1.57080,0.11675,-0.12763,-0.48152,0.03657,,,,,,,,,,,,,,,,,,,,,,,,,,0,0,0,0,0
1.9017,1783968208.7713,1,1,4.5000,-0.0000,1.42244,-0.00170,-2.63110,1.06202,1.57080,0.11675,-0.12763,-0.48150,0.03655,,,,,,,,,,,,,,,,,,,,,,,,,,0,0,0,0,0
1.9047,1783968208.7743,1,1,4.5000,-0.0000,1.42244,-0.00170,-2.63110,1.06202,1.57080,0.11675,-0.12763,-0.48150,0.03655,,,,,,,,,,,,,,,,,,,,,,,,,,0,0,0,0,0
1.9134,1783968208.7829,1,1,4.5000,-0.0000,1.42243,-0.00172,-2.63112,1.06205,1.57080,0.11675,-0.12764,-0.48149,0.03653,,,,,,,,,,,,,,,,,,,,,,,,,,0,0,0,0,0
1.9138,1783968208.7833,1,1,4.5000,-0.0000,1.42243,-0.00172,-2.63112,1.06205,1.57080,0.11675,-0.12764,-0.48149,0.03653,,,,,,,,,,,,,,,,,,,,,,,,,,0,0,0,0,0
1.9283,1783968208.7978,1,1,4.5000,-0.0000,1.42243,-0.00179,-2.63116,1.06212,1.57080,0.11675,-0.12764,-0.48147,0.03650,,,,,,,,,,,,,,,,,,,,,,,,,,0,0,0,0,0
1.9287,1783968208.7982,1,1,4.5000,-0.0000,1.42243,-0.00179,-2.63116,1.06212,1.57080,0.11675,-0.12764,-0.48147,0.03650,,,,,,,,,,,,,,,,,,,,,,,,,,0,0,0,0,0
1.9363,1783968208.8058,1,1,4.5000,-0.0000,1.42243,-0.00180,-2.63117,1.06214,1.57080,0.11675,-0.12764,-0.48147,0.03649,,,,,,,,,,,,,,,,,,,,,,,,,,0,0,0,0,0
1.9368,1783968208.8063,1,1,4.5000,-0.0000,1.42243,-0.00180,-2.63117,1.06214,1.57080,0.11675,-0.12764,-0.48147,0.03649,,,,,,,,,,,,,,,,,,,,,,,,,,0,0,0,0,0
1.9441,1783968208.8137,1,1,4.5000,-0.0000,1.42243,-0.00184,-2.63118,1.06219,1.57080,0.11675,-0.12764,-0.48146,0.03648,,,,,,,,,,,,,,,,,,,,,,,,,,0,0,0,0,0
1.9731,1783968208.8427,1,1,4.5000,-0.0000,1.42243,-0.00199,-2.63122,1.06236,1.57080,0.11675,-0.12764,-0.48146,0.03642,,,,,,,,,,,,,,,,,,,,,,,,,,0,0,0,0,0
1.9813,1783968208.8508,1,1,4.5000,-0.0000,1.42243,-0.00206,-2.63124,1.06245,1.57080,0.11675,-0.12764,-0.48146,0.03640,,,,,,,,,,,,,,,,,,,,,,,,,,0,0,0,0,0
1.9855,1783968208.8551,1,1,4.5000,-0.0000,1.42243,-0.00210,-2.63125,1.06250,1.57080,0.11675,-0.12764,-0.48146,0.03638,,,,,,,,,,,,,,,,,,,,,,,,,,0,0,0,0,0
1.9858,1783968208.8553,1,1,4.5000,-0.0000,1.42243,-0.00210,-2.63125,1.06250,1.57080,0.11675,-0.12764,-0.48146,0.03638,,,,,,,,,,,,,,,,,,,,,,,,,,0,0,0,0,0
1.9867,1783968208.8563,1,1,4.5000,-0.0000,1.42243,-0.00210,-2.63125,1.06250,1.57080,0.11675,-0.12764,-0.48146,0.03638,,,,,,,,,,,,,,,,,,,,,,,,,,0,0,0,0,0
1.9870,1783968208.8565,1,1,4.5000,-0.0000,1.42243,-0.00210,-2.63125,1.06250,1.57080,0.11675,-0.12764,-0.48146,0.03638,,,,,,,,,,,,,,,,,,,,,,,,,,0,0,0,0,0
1.9909,1783968208.8604,1,1,4.5000,-0.0000,1.42243,-0.00215,-2.63126,1.06256,1.57080,0.11675,-0.12764,-0.48146,0.03637,,,,,,,,,,,,,,,,,,,,,,,,,,0,0,0,0,0
1.9912,1783968208.8608,1,1,4.5000,-0.0000,1.42243,-0.00215,-2.63126,1.06256,1.57080,0.11675,-0.12764,-0.48146,0.03637,,,,,,,,,,,,,,,,,,,,,,,,,,0,0,0,0,0
2.0034,1783968208.8729,1,1,4.5000,-0.0000,1.42243,-0.00218,-2.63127,1.06259,1.57080,0.11675,-0.12764,-0.48146,0.03636,,,,,,,,,,,,,,,,,,,,,,,,,,0,0,0,0,0
2.0098,1783968208.8793,1,1,4.5000,-0.0000,1.42243,-0.00224,-2.63128,1.06267,1.57080,0.11675,-0.12764,-0.48146,0.03634,,,,,,,,,,,,,,,,,,,,,,,,,,0,0,0,0,0
2.0101,1783968208.8796,1,1,4.5000,-0.0000,1.42243,-0.00224,-2.63128,1.06267,1.57080,0.11675,-0.12764,-0.48146,0.03634,,,,,,,,,,,,,,,,,,,,,,,,,,0,0,0,0,0
2.0216,1783968208.8911,1,1,4.5000,-0.0000,1.42243,-0.00229,-2.63128,1.06272,1.57080,0.11675,-0.12764,-0.48146,0.03632,,,,,,,,,,,,,,,,,,,,,,,,,,0,0,0,0,0
2.0220,1783968208.8916,1,1,4.5000,-0.0000,1.42243,-0.00229,-2.63128,1.06272,1.57080,0.11675,-0.12764,-0.48146,0.03632,,,,,,,,,,,,,,,,,,,,,,,,,,0,0,0,0,0
2.0340,1783968208.9035,1,1,4.5000,-0.0000,1.42243,-0.00237,-2.63129,1.06282,1.57080,0.11675,-0.12764,-0.48147,0.03630,,,,,,,,,,,,,,,,,,,,,,,,,,0,0,0,0,0
2.0343,1783968208.9038,1,1,4.5000,-0.0000,1.42243,-0.00237,-2.63129,1.06282,1.57080,0.11675,-0.12764,-0.48147,0.03630,,,,,,,,,,,,,,,,,,,,,,,,,,0,0,0,0,0
2.0482,1783968208.9177,1,1,4.5000,-0.0000,1.42243,-0.00256,-2.63131,1.06306,1.57080,0.11675,-0.12764,-0.48149,0.03625,,,,,,,,,,,,,,,,,,,,,,,,,,0,0,0,0,0
2.0524,1783968208.9219,1,1,4.5000,-0.0000,1.42243,-0.00261,-2.63132,1.06312,1.57080,0.11675,-0.12763,-0.48149,0.03623,,,,,,,,,,,,,,,,,,,,,,,,,,0,0,0,0,0
2.0528,1783968208.9223,1,1,4.5000,-0.0000,1.42243,-0.00261,-2.63132,1.06312,1.57080,0.11675,-0.12763,-0.48149,0.03623,,,,,,,,,,,,,,,,,,,,,,,,,,0,0,0,0,0
2.0603,1783968208.9298,1,1,4.5000,-0.0000,1.42243,-0.00270,-2.63133,1.06324,1.57080,0.11675,-0.12763,-0.48150,0.03621,,,,,,,,,,,,,,,,,,,,,,,,,,0,0,0,0,0
2.0607,1783968208.9302,1,1,4.5000,-0.0000,1.42243,-0.00270,-2.63133,1.06324,1.57080,0.11675,-0.12763,-0.48150,0.03621,,,,,,,,,,,,,,,,,,,,,,,,,,0,0,0,0,0
2.0701,1783968208.9397,1,1,4.5000,-0.0000,1.42243,-0.00278,-2.63133,1.06334,1.57080,0.11675,-0.12763,-0.48151,0.03619,,,,,,,,,,,,,,,,,,,,,,,,,,0,0,0,0,0
2.0706,1783968208.9401,1,1,4.5000,-0.0000,1.42243,-0.00278,-2.63133,1.06334,1.57080,0.11675,-0.12763,-0.48151,0.03619,,,,,,,,,,,,,,,,,,,,,,,,,,0,0,0,0,0
2.0819,1783968208.9515,1,1,4.5000,-0.0000,1.42243,-0.00282,-2.63132,1.06339,1.57080,0.11675,-0.12763,-0.48152,0.03618,,,,,,,,,,,,,,,,,,,,,,,,,,0,0,0,0,0
2.0938,1783968208.9633,1,1,4.5000,-0.0000,1.42243,-0.00282,-2.63132,1.06339,1.57080,0.11675,-0.12763,-0.48152,0.03618,,,,,,,,,,,,,,,,,,,,,,,,,,0,0,0,0,0
2.0940,1783968208.9636,1,1,4.5000,-0.0000,1.42243,-0.00282,-2.63132,1.06339,1.57080,0.11675,-0.12763,-0.48152,0.03618,,,,,,,,,,,,,,,,,,,,,,,,,,0,0,0,0,0
2.1040,1783968208.9735,1,1,4.5000,-0.0000,1.42243,-0.00282,-2.63132,1.06339,1.57080,0.11675,-0.12763,-0.48152,0.03618,,,,,,,,,,,,,,,,,,,,,,,,,,0,0,0,0,0
2.1042,1783968208.9737,1,1,4.5000,-0.0000,1.42243,-0.00282,-2.63132,1.06339,1.57080,0.11675,-0.12763,-0.48152,0.03618,,,,,,,,,,,,,,,,,,,,,,,,,,0,0,0,0,0
2.1121,1783968208.9816,1,1,4.5000,-0.0000,1.42243,-0.00282,-2.63132,1.06339,1.57080,0.11675,-0.12763,-0.48152,0.03618,,,,,,,,,,,,,,,,,,,,,,,,,,0,0,0,0,0
2.1125,1783968208.9820,1,1,4.5000,-0.0000,1.42243,-0.00282,-2.63132,1.06339,1.57080,0.11675,-0.12763,-0.48152,0.03618,,,,,,,,,,,,,,,,,,,,,,,,,,0,0,0,0,0
2.1257,1783968208.9952,1,1,4.5000,-0.0000,1.42243,-0.00282,-2.63132,1.06339,1.57080,0.11675,-0.12763,-0.48152,0.03618,,,,,,,,,,,,,,,,,,,,,,,,,,0,0,0,0,0
2.1345,1783968209.0041,1,1,4.5000,-0.0000,1.42243,-0.00282,-2.63132,1.06339,1.57080,0.11675,-0.12763,-0.48152,0.03618,,,,,,,,,,,,,,,,,,,,,,,,,,0,0,0,0,0
2.1482,1783968209.0177,1,1,4.5000,-0.0000,1.42243,-0.00282,-2.63132,1.06339,1.57080,0.11675,-0.12763,-0.48152,0.03618,,,,,,,,,,,,,,,,,,,,,,,,,,0,0,0,0,0
2.1539,1783968209.0234,1,1,4.5000,-0.0000,1.42243,-0.00282,-2.63132,1.06339,1.57080,0.11675,-0.12763,-0.48152,0.03618,,,,,,,,,,,,,,,,,,,,,,,,,,0,0,0,0,0
2.1542,1783968209.0237,1,1,4.5000,-0.0000,1.42243,-0.00282,-2.63132,1.06339,1.57080,0.11675,-0.12763,-0.48152,0.03618,,,,,,,,,,,,,,,,,,,,,,,,,,0,0,0,0,0
2.1655,1783968209.0350,1,1,4.5000,-0.0000,1.42243,-0.00282,-2.63132,1.06339,1.57080,0.11675,-0.12763,-0.48152,0.03618,,,,,,,,,,,,,,,,,,,,,,,,,,0,0,0,0,0
2.1724,1783968209.0420,1,1,4.5000,-0.0000,1.42243,-0.00282,-2.63132,1.06339,1.57080,0.11675,-0.12763,-0.48152,0.03618,,,,,,,,,,,,,,,,,,,,,,,,,,0,0,0,0,0
2.1830,1783968209.0525,1,1,4.5000,-0.0000,1.42243,-0.00282,-2.63132,1.06339,1.57080,0.11675,-0.12763,-0.48152,0.03618,,,,,,,,,,,,,,,,,,,,,,,,,,0,0,0,0,0
2.1925,1783968209.0621,1,1,4.5000,-0.0000,1.42243,-0.00282,-2.63132,1.06339,1.57080,0.11675,-0.12763,-0.48152,0.03618,,,,,,,,,,,,,,,,,,,,,,,,,,0,0,0,0,0
2.1928,1783968209.0624,1,1,4.5000,-0.0000,1.42243,-0.00282,-2.63132,1.06339,1.57080,0.11675,-0.12763,-0.48152,0.03618,,,,,,,,,,,,,,,,,,,,,,,,,,0,0,0,0,0
2.2072,1783968209.0767,1,1,4.5000,-0.0000,1.42243,-0.00282,-2.63132,1.06339,1.57080,0.11675,-0.12763,-0.48152,0.03618,,,,,,,,,,,,,,,,,,,,,,,,,,0,0,0,0,0
2.2162,1783968209.0858,1,1,4.5000,-0.0000,1.42243,-0.00282,-2.63132,1.06339,1.57080,0.11675,-0.12763,-0.48152,0.03618,,,,,,,,,,,,,,,,,,,,,,,,,,0,0,0,0,0
2.2165,1783968209.0860,1,1,4.5000,-0.0000,1.42243,-0.00282,-2.63132,1.06339,1.57080,0.11675,-0.12763,-0.48152,0.03618,,,,,,,,,,,,,,,,,,,,,,,,,,0,0,0,0,0
2.3003,1783968209.1698,1,1,4.5000,-0.0000,1.42243,-0.00283,-2.63133,1.06341,1.57080,0.11675,-0.12763,-0.48152,0.03617,,,,,,,,,,,,,,,,,,,,,,,,,,0,0,0,0,0
2.3019,1783968209.1714,1,1,4.5000,-0.0000,1.42243,-0.00283,-2.63133,1.06341,1.57080,0.11675,-0.12763,-0.48152,0.03617,,,,,,,,,,,,,,,,,,,,,,,,,,0,0,0,0,0
2.3035,1783968209.1730,1,1,4.5000,-0.0000,1.42243,-0.00283,-2.63133,1.06341,1.57080,0.11675,-0.12763,-0.48152,0.03617,,,,,,,,,,,,,,,,,,,,,,,,,,0,0,0,0,0
2.3041,1783968209.1737,1,1,4.5000,-0.0000,1.42243,-0.00284,-2.63134,1.06342,1.57080,0.11675,-0.12763,-0.48151,0.03617,,,,,,,,,,,,,,,,,,,,,,,,,,0,0,0,0,0
2.3051,1783968209.1746,1,1,4.5000,-0.0000,1.42243,-0.00284,-2.63134,1.06342,1.57080,0.11675,-0.12763,-0.48151,0.03617,,,,,,,,,,,,,,,,,,,,,,,,,,0,0,0,0,0
2.3055,1783968209.1750,1,1,4.5000,-0.0000,1.42243,-0.00284,-2.63134,1.06342,1.57080,0.11675,-0.12763,-0.48151,0.03617,,,,,,,,,,,,,,,,,,,,,,,,,,0,0,0,0,0
2.3130,1783968209.1825,1,1,4.5000,-0.0000,1.42243,-0.00286,-2.63136,1.06344,1.57080,0.11675,-0.12763,-0.48150,0.03615,,,,,,,,,,,,,,,,,,,,,,,,,,0,0,0,0,0
2.3168,1783968209.1863,1,1,4.5000,-0.0000,1.42243,-0.00287,-2.63138,1.06346,1.57080,0.11675,-0.12763,-0.48149,0.03614,,,,,,,,,,,,,,,,,,,,,,,,,,0,0,0,0,0
2.3171,1783968209.1866,1,1,4.5000,-0.0000,1.42243,-0.00287,-2.63138,1.06346,1.57080,0.11675,-0.12763,-0.48149,0.03614,,,,,,,,,,,,,,,,,,,,,,,,,,0,0,0,0,0
2.3174,1783968209.1869,1,1,4.5000,-0.0000,1.42243,-0.00287,-2.63138,1.06346,1.57080,0.11675,-0.12763,-0.48149,0.03614,,,,,,,,,,,,,,,,,,,,,,,,,,0,0,0,0,0
2.3179,1783968209.1874,1,1,4.5000,-0.0000,1.42243,-0.00287,-2.63138,1.06346,1.57080,0.11675,-0.12763,-0.48149,0.03614,,,,,,,,,,,,,,,,,,,,,,,,,,0,0,0,0,0
2.3181,1783968209.1877,1,1,4.5000,-0.0000,1.42243,-0.00287,-2.63138,1.06346,1.57080,0.11675,-0.12763,-0.48149,0.03614,,,,,,,,,,,,,,,,,,,,,,,,,,0,0,0,0,0
2.3184,1783968209.1880,1,1,4.5000,-0.0000,1.42243,-0.00287,-2.63138,1.06346,1.57080,0.11675,-0.12763,-0.48149,0.03614,,,,,,,,,,,,,,,,,,,,,,,,,,0,0,0,0,0
2.3219,1783968209.1915,1,1,4.5000,-0.0000,1.42243,-0.00287,-2.63138,1.06346,1.57080,0.11675,-0.12763,-0.48149,0.03614,,,,,,,,,,,,,,,,,,,,,,,,,,0,0,0,0,0
2.3223,1783968209.1918,1,1,4.5000,-0.0000,1.42243,-0.00287,-2.63138,1.06346,1.57080,0.11675,-0.12763,-0.48149,0.03614,,,,,,,,,,,,,,,,,,,,,,,,,,0,0,0,0,0
2.3226,1783968209.1921,1,1,4.5000,-0.0000,1.42243,-0.00287,-2.63138,1.06346,1.57080,0.11675,-0.12763,-0.48149,0.03614,,,,,,,,,,,,,,,,,,,,,,,,,,0,0,0,0,0
2.3361,1783968209.2056,1,1,4.5000,-0.0000,1.42243,-0.00291,-2.63140,1.06351,1.57080,0.11675,-0.12764,-0.48148,0.03612,,,,,,,,,,,,,,,,,,,,,,,,,,0,0,0,0,0
2.3460,1783968209.2156,1,1,4.5000,-0.0000,1.42243,-0.00295,-2.63143,1.06355,1.57080,0.11675,-0.12764,-0.48147,0.03610,,,,,,,,,,,,,,,,,,,,,,,,,,0,0,0,0,0
2.3543,1783968209.2239,1,1,4.5000,-0.0000,1.42243,-0.00298,-2.63144,1.06358,1.57080,0.11675,-0.12764,-0.48146,0.03609,,,,,,,,,,,,,,,,,,,,,,,,,,0,0,0,0,0
2.3646,1783968209.2341,1,1,4.5000,-0.0000,1.42243,-0.00301,-2.63145,1.06362,1.57080,0.11675,-0.12764,-0.48146,0.03608,,,,,,,,,,,,,,,,,,,,,,,,,,0,0,0,0,0
2.3713,1783968209.2408,1,1,4.5000,-0.0000,1.42243,-0.00304,-2.63146,1.06365,1.57080,0.11675,-0.12764,-0.48146,0.03607,,,,,,,,,,,,,,,,,,,,,,,,,,0,0,0,0,0
2.3808,1783968209.2503,1,1,4.5000,-0.0000,1.42243,-0.00307,-2.63147,1.06369,1.57080,0.11675,-0.12764,-0.48146,0.03605,,,,,,,,,,,,,,,,,,,,,,,,,,0,0,0,0,0
2.3952,1783968209.2648,1,1,4.5000,-0.0000,1.42243,-0.00316,-2.63149,1.06380,1.57080,0.11675,-0.12764,-0.48146,0.03602,,,,,,,,,,,,,,,,,,,,,,,,,,0,0,0,0,0
2.4017,1783968209.2712,1,1,4.5000,-0.0000,1.42243,-0.00325,-2.63151,1.06391,1.57080,0.11675,-0.12764,-0.48146,0.03599,,,,,,,,,,,,,,,,,,,,,,,,,,0,0,0,0,0
2.4129,1783968209.2824,1,1,4.5000,-0.0000,1.42243,-0.00332,-2.63152,1.06399,1.57080,0.11675,-0.12764,-0.48146,0.03597,,,,,,,,,,,,,,,,,,,,,,,,,,0,0,0,0,0
2.4132,1783968209.2828,1,1,4.5000,-0.0000,1.42243,-0.00332,-2.63152,1.06399,1.57080,0.11675,-0.12764,-0.48146,0.03597,,,,,,,,,,,,,,,,,,,,,,,,,,0,0,0,0,0
2.4212,1783968209.2907,1,1,4.5000,-0.0000,1.42243,-0.00336,-2.63153,1.06404,1.57080,0.11675,-0.12764,-0.48146,0.03596,,,,,,,,,,,,,,,,,,,,,,,,,,0,0,0,0,0
2.4214,1783968209.2910,1,1,4.5000,-0.0000,1.42243,-0.00336,-2.63153,1.06404,1.57080,0.11675,-0.12764,-0.48146,0.03596,,,,,,,,,,,,,,,,,,,,,,,,,,0,0,0,0,0
2.4301,1783968209.2996,1,1,4.5000,-0.0000,1.42243,-0.00343,-2.63154,1.06413,1.57080,0.11675,-0.12764,-0.48146,0.03593,,,,,,,,,,,,,,,,,,,,,,,,,,0,0,0,0,0
2.4305,1783968209.3000,1,1,4.5000,-0.0000,1.42243,-0.00343,-2.63154,1.06413,1.57080,0.11675,-0.12764,-0.48146,0.03593,,,,,,,,,,,,,,,,,,,,,,,,,,0,0,0,0,0
2.4443,1783968209.3138,1,1,4.5000,-0.0000,1.42243,-0.00358,-2.63157,1.06430,1.57080,0.11675,-0.12764,-0.48146,0.03589,,,,,,,,,,,,,,,,,,,,,,,,,,0,0,0,0,0
2.4446,1783968209.3141,1,1,4.5000,-0.0000,1.42243,-0.00358,-2.63157,1.06430,1.57080,0.11675,-0.12764,-0.48146,0.03589,,,,,,,,,,,,,,,,,,,,,,,,,,0,0,0,0,0
2.4550,1783968209.3245,1,1,4.5000,-0.0000,1.42243,-0.00359,-2.63157,1.06432,1.57080,0.11675,-0.12764,-0.48147,0.03588,,,,,,,,,,,,,,,,,,,,,,,,,,0,0,0,0,0
2.4554,1783968209.3249,1,1,4.5000,-0.0000,1.42243,-0.00359,-2.63157,1.06432,1.57080,0.11675,-0.12764,-0.48147,0.03588,,,,,,,,,,,,,,,,,,,,,,,,,,0,0,0,0,0
2.4636,1783968209.3331,1,1,4.5000,-0.0000,1.42243,-0.00364,-2.63157,1.06437,1.57080,0.11675,-0.12764,-0.48147,0.03587,,,,,,,,,,,,,,,,,,,,,,,,,,0,0,0,0,0
2.4644,1783968209.3339,1,1,4.5000,-0.0000,1.42243,-0.00367,-2.63158,1.06440,1.57080,0.11675,-0.12764,-0.48147,0.03586,,,,,,,,,,,,,,,,,,,,,,,,,,0,0,0,0,0
2.4698,1783968209.3393,1,1,4.5000,-0.0000,1.42243,-0.00370,-2.63158,1.06445,1.57080,0.11675,-0.12763,-0.48147,0.03585,,,,,,,,,,,,,,,,,,,,,,,,,,0,0,0,0,0
2.4829,1783968209.3525,1,1,4.5000,-0.0000,1.42243,-0.00381,-2.63159,1.06458,1.57080,0.11675,-0.12763,-0.48149,0.03582,,,,,,,,,,,,,,,,,,,,,,,,,,0,0,0,0,0
2.4832,1783968209.3528,1,1,4.5000,-0.0000,1.42243,-0.00381,-2.63159,1.06458,1.57080,0.11675,-0.12763,-0.48149,0.03582,,,,,,,,,,,,,,,,,,,,,,,,,,0,0,0,0,0
2.4982,1783968209.3677,1,1,4.5000,-0.0000,1.42243,-0.00395,-2.63159,1.06476,1.57080,0.11675,-0.12763,-0.48151,0.03579,,,,,,,,,,,,,,,,,,,,,,,,,,0,0,0,0,0
2.4985,1783968209.3680,1,1,4.5000,-0.0000,1.42243,-0.00395,-2.63159,1.06476,1.57080,0.11675,-0.12763,-0.48151,0.03579,,,,,,,,,,,,,,,,,,,,,,,,,,0,0,0,0,0
2.5021,1783968209.3717,1,1,4.5000,-0.0000,1.42243,-0.00398,-2.63159,1.06479,1.57080,0.11675,-0.12763,-0.48151,0.03578,,,,,,,,,,,,,,,,,,,,,,,,,,0,0,0,0,0
2.5152,1783968209.3847,1,1,4.5000,-0.0000,1.42243,-0.00400,-2.63159,1.06482,1.57080,0.11675,-0.12763,-0.48152,0.03578,,,,,,,,,,,,,,,,,,,,,,,,,,0,0,0,0,0
2.5157,1783968209.3852,1,1,4.5000,-0.0000,1.42243,-0.00400,-2.63159,1.06482,1.57080,0.11675,-0.12763,-0.48152,0.03578,,,,,,,,,,,,,,,,,,,,,,,,,,0,0,0,0,0
2.5306,1783968209.4002,1,1,4.5000,-0.0000,1.42243,-0.00400,-2.63159,1.06482,1.57080,0.11675,-0.12763,-0.48152,0.03578,,,,,,,,,,,,,,,,,,,,,,,,,,0,0,0,0,0
2.5313,1783968209.4008,1,1,4.5000,-0.0000,1.42243,-0.00400,-2.63159,1.06482,1.57080,0.11675,-0.12763,-0.48152,0.03578,,,,,,,,,,,,,,,,,,,,,,,,,,0,0,0,0,0
2.5317,1783968209.4012,1,1,4.5000,-0.0000,1.42243,-0.00400,-2.63159,1.06482,1.57080,0.11675,-0.12763,-0.48152,0.03578,,,,,,,,,,,,,,,,,,,,,,,,,,0,0,0,0,0
2.5442,1783968209.4137,1,1,4.5000,-0.0000,1.42243,-0.00400,-2.63159,1.06482,1.57080,0.11675,-0.12763,-0.48152,0.03578,,,,,,,,,,,,,,,,,,,,,,,,,,0,0,0,0,0
2.5497,1783968209.4192,1,1,4.5000,-0.0000,1.42243,-0.00400,-2.63159,1.06482,1.57080,0.11675,-0.12763,-0.48152,0.03578,,,,,,,,,,,,,,,,,,,,,,,,,,0,0,0,0,0
2.5645,1783968209.4340,1,1,4.5000,-0.0000,1.42243,-0.00400,-2.63159,1.06482,1.57080,0.11675,-0.12763,-0.48152,0.03578,,,,,,,,,,,,,,,,,,,,,,,,,,0,0,0,0,0
2.5648,1783968209.4343,1,1,4.5000,-0.0000,1.42243,-0.00400,-2.63159,1.06482,1.57080,0.11675,-0.12763,-0.48152,0.03578,,,,,,,,,,,,,,,,,,,,,,,,,,0,0,0,0,0
2.5697,1783968209.4392,1,1,4.5000,-0.0000,1.42243,-0.00400,-2.63159,1.06482,1.57080,0.11675,-0.12763,-0.48152,0.03578,,,,,,,,,,,,,,,,,,,,,,,,,,0,0,0,0,0
2.5813,1783968209.4509,1,1,4.5000,-0.0000,1.42243,-0.00400,-2.63159,1.06482,1.57080,0.11675,-0.12763,-0.48152,0.03578,,,,,,,,,,,,,,,,,,,,,,,,,,0,0,0,0,0
2.5929,1783968209.4624,1,1,4.5000,-0.0000,1.42243,-0.00400,-2.63159,1.06482,1.57080,0.11675,-0.12763,-0.48152,0.03578,,,,,,,,,,,,,,,,,,,,,,,,,,0,0,0,0,0
2.6012,1783968209.4707,1,1,4.5000,-0.0000,1.42243,-0.00400,-2.63159,1.06482,1.57080,0.11675,-0.12763,-0.48152,0.03578,,,,,,,,,,,,,,,,,,,,,,,,,,0,0,0,0,0
2.6016,1783968209.4711,1,1,4.5000,-0.0000,1.42243,-0.00400,-2.63159,1.06482,1.57080,0.11675,-0.12763,-0.48152,0.03578,,,,,,,,,,,,,,,,,,,,,,,,,,0,0,0,0,0
2.6098,1783968209.4793,1,1,4.5000,-0.0000,1.42243,-0.00400,-2.63159,1.06482,1.57080,0.11675,-0.12763,-0.48152,0.03578,,,,,,,,,,,,,,,,,,,,,,,,,,0,0,0,0,0
2.6227,1783968209.4922,1,1,4.5000,-0.0000,1.42243,-0.00400,-2.63159,1.06482,1.57080,0.11675,-0.12763,-0.48152,0.03578,,,,,,,,,,,,,,,,,,,,,,,,,,0,0,0,0,0
2.6322,1783968209.5017,1,1,4.5000,-0.0000,1.42243,-0.00400,-2.63159,1.06482,1.57080,0.11675,-0.12763,-0.48152,0.03578,,,,,,,,,,,,,,,,,,,,,,,,,,0,0,0,0,0
2.6434,1783968209.5129,1,1,4.5000,-0.0000,1.42243,-0.00400,-2.63159,1.06482,1.57080,0.11675,-0.12763,-0.48152,0.03578,,,,,,,,,,,,,,,,,,,,,,,,,,0,0,0,0,0
2.6509,1783968209.5204,1,1,4.5000,-0.0000,1.42243,-0.00400,-2.63159,1.06482,1.57080,0.11675,-0.12763,-0.48152,0.03578,,,,,,,,,,,,,,,,,,,,,,,,,,0,0,0,0,0
2.6620,1783968209.5315,1,1,4.5000,-0.0000,1.42243,-0.00400,-2.63159,1.06482,1.57080,0.11675,-0.12763,-0.48152,0.03578,,,,,,,,,,,,,,,,,,,,,,,,,,0,0,0,0,0
2.6623,1783968209.5318,1,1,4.5000,-0.0000,1.42243,-0.00400,-2.63159,1.06482,1.57080,0.11675,-0.12763,-0.48152,0.03578,,,,,,,,,,,,,,,,,,,,,,,,,,0,0,0,0,0
2.6709,1783968209.5404,1,1,4.5000,-0.0000,1.42243,-0.00400,-2.63159,1.06482,1.57080,0.11675,-0.12763,-0.48152,0.03578,,,,,,,,,,,,,,,,,,,,,,,,,,0,0,0,0,0
2.6803,1783968209.5498,1,1,4.5000,-0.0000,1.42243,-0.00400,-2.63159,1.06482,1.57080,0.11675,-0.12763,-0.48152,0.03578,,,,,,,,,,,,,,,,,,,,,,,,,,0,0,0,0,0
2.6806,1783968209.5501,1,1,4.5000,-0.0000,1.42243,-0.00400,-2.63159,1.06482,1.57080,0.11675,-0.12763,-0.48152,0.03578,,,,,,,,,,,,,,,,,,,,,,,,,,0,0,0,0,0
2.6901,1783968209.5596,1,1,4.5000,-0.0000,1.42243,-0.00400,-2.63159,1.06482,1.57080,0.11675,-0.12763,-0.48152,0.03578,,,,,,,,,,,,,,,,,,,,,,,,,,0,0,0,0,0
2.6906,1783968209.5602,1,1,4.5000,-0.0000,1.42243,-0.00400,-2.63159,1.06482,1.57080,0.11675,-0.12763,-0.48152,0.03578,,,,,,,,,,,,,,,,,,,,,,,,,,0,0,0,0,0
2.7013,1783968209.5708,1,1,4.5000,-0.0000,1.42243,-0.00400,-2.63159,1.06482,1.57080,0.11675,-0.12763,-0.48152,0.03578,,,,,,,,,,,,,,,,,,,,,,,,,,0,0,0,0,0
2.7016,1783968209.5711,1,1,4.5000,-0.0000,1.42243,-0.00400,-2.63159,1.06482,1.57080,0.11675,-0.12763,-0.48152,0.03578,,,,,,,,,,,,,,,,,,,,,,,,,,0,0,0,0,0
2.7125,1783968209.5820,1,1,4.5000,-0.0000,1.42243,-0.00400,-2.63159,1.06483,1.57080,0.11675,-0.12763,-0.48152,0.03578,,,,,,,,,,,,,,,,,,,,,,,,,,0,0,0,0,0
2.7207,1783968209.5903,1,1,4.5000,-0.0000,1.42243,-0.00402,-2.63160,1.06485,1.57080,0.11675,-0.12763,-0.48151,0.03577,,,,,,,,,,,,,,,,,,,,,,,,,,0,0,0,0,0
2.7212,1783968209.5907,1,1,4.5000,-0.0000,1.42243,-0.00402,-2.63160,1.06485,1.57080,0.11675,-0.12763,-0.48151,0.03577,,,,,,,,,,,,,,,,,,,,,,,,,,0,0,0,0,0
2.7301,1783968209.5996,1,1,4.5000,-0.0000,1.42243,-0.00404,-2.63162,1.06487,1.57080,0.11675,-0.12763,-0.48150,0.03575,,,,,,,,,,,,,,,,,,,,,,,,,,0,0,0,0,0
2.7405,1783968209.6100,1,1,4.5000,-0.0000,1.42243,-0.00405,-2.63164,1.06489,1.57080,0.11675,-0.12763,-0.48149,0.03574,,,,,,,,,,,,,,,,,,,,,,,,,,0,0,0,0,0
2.7536,1783968209.6231,1,1,4.5000,-0.0000,1.42243,-0.00408,-2.63166,1.06493,1.57080,0.11675,-0.12763,-0.48148,0.03573,,,,,,,,,,,,,,,,,,,,,,,,,,0,0,0,0,0
2.7539,1783968209.6234,1,1,4.5000,-0.0000,1.42243,-0.00408,-2.63166,1.06493,1.57080,0.11675,-0.12763,-0.48148,0.03573,,,,,,,,,,,,,,,,,,,,,,,,,,0,0,0,0,0
2.7612,1783968209.6307,1,1,4.5000,-0.0000,1.42243,-0.00412,-2.63169,1.06498,1.57080,0.11675,-0.12764,-0.48147,0.03570,,,,,,,,,,,,,,,,,,,,,,,,,,0,0,0,0,0
2.7615,1783968209.6310,1,1,4.5000,-0.0000,1.42243,-0.00412,-2.63169,1.06498,1.57080,0.11675,-0.12764,-0.48147,0.03570,,,,,,,,,,,,,,,,,,,,,,,,,,0,0,0,0,0
2.7724,1783968209.6419,1,1,4.5000,-0.0000,1.42243,-0.00417,-2.63172,1.06503,1.57080,0.11675,-0.12764,-0.48145,0.03568,,,,,,,,,,,,,,,,,,,,,,,,,,0,0,0,0,0
2.7854,1783968209.6549,1,1,4.5000,-0.0000,1.42243,-0.00420,-2.63173,1.06507,1.57080,0.11675,-0.12764,-0.48145,0.03567,,,,,,,,,,,,,,,,,,,,,,,,,,0,0,0,0,0
2.7909,1783968209.6605,1,1,4.5000,-0.0000,1.42243,-0.00423,-2.63173,1.06510,1.57080,0.11675,-0.12764,-0.48145,0.03566,,,,,,,,,,,,,,,,,,,,,,,,,,0,0,0,0,0
2.8059,1783968209.6754,1,1,4.5000,-0.0000,1.42243,-0.00428,-2.63175,1.06516,1.57080,0.11675,-0.12764,-0.48145,0.03564,,,,,,,,,,,,,,,,,,,,,,,,,,0,0,0,0,0
2.8126,1783968209.6821,1,1,4.5000,-0.0000,1.42243,-0.00434,-2.63176,1.06524,1.57080,0.11675,-0.12764,-0.48145,0.03562,,,,,,,,,,,,,,,,,,,,,,,,,,0,0,0,0,0
2.8283,1783968209.6979,1,1,4.5000,-0.0000,1.42243,-0.00449,-2.63179,1.06542,1.57080,0.11675,-0.12764,-0.48145,0.03557,,,,,,,,,,,,,,,,,,,,,,,,,,0,0,0,0,0
2.8369,1783968209.7064,1,1,4.5000,-0.0000,1.42243,-0.00451,-2.63179,1.06544,1.57080,0.11675,-0.12764,-0.48145,0.03556,,,,,,,,,,,,,,,,,,,,,,,,,,0,0,0,0,0
2.8560,1783968209.7255,1,1,4.5000,-0.0000,1.42242,-0.00470,-2.63183,1.06567,1.57080,0.11675,-0.12764,-0.48146,0.03550,,,,,,,,,,,,,,,,,,,,,,,,,,0,0,0,0,0
2.8565,1783968209.7260,1,1,4.5000,-0.0000,1.42242,-0.00470,-2.63183,1.06567,1.57080,0.11675,-0.12764,-0.48146,0.03550,,,,,,,,,,,,,,,,,,,,,,,,,,0,0,0,0,0
2.8568,1783968209.7263,1,1,4.5000,-0.0000,1.42242,-0.00470,-2.63183,1.06567,1.57080,0.11675,-0.12764,-0.48146,0.03550,,,,,,,,,,,,,,,,,,,,,,,,,,0,0,0,0,0
2.8641,1783968209.7336,1,1,4.5000,-0.0000,1.42242,-0.00471,-2.63183,1.06568,1.57080,0.11675,-0.12764,-0.48146,0.03550,,,,,,,,,,,,,,,,,,,,,,,,,,0,0,0,0,0
2.8644,1783968209.7340,1,1,4.5000,-0.0000,1.42242,-0.00471,-2.63183,1.06568,1.57080,0.11675,-0.12764,-0.48146,0.03550,,,,,,,,,,,,,,,,,,,,,,,,,,0,0,0,0,0
2.8733,1783968209.7428,1,1,4.5000,-0.0000,1.42242,-0.00474,-2.63183,1.06572,1.57080,0.11675,-0.12764,-0.48146,0.03549,,,,,,,,,,,,,,,,,,,,,,,,,,0,0,0,0,0
2.8796,1783968209.7491,1,1,4.5000,-0.0000,1.42242,-0.00477,-2.63183,1.06576,1.57080,0.11675,-0.12763,-0.48146,0.03548,,,,,,,,,,,,,,,,,,,,,,,,,,0,0,0,0,0
2.8801,1783968209.7496,1,1,4.5000,-0.0000,1.42242,-0.00480,-2.63184,1.06580,1.57080,0.11675,-0.12763,-0.48147,0.03547,,,,,,,,,,,,,,,,,,,,,,,,,,0,0,0,0,0
2.8913,1783968209.7608,1,1,4.5000,-0.0000,1.42242,-0.00488,-2.63184,1.06589,1.57080,0.11675,-0.12763,-0.48147,0.03545,,,,,,,,,,,,,,,,,,,,,,,,,,0,0,0,0,0
2.9064,1783968209.7759,1,1,4.5000,-0.0000,1.42242,-0.00506,-2.63186,1.06611,1.57080,0.11675,-0.12763,-0.48149,0.03540,,,,,,,,,,,,,,,,,,,,,,,,,,0,0,0,0,0
2.9108,1783968209.7803,1,1,4.5000,-0.0000,1.42242,-0.00510,-2.63186,1.06616,1.57080,0.11675,-0.12763,-0.48150,0.03539,,,,,,,,,,,,,,,,,,,,,,,,,,0,0,0,0,0
3.0082,1783968209.8777,1,1,4.5000,-0.0000,1.42242,-0.00518,-2.63185,1.06627,1.57080,0.11675,-0.12763,-0.48152,0.03538,,,,,,,,,,,,,,,,,,,,,,,,,,0,0,0,0,0
3.0087,1783968209.8782,1,1,4.5000,-0.0000,1.42242,-0.00518,-2.63185,1.06627,1.57080,0.11675,-0.12763,-0.48152,0.03538,,,,,,,,,,,,,,,,,,,,,,,,,,0,0,0,0,0
3.0116,1783968209.8811,1,1,4.5000,-0.0000,1.42242,-0.00518,-2.63185,1.06627,1.57080,0.11675,-0.12763,-0.48152,0.03538,,,,,,,,,,,,,,,,,,,,,,,,,,0,0,0,0,0
3.0123,1783968209.8819,1,1,4.5000,-0.0000,1.42242,-0.00518,-2.63185,1.06627,1.57080,0.11675,-0.12763,-0.48152,0.03538,,,,,,,,,,,,,,,,,,,,,,,,,,0,0,0,0,0
3.0138,1783968209.8833,1,1,4.5000,-0.0000,1.42242,-0.00518,-2.63185,1.06627,1.57080,0.11675,-0.12763,-0.48152,0.03538,,,,,,,,,,,,,,,,,,,,,,,,,,0,0,0,0,0
3.0142,1783968209.8838,1,1,4.5000,-0.0000,1.42242,-0.00518,-2.63185,1.06627,1.57080,0.11675,-0.12763,-0.48152,0.03538,,,,,,,,,,,,,,,,,,,,,,,,,,0,0,0,0,0
3.0147,1783968209.8842,1,1,4.5000,-0.0000,1.42242,-0.00518,-2.63185,1.06627,1.57080,0.11675,-0.12763,-0.48152,0.03538,,,,,,,,,,,,,,,,,,,,,,,,,,0,0,0,0,0
3.0152,1783968209.8847,1,1,4.5000,-0.0000,1.42242,-0.00518,-2.63185,1.06627,1.57080,0.11675,-0.12763,-0.48152,0.03538,,,,,,,,,,,,,,,,,,,,,,,,,,0,0,0,0,0
3.0258,1783968209.8953,1,1,4.5000,-0.0000,1.42242,-0.00518,-2.63185,1.06627,1.57080,0.11675,-0.12763,-0.48152,0.03538,,,,,,,,,,,,,,,,,,,,,,,,,,0,0,0,0,0
3.0264,1783968209.8959,1,1,4.5000,-0.0000,1.42242,-0.00518,-2.63185,1.06627,1.57080,0.11675,-0.12763,-0.48152,0.03538,,,,,,,,,,,,,,,,,,,,,,,,,,0,0,0,0,0
3.0271,1783968209.8966,1,1,4.5000,-0.0000,1.42242,-0.00518,-2.63185,1.06627,1.57080,0.11675,-0.12763,-0.48152,0.03538,,,,,,,,,,,,,,,,,,,,,,,,,,0,0,0,0,0
3.0274,1783968209.8969,1,1,4.5000,-0.0000,1.42242,-0.00518,-2.63185,1.06627,1.57080,0.11675,-0.12763,-0.48152,0.03538,,,,,,,,,,,,,,,,,,,,,,,,,,0,0,0,0,0
3.0314,1783968209.9009,1,1,4.5000,-0.0000,1.42242,-0.00518,-2.63185,1.06627,1.57080,0.11675,-0.12763,-0.48152,0.03538,,,,,,,,,,,,,,,,,,,,,,,,,,0,0,0,0,0
3.0402,1783968209.9097,1,1,4.5000,-0.0000,1.42242,-0.00518,-2.63185,1.06627,1.57080,0.11675,-0.12763,-0.48152,0.03538,,,,,,,,,,,,,,,,,,,,,,,,,,0,0,0,0,0
3.0685,1783968209.9381,1,1,4.5000,-0.0000,1.42242,-0.00518,-2.63185,1.06627,1.57080,0.11675,-0.12763,-0.48152,0.03538,,,,,,,,,,,,,,,,,,,,,,,,,,0,0,0,0,0
3.0769,1783968209.9464,1,1,4.5000,-0.0000,1.42242,-0.00518,-2.63185,1.06627,1.57080,0.11675,-0.12763,-0.48152,0.03538,,,,,,,,,,,,,,,,,,,,,,,,,,0,0,0,0,0
3.0776,1783968209.9471,1,1,4.5000,-0.0000,1.42242,-0.00518,-2.63185,1.06627,1.57080,0.11675,-0.12763,-0.48152,0.03538,,,,,,,,,,,,,,,,,,,,,,,,,,0,0,0,0,0
3.0815,1783968209.9511,1,1,4.5000,-0.0000,1.42242,-0.00518,-2.63185,1.06627,1.57080,0.11675,-0.12763,-0.48152,0.03538,,,,,,,,,,,,,,,,,,,,,,,,,,0,0,0,0,0
3.0818,1783968209.9513,1,1,4.5000,-0.0000,1.42242,-0.00518,-2.63185,1.06627,1.57080,0.11675,-0.12763,-0.48152,0.03538,,,,,,,,,,,,,,,,,,,,,,,,,,0,0,0,0,0
3.1138,1783968209.9833,1,1,4.5000,-0.0000,1.42242,-0.00518,-2.63185,1.06627,1.57080,0.11675,-0.12763,-0.48152,0.03538,,,,,,,,,,,,,,,,,,,,,,,,,,0,0,0,0,0
3.1223,1783968209.9918,1,1,4.5000,-0.0000,1.42242,-0.00518,-2.63185,1.06627,1.57080,0.11675,-0.12763,-0.48152,0.03538,,,,,,,,,,,,,,,,,,,,,,,,,,0,0,0,0,0
3.1231,1783968209.9926,1,1,4.5000,-0.0000,1.42242,-0.00518,-2.63185,1.06627,1.57080,0.11675,-0.12763,-0.48152,0.03538,,,,,,,,,,,,,,,,,,,,,,,,,,0,0,0,0,0
3.1444,1783968210.0139,1,1,4.5000,-0.0000,1.42242,-0.00519,-2.63186,1.06628,1.57080,0.11675,-0.12763,-0.48152,0.03537,,,,,,,,,,,,,,,,,,,,,,,,,,0,0,0,0,0
3.1449,1783968210.0144,1,1,4.5000,-0.0000,1.42242,-0.00519,-2.63186,1.06628,1.57080,0.11675,-0.12763,-0.48152,0.03537,,,,,,,,,,,,,,,,,,,,,,,,,,0,0,0,0,0
3.2008,1783968210.0704,1,1,4.5000,-0.0000,1.42242,-0.00534,-2.63197,1.06647,1.57080,0.11675,-0.12763,-0.48146,0.03529,,,,,,,,,,,,,,,,,,,,,,,,,,0,0,0,0,0
3.2012,1783968210.0708,1,1,4.5000,-0.0000,1.42242,-0.00534,-2.63197,1.06647,1.57080,0.11675,-0.12763,-0.48146,0.03529,,,,,,,,,,,,,,,,,,,,,,,,,,0,0,0,0,0
3.2129,1783968210.0825,1,1,4.5000,-0.0000,1.42242,-0.00542,-2.63200,1.06656,1.57080,0.11675,-0.12764,-0.48145,0.03525,,,,,,,,,,,,,,,,,,,,,,,,,,0,0,0,0,0
3.2133,1783968210.0828,1,1,4.5000,-0.0000,1.42242,-0.00542,-2.63200,1.06656,1.57080,0.11675,-0.12764,-0.48145,0.03525,,,,,,,,,,,,,,,,,,,,,,,,,,0,0,0,0,0
3.2159,1783968210.0854,1,1,4.5000,-0.0000,1.42242,-0.00542,-2.63200,1.06656,1.57080,0.11675,-0.12764,-0.48145,0.03525,,,,,,,,,,,,,,,,,,,,,,,,,,0,0,0,0,0
3.2164,1783968210.0860,1,1,4.5000,-0.0000,1.42242,-0.00545,-2.63201,1.06660,1.57080,0.11675,-0.12764,-0.48145,0.03524,,,,,,,,,,,,,,,,,,,,,,,,,,0,0,0,0,0
3.2166,1783968210.0862,1,1,4.5000,-0.0000,1.42242,-0.00545,-2.63201,1.06660,1.57080,0.11675,-0.12764,-0.48145,0.03524,,,,,,,,,,,,,,,,,,,,,,,,,,0,0,0,0,0
3.2175,1783968210.0871,1,1,4.5000,-0.0000,1.42242,-0.00545,-2.63201,1.06660,1.57080,0.11675,-0.12764,-0.48145,0.03524,,,,,,,,,,,,,,,,,,,,,,,,,,0,0,0,0,0
3.2178,1783968210.0874,1,1,4.5000,-0.0000,1.42242,-0.00545,-2.63201,1.06660,1.57080,0.11675,-0.12764,-0.48145,0.03524,,,,,,,,,,,,,,,,,,,,,,,,,,0,0,0,0,0
3.2226,1783968210.0921,1,1,4.5000,-0.0000,1.42242,-0.00545,-2.63201,1.06660,1.57080,0.11675,-0.12764,-0.48145,0.03524,,,,,,,,,,,,,,,,,,,,,,,,,,0,0,0,0,0
3.2229,1783968210.0924,1,1,4.5000,-0.0000,1.42242,-0.00545,-2.63201,1.06660,1.57080,0.11675,-0.12764,-0.48145,0.03524,,,,,,,,,,,,,,,,,,,,,,,,,,0,0,0,0,0
3.2244,1783968210.0939,1,1,4.5000,-0.0000,1.42242,-0.00546,-2.63201,1.06661,1.57080,0.11675,-0.12764,-0.48145,0.03524,,,,,,,,,,,,,,,,,,,,,,,,,,0,0,0,0,0
3.2248,1783968210.0943,1,1,4.5000,-0.0000,1.42242,-0.00546,-2.63201,1.06661,1.57080,0.11675,-0.12764,-0.48145,0.03524,,,,,,,,,,,,,,,,,,,,,,,,,,0,0,0,0,0
3.2336,1783968210.1031,1,1,4.5000,-0.0000,1.42242,-0.00550,-2.63202,1.06666,1.57080,0.11675,-0.12764,-0.48145,0.03523,,,,,,,,,,,,,,,,,,,,,,,,,,0,0,0,0,0
3.2434,1783968210.1130,1,1,4.5000,-0.0000,1.42242,-0.00557,-2.63204,1.06674,1.57080,0.11675,-0.12764,-0.48145,0.03520,,,,,,,,,,,,,,,,,,,,,,,,,,0,0,0,0,0
3.2436,1783968210.1132,1,1,4.5000,-0.0000,1.42242,-0.00557,-2.63204,1.06674,1.57080,0.11675,-0.12764,-0.48145,0.03520,,,,,,,,,,,,,,,,,,,,,,,,,,0,0,0,0,0
3.2567,1783968210.1262,1,1,4.5000,-0.0000,1.42242,-0.00563,-2.63205,1.06681,1.57080,0.11675,-0.12764,-0.48145,0.03518,,,,,,,,,,,,,,,,,,,,,,,,,,0,0,0,0,0
3.2596,1783968210.1292,1,1,4.5000,-0.0000,1.42242,-0.00563,-2.63205,1.06681,1.57080,0.11675,-0.12764,-0.48145,0.03518,,,,,,,,,,,,,,,,,,,,,,,,,,0,0,0,0,0
3.2598,1783968210.1293,1,1,4.5000,-0.0000,1.42242,-0.00563,-2.63205,1.06681,1.57080,0.11675,-0.12764,-0.48145,0.03518,,,,,,,,,,,,,,,,,,,,,,,,,,0,0,0,0,0
3.2728,1783968210.1424,1,1,4.5000,-0.0000,1.42242,-0.00583,-2.63208,1.06705,1.57080,0.11675,-0.12763,-0.48145,0.03512,,,,,,,,,,,,,,,,,,,,,,,,,,0,0,0,0,0
3.2826,1783968210.1521,1,1,4.5000,-0.0000,1.42242,-0.00589,-2.63209,1.06712,1.57080,0.11675,-0.12763,-0.48146,0.03510,,,,,,,,,,,,,,,,,,,,,,,,,,0,0,0,0,0
3.2925,1783968210.1620,1,1,4.5000,-0.0000,1.42242,-0.00593,-2.63210,1.06717,1.57080,0.11675,-0.12763,-0.48146,0.03509,,,,,,,,,,,,,,,,,,,,,,,,,,0,0,0,0,0
3.3060,1783968210.1755,1,1,4.5000,-0.0000,1.42242,-0.00602,-2.63211,1.06729,1.57080,0.11675,-0.12763,-0.48146,0.03506,,,,,,,,,,,,,,,,,,,,,,,,,,0,0,0,0,0
3.3154,1783968210.1849,1,1,4.5000,-0.0000,1.42242,-0.00606,-2.63211,1.06733,1.57080,0.11675,-0.12763,-0.48147,0.03505,,,,,,,,,,,,,,,,,,,,,,,,,,0,0,0,0,0
3.3212,1783968210.1907,1,1,4.5000,-0.0000,1.42242,-0.00608,-2.63211,1.06735,1.57080,0.11675,-0.12763,-0.48147,0.03504,,,,,,,,,,,,,,,,,,,,,,,,,,0,0,0,0,0
3.3328,1783968210.2023,1,1,4.5000,-0.0000,1.42242,-0.00614,-2.63211,1.06743,1.57080,0.11675,-0.12763,-0.48148,0.03503,,,,,,,,,,,,,,,,,,,,,,,,,,0,0,0,0,0
3.3447,1783968210.2143,1,1,4.5000,-0.0000,1.42242,-0.00623,-2.63210,1.06755,1.57080,0.11675,-0.12762,-0.48151,0.03502,,,,,,,,,,,,,,,,,,,,,,,,,,0,0,0,0,0
3.3534,1783968210.2229,1,1,4.5000,-0.0000,1.42242,-0.00628,-2.63209,1.06762,1.57080,0.11675,-0.12762,-0.48153,0.03501,,,,,,,,,,,,,,,,,,,,,,,,,,0,0,0,0,0
3.3613,1783968210.2308,1,1,4.5000,-0.0000,1.42242,-0.00633,-2.63207,1.06768,1.57080,0.11675,-0.12762,-0.48155,0.03501,,,,,,,,,,,,,,,,,,,,,,,,,,0,0,0,0,0
3.3822,1783968210.2518,1,1,4.5000,-0.0000,1.42242,-0.00637,-2.63203,1.06773,1.57080,0.11675,-0.12761,-0.48158,0.03501,,,,,,,,,,,,,,,,,,,,,,,,,,0,0,0,0,0
3.3826,1783968210.2521,1,1,4.5000,-0.0000,1.42242,-0.00637,-2.63203,1.06773,1.57080,0.11675,-0.12761,-0.48158,0.03501,,,,,,,,,,,,,,,,,,,,,,,,,,0,0,0,0,0
3.3830,1783968210.2525,1,1,4.5000,-0.0000,1.42242,-0.00637,-2.63203,1.06773,1.57080,0.11675,-0.12761,-0.48158,0.03501,,,,,,,,,,,,,,,,,,,,,,,,,,0,0,0,0,0
3.3833,1783968210.2529,1,1,4.5000,-0.0000,1.42242,-0.00637,-2.63203,1.06773,1.57080,0.11675,-0.12761,-0.48158,0.03501,,,,,,,,,,,,,,,,,,,,,,,,,,0,0,0,0,0
3.3982,1783968210.2677,1,1,4.5000,-0.0000,1.42242,-0.00637,-2.63203,1.06773,1.57080,0.11675,-0.12761,-0.48158,0.03501,,,,,,,,,,,,,,,,,,,,,,,,,,0,0,0,0,0
3.4031,1783968210.2726,1,1,4.5000,-0.0000,1.42242,-0.00637,-2.63203,1.06773,1.57080,0.11675,-0.12761,-0.48158,0.03501,,,,,,,,,,,,,,,,,,,,,,,,,,0,0,0,0,0
3.4176,1783968210.2871,1,1,4.5000,-0.0000,1.42242,-0.00637,-2.63203,1.06773,1.57080,0.11675,-0.12761,-0.48158,0.03501,,,,,,,,,,,,,,,,,,,,,,,,,,0,0,0,0,0
3.4214,1783968210.2910,1,1,4.5000,-0.0000,1.42242,-0.00637,-2.63203,1.06773,1.57080,0.11675,-0.12761,-0.48158,0.03501,,,,,,,,,,,,,,,,,,,,,,,,,,0,0,0,0,0
3.4219,1783968210.2914,1,1,4.5000,-0.0000,1.42242,-0.00637,-2.63203,1.06773,1.57080,0.11675,-0.12761,-0.48158,0.03501,,,,,,,,,,,,,,,,,,,,,,,,,,0,0,0,0,0
3.4316,1783968210.3011,1,1,4.5000,-0.0000,1.42242,-0.00637,-2.63203,1.06773,1.57080,0.11675,-0.12761,-0.48158,0.03501,,,,,,,,,,,,,,,,,,,,,,,,,,0,0,0,0,0
3.4409,1783968210.3104,1,1,4.5000,-0.0000,1.42242,-0.00637,-2.63203,1.06773,1.57080,0.11675,-0.12761,-0.48158,0.03501,,,,,,,,,,,,,,,,,,,,,,,,,,0,0,0,0,0
3.4512,1783968210.3207,1,1,4.5000,-0.0000,1.42242,-0.00637,-2.63203,1.06773,1.57080,0.11675,-0.12761,-0.48158,0.03501,,,,,,,,,,,,,,,,,,,,,,,,,,0,0,0,0,0
3.4680,1783968210.3375,1,1,4.5000,-0.0000,1.42242,-0.00637,-2.63203,1.06773,1.57080,0.11675,-0.12761,-0.48158,0.03501,,,,,,,,,,,,,,,,,,,,,,,,,,0,0,0,0,0
3.4811,1783968210.3506,1,1,4.5000,-0.0000,1.42242,-0.00637,-2.63203,1.06773,1.57080,0.11675,-0.12761,-0.48158,0.03501,,,,,,,,,,,,,,,,,,,,,,,,,,0,0,0,0,0
3.4814,1783968210.3509,1,1,4.5000,-0.0000,1.42242,-0.00637,-2.63203,1.06773,1.57080,0.11675,-0.12761,-0.48158,0.03501,,,,,,,,,,,,,,,,,,,,,,,,,,0,0,0,0,0
3.4818,1783968210.3513,1,1,4.5000,-0.0000,1.42242,-0.00637,-2.63203,1.06773,1.57080,0.11675,-0.12761,-0.48158,0.03501,,,,,,,,,,,,,,,,,,,,,,,,,,0,0,0,0,0
3.4821,1783968210.3516,1,1,4.5000,-0.0000,1.42242,-0.00637,-2.63203,1.06773,1.57080,0.11675,-0.12761,-0.48158,0.03501,,,,,,,,,,,,,,,,,,,,,,,,,,0,0,0,0,0
3.4920,1783968210.3615,1,1,4.5000,-0.0000,1.42242,-0.00637,-2.63203,1.06773,1.57080,0.11675,-0.12761,-0.48158,0.03501,,,,,,,,,,,,,,,,,,,,,,,,,,0,0,0,0,0
3.5029,1783968210.3724,1,1,4.5000,-0.0000,1.42242,-0.00637,-2.63203,1.06773,1.57080,0.11675,-0.12761,-0.48158,0.03501,,,,,,,,,,,,,,,,,,,,,,,,,,0,0,0,0,0
3.5149,1783968210.3845,1,1,4.5000,-0.0000,1.42242,-0.00637,-2.63203,1.06773,1.57080,0.11675,-0.12761,-0.48158,0.03501,,,,,,,,,,,,,,,,,,,,,,,,,,0,0,0,0,0
3.5206,1783968210.3901,1,1,4.5000,-0.0000,1.42242,-0.00637,-2.63203,1.06773,1.57080,0.11675,-0.12761,-0.48158,0.03501,,,,,,,,,,,,,,,,,,,,,,,,,,0,0,0,0,0
3.5210,1783968210.3906,1,1,4.5000,-0.0000,1.42242,-0.00637,-2.63203,1.06773,1.57080,0.11675,-0.12761,-0.48158,0.03501,,,,,,,,,,,,,,,,,,,,,,,,,,0,0,0,0,0
3.5306,1783968210.4001,1,1,4.5000,-0.0000,1.42242,-0.00637,-2.63203,1.06773,1.57080,0.11675,-0.12761,-0.48158,0.03501,,,,,,,,,,,,,,,,,,,,,,,,,,0,0,0,0,0
3.5489,1783968210.4184,1,1,4.5000,-0.0000,1.42242,-0.00637,-2.63203,1.06773,1.57080,0.11675,-0.12761,-0.48158,0.03501,,,,,,,,,,,,,,,,,,,,,,,,,,0,0,0,0,0
3.5545,1783968210.4240,1,1,4.5000,-0.0000,1.42242,-0.00637,-2.63203,1.06773,1.57080,0.11675,-0.12761,-0.48158,0.03501,,,,,,,,,,,,,,,,,,,,,,,,,,0,0,0,0,0
3.5641,1783968210.4336,1,1,4.5000,-0.0000,1.42242,-0.00638,-2.63204,1.06774,1.57080,0.11675,-0.12761,-0.48158,0.03501,,,,,,,,,,,,,,,,,,,,,,,,,,0,0,0,0,0
3.5729,1783968210.4425,1,1,4.5000,-0.0000,1.42242,-0.00639,-2.63208,1.06776,1.57080,0.11675,-0.12762,-0.48156,0.03499,,,,,,,,,,,,,,,,,,,,,,,,,,0,0,0,0,0
3.5811,1783968210.4506,1,1,4.5000,-0.0000,1.42242,-0.00640,-2.63209,1.06777,1.57080,0.11675,-0.12762,-0.48155,0.03498,,,,,,,,,,,,,,,,,,,,,,,,,,0,0,0,0,0
3.5814,1783968210.4510,1,1,4.5000,-0.0000,1.42242,-0.00640,-2.63209,1.06777,1.57080,0.11675,-0.12762,-0.48155,0.03498,,,,,,,,,,,,,,,,,,,,,,,,,,0,0,0,0,0
3.5898,1783968210.4593,1,1,4.5000,-0.0000,1.42242,-0.00641,-2.63210,1.06778,1.57080,0.11675,-0.12762,-0.48154,0.03498,,,,,,,,,,,,,,,,,,,,,,,,,,0,0,0,0,0
3.6063,1783968210.4758,1,1,4.5000,-0.0000,1.42242,-0.00645,-2.63214,1.06783,1.57080,0.11675,-0.12762,-0.48151,0.03495,,,,,,,,,,,,,,,,,,,,,,,,,,0,0,0,0,0
3.6116,1783968210.4811,1,1,4.5000,-0.0000,1.42242,-0.00645,-2.63215,1.06783,1.57080,0.11675,-0.12762,-0.48151,0.03494,,,,,,,,,,,,,,,,,,,,,,,,,,0,0,0,0,0
3.6264,1783968210.4960,1,1,4.5000,-0.0000,1.42242,-0.00653,-2.63219,1.06792,1.57080,0.11675,-0.12763,-0.48149,0.03490,,,,,,,,,,,,,,,,,,,,,,,,,,0,0,0,0,0
3.6268,1783968210.4964,1,1,4.5000,-0.0000,1.42242,-0.00653,-2.63219,1.06792,1.57080,0.11675,-0.12763,-0.48149,0.03490,,,,,,,,,,,,,,,,,,,,,,,,,,0,0,0,0,0
3.6305,1783968210.5001,1,1,4.5000,-0.0000,1.42242,-0.00656,-2.63221,1.06796,1.57080,0.11675,-0.12763,-0.48148,0.03489,,,,,,,,,,,,,,,,,,,,,,,,,,0,0,0,0,0
3.6309,1783968210.5005,1,1,4.5000,-0.0000,1.42242,-0.00656,-2.63221,1.06796,1.57080,0.11675,-0.12763,-0.48148,0.03489,,,,,,,,,,,,,,,,,,,,,,,,,,0,0,0,0,0
3.6397,1783968210.5092,1,1,4.5000,-0.0000,1.42242,-0.00659,-2.63223,1.06800,1.57080,0.11675,-0.12763,-0.48147,0.03487,,,,,,,,,,,,,,,,,,,,,,,,,,0,0,0,0,0
3.6513,1783968210.5209,1,1,4.5000,-0.0000,1.42242,-0.00663,-2.63224,1.06805,1.57080,0.11675,-0.12763,-0.48147,0.03486,,,,,,,,,,,,,,,,,,,,,,,,,,0,0,0,0,0
3.6660,1783968210.5356,1,1,4.5000,-0.0000,1.42242,-0.00679,-2.63228,1.06823,1.57080,0.11675,-0.12763,-0.48146,0.03480,,,,,,,,,,,,,,,,,,,,,,,,,,0,0,0,0,0
3.7065,1783968210.5760,1,1,4.5000,-0.0000,1.42242,-0.00698,-2.63232,1.06846,1.57080,0.11675,-0.12763,-0.48146,0.03473,,,,,,,,,,,,,,,,,,,,,,,,,,0,0,0,0,0
3.7080,1783968210.5776,1,1,4.5000,-0.0000,1.42242,-0.00698,-2.63232,1.06846,1.57080,0.11675,-0.12763,-0.48146,0.03473,,,,,,,,,,,,,,,,,,,,,,,,,,0,0,0,0,0
3.7115,1783968210.5810,1,1,4.5000,-0.0000,1.42242,-0.00701,-2.63233,1.06849,1.57080,0.11675,-0.12763,-0.48146,0.03473,,,,,,,,,,,,,,,,,,,,,,,,,,0,0,0,0,0
3.7119,1783968210.5814,1,1,4.5000,-0.0000,1.42242,-0.00701,-2.63233,1.06849,1.57080,0.11675,-0.12763,-0.48146,0.03473,,,,,,,,,,,,,,,,,,,,,,,,,,0,0,0,0,0
3.7244,1783968210.5939,1,1,4.5000,-0.0000,1.42242,-0.00713,-2.63235,1.06864,1.57080,0.11675,-0.12763,-0.48147,0.03469,,,,,,,,,,,,,,,,,,,,,,,,,,0,0,0,0,0
3.7249,1783968210.5945,1,1,4.5000,-0.0000,1.42242,-0.00718,-2.63236,1.06870,1.57080,0.11675,-0.12763,-0.48147,0.03467,,,,,,,,,,,,,,,,,,,,,,,,,,0,0,0,0,0
3.7256,1783968210.5952,1,1,4.5000,-0.0000,1.42242,-0.00718,-2.63236,1.06870,1.57080,0.11675,-0.12763,-0.48147,0.03467,,,,,,,,,,,,,,,,,,,,,,,,,,0,0,0,0,0
3.7260,1783968210.5956,1,1,4.5000,-0.0000,1.42242,-0.00718,-2.63236,1.06870,1.57080,0.11675,-0.12763,-0.48147,0.03467,,,,,,,,,,,,,,,,,,,,,,,,,,0,0,0,0,0
3.7302,1783968210.5998,1,1,4.5000,-0.0000,1.42242,-0.00718,-2.63236,1.06870,1.57080,0.11675,-0.12763,-0.48147,0.03467,,,,,,,,,,,,,,,,,,,,,,,,,,0,0,0,0,0
3.7307,1783968210.6002,1,1,4.5000,-0.0000,1.42242,-0.00718,-2.63236,1.06870,1.57080,0.11675,-0.12763,-0.48147,0.03467,,,,,,,,,,,,,,,,,,,,,,,,,,0,0,0,0,0
3.7436,1783968210.6131,1,1,4.5000,-0.0000,1.42242,-0.00722,-2.63236,1.06875,1.57080,0.11675,-0.12763,-0.48148,0.03466,,,,,,,,,,,,,,,,,,,,,,,,,,0,0,0,0,0
3.7439,1783968210.6135,1,1,4.5000,-0.0000,1.42242,-0.00722,-2.63236,1.06875,1.57080,0.11675,-0.12763,-0.48148,0.03466,,,,,,,,,,,,,,,,,,,,,,,,,,0,0,0,0,0
3.7509,1783968210.6204,1,1,4.5000,-0.0000,1.42242,-0.00727,-2.63236,1.06882,1.57080,0.11675,-0.12763,-0.48149,0.03465,,,,,,,,,,,,,,,,,,,,,,,,,,0,0,0,0,0
3.7617,1783968210.6313,1,1,4.5000,-0.0000,1.42241,-0.00738,-2.63235,1.06896,1.57080,0.11675,-0.12762,-0.48151,0.03463,,,,,,,,,,,,,,,,,,,,,,,,,,0,0,0,0,0
3.7620,1783968210.6315,1,1,4.5000,-0.0000,1.42241,-0.00738,-2.63235,1.06896,1.57080,0.11675,-0.12762,-0.48151,0.03463,,,,,,,,,,,,,,,,,,,,,,,,,,0,0,0,0,0
3.7760,1783968210.6455,1,1,4.5000,-0.0000,1.42241,-0.00748,-2.63234,1.06909,1.57080,0.11675,-0.12762,-0.48153,0.03461,,,,,,,,,,,,,,,,,,,,,,,,,,0,0,0,0,0
3.7799,1783968210.6495,1,1,4.5000,-0.0000,1.42241,-0.00751,-2.63233,1.06912,1.57080,0.11675,-0.12762,-0.48154,0.03461,,,,,,,,,,,,,,,,,,,,,,,,,,0,0,0,0,0
3.7918,1783968210.6614,1,1,4.5000,-0.0000,1.42241,-0.00756,-2.63230,1.06918,1.57080,0.11675,-0.12761,-0.48158,0.03461,,,,,,,,,,,,,,,,,,,,,,,,,,0,0,0,0,0
3.8036,1783968210.6731,1,1,4.5000,-0.0000,1.42241,-0.00756,-2.63230,1.06918,1.57080,0.11675,-0.12761,-0.48158,0.03461,,,,,,,,,,,,,,,,,,,,,,,,,,0,0,0,0,0
3.8143,1783968210.6838,1,1,4.5000,-0.0000,1.42241,-0.00756,-2.63230,1.06918,1.57080,0.11675,-0.12761,-0.48158,0.03461,,,,,,,,,,,,,,,,,,,,,,,,,,0,0,0,0,0
3.8218,1783968210.6913,1,1,4.5000,-0.0000,1.42241,-0.00756,-2.63230,1.06918,1.57080,0.11675,-0.12761,-0.48158,0.03461,,,,,,,,,,,,,,,,,,,,,,,,,,0,0,0,0,0
3.8305,1783968210.7000,1,1,4.5000,-0.0000,1.42241,-0.00756,-2.63230,1.06918,1.57080,0.11675,-0.12761,-0.48158,0.03461,,,,,,,,,,,,,,,,,,,,,,,,,,0,0,0,0,0
3.8399,1783968210.7094,1,1,4.5000,-0.0000,1.42241,-0.00756,-2.63230,1.06918,1.57080,0.11675,-0.12761,-0.48158,0.03461,,,,,,,,,,,,,,,,,,,,,,,,,,0,0,0,0,0
3.8403,1783968210.7098,1,1,4.5000,-0.0000,1.42241,-0.00756,-2.63230,1.06918,1.57080,0.11675,-0.12761,-0.48158,0.03461,,,,,,,,,,,,,,,,,,,,,,,,,,0,0,0,0,0
3.8835,1783968210.7531,1,1,4.5000,-0.0000,1.42241,-0.00756,-2.63230,1.06918,1.57080,0.11675,-0.12761,-0.48158,0.03461,,,,,,,,,,,,,,,,,,,,,,,,,,0,0,0,0,0
3.8839,1783968210.7534,1,1,4.5000,-0.0000,1.42241,-0.00756,-2.63230,1.06918,1.57080,0.11675,-0.12761,-0.48158,0.03461,,,,,,,,,,,,,,,,,,,,,,,,,,0,0,0,0,0
3.8976,1783968210.7671,1,1,4.5000,-0.0000,1.42241,-0.00756,-2.63230,1.06918,1.57080,0.11675,-0.12761,-0.48158,0.03461,,,,,,,,,,,,,,,,,,,,,,,,,,0,0,0,0,0
3.8980,1783968210.7675,1,1,4.5000,-0.0000,1.42241,-0.00756,-2.63230,1.06918,1.57080,0.11675,-0.12761,-0.48158,0.03461,,,,,,,,,,,,,,,,,,,,,,,,,,0,0,0,0,0
3.9308,1783968210.8003,1,1,4.5000,-0.0000,1.42241,-0.00756,-2.63230,1.06918,1.57080,0.11675,-0.12761,-0.48158,0.03461,,,,,,,,,,,,,,,,,,,,,,,,,,0,0,0,0,0
3.9316,1783968210.8011,1,1,4.5000,-0.0000,1.42241,-0.00756,-2.63230,1.06918,1.57080,0.11675,-0.12761,-0.48158,0.03461,,,,,,,,,,,,,,,,,,,,,,,,,,0,0,0,0,0
3.9319,1783968210.8015,1,1,4.5000,-0.0000,1.42241,-0.00756,-2.63230,1.06918,1.57080,0.11675,-0.12761,-0.48158,0.03461,,,,,,,,,,,,,,,,,,,,,,,,,,0,0,0,0,0
3.9337,1783968210.8032,1,1,4.5000,-0.0000,1.42241,-0.00756,-2.63230,1.06918,1.57080,0.11675,-0.12761,-0.48158,0.03461,,,,,,,,,,,,,,,,,,,,,,,,,,0,0,0,0,0
3.9341,1783968210.8036,1,1,4.5000,-0.0000,1.42241,-0.00756,-2.63230,1.06918,1.57080,0.11675,-0.12761,-0.48158,0.03461,,,,,,,,,,,,,,,,,,,,,,,,,,0,0,0,0,0
3.9344,1783968210.8039,1,1,4.5000,-0.0000,1.42241,-0.00756,-2.63230,1.06918,1.57080,0.11675,-0.12761,-0.48158,0.03461,,,,,,,,,,,,,,,,,,,,,,,,,,0,0,0,0,0
3.9346,1783968210.8042,1,1,4.5000,-0.0000,1.42241,-0.00756,-2.63230,1.06918,1.57080,0.11675,-0.12761,-0.48158,0.03461,,,,,,,,,,,,,,,,,,,,,,,,,,0,0,0,0,0
3.9440,1783968210.8135,1,1,4.5000,-0.0000,1.42241,-0.00756,-2.63230,1.06918,1.57080,0.11675,-0.12761,-0.48158,0.03461,,,,,,,,,,,,,,,,,,,,,,,,,,0,0,0,0,0
3.9540,1783968210.8235,1,1,4.5000,-0.0000,1.42241,-0.00756,-2.63230,1.06918,1.57080,0.11675,-0.12761,-0.48158,0.03461,,,,,,,,,,,,,,,,,,,,,,,,,,0,0,0,0,0
3.9597,1783968210.8292,1,1,4.5000,-0.0000,1.42241,-0.00756,-2.63230,1.06918,1.57080,0.11675,-0.12761,-0.48158,0.03461,,,,,,,,,,,,,,,,,,,,,,,,,,0,0,0,0,0
3.9832,1783968210.8527,1,1,4.5000,-0.0000,1.42241,-0.00756,-2.63232,1.06919,1.57080,0.11675,-0.12761,-0.48157,0.03460,,,,,,,,,,,,,,,,,,,,,,,,,,0,0,0,0,0
3.9938,1783968210.8633,1,1,4.5000,-0.0000,1.42241,-0.00758,-2.63235,1.06921,1.57080,0.11675,-0.12762,-0.48154,0.03458,,,,,,,,,,,,,,,,,,,,,,,,,,0,0,0,0,0
3.9966,1783968210.8661,1,1,4.5000,-0.0000,1.42241,-0.00758,-2.63235,1.06921,1.57080,0.11675,-0.12762,-0.48154,0.03458,,,,,,,,,,,,,,,,,,,,,,,,,,0,0,0,0,0
4.0004,1783968210.8700,1,1,4.5000,-0.0000,1.42241,-0.00758,-2.63237,1.06922,1.57080,0.11675,-0.12762,-0.48154,0.03458,,,,,,,,,,,,,,,,,,,,,,,,,,0,0,0,0,0
4.0012,1783968210.8708,1,1,4.5000,-0.0000,1.42241,-0.00758,-2.63237,1.06922,1.57080,0.11675,-0.12762,-0.48154,0.03458,,,,,,,,,,,,,,,,,,,,,,,,,,0,0,0,0,0
4.0151,1783968210.8846,1,1,4.5000,-0.0000,1.42241,-0.00760,-2.63238,1.06924,1.57080,0.11675,-0.12762,-0.48152,0.03456,,,,,,,,,,,,,,,,,,,,,,,,,,0,0,0,0,0
4.0271,1783968210.8966,1,1,4.5000,-0.0000,1.42241,-0.00764,-2.63243,1.06929,1.57080,0.11675,-0.12762,-0.48150,0.03453,,,,,,,,,,,,,,,,,,,,,,,,,,0,0,0,0,0
4.0320,1783968210.9015,1,1,4.5000,-0.0000,1.42241,-0.00766,-2.63245,1.06931,1.57080,0.11675,-0.12762,-0.48149,0.03452,,,,,,,,,,,,,,,,,,,,,,,,,,0,0,0,0,0
4.0402,1783968210.9097,1,1,4.5000,-0.0000,1.42241,-0.00767,-2.63245,1.06932,1.57080,0.11675,-0.12762,-0.48149,0.03452,,,,,,,,,,,,,,,,,,,,,,,,,,0,0,0,0,0
4.0570,1783968210.9265,1,1,4.5000,-0.0000,1.42241,-0.00774,-2.63248,1.06940,1.57080,0.11675,-0.12763,-0.48147,0.03448,,,,,,,,,,,,,,,,,,,,,,,,,,0,0,0,0,0
4.0662,1783968210.9358,1,1,4.5000,-0.0000,1.42241,-0.00776,-2.63249,1.06943,1.57080,0.11675,-0.12763,-0.48147,0.03447,,,,,,,,,,,,,,,,,,,,,,,,,,0,0,0,0,0
4.0696,1783968210.9392,1,1,4.5000,-0.0000,1.42241,-0.00779,-2.63250,1.06946,1.57080,0.11675,-0.12763,-0.48147,0.03447,,,,,,,,,,,,,,,,,,,,,,,,,,0,0,0,0,0
4.0699,1783968210.9394,1,1,4.5000,-0.0000,1.42241,-0.00779,-2.63250,1.06946,1.57080,0.11675,-0.12763,-0.48147,0.03447,,,,,,,,,,,,,,,,,,,,,,,,,,0,0,0,0,0
4.0850,1783968210.9546,1,1,4.5000,-0.0000,1.42241,-0.00796,-2.63254,1.06966,1.57080,0.11675,-0.12763,-0.48146,0.03441,,,,,,,,,,,,,,,,,,,,,,,,,,0,0,0,0,0
4.0931,1783968210.9626,1,1,4.5000,-0.0000,1.42241,-0.00796,-2.63254,1.06967,1.57080,0.11675,-0.12763,-0.48146,0.03440,,,,,,,,,,,,,,,,,,,,,,,,,,0,0,0,0,0
4.0933,1783968210.9628,1,1,4.5000,-0.0000,1.42241,-0.00796,-2.63254,1.06967,1.57080,0.11675,-0.12763,-0.48146,0.03440,,,,,,,,,,,,,,,,,,,,,,,,,,0,0,0,0,0
4.1031,1783968210.9727,1,1,4.5000,-0.0000,1.42241,-0.00801,-2.63255,1.06972,1.57080,0.11675,-0.12763,-0.48146,0.03439,,,,,,,,,,,,,,,,,,,,,,,,,,0,0,0,0,0
4.1116,1783968210.9812,1,1,4.5000,-0.0000,1.42241,-0.00808,-2.63257,1.06981,1.57080,0.11675,-0.12763,-0.48146,0.03436,,,,,,,,,,,,,,,,,,,,,,,,,,0,0,0,0,0
4.1211,1783968210.9907,1,1,4.5000,-0.0000,1.42241,-0.00811,-2.63257,1.06984,1.57080,0.11675,-0.12763,-0.48146,0.03435,,,,,,,,,,,,,,,,,,,,,,,,,,0,0,0,0,0
4.1215,1783968210.9911,1,1,4.5000,-0.0000,1.42241,-0.00811,-2.63257,1.06984,1.57080,0.11675,-0.12763,-0.48146,0.03435,,,,,,,,,,,,,,,,,,,,,,,,,,0,0,0,0,0
4.1363,1783968211.0058,1,1,4.5000,-0.0000,1.42241,-0.00822,-2.63259,1.06997,1.57080,0.11675,-0.12763,-0.48147,0.03432,,,,,,,,,,,,,,,,,,,,,,,,,,0,0,0,0,0
4.1438,1783968211.0133,1,1,4.5000,-0.0000,1.42241,-0.00832,-2.63261,1.07009,1.57080,0.11675,-0.12763,-0.48147,0.03429,,,,,,,,,,,,,,,,,,,,,,,,,,0,0,0,0,0
4.1537,1783968211.0232,1,1,4.5000,-0.0000,1.42241,-0.00849,-2.63263,1.07029,1.57080,0.11675,-0.12762,-0.48148,0.03423,,,,,,,,,,,,,,,,,,,,,,,,,,0,0,0,0,0
4.1599,1783968211.0294,1,1,4.5000,-0.0000,1.42241,-0.00854,-2.63264,1.07035,1.57080,0.11675,-0.12762,-0.48148,0.03422,,,,,,,,,,,,,,,,,,,,,,,,,,0,0,0,0,0
4.1713,1783968211.0409,1,1,4.5000,-0.0000,1.42241,-0.00865,-2.63266,1.07050,1.57080,0.11675,-0.12762,-0.48149,0.03418,,,,,,,,,,,,,,,,,,,,,,,,,,0,0,0,0,0
4.1875,1783968211.0570,1,1,4.5000,-0.0000,1.42241,-0.00868,-2.63266,1.07053,1.57080,0.11675,-0.12762,-0.48149,0.03418,,,,,,,,,,,,,,,,,,,,,,,,,,0,0,0,0,0
4.2753,1783968211.1448,1,1,4.5000,-0.0000,1.42241,-0.00868,-2.63266,1.07053,1.57080,0.11675,-0.12762,-0.48149,0.03418,,,,,,,,,,,,,,,,,,,,,,,,,,0,0,0,0,0
4.2932,1783968211.1627,1,1,4.5000,-0.0000,1.42241,-0.00868,-2.63266,1.07053,1.57080,0.11675,-0.12762,-0.48149,0.03418,,,,,,,,,,,,,,,,,,,,,,,,,,0,0,0,0,0
4.3081,1783968211.1776,1,1,4.5000,-0.0000,1.42241,-0.00868,-2.63266,1.07053,1.57080,0.11675,-0.12762,-0.48149,0.03418,,,,,,,,,,,,,,,,,,,,,,,,,,0,0,0,0,0
4.3237,1783968211.1933,1,1,4.5000,-0.0000,1.42241,-0.00868,-2.63266,1.07053,1.57080,0.11675,-0.12762,-0.48149,0.03418,,,,,,,,,,,,,,,,,,,,,,,,,,0,0,0,0,0
4.3244,1783968211.1939,1,1,4.5000,-0.0000,1.42241,-0.00868,-2.63266,1.07053,1.57080,0.11675,-0.12762,-0.48149,0.03418,,,,,,,,,,,,,,,,,,,,,,,,,,0,0,0,0,0
4.3254,1783968211.1949,1,1,4.5000,-0.0000,1.42241,-0.00868,-2.63266,1.07053,1.57080,0.11675,-0.12762,-0.48149,0.03418,,,,,,,,,,,,,,,,,,,,,,,,,,0,0,0,0,0
4.3257,1783968211.1952,1,1,4.5000,-0.0000,1.42241,-0.00868,-2.63266,1.07053,1.57080,0.11675,-0.12762,-0.48149,0.03418,,,,,,,,,,,,,,,,,,,,,,,,,,0,0,0,0,0
4.3339,1783968211.2034,1,1,4.5000,-0.0000,1.42241,-0.00868,-2.63266,1.07053,1.57080,0.11675,-0.12762,-0.48149,0.03418,,,,,,,,,,,,,,,,,,,,,,,,,,0,0,0,0,0
4.3349,1783968211.2044,1,1,4.5000,-0.0000,1.42241,-0.00868,-2.63266,1.07053,1.57080,0.11675,-0.12762,-0.48149,0.03418,,,,,,,,,,,,,,,,,,,,,,,,,,0,0,0,0,0
4.3353,1783968211.2048,1,1,4.5000,-0.0000,1.42241,-0.00868,-2.63266,1.07053,1.57080,0.11675,-0.12762,-0.48149,0.03418,,,,,,,,,,,,,,,,,,,,,,,,,,0,0,0,0,0
4.3439,1783968211.2134,1,1,4.5000,-0.0000,1.42241,-0.00868,-2.63266,1.07053,1.57080,0.11675,-0.12762,-0.48149,0.03418,,,,,,,,,,,,,,,,,,,,,,,,,,0,0,0,0,0
4.3444,1783968211.2140,1,1,4.5000,-0.0000,1.42241,-0.00868,-2.63266,1.07053,1.57080,0.11675,-0.12762,-0.48149,0.03418,,,,,,,,,,,,,,,,,,,,,,,,,,0,0,0,0,0
4.3451,1783968211.2147,1,1,4.5000,-0.0000,1.42241,-0.00868,-2.63266,1.07053,1.57080,0.11675,-0.12762,-0.48149,0.03418,,,,,,,,,,,,,,,,,,,,,,,,,,0,0,0,0,0
4.3455,1783968211.2150,1,1,4.5000,-0.0000,1.42241,-0.00868,-2.63266,1.07053,1.57080,0.11675,-0.12762,-0.48149,0.03418,,,,,,,,,,,,,,,,,,,,,,,,,,0,0,0,0,0
4.3475,1783968211.2170,1,1,4.5000,-0.0000,1.42241,-0.00868,-2.63266,1.07053,1.57080,0.11675,-0.12762,-0.48149,0.03418,,,,,,,,,,,,,,,,,,,,,,,,,,0,0,0,0,0
4.3479,1783968211.2174,1,1,4.5000,-0.0000,1.42241,-0.00868,-2.63266,1.07053,1.57080,0.11675,-0.12762,-0.48149,0.03418,,,,,,,,,,,,,,,,,,,,,,,,,,0,0,0,0,0
4.3552,1783968211.2248,1,1,4.5000,-0.0000,1.42241,-0.00868,-2.63266,1.07053,1.57080,0.11675,-0.12762,-0.48149,0.03418,,,,,,,,,,,,,,,,,,,,,,,,,,0,0,0,0,0
4.3555,1783968211.2250,1,1,4.5000,-0.0000,1.42241,-0.00868,-2.63266,1.07053,1.57080,0.11675,-0.12762,-0.48149,0.03418,,,,,,,,,,,,,,,,,,,,,,,,,,0,0,0,0,0
4.3605,1783968211.2301,1,1,4.5000,-0.0000,1.42241,-0.00868,-2.63266,1.07053,1.57080,0.11675,-0.12762,-0.48149,0.03418,,,,,,,,,,,,,,,,,,,,,,,,,,0,0,0,0,0
4.3733,1783968211.2429,1,1,4.5000,-0.0000,1.42241,-0.00868,-2.63266,1.07053,1.57080,0.11675,-0.12762,-0.48149,0.03418,,,,,,,,,,,,,,,,,,,,,,,,,,0,0,0,0,0
4.3736,1783968211.2431,1,1,4.5000,-0.0000,1.42241,-0.00868,-2.63266,1.07053,1.57080,0.11675,-0.12762,-0.48149,0.03418,,,,,,,,,,,,,,,,,,,,,,,,,,0,0,0,0,0
4.3830,1783968211.2525,1,1,4.5000,-0.0000,1.42241,-0.00868,-2.63266,1.07053,1.57080,0.11675,-0.12762,-0.48149,0.03418,,,,,,,,,,,,,,,,,,,,,,,,,,0,0,0,0,0
4.3954,1783968211.2649,1,1,4.5000,-0.0000,1.42241,-0.00868,-2.63266,1.07054,1.57080,0.11675,-0.12762,-0.48149,0.03418,,,,,,,,,,,,,,,,,,,,,,,,,,0,0,0,0,0
4.4024,1783968211.2719,1,1,4.5000,-0.0000,1.42241,-0.00869,-2.63266,1.07055,1.57080,0.11675,-0.12762,-0.48150,0.03418,,,,,,,,,,,,,,,,,,,,,,,,,,0,0,0,0,0
4.4147,1783968211.2842,1,1,4.5000,-0.0000,1.42241,-0.00871,-2.63265,1.07059,1.57081,0.11675,-0.12762,-0.48151,0.03418,,,,,,,,,,,,,,,,,,,,,,,,,,0,0,0,0,0
4.4256,1783968211.2951,1,1,4.5000,-0.0000,1.42241,-0.00872,-2.63266,1.07060,1.57081,0.11675,-0.12762,-0.48150,0.03417,,,,,,,,,,,,,,,,,,,,,,,,,,0,0,0,0,0
4.4434,1783968211.3129,1,1,4.5000,-0.0000,1.42241,-0.00878,-2.63269,1.07067,1.57081,0.11675,-0.12762,-0.48149,0.03414,,,,,,,,,,,,,,,,,,,,,,,,,,0,0,0,0,0
4.4437,1783968211.3132,1,1,4.5000,-0.0000,1.42241,-0.00878,-2.63269,1.07067,1.57081,0.11675,-0.12762,-0.48149,0.03414,,,,,,,,,,,,,,,,,,,,,,,,,,0,0,0,0,0
4.4538,1783968211.3233,1,1,4.5000,-0.0000,1.42241,-0.00880,-2.63271,1.07070,1.57081,0.11675,-0.12762,-0.48148,0.03413,,,,,,,,,,,,,,,,,,,,,,,,,,0,0,0,0,0
4.4654,1783968211.3349,1,1,4.5000,-0.0000,1.42241,-0.00885,-2.63273,1.07075,1.57081,0.11675,-0.12763,-0.48147,0.03410,,,,,,,,,,,,,,,,,,,,,,,,,,0,0,0,0,0
4.4659,1783968211.3354,1,1,4.5000,-0.0000,1.42241,-0.00885,-2.63273,1.07075,1.57081,0.11675,-0.12763,-0.48147,0.03410,,,,,,,,,,,,,,,,,,,,,,,,,,0,0,0,0,0
4.4761,1783968211.3456,1,1,4.5000,-0.0000,1.42241,-0.00890,-2.63276,1.07081,1.57081,0.11675,-0.12763,-0.48145,0.03408,,,,,,,,,,,,,,,,,,,,,,,,,,0,0,0,0,0
4.4764,1783968211.3459,1,1,4.5000,-0.0000,1.42241,-0.00890,-2.63276,1.07081,1.57081,0.11675,-0.12763,-0.48145,0.03408,,,,,,,,,,,,,,,,,,,,,,,,,,0,0,0,0,0
4.4871,1783968211.3566,1,1,4.5000,-0.0000,1.42241,-0.00894,-2.63278,1.07086,1.57081,0.11675,-0.12763,-0.48145,0.03406,,,,,,,,,,,,,,,,,,,,,,,,,,0,0,0,0,0
4.4930,1783968211.3625,1,1,4.5000,-0.0000,1.42241,-0.00898,-2.63278,1.07090,1.57081,0.11675,-0.12763,-0.48145,0.03405,,,,,,,,,,,,,,,,,,,,,,,,,,0,0,0,0,0
4.5030,1783968211.3725,1,1,4.5000,-0.0000,1.42241,-0.00904,-2.63280,1.07098,1.57081,0.11675,-0.12763,-0.48145,0.03403,,,,,,,,,,,,,,,,,,,,,,,,,,0,0,0,0,0
4.5124,1783968211.3819,1,1,4.5000,-0.0000,1.42241,-0.00905,-2.63280,1.07098,1.57081,0.11675,-0.12763,-0.48145,0.03403,,,,,,,,,,,,,,,,,,,,,,,,,,0,0,0,0,0
4.5130,1783968211.3825,1,1,4.5000,-0.0000,1.42241,-0.00907,-2.63280,1.07101,1.57081,0.11675,-0.12763,-0.48145,0.03402,,,,,,,,,,,,,,,,,,,,,,,,,,0,0,0,0,0
4.5210,1783968211.3905,1,1,4.5000,-0.0000,1.42241,-0.00914,-2.63282,1.07110,1.57081,0.11675,-0.12763,-0.48145,0.03400,,,,,,,,,,,,,,,,,,,,,,,,,,0,0,0,0,0
4.5324,1783968211.4019,1,1,4.5000,-0.0000,1.42241,-0.00925,-2.63284,1.07122,1.57081,0.11675,-0.12763,-0.48145,0.03396,,,,,,,,,,,,,,,,,,,,,,,,,,0,0,0,0,0
4.5451,1783968211.4146,1,1,4.5000,-0.0000,1.42241,-0.00937,-2.63286,1.07137,1.57081,0.11675,-0.12763,-0.48145,0.03392,,,,,,,,,,,,,,,,,,,,,,,,,,0,0,0,0,0
4.5453,1783968211.4148,1,1,4.5000,-0.0000,1.42241,-0.00937,-2.63286,1.07137,1.57081,0.11675,-0.12763,-0.48145,0.03392,,,,,,,,,,,,,,,,,,,,,,,,,,0,0,0,0,0
4.5531,1783968211.4227,1,1,4.5000,-0.0000,1.42241,-0.00941,-2.63286,1.07141,1.57081,0.11675,-0.12763,-0.48146,0.03391,,,,,,,,,,,,,,,,,,,,,,,,,,0,0,0,0,0
4.5653,1783968211.4348,1,1,4.5000,-0.0000,1.42241,-0.00951,-2.63288,1.07154,1.57081,0.11675,-0.12762,-0.48146,0.03388,,,,,,,,,,,,,,,,,,,,,,,,,,0,0,0,0,0
4.5713,1783968211.4408,1,1,4.5000,-0.0000,1.42241,-0.00956,-2.63288,1.07159,1.57081,0.11675,-0.12762,-0.48146,0.03386,,,,,,,,,,,,,,,,,,,,,,,,,,0,0,0,0,0
4.5797,1783968211.4492,1,1,4.5000,-0.0000,1.42241,-0.00965,-2.63290,1.07170,1.57081,0.11675,-0.12762,-0.48147,0.03384,,,,,,,,,,,,,,,,,,,,,,,,,,0,0,0,0,0
4.5800,1783968211.4495,1,1,4.5000,-0.0000,1.42241,-0.00965,-2.63290,1.07170,1.57081,0.11675,-0.12762,-0.48147,0.03384,,,,,,,,,,,,,,,,,,,,,,,,,,0,0,0,0,0
4.5896,1783968211.4592,1,1,4.5000,-0.0000,1.42241,-0.00978,-2.63292,1.07187,1.57081,0.11675,-0.12762,-0.48148,0.03380,,,,,,,,,,,,,,,,,,,,,,,,,,0,0,0,0,0
4.6068,1783968211.4764,1,1,4.5000,-0.0000,1.42241,-0.00988,-2.63293,1.07199,1.57081,0.11675,-0.12762,-0.48149,0.03377,,,,,,,,,,,,,,,,,,,,,,,,,,0,0,0,0,0
4.6099,1783968211.4794,1,1,4.5000,-0.0000,1.42241,-0.00988,-2.63293,1.07199,1.57081,0.11675,-0.12762,-0.48149,0.03377,,,,,,,,,,,,,,,,,,,,,,,,,,0,0,0,0,0
4.6102,1783968211.4797,1,1,4.5000,-0.0000,1.42241,-0.00988,-2.63293,1.07199,1.57081,0.11675,-0.12762,-0.48149,0.03377,,,,,,,,,,,,,,,,,,,,,,,,,,0,0,0,0,0
4.6226,1783968211.4921,1,1,4.5000,-0.0000,1.42241,-0.00988,-2.63293,1.07199,1.57081,0.11675,-0.12762,-0.48149,0.03377,,,,,,,,,,,,,,,,,,,,,,,,,,0,0,0,0,0
4.6230,1783968211.4925,1,1,4.5000,-0.0000,1.42241,-0.00988,-2.63293,1.07199,1.57081,0.11675,-0.12762,-0.48149,0.03377,,,,,,,,,,,,,,,,,,,,,,,,,,0,0,0,0,0
4.6314,1783968211.5009,1,1,4.5000,-0.0000,1.42241,-0.00988,-2.63293,1.07199,1.57081,0.11675,-0.12762,-0.48149,0.03377,,,,,,,,,,,,,,,,,,,,,,,,,,0,0,0,0,0
4.6425,1783968211.5120,1,1,4.5000,-0.0000,1.42241,-0.00988,-2.63293,1.07199,1.57081,0.11675,-0.12762,-0.48149,0.03377,,,,,,,,,,,,,,,,,,,,,,,,,,0,0,0,0,0
4.6503,1783968211.5199,1,1,4.5000,-0.0000,1.42241,-0.00988,-2.63293,1.07199,1.57081,0.11675,-0.12762,-0.48149,0.03377,,,,,,,,,,,,,,,,,,,,,,,,,,0,0,0,0,0
4.6642,1783968211.5338,1,1,4.5000,-0.0000,1.42241,-0.00988,-2.63293,1.07199,1.57081,0.11675,-0.12762,-0.48149,0.03377,,,,,,,,,,,,,,,,,,,,,,,,,,0,0,0,0,0
4.6742,1783968211.5438,1,1,4.5000,-0.0000,1.42241,-0.00988,-2.63293,1.07199,1.57081,0.11675,-0.12762,-0.48149,0.03377,,,,,,,,,,,,,,,,,,,,,,,,,,0,0,0,0,0
4.6798,1783968211.5493,1,1,4.5000,-0.0000,1.42241,-0.00988,-2.63293,1.07199,1.57081,0.11675,-0.12762,-0.48149,0.03377,,,,,,,,,,,,,,,,,,,,,,,,,,0,0,0,0,0
4.6803,1783968211.5498,1,1,4.5000,-0.0000,1.42241,-0.00988,-2.63293,1.07199,1.57081,0.11675,-0.12762,-0.48149,0.03377,,,,,,,,,,,,,,,,,,,,,,,,,,0,0,0,0,0
4.6925,1783968211.5620,1,1,4.5000,-0.0000,1.42241,-0.00988,-2.63293,1.07199,1.57081,0.11675,-0.12762,-0.48149,0.03377,,,,,,,,,,,,,,,,,,,,,,,,,,0,0,0,0,0
4.7019,1783968211.5715,1,1,4.5000,-0.0000,1.42241,-0.00988,-2.63293,1.07199,1.57081,0.11675,-0.12762,-0.48149,0.03377,,,,,,,,,,,,,,,,,,,,,,,,,,0,0,0,0,0
4.7022,1783968211.5717,1,1,4.5000,-0.0000,1.42241,-0.00988,-2.63293,1.07199,1.57081,0.11675,-0.12762,-0.48149,0.03377,,,,,,,,,,,,,,,,,,,,,,,,,,0,0,0,0,0
4.7125,1783968211.5820,1,1,4.5000,-0.0000,1.42241,-0.00988,-2.63293,1.07199,1.57081,0.11675,-0.12762,-0.48149,0.03377,,,,,,,,,,,,,,,,,,,,,,,,,,0,0,0,0,0
4.7212,1783968211.5907,1,1,4.5000,-0.0000,1.42241,-0.00988,-2.63293,1.07199,1.57081,0.11675,-0.12762,-0.48149,0.03377,,,,,,,,,,,,,,,,,,,,,,,,,,0,0,0,0,0
4.7343,1783968211.6039,1,1,4.5000,-0.0000,1.42241,-0.00988,-2.63293,1.07199,1.57081,0.11675,-0.12762,-0.48149,0.03377,,,,,,,,,,,,,,,,,,,,,,,,,,0,0,0,0,0
4.7439,1783968211.6134,1,1,4.5000,-0.0000,1.42241,-0.00988,-2.63293,1.07199,1.57081,0.11675,-0.12762,-0.48149,0.03377,,,,,,,,,,,,,,,,,,,,,,,,,,0,0,0,0,0
4.7523,1783968211.6218,1,1,4.5000,-0.0000,1.42241,-0.00988,-2.63293,1.07199,1.57081,0.11675,-0.12762,-0.48149,0.03377,,,,,,,,,,,,,,,,,,,,,,,,,,0,0,0,0,0
4.7614,1783968211.6310,1,1,4.5000,-0.0000,1.42241,-0.00988,-2.63293,1.07199,1.57081,0.11675,-0.12762,-0.48149,0.03377,,,,,,,,,,,,,,,,,,,,,,,,,,0,0,0,0,0
4.7730,1783968211.6426,1,1,4.5000,-0.0000,1.42241,-0.00988,-2.63293,1.07199,1.57081,0.11675,-0.12762,-0.48149,0.03377,,,,,,,,,,,,,,,,,,,,,,,,,,0,0,0,0,0
4.7821,1783968211.6516,1,1,4.5000,-0.0000,1.42241,-0.00988,-2.63293,1.07199,1.57081,0.11675,-0.12762,-0.48149,0.03377,,,,,,,,,,,,,,,,,,,,,,,,,,0,0,0,0,0
4.7825,1783968211.6520,1,1,4.5000,-0.0000,1.42241,-0.00988,-2.63293,1.07199,1.57081,0.11675,-0.12762,-0.48149,0.03377,,,,,,,,,,,,,,,,,,,,,,,,,,0,0,0,0,0
4.7931,1783968211.6626,1,1,4.5000,-0.0000,1.42241,-0.00988,-2.63293,1.07199,1.57081,0.11675,-0.12762,-0.48149,0.03377,,,,,,,,,,,,,,,,,,,,,,,,,,0,0,0,0,0
4.8023,1783968211.6719,1,1,4.5000,-0.0000,1.42241,-0.00988,-2.63293,1.07199,1.57081,0.11675,-0.12762,-0.48149,0.03377,,,,,,,,,,,,,,,,,,,,,,,,,,0,0,0,0,0
4.8120,1783968211.6816,1,1,4.5000,-0.0000,1.42241,-0.00988,-2.63293,1.07199,1.57081,0.11675,-0.12762,-0.48149,0.03377,,,,,,,,,,,,,,,,,,,,,,,,,,0,0,0,0,0
4.8225,1783968211.6920,1,1,4.5000,-0.0000,1.42241,-0.00989,-2.63293,1.07201,1.57081,0.11675,-0.12762,-0.48149,0.03377,,,,,,,,,,,,,,,,,,,,,,,,,,0,0,0,0,0
4.8229,1783968211.6924,1,1,4.5000,-0.0000,1.42241,-0.00989,-2.63293,1.07201,1.57081,0.11675,-0.12762,-0.48149,0.03377,,,,,,,,,,,,,,,,,,,,,,,,,,0,0,0,0,0
4.8349,1783968211.7044,1,1,4.5000,-0.0000,1.42241,-0.00990,-2.63293,1.07203,1.57081,0.11675,-0.12762,-0.48149,0.03377,,,,,,,,,,,,,,,,,,,,,,,,,,0,0,0,0,0
4.8681,1783968211.7376,1,1,4.5000,-0.0000,1.42241,-0.01001,-2.63301,1.07216,1.57081,0.11675,-0.12763,-0.48145,0.03370,,,,,,,,,,,,,,,,,,,,,,,,,,0,0,0,0,0
4.8775,1783968211.7471,1,1,4.5000,-0.0000,1.42241,-0.01002,-2.63301,1.07217,1.57081,0.11675,-0.12763,-0.48145,0.03370,,,,,,,,,,,,,,,,,,,,,,,,,,0,0,0,0,0
4.8854,1783968211.7549,1,1,4.5000,-0.0000,1.42241,-0.01005,-2.63303,1.07220,1.57081,0.11675,-0.12763,-0.48144,0.03369,,,,,,,,,,,,,,,,,,,,,,,,,,0,0,0,0,0
4.8862,1783968211.7558,1,1,4.5000,-0.0000,1.42241,-0.01005,-2.63303,1.07220,1.57081,0.11675,-0.12763,-0.48144,0.03369,,,,,,,,,,,,,,,,,,,,,,,,,,0,0,0,0,0
4.8876,1783968211.7571,1,1,4.5000,-0.0000,1.42241,-0.01005,-2.63303,1.07220,1.57081,0.11675,-0.12763,-0.48144,0.03369,,,,,,,,,,,,,,,,,,,,,,,,,,0,0,0,0,0
4.9051,1783968211.7747,1,1,4.5000,-0.0000,1.42240,-0.01012,-2.63306,1.07228,1.57081,0.11675,-0.12763,-0.48143,0.03366,,,,,,,,,,,,,,,,,,,,,,,,,,0,0,0,0,0
4.9062,1783968211.7757,1,1,4.5000,-0.0000,1.42240,-0.01012,-2.63306,1.07228,1.57081,0.11675,-0.12763,-0.48143,0.03366,,,,,,,,,,,,,,,,,,,,,,,,,,0,0,0,0,0
4.9064,1783968211.7760,1,1,4.5000,-0.0000,1.42240,-0.01012,-2.63306,1.07228,1.57081,0.11675,-0.12763,-0.48143,0.03366,,,,,,,,,,,,,,,,,,,,,,,,,,0,0,0,0,0
4.9122,1783968211.7817,1,1,4.5000,-0.0000,1.42240,-0.01013,-2.63306,1.07230,1.57081,0.11675,-0.12763,-0.48143,0.03365,,,,,,,,,,,,,,,,,,,,,,,,,,0,0,0,0,0
4.9125,1783968211.7820,1,1,4.5000,-0.0000,1.42240,-0.01013,-2.63306,1.07230,1.57081,0.11675,-0.12763,-0.48143,0.03365,,,,,,,,,,,,,,,,,,,,,,,,,,0,0,0,0,0
4.9201,1783968211.7896,1,1,4.5000,-0.0000,1.42240,-0.01017,-2.63307,1.07235,1.57081,0.11675,-0.12763,-0.48143,0.03364,,,,,,,,,,,,,,,,,,,,,,,,,,0,0,0,0,0
4.9358,1783968211.8054,1,1,4.5000,-0.0000,1.42240,-0.01023,-2.63307,1.07241,1.57081,0.11675,-0.12763,-0.48143,0.03362,,,,,,,,,,,,,,,,,,,,,,,,,,0,0,0,0,0
4.9546,1783968211.8241,1,1,4.5000,-0.0000,1.42240,-0.01045,-2.63311,1.07268,1.57081,0.11675,-0.12763,-0.48144,0.03355,,,,,,,,,,,,,,,,,,,,,,,,,,0,0,0,0,0
4.9554,1783968211.8249,1,1,4.5000,-0.0000,1.42240,-0.01045,-2.63311,1.07268,1.57081,0.11675,-0.12763,-0.48144,0.03355,,,,,,,,,,,,,,,,,,,,,,,,,,0,0,0,0,0
4.9558,1783968211.8254,1,1,4.5000,-0.0000,1.42240,-0.01045,-2.63311,1.07268,1.57081,0.11675,-0.12763,-0.48144,0.03355,,,,,,,,,,,,,,,,,,,,,,,,,,0,0,0,0,0
4.9612,1783968211.8307,1,1,4.5000,-0.0000,1.42240,-0.01046,-2.63311,1.07269,1.57081,0.11675,-0.12763,-0.48144,0.03355,,,,,,,,,,,,,,,,,,,,,,,,,,0,0,0,0,0
4.9615,1783968211.8310,1,1,4.5000,-0.0000,1.42240,-0.01046,-2.63311,1.07269,1.57081,0.11675,-0.12763,-0.48144,0.03355,,,,,,,,,,,,,,,,,,,,,,,,,,0,0,0,0,0
4.9723,1783968211.8418,1,1,4.5000,-0.0000,1.42240,-0.01050,-2.63312,1.07274,1.57081,0.11675,-0.12763,-0.48144,0.03353,,,,,,,,,,,,,,,,,,,,,,,,,,0,0,0,0,0
5.0066,1783968211.8761,1,1,4.5000,-0.0000,1.42240,-0.01074,-2.63314,1.07303,1.57081,0.11675,-0.12762,-0.48146,0.03346,,,,,,,,,,,,,,,,,,,,,,,,,,0,0,0,0,0
5.0149,1783968211.8845,1,1,4.5000,-0.0000,1.42240,-0.01081,-2.63315,1.07312,1.57081,0.11675,-0.12762,-0.48147,0.03345,,,,,,,,,,,,,,,,,,,,,,,,,,0,0,0,0,0
5.0170,1783968211.8865,1,1,4.5000,-0.0000,1.42240,-0.01085,-2.63315,1.07317,1.57081,0.11675,-0.12762,-0.48148,0.03344,,,,,,,,,,,,,,,,,,,,,,,,,,0,0,0,0,0
5.0179,1783968211.8875,1,1,4.5000,-0.0000,1.42240,-0.01085,-2.63315,1.07317,1.57081,0.11675,-0.12762,-0.48148,0.03344,,,,,,,,,,,,,,,,,,,,,,,,,,0,0,0,0,0
5.0182,1783968211.8877,1,1,4.5000,-0.0000,1.42240,-0.01085,-2.63315,1.07317,1.57081,0.11675,-0.12762,-0.48148,0.03344,,,,,,,,,,,,,,,,,,,,,,,,,,0,0,0,0,0
