Martins-Lucaas/twinforge/sensors/Data/celula de carga/20260713_153055__samples.csv
t_rel_s,t_unix,cycle,phase,setpoint_n,force_net_n,q1,q2,q3,q4,q5,q6,tcp_x,tcp_y,tcp_z,taxel_0,taxel_1,taxel_2,taxel_3,taxel_4,taxel_5,taxel_6,taxel_7,taxel_8,taxel_9,taxel_10,taxel_11,taxel_12,taxel_13,taxel_14,taxel_15,taxel_16,taxel_17,taxel_18,taxel_19,taxel_20,taxel_21,taxel_22,taxel_23,taxel_24,n_RA,n_SA,cn_mm,cn_ra,cn_sa
0.0082,1783967455.5444,1,0,1.5000,-0.0000,1.42244,0.00071,-2.63046,1.05905,1.57084,0.11671,-0.12761,-0.48157,0.03741,,,,,,,,,,,,,,,,,,,,,,,,,,0,0,0,0,0
0.0102,1783967455.5465,1,0,1.5000,-0.0000,1.42244,0.00071,-2.63046,1.05905,1.57084,0.11671,-0.12761,-0.48157,0.03741,,,,,,,,,,,,,,,,,,,,,,,,,,0,0,0,0,0
0.0106,1783967455.5469,1,0,1.5000,-0.0000,1.42244,0.00071,-2.63046,1.05905,1.57084,0.11671,-0.12761,-0.48157,0.03741,,,,,,,,,,,,,,,,,,,,,,,,,,0,0,0,0,0
0.0189,1783967455.5552,1,0,1.5000,-0.0000,1.42244,0.00071,-2.63046,1.05905,1.57084,0.11671,-0.12761,-0.48157,0.03741,,,,,,,,,,,,,,,,,,,,,,,,,,0,0,0,0,0
0.0342,1783967455.5704,1,0,1.5000,-0.0000,1.42244,0.00071,-2.63047,1.05905,1.57084,0.11672,-0.12762,-0.48156,0.03741,,,,,,,,,,,,,,,,,,,,,,,,,,0,0,0,0,0
0.0377,1783967455.5739,1,0,1.5000,-0.0000,1.42244,0.00071,-2.63047,1.05905,1.57083,0.11672,-0.12762,-0.48156,0.03740,,,,,,,,,,,,,,,,,,,,,,,,,,0,0,0,0,0
0.0531,1783967455.5893,1,0,1.5000,-0.0000,1.42244,0.00071,-2.63050,1.05906,1.57082,0.11674,-0.12763,-0.48154,0.03739,,,,,,,,,,,,,,,,,,,,,,,,,,0,0,0,0,0
0.0606,1783967455.5968,1,0,1.5000,-0.0000,1.42244,0.00071,-2.63051,1.05906,1.57081,0.11674,-0.12763,-0.48153,0.03739,,,,,,,,,,,,,,,,,,,,,,,,,,0,0,0,0,0
0.0732,1783967455.6095,1,0,1.5000,-0.0000,1.42244,0.00071,-2.63053,1.05906,1.57080,0.11675,-0.12763,-0.48152,0.03738,,,,,,,,,,,,,,,,,,,,,,,,,,0,0,0,0,0
0.0807,1783967455.6170,1,0,1.5000,-0.0000,1.42244,0.00071,-2.63053,1.05907,1.57080,0.11675,-0.12764,-0.48152,0.03738,,,,,,,,,,,,,,,,,,,,,,,,,,0,0,0,0,0
0.0809,1783967455.6172,1,0,1.5000,-0.0000,1.42244,0.00071,-2.63053,1.05907,1.57080,0.11675,-0.12764,-0.48152,0.03738,,,,,,,,,,,,,,,,,,,,,,,,,,0,0,0,0,0
0.0935,1783967455.6298,1,0,1.5000,-0.0000,1.42244,0.00071,-2.63053,1.05907,1.57080,0.11675,-0.12764,-0.48152,0.03738,,,,,,,,,,,,,,,,,,,,,,,,,,0,0,0,0,0
0.0970,1783967455.6333,1,0,1.5000,-0.0000,1.42244,0.00071,-2.63053,1.05907,1.57080,0.11675,-0.12764,-0.48152,0.03738,,,,,,,,,,,,,,,,,,,,,,,,,,0,0,0,0,0
0.0974,1783967455.6337,1,0,1.5000,-0.0000,1.42244,0.00071,-2.63053,1.05907,1.57080,0.11675,-0.12764,-0.48152,0.03738,,,,,,,,,,,,,,,,,,,,,,,,,,0,0,0,0,0
0.1078,1783967455.6441,1,0,1.5000,-0.0000,1.42244,0.00071,-2.63053,1.05907,1.57080,0.11675,-0.12764,-0.48152,0.03738,,,,,,,,,,,,,,,,,,,,,,,,,,0,0,0,0,0
0.1209,1783967455.6572,1,0,1.5000,-0.0000,1.42244,0.00071,-2.63053,1.05907,1.57080,0.11675,-0.12764,-0.48152,0.03738,,,,,,,,,,,,,,,,,,,,,,,,,,0,0,0,0,0
0.1214,1783967455.6577,1,0,1.5000,-0.0000,1.42244,0.00071,-2.63053,1.05907,1.57080,0.11675,-0.12764,-0.48152,0.03738,,,,,,,,,,,,,,,,,,,,,,,,,,0,0,0,0,0
0.1396,1783967455.6758,1,0,1.5000,-0.0000,1.42244,0.00071,-2.63053,1.05907,1.57080,0.11675,-0.12764,-0.48152,0.03738,,,,,,,,,,,,,,,,,,,,,,,,,,0,0,0,0,0
0.1597,1783967455.6959,1,0,1.5000,-0.0000,1.42244,0.00071,-2.63053,1.05907,1.57080,0.11675,-0.12764,-0.48152,0.03738,,,,,,,,,,,,,,,,,,,,,,,,,,0,0,0,0,0
0.1619,1783967455.6982,1,0,1.5000,-0.0000,1.42244,0.00071,-2.63053,1.05907,1.57080,0.11675,-0.12764,-0.48152,0.03738,,,,,,,,,,,,,,,,,,,,,,,,,,0,0,0,0,0
0.1623,1783967455.6986,1,0,1.5000,-0.0000,1.42244,0.00071,-2.63053,1.05907,1.57080,0.11675,-0.12764,-0.48152,0.03738,,,,,,,,,,,,,,,,,,,,,,,,,,0,0,0,0,0
0.1653,1783967455.7016,1,0,1.5000,-0.0000,1.42244,0.00071,-2.63053,1.05907,1.57080,0.11675,-0.12764,-0.48152,0.03738,,,,,,,,,,,,,,,,,,,,,,,,,,0,0,0,0,0
0.1658,1783967455.7020,1,0,1.5000,-0.0000,1.42244,0.00071,-2.63053,1.05907,1.57080,0.11675,-0.12764,-0.48152,0.03738,,,,,,,,,,,,,,,,,,,,,,,,,,0,0,0,0,0
0.1814,1783967455.7177,1,0,1.5000,-0.0000,1.42244,0.00071,-2.63053,1.05907,1.57080,0.11675,-0.12764,-0.48152,0.03738,,,,,,,,,,,,,,,,,,,,,,,,,,0,0,0,0,0
0.1881,1783967455.7244,1,0,1.5000,-0.0000,1.42244,0.00071,-2.63053,1.05907,1.57080,0.11675,-0.12764,-0.48152,0.03738,,,,,,,,,,,,,,,,,,,,,,,,,,0,0,0,0,0
0.1956,1783967455.7319,1,0,1.5000,-0.0000,1.42244,0.00071,-2.63053,1.05907,1.57080,0.11675,-0.12764,-0.48152,0.03738,,,,,,,,,,,,,,,,,,,,,,,,,,0,0,0,0,0
0.2105,1783967455.7468,1,0,1.5000,-0.0000,1.42244,0.00071,-2.63053,1.05907,1.57080,0.11675,-0.12764,-0.48152,0.03738,,,,,,,,,,,,,,,,,,,,,,,,,,0,0,0,0,0
0.2108,1783967455.7470,1,0,1.5000,-0.0000,1.42244,0.00071,-2.63053,1.05907,1.57080,0.11675,-0.12764,-0.48152,0.03738,,,,,,,,,,,,,,,,,,,,,,,,,,0,0,0,0,0
0.2239,1783967455.7602,1,0,1.5000,-0.0000,1.42244,0.00071,-2.63053,1.05907,1.57080,0.11675,-0.12764,-0.48152,0.03738,,,,,,,,,,,,,,,,,,,,,,,,,,0,0,0,0,0
0.2292,1783967455.7654,1,0,1.5000,-0.0000,1.42244,0.00071,-2.63053,1.05907,1.57080,0.11675,-0.12764,-0.48152,0.03738,,,,,,,,,,,,,,,,,,,,,,,,,,0,0,0,0,0
0.2359,1783967455.7721,1,0,1.5000,-0.0000,1.42244,0.00071,-2.63053,1.05907,1.57080,0.11675,-0.12764,-0.48152,0.03738,,,,,,,,,,,,,,,,,,,,,,,,,,0,0,0,0,0
0.2578,1783967455.7940,1,0,1.5000,-0.0000,1.42244,0.00071,-2.63053,1.05907,1.57080,0.11675,-0.12764,-0.48152,0.03738,,,,,,,,,,,,,,,,,,,,,,,,,,0,0,0,0,0
0.2580,1783967455.7943,1,0,1.5000,-0.0000,1.42244,0.00071,-2.63053,1.05907,1.57080,0.11675,-0.12764,-0.48152,0.03738,,,,,,,,,,,,,,,,,,,,,,,,,,0,0,0,0,0
0.2609,1783967455.7971,1,0,1.5000,-0.0000,1.42244,0.00071,-2.63053,1.05907,1.57080,0.11675,-0.12764,-0.48152,0.03738,,,,,,,,,,,,,,,,,,,,,,,,,,0,0,0,0,0
0.2613,1783967455.7976,1,0,1.5000,-0.0000,1.42244,0.00071,-2.63053,1.05907,1.57080,0.11675,-0.12764,-0.48152,0.03738,,,,,,,,,,,,,,,,,,,,,,,,,,0,0,0,0,0
0.2708,1783967455.8071,1,0,1.5000,-0.0000,1.42244,0.00071,-2.63053,1.05907,1.57080,0.11675,-0.12764,-0.48152,0.03738,,,,,,,,,,,,,,,,,,,,,,,,,,0,0,0,0,0
0.3135,1783967455.8498,1,0,1.5000,-0.0000,1.42244,0.00071,-2.63053,1.05907,1.57080,0.11675,-0.12764,-0.48152,0.03738,,,,,,,,,,,,,,,,,,,,,,,,,,0,0,0,0,0
0.3309,1783967455.8671,1,0,1.5000,-0.0000,1.42244,0.00071,-2.63053,1.05907,1.57080,0.11675,-0.12764,-0.48152,0.03738,,,,,,,,,,,,,,,,,,,,,,,,,,0,0,0,0,0
0.3312,1783967455.8675,1,0,1.5000,-0.0000,1.42244,0.00071,-2.63053,1.05907,1.57080,0.11675,-0.12764,-0.48152,0.03738,,,,,,,,,,,,,,,,,,,,,,,,,,0,0,0,0,0
0.3340,1783967455.8703,1,0,1.5000,-0.0000,1.42244,0.00071,-2.63053,1.05907,1.57080,0.11675,-0.12764,-0.48152,0.03738,,,,,,,,,,,,,,,,,,,,,,,,,,0,0,0,0,0
0.3410,1783967455.8772,1,0,1.5000,-0.0000,1.42244,0.00071,-2.63053,1.05907,1.57080,0.11675,-0.12764,-0.48152,0.03738,,,,,,,,,,,,,,,,,,,,,,,,,,0,0,0,0,0
0.3464,1783967455.8827,1,0,1.5000,-0.0000,1.42244,0.00071,-2.63053,1.05907,1.57080,0.11675,-0.12764,-0.48152,0.03738,,,,,,,,,,,,,,,,,,,,,,,,,,0,0,0,0,0
0.3511,1783967455.8873,1,0,1.5000,-0.0000,1.42244,0.00071,-2.63053,1.05907,1.57080,0.11675,-0.12764,-0.48152,0.03738,,,,,,,,,,,,,,,,,,,,,,,,,,0,0,0,0,0
0.3513,1783967455.8876,1,0,1.5000,-0.0000,1.42244,0.00071,-2.63053,1.05907,1.57080,0.11675,-0.12764,-0.48152,0.03738,,,,,,,,,,,,,,,,,,,,,,,,,,0,0,0,0,0
0.3523,1783967455.8886,1,0,1.5000,-0.0000,1.42244,0.00071,-2.63053,1.05907,1.57080,0.11675,-0.12764,-0.48152,0.03738,,,,,,,,,,,,,,,,,,,,,,,,,,0,0,0,0,0
0.3609,1783967455.8972,1,0,1.5000,-0.0000,1.42244,0.00071,-2.63053,1.05907,1.57080,0.11675,-0.12764,-0.48152,0.03738,,,,,,,,,,,,,,,,,,,,,,,,,,0,0,0,0,0
0.3612,1783967455.8975,1,0,1.5000,-0.0000,1.42244,0.00071,-2.63053,1.05907,1.57080,0.11675,-0.12764,-0.48152,0.03738,,,,,,,,,,,,,,,,,,,,,,,,,,0,0,0,0,0
0.3683,1783967455.9046,1,0,1.5000,-0.0000,1.42244,0.00071,-2.63053,1.05907,1.57080,0.11675,-0.12764,-0.48152,0.03738,,,,,,,,,,,,,,,,,,,,,,,,,,0,0,0,0,0
0.3689,1783967455.9052,1,0,1.5000,-0.0000,1.42244,0.00071,-2.63053,1.05907,1.57080,0.11675,-0.12764,-0.48152,0.03738,,,,,,,,,,,,,,,,,,,,,,,,,,0,0,0,0,0
0.3777,1783967455.9140,1,0,1.5000,-0.0000,1.42244,0.00071,-2.63053,1.05907,1.57080,0.11675,-0.12764,-0.48152,0.03738,,,,,,,,,,,,,,,,,,,,,,,,,,0,0,0,0,0
0.3869,1783967455.9232,1,0,1.5000,-0.0000,1.42244,0.00071,-2.63053,1.05907,1.57080,0.11675,-0.12764,-0.48152,0.03738,,,,,,,,,,,,,,,,,,,,,,,,,,0,0,0,0,0
0.3977,1783967455.9340,1,0,1.5000,-0.0000,1.42244,0.00071,-2.63053,1.05907,1.57080,0.11675,-0.12764,-0.48152,0.03738,,,,,,,,,,,,,,,,,,,,,,,,,,0,0,0,0,0
0.3982,1783967455.9344,1,0,1.5000,-0.0000,1.42244,0.00071,-2.63053,1.05907,1.57080,0.11675,-0.12764,-0.48152,0.03738,,,,,,,,,,,,,,,,,,,,,,,,,,0,0,0,0,0
0.4062,1783967455.9425,1,0,1.5000,-0.0000,1.42244,0.00071,-2.63053,1.05907,1.57080,0.11675,-0.12764,-0.48152,0.03738,,,,,,,,,,,,,,,,,,,,,,,,,,0,0,0,0,0
0.4066,1783967455.9429,1,0,1.5000,-0.0000,1.42244,0.00071,-2.63053,1.05907,1.57080,0.11675,-0.12764,-0.48152,0.03738,,,,,,,,,,,,,,,,,,,,,,,,,,0,0,0,0,0
0.4188,1783967455.9551,1,0,1.5000,-0.0000,1.42244,0.00071,-2.63053,1.05907,1.57080,0.11675,-0.12764,-0.48152,0.03738,,,,,,,,,,,,,,,,,,,,,,,,,,0,0,0,0,0
0.4762,1783967456.0125,1,0,1.5000,-0.0000,1.42244,0.00071,-2.63053,1.05907,1.57080,0.11675,-0.12764,-0.48152,0.03738,,,,,,,,,,,,,,,,,,,,,,,,,,0,0,0,0,0
0.5373,1783967456.0736,1,0,1.5000,-0.0000,1.42244,0.00071,-2.63053,1.05907,1.57080,0.11675,-0.12764,-0.48152,0.03738,,,,,,,,,,,,,,,,,,,,,,,,,,0,0,0,0,0
0.5386,1783967456.0748,1,0,1.5000,-0.0000,1.42244,0.00071,-2.63053,1.05907,1.57080,0.11675,-0.12764,-0.48152,0.03738,,,,,,,,,,,,,,,,,,,,,,,,,,0,0,0,0,0
0.5390,1783967456.0752,1,0,1.5000,-0.0000,1.42244,0.00071,-2.63053,1.05907,1.57080,0.11675,-0.12764,-0.48152,0.03738,,,,,,,,,,,,,,,,,,,,,,,,,,0,0,0,0,0
0.5410,1783967456.0773,1,0,1.5000,-0.0000,1.42244,0.00071,-2.63053,1.05907,1.57080,0.11675,-0.12764,-0.48152,0.03738,,,,,,,,,,,,,,,,,,,,,,,,,,0,0,0,0,0
0.5414,1783967456.0776,1,0,1.5000,-0.0000,1.42244,0.00071,-2.63053,1.05907,1.57080,0.11675,-0.12764,-0.48152,0.03738,,,,,,,,,,,,,,,,,,,,,,,,,,0,0,0,0,0
0.5416,1783967456.0779,1,0,1.5000,-0.0000,1.42244,0.00071,-2.63053,1.05907,1.57080,0.11675,-0.12764,-0.48152,0.03738,,,,,,,,,,,,,,,,,,,,,,,,,,0,0,0,0,0
0.5420,1783967456.0782,1,0,1.5000,-0.0000,1.42244,0.00071,-2.63053,1.05907,1.57080,0.11675,-0.12764,-0.48152,0.03738,,,,,,,,,,,,,,,,,,,,,,,,,,0,0,0,0,0
0.5517,1783967456.0880,1,0,1.5000,-0.0000,1.42244,0.00071,-2.63053,1.05907,1.57080,0.11675,-0.12764,-0.48152,0.03738,,,,,,,,,,,,,,,,,,,,,,,,,,0,0,0,0,0
0.5521,1783967456.0884,1,0,1.5000,-0.0000,1.42244,0.00071,-2.63053,1.05907,1.57080,0.11675,-0.12764,-0.48152,0.03738,,,,,,,,,,,,,,,,,,,,,,,,,,0,0,0,0,0
0.5584,1783967456.0947,1,0,1.5000,-0.0000,1.42244,0.00071,-2.63053,1.05907,1.57080,0.11675,-0.12764,-0.48152,0.03738,,,,,,,,,,,,,,,,,,,,,,,,,,0,0,0,0,0
0.5588,1783967456.0951,1,0,1.5000,-0.0000,1.42244,0.00071,-2.63053,1.05907,1.57080,0.11675,-0.12764,-0.48152,0.03738,,,,,,,,,,,,,,,,,,,,,,,,,,0,0,0,0,0
0.6767,1783967456.2130,1,0,1.5000,-0.0000,1.42244,0.00071,-2.63053,1.05907,1.57080,0.11675,-0.12764,-0.48152,0.03738,,,,,,,,,,,,,,,,,,,,,,,,,,0,0,0,0,0
0.6771,1783967456.2134,1,0,1.5000,-0.0000,1.42244,0.00071,-2.63053,1.05907,1.57080,0.11675,-0.12764,-0.48152,0.03738,,,,,,,,,,,,,,,,,,,,,,,,,,0,0,0,0,0
0.6782,1783967456.2145,1,0,1.5000,-0.0000,1.42244,0.00071,-2.63053,1.05907,1.57080,0.11675,-0.12764,-0.48152,0.03738,,,,,,,,,,,,,,,,,,,,,,,,,,0,0,0,0,0
0.6785,1783967456.2148,1,0,1.5000,-0.0000,1.42244,0.00071,-2.63053,1.05907,1.57080,0.11675,-0.12764,-0.48152,0.03738,,,,,,,,,,,,,,,,,,,,,,,,,,0,0,0,0,0
0.6802,1783967456.2164,1,0,1.5000,-0.0000,1.42244,0.00071,-2.63053,1.05907,1.57080,0.11675,-0.12764,-0.48152,0.03738,,,,,,,,,,,,,,,,,,,,,,,,,,0,0,0,0,0
0.6805,1783967456.2167,1,0,1.5000,-0.0000,1.42244,0.00071,-2.63053,1.05907,1.57080,0.11675,-0.12764,-0.48152,0.03738,,,,,,,,,,,,,,,,,,,,,,,,,,0,0,0,0,0
0.6822,1783967456.2184,1,0,1.5000,-0.0000,1.42244,0.00071,-2.63053,1.05907,1.57080,0.11675,-0.12764,-0.48152,0.03738,,,,,,,,,,,,,,,,,,,,,,,,,,0,0,0,0,0
0.6825,1783967456.2188,1,0,1.5000,-0.0000,1.42244,0.00071,-2.63053,1.05907,1.57080,0.11675,-0.12764,-0.48152,0.03738,,,,,,,,,,,,,,,,,,,,,,,,,,0,0,0,0,0
0.6856,1783967456.2218,1,0,1.5000,-0.0000,1.42244,0.00071,-2.63053,1.05907,1.57080,0.11675,-0.12764,-0.48152,0.03738,,,,,,,,,,,,,,,,,,,,,,,,,,0,0,0,0,0
0.6921,1783967456.2283,1,0,1.5000,-0.0000,1.42244,0.00071,-2.63053,1.05907,1.57080,0.11675,-0.12764,-0.48152,0.03738,,,,,,,,,,,,,,,,,,,,,,,,,,0,0,0,0,0
0.6924,1783967456.2287,1,0,1.5000,-0.0000,1.42244,0.00071,-2.63053,1.05907,1.57080,0.11675,-0.12764,-0.48152,0.03738,,,,,,,,,,,,,,,,,,,,,,,,,,0,0,0,0,0
0.6937,1783967456.2300,1,0,1.5000,-0.0000,1.42244,0.00071,-2.63053,1.05907,1.57080,0.11675,-0.12764,-0.48152,0.03738,,,,,,,,,,,,,,,,,,,,,,,,,,0,0,0,0,0
0.6940,1783967456.2303,1,0,1.5000,-0.0000,1.42244,0.00071,-2.63053,1.05907,1.57080,0.11675,-0.12764,-0.48152,0.03738,,,,,,,,,,,,,,,,,,,,,,,,,,0,0,0,0,0
0.7070,1783967456.2433,1,0,1.5000,-0.0000,1.42244,0.00071,-2.63053,1.05907,1.57080,0.11675,-0.12764,-0.48152,0.03738,,,,,,,,,,,,,,,,,,,,,,,,,,0,0,0,0,0
0.7133,1783967456.2495,1,0,1.5000,-0.0000,1.42244,0.00071,-2.63053,1.05907,1.57080,0.11675,-0.12764,-0.48152,0.03738,,,,,,,,,,,,,,,,,,,,,,,,,,0,0,0,0,0
0.7200,1783967456.2563,1,0,1.5000,-0.0000,1.42244,0.00071,-2.63053,1.05907,1.57080,0.11675,-0.12764,-0.48152,0.03738,,,,,,,,,,,,,,,,,,,,,,,,,,0,0,0,0,0
0.7204,1783967456.2566,1,0,1.5000,-0.0000,1.42244,0.00071,-2.63053,1.05907,1.57080,0.11675,-0.12764,-0.48152,0.03738,,,,,,,,,,,,,,,,,,,,,,,,,,0,0,0,0,0
0.7459,1783967456.2822,1,1,1.5000,-0.0000,1.42244,0.00071,-2.63053,1.05907,1.57080,0.11675,-0.12764,-0.48152,0.03738,,,,,,,,,,,,,,,,,,,,,,,,,,0,0,0,0,0
0.7476,1783967456.2839,1,1,1.5000,-0.0000,1.42244,0.00071,-2.63053,1.05907,1.57080,0.11675,-0.12764,-0.48152,0.03738,,,,,,,,,,,,,,,,,,,,,,,,,,0,0,0,0,0
0.7479,1783967456.2842,1,1,1.5000,-0.0000,1.42244,0.00071,-2.63053,1.05907,1.57080,0.11675,-0.12764,-0.48152,0.03738,,,,,,,,,,,,,,,,,,,,,,,,,,0,0,0,0,0
0.7482,1783967456.2845,1,1,1.5000,-0.0000,1.42244,0.00071,-2.63053,1.05907,1.57080,0.11675,-0.12764,-0.48152,0.03738,,,,,,,,,,,,,,,,,,,,,,,,,,0,0,0,0,0
0.7615,1783967456.2978,1,1,1.5000,-0.0000,1.42244,0.00071,-2.63053,1.05907,1.57080,0.11675,-0.12764,-0.48152,0.03738,,,,,,,,,,,,,,,,,,,,,,,,,,0,0,0,0,0
0.7690,1783967456.3053,1,1,1.5000,-0.0000,1.42244,0.00071,-2.63053,1.05907,1.57080,0.11675,-0.12764,-0.48152,0.03738,,,,,,,,,,,,,,,,,,,,,,,,,,0,0,0,0,0
0.7774,1783967456.3136,1,1,1.5000,-0.0000,1.42244,0.00071,-2.63053,1.05907,1.57080,0.11675,-0.12764,-0.48152,0.03738,,,,,,,,,,,,,,,,,,,,,,,,,,0,0,0,0,0
0.7776,1783967456.3139,1,1,1.5000,-0.0000,1.42244,0.00071,-2.63053,1.05907,1.57080,0.11675,-0.12764,-0.48152,0.03738,,,,,,,,,,,,,,,,,,,,,,,,,,0,0,0,0,0
0.7788,1783967456.3151,1,1,1.5000,-0.0000,1.42244,0.00071,-2.63053,1.05907,1.57080,0.11675,-0.12764,-0.48152,0.03738,,,,,,,,,,,,,,,,,,,,,,,,,,0,0,0,0,0
0.7791,1783967456.3153,1,1,1.5000,-0.0000,1.42244,0.00071,-2.63053,1.05907,1.57080,0.11675,-0.12764,-0.48152,0.03738,,,,,,,,,,,,,,,,,,,,,,,,,,0,0,0,0,0
0.7793,1783967456.3156,1,1,1.5000,-0.0000,1.42244,0.00071,-2.63053,1.05907,1.57080,0.11675,-0.12764,-0.48152,0.03738,,,,,,,,,,,,,,,,,,,,,,,,,,0,0,0,0,0
0.7796,1783967456.3159,1,1,1.5000,-0.0000,1.42244,0.00071,-2.63053,1.05907,1.57080,0.11675,-0.12764,-0.48152,0.03738,,,,,,,,,,,,,,,,,,,,,,,,,,0,0,0,0,0
0.7799,1783967456.3162,1,1,1.5000,-0.0000,1.42244,0.00071,-2.63053,1.05907,1.57080,0.11675,-0.12764,-0.48152,0.03738,,,,,,,,,,,,,,,,,,,,,,,,,,0,0,0,0,0
0.7810,1783967456.3173,1,1,1.5000,-0.0000,1.42244,0.00071,-2.63053,1.05907,1.57080,0.11675,-0.12764,-0.48152,0.03738,,,,,,,,,,,,,,,,,,,,,,,,,,0,0,0,0,0
0.7813,1783967456.3176,1,1,1.5000,-0.0000,1.42244,0.00071,-2.63053,1.05907,1.57080,0.11675,-0.12764,-0.48152,0.03738,,,,,,,,,,,,,,,,,,,,,,,,,,0,0,0,0,0
0.7816,1783967456.3179,1,1,1.5000,-0.0000,1.42244,0.00071,-2.63053,1.05907,1.57080,0.11675,-0.12764,-0.48152,0.03738,,,,,,,,,,,,,,,,,,,,,,,,,,0,0,0,0,0
0.7819,1783967456.3181,1,1,1.5000,-0.0000,1.42244,0.00071,-2.63053,1.05907,1.57080,0.11675,-0.12764,-0.48152,0.03738,,,,,,,,,,,,,,,,,,,,,,,,,,0,0,0,0,0
0.7822,1783967456.3185,1,1,1.5000,-0.0000,1.42244,0.00071,-2.63053,1.05907,1.57080,0.11675,-0.12764,-0.48152,0.03738,,,,,,,,,,,,,,,,,,,,,,,,,,0,0,0,0,0
0.7933,1783967456.3296,1,1,1.5000,-0.0000,1.42244,0.00071,-2.63053,1.05907,1.57080,0.11675,-0.12764,-0.48152,0.03738,,,,,,,,,,,,,,,,,,,,,,,,,,0,0,0,0,0
0.7936,1783967456.3299,1,1,1.5000,-0.0000,1.42244,0.00071,-2.63053,1.05907,1.57080,0.11675,-0.12764,-0.48152,0.03738,,,,,,,,,,,,,,,,,,,,,,,,,,0,0,0,0,0
0.7972,1783967456.3335,1,1,1.5000,-0.0000,1.42244,0.00071,-2.63053,1.05907,1.57080,0.11675,-0.12764,-0.48152,0.03738,,,,,,,,,,,,,,,,,,,,,,,,,,0,0,0,0,0
0.7974,1783967456.3336,1,1,1.5000,-0.0000,1.42244,0.00071,-2.63053,1.05907,1.57080,0.11675,-0.12764,-0.48152,0.03738,,,,,,,,,,,,,,,,,,,,,,,,,,0,0,0,0,0
0.8099,1783967456.3462,1,1,1.5000,-0.0000,1.42244,0.00071,-2.63053,1.05907,1.57080,0.11675,-0.12764,-0.48152,0.03738,,,,,,,,,,,,,,,,,,,,,,,,,,0,0,0,0,0
0.8292,1783967456.3655,1,1,1.5000,-0.0000,1.42244,0.00071,-2.63053,1.05907,1.57080,0.11675,-0.12764,-0.48152,0.03738,,,,,,,,,,,,,,,,,,,,,,,,,,0,0,0,0,0
0.8405,1783967456.3768,1,1,1.5000,-0.0000,1.42244,0.00071,-2.63053,1.05907,1.57080,0.11675,-0.12764,-0.48152,0.03738,,,,,,,,,,,,,,,,,,,,,,,,,,0,0,0,0,0
0.8441,1783967456.3803,1,1,1.5000,-0.0000,1.42244,0.00071,-2.63053,1.05907,1.57080,0.11675,-0.12764,-0.48152,0.03738,,,,,,,,,,,,,,,,,,,,,,,,,,0,0,0,0,0
0.8530,1783967456.3893,1,1,1.5000,-0.0000,1.42244,0.00071,-2.63053,1.05907,1.57080,0.11675,-0.12764,-0.48152,0.03738,,,,,,,,,,,,,,,,,,,,,,,,,,0,0,0,0,0
0.8533,1783967456.3896,1,1,1.5000,-0.0000,1.42244,0.00071,-2.63053,1.05907,1.57080,0.11675,-0.12764,-0.48152,0.03738,,,,,,,,,,,,,,,,,,,,,,,,,,0,0,0,0,0
0.8586,1783967456.3948,1,1,1.5000,-0.0000,1.42244,0.00071,-2.63053,1.05907,1.57080,0.11675,-0.12764,-0.48152,0.03738,,,,,,,,,,,,,,,,,,,,,,,,,,0,0,0,0,0
0.8795,1783967456.4158,1,1,1.5000,-0.0000,1.42244,0.00071,-2.63053,1.05907,1.57080,0.11675,-0.12764,-0.48152,0.03738,,,,,,,,,,,,,,,,,,,,,,,,,,0,0,0,0,0
0.8828,1783967456.4191,1,1,1.5000,-0.0000,1.42244,0.00071,-2.63053,1.05907,1.57080,0.11675,-0.12764,-0.48152,0.03738,,,,,,,,,,,,,,,,,,,,,,,,,,0,0,0,0,0
0.8861,1783967456.4224,1,1,1.5000,-0.0000,1.42244,0.00071,-2.63053,1.05907,1.57080,0.11675,-0.12764,-0.48152,0.03738,,,,,,,,,,,,,,,,,,,,,,,,,,0,0,0,0,0
0.8992,1783967456.4355,1,1,1.5000,-0.0000,1.42244,0.00071,-2.63053,1.05907,1.57080,0.11675,-0.12764,-0.48152,0.03738,,,,,,,,,,,,,,,,,,,,,,,,,,0,0,0,0,0
0.9103,1783967456.4466,1,1,1.5000,-0.0000,1.42244,0.00071,-2.63053,1.05907,1.57080,0.11675,-0.12764,-0.48152,0.03738,,,,,,,,,,,,,,,,,,,,,,,,,,0,0,0,0,0
0.9163,1783967456.4526,1,1,1.5000,-0.0000,1.42244,0.00071,-2.63053,1.05907,1.57080,0.11675,-0.12764,-0.48152,0.03738,,,,,,,,,,,,,,,,,,,,,,,,,,0,0,0,0,0
0.9171,1783967456.4534,1,1,1.5000,-0.0000,1.42244,0.00071,-2.63053,1.05907,1.57080,0.11675,-0.12764,-0.48152,0.03738,,,,,,,,,,,,,,,,,,,,,,,,,,0,0,0,0,0
0.9316,1783967456.4679,1,1,1.5000,-0.0000,1.42244,0.00071,-2.63053,1.05907,1.57080,0.11675,-0.12764,-0.48152,0.03738,,,,,,,,,,,,,,,,,,,,,,,,,,0,0,0,0,0
0.9393,1783967456.4756,1,1,1.5000,-0.0000,1.42244,0.00071,-2.63053,1.05907,1.57080,0.11675,-0.12764,-0.48152,0.03738,,,,,,,,,,,,,,,,,,,,,,,,,,0,0,0,0,0
0.9463,1783967456.4825,1,1,1.5000,-0.0000,1.42244,0.00071,-2.63053,1.05907,1.57080,0.11675,-0.12764,-0.48152,0.03738,,,,,,,,,,,,,,,,,,,,,,,,,,0,0,0,0,0
0.9592,1783967456.4955,1,1,1.5000,-0.0000,1.42244,0.00071,-2.63053,1.05907,1.57080,0.11675,-0.12764,-0.48152,0.03738,,,,,,,,,,,,,,,,,,,,,,,,,,0,0,0,0,0
0.9595,1783967456.4958,1,1,1.5000,-0.0000,1.42244,0.00071,-2.63053,1.05907,1.57080,0.11675,-0.12764,-0.48152,0.03738,,,,,,,,,,,,,,,,,,,,,,,,,,0,0,0,0,0
0.9725,1783967456.5088,1,1,1.5000,-0.0000,1.42244,0.00071,-2.63053,1.05907,1.57080,0.11675,-0.12764,-0.48152,0.03738,,,,,,,,,,,,,,,,,,,,,,,,,,0,0,0,0,0
0.9816,1783967456.5179,1,1,1.5000,-0.0000,1.42244,0.00071,-2.63053,1.05907,1.57080,0.11675,-0.12764,-0.48152,0.03738,,,,,,,,,,,,,,,,,,,,,,,,,,0,0,0,0,0
0.9821,1783967456.5184,1,1,1.5000,-0.0000,1.42244,0.00071,-2.63053,1.05907,1.57080,0.11675,-0.12764,-0.48152,0.03738,,,,,,,,,,,,,,,,,,,,,,,,,,0,0,0,0,0
0.9877,1783967456.5240,1,1,1.5000,-0.0000,1.42244,0.00071,-2.63053,1.05907,1.57080,0.11675,-0.12764,-0.48152,0.03738,,,,,,,,,,,,,,,,,,,,,,,,,,0,0,0,0,0
1.0014,1783967456.5377,1,1,1.5000,-0.0000,1.42244,0.00071,-2.63053,1.05907,1.57080,0.11675,-0.12764,-0.48152,0.03738,,,,,,,,,,,,,,,,,,,,,,,,,,0,0,0,0,0
1.0073,1783967456.5436,1,1,1.5000,-0.0000,1.42244,0.00071,-2.63053,1.05907,1.57080,0.11675,-0.12764,-0.48152,0.03738,,,,,,,,,,,,,,,,,,,,,,,,,,0,0,0,0,0
1.0159,1783967456.5522,1,1,1.5000,-0.0000,1.42244,0.00071,-2.63053,1.05907,1.57080,0.11675,-0.12764,-0.48152,0.03738,,,,,,,,,,,,,,,,,,,,,,,,,,0,0,0,0,0
1.0311,1783967456.5674,1,1,1.5000,-0.0000,1.42244,0.00070,-2.63055,1.05907,1.57080,0.11675,-0.12764,-0.48151,0.03737,,,,,,,,,,,,,,,,,,,,,,,,,,0,0,0,0,0
1.0440,1783967456.5802,1,1,1.5000,-0.0000,1.42244,0.00068,-2.63058,1.05907,1.57080,0.11675,-0.12764,-0.48149,0.03735,,,,,,,,,,,,,,,,,,,,,,,,,,0,0,0,0,0
1.0534,1783967456.5896,1,1,1.5000,-0.0000,1.42244,0.00068,-2.63058,1.05907,1.57080,0.11675,-0.12764,-0.48148,0.03734,,,,,,,,,,,,,,,,,,,,,,,,,,0,0,0,0,0
1.0573,1783967456.5935,1,1,1.5000,-0.0000,1.42244,0.00067,-2.63059,1.05907,1.57080,0.11675,-0.12764,-0.48147,0.03734,,,,,,,,,,,,,,,,,,,,,,,,,,0,0,0,0,0
1.0668,1783967456.6031,1,1,1.5000,-0.0000,1.42244,0.00064,-2.63062,1.05908,1.57080,0.11675,-0.12765,-0.48145,0.03731,,,,,,,,,,,,,,,,,,,,,,,,,,0,0,0,0,0
1.0816,1783967456.6178,1,1,1.5000,-0.0000,1.42244,0.00061,-2.63063,1.05910,1.57080,0.11675,-0.12765,-0.48144,0.03730,,,,,,,,,,,,,,,,,,,,,,,,,,0,0,0,0,0
1.0818,1783967456.6181,1,1,1.5000,-0.0000,1.42244,0.00061,-2.63063,1.05910,1.57080,0.11675,-0.12765,-0.48144,0.03730,,,,,,,,,,,,,,,,,,,,,,,,,,0,0,0,0,0
1.0877,1783967456.6240,1,1,1.5000,-0.0000,1.42244,0.00059,-2.63064,1.05911,1.57080,0.11675,-0.12765,-0.48143,0.03728,,,,,,,,,,,,,,,,,,,,,,,,,,0,0,0,0,0
1.0955,1783967456.6317,1,1,1.5000,-0.0000,1.42244,0.00054,-2.63067,1.05914,1.57080,0.11675,-0.12765,-0.48142,0.03725,,,,,,,,,,,,,,,,,,,,,,,,,,0,0,0,0,0
1.1054,1783967456.6417,1,1,1.5000,-0.0000,1.42244,0.00051,-2.63069,1.05916,1.57080,0.11675,-0.12765,-0.48140,0.03724,,,,,,,,,,,,,,,,,,,,,,,,,,0,0,0,0,0
1.1059,1783967456.6421,1,1,1.5000,-0.0000,1.42244,0.00051,-2.63069,1.05916,1.57080,0.11675,-0.12765,-0.48140,0.03724,,,,,,,,,,,,,,,,,,,,,,,,,,0,0,0,0,0
1.1215,1783967456.6578,1,1,1.5000,-0.0000,1.42244,0.00042,-2.63071,1.05926,1.57080,0.11675,-0.12765,-0.48140,0.03720,,,,,,,,,,,,,,,,,,,,,,,,,,0,0,0,0,0
1.1316,1783967456.6679,1,1,1.5000,-0.0000,1.42244,0.00034,-2.63073,1.05935,1.57080,0.11675,-0.12765,-0.48139,0.03717,,,,,,,,,,,,,,,,,,,,,,,,,,0,0,0,0,0
1.1367,1783967456.6729,1,1,1.5000,-0.0000,1.42244,0.00034,-2.63073,1.05935,1.57080,0.11675,-0.12765,-0.48139,0.03717,,,,,,,,,,,,,,,,,,,,,,,,,,0,0,0,0,0
1.1510,1783967456.6873,1,1,1.5000,-0.0000,1.42244,0.00025,-2.63074,1.05945,1.57080,0.11675,-0.12765,-0.48140,0.03714,,,,,,,,,,,,,,,,,,,,,,,,,,0,0,0,0,0
1.1584,1783967456.6947,1,1,1.5000,-0.0000,1.42244,0.00020,-2.63075,1.05951,1.57080,0.11675,-0.12765,-0.48140,0.03713,,,,,,,,,,,,,,,,,,,,,,,,,,0,0,0,0,0
1.1694,1783967456.7057,1,1,1.5000,-0.0000,1.42244,0.00015,-2.63076,1.05957,1.57080,0.11675,-0.12765,-0.48140,0.03711,,,,,,,,,,,,,,,,,,,,,,,,,,0,0,0,0,0
1.1697,1783967456.7060,1,1,1.5000,-0.0000,1.42244,0.00015,-2.63076,1.05957,1.57080,0.11675,-0.12765,-0.48140,0.03711,,,,,,,,,,,,,,,,,,,,,,,,,,0,0,0,0,0
1.1798,1783967456.7160,1,1,1.5000,-0.0000,1.42244,0.00006,-2.63077,1.05968,1.57080,0.11675,-0.12765,-0.48141,0.03708,,,,,,,,,,,,,,,,,,,,,,,,,,0,0,0,0,0
1.1894,1783967456.7256,1,1,1.5000,-0.0000,1.42244,-0.00004,-2.63079,1.05981,1.57080,0.11675,-0.12765,-0.48141,0.03705,,,,,,,,,,,,,,,,,,,,,,,,,,0,0,0,0,0
1.1985,1783967456.7348,1,1,1.5000,-0.0000,1.42244,-0.00006,-2.63079,1.05983,1.57080,0.11675,-0.12765,-0.48141,0.03705,,,,,,,,,,,,,,,,,,,,,,,,,,0,0,0,0,0
1.2084,1783967456.7447,1,1,1.5000,-0.0000,1.42244,-0.00011,-2.63079,1.05990,1.57080,0.11675,-0.12765,-0.48142,0.03704,,,,,,,,,,,,,,,,,,,,,,,,,,0,0,0,0,0
1.2182,1783967456.7545,1,1,1.5000,-0.0000,1.42244,-0.00022,-2.63079,1.06004,1.57080,0.11675,-0.12765,-0.48144,0.03701,,,,,,,,,,,,,,,,,,,,,,,,,,0,0,0,0,0
1.2389,1783967456.7752,1,1,1.5000,-0.0000,1.42244,-0.00041,-2.63078,1.06030,1.57080,0.11675,-0.12764,-0.48149,0.03698,,,,,,,,,,,,,,,,,,,,,,,,,,0,0,0,0,0
1.2479,1783967456.7842,1,1,1.5000,-0.0000,1.42244,-0.00045,-2.63076,1.06037,1.57080,0.11675,-0.12764,-0.48151,0.03698,,,,,,,,,,,,,,,,,,,,,,,,,,0,0,0,0,0
1.2526,1783967456.7889,1,1,1.5000,-0.0000,1.42244,-0.00047,-2.63075,1.06039,1.57080,0.11675,-0.12763,-0.48153,0.03698,,,,,,,,,,,,,,,,,,,,,,,,,,0,0,0,0,0
1.2593,1783967456.7955,1,1,1.5000,-0.0000,1.42244,-0.00047,-2.63075,1.06039,1.57080,0.11675,-0.12763,-0.48153,0.03698,,,,,,,,,,,,,,,,,,,,,,,,,,0,0,0,0,0
1.2707,1783967456.8070,1,1,1.5000,-0.0000,1.42244,-0.00047,-2.63075,1.06039,1.57080,0.11675,-0.12763,-0.48153,0.03698,,,,,,,,,,,,,,,,,,,,,,,,,,0,0,0,0,0
1.2861,1783967456.8223,1,1,1.5000,-0.0000,1.42244,-0.00047,-2.63075,1.06039,1.57080,0.11675,-0.12763,-0.48153,0.03698,,,,,,,,,,,,,,,,,,,,,,,,,,0,0,0,0,0
1.2867,1783967456.8230,1,1,1.5000,-0.0000,1.42244,-0.00047,-2.63075,1.06039,1.57080,0.11675,-0.12763,-0.48153,0.03698,,,,,,,,,,,,,,,,,,,,,,,,,,0,0,0,0,0
1.3020,1783967456.8383,1,1,1.5000,-0.0000,1.42244,-0.00047,-2.63075,1.06039,1.57080,0.11675,-0.12763,-0.48153,0.03698,,,,,,,,,,,,,,,,,,,,,,,,,,0,0,0,0,0
1.3119,1783967456.8482,1,1,1.5000,-0.0000,1.42244,-0.00047,-2.63075,1.06039,1.57080,0.11675,-0.12763,-0.48153,0.03698,,,,,,,,,,,,,,,,,,,,,,,,,,0,0,0,0,0
1.3155,1783967456.8518,1,1,1.5000,-0.0000,1.42244,-0.00047,-2.63075,1.06039,1.57080,0.11675,-0.12763,-0.48153,0.03698,,,,,,,,,,,,,,,,,,,,,,,,,,0,0,0,0,0
1.3413,1783967456.8776,1,1,1.5000,-0.0000,1.42244,-0.00047,-2.63075,1.06039,1.57080,0.11675,-0.12763,-0.48153,0.03698,,,,,,,,,,,,,,,,,,,,,,,,,,0,0,0,0,0
1.3501,1783967456.8864,1,1,1.5000,-0.0000,1.42244,-0.00047,-2.63075,1.06039,1.57080,0.11675,-0.12763,-0.48153,0.03698,,,,,,,,,,,,,,,,,,,,,,,,,,0,0,0,0,0
1.3505,1783967456.8868,1,1,1.5000,-0.0000,1.42244,-0.00047,-2.63075,1.06039,1.57080,0.11675,-0.12763,-0.48153,0.03698,,,,,,,,,,,,,,,,,,,,,,,,,,0,0,0,0,0
1.3586,1783967456.8949,1,1,1.5000,-0.0000,1.42244,-0.00047,-2.63075,1.06039,1.57080,0.11675,-0.12763,-0.48153,0.03698,,,,,,,,,,,,,,,,,,,,,,,,,,0,0,0,0,0
1.3626,1783967456.8989,1,1,1.5000,-0.0000,1.42244,-0.00047,-2.63075,1.06039,1.57080,0.11675,-0.12763,-0.48153,0.03698,,,,,,,,,,,,,,,,,,,,,,,,,,0,0,0,0,0
1.3628,1783967456.8991,1,1,1.5000,-0.0000,1.42244,-0.00047,-2.63075,1.06039,1.57080,0.11675,-0.12763,-0.48153,0.03698,,,,,,,,,,,,,,,,,,,,,,,,,,0,0,0,0,0
1.3738,1783967456.9101,1,1,1.5000,-0.0000,1.42244,-0.00047,-2.63075,1.06039,1.57080,0.11675,-0.12763,-0.48153,0.03698,,,,,,,,,,,,,,,,,,,,,,,,,,0,0,0,0,0
1.3742,1783967456.9104,1,1,1.5000,-0.0000,1.42244,-0.00047,-2.63075,1.06039,1.57080,0.11675,-0.12763,-0.48153,0.03698,,,,,,,,,,,,,,,,,,,,,,,,,,0,0,0,0,0
1.3887,1783967456.9250,1,1,1.5000,-0.0000,1.42244,-0.00047,-2.63075,1.06039,1.57080,0.11675,-0.12763,-0.48153,0.03698,,,,,,,,,,,,,,,,,,,,,,,,,,0,0,0,0,0
1.3921,1783967456.9284,1,1,1.5000,-0.0000,1.42244,-0.00047,-2.63075,1.06039,1.57080,0.11675,-0.12763,-0.48153,0.03698,,,,,,,,,,,,,,,,,,,,,,,,,,0,0,0,0,0
1.3989,1783967456.9352,1,1,1.5000,-0.0000,1.42244,-0.00047,-2.63075,1.06039,1.57080,0.11675,-0.12763,-0.48153,0.03698,,,,,,,,,,,,,,,,,,,,,,,,,,0,0,0,0,0
1.4126,1783967456.9489,1,1,1.5000,-0.0000,1.42244,-0.00047,-2.63075,1.06039,1.57080,0.11675,-0.12763,-0.48153,0.03698,,,,,,,,,,,,,,,,,,,,,,,,,,0,0,0,0,0
1.4229,1783967456.9592,1,1,1.5000,-0.0000,1.42244,-0.00047,-2.63075,1.06039,1.57080,0.11675,-0.12763,-0.48153,0.03698,,,,,,,,,,,,,,,,,,,,,,,,,,0,0,0,0,0
1.4234,1783967456.9596,1,1,1.5000,-0.0000,1.42244,-0.00047,-2.63075,1.06039,1.57080,0.11675,-0.12763,-0.48153,0.03698,,,,,,,,,,,,,,,,,,,,,,,,,,0,0,0,0,0
1.4375,1783967456.9738,1,1,1.5000,-0.0000,1.42244,-0.00047,-2.63076,1.06040,1.57080,0.11675,-0.12763,-0.48152,0.03698,,,,,,,,,,,,,,,,,,,,,,,,,,0,0,0,0,0
1.4378,1783967456.9741,1,1,1.5000,-0.0000,1.42244,-0.00047,-2.63076,1.06040,1.57080,0.11675,-0.12763,-0.48152,0.03698,,,,,,,,,,,,,,,,,,,,,,,,,,0,0,0,0,0
1.4420,1783967456.9783,1,1,1.5000,-0.0000,1.42244,-0.00047,-2.63076,1.06041,1.57080,0.11675,-0.12763,-0.48152,0.03697,,,,,,,,,,,,,,,,,,,,,,,,,,0,0,0,0,0
1.4528,1783967456.9891,1,1,1.5000,-0.0000,1.42244,-0.00049,-2.63078,1.06044,1.57080,0.11675,-0.12764,-0.48151,0.03697,,,,,,,,,,,,,,,,,,,,,,,,,,0,0,0,0,0
1.4597,1783967456.9960,1,1,1.5000,-0.0000,1.42244,-0.00050,-2.63081,1.06048,1.57080,0.11675,-0.12764,-0.48150,0.03695,,,,,,,,,,,,,,,,,,,,,,,,,,0,0,0,0,0
1.4711,1783967457.0074,1,1,1.5000,-0.0000,1.42244,-0.00051,-2.63082,1.06049,1.57080,0.11675,-0.12764,-0.48150,0.03695,,,,,,,,,,,,,,,,,,,,,,,,,,0,0,0,0,0
1.4779,1783967457.0142,1,1,1.5000,-0.0000,1.42244,-0.00054,-2.63084,1.06053,1.57080,0.11675,-0.12764,-0.48149,0.03693,,,,,,,,,,,,,,,,,,,,,,,,,,0,0,0,0,0
1.4921,1783967457.0284,1,1,1.5000,-0.0000,1.42244,-0.00060,-2.63089,1.06061,1.57080,0.11675,-0.12764,-0.48146,0.03690,,,,,,,,,,,,,,,,,,,,,,,,,,0,0,0,0,0
1.5005,1783967457.0368,1,1,1.5000,-0.0000,1.42244,-0.00060,-2.63089,1.06061,1.57080,0.11675,-0.12764,-0.48146,0.03689,,,,,,,,,,,,,,,,,,,,,,,,,,0,0,0,0,0
1.5109,1783967457.0471,1,1,1.5000,-0.0000,1.42244,-0.00064,-2.63091,1.06067,1.57080,0.11675,-0.12764,-0.48145,0.03687,,,,,,,,,,,,,,,,,,,,,,,,,,0,0,0,0,0
1.5204,1783967457.0567,1,1,1.5000,-0.0000,1.42244,-0.00067,-2.63092,1.06071,1.57080,0.11675,-0.12764,-0.48145,0.03686,,,,,,,,,,,,,,,,,,,,,,,,,,0,0,0,0,0
1.5267,1783967457.0630,1,1,1.5000,-0.0000,1.42244,-0.00069,-2.63093,1.06073,1.57080,0.11675,-0.12764,-0.48145,0.03686,,,,,,,,,,,,,,,,,,,,,,,,,,0,0,0,0,0
1.5394,1783967457.0757,1,1,1.5000,-0.0000,1.42244,-0.00079,-2.63095,1.06086,1.57080,0.11675,-0.12764,-0.48145,0.03682,,,,,,,,,,,,,,,,,,,,,,,,,,0,0,0,0,0
1.5461,1783967457.0824,1,1,1.5000,-0.0000,1.42244,-0.00088,-2.63098,1.06098,1.57080,0.11675,-0.12764,-0.48145,0.03679,,,,,,,,,,,,,,,,,,,,,,,,,,0,0,0,0,0
1.5584,1783967457.0947,1,1,1.5000,-0.0000,1.42244,-0.00099,-2.63100,1.06112,1.57080,0.11675,-0.12764,-0.48145,0.03676,,,,,,,,,,,,,,,,,,,,,,,,,,0,0,0,0,0
1.5696,1783967457.1058,1,1,1.5000,-0.0000,1.42244,-0.00103,-2.63101,1.06117,1.57080,0.11675,-0.12764,-0.48145,0.03674,,,,,,,,,,,,,,,,,,,,,,,,,,0,0,0,0,0
1.5699,1783967457.1062,1,1,1.5000,-0.0000,1.42244,-0.00103,-2.63101,1.06117,1.57080,0.11675,-0.12764,-0.48145,0.03674,,,,,,,,,,,,,,,,,,,,,,,,,,0,0,0,0,0
1.5785,1783967457.1147,1,1,1.5000,-0.0000,1.42244,-0.00110,-2.63102,1.06125,1.57080,0.11675,-0.12764,-0.48145,0.03672,,,,,,,,,,,,,,,,,,,,,,,,,,0,0,0,0,0
1.5985,1783967457.1347,1,1,1.5000,-0.0000,1.42244,-0.00118,-2.63104,1.06135,1.57080,0.11675,-0.12764,-0.48146,0.03670,,,,,,,,,,,,,,,,,,,,,,,,,,0,0,0,0,0
1.6035,1783967457.1398,1,1,1.5000,-0.0000,1.42244,-0.00122,-2.63104,1.06140,1.57080,0.11675,-0.12764,-0.48146,0.03668,,,,,,,,,,,,,,,,,,,,,,,,,,0,0,0,0,0
1.6086,1783967457.1448,1,1,1.5000,-0.0000,1.42244,-0.00126,-2.63105,1.06146,1.57080,0.11675,-0.12764,-0.48146,0.03667,,,,,,,,,,,,,,,,,,,,,,,,,,0,0,0,0,0
1.6214,1783967457.1577,1,1,1.5000,-0.0000,1.42244,-0.00146,-2.63108,1.06170,1.57080,0.11675,-0.12764,-0.48147,0.03661,,,,,,,,,,,,,,,,,,,,,,,,,,0,0,0,0,0
1.6439,1783967457.1802,1,1,1.5000,-0.0000,1.42244,-0.00163,-2.63110,1.06192,1.57080,0.11675,-0.12764,-0.48149,0.03657,,,,,,,,,,,,,,,,,,,,,,,,,,0,0,0,0,0
1.6584,1783967457.1947,1,1,1.5000,-0.0000,1.42244,-0.00163,-2.63110,1.06192,1.57080,0.11675,-0.12764,-0.48149,0.03657,,,,,,,,,,,,,,,,,,,,,,,,,,0,0,0,0,0
1.6588,1783967457.1951,1,1,1.5000,-0.0000,1.42244,-0.00163,-2.63110,1.06192,1.57080,0.11675,-0.12764,-0.48149,0.03657,,,,,,,,,,,,,,,,,,,,,,,,,,0,0,0,0,0
1.6599,1783967457.1962,1,1,1.5000,-0.0000,1.42244,-0.00163,-2.63110,1.06192,1.57080,0.11675,-0.12764,-0.48149,0.03657,,,,,,,,,,,,,,,,,,,,,,,,,,0,0,0,0,0
1.6717,1783967457.2079,1,1,1.5000,-0.0000,1.42244,-0.00163,-2.63110,1.06192,1.57080,0.11675,-0.12764,-0.48149,0.03657,,,,,,,,,,,,,,,,,,,,,,,,,,0,0,0,0,0
1.6774,1783967457.2137,1,1,1.5000,-0.0000,1.42244,-0.00163,-2.63110,1.06192,1.57080,0.11675,-0.12764,-0.48149,0.03657,,,,,,,,,,,,,,,,,,,,,,,,,,0,0,0,0,0
1.7055,1783967457.2418,1,1,1.5000,-0.0000,1.42244,-0.00163,-2.63110,1.06192,1.57080,0.11675,-0.12764,-0.48149,0.03657,,,,,,,,,,,,,,,,,,,,,,,,,,0,0,0,0,0
1.7080,1783967457.2443,1,1,1.5000,-0.0000,1.42244,-0.00163,-2.63110,1.06192,1.57080,0.11675,-0.12764,-0.48149,0.03657,,,,,,,,,,,,,,,,,,,,,,,,,,0,0,0,0,0
1.7084,1783967457.2447,1,1,1.5000,-0.0000,1.42244,-0.00163,-2.63110,1.06192,1.57080,0.11675,-0.12764,-0.48149,0.03657,,,,,,,,,,,,,,,,,,,,,,,,,,0,0,0,0,0
1.7088,1783967457.2451,1,1,1.5000,-0.0000,1.42244,-0.00163,-2.63110,1.06192,1.57080,0.11675,-0.12764,-0.48149,0.03657,,,,,,,,,,,,,,,,,,,,,,,,,,0,0,0,0,0
1.7207,1783967457.2570,1,1,1.5000,-0.0000,1.42244,-0.00163,-2.63110,1.06192,1.57080,0.11675,-0.12764,-0.48149,0.03657,,,,,,,,,,,,,,,,,,,,,,,,,,0,0,0,0,0
1.7295,1783967457.2657,1,1,1.5000,-0.0000,1.42244,-0.00163,-2.63110,1.06192,1.57080,0.11675,-0.12764,-0.48149,0.03657,,,,,,,,,,,,,,,,,,,,,,,,,,0,0,0,0,0
1.7577,1783967457.2940,1,1,1.5000,-0.0000,1.42244,-0.00163,-2.63110,1.06192,1.57080,0.11675,-0.12764,-0.48149,0.03657,,,,,,,,,,,,,,,,,,,,,,,,,,0,0,0,0,0
1.7588,1783967457.2951,1,1,1.5000,-0.0000,1.42244,-0.00163,-2.63110,1.06192,1.57080,0.11675,-0.12764,-0.48149,0.03657,,,,,,,,,,,,,,,,,,,,,,,,,,0,0,0,0,0
1.7591,1783967457.2954,1,1,1.5000,-0.0000,1.42244,-0.00163,-2.63110,1.06192,1.57080,0.11675,-0.12764,-0.48149,0.03657,,,,,,,,,,,,,,,,,,,,,,,,,,0,0,0,0,0
1.7679,1783967457.3042,1,1,1.5000,-0.0000,1.42244,-0.00163,-2.63110,1.06192,1.57080,0.11675,-0.12764,-0.48149,0.03657,,,,,,,,,,,,,,,,,,,,,,,,,,0,0,0,0,0
1.7787,1783967457.3149,1,1,1.5000,-0.0000,1.42244,-0.00163,-2.63110,1.06192,1.57080,0.11675,-0.12764,-0.48149,0.03657,,,,,,,,,,,,,,,,,,,,,,,,,,0,0,0,0,0
1.7996,1783967457.3359,1,1,1.5000,-0.0000,1.42244,-0.00163,-2.63110,1.06192,1.57080,0.11675,-0.12764,-0.48149,0.03657,,,,,,,,,,,,,,,,,,,,,,,,,,0,0,0,0,0
1.8025,1783967457.3388,1,1,1.5000,-0.0000,1.42244,-0.00163,-2.63110,1.06192,1.57080,0.11675,-0.12764,-0.48149,0.03657,,,,,,,,,,,,,,,,,,,,,,,,,,0,0,0,0,0
1.8338,1783967457.3701,1,1,1.5000,-0.0000,1.42244,-0.00163,-2.63110,1.06192,1.57080,0.11675,-0.12764,-0.48149,0.03657,,,,,,,,,,,,,,,,,,,,,,,,,,0,0,0,0,0
1.8670,1783967457.4032,1,1,1.5000,-0.0000,1.42244,-0.00163,-2.63110,1.06193,1.57080,0.11675,-0.12764,-0.48149,0.03656,,,,,,,,,,,,,,,,,,,,,,,,,,0,0,0,0,0
1.8710,1783967457.4073,1,1,1.5000,-0.0000,1.42244,-0.00164,-2.63110,1.06194,1.57080,0.11675,-0.12764,-0.48149,0.03656,,,,,,,,,,,,,,,,,,,,,,,,,,0,0,0,0,0
1.8714,1783967457.4077,1,1,1.5000,-0.0000,1.42244,-0.00164,-2.63110,1.06194,1.57080,0.11675,-0.12764,-0.48149,0.03656,,,,,,,,,,,,,,,,,,,,,,,,,,0,0,0,0,0
1.8724,1783967457.4087,1,1,1.5000,-0.0000,1.42244,-0.00164,-2.63110,1.06194,1.57080,0.11675,-0.12764,-0.48149,0.03656,,,,,,,,,,,,,,,,,,,,,,,,,,0,0,0,0,0
1.8732,1783967457.4095,1,1,1.5000,-0.0000,1.42244,-0.00165,-2.63110,1.06195,1.57080,0.11675,-0.12764,-0.48149,0.03656,,,,,,,,,,,,,,,,,,,,,,,,,,0,0,0,0,0
1.8734,1783967457.4097,1,1,1.5000,-0.0000,1.42244,-0.00165,-2.63110,1.06195,1.57080,0.11675,-0.12764,-0.48149,0.03656,,,,,,,,,,,,,,,,,,,,,,,,,,0,0,0,0,0
1.8766,1783967457.4129,1,1,1.5000,-0.0000,1.42244,-0.00165,-2.63110,1.06195,1.57080,0.11675,-0.12764,-0.48149,0.03656,,,,,,,,,,,,,,,,,,,,,,,,,,0,0,0,0,0
1.8774,1783967457.4136,1,1,1.5000,-0.0000,1.42244,-0.00165,-2.63110,1.06195,1.57080,0.11675,-0.12764,-0.48149,0.03656,,,,,,,,,,,,,,,,,,,,,,,,,,0,0,0,0,0
1.9007,1783967457.4369,1,1,1.5000,-0.0000,1.42243,-0.00170,-2.63114,1.06202,1.57080,0.11675,-0.12764,-0.48147,0.03653,,,,,,,,,,,,,,,,,,,,,,,,,,0,0,0,0,0
1.9014,1783967457.4377,1,1,1.5000,-0.0000,1.42243,-0.00173,-2.63116,1.06205,1.57080,0.11675,-0.12764,-0.48146,0.03651,,,,,,,,,,,,,,,,,,,,,,,,,,0,0,0,0,0
1.9071,1783967457.4434,1,1,1.5000,-0.0000,1.42243,-0.00175,-2.63118,1.06207,1.57080,0.11675,-0.12764,-0.48145,0.03650,,,,,,,,,,,,,,,,,,,,,,,,,,0,0,0,0,0
1.9219,1783967457.4582,1,1,1.5000,-0.0000,1.42243,-0.00178,-2.63119,1.06211,1.57080,0.11675,-0.12764,-0.48145,0.03649,,,,,,,,,,,,,,,,,,,,,,,,,,0,0,0,0,0
1.9267,1783967457.4630,1,1,1.5000,-0.0000,1.42243,-0.00180,-2.63120,1.06213,1.57080,0.11675,-0.12764,-0.48145,0.03648,,,,,,,,,,,,,,,,,,,,,,,,,,0,0,0,0,0
1.9269,1783967457.4632,1,1,1.5000,-0.0000,1.42243,-0.00180,-2.63120,1.06213,1.57080,0.11675,-0.12764,-0.48145,0.03648,,,,,,,,,,,,,,,,,,,,,,,,,,0,0,0,0,0
1.9413,1783967457.4776,1,1,1.5000,-0.0000,1.42243,-0.00188,-2.63123,1.06223,1.57080,0.11675,-0.12764,-0.48144,0.03645,,,,,,,,,,,,,,,,,,,,,,,,,,0,0,0,0,0
1.9515,1783967457.4878,1,1,1.5000,-0.0000,1.42243,-0.00189,-2.63123,1.06225,1.57080,0.11675,-0.12764,-0.48144,0.03644,,,,,,,,,,,,,,,,,,,,,,,,,,0,0,0,0,0
1.9557,1783967457.4920,1,1,1.5000,-0.0000,1.42243,-0.00192,-2.63123,1.06228,1.57080,0.11675,-0.12764,-0.48144,0.03643,,,,,,,,,,,,,,,,,,,,,,,,,,0,0,0,0,0
1.9653,1783967457.5016,1,1,1.5000,-0.0000,1.42243,-0.00203,-2.63125,1.06241,1.57080,0.11675,-0.12764,-0.48144,0.03640,,,,,,,,,,,,,,,,,,,,,,,,,,0,0,0,0,0
1.9656,1783967457.5019,1,1,1.5000,-0.0000,1.42243,-0.00203,-2.63125,1.06241,1.57080,0.11675,-0.12764,-0.48144,0.03640,,,,,,,,,,,,,,,,,,,,,,,,,,0,0,0,0,0
1.9773,1783967457.5136,1,1,1.5000,-0.0000,1.42243,-0.00208,-2.63126,1.06247,1.57080,0.11675,-0.12764,-0.48144,0.03638,,,,,,,,,,,,,,,,,,,,,,,,,,0,0,0,0,0
1.9776,1783967457.5139,1,1,1.5000,-0.0000,1.42243,-0.00208,-2.63126,1.06247,1.57080,0.11675,-0.12764,-0.48144,0.03638,,,,,,,,,,,,,,,,,,,,,,,,,,0,0,0,0,0
1.9895,1783967457.5258,1,1,1.5000,-0.0000,1.42243,-0.00216,-2.63128,1.06257,1.57080,0.11675,-0.12764,-0.48145,0.03636,,,,,,,,,,,,,,,,,,,,,,,,,,0,0,0,0,0
1.9900,1783967457.5263,1,1,1.5000,-0.0000,1.42243,-0.00216,-2.63128,1.06257,1.57080,0.11675,-0.12764,-0.48145,0.03636,,,,,,,,,,,,,,,,,,,,,,,,,,0,0,0,0,0
2.0082,1783967457.5445,1,1,1.5000,-0.0000,1.42243,-0.00226,-2.63129,1.06269,1.57080,0.11675,-0.12764,-0.48145,0.03632,,,,,,,,,,,,,,,,,,,,,,,,,,0,0,0,0,0
2.0086,1783967457.5449,1,1,1.5000,-0.0000,1.42243,-0.00226,-2.63129,1.06269,1.57080,0.11675,-0.12764,-0.48145,0.03632,,,,,,,,,,,,,,,,,,,,,,,,,,0,0,0,0,0
2.0095,1783967457.5457,1,1,1.5000,-0.0000,1.42243,-0.00228,-2.63129,1.06271,1.57080,0.11675,-0.12764,-0.48145,0.03632,,,,,,,,,,,,,,,,,,,,,,,,,,0,0,0,0,0
2.0103,1783967457.5466,1,1,1.5000,-0.0000,1.42243,-0.00228,-2.63129,1.06271,1.57080,0.11675,-0.12764,-0.48145,0.03632,,,,,,,,,,,,,,,,,,,,,,,,,,0,0,0,0,0
2.0243,1783967457.5606,1,1,1.5000,-0.0000,1.42243,-0.00238,-2.63131,1.06284,1.57080,0.11675,-0.12764,-0.48146,0.03629,,,,,,,,,,,,,,,,,,,,,,,,,,0,0,0,0,0
2.0268,1783967457.5630,1,1,1.5000,-0.0000,1.42243,-0.00242,-2.63131,1.06289,1.57080,0.11675,-0.12764,-0.48146,0.03628,,,,,,,,,,,,,,,,,,,,,,,,,,0,0,0,0,0
2.0364,1783967457.5727,1,1,1.5000,-0.0000,1.42243,-0.00252,-2.63132,1.06301,1.57080,0.11675,-0.12764,-0.48147,0.03625,,,,,,,,,,,,,,,,,,,,,,,,,,0,0,0,0,0
2.0367,1783967457.5730,1,1,1.5000,-0.0000,1.42243,-0.00252,-2.63132,1.06301,1.57080,0.11675,-0.12764,-0.48147,0.03625,,,,,,,,,,,,,,,,,,,,,,,,,,0,0,0,0,0
2.0526,1783967457.5889,1,1,1.5000,-0.0000,1.42243,-0.00271,-2.63135,1.06325,1.57080,0.11675,-0.12763,-0.48149,0.03620,,,,,,,,,,,,,,,,,,,,,,,,,,0,0,0,0,0
2.0707,1783967457.6070,1,1,1.5000,-0.0000,1.42243,-0.00279,-2.63135,1.06336,1.57080,0.11675,-0.12763,-0.48150,0.03617,,,,,,,,,,,,,,,,,,,,,,,,,,0,0,0,0,0
2.0718,1783967457.6081,1,1,1.5000,-0.0000,1.42243,-0.00279,-2.63135,1.06336,1.57080,0.11675,-0.12763,-0.48150,0.03617,,,,,,,,,,,,,,,,,,,,,,,,,,0,0,0,0,0
2.0722,1783967457.6084,1,1,1.5000,-0.0000,1.42243,-0.00279,-2.63135,1.06336,1.57080,0.11675,-0.12763,-0.48150,0.03617,,,,,,,,,,,,,,,,,,,,,,,,,,0,0,0,0,0
2.0775,1783967457.6138,1,1,1.5000,-0.0000,1.42243,-0.00279,-2.63135,1.06336,1.57080,0.11675,-0.12763,-0.48150,0.03617,,,,,,,,,,,,,,,,,,,,,,,,,,0,0,0,0,0
2.0778,1783967457.6140,1,1,1.5000,-0.0000,1.42243,-0.00279,-2.63135,1.06336,1.57080,0.11675,-0.12763,-0.48150,0.03617,,,,,,,,,,,,,,,,,,,,,,,,,,0,0,0,0,0
2.0877,1783967457.6239,1,1,1.5000,-0.0000,1.42243,-0.00279,-2.63135,1.06336,1.57080,0.11675,-0.12763,-0.48150,0.03617,,,,,,,,,,,,,,,,,,,,,,,,,,0,0,0,0,0
2.0989,1783967457.6352,1,1,1.5000,-0.0000,1.42243,-0.00279,-2.63135,1.06336,1.57080,0.11675,-0.12763,-0.48150,0.03617,,,,,,,,,,,,,,,,,,,,,,,,,,0,0,0,0,0
2.1067,1783967457.6430,1,1,1.5000,-0.0000,1.42243,-0.00279,-2.63135,1.06336,1.57080,0.11675,-0.12763,-0.48150,0.03617,,,,,,,,,,,,,,,,,,,,,,,,,,0,0,0,0,0
2.1159,1783967457.6521,1,1,1.5000,-0.0000,1.42243,-0.00279,-2.63135,1.06336,1.57080,0.11675,-0.12763,-0.48150,0.03617,,,,,,,,,,,,,,,,,,,,,,,,,,0,0,0,0,0
2.1253,1783967457.6616,1,1,1.5000,-0.0000,1.42243,-0.00279,-2.63135,1.06336,1.57080,0.11675,-0.12763,-0.48150,0.03617,,,,,,,,,,,,,,,,,,,,,,,,,,0,0,0,0,0
2.1257,1783967457.6620,1,1,1.5000,-0.0000,1.42243,-0.00279,-2.63135,1.06336,1.57080,0.11675,-0.12763,-0.48150,0.03617,,,,,,,,,,,,,,,,,,,,,,,,,,0,0,0,0,0
2.1388,1783967457.6751,1,1,1.5000,-0.0000,1.42243,-0.00279,-2.63135,1.06336,1.57080,0.11675,-0.12763,-0.48150,0.03617,,,,,,,,,,,,,,,,,,,,,,,,,,0,0,0,0,0
2.1576,1783967457.6939,1,1,1.5000,-0.0000,1.42243,-0.00279,-2.63135,1.06336,1.57080,0.11675,-0.12763,-0.48150,0.03617,,,,,,,,,,,,,,,,,,,,,,,,,,0,0,0,0,0
2.1609,1783967457.6972,1,1,1.5000,-0.0000,1.42243,-0.00279,-2.63135,1.06336,1.57080,0.11675,-0.12763,-0.48150,0.03617,,,,,,,,,,,,,,,,,,,,,,,,,,0,0,0,0,0
2.1768,1783967457.7130,1,1,1.5000,-0.0000,1.42243,-0.00279,-2.63135,1.06336,1.57080,0.11675,-0.12763,-0.48150,0.03617,,,,,,,,,,,,,,,,,,,,,,,,,,0,0,0,0,0
2.1826,1783967457.7189,1,1,1.5000,-0.0000,1.42243,-0.00279,-2.63135,1.06336,1.57080,0.11675,-0.12763,-0.48150,0.03617,,,,,,,,,,,,,,,,,,,,,,,,,,0,0,0,0,0
2.1831,1783967457.7193,1,1,1.5000,-0.0000,1.42243,-0.00279,-2.63135,1.06336,1.57080,0.11675,-0.12763,-0.48150,0.03617,,,,,,,,,,,,,,,,,,,,,,,,,,0,0,0,0,0
2.1863,1783967457.7225,1,1,1.5000,-0.0000,1.42243,-0.00279,-2.63135,1.06336,1.57080,0.11675,-0.12763,-0.48150,0.03617,,,,,,,,,,,,,,,,,,,,,,,,,,0,0,0,0,0
2.1866,1783967457.7229,1,1,1.5000,-0.0000,1.42243,-0.00279,-2.63135,1.06336,1.57080,0.11675,-0.12763,-0.48150,0.03617,,,,,,,,,,,,,,,,,,,,,,,,,,0,0,0,0,0
2.2043,1783967457.7406,1,1,1.5000,-0.0000,1.42243,-0.00279,-2.63135,1.06336,1.57080,0.11675,-0.12763,-0.48150,0.03617,,,,,,,,,,,,,,,,,,,,,,,,,,0,0,0,0,0
2.2049,1783967457.7412,1,1,1.5000,-0.0000,1.42243,-0.00279,-2.63135,1.06336,1.57080,0.11675,-0.12763,-0.48150,0.03617,,,,,,,,,,,,,,,,,,,,,,,,,,0,0,0,0,0
2.2110,1783967457.7473,1,1,1.5000,-0.0000,1.42243,-0.00279,-2.63135,1.06336,1.57080,0.11675,-0.12763,-0.48150,0.03617,,,,,,,,,,,,,,,,,,,,,,,,,,0,0,0,0,0
2.2175,1783967457.7537,1,1,1.5000,-0.0000,1.42243,-0.00279,-2.63135,1.06336,1.57080,0.11675,-0.12763,-0.48150,0.03617,,,,,,,,,,,,,,,,,,,,,,,,,,0,0,0,0,0
2.2303,1783967457.7665,1,1,1.5000,-0.0000,1.42243,-0.00279,-2.63135,1.06336,1.57080,0.11675,-0.12763,-0.48150,0.03617,,,,,,,,,,,,,,,,,,,,,,,,,,0,0,0,0,0
2.2430,1783967457.7793,1,1,1.5000,-0.0000,1.42243,-0.00279,-2.63135,1.06336,1.57080,0.11675,-0.12763,-0.48150,0.03617,,,,,,,,,,,,,,,,,,,,,,,,,,0,0,0,0,0
2.2434,1783967457.7796,1,1,1.5000,-0.0000,1.42243,-0.00279,-2.63135,1.06336,1.57080,0.11675,-0.12763,-0.48150,0.03617,,,,,,,,,,,,,,,,,,,,,,,,,,0,0,0,0,0
2.2594,1783967457.7956,1,1,1.5000,-0.0000,1.42243,-0.00279,-2.63135,1.06336,1.57080,0.11675,-0.12763,-0.48150,0.03617,,,,,,,,,,,,,,,,,,,,,,,,,,0,0,0,0,0
2.2597,1783967457.7960,1,1,1.5000,-0.0000,1.42243,-0.00279,-2.63135,1.06336,1.57080,0.11675,-0.12763,-0.48150,0.03617,,,,,,,,,,,,,,,,,,,,,,,,,,0,0,0,0,0
2.2711,1783967457.8074,1,1,1.5000,-0.0000,1.42243,-0.00279,-2.63135,1.06336,1.57080,0.11675,-0.12763,-0.48150,0.03617,,,,,,,,,,,,,,,,,,,,,,,,,,0,0,0,0,0
2.2718,1783967457.8080,1,1,1.5000,-0.0000,1.42243,-0.00279,-2.63135,1.06336,1.57080,0.11675,-0.12763,-0.48150,0.03617,,,,,,,,,,,,,,,,,,,,,,,,,,0,0,0,0,0
2.2720,1783967457.8083,1,1,1.5000,-0.0000,1.42243,-0.00279,-2.63135,1.06336,1.57080,0.11675,-0.12763,-0.48150,0.03617,,,,,,,,,,,,,,,,,,,,,,,,,,0,0,0,0,0
2.2781,1783967457.8144,1,1,1.5000,-0.0000,1.42243,-0.00280,-2.63135,1.06336,1.57080,0.11675,-0.12763,-0.48150,0.03617,,,,,,,,,,,,,,,,,,,,,,,,,,0,0,0,0,0
2.2965,1783967457.8328,1,1,1.5000,-0.0000,1.42243,-0.00282,-2.63136,1.06340,1.57080,0.11675,-0.12763,-0.48150,0.03617,,,,,,,,,,,,,,,,,,,,,,,,,,0,0,0,0,0
2.2993,1783967457.8355,1,1,1.5000,-0.0000,1.42243,-0.00283,-2.63136,1.06341,1.57080,0.11675,-0.12763,-0.48150,0.03617,,,,,,,,,,,,,,,,,,,,,,,,,,0,0,0,0,0
2.3105,1783967457.8468,1,1,1.5000,-0.0000,1.42243,-0.00284,-2.63136,1.06343,1.57080,0.11675,-0.12763,-0.48150,0.03616,,,,,,,,,,,,,,,,,,,,,,,,,,0,0,0,0,0
2.3157,1783967457.8520,1,1,1.5000,-0.0000,1.42243,-0.00284,-2.63137,1.06343,1.57080,0.11675,-0.12763,-0.48150,0.03616,,,,,,,,,,,,,,,,,,,,,,,,,,0,0,0,0,0
2.3343,1783967457.8706,1,1,1.5000,-0.0000,1.42243,-0.00288,-2.63140,1.06348,1.57080,0.11675,-0.12764,-0.48148,0.03613,,,,,,,,,,,,,,,,,,,,,,,,,,0,0,0,0,0
2.3347,1783967457.8710,1,1,1.5000,-0.0000,1.42243,-0.00288,-2.63140,1.06348,1.57080,0.11675,-0.12764,-0.48148,0.03613,,,,,,,,,,,,,,,,,,,,,,,,,,0,0,0,0,0
2.3485,1783967457.8848,1,1,1.5000,-0.0000,1.42243,-0.00293,-2.63142,1.06353,1.57080,0.11675,-0.12764,-0.48147,0.03611,,,,,,,,,,,,,,,,,,,,,,,,,,0,0,0,0,0
2.3489,1783967457.8852,1,1,1.5000,-0.0000,1.42243,-0.00293,-2.63142,1.06353,1.57080,0.11675,-0.12764,-0.48147,0.03611,,,,,,,,,,,,,,,,,,,,,,,,,,0,0,0,0,0
2.3495,1783967457.8858,1,1,1.5000,-0.0000,1.42243,-0.00296,-2.63143,1.06356,1.57080,0.11675,-0.12764,-0.48147,0.03610,,,,,,,,,,,,,,,,,,,,,,,,,,0,0,0,0,0
2.3576,1783967457.8939,1,1,1.5000,-0.0000,1.42243,-0.00301,-2.63146,1.06363,1.57080,0.11675,-0.12764,-0.48145,0.03607,,,,,,,,,,,,,,,,,,,,,,,,,,0,0,0,0,0
2.3581,1783967457.8943,1,1,1.5000,-0.0000,1.42243,-0.00301,-2.63146,1.06363,1.57080,0.11675,-0.12764,-0.48145,0.03607,,,,,,,,,,,,,,,,,,,,,,,,,,0,0,0,0,0
2.3662,1783967457.9025,1,1,1.5000,-0.0000,1.42243,-0.00302,-2.63146,1.06363,1.57080,0.11675,-0.12764,-0.48145,0.03607,,,,,,,,,,,,,,,,,,,,,,,,,,0,0,0,0,0
2.3761,1783967457.9124,1,1,1.5000,-0.0000,1.42243,-0.00305,-2.63147,1.06367,1.57080,0.11675,-0.12764,-0.48145,0.03606,,,,,,,,,,,,,,,,,,,,,,,,,,0,0,0,0,0
2.3854,1783967457.9217,1,1,1.5000,-0.0000,1.42243,-0.00315,-2.63149,1.06379,1.57080,0.11675,-0.12764,-0.48145,0.03602,,,,,,,,,,,,,,,,,,,,,,,,,,0,0,0,0,0
2.3858,1783967457.9220,1,1,1.5000,-0.0000,1.42243,-0.00315,-2.63149,1.06379,1.57080,0.11675,-0.12764,-0.48145,0.03602,,,,,,,,,,,,,,,,,,,,,,,,,,0,0,0,0,0
2.3984,1783967457.9347,1,1,1.5000,-0.0000,1.42243,-0.00320,-2.63151,1.06385,1.57080,0.11675,-0.12764,-0.48145,0.03601,,,,,,,,,,,,,,,,,,,,,,,,,,0,0,0,0,0
2.4124,1783967457.9487,1,1,1.5000,-0.0000,1.42243,-0.00329,-2.63152,1.06395,1.57080,0.11675,-0.12764,-0.48145,0.03598,,,,,,,,,,,,,,,,,,,,,,,,,,0,0,0,0,0
2.4158,1783967457.9521,1,1,1.5000,-0.0000,1.42243,-0.00333,-2.63153,1.06401,1.57080,0.11675,-0.12764,-0.48145,0.03596,,,,,,,,,,,,,,,,,,,,,,,,,,0,0,0,0,0
2.4267,1783967457.9630,1,1,1.5000,-0.0000,1.42243,-0.00336,-2.63153,1.06404,1.57080,0.11675,-0.12764,-0.48146,0.03596,,,,,,,,,,,,,,,,,,,,,,,,,,0,0,0,0,0
2.4359,1783967457.9722,1,1,1.5000,-0.0000,1.42243,-0.00343,-2.63154,1.06412,1.57080,0.11675,-0.12764,-0.48146,0.03594,,,,,,,,,,,,,,,,,,,,,,,,,,0,0,0,0,0
2.4364,1783967457.9727,1,1,1.5000,-0.0000,1.42243,-0.00343,-2.63154,1.06412,1.57080,0.11675,-0.12764,-0.48146,0.03594,,,,,,,,,,,,,,,,,,,,,,,,,,0,0,0,0,0
2.4458,1783967457.9821,1,1,1.5000,-0.0000,1.42243,-0.00358,-2.63156,1.06430,1.57080,0.11675,-0.12764,-0.48147,0.03589,,,,,,,,,,,,,,,,,,,,,,,,,,0,0,0,0,0
2.4463,1783967457.9826,1,1,1.5000,-0.0000,1.42243,-0.00358,-2.63156,1.06430,1.57080,0.11675,-0.12764,-0.48147,0.03589,,,,,,,,,,,,,,,,,,,,,,,,,,0,0,0,0,0
2.4613,1783967457.9975,1,1,1.5000,-0.0000,1.42243,-0.00380,-2.63160,1.06457,1.57080,0.11675,-0.12763,-0.48148,0.03582,,,,,,,,,,,,,,,,,,,,,,,,,,0,0,0,0,0
2.4663,1783967458.0026,1,1,1.5000,-0.0000,1.42243,-0.00384,-2.63160,1.06463,1.57080,0.11675,-0.12763,-0.48148,0.03581,,,,,,,,,,,,,,,,,,,,,,,,,,0,0,0,0,0
2.4773,1783967458.0136,1,1,1.5000,-0.0000,1.42243,-0.00394,-2.63162,1.06475,1.57080,0.11675,-0.12763,-0.48149,0.03578,,,,,,,,,,,,,,,,,,,,,,,,,,0,0,0,0,0
2.4855,1783967458.0218,1,1,1.5000,-0.0000,1.42243,-0.00394,-2.63162,1.06475,1.57080,0.11675,-0.12763,-0.48149,0.03578,,,,,,,,,,,,,,,,,,,,,,,,,,0,0,0,0,0
2.4858,1783967458.0221,1,1,1.5000,-0.0000,1.42243,-0.00394,-2.63162,1.06475,1.57080,0.11675,-0.12763,-0.48149,0.03578,,,,,,,,,,,,,,,,,,,,,,,,,,0,0,0,0,0
2.4966,1783967458.0329,1,1,1.5000,-0.0000,1.42243,-0.00394,-2.63162,1.06475,1.57080,0.11675,-0.12763,-0.48149,0.03578,,,,,,,,,,,,,,,,,,,,,,,,,,0,0,0,0,0
2.5121,1783967458.0484,1,1,1.5000,-0.0000,1.42243,-0.00394,-2.63162,1.06475,1.57080,0.11675,-0.12763,-0.48149,0.03578,,,,,,,,,,,,,,,,,,,,,,,,,,0,0,0,0,0
2.5179,1783967458.0542,1,1,1.5000,-0.0000,1.42243,-0.00394,-2.63162,1.06475,1.57080,0.11675,-0.12763,-0.48149,0.03578,,,,,,,,,,,,,,,,,,,,,,,,,,0,0,0,0,0
2.5312,1783967458.0675,1,1,1.5000,-0.0000,1.42243,-0.00394,-2.63162,1.06475,1.57080,0.11675,-0.12763,-0.48149,0.03578,,,,,,,,,,,,,,,,,,,,,,,,,,0,0,0,0,0
2.5375,1783967458.0738,1,1,1.5000,-0.0000,1.42243,-0.00394,-2.63162,1.06475,1.57080,0.11675,-0.12763,-0.48149,0.03578,,,,,,,,,,,,,,,,,,,,,,,,,,0,0,0,0,0
2.5379,1783967458.0742,1,1,1.5000,-0.0000,1.42243,-0.00394,-2.63162,1.06475,1.57080,0.11675,-0.12763,-0.48149,0.03578,,,,,,,,,,,,,,,,,,,,,,,,,,0,0,0,0,0
2.5488,1783967458.0851,1,1,1.5000,-0.0000,1.42243,-0.00394,-2.63162,1.06475,1.57080,0.11675,-0.12763,-0.48149,0.03578,,,,,,,,,,,,,,,,,,,,,,,,,,0,0,0,0,0
2.5656,1783967458.1019,1,1,1.5000,-0.0000,1.42243,-0.00394,-2.63162,1.06475,1.57080,0.11675,-0.12763,-0.48149,0.03578,,,,,,,,,,,,,,,,,,,,,,,,,,0,0,0,0,0
2.5659,1783967458.1022,1,1,1.5000,-0.0000,1.42243,-0.00394,-2.63162,1.06475,1.57080,0.11675,-0.12763,-0.48149,0.03578,,,,,,,,,,,,,,,,,,,,,,,,,,0,0,0,0,0
2.5713,1783967458.1076,1,1,1.5000,-0.0000,1.42243,-0.00394,-2.63162,1.06475,1.57080,0.11675,-0.12763,-0.48149,0.03578,,,,,,,,,,,,,,,,,,,,,,,,,,0,0,0,0,0
2.5778,1783967458.1141,1,1,1.5000,-0.0000,1.42243,-0.00394,-2.63162,1.06475,1.57080,0.11675,-0.12763,-0.48149,0.03578,,,,,,,,,,,,,,,,,,,,,,,,,,0,0,0,0,0
2.5781,1783967458.1144,1,1,1.5000,-0.0000,1.42243,-0.00394,-2.63162,1.06475,1.57080,0.11675,-0.12763,-0.48149,0.03578,,,,,,,,,,,,,,,,,,,,,,,,,,0,0,0,0,0
2.5867,1783967458.1229,1,1,1.5000,-0.0000,1.42243,-0.00394,-2.63162,1.06475,1.57080,0.11675,-0.12763,-0.48149,0.03578,,,,,,,,,,,,,,,,,,,,,,,,,,0,0,0,0,0
2.5965,1783967458.1328,1,1,1.5000,-0.0000,1.42243,-0.00394,-2.63162,1.06475,1.57080,0.11675,-0.12763,-0.48149,0.03578,,,,,,,,,,,,,,,,,,,,,,,,,,0,0,0,0,0
2.6069,1783967458.1432,1,1,1.5000,-0.0000,1.42243,-0.00394,-2.63162,1.06475,1.57080,0.11675,-0.12763,-0.48149,0.03578,,,,,,,,,,,,,,,,,,,,,,,,,,0,0,0,0,0
2.6178,1783967458.1540,1,1,1.5000,-0.0000,1.42243,-0.00394,-2.63162,1.06475,1.57080,0.11675,-0.12763,-0.48149,0.03578,,,,,,,,,,,,,,,,,,,,,,,,,,0,0,0,0,0
2.6271,1783967458.1633,1,1,1.5000,-0.0000,1.42243,-0.00394,-2.63162,1.06475,1.57080,0.11675,-0.12763,-0.48149,0.03578,,,,,,,,,,,,,,,,,,,,,,,,,,0,0,0,0,0
2.6274,1783967458.1636,1,1,1.5000,-0.0000,1.42243,-0.00394,-2.63162,1.06475,1.57080,0.11675,-0.12763,-0.48149,0.03578,,,,,,,,,,,,,,,,,,,,,,,,,,0,0,0,0,0
2.6383,1783967458.1745,1,1,1.5000,-0.0000,1.42243,-0.00394,-2.63162,1.06475,1.57080,0.11675,-0.12763,-0.48149,0.03578,,,,,,,,,,,,,,,,,,,,,,,,,,0,0,0,0,0
2.6507,1783967458.1869,1,1,1.5000,-0.0000,1.42243,-0.00394,-2.63162,1.06475,1.57080,0.11675,-0.12763,-0.48149,0.03578,,,,,,,,,,,,,,,,,,,,,,,,,,0,0,0,0,0
2.6575,1783967458.1938,1,1,1.5000,-0.0000,1.42243,-0.00394,-2.63162,1.06475,1.57080,0.11675,-0.12763,-0.48149,0.03578,,,,,,,,,,,,,,,,,,,,,,,,,,0,0,0,0,0
2.6580,1783967458.1942,1,1,1.5000,-0.0000,1.42243,-0.00394,-2.63162,1.06475,1.57080,0.11675,-0.12763,-0.48149,0.03578,,,,,,,,,,,,,,,,,,,,,,,,,,0,0,0,0,0
2.6711,1783967458.2073,1,1,1.5000,-0.0000,1.42243,-0.00394,-2.63162,1.06475,1.57080,0.11675,-0.12763,-0.48149,0.03578,,,,,,,,,,,,,,,,,,,,,,,,,,0,0,0,0,0
2.7059,1783967458.2422,1,1,1.5000,-0.0000,1.42243,-0.00395,-2.63162,1.06476,1.57080,0.11675,-0.12763,-0.48149,0.03578,,,,,,,,,,,,,,,,,,,,,,,,,,0,0,0,0,0
2.7076,1783967458.2439,1,1,1.5000,-0.0000,1.42243,-0.00395,-2.63162,1.06476,1.57080,0.11675,-0.12763,-0.48149,0.03578,,,,,,,,,,,,,,,,,,,,,,,,,,0,0,0,0,0
2.7079,1783967458.2442,1,1,1.5000,-0.0000,1.42243,-0.00395,-2.63162,1.06476,1.57080,0.11675,-0.12763,-0.48149,0.03578,,,,,,,,,,,,,,,,,,,,,,,,,,0,0,0,0,0
2.7176,1783967458.2538,1,1,1.5000,-0.0000,1.42243,-0.00398,-2.63162,1.06481,1.57080,0.11675,-0.12763,-0.48149,0.03577,,,,,,,,,,,,,,,,,,,,,,,,,,0,0,0,0,0
2.7180,1783967458.2543,1,1,1.5000,-0.0000,1.42243,-0.00398,-2.63162,1.06481,1.57080,0.11675,-0.12763,-0.48149,0.03577,,,,,,,,,,,,,,,,,,,,,,,,,,0,0,0,0,0
2.7255,1783967458.2618,1,1,1.5000,-0.0000,1.42243,-0.00398,-2.63162,1.06481,1.57080,0.11675,-0.12763,-0.48149,0.03577,,,,,,,,,,,,,,,,,,,,,,,,,,0,0,0,0,0
2.7258,1783967458.2621,1,1,1.5000,-0.0000,1.42243,-0.00398,-2.63162,1.06481,1.57080,0.11675,-0.12763,-0.48149,0.03577,,,,,,,,,,,,,,,,,,,,,,,,,,0,0,0,0,0
2.7415,1783967458.2778,1,1,1.5000,-0.0000,1.42243,-0.00404,-2.63166,1.06487,1.57080,0.11675,-0.12763,-0.48147,0.03574,,,,,,,,,,,,,,,,,,,,,,,,,,0,0,0,0,0
2.7484,1783967458.2847,1,1,1.5000,-0.0000,1.42243,-0.00406,-2.63168,1.06490,1.57080,0.11675,-0.12764,-0.48147,0.03573,,,,,,,,,,,,,,,,,,,,,,,,,,0,0,0,0,0
2.7596,1783967458.2958,1,1,1.5000,-0.0000,1.42243,-0.00408,-2.63169,1.06493,1.57080,0.11675,-0.12764,-0.48146,0.03571,,,,,,,,,,,,,,,,,,,,,,,,,,0,0,0,0,0
2.7698,1783967458.3061,1,1,1.5000,-0.0000,1.42243,-0.00412,-2.63171,1.06498,1.57080,0.11675,-0.12764,-0.48145,0.03569,,,,,,,,,,,,,,,,,,,,,,,,,,0,0,0,0,0
2.7828,1783967458.3191,1,1,1.5000,-0.0000,1.42243,-0.00420,-2.63174,1.06506,1.57080,0.11675,-0.12764,-0.48144,0.03566,,,,,,,,,,,,,,,,,,,,,,,,,,0,0,0,0,0
2.7854,1783967458.3217,1,1,1.5000,-0.0000,1.42243,-0.00420,-2.63174,1.06506,1.57080,0.11675,-0.12764,-0.48144,0.03566,,,,,,,,,,,,,,,,,,,,,,,,,,0,0,0,0,0
2.7857,1783967458.3220,1,1,1.5000,-0.0000,1.42243,-0.00420,-2.63174,1.06506,1.57080,0.11675,-0.12764,-0.48144,0.03566,,,,,,,,,,,,,,,,,,,,,,,,,,0,0,0,0,0
2.7988,1783967458.3351,1,1,1.5000,-0.0000,1.42243,-0.00423,-2.63175,1.06511,1.57080,0.11675,-0.12764,-0.48144,0.03565,,,,,,,,,,,,,,,,,,,,,,,,,,0,0,0,0,0
2.8080,1783967458.3442,1,1,1.5000,-0.0000,1.42243,-0.00430,-2.63176,1.06518,1.57080,0.11675,-0.12764,-0.48144,0.03563,,,,,,,,,,,,,,,,,,,,,,,,,,0,0,0,0,0
2.8313,1783967458.3676,1,1,1.5000,-0.0000,1.42243,-0.00445,-2.63179,1.06536,1.57080,0.11675,-0.12764,-0.48144,0.03558,,,,,,,,,,,,,,,,,,,,,,,,,,0,0,0,0,0
2.8327,1783967458.3690,1,1,1.5000,-0.0000,1.42243,-0.00445,-2.63179,1.06536,1.57080,0.11675,-0.12764,-0.48144,0.03558,,,,,,,,,,,,,,,,,,,,,,,,,,0,0,0,0,0
2.8330,1783967458.3692,1,1,1.5000,-0.0000,1.42243,-0.00445,-2.63179,1.06536,1.57080,0.11675,-0.12764,-0.48144,0.03558,,,,,,,,,,,,,,,,,,,,,,,,,,0,0,0,0,0
2.8421,1783967458.3783,1,1,1.5000,-0.0000,1.42242,-0.00456,-2.63181,1.06550,1.57080,0.11675,-0.12764,-0.48145,0.03554,,,,,,,,,,,,,,,,,,,,,,,,,,0,0,0,0,0
2.8485,1783967458.3848,1,1,1.5000,-0.0000,1.42242,-0.00457,-2.63181,1.06551,1.57080,0.11675,-0.12764,-0.48145,0.03554,,,,,,,,,,,,,,,,,,,,,,,,,,0,0,0,0,0
2.8584,1783967458.3947,1,1,1.5000,-0.0000,1.42242,-0.00464,-2.63182,1.06560,1.57080,0.11675,-0.12764,-0.48145,0.03552,,,,,,,,,,,,,,,,,,,,,,,,,,0,0,0,0,0
2.8711,1783967458.4074,1,1,1.5000,-0.0000,1.42242,-0.00478,-2.63184,1.06576,1.57080,0.11675,-0.12764,-0.48146,0.03548,,,,,,,,,,,,,,,,,,,,,,,,,,0,0,0,0,0
2.8714,1783967458.4077,1,1,1.5000,-0.0000,1.42242,-0.00478,-2.63184,1.06576,1.57080,0.11675,-0.12764,-0.48146,0.03548,,,,,,,,,,,,,,,,,,,,,,,,,,0,0,0,0,0
2.8763,1783967458.4126,1,1,1.5000,-0.0000,1.42242,-0.00483,-2.63185,1.06582,1.57080,0.11675,-0.12763,-0.48146,0.03546,,,,,,,,,,,,,,,,,,,,,,,,,,0,0,0,0,0
2.8862,1783967458.4225,1,1,1.5000,-0.0000,1.42242,-0.00498,-2.63187,1.06601,1.57080,0.11675,-0.12763,-0.48147,0.03542,,,,,,,,,,,,,,,,,,,,,,,,,,0,0,0,0,0
2.8865,1783967458.4228,1,1,1.5000,-0.0000,1.42242,-0.00498,-2.63187,1.06601,1.57080,0.11675,-0.12763,-0.48147,0.03542,,,,,,,,,,,,,,,,,,,,,,,,,,0,0,0,0,0
2.8964,1783967458.4327,1,1,1.5000,-0.0000,1.42242,-0.00506,-2.63188,1.06611,1.57080,0.11675,-0.12763,-0.48148,0.03539,,,,,,,,,,,,,,,,,,,,,,,,,,0,0,0,0,0
2.9104,1783967458.4467,1,1,1.5000,-0.0000,1.42242,-0.00512,-2.63189,1.06619,1.57080,0.11675,-0.12763,-0.48148,0.03538,,,,,,,,,,,,,,,,,,,,,,,,,,0,0,0,0,0
2.9286,1783967458.4649,1,1,1.5000,-0.0000,1.42242,-0.00512,-2.63189,1.06619,1.57080,0.11675,-0.12763,-0.48148,0.03538,,,,,,,,,,,,,,,,,,,,,,,,,,0,0,0,0,0
2.9294,1783967458.4657,1,1,1.5000,-0.0000,1.42242,-0.00512,-2.63189,1.06619,1.57080,0.11675,-0.12763,-0.48148,0.03538,,,,,,,,,,,,,,,,,,,,,,,,,,0,0,0,0,0
2.9295,1783967458.4658,1,1,1.5000,-0.0000,1.42242,-0.00512,-2.63189,1.06619,1.57080,0.11675,-0.12763,-0.48148,0.03538,,,,,,,,,,,,,,,,,,,,,,,,,,0,0,0,0,0
2.9392,1783967458.4755,1,1,1.5000,-0.0000,1.42242,-0.00512,-2.63189,1.06619,1.57080,0.11675,-0.12763,-0.48148,0.03538,,,,,,,,,,,,,,,,,,,,,,,,,,0,0,0,0,0
2.9593,1783967458.4956,1,1,1.5000,-0.0000,1.42242,-0.00512,-2.63189,1.06619,1.57080,0.11675,-0.12763,-0.48148,0.03538,,,,,,,,,,,,,,,,,,,,,,,,,,0,0,0,0,0
2.9598,1783967458.4961,1,1,1.5000,-0.0000,1.42242,-0.00512,-2.63189,1.06619,1.57080,0.11675,-0.12763,-0.48148,0.03538,,,,,,,,,,,,,,,,,,,,,,,,,,0,0,0,0,0
2.9660,1783967458.5023,1,1,1.5000,-0.0000,1.42242,-0.00512,-2.63189,1.06619,1.57080,0.11675,-0.12763,-0.48148,0.03538,,,,,,,,,,,,,,,,,,,,,,,,,,0,0,0,0,0
2.9664,1783967458.5027,1,1,1.5000,-0.0000,1.42242,-0.00512,-2.63189,1.06619,1.57080,0.11675,-0.12763,-0.48148,0.03538,,,,,,,,,,,,,,,,,,,,,,,,,,0,0,0,0,0
2.9883,1783967458.5246,1,1,1.5000,-0.0000,1.42242,-0.00512,-2.63189,1.06619,1.57080,0.11675,-0.12763,-0.48148,0.03538,,,,,,,,,,,,,,,,,,,,,,,,,,0,0,0,0,0
2.9891,1783967458.5254,1,1,1.5000,-0.0000,1.42242,-0.00512,-2.63189,1.06619,1.57080,0.11675,-0.12763,-0.48148,0.03538,,,,,,,,,,,,,,,,,,,,,,,,,,0,0,0,0,0
2.9896,1783967458.5259,1,1,1.5000,-0.0000,1.42242,-0.00512,-2.63189,1.06619,1.57080,0.11675,-0.12763,-0.48148,0.03538,,,,,,,,,,,,,,,,,,,,,,,,,,0,0,0,0,0
2.9954,1783967458.5317,1,1,1.5000,-0.0000,1.42242,-0.00512,-2.63189,1.06619,1.57080,0.11675,-0.12763,-0.48148,0.03538,,,,,,,,,,,,,,,,,,,,,,,,,,0,0,0,0,0
2.9958,1783967458.5320,1,1,1.5000,-0.0000,1.42242,-0.00512,-2.63189,1.06619,1.57080,0.11675,-0.12763,-0.48148,0.03538,,,,,,,,,,,,,,,,,,,,,,,,,,0,0,0,0,0
3.0067,1783967458.5429,1,1,1.5000,-0.0000,1.42242,-0.00512,-2.63189,1.06619,1.57080,0.11675,-0.12763,-0.48148,0.03538,,,,,,,,,,,,,,,,,,,,,,,,,,0,0,0,0,0
3.0269,1783967458.5632,1,1,1.5000,-0.0000,1.42242,-0.00512,-2.63189,1.06619,1.57080,0.11675,-0.12763,-0.48148,0.03538,,,,,,,,,,,,,,,,,,,,,,,,,,0,0,0,0,0
3.0282,1783967458.5644,1,1,1.5000,-0.0000,1.42242,-0.00512,-2.63189,1.06619,1.57080,0.11675,-0.12763,-0.48148,0.03538,,,,,,,,,,,,,,,,,,,,,,,,,,0,0,0,0,0
3.0285,1783967458.5648,1,1,1.5000,-0.0000,1.42242,-0.00512,-2.63189,1.06619,1.57080,0.11675,-0.12763,-0.48148,0.03538,,,,,,,,,,,,,,,,,,,,,,,,,,0,0,0,0,0
3.0365,1783967458.5728,1,1,1.5000,-0.0000,1.42242,-0.00512,-2.63189,1.06619,1.57080,0.11675,-0.12763,-0.48148,0.03538,,,,,,,,,,,,,,,,,,,,,,,,,,0,0,0,0,0
3.0498,1783967458.5861,1,1,1.5000,-0.0000,1.42242,-0.00512,-2.63189,1.06619,1.57080,0.11675,-0.12763,-0.48148,0.03538,,,,,,,,,,,,,,,,,,,,,,,,,,0,0,0,0,0
3.0559,1783967458.5922,1,1,1.5000,-0.0000,1.42242,-0.00512,-2.63189,1.06619,1.57080,0.11675,-0.12763,-0.48148,0.03538,,,,,,,,,,,,,,,,,,,,,,,,,,0,0,0,0,0
3.0562,1783967458.5925,1,1,1.5000,-0.0000,1.42242,-0.00512,-2.63189,1.06619,1.57080,0.11675,-0.12763,-0.48148,0.03538,,,,,,,,,,,,,,,,,,,,,,,,,,0,0,0,0,0
3.0659,1783967458.6022,1,1,1.5000,-0.0000,1.42242,-0.00512,-2.63189,1.06619,1.57080,0.11675,-0.12763,-0.48148,0.03538,,,,,,,,,,,,,,,,,,,,,,,,,,0,0,0,0,0
3.0776,1783967458.6139,1,1,1.5000,-0.0000,1.42242,-0.00512,-2.63189,1.06619,1.57080,0.11675,-0.12763,-0.48148,0.03538,,,,,,,,,,,,,,,,,,,,,,,,,,0,0,0,0,0
3.0779,1783967458.6142,1,1,1.5000,-0.0000,1.42242,-0.00512,-2.63189,1.06619,1.57080,0.11675,-0.12763,-0.48148,0.03538,,,,,,,,,,,,,,,,,,,,,,,,,,0,0,0,0,0
3.0899,1783967458.6262,1,1,1.5000,-0.0000,1.42242,-0.00512,-2.63189,1.06619,1.57080,0.11675,-0.12763,-0.48148,0.03538,,,,,,,,,,,,,,,,,,,,,,,,,,0,0,0,0,0
3.0903,1783967458.6266,1,1,1.5000,-0.0000,1.42242,-0.00512,-2.63189,1.06619,1.57080,0.11675,-0.12763,-0.48148,0.03538,,,,,,,,,,,,,,,,,,,,,,,,,,0,0,0,0,0
3.0955,1783967458.6318,1,1,1.5000,-0.0000,1.42242,-0.00512,-2.63189,1.06619,1.57080,0.11675,-0.12763,-0.48148,0.03538,,,,,,,,,,,,,,,,,,,,,,,,,,0,0,0,0,0
3.1089,1783967458.6452,1,1,1.5000,-0.0000,1.42242,-0.00512,-2.63189,1.06619,1.57080,0.11675,-0.12763,-0.48148,0.03538,,,,,,,,,,,,,,,,,,,,,,,,,,0,0,0,0,0
3.1176,1783967458.6539,1,1,1.5000,-0.0000,1.42242,-0.00512,-2.63189,1.06619,1.57080,0.11675,-0.12763,-0.48148,0.03538,,,,,,,,,,,,,,,,,,,,,,,,,,0,0,0,0,0
3.1292,1783967458.6655,1,1,1.5000,-0.0000,1.42242,-0.00513,-2.63188,1.06621,1.57080,0.11675,-0.12763,-0.48149,0.03538,,,,,,,,,,,,,,,,,,,,,,,,,,0,0,0,0,0
3.1300,1783967458.6663,1,1,1.5000,-0.0000,1.42242,-0.00514,-2.63188,1.06622,1.57080,0.11675,-0.12763,-0.48149,0.03537,,,,,,,,,,,,,,,,,,,,,,,,,,0,0,0,0,0
3.1380,1783967458.6743,1,1,1.5000,-0.0000,1.42242,-0.00515,-2.63188,1.06624,1.57080,0.11675,-0.12763,-0.48150,0.03537,,,,,,,,,,,,,,,,,,,,,,,,,,0,0,0,0,0
3.1510,1783967458.6873,1,1,1.5000,-0.0000,1.42242,-0.00517,-2.63188,1.06626,1.57080,0.11675,-0.12763,-0.48150,0.03537,,,,,,,,,,,,,,,,,,,,,,,,,,0,0,0,0,0
3.1512,1783967458.6875,1,1,1.5000,-0.0000,1.42242,-0.00517,-2.63188,1.06626,1.57080,0.11675,-0.12763,-0.48150,0.03537,,,,,,,,,,,,,,,,,,,,,,,,,,0,0,0,0,0
3.1581,1783967458.6944,1,1,1.5000,-0.0000,1.42242,-0.00518,-2.63189,1.06628,1.57080,0.11675,-0.12763,-0.48149,0.03536,,,,,,,,,,,,,,,,,,,,,,,,,,0,0,0,0,0
3.1584,1783967458.6947,1,1,1.5000,-0.0000,1.42242,-0.00518,-2.63189,1.06628,1.57080,0.11675,-0.12763,-0.48149,0.03536,,,,,,,,,,,,,,,,,,,,,,,,,,0,0,0,0,0
3.1683,1783967458.7046,1,1,1.5000,-0.0000,1.42242,-0.00521,-2.63192,1.06632,1.57080,0.11675,-0.12763,-0.48148,0.03534,,,,,,,,,,,,,,,,,,,,,,,,,,0,0,0,0,0
3.1798,1783967458.7161,1,1,1.5000,-0.0000,1.42242,-0.00528,-2.63196,1.06639,1.57080,0.11675,-0.12763,-0.48146,0.03531,,,,,,,,,,,,,,,,,,,,,,,,,,0,0,0,0,0
3.1801,1783967458.7164,1,1,1.5000,-0.0000,1.42242,-0.00528,-2.63196,1.06639,1.57080,0.11675,-0.12763,-0.48146,0.03531,,,,,,,,,,,,,,,,,,,,,,,,,,0,0,0,0,0
3.1940,1783967458.7303,1,1,1.5000,-0.0000,1.42242,-0.00539,-2.63203,1.06652,1.57080,0.11675,-0.12764,-0.48142,0.03525,,,,,,,,,,,,,,,,,,,,,,,,,,0,0,0,0,0
3.1943,1783967458.7306,1,1,1.5000,-0.0000,1.42242,-0.00539,-2.63203,1.06652,1.57080,0.11675,-0.12764,-0.48142,0.03525,,,,,,,,,,,,,,,,,,,,,,,,,,0,0,0,0,0
3.1956,1783967458.7318,1,1,1.5000,-0.0000,1.42242,-0.00539,-2.63203,1.06652,1.57080,0.11675,-0.12764,-0.48142,0.03525,,,,,,,,,,,,,,,,,,,,,,,,,,0,0,0,0,0
3.1960,1783967458.7322,1,1,1.5000,-0.0000,1.42242,-0.00539,-2.63203,1.06652,1.57080,0.11675,-0.12764,-0.48142,0.03525,,,,,,,,,,,,,,,,,,,,,,,,,,0,0,0,0,0
3.2067,1783967458.7430,1,1,1.5000,-0.0000,1.42242,-0.00542,-2.63205,1.06656,1.57080,0.11675,-0.12764,-0.48141,0.03523,,,,,,,,,,,,,,,,,,,,,,,,,,0,0,0,0,0
3.2181,1783967458.7544,1,1,1.5000,-0.0000,1.42242,-0.00547,-2.63206,1.06662,1.57080,0.11675,-0.12764,-0.48141,0.03522,,,,,,,,,,,,,,,,,,,,,,,,,,0,0,0,0,0
3.2269,1783967458.7632,1,1,1.5000,-0.0000,1.42242,-0.00552,-2.63206,1.06669,1.57080,0.11675,-0.12764,-0.48142,0.03520,,,,,,,,,,,,,,,,,,,,,,,,,,0,0,0,0,0
3.2431,1783967458.7793,1,1,1.5000,-0.0000,1.42242,-0.00558,-2.63207,1.06675,1.57080,0.11675,-0.12764,-0.48142,0.03519,,,,,,,,,,,,,,,,,,,,,,,,,,0,0,0,0,0
3.2466,1783967458.7829,1,1,1.5000,-0.0000,1.42242,-0.00560,-2.63207,1.06678,1.57080,0.11675,-0.12764,-0.48143,0.03518,,,,,,,,,,,,,,,,,,,,,,,,,,0,0,0,0,0
3.2470,1783967458.7832,1,1,1.5000,-0.0000,1.42242,-0.00560,-2.63207,1.06678,1.57080,0.11675,-0.12764,-0.48143,0.03518,,,,,,,,,,,,,,,,,,,,,,,,,,0,0,0,0,0
3.2664,1783967458.8027,1,1,1.5000,-0.0000,1.42242,-0.00570,-2.63208,1.06690,1.57080,0.11675,-0.12764,-0.48143,0.03515,,,,,,,,,,,,,,,,,,,,,,,,,,0,0,0,0,0
3.2742,1783967458.8105,1,1,1.5000,-0.0000,1.42242,-0.00577,-2.63209,1.06698,1.57080,0.11675,-0.12764,-0.48144,0.03513,,,,,,,,,,,,,,,,,,,,,,,,,,0,0,0,0,0
3.2816,1783967458.8179,1,1,1.5000,-0.0000,1.42242,-0.00587,-2.63210,1.06710,1.57080,0.11675,-0.12763,-0.48145,0.03510,,,,,,,,,,,,,,,,,,,,,,,,,,0,0,0,0,0
3.2863,1783967458.8225,1,1,1.5000,-0.0000,1.42242,-0.00592,-2.63211,1.06716,1.57080,0.11675,-0.12763,-0.48145,0.03508,,,,,,,,,,,,,,,,,,,,,,,,,,0,0,0,0,0
3.2984,1783967458.8347,1,1,1.5000,-0.0000,1.42242,-0.00598,-2.63211,1.06724,1.57080,0.11675,-0.12763,-0.48146,0.03507,,,,,,,,,,,,,,,,,,,,,,,,,,0,0,0,0,0
3.3075,1783967458.8437,1,1,1.5000,-0.0000,1.42242,-0.00601,-2.63211,1.06728,1.57080,0.11675,-0.12763,-0.48146,0.03506,,,,,,,,,,,,,,,,,,,,,,,,,,0,0,0,0,0
3.3389,1783967458.8751,1,1,1.5000,-0.0000,1.42242,-0.00628,-2.63210,1.06761,1.57080,0.11675,-0.12762,-0.48151,0.03500,,,,,,,,,,,,,,,,,,,,,,,,,,0,0,0,0,0
3.3392,1783967458.8755,1,1,1.5000,-0.0000,1.42242,-0.00628,-2.63210,1.06761,1.57080,0.11675,-0.12762,-0.48151,0.03500,,,,,,,,,,,,,,,,,,,,,,,,,,0,0,0,0,0
3.3395,1783967458.8758,1,1,1.5000,-0.0000,1.42242,-0.00628,-2.63210,1.06761,1.57080,0.11675,-0.12762,-0.48151,0.03500,,,,,,,,,,,,,,,,,,,,,,,,,,0,0,0,0,0
3.3426,1783967458.8789,1,1,1.5000,-0.0000,1.42242,-0.00631,-2.63210,1.06765,1.57080,0.11675,-0.12762,-0.48152,0.03500,,,,,,,,,,,,,,,,,,,,,,,,,,0,0,0,0,0
3.3478,1783967458.8841,1,1,1.5000,-0.0000,1.42242,-0.00633,-2.63209,1.06768,1.57080,0.11675,-0.12762,-0.48153,0.03499,,,,,,,,,,,,,,,,,,,,,,,,,,0,0,0,0,0
3.3570,1783967458.8933,1,1,1.5000,-0.0000,1.42242,-0.00637,-2.63208,1.06773,1.57080,0.11675,-0.12762,-0.48155,0.03499,,,,,,,,,,,,,,,,,,,,,,,,,,0,0,0,0,0
3.3577,1783967458.8939,1,1,1.5000,-0.0000,1.42242,-0.00637,-2.63208,1.06773,1.57080,0.11675,-0.12762,-0.48155,0.03499,,,,,,,,,,,,,,,,,,,,,,,,,,0,0,0,0,0
3.3703,1783967458.9066,1,1,1.5000,-0.0000,1.42242,-0.00637,-2.63208,1.06773,1.57080,0.11675,-0.12762,-0.48155,0.03499,,,,,,,,,,,,,,,,,,,,,,,,,,0,0,0,0,0
3.3706,1783967458.9069,1,1,1.5000,-0.0000,1.42242,-0.00637,-2.63208,1.06773,1.57080,0.11675,-0.12762,-0.48155,0.03499,,,,,,,,,,,,,,,,,,,,,,,,,,0,0,0,0,0
3.3828,1783967458.9191,1,1,1.5000,-0.0000,1.42242,-0.00637,-2.63208,1.06773,1.57080,0.11675,-0.12762,-0.48155,0.03499,,,,,,,,,,,,,,,,,,,,,,,,,,0,0,0,0,0
3.4019,1783967458.9382,1,1,1.5000,-0.0000,1.42242,-0.00637,-2.63208,1.06773,1.57080,0.11675,-0.12762,-0.48155,0.03499,,,,,,,,,,,,,,,,,,,,,,,,,,0,0,0,0,0
3.4059,1783967458.9422,1,1,1.5000,-0.0000,1.42242,-0.00637,-2.63208,1.06773,1.57080,0.11675,-0.12762,-0.48155,0.03499,,,,,,,,,,,,,,,,,,,,,,,,,,0,0,0,0,0
3.4062,1783967458.9425,1,1,1.5000,-0.0000,1.42242,-0.00637,-2.63208,1.06773,1.57080,0.11675,-0.12762,-0.48155,0.03499,,,,,,,,,,,,,,,,,,,,,,,,,,0,0,0,0,0
3.4096,1783967458.9459,1,1,1.5000,-0.0000,1.42242,-0.00637,-2.63208,1.06773,1.57080,0.11675,-0.12762,-0.48155,0.03499,,,,,,,,,,,,,,,,,,,,,,,,,,0,0,0,0,0
3.4318,1783967458.9681,1,1,1.5000,-0.0000,1.42242,-0.00637,-2.63208,1.06773,1.57080,0.11675,-0.12762,-0.48155,0.03499,,,,,,,,,,,,,,,,,,,,,,,,,,0,0,0,0,0
3.4386,1783967458.9749,1,1,1.5000,-0.0000,1.42242,-0.00637,-2.63208,1.06773,1.57080,0.11675,-0.12762,-0.48155,0.03499,,,,,,,,,,,,,,,,,,,,,,,,,,0,0,0,0,0
3.4425,1783967458.9787,1,1,1.5000,-0.0000,1.42242,-0.00637,-2.63208,1.06773,1.57080,0.11675,-0.12762,-0.48155,0.03499,,,,,,,,,,,,,,,,,,,,,,,,,,0,0,0,0,0
3.4427,1783967458.9790,1,1,1.5000,-0.0000,1.42242,-0.00637,-2.63208,1.06773,1.57080,0.11675,-0.12762,-0.48155,0.03499,,,,,,,,,,,,,,,,,,,,,,,,,,0,0,0,0,0
3.4472,1783967458.9835,1,1,1.5000,-0.0000,1.42242,-0.00637,-2.63208,1.06773,1.57080,0.11675,-0.12762,-0.48155,0.03499,,,,,,,,,,,,,,,,,,,,,,,,,,0,0,0,0,0
3.4600,1783967458.9963,1,1,1.5000,-0.0000,1.42242,-0.00637,-2.63208,1.06773,1.57080,0.11675,-0.12762,-0.48155,0.03499,,,,,,,,,,,,,,,,,,,,,,,,,,0,0,0,0,0
3.4603,1783967458.9966,1,1,1.5000,-0.0000,1.42242,-0.00637,-2.63208,1.06773,1.57080,0.11675,-0.12762,-0.48155,0.03499,,,,,,,,,,,,,,,,,,,,,,,,,,0,0,0,0,0
3.4739,1783967459.0102,1,1,1.5000,-0.0000,1.42242,-0.00637,-2.63208,1.06773,1.57080,0.11675,-0.12762,-0.48155,0.03499,,,,,,,,,,,,,,,,,,,,,,,,,,0,0,0,0,0
3.4830,1783967459.0193,1,1,1.5000,-0.0000,1.42242,-0.00637,-2.63208,1.06773,1.57080,0.11675,-0.12762,-0.48155,0.03499,,,,,,,,,,,,,,,,,,,,,,,,,,0,0,0,0,0
3.4921,1783967459.0284,1,1,1.5000,-0.0000,1.42242,-0.00637,-2.63208,1.06773,1.57080,0.11675,-0.12762,-0.48155,0.03499,,,,,,,,,,,,,,,,,,,,,,,,,,0,0,0,0,0
3.5043,1783967459.0406,1,1,1.5000,-0.0000,1.42242,-0.00637,-2.63208,1.06773,1.57080,0.11675,-0.12762,-0.48155,0.03499,,,,,,,,,,,,,,,,,,,,,,,,,,0,0,0,0,0
3.5093,1783967459.0456,1,1,1.5000,-0.0000,1.42242,-0.00637,-2.63208,1.06773,1.57080,0.11675,-0.12762,-0.48155,0.03499,,,,,,,,,,,,,,,,,,,,,,,,,,0,0,0,0,0
3.5216,1783967459.0579,1,1,1.5000,-0.0000,1.42242,-0.00637,-2.63208,1.06773,1.57080,0.11675,-0.12762,-0.48155,0.03499,,,,,,,,,,,,,,,,,,,,,,,,,,0,0,0,0,0
3.5219,1783967459.0582,1,1,1.5000,-0.0000,1.42242,-0.00637,-2.63208,1.06773,1.57080,0.11675,-0.12762,-0.48155,0.03499,,,,,,,,,,,,,,,,,,,,,,,,,,0,0,0,0,0
3.5261,1783967459.0624,1,1,1.5000,-0.0000,1.42242,-0.00637,-2.63208,1.06773,1.57080,0.11675,-0.12762,-0.48155,0.03499,,,,,,,,,,,,,,,,,,,,,,,,,,0,0,0,0,0
3.5265,1783967459.0628,1,1,1.5000,-0.0000,1.42242,-0.00637,-2.63208,1.06773,1.57080,0.11675,-0.12762,-0.48155,0.03499,,,,,,,,,,,,,,,,,,,,,,,,,,0,0,0,0,0
3.5387,1783967459.0750,1,1,1.5000,-0.0000,1.42242,-0.00637,-2.63208,1.06773,1.57080,0.11675,-0.12762,-0.48155,0.03499,,,,,,,,,,,,,,,,,,,,,,,,,,0,0,0,0,0
3.5459,1783967459.0822,1,1,1.5000,-0.0000,1.42242,-0.00637,-2.63208,1.06773,1.57080,0.11675,-0.12762,-0.48155,0.03499,,,,,,,,,,,,,,,,,,,,,,,,,,0,0,0,0,0
3.5601,1783967459.0963,1,1,1.5000,-0.0000,1.42242,-0.00637,-2.63208,1.06773,1.57080,0.11675,-0.12762,-0.48155,0.03499,,,,,,,,,,,,,,,,,,,,,,,,,,0,0,0,0,0
3.5605,1783967459.0968,1,1,1.5000,-0.0000,1.42242,-0.00637,-2.63208,1.06773,1.57080,0.11675,-0.12762,-0.48155,0.03499,,,,,,,,,,,,,,,,,,,,,,,,,,0,0,0,0,0
3.5674,1783967459.1037,1,1,1.5000,-0.0000,1.42242,-0.00637,-2.63208,1.06773,1.57080,0.11675,-0.12762,-0.48155,0.03499,,,,,,,,,,,,,,,,,,,,,,,,,,0,0,0,0,0
3.5680,1783967459.1043,1,1,1.5000,-0.0000,1.42242,-0.00637,-2.63208,1.06773,1.57080,0.11675,-0.12762,-0.48155,0.03499,,,,,,,,,,,,,,,,,,,,,,,,,,0,0,0,0,0
3.5759,1783967459.1121,1,1,1.5000,-0.0000,1.42242,-0.00638,-2.63209,1.06774,1.57080,0.11675,-0.12762,-0.48154,0.03499,,,,,,,,,,,,,,,,,,,,,,,,,,0,0,0,0,0
3.5887,1783967459.1249,1,1,1.5000,-0.0000,1.42242,-0.00641,-2.63213,1.06778,1.57080,0.11675,-0.12762,-0.48152,0.03496,,,,,,,,,,,,,,,,,,,,,,,,,,0,0,0,0,0
3.5889,1783967459.1252,1,1,1.5000,-0.0000,1.42242,-0.00641,-2.63213,1.06778,1.57080,0.11675,-0.12762,-0.48152,0.03496,,,,,,,,,,,,,,,,,,,,,,,,,,0,0,0,0,0
3.5956,1783967459.1319,1,1,1.5000,-0.0000,1.42242,-0.00643,-2.63214,1.06780,1.57080,0.11675,-0.12762,-0.48151,0.03495,,,,,,,,,,,,,,,,,,,,,,,,,,0,0,0,0,0
3.5959,1783967459.1322,1,1,1.5000,-0.0000,1.42242,-0.00643,-2.63214,1.06780,1.57080,0.11675,-0.12762,-0.48151,0.03495,,,,,,,,,,,,,,,,,,,,,,,,,,0,0,0,0,0
3.6100,1783967459.1463,1,1,1.5000,-0.0000,1.42242,-0.00647,-2.63217,1.06785,1.57080,0.11675,-0.12763,-0.48149,0.03493,,,,,,,,,,,,,,,,,,,,,,,,,,0,0,0,0,0
3.6164,1783967459.1527,1,1,1.5000,-0.0000,1.42242,-0.00649,-2.63219,1.06787,1.57080,0.11675,-0.12763,-0.48148,0.03491,,,,,,,,,,,,,,,,,,,,,,,,,,0,0,0,0,0
3.6294,1783967459.1657,1,1,1.5000,-0.0000,1.42242,-0.00651,-2.63220,1.06789,1.57080,0.11675,-0.12763,-0.48148,0.03491,,,,,,,,,,,,,,,,,,,,,,,,,,0,0,0,0,0
3.6412,1783967459.1774,1,1,1.5000,-0.0000,1.42242,-0.00658,-2.63223,1.06798,1.57080,0.11675,-0.12763,-0.48147,0.03488,,,,,,,,,,,,,,,,,,,,,,,,,,0,0,0,0,0
3.6503,1783967459.1866,1,1,1.5000,-0.0000,1.42242,-0.00666,-2.63225,1.06807,1.57080,0.11675,-0.12763,-0.48146,0.03484,,,,,,,,,,,,,,,,,,,,,,,,,,0,0,0,0,0
3.6508,1783967459.1871,1,1,1.5000,-0.0000,1.42242,-0.00666,-2.63225,1.06807,1.57080,0.11675,-0.12763,-0.48146,0.03484,,,,,,,,,,,,,,,,,,,,,,,,,,0,0,0,0,0
3.6554,1783967459.1917,1,1,1.5000,-0.0000,1.42242,-0.00666,-2.63225,1.06808,1.57080,0.11675,-0.12763,-0.48146,0.03484,,,,,,,,,,,,,,,,,,,,,,,,,,0,0,0,0,0
3.6784,1783967459.2147,1,1,1.5000,-0.0000,1.42242,-0.00687,-2.63230,1.06833,1.57080,0.11675,-0.12763,-0.48146,0.03477,,,,,,,,,,,,,,,,,,,,,,,,,,0,0,0,0,0
3.6801,1783967459.2164,1,1,1.5000,-0.0000,1.42242,-0.00687,-2.63230,1.06833,1.57080,0.11675,-0.12763,-0.48146,0.03477,,,,,,,,,,,,,,,,,,,,,,,,,,0,0,0,0,0
3.6925,1783967459.2287,1,1,1.5000,-0.0000,1.42242,-0.00693,-2.63232,1.06841,1.57080,0.11675,-0.12763,-0.48146,0.03475,,,,,,,,,,,,,,,,,,,,,,,,,,0,0,0,0,0
3.6980,1783967459.2343,1,1,1.5000,-0.0000,1.42242,-0.00697,-2.63232,1.06845,1.57080,0.11675,-0.12763,-0.48146,0.03474,,,,,,,,,,,,,,,,,,,,,,,,,,0,0,0,0,0
3.6984,1783967459.2347,1,1,1.5000,-0.0000,1.42242,-0.00697,-2.63232,1.06845,1.57080,0.11675,-0.12763,-0.48146,0.03474,,,,,,,,,,,,,,,,,,,,,,,,,,0,0,0,0,0
3.7059,1783967459.2422,1,1,1.5000,-0.0000,1.42242,-0.00704,-2.63234,1.06854,1.57080,0.11675,-0.12763,-0.48146,0.03471,,,,,,,,,,,,,,,,,,,,,,,,,,0,0,0,0,0
3.7181,1783967459.2544,1,1,1.5000,-0.0000,1.42242,-0.00707,-2.63234,1.06856,1.57080,0.11675,-0.12763,-0.48147,0.03471,,,,,,,,,,,,,,,,,,,,,,,,,,0,0,0,0,0
3.7301,1783967459.2664,1,1,1.5000,-0.0000,1.42242,-0.00716,-2.63235,1.06868,1.57080,0.11675,-0.12763,-0.48147,0.03468,,,,,,,,,,,,,,,,,,,,,,,,,,0,0,0,0,0
3.7401,1783967459.2764,1,1,1.5000,-0.0000,1.42242,-0.00725,-2.63236,1.06880,1.57080,0.11675,-0.12763,-0.48148,0.03465,,,,,,,,,,,,,,,,,,,,,,,,,,0,0,0,0,0
3.7505,1783967459.2867,1,1,1.5000,-0.0000,1.42241,-0.00739,-2.63237,1.06897,1.57080,0.11675,-0.12762,-0.48150,0.03461,,,,,,,,,,,,,,,,,,,,,,,,,,0,0,0,0,0
3.7508,1783967459.2871,1,1,1.5000,-0.0000,1.42241,-0.00739,-2.63237,1.06897,1.57080,0.11675,-0.12762,-0.48150,0.03461,,,,,,,,,,,,,,,,,,,,,,,,,,0,0,0,0,0
3.7565,1783967459.2928,1,1,1.5000,-0.0000,1.42241,-0.00744,-2.63238,1.06903,1.57080,0.11675,-0.12762,-0.48150,0.03460,,,,,,,,,,,,,,,,,,,,,,,,,,0,0,0,0,0
3.7569,1783967459.2931,1,1,1.5000,-0.0000,1.42241,-0.00744,-2.63238,1.06903,1.57080,0.11675,-0.12762,-0.48150,0.03460,,,,,,,,,,,,,,,,,,,,,,,,,,0,0,0,0,0
3.7780,1783967459.3143,1,1,1.5000,-0.0000,1.42241,-0.00755,-2.63237,1.06917,1.57080,0.11675,-0.12762,-0.48152,0.03458,,,,,,,,,,,,,,,,,,,,,,,,,,0,0,0,0,0
3.7908,1783967459.3271,1,1,1.5000,-0.0000,1.42241,-0.00755,-2.63237,1.06917,1.57080,0.11675,-0.12762,-0.48152,0.03458,,,,,,,,,,,,,,,,,,,,,,,,,,0,0,0,0,0
3.7963,1783967459.3326,1,1,1.5000,-0.0000,1.42241,-0.00755,-2.63237,1.06917,1.57080,0.11675,-0.12762,-0.48152,0.03458,,,,,,,,,,,,,,,,,,,,,,,,,,0,0,0,0,0
3.8011,1783967459.3374,1,1,1.5000,-0.0000,1.42241,-0.00755,-2.63237,1.06917,1.57080,0.11675,-0.12762,-0.48152,0.03458,,,,,,,,,,,,,,,,,,,,,,,,,,0,0,0,0,0
3.8019,1783967459.3381,1,1,1.5000,-0.0000,1.42241,-0.00755,-2.63237,1.06917,1.57080,0.11675,-0.12762,-0.48152,0.03458,,,,,,,,,,,,,,,,,,,,,,,,,,0,0,0,0,0
3.8067,1783967459.3430,1,1,1.5000,-0.0000,1.42241,-0.00755,-2.63237,1.06917,1.57080,0.11675,-0.12762,-0.48152,0.03458,,,,,,,,,,,,,,,,,,,,,,,,,,0,0,0,0,0
3.8070,1783967459.3433,1,1,1.5000,-0.0000,1.42241,-0.00755,-2.63237,1.06917,1.57080,0.11675,-0.12762,-0.48152,0.03458,,,,,,,,,,,,,,,,,,,,,,,,,,0,0,0,0,0
3.8208,1783967459.3571,1,1,1.5000,-0.0000,1.42241,-0.00755,-2.63237,1.06917,1.57080,0.11675,-0.12762,-0.48152,0.03458,,,,,,,,,,,,,,,,,,,,,,,,,,0,0,0,0,0
3.8265,1783967459.3628,1,1,1.5000,-0.0000,1.42241,-0.00755,-2.63237,1.06917,1.57080,0.11675,-0.12762,-0.48152,0.03458,,,,,,,,,,,,,,,,,,,,,,,,,,0,0,0,0,0
3.8420,1783967459.3783,1,1,1.5000,-0.0000,1.42241,-0.00755,-2.63237,1.06917,1.57080,0.11675,-0.12762,-0.48152,0.03458,,,,,,,,,,,,,,,,,,,,,,,,,,0,0,0,0,0
3.8422,1783967459.3785,1,1,1.5000,-0.0000,1.42241,-0.00755,-2.63237,1.06917,1.57080,0.11675,-0.12762,-0.48152,0.03458,,,,,,,,,,,,,,,,,,,,,,,,,,0,0,0,0,0
3.8518,1783967459.3881,1,1,1.5000,-0.0000,1.42241,-0.00755,-2.63237,1.06917,1.57080,0.11675,-0.12762,-0.48152,0.03458,,,,,,,,,,,,,,,,,,,,,,,,,,0,0,0,0,0
3.8565,1783967459.3927,1,1,1.5000,-0.0000,1.42241,-0.00755,-2.63237,1.06917,1.57080,0.11675,-0.12762,-0.48152,0.03458,,,,,,,,,,,,,,,,,,,,,,,,,,0,0,0,0,0
3.8708,1783967459.4070,1,1,1.5000,-0.0000,1.42241,-0.00755,-2.63237,1.06917,1.57080,0.11675,-0.12762,-0.48152,0.03458,,,,,,,,,,,,,,,,,,,,,,,,,,0,0,0,0,0
3.8711,1783967459.4074,1,1,1.5000,-0.0000,1.42241,-0.00755,-2.63237,1.06917,1.57080,0.11675,-0.12762,-0.48152,0.03458,,,,,,,,,,,,,,,,,,,,,,,,,,0,0,0,0,0
3.8800,1783967459.4162,1,1,1.5000,-0.0000,1.42241,-0.00755,-2.63237,1.06917,1.57080,0.11675,-0.12762,-0.48152,0.03458,,,,,,,,,,,,,,,,,,,,,,,,,,0,0,0,0,0
3.8955,1783967459.4317,1,1,1.5000,-0.0000,1.42241,-0.00755,-2.63237,1.06917,1.57080,0.11675,-0.12762,-0.48152,0.03458,,,,,,,,,,,,,,,,,,,,,,,,,,0,0,0,0,0
3.8958,1783967459.4321,1,1,1.5000,-0.0000,1.42241,-0.00755,-2.63237,1.06917,1.57080,0.11675,-0.12762,-0.48152,0.03458,,,,,,,,,,,,,,,,,,,,,,,,,,0,0,0,0,0
3.9122,1783967459.4485,1,1,1.5000,-0.0000,1.42241,-0.00755,-2.63237,1.06917,1.57080,0.11675,-0.12762,-0.48152,0.03458,,,,,,,,,,,,,,,,,,,,,,,,,,0,0,0,0,0
3.9186,1783967459.4549,1,1,1.5000,-0.0000,1.42241,-0.00755,-2.63237,1.06917,1.57080,0.11675,-0.12762,-0.48152,0.03458,,,,,,,,,,,,,,,,,,,,,,,,,,0,0,0,0,0
3.9190,1783967459.4553,1,1,1.5000,-0.0000,1.42241,-0.00755,-2.63237,1.06917,1.57080,0.11675,-0.12762,-0.48152,0.03458,,,,,,,,,,,,,,,,,,,,,,,,,,0,0,0,0,0
3.9269,1783967459.4632,1,1,1.5000,-0.0000,1.42241,-0.00755,-2.63237,1.06917,1.57080,0.11675,-0.12762,-0.48152,0.03458,,,,,,,,,,,,,,,,,,,,,,,,,,0,0,0,0,0
3.9366,1783967459.4729,1,1,1.5000,-0.0000,1.42241,-0.00755,-2.63237,1.06917,1.57080,0.11675,-0.12762,-0.48152,0.03458,,,,,,,,,,,,,,,,,,,,,,,,,,0,0,0,0,0
3.9370,1783967459.4732,1,1,1.5000,-0.0000,1.42241,-0.00755,-2.63237,1.06917,1.57080,0.11675,-0.12762,-0.48152,0.03458,,,,,,,,,,,,,,,,,,,,,,,,,,0,0,0,0,0
3.9493,1783967459.4856,1,1,1.5000,-0.0000,1.42241,-0.00755,-2.63237,1.06917,1.57080,0.11675,-0.12762,-0.48152,0.03458,,,,,,,,,,,,,,,,,,,,,,,,,,0,0,0,0,0
3.9556,1783967459.4919,1,1,1.5000,-0.0000,1.42241,-0.00755,-2.63237,1.06917,1.57080,0.11675,-0.12762,-0.48152,0.03458,,,,,,,,,,,,,,,,,,,,,,,,,,0,0,0,0,0
3.9714,1783967459.5076,1,1,1.5000,-0.0000,1.42241,-0.00755,-2.63237,1.06917,1.57080,0.11675,-0.12762,-0.48152,0.03458,,,,,,,,,,,,,,,,,,,,,,,,,,0,0,0,0,0
3.9879,1783967459.5242,1,1,1.5000,-0.0000,1.42241,-0.00755,-2.63238,1.06918,1.57080,0.11675,-0.12762,-0.48152,0.03458,,,,,,,,,,,,,,,,,,,,,,,,,,0,0,0,0,0
3.9979,1783967459.5342,1,1,1.5000,-0.0000,1.42241,-0.00758,-2.63240,1.06921,1.57080,0.11675,-0.12762,-0.48151,0.03456,,,,,,,,,,,,,,,,,,,,,,,,,,0,0,0,0,0
3.9983,1783967459.5346,1,1,1.5000,-0.0000,1.42241,-0.00758,-2.63240,1.06921,1.57080,0.11675,-0.12762,-0.48151,0.03456,,,,,,,,,,,,,,,,,,,,,,,,,,0,0,0,0,0
4.0036,1783967459.5399,1,1,1.5000,-0.0000,1.42241,-0.00759,-2.63241,1.06922,1.57080,0.11675,-0.12762,-0.48150,0.03455,,,,,,,,,,,,,,,,,,,,,,,,,,0,0,0,0,0
4.0166,1783967459.5528,1,1,1.5000,-0.0000,1.42241,-0.00762,-2.63244,1.06926,1.57080,0.11675,-0.12763,-0.48149,0.03453,,,,,,,,,,,,,,,,,,,,,,,,,,0,0,0,0,0
4.0194,1783967459.5557,1,1,1.5000,-0.0000,1.42241,-0.00762,-2.63244,1.06926,1.57080,0.11675,-0.12763,-0.48149,0.03453,,,,,,,,,,,,,,,,,,,,,,,,,,0,0,0,0,0
4.0262,1783967459.5625,1,1,1.5000,-0.0000,1.42241,-0.00764,-2.63245,1.06928,1.57080,0.11675,-0.12763,-0.48148,0.03452,,,,,,,,,,,,,,,,,,,,,,,,,,0,0,0,0,0
4.0366,1783967459.5729,1,1,1.5000,-0.0000,1.42241,-0.00768,-2.63247,1.06932,1.57080,0.11675,-0.12763,-0.48147,0.03450,,,,,,,,,,,,,,,,,,,,,,,,,,0,0,0,0,0
4.0371,1783967459.5733,1,1,1.5000,-0.0000,1.42241,-0.00768,-2.63247,1.06932,1.57080,0.11675,-0.12763,-0.48147,0.03450,,,,,,,,,,,,,,,,,,,,,,,,,,0,0,0,0,0
4.0506,1783967459.5869,1,1,1.5000,-0.0000,1.42241,-0.00772,-2.63250,1.06938,1.57080,0.11675,-0.12763,-0.48146,0.03448,,,,,,,,,,,,,,,,,,,,,,,,,,0,0,0,0,0
4.0510,1783967459.5873,1,1,1.5000,-0.0000,1.42241,-0.00772,-2.63250,1.06938,1.57080,0.11675,-0.12763,-0.48146,0.03448,,,,,,,,,,,,,,,,,,,,,,,,,,0,0,0,0,0
4.0606,1783967459.5969,1,1,1.5000,-0.0000,1.42241,-0.00775,-2.63251,1.06941,1.57080,0.11675,-0.12763,-0.48146,0.03447,,,,,,,,,,,,,,,,,,,,,,,,,,0,0,0,0,0
4.0901,1783967459.6264,1,1,1.5000,-0.0000,1.42241,-0.00794,-2.63255,1.06964,1.57080,0.11675,-0.12763,-0.48146,0.03441,,,,,,,,,,,,,,,,,,,,,,,,,,0,0,0,0,0
4.1072,1783967459.6435,1,1,1.5000,-0.0000,1.42241,-0.00805,-2.63257,1.06977,1.57080,0.11675,-0.12763,-0.48146,0.03437,,,,,,,,,,,,,,,,,,,,,,,,,,0,0,0,0,0
4.1085,1783967459.6447,1,1,1.5000,-0.0000,1.42241,-0.00805,-2.63257,1.06977,1.57080,0.11675,-0.12763,-0.48146,0.03437,,,,,,,,,,,,,,,,,,,,,,,,,,0,0,0,0,0
4.1087,1783967459.6450,1,1,1.5000,-0.0000,1.42241,-0.00805,-2.63257,1.06977,1.57080,0.11675,-0.12763,-0.48146,0.03437,,,,,,,,,,,,,,,,,,,,,,,,,,0,0,0,0,0
4.1090,1783967459.6453,1,1,1.5000,-0.0000,1.42241,-0.00805,-2.63257,1.06977,1.57080,0.11675,-0.12763,-0.48146,0.03437,,,,,,,,,,,,,,,,,,,,,,,,,,0,0,0,0,0
4.1208,1783967459.6571,1,1,1.5000,-0.0000,1.42241,-0.00813,-2.63258,1.06986,1.57080,0.11675,-0.12763,-0.48146,0.03434,,,,,,,,,,,,,,,,,,,,,,,,,,0,0,0,0,0
4.1286,1783967459.6648,1,1,1.5000,-0.0000,1.42241,-0.00822,-2.63260,1.06997,1.57080,0.11675,-0.12763,-0.48146,0.03431,,,,,,,,,,,,,,,,,,,,,,,,,,0,0,0,0,0
4.1292,1783967459.6655,1,1,1.5000,-0.0000,1.42241,-0.00822,-2.63260,1.06997,1.57080,0.11675,-0.12763,-0.48146,0.03431,,,,,,,,,,,,,,,,,,,,,,,,,,0,0,0,0,0
4.1390,1783967459.6752,1,1,1.5000,-0.0000,1.42241,-0.00827,-2.63261,1.07003,1.57080,0.11675,-0.12763,-0.48146,0.03430,,,,,,,,,,,,,,,,,,,,,,,,,,0,0,0,0,0
4.1542,1783967459.6905,1,1,1.5000,-0.0000,1.42241,-0.00837,-2.63261,1.07015,1.57080,0.11675,-0.12763,-0.48147,0.03427,,,,,,,,,,,,,,,,,,,,,,,,,,0,0,0,0,0
4.1593,1783967459.6956,1,1,1.5000,-0.0000,1.42241,-0.00841,-2.63262,1.07020,1.57080,0.11675,-0.12762,-0.48148,0.03426,,,,,,,,,,,,,,,,,,,,,,,,,,0,0,0,0,0
4.1597,1783967459.6960,1,1,1.5000,-0.0000,1.42241,-0.00841,-2.63262,1.07020,1.57080,0.11675,-0.12762,-0.48148,0.03426,,,,,,,,,,,,,,,,,,,,,,,,,,0,0,0,0,0
4.1732,1783967459.7095,1,1,1.5000,-0.0000,1.42241,-0.00854,-2.63262,1.07036,1.57080,0.11675,-0.12762,-0.48149,0.03423,,,,,,,,,,,,,,,,,,,,,,,,,,0,0,0,0,0
4.1830,1783967459.7192,1,1,1.5000,-0.0000,1.42241,-0.00866,-2.63262,1.07051,1.57080,0.11675,-0.12762,-0.48151,0.03420,,,,,,,,,,,,,,,,,,,,,,,,,,0,0,0,0,0
4.1891,1783967459.7254,1,1,1.5000,-0.0000,1.42241,-0.00869,-2.63262,1.07055,1.57080,0.11675,-0.12762,-0.48152,0.03419,,,,,,,,,,,,,,,,,,,,,,,,,,0,0,0,0,0
4.2283,1783967459.7646,1,1,1.5000,-0.0000,1.42241,-0.00874,-2.63261,1.07062,1.57080,0.11675,-0.12762,-0.48154,0.03419,,,,,,,,,,,,,,,,,,,,,,,,,,0,0,0,0,0
4.2395,1783967459.7758,1,1,1.5000,-0.0000,1.42241,-0.00874,-2.63261,1.07062,1.57080,0.11675,-0.12762,-0.48154,0.03419,,,,,,,,,,,,,,,,,,,,,,,,,,0,0,0,0,0
4.2414,1783967459.7777,1,1,1.5000,-0.0000,1.42241,-0.00874,-2.63261,1.07062,1.57080,0.11675,-0.12762,-0.48154,0.03419,,,,,,,,,,,,,,,,,,,,,,,,,,0,0,0,0,0
4.2573,1783967459.7936,1,1,1.5000,-0.0000,1.42241,-0.00874,-2.63261,1.07062,1.57080,0.11675,-0.12762,-0.48154,0.03419,,,,,,,,,,,,,,,,,,,,,,,,,,0,0,0,0,0
4.2579,1783967459.7942,1,1,1.5000,-0.0000,1.42241,-0.00874,-2.63261,1.07062,1.57080,0.11675,-0.12762,-0.48154,0.03419,,,,,,,,,,,,,,,,,,,,,,,,,,0,0,0,0,0
4.2668,1783967459.8031,1,1,1.5000,-0.0000,1.42241,-0.00874,-2.63261,1.07062,1.57080,0.11675,-0.12762,-0.48154,0.03419,,,,,,,,,,,,,,,,,,,,,,,,,,0,0,0,0,0
4.2708,1783967459.8071,1,1,1.5000,-0.0000,1.42241,-0.00874,-2.63261,1.07062,1.57080,0.11675,-0.12762,-0.48154,0.03419,,,,,,,,,,,,,,,,,,,,,,,,,,0,0,0,0,0
4.2713,1783967459.8076,1,1,1.5000,-0.0000,1.42241,-0.00874,-2.63261,1.07062,1.57080,0.11675,-0.12762,-0.48154,0.03419,,,,,,,,,,,,,,,,,,,,,,,,,,0,0,0,0,0
4.2716,1783967459.8079,1,1,1.5000,-0.0000,1.42241,-0.00874,-2.63261,1.07062,1.57080,0.11675,-0.12762,-0.48154,0.03419,,,,,,,,,,,,,,,,,,,,,,,,,,0,0,0,0,0
4.2785,1783967459.8147,1,1,1.5000,-0.0000,1.42241,-0.00874,-2.63261,1.07062,1.57080,0.11675,-0.12762,-0.48154,0.03419,,,,,,,,,,,,,,,,,,,,,,,,,,0,0,0,0,0
4.2788,1783967459.8151,1,1,1.5000,-0.0000,1.42241,-0.00874,-2.63261,1.07062,1.57080,0.11675,-0.12762,-0.48154,0.03419,,,,,,,,,,,,,,,,,,,,,,,,,,0,0,0,0,0
4.2806,1783967459.8168,1,1,1.5000,-0.0000,1.42241,-0.00874,-2.63261,1.07062,1.57080,0.11675,-0.12762,-0.48154,0.03419,,,,,,,,,,,,,,,,,,,,,,,,,,0,0,0,0,0
4.2811,1783967459.8173,1,1,1.5000,-0.0000,1.42241,-0.00874,-2.63261,1.07062,1.57080,0.11675,-0.12762,-0.48154,0.03419,,,,,,,,,,,,,,,,,,,,,,,,,,0,0,0,0,0
4.2957,1783967459.8320,1,1,1.5000,-0.0000,1.42241,-0.00874,-2.63261,1.07062,1.57080,0.11675,-0.12762,-0.48154,0.03419,,,,,,,,,,,,,,,,,,,,,,,,,,0,0,0,0,0
4.3088,1783967459.8451,1,1,1.5000,-0.0000,1.42241,-0.00874,-2.63261,1.07062,1.57080,0.11675,-0.12762,-0.48154,0.03419,,,,,,,,,,,,,,,,,,,,,,,,,,0,0,0,0,0
4.3125,1783967459.8487,1,1,1.5000,-0.0000,1.42241,-0.00874,-2.63261,1.07062,1.57080,0.11675,-0.12762,-0.48154,0.03419,,,,,,,,,,,,,,,,,,,,,,,,,,0,0,0,0,0
4.3211,1783967459.8573,1,1,1.5000,-0.0000,1.42241,-0.00874,-2.63261,1.07062,1.57080,0.11675,-0.12762,-0.48154,0.03419,,,,,,,,,,,,,,,,,,,,,,,,,,0,0,0,0,0
4.3309,1783967459.8672,1,1,1.5000,-0.0000,1.42241,-0.00874,-2.63261,1.07062,1.57080,0.11675,-0.12762,-0.48154,0.03419,,,,,,,,,,,,,,,,,,,,,,,,,,0,0,0,0,0
4.3394,1783967459.8756,1,1,1.5000,-0.0000,1.42241,-0.00874,-2.63261,1.07062,1.57080,0.11675,-0.12762,-0.48154,0.03419,,,,,,,,,,,,,,,,,,,,,,,,,,0,0,0,0,0
4.3396,1783967459.8759,1,1,1.5000,-0.0000,1.42241,-0.00874,-2.63261,1.07062,1.57080,0.11675,-0.12762,-0.48154,0.03419,,,,,,,,,,,,,,,,,,,,,,,,,,0,0,0,0,0
4.3582,1783967459.8944,1,1,1.5000,-0.0000,1.42241,-0.00874,-2.63261,1.07062,1.57080,0.11675,-0.12762,-0.48154,0.03419,,,,,,,,,,,,,,,,,,,,,,,,,,0,0,0,0,0
4.3609,1783967459.8971,1,1,1.5000,-0.0000,1.42241,-0.00874,-2.63261,1.07062,1.57080,0.11675,-0.12762,-0.48154,0.03419,,,,,,,,,,,,,,,,,,,,,,,,,,0,0,0,0,0
4.3680,1783967459.9043,1,1,1.5000,-0.0000,1.42241,-0.00874,-2.63261,1.07062,1.57080,0.11675,-0.12762,-0.48154,0.03419,,,,,,,,,,,,,,,,,,,,,,,,,,0,0,0,0,0
4.3684,1783967459.9046,1,1,1.5000,-0.0000,1.42241,-0.00874,-2.63261,1.07062,1.57080,0.11675,-0.12762,-0.48154,0.03419,,,,,,,,,,,,,,,,,,,,,,,,,,0,0,0,0,0
4.3832,1783967459.9194,1,1,1.5000,-0.0000,1.42241,-0.00874,-2.63261,1.07062,1.57080,0.11675,-0.12762,-0.48154,0.03419,,,,,,,,,,,,,,,,,,,,,,,,,,0,0,0,0,0
4.3915,1783967459.9277,1,1,1.5000,-0.0000,1.42241,-0.00874,-2.63261,1.07062,1.57080,0.11675,-0.12762,-0.48154,0.03419,,,,,,,,,,,,,,,,,,,,,,,,,,0,0,0,0,0
4.3918,1783967459.9280,1,1,1.5000,-0.0000,1.42241,-0.00874,-2.63261,1.07062,1.57080,0.11675,-0.12762,-0.48154,0.03419,,,,,,,,,,,,,,,,,,,,,,,,,,0,0,0,0,0
4.4069,1783967459.9432,1,1,1.5000,-0.0000,1.42241,-0.00874,-2.63261,1.07062,1.57080,0.11675,-0.12762,-0.48154,0.03419,,,,,,,,,,,,,,,,,,,,,,,,,,0,0,0,0,0
4.4072,1783967459.9435,1,1,1.5000,-0.0000,1.42241,-0.00874,-2.63261,1.07062,1.57080,0.11675,-0.12762,-0.48154,0.03419,,,,,,,,,,,,,,,,,,,,,,,,,,0,0,0,0,0
4.4105,1783967459.9468,1,1,1.5000,-0.0000,1.42241,-0.00874,-2.63261,1.07062,1.57080,0.11675,-0.12762,-0.48154,0.03419,,,,,,,,,,,,,,,,,,,,,,,,,,0,0,0,0,0
4.4241,1783967459.9603,1,1,1.5000,-0.0000,1.42241,-0.00876,-2.63263,1.07064,1.57080,0.11675,-0.12762,-0.48153,0.03418,,,,,,,,,,,,,,,,,,,,,,,,,,0,0,0,0,0
4.4275,1783967459.9638,1,1,1.5000,-0.0000,1.42241,-0.00876,-2.63264,1.07065,1.57080,0.11675,-0.12762,-0.48152,0.03417,,,,,,,,,,,,,,,,,,,,,,,,,,0,0,0,0,0
4.4279,1783967459.9642,1,1,1.5000,-0.0000,1.42241,-0.00876,-2.63264,1.07065,1.57080,0.11675,-0.12762,-0.48152,0.03417,,,,,,,,,,,,,,,,,,,,,,,,,,0,0,0,0,0
4.4424,1783967459.9786,1,1,1.5000,-0.0000,1.42241,-0.00879,-2.63266,1.07068,1.57080,0.11675,-0.12762,-0.48151,0.03415,,,,,,,,,,,,,,,,,,,,,,,,,,0,0,0,0,0
4.4427,1783967459.9789,1,1,1.5000,-0.0000,1.42241,-0.00879,-2.63266,1.07068,1.57080,0.11675,-0.12762,-0.48151,0.03415,,,,,,,,,,,,,,,,,,,,,,,,,,0,0,0,0,0
4.4610,1783967459.9973,1,1,1.5000,-0.0000,1.42241,-0.00888,-2.63273,1.07078,1.57081,0.11675,-0.12762,-0.48147,0.03410,,,,,,,,,,,,,,,,,,,,,,,,,,0,0,0,0,0
4.4711,1783967460.0074,1,1,1.5000,-0.0000,1.42241,-0.00889,-2.63274,1.07079,1.57081,0.11675,-0.12763,-0.48147,0.03409,,,,,,,,,,,,,,,,,,,,,,,,,,0,0,0,0,0
4.4714,1783967460.0077,1,1,1.5000,-0.0000,1.42241,-0.00889,-2.63274,1.07079,1.57081,0.11675,-0.12763,-0.48147,0.03409,,,,,,,,,,,,,,,,,,,,,,,,,,0,0,0,0,0
4.5029,1783967460.0392,1,1,1.5000,-0.0000,1.42241,-0.00904,-2.63279,1.07097,1.57081,0.11675,-0.12763,-0.48145,0.03403,,,,,,,,,,,,,,,,,,,,,,,,,,0,0,0,0,0
4.5159,1783967460.0522,1,1,1.5000,-0.0000,1.42241,-0.00913,-2.63281,1.07108,1.57081,0.11675,-0.12763,-0.48145,0.03400,,,,,,,,,,,,,,,,,,,,,,,,,,0,0,0,0,0
4.5171,1783967460.0533,1,1,1.5000,-0.0000,1.42241,-0.00913,-2.63281,1.07108,1.57081,0.11675,-0.12763,-0.48145,0.03400,,,,,,,,,,,,,,,,,,,,,,,,,,0,0,0,0,0
4.5175,1783967460.0538,1,1,1.5000,-0.0000,1.42241,-0.00913,-2.63281,1.07108,1.57081,0.11675,-0.12763,-0.48145,0.03400,,,,,,,,,,,,,,,,,,,,,,,,,,0,0,0,0,0
4.5283,1783967460.0645,1,1,1.5000,-0.0000,1.42241,-0.00916,-2.63282,1.07112,1.57081,0.11675,-0.12763,-0.48145,0.03399,,,,,,,,,,,,,,,,,,,,,,,,,,0,0,0,0,0
4.5639,1783967460.1002,1,1,1.5000,-0.0000,1.42241,-0.00943,-2.63286,1.07144,1.57081,0.11675,-0.12763,-0.48146,0.03390,,,,,,,,,,,,,,,,,,,,,,,,,,0,0,0,0,0
4.5682,1783967460.1045,1,1,1.5000,-0.0000,1.42241,-0.00947,-2.63287,1.07148,1.57081,0.11675,-0.12763,-0.48146,0.03389,,,,,,,,,,,,,,,,,,,,,,,,,,0,0,0,0,0
4.5711,1783967460.1074,1,1,1.5000,-0.0000,1.42241,-0.00950,-2.63287,1.07152,1.57081,0.11675,-0.12762,-0.48146,0.03388,,,,,,,,,,,,,,,,,,,,,,,,,,0,0,0,0,0
4.5714,1783967460.1077,1,1,1.5000,-0.0000,1.42241,-0.00950,-2.63287,1.07152,1.57081,0.11675,-0.12762,-0.48146,0.03388,,,,,,,,,,,,,,,,,,,,,,,,,,0,0,0,0,0
4.5858,1783967460.1221,1,1,1.5000,-0.0000,1.42241,-0.00963,-2.63289,1.07169,1.57081,0.11675,-0.12762,-0.48147,0.03384,,,,,,,,,,,,,,,,,,,,,,,,,,0,0,0,0,0
4.5967,1783967460.1330,1,1,1.5000,-0.0000,1.42241,-0.00965,-2.63289,1.07170,1.57081,0.11675,-0.12762,-0.48147,0.03384,,,,,,,,,,,,,,,,,,,,,,,,,,0,0,0,0,0
4.5974,1783967460.1337,1,1,1.5000,-0.0000,1.42241,-0.00965,-2.63289,1.07170,1.57081,0.11675,-0.12762,-0.48147,0.03384,,,,,,,,,,,,,,,,,,,,,,,,,,0,0,0,0,0
4.5980,1783967460.1343,1,1,1.5000,-0.0000,1.42241,-0.00966,-2.63289,1.07172,1.57081,0.11675,-0.12762,-0.48148,0.03384,,,,,,,,,,,,,,,,,,,,,,,,,,0,0,0,0,0
4.6129,1783967460.1491,1,1,1.5000,-0.0000,1.42241,-0.00973,-2.63289,1.07181,1.57081,0.11675,-0.12762,-0.48149,0.03382,,,,,,,,,,,,,,,,,,,,,,,,,,0,0,0,0,0
4.6173,1783967460.1536,1,1,1.5000,-0.0000,1.42241,-0.00976,-2.63288,1.07185,1.57081,0.11675,-0.12762,-0.48150,0.03382,,,,,,,,,,,,,,,,,,,,,,,,,,0,0,0,0,0
4.6265,1783967460.1628,1,1,1.5000,-0.0000,1.42241,-0.00985,-2.63286,1.07195,1.57081,0.11675,-0.12761,-0.48153,0.03381,,,,,,,,,,,,,,,,,,,,,,,,,,0,0,0,0,0
4.6269,1783967460.1632,1,1,1.5000,-0.0000,1.42241,-0.00985,-2.63286,1.07195,1.57081,0.11675,-0.12761,-0.48153,0.03381,,,,,,,,,,,,,,,,,,,,,,,,,,0,0,0,0,0
4.6359,1783967460.1722,1,1,1.5000,-0.0000,1.42241,-0.00990,-2.63285,1.07201,1.57081,0.11675,-0.12761,-0.48155,0.03380,,,,,,,,,,,,,,,,,,,,,,,,,,0,0,0,0,0
4.6455,1783967460.1818,1,1,1.5000,-0.0000,1.42241,-0.00993,-2.63282,1.07205,1.57081,0.11675,-0.12761,-0.48157,0.03381,,,,,,,,,,,,,,,,,,,,,,,,,,0,0,0,0,0
4.6461,1783967460.1824,1,1,1.5000,-0.0000,1.42241,-0.00993,-2.63281,1.07206,1.57081,0.11675,-0.12761,-0.48158,0.03381,,,,,,,,,,,,,,,,,,,,,,,,,,0,0,0,0,0
4.6711,1783967460.2074,1,1,1.5000,-0.0000,1.42241,-0.00993,-2.63281,1.07206,1.57081,0.11675,-0.12761,-0.48158,0.03381,,,,,,,,,,,,,,,,,,,,,,,,,,0,0,0,0,0
4.6715,1783967460.2077,1,1,1.5000,-0.0000,1.42241,-0.00993,-2.63281,1.07206,1.57081,0.11675,-0.12761,-0.48158,0.03381,,,,,,,,,,,,,,,,,,,,,,,,,,0,0,0,0,0
4.8398,1783967460.3761,1,1,1.5000,-0.0000,1.42241,-0.00995,-2.63283,1.07208,1.57081,0.11675,-0.12761,-0.48157,0.03380,,,,,,,,,,,,,,,,,,,,,,,,,,0,0,0,0,0
4.9737,1783967460.5100,1,1,1.5000,-0.0000,1.42240,-0.01056,-2.63311,1.07281,1.57081,0.11675,-0.12762,-0.48146,0.03352,,,,,,,,,,,,,,,,,,,,,,,,,,0,0,0,0,0
4.9837,1783967460.5200,1,1,1.5000,-0.0000,1.42240,-0.01061,-2.63312,1.07287,1.57081,0.11675,-0.12762,-0.48146,0.03351,,,,,,,,,,,,,,,,,,,,,,,,,,0,0,0,0,0
4.9970,1783967460.5333,1,1,1.5000,-0.0000,1.42240,-0.01073,-2.63314,1.07301,1.57081,0.11675,-0.12762,-0.48146,0.03347,,,,,,,,,,,,,,,,,,,,,,,,,,0,0,0,0,0
5.0022,1783967460.5384,1,1,1.5000,-0.0000,1.42240,-0.01078,-2.63314,1.07307,1.57081,0.11675,-0.12762,-0.48147,0.03346,,,,,,,,,,,,,,,,,,,,,,,,,,0,0,0,0,0
5.0025,1783967460.5388,1,1,1.5000,-0.0000,1.42240,-0.01078,-2.63314,1.07307,1.57081,0.11675,-0.12762,-0.48147,0.03346,,,,,,,,,,,,,,,,,,,,,,,,,,0,0,0,0,0
5.0128,1783967460.5491,1,1,1.5000,-0.0000,1.42240,-0.01079,-2.63314,1.07309,1.57081,0.11675,-0.12762,-0.48147,0.03345,,,,,,,,,,,,,,,,,,,,,,,,,,0,0,0,0,0
5.0202,1783967460.5565,1,1,1.5000,-0.0000,1.42240,-0.01083,-2.63314,1.07314,1.57081,0.11675,-0.12762,-0.48148,0.03344,,,,,,,,,,,,,,,,,,,,,,,,,,0,0,0,0,0
5.0215,1783967460.5578,1,1,1.5000,-0.0000,1.42240,-0.01083,-2.63314,1.07314,1.57081,0.11675,-0.12762,-0.48148,0.03344,,,,,,,,,,,,,,,,,,,,,,,,,,0,0,0,0,0
5.0220,1783967460.5583,1,1,1.5000,-0.0000,1.42240,-0.01086,-2.63314,1.07318,1.57081,0.11675,-0.12762,-0.48148,0.03344,,,,,,,,,,,,,,,,,,,,,,,,,,0,0,0,0,0
5.0295,1783967460.5657,1,1,1.5000,-0.0000,1.42240,-0.01089,-2.63314,1.07322,1.57081,0.11675,-0.12762,-0.48149,0.03343,,,,,,,,,,,,,,,,,,,,,,,,,,0,0,0,0,0
5.0374,1783967460.5737,1,1,1.5000,-0.0000,1.42240,-0.01096,-2.63313,1.07330,1.57081,0.11675,-0.12761,-0.48151,0.03342,,,,,,,,,,,,,,,,,,,,,,,,,,0,0,0,0,0
5.0385,1783967460.5748,1,1,1.5000,-0.0000,1.42240,-0.01099,-2.63313,1.07334,1.57081,0.11675,-0.12761,-0.48151,0.03341,,,,,,,,,,,,,,,,,,,,,,,,,,0,0,0,0,0
5.0388,1783967460.5751,1,1,1.5000,-0.0000,1.42240,-0.01099,-2.63313,1.07334,1.57081,0.11675,-0.12761,-0.48151,0.03341,,,,,,,,,,,,,,,,,,,,,,,,,,0,0,0,0,0
5.0399,1783967460.5762,1,1,1.5000,-0.0000,1.42240,-0.01099,-2.63313,1.07334,1.57081,0.11675,-0.12761,-0.48151,0.03341,,,,,,,,,,,,,,,,,,,,,,,,,,0,0,0,0,0
5.0402,1783967460.5765,1,1,1.5000,-0.0000,1.42240,-0.01099,-2.63313,1.07334,1.57081,0.11675,-0.12761,-0.48151,0.03341,,,,,,,,,,,,,,,,,,,,,,,,,,0,0,0,0,0
5.0405,1783967460.5768,1,1,1.5000,-0.0000,1.42240,-0.01099,-2.63313,1.07334,1.57081,0.11675,-0.12761,-0.48151,0.03341,,,,,,,,,,,,,,,,,,,,,,,,,,0,0,0,0,0
5.0412,1783967460.5775,1,1,1.5000,-0.0000,1.42240,-0.01099,-2.63313,1.07334,1.57081,0.11675,-0.12761,-0.48151,0.03341,,,,,,,,,,,,,,,,,,,,,,,,,,0,0,0,0,0
5.0437,1783967460.5800,1,1,1.5000,-0.0000,1.42240,-0.01103,-2.63312,1.07338,1.57081,0.11675,-0.12761,-0.48152,0.03341,,,,,,,,,,,,,,,,,,,,,,,,,,0,0,0,0,0
5.0441,1783967460.5804,1,1,1.5000,-0.0000,1.42240,-0.01103,-2.63312,1.07338,1.57081,0.11675,-0.12761,-0.48152,0.03341,,,,,,,,,,,,,,,,,,,,,,,,,,0,0,0,0,0
5.0444,1783967460.5807,1,1,1.5000,-0.0000,1.42240,-0.01103,-2.63312,1.07338,1.57081,0.11675,-0.12761,-0.48152,0.03341,,,,,,,,,,,,,,,,,,,,,,,,,,0,0,0,0,0
5.0446,1783967460.5809,1,1,1.5000,-0.0000,1.42240,-0.01103,-2.63312,1.07338,1.57081,0.11675,-0.12761,-0.48152,0.03341,,,,,,,,,,,,,,,,,,,,,,,,,,0,0,0,0,0
5.0451,1783967460.5814,1,1,1.5000,-0.0000,1.42240,-0.01103,-2.63312,1.07338,1.57081,0.11675,-0.12761,-0.48152,0.03341,,,,,,,,,,,,,,,,,,,,,,,,,,0,0,0,0,0
5.0454,1783967460.5817,1,1,1.5000,-0.0000,1.42240,-0.01103,-2.63312,1.07338,1.57081,0.11675,-0.12761,-0.48152,0.03341,,,,,,,,,,,,,,,,,,,,,,,,,,0,0,0,0,0
5.0504,1783967460.5867,1,1,1.5000,-0.0000,1.42240,-0.01108,-2.63311,1.07345,1.57081,0.11675,-0.12761,-0.48154,0.03340,,,,,,,,,,,,,,,,,,,,,,,,,,0,0,0,0,0
5.0506,1783967460.5869,1,1,1.5000,-0.0000,1.42240,-0.01108,-2.63311,1.07345,1.57081,0.11675,-0.12761,-0.48154,0.03340,,,,,,,,,,,,,,,,,,,,,,,,,,0,0,0,0,0
5.0708,1783967460.6070,1,1,1.5000,-0.0000,1.42240,-0.01112,-2.63307,1.07350,1.57081,0.11675,-0.12760,-0.48158,0.03341,,,,,,,,,,,,,,,,,,,,,,,,,,0,0,0,0,0
5.0769,1783967460.6132,1,1,1.5000,-0.0000,1.42240,-0.01112,-2.63307,1.07350,1.57081,0.11675,-0.12760,-0.48158,0.03341,,,,,,,,,,,,,,,,,,,,,,,,,,0,0,0,0,0
5.0781,1783967460.6144,1,1,1.5000,-0.0000,1.42240,-0.01112,-2.63307,1.07350,1.57081,0.11675,-0.12760,-0.48158,0.03341,,,,,,,,,,,,,,,,,,,,,,,,,,0,0,0,0,0
5.0784,1783967460.6147,1,1,1.5000,-0.0000,1.42240,-0.01112,-2.63307,1.07350,1.57081,0.11675,-0.12760,-0.48158,0.03341,,,,,,,,,,,,,,,,,,,,,,,,,,0,0,0,0,0
5.0832,1783967460.6195,1,1,1.5000,-0.0000,1.42240,-0.01112,-2.63307,1.07350,1.57081,0.11675,-0.12760,-0.48158,0.03341,,,,,,,,,,,,,,,,,,,,,,,,,,0,0,0,0,0
5.0842,1783967460.6205,1,1,1.5000,-0.0000,1.42240,-0.01112,-2.63307,1.07350,1.57081,0.11675,-0.12760,-0.48158,0.03341,,,,,,,,,,,,,,,,,,,,,,,,,,0,0,0,0,0
5.0845,1783967460.6208,1,1,1.5000,-0.0000,1.42240,-0.01112,-2.63307,1.07350,1.57081,0.11675,-0.12760,-0.48158,0.03341,,,,,,,,,,,,,,,,,,,,,,,,,,0,0,0,0,0
5.0884,1783967460.6247,1,1,1.5000,-0.0000,1.42240,-0.01112,-2.63307,1.07350,1.57081,0.11675,-0.12760,-0.48158,0.03341,,,,,,,,,,,,,,,,,,,,,,,,,,0,0,0,0,0
5.0888,1783967460.6250,1,1,1.5000,-0.0000,1.42240,-0.01112,-2.63307,1.07350,1.57081,0.11675,-0.12760,-0.48158,0.03341,,,,,,,,,,,,,,,,,,,,,,,,,,0,0,0,0,0
5.0891,1783967460.6254,1,1,1.5000,-0.0000,1.42240,-0.01112,-2.63307,1.07350,1.57081,0.11675,-0.12760,-0.48158,0.03341,,,,,,,,,,,,,,,,,,,,,,,,,,0,0,0,0,0
5.0905,1783967460.6267,1,1,1.5000,-0.0000,1.42240,-0.01112,-2.63307,1.07350,1.57081,0.11675,-0.12760,-0.48158,0.03341,,,,,,,,,,,,,,,,,,,,,,,,,,0,0,0,0,0
5.0908,1783967460.6271,1,1,1.5000,-0.0000,1.42240,-0.01112,-2.63307,1.07350,1.57081,0.11675,-0.12760,-0.48158,0.03341,,,,,,,,,,,,,,,,,,,,,,,,,,0,0,0,0,0
5.0911,1783967460.6274,1,1,1.5000,-0.0000,1.42240,-0.01112,-2.63307,1.07350,1.57081,0.11675,-0.12760,-0.48158,0.03341,,,,,,,,,,,,,,,,,,,,,,,,,,0,0,0,0,0
5.0915,1783967460.6278,1,1,1.5000,-0.0000,1.42240,-0.01112,-2.63307,1.07350,1.57081,0.11675,-0.12760,-0.48158,0.03341,,,,,,,,,,,,,,,,,,,,,,,,,,0,0,0,0,0
5.0955,1783967460.6318,1,1,1.5000,-0.0000,1.42240,-0.01112,-2.63307,1.07350,1.57081,0.11675,-0.12760,-0.48158,0.03341,,,,,,,,,,,,,,,,,,,,,,,,,,0,0,0,0,0
5.0958,1783967460.6320,1,1,1.5000,-0.0000,1.42240,-0.01112,-2.63307,1.07350,1.57081,0.11675,-0.12760,-0.48158,0.03341,,,,,,,,,,,,,,,,,,,,,,,,,,0,0,0,0,0
5.0967,1783967460.6330,1,1,1.5000,-0.0000,1.42240,-0.01112,-2.63307,1.07350,1.57081,0.11675,-0.12760,-0.48158,0.03341,,,,,,,,,,,,,,,,,,,,,,,,,,0,0,0,0,0
5.0970,1783967460.6333,1,1,1.5000,-0.0000,1.42240,-0.01112,-2.63307,1.07350,1.57081,0.11675,-0.12760,-0.48158,0.03341,,,,,,,,,,,,,,,,,,,,,,,,,,0,0,0,0,0
5.0990,1783967460.6353,1,1,1.5000,-0.0000,1.42240,-0.01112,-2.63307,1.07350,1.57081,0.11675,-0.12760,-0.48158,0.03341,,,,,,,,,,,,,,,,,,,,,,,,,,0,0,0,0,0
5.0993,1783967460.6356,1,1,1.5000,-0.0000,1.42240,-0.01112,-2.63307,1.07350,1.57081,0.11675,-0.12760,-0.48158,0.03341,,,,,,,,,,,,,,,,,,,,,,,,,,0,0,0,0,0
5.1084,1783967460.6446,1,1,1.5000,-0.0000,1.42240,-0.01112,-2.63307,1.07350,1.57081,0.11675,-0.12760,-0.48158,0.03341,,,,,,,,,,,,,,,,,,,,,,,,,,0,0,0,0,0
5.1156,1783967460.6519,1,1,1.5000,-0.0000,1.42240,-0.01112,-2.63307,1.07350,1.57081,0.11675,-0.12760,-0.48158,0.03341,,,,,,,,,,,,,,,,,,,,,,,,,,0,0,0,0,0
5.1274,1783967460.6637,1,1,1.5000,-0.0000,1.42240,-0.01112,-2.63307,1.07350,1.57081,0.11675,-0.12760,-0.48158,0.03341,,,,,,,,,,,,,,,,,,,,,,,,,,0,0,0,0,0
5.1278,1783967460.6641,1,1,1.5000,-0.0000,1.42240,-0.01112,-2.63307,1.07350,1.57081,0.11675,-0.12760,-0.48158,0.03341,,,,,,,,,,,,,,,,,,,,,,,,,,0,0,0,0,0
5.1383,1783967460.6746,1,1,1.5000,-0.0000,1.42240,-0.01112,-2.63307,1.07350,1.57081,0.11675,-0.12760,-0.48158,0.03341,,,,,,,,,,,,,,,,,,,,,,,,,,0,0,0,0,0
5.1387,1783967460.6750,1,1,1.5000,-0.0000,1.42240,-0.01112,-2.63307,1.07350,1.57081,0.11675,-0.12760,-0.48158,0.03341,,,,,,,,,,,,,,,,,,,,,,,,,,0,0,0,0,0
5.1465,1783967460.6827,1,1,1.5000,-0.0000,1.42240,-0.01112,-2.63307,1.07350,1.57081,0.11675,-0.12760,-0.48158,0.03341,,,,,,,,,,,,,,,,,,,,,,,,,,0,0,0,0,0
5.1574,1783967460.6937,1,1,1.5000,-0.0000,1.42240,-0.01112,-2.63307,1.07350,1.57081,0.11675,-0.12760,-0.48158,0.03341,,,,,,,,,,,,,,,,,,,,,,,,,,0,0,0,0,0
5.1712,1783967460.7075,1,1,1.5000,-0.0000,1.42240,-0.01112,-2.63307,1.07350,1.57081,0.11675,-0.12760,-0.48158,0.03341,,,,,,,,,,,,,,,,,,,,,,,,,,0,0,0,0,0
5.1773,1783967460.7136,1,1,1.5000,-0.0000,1.42240,-0.01112,-2.63307,1.07350,1.57081,0.11675,-0.12760,-0.48158,0.03341,,,,,,,,,,,,,,,,,,,,,,,,,,0,0,0,0,0
