Martins-Lucaas/twinforge/sensors/Data/celula de carga/20260713_151739__samples.csv
t_rel_s,t_unix,cycle,phase,setpoint_n,force_net_n,q1,q2,q3,q4,q5,q6,tcp_x,tcp_y,tcp_z,taxel_0,taxel_1,taxel_2,taxel_3,taxel_4,taxel_5,taxel_6,taxel_7,taxel_8,taxel_9,taxel_10,taxel_11,taxel_12,taxel_13,taxel_14,taxel_15,taxel_16,taxel_17,taxel_18,taxel_19,taxel_20,taxel_21,taxel_22,taxel_23,taxel_24,n_RA,n_SA,cn_mm,cn_ra,cn_sa
0.0020,1783966659.5642,0,-1,3.0000,0.0000,1.42244,0.00069,-2.63052,1.05908,1.57084,0.11672,-0.12762,-0.48153,0.03738,,,,,,,,,,,,,,,,,,,,,,,,,,0,0,0,0,0
0.0086,1783966659.5708,1,0,3.0000,0.0000,1.42244,0.00069,-2.63052,1.05908,1.57084,0.11672,-0.12762,-0.48153,0.03738,,,,,,,,,,,,,,,,,,,,,,,,,,0,0,0,0,0
0.0180,1783966659.5803,1,0,3.0000,0.0000,1.42244,0.00069,-2.63052,1.05908,1.57084,0.11672,-0.12762,-0.48153,0.03738,,,,,,,,,,,,,,,,,,,,,,,,,,0,0,0,0,0
0.0184,1783966659.5807,1,0,3.0000,0.0000,1.42244,0.00069,-2.63052,1.05908,1.57084,0.11672,-0.12762,-0.48153,0.03738,,,,,,,,,,,,,,,,,,,,,,,,,,0,0,0,0,0
0.0258,1783966659.5880,1,0,3.0000,0.0000,1.42244,0.00069,-2.63052,1.05908,1.57084,0.11672,-0.12762,-0.48153,0.03738,,,,,,,,,,,,,,,,,,,,,,,,,,0,0,0,0,0
0.0390,1783966659.6012,1,0,3.0000,0.0000,1.42244,0.00069,-2.63052,1.05908,1.57084,0.11672,-0.12762,-0.48153,0.03738,,,,,,,,,,,,,,,,,,,,,,,,,,0,0,0,0,0
0.0498,1783966659.6120,1,0,3.0000,0.0000,1.42244,0.00069,-2.63052,1.05908,1.57083,0.11672,-0.12762,-0.48153,0.03738,,,,,,,,,,,,,,,,,,,,,,,,,,0,0,0,0,0
0.0502,1783966659.6125,1,0,3.0000,0.0000,1.42244,0.00069,-2.63052,1.05908,1.57083,0.11672,-0.12762,-0.48153,0.03738,,,,,,,,,,,,,,,,,,,,,,,,,,0,0,0,0,0
0.0575,1783966659.6198,1,0,3.0000,0.0000,1.42244,0.00070,-2.63052,1.05908,1.57083,0.11673,-0.12762,-0.48153,0.03738,,,,,,,,,,,,,,,,,,,,,,,,,,0,0,0,0,0
0.0738,1783966659.6361,1,0,3.0000,0.0000,1.42244,0.00070,-2.63053,1.05907,1.57081,0.11674,-0.12763,-0.48153,0.03738,,,,,,,,,,,,,,,,,,,,,,,,,,0,0,0,0,0
0.0770,1783966659.6393,1,0,3.0000,0.0000,1.42244,0.00070,-2.63053,1.05907,1.57081,0.11674,-0.12763,-0.48153,0.03738,,,,,,,,,,,,,,,,,,,,,,,,,,0,0,0,0,0
0.0947,1783966659.6570,1,0,3.0000,0.0000,1.42244,0.00071,-2.63053,1.05907,1.57080,0.11675,-0.12764,-0.48152,0.03738,,,,,,,,,,,,,,,,,,,,,,,,,,0,0,0,0,0
0.1088,1783966659.6711,1,0,3.0000,0.0000,1.42244,0.00071,-2.63053,1.05907,1.57080,0.11675,-0.12764,-0.48152,0.03738,,,,,,,,,,,,,,,,,,,,,,,,,,0,0,0,0,0
0.1114,1783966659.6736,1,0,3.0000,0.0000,1.42244,0.00071,-2.63053,1.05907,1.57080,0.11675,-0.12764,-0.48152,0.03738,,,,,,,,,,,,,,,,,,,,,,,,,,0,0,0,0,0
0.1117,1783966659.6740,1,0,3.0000,0.0000,1.42244,0.00071,-2.63053,1.05907,1.57080,0.11675,-0.12764,-0.48152,0.03738,,,,,,,,,,,,,,,,,,,,,,,,,,0,0,0,0,0
0.1173,1783966659.6796,1,0,3.0000,0.0000,1.42244,0.00071,-2.63053,1.05907,1.57080,0.11675,-0.12764,-0.48152,0.03738,,,,,,,,,,,,,,,,,,,,,,,,,,0,0,0,0,0
0.1275,1783966659.6897,1,0,3.0000,0.0000,1.42244,0.00071,-2.63053,1.05907,1.57080,0.11675,-0.12764,-0.48152,0.03738,,,,,,,,,,,,,,,,,,,,,,,,,,0,0,0,0,0
0.1380,1783966659.7002,1,0,3.0000,0.0000,1.42244,0.00071,-2.63053,1.05907,1.57080,0.11675,-0.12764,-0.48152,0.03738,,,,,,,,,,,,,,,,,,,,,,,,,,0,0,0,0,0
0.1467,1783966659.7090,1,0,3.0000,0.0000,1.42244,0.00071,-2.63053,1.05907,1.57080,0.11675,-0.12764,-0.48152,0.03738,,,,,,,,,,,,,,,,,,,,,,,,,,0,0,0,0,0
0.1736,1783966659.7358,1,0,3.0000,0.0000,1.42244,0.00071,-2.63053,1.05907,1.57080,0.11675,-0.12764,-0.48152,0.03738,,,,,,,,,,,,,,,,,,,,,,,,,,0,0,0,0,0
0.1739,1783966659.7361,1,0,3.0000,0.0000,1.42244,0.00071,-2.63053,1.05907,1.57080,0.11675,-0.12764,-0.48152,0.03738,,,,,,,,,,,,,,,,,,,,,,,,,,0,0,0,0,0
0.1754,1783966659.7376,1,0,3.0000,0.0000,1.42244,0.00071,-2.63053,1.05907,1.57080,0.11675,-0.12764,-0.48152,0.03738,,,,,,,,,,,,,,,,,,,,,,,,,,0,0,0,0,0
0.1757,1783966659.7379,1,0,3.0000,0.0000,1.42244,0.00071,-2.63053,1.05907,1.57080,0.11675,-0.12764,-0.48152,0.03738,,,,,,,,,,,,,,,,,,,,,,,,,,0,0,0,0,0
0.1899,1783966659.7521,1,0,3.0000,0.0000,1.42244,0.00071,-2.63053,1.05907,1.57080,0.11675,-0.12764,-0.48152,0.03738,,,,,,,,,,,,,,,,,,,,,,,,,,0,0,0,0,0
0.1913,1783966659.7536,1,0,3.0000,0.0000,1.42244,0.00071,-2.63053,1.05907,1.57080,0.11675,-0.12764,-0.48152,0.03738,,,,,,,,,,,,,,,,,,,,,,,,,,0,0,0,0,0
0.1916,1783966659.7538,1,0,3.0000,0.0000,1.42244,0.00071,-2.63053,1.05907,1.57080,0.11675,-0.12764,-0.48152,0.03738,,,,,,,,,,,,,,,,,,,,,,,,,,0,0,0,0,0
0.1921,1783966659.7543,1,0,3.0000,0.0000,1.42244,0.00071,-2.63053,1.05907,1.57080,0.11675,-0.12764,-0.48152,0.03738,,,,,,,,,,,,,,,,,,,,,,,,,,0,0,0,0,0
0.1966,1783966659.7588,1,0,3.0000,0.0000,1.42244,0.00071,-2.63053,1.05907,1.57080,0.11675,-0.12764,-0.48152,0.03738,,,,,,,,,,,,,,,,,,,,,,,,,,0,0,0,0,0
0.2082,1783966659.7704,1,0,3.0000,0.0000,1.42244,0.00071,-2.63053,1.05907,1.57080,0.11675,-0.12764,-0.48152,0.03738,,,,,,,,,,,,,,,,,,,,,,,,,,0,0,0,0,0
0.2197,1783966659.7819,1,0,3.0000,0.0000,1.42244,0.00071,-2.63053,1.05907,1.57080,0.11675,-0.12764,-0.48152,0.03738,,,,,,,,,,,,,,,,,,,,,,,,,,0,0,0,0,0
0.2275,1783966659.7897,1,0,3.0000,0.0000,1.42244,0.00071,-2.63053,1.05907,1.57080,0.11675,-0.12764,-0.48152,0.03738,,,,,,,,,,,,,,,,,,,,,,,,,,0,0,0,0,0
0.2388,1783966659.8011,1,0,3.0000,0.0000,1.42244,0.00071,-2.63053,1.05907,1.57080,0.11675,-0.12764,-0.48152,0.03738,,,,,,,,,,,,,,,,,,,,,,,,,,0,0,0,0,0
0.2486,1783966659.8108,1,0,3.0000,0.0000,1.42244,0.00071,-2.63053,1.05907,1.57080,0.11675,-0.12764,-0.48152,0.03738,,,,,,,,,,,,,,,,,,,,,,,,,,0,0,0,0,0
0.2700,1783966659.8323,1,0,3.0000,0.0000,1.42244,0.00071,-2.63053,1.05907,1.57080,0.11675,-0.12764,-0.48152,0.03738,,,,,,,,,,,,,,,,,,,,,,,,,,0,0,0,0,0
0.2760,1783966659.8383,1,0,3.0000,0.0000,1.42244,0.00071,-2.63053,1.05907,1.57080,0.11675,-0.12764,-0.48152,0.03738,,,,,,,,,,,,,,,,,,,,,,,,,,0,0,0,0,0
0.2765,1783966659.8387,1,0,3.0000,0.0000,1.42244,0.00071,-2.63053,1.05907,1.57080,0.11675,-0.12764,-0.48152,0.03738,,,,,,,,,,,,,,,,,,,,,,,,,,0,0,0,0,0
0.2772,1783966659.8395,1,0,3.0000,0.0000,1.42244,0.00071,-2.63053,1.05907,1.57080,0.11675,-0.12764,-0.48152,0.03738,,,,,,,,,,,,,,,,,,,,,,,,,,0,0,0,0,0
0.2876,1783966659.8499,1,0,3.0000,0.0000,1.42244,0.00071,-2.63053,1.05907,1.57080,0.11675,-0.12764,-0.48152,0.03738,,,,,,,,,,,,,,,,,,,,,,,,,,0,0,0,0,0
0.3115,1783966659.8738,1,0,3.0000,0.0000,1.42244,0.00071,-2.63053,1.05907,1.57080,0.11675,-0.12764,-0.48152,0.03738,,,,,,,,,,,,,,,,,,,,,,,,,,0,0,0,0,0
0.3123,1783966659.8745,1,0,3.0000,0.0000,1.42244,0.00071,-2.63053,1.05907,1.57080,0.11675,-0.12764,-0.48152,0.03738,,,,,,,,,,,,,,,,,,,,,,,,,,0,0,0,0,0
0.3125,1783966659.8748,1,0,3.0000,0.0000,1.42244,0.00071,-2.63053,1.05907,1.57080,0.11675,-0.12764,-0.48152,0.03738,,,,,,,,,,,,,,,,,,,,,,,,,,0,0,0,0,0
0.3440,1783966659.9063,1,0,3.0000,0.0000,1.42244,0.00071,-2.63053,1.05907,1.57080,0.11675,-0.12764,-0.48152,0.03738,,,,,,,,,,,,,,,,,,,,,,,,,,0,0,0,0,0
0.3814,1783966659.9437,1,0,3.0000,0.0000,1.42244,0.00071,-2.63053,1.05907,1.57080,0.11675,-0.12764,-0.48152,0.03738,,,,,,,,,,,,,,,,,,,,,,,,,,0,0,0,0,0
0.3817,1783966659.9440,1,0,3.0000,0.0000,1.42244,0.00071,-2.63053,1.05907,1.57080,0.11675,-0.12764,-0.48152,0.03738,,,,,,,,,,,,,,,,,,,,,,,,,,0,0,0,0,0
0.3935,1783966659.9558,1,0,3.0000,0.0000,1.42244,0.00071,-2.63053,1.05907,1.57080,0.11675,-0.12764,-0.48152,0.03738,,,,,,,,,,,,,,,,,,,,,,,,,,0,0,0,0,0
0.3961,1783966659.9584,1,0,3.0000,0.0000,1.42244,0.00071,-2.63053,1.05907,1.57080,0.11675,-0.12764,-0.48152,0.03738,,,,,,,,,,,,,,,,,,,,,,,,,,0,0,0,0,0
0.3965,1783966659.9587,1,0,3.0000,0.0000,1.42244,0.00071,-2.63053,1.05907,1.57080,0.11675,-0.12764,-0.48152,0.03738,,,,,,,,,,,,,,,,,,,,,,,,,,0,0,0,0,0
0.4001,1783966659.9624,1,0,3.0000,0.0000,1.42244,0.00071,-2.63053,1.05907,1.57080,0.11675,-0.12764,-0.48152,0.03738,,,,,,,,,,,,,,,,,,,,,,,,,,0,0,0,0,0
0.4005,1783966659.9627,1,0,3.0000,0.0000,1.42244,0.00071,-2.63053,1.05907,1.57080,0.11675,-0.12764,-0.48152,0.03738,,,,,,,,,,,,,,,,,,,,,,,,,,0,0,0,0,0
0.4016,1783966659.9639,1,0,3.0000,0.0000,1.42244,0.00071,-2.63053,1.05907,1.57080,0.11675,-0.12764,-0.48152,0.03738,,,,,,,,,,,,,,,,,,,,,,,,,,0,0,0,0,0
0.4020,1783966659.9643,1,0,3.0000,0.0000,1.42244,0.00071,-2.63053,1.05907,1.57080,0.11675,-0.12764,-0.48152,0.03738,,,,,,,,,,,,,,,,,,,,,,,,,,0,0,0,0,0
0.4062,1783966659.9685,1,0,3.0000,0.0000,1.42244,0.00071,-2.63053,1.05907,1.57080,0.11675,-0.12764,-0.48152,0.03738,,,,,,,,,,,,,,,,,,,,,,,,,,0,0,0,0,0
0.4164,1783966659.9787,1,0,3.0000,0.0000,1.42244,0.00071,-2.63053,1.05907,1.57080,0.11675,-0.12764,-0.48152,0.03738,,,,,,,,,,,,,,,,,,,,,,,,,,0,0,0,0,0
0.4180,1783966659.9802,1,0,3.0000,0.0000,1.42244,0.00071,-2.63053,1.05907,1.57080,0.11675,-0.12764,-0.48152,0.03738,,,,,,,,,,,,,,,,,,,,,,,,,,0,0,0,0,0
0.4183,1783966659.9806,1,0,3.0000,0.0000,1.42244,0.00071,-2.63053,1.05907,1.57080,0.11675,-0.12764,-0.48152,0.03738,,,,,,,,,,,,,,,,,,,,,,,,,,0,0,0,0,0
0.4435,1783966660.0058,1,0,3.0000,0.0000,1.42244,0.00071,-2.63053,1.05907,1.57080,0.11675,-0.12764,-0.48152,0.03738,,,,,,,,,,,,,,,,,,,,,,,,,,0,0,0,0,0
0.4463,1783966660.0086,1,0,3.0000,0.0000,1.42244,0.00071,-2.63053,1.05907,1.57080,0.11675,-0.12764,-0.48152,0.03738,,,,,,,,,,,,,,,,,,,,,,,,,,0,0,0,0,0
0.4466,1783966660.0089,1,0,3.0000,0.0000,1.42244,0.00071,-2.63053,1.05907,1.57080,0.11675,-0.12764,-0.48152,0.03738,,,,,,,,,,,,,,,,,,,,,,,,,,0,0,0,0,0
0.4502,1783966660.0124,1,0,3.0000,0.0000,1.42244,0.00071,-2.63053,1.05907,1.57080,0.11675,-0.12764,-0.48152,0.03738,,,,,,,,,,,,,,,,,,,,,,,,,,0,0,0,0,0
0.4590,1783966660.0213,1,0,3.0000,0.0000,1.42244,0.00071,-2.63053,1.05907,1.57080,0.11675,-0.12764,-0.48152,0.03738,,,,,,,,,,,,,,,,,,,,,,,,,,0,0,0,0,0
0.4762,1783966660.0384,1,0,3.0000,0.0000,1.42244,0.00071,-2.63053,1.05907,1.57080,0.11675,-0.12764,-0.48152,0.03738,,,,,,,,,,,,,,,,,,,,,,,,,,0,0,0,0,0
0.8390,1783966660.4013,1,1,3.0000,0.0000,1.42244,0.00071,-2.63053,1.05907,1.57080,0.11675,-0.12764,-0.48152,0.03738,,,,,,,,,,,,,,,,,,,,,,,,,,0,0,0,0,0
0.8444,1783966660.4066,1,1,3.0000,0.0000,1.42244,0.00071,-2.63053,1.05907,1.57080,0.11675,-0.12764,-0.48152,0.03738,,,,,,,,,,,,,,,,,,,,,,,,,,0,0,0,0,0
0.8548,1783966660.4171,1,1,3.0000,0.0000,1.42244,0.00071,-2.63053,1.05907,1.57080,0.11675,-0.12764,-0.48152,0.03738,,,,,,,,,,,,,,,,,,,,,,,,,,0,0,0,0,0
0.8556,1783966660.4179,1,1,3.0000,0.0000,1.42244,0.00071,-2.63053,1.05907,1.57080,0.11675,-0.12764,-0.48152,0.03738,,,,,,,,,,,,,,,,,,,,,,,,,,0,0,0,0,0
0.8594,1783966660.4217,1,1,3.0000,0.0000,1.42244,0.00071,-2.63053,1.05907,1.57080,0.11675,-0.12764,-0.48152,0.03738,,,,,,,,,,,,,,,,,,,,,,,,,,0,0,0,0,0
0.8687,1783966660.4310,1,1,3.0000,0.0000,1.42244,0.00071,-2.63053,1.05907,1.57080,0.11675,-0.12764,-0.48152,0.03738,,,,,,,,,,,,,,,,,,,,,,,,,,0,0,0,0,0
0.9006,1783966660.4628,1,1,3.0000,0.0000,1.42244,0.00071,-2.63053,1.05907,1.57080,0.11675,-0.12764,-0.48152,0.03738,,,,,,,,,,,,,,,,,,,,,,,,,,0,0,0,0,0
0.9293,1783966660.4915,1,1,3.0000,0.0000,1.42244,0.00071,-2.63053,1.05907,1.57080,0.11675,-0.12764,-0.48152,0.03738,,,,,,,,,,,,,,,,,,,,,,,,,,0,0,0,0,0
0.9302,1783966660.4924,1,1,3.0000,0.0000,1.42244,0.00071,-2.63053,1.05907,1.57080,0.11675,-0.12764,-0.48152,0.03738,,,,,,,,,,,,,,,,,,,,,,,,,,0,0,0,0,0
0.9305,1783966660.4927,1,1,3.0000,0.0000,1.42244,0.00071,-2.63053,1.05907,1.57080,0.11675,-0.12764,-0.48152,0.03738,,,,,,,,,,,,,,,,,,,,,,,,,,0,0,0,0,0
0.9366,1783966660.4988,1,1,3.0000,0.0000,1.42244,0.00071,-2.63053,1.05907,1.57080,0.11675,-0.12764,-0.48152,0.03738,,,,,,,,,,,,,,,,,,,,,,,,,,0,0,0,0,0
0.9410,1783966660.5032,1,1,3.0000,0.0000,1.42244,0.00071,-2.63053,1.05907,1.57080,0.11675,-0.12764,-0.48152,0.03738,,,,,,,,,,,,,,,,,,,,,,,,,,0,0,0,0,0
0.9413,1783966660.5035,1,1,3.0000,0.0000,1.42244,0.00071,-2.63053,1.05907,1.57080,0.11675,-0.12764,-0.48152,0.03738,,,,,,,,,,,,,,,,,,,,,,,,,,0,0,0,0,0
0.9433,1783966660.5055,1,1,3.0000,0.0000,1.42244,0.00071,-2.63053,1.05907,1.57080,0.11675,-0.12764,-0.48152,0.03738,,,,,,,,,,,,,,,,,,,,,,,,,,0,0,0,0,0
0.9600,1783966660.5222,1,1,3.0000,0.0000,1.42244,0.00071,-2.63053,1.05907,1.57080,0.11675,-0.12764,-0.48152,0.03738,,,,,,,,,,,,,,,,,,,,,,,,,,0,0,0,0,0
0.9623,1783966660.5246,1,1,3.0000,0.0000,1.42244,0.00071,-2.63053,1.05907,1.57080,0.11675,-0.12764,-0.48152,0.03738,,,,,,,,,,,,,,,,,,,,,,,,,,0,0,0,0,0
0.9630,1783966660.5253,1,1,3.0000,0.0000,1.42244,0.00071,-2.63053,1.05907,1.57080,0.11675,-0.12764,-0.48152,0.03738,,,,,,,,,,,,,,,,,,,,,,,,,,0,0,0,0,0
0.9634,1783966660.5257,1,1,3.0000,0.0000,1.42244,0.00071,-2.63053,1.05907,1.57080,0.11675,-0.12764,-0.48152,0.03738,,,,,,,,,,,,,,,,,,,,,,,,,,0,0,0,0,0
0.9741,1783966660.5364,1,1,3.0000,0.0000,1.42244,0.00071,-2.63053,1.05907,1.57080,0.11675,-0.12764,-0.48152,0.03738,,,,,,,,,,,,,,,,,,,,,,,,,,0,0,0,0,0
0.9746,1783966660.5368,1,1,3.0000,0.0000,1.42244,0.00071,-2.63053,1.05907,1.57080,0.11675,-0.12764,-0.48152,0.03738,,,,,,,,,,,,,,,,,,,,,,,,,,0,0,0,0,0
0.9757,1783966660.5379,1,1,3.0000,0.0000,1.42244,0.00071,-2.63053,1.05907,1.57080,0.11675,-0.12764,-0.48152,0.03738,,,,,,,,,,,,,,,,,,,,,,,,,,0,0,0,0,0
0.9761,1783966660.5384,1,1,3.0000,0.0000,1.42244,0.00071,-2.63053,1.05907,1.57080,0.11675,-0.12764,-0.48152,0.03738,,,,,,,,,,,,,,,,,,,,,,,,,,0,0,0,0,0
0.9812,1783966660.5434,1,1,3.0000,0.0000,1.42244,0.00071,-2.63053,1.05907,1.57080,0.11675,-0.12764,-0.48152,0.03738,,,,,,,,,,,,,,,,,,,,,,,,,,0,0,0,0,0
0.9821,1783966660.5443,1,1,3.0000,0.0000,1.42244,0.00071,-2.63053,1.05907,1.57080,0.11675,-0.12764,-0.48152,0.03738,,,,,,,,,,,,,,,,,,,,,,,,,,0,0,0,0,0
1.0003,1783966660.5625,1,1,3.0000,0.0000,1.42244,0.00071,-2.63053,1.05907,1.57080,0.11675,-0.12764,-0.48152,0.03738,,,,,,,,,,,,,,,,,,,,,,,,,,0,0,0,0,0
1.0015,1783966660.5637,1,1,3.0000,0.0000,1.42244,0.00071,-2.63053,1.05907,1.57080,0.11675,-0.12764,-0.48152,0.03738,,,,,,,,,,,,,,,,,,,,,,,,,,0,0,0,0,0
1.0021,1783966660.5643,1,1,3.0000,0.0000,1.42244,0.00071,-2.63053,1.05907,1.57080,0.11675,-0.12764,-0.48152,0.03738,,,,,,,,,,,,,,,,,,,,,,,,,,0,0,0,0,0
1.0047,1783966660.5670,1,1,3.0000,0.0000,1.42244,0.00071,-2.63053,1.05907,1.57080,0.11675,-0.12764,-0.48152,0.03738,,,,,,,,,,,,,,,,,,,,,,,,,,0,0,0,0,0
1.0052,1783966660.5674,1,1,3.0000,0.0000,1.42244,0.00071,-2.63053,1.05907,1.57080,0.11675,-0.12764,-0.48152,0.03738,,,,,,,,,,,,,,,,,,,,,,,,,,0,0,0,0,0
1.0060,1783966660.5682,1,1,3.0000,0.0000,1.42244,0.00071,-2.63053,1.05907,1.57080,0.11675,-0.12764,-0.48152,0.03738,,,,,,,,,,,,,,,,,,,,,,,,,,0,0,0,0,0
1.0062,1783966660.5684,1,1,3.0000,0.0000,1.42244,0.00071,-2.63053,1.05907,1.57080,0.11675,-0.12764,-0.48152,0.03738,,,,,,,,,,,,,,,,,,,,,,,,,,0,0,0,0,0
1.0067,1783966660.5689,1,1,3.0000,0.0000,1.42244,0.00071,-2.63053,1.05907,1.57080,0.11675,-0.12764,-0.48152,0.03738,,,,,,,,,,,,,,,,,,,,,,,,,,0,0,0,0,0
1.0071,1783966660.5693,1,1,3.0000,0.0000,1.42244,0.00071,-2.63053,1.05907,1.57080,0.11675,-0.12764,-0.48152,0.03738,,,,,,,,,,,,,,,,,,,,,,,,,,0,0,0,0,0
1.0156,1783966660.5778,1,1,3.0000,0.0000,1.42244,0.00071,-2.63053,1.05907,1.57080,0.11675,-0.12764,-0.48152,0.03738,,,,,,,,,,,,,,,,,,,,,,,,,,0,0,0,0,0
1.0160,1783966660.5783,1,1,3.0000,0.0000,1.42244,0.00071,-2.63053,1.05907,1.57080,0.11675,-0.12764,-0.48152,0.03738,,,,,,,,,,,,,,,,,,,,,,,,,,0,0,0,0,0
1.0165,1783966660.5787,1,1,3.0000,0.0000,1.42244,0.00071,-2.63053,1.05907,1.57080,0.11675,-0.12764,-0.48152,0.03738,,,,,,,,,,,,,,,,,,,,,,,,,,0,0,0,0,0
1.0214,1783966660.5836,1,1,3.0000,0.0000,1.42244,0.00071,-2.63054,1.05907,1.57080,0.11675,-0.12764,-0.48152,0.03738,,,,,,,,,,,,,,,,,,,,,,,,,,0,0,0,0,0
1.0221,1783966660.5843,1,1,3.0000,0.0000,1.42244,0.00071,-2.63054,1.05907,1.57080,0.11675,-0.12764,-0.48152,0.03738,,,,,,,,,,,,,,,,,,,,,,,,,,0,0,0,0,0
1.0251,1783966660.5873,1,1,3.0000,0.0000,1.42244,0.00071,-2.63054,1.05907,1.57080,0.11675,-0.12764,-0.48152,0.03738,,,,,,,,,,,,,,,,,,,,,,,,,,0,0,0,0,0
1.0254,1783966660.5877,1,1,3.0000,0.0000,1.42244,0.00071,-2.63054,1.05907,1.57080,0.11675,-0.12764,-0.48152,0.03738,,,,,,,,,,,,,,,,,,,,,,,,,,0,0,0,0,0
1.0409,1783966660.6031,1,1,3.0000,0.0000,1.42244,0.00070,-2.63054,1.05907,1.57080,0.11675,-0.12764,-0.48151,0.03737,,,,,,,,,,,,,,,,,,,,,,,,,,0,0,0,0,0
1.0413,1783966660.6036,1,1,3.0000,0.0000,1.42244,0.00070,-2.63054,1.05907,1.57080,0.11675,-0.12764,-0.48151,0.03737,,,,,,,,,,,,,,,,,,,,,,,,,,0,0,0,0,0
1.0422,1783966660.6045,1,1,3.0000,0.0000,1.42244,0.00070,-2.63055,1.05907,1.57080,0.11675,-0.12764,-0.48151,0.03737,,,,,,,,,,,,,,,,,,,,,,,,,,0,0,0,0,0
1.0432,1783966660.6055,1,1,3.0000,0.0000,1.42244,0.00070,-2.63055,1.05907,1.57080,0.11675,-0.12764,-0.48151,0.03737,,,,,,,,,,,,,,,,,,,,,,,,,,0,0,0,0,0
1.0437,1783966660.6060,1,1,3.0000,0.0000,1.42244,0.00070,-2.63055,1.05907,1.57080,0.11675,-0.12764,-0.48151,0.03737,,,,,,,,,,,,,,,,,,,,,,,,,,0,0,0,0,0
1.0442,1783966660.6064,1,1,3.0000,0.0000,1.42244,0.00070,-2.63055,1.05907,1.57080,0.11675,-0.12764,-0.48151,0.03737,,,,,,,,,,,,,,,,,,,,,,,,,,0,0,0,0,0
1.0462,1783966660.6085,1,1,3.0000,0.0000,1.42244,0.00069,-2.63056,1.05907,1.57080,0.11675,-0.12764,-0.48150,0.03736,,,,,,,,,,,,,,,,,,,,,,,,,,0,0,0,0,0
1.0464,1783966660.6086,1,1,3.0000,0.0000,1.42244,0.00069,-2.63056,1.05907,1.57080,0.11675,-0.12764,-0.48150,0.03736,,,,,,,,,,,,,,,,,,,,,,,,,,0,0,0,0,0
1.0467,1783966660.6090,1,1,3.0000,0.0000,1.42244,0.00069,-2.63056,1.05907,1.57080,0.11675,-0.12764,-0.48150,0.03736,,,,,,,,,,,,,,,,,,,,,,,,,,0,0,0,0,0
1.0599,1783966660.6221,1,1,3.0000,0.0000,1.42244,0.00067,-2.63058,1.05908,1.57080,0.11675,-0.12764,-0.48148,0.03734,,,,,,,,,,,,,,,,,,,,,,,,,,0,0,0,0,0
1.0603,1783966660.6225,1,1,3.0000,0.0000,1.42244,0.00067,-2.63058,1.05908,1.57080,0.11675,-0.12764,-0.48148,0.03734,,,,,,,,,,,,,,,,,,,,,,,,,,0,0,0,0,0
1.0612,1783966660.6234,1,1,3.0000,0.0000,1.42244,0.00067,-2.63058,1.05908,1.57080,0.11675,-0.12764,-0.48148,0.03734,,,,,,,,,,,,,,,,,,,,,,,,,,0,0,0,0,0
1.0614,1783966660.6237,1,1,3.0000,0.0000,1.42244,0.00067,-2.63058,1.05908,1.57080,0.11675,-0.12764,-0.48148,0.03734,,,,,,,,,,,,,,,,,,,,,,,,,,0,0,0,0,0
1.0620,1783966660.6242,1,1,3.0000,0.0000,1.42244,0.00067,-2.63058,1.05908,1.57080,0.11675,-0.12764,-0.48148,0.03734,,,,,,,,,,,,,,,,,,,,,,,,,,0,0,0,0,0
1.0623,1783966660.6245,1,1,3.0000,0.0000,1.42244,0.00067,-2.63058,1.05908,1.57080,0.11675,-0.12764,-0.48148,0.03734,,,,,,,,,,,,,,,,,,,,,,,,,,0,0,0,0,0
1.0626,1783966660.6249,1,1,3.0000,0.0000,1.42244,0.00067,-2.63058,1.05908,1.57080,0.11675,-0.12764,-0.48148,0.03734,,,,,,,,,,,,,,,,,,,,,,,,,,0,0,0,0,0
1.0639,1783966660.6261,1,1,3.0000,0.0000,1.42244,0.00067,-2.63058,1.05908,1.57080,0.11675,-0.12764,-0.48148,0.03734,,,,,,,,,,,,,,,,,,,,,,,,,,0,0,0,0,0
1.0642,1783966660.6264,1,1,3.0000,0.0000,1.42244,0.00067,-2.63058,1.05908,1.57080,0.11675,-0.12764,-0.48148,0.03734,,,,,,,,,,,,,,,,,,,,,,,,,,0,0,0,0,0
1.0647,1783966660.6269,1,1,3.0000,0.0000,1.42244,0.00067,-2.63058,1.05908,1.57080,0.11675,-0.12764,-0.48148,0.03734,,,,,,,,,,,,,,,,,,,,,,,,,,0,0,0,0,0
1.0650,1783966660.6272,1,1,3.0000,0.0000,1.42244,0.00067,-2.63058,1.05908,1.57080,0.11675,-0.12764,-0.48148,0.03734,,,,,,,,,,,,,,,,,,,,,,,,,,0,0,0,0,0
1.0668,1783966660.6291,1,1,3.0000,0.0000,1.42244,0.00066,-2.63059,1.05908,1.57080,0.11675,-0.12764,-0.48147,0.03733,,,,,,,,,,,,,,,,,,,,,,,,,,0,0,0,0,0
1.0713,1783966660.6335,1,1,3.0000,0.0000,1.42244,0.00065,-2.63060,1.05909,1.57080,0.11675,-0.12764,-0.48147,0.03732,,,,,,,,,,,,,,,,,,,,,,,,,,0,0,0,0,0
1.0715,1783966660.6338,1,1,3.0000,0.0000,1.42244,0.00065,-2.63060,1.05909,1.57080,0.11675,-0.12764,-0.48147,0.03732,,,,,,,,,,,,,,,,,,,,,,,,,,0,0,0,0,0
1.0903,1783966660.6526,1,1,3.0000,0.0000,1.42244,0.00060,-2.63063,1.05911,1.57080,0.11675,-0.12765,-0.48144,0.03729,,,,,,,,,,,,,,,,,,,,,,,,,,0,0,0,0,0
1.0907,1783966660.6529,1,1,3.0000,0.0000,1.42244,0.00060,-2.63063,1.05911,1.57080,0.11675,-0.12765,-0.48144,0.03729,,,,,,,,,,,,,,,,,,,,,,,,,,0,0,0,0,0
1.0969,1783966660.6592,1,1,3.0000,0.0000,1.42244,0.00058,-2.63064,1.05913,1.57080,0.11675,-0.12765,-0.48144,0.03728,,,,,,,,,,,,,,,,,,,,,,,,,,0,0,0,0,0
1.0974,1783966660.6597,1,1,3.0000,0.0000,1.42244,0.00058,-2.63064,1.05913,1.57080,0.11675,-0.12765,-0.48144,0.03728,,,,,,,,,,,,,,,,,,,,,,,,,,0,0,0,0,0
1.1024,1783966660.6646,1,1,3.0000,0.0000,1.42244,0.00053,-2.63066,1.05917,1.57080,0.11675,-0.12765,-0.48143,0.03726,,,,,,,,,,,,,,,,,,,,,,,,,,0,0,0,0,0
1.1037,1783966660.6659,1,1,3.0000,0.0000,1.42244,0.00053,-2.63066,1.05917,1.57080,0.11675,-0.12765,-0.48143,0.03726,,,,,,,,,,,,,,,,,,,,,,,,,,0,0,0,0,0
1.1040,1783966660.6662,1,1,3.0000,0.0000,1.42244,0.00053,-2.63066,1.05917,1.57080,0.11675,-0.12765,-0.48143,0.03726,,,,,,,,,,,,,,,,,,,,,,,,,,0,0,0,0,0
1.1049,1783966660.6672,1,1,3.0000,0.0000,1.42244,0.00053,-2.63066,1.05917,1.57080,0.11675,-0.12765,-0.48143,0.03726,,,,,,,,,,,,,,,,,,,,,,,,,,0,0,0,0,0
1.1053,1783966660.6676,1,1,3.0000,0.0000,1.42244,0.00053,-2.63066,1.05917,1.57080,0.11675,-0.12765,-0.48143,0.03726,,,,,,,,,,,,,,,,,,,,,,,,,,0,0,0,0,0
1.1061,1783966660.6684,1,1,3.0000,0.0000,1.42244,0.00050,-2.63067,1.05919,1.57080,0.11675,-0.12765,-0.48142,0.03724,,,,,,,,,,,,,,,,,,,,,,,,,,0,0,0,0,0
1.1101,1783966660.6724,1,1,3.0000,0.0000,1.42244,0.00047,-2.63069,1.05922,1.57080,0.11675,-0.12765,-0.48141,0.03723,,,,,,,,,,,,,,,,,,,,,,,,,,0,0,0,0,0
1.1236,1783966660.6859,1,1,3.0000,0.0000,1.42244,0.00045,-2.63069,1.05925,1.57080,0.11675,-0.12765,-0.48141,0.03722,,,,,,,,,,,,,,,,,,,,,,,,,,0,0,0,0,0
1.1286,1783966660.6909,1,1,3.0000,0.0000,1.42244,0.00042,-2.63070,1.05927,1.57080,0.11675,-0.12765,-0.48141,0.03721,,,,,,,,,,,,,,,,,,,,,,,,,,0,0,0,0,0
1.1413,1783966660.7036,1,1,3.0000,0.0000,1.42244,0.00031,-2.63072,1.05940,1.57080,0.11675,-0.12765,-0.48141,0.03717,,,,,,,,,,,,,,,,,,,,,,,,,,0,0,0,0,0
1.1494,1783966660.7117,1,1,3.0000,0.0000,1.42244,0.00027,-2.63073,1.05945,1.57080,0.11675,-0.12765,-0.48141,0.03715,,,,,,,,,,,,,,,,,,,,,,,,,,0,0,0,0,0
1.1582,1783966660.7204,1,1,3.0000,0.0000,1.42244,0.00021,-2.63074,1.05951,1.57080,0.11675,-0.12765,-0.48141,0.03714,,,,,,,,,,,,,,,,,,,,,,,,,,0,0,0,0,0
1.1585,1783966660.7208,1,1,3.0000,0.0000,1.42244,0.00021,-2.63074,1.05951,1.57080,0.11675,-0.12765,-0.48141,0.03714,,,,,,,,,,,,,,,,,,,,,,,,,,0,0,0,0,0
1.1701,1783966660.7324,1,1,3.0000,0.0000,1.42244,0.00014,-2.63076,1.05961,1.57080,0.11675,-0.12765,-0.48141,0.03711,,,,,,,,,,,,,,,,,,,,,,,,,,0,0,0,0,0
1.1805,1783966660.7427,1,1,3.0000,0.0000,1.42244,0.00011,-2.63076,1.05964,1.57080,0.11675,-0.12765,-0.48141,0.03710,,,,,,,,,,,,,,,,,,,,,,,,,,0,0,0,0,0
1.2518,1783966660.8140,1,1,3.0000,0.0000,1.42244,-0.00043,-2.63076,1.06035,1.57080,0.11675,-0.12763,-0.48152,0.03699,,,,,,,,,,,,,,,,,,,,,,,,,,0,0,0,0,0
1.2559,1783966660.8182,1,1,3.0000,0.0000,1.42244,-0.00045,-2.63075,1.06038,1.57080,0.11675,-0.12763,-0.48153,0.03699,,,,,,,,,,,,,,,,,,,,,,,,,,0,0,0,0,0
1.2731,1783966660.8353,1,1,3.0000,0.0000,1.42244,-0.00047,-2.63072,1.06041,1.57080,0.11675,-0.12763,-0.48156,0.03700,,,,,,,,,,,,,,,,,,,,,,,,,,0,0,0,0,0
1.2754,1783966660.8377,1,1,3.0000,0.0000,1.42244,-0.00047,-2.63072,1.06041,1.57080,0.11675,-0.12763,-0.48156,0.03700,,,,,,,,,,,,,,,,,,,,,,,,,,0,0,0,0,0
1.2757,1783966660.8380,1,1,3.0000,0.0000,1.42244,-0.00047,-2.63072,1.06041,1.57080,0.11675,-0.12763,-0.48156,0.03700,,,,,,,,,,,,,,,,,,,,,,,,,,0,0,0,0,0
1.2760,1783966660.8383,1,1,3.0000,0.0000,1.42244,-0.00047,-2.63072,1.06041,1.57080,0.11675,-0.12763,-0.48156,0.03700,,,,,,,,,,,,,,,,,,,,,,,,,,0,0,0,0,0
1.2763,1783966660.8386,1,1,3.0000,0.0000,1.42244,-0.00047,-2.63072,1.06041,1.57080,0.11675,-0.12763,-0.48156,0.03700,,,,,,,,,,,,,,,,,,,,,,,,,,0,0,0,0,0
1.2766,1783966660.8388,1,1,3.0000,0.0000,1.42244,-0.00047,-2.63072,1.06041,1.57080,0.11675,-0.12763,-0.48156,0.03700,,,,,,,,,,,,,,,,,,,,,,,,,,0,0,0,0,0
1.2769,1783966660.8391,1,1,3.0000,0.0000,1.42244,-0.00047,-2.63072,1.06041,1.57080,0.11675,-0.12763,-0.48156,0.03700,,,,,,,,,,,,,,,,,,,,,,,,,,0,0,0,0,0
1.2823,1783966660.8445,1,1,3.0000,0.0000,1.42244,-0.00047,-2.63072,1.06041,1.57080,0.11675,-0.12763,-0.48156,0.03700,,,,,,,,,,,,,,,,,,,,,,,,,,0,0,0,0,0
1.2826,1783966660.8449,1,1,3.0000,0.0000,1.42244,-0.00047,-2.63072,1.06041,1.57080,0.11675,-0.12763,-0.48156,0.03700,,,,,,,,,,,,,,,,,,,,,,,,,,0,0,0,0,0
1.2829,1783966660.8451,1,1,3.0000,0.0000,1.42244,-0.00047,-2.63072,1.06041,1.57080,0.11675,-0.12763,-0.48156,0.03700,,,,,,,,,,,,,,,,,,,,,,,,,,0,0,0,0,0
1.2831,1783966660.8454,1,1,3.0000,0.0000,1.42244,-0.00047,-2.63072,1.06041,1.57080,0.11675,-0.12763,-0.48156,0.03700,,,,,,,,,,,,,,,,,,,,,,,,,,0,0,0,0,0
1.2938,1783966660.8561,1,1,3.0000,0.0000,1.42244,-0.00047,-2.63072,1.06041,1.57080,0.11675,-0.12763,-0.48156,0.03700,,,,,,,,,,,,,,,,,,,,,,,,,,0,0,0,0,0
1.2944,1783966660.8567,1,1,3.0000,0.0000,1.42244,-0.00047,-2.63072,1.06041,1.57080,0.11675,-0.12763,-0.48156,0.03700,,,,,,,,,,,,,,,,,,,,,,,,,,0,0,0,0,0
1.3009,1783966660.8632,1,1,3.0000,0.0000,1.42244,-0.00047,-2.63072,1.06041,1.57080,0.11675,-0.12763,-0.48156,0.03700,,,,,,,,,,,,,,,,,,,,,,,,,,0,0,0,0,0
1.3119,1783966660.8741,1,1,3.0000,0.0000,1.42244,-0.00047,-2.63072,1.06041,1.57080,0.11675,-0.12763,-0.48156,0.03700,,,,,,,,,,,,,,,,,,,,,,,,,,0,0,0,0,0
1.3234,1783966660.8857,1,1,3.0000,0.0000,1.42244,-0.00047,-2.63072,1.06041,1.57080,0.11675,-0.12763,-0.48156,0.03700,,,,,,,,,,,,,,,,,,,,,,,,,,0,0,0,0,0
1.3288,1783966660.8910,1,1,3.0000,0.0000,1.42244,-0.00047,-2.63072,1.06041,1.57080,0.11675,-0.12763,-0.48156,0.03700,,,,,,,,,,,,,,,,,,,,,,,,,,0,0,0,0,0
1.3402,1783966660.9024,1,1,3.0000,0.0000,1.42244,-0.00047,-2.63072,1.06041,1.57080,0.11675,-0.12763,-0.48156,0.03700,,,,,,,,,,,,,,,,,,,,,,,,,,0,0,0,0,0
1.3518,1783966660.9140,1,1,3.0000,0.0000,1.42244,-0.00047,-2.63072,1.06041,1.57080,0.11675,-0.12763,-0.48156,0.03700,,,,,,,,,,,,,,,,,,,,,,,,,,0,0,0,0,0
1.3711,1783966660.9334,1,1,3.0000,0.0000,1.42244,-0.00047,-2.63072,1.06041,1.57080,0.11675,-0.12763,-0.48156,0.03700,,,,,,,,,,,,,,,,,,,,,,,,,,0,0,0,0,0
1.3714,1783966660.9336,1,1,3.0000,0.0000,1.42244,-0.00047,-2.63072,1.06041,1.57080,0.11675,-0.12763,-0.48156,0.03700,,,,,,,,,,,,,,,,,,,,,,,,,,0,0,0,0,0
1.3790,1783966660.9413,1,1,3.0000,0.0000,1.42244,-0.00047,-2.63072,1.06041,1.57080,0.11675,-0.12763,-0.48156,0.03700,,,,,,,,,,,,,,,,,,,,,,,,,,0,0,0,0,0
1.4115,1783966660.9737,1,1,3.0000,0.0000,1.42244,-0.00047,-2.63072,1.06041,1.57080,0.11675,-0.12763,-0.48156,0.03700,,,,,,,,,,,,,,,,,,,,,,,,,,0,0,0,0,0
1.4132,1783966660.9755,1,1,3.0000,0.0000,1.42244,-0.00047,-2.63072,1.06041,1.57080,0.11675,-0.12763,-0.48156,0.03700,,,,,,,,,,,,,,,,,,,,,,,,,,0,0,0,0,0
1.4136,1783966660.9759,1,1,3.0000,0.0000,1.42244,-0.00047,-2.63072,1.06041,1.57080,0.11675,-0.12763,-0.48156,0.03700,,,,,,,,,,,,,,,,,,,,,,,,,,0,0,0,0,0
1.4211,1783966660.9833,1,1,3.0000,0.0000,1.42244,-0.00047,-2.63072,1.06041,1.57080,0.11675,-0.12763,-0.48156,0.03700,,,,,,,,,,,,,,,,,,,,,,,,,,0,0,0,0,0
1.4243,1783966660.9866,1,1,3.0000,0.0000,1.42244,-0.00047,-2.63072,1.06042,1.57080,0.11675,-0.12763,-0.48156,0.03700,,,,,,,,,,,,,,,,,,,,,,,,,,0,0,0,0,0
1.4311,1783966660.9934,1,1,3.0000,0.0000,1.42244,-0.00047,-2.63073,1.06043,1.57080,0.11675,-0.12763,-0.48155,0.03699,,,,,,,,,,,,,,,,,,,,,,,,,,0,0,0,0,0
1.4423,1783966661.0046,1,1,3.0000,0.0000,1.42244,-0.00048,-2.63075,1.06046,1.57080,0.11675,-0.12763,-0.48154,0.03698,,,,,,,,,,,,,,,,,,,,,,,,,,0,0,0,0,0
1.4496,1783966661.0118,1,1,3.0000,0.0000,1.42244,-0.00048,-2.63076,1.06047,1.57080,0.11675,-0.12763,-0.48154,0.03698,,,,,,,,,,,,,,,,,,,,,,,,,,0,0,0,0,0
1.4594,1783966661.0216,1,1,3.0000,0.0000,1.42244,-0.00049,-2.63077,1.06048,1.57080,0.11675,-0.12763,-0.48153,0.03698,,,,,,,,,,,,,,,,,,,,,,,,,,0,0,0,0,0
1.4705,1783966661.0328,1,1,3.0000,0.0000,1.42244,-0.00052,-2.63081,1.06053,1.57080,0.11675,-0.12764,-0.48151,0.03695,,,,,,,,,,,,,,,,,,,,,,,,,,0,0,0,0,0
1.4808,1783966661.0431,1,1,3.0000,0.0000,1.42244,-0.00053,-2.63081,1.06053,1.57080,0.11675,-0.12764,-0.48151,0.03695,,,,,,,,,,,,,,,,,,,,,,,,,,0,0,0,0,0
1.4913,1783966661.0536,1,1,3.0000,0.0000,1.42244,-0.00057,-2.63085,1.06059,1.57080,0.11675,-0.12764,-0.48149,0.03692,,,,,,,,,,,,,,,,,,,,,,,,,,0,0,0,0,0
1.5193,1783966661.0815,1,1,3.0000,0.0000,1.42244,-0.00069,-2.63092,1.06074,1.57080,0.11675,-0.12764,-0.48146,0.03686,,,,,,,,,,,,,,,,,,,,,,,,,,0,0,0,0,0
1.5196,1783966661.0818,1,1,3.0000,0.0000,1.42244,-0.00069,-2.63092,1.06074,1.57080,0.11675,-0.12764,-0.48146,0.03686,,,,,,,,,,,,,,,,,,,,,,,,,,0,0,0,0,0
1.5199,1783966661.0821,1,1,3.0000,0.0000,1.42244,-0.00069,-2.63092,1.06074,1.57080,0.11675,-0.12764,-0.48146,0.03686,,,,,,,,,,,,,,,,,,,,,,,,,,0,0,0,0,0
1.5202,1783966661.0825,1,1,3.0000,0.0000,1.42244,-0.00069,-2.63092,1.06074,1.57080,0.11675,-0.12764,-0.48146,0.03686,,,,,,,,,,,,,,,,,,,,,,,,,,0,0,0,0,0
1.5206,1783966661.0828,1,1,3.0000,0.0000,1.42244,-0.00069,-2.63092,1.06074,1.57080,0.11675,-0.12764,-0.48146,0.03686,,,,,,,,,,,,,,,,,,,,,,,,,,0,0,0,0,0
1.5295,1783966661.0918,1,1,3.0000,0.0000,1.42244,-0.00074,-2.63094,1.06081,1.57080,0.11675,-0.12764,-0.48145,0.03684,,,,,,,,,,,,,,,,,,,,,,,,,,0,0,0,0,0
1.5436,1783966661.1059,1,1,3.0000,0.0000,1.42244,-0.00080,-2.63095,1.06088,1.57080,0.11675,-0.12764,-0.48146,0.03683,,,,,,,,,,,,,,,,,,,,,,,,,,0,0,0,0,0
1.5525,1783966661.1148,1,1,3.0000,0.0000,1.42244,-0.00088,-2.63097,1.06098,1.57080,0.11675,-0.12764,-0.48146,0.03680,,,,,,,,,,,,,,,,,,,,,,,,,,0,0,0,0,0
1.5586,1783966661.1208,1,1,3.0000,0.0000,1.42244,-0.00099,-2.63099,1.06112,1.57080,0.11675,-0.12764,-0.48146,0.03676,,,,,,,,,,,,,,,,,,,,,,,,,,0,0,0,0,0
1.5589,1783966661.1211,1,1,3.0000,0.0000,1.42244,-0.00099,-2.63099,1.06112,1.57080,0.11675,-0.12764,-0.48146,0.03676,,,,,,,,,,,,,,,,,,,,,,,,,,0,0,0,0,0
1.5734,1783966661.1357,1,1,3.0000,0.0000,1.42244,-0.00101,-2.63100,1.06115,1.57080,0.11675,-0.12764,-0.48146,0.03675,,,,,,,,,,,,,,,,,,,,,,,,,,0,0,0,0,0
1.5737,1783966661.1359,1,1,3.0000,0.0000,1.42244,-0.00101,-2.63100,1.06115,1.57080,0.11675,-0.12764,-0.48146,0.03675,,,,,,,,,,,,,,,,,,,,,,,,,,0,0,0,0,0
1.5785,1783966661.1408,1,1,3.0000,0.0000,1.42244,-0.00107,-2.63101,1.06122,1.57080,0.11675,-0.12764,-0.48146,0.03673,,,,,,,,,,,,,,,,,,,,,,,,,,0,0,0,0,0
1.5909,1783966661.1532,1,1,3.0000,0.0000,1.42244,-0.00120,-2.63104,1.06138,1.57080,0.11675,-0.12764,-0.48146,0.03669,,,,,,,,,,,,,,,,,,,,,,,,,,0,0,0,0,0
1.6092,1783966661.1714,1,1,3.0000,0.0000,1.42244,-0.00127,-2.63105,1.06146,1.57080,0.11675,-0.12764,-0.48146,0.03667,,,,,,,,,,,,,,,,,,,,,,,,,,0,0,0,0,0
1.6103,1783966661.1726,1,1,3.0000,0.0000,1.42244,-0.00129,-2.63105,1.06148,1.57080,0.11675,-0.12764,-0.48146,0.03667,,,,,,,,,,,,,,,,,,,,,,,,,,0,0,0,0,0
1.6197,1783966661.1819,1,1,3.0000,0.0000,1.42244,-0.00134,-2.63105,1.06155,1.57080,0.11675,-0.12764,-0.48147,0.03665,,,,,,,,,,,,,,,,,,,,,,,,,,0,0,0,0,0
1.6200,1783966661.1823,1,1,3.0000,0.0000,1.42244,-0.00134,-2.63105,1.06155,1.57080,0.11675,-0.12764,-0.48147,0.03665,,,,,,,,,,,,,,,,,,,,,,,,,,0,0,0,0,0
1.6296,1783966661.1919,1,1,3.0000,0.0000,1.42244,-0.00140,-2.63106,1.06164,1.57080,0.11675,-0.12764,-0.48148,0.03664,,,,,,,,,,,,,,,,,,,,,,,,,,0,0,0,0,0
1.6639,1783966661.2262,1,1,3.0000,0.0000,1.42244,-0.00165,-2.63102,1.06195,1.57080,0.11675,-0.12763,-0.48155,0.03660,,,,,,,,,,,,,,,,,,,,,,,,,,0,0,0,0,0
1.6651,1783966661.2273,1,1,3.0000,0.0000,1.42244,-0.00165,-2.63102,1.06195,1.57080,0.11675,-0.12763,-0.48155,0.03660,,,,,,,,,,,,,,,,,,,,,,,,,,0,0,0,0,0
1.6653,1783966661.2276,1,1,3.0000,0.0000,1.42244,-0.00165,-2.63102,1.06195,1.57080,0.11675,-0.12763,-0.48155,0.03660,,,,,,,,,,,,,,,,,,,,,,,,,,0,0,0,0,0
1.6747,1783966661.2369,1,1,3.0000,0.0000,1.42244,-0.00165,-2.63102,1.06195,1.57080,0.11675,-0.12763,-0.48155,0.03660,,,,,,,,,,,,,,,,,,,,,,,,,,0,0,0,0,0
1.6845,1783966661.2467,1,1,3.0000,0.0000,1.42244,-0.00165,-2.63102,1.06195,1.57080,0.11675,-0.12763,-0.48155,0.03660,,,,,,,,,,,,,,,,,,,,,,,,,,0,0,0,0,0
1.7029,1783966661.2652,1,1,3.0000,0.0000,1.42244,-0.00165,-2.63102,1.06195,1.57080,0.11675,-0.12763,-0.48155,0.03660,,,,,,,,,,,,,,,,,,,,,,,,,,0,0,0,0,0
1.7034,1783966661.2656,1,1,3.0000,0.0000,1.42244,-0.00165,-2.63102,1.06195,1.57080,0.11675,-0.12763,-0.48155,0.03660,,,,,,,,,,,,,,,,,,,,,,,,,,0,0,0,0,0
1.7050,1783966661.2672,1,1,3.0000,0.0000,1.42244,-0.00165,-2.63102,1.06195,1.57080,0.11675,-0.12763,-0.48155,0.03660,,,,,,,,,,,,,,,,,,,,,,,,,,0,0,0,0,0
1.7053,1783966661.2675,1,1,3.0000,0.0000,1.42244,-0.00165,-2.63102,1.06195,1.57080,0.11675,-0.12763,-0.48155,0.03660,,,,,,,,,,,,,,,,,,,,,,,,,,0,0,0,0,0
1.7106,1783966661.2729,1,1,3.0000,0.0000,1.42244,-0.00165,-2.63102,1.06195,1.57080,0.11675,-0.12763,-0.48155,0.03660,,,,,,,,,,,,,,,,,,,,,,,,,,0,0,0,0,0
1.7110,1783966661.2732,1,1,3.0000,0.0000,1.42244,-0.00165,-2.63102,1.06195,1.57080,0.11675,-0.12763,-0.48155,0.03660,,,,,,,,,,,,,,,,,,,,,,,,,,0,0,0,0,0
1.7208,1783966661.2830,1,1,3.0000,0.0000,1.42244,-0.00165,-2.63102,1.06195,1.57080,0.11675,-0.12763,-0.48155,0.03660,,,,,,,,,,,,,,,,,,,,,,,,,,0,0,0,0,0
1.7317,1783966661.2939,1,1,3.0000,0.0000,1.42244,-0.00165,-2.63102,1.06195,1.57080,0.11675,-0.12763,-0.48155,0.03660,,,,,,,,,,,,,,,,,,,,,,,,,,0,0,0,0,0
1.7424,1783966661.3046,1,1,3.0000,0.0000,1.42244,-0.00165,-2.63102,1.06195,1.57080,0.11675,-0.12763,-0.48155,0.03660,,,,,,,,,,,,,,,,,,,,,,,,,,0,0,0,0,0
1.7563,1783966661.3186,1,1,3.0000,0.0000,1.42244,-0.00165,-2.63102,1.06195,1.57080,0.11675,-0.12763,-0.48155,0.03660,,,,,,,,,,,,,,,,,,,,,,,,,,0,0,0,0,0
1.7603,1783966661.3226,1,1,3.0000,0.0000,1.42244,-0.00165,-2.63102,1.06195,1.57080,0.11675,-0.12763,-0.48155,0.03660,,,,,,,,,,,,,,,,,,,,,,,,,,0,0,0,0,0
1.7732,1783966661.3354,1,1,3.0000,0.0000,1.42244,-0.00165,-2.63102,1.06195,1.57080,0.11675,-0.12763,-0.48155,0.03660,,,,,,,,,,,,,,,,,,,,,,,,,,0,0,0,0,0
1.7785,1783966661.3408,1,1,3.0000,0.0000,1.42244,-0.00165,-2.63102,1.06195,1.57080,0.11675,-0.12763,-0.48155,0.03660,,,,,,,,,,,,,,,,,,,,,,,,,,0,0,0,0,0
1.7883,1783966661.3505,1,1,3.0000,0.0000,1.42244,-0.00165,-2.63102,1.06195,1.57080,0.11675,-0.12763,-0.48155,0.03660,,,,,,,,,,,,,,,,,,,,,,,,,,0,0,0,0,0
1.8062,1783966661.3685,1,1,3.0000,0.0000,1.42244,-0.00165,-2.63102,1.06195,1.57080,0.11675,-0.12763,-0.48155,0.03660,,,,,,,,,,,,,,,,,,,,,,,,,,0,0,0,0,0
1.8235,1783966661.3858,1,1,3.0000,0.0000,1.42244,-0.00165,-2.63102,1.06195,1.57080,0.11675,-0.12763,-0.48155,0.03660,,,,,,,,,,,,,,,,,,,,,,,,,,0,0,0,0,0
1.8245,1783966661.3867,1,1,3.0000,0.0000,1.42244,-0.00165,-2.63102,1.06195,1.57080,0.11675,-0.12763,-0.48155,0.03660,,,,,,,,,,,,,,,,,,,,,,,,,,0,0,0,0,0
1.8248,1783966661.3870,1,1,3.0000,0.0000,1.42244,-0.00165,-2.63102,1.06195,1.57080,0.11675,-0.12763,-0.48155,0.03660,,,,,,,,,,,,,,,,,,,,,,,,,,0,0,0,0,0
1.8291,1783966661.3914,1,1,3.0000,0.0000,1.42244,-0.00165,-2.63102,1.06195,1.57080,0.11675,-0.12763,-0.48155,0.03660,,,,,,,,,,,,,,,,,,,,,,,,,,0,0,0,0,0
1.8295,1783966661.3917,1,1,3.0000,0.0000,1.42244,-0.00165,-2.63102,1.06195,1.57080,0.11675,-0.12763,-0.48155,0.03660,,,,,,,,,,,,,,,,,,,,,,,,,,0,0,0,0,0
1.8407,1783966661.4029,1,1,3.0000,0.0000,1.42244,-0.00165,-2.63102,1.06195,1.57080,0.11675,-0.12763,-0.48155,0.03660,,,,,,,,,,,,,,,,,,,,,,,,,,0,0,0,0,0
1.8597,1783966661.4220,1,1,3.0000,0.0000,1.42244,-0.00165,-2.63102,1.06195,1.57080,0.11675,-0.12763,-0.48155,0.03660,,,,,,,,,,,,,,,,,,,,,,,,,,0,0,0,0,0
1.8613,1783966661.4235,1,1,3.0000,0.0000,1.42244,-0.00165,-2.63102,1.06195,1.57080,0.11675,-0.12763,-0.48155,0.03660,,,,,,,,,,,,,,,,,,,,,,,,,,0,0,0,0,0
1.8685,1783966661.4307,1,1,3.0000,0.0000,1.42244,-0.00165,-2.63102,1.06195,1.57080,0.11675,-0.12763,-0.48155,0.03660,,,,,,,,,,,,,,,,,,,,,,,,,,0,0,0,0,0
1.8786,1783966661.4409,1,1,3.0000,0.0000,1.42244,-0.00166,-2.63104,1.06197,1.57080,0.11675,-0.12763,-0.48154,0.03659,,,,,,,,,,,,,,,,,,,,,,,,,,0,0,0,0,0
1.8789,1783966661.4412,1,1,3.0000,0.0000,1.42244,-0.00166,-2.63104,1.06197,1.57080,0.11675,-0.12763,-0.48154,0.03659,,,,,,,,,,,,,,,,,,,,,,,,,,0,0,0,0,0
1.8922,1783966661.4545,1,1,3.0000,0.0000,1.42244,-0.00169,-2.63108,1.06201,1.57080,0.11675,-0.12763,-0.48152,0.03656,,,,,,,,,,,,,,,,,,,,,,,,,,0,0,0,0,0
1.8984,1783966661.4607,1,1,3.0000,0.0000,1.42243,-0.00170,-2.63110,1.06203,1.57080,0.11675,-0.12763,-0.48151,0.03655,,,,,,,,,,,,,,,,,,,,,,,,,,0,0,0,0,0
1.9157,1783966661.4780,1,1,3.0000,0.0000,1.42243,-0.00175,-2.63113,1.06208,1.57080,0.11675,-0.12764,-0.48149,0.03652,,,,,,,,,,,,,,,,,,,,,,,,,,0,0,0,0,0
1.9229,1783966661.4851,1,1,3.0000,0.0000,1.42243,-0.00177,-2.63115,1.06210,1.57080,0.11675,-0.12764,-0.48148,0.03651,,,,,,,,,,,,,,,,,,,,,,,,,,0,0,0,0,0
1.9333,1783966661.4956,1,1,3.0000,0.0000,1.42243,-0.00179,-2.63115,1.06212,1.57080,0.11675,-0.12764,-0.48148,0.03650,,,,,,,,,,,,,,,,,,,,,,,,,,0,0,0,0,0
1.9383,1783966661.5006,1,1,3.0000,0.0000,1.42243,-0.00184,-2.63117,1.06218,1.57080,0.11675,-0.12764,-0.48147,0.03648,,,,,,,,,,,,,,,,,,,,,,,,,,0,0,0,0,0
1.9386,1783966661.5009,1,1,3.0000,0.0000,1.42243,-0.00184,-2.63117,1.06218,1.57080,0.11675,-0.12764,-0.48147,0.03648,,,,,,,,,,,,,,,,,,,,,,,,,,0,0,0,0,0
1.9484,1783966661.5107,1,1,3.0000,0.0000,1.42243,-0.00191,-2.63120,1.06227,1.57080,0.11675,-0.12764,-0.48147,0.03646,,,,,,,,,,,,,,,,,,,,,,,,,,0,0,0,0,0
1.9605,1783966661.5227,1,1,3.0000,0.0000,1.42243,-0.00196,-2.63121,1.06233,1.57080,0.11675,-0.12764,-0.48146,0.03644,,,,,,,,,,,,,,,,,,,,,,,,,,0,0,0,0,0
1.9696,1783966661.5319,1,1,3.0000,0.0000,1.42243,-0.00200,-2.63122,1.06238,1.57080,0.11675,-0.12764,-0.48146,0.03642,,,,,,,,,,,,,,,,,,,,,,,,,,0,0,0,0,0
1.9703,1783966661.5326,1,1,3.0000,0.0000,1.42243,-0.00203,-2.63123,1.06242,1.57080,0.11675,-0.12764,-0.48146,0.03641,,,,,,,,,,,,,,,,,,,,,,,,,,0,0,0,0,0
1.9784,1783966661.5406,1,1,3.0000,0.0000,1.42243,-0.00212,-2.63125,1.06253,1.57080,0.11675,-0.12764,-0.48146,0.03638,,,,,,,,,,,,,,,,,,,,,,,,,,0,0,0,0,0
1.9787,1783966661.5409,1,1,3.0000,0.0000,1.42243,-0.00212,-2.63125,1.06253,1.57080,0.11675,-0.12764,-0.48146,0.03638,,,,,,,,,,,,,,,,,,,,,,,,,,0,0,0,0,0
1.9951,1783966661.5574,1,1,3.0000,0.0000,1.42243,-0.00223,-2.63127,1.06266,1.57080,0.11675,-0.12764,-0.48146,0.03634,,,,,,,,,,,,,,,,,,,,,,,,,,0,0,0,0,0
1.9992,1783966661.5614,1,1,3.0000,0.0000,1.42243,-0.00225,-2.63128,1.06268,1.57080,0.11675,-0.12764,-0.48146,0.03634,,,,,,,,,,,,,,,,,,,,,,,,,,0,0,0,0,0
2.0125,1783966661.5747,1,1,3.0000,0.0000,1.42243,-0.00234,-2.63129,1.06279,1.57080,0.11675,-0.12764,-0.48146,0.03631,,,,,,,,,,,,,,,,,,,,,,,,,,0,0,0,0,0
2.0185,1783966661.5807,1,1,3.0000,0.0000,1.42243,-0.00234,-2.63129,1.06279,1.57080,0.11675,-0.12764,-0.48146,0.03631,,,,,,,,,,,,,,,,,,,,,,,,,,0,0,0,0,0
2.0346,1783966661.5968,1,1,3.0000,0.0000,1.42243,-0.00245,-2.63131,1.06293,1.57080,0.11675,-0.12764,-0.48147,0.03627,,,,,,,,,,,,,,,,,,,,,,,,,,0,0,0,0,0
2.0456,1783966661.6078,1,1,3.0000,0.0000,1.42243,-0.00254,-2.63131,1.06303,1.57080,0.11675,-0.12764,-0.48148,0.03625,,,,,,,,,,,,,,,,,,,,,,,,,,0,0,0,0,0
2.0506,1783966661.6129,1,1,3.0000,0.0000,1.42243,-0.00263,-2.63132,1.06315,1.57080,0.11675,-0.12763,-0.48149,0.03623,,,,,,,,,,,,,,,,,,,,,,,,,,0,0,0,0,0
2.0511,1783966661.6134,1,1,3.0000,0.0000,1.42243,-0.00263,-2.63132,1.06315,1.57080,0.11675,-0.12763,-0.48149,0.03623,,,,,,,,,,,,,,,,,,,,,,,,,,0,0,0,0,0
2.0643,1783966661.6265,1,1,3.0000,0.0000,1.42243,-0.00275,-2.63133,1.06330,1.57080,0.11675,-0.12763,-0.48151,0.03620,,,,,,,,,,,,,,,,,,,,,,,,,,0,0,0,0,0
2.0706,1783966661.6328,1,1,3.0000,0.0000,1.42243,-0.00280,-2.63133,1.06337,1.57080,0.11675,-0.12763,-0.48152,0.03618,,,,,,,,,,,,,,,,,,,,,,,,,,0,0,0,0,0
2.0709,1783966661.6332,1,1,3.0000,0.0000,1.42243,-0.00280,-2.63133,1.06337,1.57080,0.11675,-0.12763,-0.48152,0.03618,,,,,,,,,,,,,,,,,,,,,,,,,,0,0,0,0,0
2.0796,1783966661.6419,1,1,3.0000,0.0000,1.42243,-0.00282,-2.63132,1.06339,1.57080,0.11675,-0.12763,-0.48153,0.03618,,,,,,,,,,,,,,,,,,,,,,,,,,0,0,0,0,0
2.0891,1783966661.6514,1,1,3.0000,0.0000,1.42243,-0.00282,-2.63132,1.06339,1.57080,0.11675,-0.12763,-0.48153,0.03618,,,,,,,,,,,,,,,,,,,,,,,,,,0,0,0,0,0
2.1010,1783966661.6632,1,1,3.0000,0.0000,1.42243,-0.00282,-2.63132,1.06339,1.57080,0.11675,-0.12763,-0.48153,0.03618,,,,,,,,,,,,,,,,,,,,,,,,,,0,0,0,0,0
2.1131,1783966661.6754,1,1,3.0000,0.0000,1.42243,-0.00282,-2.63132,1.06339,1.57080,0.11675,-0.12763,-0.48153,0.03618,,,,,,,,,,,,,,,,,,,,,,,,,,0,0,0,0,0
2.1307,1783966661.6929,1,1,3.0000,0.0000,1.42243,-0.00282,-2.63132,1.06339,1.57080,0.11675,-0.12763,-0.48153,0.03618,,,,,,,,,,,,,,,,,,,,,,,,,,0,0,0,0,0
2.1310,1783966661.6932,1,1,3.0000,0.0000,1.42243,-0.00282,-2.63132,1.06339,1.57080,0.11675,-0.12763,-0.48153,0.03618,,,,,,,,,,,,,,,,,,,,,,,,,,0,0,0,0,0
2.1314,1783966661.6937,1,1,3.0000,0.0000,1.42243,-0.00282,-2.63132,1.06339,1.57080,0.11675,-0.12763,-0.48153,0.03618,,,,,,,,,,,,,,,,,,,,,,,,,,0,0,0,0,0
2.1414,1783966661.7037,1,1,3.0000,0.0000,1.42243,-0.00282,-2.63132,1.06339,1.57080,0.11675,-0.12763,-0.48153,0.03618,,,,,,,,,,,,,,,,,,,,,,,,,,0,0,0,0,0
2.1704,1783966661.7326,1,1,3.0000,0.0000,1.42243,-0.00282,-2.63132,1.06339,1.57080,0.11675,-0.12763,-0.48153,0.03618,,,,,,,,,,,,,,,,,,,,,,,,,,0,0,0,0,0
2.1731,1783966661.7354,1,1,3.0000,0.0000,1.42243,-0.00282,-2.63132,1.06339,1.57080,0.11675,-0.12763,-0.48153,0.03618,,,,,,,,,,,,,,,,,,,,,,,,,,0,0,0,0,0
2.1736,1783966661.7358,1,1,3.0000,0.0000,1.42243,-0.00282,-2.63132,1.06339,1.57080,0.11675,-0.12763,-0.48153,0.03618,,,,,,,,,,,,,,,,,,,,,,,,,,0,0,0,0,0
2.1758,1783966661.7381,1,1,3.0000,0.0000,1.42243,-0.00282,-2.63132,1.06339,1.57080,0.11675,-0.12763,-0.48153,0.03618,,,,,,,,,,,,,,,,,,,,,,,,,,0,0,0,0,0
2.1895,1783966661.7518,1,1,3.0000,0.0000,1.42243,-0.00282,-2.63132,1.06339,1.57080,0.11675,-0.12763,-0.48153,0.03618,,,,,,,,,,,,,,,,,,,,,,,,,,0,0,0,0,0
2.1906,1783966661.7529,1,1,3.0000,0.0000,1.42243,-0.00282,-2.63132,1.06339,1.57080,0.11675,-0.12763,-0.48153,0.03618,,,,,,,,,,,,,,,,,,,,,,,,,,0,0,0,0,0
2.1910,1783966661.7533,1,1,3.0000,0.0000,1.42243,-0.00282,-2.63132,1.06339,1.57080,0.11675,-0.12763,-0.48153,0.03618,,,,,,,,,,,,,,,,,,,,,,,,,,0,0,0,0,0
2.2030,1783966661.7653,1,1,3.0000,0.0000,1.42243,-0.00282,-2.63132,1.06339,1.57080,0.11675,-0.12763,-0.48153,0.03618,,,,,,,,,,,,,,,,,,,,,,,,,,0,0,0,0,0
2.2154,1783966661.7777,1,1,3.0000,0.0000,1.42243,-0.00282,-2.63132,1.06339,1.57080,0.11675,-0.12763,-0.48153,0.03618,,,,,,,,,,,,,,,,,,,,,,,,,,0,0,0,0,0
2.2210,1783966661.7833,1,1,3.0000,0.0000,1.42243,-0.00282,-2.63132,1.06339,1.57080,0.11675,-0.12763,-0.48153,0.03618,,,,,,,,,,,,,,,,,,,,,,,,,,0,0,0,0,0
2.2215,1783966661.7838,1,1,3.0000,0.0000,1.42243,-0.00282,-2.63132,1.06339,1.57080,0.11675,-0.12763,-0.48153,0.03618,,,,,,,,,,,,,,,,,,,,,,,,,,0,0,0,0,0
2.2303,1783966661.7926,1,1,3.0000,0.0000,1.42243,-0.00282,-2.63132,1.06339,1.57080,0.11675,-0.12763,-0.48153,0.03618,,,,,,,,,,,,,,,,,,,,,,,,,,0,0,0,0,0
2.2561,1783966661.8183,1,1,3.0000,0.0000,1.42243,-0.00282,-2.63132,1.06339,1.57080,0.11675,-0.12763,-0.48153,0.03618,,,,,,,,,,,,,,,,,,,,,,,,,,0,0,0,0,0
2.2565,1783966661.8187,1,1,3.0000,0.0000,1.42243,-0.00282,-2.63132,1.06339,1.57080,0.11675,-0.12763,-0.48153,0.03618,,,,,,,,,,,,,,,,,,,,,,,,,,0,0,0,0,0
2.2568,1783966661.8190,1,1,3.0000,0.0000,1.42243,-0.00282,-2.63132,1.06339,1.57080,0.11675,-0.12763,-0.48153,0.03618,,,,,,,,,,,,,,,,,,,,,,,,,,0,0,0,0,0
2.2601,1783966661.8224,1,1,3.0000,0.0000,1.42243,-0.00282,-2.63132,1.06339,1.57080,0.11675,-0.12763,-0.48153,0.03618,,,,,,,,,,,,,,,,,,,,,,,,,,0,0,0,0,0
2.2704,1783966661.8327,1,1,3.0000,0.0000,1.42243,-0.00282,-2.63132,1.06339,1.57080,0.11675,-0.12763,-0.48153,0.03618,,,,,,,,,,,,,,,,,,,,,,,,,,0,0,0,0,0
2.2707,1783966661.8329,1,1,3.0000,0.0000,1.42243,-0.00282,-2.63132,1.06339,1.57080,0.11675,-0.12763,-0.48153,0.03618,,,,,,,,,,,,,,,,,,,,,,,,,,0,0,0,0,0
2.2890,1783966661.8513,1,1,3.0000,0.0000,1.42243,-0.00282,-2.63132,1.06340,1.57080,0.11675,-0.12763,-0.48152,0.03618,,,,,,,,,,,,,,,,,,,,,,,,,,0,0,0,0,0
2.2893,1783966661.8516,1,1,3.0000,0.0000,1.42243,-0.00282,-2.63132,1.06340,1.57080,0.11675,-0.12763,-0.48152,0.03618,,,,,,,,,,,,,,,,,,,,,,,,,,0,0,0,0,0
2.2896,1783966661.8519,1,1,3.0000,0.0000,1.42243,-0.00282,-2.63132,1.06340,1.57080,0.11675,-0.12763,-0.48152,0.03618,,,,,,,,,,,,,,,,,,,,,,,,,,0,0,0,0,0
2.3005,1783966661.8627,1,1,3.0000,0.0000,1.42243,-0.00284,-2.63134,1.06342,1.57080,0.11675,-0.12763,-0.48152,0.03617,,,,,,,,,,,,,,,,,,,,,,,,,,0,0,0,0,0
2.3114,1783966661.8737,1,1,3.0000,0.0000,1.42243,-0.00287,-2.63137,1.06346,1.57080,0.11675,-0.12763,-0.48150,0.03615,,,,,,,,,,,,,,,,,,,,,,,,,,0,0,0,0,0
2.3256,1783966661.8879,1,1,3.0000,0.0000,1.42243,-0.00288,-2.63139,1.06348,1.57080,0.11675,-0.12763,-0.48149,0.03614,,,,,,,,,,,,,,,,,,,,,,,,,,0,0,0,0,0
2.3282,1783966661.8905,1,1,3.0000,0.0000,1.42243,-0.00289,-2.63139,1.06348,1.57080,0.11675,-0.12763,-0.48148,0.03613,,,,,,,,,,,,,,,,,,,,,,,,,,0,0,0,0,0
2.3385,1783966661.9008,1,1,3.0000,0.0000,1.42243,-0.00293,-2.63142,1.06353,1.57080,0.11675,-0.12764,-0.48147,0.03611,,,,,,,,,,,,,,,,,,,,,,,,,,0,0,0,0,0
2.3568,1783966661.9191,1,1,3.0000,0.0000,1.42243,-0.00298,-2.63145,1.06358,1.57080,0.11675,-0.12764,-0.48146,0.03609,,,,,,,,,,,,,,,,,,,,,,,,,,0,0,0,0,0
2.3585,1783966661.9208,1,1,3.0000,0.0000,1.42243,-0.00299,-2.63145,1.06359,1.57080,0.11675,-0.12764,-0.48146,0.03608,,,,,,,,,,,,,,,,,,,,,,,,,,0,0,0,0,0
2.3683,1783966661.9305,1,1,3.0000,0.0000,1.42243,-0.00303,-2.63146,1.06364,1.57080,0.11675,-0.12764,-0.48145,0.03607,,,,,,,,,,,,,,,,,,,,,,,,,,0,0,0,0,0
2.3813,1783966661.9435,1,1,3.0000,0.0000,1.42243,-0.00307,-2.63147,1.06369,1.57080,0.11675,-0.12764,-0.48145,0.03605,,,,,,,,,,,,,,,,,,,,,,,,,,0,0,0,0,0
2.3882,1783966661.9505,1,1,3.0000,0.0000,1.42243,-0.00311,-2.63148,1.06374,1.57080,0.11675,-0.12764,-0.48145,0.03604,,,,,,,,,,,,,,,,,,,,,,,,,,0,0,0,0,0
2.3984,1783966661.9606,1,1,3.0000,0.0000,1.42243,-0.00325,-2.63151,1.06391,1.57080,0.11675,-0.12764,-0.48146,0.03599,,,,,,,,,,,,,,,,,,,,,,,,,,0,0,0,0,0
2.4096,1783966661.9719,1,1,3.0000,0.0000,1.42243,-0.00331,-2.63152,1.06398,1.57080,0.11675,-0.12764,-0.48146,0.03597,,,,,,,,,,,,,,,,,,,,,,,,,,0,0,0,0,0
2.4389,1783966662.0011,1,1,3.0000,0.0000,1.42243,-0.00353,-2.63156,1.06424,1.57080,0.11675,-0.12764,-0.48146,0.03590,,,,,,,,,,,,,,,,,,,,,,,,,,0,0,0,0,0
2.4434,1783966662.0057,1,1,3.0000,0.0000,1.42243,-0.00353,-2.63156,1.06425,1.57080,0.11675,-0.12764,-0.48146,0.03590,,,,,,,,,,,,,,,,,,,,,,,,,,0,0,0,0,0
2.4552,1783966662.0174,1,1,3.0000,0.0000,1.42243,-0.00360,-2.63157,1.06433,1.57080,0.11675,-0.12764,-0.48147,0.03588,,,,,,,,,,,,,,,,,,,,,,,,,,0,0,0,0,0
2.4595,1783966662.0218,1,1,3.0000,0.0000,1.42243,-0.00363,-2.63157,1.06437,1.57080,0.11675,-0.12764,-0.48147,0.03587,,,,,,,,,,,,,,,,,,,,,,,,,,0,0,0,0,0
2.4711,1783966662.0333,1,1,3.0000,0.0000,1.42243,-0.00376,-2.63158,1.06452,1.57080,0.11675,-0.12763,-0.48148,0.03584,,,,,,,,,,,,,,,,,,,,,,,,,,0,0,0,0,0
2.4797,1783966662.0420,1,1,3.0000,0.0000,1.42243,-0.00384,-2.63159,1.06462,1.57080,0.11675,-0.12763,-0.48149,0.03581,,,,,,,,,,,,,,,,,,,,,,,,,,0,0,0,0,0
2.4945,1783966662.0567,1,1,3.0000,0.0000,1.42243,-0.00398,-2.63159,1.06480,1.57080,0.11675,-0.12763,-0.48152,0.03578,,,,,,,,,,,,,,,,,,,,,,,,,,0,0,0,0,0
2.4986,1783966662.0608,1,1,3.0000,0.0000,1.42243,-0.00400,-2.63159,1.06482,1.57080,0.11675,-0.12763,-0.48152,0.03578,,,,,,,,,,,,,,,,,,,,,,,,,,0,0,0,0,0
2.4990,1783966662.0612,1,1,3.0000,0.0000,1.42243,-0.00400,-2.63159,1.06482,1.57080,0.11675,-0.12763,-0.48152,0.03578,,,,,,,,,,,,,,,,,,,,,,,,,,0,0,0,0,0
2.5128,1783966662.0750,1,1,3.0000,0.0000,1.42243,-0.00400,-2.63159,1.06482,1.57080,0.11675,-0.12763,-0.48152,0.03578,,,,,,,,,,,,,,,,,,,,,,,,,,0,0,0,0,0
2.5226,1783966662.0849,1,1,3.0000,0.0000,1.42243,-0.00400,-2.63159,1.06482,1.57080,0.11675,-0.12763,-0.48152,0.03578,,,,,,,,,,,,,,,,,,,,,,,,,,0,0,0,0,0
2.5315,1783966662.0937,1,1,3.0000,0.0000,1.42243,-0.00400,-2.63159,1.06482,1.57080,0.11675,-0.12763,-0.48152,0.03578,,,,,,,,,,,,,,,,,,,,,,,,,,0,0,0,0,0
2.5401,1783966662.1024,1,1,3.0000,0.0000,1.42243,-0.00400,-2.63159,1.06482,1.57080,0.11675,-0.12763,-0.48152,0.03578,,,,,,,,,,,,,,,,,,,,,,,,,,0,0,0,0,0
2.5406,1783966662.1029,1,1,3.0000,0.0000,1.42243,-0.00400,-2.63159,1.06482,1.57080,0.11675,-0.12763,-0.48152,0.03578,,,,,,,,,,,,,,,,,,,,,,,,,,0,0,0,0,0
2.7357,1783966662.2979,1,1,3.0000,0.0000,1.42243,-0.00403,-2.63161,1.06486,1.57080,0.11675,-0.12763,-0.48151,0.03576,,,,,,,,,,,,,,,,,,,,,,,,,,0,0,0,0,0
2.7816,1783966662.3438,1,1,3.0000,0.0000,1.42243,-0.00417,-2.63171,1.06503,1.57080,0.11675,-0.12764,-0.48146,0.03568,,,,,,,,,,,,,,,,,,,,,,,,,,0,0,0,0,0
2.8768,1783966662.4391,1,1,3.0000,0.0000,1.42242,-0.00476,-2.63183,1.06574,1.57080,0.11675,-0.12763,-0.48146,0.03548,,,,,,,,,,,,,,,,,,,,,,,,,,0,0,0,0,0
2.8823,1783966662.4446,1,1,3.0000,0.0000,1.42242,-0.00485,-2.63184,1.06585,1.57080,0.11675,-0.12763,-0.48147,0.03546,,,,,,,,,,,,,,,,,,,,,,,,,,0,0,0,0,0
2.8857,1783966662.4479,1,1,3.0000,0.0000,1.42242,-0.00485,-2.63184,1.06585,1.57080,0.11675,-0.12763,-0.48147,0.03546,,,,,,,,,,,,,,,,,,,,,,,,,,0,0,0,0,0
2.8891,1783966662.4513,1,1,3.0000,0.0000,1.42242,-0.00485,-2.63184,1.06585,1.57080,0.11675,-0.12763,-0.48147,0.03546,,,,,,,,,,,,,,,,,,,,,,,,,,0,0,0,0,0
2.8895,1783966662.4517,1,1,3.0000,0.0000,1.42242,-0.00485,-2.63184,1.06585,1.57080,0.11675,-0.12763,-0.48147,0.03546,,,,,,,,,,,,,,,,,,,,,,,,,,0,0,0,0,0
2.8930,1783966662.4553,1,1,3.0000,0.0000,1.42242,-0.00485,-2.63184,1.06585,1.57080,0.11675,-0.12763,-0.48147,0.03546,,,,,,,,,,,,,,,,,,,,,,,,,,0,0,0,0,0
2.8943,1783966662.4566,1,1,3.0000,0.0000,1.42242,-0.00486,-2.63184,1.06587,1.57080,0.11675,-0.12763,-0.48147,0.03545,,,,,,,,,,,,,,,,,,,,,,,,,,0,0,0,0,0
2.9032,1783966662.4655,1,1,3.0000,0.0000,1.42242,-0.00491,-2.63184,1.06592,1.57080,0.11675,-0.12763,-0.48148,0.03545,,,,,,,,,,,,,,,,,,,,,,,,,,0,0,0,0,0
2.9063,1783966662.4685,1,1,3.0000,0.0000,1.42242,-0.00493,-2.63184,1.06595,1.57080,0.11675,-0.12763,-0.48148,0.03544,,,,,,,,,,,,,,,,,,,,,,,,,,0,0,0,0,0
2.9066,1783966662.4689,1,1,3.0000,0.0000,1.42242,-0.00493,-2.63184,1.06595,1.57080,0.11675,-0.12763,-0.48148,0.03544,,,,,,,,,,,,,,,,,,,,,,,,,,0,0,0,0,0
2.9103,1783966662.4726,1,1,3.0000,0.0000,1.42242,-0.00496,-2.63184,1.06599,1.57080,0.11675,-0.12763,-0.48149,0.03543,,,,,,,,,,,,,,,,,,,,,,,,,,0,0,0,0,0
2.9107,1783966662.4729,1,1,3.0000,0.0000,1.42242,-0.00496,-2.63184,1.06599,1.57080,0.11675,-0.12763,-0.48149,0.03543,,,,,,,,,,,,,,,,,,,,,,,,,,0,0,0,0,0
2.9113,1783966662.4735,1,1,3.0000,0.0000,1.42242,-0.00496,-2.63184,1.06599,1.57080,0.11675,-0.12763,-0.48149,0.03543,,,,,,,,,,,,,,,,,,,,,,,,,,0,0,0,0,0
2.9115,1783966662.4738,1,1,3.0000,0.0000,1.42242,-0.00496,-2.63184,1.06599,1.57080,0.11675,-0.12763,-0.48149,0.03543,,,,,,,,,,,,,,,,,,,,,,,,,,0,0,0,0,0
2.9129,1783966662.4751,1,1,3.0000,0.0000,1.42242,-0.00496,-2.63184,1.06599,1.57080,0.11675,-0.12763,-0.48149,0.03543,,,,,,,,,,,,,,,,,,,,,,,,,,0,0,0,0,0
2.9131,1783966662.4754,1,1,3.0000,0.0000,1.42242,-0.00496,-2.63184,1.06599,1.57080,0.11675,-0.12763,-0.48149,0.03543,,,,,,,,,,,,,,,,,,,,,,,,,,0,0,0,0,0
2.9146,1783966662.4769,1,1,3.0000,0.0000,1.42242,-0.00500,-2.63184,1.06604,1.57080,0.11675,-0.12763,-0.48150,0.03543,,,,,,,,,,,,,,,,,,,,,,,,,,0,0,0,0,0
2.9149,1783966662.4771,1,1,3.0000,0.0000,1.42242,-0.00500,-2.63184,1.06604,1.57080,0.11675,-0.12763,-0.48150,0.03543,,,,,,,,,,,,,,,,,,,,,,,,,,0,0,0,0,0
2.9165,1783966662.4787,1,1,3.0000,0.0000,1.42242,-0.00500,-2.63184,1.06604,1.57080,0.11675,-0.12763,-0.48150,0.03543,,,,,,,,,,,,,,,,,,,,,,,,,,0,0,0,0,0
2.9167,1783966662.4790,1,1,3.0000,0.0000,1.42242,-0.00500,-2.63184,1.06604,1.57080,0.11675,-0.12763,-0.48150,0.03543,,,,,,,,,,,,,,,,,,,,,,,,,,0,0,0,0,0
2.9244,1783966662.4867,1,1,3.0000,0.0000,1.42242,-0.00506,-2.63183,1.06612,1.57080,0.11675,-0.12763,-0.48152,0.03542,,,,,,,,,,,,,,,,,,,,,,,,,,0,0,0,0,0
2.9346,1783966662.4969,1,1,3.0000,0.0000,1.42242,-0.00515,-2.63180,1.06623,1.57080,0.11675,-0.12762,-0.48155,0.03541,,,,,,,,,,,,,,,,,,,,,,,,,,0,0,0,0,0
2.9351,1783966662.4974,1,1,3.0000,0.0000,1.42242,-0.00515,-2.63180,1.06623,1.57080,0.11675,-0.12762,-0.48155,0.03541,,,,,,,,,,,,,,,,,,,,,,,,,,0,0,0,0,0
2.9625,1783966662.5247,1,1,3.0000,0.0000,1.42242,-0.00519,-2.63177,1.06628,1.57080,0.11675,-0.12762,-0.48159,0.03542,,,,,,,,,,,,,,,,,,,,,,,,,,0,0,0,0,0
2.9630,1783966662.5252,1,1,3.0000,0.0000,1.42242,-0.00519,-2.63177,1.06628,1.57080,0.11675,-0.12762,-0.48159,0.03542,,,,,,,,,,,,,,,,,,,,,,,,,,0,0,0,0,0
2.9751,1783966662.5373,1,1,3.0000,0.0000,1.42242,-0.00519,-2.63177,1.06628,1.57080,0.11675,-0.12762,-0.48159,0.03542,,,,,,,,,,,,,,,,,,,,,,,,,,0,0,0,0,0
2.9918,1783966662.5540,1,1,3.0000,0.0000,1.42242,-0.00519,-2.63177,1.06628,1.57080,0.11675,-0.12762,-0.48159,0.03542,,,,,,,,,,,,,,,,,,,,,,,,,,0,0,0,0,0
2.9956,1783966662.5579,1,1,3.0000,0.0000,1.42242,-0.00519,-2.63177,1.06628,1.57080,0.11675,-0.12762,-0.48159,0.03542,,,,,,,,,,,,,,,,,,,,,,,,,,0,0,0,0,0
2.9965,1783966662.5588,1,1,3.0000,0.0000,1.42242,-0.00519,-2.63177,1.06628,1.57080,0.11675,-0.12762,-0.48159,0.03542,,,,,,,,,,,,,,,,,,,,,,,,,,0,0,0,0,0
3.0120,1783966662.5742,1,1,3.0000,0.0000,1.42242,-0.00519,-2.63177,1.06628,1.57080,0.11675,-0.12762,-0.48159,0.03542,,,,,,,,,,,,,,,,,,,,,,,,,,0,0,0,0,0
3.0145,1783966662.5768,1,1,3.0000,0.0000,1.42242,-0.00519,-2.63177,1.06628,1.57080,0.11675,-0.12762,-0.48159,0.03542,,,,,,,,,,,,,,,,,,,,,,,,,,0,0,0,0,0
3.0148,1783966662.5771,1,1,3.0000,0.0000,1.42242,-0.00519,-2.63177,1.06628,1.57080,0.11675,-0.12762,-0.48159,0.03542,,,,,,,,,,,,,,,,,,,,,,,,,,0,0,0,0,0
3.0191,1783966662.5813,1,1,3.0000,0.0000,1.42242,-0.00519,-2.63177,1.06628,1.57080,0.11675,-0.12762,-0.48159,0.03542,,,,,,,,,,,,,,,,,,,,,,,,,,0,0,0,0,0
3.0193,1783966662.5816,1,1,3.0000,0.0000,1.42242,-0.00519,-2.63177,1.06628,1.57080,0.11675,-0.12762,-0.48159,0.03542,,,,,,,,,,,,,,,,,,,,,,,,,,0,0,0,0,0
3.0230,1783966662.5852,1,1,3.0000,0.0000,1.42242,-0.00519,-2.63177,1.06628,1.57080,0.11675,-0.12762,-0.48159,0.03542,,,,,,,,,,,,,,,,,,,,,,,,,,0,0,0,0,0
3.0233,1783966662.5855,1,1,3.0000,0.0000,1.42242,-0.00519,-2.63177,1.06628,1.57080,0.11675,-0.12762,-0.48159,0.03542,,,,,,,,,,,,,,,,,,,,,,,,,,0,0,0,0,0
3.0245,1783966662.5868,1,1,3.0000,0.0000,1.42242,-0.00519,-2.63177,1.06628,1.57080,0.11675,-0.12762,-0.48159,0.03542,,,,,,,,,,,,,,,,,,,,,,,,,,0,0,0,0,0
3.0248,1783966662.5871,1,1,3.0000,0.0000,1.42242,-0.00519,-2.63177,1.06628,1.57080,0.11675,-0.12762,-0.48159,0.03542,,,,,,,,,,,,,,,,,,,,,,,,,,0,0,0,0,0
3.0251,1783966662.5873,1,1,3.0000,0.0000,1.42242,-0.00519,-2.63177,1.06628,1.57080,0.11675,-0.12762,-0.48159,0.03542,,,,,,,,,,,,,,,,,,,,,,,,,,0,0,0,0,0
3.0386,1783966662.6008,1,1,3.0000,0.0000,1.42242,-0.00519,-2.63177,1.06628,1.57080,0.11675,-0.12762,-0.48159,0.03542,,,,,,,,,,,,,,,,,,,,,,,,,,0,0,0,0,0
3.0389,1783966662.6011,1,1,3.0000,0.0000,1.42242,-0.00519,-2.63177,1.06628,1.57080,0.11675,-0.12762,-0.48159,0.03542,,,,,,,,,,,,,,,,,,,,,,,,,,0,0,0,0,0
3.0525,1783966662.6148,1,1,3.0000,0.0000,1.42242,-0.00519,-2.63177,1.06628,1.57080,0.11675,-0.12762,-0.48159,0.03542,,,,,,,,,,,,,,,,,,,,,,,,,,0,0,0,0,0
3.0535,1783966662.6157,1,1,3.0000,0.0000,1.42242,-0.00519,-2.63177,1.06628,1.57080,0.11675,-0.12762,-0.48159,0.03542,,,,,,,,,,,,,,,,,,,,,,,,,,0,0,0,0,0
3.0559,1783966662.6181,1,1,3.0000,0.0000,1.42242,-0.00519,-2.63177,1.06628,1.57080,0.11675,-0.12762,-0.48159,0.03542,,,,,,,,,,,,,,,,,,,,,,,,,,0,0,0,0,0
3.0563,1783966662.6186,1,1,3.0000,0.0000,1.42242,-0.00519,-2.63177,1.06628,1.57080,0.11675,-0.12762,-0.48159,0.03542,,,,,,,,,,,,,,,,,,,,,,,,,,0,0,0,0,0
3.0652,1783966662.6274,1,1,3.0000,0.0000,1.42242,-0.00519,-2.63177,1.06628,1.57080,0.11675,-0.12762,-0.48159,0.03542,,,,,,,,,,,,,,,,,,,,,,,,,,0,0,0,0,0
3.0715,1783966662.6337,1,1,3.0000,0.0000,1.42242,-0.00519,-2.63177,1.06628,1.57080,0.11675,-0.12762,-0.48159,0.03542,,,,,,,,,,,,,,,,,,,,,,,,,,0,0,0,0,0
3.0790,1783966662.6413,1,1,3.0000,0.0000,1.42242,-0.00519,-2.63177,1.06628,1.57080,0.11675,-0.12762,-0.48159,0.03542,,,,,,,,,,,,,,,,,,,,,,,,,,0,0,0,0,0
3.0816,1783966662.6438,1,1,3.0000,0.0000,1.42242,-0.00519,-2.63177,1.06628,1.57080,0.11675,-0.12762,-0.48159,0.03542,,,,,,,,,,,,,,,,,,,,,,,,,,0,0,0,0,0
3.0865,1783966662.6487,1,1,3.0000,0.0000,1.42242,-0.00519,-2.63177,1.06628,1.57080,0.11675,-0.12762,-0.48159,0.03542,,,,,,,,,,,,,,,,,,,,,,,,,,0,0,0,0,0
3.0882,1783966662.6504,1,1,3.0000,0.0000,1.42242,-0.00519,-2.63177,1.06628,1.57080,0.11675,-0.12762,-0.48159,0.03542,,,,,,,,,,,,,,,,,,,,,,,,,,0,0,0,0,0
3.0885,1783966662.6507,1,1,3.0000,0.0000,1.42242,-0.00519,-2.63177,1.06628,1.57080,0.11675,-0.12762,-0.48159,0.03542,,,,,,,,,,,,,,,,,,,,,,,,,,0,0,0,0,0
3.0909,1783966662.6531,1,1,3.0000,0.0000,1.42242,-0.00519,-2.63177,1.06628,1.57080,0.11675,-0.12762,-0.48159,0.03542,,,,,,,,,,,,,,,,,,,,,,,,,,0,0,0,0,0
3.0932,1783966662.6555,1,1,3.0000,0.0000,1.42242,-0.00519,-2.63177,1.06628,1.57080,0.11675,-0.12762,-0.48159,0.03542,,,,,,,,,,,,,,,,,,,,,,,,,,0,0,0,0,0
3.0937,1783966662.6559,1,1,3.0000,0.0000,1.42242,-0.00519,-2.63177,1.06628,1.57080,0.11675,-0.12762,-0.48159,0.03542,,,,,,,,,,,,,,,,,,,,,,,,,,0,0,0,0,0
3.0944,1783966662.6567,1,1,3.0000,0.0000,1.42242,-0.00519,-2.63177,1.06628,1.57080,0.11675,-0.12762,-0.48159,0.03542,,,,,,,,,,,,,,,,,,,,,,,,,,0,0,0,0,0
3.0957,1783966662.6580,1,1,3.0000,0.0000,1.42242,-0.00519,-2.63177,1.06628,1.57080,0.11675,-0.12762,-0.48159,0.03542,,,,,,,,,,,,,,,,,,,,,,,,,,0,0,0,0,0
3.0960,1783966662.6582,1,1,3.0000,0.0000,1.42242,-0.00519,-2.63177,1.06628,1.57080,0.11675,-0.12762,-0.48159,0.03542,,,,,,,,,,,,,,,,,,,,,,,,,,0,0,0,0,0
3.1092,1783966662.6715,1,1,3.0000,0.0000,1.42242,-0.00519,-2.63177,1.06628,1.57080,0.11675,-0.12762,-0.48159,0.03542,,,,,,,,,,,,,,,,,,,,,,,,,,0,0,0,0,0
3.1095,1783966662.6718,1,1,3.0000,0.0000,1.42242,-0.00519,-2.63177,1.06628,1.57080,0.11675,-0.12762,-0.48159,0.03542,,,,,,,,,,,,,,,,,,,,,,,,,,0,0,0,0,0
3.1109,1783966662.6731,1,1,3.0000,0.0000,1.42242,-0.00519,-2.63177,1.06628,1.57080,0.11675,-0.12762,-0.48159,0.03542,,,,,,,,,,,,,,,,,,,,,,,,,,0,0,0,0,0
3.1112,1783966662.6734,1,1,3.0000,0.0000,1.42242,-0.00519,-2.63177,1.06628,1.57080,0.11675,-0.12762,-0.48159,0.03542,,,,,,,,,,,,,,,,,,,,,,,,,,0,0,0,0,0
3.1115,1783966662.6737,1,1,3.0000,0.0000,1.42242,-0.00519,-2.63177,1.06628,1.57080,0.11675,-0.12762,-0.48159,0.03542,,,,,,,,,,,,,,,,,,,,,,,,,,0,0,0,0,0
3.1124,1783966662.6746,1,1,3.0000,0.0000,1.42242,-0.00519,-2.63177,1.06628,1.57080,0.11675,-0.12762,-0.48159,0.03542,,,,,,,,,,,,,,,,,,,,,,,,,,0,0,0,0,0
3.1127,1783966662.6749,1,1,3.0000,0.0000,1.42242,-0.00519,-2.63177,1.06628,1.57080,0.11675,-0.12762,-0.48159,0.03542,,,,,,,,,,,,,,,,,,,,,,,,,,0,0,0,0,0
3.1144,1783966662.6767,1,1,3.0000,0.0000,1.42242,-0.00519,-2.63177,1.06628,1.57080,0.11675,-0.12762,-0.48159,0.03542,,,,,,,,,,,,,,,,,,,,,,,,,,0,0,0,0,0
3.1148,1783966662.6770,1,1,3.0000,0.0000,1.42242,-0.00519,-2.63177,1.06628,1.57080,0.11675,-0.12762,-0.48159,0.03542,,,,,,,,,,,,,,,,,,,,,,,,,,0,0,0,0,0
3.1151,1783966662.6774,1,1,3.0000,0.0000,1.42242,-0.00519,-2.63177,1.06628,1.57080,0.11675,-0.12762,-0.48159,0.03542,,,,,,,,,,,,,,,,,,,,,,,,,,0,0,0,0,0
3.1154,1783966662.6776,1,1,3.0000,0.0000,1.42242,-0.00519,-2.63177,1.06628,1.57080,0.11675,-0.12762,-0.48159,0.03542,,,,,,,,,,,,,,,,,,,,,,,,,,0,0,0,0,0
3.1160,1783966662.6783,1,1,3.0000,0.0000,1.42242,-0.00519,-2.63177,1.06628,1.57080,0.11675,-0.12762,-0.48159,0.03542,,,,,,,,,,,,,,,,,,,,,,,,,,0,0,0,0,0
3.1163,1783966662.6785,1,1,3.0000,0.0000,1.42242,-0.00519,-2.63177,1.06628,1.57080,0.11675,-0.12762,-0.48159,0.03542,,,,,,,,,,,,,,,,,,,,,,,,,,0,0,0,0,0
3.1192,1783966662.6815,1,1,3.0000,0.0000,1.42242,-0.00519,-2.63177,1.06628,1.57080,0.11675,-0.12762,-0.48159,0.03542,,,,,,,,,,,,,,,,,,,,,,,,,,0,0,0,0,0
3.1393,1783966662.7016,1,1,3.0000,0.0000,1.42242,-0.00520,-2.63178,1.06629,1.57080,0.11675,-0.12762,-0.48158,0.03541,,,,,,,,,,,,,,,,,,,,,,,,,,0,0,0,0,0
3.1462,1783966662.7085,1,1,3.0000,0.0000,1.42242,-0.00521,-2.63180,1.06631,1.57080,0.11675,-0.12762,-0.48156,0.03540,,,,,,,,,,,,,,,,,,,,,,,,,,0,0,0,0,0
3.1564,1783966662.7187,1,1,3.0000,0.0000,1.42242,-0.00522,-2.63183,1.06633,1.57080,0.11675,-0.12762,-0.48154,0.03538,,,,,,,,,,,,,,,,,,,,,,,,,,0,0,0,0,0
3.1619,1783966662.7242,1,1,3.0000,0.0000,1.42242,-0.00522,-2.63183,1.06633,1.57080,0.11675,-0.12762,-0.48154,0.03538,,,,,,,,,,,,,,,,,,,,,,,,,,0,0,0,0,0
3.1718,1783966662.7340,1,1,3.0000,0.0000,1.42242,-0.00524,-2.63186,1.06635,1.57080,0.11675,-0.12762,-0.48153,0.03536,,,,,,,,,,,,,,,,,,,,,,,,,,0,0,0,0,0
3.1800,1783966662.7423,1,1,3.0000,0.0000,1.42242,-0.00527,-2.63189,1.06639,1.57080,0.11675,-0.12763,-0.48151,0.03534,,,,,,,,,,,,,,,,,,,,,,,,,,0,0,0,0,0
3.1904,1783966662.7526,1,1,3.0000,0.0000,1.42242,-0.00529,-2.63190,1.06641,1.57080,0.11675,-0.12763,-0.48150,0.03533,,,,,,,,,,,,,,,,,,,,,,,,,,0,0,0,0,0
3.1992,1783966662.7614,1,1,3.0000,0.0000,1.42242,-0.00533,-2.63192,1.06646,1.57080,0.11675,-0.12763,-0.48149,0.03531,,,,,,,,,,,,,,,,,,,,,,,,,,0,0,0,0,0
3.2096,1783966662.7718,1,1,3.0000,0.0000,1.42242,-0.00539,-2.63196,1.06653,1.57080,0.11675,-0.12763,-0.48148,0.03528,,,,,,,,,,,,,,,,,,,,,,,,,,0,0,0,0,0
3.2226,1783966662.7849,1,1,3.0000,0.0000,1.42242,-0.00544,-2.63198,1.06659,1.57080,0.11675,-0.12763,-0.48147,0.03526,,,,,,,,,,,,,,,,,,,,,,,,,,0,0,0,0,0
3.2297,1783966662.7919,1,1,3.0000,0.0000,1.42242,-0.00547,-2.63199,1.06662,1.57080,0.11675,-0.12763,-0.48147,0.03525,,,,,,,,,,,,,,,,,,,,,,,,,,0,0,0,0,0
3.2412,1783966662.8034,1,1,3.0000,0.0000,1.42242,-0.00558,-2.63202,1.06676,1.57080,0.11675,-0.12763,-0.48146,0.03521,,,,,,,,,,,,,,,,,,,,,,,,,,0,0,0,0,0
3.2554,1783966662.8176,1,1,3.0000,0.0000,1.42242,-0.00569,-2.63205,1.06689,1.57080,0.11675,-0.12763,-0.48146,0.03517,,,,,,,,,,,,,,,,,,,,,,,,,,0,0,0,0,0
3.2556,1783966662.8179,1,1,3.0000,0.0000,1.42242,-0.00569,-2.63205,1.06689,1.57080,0.11675,-0.12763,-0.48146,0.03517,,,,,,,,,,,,,,,,,,,,,,,,,,0,0,0,0,0
3.2745,1783966662.8367,1,1,3.0000,0.0000,1.42242,-0.00580,-2.63207,1.06702,1.57080,0.11675,-0.12763,-0.48146,0.03513,,,,,,,,,,,,,,,,,,,,,,,,,,0,0,0,0,0
3.2782,1783966662.8405,1,1,3.0000,0.0000,1.42242,-0.00581,-2.63207,1.06703,1.57080,0.11675,-0.12763,-0.48146,0.03513,,,,,,,,,,,,,,,,,,,,,,,,,,0,0,0,0,0
3.2785,1783966662.8407,1,1,3.0000,0.0000,1.42242,-0.00581,-2.63207,1.06703,1.57080,0.11675,-0.12763,-0.48146,0.03513,,,,,,,,,,,,,,,,,,,,,,,,,,0,0,0,0,0
3.2791,1783966662.8414,1,1,3.0000,0.0000,1.42242,-0.00581,-2.63207,1.06703,1.57080,0.11675,-0.12763,-0.48146,0.03513,,,,,,,,,,,,,,,,,,,,,,,,,,0,0,0,0,0
3.2794,1783966662.8416,1,1,3.0000,0.0000,1.42242,-0.00581,-2.63207,1.06703,1.57080,0.11675,-0.12763,-0.48146,0.03513,,,,,,,,,,,,,,,,,,,,,,,,,,0,0,0,0,0
3.2905,1783966662.8528,1,1,3.0000,0.0000,1.42242,-0.00588,-2.63208,1.06712,1.57080,0.11675,-0.12763,-0.48146,0.03511,,,,,,,,,,,,,,,,,,,,,,,,,,0,0,0,0,0
3.2985,1783966662.8607,1,1,3.0000,0.0000,1.42242,-0.00597,-2.63210,1.06722,1.57080,0.11675,-0.12763,-0.48147,0.03508,,,,,,,,,,,,,,,,,,,,,,,,,,0,0,0,0,0
3.3128,1783966662.8750,1,1,3.0000,0.0000,1.42242,-0.00602,-2.63210,1.06729,1.57080,0.11675,-0.12763,-0.48147,0.03506,,,,,,,,,,,,,,,,,,,,,,,,,,0,0,0,0,0
3.3195,1783966662.8818,1,1,3.0000,0.0000,1.42242,-0.00605,-2.63210,1.06732,1.57080,0.11675,-0.12763,-0.48147,0.03506,,,,,,,,,,,,,,,,,,,,,,,,,,0,0,0,0,0
3.3305,1783966662.8927,1,1,3.0000,0.0000,1.42242,-0.00613,-2.63210,1.06743,1.57080,0.11675,-0.12763,-0.48149,0.03504,,,,,,,,,,,,,,,,,,,,,,,,,,0,0,0,0,0
3.3430,1783966662.9052,1,1,3.0000,0.0000,1.42242,-0.00624,-2.63209,1.06756,1.57080,0.11675,-0.12762,-0.48151,0.03502,,,,,,,,,,,,,,,,,,,,,,,,,,0,0,0,0,0
3.3597,1783966662.9220,1,1,3.0000,0.0000,1.42242,-0.00635,-2.63207,1.06770,1.57080,0.11675,-0.12762,-0.48155,0.03500,,,,,,,,,,,,,,,,,,,,,,,,,,0,0,0,0,0
3.3630,1783966662.9253,1,1,3.0000,0.0000,1.42242,-0.00636,-2.63206,1.06772,1.57080,0.11675,-0.12762,-0.48156,0.03501,,,,,,,,,,,,,,,,,,,,,,,,,,0,0,0,0,0
3.3704,1783966662.9327,1,1,3.0000,0.0000,1.42242,-0.00637,-2.63204,1.06773,1.57080,0.11675,-0.12761,-0.48158,0.03501,,,,,,,,,,,,,,,,,,,,,,,,,,0,0,0,0,0
3.3850,1783966662.9472,1,1,3.0000,0.0000,1.42242,-0.00637,-2.63204,1.06773,1.57080,0.11675,-0.12761,-0.48158,0.03501,,,,,,,,,,,,,,,,,,,,,,,,,,0,0,0,0,0
3.3944,1783966662.9567,1,1,3.0000,0.0000,1.42242,-0.00637,-2.63204,1.06773,1.57080,0.11675,-0.12761,-0.48158,0.03501,,,,,,,,,,,,,,,,,,,,,,,,,,0,0,0,0,0
3.3990,1783966662.9612,1,1,3.0000,0.0000,1.42242,-0.00637,-2.63204,1.06773,1.57080,0.11675,-0.12761,-0.48158,0.03501,,,,,,,,,,,,,,,,,,,,,,,,,,0,0,0,0,0
3.4114,1783966662.9736,1,1,3.0000,0.0000,1.42242,-0.00637,-2.63204,1.06773,1.57080,0.11675,-0.12761,-0.48158,0.03501,,,,,,,,,,,,,,,,,,,,,,,,,,0,0,0,0,0
3.4207,1783966662.9830,1,1,3.0000,0.0000,1.42242,-0.00637,-2.63204,1.06773,1.57080,0.11675,-0.12761,-0.48158,0.03501,,,,,,,,,,,,,,,,,,,,,,,,,,0,0,0,0,0
3.4210,1783966662.9833,1,1,3.0000,0.0000,1.42242,-0.00637,-2.63204,1.06773,1.57080,0.11675,-0.12761,-0.48158,0.03501,,,,,,,,,,,,,,,,,,,,,,,,,,0,0,0,0,0
3.4323,1783966662.9946,1,1,3.0000,0.0000,1.42242,-0.00637,-2.63204,1.06773,1.57080,0.11675,-0.12761,-0.48158,0.03501,,,,,,,,,,,,,,,,,,,,,,,,,,0,0,0,0,0
3.4528,1783966663.0150,1,1,3.0000,0.0000,1.42242,-0.00637,-2.63204,1.06773,1.57080,0.11675,-0.12761,-0.48158,0.03501,,,,,,,,,,,,,,,,,,,,,,,,,,0,0,0,0,0
3.4532,1783966663.0154,1,1,3.0000,0.0000,1.42242,-0.00637,-2.63204,1.06773,1.57080,0.11675,-0.12761,-0.48158,0.03501,,,,,,,,,,,,,,,,,,,,,,,,,,0,0,0,0,0
3.4535,1783966663.0158,1,1,3.0000,0.0000,1.42242,-0.00637,-2.63204,1.06773,1.57080,0.11675,-0.12761,-0.48158,0.03501,,,,,,,,,,,,,,,,,,,,,,,,,,0,0,0,0,0
3.4618,1783966663.0241,1,1,3.0000,0.0000,1.42242,-0.00637,-2.63204,1.06773,1.57080,0.11675,-0.12761,-0.48158,0.03501,,,,,,,,,,,,,,,,,,,,,,,,,,0,0,0,0,0
3.4693,1783966663.0315,1,1,3.0000,0.0000,1.42242,-0.00637,-2.63204,1.06773,1.57080,0.11675,-0.12761,-0.48158,0.03501,,,,,,,,,,,,,,,,,,,,,,,,,,0,0,0,0,0
3.4792,1783966663.0415,1,1,3.0000,0.0000,1.42242,-0.00637,-2.63204,1.06773,1.57080,0.11675,-0.12761,-0.48158,0.03501,,,,,,,,,,,,,,,,,,,,,,,,,,0,0,0,0,0
3.4892,1783966663.0514,1,1,3.0000,0.0000,1.42242,-0.00637,-2.63204,1.06773,1.57080,0.11675,-0.12761,-0.48158,0.03501,,,,,,,,,,,,,,,,,,,,,,,,,,0,0,0,0,0
3.4989,1783966663.0612,1,1,3.0000,0.0000,1.42242,-0.00637,-2.63204,1.06773,1.57080,0.11675,-0.12761,-0.48158,0.03501,,,,,,,,,,,,,,,,,,,,,,,,,,0,0,0,0,0
3.4992,1783966663.0615,1,1,3.0000,0.0000,1.42242,-0.00637,-2.63204,1.06773,1.57080,0.11675,-0.12761,-0.48158,0.03501,,,,,,,,,,,,,,,,,,,,,,,,,,0,0,0,0,0
3.5224,1783966663.0846,1,1,3.0000,0.0000,1.42242,-0.00637,-2.63204,1.06773,1.57080,0.11675,-0.12761,-0.48158,0.03501,,,,,,,,,,,,,,,,,,,,,,,,,,0,0,0,0,0
3.5227,1783966663.0849,1,1,3.0000,0.0000,1.42242,-0.00637,-2.63204,1.06773,1.57080,0.11675,-0.12761,-0.48158,0.03501,,,,,,,,,,,,,,,,,,,,,,,,,,0,0,0,0,0
3.5570,1783966663.1192,1,1,3.0000,0.0000,1.42242,-0.00638,-2.63205,1.06774,1.57080,0.11675,-0.12762,-0.48157,0.03500,,,,,,,,,,,,,,,,,,,,,,,,,,0,0,0,0,0
3.5574,1783966663.1196,1,1,3.0000,0.0000,1.42242,-0.00638,-2.63205,1.06774,1.57080,0.11675,-0.12762,-0.48157,0.03500,,,,,,,,,,,,,,,,,,,,,,,,,,0,0,0,0,0
3.5634,1783966663.1257,1,1,3.0000,0.0000,1.42242,-0.00638,-2.63207,1.06775,1.57080,0.11675,-0.12762,-0.48156,0.03500,,,,,,,,,,,,,,,,,,,,,,,,,,0,0,0,0,0
3.5638,1783966663.1260,1,1,3.0000,0.0000,1.42242,-0.00638,-2.63207,1.06775,1.57080,0.11675,-0.12762,-0.48156,0.03500,,,,,,,,,,,,,,,,,,,,,,,,,,0,0,0,0,0
3.5704,1783966663.1327,1,1,3.0000,0.0000,1.42242,-0.00639,-2.63209,1.06776,1.57080,0.11675,-0.12762,-0.48154,0.03498,,,,,,,,,,,,,,,,,,,,,,,,,,0,0,0,0,0
3.5708,1783966663.1331,1,1,3.0000,0.0000,1.42242,-0.00639,-2.63209,1.06776,1.57080,0.11675,-0.12762,-0.48154,0.03498,,,,,,,,,,,,,,,,,,,,,,,,,,0,0,0,0,0
3.5754,1783966663.1377,1,1,3.0000,0.0000,1.42242,-0.00639,-2.63209,1.06776,1.57080,0.11675,-0.12762,-0.48154,0.03498,,,,,,,,,,,,,,,,,,,,,,,,,,0,0,0,0,0
3.5757,1783966663.1380,1,1,3.0000,0.0000,1.42242,-0.00639,-2.63209,1.06776,1.57080,0.11675,-0.12762,-0.48154,0.03498,,,,,,,,,,,,,,,,,,,,,,,,,,0,0,0,0,0
3.5857,1783966663.1480,1,1,3.0000,0.0000,1.42242,-0.00640,-2.63210,1.06777,1.57080,0.11675,-0.12762,-0.48154,0.03498,,,,,,,,,,,,,,,,,,,,,,,,,,0,0,0,0,0
3.5865,1783966663.1487,1,1,3.0000,0.0000,1.42242,-0.00641,-2.63211,1.06778,1.57080,0.11675,-0.12762,-0.48153,0.03497,,,,,,,,,,,,,,,,,,,,,,,,,,0,0,0,0,0
3.5910,1783966663.1532,1,1,3.0000,0.0000,1.42242,-0.00642,-2.63213,1.06780,1.57080,0.11675,-0.12762,-0.48152,0.03496,,,,,,,,,,,,,,,,,,,,,,,,,,0,0,0,0,0
3.5913,1783966663.1535,1,1,3.0000,0.0000,1.42242,-0.00642,-2.63213,1.06780,1.57080,0.11675,-0.12762,-0.48152,0.03496,,,,,,,,,,,,,,,,,,,,,,,,,,0,0,0,0,0
3.6049,1783966663.1671,1,1,3.0000,0.0000,1.42242,-0.00647,-2.63218,1.06785,1.57080,0.11675,-0.12763,-0.48149,0.03492,,,,,,,,,,,,,,,,,,,,,,,,,,0,0,0,0,0
3.6053,1783966663.1675,1,1,3.0000,0.0000,1.42242,-0.00647,-2.63218,1.06785,1.57080,0.11675,-0.12763,-0.48149,0.03492,,,,,,,,,,,,,,,,,,,,,,,,,,0,0,0,0,0
3.6107,1783966663.1729,1,1,3.0000,0.0000,1.42242,-0.00647,-2.63219,1.06786,1.57080,0.11675,-0.12763,-0.48149,0.03492,,,,,,,,,,,,,,,,,,,,,,,,,,0,0,0,0,0
3.6110,1783966663.1732,1,1,3.0000,0.0000,1.42242,-0.00647,-2.63219,1.06786,1.57080,0.11675,-0.12763,-0.48149,0.03492,,,,,,,,,,,,,,,,,,,,,,,,,,0,0,0,0,0
3.6219,1783966663.1841,1,1,3.0000,0.0000,1.42242,-0.00650,-2.63220,1.06789,1.57080,0.11675,-0.12763,-0.48148,0.03491,,,,,,,,,,,,,,,,,,,,,,,,,,0,0,0,0,0
3.6295,1783966663.1917,1,1,3.0000,0.0000,1.42242,-0.00654,-2.63222,1.06794,1.57080,0.11675,-0.12763,-0.48147,0.03489,,,,,,,,,,,,,,,,,,,,,,,,,,0,0,0,0,0
3.6654,1783966663.2276,1,1,3.0000,0.0000,1.42242,-0.00681,-2.63230,1.06825,1.57080,0.11675,-0.12763,-0.48146,0.03479,,,,,,,,,,,,,,,,,,,,,,,,,,0,0,0,0,0
3.6718,1783966663.2340,1,1,3.0000,0.0000,1.42242,-0.00681,-2.63230,1.06826,1.57080,0.11675,-0.12763,-0.48146,0.03479,,,,,,,,,,,,,,,,,,,,,,,,,,0,0,0,0,0
3.6727,1783966663.2350,1,1,3.0000,0.0000,1.42242,-0.00681,-2.63230,1.06826,1.57080,0.11675,-0.12763,-0.48146,0.03479,,,,,,,,,,,,,,,,,,,,,,,,,,0,0,0,0,0
3.6732,1783966663.2354,1,1,3.0000,0.0000,1.42242,-0.00681,-2.63230,1.06826,1.57080,0.11675,-0.12763,-0.48146,0.03479,,,,,,,,,,,,,,,,,,,,,,,,,,0,0,0,0,0
3.6745,1783966663.2367,1,1,3.0000,0.0000,1.42242,-0.00683,-2.63230,1.06828,1.57080,0.11675,-0.12763,-0.48146,0.03478,,,,,,,,,,,,,,,,,,,,,,,,,,0,0,0,0,0
3.6844,1783966663.2466,1,1,3.0000,0.0000,1.42242,-0.00689,-2.63231,1.06835,1.57080,0.11675,-0.12763,-0.48146,0.03476,,,,,,,,,,,,,,,,,,,,,,,,,,0,0,0,0,0
3.6926,1783966663.2548,1,1,3.0000,0.0000,1.42242,-0.00697,-2.63233,1.06845,1.57080,0.11675,-0.12763,-0.48146,0.03474,,,,,,,,,,,,,,,,,,,,,,,,,,0,0,0,0,0
3.7040,1783966663.2663,1,1,3.0000,0.0000,1.42242,-0.00702,-2.63234,1.06851,1.57080,0.11675,-0.12763,-0.48146,0.03472,,,,,,,,,,,,,,,,,,,,,,,,,,0,0,0,0,0
3.7239,1783966663.2861,1,1,3.0000,0.0000,1.42242,-0.00716,-2.63236,1.06868,1.57080,0.11675,-0.12763,-0.48147,0.03468,,,,,,,,,,,,,,,,,,,,,,,,,,0,0,0,0,0
3.7337,1783966663.2959,1,1,3.0000,0.0000,1.42241,-0.00725,-2.63237,1.06879,1.57080,0.11675,-0.12763,-0.48147,0.03465,,,,,,,,,,,,,,,,,,,,,,,,,,0,0,0,0,0
3.7518,1783966663.3140,1,1,3.0000,0.0000,1.42241,-0.00747,-2.63240,1.06906,1.57080,0.11675,-0.12763,-0.48149,0.03459,,,,,,,,,,,,,,,,,,,,,,,,,,0,0,0,0,0
3.7520,1783966663.3143,1,1,3.0000,0.0000,1.42241,-0.00747,-2.63240,1.06906,1.57080,0.11675,-0.12763,-0.48149,0.03459,,,,,,,,,,,,,,,,,,,,,,,,,,0,0,0,0,0
3.7596,1783966663.3219,1,1,3.0000,0.0000,1.42241,-0.00752,-2.63240,1.06914,1.57080,0.11675,-0.12762,-0.48150,0.03457,,,,,,,,,,,,,,,,,,,,,,,,,,0,0,0,0,0
3.7599,1783966663.3222,1,1,3.0000,0.0000,1.42241,-0.00752,-2.63240,1.06914,1.57080,0.11675,-0.12762,-0.48150,0.03457,,,,,,,,,,,,,,,,,,,,,,,,,,0,0,0,0,0
3.7664,1783966663.3286,1,1,3.0000,0.0000,1.42241,-0.00752,-2.63240,1.06914,1.57080,0.11675,-0.12762,-0.48150,0.03457,,,,,,,,,,,,,,,,,,,,,,,,,,0,0,0,0,0
3.7704,1783966663.3326,1,1,3.0000,0.0000,1.42241,-0.00752,-2.63240,1.06914,1.57080,0.11675,-0.12762,-0.48150,0.03457,,,,,,,,,,,,,,,,,,,,,,,,,,0,0,0,0,0
3.7729,1783966663.3352,1,1,3.0000,0.0000,1.42241,-0.00752,-2.63240,1.06914,1.57080,0.11675,-0.12762,-0.48150,0.03457,,,,,,,,,,,,,,,,,,,,,,,,,,0,0,0,0,0
3.7733,1783966663.3356,1,1,3.0000,0.0000,1.42241,-0.00752,-2.63240,1.06914,1.57080,0.11675,-0.12762,-0.48150,0.03457,,,,,,,,,,,,,,,,,,,,,,,,,,0,0,0,0,0
3.7814,1783966663.3436,1,1,3.0000,0.0000,1.42241,-0.00752,-2.63240,1.06914,1.57080,0.11675,-0.12762,-0.48150,0.03457,,,,,,,,,,,,,,,,,,,,,,,,,,0,0,0,0,0
3.7925,1783966663.3548,1,1,3.0000,0.0000,1.42241,-0.00752,-2.63240,1.06914,1.57080,0.11675,-0.12762,-0.48150,0.03457,,,,,,,,,,,,,,,,,,,,,,,,,,0,0,0,0,0
3.8033,1783966663.3656,1,1,3.0000,0.0000,1.42241,-0.00752,-2.63240,1.06914,1.57080,0.11675,-0.12762,-0.48150,0.03457,,,,,,,,,,,,,,,,,,,,,,,,,,0,0,0,0,0
3.8104,1783966663.3727,1,1,3.0000,0.0000,1.42241,-0.00752,-2.63240,1.06914,1.57080,0.11675,-0.12762,-0.48150,0.03457,,,,,,,,,,,,,,,,,,,,,,,,,,0,0,0,0,0
3.8106,1783966663.3728,1,1,3.0000,0.0000,1.42241,-0.00752,-2.63240,1.06914,1.57080,0.11675,-0.12762,-0.48150,0.03457,,,,,,,,,,,,,,,,,,,,,,,,,,0,0,0,0,0
3.8218,1783966663.3841,1,1,3.0000,0.0000,1.42241,-0.00752,-2.63240,1.06914,1.57080,0.11675,-0.12762,-0.48150,0.03457,,,,,,,,,,,,,,,,,,,,,,,,,,0,0,0,0,0
3.8305,1783966663.3928,1,1,3.0000,0.0000,1.42241,-0.00752,-2.63240,1.06914,1.57080,0.11675,-0.12762,-0.48150,0.03457,,,,,,,,,,,,,,,,,,,,,,,,,,0,0,0,0,0
3.8427,1783966663.4049,1,1,3.0000,0.0000,1.42241,-0.00752,-2.63240,1.06914,1.57080,0.11675,-0.12762,-0.48150,0.03457,,,,,,,,,,,,,,,,,,,,,,,,,,0,0,0,0,0
3.8562,1783966663.4185,1,1,3.0000,0.0000,1.42241,-0.00752,-2.63240,1.06914,1.57080,0.11675,-0.12762,-0.48150,0.03457,,,,,,,,,,,,,,,,,,,,,,,,,,0,0,0,0,0
3.8566,1783966663.4188,1,1,3.0000,0.0000,1.42241,-0.00752,-2.63240,1.06914,1.57080,0.11675,-0.12762,-0.48150,0.03457,,,,,,,,,,,,,,,,,,,,,,,,,,0,0,0,0,0
3.8642,1783966663.4265,1,1,3.0000,0.0000,1.42241,-0.00752,-2.63240,1.06914,1.57080,0.11675,-0.12762,-0.48150,0.03457,,,,,,,,,,,,,,,,,,,,,,,,,,0,0,0,0,0
3.8645,1783966663.4268,1,1,3.0000,0.0000,1.42241,-0.00752,-2.63240,1.06914,1.57080,0.11675,-0.12762,-0.48150,0.03457,,,,,,,,,,,,,,,,,,,,,,,,,,0,0,0,0,0
3.8697,1783966663.4319,1,1,3.0000,0.0000,1.42241,-0.00752,-2.63240,1.06914,1.57080,0.11675,-0.12762,-0.48150,0.03457,,,,,,,,,,,,,,,,,,,,,,,,,,0,0,0,0,0
3.8834,1783966663.4456,1,1,3.0000,0.0000,1.42241,-0.00752,-2.63240,1.06914,1.57080,0.11675,-0.12762,-0.48150,0.03457,,,,,,,,,,,,,,,,,,,,,,,,,,0,0,0,0,0
3.8931,1783966663.4554,1,1,3.0000,0.0000,1.42241,-0.00752,-2.63240,1.06914,1.57080,0.11675,-0.12762,-0.48150,0.03457,,,,,,,,,,,,,,,,,,,,,,,,,,0,0,0,0,0
3.8937,1783966663.4559,1,1,3.0000,0.0000,1.42241,-0.00752,-2.63240,1.06914,1.57080,0.11675,-0.12762,-0.48150,0.03457,,,,,,,,,,,,,,,,,,,,,,,,,,0,0,0,0,0
3.9051,1783966663.4673,1,1,3.0000,0.0000,1.42241,-0.00752,-2.63240,1.06914,1.57080,0.11675,-0.12762,-0.48150,0.03457,,,,,,,,,,,,,,,,,,,,,,,,,,0,0,0,0,0
3.9117,1783966663.4740,1,1,3.0000,0.0000,1.42241,-0.00752,-2.63240,1.06914,1.57080,0.11675,-0.12762,-0.48150,0.03457,,,,,,,,,,,,,,,,,,,,,,,,,,0,0,0,0,0
3.9247,1783966663.4869,1,1,3.0000,0.0000,1.42241,-0.00752,-2.63240,1.06914,1.57080,0.11675,-0.12762,-0.48150,0.03457,,,,,,,,,,,,,,,,,,,,,,,,,,0,0,0,0,0
3.9359,1783966663.4981,1,1,3.0000,0.0000,1.42241,-0.00752,-2.63240,1.06914,1.57080,0.11675,-0.12762,-0.48150,0.03457,,,,,,,,,,,,,,,,,,,,,,,,,,0,0,0,0,0
3.9402,1783966663.5024,1,1,3.0000,0.0000,1.42241,-0.00752,-2.63240,1.06914,1.57080,0.11675,-0.12762,-0.48150,0.03457,,,,,,,,,,,,,,,,,,,,,,,,,,0,0,0,0,0
3.9405,1783966663.5028,1,1,3.0000,0.0000,1.42241,-0.00752,-2.63240,1.06914,1.57080,0.11675,-0.12762,-0.48150,0.03457,,,,,,,,,,,,,,,,,,,,,,,,,,0,0,0,0,0
3.9626,1783966663.5248,1,1,3.0000,0.0000,1.42241,-0.00752,-2.63240,1.06914,1.57080,0.11675,-0.12762,-0.48150,0.03457,,,,,,,,,,,,,,,,,,,,,,,,,,0,0,0,0,0
3.9706,1783966663.5328,1,1,3.0000,0.0000,1.42241,-0.00752,-2.63240,1.06914,1.57080,0.11675,-0.12762,-0.48150,0.03457,,,,,,,,,,,,,,,,,,,,,,,,,,0,0,0,0,0
3.9710,1783966663.5332,1,1,3.0000,0.0000,1.42241,-0.00752,-2.63240,1.06914,1.57080,0.11675,-0.12762,-0.48150,0.03457,,,,,,,,,,,,,,,,,,,,,,,,,,0,0,0,0,0
3.9729,1783966663.5352,1,1,3.0000,0.0000,1.42241,-0.00752,-2.63240,1.06914,1.57080,0.11675,-0.12762,-0.48150,0.03457,,,,,,,,,,,,,,,,,,,,,,,,,,0,0,0,0,0
3.9734,1783966663.5357,1,1,3.0000,0.0000,1.42241,-0.00752,-2.63240,1.06914,1.57080,0.11675,-0.12762,-0.48150,0.03457,,,,,,,,,,,,,,,,,,,,,,,,,,0,0,0,0,0
3.9865,1783966663.5488,1,1,3.0000,0.0000,1.42241,-0.00754,-2.63241,1.06917,1.57080,0.11675,-0.12762,-0.48150,0.03457,,,,,,,,,,,,,,,,,,,,,,,,,,0,0,0,0,0
3.9959,1783966663.5581,1,1,3.0000,0.0000,1.42241,-0.00755,-2.63241,1.06917,1.57080,0.11675,-0.12762,-0.48150,0.03456,,,,,,,,,,,,,,,,,,,,,,,,,,0,0,0,0,0
4.0002,1783966663.5625,1,1,3.0000,0.0000,1.42241,-0.00755,-2.63241,1.06918,1.57080,0.11675,-0.12762,-0.48150,0.03456,,,,,,,,,,,,,,,,,,,,,,,,,,0,0,0,0,0
4.0148,1783966663.5771,1,1,3.0000,0.0000,1.42241,-0.00761,-2.63246,1.06925,1.57080,0.11675,-0.12763,-0.48147,0.03452,,,,,,,,,,,,,,,,,,,,,,,,,,0,0,0,0,0
4.0152,1783966663.5775,1,1,3.0000,0.0000,1.42241,-0.00761,-2.63246,1.06925,1.57080,0.11675,-0.12763,-0.48147,0.03452,,,,,,,,,,,,,,,,,,,,,,,,,,0,0,0,0,0
4.0202,1783966663.5824,1,1,3.0000,0.0000,1.42241,-0.00764,-2.63247,1.06928,1.57080,0.11675,-0.12763,-0.48146,0.03451,,,,,,,,,,,,,,,,,,,,,,,,,,0,0,0,0,0
4.0308,1783966663.5930,1,1,3.0000,0.0000,1.42241,-0.00766,-2.63249,1.06931,1.57080,0.11675,-0.12763,-0.48145,0.03450,,,,,,,,,,,,,,,,,,,,,,,,,,0,0,0,0,0
4.0412,1783966663.6034,1,1,3.0000,0.0000,1.42241,-0.00768,-2.63250,1.06933,1.57080,0.11675,-0.12763,-0.48145,0.03449,,,,,,,,,,,,,,,,,,,,,,,,,,0,0,0,0,0
4.0603,1783966663.6226,1,1,3.0000,0.0000,1.42241,-0.00776,-2.63253,1.06942,1.57080,0.11675,-0.12763,-0.48144,0.03445,,,,,,,,,,,,,,,,,,,,,,,,,,0,0,0,0,0
4.0735,1783966663.6358,1,1,3.0000,0.0000,1.42241,-0.00780,-2.63254,1.06947,1.57080,0.11675,-0.12763,-0.48144,0.03444,,,,,,,,,,,,,,,,,,,,,,,,,,0,0,0,0,0
4.0755,1783966663.6377,1,1,3.0000,0.0000,1.42241,-0.00783,-2.63255,1.06950,1.57080,0.11675,-0.12763,-0.48144,0.03443,,,,,,,,,,,,,,,,,,,,,,,,,,0,0,0,0,0
4.0841,1783966663.6464,1,1,3.0000,0.0000,1.42241,-0.00786,-2.63255,1.06954,1.57080,0.11675,-0.12763,-0.48144,0.03442,,,,,,,,,,,,,,,,,,,,,,,,,,0,0,0,0,0
4.0890,1783966663.6512,1,1,3.0000,0.0000,1.42241,-0.00787,-2.63255,1.06955,1.57080,0.11675,-0.12763,-0.48144,0.03442,,,,,,,,,,,,,,,,,,,,,,,,,,0,0,0,0,0
4.1026,1783966663.6649,1,1,3.0000,0.0000,1.42241,-0.00801,-2.63257,1.06972,1.57080,0.11675,-0.12763,-0.48145,0.03438,,,,,,,,,,,,,,,,,,,,,,,,,,0,0,0,0,0
4.1029,1783966663.6652,1,1,3.0000,0.0000,1.42241,-0.00801,-2.63257,1.06972,1.57080,0.11675,-0.12763,-0.48145,0.03438,,,,,,,,,,,,,,,,,,,,,,,,,,0,0,0,0,0
4.1117,1783966663.6739,1,1,3.0000,0.0000,1.42241,-0.00812,-2.63259,1.06985,1.57080,0.11675,-0.12763,-0.48145,0.03434,,,,,,,,,,,,,,,,,,,,,,,,,,0,0,0,0,0
4.1120,1783966663.6742,1,1,3.0000,0.0000,1.42241,-0.00812,-2.63259,1.06985,1.57080,0.11675,-0.12763,-0.48145,0.03434,,,,,,,,,,,,,,,,,,,,,,,,,,0,0,0,0,0
4.1193,1783966663.6816,1,1,3.0000,0.0000,1.42241,-0.00813,-2.63259,1.06986,1.57080,0.11675,-0.12763,-0.48145,0.03434,,,,,,,,,,,,,,,,,,,,,,,,,,0,0,0,0,0
4.1303,1783966663.6926,1,1,3.0000,0.0000,1.42241,-0.00820,-2.63260,1.06995,1.57080,0.11675,-0.12763,-0.48146,0.03432,,,,,,,,,,,,,,,,,,,,,,,,,,0,0,0,0,0
4.1306,1783966663.6929,1,1,3.0000,0.0000,1.42241,-0.00820,-2.63260,1.06995,1.57080,0.11675,-0.12763,-0.48146,0.03432,,,,,,,,,,,,,,,,,,,,,,,,,,0,0,0,0,0
4.1418,1783966663.7040,1,1,3.0000,0.0000,1.42241,-0.00829,-2.63261,1.07005,1.57080,0.11675,-0.12763,-0.48146,0.03429,,,,,,,,,,,,,,,,,,,,,,,,,,0,0,0,0,0
4.1545,1783966663.7167,1,1,3.0000,0.0000,1.42241,-0.00849,-2.63264,1.07029,1.57080,0.11675,-0.12763,-0.48147,0.03423,,,,,,,,,,,,,,,,,,,,,,,,,,0,0,0,0,0
4.1626,1783966663.7248,1,1,3.0000,0.0000,1.42241,-0.00858,-2.63265,1.07040,1.57080,0.11675,-0.12762,-0.48148,0.03420,,,,,,,,,,,,,,,,,,,,,,,,,,0,0,0,0,0
4.1897,1783966663.7520,1,1,3.0000,0.0000,1.42241,-0.00868,-2.63266,1.07053,1.57080,0.11675,-0.12762,-0.48149,0.03418,,,,,,,,,,,,,,,,,,,,,,,,,,0,0,0,0,0
4.1911,1783966663.7533,1,1,3.0000,0.0000,1.42241,-0.00868,-2.63266,1.07053,1.57080,0.11675,-0.12762,-0.48149,0.03418,,,,,,,,,,,,,,,,,,,,,,,,,,0,0,0,0,0
4.1914,1783966663.7536,1,1,3.0000,0.0000,1.42241,-0.00868,-2.63266,1.07053,1.57080,0.11675,-0.12762,-0.48149,0.03418,,,,,,,,,,,,,,,,,,,,,,,,,,0,0,0,0,0
4.1960,1783966663.7583,1,1,3.0000,0.0000,1.42241,-0.00868,-2.63266,1.07053,1.57080,0.11675,-0.12762,-0.48149,0.03418,,,,,,,,,,,,,,,,,,,,,,,,,,0,0,0,0,0
4.1963,1783966663.7586,1,1,3.0000,0.0000,1.42241,-0.00868,-2.63266,1.07053,1.57080,0.11675,-0.12762,-0.48149,0.03418,,,,,,,,,,,,,,,,,,,,,,,,,,0,0,0,0,0
4.2043,1783966663.7665,1,1,3.0000,0.0000,1.42241,-0.00868,-2.63266,1.07053,1.57080,0.11675,-0.12762,-0.48149,0.03418,,,,,,,,,,,,,,,,,,,,,,,,,,0,0,0,0,0
4.2170,1783966663.7792,1,1,3.0000,0.0000,1.42241,-0.00868,-2.63266,1.07053,1.57080,0.11675,-0.12762,-0.48149,0.03418,,,,,,,,,,,,,,,,,,,,,,,,,,0,0,0,0,0
4.2195,1783966663.7817,1,1,3.0000,0.0000,1.42241,-0.00868,-2.63266,1.07053,1.57080,0.11675,-0.12762,-0.48149,0.03418,,,,,,,,,,,,,,,,,,,,,,,,,,0,0,0,0,0
4.2317,1783966663.7940,1,1,3.0000,0.0000,1.42241,-0.00868,-2.63266,1.07053,1.57080,0.11675,-0.12762,-0.48149,0.03418,,,,,,,,,,,,,,,,,,,,,,,,,,0,0,0,0,0
4.2405,1783966663.8027,1,1,3.0000,0.0000,1.42241,-0.00868,-2.63266,1.07053,1.57080,0.11675,-0.12762,-0.48149,0.03418,,,,,,,,,,,,,,,,,,,,,,,,,,0,0,0,0,0
4.2410,1783966663.8032,1,1,3.0000,0.0000,1.42241,-0.00868,-2.63266,1.07053,1.57080,0.11675,-0.12762,-0.48149,0.03418,,,,,,,,,,,,,,,,,,,,,,,,,,0,0,0,0,0
4.2614,1783966663.8236,1,1,3.0000,0.0000,1.42241,-0.00868,-2.63266,1.07053,1.57080,0.11675,-0.12762,-0.48149,0.03418,,,,,,,,,,,,,,,,,,,,,,,,,,0,0,0,0,0
4.2718,1783966663.8340,1,1,3.0000,0.0000,1.42241,-0.00868,-2.63266,1.07053,1.57080,0.11675,-0.12762,-0.48149,0.03418,,,,,,,,,,,,,,,,,,,,,,,,,,0,0,0,0,0
4.2848,1783966663.8470,1,1,3.0000,0.0000,1.42241,-0.00868,-2.63266,1.07053,1.57080,0.11675,-0.12762,-0.48149,0.03418,,,,,,,,,,,,,,,,,,,,,,,,,,0,0,0,0,0
4.2935,1783966663.8557,1,1,3.0000,0.0000,1.42241,-0.00868,-2.63266,1.07053,1.57080,0.11675,-0.12762,-0.48149,0.03418,,,,,,,,,,,,,,,,,,,,,,,,,,0,0,0,0,0
4.3027,1783966663.8649,1,1,3.0000,0.0000,1.42241,-0.00868,-2.63266,1.07053,1.57080,0.11675,-0.12762,-0.48149,0.03418,,,,,,,,,,,,,,,,,,,,,,,,,,0,0,0,0,0
4.3091,1783966663.8713,1,1,3.0000,0.0000,1.42241,-0.00868,-2.63266,1.07053,1.57080,0.11675,-0.12762,-0.48149,0.03418,,,,,,,,,,,,,,,,,,,,,,,,,,0,0,0,0,0
4.3154,1783966663.8776,1,1,3.0000,0.0000,1.42241,-0.00868,-2.63266,1.07053,1.57080,0.11675,-0.12762,-0.48149,0.03418,,,,,,,,,,,,,,,,,,,,,,,,,,0,0,0,0,0
4.3196,1783966663.8819,1,1,3.0000,0.0000,1.42241,-0.00868,-2.63266,1.07053,1.57080,0.11675,-0.12762,-0.48149,0.03418,,,,,,,,,,,,,,,,,,,,,,,,,,0,0,0,0,0
4.3346,1783966663.8968,1,1,3.0000,0.0000,1.42241,-0.00868,-2.63266,1.07053,1.57080,0.11675,-0.12762,-0.48149,0.03418,,,,,,,,,,,,,,,,,,,,,,,,,,0,0,0,0,0
4.3426,1783966663.9049,1,1,3.0000,0.0000,1.42241,-0.00868,-2.63266,1.07053,1.57080,0.11675,-0.12762,-0.48149,0.03418,,,,,,,,,,,,,,,,,,,,,,,,,,0,0,0,0,0
4.3495,1783966663.9117,1,1,3.0000,0.0000,1.42241,-0.00868,-2.63266,1.07053,1.57080,0.11675,-0.12762,-0.48149,0.03418,,,,,,,,,,,,,,,,,,,,,,,,,,0,0,0,0,0
4.3801,1783966663.9423,1,1,3.0000,0.0000,1.42241,-0.00868,-2.63266,1.07053,1.57080,0.11675,-0.12762,-0.48149,0.03418,,,,,,,,,,,,,,,,,,,,,,,,,,0,0,0,0,0
4.3818,1783966663.9440,1,1,3.0000,0.0000,1.42241,-0.00868,-2.63266,1.07053,1.57080,0.11675,-0.12762,-0.48149,0.03418,,,,,,,,,,,,,,,,,,,,,,,,,,0,0,0,0,0
4.3842,1783966663.9464,1,1,3.0000,0.0000,1.42241,-0.00868,-2.63266,1.07053,1.57080,0.11675,-0.12762,-0.48149,0.03418,,,,,,,,,,,,,,,,,,,,,,,,,,0,0,0,0,0
4.3922,1783966663.9545,1,1,3.0000,0.0000,1.42241,-0.00868,-2.63266,1.07054,1.57080,0.11675,-0.12762,-0.48149,0.03418,,,,,,,,,,,,,,,,,,,,,,,,,,0,0,0,0,0
4.4212,1783966663.9835,1,1,3.0000,0.0000,1.42241,-0.00873,-2.63266,1.07061,1.57080,0.11675,-0.12762,-0.48150,0.03417,,,,,,,,,,,,,,,,,,,,,,,,,,0,0,0,0,0
4.4229,1783966663.9852,1,1,3.0000,0.0000,1.42241,-0.00873,-2.63266,1.07062,1.57080,0.11675,-0.12762,-0.48150,0.03417,,,,,,,,,,,,,,,,,,,,,,,,,,0,0,0,0,0
4.4239,1783966663.9862,1,1,3.0000,0.0000,1.42241,-0.00873,-2.63266,1.07062,1.57080,0.11675,-0.12762,-0.48150,0.03417,,,,,,,,,,,,,,,,,,,,,,,,,,0,0,0,0,0
4.4243,1783966663.9866,1,1,3.0000,0.0000,1.42241,-0.00873,-2.63266,1.07062,1.57080,0.11675,-0.12762,-0.48150,0.03417,,,,,,,,,,,,,,,,,,,,,,,,,,0,0,0,0,0
4.4419,1783966664.0041,1,1,3.0000,0.0000,1.42241,-0.00878,-2.63270,1.07067,1.57080,0.11675,-0.12762,-0.48148,0.03414,,,,,,,,,,,,,,,,,,,,,,,,,,0,0,0,0,0
4.4442,1783966664.0064,1,1,3.0000,0.0000,1.42241,-0.00879,-2.63271,1.07069,1.57080,0.11675,-0.12762,-0.48148,0.03413,,,,,,,,,,,,,,,,,,,,,,,,,,0,0,0,0,0
4.4446,1783966664.0069,1,1,3.0000,0.0000,1.42241,-0.00879,-2.63271,1.07069,1.57080,0.11675,-0.12762,-0.48148,0.03413,,,,,,,,,,,,,,,,,,,,,,,,,,0,0,0,0,0
4.4540,1783966664.0162,1,1,3.0000,0.0000,1.42241,-0.00881,-2.63272,1.07071,1.57080,0.11675,-0.12763,-0.48147,0.03412,,,,,,,,,,,,,,,,,,,,,,,,,,0,0,0,0,0
4.4614,1783966664.0237,1,1,3.0000,0.0000,1.42241,-0.00883,-2.63273,1.07073,1.57080,0.11675,-0.12763,-0.48147,0.03411,,,,,,,,,,,,,,,,,,,,,,,,,,0,0,0,0,0
4.4838,1783966664.0461,1,1,3.0000,0.0000,1.42241,-0.00891,-2.63276,1.07082,1.57080,0.11675,-0.12763,-0.48145,0.03408,,,,,,,,,,,,,,,,,,,,,,,,,,0,0,0,0,0
4.4915,1783966664.0538,1,1,3.0000,0.0000,1.42241,-0.00896,-2.63278,1.07089,1.57080,0.11675,-0.12763,-0.48145,0.03406,,,,,,,,,,,,,,,,,,,,,,,,,,0,0,0,0,0
4.4943,1783966664.0565,1,1,3.0000,0.0000,1.42241,-0.00900,-2.63279,1.07093,1.57081,0.11675,-0.12763,-0.48145,0.03405,,,,,,,,,,,,,,,,,,,,,,,,,,0,0,0,0,0
4.4947,1783966664.0569,1,1,3.0000,0.0000,1.42241,-0.00900,-2.63279,1.07093,1.57081,0.11675,-0.12763,-0.48145,0.03405,,,,,,,,,,,,,,,,,,,,,,,,,,0,0,0,0,0
4.5069,1783966664.0691,1,1,3.0000,0.0000,1.42241,-0.00909,-2.63281,1.07104,1.57081,0.11675,-0.12763,-0.48145,0.03401,,,,,,,,,,,,,,,,,,,,,,,,,,0,0,0,0,0
4.5073,1783966664.0696,1,1,3.0000,0.0000,1.42241,-0.00909,-2.63281,1.07104,1.57081,0.11675,-0.12763,-0.48145,0.03401,,,,,,,,,,,,,,,,,,,,,,,,,,0,0,0,0,0
4.5112,1783966664.0735,1,1,3.0000,0.0000,1.42241,-0.00910,-2.63281,1.07105,1.57081,0.11675,-0.12763,-0.48145,0.03401,,,,,,,,,,,,,,,,,,,,,,,,,,0,0,0,0,0
4.5232,1783966664.0854,1,1,3.0000,0.0000,1.42241,-0.00918,-2.63282,1.07115,1.57081,0.11675,-0.12763,-0.48145,0.03398,,,,,,,,,,,,,,,,,,,,,,,,,,0,0,0,0,0
4.5290,1783966664.0912,1,1,3.0000,0.0000,1.42241,-0.00922,-2.63283,1.07120,1.57081,0.11675,-0.12763,-0.48145,0.03397,,,,,,,,,,,,,,,,,,,,,,,,,,0,0,0,0,0
4.5293,1783966664.0915,1,1,3.0000,0.0000,1.42241,-0.00922,-2.63283,1.07120,1.57081,0.11675,-0.12763,-0.48145,0.03397,,,,,,,,,,,,,,,,,,,,,,,,,,0,0,0,0,0
4.5454,1783966664.1076,1,1,3.0000,0.0000,1.42241,-0.00928,-2.63284,1.07126,1.57081,0.11675,-0.12763,-0.48145,0.03395,,,,,,,,,,,,,,,,,,,,,,,,,,0,0,0,0,0
4.5624,1783966664.1247,1,1,3.0000,0.0000,1.42241,-0.00947,-2.63287,1.07149,1.57081,0.11675,-0.12763,-0.48146,0.03389,,,,,,,,,,,,,,,,,,,,,,,,,,0,0,0,0,0
4.5628,1783966664.1250,1,1,3.0000,0.0000,1.42241,-0.00947,-2.63287,1.07149,1.57081,0.11675,-0.12763,-0.48146,0.03389,,,,,,,,,,,,,,,,,,,,,,,,,,0,0,0,0,0
4.5709,1783966664.1331,1,1,3.0000,0.0000,1.42241,-0.00949,-2.63287,1.07152,1.57081,0.11675,-0.12762,-0.48146,0.03389,,,,,,,,,,,,,,,,,,,,,,,,,,0,0,0,0,0
4.5714,1783966664.1337,1,1,3.0000,0.0000,1.42241,-0.00949,-2.63287,1.07152,1.57081,0.11675,-0.12762,-0.48146,0.03389,,,,,,,,,,,,,,,,,,,,,,,,,,0,0,0,0,0
4.5717,1783966664.1339,1,1,3.0000,0.0000,1.42241,-0.00949,-2.63287,1.07152,1.57081,0.11675,-0.12762,-0.48146,0.03389,,,,,,,,,,,,,,,,,,,,,,,,,,0,0,0,0,0
4.5807,1783966664.1430,1,1,3.0000,0.0000,1.42241,-0.00954,-2.63288,1.07158,1.57081,0.11675,-0.12762,-0.48147,0.03387,,,,,,,,,,,,,,,,,,,,,,,,,,0,0,0,0,0
4.5906,1783966664.1528,1,1,3.0000,0.0000,1.42241,-0.00966,-2.63289,1.07172,1.57081,0.11675,-0.12762,-0.48148,0.03384,,,,,,,,,,,,,,,,,,,,,,,,,,0,0,0,0,0
4.5994,1783966664.1617,1,1,3.0000,0.0000,1.42241,-0.00974,-2.63289,1.07182,1.57081,0.11675,-0.12762,-0.48149,0.03382,,,,,,,,,,,,,,,,,,,,,,,,,,0,0,0,0,0
4.6093,1783966664.1716,1,1,3.0000,0.0000,1.42241,-0.00982,-2.63289,1.07192,1.57081,0.11675,-0.12762,-0.48150,0.03380,,,,,,,,,,,,,,,,,,,,,,,,,,0,0,0,0,0
4.6265,1783966664.1887,1,1,3.0000,0.0000,1.42241,-0.00993,-2.63288,1.07205,1.57081,0.11675,-0.12761,-0.48153,0.03378,,,,,,,,,,,,,,,,,,,,,,,,,,0,0,0,0,0
4.6267,1783966664.1890,1,1,3.0000,0.0000,1.42241,-0.00993,-2.63288,1.07205,1.57081,0.11675,-0.12761,-0.48153,0.03378,,,,,,,,,,,,,,,,,,,,,,,,,,0,0,0,0,0
4.6271,1783966664.1893,1,1,3.0000,0.0000,1.42241,-0.00993,-2.63288,1.07205,1.57081,0.11675,-0.12761,-0.48153,0.03378,,,,,,,,,,,,,,,,,,,,,,,,,,0,0,0,0,0
4.6318,1783966664.1941,1,1,3.0000,0.0000,1.42241,-0.00993,-2.63288,1.07205,1.57081,0.11675,-0.12761,-0.48153,0.03378,,,,,,,,,,,,,,,,,,,,,,,,,,0,0,0,0,0
4.6321,1783966664.1943,1,1,3.0000,0.0000,1.42241,-0.00993,-2.63288,1.07205,1.57081,0.11675,-0.12761,-0.48153,0.03378,,,,,,,,,,,,,,,,,,,,,,,,,,0,0,0,0,0
4.6503,1783966664.2126,1,1,3.0000,0.0000,1.42241,-0.00993,-2.63288,1.07205,1.57081,0.11675,-0.12761,-0.48153,0.03378,,,,,,,,,,,,,,,,,,,,,,,,,,0,0,0,0,0
4.6530,1783966664.2152,1,1,3.0000,0.0000,1.42241,-0.00993,-2.63288,1.07205,1.57081,0.11675,-0.12761,-0.48153,0.03378,,,,,,,,,,,,,,,,,,,,,,,,,,0,0,0,0,0
4.6618,1783966664.2241,1,1,3.0000,0.0000,1.42241,-0.00993,-2.63288,1.07205,1.57081,0.11675,-0.12761,-0.48153,0.03378,,,,,,,,,,,,,,,,,,,,,,,,,,0,0,0,0,0
4.6624,1783966664.2246,1,1,3.0000,0.0000,1.42241,-0.00993,-2.63288,1.07205,1.57081,0.11675,-0.12761,-0.48153,0.03378,,,,,,,,,,,,,,,,,,,,,,,,,,0,0,0,0,0
4.6745,1783966664.2368,1,1,3.0000,0.0000,1.42241,-0.00993,-2.63288,1.07205,1.57081,0.11675,-0.12761,-0.48153,0.03378,,,,,,,,,,,,,,,,,,,,,,,,,,0,0,0,0,0
4.6748,1783966664.2370,1,1,3.0000,0.0000,1.42241,-0.00993,-2.63288,1.07205,1.57081,0.11675,-0.12761,-0.48153,0.03378,,,,,,,,,,,,,,,,,,,,,,,,,,0,0,0,0,0
4.6807,1783966664.2429,1,1,3.0000,0.0000,1.42241,-0.00993,-2.63288,1.07205,1.57081,0.11675,-0.12761,-0.48153,0.03378,,,,,,,,,,,,,,,,,,,,,,,,,,0,0,0,0,0
4.6894,1783966664.2516,1,1,3.0000,0.0000,1.42241,-0.00993,-2.63288,1.07205,1.57081,0.11675,-0.12761,-0.48153,0.03378,,,,,,,,,,,,,,,,,,,,,,,,,,0,0,0,0,0
4.7027,1783966664.2649,1,1,3.0000,0.0000,1.42241,-0.00993,-2.63288,1.07205,1.57081,0.11675,-0.12761,-0.48153,0.03378,,,,,,,,,,,,,,,,,,,,,,,,,,0,0,0,0,0
4.7268,1783966664.2890,1,1,3.0000,0.0000,1.42241,-0.00993,-2.63288,1.07205,1.57081,0.11675,-0.12761,-0.48153,0.03378,,,,,,,,,,,,,,,,,,,,,,,,,,0,0,0,0,0
4.7286,1783966664.2908,1,1,3.0000,0.0000,1.42241,-0.00993,-2.63288,1.07205,1.57081,0.11675,-0.12761,-0.48153,0.03378,,,,,,,,,,,,,,,,,,,,,,,,,,0,0,0,0,0
4.7291,1783966664.2913,1,1,3.0000,0.0000,1.42241,-0.00993,-2.63288,1.07205,1.57081,0.11675,-0.12761,-0.48153,0.03378,,,,,,,,,,,,,,,,,,,,,,,,,,0,0,0,0,0
4.7293,1783966664.2915,1,1,3.0000,0.0000,1.42241,-0.00993,-2.63288,1.07205,1.57081,0.11675,-0.12761,-0.48153,0.03378,,,,,,,,,,,,,,,,,,,,,,,,,,0,0,0,0,0
4.7467,1783966664.3090,1,1,3.0000,0.0000,1.42241,-0.00993,-2.63288,1.07205,1.57081,0.11675,-0.12761,-0.48153,0.03378,,,,,,,,,,,,,,,,,,,,,,,,,,0,0,0,0,0
4.7483,1783966664.3106,1,1,3.0000,0.0000,1.42241,-0.00993,-2.63288,1.07205,1.57081,0.11675,-0.12761,-0.48153,0.03378,,,,,,,,,,,,,,,,,,,,,,,,,,0,0,0,0,0
4.7486,1783966664.3109,1,1,3.0000,0.0000,1.42241,-0.00993,-2.63288,1.07205,1.57081,0.11675,-0.12761,-0.48153,0.03378,,,,,,,,,,,,,,,,,,,,,,,,,,0,0,0,0,0
4.7640,1783966664.3262,1,1,3.0000,0.0000,1.42241,-0.00993,-2.63288,1.07205,1.57081,0.11675,-0.12761,-0.48153,0.03378,,,,,,,,,,,,,,,,,,,,,,,,,,0,0,0,0,0
4.7938,1783966664.3561,1,1,3.0000,0.0000,1.42241,-0.00993,-2.63288,1.07205,1.57081,0.11675,-0.12761,-0.48153,0.03378,,,,,,,,,,,,,,,,,,,,,,,,,,0,0,0,0,0
4.7953,1783966664.3575,1,1,3.0000,0.0000,1.42241,-0.00993,-2.63288,1.07205,1.57081,0.11675,-0.12761,-0.48153,0.03378,,,,,,,,,,,,,,,,,,,,,,,,,,0,0,0,0,0
4.7967,1783966664.3589,1,1,3.0000,0.0000,1.42241,-0.00993,-2.63288,1.07205,1.57081,0.11675,-0.12761,-0.48153,0.03378,,,,,,,,,,,,,,,,,,,,,,,,,,0,0,0,0,0
4.8038,1783966664.3660,1,1,3.0000,0.0000,1.42241,-0.00993,-2.63288,1.07205,1.57081,0.11675,-0.12761,-0.48153,0.03378,,,,,,,,,,,,,,,,,,,,,,,,,,0,0,0,0,0
4.8108,1783966664.3730,1,1,3.0000,0.0000,1.42241,-0.00993,-2.63288,1.07205,1.57081,0.11675,-0.12761,-0.48153,0.03378,,,,,,,,,,,,,,,,,,,,,,,,,,0,0,0,0,0
4.8294,1783966664.3916,1,1,3.0000,0.0000,1.42241,-0.00993,-2.63288,1.07206,1.57081,0.11675,-0.12761,-0.48153,0.03378,,,,,,,,,,,,,,,,,,,,,,,,,,0,0,0,0,0
4.8311,1783966664.3934,1,1,3.0000,0.0000,1.42241,-0.00993,-2.63289,1.07207,1.57081,0.11675,-0.12761,-0.48153,0.03378,,,,,,,,,,,,,,,,,,,,,,,,,,0,0,0,0,0
4.8314,1783966664.3937,1,1,3.0000,0.0000,1.42241,-0.00993,-2.63289,1.07207,1.57081,0.11675,-0.12761,-0.48153,0.03378,,,,,,,,,,,,,,,,,,,,,,,,,,0,0,0,0,0
4.8398,1783966664.4021,1,1,3.0000,0.0000,1.42241,-0.00994,-2.63289,1.07207,1.57081,0.11675,-0.12761,-0.48153,0.03378,,,,,,,,,,,,,,,,,,,,,,,,,,0,0,0,0,0
4.8494,1783966664.4116,1,1,3.0000,0.0000,1.42241,-0.00995,-2.63290,1.07209,1.57081,0.11675,-0.12762,-0.48152,0.03377,,,,,,,,,,,,,,,,,,,,,,,,,,0,0,0,0,0
4.8587,1783966664.4209,1,1,3.0000,0.0000,1.42241,-0.00998,-2.63294,1.07213,1.57081,0.11675,-0.12762,-0.48149,0.03374,,,,,,,,,,,,,,,,,,,,,,,,,,0,0,0,0,0
4.8718,1783966664.4340,1,1,3.0000,0.0000,1.42241,-0.01000,-2.63296,1.07215,1.57081,0.11675,-0.12762,-0.48148,0.03373,,,,,,,,,,,,,,,,,,,,,,,,,,0,0,0,0,0
4.9017,1783966664.4639,1,1,3.0000,0.0000,1.42240,-0.01011,-2.63303,1.07227,1.57081,0.11675,-0.12763,-0.48145,0.03367,,,,,,,,,,,,,,,,,,,,,,,,,,0,0,0,0,0
4.9068,1783966664.4690,1,1,3.0000,0.0000,1.42240,-0.01012,-2.63303,1.07229,1.57081,0.11675,-0.12763,-0.48145,0.03366,,,,,,,,,,,,,,,,,,,,,,,,,,0,0,0,0,0
4.9070,1783966664.4693,1,1,3.0000,0.0000,1.42240,-0.01012,-2.63303,1.07229,1.57081,0.11675,-0.12763,-0.48145,0.03366,,,,,,,,,,,,,,,,,,,,,,,,,,0,0,0,0,0
4.9123,1783966664.4745,1,1,3.0000,0.0000,1.42240,-0.01014,-2.63304,1.07231,1.57081,0.11675,-0.12763,-0.48145,0.03366,,,,,,,,,,,,,,,,,,,,,,,,,,0,0,0,0,0
4.9127,1783966664.4749,1,1,3.0000,0.0000,1.42240,-0.01014,-2.63304,1.07231,1.57081,0.11675,-0.12763,-0.48145,0.03366,,,,,,,,,,,,,,,,,,,,,,,,,,0,0,0,0,0
4.9174,1783966664.4797,1,1,3.0000,0.0000,1.42240,-0.01017,-2.63304,1.07235,1.57081,0.11675,-0.12763,-0.48145,0.03365,,,,,,,,,,,,,,,,,,,,,,,,,,0,0,0,0,0
4.9233,1783966664.4855,1,1,3.0000,0.0000,1.42240,-0.01020,-2.63305,1.07238,1.57081,0.11675,-0.12763,-0.48144,0.03364,,,,,,,,,,,,,,,,,,,,,,,,,,0,0,0,0,0
4.9237,1783966664.4859,1,1,3.0000,0.0000,1.42240,-0.01020,-2.63305,1.07238,1.57081,0.11675,-0.12763,-0.48144,0.03364,,,,,,,,,,,,,,,,,,,,,,,,,,0,0,0,0,0
4.9410,1783966664.5033,1,1,3.0000,0.0000,1.42240,-0.01030,-2.63307,1.07250,1.57081,0.11675,-0.12763,-0.48145,0.03360,,,,,,,,,,,,,,,,,,,,,,,,,,0,0,0,0,0
4.9519,1783966664.5142,1,1,3.0000,0.0000,1.42240,-0.01047,-2.63310,1.07270,1.57081,0.11675,-0.12762,-0.48145,0.03355,,,,,,,,,,,,,,,,,,,,,,,,,,0,0,0,0,0
4.9541,1783966664.5164,1,1,3.0000,0.0000,1.42240,-0.01047,-2.63310,1.07270,1.57081,0.11675,-0.12762,-0.48145,0.03355,,,,,,,,,,,,,,,,,,,,,,,,,,0,0,0,0,0
4.9548,1783966664.5170,1,1,3.0000,0.0000,1.42240,-0.01047,-2.63310,1.07270,1.57081,0.11675,-0.12762,-0.48145,0.03355,,,,,,,,,,,,,,,,,,,,,,,,,,0,0,0,0,0
4.9645,1783966664.5267,1,1,3.0000,0.0000,1.42240,-0.01049,-2.63311,1.07272,1.57081,0.11675,-0.12762,-0.48145,0.03354,,,,,,,,,,,,,,,,,,,,,,,,,,0,0,0,0,0
4.9720,1783966664.5342,1,1,3.0000,0.0000,1.42240,-0.01055,-2.63312,1.07279,1.57081,0.11675,-0.12762,-0.48145,0.03352,,,,,,,,,,,,,,,,,,,,,,,,,,0,0,0,0,0
4.9818,1783966664.5440,1,1,3.0000,0.0000,1.42240,-0.01064,-2.63313,1.07290,1.57081,0.11675,-0.12762,-0.48145,0.03350,,,,,,,,,,,,,,,,,,,,,,,,,,0,0,0,0,0
4.9945,1783966664.5567,1,1,3.0000,0.0000,1.42240,-0.01074,-2.63314,1.07302,1.57081,0.11675,-0.12762,-0.48146,0.03346,,,,,,,,,,,,,,,,,,,,,,,,,,0,0,0,0,0
5.0086,1783966664.5708,1,1,3.0000,0.0000,1.42240,-0.01079,-2.63315,1.07309,1.57081,0.11675,-0.12762,-0.48147,0.03345,,,,,,,,,,,,,,,,,,,,,,,,,,0,0,0,0,0
5.0202,1783966664.5825,1,1,3.0000,0.0000,1.42240,-0.01089,-2.63315,1.07321,1.57081,0.11675,-0.12762,-0.48148,0.03343,,,,,,,,,,,,,,,,,,,,,,,,,,0,0,0,0,0
5.0235,1783966664.5858,1,1,3.0000,0.0000,1.42240,-0.01092,-2.63315,1.07325,1.57081,0.11675,-0.12762,-0.48149,0.03342,,,,,,,,,,,,,,,,,,,,,,,,,,0,0,0,0,0
5.0238,1783966664.5861,1,1,3.0000,0.0000,1.42240,-0.01092,-2.63315,1.07325,1.57081,0.11675,-0.12762,-0.48149,0.03342,,,,,,,,,,,,,,,,,,,,,,,,,,0,0,0,0,0
5.0316,1783966664.5939,1,1,3.0000,0.0000,1.42240,-0.01099,-2.63314,1.07334,1.57081,0.11675,-0.12762,-0.48150,0.03340,,,,,,,,,,,,,,,,,,,,,,,,,,0,0,0,0,0
5.0320,1783966664.5943,1,1,3.0000,0.0000,1.42240,-0.01099,-2.63314,1.07334,1.57081,0.11675,-0.12762,-0.48150,0.03340,,,,,,,,,,,,,,,,,,,,,,,,,,0,0,0,0,0
5.0389,1783966664.6012,1,1,3.0000,0.0000,1.42240,-0.01106,-2.63314,1.07342,1.57081,0.11675,-0.12761,-0.48152,0.03339,,,,,,,,,,,,,,,,,,,,,,,,,,0,0,0,0,0
5.0552,1783966664.6174,1,1,3.0000,0.0000,1.42240,-0.01112,-2.63311,1.07350,1.57081,0.11675,-0.12761,-0.48155,0.03339,,,,,,,,,,,,,,,,,,,,,,,,,,0,0,0,0,0
5.0590,1783966664.6213,1,1,3.0000,0.0000,1.42240,-0.01112,-2.63311,1.07350,1.57081,0.11675,-0.12761,-0.48155,0.03339,,,,,,,,,,,,,,,,,,,,,,,,,,0,0,0,0,0
5.0594,1783966664.6216,1,1,3.0000,0.0000,1.42240,-0.01112,-2.63311,1.07350,1.57081,0.11675,-0.12761,-0.48155,0.03339,,,,,,,,,,,,,,,,,,,,,,,,,,0,0,0,0,0
5.0762,1783966664.6384,1,1,3.0000,0.0000,1.42240,-0.01112,-2.63311,1.07350,1.57081,0.11675,-0.12761,-0.48155,0.03339,,,,,,,,,,,,,,,,,,,,,,,,,,0,0,0,0,0
5.0843,1783966664.6466,1,1,3.0000,0.0000,1.42240,-0.01112,-2.63311,1.07350,1.57081,0.11675,-0.12761,-0.48155,0.03339,,,,,,,,,,,,,,,,,,,,,,,,,,0,0,0,0,0
5.0915,1783966664.6538,1,1,3.0000,0.0000,1.42240,-0.01112,-2.63311,1.07350,1.57081,0.11675,-0.12761,-0.48155,0.03339,,,,,,,,,,,,,,,,,,,,,,,,,,0,0,0,0,0
5.1016,1783966664.6639,1,1,3.0000,0.0000,1.42240,-0.01112,-2.63311,1.07350,1.57081,0.11675,-0.12761,-0.48155,0.03339,,,,,,,,,,,,,,,,,,,,,,,,,,0,0,0,0,0
5.1113,1783966664.6736,1,1,3.0000,0.0000,1.42240,-0.01112,-2.63311,1.07350,1.57081,0.11675,-0.12761,-0.48155,0.03339,,,,,,,,,,,,,,,,,,,,,,,,,,0,0,0,0,0
5.1212,1783966664.6835,1,1,3.0000,0.0000,1.42240,-0.01112,-2.63311,1.07350,1.57081,0.11675,-0.12761,-0.48155,0.03339,,,,,,,,,,,,,,,,,,,,,,,,,,0,0,0,0,0
5.1216,1783966664.6839,1,1,3.0000,0.0000,1.42240,-0.01112,-2.63311,1.07350,1.57081,0.11675,-0.12761,-0.48155,0.03339,,,,,,,,,,,,,,,,,,,,,,,,,,0,0,0,0,0
5.1297,1783966664.6920,1,1,3.0000,0.0000,1.42240,-0.01112,-2.63311,1.07350,1.57081,0.11675,-0.12761,-0.48155,0.03339,,,,,,,,,,,,,,,,,,,,,,,,,,0,0,0,0,0
5.1384,1783966664.7006,1,1,3.0000,0.0000,1.42240,-0.01112,-2.63311,1.07350,1.57081,0.11675,-0.12761,-0.48155,0.03339,,,,,,,,,,,,,,,,,,,,,,,,,,0,0,0,0,0
5.1559,1783966664.7181,1,1,3.0000,0.0000,1.42240,-0.01112,-2.63311,1.07350,1.57081,0.11675,-0.12761,-0.48155,0.03339,,,,,,,,,,,,,,,,,,,,,,,,,,0,0,0,0,0
5.1593,1783966664.7216,1,1,3.0000,0.0000,1.42240,-0.01112,-2.63311,1.07350,1.57081,0.11675,-0.12761,-0.48155,0.03339,,,,,,,,,,,,,,,,,,,,,,,,,,0,0,0,0,0
5.1596,1783966664.7219,1,1,3.0000,0.0000,1.42240,-0.01112,-2.63311,1.07350,1.57081,0.11675,-0.12761,-0.48155,0.03339,,,,,,,,,,,,,,,,,,,,,,,,,,0,0,0,0,0
5.1701,1783966664.7323,1,1,3.0000,0.0000,1.42240,-0.01112,-2.63311,1.07350,1.57081,0.11675,-0.12761,-0.48155,0.03339,,,,,,,,,,,,,,,,,,,,,,,,,,0,0,0,0,0
5.1865,1783966664.7488,1,1,3.0000,0.0000,1.42240,-0.01112,-2.63311,1.07350,1.57081,0.11675,-0.12761,-0.48155,0.03339,,,,,,,,,,,,,,,,,,,,,,,,,,0,0,0,0,0
5.1928,1783966664.7551,1,1,3.0000,0.0000,1.42240,-0.01112,-2.63311,1.07350,1.57081,0.11675,-0.12761,-0.48155,0.03339,,,,,,,,,,,,,,,,,,,,,,,,,,0,0,0,0,0
5.2005,1783966664.7627,1,1,3.0000,0.0000,1.42240,-0.01112,-2.63311,1.07350,1.57081,0.11675,-0.12761,-0.48155,0.03339,,,,,,,,,,,,,,,,,,,,,,,,,,0,0,0,0,0
5.2104,1783966664.7726,1,1,3.0000,0.0000,1.42240,-0.01112,-2.63311,1.07350,1.57081,0.11675,-0.12761,-0.48155,0.03339,,,,,,,,,,,,,,,,,,,,,,,,,,0,0,0,0,0
5.2267,1783966664.7889,1,1,3.0000,0.0000,1.42240,-0.01112,-2.63311,1.07350,1.57081,0.11675,-0.12761,-0.48155,0.03339,,,,,,,,,,,,,,,,,,,,,,,,,,0,0,0,0,0
5.2395,1783966664.8018,1,1,3.0000,0.0000,1.42240,-0.01112,-2.63311,1.07350,1.57081,0.11675,-0.12761,-0.48155,0.03339,,,,,,,,,,,,,,,,,,,,,,,,,,0,0,0,0,0
5.2424,1783966664.8047,1,1,3.0000,0.0000,1.42240,-0.01112,-2.63311,1.07350,1.57081,0.11675,-0.12761,-0.48155,0.03339,,,,,,,,,,,,,,,,,,,,,,,,,,0,0,0,0,0
5.2598,1783966664.8221,1,1,3.0000,0.0000,1.42240,-0.01112,-2.63311,1.07350,1.57081,0.11675,-0.12761,-0.48155,0.03339,,,,,,,,,,,,,,,,,,,,,,,,,,0,0,0,0,0
5.2633,1783966664.8255,1,1,3.0000,0.0000,1.42240,-0.01112,-2.63312,1.07350,1.57081,0.11675,-0.12761,-0.48154,0.03339,,,,,,,,,,,,,,,,,,,,,,,,,,0,0,0,0,0
5.2635,1783966664.8258,1,1,3.0000,0.0000,1.42240,-0.01112,-2.63312,1.07350,1.57081,0.11675,-0.12761,-0.48154,0.03339,,,,,,,,,,,,,,,,,,,,,,,,,,0,0,0,0,0
5.2712,1783966664.8334,1,1,3.0000,0.0000,1.42240,-0.01113,-2.63313,1.07351,1.57081,0.11675,-0.12761,-0.48154,0.03338,,,,,,,,,,,,,,,,,,,,,,,,,,0,0,0,0,0
5.2854,1783966664.8477,1,1,3.0000,0.0000,1.42240,-0.01115,-2.63315,1.07354,1.57081,0.11675,-0.12761,-0.48152,0.03336,,,,,,,,,,,,,,,,,,,,,,,,,,0,0,0,0,0
5.2954,1783966664.8577,1,1,3.0000,0.0000,1.42240,-0.01118,-2.63318,1.07357,1.57081,0.11675,-0.12761,-0.48151,0.03335,,,,,,,,,,,,,,,,,,,,,,,,,,0,0,0,0,0
5.2957,1783966664.8580,1,1,3.0000,0.0000,1.42240,-0.01118,-2.63318,1.07357,1.57081,0.11675,-0.12761,-0.48151,0.03335,,,,,,,,,,,,,,,,,,,,,,,,,,0,0,0,0,0
