Martins-Lucaas/twinforge/sensors/Data/celula de carga/20260713_164029__samples.csv
t_rel_s,t_unix,cycle,phase,setpoint_n,force_net_n,q1,q2,q3,q4,q5,q6,tcp_x,tcp_y,tcp_z,taxel_0,taxel_1,taxel_2,taxel_3,taxel_4,taxel_5,taxel_6,taxel_7,taxel_8,taxel_9,taxel_10,taxel_11,taxel_12,taxel_13,taxel_14,taxel_15,taxel_16,taxel_17,taxel_18,taxel_19,taxel_20,taxel_21,taxel_22,taxel_23,taxel_24,n_RA,n_SA,cn_mm,cn_ra,cn_sa
0.0135,1783971629.8870,1,0,1.0000,-0.0000,1.42244,0.00072,-2.63045,1.05901,1.57084,0.11671,-0.12761,-0.48157,0.03741,,,,,,,,,,,,,,,,,,,,,,,,,,0,0,0,0,0
0.0341,1783971629.9076,1,0,1.0000,-0.0000,1.42244,0.00072,-2.63045,1.05901,1.57084,0.11671,-0.12761,-0.48157,0.03741,,,,,,,,,,,,,,,,,,,,,,,,,,0,0,0,0,0
0.0344,1783971629.9079,1,0,1.0000,-0.0000,1.42244,0.00072,-2.63045,1.05901,1.57084,0.11671,-0.12761,-0.48157,0.03741,,,,,,,,,,,,,,,,,,,,,,,,,,0,0,0,0,0
0.0396,1783971629.9131,1,0,1.0000,-0.0000,1.42244,0.00072,-2.63045,1.05901,1.57084,0.11671,-0.12761,-0.48157,0.03741,,,,,,,,,,,,,,,,,,,,,,,,,,0,0,0,0,0
0.0400,1783971629.9135,1,0,1.0000,-0.0000,1.42244,0.00072,-2.63045,1.05901,1.57084,0.11671,-0.12761,-0.48157,0.03741,,,,,,,,,,,,,,,,,,,,,,,,,,0,0,0,0,0
0.0445,1783971629.9180,1,0,1.0000,-0.0000,1.42244,0.00072,-2.63045,1.05901,1.57084,0.11672,-0.12761,-0.48157,0.03741,,,,,,,,,,,,,,,,,,,,,,,,,,0,0,0,0,0
0.0604,1783971629.9339,1,0,1.0000,-0.0000,1.42244,0.00072,-2.63047,1.05903,1.57083,0.11673,-0.12762,-0.48156,0.03740,,,,,,,,,,,,,,,,,,,,,,,,,,0,0,0,0,0
0.0607,1783971629.9342,1,0,1.0000,-0.0000,1.42244,0.00072,-2.63047,1.05903,1.57083,0.11673,-0.12762,-0.48156,0.03740,,,,,,,,,,,,,,,,,,,,,,,,,,0,0,0,0,0
0.0611,1783971629.9346,1,0,1.0000,-0.0000,1.42244,0.00072,-2.63047,1.05903,1.57083,0.11673,-0.12762,-0.48156,0.03740,,,,,,,,,,,,,,,,,,,,,,,,,,0,0,0,0,0
0.0688,1783971629.9422,1,0,1.0000,-0.0000,1.42244,0.00072,-2.63049,1.05904,1.57082,0.11673,-0.12762,-0.48155,0.03740,,,,,,,,,,,,,,,,,,,,,,,,,,0,0,0,0,0
0.0781,1783971629.9516,1,0,1.0000,-0.0000,1.42244,0.00071,-2.63050,1.05905,1.57081,0.11674,-0.12763,-0.48154,0.03739,,,,,,,,,,,,,,,,,,,,,,,,,,0,0,0,0,0
0.0784,1783971629.9519,1,0,1.0000,-0.0000,1.42244,0.00071,-2.63050,1.05905,1.57081,0.11674,-0.12763,-0.48154,0.03739,,,,,,,,,,,,,,,,,,,,,,,,,,0,0,0,0,0
0.0989,1783971629.9724,1,0,1.0000,-0.0000,1.42244,0.00071,-2.63053,1.05907,1.57080,0.11675,-0.12764,-0.48152,0.03738,,,,,,,,,,,,,,,,,,,,,,,,,,0,0,0,0,0
0.0994,1783971629.9729,1,0,1.0000,-0.0000,1.42244,0.00071,-2.63053,1.05907,1.57080,0.11675,-0.12764,-0.48152,0.03738,,,,,,,,,,,,,,,,,,,,,,,,,,0,0,0,0,0
0.0997,1783971629.9732,1,0,1.0000,-0.0000,1.42244,0.00071,-2.63053,1.05907,1.57080,0.11675,-0.12764,-0.48152,0.03738,,,,,,,,,,,,,,,,,,,,,,,,,,0,0,0,0,0
0.1321,1783971630.0056,1,0,1.0000,-0.0000,1.42244,0.00071,-2.63053,1.05907,1.57080,0.11675,-0.12764,-0.48152,0.03738,,,,,,,,,,,,,,,,,,,,,,,,,,0,0,0,0,0
0.1324,1783971630.0059,1,0,1.0000,-0.0000,1.42244,0.00071,-2.63053,1.05907,1.57080,0.11675,-0.12764,-0.48152,0.03738,,,,,,,,,,,,,,,,,,,,,,,,,,0,0,0,0,0
0.1328,1783971630.0063,1,0,1.0000,-0.0000,1.42244,0.00071,-2.63053,1.05907,1.57080,0.11675,-0.12764,-0.48152,0.03738,,,,,,,,,,,,,,,,,,,,,,,,,,0,0,0,0,0
0.1521,1783971630.0256,1,0,1.0000,-0.0000,1.42244,0.00071,-2.63053,1.05907,1.57080,0.11675,-0.12764,-0.48152,0.03738,,,,,,,,,,,,,,,,,,,,,,,,,,0,0,0,0,0
0.1748,1783971630.0483,1,0,1.0000,-0.0000,1.42244,0.00071,-2.63053,1.05907,1.57080,0.11675,-0.12764,-0.48152,0.03738,,,,,,,,,,,,,,,,,,,,,,,,,,0,0,0,0,0
0.1751,1783971630.0486,1,0,1.0000,-0.0000,1.42244,0.00071,-2.63053,1.05907,1.57080,0.11675,-0.12764,-0.48152,0.03738,,,,,,,,,,,,,,,,,,,,,,,,,,0,0,0,0,0
0.1755,1783971630.0490,1,0,1.0000,-0.0000,1.42244,0.00071,-2.63053,1.05907,1.57080,0.11675,-0.12764,-0.48152,0.03738,,,,,,,,,,,,,,,,,,,,,,,,,,0,0,0,0,0
0.2046,1783971630.0781,1,0,1.0000,-0.0000,1.42244,0.00071,-2.63053,1.05907,1.57080,0.11675,-0.12764,-0.48152,0.03738,,,,,,,,,,,,,,,,,,,,,,,,,,0,0,0,0,0
0.2049,1783971630.0784,1,0,1.0000,-0.0000,1.42244,0.00071,-2.63053,1.05907,1.57080,0.11675,-0.12764,-0.48152,0.03738,,,,,,,,,,,,,,,,,,,,,,,,,,0,0,0,0,0
0.2415,1783971630.1150,1,0,1.0000,-0.0000,1.42244,0.00071,-2.63053,1.05907,1.57080,0.11675,-0.12764,-0.48152,0.03738,,,,,,,,,,,,,,,,,,,,,,,,,,0,0,0,0,0
0.2418,1783971630.1153,1,0,1.0000,-0.0000,1.42244,0.00071,-2.63053,1.05907,1.57080,0.11675,-0.12764,-0.48152,0.03738,,,,,,,,,,,,,,,,,,,,,,,,,,0,0,0,0,0
0.2422,1783971630.1157,1,0,1.0000,-0.0000,1.42244,0.00071,-2.63053,1.05907,1.57080,0.11675,-0.12764,-0.48152,0.03738,,,,,,,,,,,,,,,,,,,,,,,,,,0,0,0,0,0
0.2512,1783971630.1247,1,0,1.0000,-0.0000,1.42244,0.00071,-2.63053,1.05907,1.57080,0.11675,-0.12764,-0.48152,0.03738,,,,,,,,,,,,,,,,,,,,,,,,,,0,0,0,0,0
0.2766,1783971630.1501,1,0,1.0000,-0.0000,1.42244,0.00071,-2.63053,1.05907,1.57080,0.11675,-0.12764,-0.48152,0.03738,,,,,,,,,,,,,,,,,,,,,,,,,,0,0,0,0,0
0.2769,1783971630.1504,1,0,1.0000,-0.0000,1.42244,0.00071,-2.63053,1.05907,1.57080,0.11675,-0.12764,-0.48152,0.03738,,,,,,,,,,,,,,,,,,,,,,,,,,0,0,0,0,0
0.2938,1783971630.1672,1,0,1.0000,-0.0000,1.42244,0.00071,-2.63053,1.05907,1.57080,0.11675,-0.12764,-0.48152,0.03738,,,,,,,,,,,,,,,,,,,,,,,,,,0,0,0,0,0
0.3030,1783971630.1765,1,0,1.0000,-0.0000,1.42244,0.00071,-2.63053,1.05907,1.57080,0.11675,-0.12764,-0.48152,0.03738,,,,,,,,,,,,,,,,,,,,,,,,,,0,0,0,0,0
0.3035,1783971630.1770,1,0,1.0000,-0.0000,1.42244,0.00071,-2.63053,1.05907,1.57080,0.11675,-0.12764,-0.48152,0.03738,,,,,,,,,,,,,,,,,,,,,,,,,,0,0,0,0,0
0.3188,1783971630.1923,1,0,1.0000,-0.0000,1.42244,0.00071,-2.63053,1.05907,1.57080,0.11675,-0.12764,-0.48152,0.03738,,,,,,,,,,,,,,,,,,,,,,,,,,0,0,0,0,0
0.3541,1783971630.2276,1,0,1.0000,-0.0000,1.42244,0.00071,-2.63053,1.05907,1.57080,0.11675,-0.12764,-0.48152,0.03738,,,,,,,,,,,,,,,,,,,,,,,,,,0,0,0,0,0
0.3547,1783971630.2282,1,0,1.0000,-0.0000,1.42244,0.00071,-2.63053,1.05907,1.57080,0.11675,-0.12764,-0.48152,0.03738,,,,,,,,,,,,,,,,,,,,,,,,,,0,0,0,0,0
0.4037,1783971630.2772,1,0,1.0000,-0.0000,1.42244,0.00071,-2.63053,1.05907,1.57080,0.11675,-0.12764,-0.48152,0.03738,,,,,,,,,,,,,,,,,,,,,,,,,,0,0,0,0,0
0.4042,1783971630.2777,1,0,1.0000,-0.0000,1.42244,0.00071,-2.63053,1.05907,1.57080,0.11675,-0.12764,-0.48152,0.03738,,,,,,,,,,,,,,,,,,,,,,,,,,0,0,0,0,0
0.4046,1783971630.2780,1,0,1.0000,-0.0000,1.42244,0.00071,-2.63053,1.05907,1.57080,0.11675,-0.12764,-0.48152,0.03738,,,,,,,,,,,,,,,,,,,,,,,,,,0,0,0,0,0
0.4172,1783971630.2907,1,0,1.0000,-0.0000,1.42244,0.00071,-2.63053,1.05907,1.57080,0.11675,-0.12764,-0.48152,0.03738,,,,,,,,,,,,,,,,,,,,,,,,,,0,0,0,0,0
0.4175,1783971630.2910,1,0,1.0000,-0.0000,1.42244,0.00071,-2.63053,1.05907,1.57080,0.11675,-0.12764,-0.48152,0.03738,,,,,,,,,,,,,,,,,,,,,,,,,,0,0,0,0,0
0.4366,1783971630.3101,1,0,1.0000,-0.0000,1.42244,0.00071,-2.63053,1.05907,1.57080,0.11675,-0.12764,-0.48152,0.03738,,,,,,,,,,,,,,,,,,,,,,,,,,0,0,0,0,0
0.4370,1783971630.3105,1,0,1.0000,-0.0000,1.42244,0.00071,-2.63053,1.05907,1.57080,0.11675,-0.12764,-0.48152,0.03738,,,,,,,,,,,,,,,,,,,,,,,,,,0,0,0,0,0
0.4654,1783971630.3389,1,0,1.0000,-0.0000,1.42244,0.00071,-2.63053,1.05907,1.57080,0.11675,-0.12764,-0.48152,0.03738,,,,,,,,,,,,,,,,,,,,,,,,,,0,0,0,0,0
0.4658,1783971630.3393,1,0,1.0000,-0.0000,1.42244,0.00071,-2.63053,1.05907,1.57080,0.11675,-0.12764,-0.48152,0.03738,,,,,,,,,,,,,,,,,,,,,,,,,,0,0,0,0,0
0.4817,1783971630.3552,1,0,1.0000,-0.0000,1.42244,0.00071,-2.63053,1.05907,1.57080,0.11675,-0.12764,-0.48152,0.03738,,,,,,,,,,,,,,,,,,,,,,,,,,0,0,0,0,0
0.4821,1783971630.3556,1,0,1.0000,-0.0000,1.42244,0.00071,-2.63053,1.05907,1.57080,0.11675,-0.12764,-0.48152,0.03738,,,,,,,,,,,,,,,,,,,,,,,,,,0,0,0,0,0
0.5223,1783971630.3958,1,0,1.0000,-0.0000,1.42244,0.00071,-2.63053,1.05907,1.57080,0.11675,-0.12764,-0.48152,0.03738,,,,,,,,,,,,,,,,,,,,,,,,,,0,0,0,0,0
0.5230,1783971630.3964,1,0,1.0000,-0.0000,1.42244,0.00071,-2.63053,1.05907,1.57080,0.11675,-0.12764,-0.48152,0.03738,,,,,,,,,,,,,,,,,,,,,,,,,,0,0,0,0,0
0.5267,1783971630.4002,1,0,1.0000,-0.0000,1.42244,0.00071,-2.63053,1.05907,1.57080,0.11675,-0.12764,-0.48152,0.03738,,,,,,,,,,,,,,,,,,,,,,,,,,0,0,0,0,0
0.5509,1783971630.4244,1,0,1.0000,-0.0000,1.42244,0.00071,-2.63053,1.05907,1.57080,0.11675,-0.12764,-0.48152,0.03738,,,,,,,,,,,,,,,,,,,,,,,,,,0,0,0,0,0
0.5512,1783971630.4247,1,0,1.0000,-0.0000,1.42244,0.00071,-2.63053,1.05907,1.57080,0.11675,-0.12764,-0.48152,0.03738,,,,,,,,,,,,,,,,,,,,,,,,,,0,0,0,0,0
0.5570,1783971630.4305,1,0,1.0000,-0.0000,1.42244,0.00071,-2.63053,1.05907,1.57080,0.11675,-0.12764,-0.48152,0.03738,,,,,,,,,,,,,,,,,,,,,,,,,,0,0,0,0,0
0.5726,1783971630.4461,1,0,1.0000,-0.0000,1.42244,0.00071,-2.63053,1.05907,1.57080,0.11675,-0.12764,-0.48152,0.03738,,,,,,,,,,,,,,,,,,,,,,,,,,0,0,0,0,0
0.5999,1783971630.4734,1,0,1.0000,-0.0000,1.42244,0.00071,-2.63053,1.05907,1.57080,0.11675,-0.12764,-0.48152,0.03738,,,,,,,,,,,,,,,,,,,,,,,,,,0,0,0,0,0
0.6276,1783971630.5011,1,0,1.0000,-0.0000,1.42244,0.00071,-2.63053,1.05907,1.57080,0.11675,-0.12764,-0.48152,0.03738,,,,,,,,,,,,,,,,,,,,,,,,,,0,0,0,0,0
0.6280,1783971630.5015,1,0,1.0000,-0.0000,1.42244,0.00071,-2.63053,1.05907,1.57080,0.11675,-0.12764,-0.48152,0.03738,,,,,,,,,,,,,,,,,,,,,,,,,,0,0,0,0,0
0.6289,1783971630.5024,1,0,1.0000,-0.0000,1.42244,0.00071,-2.63053,1.05907,1.57080,0.11675,-0.12764,-0.48152,0.03738,,,,,,,,,,,,,,,,,,,,,,,,,,0,0,0,0,0
0.6292,1783971630.5027,1,0,1.0000,-0.0000,1.42244,0.00071,-2.63053,1.05907,1.57080,0.11675,-0.12764,-0.48152,0.03738,,,,,,,,,,,,,,,,,,,,,,,,,,0,0,0,0,0
0.6764,1783971630.5499,1,0,1.0000,-0.0000,1.42244,0.00071,-2.63053,1.05907,1.57080,0.11675,-0.12764,-0.48152,0.03738,,,,,,,,,,,,,,,,,,,,,,,,,,0,0,0,0,0
0.6769,1783971630.5504,1,0,1.0000,-0.0000,1.42244,0.00071,-2.63053,1.05907,1.57080,0.11675,-0.12764,-0.48152,0.03738,,,,,,,,,,,,,,,,,,,,,,,,,,0,0,0,0,0
0.6775,1783971630.5510,1,0,1.0000,-0.0000,1.42244,0.00071,-2.63053,1.05907,1.57080,0.11675,-0.12764,-0.48152,0.03738,,,,,,,,,,,,,,,,,,,,,,,,,,0,0,0,0,0
0.6785,1783971630.5520,1,0,1.0000,-0.0000,1.42244,0.00071,-2.63053,1.05907,1.57080,0.11675,-0.12764,-0.48152,0.03738,,,,,,,,,,,,,,,,,,,,,,,,,,0,0,0,0,0
0.6898,1783971630.5633,1,0,1.0000,-0.0000,1.42244,0.00071,-2.63053,1.05907,1.57080,0.11675,-0.12764,-0.48152,0.03738,,,,,,,,,,,,,,,,,,,,,,,,,,0,0,0,0,0
0.7158,1783971630.5893,1,0,1.0000,-0.0000,1.42244,0.00071,-2.63053,1.05907,1.57080,0.11675,-0.12764,-0.48152,0.03738,,,,,,,,,,,,,,,,,,,,,,,,,,0,0,0,0,0
0.7161,1783971630.5896,1,0,1.0000,-0.0000,1.42244,0.00071,-2.63053,1.05907,1.57080,0.11675,-0.12764,-0.48152,0.03738,,,,,,,,,,,,,,,,,,,,,,,,,,0,0,0,0,0
0.7321,1783971630.6056,1,1,1.0000,-0.0000,1.42244,0.00071,-2.63053,1.05907,1.57080,0.11675,-0.12764,-0.48152,0.03738,,,,,,,,,,,,,,,,,,,,,,,,,,0,0,0,0,0
0.7462,1783971630.6197,1,1,1.0000,-0.0000,1.42244,0.00071,-2.63053,1.05907,1.57080,0.11675,-0.12764,-0.48152,0.03738,,,,,,,,,,,,,,,,,,,,,,,,,,0,0,0,0,0
0.7650,1783971630.6385,1,1,1.0000,-0.0000,1.42244,0.00071,-2.63053,1.05907,1.57080,0.11675,-0.12764,-0.48152,0.03738,,,,,,,,,,,,,,,,,,,,,,,,,,0,0,0,0,0
0.7653,1783971630.6388,1,1,1.0000,-0.0000,1.42244,0.00071,-2.63053,1.05907,1.57080,0.11675,-0.12764,-0.48152,0.03738,,,,,,,,,,,,,,,,,,,,,,,,,,0,0,0,0,0
0.7895,1783971630.6630,1,1,1.0000,-0.0000,1.42244,0.00071,-2.63053,1.05907,1.57080,0.11675,-0.12764,-0.48152,0.03738,,,,,,,,,,,,,,,,,,,,,,,,,,0,0,0,0,0
0.8364,1783971630.7099,1,1,1.0000,-0.0000,1.42244,0.00071,-2.63053,1.05907,1.57080,0.11675,-0.12764,-0.48152,0.03738,,,,,,,,,,,,,,,,,,,,,,,,,,0,0,0,0,0
0.8369,1783971630.7104,1,1,1.0000,-0.0000,1.42244,0.00071,-2.63053,1.05907,1.57080,0.11675,-0.12764,-0.48152,0.03738,,,,,,,,,,,,,,,,,,,,,,,,,,0,0,0,0,0
0.8372,1783971630.7107,1,1,1.0000,-0.0000,1.42244,0.00071,-2.63053,1.05907,1.57080,0.11675,-0.12764,-0.48152,0.03738,,,,,,,,,,,,,,,,,,,,,,,,,,0,0,0,0,0
0.8376,1783971630.7111,1,1,1.0000,-0.0000,1.42244,0.00071,-2.63053,1.05907,1.57080,0.11675,-0.12764,-0.48152,0.03738,,,,,,,,,,,,,,,,,,,,,,,,,,0,0,0,0,0
0.8648,1783971630.7383,1,1,1.0000,-0.0000,1.42244,0.00071,-2.63053,1.05907,1.57080,0.11675,-0.12764,-0.48152,0.03738,,,,,,,,,,,,,,,,,,,,,,,,,,0,0,0,0,0
0.8651,1783971630.7386,1,1,1.0000,-0.0000,1.42244,0.00071,-2.63053,1.05907,1.57080,0.11675,-0.12764,-0.48152,0.03738,,,,,,,,,,,,,,,,,,,,,,,,,,0,0,0,0,0
0.8806,1783971630.7541,1,1,1.0000,-0.0000,1.42244,0.00071,-2.63053,1.05907,1.57080,0.11675,-0.12764,-0.48152,0.03738,,,,,,,,,,,,,,,,,,,,,,,,,,0,0,0,0,0
0.8810,1783971630.7545,1,1,1.0000,-0.0000,1.42244,0.00071,-2.63053,1.05907,1.57080,0.11675,-0.12764,-0.48152,0.03738,,,,,,,,,,,,,,,,,,,,,,,,,,0,0,0,0,0
0.8948,1783971630.7683,1,1,1.0000,-0.0000,1.42244,0.00071,-2.63053,1.05907,1.57080,0.11675,-0.12764,-0.48152,0.03738,,,,,,,,,,,,,,,,,,,,,,,,,,0,0,0,0,0
0.9101,1783971630.7836,1,1,1.0000,-0.0000,1.42244,0.00071,-2.63053,1.05907,1.57080,0.11675,-0.12764,-0.48152,0.03738,,,,,,,,,,,,,,,,,,,,,,,,,,0,0,0,0,0
0.9148,1783971630.7883,1,1,1.0000,-0.0000,1.42244,0.00071,-2.63053,1.05907,1.57080,0.11675,-0.12764,-0.48152,0.03738,,,,,,,,,,,,,,,,,,,,,,,,,,0,0,0,0,0
0.9152,1783971630.7887,1,1,1.0000,-0.0000,1.42244,0.00071,-2.63053,1.05907,1.57080,0.11675,-0.12764,-0.48152,0.03738,,,,,,,,,,,,,,,,,,,,,,,,,,0,0,0,0,0
0.9234,1783971630.7969,1,1,1.0000,-0.0000,1.42244,0.00071,-2.63053,1.05907,1.57080,0.11675,-0.12764,-0.48152,0.03738,,,,,,,,,,,,,,,,,,,,,,,,,,0,0,0,0,0
0.9311,1783971630.8046,1,1,1.0000,-0.0000,1.42244,0.00071,-2.63053,1.05907,1.57080,0.11675,-0.12764,-0.48152,0.03738,,,,,,,,,,,,,,,,,,,,,,,,,,0,0,0,0,0
0.9403,1783971630.8138,1,1,1.0000,-0.0000,1.42244,0.00071,-2.63053,1.05907,1.57080,0.11675,-0.12764,-0.48152,0.03738,,,,,,,,,,,,,,,,,,,,,,,,,,0,0,0,0,0
0.9510,1783971630.8245,1,1,1.0000,-0.0000,1.42244,0.00071,-2.63053,1.05907,1.57080,0.11675,-0.12764,-0.48152,0.03738,,,,,,,,,,,,,,,,,,,,,,,,,,0,0,0,0,0
0.9680,1783971630.8415,1,1,1.0000,-0.0000,1.42244,0.00071,-2.63053,1.05907,1.57080,0.11675,-0.12764,-0.48152,0.03738,,,,,,,,,,,,,,,,,,,,,,,,,,0,0,0,0,0
0.9742,1783971630.8477,1,1,1.0000,-0.0000,1.42244,0.00071,-2.63053,1.05907,1.57080,0.11675,-0.12764,-0.48152,0.03738,,,,,,,,,,,,,,,,,,,,,,,,,,0,0,0,0,0
1.0559,1783971630.9294,1,1,1.0000,-0.0000,1.42244,0.00064,-2.63062,1.05908,1.57080,0.11675,-0.12765,-0.48145,0.03731,,,,,,,,,,,,,,,,,,,,,,,,,,0,0,0,0,0
1.0561,1783971630.9296,1,1,1.0000,-0.0000,1.42244,0.00064,-2.63062,1.05908,1.57080,0.11675,-0.12765,-0.48145,0.03731,,,,,,,,,,,,,,,,,,,,,,,,,,0,0,0,0,0
1.0568,1783971630.9303,1,1,1.0000,-0.0000,1.42244,0.00064,-2.63062,1.05908,1.57080,0.11675,-0.12765,-0.48145,0.03731,,,,,,,,,,,,,,,,,,,,,,,,,,0,0,0,0,0
1.0576,1783971630.9311,1,1,1.0000,-0.0000,1.42244,0.00064,-2.63062,1.05908,1.57080,0.11675,-0.12765,-0.48145,0.03731,,,,,,,,,,,,,,,,,,,,,,,,,,0,0,0,0,0
1.0687,1783971630.9422,1,1,1.0000,-0.0000,1.42244,0.00063,-2.63064,1.05909,1.57080,0.11675,-0.12765,-0.48144,0.03730,,,,,,,,,,,,,,,,,,,,,,,,,,0,0,0,0,0
1.0737,1783971630.9472,1,1,1.0000,-0.0000,1.42244,0.00062,-2.63064,1.05910,1.57080,0.11675,-0.12765,-0.48143,0.03729,,,,,,,,,,,,,,,,,,,,,,,,,,0,0,0,0,0
1.0741,1783971630.9476,1,1,1.0000,-0.0000,1.42244,0.00062,-2.63064,1.05910,1.57080,0.11675,-0.12765,-0.48143,0.03729,,,,,,,,,,,,,,,,,,,,,,,,,,0,0,0,0,0
1.0942,1783971630.9677,1,1,1.0000,-0.0000,1.42244,0.00056,-2.63067,1.05913,1.57080,0.11675,-0.12765,-0.48141,0.03726,,,,,,,,,,,,,,,,,,,,,,,,,,0,0,0,0,0
1.0949,1783971630.9684,1,1,1.0000,-0.0000,1.42244,0.00055,-2.63068,1.05914,1.57080,0.11675,-0.12765,-0.48141,0.03725,,,,,,,,,,,,,,,,,,,,,,,,,,0,0,0,0,0
1.0976,1783971630.9711,1,1,1.0000,-0.0000,1.42244,0.00055,-2.63068,1.05914,1.57080,0.11675,-0.12765,-0.48141,0.03725,,,,,,,,,,,,,,,,,,,,,,,,,,0,0,0,0,0
1.0980,1783971630.9715,1,1,1.0000,-0.0000,1.42244,0.00055,-2.63068,1.05914,1.57080,0.11675,-0.12765,-0.48141,0.03725,,,,,,,,,,,,,,,,,,,,,,,,,,0,0,0,0,0
1.1294,1783971631.0029,1,1,1.0000,-0.0000,1.42244,0.00037,-2.63072,1.05932,1.57080,0.11675,-0.12765,-0.48140,0.03718,,,,,,,,,,,,,,,,,,,,,,,,,,0,0,0,0,0
1.1299,1783971631.0034,1,1,1.0000,-0.0000,1.42244,0.00037,-2.63072,1.05932,1.57080,0.11675,-0.12765,-0.48140,0.03718,,,,,,,,,,,,,,,,,,,,,,,,,,0,0,0,0,0
1.1735,1783971631.0470,1,1,1.0000,-0.0000,1.42244,0.00005,-2.63077,1.05970,1.57080,0.11675,-0.12765,-0.48141,0.03708,,,,,,,,,,,,,,,,,,,,,,,,,,0,0,0,0,0
1.1740,1783971631.0475,1,1,1.0000,-0.0000,1.42244,0.00005,-2.63077,1.05970,1.57080,0.11675,-0.12765,-0.48141,0.03708,,,,,,,,,,,,,,,,,,,,,,,,,,0,0,0,0,0
1.1754,1783971631.0489,1,1,1.0000,-0.0000,1.42244,0.00005,-2.63077,1.05970,1.57080,0.11675,-0.12765,-0.48141,0.03708,,,,,,,,,,,,,,,,,,,,,,,,,,0,0,0,0,0
1.1930,1783971631.0665,1,1,1.0000,-0.0000,1.42244,-0.00004,-2.63078,1.05981,1.57080,0.11675,-0.12765,-0.48142,0.03706,,,,,,,,,,,,,,,,,,,,,,,,,,0,0,0,0,0
1.1933,1783971631.0668,1,1,1.0000,-0.0000,1.42244,-0.00004,-2.63078,1.05981,1.57080,0.11675,-0.12765,-0.48142,0.03706,,,,,,,,,,,,,,,,,,,,,,,,,,0,0,0,0,0
1.2011,1783971631.0746,1,1,1.0000,-0.0000,1.42244,-0.00012,-2.63079,1.05992,1.57080,0.11675,-0.12765,-0.48143,0.03704,,,,,,,,,,,,,,,,,,,,,,,,,,0,0,0,0,0
1.2013,1783971631.0748,1,1,1.0000,-0.0000,1.42244,-0.00012,-2.63079,1.05992,1.57080,0.11675,-0.12765,-0.48143,0.03704,,,,,,,,,,,,,,,,,,,,,,,,,,0,0,0,0,0
1.2170,1783971631.0905,1,1,1.0000,-0.0000,1.42244,-0.00031,-2.63080,1.06017,1.57080,0.11675,-0.12764,-0.48146,0.03699,,,,,,,,,,,,,,,,,,,,,,,,,,0,0,0,0,0
1.2173,1783971631.0908,1,1,1.0000,-0.0000,1.42244,-0.00031,-2.63080,1.06017,1.57080,0.11675,-0.12764,-0.48146,0.03699,,,,,,,,,,,,,,,,,,,,,,,,,,0,0,0,0,0
1.2235,1783971631.0970,1,1,1.0000,-0.0000,1.42244,-0.00039,-2.63080,1.06028,1.57080,0.11675,-0.12764,-0.48147,0.03697,,,,,,,,,,,,,,,,,,,,,,,,,,0,0,0,0,0
1.2239,1783971631.0974,1,1,1.0000,-0.0000,1.42244,-0.00039,-2.63080,1.06028,1.57080,0.11675,-0.12764,-0.48147,0.03697,,,,,,,,,,,,,,,,,,,,,,,,,,0,0,0,0,0
1.2439,1783971631.1174,1,1,1.0000,-0.0000,1.42244,-0.00046,-2.63079,1.06038,1.57080,0.11675,-0.12764,-0.48150,0.03696,,,,,,,,,,,,,,,,,,,,,,,,,,0,0,0,0,0
1.2445,1783971631.1180,1,1,1.0000,-0.0000,1.42244,-0.00046,-2.63079,1.06038,1.57080,0.11675,-0.12764,-0.48150,0.03696,,,,,,,,,,,,,,,,,,,,,,,,,,0,0,0,0,0
1.2448,1783971631.1183,1,1,1.0000,-0.0000,1.42244,-0.00046,-2.63079,1.06038,1.57080,0.11675,-0.12764,-0.48150,0.03696,,,,,,,,,,,,,,,,,,,,,,,,,,0,0,0,0,0
1.2480,1783971631.1215,1,1,1.0000,-0.0000,1.42244,-0.00046,-2.63079,1.06038,1.57080,0.11675,-0.12764,-0.48150,0.03696,,,,,,,,,,,,,,,,,,,,,,,,,,0,0,0,0,0
1.2615,1783971631.1350,1,1,1.0000,-0.0000,1.42244,-0.00046,-2.63079,1.06038,1.57080,0.11675,-0.12764,-0.48150,0.03696,,,,,,,,,,,,,,,,,,,,,,,,,,0,0,0,0,0
1.2698,1783971631.1433,1,1,1.0000,-0.0000,1.42244,-0.00046,-2.63079,1.06038,1.57080,0.11675,-0.12764,-0.48150,0.03696,,,,,,,,,,,,,,,,,,,,,,,,,,0,0,0,0,0
1.2797,1783971631.1532,1,1,1.0000,-0.0000,1.42244,-0.00046,-2.63079,1.06038,1.57080,0.11675,-0.12764,-0.48150,0.03696,,,,,,,,,,,,,,,,,,,,,,,,,,0,0,0,0,0
1.2924,1783971631.1658,1,1,1.0000,-0.0000,1.42244,-0.00046,-2.63079,1.06038,1.57080,0.11675,-0.12764,-0.48150,0.03696,,,,,,,,,,,,,,,,,,,,,,,,,,0,0,0,0,0
1.2996,1783971631.1731,1,1,1.0000,-0.0000,1.42244,-0.00046,-2.63079,1.06038,1.57080,0.11675,-0.12764,-0.48150,0.03696,,,,,,,,,,,,,,,,,,,,,,,,,,0,0,0,0,0
1.3230,1783971631.1965,1,1,1.0000,-0.0000,1.42244,-0.00046,-2.63079,1.06038,1.57080,0.11675,-0.12764,-0.48150,0.03696,,,,,,,,,,,,,,,,,,,,,,,,,,0,0,0,0,0
1.3255,1783971631.1990,1,1,1.0000,-0.0000,1.42244,-0.00046,-2.63079,1.06038,1.57080,0.11675,-0.12764,-0.48150,0.03696,,,,,,,,,,,,,,,,,,,,,,,,,,0,0,0,0,0
1.3331,1783971631.2066,1,1,1.0000,-0.0000,1.42244,-0.00046,-2.63079,1.06038,1.57080,0.11675,-0.12764,-0.48150,0.03696,,,,,,,,,,,,,,,,,,,,,,,,,,0,0,0,0,0
1.3333,1783971631.2068,1,1,1.0000,-0.0000,1.42244,-0.00046,-2.63079,1.06038,1.57080,0.11675,-0.12764,-0.48150,0.03696,,,,,,,,,,,,,,,,,,,,,,,,,,0,0,0,0,0
1.3500,1783971631.2235,1,1,1.0000,-0.0000,1.42244,-0.00046,-2.63079,1.06038,1.57080,0.11675,-0.12764,-0.48150,0.03696,,,,,,,,,,,,,,,,,,,,,,,,,,0,0,0,0,0
1.3612,1783971631.2347,1,1,1.0000,-0.0000,1.42244,-0.00046,-2.63079,1.06038,1.57080,0.11675,-0.12764,-0.48150,0.03696,,,,,,,,,,,,,,,,,,,,,,,,,,0,0,0,0,0
1.3838,1783971631.2573,1,1,1.0000,-0.0000,1.42244,-0.00046,-2.63079,1.06038,1.57080,0.11675,-0.12764,-0.48150,0.03696,,,,,,,,,,,,,,,,,,,,,,,,,,0,0,0,0,0
1.3842,1783971631.2577,1,1,1.0000,-0.0000,1.42244,-0.00046,-2.63079,1.06038,1.57080,0.11675,-0.12764,-0.48150,0.03696,,,,,,,,,,,,,,,,,,,,,,,,,,0,0,0,0,0
1.3915,1783971631.2650,1,1,1.0000,-0.0000,1.42244,-0.00046,-2.63079,1.06038,1.57080,0.11675,-0.12764,-0.48150,0.03696,,,,,,,,,,,,,,,,,,,,,,,,,,0,0,0,0,0
1.3995,1783971631.2730,1,1,1.0000,-0.0000,1.42244,-0.00046,-2.63079,1.06038,1.57080,0.11675,-0.12764,-0.48150,0.03696,,,,,,,,,,,,,,,,,,,,,,,,,,0,0,0,0,0
1.3998,1783971631.2733,1,1,1.0000,-0.0000,1.42244,-0.00046,-2.63079,1.06038,1.57080,0.11675,-0.12764,-0.48150,0.03696,,,,,,,,,,,,,,,,,,,,,,,,,,0,0,0,0,0
1.4080,1783971631.2815,1,1,1.0000,-0.0000,1.42244,-0.00046,-2.63079,1.06038,1.57080,0.11675,-0.12764,-0.48150,0.03696,,,,,,,,,,,,,,,,,,,,,,,,,,0,0,0,0,0
1.4083,1783971631.2818,1,1,1.0000,-0.0000,1.42244,-0.00046,-2.63079,1.06038,1.57080,0.11675,-0.12764,-0.48150,0.03696,,,,,,,,,,,,,,,,,,,,,,,,,,0,0,0,0,0
1.4280,1783971631.3015,1,1,1.0000,-0.0000,1.42244,-0.00047,-2.63079,1.06039,1.57080,0.11675,-0.12764,-0.48150,0.03696,,,,,,,,,,,,,,,,,,,,,,,,,,0,0,0,0,0
1.4491,1783971631.3226,1,1,1.0000,-0.0000,1.42244,-0.00048,-2.63080,1.06045,1.57080,0.11675,-0.12764,-0.48150,0.03696,,,,,,,,,,,,,,,,,,,,,,,,,,0,0,0,0,0
1.4494,1783971631.3229,1,1,1.0000,-0.0000,1.42244,-0.00048,-2.63080,1.06045,1.57080,0.11675,-0.12764,-0.48150,0.03696,,,,,,,,,,,,,,,,,,,,,,,,,,0,0,0,0,0
1.4497,1783971631.3232,1,1,1.0000,-0.0000,1.42244,-0.00048,-2.63080,1.06045,1.57080,0.11675,-0.12764,-0.48150,0.03696,,,,,,,,,,,,,,,,,,,,,,,,,,0,0,0,0,0
1.4500,1783971631.3235,1,1,1.0000,-0.0000,1.42244,-0.00048,-2.63080,1.06045,1.57080,0.11675,-0.12764,-0.48150,0.03696,,,,,,,,,,,,,,,,,,,,,,,,,,0,0,0,0,0
1.4632,1783971631.3367,1,1,1.0000,-0.0000,1.42244,-0.00050,-2.63083,1.06049,1.57080,0.11675,-0.12764,-0.48149,0.03694,,,,,,,,,,,,,,,,,,,,,,,,,,0,0,0,0,0
1.4956,1783971631.3691,1,1,1.0000,-0.0000,1.42244,-0.00060,-2.63091,1.06062,1.57080,0.11675,-0.12764,-0.48145,0.03689,,,,,,,,,,,,,,,,,,,,,,,,,,0,0,0,0,0
1.4961,1783971631.3696,1,1,1.0000,-0.0000,1.42244,-0.00060,-2.63091,1.06062,1.57080,0.11675,-0.12764,-0.48145,0.03689,,,,,,,,,,,,,,,,,,,,,,,,,,0,0,0,0,0
1.5650,1783971631.4385,1,1,1.0000,-0.0000,1.42244,-0.00100,-2.63101,1.06114,1.57080,0.11675,-0.12764,-0.48145,0.03675,,,,,,,,,,,,,,,,,,,,,,,,,,0,0,0,0,0
1.5653,1783971631.4388,1,1,1.0000,-0.0000,1.42244,-0.00100,-2.63101,1.06114,1.57080,0.11675,-0.12764,-0.48145,0.03675,,,,,,,,,,,,,,,,,,,,,,,,,,0,0,0,0,0
1.5657,1783971631.4392,1,1,1.0000,-0.0000,1.42244,-0.00100,-2.63101,1.06114,1.57080,0.11675,-0.12764,-0.48145,0.03675,,,,,,,,,,,,,,,,,,,,,,,,,,0,0,0,0,0
1.5659,1783971631.4394,1,1,1.0000,-0.0000,1.42244,-0.00100,-2.63101,1.06114,1.57080,0.11675,-0.12764,-0.48145,0.03675,,,,,,,,,,,,,,,,,,,,,,,,,,0,0,0,0,0
1.5662,1783971631.4397,1,1,1.0000,-0.0000,1.42244,-0.00100,-2.63101,1.06114,1.57080,0.11675,-0.12764,-0.48145,0.03675,,,,,,,,,,,,,,,,,,,,,,,,,,0,0,0,0,0
1.5821,1783971631.4556,1,1,1.0000,-0.0000,1.42244,-0.00108,-2.63102,1.06123,1.57080,0.11675,-0.12764,-0.48145,0.03673,,,,,,,,,,,,,,,,,,,,,,,,,,0,0,0,0,0
1.6312,1783971631.5047,1,1,1.0000,-0.0000,1.42244,-0.00160,-2.63110,1.06188,1.57080,0.11675,-0.12764,-0.48149,0.03657,,,,,,,,,,,,,,,,,,,,,,,,,,0,0,0,0,0
1.6314,1783971631.5049,1,1,1.0000,-0.0000,1.42244,-0.00160,-2.63110,1.06188,1.57080,0.11675,-0.12764,-0.48149,0.03657,,,,,,,,,,,,,,,,,,,,,,,,,,0,0,0,0,0
1.6318,1783971631.5053,1,1,1.0000,-0.0000,1.42244,-0.00160,-2.63110,1.06188,1.57080,0.11675,-0.12764,-0.48149,0.03657,,,,,,,,,,,,,,,,,,,,,,,,,,0,0,0,0,0
1.6482,1783971631.5217,1,1,1.0000,-0.0000,1.42244,-0.00160,-2.63110,1.06188,1.57080,0.11675,-0.12764,-0.48149,0.03657,,,,,,,,,,,,,,,,,,,,,,,,,,0,0,0,0,0
1.6485,1783971631.5220,1,1,1.0000,-0.0000,1.42244,-0.00160,-2.63110,1.06188,1.57080,0.11675,-0.12764,-0.48149,0.03657,,,,,,,,,,,,,,,,,,,,,,,,,,0,0,0,0,0
1.6488,1783971631.5223,1,1,1.0000,-0.0000,1.42244,-0.00160,-2.63110,1.06188,1.57080,0.11675,-0.12764,-0.48149,0.03657,,,,,,,,,,,,,,,,,,,,,,,,,,0,0,0,0,0
1.6491,1783971631.5226,1,1,1.0000,-0.0000,1.42244,-0.00160,-2.63110,1.06188,1.57080,0.11675,-0.12764,-0.48149,0.03657,,,,,,,,,,,,,,,,,,,,,,,,,,0,0,0,0,0
1.6494,1783971631.5229,1,1,1.0000,-0.0000,1.42244,-0.00160,-2.63110,1.06188,1.57080,0.11675,-0.12764,-0.48149,0.03657,,,,,,,,,,,,,,,,,,,,,,,,,,0,0,0,0,0
1.6517,1783971631.5252,1,1,1.0000,-0.0000,1.42244,-0.00160,-2.63110,1.06188,1.57080,0.11675,-0.12764,-0.48149,0.03657,,,,,,,,,,,,,,,,,,,,,,,,,,0,0,0,0,0
1.6830,1783971631.5565,1,1,1.0000,-0.0000,1.42244,-0.00160,-2.63110,1.06188,1.57080,0.11675,-0.12764,-0.48149,0.03657,,,,,,,,,,,,,,,,,,,,,,,,,,0,0,0,0,0
1.6833,1783971631.5567,1,1,1.0000,-0.0000,1.42244,-0.00160,-2.63110,1.06188,1.57080,0.11675,-0.12764,-0.48149,0.03657,,,,,,,,,,,,,,,,,,,,,,,,,,0,0,0,0,0
1.7083,1783971631.5818,1,1,1.0000,-0.0000,1.42244,-0.00160,-2.63110,1.06188,1.57080,0.11675,-0.12764,-0.48149,0.03657,,,,,,,,,,,,,,,,,,,,,,,,,,0,0,0,0,0
1.7086,1783971631.5821,1,1,1.0000,-0.0000,1.42244,-0.00160,-2.63110,1.06188,1.57080,0.11675,-0.12764,-0.48149,0.03657,,,,,,,,,,,,,,,,,,,,,,,,,,0,0,0,0,0
1.7522,1783971631.6257,1,1,1.0000,-0.0000,1.42244,-0.00160,-2.63110,1.06188,1.57080,0.11675,-0.12764,-0.48149,0.03657,,,,,,,,,,,,,,,,,,,,,,,,,,0,0,0,0,0
1.7526,1783971631.6261,1,1,1.0000,-0.0000,1.42244,-0.00160,-2.63110,1.06188,1.57080,0.11675,-0.12764,-0.48149,0.03657,,,,,,,,,,,,,,,,,,,,,,,,,,0,0,0,0,0
1.7529,1783971631.6264,1,1,1.0000,-0.0000,1.42244,-0.00160,-2.63110,1.06188,1.57080,0.11675,-0.12764,-0.48149,0.03657,,,,,,,,,,,,,,,,,,,,,,,,,,0,0,0,0,0
1.7532,1783971631.6267,1,1,1.0000,-0.0000,1.42244,-0.00160,-2.63110,1.06188,1.57080,0.11675,-0.12764,-0.48149,0.03657,,,,,,,,,,,,,,,,,,,,,,,,,,0,0,0,0,0
1.7536,1783971631.6271,1,1,1.0000,-0.0000,1.42244,-0.00160,-2.63110,1.06188,1.57080,0.11675,-0.12764,-0.48149,0.03657,,,,,,,,,,,,,,,,,,,,,,,,,,0,0,0,0,0
1.7784,1783971631.6519,1,1,1.0000,-0.0000,1.42244,-0.00160,-2.63110,1.06188,1.57080,0.11675,-0.12764,-0.48149,0.03657,,,,,,,,,,,,,,,,,,,,,,,,,,0,0,0,0,0
1.8017,1783971631.6752,1,1,1.0000,-0.0000,1.42244,-0.00160,-2.63110,1.06188,1.57080,0.11675,-0.12764,-0.48149,0.03657,,,,,,,,,,,,,,,,,,,,,,,,,,0,0,0,0,0
1.8020,1783971631.6755,1,1,1.0000,-0.0000,1.42244,-0.00160,-2.63110,1.06188,1.57080,0.11675,-0.12764,-0.48149,0.03657,,,,,,,,,,,,,,,,,,,,,,,,,,0,0,0,0,0
1.8119,1783971631.6854,1,1,1.0000,-0.0000,1.42244,-0.00160,-2.63110,1.06188,1.57080,0.11675,-0.12764,-0.48149,0.03657,,,,,,,,,,,,,,,,,,,,,,,,,,0,0,0,0,0
1.8185,1783971631.6920,1,1,1.0000,-0.0000,1.42244,-0.00160,-2.63110,1.06188,1.57080,0.11675,-0.12764,-0.48149,0.03657,,,,,,,,,,,,,,,,,,,,,,,,,,0,0,0,0,0
1.8392,1783971631.7127,1,1,1.0000,-0.0000,1.42244,-0.00160,-2.63110,1.06189,1.57080,0.11675,-0.12764,-0.48149,0.03657,,,,,,,,,,,,,,,,,,,,,,,,,,0,0,0,0,0
1.8395,1783971631.7130,1,1,1.0000,-0.0000,1.42244,-0.00160,-2.63110,1.06189,1.57080,0.11675,-0.12764,-0.48149,0.03657,,,,,,,,,,,,,,,,,,,,,,,,,,0,0,0,0,0
1.8602,1783971631.7337,1,1,1.0000,-0.0000,1.42244,-0.00162,-2.63109,1.06192,1.57080,0.11675,-0.12763,-0.48150,0.03657,,,,,,,,,,,,,,,,,,,,,,,,,,0,0,0,0,0
1.8606,1783971631.7341,1,1,1.0000,-0.0000,1.42244,-0.00162,-2.63109,1.06192,1.57080,0.11675,-0.12763,-0.48150,0.03657,,,,,,,,,,,,,,,,,,,,,,,,,,0,0,0,0,0
1.8742,1783971631.7477,1,1,1.0000,-0.0000,1.42244,-0.00163,-2.63108,1.06194,1.57080,0.11675,-0.12763,-0.48150,0.03657,,,,,,,,,,,,,,,,,,,,,,,,,,0,0,0,0,0
1.8746,1783971631.7481,1,1,1.0000,-0.0000,1.42244,-0.00163,-2.63108,1.06194,1.57080,0.11675,-0.12763,-0.48150,0.03657,,,,,,,,,,,,,,,,,,,,,,,,,,0,0,0,0,0
1.8803,1783971631.7538,1,1,1.0000,-0.0000,1.42243,-0.00164,-2.63109,1.06195,1.57080,0.11675,-0.12763,-0.48150,0.03657,,,,,,,,,,,,,,,,,,,,,,,,,,0,0,0,0,0
1.8950,1783971631.7685,1,1,1.0000,-0.0000,1.42243,-0.00170,-2.63114,1.06203,1.57080,0.11675,-0.12764,-0.48148,0.03653,,,,,,,,,,,,,,,,,,,,,,,,,,0,0,0,0,0
1.8954,1783971631.7688,1,1,1.0000,-0.0000,1.42243,-0.00170,-2.63114,1.06203,1.57080,0.11675,-0.12764,-0.48148,0.03653,,,,,,,,,,,,,,,,,,,,,,,,,,0,0,0,0,0
1.9330,1783971631.8065,1,1,1.0000,-0.0000,1.42243,-0.00179,-2.63118,1.06213,1.57080,0.11675,-0.12764,-0.48146,0.03649,,,,,,,,,,,,,,,,,,,,,,,,,,0,0,0,0,0
1.9333,1783971631.8068,1,1,1.0000,-0.0000,1.42243,-0.00179,-2.63118,1.06213,1.57080,0.11675,-0.12764,-0.48146,0.03649,,,,,,,,,,,,,,,,,,,,,,,,,,0,0,0,0,0
1.9483,1783971631.8218,1,1,1.0000,-0.0000,1.42243,-0.00191,-2.63122,1.06227,1.57080,0.11675,-0.12764,-0.48145,0.03645,,,,,,,,,,,,,,,,,,,,,,,,,,0,0,0,0,0
1.9486,1783971631.8221,1,1,1.0000,-0.0000,1.42243,-0.00191,-2.63122,1.06227,1.57080,0.11675,-0.12764,-0.48145,0.03645,,,,,,,,,,,,,,,,,,,,,,,,,,0,0,0,0,0
1.9491,1783971631.8226,1,1,1.0000,-0.0000,1.42243,-0.00191,-2.63122,1.06227,1.57080,0.11675,-0.12764,-0.48145,0.03645,,,,,,,,,,,,,,,,,,,,,,,,,,0,0,0,0,0
1.9496,1783971631.8231,1,1,1.0000,-0.0000,1.42243,-0.00191,-2.63122,1.06227,1.57080,0.11675,-0.12764,-0.48145,0.03645,,,,,,,,,,,,,,,,,,,,,,,,,,0,0,0,0,0
1.9634,1783971631.8369,1,1,1.0000,-0.0000,1.42243,-0.00200,-2.63124,1.06239,1.57080,0.11675,-0.12764,-0.48145,0.03641,,,,,,,,,,,,,,,,,,,,,,,,,,0,0,0,0,0
2.0127,1783971631.8862,1,1,1.0000,-0.0000,1.42243,-0.00232,-2.63129,1.06277,1.57080,0.11675,-0.12764,-0.48146,0.03631,,,,,,,,,,,,,,,,,,,,,,,,,,0,0,0,0,0
2.0132,1783971631.8867,1,1,1.0000,-0.0000,1.42243,-0.00232,-2.63129,1.06277,1.57080,0.11675,-0.12764,-0.48146,0.03631,,,,,,,,,,,,,,,,,,,,,,,,,,0,0,0,0,0
2.0135,1783971631.8870,1,1,1.0000,-0.0000,1.42243,-0.00232,-2.63129,1.06277,1.57080,0.11675,-0.12764,-0.48146,0.03631,,,,,,,,,,,,,,,,,,,,,,,,,,0,0,0,0,0
2.0137,1783971631.8872,1,1,1.0000,-0.0000,1.42243,-0.00232,-2.63129,1.06277,1.57080,0.11675,-0.12764,-0.48146,0.03631,,,,,,,,,,,,,,,,,,,,,,,,,,0,0,0,0,0
2.0175,1783971631.8910,1,1,1.0000,-0.0000,1.42243,-0.00237,-2.63130,1.06283,1.57080,0.11675,-0.12764,-0.48146,0.03630,,,,,,,,,,,,,,,,,,,,,,,,,,0,0,0,0,0
2.0178,1783971631.8913,1,1,1.0000,-0.0000,1.42243,-0.00237,-2.63130,1.06283,1.57080,0.11675,-0.12764,-0.48146,0.03630,,,,,,,,,,,,,,,,,,,,,,,,,,0,0,0,0,0
2.0424,1783971631.9159,1,1,1.0000,-0.0000,1.42243,-0.00266,-2.63134,1.06319,1.57080,0.11675,-0.12764,-0.48148,0.03621,,,,,,,,,,,,,,,,,,,,,,,,,,0,0,0,0,0
2.0434,1783971631.9169,1,1,1.0000,-0.0000,1.42243,-0.00270,-2.63134,1.06324,1.57080,0.11675,-0.12763,-0.48149,0.03620,,,,,,,,,,,,,,,,,,,,,,,,,,0,0,0,0,0
2.0540,1783971631.9275,1,1,1.0000,-0.0000,1.42243,-0.00276,-2.63135,1.06332,1.57080,0.11675,-0.12763,-0.48149,0.03618,,,,,,,,,,,,,,,,,,,,,,,,,,0,0,0,0,0
2.0813,1783971631.9548,1,1,1.0000,-0.0000,1.42243,-0.00276,-2.63135,1.06332,1.57080,0.11675,-0.12763,-0.48149,0.03618,,,,,,,,,,,,,,,,,,,,,,,,,,0,0,0,0,0
2.0818,1783971631.9553,1,1,1.0000,-0.0000,1.42243,-0.00276,-2.63135,1.06332,1.57080,0.11675,-0.12763,-0.48149,0.03618,,,,,,,,,,,,,,,,,,,,,,,,,,0,0,0,0,0
2.0853,1783971631.9588,1,1,1.0000,-0.0000,1.42243,-0.00276,-2.63135,1.06332,1.57080,0.11675,-0.12763,-0.48149,0.03618,,,,,,,,,,,,,,,,,,,,,,,,,,0,0,0,0,0
2.0858,1783971631.9593,1,1,1.0000,-0.0000,1.42243,-0.00276,-2.63135,1.06332,1.57080,0.11675,-0.12763,-0.48149,0.03618,,,,,,,,,,,,,,,,,,,,,,,,,,0,0,0,0,0
2.0918,1783971631.9653,1,1,1.0000,-0.0000,1.42243,-0.00276,-2.63135,1.06332,1.57080,0.11675,-0.12763,-0.48149,0.03618,,,,,,,,,,,,,,,,,,,,,,,,,,0,0,0,0,0
2.0921,1783971631.9656,1,1,1.0000,-0.0000,1.42243,-0.00276,-2.63135,1.06332,1.57080,0.11675,-0.12763,-0.48149,0.03618,,,,,,,,,,,,,,,,,,,,,,,,,,0,0,0,0,0
2.1031,1783971631.9766,1,1,1.0000,-0.0000,1.42243,-0.00276,-2.63135,1.06332,1.57080,0.11675,-0.12763,-0.48149,0.03618,,,,,,,,,,,,,,,,,,,,,,,,,,0,0,0,0,0
2.1294,1783971632.0029,1,1,1.0000,-0.0000,1.42243,-0.00276,-2.63135,1.06332,1.57080,0.11675,-0.12763,-0.48149,0.03618,,,,,,,,,,,,,,,,,,,,,,,,,,0,0,0,0,0
2.1298,1783971632.0033,1,1,1.0000,-0.0000,1.42243,-0.00276,-2.63135,1.06332,1.57080,0.11675,-0.12763,-0.48149,0.03618,,,,,,,,,,,,,,,,,,,,,,,,,,0,0,0,0,0
2.1440,1783971632.0175,1,1,1.0000,-0.0000,1.42243,-0.00276,-2.63135,1.06332,1.57080,0.11675,-0.12763,-0.48149,0.03618,,,,,,,,,,,,,,,,,,,,,,,,,,0,0,0,0,0
2.1444,1783971632.0179,1,1,1.0000,-0.0000,1.42243,-0.00276,-2.63135,1.06332,1.57080,0.11675,-0.12763,-0.48149,0.03618,,,,,,,,,,,,,,,,,,,,,,,,,,0,0,0,0,0
2.2174,1783971632.0909,1,1,1.0000,-0.0000,1.42243,-0.00276,-2.63135,1.06332,1.57080,0.11675,-0.12763,-0.48149,0.03618,,,,,,,,,,,,,,,,,,,,,,,,,,0,0,0,0,0
2.2177,1783971632.0911,1,1,1.0000,-0.0000,1.42243,-0.00276,-2.63135,1.06332,1.57080,0.11675,-0.12763,-0.48149,0.03618,,,,,,,,,,,,,,,,,,,,,,,,,,0,0,0,0,0
2.2180,1783971632.0915,1,1,1.0000,-0.0000,1.42243,-0.00276,-2.63135,1.06332,1.57080,0.11675,-0.12763,-0.48149,0.03618,,,,,,,,,,,,,,,,,,,,,,,,,,0,0,0,0,0
2.2183,1783971632.0918,1,1,1.0000,-0.0000,1.42243,-0.00276,-2.63135,1.06332,1.57080,0.11675,-0.12763,-0.48149,0.03618,,,,,,,,,,,,,,,,,,,,,,,,,,0,0,0,0,0
2.2186,1783971632.0921,1,1,1.0000,-0.0000,1.42243,-0.00276,-2.63135,1.06332,1.57080,0.11675,-0.12763,-0.48149,0.03618,,,,,,,,,,,,,,,,,,,,,,,,,,0,0,0,0,0
2.2430,1783971632.1165,1,1,1.0000,-0.0000,1.42243,-0.00276,-2.63135,1.06332,1.57080,0.11675,-0.12763,-0.48149,0.03618,,,,,,,,,,,,,,,,,,,,,,,,,,0,0,0,0,0
2.2582,1783971632.1317,1,1,1.0000,-0.0000,1.42243,-0.00276,-2.63135,1.06332,1.57080,0.11675,-0.12763,-0.48149,0.03618,,,,,,,,,,,,,,,,,,,,,,,,,,0,0,0,0,0
2.2587,1783971632.1321,1,1,1.0000,-0.0000,1.42243,-0.00276,-2.63135,1.06332,1.57080,0.11675,-0.12763,-0.48149,0.03618,,,,,,,,,,,,,,,,,,,,,,,,,,0,0,0,0,0
2.2599,1783971632.1334,1,1,1.0000,-0.0000,1.42243,-0.00276,-2.63135,1.06332,1.57080,0.11675,-0.12763,-0.48149,0.03618,,,,,,,,,,,,,,,,,,,,,,,,,,0,0,0,0,0
2.2602,1783971632.1337,1,1,1.0000,-0.0000,1.42243,-0.00276,-2.63135,1.06332,1.57080,0.11675,-0.12763,-0.48149,0.03618,,,,,,,,,,,,,,,,,,,,,,,,,,0,0,0,0,0
2.2605,1783971632.1340,1,1,1.0000,-0.0000,1.42243,-0.00276,-2.63135,1.06332,1.57080,0.11675,-0.12763,-0.48149,0.03618,,,,,,,,,,,,,,,,,,,,,,,,,,0,0,0,0,0
2.2680,1783971632.1415,1,1,1.0000,-0.0000,1.42243,-0.00276,-2.63135,1.06332,1.57080,0.11675,-0.12763,-0.48149,0.03618,,,,,,,,,,,,,,,,,,,,,,,,,,0,0,0,0,0
2.2857,1783971632.1592,1,1,1.0000,-0.0000,1.42243,-0.00276,-2.63135,1.06332,1.57080,0.11675,-0.12763,-0.48149,0.03618,,,,,,,,,,,,,,,,,,,,,,,,,,0,0,0,0,0
2.3293,1783971632.2028,1,1,1.0000,-0.0000,1.42243,-0.00286,-2.63140,1.06344,1.57080,0.11675,-0.12764,-0.48148,0.03614,,,,,,,,,,,,,,,,,,,,,,,,,,0,0,0,0,0
2.3298,1783971632.2032,1,1,1.0000,-0.0000,1.42243,-0.00286,-2.63140,1.06344,1.57080,0.11675,-0.12764,-0.48148,0.03614,,,,,,,,,,,,,,,,,,,,,,,,,,0,0,0,0,0
2.3422,1783971632.2157,1,1,1.0000,-0.0000,1.42243,-0.00292,-2.63143,1.06351,1.57080,0.11675,-0.12764,-0.48146,0.03611,,,,,,,,,,,,,,,,,,,,,,,,,,0,0,0,0,0
2.3445,1783971632.2180,1,1,1.0000,-0.0000,1.42243,-0.00292,-2.63143,1.06351,1.57080,0.11675,-0.12764,-0.48146,0.03611,,,,,,,,,,,,,,,,,,,,,,,,,,0,0,0,0,0
2.3449,1783971632.2184,1,1,1.0000,-0.0000,1.42243,-0.00292,-2.63143,1.06351,1.57080,0.11675,-0.12764,-0.48146,0.03611,,,,,,,,,,,,,,,,,,,,,,,,,,0,0,0,0,0
2.3530,1783971632.2265,1,1,1.0000,-0.0000,1.42243,-0.00294,-2.63143,1.06353,1.57080,0.11675,-0.12764,-0.48146,0.03610,,,,,,,,,,,,,,,,,,,,,,,,,,0,0,0,0,0
2.3740,1783971632.2475,1,1,1.0000,-0.0000,1.42243,-0.00311,-2.63148,1.06374,1.57080,0.11675,-0.12764,-0.48146,0.03604,,,,,,,,,,,,,,,,,,,,,,,,,,0,0,0,0,0
2.4239,1783971632.2974,1,1,1.0000,-0.0000,1.42243,-0.00342,-2.63154,1.06411,1.57080,0.11675,-0.12764,-0.48146,0.03594,,,,,,,,,,,,,,,,,,,,,,,,,,0,0,0,0,0
2.4243,1783971632.2978,1,1,1.0000,-0.0000,1.42243,-0.00342,-2.63154,1.06411,1.57080,0.11675,-0.12764,-0.48146,0.03594,,,,,,,,,,,,,,,,,,,,,,,,,,0,0,0,0,0
2.4249,1783971632.2984,1,1,1.0000,-0.0000,1.42243,-0.00342,-2.63154,1.06411,1.57080,0.11675,-0.12764,-0.48146,0.03594,,,,,,,,,,,,,,,,,,,,,,,,,,0,0,0,0,0
2.4253,1783971632.2988,1,1,1.0000,-0.0000,1.42243,-0.00342,-2.63154,1.06411,1.57080,0.11675,-0.12764,-0.48146,0.03594,,,,,,,,,,,,,,,,,,,,,,,,,,0,0,0,0,0
2.4472,1783971632.3207,1,1,1.0000,-0.0000,1.42243,-0.00354,-2.63156,1.06425,1.57080,0.11675,-0.12764,-0.48147,0.03590,,,,,,,,,,,,,,,,,,,,,,,,,,0,0,0,0,0
2.4476,1783971632.3211,1,1,1.0000,-0.0000,1.42243,-0.00354,-2.63156,1.06425,1.57080,0.11675,-0.12764,-0.48147,0.03590,,,,,,,,,,,,,,,,,,,,,,,,,,0,0,0,0,0
2.5025,1783971632.3759,1,1,1.0000,-0.0000,1.42243,-0.00400,-2.63159,1.06482,1.57080,0.11675,-0.12763,-0.48152,0.03578,,,,,,,,,,,,,,,,,,,,,,,,,,0,0,0,0,0
2.5032,1783971632.3767,1,1,1.0000,-0.0000,1.42243,-0.00400,-2.63159,1.06482,1.57080,0.11675,-0.12763,-0.48152,0.03578,,,,,,,,,,,,,,,,,,,,,,,,,,0,0,0,0,0
2.5034,1783971632.3769,1,1,1.0000,-0.0000,1.42243,-0.00400,-2.63159,1.06482,1.57080,0.11675,-0.12763,-0.48152,0.03578,,,,,,,,,,,,,,,,,,,,,,,,,,0,0,0,0,0
2.5102,1783971632.3837,1,1,1.0000,-0.0000,1.42243,-0.00400,-2.63159,1.06482,1.57080,0.11675,-0.12763,-0.48152,0.03578,,,,,,,,,,,,,,,,,,,,,,,,,,0,0,0,0,0
2.6366,1783971632.5100,1,1,1.0000,-0.0000,1.42243,-0.00400,-2.63159,1.06482,1.57080,0.11675,-0.12763,-0.48152,0.03578,,,,,,,,,,,,,,,,,,,,,,,,,,0,0,0,0,0
2.6370,1783971632.5105,1,1,1.0000,-0.0000,1.42243,-0.00400,-2.63159,1.06482,1.57080,0.11675,-0.12763,-0.48152,0.03578,,,,,,,,,,,,,,,,,,,,,,,,,,0,0,0,0,0
2.6374,1783971632.5109,1,1,1.0000,-0.0000,1.42243,-0.00400,-2.63159,1.06482,1.57080,0.11675,-0.12763,-0.48152,0.03578,,,,,,,,,,,,,,,,,,,,,,,,,,0,0,0,0,0
2.6595,1783971632.5330,1,1,1.0000,-0.0000,1.42243,-0.00400,-2.63159,1.06482,1.57080,0.11675,-0.12763,-0.48152,0.03578,,,,,,,,,,,,,,,,,,,,,,,,,,0,0,0,0,0
2.6598,1783971632.5333,1,1,1.0000,-0.0000,1.42243,-0.00400,-2.63159,1.06482,1.57080,0.11675,-0.12763,-0.48152,0.03578,,,,,,,,,,,,,,,,,,,,,,,,,,0,0,0,0,0
2.6603,1783971632.5338,1,1,1.0000,-0.0000,1.42243,-0.00400,-2.63159,1.06482,1.57080,0.11675,-0.12763,-0.48152,0.03578,,,,,,,,,,,,,,,,,,,,,,,,,,0,0,0,0,0
2.6606,1783971632.5341,1,1,1.0000,-0.0000,1.42243,-0.00400,-2.63159,1.06482,1.57080,0.11675,-0.12763,-0.48152,0.03578,,,,,,,,,,,,,,,,,,,,,,,,,,0,0,0,0,0
2.6611,1783971632.5346,1,1,1.0000,-0.0000,1.42243,-0.00400,-2.63159,1.06482,1.57080,0.11675,-0.12763,-0.48152,0.03578,,,,,,,,,,,,,,,,,,,,,,,,,,0,0,0,0,0
2.6614,1783971632.5349,1,1,1.0000,-0.0000,1.42243,-0.00400,-2.63159,1.06482,1.57080,0.11675,-0.12763,-0.48152,0.03578,,,,,,,,,,,,,,,,,,,,,,,,,,0,0,0,0,0
2.6619,1783971632.5353,1,1,1.0000,-0.0000,1.42243,-0.00400,-2.63159,1.06482,1.57080,0.11675,-0.12763,-0.48152,0.03578,,,,,,,,,,,,,,,,,,,,,,,,,,0,0,0,0,0
2.6622,1783971632.5357,1,1,1.0000,-0.0000,1.42243,-0.00400,-2.63159,1.06482,1.57080,0.11675,-0.12763,-0.48152,0.03578,,,,,,,,,,,,,,,,,,,,,,,,,,0,0,0,0,0
2.6626,1783971632.5361,1,1,1.0000,-0.0000,1.42243,-0.00400,-2.63159,1.06482,1.57080,0.11675,-0.12763,-0.48152,0.03578,,,,,,,,,,,,,,,,,,,,,,,,,,0,0,0,0,0
2.6642,1783971632.5377,1,1,1.0000,-0.0000,1.42243,-0.00400,-2.63159,1.06482,1.57080,0.11675,-0.12763,-0.48152,0.03578,,,,,,,,,,,,,,,,,,,,,,,,,,0,0,0,0,0
2.6645,1783971632.5380,1,1,1.0000,-0.0000,1.42243,-0.00400,-2.63159,1.06482,1.57080,0.11675,-0.12763,-0.48152,0.03578,,,,,,,,,,,,,,,,,,,,,,,,,,0,0,0,0,0
2.6665,1783971632.5400,1,1,1.0000,-0.0000,1.42243,-0.00400,-2.63159,1.06482,1.57080,0.11675,-0.12763,-0.48152,0.03578,,,,,,,,,,,,,,,,,,,,,,,,,,0,0,0,0,0
2.6673,1783971632.5407,1,1,1.0000,-0.0000,1.42243,-0.00400,-2.63159,1.06482,1.57080,0.11675,-0.12763,-0.48152,0.03578,,,,,,,,,,,,,,,,,,,,,,,,,,0,0,0,0,0
2.6793,1783971632.5528,1,1,1.0000,-0.0000,1.42243,-0.00400,-2.63159,1.06482,1.57080,0.11675,-0.12763,-0.48152,0.03578,,,,,,,,,,,,,,,,,,,,,,,,,,0,0,0,0,0
2.6797,1783971632.5532,1,1,1.0000,-0.0000,1.42243,-0.00400,-2.63159,1.06482,1.57080,0.11675,-0.12763,-0.48152,0.03578,,,,,,,,,,,,,,,,,,,,,,,,,,0,0,0,0,0
2.7243,1783971632.5978,1,1,1.0000,-0.0000,1.42243,-0.00402,-2.63160,1.06485,1.57080,0.11675,-0.12763,-0.48151,0.03577,,,,,,,,,,,,,,,,,,,,,,,,,,0,0,0,0,0
2.7247,1783971632.5982,1,1,1.0000,-0.0000,1.42243,-0.00402,-2.63160,1.06485,1.57080,0.11675,-0.12763,-0.48151,0.03577,,,,,,,,,,,,,,,,,,,,,,,,,,0,0,0,0,0
2.7250,1783971632.5985,1,1,1.0000,-0.0000,1.42243,-0.00402,-2.63160,1.06485,1.57080,0.11675,-0.12763,-0.48151,0.03577,,,,,,,,,,,,,,,,,,,,,,,,,,0,0,0,0,0
2.7254,1783971632.5989,1,1,1.0000,-0.0000,1.42243,-0.00402,-2.63160,1.06485,1.57080,0.11675,-0.12763,-0.48151,0.03577,,,,,,,,,,,,,,,,,,,,,,,,,,0,0,0,0,0
2.7258,1783971632.5993,1,1,1.0000,-0.0000,1.42243,-0.00402,-2.63160,1.06485,1.57080,0.11675,-0.12763,-0.48151,0.03577,,,,,,,,,,,,,,,,,,,,,,,,,,0,0,0,0,0
2.7354,1783971632.6089,1,1,1.0000,-0.0000,1.42243,-0.00405,-2.63164,1.06489,1.57080,0.11675,-0.12763,-0.48149,0.03575,,,,,,,,,,,,,,,,,,,,,,,,,,0,0,0,0,0
2.7358,1783971632.6093,1,1,1.0000,-0.0000,1.42243,-0.00405,-2.63164,1.06489,1.57080,0.11675,-0.12763,-0.48149,0.03575,,,,,,,,,,,,,,,,,,,,,,,,,,0,0,0,0,0
2.7511,1783971632.6246,1,1,1.0000,-0.0000,1.42243,-0.00407,-2.63165,1.06491,1.57080,0.11675,-0.12763,-0.48149,0.03573,,,,,,,,,,,,,,,,,,,,,,,,,,0,0,0,0,0
2.7746,1783971632.6481,1,1,1.0000,-0.0000,1.42243,-0.00415,-2.63170,1.06500,1.57080,0.11675,-0.12764,-0.48146,0.03569,,,,,,,,,,,,,,,,,,,,,,,,,,0,0,0,0,0
2.7752,1783971632.6487,1,1,1.0000,-0.0000,1.42243,-0.00415,-2.63171,1.06501,1.57080,0.11675,-0.12764,-0.48146,0.03569,,,,,,,,,,,,,,,,,,,,,,,,,,0,0,0,0,0
2.7802,1783971632.6537,1,1,1.0000,-0.0000,1.42243,-0.00416,-2.63171,1.06502,1.57080,0.11675,-0.12764,-0.48146,0.03568,,,,,,,,,,,,,,,,,,,,,,,,,,0,0,0,0,0
2.7846,1783971632.6581,1,1,1.0000,-0.0000,1.42243,-0.00418,-2.63171,1.06504,1.57080,0.11675,-0.12764,-0.48146,0.03568,,,,,,,,,,,,,,,,,,,,,,,,,,0,0,0,0,0
2.8093,1783971632.6828,1,1,1.0000,-0.0000,1.42243,-0.00428,-2.63174,1.06516,1.57080,0.11675,-0.12764,-0.48145,0.03564,,,,,,,,,,,,,,,,,,,,,,,,,,0,0,0,0,0
2.8192,1783971632.6927,1,1,1.0000,-0.0000,1.42243,-0.00441,-2.63177,1.06532,1.57080,0.11675,-0.12764,-0.48145,0.03560,,,,,,,,,,,,,,,,,,,,,,,,,,0,0,0,0,0
2.8196,1783971632.6931,1,1,1.0000,-0.0000,1.42243,-0.00441,-2.63177,1.06532,1.57080,0.11675,-0.12764,-0.48145,0.03560,,,,,,,,,,,,,,,,,,,,,,,,,,0,0,0,0,0
2.8351,1783971632.7086,1,1,1.0000,-0.0000,1.42243,-0.00449,-2.63178,1.06542,1.57080,0.11675,-0.12764,-0.48145,0.03557,,,,,,,,,,,,,,,,,,,,,,,,,,0,0,0,0,0
2.8391,1783971632.7126,1,1,1.0000,-0.0000,1.42242,-0.00452,-2.63179,1.06545,1.57080,0.11675,-0.12764,-0.48145,0.03556,,,,,,,,,,,,,,,,,,,,,,,,,,0,0,0,0,0
2.8572,1783971632.7307,1,1,1.0000,-0.0000,1.42242,-0.00469,-2.63182,1.06566,1.57080,0.11675,-0.12764,-0.48146,0.03551,,,,,,,,,,,,,,,,,,,,,,,,,,0,0,0,0,0
2.8602,1783971632.7337,1,1,1.0000,-0.0000,1.42242,-0.00469,-2.63182,1.06566,1.57080,0.11675,-0.12764,-0.48146,0.03551,,,,,,,,,,,,,,,,,,,,,,,,,,0,0,0,0,0
2.8604,1783971632.7339,1,1,1.0000,-0.0000,1.42242,-0.00469,-2.63182,1.06566,1.57080,0.11675,-0.12764,-0.48146,0.03551,,,,,,,,,,,,,,,,,,,,,,,,,,0,0,0,0,0
2.8650,1783971632.7385,1,1,1.0000,-0.0000,1.42242,-0.00470,-2.63182,1.06567,1.57080,0.11675,-0.12764,-0.48146,0.03550,,,,,,,,,,,,,,,,,,,,,,,,,,0,0,0,0,0
2.9212,1783971632.7947,1,1,1.0000,-0.0000,1.42242,-0.00518,-2.63185,1.06627,1.57080,0.11675,-0.12763,-0.48152,0.03538,,,,,,,,,,,,,,,,,,,,,,,,,,0,0,0,0,0
2.9216,1783971632.7951,1,1,1.0000,-0.0000,1.42242,-0.00518,-2.63185,1.06627,1.57080,0.11675,-0.12763,-0.48152,0.03538,,,,,,,,,,,,,,,,,,,,,,,,,,0,0,0,0,0
2.9220,1783971632.7955,1,1,1.0000,-0.0000,1.42242,-0.00518,-2.63185,1.06627,1.57080,0.11675,-0.12763,-0.48152,0.03538,,,,,,,,,,,,,,,,,,,,,,,,,,0,0,0,0,0
2.9224,1783971632.7959,1,1,1.0000,-0.0000,1.42242,-0.00518,-2.63185,1.06627,1.57080,0.11675,-0.12763,-0.48152,0.03538,,,,,,,,,,,,,,,,,,,,,,,,,,0,0,0,0,0
2.9228,1783971632.7963,1,1,1.0000,-0.0000,1.42242,-0.00518,-2.63185,1.06627,1.57080,0.11675,-0.12763,-0.48152,0.03538,,,,,,,,,,,,,,,,,,,,,,,,,,0,0,0,0,0
2.9300,1783971632.8035,1,1,1.0000,-0.0000,1.42242,-0.00518,-2.63185,1.06627,1.57080,0.11675,-0.12763,-0.48152,0.03538,,,,,,,,,,,,,,,,,,,,,,,,,,0,0,0,0,0
2.9304,1783971632.8039,1,1,1.0000,-0.0000,1.42242,-0.00518,-2.63185,1.06627,1.57080,0.11675,-0.12763,-0.48152,0.03538,,,,,,,,,,,,,,,,,,,,,,,,,,0,0,0,0,0
2.9403,1783971632.8138,1,1,1.0000,-0.0000,1.42242,-0.00518,-2.63185,1.06627,1.57080,0.11675,-0.12763,-0.48152,0.03538,,,,,,,,,,,,,,,,,,,,,,,,,,0,0,0,0,0
2.9410,1783971632.8145,1,1,1.0000,-0.0000,1.42242,-0.00518,-2.63185,1.06627,1.57080,0.11675,-0.12763,-0.48152,0.03538,,,,,,,,,,,,,,,,,,,,,,,,,,0,0,0,0,0
2.9903,1783971632.8637,1,1,1.0000,-0.0000,1.42242,-0.00518,-2.63185,1.06627,1.57080,0.11675,-0.12763,-0.48152,0.03538,,,,,,,,,,,,,,,,,,,,,,,,,,0,0,0,0,0
2.9907,1783971632.8642,1,1,1.0000,-0.0000,1.42242,-0.00518,-2.63185,1.06627,1.57080,0.11675,-0.12763,-0.48152,0.03538,,,,,,,,,,,,,,,,,,,,,,,,,,0,0,0,0,0
2.9916,1783971632.8651,1,1,1.0000,-0.0000,1.42242,-0.00518,-2.63185,1.06627,1.57080,0.11675,-0.12763,-0.48152,0.03538,,,,,,,,,,,,,,,,,,,,,,,,,,0,0,0,0,0
3.1472,1783971633.0207,1,1,1.0000,-0.0000,1.42242,-0.00520,-2.63187,1.06629,1.57080,0.11675,-0.12763,-0.48151,0.03537,,,,,,,,,,,,,,,,,,,,,,,,,,0,0,0,0,0
3.1862,1783971633.0597,1,1,1.0000,-0.0000,1.42242,-0.00532,-2.63196,1.06644,1.57080,0.11675,-0.12763,-0.48146,0.03529,,,,,,,,,,,,,,,,,,,,,,,,,,0,0,0,0,0
3.1865,1783971633.0600,1,1,1.0000,-0.0000,1.42242,-0.00532,-2.63196,1.06644,1.57080,0.11675,-0.12763,-0.48146,0.03529,,,,,,,,,,,,,,,,,,,,,,,,,,0,0,0,0,0
3.1870,1783971633.0605,1,1,1.0000,-0.0000,1.42242,-0.00532,-2.63196,1.06644,1.57080,0.11675,-0.12763,-0.48146,0.03529,,,,,,,,,,,,,,,,,,,,,,,,,,0,0,0,0,0
3.1872,1783971633.0607,1,1,1.0000,-0.0000,1.42242,-0.00532,-2.63196,1.06644,1.57080,0.11675,-0.12763,-0.48146,0.03529,,,,,,,,,,,,,,,,,,,,,,,,,,0,0,0,0,0
3.1875,1783971633.0610,1,1,1.0000,-0.0000,1.42242,-0.00532,-2.63196,1.06644,1.57080,0.11675,-0.12763,-0.48146,0.03529,,,,,,,,,,,,,,,,,,,,,,,,,,0,0,0,0,0
3.1878,1783971633.0613,1,1,1.0000,-0.0000,1.42242,-0.00532,-2.63196,1.06644,1.57080,0.11675,-0.12763,-0.48146,0.03529,,,,,,,,,,,,,,,,,,,,,,,,,,0,0,0,0,0
3.1881,1783971633.0616,1,1,1.0000,-0.0000,1.42242,-0.00532,-2.63196,1.06644,1.57080,0.11675,-0.12763,-0.48146,0.03529,,,,,,,,,,,,,,,,,,,,,,,,,,0,0,0,0,0
3.1883,1783971633.0618,1,1,1.0000,-0.0000,1.42242,-0.00532,-2.63196,1.06644,1.57080,0.11675,-0.12763,-0.48146,0.03529,,,,,,,,,,,,,,,,,,,,,,,,,,0,0,0,0,0
3.1886,1783971633.0621,1,1,1.0000,-0.0000,1.42242,-0.00532,-2.63196,1.06644,1.57080,0.11675,-0.12763,-0.48146,0.03529,,,,,,,,,,,,,,,,,,,,,,,,,,0,0,0,0,0
3.1889,1783971633.0624,1,1,1.0000,-0.0000,1.42242,-0.00532,-2.63196,1.06644,1.57080,0.11675,-0.12763,-0.48146,0.03529,,,,,,,,,,,,,,,,,,,,,,,,,,0,0,0,0,0
3.1892,1783971633.0627,1,1,1.0000,-0.0000,1.42242,-0.00532,-2.63196,1.06644,1.57080,0.11675,-0.12763,-0.48146,0.03529,,,,,,,,,,,,,,,,,,,,,,,,,,0,0,0,0,0
3.1894,1783971633.0629,1,1,1.0000,-0.0000,1.42242,-0.00532,-2.63196,1.06644,1.57080,0.11675,-0.12763,-0.48146,0.03529,,,,,,,,,,,,,,,,,,,,,,,,,,0,0,0,0,0
3.1897,1783971633.0632,1,1,1.0000,-0.0000,1.42242,-0.00532,-2.63196,1.06644,1.57080,0.11675,-0.12763,-0.48146,0.03529,,,,,,,,,,,,,,,,,,,,,,,,,,0,0,0,0,0
3.1900,1783971633.0635,1,1,1.0000,-0.0000,1.42242,-0.00532,-2.63196,1.06644,1.57080,0.11675,-0.12763,-0.48146,0.03529,,,,,,,,,,,,,,,,,,,,,,,,,,0,0,0,0,0
3.1904,1783971633.0638,1,1,1.0000,-0.0000,1.42242,-0.00532,-2.63196,1.06644,1.57080,0.11675,-0.12763,-0.48146,0.03529,,,,,,,,,,,,,,,,,,,,,,,,,,0,0,0,0,0
3.1907,1783971633.0642,1,1,1.0000,-0.0000,1.42242,-0.00532,-2.63196,1.06644,1.57080,0.11675,-0.12763,-0.48146,0.03529,,,,,,,,,,,,,,,,,,,,,,,,,,0,0,0,0,0
3.1916,1783971633.0651,1,1,1.0000,-0.0000,1.42242,-0.00532,-2.63196,1.06644,1.57080,0.11675,-0.12763,-0.48146,0.03529,,,,,,,,,,,,,,,,,,,,,,,,,,0,0,0,0,0
3.1920,1783971633.0655,1,1,1.0000,-0.0000,1.42242,-0.00532,-2.63196,1.06644,1.57080,0.11675,-0.12763,-0.48146,0.03529,,,,,,,,,,,,,,,,,,,,,,,,,,0,0,0,0,0
3.1925,1783971633.0660,1,1,1.0000,-0.0000,1.42242,-0.00532,-2.63196,1.06644,1.57080,0.11675,-0.12763,-0.48146,0.03529,,,,,,,,,,,,,,,,,,,,,,,,,,0,0,0,0,0
3.2296,1783971633.1031,1,1,1.0000,-0.0000,1.42242,-0.00551,-2.63203,1.06668,1.57080,0.11675,-0.12764,-0.48144,0.03522,,,,,,,,,,,,,,,,,,,,,,,,,,0,0,0,0,0
3.2300,1783971633.1035,1,1,1.0000,-0.0000,1.42242,-0.00551,-2.63203,1.06668,1.57080,0.11675,-0.12764,-0.48144,0.03522,,,,,,,,,,,,,,,,,,,,,,,,,,0,0,0,0,0
3.2302,1783971633.1037,1,1,1.0000,-0.0000,1.42242,-0.00551,-2.63203,1.06668,1.57080,0.11675,-0.12764,-0.48144,0.03522,,,,,,,,,,,,,,,,,,,,,,,,,,0,0,0,0,0
3.2304,1783971633.1039,1,1,1.0000,-0.0000,1.42242,-0.00551,-2.63203,1.06668,1.57080,0.11675,-0.12764,-0.48144,0.03522,,,,,,,,,,,,,,,,,,,,,,,,,,0,0,0,0,0
3.2399,1783971633.1134,1,1,1.0000,-0.0000,1.42242,-0.00558,-2.63204,1.06676,1.57080,0.11675,-0.12764,-0.48144,0.03520,,,,,,,,,,,,,,,,,,,,,,,,,,0,0,0,0,0
3.2441,1783971633.1176,1,1,1.0000,-0.0000,1.42242,-0.00562,-2.63205,1.06681,1.57080,0.11675,-0.12764,-0.48145,0.03518,,,,,,,,,,,,,,,,,,,,,,,,,,0,0,0,0,0
3.2448,1783971633.1183,1,1,1.0000,-0.0000,1.42242,-0.00562,-2.63205,1.06681,1.57080,0.11675,-0.12764,-0.48145,0.03518,,,,,,,,,,,,,,,,,,,,,,,,,,0,0,0,0,0
3.2913,1783971633.1648,1,1,1.0000,-0.0000,1.42242,-0.00591,-2.63209,1.06715,1.57080,0.11675,-0.12763,-0.48146,0.03509,,,,,,,,,,,,,,,,,,,,,,,,,,0,0,0,0,0
3.2916,1783971633.1651,1,1,1.0000,-0.0000,1.42242,-0.00591,-2.63209,1.06715,1.57080,0.11675,-0.12763,-0.48146,0.03509,,,,,,,,,,,,,,,,,,,,,,,,,,0,0,0,0,0
3.3593,1783971633.2328,1,1,1.0000,-0.0000,1.42242,-0.00636,-2.63213,1.06771,1.57080,0.11675,-0.12763,-0.48151,0.03497,,,,,,,,,,,,,,,,,,,,,,,,,,0,0,0,0,0
3.3596,1783971633.2331,1,1,1.0000,-0.0000,1.42242,-0.00636,-2.63213,1.06771,1.57080,0.11675,-0.12763,-0.48151,0.03497,,,,,,,,,,,,,,,,,,,,,,,,,,0,0,0,0,0
3.3600,1783971633.2335,1,1,1.0000,-0.0000,1.42242,-0.00636,-2.63213,1.06771,1.57080,0.11675,-0.12763,-0.48151,0.03497,,,,,,,,,,,,,,,,,,,,,,,,,,0,0,0,0,0
3.3602,1783971633.2337,1,1,1.0000,-0.0000,1.42242,-0.00636,-2.63213,1.06771,1.57080,0.11675,-0.12763,-0.48151,0.03497,,,,,,,,,,,,,,,,,,,,,,,,,,0,0,0,0,0
3.3605,1783971633.2340,1,1,1.0000,-0.0000,1.42242,-0.00636,-2.63213,1.06771,1.57080,0.11675,-0.12763,-0.48151,0.03497,,,,,,,,,,,,,,,,,,,,,,,,,,0,0,0,0,0
3.4320,1783971633.3055,1,1,1.0000,-0.0000,1.42242,-0.00636,-2.63213,1.06771,1.57080,0.11675,-0.12763,-0.48151,0.03497,,,,,,,,,,,,,,,,,,,,,,,,,,0,0,0,0,0
3.4323,1783971633.3058,1,1,1.0000,-0.0000,1.42242,-0.00636,-2.63213,1.06771,1.57080,0.11675,-0.12763,-0.48151,0.03497,,,,,,,,,,,,,,,,,,,,,,,,,,0,0,0,0,0
3.4329,1783971633.3063,1,1,1.0000,-0.0000,1.42242,-0.00636,-2.63213,1.06771,1.57080,0.11675,-0.12763,-0.48151,0.03497,,,,,,,,,,,,,,,,,,,,,,,,,,0,0,0,0,0
3.4551,1783971633.3286,1,1,1.0000,-0.0000,1.42242,-0.00636,-2.63213,1.06771,1.57080,0.11675,-0.12763,-0.48151,0.03497,,,,,,,,,,,,,,,,,,,,,,,,,,0,0,0,0,0
3.4555,1783971633.3290,1,1,1.0000,-0.0000,1.42242,-0.00636,-2.63213,1.06771,1.57080,0.11675,-0.12763,-0.48151,0.03497,,,,,,,,,,,,,,,,,,,,,,,,,,0,0,0,0,0
3.4559,1783971633.3294,1,1,1.0000,-0.0000,1.42242,-0.00636,-2.63213,1.06771,1.57080,0.11675,-0.12763,-0.48151,0.03497,,,,,,,,,,,,,,,,,,,,,,,,,,0,0,0,0,0
3.4683,1783971633.3418,1,1,1.0000,-0.0000,1.42242,-0.00636,-2.63213,1.06771,1.57080,0.11675,-0.12763,-0.48151,0.03497,,,,,,,,,,,,,,,,,,,,,,,,,,0,0,0,0,0
3.4740,1783971633.3475,1,1,1.0000,-0.0000,1.42242,-0.00636,-2.63213,1.06771,1.57080,0.11675,-0.12763,-0.48151,0.03497,,,,,,,,,,,,,,,,,,,,,,,,,,0,0,0,0,0
3.4743,1783971633.3478,1,1,1.0000,-0.0000,1.42242,-0.00636,-2.63213,1.06771,1.57080,0.11675,-0.12763,-0.48151,0.03497,,,,,,,,,,,,,,,,,,,,,,,,,,0,0,0,0,0
3.4794,1783971633.3529,1,1,1.0000,-0.0000,1.42242,-0.00636,-2.63213,1.06771,1.57080,0.11675,-0.12763,-0.48151,0.03497,,,,,,,,,,,,,,,,,,,,,,,,,,0,0,0,0,0
3.4797,1783971633.3532,1,1,1.0000,-0.0000,1.42242,-0.00636,-2.63213,1.06771,1.57080,0.11675,-0.12763,-0.48151,0.03497,,,,,,,,,,,,,,,,,,,,,,,,,,0,0,0,0,0
3.4913,1783971633.3648,1,1,1.0000,-0.0000,1.42242,-0.00636,-2.63213,1.06771,1.57080,0.11675,-0.12763,-0.48151,0.03497,,,,,,,,,,,,,,,,,,,,,,,,,,0,0,0,0,0
3.4919,1783971633.3654,1,1,1.0000,-0.0000,1.42242,-0.00636,-2.63213,1.06771,1.57080,0.11675,-0.12763,-0.48151,0.03497,,,,,,,,,,,,,,,,,,,,,,,,,,0,0,0,0,0
3.5086,1783971633.3821,1,1,1.0000,-0.0000,1.42242,-0.00636,-2.63213,1.06771,1.57080,0.11675,-0.12763,-0.48151,0.03497,,,,,,,,,,,,,,,,,,,,,,,,,,0,0,0,0,0
3.5089,1783971633.3824,1,1,1.0000,-0.0000,1.42242,-0.00636,-2.63213,1.06771,1.57080,0.11675,-0.12763,-0.48151,0.03497,,,,,,,,,,,,,,,,,,,,,,,,,,0,0,0,0,0
3.5194,1783971633.3929,1,1,1.0000,-0.0000,1.42242,-0.00636,-2.63213,1.06771,1.57080,0.11675,-0.12763,-0.48151,0.03497,,,,,,,,,,,,,,,,,,,,,,,,,,0,0,0,0,0
3.5199,1783971633.3934,1,1,1.0000,-0.0000,1.42242,-0.00636,-2.63213,1.06771,1.57080,0.11675,-0.12763,-0.48151,0.03497,,,,,,,,,,,,,,,,,,,,,,,,,,0,0,0,0,0
3.5440,1783971633.4175,1,1,1.0000,-0.0000,1.42242,-0.00636,-2.63213,1.06771,1.57080,0.11675,-0.12763,-0.48151,0.03497,,,,,,,,,,,,,,,,,,,,,,,,,,0,0,0,0,0
3.5512,1783971633.4247,1,1,1.0000,-0.0000,1.42242,-0.00636,-2.63213,1.06771,1.57080,0.11675,-0.12763,-0.48151,0.03497,,,,,,,,,,,,,,,,,,,,,,,,,,0,0,0,0,0
3.5516,1783971633.4251,1,1,1.0000,-0.0000,1.42242,-0.00636,-2.63213,1.06771,1.57080,0.11675,-0.12763,-0.48151,0.03497,,,,,,,,,,,,,,,,,,,,,,,,,,0,0,0,0,0
3.5716,1783971633.4451,1,1,1.0000,-0.0000,1.42242,-0.00638,-2.63215,1.06775,1.57080,0.11675,-0.12763,-0.48150,0.03496,,,,,,,,,,,,,,,,,,,,,,,,,,0,0,0,0,0
3.5720,1783971633.4455,1,1,1.0000,-0.0000,1.42242,-0.00638,-2.63215,1.06775,1.57080,0.11675,-0.12763,-0.48150,0.03496,,,,,,,,,,,,,,,,,,,,,,,,,,0,0,0,0,0
3.5786,1783971633.4521,1,1,1.0000,-0.0000,1.42242,-0.00639,-2.63215,1.06776,1.57080,0.11675,-0.12763,-0.48150,0.03495,,,,,,,,,,,,,,,,,,,,,,,,,,0,0,0,0,0
3.6033,1783971633.4768,1,1,1.0000,-0.0000,1.42242,-0.00646,-2.63220,1.06784,1.57080,0.11675,-0.12763,-0.48147,0.03492,,,,,,,,,,,,,,,,,,,,,,,,,,0,0,0,0,0
3.6036,1783971633.4771,1,1,1.0000,-0.0000,1.42242,-0.00646,-2.63220,1.06784,1.57080,0.11675,-0.12763,-0.48147,0.03492,,,,,,,,,,,,,,,,,,,,,,,,,,0,0,0,0,0
3.6174,1783971633.4908,1,1,1.0000,-0.0000,1.42242,-0.00648,-2.63221,1.06786,1.57080,0.11675,-0.12763,-0.48147,0.03491,,,,,,,,,,,,,,,,,,,,,,,,,,0,0,0,0,0
3.6351,1783971633.5086,1,1,1.0000,-0.0000,1.42242,-0.00661,-2.63226,1.06802,1.57080,0.11675,-0.12763,-0.48145,0.03485,,,,,,,,,,,,,,,,,,,,,,,,,,0,0,0,0,0
3.6353,1783971633.5088,1,1,1.0000,-0.0000,1.42242,-0.00661,-2.63226,1.06802,1.57080,0.11675,-0.12763,-0.48145,0.03485,,,,,,,,,,,,,,,,,,,,,,,,,,0,0,0,0,0
3.6439,1783971633.5174,1,1,1.0000,-0.0000,1.42242,-0.00662,-2.63226,1.06802,1.57080,0.11675,-0.12763,-0.48145,0.03485,,,,,,,,,,,,,,,,,,,,,,,,,,0,0,0,0,0
3.6722,1783971633.5457,1,1,1.0000,-0.0000,1.42242,-0.00675,-2.63229,1.06819,1.57080,0.11675,-0.12763,-0.48145,0.03481,,,,,,,,,,,,,,,,,,,,,,,,,,0,0,0,0,0
3.6725,1783971633.5460,1,1,1.0000,-0.0000,1.42242,-0.00675,-2.63229,1.06819,1.57080,0.11675,-0.12763,-0.48145,0.03481,,,,,,,,,,,,,,,,,,,,,,,,,,0,0,0,0,0
3.6792,1783971633.5527,1,1,1.0000,-0.0000,1.42242,-0.00683,-2.63230,1.06828,1.57080,0.11675,-0.12763,-0.48146,0.03478,,,,,,,,,,,,,,,,,,,,,,,,,,0,0,0,0,0
3.6795,1783971633.5530,1,1,1.0000,-0.0000,1.42242,-0.00683,-2.63230,1.06828,1.57080,0.11675,-0.12763,-0.48146,0.03478,,,,,,,,,,,,,,,,,,,,,,,,,,0,0,0,0,0
3.9420,1783971633.8155,1,1,1.0000,-0.0000,1.42241,-0.00754,-2.63239,1.06916,1.57080,0.11675,-0.12762,-0.48151,0.03457,,,,,,,,,,,,,,,,,,,,,,,,,,0,0,0,0,0
3.9425,1783971633.8159,1,1,1.0000,-0.0000,1.42241,-0.00754,-2.63239,1.06916,1.57080,0.11675,-0.12762,-0.48151,0.03457,,,,,,,,,,,,,,,,,,,,,,,,,,0,0,0,0,0
3.9431,1783971633.8165,1,1,1.0000,-0.0000,1.42241,-0.00754,-2.63239,1.06916,1.57080,0.11675,-0.12762,-0.48151,0.03457,,,,,,,,,,,,,,,,,,,,,,,,,,0,0,0,0,0
3.9433,1783971633.8168,1,1,1.0000,-0.0000,1.42241,-0.00754,-2.63239,1.06916,1.57080,0.11675,-0.12762,-0.48151,0.03457,,,,,,,,,,,,,,,,,,,,,,,,,,0,0,0,0,0
3.9436,1783971633.8171,1,1,1.0000,-0.0000,1.42241,-0.00754,-2.63239,1.06916,1.57080,0.11675,-0.12762,-0.48151,0.03457,,,,,,,,,,,,,,,,,,,,,,,,,,0,0,0,0,0
3.9439,1783971633.8174,1,1,1.0000,-0.0000,1.42241,-0.00754,-2.63239,1.06916,1.57080,0.11675,-0.12762,-0.48151,0.03457,,,,,,,,,,,,,,,,,,,,,,,,,,0,0,0,0,0
3.9444,1783971633.8179,1,1,1.0000,-0.0000,1.42241,-0.00754,-2.63239,1.06916,1.57080,0.11675,-0.12762,-0.48151,0.03457,,,,,,,,,,,,,,,,,,,,,,,,,,0,0,0,0,0
3.9448,1783971633.8183,1,1,1.0000,-0.0000,1.42241,-0.00754,-2.63239,1.06916,1.57080,0.11675,-0.12762,-0.48151,0.03457,,,,,,,,,,,,,,,,,,,,,,,,,,0,0,0,0,0
3.9670,1783971633.8405,1,1,1.0000,-0.0000,1.42241,-0.00754,-2.63239,1.06916,1.57080,0.11675,-0.12762,-0.48151,0.03457,,,,,,,,,,,,,,,,,,,,,,,,,,0,0,0,0,0
3.9673,1783971633.8408,1,1,1.0000,-0.0000,1.42241,-0.00754,-2.63239,1.06916,1.57080,0.11675,-0.12762,-0.48151,0.03457,,,,,,,,,,,,,,,,,,,,,,,,,,0,0,0,0,0
3.9806,1783971633.8540,1,1,1.0000,-0.0000,1.42241,-0.00755,-2.63239,1.06917,1.57080,0.11675,-0.12762,-0.48151,0.03457,,,,,,,,,,,,,,,,,,,,,,,,,,0,0,0,0,0
3.9905,1783971633.8640,1,1,1.0000,-0.0000,1.42241,-0.00756,-2.63240,1.06919,1.57080,0.11675,-0.12762,-0.48151,0.03457,,,,,,,,,,,,,,,,,,,,,,,,,,0,0,0,0,0
3.9951,1783971633.8686,1,1,1.0000,-0.0000,1.42241,-0.00758,-2.63241,1.06922,1.57080,0.11675,-0.12762,-0.48150,0.03456,,,,,,,,,,,,,,,,,,,,,,,,,,0,0,0,0,0
3.9953,1783971633.8688,1,1,1.0000,-0.0000,1.42241,-0.00758,-2.63241,1.06922,1.57080,0.11675,-0.12762,-0.48150,0.03456,,,,,,,,,,,,,,,,,,,,,,,,,,0,0,0,0,0
4.0207,1783971633.8942,1,1,1.0000,-0.0000,1.42241,-0.00764,-2.63245,1.06928,1.57080,0.11675,-0.12763,-0.48148,0.03453,,,,,,,,,,,,,,,,,,,,,,,,,,0,0,0,0,0
4.0212,1783971633.8947,1,1,1.0000,-0.0000,1.42241,-0.00764,-2.63245,1.06928,1.57080,0.11675,-0.12763,-0.48148,0.03453,,,,,,,,,,,,,,,,,,,,,,,,,,0,0,0,0,0
4.0248,1783971633.8983,1,1,1.0000,-0.0000,1.42241,-0.00764,-2.63245,1.06928,1.57080,0.11675,-0.12763,-0.48148,0.03453,,,,,,,,,,,,,,,,,,,,,,,,,,0,0,0,0,0
4.0901,1783971633.9636,1,1,1.0000,-0.0000,1.42241,-0.00799,-2.63256,1.06970,1.57080,0.11675,-0.12763,-0.48145,0.03439,,,,,,,,,,,,,,,,,,,,,,,,,,0,0,0,0,0
4.0905,1783971633.9640,1,1,1.0000,-0.0000,1.42241,-0.00799,-2.63256,1.06970,1.57080,0.11675,-0.12763,-0.48145,0.03439,,,,,,,,,,,,,,,,,,,,,,,,,,0,0,0,0,0
4.0912,1783971633.9647,1,1,1.0000,-0.0000,1.42241,-0.00799,-2.63256,1.06970,1.57080,0.11675,-0.12763,-0.48145,0.03439,,,,,,,,,,,,,,,,,,,,,,,,,,0,0,0,0,0
4.1054,1783971633.9789,1,1,1.0000,-0.0000,1.42241,-0.00804,-2.63257,1.06976,1.57080,0.11675,-0.12763,-0.48146,0.03437,,,,,,,,,,,,,,,,,,,,,,,,,,0,0,0,0,0
4.1058,1783971633.9793,1,1,1.0000,-0.0000,1.42241,-0.00804,-2.63257,1.06976,1.57080,0.11675,-0.12763,-0.48146,0.03437,,,,,,,,,,,,,,,,,,,,,,,,,,0,0,0,0,0
4.1088,1783971633.9823,1,1,1.0000,-0.0000,1.42241,-0.00808,-2.63258,1.06981,1.57080,0.11675,-0.12763,-0.48146,0.03436,,,,,,,,,,,,,,,,,,,,,,,,,,0,0,0,0,0
4.1238,1783971633.9973,1,1,1.0000,-0.0000,1.42241,-0.00815,-2.63259,1.06989,1.57080,0.11675,-0.12763,-0.48146,0.03434,,,,,,,,,,,,,,,,,,,,,,,,,,0,0,0,0,0
4.1249,1783971633.9984,1,1,1.0000,-0.0000,1.42241,-0.00815,-2.63259,1.06989,1.57080,0.11675,-0.12763,-0.48146,0.03434,,,,,,,,,,,,,,,,,,,,,,,,,,0,0,0,0,0
4.1251,1783971633.9986,1,1,1.0000,-0.0000,1.42241,-0.00815,-2.63259,1.06989,1.57080,0.11675,-0.12763,-0.48146,0.03434,,,,,,,,,,,,,,,,,,,,,,,,,,0,0,0,0,0
4.1553,1783971634.0288,1,1,1.0000,-0.0000,1.42241,-0.00838,-2.63262,1.07016,1.57080,0.11675,-0.12763,-0.48147,0.03427,,,,,,,,,,,,,,,,,,,,,,,,,,0,0,0,0,0
4.1557,1783971634.0292,1,1,1.0000,-0.0000,1.42241,-0.00838,-2.63262,1.07016,1.57080,0.11675,-0.12763,-0.48147,0.03427,,,,,,,,,,,,,,,,,,,,,,,,,,0,0,0,0,0
4.1565,1783971634.0300,1,1,1.0000,-0.0000,1.42241,-0.00838,-2.63262,1.07016,1.57080,0.11675,-0.12763,-0.48147,0.03427,,,,,,,,,,,,,,,,,,,,,,,,,,0,0,0,0,0
4.1568,1783971634.0303,1,1,1.0000,-0.0000,1.42241,-0.00838,-2.63262,1.07016,1.57080,0.11675,-0.12763,-0.48147,0.03427,,,,,,,,,,,,,,,,,,,,,,,,,,0,0,0,0,0
4.1621,1783971634.0356,1,1,1.0000,-0.0000,1.42241,-0.00840,-2.63262,1.07019,1.57080,0.11675,-0.12763,-0.48147,0.03426,,,,,,,,,,,,,,,,,,,,,,,,,,0,0,0,0,0
4.1624,1783971634.0359,1,1,1.0000,-0.0000,1.42241,-0.00840,-2.63262,1.07019,1.57080,0.11675,-0.12763,-0.48147,0.03426,,,,,,,,,,,,,,,,,,,,,,,,,,0,0,0,0,0
4.1841,1783971634.0576,1,1,1.0000,-0.0000,1.42241,-0.00860,-2.63261,1.07044,1.57080,0.11675,-0.12762,-0.48152,0.03422,,,,,,,,,,,,,,,,,,,,,,,,,,0,0,0,0,0
4.1843,1783971634.0578,1,1,1.0000,-0.0000,1.42241,-0.00860,-2.63261,1.07044,1.57080,0.11675,-0.12762,-0.48152,0.03422,,,,,,,,,,,,,,,,,,,,,,,,,,0,0,0,0,0
4.1865,1783971634.0600,1,1,1.0000,-0.0000,1.42241,-0.00860,-2.63261,1.07044,1.57080,0.11675,-0.12762,-0.48152,0.03422,,,,,,,,,,,,,,,,,,,,,,,,,,0,0,0,0,0
4.1871,1783971634.0606,1,1,1.0000,-0.0000,1.42241,-0.00863,-2.63261,1.07048,1.57080,0.11675,-0.12762,-0.48152,0.03421,,,,,,,,,,,,,,,,,,,,,,,,,,0,0,0,0,0
4.1942,1783971634.0677,1,1,1.0000,-0.0000,1.42241,-0.00867,-2.63260,1.07053,1.57080,0.11675,-0.12762,-0.48153,0.03421,,,,,,,,,,,,,,,,,,,,,,,,,,0,0,0,0,0
4.2095,1783971634.0830,1,1,1.0000,-0.0000,1.42241,-0.00875,-2.63256,1.07062,1.57080,0.11675,-0.12761,-0.48158,0.03421,,,,,,,,,,,,,,,,,,,,,,,,,,0,0,0,0,0
4.2180,1783971634.0915,1,1,1.0000,-0.0000,1.42241,-0.00875,-2.63256,1.07062,1.57080,0.11675,-0.12761,-0.48158,0.03421,,,,,,,,,,,,,,,,,,,,,,,,,,0,0,0,0,0
4.2659,1783971634.1394,1,1,1.0000,-0.0000,1.42241,-0.00875,-2.63256,1.07062,1.57080,0.11675,-0.12761,-0.48158,0.03421,,,,,,,,,,,,,,,,,,,,,,,,,,0,0,0,0,0
4.2663,1783971634.1398,1,1,1.0000,-0.0000,1.42241,-0.00875,-2.63256,1.07062,1.57080,0.11675,-0.12761,-0.48158,0.03421,,,,,,,,,,,,,,,,,,,,,,,,,,0,0,0,0,0
4.2666,1783971634.1401,1,1,1.0000,-0.0000,1.42241,-0.00875,-2.63256,1.07062,1.57080,0.11675,-0.12761,-0.48158,0.03421,,,,,,,,,,,,,,,,,,,,,,,,,,0,0,0,0,0
4.3082,1783971634.1816,1,1,1.0000,-0.0000,1.42241,-0.00875,-2.63256,1.07062,1.57080,0.11675,-0.12761,-0.48158,0.03421,,,,,,,,,,,,,,,,,,,,,,,,,,0,0,0,0,0
4.3493,1783971634.2228,1,1,1.0000,-0.0000,1.42241,-0.00875,-2.63256,1.07062,1.57080,0.11675,-0.12761,-0.48158,0.03421,,,,,,,,,,,,,,,,,,,,,,,,,,0,0,0,0,0
4.3498,1783971634.2233,1,1,1.0000,-0.0000,1.42241,-0.00875,-2.63256,1.07062,1.57080,0.11675,-0.12761,-0.48158,0.03421,,,,,,,,,,,,,,,,,,,,,,,,,,0,0,0,0,0
4.3505,1783971634.2240,1,1,1.0000,-0.0000,1.42241,-0.00875,-2.63256,1.07062,1.57080,0.11675,-0.12761,-0.48158,0.03421,,,,,,,,,,,,,,,,,,,,,,,,,,0,0,0,0,0
4.3677,1783971634.2412,1,1,1.0000,-0.0000,1.42241,-0.00875,-2.63256,1.07062,1.57080,0.11675,-0.12761,-0.48158,0.03421,,,,,,,,,,,,,,,,,,,,,,,,,,0,0,0,0,0
4.3681,1783971634.2416,1,1,1.0000,-0.0000,1.42241,-0.00875,-2.63256,1.07062,1.57080,0.11675,-0.12761,-0.48158,0.03421,,,,,,,,,,,,,,,,,,,,,,,,,,0,0,0,0,0
4.3905,1783971634.2640,1,1,1.0000,-0.0000,1.42241,-0.00875,-2.63256,1.07062,1.57080,0.11675,-0.12761,-0.48158,0.03421,,,,,,,,,,,,,,,,,,,,,,,,,,0,0,0,0,0
4.4370,1783971634.3105,1,1,1.0000,-0.0000,1.42241,-0.00879,-2.63265,1.07069,1.57081,0.11675,-0.12762,-0.48152,0.03416,,,,,,,,,,,,,,,,,,,,,,,,,,0,0,0,0,0
4.4373,1783971634.3108,1,1,1.0000,-0.0000,1.42241,-0.00879,-2.63265,1.07069,1.57081,0.11675,-0.12762,-0.48152,0.03416,,,,,,,,,,,,,,,,,,,,,,,,,,0,0,0,0,0
4.4377,1783971634.3112,1,1,1.0000,-0.0000,1.42241,-0.00879,-2.63265,1.07069,1.57081,0.11675,-0.12762,-0.48152,0.03416,,,,,,,,,,,,,,,,,,,,,,,,,,0,0,0,0,0
4.4381,1783971634.3116,1,1,1.0000,-0.0000,1.42241,-0.00879,-2.63265,1.07069,1.57081,0.11675,-0.12762,-0.48152,0.03416,,,,,,,,,,,,,,,,,,,,,,,,,,0,0,0,0,0
4.4672,1783971634.3407,1,1,1.0000,-0.0000,1.42241,-0.00889,-2.63273,1.07080,1.57081,0.11675,-0.12762,-0.48148,0.03410,,,,,,,,,,,,,,,,,,,,,,,,,,0,0,0,0,0
4.4676,1783971634.3411,1,1,1.0000,-0.0000,1.42241,-0.00889,-2.63273,1.07080,1.57081,0.11675,-0.12762,-0.48148,0.03410,,,,,,,,,,,,,,,,,,,,,,,,,,0,0,0,0,0
4.4727,1783971634.3462,1,1,1.0000,-0.0000,1.42241,-0.00891,-2.63274,1.07083,1.57081,0.11675,-0.12762,-0.48147,0.03409,,,,,,,,,,,,,,,,,,,,,,,,,,0,0,0,0,0
4.4966,1783971634.3701,1,1,1.0000,-0.0000,1.42241,-0.00903,-2.63278,1.07096,1.57081,0.11675,-0.12763,-0.48146,0.03404,,,,,,,,,,,,,,,,,,,,,,,,,,0,0,0,0,0
4.4991,1783971634.3726,1,1,1.0000,-0.0000,1.42241,-0.00907,-2.63279,1.07101,1.57081,0.11675,-0.12763,-0.48146,0.03403,,,,,,,,,,,,,,,,,,,,,,,,,,0,0,0,0,0
4.4996,1783971634.3731,1,1,1.0000,-0.0000,1.42241,-0.00907,-2.63279,1.07101,1.57081,0.11675,-0.12763,-0.48146,0.03403,,,,,,,,,,,,,,,,,,,,,,,,,,0,0,0,0,0
4.5205,1783971634.3940,1,1,1.0000,-0.0000,1.42241,-0.00919,-2.63282,1.07115,1.57081,0.11675,-0.12763,-0.48146,0.03399,,,,,,,,,,,,,,,,,,,,,,,,,,0,0,0,0,0
4.5209,1783971634.3943,1,1,1.0000,-0.0000,1.42241,-0.00919,-2.63282,1.07115,1.57081,0.11675,-0.12763,-0.48146,0.03399,,,,,,,,,,,,,,,,,,,,,,,,,,0,0,0,0,0
4.5333,1783971634.4068,1,1,1.0000,-0.0000,1.42241,-0.00928,-2.63284,1.07126,1.57081,0.11675,-0.12763,-0.48146,0.03395,,,,,,,,,,,,,,,,,,,,,,,,,,0,0,0,0,0
4.5433,1783971634.4168,1,1,1.0000,-0.0000,1.42241,-0.00937,-2.63285,1.07137,1.57081,0.11675,-0.12763,-0.48146,0.03392,,,,,,,,,,,,,,,,,,,,,,,,,,0,0,0,0,0
4.5436,1783971634.4171,1,1,1.0000,-0.0000,1.42241,-0.00937,-2.63285,1.07137,1.57081,0.11675,-0.12763,-0.48146,0.03392,,,,,,,,,,,,,,,,,,,,,,,,,,0,0,0,0,0
4.5601,1783971634.4336,1,1,1.0000,-0.0000,1.42241,-0.00944,-2.63286,1.07145,1.57081,0.11675,-0.12762,-0.48146,0.03390,,,,,,,,,,,,,,,,,,,,,,,,,,0,0,0,0,0
4.5805,1783971634.4540,1,1,1.0000,-0.0000,1.42241,-0.00966,-2.63290,1.07172,1.57081,0.11675,-0.12762,-0.48147,0.03384,,,,,,,,,,,,,,,,,,,,,,,,,,0,0,0,0,0
4.5807,1783971634.4542,1,1,1.0000,-0.0000,1.42241,-0.00966,-2.63290,1.07172,1.57081,0.11675,-0.12762,-0.48147,0.03384,,,,,,,,,,,,,,,,,,,,,,,,,,0,0,0,0,0
4.5826,1783971634.4561,1,1,1.0000,-0.0000,1.42241,-0.00966,-2.63290,1.07172,1.57081,0.11675,-0.12762,-0.48147,0.03384,,,,,,,,,,,,,,,,,,,,,,,,,,0,0,0,0,0
4.6001,1783971634.4735,1,1,1.0000,-0.0000,1.42241,-0.00987,-2.63292,1.07198,1.57081,0.11675,-0.12762,-0.48149,0.03377,,,,,,,,,,,,,,,,,,,,,,,,,,0,0,0,0,0
4.6042,1783971634.4777,1,1,1.0000,-0.0000,1.42241,-0.00990,-2.63293,1.07201,1.57081,0.11675,-0.12762,-0.48149,0.03377,,,,,,,,,,,,,,,,,,,,,,,,,,0,0,0,0,0
4.6045,1783971634.4780,1,1,1.0000,-0.0000,1.42241,-0.00990,-2.63293,1.07201,1.57081,0.11675,-0.12762,-0.48149,0.03377,,,,,,,,,,,,,,,,,,,,,,,,,,0,0,0,0,0
4.6216,1783971634.4951,1,1,1.0000,-0.0000,1.42241,-0.00990,-2.63293,1.07201,1.57081,0.11675,-0.12762,-0.48149,0.03377,,,,,,,,,,,,,,,,,,,,,,,,,,0,0,0,0,0
4.6233,1783971634.4968,1,1,1.0000,-0.0000,1.42241,-0.00990,-2.63293,1.07201,1.57081,0.11675,-0.12762,-0.48149,0.03377,,,,,,,,,,,,,,,,,,,,,,,,,,0,0,0,0,0
4.6238,1783971634.4972,1,1,1.0000,-0.0000,1.42241,-0.00990,-2.63293,1.07201,1.57081,0.11675,-0.12762,-0.48149,0.03377,,,,,,,,,,,,,,,,,,,,,,,,,,0,0,0,0,0
4.6286,1783971634.5021,1,1,1.0000,-0.0000,1.42241,-0.00990,-2.63293,1.07201,1.57081,0.11675,-0.12762,-0.48149,0.03377,,,,,,,,,,,,,,,,,,,,,,,,,,0,0,0,0,0
4.6289,1783971634.5024,1,1,1.0000,-0.0000,1.42241,-0.00990,-2.63293,1.07201,1.57081,0.11675,-0.12762,-0.48149,0.03377,,,,,,,,,,,,,,,,,,,,,,,,,,0,0,0,0,0
4.6591,1783971634.5325,1,1,1.0000,-0.0000,1.42241,-0.00990,-2.63293,1.07201,1.57081,0.11675,-0.12762,-0.48149,0.03377,,,,,,,,,,,,,,,,,,,,,,,,,,0,0,0,0,0
4.6609,1783971634.5344,1,1,1.0000,-0.0000,1.42241,-0.00990,-2.63293,1.07201,1.57081,0.11675,-0.12762,-0.48149,0.03377,,,,,,,,,,,,,,,,,,,,,,,,,,0,0,0,0,0
4.6615,1783971634.5350,1,1,1.0000,-0.0000,1.42241,-0.00990,-2.63293,1.07201,1.57081,0.11675,-0.12762,-0.48149,0.03377,,,,,,,,,,,,,,,,,,,,,,,,,,0,0,0,0,0
4.6701,1783971634.5436,1,1,1.0000,-0.0000,1.42241,-0.00990,-2.63293,1.07201,1.57081,0.11675,-0.12762,-0.48149,0.03377,,,,,,,,,,,,,,,,,,,,,,,,,,0,0,0,0,0
4.6820,1783971634.5554,1,1,1.0000,-0.0000,1.42241,-0.00990,-2.63293,1.07201,1.57081,0.11675,-0.12762,-0.48149,0.03377,,,,,,,,,,,,,,,,,,,,,,,,,,0,0,0,0,0
4.7042,1783971634.5777,1,1,1.0000,-0.0000,1.42241,-0.00990,-2.63293,1.07201,1.57081,0.11675,-0.12762,-0.48149,0.03377,,,,,,,,,,,,,,,,,,,,,,,,,,0,0,0,0,0
4.7399,1783971634.6134,1,1,1.0000,-0.0000,1.42241,-0.00990,-2.63293,1.07201,1.57081,0.11675,-0.12762,-0.48149,0.03377,,,,,,,,,,,,,,,,,,,,,,,,,,0,0,0,0,0
4.7403,1783971634.6138,1,1,1.0000,-0.0000,1.42241,-0.00990,-2.63293,1.07201,1.57081,0.11675,-0.12762,-0.48149,0.03377,,,,,,,,,,,,,,,,,,,,,,,,,,0,0,0,0,0
4.7405,1783971634.6140,1,1,1.0000,-0.0000,1.42241,-0.00990,-2.63293,1.07201,1.57081,0.11675,-0.12762,-0.48149,0.03377,,,,,,,,,,,,,,,,,,,,,,,,,,0,0,0,0,0
4.7489,1783971634.6224,1,1,1.0000,-0.0000,1.42241,-0.00990,-2.63293,1.07201,1.57081,0.11675,-0.12762,-0.48149,0.03377,,,,,,,,,,,,,,,,,,,,,,,,,,0,0,0,0,0
4.7540,1783971634.6275,1,1,1.0000,-0.0000,1.42241,-0.00990,-2.63293,1.07201,1.57081,0.11675,-0.12762,-0.48149,0.03377,,,,,,,,,,,,,,,,,,,,,,,,,,0,0,0,0,0
4.7601,1783971634.6336,1,1,1.0000,-0.0000,1.42241,-0.00990,-2.63293,1.07201,1.57081,0.11675,-0.12762,-0.48149,0.03377,,,,,,,,,,,,,,,,,,,,,,,,,,0,0,0,0,0
4.7604,1783971634.6339,1,1,1.0000,-0.0000,1.42241,-0.00990,-2.63293,1.07201,1.57081,0.11675,-0.12762,-0.48149,0.03377,,,,,,,,,,,,,,,,,,,,,,,,,,0,0,0,0,0
4.7711,1783971634.6446,1,1,1.0000,-0.0000,1.42241,-0.00990,-2.63293,1.07201,1.57081,0.11675,-0.12762,-0.48149,0.03377,,,,,,,,,,,,,,,,,,,,,,,,,,0,0,0,0,0
4.9159,1783971634.7894,1,1,1.0000,-0.0000,1.42240,-0.01019,-2.63307,1.07236,1.57081,0.11675,-0.12763,-0.48143,0.03363,,,,,,,,,,,,,,,,,,,,,,,,,,0,0,0,0,0
4.9163,1783971634.7898,1,1,1.0000,-0.0000,1.42240,-0.01019,-2.63307,1.07236,1.57081,0.11675,-0.12763,-0.48143,0.03363,,,,,,,,,,,,,,,,,,,,,,,,,,0,0,0,0,0
4.9168,1783971634.7903,1,1,1.0000,-0.0000,1.42240,-0.01019,-2.63307,1.07236,1.57081,0.11675,-0.12763,-0.48143,0.03363,,,,,,,,,,,,,,,,,,,,,,,,,,0,0,0,0,0
4.9173,1783971634.7908,1,1,1.0000,-0.0000,1.42240,-0.01019,-2.63307,1.07236,1.57081,0.11675,-0.12763,-0.48143,0.03363,,,,,,,,,,,,,,,,,,,,,,,,,,0,0,0,0,0
4.9178,1783971634.7912,1,1,1.0000,-0.0000,1.42240,-0.01019,-2.63307,1.07236,1.57081,0.11675,-0.12763,-0.48143,0.03363,,,,,,,,,,,,,,,,,,,,,,,,,,0,0,0,0,0
4.9182,1783971634.7917,1,1,1.0000,-0.0000,1.42240,-0.01019,-2.63307,1.07236,1.57081,0.11675,-0.12763,-0.48143,0.03363,,,,,,,,,,,,,,,,,,,,,,,,,,0,0,0,0,0
4.9285,1783971634.8020,1,1,1.0000,-0.0000,1.42240,-0.01025,-2.63308,1.07244,1.57081,0.11675,-0.12763,-0.48143,0.03361,,,,,,,,,,,,,,,,,,,,,,,,,,0,0,0,0,0
4.9332,1783971634.8067,1,1,1.0000,-0.0000,1.42240,-0.01025,-2.63308,1.07245,1.57081,0.11675,-0.12763,-0.48143,0.03361,,,,,,,,,,,,,,,,,,,,,,,,,,0,0,0,0,0
4.9586,1783971634.8321,1,1,1.0000,-0.0000,1.42240,-0.01050,-2.63312,1.07274,1.57081,0.11675,-0.12763,-0.48144,0.03353,,,,,,,,,,,,,,,,,,,,,,,,,,0,0,0,0,0
4.9592,1783971634.8327,1,1,1.0000,-0.0000,1.42240,-0.01050,-2.63312,1.07274,1.57081,0.11675,-0.12763,-0.48144,0.03353,,,,,,,,,,,,,,,,,,,,,,,,,,0,0,0,0,0
4.9622,1783971634.8357,1,1,1.0000,-0.0000,1.42240,-0.01050,-2.63312,1.07274,1.57081,0.11675,-0.12763,-0.48144,0.03353,,,,,,,,,,,,,,,,,,,,,,,,,,0,0,0,0,0
4.9625,1783971634.8360,1,1,1.0000,-0.0000,1.42240,-0.01050,-2.63312,1.07274,1.57081,0.11675,-0.12763,-0.48144,0.03353,,,,,,,,,,,,,,,,,,,,,,,,,,0,0,0,0,0
4.9762,1783971634.8497,1,1,1.0000,-0.0000,1.42240,-0.01058,-2.63313,1.07284,1.57081,0.11675,-0.12762,-0.48145,0.03351,,,,,,,,,,,,,,,,,,,,,,,,,,0,0,0,0,0
5.0241,1783971634.8976,1,1,1.0000,-0.0000,1.42240,-0.01105,-2.63319,1.07341,1.57081,0.11675,-0.12762,-0.48148,0.03337,,,,,,,,,,,,,,,,,,,,,,,,,,0,0,0,0,0
5.0245,1783971634.8980,1,1,1.0000,-0.0000,1.42240,-0.01105,-2.63319,1.07341,1.57081,0.11675,-0.12762,-0.48148,0.03337,,,,,,,,,,,,,,,,,,,,,,,,,,0,0,0,0,0
5.0248,1783971634.8983,1,1,1.0000,-0.0000,1.42240,-0.01105,-2.63319,1.07341,1.57081,0.11675,-0.12762,-0.48148,0.03337,,,,,,,,,,,,,,,,,,,,,,,,,,0,0,0,0,0
5.0251,1783971634.8986,1,1,1.0000,-0.0000,1.42240,-0.01105,-2.63319,1.07341,1.57081,0.11675,-0.12762,-0.48148,0.03337,,,,,,,,,,,,,,,,,,,,,,,,,,0,0,0,0,0
5.0663,1783971634.9398,1,1,1.0000,-0.0000,1.42240,-0.01105,-2.63319,1.07341,1.57081,0.11675,-0.12762,-0.48148,0.03337,,,,,,,,,,,,,,,,,,,,,,,,,,0,0,0,0,0
5.0667,1783971634.9402,1,1,1.0000,-0.0000,1.42240,-0.01105,-2.63319,1.07341,1.57081,0.11675,-0.12762,-0.48148,0.03337,,,,,,,,,,,,,,,,,,,,,,,,,,0,0,0,0,0
5.0675,1783971634.9410,1,1,1.0000,-0.0000,1.42240,-0.01105,-2.63319,1.07341,1.57081,0.11675,-0.12762,-0.48148,0.03337,,,,,,,,,,,,,,,,,,,,,,,,,,0,0,0,0,0
5.0966,1783971634.9701,1,1,1.0000,-0.0000,1.42240,-0.01105,-2.63319,1.07341,1.57081,0.11675,-0.12762,-0.48148,0.03337,,,,,,,,,,,,,,,,,,,,,,,,,,0,0,0,0,0
5.0971,1783971634.9706,1,1,1.0000,-0.0000,1.42240,-0.01105,-2.63319,1.07341,1.57081,0.11675,-0.12762,-0.48148,0.03337,,,,,,,,,,,,,,,,,,,,,,,,,,0,0,0,0,0
5.0974,1783971634.9709,1,1,1.0000,-0.0000,1.42240,-0.01105,-2.63319,1.07341,1.57081,0.11675,-0.12762,-0.48148,0.03337,,,,,,,,,,,,,,,,,,,,,,,,,,0,0,0,0,0
5.1250,1783971634.9985,1,1,1.0000,-0.0000,1.42240,-0.01105,-2.63319,1.07341,1.57081,0.11675,-0.12762,-0.48148,0.03337,,,,,,,,,,,,,,,,,,,,,,,,,,0,0,0,0,0
5.1253,1783971634.9988,1,1,1.0000,-0.0000,1.42240,-0.01105,-2.63319,1.07341,1.57081,0.11675,-0.12762,-0.48148,0.03337,,,,,,,,,,,,,,,,,,,,,,,,,,0,0,0,0,0
5.1345,1783971635.0080,1,1,1.0000,-0.0000,1.42240,-0.01105,-2.63319,1.07341,1.57081,0.11675,-0.12762,-0.48148,0.03337,,,,,,,,,,,,,,,,,,,,,,,,,,0,0,0,0,0
5.1350,1783971635.0084,1,1,1.0000,-0.0000,1.42240,-0.01105,-2.63319,1.07341,1.57081,0.11675,-0.12762,-0.48148,0.03337,,,,,,,,,,,,,,,,,,,,,,,,,,0,0,0,0,0
5.1879,1783971635.0614,1,1,1.0000,-0.0000,1.42240,-0.01105,-2.63319,1.07341,1.57081,0.11675,-0.12762,-0.48148,0.03337,,,,,,,,,,,,,,,,,,,,,,,,,,0,0,0,0,0
5.1882,1783971635.0617,1,1,1.0000,-0.0000,1.42240,-0.01105,-2.63319,1.07341,1.57081,0.11675,-0.12762,-0.48148,0.03337,,,,,,,,,,,,,,,,,,,,,,,,,,0,0,0,0,0
5.1886,1783971635.0621,1,1,1.0000,-0.0000,1.42240,-0.01105,-2.63319,1.07341,1.57081,0.11675,-0.12762,-0.48148,0.03337,,,,,,,,,,,,,,,,,,,,,,,,,,0,0,0,0,0
5.1889,1783971635.0624,1,1,1.0000,-0.0000,1.42240,-0.01105,-2.63319,1.07341,1.57081,0.11675,-0.12762,-0.48148,0.03337,,,,,,,,,,,,,,,,,,,,,,,,,,0,0,0,0,0
5.1946,1783971635.0681,1,1,1.0000,-0.0000,1.42240,-0.01105,-2.63319,1.07341,1.57081,0.11675,-0.12762,-0.48148,0.03337,,,,,,,,,,,,,,,,,,,,,,,,,,0,0,0,0,0
5.2173,1783971635.0908,1,1,1.0000,-0.0000,1.42240,-0.01105,-2.63319,1.07341,1.57081,0.11675,-0.12762,-0.48148,0.03337,,,,,,,,,,,,,,,,,,,,,,,,,,0,0,0,0,0
5.2325,1783971635.1060,1,1,1.0000,-0.0000,1.42240,-0.01105,-2.63319,1.07341,1.57081,0.11675,-0.12762,-0.48148,0.03337,,,,,,,,,,,,,,,,,,,,,,,,,,0,0,0,0,0
5.2329,1783971635.1064,1,1,1.0000,-0.0000,1.42240,-0.01105,-2.63319,1.07341,1.57081,0.11675,-0.12762,-0.48148,0.03337,,,,,,,,,,,,,,,,,,,,,,,,,,0,0,0,0,0
5.2334,1783971635.1069,1,1,1.0000,-0.0000,1.42240,-0.01105,-2.63319,1.07341,1.57081,0.11675,-0.12762,-0.48148,0.03337,,,,,,,,,,,,,,,,,,,,,,,,,,0,0,0,0,0
5.2339,1783971635.1074,1,1,1.0000,-0.0000,1.42240,-0.01105,-2.63319,1.07341,1.57081,0.11675,-0.12762,-0.48148,0.03337,,,,,,,,,,,,,,,,,,,,,,,,,,0,0,0,0,0
5.2882,1783971635.1617,1,1,1.0000,-0.0000,1.42240,-0.01118,-2.63325,1.07358,1.57081,0.11675,-0.12762,-0.48146,0.03332,,,,,,,,,,,,,,,,,,,,,,,,,,0,0,0,0,0
5.2885,1783971635.1620,1,1,1.0000,-0.0000,1.42240,-0.01118,-2.63325,1.07358,1.57081,0.11675,-0.12762,-0.48146,0.03332,,,,,,,,,,,,,,,,,,,,,,,,,,0,0,0,0,0
5.2890,1783971635.1625,1,1,1.0000,-0.0000,1.42240,-0.01118,-2.63325,1.07358,1.57081,0.11675,-0.12762,-0.48146,0.03332,,,,,,,,,,,,,,,,,,,,,,,,,,0,0,0,0,0
5.2894,1783971635.1629,1,1,1.0000,-0.0000,1.42240,-0.01118,-2.63325,1.07358,1.57081,0.11675,-0.12762,-0.48146,0.03332,,,,,,,,,,,,,,,,,,,,,,,,,,0,0,0,0,0
5.3136,1783971635.1871,1,1,1.0000,-0.0000,1.42240,-0.01127,-2.63329,1.07369,1.57081,0.11675,-0.12762,-0.48144,0.03327,,,,,,,,,,,,,,,,,,,,,,,,,,0,0,0,0,0
5.3204,1783971635.1939,1,1,1.0000,-0.0000,1.42240,-0.01130,-2.63330,1.07372,1.57081,0.11675,-0.12762,-0.48144,0.03326,,,,,,,,,,,,,,,,,,,,,,,,,,0,0,0,0,0
5.3285,1783971635.2020,1,1,1.0000,-0.0000,1.42240,-0.01132,-2.63331,1.07374,1.57081,0.11675,-0.12762,-0.48144,0.03326,,,,,,,,,,,,,,,,,,,,,,,,,,0,0,0,0,0
5.3353,1783971635.2088,1,1,1.0000,-0.0000,1.42240,-0.01137,-2.63332,1.07380,1.57081,0.11675,-0.12762,-0.48144,0.03324,,,,,,,,,,,,,,,,,,,,,,,,,,0,0,0,0,0
5.3431,1783971635.2166,1,1,1.0000,-0.0000,1.42240,-0.01140,-2.63332,1.07384,1.57081,0.11675,-0.12762,-0.48144,0.03323,,,,,,,,,,,,,,,,,,,,,,,,,,0,0,0,0,0
5.3436,1783971635.2171,1,1,1.0000,-0.0000,1.42240,-0.01140,-2.63332,1.07384,1.57081,0.11675,-0.12762,-0.48144,0.03323,,,,,,,,,,,,,,,,,,,,,,,,,,0,0,0,0,0
5.3631,1783971635.2365,1,1,1.0000,-0.0000,1.42240,-0.01155,-2.63335,1.07402,1.57081,0.11674,-0.12762,-0.48144,0.03318,,,,,,,,,,,,,,,,,,,,,,,,,,0,0,0,0,0
5.3715,1783971635.2450,1,1,1.0000,-0.0000,1.42240,-0.01166,-2.63336,1.07415,1.57081,0.11674,-0.12762,-0.48145,0.03315,,,,,,,,,,,,,,,,,,,,,,,,,,0,0,0,0,0
5.3723,1783971635.2458,1,1,1.0000,-0.0000,1.42240,-0.01166,-2.63336,1.07415,1.57081,0.11674,-0.12762,-0.48145,0.03315,,,,,,,,,,,,,,,,,,,,,,,,,,0,0,0,0,0
5.3726,1783971635.2461,1,1,1.0000,-0.0000,1.42240,-0.01166,-2.63336,1.07415,1.57081,0.11674,-0.12762,-0.48145,0.03315,,,,,,,,,,,,,,,,,,,,,,,,,,0,0,0,0,0
5.3866,1783971635.2601,1,1,1.0000,-0.0000,1.42240,-0.01173,-2.63337,1.07423,1.57081,0.11674,-0.12762,-0.48145,0.03313,,,,,,,,,,,,,,,,,,,,,,,,,,0,0,0,0,0
5.4174,1783971635.2909,1,1,1.0000,-0.0000,1.42240,-0.01201,-2.63341,1.07458,1.57081,0.11674,-0.12762,-0.48147,0.03304,,,,,,,,,,,,,,,,,,,,,,,,,,0,0,0,0,0
5.4176,1783971635.2911,1,1,1.0000,-0.0000,1.42240,-0.01201,-2.63341,1.07458,1.57081,0.11674,-0.12762,-0.48147,0.03304,,,,,,,,,,,,,,,,,,,,,,,,,,0,0,0,0,0
5.4195,1783971635.2930,1,1,1.0000,-0.0000,1.42240,-0.01206,-2.63342,1.07463,1.57081,0.11674,-0.12762,-0.48147,0.03303,,,,,,,,,,,,,,,,,,,,,,,,,,0,0,0,0,0
5.4200,1783971635.2935,1,1,1.0000,-0.0000,1.42240,-0.01206,-2.63342,1.07463,1.57081,0.11674,-0.12762,-0.48147,0.03303,,,,,,,,,,,,,,,,,,,,,,,,,,0,0,0,0,0
5.4474,1783971635.3209,1,1,1.0000,-0.0000,1.42240,-0.01224,-2.63344,1.07487,1.57081,0.11674,-0.12761,-0.48149,0.03298,,,,,,,,,,,,,,,,,,,,,,,,,,0,0,0,0,0
5.4478,1783971635.3213,1,1,1.0000,-0.0000,1.42240,-0.01224,-2.63344,1.07487,1.57081,0.11674,-0.12761,-0.48149,0.03298,,,,,,,,,,,,,,,,,,,,,,,,,,0,0,0,0,0
5.4483,1783971635.3218,1,1,1.0000,-0.0000,1.42240,-0.01224,-2.63344,1.07487,1.57081,0.11674,-0.12761,-0.48149,0.03298,,,,,,,,,,,,,,,,,,,,,,,,,,0,0,0,0,0
5.4658,1783971635.3393,1,1,1.0000,-0.0000,1.42240,-0.01224,-2.63344,1.07487,1.57081,0.11674,-0.12761,-0.48149,0.03298,,,,,,,,,,,,,,,,,,,,,,,,,,0,0,0,0,0
5.4662,1783971635.3396,1,1,1.0000,-0.0000,1.42240,-0.01224,-2.63344,1.07487,1.57081,0.11674,-0.12761,-0.48149,0.03298,,,,,,,,,,,,,,,,,,,,,,,,,,0,0,0,0,0
5.4778,1783971635.3513,1,1,1.0000,-0.0000,1.42240,-0.01224,-2.63344,1.07487,1.57081,0.11674,-0.12761,-0.48149,0.03298,,,,,,,,,,,,,,,,,,,,,,,,,,0,0,0,0,0
5.4883,1783971635.3618,1,1,1.0000,-0.0000,1.42240,-0.01224,-2.63344,1.07487,1.57081,0.11674,-0.12761,-0.48149,0.03298,,,,,,,,,,,,,,,,,,,,,,,,,,0,0,0,0,0
5.4888,1783971635.3623,1,1,1.0000,-0.0000,1.42240,-0.01224,-2.63344,1.07487,1.57081,0.11674,-0.12761,-0.48149,0.03298,,,,,,,,,,,,,,,,,,,,,,,,,,0,0,0,0,0
5.4890,1783971635.3625,1,1,1.0000,-0.0000,1.42240,-0.01224,-2.63344,1.07487,1.57081,0.11674,-0.12761,-0.48149,0.03298,,,,,,,,,,,,,,,,,,,,,,,,,,0,0,0,0,0
5.5004,1783971635.3739,1,1,1.0000,-0.0000,1.42240,-0.01224,-2.63344,1.07487,1.57081,0.11674,-0.12761,-0.48149,0.03298,,,,,,,,,,,,,,,,,,,,,,,,,,0,0,0,0,0
5.5188,1783971635.3923,1,1,1.0000,-0.0000,1.42240,-0.01224,-2.63344,1.07487,1.57081,0.11674,-0.12761,-0.48149,0.03298,,,,,,,,,,,,,,,,,,,,,,,,,,0,0,0,0,0
5.5292,1783971635.4027,1,1,1.0000,-0.0000,1.42240,-0.01224,-2.63344,1.07487,1.57081,0.11674,-0.12761,-0.48149,0.03298,,,,,,,,,,,,,,,,,,,,,,,,,,0,0,0,0,0
5.5429,1783971635.4164,1,1,1.0000,-0.0000,1.42240,-0.01224,-2.63344,1.07487,1.57081,0.11674,-0.12761,-0.48149,0.03298,,,,,,,,,,,,,,,,,,,,,,,,,,0,0,0,0,0
5.5477,1783971635.4212,1,1,1.0000,-0.0000,1.42240,-0.01224,-2.63344,1.07487,1.57081,0.11674,-0.12761,-0.48149,0.03298,,,,,,,,,,,,,,,,,,,,,,,,,,0,0,0,0,0
5.5481,1783971635.4216,1,1,1.0000,-0.0000,1.42240,-0.01224,-2.63344,1.07487,1.57081,0.11674,-0.12761,-0.48149,0.03298,,,,,,,,,,,,,,,,,,,,,,,,,,0,0,0,0,0
5.5597,1783971635.4332,1,1,1.0000,-0.0000,1.42240,-0.01224,-2.63344,1.07487,1.57081,0.11674,-0.12761,-0.48149,0.03298,,,,,,,,,,,,,,,,,,,,,,,,,,0,0,0,0,0
5.5599,1783971635.4334,1,1,1.0000,-0.0000,1.42240,-0.01224,-2.63344,1.07487,1.57081,0.11674,-0.12761,-0.48149,0.03298,,,,,,,,,,,,,,,,,,,,,,,,,,0,0,0,0,0
5.5846,1783971635.4581,1,1,1.0000,-0.0000,1.42240,-0.01224,-2.63344,1.07487,1.57081,0.11674,-0.12761,-0.48149,0.03298,,,,,,,,,,,,,,,,,,,,,,,,,,0,0,0,0,0
5.5852,1783971635.4587,1,1,1.0000,-0.0000,1.42240,-0.01224,-2.63344,1.07487,1.57081,0.11674,-0.12761,-0.48149,0.03298,,,,,,,,,,,,,,,,,,,,,,,,,,0,0,0,0,0
5.6017,1783971635.4752,1,1,1.0000,-0.0000,1.42240,-0.01224,-2.63344,1.07487,1.57081,0.11674,-0.12761,-0.48149,0.03298,,,,,,,,,,,,,,,,,,,,,,,,,,0,0,0,0,0
5.6182,1783971635.4917,1,1,1.0000,-0.0000,1.42240,-0.01224,-2.63344,1.07487,1.57081,0.11674,-0.12761,-0.48149,0.03298,,,,,,,,,,,,,,,,,,,,,,,,,,0,0,0,0,0
5.6229,1783971635.4964,1,1,1.0000,-0.0000,1.42240,-0.01224,-2.63344,1.07487,1.57081,0.11674,-0.12761,-0.48149,0.03298,,,,,,,,,,,,,,,,,,,,,,,,,,0,0,0,0,0
5.6237,1783971635.4972,1,1,1.0000,-0.0000,1.42240,-0.01224,-2.63344,1.07487,1.57081,0.11674,-0.12761,-0.48149,0.03298,,,,,,,,,,,,,,,,,,,,,,,,,,0,0,0,0,0
5.6302,1783971635.5037,1,1,1.0000,-0.0000,1.42240,-0.01224,-2.63344,1.07487,1.57081,0.11674,-0.12761,-0.48149,0.03298,,,,,,,,,,,,,,,,,,,,,,,,,,0,0,0,0,0
5.6306,1783971635.5041,1,1,1.0000,-0.0000,1.42240,-0.01224,-2.63344,1.07487,1.57081,0.11674,-0.12761,-0.48149,0.03298,,,,,,,,,,,,,,,,,,,,,,,,,,0,0,0,0,0
5.6443,1783971635.5177,1,1,1.0000,-0.0000,1.42240,-0.01224,-2.63344,1.07487,1.57081,0.11674,-0.12761,-0.48149,0.03298,,,,,,,,,,,,,,,,,,,,,,,,,,0,0,0,0,0
5.6521,1783971635.5256,1,1,1.0000,-0.0000,1.42240,-0.01224,-2.63344,1.07487,1.57081,0.11674,-0.12761,-0.48149,0.03298,,,,,,,,,,,,,,,,,,,,,,,,,,0,0,0,0,0
5.6652,1783971635.5387,1,1,1.0000,-0.0000,1.42240,-0.01226,-2.63344,1.07489,1.57081,0.11674,-0.12761,-0.48149,0.03297,,,,,,,,,,,,,,,,,,,,,,,,,,0,0,0,0,0
5.7051,1783971635.5786,1,1,1.0000,-0.0000,1.42240,-0.01234,-2.63347,1.07501,1.57081,0.11674,-0.12761,-0.48148,0.03294,,,,,,,,,,,,,,,,,,,,,,,,,,0,0,0,0,0
5.7054,1783971635.5789,1,1,1.0000,-0.0000,1.42240,-0.01234,-2.63347,1.07501,1.57081,0.11674,-0.12761,-0.48148,0.03294,,,,,,,,,,,,,,,,,,,,,,,,,,0,0,0,0,0
5.7267,1783971635.6002,1,1,1.0000,-0.0000,1.42240,-0.01239,-2.63350,1.07507,1.57081,0.11674,-0.12762,-0.48147,0.03292,,,,,,,,,,,,,,,,,,,,,,,,,,0,0,0,0,0
5.7270,1783971635.6005,1,1,1.0000,-0.0000,1.42240,-0.01239,-2.63350,1.07507,1.57081,0.11674,-0.12762,-0.48147,0.03292,,,,,,,,,,,,,,,,,,,,,,,,,,0,0,0,0,0
5.7307,1783971635.6042,1,1,1.0000,-0.0000,1.42240,-0.01242,-2.63351,1.07509,1.57081,0.11674,-0.12762,-0.48147,0.03290,,,,,,,,,,,,,,,,,,,,,,,,,,0,0,0,0,0
5.7310,1783971635.6045,1,1,1.0000,-0.0000,1.42240,-0.01242,-2.63351,1.07509,1.57081,0.11674,-0.12762,-0.48147,0.03290,,,,,,,,,,,,,,,,,,,,,,,,,,0,0,0,0,0
5.7444,1783971635.6179,1,1,1.0000,-0.0000,1.42240,-0.01248,-2.63354,1.07517,1.57081,0.11674,-0.12762,-0.48145,0.03288,,,,,,,,,,,,,,,,,,,,,,,,,,0,0,0,0,0
5.7638,1783971635.6373,1,1,1.0000,-0.0000,1.42240,-0.01261,-2.63357,1.07532,1.57081,0.11674,-0.12762,-0.48145,0.03283,,,,,,,,,,,,,,,,,,,,,,,,,,0,0,0,0,0
5.7641,1783971635.6376,1,1,1.0000,-0.0000,1.42240,-0.01261,-2.63357,1.07532,1.57081,0.11674,-0.12762,-0.48145,0.03283,,,,,,,,,,,,,,,,,,,,,,,,,,0,0,0,0,0
5.7735,1783971635.6470,1,1,1.0000,-0.0000,1.42240,-0.01265,-2.63358,1.07537,1.57081,0.11674,-0.12762,-0.48145,0.03282,,,,,,,,,,,,,,,,,,,,,,,,,,0,0,0,0,0
5.7943,1783971635.6678,1,1,1.0000,-0.0000,1.42240,-0.01278,-2.63360,1.07552,1.57081,0.11674,-0.12762,-0.48145,0.03278,,,,,,,,,,,,,,,,,,,,,,,,,,0,0,0,0,0
5.7947,1783971635.6682,1,1,1.0000,-0.0000,1.42240,-0.01278,-2.63360,1.07552,1.57081,0.11674,-0.12762,-0.48145,0.03278,,,,,,,,,,,,,,,,,,,,,,,,,,0,0,0,0,0
5.8040,1783971635.6775,1,1,1.0000,-0.0000,1.42240,-0.01280,-2.63360,1.07555,1.57081,0.11674,-0.12762,-0.48146,0.03277,,,,,,,,,,,,,,,,,,,,,,,,,,0,0,0,0,0
5.8043,1783971635.6778,1,1,1.0000,-0.0000,1.42240,-0.01280,-2.63360,1.07555,1.57081,0.11674,-0.12762,-0.48146,0.03277,,,,,,,,,,,,,,,,,,,,,,,,,,0,0,0,0,0
5.8239,1783971635.6974,1,1,1.0000,-0.0000,1.42239,-0.01303,-2.63364,1.07582,1.57081,0.11674,-0.12762,-0.48147,0.03270,,,,,,,,,,,,,,,,,,,,,,,,,,0,0,0,0,0
5.8243,1783971635.6978,1,1,1.0000,-0.0000,1.42239,-0.01303,-2.63364,1.07582,1.57081,0.11674,-0.12762,-0.48147,0.03270,,,,,,,,,,,,,,,,,,,,,,,,,,0,0,0,0,0
5.8285,1783971635.7020,1,1,1.0000,-0.0000,1.42239,-0.01303,-2.63364,1.07582,1.57081,0.11674,-0.12762,-0.48147,0.03270,,,,,,,,,,,,,,,,,,,,,,,,,,0,0,0,0,0
5.8320,1783971635.7055,1,1,1.0000,-0.0000,1.42239,-0.01303,-2.63364,1.07583,1.57081,0.11674,-0.12762,-0.48147,0.03270,,,,,,,,,,,,,,,,,,,,,,,,,,0,0,0,0,0
5.8405,1783971635.7140,1,1,1.0000,-0.0000,1.42239,-0.01307,-2.63364,1.07587,1.57081,0.11674,-0.12762,-0.48147,0.03269,,,,,,,,,,,,,,,,,,,,,,,,,,0,0,0,0,0
5.8508,1783971635.7243,1,1,1.0000,-0.0000,1.42239,-0.01313,-2.63364,1.07595,1.57081,0.11674,-0.12761,-0.48148,0.03267,,,,,,,,,,,,,,,,,,,,,,,,,,0,0,0,0,0
5.8691,1783971635.7426,1,1,1.0000,-0.0000,1.42239,-0.01335,-2.63365,1.07622,1.57081,0.11674,-0.12761,-0.48151,0.03262,,,,,,,,,,,,,,,,,,,,,,,,,,0,0,0,0,0
5.8695,1783971635.7430,1,1,1.0000,-0.0000,1.42239,-0.01335,-2.63365,1.07622,1.57081,0.11674,-0.12761,-0.48151,0.03262,,,,,,,,,,,,,,,,,,,,,,,,,,0,0,0,0,0
5.8805,1783971635.7540,1,1,1.0000,-0.0000,1.42239,-0.01346,-2.63364,1.07636,1.57081,0.11674,-0.12760,-0.48153,0.03260,,,,,,,,,,,,,,,,,,,,,,,,,,0,0,0,0,0
5.9041,1783971635.7776,1,1,1.0000,-0.0000,1.42239,-0.01350,-2.63363,1.07642,1.57081,0.11674,-0.12760,-0.48155,0.03259,,,,,,,,,,,,,,,,,,,,,,,,,,0,0,0,0,0
5.9338,1783971635.8073,1,1,1.0000,-0.0000,1.42239,-0.01350,-2.63363,1.07642,1.57081,0.11674,-0.12760,-0.48155,0.03259,,,,,,,,,,,,,,,,,,,,,,,,,,0,0,0,0,0
5.9343,1783971635.8078,1,1,1.0000,-0.0000,1.42239,-0.01350,-2.63363,1.07642,1.57081,0.11674,-0.12760,-0.48155,0.03259,,,,,,,,,,,,,,,,,,,,,,,,,,0,0,0,0,0
5.9447,1783971635.8182,1,1,1.0000,-0.0000,1.42239,-0.01350,-2.63363,1.07642,1.57081,0.11674,-0.12760,-0.48155,0.03259,,,,,,,,,,,,,,,,,,,,,,,,,,0,0,0,0,0
5.9452,1783971635.8187,1,1,1.0000,-0.0000,1.42239,-0.01350,-2.63363,1.07642,1.57081,0.11674,-0.12760,-0.48155,0.03259,,,,,,,,,,,,,,,,,,,,,,,,,,0,0,0,0,0
5.9457,1783971635.8191,1,1,1.0000,-0.0000,1.42239,-0.01350,-2.63363,1.07642,1.57081,0.11674,-0.12760,-0.48155,0.03259,,,,,,,,,,,,,,,,,,,,,,,,,,0,0,0,0,0
5.9696,1783971635.8431,1,1,1.0000,-0.0000,1.42239,-0.01350,-2.63363,1.07642,1.57081,0.11674,-0.12760,-0.48155,0.03259,,,,,,,,,,,,,,,,,,,,,,,,,,0,0,0,0,0
5.9699,1783971635.8434,1,1,1.0000,-0.0000,1.42239,-0.01350,-2.63363,1.07642,1.57081,0.11674,-0.12760,-0.48155,0.03259,,,,,,,,,,,,,,,,,,,,,,,,,,0,0,0,0,0
5.9704,1783971635.8439,1,1,1.0000,-0.0000,1.42239,-0.01350,-2.63363,1.07642,1.57081,0.11674,-0.12760,-0.48155,0.03259,,,,,,,,,,,,,,,,,,,,,,,,,,0,0,0,0,0
5.9918,1783971635.8653,1,1,1.0000,-0.0000,1.42239,-0.01350,-2.63363,1.07642,1.57081,0.11674,-0.12760,-0.48155,0.03259,,,,,,,,,,,,,,,,,,,,,,,,,,0,0,0,0,0
5.9924,1783971635.8659,1,1,1.0000,-0.0000,1.42239,-0.01350,-2.63363,1.07642,1.57081,0.11674,-0.12760,-0.48155,0.03259,,,,,,,,,,,,,,,,,,,,,,,,,,0,0,0,0,0
5.9945,1783971635.8679,1,1,1.0000,-0.0000,1.42239,-0.01350,-2.63363,1.07642,1.57081,0.11674,-0.12760,-0.48155,0.03259,,,,,,,,,,,,,,,,,,,,,,,,,,0,0,0,0,0
5.9948,1783971635.8683,1,1,1.0000,-0.0000,1.42239,-0.01350,-2.63363,1.07642,1.57081,0.11674,-0.12760,-0.48155,0.03259,,,,,,,,,,,,,,,,,,,,,,,,,,0,0,0,0,0
6.0302,1783971635.9037,1,1,1.0000,-0.0000,1.42239,-0.01350,-2.63363,1.07642,1.57081,0.11674,-0.12760,-0.48155,0.03259,,,,,,,,,,,,,,,,,,,,,,,,,,0,0,0,0,0
6.0306,1783971635.9041,1,1,1.0000,-0.0000,1.42239,-0.01350,-2.63363,1.07642,1.57081,0.11674,-0.12760,-0.48155,0.03259,,,,,,,,,,,,,,,,,,,,,,,,,,0,0,0,0,0
6.0338,1783971635.9073,1,1,1.0000,-0.0000,1.42239,-0.01350,-2.63363,1.07642,1.57081,0.11674,-0.12760,-0.48155,0.03259,,,,,,,,,,,,,,,,,,,,,,,,,,0,0,0,0,0
6.0344,1783971635.9079,1,1,1.0000,-0.0000,1.42239,-0.01350,-2.63363,1.07642,1.57081,0.11674,-0.12760,-0.48155,0.03259,,,,,,,,,,,,,,,,,,,,,,,,,,0,0,0,0,0
6.0600,1783971635.9335,1,1,1.0000,-0.0000,1.42239,-0.01350,-2.63363,1.07642,1.57081,0.11674,-0.12760,-0.48155,0.03259,,,,,,,,,,,,,,,,,,,,,,,,,,0,0,0,0,0
6.0602,1783971635.9337,1,1,1.0000,-0.0000,1.42239,-0.01350,-2.63363,1.07642,1.57081,0.11674,-0.12760,-0.48155,0.03259,,,,,,,,,,,,,,,,,,,,,,,,,,0,0,0,0,0
6.0613,1783971635.9347,1,1,1.0000,-0.0000,1.42239,-0.01350,-2.63363,1.07642,1.57081,0.11674,-0.12760,-0.48155,0.03259,,,,,,,,,,,,,,,,,,,,,,,,,,0,0,0,0,0
6.0615,1783971635.9350,1,1,1.0000,-0.0000,1.42239,-0.01350,-2.63363,1.07642,1.57081,0.11674,-0.12760,-0.48155,0.03259,,,,,,,,,,,,,,,,,,,,,,,,,,0,0,0,0,0
6.0861,1783971635.9596,1,1,1.0000,-0.0000,1.42239,-0.01350,-2.63363,1.07642,1.57081,0.11674,-0.12760,-0.48155,0.03259,,,,,,,,,,,,,,,,,,,,,,,,,,0,0,0,0,0
6.1014,1783971635.9749,1,1,1.0000,-0.0000,1.42239,-0.01350,-2.63363,1.07642,1.57081,0.11674,-0.12760,-0.48155,0.03259,,,,,,,,,,,,,,,,,,,,,,,,,,0,0,0,0,0
6.1041,1783971635.9776,1,1,1.0000,-0.0000,1.42239,-0.01350,-2.63363,1.07642,1.57081,0.11674,-0.12760,-0.48155,0.03259,,,,,,,,,,,,,,,,,,,,,,,,,,0,0,0,0,0
6.1043,1783971635.9778,1,1,1.0000,-0.0000,1.42239,-0.01350,-2.63363,1.07642,1.57081,0.11674,-0.12760,-0.48155,0.03259,,,,,,,,,,,,,,,,,,,,,,,,,,0,0,0,0,0
6.1046,1783971635.9781,1,1,1.0000,-0.0000,1.42239,-0.01350,-2.63363,1.07642,1.57081,0.11674,-0.12760,-0.48155,0.03259,,,,,,,,,,,,,,,,,,,,,,,,,,0,0,0,0,0
6.1091,1783971635.9826,1,1,1.0000,-0.0000,1.42239,-0.01351,-2.63363,1.07642,1.57081,0.11674,-0.12760,-0.48155,0.03259,,,,,,,,,,,,,,,,,,,,,,,,,,0,0,0,0,0
6.1093,1783971635.9828,1,1,1.0000,-0.0000,1.42239,-0.01351,-2.63363,1.07642,1.57081,0.11674,-0.12760,-0.48155,0.03259,,,,,,,,,,,,,,,,,,,,,,,,,,0,0,0,0,0
6.1192,1783971635.9927,1,1,1.0000,-0.0000,1.42239,-0.01352,-2.63365,1.07644,1.57081,0.11674,-0.12760,-0.48154,0.03258,,,,,,,,,,,,,,,,,,,,,,,,,,0,0,0,0,0
6.1431,1783971636.0166,1,1,1.0000,-0.0000,1.42239,-0.01363,-2.63376,1.07657,1.57082,0.11674,-0.12761,-0.48147,0.03250,,,,,,,,,,,,,,,,,,,,,,,,,,0,0,0,0,0
6.1548,1783971636.0283,1,1,1.0000,-0.0000,1.42239,-0.01371,-2.63384,1.07666,1.57082,0.11674,-0.12762,-0.48143,0.03245,,,,,,,,,,,,,,,,,,,,,,,,,,0,0,0,0,0
6.1708,1783971636.0443,1,1,1.0000,-0.0000,1.42239,-0.01375,-2.63386,1.07671,1.57082,0.11674,-0.12762,-0.48141,0.03242,,,,,,,,,,,,,,,,,,,,,,,,,,0,0,0,0,0
6.1711,1783971636.0446,1,1,1.0000,-0.0000,1.42239,-0.01375,-2.63386,1.07671,1.57082,0.11674,-0.12762,-0.48141,0.03242,,,,,,,,,,,,,,,,,,,,,,,,,,0,0,0,0,0
6.1855,1783971636.0589,1,1,1.0000,-0.0000,1.42239,-0.01383,-2.63387,1.07680,1.57082,0.11674,-0.12762,-0.48142,0.03240,,,,,,,,,,,,,,,,,,,,,,,,,,0,0,0,0,0
6.1908,1783971636.0643,1,1,1.0000,-0.0000,1.42239,-0.01386,-2.63387,1.07684,1.57082,0.11674,-0.12762,-0.48143,0.03239,,,,,,,,,,,,,,,,,,,,,,,,,,0,0,0,0,0
6.1912,1783971636.0646,1,1,1.0000,-0.0000,1.42239,-0.01386,-2.63387,1.07684,1.57082,0.11674,-0.12762,-0.48143,0.03239,,,,,,,,,,,,,,,,,,,,,,,,,,0,0,0,0,0
6.2441,1783971636.1176,1,1,1.0000,-0.0000,1.42239,-0.01422,-2.63391,1.07727,1.57082,0.11674,-0.12762,-0.48145,0.03229,,,,,,,,,,,,,,,,,,,,,,,,,,0,0,0,0,0
6.2443,1783971636.1178,1,1,1.0000,-0.0000,1.42239,-0.01422,-2.63391,1.07727,1.57082,0.11674,-0.12762,-0.48145,0.03229,,,,,,,,,,,,,,,,,,,,,,,,,,0,0,0,0,0
6.2446,1783971636.1181,1,1,1.0000,-0.0000,1.42239,-0.01422,-2.63391,1.07727,1.57082,0.11674,-0.12762,-0.48145,0.03229,,,,,,,,,,,,,,,,,,,,,,,,,,0,0,0,0,0
6.2449,1783971636.1184,1,1,1.0000,-0.0000,1.42239,-0.01422,-2.63391,1.07727,1.57082,0.11674,-0.12762,-0.48145,0.03229,,,,,,,,,,,,,,,,,,,,,,,,,,0,0,0,0,0
6.2658,1783971636.1392,1,1,1.0000,-0.0000,1.42239,-0.01429,-2.63391,1.07735,1.57082,0.11674,-0.12761,-0.48146,0.03227,,,,,,,,,,,,,,,,,,,,,,,,,,0,0,0,0,0
6.2662,1783971636.1396,1,1,1.0000,-0.0000,1.42239,-0.01429,-2.63391,1.07735,1.57082,0.11674,-0.12761,-0.48146,0.03227,,,,,,,,,,,,,,,,,,,,,,,,,,0,0,0,0,0
6.2761,1783971636.1496,1,1,1.0000,-0.0000,1.42239,-0.01441,-2.63392,1.07750,1.57082,0.11674,-0.12761,-0.48147,0.03224,,,,,,,,,,,,,,,,,,,,,,,,,,0,0,0,0,0
6.2764,1783971636.1499,1,1,1.0000,-0.0000,1.42239,-0.01441,-2.63392,1.07750,1.57082,0.11674,-0.12761,-0.48147,0.03224,,,,,,,,,,,,,,,,,,,,,,,,,,0,0,0,0,0
6.2881,1783971636.1616,1,1,1.0000,-0.0000,1.42239,-0.01454,-2.63392,1.07766,1.57082,0.11674,-0.12761,-0.48150,0.03221,,,,,,,,,,,,,,,,,,,,,,,,,,0,0,0,0,0
6.2887,1783971636.1622,1,1,1.0000,-0.0000,1.42239,-0.01454,-2.63392,1.07766,1.57082,0.11674,-0.12761,-0.48150,0.03221,,,,,,,,,,,,,,,,,,,,,,,,,,0,0,0,0,0
6.2891,1783971636.1626,1,1,1.0000,-0.0000,1.42239,-0.01454,-2.63392,1.07766,1.57082,0.11674,-0.12761,-0.48150,0.03221,,,,,,,,,,,,,,,,,,,,,,,,,,0,0,0,0,0
6.3025,1783971636.1760,1,1,1.0000,-0.0000,1.42239,-0.01465,-2.63391,1.07780,1.57082,0.11674,-0.12760,-0.48152,0.03219,,,,,,,,,,,,,,,,,,,,,,,,,,0,0,0,0,0
6.3248,1783971636.1983,1,1,1.0000,-0.0000,1.42239,-0.01469,-2.63390,1.07785,1.57082,0.11674,-0.12760,-0.48153,0.03218,,,,,,,,,,,,,,,,,,,,,,,,,,0,0,0,0,0
6.3514,1783971636.2249,1,1,1.0000,-0.0000,1.42239,-0.01469,-2.63390,1.07785,1.57082,0.11674,-0.12760,-0.48153,0.03218,,,,,,,,,,,,,,,,,,,,,,,,,,0,0,0,0,0
6.3517,1783971636.2252,1,1,1.0000,-0.0000,1.42239,-0.01469,-2.63390,1.07785,1.57082,0.11674,-0.12760,-0.48153,0.03218,,,,,,,,,,,,,,,,,,,,,,,,,,0,0,0,0,0
6.3522,1783971636.2257,1,1,1.0000,-0.0000,1.42239,-0.01469,-2.63390,1.07785,1.57082,0.11674,-0.12760,-0.48153,0.03218,,,,,,,,,,,,,,,,,,,,,,,,,,0,0,0,0,0
6.3525,1783971636.2260,1,1,1.0000,-0.0000,1.42239,-0.01469,-2.63390,1.07785,1.57082,0.11674,-0.12760,-0.48153,0.03218,,,,,,,,,,,,,,,,,,,,,,,,,,0,0,0,0,0
6.3616,1783971636.2351,1,1,1.0000,-0.0000,1.42239,-0.01469,-2.63390,1.07785,1.57082,0.11674,-0.12760,-0.48153,0.03218,,,,,,,,,,,,,,,,,,,,,,,,,,0,0,0,0,0
6.4107,1783971636.2842,1,1,1.0000,-0.0000,1.42239,-0.01469,-2.63390,1.07785,1.57082,0.11674,-0.12760,-0.48153,0.03218,,,,,,,,,,,,,,,,,,,,,,,,,,0,0,0,0,0
6.4110,1783971636.2845,1,1,1.0000,-0.0000,1.42239,-0.01469,-2.63390,1.07785,1.57082,0.11674,-0.12760,-0.48153,0.03218,,,,,,,,,,,,,,,,,,,,,,,,,,0,0,0,0,0
6.4113,1783971636.2848,1,1,1.0000,-0.0000,1.42239,-0.01469,-2.63390,1.07785,1.57082,0.11674,-0.12760,-0.48153,0.03218,,,,,,,,,,,,,,,,,,,,,,,,,,0,0,0,0,0
6.4120,1783971636.2855,1,1,1.0000,-0.0000,1.42239,-0.01469,-2.63390,1.07785,1.57082,0.11674,-0.12760,-0.48153,0.03218,,,,,,,,,,,,,,,,,,,,,,,,,,0,0,0,0,0
6.4121,1783971636.2856,1,1,1.0000,-0.0000,1.42239,-0.01469,-2.63390,1.07785,1.57082,0.11674,-0.12760,-0.48153,0.03218,,,,,,,,,,,,,,,,,,,,,,,,,,0,0,0,0,0
6.4172,1783971636.2907,1,1,1.0000,-0.0000,1.42239,-0.01469,-2.63390,1.07785,1.57082,0.11674,-0.12760,-0.48153,0.03218,,,,,,,,,,,,,,,,,,,,,,,,,,0,0,0,0,0
6.4175,1783971636.2910,1,1,1.0000,-0.0000,1.42239,-0.01469,-2.63390,1.07785,1.57082,0.11674,-0.12760,-0.48153,0.03218,,,,,,,,,,,,,,,,,,,,,,,,,,0,0,0,0,0
6.4500,1783971636.3235,1,1,1.0000,-0.0000,1.42239,-0.01469,-2.63390,1.07785,1.57082,0.11674,-0.12760,-0.48153,0.03218,,,,,,,,,,,,,,,,,,,,,,,,,,0,0,0,0,0
6.4504,1783971636.3239,1,1,1.0000,-0.0000,1.42239,-0.01469,-2.63390,1.07785,1.57082,0.11674,-0.12760,-0.48153,0.03218,,,,,,,,,,,,,,,,,,,,,,,,,,0,0,0,0,0
6.4509,1783971636.3244,1,1,1.0000,-0.0000,1.42239,-0.01469,-2.63390,1.07785,1.57082,0.11674,-0.12760,-0.48153,0.03218,,,,,,,,,,,,,,,,,,,,,,,,,,0,0,0,0,0
6.4538,1783971636.3273,1,1,1.0000,-0.0000,1.42239,-0.01469,-2.63390,1.07785,1.57082,0.11674,-0.12760,-0.48153,0.03218,,,,,,,,,,,,,,,,,,,,,,,,,,0,0,0,0,0
6.4541,1783971636.3276,1,1,1.0000,-0.0000,1.42239,-0.01469,-2.63390,1.07785,1.57082,0.11674,-0.12760,-0.48153,0.03218,,,,,,,,,,,,,,,,,,,,,,,,,,0,0,0,0,0
6.4711,1783971636.3446,1,1,1.0000,-0.0000,1.42239,-0.01469,-2.63390,1.07785,1.57082,0.11674,-0.12760,-0.48153,0.03218,,,,,,,,,,,,,,,,,,,,,,,,,,0,0,0,0,0
6.4843,1783971636.3578,1,1,1.0000,-0.0000,1.42239,-0.01469,-2.63390,1.07785,1.57082,0.11674,-0.12760,-0.48153,0.03218,,,,,,,,,,,,,,,,,,,,,,,,,,0,0,0,0,0
6.5006,1783971636.3741,1,1,1.0000,-0.0000,1.42239,-0.01469,-2.63390,1.07785,1.57082,0.11674,-0.12760,-0.48153,0.03218,,,,,,,,,,,,,,,,,,,,,,,,,,0,0,0,0,0
6.5011,1783971636.3746,1,1,1.0000,-0.0000,1.42239,-0.01469,-2.63390,1.07785,1.57082,0.11674,-0.12760,-0.48153,0.03218,,,,,,,,,,,,,,,,,,,,,,,,,,0,0,0,0,0
6.5016,1783971636.3751,1,1,1.0000,-0.0000,1.42239,-0.01469,-2.63390,1.07785,1.57082,0.11674,-0.12760,-0.48153,0.03218,,,,,,,,,,,,,,,,,,,,,,,,,,0,0,0,0,0
6.5135,1783971636.3870,1,1,1.0000,-0.0000,1.42239,-0.01469,-2.63390,1.07785,1.57082,0.11674,-0.12760,-0.48153,0.03218,,,,,,,,,,,,,,,,,,,,,,,,,,0,0,0,0,0
6.5138,1783971636.3873,1,1,1.0000,-0.0000,1.42239,-0.01469,-2.63390,1.07785,1.57082,0.11674,-0.12760,-0.48153,0.03218,,,,,,,,,,,,,,,,,,,,,,,,,,0,0,0,0,0
6.5505,1783971636.4240,1,1,1.0000,-0.0000,1.42239,-0.01472,-2.63393,1.07789,1.57082,0.11674,-0.12760,-0.48152,0.03216,,,,,,,,,,,,,,,,,,,,,,,,,,0,0,0,0,0
6.5508,1783971636.4243,1,1,1.0000,-0.0000,1.42239,-0.01472,-2.63393,1.07789,1.57082,0.11674,-0.12760,-0.48152,0.03216,,,,,,,,,,,,,,,,,,,,,,,,,,0,0,0,0,0
6.5588,1783971636.4323,1,1,1.0000,-0.0000,1.42239,-0.01474,-2.63395,1.07792,1.57082,0.11674,-0.12761,-0.48151,0.03215,,,,,,,,,,,,,,,,,,,,,,,,,,0,0,0,0,0
6.5829,1783971636.4564,1,1,1.0000,-0.0000,1.42239,-0.01484,-2.63402,1.07802,1.57082,0.11674,-0.12761,-0.48147,0.03209,,,,,,,,,,,,,,,,,,,,,,,,,,0,0,0,0,0
6.6089,1783971636.4824,1,1,1.0000,-0.0000,1.42239,-0.01501,-2.63409,1.07823,1.57082,0.11674,-0.12761,-0.48144,0.03202,,,,,,,,,,,,,,,,,,,,,,,,,,0,0,0,0,0
6.6092,1783971636.4827,1,1,1.0000,-0.0000,1.42239,-0.01501,-2.63409,1.07823,1.57082,0.11674,-0.12761,-0.48144,0.03202,,,,,,,,,,,,,,,,,,,,,,,,,,0,0,0,0,0
6.6095,1783971636.4830,1,1,1.0000,-0.0000,1.42239,-0.01501,-2.63409,1.07823,1.57082,0.11674,-0.12761,-0.48144,0.03202,,,,,,,,,,,,,,,,,,,,,,,,,,0,0,0,0,0
6.6204,1783971636.4939,1,1,1.0000,-0.0000,1.42239,-0.01503,-2.63409,1.07825,1.57082,0.11674,-0.12761,-0.48144,0.03202,,,,,,,,,,,,,,,,,,,,,,,,,,0,0,0,0,0
6.6208,1783971636.4943,1,1,1.0000,-0.0000,1.42239,-0.01503,-2.63409,1.07825,1.57082,0.11674,-0.12761,-0.48144,0.03202,,,,,,,,,,,,,,,,,,,,,,,,,,0,0,0,0,0
6.6213,1783971636.4948,1,1,1.0000,-0.0000,1.42239,-0.01503,-2.63409,1.07825,1.57082,0.11674,-0.12761,-0.48144,0.03202,,,,,,,,,,,,,,,,,,,,,,,,,,0,0,0,0,0
6.6289,1783971636.5024,1,1,1.0000,-0.0000,1.42239,-0.01508,-2.63410,1.07831,1.57082,0.11674,-0.12761,-0.48145,0.03200,,,,,,,,,,,,,,,,,,,,,,,,,,0,0,0,0,0
6.6531,1783971636.5266,1,1,1.0000,-0.0000,1.42239,-0.01521,-2.63413,1.07847,1.57082,0.11674,-0.12761,-0.48145,0.03196,,,,,,,,,,,,,,,,,,,,,,,,,,0,0,0,0,0
6.6859,1783971636.5594,1,1,1.0000,-0.0000,1.42239,-0.01544,-2.63416,1.07875,1.57082,0.11674,-0.12761,-0.48146,0.03189,,,,,,,,,,,,,,,,,,,,,,,,,,0,0,0,0,0
6.6863,1783971636.5598,1,1,1.0000,-0.0000,1.42239,-0.01544,-2.63416,1.07875,1.57082,0.11674,-0.12761,-0.48146,0.03189,,,,,,,,,,,,,,,,,,,,,,,,,,0,0,0,0,0
6.6868,1783971636.5603,1,1,1.0000,-0.0000,1.42239,-0.01544,-2.63416,1.07875,1.57082,0.11674,-0.12761,-0.48146,0.03189,,,,,,,,,,,,,,,,,,,,,,,,,,0,0,0,0,0
6.7163,1783971636.5898,1,1,1.0000,-0.0000,1.42239,-0.01562,-2.63417,1.07897,1.57082,0.11674,-0.12761,-0.48148,0.03184,,,,,,,,,,,,,,,,,,,,,,,,,,0,0,0,0,0
6.7167,1783971636.5901,1,1,1.0000,-0.0000,1.42239,-0.01562,-2.63417,1.07897,1.57082,0.11674,-0.12761,-0.48148,0.03184,,,,,,,,,,,,,,,,,,,,,,,,,,0,0,0,0,0
6.7185,1783971636.5920,1,1,1.0000,-0.0000,1.42239,-0.01562,-2.63417,1.07897,1.57082,0.11674,-0.12761,-0.48148,0.03184,,,,,,,,,,,,,,,,,,,,,,,,,,0,0,0,0,0
6.7450,1783971636.6185,1,1,1.0000,-0.0000,1.42238,-0.01583,-2.63414,1.07923,1.57082,0.11674,-0.12760,-0.48154,0.03181,,,,,,,,,,,,,,,,,,,,,,,,,,0,0,0,0,0
6.7455,1783971636.6189,1,1,1.0000,-0.0000,1.42238,-0.01583,-2.63414,1.07923,1.57082,0.11674,-0.12760,-0.48154,0.03181,,,,,,,,,,,,,,,,,,,,,,,,,,0,0,0,0,0
6.7501,1783971636.6236,1,1,1.0000,-0.0000,1.42238,-0.01586,-2.63413,1.07926,1.57082,0.11674,-0.12760,-0.48155,0.03180,,,,,,,,,,,,,,,,,,,,,,,,,,0,0,0,0,0
6.7562,1783971636.6297,1,1,1.0000,-0.0000,1.42238,-0.01589,-2.63410,1.07931,1.57082,0.11674,-0.12759,-0.48157,0.03181,,,,,,,,,,,,,,,,,,,,,,,,,,0,0,0,0,0
6.7761,1783971636.6496,1,1,1.0000,-0.0000,1.42238,-0.01589,-2.63409,1.07931,1.57082,0.11674,-0.12759,-0.48159,0.03181,,,,,,,,,,,,,,,,,,,,,,,,,,0,0,0,0,0
6.7764,1783971636.6499,1,1,1.0000,-0.0000,1.42238,-0.01589,-2.63409,1.07931,1.57082,0.11674,-0.12759,-0.48159,0.03181,,,,,,,,,,,,,,,,,,,,,,,,,,0,0,0,0,0
6.8108,1783971636.6843,1,1,1.0000,-0.0000,1.42238,-0.01589,-2.63409,1.07931,1.57082,0.11674,-0.12759,-0.48159,0.03181,,,,,,,,,,,,,,,,,,,,,,,,,,0,0,0,0,0
6.8113,1783971636.6847,1,1,1.0000,-0.0000,1.42238,-0.01589,-2.63409,1.07931,1.57082,0.11674,-0.12759,-0.48159,0.03181,,,,,,,,,,,,,,,,,,,,,,,,,,0,0,0,0,0
