Martins-Lucaas/twinforge/sensors/Data/celula de carga/20260713_154702__samples.csv
t_rel_s,t_unix,cycle,phase,setpoint_n,force_net_n,q1,q2,q3,q4,q5,q6,tcp_x,tcp_y,tcp_z,taxel_0,taxel_1,taxel_2,taxel_3,taxel_4,taxel_5,taxel_6,taxel_7,taxel_8,taxel_9,taxel_10,taxel_11,taxel_12,taxel_13,taxel_14,taxel_15,taxel_16,taxel_17,taxel_18,taxel_19,taxel_20,taxel_21,taxel_22,taxel_23,taxel_24,n_RA,n_SA,cn_mm,cn_ra,cn_sa
0.0032,1783968422.7348,1,0,5.5000,-0.0000,1.42244,0.00067,-2.63055,1.05912,1.57084,0.11671,-0.12762,-0.48152,0.03736,,,,,,,,,,,,,,,,,,,,,,,,,,0,0,0,0,0
0.0131,1783968422.7446,1,0,5.5000,-0.0000,1.42244,0.00067,-2.63055,1.05912,1.57084,0.11671,-0.12762,-0.48152,0.03736,,,,,,,,,,,,,,,,,,,,,,,,,,0,0,0,0,0
0.0231,1783968422.7547,1,0,5.5000,-0.0000,1.42244,0.00067,-2.63055,1.05912,1.57084,0.11671,-0.12762,-0.48152,0.03736,,,,,,,,,,,,,,,,,,,,,,,,,,0,0,0,0,0
0.0391,1783968422.7707,1,0,5.5000,-0.0000,1.42244,0.00067,-2.63055,1.05912,1.57084,0.11672,-0.12762,-0.48152,0.03736,,,,,,,,,,,,,,,,,,,,,,,,,,0,0,0,0,0
0.0466,1783968422.7782,1,0,5.5000,-0.0000,1.42244,0.00068,-2.63054,1.05911,1.57083,0.11673,-0.12763,-0.48152,0.03737,,,,,,,,,,,,,,,,,,,,,,,,,,0,0,0,0,0
0.0521,1783968422.7837,1,0,5.5000,-0.0000,1.42244,0.00069,-2.63054,1.05910,1.57082,0.11673,-0.12763,-0.48152,0.03737,,,,,,,,,,,,,,,,,,,,,,,,,,0,0,0,0,0
0.0634,1783968422.7950,1,0,5.5000,-0.0000,1.42244,0.00069,-2.63054,1.05909,1.57081,0.11674,-0.12763,-0.48152,0.03737,,,,,,,,,,,,,,,,,,,,,,,,,,0,0,0,0,0
0.0743,1783968422.8059,1,0,5.5000,-0.0000,1.42244,0.00071,-2.63053,1.05907,1.57080,0.11675,-0.12763,-0.48152,0.03738,,,,,,,,,,,,,,,,,,,,,,,,,,0,0,0,0,0
0.0842,1783968422.8158,1,0,5.5000,-0.0000,1.42244,0.00071,-2.63053,1.05907,1.57080,0.11675,-0.12764,-0.48152,0.03738,,,,,,,,,,,,,,,,,,,,,,,,,,0,0,0,0,0
0.1259,1783968422.8575,1,0,5.5000,-0.0000,1.42244,0.00071,-2.63053,1.05907,1.57080,0.11675,-0.12764,-0.48152,0.03738,,,,,,,,,,,,,,,,,,,,,,,,,,0,0,0,0,0
0.1284,1783968422.8600,1,0,5.5000,-0.0000,1.42244,0.00071,-2.63053,1.05907,1.57080,0.11675,-0.12764,-0.48152,0.03738,,,,,,,,,,,,,,,,,,,,,,,,,,0,0,0,0,0
0.1287,1783968422.8603,1,0,5.5000,-0.0000,1.42244,0.00071,-2.63053,1.05907,1.57080,0.11675,-0.12764,-0.48152,0.03738,,,,,,,,,,,,,,,,,,,,,,,,,,0,0,0,0,0
0.1291,1783968422.8607,1,0,5.5000,-0.0000,1.42244,0.00071,-2.63053,1.05907,1.57080,0.11675,-0.12764,-0.48152,0.03738,,,,,,,,,,,,,,,,,,,,,,,,,,0,0,0,0,0
0.1336,1783968422.8652,1,0,5.5000,-0.0000,1.42244,0.00071,-2.63053,1.05907,1.57080,0.11675,-0.12764,-0.48152,0.03738,,,,,,,,,,,,,,,,,,,,,,,,,,0,0,0,0,0
0.1339,1783968422.8655,1,0,5.5000,-0.0000,1.42244,0.00071,-2.63053,1.05907,1.57080,0.11675,-0.12764,-0.48152,0.03738,,,,,,,,,,,,,,,,,,,,,,,,,,0,0,0,0,0
0.1468,1783968422.8784,1,0,5.5000,-0.0000,1.42244,0.00071,-2.63053,1.05907,1.57080,0.11675,-0.12764,-0.48152,0.03738,,,,,,,,,,,,,,,,,,,,,,,,,,0,0,0,0,0
0.2240,1783968422.9556,1,0,5.5000,-0.0000,1.42244,0.00071,-2.63053,1.05907,1.57080,0.11675,-0.12764,-0.48152,0.03738,,,,,,,,,,,,,,,,,,,,,,,,,,0,0,0,0,0
0.2260,1783968422.9576,1,0,5.5000,-0.0000,1.42244,0.00071,-2.63053,1.05907,1.57080,0.11675,-0.12764,-0.48152,0.03738,,,,,,,,,,,,,,,,,,,,,,,,,,0,0,0,0,0
0.2265,1783968422.9581,1,0,5.5000,-0.0000,1.42244,0.00071,-2.63053,1.05907,1.57080,0.11675,-0.12764,-0.48152,0.03738,,,,,,,,,,,,,,,,,,,,,,,,,,0,0,0,0,0
0.2270,1783968422.9586,1,0,5.5000,-0.0000,1.42244,0.00071,-2.63053,1.05907,1.57080,0.11675,-0.12764,-0.48152,0.03738,,,,,,,,,,,,,,,,,,,,,,,,,,0,0,0,0,0
0.2274,1783968422.9590,1,0,5.5000,-0.0000,1.42244,0.00071,-2.63053,1.05907,1.57080,0.11675,-0.12764,-0.48152,0.03738,,,,,,,,,,,,,,,,,,,,,,,,,,0,0,0,0,0
0.2279,1783968422.9595,1,0,5.5000,-0.0000,1.42244,0.00071,-2.63053,1.05907,1.57080,0.11675,-0.12764,-0.48152,0.03738,,,,,,,,,,,,,,,,,,,,,,,,,,0,0,0,0,0
0.2285,1783968422.9601,1,0,5.5000,-0.0000,1.42244,0.00071,-2.63053,1.05907,1.57080,0.11675,-0.12764,-0.48152,0.03738,,,,,,,,,,,,,,,,,,,,,,,,,,0,0,0,0,0
0.2379,1783968422.9695,1,0,5.5000,-0.0000,1.42244,0.00071,-2.63053,1.05907,1.57080,0.11675,-0.12764,-0.48152,0.03738,,,,,,,,,,,,,,,,,,,,,,,,,,0,0,0,0,0
0.2446,1783968422.9761,1,0,5.5000,-0.0000,1.42244,0.00071,-2.63053,1.05907,1.57080,0.11675,-0.12764,-0.48152,0.03738,,,,,,,,,,,,,,,,,,,,,,,,,,0,0,0,0,0
0.2449,1783968422.9765,1,0,5.5000,-0.0000,1.42244,0.00071,-2.63053,1.05907,1.57080,0.11675,-0.12764,-0.48152,0.03738,,,,,,,,,,,,,,,,,,,,,,,,,,0,0,0,0,0
0.2521,1783968422.9837,1,0,5.5000,-0.0000,1.42244,0.00071,-2.63053,1.05907,1.57080,0.11675,-0.12764,-0.48152,0.03738,,,,,,,,,,,,,,,,,,,,,,,,,,0,0,0,0,0
0.2643,1783968422.9959,1,0,5.5000,-0.0000,1.42244,0.00071,-2.63053,1.05907,1.57080,0.11675,-0.12764,-0.48152,0.03738,,,,,,,,,,,,,,,,,,,,,,,,,,0,0,0,0,0
0.2646,1783968422.9962,1,0,5.5000,-0.0000,1.42244,0.00071,-2.63053,1.05907,1.57080,0.11675,-0.12764,-0.48152,0.03738,,,,,,,,,,,,,,,,,,,,,,,,,,0,0,0,0,0
0.2760,1783968423.0076,1,0,5.5000,-0.0000,1.42244,0.00071,-2.63053,1.05907,1.57080,0.11675,-0.12764,-0.48152,0.03738,,,,,,,,,,,,,,,,,,,,,,,,,,0,0,0,0,0
0.2857,1783968423.0173,1,0,5.5000,-0.0000,1.42244,0.00071,-2.63053,1.05907,1.57080,0.11675,-0.12764,-0.48152,0.03738,,,,,,,,,,,,,,,,,,,,,,,,,,0,0,0,0,0
0.3155,1783968423.0471,1,0,5.5000,-0.0000,1.42244,0.00071,-2.63053,1.05907,1.57080,0.11675,-0.12764,-0.48152,0.03738,,,,,,,,,,,,,,,,,,,,,,,,,,0,0,0,0,0
0.3172,1783968423.0488,1,0,5.5000,-0.0000,1.42244,0.00071,-2.63053,1.05907,1.57080,0.11675,-0.12764,-0.48152,0.03738,,,,,,,,,,,,,,,,,,,,,,,,,,0,0,0,0,0
0.3175,1783968423.0491,1,0,5.5000,-0.0000,1.42244,0.00071,-2.63053,1.05907,1.57080,0.11675,-0.12764,-0.48152,0.03738,,,,,,,,,,,,,,,,,,,,,,,,,,0,0,0,0,0
0.3200,1783968423.0516,1,0,5.5000,-0.0000,1.42244,0.00071,-2.63053,1.05907,1.57080,0.11675,-0.12764,-0.48152,0.03738,,,,,,,,,,,,,,,,,,,,,,,,,,0,0,0,0,0
0.3249,1783968423.0565,1,0,5.5000,-0.0000,1.42244,0.00071,-2.63053,1.05907,1.57080,0.11675,-0.12764,-0.48152,0.03738,,,,,,,,,,,,,,,,,,,,,,,,,,0,0,0,0,0
0.3254,1783968423.0570,1,0,5.5000,-0.0000,1.42244,0.00071,-2.63053,1.05907,1.57080,0.11675,-0.12764,-0.48152,0.03738,,,,,,,,,,,,,,,,,,,,,,,,,,0,0,0,0,0
0.3545,1783968423.0861,1,0,5.5000,-0.0000,1.42244,0.00071,-2.63053,1.05907,1.57080,0.11675,-0.12764,-0.48152,0.03738,,,,,,,,,,,,,,,,,,,,,,,,,,0,0,0,0,0
0.3548,1783968423.0864,1,0,5.5000,-0.0000,1.42244,0.00071,-2.63053,1.05907,1.57080,0.11675,-0.12764,-0.48152,0.03738,,,,,,,,,,,,,,,,,,,,,,,,,,0,0,0,0,0
0.3560,1783968423.0876,1,0,5.5000,-0.0000,1.42244,0.00071,-2.63053,1.05907,1.57080,0.11675,-0.12764,-0.48152,0.03738,,,,,,,,,,,,,,,,,,,,,,,,,,0,0,0,0,0
0.3563,1783968423.0879,1,0,5.5000,-0.0000,1.42244,0.00071,-2.63053,1.05907,1.57080,0.11675,-0.12764,-0.48152,0.03738,,,,,,,,,,,,,,,,,,,,,,,,,,0,0,0,0,0
0.3627,1783968423.0942,1,0,5.5000,-0.0000,1.42244,0.00071,-2.63053,1.05907,1.57080,0.11675,-0.12764,-0.48152,0.03738,,,,,,,,,,,,,,,,,,,,,,,,,,0,0,0,0,0
0.3631,1783968423.0947,1,0,5.5000,-0.0000,1.42244,0.00071,-2.63053,1.05907,1.57080,0.11675,-0.12764,-0.48152,0.03738,,,,,,,,,,,,,,,,,,,,,,,,,,0,0,0,0,0
0.3635,1783968423.0951,1,0,5.5000,-0.0000,1.42244,0.00071,-2.63053,1.05907,1.57080,0.11675,-0.12764,-0.48152,0.03738,,,,,,,,,,,,,,,,,,,,,,,,,,0,0,0,0,0
0.3832,1783968423.1148,1,0,5.5000,-0.0000,1.42244,0.00071,-2.63053,1.05907,1.57080,0.11675,-0.12764,-0.48152,0.03738,,,,,,,,,,,,,,,,,,,,,,,,,,0,0,0,0,0
0.3883,1783968423.1199,1,0,5.5000,-0.0000,1.42244,0.00071,-2.63053,1.05907,1.57080,0.11675,-0.12764,-0.48152,0.03738,,,,,,,,,,,,,,,,,,,,,,,,,,0,0,0,0,0
0.3926,1783968423.1242,1,0,5.5000,-0.0000,1.42244,0.00071,-2.63053,1.05907,1.57080,0.11675,-0.12764,-0.48152,0.03738,,,,,,,,,,,,,,,,,,,,,,,,,,0,0,0,0,0
0.4195,1783968423.1511,1,0,5.5000,-0.0000,1.42244,0.00071,-2.63053,1.05907,1.57080,0.11675,-0.12764,-0.48152,0.03738,,,,,,,,,,,,,,,,,,,,,,,,,,0,0,0,0,0
0.4934,1783968423.2250,1,0,5.5000,-0.0000,1.42244,0.00071,-2.63053,1.05907,1.57080,0.11675,-0.12764,-0.48152,0.03738,,,,,,,,,,,,,,,,,,,,,,,,,,0,0,0,0,0
0.5322,1783968423.2638,1,0,5.5000,-0.0000,1.42244,0.00071,-2.63053,1.05907,1.57080,0.11675,-0.12764,-0.48152,0.03738,,,,,,,,,,,,,,,,,,,,,,,,,,0,0,0,0,0
0.5363,1783968423.2678,1,0,5.5000,-0.0000,1.42244,0.00071,-2.63053,1.05907,1.57080,0.11675,-0.12764,-0.48152,0.03738,,,,,,,,,,,,,,,,,,,,,,,,,,0,0,0,0,0
0.5366,1783968423.2682,1,0,5.5000,-0.0000,1.42244,0.00071,-2.63053,1.05907,1.57080,0.11675,-0.12764,-0.48152,0.03738,,,,,,,,,,,,,,,,,,,,,,,,,,0,0,0,0,0
0.5382,1783968423.2698,1,0,5.5000,-0.0000,1.42244,0.00071,-2.63053,1.05907,1.57080,0.11675,-0.12764,-0.48152,0.03738,,,,,,,,,,,,,,,,,,,,,,,,,,0,0,0,0,0
0.5392,1783968423.2708,1,0,5.5000,-0.0000,1.42244,0.00071,-2.63053,1.05907,1.57080,0.11675,-0.12764,-0.48152,0.03738,,,,,,,,,,,,,,,,,,,,,,,,,,0,0,0,0,0
0.5481,1783968423.2796,1,0,5.5000,-0.0000,1.42244,0.00071,-2.63053,1.05907,1.57080,0.11675,-0.12764,-0.48152,0.03738,,,,,,,,,,,,,,,,,,,,,,,,,,0,0,0,0,0
0.5484,1783968423.2800,1,0,5.5000,-0.0000,1.42244,0.00071,-2.63053,1.05907,1.57080,0.11675,-0.12764,-0.48152,0.03738,,,,,,,,,,,,,,,,,,,,,,,,,,0,0,0,0,0
0.5543,1783968423.2859,1,0,5.5000,-0.0000,1.42244,0.00071,-2.63053,1.05907,1.57080,0.11675,-0.12764,-0.48152,0.03738,,,,,,,,,,,,,,,,,,,,,,,,,,0,0,0,0,0
0.5547,1783968423.2862,1,0,5.5000,-0.0000,1.42244,0.00071,-2.63053,1.05907,1.57080,0.11675,-0.12764,-0.48152,0.03738,,,,,,,,,,,,,,,,,,,,,,,,,,0,0,0,0,0
0.5573,1783968423.2889,1,0,5.5000,-0.0000,1.42244,0.00071,-2.63053,1.05907,1.57080,0.11675,-0.12764,-0.48152,0.03738,,,,,,,,,,,,,,,,,,,,,,,,,,0,0,0,0,0
0.5578,1783968423.2894,1,0,5.5000,-0.0000,1.42244,0.00071,-2.63053,1.05907,1.57080,0.11675,-0.12764,-0.48152,0.03738,,,,,,,,,,,,,,,,,,,,,,,,,,0,0,0,0,0
0.5581,1783968423.2897,1,0,5.5000,-0.0000,1.42244,0.00071,-2.63053,1.05907,1.57080,0.11675,-0.12764,-0.48152,0.03738,,,,,,,,,,,,,,,,,,,,,,,,,,0,0,0,0,0
0.5585,1783968423.2900,1,0,5.5000,-0.0000,1.42244,0.00071,-2.63053,1.05907,1.57080,0.11675,-0.12764,-0.48152,0.03738,,,,,,,,,,,,,,,,,,,,,,,,,,0,0,0,0,0
0.5588,1783968423.2903,1,0,5.5000,-0.0000,1.42244,0.00071,-2.63053,1.05907,1.57080,0.11675,-0.12764,-0.48152,0.03738,,,,,,,,,,,,,,,,,,,,,,,,,,0,0,0,0,0
0.5590,1783968423.2906,1,0,5.5000,-0.0000,1.42244,0.00071,-2.63053,1.05907,1.57080,0.11675,-0.12764,-0.48152,0.03738,,,,,,,,,,,,,,,,,,,,,,,,,,0,0,0,0,0
0.5641,1783968423.2957,1,0,5.5000,-0.0000,1.42244,0.00071,-2.63053,1.05907,1.57080,0.11675,-0.12764,-0.48152,0.03738,,,,,,,,,,,,,,,,,,,,,,,,,,0,0,0,0,0
0.5769,1783968423.3085,1,0,5.5000,-0.0000,1.42244,0.00071,-2.63053,1.05907,1.57080,0.11675,-0.12764,-0.48152,0.03738,,,,,,,,,,,,,,,,,,,,,,,,,,0,0,0,0,0
0.5830,1783968423.3146,1,0,5.5000,-0.0000,1.42244,0.00071,-2.63053,1.05907,1.57080,0.11675,-0.12764,-0.48152,0.03738,,,,,,,,,,,,,,,,,,,,,,,,,,0,0,0,0,0
0.5944,1783968423.3260,1,0,5.5000,-0.0000,1.42244,0.00071,-2.63053,1.05907,1.57080,0.11675,-0.12764,-0.48152,0.03738,,,,,,,,,,,,,,,,,,,,,,,,,,0,0,0,0,0
0.6046,1783968423.3362,1,0,5.5000,-0.0000,1.42244,0.00071,-2.63053,1.05907,1.57080,0.11675,-0.12764,-0.48152,0.03738,,,,,,,,,,,,,,,,,,,,,,,,,,0,0,0,0,0
0.6050,1783968423.3366,1,0,5.5000,-0.0000,1.42244,0.00071,-2.63053,1.05907,1.57080,0.11675,-0.12764,-0.48152,0.03738,,,,,,,,,,,,,,,,,,,,,,,,,,0,0,0,0,0
0.6126,1783968423.3442,1,0,5.5000,-0.0000,1.42244,0.00071,-2.63053,1.05907,1.57080,0.11675,-0.12764,-0.48152,0.03738,,,,,,,,,,,,,,,,,,,,,,,,,,0,0,0,0,0
0.6128,1783968423.3444,1,0,5.5000,-0.0000,1.42244,0.00071,-2.63053,1.05907,1.57080,0.11675,-0.12764,-0.48152,0.03738,,,,,,,,,,,,,,,,,,,,,,,,,,0,0,0,0,0
0.6252,1783968423.3568,1,0,5.5000,-0.0000,1.42244,0.00071,-2.63053,1.05907,1.57080,0.11675,-0.12764,-0.48152,0.03738,,,,,,,,,,,,,,,,,,,,,,,,,,0,0,0,0,0
0.6255,1783968423.3571,1,0,5.5000,-0.0000,1.42244,0.00071,-2.63053,1.05907,1.57080,0.11675,-0.12764,-0.48152,0.03738,,,,,,,,,,,,,,,,,,,,,,,,,,0,0,0,0,0
0.6350,1783968423.3666,1,0,5.5000,-0.0000,1.42244,0.00071,-2.63053,1.05907,1.57080,0.11675,-0.12764,-0.48152,0.03738,,,,,,,,,,,,,,,,,,,,,,,,,,0,0,0,0,0
0.6470,1783968423.3786,1,0,5.5000,-0.0000,1.42244,0.00071,-2.63053,1.05907,1.57080,0.11675,-0.12764,-0.48152,0.03738,,,,,,,,,,,,,,,,,,,,,,,,,,0,0,0,0,0
0.6569,1783968423.3885,1,0,5.5000,-0.0000,1.42244,0.00071,-2.63053,1.05907,1.57080,0.11675,-0.12764,-0.48152,0.03738,,,,,,,,,,,,,,,,,,,,,,,,,,0,0,0,0,0
0.6621,1783968423.3937,1,0,5.5000,-0.0000,1.42244,0.00071,-2.63053,1.05907,1.57080,0.11675,-0.12764,-0.48152,0.03738,,,,,,,,,,,,,,,,,,,,,,,,,,0,0,0,0,0
0.6722,1783968423.4038,1,0,5.5000,-0.0000,1.42244,0.00071,-2.63053,1.05907,1.57080,0.11675,-0.12764,-0.48152,0.03738,,,,,,,,,,,,,,,,,,,,,,,,,,0,0,0,0,0
0.6852,1783968423.4168,1,0,5.5000,-0.0000,1.42244,0.00071,-2.63053,1.05907,1.57080,0.11675,-0.12764,-0.48152,0.03738,,,,,,,,,,,,,,,,,,,,,,,,,,0,0,0,0,0
0.6953,1783968423.4269,1,0,5.5000,-0.0000,1.42244,0.00071,-2.63053,1.05907,1.57080,0.11675,-0.12764,-0.48152,0.03738,,,,,,,,,,,,,,,,,,,,,,,,,,0,0,0,0,0
0.7043,1783968423.4359,1,0,5.5000,-0.0000,1.42244,0.00071,-2.63053,1.05907,1.57080,0.11675,-0.12764,-0.48152,0.03738,,,,,,,,,,,,,,,,,,,,,,,,,,0,0,0,0,0
0.7048,1783968423.4364,1,0,5.5000,-0.0000,1.42244,0.00071,-2.63053,1.05907,1.57080,0.11675,-0.12764,-0.48152,0.03738,,,,,,,,,,,,,,,,,,,,,,,,,,0,0,0,0,0
0.7142,1783968423.4458,1,0,5.5000,-0.0000,1.42244,0.00071,-2.63053,1.05907,1.57080,0.11675,-0.12764,-0.48152,0.03738,,,,,,,,,,,,,,,,,,,,,,,,,,0,0,0,0,0
0.7268,1783968423.4584,1,1,5.5000,-0.0000,1.42244,0.00071,-2.63053,1.05907,1.57080,0.11675,-0.12764,-0.48152,0.03738,,,,,,,,,,,,,,,,,,,,,,,,,,0,0,0,0,0
0.7353,1783968423.4669,1,1,5.5000,-0.0000,1.42244,0.00071,-2.63053,1.05907,1.57080,0.11675,-0.12764,-0.48152,0.03738,,,,,,,,,,,,,,,,,,,,,,,,,,0,0,0,0,0
0.7425,1783968423.4741,1,1,5.5000,-0.0000,1.42244,0.00071,-2.63053,1.05907,1.57080,0.11675,-0.12764,-0.48152,0.03738,,,,,,,,,,,,,,,,,,,,,,,,,,0,0,0,0,0
0.7561,1783968423.4877,1,1,5.5000,-0.0000,1.42244,0.00071,-2.63053,1.05907,1.57080,0.11675,-0.12764,-0.48152,0.03738,,,,,,,,,,,,,,,,,,,,,,,,,,0,0,0,0,0
0.7628,1783968423.4944,1,1,5.5000,-0.0000,1.42244,0.00071,-2.63053,1.05907,1.57080,0.11675,-0.12764,-0.48152,0.03738,,,,,,,,,,,,,,,,,,,,,,,,,,0,0,0,0,0
0.7632,1783968423.4948,1,1,5.5000,-0.0000,1.42244,0.00071,-2.63053,1.05907,1.57080,0.11675,-0.12764,-0.48152,0.03738,,,,,,,,,,,,,,,,,,,,,,,,,,0,0,0,0,0
0.7759,1783968423.5075,1,1,5.5000,-0.0000,1.42244,0.00071,-2.63053,1.05907,1.57080,0.11675,-0.12764,-0.48152,0.03738,,,,,,,,,,,,,,,,,,,,,,,,,,0,0,0,0,0
0.7921,1783968423.5237,1,1,5.5000,-0.0000,1.42244,0.00071,-2.63053,1.05907,1.57080,0.11675,-0.12764,-0.48152,0.03738,,,,,,,,,,,,,,,,,,,,,,,,,,0,0,0,0,0
0.7974,1783968423.5290,1,1,5.5000,-0.0000,1.42244,0.00071,-2.63053,1.05907,1.57080,0.11675,-0.12764,-0.48152,0.03738,,,,,,,,,,,,,,,,,,,,,,,,,,0,0,0,0,0
0.8083,1783968423.5399,1,1,5.5000,-0.0000,1.42244,0.00071,-2.63053,1.05907,1.57080,0.11675,-0.12764,-0.48152,0.03738,,,,,,,,,,,,,,,,,,,,,,,,,,0,0,0,0,0
0.8086,1783968423.5402,1,1,5.5000,-0.0000,1.42244,0.00071,-2.63053,1.05907,1.57080,0.11675,-0.12764,-0.48152,0.03738,,,,,,,,,,,,,,,,,,,,,,,,,,0,0,0,0,0
0.8165,1783968423.5481,1,1,5.5000,-0.0000,1.42244,0.00071,-2.63053,1.05907,1.57080,0.11675,-0.12764,-0.48152,0.03738,,,,,,,,,,,,,,,,,,,,,,,,,,0,0,0,0,0
0.8241,1783968423.5557,1,1,5.5000,-0.0000,1.42244,0.00071,-2.63053,1.05907,1.57080,0.11675,-0.12764,-0.48152,0.03738,,,,,,,,,,,,,,,,,,,,,,,,,,0,0,0,0,0
0.8243,1783968423.5559,1,1,5.5000,-0.0000,1.42244,0.00071,-2.63053,1.05907,1.57080,0.11675,-0.12764,-0.48152,0.03738,,,,,,,,,,,,,,,,,,,,,,,,,,0,0,0,0,0
0.8362,1783968423.5678,1,1,5.5000,-0.0000,1.42244,0.00071,-2.63053,1.05907,1.57080,0.11675,-0.12764,-0.48152,0.03738,,,,,,,,,,,,,,,,,,,,,,,,,,0,0,0,0,0
0.8365,1783968423.5681,1,1,5.5000,-0.0000,1.42244,0.00071,-2.63053,1.05907,1.57080,0.11675,-0.12764,-0.48152,0.03738,,,,,,,,,,,,,,,,,,,,,,,,,,0,0,0,0,0
0.8436,1783968423.5752,1,1,5.5000,-0.0000,1.42244,0.00071,-2.63053,1.05907,1.57080,0.11675,-0.12764,-0.48152,0.03738,,,,,,,,,,,,,,,,,,,,,,,,,,0,0,0,0,0
0.8531,1783968423.5847,1,1,5.5000,-0.0000,1.42244,0.00071,-2.63053,1.05907,1.57080,0.11675,-0.12764,-0.48152,0.03738,,,,,,,,,,,,,,,,,,,,,,,,,,0,0,0,0,0
0.8632,1783968423.5948,1,1,5.5000,-0.0000,1.42244,0.00071,-2.63053,1.05907,1.57080,0.11675,-0.12764,-0.48152,0.03738,,,,,,,,,,,,,,,,,,,,,,,,,,0,0,0,0,0
0.8723,1783968423.6039,1,1,5.5000,-0.0000,1.42244,0.00071,-2.63053,1.05907,1.57080,0.11675,-0.12764,-0.48152,0.03738,,,,,,,,,,,,,,,,,,,,,,,,,,0,0,0,0,0
0.8861,1783968423.6177,1,1,5.5000,-0.0000,1.42244,0.00071,-2.63053,1.05907,1.57080,0.11675,-0.12764,-0.48152,0.03738,,,,,,,,,,,,,,,,,,,,,,,,,,0,0,0,0,0
0.8929,1783968423.6245,1,1,5.5000,-0.0000,1.42244,0.00071,-2.63053,1.05907,1.57080,0.11675,-0.12764,-0.48152,0.03738,,,,,,,,,,,,,,,,,,,,,,,,,,0,0,0,0,0
0.9192,1783968423.6508,1,1,5.5000,-0.0000,1.42244,0.00071,-2.63053,1.05907,1.57080,0.11675,-0.12764,-0.48152,0.03738,,,,,,,,,,,,,,,,,,,,,,,,,,0,0,0,0,0
0.9197,1783968423.6513,1,1,5.5000,-0.0000,1.42244,0.00071,-2.63053,1.05907,1.57080,0.11675,-0.12764,-0.48152,0.03738,,,,,,,,,,,,,,,,,,,,,,,,,,0,0,0,0,0
0.9201,1783968423.6517,1,1,5.5000,-0.0000,1.42244,0.00071,-2.63053,1.05907,1.57080,0.11675,-0.12764,-0.48152,0.03738,,,,,,,,,,,,,,,,,,,,,,,,,,0,0,0,0,0
0.9221,1783968423.6537,1,1,5.5000,-0.0000,1.42244,0.00071,-2.63053,1.05907,1.57080,0.11675,-0.12764,-0.48152,0.03738,,,,,,,,,,,,,,,,,,,,,,,,,,0,0,0,0,0
0.9224,1783968423.6540,1,1,5.5000,-0.0000,1.42244,0.00071,-2.63053,1.05907,1.57080,0.11675,-0.12764,-0.48152,0.03738,,,,,,,,,,,,,,,,,,,,,,,,,,0,0,0,0,0
0.9395,1783968423.6711,1,1,5.5000,-0.0000,1.42244,0.00071,-2.63053,1.05907,1.57080,0.11675,-0.12764,-0.48152,0.03738,,,,,,,,,,,,,,,,,,,,,,,,,,0,0,0,0,0
0.9404,1783968423.6720,1,1,5.5000,-0.0000,1.42244,0.00071,-2.63053,1.05907,1.57080,0.11675,-0.12764,-0.48152,0.03738,,,,,,,,,,,,,,,,,,,,,,,,,,0,0,0,0,0
0.9443,1783968423.6759,1,1,5.5000,-0.0000,1.42244,0.00071,-2.63053,1.05907,1.57080,0.11675,-0.12764,-0.48152,0.03738,,,,,,,,,,,,,,,,,,,,,,,,,,0,0,0,0,0
0.9558,1783968423.6874,1,1,5.5000,-0.0000,1.42244,0.00071,-2.63053,1.05907,1.57080,0.11675,-0.12764,-0.48152,0.03738,,,,,,,,,,,,,,,,,,,,,,,,,,0,0,0,0,0
0.9654,1783968423.6970,1,1,5.5000,-0.0000,1.42244,0.00071,-2.63053,1.05907,1.57080,0.11675,-0.12764,-0.48152,0.03738,,,,,,,,,,,,,,,,,,,,,,,,,,0,0,0,0,0
0.9766,1783968423.7082,1,1,5.5000,-0.0000,1.42244,0.00071,-2.63053,1.05907,1.57080,0.11675,-0.12764,-0.48152,0.03738,,,,,,,,,,,,,,,,,,,,,,,,,,0,0,0,0,0
0.9884,1783968423.7200,1,1,5.5000,-0.0000,1.42244,0.00071,-2.63053,1.05907,1.57080,0.11675,-0.12764,-0.48152,0.03738,,,,,,,,,,,,,,,,,,,,,,,,,,0,0,0,0,0
0.9934,1783968423.7250,1,1,5.5000,-0.0000,1.42244,0.00071,-2.63053,1.05907,1.57080,0.11675,-0.12764,-0.48152,0.03738,,,,,,,,,,,,,,,,,,,,,,,,,,0,0,0,0,0
1.0073,1783968423.7389,1,1,5.5000,-0.0000,1.42244,0.00071,-2.63053,1.05907,1.57080,0.11675,-0.12764,-0.48152,0.03738,,,,,,,,,,,,,,,,,,,,,,,,,,0,0,0,0,0
1.0273,1783968423.7589,1,1,5.5000,-0.0000,1.42244,0.00071,-2.63054,1.05907,1.57080,0.11675,-0.12764,-0.48152,0.03738,,,,,,,,,,,,,,,,,,,,,,,,,,0,0,0,0,0
1.0355,1783968423.7671,1,1,5.5000,-0.0000,1.42244,0.00070,-2.63055,1.05907,1.57080,0.11675,-0.12764,-0.48151,0.03737,,,,,,,,,,,,,,,,,,,,,,,,,,0,0,0,0,0
1.0384,1783968423.7700,1,1,5.5000,-0.0000,1.42244,0.00069,-2.63056,1.05907,1.57080,0.11675,-0.12764,-0.48150,0.03736,,,,,,,,,,,,,,,,,,,,,,,,,,0,0,0,0,0
1.0475,1783968423.7791,1,1,5.5000,-0.0000,1.42244,0.00068,-2.63058,1.05907,1.57080,0.11675,-0.12764,-0.48148,0.03734,,,,,,,,,,,,,,,,,,,,,,,,,,0,0,0,0,0
1.0666,1783968423.7982,1,1,5.5000,-0.0000,1.42244,0.00064,-2.63061,1.05908,1.57080,0.11675,-0.12764,-0.48146,0.03732,,,,,,,,,,,,,,,,,,,,,,,,,,0,0,0,0,0
1.0704,1783968423.8020,1,1,5.5000,-0.0000,1.42244,0.00063,-2.63062,1.05909,1.57080,0.11675,-0.12765,-0.48145,0.03731,,,,,,,,,,,,,,,,,,,,,,,,,,0,0,0,0,0
1.0838,1783968423.8154,1,1,5.5000,-0.0000,1.42244,0.00061,-2.63063,1.05910,1.57080,0.11675,-0.12765,-0.48145,0.03730,,,,,,,,,,,,,,,,,,,,,,,,,,0,0,0,0,0
1.0947,1783968423.8263,1,1,5.5000,-0.0000,1.42244,0.00055,-2.63066,1.05915,1.57080,0.11675,-0.12765,-0.48143,0.03726,,,,,,,,,,,,,,,,,,,,,,,,,,0,0,0,0,0
1.0966,1783968423.8282,1,1,5.5000,-0.0000,1.42244,0.00052,-2.63067,1.05917,1.57080,0.11675,-0.12765,-0.48142,0.03725,,,,,,,,,,,,,,,,,,,,,,,,,,0,0,0,0,0
1.0969,1783968423.8285,1,1,5.5000,-0.0000,1.42244,0.00052,-2.63067,1.05917,1.57080,0.11675,-0.12765,-0.48142,0.03725,,,,,,,,,,,,,,,,,,,,,,,,,,0,0,0,0,0
1.1048,1783968423.8364,1,1,5.5000,-0.0000,1.42244,0.00049,-2.63069,1.05919,1.57080,0.11675,-0.12765,-0.48141,0.03723,,,,,,,,,,,,,,,,,,,,,,,,,,0,0,0,0,0
1.1051,1783968423.8367,1,1,5.5000,-0.0000,1.42244,0.00049,-2.63069,1.05919,1.57080,0.11675,-0.12765,-0.48141,0.03723,,,,,,,,,,,,,,,,,,,,,,,,,,0,0,0,0,0
1.1233,1783968423.8549,1,1,5.5000,-0.0000,1.42244,0.00042,-2.63070,1.05927,1.57080,0.11675,-0.12765,-0.48141,0.03720,,,,,,,,,,,,,,,,,,,,,,,,,,0,0,0,0,0
1.1270,1783968423.8586,1,1,5.5000,-0.0000,1.42244,0.00038,-2.63071,1.05931,1.57080,0.11675,-0.12765,-0.48140,0.03719,,,,,,,,,,,,,,,,,,,,,,,,,,0,0,0,0,0
1.1353,1783968423.8669,1,1,5.5000,-0.0000,1.42244,0.00029,-2.63073,1.05940,1.57080,0.11675,-0.12765,-0.48140,0.03716,,,,,,,,,,,,,,,,,,,,,,,,,,0,0,0,0,0
1.1486,1783968423.8802,1,1,5.5000,-0.0000,1.42244,0.00022,-2.63074,1.05948,1.57080,0.11675,-0.12765,-0.48140,0.03713,,,,,,,,,,,,,,,,,,,,,,,,,,0,0,0,0,0
1.1895,1783968423.9211,1,1,5.5000,-0.0000,1.42244,-0.00004,-2.63079,1.05981,1.57080,0.11675,-0.12765,-0.48141,0.03705,,,,,,,,,,,,,,,,,,,,,,,,,,0,0,0,0,0
1.2080,1783968423.9396,1,1,5.5000,-0.0000,1.42244,-0.00011,-2.63080,1.05989,1.57080,0.11675,-0.12765,-0.48142,0.03703,,,,,,,,,,,,,,,,,,,,,,,,,,0,0,0,0,0
1.2389,1783968423.9705,1,1,5.5000,-0.0000,1.42244,-0.00036,-2.63078,1.06023,1.57080,0.11675,-0.12764,-0.48148,0.03699,,,,,,,,,,,,,,,,,,,,,,,,,,0,0,0,0,0
1.2491,1783968423.9807,1,1,5.5000,-0.0000,1.42244,-0.00044,-2.63076,1.06035,1.57080,0.11675,-0.12764,-0.48151,0.03698,,,,,,,,,,,,,,,,,,,,,,,,,,0,0,0,0,0
1.2668,1783968423.9984,1,1,5.5000,-0.0000,1.42244,-0.00047,-2.63074,1.06039,1.57080,0.11675,-0.12763,-0.48154,0.03698,,,,,,,,,,,,,,,,,,,,,,,,,,0,0,0,0,0
1.2702,1783968424.0018,1,1,5.5000,-0.0000,1.42244,-0.00047,-2.63074,1.06039,1.57080,0.11675,-0.12763,-0.48154,0.03698,,,,,,,,,,,,,,,,,,,,,,,,,,0,0,0,0,0
1.2748,1783968424.0064,1,1,5.5000,-0.0000,1.42244,-0.00047,-2.63074,1.06039,1.57080,0.11675,-0.12763,-0.48154,0.03698,,,,,,,,,,,,,,,,,,,,,,,,,,0,0,0,0,0
1.2751,1783968424.0067,1,1,5.5000,-0.0000,1.42244,-0.00047,-2.63074,1.06039,1.57080,0.11675,-0.12763,-0.48154,0.03698,,,,,,,,,,,,,,,,,,,,,,,,,,0,0,0,0,0
1.2760,1783968424.0076,1,1,5.5000,-0.0000,1.42244,-0.00047,-2.63074,1.06039,1.57080,0.11675,-0.12763,-0.48154,0.03698,,,,,,,,,,,,,,,,,,,,,,,,,,0,0,0,0,0
1.2767,1783968424.0083,1,1,5.5000,-0.0000,1.42244,-0.00047,-2.63074,1.06039,1.57080,0.11675,-0.12763,-0.48154,0.03698,,,,,,,,,,,,,,,,,,,,,,,,,,0,0,0,0,0
1.2771,1783968424.0086,1,1,5.5000,-0.0000,1.42244,-0.00047,-2.63074,1.06039,1.57080,0.11675,-0.12763,-0.48154,0.03698,,,,,,,,,,,,,,,,,,,,,,,,,,0,0,0,0,0
1.2774,1783968424.0090,1,1,5.5000,-0.0000,1.42244,-0.00047,-2.63074,1.06039,1.57080,0.11675,-0.12763,-0.48154,0.03698,,,,,,,,,,,,,,,,,,,,,,,,,,0,0,0,0,0
1.2835,1783968424.0151,1,1,5.5000,-0.0000,1.42244,-0.00047,-2.63074,1.06039,1.57080,0.11675,-0.12763,-0.48154,0.03698,,,,,,,,,,,,,,,,,,,,,,,,,,0,0,0,0,0
1.2839,1783968424.0155,1,1,5.5000,-0.0000,1.42244,-0.00047,-2.63074,1.06039,1.57080,0.11675,-0.12763,-0.48154,0.03698,,,,,,,,,,,,,,,,,,,,,,,,,,0,0,0,0,0
1.2853,1783968424.0169,1,1,5.5000,-0.0000,1.42244,-0.00047,-2.63074,1.06039,1.57080,0.11675,-0.12763,-0.48154,0.03698,,,,,,,,,,,,,,,,,,,,,,,,,,0,0,0,0,0
1.2888,1783968424.0204,1,1,5.5000,-0.0000,1.42244,-0.00047,-2.63074,1.06039,1.57080,0.11675,-0.12763,-0.48154,0.03698,,,,,,,,,,,,,,,,,,,,,,,,,,0,0,0,0,0
1.2943,1783968424.0259,1,1,5.5000,-0.0000,1.42244,-0.00047,-2.63074,1.06039,1.57080,0.11675,-0.12763,-0.48154,0.03698,,,,,,,,,,,,,,,,,,,,,,,,,,0,0,0,0,0
1.2997,1783968424.0313,1,1,5.5000,-0.0000,1.42244,-0.00047,-2.63074,1.06039,1.57080,0.11675,-0.12763,-0.48154,0.03698,,,,,,,,,,,,,,,,,,,,,,,,,,0,0,0,0,0
1.3001,1783968424.0317,1,1,5.5000,-0.0000,1.42244,-0.00047,-2.63074,1.06039,1.57080,0.11675,-0.12763,-0.48154,0.03698,,,,,,,,,,,,,,,,,,,,,,,,,,0,0,0,0,0
1.3030,1783968424.0346,1,1,5.5000,-0.0000,1.42244,-0.00047,-2.63074,1.06039,1.57080,0.11675,-0.12763,-0.48154,0.03698,,,,,,,,,,,,,,,,,,,,,,,,,,0,0,0,0,0
1.3033,1783968424.0349,1,1,5.5000,-0.0000,1.42244,-0.00047,-2.63074,1.06039,1.57080,0.11675,-0.12763,-0.48154,0.03698,,,,,,,,,,,,,,,,,,,,,,,,,,0,0,0,0,0
1.3088,1783968424.0404,1,1,5.5000,-0.0000,1.42244,-0.00047,-2.63074,1.06039,1.57080,0.11675,-0.12763,-0.48154,0.03698,,,,,,,,,,,,,,,,,,,,,,,,,,0,0,0,0,0
1.3156,1783968424.0472,1,1,5.5000,-0.0000,1.42244,-0.00047,-2.63074,1.06039,1.57080,0.11675,-0.12763,-0.48154,0.03698,,,,,,,,,,,,,,,,,,,,,,,,,,0,0,0,0,0
1.3166,1783968424.0482,1,1,5.5000,-0.0000,1.42244,-0.00047,-2.63074,1.06039,1.57080,0.11675,-0.12763,-0.48154,0.03698,,,,,,,,,,,,,,,,,,,,,,,,,,0,0,0,0,0
1.3336,1783968424.0652,1,1,5.5000,-0.0000,1.42244,-0.00047,-2.63074,1.06039,1.57080,0.11675,-0.12763,-0.48154,0.03698,,,,,,,,,,,,,,,,,,,,,,,,,,0,0,0,0,0
1.3350,1783968424.0665,1,1,5.5000,-0.0000,1.42244,-0.00047,-2.63074,1.06039,1.57080,0.11675,-0.12763,-0.48154,0.03698,,,,,,,,,,,,,,,,,,,,,,,,,,0,0,0,0,0
1.3354,1783968424.0670,1,1,5.5000,-0.0000,1.42244,-0.00047,-2.63074,1.06039,1.57080,0.11675,-0.12763,-0.48154,0.03698,,,,,,,,,,,,,,,,,,,,,,,,,,0,0,0,0,0
1.3451,1783968424.0767,1,1,5.5000,-0.0000,1.42244,-0.00047,-2.63074,1.06039,1.57080,0.11675,-0.12763,-0.48154,0.03698,,,,,,,,,,,,,,,,,,,,,,,,,,0,0,0,0,0
1.3454,1783968424.0770,1,1,5.5000,-0.0000,1.42244,-0.00047,-2.63074,1.06039,1.57080,0.11675,-0.12763,-0.48154,0.03698,,,,,,,,,,,,,,,,,,,,,,,,,,0,0,0,0,0
1.3550,1783968424.0866,1,1,5.5000,-0.0000,1.42244,-0.00047,-2.63074,1.06039,1.57080,0.11675,-0.12763,-0.48154,0.03698,,,,,,,,,,,,,,,,,,,,,,,,,,0,0,0,0,0
1.3554,1783968424.0870,1,1,5.5000,-0.0000,1.42244,-0.00047,-2.63074,1.06039,1.57080,0.11675,-0.12763,-0.48154,0.03698,,,,,,,,,,,,,,,,,,,,,,,,,,0,0,0,0,0
1.3747,1783968424.1063,1,1,5.5000,-0.0000,1.42244,-0.00047,-2.63074,1.06039,1.57080,0.11675,-0.12763,-0.48154,0.03698,,,,,,,,,,,,,,,,,,,,,,,,,,0,0,0,0,0
1.3778,1783968424.1094,1,1,5.5000,-0.0000,1.42244,-0.00047,-2.63074,1.06039,1.57080,0.11675,-0.12763,-0.48154,0.03698,,,,,,,,,,,,,,,,,,,,,,,,,,0,0,0,0,0
1.3782,1783968424.1097,1,1,5.5000,-0.0000,1.42244,-0.00047,-2.63074,1.06039,1.57080,0.11675,-0.12763,-0.48154,0.03698,,,,,,,,,,,,,,,,,,,,,,,,,,0,0,0,0,0
1.3848,1783968424.1164,1,1,5.5000,-0.0000,1.42244,-0.00047,-2.63074,1.06039,1.57080,0.11675,-0.12763,-0.48154,0.03698,,,,,,,,,,,,,,,,,,,,,,,,,,0,0,0,0,0
1.3978,1783968424.1294,1,1,5.5000,-0.0000,1.42244,-0.00047,-2.63074,1.06039,1.57080,0.11675,-0.12763,-0.48154,0.03698,,,,,,,,,,,,,,,,,,,,,,,,,,0,0,0,0,0
1.4160,1783968424.1476,1,1,5.5000,-0.0000,1.42244,-0.00047,-2.63074,1.06039,1.57080,0.11675,-0.12763,-0.48154,0.03698,,,,,,,,,,,,,,,,,,,,,,,,,,0,0,0,0,0
1.4309,1783968424.1625,1,1,5.5000,-0.0000,1.42244,-0.00047,-2.63074,1.06039,1.57080,0.11675,-0.12763,-0.48154,0.03698,,,,,,,,,,,,,,,,,,,,,,,,,,0,0,0,0,0
1.4327,1783968424.1643,1,1,5.5000,-0.0000,1.42244,-0.00047,-2.63074,1.06039,1.57080,0.11675,-0.12763,-0.48154,0.03698,,,,,,,,,,,,,,,,,,,,,,,,,,0,0,0,0,0
1.4331,1783968424.1647,1,1,5.5000,-0.0000,1.42244,-0.00047,-2.63074,1.06039,1.57080,0.11675,-0.12763,-0.48154,0.03698,,,,,,,,,,,,,,,,,,,,,,,,,,0,0,0,0,0
1.4358,1783968424.1674,1,1,5.5000,-0.0000,1.42244,-0.00047,-2.63074,1.06039,1.57080,0.11675,-0.12763,-0.48154,0.03698,,,,,,,,,,,,,,,,,,,,,,,,,,0,0,0,0,0
1.4361,1783968424.1677,1,1,5.5000,-0.0000,1.42244,-0.00047,-2.63074,1.06039,1.57080,0.11675,-0.12763,-0.48154,0.03698,,,,,,,,,,,,,,,,,,,,,,,,,,0,0,0,0,0
1.4439,1783968424.1755,1,1,5.5000,-0.0000,1.42244,-0.00047,-2.63074,1.06040,1.57080,0.11675,-0.12763,-0.48153,0.03698,,,,,,,,,,,,,,,,,,,,,,,,,,0,0,0,0,0
1.4567,1783968424.1882,1,1,5.5000,-0.0000,1.42244,-0.00049,-2.63078,1.06046,1.57080,0.11675,-0.12763,-0.48151,0.03696,,,,,,,,,,,,,,,,,,,,,,,,,,0,0,0,0,0
1.4660,1783968424.1976,1,1,5.5000,-0.0000,1.42244,-0.00050,-2.63080,1.06048,1.57080,0.11675,-0.12764,-0.48151,0.03696,,,,,,,,,,,,,,,,,,,,,,,,,,0,0,0,0,0
1.4662,1783968424.1978,1,1,5.5000,-0.0000,1.42244,-0.00050,-2.63080,1.06048,1.57080,0.11675,-0.12764,-0.48151,0.03696,,,,,,,,,,,,,,,,,,,,,,,,,,0,0,0,0,0
1.4759,1783968424.2075,1,1,5.5000,-0.0000,1.42244,-0.00051,-2.63081,1.06049,1.57080,0.11675,-0.12764,-0.48150,0.03695,,,,,,,,,,,,,,,,,,,,,,,,,,0,0,0,0,0
1.4764,1783968424.2080,1,1,5.5000,-0.0000,1.42244,-0.00051,-2.63081,1.06049,1.57080,0.11675,-0.12764,-0.48150,0.03695,,,,,,,,,,,,,,,,,,,,,,,,,,0,0,0,0,0
1.4832,1783968424.2148,1,1,5.5000,-0.0000,1.42244,-0.00054,-2.63083,1.06053,1.57080,0.11675,-0.12764,-0.48149,0.03693,,,,,,,,,,,,,,,,,,,,,,,,,,0,0,0,0,0
1.4836,1783968424.2152,1,1,5.5000,-0.0000,1.42244,-0.00054,-2.63083,1.06053,1.57080,0.11675,-0.12764,-0.48149,0.03693,,,,,,,,,,,,,,,,,,,,,,,,,,0,0,0,0,0
1.4947,1783968424.2263,1,1,5.5000,-0.0000,1.42244,-0.00060,-2.63089,1.06061,1.57080,0.11675,-0.12764,-0.48146,0.03690,,,,,,,,,,,,,,,,,,,,,,,,,,0,0,0,0,0
1.5088,1783968424.2404,1,1,5.5000,-0.0000,1.42244,-0.00063,-2.63090,1.06065,1.57080,0.11675,-0.12764,-0.48146,0.03688,,,,,,,,,,,,,,,,,,,,,,,,,,0,0,0,0,0
1.5141,1783968424.2457,1,1,5.5000,-0.0000,1.42244,-0.00065,-2.63091,1.06068,1.57080,0.11675,-0.12764,-0.48146,0.03688,,,,,,,,,,,,,,,,,,,,,,,,,,0,0,0,0,0
1.5144,1783968424.2460,1,1,5.5000,-0.0000,1.42244,-0.00065,-2.63091,1.06068,1.57080,0.11675,-0.12764,-0.48146,0.03688,,,,,,,,,,,,,,,,,,,,,,,,,,0,0,0,0,0
1.5249,1783968424.2565,1,1,5.5000,-0.0000,1.42244,-0.00070,-2.63094,1.06075,1.57080,0.11675,-0.12764,-0.48145,0.03685,,,,,,,,,,,,,,,,,,,,,,,,,,0,0,0,0,0
1.5358,1783968424.2674,1,1,5.5000,-0.0000,1.42244,-0.00073,-2.63094,1.06078,1.57080,0.11675,-0.12764,-0.48145,0.03684,,,,,,,,,,,,,,,,,,,,,,,,,,0,0,0,0,0
1.5419,1783968424.2735,1,1,5.5000,-0.0000,1.42244,-0.00078,-2.63095,1.06086,1.57080,0.11675,-0.12764,-0.48145,0.03683,,,,,,,,,,,,,,,,,,,,,,,,,,0,0,0,0,0
1.5555,1783968424.2871,1,1,5.5000,-0.0000,1.42244,-0.00092,-2.63099,1.06103,1.57080,0.11675,-0.12764,-0.48145,0.03678,,,,,,,,,,,,,,,,,,,,,,,,,,0,0,0,0,0
1.5677,1783968424.2993,1,1,5.5000,-0.0000,1.42244,-0.00094,-2.63099,1.06106,1.57080,0.11675,-0.12764,-0.48145,0.03677,,,,,,,,,,,,,,,,,,,,,,,,,,0,0,0,0,0
1.5747,1783968424.3063,1,1,5.5000,-0.0000,1.42244,-0.00101,-2.63100,1.06114,1.57080,0.11675,-0.12764,-0.48145,0.03675,,,,,,,,,,,,,,,,,,,,,,,,,,0,0,0,0,0
1.5850,1783968424.3166,1,1,5.5000,-0.0000,1.42244,-0.00115,-2.63103,1.06131,1.57080,0.11675,-0.12764,-0.48145,0.03671,,,,,,,,,,,,,,,,,,,,,,,,,,0,0,0,0,0
1.6088,1783968424.3404,1,1,5.5000,-0.0000,1.42244,-0.00125,-2.63105,1.06144,1.57080,0.11675,-0.12764,-0.48146,0.03667,,,,,,,,,,,,,,,,,,,,,,,,,,0,0,0,0,0
1.6168,1783968424.3484,1,1,5.5000,-0.0000,1.42244,-0.00133,-2.63106,1.06154,1.57080,0.11675,-0.12764,-0.48147,0.03665,,,,,,,,,,,,,,,,,,,,,,,,,,0,0,0,0,0
1.6171,1783968424.3487,1,1,5.5000,-0.0000,1.42244,-0.00133,-2.63106,1.06154,1.57080,0.11675,-0.12764,-0.48147,0.03665,,,,,,,,,,,,,,,,,,,,,,,,,,0,0,0,0,0
1.6259,1783968424.3575,1,1,5.5000,-0.0000,1.42244,-0.00142,-2.63107,1.06166,1.57080,0.11675,-0.12764,-0.48148,0.03662,,,,,,,,,,,,,,,,,,,,,,,,,,0,0,0,0,0
1.6261,1783968424.3577,1,1,5.5000,-0.0000,1.42244,-0.00142,-2.63107,1.06166,1.57080,0.11675,-0.12764,-0.48148,0.03662,,,,,,,,,,,,,,,,,,,,,,,,,,0,0,0,0,0
1.6360,1783968424.3676,1,1,5.5000,-0.0000,1.42244,-0.00151,-2.63108,1.06177,1.57080,0.11675,-0.12764,-0.48148,0.03660,,,,,,,,,,,,,,,,,,,,,,,,,,0,0,0,0,0
1.6391,1783968424.3707,1,1,5.5000,-0.0000,1.42244,-0.00155,-2.63108,1.06182,1.57080,0.11675,-0.12764,-0.48149,0.03659,,,,,,,,,,,,,,,,,,,,,,,,,,0,0,0,0,0
1.6441,1783968424.3757,1,1,5.5000,-0.0000,1.42244,-0.00158,-2.63108,1.06186,1.57080,0.11675,-0.12764,-0.48149,0.03658,,,,,,,,,,,,,,,,,,,,,,,,,,0,0,0,0,0
1.6447,1783968424.3763,1,1,5.5000,-0.0000,1.42244,-0.00161,-2.63108,1.06190,1.57080,0.11675,-0.12764,-0.48150,0.03658,,,,,,,,,,,,,,,,,,,,,,,,,,0,0,0,0,0
1.6529,1783968424.3845,1,1,5.5000,-0.0000,1.42244,-0.00163,-2.63108,1.06193,1.57080,0.11675,-0.12763,-0.48150,0.03657,,,,,,,,,,,,,,,,,,,,,,,,,,0,0,0,0,0
1.6532,1783968424.3848,1,1,5.5000,-0.0000,1.42244,-0.00163,-2.63108,1.06193,1.57080,0.11675,-0.12763,-0.48150,0.03657,,,,,,,,,,,,,,,,,,,,,,,,,,0,0,0,0,0
1.6633,1783968424.3949,1,1,5.5000,-0.0000,1.42244,-0.00163,-2.63108,1.06193,1.57080,0.11675,-0.12763,-0.48150,0.03657,,,,,,,,,,,,,,,,,,,,,,,,,,0,0,0,0,0
1.6881,1783968424.4197,1,1,5.5000,-0.0000,1.42244,-0.00163,-2.63108,1.06193,1.57080,0.11675,-0.12763,-0.48150,0.03657,,,,,,,,,,,,,,,,,,,,,,,,,,0,0,0,0,0
1.6899,1783968424.4215,1,1,5.5000,-0.0000,1.42244,-0.00163,-2.63108,1.06193,1.57080,0.11675,-0.12763,-0.48150,0.03657,,,,,,,,,,,,,,,,,,,,,,,,,,0,0,0,0,0
1.6941,1783968424.4257,1,1,5.5000,-0.0000,1.42244,-0.00163,-2.63108,1.06193,1.57080,0.11675,-0.12763,-0.48150,0.03657,,,,,,,,,,,,,,,,,,,,,,,,,,0,0,0,0,0
1.7049,1783968424.4365,1,1,5.5000,-0.0000,1.42244,-0.00163,-2.63108,1.06193,1.57080,0.11675,-0.12763,-0.48150,0.03657,,,,,,,,,,,,,,,,,,,,,,,,,,0,0,0,0,0
1.7210,1783968424.4526,1,1,5.5000,-0.0000,1.42244,-0.00163,-2.63108,1.06193,1.57080,0.11675,-0.12763,-0.48150,0.03657,,,,,,,,,,,,,,,,,,,,,,,,,,0,0,0,0,0
1.7440,1783968424.4756,1,1,5.5000,-0.0000,1.42244,-0.00163,-2.63108,1.06193,1.57080,0.11675,-0.12763,-0.48150,0.03657,,,,,,,,,,,,,,,,,,,,,,,,,,0,0,0,0,0
1.7500,1783968424.4815,1,1,5.5000,-0.0000,1.42244,-0.00163,-2.63108,1.06193,1.57080,0.11675,-0.12763,-0.48150,0.03657,,,,,,,,,,,,,,,,,,,,,,,,,,0,0,0,0,0
1.7502,1783968424.4818,1,1,5.5000,-0.0000,1.42244,-0.00163,-2.63108,1.06193,1.57080,0.11675,-0.12763,-0.48150,0.03657,,,,,,,,,,,,,,,,,,,,,,,,,,0,0,0,0,0
1.7593,1783968424.4909,1,1,5.5000,-0.0000,1.42244,-0.00163,-2.63108,1.06193,1.57080,0.11675,-0.12763,-0.48150,0.03657,,,,,,,,,,,,,,,,,,,,,,,,,,0,0,0,0,0
1.8061,1783968424.5377,1,1,5.5000,-0.0000,1.42244,-0.00163,-2.63108,1.06193,1.57080,0.11675,-0.12763,-0.48150,0.03657,,,,,,,,,,,,,,,,,,,,,,,,,,0,0,0,0,0
1.8146,1783968424.5462,1,1,5.5000,-0.0000,1.42244,-0.00163,-2.63108,1.06193,1.57080,0.11675,-0.12763,-0.48150,0.03657,,,,,,,,,,,,,,,,,,,,,,,,,,0,0,0,0,0
1.8293,1783968424.5609,1,1,5.5000,-0.0000,1.42244,-0.00163,-2.63108,1.06193,1.57080,0.11675,-0.12763,-0.48150,0.03657,,,,,,,,,,,,,,,,,,,,,,,,,,0,0,0,0,0
1.8488,1783968424.5804,1,1,5.5000,-0.0000,1.42244,-0.00163,-2.63108,1.06193,1.57080,0.11675,-0.12763,-0.48150,0.03657,,,,,,,,,,,,,,,,,,,,,,,,,,0,0,0,0,0
1.8492,1783968424.5808,1,1,5.5000,-0.0000,1.42244,-0.00163,-2.63108,1.06193,1.57080,0.11675,-0.12763,-0.48150,0.03657,,,,,,,,,,,,,,,,,,,,,,,,,,0,0,0,0,0
1.8568,1783968424.5884,1,1,5.5000,-0.0000,1.42244,-0.00163,-2.63108,1.06193,1.57080,0.11675,-0.12763,-0.48150,0.03657,,,,,,,,,,,,,,,,,,,,,,,,,,0,0,0,0,0
1.8660,1783968424.5975,1,1,5.5000,-0.0000,1.42244,-0.00164,-2.63108,1.06194,1.57080,0.11675,-0.12763,-0.48150,0.03657,,,,,,,,,,,,,,,,,,,,,,,,,,0,0,0,0,0
1.8663,1783968424.5979,1,1,5.5000,-0.0000,1.42244,-0.00164,-2.63108,1.06194,1.57080,0.11675,-0.12763,-0.48150,0.03657,,,,,,,,,,,,,,,,,,,,,,,,,,0,0,0,0,0
1.8701,1783968424.6017,1,1,5.5000,-0.0000,1.42244,-0.00164,-2.63109,1.06195,1.57080,0.11675,-0.12763,-0.48150,0.03657,,,,,,,,,,,,,,,,,,,,,,,,,,0,0,0,0,0
1.8704,1783968424.6020,1,1,5.5000,-0.0000,1.42244,-0.00164,-2.63109,1.06195,1.57080,0.11675,-0.12763,-0.48150,0.03657,,,,,,,,,,,,,,,,,,,,,,,,,,0,0,0,0,0
1.8872,1783968424.6188,1,1,5.5000,-0.0000,1.42244,-0.00166,-2.63110,1.06197,1.57080,0.11675,-0.12763,-0.48150,0.03656,,,,,,,,,,,,,,,,,,,,,,,,,,0,0,0,0,0
1.8875,1783968424.6191,1,1,5.5000,-0.0000,1.42244,-0.00166,-2.63110,1.06197,1.57080,0.11675,-0.12763,-0.48150,0.03656,,,,,,,,,,,,,,,,,,,,,,,,,,0,0,0,0,0
1.8877,1783968424.6193,1,1,5.5000,-0.0000,1.42244,-0.00166,-2.63110,1.06197,1.57080,0.11675,-0.12763,-0.48150,0.03656,,,,,,,,,,,,,,,,,,,,,,,,,,0,0,0,0,0
1.8881,1783968424.6197,1,1,5.5000,-0.0000,1.42244,-0.00166,-2.63110,1.06197,1.57080,0.11675,-0.12763,-0.48150,0.03656,,,,,,,,,,,,,,,,,,,,,,,,,,0,0,0,0,0
1.8885,1783968424.6200,1,1,5.5000,-0.0000,1.42244,-0.00166,-2.63110,1.06197,1.57080,0.11675,-0.12763,-0.48150,0.03656,,,,,,,,,,,,,,,,,,,,,,,,,,0,0,0,0,0
1.8889,1783968424.6205,1,1,5.5000,-0.0000,1.42244,-0.00167,-2.63110,1.06198,1.57080,0.11675,-0.12764,-0.48150,0.03655,,,,,,,,,,,,,,,,,,,,,,,,,,0,0,0,0,0
1.8897,1783968424.6213,1,1,5.5000,-0.0000,1.42244,-0.00167,-2.63110,1.06198,1.57080,0.11675,-0.12764,-0.48150,0.03655,,,,,,,,,,,,,,,,,,,,,,,,,,0,0,0,0,0
1.8901,1783968424.6217,1,1,5.5000,-0.0000,1.42244,-0.00167,-2.63110,1.06198,1.57080,0.11675,-0.12764,-0.48150,0.03655,,,,,,,,,,,,,,,,,,,,,,,,,,0,0,0,0,0
1.8977,1783968424.6293,1,1,5.5000,-0.0000,1.42243,-0.00170,-2.63113,1.06201,1.57080,0.11675,-0.12764,-0.48148,0.03654,,,,,,,,,,,,,,,,,,,,,,,,,,0,0,0,0,0
1.8983,1783968424.6299,1,1,5.5000,-0.0000,1.42243,-0.00170,-2.63113,1.06201,1.57080,0.11675,-0.12764,-0.48148,0.03654,,,,,,,,,,,,,,,,,,,,,,,,,,0,0,0,0,0
1.8986,1783968424.6302,1,1,5.5000,-0.0000,1.42243,-0.00170,-2.63113,1.06201,1.57080,0.11675,-0.12764,-0.48148,0.03654,,,,,,,,,,,,,,,,,,,,,,,,,,0,0,0,0,0
1.8996,1783968424.6312,1,1,5.5000,-0.0000,1.42243,-0.00170,-2.63113,1.06201,1.57080,0.11675,-0.12764,-0.48148,0.03654,,,,,,,,,,,,,,,,,,,,,,,,,,0,0,0,0,0
1.9049,1783968424.6365,1,1,5.5000,-0.0000,1.42243,-0.00174,-2.63116,1.06206,1.57080,0.11675,-0.12764,-0.48146,0.03651,,,,,,,,,,,,,,,,,,,,,,,,,,0,0,0,0,0
1.9052,1783968424.6368,1,1,5.5000,-0.0000,1.42243,-0.00174,-2.63116,1.06206,1.57080,0.11675,-0.12764,-0.48146,0.03651,,,,,,,,,,,,,,,,,,,,,,,,,,0,0,0,0,0
1.9101,1783968424.6417,1,1,5.5000,-0.0000,1.42243,-0.00177,-2.63118,1.06209,1.57080,0.11675,-0.12764,-0.48146,0.03650,,,,,,,,,,,,,,,,,,,,,,,,,,0,0,0,0,0
1.9137,1783968424.6453,1,1,5.5000,-0.0000,1.42243,-0.00179,-2.63120,1.06212,1.57080,0.11675,-0.12764,-0.48145,0.03648,,,,,,,,,,,,,,,,,,,,,,,,,,0,0,0,0,0
1.9139,1783968424.6455,1,1,5.5000,-0.0000,1.42243,-0.00179,-2.63120,1.06212,1.57080,0.11675,-0.12764,-0.48145,0.03648,,,,,,,,,,,,,,,,,,,,,,,,,,0,0,0,0,0
1.9237,1783968424.6553,1,1,5.5000,-0.0000,1.42243,-0.00179,-2.63120,1.06213,1.57080,0.11675,-0.12764,-0.48144,0.03648,,,,,,,,,,,,,,,,,,,,,,,,,,0,0,0,0,0
1.9424,1783968424.6739,1,1,5.5000,-0.0000,1.42243,-0.00188,-2.63123,1.06223,1.57080,0.11675,-0.12764,-0.48144,0.03644,,,,,,,,,,,,,,,,,,,,,,,,,,0,0,0,0,0
1.9463,1783968424.6779,1,1,5.5000,-0.0000,1.42243,-0.00191,-2.63124,1.06227,1.57080,0.11675,-0.12764,-0.48143,0.03643,,,,,,,,,,,,,,,,,,,,,,,,,,0,0,0,0,0
1.9467,1783968424.6782,1,1,5.5000,-0.0000,1.42243,-0.00191,-2.63124,1.06227,1.57080,0.11675,-0.12764,-0.48143,0.03643,,,,,,,,,,,,,,,,,,,,,,,,,,0,0,0,0,0
1.9520,1783968424.6836,1,1,5.5000,-0.0000,1.42243,-0.00191,-2.63124,1.06227,1.57080,0.11675,-0.12764,-0.48143,0.03643,,,,,,,,,,,,,,,,,,,,,,,,,,0,0,0,0,0
1.9528,1783968424.6844,1,1,5.5000,-0.0000,1.42243,-0.00192,-2.63124,1.06227,1.57080,0.11675,-0.12764,-0.48143,0.03643,,,,,,,,,,,,,,,,,,,,,,,,,,0,0,0,0,0
1.9649,1783968424.6965,1,1,5.5000,-0.0000,1.42243,-0.00198,-2.63125,1.06235,1.57080,0.11675,-0.12764,-0.48144,0.03641,,,,,,,,,,,,,,,,,,,,,,,,,,0,0,0,0,0
1.9653,1783968424.6969,1,1,5.5000,-0.0000,1.42243,-0.00198,-2.63125,1.06235,1.57080,0.11675,-0.12764,-0.48144,0.03641,,,,,,,,,,,,,,,,,,,,,,,,,,0,0,0,0,0
1.9801,1783968424.7117,1,1,5.5000,-0.0000,1.42243,-0.00202,-2.63126,1.06241,1.57080,0.11675,-0.12764,-0.48144,0.03640,,,,,,,,,,,,,,,,,,,,,,,,,,0,0,0,0,0
1.9870,1783968424.7186,1,1,5.5000,-0.0000,1.42243,-0.00208,-2.63126,1.06247,1.57080,0.11675,-0.12764,-0.48144,0.03638,,,,,,,,,,,,,,,,,,,,,,,,,,0,0,0,0,0
1.9935,1783968424.7251,1,1,5.5000,-0.0000,1.42243,-0.00216,-2.63128,1.06257,1.57080,0.11675,-0.12764,-0.48145,0.03635,,,,,,,,,,,,,,,,,,,,,,,,,,0,0,0,0,0
2.0067,1783968424.7383,1,1,5.5000,-0.0000,1.42243,-0.00228,-2.63129,1.06271,1.57080,0.11675,-0.12764,-0.48145,0.03632,,,,,,,,,,,,,,,,,,,,,,,,,,0,0,0,0,0
2.0192,1783968424.7508,1,1,5.5000,-0.0000,1.42243,-0.00232,-2.63130,1.06276,1.57080,0.11675,-0.12764,-0.48145,0.03631,,,,,,,,,,,,,,,,,,,,,,,,,,0,0,0,0,0
2.0363,1783968424.7679,1,1,5.5000,-0.0000,1.42243,-0.00248,-2.63132,1.06296,1.57080,0.11675,-0.12764,-0.48147,0.03626,,,,,,,,,,,,,,,,,,,,,,,,,,0,0,0,0,0
2.0381,1783968424.7697,1,1,5.5000,-0.0000,1.42243,-0.00253,-2.63132,1.06302,1.57080,0.11675,-0.12764,-0.48147,0.03625,,,,,,,,,,,,,,,,,,,,,,,,,,0,0,0,0,0
2.0463,1783968424.7779,1,1,5.5000,-0.0000,1.42243,-0.00262,-2.63134,1.06314,1.57080,0.11675,-0.12764,-0.48148,0.03622,,,,,,,,,,,,,,,,,,,,,,,,,,0,0,0,0,0
2.0536,1783968424.7852,1,1,5.5000,-0.0000,1.42243,-0.00271,-2.63134,1.06325,1.57080,0.11675,-0.12763,-0.48149,0.03620,,,,,,,,,,,,,,,,,,,,,,,,,,0,0,0,0,0
2.1202,1783968424.8518,1,1,5.5000,-0.0000,1.42243,-0.00280,-2.63135,1.06338,1.57080,0.11675,-0.12763,-0.48150,0.03617,,,,,,,,,,,,,,,,,,,,,,,,,,0,0,0,0,0
2.1587,1783968424.8903,1,1,5.5000,-0.0000,1.42243,-0.00280,-2.63135,1.06338,1.57080,0.11675,-0.12763,-0.48150,0.03617,,,,,,,,,,,,,,,,,,,,,,,,,,0,0,0,0,0
2.1704,1783968424.9020,1,1,5.5000,-0.0000,1.42243,-0.00280,-2.63135,1.06338,1.57080,0.11675,-0.12763,-0.48150,0.03617,,,,,,,,,,,,,,,,,,,,,,,,,,0,0,0,0,0
2.1749,1783968424.9065,1,1,5.5000,-0.0000,1.42243,-0.00280,-2.63135,1.06338,1.57080,0.11675,-0.12763,-0.48150,0.03617,,,,,,,,,,,,,,,,,,,,,,,,,,0,0,0,0,0
2.1962,1783968424.9278,1,1,5.5000,-0.0000,1.42243,-0.00280,-2.63135,1.06338,1.57080,0.11675,-0.12763,-0.48150,0.03617,,,,,,,,,,,,,,,,,,,,,,,,,,0,0,0,0,0
2.2041,1783968424.9357,1,1,5.5000,-0.0000,1.42243,-0.00280,-2.63135,1.06338,1.57080,0.11675,-0.12763,-0.48150,0.03617,,,,,,,,,,,,,,,,,,,,,,,,,,0,0,0,0,0
2.2100,1783968424.9416,1,1,5.5000,-0.0000,1.42243,-0.00280,-2.63135,1.06338,1.57080,0.11675,-0.12763,-0.48150,0.03617,,,,,,,,,,,,,,,,,,,,,,,,,,0,0,0,0,0
2.2129,1783968424.9445,1,1,5.5000,-0.0000,1.42243,-0.00280,-2.63135,1.06338,1.57080,0.11675,-0.12763,-0.48150,0.03617,,,,,,,,,,,,,,,,,,,,,,,,,,0,0,0,0,0
2.2157,1783968424.9473,1,1,5.5000,-0.0000,1.42243,-0.00280,-2.63135,1.06338,1.57080,0.11675,-0.12763,-0.48150,0.03617,,,,,,,,,,,,,,,,,,,,,,,,,,0,0,0,0,0
2.2160,1783968424.9476,1,1,5.5000,-0.0000,1.42243,-0.00280,-2.63135,1.06338,1.57080,0.11675,-0.12763,-0.48150,0.03617,,,,,,,,,,,,,,,,,,,,,,,,,,0,0,0,0,0
2.2230,1783968424.9546,1,1,5.5000,-0.0000,1.42243,-0.00280,-2.63135,1.06338,1.57080,0.11675,-0.12763,-0.48150,0.03617,,,,,,,,,,,,,,,,,,,,,,,,,,0,0,0,0,0
2.2253,1783968424.9569,1,1,5.5000,-0.0000,1.42243,-0.00280,-2.63135,1.06338,1.57080,0.11675,-0.12763,-0.48150,0.03617,,,,,,,,,,,,,,,,,,,,,,,,,,0,0,0,0,0
2.2330,1783968424.9646,1,1,5.5000,-0.0000,1.42243,-0.00280,-2.63135,1.06338,1.57080,0.11675,-0.12763,-0.48150,0.03617,,,,,,,,,,,,,,,,,,,,,,,,,,0,0,0,0,0
2.2334,1783968424.9649,1,1,5.5000,-0.0000,1.42243,-0.00280,-2.63135,1.06338,1.57080,0.11675,-0.12763,-0.48150,0.03617,,,,,,,,,,,,,,,,,,,,,,,,,,0,0,0,0,0
2.2533,1783968424.9849,1,1,5.5000,-0.0000,1.42243,-0.00280,-2.63135,1.06338,1.57080,0.11675,-0.12763,-0.48150,0.03617,,,,,,,,,,,,,,,,,,,,,,,,,,0,0,0,0,0
2.2661,1783968424.9977,1,1,5.5000,-0.0000,1.42243,-0.00280,-2.63135,1.06338,1.57080,0.11675,-0.12763,-0.48150,0.03617,,,,,,,,,,,,,,,,,,,,,,,,,,0,0,0,0,0
2.2681,1783968424.9997,1,1,5.5000,-0.0000,1.42243,-0.00280,-2.63135,1.06338,1.57080,0.11675,-0.12763,-0.48150,0.03617,,,,,,,,,,,,,,,,,,,,,,,,,,0,0,0,0,0
2.2684,1783968425.0000,1,1,5.5000,-0.0000,1.42243,-0.00280,-2.63135,1.06338,1.57080,0.11675,-0.12763,-0.48150,0.03617,,,,,,,,,,,,,,,,,,,,,,,,,,0,0,0,0,0
2.2702,1783968425.0018,1,1,5.5000,-0.0000,1.42243,-0.00280,-2.63135,1.06338,1.57080,0.11675,-0.12763,-0.48150,0.03617,,,,,,,,,,,,,,,,,,,,,,,,,,0,0,0,0,0
2.2704,1783968425.0020,1,1,5.5000,-0.0000,1.42243,-0.00280,-2.63135,1.06338,1.57080,0.11675,-0.12763,-0.48150,0.03617,,,,,,,,,,,,,,,,,,,,,,,,,,0,0,0,0,0
2.2752,1783968425.0068,1,1,5.5000,-0.0000,1.42243,-0.00280,-2.63135,1.06338,1.57080,0.11675,-0.12763,-0.48150,0.03617,,,,,,,,,,,,,,,,,,,,,,,,,,0,0,0,0,0
2.2756,1783968425.0072,1,1,5.5000,-0.0000,1.42243,-0.00280,-2.63135,1.06338,1.57080,0.11675,-0.12763,-0.48150,0.03617,,,,,,,,,,,,,,,,,,,,,,,,,,0,0,0,0,0
2.2866,1783968425.0182,1,1,5.5000,-0.0000,1.42243,-0.00281,-2.63135,1.06338,1.57080,0.11675,-0.12763,-0.48150,0.03617,,,,,,,,,,,,,,,,,,,,,,,,,,0,0,0,0,0
2.2989,1783968425.0305,1,1,5.5000,-0.0000,1.42243,-0.00283,-2.63136,1.06341,1.57080,0.11675,-0.12763,-0.48150,0.03617,,,,,,,,,,,,,,,,,,,,,,,,,,0,0,0,0,0
2.3005,1783968425.0321,1,1,5.5000,-0.0000,1.42243,-0.00283,-2.63136,1.06341,1.57080,0.11675,-0.12763,-0.48150,0.03617,,,,,,,,,,,,,,,,,,,,,,,,,,0,0,0,0,0
2.3010,1783968425.0326,1,1,5.5000,-0.0000,1.42243,-0.00284,-2.63136,1.06342,1.57080,0.11675,-0.12763,-0.48150,0.03616,,,,,,,,,,,,,,,,,,,,,,,,,,0,0,0,0,0
2.3073,1783968425.0389,1,1,5.5000,-0.0000,1.42243,-0.00285,-2.63137,1.06343,1.57080,0.11675,-0.12763,-0.48150,0.03616,,,,,,,,,,,,,,,,,,,,,,,,,,0,0,0,0,0
2.3184,1783968425.0500,1,1,5.5000,-0.0000,1.42243,-0.00286,-2.63137,1.06344,1.57080,0.11675,-0.12763,-0.48150,0.03615,,,,,,,,,,,,,,,,,,,,,,,,,,0,0,0,0,0
2.3330,1783968425.0646,1,1,5.5000,-0.0000,1.42243,-0.00290,-2.63140,1.06349,1.57080,0.11675,-0.12764,-0.48148,0.03613,,,,,,,,,,,,,,,,,,,,,,,,,,0,0,0,0,0
2.3638,1783968425.0954,1,1,5.5000,-0.0000,1.42243,-0.00305,-2.63146,1.06366,1.57080,0.11675,-0.12764,-0.48146,0.03606,,,,,,,,,,,,,,,,,,,,,,,,,,0,0,0,0,0
2.3668,1783968425.0984,1,1,5.5000,-0.0000,1.42243,-0.00305,-2.63146,1.06366,1.57080,0.11675,-0.12764,-0.48146,0.03606,,,,,,,,,,,,,,,,,,,,,,,,,,0,0,0,0,0
2.3776,1783968425.1092,1,1,5.5000,-0.0000,1.42243,-0.00309,-2.63147,1.06371,1.57080,0.11675,-0.12764,-0.48146,0.03605,,,,,,,,,,,,,,,,,,,,,,,,,,0,0,0,0,0
2.3969,1783968425.1285,1,1,5.5000,-0.0000,1.42243,-0.00324,-2.63151,1.06390,1.57080,0.11675,-0.12764,-0.48146,0.03600,,,,,,,,,,,,,,,,,,,,,,,,,,0,0,0,0,0
2.4001,1783968425.1317,1,1,5.5000,-0.0000,1.42243,-0.00324,-2.63151,1.06390,1.57080,0.11675,-0.12764,-0.48146,0.03600,,,,,,,,,,,,,,,,,,,,,,,,,,0,0,0,0,0
2.4103,1783968425.1419,1,1,5.5000,-0.0000,1.42243,-0.00329,-2.63152,1.06396,1.57080,0.11675,-0.12764,-0.48146,0.03598,,,,,,,,,,,,,,,,,,,,,,,,,,0,0,0,0,0
2.4275,1783968425.1591,1,1,5.5000,-0.0000,1.42243,-0.00338,-2.63153,1.06406,1.57080,0.11675,-0.12764,-0.48146,0.03595,,,,,,,,,,,,,,,,,,,,,,,,,,0,0,0,0,0
2.4291,1783968425.1607,1,1,5.5000,-0.0000,1.42243,-0.00340,-2.63154,1.06408,1.57080,0.11675,-0.12764,-0.48146,0.03594,,,,,,,,,,,,,,,,,,,,,,,,,,0,0,0,0,0
2.4375,1783968425.1691,1,1,5.5000,-0.0000,1.42243,-0.00346,-2.63155,1.06416,1.57080,0.11675,-0.12764,-0.48146,0.03592,,,,,,,,,,,,,,,,,,,,,,,,,,0,0,0,0,0
2.4386,1783968425.1702,1,1,5.5000,-0.0000,1.42243,-0.00346,-2.63155,1.06416,1.57080,0.11675,-0.12764,-0.48146,0.03592,,,,,,,,,,,,,,,,,,,,,,,,,,0,0,0,0,0
2.4389,1783968425.1705,1,1,5.5000,-0.0000,1.42243,-0.00346,-2.63155,1.06416,1.57080,0.11675,-0.12764,-0.48146,0.03592,,,,,,,,,,,,,,,,,,,,,,,,,,0,0,0,0,0
2.4392,1783968425.1708,1,1,5.5000,-0.0000,1.42243,-0.00346,-2.63155,1.06416,1.57080,0.11675,-0.12764,-0.48146,0.03592,,,,,,,,,,,,,,,,,,,,,,,,,,0,0,0,0,0
2.4462,1783968425.1778,1,1,5.5000,-0.0000,1.42243,-0.00356,-2.63156,1.06428,1.57080,0.11675,-0.12764,-0.48147,0.03590,,,,,,,,,,,,,,,,,,,,,,,,,,0,0,0,0,0
2.4569,1783968425.1885,1,1,5.5000,-0.0000,1.42243,-0.00372,-2.63158,1.06448,1.57080,0.11675,-0.12763,-0.48148,0.03585,,,,,,,,,,,,,,,,,,,,,,,,,,0,0,0,0,0
2.4572,1783968425.1888,1,1,5.5000,-0.0000,1.42243,-0.00372,-2.63158,1.06448,1.57080,0.11675,-0.12763,-0.48148,0.03585,,,,,,,,,,,,,,,,,,,,,,,,,,0,0,0,0,0
2.4642,1783968425.1958,1,1,5.5000,-0.0000,1.42243,-0.00378,-2.63159,1.06454,1.57080,0.11675,-0.12763,-0.48148,0.03583,,,,,,,,,,,,,,,,,,,,,,,,,,0,0,0,0,0
2.4657,1783968425.1973,1,1,5.5000,-0.0000,1.42243,-0.00383,-2.63160,1.06461,1.57080,0.11675,-0.12763,-0.48148,0.03581,,,,,,,,,,,,,,,,,,,,,,,,,,0,0,0,0,0
2.4660,1783968425.1976,1,1,5.5000,-0.0000,1.42243,-0.00383,-2.63160,1.06461,1.57080,0.11675,-0.12763,-0.48148,0.03581,,,,,,,,,,,,,,,,,,,,,,,,,,0,0,0,0,0
2.4678,1783968425.1994,1,1,5.5000,-0.0000,1.42243,-0.00383,-2.63160,1.06461,1.57080,0.11675,-0.12763,-0.48148,0.03581,,,,,,,,,,,,,,,,,,,,,,,,,,0,0,0,0,0
2.4681,1783968425.1997,1,1,5.5000,-0.0000,1.42243,-0.00383,-2.63160,1.06461,1.57080,0.11675,-0.12763,-0.48148,0.03581,,,,,,,,,,,,,,,,,,,,,,,,,,0,0,0,0,0
2.4704,1783968425.2020,1,1,5.5000,-0.0000,1.42243,-0.00387,-2.63160,1.06466,1.57080,0.11675,-0.12763,-0.48149,0.03580,,,,,,,,,,,,,,,,,,,,,,,,,,0,0,0,0,0
2.4708,1783968425.2024,1,1,5.5000,-0.0000,1.42243,-0.00387,-2.63160,1.06466,1.57080,0.11675,-0.12763,-0.48149,0.03580,,,,,,,,,,,,,,,,,,,,,,,,,,0,0,0,0,0
2.4773,1783968425.2089,1,1,5.5000,-0.0000,1.42243,-0.00395,-2.63161,1.06476,1.57080,0.11675,-0.12763,-0.48149,0.03578,,,,,,,,,,,,,,,,,,,,,,,,,,0,0,0,0,0
2.4782,1783968425.2098,1,1,5.5000,-0.0000,1.42243,-0.00395,-2.63161,1.06476,1.57080,0.11675,-0.12763,-0.48149,0.03578,,,,,,,,,,,,,,,,,,,,,,,,,,0,0,0,0,0
2.4785,1783968425.2101,1,1,5.5000,-0.0000,1.42243,-0.00395,-2.63161,1.06476,1.57080,0.11675,-0.12763,-0.48149,0.03578,,,,,,,,,,,,,,,,,,,,,,,,,,0,0,0,0,0
2.4829,1783968425.2145,1,1,5.5000,-0.0000,1.42243,-0.00397,-2.63161,1.06479,1.57080,0.11675,-0.12763,-0.48150,0.03577,,,,,,,,,,,,,,,,,,,,,,,,,,0,0,0,0,0
2.4833,1783968425.2149,1,1,5.5000,-0.0000,1.42243,-0.00397,-2.63161,1.06479,1.57080,0.11675,-0.12763,-0.48150,0.03577,,,,,,,,,,,,,,,,,,,,,,,,,,0,0,0,0,0
2.4970,1783968425.2286,1,1,5.5000,-0.0000,1.42243,-0.00397,-2.63161,1.06479,1.57080,0.11675,-0.12763,-0.48150,0.03577,,,,,,,,,,,,,,,,,,,,,,,,,,0,0,0,0,0
2.5058,1783968425.2374,1,1,5.5000,-0.0000,1.42243,-0.00397,-2.63161,1.06479,1.57080,0.11675,-0.12763,-0.48150,0.03577,,,,,,,,,,,,,,,,,,,,,,,,,,0,0,0,0,0
2.5063,1783968425.2379,1,1,5.5000,-0.0000,1.42243,-0.00397,-2.63161,1.06479,1.57080,0.11675,-0.12763,-0.48150,0.03577,,,,,,,,,,,,,,,,,,,,,,,,,,0,0,0,0,0
2.5182,1783968425.2498,1,1,5.5000,-0.0000,1.42243,-0.00397,-2.63161,1.06479,1.57080,0.11675,-0.12763,-0.48150,0.03577,,,,,,,,,,,,,,,,,,,,,,,,,,0,0,0,0,0
2.5331,1783968425.2647,1,1,5.5000,-0.0000,1.42243,-0.00397,-2.63161,1.06479,1.57080,0.11675,-0.12763,-0.48150,0.03577,,,,,,,,,,,,,,,,,,,,,,,,,,0,0,0,0,0
2.5390,1783968425.2706,1,1,5.5000,-0.0000,1.42243,-0.00397,-2.63161,1.06479,1.57080,0.11675,-0.12763,-0.48150,0.03577,,,,,,,,,,,,,,,,,,,,,,,,,,0,0,0,0,0
2.5456,1783968425.2772,1,1,5.5000,-0.0000,1.42243,-0.00397,-2.63161,1.06479,1.57080,0.11675,-0.12763,-0.48150,0.03577,,,,,,,,,,,,,,,,,,,,,,,,,,0,0,0,0,0
2.5662,1783968425.2978,1,1,5.5000,-0.0000,1.42243,-0.00397,-2.63161,1.06479,1.57080,0.11675,-0.12763,-0.48150,0.03577,,,,,,,,,,,,,,,,,,,,,,,,,,0,0,0,0,0
2.5674,1783968425.2990,1,1,5.5000,-0.0000,1.42243,-0.00397,-2.63161,1.06479,1.57080,0.11675,-0.12763,-0.48150,0.03577,,,,,,,,,,,,,,,,,,,,,,,,,,0,0,0,0,0
2.5676,1783968425.2992,1,1,5.5000,-0.0000,1.42243,-0.00397,-2.63161,1.06479,1.57080,0.11675,-0.12763,-0.48150,0.03577,,,,,,,,,,,,,,,,,,,,,,,,,,0,0,0,0,0
2.5743,1783968425.3059,1,1,5.5000,-0.0000,1.42243,-0.00397,-2.63161,1.06479,1.57080,0.11675,-0.12763,-0.48150,0.03577,,,,,,,,,,,,,,,,,,,,,,,,,,0,0,0,0,0
2.5837,1783968425.3153,1,1,5.5000,-0.0000,1.42243,-0.00397,-2.63161,1.06479,1.57080,0.11675,-0.12763,-0.48150,0.03577,,,,,,,,,,,,,,,,,,,,,,,,,,0,0,0,0,0
2.5841,1783968425.3157,1,1,5.5000,-0.0000,1.42243,-0.00397,-2.63161,1.06479,1.57080,0.11675,-0.12763,-0.48150,0.03577,,,,,,,,,,,,,,,,,,,,,,,,,,0,0,0,0,0
2.5988,1783968425.3304,1,1,5.5000,-0.0000,1.42243,-0.00397,-2.63161,1.06479,1.57080,0.11675,-0.12763,-0.48150,0.03577,,,,,,,,,,,,,,,,,,,,,,,,,,0,0,0,0,0
2.6094,1783968425.3410,1,1,5.5000,-0.0000,1.42243,-0.00397,-2.63161,1.06479,1.57080,0.11675,-0.12763,-0.48150,0.03577,,,,,,,,,,,,,,,,,,,,,,,,,,0,0,0,0,0
2.6099,1783968425.3415,1,1,5.5000,-0.0000,1.42243,-0.00397,-2.63161,1.06479,1.57080,0.11675,-0.12763,-0.48150,0.03577,,,,,,,,,,,,,,,,,,,,,,,,,,0,0,0,0,0
2.6140,1783968425.3456,1,1,5.5000,-0.0000,1.42243,-0.00397,-2.63161,1.06479,1.57080,0.11675,-0.12763,-0.48150,0.03577,,,,,,,,,,,,,,,,,,,,,,,,,,0,0,0,0,0
2.6445,1783968425.3760,1,1,5.5000,-0.0000,1.42243,-0.00397,-2.63161,1.06479,1.57080,0.11675,-0.12763,-0.48150,0.03577,,,,,,,,,,,,,,,,,,,,,,,,,,0,0,0,0,0
2.6694,1783968425.4010,1,1,5.5000,-0.0000,1.42243,-0.00397,-2.63161,1.06479,1.57080,0.11675,-0.12763,-0.48150,0.03577,,,,,,,,,,,,,,,,,,,,,,,,,,0,0,0,0,0
2.6723,1783968425.4039,1,1,5.5000,-0.0000,1.42243,-0.00397,-2.63161,1.06479,1.57080,0.11675,-0.12763,-0.48150,0.03577,,,,,,,,,,,,,,,,,,,,,,,,,,0,0,0,0,0
2.6731,1783968425.4047,1,1,5.5000,-0.0000,1.42243,-0.00397,-2.63161,1.06479,1.57080,0.11675,-0.12763,-0.48150,0.03577,,,,,,,,,,,,,,,,,,,,,,,,,,0,0,0,0,0
2.6761,1783968425.4077,1,1,5.5000,-0.0000,1.42243,-0.00397,-2.63161,1.06479,1.57080,0.11675,-0.12763,-0.48150,0.03577,,,,,,,,,,,,,,,,,,,,,,,,,,0,0,0,0,0
2.6829,1783968425.4145,1,1,5.5000,-0.0000,1.42243,-0.00397,-2.63161,1.06479,1.57080,0.11675,-0.12763,-0.48150,0.03577,,,,,,,,,,,,,,,,,,,,,,,,,,0,0,0,0,0
2.6835,1783968425.4151,1,1,5.5000,-0.0000,1.42243,-0.00397,-2.63161,1.06479,1.57080,0.11675,-0.12763,-0.48150,0.03577,,,,,,,,,,,,,,,,,,,,,,,,,,0,0,0,0,0
2.6855,1783968425.4171,1,1,5.5000,-0.0000,1.42243,-0.00397,-2.63161,1.06479,1.57080,0.11675,-0.12763,-0.48150,0.03577,,,,,,,,,,,,,,,,,,,,,,,,,,0,0,0,0,0
2.6960,1783968425.4276,1,1,5.5000,-0.0000,1.42243,-0.00397,-2.63161,1.06479,1.57080,0.11675,-0.12763,-0.48150,0.03577,,,,,,,,,,,,,,,,,,,,,,,,,,0,0,0,0,0
2.7252,1783968425.4568,1,1,5.5000,-0.0000,1.42243,-0.00401,-2.63162,1.06484,1.57080,0.11675,-0.12763,-0.48150,0.03576,,,,,,,,,,,,,,,,,,,,,,,,,,0,0,0,0,0
2.7258,1783968425.4573,1,1,5.5000,-0.0000,1.42243,-0.00401,-2.63162,1.06484,1.57080,0.11675,-0.12763,-0.48150,0.03576,,,,,,,,,,,,,,,,,,,,,,,,,,0,0,0,0,0
2.7371,1783968425.4687,1,1,5.5000,-0.0000,1.42243,-0.00403,-2.63163,1.06486,1.57080,0.11675,-0.12763,-0.48149,0.03575,,,,,,,,,,,,,,,,,,,,,,,,,,0,0,0,0,0
2.7376,1783968425.4692,1,1,5.5000,-0.0000,1.42243,-0.00403,-2.63163,1.06486,1.57080,0.11675,-0.12763,-0.48149,0.03575,,,,,,,,,,,,,,,,,,,,,,,,,,0,0,0,0,0
2.8070,1783968425.5386,1,1,5.5000,-0.0000,1.42243,-0.00430,-2.63175,1.06519,1.57080,0.11675,-0.12764,-0.48145,0.03563,,,,,,,,,,,,,,,,,,,,,,,,,,0,0,0,0,0
2.8106,1783968425.5422,1,1,5.5000,-0.0000,1.42243,-0.00434,-2.63176,1.06524,1.57080,0.11675,-0.12764,-0.48145,0.03562,,,,,,,,,,,,,,,,,,,,,,,,,,0,0,0,0,0
2.8200,1783968425.5516,1,1,5.5000,-0.0000,1.42243,-0.00438,-2.63177,1.06529,1.57080,0.11675,-0.12764,-0.48145,0.03560,,,,,,,,,,,,,,,,,,,,,,,,,,0,0,0,0,0
2.8258,1783968425.5574,1,1,5.5000,-0.0000,1.42243,-0.00440,-2.63178,1.06532,1.57080,0.11675,-0.12764,-0.48145,0.03560,,,,,,,,,,,,,,,,,,,,,,,,,,0,0,0,0,0
2.8376,1783968425.5691,1,1,5.5000,-0.0000,1.42243,-0.00451,-2.63179,1.06544,1.57080,0.11675,-0.12764,-0.48145,0.03556,,,,,,,,,,,,,,,,,,,,,,,,,,0,0,0,0,0
2.8478,1783968425.5794,1,1,5.5000,-0.0000,1.42242,-0.00460,-2.63181,1.06556,1.57080,0.11675,-0.12764,-0.48145,0.03553,,,,,,,,,,,,,,,,,,,,,,,,,,0,0,0,0,0
2.8757,1783968425.6073,1,1,5.5000,-0.0000,1.42242,-0.00476,-2.63183,1.06575,1.57080,0.11675,-0.12763,-0.48146,0.03548,,,,,,,,,,,,,,,,,,,,,,,,,,0,0,0,0,0
2.9384,1783968425.6700,1,1,5.5000,-0.0000,1.42242,-0.00516,-2.63188,1.06624,1.57080,0.11675,-0.12763,-0.48149,0.03537,,,,,,,,,,,,,,,,,,,,,,,,,,0,0,0,0,0
2.9501,1783968425.6817,1,1,5.5000,-0.0000,1.42242,-0.00516,-2.63188,1.06624,1.57080,0.11675,-0.12763,-0.48149,0.03537,,,,,,,,,,,,,,,,,,,,,,,,,,0,0,0,0,0
2.9584,1783968425.6900,1,1,5.5000,-0.0000,1.42242,-0.00516,-2.63188,1.06624,1.57080,0.11675,-0.12763,-0.48149,0.03537,,,,,,,,,,,,,,,,,,,,,,,,,,0,0,0,0,0
2.9680,1783968425.6996,1,1,5.5000,-0.0000,1.42242,-0.00516,-2.63188,1.06624,1.57080,0.11675,-0.12763,-0.48149,0.03537,,,,,,,,,,,,,,,,,,,,,,,,,,0,0,0,0,0
2.9724,1783968425.7040,1,1,5.5000,-0.0000,1.42242,-0.00516,-2.63188,1.06624,1.57080,0.11675,-0.12763,-0.48149,0.03537,,,,,,,,,,,,,,,,,,,,,,,,,,0,0,0,0,0
2.9738,1783968425.7054,1,1,5.5000,-0.0000,1.42242,-0.00516,-2.63188,1.06624,1.57080,0.11675,-0.12763,-0.48149,0.03537,,,,,,,,,,,,,,,,,,,,,,,,,,0,0,0,0,0
2.9740,1783968425.7056,1,1,5.5000,-0.0000,1.42242,-0.00516,-2.63188,1.06624,1.57080,0.11675,-0.12763,-0.48149,0.03537,,,,,,,,,,,,,,,,,,,,,,,,,,0,0,0,0,0
2.9750,1783968425.7066,1,1,5.5000,-0.0000,1.42242,-0.00516,-2.63188,1.06624,1.57080,0.11675,-0.12763,-0.48149,0.03537,,,,,,,,,,,,,,,,,,,,,,,,,,0,0,0,0,0
2.9772,1783968425.7088,1,1,5.5000,-0.0000,1.42242,-0.00516,-2.63188,1.06624,1.57080,0.11675,-0.12763,-0.48149,0.03537,,,,,,,,,,,,,,,,,,,,,,,,,,0,0,0,0,0
2.9776,1783968425.7091,1,1,5.5000,-0.0000,1.42242,-0.00516,-2.63188,1.06624,1.57080,0.11675,-0.12763,-0.48149,0.03537,,,,,,,,,,,,,,,,,,,,,,,,,,0,0,0,0,0
2.9781,1783968425.7097,1,1,5.5000,-0.0000,1.42242,-0.00516,-2.63188,1.06624,1.57080,0.11675,-0.12763,-0.48149,0.03537,,,,,,,,,,,,,,,,,,,,,,,,,,0,0,0,0,0
2.9784,1783968425.7100,1,1,5.5000,-0.0000,1.42242,-0.00516,-2.63188,1.06624,1.57080,0.11675,-0.12763,-0.48149,0.03537,,,,,,,,,,,,,,,,,,,,,,,,,,0,0,0,0,0
2.9799,1783968425.7115,1,1,5.5000,-0.0000,1.42242,-0.00516,-2.63188,1.06624,1.57080,0.11675,-0.12763,-0.48149,0.03537,,,,,,,,,,,,,,,,,,,,,,,,,,0,0,0,0,0
2.9878,1783968425.7194,1,1,5.5000,-0.0000,1.42242,-0.00516,-2.63188,1.06624,1.57080,0.11675,-0.12763,-0.48149,0.03537,,,,,,,,,,,,,,,,,,,,,,,,,,0,0,0,0,0
2.9881,1783968425.7197,1,1,5.5000,-0.0000,1.42242,-0.00516,-2.63188,1.06624,1.57080,0.11675,-0.12763,-0.48149,0.03537,,,,,,,,,,,,,,,,,,,,,,,,,,0,0,0,0,0
2.9976,1783968425.7292,1,1,5.5000,-0.0000,1.42242,-0.00516,-2.63188,1.06624,1.57080,0.11675,-0.12763,-0.48149,0.03537,,,,,,,,,,,,,,,,,,,,,,,,,,0,0,0,0,0
3.0147,1783968425.7463,1,1,5.5000,-0.0000,1.42242,-0.00516,-2.63188,1.06624,1.57080,0.11675,-0.12763,-0.48149,0.03537,,,,,,,,,,,,,,,,,,,,,,,,,,0,0,0,0,0
3.0183,1783968425.7499,1,1,5.5000,-0.0000,1.42242,-0.00516,-2.63188,1.06624,1.57080,0.11675,-0.12763,-0.48149,0.03537,,,,,,,,,,,,,,,,,,,,,,,,,,0,0,0,0,0
3.0224,1783968425.7540,1,1,5.5000,-0.0000,1.42242,-0.00516,-2.63188,1.06624,1.57080,0.11675,-0.12763,-0.48149,0.03537,,,,,,,,,,,,,,,,,,,,,,,,,,0,0,0,0,0
3.0227,1783968425.7543,1,1,5.5000,-0.0000,1.42242,-0.00516,-2.63188,1.06624,1.57080,0.11675,-0.12763,-0.48149,0.03537,,,,,,,,,,,,,,,,,,,,,,,,,,0,0,0,0,0
3.0240,1783968425.7556,1,1,5.5000,-0.0000,1.42242,-0.00516,-2.63188,1.06624,1.57080,0.11675,-0.12763,-0.48149,0.03537,,,,,,,,,,,,,,,,,,,,,,,,,,0,0,0,0,0
3.0267,1783968425.7583,1,1,5.5000,-0.0000,1.42242,-0.00516,-2.63188,1.06624,1.57080,0.11675,-0.12763,-0.48149,0.03537,,,,,,,,,,,,,,,,,,,,,,,,,,0,0,0,0,0
3.0270,1783968425.7586,1,1,5.5000,-0.0000,1.42242,-0.00516,-2.63188,1.06624,1.57080,0.11675,-0.12763,-0.48149,0.03537,,,,,,,,,,,,,,,,,,,,,,,,,,0,0,0,0,0
3.0282,1783968425.7598,1,1,5.5000,-0.0000,1.42242,-0.00516,-2.63188,1.06624,1.57080,0.11675,-0.12763,-0.48149,0.03537,,,,,,,,,,,,,,,,,,,,,,,,,,0,0,0,0,0
3.0352,1783968425.7668,1,1,5.5000,-0.0000,1.42242,-0.00516,-2.63188,1.06624,1.57080,0.11675,-0.12763,-0.48149,0.03537,,,,,,,,,,,,,,,,,,,,,,,,,,0,0,0,0,0
3.0356,1783968425.7672,1,1,5.5000,-0.0000,1.42242,-0.00516,-2.63188,1.06624,1.57080,0.11675,-0.12763,-0.48149,0.03537,,,,,,,,,,,,,,,,,,,,,,,,,,0,0,0,0,0
3.0439,1783968425.7755,1,1,5.5000,-0.0000,1.42242,-0.00516,-2.63188,1.06624,1.57080,0.11675,-0.12763,-0.48149,0.03537,,,,,,,,,,,,,,,,,,,,,,,,,,0,0,0,0,0
3.0503,1783968425.7819,1,1,5.5000,-0.0000,1.42242,-0.00516,-2.63188,1.06624,1.57080,0.11675,-0.12763,-0.48149,0.03537,,,,,,,,,,,,,,,,,,,,,,,,,,0,0,0,0,0
3.0696,1783968425.8012,1,1,5.5000,-0.0000,1.42242,-0.00516,-2.63188,1.06624,1.57080,0.11675,-0.12763,-0.48149,0.03537,,,,,,,,,,,,,,,,,,,,,,,,,,0,0,0,0,0
3.0700,1783968425.8016,1,1,5.5000,-0.0000,1.42242,-0.00516,-2.63188,1.06624,1.57080,0.11675,-0.12763,-0.48149,0.03537,,,,,,,,,,,,,,,,,,,,,,,,,,0,0,0,0,0
3.0731,1783968425.8047,1,1,5.5000,-0.0000,1.42242,-0.00516,-2.63188,1.06624,1.57080,0.11675,-0.12763,-0.48149,0.03537,,,,,,,,,,,,,,,,,,,,,,,,,,0,0,0,0,0
3.0785,1783968425.8101,1,1,5.5000,-0.0000,1.42242,-0.00516,-2.63188,1.06624,1.57080,0.11675,-0.12763,-0.48149,0.03537,,,,,,,,,,,,,,,,,,,,,,,,,,0,0,0,0,0
3.0789,1783968425.8105,1,1,5.5000,-0.0000,1.42242,-0.00516,-2.63188,1.06624,1.57080,0.11675,-0.12763,-0.48149,0.03537,,,,,,,,,,,,,,,,,,,,,,,,,,0,0,0,0,0
3.0836,1783968425.8152,1,1,5.5000,-0.0000,1.42242,-0.00516,-2.63188,1.06624,1.57080,0.11675,-0.12763,-0.48149,0.03537,,,,,,,,,,,,,,,,,,,,,,,,,,0,0,0,0,0
3.0842,1783968425.8158,1,1,5.5000,-0.0000,1.42242,-0.00516,-2.63188,1.06624,1.57080,0.11675,-0.12763,-0.48149,0.03537,,,,,,,,,,,,,,,,,,,,,,,,,,0,0,0,0,0
3.0891,1783968425.8207,1,1,5.5000,-0.0000,1.42242,-0.00516,-2.63188,1.06624,1.57080,0.11675,-0.12763,-0.48149,0.03537,,,,,,,,,,,,,,,,,,,,,,,,,,0,0,0,0,0
3.0904,1783968425.8220,1,1,5.5000,-0.0000,1.42242,-0.00516,-2.63188,1.06624,1.57080,0.11675,-0.12763,-0.48149,0.03537,,,,,,,,,,,,,,,,,,,,,,,,,,0,0,0,0,0
3.0907,1783968425.8223,1,1,5.5000,-0.0000,1.42242,-0.00516,-2.63188,1.06624,1.57080,0.11675,-0.12763,-0.48149,0.03537,,,,,,,,,,,,,,,,,,,,,,,,,,0,0,0,0,0
3.1138,1783968425.8454,1,1,5.5000,-0.0000,1.42242,-0.00516,-2.63188,1.06624,1.57080,0.11675,-0.12763,-0.48149,0.03537,,,,,,,,,,,,,,,,,,,,,,,,,,0,0,0,0,0
3.1173,1783968425.8489,1,1,5.5000,-0.0000,1.42242,-0.00516,-2.63188,1.06624,1.57080,0.11675,-0.12763,-0.48149,0.03537,,,,,,,,,,,,,,,,,,,,,,,,,,0,0,0,0,0
3.1181,1783968425.8497,1,1,5.5000,-0.0000,1.42242,-0.00516,-2.63188,1.06624,1.57080,0.11675,-0.12763,-0.48149,0.03537,,,,,,,,,,,,,,,,,,,,,,,,,,0,0,0,0,0
3.1252,1783968425.8568,1,1,5.5000,-0.0000,1.42242,-0.00516,-2.63188,1.06624,1.57080,0.11675,-0.12763,-0.48149,0.03537,,,,,,,,,,,,,,,,,,,,,,,,,,0,0,0,0,0
3.1537,1783968425.8853,1,1,5.5000,-0.0000,1.42242,-0.00519,-2.63189,1.06628,1.57080,0.11675,-0.12763,-0.48149,0.03536,,,,,,,,,,,,,,,,,,,,,,,,,,0,0,0,0,0
3.1546,1783968425.8862,1,1,5.5000,-0.0000,1.42242,-0.00519,-2.63189,1.06628,1.57080,0.11675,-0.12763,-0.48149,0.03536,,,,,,,,,,,,,,,,,,,,,,,,,,0,0,0,0,0
3.1551,1783968425.8867,1,1,5.5000,-0.0000,1.42242,-0.00519,-2.63189,1.06628,1.57080,0.11675,-0.12763,-0.48149,0.03536,,,,,,,,,,,,,,,,,,,,,,,,,,0,0,0,0,0
3.1557,1783968425.8873,1,1,5.5000,-0.0000,1.42242,-0.00519,-2.63189,1.06628,1.57080,0.11675,-0.12763,-0.48149,0.03536,,,,,,,,,,,,,,,,,,,,,,,,,,0,0,0,0,0
3.1561,1783968425.8877,1,1,5.5000,-0.0000,1.42242,-0.00519,-2.63189,1.06628,1.57080,0.11675,-0.12763,-0.48149,0.03536,,,,,,,,,,,,,,,,,,,,,,,,,,0,0,0,0,0
3.1597,1783968425.8913,1,1,5.5000,-0.0000,1.42242,-0.00520,-2.63190,1.06629,1.57080,0.11675,-0.12763,-0.48149,0.03535,,,,,,,,,,,,,,,,,,,,,,,,,,0,0,0,0,0
3.1602,1783968425.8917,1,1,5.5000,-0.0000,1.42242,-0.00520,-2.63190,1.06629,1.57080,0.11675,-0.12763,-0.48149,0.03535,,,,,,,,,,,,,,,,,,,,,,,,,,0,0,0,0,0
3.1841,1783968425.9157,1,1,5.5000,-0.0000,1.42242,-0.00528,-2.63196,1.06639,1.57080,0.11675,-0.12763,-0.48146,0.03531,,,,,,,,,,,,,,,,,,,,,,,,,,0,0,0,0,0
3.1882,1783968425.9198,1,1,5.5000,-0.0000,1.42242,-0.00529,-2.63196,1.06640,1.57080,0.11675,-0.12763,-0.48145,0.03530,,,,,,,,,,,,,,,,,,,,,,,,,,0,0,0,0,0
3.1887,1783968425.9203,1,1,5.5000,-0.0000,1.42242,-0.00529,-2.63196,1.06640,1.57080,0.11675,-0.12763,-0.48145,0.03530,,,,,,,,,,,,,,,,,,,,,,,,,,0,0,0,0,0
3.1986,1783968425.9302,1,1,5.5000,-0.0000,1.42242,-0.00534,-2.63199,1.06647,1.57080,0.11675,-0.12764,-0.48144,0.03528,,,,,,,,,,,,,,,,,,,,,,,,,,0,0,0,0,0
3.1996,1783968425.9312,1,1,5.5000,-0.0000,1.42242,-0.00534,-2.63199,1.06647,1.57080,0.11675,-0.12764,-0.48144,0.03528,,,,,,,,,,,,,,,,,,,,,,,,,,0,0,0,0,0
3.1999,1783968425.9315,1,1,5.5000,-0.0000,1.42242,-0.00534,-2.63199,1.06647,1.57080,0.11675,-0.12764,-0.48144,0.03528,,,,,,,,,,,,,,,,,,,,,,,,,,0,0,0,0,0
3.2057,1783968425.9373,1,1,5.5000,-0.0000,1.42242,-0.00539,-2.63201,1.06653,1.57080,0.11675,-0.12764,-0.48144,0.03525,,,,,,,,,,,,,,,,,,,,,,,,,,0,0,0,0,0
3.2060,1783968425.9376,1,1,5.5000,-0.0000,1.42242,-0.00539,-2.63201,1.06653,1.57080,0.11675,-0.12764,-0.48144,0.03525,,,,,,,,,,,,,,,,,,,,,,,,,,0,0,0,0,0
3.2147,1783968425.9463,1,1,5.5000,-0.0000,1.42242,-0.00540,-2.63201,1.06654,1.57080,0.11675,-0.12764,-0.48144,0.03525,,,,,,,,,,,,,,,,,,,,,,,,,,0,0,0,0,0
3.2231,1783968425.9547,1,1,5.5000,-0.0000,1.42242,-0.00543,-2.63202,1.06658,1.57080,0.11675,-0.12764,-0.48144,0.03524,,,,,,,,,,,,,,,,,,,,,,,,,,0,0,0,0,0
3.2410,1783968425.9726,1,1,5.5000,-0.0000,1.42242,-0.00552,-2.63204,1.06669,1.57080,0.11675,-0.12764,-0.48144,0.03521,,,,,,,,,,,,,,,,,,,,,,,,,,0,0,0,0,0
3.2492,1783968425.9808,1,1,5.5000,-0.0000,1.42242,-0.00559,-2.63205,1.06677,1.57080,0.11675,-0.12764,-0.48144,0.03519,,,,,,,,,,,,,,,,,,,,,,,,,,0,0,0,0,0
3.2496,1783968425.9812,1,1,5.5000,-0.0000,1.42242,-0.00559,-2.63205,1.06677,1.57080,0.11675,-0.12764,-0.48144,0.03519,,,,,,,,,,,,,,,,,,,,,,,,,,0,0,0,0,0
3.2572,1783968425.9888,1,1,5.5000,-0.0000,1.42242,-0.00570,-2.63207,1.06689,1.57080,0.11675,-0.12764,-0.48144,0.03516,,,,,,,,,,,,,,,,,,,,,,,,,,0,0,0,0,0
3.2667,1783968425.9983,1,1,5.5000,-0.0000,1.42242,-0.00575,-2.63207,1.06696,1.57080,0.11675,-0.12764,-0.48145,0.03514,,,,,,,,,,,,,,,,,,,,,,,,,,0,0,0,0,0
3.2753,1783968426.0069,1,1,5.5000,-0.0000,1.42242,-0.00578,-2.63208,1.06699,1.57080,0.11675,-0.12763,-0.48145,0.03513,,,,,,,,,,,,,,,,,,,,,,,,,,0,0,0,0,0
3.2756,1783968426.0072,1,1,5.5000,-0.0000,1.42242,-0.00578,-2.63208,1.06699,1.57080,0.11675,-0.12763,-0.48145,0.03513,,,,,,,,,,,,,,,,,,,,,,,,,,0,0,0,0,0
3.2832,1783968426.0148,1,1,5.5000,-0.0000,1.42242,-0.00584,-2.63209,1.06706,1.57080,0.11675,-0.12763,-0.48145,0.03511,,,,,,,,,,,,,,,,,,,,,,,,,,0,0,0,0,0
3.2836,1783968426.0152,1,1,5.5000,-0.0000,1.42242,-0.00584,-2.63209,1.06706,1.57080,0.11675,-0.12763,-0.48145,0.03511,,,,,,,,,,,,,,,,,,,,,,,,,,0,0,0,0,0
3.3000,1783968426.0316,1,1,5.5000,-0.0000,1.42242,-0.00602,-2.63211,1.06728,1.57080,0.11675,-0.12763,-0.48146,0.03506,,,,,,,,,,,,,,,,,,,,,,,,,,0,0,0,0,0
3.3205,1783968426.0521,1,1,5.5000,-0.0000,1.42242,-0.00626,-2.63214,1.06758,1.57080,0.11675,-0.12763,-0.48148,0.03499,,,,,,,,,,,,,,,,,,,,,,,,,,0,0,0,0,0
3.3247,1783968426.0563,1,1,5.5000,-0.0000,1.42242,-0.00629,-2.63214,1.06763,1.57080,0.11675,-0.12763,-0.48149,0.03498,,,,,,,,,,,,,,,,,,,,,,,,,,0,0,0,0,0
3.3253,1783968426.0569,1,1,5.5000,-0.0000,1.42242,-0.00632,-2.63215,1.06766,1.57080,0.11675,-0.12763,-0.48149,0.03497,,,,,,,,,,,,,,,,,,,,,,,,,,0,0,0,0,0
3.3305,1783968426.0621,1,1,5.5000,-0.0000,1.42242,-0.00632,-2.63215,1.06766,1.57080,0.11675,-0.12763,-0.48149,0.03497,,,,,,,,,,,,,,,,,,,,,,,,,,0,0,0,0,0
3.3347,1783968426.0663,1,1,5.5000,-0.0000,1.42242,-0.00632,-2.63215,1.06766,1.57080,0.11675,-0.12763,-0.48149,0.03497,,,,,,,,,,,,,,,,,,,,,,,,,,0,0,0,0,0
3.3349,1783968426.0665,1,1,5.5000,-0.0000,1.42242,-0.00632,-2.63215,1.06766,1.57080,0.11675,-0.12763,-0.48149,0.03497,,,,,,,,,,,,,,,,,,,,,,,,,,0,0,0,0,0
3.3523,1783968426.0839,1,1,5.5000,-0.0000,1.42242,-0.00632,-2.63215,1.06766,1.57080,0.11675,-0.12763,-0.48149,0.03497,,,,,,,,,,,,,,,,,,,,,,,,,,0,0,0,0,0
3.3605,1783968426.0920,1,1,5.5000,-0.0000,1.42242,-0.00632,-2.63215,1.06766,1.57080,0.11675,-0.12763,-0.48149,0.03497,,,,,,,,,,,,,,,,,,,,,,,,,,0,0,0,0,0
3.3785,1783968426.1101,1,1,5.5000,-0.0000,1.42242,-0.00632,-2.63215,1.06766,1.57080,0.11675,-0.12763,-0.48149,0.03497,,,,,,,,,,,,,,,,,,,,,,,,,,0,0,0,0,0
3.3844,1783968426.1160,1,1,5.5000,-0.0000,1.42242,-0.00632,-2.63215,1.06766,1.57080,0.11675,-0.12763,-0.48149,0.03497,,,,,,,,,,,,,,,,,,,,,,,,,,0,0,0,0,0
3.4066,1783968426.1382,1,1,5.5000,-0.0000,1.42242,-0.00632,-2.63215,1.06766,1.57080,0.11675,-0.12763,-0.48149,0.03497,,,,,,,,,,,,,,,,,,,,,,,,,,0,0,0,0,0
3.4131,1783968426.1447,1,1,5.5000,-0.0000,1.42242,-0.00632,-2.63215,1.06766,1.57080,0.11675,-0.12763,-0.48149,0.03497,,,,,,,,,,,,,,,,,,,,,,,,,,0,0,0,0,0
3.4135,1783968426.1451,1,1,5.5000,-0.0000,1.42242,-0.00632,-2.63215,1.06766,1.57080,0.11675,-0.12763,-0.48149,0.03497,,,,,,,,,,,,,,,,,,,,,,,,,,0,0,0,0,0
3.4138,1783968426.1454,1,1,5.5000,-0.0000,1.42242,-0.00632,-2.63215,1.06766,1.57080,0.11675,-0.12763,-0.48149,0.03497,,,,,,,,,,,,,,,,,,,,,,,,,,0,0,0,0,0
3.4250,1783968426.1566,1,1,5.5000,-0.0000,1.42242,-0.00632,-2.63215,1.06766,1.57080,0.11675,-0.12763,-0.48149,0.03497,,,,,,,,,,,,,,,,,,,,,,,,,,0,0,0,0,0
3.4259,1783968426.1575,1,1,5.5000,-0.0000,1.42242,-0.00632,-2.63215,1.06766,1.57080,0.11675,-0.12763,-0.48149,0.03497,,,,,,,,,,,,,,,,,,,,,,,,,,0,0,0,0,0
3.4262,1783968426.1578,1,1,5.5000,-0.0000,1.42242,-0.00632,-2.63215,1.06766,1.57080,0.11675,-0.12763,-0.48149,0.03497,,,,,,,,,,,,,,,,,,,,,,,,,,0,0,0,0,0
3.4363,1783968426.1679,1,1,5.5000,-0.0000,1.42242,-0.00632,-2.63215,1.06766,1.57080,0.11675,-0.12763,-0.48149,0.03497,,,,,,,,,,,,,,,,,,,,,,,,,,0,0,0,0,0
3.4369,1783968426.1685,1,1,5.5000,-0.0000,1.42242,-0.00632,-2.63215,1.06766,1.57080,0.11675,-0.12763,-0.48149,0.03497,,,,,,,,,,,,,,,,,,,,,,,,,,0,0,0,0,0
3.4452,1783968426.1767,1,1,5.5000,-0.0000,1.42242,-0.00632,-2.63215,1.06766,1.57080,0.11675,-0.12763,-0.48149,0.03497,,,,,,,,,,,,,,,,,,,,,,,,,,0,0,0,0,0
3.4532,1783968426.1848,1,1,5.5000,-0.0000,1.42242,-0.00632,-2.63215,1.06766,1.57080,0.11675,-0.12763,-0.48149,0.03497,,,,,,,,,,,,,,,,,,,,,,,,,,0,0,0,0,0
3.4534,1783968426.1850,1,1,5.5000,-0.0000,1.42242,-0.00632,-2.63215,1.06766,1.57080,0.11675,-0.12763,-0.48149,0.03497,,,,,,,,,,,,,,,,,,,,,,,,,,0,0,0,0,0
3.4623,1783968426.1939,1,1,5.5000,-0.0000,1.42242,-0.00632,-2.63215,1.06766,1.57080,0.11675,-0.12763,-0.48149,0.03497,,,,,,,,,,,,,,,,,,,,,,,,,,0,0,0,0,0
3.4837,1783968426.2153,1,1,5.5000,-0.0000,1.42242,-0.00632,-2.63215,1.06766,1.57080,0.11675,-0.12763,-0.48149,0.03497,,,,,,,,,,,,,,,,,,,,,,,,,,0,0,0,0,0
3.4964,1783968426.2280,1,1,5.5000,-0.0000,1.42242,-0.00632,-2.63215,1.06766,1.57080,0.11675,-0.12763,-0.48149,0.03497,,,,,,,,,,,,,,,,,,,,,,,,,,0,0,0,0,0
3.5021,1783968426.2337,1,1,5.5000,-0.0000,1.42242,-0.00632,-2.63215,1.06766,1.57080,0.11675,-0.12763,-0.48149,0.03497,,,,,,,,,,,,,,,,,,,,,,,,,,0,0,0,0,0
3.5149,1783968426.2465,1,1,5.5000,-0.0000,1.42242,-0.00632,-2.63215,1.06766,1.57080,0.11675,-0.12763,-0.48149,0.03497,,,,,,,,,,,,,,,,,,,,,,,,,,0,0,0,0,0
3.6571,1783968426.3886,1,1,5.5000,-0.0000,1.42242,-0.00678,-2.63233,1.06822,1.57080,0.11675,-0.12764,-0.48143,0.03478,,,,,,,,,,,,,,,,,,,,,,,,,,0,0,0,0,0
3.6597,1783968426.3913,1,1,5.5000,-0.0000,1.42242,-0.00678,-2.63233,1.06822,1.57080,0.11675,-0.12764,-0.48143,0.03478,,,,,,,,,,,,,,,,,,,,,,,,,,0,0,0,0,0
3.6886,1783968426.4202,1,1,5.5000,-0.0000,1.42242,-0.00689,-2.63234,1.06835,1.57080,0.11675,-0.12763,-0.48144,0.03475,,,,,,,,,,,,,,,,,,,,,,,,,,0,0,0,0,0
3.6899,1783968426.4215,1,1,5.5000,-0.0000,1.42242,-0.00689,-2.63234,1.06835,1.57080,0.11675,-0.12763,-0.48144,0.03475,,,,,,,,,,,,,,,,,,,,,,,,,,0,0,0,0,0
3.6902,1783968426.4218,1,1,5.5000,-0.0000,1.42242,-0.00689,-2.63234,1.06835,1.57080,0.11675,-0.12763,-0.48144,0.03475,,,,,,,,,,,,,,,,,,,,,,,,,,0,0,0,0,0
3.6919,1783968426.4235,1,1,5.5000,-0.0000,1.42242,-0.00689,-2.63234,1.06835,1.57080,0.11675,-0.12763,-0.48144,0.03475,,,,,,,,,,,,,,,,,,,,,,,,,,0,0,0,0,0
3.6943,1783968426.4258,1,1,5.5000,-0.0000,1.42242,-0.00691,-2.63234,1.06838,1.57080,0.11675,-0.12763,-0.48144,0.03474,,,,,,,,,,,,,,,,,,,,,,,,,,0,0,0,0,0
3.6945,1783968426.4261,1,1,5.5000,-0.0000,1.42242,-0.00691,-2.63234,1.06838,1.57080,0.11675,-0.12763,-0.48144,0.03474,,,,,,,,,,,,,,,,,,,,,,,,,,0,0,0,0,0
3.6950,1783968426.4266,1,1,5.5000,-0.0000,1.42242,-0.00691,-2.63234,1.06838,1.57080,0.11675,-0.12763,-0.48144,0.03474,,,,,,,,,,,,,,,,,,,,,,,,,,0,0,0,0,0
3.6955,1783968426.4270,1,1,5.5000,-0.0000,1.42242,-0.00691,-2.63234,1.06838,1.57080,0.11675,-0.12763,-0.48144,0.03474,,,,,,,,,,,,,,,,,,,,,,,,,,0,0,0,0,0
3.6959,1783968426.4275,1,1,5.5000,-0.0000,1.42242,-0.00691,-2.63234,1.06838,1.57080,0.11675,-0.12763,-0.48144,0.03474,,,,,,,,,,,,,,,,,,,,,,,,,,0,0,0,0,0
3.6980,1783968426.4296,1,1,5.5000,-0.0000,1.42242,-0.00694,-2.63234,1.06841,1.57080,0.11675,-0.12763,-0.48144,0.03474,,,,,,,,,,,,,,,,,,,,,,,,,,0,0,0,0,0
3.6984,1783968426.4300,1,1,5.5000,-0.0000,1.42242,-0.00694,-2.63234,1.06841,1.57080,0.11675,-0.12763,-0.48144,0.03474,,,,,,,,,,,,,,,,,,,,,,,,,,0,0,0,0,0
3.7001,1783968426.4317,1,1,5.5000,-0.0000,1.42242,-0.00694,-2.63234,1.06841,1.57080,0.11675,-0.12763,-0.48144,0.03474,,,,,,,,,,,,,,,,,,,,,,,,,,0,0,0,0,0
3.7003,1783968426.4319,1,1,5.5000,-0.0000,1.42242,-0.00694,-2.63234,1.06841,1.57080,0.11675,-0.12763,-0.48144,0.03474,,,,,,,,,,,,,,,,,,,,,,,,,,0,0,0,0,0
3.7108,1783968426.4424,1,1,5.5000,-0.0000,1.42242,-0.00707,-2.63236,1.06856,1.57080,0.11675,-0.12763,-0.48145,0.03470,,,,,,,,,,,,,,,,,,,,,,,,,,0,0,0,0,0
3.7170,1783968426.4486,1,1,5.5000,-0.0000,1.42242,-0.00712,-2.63236,1.06862,1.57080,0.11675,-0.12763,-0.48146,0.03468,,,,,,,,,,,,,,,,,,,,,,,,,,0,0,0,0,0
3.7281,1783968426.4597,1,1,5.5000,-0.0000,1.42242,-0.00714,-2.63236,1.06865,1.57080,0.11675,-0.12763,-0.48146,0.03468,,,,,,,,,,,,,,,,,,,,,,,,,,0,0,0,0,0
3.7343,1783968426.4659,1,1,5.5000,-0.0000,1.42242,-0.00718,-2.63237,1.06871,1.57080,0.11675,-0.12763,-0.48147,0.03467,,,,,,,,,,,,,,,,,,,,,,,,,,0,0,0,0,0
3.7350,1783968426.4666,1,1,5.5000,-0.0000,1.42242,-0.00718,-2.63237,1.06871,1.57080,0.11675,-0.12763,-0.48147,0.03467,,,,,,,,,,,,,,,,,,,,,,,,,,0,0,0,0,0
3.7353,1783968426.4669,1,1,5.5000,-0.0000,1.42242,-0.00718,-2.63237,1.06871,1.57080,0.11675,-0.12763,-0.48147,0.03467,,,,,,,,,,,,,,,,,,,,,,,,,,0,0,0,0,0
3.7402,1783968426.4718,1,1,5.5000,-0.0000,1.42242,-0.00722,-2.63237,1.06875,1.57080,0.11675,-0.12763,-0.48147,0.03466,,,,,,,,,,,,,,,,,,,,,,,,,,0,0,0,0,0
3.7406,1783968426.4722,1,1,5.5000,-0.0000,1.42242,-0.00722,-2.63237,1.06875,1.57080,0.11675,-0.12763,-0.48147,0.03466,,,,,,,,,,,,,,,,,,,,,,,,,,0,0,0,0,0
3.7443,1783968426.4759,1,1,5.5000,-0.0000,1.42242,-0.00725,-2.63237,1.06880,1.57080,0.11675,-0.12763,-0.48148,0.03465,,,,,,,,,,,,,,,,,,,,,,,,,,0,0,0,0,0
3.7449,1783968426.4765,1,1,5.5000,-0.0000,1.42242,-0.00729,-2.63237,1.06885,1.57080,0.11675,-0.12763,-0.48148,0.03464,,,,,,,,,,,,,,,,,,,,,,,,,,0,0,0,0,0
3.7480,1783968426.4796,1,1,5.5000,-0.0000,1.42242,-0.00729,-2.63237,1.06885,1.57080,0.11675,-0.12763,-0.48148,0.03464,,,,,,,,,,,,,,,,,,,,,,,,,,0,0,0,0,0
3.7520,1783968426.4836,1,1,5.5000,-0.0000,1.42241,-0.00734,-2.63237,1.06890,1.57080,0.11675,-0.12763,-0.48149,0.03463,,,,,,,,,,,,,,,,,,,,,,,,,,0,0,0,0,0
3.7524,1783968426.4840,1,1,5.5000,-0.0000,1.42241,-0.00734,-2.63237,1.06890,1.57080,0.11675,-0.12763,-0.48149,0.03463,,,,,,,,,,,,,,,,,,,,,,,,,,0,0,0,0,0
3.7573,1783968426.4889,1,1,5.5000,-0.0000,1.42241,-0.00742,-2.63236,1.06900,1.57080,0.11675,-0.12762,-0.48151,0.03461,,,,,,,,,,,,,,,,,,,,,,,,,,0,0,0,0,0
3.7576,1783968426.4892,1,1,5.5000,-0.0000,1.42241,-0.00742,-2.63236,1.06900,1.57080,0.11675,-0.12762,-0.48151,0.03461,,,,,,,,,,,,,,,,,,,,,,,,,,0,0,0,0,0
3.7581,1783968426.4897,1,1,5.5000,-0.0000,1.42241,-0.00742,-2.63236,1.06900,1.57080,0.11675,-0.12762,-0.48151,0.03461,,,,,,,,,,,,,,,,,,,,,,,,,,0,0,0,0,0
3.7584,1783968426.4900,1,1,5.5000,-0.0000,1.42241,-0.00742,-2.63236,1.06900,1.57080,0.11675,-0.12762,-0.48151,0.03461,,,,,,,,,,,,,,,,,,,,,,,,,,0,0,0,0,0
3.7693,1783968426.5009,1,1,5.5000,-0.0000,1.42241,-0.00752,-2.63235,1.06913,1.57080,0.11675,-0.12762,-0.48153,0.03460,,,,,,,,,,,,,,,,,,,,,,,,,,0,0,0,0,0
3.7696,1783968426.5012,1,1,5.5000,-0.0000,1.42241,-0.00752,-2.63235,1.06913,1.57080,0.11675,-0.12762,-0.48153,0.03460,,,,,,,,,,,,,,,,,,,,,,,,,,0,0,0,0,0
3.7743,1783968426.5059,1,1,5.5000,-0.0000,1.42241,-0.00754,-2.63235,1.06916,1.57080,0.11675,-0.12762,-0.48154,0.03459,,,,,,,,,,,,,,,,,,,,,,,,,,0,0,0,0,0
3.7930,1783968426.5246,1,1,5.5000,-0.0000,1.42241,-0.00756,-2.63234,1.06918,1.57080,0.11675,-0.12762,-0.48155,0.03459,,,,,,,,,,,,,,,,,,,,,,,,,,0,0,0,0,0
3.7951,1783968426.5267,1,1,5.5000,-0.0000,1.42241,-0.00756,-2.63234,1.06918,1.57080,0.11675,-0.12762,-0.48155,0.03459,,,,,,,,,,,,,,,,,,,,,,,,,,0,0,0,0,0
3.7955,1783968426.5271,1,1,5.5000,-0.0000,1.42241,-0.00756,-2.63234,1.06918,1.57080,0.11675,-0.12762,-0.48155,0.03459,,,,,,,,,,,,,,,,,,,,,,,,,,0,0,0,0,0
3.8092,1783968426.5407,1,1,5.5000,-0.0000,1.42241,-0.00756,-2.63234,1.06918,1.57080,0.11675,-0.12762,-0.48155,0.03459,,,,,,,,,,,,,,,,,,,,,,,,,,0,0,0,0,0
3.8096,1783968426.5412,1,1,5.5000,-0.0000,1.42241,-0.00756,-2.63234,1.06918,1.57080,0.11675,-0.12762,-0.48155,0.03459,,,,,,,,,,,,,,,,,,,,,,,,,,0,0,0,0,0
3.8249,1783968426.5565,1,1,5.5000,-0.0000,1.42241,-0.00756,-2.63234,1.06918,1.57080,0.11675,-0.12762,-0.48155,0.03459,,,,,,,,,,,,,,,,,,,,,,,,,,0,0,0,0,0
3.8333,1783968426.5649,1,1,5.5000,-0.0000,1.42241,-0.00756,-2.63234,1.06918,1.57080,0.11675,-0.12762,-0.48155,0.03459,,,,,,,,,,,,,,,,,,,,,,,,,,0,0,0,0,0
3.8343,1783968426.5659,1,1,5.5000,-0.0000,1.42241,-0.00756,-2.63234,1.06918,1.57080,0.11675,-0.12762,-0.48155,0.03459,,,,,,,,,,,,,,,,,,,,,,,,,,0,0,0,0,0
3.8346,1783968426.5662,1,1,5.5000,-0.0000,1.42241,-0.00756,-2.63234,1.06918,1.57080,0.11675,-0.12762,-0.48155,0.03459,,,,,,,,,,,,,,,,,,,,,,,,,,0,0,0,0,0
3.8421,1783968426.5737,1,1,5.5000,-0.0000,1.42241,-0.00756,-2.63234,1.06918,1.57080,0.11675,-0.12762,-0.48155,0.03459,,,,,,,,,,,,,,,,,,,,,,,,,,0,0,0,0,0
3.8559,1783968426.5875,1,1,5.5000,-0.0000,1.42241,-0.00756,-2.63234,1.06918,1.57080,0.11675,-0.12762,-0.48155,0.03459,,,,,,,,,,,,,,,,,,,,,,,,,,0,0,0,0,0
3.8698,1783968426.6014,1,1,5.5000,-0.0000,1.42241,-0.00756,-2.63234,1.06918,1.57080,0.11675,-0.12762,-0.48155,0.03459,,,,,,,,,,,,,,,,,,,,,,,,,,0,0,0,0,0
3.8769,1783968426.6085,1,1,5.5000,-0.0000,1.42241,-0.00756,-2.63234,1.06918,1.57080,0.11675,-0.12762,-0.48155,0.03459,,,,,,,,,,,,,,,,,,,,,,,,,,0,0,0,0,0
3.8898,1783968426.6213,1,1,5.5000,-0.0000,1.42241,-0.00756,-2.63234,1.06918,1.57080,0.11675,-0.12762,-0.48155,0.03459,,,,,,,,,,,,,,,,,,,,,,,,,,0,0,0,0,0
3.8939,1783968426.6255,1,1,5.5000,-0.0000,1.42241,-0.00756,-2.63234,1.06918,1.57080,0.11675,-0.12762,-0.48155,0.03459,,,,,,,,,,,,,,,,,,,,,,,,,,0,0,0,0,0
3.8941,1783968426.6257,1,1,5.5000,-0.0000,1.42241,-0.00756,-2.63234,1.06918,1.57080,0.11675,-0.12762,-0.48155,0.03459,,,,,,,,,,,,,,,,,,,,,,,,,,0,0,0,0,0
3.9043,1783968426.6359,1,1,5.5000,-0.0000,1.42241,-0.00756,-2.63234,1.06918,1.57080,0.11675,-0.12762,-0.48155,0.03459,,,,,,,,,,,,,,,,,,,,,,,,,,0,0,0,0,0
3.9121,1783968426.6437,1,1,5.5000,-0.0000,1.42241,-0.00756,-2.63234,1.06918,1.57080,0.11675,-0.12762,-0.48155,0.03459,,,,,,,,,,,,,,,,,,,,,,,,,,0,0,0,0,0
3.9240,1783968426.6556,1,1,5.5000,-0.0000,1.42241,-0.00756,-2.63234,1.06918,1.57080,0.11675,-0.12762,-0.48155,0.03459,,,,,,,,,,,,,,,,,,,,,,,,,,0,0,0,0,0
3.9339,1783968426.6655,1,1,5.5000,-0.0000,1.42241,-0.00756,-2.63234,1.06918,1.57080,0.11675,-0.12762,-0.48155,0.03459,,,,,,,,,,,,,,,,,,,,,,,,,,0,0,0,0,0
3.9449,1783968426.6765,1,1,5.5000,-0.0000,1.42241,-0.00756,-2.63234,1.06918,1.57080,0.11675,-0.12762,-0.48155,0.03459,,,,,,,,,,,,,,,,,,,,,,,,,,0,0,0,0,0
3.9452,1783968426.6768,1,1,5.5000,-0.0000,1.42241,-0.00756,-2.63234,1.06918,1.57080,0.11675,-0.12762,-0.48155,0.03459,,,,,,,,,,,,,,,,,,,,,,,,,,0,0,0,0,0
3.9565,1783968426.6880,1,1,5.5000,-0.0000,1.42241,-0.00756,-2.63234,1.06918,1.57080,0.11675,-0.12762,-0.48155,0.03459,,,,,,,,,,,,,,,,,,,,,,,,,,0,0,0,0,0
3.9571,1783968426.6887,1,1,5.5000,-0.0000,1.42241,-0.00756,-2.63234,1.06918,1.57080,0.11675,-0.12762,-0.48155,0.03459,,,,,,,,,,,,,,,,,,,,,,,,,,0,0,0,0,0
3.9622,1783968426.6938,1,1,5.5000,-0.0000,1.42241,-0.00756,-2.63234,1.06918,1.57080,0.11675,-0.12762,-0.48155,0.03459,,,,,,,,,,,,,,,,,,,,,,,,,,0,0,0,0,0
3.9626,1783968426.6942,1,1,5.5000,-0.0000,1.42241,-0.00756,-2.63234,1.06918,1.57080,0.11675,-0.12762,-0.48155,0.03459,,,,,,,,,,,,,,,,,,,,,,,,,,0,0,0,0,0
3.9749,1783968426.7065,1,1,5.5000,-0.0000,1.42241,-0.00756,-2.63234,1.06918,1.57080,0.11675,-0.12762,-0.48155,0.03459,,,,,,,,,,,,,,,,,,,,,,,,,,0,0,0,0,0
3.9753,1783968426.7069,1,1,5.5000,-0.0000,1.42241,-0.00756,-2.63234,1.06918,1.57080,0.11675,-0.12762,-0.48155,0.03459,,,,,,,,,,,,,,,,,,,,,,,,,,0,0,0,0,0
3.9939,1783968426.7255,1,1,5.5000,-0.0000,1.42241,-0.00756,-2.63234,1.06919,1.57080,0.11675,-0.12762,-0.48155,0.03459,,,,,,,,,,,,,,,,,,,,,,,,,,0,0,0,0,0
3.9960,1783968426.7276,1,1,5.5000,-0.0000,1.42241,-0.00756,-2.63234,1.06919,1.57080,0.11675,-0.12762,-0.48155,0.03459,,,,,,,,,,,,,,,,,,,,,,,,,,0,0,0,0,0
3.9963,1783968426.7278,1,1,5.5000,-0.0000,1.42241,-0.00756,-2.63234,1.06919,1.57080,0.11675,-0.12762,-0.48155,0.03459,,,,,,,,,,,,,,,,,,,,,,,,,,0,0,0,0,0
4.0068,1783968426.7384,1,1,5.5000,-0.0000,1.42241,-0.00759,-2.63237,1.06922,1.57080,0.11675,-0.12762,-0.48153,0.03457,,,,,,,,,,,,,,,,,,,,,,,,,,0,0,0,0,0
4.0350,1783968426.7666,1,1,5.5000,-0.0000,1.42241,-0.00766,-2.63244,1.06931,1.57080,0.11675,-0.12762,-0.48149,0.03452,,,,,,,,,,,,,,,,,,,,,,,,,,0,0,0,0,0
4.0555,1783968426.7871,1,1,5.5000,-0.0000,1.42241,-0.00772,-2.63247,1.06937,1.57080,0.11675,-0.12763,-0.48148,0.03449,,,,,,,,,,,,,,,,,,,,,,,,,,0,0,0,0,0
4.0611,1783968426.7927,1,1,5.5000,-0.0000,1.42241,-0.00776,-2.63249,1.06943,1.57080,0.11675,-0.12763,-0.48147,0.03447,,,,,,,,,,,,,,,,,,,,,,,,,,0,0,0,0,0
4.0665,1783968426.7981,1,1,5.5000,-0.0000,1.42241,-0.00780,-2.63250,1.06947,1.57080,0.11675,-0.12763,-0.48147,0.03446,,,,,,,,,,,,,,,,,,,,,,,,,,0,0,0,0,0
4.0669,1783968426.7985,1,1,5.5000,-0.0000,1.42241,-0.00780,-2.63250,1.06947,1.57080,0.11675,-0.12763,-0.48147,0.03446,,,,,,,,,,,,,,,,,,,,,,,,,,0,0,0,0,0
4.0751,1783968426.8067,1,1,5.5000,-0.0000,1.42241,-0.00787,-2.63252,1.06956,1.57080,0.11675,-0.12763,-0.48146,0.03443,,,,,,,,,,,,,,,,,,,,,,,,,,0,0,0,0,0
4.0754,1783968426.8070,1,1,5.5000,-0.0000,1.42241,-0.00787,-2.63252,1.06956,1.57080,0.11675,-0.12763,-0.48146,0.03443,,,,,,,,,,,,,,,,,,,,,,,,,,0,0,0,0,0
4.0784,1783968426.8100,1,1,5.5000,-0.0000,1.42241,-0.00787,-2.63252,1.06956,1.57080,0.11675,-0.12763,-0.48146,0.03443,,,,,,,,,,,,,,,,,,,,,,,,,,0,0,0,0,0
4.0789,1783968426.8104,1,1,5.5000,-0.0000,1.42241,-0.00787,-2.63252,1.06956,1.57080,0.11675,-0.12763,-0.48146,0.03443,,,,,,,,,,,,,,,,,,,,,,,,,,0,0,0,0,0
4.1028,1783968426.8344,1,1,5.5000,-0.0000,1.42241,-0.00804,-2.63256,1.06976,1.57080,0.11675,-0.12763,-0.48146,0.03438,,,,,,,,,,,,,,,,,,,,,,,,,,0,0,0,0,0
4.1035,1783968426.8350,1,1,5.5000,-0.0000,1.42241,-0.00804,-2.63256,1.06976,1.57080,0.11675,-0.12763,-0.48146,0.03438,,,,,,,,,,,,,,,,,,,,,,,,,,0,0,0,0,0
4.1039,1783968426.8355,1,1,5.5000,-0.0000,1.42241,-0.00804,-2.63256,1.06976,1.57080,0.11675,-0.12763,-0.48146,0.03438,,,,,,,,,,,,,,,,,,,,,,,,,,0,0,0,0,0
4.1049,1783968426.8365,1,1,5.5000,-0.0000,1.42241,-0.00809,-2.63257,1.06982,1.57080,0.11675,-0.12763,-0.48146,0.03436,,,,,,,,,,,,,,,,,,,,,,,,,,0,0,0,0,0
4.1052,1783968426.8368,1,1,5.5000,-0.0000,1.42241,-0.00809,-2.63257,1.06982,1.57080,0.11675,-0.12763,-0.48146,0.03436,,,,,,,,,,,,,,,,,,,,,,,,,,0,0,0,0,0
4.1160,1783968426.8476,1,1,5.5000,-0.0000,1.42241,-0.00810,-2.63257,1.06983,1.57080,0.11675,-0.12763,-0.48146,0.03436,,,,,,,,,,,,,,,,,,,,,,,,,,0,0,0,0,0
4.1164,1783968426.8480,1,1,5.5000,-0.0000,1.42241,-0.00810,-2.63257,1.06983,1.57080,0.11675,-0.12763,-0.48146,0.03436,,,,,,,,,,,,,,,,,,,,,,,,,,0,0,0,0,0
4.1234,1783968426.8550,1,1,5.5000,-0.0000,1.42241,-0.00814,-2.63258,1.06988,1.57080,0.11675,-0.12763,-0.48146,0.03434,,,,,,,,,,,,,,,,,,,,,,,,,,0,0,0,0,0
4.1237,1783968426.8553,1,1,5.5000,-0.0000,1.42241,-0.00814,-2.63258,1.06988,1.57080,0.11675,-0.12763,-0.48146,0.03434,,,,,,,,,,,,,,,,,,,,,,,,,,0,0,0,0,0
4.1380,1783968426.8696,1,1,5.5000,-0.0000,1.42241,-0.00822,-2.63259,1.06997,1.57080,0.11675,-0.12763,-0.48147,0.03432,,,,,,,,,,,,,,,,,,,,,,,,,,0,0,0,0,0
4.1426,1783968426.8742,1,1,5.5000,-0.0000,1.42241,-0.00824,-2.63259,1.06999,1.57080,0.11675,-0.12763,-0.48147,0.03431,,,,,,,,,,,,,,,,,,,,,,,,,,0,0,0,0,0
4.1531,1783968426.8847,1,1,5.5000,-0.0000,1.42241,-0.00834,-2.63260,1.07012,1.57080,0.11675,-0.12763,-0.48148,0.03428,,,,,,,,,,,,,,,,,,,,,,,,,,0,0,0,0,0
4.1773,1783968426.9089,1,1,5.5000,-0.0000,1.42241,-0.00862,-2.63262,1.07047,1.57080,0.11675,-0.12762,-0.48151,0.03421,,,,,,,,,,,,,,,,,,,,,,,,,,0,0,0,0,0
4.1789,1783968426.9105,1,1,5.5000,-0.0000,1.42241,-0.00862,-2.63262,1.07047,1.57080,0.11675,-0.12762,-0.48151,0.03421,,,,,,,,,,,,,,,,,,,,,,,,,,0,0,0,0,0
4.1842,1783968426.9157,1,1,5.5000,-0.0000,1.42241,-0.00866,-2.63262,1.07052,1.57080,0.11675,-0.12762,-0.48152,0.03420,,,,,,,,,,,,,,,,,,,,,,,,,,0,0,0,0,0
4.2046,1783968426.9362,1,1,5.5000,-0.0000,1.42241,-0.00874,-2.63261,1.07062,1.57080,0.11675,-0.12762,-0.48154,0.03419,,,,,,,,,,,,,,,,,,,,,,,,,,0,0,0,0,0
4.2058,1783968426.9374,1,1,5.5000,-0.0000,1.42241,-0.00874,-2.63261,1.07062,1.57080,0.11675,-0.12762,-0.48154,0.03419,,,,,,,,,,,,,,,,,,,,,,,,,,0,0,0,0,0
4.2171,1783968426.9487,1,1,5.5000,-0.0000,1.42241,-0.00874,-2.63261,1.07062,1.57080,0.11675,-0.12762,-0.48154,0.03419,,,,,,,,,,,,,,,,,,,,,,,,,,0,0,0,0,0
4.2244,1783968426.9560,1,1,5.5000,-0.0000,1.42241,-0.00874,-2.63261,1.07062,1.57080,0.11675,-0.12762,-0.48154,0.03419,,,,,,,,,,,,,,,,,,,,,,,,,,0,0,0,0,0
4.2337,1783968426.9653,1,1,5.5000,-0.0000,1.42241,-0.00874,-2.63261,1.07062,1.57080,0.11675,-0.12762,-0.48154,0.03419,,,,,,,,,,,,,,,,,,,,,,,,,,0,0,0,0,0
4.2431,1783968426.9747,1,1,5.5000,-0.0000,1.42241,-0.00874,-2.63261,1.07062,1.57080,0.11675,-0.12762,-0.48154,0.03419,,,,,,,,,,,,,,,,,,,,,,,,,,0,0,0,0,0
4.2658,1783968426.9974,1,1,5.5000,-0.0000,1.42241,-0.00874,-2.63261,1.07062,1.57080,0.11675,-0.12762,-0.48154,0.03419,,,,,,,,,,,,,,,,,,,,,,,,,,0,0,0,0,0
4.3661,1783968427.0977,1,1,5.5000,-0.0000,1.42241,-0.00874,-2.63261,1.07062,1.57080,0.11675,-0.12762,-0.48154,0.03419,,,,,,,,,,,,,,,,,,,,,,,,,,0,0,0,0,0
4.3837,1783968427.1153,1,1,5.5000,-0.0000,1.42241,-0.00874,-2.63261,1.07062,1.57080,0.11675,-0.12762,-0.48154,0.03419,,,,,,,,,,,,,,,,,,,,,,,,,,0,0,0,0,0
4.4023,1783968427.1339,1,1,5.5000,-0.0000,1.42241,-0.00874,-2.63262,1.07063,1.57081,0.11675,-0.12762,-0.48154,0.03418,,,,,,,,,,,,,,,,,,,,,,,,,,0,0,0,0,0
4.4039,1783968427.1355,1,1,5.5000,-0.0000,1.42241,-0.00874,-2.63262,1.07063,1.57081,0.11675,-0.12762,-0.48154,0.03418,,,,,,,,,,,,,,,,,,,,,,,,,,0,0,0,0,0
4.4054,1783968427.1370,1,1,5.5000,-0.0000,1.42241,-0.00874,-2.63262,1.07063,1.57081,0.11675,-0.12762,-0.48154,0.03418,,,,,,,,,,,,,,,,,,,,,,,,,,0,0,0,0,0
4.4064,1783968427.1380,1,1,5.5000,-0.0000,1.42241,-0.00874,-2.63262,1.07063,1.57081,0.11675,-0.12762,-0.48154,0.03418,,,,,,,,,,,,,,,,,,,,,,,,,,0,0,0,0,0
4.4067,1783968427.1383,1,1,5.5000,-0.0000,1.42241,-0.00874,-2.63262,1.07063,1.57081,0.11675,-0.12762,-0.48154,0.03418,,,,,,,,,,,,,,,,,,,,,,,,,,0,0,0,0,0
4.4081,1783968427.1397,1,1,5.5000,-0.0000,1.42241,-0.00874,-2.63262,1.07063,1.57081,0.11675,-0.12762,-0.48154,0.03418,,,,,,,,,,,,,,,,,,,,,,,,,,0,0,0,0,0
4.4085,1783968427.1401,1,1,5.5000,-0.0000,1.42241,-0.00874,-2.63262,1.07063,1.57081,0.11675,-0.12762,-0.48154,0.03418,,,,,,,,,,,,,,,,,,,,,,,,,,0,0,0,0,0
4.4091,1783968427.1407,1,1,5.5000,-0.0000,1.42241,-0.00875,-2.63262,1.07063,1.57081,0.11675,-0.12762,-0.48154,0.03418,,,,,,,,,,,,,,,,,,,,,,,,,,0,0,0,0,0
4.4097,1783968427.1413,1,1,5.5000,-0.0000,1.42241,-0.00875,-2.63262,1.07063,1.57081,0.11675,-0.12762,-0.48154,0.03418,,,,,,,,,,,,,,,,,,,,,,,,,,0,0,0,0,0
4.4122,1783968427.1438,1,1,5.5000,-0.0000,1.42241,-0.00875,-2.63262,1.07063,1.57081,0.11675,-0.12762,-0.48154,0.03418,,,,,,,,,,,,,,,,,,,,,,,,,,0,0,0,0,0
4.4126,1783968427.1442,1,1,5.5000,-0.0000,1.42241,-0.00875,-2.63262,1.07063,1.57081,0.11675,-0.12762,-0.48154,0.03418,,,,,,,,,,,,,,,,,,,,,,,,,,0,0,0,0,0
4.4172,1783968427.1488,1,1,5.5000,-0.0000,1.42241,-0.00876,-2.63263,1.07064,1.57081,0.11675,-0.12762,-0.48153,0.03417,,,,,,,,,,,,,,,,,,,,,,,,,,0,0,0,0,0
4.4176,1783968427.1492,1,1,5.5000,-0.0000,1.42241,-0.00876,-2.63263,1.07064,1.57081,0.11675,-0.12762,-0.48153,0.03417,,,,,,,,,,,,,,,,,,,,,,,,,,0,0,0,0,0
4.4232,1783968427.1548,1,1,5.5000,-0.0000,1.42241,-0.00877,-2.63264,1.07065,1.57081,0.11675,-0.12762,-0.48152,0.03417,,,,,,,,,,,,,,,,,,,,,,,,,,0,0,0,0,0
4.4254,1783968427.1570,1,1,5.5000,-0.0000,1.42241,-0.00878,-2.63265,1.07067,1.57081,0.11675,-0.12762,-0.48151,0.03416,,,,,,,,,,,,,,,,,,,,,,,,,,0,0,0,0,0
4.4257,1783968427.1573,1,1,5.5000,-0.0000,1.42241,-0.00878,-2.63265,1.07067,1.57081,0.11675,-0.12762,-0.48151,0.03416,,,,,,,,,,,,,,,,,,,,,,,,,,0,0,0,0,0
4.4435,1783968427.1751,1,1,5.5000,-0.0000,1.42241,-0.00881,-2.63269,1.07071,1.57081,0.11675,-0.12762,-0.48149,0.03414,,,,,,,,,,,,,,,,,,,,,,,,,,0,0,0,0,0
4.4578,1783968427.1894,1,1,5.5000,-0.0000,1.42241,-0.00887,-2.63273,1.07077,1.57081,0.11675,-0.12762,-0.48147,0.03410,,,,,,,,,,,,,,,,,,,,,,,,,,0,0,0,0,0
4.4620,1783968427.1936,1,1,5.5000,-0.0000,1.42241,-0.00889,-2.63274,1.07080,1.57081,0.11675,-0.12763,-0.48147,0.03409,,,,,,,,,,,,,,,,,,,,,,,,,,0,0,0,0,0
4.4643,1783968427.1959,1,1,5.5000,-0.0000,1.42241,-0.00889,-2.63274,1.07080,1.57081,0.11675,-0.12763,-0.48147,0.03409,,,,,,,,,,,,,,,,,,,,,,,,,,0,0,0,0,0
4.4647,1783968427.1963,1,1,5.5000,-0.0000,1.42241,-0.00889,-2.63274,1.07080,1.57081,0.11675,-0.12763,-0.48147,0.03409,,,,,,,,,,,,,,,,,,,,,,,,,,0,0,0,0,0
4.5284,1783968427.2600,1,1,5.5000,-0.0000,1.42241,-0.00932,-2.63285,1.07131,1.57081,0.11675,-0.12763,-0.48145,0.03394,,,,,,,,,,,,,,,,,,,,,,,,,,0,0,0,0,0
4.6120,1783968427.3436,1,1,5.5000,-0.0000,1.42241,-0.00986,-2.63288,1.07197,1.57081,0.11675,-0.12762,-0.48152,0.03380,,,,,,,,,,,,,,,,,,,,,,,,,,0,0,0,0,0
4.6125,1783968427.3441,1,1,5.5000,-0.0000,1.42241,-0.00986,-2.63288,1.07197,1.57081,0.11675,-0.12762,-0.48152,0.03380,,,,,,,,,,,,,,,,,,,,,,,,,,0,0,0,0,0
4.6129,1783968427.3444,1,1,5.5000,-0.0000,1.42241,-0.00986,-2.63288,1.07197,1.57081,0.11675,-0.12762,-0.48152,0.03380,,,,,,,,,,,,,,,,,,,,,,,,,,0,0,0,0,0
4.6142,1783968427.3458,1,1,5.5000,-0.0000,1.42241,-0.00989,-2.63287,1.07201,1.57081,0.11675,-0.12761,-0.48153,0.03379,,,,,,,,,,,,,,,,,,,,,,,,,,0,0,0,0,0
4.6146,1783968427.3462,1,1,5.5000,-0.0000,1.42241,-0.00989,-2.63287,1.07201,1.57081,0.11675,-0.12761,-0.48153,0.03379,,,,,,,,,,,,,,,,,,,,,,,,,,0,0,0,0,0
4.6174,1783968427.3490,1,1,5.5000,-0.0000,1.42241,-0.00991,-2.63286,1.07204,1.57081,0.11675,-0.12761,-0.48154,0.03379,,,,,,,,,,,,,,,,,,,,,,,,,,0,0,0,0,0
4.6178,1783968427.3493,1,1,5.5000,-0.0000,1.42241,-0.00991,-2.63286,1.07204,1.57081,0.11675,-0.12761,-0.48154,0.03379,,,,,,,,,,,,,,,,,,,,,,,,,,0,0,0,0,0
4.6180,1783968427.3496,1,1,5.5000,-0.0000,1.42241,-0.00991,-2.63286,1.07204,1.57081,0.11675,-0.12761,-0.48154,0.03379,,,,,,,,,,,,,,,,,,,,,,,,,,0,0,0,0,0
4.6200,1783968427.3516,1,1,5.5000,-0.0000,1.42241,-0.00991,-2.63286,1.07204,1.57081,0.11675,-0.12761,-0.48154,0.03379,,,,,,,,,,,,,,,,,,,,,,,,,,0,0,0,0,0
4.6304,1783968427.3619,1,1,5.5000,-0.0000,1.42241,-0.00993,-2.63286,1.07206,1.57081,0.11675,-0.12761,-0.48155,0.03379,,,,,,,,,,,,,,,,,,,,,,,,,,0,0,0,0,0
4.6458,1783968427.3774,1,1,5.5000,-0.0000,1.42241,-0.00993,-2.63286,1.07206,1.57081,0.11675,-0.12761,-0.48155,0.03379,,,,,,,,,,,,,,,,,,,,,,,,,,0,0,0,0,0
4.6502,1783968427.3818,1,1,5.5000,-0.0000,1.42241,-0.00993,-2.63286,1.07206,1.57081,0.11675,-0.12761,-0.48155,0.03379,,,,,,,,,,,,,,,,,,,,,,,,,,0,0,0,0,0
4.6505,1783968427.3821,1,1,5.5000,-0.0000,1.42241,-0.00993,-2.63286,1.07206,1.57081,0.11675,-0.12761,-0.48155,0.03379,,,,,,,,,,,,,,,,,,,,,,,,,,0,0,0,0,0
4.6509,1783968427.3825,1,1,5.5000,-0.0000,1.42241,-0.00993,-2.63286,1.07206,1.57081,0.11675,-0.12761,-0.48155,0.03379,,,,,,,,,,,,,,,,,,,,,,,,,,0,0,0,0,0
4.6574,1783968427.3890,1,1,5.5000,-0.0000,1.42241,-0.00993,-2.63286,1.07206,1.57081,0.11675,-0.12761,-0.48155,0.03379,,,,,,,,,,,,,,,,,,,,,,,,,,0,0,0,0,0
4.6641,1783968427.3957,1,1,5.5000,-0.0000,1.42241,-0.00993,-2.63286,1.07206,1.57081,0.11675,-0.12761,-0.48155,0.03379,,,,,,,,,,,,,,,,,,,,,,,,,,0,0,0,0,0
4.6644,1783968427.3960,1,1,5.5000,-0.0000,1.42241,-0.00993,-2.63286,1.07206,1.57081,0.11675,-0.12761,-0.48155,0.03379,,,,,,,,,,,,,,,,,,,,,,,,,,0,0,0,0,0
4.6648,1783968427.3963,1,1,5.5000,-0.0000,1.42241,-0.00993,-2.63286,1.07206,1.57081,0.11675,-0.12761,-0.48155,0.03379,,,,,,,,,,,,,,,,,,,,,,,,,,0,0,0,0,0
4.6654,1783968427.3970,1,1,5.5000,-0.0000,1.42241,-0.00993,-2.63286,1.07206,1.57081,0.11675,-0.12761,-0.48155,0.03379,,,,,,,,,,,,,,,,,,,,,,,,,,0,0,0,0,0
4.6668,1783968427.3984,1,1,5.5000,-0.0000,1.42241,-0.00993,-2.63286,1.07206,1.57081,0.11675,-0.12761,-0.48155,0.03379,,,,,,,,,,,,,,,,,,,,,,,,,,0,0,0,0,0
4.6671,1783968427.3987,1,1,5.5000,-0.0000,1.42241,-0.00993,-2.63286,1.07206,1.57081,0.11675,-0.12761,-0.48155,0.03379,,,,,,,,,,,,,,,,,,,,,,,,,,0,0,0,0,0
4.6685,1783968427.4000,1,1,5.5000,-0.0000,1.42241,-0.00993,-2.63286,1.07206,1.57081,0.11675,-0.12761,-0.48155,0.03379,,,,,,,,,,,,,,,,,,,,,,,,,,0,0,0,0,0
4.6735,1783968427.4051,1,1,5.5000,-0.0000,1.42241,-0.00993,-2.63286,1.07206,1.57081,0.11675,-0.12761,-0.48155,0.03379,,,,,,,,,,,,,,,,,,,,,,,,,,0,0,0,0,0
4.6831,1783968427.4147,1,1,5.5000,-0.0000,1.42241,-0.00993,-2.63286,1.07206,1.57081,0.11675,-0.12761,-0.48155,0.03379,,,,,,,,,,,,,,,,,,,,,,,,,,0,0,0,0,0
4.6884,1783968427.4200,1,1,5.5000,-0.0000,1.42241,-0.00993,-2.63286,1.07206,1.57081,0.11675,-0.12761,-0.48155,0.03379,,,,,,,,,,,,,,,,,,,,,,,,,,0,0,0,0,0
4.6984,1783968427.4300,1,1,5.5000,-0.0000,1.42241,-0.00993,-2.63286,1.07206,1.57081,0.11675,-0.12761,-0.48155,0.03379,,,,,,,,,,,,,,,,,,,,,,,,,,0,0,0,0,0
4.7087,1783968427.4403,1,1,5.5000,-0.0000,1.42241,-0.00993,-2.63286,1.07206,1.57081,0.11675,-0.12761,-0.48155,0.03379,,,,,,,,,,,,,,,,,,,,,,,,,,0,0,0,0,0
4.7121,1783968427.4437,1,1,5.5000,-0.0000,1.42241,-0.00993,-2.63286,1.07206,1.57081,0.11675,-0.12761,-0.48155,0.03379,,,,,,,,,,,,,,,,,,,,,,,,,,0,0,0,0,0
4.7236,1783968427.4552,1,1,5.5000,-0.0000,1.42241,-0.00993,-2.63286,1.07206,1.57081,0.11675,-0.12761,-0.48155,0.03379,,,,,,,,,,,,,,,,,,,,,,,,,,0,0,0,0,0
4.7380,1783968427.4696,1,1,5.5000,-0.0000,1.42241,-0.00993,-2.63286,1.07206,1.57081,0.11675,-0.12761,-0.48155,0.03379,,,,,,,,,,,,,,,,,,,,,,,,,,0,0,0,0,0
4.7439,1783968427.4755,1,1,5.5000,-0.0000,1.42241,-0.00993,-2.63286,1.07206,1.57081,0.11675,-0.12761,-0.48155,0.03379,,,,,,,,,,,,,,,,,,,,,,,,,,0,0,0,0,0
4.7575,1783968427.4891,1,1,5.5000,-0.0000,1.42241,-0.00993,-2.63286,1.07206,1.57081,0.11675,-0.12761,-0.48155,0.03379,,,,,,,,,,,,,,,,,,,,,,,,,,0,0,0,0,0
4.7636,1783968427.4952,1,1,5.5000,-0.0000,1.42241,-0.00993,-2.63286,1.07206,1.57081,0.11675,-0.12761,-0.48155,0.03379,,,,,,,,,,,,,,,,,,,,,,,,,,0,0,0,0,0
4.7760,1783968427.5076,1,1,5.5000,-0.0000,1.42241,-0.00993,-2.63286,1.07206,1.57081,0.11675,-0.12761,-0.48155,0.03379,,,,,,,,,,,,,,,,,,,,,,,,,,0,0,0,0,0
4.8170,1783968427.5486,1,1,5.5000,-0.0000,1.42241,-0.00993,-2.63286,1.07206,1.57081,0.11675,-0.12761,-0.48155,0.03379,,,,,,,,,,,,,,,,,,,,,,,,,,0,0,0,0,0
4.8223,1783968427.5539,1,1,5.5000,-0.0000,1.42241,-0.00993,-2.63286,1.07206,1.57081,0.11675,-0.12761,-0.48155,0.03379,,,,,,,,,,,,,,,,,,,,,,,,,,0,0,0,0,0
4.8336,1783968427.5652,1,1,5.5000,-0.0000,1.42241,-0.00994,-2.63287,1.07207,1.57081,0.11675,-0.12761,-0.48154,0.03378,,,,,,,,,,,,,,,,,,,,,,,,,,0,0,0,0,0
4.8339,1783968427.5655,1,1,5.5000,-0.0000,1.42241,-0.00994,-2.63287,1.07207,1.57081,0.11675,-0.12761,-0.48154,0.03378,,,,,,,,,,,,,,,,,,,,,,,,,,0,0,0,0,0
4.8357,1783968427.5673,1,1,5.5000,-0.0000,1.42241,-0.00994,-2.63287,1.07207,1.57081,0.11675,-0.12761,-0.48154,0.03378,,,,,,,,,,,,,,,,,,,,,,,,,,0,0,0,0,0
4.8360,1783968427.5676,1,1,5.5000,-0.0000,1.42241,-0.00994,-2.63287,1.07207,1.57081,0.11675,-0.12761,-0.48154,0.03378,,,,,,,,,,,,,,,,,,,,,,,,,,0,0,0,0,0
4.8374,1783968427.5690,1,1,5.5000,-0.0000,1.42241,-0.00994,-2.63288,1.07208,1.57081,0.11675,-0.12761,-0.48153,0.03378,,,,,,,,,,,,,,,,,,,,,,,,,,0,0,0,0,0
4.8671,1783968427.5987,1,1,5.5000,-0.0000,1.42241,-0.00999,-2.63294,1.07214,1.57081,0.11675,-0.12762,-0.48150,0.03374,,,,,,,,,,,,,,,,,,,,,,,,,,0,0,0,0,0
4.8793,1783968427.6109,1,1,5.5000,-0.0000,1.42241,-0.01005,-2.63298,1.07220,1.57081,0.11675,-0.12762,-0.48147,0.03371,,,,,,,,,,,,,,,,,,,,,,,,,,0,0,0,0,0
4.8864,1783968427.6180,1,1,5.5000,-0.0000,1.42240,-0.01010,-2.63302,1.07226,1.57081,0.11675,-0.12762,-0.48146,0.03368,,,,,,,,,,,,,,,,,,,,,,,,,,0,0,0,0,0
4.8868,1783968427.6183,1,1,5.5000,-0.0000,1.42240,-0.01010,-2.63302,1.07226,1.57081,0.11675,-0.12762,-0.48146,0.03368,,,,,,,,,,,,,,,,,,,,,,,,,,0,0,0,0,0
4.8936,1783968427.6252,1,1,5.5000,-0.0000,1.42240,-0.01010,-2.63302,1.07226,1.57081,0.11675,-0.12762,-0.48145,0.03368,,,,,,,,,,,,,,,,,,,,,,,,,,0,0,0,0,0
4.9125,1783968427.6440,1,1,5.5000,-0.0000,1.42240,-0.01017,-2.63304,1.07235,1.57081,0.11675,-0.12763,-0.48145,0.03365,,,,,,,,,,,,,,,,,,,,,,,,,,0,0,0,0,0
4.9135,1783968427.6451,1,1,5.5000,-0.0000,1.42240,-0.01020,-2.63305,1.07238,1.57081,0.11675,-0.12763,-0.48145,0.03364,,,,,,,,,,,,,,,,,,,,,,,,,,0,0,0,0,0
4.9137,1783968427.6453,1,1,5.5000,-0.0000,1.42240,-0.01020,-2.63305,1.07238,1.57081,0.11675,-0.12763,-0.48145,0.03364,,,,,,,,,,,,,,,,,,,,,,,,,,0,0,0,0,0
4.9221,1783968427.6537,1,1,5.5000,-0.0000,1.42240,-0.01027,-2.63307,1.07247,1.57081,0.11675,-0.12763,-0.48144,0.03361,,,,,,,,,,,,,,,,,,,,,,,,,,0,0,0,0,0
4.9341,1783968427.6656,1,1,5.5000,-0.0000,1.42240,-0.01039,-2.63310,1.07261,1.57081,0.11675,-0.12763,-0.48144,0.03357,,,,,,,,,,,,,,,,,,,,,,,,,,0,0,0,0,0
4.9570,1783968427.6886,1,1,5.5000,-0.0000,1.42240,-0.01055,-2.63314,1.07281,1.57081,0.11675,-0.12763,-0.48144,0.03352,,,,,,,,,,,,,,,,,,,,,,,,,,0,0,0,0,0
4.9576,1783968427.6892,1,1,5.5000,-0.0000,1.42240,-0.01055,-2.63314,1.07281,1.57081,0.11675,-0.12763,-0.48144,0.03351,,,,,,,,,,,,,,,,,,,,,,,,,,0,0,0,0,0
4.9578,1783968427.6894,1,1,5.5000,-0.0000,1.42240,-0.01055,-2.63314,1.07281,1.57081,0.11675,-0.12763,-0.48144,0.03351,,,,,,,,,,,,,,,,,,,,,,,,,,0,0,0,0,0
4.9627,1783968427.6943,1,1,5.5000,-0.0000,1.42240,-0.01057,-2.63314,1.07283,1.57081,0.11675,-0.12763,-0.48144,0.03351,,,,,,,,,,,,,,,,,,,,,,,,,,0,0,0,0,0
4.9630,1783968427.6946,1,1,5.5000,-0.0000,1.42240,-0.01057,-2.63314,1.07283,1.57081,0.11675,-0.12763,-0.48144,0.03351,,,,,,,,,,,,,,,,,,,,,,,,,,0,0,0,0,0
4.9743,1783968427.7059,1,1,5.5000,-0.0000,1.42240,-0.01064,-2.63315,1.07291,1.57081,0.11675,-0.12762,-0.48145,0.03349,,,,,,,,,,,,,,,,,,,,,,,,,,0,0,0,0,0
4.9818,1783968427.7134,1,1,5.5000,-0.0000,1.42240,-0.01064,-2.63315,1.07292,1.57081,0.11675,-0.12762,-0.48145,0.03349,,,,,,,,,,,,,,,,,,,,,,,,,,0,0,0,0,0
4.9955,1783968427.7271,1,1,5.5000,-0.0000,1.42240,-0.01071,-2.63315,1.07300,1.57081,0.11675,-0.12762,-0.48145,0.03347,,,,,,,,,,,,,,,,,,,,,,,,,,0,0,0,0,0
5.0153,1783968427.7469,1,1,5.5000,-0.0000,1.42240,-0.01083,-2.63316,1.07314,1.57081,0.11675,-0.12762,-0.48146,0.03344,,,,,,,,,,,,,,,,,,,,,,,,,,0,0,0,0,0
5.0160,1783968427.7476,1,1,5.5000,-0.0000,1.42240,-0.01083,-2.63316,1.07314,1.57081,0.11675,-0.12762,-0.48146,0.03344,,,,,,,,,,,,,,,,,,,,,,,,,,0,0,0,0,0
5.0223,1783968427.7539,1,1,5.5000,-0.0000,1.42240,-0.01085,-2.63316,1.07317,1.57081,0.11675,-0.12762,-0.48147,0.03343,,,,,,,,,,,,,,,,,,,,,,,,,,0,0,0,0,0
5.0226,1783968427.7542,1,1,5.5000,-0.0000,1.42240,-0.01085,-2.63316,1.07317,1.57081,0.11675,-0.12762,-0.48147,0.03343,,,,,,,,,,,,,,,,,,,,,,,,,,0,0,0,0,0
5.0376,1783968427.7692,1,1,5.5000,-0.0000,1.42240,-0.01095,-2.63314,1.07329,1.57081,0.11675,-0.12762,-0.48150,0.03342,,,,,,,,,,,,,,,,,,,,,,,,,,0,0,0,0,0
5.0421,1783968427.7737,1,1,5.5000,-0.0000,1.42240,-0.01098,-2.63314,1.07333,1.57081,0.11675,-0.12761,-0.48151,0.03341,,,,,,,,,,,,,,,,,,,,,,,,,,0,0,0,0,0
5.0591,1783968427.7907,1,1,5.5000,-0.0000,1.42240,-0.01109,-2.63310,1.07346,1.57081,0.11675,-0.12761,-0.48155,0.03340,,,,,,,,,,,,,,,,,,,,,,,,,,0,0,0,0,0
5.0620,1783968427.7936,1,1,5.5000,-0.0000,1.42240,-0.01110,-2.63309,1.07348,1.57081,0.11675,-0.12761,-0.48156,0.03340,,,,,,,,,,,,,,,,,,,,,,,,,,0,0,0,0,0
5.0623,1783968427.7939,1,1,5.5000,-0.0000,1.42240,-0.01110,-2.63309,1.07348,1.57081,0.11675,-0.12761,-0.48156,0.03340,,,,,,,,,,,,,,,,,,,,,,,,,,0,0,0,0,0
5.0739,1783968427.8054,1,1,5.5000,-0.0000,1.42240,-0.01112,-2.63306,1.07350,1.57081,0.11675,-0.12760,-0.48158,0.03341,,,,,,,,,,,,,,,,,,,,,,,,,,0,0,0,0,0
5.0835,1783968427.8151,1,1,5.5000,-0.0000,1.42240,-0.01112,-2.63306,1.07350,1.57081,0.11675,-0.12760,-0.48158,0.03341,,,,,,,,,,,,,,,,,,,,,,,,,,0,0,0,0,0
5.0981,1783968427.8297,1,1,5.5000,-0.0000,1.42240,-0.01112,-2.63306,1.07350,1.57081,0.11675,-0.12760,-0.48158,0.03341,,,,,,,,,,,,,,,,,,,,,,,,,,0,0,0,0,0
5.1021,1783968427.8337,1,1,5.5000,-0.0000,1.42240,-0.01112,-2.63306,1.07350,1.57081,0.11675,-0.12760,-0.48158,0.03341,,,,,,,,,,,,,,,,,,,,,,,,,,0,0,0,0,0
5.1168,1783968427.8484,1,1,5.5000,-0.0000,1.42240,-0.01112,-2.63306,1.07350,1.57081,0.11675,-0.12760,-0.48158,0.03341,,,,,,,,,,,,,,,,,,,,,,,,,,0,0,0,0,0
5.1229,1783968427.8545,1,1,5.5000,-0.0000,1.42240,-0.01112,-2.63306,1.07350,1.57081,0.11675,-0.12760,-0.48158,0.03341,,,,,,,,,,,,,,,,,,,,,,,,,,0,0,0,0,0
5.1340,1783968427.8656,1,1,5.5000,-0.0000,1.42240,-0.01112,-2.63306,1.07350,1.57081,0.11675,-0.12760,-0.48158,0.03341,,,,,,,,,,,,,,,,,,,,,,,,,,0,0,0,0,0
5.1343,1783968427.8659,1,1,5.5000,-0.0000,1.42240,-0.01112,-2.63306,1.07350,1.57081,0.11675,-0.12760,-0.48158,0.03341,,,,,,,,,,,,,,,,,,,,,,,,,,0,0,0,0,0
5.1458,1783968427.8774,1,1,5.5000,-0.0000,1.42240,-0.01112,-2.63306,1.07350,1.57081,0.11675,-0.12760,-0.48158,0.03341,,,,,,,,,,,,,,,,,,,,,,,,,,0,0,0,0,0
5.1589,1783968427.8905,1,1,5.5000,-0.0000,1.42240,-0.01112,-2.63306,1.07350,1.57081,0.11675,-0.12760,-0.48158,0.03341,,,,,,,,,,,,,,,,,,,,,,,,,,0,0,0,0,0
5.1626,1783968427.8942,1,1,5.5000,-0.0000,1.42240,-0.01112,-2.63306,1.07350,1.57081,0.11675,-0.12760,-0.48158,0.03341,,,,,,,,,,,,,,,,,,,,,,,,,,0,0,0,0,0
