Martins-Lucaas/twinforge/sensors/Data/celula de carga/20260713_154133__samples.csv
t_rel_s,t_unix,cycle,phase,setpoint_n,force_net_n,q1,q2,q3,q4,q5,q6,tcp_x,tcp_y,tcp_z,taxel_0,taxel_1,taxel_2,taxel_3,taxel_4,taxel_5,taxel_6,taxel_7,taxel_8,taxel_9,taxel_10,taxel_11,taxel_12,taxel_13,taxel_14,taxel_15,taxel_16,taxel_17,taxel_18,taxel_19,taxel_20,taxel_21,taxel_22,taxel_23,taxel_24,n_RA,n_SA,cn_mm,cn_ra,cn_sa
0.0093,1783968093.6546,1,0,3.5000,-0.0000,1.42244,0.00069,-2.63052,1.05908,1.57084,0.11671,-0.12762,-0.48153,0.03738,,,,,,,,,,,,,,,,,,,,,,,,,,0,0,0,0,0
0.0109,1783968093.6563,1,0,3.5000,-0.0000,1.42244,0.00069,-2.63052,1.05908,1.57084,0.11671,-0.12762,-0.48153,0.03738,,,,,,,,,,,,,,,,,,,,,,,,,,0,0,0,0,0
0.0149,1783968093.6602,1,0,3.5000,-0.0000,1.42244,0.00069,-2.63052,1.05908,1.57084,0.11671,-0.12762,-0.48153,0.03738,,,,,,,,,,,,,,,,,,,,,,,,,,0,0,0,0,0
0.0152,1783968093.6606,1,0,3.5000,-0.0000,1.42244,0.00069,-2.63052,1.05908,1.57084,0.11671,-0.12762,-0.48153,0.03738,,,,,,,,,,,,,,,,,,,,,,,,,,0,0,0,0,0
0.0353,1783968093.6807,1,0,3.5000,-0.0000,1.42244,0.00069,-2.63052,1.05908,1.57084,0.11671,-0.12762,-0.48153,0.03738,,,,,,,,,,,,,,,,,,,,,,,,,,0,0,0,0,0
0.0364,1783968093.6817,1,0,3.5000,-0.0000,1.42244,0.00069,-2.63052,1.05908,1.57084,0.11671,-0.12762,-0.48153,0.03738,,,,,,,,,,,,,,,,,,,,,,,,,,0,0,0,0,0
0.0367,1783968093.6820,1,0,3.5000,-0.0000,1.42244,0.00069,-2.63052,1.05908,1.57084,0.11671,-0.12762,-0.48153,0.03738,,,,,,,,,,,,,,,,,,,,,,,,,,0,0,0,0,0
0.0450,1783968093.6903,1,0,3.5000,-0.0000,1.42244,0.00069,-2.63052,1.05908,1.57084,0.11671,-0.12762,-0.48153,0.03738,,,,,,,,,,,,,,,,,,,,,,,,,,0,0,0,0,0
0.0601,1783968093.7054,1,0,3.5000,-0.0000,1.42244,0.00070,-2.63052,1.05907,1.57083,0.11672,-0.12762,-0.48153,0.03738,,,,,,,,,,,,,,,,,,,,,,,,,,0,0,0,0,0
0.0702,1783968093.7156,1,0,3.5000,-0.0000,1.42244,0.00070,-2.63053,1.05907,1.57082,0.11674,-0.12763,-0.48153,0.03738,,,,,,,,,,,,,,,,,,,,,,,,,,0,0,0,0,0
0.0705,1783968093.7159,1,0,3.5000,-0.0000,1.42244,0.00070,-2.63053,1.05907,1.57082,0.11674,-0.12763,-0.48153,0.03738,,,,,,,,,,,,,,,,,,,,,,,,,,0,0,0,0,0
0.0758,1783968093.7212,1,0,3.5000,-0.0000,1.42244,0.00070,-2.63053,1.05907,1.57081,0.11674,-0.12763,-0.48153,0.03738,,,,,,,,,,,,,,,,,,,,,,,,,,0,0,0,0,0
0.0917,1783968093.7371,1,0,3.5000,-0.0000,1.42244,0.00071,-2.63053,1.05907,1.57080,0.11675,-0.12763,-0.48152,0.03738,,,,,,,,,,,,,,,,,,,,,,,,,,0,0,0,0,0
0.0936,1783968093.7390,1,0,3.5000,-0.0000,1.42244,0.00071,-2.63053,1.05907,1.57080,0.11675,-0.12763,-0.48152,0.03738,,,,,,,,,,,,,,,,,,,,,,,,,,0,0,0,0,0
0.0942,1783968093.7395,1,0,3.5000,-0.0000,1.42244,0.00071,-2.63053,1.05907,1.57080,0.11675,-0.12764,-0.48152,0.03738,,,,,,,,,,,,,,,,,,,,,,,,,,0,0,0,0,0
0.1167,1783968093.7620,1,0,3.5000,-0.0000,1.42244,0.00071,-2.63053,1.05907,1.57080,0.11675,-0.12764,-0.48152,0.03738,,,,,,,,,,,,,,,,,,,,,,,,,,0,0,0,0,0
0.1185,1783968093.7639,1,0,3.5000,-0.0000,1.42244,0.00071,-2.63053,1.05907,1.57080,0.11675,-0.12764,-0.48152,0.03738,,,,,,,,,,,,,,,,,,,,,,,,,,0,0,0,0,0
0.1303,1783968093.7756,1,0,3.5000,-0.0000,1.42244,0.00071,-2.63053,1.05907,1.57080,0.11675,-0.12764,-0.48152,0.03738,,,,,,,,,,,,,,,,,,,,,,,,,,0,0,0,0,0
0.1378,1783968093.7831,1,0,3.5000,-0.0000,1.42244,0.00071,-2.63053,1.05907,1.57080,0.11675,-0.12764,-0.48152,0.03738,,,,,,,,,,,,,,,,,,,,,,,,,,0,0,0,0,0
0.1453,1783968093.7906,1,0,3.5000,-0.0000,1.42244,0.00071,-2.63053,1.05907,1.57080,0.11675,-0.12764,-0.48152,0.03738,,,,,,,,,,,,,,,,,,,,,,,,,,0,0,0,0,0
0.1562,1783968093.8016,1,0,3.5000,-0.0000,1.42244,0.00071,-2.63053,1.05907,1.57080,0.11675,-0.12764,-0.48152,0.03738,,,,,,,,,,,,,,,,,,,,,,,,,,0,0,0,0,0
0.1678,1783968093.8131,1,0,3.5000,-0.0000,1.42244,0.00071,-2.63053,1.05907,1.57080,0.11675,-0.12764,-0.48152,0.03738,,,,,,,,,,,,,,,,,,,,,,,,,,0,0,0,0,0
0.1759,1783968093.8212,1,0,3.5000,-0.0000,1.42244,0.00071,-2.63053,1.05907,1.57080,0.11675,-0.12764,-0.48152,0.03738,,,,,,,,,,,,,,,,,,,,,,,,,,0,0,0,0,0
0.1837,1783968093.8290,1,0,3.5000,-0.0000,1.42244,0.00071,-2.63053,1.05907,1.57080,0.11675,-0.12764,-0.48152,0.03738,,,,,,,,,,,,,,,,,,,,,,,,,,0,0,0,0,0
0.1840,1783968093.8293,1,0,3.5000,-0.0000,1.42244,0.00071,-2.63053,1.05907,1.57080,0.11675,-0.12764,-0.48152,0.03738,,,,,,,,,,,,,,,,,,,,,,,,,,0,0,0,0,0
0.1985,1783968093.8438,1,0,3.5000,-0.0000,1.42244,0.00071,-2.63053,1.05907,1.57080,0.11675,-0.12764,-0.48152,0.03738,,,,,,,,,,,,,,,,,,,,,,,,,,0,0,0,0,0
0.2067,1783968093.8520,1,0,3.5000,-0.0000,1.42244,0.00071,-2.63053,1.05907,1.57080,0.11675,-0.12764,-0.48152,0.03738,,,,,,,,,,,,,,,,,,,,,,,,,,0,0,0,0,0
0.2070,1783968093.8524,1,0,3.5000,-0.0000,1.42244,0.00071,-2.63053,1.05907,1.57080,0.11675,-0.12764,-0.48152,0.03738,,,,,,,,,,,,,,,,,,,,,,,,,,0,0,0,0,0
0.2147,1783968093.8600,1,0,3.5000,-0.0000,1.42244,0.00071,-2.63053,1.05907,1.57080,0.11675,-0.12764,-0.48152,0.03738,,,,,,,,,,,,,,,,,,,,,,,,,,0,0,0,0,0
0.2303,1783968093.8757,1,0,3.5000,-0.0000,1.42244,0.00071,-2.63053,1.05907,1.57080,0.11675,-0.12764,-0.48152,0.03738,,,,,,,,,,,,,,,,,,,,,,,,,,0,0,0,0,0
0.2379,1783968093.8833,1,0,3.5000,-0.0000,1.42244,0.00071,-2.63053,1.05907,1.57080,0.11675,-0.12764,-0.48152,0.03738,,,,,,,,,,,,,,,,,,,,,,,,,,0,0,0,0,0
0.2480,1783968093.8934,1,0,3.5000,-0.0000,1.42244,0.00071,-2.63053,1.05907,1.57080,0.11675,-0.12764,-0.48152,0.03738,,,,,,,,,,,,,,,,,,,,,,,,,,0,0,0,0,0
0.2566,1783968093.9019,1,0,3.5000,-0.0000,1.42244,0.00071,-2.63053,1.05907,1.57080,0.11675,-0.12764,-0.48152,0.03738,,,,,,,,,,,,,,,,,,,,,,,,,,0,0,0,0,0
0.2749,1783968093.9203,1,0,3.5000,-0.0000,1.42244,0.00071,-2.63053,1.05907,1.57080,0.11675,-0.12764,-0.48152,0.03738,,,,,,,,,,,,,,,,,,,,,,,,,,0,0,0,0,0
0.2754,1783968093.9208,1,0,3.5000,-0.0000,1.42244,0.00071,-2.63053,1.05907,1.57080,0.11675,-0.12764,-0.48152,0.03738,,,,,,,,,,,,,,,,,,,,,,,,,,0,0,0,0,0
0.2837,1783968093.9290,1,0,3.5000,-0.0000,1.42244,0.00071,-2.63053,1.05907,1.57080,0.11675,-0.12764,-0.48152,0.03738,,,,,,,,,,,,,,,,,,,,,,,,,,0,0,0,0,0
0.2967,1783968093.9420,1,0,3.5000,-0.0000,1.42244,0.00071,-2.63053,1.05907,1.57080,0.11675,-0.12764,-0.48152,0.03738,,,,,,,,,,,,,,,,,,,,,,,,,,0,0,0,0,0
0.2971,1783968093.9424,1,0,3.5000,-0.0000,1.42244,0.00071,-2.63053,1.05907,1.57080,0.11675,-0.12764,-0.48152,0.03738,,,,,,,,,,,,,,,,,,,,,,,,,,0,0,0,0,0
0.3052,1783968093.9506,1,0,3.5000,-0.0000,1.42244,0.00071,-2.63053,1.05907,1.57080,0.11675,-0.12764,-0.48152,0.03738,,,,,,,,,,,,,,,,,,,,,,,,,,0,0,0,0,0
0.3208,1783968093.9661,1,0,3.5000,-0.0000,1.42244,0.00071,-2.63053,1.05907,1.57080,0.11675,-0.12764,-0.48152,0.03738,,,,,,,,,,,,,,,,,,,,,,,,,,0,0,0,0,0
0.3366,1783968093.9819,1,0,3.5000,-0.0000,1.42244,0.00071,-2.63053,1.05907,1.57080,0.11675,-0.12764,-0.48152,0.03738,,,,,,,,,,,,,,,,,,,,,,,,,,0,0,0,0,0
0.3402,1783968093.9855,1,0,3.5000,-0.0000,1.42244,0.00071,-2.63053,1.05907,1.57080,0.11675,-0.12764,-0.48152,0.03738,,,,,,,,,,,,,,,,,,,,,,,,,,0,0,0,0,0
0.3492,1783968093.9946,1,0,3.5000,-0.0000,1.42244,0.00071,-2.63053,1.05907,1.57080,0.11675,-0.12764,-0.48152,0.03738,,,,,,,,,,,,,,,,,,,,,,,,,,0,0,0,0,0
0.3596,1783968094.0050,1,0,3.5000,-0.0000,1.42244,0.00071,-2.63053,1.05907,1.57080,0.11675,-0.12764,-0.48152,0.03738,,,,,,,,,,,,,,,,,,,,,,,,,,0,0,0,0,0
0.3671,1783968094.0124,1,0,3.5000,-0.0000,1.42244,0.00071,-2.63053,1.05907,1.57080,0.11675,-0.12764,-0.48152,0.03738,,,,,,,,,,,,,,,,,,,,,,,,,,0,0,0,0,0
0.3753,1783968094.0206,1,0,3.5000,-0.0000,1.42244,0.00071,-2.63053,1.05907,1.57080,0.11675,-0.12764,-0.48152,0.03738,,,,,,,,,,,,,,,,,,,,,,,,,,0,0,0,0,0
0.3755,1783968094.0209,1,0,3.5000,-0.0000,1.42244,0.00071,-2.63053,1.05907,1.57080,0.11675,-0.12764,-0.48152,0.03738,,,,,,,,,,,,,,,,,,,,,,,,,,0,0,0,0,0
0.3838,1783968094.0292,1,0,3.5000,-0.0000,1.42244,0.00071,-2.63053,1.05907,1.57080,0.11675,-0.12764,-0.48152,0.03738,,,,,,,,,,,,,,,,,,,,,,,,,,0,0,0,0,0
0.3957,1783968094.0411,1,0,3.5000,-0.0000,1.42244,0.00071,-2.63053,1.05907,1.57080,0.11675,-0.12764,-0.48152,0.03738,,,,,,,,,,,,,,,,,,,,,,,,,,0,0,0,0,0
0.4070,1783968094.0523,1,0,3.5000,-0.0000,1.42244,0.00071,-2.63053,1.05907,1.57080,0.11675,-0.12764,-0.48152,0.03738,,,,,,,,,,,,,,,,,,,,,,,,,,0,0,0,0,0
0.4170,1783968094.0624,1,0,3.5000,-0.0000,1.42244,0.00071,-2.63053,1.05907,1.57080,0.11675,-0.12764,-0.48152,0.03738,,,,,,,,,,,,,,,,,,,,,,,,,,0,0,0,0,0
0.4282,1783968094.0736,1,0,3.5000,-0.0000,1.42244,0.00071,-2.63053,1.05907,1.57080,0.11675,-0.12764,-0.48152,0.03738,,,,,,,,,,,,,,,,,,,,,,,,,,0,0,0,0,0
0.4365,1783968094.0819,1,0,3.5000,-0.0000,1.42244,0.00071,-2.63053,1.05907,1.57080,0.11675,-0.12764,-0.48152,0.03738,,,,,,,,,,,,,,,,,,,,,,,,,,0,0,0,0,0
0.4458,1783968094.0911,1,0,3.5000,-0.0000,1.42244,0.00071,-2.63053,1.05907,1.57080,0.11675,-0.12764,-0.48152,0.03738,,,,,,,,,,,,,,,,,,,,,,,,,,0,0,0,0,0
0.4552,1783968094.1006,1,0,3.5000,-0.0000,1.42244,0.00071,-2.63053,1.05907,1.57080,0.11675,-0.12764,-0.48152,0.03738,,,,,,,,,,,,,,,,,,,,,,,,,,0,0,0,0,0
0.4698,1783968094.1151,1,0,3.5000,-0.0000,1.42244,0.00071,-2.63053,1.05907,1.57080,0.11675,-0.12764,-0.48152,0.03738,,,,,,,,,,,,,,,,,,,,,,,,,,0,0,0,0,0
0.4704,1783968094.1158,1,0,3.5000,-0.0000,1.42244,0.00071,-2.63053,1.05907,1.57080,0.11675,-0.12764,-0.48152,0.03738,,,,,,,,,,,,,,,,,,,,,,,,,,0,0,0,0,0
0.4794,1783968094.1247,1,0,3.5000,-0.0000,1.42244,0.00071,-2.63053,1.05907,1.57080,0.11675,-0.12764,-0.48152,0.03738,,,,,,,,,,,,,,,,,,,,,,,,,,0,0,0,0,0
0.4862,1783968094.1316,1,0,3.5000,-0.0000,1.42244,0.00071,-2.63053,1.05907,1.57080,0.11675,-0.12764,-0.48152,0.03738,,,,,,,,,,,,,,,,,,,,,,,,,,0,0,0,0,0
0.4951,1783968094.1405,1,0,3.5000,-0.0000,1.42244,0.00071,-2.63053,1.05907,1.57080,0.11675,-0.12764,-0.48152,0.03738,,,,,,,,,,,,,,,,,,,,,,,,,,0,0,0,0,0
0.5063,1783968094.1516,1,0,3.5000,-0.0000,1.42244,0.00071,-2.63053,1.05907,1.57080,0.11675,-0.12764,-0.48152,0.03738,,,,,,,,,,,,,,,,,,,,,,,,,,0,0,0,0,0
0.5206,1783968094.1659,1,0,3.5000,-0.0000,1.42244,0.00071,-2.63053,1.05907,1.57080,0.11675,-0.12764,-0.48152,0.03738,,,,,,,,,,,,,,,,,,,,,,,,,,0,0,0,0,0
0.5258,1783968094.1712,1,0,3.5000,-0.0000,1.42244,0.00071,-2.63053,1.05907,1.57080,0.11675,-0.12764,-0.48152,0.03738,,,,,,,,,,,,,,,,,,,,,,,,,,0,0,0,0,0
0.5343,1783968094.1796,1,0,3.5000,-0.0000,1.42244,0.00071,-2.63053,1.05907,1.57080,0.11675,-0.12764,-0.48152,0.03738,,,,,,,,,,,,,,,,,,,,,,,,,,0,0,0,0,0
0.5484,1783968094.1937,1,0,3.5000,-0.0000,1.42244,0.00071,-2.63053,1.05907,1.57080,0.11675,-0.12764,-0.48152,0.03738,,,,,,,,,,,,,,,,,,,,,,,,,,0,0,0,0,0
0.5560,1783968094.2013,1,0,3.5000,-0.0000,1.42244,0.00071,-2.63053,1.05907,1.57080,0.11675,-0.12764,-0.48152,0.03738,,,,,,,,,,,,,,,,,,,,,,,,,,0,0,0,0,0
0.5668,1783968094.2122,1,0,3.5000,-0.0000,1.42244,0.00071,-2.63053,1.05907,1.57080,0.11675,-0.12764,-0.48152,0.03738,,,,,,,,,,,,,,,,,,,,,,,,,,0,0,0,0,0
0.5672,1783968094.2125,1,0,3.5000,-0.0000,1.42244,0.00071,-2.63053,1.05907,1.57080,0.11675,-0.12764,-0.48152,0.03738,,,,,,,,,,,,,,,,,,,,,,,,,,0,0,0,0,0
0.5743,1783968094.2196,1,0,3.5000,-0.0000,1.42244,0.00071,-2.63053,1.05907,1.57080,0.11675,-0.12764,-0.48152,0.03738,,,,,,,,,,,,,,,,,,,,,,,,,,0,0,0,0,0
0.5745,1783968094.2198,1,0,3.5000,-0.0000,1.42244,0.00071,-2.63053,1.05907,1.57080,0.11675,-0.12764,-0.48152,0.03738,,,,,,,,,,,,,,,,,,,,,,,,,,0,0,0,0,0
0.5849,1783968094.2303,1,0,3.5000,-0.0000,1.42244,0.00071,-2.63053,1.05907,1.57080,0.11675,-0.12764,-0.48152,0.03738,,,,,,,,,,,,,,,,,,,,,,,,,,0,0,0,0,0
0.5852,1783968094.2306,1,0,3.5000,-0.0000,1.42244,0.00071,-2.63053,1.05907,1.57080,0.11675,-0.12764,-0.48152,0.03738,,,,,,,,,,,,,,,,,,,,,,,,,,0,0,0,0,0
0.5999,1783968094.2452,1,0,3.5000,-0.0000,1.42244,0.00071,-2.63053,1.05907,1.57080,0.11675,-0.12764,-0.48152,0.03738,,,,,,,,,,,,,,,,,,,,,,,,,,0,0,0,0,0
0.6105,1783968094.2559,1,0,3.5000,-0.0000,1.42244,0.00071,-2.63053,1.05907,1.57080,0.11675,-0.12764,-0.48152,0.03738,,,,,,,,,,,,,,,,,,,,,,,,,,0,0,0,0,0
0.6108,1783968094.2561,1,0,3.5000,-0.0000,1.42244,0.00071,-2.63053,1.05907,1.57080,0.11675,-0.12764,-0.48152,0.03738,,,,,,,,,,,,,,,,,,,,,,,,,,0,0,0,0,0
0.6214,1783968094.2667,1,0,3.5000,-0.0000,1.42244,0.00071,-2.63053,1.05907,1.57080,0.11675,-0.12764,-0.48152,0.03738,,,,,,,,,,,,,,,,,,,,,,,,,,0,0,0,0,0
0.6269,1783968094.2722,1,0,3.5000,-0.0000,1.42244,0.00071,-2.63053,1.05907,1.57080,0.11675,-0.12764,-0.48152,0.03738,,,,,,,,,,,,,,,,,,,,,,,,,,0,0,0,0,0
0.6356,1783968094.2809,1,0,3.5000,-0.0000,1.42244,0.00071,-2.63053,1.05907,1.57080,0.11675,-0.12764,-0.48152,0.03738,,,,,,,,,,,,,,,,,,,,,,,,,,0,0,0,0,0
0.6445,1783968094.2899,1,0,3.5000,-0.0000,1.42244,0.00071,-2.63053,1.05907,1.57080,0.11675,-0.12764,-0.48152,0.03738,,,,,,,,,,,,,,,,,,,,,,,,,,0,0,0,0,0
0.6555,1783968094.3009,1,0,3.5000,-0.0000,1.42244,0.00071,-2.63053,1.05907,1.57080,0.11675,-0.12764,-0.48152,0.03738,,,,,,,,,,,,,,,,,,,,,,,,,,0,0,0,0,0
0.6655,1783968094.3108,1,0,3.5000,-0.0000,1.42244,0.00071,-2.63053,1.05907,1.57080,0.11675,-0.12764,-0.48152,0.03738,,,,,,,,,,,,,,,,,,,,,,,,,,0,0,0,0,0
0.6760,1783968094.3214,1,0,3.5000,-0.0000,1.42244,0.00071,-2.63053,1.05907,1.57080,0.11675,-0.12764,-0.48152,0.03738,,,,,,,,,,,,,,,,,,,,,,,,,,0,0,0,0,0
0.6858,1783968094.3311,1,0,3.5000,-0.0000,1.42244,0.00071,-2.63053,1.05907,1.57080,0.11675,-0.12764,-0.48152,0.03738,,,,,,,,,,,,,,,,,,,,,,,,,,0,0,0,0,0
0.6955,1783968094.3408,1,0,3.5000,-0.0000,1.42244,0.00071,-2.63053,1.05907,1.57080,0.11675,-0.12764,-0.48152,0.03738,,,,,,,,,,,,,,,,,,,,,,,,,,0,0,0,0,0
0.7103,1783968094.3556,1,0,3.5000,-0.0000,1.42244,0.00071,-2.63053,1.05907,1.57080,0.11675,-0.12764,-0.48152,0.03738,,,,,,,,,,,,,,,,,,,,,,,,,,0,0,0,0,0
0.7257,1783968094.3710,1,1,3.5000,-0.0000,1.42244,0.00071,-2.63053,1.05907,1.57080,0.11675,-0.12764,-0.48152,0.03738,,,,,,,,,,,,,,,,,,,,,,,,,,0,0,0,0,0
0.7262,1783968094.3715,1,1,3.5000,-0.0000,1.42244,0.00071,-2.63053,1.05907,1.57080,0.11675,-0.12764,-0.48152,0.03738,,,,,,,,,,,,,,,,,,,,,,,,,,0,0,0,0,0
0.7315,1783968094.3769,1,1,3.5000,-0.0000,1.42244,0.00071,-2.63053,1.05907,1.57080,0.11675,-0.12764,-0.48152,0.03738,,,,,,,,,,,,,,,,,,,,,,,,,,0,0,0,0,0
0.7377,1783968094.3831,1,1,3.5000,-0.0000,1.42244,0.00071,-2.63053,1.05907,1.57080,0.11675,-0.12764,-0.48152,0.03738,,,,,,,,,,,,,,,,,,,,,,,,,,0,0,0,0,0
0.7438,1783968094.3891,1,1,3.5000,-0.0000,1.42244,0.00071,-2.63053,1.05907,1.57080,0.11675,-0.12764,-0.48152,0.03738,,,,,,,,,,,,,,,,,,,,,,,,,,0,0,0,0,0
0.7584,1783968094.4038,1,1,3.5000,-0.0000,1.42244,0.00071,-2.63053,1.05907,1.57080,0.11675,-0.12764,-0.48152,0.03738,,,,,,,,,,,,,,,,,,,,,,,,,,0,0,0,0,0
0.7789,1783968094.4242,1,1,3.5000,-0.0000,1.42244,0.00071,-2.63053,1.05907,1.57080,0.11675,-0.12764,-0.48152,0.03738,,,,,,,,,,,,,,,,,,,,,,,,,,0,0,0,0,0
0.7793,1783968094.4247,1,1,3.5000,-0.0000,1.42244,0.00071,-2.63053,1.05907,1.57080,0.11675,-0.12764,-0.48152,0.03738,,,,,,,,,,,,,,,,,,,,,,,,,,0,0,0,0,0
0.7844,1783968094.4297,1,1,3.5000,-0.0000,1.42244,0.00071,-2.63053,1.05907,1.57080,0.11675,-0.12764,-0.48152,0.03738,,,,,,,,,,,,,,,,,,,,,,,,,,0,0,0,0,0
0.7848,1783968094.4301,1,1,3.5000,-0.0000,1.42244,0.00071,-2.63053,1.05907,1.57080,0.11675,-0.12764,-0.48152,0.03738,,,,,,,,,,,,,,,,,,,,,,,,,,0,0,0,0,0
0.7943,1783968094.4397,1,1,3.5000,-0.0000,1.42244,0.00071,-2.63053,1.05907,1.57080,0.11675,-0.12764,-0.48152,0.03738,,,,,,,,,,,,,,,,,,,,,,,,,,0,0,0,0,0
0.7946,1783968094.4399,1,1,3.5000,-0.0000,1.42244,0.00071,-2.63053,1.05907,1.57080,0.11675,-0.12764,-0.48152,0.03738,,,,,,,,,,,,,,,,,,,,,,,,,,0,0,0,0,0
0.8041,1783968094.4494,1,1,3.5000,-0.0000,1.42244,0.00071,-2.63053,1.05907,1.57080,0.11675,-0.12764,-0.48152,0.03738,,,,,,,,,,,,,,,,,,,,,,,,,,0,0,0,0,0
0.8045,1783968094.4498,1,1,3.5000,-0.0000,1.42244,0.00071,-2.63053,1.05907,1.57080,0.11675,-0.12764,-0.48152,0.03738,,,,,,,,,,,,,,,,,,,,,,,,,,0,0,0,0,0
0.8303,1783968094.4757,1,1,3.5000,-0.0000,1.42244,0.00071,-2.63053,1.05907,1.57080,0.11675,-0.12764,-0.48152,0.03738,,,,,,,,,,,,,,,,,,,,,,,,,,0,0,0,0,0
0.8308,1783968094.4761,1,1,3.5000,-0.0000,1.42244,0.00071,-2.63053,1.05907,1.57080,0.11675,-0.12764,-0.48152,0.03738,,,,,,,,,,,,,,,,,,,,,,,,,,0,0,0,0,0
0.8358,1783968094.4811,1,1,3.5000,-0.0000,1.42244,0.00071,-2.63053,1.05907,1.57080,0.11675,-0.12764,-0.48152,0.03738,,,,,,,,,,,,,,,,,,,,,,,,,,0,0,0,0,0
0.8361,1783968094.4815,1,1,3.5000,-0.0000,1.42244,0.00071,-2.63053,1.05907,1.57080,0.11675,-0.12764,-0.48152,0.03738,,,,,,,,,,,,,,,,,,,,,,,,,,0,0,0,0,0
0.8385,1783968094.4838,1,1,3.5000,-0.0000,1.42244,0.00071,-2.63053,1.05907,1.57080,0.11675,-0.12764,-0.48152,0.03738,,,,,,,,,,,,,,,,,,,,,,,,,,0,0,0,0,0
0.8496,1783968094.4949,1,1,3.5000,-0.0000,1.42244,0.00071,-2.63053,1.05907,1.57080,0.11675,-0.12764,-0.48152,0.03738,,,,,,,,,,,,,,,,,,,,,,,,,,0,0,0,0,0
0.8638,1783968094.5091,1,1,3.5000,-0.0000,1.42244,0.00071,-2.63053,1.05907,1.57080,0.11675,-0.12764,-0.48152,0.03738,,,,,,,,,,,,,,,,,,,,,,,,,,0,0,0,0,0
0.8764,1783968094.5217,1,1,3.5000,-0.0000,1.42244,0.00071,-2.63053,1.05907,1.57080,0.11675,-0.12764,-0.48152,0.03738,,,,,,,,,,,,,,,,,,,,,,,,,,0,0,0,0,0
0.8791,1783968094.5244,1,1,3.5000,-0.0000,1.42244,0.00071,-2.63053,1.05907,1.57080,0.11675,-0.12764,-0.48152,0.03738,,,,,,,,,,,,,,,,,,,,,,,,,,0,0,0,0,0
0.8904,1783968094.5358,1,1,3.5000,-0.0000,1.42244,0.00071,-2.63053,1.05907,1.57080,0.11675,-0.12764,-0.48152,0.03738,,,,,,,,,,,,,,,,,,,,,,,,,,0,0,0,0,0
0.8950,1783968094.5403,1,1,3.5000,-0.0000,1.42244,0.00071,-2.63053,1.05907,1.57080,0.11675,-0.12764,-0.48152,0.03738,,,,,,,,,,,,,,,,,,,,,,,,,,0,0,0,0,0
0.9103,1783968094.5557,1,1,3.5000,-0.0000,1.42244,0.00071,-2.63053,1.05907,1.57080,0.11675,-0.12764,-0.48152,0.03738,,,,,,,,,,,,,,,,,,,,,,,,,,0,0,0,0,0
0.9190,1783968094.5644,1,1,3.5000,-0.0000,1.42244,0.00071,-2.63053,1.05907,1.57080,0.11675,-0.12764,-0.48152,0.03738,,,,,,,,,,,,,,,,,,,,,,,,,,0,0,0,0,0
0.9193,1783968094.5646,1,1,3.5000,-0.0000,1.42244,0.00071,-2.63053,1.05907,1.57080,0.11675,-0.12764,-0.48152,0.03738,,,,,,,,,,,,,,,,,,,,,,,,,,0,0,0,0,0
0.9285,1783968094.5739,1,1,3.5000,-0.0000,1.42244,0.00071,-2.63053,1.05907,1.57080,0.11675,-0.12764,-0.48152,0.03738,,,,,,,,,,,,,,,,,,,,,,,,,,0,0,0,0,0
0.9341,1783968094.5795,1,1,3.5000,-0.0000,1.42244,0.00071,-2.63053,1.05907,1.57080,0.11675,-0.12764,-0.48152,0.03738,,,,,,,,,,,,,,,,,,,,,,,,,,0,0,0,0,0
0.9480,1783968094.5934,1,1,3.5000,-0.0000,1.42244,0.00071,-2.63053,1.05907,1.57080,0.11675,-0.12764,-0.48152,0.03738,,,,,,,,,,,,,,,,,,,,,,,,,,0,0,0,0,0
0.9557,1783968094.6010,1,1,3.5000,-0.0000,1.42244,0.00071,-2.63053,1.05907,1.57080,0.11675,-0.12764,-0.48152,0.03738,,,,,,,,,,,,,,,,,,,,,,,,,,0,0,0,0,0
0.9670,1783968094.6124,1,1,3.5000,-0.0000,1.42244,0.00071,-2.63053,1.05907,1.57080,0.11675,-0.12764,-0.48152,0.03738,,,,,,,,,,,,,,,,,,,,,,,,,,0,0,0,0,0
0.9743,1783968094.6197,1,1,3.5000,-0.0000,1.42244,0.00071,-2.63053,1.05907,1.57080,0.11675,-0.12764,-0.48152,0.03738,,,,,,,,,,,,,,,,,,,,,,,,,,0,0,0,0,0
0.9749,1783968094.6202,1,1,3.5000,-0.0000,1.42244,0.00071,-2.63053,1.05907,1.57080,0.11675,-0.12764,-0.48152,0.03738,,,,,,,,,,,,,,,,,,,,,,,,,,0,0,0,0,0
0.9894,1783968094.6347,1,1,3.5000,-0.0000,1.42244,0.00071,-2.63053,1.05907,1.57080,0.11675,-0.12764,-0.48152,0.03738,,,,,,,,,,,,,,,,,,,,,,,,,,0,0,0,0,0
1.0040,1783968094.6494,1,1,3.5000,-0.0000,1.42244,0.00071,-2.63053,1.05907,1.57080,0.11675,-0.12764,-0.48152,0.03738,,,,,,,,,,,,,,,,,,,,,,,,,,0,0,0,0,0
1.0045,1783968094.6498,1,1,3.5000,-0.0000,1.42244,0.00071,-2.63053,1.05907,1.57080,0.11675,-0.12764,-0.48152,0.03738,,,,,,,,,,,,,,,,,,,,,,,,,,0,0,0,0,0
1.0048,1783968094.6501,1,1,3.5000,-0.0000,1.42244,0.00071,-2.63053,1.05907,1.57080,0.11675,-0.12764,-0.48152,0.03738,,,,,,,,,,,,,,,,,,,,,,,,,,0,0,0,0,0
1.0150,1783968094.6603,1,1,3.5000,-0.0000,1.42244,0.00071,-2.63054,1.05907,1.57080,0.11675,-0.12764,-0.48151,0.03737,,,,,,,,,,,,,,,,,,,,,,,,,,0,0,0,0,0
1.0316,1783968094.6770,1,1,3.5000,-0.0000,1.42244,0.00069,-2.63058,1.05907,1.57080,0.11675,-0.12764,-0.48149,0.03735,,,,,,,,,,,,,,,,,,,,,,,,,,0,0,0,0,0
1.0391,1783968094.6845,1,1,3.5000,-0.0000,1.42244,0.00069,-2.63058,1.05907,1.57080,0.11675,-0.12764,-0.48149,0.03735,,,,,,,,,,,,,,,,,,,,,,,,,,0,0,0,0,0
1.0498,1783968094.6951,1,1,3.5000,-0.0000,1.42244,0.00068,-2.63059,1.05907,1.57080,0.11675,-0.12764,-0.48148,0.03734,,,,,,,,,,,,,,,,,,,,,,,,,,0,0,0,0,0
1.0542,1783968094.6995,1,1,3.5000,-0.0000,1.42244,0.00066,-2.63061,1.05908,1.57080,0.11675,-0.12764,-0.48146,0.03733,,,,,,,,,,,,,,,,,,,,,,,,,,0,0,0,0,0
1.0662,1783968094.7116,1,1,3.5000,-0.0000,1.42244,0.00061,-2.63065,1.05910,1.57080,0.11675,-0.12765,-0.48143,0.03729,,,,,,,,,,,,,,,,,,,,,,,,,,0,0,0,0,0
1.0755,1783968094.7209,1,1,3.5000,-0.0000,1.42244,0.00057,-2.63068,1.05911,1.57080,0.11675,-0.12765,-0.48141,0.03726,,,,,,,,,,,,,,,,,,,,,,,,,,0,0,0,0,0
1.0840,1783968094.7293,1,1,3.5000,-0.0000,1.42244,0.00053,-2.63072,1.05913,1.57080,0.11675,-0.12766,-0.48138,0.03722,,,,,,,,,,,,,,,,,,,,,,,,,,0,0,0,0,0
1.0972,1783968094.7426,1,1,3.5000,-0.0000,1.42244,0.00047,-2.63076,1.05916,1.57080,0.11675,-0.12766,-0.48135,0.03719,,,,,,,,,,,,,,,,,,,,,,,,,,0,0,0,0,0
1.0976,1783968094.7429,1,1,3.5000,-0.0000,1.42244,0.00047,-2.63076,1.05916,1.57080,0.11675,-0.12766,-0.48135,0.03719,,,,,,,,,,,,,,,,,,,,,,,,,,0,0,0,0,0
1.1081,1783968094.7534,1,1,3.5000,-0.0000,1.42244,0.00045,-2.63076,1.05919,1.57080,0.11675,-0.12766,-0.48135,0.03718,,,,,,,,,,,,,,,,,,,,,,,,,,0,0,0,0,0
1.1151,1783968094.7604,1,1,3.5000,-0.0000,1.42244,0.00040,-2.63076,1.05924,1.57080,0.11675,-0.12766,-0.48135,0.03717,,,,,,,,,,,,,,,,,,,,,,,,,,0,0,0,0,0
1.1275,1783968094.7728,1,1,3.5000,-0.0000,1.42244,0.00034,-2.63076,1.05931,1.57080,0.11675,-0.12766,-0.48136,0.03715,,,,,,,,,,,,,,,,,,,,,,,,,,0,0,0,0,0
1.1280,1783968094.7733,1,1,3.5000,-0.0000,1.42244,0.00034,-2.63076,1.05931,1.57080,0.11675,-0.12766,-0.48136,0.03715,,,,,,,,,,,,,,,,,,,,,,,,,,0,0,0,0,0
1.1406,1783968094.7859,1,1,3.5000,-0.0000,1.42244,0.00030,-2.63077,1.05937,1.57080,0.11675,-0.12766,-0.48137,0.03714,,,,,,,,,,,,,,,,,,,,,,,,,,0,0,0,0,0
1.1410,1783968094.7864,1,1,3.5000,-0.0000,1.42244,0.00030,-2.63077,1.05937,1.57080,0.11675,-0.12766,-0.48137,0.03714,,,,,,,,,,,,,,,,,,,,,,,,,,0,0,0,0,0
1.1437,1783968094.7890,1,1,3.5000,-0.0000,1.42244,0.00026,-2.63077,1.05941,1.57080,0.11675,-0.12766,-0.48137,0.03713,,,,,,,,,,,,,,,,,,,,,,,,,,0,0,0,0,0
1.1542,1783968094.7995,1,1,3.5000,-0.0000,1.42244,0.00022,-2.63077,1.05947,1.57080,0.11675,-0.12766,-0.48138,0.03712,,,,,,,,,,,,,,,,,,,,,,,,,,0,0,0,0,0
1.1672,1783968094.8125,1,1,3.5000,-0.0000,1.42244,0.00013,-2.63078,1.05957,1.57080,0.11675,-0.12766,-0.48138,0.03709,,,,,,,,,,,,,,,,,,,,,,,,,,0,0,0,0,0
1.1862,1783968094.8315,1,1,3.5000,-0.0000,1.42244,-0.00002,-2.63080,1.05976,1.57080,0.11675,-0.12765,-0.48140,0.03705,,,,,,,,,,,,,,,,,,,,,,,,,,0,0,0,0,0
1.1876,1783968094.8330,1,1,3.5000,-0.0000,1.42244,-0.00002,-2.63080,1.05976,1.57080,0.11675,-0.12765,-0.48140,0.03705,,,,,,,,,,,,,,,,,,,,,,,,,,0,0,0,0,0
1.1880,1783968094.8334,1,1,3.5000,-0.0000,1.42244,-0.00002,-2.63080,1.05976,1.57080,0.11675,-0.12765,-0.48140,0.03705,,,,,,,,,,,,,,,,,,,,,,,,,,0,0,0,0,0
1.1986,1783968094.8439,1,1,3.5000,-0.0000,1.42244,-0.00008,-2.63080,1.05985,1.57080,0.11675,-0.12765,-0.48141,0.03703,,,,,,,,,,,,,,,,,,,,,,,,,,0,0,0,0,0
1.1991,1783968094.8444,1,1,3.5000,-0.0000,1.42244,-0.00008,-2.63080,1.05985,1.57080,0.11675,-0.12765,-0.48141,0.03703,,,,,,,,,,,,,,,,,,,,,,,,,,0,0,0,0,0
1.2039,1783968094.8493,1,1,3.5000,-0.0000,1.42244,-0.00011,-2.63080,1.05989,1.57080,0.11675,-0.12765,-0.48141,0.03703,,,,,,,,,,,,,,,,,,,,,,,,,,0,0,0,0,0
1.2211,1783968094.8665,1,1,3.5000,-0.0000,1.42244,-0.00027,-2.63081,1.06011,1.57080,0.11675,-0.12765,-0.48144,0.03699,,,,,,,,,,,,,,,,,,,,,,,,,,0,0,0,0,0
1.2257,1783968094.8710,1,1,3.5000,-0.0000,1.42244,-0.00032,-2.63081,1.06017,1.57080,0.11675,-0.12764,-0.48145,0.03698,,,,,,,,,,,,,,,,,,,,,,,,,,0,0,0,0,0
1.2357,1783968094.8810,1,1,3.5000,-0.0000,1.42244,-0.00042,-2.63080,1.06032,1.57080,0.11675,-0.12764,-0.48148,0.03696,,,,,,,,,,,,,,,,,,,,,,,,,,0,0,0,0,0
1.2440,1783968094.8893,1,1,3.5000,-0.0000,1.42244,-0.00046,-2.63079,1.06038,1.57080,0.11675,-0.12764,-0.48150,0.03696,,,,,,,,,,,,,,,,,,,,,,,,,,0,0,0,0,0
1.2538,1783968094.8992,1,1,3.5000,-0.0000,1.42244,-0.00046,-2.63079,1.06038,1.57080,0.11675,-0.12764,-0.48150,0.03696,,,,,,,,,,,,,,,,,,,,,,,,,,0,0,0,0,0
1.2649,1783968094.9103,1,1,3.5000,-0.0000,1.42244,-0.00046,-2.63079,1.06038,1.57080,0.11675,-0.12764,-0.48150,0.03696,,,,,,,,,,,,,,,,,,,,,,,,,,0,0,0,0,0
1.2653,1783968094.9106,1,1,3.5000,-0.0000,1.42244,-0.00046,-2.63079,1.06038,1.57080,0.11675,-0.12764,-0.48150,0.03696,,,,,,,,,,,,,,,,,,,,,,,,,,0,0,0,0,0
1.2870,1783968094.9323,1,1,3.5000,-0.0000,1.42244,-0.00046,-2.63079,1.06038,1.57080,0.11675,-0.12764,-0.48150,0.03696,,,,,,,,,,,,,,,,,,,,,,,,,,0,0,0,0,0
1.2887,1783968094.9340,1,1,3.5000,-0.0000,1.42244,-0.00046,-2.63079,1.06038,1.57080,0.11675,-0.12764,-0.48150,0.03696,,,,,,,,,,,,,,,,,,,,,,,,,,0,0,0,0,0
1.2984,1783968094.9437,1,1,3.5000,-0.0000,1.42244,-0.00046,-2.63079,1.06038,1.57080,0.11675,-0.12764,-0.48150,0.03696,,,,,,,,,,,,,,,,,,,,,,,,,,0,0,0,0,0
1.2989,1783968094.9443,1,1,3.5000,-0.0000,1.42244,-0.00046,-2.63079,1.06038,1.57080,0.11675,-0.12764,-0.48150,0.03696,,,,,,,,,,,,,,,,,,,,,,,,,,0,0,0,0,0
1.3076,1783968094.9529,1,1,3.5000,-0.0000,1.42244,-0.00046,-2.63079,1.06038,1.57080,0.11675,-0.12764,-0.48150,0.03696,,,,,,,,,,,,,,,,,,,,,,,,,,0,0,0,0,0
1.3199,1783968094.9653,1,1,3.5000,-0.0000,1.42244,-0.00046,-2.63079,1.06038,1.57080,0.11675,-0.12764,-0.48150,0.03696,,,,,,,,,,,,,,,,,,,,,,,,,,0,0,0,0,0
1.3426,1783968094.9879,1,1,3.5000,-0.0000,1.42244,-0.00046,-2.63079,1.06038,1.57080,0.11675,-0.12764,-0.48150,0.03696,,,,,,,,,,,,,,,,,,,,,,,,,,0,0,0,0,0
1.3612,1783968095.0066,1,1,3.5000,-0.0000,1.42244,-0.00046,-2.63079,1.06038,1.57080,0.11675,-0.12764,-0.48150,0.03696,,,,,,,,,,,,,,,,,,,,,,,,,,0,0,0,0,0
1.3758,1783968095.0211,1,1,3.5000,-0.0000,1.42244,-0.00046,-2.63079,1.06038,1.57080,0.11675,-0.12764,-0.48150,0.03696,,,,,,,,,,,,,,,,,,,,,,,,,,0,0,0,0,0
1.3784,1783968095.0237,1,1,3.5000,-0.0000,1.42244,-0.00046,-2.63079,1.06038,1.57080,0.11675,-0.12764,-0.48150,0.03696,,,,,,,,,,,,,,,,,,,,,,,,,,0,0,0,0,0
1.3824,1783968095.0277,1,1,3.5000,-0.0000,1.42244,-0.00046,-2.63079,1.06038,1.57080,0.11675,-0.12764,-0.48150,0.03696,,,,,,,,,,,,,,,,,,,,,,,,,,0,0,0,0,0
1.3834,1783968095.0287,1,1,3.5000,-0.0000,1.42244,-0.00046,-2.63079,1.06038,1.57080,0.11675,-0.12764,-0.48150,0.03696,,,,,,,,,,,,,,,,,,,,,,,,,,0,0,0,0,0
1.3837,1783968095.0291,1,1,3.5000,-0.0000,1.42244,-0.00046,-2.63079,1.06038,1.57080,0.11675,-0.12764,-0.48150,0.03696,,,,,,,,,,,,,,,,,,,,,,,,,,0,0,0,0,0
1.3869,1783968095.0322,1,1,3.5000,-0.0000,1.42244,-0.00046,-2.63079,1.06038,1.57080,0.11675,-0.12764,-0.48150,0.03696,,,,,,,,,,,,,,,,,,,,,,,,,,0,0,0,0,0
1.4017,1783968095.0470,1,1,3.5000,-0.0000,1.42244,-0.00046,-2.63079,1.06038,1.57080,0.11675,-0.12764,-0.48150,0.03696,,,,,,,,,,,,,,,,,,,,,,,,,,0,0,0,0,0
1.4065,1783968095.0519,1,1,3.5000,-0.0000,1.42244,-0.00046,-2.63079,1.06038,1.57080,0.11675,-0.12764,-0.48150,0.03696,,,,,,,,,,,,,,,,,,,,,,,,,,0,0,0,0,0
1.4141,1783968095.0594,1,1,3.5000,-0.0000,1.42244,-0.00046,-2.63079,1.06038,1.57080,0.11675,-0.12764,-0.48150,0.03696,,,,,,,,,,,,,,,,,,,,,,,,,,0,0,0,0,0
1.4273,1783968095.0726,1,1,3.5000,-0.0000,1.42244,-0.00047,-2.63079,1.06039,1.57080,0.11675,-0.12764,-0.48150,0.03696,,,,,,,,,,,,,,,,,,,,,,,,,,0,0,0,0,0
1.4375,1783968095.0829,1,1,3.5000,-0.0000,1.42244,-0.00047,-2.63080,1.06041,1.57080,0.11675,-0.12764,-0.48150,0.03696,,,,,,,,,,,,,,,,,,,,,,,,,,0,0,0,0,0
1.4446,1783968095.0900,1,1,3.5000,-0.0000,1.42244,-0.00049,-2.63081,1.06044,1.57080,0.11675,-0.12764,-0.48149,0.03695,,,,,,,,,,,,,,,,,,,,,,,,,,0,0,0,0,0
1.4546,1783968095.1000,1,1,3.5000,-0.0000,1.42244,-0.00049,-2.63082,1.06047,1.57080,0.11675,-0.12764,-0.48149,0.03695,,,,,,,,,,,,,,,,,,,,,,,,,,0,0,0,0,0
1.4550,1783968095.1003,1,1,3.5000,-0.0000,1.42244,-0.00049,-2.63082,1.06047,1.57080,0.11675,-0.12764,-0.48149,0.03695,,,,,,,,,,,,,,,,,,,,,,,,,,0,0,0,0,0
1.4636,1783968095.1090,1,1,3.5000,-0.0000,1.42244,-0.00051,-2.63083,1.06049,1.57080,0.11675,-0.12764,-0.48149,0.03694,,,,,,,,,,,,,,,,,,,,,,,,,,0,0,0,0,0
1.4639,1783968095.1092,1,1,3.5000,-0.0000,1.42244,-0.00051,-2.63083,1.06049,1.57080,0.11675,-0.12764,-0.48149,0.03694,,,,,,,,,,,,,,,,,,,,,,,,,,0,0,0,0,0
1.4772,1783968095.1226,1,1,3.5000,-0.0000,1.42244,-0.00056,-2.63087,1.06056,1.57080,0.11675,-0.12764,-0.48147,0.03691,,,,,,,,,,,,,,,,,,,,,,,,,,0,0,0,0,0
1.4902,1783968095.1356,1,1,3.5000,-0.0000,1.42244,-0.00061,-2.63091,1.06063,1.57080,0.11675,-0.12764,-0.48145,0.03688,,,,,,,,,,,,,,,,,,,,,,,,,,0,0,0,0,0
1.4937,1783968095.1391,1,1,3.5000,-0.0000,1.42244,-0.00061,-2.63091,1.06063,1.57080,0.11675,-0.12764,-0.48145,0.03688,,,,,,,,,,,,,,,,,,,,,,,,,,0,0,0,0,0
1.4943,1783968095.1396,1,1,3.5000,-0.0000,1.42244,-0.00062,-2.63092,1.06064,1.57080,0.11675,-0.12764,-0.48145,0.03688,,,,,,,,,,,,,,,,,,,,,,,,,,0,0,0,0,0
1.5061,1783968095.1515,1,1,3.5000,-0.0000,1.42244,-0.00067,-2.63094,1.06071,1.57080,0.11675,-0.12765,-0.48144,0.03686,,,,,,,,,,,,,,,,,,,,,,,,,,0,0,0,0,0
1.5155,1783968095.1609,1,1,3.5000,-0.0000,1.42244,-0.00068,-2.63094,1.06072,1.57080,0.11675,-0.12765,-0.48144,0.03685,,,,,,,,,,,,,,,,,,,,,,,,,,0,0,0,0,0
1.5253,1783968095.1707,1,1,3.5000,-0.0000,1.42244,-0.00072,-2.63095,1.06077,1.57080,0.11675,-0.12765,-0.48144,0.03684,,,,,,,,,,,,,,,,,,,,,,,,,,0,0,0,0,0
1.5257,1783968095.1710,1,1,3.5000,-0.0000,1.42244,-0.00072,-2.63095,1.06077,1.57080,0.11675,-0.12765,-0.48144,0.03684,,,,,,,,,,,,,,,,,,,,,,,,,,0,0,0,0,0
1.5379,1783968095.1832,1,1,3.5000,-0.0000,1.42244,-0.00083,-2.63098,1.06092,1.57080,0.11675,-0.12765,-0.48144,0.03681,,,,,,,,,,,,,,,,,,,,,,,,,,0,0,0,0,0
1.5465,1783968095.1919,1,1,3.5000,-0.0000,1.42244,-0.00088,-2.63099,1.06099,1.57080,0.11675,-0.12764,-0.48144,0.03679,,,,,,,,,,,,,,,,,,,,,,,,,,0,0,0,0,0
1.5618,1783968095.2071,1,1,3.5000,-0.0000,1.42244,-0.00096,-2.63100,1.06108,1.57080,0.11675,-0.12764,-0.48145,0.03676,,,,,,,,,,,,,,,,,,,,,,,,,,0,0,0,0,0
1.5673,1783968095.2127,1,1,3.5000,-0.0000,1.42244,-0.00105,-2.63102,1.06119,1.57080,0.11675,-0.12764,-0.48145,0.03674,,,,,,,,,,,,,,,,,,,,,,,,,,0,0,0,0,0
1.5783,1783968095.2237,1,1,3.5000,-0.0000,1.42244,-0.00110,-2.63103,1.06126,1.57080,0.11675,-0.12764,-0.48145,0.03672,,,,,,,,,,,,,,,,,,,,,,,,,,0,0,0,0,0
1.5787,1783968095.2241,1,1,3.5000,-0.0000,1.42244,-0.00110,-2.63103,1.06126,1.57080,0.11675,-0.12764,-0.48145,0.03672,,,,,,,,,,,,,,,,,,,,,,,,,,0,0,0,0,0
1.5890,1783968095.2343,1,1,3.5000,-0.0000,1.42244,-0.00114,-2.63103,1.06130,1.57080,0.11675,-0.12764,-0.48145,0.03671,,,,,,,,,,,,,,,,,,,,,,,,,,0,0,0,0,0
1.5893,1783968095.2346,1,1,3.5000,-0.0000,1.42244,-0.00114,-2.63103,1.06130,1.57080,0.11675,-0.12764,-0.48145,0.03671,,,,,,,,,,,,,,,,,,,,,,,,,,0,0,0,0,0
1.5971,1783968095.2424,1,1,3.5000,-0.0000,1.42244,-0.00121,-2.63104,1.06139,1.57080,0.11675,-0.12764,-0.48146,0.03669,,,,,,,,,,,,,,,,,,,,,,,,,,0,0,0,0,0
1.5975,1783968095.2429,1,1,3.5000,-0.0000,1.42244,-0.00121,-2.63104,1.06139,1.57080,0.11675,-0.12764,-0.48146,0.03669,,,,,,,,,,,,,,,,,,,,,,,,,,0,0,0,0,0
1.6058,1783968095.2512,1,1,3.5000,-0.0000,1.42244,-0.00130,-2.63106,1.06149,1.57080,0.11675,-0.12764,-0.48146,0.03666,,,,,,,,,,,,,,,,,,,,,,,,,,0,0,0,0,0
1.6064,1783968095.2517,1,1,3.5000,-0.0000,1.42244,-0.00134,-2.63106,1.06155,1.57080,0.11675,-0.12764,-0.48146,0.03665,,,,,,,,,,,,,,,,,,,,,,,,,,0,0,0,0,0
1.6161,1783968095.2615,1,1,3.5000,-0.0000,1.42244,-0.00144,-2.63108,1.06167,1.57080,0.11675,-0.12764,-0.48147,0.03662,,,,,,,,,,,,,,,,,,,,,,,,,,0,0,0,0,0
1.6282,1783968095.2735,1,1,3.5000,-0.0000,1.42244,-0.00157,-2.63109,1.06184,1.57080,0.11675,-0.12764,-0.48148,0.03658,,,,,,,,,,,,,,,,,,,,,,,,,,0,0,0,0,0
1.6421,1783968095.2875,1,1,3.5000,-0.0000,1.42244,-0.00163,-2.63110,1.06192,1.57080,0.11675,-0.12764,-0.48149,0.03657,,,,,,,,,,,,,,,,,,,,,,,,,,0,0,0,0,0
1.6457,1783968095.2911,1,1,3.5000,-0.0000,1.42244,-0.00163,-2.63110,1.06192,1.57080,0.11675,-0.12764,-0.48149,0.03657,,,,,,,,,,,,,,,,,,,,,,,,,,0,0,0,0,0
1.6543,1783968095.2996,1,1,3.5000,-0.0000,1.42244,-0.00163,-2.63110,1.06192,1.57080,0.11675,-0.12764,-0.48149,0.03657,,,,,,,,,,,,,,,,,,,,,,,,,,0,0,0,0,0
1.6638,1783968095.3091,1,1,3.5000,-0.0000,1.42244,-0.00163,-2.63110,1.06192,1.57080,0.11675,-0.12764,-0.48149,0.03657,,,,,,,,,,,,,,,,,,,,,,,,,,0,0,0,0,0
1.6754,1783968095.3208,1,1,3.5000,-0.0000,1.42244,-0.00163,-2.63110,1.06192,1.57080,0.11675,-0.12764,-0.48149,0.03657,,,,,,,,,,,,,,,,,,,,,,,,,,0,0,0,0,0
1.6843,1783968095.3297,1,1,3.5000,-0.0000,1.42244,-0.00163,-2.63110,1.06192,1.57080,0.11675,-0.12764,-0.48149,0.03657,,,,,,,,,,,,,,,,,,,,,,,,,,0,0,0,0,0
1.6847,1783968095.3300,1,1,3.5000,-0.0000,1.42244,-0.00163,-2.63110,1.06192,1.57080,0.11675,-0.12764,-0.48149,0.03657,,,,,,,,,,,,,,,,,,,,,,,,,,0,0,0,0,0
1.6988,1783968095.3442,1,1,3.5000,-0.0000,1.42244,-0.00163,-2.63110,1.06192,1.57080,0.11675,-0.12764,-0.48149,0.03657,,,,,,,,,,,,,,,,,,,,,,,,,,0,0,0,0,0
1.7076,1783968095.3529,1,1,3.5000,-0.0000,1.42244,-0.00163,-2.63110,1.06192,1.57080,0.11675,-0.12764,-0.48149,0.03657,,,,,,,,,,,,,,,,,,,,,,,,,,0,0,0,0,0
1.7150,1783968095.3603,1,1,3.5000,-0.0000,1.42244,-0.00163,-2.63110,1.06192,1.57080,0.11675,-0.12764,-0.48149,0.03657,,,,,,,,,,,,,,,,,,,,,,,,,,0,0,0,0,0
1.7483,1783968095.3936,1,1,3.5000,-0.0000,1.42244,-0.00163,-2.63110,1.06192,1.57080,0.11675,-0.12764,-0.48149,0.03657,,,,,,,,,,,,,,,,,,,,,,,,,,0,0,0,0,0
1.7508,1783968095.3962,1,1,3.5000,-0.0000,1.42244,-0.00163,-2.63110,1.06192,1.57080,0.11675,-0.12764,-0.48149,0.03657,,,,,,,,,,,,,,,,,,,,,,,,,,0,0,0,0,0
1.7512,1783968095.3965,1,1,3.5000,-0.0000,1.42244,-0.00163,-2.63110,1.06192,1.57080,0.11675,-0.12764,-0.48149,0.03657,,,,,,,,,,,,,,,,,,,,,,,,,,0,0,0,0,0
1.7621,1783968095.4074,1,1,3.5000,-0.0000,1.42244,-0.00163,-2.63110,1.06192,1.57080,0.11675,-0.12764,-0.48149,0.03657,,,,,,,,,,,,,,,,,,,,,,,,,,0,0,0,0,0
1.7987,1783968095.4440,1,1,3.5000,-0.0000,1.42244,-0.00163,-2.63110,1.06192,1.57080,0.11675,-0.12764,-0.48149,0.03657,,,,,,,,,,,,,,,,,,,,,,,,,,0,0,0,0,0
1.7990,1783968095.4443,1,1,3.5000,-0.0000,1.42244,-0.00163,-2.63110,1.06192,1.57080,0.11675,-0.12764,-0.48149,0.03657,,,,,,,,,,,,,,,,,,,,,,,,,,0,0,0,0,0
1.8009,1783968095.4462,1,1,3.5000,-0.0000,1.42244,-0.00163,-2.63110,1.06192,1.57080,0.11675,-0.12764,-0.48149,0.03657,,,,,,,,,,,,,,,,,,,,,,,,,,0,0,0,0,0
1.8013,1783968095.4467,1,1,3.5000,-0.0000,1.42244,-0.00163,-2.63110,1.06192,1.57080,0.11675,-0.12764,-0.48149,0.03657,,,,,,,,,,,,,,,,,,,,,,,,,,0,0,0,0,0
1.8018,1783968095.4471,1,1,3.5000,-0.0000,1.42244,-0.00163,-2.63110,1.06192,1.57080,0.11675,-0.12764,-0.48149,0.03657,,,,,,,,,,,,,,,,,,,,,,,,,,0,0,0,0,0
1.8024,1783968095.4477,1,1,3.5000,-0.0000,1.42244,-0.00163,-2.63110,1.06192,1.57080,0.11675,-0.12764,-0.48149,0.03657,,,,,,,,,,,,,,,,,,,,,,,,,,0,0,0,0,0
1.8102,1783968095.4556,1,1,3.5000,-0.0000,1.42244,-0.00163,-2.63110,1.06192,1.57080,0.11675,-0.12764,-0.48149,0.03657,,,,,,,,,,,,,,,,,,,,,,,,,,0,0,0,0,0
1.8376,1783968095.4829,1,1,3.5000,-0.0000,1.42244,-0.00163,-2.63110,1.06192,1.57080,0.11675,-0.12764,-0.48149,0.03657,,,,,,,,,,,,,,,,,,,,,,,,,,0,0,0,0,0
1.8384,1783968095.4837,1,1,3.5000,-0.0000,1.42244,-0.00163,-2.63110,1.06192,1.57080,0.11675,-0.12764,-0.48149,0.03657,,,,,,,,,,,,,,,,,,,,,,,,,,0,0,0,0,0
1.8404,1783968095.4858,1,1,3.5000,-0.0000,1.42244,-0.00163,-2.63110,1.06192,1.57080,0.11675,-0.12764,-0.48149,0.03657,,,,,,,,,,,,,,,,,,,,,,,,,,0,0,0,0,0
1.8410,1783968095.4864,1,1,3.5000,-0.0000,1.42244,-0.00163,-2.63110,1.06192,1.57080,0.11675,-0.12764,-0.48149,0.03657,,,,,,,,,,,,,,,,,,,,,,,,,,0,0,0,0,0
1.8506,1783968095.4959,1,1,3.5000,-0.0000,1.42244,-0.00163,-2.63110,1.06192,1.57080,0.11675,-0.12764,-0.48149,0.03657,,,,,,,,,,,,,,,,,,,,,,,,,,0,0,0,0,0
1.8519,1783968095.4972,1,1,3.5000,-0.0000,1.42244,-0.00163,-2.63110,1.06192,1.57080,0.11675,-0.12764,-0.48149,0.03657,,,,,,,,,,,,,,,,,,,,,,,,,,0,0,0,0,0
1.8522,1783968095.4976,1,1,3.5000,-0.0000,1.42244,-0.00163,-2.63110,1.06192,1.57080,0.11675,-0.12764,-0.48149,0.03657,,,,,,,,,,,,,,,,,,,,,,,,,,0,0,0,0,0
1.8582,1783968095.5036,1,1,3.5000,-0.0000,1.42244,-0.00163,-2.63110,1.06193,1.57080,0.11675,-0.12764,-0.48149,0.03657,,,,,,,,,,,,,,,,,,,,,,,,,,0,0,0,0,0
1.8688,1783968095.5142,1,1,3.5000,-0.0000,1.42244,-0.00164,-2.63110,1.06195,1.57080,0.11675,-0.12764,-0.48150,0.03656,,,,,,,,,,,,,,,,,,,,,,,,,,0,0,0,0,0
1.8788,1783968095.5241,1,1,3.5000,-0.0000,1.42244,-0.00165,-2.63111,1.06196,1.57080,0.11675,-0.12764,-0.48149,0.03656,,,,,,,,,,,,,,,,,,,,,,,,,,0,0,0,0,0
1.8792,1783968095.5245,1,1,3.5000,-0.0000,1.42244,-0.00165,-2.63111,1.06196,1.57080,0.11675,-0.12764,-0.48149,0.03656,,,,,,,,,,,,,,,,,,,,,,,,,,0,0,0,0,0
1.8870,1783968095.5324,1,1,3.5000,-0.0000,1.42243,-0.00168,-2.63113,1.06199,1.57080,0.11675,-0.12764,-0.48148,0.03654,,,,,,,,,,,,,,,,,,,,,,,,,,0,0,0,0,0
1.8967,1783968095.5420,1,1,3.5000,-0.0000,1.42243,-0.00171,-2.63115,1.06203,1.57080,0.11675,-0.12764,-0.48147,0.03652,,,,,,,,,,,,,,,,,,,,,,,,,,0,0,0,0,0
1.8971,1783968095.5424,1,1,3.5000,-0.0000,1.42243,-0.00171,-2.63115,1.06203,1.57080,0.11675,-0.12764,-0.48147,0.03652,,,,,,,,,,,,,,,,,,,,,,,,,,0,0,0,0,0
1.9070,1783968095.5523,1,1,3.5000,-0.0000,1.42243,-0.00174,-2.63117,1.06206,1.57080,0.11675,-0.12764,-0.48146,0.03651,,,,,,,,,,,,,,,,,,,,,,,,,,0,0,0,0,0
1.9274,1783968095.5727,1,1,3.5000,-0.0000,1.42243,-0.00183,-2.63121,1.06217,1.57080,0.11675,-0.12764,-0.48144,0.03647,,,,,,,,,,,,,,,,,,,,,,,,,,0,0,0,0,0
1.9390,1783968095.5843,1,1,3.5000,-0.0000,1.42243,-0.00186,-2.63122,1.06221,1.57080,0.11675,-0.12764,-0.48144,0.03645,,,,,,,,,,,,,,,,,,,,,,,,,,0,0,0,0,0
1.9552,1783968095.6005,1,1,3.5000,-0.0000,1.42243,-0.00195,-2.63124,1.06232,1.57080,0.11675,-0.12764,-0.48144,0.03642,,,,,,,,,,,,,,,,,,,,,,,,,,0,0,0,0,0
1.9608,1783968095.6062,1,1,3.5000,-0.0000,1.42243,-0.00195,-2.63124,1.06232,1.57080,0.11675,-0.12764,-0.48144,0.03642,,,,,,,,,,,,,,,,,,,,,,,,,,0,0,0,0,0
1.9624,1783968095.6077,1,1,3.5000,-0.0000,1.42243,-0.00196,-2.63124,1.06233,1.57080,0.11675,-0.12764,-0.48144,0.03642,,,,,,,,,,,,,,,,,,,,,,,,,,0,0,0,0,0
2.0815,1783968095.7268,1,1,3.5000,-0.0000,1.42243,-0.00278,-2.63135,1.06334,1.57080,0.11675,-0.12763,-0.48150,0.03618,,,,,,,,,,,,,,,,,,,,,,,,,,0,0,0,0,0
2.1001,1783968095.7455,1,1,3.5000,-0.0000,1.42243,-0.00278,-2.63135,1.06334,1.57080,0.11675,-0.12763,-0.48150,0.03618,,,,,,,,,,,,,,,,,,,,,,,,,,0,0,0,0,0
2.1015,1783968095.7468,1,1,3.5000,-0.0000,1.42243,-0.00278,-2.63135,1.06334,1.57080,0.11675,-0.12763,-0.48150,0.03618,,,,,,,,,,,,,,,,,,,,,,,,,,0,0,0,0,0
2.1019,1783968095.7472,1,1,3.5000,-0.0000,1.42243,-0.00278,-2.63135,1.06334,1.57080,0.11675,-0.12763,-0.48150,0.03618,,,,,,,,,,,,,,,,,,,,,,,,,,0,0,0,0,0
2.1078,1783968095.7531,1,1,3.5000,-0.0000,1.42243,-0.00278,-2.63135,1.06334,1.57080,0.11675,-0.12763,-0.48150,0.03618,,,,,,,,,,,,,,,,,,,,,,,,,,0,0,0,0,0
2.1104,1783968095.7558,1,1,3.5000,-0.0000,1.42243,-0.00278,-2.63135,1.06334,1.57080,0.11675,-0.12763,-0.48150,0.03618,,,,,,,,,,,,,,,,,,,,,,,,,,0,0,0,0,0
2.1107,1783968095.7561,1,1,3.5000,-0.0000,1.42243,-0.00278,-2.63135,1.06334,1.57080,0.11675,-0.12763,-0.48150,0.03618,,,,,,,,,,,,,,,,,,,,,,,,,,0,0,0,0,0
2.1185,1783968095.7639,1,1,3.5000,-0.0000,1.42243,-0.00278,-2.63135,1.06334,1.57080,0.11675,-0.12763,-0.48150,0.03618,,,,,,,,,,,,,,,,,,,,,,,,,,0,0,0,0,0
2.1192,1783968095.7645,1,1,3.5000,-0.0000,1.42243,-0.00278,-2.63135,1.06334,1.57080,0.11675,-0.12763,-0.48150,0.03618,,,,,,,,,,,,,,,,,,,,,,,,,,0,0,0,0,0
2.1264,1783968095.7717,1,1,3.5000,-0.0000,1.42243,-0.00278,-2.63135,1.06334,1.57080,0.11675,-0.12763,-0.48150,0.03618,,,,,,,,,,,,,,,,,,,,,,,,,,0,0,0,0,0
2.1288,1783968095.7741,1,1,3.5000,-0.0000,1.42243,-0.00278,-2.63135,1.06334,1.57080,0.11675,-0.12763,-0.48150,0.03618,,,,,,,,,,,,,,,,,,,,,,,,,,0,0,0,0,0
2.1294,1783968095.7747,1,1,3.5000,-0.0000,1.42243,-0.00278,-2.63135,1.06334,1.57080,0.11675,-0.12763,-0.48150,0.03618,,,,,,,,,,,,,,,,,,,,,,,,,,0,0,0,0,0
2.1299,1783968095.7753,1,1,3.5000,-0.0000,1.42243,-0.00278,-2.63135,1.06334,1.57080,0.11675,-0.12763,-0.48150,0.03618,,,,,,,,,,,,,,,,,,,,,,,,,,0,0,0,0,0
2.1304,1783968095.7757,1,1,3.5000,-0.0000,1.42243,-0.00278,-2.63135,1.06334,1.57080,0.11675,-0.12763,-0.48150,0.03618,,,,,,,,,,,,,,,,,,,,,,,,,,0,0,0,0,0
2.1322,1783968095.7776,1,1,3.5000,-0.0000,1.42243,-0.00278,-2.63135,1.06334,1.57080,0.11675,-0.12763,-0.48150,0.03618,,,,,,,,,,,,,,,,,,,,,,,,,,0,0,0,0,0
2.1413,1783968095.7866,1,1,3.5000,-0.0000,1.42243,-0.00278,-2.63135,1.06334,1.57080,0.11675,-0.12763,-0.48150,0.03618,,,,,,,,,,,,,,,,,,,,,,,,,,0,0,0,0,0
2.1478,1783968095.7931,1,1,3.5000,-0.0000,1.42243,-0.00278,-2.63135,1.06334,1.57080,0.11675,-0.12763,-0.48150,0.03618,,,,,,,,,,,,,,,,,,,,,,,,,,0,0,0,0,0
2.1597,1783968095.8050,1,1,3.5000,-0.0000,1.42243,-0.00278,-2.63135,1.06334,1.57080,0.11675,-0.12763,-0.48150,0.03618,,,,,,,,,,,,,,,,,,,,,,,,,,0,0,0,0,0
2.1679,1783968095.8133,1,1,3.5000,-0.0000,1.42243,-0.00278,-2.63135,1.06334,1.57080,0.11675,-0.12763,-0.48150,0.03618,,,,,,,,,,,,,,,,,,,,,,,,,,0,0,0,0,0
2.1746,1783968095.8199,1,1,3.5000,-0.0000,1.42243,-0.00278,-2.63135,1.06334,1.57080,0.11675,-0.12763,-0.48150,0.03618,,,,,,,,,,,,,,,,,,,,,,,,,,0,0,0,0,0
2.1860,1783968095.8313,1,1,3.5000,-0.0000,1.42243,-0.00278,-2.63135,1.06334,1.57080,0.11675,-0.12763,-0.48150,0.03618,,,,,,,,,,,,,,,,,,,,,,,,,,0,0,0,0,0
2.1868,1783968095.8321,1,1,3.5000,-0.0000,1.42243,-0.00278,-2.63135,1.06334,1.57080,0.11675,-0.12763,-0.48150,0.03618,,,,,,,,,,,,,,,,,,,,,,,,,,0,0,0,0,0
2.1948,1783968095.8401,1,1,3.5000,-0.0000,1.42243,-0.00278,-2.63135,1.06334,1.57080,0.11675,-0.12763,-0.48150,0.03618,,,,,,,,,,,,,,,,,,,,,,,,,,0,0,0,0,0
2.1952,1783968095.8405,1,1,3.5000,-0.0000,1.42243,-0.00278,-2.63135,1.06334,1.57080,0.11675,-0.12763,-0.48150,0.03618,,,,,,,,,,,,,,,,,,,,,,,,,,0,0,0,0,0
2.2097,1783968095.8550,1,1,3.5000,-0.0000,1.42243,-0.00278,-2.63135,1.06334,1.57080,0.11675,-0.12763,-0.48150,0.03618,,,,,,,,,,,,,,,,,,,,,,,,,,0,0,0,0,0
2.2100,1783968095.8554,1,1,3.5000,-0.0000,1.42243,-0.00278,-2.63135,1.06334,1.57080,0.11675,-0.12763,-0.48150,0.03618,,,,,,,,,,,,,,,,,,,,,,,,,,0,0,0,0,0
2.2261,1783968095.8714,1,1,3.5000,-0.0000,1.42243,-0.00278,-2.63135,1.06334,1.57080,0.11675,-0.12763,-0.48150,0.03618,,,,,,,,,,,,,,,,,,,,,,,,,,0,0,0,0,0
2.2410,1783968095.8863,1,1,3.5000,-0.0000,1.42243,-0.00278,-2.63135,1.06334,1.57080,0.11675,-0.12763,-0.48150,0.03618,,,,,,,,,,,,,,,,,,,,,,,,,,0,0,0,0,0
2.2500,1783968095.8953,1,1,3.5000,-0.0000,1.42243,-0.00278,-2.63135,1.06334,1.57080,0.11675,-0.12763,-0.48150,0.03618,,,,,,,,,,,,,,,,,,,,,,,,,,0,0,0,0,0
2.3020,1783968095.9473,1,1,3.5000,-0.0000,1.42243,-0.00281,-2.63135,1.06339,1.57080,0.11675,-0.12763,-0.48151,0.03618,,,,,,,,,,,,,,,,,,,,,,,,,,0,0,0,0,0
2.3292,1783968095.9745,1,1,3.5000,-0.0000,1.42243,-0.00291,-2.63142,1.06351,1.57080,0.11675,-0.12764,-0.48147,0.03612,,,,,,,,,,,,,,,,,,,,,,,,,,0,0,0,0,0
2.3309,1783968095.9762,1,1,3.5000,-0.0000,1.42243,-0.00294,-2.63143,1.06354,1.57080,0.11675,-0.12764,-0.48146,0.03610,,,,,,,,,,,,,,,,,,,,,,,,,,0,0,0,0,0
2.3311,1783968095.9765,1,1,3.5000,-0.0000,1.42243,-0.00294,-2.63143,1.06354,1.57080,0.11675,-0.12764,-0.48146,0.03610,,,,,,,,,,,,,,,,,,,,,,,,,,0,0,0,0,0
2.3353,1783968095.9807,1,1,3.5000,-0.0000,1.42243,-0.00296,-2.63145,1.06357,1.57080,0.11675,-0.12764,-0.48145,0.03609,,,,,,,,,,,,,,,,,,,,,,,,,,0,0,0,0,0
2.3358,1783968095.9812,1,1,3.5000,-0.0000,1.42243,-0.00296,-2.63145,1.06357,1.57080,0.11675,-0.12764,-0.48145,0.03609,,,,,,,,,,,,,,,,,,,,,,,,,,0,0,0,0,0
2.3527,1783968095.9980,1,1,3.5000,-0.0000,1.42243,-0.00305,-2.63151,1.06367,1.57080,0.11675,-0.12764,-0.48142,0.03604,,,,,,,,,,,,,,,,,,,,,,,,,,0,0,0,0,0
2.3992,1783968096.0445,1,1,3.5000,-0.0000,1.42243,-0.00327,-2.63153,1.06393,1.57080,0.11675,-0.12764,-0.48144,0.03598,,,,,,,,,,,,,,,,,,,,,,,,,,0,0,0,0,0
2.4244,1783968096.0697,1,1,3.5000,-0.0000,1.42243,-0.00340,-2.63155,1.06409,1.57080,0.11675,-0.12764,-0.48145,0.03594,,,,,,,,,,,,,,,,,,,,,,,,,,0,0,0,0,0
2.4372,1783968096.0826,1,1,3.5000,-0.0000,1.42243,-0.00352,-2.63157,1.06423,1.57080,0.11675,-0.12764,-0.48146,0.03590,,,,,,,,,,,,,,,,,,,,,,,,,,0,0,0,0,0
2.4454,1783968096.0908,1,1,3.5000,-0.0000,1.42243,-0.00357,-2.63157,1.06429,1.57080,0.11675,-0.12764,-0.48146,0.03589,,,,,,,,,,,,,,,,,,,,,,,,,,0,0,0,0,0
2.4501,1783968096.0954,1,1,3.5000,-0.0000,1.42243,-0.00358,-2.63157,1.06430,1.57080,0.11675,-0.12764,-0.48146,0.03588,,,,,,,,,,,,,,,,,,,,,,,,,,0,0,0,0,0
2.4504,1783968096.0958,1,1,3.5000,-0.0000,1.42243,-0.00358,-2.63157,1.06430,1.57080,0.11675,-0.12764,-0.48146,0.03588,,,,,,,,,,,,,,,,,,,,,,,,,,0,0,0,0,0
2.4540,1783968096.0994,1,1,3.5000,-0.0000,1.42243,-0.00359,-2.63157,1.06431,1.57080,0.11675,-0.12764,-0.48146,0.03588,,,,,,,,,,,,,,,,,,,,,,,,,,0,0,0,0,0
2.4544,1783968096.0998,1,1,3.5000,-0.0000,1.42243,-0.00359,-2.63157,1.06431,1.57080,0.11675,-0.12764,-0.48146,0.03588,,,,,,,,,,,,,,,,,,,,,,,,,,0,0,0,0,0
2.4550,1783968096.1004,1,1,3.5000,-0.0000,1.42243,-0.00361,-2.63157,1.06434,1.57080,0.11675,-0.12764,-0.48146,0.03588,,,,,,,,,,,,,,,,,,,,,,,,,,0,0,0,0,0
2.4654,1783968096.1108,1,1,3.5000,-0.0000,1.42243,-0.00367,-2.63158,1.06441,1.57080,0.11675,-0.12764,-0.48147,0.03586,,,,,,,,,,,,,,,,,,,,,,,,,,0,0,0,0,0
2.4689,1783968096.1142,1,1,3.5000,-0.0000,1.42243,-0.00370,-2.63158,1.06445,1.57080,0.11675,-0.12763,-0.48148,0.03585,,,,,,,,,,,,,,,,,,,,,,,,,,0,0,0,0,0
2.4692,1783968096.1146,1,1,3.5000,-0.0000,1.42243,-0.00370,-2.63158,1.06445,1.57080,0.11675,-0.12763,-0.48148,0.03585,,,,,,,,,,,,,,,,,,,,,,,,,,0,0,0,0,0
2.4696,1783968096.1150,1,1,3.5000,-0.0000,1.42243,-0.00370,-2.63158,1.06445,1.57080,0.11675,-0.12763,-0.48148,0.03585,,,,,,,,,,,,,,,,,,,,,,,,,,0,0,0,0,0
2.4699,1783968096.1153,1,1,3.5000,-0.0000,1.42243,-0.00370,-2.63158,1.06445,1.57080,0.11675,-0.12763,-0.48148,0.03585,,,,,,,,,,,,,,,,,,,,,,,,,,0,0,0,0,0
2.4703,1783968096.1156,1,1,3.5000,-0.0000,1.42243,-0.00370,-2.63158,1.06445,1.57080,0.11675,-0.12763,-0.48148,0.03585,,,,,,,,,,,,,,,,,,,,,,,,,,0,0,0,0,0
2.4721,1783968096.1174,1,1,3.5000,-0.0000,1.42243,-0.00374,-2.63158,1.06450,1.57080,0.11675,-0.12763,-0.48148,0.03584,,,,,,,,,,,,,,,,,,,,,,,,,,0,0,0,0,0
2.4772,1783968096.1225,1,1,3.5000,-0.0000,1.42243,-0.00378,-2.63158,1.06455,1.57080,0.11675,-0.12763,-0.48149,0.03583,,,,,,,,,,,,,,,,,,,,,,,,,,0,0,0,0,0
2.4882,1783968096.1336,1,1,3.5000,-0.0000,1.42243,-0.00390,-2.63157,1.06469,1.57080,0.11675,-0.12763,-0.48151,0.03581,,,,,,,,,,,,,,,,,,,,,,,,,,0,0,0,0,0
2.4990,1783968096.1444,1,1,3.5000,-0.0000,1.42243,-0.00399,-2.63156,1.06480,1.57080,0.11675,-0.12763,-0.48154,0.03579,,,,,,,,,,,,,,,,,,,,,,,,,,0,0,0,0,0
2.5110,1783968096.1564,1,1,3.5000,-0.0000,1.42243,-0.00401,-2.63155,1.06483,1.57080,0.11675,-0.12762,-0.48155,0.03579,,,,,,,,,,,,,,,,,,,,,,,,,,0,0,0,0,0
2.5115,1783968096.1568,1,1,3.5000,-0.0000,1.42243,-0.00401,-2.63155,1.06483,1.57080,0.11675,-0.12762,-0.48155,0.03579,,,,,,,,,,,,,,,,,,,,,,,,,,0,0,0,0,0
2.5199,1783968096.1652,1,1,3.5000,-0.0000,1.42243,-0.00401,-2.63155,1.06483,1.57080,0.11675,-0.12762,-0.48155,0.03579,,,,,,,,,,,,,,,,,,,,,,,,,,0,0,0,0,0
2.5203,1783968096.1656,1,1,3.5000,-0.0000,1.42243,-0.00401,-2.63155,1.06483,1.57080,0.11675,-0.12762,-0.48155,0.03579,,,,,,,,,,,,,,,,,,,,,,,,,,0,0,0,0,0
2.5272,1783968096.1725,1,1,3.5000,-0.0000,1.42243,-0.00401,-2.63155,1.06483,1.57080,0.11675,-0.12762,-0.48155,0.03579,,,,,,,,,,,,,,,,,,,,,,,,,,0,0,0,0,0
2.5282,1783968096.1735,1,1,3.5000,-0.0000,1.42243,-0.00401,-2.63155,1.06483,1.57080,0.11675,-0.12762,-0.48155,0.03579,,,,,,,,,,,,,,,,,,,,,,,,,,0,0,0,0,0
2.5284,1783968096.1738,1,1,3.5000,-0.0000,1.42243,-0.00401,-2.63155,1.06483,1.57080,0.11675,-0.12762,-0.48155,0.03579,,,,,,,,,,,,,,,,,,,,,,,,,,0,0,0,0,0
2.5312,1783968096.1765,1,1,3.5000,-0.0000,1.42243,-0.00401,-2.63155,1.06483,1.57080,0.11675,-0.12762,-0.48155,0.03579,,,,,,,,,,,,,,,,,,,,,,,,,,0,0,0,0,0
2.5315,1783968096.1768,1,1,3.5000,-0.0000,1.42243,-0.00401,-2.63155,1.06483,1.57080,0.11675,-0.12762,-0.48155,0.03579,,,,,,,,,,,,,,,,,,,,,,,,,,0,0,0,0,0
2.5359,1783968096.1813,1,1,3.5000,-0.0000,1.42243,-0.00401,-2.63155,1.06483,1.57080,0.11675,-0.12762,-0.48155,0.03579,,,,,,,,,,,,,,,,,,,,,,,,,,0,0,0,0,0
2.5368,1783968096.1822,1,1,3.5000,-0.0000,1.42243,-0.00401,-2.63155,1.06483,1.57080,0.11675,-0.12762,-0.48155,0.03579,,,,,,,,,,,,,,,,,,,,,,,,,,0,0,0,0,0
2.5371,1783968096.1825,1,1,3.5000,-0.0000,1.42243,-0.00401,-2.63155,1.06483,1.57080,0.11675,-0.12762,-0.48155,0.03579,,,,,,,,,,,,,,,,,,,,,,,,,,0,0,0,0,0
2.5409,1783968096.1863,1,1,3.5000,-0.0000,1.42243,-0.00401,-2.63155,1.06483,1.57080,0.11675,-0.12762,-0.48155,0.03579,,,,,,,,,,,,,,,,,,,,,,,,,,0,0,0,0,0
2.5418,1783968096.1871,1,1,3.5000,-0.0000,1.42243,-0.00401,-2.63155,1.06483,1.57080,0.11675,-0.12762,-0.48155,0.03579,,,,,,,,,,,,,,,,,,,,,,,,,,0,0,0,0,0
2.5421,1783968096.1874,1,1,3.5000,-0.0000,1.42243,-0.00401,-2.63155,1.06483,1.57080,0.11675,-0.12762,-0.48155,0.03579,,,,,,,,,,,,,,,,,,,,,,,,,,0,0,0,0,0
2.5454,1783968096.1907,1,1,3.5000,-0.0000,1.42243,-0.00401,-2.63155,1.06483,1.57080,0.11675,-0.12762,-0.48155,0.03579,,,,,,,,,,,,,,,,,,,,,,,,,,0,0,0,0,0
2.5457,1783968096.1910,1,1,3.5000,-0.0000,1.42243,-0.00401,-2.63155,1.06483,1.57080,0.11675,-0.12762,-0.48155,0.03579,,,,,,,,,,,,,,,,,,,,,,,,,,0,0,0,0,0
2.5678,1783968096.2132,1,1,3.5000,-0.0000,1.42243,-0.00401,-2.63155,1.06483,1.57080,0.11675,-0.12762,-0.48155,0.03579,,,,,,,,,,,,,,,,,,,,,,,,,,0,0,0,0,0
2.5683,1783968096.2136,1,1,3.5000,-0.0000,1.42243,-0.00401,-2.63155,1.06483,1.57080,0.11675,-0.12762,-0.48155,0.03579,,,,,,,,,,,,,,,,,,,,,,,,,,0,0,0,0,0
2.5757,1783968096.2211,1,1,3.5000,-0.0000,1.42243,-0.00401,-2.63155,1.06483,1.57080,0.11675,-0.12762,-0.48155,0.03579,,,,,,,,,,,,,,,,,,,,,,,,,,0,0,0,0,0
2.5839,1783968096.2292,1,1,3.5000,-0.0000,1.42243,-0.00401,-2.63155,1.06483,1.57080,0.11675,-0.12762,-0.48155,0.03579,,,,,,,,,,,,,,,,,,,,,,,,,,0,0,0,0,0
2.6112,1783968096.2565,1,1,3.5000,-0.0000,1.42243,-0.00401,-2.63155,1.06483,1.57080,0.11675,-0.12762,-0.48155,0.03579,,,,,,,,,,,,,,,,,,,,,,,,,,0,0,0,0,0
2.6194,1783968096.2648,1,1,3.5000,-0.0000,1.42243,-0.00401,-2.63155,1.06483,1.57080,0.11675,-0.12762,-0.48155,0.03579,,,,,,,,,,,,,,,,,,,,,,,,,,0,0,0,0,0
2.6197,1783968096.2651,1,1,3.5000,-0.0000,1.42243,-0.00401,-2.63155,1.06483,1.57080,0.11675,-0.12762,-0.48155,0.03579,,,,,,,,,,,,,,,,,,,,,,,,,,0,0,0,0,0
2.6209,1783968096.2662,1,1,3.5000,-0.0000,1.42243,-0.00401,-2.63155,1.06483,1.57080,0.11675,-0.12762,-0.48155,0.03579,,,,,,,,,,,,,,,,,,,,,,,,,,0,0,0,0,0
2.6294,1783968096.2748,1,1,3.5000,-0.0000,1.42243,-0.00401,-2.63155,1.06483,1.57080,0.11675,-0.12762,-0.48155,0.03579,,,,,,,,,,,,,,,,,,,,,,,,,,0,0,0,0,0
2.6298,1783968096.2752,1,1,3.5000,-0.0000,1.42243,-0.00401,-2.63155,1.06483,1.57080,0.11675,-0.12762,-0.48155,0.03579,,,,,,,,,,,,,,,,,,,,,,,,,,0,0,0,0,0
2.6343,1783968096.2796,1,1,3.5000,-0.0000,1.42243,-0.00401,-2.63155,1.06483,1.57080,0.11675,-0.12762,-0.48155,0.03579,,,,,,,,,,,,,,,,,,,,,,,,,,0,0,0,0,0
2.6351,1783968096.2805,1,1,3.5000,-0.0000,1.42243,-0.00401,-2.63155,1.06483,1.57080,0.11675,-0.12762,-0.48155,0.03579,,,,,,,,,,,,,,,,,,,,,,,,,,0,0,0,0,0
2.6555,1783968096.3009,1,1,3.5000,-0.0000,1.42243,-0.00401,-2.63155,1.06483,1.57080,0.11675,-0.12762,-0.48155,0.03579,,,,,,,,,,,,,,,,,,,,,,,,,,0,0,0,0,0
2.6596,1783968096.3049,1,1,3.5000,-0.0000,1.42243,-0.00401,-2.63155,1.06483,1.57080,0.11675,-0.12762,-0.48155,0.03579,,,,,,,,,,,,,,,,,,,,,,,,,,0,0,0,0,0
2.6751,1783968096.3204,1,1,3.5000,-0.0000,1.42243,-0.00401,-2.63155,1.06483,1.57080,0.11675,-0.12762,-0.48155,0.03579,,,,,,,,,,,,,,,,,,,,,,,,,,0,0,0,0,0
2.6754,1783968096.3208,1,1,3.5000,-0.0000,1.42243,-0.00401,-2.63155,1.06483,1.57080,0.11675,-0.12762,-0.48155,0.03579,,,,,,,,,,,,,,,,,,,,,,,,,,0,0,0,0,0
2.6793,1783968096.3247,1,1,3.5000,-0.0000,1.42243,-0.00401,-2.63155,1.06483,1.57080,0.11675,-0.12762,-0.48155,0.03579,,,,,,,,,,,,,,,,,,,,,,,,,,0,0,0,0,0
2.6796,1783968096.3249,1,1,3.5000,-0.0000,1.42243,-0.00401,-2.63155,1.06483,1.57080,0.11675,-0.12762,-0.48155,0.03579,,,,,,,,,,,,,,,,,,,,,,,,,,0,0,0,0,0
2.6862,1783968096.3316,1,1,3.5000,-0.0000,1.42243,-0.00401,-2.63155,1.06483,1.57080,0.11675,-0.12762,-0.48155,0.03579,,,,,,,,,,,,,,,,,,,,,,,,,,0,0,0,0,0
2.6979,1783968096.3432,1,1,3.5000,-0.0000,1.42243,-0.00401,-2.63155,1.06483,1.57080,0.11675,-0.12762,-0.48155,0.03579,,,,,,,,,,,,,,,,,,,,,,,,,,0,0,0,0,0
2.7040,1783968096.3493,1,1,3.5000,-0.0000,1.42243,-0.00401,-2.63155,1.06483,1.57080,0.11675,-0.12762,-0.48155,0.03579,,,,,,,,,,,,,,,,,,,,,,,,,,0,0,0,0,0
2.7156,1783968096.3610,1,1,3.5000,-0.0000,1.42243,-0.00401,-2.63155,1.06483,1.57080,0.11675,-0.12762,-0.48155,0.03579,,,,,,,,,,,,,,,,,,,,,,,,,,0,0,0,0,0
2.7380,1783968096.3833,1,1,3.5000,-0.0000,1.42243,-0.00404,-2.63160,1.06488,1.57080,0.11675,-0.12763,-0.48152,0.03576,,,,,,,,,,,,,,,,,,,,,,,,,,0,0,0,0,0
2.7389,1783968096.3843,1,1,3.5000,-0.0000,1.42243,-0.00405,-2.63161,1.06490,1.57080,0.11675,-0.12763,-0.48151,0.03575,,,,,,,,,,,,,,,,,,,,,,,,,,0,0,0,0,0
2.7572,1783968096.4026,1,1,3.5000,-0.0000,1.42243,-0.00408,-2.63164,1.06493,1.57080,0.11675,-0.12763,-0.48150,0.03574,,,,,,,,,,,,,,,,,,,,,,,,,,0,0,0,0,0
2.7616,1783968096.4069,1,1,3.5000,-0.0000,1.42243,-0.00409,-2.63165,1.06494,1.57080,0.11675,-0.12763,-0.48149,0.03573,,,,,,,,,,,,,,,,,,,,,,,,,,0,0,0,0,0
2.7619,1783968096.4072,1,1,3.5000,-0.0000,1.42243,-0.00409,-2.63165,1.06494,1.57080,0.11675,-0.12763,-0.48149,0.03573,,,,,,,,,,,,,,,,,,,,,,,,,,0,0,0,0,0
2.7680,1783968096.4133,1,1,3.5000,-0.0000,1.42243,-0.00413,-2.63167,1.06498,1.57080,0.11675,-0.12763,-0.48148,0.03571,,,,,,,,,,,,,,,,,,,,,,,,,,0,0,0,0,0
2.7682,1783968096.4135,1,1,3.5000,-0.0000,1.42243,-0.00413,-2.63167,1.06498,1.57080,0.11675,-0.12763,-0.48148,0.03571,,,,,,,,,,,,,,,,,,,,,,,,,,0,0,0,0,0
2.7759,1783968096.4213,1,1,3.5000,-0.0000,1.42243,-0.00413,-2.63167,1.06499,1.57080,0.11675,-0.12763,-0.48148,0.03571,,,,,,,,,,,,,,,,,,,,,,,,,,0,0,0,0,0
2.8008,1783968096.4461,1,1,3.5000,-0.0000,1.42243,-0.00429,-2.63173,1.06518,1.57080,0.11675,-0.12764,-0.48146,0.03564,,,,,,,,,,,,,,,,,,,,,,,,,,0,0,0,0,0
2.8010,1783968096.4464,1,1,3.5000,-0.0000,1.42243,-0.00429,-2.63173,1.06518,1.57080,0.11675,-0.12764,-0.48146,0.03564,,,,,,,,,,,,,,,,,,,,,,,,,,0,0,0,0,0
2.8186,1783968096.4639,1,1,3.5000,-0.0000,1.42243,-0.00434,-2.63174,1.06524,1.57080,0.11675,-0.12764,-0.48146,0.03563,,,,,,,,,,,,,,,,,,,,,,,,,,0,0,0,0,0
2.8192,1783968096.4645,1,1,3.5000,-0.0000,1.42243,-0.00437,-2.63175,1.06528,1.57080,0.11675,-0.12764,-0.48146,0.03561,,,,,,,,,,,,,,,,,,,,,,,,,,0,0,0,0,0
2.8401,1783968096.4855,1,1,3.5000,-0.0000,1.42243,-0.00451,-2.63178,1.06545,1.57080,0.11675,-0.12764,-0.48146,0.03557,,,,,,,,,,,,,,,,,,,,,,,,,,0,0,0,0,0
2.8416,1783968096.4869,1,1,3.5000,-0.0000,1.42243,-0.00451,-2.63178,1.06545,1.57080,0.11675,-0.12764,-0.48146,0.03557,,,,,,,,,,,,,,,,,,,,,,,,,,0,0,0,0,0
2.8419,1783968096.4872,1,1,3.5000,-0.0000,1.42243,-0.00451,-2.63178,1.06545,1.57080,0.11675,-0.12764,-0.48146,0.03557,,,,,,,,,,,,,,,,,,,,,,,,,,0,0,0,0,0
2.8552,1783968096.5005,1,1,3.5000,-0.0000,1.42242,-0.00463,-2.63181,1.06559,1.57080,0.11675,-0.12764,-0.48146,0.03553,,,,,,,,,,,,,,,,,,,,,,,,,,0,0,0,0,0
2.8619,1783968096.5073,1,1,3.5000,-0.0000,1.42242,-0.00463,-2.63181,1.06559,1.57080,0.11675,-0.12764,-0.48146,0.03553,,,,,,,,,,,,,,,,,,,,,,,,,,0,0,0,0,0
2.8921,1783968096.5375,1,1,3.5000,-0.0000,1.42242,-0.00486,-2.63184,1.06586,1.57080,0.11675,-0.12763,-0.48147,0.03546,,,,,,,,,,,,,,,,,,,,,,,,,,0,0,0,0,0
2.8975,1783968096.5428,1,1,3.5000,-0.0000,1.42242,-0.00486,-2.63184,1.06587,1.57080,0.11675,-0.12763,-0.48147,0.03546,,,,,,,,,,,,,,,,,,,,,,,,,,0,0,0,0,0
2.8978,1783968096.5431,1,1,3.5000,-0.0000,1.42242,-0.00486,-2.63184,1.06587,1.57080,0.11675,-0.12763,-0.48147,0.03546,,,,,,,,,,,,,,,,,,,,,,,,,,0,0,0,0,0
2.9021,1783968096.5474,1,1,3.5000,-0.0000,1.42242,-0.00487,-2.63184,1.06588,1.57080,0.11675,-0.12763,-0.48148,0.03545,,,,,,,,,,,,,,,,,,,,,,,,,,0,0,0,0,0
2.9025,1783968096.5478,1,1,3.5000,-0.0000,1.42242,-0.00487,-2.63184,1.06588,1.57080,0.11675,-0.12763,-0.48148,0.03545,,,,,,,,,,,,,,,,,,,,,,,,,,0,0,0,0,0
2.9044,1783968096.5497,1,1,3.5000,-0.0000,1.42242,-0.00489,-2.63184,1.06591,1.57080,0.11675,-0.12763,-0.48148,0.03545,,,,,,,,,,,,,,,,,,,,,,,,,,0,0,0,0,0
2.9057,1783968096.5511,1,1,3.5000,-0.0000,1.42242,-0.00489,-2.63184,1.06591,1.57080,0.11675,-0.12763,-0.48148,0.03545,,,,,,,,,,,,,,,,,,,,,,,,,,0,0,0,0,0
2.9187,1783968096.5641,1,1,3.5000,-0.0000,1.42242,-0.00497,-2.63183,1.06601,1.57080,0.11675,-0.12763,-0.48150,0.03543,,,,,,,,,,,,,,,,,,,,,,,,,,0,0,0,0,0
2.9272,1783968096.5725,1,1,3.5000,-0.0000,1.42242,-0.00507,-2.63182,1.06613,1.57080,0.11675,-0.12762,-0.48152,0.03542,,,,,,,,,,,,,,,,,,,,,,,,,,0,0,0,0,0
2.9362,1783968096.5816,1,1,3.5000,-0.0000,1.42242,-0.00513,-2.63181,1.06621,1.57080,0.11675,-0.12762,-0.48154,0.03541,,,,,,,,,,,,,,,,,,,,,,,,,,0,0,0,0,0
2.9367,1783968096.5821,1,1,3.5000,-0.0000,1.42242,-0.00513,-2.63181,1.06621,1.57080,0.11675,-0.12762,-0.48154,0.03541,,,,,,,,,,,,,,,,,,,,,,,,,,0,0,0,0,0
2.9447,1783968096.5900,1,1,3.5000,-0.0000,1.42242,-0.00517,-2.63179,1.06626,1.57080,0.11675,-0.12762,-0.48157,0.03541,,,,,,,,,,,,,,,,,,,,,,,,,,0,0,0,0,0
2.9584,1783968096.6038,1,1,3.5000,-0.0000,1.42242,-0.00519,-2.63176,1.06629,1.57080,0.11675,-0.12762,-0.48159,0.03542,,,,,,,,,,,,,,,,,,,,,,,,,,0,0,0,0,0
2.9780,1783968096.6233,1,1,3.5000,-0.0000,1.42242,-0.00519,-2.63176,1.06629,1.57080,0.11675,-0.12762,-0.48159,0.03542,,,,,,,,,,,,,,,,,,,,,,,,,,0,0,0,0,0
2.9904,1783968096.6357,1,1,3.5000,-0.0000,1.42242,-0.00519,-2.63176,1.06629,1.57080,0.11675,-0.12762,-0.48159,0.03542,,,,,,,,,,,,,,,,,,,,,,,,,,0,0,0,0,0
3.0073,1783968096.6526,1,1,3.5000,-0.0000,1.42242,-0.00519,-2.63176,1.06629,1.57080,0.11675,-0.12762,-0.48159,0.03542,,,,,,,,,,,,,,,,,,,,,,,,,,0,0,0,0,0
3.0114,1783968096.6567,1,1,3.5000,-0.0000,1.42242,-0.00519,-2.63176,1.06629,1.57080,0.11675,-0.12762,-0.48159,0.03542,,,,,,,,,,,,,,,,,,,,,,,,,,0,0,0,0,0
3.0161,1783968096.6614,1,1,3.5000,-0.0000,1.42242,-0.00519,-2.63176,1.06629,1.57080,0.11675,-0.12762,-0.48159,0.03542,,,,,,,,,,,,,,,,,,,,,,,,,,0,0,0,0,0
3.0164,1783968096.6618,1,1,3.5000,-0.0000,1.42242,-0.00519,-2.63176,1.06629,1.57080,0.11675,-0.12762,-0.48159,0.03542,,,,,,,,,,,,,,,,,,,,,,,,,,0,0,0,0,0
3.0263,1783968096.6716,1,1,3.5000,-0.0000,1.42242,-0.00519,-2.63176,1.06629,1.57080,0.11675,-0.12762,-0.48159,0.03542,,,,,,,,,,,,,,,,,,,,,,,,,,0,0,0,0,0
3.0266,1783968096.6719,1,1,3.5000,-0.0000,1.42242,-0.00519,-2.63176,1.06629,1.57080,0.11675,-0.12762,-0.48159,0.03542,,,,,,,,,,,,,,,,,,,,,,,,,,0,0,0,0,0
3.0391,1783968096.6844,1,1,3.5000,-0.0000,1.42242,-0.00519,-2.63176,1.06629,1.57080,0.11675,-0.12762,-0.48159,0.03542,,,,,,,,,,,,,,,,,,,,,,,,,,0,0,0,0,0
3.0393,1783968096.6847,1,1,3.5000,-0.0000,1.42242,-0.00519,-2.63176,1.06629,1.57080,0.11675,-0.12762,-0.48159,0.03542,,,,,,,,,,,,,,,,,,,,,,,,,,0,0,0,0,0
3.0479,1783968096.6932,1,1,3.5000,-0.0000,1.42242,-0.00519,-2.63176,1.06629,1.57080,0.11675,-0.12762,-0.48159,0.03542,,,,,,,,,,,,,,,,,,,,,,,,,,0,0,0,0,0
3.0543,1783968096.6996,1,1,3.5000,-0.0000,1.42242,-0.00519,-2.63176,1.06629,1.57080,0.11675,-0.12762,-0.48159,0.03542,,,,,,,,,,,,,,,,,,,,,,,,,,0,0,0,0,0
3.0665,1783968096.7119,1,1,3.5000,-0.0000,1.42242,-0.00519,-2.63176,1.06629,1.57080,0.11675,-0.12762,-0.48159,0.03542,,,,,,,,,,,,,,,,,,,,,,,,,,0,0,0,0,0
3.0792,1783968096.7245,1,1,3.5000,-0.0000,1.42242,-0.00519,-2.63176,1.06629,1.57080,0.11675,-0.12762,-0.48159,0.03542,,,,,,,,,,,,,,,,,,,,,,,,,,0,0,0,0,0
3.0856,1783968096.7310,1,1,3.5000,-0.0000,1.42242,-0.00519,-2.63176,1.06629,1.57080,0.11675,-0.12762,-0.48159,0.03542,,,,,,,,,,,,,,,,,,,,,,,,,,0,0,0,0,0
3.0866,1783968096.7319,1,1,3.5000,-0.0000,1.42242,-0.00519,-2.63176,1.06629,1.57080,0.11675,-0.12762,-0.48159,0.03542,,,,,,,,,,,,,,,,,,,,,,,,,,0,0,0,0,0
3.1023,1783968096.7476,1,1,3.5000,-0.0000,1.42242,-0.00519,-2.63176,1.06629,1.57080,0.11675,-0.12762,-0.48159,0.03542,,,,,,,,,,,,,,,,,,,,,,,,,,0,0,0,0,0
3.1181,1783968096.7635,1,1,3.5000,-0.0000,1.42242,-0.00519,-2.63176,1.06629,1.57080,0.11675,-0.12762,-0.48159,0.03542,,,,,,,,,,,,,,,,,,,,,,,,,,0,0,0,0,0
3.1353,1783968096.7806,1,1,3.5000,-0.0000,1.42242,-0.00520,-2.63177,1.06629,1.57080,0.11675,-0.12762,-0.48158,0.03541,,,,,,,,,,,,,,,,,,,,,,,,,,0,0,0,0,0
3.1355,1783968096.7808,1,1,3.5000,-0.0000,1.42242,-0.00520,-2.63177,1.06629,1.57080,0.11675,-0.12762,-0.48158,0.03541,,,,,,,,,,,,,,,,,,,,,,,,,,0,0,0,0,0
3.1422,1783968096.7875,1,1,3.5000,-0.0000,1.42242,-0.00520,-2.63178,1.06630,1.57080,0.11675,-0.12762,-0.48158,0.03541,,,,,,,,,,,,,,,,,,,,,,,,,,0,0,0,0,0
3.1473,1783968096.7926,1,1,3.5000,-0.0000,1.42242,-0.00521,-2.63181,1.06632,1.57080,0.11675,-0.12762,-0.48156,0.03539,,,,,,,,,,,,,,,,,,,,,,,,,,0,0,0,0,0
3.1486,1783968096.7939,1,1,3.5000,-0.0000,1.42242,-0.00521,-2.63181,1.06632,1.57080,0.11675,-0.12762,-0.48156,0.03539,,,,,,,,,,,,,,,,,,,,,,,,,,0,0,0,0,0
3.1489,1783968096.7942,1,1,3.5000,-0.0000,1.42242,-0.00521,-2.63181,1.06632,1.57080,0.11675,-0.12762,-0.48156,0.03539,,,,,,,,,,,,,,,,,,,,,,,,,,0,0,0,0,0
3.1632,1783968096.8086,1,1,3.5000,-0.0000,1.42242,-0.00525,-2.63188,1.06636,1.57080,0.11675,-0.12763,-0.48151,0.03535,,,,,,,,,,,,,,,,,,,,,,,,,,0,0,0,0,0
3.1683,1783968096.8136,1,1,3.5000,-0.0000,1.42242,-0.00525,-2.63188,1.06636,1.57080,0.11675,-0.12763,-0.48151,0.03535,,,,,,,,,,,,,,,,,,,,,,,,,,0,0,0,0,0
3.1762,1783968096.8215,1,1,3.5000,-0.0000,1.42242,-0.00527,-2.63190,1.06638,1.57080,0.11675,-0.12763,-0.48150,0.03534,,,,,,,,,,,,,,,,,,,,,,,,,,0,0,0,0,0
3.1848,1783968096.8301,1,1,3.5000,-0.0000,1.42242,-0.00530,-2.63192,1.06642,1.57080,0.11675,-0.12763,-0.48149,0.03532,,,,,,,,,,,,,,,,,,,,,,,,,,0,0,0,0,0
3.1851,1783968096.8304,1,1,3.5000,-0.0000,1.42242,-0.00530,-2.63192,1.06642,1.57080,0.11675,-0.12763,-0.48149,0.03532,,,,,,,,,,,,,,,,,,,,,,,,,,0,0,0,0,0
3.1938,1783968096.8392,1,1,3.5000,-0.0000,1.42242,-0.00534,-2.63196,1.06647,1.57080,0.11675,-0.12763,-0.48147,0.03529,,,,,,,,,,,,,,,,,,,,,,,,,,0,0,0,0,0
3.2051,1783968096.8504,1,1,3.5000,-0.0000,1.42242,-0.00535,-2.63196,1.06649,1.57080,0.11675,-0.12763,-0.48147,0.03529,,,,,,,,,,,,,,,,,,,,,,,,,,0,0,0,0,0
3.2276,1783968096.8729,1,1,3.5000,-0.0000,1.42242,-0.00544,-2.63199,1.06659,1.57080,0.11675,-0.12763,-0.48146,0.03525,,,,,,,,,,,,,,,,,,,,,,,,,,0,0,0,0,0
3.2281,1783968096.8735,1,1,3.5000,-0.0000,1.42242,-0.00544,-2.63199,1.06659,1.57080,0.11675,-0.12763,-0.48146,0.03525,,,,,,,,,,,,,,,,,,,,,,,,,,0,0,0,0,0
3.2284,1783968096.8737,1,1,3.5000,-0.0000,1.42242,-0.00544,-2.63199,1.06659,1.57080,0.11675,-0.12763,-0.48146,0.03525,,,,,,,,,,,,,,,,,,,,,,,,,,0,0,0,0,0
3.2368,1783968096.8821,1,1,3.5000,-0.0000,1.42242,-0.00551,-2.63201,1.06667,1.57080,0.11675,-0.12763,-0.48146,0.03523,,,,,,,,,,,,,,,,,,,,,,,,,,0,0,0,0,0
3.2370,1783968096.8823,1,1,3.5000,-0.0000,1.42242,-0.00551,-2.63201,1.06667,1.57080,0.11675,-0.12763,-0.48146,0.03523,,,,,,,,,,,,,,,,,,,,,,,,,,0,0,0,0,0
3.2478,1783968096.8931,1,1,3.5000,-0.0000,1.42242,-0.00565,-2.63204,1.06685,1.57080,0.11675,-0.12763,-0.48146,0.03518,,,,,,,,,,,,,,,,,,,,,,,,,,0,0,0,0,0
3.2616,1783968096.9070,1,1,3.5000,-0.0000,1.42242,-0.00567,-2.63205,1.06687,1.57080,0.11675,-0.12763,-0.48146,0.03517,,,,,,,,,,,,,,,,,,,,,,,,,,0,0,0,0,0
3.2685,1783968096.9139,1,1,3.5000,-0.0000,1.42242,-0.00574,-2.63206,1.06695,1.57080,0.11675,-0.12763,-0.48146,0.03515,,,,,,,,,,,,,,,,,,,,,,,,,,0,0,0,0,0
3.2867,1783968096.9321,1,1,3.5000,-0.0000,1.42242,-0.00587,-2.63208,1.06711,1.57080,0.11675,-0.12763,-0.48146,0.03511,,,,,,,,,,,,,,,,,,,,,,,,,,0,0,0,0,0
3.2875,1783968096.9328,1,1,3.5000,-0.0000,1.42242,-0.00588,-2.63209,1.06712,1.57080,0.11675,-0.12763,-0.48146,0.03510,,,,,,,,,,,,,,,,,,,,,,,,,,0,0,0,0,0
3.2953,1783968096.9407,1,1,3.5000,-0.0000,1.42242,-0.00591,-2.63209,1.06716,1.57080,0.11675,-0.12763,-0.48146,0.03509,,,,,,,,,,,,,,,,,,,,,,,,,,0,0,0,0,0
3.3046,1783968096.9500,1,1,3.5000,-0.0000,1.42242,-0.00598,-2.63210,1.06724,1.57080,0.11675,-0.12763,-0.48147,0.03508,,,,,,,,,,,,,,,,,,,,,,,,,,0,0,0,0,0
3.3183,1783968096.9636,1,1,3.5000,-0.0000,1.42242,-0.00610,-2.63211,1.06739,1.57080,0.11675,-0.12763,-0.48148,0.03504,,,,,,,,,,,,,,,,,,,,,,,,,,0,0,0,0,0
3.3275,1783968096.9728,1,1,3.5000,-0.0000,1.42242,-0.00624,-2.63212,1.06756,1.57080,0.11675,-0.12763,-0.48149,0.03500,,,,,,,,,,,,,,,,,,,,,,,,,,0,0,0,0,0
3.3368,1783968096.9822,1,1,3.5000,-0.0000,1.42242,-0.00631,-2.63212,1.06765,1.57080,0.11675,-0.12763,-0.48151,0.03499,,,,,,,,,,,,,,,,,,,,,,,,,,0,0,0,0,0
3.3374,1783968096.9827,1,1,3.5000,-0.0000,1.42242,-0.00631,-2.63212,1.06765,1.57080,0.11675,-0.12763,-0.48151,0.03499,,,,,,,,,,,,,,,,,,,,,,,,,,0,0,0,0,0
3.3464,1783968096.9917,1,1,3.5000,-0.0000,1.42242,-0.00636,-2.63212,1.06772,1.57080,0.11675,-0.12762,-0.48152,0.03498,,,,,,,,,,,,,,,,,,,,,,,,,,0,0,0,0,0
3.3560,1783968097.0014,1,1,3.5000,-0.0000,1.42242,-0.00636,-2.63212,1.06772,1.57080,0.11675,-0.12762,-0.48152,0.03498,,,,,,,,,,,,,,,,,,,,,,,,,,0,0,0,0,0
3.3690,1783968097.0143,1,1,3.5000,-0.0000,1.42242,-0.00636,-2.63212,1.06772,1.57080,0.11675,-0.12762,-0.48152,0.03498,,,,,,,,,,,,,,,,,,,,,,,,,,0,0,0,0,0
3.3760,1783968097.0213,1,1,3.5000,-0.0000,1.42242,-0.00636,-2.63212,1.06772,1.57080,0.11675,-0.12762,-0.48152,0.03498,,,,,,,,,,,,,,,,,,,,,,,,,,0,0,0,0,0
3.3859,1783968097.0313,1,1,3.5000,-0.0000,1.42242,-0.00636,-2.63212,1.06772,1.57080,0.11675,-0.12762,-0.48152,0.03498,,,,,,,,,,,,,,,,,,,,,,,,,,0,0,0,0,0
3.3862,1783968097.0315,1,1,3.5000,-0.0000,1.42242,-0.00636,-2.63212,1.06772,1.57080,0.11675,-0.12762,-0.48152,0.03498,,,,,,,,,,,,,,,,,,,,,,,,,,0,0,0,0,0
3.4084,1783968097.0537,1,1,3.5000,-0.0000,1.42242,-0.00636,-2.63212,1.06772,1.57080,0.11675,-0.12762,-0.48152,0.03498,,,,,,,,,,,,,,,,,,,,,,,,,,0,0,0,0,0
3.4092,1783968097.0545,1,1,3.5000,-0.0000,1.42242,-0.00636,-2.63212,1.06772,1.57080,0.11675,-0.12762,-0.48152,0.03498,,,,,,,,,,,,,,,,,,,,,,,,,,0,0,0,0,0
3.4095,1783968097.0548,1,1,3.5000,-0.0000,1.42242,-0.00636,-2.63212,1.06772,1.57080,0.11675,-0.12762,-0.48152,0.03498,,,,,,,,,,,,,,,,,,,,,,,,,,0,0,0,0,0
3.4213,1783968097.0666,1,1,3.5000,-0.0000,1.42242,-0.00636,-2.63212,1.06772,1.57080,0.11675,-0.12762,-0.48152,0.03498,,,,,,,,,,,,,,,,,,,,,,,,,,0,0,0,0,0
3.4259,1783968097.0712,1,1,3.5000,-0.0000,1.42242,-0.00636,-2.63212,1.06772,1.57080,0.11675,-0.12762,-0.48152,0.03498,,,,,,,,,,,,,,,,,,,,,,,,,,0,0,0,0,0
3.4263,1783968097.0716,1,1,3.5000,-0.0000,1.42242,-0.00636,-2.63212,1.06772,1.57080,0.11675,-0.12762,-0.48152,0.03498,,,,,,,,,,,,,,,,,,,,,,,,,,0,0,0,0,0
3.4498,1783968097.0952,1,1,3.5000,-0.0000,1.42242,-0.00636,-2.63212,1.06772,1.57080,0.11675,-0.12762,-0.48152,0.03498,,,,,,,,,,,,,,,,,,,,,,,,,,0,0,0,0,0
3.4543,1783968097.0996,1,1,3.5000,-0.0000,1.42242,-0.00636,-2.63212,1.06772,1.57080,0.11675,-0.12762,-0.48152,0.03498,,,,,,,,,,,,,,,,,,,,,,,,,,0,0,0,0,0
3.4559,1783968097.1012,1,1,3.5000,-0.0000,1.42242,-0.00636,-2.63212,1.06772,1.57080,0.11675,-0.12762,-0.48152,0.03498,,,,,,,,,,,,,,,,,,,,,,,,,,0,0,0,0,0
3.4660,1783968097.1113,1,1,3.5000,-0.0000,1.42242,-0.00636,-2.63212,1.06772,1.57080,0.11675,-0.12762,-0.48152,0.03498,,,,,,,,,,,,,,,,,,,,,,,,,,0,0,0,0,0
3.4743,1783968097.1196,1,1,3.5000,-0.0000,1.42242,-0.00636,-2.63212,1.06772,1.57080,0.11675,-0.12762,-0.48152,0.03498,,,,,,,,,,,,,,,,,,,,,,,,,,0,0,0,0,0
3.4889,1783968097.1342,1,1,3.5000,-0.0000,1.42242,-0.00636,-2.63212,1.06772,1.57080,0.11675,-0.12762,-0.48152,0.03498,,,,,,,,,,,,,,,,,,,,,,,,,,0,0,0,0,0
3.4951,1783968097.1405,1,1,3.5000,-0.0000,1.42242,-0.00636,-2.63212,1.06772,1.57080,0.11675,-0.12762,-0.48152,0.03498,,,,,,,,,,,,,,,,,,,,,,,,,,0,0,0,0,0
3.5067,1783968097.1521,1,1,3.5000,-0.0000,1.42242,-0.00636,-2.63212,1.06772,1.57080,0.11675,-0.12762,-0.48152,0.03498,,,,,,,,,,,,,,,,,,,,,,,,,,0,0,0,0,0
3.5169,1783968097.1622,1,1,3.5000,-0.0000,1.42242,-0.00636,-2.63212,1.06772,1.57080,0.11675,-0.12762,-0.48152,0.03498,,,,,,,,,,,,,,,,,,,,,,,,,,0,0,0,0,0
3.5171,1783968097.1625,1,1,3.5000,-0.0000,1.42242,-0.00636,-2.63212,1.06772,1.57080,0.11675,-0.12762,-0.48152,0.03498,,,,,,,,,,,,,,,,,,,,,,,,,,0,0,0,0,0
3.5355,1783968097.1808,1,1,3.5000,-0.0000,1.42242,-0.00636,-2.63212,1.06772,1.57080,0.11675,-0.12762,-0.48152,0.03498,,,,,,,,,,,,,,,,,,,,,,,,,,0,0,0,0,0
3.5357,1783968097.1811,1,1,3.5000,-0.0000,1.42242,-0.00636,-2.63212,1.06772,1.57080,0.11675,-0.12762,-0.48152,0.03498,,,,,,,,,,,,,,,,,,,,,,,,,,0,0,0,0,0
3.5427,1783968097.1880,1,1,3.5000,-0.0000,1.42242,-0.00636,-2.63212,1.06772,1.57080,0.11675,-0.12762,-0.48152,0.03498,,,,,,,,,,,,,,,,,,,,,,,,,,0,0,0,0,0
3.5434,1783968097.1888,1,1,3.5000,-0.0000,1.42242,-0.00636,-2.63212,1.06772,1.57080,0.11675,-0.12762,-0.48152,0.03498,,,,,,,,,,,,,,,,,,,,,,,,,,0,0,0,0,0
3.5514,1783968097.1967,1,1,3.5000,-0.0000,1.42242,-0.00636,-2.63212,1.06772,1.57080,0.11675,-0.12762,-0.48152,0.03498,,,,,,,,,,,,,,,,,,,,,,,,,,0,0,0,0,0
3.5518,1783968097.1971,1,1,3.5000,-0.0000,1.42242,-0.00636,-2.63212,1.06772,1.57080,0.11675,-0.12762,-0.48152,0.03498,,,,,,,,,,,,,,,,,,,,,,,,,,0,0,0,0,0
3.5595,1783968097.2048,1,1,3.5000,-0.0000,1.42242,-0.00636,-2.63212,1.06772,1.57080,0.11675,-0.12762,-0.48152,0.03498,,,,,,,,,,,,,,,,,,,,,,,,,,0,0,0,0,0
3.5600,1783968097.2053,1,1,3.5000,-0.0000,1.42242,-0.00636,-2.63212,1.06772,1.57080,0.11675,-0.12762,-0.48152,0.03498,,,,,,,,,,,,,,,,,,,,,,,,,,0,0,0,0,0
3.5672,1783968097.2126,1,1,3.5000,-0.0000,1.42242,-0.00637,-2.63212,1.06773,1.57080,0.11675,-0.12762,-0.48152,0.03497,,,,,,,,,,,,,,,,,,,,,,,,,,0,0,0,0,0
3.5748,1783968097.2201,1,1,3.5000,-0.0000,1.42242,-0.00638,-2.63213,1.06774,1.57080,0.11675,-0.12762,-0.48151,0.03497,,,,,,,,,,,,,,,,,,,,,,,,,,0,0,0,0,0
3.5873,1783968097.2326,1,1,3.5000,-0.0000,1.42242,-0.00640,-2.63215,1.06777,1.57080,0.11675,-0.12763,-0.48150,0.03496,,,,,,,,,,,,,,,,,,,,,,,,,,0,0,0,0,0
3.5971,1783968097.2424,1,1,3.5000,-0.0000,1.42242,-0.00643,-2.63217,1.06780,1.57080,0.11675,-0.12763,-0.48149,0.03494,,,,,,,,,,,,,,,,,,,,,,,,,,0,0,0,0,0
3.6036,1783968097.2489,1,1,3.5000,-0.0000,1.42242,-0.00647,-2.63220,1.06785,1.57080,0.11675,-0.12763,-0.48147,0.03491,,,,,,,,,,,,,,,,,,,,,,,,,,0,0,0,0,0
3.6040,1783968097.2494,1,1,3.5000,-0.0000,1.42242,-0.00647,-2.63220,1.06785,1.57080,0.11675,-0.12763,-0.48147,0.03491,,,,,,,,,,,,,,,,,,,,,,,,,,0,0,0,0,0
3.6136,1783968097.2590,1,1,3.5000,-0.0000,1.42242,-0.00649,-2.63222,1.06787,1.57080,0.11675,-0.12763,-0.48146,0.03490,,,,,,,,,,,,,,,,,,,,,,,,,,0,0,0,0,0
3.6140,1783968097.2594,1,1,3.5000,-0.0000,1.42242,-0.00649,-2.63222,1.06787,1.57080,0.11675,-0.12763,-0.48146,0.03490,,,,,,,,,,,,,,,,,,,,,,,,,,0,0,0,0,0
3.6247,1783968097.2700,1,1,3.5000,-0.0000,1.42242,-0.00652,-2.63224,1.06791,1.57080,0.11675,-0.12763,-0.48146,0.03488,,,,,,,,,,,,,,,,,,,,,,,,,,0,0,0,0,0
3.6251,1783968097.2704,1,1,3.5000,-0.0000,1.42242,-0.00652,-2.63224,1.06791,1.57080,0.11675,-0.12763,-0.48146,0.03488,,,,,,,,,,,,,,,,,,,,,,,,,,0,0,0,0,0
3.6362,1783968097.2815,1,1,3.5000,-0.0000,1.42242,-0.00659,-2.63226,1.06800,1.57080,0.11675,-0.12763,-0.48145,0.03485,,,,,,,,,,,,,,,,,,,,,,,,,,0,0,0,0,0
3.6459,1783968097.2913,1,1,3.5000,-0.0000,1.42242,-0.00666,-2.63229,1.06807,1.57080,0.11675,-0.12763,-0.48144,0.03483,,,,,,,,,,,,,,,,,,,,,,,,,,0,0,0,0,0
3.7674,1783968097.4127,1,1,3.5000,-0.0000,1.42241,-0.00740,-2.63236,1.06898,1.57080,0.11675,-0.12762,-0.48151,0.03462,,,,,,,,,,,,,,,,,,,,,,,,,,0,0,0,0,0
3.7909,1783968097.4362,1,1,3.5000,-0.0000,1.42241,-0.00754,-2.63232,1.06916,1.57080,0.11675,-0.12761,-0.48156,0.03461,,,,,,,,,,,,,,,,,,,,,,,,,,0,0,0,0,0
3.7968,1783968097.4421,1,1,3.5000,-0.0000,1.42241,-0.00756,-2.63230,1.06918,1.57080,0.11675,-0.12761,-0.48158,0.03461,,,,,,,,,,,,,,,,,,,,,,,,,,0,0,0,0,0
3.8003,1783968097.4456,1,1,3.5000,-0.0000,1.42241,-0.00756,-2.63230,1.06918,1.57080,0.11675,-0.12761,-0.48158,0.03461,,,,,,,,,,,,,,,,,,,,,,,,,,0,0,0,0,0
3.8084,1783968097.4537,1,1,3.5000,-0.0000,1.42241,-0.00756,-2.63230,1.06918,1.57080,0.11675,-0.12761,-0.48158,0.03461,,,,,,,,,,,,,,,,,,,,,,,,,,0,0,0,0,0
3.8088,1783968097.4541,1,1,3.5000,-0.0000,1.42241,-0.00756,-2.63230,1.06918,1.57080,0.11675,-0.12761,-0.48158,0.03461,,,,,,,,,,,,,,,,,,,,,,,,,,0,0,0,0,0
3.8195,1783968097.4649,1,1,3.5000,-0.0000,1.42241,-0.00756,-2.63230,1.06918,1.57080,0.11675,-0.12761,-0.48158,0.03461,,,,,,,,,,,,,,,,,,,,,,,,,,0,0,0,0,0
3.8204,1783968097.4657,1,1,3.5000,-0.0000,1.42241,-0.00756,-2.63230,1.06918,1.57080,0.11675,-0.12761,-0.48158,0.03461,,,,,,,,,,,,,,,,,,,,,,,,,,0,0,0,0,0
3.8207,1783968097.4660,1,1,3.5000,-0.0000,1.42241,-0.00756,-2.63230,1.06918,1.57080,0.11675,-0.12761,-0.48158,0.03461,,,,,,,,,,,,,,,,,,,,,,,,,,0,0,0,0,0
3.8396,1783968097.4850,1,1,3.5000,-0.0000,1.42241,-0.00756,-2.63230,1.06918,1.57080,0.11675,-0.12761,-0.48158,0.03461,,,,,,,,,,,,,,,,,,,,,,,,,,0,0,0,0,0
3.8399,1783968097.4853,1,1,3.5000,-0.0000,1.42241,-0.00756,-2.63230,1.06918,1.57080,0.11675,-0.12761,-0.48158,0.03461,,,,,,,,,,,,,,,,,,,,,,,,,,0,0,0,0,0
3.8581,1783968097.5035,1,1,3.5000,-0.0000,1.42241,-0.00756,-2.63230,1.06918,1.57080,0.11675,-0.12761,-0.48158,0.03461,,,,,,,,,,,,,,,,,,,,,,,,,,0,0,0,0,0
3.8586,1783968097.5040,1,1,3.5000,-0.0000,1.42241,-0.00756,-2.63230,1.06918,1.57080,0.11675,-0.12761,-0.48158,0.03461,,,,,,,,,,,,,,,,,,,,,,,,,,0,0,0,0,0
3.8597,1783968097.5051,1,1,3.5000,-0.0000,1.42241,-0.00756,-2.63230,1.06918,1.57080,0.11675,-0.12761,-0.48158,0.03461,,,,,,,,,,,,,,,,,,,,,,,,,,0,0,0,0,0
3.8601,1783968097.5054,1,1,3.5000,-0.0000,1.42241,-0.00756,-2.63230,1.06918,1.57080,0.11675,-0.12761,-0.48158,0.03461,,,,,,,,,,,,,,,,,,,,,,,,,,0,0,0,0,0
3.8612,1783968097.5066,1,1,3.5000,-0.0000,1.42241,-0.00756,-2.63230,1.06918,1.57080,0.11675,-0.12761,-0.48158,0.03461,,,,,,,,,,,,,,,,,,,,,,,,,,0,0,0,0,0
3.8616,1783968097.5069,1,1,3.5000,-0.0000,1.42241,-0.00756,-2.63230,1.06918,1.57080,0.11675,-0.12761,-0.48158,0.03461,,,,,,,,,,,,,,,,,,,,,,,,,,0,0,0,0,0
3.9289,1783968097.5743,1,1,3.5000,-0.0000,1.42241,-0.00756,-2.63230,1.06918,1.57080,0.11675,-0.12761,-0.48158,0.03461,,,,,,,,,,,,,,,,,,,,,,,,,,0,0,0,0,0
3.9358,1783968097.5811,1,1,3.5000,-0.0000,1.42241,-0.00756,-2.63230,1.06918,1.57080,0.11675,-0.12761,-0.48158,0.03461,,,,,,,,,,,,,,,,,,,,,,,,,,0,0,0,0,0
3.9676,1783968097.6129,1,1,3.5000,-0.0000,1.42241,-0.00756,-2.63230,1.06918,1.57080,0.11675,-0.12761,-0.48158,0.03461,,,,,,,,,,,,,,,,,,,,,,,,,,0,0,0,0,0
3.9680,1783968097.6134,1,1,3.5000,-0.0000,1.42241,-0.00756,-2.63230,1.06918,1.57080,0.11675,-0.12761,-0.48158,0.03461,,,,,,,,,,,,,,,,,,,,,,,,,,0,0,0,0,0
3.9701,1783968097.6154,1,1,3.5000,-0.0000,1.42241,-0.00756,-2.63230,1.06918,1.57080,0.11675,-0.12761,-0.48158,0.03461,,,,,,,,,,,,,,,,,,,,,,,,,,0,0,0,0,0
3.9706,1783968097.6159,1,1,3.5000,-0.0000,1.42241,-0.00756,-2.63230,1.06918,1.57080,0.11675,-0.12761,-0.48158,0.03461,,,,,,,,,,,,,,,,,,,,,,,,,,0,0,0,0,0
3.9714,1783968097.6168,1,1,3.5000,-0.0000,1.42241,-0.00756,-2.63230,1.06918,1.57080,0.11675,-0.12761,-0.48158,0.03461,,,,,,,,,,,,,,,,,,,,,,,,,,0,0,0,0,0
3.9718,1783968097.6172,1,1,3.5000,-0.0000,1.42241,-0.00756,-2.63230,1.06918,1.57080,0.11675,-0.12761,-0.48158,0.03461,,,,,,,,,,,,,,,,,,,,,,,,,,0,0,0,0,0
3.9722,1783968097.6176,1,1,3.5000,-0.0000,1.42241,-0.00756,-2.63230,1.06918,1.57080,0.11675,-0.12761,-0.48158,0.03461,,,,,,,,,,,,,,,,,,,,,,,,,,0,0,0,0,0
3.9743,1783968097.6196,1,1,3.5000,-0.0000,1.42241,-0.00756,-2.63230,1.06918,1.57080,0.11675,-0.12761,-0.48158,0.03461,,,,,,,,,,,,,,,,,,,,,,,,,,0,0,0,0,0
3.9747,1783968097.6200,1,1,3.5000,-0.0000,1.42241,-0.00756,-2.63230,1.06918,1.57080,0.11675,-0.12761,-0.48158,0.03461,,,,,,,,,,,,,,,,,,,,,,,,,,0,0,0,0,0
3.9848,1783968097.6302,1,1,3.5000,-0.0000,1.42241,-0.00757,-2.63231,1.06919,1.57080,0.11675,-0.12761,-0.48157,0.03460,,,,,,,,,,,,,,,,,,,,,,,,,,0,0,0,0,0
3.9875,1783968097.6328,1,1,3.5000,-0.0000,1.42241,-0.00757,-2.63232,1.06920,1.57080,0.11675,-0.12761,-0.48157,0.03460,,,,,,,,,,,,,,,,,,,,,,,,,,0,0,0,0,0
3.9958,1783968097.6411,1,1,3.5000,-0.0000,1.42241,-0.00759,-2.63235,1.06922,1.57080,0.11675,-0.12762,-0.48155,0.03458,,,,,,,,,,,,,,,,,,,,,,,,,,0,0,0,0,0
4.0003,1783968097.6456,1,1,3.5000,-0.0000,1.42241,-0.00760,-2.63237,1.06924,1.57080,0.11675,-0.12762,-0.48154,0.03457,,,,,,,,,,,,,,,,,,,,,,,,,,0,0,0,0,0
4.0008,1783968097.6461,1,1,3.5000,-0.0000,1.42241,-0.00760,-2.63237,1.06924,1.57080,0.11675,-0.12762,-0.48154,0.03457,,,,,,,,,,,,,,,,,,,,,,,,,,0,0,0,0,0
4.0011,1783968097.6464,1,1,3.5000,-0.0000,1.42241,-0.00760,-2.63237,1.06924,1.57080,0.11675,-0.12762,-0.48154,0.03457,,,,,,,,,,,,,,,,,,,,,,,,,,0,0,0,0,0
4.0097,1783968097.6550,1,1,3.5000,-0.0000,1.42241,-0.00761,-2.63239,1.06925,1.57080,0.11675,-0.12762,-0.48153,0.03456,,,,,,,,,,,,,,,,,,,,,,,,,,0,0,0,0,0
4.0100,1783968097.6554,1,1,3.5000,-0.0000,1.42241,-0.00761,-2.63239,1.06925,1.57080,0.11675,-0.12762,-0.48153,0.03456,,,,,,,,,,,,,,,,,,,,,,,,,,0,0,0,0,0
4.0104,1783968097.6557,1,1,3.5000,-0.0000,1.42241,-0.00761,-2.63239,1.06925,1.57080,0.11675,-0.12762,-0.48153,0.03456,,,,,,,,,,,,,,,,,,,,,,,,,,0,0,0,0,0
4.0107,1783968097.6560,1,1,3.5000,-0.0000,1.42241,-0.00761,-2.63239,1.06925,1.57080,0.11675,-0.12762,-0.48153,0.03456,,,,,,,,,,,,,,,,,,,,,,,,,,0,0,0,0,0
4.0113,1783968097.6567,1,1,3.5000,-0.0000,1.42241,-0.00761,-2.63239,1.06925,1.57080,0.11675,-0.12762,-0.48152,0.03456,,,,,,,,,,,,,,,,,,,,,,,,,,0,0,0,0,0
4.0116,1783968097.6569,1,1,3.5000,-0.0000,1.42241,-0.00761,-2.63239,1.06925,1.57080,0.11675,-0.12762,-0.48152,0.03456,,,,,,,,,,,,,,,,,,,,,,,,,,0,0,0,0,0
4.0179,1783968097.6633,1,1,3.5000,-0.0000,1.42241,-0.00762,-2.63239,1.06926,1.57080,0.11675,-0.12762,-0.48152,0.03455,,,,,,,,,,,,,,,,,,,,,,,,,,0,0,0,0,0
4.0193,1783968097.6647,1,1,3.5000,-0.0000,1.42241,-0.00763,-2.63240,1.06927,1.57080,0.11675,-0.12762,-0.48151,0.03455,,,,,,,,,,,,,,,,,,,,,,,,,,0,0,0,0,0
4.0195,1783968097.6648,1,1,3.5000,-0.0000,1.42241,-0.00763,-2.63240,1.06927,1.57080,0.11675,-0.12762,-0.48151,0.03455,,,,,,,,,,,,,,,,,,,,,,,,,,0,0,0,0,0
4.0262,1783968097.6716,1,1,3.5000,-0.0000,1.42241,-0.00764,-2.63242,1.06929,1.57080,0.11675,-0.12762,-0.48151,0.03454,,,,,,,,,,,,,,,,,,,,,,,,,,0,0,0,0,0
4.0356,1783968097.6809,1,1,3.5000,-0.0000,1.42241,-0.00767,-2.63243,1.06931,1.57080,0.11675,-0.12762,-0.48150,0.03452,,,,,,,,,,,,,,,,,,,,,,,,,,0,0,0,0,0
4.0361,1783968097.6814,1,1,3.5000,-0.0000,1.42241,-0.00767,-2.63243,1.06931,1.57080,0.11675,-0.12762,-0.48150,0.03452,,,,,,,,,,,,,,,,,,,,,,,,,,0,0,0,0,0
4.0368,1783968097.6821,1,1,3.5000,-0.0000,1.42241,-0.00767,-2.63243,1.06931,1.57080,0.11675,-0.12762,-0.48150,0.03452,,,,,,,,,,,,,,,,,,,,,,,,,,0,0,0,0,0
4.0372,1783968097.6825,1,1,3.5000,-0.0000,1.42241,-0.00767,-2.63243,1.06931,1.57080,0.11675,-0.12762,-0.48150,0.03452,,,,,,,,,,,,,,,,,,,,,,,,,,0,0,0,0,0
4.0445,1783968097.6899,1,1,3.5000,-0.0000,1.42241,-0.00769,-2.63245,1.06935,1.57080,0.11675,-0.12762,-0.48149,0.03451,,,,,,,,,,,,,,,,,,,,,,,,,,0,0,0,0,0
4.0687,1783968097.7141,1,1,3.5000,-0.0000,1.42241,-0.00781,-2.63250,1.06948,1.57080,0.11675,-0.12763,-0.48147,0.03446,,,,,,,,,,,,,,,,,,,,,,,,,,0,0,0,0,0
4.0765,1783968097.7219,1,1,3.5000,-0.0000,1.42241,-0.00785,-2.63251,1.06953,1.57080,0.11675,-0.12763,-0.48147,0.03445,,,,,,,,,,,,,,,,,,,,,,,,,,0,0,0,0,0
4.0770,1783968097.7223,1,1,3.5000,-0.0000,1.42241,-0.00785,-2.63251,1.06953,1.57080,0.11675,-0.12763,-0.48147,0.03445,,,,,,,,,,,,,,,,,,,,,,,,,,0,0,0,0,0
4.0855,1783968097.7308,1,1,3.5000,-0.0000,1.42241,-0.00792,-2.63253,1.06961,1.57080,0.11675,-0.12763,-0.48147,0.03442,,,,,,,,,,,,,,,,,,,,,,,,,,0,0,0,0,0
4.1058,1783968097.7511,1,1,3.5000,-0.0000,1.42241,-0.00803,-2.63255,1.06975,1.57080,0.11675,-0.12763,-0.48146,0.03438,,,,,,,,,,,,,,,,,,,,,,,,,,0,0,0,0,0
4.1078,1783968097.7532,1,1,3.5000,-0.0000,1.42241,-0.00806,-2.63256,1.06978,1.57080,0.11675,-0.12763,-0.48147,0.03437,,,,,,,,,,,,,,,,,,,,,,,,,,0,0,0,0,0
4.1218,1783968097.7671,1,1,3.5000,-0.0000,1.42241,-0.00814,-2.63258,1.06988,1.57080,0.11675,-0.12763,-0.48147,0.03434,,,,,,,,,,,,,,,,,,,,,,,,,,0,0,0,0,0
4.1267,1783968097.7720,1,1,3.5000,-0.0000,1.42241,-0.00815,-2.63258,1.06988,1.57080,0.11675,-0.12763,-0.48147,0.03434,,,,,,,,,,,,,,,,,,,,,,,,,,0,0,0,0,0
4.1398,1783968097.7851,1,1,3.5000,-0.0000,1.42241,-0.00827,-2.63260,1.07004,1.57080,0.11675,-0.12763,-0.48147,0.03430,,,,,,,,,,,,,,,,,,,,,,,,,,0,0,0,0,0
4.1401,1783968097.7854,1,1,3.5000,-0.0000,1.42241,-0.00827,-2.63260,1.07004,1.57080,0.11675,-0.12763,-0.48147,0.03430,,,,,,,,,,,,,,,,,,,,,,,,,,0,0,0,0,0
4.1478,1783968097.7931,1,1,3.5000,-0.0000,1.42241,-0.00838,-2.63261,1.07016,1.57080,0.11675,-0.12763,-0.48148,0.03427,,,,,,,,,,,,,,,,,,,,,,,,,,0,0,0,0,0
4.1481,1783968097.7935,1,1,3.5000,-0.0000,1.42241,-0.00838,-2.63261,1.07016,1.57080,0.11675,-0.12763,-0.48148,0.03427,,,,,,,,,,,,,,,,,,,,,,,,,,0,0,0,0,0
4.1569,1783968097.8022,1,1,3.5000,-0.0000,1.42241,-0.00838,-2.63261,1.07017,1.57080,0.11675,-0.12763,-0.48148,0.03427,,,,,,,,,,,,,,,,,,,,,,,,,,0,0,0,0,0
4.1782,1783968097.8236,1,1,3.5000,-0.0000,1.42241,-0.00850,-2.63261,1.07032,1.57080,0.11675,-0.12762,-0.48150,0.03424,,,,,,,,,,,,,,,,,,,,,,,,,,0,0,0,0,0
4.1787,1783968097.8240,1,1,3.5000,-0.0000,1.42241,-0.00850,-2.63261,1.07032,1.57080,0.11675,-0.12762,-0.48150,0.03424,,,,,,,,,,,,,,,,,,,,,,,,,,0,0,0,0,0
4.1793,1783968097.8247,1,1,3.5000,-0.0000,1.42241,-0.00854,-2.63261,1.07036,1.57080,0.11675,-0.12762,-0.48150,0.03423,,,,,,,,,,,,,,,,,,,,,,,,,,0,0,0,0,0
4.1867,1783968097.8320,1,1,3.5000,-0.0000,1.42241,-0.00857,-2.63261,1.07041,1.57080,0.11675,-0.12762,-0.48151,0.03423,,,,,,,,,,,,,,,,,,,,,,,,,,0,0,0,0,0
4.2009,1783968097.8463,1,1,3.5000,-0.0000,1.42241,-0.00870,-2.63259,1.07057,1.57080,0.11675,-0.12761,-0.48155,0.03421,,,,,,,,,,,,,,,,,,,,,,,,,,0,0,0,0,0
4.2068,1783968097.8522,1,1,3.5000,-0.0000,1.42241,-0.00872,-2.63258,1.07060,1.57080,0.11675,-0.12761,-0.48156,0.03421,,,,,,,,,,,,,,,,,,,,,,,,,,0,0,0,0,0
4.2154,1783968097.8608,1,1,3.5000,-0.0000,1.42241,-0.00875,-2.63255,1.07062,1.57080,0.11675,-0.12761,-0.48158,0.03421,,,,,,,,,,,,,,,,,,,,,,,,,,0,0,0,0,0
4.2158,1783968097.8611,1,1,3.5000,-0.0000,1.42241,-0.00875,-2.63255,1.07062,1.57080,0.11675,-0.12761,-0.48158,0.03421,,,,,,,,,,,,,,,,,,,,,,,,,,0,0,0,0,0
4.2397,1783968097.8850,1,1,3.5000,-0.0000,1.42241,-0.00875,-2.63255,1.07062,1.57080,0.11675,-0.12761,-0.48158,0.03421,,,,,,,,,,,,,,,,,,,,,,,,,,0,0,0,0,0
4.2400,1783968097.8854,1,1,3.5000,-0.0000,1.42241,-0.00875,-2.63255,1.07062,1.57080,0.11675,-0.12761,-0.48158,0.03421,,,,,,,,,,,,,,,,,,,,,,,,,,0,0,0,0,0
4.2494,1783968097.8948,1,1,3.5000,-0.0000,1.42241,-0.00875,-2.63255,1.07062,1.57080,0.11675,-0.12761,-0.48158,0.03421,,,,,,,,,,,,,,,,,,,,,,,,,,0,0,0,0,0
4.2498,1783968097.8951,1,1,3.5000,-0.0000,1.42241,-0.00875,-2.63255,1.07062,1.57080,0.11675,-0.12761,-0.48158,0.03421,,,,,,,,,,,,,,,,,,,,,,,,,,0,0,0,0,0
4.2586,1783968097.9039,1,1,3.5000,-0.0000,1.42241,-0.00875,-2.63255,1.07062,1.57080,0.11675,-0.12761,-0.48158,0.03421,,,,,,,,,,,,,,,,,,,,,,,,,,0,0,0,0,0
4.2839,1783968097.9293,1,1,3.5000,-0.0000,1.42241,-0.00875,-2.63255,1.07062,1.57080,0.11675,-0.12761,-0.48158,0.03421,,,,,,,,,,,,,,,,,,,,,,,,,,0,0,0,0,0
4.2915,1783968097.9368,1,1,3.5000,-0.0000,1.42241,-0.00875,-2.63255,1.07062,1.57080,0.11675,-0.12761,-0.48158,0.03421,,,,,,,,,,,,,,,,,,,,,,,,,,0,0,0,0,0
4.2984,1783968097.9437,1,1,3.5000,-0.0000,1.42241,-0.00875,-2.63255,1.07062,1.57080,0.11675,-0.12761,-0.48158,0.03421,,,,,,,,,,,,,,,,,,,,,,,,,,0,0,0,0,0
4.3091,1783968097.9545,1,1,3.5000,-0.0000,1.42241,-0.00875,-2.63255,1.07062,1.57080,0.11675,-0.12761,-0.48158,0.03421,,,,,,,,,,,,,,,,,,,,,,,,,,0,0,0,0,0
4.3098,1783968097.9552,1,1,3.5000,-0.0000,1.42241,-0.00875,-2.63255,1.07062,1.57080,0.11675,-0.12761,-0.48158,0.03421,,,,,,,,,,,,,,,,,,,,,,,,,,0,0,0,0,0
4.3101,1783968097.9555,1,1,3.5000,-0.0000,1.42241,-0.00875,-2.63255,1.07062,1.57080,0.11675,-0.12761,-0.48158,0.03421,,,,,,,,,,,,,,,,,,,,,,,,,,0,0,0,0,0
4.3136,1783968097.9589,1,1,3.5000,-0.0000,1.42241,-0.00875,-2.63255,1.07062,1.57080,0.11675,-0.12761,-0.48158,0.03421,,,,,,,,,,,,,,,,,,,,,,,,,,0,0,0,0,0
4.3140,1783968097.9593,1,1,3.5000,-0.0000,1.42241,-0.00875,-2.63255,1.07062,1.57080,0.11675,-0.12761,-0.48158,0.03421,,,,,,,,,,,,,,,,,,,,,,,,,,0,0,0,0,0
4.3315,1783968097.9769,1,1,3.5000,-0.0000,1.42241,-0.00875,-2.63255,1.07062,1.57080,0.11675,-0.12761,-0.48158,0.03421,,,,,,,,,,,,,,,,,,,,,,,,,,0,0,0,0,0
4.3364,1783968097.9818,1,1,3.5000,-0.0000,1.42241,-0.00875,-2.63255,1.07062,1.57080,0.11675,-0.12761,-0.48158,0.03421,,,,,,,,,,,,,,,,,,,,,,,,,,0,0,0,0,0
4.3436,1783968097.9890,1,1,3.5000,-0.0000,1.42241,-0.00875,-2.63255,1.07062,1.57080,0.11675,-0.12761,-0.48158,0.03421,,,,,,,,,,,,,,,,,,,,,,,,,,0,0,0,0,0
4.3440,1783968097.9893,1,1,3.5000,-0.0000,1.42241,-0.00875,-2.63255,1.07062,1.57080,0.11675,-0.12761,-0.48158,0.03421,,,,,,,,,,,,,,,,,,,,,,,,,,0,0,0,0,0
4.3571,1783968098.0025,1,1,3.5000,-0.0000,1.42241,-0.00875,-2.63255,1.07062,1.57080,0.11675,-0.12761,-0.48158,0.03421,,,,,,,,,,,,,,,,,,,,,,,,,,0,0,0,0,0
4.3706,1783968098.0159,1,1,3.5000,-0.0000,1.42241,-0.00875,-2.63255,1.07062,1.57080,0.11675,-0.12761,-0.48158,0.03421,,,,,,,,,,,,,,,,,,,,,,,,,,0,0,0,0,0
4.3787,1783968098.0241,1,1,3.5000,-0.0000,1.42241,-0.00875,-2.63255,1.07062,1.57080,0.11675,-0.12761,-0.48158,0.03421,,,,,,,,,,,,,,,,,,,,,,,,,,0,0,0,0,0
4.3791,1783968098.0244,1,1,3.5000,-0.0000,1.42241,-0.00875,-2.63255,1.07062,1.57080,0.11675,-0.12761,-0.48158,0.03421,,,,,,,,,,,,,,,,,,,,,,,,,,0,0,0,0,0
4.3881,1783968098.0334,1,1,3.5000,-0.0000,1.42241,-0.00875,-2.63255,1.07062,1.57080,0.11675,-0.12761,-0.48158,0.03421,,,,,,,,,,,,,,,,,,,,,,,,,,0,0,0,0,0
4.3940,1783968098.0393,1,1,3.5000,-0.0000,1.42241,-0.00875,-2.63255,1.07062,1.57080,0.11675,-0.12761,-0.48158,0.03421,,,,,,,,,,,,,,,,,,,,,,,,,,0,0,0,0,0
4.3943,1783968098.0396,1,1,3.5000,-0.0000,1.42241,-0.00875,-2.63255,1.07062,1.57080,0.11675,-0.12761,-0.48158,0.03421,,,,,,,,,,,,,,,,,,,,,,,,,,0,0,0,0,0
4.4104,1783968098.0558,1,1,3.5000,-0.0000,1.42241,-0.00875,-2.63257,1.07064,1.57080,0.11675,-0.12761,-0.48157,0.03420,,,,,,,,,,,,,,,,,,,,,,,,,,0,0,0,0,0
4.4165,1783968098.0618,1,1,3.5000,-0.0000,1.42241,-0.00876,-2.63260,1.07065,1.57081,0.11675,-0.12761,-0.48155,0.03419,,,,,,,,,,,,,,,,,,,,,,,,,,0,0,0,0,0
4.4169,1783968098.0622,1,1,3.5000,-0.0000,1.42241,-0.00876,-2.63260,1.07065,1.57081,0.11675,-0.12761,-0.48155,0.03419,,,,,,,,,,,,,,,,,,,,,,,,,,0,0,0,0,0
4.4278,1783968098.0731,1,1,3.5000,-0.0000,1.42241,-0.00878,-2.63263,1.07067,1.57081,0.11675,-0.12762,-0.48153,0.03417,,,,,,,,,,,,,,,,,,,,,,,,,,0,0,0,0,0
4.4357,1783968098.0811,1,1,3.5000,-0.0000,1.42241,-0.00879,-2.63264,1.07068,1.57081,0.11675,-0.12762,-0.48153,0.03417,,,,,,,,,,,,,,,,,,,,,,,,,,0,0,0,0,0
4.4445,1783968098.0898,1,1,3.5000,-0.0000,1.42241,-0.00881,-2.63266,1.07071,1.57081,0.11675,-0.12762,-0.48151,0.03415,,,,,,,,,,,,,,,,,,,,,,,,,,0,0,0,0,0
4.4538,1783968098.0991,1,1,3.5000,-0.0000,1.42241,-0.00882,-2.63268,1.07072,1.57081,0.11675,-0.12762,-0.48150,0.03414,,,,,,,,,,,,,,,,,,,,,,,,,,0,0,0,0,0
4.4542,1783968098.0995,1,1,3.5000,-0.0000,1.42241,-0.00882,-2.63268,1.07072,1.57081,0.11675,-0.12762,-0.48150,0.03414,,,,,,,,,,,,,,,,,,,,,,,,,,0,0,0,0,0
4.4646,1783968098.1099,1,1,3.5000,-0.0000,1.42241,-0.00885,-2.63270,1.07076,1.57081,0.11675,-0.12762,-0.48149,0.03412,,,,,,,,,,,,,,,,,,,,,,,,,,0,0,0,0,0
4.4772,1783968098.1225,1,1,3.5000,-0.0000,1.42241,-0.00893,-2.63274,1.07085,1.57081,0.11675,-0.12762,-0.48147,0.03408,,,,,,,,,,,,,,,,,,,,,,,,,,0,0,0,0,0
4.4857,1783968098.1311,1,1,3.5000,-0.0000,1.42241,-0.00896,-2.63276,1.07089,1.57081,0.11675,-0.12763,-0.48146,0.03407,,,,,,,,,,,,,,,,,,,,,,,,,,0,0,0,0,0
4.4954,1783968098.1408,1,1,3.5000,-0.0000,1.42241,-0.00901,-2.63277,1.07094,1.57081,0.11675,-0.12763,-0.48146,0.03405,,,,,,,,,,,,,,,,,,,,,,,,,,0,0,0,0,0
4.5085,1783968098.1539,1,1,3.5000,-0.0000,1.42241,-0.00911,-2.63280,1.07107,1.57081,0.11675,-0.12763,-0.48146,0.03401,,,,,,,,,,,,,,,,,,,,,,,,,,0,0,0,0,0
4.5175,1783968098.1629,1,1,3.5000,-0.0000,1.42241,-0.00916,-2.63281,1.07112,1.57081,0.11675,-0.12763,-0.48146,0.03399,,,,,,,,,,,,,,,,,,,,,,,,,,0,0,0,0,0
4.5276,1783968098.1729,1,1,3.5000,-0.0000,1.42241,-0.00921,-2.63282,1.07118,1.57081,0.11675,-0.12763,-0.48146,0.03398,,,,,,,,,,,,,,,,,,,,,,,,,,0,0,0,0,0
4.5279,1783968098.1733,1,1,3.5000,-0.0000,1.42241,-0.00921,-2.63282,1.07118,1.57081,0.11675,-0.12763,-0.48146,0.03398,,,,,,,,,,,,,,,,,,,,,,,,,,0,0,0,0,0
4.5413,1783968098.1866,1,1,3.5000,-0.0000,1.42241,-0.00929,-2.63284,1.07128,1.57081,0.11675,-0.12763,-0.48146,0.03395,,,,,,,,,,,,,,,,,,,,,,,,,,0,0,0,0,0
4.5576,1783968098.2029,1,1,3.5000,-0.0000,1.42241,-0.00938,-2.63285,1.07138,1.57081,0.11675,-0.12763,-0.48146,0.03392,,,,,,,,,,,,,,,,,,,,,,,,,,0,0,0,0,0
4.5579,1783968098.2032,1,1,3.5000,-0.0000,1.42241,-0.00938,-2.63285,1.07138,1.57081,0.11675,-0.12763,-0.48146,0.03392,,,,,,,,,,,,,,,,,,,,,,,,,,0,0,0,0,0
4.5761,1783968098.2214,1,1,3.5000,-0.0000,1.42241,-0.00958,-2.63289,1.07163,1.57081,0.11675,-0.12762,-0.48147,0.03386,,,,,,,,,,,,,,,,,,,,,,,,,,0,0,0,0,0
4.5891,1783968098.2344,1,1,3.5000,-0.0000,1.42241,-0.00962,-2.63289,1.07167,1.57081,0.11675,-0.12762,-0.48147,0.03385,,,,,,,,,,,,,,,,,,,,,,,,,,0,0,0,0,0
4.5919,1783968098.2372,1,1,3.5000,-0.0000,1.42241,-0.00964,-2.63289,1.07169,1.57081,0.11675,-0.12762,-0.48148,0.03385,,,,,,,,,,,,,,,,,,,,,,,,,,0,0,0,0,0
4.5983,1783968098.2436,1,1,3.5000,-0.0000,1.42241,-0.00967,-2.63288,1.07173,1.57081,0.11675,-0.12762,-0.48148,0.03384,,,,,,,,,,,,,,,,,,,,,,,,,,0,0,0,0,0
4.5987,1783968098.2440,1,1,3.5000,-0.0000,1.42241,-0.00967,-2.63288,1.07173,1.57081,0.11675,-0.12762,-0.48148,0.03384,,,,,,,,,,,,,,,,,,,,,,,,,,0,0,0,0,0
4.6011,1783968098.2464,1,1,3.5000,-0.0000,1.42241,-0.00970,-2.63288,1.07176,1.57081,0.11675,-0.12762,-0.48149,0.03383,,,,,,,,,,,,,,,,,,,,,,,,,,0,0,0,0,0
4.6015,1783968098.2469,1,1,3.5000,-0.0000,1.42241,-0.00970,-2.63288,1.07176,1.57081,0.11675,-0.12762,-0.48149,0.03383,,,,,,,,,,,,,,,,,,,,,,,,,,0,0,0,0,0
4.6196,1783968098.2650,1,1,3.5000,-0.0000,1.42241,-0.00986,-2.63286,1.07196,1.57081,0.11675,-0.12761,-0.48153,0.03380,,,,,,,,,,,,,,,,,,,,,,,,,,0,0,0,0,0
4.6283,1783968098.2736,1,1,3.5000,-0.0000,1.42241,-0.00990,-2.63284,1.07202,1.57081,0.11675,-0.12761,-0.48155,0.03380,,,,,,,,,,,,,,,,,,,,,,,,,,0,0,0,0,0
4.6358,1783968098.2811,1,1,3.5000,-0.0000,1.42241,-0.00993,-2.63282,1.07206,1.57081,0.11675,-0.12761,-0.48157,0.03381,,,,,,,,,,,,,,,,,,,,,,,,,,0,0,0,0,0
4.6361,1783968098.2814,1,1,3.5000,-0.0000,1.42241,-0.00993,-2.63282,1.07206,1.57081,0.11675,-0.12761,-0.48157,0.03381,,,,,,,,,,,,,,,,,,,,,,,,,,0,0,0,0,0
4.6405,1783968098.2858,1,1,3.5000,-0.0000,1.42241,-0.00993,-2.63282,1.07206,1.57081,0.11675,-0.12761,-0.48157,0.03381,,,,,,,,,,,,,,,,,,,,,,,,,,0,0,0,0,0
4.6487,1783968098.2941,1,1,3.5000,-0.0000,1.42241,-0.00993,-2.63282,1.07206,1.57081,0.11675,-0.12761,-0.48157,0.03381,,,,,,,,,,,,,,,,,,,,,,,,,,0,0,0,0,0
4.6490,1783968098.2944,1,1,3.5000,-0.0000,1.42241,-0.00993,-2.63282,1.07206,1.57081,0.11675,-0.12761,-0.48157,0.03381,,,,,,,,,,,,,,,,,,,,,,,,,,0,0,0,0,0
4.6540,1783968098.2994,1,1,3.5000,-0.0000,1.42241,-0.00993,-2.63282,1.07206,1.57081,0.11675,-0.12761,-0.48157,0.03381,,,,,,,,,,,,,,,,,,,,,,,,,,0,0,0,0,0
4.6685,1783968098.3138,1,1,3.5000,-0.0000,1.42241,-0.00993,-2.63282,1.07206,1.57081,0.11675,-0.12761,-0.48157,0.03381,,,,,,,,,,,,,,,,,,,,,,,,,,0,0,0,0,0
4.6783,1783968098.3236,1,1,3.5000,-0.0000,1.42241,-0.00993,-2.63282,1.07206,1.57081,0.11675,-0.12761,-0.48157,0.03381,,,,,,,,,,,,,,,,,,,,,,,,,,0,0,0,0,0
4.6851,1783968098.3304,1,1,3.5000,-0.0000,1.42241,-0.00993,-2.63282,1.07206,1.57081,0.11675,-0.12761,-0.48157,0.03381,,,,,,,,,,,,,,,,,,,,,,,,,,0,0,0,0,0
4.7009,1783968098.3462,1,1,3.5000,-0.0000,1.42241,-0.00993,-2.63282,1.07206,1.57081,0.11675,-0.12761,-0.48157,0.03381,,,,,,,,,,,,,,,,,,,,,,,,,,0,0,0,0,0
4.7075,1783968098.3529,1,1,3.5000,-0.0000,1.42241,-0.00993,-2.63282,1.07206,1.57081,0.11675,-0.12761,-0.48157,0.03381,,,,,,,,,,,,,,,,,,,,,,,,,,0,0,0,0,0
4.7189,1783968098.3642,1,1,3.5000,-0.0000,1.42241,-0.00993,-2.63282,1.07206,1.57081,0.11675,-0.12761,-0.48157,0.03381,,,,,,,,,,,,,,,,,,,,,,,,,,0,0,0,0,0
4.7249,1783968098.3702,1,1,3.5000,-0.0000,1.42241,-0.00993,-2.63282,1.07206,1.57081,0.11675,-0.12761,-0.48157,0.03381,,,,,,,,,,,,,,,,,,,,,,,,,,0,0,0,0,0
4.7365,1783968098.3819,1,1,3.5000,-0.0000,1.42241,-0.00993,-2.63282,1.07206,1.57081,0.11675,-0.12761,-0.48157,0.03381,,,,,,,,,,,,,,,,,,,,,,,,,,0,0,0,0,0
4.7453,1783968098.3907,1,1,3.5000,-0.0000,1.42241,-0.00993,-2.63282,1.07206,1.57081,0.11675,-0.12761,-0.48157,0.03381,,,,,,,,,,,,,,,,,,,,,,,,,,0,0,0,0,0
4.7457,1783968098.3910,1,1,3.5000,-0.0000,1.42241,-0.00993,-2.63282,1.07206,1.57081,0.11675,-0.12761,-0.48157,0.03381,,,,,,,,,,,,,,,,,,,,,,,,,,0,0,0,0,0
4.7557,1783968098.4010,1,1,3.5000,-0.0000,1.42241,-0.00993,-2.63282,1.07206,1.57081,0.11675,-0.12761,-0.48157,0.03381,,,,,,,,,,,,,,,,,,,,,,,,,,0,0,0,0,0
4.7717,1783968098.4170,1,1,3.5000,-0.0000,1.42241,-0.00993,-2.63282,1.07206,1.57081,0.11675,-0.12761,-0.48157,0.03381,,,,,,,,,,,,,,,,,,,,,,,,,,0,0,0,0,0
4.7721,1783968098.4174,1,1,3.5000,-0.0000,1.42241,-0.00993,-2.63282,1.07206,1.57081,0.11675,-0.12761,-0.48157,0.03381,,,,,,,,,,,,,,,,,,,,,,,,,,0,0,0,0,0
4.7783,1783968098.4237,1,1,3.5000,-0.0000,1.42241,-0.00993,-2.63282,1.07206,1.57081,0.11675,-0.12761,-0.48157,0.03381,,,,,,,,,,,,,,,,,,,,,,,,,,0,0,0,0,0
4.7789,1783968098.4243,1,1,3.5000,-0.0000,1.42241,-0.00993,-2.63282,1.07206,1.57081,0.11675,-0.12761,-0.48157,0.03381,,,,,,,,,,,,,,,,,,,,,,,,,,0,0,0,0,0
4.7859,1783968098.4312,1,1,3.5000,-0.0000,1.42241,-0.00993,-2.63282,1.07206,1.57081,0.11675,-0.12761,-0.48157,0.03381,,,,,,,,,,,,,,,,,,,,,,,,,,0,0,0,0,0
4.7940,1783968098.4394,1,1,3.5000,-0.0000,1.42241,-0.00993,-2.63282,1.07206,1.57081,0.11675,-0.12761,-0.48157,0.03381,,,,,,,,,,,,,,,,,,,,,,,,,,0,0,0,0,0
4.8045,1783968098.4498,1,1,3.5000,-0.0000,1.42241,-0.00993,-2.63282,1.07206,1.57081,0.11675,-0.12761,-0.48157,0.03381,,,,,,,,,,,,,,,,,,,,,,,,,,0,0,0,0,0
4.8200,1783968098.4654,1,1,3.5000,-0.0000,1.42241,-0.00993,-2.63282,1.07206,1.57081,0.11675,-0.12761,-0.48157,0.03380,,,,,,,,,,,,,,,,,,,,,,,,,,0,0,0,0,0
4.8399,1783968098.4852,1,1,3.5000,-0.0000,1.42241,-0.00994,-2.63286,1.07208,1.57081,0.11675,-0.12761,-0.48155,0.03379,,,,,,,,,,,,,,,,,,,,,,,,,,0,0,0,0,0
4.8401,1783968098.4854,1,1,3.5000,-0.0000,1.42241,-0.00994,-2.63286,1.07208,1.57081,0.11675,-0.12761,-0.48155,0.03379,,,,,,,,,,,,,,,,,,,,,,,,,,0,0,0,0,0
4.8404,1783968098.4857,1,1,3.5000,-0.0000,1.42241,-0.00994,-2.63286,1.07208,1.57081,0.11675,-0.12761,-0.48155,0.03379,,,,,,,,,,,,,,,,,,,,,,,,,,0,0,0,0,0
4.8407,1783968098.4860,1,1,3.5000,-0.0000,1.42241,-0.00994,-2.63286,1.07208,1.57081,0.11675,-0.12761,-0.48155,0.03379,,,,,,,,,,,,,,,,,,,,,,,,,,0,0,0,0,0
4.8409,1783968098.4862,1,1,3.5000,-0.0000,1.42241,-0.00994,-2.63286,1.07208,1.57081,0.11675,-0.12761,-0.48155,0.03379,,,,,,,,,,,,,,,,,,,,,,,,,,0,0,0,0,0
4.8487,1783968098.4941,1,1,3.5000,-0.0000,1.42241,-0.00995,-2.63287,1.07209,1.57081,0.11675,-0.12761,-0.48154,0.03378,,,,,,,,,,,,,,,,,,,,,,,,,,0,0,0,0,0
4.8542,1783968098.4995,1,1,3.5000,-0.0000,1.42241,-0.00995,-2.63287,1.07209,1.57081,0.11675,-0.12761,-0.48154,0.03378,,,,,,,,,,,,,,,,,,,,,,,,,,0,0,0,0,0
4.8545,1783968098.4999,1,1,3.5000,-0.0000,1.42241,-0.00995,-2.63287,1.07209,1.57081,0.11675,-0.12761,-0.48154,0.03378,,,,,,,,,,,,,,,,,,,,,,,,,,0,0,0,0,0
4.8639,1783968098.5092,1,1,3.5000,-0.0000,1.42241,-0.00999,-2.63291,1.07213,1.57081,0.11675,-0.12762,-0.48152,0.03375,,,,,,,,,,,,,,,,,,,,,,,,,,0,0,0,0,0
4.8641,1783968098.5094,1,1,3.5000,-0.0000,1.42241,-0.00999,-2.63291,1.07213,1.57081,0.11675,-0.12762,-0.48152,0.03375,,,,,,,,,,,,,,,,,,,,,,,,,,0,0,0,0,0
4.8808,1783968098.5261,1,1,3.5000,-0.0000,1.42241,-0.01003,-2.63296,1.07218,1.57081,0.11675,-0.12762,-0.48149,0.03372,,,,,,,,,,,,,,,,,,,,,,,,,,0,0,0,0,0
4.8811,1783968098.5264,1,1,3.5000,-0.0000,1.42241,-0.01003,-2.63296,1.07218,1.57081,0.11675,-0.12762,-0.48149,0.03372,,,,,,,,,,,,,,,,,,,,,,,,,,0,0,0,0,0
4.8896,1783968098.5349,1,1,3.5000,-0.0000,1.42241,-0.01005,-2.63297,1.07221,1.57081,0.11675,-0.12762,-0.48148,0.03371,,,,,,,,,,,,,,,,,,,,,,,,,,0,0,0,0,0
4.8957,1783968098.5411,1,1,3.5000,-0.0000,1.42240,-0.01009,-2.63300,1.07226,1.57081,0.11675,-0.12762,-0.48147,0.03369,,,,,,,,,,,,,,,,,,,,,,,,,,0,0,0,0,0
4.8960,1783968098.5414,1,1,3.5000,-0.0000,1.42240,-0.01009,-2.63300,1.07226,1.57081,0.11675,-0.12762,-0.48147,0.03369,,,,,,,,,,,,,,,,,,,,,,,,,,0,0,0,0,0
4.9056,1783968098.5510,1,1,3.5000,-0.0000,1.42240,-0.01010,-2.63300,1.07226,1.57081,0.11675,-0.12762,-0.48147,0.03369,,,,,,,,,,,,,,,,,,,,,,,,,,0,0,0,0,0
4.9059,1783968098.5513,1,1,3.5000,-0.0000,1.42240,-0.01010,-2.63300,1.07226,1.57081,0.11675,-0.12762,-0.48147,0.03369,,,,,,,,,,,,,,,,,,,,,,,,,,0,0,0,0,0
4.9168,1783968098.5621,1,1,3.5000,-0.0000,1.42240,-0.01016,-2.63302,1.07234,1.57081,0.11675,-0.12762,-0.48146,0.03366,,,,,,,,,,,,,,,,,,,,,,,,,,0,0,0,0,0
4.9172,1783968098.5625,1,1,3.5000,-0.0000,1.42240,-0.01016,-2.63302,1.07234,1.57081,0.11675,-0.12762,-0.48146,0.03366,,,,,,,,,,,,,,,,,,,,,,,,,,0,0,0,0,0
4.9265,1783968098.5718,1,1,3.5000,-0.0000,1.42240,-0.01024,-2.63304,1.07244,1.57081,0.11675,-0.12762,-0.48146,0.03363,,,,,,,,,,,,,,,,,,,,,,,,,,0,0,0,0,0
4.9396,1783968098.5850,1,1,3.5000,-0.0000,1.42240,-0.01031,-2.63306,1.07252,1.57081,0.11675,-0.12762,-0.48145,0.03361,,,,,,,,,,,,,,,,,,,,,,,,,,0,0,0,0,0
4.9453,1783968098.5907,1,1,3.5000,-0.0000,1.42240,-0.01034,-2.63307,1.07255,1.57081,0.11675,-0.12762,-0.48145,0.03360,,,,,,,,,,,,,,,,,,,,,,,,,,0,0,0,0,0
4.9458,1783968098.5911,1,1,3.5000,-0.0000,1.42240,-0.01034,-2.63307,1.07255,1.57081,0.11675,-0.12762,-0.48145,0.03360,,,,,,,,,,,,,,,,,,,,,,,,,,0,0,0,0,0
4.9582,1783968098.6035,1,1,3.5000,-0.0000,1.42240,-0.01047,-2.63309,1.07270,1.57081,0.11675,-0.12762,-0.48145,0.03355,,,,,,,,,,,,,,,,,,,,,,,,,,0,0,0,0,0
4.9677,1783968098.6130,1,1,3.5000,-0.0000,1.42240,-0.01057,-2.63311,1.07283,1.57081,0.11675,-0.12762,-0.48146,0.03352,,,,,,,,,,,,,,,,,,,,,,,,,,0,0,0,0,0
4.9901,1783968098.6355,1,1,3.5000,-0.0000,1.42240,-0.01068,-2.63313,1.07295,1.57081,0.11675,-0.12762,-0.48146,0.03348,,,,,,,,,,,,,,,,,,,,,,,,,,0,0,0,0,0
4.9983,1783968098.6437,1,1,3.5000,-0.0000,1.42240,-0.01076,-2.63314,1.07305,1.57081,0.11675,-0.12762,-0.48146,0.03346,,,,,,,,,,,,,,,,,,,,,,,,,,0,0,0,0,0
5.0067,1783968098.6521,1,1,3.5000,-0.0000,1.42240,-0.01085,-2.63316,1.07316,1.57081,0.11675,-0.12762,-0.48147,0.03343,,,,,,,,,,,,,,,,,,,,,,,,,,0,0,0,0,0
5.0145,1783968098.6598,1,1,3.5000,-0.0000,1.42240,-0.01094,-2.63317,1.07326,1.57081,0.11675,-0.12762,-0.48147,0.03341,,,,,,,,,,,,,,,,,,,,,,,,,,0,0,0,0,0
5.0250,1783968098.6704,1,1,3.5000,-0.0000,1.42240,-0.01104,-2.63318,1.07340,1.57081,0.11675,-0.12762,-0.48148,0.03337,,,,,,,,,,,,,,,,,,,,,,,,,,0,0,0,0,0
5.0349,1783968098.6802,1,1,3.5000,-0.0000,1.42240,-0.01107,-2.63319,1.07343,1.57081,0.11675,-0.12762,-0.48148,0.03337,,,,,,,,,,,,,,,,,,,,,,,,,,0,0,0,0,0
5.0477,1783968098.6931,1,1,3.5000,-0.0000,1.42240,-0.01107,-2.63319,1.07343,1.57081,0.11675,-0.12762,-0.48148,0.03337,,,,,,,,,,,,,,,,,,,,,,,,,,0,0,0,0,0
5.0600,1783968098.7053,1,1,3.5000,-0.0000,1.42240,-0.01107,-2.63319,1.07343,1.57081,0.11675,-0.12762,-0.48148,0.03337,,,,,,,,,,,,,,,,,,,,,,,,,,0,0,0,0,0
5.0686,1783968098.7139,1,1,3.5000,-0.0000,1.42240,-0.01107,-2.63319,1.07343,1.57081,0.11675,-0.12762,-0.48148,0.03337,,,,,,,,,,,,,,,,,,,,,,,,,,0,0,0,0,0
5.0767,1783968098.7220,1,1,3.5000,-0.0000,1.42240,-0.01107,-2.63319,1.07343,1.57081,0.11675,-0.12762,-0.48148,0.03337,,,,,,,,,,,,,,,,,,,,,,,,,,0,0,0,0,0
5.0850,1783968098.7303,1,1,3.5000,-0.0000,1.42240,-0.01107,-2.63319,1.07343,1.57081,0.11675,-0.12762,-0.48148,0.03337,,,,,,,,,,,,,,,,,,,,,,,,,,0,0,0,0,0
5.0853,1783968098.7306,1,1,3.5000,-0.0000,1.42240,-0.01107,-2.63319,1.07343,1.57081,0.11675,-0.12762,-0.48148,0.03337,,,,,,,,,,,,,,,,,,,,,,,,,,0,0,0,0,0
5.0972,1783968098.7426,1,1,3.5000,-0.0000,1.42240,-0.01107,-2.63319,1.07343,1.57081,0.11675,-0.12762,-0.48148,0.03337,,,,,,,,,,,,,,,,,,,,,,,,,,0,0,0,0,0
5.1415,1783968098.7868,1,1,3.5000,-0.0000,1.42240,-0.01107,-2.63319,1.07343,1.57081,0.11675,-0.12762,-0.48148,0.03337,,,,,,,,,,,,,,,,,,,,,,,,,,0,0,0,0,0
5.1509,1783968098.7962,1,1,3.5000,-0.0000,1.42240,-0.01107,-2.63319,1.07343,1.57081,0.11675,-0.12762,-0.48148,0.03337,,,,,,,,,,,,,,,,,,,,,,,,,,0,0,0,0,0
5.1557,1783968098.8010,1,1,3.5000,-0.0000,1.42240,-0.01107,-2.63319,1.07343,1.57081,0.11675,-0.12762,-0.48148,0.03337,,,,,,,,,,,,,,,,,,,,,,,,,,0,0,0,0,0
5.1562,1783968098.8016,1,1,3.5000,-0.0000,1.42240,-0.01107,-2.63319,1.07343,1.57081,0.11675,-0.12762,-0.48148,0.03337,,,,,,,,,,,,,,,,,,,,,,,,,,0,0,0,0,0
5.1611,1783968098.8064,1,1,3.5000,-0.0000,1.42240,-0.01107,-2.63319,1.07343,1.57081,0.11675,-0.12762,-0.48148,0.03337,,,,,,,,,,,,,,,,,,,,,,,,,,0,0,0,0,0
5.1613,1783968098.8066,1,1,3.5000,-0.0000,1.42240,-0.01107,-2.63319,1.07343,1.57081,0.11675,-0.12762,-0.48148,0.03337,,,,,,,,,,,,,,,,,,,,,,,,,,0,0,0,0,0
5.1618,1783968098.8071,1,1,3.5000,-0.0000,1.42240,-0.01107,-2.63319,1.07343,1.57081,0.11675,-0.12762,-0.48148,0.03337,,,,,,,,,,,,,,,,,,,,,,,,,,0,0,0,0,0
5.1620,1783968098.8074,1,1,3.5000,-0.0000,1.42240,-0.01107,-2.63319,1.07343,1.57081,0.11675,-0.12762,-0.48148,0.03337,,,,,,,,,,,,,,,,,,,,,,,,,,0,0,0,0,0
5.1668,1783968098.8122,1,1,3.5000,-0.0000,1.42240,-0.01107,-2.63319,1.07343,1.57081,0.11675,-0.12762,-0.48148,0.03337,,,,,,,,,,,,,,,,,,,,,,,,,,0,0,0,0,0
5.1671,1783968098.8125,1,1,3.5000,-0.0000,1.42240,-0.01107,-2.63319,1.07343,1.57081,0.11675,-0.12762,-0.48148,0.03337,,,,,,,,,,,,,,,,,,,,,,,,,,0,0,0,0,0
5.1800,1783968098.8253,1,1,3.5000,-0.0000,1.42240,-0.01107,-2.63319,1.07343,1.57081,0.11675,-0.12762,-0.48148,0.03337,,,,,,,,,,,,,,,,,,,,,,,,,,0,0,0,0,0
