Martins-Lucaas/twinforge/sensors/Data/celula de carga/20260713_123404__samples.csv
t_rel_s,t_unix,cycle,phase,setpoint_n,force_net_n,q1,q2,q3,q4,q5,q6,tcp_x,tcp_y,tcp_z,taxel_0,taxel_1,taxel_2,taxel_3,taxel_4,taxel_5,taxel_6,taxel_7,taxel_8,taxel_9,taxel_10,taxel_11,taxel_12,taxel_13,taxel_14,taxel_15,taxel_16,taxel_17,taxel_18,taxel_19,taxel_20,taxel_21,taxel_22,taxel_23,taxel_24,n_RA,n_SA,cn_mm,cn_ra,cn_sa
0.0134,1783956844.9622,1,0,2.0000,-0.0000,1.42244,0.00072,-2.63059,1.05900,1.57082,0.11673,-0.12763,-0.48146,0.03735,,,,,,,,,,,,,,,,,,,,,,,,,,0,0,0,0,0
0.0141,1783956844.9629,1,0,2.0000,-0.0000,1.42244,0.00072,-2.63059,1.05900,1.57082,0.11673,-0.12763,-0.48146,0.03735,,,,,,,,,,,,,,,,,,,,,,,,,,0,0,0,0,0
0.0228,1783956844.9716,1,0,2.0000,-0.0000,1.42244,0.00072,-2.63059,1.05900,1.57082,0.11673,-0.12763,-0.48146,0.03735,,,,,,,,,,,,,,,,,,,,,,,,,,0,0,0,0,0
0.0294,1783956844.9782,1,0,2.0000,-0.0000,1.42244,0.00072,-2.63059,1.05900,1.57082,0.11673,-0.12763,-0.48146,0.03735,,,,,,,,,,,,,,,,,,,,,,,,,,0,0,0,0,0
0.0409,1783956844.9897,1,0,2.0000,-0.0000,1.42244,0.00072,-2.63059,1.05900,1.57082,0.11673,-0.12763,-0.48146,0.03735,,,,,,,,,,,,,,,,,,,,,,,,,,0,0,0,0,0
0.0566,1783956845.0054,1,0,2.0000,-0.0000,1.42244,0.00072,-2.63058,1.05901,1.57082,0.11674,-0.12763,-0.48147,0.03735,,,,,,,,,,,,,,,,,,,,,,,,,,0,0,0,0,0
0.0749,1783956845.0237,1,0,2.0000,-0.0000,1.42244,0.00071,-2.63055,1.05904,1.57081,0.11675,-0.12763,-0.48150,0.03737,,,,,,,,,,,,,,,,,,,,,,,,,,0,0,0,0,0
0.0822,1783956845.0310,1,0,2.0000,-0.0000,1.42244,0.00071,-2.63054,1.05905,1.57080,0.11675,-0.12763,-0.48151,0.03737,,,,,,,,,,,,,,,,,,,,,,,,,,0,0,0,0,0
0.0954,1783956845.0442,1,0,2.0000,-0.0000,1.42244,0.00071,-2.63053,1.05906,1.57080,0.11675,-0.12763,-0.48152,0.03738,,,,,,,,,,,,,,,,,,,,,,,,,,0,0,0,0,0
0.0995,1783956845.0483,1,0,2.0000,-0.0000,1.42244,0.00071,-2.63053,1.05907,1.57080,0.11675,-0.12763,-0.48152,0.03738,,,,,,,,,,,,,,,,,,,,,,,,,,0,0,0,0,0
0.1105,1783956845.0593,1,0,2.0000,-0.0000,1.42244,0.00071,-2.63053,1.05907,1.57080,0.11675,-0.12763,-0.48152,0.03738,,,,,,,,,,,,,,,,,,,,,,,,,,0,0,0,0,0
0.1205,1783956845.0693,1,0,2.0000,-0.0000,1.42244,0.00071,-2.63053,1.05907,1.57080,0.11675,-0.12763,-0.48152,0.03738,,,,,,,,,,,,,,,,,,,,,,,,,,0,0,0,0,0
0.1290,1783956845.0778,1,0,2.0000,-0.0000,1.42244,0.00071,-2.63053,1.05907,1.57080,0.11675,-0.12763,-0.48152,0.03738,,,,,,,,,,,,,,,,,,,,,,,,,,0,0,0,0,0
0.1413,1783956845.0901,1,0,2.0000,-0.0000,1.42244,0.00071,-2.63053,1.05907,1.57080,0.11675,-0.12763,-0.48152,0.03738,,,,,,,,,,,,,,,,,,,,,,,,,,0,0,0,0,0
0.1495,1783956845.0983,1,0,2.0000,-0.0000,1.42244,0.00071,-2.63053,1.05907,1.57080,0.11675,-0.12763,-0.48152,0.03738,,,,,,,,,,,,,,,,,,,,,,,,,,0,0,0,0,0
0.1623,1783956845.1111,1,0,2.0000,-0.0000,1.42244,0.00071,-2.63053,1.05907,1.57080,0.11675,-0.12763,-0.48152,0.03738,,,,,,,,,,,,,,,,,,,,,,,,,,0,0,0,0,0
0.1626,1783956845.1114,1,0,2.0000,-0.0000,1.42244,0.00071,-2.63053,1.05907,1.57080,0.11675,-0.12763,-0.48152,0.03738,,,,,,,,,,,,,,,,,,,,,,,,,,0,0,0,0,0
0.1757,1783956845.1245,1,0,2.0000,-0.0000,1.42244,0.00071,-2.63053,1.05907,1.57080,0.11675,-0.12763,-0.48152,0.03738,,,,,,,,,,,,,,,,,,,,,,,,,,0,0,0,0,0
0.1760,1783956845.1248,1,0,2.0000,-0.0000,1.42244,0.00071,-2.63053,1.05907,1.57080,0.11675,-0.12763,-0.48152,0.03738,,,,,,,,,,,,,,,,,,,,,,,,,,0,0,0,0,0
0.1808,1783956845.1296,1,0,2.0000,-0.0000,1.42244,0.00071,-2.63053,1.05907,1.57080,0.11675,-0.12763,-0.48152,0.03738,,,,,,,,,,,,,,,,,,,,,,,,,,0,0,0,0,0
0.1812,1783956845.1301,1,0,2.0000,-0.0000,1.42244,0.00071,-2.63053,1.05907,1.57080,0.11675,-0.12763,-0.48152,0.03738,,,,,,,,,,,,,,,,,,,,,,,,,,0,0,0,0,0
0.2003,1783956845.1491,1,0,2.0000,-0.0000,1.42244,0.00071,-2.63053,1.05907,1.57080,0.11675,-0.12763,-0.48152,0.03738,,,,,,,,,,,,,,,,,,,,,,,,,,0,0,0,0,0
0.2005,1783956845.1494,1,0,2.0000,-0.0000,1.42244,0.00071,-2.63053,1.05907,1.57080,0.11675,-0.12763,-0.48152,0.03738,,,,,,,,,,,,,,,,,,,,,,,,,,0,0,0,0,0
0.2144,1783956845.1632,1,0,2.0000,-0.0000,1.42244,0.00071,-2.63053,1.05907,1.57080,0.11675,-0.12763,-0.48152,0.03738,,,,,,,,,,,,,,,,,,,,,,,,,,0,0,0,0,0
0.2398,1783956845.1887,1,0,2.0000,-0.0000,1.42244,0.00071,-2.63053,1.05907,1.57080,0.11675,-0.12763,-0.48152,0.03738,,,,,,,,,,,,,,,,,,,,,,,,,,0,0,0,0,0
0.2438,1783956845.1926,1,0,2.0000,-0.0000,1.42244,0.00071,-2.63053,1.05907,1.57080,0.11675,-0.12763,-0.48152,0.03738,,,,,,,,,,,,,,,,,,,,,,,,,,0,0,0,0,0
0.2441,1783956845.1929,1,0,2.0000,-0.0000,1.42244,0.00071,-2.63053,1.05907,1.57080,0.11675,-0.12763,-0.48152,0.03738,,,,,,,,,,,,,,,,,,,,,,,,,,0,0,0,0,0
0.2867,1783956845.2355,1,0,2.0000,-0.0000,1.42244,0.00071,-2.63053,1.05907,1.57080,0.11675,-0.12763,-0.48152,0.03738,,,,,,,,,,,,,,,,,,,,,,,,,,0,0,0,0,0
0.2871,1783956845.2359,1,0,2.0000,-0.0000,1.42244,0.00071,-2.63053,1.05907,1.57080,0.11675,-0.12763,-0.48152,0.03738,,,,,,,,,,,,,,,,,,,,,,,,,,0,0,0,0,0
0.2946,1783956845.2434,1,0,2.0000,-0.0000,1.42244,0.00071,-2.63053,1.05907,1.57080,0.11675,-0.12763,-0.48152,0.03738,,,,,,,,,,,,,,,,,,,,,,,,,,0,0,0,0,0
0.2948,1783956845.2436,1,0,2.0000,-0.0000,1.42244,0.00071,-2.63053,1.05907,1.57080,0.11675,-0.12763,-0.48152,0.03738,,,,,,,,,,,,,,,,,,,,,,,,,,0,0,0,0,0
0.2952,1783956845.2440,1,0,2.0000,-0.0000,1.42244,0.00071,-2.63053,1.05907,1.57080,0.11675,-0.12763,-0.48152,0.03738,,,,,,,,,,,,,,,,,,,,,,,,,,0,0,0,0,0
0.2954,1783956845.2443,1,0,2.0000,-0.0000,1.42244,0.00071,-2.63053,1.05907,1.57080,0.11675,-0.12763,-0.48152,0.03738,,,,,,,,,,,,,,,,,,,,,,,,,,0,0,0,0,0
0.2965,1783956845.2453,1,0,2.0000,-0.0000,1.42244,0.00071,-2.63053,1.05907,1.57080,0.11675,-0.12763,-0.48152,0.03738,,,,,,,,,,,,,,,,,,,,,,,,,,0,0,0,0,0
0.2967,1783956845.2455,1,0,2.0000,-0.0000,1.42244,0.00071,-2.63053,1.05907,1.57080,0.11675,-0.12763,-0.48152,0.03738,,,,,,,,,,,,,,,,,,,,,,,,,,0,0,0,0,0
0.3123,1783956845.2611,1,0,2.0000,-0.0000,1.42244,0.00071,-2.63053,1.05907,1.57080,0.11675,-0.12763,-0.48152,0.03738,,,,,,,,,,,,,,,,,,,,,,,,,,0,0,0,0,0
0.3427,1783956845.2915,1,0,2.0000,-0.0000,1.42244,0.00071,-2.63053,1.05907,1.57080,0.11675,-0.12763,-0.48152,0.03738,,,,,,,,,,,,,,,,,,,,,,,,,,0,0,0,0,0
0.3432,1783956845.2920,1,0,2.0000,-0.0000,1.42244,0.00071,-2.63053,1.05907,1.57080,0.11675,-0.12763,-0.48152,0.03738,,,,,,,,,,,,,,,,,,,,,,,,,,0,0,0,0,0
0.3437,1783956845.2925,1,0,2.0000,-0.0000,1.42244,0.00071,-2.63053,1.05907,1.57080,0.11675,-0.12763,-0.48152,0.03738,,,,,,,,,,,,,,,,,,,,,,,,,,0,0,0,0,0
0.3487,1783956845.2975,1,0,2.0000,-0.0000,1.42244,0.00071,-2.63053,1.05907,1.57080,0.11675,-0.12763,-0.48152,0.03738,,,,,,,,,,,,,,,,,,,,,,,,,,0,0,0,0,0
0.3490,1783956845.2978,1,0,2.0000,-0.0000,1.42244,0.00071,-2.63053,1.05907,1.57080,0.11675,-0.12763,-0.48152,0.03738,,,,,,,,,,,,,,,,,,,,,,,,,,0,0,0,0,0
0.3728,1783956845.3216,1,0,2.0000,-0.0000,1.42244,0.00071,-2.63053,1.05907,1.57080,0.11675,-0.12763,-0.48152,0.03738,,,,,,,,,,,,,,,,,,,,,,,,,,0,0,0,0,0
0.3840,1783956845.3328,1,0,2.0000,-0.0000,1.42244,0.00071,-2.63053,1.05907,1.57080,0.11675,-0.12763,-0.48152,0.03738,,,,,,,,,,,,,,,,,,,,,,,,,,0,0,0,0,0
0.3849,1783956845.3337,1,0,2.0000,-0.0000,1.42244,0.00071,-2.63053,1.05907,1.57080,0.11675,-0.12763,-0.48152,0.03738,,,,,,,,,,,,,,,,,,,,,,,,,,0,0,0,0,0
0.3852,1783956845.3340,1,0,2.0000,-0.0000,1.42244,0.00071,-2.63053,1.05907,1.57080,0.11675,-0.12763,-0.48152,0.03738,,,,,,,,,,,,,,,,,,,,,,,,,,0,0,0,0,0
0.3905,1783956845.3393,1,0,2.0000,-0.0000,1.42244,0.00071,-2.63053,1.05907,1.57080,0.11675,-0.12763,-0.48152,0.03738,,,,,,,,,,,,,,,,,,,,,,,,,,0,0,0,0,0
0.3906,1783956845.3395,1,0,2.0000,-0.0000,1.42244,0.00071,-2.63053,1.05907,1.57080,0.11675,-0.12763,-0.48152,0.03738,,,,,,,,,,,,,,,,,,,,,,,,,,0,0,0,0,0
0.3992,1783956845.3481,1,0,2.0000,-0.0000,1.42244,0.00071,-2.63053,1.05907,1.57080,0.11675,-0.12763,-0.48152,0.03738,,,,,,,,,,,,,,,,,,,,,,,,,,0,0,0,0,0
0.3997,1783956845.3485,1,0,2.0000,-0.0000,1.42244,0.00071,-2.63053,1.05907,1.57080,0.11675,-0.12763,-0.48152,0.03738,,,,,,,,,,,,,,,,,,,,,,,,,,0,0,0,0,0
0.4093,1783956845.3582,1,0,2.0000,-0.0000,1.42244,0.00071,-2.63053,1.05907,1.57080,0.11675,-0.12763,-0.48152,0.03738,,,,,,,,,,,,,,,,,,,,,,,,,,0,0,0,0,0
0.4099,1783956845.3587,1,0,2.0000,-0.0000,1.42244,0.00071,-2.63053,1.05907,1.57080,0.11675,-0.12763,-0.48152,0.03738,,,,,,,,,,,,,,,,,,,,,,,,,,0,0,0,0,0
0.4216,1783956845.3704,1,0,2.0000,-0.0000,1.42244,0.00071,-2.63053,1.05907,1.57080,0.11675,-0.12763,-0.48152,0.03738,,,,,,,,,,,,,,,,,,,,,,,,,,0,0,0,0,0
0.4305,1783956845.3793,1,0,2.0000,-0.0000,1.42244,0.00071,-2.63053,1.05907,1.57080,0.11675,-0.12763,-0.48152,0.03738,,,,,,,,,,,,,,,,,,,,,,,,,,0,0,0,0,0
0.4307,1783956845.3795,1,0,2.0000,-0.0000,1.42244,0.00071,-2.63053,1.05907,1.57080,0.11675,-0.12763,-0.48152,0.03738,,,,,,,,,,,,,,,,,,,,,,,,,,0,0,0,0,0
0.4430,1783956845.3918,1,0,2.0000,-0.0000,1.42244,0.00071,-2.63053,1.05907,1.57080,0.11675,-0.12763,-0.48152,0.03738,,,,,,,,,,,,,,,,,,,,,,,,,,0,0,0,0,0
0.4514,1783956845.4002,1,0,2.0000,-0.0000,1.42244,0.00071,-2.63053,1.05907,1.57080,0.11675,-0.12763,-0.48152,0.03738,,,,,,,,,,,,,,,,,,,,,,,,,,0,0,0,0,0
0.4666,1783956845.4154,1,0,2.0000,-0.0000,1.42244,0.00071,-2.63053,1.05907,1.57080,0.11675,-0.12763,-0.48152,0.03738,,,,,,,,,,,,,,,,,,,,,,,,,,0,0,0,0,0
0.4669,1783956845.4157,1,0,2.0000,-0.0000,1.42244,0.00071,-2.63053,1.05907,1.57080,0.11675,-0.12763,-0.48152,0.03738,,,,,,,,,,,,,,,,,,,,,,,,,,0,0,0,0,0
0.4698,1783956845.4186,1,0,2.0000,-0.0000,1.42244,0.00071,-2.63053,1.05907,1.57080,0.11675,-0.12763,-0.48152,0.03738,,,,,,,,,,,,,,,,,,,,,,,,,,0,0,0,0,0
0.4705,1783956845.4193,1,0,2.0000,-0.0000,1.42244,0.00071,-2.63053,1.05907,1.57080,0.11675,-0.12763,-0.48152,0.03738,,,,,,,,,,,,,,,,,,,,,,,,,,0,0,0,0,0
0.4807,1783956845.4295,1,0,2.0000,-0.0000,1.42244,0.00071,-2.63053,1.05907,1.57080,0.11675,-0.12763,-0.48152,0.03738,,,,,,,,,,,,,,,,,,,,,,,,,,0,0,0,0,0
0.4899,1783956845.4387,1,0,2.0000,-0.0000,1.42244,0.00071,-2.63053,1.05907,1.57080,0.11675,-0.12763,-0.48152,0.03738,,,,,,,,,,,,,,,,,,,,,,,,,,0,0,0,0,0
0.4989,1783956845.4477,1,0,2.0000,-0.0000,1.42244,0.00071,-2.63053,1.05907,1.57080,0.11675,-0.12763,-0.48152,0.03738,,,,,,,,,,,,,,,,,,,,,,,,,,0,0,0,0,0
0.4992,1783956845.4480,1,0,2.0000,-0.0000,1.42244,0.00071,-2.63053,1.05907,1.57080,0.11675,-0.12763,-0.48152,0.03738,,,,,,,,,,,,,,,,,,,,,,,,,,0,0,0,0,0
0.5091,1783956845.4579,1,0,2.0000,-0.0000,1.42244,0.00071,-2.63053,1.05907,1.57080,0.11675,-0.12763,-0.48152,0.03738,,,,,,,,,,,,,,,,,,,,,,,,,,0,0,0,0,0
0.5196,1783956845.4684,1,0,2.0000,-0.0000,1.42244,0.00071,-2.63053,1.05907,1.57080,0.11675,-0.12763,-0.48152,0.03738,,,,,,,,,,,,,,,,,,,,,,,,,,0,0,0,0,0
0.5306,1783956845.4794,1,0,2.0000,-0.0000,1.42244,0.00071,-2.63053,1.05907,1.57080,0.11675,-0.12763,-0.48152,0.03738,,,,,,,,,,,,,,,,,,,,,,,,,,0,0,0,0,0
0.5309,1783956845.4797,1,0,2.0000,-0.0000,1.42244,0.00071,-2.63053,1.05907,1.57080,0.11675,-0.12763,-0.48152,0.03738,,,,,,,,,,,,,,,,,,,,,,,,,,0,0,0,0,0
0.5467,1783956845.4955,1,0,2.0000,-0.0000,1.42244,0.00071,-2.63053,1.05907,1.57080,0.11675,-0.12763,-0.48152,0.03738,,,,,,,,,,,,,,,,,,,,,,,,,,0,0,0,0,0
0.5491,1783956845.4979,1,0,2.0000,-0.0000,1.42244,0.00071,-2.63053,1.05907,1.57080,0.11675,-0.12763,-0.48152,0.03738,,,,,,,,,,,,,,,,,,,,,,,,,,0,0,0,0,0
0.5495,1783956845.4983,1,0,2.0000,-0.0000,1.42244,0.00071,-2.63053,1.05907,1.57080,0.11675,-0.12763,-0.48152,0.03738,,,,,,,,,,,,,,,,,,,,,,,,,,0,0,0,0,0
0.5905,1783956845.5393,1,0,2.0000,-0.0000,1.42244,0.00071,-2.63053,1.05907,1.57080,0.11675,-0.12763,-0.48152,0.03738,,,,,,,,,,,,,,,,,,,,,,,,,,0,0,0,0,0
0.5909,1783956845.5397,1,0,2.0000,-0.0000,1.42244,0.00071,-2.63053,1.05907,1.57080,0.11675,-0.12763,-0.48152,0.03738,,,,,,,,,,,,,,,,,,,,,,,,,,0,0,0,0,0
0.6147,1783956845.5635,1,0,2.0000,-0.0000,1.42244,0.00071,-2.63053,1.05907,1.57080,0.11675,-0.12763,-0.48152,0.03738,,,,,,,,,,,,,,,,,,,,,,,,,,0,0,0,0,0
0.6151,1783956845.5639,1,0,2.0000,-0.0000,1.42244,0.00071,-2.63053,1.05907,1.57080,0.11675,-0.12763,-0.48152,0.03738,,,,,,,,,,,,,,,,,,,,,,,,,,0,0,0,0,0
0.6156,1783956845.5644,1,0,2.0000,-0.0000,1.42244,0.00071,-2.63053,1.05907,1.57080,0.11675,-0.12763,-0.48152,0.03738,,,,,,,,,,,,,,,,,,,,,,,,,,0,0,0,0,0
0.6363,1783956845.5851,1,0,2.0000,-0.0000,1.42244,0.00071,-2.63053,1.05907,1.57080,0.11675,-0.12763,-0.48152,0.03738,,,,,,,,,,,,,,,,,,,,,,,,,,0,0,0,0,0
0.6397,1783956845.5886,1,0,2.0000,-0.0000,1.42244,0.00071,-2.63053,1.05907,1.57080,0.11675,-0.12763,-0.48152,0.03738,,,,,,,,,,,,,,,,,,,,,,,,,,0,0,0,0,0
0.6401,1783956845.5889,1,0,2.0000,-0.0000,1.42244,0.00071,-2.63053,1.05907,1.57080,0.11675,-0.12763,-0.48152,0.03738,,,,,,,,,,,,,,,,,,,,,,,,,,0,0,0,0,0
0.6446,1783956845.5935,1,0,2.0000,-0.0000,1.42244,0.00071,-2.63053,1.05907,1.57080,0.11675,-0.12763,-0.48152,0.03738,,,,,,,,,,,,,,,,,,,,,,,,,,0,0,0,0,0
0.6535,1783956845.6023,1,0,2.0000,-0.0000,1.42244,0.00071,-2.63053,1.05907,1.57080,0.11675,-0.12763,-0.48152,0.03738,,,,,,,,,,,,,,,,,,,,,,,,,,0,0,0,0,0
0.6709,1783956845.6197,1,0,2.0000,-0.0000,1.42244,0.00071,-2.63053,1.05907,1.57080,0.11675,-0.12763,-0.48152,0.03738,,,,,,,,,,,,,,,,,,,,,,,,,,0,0,0,0,0
0.6712,1783956845.6200,1,0,2.0000,-0.0000,1.42244,0.00071,-2.63053,1.05907,1.57080,0.11675,-0.12763,-0.48152,0.03738,,,,,,,,,,,,,,,,,,,,,,,,,,0,0,0,0,0
0.6716,1783956845.6204,1,0,2.0000,-0.0000,1.42244,0.00071,-2.63053,1.05907,1.57080,0.11675,-0.12763,-0.48152,0.03738,,,,,,,,,,,,,,,,,,,,,,,,,,0,0,0,0,0
0.6909,1783956845.6397,1,0,2.0000,-0.0000,1.42244,0.00071,-2.63053,1.05907,1.57080,0.11675,-0.12763,-0.48152,0.03738,,,,,,,,,,,,,,,,,,,,,,,,,,0,0,0,0,0
0.6913,1783956845.6401,1,0,2.0000,-0.0000,1.42244,0.00071,-2.63053,1.05907,1.57080,0.11675,-0.12763,-0.48152,0.03738,,,,,,,,,,,,,,,,,,,,,,,,,,0,0,0,0,0
0.7009,1783956845.6497,1,0,2.0000,-0.0000,1.42244,0.00071,-2.63053,1.05907,1.57080,0.11675,-0.12763,-0.48152,0.03738,,,,,,,,,,,,,,,,,,,,,,,,,,0,0,0,0,0
0.7093,1783956845.6581,1,0,2.0000,-0.0000,1.42244,0.00071,-2.63053,1.05907,1.57080,0.11675,-0.12763,-0.48152,0.03738,,,,,,,,,,,,,,,,,,,,,,,,,,0,0,0,0,0
0.7268,1783956845.6756,1,0,2.0000,-0.0000,1.42244,0.00071,-2.63053,1.05907,1.57080,0.11675,-0.12763,-0.48152,0.03738,,,,,,,,,,,,,,,,,,,,,,,,,,0,0,0,0,0
0.7272,1783956845.6760,1,0,2.0000,-0.0000,1.42244,0.00071,-2.63053,1.05907,1.57080,0.11675,-0.12763,-0.48152,0.03738,,,,,,,,,,,,,,,,,,,,,,,,,,0,0,0,0,0
0.7294,1783956845.6782,1,1,2.0000,-0.0000,1.42244,0.00071,-2.63053,1.05907,1.57080,0.11675,-0.12763,-0.48152,0.03738,,,,,,,,,,,,,,,,,,,,,,,,,,0,0,0,0,0
0.7608,1783956845.7096,1,1,2.0000,-0.0000,1.42244,0.00071,-2.63053,1.05907,1.57080,0.11675,-0.12763,-0.48152,0.03738,,,,,,,,,,,,,,,,,,,,,,,,,,0,0,0,0,0
0.7611,1783956845.7099,1,1,2.0000,-0.0000,1.42244,0.00071,-2.63053,1.05907,1.57080,0.11675,-0.12763,-0.48152,0.03738,,,,,,,,,,,,,,,,,,,,,,,,,,0,0,0,0,0
0.7615,1783956845.7103,1,1,2.0000,-0.0000,1.42244,0.00071,-2.63053,1.05907,1.57080,0.11675,-0.12763,-0.48152,0.03738,,,,,,,,,,,,,,,,,,,,,,,,,,0,0,0,0,0
0.7745,1783956845.7233,1,1,2.0000,-0.0000,1.42244,0.00071,-2.63053,1.05907,1.57080,0.11675,-0.12763,-0.48152,0.03738,,,,,,,,,,,,,,,,,,,,,,,,,,0,0,0,0,0
0.7828,1783956845.7316,1,1,2.0000,-0.0000,1.42244,0.00071,-2.63053,1.05907,1.57080,0.11675,-0.12763,-0.48152,0.03738,,,,,,,,,,,,,,,,,,,,,,,,,,0,0,0,0,0
0.7831,1783956845.7319,1,1,2.0000,-0.0000,1.42244,0.00071,-2.63053,1.05907,1.57080,0.11675,-0.12763,-0.48152,0.03738,,,,,,,,,,,,,,,,,,,,,,,,,,0,0,0,0,0
0.7914,1783956845.7402,1,1,2.0000,-0.0000,1.42244,0.00071,-2.63053,1.05907,1.57080,0.11675,-0.12763,-0.48152,0.03738,,,,,,,,,,,,,,,,,,,,,,,,,,0,0,0,0,0
0.7996,1783956845.7485,1,1,2.0000,-0.0000,1.42244,0.00071,-2.63053,1.05907,1.57080,0.11675,-0.12763,-0.48152,0.03738,,,,,,,,,,,,,,,,,,,,,,,,,,0,0,0,0,0
0.8097,1783956845.7586,1,1,2.0000,-0.0000,1.42244,0.00071,-2.63053,1.05907,1.57080,0.11675,-0.12763,-0.48152,0.03738,,,,,,,,,,,,,,,,,,,,,,,,,,0,0,0,0,0
0.8188,1783956845.7676,1,1,2.0000,-0.0000,1.42244,0.00071,-2.63053,1.05907,1.57080,0.11675,-0.12763,-0.48152,0.03738,,,,,,,,,,,,,,,,,,,,,,,,,,0,0,0,0,0
0.8191,1783956845.7679,1,1,2.0000,-0.0000,1.42244,0.00071,-2.63053,1.05907,1.57080,0.11675,-0.12763,-0.48152,0.03738,,,,,,,,,,,,,,,,,,,,,,,,,,0,0,0,0,0
0.8307,1783956845.7795,1,1,2.0000,-0.0000,1.42244,0.00071,-2.63053,1.05907,1.57080,0.11675,-0.12763,-0.48152,0.03738,,,,,,,,,,,,,,,,,,,,,,,,,,0,0,0,0,0
0.8402,1783956845.7890,1,1,2.0000,-0.0000,1.42244,0.00071,-2.63053,1.05907,1.57080,0.11675,-0.12763,-0.48152,0.03738,,,,,,,,,,,,,,,,,,,,,,,,,,0,0,0,0,0
0.8497,1783956845.7985,1,1,2.0000,-0.0000,1.42244,0.00071,-2.63053,1.05907,1.57080,0.11675,-0.12763,-0.48152,0.03738,,,,,,,,,,,,,,,,,,,,,,,,,,0,0,0,0,0
0.8501,1783956845.7989,1,1,2.0000,-0.0000,1.42244,0.00071,-2.63053,1.05907,1.57080,0.11675,-0.12763,-0.48152,0.03738,,,,,,,,,,,,,,,,,,,,,,,,,,0,0,0,0,0
0.8607,1783956845.8096,1,1,2.0000,-0.0000,1.42244,0.00071,-2.63053,1.05907,1.57080,0.11675,-0.12763,-0.48152,0.03738,,,,,,,,,,,,,,,,,,,,,,,,,,0,0,0,0,0
0.8765,1783956845.8253,1,1,2.0000,-0.0000,1.42244,0.00071,-2.63053,1.05907,1.57080,0.11675,-0.12763,-0.48152,0.03738,,,,,,,,,,,,,,,,,,,,,,,,,,0,0,0,0,0
0.8939,1783956845.8427,1,1,2.0000,-0.0000,1.42244,0.00071,-2.63053,1.05907,1.57080,0.11675,-0.12763,-0.48152,0.03738,,,,,,,,,,,,,,,,,,,,,,,,,,0,0,0,0,0
0.8944,1783956845.8432,1,1,2.0000,-0.0000,1.42244,0.00071,-2.63053,1.05907,1.57080,0.11675,-0.12763,-0.48152,0.03738,,,,,,,,,,,,,,,,,,,,,,,,,,0,0,0,0,0
0.9095,1783956845.8583,1,1,2.0000,-0.0000,1.42244,0.00071,-2.63053,1.05907,1.57080,0.11675,-0.12763,-0.48152,0.03738,,,,,,,,,,,,,,,,,,,,,,,,,,0,0,0,0,0
0.9099,1783956845.8587,1,1,2.0000,-0.0000,1.42244,0.00071,-2.63053,1.05907,1.57080,0.11675,-0.12763,-0.48152,0.03738,,,,,,,,,,,,,,,,,,,,,,,,,,0,0,0,0,0
0.9358,1783956845.8846,1,1,2.0000,-0.0000,1.42244,0.00071,-2.63053,1.05907,1.57080,0.11675,-0.12763,-0.48152,0.03738,,,,,,,,,,,,,,,,,,,,,,,,,,0,0,0,0,0
0.9361,1783956845.8849,1,1,2.0000,-0.0000,1.42244,0.00071,-2.63053,1.05907,1.57080,0.11675,-0.12763,-0.48152,0.03738,,,,,,,,,,,,,,,,,,,,,,,,,,0,0,0,0,0
0.9364,1783956845.8852,1,1,2.0000,-0.0000,1.42244,0.00071,-2.63053,1.05907,1.57080,0.11675,-0.12763,-0.48152,0.03738,,,,,,,,,,,,,,,,,,,,,,,,,,0,0,0,0,0
0.9564,1783956845.9052,1,1,2.0000,-0.0000,1.42244,0.00071,-2.63053,1.05907,1.57080,0.11675,-0.12763,-0.48152,0.03738,,,,,,,,,,,,,,,,,,,,,,,,,,0,0,0,0,0
0.9567,1783956845.9055,1,1,2.0000,-0.0000,1.42244,0.00071,-2.63053,1.05907,1.57080,0.11675,-0.12763,-0.48152,0.03738,,,,,,,,,,,,,,,,,,,,,,,,,,0,0,0,0,0
0.9758,1783956845.9246,1,1,2.0000,-0.0000,1.42244,0.00071,-2.63053,1.05907,1.57080,0.11675,-0.12763,-0.48152,0.03738,,,,,,,,,,,,,,,,,,,,,,,,,,0,0,0,0,0
0.9761,1783956845.9249,1,1,2.0000,-0.0000,1.42244,0.00071,-2.63053,1.05907,1.57080,0.11675,-0.12763,-0.48152,0.03738,,,,,,,,,,,,,,,,,,,,,,,,,,0,0,0,0,0
0.9764,1783956845.9252,1,1,2.0000,-0.0000,1.42244,0.00071,-2.63053,1.05907,1.57080,0.11675,-0.12763,-0.48152,0.03738,,,,,,,,,,,,,,,,,,,,,,,,,,0,0,0,0,0
0.9767,1783956845.9255,1,1,2.0000,-0.0000,1.42244,0.00071,-2.63053,1.05907,1.57080,0.11675,-0.12763,-0.48152,0.03738,,,,,,,,,,,,,,,,,,,,,,,,,,0,0,0,0,0
0.9819,1783956845.9307,1,1,2.0000,-0.0000,1.42244,0.00071,-2.63053,1.05907,1.57080,0.11675,-0.12763,-0.48152,0.03738,,,,,,,,,,,,,,,,,,,,,,,,,,0,0,0,0,0
0.9928,1783956845.9416,1,1,2.0000,-0.0000,1.42244,0.00071,-2.63053,1.05907,1.57080,0.11675,-0.12763,-0.48152,0.03738,,,,,,,,,,,,,,,,,,,,,,,,,,0,0,0,0,0
1.0274,1783956845.9762,1,1,2.0000,-0.0000,1.42244,0.00070,-2.63055,1.05907,1.57080,0.11675,-0.12764,-0.48151,0.03737,,,,,,,,,,,,,,,,,,,,,,,,,,0,0,0,0,0
1.0278,1783956845.9766,1,1,2.0000,-0.0000,1.42244,0.00070,-2.63055,1.05907,1.57080,0.11675,-0.12764,-0.48151,0.03737,,,,,,,,,,,,,,,,,,,,,,,,,,0,0,0,0,0
1.0282,1783956845.9771,1,1,2.0000,-0.0000,1.42244,0.00070,-2.63055,1.05907,1.57080,0.11675,-0.12764,-0.48151,0.03737,,,,,,,,,,,,,,,,,,,,,,,,,,0,0,0,0,0
1.0474,1783956845.9962,1,1,2.0000,-0.0000,1.42244,0.00067,-2.63058,1.05910,1.57080,0.11675,-0.12764,-0.48149,0.03735,,,,,,,,,,,,,,,,,,,,,,,,,,0,0,0,0,0
1.0476,1783956845.9965,1,1,2.0000,-0.0000,1.42244,0.00067,-2.63058,1.05910,1.57080,0.11675,-0.12764,-0.48149,0.03735,,,,,,,,,,,,,,,,,,,,,,,,,,0,0,0,0,0
1.0547,1783956846.0035,1,1,2.0000,-0.0000,1.42244,0.00065,-2.63060,1.05913,1.57080,0.11675,-0.12764,-0.48148,0.03733,,,,,,,,,,,,,,,,,,,,,,,,,,0,0,0,0,0
1.0550,1783956846.0038,1,1,2.0000,-0.0000,1.42244,0.00065,-2.63060,1.05913,1.57080,0.11675,-0.12764,-0.48148,0.03733,,,,,,,,,,,,,,,,,,,,,,,,,,0,0,0,0,0
1.0602,1783956846.0090,1,1,2.0000,-0.0000,1.42244,0.00065,-2.63060,1.05913,1.57080,0.11675,-0.12764,-0.48148,0.03733,,,,,,,,,,,,,,,,,,,,,,,,,,0,0,0,0,0
1.0707,1783956846.0195,1,1,2.0000,-0.0000,1.42244,0.00063,-2.63061,1.05915,1.57080,0.11675,-0.12764,-0.48147,0.03732,,,,,,,,,,,,,,,,,,,,,,,,,,0,0,0,0,0
1.0710,1783956846.0198,1,1,2.0000,-0.0000,1.42244,0.00063,-2.63061,1.05915,1.57080,0.11675,-0.12764,-0.48147,0.03732,,,,,,,,,,,,,,,,,,,,,,,,,,0,0,0,0,0
1.0810,1783956846.0299,1,1,2.0000,-0.0000,1.42244,0.00059,-2.63063,1.05918,1.57080,0.11675,-0.12764,-0.48146,0.03730,,,,,,,,,,,,,,,,,,,,,,,,,,0,0,0,0,0
1.0988,1783956846.0476,1,1,2.0000,-0.0000,1.42244,0.00052,-2.63067,1.05925,1.57080,0.11675,-0.12765,-0.48144,0.03727,,,,,,,,,,,,,,,,,,,,,,,,,,0,0,0,0,0
1.0991,1783956846.0479,1,1,2.0000,-0.0000,1.42244,0.00052,-2.63067,1.05925,1.57080,0.11675,-0.12765,-0.48144,0.03727,,,,,,,,,,,,,,,,,,,,,,,,,,0,0,0,0,0
1.1041,1783956846.0529,1,1,2.0000,-0.0000,1.42244,0.00051,-2.63067,1.05926,1.57080,0.11675,-0.12765,-0.48144,0.03726,,,,,,,,,,,,,,,,,,,,,,,,,,0,0,0,0,0
1.1108,1783956846.0596,1,1,2.0000,-0.0000,1.42244,0.00048,-2.63068,1.05930,1.57080,0.11675,-0.12765,-0.48144,0.03725,,,,,,,,,,,,,,,,,,,,,,,,,,0,0,0,0,0
1.1402,1783956846.0890,1,1,2.0000,-0.0000,1.42244,0.00033,-2.63070,1.05948,1.57080,0.11675,-0.12764,-0.48144,0.03720,,,,,,,,,,,,,,,,,,,,,,,,,,0,0,0,0,0
1.1407,1783956846.0895,1,1,2.0000,-0.0000,1.42244,0.00033,-2.63070,1.05948,1.57080,0.11675,-0.12764,-0.48144,0.03720,,,,,,,,,,,,,,,,,,,,,,,,,,0,0,0,0,0
1.1411,1783956846.0900,1,1,2.0000,-0.0000,1.42244,0.00033,-2.63070,1.05948,1.57080,0.11675,-0.12764,-0.48144,0.03720,,,,,,,,,,,,,,,,,,,,,,,,,,0,0,0,0,0
1.1524,1783956846.1012,1,1,2.0000,-0.0000,1.42244,0.00023,-2.63072,1.05960,1.57080,0.11675,-0.12764,-0.48145,0.03717,,,,,,,,,,,,,,,,,,,,,,,,,,0,0,0,0,0
1.1630,1783956846.1118,1,1,2.0000,-0.0000,1.42244,0.00018,-2.63073,1.05966,1.57080,0.11675,-0.12764,-0.48145,0.03715,,,,,,,,,,,,,,,,,,,,,,,,,,0,0,0,0,0
1.1634,1783956846.1122,1,1,2.0000,-0.0000,1.42244,0.00018,-2.63073,1.05966,1.57080,0.11675,-0.12764,-0.48145,0.03715,,,,,,,,,,,,,,,,,,,,,,,,,,0,0,0,0,0
1.1706,1783956846.1194,1,1,2.0000,-0.0000,1.42244,0.00010,-2.63075,1.05974,1.57080,0.11675,-0.12764,-0.48145,0.03713,,,,,,,,,,,,,,,,,,,,,,,,,,0,0,0,0,0
1.1821,1783956846.1309,1,1,2.0000,-0.0000,1.42244,0.00001,-2.63076,1.05986,1.57080,0.11675,-0.12764,-0.48145,0.03710,,,,,,,,,,,,,,,,,,,,,,,,,,0,0,0,0,0
1.1826,1783956846.1314,1,1,2.0000,-0.0000,1.42244,0.00001,-2.63076,1.05986,1.57080,0.11675,-0.12764,-0.48145,0.03710,,,,,,,,,,,,,,,,,,,,,,,,,,0,0,0,0,0
1.1928,1783956846.1416,1,1,2.0000,-0.0000,1.42244,-0.00001,-2.63077,1.05988,1.57080,0.11675,-0.12764,-0.48145,0.03709,,,,,,,,,,,,,,,,,,,,,,,,,,0,0,0,0,0
1.2013,1783956846.1502,1,1,2.0000,-0.0000,1.42244,-0.00006,-2.63077,1.05994,1.57080,0.11675,-0.12764,-0.48146,0.03707,,,,,,,,,,,,,,,,,,,,,,,,,,0,0,0,0,0
1.2094,1783956846.1582,1,1,2.0000,-0.0000,1.42244,-0.00013,-2.63078,1.06003,1.57080,0.11675,-0.12764,-0.48146,0.03705,,,,,,,,,,,,,,,,,,,,,,,,,,0,0,0,0,0
1.2218,1783956846.1706,1,1,2.0000,-0.0000,1.42244,-0.00026,-2.63079,1.06019,1.57080,0.11675,-0.12764,-0.48148,0.03702,,,,,,,,,,,,,,,,,,,,,,,,,,0,0,0,0,0
1.2336,1783956846.1824,1,1,2.0000,-0.0000,1.42244,-0.00038,-2.63080,1.06034,1.57080,0.11675,-0.12764,-0.48149,0.03699,,,,,,,,,,,,,,,,,,,,,,,,,,0,0,0,0,0
1.2420,1783956846.1908,1,1,2.0000,-0.0000,1.42244,-0.00044,-2.63080,1.06042,1.57080,0.11675,-0.12763,-0.48150,0.03698,,,,,,,,,,,,,,,,,,,,,,,,,,0,0,0,0,0
1.2425,1783956846.1913,1,1,2.0000,-0.0000,1.42244,-0.00046,-2.63079,1.06045,1.57080,0.11675,-0.12763,-0.48151,0.03697,,,,,,,,,,,,,,,,,,,,,,,,,,0,0,0,0,0
1.2495,1783956846.1984,1,1,2.0000,-0.0000,1.42244,-0.00046,-2.63079,1.06045,1.57080,0.11675,-0.12763,-0.48151,0.03697,,,,,,,,,,,,,,,,,,,,,,,,,,0,0,0,0,0
1.2675,1783956846.2163,1,1,2.0000,-0.0000,1.42244,-0.00046,-2.63079,1.06045,1.57080,0.11675,-0.12763,-0.48151,0.03697,,,,,,,,,,,,,,,,,,,,,,,,,,0,0,0,0,0
1.2718,1783956846.2206,1,1,2.0000,-0.0000,1.42244,-0.00046,-2.63079,1.06045,1.57080,0.11675,-0.12763,-0.48151,0.03697,,,,,,,,,,,,,,,,,,,,,,,,,,0,0,0,0,0
1.2893,1783956846.2381,1,1,2.0000,-0.0000,1.42244,-0.00046,-2.63079,1.06045,1.57080,0.11675,-0.12763,-0.48151,0.03697,,,,,,,,,,,,,,,,,,,,,,,,,,0,0,0,0,0
1.3149,1783956846.2637,1,1,2.0000,-0.0000,1.42244,-0.00046,-2.63079,1.06045,1.57080,0.11675,-0.12763,-0.48151,0.03697,,,,,,,,,,,,,,,,,,,,,,,,,,0,0,0,0,0
1.3151,1783956846.2639,1,1,2.0000,-0.0000,1.42244,-0.00046,-2.63079,1.06045,1.57080,0.11675,-0.12763,-0.48151,0.03697,,,,,,,,,,,,,,,,,,,,,,,,,,0,0,0,0,0
1.3208,1783956846.2696,1,1,2.0000,-0.0000,1.42244,-0.00046,-2.63079,1.06045,1.57080,0.11675,-0.12763,-0.48151,0.03697,,,,,,,,,,,,,,,,,,,,,,,,,,0,0,0,0,0
1.3324,1783956846.2812,1,1,2.0000,-0.0000,1.42244,-0.00046,-2.63079,1.06045,1.57080,0.11675,-0.12763,-0.48151,0.03697,,,,,,,,,,,,,,,,,,,,,,,,,,0,0,0,0,0
1.3396,1783956846.2884,1,1,2.0000,-0.0000,1.42244,-0.00046,-2.63079,1.06045,1.57080,0.11675,-0.12763,-0.48151,0.03697,,,,,,,,,,,,,,,,,,,,,,,,,,0,0,0,0,0
1.3507,1783956846.2995,1,1,2.0000,-0.0000,1.42244,-0.00046,-2.63079,1.06045,1.57080,0.11675,-0.12763,-0.48151,0.03697,,,,,,,,,,,,,,,,,,,,,,,,,,0,0,0,0,0
1.3596,1783956846.3084,1,1,2.0000,-0.0000,1.42244,-0.00046,-2.63079,1.06045,1.57080,0.11675,-0.12763,-0.48151,0.03697,,,,,,,,,,,,,,,,,,,,,,,,,,0,0,0,0,0
1.3724,1783956846.3212,1,1,2.0000,-0.0000,1.42244,-0.00046,-2.63079,1.06045,1.57080,0.11675,-0.12763,-0.48151,0.03697,,,,,,,,,,,,,,,,,,,,,,,,,,0,0,0,0,0
1.3789,1783956846.3278,1,1,2.0000,-0.0000,1.42244,-0.00046,-2.63079,1.06045,1.57080,0.11675,-0.12763,-0.48151,0.03697,,,,,,,,,,,,,,,,,,,,,,,,,,0,0,0,0,0
1.3890,1783956846.3378,1,1,2.0000,-0.0000,1.42244,-0.00046,-2.63079,1.06045,1.57080,0.11675,-0.12763,-0.48151,0.03697,,,,,,,,,,,,,,,,,,,,,,,,,,0,0,0,0,0
1.4002,1783956846.3490,1,1,2.0000,-0.0000,1.42244,-0.00046,-2.63079,1.06045,1.57080,0.11675,-0.12763,-0.48151,0.03697,,,,,,,,,,,,,,,,,,,,,,,,,,0,0,0,0,0
1.4005,1783956846.3493,1,1,2.0000,-0.0000,1.42244,-0.00046,-2.63079,1.06045,1.57080,0.11675,-0.12763,-0.48151,0.03697,,,,,,,,,,,,,,,,,,,,,,,,,,0,0,0,0,0
1.4211,1783956846.3699,1,1,2.0000,-0.0000,1.42244,-0.00046,-2.63079,1.06045,1.57080,0.11675,-0.12763,-0.48151,0.03697,,,,,,,,,,,,,,,,,,,,,,,,,,0,0,0,0,0
1.4216,1783956846.3704,1,1,2.0000,-0.0000,1.42244,-0.00046,-2.63079,1.06045,1.57080,0.11675,-0.12763,-0.48151,0.03697,,,,,,,,,,,,,,,,,,,,,,,,,,0,0,0,0,0
1.4452,1783956846.3940,1,1,2.0000,-0.0000,1.42244,-0.00047,-2.63080,1.06049,1.57080,0.11675,-0.12763,-0.48151,0.03697,,,,,,,,,,,,,,,,,,,,,,,,,,0,0,0,0,0
1.4455,1783956846.3943,1,1,2.0000,-0.0000,1.42244,-0.00047,-2.63080,1.06049,1.57080,0.11675,-0.12763,-0.48151,0.03697,,,,,,,,,,,,,,,,,,,,,,,,,,0,0,0,0,0
1.4536,1783956846.4025,1,1,2.0000,-0.0000,1.42244,-0.00048,-2.63081,1.06051,1.57080,0.11675,-0.12763,-0.48151,0.03697,,,,,,,,,,,,,,,,,,,,,,,,,,0,0,0,0,0
1.4540,1783956846.4028,1,1,2.0000,-0.0000,1.42244,-0.00048,-2.63081,1.06051,1.57080,0.11675,-0.12763,-0.48151,0.03697,,,,,,,,,,,,,,,,,,,,,,,,,,0,0,0,0,0
1.4610,1783956846.4098,1,1,2.0000,-0.0000,1.42244,-0.00048,-2.63081,1.06051,1.57080,0.11675,-0.12763,-0.48151,0.03697,,,,,,,,,,,,,,,,,,,,,,,,,,0,0,0,0,0
1.5102,1783956846.4591,1,1,2.0000,-0.0000,1.42244,-0.00070,-2.63100,1.06077,1.57080,0.11675,-0.12765,-0.48141,0.03683,,,,,,,,,,,,,,,,,,,,,,,,,,0,0,0,0,0
1.5109,1783956846.4597,1,1,2.0000,-0.0000,1.42244,-0.00070,-2.63100,1.06077,1.57080,0.11675,-0.12765,-0.48141,0.03683,,,,,,,,,,,,,,,,,,,,,,,,,,0,0,0,0,0
1.5112,1783956846.4600,1,1,2.0000,-0.0000,1.42244,-0.00070,-2.63100,1.06077,1.57080,0.11675,-0.12765,-0.48141,0.03683,,,,,,,,,,,,,,,,,,,,,,,,,,0,0,0,0,0
1.5310,1783956846.4798,1,1,2.0000,-0.0000,1.42243,-0.00078,-2.63100,1.06086,1.57080,0.11675,-0.12765,-0.48142,0.03681,,,,,,,,,,,,,,,,,,,,,,,,,,0,0,0,0,0
1.6195,1783956846.5683,1,1,2.0000,-0.0000,1.42243,-0.00130,-2.63106,1.06150,1.57080,0.11675,-0.12764,-0.48146,0.03666,,,,,,,,,,,,,,,,,,,,,,,,,,0,0,0,0,0
1.6199,1783956846.5687,1,1,2.0000,-0.0000,1.42243,-0.00130,-2.63106,1.06150,1.57080,0.11675,-0.12764,-0.48146,0.03666,,,,,,,,,,,,,,,,,,,,,,,,,,0,0,0,0,0
1.6203,1783956846.5691,1,1,2.0000,-0.0000,1.42243,-0.00130,-2.63106,1.06150,1.57080,0.11675,-0.12764,-0.48146,0.03666,,,,,,,,,,,,,,,,,,,,,,,,,,0,0,0,0,0
1.6206,1783956846.5695,1,1,2.0000,-0.0000,1.42243,-0.00130,-2.63106,1.06150,1.57080,0.11675,-0.12764,-0.48146,0.03666,,,,,,,,,,,,,,,,,,,,,,,,,,0,0,0,0,0
1.6211,1783956846.5699,1,1,2.0000,-0.0000,1.42243,-0.00130,-2.63106,1.06150,1.57080,0.11675,-0.12764,-0.48146,0.03666,,,,,,,,,,,,,,,,,,,,,,,,,,0,0,0,0,0
1.6215,1783956846.5703,1,1,2.0000,-0.0000,1.42243,-0.00130,-2.63106,1.06150,1.57080,0.11675,-0.12764,-0.48146,0.03666,,,,,,,,,,,,,,,,,,,,,,,,,,0,0,0,0,0
1.6219,1783956846.5707,1,1,2.0000,-0.0000,1.42243,-0.00130,-2.63106,1.06150,1.57080,0.11675,-0.12764,-0.48146,0.03666,,,,,,,,,,,,,,,,,,,,,,,,,,0,0,0,0,0
1.6222,1783956846.5711,1,1,2.0000,-0.0000,1.42243,-0.00130,-2.63106,1.06150,1.57080,0.11675,-0.12764,-0.48146,0.03666,,,,,,,,,,,,,,,,,,,,,,,,,,0,0,0,0,0
1.7219,1783956846.6707,1,1,2.0000,-0.0000,1.42243,-0.00165,-2.63102,1.06194,1.57080,0.11675,-0.12763,-0.48155,0.03659,,,,,,,,,,,,,,,,,,,,,,,,,,0,0,0,0,0
1.7222,1783956846.6710,1,1,2.0000,-0.0000,1.42243,-0.00165,-2.63102,1.06194,1.57080,0.11675,-0.12763,-0.48155,0.03659,,,,,,,,,,,,,,,,,,,,,,,,,,0,0,0,0,0
1.7227,1783956846.6715,1,1,2.0000,-0.0000,1.42243,-0.00165,-2.63102,1.06194,1.57080,0.11675,-0.12763,-0.48155,0.03659,,,,,,,,,,,,,,,,,,,,,,,,,,0,0,0,0,0
1.7230,1783956846.6718,1,1,2.0000,-0.0000,1.42243,-0.00165,-2.63102,1.06194,1.57080,0.11675,-0.12763,-0.48155,0.03659,,,,,,,,,,,,,,,,,,,,,,,,,,0,0,0,0,0
1.7235,1783956846.6723,1,1,2.0000,-0.0000,1.42243,-0.00165,-2.63102,1.06194,1.57080,0.11675,-0.12763,-0.48155,0.03659,,,,,,,,,,,,,,,,,,,,,,,,,,0,0,0,0,0
1.7239,1783956846.6728,1,1,2.0000,-0.0000,1.42243,-0.00165,-2.63102,1.06194,1.57080,0.11675,-0.12763,-0.48155,0.03659,,,,,,,,,,,,,,,,,,,,,,,,,,0,0,0,0,0
1.7271,1783956846.6760,1,1,2.0000,-0.0000,1.42243,-0.00165,-2.63102,1.06194,1.57080,0.11675,-0.12763,-0.48155,0.03659,,,,,,,,,,,,,,,,,,,,,,,,,,0,0,0,0,0
1.7275,1783956846.6763,1,1,2.0000,-0.0000,1.42243,-0.00165,-2.63102,1.06194,1.57080,0.11675,-0.12763,-0.48155,0.03659,,,,,,,,,,,,,,,,,,,,,,,,,,0,0,0,0,0
1.7415,1783956846.6903,1,1,2.0000,-0.0000,1.42243,-0.00165,-2.63102,1.06194,1.57080,0.11675,-0.12763,-0.48155,0.03659,,,,,,,,,,,,,,,,,,,,,,,,,,0,0,0,0,0
1.7524,1783956846.7012,1,1,2.0000,-0.0000,1.42243,-0.00165,-2.63102,1.06194,1.57080,0.11675,-0.12763,-0.48155,0.03659,,,,,,,,,,,,,,,,,,,,,,,,,,0,0,0,0,0
1.7527,1783956846.7016,1,1,2.0000,-0.0000,1.42243,-0.00165,-2.63102,1.06194,1.57080,0.11675,-0.12763,-0.48155,0.03659,,,,,,,,,,,,,,,,,,,,,,,,,,0,0,0,0,0
1.7616,1783956846.7104,1,1,2.0000,-0.0000,1.42243,-0.00165,-2.63102,1.06194,1.57080,0.11675,-0.12763,-0.48155,0.03659,,,,,,,,,,,,,,,,,,,,,,,,,,0,0,0,0,0
1.7619,1783956846.7107,1,1,2.0000,-0.0000,1.42243,-0.00165,-2.63102,1.06194,1.57080,0.11675,-0.12763,-0.48155,0.03659,,,,,,,,,,,,,,,,,,,,,,,,,,0,0,0,0,0
1.7709,1783956846.7197,1,1,2.0000,-0.0000,1.42243,-0.00165,-2.63102,1.06194,1.57080,0.11675,-0.12763,-0.48155,0.03659,,,,,,,,,,,,,,,,,,,,,,,,,,0,0,0,0,0
1.8643,1783956846.8131,1,1,2.0000,-0.0000,1.42243,-0.00165,-2.63102,1.06194,1.57080,0.11675,-0.12763,-0.48155,0.03659,,,,,,,,,,,,,,,,,,,,,,,,,,0,0,0,0,0
1.8645,1783956846.8133,1,1,2.0000,-0.0000,1.42243,-0.00165,-2.63102,1.06194,1.57080,0.11675,-0.12763,-0.48155,0.03659,,,,,,,,,,,,,,,,,,,,,,,,,,0,0,0,0,0
1.8649,1783956846.8137,1,1,2.0000,-0.0000,1.42243,-0.00165,-2.63102,1.06194,1.57080,0.11675,-0.12763,-0.48155,0.03659,,,,,,,,,,,,,,,,,,,,,,,,,,0,0,0,0,0
1.8651,1783956846.8139,1,1,2.0000,-0.0000,1.42243,-0.00165,-2.63102,1.06194,1.57080,0.11675,-0.12763,-0.48155,0.03659,,,,,,,,,,,,,,,,,,,,,,,,,,0,0,0,0,0
1.8728,1783956846.8216,1,1,2.0000,-0.0000,1.42243,-0.00165,-2.63102,1.06194,1.57080,0.11675,-0.12763,-0.48155,0.03659,,,,,,,,,,,,,,,,,,,,,,,,,,0,0,0,0,0
1.8730,1783956846.8219,1,1,2.0000,-0.0000,1.42243,-0.00165,-2.63102,1.06194,1.57080,0.11675,-0.12763,-0.48155,0.03659,,,,,,,,,,,,,,,,,,,,,,,,,,0,0,0,0,0
1.8735,1783956846.8223,1,1,2.0000,-0.0000,1.42243,-0.00165,-2.63102,1.06194,1.57080,0.11675,-0.12763,-0.48155,0.03659,,,,,,,,,,,,,,,,,,,,,,,,,,0,0,0,0,0
1.8803,1783956846.8292,1,1,2.0000,-0.0000,1.42243,-0.00165,-2.63103,1.06195,1.57080,0.11675,-0.12763,-0.48154,0.03659,,,,,,,,,,,,,,,,,,,,,,,,,,0,0,0,0,0
1.8806,1783956846.8294,1,1,2.0000,-0.0000,1.42243,-0.00165,-2.63103,1.06195,1.57080,0.11675,-0.12763,-0.48154,0.03659,,,,,,,,,,,,,,,,,,,,,,,,,,0,0,0,0,0
1.9006,1783956846.8494,1,1,2.0000,-0.0000,1.42243,-0.00171,-2.63110,1.06202,1.57080,0.11675,-0.12763,-0.48151,0.03655,,,,,,,,,,,,,,,,,,,,,,,,,,0,0,0,0,0
1.9022,1783956846.8510,1,1,2.0000,-0.0000,1.42243,-0.00171,-2.63110,1.06202,1.57080,0.11675,-0.12763,-0.48151,0.03655,,,,,,,,,,,,,,,,,,,,,,,,,,0,0,0,0,0
1.9268,1783956846.8756,1,1,2.0000,-0.0000,1.42243,-0.00178,-2.63115,1.06210,1.57080,0.11675,-0.12764,-0.48148,0.03651,,,,,,,,,,,,,,,,,,,,,,,,,,0,0,0,0,0
1.9272,1783956846.8760,1,1,2.0000,-0.0000,1.42243,-0.00178,-2.63115,1.06210,1.57080,0.11675,-0.12764,-0.48148,0.03651,,,,,,,,,,,,,,,,,,,,,,,,,,0,0,0,0,0
1.9275,1783956846.8763,1,1,2.0000,-0.0000,1.42243,-0.00178,-2.63115,1.06210,1.57080,0.11675,-0.12764,-0.48148,0.03651,,,,,,,,,,,,,,,,,,,,,,,,,,0,0,0,0,0
1.9290,1783956846.8778,1,1,2.0000,-0.0000,1.42243,-0.00178,-2.63115,1.06210,1.57080,0.11675,-0.12764,-0.48148,0.03651,,,,,,,,,,,,,,,,,,,,,,,,,,0,0,0,0,0
1.9293,1783956846.8781,1,1,2.0000,-0.0000,1.42243,-0.00178,-2.63115,1.06210,1.57080,0.11675,-0.12764,-0.48148,0.03651,,,,,,,,,,,,,,,,,,,,,,,,,,0,0,0,0,0
1.9614,1783956846.9103,1,1,2.0000,-0.0000,1.42243,-0.00195,-2.63121,1.06232,1.57080,0.11675,-0.12764,-0.48146,0.03644,,,,,,,,,,,,,,,,,,,,,,,,,,0,0,0,0,0
1.9617,1783956846.9106,1,1,2.0000,-0.0000,1.42243,-0.00195,-2.63121,1.06232,1.57080,0.11675,-0.12764,-0.48146,0.03644,,,,,,,,,,,,,,,,,,,,,,,,,,0,0,0,0,0
1.9637,1783956846.9125,1,1,2.0000,-0.0000,1.42243,-0.00196,-2.63121,1.06233,1.57080,0.11675,-0.12764,-0.48146,0.03643,,,,,,,,,,,,,,,,,,,,,,,,,,0,0,0,0,0
1.9640,1783956846.9128,1,1,2.0000,-0.0000,1.42243,-0.00196,-2.63121,1.06233,1.57080,0.11675,-0.12764,-0.48146,0.03643,,,,,,,,,,,,,,,,,,,,,,,,,,0,0,0,0,0
1.9736,1783956846.9224,1,1,2.0000,-0.0000,1.42243,-0.00200,-2.63122,1.06238,1.57080,0.11675,-0.12764,-0.48146,0.03642,,,,,,,,,,,,,,,,,,,,,,,,,,0,0,0,0,0
1.9792,1783956846.9280,1,1,2.0000,-0.0000,1.42243,-0.00208,-2.63124,1.06247,1.57080,0.11675,-0.12764,-0.48146,0.03639,,,,,,,,,,,,,,,,,,,,,,,,,,0,0,0,0,0
1.9919,1783956846.9407,1,1,2.0000,-0.0000,1.42243,-0.00223,-2.63127,1.06265,1.57080,0.11675,-0.12764,-0.48146,0.03634,,,,,,,,,,,,,,,,,,,,,,,,,,0,0,0,0,0
2.0035,1783956846.9523,1,1,2.0000,-0.0000,1.42243,-0.00225,-2.63128,1.06267,1.57080,0.11675,-0.12764,-0.48146,0.03633,,,,,,,,,,,,,,,,,,,,,,,,,,0,0,0,0,0
2.0110,1783956846.9598,1,1,2.0000,-0.0000,1.42243,-0.00230,-2.63129,1.06274,1.57080,0.11675,-0.12764,-0.48146,0.03632,,,,,,,,,,,,,,,,,,,,,,,,,,0,0,0,0,0
2.0270,1783956846.9758,1,1,2.0000,-0.0000,1.42243,-0.00236,-2.63130,1.06281,1.57080,0.11675,-0.12764,-0.48146,0.03630,,,,,,,,,,,,,,,,,,,,,,,,,,0,0,0,0,0
2.0274,1783956846.9762,1,1,2.0000,-0.0000,1.42243,-0.00236,-2.63130,1.06281,1.57080,0.11675,-0.12764,-0.48146,0.03630,,,,,,,,,,,,,,,,,,,,,,,,,,0,0,0,0,0
2.0290,1783956846.9778,1,1,2.0000,-0.0000,1.42243,-0.00236,-2.63130,1.06281,1.57080,0.11675,-0.12764,-0.48146,0.03630,,,,,,,,,,,,,,,,,,,,,,,,,,0,0,0,0,0
2.0294,1783956846.9782,1,1,2.0000,-0.0000,1.42243,-0.00236,-2.63130,1.06281,1.57080,0.11675,-0.12764,-0.48146,0.03630,,,,,,,,,,,,,,,,,,,,,,,,,,0,0,0,0,0
2.0615,1783956847.0104,1,1,2.0000,-0.0000,1.42243,-0.00267,-2.63132,1.06320,1.57080,0.11675,-0.12763,-0.48150,0.03622,,,,,,,,,,,,,,,,,,,,,,,,,,0,0,0,0,0
2.0619,1783956847.0107,1,1,2.0000,-0.0000,1.42243,-0.00267,-2.63132,1.06320,1.57080,0.11675,-0.12763,-0.48150,0.03622,,,,,,,,,,,,,,,,,,,,,,,,,,0,0,0,0,0
2.0663,1783956847.0151,1,1,2.0000,-0.0000,1.42243,-0.00271,-2.63132,1.06325,1.57080,0.11675,-0.12763,-0.48151,0.03621,,,,,,,,,,,,,,,,,,,,,,,,,,0,0,0,0,0
2.0668,1783956847.0156,1,1,2.0000,-0.0000,1.42243,-0.00275,-2.63132,1.06330,1.57080,0.11675,-0.12763,-0.48152,0.03620,,,,,,,,,,,,,,,,,,,,,,,,,,0,0,0,0,0
2.0770,1783956847.0258,1,1,2.0000,-0.0000,1.42243,-0.00281,-2.63131,1.06337,1.57080,0.11675,-0.12763,-0.48153,0.03619,,,,,,,,,,,,,,,,,,,,,,,,,,0,0,0,0,0
2.0773,1783956847.0261,1,1,2.0000,-0.0000,1.42243,-0.00281,-2.63131,1.06337,1.57080,0.11675,-0.12763,-0.48153,0.03619,,,,,,,,,,,,,,,,,,,,,,,,,,0,0,0,0,0
2.0909,1783956847.0398,1,1,2.0000,-0.0000,1.42243,-0.00282,-2.63130,1.06339,1.57080,0.11675,-0.12763,-0.48154,0.03619,,,,,,,,,,,,,,,,,,,,,,,,,,0,0,0,0,0
2.1312,1783956847.0800,1,1,2.0000,-0.0000,1.42243,-0.00282,-2.63130,1.06339,1.57080,0.11675,-0.12763,-0.48154,0.03619,,,,,,,,,,,,,,,,,,,,,,,,,,0,0,0,0,0
2.1315,1783956847.0803,1,1,2.0000,-0.0000,1.42243,-0.00282,-2.63130,1.06339,1.57080,0.11675,-0.12763,-0.48154,0.03619,,,,,,,,,,,,,,,,,,,,,,,,,,0,0,0,0,0
2.1318,1783956847.0806,1,1,2.0000,-0.0000,1.42243,-0.00282,-2.63130,1.06339,1.57080,0.11675,-0.12763,-0.48154,0.03619,,,,,,,,,,,,,,,,,,,,,,,,,,0,0,0,0,0
2.1371,1783956847.0859,1,1,2.0000,-0.0000,1.42243,-0.00282,-2.63130,1.06339,1.57080,0.11675,-0.12763,-0.48154,0.03619,,,,,,,,,,,,,,,,,,,,,,,,,,0,0,0,0,0
2.1375,1783956847.0863,1,1,2.0000,-0.0000,1.42243,-0.00282,-2.63130,1.06339,1.57080,0.11675,-0.12763,-0.48154,0.03619,,,,,,,,,,,,,,,,,,,,,,,,,,0,0,0,0,0
2.1639,1783956847.1127,1,1,2.0000,-0.0000,1.42243,-0.00282,-2.63130,1.06339,1.57080,0.11675,-0.12763,-0.48154,0.03619,,,,,,,,,,,,,,,,,,,,,,,,,,0,0,0,0,0
2.1688,1783956847.1177,1,1,2.0000,-0.0000,1.42243,-0.00282,-2.63130,1.06339,1.57080,0.11675,-0.12763,-0.48154,0.03619,,,,,,,,,,,,,,,,,,,,,,,,,,0,0,0,0,0
2.1692,1783956847.1180,1,1,2.0000,-0.0000,1.42243,-0.00282,-2.63130,1.06339,1.57080,0.11675,-0.12763,-0.48154,0.03619,,,,,,,,,,,,,,,,,,,,,,,,,,0,0,0,0,0
2.1695,1783956847.1183,1,1,2.0000,-0.0000,1.42243,-0.00282,-2.63130,1.06339,1.57080,0.11675,-0.12763,-0.48154,0.03619,,,,,,,,,,,,,,,,,,,,,,,,,,0,0,0,0,0
2.1698,1783956847.1186,1,1,2.0000,-0.0000,1.42243,-0.00282,-2.63130,1.06339,1.57080,0.11675,-0.12763,-0.48154,0.03619,,,,,,,,,,,,,,,,,,,,,,,,,,0,0,0,0,0
2.1793,1783956847.1282,1,1,2.0000,-0.0000,1.42243,-0.00282,-2.63130,1.06339,1.57080,0.11675,-0.12763,-0.48154,0.03619,,,,,,,,,,,,,,,,,,,,,,,,,,0,0,0,0,0
2.1909,1783956847.1397,1,1,2.0000,-0.0000,1.42243,-0.00282,-2.63130,1.06339,1.57080,0.11675,-0.12763,-0.48154,0.03619,,,,,,,,,,,,,,,,,,,,,,,,,,0,0,0,0,0
2.1913,1783956847.1401,1,1,2.0000,-0.0000,1.42243,-0.00282,-2.63130,1.06339,1.57080,0.11675,-0.12763,-0.48154,0.03619,,,,,,,,,,,,,,,,,,,,,,,,,,0,0,0,0,0
2.2110,1783956847.1598,1,1,2.0000,-0.0000,1.42243,-0.00282,-2.63130,1.06339,1.57080,0.11675,-0.12763,-0.48154,0.03619,,,,,,,,,,,,,,,,,,,,,,,,,,0,0,0,0,0
2.2199,1783956847.1687,1,1,2.0000,-0.0000,1.42243,-0.00282,-2.63130,1.06339,1.57080,0.11675,-0.12763,-0.48154,0.03619,,,,,,,,,,,,,,,,,,,,,,,,,,0,0,0,0,0
2.2201,1783956847.1689,1,1,2.0000,-0.0000,1.42243,-0.00282,-2.63130,1.06339,1.57080,0.11675,-0.12763,-0.48154,0.03619,,,,,,,,,,,,,,,,,,,,,,,,,,0,0,0,0,0
2.2269,1783956847.1758,1,1,2.0000,-0.0000,1.42243,-0.00282,-2.63130,1.06339,1.57080,0.11675,-0.12763,-0.48154,0.03619,,,,,,,,,,,,,,,,,,,,,,,,,,0,0,0,0,0
2.2326,1783956847.1814,1,1,2.0000,-0.0000,1.42243,-0.00282,-2.63130,1.06339,1.57080,0.11675,-0.12763,-0.48154,0.03619,,,,,,,,,,,,,,,,,,,,,,,,,,0,0,0,0,0
2.2388,1783956847.1877,1,1,2.0000,-0.0000,1.42243,-0.00282,-2.63130,1.06339,1.57080,0.11675,-0.12763,-0.48154,0.03619,,,,,,,,,,,,,,,,,,,,,,,,,,0,0,0,0,0
2.2392,1783956847.1880,1,1,2.0000,-0.0000,1.42243,-0.00282,-2.63130,1.06339,1.57080,0.11675,-0.12763,-0.48154,0.03619,,,,,,,,,,,,,,,,,,,,,,,,,,0,0,0,0,0
2.2630,1783956847.2118,1,1,2.0000,-0.0000,1.42243,-0.00282,-2.63130,1.06339,1.57080,0.11675,-0.12763,-0.48154,0.03619,,,,,,,,,,,,,,,,,,,,,,,,,,0,0,0,0,0
2.2634,1783956847.2123,1,1,2.0000,-0.0000,1.42243,-0.00282,-2.63130,1.06339,1.57080,0.11675,-0.12763,-0.48154,0.03619,,,,,,,,,,,,,,,,,,,,,,,,,,0,0,0,0,0
2.2814,1783956847.2302,1,1,2.0000,-0.0000,1.42243,-0.00282,-2.63130,1.06339,1.57080,0.11675,-0.12763,-0.48154,0.03619,,,,,,,,,,,,,,,,,,,,,,,,,,0,0,0,0,0
2.3013,1783956847.2501,1,1,2.0000,-0.0000,1.42243,-0.00283,-2.63131,1.06340,1.57080,0.11675,-0.12763,-0.48153,0.03618,,,,,,,,,,,,,,,,,,,,,,,,,,0,0,0,0,0
2.3017,1783956847.2505,1,1,2.0000,-0.0000,1.42243,-0.00283,-2.63131,1.06340,1.57080,0.11675,-0.12763,-0.48153,0.03618,,,,,,,,,,,,,,,,,,,,,,,,,,0,0,0,0,0
2.3270,1783956847.2758,1,1,2.0000,-0.0000,1.42243,-0.00289,-2.63137,1.06347,1.57080,0.11675,-0.12763,-0.48150,0.03614,,,,,,,,,,,,,,,,,,,,,,,,,,0,0,0,0,0
2.3337,1783956847.2825,1,1,2.0000,-0.0000,1.42243,-0.00289,-2.63137,1.06348,1.57080,0.11675,-0.12763,-0.48150,0.03614,,,,,,,,,,,,,,,,,,,,,,,,,,0,0,0,0,0
2.3340,1783956847.2828,1,1,2.0000,-0.0000,1.42243,-0.00289,-2.63137,1.06348,1.57080,0.11675,-0.12763,-0.48150,0.03614,,,,,,,,,,,,,,,,,,,,,,,,,,0,0,0,0,0
2.3403,1783956847.2891,1,1,2.0000,-0.0000,1.42243,-0.00292,-2.63139,1.06351,1.57080,0.11675,-0.12763,-0.48149,0.03612,,,,,,,,,,,,,,,,,,,,,,,,,,0,0,0,0,0
2.3668,1783956847.3157,1,1,2.0000,-0.0000,1.42243,-0.00304,-2.63144,1.06365,1.57080,0.11675,-0.12763,-0.48147,0.03607,,,,,,,,,,,,,,,,,,,,,,,,,,0,0,0,0,0
2.3672,1783956847.3160,1,1,2.0000,-0.0000,1.42243,-0.00304,-2.63144,1.06365,1.57080,0.11675,-0.12763,-0.48147,0.03607,,,,,,,,,,,,,,,,,,,,,,,,,,0,0,0,0,0
2.3691,1783956847.3180,1,1,2.0000,-0.0000,1.42243,-0.00304,-2.63144,1.06365,1.57080,0.11675,-0.12763,-0.48147,0.03607,,,,,,,,,,,,,,,,,,,,,,,,,,0,0,0,0,0
2.3695,1783956847.3183,1,1,2.0000,-0.0000,1.42243,-0.00304,-2.63144,1.06365,1.57080,0.11675,-0.12763,-0.48147,0.03607,,,,,,,,,,,,,,,,,,,,,,,,,,0,0,0,0,0
2.3831,1783956847.3320,1,1,2.0000,-0.0000,1.42243,-0.00315,-2.63148,1.06379,1.57080,0.11675,-0.12764,-0.48146,0.03603,,,,,,,,,,,,,,,,,,,,,,,,,,0,0,0,0,0
2.3891,1783956847.3380,1,1,2.0000,-0.0000,1.42243,-0.00316,-2.63148,1.06379,1.57080,0.11675,-0.12764,-0.48146,0.03603,,,,,,,,,,,,,,,,,,,,,,,,,,0,0,0,0,0
2.3897,1783956847.3385,1,1,2.0000,-0.0000,1.42243,-0.00316,-2.63148,1.06379,1.57080,0.11675,-0.12764,-0.48146,0.03603,,,,,,,,,,,,,,,,,,,,,,,,,,0,0,0,0,0
2.4091,1783956847.3579,1,1,2.0000,-0.0000,1.42243,-0.00330,-2.63151,1.06397,1.57080,0.11675,-0.12764,-0.48146,0.03598,,,,,,,,,,,,,,,,,,,,,,,,,,0,0,0,0,0
2.4111,1783956847.3599,1,1,2.0000,-0.0000,1.42243,-0.00335,-2.63152,1.06402,1.57080,0.11675,-0.12764,-0.48146,0.03596,,,,,,,,,,,,,,,,,,,,,,,,,,0,0,0,0,0
2.4113,1783956847.3601,1,1,2.0000,-0.0000,1.42243,-0.00335,-2.63152,1.06402,1.57080,0.11675,-0.12764,-0.48146,0.03596,,,,,,,,,,,,,,,,,,,,,,,,,,0,0,0,0,0
2.4420,1783956847.3908,1,1,2.0000,-0.0000,1.42243,-0.00347,-2.63154,1.06416,1.57080,0.11675,-0.12764,-0.48146,0.03592,,,,,,,,,,,,,,,,,,,,,,,,,,0,0,0,0,0
2.4423,1783956847.3911,1,1,2.0000,-0.0000,1.42243,-0.00347,-2.63154,1.06416,1.57080,0.11675,-0.12764,-0.48146,0.03592,,,,,,,,,,,,,,,,,,,,,,,,,,0,0,0,0,0
2.4439,1783956847.3928,1,1,2.0000,-0.0000,1.42243,-0.00347,-2.63154,1.06417,1.57080,0.11675,-0.12764,-0.48146,0.03592,,,,,,,,,,,,,,,,,,,,,,,,,,0,0,0,0,0
2.4442,1783956847.3930,1,1,2.0000,-0.0000,1.42243,-0.00347,-2.63154,1.06417,1.57080,0.11675,-0.12764,-0.48146,0.03592,,,,,,,,,,,,,,,,,,,,,,,,,,0,0,0,0,0
2.4510,1783956847.3998,1,1,2.0000,-0.0000,1.42242,-0.00351,-2.63155,1.06422,1.57080,0.11675,-0.12763,-0.48147,0.03591,,,,,,,,,,,,,,,,,,,,,,,,,,0,0,0,0,0
2.4616,1783956847.4104,1,1,2.0000,-0.0000,1.42242,-0.00359,-2.63156,1.06431,1.57080,0.11675,-0.12763,-0.48147,0.03589,,,,,,,,,,,,,,,,,,,,,,,,,,0,0,0,0,0
2.4691,1783956847.4179,1,1,2.0000,-0.0000,1.42242,-0.00368,-2.63157,1.06442,1.57080,0.11675,-0.12763,-0.48148,0.03586,,,,,,,,,,,,,,,,,,,,,,,,,,0,0,0,0,0
2.4860,1783956847.4348,1,1,2.0000,-0.0000,1.42242,-0.00387,-2.63160,1.06466,1.57080,0.11675,-0.12763,-0.48149,0.03580,,,,,,,,,,,,,,,,,,,,,,,,,,0,0,0,0,0
2.4909,1783956847.4397,1,1,2.0000,-0.0000,1.42242,-0.00395,-2.63160,1.06475,1.57080,0.11675,-0.12763,-0.48150,0.03578,,,,,,,,,,,,,,,,,,,,,,,,,,0,0,0,0,0
2.5050,1783956847.4538,1,1,2.0000,-0.0000,1.42242,-0.00399,-2.63160,1.06481,1.57080,0.11675,-0.12763,-0.48151,0.03577,,,,,,,,,,,,,,,,,,,,,,,,,,0,0,0,0,0
2.5132,1783956847.4621,1,1,2.0000,-0.0000,1.42242,-0.00399,-2.63160,1.06481,1.57080,0.11675,-0.12763,-0.48151,0.03577,,,,,,,,,,,,,,,,,,,,,,,,,,0,0,0,0,0
2.5228,1783956847.4716,1,1,2.0000,-0.0000,1.42242,-0.00399,-2.63160,1.06481,1.57080,0.11675,-0.12763,-0.48151,0.03577,,,,,,,,,,,,,,,,,,,,,,,,,,0,0,0,0,0
2.5302,1783956847.4791,1,1,2.0000,-0.0000,1.42242,-0.00399,-2.63160,1.06481,1.57080,0.11675,-0.12763,-0.48151,0.03577,,,,,,,,,,,,,,,,,,,,,,,,,,0,0,0,0,0
2.5305,1783956847.4793,1,1,2.0000,-0.0000,1.42242,-0.00399,-2.63160,1.06481,1.57080,0.11675,-0.12763,-0.48151,0.03577,,,,,,,,,,,,,,,,,,,,,,,,,,0,0,0,0,0
2.5470,1783956847.4958,1,1,2.0000,-0.0000,1.42242,-0.00399,-2.63160,1.06481,1.57080,0.11675,-0.12763,-0.48151,0.03577,,,,,,,,,,,,,,,,,,,,,,,,,,0,0,0,0,0
2.5689,1783956847.5177,1,1,2.0000,-0.0000,1.42242,-0.00399,-2.63160,1.06481,1.57080,0.11675,-0.12763,-0.48151,0.03577,,,,,,,,,,,,,,,,,,,,,,,,,,0,0,0,0,0
2.5692,1783956847.5180,1,1,2.0000,-0.0000,1.42242,-0.00399,-2.63160,1.06481,1.57080,0.11675,-0.12763,-0.48151,0.03577,,,,,,,,,,,,,,,,,,,,,,,,,,0,0,0,0,0
2.5696,1783956847.5185,1,1,2.0000,-0.0000,1.42242,-0.00399,-2.63160,1.06481,1.57080,0.11675,-0.12763,-0.48151,0.03577,,,,,,,,,,,,,,,,,,,,,,,,,,0,0,0,0,0
2.5700,1783956847.5188,1,1,2.0000,-0.0000,1.42242,-0.00399,-2.63160,1.06481,1.57080,0.11675,-0.12763,-0.48151,0.03577,,,,,,,,,,,,,,,,,,,,,,,,,,0,0,0,0,0
2.5789,1783956847.5277,1,1,2.0000,-0.0000,1.42242,-0.00399,-2.63160,1.06481,1.57080,0.11675,-0.12763,-0.48151,0.03577,,,,,,,,,,,,,,,,,,,,,,,,,,0,0,0,0,0
2.5792,1783956847.5280,1,1,2.0000,-0.0000,1.42242,-0.00399,-2.63160,1.06481,1.57080,0.11675,-0.12763,-0.48151,0.03577,,,,,,,,,,,,,,,,,,,,,,,,,,0,0,0,0,0
2.5938,1783956847.5426,1,1,2.0000,-0.0000,1.42242,-0.00399,-2.63160,1.06481,1.57080,0.11675,-0.12763,-0.48151,0.03577,,,,,,,,,,,,,,,,,,,,,,,,,,0,0,0,0,0
2.6160,1783956847.5648,1,1,2.0000,-0.0000,1.42242,-0.00399,-2.63160,1.06481,1.57080,0.11675,-0.12763,-0.48151,0.03577,,,,,,,,,,,,,,,,,,,,,,,,,,0,0,0,0,0
2.6163,1783956847.5651,1,1,2.0000,-0.0000,1.42242,-0.00399,-2.63160,1.06481,1.57080,0.11675,-0.12763,-0.48151,0.03577,,,,,,,,,,,,,,,,,,,,,,,,,,0,0,0,0,0
2.6270,1783956847.5758,1,1,2.0000,-0.0000,1.42242,-0.00399,-2.63160,1.06481,1.57080,0.11675,-0.12763,-0.48151,0.03577,,,,,,,,,,,,,,,,,,,,,,,,,,0,0,0,0,0
2.6273,1783956847.5761,1,1,2.0000,-0.0000,1.42242,-0.00399,-2.63160,1.06481,1.57080,0.11675,-0.12763,-0.48151,0.03577,,,,,,,,,,,,,,,,,,,,,,,,,,0,0,0,0,0
2.6333,1783956847.5822,1,1,2.0000,-0.0000,1.42242,-0.00399,-2.63160,1.06481,1.57080,0.11675,-0.12763,-0.48151,0.03577,,,,,,,,,,,,,,,,,,,,,,,,,,0,0,0,0,0
2.6412,1783956847.5900,1,1,2.0000,-0.0000,1.42242,-0.00399,-2.63160,1.06481,1.57080,0.11675,-0.12763,-0.48151,0.03577,,,,,,,,,,,,,,,,,,,,,,,,,,0,0,0,0,0
2.6416,1783956847.5904,1,1,2.0000,-0.0000,1.42242,-0.00399,-2.63160,1.06481,1.57080,0.11675,-0.12763,-0.48151,0.03577,,,,,,,,,,,,,,,,,,,,,,,,,,0,0,0,0,0
2.6738,1783956847.6226,1,1,2.0000,-0.0000,1.42242,-0.00399,-2.63160,1.06481,1.57080,0.11675,-0.12763,-0.48151,0.03577,,,,,,,,,,,,,,,,,,,,,,,,,,0,0,0,0,0
2.6741,1783956847.6229,1,1,2.0000,-0.0000,1.42242,-0.00399,-2.63160,1.06481,1.57080,0.11675,-0.12763,-0.48151,0.03577,,,,,,,,,,,,,,,,,,,,,,,,,,0,0,0,0,0
2.6746,1783956847.6234,1,1,2.0000,-0.0000,1.42242,-0.00399,-2.63160,1.06481,1.57080,0.11675,-0.12763,-0.48151,0.03577,,,,,,,,,,,,,,,,,,,,,,,,,,0,0,0,0,0
2.7329,1783956847.6817,1,1,2.0000,-0.0000,1.42242,-0.00403,-2.63163,1.06486,1.57080,0.11675,-0.12763,-0.48149,0.03575,,,,,,,,,,,,,,,,,,,,,,,,,,0,0,0,0,0
2.7332,1783956847.6821,1,1,2.0000,-0.0000,1.42242,-0.00403,-2.63163,1.06486,1.57080,0.11675,-0.12763,-0.48149,0.03575,,,,,,,,,,,,,,,,,,,,,,,,,,0,0,0,0,0
2.7336,1783956847.6824,1,1,2.0000,-0.0000,1.42242,-0.00403,-2.63163,1.06486,1.57080,0.11675,-0.12763,-0.48149,0.03575,,,,,,,,,,,,,,,,,,,,,,,,,,0,0,0,0,0
2.7343,1783956847.6831,1,1,2.0000,-0.0000,1.42242,-0.00403,-2.63163,1.06486,1.57080,0.11675,-0.12763,-0.48149,0.03575,,,,,,,,,,,,,,,,,,,,,,,,,,0,0,0,0,0
2.7351,1783956847.6840,1,1,2.0000,-0.0000,1.42242,-0.00404,-2.63165,1.06488,1.57080,0.11675,-0.12763,-0.48149,0.03574,,,,,,,,,,,,,,,,,,,,,,,,,,0,0,0,0,0
2.7547,1783956847.7035,1,1,2.0000,-0.0000,1.42242,-0.00408,-2.63167,1.06492,1.57080,0.11675,-0.12763,-0.48147,0.03572,,,,,,,,,,,,,,,,,,,,,,,,,,0,0,0,0,0
2.7847,1783956847.7336,1,1,2.0000,-0.0000,1.42242,-0.00418,-2.63173,1.06504,1.57080,0.11675,-0.12764,-0.48145,0.03567,,,,,,,,,,,,,,,,,,,,,,,,,,0,0,0,0,0
2.7878,1783956847.7366,1,1,2.0000,-0.0000,1.42242,-0.00420,-2.63173,1.06506,1.57080,0.11675,-0.12764,-0.48145,0.03566,,,,,,,,,,,,,,,,,,,,,,,,,,0,0,0,0,0
2.7923,1783956847.7411,1,1,2.0000,-0.0000,1.42242,-0.00422,-2.63174,1.06509,1.57080,0.11675,-0.12764,-0.48145,0.03566,,,,,,,,,,,,,,,,,,,,,,,,,,0,0,0,0,0
2.7927,1783956847.7415,1,1,2.0000,-0.0000,1.42242,-0.00422,-2.63174,1.06509,1.57080,0.11675,-0.12764,-0.48145,0.03566,,,,,,,,,,,,,,,,,,,,,,,,,,0,0,0,0,0
2.8409,1783956847.7897,1,1,2.0000,-0.0000,1.42242,-0.00450,-2.63179,1.06542,1.57080,0.11675,-0.12764,-0.48145,0.03557,,,,,,,,,,,,,,,,,,,,,,,,,,0,0,0,0,0
2.8413,1783956847.7901,1,1,2.0000,-0.0000,1.42242,-0.00450,-2.63179,1.06542,1.57080,0.11675,-0.12764,-0.48145,0.03557,,,,,,,,,,,,,,,,,,,,,,,,,,0,0,0,0,0
2.8417,1783956847.7905,1,1,2.0000,-0.0000,1.42242,-0.00450,-2.63179,1.06542,1.57080,0.11675,-0.12764,-0.48145,0.03557,,,,,,,,,,,,,,,,,,,,,,,,,,0,0,0,0,0
2.8420,1783956847.7908,1,1,2.0000,-0.0000,1.42242,-0.00450,-2.63179,1.06542,1.57080,0.11675,-0.12764,-0.48145,0.03557,,,,,,,,,,,,,,,,,,,,,,,,,,0,0,0,0,0
2.8524,1783956847.8013,1,1,2.0000,-0.0000,1.42242,-0.00460,-2.63181,1.06555,1.57080,0.11675,-0.12763,-0.48145,0.03553,,,,,,,,,,,,,,,,,,,,,,,,,,0,0,0,0,0
2.8796,1783956847.8284,1,1,2.0000,-0.0000,1.42242,-0.00477,-2.63183,1.06575,1.57080,0.11675,-0.12763,-0.48146,0.03548,,,,,,,,,,,,,,,,,,,,,,,,,,0,0,0,0,0
2.8798,1783956847.8287,1,1,2.0000,-0.0000,1.42242,-0.00477,-2.63183,1.06575,1.57080,0.11675,-0.12763,-0.48146,0.03548,,,,,,,,,,,,,,,,,,,,,,,,,,0,0,0,0,0
2.8860,1783956847.8348,1,1,2.0000,-0.0000,1.42242,-0.00481,-2.63184,1.06579,1.57080,0.11675,-0.12763,-0.48146,0.03547,,,,,,,,,,,,,,,,,,,,,,,,,,0,0,0,0,0
2.8911,1783956847.8399,1,1,2.0000,-0.0000,1.42242,-0.00489,-2.63185,1.06589,1.57080,0.11675,-0.12763,-0.48147,0.03545,,,,,,,,,,,,,,,,,,,,,,,,,,0,0,0,0,0
2.8914,1783956847.8403,1,1,2.0000,-0.0000,1.42242,-0.00489,-2.63185,1.06589,1.57080,0.11675,-0.12763,-0.48147,0.03545,,,,,,,,,,,,,,,,,,,,,,,,,,0,0,0,0,0
2.9014,1783956847.8502,1,1,2.0000,-0.0000,1.42242,-0.00498,-2.63185,1.06600,1.57080,0.11675,-0.12763,-0.48148,0.03542,,,,,,,,,,,,,,,,,,,,,,,,,,0,0,0,0,0
2.9229,1783956847.8717,1,1,2.0000,-0.0000,1.42242,-0.00518,-2.63185,1.06627,1.57080,0.11675,-0.12762,-0.48152,0.03538,,,,,,,,,,,,,,,,,,,,,,,,,,0,0,0,0,0
2.9230,1783956847.8719,1,1,2.0000,-0.0000,1.42242,-0.00518,-2.63185,1.06627,1.57080,0.11675,-0.12762,-0.48152,0.03538,,,,,,,,,,,,,,,,,,,,,,,,,,0,0,0,0,0
2.9336,1783956847.8824,1,1,2.0000,-0.0000,1.42242,-0.00518,-2.63185,1.06627,1.57080,0.11675,-0.12762,-0.48152,0.03538,,,,,,,,,,,,,,,,,,,,,,,,,,0,0,0,0,0
2.9406,1783956847.8894,1,1,2.0000,-0.0000,1.42242,-0.00518,-2.63185,1.06627,1.57080,0.11675,-0.12762,-0.48152,0.03538,,,,,,,,,,,,,,,,,,,,,,,,,,0,0,0,0,0
2.9566,1783956847.9054,1,1,2.0000,-0.0000,1.42242,-0.00518,-2.63185,1.06627,1.57080,0.11675,-0.12762,-0.48152,0.03538,,,,,,,,,,,,,,,,,,,,,,,,,,0,0,0,0,0
2.9568,1783956847.9056,1,1,2.0000,-0.0000,1.42242,-0.00518,-2.63185,1.06627,1.57080,0.11675,-0.12762,-0.48152,0.03538,,,,,,,,,,,,,,,,,,,,,,,,,,0,0,0,0,0
2.9868,1783956847.9356,1,1,2.0000,-0.0000,1.42242,-0.00518,-2.63185,1.06627,1.57080,0.11675,-0.12762,-0.48152,0.03538,,,,,,,,,,,,,,,,,,,,,,,,,,0,0,0,0,0
2.9871,1783956847.9359,1,1,2.0000,-0.0000,1.42242,-0.00518,-2.63185,1.06627,1.57080,0.11675,-0.12762,-0.48152,0.03538,,,,,,,,,,,,,,,,,,,,,,,,,,0,0,0,0,0
2.9874,1783956847.9363,1,1,2.0000,-0.0000,1.42242,-0.00518,-2.63185,1.06627,1.57080,0.11675,-0.12762,-0.48152,0.03538,,,,,,,,,,,,,,,,,,,,,,,,,,0,0,0,0,0
2.9909,1783956847.9397,1,1,2.0000,-0.0000,1.42242,-0.00518,-2.63185,1.06627,1.57080,0.11675,-0.12762,-0.48152,0.03538,,,,,,,,,,,,,,,,,,,,,,,,,,0,0,0,0,0
3.0131,1783956847.9619,1,1,2.0000,-0.0000,1.42242,-0.00518,-2.63185,1.06627,1.57080,0.11675,-0.12762,-0.48152,0.03538,,,,,,,,,,,,,,,,,,,,,,,,,,0,0,0,0,0
3.0295,1783956847.9783,1,1,2.0000,-0.0000,1.42242,-0.00518,-2.63185,1.06627,1.57080,0.11675,-0.12762,-0.48152,0.03538,,,,,,,,,,,,,,,,,,,,,,,,,,0,0,0,0,0
3.0299,1783956847.9787,1,1,2.0000,-0.0000,1.42242,-0.00518,-2.63185,1.06627,1.57080,0.11675,-0.12762,-0.48152,0.03538,,,,,,,,,,,,,,,,,,,,,,,,,,0,0,0,0,0
3.0347,1783956847.9835,1,1,2.0000,-0.0000,1.42242,-0.00518,-2.63185,1.06627,1.57080,0.11675,-0.12762,-0.48152,0.03538,,,,,,,,,,,,,,,,,,,,,,,,,,0,0,0,0,0
3.0350,1783956847.9838,1,1,2.0000,-0.0000,1.42242,-0.00518,-2.63185,1.06627,1.57080,0.11675,-0.12762,-0.48152,0.03538,,,,,,,,,,,,,,,,,,,,,,,,,,0,0,0,0,0
3.0427,1783956847.9915,1,1,2.0000,-0.0000,1.42242,-0.00518,-2.63185,1.06627,1.57080,0.11675,-0.12762,-0.48152,0.03538,,,,,,,,,,,,,,,,,,,,,,,,,,0,0,0,0,0
3.0502,1783956847.9990,1,1,2.0000,-0.0000,1.42242,-0.00518,-2.63185,1.06627,1.57080,0.11675,-0.12762,-0.48152,0.03538,,,,,,,,,,,,,,,,,,,,,,,,,,0,0,0,0,0
3.0589,1783956848.0077,1,1,2.0000,-0.0000,1.42242,-0.00518,-2.63185,1.06627,1.57080,0.11675,-0.12762,-0.48152,0.03538,,,,,,,,,,,,,,,,,,,,,,,,,,0,0,0,0,0
3.0594,1783956848.0082,1,1,2.0000,-0.0000,1.42242,-0.00518,-2.63185,1.06627,1.57080,0.11675,-0.12762,-0.48152,0.03538,,,,,,,,,,,,,,,,,,,,,,,,,,0,0,0,0,0
3.0925,1783956848.0413,1,1,2.0000,-0.0000,1.42242,-0.00518,-2.63185,1.06627,1.57080,0.11675,-0.12762,-0.48152,0.03538,,,,,,,,,,,,,,,,,,,,,,,,,,0,0,0,0,0
3.0930,1783956848.0418,1,1,2.0000,-0.0000,1.42242,-0.00518,-2.63185,1.06627,1.57080,0.11675,-0.12762,-0.48152,0.03538,,,,,,,,,,,,,,,,,,,,,,,,,,0,0,0,0,0
3.0991,1783956848.0479,1,1,2.0000,-0.0000,1.42242,-0.00518,-2.63185,1.06627,1.57080,0.11675,-0.12762,-0.48152,0.03538,,,,,,,,,,,,,,,,,,,,,,,,,,0,0,0,0,0
3.1628,1783956848.1116,1,1,2.0000,-0.0000,1.42242,-0.00521,-2.63187,1.06630,1.57080,0.11675,-0.12762,-0.48151,0.03536,,,,,,,,,,,,,,,,,,,,,,,,,,0,0,0,0,0
3.1631,1783956848.1120,1,1,2.0000,-0.0000,1.42242,-0.00521,-2.63187,1.06630,1.57080,0.11675,-0.12762,-0.48151,0.03536,,,,,,,,,,,,,,,,,,,,,,,,,,0,0,0,0,0
3.1635,1783956848.1123,1,1,2.0000,-0.0000,1.42242,-0.00521,-2.63187,1.06630,1.57080,0.11675,-0.12762,-0.48151,0.03536,,,,,,,,,,,,,,,,,,,,,,,,,,0,0,0,0,0
3.1638,1783956848.1126,1,1,2.0000,-0.0000,1.42242,-0.00521,-2.63187,1.06630,1.57080,0.11675,-0.12762,-0.48151,0.03536,,,,,,,,,,,,,,,,,,,,,,,,,,0,0,0,0,0
3.2270,1783956848.1758,1,1,2.0000,-0.0000,1.42242,-0.00545,-2.63202,1.06659,1.57080,0.11675,-0.12763,-0.48144,0.03524,,,,,,,,,,,,,,,,,,,,,,,,,,0,0,0,0,0
3.2275,1783956848.1763,1,1,2.0000,-0.0000,1.42242,-0.00545,-2.63202,1.06659,1.57080,0.11675,-0.12763,-0.48144,0.03524,,,,,,,,,,,,,,,,,,,,,,,,,,0,0,0,0,0
3.2280,1783956848.1768,1,1,2.0000,-0.0000,1.42242,-0.00545,-2.63202,1.06659,1.57080,0.11675,-0.12763,-0.48144,0.03524,,,,,,,,,,,,,,,,,,,,,,,,,,0,0,0,0,0
3.2283,1783956848.1771,1,1,2.0000,-0.0000,1.42242,-0.00545,-2.63202,1.06659,1.57080,0.11675,-0.12763,-0.48144,0.03524,,,,,,,,,,,,,,,,,,,,,,,,,,0,0,0,0,0
3.2617,1783956848.2105,1,1,2.0000,-0.0000,1.42242,-0.00561,-2.63205,1.06679,1.57080,0.11675,-0.12763,-0.48144,0.03519,,,,,,,,,,,,,,,,,,,,,,,,,,0,0,0,0,0
3.2623,1783956848.2111,1,1,2.0000,-0.0000,1.42242,-0.00561,-2.63205,1.06679,1.57080,0.11675,-0.12763,-0.48144,0.03519,,,,,,,,,,,,,,,,,,,,,,,,,,0,0,0,0,0
3.2636,1783956848.2124,1,1,2.0000,-0.0000,1.42242,-0.00565,-2.63206,1.06684,1.57080,0.11675,-0.12763,-0.48145,0.03517,,,,,,,,,,,,,,,,,,,,,,,,,,0,0,0,0,0
3.2640,1783956848.2128,1,1,2.0000,-0.0000,1.42242,-0.00565,-2.63206,1.06684,1.57080,0.11675,-0.12763,-0.48145,0.03517,,,,,,,,,,,,,,,,,,,,,,,,,,0,0,0,0,0
3.2699,1783956848.2187,1,1,2.0000,-0.0000,1.42242,-0.00570,-2.63206,1.06689,1.57080,0.11675,-0.12763,-0.48145,0.03516,,,,,,,,,,,,,,,,,,,,,,,,,,0,0,0,0,0
3.2852,1783956848.2340,1,1,2.0000,-0.0000,1.42242,-0.00581,-2.63208,1.06703,1.57080,0.11675,-0.12763,-0.48145,0.03512,,,,,,,,,,,,,,,,,,,,,,,,,,0,0,0,0,0
3.2911,1783956848.2399,1,1,2.0000,-0.0000,1.42242,-0.00585,-2.63209,1.06708,1.57080,0.11675,-0.12763,-0.48145,0.03511,,,,,,,,,,,,,,,,,,,,,,,,,,0,0,0,0,0
3.2915,1783956848.2403,1,1,2.0000,-0.0000,1.42242,-0.00585,-2.63209,1.06708,1.57080,0.11675,-0.12763,-0.48145,0.03511,,,,,,,,,,,,,,,,,,,,,,,,,,0,0,0,0,0
3.2991,1783956848.2479,1,1,2.0000,-0.0000,1.42242,-0.00592,-2.63210,1.06716,1.57080,0.11675,-0.12763,-0.48146,0.03509,,,,,,,,,,,,,,,,,,,,,,,,,,0,0,0,0,0
3.2995,1783956848.2483,1,1,2.0000,-0.0000,1.42242,-0.00592,-2.63210,1.06716,1.57080,0.11675,-0.12763,-0.48146,0.03509,,,,,,,,,,,,,,,,,,,,,,,,,,0,0,0,0,0
3.3117,1783956848.2605,1,1,2.0000,-0.0000,1.42242,-0.00601,-2.63211,1.06727,1.57080,0.11675,-0.12763,-0.48146,0.03506,,,,,,,,,,,,,,,,,,,,,,,,,,0,0,0,0,0
3.3346,1783956848.2835,1,1,2.0000,-0.0000,1.42242,-0.00613,-2.63210,1.06743,1.57080,0.11675,-0.12763,-0.48149,0.03504,,,,,,,,,,,,,,,,,,,,,,,,,,0,0,0,0,0
3.3427,1783956848.2915,1,1,2.0000,-0.0000,1.42242,-0.00620,-2.63210,1.06752,1.57080,0.11675,-0.12762,-0.48151,0.03502,,,,,,,,,,,,,,,,,,,,,,,,,,0,0,0,0,0
3.3570,1783956848.3058,1,1,2.0000,-0.0000,1.42241,-0.00630,-2.63208,1.06764,1.57080,0.11675,-0.12762,-0.48154,0.03501,,,,,,,,,,,,,,,,,,,,,,,,,,0,0,0,0,0
3.3872,1783956848.3361,1,1,2.0000,-0.0000,1.42241,-0.00637,-2.63203,1.06773,1.57080,0.11675,-0.12761,-0.48158,0.03501,,,,,,,,,,,,,,,,,,,,,,,,,,0,0,0,0,0
3.3877,1783956848.3365,1,1,2.0000,-0.0000,1.42241,-0.00637,-2.63203,1.06773,1.57080,0.11675,-0.12761,-0.48158,0.03501,,,,,,,,,,,,,,,,,,,,,,,,,,0,0,0,0,0
3.4269,1783956848.3758,1,1,2.0000,-0.0000,1.42241,-0.00637,-2.63203,1.06773,1.57080,0.11675,-0.12761,-0.48158,0.03501,,,,,,,,,,,,,,,,,,,,,,,,,,0,0,0,0,0
3.4273,1783956848.3761,1,1,2.0000,-0.0000,1.42241,-0.00637,-2.63203,1.06773,1.57080,0.11675,-0.12761,-0.48158,0.03501,,,,,,,,,,,,,,,,,,,,,,,,,,0,0,0,0,0
3.4276,1783956848.3764,1,1,2.0000,-0.0000,1.42241,-0.00637,-2.63203,1.06773,1.57080,0.11675,-0.12761,-0.48158,0.03501,,,,,,,,,,,,,,,,,,,,,,,,,,0,0,0,0,0
3.4278,1783956848.3767,1,1,2.0000,-0.0000,1.42241,-0.00637,-2.63203,1.06773,1.57080,0.11675,-0.12761,-0.48158,0.03501,,,,,,,,,,,,,,,,,,,,,,,,,,0,0,0,0,0
3.4283,1783956848.3771,1,1,2.0000,-0.0000,1.42241,-0.00637,-2.63203,1.06773,1.57080,0.11675,-0.12761,-0.48158,0.03501,,,,,,,,,,,,,,,,,,,,,,,,,,0,0,0,0,0
3.4287,1783956848.3775,1,1,2.0000,-0.0000,1.42241,-0.00637,-2.63203,1.06773,1.57080,0.11675,-0.12761,-0.48158,0.03501,,,,,,,,,,,,,,,,,,,,,,,,,,0,0,0,0,0
3.4290,1783956848.3778,1,1,2.0000,-0.0000,1.42241,-0.00637,-2.63203,1.06773,1.57080,0.11675,-0.12761,-0.48158,0.03501,,,,,,,,,,,,,,,,,,,,,,,,,,0,0,0,0,0
3.4470,1783956848.3959,1,1,2.0000,-0.0000,1.42241,-0.00637,-2.63203,1.06773,1.57080,0.11675,-0.12761,-0.48158,0.03501,,,,,,,,,,,,,,,,,,,,,,,,,,0,0,0,0,0
3.4475,1783956848.3963,1,1,2.0000,-0.0000,1.42241,-0.00637,-2.63203,1.06773,1.57080,0.11675,-0.12761,-0.48158,0.03501,,,,,,,,,,,,,,,,,,,,,,,,,,0,0,0,0,0
3.4510,1783956848.3999,1,1,2.0000,-0.0000,1.42241,-0.00637,-2.63203,1.06773,1.57080,0.11675,-0.12761,-0.48158,0.03501,,,,,,,,,,,,,,,,,,,,,,,,,,0,0,0,0,0
3.4512,1783956848.4000,1,1,2.0000,-0.0000,1.42241,-0.00637,-2.63203,1.06773,1.57080,0.11675,-0.12761,-0.48158,0.03501,,,,,,,,,,,,,,,,,,,,,,,,,,0,0,0,0,0
3.4616,1783956848.4104,1,1,2.0000,-0.0000,1.42241,-0.00637,-2.63203,1.06773,1.57080,0.11675,-0.12761,-0.48158,0.03501,,,,,,,,,,,,,,,,,,,,,,,,,,0,0,0,0,0
3.4703,1783956848.4192,1,1,2.0000,-0.0000,1.42241,-0.00637,-2.63203,1.06773,1.57080,0.11675,-0.12761,-0.48158,0.03501,,,,,,,,,,,,,,,,,,,,,,,,,,0,0,0,0,0
3.4895,1783956848.4383,1,1,2.0000,-0.0000,1.42241,-0.00637,-2.63203,1.06773,1.57080,0.11675,-0.12761,-0.48158,0.03501,,,,,,,,,,,,,,,,,,,,,,,,,,0,0,0,0,0
3.4900,1783956848.4389,1,1,2.0000,-0.0000,1.42241,-0.00637,-2.63203,1.06773,1.57080,0.11675,-0.12761,-0.48158,0.03501,,,,,,,,,,,,,,,,,,,,,,,,,,0,0,0,0,0
3.5015,1783956848.4504,1,1,2.0000,-0.0000,1.42241,-0.00637,-2.63203,1.06773,1.57080,0.11675,-0.12761,-0.48158,0.03501,,,,,,,,,,,,,,,,,,,,,,,,,,0,0,0,0,0
3.5112,1783956848.4600,1,1,2.0000,-0.0000,1.42241,-0.00637,-2.63203,1.06773,1.57080,0.11675,-0.12761,-0.48158,0.03501,,,,,,,,,,,,,,,,,,,,,,,,,,0,0,0,0,0
3.5202,1783956848.4690,1,1,2.0000,-0.0000,1.42241,-0.00637,-2.63203,1.06773,1.57080,0.11675,-0.12761,-0.48158,0.03501,,,,,,,,,,,,,,,,,,,,,,,,,,0,0,0,0,0
3.5369,1783956848.4857,1,1,2.0000,-0.0000,1.42241,-0.00637,-2.63203,1.06773,1.57080,0.11675,-0.12761,-0.48158,0.03501,,,,,,,,,,,,,,,,,,,,,,,,,,0,0,0,0,0
3.5402,1783956848.4890,1,1,2.0000,-0.0000,1.42241,-0.00637,-2.63203,1.06773,1.57080,0.11675,-0.12761,-0.48158,0.03501,,,,,,,,,,,,,,,,,,,,,,,,,,0,0,0,0,0
3.5405,1783956848.4893,1,1,2.0000,-0.0000,1.42241,-0.00637,-2.63203,1.06773,1.57080,0.11675,-0.12761,-0.48158,0.03501,,,,,,,,,,,,,,,,,,,,,,,,,,0,0,0,0,0
3.5525,1783956848.5013,1,1,2.0000,-0.0000,1.42241,-0.00637,-2.63203,1.06773,1.57080,0.11675,-0.12761,-0.48158,0.03501,,,,,,,,,,,,,,,,,,,,,,,,,,0,0,0,0,0
3.5720,1783956848.5208,1,1,2.0000,-0.0000,1.42241,-0.00639,-2.63207,1.06775,1.57080,0.11675,-0.12761,-0.48156,0.03500,,,,,,,,,,,,,,,,,,,,,,,,,,0,0,0,0,0
3.5724,1783956848.5212,1,1,2.0000,-0.0000,1.42241,-0.00639,-2.63207,1.06775,1.57080,0.11675,-0.12761,-0.48156,0.03500,,,,,,,,,,,,,,,,,,,,,,,,,,0,0,0,0,0
3.5938,1783956848.5426,1,1,2.0000,-0.0000,1.42241,-0.00641,-2.63210,1.06778,1.57080,0.11675,-0.12762,-0.48154,0.03497,,,,,,,,,,,,,,,,,,,,,,,,,,0,0,0,0,0
3.5941,1783956848.5429,1,1,2.0000,-0.0000,1.42241,-0.00641,-2.63210,1.06778,1.57080,0.11675,-0.12762,-0.48154,0.03497,,,,,,,,,,,,,,,,,,,,,,,,,,0,0,0,0,0
3.6036,1783956848.5524,1,1,2.0000,-0.0000,1.42241,-0.00645,-2.63215,1.06782,1.57080,0.11675,-0.12762,-0.48151,0.03495,,,,,,,,,,,,,,,,,,,,,,,,,,0,0,0,0,0
3.6150,1783956848.5638,1,1,2.0000,-0.0000,1.42241,-0.00646,-2.63215,1.06784,1.57080,0.11675,-0.12762,-0.48151,0.03494,,,,,,,,,,,,,,,,,,,,,,,,,,0,0,0,0,0
3.6269,1783956848.5757,1,1,2.0000,-0.0000,1.42241,-0.00653,-2.63219,1.06792,1.57080,0.11675,-0.12763,-0.48149,0.03490,,,,,,,,,,,,,,,,,,,,,,,,,,0,0,0,0,0
3.6447,1783956848.5935,1,1,2.0000,-0.0000,1.42241,-0.00660,-2.63223,1.06800,1.57080,0.11675,-0.12763,-0.48147,0.03487,,,,,,,,,,,,,,,,,,,,,,,,,,0,0,0,0,0
3.6451,1783956848.5939,1,1,2.0000,-0.0000,1.42241,-0.00660,-2.63223,1.06800,1.57080,0.11675,-0.12763,-0.48147,0.03487,,,,,,,,,,,,,,,,,,,,,,,,,,0,0,0,0,0
3.6520,1783956848.6008,1,1,2.0000,-0.0000,1.42241,-0.00663,-2.63224,1.06804,1.57080,0.11675,-0.12763,-0.48147,0.03486,,,,,,,,,,,,,,,,,,,,,,,,,,0,0,0,0,0
3.6661,1783956848.6150,1,1,2.0000,-0.0000,1.42241,-0.00674,-2.63227,1.06818,1.57080,0.11675,-0.12763,-0.48146,0.03482,,,,,,,,,,,,,,,,,,,,,,,,,,0,0,0,0,0
3.6693,1783956848.6181,1,1,2.0000,-0.0000,1.42241,-0.00679,-2.63228,1.06823,1.57080,0.11675,-0.12763,-0.48146,0.03480,,,,,,,,,,,,,,,,,,,,,,,,,,0,0,0,0,0
3.6697,1783956848.6186,1,1,2.0000,-0.0000,1.42241,-0.00679,-2.63228,1.06823,1.57080,0.11675,-0.12763,-0.48146,0.03480,,,,,,,,,,,,,,,,,,,,,,,,,,0,0,0,0,0
3.6970,1783956848.6458,1,1,2.0000,-0.0000,1.42241,-0.00696,-2.63232,1.06843,1.57080,0.11675,-0.12763,-0.48146,0.03474,,,,,,,,,,,,,,,,,,,,,,,,,,0,0,0,0,0
3.6974,1783956848.6463,1,1,2.0000,-0.0000,1.42241,-0.00696,-2.63232,1.06843,1.57080,0.11675,-0.12763,-0.48146,0.03474,,,,,,,,,,,,,,,,,,,,,,,,,,0,0,0,0,0
3.7006,1783956848.6494,1,1,2.0000,-0.0000,1.42241,-0.00696,-2.63232,1.06843,1.57080,0.11675,-0.12763,-0.48146,0.03474,,,,,,,,,,,,,,,,,,,,,,,,,,0,0,0,0,0
3.7092,1783956848.6580,1,1,2.0000,-0.0000,1.42241,-0.00698,-2.63233,1.06846,1.57080,0.11675,-0.12763,-0.48146,0.03473,,,,,,,,,,,,,,,,,,,,,,,,,,0,0,0,0,0
3.7200,1783956848.6689,1,1,2.0000,-0.0000,1.42241,-0.00708,-2.63234,1.06858,1.57080,0.11675,-0.12763,-0.48147,0.03470,,,,,,,,,,,,,,,,,,,,,,,,,,0,0,0,0,0
3.7292,1783956848.6780,1,1,2.0000,-0.0000,1.42241,-0.00718,-2.63236,1.06870,1.57080,0.11675,-0.12763,-0.48147,0.03467,,,,,,,,,,,,,,,,,,,,,,,,,,0,0,0,0,0
3.7297,1783956848.6785,1,1,2.0000,-0.0000,1.42241,-0.00718,-2.63236,1.06870,1.57080,0.11675,-0.12763,-0.48147,0.03467,,,,,,,,,,,,,,,,,,,,,,,,,,0,0,0,0,0
3.7538,1783956848.7026,1,1,2.0000,-0.0000,1.42241,-0.00727,-2.63236,1.06881,1.57080,0.11675,-0.12762,-0.48149,0.03465,,,,,,,,,,,,,,,,,,,,,,,,,,0,0,0,0,0
3.7563,1783956848.7052,1,1,2.0000,-0.0000,1.42241,-0.00730,-2.63236,1.06885,1.57080,0.11675,-0.12762,-0.48149,0.03464,,,,,,,,,,,,,,,,,,,,,,,,,,0,0,0,0,0
3.7598,1783956848.7086,1,1,2.0000,-0.0000,1.42241,-0.00734,-2.63236,1.06890,1.57080,0.11675,-0.12762,-0.48150,0.03464,,,,,,,,,,,,,,,,,,,,,,,,,,0,0,0,0,0
3.7600,1783956848.7089,1,1,2.0000,-0.0000,1.42241,-0.00734,-2.63236,1.06890,1.57080,0.11675,-0.12762,-0.48150,0.03464,,,,,,,,,,,,,,,,,,,,,,,,,,0,0,0,0,0
3.7687,1783956848.7175,1,1,2.0000,-0.0000,1.42241,-0.00741,-2.63235,1.06899,1.57080,0.11675,-0.12762,-0.48152,0.03462,,,,,,,,,,,,,,,,,,,,,,,,,,0,0,0,0,0
3.7691,1783956848.7179,1,1,2.0000,-0.0000,1.42241,-0.00741,-2.63235,1.06899,1.57080,0.11675,-0.12762,-0.48152,0.03462,,,,,,,,,,,,,,,,,,,,,,,,,,0,0,0,0,0
3.7886,1783956848.7375,1,1,2.0000,-0.0000,1.42241,-0.00755,-2.63231,1.06917,1.57080,0.11675,-0.12761,-0.48157,0.03461,,,,,,,,,,,,,,,,,,,,,,,,,,0,0,0,0,0
3.7889,1783956848.7378,1,1,2.0000,-0.0000,1.42241,-0.00755,-2.63231,1.06917,1.57080,0.11675,-0.12761,-0.48157,0.03461,,,,,,,,,,,,,,,,,,,,,,,,,,0,0,0,0,0
3.7994,1783956848.7482,1,1,2.0000,-0.0000,1.42241,-0.00756,-2.63230,1.06918,1.57080,0.11675,-0.12761,-0.48158,0.03461,,,,,,,,,,,,,,,,,,,,,,,,,,0,0,0,0,0
3.8020,1783956848.7508,1,1,2.0000,-0.0000,1.42241,-0.00756,-2.63230,1.06918,1.57080,0.11675,-0.12761,-0.48158,0.03461,,,,,,,,,,,,,,,,,,,,,,,,,,0,0,0,0,0
3.8023,1783956848.7511,1,1,2.0000,-0.0000,1.42241,-0.00756,-2.63230,1.06918,1.57080,0.11675,-0.12761,-0.48158,0.03461,,,,,,,,,,,,,,,,,,,,,,,,,,0,0,0,0,0
3.8141,1783956848.7630,1,1,2.0000,-0.0000,1.42241,-0.00756,-2.63230,1.06918,1.57080,0.11675,-0.12761,-0.48158,0.03461,,,,,,,,,,,,,,,,,,,,,,,,,,0,0,0,0,0
3.8200,1783956848.7688,1,1,2.0000,-0.0000,1.42241,-0.00756,-2.63230,1.06918,1.57080,0.11675,-0.12761,-0.48158,0.03461,,,,,,,,,,,,,,,,,,,,,,,,,,0,0,0,0,0
3.8291,1783956848.7779,1,1,2.0000,-0.0000,1.42241,-0.00756,-2.63230,1.06918,1.57080,0.11675,-0.12761,-0.48158,0.03461,,,,,,,,,,,,,,,,,,,,,,,,,,0,0,0,0,0
3.9942,1783956848.9430,1,1,2.0000,-0.0000,1.42241,-0.00757,-2.63233,1.06920,1.57080,0.11675,-0.12761,-0.48156,0.03460,,,,,,,,,,,,,,,,,,,,,,,,,,0,0,0,0,0
3.9949,1783956848.9437,1,1,2.0000,-0.0000,1.42241,-0.00757,-2.63234,1.06920,1.57080,0.11675,-0.12761,-0.48155,0.03459,,,,,,,,,,,,,,,,,,,,,,,,,,0,0,0,0,0
3.9952,1783956848.9440,1,1,2.0000,-0.0000,1.42241,-0.00757,-2.63234,1.06920,1.57080,0.11675,-0.12761,-0.48155,0.03459,,,,,,,,,,,,,,,,,,,,,,,,,,0,0,0,0,0
3.9956,1783956848.9444,1,1,2.0000,-0.0000,1.42241,-0.00757,-2.63234,1.06920,1.57080,0.11675,-0.12761,-0.48155,0.03459,,,,,,,,,,,,,,,,,,,,,,,,,,0,0,0,0,0
3.9962,1783956848.9450,1,1,2.0000,-0.0000,1.42241,-0.00757,-2.63234,1.06920,1.57080,0.11675,-0.12761,-0.48155,0.03459,,,,,,,,,,,,,,,,,,,,,,,,,,0,0,0,0,0
4.0017,1783956848.9506,1,1,2.0000,-0.0000,1.42241,-0.00758,-2.63235,1.06921,1.57080,0.11675,-0.12761,-0.48155,0.03458,,,,,,,,,,,,,,,,,,,,,,,,,,0,0,0,0,0
4.0023,1783956848.9511,1,1,2.0000,-0.0000,1.42241,-0.00758,-2.63235,1.06921,1.57080,0.11675,-0.12761,-0.48155,0.03458,,,,,,,,,,,,,,,,,,,,,,,,,,0,0,0,0,0
4.0030,1783956848.9518,1,1,2.0000,-0.0000,1.42241,-0.00758,-2.63235,1.06921,1.57080,0.11675,-0.12761,-0.48155,0.03458,,,,,,,,,,,,,,,,,,,,,,,,,,0,0,0,0,0
4.0035,1783956848.9523,1,1,2.0000,-0.0000,1.42241,-0.00758,-2.63235,1.06921,1.57080,0.11675,-0.12761,-0.48155,0.03458,,,,,,,,,,,,,,,,,,,,,,,,,,0,0,0,0,0
4.0115,1783956848.9603,1,1,2.0000,-0.0000,1.42241,-0.00758,-2.63236,1.06922,1.57080,0.11675,-0.12762,-0.48154,0.03458,,,,,,,,,,,,,,,,,,,,,,,,,,0,0,0,0,0
4.0118,1783956848.9606,1,1,2.0000,-0.0000,1.42241,-0.00758,-2.63236,1.06922,1.57080,0.11675,-0.12762,-0.48154,0.03458,,,,,,,,,,,,,,,,,,,,,,,,,,0,0,0,0,0
4.0196,1783956848.9684,1,1,2.0000,-0.0000,1.42241,-0.00761,-2.63239,1.06924,1.57080,0.11675,-0.12762,-0.48152,0.03456,,,,,,,,,,,,,,,,,,,,,,,,,,0,0,0,0,0
4.0200,1783956848.9688,1,1,2.0000,-0.0000,1.42241,-0.00761,-2.63239,1.06924,1.57080,0.11675,-0.12762,-0.48152,0.03456,,,,,,,,,,,,,,,,,,,,,,,,,,0,0,0,0,0
4.0293,1783956848.9781,1,1,2.0000,-0.0000,1.42241,-0.00764,-2.63242,1.06928,1.57080,0.11675,-0.12762,-0.48150,0.03454,,,,,,,,,,,,,,,,,,,,,,,,,,0,0,0,0,0
4.0406,1783956848.9894,1,1,2.0000,-0.0000,1.42241,-0.00766,-2.63244,1.06931,1.57080,0.11675,-0.12762,-0.48149,0.03452,,,,,,,,,,,,,,,,,,,,,,,,,,0,0,0,0,0
4.0539,1783956849.0027,1,1,2.0000,-0.0000,1.42241,-0.00771,-2.63247,1.06936,1.57080,0.11675,-0.12762,-0.48148,0.03450,,,,,,,,,,,,,,,,,,,,,,,,,,0,0,0,0,0
4.0542,1783956849.0030,1,1,2.0000,-0.0000,1.42241,-0.00771,-2.63247,1.06936,1.57080,0.11675,-0.12762,-0.48148,0.03450,,,,,,,,,,,,,,,,,,,,,,,,,,0,0,0,0,0
4.0765,1783956849.0254,1,1,2.0000,-0.0000,1.42241,-0.00781,-2.63250,1.06949,1.57080,0.11675,-0.12763,-0.48147,0.03446,,,,,,,,,,,,,,,,,,,,,,,,,,0,0,0,0,0
4.0994,1783956849.0482,1,1,2.0000,-0.0000,1.42241,-0.00798,-2.63254,1.06968,1.57080,0.11675,-0.12763,-0.48146,0.03440,,,,,,,,,,,,,,,,,,,,,,,,,,0,0,0,0,0
4.0996,1783956849.0485,1,1,2.0000,-0.0000,1.42241,-0.00798,-2.63254,1.06968,1.57080,0.11675,-0.12763,-0.48146,0.03440,,,,,,,,,,,,,,,,,,,,,,,,,,0,0,0,0,0
4.0999,1783956849.0488,1,1,2.0000,-0.0000,1.42241,-0.00798,-2.63254,1.06968,1.57080,0.11675,-0.12763,-0.48146,0.03440,,,,,,,,,,,,,,,,,,,,,,,,,,0,0,0,0,0
4.1063,1783956849.0551,1,1,2.0000,-0.0000,1.42241,-0.00800,-2.63255,1.06971,1.57080,0.11675,-0.12763,-0.48146,0.03439,,,,,,,,,,,,,,,,,,,,,,,,,,0,0,0,0,0
4.1066,1783956849.0554,1,1,2.0000,-0.0000,1.42241,-0.00800,-2.63255,1.06971,1.57080,0.11675,-0.12763,-0.48146,0.03439,,,,,,,,,,,,,,,,,,,,,,,,,,0,0,0,0,0
4.1138,1783956849.0626,1,1,2.0000,-0.0000,1.42241,-0.00808,-2.63257,1.06980,1.57080,0.11675,-0.12763,-0.48146,0.03436,,,,,,,,,,,,,,,,,,,,,,,,,,0,0,0,0,0
4.1141,1783956849.0629,1,1,2.0000,-0.0000,1.42241,-0.00808,-2.63257,1.06980,1.57080,0.11675,-0.12763,-0.48146,0.03436,,,,,,,,,,,,,,,,,,,,,,,,,,0,0,0,0,0
4.1702,1783956849.1191,1,1,2.0000,-0.0000,1.42241,-0.00842,-2.63262,1.07021,1.57080,0.11675,-0.12762,-0.48148,0.03426,,,,,,,,,,,,,,,,,,,,,,,,,,0,0,0,0,0
4.1706,1783956849.1194,1,1,2.0000,-0.0000,1.42241,-0.00842,-2.63262,1.07021,1.57080,0.11675,-0.12762,-0.48148,0.03426,,,,,,,,,,,,,,,,,,,,,,,,,,0,0,0,0,0
4.1818,1783956849.1306,1,1,2.0000,-0.0000,1.42241,-0.00851,-2.63262,1.07033,1.57080,0.11675,-0.12762,-0.48149,0.03424,,,,,,,,,,,,,,,,,,,,,,,,,,0,0,0,0,0
4.1821,1783956849.1309,1,1,2.0000,-0.0000,1.42241,-0.00851,-2.63262,1.07033,1.57080,0.11675,-0.12762,-0.48149,0.03424,,,,,,,,,,,,,,,,,,,,,,,,,,0,0,0,0,0
4.1832,1783956849.1320,1,1,2.0000,-0.0000,1.42241,-0.00855,-2.63262,1.07037,1.57080,0.11675,-0.12762,-0.48150,0.03423,,,,,,,,,,,,,,,,,,,,,,,,,,0,0,0,0,0
4.1835,1783956849.1323,1,1,2.0000,-0.0000,1.42241,-0.00855,-2.63262,1.07037,1.57080,0.11675,-0.12762,-0.48150,0.03423,,,,,,,,,,,,,,,,,,,,,,,,,,0,0,0,0,0
4.2061,1783956849.1550,1,1,2.0000,-0.0000,1.42241,-0.00871,-2.63260,1.07057,1.57080,0.11675,-0.12761,-0.48154,0.03420,,,,,,,,,,,,,,,,,,,,,,,,,,0,0,0,0,0
4.2115,1783956849.1603,1,1,2.0000,-0.0000,1.42241,-0.00874,-2.63258,1.07062,1.57081,0.11675,-0.12761,-0.48156,0.03420,,,,,,,,,,,,,,,,,,,,,,,,,,0,0,0,0,0
4.2199,1783956849.1687,1,1,2.0000,-0.0000,1.42241,-0.00874,-2.63258,1.07062,1.57081,0.11675,-0.12761,-0.48156,0.03420,,,,,,,,,,,,,,,,,,,,,,,,,,0,0,0,0,0
4.2206,1783956849.1695,1,1,2.0000,-0.0000,1.42241,-0.00874,-2.63258,1.07062,1.57081,0.11675,-0.12761,-0.48156,0.03420,,,,,,,,,,,,,,,,,,,,,,,,,,0,0,0,0,0
4.2337,1783956849.1826,1,1,2.0000,-0.0000,1.42241,-0.00874,-2.63258,1.07062,1.57081,0.11675,-0.12761,-0.48156,0.03420,,,,,,,,,,,,,,,,,,,,,,,,,,0,0,0,0,0
4.2417,1783956849.1905,1,1,2.0000,-0.0000,1.42241,-0.00874,-2.63258,1.07062,1.57081,0.11675,-0.12761,-0.48156,0.03420,,,,,,,,,,,,,,,,,,,,,,,,,,0,0,0,0,0
4.2554,1783956849.2042,1,1,2.0000,-0.0000,1.42241,-0.00874,-2.63258,1.07062,1.57081,0.11675,-0.12761,-0.48156,0.03420,,,,,,,,,,,,,,,,,,,,,,,,,,0,0,0,0,0
4.2557,1783956849.2046,1,1,2.0000,-0.0000,1.42241,-0.00874,-2.63258,1.07062,1.57081,0.11675,-0.12761,-0.48156,0.03420,,,,,,,,,,,,,,,,,,,,,,,,,,0,0,0,0,0
4.2698,1783956849.2186,1,1,2.0000,-0.0000,1.42241,-0.00874,-2.63258,1.07062,1.57081,0.11675,-0.12761,-0.48156,0.03420,,,,,,,,,,,,,,,,,,,,,,,,,,0,0,0,0,0
4.2702,1783956849.2190,1,1,2.0000,-0.0000,1.42241,-0.00874,-2.63258,1.07062,1.57081,0.11675,-0.12761,-0.48156,0.03420,,,,,,,,,,,,,,,,,,,,,,,,,,0,0,0,0,0
4.2705,1783956849.2193,1,1,2.0000,-0.0000,1.42241,-0.00874,-2.63258,1.07062,1.57081,0.11675,-0.12761,-0.48156,0.03420,,,,,,,,,,,,,,,,,,,,,,,,,,0,0,0,0,0
4.2806,1783956849.2295,1,1,2.0000,-0.0000,1.42241,-0.00874,-2.63258,1.07062,1.57081,0.11675,-0.12761,-0.48156,0.03420,,,,,,,,,,,,,,,,,,,,,,,,,,0,0,0,0,0
4.2893,1783956849.2381,1,1,2.0000,-0.0000,1.42241,-0.00874,-2.63258,1.07062,1.57081,0.11675,-0.12761,-0.48156,0.03420,,,,,,,,,,,,,,,,,,,,,,,,,,0,0,0,0,0
4.3024,1783956849.2512,1,1,2.0000,-0.0000,1.42241,-0.00874,-2.63258,1.07062,1.57081,0.11675,-0.12761,-0.48156,0.03420,,,,,,,,,,,,,,,,,,,,,,,,,,0,0,0,0,0
4.3107,1783956849.2595,1,1,2.0000,-0.0000,1.42241,-0.00874,-2.63258,1.07062,1.57081,0.11675,-0.12761,-0.48156,0.03420,,,,,,,,,,,,,,,,,,,,,,,,,,0,0,0,0,0
4.3117,1783956849.2605,1,1,2.0000,-0.0000,1.42241,-0.00874,-2.63258,1.07062,1.57081,0.11675,-0.12761,-0.48156,0.03420,,,,,,,,,,,,,,,,,,,,,,,,,,0,0,0,0,0
4.3196,1783956849.2684,1,1,2.0000,-0.0000,1.42241,-0.00874,-2.63258,1.07062,1.57081,0.11675,-0.12761,-0.48156,0.03420,,,,,,,,,,,,,,,,,,,,,,,,,,0,0,0,0,0
4.3474,1783956849.2962,1,1,2.0000,-0.0000,1.42241,-0.00874,-2.63258,1.07062,1.57081,0.11675,-0.12761,-0.48156,0.03420,,,,,,,,,,,,,,,,,,,,,,,,,,0,0,0,0,0
4.3478,1783956849.2967,1,1,2.0000,-0.0000,1.42241,-0.00874,-2.63258,1.07062,1.57081,0.11675,-0.12761,-0.48156,0.03420,,,,,,,,,,,,,,,,,,,,,,,,,,0,0,0,0,0
4.3813,1783956849.3301,1,1,2.0000,-0.0000,1.42241,-0.00874,-2.63258,1.07062,1.57081,0.11675,-0.12761,-0.48156,0.03420,,,,,,,,,,,,,,,,,,,,,,,,,,0,0,0,0,0
4.3816,1783956849.3305,1,1,2.0000,-0.0000,1.42241,-0.00874,-2.63258,1.07062,1.57081,0.11675,-0.12761,-0.48156,0.03420,,,,,,,,,,,,,,,,,,,,,,,,,,0,0,0,0,0
4.3819,1783956849.3308,1,1,2.0000,-0.0000,1.42241,-0.00874,-2.63258,1.07062,1.57081,0.11675,-0.12761,-0.48156,0.03420,,,,,,,,,,,,,,,,,,,,,,,,,,0,0,0,0,0
4.3822,1783956849.3310,1,1,2.0000,-0.0000,1.42241,-0.00874,-2.63258,1.07062,1.57081,0.11675,-0.12761,-0.48156,0.03420,,,,,,,,,,,,,,,,,,,,,,,,,,0,0,0,0,0
4.3914,1783956849.3403,1,1,2.0000,-0.0000,1.42241,-0.00874,-2.63258,1.07062,1.57081,0.11675,-0.12761,-0.48156,0.03420,,,,,,,,,,,,,,,,,,,,,,,,,,0,0,0,0,0
4.3918,1783956849.3406,1,1,2.0000,-0.0000,1.42241,-0.00874,-2.63258,1.07062,1.57081,0.11675,-0.12761,-0.48156,0.03420,,,,,,,,,,,,,,,,,,,,,,,,,,0,0,0,0,0
4.4002,1783956849.3490,1,1,2.0000,-0.0000,1.42241,-0.00874,-2.63258,1.07062,1.57081,0.11675,-0.12761,-0.48156,0.03420,,,,,,,,,,,,,,,,,,,,,,,,,,0,0,0,0,0
4.4105,1783956849.3593,1,1,2.0000,-0.0000,1.42241,-0.00875,-2.63258,1.07062,1.57081,0.11675,-0.12761,-0.48156,0.03420,,,,,,,,,,,,,,,,,,,,,,,,,,0,0,0,0,0
4.4113,1783956849.3601,1,1,2.0000,-0.0000,1.42241,-0.00875,-2.63259,1.07063,1.57081,0.11675,-0.12761,-0.48156,0.03419,,,,,,,,,,,,,,,,,,,,,,,,,,0,0,0,0,0
4.5156,1783956849.4644,1,1,2.0000,-0.0000,1.42241,-0.00908,-2.63280,1.07102,1.57081,0.11675,-0.12763,-0.48145,0.03402,,,,,,,,,,,,,,,,,,,,,,,,,,0,0,0,0,0
4.5161,1783956849.4649,1,1,2.0000,-0.0000,1.42241,-0.00908,-2.63280,1.07102,1.57081,0.11675,-0.12763,-0.48145,0.03402,,,,,,,,,,,,,,,,,,,,,,,,,,0,0,0,0,0
4.5404,1783956849.4893,1,1,2.0000,-0.0000,1.42240,-0.00937,-2.63286,1.07137,1.57081,0.11675,-0.12762,-0.48146,0.03392,,,,,,,,,,,,,,,,,,,,,,,,,,0,0,0,0,0
4.5407,1783956849.4895,1,1,2.0000,-0.0000,1.42240,-0.00937,-2.63286,1.07137,1.57081,0.11675,-0.12762,-0.48146,0.03392,,,,,,,,,,,,,,,,,,,,,,,,,,0,0,0,0,0
4.5637,1783956849.5125,1,1,2.0000,-0.0000,1.42240,-0.00948,-2.63287,1.07149,1.57081,0.11675,-0.12762,-0.48146,0.03389,,,,,,,,,,,,,,,,,,,,,,,,,,0,0,0,0,0
4.5639,1783956849.5127,1,1,2.0000,-0.0000,1.42240,-0.00948,-2.63287,1.07149,1.57081,0.11675,-0.12762,-0.48146,0.03389,,,,,,,,,,,,,,,,,,,,,,,,,,0,0,0,0,0
4.5643,1783956849.5131,1,1,2.0000,-0.0000,1.42240,-0.00948,-2.63287,1.07149,1.57081,0.11675,-0.12762,-0.48146,0.03389,,,,,,,,,,,,,,,,,,,,,,,,,,0,0,0,0,0
4.5646,1783956849.5134,1,1,2.0000,-0.0000,1.42240,-0.00948,-2.63287,1.07149,1.57081,0.11675,-0.12762,-0.48146,0.03389,,,,,,,,,,,,,,,,,,,,,,,,,,0,0,0,0,0
4.5649,1783956849.5137,1,1,2.0000,-0.0000,1.42240,-0.00948,-2.63287,1.07149,1.57081,0.11675,-0.12762,-0.48146,0.03389,,,,,,,,,,,,,,,,,,,,,,,,,,0,0,0,0,0
4.5713,1783956849.5201,1,1,2.0000,-0.0000,1.42240,-0.00956,-2.63288,1.07159,1.57081,0.11675,-0.12762,-0.48146,0.03386,,,,,,,,,,,,,,,,,,,,,,,,,,0,0,0,0,0
4.5716,1783956849.5204,1,1,2.0000,-0.0000,1.42240,-0.00956,-2.63288,1.07159,1.57081,0.11675,-0.12762,-0.48146,0.03386,,,,,,,,,,,,,,,,,,,,,,,,,,0,0,0,0,0
4.6026,1783956849.5514,1,1,2.0000,-0.0000,1.42240,-0.00984,-2.63293,1.07194,1.57081,0.11675,-0.12762,-0.48148,0.03378,,,,,,,,,,,,,,,,,,,,,,,,,,0,0,0,0,0
4.6030,1783956849.5518,1,1,2.0000,-0.0000,1.42240,-0.00984,-2.63293,1.07194,1.57081,0.11675,-0.12762,-0.48148,0.03378,,,,,,,,,,,,,,,,,,,,,,,,,,0,0,0,0,0
4.6034,1783956849.5522,1,1,2.0000,-0.0000,1.42240,-0.00986,-2.63293,1.07197,1.57081,0.11675,-0.12762,-0.48148,0.03377,,,,,,,,,,,,,,,,,,,,,,,,,,0,0,0,0,0
4.6104,1783956849.5592,1,1,2.0000,-0.0000,1.42240,-0.00986,-2.63293,1.07197,1.57081,0.11675,-0.12762,-0.48148,0.03377,,,,,,,,,,,,,,,,,,,,,,,,,,0,0,0,0,0
4.6269,1783956849.5757,1,1,2.0000,-0.0000,1.42240,-0.00986,-2.63293,1.07197,1.57081,0.11675,-0.12762,-0.48148,0.03377,,,,,,,,,,,,,,,,,,,,,,,,,,0,0,0,0,0
4.6354,1783956849.5842,1,1,2.0000,-0.0000,1.42240,-0.00986,-2.63293,1.07197,1.57081,0.11675,-0.12762,-0.48148,0.03377,,,,,,,,,,,,,,,,,,,,,,,,,,0,0,0,0,0
4.6412,1783956849.5901,1,1,2.0000,-0.0000,1.42240,-0.00986,-2.63293,1.07197,1.57081,0.11675,-0.12762,-0.48148,0.03377,,,,,,,,,,,,,,,,,,,,,,,,,,0,0,0,0,0
4.6418,1783956849.5906,1,1,2.0000,-0.0000,1.42240,-0.00986,-2.63293,1.07197,1.57081,0.11675,-0.12762,-0.48148,0.03377,,,,,,,,,,,,,,,,,,,,,,,,,,0,0,0,0,0
4.6502,1783956849.5990,1,1,2.0000,-0.0000,1.42240,-0.00986,-2.63293,1.07197,1.57081,0.11675,-0.12762,-0.48148,0.03377,,,,,,,,,,,,,,,,,,,,,,,,,,0,0,0,0,0
4.6739,1783956849.6227,1,1,2.0000,-0.0000,1.42240,-0.00986,-2.63293,1.07197,1.57081,0.11675,-0.12762,-0.48148,0.03377,,,,,,,,,,,,,,,,,,,,,,,,,,0,0,0,0,0
4.6821,1783956849.6309,1,1,2.0000,-0.0000,1.42240,-0.00986,-2.63293,1.07197,1.57081,0.11675,-0.12762,-0.48148,0.03377,,,,,,,,,,,,,,,,,,,,,,,,,,0,0,0,0,0
4.6833,1783956849.6321,1,1,2.0000,-0.0000,1.42240,-0.00986,-2.63293,1.07197,1.57081,0.11675,-0.12762,-0.48148,0.03377,,,,,,,,,,,,,,,,,,,,,,,,,,0,0,0,0,0
4.6892,1783956849.6380,1,1,2.0000,-0.0000,1.42240,-0.00986,-2.63293,1.07197,1.57081,0.11675,-0.12762,-0.48148,0.03377,,,,,,,,,,,,,,,,,,,,,,,,,,0,0,0,0,0
4.6897,1783956849.6385,1,1,2.0000,-0.0000,1.42240,-0.00986,-2.63293,1.07197,1.57081,0.11675,-0.12762,-0.48148,0.03377,,,,,,,,,,,,,,,,,,,,,,,,,,0,0,0,0,0
4.6994,1783956849.6483,1,1,2.0000,-0.0000,1.42240,-0.00986,-2.63293,1.07197,1.57081,0.11675,-0.12762,-0.48148,0.03377,,,,,,,,,,,,,,,,,,,,,,,,,,0,0,0,0,0
4.6996,1783956849.6484,1,1,2.0000,-0.0000,1.42240,-0.00986,-2.63293,1.07197,1.57081,0.11675,-0.12762,-0.48148,0.03377,,,,,,,,,,,,,,,,,,,,,,,,,,0,0,0,0,0
4.7099,1783956849.6587,1,1,2.0000,-0.0000,1.42240,-0.00986,-2.63293,1.07197,1.57081,0.11675,-0.12762,-0.48148,0.03377,,,,,,,,,,,,,,,,,,,,,,,,,,0,0,0,0,0
4.7219,1783956849.6707,1,1,2.0000,-0.0000,1.42240,-0.00986,-2.63293,1.07197,1.57081,0.11675,-0.12762,-0.48148,0.03377,,,,,,,,,,,,,,,,,,,,,,,,,,0,0,0,0,0
4.7223,1783956849.6711,1,1,2.0000,-0.0000,1.42240,-0.00986,-2.63293,1.07197,1.57081,0.11675,-0.12762,-0.48148,0.03377,,,,,,,,,,,,,,,,,,,,,,,,,,0,0,0,0,0
4.7295,1783956849.6783,1,1,2.0000,-0.0000,1.42240,-0.00986,-2.63293,1.07197,1.57081,0.11675,-0.12762,-0.48148,0.03377,,,,,,,,,,,,,,,,,,,,,,,,,,0,0,0,0,0
4.7298,1783956849.6786,1,1,2.0000,-0.0000,1.42240,-0.00986,-2.63293,1.07197,1.57081,0.11675,-0.12762,-0.48148,0.03377,,,,,,,,,,,,,,,,,,,,,,,,,,0,0,0,0,0
4.7413,1783956849.6901,1,1,2.0000,-0.0000,1.42240,-0.00986,-2.63293,1.07197,1.57081,0.11675,-0.12762,-0.48148,0.03377,,,,,,,,,,,,,,,,,,,,,,,,,,0,0,0,0,0
4.7493,1783956849.6981,1,1,2.0000,-0.0000,1.42240,-0.00986,-2.63293,1.07197,1.57081,0.11675,-0.12762,-0.48148,0.03377,,,,,,,,,,,,,,,,,,,,,,,,,,0,0,0,0,0
4.7496,1783956849.6984,1,1,2.0000,-0.0000,1.42240,-0.00986,-2.63293,1.07197,1.57081,0.11675,-0.12762,-0.48148,0.03377,,,,,,,,,,,,,,,,,,,,,,,,,,0,0,0,0,0
4.7610,1783956849.7098,1,1,2.0000,-0.0000,1.42240,-0.00986,-2.63293,1.07197,1.57081,0.11675,-0.12762,-0.48148,0.03377,,,,,,,,,,,,,,,,,,,,,,,,,,0,0,0,0,0
4.7853,1783956849.7342,1,1,2.0000,-0.0000,1.42240,-0.00986,-2.63293,1.07197,1.57081,0.11675,-0.12762,-0.48148,0.03377,,,,,,,,,,,,,,,,,,,,,,,,,,0,0,0,0,0
4.7888,1783956849.7377,1,1,2.0000,-0.0000,1.42240,-0.00986,-2.63293,1.07197,1.57081,0.11675,-0.12762,-0.48148,0.03377,,,,,,,,,,,,,,,,,,,,,,,,,,0,0,0,0,0
4.7906,1783956849.7394,1,1,2.0000,-0.0000,1.42240,-0.00986,-2.63293,1.07197,1.57081,0.11675,-0.12762,-0.48148,0.03377,,,,,,,,,,,,,,,,,,,,,,,,,,0,0,0,0,0
4.8004,1783956849.7492,1,1,2.0000,-0.0000,1.42240,-0.00986,-2.63293,1.07197,1.57081,0.11675,-0.12762,-0.48148,0.03377,,,,,,,,,,,,,,,,,,,,,,,,,,0,0,0,0,0
4.8332,1783956849.7821,1,1,2.0000,-0.0000,1.42240,-0.00989,-2.63293,1.07201,1.57081,0.11675,-0.12762,-0.48149,0.03377,,,,,,,,,,,,,,,,,,,,,,,,,,0,0,0,0,0
4.8336,1783956849.7824,1,1,2.0000,-0.0000,1.42240,-0.00989,-2.63293,1.07201,1.57081,0.11675,-0.12762,-0.48149,0.03377,,,,,,,,,,,,,,,,,,,,,,,,,,0,0,0,0,0
4.8434,1783956849.7922,1,1,2.0000,-0.0000,1.42240,-0.00990,-2.63293,1.07203,1.57081,0.11675,-0.12762,-0.48149,0.03376,,,,,,,,,,,,,,,,,,,,,,,,,,0,0,0,0,0
4.8436,1783956849.7924,1,1,2.0000,-0.0000,1.42240,-0.00990,-2.63293,1.07203,1.57081,0.11675,-0.12762,-0.48149,0.03376,,,,,,,,,,,,,,,,,,,,,,,,,,0,0,0,0,0
4.8522,1783956849.8011,1,1,2.0000,-0.0000,1.42240,-0.00992,-2.63294,1.07205,1.57081,0.11675,-0.12762,-0.48148,0.03375,,,,,,,,,,,,,,,,,,,,,,,,,,0,0,0,0,0
4.8623,1783956849.8111,1,1,2.0000,-0.0000,1.42240,-0.00995,-2.63297,1.07209,1.57081,0.11675,-0.12762,-0.48147,0.03374,,,,,,,,,,,,,,,,,,,,,,,,,,0,0,0,0,0
4.8855,1783956849.8343,1,1,2.0000,-0.0000,1.42240,-0.01002,-2.63301,1.07217,1.57081,0.11675,-0.12762,-0.48145,0.03370,,,,,,,,,,,,,,,,,,,,,,,,,,0,0,0,0,0
4.8942,1783956849.8431,1,1,2.0000,-0.0000,1.42240,-0.01006,-2.63303,1.07222,1.57081,0.11675,-0.12762,-0.48144,0.03368,,,,,,,,,,,,,,,,,,,,,,,,,,0,0,0,0,0
4.8946,1783956849.8434,1,1,2.0000,-0.0000,1.42240,-0.01006,-2.63303,1.07222,1.57081,0.11675,-0.12762,-0.48144,0.03368,,,,,,,,,,,,,,,,,,,,,,,,,,0,0,0,0,0
4.9030,1783956849.8518,1,1,2.0000,-0.0000,1.42240,-0.01012,-2.63305,1.07228,1.57081,0.11675,-0.12763,-0.48143,0.03366,,,,,,,,,,,,,,,,,,,,,,,,,,0,0,0,0,0
4.9123,1783956849.8612,1,1,2.0000,-0.0000,1.42240,-0.01013,-2.63306,1.07230,1.57081,0.11675,-0.12763,-0.48143,0.03365,,,,,,,,,,,,,,,,,,,,,,,,,,0,0,0,0,0
4.9126,1783956849.8614,1,1,2.0000,-0.0000,1.42240,-0.01013,-2.63306,1.07230,1.57081,0.11675,-0.12763,-0.48143,0.03365,,,,,,,,,,,,,,,,,,,,,,,,,,0,0,0,0,0
4.9236,1783956849.8724,1,1,2.0000,-0.0000,1.42240,-0.01022,-2.63307,1.07240,1.57081,0.11675,-0.12763,-0.48143,0.03362,,,,,,,,,,,,,,,,,,,,,,,,,,0,0,0,0,0
4.9240,1783956849.8728,1,1,2.0000,-0.0000,1.42240,-0.01022,-2.63307,1.07240,1.57081,0.11675,-0.12763,-0.48143,0.03362,,,,,,,,,,,,,,,,,,,,,,,,,,0,0,0,0,0
4.9365,1783956849.8853,1,1,2.0000,-0.0000,1.42240,-0.01025,-2.63308,1.07243,1.57081,0.11675,-0.12763,-0.48143,0.03361,,,,,,,,,,,,,,,,,,,,,,,,,,0,0,0,0,0
4.9416,1783956849.8904,1,1,2.0000,-0.0000,1.42240,-0.01028,-2.63308,1.07247,1.57081,0.11675,-0.12763,-0.48143,0.03360,,,,,,,,,,,,,,,,,,,,,,,,,,0,0,0,0,0
4.9508,1783956849.8996,1,1,2.0000,-0.0000,1.42240,-0.01037,-2.63310,1.07258,1.57081,0.11675,-0.12762,-0.48144,0.03358,,,,,,,,,,,,,,,,,,,,,,,,,,0,0,0,0,0
4.9517,1783956849.9006,1,1,2.0000,-0.0000,1.42240,-0.01043,-2.63310,1.07265,1.57081,0.11675,-0.12762,-0.48144,0.03356,,,,,,,,,,,,,,,,,,,,,,,,,,0,0,0,0,0
4.9903,1783956849.9391,1,1,2.0000,-0.0000,1.42240,-0.01070,-2.63314,1.07298,1.57081,0.11675,-0.12762,-0.48145,0.03347,,,,,,,,,,,,,,,,,,,,,,,,,,0,0,0,0,0
4.9907,1783956849.9396,1,1,2.0000,-0.0000,1.42240,-0.01070,-2.63314,1.07298,1.57081,0.11675,-0.12762,-0.48145,0.03347,,,,,,,,,,,,,,,,,,,,,,,,,,0,0,0,0,0
4.9914,1783956849.9402,1,1,2.0000,-0.0000,1.42240,-0.01076,-2.63315,1.07304,1.57081,0.11675,-0.12762,-0.48146,0.03346,,,,,,,,,,,,,,,,,,,,,,,,,,0,0,0,0,0
4.9963,1783956849.9451,1,1,2.0000,-0.0000,1.42240,-0.01081,-2.63316,1.07310,1.57081,0.11675,-0.12762,-0.48146,0.03344,,,,,,,,,,,,,,,,,,,,,,,,,,0,0,0,0,0
5.0007,1783956849.9495,1,1,2.0000,-0.0000,1.42240,-0.01086,-2.63316,1.07317,1.57081,0.11675,-0.12762,-0.48146,0.03343,,,,,,,,,,,,,,,,,,,,,,,,,,0,0,0,0,0
5.0011,1783956849.9499,1,1,2.0000,-0.0000,1.42240,-0.01086,-2.63316,1.07317,1.57081,0.11675,-0.12762,-0.48146,0.03343,,,,,,,,,,,,,,,,,,,,,,,,,,0,0,0,0,0
5.0173,1783956849.9661,1,1,2.0000,-0.0000,1.42240,-0.01103,-2.63318,1.07338,1.57081,0.11675,-0.12762,-0.48148,0.03338,,,,,,,,,,,,,,,,,,,,,,,,,,0,0,0,0,0
5.0328,1783956849.9816,1,1,2.0000,-0.0000,1.42240,-0.01105,-2.63319,1.07341,1.57081,0.11675,-0.12762,-0.48148,0.03337,,,,,,,,,,,,,,,,,,,,,,,,,,0,0,0,0,0
5.0331,1783956849.9820,1,1,2.0000,-0.0000,1.42240,-0.01105,-2.63319,1.07341,1.57081,0.11675,-0.12762,-0.48148,0.03337,,,,,,,,,,,,,,,,,,,,,,,,,,0,0,0,0,0
5.0388,1783956849.9876,1,1,2.0000,-0.0000,1.42240,-0.01105,-2.63319,1.07341,1.57081,0.11675,-0.12762,-0.48148,0.03337,,,,,,,,,,,,,,,,,,,,,,,,,,0,0,0,0,0
5.0396,1783956849.9884,1,1,2.0000,-0.0000,1.42240,-0.01105,-2.63319,1.07341,1.57081,0.11675,-0.12762,-0.48148,0.03337,,,,,,,,,,,,,,,,,,,,,,,,,,0,0,0,0,0
5.0591,1783956850.0079,1,1,2.0000,-0.0000,1.42240,-0.01105,-2.63319,1.07341,1.57081,0.11675,-0.12762,-0.48148,0.03337,,,,,,,,,,,,,,,,,,,,,,,,,,0,0,0,0,0
5.0598,1783956850.0086,1,1,2.0000,-0.0000,1.42240,-0.01105,-2.63319,1.07341,1.57081,0.11675,-0.12762,-0.48148,0.03337,,,,,,,,,,,,,,,,,,,,,,,,,,0,0,0,0,0
5.0757,1783956850.0245,1,1,2.0000,-0.0000,1.42240,-0.01105,-2.63319,1.07341,1.57081,0.11675,-0.12762,-0.48148,0.03337,,,,,,,,,,,,,,,,,,,,,,,,,,0,0,0,0,0
5.0860,1783956850.0348,1,1,2.0000,-0.0000,1.42240,-0.01105,-2.63319,1.07341,1.57081,0.11675,-0.12762,-0.48148,0.03337,,,,,,,,,,,,,,,,,,,,,,,,,,0,0,0,0,0
5.0897,1783956850.0385,1,1,2.0000,-0.0000,1.42240,-0.01105,-2.63319,1.07341,1.57081,0.11675,-0.12762,-0.48148,0.03337,,,,,,,,,,,,,,,,,,,,,,,,,,0,0,0,0,0
5.0900,1783956850.0389,1,1,2.0000,-0.0000,1.42240,-0.01105,-2.63319,1.07341,1.57081,0.11675,-0.12762,-0.48148,0.03337,,,,,,,,,,,,,,,,,,,,,,,,,,0,0,0,0,0
5.0989,1783956850.0477,1,1,2.0000,-0.0000,1.42240,-0.01105,-2.63319,1.07341,1.57081,0.11675,-0.12762,-0.48148,0.03337,,,,,,,,,,,,,,,,,,,,,,,,,,0,0,0,0,0
5.1356,1783956850.0844,1,1,2.0000,-0.0000,1.42240,-0.01105,-2.63319,1.07341,1.57081,0.11675,-0.12762,-0.48148,0.03337,,,,,,,,,,,,,,,,,,,,,,,,,,0,0,0,0,0
5.1362,1783956850.0850,1,1,2.0000,-0.0000,1.42240,-0.01105,-2.63319,1.07341,1.57081,0.11675,-0.12762,-0.48148,0.03337,,,,,,,,,,,,,,,,,,,,,,,,,,0,0,0,0,0
5.1428,1783956850.0916,1,1,2.0000,-0.0000,1.42240,-0.01105,-2.63319,1.07341,1.57081,0.11675,-0.12762,-0.48148,0.03337,,,,,,,,,,,,,,,,,,,,,,,,,,0,0,0,0,0
5.1505,1783956850.0993,1,1,2.0000,-0.0000,1.42240,-0.01105,-2.63319,1.07341,1.57081,0.11675,-0.12762,-0.48148,0.03337,,,,,,,,,,,,,,,,,,,,,,,,,,0,0,0,0,0
5.1607,1783956850.1095,1,1,2.0000,-0.0000,1.42240,-0.01105,-2.63319,1.07341,1.57081,0.11675,-0.12762,-0.48148,0.03337,,,,,,,,,,,,,,,,,,,,,,,,,,0,0,0,0,0
5.1936,1783956850.1424,1,1,2.0000,-0.0000,1.42240,-0.01105,-2.63319,1.07341,1.57081,0.11675,-0.12762,-0.48148,0.03337,,,,,,,,,,,,,,,,,,,,,,,,,,0,0,0,0,0
5.1939,1783956850.1427,1,1,2.0000,-0.0000,1.42240,-0.01105,-2.63319,1.07341,1.57081,0.11675,-0.12762,-0.48148,0.03337,,,,,,,,,,,,,,,,,,,,,,,,,,0,0,0,0,0
5.1942,1783956850.1431,1,1,2.0000,-0.0000,1.42240,-0.01105,-2.63319,1.07341,1.57081,0.11675,-0.12762,-0.48148,0.03337,,,,,,,,,,,,,,,,,,,,,,,,,,0,0,0,0,0
5.1945,1783956850.1433,1,1,2.0000,-0.0000,1.42240,-0.01105,-2.63319,1.07341,1.57081,0.11675,-0.12762,-0.48148,0.03337,,,,,,,,,,,,,,,,,,,,,,,,,,0,0,0,0,0
5.1999,1783956850.1487,1,1,2.0000,-0.0000,1.42240,-0.01105,-2.63319,1.07341,1.57081,0.11675,-0.12762,-0.48148,0.03337,,,,,,,,,,,,,,,,,,,,,,,,,,0,0,0,0,0
5.2267,1783956850.1755,1,1,2.0000,-0.0000,1.42240,-0.01105,-2.63319,1.07341,1.57081,0.11675,-0.12762,-0.48148,0.03337,,,,,,,,,,,,,,,,,,,,,,,,,,0,0,0,0,0
5.2417,1783956850.1906,1,1,2.0000,-0.0000,1.42240,-0.01106,-2.63319,1.07342,1.57081,0.11675,-0.12762,-0.48148,0.03337,,,,,,,,,,,,,,,,,,,,,,,,,,0,0,0,0,0
5.2423,1783956850.1911,1,1,2.0000,-0.0000,1.42240,-0.01106,-2.63319,1.07342,1.57081,0.11675,-0.12762,-0.48148,0.03337,,,,,,,,,,,,,,,,,,,,,,,,,,0,0,0,0,0
5.2426,1783956850.1914,1,1,2.0000,-0.0000,1.42240,-0.01106,-2.63319,1.07342,1.57081,0.11675,-0.12762,-0.48148,0.03337,,,,,,,,,,,,,,,,,,,,,,,,,,0,0,0,0,0
5.2429,1783956850.1918,1,1,2.0000,-0.0000,1.42240,-0.01106,-2.63319,1.07342,1.57081,0.11675,-0.12762,-0.48148,0.03337,,,,,,,,,,,,,,,,,,,,,,,,,,0,0,0,0,0
5.2506,1783956850.1994,1,1,2.0000,-0.0000,1.42240,-0.01107,-2.63318,1.07344,1.57081,0.11675,-0.12762,-0.48149,0.03337,,,,,,,,,,,,,,,,,,,,,,,,,,0,0,0,0,0
5.2718,1783956850.2206,1,1,2.0000,-0.0000,1.42240,-0.01110,-2.63319,1.07349,1.57081,0.11675,-0.12761,-0.48149,0.03336,,,,,,,,,,,,,,,,,,,,,,,,,,0,0,0,0,0
5.2824,1783956850.2312,1,1,2.0000,-0.0000,1.42240,-0.01113,-2.63321,1.07352,1.57081,0.11675,-0.12762,-0.48148,0.03335,,,,,,,,,,,,,,,,,,,,,,,,,,0,0,0,0,0
5.3319,1783956850.2807,1,1,2.0000,-0.0000,1.42240,-0.01138,-2.63335,1.07381,1.57081,0.11675,-0.12763,-0.48141,0.03322,,,,,,,,,,,,,,,,,,,,,,,,,,0,0,0,0,0
5.3323,1783956850.2811,1,1,2.0000,-0.0000,1.42240,-0.01138,-2.63335,1.07381,1.57081,0.11675,-0.12763,-0.48141,0.03322,,,,,,,,,,,,,,,,,,,,,,,,,,0,0,0,0,0
5.3331,1783956850.2819,1,1,2.0000,-0.0000,1.42240,-0.01138,-2.63335,1.07381,1.57081,0.11675,-0.12763,-0.48141,0.03322,,,,,,,,,,,,,,,,,,,,,,,,,,0,0,0,0,0
5.3335,1783956850.2823,1,1,2.0000,-0.0000,1.42240,-0.01138,-2.63335,1.07381,1.57081,0.11675,-0.12763,-0.48141,0.03322,,,,,,,,,,,,,,,,,,,,,,,,,,0,0,0,0,0
5.3414,1783956850.2902,1,1,2.0000,-0.0000,1.42240,-0.01142,-2.63335,1.07386,1.57081,0.11675,-0.12763,-0.48142,0.03321,,,,,,,,,,,,,,,,,,,,,,,,,,0,0,0,0,0
5.3418,1783956850.2906,1,1,2.0000,-0.0000,1.42240,-0.01142,-2.63335,1.07386,1.57081,0.11675,-0.12763,-0.48142,0.03321,,,,,,,,,,,,,,,,,,,,,,,,,,0,0,0,0,0
5.3509,1783956850.2997,1,1,2.0000,-0.0000,1.42240,-0.01148,-2.63336,1.07393,1.57081,0.11674,-0.12762,-0.48142,0.03319,,,,,,,,,,,,,,,,,,,,,,,,,,0,0,0,0,0
5.4143,1783956850.3631,1,1,2.0000,-0.0000,1.42240,-0.01185,-2.63340,1.07438,1.57081,0.11674,-0.12762,-0.48145,0.03308,,,,,,,,,,,,,,,,,,,,,,,,,,0,0,0,0,0
5.4147,1783956850.3635,1,1,2.0000,-0.0000,1.42240,-0.01185,-2.63340,1.07438,1.57081,0.11674,-0.12762,-0.48145,0.03308,,,,,,,,,,,,,,,,,,,,,,,,,,0,0,0,0,0
5.4151,1783956850.3639,1,1,2.0000,-0.0000,1.42240,-0.01185,-2.63340,1.07438,1.57081,0.11674,-0.12762,-0.48145,0.03308,,,,,,,,,,,,,,,,,,,,,,,,,,0,0,0,0,0
5.5200,1783956850.4689,1,1,2.0000,-0.0000,1.42239,-0.01231,-2.63339,1.07495,1.57081,0.11674,-0.12761,-0.48154,0.03298,,,,,,,,,,,,,,,,,,,,,,,,,,0,0,0,0,0
5.5205,1783956850.4694,1,1,2.0000,-0.0000,1.42239,-0.01231,-2.63339,1.07495,1.57081,0.11674,-0.12761,-0.48154,0.03298,,,,,,,,,,,,,,,,,,,,,,,,,,0,0,0,0,0
5.5223,1783956850.4711,1,1,2.0000,-0.0000,1.42239,-0.01231,-2.63339,1.07495,1.57081,0.11674,-0.12761,-0.48154,0.03298,,,,,,,,,,,,,,,,,,,,,,,,,,0,0,0,0,0
5.5228,1783956850.4716,1,1,2.0000,-0.0000,1.42239,-0.01231,-2.63339,1.07495,1.57081,0.11674,-0.12761,-0.48154,0.03298,,,,,,,,,,,,,,,,,,,,,,,,,,0,0,0,0,0
5.5232,1783956850.4720,1,1,2.0000,-0.0000,1.42239,-0.01231,-2.63339,1.07495,1.57081,0.11674,-0.12761,-0.48154,0.03298,,,,,,,,,,,,,,,,,,,,,,,,,,0,0,0,0,0
5.5341,1783956850.4829,1,1,2.0000,-0.0000,1.42239,-0.01231,-2.63339,1.07495,1.57081,0.11674,-0.12761,-0.48154,0.03298,,,,,,,,,,,,,,,,,,,,,,,,,,0,0,0,0,0
5.5356,1783956850.4844,1,1,2.0000,-0.0000,1.42239,-0.01231,-2.63339,1.07495,1.57081,0.11674,-0.12761,-0.48154,0.03298,,,,,,,,,,,,,,,,,,,,,,,,,,0,0,0,0,0
5.5405,1783956850.4894,1,1,2.0000,-0.0000,1.42239,-0.01231,-2.63339,1.07495,1.57081,0.11674,-0.12761,-0.48154,0.03298,,,,,,,,,,,,,,,,,,,,,,,,,,0,0,0,0,0
5.5489,1783956850.4977,1,1,2.0000,-0.0000,1.42239,-0.01231,-2.63339,1.07495,1.57081,0.11674,-0.12761,-0.48154,0.03298,,,,,,,,,,,,,,,,,,,,,,,,,,0,0,0,0,0
5.5632,1783956850.5120,1,1,2.0000,-0.0000,1.42239,-0.01231,-2.63339,1.07495,1.57081,0.11674,-0.12761,-0.48154,0.03298,,,,,,,,,,,,,,,,,,,,,,,,,,0,0,0,0,0
5.5726,1783956850.5214,1,1,2.0000,-0.0000,1.42239,-0.01231,-2.63339,1.07495,1.57081,0.11674,-0.12761,-0.48154,0.03298,,,,,,,,,,,,,,,,,,,,,,,,,,0,0,0,0,0
5.5730,1783956850.5218,1,1,2.0000,-0.0000,1.42239,-0.01231,-2.63339,1.07495,1.57081,0.11674,-0.12761,-0.48154,0.03298,,,,,,,,,,,,,,,,,,,,,,,,,,0,0,0,0,0
5.5869,1783956850.5357,1,1,2.0000,-0.0000,1.42239,-0.01231,-2.63339,1.07495,1.57081,0.11674,-0.12761,-0.48154,0.03298,,,,,,,,,,,,,,,,,,,,,,,,,,0,0,0,0,0
5.5945,1783956850.5433,1,1,2.0000,-0.0000,1.42239,-0.01231,-2.63339,1.07495,1.57081,0.11674,-0.12761,-0.48154,0.03298,,,,,,,,,,,,,,,,,,,,,,,,,,0,0,0,0,0
5.5949,1783956850.5437,1,1,2.0000,-0.0000,1.42239,-0.01231,-2.63339,1.07495,1.57081,0.11674,-0.12761,-0.48154,0.03298,,,,,,,,,,,,,,,,,,,,,,,,,,0,0,0,0,0
5.6017,1783956850.5505,1,1,2.0000,-0.0000,1.42239,-0.01231,-2.63339,1.07495,1.57081,0.11674,-0.12761,-0.48154,0.03298,,,,,,,,,,,,,,,,,,,,,,,,,,0,0,0,0,0
5.6416,1783956850.5905,1,1,2.0000,-0.0000,1.42239,-0.01231,-2.63339,1.07495,1.57081,0.11674,-0.12761,-0.48154,0.03298,,,,,,,,,,,,,,,,,,,,,,,,,,0,0,0,0,0
5.6504,1783956850.5993,1,1,2.0000,-0.0000,1.42239,-0.01231,-2.63339,1.07495,1.57081,0.11674,-0.12761,-0.48154,0.03298,,,,,,,,,,,,,,,,,,,,,,,,,,0,0,0,0,0
5.6508,1783956850.5996,1,1,2.0000,-0.0000,1.42239,-0.01231,-2.63339,1.07495,1.57081,0.11674,-0.12761,-0.48154,0.03298,,,,,,,,,,,,,,,,,,,,,,,,,,0,0,0,0,0
5.6548,1783956850.6036,1,1,2.0000,-0.0000,1.42239,-0.01231,-2.63339,1.07495,1.57081,0.11674,-0.12761,-0.48154,0.03298,,,,,,,,,,,,,,,,,,,,,,,,,,0,0,0,0,0
5.6551,1783956850.6039,1,1,2.0000,-0.0000,1.42239,-0.01231,-2.63339,1.07495,1.57081,0.11674,-0.12761,-0.48154,0.03298,,,,,,,,,,,,,,,,,,,,,,,,,,0,0,0,0,0
5.6601,1783956850.6089,1,1,2.0000,-0.0000,1.42239,-0.01231,-2.63339,1.07495,1.57081,0.11674,-0.12761,-0.48154,0.03298,,,,,,,,,,,,,,,,,,,,,,,,,,0,0,0,0,0
5.6604,1783956850.6092,1,1,2.0000,-0.0000,1.42239,-0.01231,-2.63339,1.07495,1.57081,0.11674,-0.12761,-0.48154,0.03298,,,,,,,,,,,,,,,,,,,,,,,,,,0,0,0,0,0
5.6720,1783956850.6208,1,1,2.0000,-0.0000,1.42239,-0.01231,-2.63339,1.07495,1.57081,0.11674,-0.12761,-0.48154,0.03298,,,,,,,,,,,,,,,,,,,,,,,,,,0,0,0,0,0
5.6888,1783956850.6376,1,1,2.0000,-0.0000,1.42239,-0.01231,-2.63339,1.07496,1.57081,0.11674,-0.12761,-0.48154,0.03298,,,,,,,,,,,,,,,,,,,,,,,,,,0,0,0,0,0
5.6970,1783956850.6459,1,1,2.0000,-0.0000,1.42239,-0.01232,-2.63340,1.07497,1.57081,0.11674,-0.12761,-0.48153,0.03298,,,,,,,,,,,,,,,,,,,,,,,,,,0,0,0,0,0
5.7064,1783956850.6552,1,1,2.0000,-0.0000,1.42239,-0.01234,-2.63342,1.07500,1.57081,0.11674,-0.12761,-0.48152,0.03296,,,,,,,,,,,,,,,,,,,,,,,,,,0,0,0,0,0
5.7148,1783956850.6636,1,1,2.0000,-0.0000,1.42239,-0.01237,-2.63345,1.07503,1.57081,0.11674,-0.12761,-0.48150,0.03294,,,,,,,,,,,,,,,,,,,,,,,,,,0,0,0,0,0
5.7201,1783956850.6689,1,1,2.0000,-0.0000,1.42239,-0.01237,-2.63345,1.07503,1.57081,0.11674,-0.12761,-0.48150,0.03294,,,,,,,,,,,,,,,,,,,,,,,,,,0,0,0,0,0
5.7204,1783956850.6692,1,1,2.0000,-0.0000,1.42239,-0.01237,-2.63345,1.07503,1.57081,0.11674,-0.12761,-0.48150,0.03294,,,,,,,,,,,,,,,,,,,,,,,,,,0,0,0,0,0
5.7322,1783956850.6810,1,1,2.0000,-0.0000,1.42239,-0.01241,-2.63348,1.07508,1.57081,0.11674,-0.12761,-0.48149,0.03292,,,,,,,,,,,,,,,,,,,,,,,,,,0,0,0,0,0
5.7420,1783956850.6909,1,1,2.0000,-0.0000,1.42239,-0.01243,-2.63349,1.07510,1.57081,0.11674,-0.12761,-0.48148,0.03291,,,,,,,,,,,,,,,,,,,,,,,,,,0,0,0,0,0
5.7496,1783956850.6984,1,1,2.0000,-0.0000,1.42239,-0.01245,-2.63350,1.07512,1.57081,0.11674,-0.12761,-0.48148,0.03290,,,,,,,,,,,,,,,,,,,,,,,,,,0,0,0,0,0
5.7600,1783956850.7088,1,1,2.0000,-0.0000,1.42239,-0.01252,-2.63352,1.07522,1.57081,0.11674,-0.12761,-0.48147,0.03287,,,,,,,,,,,,,,,,,,,,,,,,,,0,0,0,0,0
5.7604,1783956850.7092,1,1,2.0000,-0.0000,1.42239,-0.01252,-2.63352,1.07522,1.57081,0.11674,-0.12761,-0.48147,0.03287,,,,,,,,,,,,,,,,,,,,,,,,,,0,0,0,0,0
5.7697,1783956850.7185,1,1,2.0000,-0.0000,1.42239,-0.01260,-2.63355,1.07531,1.57081,0.11674,-0.12762,-0.48146,0.03284,,,,,,,,,,,,,,,,,,,,,,,,,,0,0,0,0,0
5.7700,1783956850.7188,1,1,2.0000,-0.0000,1.42239,-0.01260,-2.63355,1.07531,1.57081,0.11674,-0.12762,-0.48146,0.03284,,,,,,,,,,,,,,,,,,,,,,,,,,0,0,0,0,0
5.7806,1783956850.7295,1,1,2.0000,-0.0000,1.42239,-0.01262,-2.63355,1.07533,1.57081,0.11674,-0.12762,-0.48146,0.03283,,,,,,,,,,,,,,,,,,,,,,,,,,0,0,0,0,0
5.7905,1783956850.7393,1,1,2.0000,-0.0000,1.42239,-0.01268,-2.63357,1.07541,1.57081,0.11674,-0.12762,-0.48146,0.03281,,,,,,,,,,,,,,,,,,,,,,,,,,0,0,0,0,0
5.7909,1783956850.7397,1,1,2.0000,-0.0000,1.42239,-0.01268,-2.63357,1.07541,1.57081,0.11674,-0.12762,-0.48146,0.03281,,,,,,,,,,,,,,,,,,,,,,,,,,0,0,0,0,0
5.8017,1783956850.7505,1,1,2.0000,-0.0000,1.42239,-0.01282,-2.63360,1.07557,1.57081,0.11674,-0.12762,-0.48146,0.03277,,,,,,,,,,,,,,,,,,,,,,,,,,0,0,0,0,0
5.8090,1783956850.7579,1,1,2.0000,-0.0000,1.42239,-0.01283,-2.63360,1.07558,1.57081,0.11674,-0.12762,-0.48146,0.03276,,,,,,,,,,,,,,,,,,,,,,,,,,0,0,0,0,0
5.8740,1783956850.8228,1,1,2.0000,-0.0000,1.42239,-0.01338,-2.63366,1.07626,1.57081,0.11674,-0.12761,-0.48150,0.03260,,,,,,,,,,,,,,,,,,,,,,,,,,0,0,0,0,0
5.8744,1783956850.8233,1,1,2.0000,-0.0000,1.42239,-0.01338,-2.63366,1.07626,1.57081,0.11674,-0.12761,-0.48150,0.03260,,,,,,,,,,,,,,,,,,,,,,,,,,0,0,0,0,0
5.8749,1783956850.8238,1,1,2.0000,-0.0000,1.42239,-0.01338,-2.63366,1.07626,1.57081,0.11674,-0.12761,-0.48150,0.03260,,,,,,,,,,,,,,,,,,,,,,,,,,0,0,0,0,0
5.8800,1783956850.8288,1,1,2.0000,-0.0000,1.42239,-0.01345,-2.63367,1.07636,1.57081,0.11674,-0.12761,-0.48151,0.03259,,,,,,,,,,,,,,,,,,,,,,,,,,0,0,0,0,0
5.8937,1783956850.8425,1,1,2.0000,-0.0000,1.42239,-0.01350,-2.63366,1.07641,1.57081,0.11674,-0.12760,-0.48153,0.03258,,,,,,,,,,,,,,,,,,,,,,,,,,0,0,0,0,0
5.8940,1783956850.8429,1,1,2.0000,-0.0000,1.42239,-0.01350,-2.63366,1.07641,1.57081,0.11674,-0.12760,-0.48153,0.03258,,,,,,,,,,,,,,,,,,,,,,,,,,0,0,0,0,0
5.9040,1783956850.8528,1,1,2.0000,-0.0000,1.42239,-0.01350,-2.63366,1.07641,1.57081,0.11674,-0.12760,-0.48153,0.03258,,,,,,,,,,,,,,,,,,,,,,,,,,0,0,0,0,0
5.9677,1783956850.9165,1,1,2.0000,-0.0000,1.42239,-0.01350,-2.63366,1.07641,1.57081,0.11674,-0.12760,-0.48153,0.03258,,,,,,,,,,,,,,,,,,,,,,,,,,0,0,0,0,0
5.9681,1783956850.9169,1,1,2.0000,-0.0000,1.42239,-0.01350,-2.63366,1.07641,1.57081,0.11674,-0.12760,-0.48153,0.03258,,,,,,,,,,,,,,,,,,,,,,,,,,0,0,0,0,0
5.9685,1783956850.9173,1,1,2.0000,-0.0000,1.42239,-0.01350,-2.63366,1.07641,1.57081,0.11674,-0.12760,-0.48153,0.03258,,,,,,,,,,,,,,,,,,,,,,,,,,0,0,0,0,0
5.9870,1783956850.9358,1,1,2.0000,-0.0000,1.42239,-0.01350,-2.63366,1.07641,1.57081,0.11674,-0.12760,-0.48153,0.03258,,,,,,,,,,,,,,,,,,,,,,,,,,0,0,0,0,0
5.9930,1783956850.9418,1,1,2.0000,-0.0000,1.42239,-0.01350,-2.63366,1.07641,1.57081,0.11674,-0.12760,-0.48153,0.03258,,,,,,,,,,,,,,,,,,,,,,,,,,0,0,0,0,0
5.9967,1783956850.9455,1,1,2.0000,-0.0000,1.42239,-0.01350,-2.63366,1.07641,1.57081,0.11674,-0.12760,-0.48153,0.03258,,,,,,,,,,,,,,,,,,,,,,,,,,0,0,0,0,0
5.9970,1783956850.9458,1,1,2.0000,-0.0000,1.42239,-0.01350,-2.63366,1.07641,1.57081,0.11674,-0.12760,-0.48153,0.03258,,,,,,,,,,,,,,,,,,,,,,,,,,0,0,0,0,0
