Martins-Lucaas/twinforge/sensors/Data/celula de carga/20260713_124535__samples.csv
t_rel_s,t_unix,cycle,phase,setpoint_n,force_net_n,q1,q2,q3,q4,q5,q6,tcp_x,tcp_y,tcp_z,taxel_0,taxel_1,taxel_2,taxel_3,taxel_4,taxel_5,taxel_6,taxel_7,taxel_8,taxel_9,taxel_10,taxel_11,taxel_12,taxel_13,taxel_14,taxel_15,taxel_16,taxel_17,taxel_18,taxel_19,taxel_20,taxel_21,taxel_22,taxel_23,taxel_24,n_RA,n_SA,cn_mm,cn_ra,cn_sa
0.0040,1783957535.8170,1,0,4.0000,0.0000,1.42244,0.00070,-2.63054,1.05904,1.57082,0.11673,-0.12763,-0.48151,0.03737,,,,,,,,,,,,,,,,,,,,,,,,,,0,0,0,0,0
0.0044,1783957535.8174,1,0,4.0000,0.0000,1.42244,0.00070,-2.63054,1.05904,1.57082,0.11673,-0.12763,-0.48151,0.03737,,,,,,,,,,,,,,,,,,,,,,,,,,0,0,0,0,0
0.0048,1783957535.8178,1,0,4.0000,0.0000,1.42244,0.00070,-2.63054,1.05904,1.57082,0.11673,-0.12763,-0.48151,0.03737,,,,,,,,,,,,,,,,,,,,,,,,,,0,0,0,0,0
0.0109,1783957535.8239,1,0,4.0000,0.0000,1.42244,0.00070,-2.63054,1.05904,1.57082,0.11673,-0.12763,-0.48151,0.03737,,,,,,,,,,,,,,,,,,,,,,,,,,0,0,0,0,0
0.0112,1783957535.8242,1,0,4.0000,0.0000,1.42244,0.00070,-2.63054,1.05904,1.57082,0.11673,-0.12763,-0.48151,0.03737,,,,,,,,,,,,,,,,,,,,,,,,,,0,0,0,0,0
0.0212,1783957535.8342,1,0,4.0000,0.0000,1.42244,0.00070,-2.63054,1.05904,1.57082,0.11673,-0.12763,-0.48151,0.03737,,,,,,,,,,,,,,,,,,,,,,,,,,0,0,0,0,0
0.0424,1783957535.8554,1,0,4.0000,0.0000,1.42244,0.00070,-2.63054,1.05905,1.57081,0.11674,-0.12763,-0.48151,0.03737,,,,,,,,,,,,,,,,,,,,,,,,,,0,0,0,0,0
0.0426,1783957535.8556,1,0,4.0000,0.0000,1.42244,0.00070,-2.63054,1.05905,1.57081,0.11674,-0.12763,-0.48151,0.03737,,,,,,,,,,,,,,,,,,,,,,,,,,0,0,0,0,0
0.0445,1783957535.8575,1,0,4.0000,0.0000,1.42244,0.00070,-2.63054,1.05905,1.57081,0.11674,-0.12763,-0.48151,0.03737,,,,,,,,,,,,,,,,,,,,,,,,,,0,0,0,0,0
0.0449,1783957535.8579,1,0,4.0000,0.0000,1.42244,0.00070,-2.63054,1.05905,1.57081,0.11674,-0.12763,-0.48151,0.03737,,,,,,,,,,,,,,,,,,,,,,,,,,0,0,0,0,0
0.0512,1783957535.8642,1,0,4.0000,0.0000,1.42244,0.00071,-2.63054,1.05906,1.57081,0.11674,-0.12763,-0.48151,0.03737,,,,,,,,,,,,,,,,,,,,,,,,,,0,0,0,0,0
0.0663,1783957535.8793,1,0,4.0000,0.0000,1.42244,0.00071,-2.63053,1.05906,1.57080,0.11675,-0.12763,-0.48152,0.03738,,,,,,,,,,,,,,,,,,,,,,,,,,0,0,0,0,0
0.0667,1783957535.8797,1,0,4.0000,0.0000,1.42244,0.00071,-2.63053,1.05906,1.57080,0.11675,-0.12763,-0.48152,0.03738,,,,,,,,,,,,,,,,,,,,,,,,,,0,0,0,0,0
0.0691,1783957535.8821,1,0,4.0000,0.0000,1.42244,0.00071,-2.63053,1.05906,1.57080,0.11675,-0.12763,-0.48152,0.03738,,,,,,,,,,,,,,,,,,,,,,,,,,0,0,0,0,0
0.0695,1783957535.8825,1,0,4.0000,0.0000,1.42244,0.00071,-2.63053,1.05906,1.57080,0.11675,-0.12763,-0.48152,0.03738,,,,,,,,,,,,,,,,,,,,,,,,,,0,0,0,0,0
0.0802,1783957535.8932,1,0,4.0000,0.0000,1.42244,0.00071,-2.63053,1.05907,1.57080,0.11675,-0.12763,-0.48152,0.03738,,,,,,,,,,,,,,,,,,,,,,,,,,0,0,0,0,0
0.0893,1783957535.9023,1,0,4.0000,0.0000,1.42244,0.00071,-2.63053,1.05907,1.57080,0.11675,-0.12763,-0.48152,0.03738,,,,,,,,,,,,,,,,,,,,,,,,,,0,0,0,0,0
0.1046,1783957535.9176,1,0,4.0000,0.0000,1.42244,0.00071,-2.63053,1.05907,1.57080,0.11675,-0.12763,-0.48152,0.03738,,,,,,,,,,,,,,,,,,,,,,,,,,0,0,0,0,0
0.1154,1783957535.9284,1,0,4.0000,0.0000,1.42244,0.00071,-2.63053,1.05907,1.57080,0.11675,-0.12763,-0.48152,0.03738,,,,,,,,,,,,,,,,,,,,,,,,,,0,0,0,0,0
0.1207,1783957535.9337,1,0,4.0000,0.0000,1.42244,0.00071,-2.63053,1.05907,1.57080,0.11675,-0.12763,-0.48152,0.03738,,,,,,,,,,,,,,,,,,,,,,,,,,0,0,0,0,0
0.1210,1783957535.9340,1,0,4.0000,0.0000,1.42244,0.00071,-2.63053,1.05907,1.57080,0.11675,-0.12763,-0.48152,0.03738,,,,,,,,,,,,,,,,,,,,,,,,,,0,0,0,0,0
0.1814,1783957535.9944,1,0,4.0000,0.0000,1.42244,0.00071,-2.63053,1.05907,1.57080,0.11675,-0.12763,-0.48152,0.03738,,,,,,,,,,,,,,,,,,,,,,,,,,0,0,0,0,0
0.1839,1783957535.9969,1,0,4.0000,0.0000,1.42244,0.00071,-2.63053,1.05907,1.57080,0.11675,-0.12763,-0.48152,0.03738,,,,,,,,,,,,,,,,,,,,,,,,,,0,0,0,0,0
0.1842,1783957535.9972,1,0,4.0000,0.0000,1.42244,0.00071,-2.63053,1.05907,1.57080,0.11675,-0.12763,-0.48152,0.03738,,,,,,,,,,,,,,,,,,,,,,,,,,0,0,0,0,0
0.1912,1783957536.0042,1,0,4.0000,0.0000,1.42244,0.00071,-2.63053,1.05907,1.57080,0.11675,-0.12763,-0.48152,0.03738,,,,,,,,,,,,,,,,,,,,,,,,,,0,0,0,0,0
0.1916,1783957536.0046,1,0,4.0000,0.0000,1.42244,0.00071,-2.63053,1.05907,1.57080,0.11675,-0.12763,-0.48152,0.03738,,,,,,,,,,,,,,,,,,,,,,,,,,0,0,0,0,0
0.1929,1783957536.0059,1,0,4.0000,0.0000,1.42244,0.00071,-2.63053,1.05907,1.57080,0.11675,-0.12763,-0.48152,0.03738,,,,,,,,,,,,,,,,,,,,,,,,,,0,0,0,0,0
0.1943,1783957536.0073,1,0,4.0000,0.0000,1.42244,0.00071,-2.63053,1.05907,1.57080,0.11675,-0.12763,-0.48152,0.03738,,,,,,,,,,,,,,,,,,,,,,,,,,0,0,0,0,0
0.2023,1783957536.0153,1,0,4.0000,0.0000,1.42244,0.00071,-2.63053,1.05907,1.57080,0.11675,-0.12763,-0.48152,0.03738,,,,,,,,,,,,,,,,,,,,,,,,,,0,0,0,0,0
0.2174,1783957536.0304,1,0,4.0000,0.0000,1.42244,0.00071,-2.63053,1.05907,1.57080,0.11675,-0.12763,-0.48152,0.03738,,,,,,,,,,,,,,,,,,,,,,,,,,0,0,0,0,0
0.2477,1783957536.0607,1,0,4.0000,0.0000,1.42244,0.00071,-2.63053,1.05907,1.57080,0.11675,-0.12763,-0.48152,0.03738,,,,,,,,,,,,,,,,,,,,,,,,,,0,0,0,0,0
0.2510,1783957536.0640,1,0,4.0000,0.0000,1.42244,0.00071,-2.63053,1.05907,1.57080,0.11675,-0.12763,-0.48152,0.03738,,,,,,,,,,,,,,,,,,,,,,,,,,0,0,0,0,0
0.2533,1783957536.0663,1,0,4.0000,0.0000,1.42244,0.00071,-2.63053,1.05907,1.57080,0.11675,-0.12763,-0.48152,0.03738,,,,,,,,,,,,,,,,,,,,,,,,,,0,0,0,0,0
0.2536,1783957536.0666,1,0,4.0000,0.0000,1.42244,0.00071,-2.63053,1.05907,1.57080,0.11675,-0.12763,-0.48152,0.03738,,,,,,,,,,,,,,,,,,,,,,,,,,0,0,0,0,0
0.2597,1783957536.0727,1,0,4.0000,0.0000,1.42244,0.00071,-2.63053,1.05907,1.57080,0.11675,-0.12763,-0.48152,0.03738,,,,,,,,,,,,,,,,,,,,,,,,,,0,0,0,0,0
0.2704,1783957536.0834,1,0,4.0000,0.0000,1.42244,0.00071,-2.63053,1.05907,1.57080,0.11675,-0.12763,-0.48152,0.03738,,,,,,,,,,,,,,,,,,,,,,,,,,0,0,0,0,0
0.2709,1783957536.0839,1,0,4.0000,0.0000,1.42244,0.00071,-2.63053,1.05907,1.57080,0.11675,-0.12763,-0.48152,0.03738,,,,,,,,,,,,,,,,,,,,,,,,,,0,0,0,0,0
0.2827,1783957536.0957,1,0,4.0000,0.0000,1.42244,0.00071,-2.63053,1.05907,1.57080,0.11675,-0.12763,-0.48152,0.03738,,,,,,,,,,,,,,,,,,,,,,,,,,0,0,0,0,0
0.2969,1783957536.1099,1,0,4.0000,0.0000,1.42244,0.00071,-2.63053,1.05907,1.57080,0.11675,-0.12763,-0.48152,0.03738,,,,,,,,,,,,,,,,,,,,,,,,,,0,0,0,0,0
0.2994,1783957536.1124,1,0,4.0000,0.0000,1.42244,0.00071,-2.63053,1.05907,1.57080,0.11675,-0.12763,-0.48152,0.03738,,,,,,,,,,,,,,,,,,,,,,,,,,0,0,0,0,0
0.2998,1783957536.1128,1,0,4.0000,0.0000,1.42244,0.00071,-2.63053,1.05907,1.57080,0.11675,-0.12763,-0.48152,0.03738,,,,,,,,,,,,,,,,,,,,,,,,,,0,0,0,0,0
0.3111,1783957536.1241,1,0,4.0000,0.0000,1.42244,0.00071,-2.63053,1.05907,1.57080,0.11675,-0.12763,-0.48152,0.03738,,,,,,,,,,,,,,,,,,,,,,,,,,0,0,0,0,0
0.3271,1783957536.1401,1,0,4.0000,0.0000,1.42244,0.00071,-2.63053,1.05907,1.57080,0.11675,-0.12763,-0.48152,0.03738,,,,,,,,,,,,,,,,,,,,,,,,,,0,0,0,0,0
0.3525,1783957536.1655,1,0,4.0000,0.0000,1.42244,0.00071,-2.63053,1.05907,1.57080,0.11675,-0.12763,-0.48152,0.03738,,,,,,,,,,,,,,,,,,,,,,,,,,0,0,0,0,0
0.3558,1783957536.1688,1,0,4.0000,0.0000,1.42244,0.00071,-2.63053,1.05907,1.57080,0.11675,-0.12763,-0.48152,0.03738,,,,,,,,,,,,,,,,,,,,,,,,,,0,0,0,0,0
0.3705,1783957536.1835,1,0,4.0000,0.0000,1.42244,0.00071,-2.63053,1.05907,1.57080,0.11675,-0.12763,-0.48152,0.03738,,,,,,,,,,,,,,,,,,,,,,,,,,0,0,0,0,0
0.3740,1783957536.1870,1,0,4.0000,0.0000,1.42244,0.00071,-2.63053,1.05907,1.57080,0.11675,-0.12763,-0.48152,0.03738,,,,,,,,,,,,,,,,,,,,,,,,,,0,0,0,0,0
0.3743,1783957536.1873,1,0,4.0000,0.0000,1.42244,0.00071,-2.63053,1.05907,1.57080,0.11675,-0.12763,-0.48152,0.03738,,,,,,,,,,,,,,,,,,,,,,,,,,0,0,0,0,0
0.3749,1783957536.1879,1,0,4.0000,0.0000,1.42244,0.00071,-2.63053,1.05907,1.57080,0.11675,-0.12763,-0.48152,0.03738,,,,,,,,,,,,,,,,,,,,,,,,,,0,0,0,0,0
0.3753,1783957536.1883,1,0,4.0000,0.0000,1.42244,0.00071,-2.63053,1.05907,1.57080,0.11675,-0.12763,-0.48152,0.03738,,,,,,,,,,,,,,,,,,,,,,,,,,0,0,0,0,0
0.3857,1783957536.1987,1,0,4.0000,0.0000,1.42244,0.00071,-2.63053,1.05907,1.57080,0.11675,-0.12763,-0.48152,0.03738,,,,,,,,,,,,,,,,,,,,,,,,,,0,0,0,0,0
0.3863,1783957536.1993,1,0,4.0000,0.0000,1.42244,0.00071,-2.63053,1.05907,1.57080,0.11675,-0.12763,-0.48152,0.03738,,,,,,,,,,,,,,,,,,,,,,,,,,0,0,0,0,0
0.3957,1783957536.2087,1,0,4.0000,0.0000,1.42244,0.00071,-2.63053,1.05907,1.57080,0.11675,-0.12763,-0.48152,0.03738,,,,,,,,,,,,,,,,,,,,,,,,,,0,0,0,0,0
0.4006,1783957536.2136,1,0,4.0000,0.0000,1.42244,0.00071,-2.63053,1.05907,1.57080,0.11675,-0.12763,-0.48152,0.03738,,,,,,,,,,,,,,,,,,,,,,,,,,0,0,0,0,0
0.4011,1783957536.2141,1,0,4.0000,0.0000,1.42244,0.00071,-2.63053,1.05907,1.57080,0.11675,-0.12763,-0.48152,0.03738,,,,,,,,,,,,,,,,,,,,,,,,,,0,0,0,0,0
0.4211,1783957536.2341,1,0,4.0000,0.0000,1.42244,0.00071,-2.63053,1.05907,1.57080,0.11675,-0.12763,-0.48152,0.03738,,,,,,,,,,,,,,,,,,,,,,,,,,0,0,0,0,0
0.5023,1783957536.3153,1,0,4.0000,0.0000,1.42244,0.00071,-2.63053,1.05907,1.57080,0.11675,-0.12763,-0.48152,0.03738,,,,,,,,,,,,,,,,,,,,,,,,,,0,0,0,0,0
0.5047,1783957536.3177,1,0,4.0000,0.0000,1.42244,0.00071,-2.63053,1.05907,1.57080,0.11675,-0.12763,-0.48152,0.03738,,,,,,,,,,,,,,,,,,,,,,,,,,0,0,0,0,0
0.5050,1783957536.3180,1,0,4.0000,0.0000,1.42244,0.00071,-2.63053,1.05907,1.57080,0.11675,-0.12763,-0.48152,0.03738,,,,,,,,,,,,,,,,,,,,,,,,,,0,0,0,0,0
0.5116,1783957536.3246,1,0,4.0000,0.0000,1.42244,0.00071,-2.63053,1.05907,1.57080,0.11675,-0.12763,-0.48152,0.03738,,,,,,,,,,,,,,,,,,,,,,,,,,0,0,0,0,0
0.5118,1783957536.3248,1,0,4.0000,0.0000,1.42244,0.00071,-2.63053,1.05907,1.57080,0.11675,-0.12763,-0.48152,0.03738,,,,,,,,,,,,,,,,,,,,,,,,,,0,0,0,0,0
0.5125,1783957536.3255,1,0,4.0000,0.0000,1.42244,0.00071,-2.63053,1.05907,1.57080,0.11675,-0.12763,-0.48152,0.03738,,,,,,,,,,,,,,,,,,,,,,,,,,0,0,0,0,0
0.5128,1783957536.3258,1,0,4.0000,0.0000,1.42244,0.00071,-2.63053,1.05907,1.57080,0.11675,-0.12763,-0.48152,0.03738,,,,,,,,,,,,,,,,,,,,,,,,,,0,0,0,0,0
0.5157,1783957536.3287,1,0,4.0000,0.0000,1.42244,0.00071,-2.63053,1.05907,1.57080,0.11675,-0.12763,-0.48152,0.03738,,,,,,,,,,,,,,,,,,,,,,,,,,0,0,0,0,0
0.5168,1783957536.3298,1,0,4.0000,0.0000,1.42244,0.00071,-2.63053,1.05907,1.57080,0.11675,-0.12763,-0.48152,0.03738,,,,,,,,,,,,,,,,,,,,,,,,,,0,0,0,0,0
0.5216,1783957536.3346,1,0,4.0000,0.0000,1.42244,0.00071,-2.63053,1.05907,1.57080,0.11675,-0.12763,-0.48152,0.03738,,,,,,,,,,,,,,,,,,,,,,,,,,0,0,0,0,0
0.5223,1783957536.3353,1,0,4.0000,0.0000,1.42244,0.00071,-2.63053,1.05907,1.57080,0.11675,-0.12763,-0.48152,0.03738,,,,,,,,,,,,,,,,,,,,,,,,,,0,0,0,0,0
0.5227,1783957536.3357,1,0,4.0000,0.0000,1.42244,0.00071,-2.63053,1.05907,1.57080,0.11675,-0.12763,-0.48152,0.03738,,,,,,,,,,,,,,,,,,,,,,,,,,0,0,0,0,0
0.5230,1783957536.3360,1,0,4.0000,0.0000,1.42244,0.00071,-2.63053,1.05907,1.57080,0.11675,-0.12763,-0.48152,0.03738,,,,,,,,,,,,,,,,,,,,,,,,,,0,0,0,0,0
0.5234,1783957536.3364,1,0,4.0000,0.0000,1.42244,0.00071,-2.63053,1.05907,1.57080,0.11675,-0.12763,-0.48152,0.03738,,,,,,,,,,,,,,,,,,,,,,,,,,0,0,0,0,0
0.5248,1783957536.3378,1,0,4.0000,0.0000,1.42244,0.00071,-2.63053,1.05907,1.57080,0.11675,-0.12763,-0.48152,0.03738,,,,,,,,,,,,,,,,,,,,,,,,,,0,0,0,0,0
0.5250,1783957536.3380,1,0,4.0000,0.0000,1.42244,0.00071,-2.63053,1.05907,1.57080,0.11675,-0.12763,-0.48152,0.03738,,,,,,,,,,,,,,,,,,,,,,,,,,0,0,0,0,0
0.5393,1783957536.3523,1,0,4.0000,0.0000,1.42244,0.00071,-2.63053,1.05907,1.57080,0.11675,-0.12763,-0.48152,0.03738,,,,,,,,,,,,,,,,,,,,,,,,,,0,0,0,0,0
0.5533,1783957536.3663,1,0,4.0000,0.0000,1.42244,0.00071,-2.63053,1.05907,1.57080,0.11675,-0.12763,-0.48152,0.03738,,,,,,,,,,,,,,,,,,,,,,,,,,0,0,0,0,0
0.5536,1783957536.3667,1,0,4.0000,0.0000,1.42244,0.00071,-2.63053,1.05907,1.57080,0.11675,-0.12763,-0.48152,0.03738,,,,,,,,,,,,,,,,,,,,,,,,,,0,0,0,0,0
0.5595,1783957536.3725,1,0,4.0000,0.0000,1.42244,0.00071,-2.63053,1.05907,1.57080,0.11675,-0.12763,-0.48152,0.03738,,,,,,,,,,,,,,,,,,,,,,,,,,0,0,0,0,0
0.5730,1783957536.3860,1,0,4.0000,0.0000,1.42244,0.00071,-2.63053,1.05907,1.57080,0.11675,-0.12763,-0.48152,0.03738,,,,,,,,,,,,,,,,,,,,,,,,,,0,0,0,0,0
0.5834,1783957536.3964,1,0,4.0000,0.0000,1.42244,0.00071,-2.63053,1.05907,1.57080,0.11675,-0.12763,-0.48152,0.03738,,,,,,,,,,,,,,,,,,,,,,,,,,0,0,0,0,0
0.5916,1783957536.4046,1,0,4.0000,0.0000,1.42244,0.00071,-2.63053,1.05907,1.57080,0.11675,-0.12763,-0.48152,0.03738,,,,,,,,,,,,,,,,,,,,,,,,,,0,0,0,0,0
0.5919,1783957536.4049,1,0,4.0000,0.0000,1.42244,0.00071,-2.63053,1.05907,1.57080,0.11675,-0.12763,-0.48152,0.03738,,,,,,,,,,,,,,,,,,,,,,,,,,0,0,0,0,0
0.6014,1783957536.4144,1,0,4.0000,0.0000,1.42244,0.00071,-2.63053,1.05907,1.57080,0.11675,-0.12763,-0.48152,0.03738,,,,,,,,,,,,,,,,,,,,,,,,,,0,0,0,0,0
0.6149,1783957536.4279,1,0,4.0000,0.0000,1.42244,0.00071,-2.63053,1.05907,1.57080,0.11675,-0.12763,-0.48152,0.03738,,,,,,,,,,,,,,,,,,,,,,,,,,0,0,0,0,0
0.6212,1783957536.4342,1,0,4.0000,0.0000,1.42244,0.00071,-2.63053,1.05907,1.57080,0.11675,-0.12763,-0.48152,0.03738,,,,,,,,,,,,,,,,,,,,,,,,,,0,0,0,0,0
0.6216,1783957536.4346,1,0,4.0000,0.0000,1.42244,0.00071,-2.63053,1.05907,1.57080,0.11675,-0.12763,-0.48152,0.03738,,,,,,,,,,,,,,,,,,,,,,,,,,0,0,0,0,0
0.6328,1783957536.4458,1,0,4.0000,0.0000,1.42244,0.00071,-2.63053,1.05907,1.57080,0.11675,-0.12763,-0.48152,0.03738,,,,,,,,,,,,,,,,,,,,,,,,,,0,0,0,0,0
0.6408,1783957536.4538,1,0,4.0000,0.0000,1.42244,0.00071,-2.63053,1.05907,1.57080,0.11675,-0.12763,-0.48152,0.03738,,,,,,,,,,,,,,,,,,,,,,,,,,0,0,0,0,0
0.6412,1783957536.4542,1,0,4.0000,0.0000,1.42244,0.00071,-2.63053,1.05907,1.57080,0.11675,-0.12763,-0.48152,0.03738,,,,,,,,,,,,,,,,,,,,,,,,,,0,0,0,0,0
0.6576,1783957536.4706,1,0,4.0000,0.0000,1.42244,0.00071,-2.63053,1.05907,1.57080,0.11675,-0.12763,-0.48152,0.03738,,,,,,,,,,,,,,,,,,,,,,,,,,0,0,0,0,0
0.6583,1783957536.4713,1,0,4.0000,0.0000,1.42244,0.00071,-2.63053,1.05907,1.57080,0.11675,-0.12763,-0.48152,0.03738,,,,,,,,,,,,,,,,,,,,,,,,,,0,0,0,0,0
0.6595,1783957536.4725,1,0,4.0000,0.0000,1.42244,0.00071,-2.63053,1.05907,1.57080,0.11675,-0.12763,-0.48152,0.03738,,,,,,,,,,,,,,,,,,,,,,,,,,0,0,0,0,0
0.6689,1783957536.4819,1,0,4.0000,0.0000,1.42244,0.00071,-2.63053,1.05907,1.57080,0.11675,-0.12763,-0.48152,0.03738,,,,,,,,,,,,,,,,,,,,,,,,,,0,0,0,0,0
0.6694,1783957536.4824,1,0,4.0000,0.0000,1.42244,0.00071,-2.63053,1.05907,1.57080,0.11675,-0.12763,-0.48152,0.03738,,,,,,,,,,,,,,,,,,,,,,,,,,0,0,0,0,0
0.6801,1783957536.4931,1,0,4.0000,0.0000,1.42244,0.00071,-2.63053,1.05907,1.57080,0.11675,-0.12763,-0.48152,0.03738,,,,,,,,,,,,,,,,,,,,,,,,,,0,0,0,0,0
0.6929,1783957536.5059,1,0,4.0000,0.0000,1.42244,0.00071,-2.63053,1.05907,1.57080,0.11675,-0.12763,-0.48152,0.03738,,,,,,,,,,,,,,,,,,,,,,,,,,0,0,0,0,0
0.7024,1783957536.5154,1,0,4.0000,0.0000,1.42244,0.00071,-2.63053,1.05907,1.57080,0.11675,-0.12763,-0.48152,0.03738,,,,,,,,,,,,,,,,,,,,,,,,,,0,0,0,0,0
0.7028,1783957536.5158,1,0,4.0000,0.0000,1.42244,0.00071,-2.63053,1.05907,1.57080,0.11675,-0.12763,-0.48152,0.03738,,,,,,,,,,,,,,,,,,,,,,,,,,0,0,0,0,0
0.7094,1783957536.5224,1,0,4.0000,0.0000,1.42244,0.00071,-2.63053,1.05907,1.57080,0.11675,-0.12763,-0.48152,0.03738,,,,,,,,,,,,,,,,,,,,,,,,,,0,0,0,0,0
0.7248,1783957536.5378,1,0,4.0000,0.0000,1.42244,0.00071,-2.63053,1.05907,1.57080,0.11675,-0.12763,-0.48152,0.03738,,,,,,,,,,,,,,,,,,,,,,,,,,0,0,0,0,0
0.7364,1783957536.5494,1,1,4.0000,0.0000,1.42244,0.00071,-2.63053,1.05907,1.57080,0.11675,-0.12763,-0.48152,0.03738,,,,,,,,,,,,,,,,,,,,,,,,,,0,0,0,0,0
0.7395,1783957536.5525,1,1,4.0000,0.0000,1.42244,0.00071,-2.63053,1.05907,1.57080,0.11675,-0.12763,-0.48152,0.03738,,,,,,,,,,,,,,,,,,,,,,,,,,0,0,0,0,0
0.7721,1783957536.5851,1,1,4.0000,0.0000,1.42244,0.00071,-2.63053,1.05907,1.57080,0.11675,-0.12763,-0.48152,0.03738,,,,,,,,,,,,,,,,,,,,,,,,,,0,0,0,0,0
0.7727,1783957536.5857,1,1,4.0000,0.0000,1.42244,0.00071,-2.63053,1.05907,1.57080,0.11675,-0.12763,-0.48152,0.03738,,,,,,,,,,,,,,,,,,,,,,,,,,0,0,0,0,0
0.7730,1783957536.5860,1,1,4.0000,0.0000,1.42244,0.00071,-2.63053,1.05907,1.57080,0.11675,-0.12763,-0.48152,0.03738,,,,,,,,,,,,,,,,,,,,,,,,,,0,0,0,0,0
0.7829,1783957536.5959,1,1,4.0000,0.0000,1.42244,0.00071,-2.63053,1.05907,1.57080,0.11675,-0.12763,-0.48152,0.03738,,,,,,,,,,,,,,,,,,,,,,,,,,0,0,0,0,0
0.7938,1783957536.6068,1,1,4.0000,0.0000,1.42244,0.00071,-2.63053,1.05907,1.57080,0.11675,-0.12763,-0.48152,0.03738,,,,,,,,,,,,,,,,,,,,,,,,,,0,0,0,0,0
0.8077,1783957536.6207,1,1,4.0000,0.0000,1.42244,0.00071,-2.63053,1.05907,1.57080,0.11675,-0.12763,-0.48152,0.03738,,,,,,,,,,,,,,,,,,,,,,,,,,0,0,0,0,0
0.8079,1783957536.6209,1,1,4.0000,0.0000,1.42244,0.00071,-2.63053,1.05907,1.57080,0.11675,-0.12763,-0.48152,0.03738,,,,,,,,,,,,,,,,,,,,,,,,,,0,0,0,0,0
0.8103,1783957536.6233,1,1,4.0000,0.0000,1.42244,0.00071,-2.63053,1.05907,1.57080,0.11675,-0.12763,-0.48152,0.03738,,,,,,,,,,,,,,,,,,,,,,,,,,0,0,0,0,0
0.8106,1783957536.6236,1,1,4.0000,0.0000,1.42244,0.00071,-2.63053,1.05907,1.57080,0.11675,-0.12763,-0.48152,0.03738,,,,,,,,,,,,,,,,,,,,,,,,,,0,0,0,0,0
0.8201,1783957536.6331,1,1,4.0000,0.0000,1.42244,0.00071,-2.63053,1.05907,1.57080,0.11675,-0.12763,-0.48152,0.03738,,,,,,,,,,,,,,,,,,,,,,,,,,0,0,0,0,0
0.8375,1783957536.6505,1,1,4.0000,0.0000,1.42244,0.00071,-2.63053,1.05907,1.57080,0.11675,-0.12763,-0.48152,0.03738,,,,,,,,,,,,,,,,,,,,,,,,,,0,0,0,0,0
0.8393,1783957536.6524,1,1,4.0000,0.0000,1.42244,0.00071,-2.63053,1.05907,1.57080,0.11675,-0.12763,-0.48152,0.03738,,,,,,,,,,,,,,,,,,,,,,,,,,0,0,0,0,0
0.8854,1783957536.6984,1,1,4.0000,0.0000,1.42244,0.00071,-2.63053,1.05907,1.57080,0.11675,-0.12763,-0.48152,0.03738,,,,,,,,,,,,,,,,,,,,,,,,,,0,0,0,0,0
0.8971,1783957536.7101,1,1,4.0000,0.0000,1.42244,0.00071,-2.63053,1.05907,1.57080,0.11675,-0.12763,-0.48152,0.03738,,,,,,,,,,,,,,,,,,,,,,,,,,0,0,0,0,0
0.9250,1783957536.7380,1,1,4.0000,0.0000,1.42244,0.00071,-2.63053,1.05907,1.57080,0.11675,-0.12763,-0.48152,0.03738,,,,,,,,,,,,,,,,,,,,,,,,,,0,0,0,0,0
0.9263,1783957536.7393,1,1,4.0000,0.0000,1.42244,0.00071,-2.63053,1.05907,1.57080,0.11675,-0.12763,-0.48152,0.03738,,,,,,,,,,,,,,,,,,,,,,,,,,0,0,0,0,0
0.9266,1783957536.7396,1,1,4.0000,0.0000,1.42244,0.00071,-2.63053,1.05907,1.57080,0.11675,-0.12763,-0.48152,0.03738,,,,,,,,,,,,,,,,,,,,,,,,,,0,0,0,0,0
0.9315,1783957536.7445,1,1,4.0000,0.0000,1.42244,0.00071,-2.63053,1.05907,1.57080,0.11675,-0.12763,-0.48152,0.03738,,,,,,,,,,,,,,,,,,,,,,,,,,0,0,0,0,0
0.9397,1783957536.7528,1,1,4.0000,0.0000,1.42244,0.00071,-2.63053,1.05907,1.57080,0.11675,-0.12763,-0.48152,0.03738,,,,,,,,,,,,,,,,,,,,,,,,,,0,0,0,0,0
0.9401,1783957536.7531,1,1,4.0000,0.0000,1.42244,0.00071,-2.63053,1.05907,1.57080,0.11675,-0.12763,-0.48152,0.03738,,,,,,,,,,,,,,,,,,,,,,,,,,0,0,0,0,0
0.9432,1783957536.7562,1,1,4.0000,0.0000,1.42244,0.00071,-2.63053,1.05907,1.57080,0.11675,-0.12763,-0.48152,0.03738,,,,,,,,,,,,,,,,,,,,,,,,,,0,0,0,0,0
0.9435,1783957536.7565,1,1,4.0000,0.0000,1.42244,0.00071,-2.63053,1.05907,1.57080,0.11675,-0.12763,-0.48152,0.03738,,,,,,,,,,,,,,,,,,,,,,,,,,0,0,0,0,0
0.9440,1783957536.7570,1,1,4.0000,0.0000,1.42244,0.00071,-2.63053,1.05907,1.57080,0.11675,-0.12763,-0.48152,0.03738,,,,,,,,,,,,,,,,,,,,,,,,,,0,0,0,0,0
0.9443,1783957536.7573,1,1,4.0000,0.0000,1.42244,0.00071,-2.63053,1.05907,1.57080,0.11675,-0.12763,-0.48152,0.03738,,,,,,,,,,,,,,,,,,,,,,,,,,0,0,0,0,0
0.9682,1783957536.7812,1,1,4.0000,0.0000,1.42244,0.00071,-2.63053,1.05907,1.57080,0.11675,-0.12763,-0.48152,0.03738,,,,,,,,,,,,,,,,,,,,,,,,,,0,0,0,0,0
0.9685,1783957536.7815,1,1,4.0000,0.0000,1.42244,0.00071,-2.63053,1.05907,1.57080,0.11675,-0.12763,-0.48152,0.03738,,,,,,,,,,,,,,,,,,,,,,,,,,0,0,0,0,0
0.9711,1783957536.7841,1,1,4.0000,0.0000,1.42244,0.00071,-2.63053,1.05907,1.57080,0.11675,-0.12763,-0.48152,0.03738,,,,,,,,,,,,,,,,,,,,,,,,,,0,0,0,0,0
0.9714,1783957536.7844,1,1,4.0000,0.0000,1.42244,0.00071,-2.63053,1.05907,1.57080,0.11675,-0.12763,-0.48152,0.03738,,,,,,,,,,,,,,,,,,,,,,,,,,0,0,0,0,0
0.9815,1783957536.7945,1,1,4.0000,0.0000,1.42244,0.00071,-2.63053,1.05907,1.57080,0.11675,-0.12763,-0.48152,0.03738,,,,,,,,,,,,,,,,,,,,,,,,,,0,0,0,0,0
0.9824,1783957536.7954,1,1,4.0000,0.0000,1.42244,0.00071,-2.63053,1.05907,1.57080,0.11675,-0.12763,-0.48152,0.03738,,,,,,,,,,,,,,,,,,,,,,,,,,0,0,0,0,0
0.9827,1783957536.7957,1,1,4.0000,0.0000,1.42244,0.00071,-2.63053,1.05907,1.57080,0.11675,-0.12763,-0.48152,0.03738,,,,,,,,,,,,,,,,,,,,,,,,,,0,0,0,0,0
0.9834,1783957536.7964,1,1,4.0000,0.0000,1.42244,0.00071,-2.63053,1.05907,1.57080,0.11675,-0.12763,-0.48152,0.03738,,,,,,,,,,,,,,,,,,,,,,,,,,0,0,0,0,0
0.9836,1783957536.7966,1,1,4.0000,0.0000,1.42244,0.00071,-2.63053,1.05907,1.57080,0.11675,-0.12763,-0.48152,0.03738,,,,,,,,,,,,,,,,,,,,,,,,,,0,0,0,0,0
0.9907,1783957536.8037,1,1,4.0000,0.0000,1.42244,0.00071,-2.63053,1.05907,1.57080,0.11675,-0.12763,-0.48152,0.03738,,,,,,,,,,,,,,,,,,,,,,,,,,0,0,0,0,0
0.9911,1783957536.8041,1,1,4.0000,0.0000,1.42244,0.00071,-2.63053,1.05907,1.57080,0.11675,-0.12763,-0.48152,0.03738,,,,,,,,,,,,,,,,,,,,,,,,,,0,0,0,0,0
0.9991,1783957536.8121,1,1,4.0000,0.0000,1.42244,0.00071,-2.63053,1.05907,1.57080,0.11675,-0.12763,-0.48152,0.03738,,,,,,,,,,,,,,,,,,,,,,,,,,0,0,0,0,0
1.0157,1783957536.8287,1,1,4.0000,0.0000,1.42244,0.00071,-2.63053,1.05907,1.57080,0.11675,-0.12763,-0.48152,0.03738,,,,,,,,,,,,,,,,,,,,,,,,,,0,0,0,0,0
1.0344,1783957536.8475,1,1,4.0000,0.0000,1.42244,0.00070,-2.63054,1.05907,1.57080,0.11675,-0.12763,-0.48151,0.03737,,,,,,,,,,,,,,,,,,,,,,,,,,0,0,0,0,0
1.0352,1783957536.8482,1,1,4.0000,0.0000,1.42244,0.00070,-2.63054,1.05907,1.57080,0.11675,-0.12763,-0.48151,0.03737,,,,,,,,,,,,,,,,,,,,,,,,,,0,0,0,0,0
1.0356,1783957536.8486,1,1,4.0000,0.0000,1.42244,0.00070,-2.63054,1.05907,1.57080,0.11675,-0.12763,-0.48151,0.03737,,,,,,,,,,,,,,,,,,,,,,,,,,0,0,0,0,0
1.0399,1783957536.8529,1,1,4.0000,0.0000,1.42244,0.00070,-2.63054,1.05907,1.57080,0.11675,-0.12764,-0.48151,0.03737,,,,,,,,,,,,,,,,,,,,,,,,,,0,0,0,0,0
1.0402,1783957536.8532,1,1,4.0000,0.0000,1.42244,0.00070,-2.63054,1.05907,1.57080,0.11675,-0.12764,-0.48151,0.03737,,,,,,,,,,,,,,,,,,,,,,,,,,0,0,0,0,0
1.0857,1783957536.8987,1,1,4.0000,0.0000,1.42244,0.00059,-2.63063,1.05918,1.57080,0.11675,-0.12764,-0.48146,0.03730,,,,,,,,,,,,,,,,,,,,,,,,,,0,0,0,0,0
1.0867,1783957536.8997,1,1,4.0000,0.0000,1.42244,0.00057,-2.63064,1.05920,1.57080,0.11675,-0.12764,-0.48146,0.03729,,,,,,,,,,,,,,,,,,,,,,,,,,0,0,0,0,0
1.0871,1783957536.9001,1,1,4.0000,0.0000,1.42244,0.00057,-2.63064,1.05920,1.57080,0.11675,-0.12764,-0.48146,0.03729,,,,,,,,,,,,,,,,,,,,,,,,,,0,0,0,0,0
1.0900,1783957536.9030,1,1,4.0000,0.0000,1.42244,0.00057,-2.63064,1.05920,1.57080,0.11675,-0.12764,-0.48146,0.03729,,,,,,,,,,,,,,,,,,,,,,,,,,0,0,0,0,0
1.0907,1783957536.9037,1,1,4.0000,0.0000,1.42244,0.00055,-2.63065,1.05922,1.57080,0.11675,-0.12764,-0.48145,0.03728,,,,,,,,,,,,,,,,,,,,,,,,,,0,0,0,0,0
1.1025,1783957536.9155,1,1,4.0000,0.0000,1.42244,0.00052,-2.63066,1.05925,1.57080,0.11675,-0.12765,-0.48144,0.03726,,,,,,,,,,,,,,,,,,,,,,,,,,0,0,0,0,0
1.1198,1783957536.9328,1,1,4.0000,0.0000,1.42244,0.00043,-2.63068,1.05935,1.57080,0.11675,-0.12765,-0.48144,0.03723,,,,,,,,,,,,,,,,,,,,,,,,,,0,0,0,0,0
1.1356,1783957536.9486,1,1,4.0000,0.0000,1.42244,0.00037,-2.63070,1.05942,1.57080,0.11675,-0.12765,-0.48144,0.03721,,,,,,,,,,,,,,,,,,,,,,,,,,0,0,0,0,0
1.1366,1783957536.9496,1,1,4.0000,0.0000,1.42244,0.00037,-2.63070,1.05942,1.57080,0.11675,-0.12765,-0.48144,0.03721,,,,,,,,,,,,,,,,,,,,,,,,,,0,0,0,0,0
1.1370,1783957536.9500,1,1,4.0000,0.0000,1.42244,0.00037,-2.63070,1.05942,1.57080,0.11675,-0.12765,-0.48144,0.03721,,,,,,,,,,,,,,,,,,,,,,,,,,0,0,0,0,0
1.1389,1783957536.9519,1,1,4.0000,0.0000,1.42244,0.00035,-2.63070,1.05945,1.57080,0.11675,-0.12765,-0.48144,0.03720,,,,,,,,,,,,,,,,,,,,,,,,,,0,0,0,0,0
1.1524,1783957536.9654,1,1,4.0000,0.0000,1.42244,0.00022,-2.63072,1.05960,1.57080,0.11675,-0.12764,-0.48144,0.03716,,,,,,,,,,,,,,,,,,,,,,,,,,0,0,0,0,0
1.1695,1783957536.9825,1,1,4.0000,0.0000,1.42244,0.00015,-2.63074,1.05968,1.57080,0.11675,-0.12764,-0.48145,0.03714,,,,,,,,,,,,,,,,,,,,,,,,,,0,0,0,0,0
1.1721,1783957536.9851,1,1,4.0000,0.0000,1.42244,0.00012,-2.63074,1.05971,1.57080,0.11675,-0.12764,-0.48145,0.03713,,,,,,,,,,,,,,,,,,,,,,,,,,0,0,0,0,0
1.1788,1783957536.9918,1,1,4.0000,0.0000,1.42244,0.00005,-2.63075,1.05979,1.57080,0.11675,-0.12764,-0.48145,0.03711,,,,,,,,,,,,,,,,,,,,,,,,,,0,0,0,0,0
1.1792,1783957536.9922,1,1,4.0000,0.0000,1.42244,0.00005,-2.63075,1.05979,1.57080,0.11675,-0.12764,-0.48145,0.03711,,,,,,,,,,,,,,,,,,,,,,,,,,0,0,0,0,0
1.1937,1783957537.0067,1,1,4.0000,0.0000,1.42244,-0.00003,-2.63077,1.05990,1.57080,0.11675,-0.12764,-0.48145,0.03708,,,,,,,,,,,,,,,,,,,,,,,,,,0,0,0,0,0
1.2308,1783957537.0438,1,1,4.0000,0.0000,1.42244,-0.00032,-2.63078,1.06027,1.57080,0.11675,-0.12764,-0.48149,0.03701,,,,,,,,,,,,,,,,,,,,,,,,,,0,0,0,0,0
1.2318,1783957537.0448,1,1,4.0000,0.0000,1.42244,-0.00032,-2.63078,1.06027,1.57080,0.11675,-0.12764,-0.48149,0.03701,,,,,,,,,,,,,,,,,,,,,,,,,,0,0,0,0,0
1.2322,1783957537.0452,1,1,4.0000,0.0000,1.42244,-0.00032,-2.63078,1.06027,1.57080,0.11675,-0.12764,-0.48149,0.03701,,,,,,,,,,,,,,,,,,,,,,,,,,0,0,0,0,0
1.2336,1783957537.0466,1,1,4.0000,0.0000,1.42244,-0.00032,-2.63078,1.06027,1.57080,0.11675,-0.12764,-0.48149,0.03701,,,,,,,,,,,,,,,,,,,,,,,,,,0,0,0,0,0
1.2346,1783957537.0476,1,1,4.0000,0.0000,1.42244,-0.00036,-2.63078,1.06031,1.57080,0.11675,-0.12764,-0.48150,0.03700,,,,,,,,,,,,,,,,,,,,,,,,,,0,0,0,0,0
1.2390,1783957537.0520,1,1,4.0000,0.0000,1.42244,-0.00039,-2.63078,1.06036,1.57080,0.11675,-0.12763,-0.48151,0.03700,,,,,,,,,,,,,,,,,,,,,,,,,,0,0,0,0,0
1.2556,1783957537.0686,1,1,4.0000,0.0000,1.42244,-0.00043,-2.63077,1.06041,1.57080,0.11675,-0.12763,-0.48152,0.03699,,,,,,,,,,,,,,,,,,,,,,,,,,0,0,0,0,0
1.2728,1783957537.0858,1,1,4.0000,0.0000,1.42244,-0.00049,-2.63079,1.06048,1.57080,0.11675,-0.12763,-0.48152,0.03697,,,,,,,,,,,,,,,,,,,,,,,,,,0,0,0,0,0
1.2760,1783957537.0890,1,1,4.0000,0.0000,1.42244,-0.00051,-2.63079,1.06051,1.57080,0.11675,-0.12763,-0.48152,0.03696,,,,,,,,,,,,,,,,,,,,,,,,,,0,0,0,0,0
1.2818,1783957537.0948,1,1,4.0000,0.0000,1.42244,-0.00053,-2.63080,1.06054,1.57080,0.11675,-0.12763,-0.48152,0.03695,,,,,,,,,,,,,,,,,,,,,,,,,,0,0,0,0,0
1.2963,1783957537.1093,1,1,4.0000,0.0000,1.42244,-0.00055,-2.63081,1.06057,1.57080,0.11675,-0.12763,-0.48151,0.03694,,,,,,,,,,,,,,,,,,,,,,,,,,0,0,0,0,0
1.3104,1783957537.1234,1,1,4.0000,0.0000,1.42244,-0.00060,-2.63083,1.06062,1.57080,0.11675,-0.12763,-0.48151,0.03693,,,,,,,,,,,,,,,,,,,,,,,,,,0,0,0,0,0
1.3168,1783957537.1298,1,1,4.0000,0.0000,1.42244,-0.00061,-2.63083,1.06064,1.57080,0.11675,-0.12763,-0.48151,0.03692,,,,,,,,,,,,,,,,,,,,,,,,,,0,0,0,0,0
1.3216,1783957537.1346,1,1,4.0000,0.0000,1.42244,-0.00063,-2.63084,1.06066,1.57080,0.11675,-0.12763,-0.48151,0.03692,,,,,,,,,,,,,,,,,,,,,,,,,,0,0,0,0,0
1.3368,1783957537.1498,1,1,4.0000,0.0000,1.42243,-0.00077,-2.63088,1.06084,1.57080,0.11675,-0.12763,-0.48151,0.03687,,,,,,,,,,,,,,,,,,,,,,,,,,0,0,0,0,0
1.3747,1783957537.1877,1,1,4.0000,0.0000,1.42243,-0.00100,-2.63093,1.06112,1.57080,0.11675,-0.12763,-0.48150,0.03678,,,,,,,,,,,,,,,,,,,,,,,,,,0,0,0,0,0
1.3751,1783957537.1881,1,1,4.0000,0.0000,1.42243,-0.00100,-2.63093,1.06112,1.57080,0.11675,-0.12763,-0.48150,0.03678,,,,,,,,,,,,,,,,,,,,,,,,,,0,0,0,0,0
1.3853,1783957537.1983,1,1,4.0000,0.0000,1.42243,-0.00104,-2.63094,1.06118,1.57080,0.11675,-0.12763,-0.48150,0.03677,,,,,,,,,,,,,,,,,,,,,,,,,,0,0,0,0,0
1.3857,1783957537.1987,1,1,4.0000,0.0000,1.42243,-0.00104,-2.63094,1.06118,1.57080,0.11675,-0.12763,-0.48150,0.03677,,,,,,,,,,,,,,,,,,,,,,,,,,0,0,0,0,0
1.3866,1783957537.1996,1,1,4.0000,0.0000,1.42243,-0.00108,-2.63095,1.06122,1.57080,0.11675,-0.12763,-0.48150,0.03676,,,,,,,,,,,,,,,,,,,,,,,,,,0,0,0,0,0
1.3869,1783957537.1999,1,1,4.0000,0.0000,1.42243,-0.00108,-2.63095,1.06122,1.57080,0.11675,-0.12763,-0.48150,0.03676,,,,,,,,,,,,,,,,,,,,,,,,,,0,0,0,0,0
1.4007,1783957537.2137,1,1,4.0000,0.0000,1.42243,-0.00112,-2.63096,1.06128,1.57080,0.11675,-0.12763,-0.48150,0.03674,,,,,,,,,,,,,,,,,,,,,,,,,,0,0,0,0,0
1.4009,1783957537.2139,1,1,4.0000,0.0000,1.42243,-0.00112,-2.63096,1.06128,1.57080,0.11675,-0.12763,-0.48150,0.03674,,,,,,,,,,,,,,,,,,,,,,,,,,0,0,0,0,0
1.4012,1783957537.2142,1,1,4.0000,0.0000,1.42243,-0.00112,-2.63096,1.06128,1.57080,0.11675,-0.12763,-0.48150,0.03674,,,,,,,,,,,,,,,,,,,,,,,,,,0,0,0,0,0
1.4014,1783957537.2144,1,1,4.0000,0.0000,1.42243,-0.00112,-2.63096,1.06128,1.57080,0.11675,-0.12763,-0.48150,0.03674,,,,,,,,,,,,,,,,,,,,,,,,,,0,0,0,0,0
1.4034,1783957537.2164,1,1,4.0000,0.0000,1.42243,-0.00114,-2.63097,1.06130,1.57080,0.11675,-0.12763,-0.48150,0.03674,,,,,,,,,,,,,,,,,,,,,,,,,,0,0,0,0,0
1.4036,1783957537.2166,1,1,4.0000,0.0000,1.42243,-0.00114,-2.63097,1.06130,1.57080,0.11675,-0.12763,-0.48150,0.03674,,,,,,,,,,,,,,,,,,,,,,,,,,0,0,0,0,0
1.4107,1783957537.2237,1,1,4.0000,0.0000,1.42243,-0.00120,-2.63098,1.06137,1.57080,0.11675,-0.12763,-0.48150,0.03672,,,,,,,,,,,,,,,,,,,,,,,,,,0,0,0,0,0
1.4111,1783957537.2242,1,1,4.0000,0.0000,1.42243,-0.00120,-2.63098,1.06137,1.57080,0.11675,-0.12763,-0.48150,0.03672,,,,,,,,,,,,,,,,,,,,,,,,,,0,0,0,0,0
1.4333,1783957537.2463,1,1,4.0000,0.0000,1.42243,-0.00143,-2.63102,1.06166,1.57080,0.11675,-0.12763,-0.48151,0.03664,,,,,,,,,,,,,,,,,,,,,,,,,,0,0,0,0,0
1.4361,1783957537.2491,1,1,4.0000,0.0000,1.42243,-0.00148,-2.63103,1.06172,1.57080,0.11675,-0.12763,-0.48151,0.03663,,,,,,,,,,,,,,,,,,,,,,,,,,0,0,0,0,0
1.4412,1783957537.2542,1,1,4.0000,0.0000,1.42243,-0.00153,-2.63103,1.06178,1.57080,0.11675,-0.12763,-0.48152,0.03661,,,,,,,,,,,,,,,,,,,,,,,,,,0,0,0,0,0
1.4415,1783957537.2546,1,1,4.0000,0.0000,1.42243,-0.00153,-2.63103,1.06178,1.57080,0.11675,-0.12763,-0.48152,0.03661,,,,,,,,,,,,,,,,,,,,,,,,,,0,0,0,0,0
1.4524,1783957537.2654,1,1,4.0000,0.0000,1.42243,-0.00160,-2.63104,1.06187,1.57080,0.11675,-0.12763,-0.48152,0.03659,,,,,,,,,,,,,,,,,,,,,,,,,,0,0,0,0,0
1.4905,1783957537.3035,1,1,4.0000,0.0000,1.42243,-0.00170,-2.63107,1.06201,1.57080,0.11675,-0.12763,-0.48152,0.03656,,,,,,,,,,,,,,,,,,,,,,,,,,0,0,0,0,0
1.4918,1783957537.3048,1,1,4.0000,0.0000,1.42243,-0.00170,-2.63107,1.06201,1.57080,0.11675,-0.12763,-0.48152,0.03656,,,,,,,,,,,,,,,,,,,,,,,,,,0,0,0,0,0
1.4920,1783957537.3050,1,1,4.0000,0.0000,1.42243,-0.00170,-2.63107,1.06201,1.57080,0.11675,-0.12763,-0.48152,0.03656,,,,,,,,,,,,,,,,,,,,,,,,,,0,0,0,0,0
1.5005,1783957537.3135,1,1,4.0000,0.0000,1.42243,-0.00172,-2.63108,1.06204,1.57080,0.11675,-0.12763,-0.48152,0.03655,,,,,,,,,,,,,,,,,,,,,,,,,,0,0,0,0,0
1.5117,1783957537.3247,1,1,4.0000,0.0000,1.42243,-0.00178,-2.63110,1.06211,1.57080,0.11675,-0.12763,-0.48152,0.03653,,,,,,,,,,,,,,,,,,,,,,,,,,0,0,0,0,0
1.5216,1783957537.3346,1,1,4.0000,0.0000,1.42243,-0.00181,-2.63110,1.06214,1.57080,0.11675,-0.12763,-0.48152,0.03652,,,,,,,,,,,,,,,,,,,,,,,,,,0,0,0,0,0
1.5337,1783957537.3467,1,1,4.0000,0.0000,1.42243,-0.00184,-2.63111,1.06218,1.57080,0.11675,-0.12763,-0.48152,0.03651,,,,,,,,,,,,,,,,,,,,,,,,,,0,0,0,0,0
1.5407,1783957537.3537,1,1,4.0000,0.0000,1.42243,-0.00189,-2.63112,1.06224,1.57080,0.11675,-0.12763,-0.48152,0.03649,,,,,,,,,,,,,,,,,,,,,,,,,,0,0,0,0,0
1.5562,1783957537.3692,1,1,4.0000,0.0000,1.42243,-0.00194,-2.63114,1.06231,1.57080,0.11675,-0.12763,-0.48151,0.03647,,,,,,,,,,,,,,,,,,,,,,,,,,0,0,0,0,0
1.5626,1783957537.3756,1,1,4.0000,0.0000,1.42243,-0.00203,-2.63116,1.06241,1.57080,0.11675,-0.12763,-0.48151,0.03644,,,,,,,,,,,,,,,,,,,,,,,,,,0,0,0,0,0
1.5812,1783957537.3942,1,1,4.0000,0.0000,1.42243,-0.00214,-2.63118,1.06255,1.57080,0.11675,-0.12763,-0.48151,0.03640,,,,,,,,,,,,,,,,,,,,,,,,,,0,0,0,0,0
1.5905,1783957537.4035,1,1,4.0000,0.0000,1.42243,-0.00222,-2.63120,1.06264,1.57080,0.11675,-0.12763,-0.48151,0.03638,,,,,,,,,,,,,,,,,,,,,,,,,,0,0,0,0,0
1.5913,1783957537.4043,1,1,4.0000,0.0000,1.42243,-0.00222,-2.63120,1.06264,1.57080,0.11675,-0.12763,-0.48151,0.03638,,,,,,,,,,,,,,,,,,,,,,,,,,0,0,0,0,0
1.5917,1783957537.4047,1,1,4.0000,0.0000,1.42243,-0.00222,-2.63120,1.06264,1.57080,0.11675,-0.12763,-0.48151,0.03638,,,,,,,,,,,,,,,,,,,,,,,,,,0,0,0,0,0
1.6022,1783957537.4152,1,1,4.0000,0.0000,1.42243,-0.00230,-2.63122,1.06275,1.57080,0.11675,-0.12763,-0.48151,0.03635,,,,,,,,,,,,,,,,,,,,,,,,,,0,0,0,0,0
1.6029,1783957537.4159,1,1,4.0000,0.0000,1.42243,-0.00235,-2.63123,1.06281,1.57080,0.11675,-0.12763,-0.48151,0.03633,,,,,,,,,,,,,,,,,,,,,,,,,,0,0,0,0,0
1.6091,1783957537.4221,1,1,4.0000,0.0000,1.42243,-0.00241,-2.63125,1.06287,1.57080,0.11675,-0.12763,-0.48151,0.03631,,,,,,,,,,,,,,,,,,,,,,,,,,0,0,0,0,0
1.6446,1783957537.4576,1,1,4.0000,0.0000,1.42243,-0.00260,-2.63127,1.06311,1.57080,0.11675,-0.12763,-0.48152,0.03625,,,,,,,,,,,,,,,,,,,,,,,,,,0,0,0,0,0
1.7967,1783957537.6097,1,1,4.0000,0.0000,1.42243,-0.00335,-2.63144,1.06404,1.57080,0.11675,-0.12763,-0.48152,0.03600,,,,,,,,,,,,,,,,,,,,,,,,,,0,0,0,0,0
1.8544,1783957537.6674,1,1,4.0000,0.0000,1.42242,-0.00380,-2.63154,1.06459,1.57080,0.11675,-0.12763,-0.48152,0.03585,,,,,,,,,,,,,,,,,,,,,,,,,,0,0,0,0,0
1.8554,1783957537.6684,1,1,4.0000,0.0000,1.42242,-0.00380,-2.63154,1.06459,1.57080,0.11675,-0.12763,-0.48152,0.03585,,,,,,,,,,,,,,,,,,,,,,,,,,0,0,0,0,0
1.8556,1783957537.6686,1,1,4.0000,0.0000,1.42242,-0.00380,-2.63154,1.06459,1.57080,0.11675,-0.12763,-0.48152,0.03585,,,,,,,,,,,,,,,,,,,,,,,,,,0,0,0,0,0
1.8644,1783957537.6774,1,1,4.0000,0.0000,1.42242,-0.00388,-2.63155,1.06468,1.57080,0.11675,-0.12762,-0.48153,0.03582,,,,,,,,,,,,,,,,,,,,,,,,,,0,0,0,0,0
1.9174,1783957537.7304,1,1,4.0000,0.0000,1.42242,-0.00404,-2.63157,1.06488,1.57080,0.11675,-0.12762,-0.48154,0.03578,,,,,,,,,,,,,,,,,,,,,,,,,,0,0,0,0,0
1.9202,1783957537.7332,1,1,4.0000,0.0000,1.42242,-0.00405,-2.63157,1.06489,1.57080,0.11675,-0.12762,-0.48154,0.03577,,,,,,,,,,,,,,,,,,,,,,,,,,0,0,0,0,0
1.9205,1783957537.7335,1,1,4.0000,0.0000,1.42242,-0.00405,-2.63157,1.06489,1.57080,0.11675,-0.12762,-0.48154,0.03577,,,,,,,,,,,,,,,,,,,,,,,,,,0,0,0,0,0
1.9247,1783957537.7377,1,1,4.0000,0.0000,1.42242,-0.00406,-2.63158,1.06491,1.57080,0.11675,-0.12762,-0.48154,0.03577,,,,,,,,,,,,,,,,,,,,,,,,,,0,0,0,0,0
1.9323,1783957537.7453,1,1,4.0000,0.0000,1.42242,-0.00410,-2.63159,1.06495,1.57080,0.11675,-0.12762,-0.48153,0.03575,,,,,,,,,,,,,,,,,,,,,,,,,,0,0,0,0,0
1.9327,1783957537.7457,1,1,4.0000,0.0000,1.42242,-0.00410,-2.63159,1.06495,1.57080,0.11675,-0.12762,-0.48153,0.03575,,,,,,,,,,,,,,,,,,,,,,,,,,0,0,0,0,0
1.9331,1783957537.7461,1,1,4.0000,0.0000,1.42242,-0.00410,-2.63159,1.06495,1.57080,0.11675,-0.12762,-0.48153,0.03575,,,,,,,,,,,,,,,,,,,,,,,,,,0,0,0,0,0
1.9334,1783957537.7464,1,1,4.0000,0.0000,1.42242,-0.00410,-2.63159,1.06495,1.57080,0.11675,-0.12762,-0.48153,0.03575,,,,,,,,,,,,,,,,,,,,,,,,,,0,0,0,0,0
1.9473,1783957537.7603,1,1,4.0000,0.0000,1.42242,-0.00413,-2.63160,1.06499,1.57080,0.11675,-0.12762,-0.48153,0.03574,,,,,,,,,,,,,,,,,,,,,,,,,,0,0,0,0,0
1.9476,1783957537.7606,1,1,4.0000,0.0000,1.42242,-0.00413,-2.63160,1.06499,1.57080,0.11675,-0.12762,-0.48153,0.03574,,,,,,,,,,,,,,,,,,,,,,,,,,0,0,0,0,0
1.9533,1783957537.7663,1,1,4.0000,0.0000,1.42242,-0.00416,-2.63161,1.06502,1.57080,0.11675,-0.12762,-0.48153,0.03573,,,,,,,,,,,,,,,,,,,,,,,,,,0,0,0,0,0
1.9538,1783957537.7668,1,1,4.0000,0.0000,1.42242,-0.00416,-2.63161,1.06502,1.57080,0.11675,-0.12762,-0.48153,0.03573,,,,,,,,,,,,,,,,,,,,,,,,,,0,0,0,0,0
1.9541,1783957537.7671,1,1,4.0000,0.0000,1.42242,-0.00416,-2.63161,1.06502,1.57080,0.11675,-0.12762,-0.48153,0.03573,,,,,,,,,,,,,,,,,,,,,,,,,,0,0,0,0,0
1.9547,1783957537.7677,1,1,4.0000,0.0000,1.42242,-0.00419,-2.63162,1.06506,1.57080,0.11675,-0.12762,-0.48153,0.03572,,,,,,,,,,,,,,,,,,,,,,,,,,0,0,0,0,0
1.9571,1783957537.7701,1,1,4.0000,0.0000,1.42242,-0.00419,-2.63162,1.06506,1.57080,0.11675,-0.12762,-0.48153,0.03572,,,,,,,,,,,,,,,,,,,,,,,,,,0,0,0,0,0
1.9574,1783957537.7704,1,1,4.0000,0.0000,1.42242,-0.00419,-2.63162,1.06506,1.57080,0.11675,-0.12762,-0.48153,0.03572,,,,,,,,,,,,,,,,,,,,,,,,,,0,0,0,0,0
1.9578,1783957537.7708,1,1,4.0000,0.0000,1.42242,-0.00419,-2.63162,1.06506,1.57080,0.11675,-0.12762,-0.48153,0.03572,,,,,,,,,,,,,,,,,,,,,,,,,,0,0,0,0,0
1.9582,1783957537.7712,1,1,4.0000,0.0000,1.42242,-0.00419,-2.63162,1.06506,1.57080,0.11675,-0.12762,-0.48153,0.03572,,,,,,,,,,,,,,,,,,,,,,,,,,0,0,0,0,0
1.9589,1783957537.7719,1,1,4.0000,0.0000,1.42242,-0.00422,-2.63163,1.06510,1.57080,0.11675,-0.12762,-0.48153,0.03571,,,,,,,,,,,,,,,,,,,,,,,,,,0,0,0,0,0
1.9638,1783957537.7768,1,1,4.0000,0.0000,1.42242,-0.00426,-2.63164,1.06515,1.57080,0.11675,-0.12762,-0.48153,0.03569,,,,,,,,,,,,,,,,,,,,,,,,,,0,0,0,0,0
1.9642,1783957537.7772,1,1,4.0000,0.0000,1.42242,-0.00426,-2.63164,1.06515,1.57080,0.11675,-0.12762,-0.48153,0.03569,,,,,,,,,,,,,,,,,,,,,,,,,,0,0,0,0,0
1.9680,1783957537.7810,1,1,4.0000,0.0000,1.42242,-0.00426,-2.63164,1.06515,1.57080,0.11675,-0.12762,-0.48153,0.03569,,,,,,,,,,,,,,,,,,,,,,,,,,0,0,0,0,0
1.9685,1783957537.7815,1,1,4.0000,0.0000,1.42242,-0.00426,-2.63164,1.06515,1.57080,0.11675,-0.12762,-0.48153,0.03569,,,,,,,,,,,,,,,,,,,,,,,,,,0,0,0,0,0
1.9688,1783957537.7818,1,1,4.0000,0.0000,1.42242,-0.00426,-2.63164,1.06515,1.57080,0.11675,-0.12762,-0.48153,0.03569,,,,,,,,,,,,,,,,,,,,,,,,,,0,0,0,0,0
1.9692,1783957537.7822,1,1,4.0000,0.0000,1.42242,-0.00426,-2.63164,1.06515,1.57080,0.11675,-0.12762,-0.48153,0.03569,,,,,,,,,,,,,,,,,,,,,,,,,,0,0,0,0,0
1.9694,1783957537.7824,1,1,4.0000,0.0000,1.42242,-0.00426,-2.63164,1.06515,1.57080,0.11675,-0.12762,-0.48153,0.03569,,,,,,,,,,,,,,,,,,,,,,,,,,0,0,0,0,0
1.9698,1783957537.7828,1,1,4.0000,0.0000,1.42242,-0.00426,-2.63164,1.06515,1.57080,0.11675,-0.12762,-0.48153,0.03569,,,,,,,,,,,,,,,,,,,,,,,,,,0,0,0,0,0
1.9700,1783957537.7830,1,1,4.0000,0.0000,1.42242,-0.00426,-2.63164,1.06515,1.57080,0.11675,-0.12762,-0.48153,0.03569,,,,,,,,,,,,,,,,,,,,,,,,,,0,0,0,0,0
1.9715,1783957537.7845,1,1,4.0000,0.0000,1.42242,-0.00427,-2.63164,1.06515,1.57080,0.11675,-0.12762,-0.48153,0.03569,,,,,,,,,,,,,,,,,,,,,,,,,,0,0,0,0,0
1.9719,1783957537.7849,1,1,4.0000,0.0000,1.42242,-0.00427,-2.63164,1.06515,1.57080,0.11675,-0.12762,-0.48153,0.03569,,,,,,,,,,,,,,,,,,,,,,,,,,0,0,0,0,0
1.9726,1783957537.7856,1,1,4.0000,0.0000,1.42242,-0.00427,-2.63164,1.06515,1.57080,0.11675,-0.12762,-0.48153,0.03569,,,,,,,,,,,,,,,,,,,,,,,,,,0,0,0,0,0
1.9728,1783957537.7858,1,1,4.0000,0.0000,1.42242,-0.00427,-2.63164,1.06515,1.57080,0.11675,-0.12762,-0.48153,0.03569,,,,,,,,,,,,,,,,,,,,,,,,,,0,0,0,0,0
1.9908,1783957537.8038,1,1,4.0000,0.0000,1.42242,-0.00442,-2.63168,1.06535,1.57080,0.11675,-0.12763,-0.48152,0.03563,,,,,,,,,,,,,,,,,,,,,,,,,,0,0,0,0,0
1.9958,1783957537.8088,1,1,4.0000,0.0000,1.42242,-0.00447,-2.63170,1.06541,1.57080,0.11675,-0.12763,-0.48152,0.03562,,,,,,,,,,,,,,,,,,,,,,,,,,0,0,0,0,0
1.9968,1783957537.8098,1,1,4.0000,0.0000,1.42242,-0.00447,-2.63170,1.06541,1.57080,0.11675,-0.12763,-0.48152,0.03562,,,,,,,,,,,,,,,,,,,,,,,,,,0,0,0,0,0
1.9971,1783957537.8101,1,1,4.0000,0.0000,1.42242,-0.00447,-2.63170,1.06541,1.57080,0.11675,-0.12763,-0.48152,0.03562,,,,,,,,,,,,,,,,,,,,,,,,,,0,0,0,0,0
1.9974,1783957537.8104,1,1,4.0000,0.0000,1.42242,-0.00447,-2.63170,1.06541,1.57080,0.11675,-0.12763,-0.48152,0.03562,,,,,,,,,,,,,,,,,,,,,,,,,,0,0,0,0,0
1.9999,1783957537.8130,1,1,4.0000,0.0000,1.42242,-0.00447,-2.63170,1.06541,1.57080,0.11675,-0.12763,-0.48152,0.03562,,,,,,,,,,,,,,,,,,,,,,,,,,0,0,0,0,0
2.0031,1783957537.8161,1,1,4.0000,0.0000,1.42242,-0.00448,-2.63170,1.06542,1.57080,0.11675,-0.12763,-0.48152,0.03561,,,,,,,,,,,,,,,,,,,,,,,,,,0,0,0,0,0
2.0140,1783957537.8270,1,1,4.0000,0.0000,1.42242,-0.00453,-2.63171,1.06547,1.57080,0.11675,-0.12763,-0.48152,0.03560,,,,,,,,,,,,,,,,,,,,,,,,,,0,0,0,0,0
2.0229,1783957537.8359,1,1,4.0000,0.0000,1.42242,-0.00460,-2.63173,1.06556,1.57080,0.11675,-0.12763,-0.48152,0.03557,,,,,,,,,,,,,,,,,,,,,,,,,,0,0,0,0,0
2.0335,1783957537.8465,1,1,4.0000,0.0000,1.42242,-0.00463,-2.63174,1.06559,1.57080,0.11675,-0.12763,-0.48151,0.03556,,,,,,,,,,,,,,,,,,,,,,,,,,0,0,0,0,0
2.0340,1783957537.8470,1,1,4.0000,0.0000,1.42242,-0.00463,-2.63174,1.06559,1.57080,0.11675,-0.12763,-0.48151,0.03556,,,,,,,,,,,,,,,,,,,,,,,,,,0,0,0,0,0
2.0409,1783957537.8539,1,1,4.0000,0.0000,1.42242,-0.00469,-2.63175,1.06567,1.57080,0.11675,-0.12763,-0.48151,0.03554,,,,,,,,,,,,,,,,,,,,,,,,,,0,0,0,0,0
2.0414,1783957537.8544,1,1,4.0000,0.0000,1.42242,-0.00469,-2.63175,1.06567,1.57080,0.11675,-0.12763,-0.48151,0.03554,,,,,,,,,,,,,,,,,,,,,,,,,,0,0,0,0,0
2.0508,1783957537.8638,1,1,4.0000,0.0000,1.42242,-0.00483,-2.63178,1.06584,1.57080,0.11675,-0.12763,-0.48151,0.03549,,,,,,,,,,,,,,,,,,,,,,,,,,0,0,0,0,0
2.0607,1783957537.8737,1,1,4.0000,0.0000,1.42242,-0.00494,-2.63181,1.06597,1.57080,0.11675,-0.12763,-0.48151,0.03545,,,,,,,,,,,,,,,,,,,,,,,,,,0,0,0,0,0
2.0748,1783957537.8878,1,1,4.0000,0.0000,1.42242,-0.00512,-2.63185,1.06619,1.57080,0.11675,-0.12763,-0.48151,0.03539,,,,,,,,,,,,,,,,,,,,,,,,,,0,0,0,0,0
2.0751,1783957537.8882,1,1,4.0000,0.0000,1.42242,-0.00512,-2.63185,1.06619,1.57080,0.11675,-0.12763,-0.48151,0.03539,,,,,,,,,,,,,,,,,,,,,,,,,,0,0,0,0,0
2.0930,1783957537.9060,1,1,4.0000,0.0000,1.42242,-0.00515,-2.63185,1.06624,1.57080,0.11675,-0.12762,-0.48152,0.03538,,,,,,,,,,,,,,,,,,,,,,,,,,0,0,0,0,0
2.0934,1783957537.9064,1,1,4.0000,0.0000,1.42242,-0.00515,-2.63185,1.06624,1.57080,0.11675,-0.12762,-0.48152,0.03538,,,,,,,,,,,,,,,,,,,,,,,,,,0,0,0,0,0
2.1005,1783957537.9135,1,1,4.0000,0.0000,1.42242,-0.00517,-2.63185,1.06626,1.57080,0.11675,-0.12762,-0.48152,0.03538,,,,,,,,,,,,,,,,,,,,,,,,,,0,0,0,0,0
2.1091,1783957537.9221,1,1,4.0000,0.0000,1.42242,-0.00519,-2.63185,1.06629,1.57080,0.11675,-0.12762,-0.48153,0.03538,,,,,,,,,,,,,,,,,,,,,,,,,,0,0,0,0,0
2.1206,1783957537.9336,1,1,4.0000,0.0000,1.42242,-0.00521,-2.63185,1.06631,1.57080,0.11675,-0.12762,-0.48153,0.03537,,,,,,,,,,,,,,,,,,,,,,,,,,0,0,0,0,0
2.1298,1783957537.9428,1,1,4.0000,0.0000,1.42242,-0.00523,-2.63185,1.06633,1.57080,0.11675,-0.12762,-0.48153,0.03537,,,,,,,,,,,,,,,,,,,,,,,,,,0,0,0,0,0
2.1401,1783957537.9531,1,1,4.0000,0.0000,1.42242,-0.00528,-2.63187,1.06640,1.57080,0.11675,-0.12762,-0.48152,0.03535,,,,,,,,,,,,,,,,,,,,,,,,,,0,0,0,0,0
2.1500,1783957537.9630,1,1,4.0000,0.0000,1.42242,-0.00534,-2.63189,1.06647,1.57080,0.11675,-0.12762,-0.48152,0.03533,,,,,,,,,,,,,,,,,,,,,,,,,,0,0,0,0,0
2.1608,1783957537.9738,1,1,4.0000,0.0000,1.42242,-0.00535,-2.63189,1.06648,1.57080,0.11675,-0.12762,-0.48152,0.03532,,,,,,,,,,,,,,,,,,,,,,,,,,0,0,0,0,0
2.1690,1783957537.9820,1,1,4.0000,0.0000,1.42242,-0.00539,-2.63190,1.06653,1.57080,0.11675,-0.12762,-0.48152,0.03531,,,,,,,,,,,,,,,,,,,,,,,,,,0,0,0,0,0
2.1814,1783957537.9944,1,1,4.0000,0.0000,1.42242,-0.00542,-2.63191,1.06657,1.57080,0.11675,-0.12762,-0.48152,0.03530,,,,,,,,,,,,,,,,,,,,,,,,,,0,0,0,0,0
2.1895,1783957538.0025,1,1,4.0000,0.0000,1.42242,-0.00547,-2.63192,1.06663,1.57080,0.11675,-0.12762,-0.48152,0.03528,,,,,,,,,,,,,,,,,,,,,,,,,,0,0,0,0,0
2.2000,1783957538.0130,1,1,4.0000,0.0000,1.42242,-0.00560,-2.63195,1.06679,1.57080,0.11675,-0.12762,-0.48152,0.03523,,,,,,,,,,,,,,,,,,,,,,,,,,0,0,0,0,0
2.2109,1783957538.0239,1,1,4.0000,0.0000,1.42242,-0.00566,-2.63197,1.06686,1.57080,0.11675,-0.12762,-0.48151,0.03521,,,,,,,,,,,,,,,,,,,,,,,,,,0,0,0,0,0
2.2215,1783957538.0345,1,1,4.0000,0.0000,1.42242,-0.00570,-2.63198,1.06691,1.57080,0.11675,-0.12762,-0.48151,0.03520,,,,,,,,,,,,,,,,,,,,,,,,,,0,0,0,0,0
2.2292,1783957538.0422,1,1,4.0000,0.0000,1.42242,-0.00578,-2.63200,1.06701,1.57080,0.11675,-0.12762,-0.48151,0.03517,,,,,,,,,,,,,,,,,,,,,,,,,,0,0,0,0,0
2.2404,1783957538.0534,1,1,4.0000,0.0000,1.42242,-0.00580,-2.63200,1.06704,1.57080,0.11675,-0.12762,-0.48151,0.03516,,,,,,,,,,,,,,,,,,,,,,,,,,0,0,0,0,0
2.2408,1783957538.0538,1,1,4.0000,0.0000,1.42242,-0.00580,-2.63200,1.06704,1.57080,0.11675,-0.12762,-0.48151,0.03516,,,,,,,,,,,,,,,,,,,,,,,,,,0,0,0,0,0
2.2515,1783957538.0645,1,1,4.0000,0.0000,1.42242,-0.00591,-2.63203,1.06717,1.57080,0.11675,-0.12762,-0.48151,0.03513,,,,,,,,,,,,,,,,,,,,,,,,,,0,0,0,0,0
2.2518,1783957538.0648,1,1,4.0000,0.0000,1.42242,-0.00591,-2.63203,1.06717,1.57080,0.11675,-0.12762,-0.48151,0.03513,,,,,,,,,,,,,,,,,,,,,,,,,,0,0,0,0,0
2.2605,1783957538.0735,1,1,4.0000,0.0000,1.42242,-0.00601,-2.63205,1.06729,1.57080,0.11675,-0.12762,-0.48151,0.03509,,,,,,,,,,,,,,,,,,,,,,,,,,0,0,0,0,0
2.2690,1783957538.0820,1,1,4.0000,0.0000,1.42242,-0.00606,-2.63206,1.06735,1.57080,0.11675,-0.12762,-0.48151,0.03507,,,,,,,,,,,,,,,,,,,,,,,,,,0,0,0,0,0
2.2801,1783957538.0931,1,1,4.0000,0.0000,1.42242,-0.00609,-2.63207,1.06739,1.57080,0.11675,-0.12762,-0.48151,0.03506,,,,,,,,,,,,,,,,,,,,,,,,,,0,0,0,0,0
2.3040,1783957538.1170,1,1,4.0000,0.0000,1.42242,-0.00620,-2.63207,1.06753,1.57080,0.11675,-0.12762,-0.48153,0.03504,,,,,,,,,,,,,,,,,,,,,,,,,,0,0,0,0,0
2.3149,1783957538.1279,1,1,4.0000,0.0000,1.42241,-0.00624,-2.63207,1.06758,1.57080,0.11675,-0.12762,-0.48154,0.03503,,,,,,,,,,,,,,,,,,,,,,,,,,0,0,0,0,0
2.3152,1783957538.1282,1,1,4.0000,0.0000,1.42241,-0.00624,-2.63207,1.06758,1.57080,0.11675,-0.12762,-0.48154,0.03503,,,,,,,,,,,,,,,,,,,,,,,,,,0,0,0,0,0
2.3190,1783957538.1320,1,1,4.0000,0.0000,1.42241,-0.00627,-2.63207,1.06761,1.57080,0.11675,-0.12762,-0.48154,0.03502,,,,,,,,,,,,,,,,,,,,,,,,,,0,0,0,0,0
2.3193,1783957538.1323,1,1,4.0000,0.0000,1.42241,-0.00627,-2.63207,1.06761,1.57080,0.11675,-0.12762,-0.48154,0.03502,,,,,,,,,,,,,,,,,,,,,,,,,,0,0,0,0,0
2.3219,1783957538.1349,1,1,4.0000,0.0000,1.42241,-0.00627,-2.63207,1.06761,1.57080,0.11675,-0.12762,-0.48154,0.03502,,,,,,,,,,,,,,,,,,,,,,,,,,0,0,0,0,0
2.3223,1783957538.1353,1,1,4.0000,0.0000,1.42241,-0.00627,-2.63207,1.06761,1.57080,0.11675,-0.12762,-0.48154,0.03502,,,,,,,,,,,,,,,,,,,,,,,,,,0,0,0,0,0
2.3316,1783957538.1446,1,1,4.0000,0.0000,1.42241,-0.00630,-2.63208,1.06765,1.57080,0.11675,-0.12762,-0.48154,0.03501,,,,,,,,,,,,,,,,,,,,,,,,,,0,0,0,0,0
2.3409,1783957538.1539,1,1,4.0000,0.0000,1.42241,-0.00633,-2.63209,1.06768,1.57080,0.11675,-0.12762,-0.48154,0.03500,,,,,,,,,,,,,,,,,,,,,,,,,,0,0,0,0,0
2.3549,1783957538.1679,1,1,4.0000,0.0000,1.42241,-0.00644,-2.63213,1.06783,1.57080,0.11675,-0.12762,-0.48153,0.03495,,,,,,,,,,,,,,,,,,,,,,,,,,0,0,0,0,0
2.3620,1783957538.1750,1,1,4.0000,0.0000,1.42241,-0.00644,-2.63213,1.06783,1.57080,0.11675,-0.12762,-0.48153,0.03495,,,,,,,,,,,,,,,,,,,,,,,,,,0,0,0,0,0
2.3626,1783957538.1756,1,1,4.0000,0.0000,1.42241,-0.00645,-2.63213,1.06783,1.57080,0.11675,-0.12762,-0.48153,0.03495,,,,,,,,,,,,,,,,,,,,,,,,,,0,0,0,0,0
2.3706,1783957538.1836,1,1,4.0000,0.0000,1.42241,-0.00648,-2.63214,1.06787,1.57080,0.11675,-0.12762,-0.48152,0.03494,,,,,,,,,,,,,,,,,,,,,,,,,,0,0,0,0,0
2.3709,1783957538.1839,1,1,4.0000,0.0000,1.42241,-0.00648,-2.63214,1.06787,1.57080,0.11675,-0.12762,-0.48152,0.03494,,,,,,,,,,,,,,,,,,,,,,,,,,0,0,0,0,0
2.3825,1783957538.1955,1,1,4.0000,0.0000,1.42241,-0.00657,-2.63216,1.06799,1.57080,0.11675,-0.12762,-0.48152,0.03491,,,,,,,,,,,,,,,,,,,,,,,,,,0,0,0,0,0
2.3970,1783957538.2100,1,1,4.0000,0.0000,1.42241,-0.00660,-2.63217,1.06801,1.57080,0.11675,-0.12762,-0.48152,0.03490,,,,,,,,,,,,,,,,,,,,,,,,,,0,0,0,0,0
2.4010,1783957538.2140,1,1,4.0000,0.0000,1.42241,-0.00662,-2.63218,1.06805,1.57080,0.11675,-0.12762,-0.48152,0.03489,,,,,,,,,,,,,,,,,,,,,,,,,,0,0,0,0,0
2.4013,1783957538.2143,1,1,4.0000,0.0000,1.42241,-0.00662,-2.63218,1.06805,1.57080,0.11675,-0.12762,-0.48152,0.03489,,,,,,,,,,,,,,,,,,,,,,,,,,0,0,0,0,0
2.4110,1783957538.2240,1,1,4.0000,0.0000,1.42241,-0.00675,-2.63221,1.06820,1.57080,0.11675,-0.12762,-0.48152,0.03485,,,,,,,,,,,,,,,,,,,,,,,,,,0,0,0,0,0
2.4113,1783957538.2243,1,1,4.0000,0.0000,1.42241,-0.00675,-2.63221,1.06820,1.57080,0.11675,-0.12762,-0.48152,0.03485,,,,,,,,,,,,,,,,,,,,,,,,,,0,0,0,0,0
2.4220,1783957538.2350,1,1,4.0000,0.0000,1.42241,-0.00680,-2.63222,1.06826,1.57080,0.11675,-0.12762,-0.48152,0.03483,,,,,,,,,,,,,,,,,,,,,,,,,,0,0,0,0,0
2.4338,1783957538.2468,1,1,4.0000,0.0000,1.42241,-0.00685,-2.63223,1.06833,1.57080,0.11675,-0.12762,-0.48152,0.03481,,,,,,,,,,,,,,,,,,,,,,,,,,0,0,0,0,0
2.4471,1783957538.2601,1,1,4.0000,0.0000,1.42241,-0.00698,-2.63226,1.06848,1.57080,0.11675,-0.12762,-0.48151,0.03477,,,,,,,,,,,,,,,,,,,,,,,,,,0,0,0,0,0
2.4475,1783957538.2605,1,1,4.0000,0.0000,1.42241,-0.00698,-2.63226,1.06848,1.57080,0.11675,-0.12762,-0.48151,0.03477,,,,,,,,,,,,,,,,,,,,,,,,,,0,0,0,0,0
2.4568,1783957538.2698,1,1,4.0000,0.0000,1.42241,-0.00700,-2.63227,1.06851,1.57080,0.11675,-0.12762,-0.48151,0.03476,,,,,,,,,,,,,,,,,,,,,,,,,,0,0,0,0,0
2.4572,1783957538.2702,1,1,4.0000,0.0000,1.42241,-0.00700,-2.63227,1.06851,1.57080,0.11675,-0.12762,-0.48151,0.03476,,,,,,,,,,,,,,,,,,,,,,,,,,0,0,0,0,0
2.4669,1783957538.2800,1,1,4.0000,0.0000,1.42241,-0.00710,-2.63229,1.06863,1.57080,0.11675,-0.12762,-0.48151,0.03472,,,,,,,,,,,,,,,,,,,,,,,,,,0,0,0,0,0
2.4673,1783957538.2803,1,1,4.0000,0.0000,1.42241,-0.00710,-2.63229,1.06863,1.57080,0.11675,-0.12762,-0.48151,0.03472,,,,,,,,,,,,,,,,,,,,,,,,,,0,0,0,0,0
2.4689,1783957538.2819,1,1,4.0000,0.0000,1.42241,-0.00710,-2.63229,1.06863,1.57080,0.11675,-0.12762,-0.48151,0.03472,,,,,,,,,,,,,,,,,,,,,,,,,,0,0,0,0,0
2.4692,1783957538.2822,1,1,4.0000,0.0000,1.42241,-0.00710,-2.63229,1.06863,1.57080,0.11675,-0.12762,-0.48151,0.03472,,,,,,,,,,,,,,,,,,,,,,,,,,0,0,0,0,0
2.4837,1783957538.2967,1,1,4.0000,0.0000,1.42241,-0.00730,-2.63233,1.06887,1.57080,0.11675,-0.12762,-0.48151,0.03466,,,,,,,,,,,,,,,,,,,,,,,,,,0,0,0,0,0
2.4988,1783957538.3118,1,1,4.0000,0.0000,1.42241,-0.00748,-2.63237,1.06909,1.57080,0.11675,-0.12762,-0.48152,0.03460,,,,,,,,,,,,,,,,,,,,,,,,,,0,0,0,0,0
2.4990,1783957538.3120,1,1,4.0000,0.0000,1.42241,-0.00748,-2.63237,1.06909,1.57080,0.11675,-0.12762,-0.48152,0.03460,,,,,,,,,,,,,,,,,,,,,,,,,,0,0,0,0,0
2.5009,1783957538.3139,1,1,4.0000,0.0000,1.42241,-0.00748,-2.63237,1.06909,1.57080,0.11675,-0.12762,-0.48152,0.03460,,,,,,,,,,,,,,,,,,,,,,,,,,0,0,0,0,0
2.5014,1783957538.3144,1,1,4.0000,0.0000,1.42241,-0.00748,-2.63237,1.06909,1.57080,0.11675,-0.12762,-0.48152,0.03460,,,,,,,,,,,,,,,,,,,,,,,,,,0,0,0,0,0
2.5097,1783957538.3227,1,1,4.0000,0.0000,1.42241,-0.00748,-2.63237,1.06909,1.57080,0.11675,-0.12762,-0.48152,0.03460,,,,,,,,,,,,,,,,,,,,,,,,,,0,0,0,0,0
2.5191,1783957538.3321,1,1,4.0000,0.0000,1.42241,-0.00751,-2.63236,1.06912,1.57080,0.11675,-0.12762,-0.48153,0.03460,,,,,,,,,,,,,,,,,,,,,,,,,,0,0,0,0,0
2.5194,1783957538.3324,1,1,4.0000,0.0000,1.42241,-0.00751,-2.63236,1.06912,1.57080,0.11675,-0.12762,-0.48153,0.03460,,,,,,,,,,,,,,,,,,,,,,,,,,0,0,0,0,0
2.5290,1783957538.3420,1,1,4.0000,0.0000,1.42241,-0.00753,-2.63236,1.06916,1.57080,0.11675,-0.12762,-0.48153,0.03459,,,,,,,,,,,,,,,,,,,,,,,,,,0,0,0,0,0
2.5295,1783957538.3425,1,1,4.0000,0.0000,1.42241,-0.00753,-2.63236,1.06916,1.57080,0.11675,-0.12762,-0.48153,0.03459,,,,,,,,,,,,,,,,,,,,,,,,,,0,0,0,0,0
2.5409,1783957538.3539,1,1,4.0000,0.0000,1.42241,-0.00756,-2.63236,1.06920,1.57080,0.11675,-0.12762,-0.48154,0.03458,,,,,,,,,,,,,,,,,,,,,,,,,,0,0,0,0,0
2.5413,1783957538.3543,1,1,4.0000,0.0000,1.42241,-0.00756,-2.63236,1.06920,1.57080,0.11675,-0.12762,-0.48154,0.03458,,,,,,,,,,,,,,,,,,,,,,,,,,0,0,0,0,0
2.5492,1783957538.3622,1,1,4.0000,0.0000,1.42241,-0.00757,-2.63236,1.06921,1.57080,0.11675,-0.12762,-0.48154,0.03458,,,,,,,,,,,,,,,,,,,,,,,,,,0,0,0,0,0
2.5639,1783957538.3769,1,1,4.0000,0.0000,1.42241,-0.00762,-2.63238,1.06926,1.57080,0.11675,-0.12762,-0.48153,0.03456,,,,,,,,,,,,,,,,,,,,,,,,,,0,0,0,0,0
2.5641,1783957538.3771,1,1,4.0000,0.0000,1.42241,-0.00762,-2.63238,1.06926,1.57080,0.11675,-0.12762,-0.48153,0.03456,,,,,,,,,,,,,,,,,,,,,,,,,,0,0,0,0,0
2.5825,1783957538.3955,1,1,4.0000,0.0000,1.42241,-0.00770,-2.63241,1.06937,1.57080,0.11675,-0.12762,-0.48153,0.03453,,,,,,,,,,,,,,,,,,,,,,,,,,0,0,0,0,0
2.5953,1783957538.4083,1,1,4.0000,0.0000,1.42241,-0.00781,-2.63244,1.06949,1.57080,0.11675,-0.12762,-0.48152,0.03449,,,,,,,,,,,,,,,,,,,,,,,,,,0,0,0,0,0
2.6040,1783957538.4170,1,1,4.0000,0.0000,1.42241,-0.00781,-2.63244,1.06950,1.57080,0.11675,-0.12762,-0.48152,0.03449,,,,,,,,,,,,,,,,,,,,,,,,,,0,0,0,0,0
2.6221,1783957538.4351,1,1,4.0000,0.0000,1.42241,-0.00791,-2.63246,1.06962,1.57080,0.11675,-0.12762,-0.48152,0.03446,,,,,,,,,,,,,,,,,,,,,,,,,,0,0,0,0,0
2.6227,1783957538.4357,1,1,4.0000,0.0000,1.42241,-0.00791,-2.63246,1.06962,1.57080,0.11675,-0.12762,-0.48152,0.03446,,,,,,,,,,,,,,,,,,,,,,,,,,0,0,0,0,0
2.6279,1783957538.4409,1,1,4.0000,0.0000,1.42241,-0.00792,-2.63246,1.06963,1.57080,0.11675,-0.12762,-0.48152,0.03445,,,,,,,,,,,,,,,,,,,,,,,,,,0,0,0,0,0
2.6282,1783957538.4412,1,1,4.0000,0.0000,1.42241,-0.00792,-2.63246,1.06963,1.57080,0.11675,-0.12762,-0.48152,0.03445,,,,,,,,,,,,,,,,,,,,,,,,,,0,0,0,0,0
2.6321,1783957538.4451,1,1,4.0000,0.0000,1.42241,-0.00794,-2.63247,1.06965,1.57080,0.11675,-0.12762,-0.48152,0.03445,,,,,,,,,,,,,,,,,,,,,,,,,,0,0,0,0,0
2.6323,1783957538.4453,1,1,4.0000,0.0000,1.42241,-0.00794,-2.63247,1.06965,1.57080,0.11675,-0.12762,-0.48152,0.03445,,,,,,,,,,,,,,,,,,,,,,,,,,0,0,0,0,0
2.6395,1783957538.4525,1,1,4.0000,0.0000,1.42241,-0.00801,-2.63248,1.06974,1.57080,0.11675,-0.12762,-0.48152,0.03442,,,,,,,,,,,,,,,,,,,,,,,,,,0,0,0,0,0
2.6398,1783957538.4528,1,1,4.0000,0.0000,1.42241,-0.00801,-2.63248,1.06974,1.57080,0.11675,-0.12762,-0.48152,0.03442,,,,,,,,,,,,,,,,,,,,,,,,,,0,0,0,0,0
2.6414,1783957538.4544,1,1,4.0000,0.0000,1.42241,-0.00801,-2.63248,1.06974,1.57080,0.11675,-0.12762,-0.48152,0.03442,,,,,,,,,,,,,,,,,,,,,,,,,,0,0,0,0,0
2.6417,1783957538.4547,1,1,4.0000,0.0000,1.42241,-0.00801,-2.63248,1.06974,1.57080,0.11675,-0.12762,-0.48152,0.03442,,,,,,,,,,,,,,,,,,,,,,,,,,0,0,0,0,0
2.6505,1783957538.4635,1,1,4.0000,0.0000,1.42241,-0.00817,-2.63252,1.06993,1.57080,0.11675,-0.12762,-0.48152,0.03436,,,,,,,,,,,,,,,,,,,,,,,,,,0,0,0,0,0
2.6649,1783957538.4779,1,1,4.0000,0.0000,1.42241,-0.00819,-2.63252,1.06996,1.57080,0.11675,-0.12762,-0.48152,0.03436,,,,,,,,,,,,,,,,,,,,,,,,,,0,0,0,0,0
2.6708,1783957538.4838,1,1,4.0000,0.0000,1.42241,-0.00825,-2.63254,1.07003,1.57080,0.11675,-0.12762,-0.48152,0.03434,,,,,,,,,,,,,,,,,,,,,,,,,,0,0,0,0,0
2.6817,1783957538.4947,1,1,4.0000,0.0000,1.42241,-0.00833,-2.63255,1.07012,1.57080,0.11675,-0.12762,-0.48152,0.03431,,,,,,,,,,,,,,,,,,,,,,,,,,0,0,0,0,0
2.6894,1783957538.5024,1,1,4.0000,0.0000,1.42241,-0.00843,-2.63257,1.07024,1.57080,0.11675,-0.12762,-0.48152,0.03428,,,,,,,,,,,,,,,,,,,,,,,,,,0,0,0,0,0
2.7043,1783957538.5173,1,1,4.0000,0.0000,1.42241,-0.00846,-2.63258,1.07028,1.57080,0.11675,-0.12762,-0.48152,0.03427,,,,,,,,,,,,,,,,,,,,,,,,,,0,0,0,0,0
2.7120,1783957538.5251,1,1,4.0000,0.0000,1.42241,-0.00850,-2.63258,1.07033,1.57080,0.11675,-0.12762,-0.48153,0.03426,,,,,,,,,,,,,,,,,,,,,,,,,,0,0,0,0,0
2.7195,1783957538.5325,1,1,4.0000,0.0000,1.42241,-0.00851,-2.63258,1.07034,1.57080,0.11675,-0.12762,-0.48153,0.03426,,,,,,,,,,,,,,,,,,,,,,,,,,0,0,0,0,0
2.7331,1783957538.5461,1,1,4.0000,0.0000,1.42241,-0.00856,-2.63258,1.07040,1.57080,0.11675,-0.12762,-0.48153,0.03425,,,,,,,,,,,,,,,,,,,,,,,,,,0,0,0,0,0
2.7399,1783957538.5529,1,1,4.0000,0.0000,1.42241,-0.00861,-2.63258,1.07047,1.57080,0.11675,-0.12761,-0.48154,0.03423,,,,,,,,,,,,,,,,,,,,,,,,,,0,0,0,0,0
2.7403,1783957538.5533,1,1,4.0000,0.0000,1.42241,-0.00861,-2.63258,1.07047,1.57080,0.11675,-0.12761,-0.48154,0.03423,,,,,,,,,,,,,,,,,,,,,,,,,,0,0,0,0,0
2.7519,1783957538.5649,1,1,4.0000,0.0000,1.42241,-0.00865,-2.63259,1.07051,1.57080,0.11675,-0.12761,-0.48154,0.03422,,,,,,,,,,,,,,,,,,,,,,,,,,0,0,0,0,0
2.7628,1783957538.5758,1,1,4.0000,0.0000,1.42241,-0.00870,-2.63261,1.07057,1.57080,0.11675,-0.12761,-0.48154,0.03420,,,,,,,,,,,,,,,,,,,,,,,,,,0,0,0,0,0
2.7818,1783957538.5948,1,1,4.0000,0.0000,1.42241,-0.00879,-2.63264,1.07069,1.57080,0.11675,-0.12762,-0.48153,0.03416,,,,,,,,,,,,,,,,,,,,,,,,,,0,0,0,0,0
2.7825,1783957538.5955,1,1,4.0000,0.0000,1.42241,-0.00879,-2.63264,1.07069,1.57080,0.11675,-0.12762,-0.48153,0.03416,,,,,,,,,,,,,,,,,,,,,,,,,,0,0,0,0,0
2.7848,1783957538.5978,1,1,4.0000,0.0000,1.42241,-0.00879,-2.63264,1.07069,1.57080,0.11675,-0.12762,-0.48153,0.03416,,,,,,,,,,,,,,,,,,,,,,,,,,0,0,0,0,0
2.7852,1783957538.5982,1,1,4.0000,0.0000,1.42241,-0.00879,-2.63264,1.07069,1.57080,0.11675,-0.12762,-0.48153,0.03416,,,,,,,,,,,,,,,,,,,,,,,,,,0,0,0,0,0
2.8004,1783957538.6134,1,1,4.0000,0.0000,1.42241,-0.00888,-2.63267,1.07080,1.57080,0.11675,-0.12762,-0.48152,0.03413,,,,,,,,,,,,,,,,,,,,,,,,,,0,0,0,0,0
2.8008,1783957538.6138,1,1,4.0000,0.0000,1.42241,-0.00888,-2.63267,1.07080,1.57080,0.11675,-0.12762,-0.48152,0.03413,,,,,,,,,,,,,,,,,,,,,,,,,,0,0,0,0,0
2.8122,1783957538.6252,1,1,4.0000,0.0000,1.42241,-0.00891,-2.63267,1.07083,1.57080,0.11675,-0.12762,-0.48152,0.03412,,,,,,,,,,,,,,,,,,,,,,,,,,0,0,0,0,0
2.8127,1783957538.6257,1,1,4.0000,0.0000,1.42241,-0.00891,-2.63267,1.07083,1.57080,0.11675,-0.12762,-0.48152,0.03412,,,,,,,,,,,,,,,,,,,,,,,,,,0,0,0,0,0
2.8322,1783957538.6452,1,1,4.0000,0.0000,1.42240,-0.00912,-2.63273,1.07109,1.57080,0.11675,-0.12762,-0.48152,0.03405,,,,,,,,,,,,,,,,,,,,,,,,,,0,0,0,0,0
2.8346,1783957538.6476,1,1,4.0000,0.0000,1.42240,-0.00912,-2.63273,1.07109,1.57080,0.11675,-0.12762,-0.48152,0.03405,,,,,,,,,,,,,,,,,,,,,,,,,,0,0,0,0,0
2.8449,1783957538.6579,1,1,4.0000,0.0000,1.42240,-0.00914,-2.63273,1.07112,1.57080,0.11675,-0.12762,-0.48152,0.03404,,,,,,,,,,,,,,,,,,,,,,,,,,0,0,0,0,0
2.8559,1783957538.6689,1,1,4.0000,0.0000,1.42240,-0.00925,-2.63276,1.07125,1.57080,0.11675,-0.12762,-0.48152,0.03400,,,,,,,,,,,,,,,,,,,,,,,,,,0,0,0,0,0
2.8600,1783957538.6731,1,1,4.0000,0.0000,1.42240,-0.00930,-2.63277,1.07131,1.57080,0.11675,-0.12762,-0.48151,0.03398,,,,,,,,,,,,,,,,,,,,,,,,,,0,0,0,0,0
2.8721,1783957538.6851,1,1,4.0000,0.0000,1.42240,-0.00936,-2.63278,1.07138,1.57080,0.11675,-0.12762,-0.48151,0.03396,,,,,,,,,,,,,,,,,,,,,,,,,,0,0,0,0,0
2.8868,1783957538.6998,1,1,4.0000,0.0000,1.42240,-0.00947,-2.63281,1.07151,1.57080,0.11675,-0.12762,-0.48151,0.03392,,,,,,,,,,,,,,,,,,,,,,,,,,0,0,0,0,0
2.9098,1783957538.7228,1,1,4.0000,0.0000,1.42240,-0.00956,-2.63282,1.07161,1.57080,0.11675,-0.12762,-0.48152,0.03390,,,,,,,,,,,,,,,,,,,,,,,,,,0,0,0,0,0
2.9134,1783957538.7264,1,1,4.0000,0.0000,1.42240,-0.00959,-2.63282,1.07165,1.57080,0.11675,-0.12762,-0.48152,0.03389,,,,,,,,,,,,,,,,,,,,,,,,,,0,0,0,0,0
2.9138,1783957538.7268,1,1,4.0000,0.0000,1.42240,-0.00959,-2.63282,1.07165,1.57080,0.11675,-0.12762,-0.48152,0.03389,,,,,,,,,,,,,,,,,,,,,,,,,,0,0,0,0,0
2.9146,1783957538.7276,1,1,4.0000,0.0000,1.42240,-0.00962,-2.63283,1.07169,1.57080,0.11675,-0.12761,-0.48152,0.03388,,,,,,,,,,,,,,,,,,,,,,,,,,0,0,0,0,0
2.9261,1783957538.7391,1,1,4.0000,0.0000,1.42240,-0.00970,-2.63283,1.07178,1.57080,0.11675,-0.12761,-0.48153,0.03386,,,,,,,,,,,,,,,,,,,,,,,,,,0,0,0,0,0
2.9295,1783957538.7426,1,1,4.0000,0.0000,1.42240,-0.00970,-2.63283,1.07178,1.57080,0.11675,-0.12761,-0.48153,0.03386,,,,,,,,,,,,,,,,,,,,,,,,,,0,0,0,0,0
2.9299,1783957538.7429,1,1,4.0000,0.0000,1.42240,-0.00970,-2.63283,1.07178,1.57080,0.11675,-0.12761,-0.48153,0.03386,,,,,,,,,,,,,,,,,,,,,,,,,,0,0,0,0,0
2.9401,1783957538.7531,1,1,4.0000,0.0000,1.42240,-0.00973,-2.63283,1.07182,1.57080,0.11675,-0.12761,-0.48154,0.03385,,,,,,,,,,,,,,,,,,,,,,,,,,0,0,0,0,0
2.9552,1783957538.7682,1,1,4.0000,0.0000,1.42240,-0.00983,-2.63285,1.07195,1.57080,0.11675,-0.12761,-0.48154,0.03382,,,,,,,,,,,,,,,,,,,,,,,,,,0,0,0,0,0
2.9616,1783957538.7746,1,1,4.0000,0.0000,1.42240,-0.00983,-2.63285,1.07195,1.57080,0.11675,-0.12761,-0.48154,0.03382,,,,,,,,,,,,,,,,,,,,,,,,,,0,0,0,0,0
2.9621,1783957538.7751,1,1,4.0000,0.0000,1.42240,-0.00983,-2.63285,1.07195,1.57080,0.11675,-0.12761,-0.48154,0.03382,,,,,,,,,,,,,,,,,,,,,,,,,,0,0,0,0,0
2.9747,1783957538.7877,1,1,4.0000,0.0000,1.42240,-0.00989,-2.63287,1.07201,1.57080,0.11675,-0.12761,-0.48154,0.03380,,,,,,,,,,,,,,,,,,,,,,,,,,0,0,0,0,0
2.9789,1783957538.7919,1,1,4.0000,0.0000,1.42240,-0.00991,-2.63288,1.07205,1.57080,0.11675,-0.12761,-0.48153,0.03379,,,,,,,,,,,,,,,,,,,,,,,,,,0,0,0,0,0
2.9891,1783957538.8022,1,1,4.0000,0.0000,1.42240,-0.00992,-2.63288,1.07205,1.57080,0.11675,-0.12761,-0.48153,0.03379,,,,,,,,,,,,,,,,,,,,,,,,,,0,0,0,0,0
3.0009,1783957538.8139,1,1,4.0000,0.0000,1.42240,-0.00998,-2.63290,1.07213,1.57080,0.11675,-0.12761,-0.48153,0.03376,,,,,,,,,,,,,,,,,,,,,,,,,,0,0,0,0,0
3.0013,1783957538.8143,1,1,4.0000,0.0000,1.42240,-0.00998,-2.63290,1.07213,1.57080,0.11675,-0.12761,-0.48153,0.03376,,,,,,,,,,,,,,,,,,,,,,,,,,0,0,0,0,0
3.0115,1783957538.8245,1,1,4.0000,0.0000,1.42240,-0.01009,-2.63293,1.07226,1.57080,0.11675,-0.12761,-0.48152,0.03372,,,,,,,,,,,,,,,,,,,,,,,,,,0,0,0,0,0
3.0229,1783957538.8359,1,1,4.0000,0.0000,1.42240,-0.01011,-2.63294,1.07229,1.57080,0.11675,-0.12761,-0.48152,0.03371,,,,,,,,,,,,,,,,,,,,,,,,,,0,0,0,0,0
3.0234,1783957538.8364,1,1,4.0000,0.0000,1.42240,-0.01011,-2.63294,1.07229,1.57080,0.11675,-0.12761,-0.48152,0.03371,,,,,,,,,,,,,,,,,,,,,,,,,,0,0,0,0,0
3.0298,1783957538.8428,1,1,4.0000,0.0000,1.42240,-0.01014,-2.63295,1.07232,1.57080,0.11675,-0.12761,-0.48152,0.03370,,,,,,,,,,,,,,,,,,,,,,,,,,0,0,0,0,0
3.0388,1783957538.8518,1,1,4.0000,0.0000,1.42240,-0.01026,-2.63298,1.07246,1.57080,0.11675,-0.12761,-0.48151,0.03366,,,,,,,,,,,,,,,,,,,,,,,,,,0,0,0,0,0
3.0392,1783957538.8522,1,1,4.0000,0.0000,1.42240,-0.01026,-2.63298,1.07246,1.57080,0.11675,-0.12761,-0.48151,0.03366,,,,,,,,,,,,,,,,,,,,,,,,,,0,0,0,0,0
3.0509,1783957538.8639,1,1,4.0000,0.0000,1.42240,-0.01036,-2.63300,1.07259,1.57080,0.11675,-0.12761,-0.48151,0.03362,,,,,,,,,,,,,,,,,,,,,,,,,,0,0,0,0,0
3.0613,1783957538.8743,1,1,4.0000,0.0000,1.42240,-0.01039,-2.63301,1.07261,1.57080,0.11675,-0.12761,-0.48151,0.03361,,,,,,,,,,,,,,,,,,,,,,,,,,0,0,0,0,0
3.0757,1783957538.8887,1,1,4.0000,0.0000,1.42240,-0.01049,-2.63303,1.07274,1.57080,0.11675,-0.12761,-0.48151,0.03358,,,,,,,,,,,,,,,,,,,,,,,,,,0,0,0,0,0
3.0826,1783957538.8956,1,1,4.0000,0.0000,1.42240,-0.01051,-2.63304,1.07277,1.57080,0.11675,-0.12761,-0.48151,0.03357,,,,,,,,,,,,,,,,,,,,,,,,,,0,0,0,0,0
3.0952,1783957538.9082,1,1,4.0000,0.0000,1.42240,-0.01062,-2.63306,1.07290,1.57080,0.11675,-0.12761,-0.48151,0.03353,,,,,,,,,,,,,,,,,,,,,,,,,,0,0,0,0,0
3.1076,1783957538.9206,1,1,4.0000,0.0000,1.42240,-0.01072,-2.63308,1.07302,1.57080,0.11675,-0.12761,-0.48151,0.03350,,,,,,,,,,,,,,,,,,,,,,,,,,0,0,0,0,0
3.1148,1783957538.9278,1,1,4.0000,0.0000,1.42240,-0.01074,-2.63309,1.07304,1.57080,0.11675,-0.12761,-0.48151,0.03349,,,,,,,,,,,,,,,,,,,,,,,,,,0,0,0,0,0
3.1204,1783957538.9334,1,1,4.0000,0.0000,1.42240,-0.01076,-2.63309,1.07306,1.57080,0.11675,-0.12761,-0.48151,0.03349,,,,,,,,,,,,,,,,,,,,,,,,,,0,0,0,0,0
3.1208,1783957538.9338,1,1,4.0000,0.0000,1.42240,-0.01076,-2.63309,1.07306,1.57080,0.11675,-0.12761,-0.48151,0.03349,,,,,,,,,,,,,,,,,,,,,,,,,,0,0,0,0,0
3.1292,1783957538.9422,1,1,4.0000,0.0000,1.42240,-0.01082,-2.63309,1.07313,1.57080,0.11675,-0.12761,-0.48152,0.03347,,,,,,,,,,,,,,,,,,,,,,,,,,0,0,0,0,0
3.1296,1783957538.9426,1,1,4.0000,0.0000,1.42240,-0.01082,-2.63309,1.07313,1.57080,0.11675,-0.12761,-0.48152,0.03347,,,,,,,,,,,,,,,,,,,,,,,,,,0,0,0,0,0
3.1393,1783957538.9523,1,1,4.0000,0.0000,1.42240,-0.01089,-2.63310,1.07322,1.57080,0.11675,-0.12761,-0.48152,0.03345,,,,,,,,,,,,,,,,,,,,,,,,,,0,0,0,0,0
3.1496,1783957538.9626,1,1,4.0000,0.0000,1.42240,-0.01090,-2.63310,1.07324,1.57080,0.11675,-0.12761,-0.48153,0.03345,,,,,,,,,,,,,,,,,,,,,,,,,,0,0,0,0,0
3.1614,1783957538.9744,1,1,4.0000,0.0000,1.42240,-0.01097,-2.63310,1.07332,1.57080,0.11675,-0.12761,-0.48153,0.03343,,,,,,,,,,,,,,,,,,,,,,,,,,0,0,0,0,0
3.1760,1783957538.9890,1,1,4.0000,0.0000,1.42240,-0.01101,-2.63312,1.07337,1.57080,0.11675,-0.12761,-0.48153,0.03342,,,,,,,,,,,,,,,,,,,,,,,,,,0,0,0,0,0
3.1815,1783957538.9945,1,1,4.0000,0.0000,1.42240,-0.01103,-2.63312,1.07340,1.57080,0.11675,-0.12761,-0.48153,0.03341,,,,,,,,,,,,,,,,,,,,,,,,,,0,0,0,0,0
3.1819,1783957538.9949,1,1,4.0000,0.0000,1.42240,-0.01103,-2.63312,1.07340,1.57080,0.11675,-0.12761,-0.48153,0.03341,,,,,,,,,,,,,,,,,,,,,,,,,,0,0,0,0,0
3.1910,1783957539.0040,1,1,4.0000,0.0000,1.42240,-0.01114,-2.63316,1.07353,1.57081,0.11675,-0.12761,-0.48152,0.03337,,,,,,,,,,,,,,,,,,,,,,,,,,0,0,0,0,0
3.2268,1783957539.0398,1,1,4.0000,0.0000,1.42240,-0.01129,-2.63321,1.07372,1.57081,0.11675,-0.12761,-0.48151,0.03331,,,,,,,,,,,,,,,,,,,,,,,,,,0,0,0,0,0
3.2353,1783957539.0483,1,1,4.0000,0.0000,1.42240,-0.01131,-2.63321,1.07374,1.57081,0.11675,-0.12761,-0.48151,0.03330,,,,,,,,,,,,,,,,,,,,,,,,,,0,0,0,0,0
3.2413,1783957539.0543,1,1,4.0000,0.0000,1.42240,-0.01134,-2.63322,1.07377,1.57081,0.11675,-0.12761,-0.48151,0.03329,,,,,,,,,,,,,,,,,,,,,,,,,,0,0,0,0,0
3.2428,1783957539.0558,1,1,4.0000,0.0000,1.42240,-0.01137,-2.63322,1.07381,1.57081,0.11675,-0.12761,-0.48151,0.03328,,,,,,,,,,,,,,,,,,,,,,,,,,0,0,0,0,0
3.2475,1783957539.0605,1,1,4.0000,0.0000,1.42240,-0.01140,-2.63323,1.07386,1.57081,0.11675,-0.12761,-0.48151,0.03327,,,,,,,,,,,,,,,,,,,,,,,,,,0,0,0,0,0
3.2478,1783957539.0608,1,1,4.0000,0.0000,1.42240,-0.01140,-2.63323,1.07386,1.57081,0.11675,-0.12761,-0.48151,0.03327,,,,,,,,,,,,,,,,,,,,,,,,,,0,0,0,0,0
3.2522,1783957539.0652,1,1,4.0000,0.0000,1.42240,-0.01145,-2.63324,1.07391,1.57081,0.11675,-0.12761,-0.48151,0.03326,,,,,,,,,,,,,,,,,,,,,,,,,,0,0,0,0,0
3.2607,1783957539.0737,1,1,4.0000,0.0000,1.42240,-0.01145,-2.63324,1.07392,1.57081,0.11675,-0.12761,-0.48151,0.03325,,,,,,,,,,,,,,,,,,,,,,,,,,0,0,0,0,0
3.2693,1783957539.0823,1,1,4.0000,0.0000,1.42240,-0.01150,-2.63325,1.07398,1.57081,0.11675,-0.12761,-0.48151,0.03324,,,,,,,,,,,,,,,,,,,,,,,,,,0,0,0,0,0
3.2796,1783957539.0926,1,1,4.0000,0.0000,1.42240,-0.01164,-2.63328,1.07414,1.57081,0.11675,-0.12761,-0.48151,0.03319,,,,,,,,,,,,,,,,,,,,,,,,,,0,0,0,0,0
3.2947,1783957539.1077,1,1,4.0000,0.0000,1.42240,-0.01172,-2.63330,1.07424,1.57081,0.11675,-0.12761,-0.48151,0.03316,,,,,,,,,,,,,,,,,,,,,,,,,,0,0,0,0,0
3.2950,1783957539.1080,1,1,4.0000,0.0000,1.42240,-0.01172,-2.63330,1.07424,1.57081,0.11675,-0.12761,-0.48151,0.03316,,,,,,,,,,,,,,,,,,,,,,,,,,0,0,0,0,0
3.3035,1783957539.1165,1,1,4.0000,0.0000,1.42240,-0.01178,-2.63331,1.07431,1.57081,0.11675,-0.12761,-0.48151,0.03315,,,,,,,,,,,,,,,,,,,,,,,,,,0,0,0,0,0
3.3227,1783957539.1357,1,1,4.0000,0.0000,1.42239,-0.01192,-2.63334,1.07447,1.57081,0.11675,-0.12761,-0.48151,0.03310,,,,,,,,,,,,,,,,,,,,,,,,,,0,0,0,0,0
3.3231,1783957539.1361,1,1,4.0000,0.0000,1.42239,-0.01192,-2.63334,1.07447,1.57081,0.11675,-0.12761,-0.48151,0.03310,,,,,,,,,,,,,,,,,,,,,,,,,,0,0,0,0,0
3.3234,1783957539.1364,1,1,4.0000,0.0000,1.42239,-0.01192,-2.63334,1.07447,1.57081,0.11675,-0.12761,-0.48151,0.03310,,,,,,,,,,,,,,,,,,,,,,,,,,0,0,0,0,0
3.3293,1783957539.1423,1,1,4.0000,0.0000,1.42239,-0.01193,-2.63334,1.07449,1.57081,0.11675,-0.12761,-0.48151,0.03310,,,,,,,,,,,,,,,,,,,,,,,,,,0,0,0,0,0
3.3545,1783957539.1675,1,1,4.0000,0.0000,1.42239,-0.01216,-2.63335,1.07477,1.57081,0.11675,-0.12761,-0.48154,0.03304,,,,,,,,,,,,,,,,,,,,,,,,,,0,0,0,0,0
3.3547,1783957539.1677,1,1,4.0000,0.0000,1.42239,-0.01216,-2.63335,1.07477,1.57081,0.11675,-0.12761,-0.48154,0.03304,,,,,,,,,,,,,,,,,,,,,,,,,,0,0,0,0,0
3.3550,1783957539.1680,1,1,4.0000,0.0000,1.42239,-0.01216,-2.63335,1.07477,1.57081,0.11675,-0.12761,-0.48154,0.03304,,,,,,,,,,,,,,,,,,,,,,,,,,0,0,0,0,0
3.3677,1783957539.1807,1,1,4.0000,0.0000,1.42239,-0.01226,-2.63334,1.07490,1.57081,0.11675,-0.12760,-0.48157,0.03302,,,,,,,,,,,,,,,,,,,,,,,,,,0,0,0,0,0
3.3680,1783957539.1810,1,1,4.0000,0.0000,1.42239,-0.01226,-2.63334,1.07490,1.57081,0.11675,-0.12760,-0.48157,0.03302,,,,,,,,,,,,,,,,,,,,,,,,,,0,0,0,0,0
3.3695,1783957539.1825,1,1,4.0000,0.0000,1.42239,-0.01226,-2.63334,1.07490,1.57081,0.11675,-0.12760,-0.48157,0.03302,,,,,,,,,,,,,,,,,,,,,,,,,,0,0,0,0,0
3.3698,1783957539.1828,1,1,4.0000,0.0000,1.42239,-0.01226,-2.63334,1.07490,1.57081,0.11675,-0.12760,-0.48157,0.03302,,,,,,,,,,,,,,,,,,,,,,,,,,0,0,0,0,0
3.3820,1783957539.1950,1,1,4.0000,0.0000,1.42239,-0.01228,-2.63333,1.07493,1.57081,0.11675,-0.12760,-0.48158,0.03302,,,,,,,,,,,,,,,,,,,,,,,,,,0,0,0,0,0
3.3826,1783957539.1956,1,1,4.0000,0.0000,1.42239,-0.01229,-2.63334,1.07494,1.57081,0.11675,-0.12760,-0.48157,0.03301,,,,,,,,,,,,,,,,,,,,,,,,,,0,0,0,0,0
3.3890,1783957539.2020,1,1,4.0000,0.0000,1.42239,-0.01230,-2.63334,1.07496,1.57081,0.11675,-0.12760,-0.48157,0.03301,,,,,,,,,,,,,,,,,,,,,,,,,,0,0,0,0,0
3.4210,1783957539.2340,1,1,4.0000,0.0000,1.42239,-0.01241,-2.63340,1.07509,1.57081,0.11675,-0.12761,-0.48155,0.03296,,,,,,,,,,,,,,,,,,,,,,,,,,0,0,0,0,0
3.4231,1783957539.2361,1,1,4.0000,0.0000,1.42239,-0.01243,-2.63341,1.07512,1.57081,0.11675,-0.12761,-0.48154,0.03295,,,,,,,,,,,,,,,,,,,,,,,,,,0,0,0,0,0
3.4238,1783957539.2368,1,1,4.0000,0.0000,1.42239,-0.01243,-2.63341,1.07512,1.57081,0.11675,-0.12761,-0.48154,0.03295,,,,,,,,,,,,,,,,,,,,,,,,,,0,0,0,0,0
3.4243,1783957539.2373,1,1,4.0000,0.0000,1.42239,-0.01243,-2.63341,1.07512,1.57081,0.11675,-0.12761,-0.48154,0.03295,,,,,,,,,,,,,,,,,,,,,,,,,,0,0,0,0,0
3.4328,1783957539.2458,1,1,4.0000,0.0000,1.42239,-0.01246,-2.63342,1.07515,1.57081,0.11675,-0.12761,-0.48154,0.03294,,,,,,,,,,,,,,,,,,,,,,,,,,0,0,0,0,0
3.4450,1783957539.2580,1,1,4.0000,0.0000,1.42239,-0.01250,-2.63343,1.07520,1.57081,0.11675,-0.12761,-0.48154,0.03292,,,,,,,,,,,,,,,,,,,,,,,,,,0,0,0,0,0
3.4501,1783957539.2631,1,1,4.0000,0.0000,1.42239,-0.01254,-2.63344,1.07524,1.57081,0.11675,-0.12761,-0.48154,0.03291,,,,,,,,,,,,,,,,,,,,,,,,,,0,0,0,0,0
3.4596,1783957539.2726,1,1,4.0000,0.0000,1.42239,-0.01267,-2.63348,1.07541,1.57081,0.11675,-0.12761,-0.48153,0.03286,,,,,,,,,,,,,,,,,,,,,,,,,,0,0,0,0,0
3.4697,1783957539.2827,1,1,4.0000,0.0000,1.42239,-0.01272,-2.63350,1.07547,1.57081,0.11675,-0.12761,-0.48152,0.03284,,,,,,,,,,,,,,,,,,,,,,,,,,0,0,0,0,0
3.4700,1783957539.2830,1,1,4.0000,0.0000,1.42239,-0.01272,-2.63350,1.07547,1.57081,0.11675,-0.12761,-0.48152,0.03284,,,,,,,,,,,,,,,,,,,,,,,,,,0,0,0,0,0
3.4807,1783957539.2937,1,1,4.0000,0.0000,1.42239,-0.01277,-2.63351,1.07553,1.57081,0.11675,-0.12761,-0.48152,0.03282,,,,,,,,,,,,,,,,,,,,,,,,,,0,0,0,0,0
3.4810,1783957539.2940,1,1,4.0000,0.0000,1.42239,-0.01277,-2.63351,1.07553,1.57081,0.11675,-0.12761,-0.48152,0.03282,,,,,,,,,,,,,,,,,,,,,,,,,,0,0,0,0,0
3.4899,1783957539.3029,1,1,4.0000,0.0000,1.42239,-0.01284,-2.63353,1.07562,1.57081,0.11675,-0.12761,-0.48152,0.03280,,,,,,,,,,,,,,,,,,,,,,,,,,0,0,0,0,0
3.4906,1783957539.3036,1,1,4.0000,0.0000,1.42239,-0.01288,-2.63354,1.07567,1.57081,0.11675,-0.12761,-0.48152,0.03278,,,,,,,,,,,,,,,,,,,,,,,,,,0,0,0,0,0
3.5015,1783957539.3145,1,1,4.0000,0.0000,1.42239,-0.01293,-2.63355,1.07572,1.57081,0.11675,-0.12761,-0.48152,0.03276,,,,,,,,,,,,,,,,,,,,,,,,,,0,0,0,0,0
3.5020,1783957539.3150,1,1,4.0000,0.0000,1.42239,-0.01293,-2.63355,1.07572,1.57081,0.11675,-0.12761,-0.48152,0.03276,,,,,,,,,,,,,,,,,,,,,,,,,,0,0,0,0,0
3.5164,1783957539.3294,1,1,4.0000,0.0000,1.42239,-0.01301,-2.63356,1.07581,1.57081,0.11675,-0.12761,-0.48152,0.03274,,,,,,,,,,,,,,,,,,,,,,,,,,0,0,0,0,0
3.5307,1783957539.3437,1,1,4.0000,0.0000,1.42239,-0.01318,-2.63360,1.07602,1.57081,0.11675,-0.12761,-0.48152,0.03268,,,,,,,,,,,,,,,,,,,,,,,,,,0,0,0,0,0
3.5310,1783957539.3440,1,1,4.0000,0.0000,1.42239,-0.01318,-2.63360,1.07602,1.57081,0.11675,-0.12761,-0.48152,0.03268,,,,,,,,,,,,,,,,,,,,,,,,,,0,0,0,0,0
3.5397,1783957539.3528,1,1,4.0000,0.0000,1.42239,-0.01327,-2.63362,1.07613,1.57081,0.11675,-0.12761,-0.48152,0.03265,,,,,,,,,,,,,,,,,,,,,,,,,,0,0,0,0,0
3.5494,1783957539.3624,1,1,4.0000,0.0000,1.42239,-0.01336,-2.63364,1.07624,1.57081,0.11675,-0.12761,-0.48152,0.03262,,,,,,,,,,,,,,,,,,,,,,,,,,0,0,0,0,0
3.5604,1783957539.3734,1,1,4.0000,0.0000,1.42239,-0.01340,-2.63365,1.07629,1.57081,0.11675,-0.12761,-0.48152,0.03261,,,,,,,,,,,,,,,,,,,,,,,,,,0,0,0,0,0
3.5738,1783957539.3868,1,1,4.0000,0.0000,1.42239,-0.01342,-2.63365,1.07632,1.57081,0.11675,-0.12761,-0.48153,0.03260,,,,,,,,,,,,,,,,,,,,,,,,,,0,0,0,0,0
3.5826,1783957539.3956,1,1,4.0000,0.0000,1.42239,-0.01347,-2.63364,1.07638,1.57081,0.11675,-0.12760,-0.48154,0.03259,,,,,,,,,,,,,,,,,,,,,,,,,,0,0,0,0,0
3.5925,1783957539.4056,1,1,4.0000,0.0000,1.42239,-0.01347,-2.63365,1.07638,1.57081,0.11675,-0.12760,-0.48154,0.03259,,,,,,,,,,,,,,,,,,,,,,,,,,0,0,0,0,0
3.6058,1783957539.4188,1,1,4.0000,0.0000,1.42239,-0.01351,-2.63366,1.07643,1.57081,0.11675,-0.12760,-0.48153,0.03258,,,,,,,,,,,,,,,,,,,,,,,,,,0,0,0,0,0
3.6106,1783957539.4236,1,1,4.0000,0.0000,1.42239,-0.01355,-2.63367,1.07648,1.57081,0.11675,-0.12761,-0.48153,0.03256,,,,,,,,,,,,,,,,,,,,,,,,,,0,0,0,0,0
3.6108,1783957539.4238,1,1,4.0000,0.0000,1.42239,-0.01355,-2.63367,1.07648,1.57081,0.11675,-0.12761,-0.48153,0.03256,,,,,,,,,,,,,,,,,,,,,,,,,,0,0,0,0,0
3.6290,1783957539.4420,1,1,4.0000,0.0000,1.42239,-0.01358,-2.63368,1.07652,1.57081,0.11675,-0.12761,-0.48153,0.03255,,,,,,,,,,,,,,,,,,,,,,,,,,0,0,0,0,0
3.6361,1783957539.4491,1,1,4.0000,0.0000,1.42239,-0.01363,-2.63369,1.07658,1.57081,0.11675,-0.12761,-0.48153,0.03253,,,,,,,,,,,,,,,,,,,,,,,,,,0,0,0,0,0
3.6414,1783957539.4544,1,1,4.0000,0.0000,1.42239,-0.01366,-2.63370,1.07662,1.57081,0.11675,-0.12761,-0.48152,0.03252,,,,,,,,,,,,,,,,,,,,,,,,,,0,0,0,0,0
3.6629,1783957539.4759,1,1,4.0000,0.0000,1.42239,-0.01375,-2.63373,1.07673,1.57081,0.11675,-0.12761,-0.48152,0.03249,,,,,,,,,,,,,,,,,,,,,,,,,,0,0,0,0,0
3.6632,1783957539.4762,1,1,4.0000,0.0000,1.42239,-0.01375,-2.63373,1.07673,1.57081,0.11675,-0.12761,-0.48152,0.03249,,,,,,,,,,,,,,,,,,,,,,,,,,0,0,0,0,0
3.6718,1783957539.4848,1,1,4.0000,0.0000,1.42239,-0.01382,-2.63374,1.07681,1.57081,0.11675,-0.12761,-0.48152,0.03247,,,,,,,,,,,,,,,,,,,,,,,,,,0,0,0,0,0
3.6721,1783957539.4851,1,1,4.0000,0.0000,1.42239,-0.01382,-2.63374,1.07681,1.57081,0.11675,-0.12761,-0.48152,0.03247,,,,,,,,,,,,,,,,,,,,,,,,,,0,0,0,0,0
3.7034,1783957539.5164,1,1,4.0000,0.0000,1.42239,-0.01398,-2.63378,1.07701,1.57081,0.11675,-0.12761,-0.48152,0.03241,,,,,,,,,,,,,,,,,,,,,,,,,,0,0,0,0,0
3.7036,1783957539.5166,1,1,4.0000,0.0000,1.42239,-0.01398,-2.63378,1.07701,1.57081,0.11675,-0.12761,-0.48152,0.03241,,,,,,,,,,,,,,,,,,,,,,,,,,0,0,0,0,0
3.7040,1783957539.5170,1,1,4.0000,0.0000,1.42239,-0.01398,-2.63378,1.07701,1.57081,0.11675,-0.12761,-0.48152,0.03241,,,,,,,,,,,,,,,,,,,,,,,,,,0,0,0,0,0
3.7323,1783957539.5453,1,1,4.0000,0.0000,1.42239,-0.01423,-2.63383,1.07730,1.57081,0.11675,-0.12761,-0.48152,0.03233,,,,,,,,,,,,,,,,,,,,,,,,,,0,0,0,0,0
3.7329,1783957539.5459,1,1,4.0000,0.0000,1.42239,-0.01423,-2.63383,1.07730,1.57081,0.11675,-0.12761,-0.48152,0.03233,,,,,,,,,,,,,,,,,,,,,,,,,,0,0,0,0,0
3.7415,1783957539.5545,1,1,4.0000,0.0000,1.42239,-0.01424,-2.63383,1.07731,1.57081,0.11675,-0.12761,-0.48152,0.03232,,,,,,,,,,,,,,,,,,,,,,,,,,0,0,0,0,0
3.7418,1783957539.5548,1,1,4.0000,0.0000,1.42239,-0.01424,-2.63383,1.07731,1.57081,0.11675,-0.12761,-0.48152,0.03232,,,,,,,,,,,,,,,,,,,,,,,,,,0,0,0,0,0
3.7450,1783957539.5580,1,1,4.0000,0.0000,1.42239,-0.01425,-2.63384,1.07733,1.57081,0.11675,-0.12761,-0.48152,0.03232,,,,,,,,,,,,,,,,,,,,,,,,,,0,0,0,0,0
3.7517,1783957539.5647,1,1,4.0000,0.0000,1.42239,-0.01430,-2.63384,1.07739,1.57081,0.11675,-0.12761,-0.48152,0.03230,,,,,,,,,,,,,,,,,,,,,,,,,,0,0,0,0,0
3.7526,1783957539.5656,1,1,4.0000,0.0000,1.42239,-0.01430,-2.63384,1.07739,1.57081,0.11675,-0.12761,-0.48152,0.03230,,,,,,,,,,,,,,,,,,,,,,,,,,0,0,0,0,0
3.7529,1783957539.5659,1,1,4.0000,0.0000,1.42239,-0.01430,-2.63384,1.07739,1.57081,0.11675,-0.12761,-0.48152,0.03230,,,,,,,,,,,,,,,,,,,,,,,,,,0,0,0,0,0
3.7531,1783957539.5661,1,1,4.0000,0.0000,1.42239,-0.01430,-2.63384,1.07739,1.57081,0.11675,-0.12761,-0.48152,0.03230,,,,,,,,,,,,,,,,,,,,,,,,,,0,0,0,0,0
3.7638,1783957539.5768,1,1,4.0000,0.0000,1.42239,-0.01442,-2.63386,1.07753,1.57081,0.11675,-0.12760,-0.48153,0.03227,,,,,,,,,,,,,,,,,,,,,,,,,,0,0,0,0,0
3.8059,1783957539.6189,1,1,4.0000,0.0000,1.42238,-0.01454,-2.63387,1.07768,1.57081,0.11675,-0.12760,-0.48154,0.03224,,,,,,,,,,,,,,,,,,,,,,,,,,0,0,0,0,0
3.8371,1783957539.6501,1,1,4.0000,0.0000,1.42238,-0.01471,-2.63392,1.07790,1.57081,0.11675,-0.12760,-0.48153,0.03217,,,,,,,,,,,,,,,,,,,,,,,,,,0,0,0,0,0
3.8475,1783957539.6605,1,1,4.0000,0.0000,1.42238,-0.01478,-2.63394,1.07797,1.57081,0.11675,-0.12760,-0.48152,0.03215,,,,,,,,,,,,,,,,,,,,,,,,,,0,0,0,0,0
3.8550,1783957539.6680,1,1,4.0000,0.0000,1.42238,-0.01484,-2.63396,1.07805,1.57081,0.11674,-0.12760,-0.48152,0.03213,,,,,,,,,,,,,,,,,,,,,,,,,,0,0,0,0,0
3.8606,1783957539.6736,1,1,4.0000,0.0000,1.42238,-0.01484,-2.63396,1.07805,1.57081,0.11674,-0.12760,-0.48152,0.03213,,,,,,,,,,,,,,,,,,,,,,,,,,0,0,0,0,0
3.8629,1783957539.6759,1,1,4.0000,0.0000,1.42238,-0.01484,-2.63396,1.07805,1.57081,0.11674,-0.12760,-0.48152,0.03212,,,,,,,,,,,,,,,,,,,,,,,,,,0,0,0,0,0
3.8660,1783957539.6790,1,1,4.0000,0.0000,1.42238,-0.01484,-2.63396,1.07805,1.57081,0.11674,-0.12760,-0.48152,0.03212,,,,,,,,,,,,,,,,,,,,,,,,,,0,0,0,0,0
3.8666,1783957539.6797,1,1,4.0000,0.0000,1.42238,-0.01486,-2.63396,1.07807,1.57081,0.11674,-0.12760,-0.48152,0.03212,,,,,,,,,,,,,,,,,,,,,,,,,,0,0,0,0,0
3.8822,1783957539.6952,1,1,4.0000,0.0000,1.42238,-0.01494,-2.63398,1.07817,1.57081,0.11674,-0.12760,-0.48152,0.03209,,,,,,,,,,,,,,,,,,,,,,,,,,0,0,0,0,0
3.8917,1783957539.7047,1,1,4.0000,0.0000,1.42238,-0.01503,-2.63400,1.07828,1.57081,0.11674,-0.12760,-0.48152,0.03206,,,,,,,,,,,,,,,,,,,,,,,,,,0,0,0,0,0
3.8942,1783957539.7072,1,1,4.0000,0.0000,1.42238,-0.01503,-2.63400,1.07828,1.57081,0.11674,-0.12760,-0.48152,0.03206,,,,,,,,,,,,,,,,,,,,,,,,,,0,0,0,0,0
3.8948,1783957539.7078,1,1,4.0000,0.0000,1.42238,-0.01504,-2.63400,1.07829,1.57081,0.11674,-0.12760,-0.48152,0.03206,,,,,,,,,,,,,,,,,,,,,,,,,,0,0,0,0,0
3.8956,1783957539.7086,1,1,4.0000,0.0000,1.42238,-0.01504,-2.63400,1.07829,1.57081,0.11674,-0.12760,-0.48152,0.03206,,,,,,,,,,,,,,,,,,,,,,,,,,0,0,0,0,0
3.9010,1783957539.7140,1,1,4.0000,0.0000,1.42238,-0.01506,-2.63401,1.07831,1.57081,0.11674,-0.12760,-0.48152,0.03205,,,,,,,,,,,,,,,,,,,,,,,,,,0,0,0,0,0
3.9015,1783957539.7145,1,1,4.0000,0.0000,1.42238,-0.01506,-2.63401,1.07831,1.57081,0.11674,-0.12760,-0.48152,0.03205,,,,,,,,,,,,,,,,,,,,,,,,,,0,0,0,0,0
3.9113,1783957539.7243,1,1,4.0000,0.0000,1.42238,-0.01517,-2.63403,1.07845,1.57081,0.11674,-0.12760,-0.48152,0.03201,,,,,,,,,,,,,,,,,,,,,,,,,,0,0,0,0,0
3.9219,1783957539.7349,1,1,4.0000,0.0000,1.42238,-0.01518,-2.63403,1.07846,1.57081,0.11674,-0.12760,-0.48152,0.03201,,,,,,,,,,,,,,,,,,,,,,,,,,0,0,0,0,0
3.9223,1783957539.7353,1,1,4.0000,0.0000,1.42238,-0.01518,-2.63403,1.07846,1.57081,0.11674,-0.12760,-0.48152,0.03201,,,,,,,,,,,,,,,,,,,,,,,,,,0,0,0,0,0
3.9339,1783957539.7469,1,1,4.0000,0.0000,1.42238,-0.01527,-2.63405,1.07856,1.57081,0.11674,-0.12760,-0.48152,0.03198,,,,,,,,,,,,,,,,,,,,,,,,,,0,0,0,0,0
3.9392,1783957539.7522,1,1,4.0000,0.0000,1.42238,-0.01537,-2.63407,1.07869,1.57081,0.11674,-0.12760,-0.48152,0.03195,,,,,,,,,,,,,,,,,,,,,,,,,,0,0,0,0,0
3.9396,1783957539.7526,1,1,4.0000,0.0000,1.42238,-0.01537,-2.63407,1.07869,1.57081,0.11674,-0.12760,-0.48152,0.03195,,,,,,,,,,,,,,,,,,,,,,,,,,0,0,0,0,0
3.9490,1783957539.7620,1,1,4.0000,0.0000,1.42238,-0.01543,-2.63409,1.07876,1.57081,0.11674,-0.12760,-0.48152,0.03193,,,,,,,,,,,,,,,,,,,,,,,,,,0,0,0,0,0
3.9495,1783957539.7625,1,1,4.0000,0.0000,1.42238,-0.01543,-2.63409,1.07876,1.57081,0.11674,-0.12760,-0.48152,0.03193,,,,,,,,,,,,,,,,,,,,,,,,,,0,0,0,0,0
3.9590,1783957539.7720,1,1,4.0000,0.0000,1.42238,-0.01547,-2.63409,1.07881,1.57081,0.11674,-0.12760,-0.48152,0.03191,,,,,,,,,,,,,,,,,,,,,,,,,,0,0,0,0,0
3.9593,1783957539.7723,1,1,4.0000,0.0000,1.42238,-0.01547,-2.63409,1.07881,1.57081,0.11674,-0.12760,-0.48152,0.03191,,,,,,,,,,,,,,,,,,,,,,,,,,0,0,0,0,0
3.9689,1783957539.7819,1,1,4.0000,0.0000,1.42238,-0.01553,-2.63410,1.07889,1.57081,0.11674,-0.12760,-0.48152,0.03189,,,,,,,,,,,,,,,,,,,,,,,,,,0,0,0,0,0
3.9959,1783957539.8089,1,1,4.0000,0.0000,1.42238,-0.01567,-2.63412,1.07906,1.57081,0.11674,-0.12760,-0.48154,0.03186,,,,,,,,,,,,,,,,,,,,,,,,,,0,0,0,0,0
3.9972,1783957539.8102,1,1,4.0000,0.0000,1.42238,-0.01567,-2.63412,1.07906,1.57081,0.11674,-0.12760,-0.48154,0.03186,,,,,,,,,,,,,,,,,,,,,,,,,,0,0,0,0,0
4.0023,1783957539.8153,1,1,4.0000,0.0000,1.42238,-0.01570,-2.63412,1.07909,1.57081,0.11674,-0.12760,-0.48154,0.03185,,,,,,,,,,,,,,,,,,,,,,,,,,0,0,0,0,0
4.0028,1783957539.8158,1,1,4.0000,0.0000,1.42238,-0.01570,-2.63412,1.07909,1.57081,0.11674,-0.12760,-0.48154,0.03185,,,,,,,,,,,,,,,,,,,,,,,,,,0,0,0,0,0
4.0161,1783957539.8291,1,1,4.0000,0.0000,1.42238,-0.01573,-2.63413,1.07914,1.57081,0.11674,-0.12760,-0.48154,0.03183,,,,,,,,,,,,,,,,,,,,,,,,,,0,0,0,0,0
4.0164,1783957539.8294,1,1,4.0000,0.0000,1.42238,-0.01573,-2.63413,1.07914,1.57081,0.11674,-0.12760,-0.48154,0.03183,,,,,,,,,,,,,,,,,,,,,,,,,,0,0,0,0,0
4.0229,1783957539.8359,1,1,4.0000,0.0000,1.42238,-0.01579,-2.63415,1.07921,1.57081,0.11674,-0.12760,-0.48153,0.03181,,,,,,,,,,,,,,,,,,,,,,,,,,0,0,0,0,0
4.0354,1783957539.8484,1,1,4.0000,0.0000,1.42238,-0.01591,-2.63418,1.07935,1.57081,0.11674,-0.12760,-0.48153,0.03177,,,,,,,,,,,,,,,,,,,,,,,,,,0,0,0,0,0
4.0389,1783957539.8519,1,1,4.0000,0.0000,1.42238,-0.01591,-2.63418,1.07935,1.57081,0.11674,-0.12760,-0.48153,0.03177,,,,,,,,,,,,,,,,,,,,,,,,,,0,0,0,0,0
4.0392,1783957539.8522,1,1,4.0000,0.0000,1.42238,-0.01591,-2.63418,1.07935,1.57081,0.11674,-0.12760,-0.48153,0.03177,,,,,,,,,,,,,,,,,,,,,,,,,,0,0,0,0,0
4.1176,1783957539.9306,1,1,4.0000,0.0000,1.42238,-0.01631,-2.63428,1.07983,1.57082,0.11674,-0.12760,-0.48152,0.03163,,,,,,,,,,,,,,,,,,,,,,,,,,0,0,0,0,0
4.1439,1783957539.9569,1,1,4.0000,0.0000,1.42238,-0.01653,-2.63432,1.08010,1.57082,0.11674,-0.12760,-0.48152,0.03156,,,,,,,,,,,,,,,,,,,,,,,,,,0,0,0,0,0
4.1533,1783957539.9663,1,1,4.0000,0.0024,1.42238,-0.01660,-2.63434,1.08018,1.57082,0.11674,-0.12760,-0.48152,0.03153,,,,,,,,,,,,,,,,,,,,,,,,,,0,0,0,0,0
4.1551,1783957539.9681,1,1,4.0000,1.5054,1.42238,-0.01664,-2.63435,1.08023,1.57082,0.11674,-0.12760,-0.48152,0.03152,,,,,,,,,,,,,,,,,,,,,,,,,,0,0,0,0,0
4.1556,1783957539.9686,1,1,4.0000,2.1946,1.42238,-0.01664,-2.63435,1.08023,1.57082,0.11674,-0.12760,-0.48152,0.03152,,,,,,,,,,,,,,,,,,,,,,,,,,0,0,0,0,0
4.1562,1783957539.9692,1,1,4.0000,1.8317,1.42238,-0.01664,-2.63435,1.08023,1.57082,0.11674,-0.12760,-0.48152,0.03152,,,,,,,,,,,,,,,,,,,,,,,,,,0,0,0,0,0
4.1566,1783957539.9696,1,1,4.0000,1.2502,1.42238,-0.01664,-2.63435,1.08023,1.57082,0.11674,-0.12760,-0.48152,0.03152,,,,,,,,,,,,,,,,,,,,,,,,,,0,0,0,0,0
4.1572,1783957539.9702,1,1,4.0000,1.0904,1.42238,-0.01664,-2.63435,1.08023,1.57082,0.11674,-0.12760,-0.48152,0.03152,,,,,,,,,,,,,,,,,,,,,,,,,,0,0,0,0,0
4.1575,1783957539.9705,1,1,4.0000,1.1918,1.42238,-0.01664,-2.63435,1.08023,1.57082,0.11674,-0.12760,-0.48152,0.03152,,,,,,,,,,,,,,,,,,,,,,,,,,0,0,0,0,0
4.1620,1783957539.9750,1,1,4.0000,1.2549,1.42238,-0.01669,-2.63435,1.08028,1.57082,0.11674,-0.12760,-0.48152,0.03150,,,,,,,,,,,,,,,,,,,,,,,,,,0,0,0,0,0
4.1625,1783957539.9756,1,1,4.0000,1.4002,1.42238,-0.01669,-2.63435,1.08028,1.57082,0.11674,-0.12760,-0.48152,0.03150,,,,,,,,,,,,,,,,,,,,,,,,,,0,0,0,0,0
4.1690,1783957539.9820,1,1,4.0000,1.6038,1.42238,-0.01678,-2.63437,1.08040,1.57082,0.11674,-0.12760,-0.48152,0.03147,,,,,,,,,,,,,,,,,,,,,,,,,,0,0,0,0,0
4.1693,1783957539.9823,1,1,4.0000,1.8070,1.42238,-0.01678,-2.63437,1.08040,1.57082,0.11674,-0.12760,-0.48152,0.03147,,,,,,,,,,,,,,,,,,,,,,,,,,0,0,0,0,0
4.2792,1783957540.0922,1,1,4.0000,3.6133,1.42238,-0.01726,-2.63447,1.08098,1.57082,0.11674,-0.12760,-0.48152,0.03131,,,,,,,,,,,,,,,,,,,,,,,,,,0,0,0,0,0
4.2802,1783957540.0932,1,1,4.0000,3.8471,1.42238,-0.01726,-2.63447,1.08098,1.57082,0.11674,-0.12760,-0.48152,0.03131,,,,,,,,,,,,,,,,,,,,,,,,,,0,0,0,0,0
4.2903,1783957540.1033,1,1,4.0000,4.7537,1.42238,-0.01728,-2.63447,1.08100,1.57082,0.11674,-0.12760,-0.48152,0.03131,,,,,,,,,,,,,,,,,,,,,,,,,,0,0,0,0,0
4.3010,1783957540.1140,1,1,4.0000,5.0831,1.42238,-0.01736,-2.63449,1.08109,1.57082,0.11674,-0.12760,-0.48152,0.03128,,,,,,,,,,,,,,,,,,,,,,,,,,0,0,0,0,0
4.3013,1783957540.1143,1,1,4.0000,5.9183,1.42238,-0.01736,-2.63449,1.08109,1.57082,0.11674,-0.12760,-0.48152,0.03128,,,,,,,,,,,,,,,,,,,,,,,,,,0,0,0,0,0
4.3098,1783957540.1228,1,1,4.0000,6.4117,1.42237,-0.01743,-2.63451,1.08119,1.57082,0.11674,-0.12760,-0.48152,0.03126,,,,,,,,,,,,,,,,,,,,,,,,,,0,0,0,0,0
4.3209,1783957540.1339,1,1,4.0000,6.3685,1.42237,-0.01745,-2.63451,1.08121,1.57082,0.11674,-0.12760,-0.48152,0.03125,,,,,,,,,,,,,,,,,,,,,,,,,,0,0,0,0,0
4.3359,1783957540.1489,1,1,4.0000,6.0067,1.42237,-0.01756,-2.63453,1.08134,1.57082,0.11674,-0.12760,-0.48152,0.03122,,,,,,,,,,,,,,,,,,,,,,,,,,0,0,0,0,0
4.3430,1783957540.1560,1,1,4.0000,5.5286,1.42237,-0.01758,-2.63454,1.08137,1.57082,0.11674,-0.12760,-0.48152,0.03121,,,,,,,,,,,,,,,,,,,,,,,,,,0,0,0,0,0
4.3539,1783957540.1669,1,1,4.0000,5.2057,1.42237,-0.01765,-2.63455,1.08145,1.57082,0.11674,-0.12760,-0.48152,0.03118,,,,,,,,,,,,,,,,,,,,,,,,,,0,0,0,0,0
4.3593,1783957540.1723,1,1,4.0000,5.3150,1.42237,-0.01775,-2.63457,1.08157,1.57082,0.11674,-0.12760,-0.48152,0.03115,,,,,,,,,,,,,,,,,,,,,,,,,,0,0,0,0,0
4.3699,1783957540.1829,1,1,4.0000,5.4949,1.42237,-0.01781,-2.63458,1.08164,1.57082,0.11674,-0.12760,-0.48152,0.03113,,,,,,,,,,,,,,,,,,,,,,,,,,0,0,0,0,0
4.4852,1783957540.2982,1,1,4.0000,5.9337,1.42237,-0.01828,-2.63460,1.08222,1.57082,0.11674,-0.12758,-0.48159,0.03102,,,,,,,,,,,,,,,,,,,,,,,,,,0,0,0,0,0
4.5760,1783957540.3890,1,1,4.0000,5.9309,1.42237,-0.01828,-2.63460,1.08222,1.57082,0.11674,-0.12758,-0.48159,0.03102,,,,,,,,,,,,,,,,,,,,,,,,,,0,0,0,0,0
4.5793,1783957540.3923,1,1,4.0000,5.6739,1.42237,-0.01828,-2.63460,1.08222,1.57082,0.11674,-0.12758,-0.48159,0.03102,,,,,,,,,,,,,,,,,,,,,,,,,,0,0,0,0,0
4.5845,1783957540.3975,1,1,4.0000,5.4243,1.42237,-0.01828,-2.63460,1.08222,1.57082,0.11674,-0.12758,-0.48159,0.03102,,,,,,,,,,,,,,,,,,,,,,,,,,0,0,0,0,0
4.5848,1783957540.3978,1,1,4.0000,4.6200,1.42237,-0.01828,-2.63460,1.08222,1.57082,0.11674,-0.12758,-0.48159,0.03102,,,,,,,,,,,,,,,,,,,,,,,,,,0,0,0,0,0
4.5851,1783957540.3981,1,1,4.0000,4.3921,1.42237,-0.01828,-2.63460,1.08222,1.57082,0.11674,-0.12758,-0.48159,0.03102,,,,,,,,,,,,,,,,,,,,,,,,,,0,0,0,0,0
4.5853,1783957540.3983,1,1,4.0000,4.5863,1.42237,-0.01828,-2.63460,1.08222,1.57082,0.11674,-0.12758,-0.48159,0.03102,,,,,,,,,,,,,,,,,,,,,,,,,,0,0,0,0,0
4.5856,1783957540.3986,1,1,4.0000,4.7758,1.42237,-0.01828,-2.63460,1.08222,1.57082,0.11674,-0.12758,-0.48159,0.03102,,,,,,,,,,,,,,,,,,,,,,,,,,0,0,0,0,0
4.6100,1783957540.4230,1,1,4.0000,5.5929,1.42237,-0.01828,-2.63460,1.08222,1.57082,0.11674,-0.12758,-0.48159,0.03102,,,,,,,,,,,,,,,,,,,,,,,,,,0,0,0,0,0
4.6120,1783957540.4250,1,1,4.0000,5.7815,1.42237,-0.01828,-2.63460,1.08222,1.57082,0.11674,-0.12758,-0.48159,0.03102,,,,,,,,,,,,,,,,,,,,,,,,,,0,0,0,0,0
4.6124,1783957540.4254,1,1,4.0000,4.6198,1.42237,-0.01828,-2.63460,1.08222,1.57082,0.11674,-0.12758,-0.48159,0.03102,,,,,,,,,,,,,,,,,,,,,,,,,,0,0,0,0,0
4.6129,1783957540.4259,1,1,4.0000,4.4744,1.42237,-0.01828,-2.63460,1.08222,1.57082,0.11674,-0.12758,-0.48159,0.03102,,,,,,,,,,,,,,,,,,,,,,,,,,0,0,0,0,0
4.7143,1783957540.5273,1,1,4.0000,4.6379,1.42237,-0.01823,-2.63459,1.08218,1.57082,0.11674,-0.12758,-0.48159,0.03103,,,,,,,,,,,,,,,,,,,,,,,,,,0,0,0,0,0
4.7152,1783957540.5282,1,1,4.0000,4.9957,1.42237,-0.01821,-2.63458,1.08216,1.57082,0.11674,-0.12758,-0.48160,0.03104,,,,,,,,,,,,,,,,,,,,,,,,,,0,0,0,0,0
4.7162,1783957540.5292,1,1,4.0000,5.6211,1.42237,-0.01821,-2.63458,1.08216,1.57082,0.11674,-0.12758,-0.48160,0.03104,,,,,,,,,,,,,,,,,,,,,,,,,,0,0,0,0,0
4.7165,1783957540.5295,1,1,4.0000,5.6324,1.42237,-0.01821,-2.63458,1.08216,1.57082,0.11674,-0.12758,-0.48160,0.03104,,,,,,,,,,,,,,,,,,,,,,,,,,0,0,0,0,0
4.7173,1783957540.5303,1,1,4.0000,5.5667,1.42237,-0.01821,-2.63458,1.08216,1.57082,0.11674,-0.12758,-0.48160,0.03104,,,,,,,,,,,,,,,,,,,,,,,,,,0,0,0,0,0
4.7176,1783957540.5306,1,1,4.0000,5.0667,1.42237,-0.01821,-2.63458,1.08216,1.57082,0.11674,-0.12758,-0.48160,0.03104,,,,,,,,,,,,,,,,,,,,,,,,,,0,0,0,0,0
4.7191,1783957540.5321,1,1,4.0000,4.6309,1.42237,-0.01819,-2.63458,1.08214,1.57082,0.11674,-0.12758,-0.48160,0.03105,,,,,,,,,,,,,,,,,,,,,,,,,,0,0,0,0,0
4.7211,1783957540.5341,1,1,4.0000,4.5572,1.42237,-0.01819,-2.63458,1.08214,1.57082,0.11674,-0.12758,-0.48160,0.03105,,,,,,,,,,,,,,,,,,,,,,,,,,0,0,0,0,0
4.7216,1783957540.5346,1,1,4.0000,4.8273,1.42237,-0.01819,-2.63458,1.08214,1.57082,0.11674,-0.12758,-0.48160,0.03105,,,,,,,,,,,,,,,,,,,,,,,,,,0,0,0,0,0
4.7220,1783957540.5350,1,1,4.0000,4.9118,1.42237,-0.01819,-2.63458,1.08214,1.57082,0.11674,-0.12758,-0.48160,0.03105,,,,,,,,,,,,,,,,,,,,,,,,,,0,0,0,0,0
4.7223,1783957540.5353,1,1,4.0000,4.1982,1.42237,-0.01819,-2.63458,1.08214,1.57082,0.11674,-0.12758,-0.48160,0.03105,,,,,,,,,,,,,,,,,,,,,,,,,,0,0,0,0,0
4.7226,1783957540.5356,1,1,4.0000,3.8444,1.42237,-0.01819,-2.63458,1.08214,1.57082,0.11674,-0.12758,-0.48160,0.03105,,,,,,,,,,,,,,,,,,,,,,,,,,0,0,0,0,0
4.7232,1783957540.5362,1,1,4.0000,3.9501,1.42237,-0.01816,-2.63457,1.08211,1.57082,0.11674,-0.12758,-0.48160,0.03106,,,,,,,,,,,,,,,,,,,,,,,,,,0,0,0,0,0
4.7236,1783957540.5366,1,1,4.0000,4.0167,1.42237,-0.01816,-2.63457,1.08211,1.57082,0.11674,-0.12758,-0.48160,0.03106,,,,,,,,,,,,,,,,,,,,,,,,,,0,0,0,0,0
4.7240,1783957540.5370,1,1,4.0000,4.0176,1.42237,-0.01816,-2.63457,1.08211,1.57082,0.11674,-0.12758,-0.48160,0.03106,,,,,,,,,,,,,,,,,,,,,,,,,,0,0,0,0,0
4.7295,1783957540.5425,1,1,4.0000,3.8996,1.42237,-0.01813,-2.63456,1.08209,1.57082,0.11674,-0.12758,-0.48160,0.03108,,,,,,,,,,,,,,,,,,,,,,,,,,0,0,0,0,0
4.7298,1783957540.5428,1,1,4.0000,3.4395,1.42237,-0.01813,-2.63456,1.08209,1.57082,0.11674,-0.12758,-0.48160,0.03108,,,,,,,,,,,,,,,,,,,,,,,,,,0,0,0,0,0
4.7312,1783957540.5442,1,1,4.0000,2.8628,1.42237,-0.01810,-2.63456,1.08206,1.57082,0.11674,-0.12758,-0.48160,0.03109,,,,,,,,,,,,,,,,,,,,,,,,,,0,0,0,0,0
4.7315,1783957540.5445,1,1,4.0000,2.2686,1.42237,-0.01810,-2.63456,1.08206,1.57082,0.11674,-0.12758,-0.48160,0.03109,,,,,,,,,,,,,,,,,,,,,,,,,,0,0,0,0,0
4.7328,1783957540.5458,1,1,4.0000,2.3255,1.42237,-0.01810,-2.63456,1.08206,1.57082,0.11674,-0.12758,-0.48160,0.03109,,,,,,,,,,,,,,,,,,,,,,,,,,0,0,0,0,0
4.7331,1783957540.5461,1,1,4.0000,2.5192,1.42237,-0.01810,-2.63456,1.08206,1.57082,0.11674,-0.12758,-0.48160,0.03109,,,,,,,,,,,,,,,,,,,,,,,,,,0,0,0,0,0
4.7363,1783957540.5493,1,1,4.0000,2.7561,1.42237,-0.01807,-2.63455,1.08203,1.57082,0.11674,-0.12758,-0.48161,0.03110,,,,,,,,,,,,,,,,,,,,,,,,,,0,0,0,0,0
4.7428,1783957540.5558,1,1,4.0000,3.5830,1.42237,-0.01804,-2.63454,1.08200,1.57082,0.11674,-0.12758,-0.48161,0.03111,,,,,,,,,,,,,,,,,,,,,,,,,,0,0,0,0,0
4.7608,1783957540.5738,1,1,4.0000,3.9612,1.42237,-0.01793,-2.63451,1.08188,1.57082,0.11674,-0.12758,-0.48162,0.03115,,,,,,,,,,,,,,,,,,,,,,,,,,0,0,0,0,0
4.7677,1783957540.5807,1,1,4.0000,3.7280,1.42237,-0.01793,-2.63451,1.08188,1.57082,0.11674,-0.12758,-0.48162,0.03115,,,,,,,,,,,,,,,,,,,,,,,,,,0,0,0,0,0
4.7700,1783957540.5830,1,1,4.0000,3.6224,1.42237,-0.01793,-2.63451,1.08188,1.57082,0.11674,-0.12758,-0.48162,0.03115,,,,,,,,,,,,,,,,,,,,,,,,,,0,0,0,0,0
4.7703,1783957540.5833,1,1,4.0000,3.3097,1.42237,-0.01793,-2.63451,1.08188,1.57082,0.11674,-0.12758,-0.48162,0.03115,,,,,,,,,,,,,,,,,,,,,,,,,,0,0,0,0,0
4.7797,1783957540.5927,1,1,4.0000,2.8317,1.42237,-0.01793,-2.63451,1.08188,1.57082,0.11674,-0.12758,-0.48162,0.03115,,,,,,,,,,,,,,,,,,,,,,,,,,0,0,0,0,0
4.7799,1783957540.5929,1,1,4.0000,2.5962,1.42237,-0.01793,-2.63451,1.08188,1.57082,0.11674,-0.12758,-0.48162,0.03115,,,,,,,,,,,,,,,,,,,,,,,,,,0,0,0,0,0
4.7903,1783957540.6033,1,1,4.0000,2.5258,1.42237,-0.01793,-2.63451,1.08188,1.57082,0.11674,-0.12758,-0.48162,0.03115,,,,,,,,,,,,,,,,,,,,,,,,,,0,0,0,0,0
4.7992,1783957540.6122,1,1,4.0000,2.6997,1.42237,-0.01793,-2.63451,1.08188,1.57082,0.11674,-0.12758,-0.48162,0.03115,,,,,,,,,,,,,,,,,,,,,,,,,,0,0,0,0,0
4.7994,1783957540.6124,1,1,4.0000,2.8106,1.42237,-0.01793,-2.63451,1.08188,1.57082,0.11674,-0.12758,-0.48162,0.03115,,,,,,,,,,,,,,,,,,,,,,,,,,0,0,0,0,0
4.8125,1783957540.6255,1,1,4.0000,3.5538,1.42237,-0.01793,-2.63451,1.08188,1.57082,0.11674,-0.12758,-0.48162,0.03115,,,,,,,,,,,,,,,,,,,,,,,,,,0,0,0,0,0
4.8130,1783957540.6260,1,1,4.0000,3.6335,1.42237,-0.01793,-2.63451,1.08188,1.57082,0.11674,-0.12758,-0.48162,0.03115,,,,,,,,,,,,,,,,,,,,,,,,,,0,0,0,0,0
4.8207,1783957540.6337,1,1,4.0000,4.0639,1.42237,-0.01793,-2.63451,1.08188,1.57082,0.11674,-0.12758,-0.48162,0.03115,,,,,,,,,,,,,,,,,,,,,,,,,,0,0,0,0,0
4.8211,1783957540.6341,1,1,4.0000,4.1497,1.42237,-0.01793,-2.63451,1.08188,1.57082,0.11674,-0.12758,-0.48162,0.03115,,,,,,,,,,,,,,,,,,,,,,,,,,0,0,0,0,0
4.8305,1783957540.6435,1,1,4.0000,4.0158,1.42237,-0.01793,-2.63451,1.08188,1.57082,0.11674,-0.12758,-0.48162,0.03115,,,,,,,,,,,,,,,,,,,,,,,,,,0,0,0,0,0
4.8312,1783957540.6442,1,1,4.0000,4.0004,1.42237,-0.01793,-2.63451,1.08188,1.57082,0.11674,-0.12758,-0.48162,0.03115,,,,,,,,,,,,,,,,,,,,,,,,,,0,0,0,0,0
4.8449,1783957540.6579,1,1,4.0000,3.7183,1.42237,-0.01793,-2.63451,1.08188,1.57082,0.11674,-0.12758,-0.48162,0.03115,,,,,,,,,,,,,,,,,,,,,,,,,,0,0,0,0,0
4.8559,1783957540.6689,1,1,4.0000,2.9318,1.42237,-0.01793,-2.63451,1.08188,1.57082,0.11674,-0.12758,-0.48162,0.03115,,,,,,,,,,,,,,,,,,,,,,,,,,0,0,0,0,0
4.8607,1783957540.6737,1,1,4.0000,2.5964,1.42237,-0.01793,-2.63451,1.08188,1.57082,0.11674,-0.12758,-0.48162,0.03115,,,,,,,,,,,,,,,,,,,,,,,,,,0,0,0,0,0
4.8712,1783957540.6842,1,1,4.0000,2.8058,1.42237,-0.01793,-2.63451,1.08188,1.57082,0.11674,-0.12758,-0.48162,0.03115,,,,,,,,,,,,,,,,,,,,,,,,,,0,0,0,0,0
4.8801,1783957540.6931,1,1,4.0000,3.1080,1.42237,-0.01793,-2.63451,1.08188,1.57082,0.11674,-0.12758,-0.48162,0.03115,,,,,,,,,,,,,,,,,,,,,,,,,,0,0,0,0,0
4.8936,1783957540.7066,1,1,4.0000,3.7999,1.42237,-0.01793,-2.63451,1.08188,1.57082,0.11674,-0.12758,-0.48162,0.03115,,,,,,,,,,,,,,,,,,,,,,,,,,0,0,0,0,0
4.9007,1783957540.7137,1,1,4.0000,3.9842,1.42237,-0.01793,-2.63451,1.08188,1.57082,0.11674,-0.12758,-0.48162,0.03115,,,,,,,,,,,,,,,,,,,,,,,,,,0,0,0,0,0
4.9128,1783957540.7258,1,1,4.0000,3.7463,1.42237,-0.01793,-2.63451,1.08188,1.57082,0.11674,-0.12758,-0.48162,0.03115,,,,,,,,,,,,,,,,,,,,,,,,,,0,0,0,0,0
4.9202,1783957540.7332,1,1,4.0000,3.6763,1.42237,-0.01793,-2.63451,1.08188,1.57082,0.11674,-0.12758,-0.48162,0.03115,,,,,,,,,,,,,,,,,,,,,,,,,,0,0,0,0,0
4.9205,1783957540.7335,1,1,4.0000,3.3832,1.42237,-0.01793,-2.63451,1.08188,1.57082,0.11674,-0.12758,-0.48162,0.03115,,,,,,,,,,,,,,,,,,,,,,,,,,0,0,0,0,0
4.9292,1783957540.7422,1,1,4.0000,2.7833,1.42237,-0.01793,-2.63451,1.08188,1.57082,0.11674,-0.12758,-0.48162,0.03115,,,,,,,,,,,,,,,,,,,,,,,,,,0,0,0,0,0
4.9418,1783957540.7548,1,1,4.0000,2.5763,1.42237,-0.01793,-2.63451,1.08188,1.57082,0.11674,-0.12758,-0.48162,0.03115,,,,,,,,,,,,,,,,,,,,,,,,,,0,0,0,0,0
4.9605,1783957540.7735,1,1,4.0000,2.8511,1.42237,-0.01793,-2.63451,1.08188,1.57082,0.11674,-0.12758,-0.48162,0.03115,,,,,,,,,,,,,,,,,,,,,,,,,,0,0,0,0,0
4.9615,1783957540.7745,1,1,4.0000,3.3454,1.42237,-0.01793,-2.63451,1.08188,1.57082,0.11674,-0.12758,-0.48162,0.03115,,,,,,,,,,,,,,,,,,,,,,,,,,0,0,0,0,0
4.9689,1783957540.7819,1,1,4.0000,3.7793,1.42237,-0.01793,-2.63451,1.08188,1.57082,0.11674,-0.12758,-0.48162,0.03115,,,,,,,,,,,,,,,,,,,,,,,,,,0,0,0,0,0
4.9815,1783957540.7946,1,1,4.0000,3.8101,1.42237,-0.01793,-2.63451,1.08188,1.57082,0.11674,-0.12758,-0.48162,0.03115,,,,,,,,,,,,,,,,,,,,,,,,,,0,0,0,0,0
4.9819,1783957540.7949,1,1,4.0000,3.7870,1.42237,-0.01793,-2.63451,1.08188,1.57082,0.11674,-0.12758,-0.48162,0.03115,,,,,,,,,,,,,,,,,,,,,,,,,,0,0,0,0,0
4.9896,1783957540.8026,1,1,4.0000,3.6341,1.42237,-0.01793,-2.63451,1.08188,1.57082,0.11674,-0.12758,-0.48162,0.03115,,,,,,,,,,,,,,,,,,,,,,,,,,0,0,0,0,0
4.9900,1783957540.8030,1,1,4.0000,3.5528,1.42237,-0.01793,-2.63451,1.08188,1.57082,0.11674,-0.12758,-0.48162,0.03115,,,,,,,,,,,,,,,,,,,,,,,,,,0,0,0,0,0
5.0048,1783957540.8178,1,1,4.0000,3.0365,1.42237,-0.01793,-2.63451,1.08188,1.57082,0.11674,-0.12758,-0.48162,0.03115,,,,,,,,,,,,,,,,,,,,,,,,,,0,0,0,0,0
5.0097,1783957540.8227,1,1,4.0000,2.8243,1.42237,-0.01793,-2.63451,1.08188,1.57082,0.11674,-0.12758,-0.48162,0.03115,,,,,,,,,,,,,,,,,,,,,,,,,,0,0,0,0,0
5.0274,1783957540.8404,1,1,4.0000,2.8637,1.42237,-0.01793,-2.63451,1.08188,1.57082,0.11674,-0.12758,-0.48162,0.03115,,,,,,,,,,,,,,,,,,,,,,,,,,0,0,0,0,0
5.0305,1783957540.8435,1,1,4.0000,2.9706,1.42237,-0.01793,-2.63451,1.08188,1.57082,0.11674,-0.12758,-0.48162,0.03115,,,,,,,,,,,,,,,,,,,,,,,,,,0,0,0,0,0
5.0386,1783957540.8516,1,1,4.0000,3.0430,1.42237,-0.01793,-2.63451,1.08188,1.57082,0.11674,-0.12758,-0.48162,0.03115,,,,,,,,,,,,,,,,,,,,,,,,,,0,0,0,0,0
5.0392,1783957540.8522,1,1,4.0000,3.3994,1.42237,-0.01793,-2.63451,1.08188,1.57082,0.11674,-0.12758,-0.48162,0.03115,,,,,,,,,,,,,,,,,,,,,,,,,,0,0,0,0,0
5.0507,1783957540.8637,1,1,4.0000,3.6879,1.42237,-0.01793,-2.63451,1.08188,1.57082,0.11674,-0.12758,-0.48162,0.03115,,,,,,,,,,,,,,,,,,,,,,,,,,0,0,0,0,0
5.0793,1783957540.8923,1,1,4.0000,3.5040,1.42237,-0.01793,-2.63451,1.08188,1.57082,0.11674,-0.12758,-0.48162,0.03115,,,,,,,,,,,,,,,,,,,,,,,,,,0,0,0,0,0
5.0801,1783957540.8931,1,1,4.0000,3.4399,1.42237,-0.01793,-2.63451,1.08188,1.57082,0.11674,-0.12758,-0.48162,0.03115,,,,,,,,,,,,,,,,,,,,,,,,,,0,0,0,0,0
5.0804,1783957540.8934,1,1,4.0000,2.9821,1.42237,-0.01793,-2.63451,1.08188,1.57082,0.11674,-0.12758,-0.48162,0.03115,,,,,,,,,,,,,,,,,,,,,,,,,,0,0,0,0,0
5.0807,1783957540.8937,1,1,4.0000,2.7958,1.42237,-0.01793,-2.63451,1.08188,1.57082,0.11674,-0.12758,-0.48162,0.03115,,,,,,,,,,,,,,,,,,,,,,,,,,0,0,0,0,0
5.0889,1783957540.9019,1,1,4.0000,2.6104,1.42237,-0.01793,-2.63451,1.08188,1.57082,0.11674,-0.12758,-0.48162,0.03115,,,,,,,,,,,,,,,,,,,,,,,,,,0,0,0,0,0
5.0893,1783957540.9023,1,1,4.0000,2.6266,1.42237,-0.01793,-2.63451,1.08188,1.57082,0.11674,-0.12758,-0.48162,0.03115,,,,,,,,,,,,,,,,,,,,,,,,,,0,0,0,0,0
5.1055,1783957540.9185,1,1,4.0000,2.8087,1.42237,-0.01793,-2.63451,1.08188,1.57082,0.11674,-0.12758,-0.48162,0.03115,,,,,,,,,,,,,,,,,,,,,,,,,,0,0,0,0,0
5.1118,1783957540.9248,1,1,4.0000,3.0625,1.42237,-0.01793,-2.63451,1.08188,1.57082,0.11674,-0.12758,-0.48162,0.03115,,,,,,,,,,,,,,,,,,,,,,,,,,0,0,0,0,0
5.1122,1783957540.9252,1,1,4.0000,3.1237,1.42237,-0.01793,-2.63451,1.08188,1.57082,0.11674,-0.12758,-0.48162,0.03115,,,,,,,,,,,,,,,,,,,,,,,,,,0,0,0,0,0
5.1217,1783957540.9347,1,1,4.0000,3.4615,1.42237,-0.01793,-2.63451,1.08188,1.57082,0.11674,-0.12758,-0.48162,0.03115,,,,,,,,,,,,,,,,,,,,,,,,,,0,0,0,0,0
5.1291,1783957540.9421,1,1,4.0000,3.4841,1.42237,-0.01793,-2.63451,1.08188,1.57082,0.11674,-0.12758,-0.48162,0.03115,,,,,,,,,,,,,,,,,,,,,,,,,,0,0,0,0,0
5.1435,1783957540.9565,1,1,4.0000,3.3520,1.42237,-0.01793,-2.63451,1.08188,1.57082,0.11674,-0.12758,-0.48162,0.03115,,,,,,,,,,,,,,,,,,,,,,,,,,0,0,0,0,0
5.1702,1783957540.9832,1,1,4.0000,3.0533,1.42237,-0.01793,-2.63451,1.08188,1.57082,0.11674,-0.12758,-0.48162,0.03115,,,,,,,,,,,,,,,,,,,,,,,,,,0,0,0,0,0
5.1802,1783957540.9932,1,1,4.0000,2.7595,1.42237,-0.01792,-2.63452,1.08187,1.57082,0.11674,-0.12758,-0.48162,0.03115,,,,,,,,,,,,,,,,,,,,,,,,,,0,0,0,0,0
5.1804,1783957540.9934,1,1,4.0000,2.7259,1.42237,-0.01792,-2.63452,1.08187,1.57082,0.11674,-0.12758,-0.48162,0.03115,,,,,,,,,,,,,,,,,,,,,,,,,,0,0,0,0,0
5.1808,1783957540.9938,1,1,4.0000,2.8161,1.42237,-0.01792,-2.63452,1.08187,1.57082,0.11674,-0.12758,-0.48162,0.03115,,,,,,,,,,,,,,,,,,,,,,,,,,0,0,0,0,0
5.1870,1783957541.0000,1,1,4.0000,2.8956,1.42237,-0.01792,-2.63452,1.08186,1.57082,0.11674,-0.12758,-0.48161,0.03115,,,,,,,,,,,,,,,,,,,,,,,,,,0,0,0,0,0
5.2007,1783957541.0137,1,1,4.0000,3.2008,1.42237,-0.01788,-2.63455,1.08178,1.57082,0.11674,-0.12759,-0.48157,0.03114,,,,,,,,,,,,,,,,,,,,,,,,,,0,0,0,0,0
5.2259,1783957541.0389,1,1,4.0000,3.3866,1.42237,-0.01783,-2.63459,1.08167,1.57082,0.11674,-0.12759,-0.48152,0.03113,,,,,,,,,,,,,,,,,,,,,,,,,,0,0,0,0,0
5.2341,1783957541.0471,1,1,4.0000,3.3058,1.42237,-0.01782,-2.63459,1.08166,1.57082,0.11674,-0.12760,-0.48152,0.03113,,,,,,,,,,,,,,,,,,,,,,,,,,0,0,0,0,0
5.2434,1783957541.0564,1,1,4.0000,3.1462,1.42237,-0.01782,-2.63459,1.08166,1.57082,0.11674,-0.12760,-0.48152,0.03113,,,,,,,,,,,,,,,,,,,,,,,,,,0,0,0,0,0
5.3175,1783957541.1305,1,1,4.0000,2.7460,1.42237,-0.01782,-2.63459,1.08166,1.57082,0.11674,-0.12760,-0.48152,0.03113,,,,,,,,,,,,,,,,,,,,,,,,,,0,0,0,0,0
5.3414,1783957541.1544,1,1,4.0000,2.6861,1.42237,-0.01782,-2.63459,1.08166,1.57082,0.11674,-0.12760,-0.48152,0.03113,,,,,,,,,,,,,,,,,,,,,,,,,,0,0,0,0,0
5.3458,1783957541.1588,1,1,4.0000,2.7909,1.42237,-0.01782,-2.63459,1.08166,1.57082,0.11674,-0.12760,-0.48152,0.03113,,,,,,,,,,,,,,,,,,,,,,,,,,0,0,0,0,0
5.3518,1783957541.1648,1,1,4.0000,2.9630,1.42237,-0.01782,-2.63459,1.08166,1.57082,0.11674,-0.12760,-0.48152,0.03113,,,,,,,,,,,,,,,,,,,,,,,,,,0,0,0,0,0
5.4035,1783957541.2165,1,1,4.0000,3.3602,1.42237,-0.01782,-2.63459,1.08166,1.57082,0.11674,-0.12760,-0.48152,0.03113,,,,,,,,,,,,,,,,,,,,,,,,,,0,0,0,0,0
5.4596,1783957541.2726,1,1,4.0000,3.4036,1.42237,-0.01782,-2.63459,1.08166,1.57082,0.11674,-0.12760,-0.48152,0.03113,,,,,,,,,,,,,,,,,,,,,,,,,,0,0,0,0,0
5.4754,1783957541.2884,1,1,4.0000,3.2568,1.42237,-0.01782,-2.63459,1.08166,1.57082,0.11674,-0.12760,-0.48152,0.03113,,,,,,,,,,,,,,,,,,,,,,,,,,0,0,0,0,0
5.4861,1783957541.2991,1,1,4.0000,3.0644,1.42237,-0.01782,-2.63459,1.08166,1.57082,0.11674,-0.12760,-0.48152,0.03113,,,,,,,,,,,,,,,,,,,,,,,,,,0,0,0,0,0
5.5051,1783957541.3181,1,1,4.0000,2.7500,1.42237,-0.01782,-2.63459,1.08166,1.57082,0.11674,-0.12760,-0.48152,0.03113,,,,,,,,,,,,,,,,,,,,,,,,,,0,0,0,0,0
