Martins-Lucaas/twinforge/sensors/Data/celula de carga/20260713_164754__samples.csv
t_rel_s,t_unix,cycle,phase,setpoint_n,force_net_n,q1,q2,q3,q4,q5,q6,tcp_x,tcp_y,tcp_z,taxel_0,taxel_1,taxel_2,taxel_3,taxel_4,taxel_5,taxel_6,taxel_7,taxel_8,taxel_9,taxel_10,taxel_11,taxel_12,taxel_13,taxel_14,taxel_15,taxel_16,taxel_17,taxel_18,taxel_19,taxel_20,taxel_21,taxel_22,taxel_23,taxel_24,n_RA,n_SA,cn_mm,cn_ra,cn_sa
0.1465,1783972074.3222,1,0,2.0000,-0.0000,1.42244,0.00071,-2.63053,1.05907,1.57080,0.11675,-0.12764,-0.48152,0.03738,,,,,,,,,,,,,,,,,,,,,,,,,,0,0,0,0,0
0.1469,1783972074.3227,1,0,2.0000,-0.0000,1.42244,0.00071,-2.63053,1.05907,1.57080,0.11675,-0.12764,-0.48152,0.03738,,,,,,,,,,,,,,,,,,,,,,,,,,0,0,0,0,0
0.1474,1783972074.3232,1,0,2.0000,-0.0000,1.42244,0.00071,-2.63053,1.05907,1.57080,0.11675,-0.12764,-0.48152,0.03738,,,,,,,,,,,,,,,,,,,,,,,,,,0,0,0,0,0
0.1478,1783972074.3236,1,0,2.0000,-0.0000,1.42244,0.00071,-2.63053,1.05907,1.57080,0.11675,-0.12764,-0.48152,0.03738,,,,,,,,,,,,,,,,,,,,,,,,,,0,0,0,0,0
0.1483,1783972074.3241,1,0,2.0000,-0.0000,1.42244,0.00071,-2.63053,1.05907,1.57080,0.11675,-0.12764,-0.48152,0.03738,,,,,,,,,,,,,,,,,,,,,,,,,,0,0,0,0,0
0.1487,1783972074.3245,1,0,2.0000,-0.0000,1.42244,0.00071,-2.63053,1.05907,1.57080,0.11675,-0.12764,-0.48152,0.03738,,,,,,,,,,,,,,,,,,,,,,,,,,0,0,0,0,0
0.1495,1783972074.3253,1,0,2.0000,-0.0000,1.42244,0.00071,-2.63053,1.05907,1.57080,0.11675,-0.12764,-0.48152,0.03738,,,,,,,,,,,,,,,,,,,,,,,,,,0,0,0,0,0
0.1500,1783972074.3257,1,0,2.0000,-0.0000,1.42244,0.00071,-2.63053,1.05907,1.57080,0.11675,-0.12764,-0.48152,0.03738,,,,,,,,,,,,,,,,,,,,,,,,,,0,0,0,0,0
0.1502,1783972074.3259,1,0,2.0000,-0.0000,1.42244,0.00071,-2.63053,1.05907,1.57080,0.11675,-0.12764,-0.48152,0.03738,,,,,,,,,,,,,,,,,,,,,,,,,,0,0,0,0,0
0.1505,1783972074.3262,1,0,2.0000,-0.0000,1.42244,0.00071,-2.63053,1.05907,1.57080,0.11675,-0.12764,-0.48152,0.03738,,,,,,,,,,,,,,,,,,,,,,,,,,0,0,0,0,0
0.1508,1783972074.3266,1,0,2.0000,-0.0000,1.42244,0.00071,-2.63053,1.05907,1.57080,0.11675,-0.12764,-0.48152,0.03738,,,,,,,,,,,,,,,,,,,,,,,,,,0,0,0,0,0
0.1511,1783972074.3268,1,0,2.0000,-0.0000,1.42244,0.00071,-2.63053,1.05907,1.57080,0.11675,-0.12764,-0.48152,0.03738,,,,,,,,,,,,,,,,,,,,,,,,,,0,0,0,0,0
0.1515,1783972074.3272,1,0,2.0000,-0.0000,1.42244,0.00071,-2.63053,1.05907,1.57080,0.11675,-0.12764,-0.48152,0.03738,,,,,,,,,,,,,,,,,,,,,,,,,,0,0,0,0,0
0.1517,1783972074.3274,1,0,2.0000,-0.0000,1.42244,0.00071,-2.63053,1.05907,1.57080,0.11675,-0.12764,-0.48152,0.03738,,,,,,,,,,,,,,,,,,,,,,,,,,0,0,0,0,0
0.1519,1783972074.3277,1,0,2.0000,-0.0000,1.42244,0.00071,-2.63053,1.05907,1.57080,0.11675,-0.12764,-0.48152,0.03738,,,,,,,,,,,,,,,,,,,,,,,,,,0,0,0,0,0
0.3225,1783972074.4983,1,0,2.0000,-0.0000,1.42244,0.00071,-2.63053,1.05907,1.57080,0.11675,-0.12764,-0.48152,0.03738,,,,,,,,,,,,,,,,,,,,,,,,,,0,0,0,0,0
0.3230,1783972074.4987,1,0,2.0000,-0.0000,1.42244,0.00071,-2.63053,1.05907,1.57080,0.11675,-0.12764,-0.48152,0.03738,,,,,,,,,,,,,,,,,,,,,,,,,,0,0,0,0,0
0.3235,1783972074.4992,1,0,2.0000,-0.0000,1.42244,0.00071,-2.63053,1.05907,1.57080,0.11675,-0.12764,-0.48152,0.03738,,,,,,,,,,,,,,,,,,,,,,,,,,0,0,0,0,0
0.3238,1783972074.4996,1,0,2.0000,-0.0000,1.42244,0.00071,-2.63053,1.05907,1.57080,0.11675,-0.12764,-0.48152,0.03738,,,,,,,,,,,,,,,,,,,,,,,,,,0,0,0,0,0
0.3242,1783972074.4999,1,0,2.0000,-0.0000,1.42244,0.00071,-2.63053,1.05907,1.57080,0.11675,-0.12764,-0.48152,0.03738,,,,,,,,,,,,,,,,,,,,,,,,,,0,0,0,0,0
0.3247,1783972074.5004,1,0,2.0000,-0.0000,1.42244,0.00071,-2.63053,1.05907,1.57080,0.11675,-0.12764,-0.48152,0.03738,,,,,,,,,,,,,,,,,,,,,,,,,,0,0,0,0,0
0.3253,1783972074.5010,1,0,2.0000,-0.0000,1.42244,0.00071,-2.63053,1.05907,1.57080,0.11675,-0.12764,-0.48152,0.03738,,,,,,,,,,,,,,,,,,,,,,,,,,0,0,0,0,0
0.3257,1783972074.5015,1,0,2.0000,-0.0000,1.42244,0.00071,-2.63053,1.05907,1.57080,0.11675,-0.12764,-0.48152,0.03738,,,,,,,,,,,,,,,,,,,,,,,,,,0,0,0,0,0
0.3273,1783972074.5030,1,0,2.0000,-0.0000,1.42244,0.00071,-2.63053,1.05907,1.57080,0.11675,-0.12764,-0.48152,0.03738,,,,,,,,,,,,,,,,,,,,,,,,,,0,0,0,0,0
0.3931,1783972074.5688,1,0,2.0000,-0.0000,1.42244,0.00071,-2.63053,1.05907,1.57080,0.11675,-0.12764,-0.48152,0.03738,,,,,,,,,,,,,,,,,,,,,,,,,,0,0,0,0,0
0.5181,1783972074.6938,1,0,2.0000,-0.0000,1.42244,0.00071,-2.63053,1.05907,1.57080,0.11675,-0.12764,-0.48152,0.03738,,,,,,,,,,,,,,,,,,,,,,,,,,0,0,0,0,0
0.5184,1783972074.6941,1,0,2.0000,-0.0000,1.42244,0.00071,-2.63053,1.05907,1.57080,0.11675,-0.12764,-0.48152,0.03738,,,,,,,,,,,,,,,,,,,,,,,,,,0,0,0,0,0
0.5188,1783972074.6945,1,0,2.0000,-0.0000,1.42244,0.00071,-2.63053,1.05907,1.57080,0.11675,-0.12764,-0.48152,0.03738,,,,,,,,,,,,,,,,,,,,,,,,,,0,0,0,0,0
0.5190,1783972074.6948,1,0,2.0000,-0.0000,1.42244,0.00071,-2.63053,1.05907,1.57080,0.11675,-0.12764,-0.48152,0.03738,,,,,,,,,,,,,,,,,,,,,,,,,,0,0,0,0,0
0.5193,1783972074.6951,1,0,2.0000,-0.0000,1.42244,0.00071,-2.63053,1.05907,1.57080,0.11675,-0.12764,-0.48152,0.03738,,,,,,,,,,,,,,,,,,,,,,,,,,0,0,0,0,0
0.5196,1783972074.6954,1,0,2.0000,-0.0000,1.42244,0.00071,-2.63053,1.05907,1.57080,0.11675,-0.12764,-0.48152,0.03738,,,,,,,,,,,,,,,,,,,,,,,,,,0,0,0,0,0
0.5199,1783972074.6957,1,0,2.0000,-0.0000,1.42244,0.00071,-2.63053,1.05907,1.57080,0.11675,-0.12764,-0.48152,0.03738,,,,,,,,,,,,,,,,,,,,,,,,,,0,0,0,0,0
0.5202,1783972074.6959,1,0,2.0000,-0.0000,1.42244,0.00071,-2.63053,1.05907,1.57080,0.11675,-0.12764,-0.48152,0.03738,,,,,,,,,,,,,,,,,,,,,,,,,,0,0,0,0,0
0.5205,1783972074.6962,1,0,2.0000,-0.0000,1.42244,0.00071,-2.63053,1.05907,1.57080,0.11675,-0.12764,-0.48152,0.03738,,,,,,,,,,,,,,,,,,,,,,,,,,0,0,0,0,0
0.5212,1783972074.6969,1,0,2.0000,-0.0000,1.42244,0.00071,-2.63053,1.05907,1.57080,0.11675,-0.12764,-0.48152,0.03738,,,,,,,,,,,,,,,,,,,,,,,,,,0,0,0,0,0
0.5214,1783972074.6971,1,0,2.0000,-0.0000,1.42244,0.00071,-2.63053,1.05907,1.57080,0.11675,-0.12764,-0.48152,0.03738,,,,,,,,,,,,,,,,,,,,,,,,,,0,0,0,0,0
0.5471,1783972074.7229,1,0,2.0000,-0.0000,1.42244,0.00071,-2.63053,1.05907,1.57080,0.11675,-0.12764,-0.48152,0.03738,,,,,,,,,,,,,,,,,,,,,,,,,,0,0,0,0,0
0.5574,1783972074.7332,1,0,2.0000,-0.0000,1.42244,0.00071,-2.63053,1.05907,1.57080,0.11675,-0.12764,-0.48152,0.03738,,,,,,,,,,,,,,,,,,,,,,,,,,0,0,0,0,0
0.5578,1783972074.7336,1,0,2.0000,-0.0000,1.42244,0.00071,-2.63053,1.05907,1.57080,0.11675,-0.12764,-0.48152,0.03738,,,,,,,,,,,,,,,,,,,,,,,,,,0,0,0,0,0
0.5896,1783972074.7653,1,0,2.0000,-0.0000,1.42244,0.00071,-2.63053,1.05907,1.57080,0.11675,-0.12764,-0.48152,0.03738,,,,,,,,,,,,,,,,,,,,,,,,,,0,0,0,0,0
0.5901,1783972074.7658,1,0,2.0000,-0.0000,1.42244,0.00071,-2.63053,1.05907,1.57080,0.11675,-0.12764,-0.48152,0.03738,,,,,,,,,,,,,,,,,,,,,,,,,,0,0,0,0,0
0.5905,1783972074.7663,1,0,2.0000,-0.0000,1.42244,0.00071,-2.63053,1.05907,1.57080,0.11675,-0.12764,-0.48152,0.03738,,,,,,,,,,,,,,,,,,,,,,,,,,0,0,0,0,0
0.6729,1783972074.8486,1,0,2.0000,-0.0000,1.42244,0.00071,-2.63053,1.05907,1.57080,0.11675,-0.12764,-0.48152,0.03738,,,,,,,,,,,,,,,,,,,,,,,,,,0,0,0,0,0
0.6733,1783972074.8490,1,0,2.0000,-0.0000,1.42244,0.00071,-2.63053,1.05907,1.57080,0.11675,-0.12764,-0.48152,0.03738,,,,,,,,,,,,,,,,,,,,,,,,,,0,0,0,0,0
0.6737,1783972074.8494,1,0,2.0000,-0.0000,1.42244,0.00071,-2.63053,1.05907,1.57080,0.11675,-0.12764,-0.48152,0.03738,,,,,,,,,,,,,,,,,,,,,,,,,,0,0,0,0,0
0.6939,1783972074.8696,1,0,2.0000,-0.0000,1.42244,0.00071,-2.63053,1.05907,1.57080,0.11675,-0.12764,-0.48152,0.03738,,,,,,,,,,,,,,,,,,,,,,,,,,0,0,0,0,0
0.7287,1783972074.9045,1,1,2.0000,-0.0000,1.42244,0.00071,-2.63053,1.05907,1.57080,0.11675,-0.12764,-0.48152,0.03738,,,,,,,,,,,,,,,,,,,,,,,,,,0,0,0,0,0
0.7296,1783972074.9054,1,1,2.0000,-0.0000,1.42244,0.00071,-2.63053,1.05907,1.57080,0.11675,-0.12764,-0.48152,0.03738,,,,,,,,,,,,,,,,,,,,,,,,,,0,0,0,0,0
0.7298,1783972074.9055,1,1,2.0000,-0.0000,1.42244,0.00071,-2.63053,1.05907,1.57080,0.11675,-0.12764,-0.48152,0.03738,,,,,,,,,,,,,,,,,,,,,,,,,,0,0,0,0,0
0.7301,1783972074.9058,1,1,2.0000,-0.0000,1.42244,0.00071,-2.63053,1.05907,1.57080,0.11675,-0.12764,-0.48152,0.03738,,,,,,,,,,,,,,,,,,,,,,,,,,0,0,0,0,0
0.7758,1783972074.9515,1,1,2.0000,-0.0000,1.42244,0.00071,-2.63053,1.05907,1.57080,0.11675,-0.12764,-0.48152,0.03738,,,,,,,,,,,,,,,,,,,,,,,,,,0,0,0,0,0
0.7762,1783972074.9519,1,1,2.0000,-0.0000,1.42244,0.00071,-2.63053,1.05907,1.57080,0.11675,-0.12764,-0.48152,0.03738,,,,,,,,,,,,,,,,,,,,,,,,,,0,0,0,0,0
0.7767,1783972074.9525,1,1,2.0000,-0.0000,1.42244,0.00071,-2.63053,1.05907,1.57080,0.11675,-0.12764,-0.48152,0.03738,,,,,,,,,,,,,,,,,,,,,,,,,,0,0,0,0,0
0.8177,1783972074.9934,1,1,2.0000,-0.0000,1.42244,0.00071,-2.63053,1.05907,1.57080,0.11675,-0.12764,-0.48152,0.03738,,,,,,,,,,,,,,,,,,,,,,,,,,0,0,0,0,0
0.8179,1783972074.9936,1,1,2.0000,-0.0000,1.42244,0.00071,-2.63053,1.05907,1.57080,0.11675,-0.12764,-0.48152,0.03738,,,,,,,,,,,,,,,,,,,,,,,,,,0,0,0,0,0
0.8181,1783972074.9939,1,1,2.0000,-0.0000,1.42244,0.00071,-2.63053,1.05907,1.57080,0.11675,-0.12764,-0.48152,0.03738,,,,,,,,,,,,,,,,,,,,,,,,,,0,0,0,0,0
0.9018,1783972075.0776,1,1,2.0000,-0.0000,1.42244,0.00071,-2.63053,1.05907,1.57080,0.11675,-0.12764,-0.48152,0.03738,,,,,,,,,,,,,,,,,,,,,,,,,,0,0,0,0,0
0.9022,1783972075.0779,1,1,2.0000,-0.0000,1.42244,0.00071,-2.63053,1.05907,1.57080,0.11675,-0.12764,-0.48152,0.03738,,,,,,,,,,,,,,,,,,,,,,,,,,0,0,0,0,0
0.9027,1783972075.0784,1,1,2.0000,-0.0000,1.42244,0.00071,-2.63053,1.05907,1.57080,0.11675,-0.12764,-0.48152,0.03738,,,,,,,,,,,,,,,,,,,,,,,,,,0,0,0,0,0
0.9032,1783972075.0789,1,1,2.0000,-0.0000,1.42244,0.00071,-2.63053,1.05907,1.57080,0.11675,-0.12764,-0.48152,0.03738,,,,,,,,,,,,,,,,,,,,,,,,,,0,0,0,0,0
0.9037,1783972075.0794,1,1,2.0000,-0.0000,1.42244,0.00071,-2.63053,1.05907,1.57080,0.11675,-0.12764,-0.48152,0.03738,,,,,,,,,,,,,,,,,,,,,,,,,,0,0,0,0,0
0.9327,1783972075.1084,1,1,2.0000,-0.0000,1.42244,0.00071,-2.63053,1.05907,1.57080,0.11675,-0.12764,-0.48152,0.03738,,,,,,,,,,,,,,,,,,,,,,,,,,0,0,0,0,0
0.9550,1783972075.1307,1,1,2.0000,-0.0000,1.42244,0.00071,-2.63053,1.05907,1.57080,0.11675,-0.12764,-0.48152,0.03738,,,,,,,,,,,,,,,,,,,,,,,,,,0,0,0,0,0
0.9555,1783972075.1313,1,1,2.0000,-0.0000,1.42244,0.00071,-2.63053,1.05907,1.57080,0.11675,-0.12764,-0.48152,0.03738,,,,,,,,,,,,,,,,,,,,,,,,,,0,0,0,0,0
0.9656,1783972075.1413,1,1,2.0000,-0.0000,1.42244,0.00071,-2.63053,1.05907,1.57080,0.11675,-0.12764,-0.48152,0.03738,,,,,,,,,,,,,,,,,,,,,,,,,,0,0,0,0,0
0.9660,1783972075.1417,1,1,2.0000,-0.0000,1.42244,0.00071,-2.63053,1.05907,1.57080,0.11675,-0.12764,-0.48152,0.03738,,,,,,,,,,,,,,,,,,,,,,,,,,0,0,0,0,0
1.0482,1783972075.2239,1,1,2.0000,-0.0000,1.42244,0.00068,-2.63057,1.05907,1.57080,0.11675,-0.12764,-0.48149,0.03735,,,,,,,,,,,,,,,,,,,,,,,,,,0,0,0,0,0
1.0487,1783972075.2244,1,1,2.0000,-0.0000,1.42244,0.00068,-2.63057,1.05907,1.57080,0.11675,-0.12764,-0.48149,0.03735,,,,,,,,,,,,,,,,,,,,,,,,,,0,0,0,0,0
1.0493,1783972075.2251,1,1,2.0000,-0.0000,1.42244,0.00067,-2.63058,1.05908,1.57080,0.11675,-0.12764,-0.48148,0.03734,,,,,,,,,,,,,,,,,,,,,,,,,,0,0,0,0,0
1.0497,1783972075.2254,1,1,2.0000,-0.0000,1.42244,0.00067,-2.63058,1.05908,1.57080,0.11675,-0.12764,-0.48148,0.03734,,,,,,,,,,,,,,,,,,,,,,,,,,0,0,0,0,0
1.0576,1783972075.2333,1,1,2.0000,-0.0000,1.42244,0.00067,-2.63058,1.05908,1.57080,0.11675,-0.12764,-0.48148,0.03734,,,,,,,,,,,,,,,,,,,,,,,,,,0,0,0,0,0
1.0579,1783972075.2337,1,1,2.0000,-0.0000,1.42244,0.00067,-2.63058,1.05908,1.57080,0.11675,-0.12764,-0.48148,0.03734,,,,,,,,,,,,,,,,,,,,,,,,,,0,0,0,0,0
1.0920,1783972075.2678,1,1,2.0000,-0.0000,1.42244,0.00056,-2.63065,1.05914,1.57080,0.11675,-0.12765,-0.48143,0.03727,,,,,,,,,,,,,,,,,,,,,,,,,,0,0,0,0,0
1.1026,1783972075.2784,1,1,2.0000,-0.0000,1.42244,0.00051,-2.63067,1.05918,1.57080,0.11675,-0.12765,-0.48142,0.03725,,,,,,,,,,,,,,,,,,,,,,,,,,0,0,0,0,0
1.1030,1783972075.2787,1,1,2.0000,-0.0000,1.42244,0.00051,-2.63067,1.05918,1.57080,0.11675,-0.12765,-0.48142,0.03725,,,,,,,,,,,,,,,,,,,,,,,,,,0,0,0,0,0
1.1349,1783972075.3106,1,1,2.0000,-0.0000,1.42244,0.00034,-2.63071,1.05936,1.57080,0.11675,-0.12765,-0.48141,0.03718,,,,,,,,,,,,,,,,,,,,,,,,,,0,0,0,0,0
1.1518,1783972075.3276,1,1,2.0000,-0.0000,1.42244,0.00025,-2.63073,1.05946,1.57080,0.11675,-0.12765,-0.48141,0.03715,,,,,,,,,,,,,,,,,,,,,,,,,,0,0,0,0,0
1.1523,1783972075.3281,1,1,2.0000,-0.0000,1.42244,0.00025,-2.63073,1.05946,1.57080,0.11675,-0.12765,-0.48141,0.03715,,,,,,,,,,,,,,,,,,,,,,,,,,0,0,0,0,0
1.1674,1783972075.3432,1,1,2.0000,-0.0000,1.42244,0.00012,-2.63075,1.05962,1.57080,0.11675,-0.12765,-0.48141,0.03711,,,,,,,,,,,,,,,,,,,,,,,,,,0,0,0,0,0
1.1678,1783972075.3436,1,1,2.0000,-0.0000,1.42244,0.00012,-2.63075,1.05962,1.57080,0.11675,-0.12765,-0.48141,0.03711,,,,,,,,,,,,,,,,,,,,,,,,,,0,0,0,0,0
1.1810,1783972075.3567,1,1,2.0000,-0.0000,1.42244,0.00002,-2.63077,1.05974,1.57080,0.11675,-0.12765,-0.48142,0.03707,,,,,,,,,,,,,,,,,,,,,,,,,,0,0,0,0,0
1.1958,1783972075.3715,1,1,2.0000,-0.0000,1.42244,-0.00006,-2.63078,1.05983,1.57080,0.11675,-0.12765,-0.48142,0.03705,,,,,,,,,,,,,,,,,,,,,,,,,,0,0,0,0,0
1.1962,1783972075.3719,1,1,2.0000,-0.0000,1.42244,-0.00006,-2.63078,1.05983,1.57080,0.11675,-0.12765,-0.48142,0.03705,,,,,,,,,,,,,,,,,,,,,,,,,,0,0,0,0,0
1.2130,1783972075.3887,1,1,2.0000,-0.0000,1.42244,-0.00021,-2.63080,1.06004,1.57080,0.11675,-0.12765,-0.48144,0.03701,,,,,,,,,,,,,,,,,,,,,,,,,,0,0,0,0,0
1.2466,1783972075.4224,1,1,2.0000,-0.0000,1.42244,-0.00046,-2.63080,1.06038,1.57080,0.11675,-0.12764,-0.48149,0.03696,,,,,,,,,,,,,,,,,,,,,,,,,,0,0,0,0,0
1.2470,1783972075.4228,1,1,2.0000,-0.0000,1.42244,-0.00046,-2.63080,1.06038,1.57080,0.11675,-0.12764,-0.48149,0.03696,,,,,,,,,,,,,,,,,,,,,,,,,,0,0,0,0,0
1.2590,1783972075.4348,1,1,2.0000,-0.0000,1.42244,-0.00046,-2.63080,1.06038,1.57080,0.11675,-0.12764,-0.48149,0.03696,,,,,,,,,,,,,,,,,,,,,,,,,,0,0,0,0,0
1.2595,1783972075.4352,1,1,2.0000,-0.0000,1.42244,-0.00046,-2.63080,1.06038,1.57080,0.11675,-0.12764,-0.48149,0.03696,,,,,,,,,,,,,,,,,,,,,,,,,,0,0,0,0,0
1.2602,1783972075.4359,1,1,2.0000,-0.0000,1.42244,-0.00046,-2.63080,1.06038,1.57080,0.11675,-0.12764,-0.48149,0.03696,,,,,,,,,,,,,,,,,,,,,,,,,,0,0,0,0,0
1.5761,1783972075.7518,1,1,2.0000,-0.0000,1.42244,-0.00100,-2.63100,1.06113,1.57080,0.11675,-0.12764,-0.48145,0.03675,,,,,,,,,,,,,,,,,,,,,,,,,,0,0,0,0,0
1.5764,1783972075.7521,1,1,2.0000,-0.0000,1.42244,-0.00100,-2.63100,1.06113,1.57080,0.11675,-0.12764,-0.48145,0.03675,,,,,,,,,,,,,,,,,,,,,,,,,,0,0,0,0,0
1.5767,1783972075.7524,1,1,2.0000,-0.0000,1.42244,-0.00100,-2.63100,1.06113,1.57080,0.11675,-0.12764,-0.48145,0.03675,,,,,,,,,,,,,,,,,,,,,,,,,,0,0,0,0,0
1.5770,1783972075.7527,1,1,2.0000,-0.0000,1.42244,-0.00100,-2.63100,1.06113,1.57080,0.11675,-0.12764,-0.48145,0.03675,,,,,,,,,,,,,,,,,,,,,,,,,,0,0,0,0,0
1.5776,1783972075.7534,1,1,2.0000,-0.0000,1.42244,-0.00102,-2.63101,1.06115,1.57080,0.11675,-0.12764,-0.48145,0.03675,,,,,,,,,,,,,,,,,,,,,,,,,,0,0,0,0,0
1.5779,1783972075.7536,1,1,2.0000,-0.0000,1.42244,-0.00102,-2.63101,1.06115,1.57080,0.11675,-0.12764,-0.48145,0.03675,,,,,,,,,,,,,,,,,,,,,,,,,,0,0,0,0,0
1.5781,1783972075.7538,1,1,2.0000,-0.0000,1.42244,-0.00102,-2.63101,1.06115,1.57080,0.11675,-0.12764,-0.48145,0.03675,,,,,,,,,,,,,,,,,,,,,,,,,,0,0,0,0,0
1.5785,1783972075.7542,1,1,2.0000,-0.0000,1.42244,-0.00102,-2.63101,1.06115,1.57080,0.11675,-0.12764,-0.48145,0.03675,,,,,,,,,,,,,,,,,,,,,,,,,,0,0,0,0,0
1.5788,1783972075.7545,1,1,2.0000,-0.0000,1.42244,-0.00102,-2.63101,1.06115,1.57080,0.11675,-0.12764,-0.48145,0.03675,,,,,,,,,,,,,,,,,,,,,,,,,,0,0,0,0,0
1.5790,1783972075.7548,1,1,2.0000,-0.0000,1.42244,-0.00102,-2.63101,1.06115,1.57080,0.11675,-0.12764,-0.48145,0.03675,,,,,,,,,,,,,,,,,,,,,,,,,,0,0,0,0,0
1.5794,1783972075.7551,1,1,2.0000,-0.0000,1.42244,-0.00102,-2.63101,1.06115,1.57080,0.11675,-0.12764,-0.48145,0.03675,,,,,,,,,,,,,,,,,,,,,,,,,,0,0,0,0,0
1.5797,1783972075.7555,1,1,2.0000,-0.0000,1.42244,-0.00102,-2.63101,1.06115,1.57080,0.11675,-0.12764,-0.48145,0.03675,,,,,,,,,,,,,,,,,,,,,,,,,,0,0,0,0,0
1.5800,1783972075.7557,1,1,2.0000,-0.0000,1.42244,-0.00102,-2.63101,1.06115,1.57080,0.11675,-0.12764,-0.48145,0.03675,,,,,,,,,,,,,,,,,,,,,,,,,,0,0,0,0,0
1.6583,1783972075.8341,1,1,2.0000,-0.0000,1.42244,-0.00164,-2.63107,1.06194,1.57080,0.11675,-0.12763,-0.48152,0.03658,,,,,,,,,,,,,,,,,,,,,,,,,,0,0,0,0,0
1.6587,1783972075.8345,1,1,2.0000,-0.0000,1.42244,-0.00164,-2.63107,1.06194,1.57080,0.11675,-0.12763,-0.48152,0.03658,,,,,,,,,,,,,,,,,,,,,,,,,,0,0,0,0,0
1.6592,1783972075.8350,1,1,2.0000,-0.0000,1.42244,-0.00164,-2.63107,1.06194,1.57080,0.11675,-0.12763,-0.48152,0.03658,,,,,,,,,,,,,,,,,,,,,,,,,,0,0,0,0,0
1.6596,1783972075.8354,1,1,2.0000,-0.0000,1.42244,-0.00164,-2.63107,1.06194,1.57080,0.11675,-0.12763,-0.48152,0.03658,,,,,,,,,,,,,,,,,,,,,,,,,,0,0,0,0,0
1.6600,1783972075.8357,1,1,2.0000,-0.0000,1.42244,-0.00164,-2.63107,1.06194,1.57080,0.11675,-0.12763,-0.48152,0.03658,,,,,,,,,,,,,,,,,,,,,,,,,,0,0,0,0,0
1.6605,1783972075.8363,1,1,2.0000,-0.0000,1.42244,-0.00164,-2.63107,1.06194,1.57080,0.11675,-0.12763,-0.48152,0.03658,,,,,,,,,,,,,,,,,,,,,,,,,,0,0,0,0,0
1.6610,1783972075.8368,1,1,2.0000,-0.0000,1.42244,-0.00164,-2.63107,1.06194,1.57080,0.11675,-0.12763,-0.48152,0.03658,,,,,,,,,,,,,,,,,,,,,,,,,,0,0,0,0,0
1.6615,1783972075.8373,1,1,2.0000,-0.0000,1.42244,-0.00164,-2.63107,1.06194,1.57080,0.11675,-0.12763,-0.48152,0.03658,,,,,,,,,,,,,,,,,,,,,,,,,,0,0,0,0,0
1.6619,1783972075.8376,1,1,2.0000,-0.0000,1.42244,-0.00164,-2.63107,1.06194,1.57080,0.11675,-0.12763,-0.48152,0.03658,,,,,,,,,,,,,,,,,,,,,,,,,,0,0,0,0,0
1.6622,1783972075.8379,1,1,2.0000,-0.0000,1.42244,-0.00164,-2.63107,1.06194,1.57080,0.11675,-0.12763,-0.48152,0.03658,,,,,,,,,,,,,,,,,,,,,,,,,,0,0,0,0,0
1.6626,1783972075.8383,1,1,2.0000,-0.0000,1.42244,-0.00164,-2.63107,1.06194,1.57080,0.11675,-0.12763,-0.48152,0.03658,,,,,,,,,,,,,,,,,,,,,,,,,,0,0,0,0,0
1.6628,1783972075.8386,1,1,2.0000,-0.0000,1.42244,-0.00164,-2.63107,1.06194,1.57080,0.11675,-0.12763,-0.48152,0.03658,,,,,,,,,,,,,,,,,,,,,,,,,,0,0,0,0,0
1.6646,1783972075.8403,1,1,2.0000,-0.0000,1.42244,-0.00164,-2.63107,1.06194,1.57080,0.11675,-0.12763,-0.48152,0.03658,,,,,,,,,,,,,,,,,,,,,,,,,,0,0,0,0,0
1.6666,1783972075.8424,1,1,2.0000,-0.0000,1.42244,-0.00164,-2.63107,1.06194,1.57080,0.11675,-0.12763,-0.48152,0.03658,,,,,,,,,,,,,,,,,,,,,,,,,,0,0,0,0,0
1.7277,1783972075.9035,1,1,2.0000,-0.0000,1.42244,-0.00164,-2.63107,1.06194,1.57080,0.11675,-0.12763,-0.48152,0.03658,,,,,,,,,,,,,,,,,,,,,,,,,,0,0,0,0,0
1.7282,1783972075.9039,1,1,2.0000,-0.0000,1.42244,-0.00164,-2.63107,1.06194,1.57080,0.11675,-0.12763,-0.48152,0.03658,,,,,,,,,,,,,,,,,,,,,,,,,,0,0,0,0,0
1.7464,1783972075.9221,1,1,2.0000,-0.0000,1.42244,-0.00164,-2.63107,1.06194,1.57080,0.11675,-0.12763,-0.48152,0.03658,,,,,,,,,,,,,,,,,,,,,,,,,,0,0,0,0,0
1.7468,1783972075.9226,1,1,2.0000,-0.0000,1.42244,-0.00164,-2.63107,1.06194,1.57080,0.11675,-0.12763,-0.48152,0.03658,,,,,,,,,,,,,,,,,,,,,,,,,,0,0,0,0,0
1.7598,1783972075.9355,1,1,2.0000,-0.0000,1.42244,-0.00164,-2.63107,1.06194,1.57080,0.11675,-0.12763,-0.48152,0.03658,,,,,,,,,,,,,,,,,,,,,,,,,,0,0,0,0,0
1.8984,1783972076.0742,1,1,2.0000,-0.0000,1.42243,-0.00172,-2.63114,1.06204,1.57080,0.11675,-0.12764,-0.48148,0.03653,,,,,,,,,,,,,,,,,,,,,,,,,,0,0,0,0,0
1.8989,1783972076.0747,1,1,2.0000,-0.0000,1.42243,-0.00172,-2.63114,1.06204,1.57080,0.11675,-0.12764,-0.48148,0.03653,,,,,,,,,,,,,,,,,,,,,,,,,,0,0,0,0,0
1.8995,1783972076.0752,1,1,2.0000,-0.0000,1.42243,-0.00172,-2.63114,1.06204,1.57080,0.11675,-0.12764,-0.48148,0.03653,,,,,,,,,,,,,,,,,,,,,,,,,,0,0,0,0,0
1.9116,1783972076.0873,1,1,2.0000,-0.0000,1.42243,-0.00174,-2.63115,1.06207,1.57080,0.11675,-0.12764,-0.48147,0.03652,,,,,,,,,,,,,,,,,,,,,,,,,,0,0,0,0,0
1.9118,1783972076.0875,1,1,2.0000,-0.0000,1.42243,-0.00174,-2.63115,1.06207,1.57080,0.11675,-0.12764,-0.48147,0.03652,,,,,,,,,,,,,,,,,,,,,,,,,,0,0,0,0,0
1.9123,1783972076.0880,1,1,2.0000,-0.0000,1.42243,-0.00174,-2.63115,1.06207,1.57080,0.11675,-0.12764,-0.48147,0.03652,,,,,,,,,,,,,,,,,,,,,,,,,,0,0,0,0,0
1.9125,1783972076.0882,1,1,2.0000,-0.0000,1.42243,-0.00174,-2.63115,1.06207,1.57080,0.11675,-0.12764,-0.48147,0.03652,,,,,,,,,,,,,,,,,,,,,,,,,,0,0,0,0,0
1.9127,1783972076.0885,1,1,2.0000,-0.0000,1.42243,-0.00174,-2.63115,1.06207,1.57080,0.11675,-0.12764,-0.48147,0.03652,,,,,,,,,,,,,,,,,,,,,,,,,,0,0,0,0,0
1.9130,1783972076.0887,1,1,2.0000,-0.0000,1.42243,-0.00174,-2.63115,1.06207,1.57080,0.11675,-0.12764,-0.48147,0.03652,,,,,,,,,,,,,,,,,,,,,,,,,,0,0,0,0,0
1.9135,1783972076.0893,1,1,2.0000,-0.0000,1.42243,-0.00176,-2.63116,1.06209,1.57080,0.11675,-0.12764,-0.48147,0.03651,,,,,,,,,,,,,,,,,,,,,,,,,,0,0,0,0,0
1.9137,1783972076.0895,1,1,2.0000,-0.0000,1.42243,-0.00176,-2.63116,1.06209,1.57080,0.11675,-0.12764,-0.48147,0.03651,,,,,,,,,,,,,,,,,,,,,,,,,,0,0,0,0,0
1.9139,1783972076.0897,1,1,2.0000,-0.0000,1.42243,-0.00176,-2.63116,1.06209,1.57080,0.11675,-0.12764,-0.48147,0.03651,,,,,,,,,,,,,,,,,,,,,,,,,,0,0,0,0,0
1.9142,1783972076.0899,1,1,2.0000,-0.0000,1.42243,-0.00176,-2.63116,1.06209,1.57080,0.11675,-0.12764,-0.48147,0.03651,,,,,,,,,,,,,,,,,,,,,,,,,,0,0,0,0,0
2.0628,1783972076.2385,1,1,2.0000,-0.0000,1.42243,-0.00270,-2.63131,1.06324,1.57080,0.11675,-0.12763,-0.48151,0.03621,,,,,,,,,,,,,,,,,,,,,,,,,,0,0,0,0,0
2.0631,1783972076.2389,1,1,2.0000,-0.0000,1.42243,-0.00270,-2.63131,1.06324,1.57080,0.11675,-0.12763,-0.48151,0.03621,,,,,,,,,,,,,,,,,,,,,,,,,,0,0,0,0,0
2.0634,1783972076.2391,1,1,2.0000,-0.0000,1.42243,-0.00270,-2.63131,1.06324,1.57080,0.11675,-0.12763,-0.48151,0.03621,,,,,,,,,,,,,,,,,,,,,,,,,,0,0,0,0,0
2.0636,1783972076.2393,1,1,2.0000,-0.0000,1.42243,-0.00270,-2.63131,1.06324,1.57080,0.11675,-0.12763,-0.48151,0.03621,,,,,,,,,,,,,,,,,,,,,,,,,,0,0,0,0,0
2.0640,1783972076.2397,1,1,2.0000,-0.0000,1.42243,-0.00270,-2.63131,1.06324,1.57080,0.11675,-0.12763,-0.48151,0.03621,,,,,,,,,,,,,,,,,,,,,,,,,,0,0,0,0,0
2.0642,1783972076.2399,1,1,2.0000,-0.0000,1.42243,-0.00270,-2.63131,1.06324,1.57080,0.11675,-0.12763,-0.48151,0.03621,,,,,,,,,,,,,,,,,,,,,,,,,,0,0,0,0,0
2.0644,1783972076.2402,1,1,2.0000,-0.0000,1.42243,-0.00270,-2.63131,1.06324,1.57080,0.11675,-0.12763,-0.48151,0.03621,,,,,,,,,,,,,,,,,,,,,,,,,,0,0,0,0,0
2.0648,1783972076.2405,1,1,2.0000,-0.0000,1.42243,-0.00270,-2.63131,1.06324,1.57080,0.11675,-0.12763,-0.48151,0.03621,,,,,,,,,,,,,,,,,,,,,,,,,,0,0,0,0,0
2.0900,1783972076.2658,1,1,2.0000,-0.0000,1.42243,-0.00283,-2.63129,1.06340,1.57080,0.11675,-0.12763,-0.48155,0.03620,,,,,,,,,,,,,,,,,,,,,,,,,,0,0,0,0,0
2.0904,1783972076.2662,1,1,2.0000,-0.0000,1.42243,-0.00283,-2.63129,1.06340,1.57080,0.11675,-0.12763,-0.48155,0.03620,,,,,,,,,,,,,,,,,,,,,,,,,,0,0,0,0,0
2.0909,1783972076.2666,1,1,2.0000,-0.0000,1.42243,-0.00283,-2.63129,1.06340,1.57080,0.11675,-0.12763,-0.48155,0.03620,,,,,,,,,,,,,,,,,,,,,,,,,,0,0,0,0,0
2.2979,1783972076.4737,1,1,2.0000,-0.0000,1.42243,-0.00284,-2.63131,1.06342,1.57080,0.11675,-0.12763,-0.48154,0.03618,,,,,,,,,,,,,,,,,,,,,,,,,,0,0,0,0,0
2.2983,1783972076.4741,1,1,2.0000,-0.0000,1.42243,-0.00284,-2.63131,1.06342,1.57080,0.11675,-0.12763,-0.48154,0.03618,,,,,,,,,,,,,,,,,,,,,,,,,,0,0,0,0,0
2.2986,1783972076.4743,1,1,2.0000,-0.0000,1.42243,-0.00284,-2.63131,1.06342,1.57080,0.11675,-0.12763,-0.48154,0.03618,,,,,,,,,,,,,,,,,,,,,,,,,,0,0,0,0,0
2.2989,1783972076.4746,1,1,2.0000,-0.0000,1.42243,-0.00284,-2.63131,1.06342,1.57080,0.11675,-0.12763,-0.48154,0.03618,,,,,,,,,,,,,,,,,,,,,,,,,,0,0,0,0,0
2.2992,1783972076.4749,1,1,2.0000,-0.0000,1.42243,-0.00284,-2.63131,1.06342,1.57080,0.11675,-0.12763,-0.48154,0.03618,,,,,,,,,,,,,,,,,,,,,,,,,,0,0,0,0,0
2.2996,1783972076.4753,1,1,2.0000,-0.0000,1.42243,-0.00284,-2.63131,1.06342,1.57080,0.11675,-0.12763,-0.48154,0.03618,,,,,,,,,,,,,,,,,,,,,,,,,,0,0,0,0,0
2.2999,1783972076.4756,1,1,2.0000,-0.0000,1.42243,-0.00284,-2.63131,1.06342,1.57080,0.11675,-0.12763,-0.48154,0.03618,,,,,,,,,,,,,,,,,,,,,,,,,,0,0,0,0,0
2.3002,1783972076.4759,1,1,2.0000,-0.0000,1.42243,-0.00284,-2.63131,1.06342,1.57080,0.11675,-0.12763,-0.48154,0.03618,,,,,,,,,,,,,,,,,,,,,,,,,,0,0,0,0,0
2.3006,1783972076.4763,1,1,2.0000,-0.0000,1.42243,-0.00284,-2.63131,1.06342,1.57080,0.11675,-0.12763,-0.48154,0.03618,,,,,,,,,,,,,,,,,,,,,,,,,,0,0,0,0,0
2.3009,1783972076.4766,1,1,2.0000,-0.0000,1.42243,-0.00284,-2.63131,1.06342,1.57080,0.11675,-0.12763,-0.48154,0.03618,,,,,,,,,,,,,,,,,,,,,,,,,,0,0,0,0,0
2.3013,1783972076.4770,1,1,2.0000,-0.0000,1.42243,-0.00284,-2.63131,1.06342,1.57080,0.11675,-0.12763,-0.48154,0.03618,,,,,,,,,,,,,,,,,,,,,,,,,,0,0,0,0,0
2.3019,1783972076.4776,1,1,2.0000,-0.0000,1.42243,-0.00285,-2.63133,1.06343,1.57080,0.11675,-0.12763,-0.48153,0.03617,,,,,,,,,,,,,,,,,,,,,,,,,,0,0,0,0,0
2.3821,1783972076.5578,1,1,2.0000,-0.0000,1.42243,-0.00315,-2.63149,1.06379,1.57080,0.11675,-0.12764,-0.48146,0.03603,,,,,,,,,,,,,,,,,,,,,,,,,,0,0,0,0,0
2.3824,1783972076.5581,1,1,2.0000,-0.0000,1.42243,-0.00315,-2.63149,1.06379,1.57080,0.11675,-0.12764,-0.48146,0.03603,,,,,,,,,,,,,,,,,,,,,,,,,,0,0,0,0,0
2.3828,1783972076.5585,1,1,2.0000,-0.0000,1.42243,-0.00315,-2.63149,1.06379,1.57080,0.11675,-0.12764,-0.48146,0.03603,,,,,,,,,,,,,,,,,,,,,,,,,,0,0,0,0,0
2.3833,1783972076.5590,1,1,2.0000,-0.0000,1.42243,-0.00315,-2.63149,1.06379,1.57080,0.11675,-0.12764,-0.48146,0.03603,,,,,,,,,,,,,,,,,,,,,,,,,,0,0,0,0,0
2.3838,1783972076.5595,1,1,2.0000,-0.0000,1.42243,-0.00315,-2.63149,1.06379,1.57080,0.11675,-0.12764,-0.48146,0.03603,,,,,,,,,,,,,,,,,,,,,,,,,,0,0,0,0,0
2.3842,1783972076.5600,1,1,2.0000,-0.0000,1.42243,-0.00315,-2.63149,1.06379,1.57080,0.11675,-0.12764,-0.48146,0.03603,,,,,,,,,,,,,,,,,,,,,,,,,,0,0,0,0,0
2.3847,1783972076.5604,1,1,2.0000,-0.0000,1.42243,-0.00315,-2.63149,1.06379,1.57080,0.11675,-0.12764,-0.48146,0.03603,,,,,,,,,,,,,,,,,,,,,,,,,,0,0,0,0,0
2.3851,1783972076.5609,1,1,2.0000,-0.0000,1.42243,-0.00315,-2.63149,1.06379,1.57080,0.11675,-0.12764,-0.48146,0.03603,,,,,,,,,,,,,,,,,,,,,,,,,,0,0,0,0,0
2.3858,1783972076.5616,1,1,2.0000,-0.0000,1.42243,-0.00316,-2.63149,1.06380,1.57080,0.11675,-0.12764,-0.48146,0.03602,,,,,,,,,,,,,,,,,,,,,,,,,,0,0,0,0,0
2.3863,1783972076.5620,1,1,2.0000,-0.0000,1.42243,-0.00316,-2.63149,1.06380,1.57080,0.11675,-0.12764,-0.48146,0.03602,,,,,,,,,,,,,,,,,,,,,,,,,,0,0,0,0,0
2.4180,1783972076.5937,1,1,2.0000,-0.0000,1.42243,-0.00332,-2.63152,1.06399,1.57080,0.11675,-0.12764,-0.48146,0.03597,,,,,,,,,,,,,,,,,,,,,,,,,,0,0,0,0,0
2.4853,1783972076.6610,1,1,2.0000,-0.0000,1.42243,-0.00388,-2.63159,1.06467,1.57080,0.11675,-0.12763,-0.48150,0.03581,,,,,,,,,,,,,,,,,,,,,,,,,,0,0,0,0,0
2.4859,1783972076.6616,1,1,2.0000,-0.0000,1.42243,-0.00392,-2.63159,1.06472,1.57080,0.11675,-0.12763,-0.48150,0.03580,,,,,,,,,,,,,,,,,,,,,,,,,,0,0,0,0,0
2.4862,1783972076.6620,1,1,2.0000,-0.0000,1.42243,-0.00392,-2.63159,1.06472,1.57080,0.11675,-0.12763,-0.48150,0.03580,,,,,,,,,,,,,,,,,,,,,,,,,,0,0,0,0,0
2.4865,1783972076.6622,1,1,2.0000,-0.0000,1.42243,-0.00392,-2.63159,1.06472,1.57080,0.11675,-0.12763,-0.48150,0.03580,,,,,,,,,,,,,,,,,,,,,,,,,,0,0,0,0,0
2.4868,1783972076.6626,1,1,2.0000,-0.0000,1.42243,-0.00392,-2.63159,1.06472,1.57080,0.11675,-0.12763,-0.48150,0.03580,,,,,,,,,,,,,,,,,,,,,,,,,,0,0,0,0,0
2.4906,1783972076.6664,1,1,2.0000,-0.0000,1.42243,-0.00395,-2.63159,1.06476,1.57080,0.11675,-0.12763,-0.48151,0.03579,,,,,,,,,,,,,,,,,,,,,,,,,,0,0,0,0,0
2.5158,1783972076.6916,1,1,2.0000,-0.0000,1.42243,-0.00400,-2.63159,1.06482,1.57080,0.11675,-0.12763,-0.48152,0.03578,,,,,,,,,,,,,,,,,,,,,,,,,,0,0,0,0,0
2.5227,1783972076.6985,1,1,2.0000,-0.0000,1.42243,-0.00400,-2.63159,1.06482,1.57080,0.11675,-0.12763,-0.48152,0.03578,,,,,,,,,,,,,,,,,,,,,,,,,,0,0,0,0,0
2.5231,1783972076.6988,1,1,2.0000,-0.0000,1.42243,-0.00400,-2.63159,1.06482,1.57080,0.11675,-0.12763,-0.48152,0.03578,,,,,,,,,,,,,,,,,,,,,,,,,,0,0,0,0,0
2.5347,1783972076.7104,1,1,2.0000,-0.0000,1.42243,-0.00400,-2.63159,1.06482,1.57080,0.11675,-0.12763,-0.48152,0.03578,,,,,,,,,,,,,,,,,,,,,,,,,,0,0,0,0,0
2.8922,1783972077.0679,1,1,2.0000,-0.0000,1.42242,-0.00484,-2.63184,1.06584,1.57080,0.11675,-0.12763,-0.48147,0.03546,,,,,,,,,,,,,,,,,,,,,,,,,,0,0,0,0,0
2.8925,1783972077.0682,1,1,2.0000,-0.0000,1.42242,-0.00484,-2.63184,1.06584,1.57080,0.11675,-0.12763,-0.48147,0.03546,,,,,,,,,,,,,,,,,,,,,,,,,,0,0,0,0,0
2.8927,1783972077.0684,1,1,2.0000,-0.0000,1.42242,-0.00484,-2.63184,1.06584,1.57080,0.11675,-0.12763,-0.48147,0.03546,,,,,,,,,,,,,,,,,,,,,,,,,,0,0,0,0,0
2.8956,1783972077.0713,1,1,2.0000,-0.0000,1.42242,-0.00485,-2.63184,1.06586,1.57080,0.11675,-0.12763,-0.48147,0.03546,,,,,,,,,,,,,,,,,,,,,,,,,,0,0,0,0,0
2.8959,1783972077.0716,1,1,2.0000,-0.0000,1.42242,-0.00485,-2.63184,1.06586,1.57080,0.11675,-0.12763,-0.48147,0.03546,,,,,,,,,,,,,,,,,,,,,,,,,,0,0,0,0,0
2.8963,1783972077.0720,1,1,2.0000,-0.0000,1.42242,-0.00485,-2.63184,1.06586,1.57080,0.11675,-0.12763,-0.48147,0.03546,,,,,,,,,,,,,,,,,,,,,,,,,,0,0,0,0,0
2.9982,1783972077.1739,1,1,2.0000,-0.0000,1.42242,-0.00519,-2.63177,1.06628,1.57080,0.11675,-0.12762,-0.48158,0.03541,,,,,,,,,,,,,,,,,,,,,,,,,,0,0,0,0,0
2.9986,1783972077.1743,1,1,2.0000,-0.0000,1.42242,-0.00519,-2.63177,1.06628,1.57080,0.11675,-0.12762,-0.48158,0.03541,,,,,,,,,,,,,,,,,,,,,,,,,,0,0,0,0,0
2.9989,1783972077.1747,1,1,2.0000,-0.0000,1.42242,-0.00519,-2.63177,1.06628,1.57080,0.11675,-0.12762,-0.48158,0.03541,,,,,,,,,,,,,,,,,,,,,,,,,,0,0,0,0,0
2.9992,1783972077.1750,1,1,2.0000,-0.0000,1.42242,-0.00519,-2.63177,1.06628,1.57080,0.11675,-0.12762,-0.48158,0.03541,,,,,,,,,,,,,,,,,,,,,,,,,,0,0,0,0,0
2.9996,1783972077.1753,1,1,2.0000,-0.0000,1.42242,-0.00519,-2.63177,1.06628,1.57080,0.11675,-0.12762,-0.48158,0.03541,,,,,,,,,,,,,,,,,,,,,,,,,,0,0,0,0,0
3.0560,1783972077.2318,1,1,2.0000,-0.0000,1.42242,-0.00519,-2.63177,1.06628,1.57080,0.11675,-0.12762,-0.48158,0.03541,,,,,,,,,,,,,,,,,,,,,,,,,,0,0,0,0,0
3.0565,1783972077.2322,1,1,2.0000,-0.0000,1.42242,-0.00519,-2.63177,1.06628,1.57080,0.11675,-0.12762,-0.48158,0.03541,,,,,,,,,,,,,,,,,,,,,,,,,,0,0,0,0,0
3.0569,1783972077.2327,1,1,2.0000,-0.0000,1.42242,-0.00519,-2.63177,1.06628,1.57080,0.11675,-0.12762,-0.48158,0.03541,,,,,,,,,,,,,,,,,,,,,,,,,,0,0,0,0,0
3.0576,1783972077.2333,1,1,2.0000,-0.0000,1.42242,-0.00519,-2.63177,1.06628,1.57080,0.11675,-0.12762,-0.48158,0.03541,,,,,,,,,,,,,,,,,,,,,,,,,,0,0,0,0,0
3.0586,1783972077.2343,1,1,2.0000,-0.0000,1.42242,-0.00519,-2.63177,1.06628,1.57080,0.11675,-0.12762,-0.48158,0.03541,,,,,,,,,,,,,,,,,,,,,,,,,,0,0,0,0,0
3.0588,1783972077.2345,1,1,2.0000,-0.0000,1.42242,-0.00519,-2.63177,1.06628,1.57080,0.11675,-0.12762,-0.48158,0.03541,,,,,,,,,,,,,,,,,,,,,,,,,,0,0,0,0,0
3.0592,1783972077.2349,1,1,2.0000,-0.0000,1.42242,-0.00519,-2.63177,1.06628,1.57080,0.11675,-0.12762,-0.48158,0.03541,,,,,,,,,,,,,,,,,,,,,,,,,,0,0,0,0,0
3.0728,1783972077.2485,1,1,2.0000,-0.0000,1.42242,-0.00519,-2.63177,1.06628,1.57080,0.11675,-0.12762,-0.48158,0.03541,,,,,,,,,,,,,,,,,,,,,,,,,,0,0,0,0,0
3.0732,1783972077.2489,1,1,2.0000,-0.0000,1.42242,-0.00519,-2.63177,1.06628,1.57080,0.11675,-0.12762,-0.48158,0.03541,,,,,,,,,,,,,,,,,,,,,,,,,,0,0,0,0,0
3.0908,1783972077.2665,1,1,2.0000,-0.0000,1.42242,-0.00519,-2.63177,1.06628,1.57080,0.11675,-0.12762,-0.48158,0.03541,,,,,,,,,,,,,,,,,,,,,,,,,,0,0,0,0,0
3.0980,1783972077.2738,1,1,2.0000,-0.0000,1.42242,-0.00519,-2.63177,1.06628,1.57080,0.11675,-0.12762,-0.48158,0.03541,,,,,,,,,,,,,,,,,,,,,,,,,,0,0,0,0,0
3.1780,1783972077.3537,1,1,2.0000,-0.0000,1.42242,-0.00529,-2.63192,1.06641,1.57080,0.11675,-0.12763,-0.48149,0.03532,,,,,,,,,,,,,,,,,,,,,,,,,,0,0,0,0,0
3.1782,1783972077.3540,1,1,2.0000,-0.0000,1.42242,-0.00529,-2.63192,1.06641,1.57080,0.11675,-0.12763,-0.48149,0.03532,,,,,,,,,,,,,,,,,,,,,,,,,,0,0,0,0,0
3.1785,1783972077.3543,1,1,2.0000,-0.0000,1.42242,-0.00529,-2.63192,1.06641,1.57080,0.11675,-0.12763,-0.48149,0.03532,,,,,,,,,,,,,,,,,,,,,,,,,,0,0,0,0,0
3.1788,1783972077.3546,1,1,2.0000,-0.0000,1.42242,-0.00529,-2.63192,1.06641,1.57080,0.11675,-0.12763,-0.48149,0.03532,,,,,,,,,,,,,,,,,,,,,,,,,,0,0,0,0,0
3.1792,1783972077.3549,1,1,2.0000,-0.0000,1.42242,-0.00529,-2.63192,1.06641,1.57080,0.11675,-0.12763,-0.48149,0.03532,,,,,,,,,,,,,,,,,,,,,,,,,,0,0,0,0,0
3.1795,1783972077.3552,1,1,2.0000,-0.0000,1.42242,-0.00529,-2.63192,1.06641,1.57080,0.11675,-0.12763,-0.48149,0.03532,,,,,,,,,,,,,,,,,,,,,,,,,,0,0,0,0,0
3.1850,1783972077.3607,1,1,2.0000,-0.0000,1.42242,-0.00532,-2.63194,1.06644,1.57080,0.11675,-0.12763,-0.48148,0.03531,,,,,,,,,,,,,,,,,,,,,,,,,,0,0,0,0,0
3.1854,1783972077.3611,1,1,2.0000,-0.0000,1.42242,-0.00532,-2.63194,1.06644,1.57080,0.11675,-0.12763,-0.48148,0.03531,,,,,,,,,,,,,,,,,,,,,,,,,,0,0,0,0,0
3.1860,1783972077.3618,1,1,2.0000,-0.0000,1.42242,-0.00534,-2.63196,1.06647,1.57080,0.11675,-0.12763,-0.48147,0.03529,,,,,,,,,,,,,,,,,,,,,,,,,,0,0,0,0,0
3.2303,1783972077.4060,1,1,2.0000,-0.0000,1.42242,-0.00549,-2.63201,1.06665,1.57080,0.11675,-0.12763,-0.48145,0.03523,,,,,,,,,,,,,,,,,,,,,,,,,,0,0,0,0,0
3.2306,1783972077.4063,1,1,2.0000,-0.0000,1.42242,-0.00549,-2.63201,1.06665,1.57080,0.11675,-0.12763,-0.48145,0.03523,,,,,,,,,,,,,,,,,,,,,,,,,,0,0,0,0,0
3.2310,1783972077.4067,1,1,2.0000,-0.0000,1.42242,-0.00549,-2.63201,1.06665,1.57080,0.11675,-0.12763,-0.48145,0.03523,,,,,,,,,,,,,,,,,,,,,,,,,,0,0,0,0,0
3.2314,1783972077.4071,1,1,2.0000,-0.0000,1.42242,-0.00549,-2.63201,1.06665,1.57080,0.11675,-0.12763,-0.48145,0.03523,,,,,,,,,,,,,,,,,,,,,,,,,,0,0,0,0,0
3.3518,1783972077.5276,1,1,2.0000,-0.0000,1.42242,-0.00635,-2.63214,1.06770,1.57080,0.11675,-0.12763,-0.48150,0.03497,,,,,,,,,,,,,,,,,,,,,,,,,,0,0,0,0,0
3.3522,1783972077.5279,1,1,2.0000,-0.0000,1.42242,-0.00635,-2.63214,1.06770,1.57080,0.11675,-0.12763,-0.48150,0.03497,,,,,,,,,,,,,,,,,,,,,,,,,,0,0,0,0,0
3.3525,1783972077.5283,1,1,2.0000,-0.0000,1.42242,-0.00635,-2.63214,1.06770,1.57080,0.11675,-0.12763,-0.48150,0.03497,,,,,,,,,,,,,,,,,,,,,,,,,,0,0,0,0,0
3.3529,1783972077.5286,1,1,2.0000,-0.0000,1.42242,-0.00635,-2.63214,1.06770,1.57080,0.11675,-0.12763,-0.48150,0.03497,,,,,,,,,,,,,,,,,,,,,,,,,,0,0,0,0,0
3.3532,1783972077.5289,1,1,2.0000,-0.0000,1.42242,-0.00635,-2.63214,1.06770,1.57080,0.11675,-0.12763,-0.48150,0.03497,,,,,,,,,,,,,,,,,,,,,,,,,,0,0,0,0,0
3.3538,1783972077.5296,1,1,2.0000,-0.0000,1.42242,-0.00635,-2.63214,1.06770,1.57080,0.11675,-0.12763,-0.48150,0.03497,,,,,,,,,,,,,,,,,,,,,,,,,,0,0,0,0,0
3.3598,1783972077.5356,1,1,2.0000,-0.0000,1.42242,-0.00635,-2.63214,1.06770,1.57080,0.11675,-0.12763,-0.48150,0.03497,,,,,,,,,,,,,,,,,,,,,,,,,,0,0,0,0,0
3.3601,1783972077.5359,1,1,2.0000,-0.0000,1.42242,-0.00635,-2.63214,1.06770,1.57080,0.11675,-0.12763,-0.48150,0.03497,,,,,,,,,,,,,,,,,,,,,,,,,,0,0,0,0,0
3.3979,1783972077.5736,1,1,2.0000,-0.0000,1.42242,-0.00635,-2.63214,1.06770,1.57080,0.11675,-0.12763,-0.48150,0.03497,,,,,,,,,,,,,,,,,,,,,,,,,,0,0,0,0,0
3.3984,1783972077.5741,1,1,2.0000,-0.0000,1.42242,-0.00635,-2.63214,1.06770,1.57080,0.11675,-0.12763,-0.48150,0.03497,,,,,,,,,,,,,,,,,,,,,,,,,,0,0,0,0,0
3.7673,1783972077.9431,1,1,2.0000,-0.0000,1.42241,-0.00754,-2.63239,1.06916,1.57080,0.11675,-0.12762,-0.48151,0.03457,,,,,,,,,,,,,,,,,,,,,,,,,,0,0,0,0,0
3.7679,1783972077.9436,1,1,2.0000,-0.0000,1.42241,-0.00754,-2.63239,1.06916,1.57080,0.11675,-0.12762,-0.48151,0.03457,,,,,,,,,,,,,,,,,,,,,,,,,,0,0,0,0,0
3.7684,1783972077.9442,1,1,2.0000,-0.0000,1.42241,-0.00754,-2.63239,1.06916,1.57080,0.11675,-0.12762,-0.48151,0.03457,,,,,,,,,,,,,,,,,,,,,,,,,,0,0,0,0,0
3.7688,1783972077.9446,1,1,2.0000,-0.0000,1.42241,-0.00754,-2.63239,1.06916,1.57080,0.11675,-0.12762,-0.48151,0.03457,,,,,,,,,,,,,,,,,,,,,,,,,,0,0,0,0,0
3.7693,1783972077.9450,1,1,2.0000,-0.0000,1.42241,-0.00754,-2.63239,1.06916,1.57080,0.11675,-0.12762,-0.48151,0.03457,,,,,,,,,,,,,,,,,,,,,,,,,,0,0,0,0,0
3.7699,1783972077.9456,1,1,2.0000,-0.0000,1.42241,-0.00754,-2.63239,1.06916,1.57080,0.11675,-0.12762,-0.48151,0.03457,,,,,,,,,,,,,,,,,,,,,,,,,,0,0,0,0,0
3.7703,1783972077.9460,1,1,2.0000,-0.0000,1.42241,-0.00754,-2.63239,1.06916,1.57080,0.11675,-0.12762,-0.48151,0.03457,,,,,,,,,,,,,,,,,,,,,,,,,,0,0,0,0,0
3.7707,1783972077.9465,1,1,2.0000,-0.0000,1.42241,-0.00754,-2.63239,1.06916,1.57080,0.11675,-0.12762,-0.48151,0.03457,,,,,,,,,,,,,,,,,,,,,,,,,,0,0,0,0,0
3.8101,1783972077.9859,1,1,2.0000,-0.0000,1.42241,-0.00754,-2.63239,1.06916,1.57080,0.11675,-0.12762,-0.48151,0.03457,,,,,,,,,,,,,,,,,,,,,,,,,,0,0,0,0,0
3.8106,1783972077.9863,1,1,2.0000,-0.0000,1.42241,-0.00754,-2.63239,1.06916,1.57080,0.11675,-0.12762,-0.48151,0.03457,,,,,,,,,,,,,,,,,,,,,,,,,,0,0,0,0,0
3.8109,1783972077.9867,1,1,2.0000,-0.0000,1.42241,-0.00754,-2.63239,1.06916,1.57080,0.11675,-0.12762,-0.48151,0.03457,,,,,,,,,,,,,,,,,,,,,,,,,,0,0,0,0,0
3.8112,1783972077.9869,1,1,2.0000,-0.0000,1.42241,-0.00754,-2.63239,1.06916,1.57080,0.11675,-0.12762,-0.48151,0.03457,,,,,,,,,,,,,,,,,,,,,,,,,,0,0,0,0,0
3.8115,1783972077.9873,1,1,2.0000,-0.0000,1.42241,-0.00754,-2.63239,1.06916,1.57080,0.11675,-0.12762,-0.48151,0.03457,,,,,,,,,,,,,,,,,,,,,,,,,,0,0,0,0,0
3.8118,1783972077.9875,1,1,2.0000,-0.0000,1.42241,-0.00754,-2.63239,1.06916,1.57080,0.11675,-0.12762,-0.48151,0.03457,,,,,,,,,,,,,,,,,,,,,,,,,,0,0,0,0,0
3.8121,1783972077.9879,1,1,2.0000,-0.0000,1.42241,-0.00754,-2.63239,1.06916,1.57080,0.11675,-0.12762,-0.48151,0.03457,,,,,,,,,,,,,,,,,,,,,,,,,,0,0,0,0,0
3.8125,1783972077.9882,1,1,2.0000,-0.0000,1.42241,-0.00754,-2.63239,1.06916,1.57080,0.11675,-0.12762,-0.48151,0.03457,,,,,,,,,,,,,,,,,,,,,,,,,,0,0,0,0,0
3.8129,1783972077.9886,1,1,2.0000,-0.0000,1.42241,-0.00754,-2.63239,1.06916,1.57080,0.11675,-0.12762,-0.48151,0.03457,,,,,,,,,,,,,,,,,,,,,,,,,,0,0,0,0,0
3.8132,1783972077.9890,1,1,2.0000,-0.0000,1.42241,-0.00754,-2.63239,1.06916,1.57080,0.11675,-0.12762,-0.48151,0.03457,,,,,,,,,,,,,,,,,,,,,,,,,,0,0,0,0,0
3.8139,1783972077.9896,1,1,2.0000,-0.0000,1.42241,-0.00754,-2.63239,1.06916,1.57080,0.11675,-0.12762,-0.48151,0.03457,,,,,,,,,,,,,,,,,,,,,,,,,,0,0,0,0,0
3.8142,1783972077.9900,1,1,2.0000,-0.0000,1.42241,-0.00754,-2.63239,1.06916,1.57080,0.11675,-0.12762,-0.48151,0.03457,,,,,,,,,,,,,,,,,,,,,,,,,,0,0,0,0,0
3.8145,1783972077.9902,1,1,2.0000,-0.0000,1.42241,-0.00754,-2.63239,1.06916,1.57080,0.11675,-0.12762,-0.48151,0.03457,,,,,,,,,,,,,,,,,,,,,,,,,,0,0,0,0,0
3.9683,1783972078.1440,1,1,2.0000,-0.0000,1.42241,-0.00754,-2.63239,1.06916,1.57080,0.11675,-0.12762,-0.48151,0.03457,,,,,,,,,,,,,,,,,,,,,,,,,,0,0,0,0,0
3.9686,1783972078.1443,1,1,2.0000,-0.0000,1.42241,-0.00754,-2.63239,1.06916,1.57080,0.11675,-0.12762,-0.48151,0.03457,,,,,,,,,,,,,,,,,,,,,,,,,,0,0,0,0,0
3.9688,1783972078.1446,1,1,2.0000,-0.0000,1.42241,-0.00754,-2.63239,1.06916,1.57080,0.11675,-0.12762,-0.48151,0.03457,,,,,,,,,,,,,,,,,,,,,,,,,,0,0,0,0,0
3.9692,1783972078.1450,1,1,2.0000,-0.0000,1.42241,-0.00754,-2.63239,1.06916,1.57080,0.11675,-0.12762,-0.48151,0.03457,,,,,,,,,,,,,,,,,,,,,,,,,,0,0,0,0,0
3.9695,1783972078.1452,1,1,2.0000,-0.0000,1.42241,-0.00754,-2.63239,1.06916,1.57080,0.11675,-0.12762,-0.48151,0.03457,,,,,,,,,,,,,,,,,,,,,,,,,,0,0,0,0,0
3.9700,1783972078.1458,1,1,2.0000,-0.0000,1.42241,-0.00754,-2.63239,1.06917,1.57080,0.11675,-0.12762,-0.48151,0.03457,,,,,,,,,,,,,,,,,,,,,,,,,,0,0,0,0,0
3.9703,1783972078.1460,1,1,2.0000,-0.0000,1.42241,-0.00754,-2.63239,1.06917,1.57080,0.11675,-0.12762,-0.48151,0.03457,,,,,,,,,,,,,,,,,,,,,,,,,,0,0,0,0,0
3.9705,1783972078.1462,1,1,2.0000,-0.0000,1.42241,-0.00754,-2.63239,1.06917,1.57080,0.11675,-0.12762,-0.48151,0.03457,,,,,,,,,,,,,,,,,,,,,,,,,,0,0,0,0,0
3.9708,1783972078.1466,1,1,2.0000,-0.0000,1.42241,-0.00754,-2.63239,1.06917,1.57080,0.11675,-0.12762,-0.48151,0.03457,,,,,,,,,,,,,,,,,,,,,,,,,,0,0,0,0,0
3.9711,1783972078.1469,1,1,2.0000,-0.0000,1.42241,-0.00754,-2.63239,1.06917,1.57080,0.11675,-0.12762,-0.48151,0.03457,,,,,,,,,,,,,,,,,,,,,,,,,,0,0,0,0,0
3.9715,1783972078.1472,1,1,2.0000,-0.0000,1.42241,-0.00754,-2.63239,1.06917,1.57080,0.11675,-0.12762,-0.48151,0.03457,,,,,,,,,,,,,,,,,,,,,,,,,,0,0,0,0,0
3.9717,1783972078.1474,1,1,2.0000,-0.0000,1.42241,-0.00754,-2.63239,1.06917,1.57080,0.11675,-0.12762,-0.48151,0.03457,,,,,,,,,,,,,,,,,,,,,,,,,,0,0,0,0,0
3.9720,1783972078.1477,1,1,2.0000,-0.0000,1.42241,-0.00754,-2.63239,1.06917,1.57080,0.11675,-0.12762,-0.48151,0.03457,,,,,,,,,,,,,,,,,,,,,,,,,,0,0,0,0,0
3.9722,1783972078.1479,1,1,2.0000,-0.0000,1.42241,-0.00754,-2.63239,1.06917,1.57080,0.11675,-0.12762,-0.48151,0.03457,,,,,,,,,,,,,,,,,,,,,,,,,,0,0,0,0,0
4.1637,1783972078.3394,1,1,2.0000,-0.0000,1.42241,-0.00858,-2.63265,1.07041,1.57080,0.11675,-0.12762,-0.48148,0.03421,,,,,,,,,,,,,,,,,,,,,,,,,,0,0,0,0,0
4.1641,1783972078.3398,1,1,2.0000,-0.0000,1.42241,-0.00858,-2.63265,1.07041,1.57080,0.11675,-0.12762,-0.48148,0.03421,,,,,,,,,,,,,,,,,,,,,,,,,,0,0,0,0,0
4.1645,1783972078.3402,1,1,2.0000,-0.0000,1.42241,-0.00858,-2.63265,1.07041,1.57080,0.11675,-0.12762,-0.48148,0.03421,,,,,,,,,,,,,,,,,,,,,,,,,,0,0,0,0,0
4.1649,1783972078.3406,1,1,2.0000,-0.0000,1.42241,-0.00858,-2.63265,1.07041,1.57080,0.11675,-0.12762,-0.48148,0.03421,,,,,,,,,,,,,,,,,,,,,,,,,,0,0,0,0,0
4.1653,1783972078.3410,1,1,2.0000,-0.0000,1.42241,-0.00858,-2.63265,1.07041,1.57080,0.11675,-0.12762,-0.48148,0.03421,,,,,,,,,,,,,,,,,,,,,,,,,,0,0,0,0,0
4.1660,1783972078.3417,1,1,2.0000,-0.0000,1.42241,-0.00862,-2.63265,1.07046,1.57080,0.11675,-0.12762,-0.48148,0.03419,,,,,,,,,,,,,,,,,,,,,,,,,,0,0,0,0,0
4.1662,1783972078.3420,1,1,2.0000,-0.0000,1.42241,-0.00862,-2.63265,1.07046,1.57080,0.11675,-0.12762,-0.48148,0.03419,,,,,,,,,,,,,,,,,,,,,,,,,,0,0,0,0,0
4.1666,1783972078.3423,1,1,2.0000,-0.0000,1.42241,-0.00862,-2.63265,1.07046,1.57080,0.11675,-0.12762,-0.48148,0.03419,,,,,,,,,,,,,,,,,,,,,,,,,,0,0,0,0,0
4.1670,1783972078.3428,1,1,2.0000,-0.0000,1.42241,-0.00862,-2.63265,1.07046,1.57080,0.11675,-0.12762,-0.48148,0.03419,,,,,,,,,,,,,,,,,,,,,,,,,,0,0,0,0,0
4.1674,1783972078.3432,1,1,2.0000,-0.0000,1.42241,-0.00862,-2.63265,1.07046,1.57080,0.11675,-0.12762,-0.48148,0.03419,,,,,,,,,,,,,,,,,,,,,,,,,,0,0,0,0,0
4.1680,1783972078.3437,1,1,2.0000,-0.0000,1.42241,-0.00862,-2.63265,1.07046,1.57080,0.11675,-0.12762,-0.48148,0.03419,,,,,,,,,,,,,,,,,,,,,,,,,,0,0,0,0,0
4.1683,1783972078.3441,1,1,2.0000,-0.0000,1.42241,-0.00862,-2.63265,1.07046,1.57080,0.11675,-0.12762,-0.48148,0.03419,,,,,,,,,,,,,,,,,,,,,,,,,,0,0,0,0,0
4.1686,1783972078.3443,1,1,2.0000,-0.0000,1.42241,-0.00862,-2.63265,1.07046,1.57080,0.11675,-0.12762,-0.48148,0.03419,,,,,,,,,,,,,,,,,,,,,,,,,,0,0,0,0,0
4.2894,1783972078.4652,1,1,2.0000,-0.0000,1.42241,-0.00868,-2.63266,1.07053,1.57081,0.11675,-0.12762,-0.48149,0.03418,,,,,,,,,,,,,,,,,,,,,,,,,,0,0,0,0,0
4.2900,1783972078.4657,1,1,2.0000,-0.0000,1.42241,-0.00868,-2.63266,1.07053,1.57081,0.11675,-0.12762,-0.48149,0.03418,,,,,,,,,,,,,,,,,,,,,,,,,,0,0,0,0,0
4.2903,1783972078.4660,1,1,2.0000,-0.0000,1.42241,-0.00868,-2.63266,1.07053,1.57081,0.11675,-0.12762,-0.48149,0.03418,,,,,,,,,,,,,,,,,,,,,,,,,,0,0,0,0,0
4.2905,1783972078.4663,1,1,2.0000,-0.0000,1.42241,-0.00868,-2.63266,1.07053,1.57081,0.11675,-0.12762,-0.48149,0.03418,,,,,,,,,,,,,,,,,,,,,,,,,,0,0,0,0,0
4.2908,1783972078.4665,1,1,2.0000,-0.0000,1.42241,-0.00868,-2.63266,1.07053,1.57081,0.11675,-0.12762,-0.48149,0.03418,,,,,,,,,,,,,,,,,,,,,,,,,,0,0,0,0,0
4.2910,1783972078.4668,1,1,2.0000,-0.0000,1.42241,-0.00868,-2.63266,1.07053,1.57081,0.11675,-0.12762,-0.48149,0.03418,,,,,,,,,,,,,,,,,,,,,,,,,,0,0,0,0,0
4.2914,1783972078.4671,1,1,2.0000,-0.0000,1.42241,-0.00868,-2.63266,1.07053,1.57081,0.11675,-0.12762,-0.48149,0.03418,,,,,,,,,,,,,,,,,,,,,,,,,,0,0,0,0,0
4.2916,1783972078.4674,1,1,2.0000,-0.0000,1.42241,-0.00868,-2.63266,1.07053,1.57081,0.11675,-0.12762,-0.48149,0.03418,,,,,,,,,,,,,,,,,,,,,,,,,,0,0,0,0,0
4.2920,1783972078.4677,1,1,2.0000,-0.0000,1.42241,-0.00868,-2.63266,1.07053,1.57081,0.11675,-0.12762,-0.48149,0.03418,,,,,,,,,,,,,,,,,,,,,,,,,,0,0,0,0,0
4.3289,1783972078.5046,1,1,2.0000,-0.0000,1.42241,-0.00868,-2.63266,1.07053,1.57081,0.11675,-0.12762,-0.48149,0.03418,,,,,,,,,,,,,,,,,,,,,,,,,,0,0,0,0,0
4.3294,1783972078.5052,1,1,2.0000,-0.0000,1.42241,-0.00868,-2.63266,1.07053,1.57081,0.11675,-0.12762,-0.48149,0.03418,,,,,,,,,,,,,,,,,,,,,,,,,,0,0,0,0,0
4.3519,1783972078.5276,1,1,2.0000,-0.0000,1.42241,-0.00868,-2.63266,1.07053,1.57081,0.11675,-0.12762,-0.48149,0.03418,,,,,,,,,,,,,,,,,,,,,,,,,,0,0,0,0,0
4.3521,1783972078.5279,1,1,2.0000,-0.0000,1.42241,-0.00868,-2.63266,1.07053,1.57081,0.11675,-0.12762,-0.48149,0.03418,,,,,,,,,,,,,,,,,,,,,,,,,,0,0,0,0,0
4.3524,1783972078.5281,1,1,2.0000,-0.0000,1.42241,-0.00868,-2.63266,1.07053,1.57081,0.11675,-0.12762,-0.48149,0.03418,,,,,,,,,,,,,,,,,,,,,,,,,,0,0,0,0,0
4.3527,1783972078.5284,1,1,2.0000,-0.0000,1.42241,-0.00868,-2.63266,1.07053,1.57081,0.11675,-0.12762,-0.48149,0.03418,,,,,,,,,,,,,,,,,,,,,,,,,,0,0,0,0,0
4.3529,1783972078.5287,1,1,2.0000,-0.0000,1.42241,-0.00868,-2.63266,1.07053,1.57081,0.11675,-0.12762,-0.48149,0.03418,,,,,,,,,,,,,,,,,,,,,,,,,,0,0,0,0,0
4.3677,1783972078.5435,1,1,2.0000,-0.0000,1.42241,-0.00868,-2.63266,1.07053,1.57081,0.11675,-0.12762,-0.48149,0.03418,,,,,,,,,,,,,,,,,,,,,,,,,,0,0,0,0,0
4.3686,1783972078.5443,1,1,2.0000,-0.0000,1.42241,-0.00868,-2.63266,1.07053,1.57081,0.11675,-0.12762,-0.48149,0.03418,,,,,,,,,,,,,,,,,,,,,,,,,,0,0,0,0,0
4.3738,1783972078.5496,1,1,2.0000,-0.0000,1.42241,-0.00868,-2.63266,1.07053,1.57081,0.11675,-0.12762,-0.48149,0.03418,,,,,,,,,,,,,,,,,,,,,,,,,,0,0,0,0,0
4.4965,1783972078.6723,1,1,2.0000,-0.0000,1.42241,-0.00901,-2.63279,1.07094,1.57081,0.11675,-0.12763,-0.48145,0.03404,,,,,,,,,,,,,,,,,,,,,,,,,,0,0,0,0,0
4.4969,1783972078.6726,1,1,2.0000,-0.0000,1.42241,-0.00901,-2.63279,1.07094,1.57081,0.11675,-0.12763,-0.48145,0.03404,,,,,,,,,,,,,,,,,,,,,,,,,,0,0,0,0,0
4.5036,1783972078.6793,1,1,2.0000,-0.0000,1.42241,-0.00909,-2.63281,1.07104,1.57081,0.11675,-0.12763,-0.48145,0.03401,,,,,,,,,,,,,,,,,,,,,,,,,,0,0,0,0,0
4.5039,1783972078.6796,1,1,2.0000,-0.0000,1.42241,-0.00909,-2.63281,1.07104,1.57081,0.11675,-0.12763,-0.48145,0.03401,,,,,,,,,,,,,,,,,,,,,,,,,,0,0,0,0,0
4.5042,1783972078.6800,1,1,2.0000,-0.0000,1.42241,-0.00909,-2.63281,1.07104,1.57081,0.11675,-0.12763,-0.48145,0.03401,,,,,,,,,,,,,,,,,,,,,,,,,,0,0,0,0,0
4.5045,1783972078.6802,1,1,2.0000,-0.0000,1.42241,-0.00909,-2.63281,1.07104,1.57081,0.11675,-0.12763,-0.48145,0.03401,,,,,,,,,,,,,,,,,,,,,,,,,,0,0,0,0,0
4.5048,1783972078.6805,1,1,2.0000,-0.0000,1.42241,-0.00909,-2.63281,1.07104,1.57081,0.11675,-0.12763,-0.48145,0.03401,,,,,,,,,,,,,,,,,,,,,,,,,,0,0,0,0,0
4.5051,1783972078.6808,1,1,2.0000,-0.0000,1.42241,-0.00909,-2.63281,1.07104,1.57081,0.11675,-0.12763,-0.48145,0.03401,,,,,,,,,,,,,,,,,,,,,,,,,,0,0,0,0,0
4.5057,1783972078.6815,1,1,2.0000,-0.0000,1.42241,-0.00909,-2.63281,1.07104,1.57081,0.11675,-0.12763,-0.48145,0.03401,,,,,,,,,,,,,,,,,,,,,,,,,,0,0,0,0,0
4.5298,1783972078.7056,1,1,2.0000,-0.0000,1.42241,-0.00926,-2.63284,1.07124,1.57081,0.11675,-0.12763,-0.48145,0.03396,,,,,,,,,,,,,,,,,,,,,,,,,,0,0,0,0,0
4.6284,1783972078.8041,1,1,2.0000,-0.0000,1.42241,-0.00986,-2.63293,1.07197,1.57081,0.11675,-0.12762,-0.48148,0.03377,,,,,,,,,,,,,,,,,,,,,,,,,,0,0,0,0,0
4.6288,1783972078.8045,1,1,2.0000,-0.0000,1.42241,-0.00986,-2.63293,1.07197,1.57081,0.11675,-0.12762,-0.48148,0.03377,,,,,,,,,,,,,,,,,,,,,,,,,,0,0,0,0,0
4.6292,1783972078.8049,1,1,2.0000,-0.0000,1.42241,-0.00986,-2.63293,1.07197,1.57081,0.11675,-0.12762,-0.48148,0.03377,,,,,,,,,,,,,,,,,,,,,,,,,,0,0,0,0,0
4.6295,1783972078.8052,1,1,2.0000,-0.0000,1.42241,-0.00986,-2.63293,1.07197,1.57081,0.11675,-0.12762,-0.48148,0.03377,,,,,,,,,,,,,,,,,,,,,,,,,,0,0,0,0,0
4.6301,1783972078.8058,1,1,2.0000,-0.0000,1.42241,-0.00986,-2.63293,1.07197,1.57081,0.11675,-0.12762,-0.48148,0.03377,,,,,,,,,,,,,,,,,,,,,,,,,,0,0,0,0,0
4.6305,1783972078.8063,1,1,2.0000,-0.0000,1.42241,-0.00986,-2.63293,1.07197,1.57081,0.11675,-0.12762,-0.48148,0.03377,,,,,,,,,,,,,,,,,,,,,,,,,,0,0,0,0,0
4.6311,1783972078.8068,1,1,2.0000,-0.0000,1.42241,-0.00986,-2.63293,1.07197,1.57081,0.11675,-0.12762,-0.48148,0.03377,,,,,,,,,,,,,,,,,,,,,,,,,,0,0,0,0,0
4.6678,1783972078.8435,1,1,2.0000,-0.0000,1.42241,-0.00986,-2.63293,1.07197,1.57081,0.11675,-0.12762,-0.48148,0.03377,,,,,,,,,,,,,,,,,,,,,,,,,,0,0,0,0,0
4.6682,1783972078.8439,1,1,2.0000,-0.0000,1.42241,-0.00986,-2.63293,1.07197,1.57081,0.11675,-0.12762,-0.48148,0.03377,,,,,,,,,,,,,,,,,,,,,,,,,,0,0,0,0,0
4.6919,1783972078.8676,1,1,2.0000,-0.0000,1.42241,-0.00986,-2.63293,1.07197,1.57081,0.11675,-0.12762,-0.48148,0.03377,,,,,,,,,,,,,,,,,,,,,,,,,,0,0,0,0,0
4.6922,1783972078.8680,1,1,2.0000,-0.0000,1.42241,-0.00986,-2.63293,1.07197,1.57081,0.11675,-0.12762,-0.48148,0.03377,,,,,,,,,,,,,,,,,,,,,,,,,,0,0,0,0,0
4.6925,1783972078.8682,1,1,2.0000,-0.0000,1.42241,-0.00986,-2.63293,1.07197,1.57081,0.11675,-0.12762,-0.48148,0.03377,,,,,,,,,,,,,,,,,,,,,,,,,,0,0,0,0,0
4.6963,1783972078.8720,1,1,2.0000,-0.0000,1.42241,-0.00986,-2.63293,1.07197,1.57081,0.11675,-0.12762,-0.48148,0.03377,,,,,,,,,,,,,,,,,,,,,,,,,,0,0,0,0,0
4.7621,1783972078.9379,1,1,2.0000,-0.0000,1.42241,-0.00986,-2.63293,1.07197,1.57081,0.11675,-0.12762,-0.48148,0.03377,,,,,,,,,,,,,,,,,,,,,,,,,,0,0,0,0,0
4.7625,1783972078.9382,1,1,2.0000,-0.0000,1.42241,-0.00986,-2.63293,1.07197,1.57081,0.11675,-0.12762,-0.48148,0.03377,,,,,,,,,,,,,,,,,,,,,,,,,,0,0,0,0,0
4.7629,1783972078.9386,1,1,2.0000,-0.0000,1.42241,-0.00986,-2.63293,1.07197,1.57081,0.11675,-0.12762,-0.48148,0.03377,,,,,,,,,,,,,,,,,,,,,,,,,,0,0,0,0,0
4.7631,1783972078.9389,1,1,2.0000,-0.0000,1.42241,-0.00986,-2.63293,1.07197,1.57081,0.11675,-0.12762,-0.48148,0.03377,,,,,,,,,,,,,,,,,,,,,,,,,,0,0,0,0,0
4.7635,1783972078.9392,1,1,2.0000,-0.0000,1.42241,-0.00986,-2.63293,1.07197,1.57081,0.11675,-0.12762,-0.48148,0.03377,,,,,,,,,,,,,,,,,,,,,,,,,,0,0,0,0,0
4.7929,1783972078.9686,1,1,2.0000,-0.0000,1.42241,-0.00986,-2.63293,1.07197,1.57081,0.11675,-0.12762,-0.48148,0.03377,,,,,,,,,,,,,,,,,,,,,,,,,,0,0,0,0,0
4.7932,1783972078.9689,1,1,2.0000,-0.0000,1.42241,-0.00986,-2.63293,1.07197,1.57081,0.11675,-0.12762,-0.48148,0.03377,,,,,,,,,,,,,,,,,,,,,,,,,,0,0,0,0,0
4.8661,1783972079.0419,1,1,2.0000,-0.0000,1.42240,-0.00999,-2.63299,1.07214,1.57081,0.11675,-0.12762,-0.48146,0.03371,,,,,,,,,,,,,,,,,,,,,,,,,,0,0,0,0,0
4.8665,1783972079.0422,1,1,2.0000,-0.0000,1.42240,-0.00999,-2.63299,1.07214,1.57081,0.11675,-0.12762,-0.48146,0.03371,,,,,,,,,,,,,,,,,,,,,,,,,,0,0,0,0,0
4.8667,1783972079.0425,1,1,2.0000,-0.0000,1.42240,-0.00999,-2.63299,1.07214,1.57081,0.11675,-0.12762,-0.48146,0.03371,,,,,,,,,,,,,,,,,,,,,,,,,,0,0,0,0,0
4.8670,1783972079.0427,1,1,2.0000,-0.0000,1.42240,-0.00999,-2.63299,1.07214,1.57081,0.11675,-0.12762,-0.48146,0.03371,,,,,,,,,,,,,,,,,,,,,,,,,,0,0,0,0,0
4.8673,1783972079.0431,1,1,2.0000,-0.0000,1.42240,-0.00999,-2.63299,1.07214,1.57081,0.11675,-0.12762,-0.48146,0.03371,,,,,,,,,,,,,,,,,,,,,,,,,,0,0,0,0,0
4.8719,1783972079.0477,1,1,2.0000,-0.0000,1.42240,-0.01000,-2.63299,1.07214,1.57081,0.11675,-0.12762,-0.48146,0.03371,,,,,,,,,,,,,,,,,,,,,,,,,,0,0,0,0,0
4.8722,1783972079.0479,1,1,2.0000,-0.0000,1.42240,-0.01000,-2.63299,1.07214,1.57081,0.11675,-0.12762,-0.48146,0.03371,,,,,,,,,,,,,,,,,,,,,,,,,,0,0,0,0,0
4.8726,1783972079.0483,1,1,2.0000,-0.0000,1.42240,-0.01000,-2.63299,1.07214,1.57081,0.11675,-0.12762,-0.48146,0.03371,,,,,,,,,,,,,,,,,,,,,,,,,,0,0,0,0,0
4.8987,1783972079.0745,1,1,2.0000,-0.0000,1.42240,-0.01012,-2.63305,1.07228,1.57081,0.11675,-0.12763,-0.48143,0.03366,,,,,,,,,,,,,,,,,,,,,,,,,,0,0,0,0,0
4.8991,1783972079.0748,1,1,2.0000,-0.0000,1.42240,-0.01012,-2.63305,1.07228,1.57081,0.11675,-0.12763,-0.48143,0.03366,,,,,,,,,,,,,,,,,,,,,,,,,,0,0,0,0,0
5.0484,1783972079.2241,1,1,2.0000,-0.0000,1.42240,-0.01112,-2.63312,1.07350,1.57081,0.11675,-0.12761,-0.48154,0.03339,,,,,,,,,,,,,,,,,,,,,,,,,,0,0,0,0,0
5.0489,1783972079.2246,1,1,2.0000,-0.0000,1.42240,-0.01112,-2.63312,1.07350,1.57081,0.11675,-0.12761,-0.48154,0.03339,,,,,,,,,,,,,,,,,,,,,,,,,,0,0,0,0,0
5.0493,1783972079.2251,1,1,2.0000,-0.0000,1.42240,-0.01112,-2.63312,1.07350,1.57081,0.11675,-0.12761,-0.48154,0.03339,,,,,,,,,,,,,,,,,,,,,,,,,,0,0,0,0,0
5.0500,1783972079.2258,1,1,2.0000,-0.0000,1.42240,-0.01112,-2.63312,1.07350,1.57081,0.11675,-0.12761,-0.48154,0.03339,,,,,,,,,,,,,,,,,,,,,,,,,,0,0,0,0,0
5.0503,1783972079.2260,1,1,2.0000,-0.0000,1.42240,-0.01112,-2.63312,1.07350,1.57081,0.11675,-0.12761,-0.48154,0.03339,,,,,,,,,,,,,,,,,,,,,,,,,,0,0,0,0,0
5.0505,1783972079.2262,1,1,2.0000,-0.0000,1.42240,-0.01112,-2.63312,1.07350,1.57081,0.11675,-0.12761,-0.48154,0.03339,,,,,,,,,,,,,,,,,,,,,,,,,,0,0,0,0,0
5.0507,1783972079.2264,1,1,2.0000,-0.0000,1.42240,-0.01112,-2.63312,1.07350,1.57081,0.11675,-0.12761,-0.48154,0.03339,,,,,,,,,,,,,,,,,,,,,,,,,,0,0,0,0,0
5.3729,1783972079.5487,1,1,2.0000,-0.0000,1.42240,-0.01161,-2.63334,1.07410,1.57081,0.11674,-0.12762,-0.48146,0.03317,,,,,,,,,,,,,,,,,,,,,,,,,,0,0,0,0,0
5.3738,1783972079.5495,1,1,2.0000,-0.0000,1.42240,-0.01166,-2.63335,1.07416,1.57081,0.11674,-0.12762,-0.48146,0.03315,,,,,,,,,,,,,,,,,,,,,,,,,,0,0,0,0,0
5.3743,1783972079.5500,1,1,2.0000,-0.0000,1.42240,-0.01166,-2.63335,1.07416,1.57081,0.11674,-0.12762,-0.48146,0.03315,,,,,,,,,,,,,,,,,,,,,,,,,,0,0,0,0,0
5.3746,1783972079.5503,1,1,2.0000,-0.0000,1.42240,-0.01166,-2.63335,1.07416,1.57081,0.11674,-0.12762,-0.48146,0.03315,,,,,,,,,,,,,,,,,,,,,,,,,,0,0,0,0,0
5.3750,1783972079.5507,1,1,2.0000,-0.0000,1.42240,-0.01166,-2.63335,1.07416,1.57081,0.11674,-0.12762,-0.48146,0.03315,,,,,,,,,,,,,,,,,,,,,,,,,,0,0,0,0,0
5.3753,1783972079.5510,1,1,2.0000,-0.0000,1.42240,-0.01166,-2.63335,1.07416,1.57081,0.11674,-0.12762,-0.48146,0.03315,,,,,,,,,,,,,,,,,,,,,,,,,,0,0,0,0,0
5.3756,1783972079.5513,1,1,2.0000,-0.0000,1.42240,-0.01166,-2.63335,1.07416,1.57081,0.11674,-0.12762,-0.48146,0.03315,,,,,,,,,,,,,,,,,,,,,,,,,,0,0,0,0,0
5.3759,1783972079.5516,1,1,2.0000,-0.0000,1.42240,-0.01166,-2.63335,1.07416,1.57081,0.11674,-0.12762,-0.48146,0.03315,,,,,,,,,,,,,,,,,,,,,,,,,,0,0,0,0,0
5.3762,1783972079.5519,1,1,2.0000,-0.0000,1.42240,-0.01166,-2.63335,1.07416,1.57081,0.11674,-0.12762,-0.48146,0.03315,,,,,,,,,,,,,,,,,,,,,,,,,,0,0,0,0,0
5.3765,1783972079.5522,1,1,2.0000,-0.0000,1.42240,-0.01166,-2.63335,1.07416,1.57081,0.11674,-0.12762,-0.48146,0.03315,,,,,,,,,,,,,,,,,,,,,,,,,,0,0,0,0,0
5.3768,1783972079.5525,1,1,2.0000,-0.0000,1.42240,-0.01166,-2.63335,1.07416,1.57081,0.11674,-0.12762,-0.48146,0.03315,,,,,,,,,,,,,,,,,,,,,,,,,,0,0,0,0,0
5.3770,1783972079.5528,1,1,2.0000,-0.0000,1.42240,-0.01166,-2.63335,1.07416,1.57081,0.11674,-0.12762,-0.48146,0.03315,,,,,,,,,,,,,,,,,,,,,,,,,,0,0,0,0,0
5.3774,1783972079.5531,1,1,2.0000,-0.0000,1.42240,-0.01166,-2.63335,1.07416,1.57081,0.11674,-0.12762,-0.48146,0.03315,,,,,,,,,,,,,,,,,,,,,,,,,,0,0,0,0,0
5.3779,1783972079.5537,1,1,2.0000,-0.0000,1.42240,-0.01171,-2.63336,1.07422,1.57081,0.11674,-0.12762,-0.48146,0.03314,,,,,,,,,,,,,,,,,,,,,,,,,,0,0,0,0,0
5.3782,1783972079.5539,1,1,2.0000,-0.0000,1.42240,-0.01171,-2.63336,1.07422,1.57081,0.11674,-0.12762,-0.48146,0.03314,,,,,,,,,,,,,,,,,,,,,,,,,,0,0,0,0,0
5.3784,1783972079.5542,1,1,2.0000,-0.0000,1.42240,-0.01171,-2.63336,1.07422,1.57081,0.11674,-0.12762,-0.48146,0.03314,,,,,,,,,,,,,,,,,,,,,,,,,,0,0,0,0,0
5.3787,1783972079.5544,1,1,2.0000,-0.0000,1.42240,-0.01171,-2.63336,1.07422,1.57081,0.11674,-0.12762,-0.48146,0.03314,,,,,,,,,,,,,,,,,,,,,,,,,,0,0,0,0,0
5.3789,1783972079.5546,1,1,2.0000,-0.0000,1.42240,-0.01171,-2.63336,1.07422,1.57081,0.11674,-0.12762,-0.48146,0.03314,,,,,,,,,,,,,,,,,,,,,,,,,,0,0,0,0,0
5.3793,1783972079.5550,1,1,2.0000,-0.0000,1.42240,-0.01171,-2.63336,1.07422,1.57081,0.11674,-0.12762,-0.48146,0.03314,,,,,,,,,,,,,,,,,,,,,,,,,,0,0,0,0,0
5.3795,1783972079.5553,1,1,2.0000,-0.0000,1.42240,-0.01171,-2.63336,1.07422,1.57081,0.11674,-0.12762,-0.48146,0.03314,,,,,,,,,,,,,,,,,,,,,,,,,,0,0,0,0,0
5.3798,1783972079.5555,1,1,2.0000,-0.0000,1.42240,-0.01171,-2.63336,1.07422,1.57081,0.11674,-0.12762,-0.48146,0.03314,,,,,,,,,,,,,,,,,,,,,,,,,,0,0,0,0,0
5.3800,1783972079.5557,1,1,2.0000,-0.0000,1.42240,-0.01171,-2.63336,1.07422,1.57081,0.11674,-0.12762,-0.48146,0.03314,,,,,,,,,,,,,,,,,,,,,,,,,,0,0,0,0,0
5.3804,1783972079.5561,1,1,2.0000,-0.0000,1.42240,-0.01171,-2.63336,1.07422,1.57081,0.11674,-0.12762,-0.48146,0.03314,,,,,,,,,,,,,,,,,,,,,,,,,,0,0,0,0,0
5.3806,1783972079.5564,1,1,2.0000,-0.0000,1.42240,-0.01171,-2.63336,1.07422,1.57081,0.11674,-0.12762,-0.48146,0.03314,,,,,,,,,,,,,,,,,,,,,,,,,,0,0,0,0,0
5.3809,1783972079.5567,1,1,2.0000,-0.0000,1.42240,-0.01171,-2.63336,1.07422,1.57081,0.11674,-0.12762,-0.48146,0.03314,,,,,,,,,,,,,,,,,,,,,,,,,,0,0,0,0,0
5.3811,1783972079.5569,1,1,2.0000,-0.0000,1.42240,-0.01171,-2.63336,1.07422,1.57081,0.11674,-0.12762,-0.48146,0.03314,,,,,,,,,,,,,,,,,,,,,,,,,,0,0,0,0,0
5.3818,1783972079.5575,1,1,2.0000,-0.0000,1.42240,-0.01171,-2.63336,1.07422,1.57081,0.11674,-0.12762,-0.48146,0.03314,,,,,,,,,,,,,,,,,,,,,,,,,,0,0,0,0,0
5.3819,1783972079.5577,1,1,2.0000,-0.0000,1.42240,-0.01171,-2.63336,1.07422,1.57081,0.11674,-0.12762,-0.48146,0.03314,,,,,,,,,,,,,,,,,,,,,,,,,,0,0,0,0,0
5.3822,1783972079.5579,1,1,2.0000,-0.0000,1.42240,-0.01171,-2.63336,1.07422,1.57081,0.11674,-0.12762,-0.48146,0.03314,,,,,,,,,,,,,,,,,,,,,,,,,,0,0,0,0,0
5.4026,1783972079.5783,1,1,2.0000,-0.0000,1.42240,-0.01183,-2.63338,1.07436,1.57081,0.11674,-0.12762,-0.48146,0.03310,,,,,,,,,,,,,,,,,,,,,,,,,,0,0,0,0,0
5.4029,1783972079.5786,1,1,2.0000,-0.0000,1.42240,-0.01183,-2.63338,1.07436,1.57081,0.11674,-0.12762,-0.48146,0.03310,,,,,,,,,,,,,,,,,,,,,,,,,,0,0,0,0,0
5.4863,1783972079.6621,1,1,2.0000,-0.0000,1.42240,-0.01224,-2.63344,1.07487,1.57081,0.11674,-0.12761,-0.48149,0.03298,,,,,,,,,,,,,,,,,,,,,,,,,,0,0,0,0,0
5.4867,1783972079.6625,1,1,2.0000,-0.0000,1.42240,-0.01224,-2.63344,1.07487,1.57081,0.11674,-0.12761,-0.48149,0.03298,,,,,,,,,,,,,,,,,,,,,,,,,,0,0,0,0,0
5.4873,1783972079.6630,1,1,2.0000,-0.0000,1.42240,-0.01224,-2.63344,1.07487,1.57081,0.11674,-0.12761,-0.48149,0.03298,,,,,,,,,,,,,,,,,,,,,,,,,,0,0,0,0,0
5.4877,1783972079.6635,1,1,2.0000,-0.0000,1.42240,-0.01224,-2.63344,1.07487,1.57081,0.11674,-0.12761,-0.48149,0.03298,,,,,,,,,,,,,,,,,,,,,,,,,,0,0,0,0,0
5.4882,1783972079.6639,1,1,2.0000,-0.0000,1.42240,-0.01224,-2.63344,1.07487,1.57081,0.11674,-0.12761,-0.48149,0.03298,,,,,,,,,,,,,,,,,,,,,,,,,,0,0,0,0,0
5.7423,1783972079.9180,1,1,2.0000,-0.0000,1.42240,-0.01246,-2.63354,1.07514,1.57081,0.11674,-0.12762,-0.48145,0.03288,,,,,,,,,,,,,,,,,,,,,,,,,,0,0,0,0,0
5.7426,1783972079.9183,1,1,2.0000,-0.0000,1.42240,-0.01246,-2.63354,1.07514,1.57081,0.11674,-0.12762,-0.48145,0.03288,,,,,,,,,,,,,,,,,,,,,,,,,,0,0,0,0,0
5.7429,1783972079.9187,1,1,2.0000,-0.0000,1.42240,-0.01246,-2.63354,1.07514,1.57081,0.11674,-0.12762,-0.48145,0.03288,,,,,,,,,,,,,,,,,,,,,,,,,,0,0,0,0,0
5.7433,1783972079.9191,1,1,2.0000,-0.0000,1.42240,-0.01246,-2.63354,1.07514,1.57081,0.11674,-0.12762,-0.48145,0.03288,,,,,,,,,,,,,,,,,,,,,,,,,,0,0,0,0,0
5.7438,1783972079.9195,1,1,2.0000,-0.0000,1.42240,-0.01246,-2.63354,1.07514,1.57081,0.11674,-0.12762,-0.48145,0.03288,,,,,,,,,,,,,,,,,,,,,,,,,,0,0,0,0,0
5.7442,1783972079.9199,1,1,2.0000,-0.0000,1.42240,-0.01246,-2.63354,1.07514,1.57081,0.11674,-0.12762,-0.48145,0.03288,,,,,,,,,,,,,,,,,,,,,,,,,,0,0,0,0,0
5.7446,1783972079.9204,1,1,2.0000,-0.0000,1.42240,-0.01246,-2.63354,1.07514,1.57081,0.11674,-0.12762,-0.48145,0.03288,,,,,,,,,,,,,,,,,,,,,,,,,,0,0,0,0,0
5.7449,1783972079.9206,1,1,2.0000,-0.0000,1.42240,-0.01246,-2.63354,1.07514,1.57081,0.11674,-0.12762,-0.48145,0.03288,,,,,,,,,,,,,,,,,,,,,,,,,,0,0,0,0,0
5.7451,1783972079.9209,1,1,2.0000,-0.0000,1.42240,-0.01246,-2.63354,1.07514,1.57081,0.11674,-0.12762,-0.48145,0.03288,,,,,,,,,,,,,,,,,,,,,,,,,,0,0,0,0,0
5.7453,1783972079.9211,1,1,2.0000,-0.0000,1.42240,-0.01246,-2.63354,1.07514,1.57081,0.11674,-0.12762,-0.48145,0.03288,,,,,,,,,,,,,,,,,,,,,,,,,,0,0,0,0,0
5.7460,1783972079.9217,1,1,2.0000,-0.0000,1.42240,-0.01247,-2.63354,1.07515,1.57081,0.11674,-0.12762,-0.48145,0.03288,,,,,,,,,,,,,,,,,,,,,,,,,,0,0,0,0,0
5.7461,1783972079.9219,1,1,2.0000,-0.0000,1.42240,-0.01247,-2.63354,1.07515,1.57081,0.11674,-0.12762,-0.48145,0.03288,,,,,,,,,,,,,,,,,,,,,,,,,,0,0,0,0,0
5.7466,1783972079.9223,1,1,2.0000,-0.0000,1.42240,-0.01247,-2.63354,1.07515,1.57081,0.11674,-0.12762,-0.48145,0.03288,,,,,,,,,,,,,,,,,,,,,,,,,,0,0,0,0,0
5.7469,1783972079.9226,1,1,2.0000,-0.0000,1.42240,-0.01247,-2.63354,1.07515,1.57081,0.11674,-0.12762,-0.48145,0.03288,,,,,,,,,,,,,,,,,,,,,,,,,,0,0,0,0,0
5.7472,1783972079.9230,1,1,2.0000,-0.0000,1.42240,-0.01247,-2.63354,1.07515,1.57081,0.11674,-0.12762,-0.48145,0.03288,,,,,,,,,,,,,,,,,,,,,,,,,,0,0,0,0,0
5.7475,1783972079.9233,1,1,2.0000,-0.0000,1.42240,-0.01247,-2.63354,1.07515,1.57081,0.11674,-0.12762,-0.48145,0.03288,,,,,,,,,,,,,,,,,,,,,,,,,,0,0,0,0,0
5.7478,1783972079.9236,1,1,2.0000,-0.0000,1.42240,-0.01247,-2.63354,1.07515,1.57081,0.11674,-0.12762,-0.48145,0.03288,,,,,,,,,,,,,,,,,,,,,,,,,,0,0,0,0,0
5.7480,1783972079.9238,1,1,2.0000,-0.0000,1.42240,-0.01247,-2.63354,1.07515,1.57081,0.11674,-0.12762,-0.48145,0.03288,,,,,,,,,,,,,,,,,,,,,,,,,,0,0,0,0,0
5.7483,1783972079.9241,1,1,2.0000,-0.0000,1.42240,-0.01247,-2.63354,1.07515,1.57081,0.11674,-0.12762,-0.48145,0.03288,,,,,,,,,,,,,,,,,,,,,,,,,,0,0,0,0,0
5.7486,1783972079.9244,1,1,2.0000,-0.0000,1.42240,-0.01247,-2.63354,1.07515,1.57081,0.11674,-0.12762,-0.48145,0.03288,,,,,,,,,,,,,,,,,,,,,,,,,,0,0,0,0,0
5.7489,1783972079.9247,1,1,2.0000,-0.0000,1.42240,-0.01247,-2.63354,1.07515,1.57081,0.11674,-0.12762,-0.48145,0.03288,,,,,,,,,,,,,,,,,,,,,,,,,,0,0,0,0,0
5.7492,1783972079.9250,1,1,2.0000,-0.0000,1.42240,-0.01247,-2.63354,1.07515,1.57081,0.11674,-0.12762,-0.48145,0.03288,,,,,,,,,,,,,,,,,,,,,,,,,,0,0,0,0,0
5.7499,1783972079.9256,1,1,2.0000,-0.0000,1.42240,-0.01249,-2.63355,1.07518,1.57081,0.11674,-0.12762,-0.48145,0.03287,,,,,,,,,,,,,,,,,,,,,,,,,,0,0,0,0,0
5.7502,1783972079.9259,1,1,2.0000,-0.0000,1.42240,-0.01249,-2.63355,1.07518,1.57081,0.11674,-0.12762,-0.48145,0.03287,,,,,,,,,,,,,,,,,,,,,,,,,,0,0,0,0,0
5.7505,1783972079.9262,1,1,2.0000,-0.0000,1.42240,-0.01249,-2.63355,1.07518,1.57081,0.11674,-0.12762,-0.48145,0.03287,,,,,,,,,,,,,,,,,,,,,,,,,,0,0,0,0,0
5.7508,1783972079.9265,1,1,2.0000,-0.0000,1.42240,-0.01249,-2.63355,1.07518,1.57081,0.11674,-0.12762,-0.48145,0.03287,,,,,,,,,,,,,,,,,,,,,,,,,,0,0,0,0,0
5.7510,1783972079.9267,1,1,2.0000,-0.0000,1.42240,-0.01249,-2.63355,1.07518,1.57081,0.11674,-0.12762,-0.48145,0.03287,,,,,,,,,,,,,,,,,,,,,,,,,,0,0,0,0,0
5.7513,1783972079.9270,1,1,2.0000,-0.0000,1.42240,-0.01249,-2.63355,1.07518,1.57081,0.11674,-0.12762,-0.48145,0.03287,,,,,,,,,,,,,,,,,,,,,,,,,,0,0,0,0,0
5.7516,1783972079.9273,1,1,2.0000,-0.0000,1.42240,-0.01249,-2.63355,1.07518,1.57081,0.11674,-0.12762,-0.48145,0.03287,,,,,,,,,,,,,,,,,,,,,,,,,,0,0,0,0,0
5.7519,1783972079.9276,1,1,2.0000,-0.0000,1.42240,-0.01249,-2.63355,1.07518,1.57081,0.11674,-0.12762,-0.48145,0.03287,,,,,,,,,,,,,,,,,,,,,,,,,,0,0,0,0,0
5.7604,1783972079.9361,1,1,2.0000,-0.0000,1.42240,-0.01255,-2.63356,1.07525,1.57081,0.11674,-0.12762,-0.48145,0.03285,,,,,,,,,,,,,,,,,,,,,,,,,,0,0,0,0,0
5.7806,1783972079.9564,1,1,2.0000,-0.0000,1.42240,-0.01264,-2.63358,1.07536,1.57081,0.11674,-0.12762,-0.48145,0.03282,,,,,,,,,,,,,,,,,,,,,,,,,,0,0,0,0,0
5.7809,1783972079.9567,1,1,2.0000,-0.0000,1.42240,-0.01264,-2.63358,1.07536,1.57081,0.11674,-0.12762,-0.48145,0.03282,,,,,,,,,,,,,,,,,,,,,,,,,,0,0,0,0,0
5.7851,1783972079.9608,1,1,2.0000,-0.0000,1.42240,-0.01268,-2.63358,1.07541,1.57081,0.11674,-0.12762,-0.48145,0.03281,,,,,,,,,,,,,,,,,,,,,,,,,,0,0,0,0,0
5.7858,1783972079.9615,1,1,2.0000,-0.0000,1.42240,-0.01273,-2.63359,1.07546,1.57081,0.11674,-0.12762,-0.48145,0.03279,,,,,,,,,,,,,,,,,,,,,,,,,,0,0,0,0,0
5.8021,1783972079.9779,1,1,2.0000,-0.0000,1.42240,-0.01284,-2.63361,1.07560,1.57081,0.11674,-0.12762,-0.48145,0.03275,,,,,,,,,,,,,,,,,,,,,,,,,,0,0,0,0,0
5.8236,1783972079.9994,1,1,2.0000,-0.0000,1.42239,-0.01301,-2.63364,1.07579,1.57081,0.11674,-0.12762,-0.48146,0.03270,,,,,,,,,,,,,,,,,,,,,,,,,,0,0,0,0,0
5.8488,1783972080.0246,1,1,2.0000,-0.0000,1.42239,-0.01312,-2.63365,1.07594,1.57081,0.11674,-0.12762,-0.48147,0.03267,,,,,,,,,,,,,,,,,,,,,,,,,,0,0,0,0,0
5.9036,1783972080.0794,1,1,2.0000,-0.0000,1.42239,-0.01350,-2.63364,1.07641,1.57081,0.11674,-0.12760,-0.48154,0.03259,,,,,,,,,,,,,,,,,,,,,,,,,,0,0,0,0,0
5.9040,1783972080.0798,1,1,2.0000,-0.0000,1.42239,-0.01350,-2.63364,1.07641,1.57081,0.11674,-0.12760,-0.48154,0.03259,,,,,,,,,,,,,,,,,,,,,,,,,,0,0,0,0,0
5.9045,1783972080.0803,1,1,2.0000,-0.0000,1.42239,-0.01350,-2.63364,1.07641,1.57081,0.11674,-0.12760,-0.48154,0.03259,,,,,,,,,,,,,,,,,,,,,,,,,,0,0,0,0,0
5.9049,1783972080.0807,1,1,2.0000,-0.0000,1.42239,-0.01350,-2.63364,1.07641,1.57081,0.11674,-0.12760,-0.48154,0.03259,,,,,,,,,,,,,,,,,,,,,,,,,,0,0,0,0,0
5.9104,1783972080.0861,1,1,2.0000,-0.0000,1.42239,-0.01350,-2.63364,1.07641,1.57081,0.11674,-0.12760,-0.48154,0.03259,,,,,,,,,,,,,,,,,,,,,,,,,,0,0,0,0,0
5.9108,1783972080.0866,1,1,2.0000,-0.0000,1.42239,-0.01350,-2.63364,1.07641,1.57081,0.11674,-0.12760,-0.48154,0.03259,,,,,,,,,,,,,,,,,,,,,,,,,,0,0,0,0,0
5.9178,1783972080.0936,1,1,2.0000,-0.0000,1.42239,-0.01350,-2.63364,1.07641,1.57081,0.11674,-0.12760,-0.48154,0.03259,,,,,,,,,,,,,,,,,,,,,,,,,,0,0,0,0,0
5.9410,1783972080.1167,1,1,2.0000,-0.0000,1.42239,-0.01350,-2.63364,1.07641,1.57081,0.11674,-0.12760,-0.48154,0.03259,,,,,,,,,,,,,,,,,,,,,,,,,,0,0,0,0,0
5.9473,1783972080.1230,1,1,2.0000,-0.0000,1.42239,-0.01350,-2.63364,1.07641,1.57081,0.11674,-0.12760,-0.48154,0.03259,,,,,,,,,,,,,,,,,,,,,,,,,,0,0,0,0,0
5.9476,1783972080.1233,1,1,2.0000,-0.0000,1.42239,-0.01350,-2.63364,1.07641,1.57081,0.11674,-0.12760,-0.48154,0.03259,,,,,,,,,,,,,,,,,,,,,,,,,,0,0,0,0,0
5.9703,1783972080.1461,1,1,2.0000,-0.0000,1.42239,-0.01350,-2.63364,1.07641,1.57081,0.11674,-0.12760,-0.48154,0.03259,,,,,,,,,,,,,,,,,,,,,,,,,,0,0,0,0,0
5.9709,1783972080.1466,1,1,2.0000,-0.0000,1.42239,-0.01350,-2.63364,1.07641,1.57081,0.11674,-0.12760,-0.48154,0.03259,,,,,,,,,,,,,,,,,,,,,,,,,,0,0,0,0,0
5.9931,1783972080.1688,1,1,2.0000,-0.0000,1.42239,-0.01350,-2.63364,1.07641,1.57081,0.11674,-0.12760,-0.48154,0.03259,,,,,,,,,,,,,,,,,,,,,,,,,,0,0,0,0,0
5.9938,1783972080.1695,1,1,2.0000,-0.0000,1.42239,-0.01350,-2.63364,1.07641,1.57081,0.11674,-0.12760,-0.48154,0.03259,,,,,,,,,,,,,,,,,,,,,,,,,,0,0,0,0,0
6.0442,1783972080.2200,1,1,2.0000,-0.0000,1.42239,-0.01350,-2.63364,1.07641,1.57081,0.11674,-0.12760,-0.48154,0.03259,,,,,,,,,,,,,,,,,,,,,,,,,,0,0,0,0,0
6.0448,1783972080.2205,1,1,2.0000,-0.0000,1.42239,-0.01350,-2.63364,1.07641,1.57081,0.11674,-0.12760,-0.48154,0.03259,,,,,,,,,,,,,,,,,,,,,,,,,,0,0,0,0,0
6.0454,1783972080.2211,1,1,2.0000,-0.0000,1.42239,-0.01350,-2.63364,1.07641,1.57081,0.11674,-0.12760,-0.48154,0.03259,,,,,,,,,,,,,,,,,,,,,,,,,,0,0,0,0,0
6.0459,1783972080.2216,1,1,2.0000,-0.0000,1.42239,-0.01350,-2.63364,1.07641,1.57081,0.11674,-0.12760,-0.48154,0.03259,,,,,,,,,,,,,,,,,,,,,,,,,,0,0,0,0,0
6.0998,1783972080.2755,1,1,2.0000,-0.0000,1.42239,-0.01350,-2.63364,1.07641,1.57081,0.11674,-0.12760,-0.48154,0.03259,,,,,,,,,,,,,,,,,,,,,,,,,,0,0,0,0,0
6.1003,1783972080.2760,1,1,2.0000,-0.0000,1.42239,-0.01350,-2.63364,1.07641,1.57081,0.11674,-0.12760,-0.48154,0.03259,,,,,,,,,,,,,,,,,,,,,,,,,,0,0,0,0,0
6.1009,1783972080.2767,1,1,2.0000,-0.0000,1.42239,-0.01350,-2.63364,1.07641,1.57081,0.11674,-0.12760,-0.48154,0.03259,,,,,,,,,,,,,,,,,,,,,,,,,,0,0,0,0,0
6.2102,1783972080.3859,1,1,2.0000,-0.0000,1.42239,-0.01393,-2.63388,1.07692,1.57082,0.11674,-0.12762,-0.48143,0.03237,,,,,,,,,,,,,,,,,,,,,,,,,,0,0,0,0,0
6.2104,1783972080.3862,1,1,2.0000,-0.0000,1.42239,-0.01393,-2.63388,1.07692,1.57082,0.11674,-0.12762,-0.48143,0.03237,,,,,,,,,,,,,,,,,,,,,,,,,,0,0,0,0,0
6.2109,1783972080.3866,1,1,2.0000,-0.0000,1.42239,-0.01393,-2.63388,1.07692,1.57082,0.11674,-0.12762,-0.48143,0.03237,,,,,,,,,,,,,,,,,,,,,,,,,,0,0,0,0,0
6.2112,1783972080.3869,1,1,2.0000,-0.0000,1.42239,-0.01393,-2.63388,1.07692,1.57082,0.11674,-0.12762,-0.48143,0.03237,,,,,,,,,,,,,,,,,,,,,,,,,,0,0,0,0,0
6.2116,1783972080.3873,1,1,2.0000,-0.0000,1.42239,-0.01393,-2.63388,1.07692,1.57082,0.11674,-0.12762,-0.48143,0.03237,,,,,,,,,,,,,,,,,,,,,,,,,,0,0,0,0,0
6.2119,1783972080.3877,1,1,2.0000,-0.0000,1.42239,-0.01393,-2.63388,1.07692,1.57082,0.11674,-0.12762,-0.48143,0.03237,,,,,,,,,,,,,,,,,,,,,,,,,,0,0,0,0,0
6.2124,1783972080.3881,1,1,2.0000,-0.0000,1.42239,-0.01393,-2.63388,1.07692,1.57082,0.11674,-0.12762,-0.48143,0.03237,,,,,,,,,,,,,,,,,,,,,,,,,,0,0,0,0,0
6.2128,1783972080.3886,1,1,2.0000,-0.0000,1.42239,-0.01393,-2.63388,1.07692,1.57082,0.11674,-0.12762,-0.48143,0.03237,,,,,,,,,,,,,,,,,,,,,,,,,,0,0,0,0,0
6.2448,1783972080.4206,1,1,2.0000,-0.0000,1.42239,-0.01418,-2.63391,1.07722,1.57082,0.11674,-0.12762,-0.48145,0.03230,,,,,,,,,,,,,,,,,,,,,,,,,,0,0,0,0,0
6.2451,1783972080.4208,1,1,2.0000,-0.0000,1.42239,-0.01418,-2.63391,1.07722,1.57082,0.11674,-0.12762,-0.48145,0.03230,,,,,,,,,,,,,,,,,,,,,,,,,,0,0,0,0,0
6.2455,1783972080.4212,1,1,2.0000,-0.0000,1.42239,-0.01418,-2.63391,1.07722,1.57082,0.11674,-0.12762,-0.48145,0.03230,,,,,,,,,,,,,,,,,,,,,,,,,,0,0,0,0,0
6.2457,1783972080.4214,1,1,2.0000,-0.0000,1.42239,-0.01418,-2.63391,1.07722,1.57082,0.11674,-0.12762,-0.48145,0.03230,,,,,,,,,,,,,,,,,,,,,,,,,,0,0,0,0,0
6.2612,1783972080.4369,1,1,2.0000,-0.0000,1.42239,-0.01423,-2.63391,1.07727,1.57082,0.11674,-0.12762,-0.48145,0.03229,,,,,,,,,,,,,,,,,,,,,,,,,,0,0,0,0,0
6.2801,1783972080.4558,1,1,2.0000,-0.0000,1.42239,-0.01438,-2.63392,1.07746,1.57082,0.11674,-0.12761,-0.48146,0.03225,,,,,,,,,,,,,,,,,,,,,,,,,,0,0,0,0,0
6.2908,1783972080.4665,1,1,2.0000,-0.0000,1.42239,-0.01441,-2.63392,1.07750,1.57082,0.11674,-0.12761,-0.48147,0.03224,,,,,,,,,,,,,,,,,,,,,,,,,,0,0,0,0,0
6.2911,1783972080.4668,1,1,2.0000,-0.0000,1.42239,-0.01441,-2.63392,1.07750,1.57082,0.11674,-0.12761,-0.48147,0.03224,,,,,,,,,,,,,,,,,,,,,,,,,,0,0,0,0,0
6.2974,1783972080.4732,1,1,2.0000,-0.0000,1.42239,-0.01443,-2.63392,1.07752,1.57082,0.11674,-0.12761,-0.48148,0.03224,,,,,,,,,,,,,,,,,,,,,,,,,,0,0,0,0,0
6.4365,1783972080.6122,1,1,2.0000,-0.0000,1.42239,-0.01470,-2.63384,1.07786,1.57082,0.11674,-0.12759,-0.48159,0.03221,,,,,,,,,,,,,,,,,,,,,,,,,,0,0,0,0,0
6.4371,1783972080.6128,1,1,2.0000,-0.0000,1.42239,-0.01470,-2.63384,1.07786,1.57082,0.11674,-0.12759,-0.48159,0.03221,,,,,,,,,,,,,,,,,,,,,,,,,,0,0,0,0,0
6.4374,1783972080.6132,1,1,2.0000,-0.0000,1.42239,-0.01470,-2.63384,1.07786,1.57082,0.11674,-0.12759,-0.48159,0.03221,,,,,,,,,,,,,,,,,,,,,,,,,,0,0,0,0,0
6.4377,1783972080.6134,1,1,2.0000,-0.0000,1.42239,-0.01470,-2.63384,1.07786,1.57082,0.11674,-0.12759,-0.48159,0.03221,,,,,,,,,,,,,,,,,,,,,,,,,,0,0,0,0,0
6.4383,1783972080.6140,1,1,2.0000,-0.0000,1.42239,-0.01470,-2.63384,1.07786,1.57082,0.11674,-0.12759,-0.48159,0.03221,,,,,,,,,,,,,,,,,,,,,,,,,,0,0,0,0,0
6.4385,1783972080.6142,1,1,2.0000,-0.0000,1.42239,-0.01470,-2.63384,1.07786,1.57082,0.11674,-0.12759,-0.48159,0.03221,,,,,,,,,,,,,,,,,,,,,,,,,,0,0,0,0,0
6.4388,1783972080.6145,1,1,2.0000,-0.0000,1.42239,-0.01470,-2.63384,1.07786,1.57082,0.11674,-0.12759,-0.48159,0.03221,,,,,,,,,,,,,,,,,,,,,,,,,,0,0,0,0,0
6.4449,1783972080.6207,1,1,2.0000,-0.0000,1.42239,-0.01470,-2.63384,1.07786,1.57082,0.11674,-0.12759,-0.48159,0.03221,,,,,,,,,,,,,,,,,,,,,,,,,,0,0,0,0,0
6.4658,1783972080.6415,1,1,2.0000,-0.0000,1.42239,-0.01470,-2.63384,1.07786,1.57082,0.11674,-0.12759,-0.48159,0.03221,,,,,,,,,,,,,,,,,,,,,,,,,,0,0,0,0,0
6.5145,1783972080.6902,1,1,2.0000,-0.0000,1.42239,-0.01470,-2.63384,1.07786,1.57082,0.11674,-0.12759,-0.48159,0.03221,,,,,,,,,,,,,,,,,,,,,,,,,,0,0,0,0,0
6.5148,1783972080.6905,1,1,2.0000,-0.0000,1.42239,-0.01470,-2.63384,1.07786,1.57082,0.11674,-0.12759,-0.48159,0.03221,,,,,,,,,,,,,,,,,,,,,,,,,,0,0,0,0,0
6.5265,1783972080.7022,1,1,2.0000,-0.0000,1.42239,-0.01470,-2.63384,1.07787,1.57082,0.11674,-0.12759,-0.48158,0.03221,,,,,,,,,,,,,,,,,,,,,,,,,,0,0,0,0,0
6.5268,1783972080.7025,1,1,2.0000,-0.0000,1.42239,-0.01470,-2.63384,1.07787,1.57082,0.11674,-0.12759,-0.48158,0.03221,,,,,,,,,,,,,,,,,,,,,,,,,,0,0,0,0,0
6.5364,1783972080.7122,1,1,2.0000,-0.0000,1.42239,-0.01471,-2.63386,1.07788,1.57082,0.11674,-0.12760,-0.48157,0.03220,,,,,,,,,,,,,,,,,,,,,,,,,,0,0,0,0,0
6.5848,1783972080.7605,1,1,2.0000,-0.0000,1.42239,-0.01481,-2.63397,1.07800,1.57082,0.11674,-0.12761,-0.48150,0.03212,,,,,,,,,,,,,,,,,,,,,,,,,,0,0,0,0,0
6.6300,1783972080.8058,1,1,2.0000,-0.0000,1.42239,-0.01506,-2.63407,1.07829,1.57082,0.11674,-0.12761,-0.48146,0.03202,,,,,,,,,,,,,,,,,,,,,,,,,,0,0,0,0,0
6.6307,1783972080.8064,1,1,2.0000,-0.0000,1.42239,-0.01510,-2.63409,1.07834,1.57082,0.11674,-0.12761,-0.48146,0.03200,,,,,,,,,,,,,,,,,,,,,,,,,,0,0,0,0,0
6.6309,1783972080.8067,1,1,2.0000,-0.0000,1.42239,-0.01510,-2.63409,1.07834,1.57082,0.11674,-0.12761,-0.48146,0.03200,,,,,,,,,,,,,,,,,,,,,,,,,,0,0,0,0,0
6.6314,1783972080.8072,1,1,2.0000,-0.0000,1.42239,-0.01510,-2.63409,1.07834,1.57082,0.11674,-0.12761,-0.48146,0.03200,,,,,,,,,,,,,,,,,,,,,,,,,,0,0,0,0,0
6.6317,1783972080.8074,1,1,2.0000,-0.0000,1.42239,-0.01510,-2.63409,1.07834,1.57082,0.11674,-0.12761,-0.48146,0.03200,,,,,,,,,,,,,,,,,,,,,,,,,,0,0,0,0,0
6.6647,1783972080.8405,1,1,2.0000,-0.0000,1.42239,-0.01529,-2.63413,1.07856,1.57082,0.11674,-0.12761,-0.48146,0.03194,,,,,,,,,,,,,,,,,,,,,,,,,,0,0,0,0,0
6.7533,1783972080.9290,1,1,2.0000,-0.0000,1.42238,-0.01587,-2.63412,1.07929,1.57082,0.11674,-0.12760,-0.48156,0.03180,,,,,,,,,,,,,,,,,,,,,,,,,,0,0,0,0,0
6.7536,1783972080.9294,1,1,2.0000,-0.0000,1.42238,-0.01587,-2.63412,1.07929,1.57082,0.11674,-0.12760,-0.48156,0.03180,,,,,,,,,,,,,,,,,,,,,,,,,,0,0,0,0,0
6.7541,1783972080.9298,1,1,2.0000,-0.0000,1.42238,-0.01587,-2.63412,1.07929,1.57082,0.11674,-0.12760,-0.48156,0.03180,,,,,,,,,,,,,,,,,,,,,,,,,,0,0,0,0,0
6.7543,1783972080.9301,1,1,2.0000,-0.0000,1.42238,-0.01587,-2.63412,1.07929,1.57082,0.11674,-0.12760,-0.48156,0.03180,,,,,,,,,,,,,,,,,,,,,,,,,,0,0,0,0,0
6.7547,1783972080.9305,1,1,2.0000,-0.0000,1.42238,-0.01589,-2.63411,1.07930,1.57082,0.11674,-0.12759,-0.48157,0.03180,,,,,,,,,,,,,,,,,,,,,,,,,,0,0,0,0,0
6.7688,1783972080.9445,1,1,2.0000,-0.0000,1.42238,-0.01589,-2.63410,1.07931,1.57082,0.11674,-0.12759,-0.48158,0.03181,,,,,,,,,,,,,,,,,,,,,,,,,,0,0,0,0,0
6.7693,1783972080.9451,1,1,2.0000,-0.0000,1.42238,-0.01589,-2.63410,1.07931,1.57082,0.11674,-0.12759,-0.48158,0.03181,,,,,,,,,,,,,,,,,,,,,,,,,,0,0,0,0,0
6.7696,1783972080.9453,1,1,2.0000,-0.0000,1.42238,-0.01589,-2.63410,1.07931,1.57082,0.11674,-0.12759,-0.48158,0.03181,,,,,,,,,,,,,,,,,,,,,,,,,,0,0,0,0,0
6.7699,1783972080.9457,1,1,2.0000,-0.0000,1.42238,-0.01589,-2.63410,1.07931,1.57082,0.11674,-0.12759,-0.48158,0.03181,,,,,,,,,,,,,,,,,,,,,,,,,,0,0,0,0,0
6.7705,1783972080.9462,1,1,2.0000,-0.0000,1.42238,-0.01589,-2.63410,1.07931,1.57082,0.11674,-0.12759,-0.48158,0.03181,,,,,,,,,,,,,,,,,,,,,,,,,,0,0,0,0,0
6.9335,1783972081.1093,1,1,2.0000,-0.0000,1.42238,-0.01589,-2.63410,1.07931,1.57082,0.11674,-0.12759,-0.48158,0.03181,,,,,,,,,,,,,,,,,,,,,,,,,,0,0,0,0,0
6.9339,1783972081.1097,1,1,2.0000,-0.0000,1.42238,-0.01589,-2.63410,1.07931,1.57082,0.11674,-0.12759,-0.48158,0.03181,,,,,,,,,,,,,,,,,,,,,,,,,,0,0,0,0,0
6.9346,1783972081.1104,1,1,2.0000,-0.0000,1.42238,-0.01589,-2.63410,1.07931,1.57082,0.11674,-0.12759,-0.48158,0.03181,,,,,,,,,,,,,,,,,,,,,,,,,,0,0,0,0,0
6.9348,1783972081.1106,1,1,2.0000,-0.0000,1.42238,-0.01589,-2.63410,1.07931,1.57082,0.11674,-0.12759,-0.48158,0.03181,,,,,,,,,,,,,,,,,,,,,,,,,,0,0,0,0,0
6.9351,1783972081.1108,1,1,2.0000,-0.0000,1.42238,-0.01589,-2.63410,1.07931,1.57082,0.11674,-0.12759,-0.48158,0.03181,,,,,,,,,,,,,,,,,,,,,,,,,,0,0,0,0,0
6.9354,1783972081.1111,1,1,2.0000,-0.0000,1.42238,-0.01589,-2.63410,1.07931,1.57082,0.11674,-0.12759,-0.48158,0.03181,,,,,,,,,,,,,,,,,,,,,,,,,,0,0,0,0,0
6.9357,1783972081.1115,1,1,2.0000,-0.0000,1.42238,-0.01589,-2.63410,1.07931,1.57082,0.11674,-0.12759,-0.48158,0.03181,,,,,,,,,,,,,,,,,,,,,,,,,,0,0,0,0,0
6.9360,1783972081.1117,1,1,2.0000,-0.0000,1.42238,-0.01589,-2.63410,1.07931,1.57082,0.11674,-0.12759,-0.48158,0.03181,,,,,,,,,,,,,,,,,,,,,,,,,,0,0,0,0,0
6.9363,1783972081.1120,1,1,2.0000,-0.0000,1.42238,-0.01589,-2.63410,1.07931,1.57082,0.11674,-0.12759,-0.48158,0.03181,,,,,,,,,,,,,,,,,,,,,,,,,,0,0,0,0,0
6.9366,1783972081.1123,1,1,2.0000,-0.0000,1.42238,-0.01589,-2.63410,1.07931,1.57082,0.11674,-0.12759,-0.48158,0.03181,,,,,,,,,,,,,,,,,,,,,,,,,,0,0,0,0,0
6.9371,1783972081.1128,1,1,2.0000,-0.0000,1.42238,-0.01589,-2.63410,1.07931,1.57082,0.11674,-0.12759,-0.48158,0.03181,,,,,,,,,,,,,,,,,,,,,,,,,,0,0,0,0,0
6.9375,1783972081.1132,1,1,2.0000,-0.0000,1.42238,-0.01589,-2.63410,1.07931,1.57082,0.11674,-0.12759,-0.48158,0.03181,,,,,,,,,,,,,,,,,,,,,,,,,,0,0,0,0,0
6.9380,1783972081.1138,1,1,2.0000,-0.0000,1.42238,-0.01589,-2.63410,1.07931,1.57082,0.11674,-0.12759,-0.48158,0.03181,,,,,,,,,,,,,,,,,,,,,,,,,,0,0,0,0,0
6.9946,1783972081.1704,1,1,2.0000,-0.0000,1.42238,-0.01600,-2.63423,1.07944,1.57082,0.11674,-0.12760,-0.48150,0.03172,,,,,,,,,,,,,,,,,,,,,,,,,,0,0,0,0,0
6.9951,1783972081.1708,1,1,2.0000,-0.0000,1.42238,-0.01600,-2.63423,1.07944,1.57082,0.11674,-0.12760,-0.48150,0.03172,,,,,,,,,,,,,,,,,,,,,,,,,,0,0,0,0,0
6.9956,1783972081.1713,1,1,2.0000,-0.0000,1.42238,-0.01600,-2.63423,1.07944,1.57082,0.11674,-0.12760,-0.48150,0.03172,,,,,,,,,,,,,,,,,,,,,,,,,,0,0,0,0,0
6.9958,1783972081.1716,1,1,2.0000,-0.0000,1.42238,-0.01600,-2.63423,1.07944,1.57082,0.11674,-0.12760,-0.48150,0.03172,,,,,,,,,,,,,,,,,,,,,,,,,,0,0,0,0,0
6.9961,1783972081.1719,1,1,2.0000,-0.0000,1.42238,-0.01600,-2.63423,1.07944,1.57082,0.11674,-0.12760,-0.48150,0.03172,,,,,,,,,,,,,,,,,,,,,,,,,,0,0,0,0,0
6.9964,1783972081.1721,1,1,2.0000,-0.0000,1.42238,-0.01600,-2.63423,1.07944,1.57082,0.11674,-0.12760,-0.48150,0.03172,,,,,,,,,,,,,,,,,,,,,,,,,,0,0,0,0,0
6.9967,1783972081.1724,1,1,2.0000,-0.0000,1.42238,-0.01600,-2.63423,1.07944,1.57082,0.11674,-0.12760,-0.48150,0.03172,,,,,,,,,,,,,,,,,,,,,,,,,,0,0,0,0,0
7.2319,1783972081.4076,1,1,2.0000,-0.0000,1.42238,-0.01704,-2.63446,1.08068,1.57082,0.11674,-0.12760,-0.48149,0.03137,,,,,,,,,,,,,,,,,,,,,,,,,,0,0,0,0,0
7.2322,1783972081.4079,1,1,2.0000,-0.0000,1.42238,-0.01704,-2.63446,1.08068,1.57082,0.11674,-0.12760,-0.48149,0.03137,,,,,,,,,,,,,,,,,,,,,,,,,,0,0,0,0,0
7.2326,1783972081.4083,1,1,2.0000,-0.0000,1.42238,-0.01704,-2.63446,1.08068,1.57082,0.11674,-0.12760,-0.48149,0.03137,,,,,,,,,,,,,,,,,,,,,,,,,,0,0,0,0,0
7.2330,1783972081.4087,1,1,2.0000,-0.0000,1.42238,-0.01704,-2.63446,1.08068,1.57082,0.11674,-0.12760,-0.48149,0.03137,,,,,,,,,,,,,,,,,,,,,,,,,,0,0,0,0,0
7.2332,1783972081.4089,1,1,2.0000,-0.0000,1.42238,-0.01704,-2.63446,1.08068,1.57082,0.11674,-0.12760,-0.48149,0.03137,,,,,,,,,,,,,,,,,,,,,,,,,,0,0,0,0,0
7.2336,1783972081.4093,1,1,2.0000,-0.0000,1.42238,-0.01704,-2.63446,1.08068,1.57082,0.11674,-0.12760,-0.48149,0.03137,,,,,,,,,,,,,,,,,,,,,,,,,,0,0,0,0,0
7.2340,1783972081.4098,1,1,2.0000,-0.0000,1.42238,-0.01704,-2.63446,1.08068,1.57082,0.11674,-0.12760,-0.48149,0.03137,,,,,,,,,,,,,,,,,,,,,,,,,,0,0,0,0,0
7.2347,1783972081.4105,1,1,2.0000,-0.0000,1.42238,-0.01704,-2.63446,1.08068,1.57082,0.11674,-0.12760,-0.48149,0.03137,,,,,,,,,,,,,,,,,,,,,,,,,,0,0,0,0,0
7.2350,1783972081.4107,1,1,2.0000,-0.0000,1.42238,-0.01704,-2.63446,1.08068,1.57082,0.11674,-0.12760,-0.48149,0.03137,,,,,,,,,,,,,,,,,,,,,,,,,,0,0,0,0,0
7.2352,1783972081.4110,1,1,2.0000,-0.0000,1.42238,-0.01704,-2.63446,1.08068,1.57082,0.11674,-0.12760,-0.48149,0.03137,,,,,,,,,,,,,,,,,,,,,,,,,,0,0,0,0,0
7.2355,1783972081.4112,1,1,2.0000,-0.0000,1.42238,-0.01704,-2.63446,1.08068,1.57082,0.11674,-0.12760,-0.48149,0.03137,,,,,,,,,,,,,,,,,,,,,,,,,,0,0,0,0,0
7.2359,1783972081.4116,1,1,2.0000,-0.0000,1.42238,-0.01704,-2.63446,1.08068,1.57082,0.11674,-0.12760,-0.48149,0.03137,,,,,,,,,,,,,,,,,,,,,,,,,,0,0,0,0,0
7.2361,1783972081.4118,1,1,2.0000,-0.0000,1.42238,-0.01704,-2.63446,1.08068,1.57082,0.11674,-0.12760,-0.48149,0.03137,,,,,,,,,,,,,,,,,,,,,,,,,,0,0,0,0,0
7.2363,1783972081.4121,1,1,2.0000,-0.0000,1.42238,-0.01704,-2.63446,1.08068,1.57082,0.11674,-0.12760,-0.48149,0.03137,,,,,,,,,,,,,,,,,,,,,,,,,,0,0,0,0,0
7.2366,1783972081.4123,1,1,2.0000,-0.0000,1.42238,-0.01704,-2.63446,1.08068,1.57082,0.11674,-0.12760,-0.48149,0.03137,,,,,,,,,,,,,,,,,,,,,,,,,,0,0,0,0,0
7.2368,1783972081.4125,1,1,2.0000,-0.0000,1.42238,-0.01704,-2.63446,1.08068,1.57082,0.11674,-0.12760,-0.48149,0.03137,,,,,,,,,,,,,,,,,,,,,,,,,,0,0,0,0,0
7.2372,1783972081.4129,1,1,2.0000,-0.0000,1.42238,-0.01704,-2.63446,1.08068,1.57082,0.11674,-0.12760,-0.48149,0.03137,,,,,,,,,,,,,,,,,,,,,,,,,,0,0,0,0,0
7.2374,1783972081.4132,1,1,2.0000,-0.0000,1.42238,-0.01704,-2.63446,1.08068,1.57082,0.11674,-0.12760,-0.48149,0.03137,,,,,,,,,,,,,,,,,,,,,,,,,,0,0,0,0,0
7.2377,1783972081.4134,1,1,2.0000,-0.0000,1.42238,-0.01704,-2.63446,1.08068,1.57082,0.11674,-0.12760,-0.48149,0.03137,,,,,,,,,,,,,,,,,,,,,,,,,,0,0,0,0,0
7.2381,1783972081.4138,1,1,2.0000,-0.0000,1.42238,-0.01704,-2.63446,1.08068,1.57082,0.11674,-0.12760,-0.48149,0.03137,,,,,,,,,,,,,,,,,,,,,,,,,,0,0,0,0,0
7.2383,1783972081.4140,1,1,2.0000,-0.0000,1.42238,-0.01704,-2.63446,1.08068,1.57082,0.11674,-0.12760,-0.48149,0.03137,,,,,,,,,,,,,,,,,,,,,,,,,,0,0,0,0,0
7.2389,1783972081.4146,1,1,2.0000,-0.0000,1.42238,-0.01704,-2.63446,1.08068,1.57082,0.11674,-0.12760,-0.48149,0.03137,,,,,,,,,,,,,,,,,,,,,,,,,,0,0,0,0,0
7.2392,1783972081.4149,1,1,2.0000,-0.0000,1.42238,-0.01704,-2.63446,1.08068,1.57082,0.11674,-0.12760,-0.48149,0.03137,,,,,,,,,,,,,,,,,,,,,,,,,,0,0,0,0,0
7.3153,1783972081.4911,1,1,2.0000,-0.0000,1.42238,-0.01704,-2.63446,1.08068,1.57082,0.11674,-0.12760,-0.48149,0.03137,,,,,,,,,,,,,,,,,,,,,,,,,,0,0,0,0,0
7.3156,1783972081.4914,1,1,2.0000,-0.0000,1.42238,-0.01704,-2.63446,1.08068,1.57082,0.11674,-0.12760,-0.48149,0.03137,,,,,,,,,,,,,,,,,,,,,,,,,,0,0,0,0,0
7.3159,1783972081.4917,1,1,2.0000,-0.0000,1.42238,-0.01704,-2.63446,1.08068,1.57082,0.11674,-0.12760,-0.48149,0.03137,,,,,,,,,,,,,,,,,,,,,,,,,,0,0,0,0,0
7.3162,1783972081.4919,1,1,2.0000,-0.0000,1.42238,-0.01704,-2.63446,1.08068,1.57082,0.11674,-0.12760,-0.48149,0.03137,,,,,,,,,,,,,,,,,,,,,,,,,,0,0,0,0,0
7.3165,1783972081.4923,1,1,2.0000,-0.0000,1.42238,-0.01704,-2.63446,1.08068,1.57082,0.11674,-0.12760,-0.48149,0.03137,,,,,,,,,,,,,,,,,,,,,,,,,,0,0,0,0,0
7.3168,1783972081.4925,1,1,2.0000,-0.0000,1.42238,-0.01704,-2.63446,1.08068,1.57082,0.11674,-0.12760,-0.48149,0.03137,,,,,,,,,,,,,,,,,,,,,,,,,,0,0,0,0,0
7.3171,1783972081.4929,1,1,2.0000,-0.0000,1.42238,-0.01704,-2.63446,1.08068,1.57082,0.11674,-0.12760,-0.48149,0.03137,,,,,,,,,,,,,,,,,,,,,,,,,,0,0,0,0,0
7.3174,1783972081.4932,1,1,2.0000,-0.0000,1.42238,-0.01704,-2.63446,1.08068,1.57082,0.11674,-0.12760,-0.48149,0.03137,,,,,,,,,,,,,,,,,,,,,,,,,,0,0,0,0,0
7.3263,1783972081.5021,1,1,2.0000,-0.0000,1.42238,-0.01704,-2.63446,1.08068,1.57082,0.11674,-0.12760,-0.48149,0.03137,,,,,,,,,,,,,,,,,,,,,,,,,,0,0,0,0,0
7.3348,1783972081.5105,1,1,2.0000,-0.0000,1.42238,-0.01704,-2.63446,1.08068,1.57082,0.11674,-0.12760,-0.48149,0.03137,,,,,,,,,,,,,,,,,,,,,,,,,,0,0,0,0,0
7.3351,1783972081.5109,1,1,2.0000,-0.0000,1.42238,-0.01704,-2.63446,1.08068,1.57082,0.11674,-0.12760,-0.48149,0.03137,,,,,,,,,,,,,,,,,,,,,,,,,,0,0,0,0,0
7.3471,1783972081.5229,1,1,2.0000,-0.0000,1.42238,-0.01704,-2.63446,1.08068,1.57082,0.11674,-0.12760,-0.48149,0.03137,,,,,,,,,,,,,,,,,,,,,,,,,,0,0,0,0,0
7.3983,1783972081.5740,1,1,2.0000,-0.0000,1.42238,-0.01710,-2.63448,1.08077,1.57082,0.11674,-0.12760,-0.48149,0.03135,,,,,,,,,,,,,,,,,,,,,,,,,,0,0,0,0,0
7.3990,1783972081.5747,1,1,2.0000,-0.0000,1.42238,-0.01711,-2.63449,1.08078,1.57082,0.11674,-0.12760,-0.48148,0.03134,,,,,,,,,,,,,,,,,,,,,,,,,,0,0,0,0,0
7.3994,1783972081.5751,1,1,2.0000,-0.0000,1.42238,-0.01711,-2.63449,1.08078,1.57082,0.11674,-0.12760,-0.48148,0.03134,,,,,,,,,,,,,,,,,,,,,,,,,,0,0,0,0,0
7.5224,1783972081.6981,1,1,2.0000,-0.0000,1.42238,-0.01779,-2.63466,1.08159,1.57082,0.11673,-0.12761,-0.48146,0.03110,,,,,,,,,,,,,,,,,,,,,,,,,,0,0,0,0,0
7.5229,1783972081.6986,1,1,2.0000,-0.0000,1.42238,-0.01782,-2.63466,1.08163,1.57082,0.11673,-0.12761,-0.48146,0.03109,,,,,,,,,,,,,,,,,,,,,,,,,,0,0,0,0,0
7.5234,1783972081.6991,1,1,2.0000,-0.0000,1.42238,-0.01782,-2.63466,1.08163,1.57082,0.11673,-0.12761,-0.48146,0.03109,,,,,,,,,,,,,,,,,,,,,,,,,,0,0,0,0,0
7.5238,1783972081.6995,1,1,2.0000,-0.0000,1.42238,-0.01782,-2.63466,1.08163,1.57082,0.11673,-0.12761,-0.48146,0.03109,,,,,,,,,,,,,,,,,,,,,,,,,,0,0,0,0,0
7.5241,1783972081.6999,1,1,2.0000,-0.0000,1.42238,-0.01782,-2.63466,1.08163,1.57082,0.11673,-0.12761,-0.48146,0.03109,,,,,,,,,,,,,,,,,,,,,,,,,,0,0,0,0,0
7.5418,1783972081.7175,1,1,2.0000,-0.0000,1.42238,-0.01799,-2.63468,1.08183,1.57082,0.11673,-0.12760,-0.48147,0.03104,,,,,,,,,,,,,,,,,,,,,,,,,,0,0,0,0,0
7.5520,1783972081.7278,1,1,2.0000,-0.0000,1.42238,-0.01813,-2.63470,1.08201,1.57082,0.11673,-0.12760,-0.48148,0.03100,,,,,,,,,,,,,,,,,,,,,,,,,,0,0,0,0,0
7.6221,1783972081.7978,1,1,2.0000,-0.0000,1.42238,-0.01827,-2.63471,1.08218,1.57082,0.11673,-0.12760,-0.48150,0.03097,,,,,,,,,,,,,,,,,,,,,,,,,,0,0,0,0,0
7.6227,1783972081.7985,1,1,2.0000,-0.0000,1.42238,-0.01827,-2.63471,1.08218,1.57082,0.11673,-0.12760,-0.48150,0.03097,,,,,,,,,,,,,,,,,,,,,,,,,,0,0,0,0,0
7.6231,1783972081.7989,1,1,2.0000,-0.0000,1.42238,-0.01827,-2.63471,1.08218,1.57082,0.11673,-0.12760,-0.48150,0.03097,,,,,,,,,,,,,,,,,,,,,,,,,,0,0,0,0,0
7.6693,1783972081.8451,1,1,2.0000,-0.0000,1.42238,-0.01827,-2.63471,1.08218,1.57082,0.11673,-0.12760,-0.48150,0.03097,,,,,,,,,,,,,,,,,,,,,,,,,,0,0,0,0,0
7.6697,1783972081.8455,1,1,2.0000,-0.0000,1.42238,-0.01827,-2.63471,1.08218,1.57082,0.11673,-0.12760,-0.48150,0.03097,,,,,,,,,,,,,,,,,,,,,,,,,,0,0,0,0,0
7.6700,1783972081.8458,1,1,2.0000,-0.0000,1.42238,-0.01827,-2.63471,1.08218,1.57082,0.11673,-0.12760,-0.48150,0.03097,,,,,,,,,,,,,,,,,,,,,,,,,,0,0,0,0,0
7.6703,1783972081.8461,1,1,2.0000,-0.0000,1.42238,-0.01827,-2.63471,1.08218,1.57082,0.11673,-0.12760,-0.48150,0.03097,,,,,,,,,,,,,,,,,,,,,,,,,,0,0,0,0,0
7.8315,1783972082.0072,1,1,2.0000,-0.0000,1.42238,-0.01836,-2.63477,1.08231,1.57083,0.11673,-0.12760,-0.48147,0.03092,,,,,,,,,,,,,,,,,,,,,,,,,,0,0,0,0,0
7.8316,1783972082.0074,1,1,2.0000,-0.0000,1.42238,-0.01836,-2.63477,1.08231,1.57083,0.11673,-0.12760,-0.48147,0.03092,,,,,,,,,,,,,,,,,,,,,,,,,,0,0,0,0,0
7.8319,1783972082.0076,1,1,2.0000,-0.0000,1.42238,-0.01836,-2.63477,1.08231,1.57083,0.11673,-0.12760,-0.48147,0.03092,,,,,,,,,,,,,,,,,,,,,,,,,,0,0,0,0,0
7.8322,1783972082.0079,1,1,2.0000,-0.0000,1.42238,-0.01836,-2.63477,1.08231,1.57083,0.11673,-0.12760,-0.48147,0.03092,,,,,,,,,,,,,,,,,,,,,,,,,,0,0,0,0,0
7.8325,1783972082.0083,1,1,2.0000,-0.0000,1.42238,-0.01836,-2.63477,1.08231,1.57083,0.11673,-0.12760,-0.48147,0.03092,,,,,,,,,,,,,,,,,,,,,,,,,,0,0,0,0,0
7.8329,1783972082.0086,1,1,2.0000,-0.0000,1.42238,-0.01836,-2.63477,1.08231,1.57083,0.11673,-0.12760,-0.48147,0.03092,,,,,,,,,,,,,,,,,,,,,,,,,,0,0,0,0,0
7.8334,1783972082.0091,1,1,2.0000,-0.0000,1.42238,-0.01836,-2.63477,1.08231,1.57083,0.11673,-0.12760,-0.48147,0.03092,,,,,,,,,,,,,,,,,,,,,,,,,,0,0,0,0,0
7.8338,1783972082.0095,1,1,2.0000,-0.0000,1.42238,-0.01836,-2.63477,1.08231,1.57083,0.11673,-0.12760,-0.48147,0.03092,,,,,,,,,,,,,,,,,,,,,,,,,,0,0,0,0,0
7.8341,1783972082.0098,1,1,2.0000,-0.0000,1.42238,-0.01836,-2.63477,1.08231,1.57083,0.11673,-0.12760,-0.48147,0.03092,,,,,,,,,,,,,,,,,,,,,,,,,,0,0,0,0,0
7.8347,1783972082.0105,1,1,2.0000,-0.0000,1.42238,-0.01838,-2.63478,1.08233,1.57083,0.11673,-0.12760,-0.48147,0.03091,,,,,,,,,,,,,,,,,,,,,,,,,,0,0,0,0,0
7.8349,1783972082.0107,1,1,2.0000,-0.0000,1.42238,-0.01838,-2.63478,1.08233,1.57083,0.11673,-0.12760,-0.48147,0.03091,,,,,,,,,,,,,,,,,,,,,,,,,,0,0,0,0,0
7.8353,1783972082.0111,1,1,2.0000,-0.0000,1.42238,-0.01838,-2.63478,1.08233,1.57083,0.11673,-0.12760,-0.48147,0.03091,,,,,,,,,,,,,,,,,,,,,,,,,,0,0,0,0,0
7.8357,1783972082.0114,1,1,2.0000,-0.0000,1.42238,-0.01838,-2.63478,1.08233,1.57083,0.11673,-0.12760,-0.48147,0.03091,,,,,,,,,,,,,,,,,,,,,,,,,,0,0,0,0,0
7.8361,1783972082.0119,1,1,2.0000,-0.0000,1.42238,-0.01838,-2.63478,1.08233,1.57083,0.11673,-0.12760,-0.48147,0.03091,,,,,,,,,,,,,,,,,,,,,,,,,,0,0,0,0,0
7.8365,1783972082.0122,1,1,2.0000,-0.0000,1.42238,-0.01838,-2.63478,1.08233,1.57083,0.11673,-0.12760,-0.48147,0.03091,,,,,,,,,,,,,,,,,,,,,,,,,,0,0,0,0,0
7.9767,1783972082.1525,1,1,2.0000,-0.0000,1.42237,-0.01932,-2.63495,1.08345,1.57083,0.11673,-0.12760,-0.48148,0.03060,,,,,,,,,,,,,,,,,,,,,,,,,,0,0,0,0,0
7.9772,1783972082.1529,1,1,2.0000,-0.0000,1.42237,-0.01932,-2.63495,1.08345,1.57083,0.11673,-0.12760,-0.48148,0.03060,,,,,,,,,,,,,,,,,,,,,,,,,,0,0,0,0,0
7.9776,1783972082.1534,1,1,2.0000,-0.0000,1.42237,-0.01932,-2.63495,1.08345,1.57083,0.11673,-0.12760,-0.48148,0.03060,,,,,,,,,,,,,,,,,,,,,,,,,,0,0,0,0,0
7.9781,1783972082.1538,1,1,2.0000,-0.0000,1.42237,-0.01932,-2.63495,1.08345,1.57083,0.11673,-0.12760,-0.48148,0.03060,,,,,,,,,,,,,,,,,,,,,,,,,,0,0,0,0,0
7.9787,1783972082.1545,1,1,2.0000,-0.0000,1.42237,-0.01936,-2.63496,1.08350,1.57083,0.11673,-0.12760,-0.48148,0.03059,,,,,,,,,,,,,,,,,,,,,,,,,,0,0,0,0,0
7.9791,1783972082.1549,1,1,2.0000,-0.0000,1.42237,-0.01936,-2.63496,1.08350,1.57083,0.11673,-0.12760,-0.48148,0.03059,,,,,,,,,,,,,,,,,,,,,,,,,,0,0,0,0,0
7.9796,1783972082.1553,1,1,2.0000,-0.0000,1.42237,-0.01936,-2.63496,1.08350,1.57083,0.11673,-0.12760,-0.48148,0.03059,,,,,,,,,,,,,,,,,,,,,,,,,,0,0,0,0,0
8.0523,1783972082.2281,1,1,2.0000,-0.0000,1.42237,-0.01945,-2.63497,1.08363,1.57083,0.11673,-0.12760,-0.48149,0.03057,,,,,,,,,,,,,,,,,,,,,,,,,,0,0,0,0,0
8.0526,1783972082.2283,1,1,2.0000,-0.0000,1.42237,-0.01945,-2.63497,1.08363,1.57083,0.11673,-0.12760,-0.48149,0.03057,,,,,,,,,,,,,,,,,,,,,,,,,,0,0,0,0,0
8.0529,1783972082.2286,1,1,2.0000,-0.0000,1.42237,-0.01945,-2.63497,1.08363,1.57083,0.11673,-0.12760,-0.48149,0.03057,,,,,,,,,,,,,,,,,,,,,,,,,,0,0,0,0,0
8.0533,1783972082.2290,1,1,2.0000,-0.0000,1.42237,-0.01945,-2.63497,1.08363,1.57083,0.11673,-0.12760,-0.48149,0.03057,,,,,,,,,,,,,,,,,,,,,,,,,,0,0,0,0,0
8.1439,1783972082.3197,1,1,2.0000,-0.0000,1.42237,-0.01945,-2.63497,1.08363,1.57083,0.11673,-0.12760,-0.48149,0.03057,,,,,,,,,,,,,,,,,,,,,,,,,,0,0,0,0,0
8.1444,1783972082.3202,1,1,2.0000,-0.0000,1.42237,-0.01945,-2.63497,1.08363,1.57083,0.11673,-0.12760,-0.48149,0.03057,,,,,,,,,,,,,,,,,,,,,,,,,,0,0,0,0,0
8.1447,1783972082.3204,1,1,2.0000,-0.0000,1.42237,-0.01945,-2.63497,1.08363,1.57083,0.11673,-0.12760,-0.48149,0.03057,,,,,,,,,,,,,,,,,,,,,,,,,,0,0,0,0,0
8.1451,1783972082.3209,1,1,2.0000,-0.0000,1.42237,-0.01945,-2.63497,1.08363,1.57083,0.11673,-0.12760,-0.48149,0.03057,,,,,,,,,,,,,,,,,,,,,,,,,,0,0,0,0,0
8.1954,1783972082.3711,1,1,2.0000,-0.0000,1.42237,-0.01945,-2.63497,1.08363,1.57083,0.11673,-0.12760,-0.48149,0.03057,,,,,,,,,,,,,,,,,,,,,,,,,,0,0,0,0,0
8.1959,1783972082.3717,1,1,2.0000,-0.0000,1.42237,-0.01945,-2.63497,1.08363,1.57083,0.11673,-0.12760,-0.48149,0.03057,,,,,,,,,,,,,,,,,,,,,,,,,,0,0,0,0,0
8.1964,1783972082.3721,1,1,2.0000,-0.0000,1.42237,-0.01945,-2.63497,1.08363,1.57083,0.11673,-0.12760,-0.48149,0.03057,,,,,,,,,,,,,,,,,,,,,,,,,,0,0,0,0,0
8.1967,1783972082.3724,1,1,2.0000,-0.0000,1.42237,-0.01945,-2.63497,1.08363,1.57083,0.11673,-0.12760,-0.48149,0.03057,,,,,,,,,,,,,,,,,,,,,,,,,,0,0,0,0,0
8.1971,1783972082.3728,1,1,2.0000,-0.0000,1.42237,-0.01945,-2.63497,1.08363,1.57083,0.11673,-0.12760,-0.48149,0.03057,,,,,,,,,,,,,,,,,,,,,,,,,,0,0,0,0,0
8.1974,1783972082.3731,1,1,2.0000,-0.0000,1.42237,-0.01945,-2.63497,1.08363,1.57083,0.11673,-0.12760,-0.48149,0.03057,,,,,,,,,,,,,,,,,,,,,,,,,,0,0,0,0,0
8.2382,1783972082.4140,1,1,2.0000,-0.0000,1.42237,-0.01949,-2.63499,1.08368,1.57083,0.11673,-0.12760,-0.48149,0.03055,,,,,,,,,,,,,,,,,,,,,,,,,,0,0,0,0,0
8.2388,1783972082.4146,1,1,2.0000,-0.0000,1.42237,-0.01951,-2.63500,1.08370,1.57083,0.11673,-0.12760,-0.48148,0.03054,,,,,,,,,,,,,,,,,,,,,,,,,,0,0,0,0,0
8.2390,1783972082.4148,1,1,2.0000,-0.0000,1.42237,-0.01951,-2.63500,1.08370,1.57083,0.11673,-0.12760,-0.48148,0.03054,,,,,,,,,,,,,,,,,,,,,,,,,,0,0,0,0,0
8.2464,1783972082.4221,1,1,2.0000,-0.0000,1.42237,-0.01953,-2.63501,1.08372,1.57083,0.11673,-0.12760,-0.48147,0.03053,,,,,,,,,,,,,,,,,,,,,,,,,,0,0,0,0,0
8.2469,1783972082.4226,1,1,2.0000,-0.0000,1.42237,-0.01955,-2.63503,1.08374,1.57083,0.11673,-0.12760,-0.48146,0.03052,,,,,,,,,,,,,,,,,,,,,,,,,,0,0,0,0,0
8.2549,1783972082.4307,1,1,2.0000,-0.0000,1.42237,-0.01957,-2.63504,1.08377,1.57083,0.11673,-0.12760,-0.48146,0.03050,,,,,,,,,,,,,,,,,,,,,,,,,,0,0,0,0,0
8.3745,1783972082.5503,1,1,2.0000,-0.0000,1.42237,-0.02023,-2.63518,1.08455,1.57083,0.11673,-0.12760,-0.48145,0.03028,,,,,,,,,,,,,,,,,,,,,,,,,,0,0,0,0,0
8.3751,1783972082.5509,1,1,2.0000,-0.0000,1.42237,-0.02028,-2.63518,1.08460,1.57083,0.11673,-0.12760,-0.48146,0.03027,,,,,,,,,,,,,,,,,,,,,,,,,,0,0,0,0,0
8.3754,1783972082.5511,1,1,2.0000,-0.0000,1.42237,-0.02028,-2.63518,1.08460,1.57083,0.11673,-0.12760,-0.48146,0.03027,,,,,,,,,,,,,,,,,,,,,,,,,,0,0,0,0,0
8.4555,1783972082.6312,1,1,2.0000,-0.0000,1.42237,-0.02062,-2.63522,1.08502,1.57083,0.11673,-0.12760,-0.48148,0.03017,,,,,,,,,,,,,,,,,,,,,,,,,,0,0,0,0,0
8.4557,1783972082.6315,1,1,2.0000,-0.0000,1.42237,-0.02062,-2.63522,1.08502,1.57083,0.11673,-0.12760,-0.48148,0.03017,,,,,,,,,,,,,,,,,,,,,,,,,,0,0,0,0,0
8.4561,1783972082.6318,1,1,2.0000,-0.0000,1.42237,-0.02062,-2.63522,1.08502,1.57083,0.11673,-0.12760,-0.48148,0.03017,,,,,,,,,,,,,,,,,,,,,,,,,,0,0,0,0,0
8.4563,1783972082.6321,1,1,2.0000,-0.0000,1.42237,-0.02062,-2.63522,1.08502,1.57083,0.11673,-0.12760,-0.48148,0.03017,,,,,,,,,,,,,,,,,,,,,,,,,,0,0,0,0,0
8.4566,1783972082.6324,1,1,2.0000,-0.0000,1.42237,-0.02062,-2.63522,1.08502,1.57083,0.11673,-0.12760,-0.48148,0.03017,,,,,,,,,,,,,,,,,,,,,,,,,,0,0,0,0,0
8.4569,1783972082.6326,1,1,2.0000,-0.0000,1.42237,-0.02062,-2.63522,1.08502,1.57083,0.11673,-0.12760,-0.48148,0.03017,,,,,,,,,,,,,,,,,,,,,,,,,,0,0,0,0,0
8.4780,1783972082.6538,1,1,2.0000,-0.0000,1.42237,-0.02062,-2.63522,1.08502,1.57083,0.11673,-0.12760,-0.48148,0.03017,,,,,,,,,,,,,,,,,,,,,,,,,,0,0,0,0,0
8.4784,1783972082.6542,1,1,2.0000,-0.0000,1.42237,-0.02062,-2.63522,1.08502,1.57083,0.11673,-0.12760,-0.48148,0.03017,,,,,,,,,,,,,,,,,,,,,,,,,,0,0,0,0,0
8.4791,1783972082.6549,1,1,2.0000,-0.0000,1.42237,-0.02062,-2.63522,1.08502,1.57083,0.11673,-0.12760,-0.48148,0.03017,,,,,,,,,,,,,,,,,,,,,,,,,,0,0,0,0,0
8.6072,1783972082.7829,1,1,2.0000,-0.0000,1.42237,-0.02062,-2.63522,1.08502,1.57083,0.11673,-0.12760,-0.48148,0.03017,,,,,,,,,,,,,,,,,,,,,,,,,,0,0,0,0,0
8.6077,1783972082.7834,1,1,2.0000,-0.0000,1.42237,-0.02062,-2.63522,1.08502,1.57083,0.11673,-0.12760,-0.48148,0.03017,,,,,,,,,,,,,,,,,,,,,,,,,,0,0,0,0,0
8.6081,1783972082.7838,1,1,2.0000,-0.0000,1.42237,-0.02062,-2.63522,1.08502,1.57083,0.11673,-0.12760,-0.48148,0.03017,,,,,,,,,,,,,,,,,,,,,,,,,,0,0,0,0,0
8.6085,1783972082.7842,1,1,2.0000,-0.0000,1.42237,-0.02062,-2.63522,1.08502,1.57083,0.11673,-0.12760,-0.48148,0.03017,,,,,,,,,,,,,,,,,,,,,,,,,,0,0,0,0,0
8.6093,1783972082.7850,1,1,2.0000,-0.0000,1.42237,-0.02062,-2.63522,1.08502,1.57083,0.11673,-0.12760,-0.48148,0.03017,,,,,,,,,,,,,,,,,,,,,,,,,,0,0,0,0,0
8.6644,1783972082.8401,1,1,2.0000,-0.0000,1.42237,-0.02070,-2.63524,1.08513,1.57083,0.11673,-0.12760,-0.48148,0.03015,,,,,,,,,,,,,,,,,,,,,,,,,,0,0,0,0,0
8.6649,1783972082.8406,1,1,2.0000,-0.0000,1.42237,-0.02070,-2.63524,1.08513,1.57083,0.11673,-0.12760,-0.48148,0.03015,,,,,,,,,,,,,,,,,,,,,,,,,,0,0,0,0,0
8.6654,1783972082.8412,1,1,2.0000,-0.0000,1.42237,-0.02070,-2.63524,1.08513,1.57083,0.11673,-0.12760,-0.48148,0.03015,,,,,,,,,,,,,,,,,,,,,,,,,,0,0,0,0,0
8.6661,1783972082.8419,1,1,2.0000,-0.0000,1.42237,-0.02070,-2.63524,1.08513,1.57083,0.11673,-0.12760,-0.48148,0.03015,,,,,,,,,,,,,,,,,,,,,,,,,,0,0,0,0,0
8.6927,1783972082.8684,1,1,2.0000,-0.0000,1.42237,-0.02086,-2.63535,1.08532,1.57083,0.11673,-0.12760,-0.48143,0.03006,,,,,,,,,,,,,,,,,,,,,,,,,,0,0,0,0,0
8.6930,1783972082.8687,1,1,2.0000,-0.0000,1.42237,-0.02086,-2.63535,1.08532,1.57083,0.11673,-0.12760,-0.48143,0.03006,,,,,,,,,,,,,,,,,,,,,,,,,,0,0,0,0,0
8.8590,1783972083.0347,1,1,2.0000,-0.0000,1.42236,-0.02189,-2.63540,1.08656,1.57083,0.11673,-0.12758,-0.48155,0.02979,,,,,,,,,,,,,,,,,,,,,,,,,,0,0,0,0,0
8.8594,1783972083.0351,1,1,2.0000,-0.0000,1.42236,-0.02189,-2.63540,1.08656,1.57083,0.11673,-0.12758,-0.48155,0.02979,,,,,,,,,,,,,,,,,,,,,,,,,,0,0,0,0,0
8.8597,1783972083.0355,1,1,2.0000,-0.0000,1.42236,-0.02189,-2.63540,1.08656,1.57083,0.11673,-0.12758,-0.48155,0.02979,,,,,,,,,,,,,,,,,,,,,,,,,,0,0,0,0,0
8.8600,1783972083.0358,1,1,2.0000,-0.0000,1.42236,-0.02189,-2.63540,1.08656,1.57083,0.11673,-0.12758,-0.48155,0.02979,,,,,,,,,,,,,,,,,,,,,,,,,,0,0,0,0,0
8.8603,1783972083.0361,1,1,2.0000,-0.0000,1.42236,-0.02189,-2.63540,1.08656,1.57083,0.11673,-0.12758,-0.48155,0.02979,,,,,,,,,,,,,,,,,,,,,,,,,,0,0,0,0,0
8.8607,1783972083.0364,1,1,2.0000,-0.0000,1.42236,-0.02189,-2.63540,1.08656,1.57083,0.11673,-0.12758,-0.48155,0.02979,,,,,,,,,,,,,,,,,,,,,,,,,,0,0,0,0,0
8.8610,1783972083.0367,1,1,2.0000,-0.0000,1.42236,-0.02189,-2.63540,1.08656,1.57083,0.11673,-0.12758,-0.48155,0.02979,,,,,,,,,,,,,,,,,,,,,,,,,,0,0,0,0,0
8.8613,1783972083.0370,1,1,2.0000,-0.0000,1.42236,-0.02189,-2.63540,1.08656,1.57083,0.11673,-0.12758,-0.48155,0.02979,,,,,,,,,,,,,,,,,,,,,,,,,,0,0,0,0,0
8.8616,1783972083.0373,1,1,2.0000,-0.0000,1.42236,-0.02189,-2.63540,1.08656,1.57083,0.11673,-0.12758,-0.48155,0.02979,,,,,,,,,,,,,,,,,,,,,,,,,,0,0,0,0,0
8.8619,1783972083.0376,1,1,2.0000,-0.0000,1.42236,-0.02189,-2.63540,1.08656,1.57083,0.11673,-0.12758,-0.48155,0.02979,,,,,,,,,,,,,,,,,,,,,,,,,,0,0,0,0,0
8.8703,1783972083.0461,1,1,2.0000,-0.0000,1.42236,-0.02189,-2.63540,1.08656,1.57083,0.11673,-0.12758,-0.48155,0.02979,,,,,,,,,,,,,,,,,,,,,,,,,,0,0,0,0,0
8.8712,1783972083.0469,1,1,2.0000,-0.0000,1.42236,-0.02189,-2.63540,1.08656,1.57083,0.11673,-0.12758,-0.48155,0.02979,,,,,,,,,,,,,,,,,,,,,,,,,,0,0,0,0,0
8.9384,1783972083.1141,1,1,2.0000,-0.0000,1.42236,-0.02189,-2.63540,1.08656,1.57083,0.11673,-0.12758,-0.48155,0.02979,,,,,,,,,,,,,,,,,,,,,,,,,,0,0,0,0,0
8.9390,1783972083.1147,1,1,2.0000,-0.0000,1.42236,-0.02189,-2.63540,1.08656,1.57083,0.11673,-0.12758,-0.48155,0.02979,,,,,,,,,,,,,,,,,,,,,,,,,,0,0,0,0,0
8.9393,1783972083.1151,1,1,2.0000,-0.0000,1.42236,-0.02189,-2.63540,1.08656,1.57083,0.11673,-0.12758,-0.48155,0.02979,,,,,,,,,,,,,,,,,,,,,,,,,,0,0,0,0,0
8.9658,1783972083.1416,1,1,2.0000,-0.0000,1.42236,-0.02189,-2.63540,1.08656,1.57083,0.11673,-0.12758,-0.48155,0.02979,,,,,,,,,,,,,,,,,,,,,,,,,,0,0,0,0,0
9.0245,1783972083.2002,1,1,2.0000,-0.0000,1.42236,-0.02189,-2.63540,1.08656,1.57083,0.11673,-0.12758,-0.48155,0.02979,,,,,,,,,,,,,,,,,,,,,,,,,,0,0,0,0,0
9.0249,1783972083.2006,1,1,2.0000,-0.0000,1.42236,-0.02189,-2.63540,1.08656,1.57083,0.11673,-0.12758,-0.48155,0.02979,,,,,,,,,,,,,,,,,,,,,,,,,,0,0,0,0,0
9.0253,1783972083.2010,1,1,2.0000,-0.0000,1.42236,-0.02189,-2.63540,1.08656,1.57083,0.11673,-0.12758,-0.48155,0.02979,,,,,,,,,,,,,,,,,,,,,,,,,,0,0,0,0,0
9.0460,1783972083.2217,1,1,2.0000,-0.0000,1.42236,-0.02189,-2.63540,1.08656,1.57083,0.11673,-0.12758,-0.48155,0.02979,,,,,,,,,,,,,,,,,,,,,,,,,,0,0,0,0,0
9.0465,1783972083.2222,1,1,2.0000,-0.0000,1.42236,-0.02189,-2.63540,1.08656,1.57083,0.11673,-0.12758,-0.48155,0.02979,,,,,,,,,,,,,,,,,,,,,,,,,,0,0,0,0,0
9.0471,1783972083.2228,1,1,2.0000,-0.0000,1.42236,-0.02189,-2.63540,1.08656,1.57083,0.11673,-0.12758,-0.48155,0.02979,,,,,,,,,,,,,,,,,,,,,,,,,,0,0,0,0,0
9.1196,1783972083.2953,1,1,2.0000,-0.0000,1.42236,-0.02201,-2.63551,1.08671,1.57083,0.11673,-0.12759,-0.48148,0.02971,,,,,,,,,,,,,,,,,,,,,,,,,,0,0,0,0,0
9.1200,1783972083.2957,1,1,2.0000,-0.0000,1.42236,-0.02201,-2.63551,1.08671,1.57083,0.11673,-0.12759,-0.48148,0.02971,,,,,,,,,,,,,,,,,,,,,,,,,,0,0,0,0,0
9.1204,1783972083.2961,1,1,2.0000,-0.0000,1.42236,-0.02201,-2.63551,1.08671,1.57083,0.11673,-0.12759,-0.48148,0.02971,,,,,,,,,,,,,,,,,,,,,,,,,,0,0,0,0,0
9.1208,1783972083.2966,1,1,2.0000,-0.0000,1.42236,-0.02201,-2.63551,1.08671,1.57083,0.11673,-0.12759,-0.48148,0.02971,,,,,,,,,,,,,,,,,,,,,,,,,,0,0,0,0,0
9.1673,1783972083.3430,1,1,2.0000,-0.0000,1.42236,-0.02223,-2.63558,1.08697,1.57083,0.11673,-0.12760,-0.48146,0.02962,,,,,,,,,,,,,,,,,,,,,,,,,,0,0,0,0,0
9.1676,1783972083.3433,1,1,2.0000,-0.0000,1.42236,-0.02223,-2.63558,1.08697,1.57083,0.11673,-0.12760,-0.48146,0.02962,,,,,,,,,,,,,,,,,,,,,,,,,,0,0,0,0,0
9.1679,1783972083.3436,1,1,2.0000,-0.0000,1.42236,-0.02223,-2.63558,1.08697,1.57083,0.11673,-0.12760,-0.48146,0.02962,,,,,,,,,,,,,,,,,,,,,,,,,,0,0,0,0,0
9.1682,1783972083.3440,1,1,2.0000,-0.0000,1.42236,-0.02223,-2.63558,1.08697,1.57083,0.11673,-0.12760,-0.48146,0.02962,,,,,,,,,,,,,,,,,,,,,,,,,,0,0,0,0,0
9.1686,1783972083.3443,1,1,2.0000,-0.0000,1.42236,-0.02223,-2.63558,1.08697,1.57083,0.11673,-0.12760,-0.48146,0.02962,,,,,,,,,,,,,,,,,,,,,,,,,,0,0,0,0,0
9.1689,1783972083.3446,1,1,2.0000,-0.0000,1.42236,-0.02223,-2.63558,1.08697,1.57083,0.11673,-0.12760,-0.48146,0.02962,,,,,,,,,,,,,,,,,,,,,,,,,,0,0,0,0,0
9.1972,1783972083.3729,1,1,2.0000,-0.0000,1.42236,-0.02243,-2.63563,1.08720,1.57083,0.11673,-0.12760,-0.48146,0.02956,,,,,,,,,,,,,,,,,,,,,,,,,,0,0,0,0,0
9.1975,1783972083.3732,1,1,2.0000,-0.0000,1.42236,-0.02243,-2.63563,1.08720,1.57083,0.11673,-0.12760,-0.48146,0.02956,,,,,,,,,,,,,,,,,,,,,,,,,,0,0,0,0,0
