Martins-Lucaas/twinforge/sensors/Data/celula de carga/20260713_163756__samples.csv
t_rel_s,t_unix,cycle,phase,setpoint_n,force_net_n,q1,q2,q3,q4,q5,q6,tcp_x,tcp_y,tcp_z,taxel_0,taxel_1,taxel_2,taxel_3,taxel_4,taxel_5,taxel_6,taxel_7,taxel_8,taxel_9,taxel_10,taxel_11,taxel_12,taxel_13,taxel_14,taxel_15,taxel_16,taxel_17,taxel_18,taxel_19,taxel_20,taxel_21,taxel_22,taxel_23,taxel_24,n_RA,n_SA,cn_mm,cn_ra,cn_sa
0.0007,1783971476.8517,0,-1,7.0000,-0.0001,1.42244,0.00066,-2.63054,1.05919,1.57081,0.11675,-0.12763,-0.48154,0.03738,,,,,,,,,,,,,,,,,,,,,,,,,,0,0,0,0,0
0.0011,1783971476.8521,0,-1,7.0000,-0.0001,1.42244,0.00066,-2.63054,1.05919,1.57081,0.11675,-0.12763,-0.48154,0.03738,,,,,,,,,,,,,,,,,,,,,,,,,,0,0,0,0,0
0.0035,1783971476.8545,0,-1,7.0000,-0.0001,1.42244,0.00066,-2.63054,1.05919,1.57081,0.11675,-0.12763,-0.48154,0.03738,,,,,,,,,,,,,,,,,,,,,,,,,,0,0,0,0,0
0.0039,1783971476.8549,0,-1,7.0000,-0.0001,1.42244,0.00066,-2.63054,1.05919,1.57081,0.11675,-0.12763,-0.48154,0.03738,,,,,,,,,,,,,,,,,,,,,,,,,,0,0,0,0,0
0.0042,1783971476.8551,0,-1,7.0000,-0.0001,1.42244,0.00066,-2.63054,1.05919,1.57081,0.11675,-0.12763,-0.48154,0.03738,,,,,,,,,,,,,,,,,,,,,,,,,,0,0,0,0,0
0.0121,1783971476.8631,1,0,7.0000,-0.0001,1.42244,0.00066,-2.63054,1.05919,1.57081,0.11675,-0.12763,-0.48154,0.03738,,,,,,,,,,,,,,,,,,,,,,,,,,0,0,0,0,0
0.0651,1783971476.9161,1,0,7.0000,-0.0001,1.42244,0.00069,-2.63053,1.05912,1.57080,0.11675,-0.12763,-0.48153,0.03738,,,,,,,,,,,,,,,,,,,,,,,,,,0,0,0,0,0
0.0654,1783971476.9164,1,0,7.0000,-0.0001,1.42244,0.00069,-2.63053,1.05912,1.57080,0.11675,-0.12763,-0.48153,0.03738,,,,,,,,,,,,,,,,,,,,,,,,,,0,0,0,0,0
0.0657,1783971476.9167,1,0,7.0000,-0.0001,1.42244,0.00069,-2.63053,1.05912,1.57080,0.11675,-0.12763,-0.48153,0.03738,,,,,,,,,,,,,,,,,,,,,,,,,,0,0,0,0,0
0.0661,1783971476.9170,1,0,7.0000,-0.0001,1.42244,0.00069,-2.63053,1.05912,1.57080,0.11675,-0.12763,-0.48153,0.03738,,,,,,,,,,,,,,,,,,,,,,,,,,0,0,0,0,0
0.0668,1783971476.9177,1,0,7.0000,-0.0001,1.42244,0.00069,-2.63053,1.05911,1.57080,0.11675,-0.12763,-0.48153,0.03738,,,,,,,,,,,,,,,,,,,,,,,,,,0,0,0,0,0
0.0762,1783971476.9272,1,0,7.0000,-0.0001,1.42244,0.00070,-2.63053,1.05909,1.57080,0.11675,-0.12763,-0.48152,0.03738,,,,,,,,,,,,,,,,,,,,,,,,,,0,0,0,0,0
0.0911,1783971476.9421,1,0,7.0000,-0.0001,1.42244,0.00071,-2.63053,1.05907,1.57080,0.11676,-0.12764,-0.48152,0.03738,,,,,,,,,,,,,,,,,,,,,,,,,,0,0,0,0,0
0.0968,1783971476.9478,1,0,7.0000,-0.0001,1.42244,0.00071,-2.63053,1.05907,1.57080,0.11676,-0.12764,-0.48152,0.03738,,,,,,,,,,,,,,,,,,,,,,,,,,0,0,0,0,0
0.1097,1783971476.9607,1,0,7.0000,-0.0001,1.42244,0.00071,-2.63053,1.05907,1.57080,0.11676,-0.12764,-0.48152,0.03738,,,,,,,,,,,,,,,,,,,,,,,,,,0,0,0,0,0
0.1307,1783971476.9817,1,0,7.0000,-0.0001,1.42244,0.00071,-2.63053,1.05907,1.57080,0.11676,-0.12764,-0.48152,0.03738,,,,,,,,,,,,,,,,,,,,,,,,,,0,0,0,0,0
0.1311,1783971476.9821,1,0,7.0000,-0.0001,1.42244,0.00071,-2.63053,1.05907,1.57080,0.11676,-0.12764,-0.48152,0.03738,,,,,,,,,,,,,,,,,,,,,,,,,,0,0,0,0,0
0.1335,1783971476.9845,1,0,7.0000,-0.0001,1.42244,0.00071,-2.63053,1.05907,1.57080,0.11676,-0.12764,-0.48152,0.03738,,,,,,,,,,,,,,,,,,,,,,,,,,0,0,0,0,0
0.1340,1783971476.9849,1,0,7.0000,-0.0001,1.42244,0.00071,-2.63053,1.05907,1.57080,0.11676,-0.12764,-0.48152,0.03738,,,,,,,,,,,,,,,,,,,,,,,,,,0,0,0,0,0
0.1509,1783971477.0019,1,0,7.0000,-0.0001,1.42244,0.00071,-2.63053,1.05907,1.57080,0.11676,-0.12764,-0.48152,0.03738,,,,,,,,,,,,,,,,,,,,,,,,,,0,0,0,0,0
0.1940,1783971477.0450,1,0,7.0000,-0.0001,1.42244,0.00071,-2.63053,1.05907,1.57080,0.11676,-0.12764,-0.48152,0.03738,,,,,,,,,,,,,,,,,,,,,,,,,,0,0,0,0,0
0.1987,1783971477.0497,1,0,7.0000,-0.0001,1.42244,0.00071,-2.63053,1.05907,1.57080,0.11676,-0.12764,-0.48152,0.03738,,,,,,,,,,,,,,,,,,,,,,,,,,0,0,0,0,0
0.1989,1783971477.0498,1,0,7.0000,-0.0001,1.42244,0.00071,-2.63053,1.05907,1.57080,0.11676,-0.12764,-0.48152,0.03738,,,,,,,,,,,,,,,,,,,,,,,,,,0,0,0,0,0
0.1991,1783971477.0501,1,0,7.0000,-0.0001,1.42244,0.00071,-2.63053,1.05907,1.57080,0.11676,-0.12764,-0.48152,0.03738,,,,,,,,,,,,,,,,,,,,,,,,,,0,0,0,0,0
0.1994,1783971477.0503,1,0,7.0000,-0.0001,1.42244,0.00071,-2.63053,1.05907,1.57080,0.11676,-0.12764,-0.48152,0.03738,,,,,,,,,,,,,,,,,,,,,,,,,,0,0,0,0,0
0.2521,1783971477.1031,1,0,7.0000,-0.0001,1.42244,0.00071,-2.63053,1.05907,1.57080,0.11676,-0.12764,-0.48152,0.03738,,,,,,,,,,,,,,,,,,,,,,,,,,0,0,0,0,0
0.2524,1783971477.1034,1,0,7.0000,-0.0001,1.42244,0.00071,-2.63053,1.05907,1.57080,0.11676,-0.12764,-0.48152,0.03738,,,,,,,,,,,,,,,,,,,,,,,,,,0,0,0,0,0
0.2527,1783971477.1037,1,0,7.0000,-0.0001,1.42244,0.00071,-2.63053,1.05907,1.57080,0.11676,-0.12764,-0.48152,0.03738,,,,,,,,,,,,,,,,,,,,,,,,,,0,0,0,0,0
0.2530,1783971477.1040,1,0,7.0000,-0.0001,1.42244,0.00071,-2.63053,1.05907,1.57080,0.11676,-0.12764,-0.48152,0.03738,,,,,,,,,,,,,,,,,,,,,,,,,,0,0,0,0,0
0.2546,1783971477.1056,1,0,7.0000,-0.0001,1.42244,0.00071,-2.63053,1.05907,1.57080,0.11676,-0.12764,-0.48152,0.03738,,,,,,,,,,,,,,,,,,,,,,,,,,0,0,0,0,0
0.2548,1783971477.1058,1,0,7.0000,-0.0001,1.42244,0.00071,-2.63053,1.05907,1.57080,0.11676,-0.12764,-0.48152,0.03738,,,,,,,,,,,,,,,,,,,,,,,,,,0,0,0,0,0
0.3115,1783971477.1625,1,0,7.0000,-0.0001,1.42244,0.00071,-2.63053,1.05907,1.57080,0.11676,-0.12764,-0.48152,0.03738,,,,,,,,,,,,,,,,,,,,,,,,,,0,0,0,0,0
0.3141,1783971477.1651,1,0,7.0000,-0.0001,1.42244,0.00071,-2.63053,1.05907,1.57080,0.11676,-0.12764,-0.48152,0.03738,,,,,,,,,,,,,,,,,,,,,,,,,,0,0,0,0,0
0.3149,1783971477.1659,1,0,7.0000,-0.0001,1.42244,0.00071,-2.63053,1.05907,1.57080,0.11676,-0.12764,-0.48152,0.03738,,,,,,,,,,,,,,,,,,,,,,,,,,0,0,0,0,0
0.3151,1783971477.1661,1,0,7.0000,-0.0001,1.42244,0.00071,-2.63053,1.05907,1.57080,0.11676,-0.12764,-0.48152,0.03738,,,,,,,,,,,,,,,,,,,,,,,,,,0,0,0,0,0
0.3154,1783971477.1664,1,0,7.0000,-0.0001,1.42244,0.00071,-2.63053,1.05907,1.57080,0.11676,-0.12764,-0.48152,0.03738,,,,,,,,,,,,,,,,,,,,,,,,,,0,0,0,0,0
0.3339,1783971477.1849,1,0,7.0000,-0.0001,1.42244,0.00071,-2.63053,1.05907,1.57080,0.11676,-0.12764,-0.48152,0.03738,,,,,,,,,,,,,,,,,,,,,,,,,,0,0,0,0,0
0.3537,1783971477.2046,1,0,7.0000,-0.0001,1.42244,0.00071,-2.63053,1.05907,1.57080,0.11676,-0.12764,-0.48152,0.03738,,,,,,,,,,,,,,,,,,,,,,,,,,0,0,0,0,0
0.3540,1783971477.2050,1,0,7.0000,-0.0001,1.42244,0.00071,-2.63053,1.05907,1.57080,0.11676,-0.12764,-0.48152,0.03738,,,,,,,,,,,,,,,,,,,,,,,,,,0,0,0,0,0
0.3749,1783971477.2259,1,0,7.0000,-0.0001,1.42244,0.00071,-2.63053,1.05907,1.57080,0.11676,-0.12764,-0.48152,0.03738,,,,,,,,,,,,,,,,,,,,,,,,,,0,0,0,0,0
0.3754,1783971477.2264,1,0,7.0000,-0.0001,1.42244,0.00071,-2.63053,1.05907,1.57080,0.11676,-0.12764,-0.48152,0.03738,,,,,,,,,,,,,,,,,,,,,,,,,,0,0,0,0,0
0.3756,1783971477.2266,1,0,7.0000,-0.0001,1.42244,0.00071,-2.63053,1.05907,1.57080,0.11676,-0.12764,-0.48152,0.03738,,,,,,,,,,,,,,,,,,,,,,,,,,0,0,0,0,0
0.3760,1783971477.2269,1,0,7.0000,-0.0001,1.42244,0.00071,-2.63053,1.05907,1.57080,0.11676,-0.12764,-0.48152,0.03738,,,,,,,,,,,,,,,,,,,,,,,,,,0,0,0,0,0
0.3952,1783971477.2461,1,0,7.0000,-0.0001,1.42244,0.00071,-2.63053,1.05907,1.57080,0.11676,-0.12764,-0.48152,0.03738,,,,,,,,,,,,,,,,,,,,,,,,,,0,0,0,0,0
0.4071,1783971477.2581,1,0,7.0000,-0.0001,1.42244,0.00071,-2.63053,1.05907,1.57080,0.11676,-0.12764,-0.48152,0.03738,,,,,,,,,,,,,,,,,,,,,,,,,,0,0,0,0,0
0.4074,1783971477.2584,1,0,7.0000,-0.0001,1.42244,0.00071,-2.63053,1.05907,1.57080,0.11676,-0.12764,-0.48152,0.03738,,,,,,,,,,,,,,,,,,,,,,,,,,0,0,0,0,0
0.4150,1783971477.2660,1,0,7.0000,-0.0001,1.42244,0.00071,-2.63053,1.05907,1.57080,0.11676,-0.12764,-0.48152,0.03738,,,,,,,,,,,,,,,,,,,,,,,,,,0,0,0,0,0
0.4169,1783971477.2679,1,0,7.0000,-0.0001,1.42244,0.00071,-2.63053,1.05907,1.57080,0.11676,-0.12764,-0.48152,0.03738,,,,,,,,,,,,,,,,,,,,,,,,,,0,0,0,0,0
0.4172,1783971477.2682,1,0,7.0000,-0.0001,1.42244,0.00071,-2.63053,1.05907,1.57080,0.11676,-0.12764,-0.48152,0.03738,,,,,,,,,,,,,,,,,,,,,,,,,,0,0,0,0,0
0.4448,1783971477.2958,1,0,7.0000,-0.0001,1.42244,0.00071,-2.63053,1.05907,1.57080,0.11676,-0.12764,-0.48152,0.03738,,,,,,,,,,,,,,,,,,,,,,,,,,0,0,0,0,0
0.4452,1783971477.2962,1,0,7.0000,-0.0001,1.42244,0.00071,-2.63053,1.05907,1.57080,0.11676,-0.12764,-0.48152,0.03738,,,,,,,,,,,,,,,,,,,,,,,,,,0,0,0,0,0
0.4456,1783971477.2966,1,0,7.0000,-0.0001,1.42244,0.00071,-2.63053,1.05907,1.57080,0.11676,-0.12764,-0.48152,0.03738,,,,,,,,,,,,,,,,,,,,,,,,,,0,0,0,0,0
0.4473,1783971477.2983,1,0,7.0000,-0.0001,1.42244,0.00071,-2.63053,1.05907,1.57080,0.11676,-0.12764,-0.48152,0.03738,,,,,,,,,,,,,,,,,,,,,,,,,,0,0,0,0,0
0.4478,1783971477.2988,1,0,7.0000,-0.0001,1.42244,0.00071,-2.63053,1.05907,1.57080,0.11676,-0.12764,-0.48152,0.03738,,,,,,,,,,,,,,,,,,,,,,,,,,0,0,0,0,0
0.4573,1783971477.3083,1,0,7.0000,-0.0001,1.42244,0.00071,-2.63053,1.05907,1.57080,0.11676,-0.12764,-0.48152,0.03738,,,,,,,,,,,,,,,,,,,,,,,,,,0,0,0,0,0
0.4913,1783971477.3423,1,0,7.0000,-0.0001,1.42244,0.00071,-2.63053,1.05907,1.57080,0.11676,-0.12764,-0.48152,0.03738,,,,,,,,,,,,,,,,,,,,,,,,,,0,0,0,0,0
0.5168,1783971477.3678,1,0,7.0000,-0.0001,1.42244,0.00071,-2.63053,1.05907,1.57080,0.11676,-0.12764,-0.48152,0.03738,,,,,,,,,,,,,,,,,,,,,,,,,,0,0,0,0,0
0.5200,1783971477.3710,1,0,7.0000,-0.0001,1.42244,0.00071,-2.63053,1.05907,1.57080,0.11676,-0.12764,-0.48152,0.03738,,,,,,,,,,,,,,,,,,,,,,,,,,0,0,0,0,0
0.5415,1783971477.3925,1,0,7.0000,-0.0001,1.42244,0.00071,-2.63053,1.05907,1.57080,0.11675,-0.12764,-0.48152,0.03738,,,,,,,,,,,,,,,,,,,,,,,,,,0,0,0,0,0
0.5431,1783971477.3941,1,0,7.0000,-0.0001,1.42244,0.00071,-2.63053,1.05907,1.57080,0.11675,-0.12764,-0.48152,0.03738,,,,,,,,,,,,,,,,,,,,,,,,,,0,0,0,0,0
0.5437,1783971477.3947,1,0,7.0000,-0.0001,1.42244,0.00071,-2.63053,1.05907,1.57080,0.11675,-0.12764,-0.48152,0.03738,,,,,,,,,,,,,,,,,,,,,,,,,,0,0,0,0,0
0.5478,1783971477.3987,1,0,7.0000,-0.0001,1.42244,0.00071,-2.63053,1.05907,1.57080,0.11675,-0.12764,-0.48152,0.03738,,,,,,,,,,,,,,,,,,,,,,,,,,0,0,0,0,0
0.5482,1783971477.3991,1,0,7.0000,-0.0001,1.42244,0.00071,-2.63053,1.05907,1.57080,0.11675,-0.12764,-0.48152,0.03738,,,,,,,,,,,,,,,,,,,,,,,,,,0,0,0,0,0
0.5630,1783971477.4140,1,0,7.0000,-0.0001,1.42244,0.00071,-2.63053,1.05907,1.57080,0.11675,-0.12764,-0.48152,0.03738,,,,,,,,,,,,,,,,,,,,,,,,,,0,0,0,0,0
0.5634,1783971477.4143,1,0,7.0000,-0.0001,1.42244,0.00071,-2.63053,1.05907,1.57080,0.11675,-0.12764,-0.48152,0.03738,,,,,,,,,,,,,,,,,,,,,,,,,,0,0,0,0,0
0.6119,1783971477.4629,1,0,7.0000,-0.0001,1.42244,0.00071,-2.63053,1.05907,1.57080,0.11675,-0.12764,-0.48152,0.03738,,,,,,,,,,,,,,,,,,,,,,,,,,0,0,0,0,0
0.6122,1783971477.4632,1,0,7.0000,-0.0001,1.42244,0.00071,-2.63053,1.05907,1.57080,0.11675,-0.12764,-0.48152,0.03738,,,,,,,,,,,,,,,,,,,,,,,,,,0,0,0,0,0
0.6125,1783971477.4635,1,0,7.0000,-0.0001,1.42244,0.00071,-2.63053,1.05907,1.57080,0.11675,-0.12764,-0.48152,0.03738,,,,,,,,,,,,,,,,,,,,,,,,,,0,0,0,0,0
0.6141,1783971477.4651,1,0,7.0000,-0.0001,1.42244,0.00071,-2.63053,1.05907,1.57080,0.11675,-0.12764,-0.48152,0.03738,,,,,,,,,,,,,,,,,,,,,,,,,,0,0,0,0,0
0.6145,1783971477.4655,1,0,7.0000,-0.0001,1.42244,0.00071,-2.63053,1.05907,1.57080,0.11675,-0.12764,-0.48152,0.03738,,,,,,,,,,,,,,,,,,,,,,,,,,0,0,0,0,0
0.6205,1783971477.4715,1,0,7.0000,-0.0001,1.42244,0.00071,-2.63053,1.05907,1.57080,0.11675,-0.12764,-0.48152,0.03738,,,,,,,,,,,,,,,,,,,,,,,,,,0,0,0,0,0
0.6621,1783971477.5130,1,0,7.0000,-0.0001,1.42244,0.00071,-2.63053,1.05907,1.57080,0.11675,-0.12764,-0.48152,0.03738,,,,,,,,,,,,,,,,,,,,,,,,,,0,0,0,0,0
0.6624,1783971477.5134,1,0,7.0000,-0.0001,1.42244,0.00071,-2.63053,1.05907,1.57080,0.11675,-0.12764,-0.48152,0.03738,,,,,,,,,,,,,,,,,,,,,,,,,,0,0,0,0,0
0.6765,1783971477.5275,1,0,7.0000,-0.0001,1.42244,0.00071,-2.63053,1.05907,1.57080,0.11675,-0.12764,-0.48152,0.03738,,,,,,,,,,,,,,,,,,,,,,,,,,0,0,0,0,0
0.6814,1783971477.5323,1,0,7.0000,-0.0001,1.42244,0.00071,-2.63053,1.05907,1.57080,0.11675,-0.12764,-0.48152,0.03738,,,,,,,,,,,,,,,,,,,,,,,,,,0,0,0,0,0
0.6910,1783971477.5420,1,0,7.0000,-0.0001,1.42244,0.00071,-2.63053,1.05907,1.57080,0.11675,-0.12764,-0.48152,0.03738,,,,,,,,,,,,,,,,,,,,,,,,,,0,0,0,0,0
0.7038,1783971477.5548,1,0,7.0000,-0.0001,1.42244,0.00071,-2.63053,1.05907,1.57080,0.11675,-0.12764,-0.48152,0.03738,,,,,,,,,,,,,,,,,,,,,,,,,,0,0,0,0,0
0.7128,1783971477.5638,1,0,7.0000,-0.0001,1.42244,0.00071,-2.63053,1.05907,1.57080,0.11675,-0.12764,-0.48152,0.03738,,,,,,,,,,,,,,,,,,,,,,,,,,0,0,0,0,0
0.7197,1783971477.5707,1,0,7.0000,-0.0001,1.42244,0.00071,-2.63053,1.05907,1.57080,0.11675,-0.12764,-0.48152,0.03738,,,,,,,,,,,,,,,,,,,,,,,,,,0,0,0,0,0
0.7400,1783971477.5910,1,1,7.0000,-0.0001,1.42244,0.00071,-2.63053,1.05907,1.57080,0.11675,-0.12764,-0.48152,0.03738,,,,,,,,,,,,,,,,,,,,,,,,,,0,0,0,0,0
0.7483,1783971477.5993,1,1,7.0000,-0.0001,1.42244,0.00071,-2.63053,1.05907,1.57080,0.11675,-0.12764,-0.48152,0.03738,,,,,,,,,,,,,,,,,,,,,,,,,,0,0,0,0,0
0.8597,1783971477.7107,1,1,7.0000,-0.0001,1.42244,0.00071,-2.63053,1.05907,1.57080,0.11675,-0.12764,-0.48152,0.03738,,,,,,,,,,,,,,,,,,,,,,,,,,0,0,0,0,0
0.8600,1783971477.7110,1,1,7.0000,-0.0001,1.42244,0.00071,-2.63053,1.05907,1.57080,0.11675,-0.12764,-0.48152,0.03738,,,,,,,,,,,,,,,,,,,,,,,,,,0,0,0,0,0
0.8606,1783971477.7116,1,1,7.0000,-0.0001,1.42244,0.00071,-2.63053,1.05907,1.57080,0.11675,-0.12764,-0.48152,0.03738,,,,,,,,,,,,,,,,,,,,,,,,,,0,0,0,0,0
0.8610,1783971477.7120,1,1,7.0000,-0.0001,1.42244,0.00071,-2.63053,1.05907,1.57080,0.11675,-0.12764,-0.48152,0.03738,,,,,,,,,,,,,,,,,,,,,,,,,,0,0,0,0,0
0.8615,1783971477.7125,1,1,7.0000,-0.0001,1.42244,0.00071,-2.63053,1.05907,1.57080,0.11675,-0.12764,-0.48152,0.03738,,,,,,,,,,,,,,,,,,,,,,,,,,0,0,0,0,0
0.8619,1783971477.7129,1,1,7.0000,-0.0001,1.42244,0.00071,-2.63053,1.05907,1.57080,0.11675,-0.12764,-0.48152,0.03738,,,,,,,,,,,,,,,,,,,,,,,,,,0,0,0,0,0
0.9041,1783971477.7550,1,1,7.0000,-0.0001,1.42244,0.00071,-2.63053,1.05907,1.57080,0.11675,-0.12764,-0.48152,0.03738,,,,,,,,,,,,,,,,,,,,,,,,,,0,0,0,0,0
0.9045,1783971477.7555,1,1,7.0000,-0.0001,1.42244,0.00071,-2.63053,1.05907,1.57080,0.11675,-0.12764,-0.48152,0.03738,,,,,,,,,,,,,,,,,,,,,,,,,,0,0,0,0,0
0.9050,1783971477.7560,1,1,7.0000,-0.0001,1.42244,0.00071,-2.63053,1.05907,1.57080,0.11675,-0.12764,-0.48152,0.03738,,,,,,,,,,,,,,,,,,,,,,,,,,0,0,0,0,0
0.9086,1783971477.7596,1,1,7.0000,-0.0001,1.42244,0.00071,-2.63053,1.05907,1.57080,0.11675,-0.12764,-0.48152,0.03738,,,,,,,,,,,,,,,,,,,,,,,,,,0,0,0,0,0
0.9088,1783971477.7598,1,1,7.0000,-0.0001,1.42244,0.00071,-2.63053,1.05907,1.57080,0.11675,-0.12764,-0.48152,0.03738,,,,,,,,,,,,,,,,,,,,,,,,,,0,0,0,0,0
0.9334,1783971477.7844,1,1,7.0000,-0.0001,1.42244,0.00071,-2.63053,1.05907,1.57080,0.11675,-0.12764,-0.48152,0.03738,,,,,,,,,,,,,,,,,,,,,,,,,,0,0,0,0,0
0.9338,1783971477.7848,1,1,7.0000,-0.0001,1.42244,0.00071,-2.63053,1.05907,1.57080,0.11675,-0.12764,-0.48152,0.03738,,,,,,,,,,,,,,,,,,,,,,,,,,0,0,0,0,0
0.9517,1783971477.8027,1,1,7.0000,-0.0001,1.42244,0.00071,-2.63053,1.05907,1.57080,0.11675,-0.12764,-0.48152,0.03738,,,,,,,,,,,,,,,,,,,,,,,,,,0,0,0,0,0
0.9540,1783971477.8049,1,1,7.0000,-0.0001,1.42244,0.00071,-2.63053,1.05907,1.57080,0.11675,-0.12764,-0.48152,0.03738,,,,,,,,,,,,,,,,,,,,,,,,,,0,0,0,0,0
0.9543,1783971477.8053,1,1,7.0000,-0.0001,1.42244,0.00071,-2.63053,1.05907,1.57080,0.11675,-0.12764,-0.48152,0.03738,,,,,,,,,,,,,,,,,,,,,,,,,,0,0,0,0,0
1.0192,1783971477.8701,1,1,7.0000,-0.0001,1.42244,0.00071,-2.63054,1.05907,1.57080,0.11675,-0.12764,-0.48152,0.03738,,,,,,,,,,,,,,,,,,,,,,,,,,0,0,0,0,0
1.0198,1783971477.8708,1,1,7.0000,-0.0001,1.42244,0.00071,-2.63054,1.05907,1.57080,0.11675,-0.12764,-0.48152,0.03738,,,,,,,,,,,,,,,,,,,,,,,,,,0,0,0,0,0
1.0219,1783971477.8729,1,1,7.0000,-0.0001,1.42244,0.00071,-2.63054,1.05907,1.57080,0.11675,-0.12764,-0.48152,0.03738,,,,,,,,,,,,,,,,,,,,,,,,,,0,0,0,0,0
1.0225,1783971477.8734,1,1,7.0000,-0.0001,1.42244,0.00071,-2.63054,1.05907,1.57080,0.11675,-0.12764,-0.48152,0.03738,,,,,,,,,,,,,,,,,,,,,,,,,,0,0,0,0,0
1.0227,1783971477.8737,1,1,7.0000,-0.0001,1.42244,0.00071,-2.63054,1.05907,1.57080,0.11675,-0.12764,-0.48152,0.03738,,,,,,,,,,,,,,,,,,,,,,,,,,0,0,0,0,0
1.0233,1783971477.8743,1,1,7.0000,-0.0001,1.42244,0.00071,-2.63054,1.05907,1.57080,0.11675,-0.12764,-0.48152,0.03738,,,,,,,,,,,,,,,,,,,,,,,,,,0,0,0,0,0
1.0279,1783971477.8789,1,1,7.0000,-0.0001,1.42244,0.00071,-2.63054,1.05907,1.57080,0.11675,-0.12764,-0.48152,0.03738,,,,,,,,,,,,,,,,,,,,,,,,,,0,0,0,0,0
1.0488,1783971477.8998,1,1,7.0000,-0.0001,1.42244,0.00068,-2.63057,1.05909,1.57080,0.11675,-0.12764,-0.48150,0.03735,,,,,,,,,,,,,,,,,,,,,,,,,,0,0,0,0,0
1.0580,1783971477.9089,1,1,7.0000,-0.0001,1.42244,0.00068,-2.63057,1.05909,1.57080,0.11675,-0.12764,-0.48149,0.03735,,,,,,,,,,,,,,,,,,,,,,,,,,0,0,0,0,0
1.0703,1783971477.9212,1,1,7.0000,-0.0001,1.42244,0.00065,-2.63059,1.05912,1.57080,0.11675,-0.12764,-0.48148,0.03734,,,,,,,,,,,,,,,,,,,,,,,,,,0,0,0,0,0
1.0706,1783971477.9216,1,1,7.0000,-0.0001,1.42244,0.00065,-2.63059,1.05912,1.57080,0.11675,-0.12764,-0.48148,0.03734,,,,,,,,,,,,,,,,,,,,,,,,,,0,0,0,0,0
1.1002,1783971477.9512,1,1,7.0000,-0.0001,1.42244,0.00054,-2.63065,1.05924,1.57080,0.11675,-0.12765,-0.48145,0.03728,,,,,,,,,,,,,,,,,,,,,,,,,,0,0,0,0,0
1.1006,1783971477.9516,1,1,7.0000,-0.0001,1.42244,0.00054,-2.63065,1.05924,1.57080,0.11675,-0.12765,-0.48145,0.03728,,,,,,,,,,,,,,,,,,,,,,,,,,0,0,0,0,0
1.1290,1783971477.9800,1,1,7.0000,-0.0001,1.42244,0.00039,-2.63068,1.05941,1.57080,0.11675,-0.12765,-0.48145,0.03722,,,,,,,,,,,,,,,,,,,,,,,,,,0,0,0,0,0
1.1293,1783971477.9803,1,1,7.0000,-0.0001,1.42244,0.00039,-2.63068,1.05941,1.57080,0.11675,-0.12765,-0.48145,0.03722,,,,,,,,,,,,,,,,,,,,,,,,,,0,0,0,0,0
1.1296,1783971477.9806,1,1,7.0000,-0.0001,1.42244,0.00039,-2.63068,1.05941,1.57080,0.11675,-0.12765,-0.48145,0.03722,,,,,,,,,,,,,,,,,,,,,,,,,,0,0,0,0,0
1.1300,1783971477.9810,1,1,7.0000,-0.0001,1.42244,0.00039,-2.63068,1.05941,1.57080,0.11675,-0.12765,-0.48145,0.03722,,,,,,,,,,,,,,,,,,,,,,,,,,0,0,0,0,0
1.1512,1783971478.0022,1,1,7.0000,-0.0001,1.42244,0.00021,-2.63072,1.05962,1.57080,0.11675,-0.12765,-0.48145,0.03716,,,,,,,,,,,,,,,,,,,,,,,,,,0,0,0,0,0
1.1545,1783971478.0054,1,1,7.0000,-0.0001,1.42244,0.00021,-2.63072,1.05962,1.57080,0.11675,-0.12765,-0.48145,0.03716,,,,,,,,,,,,,,,,,,,,,,,,,,0,0,0,0,0
1.1548,1783971478.0058,1,1,7.0000,-0.0001,1.42244,0.00021,-2.63072,1.05962,1.57080,0.11675,-0.12765,-0.48145,0.03716,,,,,,,,,,,,,,,,,,,,,,,,,,0,0,0,0,0
1.1642,1783971478.0152,1,1,7.0000,-0.0001,1.42244,0.00012,-2.63074,1.05973,1.57080,0.11675,-0.12765,-0.48145,0.03713,,,,,,,,,,,,,,,,,,,,,,,,,,0,0,0,0,0
1.1644,1783971478.0154,1,1,7.0000,-0.0001,1.42244,0.00012,-2.63074,1.05973,1.57080,0.11675,-0.12765,-0.48145,0.03713,,,,,,,,,,,,,,,,,,,,,,,,,,0,0,0,0,0
1.1759,1783971478.0269,1,1,7.0000,-0.0001,1.42244,0.00003,-2.63076,1.05984,1.57080,0.11675,-0.12764,-0.48145,0.03710,,,,,,,,,,,,,,,,,,,,,,,,,,0,0,0,0,0
1.1949,1783971478.0459,1,1,7.0000,-0.0001,1.42244,-0.00004,-2.63077,1.05992,1.57080,0.11675,-0.12764,-0.48146,0.03708,,,,,,,,,,,,,,,,,,,,,,,,,,0,0,0,0,0
1.1955,1783971478.0465,1,1,7.0000,-0.0001,1.42244,-0.00007,-2.63077,1.05996,1.57080,0.11675,-0.12764,-0.48146,0.03707,,,,,,,,,,,,,,,,,,,,,,,,,,0,0,0,0,0
1.1996,1783971478.0506,1,1,7.0000,-0.0001,1.42244,-0.00011,-2.63078,1.06001,1.57080,0.11675,-0.12764,-0.48146,0.03706,,,,,,,,,,,,,,,,,,,,,,,,,,0,0,0,0,0
1.2094,1783971478.0604,1,1,7.0000,-0.0001,1.42244,-0.00019,-2.63079,1.06011,1.57080,0.11675,-0.12764,-0.48147,0.03704,,,,,,,,,,,,,,,,,,,,,,,,,,0,0,0,0,0
1.2242,1783971478.0752,1,1,7.0000,-0.0001,1.42244,-0.00036,-2.63081,1.06033,1.57080,0.11675,-0.12764,-0.48148,0.03699,,,,,,,,,,,,,,,,,,,,,,,,,,0,0,0,0,0
1.2337,1783971478.0847,1,1,7.0000,-0.0001,1.42244,-0.00043,-2.63081,1.06042,1.57080,0.11675,-0.12764,-0.48149,0.03697,,,,,,,,,,,,,,,,,,,,,,,,,,0,0,0,0,0
1.2384,1783971478.0893,1,1,7.0000,-0.0001,1.42244,-0.00045,-2.63081,1.06045,1.57080,0.11675,-0.12764,-0.48150,0.03697,,,,,,,,,,,,,,,,,,,,,,,,,,0,0,0,0,0
1.2386,1783971478.0896,1,1,7.0000,-0.0001,1.42244,-0.00045,-2.63081,1.06045,1.57080,0.11675,-0.12764,-0.48150,0.03697,,,,,,,,,,,,,,,,,,,,,,,,,,0,0,0,0,0
1.2532,1783971478.1042,1,1,7.0000,-0.0001,1.42244,-0.00045,-2.63081,1.06045,1.57080,0.11675,-0.12764,-0.48150,0.03697,,,,,,,,,,,,,,,,,,,,,,,,,,0,0,0,0,0
1.2701,1783971478.1211,1,1,7.0000,-0.0001,1.42244,-0.00045,-2.63081,1.06045,1.57080,0.11675,-0.12764,-0.48150,0.03697,,,,,,,,,,,,,,,,,,,,,,,,,,0,0,0,0,0
1.2758,1783971478.1267,1,1,7.0000,-0.0001,1.42244,-0.00045,-2.63081,1.06045,1.57080,0.11675,-0.12764,-0.48150,0.03697,,,,,,,,,,,,,,,,,,,,,,,,,,0,0,0,0,0
1.3260,1783971478.1770,1,1,7.0000,-0.0001,1.42244,-0.00045,-2.63081,1.06045,1.57080,0.11675,-0.12764,-0.48150,0.03697,,,,,,,,,,,,,,,,,,,,,,,,,,0,0,0,0,0
1.3347,1783971478.1857,1,1,7.0000,-0.0001,1.42244,-0.00045,-2.63081,1.06045,1.57080,0.11675,-0.12764,-0.48150,0.03697,,,,,,,,,,,,,,,,,,,,,,,,,,0,0,0,0,0
1.3353,1783971478.1863,1,1,7.0000,-0.0001,1.42244,-0.00045,-2.63081,1.06045,1.57080,0.11675,-0.12764,-0.48150,0.03697,,,,,,,,,,,,,,,,,,,,,,,,,,0,0,0,0,0
1.3356,1783971478.1866,1,1,7.0000,-0.0001,1.42244,-0.00045,-2.63081,1.06045,1.57080,0.11675,-0.12764,-0.48150,0.03697,,,,,,,,,,,,,,,,,,,,,,,,,,0,0,0,0,0
1.3360,1783971478.1870,1,1,7.0000,-0.0001,1.42244,-0.00045,-2.63081,1.06045,1.57080,0.11675,-0.12764,-0.48150,0.03697,,,,,,,,,,,,,,,,,,,,,,,,,,0,0,0,0,0
1.3418,1783971478.1927,1,1,7.0000,-0.0001,1.42244,-0.00045,-2.63081,1.06045,1.57080,0.11675,-0.12764,-0.48150,0.03697,,,,,,,,,,,,,,,,,,,,,,,,,,0,0,0,0,0
1.3528,1783971478.2038,1,1,7.0000,-0.0001,1.42244,-0.00045,-2.63081,1.06045,1.57080,0.11675,-0.12764,-0.48150,0.03697,,,,,,,,,,,,,,,,,,,,,,,,,,0,0,0,0,0
1.3635,1783971478.2145,1,1,7.0000,-0.0001,1.42244,-0.00045,-2.63081,1.06045,1.57080,0.11675,-0.12764,-0.48150,0.03697,,,,,,,,,,,,,,,,,,,,,,,,,,0,0,0,0,0
1.4078,1783971478.2588,1,1,7.0000,-0.0001,1.42244,-0.00045,-2.63081,1.06045,1.57080,0.11675,-0.12764,-0.48150,0.03697,,,,,,,,,,,,,,,,,,,,,,,,,,0,0,0,0,0
1.4083,1783971478.2593,1,1,7.0000,-0.0001,1.42244,-0.00045,-2.63081,1.06045,1.57080,0.11675,-0.12764,-0.48150,0.03697,,,,,,,,,,,,,,,,,,,,,,,,,,0,0,0,0,0
1.4089,1783971478.2598,1,1,7.0000,-0.0001,1.42244,-0.00045,-2.63081,1.06045,1.57080,0.11675,-0.12764,-0.48150,0.03697,,,,,,,,,,,,,,,,,,,,,,,,,,0,0,0,0,0
1.4092,1783971478.2602,1,1,7.0000,-0.0001,1.42244,-0.00045,-2.63081,1.06045,1.57080,0.11675,-0.12764,-0.48150,0.03697,,,,,,,,,,,,,,,,,,,,,,,,,,0,0,0,0,0
1.4155,1783971478.2664,1,1,7.0000,-0.0001,1.42244,-0.00045,-2.63081,1.06045,1.57080,0.11675,-0.12764,-0.48150,0.03697,,,,,,,,,,,,,,,,,,,,,,,,,,0,0,0,0,0
1.4311,1783971478.2821,1,1,7.0000,-0.0001,1.42244,-0.00045,-2.63081,1.06045,1.57080,0.11675,-0.12764,-0.48150,0.03697,,,,,,,,,,,,,,,,,,,,,,,,,,0,0,0,0,0
1.4442,1783971478.2952,1,1,7.0000,-0.0001,1.42244,-0.00046,-2.63082,1.06046,1.57080,0.11675,-0.12764,-0.48150,0.03696,,,,,,,,,,,,,,,,,,,,,,,,,,0,0,0,0,0
1.4444,1783971478.2954,1,1,7.0000,-0.0001,1.42244,-0.00046,-2.63082,1.06046,1.57080,0.11675,-0.12764,-0.48150,0.03696,,,,,,,,,,,,,,,,,,,,,,,,,,0,0,0,0,0
1.4664,1783971478.3174,1,1,7.0000,-0.0001,1.42244,-0.00051,-2.63085,1.06053,1.57080,0.11675,-0.12764,-0.48148,0.03694,,,,,,,,,,,,,,,,,,,,,,,,,,0,0,0,0,0
1.4666,1783971478.3176,1,1,7.0000,-0.0001,1.42244,-0.00051,-2.63085,1.06053,1.57080,0.11675,-0.12764,-0.48148,0.03694,,,,,,,,,,,,,,,,,,,,,,,,,,0,0,0,0,0
1.4849,1783971478.3359,1,1,7.0000,-0.0001,1.42244,-0.00054,-2.63088,1.06058,1.57080,0.11675,-0.12764,-0.48147,0.03692,,,,,,,,,,,,,,,,,,,,,,,,,,0,0,0,0,0
1.5418,1783971478.3928,1,1,7.0000,-0.0001,1.42244,-0.00076,-2.63096,1.06084,1.57080,0.11675,-0.12764,-0.48145,0.03683,,,,,,,,,,,,,,,,,,,,,,,,,,0,0,0,0,0
1.5424,1783971478.3934,1,1,7.0000,-0.0001,1.42244,-0.00076,-2.63096,1.06084,1.57080,0.11675,-0.12764,-0.48145,0.03683,,,,,,,,,,,,,,,,,,,,,,,,,,0,0,0,0,0
1.5429,1783971478.3939,1,1,7.0000,-0.0001,1.42244,-0.00076,-2.63096,1.06084,1.57080,0.11675,-0.12764,-0.48145,0.03683,,,,,,,,,,,,,,,,,,,,,,,,,,0,0,0,0,0
1.5440,1783971478.3950,1,1,7.0000,-0.0001,1.42244,-0.00079,-2.63097,1.06089,1.57080,0.11675,-0.12764,-0.48145,0.03682,,,,,,,,,,,,,,,,,,,,,,,,,,0,0,0,0,0
1.5555,1783971478.4064,1,1,7.0000,-0.0001,1.42244,-0.00095,-2.63100,1.06108,1.57080,0.11675,-0.12764,-0.48145,0.03677,,,,,,,,,,,,,,,,,,,,,,,,,,0,0,0,0,0
1.5642,1783971478.4152,1,1,7.0000,-0.0001,1.42244,-0.00095,-2.63100,1.06109,1.57080,0.11675,-0.12764,-0.48145,0.03677,,,,,,,,,,,,,,,,,,,,,,,,,,0,0,0,0,0
1.5754,1783971478.4264,1,1,7.0000,-0.0001,1.42244,-0.00103,-2.63101,1.06118,1.57080,0.11675,-0.12764,-0.48145,0.03674,,,,,,,,,,,,,,,,,,,,,,,,,,0,0,0,0,0
1.6169,1783971478.4679,1,1,7.0000,-0.0001,1.42244,-0.00131,-2.63105,1.06153,1.57080,0.11675,-0.12764,-0.48147,0.03666,,,,,,,,,,,,,,,,,,,,,,,,,,0,0,0,0,0
1.6172,1783971478.4682,1,1,7.0000,-0.0001,1.42244,-0.00131,-2.63105,1.06153,1.57080,0.11675,-0.12764,-0.48147,0.03666,,,,,,,,,,,,,,,,,,,,,,,,,,0,0,0,0,0
1.6175,1783971478.4685,1,1,7.0000,-0.0001,1.42244,-0.00131,-2.63105,1.06153,1.57080,0.11675,-0.12764,-0.48147,0.03666,,,,,,,,,,,,,,,,,,,,,,,,,,0,0,0,0,0
1.6387,1783971478.4897,1,1,7.0000,-0.0001,1.42244,-0.00152,-2.63107,1.06179,1.57080,0.11675,-0.12764,-0.48149,0.03660,,,,,,,,,,,,,,,,,,,,,,,,,,0,0,0,0,0
1.6419,1783971478.4929,1,1,7.0000,-0.0001,1.42244,-0.00156,-2.63107,1.06184,1.57080,0.11675,-0.12764,-0.48150,0.03659,,,,,,,,,,,,,,,,,,,,,,,,,,0,0,0,0,0
1.6433,1783971478.4943,1,1,7.0000,-0.0001,1.42244,-0.00159,-2.63107,1.06188,1.57080,0.11675,-0.12763,-0.48151,0.03659,,,,,,,,,,,,,,,,,,,,,,,,,,0,0,0,0,0
1.6435,1783971478.4945,1,1,7.0000,-0.0001,1.42244,-0.00159,-2.63107,1.06188,1.57080,0.11675,-0.12763,-0.48151,0.03659,,,,,,,,,,,,,,,,,,,,,,,,,,0,0,0,0,0
1.6655,1783971478.5164,1,1,7.0000,-0.0001,1.42244,-0.00164,-2.63106,1.06194,1.57080,0.11675,-0.12763,-0.48152,0.03658,,,,,,,,,,,,,,,,,,,,,,,,,,0,0,0,0,0
1.6678,1783971478.5188,1,1,7.0000,-0.0001,1.42244,-0.00164,-2.63106,1.06194,1.57080,0.11675,-0.12763,-0.48152,0.03658,,,,,,,,,,,,,,,,,,,,,,,,,,0,0,0,0,0
1.6682,1783971478.5191,1,1,7.0000,-0.0001,1.42244,-0.00164,-2.63106,1.06194,1.57080,0.11675,-0.12763,-0.48152,0.03658,,,,,,,,,,,,,,,,,,,,,,,,,,0,0,0,0,0
1.6715,1783971478.5225,1,1,7.0000,-0.0001,1.42244,-0.00164,-2.63106,1.06194,1.57080,0.11675,-0.12763,-0.48152,0.03658,,,,,,,,,,,,,,,,,,,,,,,,,,0,0,0,0,0
1.6947,1783971478.5457,1,1,7.0000,-0.0001,1.42244,-0.00164,-2.63106,1.06194,1.57080,0.11675,-0.12763,-0.48152,0.03658,,,,,,,,,,,,,,,,,,,,,,,,,,0,0,0,0,0
1.7720,1783971478.6230,1,1,7.0000,-0.0001,1.42244,-0.00164,-2.63106,1.06194,1.57080,0.11675,-0.12763,-0.48152,0.03658,,,,,,,,,,,,,,,,,,,,,,,,,,0,0,0,0,0
1.7723,1783971478.6233,1,1,7.0000,-0.0001,1.42244,-0.00164,-2.63106,1.06194,1.57080,0.11675,-0.12763,-0.48152,0.03658,,,,,,,,,,,,,,,,,,,,,,,,,,0,0,0,0,0
1.7726,1783971478.6236,1,1,7.0000,-0.0001,1.42244,-0.00164,-2.63106,1.06194,1.57080,0.11675,-0.12763,-0.48152,0.03658,,,,,,,,,,,,,,,,,,,,,,,,,,0,0,0,0,0
1.7729,1783971478.6239,1,1,7.0000,-0.0001,1.42244,-0.00164,-2.63106,1.06194,1.57080,0.11675,-0.12763,-0.48152,0.03658,,,,,,,,,,,,,,,,,,,,,,,,,,0,0,0,0,0
1.7733,1783971478.6243,1,1,7.0000,-0.0001,1.42244,-0.00164,-2.63106,1.06194,1.57080,0.11675,-0.12763,-0.48152,0.03658,,,,,,,,,,,,,,,,,,,,,,,,,,0,0,0,0,0
1.7736,1783971478.6246,1,1,7.0000,-0.0001,1.42244,-0.00164,-2.63106,1.06194,1.57080,0.11675,-0.12763,-0.48152,0.03658,,,,,,,,,,,,,,,,,,,,,,,,,,0,0,0,0,0
1.7740,1783971478.6250,1,1,7.0000,-0.0001,1.42244,-0.00164,-2.63106,1.06194,1.57080,0.11675,-0.12763,-0.48152,0.03658,,,,,,,,,,,,,,,,,,,,,,,,,,0,0,0,0,0
1.7743,1783971478.6253,1,1,7.0000,-0.0001,1.42244,-0.00164,-2.63106,1.06194,1.57080,0.11675,-0.12763,-0.48152,0.03658,,,,,,,,,,,,,,,,,,,,,,,,,,0,0,0,0,0
1.7747,1783971478.6257,1,1,7.0000,-0.0001,1.42244,-0.00164,-2.63106,1.06194,1.57080,0.11675,-0.12763,-0.48152,0.03658,,,,,,,,,,,,,,,,,,,,,,,,,,0,0,0,0,0
1.7750,1783971478.6260,1,1,7.0000,-0.0001,1.42244,-0.00164,-2.63106,1.06194,1.57080,0.11675,-0.12763,-0.48152,0.03658,,,,,,,,,,,,,,,,,,,,,,,,,,0,0,0,0,0
1.7921,1783971478.6431,1,1,7.0000,-0.0001,1.42244,-0.00164,-2.63106,1.06194,1.57080,0.11675,-0.12763,-0.48152,0.03658,,,,,,,,,,,,,,,,,,,,,,,,,,0,0,0,0,0
1.7924,1783971478.6434,1,1,7.0000,-0.0001,1.42244,-0.00164,-2.63106,1.06194,1.57080,0.11675,-0.12763,-0.48152,0.03658,,,,,,,,,,,,,,,,,,,,,,,,,,0,0,0,0,0
1.8041,1783971478.6551,1,1,7.0000,-0.0001,1.42244,-0.00164,-2.63106,1.06194,1.57080,0.11675,-0.12763,-0.48152,0.03658,,,,,,,,,,,,,,,,,,,,,,,,,,0,0,0,0,0
1.8667,1783971478.7177,1,1,7.0000,-0.0001,1.42244,-0.00164,-2.63106,1.06194,1.57080,0.11675,-0.12763,-0.48152,0.03658,,,,,,,,,,,,,,,,,,,,,,,,,,0,0,0,0,0
1.8758,1783971478.7267,1,1,7.0000,-0.0001,1.42244,-0.00165,-2.63107,1.06196,1.57080,0.11675,-0.12763,-0.48152,0.03657,,,,,,,,,,,,,,,,,,,,,,,,,,0,0,0,0,0
1.8762,1783971478.7272,1,1,7.0000,-0.0001,1.42244,-0.00165,-2.63107,1.06196,1.57080,0.11675,-0.12763,-0.48152,0.03657,,,,,,,,,,,,,,,,,,,,,,,,,,0,0,0,0,0
1.8765,1783971478.7275,1,1,7.0000,-0.0001,1.42244,-0.00165,-2.63107,1.06196,1.57080,0.11675,-0.12763,-0.48152,0.03657,,,,,,,,,,,,,,,,,,,,,,,,,,0,0,0,0,0
1.8768,1783971478.7278,1,1,7.0000,-0.0001,1.42244,-0.00165,-2.63107,1.06196,1.57080,0.11675,-0.12763,-0.48152,0.03657,,,,,,,,,,,,,,,,,,,,,,,,,,0,0,0,0,0
1.8772,1783971478.7282,1,1,7.0000,-0.0001,1.42244,-0.00165,-2.63107,1.06196,1.57080,0.11675,-0.12763,-0.48152,0.03657,,,,,,,,,,,,,,,,,,,,,,,,,,0,0,0,0,0
1.8839,1783971478.7349,1,1,7.0000,-0.0001,1.42244,-0.00166,-2.63108,1.06198,1.57080,0.11675,-0.12763,-0.48151,0.03657,,,,,,,,,,,,,,,,,,,,,,,,,,0,0,0,0,0
1.8842,1783971478.7352,1,1,7.0000,-0.0001,1.42244,-0.00166,-2.63108,1.06198,1.57080,0.11675,-0.12763,-0.48151,0.03657,,,,,,,,,,,,,,,,,,,,,,,,,,0,0,0,0,0
1.9037,1783971478.7547,1,1,7.0000,-0.0001,1.42244,-0.00170,-2.63112,1.06202,1.57080,0.11675,-0.12764,-0.48149,0.03654,,,,,,,,,,,,,,,,,,,,,,,,,,0,0,0,0,0
1.9041,1783971478.7551,1,1,7.0000,-0.0001,1.42244,-0.00170,-2.63112,1.06202,1.57080,0.11675,-0.12764,-0.48149,0.03654,,,,,,,,,,,,,,,,,,,,,,,,,,0,0,0,0,0
1.9045,1783971478.7555,1,1,7.0000,-0.0001,1.42244,-0.00170,-2.63112,1.06202,1.57080,0.11675,-0.12764,-0.48149,0.03654,,,,,,,,,,,,,,,,,,,,,,,,,,0,0,0,0,0
1.9128,1783971478.7638,1,1,7.0000,-0.0001,1.42243,-0.00174,-2.63115,1.06207,1.57080,0.11675,-0.12764,-0.48147,0.03651,,,,,,,,,,,,,,,,,,,,,,,,,,0,0,0,0,0
1.9170,1783971478.7680,1,1,7.0000,-0.0001,1.42243,-0.00177,-2.63117,1.06210,1.57080,0.11675,-0.12764,-0.48146,0.03650,,,,,,,,,,,,,,,,,,,,,,,,,,0,0,0,0,0
1.9477,1783971478.7987,1,1,7.0000,-0.0001,1.42243,-0.00191,-2.63122,1.06227,1.57080,0.11675,-0.12764,-0.48144,0.03644,,,,,,,,,,,,,,,,,,,,,,,,,,0,0,0,0,0
1.9480,1783971478.7990,1,1,7.0000,-0.0001,1.42243,-0.00191,-2.63122,1.06227,1.57080,0.11675,-0.12764,-0.48144,0.03644,,,,,,,,,,,,,,,,,,,,,,,,,,0,0,0,0,0
1.9971,1783971478.8480,1,1,7.0000,-0.0001,1.42243,-0.00217,-2.63127,1.06258,1.57080,0.11675,-0.12764,-0.48145,0.03635,,,,,,,,,,,,,,,,,,,,,,,,,,0,0,0,0,0
1.9973,1783971478.8483,1,1,7.0000,-0.0001,1.42243,-0.00217,-2.63127,1.06258,1.57080,0.11675,-0.12764,-0.48145,0.03635,,,,,,,,,,,,,,,,,,,,,,,,,,0,0,0,0,0
2.0107,1783971478.8617,1,1,7.0000,-0.0001,1.42243,-0.00235,-2.63130,1.06279,1.57080,0.11675,-0.12764,-0.48146,0.03630,,,,,,,,,,,,,,,,,,,,,,,,,,0,0,0,0,0
2.0111,1783971478.8621,1,1,7.0000,-0.0001,1.42243,-0.00235,-2.63130,1.06279,1.57080,0.11675,-0.12764,-0.48146,0.03630,,,,,,,,,,,,,,,,,,,,,,,,,,0,0,0,0,0
2.0117,1783971478.8627,1,1,7.0000,-0.0001,1.42243,-0.00235,-2.63130,1.06279,1.57080,0.11675,-0.12764,-0.48146,0.03630,,,,,,,,,,,,,,,,,,,,,,,,,,0,0,0,0,0
2.0222,1783971478.8732,1,1,7.0000,-0.0001,1.42243,-0.00236,-2.63130,1.06281,1.57080,0.11675,-0.12764,-0.48146,0.03630,,,,,,,,,,,,,,,,,,,,,,,,,,0,0,0,0,0
2.0230,1783971478.8740,1,1,7.0000,-0.0001,1.42243,-0.00236,-2.63130,1.06281,1.57080,0.11675,-0.12764,-0.48146,0.03630,,,,,,,,,,,,,,,,,,,,,,,,,,0,0,0,0,0
2.0316,1783971478.8826,1,1,7.0000,-0.0001,1.42243,-0.00244,-2.63131,1.06291,1.57080,0.11675,-0.12764,-0.48146,0.03627,,,,,,,,,,,,,,,,,,,,,,,,,,0,0,0,0,0
2.0320,1783971478.8830,1,1,7.0000,-0.0001,1.42243,-0.00244,-2.63131,1.06291,1.57080,0.11675,-0.12764,-0.48146,0.03627,,,,,,,,,,,,,,,,,,,,,,,,,,0,0,0,0,0
2.0334,1783971478.8843,1,1,7.0000,-0.0001,1.42243,-0.00244,-2.63131,1.06291,1.57080,0.11675,-0.12764,-0.48146,0.03627,,,,,,,,,,,,,,,,,,,,,,,,,,0,0,0,0,0
2.0415,1783971478.8924,1,1,7.0000,-0.0001,1.42243,-0.00252,-2.63132,1.06300,1.57080,0.11675,-0.12764,-0.48147,0.03625,,,,,,,,,,,,,,,,,,,,,,,,,,0,0,0,0,0
2.0518,1783971478.9027,1,1,7.0000,-0.0001,1.42243,-0.00253,-2.63132,1.06302,1.57080,0.11675,-0.12764,-0.48147,0.03625,,,,,,,,,,,,,,,,,,,,,,,,,,0,0,0,0,0
2.0745,1783971478.9255,1,1,7.0000,-0.0001,1.42243,-0.00265,-2.63131,1.06318,1.57080,0.11675,-0.12763,-0.48150,0.03622,,,,,,,,,,,,,,,,,,,,,,,,,,0,0,0,0,0
2.1131,1783971478.9641,1,1,7.0000,-0.0001,1.42243,-0.00283,-2.63125,1.06340,1.57080,0.11675,-0.12762,-0.48158,0.03621,,,,,,,,,,,,,,,,,,,,,,,,,,0,0,0,0,0
2.1134,1783971478.9644,1,1,7.0000,-0.0001,1.42243,-0.00283,-2.63125,1.06340,1.57080,0.11675,-0.12762,-0.48158,0.03621,,,,,,,,,,,,,,,,,,,,,,,,,,0,0,0,0,0
2.1611,1783971479.0121,1,1,7.0000,-0.0001,1.42243,-0.00283,-2.63125,1.06340,1.57080,0.11675,-0.12762,-0.48158,0.03621,,,,,,,,,,,,,,,,,,,,,,,,,,0,0,0,0,0
2.2845,1783971479.1355,1,1,7.0000,-0.0001,1.42243,-0.00283,-2.63125,1.06340,1.57080,0.11675,-0.12762,-0.48158,0.03621,,,,,,,,,,,,,,,,,,,,,,,,,,0,0,0,0,0
2.2847,1783971479.1357,1,1,7.0000,-0.0001,1.42243,-0.00283,-2.63125,1.06340,1.57080,0.11675,-0.12762,-0.48158,0.03621,,,,,,,,,,,,,,,,,,,,,,,,,,0,0,0,0,0
2.2852,1783971479.1362,1,1,7.0000,-0.0001,1.42243,-0.00283,-2.63125,1.06340,1.57080,0.11675,-0.12762,-0.48158,0.03621,,,,,,,,,,,,,,,,,,,,,,,,,,0,0,0,0,0
2.2856,1783971479.1366,1,1,7.0000,-0.0001,1.42243,-0.00283,-2.63125,1.06340,1.57080,0.11675,-0.12762,-0.48158,0.03621,,,,,,,,,,,,,,,,,,,,,,,,,,0,0,0,0,0
2.2861,1783971479.1371,1,1,7.0000,-0.0001,1.42243,-0.00283,-2.63125,1.06340,1.57080,0.11675,-0.12762,-0.48158,0.03621,,,,,,,,,,,,,,,,,,,,,,,,,,0,0,0,0,0
2.2865,1783971479.1375,1,1,7.0000,-0.0001,1.42243,-0.00283,-2.63125,1.06340,1.57080,0.11675,-0.12762,-0.48158,0.03621,,,,,,,,,,,,,,,,,,,,,,,,,,0,0,0,0,0
2.2870,1783971479.1380,1,1,7.0000,-0.0001,1.42243,-0.00283,-2.63125,1.06340,1.57080,0.11675,-0.12762,-0.48158,0.03621,,,,,,,,,,,,,,,,,,,,,,,,,,0,0,0,0,0
2.2875,1783971479.1385,1,1,7.0000,-0.0001,1.42243,-0.00283,-2.63125,1.06341,1.57080,0.11675,-0.12762,-0.48158,0.03621,,,,,,,,,,,,,,,,,,,,,,,,,,0,0,0,0,0
2.2880,1783971479.1389,1,1,7.0000,-0.0001,1.42243,-0.00283,-2.63125,1.06341,1.57080,0.11675,-0.12762,-0.48158,0.03621,,,,,,,,,,,,,,,,,,,,,,,,,,0,0,0,0,0
2.2884,1783971479.1394,1,1,7.0000,-0.0001,1.42243,-0.00283,-2.63125,1.06341,1.57080,0.11675,-0.12762,-0.48158,0.03621,,,,,,,,,,,,,,,,,,,,,,,,,,0,0,0,0,0
2.2890,1783971479.1400,1,1,7.0000,-0.0001,1.42243,-0.00283,-2.63125,1.06341,1.57080,0.11675,-0.12762,-0.48158,0.03621,,,,,,,,,,,,,,,,,,,,,,,,,,0,0,0,0,0
2.2894,1783971479.1404,1,1,7.0000,-0.0001,1.42243,-0.00283,-2.63125,1.06341,1.57080,0.11675,-0.12762,-0.48158,0.03621,,,,,,,,,,,,,,,,,,,,,,,,,,0,0,0,0,0
2.2906,1783971479.1415,1,1,7.0000,-0.0001,1.42243,-0.00283,-2.63125,1.06341,1.57080,0.11675,-0.12762,-0.48158,0.03621,,,,,,,,,,,,,,,,,,,,,,,,,,0,0,0,0,0
2.2910,1783971479.1420,1,1,7.0000,-0.0001,1.42243,-0.00283,-2.63125,1.06341,1.57080,0.11675,-0.12762,-0.48158,0.03621,,,,,,,,,,,,,,,,,,,,,,,,,,0,0,0,0,0
2.2917,1783971479.1426,1,1,7.0000,-0.0001,1.42243,-0.00283,-2.63126,1.06341,1.57080,0.11675,-0.12762,-0.48157,0.03621,,,,,,,,,,,,,,,,,,,,,,,,,,0,0,0,0,0
2.3344,1783971479.1854,1,1,7.0000,-0.0001,1.42243,-0.00290,-2.63136,1.06350,1.57080,0.11675,-0.12763,-0.48151,0.03615,,,,,,,,,,,,,,,,,,,,,,,,,,0,0,0,0,0
2.3348,1783971479.1858,1,1,7.0000,-0.0001,1.42243,-0.00290,-2.63136,1.06350,1.57080,0.11675,-0.12763,-0.48151,0.03615,,,,,,,,,,,,,,,,,,,,,,,,,,0,0,0,0,0
2.3514,1783971479.2024,1,1,7.0000,-0.0001,1.42243,-0.00295,-2.63139,1.06355,1.57080,0.11675,-0.12763,-0.48150,0.03612,,,,,,,,,,,,,,,,,,,,,,,,,,0,0,0,0,0
2.3519,1783971479.2029,1,1,7.0000,-0.0001,1.42243,-0.00295,-2.63139,1.06355,1.57080,0.11675,-0.12763,-0.48150,0.03612,,,,,,,,,,,,,,,,,,,,,,,,,,0,0,0,0,0
2.3814,1783971479.2324,1,1,7.0000,-0.0001,1.42243,-0.00309,-2.63145,1.06371,1.57080,0.11675,-0.12764,-0.48147,0.03606,,,,,,,,,,,,,,,,,,,,,,,,,,0,0,0,0,0
2.3817,1783971479.2327,1,1,7.0000,-0.0001,1.42243,-0.00309,-2.63145,1.06371,1.57080,0.11675,-0.12764,-0.48147,0.03606,,,,,,,,,,,,,,,,,,,,,,,,,,0,0,0,0,0
2.3843,1783971479.2353,1,1,7.0000,-0.0001,1.42243,-0.00311,-2.63146,1.06374,1.57080,0.11675,-0.12764,-0.48147,0.03605,,,,,,,,,,,,,,,,,,,,,,,,,,0,0,0,0,0
2.3847,1783971479.2357,1,1,7.0000,-0.0001,1.42243,-0.00311,-2.63146,1.06374,1.57080,0.11675,-0.12764,-0.48147,0.03605,,,,,,,,,,,,,,,,,,,,,,,,,,0,0,0,0,0
2.4232,1783971479.2742,1,1,7.0000,-0.0001,1.42243,-0.00336,-2.63152,1.06404,1.57080,0.11675,-0.12764,-0.48147,0.03596,,,,,,,,,,,,,,,,,,,,,,,,,,0,0,0,0,0
2.4238,1783971479.2748,1,1,7.0000,-0.0001,1.42243,-0.00340,-2.63153,1.06409,1.57080,0.11675,-0.12764,-0.48147,0.03595,,,,,,,,,,,,,,,,,,,,,,,,,,0,0,0,0,0
2.4241,1783971479.2750,1,1,7.0000,-0.0001,1.42243,-0.00340,-2.63153,1.06409,1.57080,0.11675,-0.12764,-0.48147,0.03595,,,,,,,,,,,,,,,,,,,,,,,,,,0,0,0,0,0
2.4538,1783971479.3048,1,1,7.0000,-0.0001,1.42243,-0.00358,-2.63156,1.06430,1.57080,0.11675,-0.12764,-0.48147,0.03589,,,,,,,,,,,,,,,,,,,,,,,,,,0,0,0,0,0
2.4543,1783971479.3053,1,1,7.0000,-0.0001,1.42243,-0.00358,-2.63156,1.06430,1.57080,0.11675,-0.12764,-0.48147,0.03589,,,,,,,,,,,,,,,,,,,,,,,,,,0,0,0,0,0
2.4548,1783971479.3058,1,1,7.0000,-0.0001,1.42243,-0.00358,-2.63156,1.06430,1.57080,0.11675,-0.12764,-0.48147,0.03589,,,,,,,,,,,,,,,,,,,,,,,,,,0,0,0,0,0
2.4644,1783971479.3154,1,1,7.0000,-0.0001,1.42243,-0.00374,-2.63158,1.06449,1.57080,0.11675,-0.12763,-0.48148,0.03584,,,,,,,,,,,,,,,,,,,,,,,,,,0,0,0,0,0
2.4646,1783971479.3156,1,1,7.0000,-0.0001,1.42243,-0.00374,-2.63158,1.06449,1.57080,0.11675,-0.12763,-0.48148,0.03584,,,,,,,,,,,,,,,,,,,,,,,,,,0,0,0,0,0
2.4848,1783971479.3358,1,1,7.0000,-0.0001,1.42243,-0.00395,-2.63161,1.06476,1.57080,0.11675,-0.12763,-0.48149,0.03578,,,,,,,,,,,,,,,,,,,,,,,,,,0,0,0,0,0
2.4878,1783971479.3388,1,1,7.0000,-0.0001,1.42243,-0.00397,-2.63161,1.06479,1.57080,0.11675,-0.12763,-0.48150,0.03577,,,,,,,,,,,,,,,,,,,,,,,,,,0,0,0,0,0
2.4880,1783971479.3390,1,1,7.0000,-0.0001,1.42243,-0.00397,-2.63161,1.06479,1.57080,0.11675,-0.12763,-0.48150,0.03577,,,,,,,,,,,,,,,,,,,,,,,,,,0,0,0,0,0
2.5261,1783971479.3771,1,1,7.0000,-0.0001,1.42243,-0.00397,-2.63161,1.06479,1.57080,0.11675,-0.12763,-0.48150,0.03577,,,,,,,,,,,,,,,,,,,,,,,,,,0,0,0,0,0
2.5265,1783971479.3775,1,1,7.0000,-0.0001,1.42243,-0.00397,-2.63161,1.06479,1.57080,0.11675,-0.12763,-0.48150,0.03577,,,,,,,,,,,,,,,,,,,,,,,,,,0,0,0,0,0
2.5269,1783971479.3779,1,1,7.0000,-0.0001,1.42243,-0.00397,-2.63161,1.06479,1.57080,0.11675,-0.12763,-0.48150,0.03577,,,,,,,,,,,,,,,,,,,,,,,,,,0,0,0,0,0
2.5638,1783971479.4148,1,1,7.0000,-0.0001,1.42243,-0.00397,-2.63161,1.06479,1.57080,0.11675,-0.12763,-0.48150,0.03577,,,,,,,,,,,,,,,,,,,,,,,,,,0,0,0,0,0
2.5642,1783971479.4152,1,1,7.0000,-0.0001,1.42243,-0.00397,-2.63161,1.06479,1.57080,0.11675,-0.12763,-0.48150,0.03577,,,,,,,,,,,,,,,,,,,,,,,,,,0,0,0,0,0
2.5655,1783971479.4165,1,1,7.0000,-0.0001,1.42243,-0.00397,-2.63161,1.06479,1.57080,0.11675,-0.12763,-0.48150,0.03577,,,,,,,,,,,,,,,,,,,,,,,,,,0,0,0,0,0
2.5660,1783971479.4170,1,1,7.0000,-0.0001,1.42243,-0.00397,-2.63161,1.06479,1.57080,0.11675,-0.12763,-0.48150,0.03577,,,,,,,,,,,,,,,,,,,,,,,,,,0,0,0,0,0
2.6254,1783971479.4764,1,1,7.0000,-0.0001,1.42243,-0.00397,-2.63161,1.06479,1.57080,0.11675,-0.12763,-0.48150,0.03577,,,,,,,,,,,,,,,,,,,,,,,,,,0,0,0,0,0
2.6257,1783971479.4767,1,1,7.0000,-0.0001,1.42243,-0.00397,-2.63161,1.06479,1.57080,0.11675,-0.12763,-0.48150,0.03577,,,,,,,,,,,,,,,,,,,,,,,,,,0,0,0,0,0
2.6260,1783971479.4770,1,1,7.0000,-0.0001,1.42243,-0.00397,-2.63161,1.06479,1.57080,0.11675,-0.12763,-0.48150,0.03577,,,,,,,,,,,,,,,,,,,,,,,,,,0,0,0,0,0
2.6263,1783971479.4773,1,1,7.0000,-0.0001,1.42243,-0.00397,-2.63161,1.06479,1.57080,0.11675,-0.12763,-0.48150,0.03577,,,,,,,,,,,,,,,,,,,,,,,,,,0,0,0,0,0
2.6266,1783971479.4776,1,1,7.0000,-0.0001,1.42243,-0.00397,-2.63161,1.06479,1.57080,0.11675,-0.12763,-0.48150,0.03577,,,,,,,,,,,,,,,,,,,,,,,,,,0,0,0,0,0
2.6400,1783971479.4910,1,1,7.0000,-0.0001,1.42243,-0.00397,-2.63161,1.06479,1.57080,0.11675,-0.12763,-0.48150,0.03577,,,,,,,,,,,,,,,,,,,,,,,,,,0,0,0,0,0
2.7038,1783971479.5548,1,1,7.0000,-0.0001,1.42243,-0.00397,-2.63161,1.06479,1.57080,0.11675,-0.12763,-0.48150,0.03577,,,,,,,,,,,,,,,,,,,,,,,,,,0,0,0,0,0
2.7042,1783971479.5551,1,1,7.0000,-0.0001,1.42243,-0.00397,-2.63161,1.06479,1.57080,0.11675,-0.12763,-0.48150,0.03577,,,,,,,,,,,,,,,,,,,,,,,,,,0,0,0,0,0
2.7045,1783971479.5555,1,1,7.0000,-0.0001,1.42243,-0.00397,-2.63161,1.06479,1.57080,0.11675,-0.12763,-0.48150,0.03577,,,,,,,,,,,,,,,,,,,,,,,,,,0,0,0,0,0
2.7049,1783971479.5558,1,1,7.0000,-0.0001,1.42243,-0.00397,-2.63161,1.06479,1.57080,0.11675,-0.12763,-0.48150,0.03577,,,,,,,,,,,,,,,,,,,,,,,,,,0,0,0,0,0
2.7052,1783971479.5562,1,1,7.0000,-0.0001,1.42243,-0.00397,-2.63161,1.06479,1.57080,0.11675,-0.12763,-0.48150,0.03577,,,,,,,,,,,,,,,,,,,,,,,,,,0,0,0,0,0
2.7054,1783971479.5564,1,1,7.0000,-0.0001,1.42243,-0.00397,-2.63161,1.06479,1.57080,0.11675,-0.12763,-0.48150,0.03577,,,,,,,,,,,,,,,,,,,,,,,,,,0,0,0,0,0
2.7125,1783971479.5635,1,1,7.0000,-0.0001,1.42243,-0.00398,-2.63161,1.06480,1.57080,0.11675,-0.12763,-0.48150,0.03577,,,,,,,,,,,,,,,,,,,,,,,,,,0,0,0,0,0
2.7449,1783971479.5959,1,1,7.0000,-0.0001,1.42243,-0.00403,-2.63163,1.06486,1.57080,0.11675,-0.12763,-0.48149,0.03575,,,,,,,,,,,,,,,,,,,,,,,,,,0,0,0,0,0
2.7452,1783971479.5962,1,1,7.0000,-0.0001,1.42243,-0.00403,-2.63163,1.06486,1.57080,0.11675,-0.12763,-0.48149,0.03575,,,,,,,,,,,,,,,,,,,,,,,,,,0,0,0,0,0
2.7455,1783971479.5965,1,1,7.0000,-0.0001,1.42243,-0.00403,-2.63163,1.06486,1.57080,0.11675,-0.12763,-0.48149,0.03575,,,,,,,,,,,,,,,,,,,,,,,,,,0,0,0,0,0
2.7650,1783971479.6160,1,1,7.0000,-0.0001,1.42243,-0.00410,-2.63169,1.06495,1.57080,0.11675,-0.12764,-0.48147,0.03571,,,,,,,,,,,,,,,,,,,,,,,,,,0,0,0,0,0
2.7655,1783971479.6165,1,1,7.0000,-0.0001,1.42243,-0.00410,-2.63169,1.06495,1.57080,0.11675,-0.12764,-0.48147,0.03571,,,,,,,,,,,,,,,,,,,,,,,,,,0,0,0,0,0
2.7658,1783971479.6168,1,1,7.0000,-0.0001,1.42243,-0.00410,-2.63169,1.06495,1.57080,0.11675,-0.12764,-0.48147,0.03571,,,,,,,,,,,,,,,,,,,,,,,,,,0,0,0,0,0
2.7664,1783971479.6174,1,1,7.0000,-0.0001,1.42243,-0.00410,-2.63169,1.06495,1.57080,0.11675,-0.12764,-0.48147,0.03571,,,,,,,,,,,,,,,,,,,,,,,,,,0,0,0,0,0
2.7667,1783971479.6177,1,1,7.0000,-0.0001,1.42243,-0.00410,-2.63169,1.06495,1.57080,0.11675,-0.12764,-0.48147,0.03571,,,,,,,,,,,,,,,,,,,,,,,,,,0,0,0,0,0
2.7916,1783971479.6425,1,1,7.0000,-0.0001,1.42243,-0.00419,-2.63172,1.06505,1.57080,0.11675,-0.12764,-0.48145,0.03567,,,,,,,,,,,,,,,,,,,,,,,,,,0,0,0,0,0
2.8003,1783971479.6513,1,1,7.0000,-0.0001,1.42243,-0.00423,-2.63173,1.06510,1.57080,0.11675,-0.12764,-0.48145,0.03566,,,,,,,,,,,,,,,,,,,,,,,,,,0,0,0,0,0
2.8007,1783971479.6517,1,1,7.0000,-0.0001,1.42243,-0.00423,-2.63173,1.06510,1.57080,0.11675,-0.12764,-0.48145,0.03566,,,,,,,,,,,,,,,,,,,,,,,,,,0,0,0,0,0
2.8276,1783971479.6786,1,1,7.0000,-0.0001,1.42243,-0.00442,-2.63177,1.06534,1.57080,0.11675,-0.12764,-0.48145,0.03559,,,,,,,,,,,,,,,,,,,,,,,,,,0,0,0,0,0
2.8290,1783971479.6800,1,1,7.0000,-0.0001,1.42243,-0.00442,-2.63177,1.06534,1.57080,0.11675,-0.12764,-0.48145,0.03559,,,,,,,,,,,,,,,,,,,,,,,,,,0,0,0,0,0
2.8295,1783971479.6804,1,1,7.0000,-0.0001,1.42243,-0.00442,-2.63177,1.06534,1.57080,0.11675,-0.12764,-0.48145,0.03559,,,,,,,,,,,,,,,,,,,,,,,,,,0,0,0,0,0
2.8436,1783971479.6946,1,1,7.0000,-0.0001,1.42242,-0.00457,-2.63180,1.06552,1.57080,0.11675,-0.12764,-0.48145,0.03554,,,,,,,,,,,,,,,,,,,,,,,,,,0,0,0,0,0
2.8455,1783971479.6964,1,1,7.0000,-0.0001,1.42242,-0.00457,-2.63180,1.06552,1.57080,0.11675,-0.12764,-0.48145,0.03554,,,,,,,,,,,,,,,,,,,,,,,,,,0,0,0,0,0
2.8648,1783971479.7158,1,1,7.0000,-0.0001,1.42242,-0.00470,-2.63182,1.06567,1.57080,0.11675,-0.12764,-0.48146,0.03550,,,,,,,,,,,,,,,,,,,,,,,,,,0,0,0,0,0
2.8757,1783971479.7266,1,1,7.0000,-0.0001,1.42242,-0.00478,-2.63183,1.06577,1.57080,0.11675,-0.12763,-0.48146,0.03548,,,,,,,,,,,,,,,,,,,,,,,,,,0,0,0,0,0
2.8782,1783971479.7292,1,1,7.0000,-0.0001,1.42242,-0.00478,-2.63183,1.06577,1.57080,0.11675,-0.12763,-0.48146,0.03548,,,,,,,,,,,,,,,,,,,,,,,,,,0,0,0,0,0
2.8785,1783971479.7295,1,1,7.0000,-0.0001,1.42242,-0.00478,-2.63183,1.06577,1.57080,0.11675,-0.12763,-0.48146,0.03548,,,,,,,,,,,,,,,,,,,,,,,,,,0,0,0,0,0
2.8955,1783971479.7464,1,1,7.0000,-0.0001,1.42242,-0.00499,-2.63186,1.06602,1.57080,0.11675,-0.12763,-0.48148,0.03542,,,,,,,,,,,,,,,,,,,,,,,,,,0,0,0,0,0
2.8979,1783971479.7488,1,1,7.0000,-0.0001,1.42242,-0.00499,-2.63186,1.06602,1.57080,0.11675,-0.12763,-0.48148,0.03542,,,,,,,,,,,,,,,,,,,,,,,,,,0,0,0,0,0
2.8982,1783971479.7492,1,1,7.0000,-0.0001,1.42242,-0.00499,-2.63186,1.06602,1.57080,0.11675,-0.12763,-0.48148,0.03542,,,,,,,,,,,,,,,,,,,,,,,,,,0,0,0,0,0
2.9090,1783971479.7599,1,1,7.0000,-0.0001,1.42242,-0.00511,-2.63187,1.06617,1.57080,0.11675,-0.12763,-0.48149,0.03538,,,,,,,,,,,,,,,,,,,,,,,,,,0,0,0,0,0
2.9545,1783971479.8055,1,1,7.0000,-0.0001,1.42242,-0.00517,-2.63188,1.06625,1.57080,0.11675,-0.12763,-0.48150,0.03537,,,,,,,,,,,,,,,,,,,,,,,,,,0,0,0,0,0
2.9550,1783971479.8060,1,1,7.0000,-0.0001,1.42242,-0.00517,-2.63188,1.06625,1.57080,0.11675,-0.12763,-0.48150,0.03537,,,,,,,,,,,,,,,,,,,,,,,,,,0,0,0,0,0
2.9557,1783971479.8067,1,1,7.0000,-0.0001,1.42242,-0.00517,-2.63188,1.06625,1.57080,0.11675,-0.12763,-0.48150,0.03537,,,,,,,,,,,,,,,,,,,,,,,,,,0,0,0,0,0
2.9737,1783971479.8247,1,1,7.0000,-0.0001,1.42242,-0.00517,-2.63188,1.06625,1.57080,0.11675,-0.12763,-0.48150,0.03537,,,,,,,,,,,,,,,,,,,,,,,,,,0,0,0,0,0
3.0166,1783971479.8676,1,1,7.0000,-0.0001,1.42242,-0.00517,-2.63188,1.06625,1.57080,0.11675,-0.12763,-0.48150,0.03537,,,,,,,,,,,,,,,,,,,,,,,,,,0,0,0,0,0
3.0169,1783971479.8679,1,1,7.0000,-0.0001,1.42242,-0.00517,-2.63188,1.06625,1.57080,0.11675,-0.12763,-0.48150,0.03537,,,,,,,,,,,,,,,,,,,,,,,,,,0,0,0,0,0
3.0172,1783971479.8682,1,1,7.0000,-0.0001,1.42242,-0.00517,-2.63188,1.06625,1.57080,0.11675,-0.12763,-0.48150,0.03537,,,,,,,,,,,,,,,,,,,,,,,,,,0,0,0,0,0
3.0175,1783971479.8685,1,1,7.0000,-0.0001,1.42242,-0.00517,-2.63188,1.06625,1.57080,0.11675,-0.12763,-0.48150,0.03537,,,,,,,,,,,,,,,,,,,,,,,,,,0,0,0,0,0
3.0177,1783971479.8687,1,1,7.0000,-0.0001,1.42242,-0.00517,-2.63188,1.06625,1.57080,0.11675,-0.12763,-0.48150,0.03537,,,,,,,,,,,,,,,,,,,,,,,,,,0,0,0,0,0
3.0180,1783971479.8690,1,1,7.0000,-0.0001,1.42242,-0.00517,-2.63188,1.06625,1.57080,0.11675,-0.12763,-0.48150,0.03537,,,,,,,,,,,,,,,,,,,,,,,,,,0,0,0,0,0
3.0295,1783971479.8805,1,1,7.0000,-0.0001,1.42242,-0.00517,-2.63188,1.06625,1.57080,0.11675,-0.12763,-0.48150,0.03537,,,,,,,,,,,,,,,,,,,,,,,,,,0,0,0,0,0
3.0300,1783971479.8810,1,1,7.0000,-0.0001,1.42242,-0.00517,-2.63188,1.06625,1.57080,0.11675,-0.12763,-0.48150,0.03537,,,,,,,,,,,,,,,,,,,,,,,,,,0,0,0,0,0
3.0667,1783971479.9176,1,1,7.0000,-0.0001,1.42242,-0.00517,-2.63188,1.06625,1.57080,0.11675,-0.12763,-0.48150,0.03537,,,,,,,,,,,,,,,,,,,,,,,,,,0,0,0,0,0
3.0671,1783971479.9181,1,1,7.0000,-0.0001,1.42242,-0.00517,-2.63188,1.06625,1.57080,0.11675,-0.12763,-0.48150,0.03537,,,,,,,,,,,,,,,,,,,,,,,,,,0,0,0,0,0
3.0677,1783971479.9187,1,1,7.0000,-0.0001,1.42242,-0.00517,-2.63188,1.06625,1.57080,0.11675,-0.12763,-0.48150,0.03537,,,,,,,,,,,,,,,,,,,,,,,,,,0,0,0,0,0
3.0744,1783971479.9254,1,1,7.0000,-0.0001,1.42242,-0.00517,-2.63188,1.06625,1.57080,0.11675,-0.12763,-0.48150,0.03537,,,,,,,,,,,,,,,,,,,,,,,,,,0,0,0,0,0
3.1150,1783971479.9660,1,1,7.0000,-0.0001,1.42242,-0.00517,-2.63188,1.06625,1.57080,0.11675,-0.12763,-0.48150,0.03537,,,,,,,,,,,,,,,,,,,,,,,,,,0,0,0,0,0
3.1155,1783971479.9665,1,1,7.0000,-0.0001,1.42242,-0.00517,-2.63188,1.06625,1.57080,0.11675,-0.12763,-0.48150,0.03537,,,,,,,,,,,,,,,,,,,,,,,,,,0,0,0,0,0
3.1158,1783971479.9668,1,1,7.0000,-0.0001,1.42242,-0.00517,-2.63188,1.06625,1.57080,0.11675,-0.12763,-0.48150,0.03537,,,,,,,,,,,,,,,,,,,,,,,,,,0,0,0,0,0
3.1269,1783971479.9779,1,1,7.0000,-0.0001,1.42242,-0.00517,-2.63188,1.06625,1.57080,0.11675,-0.12763,-0.48150,0.03537,,,,,,,,,,,,,,,,,,,,,,,,,,0,0,0,0,0
3.1333,1783971479.9842,1,1,7.0000,-0.0001,1.42242,-0.00517,-2.63188,1.06625,1.57080,0.11675,-0.12763,-0.48150,0.03537,,,,,,,,,,,,,,,,,,,,,,,,,,0,0,0,0,0
3.1449,1783971479.9958,1,1,7.0000,-0.0001,1.42242,-0.00518,-2.63188,1.06628,1.57080,0.11675,-0.12763,-0.48150,0.03537,,,,,,,,,,,,,,,,,,,,,,,,,,0,0,0,0,0
3.1590,1783971480.0100,1,1,7.0000,-0.0001,1.42242,-0.00519,-2.63189,1.06629,1.57080,0.11675,-0.12763,-0.48150,0.03536,,,,,,,,,,,,,,,,,,,,,,,,,,0,0,0,0,0
3.1690,1783971480.0200,1,1,7.0000,-0.0001,1.42242,-0.00523,-2.63192,1.06633,1.57080,0.11675,-0.12763,-0.48148,0.03534,,,,,,,,,,,,,,,,,,,,,,,,,,0,0,0,0,0
3.1789,1783971480.0299,1,1,7.0000,-0.0001,1.42242,-0.00527,-2.63195,1.06638,1.57080,0.11675,-0.12763,-0.48146,0.03531,,,,,,,,,,,,,,,,,,,,,,,,,,0,0,0,0,0
3.1969,1783971480.0479,1,1,7.0000,-0.0001,1.42242,-0.00532,-2.63198,1.06644,1.57080,0.11675,-0.12764,-0.48145,0.03529,,,,,,,,,,,,,,,,,,,,,,,,,,0,0,0,0,0
3.2072,1783971480.0582,1,1,7.0000,-0.0001,1.42242,-0.00536,-2.63200,1.06648,1.57080,0.11675,-0.12764,-0.48144,0.03527,,,,,,,,,,,,,,,,,,,,,,,,,,0,0,0,0,0
3.2088,1783971480.0598,1,1,7.0000,-0.0001,1.42242,-0.00538,-2.63201,1.06651,1.57080,0.11675,-0.12764,-0.48144,0.03526,,,,,,,,,,,,,,,,,,,,,,,,,,0,0,0,0,0
3.2141,1783971480.0650,1,1,7.0000,-0.0001,1.42242,-0.00541,-2.63202,1.06654,1.57080,0.11675,-0.12764,-0.48143,0.03525,,,,,,,,,,,,,,,,,,,,,,,,,,0,0,0,0,0
3.2479,1783971480.0988,1,1,7.0000,-0.0001,1.42242,-0.00553,-2.63204,1.06669,1.57080,0.11675,-0.12764,-0.48144,0.03521,,,,,,,,,,,,,,,,,,,,,,,,,,0,0,0,0,0
3.2482,1783971480.0992,1,1,7.0000,-0.0001,1.42242,-0.00553,-2.63204,1.06669,1.57080,0.11675,-0.12764,-0.48144,0.03521,,,,,,,,,,,,,,,,,,,,,,,,,,0,0,0,0,0
3.2489,1783971480.0999,1,1,7.0000,-0.0001,1.42242,-0.00553,-2.63204,1.06669,1.57080,0.11675,-0.12764,-0.48144,0.03521,,,,,,,,,,,,,,,,,,,,,,,,,,0,0,0,0,0
3.2494,1783971480.1003,1,1,7.0000,-0.0001,1.42242,-0.00553,-2.63204,1.06669,1.57080,0.11675,-0.12764,-0.48144,0.03521,,,,,,,,,,,,,,,,,,,,,,,,,,0,0,0,0,0
3.2586,1783971480.1096,1,1,7.0000,-0.0001,1.42242,-0.00560,-2.63205,1.06678,1.57080,0.11675,-0.12764,-0.48144,0.03519,,,,,,,,,,,,,,,,,,,,,,,,,,0,0,0,0,0
3.2865,1783971480.1375,1,1,7.0000,-0.0001,1.42242,-0.00581,-2.63208,1.06703,1.57080,0.11675,-0.12763,-0.48145,0.03512,,,,,,,,,,,,,,,,,,,,,,,,,,0,0,0,0,0
3.2870,1783971480.1379,1,1,7.0000,-0.0001,1.42242,-0.00581,-2.63208,1.06703,1.57080,0.11675,-0.12763,-0.48145,0.03512,,,,,,,,,,,,,,,,,,,,,,,,,,0,0,0,0,0
3.2879,1783971480.1389,1,1,7.0000,-0.0001,1.42242,-0.00584,-2.63209,1.06707,1.57080,0.11675,-0.12763,-0.48145,0.03511,,,,,,,,,,,,,,,,,,,,,,,,,,0,0,0,0,0
3.3032,1783971480.1542,1,1,7.0000,-0.0001,1.42242,-0.00598,-2.63210,1.06723,1.57080,0.11675,-0.12763,-0.48146,0.03507,,,,,,,,,,,,,,,,,,,,,,,,,,0,0,0,0,0
3.3041,1783971480.1551,1,1,7.0000,-0.0001,1.42242,-0.00603,-2.63211,1.06729,1.57080,0.11675,-0.12763,-0.48146,0.03506,,,,,,,,,,,,,,,,,,,,,,,,,,0,0,0,0,0
3.3156,1783971480.1666,1,1,7.0000,-0.0001,1.42242,-0.00618,-2.63213,1.06748,1.57080,0.11675,-0.12763,-0.48147,0.03501,,,,,,,,,,,,,,,,,,,,,,,,,,0,0,0,0,0
3.3242,1783971480.1752,1,1,7.0000,-0.0001,1.42242,-0.00626,-2.63214,1.06758,1.57080,0.11675,-0.12763,-0.48148,0.03499,,,,,,,,,,,,,,,,,,,,,,,,,,0,0,0,0,0
3.3246,1783971480.1756,1,1,7.0000,-0.0001,1.42242,-0.00626,-2.63214,1.06758,1.57080,0.11675,-0.12763,-0.48148,0.03499,,,,,,,,,,,,,,,,,,,,,,,,,,0,0,0,0,0
3.3540,1783971480.2050,1,1,7.0000,-0.0001,1.42242,-0.00632,-2.63215,1.06766,1.57080,0.11675,-0.12763,-0.48149,0.03497,,,,,,,,,,,,,,,,,,,,,,,,,,0,0,0,0,0
3.3544,1783971480.2054,1,1,7.0000,-0.0001,1.42242,-0.00632,-2.63215,1.06766,1.57080,0.11675,-0.12763,-0.48149,0.03497,,,,,,,,,,,,,,,,,,,,,,,,,,0,0,0,0,0
3.3660,1783971480.2170,1,1,7.0000,-0.0001,1.42242,-0.00632,-2.63215,1.06766,1.57080,0.11675,-0.12763,-0.48149,0.03497,,,,,,,,,,,,,,,,,,,,,,,,,,0,0,0,0,0
3.3663,1783971480.2173,1,1,7.0000,-0.0001,1.42242,-0.00632,-2.63215,1.06766,1.57080,0.11675,-0.12763,-0.48149,0.03497,,,,,,,,,,,,,,,,,,,,,,,,,,0,0,0,0,0
3.3739,1783971480.2249,1,1,7.0000,-0.0001,1.42242,-0.00632,-2.63215,1.06766,1.57080,0.11675,-0.12763,-0.48149,0.03497,,,,,,,,,,,,,,,,,,,,,,,,,,0,0,0,0,0
3.3744,1783971480.2253,1,1,7.0000,-0.0001,1.42242,-0.00632,-2.63215,1.06766,1.57080,0.11675,-0.12763,-0.48149,0.03497,,,,,,,,,,,,,,,,,,,,,,,,,,0,0,0,0,0
3.3869,1783971480.2378,1,1,7.0000,-0.0001,1.42242,-0.00632,-2.63215,1.06766,1.57080,0.11675,-0.12763,-0.48149,0.03497,,,,,,,,,,,,,,,,,,,,,,,,,,0,0,0,0,0
3.3872,1783971480.2382,1,1,7.0000,-0.0001,1.42242,-0.00632,-2.63215,1.06766,1.57080,0.11675,-0.12763,-0.48149,0.03497,,,,,,,,,,,,,,,,,,,,,,,,,,0,0,0,0,0
3.4090,1783971480.2600,1,1,7.0000,-0.0001,1.42242,-0.00632,-2.63215,1.06766,1.57080,0.11675,-0.12763,-0.48149,0.03497,,,,,,,,,,,,,,,,,,,,,,,,,,0,0,0,0,0
3.4093,1783971480.2603,1,1,7.0000,-0.0001,1.42242,-0.00632,-2.63215,1.06766,1.57080,0.11675,-0.12763,-0.48149,0.03497,,,,,,,,,,,,,,,,,,,,,,,,,,0,0,0,0,0
3.4842,1783971480.3352,1,1,7.0000,-0.0001,1.42242,-0.00632,-2.63215,1.06766,1.57080,0.11675,-0.12763,-0.48149,0.03497,,,,,,,,,,,,,,,,,,,,,,,,,,0,0,0,0,0
3.4847,1783971480.3357,1,1,7.0000,-0.0001,1.42242,-0.00632,-2.63215,1.06766,1.57080,0.11675,-0.12763,-0.48149,0.03497,,,,,,,,,,,,,,,,,,,,,,,,,,0,0,0,0,0
3.4852,1783971480.3362,1,1,7.0000,-0.0001,1.42242,-0.00632,-2.63215,1.06766,1.57080,0.11675,-0.12763,-0.48149,0.03497,,,,,,,,,,,,,,,,,,,,,,,,,,0,0,0,0,0
3.4856,1783971480.3366,1,1,7.0000,-0.0001,1.42242,-0.00632,-2.63215,1.06766,1.57080,0.11675,-0.12763,-0.48149,0.03497,,,,,,,,,,,,,,,,,,,,,,,,,,0,0,0,0,0
3.4862,1783971480.3371,1,1,7.0000,-0.0001,1.42242,-0.00632,-2.63215,1.06766,1.57080,0.11675,-0.12763,-0.48149,0.03497,,,,,,,,,,,,,,,,,,,,,,,,,,0,0,0,0,0
3.4866,1783971480.3375,1,1,7.0000,-0.0001,1.42242,-0.00632,-2.63215,1.06766,1.57080,0.11675,-0.12763,-0.48149,0.03497,,,,,,,,,,,,,,,,,,,,,,,,,,0,0,0,0,0
3.5048,1783971480.3558,1,1,7.0000,-0.0001,1.42242,-0.00632,-2.63215,1.06766,1.57080,0.11675,-0.12763,-0.48149,0.03497,,,,,,,,,,,,,,,,,,,,,,,,,,0,0,0,0,0
3.5101,1783971480.3611,1,1,7.0000,-0.0001,1.42242,-0.00632,-2.63215,1.06766,1.57080,0.11675,-0.12763,-0.48149,0.03497,,,,,,,,,,,,,,,,,,,,,,,,,,0,0,0,0,0
3.5107,1783971480.3616,1,1,7.0000,-0.0001,1.42242,-0.00632,-2.63215,1.06766,1.57080,0.11675,-0.12763,-0.48149,0.03497,,,,,,,,,,,,,,,,,,,,,,,,,,0,0,0,0,0
3.5305,1783971480.3815,1,1,7.0000,-0.0001,1.42242,-0.00632,-2.63215,1.06766,1.57080,0.11675,-0.12763,-0.48149,0.03497,,,,,,,,,,,,,,,,,,,,,,,,,,0,0,0,0,0
3.5710,1783971480.4220,1,1,7.0000,-0.0001,1.42242,-0.00635,-2.63215,1.06771,1.57080,0.11675,-0.12763,-0.48150,0.03497,,,,,,,,,,,,,,,,,,,,,,,,,,0,0,0,0,0
3.5713,1783971480.4223,1,1,7.0000,-0.0001,1.42242,-0.00635,-2.63215,1.06771,1.57080,0.11675,-0.12763,-0.48150,0.03497,,,,,,,,,,,,,,,,,,,,,,,,,,0,0,0,0,0
3.5719,1783971480.4229,1,1,7.0000,-0.0001,1.42242,-0.00636,-2.63215,1.06773,1.57080,0.11675,-0.12763,-0.48150,0.03496,,,,,,,,,,,,,,,,,,,,,,,,,,0,0,0,0,0
3.5730,1783971480.4239,1,1,7.0000,-0.0001,1.42242,-0.00636,-2.63215,1.06773,1.57080,0.11675,-0.12763,-0.48150,0.03496,,,,,,,,,,,,,,,,,,,,,,,,,,0,0,0,0,0
3.5733,1783971480.4243,1,1,7.0000,-0.0001,1.42242,-0.00636,-2.63215,1.06773,1.57080,0.11675,-0.12763,-0.48150,0.03496,,,,,,,,,,,,,,,,,,,,,,,,,,0,0,0,0,0
3.5781,1783971480.4291,1,1,7.0000,-0.0001,1.42242,-0.00636,-2.63215,1.06773,1.57080,0.11675,-0.12763,-0.48150,0.03496,,,,,,,,,,,,,,,,,,,,,,,,,,0,0,0,0,0
3.5908,1783971480.4418,1,1,7.0000,-0.0001,1.42242,-0.00638,-2.63216,1.06775,1.57080,0.11675,-0.12763,-0.48149,0.03495,,,,,,,,,,,,,,,,,,,,,,,,,,0,0,0,0,0
3.5911,1783971480.4421,1,1,7.0000,-0.0001,1.42242,-0.00638,-2.63216,1.06775,1.57080,0.11675,-0.12763,-0.48149,0.03495,,,,,,,,,,,,,,,,,,,,,,,,,,0,0,0,0,0
3.6126,1783971480.4636,1,1,7.0000,-0.0001,1.42242,-0.00651,-2.63225,1.06789,1.57080,0.11675,-0.12763,-0.48144,0.03488,,,,,,,,,,,,,,,,,,,,,,,,,,0,0,0,0,0
3.6129,1783971480.4639,1,1,7.0000,-0.0001,1.42242,-0.00651,-2.63225,1.06789,1.57080,0.11675,-0.12763,-0.48144,0.03488,,,,,,,,,,,,,,,,,,,,,,,,,,0,0,0,0,0
3.6189,1783971480.4699,1,1,7.0000,-0.0001,1.42242,-0.00654,-2.63226,1.06792,1.57080,0.11675,-0.12763,-0.48144,0.03487,,,,,,,,,,,,,,,,,,,,,,,,,,0,0,0,0,0
3.6197,1783971480.4707,1,1,7.0000,-0.0001,1.42242,-0.00656,-2.63228,1.06796,1.57080,0.11675,-0.12764,-0.48143,0.03485,,,,,,,,,,,,,,,,,,,,,,,,,,0,0,0,0,0
3.6399,1783971480.4909,1,1,7.0000,-0.0001,1.42242,-0.00664,-2.63232,1.06804,1.57080,0.11675,-0.12764,-0.48141,0.03482,,,,,,,,,,,,,,,,,,,,,,,,,,0,0,0,0,0
3.6494,1783971480.5004,1,1,7.0000,-0.0001,1.42242,-0.00667,-2.63232,1.06808,1.57080,0.11675,-0.12764,-0.48142,0.03481,,,,,,,,,,,,,,,,,,,,,,,,,,0,0,0,0,0
3.6527,1783971480.5037,1,1,7.0000,-0.0001,1.42242,-0.00669,-2.63232,1.06811,1.57080,0.11675,-0.12764,-0.48142,0.03480,,,,,,,,,,,,,,,,,,,,,,,,,,0,0,0,0,0
3.6531,1783971480.5041,1,1,7.0000,-0.0001,1.42242,-0.00669,-2.63232,1.06811,1.57080,0.11675,-0.12764,-0.48142,0.03480,,,,,,,,,,,,,,,,,,,,,,,,,,0,0,0,0,0
3.6680,1783971480.5189,1,1,7.0000,-0.0001,1.42242,-0.00676,-2.63232,1.06819,1.57080,0.11675,-0.12764,-0.48143,0.03479,,,,,,,,,,,,,,,,,,,,,,,,,,0,0,0,0,0
3.6717,1783971480.5227,1,1,7.0000,-0.0001,1.42242,-0.00676,-2.63232,1.06819,1.57080,0.11675,-0.12764,-0.48143,0.03479,,,,,,,,,,,,,,,,,,,,,,,,,,0,0,0,0,0
3.6873,1783971480.5383,1,1,7.0000,-0.0001,1.42242,-0.00687,-2.63234,1.06832,1.57080,0.11675,-0.12763,-0.48143,0.03475,,,,,,,,,,,,,,,,,,,,,,,,,,0,0,0,0,0
3.7009,1783971480.5519,1,1,7.0000,-0.0001,1.42242,-0.00696,-2.63235,1.06844,1.57080,0.11675,-0.12763,-0.48144,0.03473,,,,,,,,,,,,,,,,,,,,,,,,,,0,0,0,0,0
3.7283,1783971480.5792,1,1,7.0000,-0.0001,1.42242,-0.00721,-2.63237,1.06874,1.57080,0.11675,-0.12763,-0.48146,0.03466,,,,,,,,,,,,,,,,,,,,,,,,,,0,0,0,0,0
3.7288,1783971480.5798,1,1,7.0000,-0.0001,1.42242,-0.00721,-2.63237,1.06874,1.57080,0.11675,-0.12763,-0.48146,0.03466,,,,,,,,,,,,,,,,,,,,,,,,,,0,0,0,0,0
3.7291,1783971480.5801,1,1,7.0000,-0.0001,1.42242,-0.00721,-2.63237,1.06874,1.57080,0.11675,-0.12763,-0.48146,0.03466,,,,,,,,,,,,,,,,,,,,,,,,,,0,0,0,0,0
3.7332,1783971480.5842,1,1,7.0000,-0.0001,1.42241,-0.00726,-2.63238,1.06880,1.57080,0.11675,-0.12763,-0.48147,0.03464,,,,,,,,,,,,,,,,,,,,,,,,,,0,0,0,0,0
3.7493,1783971480.6003,1,1,7.0000,-0.0001,1.42241,-0.00744,-2.63240,1.06903,1.57080,0.11675,-0.12763,-0.48149,0.03459,,,,,,,,,,,,,,,,,,,,,,,,,,0,0,0,0,0
3.7516,1783971480.6026,1,1,7.0000,-0.0001,1.42241,-0.00744,-2.63240,1.06903,1.57080,0.11675,-0.12763,-0.48149,0.03459,,,,,,,,,,,,,,,,,,,,,,,,,,0,0,0,0,0
3.7618,1783971480.6128,1,1,7.0000,-0.0001,1.42241,-0.00751,-2.63240,1.06911,1.57080,0.11675,-0.12762,-0.48149,0.03457,,,,,,,,,,,,,,,,,,,,,,,,,,0,0,0,0,0
3.7717,1783971480.6227,1,1,7.0000,-0.0001,1.42241,-0.00751,-2.63240,1.06911,1.57080,0.11675,-0.12762,-0.48149,0.03457,,,,,,,,,,,,,,,,,,,,,,,,,,0,0,0,0,0
3.7830,1783971480.6340,1,1,7.0000,-0.0001,1.42241,-0.00751,-2.63240,1.06911,1.57080,0.11675,-0.12762,-0.48149,0.03457,,,,,,,,,,,,,,,,,,,,,,,,,,0,0,0,0,0
3.8123,1783971480.6633,1,1,7.0000,-0.0001,1.42241,-0.00751,-2.63240,1.06911,1.57080,0.11675,-0.12762,-0.48149,0.03457,,,,,,,,,,,,,,,,,,,,,,,,,,0,0,0,0,0
3.8189,1783971480.6699,1,1,7.0000,-0.0001,1.42241,-0.00751,-2.63240,1.06911,1.57080,0.11675,-0.12762,-0.48149,0.03457,,,,,,,,,,,,,,,,,,,,,,,,,,0,0,0,0,0
3.8193,1783971480.6703,1,1,7.0000,-0.0001,1.42241,-0.00751,-2.63240,1.06911,1.57080,0.11675,-0.12762,-0.48149,0.03457,,,,,,,,,,,,,,,,,,,,,,,,,,0,0,0,0,0
3.8198,1783971480.6707,1,1,7.0000,-0.0001,1.42241,-0.00751,-2.63240,1.06911,1.57080,0.11675,-0.12762,-0.48149,0.03457,,,,,,,,,,,,,,,,,,,,,,,,,,0,0,0,0,0
3.8205,1783971480.6715,1,1,7.0000,-0.0001,1.42241,-0.00751,-2.63240,1.06911,1.57080,0.11675,-0.12762,-0.48149,0.03457,,,,,,,,,,,,,,,,,,,,,,,,,,0,0,0,0,0
3.8301,1783971480.6811,1,1,7.0000,-0.0001,1.42241,-0.00751,-2.63240,1.06911,1.57080,0.11675,-0.12762,-0.48149,0.03457,,,,,,,,,,,,,,,,,,,,,,,,,,0,0,0,0,0
3.8683,1783971480.7192,1,1,7.0000,-0.0001,1.42241,-0.00751,-2.63240,1.06911,1.57080,0.11675,-0.12762,-0.48149,0.03457,,,,,,,,,,,,,,,,,,,,,,,,,,0,0,0,0,0
3.8724,1783971480.7234,1,1,7.0000,-0.0001,1.42241,-0.00751,-2.63240,1.06911,1.57080,0.11675,-0.12762,-0.48149,0.03457,,,,,,,,,,,,,,,,,,,,,,,,,,0,0,0,0,0
3.8775,1783971480.7285,1,1,7.0000,-0.0001,1.42241,-0.00751,-2.63240,1.06911,1.57080,0.11675,-0.12762,-0.48149,0.03457,,,,,,,,,,,,,,,,,,,,,,,,,,0,0,0,0,0
3.8927,1783971480.7437,1,1,7.0000,-0.0001,1.42241,-0.00751,-2.63240,1.06911,1.57080,0.11675,-0.12762,-0.48149,0.03457,,,,,,,,,,,,,,,,,,,,,,,,,,0,0,0,0,0
3.8932,1783971480.7442,1,1,7.0000,-0.0001,1.42241,-0.00751,-2.63240,1.06911,1.57080,0.11675,-0.12762,-0.48149,0.03457,,,,,,,,,,,,,,,,,,,,,,,,,,0,0,0,0,0
3.9222,1783971480.7732,1,1,7.0000,-0.0001,1.42241,-0.00751,-2.63240,1.06911,1.57080,0.11675,-0.12762,-0.48149,0.03457,,,,,,,,,,,,,,,,,,,,,,,,,,0,0,0,0,0
3.9226,1783971480.7736,1,1,7.0000,-0.0001,1.42241,-0.00751,-2.63240,1.06911,1.57080,0.11675,-0.12762,-0.48149,0.03457,,,,,,,,,,,,,,,,,,,,,,,,,,0,0,0,0,0
3.9230,1783971480.7740,1,1,7.0000,-0.0001,1.42241,-0.00751,-2.63240,1.06911,1.57080,0.11675,-0.12762,-0.48149,0.03457,,,,,,,,,,,,,,,,,,,,,,,,,,0,0,0,0,0
3.9234,1783971480.7743,1,1,7.0000,-0.0001,1.42241,-0.00751,-2.63240,1.06911,1.57080,0.11675,-0.12762,-0.48149,0.03457,,,,,,,,,,,,,,,,,,,,,,,,,,0,0,0,0,0
3.9325,1783971480.7835,1,1,7.0000,-0.0001,1.42241,-0.00751,-2.63240,1.06911,1.57080,0.11675,-0.12762,-0.48149,0.03457,,,,,,,,,,,,,,,,,,,,,,,,,,0,0,0,0,0
3.9469,1783971480.7979,1,1,7.0000,-0.0001,1.42241,-0.00751,-2.63240,1.06911,1.57080,0.11675,-0.12762,-0.48149,0.03457,,,,,,,,,,,,,,,,,,,,,,,,,,0,0,0,0,0
3.9517,1783971480.8026,1,1,7.0000,-0.0001,1.42241,-0.00751,-2.63240,1.06911,1.57080,0.11675,-0.12762,-0.48149,0.03457,,,,,,,,,,,,,,,,,,,,,,,,,,0,0,0,0,0
3.9567,1783971480.8076,1,1,7.0000,-0.0001,1.42241,-0.00751,-2.63240,1.06911,1.57080,0.11675,-0.12762,-0.48149,0.03457,,,,,,,,,,,,,,,,,,,,,,,,,,0,0,0,0,0
3.9738,1783971480.8247,1,1,7.0000,-0.0001,1.42241,-0.00751,-2.63240,1.06911,1.57080,0.11675,-0.12762,-0.48149,0.03457,,,,,,,,,,,,,,,,,,,,,,,,,,0,0,0,0,0
3.9817,1783971480.8326,1,1,7.0000,-0.0001,1.42241,-0.00751,-2.63240,1.06911,1.57080,0.11675,-0.12762,-0.48149,0.03457,,,,,,,,,,,,,,,,,,,,,,,,,,0,0,0,0,0
3.9915,1783971480.8425,1,1,7.0000,-0.0001,1.42241,-0.00751,-2.63240,1.06911,1.57080,0.11675,-0.12762,-0.48149,0.03457,,,,,,,,,,,,,,,,,,,,,,,,,,0,0,0,0,0
4.0284,1783971480.8794,1,1,7.0000,-0.0001,1.42241,-0.00760,-2.63245,1.06923,1.57080,0.11675,-0.12763,-0.48148,0.03453,,,,,,,,,,,,,,,,,,,,,,,,,,0,0,0,0,0
4.0287,1783971480.8796,1,1,7.0000,-0.0001,1.42241,-0.00760,-2.63245,1.06923,1.57080,0.11675,-0.12763,-0.48148,0.03453,,,,,,,,,,,,,,,,,,,,,,,,,,0,0,0,0,0
4.0412,1783971480.8922,1,1,7.0000,-0.0001,1.42241,-0.00764,-2.63247,1.06928,1.57080,0.11675,-0.12763,-0.48147,0.03451,,,,,,,,,,,,,,,,,,,,,,,,,,0,0,0,0,0
4.0415,1783971480.8924,1,1,7.0000,-0.0001,1.42241,-0.00764,-2.63247,1.06928,1.57080,0.11675,-0.12763,-0.48147,0.03451,,,,,,,,,,,,,,,,,,,,,,,,,,0,0,0,0,0
4.0688,1783971480.9197,1,1,7.0000,-0.0001,1.42241,-0.00777,-2.63251,1.06943,1.57080,0.11675,-0.12763,-0.48146,0.03446,,,,,,,,,,,,,,,,,,,,,,,,,,0,0,0,0,0
4.0692,1783971480.9201,1,1,7.0000,-0.0001,1.42241,-0.00777,-2.63251,1.06943,1.57080,0.11675,-0.12763,-0.48146,0.03446,,,,,,,,,,,,,,,,,,,,,,,,,,0,0,0,0,0
4.0700,1783971480.9209,1,1,7.0000,-0.0001,1.42241,-0.00777,-2.63251,1.06943,1.57080,0.11675,-0.12763,-0.48146,0.03446,,,,,,,,,,,,,,,,,,,,,,,,,,0,0,0,0,0
4.0704,1783971480.9214,1,1,7.0000,-0.0001,1.42241,-0.00777,-2.63251,1.06943,1.57080,0.11675,-0.12763,-0.48146,0.03446,,,,,,,,,,,,,,,,,,,,,,,,,,0,0,0,0,0
4.1004,1783971480.9513,1,1,7.0000,-0.0001,1.42241,-0.00798,-2.63256,1.06969,1.57080,0.11675,-0.12763,-0.48146,0.03439,,,,,,,,,,,,,,,,,,,,,,,,,,0,0,0,0,0
4.1005,1783971480.9515,1,1,7.0000,-0.0001,1.42241,-0.00798,-2.63256,1.06969,1.57080,0.11675,-0.12763,-0.48146,0.03439,,,,,,,,,,,,,,,,,,,,,,,,,,0,0,0,0,0
4.1067,1783971480.9577,1,1,7.0000,-0.0001,1.42241,-0.00803,-2.63257,1.06974,1.57080,0.11675,-0.12763,-0.48146,0.03438,,,,,,,,,,,,,,,,,,,,,,,,,,0,0,0,0,0
4.1209,1783971480.9718,1,1,7.0000,-0.0001,1.42241,-0.00811,-2.63258,1.06983,1.57080,0.11675,-0.12763,-0.48146,0.03435,,,,,,,,,,,,,,,,,,,,,,,,,,0,0,0,0,0
4.1443,1783971480.9953,1,1,7.0000,-0.0001,1.42241,-0.00826,-2.63260,1.07002,1.57080,0.11675,-0.12763,-0.48146,0.03430,,,,,,,,,,,,,,,,,,,,,,,,,,0,0,0,0,0
4.1446,1783971480.9956,1,1,7.0000,-0.0001,1.42241,-0.00826,-2.63260,1.07002,1.57080,0.11675,-0.12763,-0.48146,0.03430,,,,,,,,,,,,,,,,,,,,,,,,,,0,0,0,0,0
4.1636,1783971481.0146,1,1,7.0000,-0.0001,1.42241,-0.00837,-2.63261,1.07015,1.57080,0.11675,-0.12763,-0.48147,0.03427,,,,,,,,,,,,,,,,,,,,,,,,,,0,0,0,0,0
4.1642,1783971481.0151,1,1,7.0000,-0.0001,1.42241,-0.00841,-2.63262,1.07020,1.57080,0.11675,-0.12762,-0.48148,0.03426,,,,,,,,,,,,,,,,,,,,,,,,,,0,0,0,0,0
4.1644,1783971481.0154,1,1,7.0000,-0.0001,1.42241,-0.00841,-2.63262,1.07020,1.57080,0.11675,-0.12762,-0.48148,0.03426,,,,,,,,,,,,,,,,,,,,,,,,,,0,0,0,0,0
4.1792,1783971481.0302,1,1,7.0000,-0.0001,1.42241,-0.00855,-2.63262,1.07037,1.57080,0.11675,-0.12762,-0.48150,0.03423,,,,,,,,,,,,,,,,,,,,,,,,,,0,0,0,0,0
4.1796,1783971481.0306,1,1,7.0000,-0.0001,1.42241,-0.00855,-2.63262,1.07037,1.57080,0.11675,-0.12762,-0.48150,0.03423,,,,,,,,,,,,,,,,,,,,,,,,,,0,0,0,0,0
4.1937,1783971481.0446,1,1,7.0000,-0.0001,1.42241,-0.00870,-2.63262,1.07056,1.57080,0.11675,-0.12762,-0.48152,0.03419,,,,,,,,,,,,,,,,,,,,,,,,,,0,0,0,0,0
4.2297,1783971481.0806,1,1,7.0000,-0.0001,1.42241,-0.00874,-2.63261,1.07061,1.57080,0.11675,-0.12762,-0.48154,0.03419,,,,,,,,,,,,,,,,,,,,,,,,,,0,0,0,0,0
4.2408,1783971481.0917,1,1,7.0000,-0.0001,1.42241,-0.00874,-2.63261,1.07061,1.57080,0.11675,-0.12762,-0.48154,0.03419,,,,,,,,,,,,,,,,,,,,,,,,,,0,0,0,0,0
4.2410,1783971481.0920,1,1,7.0000,-0.0001,1.42241,-0.00874,-2.63261,1.07061,1.57080,0.11675,-0.12762,-0.48154,0.03419,,,,,,,,,,,,,,,,,,,,,,,,,,0,0,0,0,0
4.2413,1783971481.0923,1,1,7.0000,-0.0001,1.42241,-0.00874,-2.63261,1.07061,1.57080,0.11675,-0.12762,-0.48154,0.03419,,,,,,,,,,,,,,,,,,,,,,,,,,0,0,0,0,0
4.2475,1783971481.0985,1,1,7.0000,-0.0001,1.42241,-0.00874,-2.63261,1.07061,1.57080,0.11675,-0.12762,-0.48154,0.03419,,,,,,,,,,,,,,,,,,,,,,,,,,0,0,0,0,0
4.2479,1783971481.0988,1,1,7.0000,-0.0001,1.42241,-0.00874,-2.63261,1.07061,1.57080,0.11675,-0.12762,-0.48154,0.03419,,,,,,,,,,,,,,,,,,,,,,,,,,0,0,0,0,0
4.2726,1783971481.1236,1,1,7.0000,-0.0001,1.42241,-0.00874,-2.63261,1.07061,1.57080,0.11675,-0.12762,-0.48154,0.03419,,,,,,,,,,,,,,,,,,,,,,,,,,0,0,0,0,0
4.2730,1783971481.1240,1,1,7.0000,-0.0001,1.42241,-0.00874,-2.63261,1.07061,1.57080,0.11675,-0.12762,-0.48154,0.03419,,,,,,,,,,,,,,,,,,,,,,,,,,0,0,0,0,0
4.2808,1783971481.1318,1,1,7.0000,-0.0001,1.42241,-0.00874,-2.63261,1.07061,1.57080,0.11675,-0.12762,-0.48154,0.03419,,,,,,,,,,,,,,,,,,,,,,,,,,0,0,0,0,0
4.2909,1783971481.1419,1,1,7.0000,-0.0001,1.42241,-0.00874,-2.63261,1.07061,1.57080,0.11675,-0.12762,-0.48154,0.03419,,,,,,,,,,,,,,,,,,,,,,,,,,0,0,0,0,0
4.3012,1783971481.1522,1,1,7.0000,-0.0001,1.42241,-0.00874,-2.63261,1.07061,1.57080,0.11675,-0.12762,-0.48154,0.03419,,,,,,,,,,,,,,,,,,,,,,,,,,0,0,0,0,0
4.3015,1783971481.1525,1,1,7.0000,-0.0001,1.42241,-0.00874,-2.63261,1.07061,1.57080,0.11675,-0.12762,-0.48154,0.03419,,,,,,,,,,,,,,,,,,,,,,,,,,0,0,0,0,0
4.3112,1783971481.1622,1,1,7.0000,-0.0001,1.42241,-0.00874,-2.63261,1.07061,1.57080,0.11675,-0.12762,-0.48154,0.03419,,,,,,,,,,,,,,,,,,,,,,,,,,0,0,0,0,0
4.3840,1783971481.2350,1,1,7.0000,-0.0001,1.42241,-0.00874,-2.63261,1.07061,1.57080,0.11675,-0.12762,-0.48154,0.03419,,,,,,,,,,,,,,,,,,,,,,,,,,0,0,0,0,0
4.3846,1783971481.2355,1,1,7.0000,-0.0001,1.42241,-0.00874,-2.63261,1.07061,1.57080,0.11675,-0.12762,-0.48154,0.03419,,,,,,,,,,,,,,,,,,,,,,,,,,0,0,0,0,0
4.3848,1783971481.2358,1,1,7.0000,-0.0001,1.42241,-0.00874,-2.63261,1.07061,1.57080,0.11675,-0.12762,-0.48154,0.03419,,,,,,,,,,,,,,,,,,,,,,,,,,0,0,0,0,0
4.3852,1783971481.2362,1,1,7.0000,-0.0001,1.42241,-0.00874,-2.63261,1.07061,1.57080,0.11675,-0.12762,-0.48154,0.03419,,,,,,,,,,,,,,,,,,,,,,,,,,0,0,0,0,0
4.3909,1783971481.2419,1,1,7.0000,-0.0001,1.42241,-0.00874,-2.63261,1.07061,1.57080,0.11675,-0.12762,-0.48154,0.03419,,,,,,,,,,,,,,,,,,,,,,,,,,0,0,0,0,0
4.3914,1783971481.2424,1,1,7.0000,-0.0001,1.42241,-0.00874,-2.63261,1.07061,1.57080,0.11675,-0.12762,-0.48154,0.03419,,,,,,,,,,,,,,,,,,,,,,,,,,0,0,0,0,0
4.4032,1783971481.2541,1,1,7.0000,-0.0001,1.42241,-0.00874,-2.63261,1.07061,1.57080,0.11675,-0.12762,-0.48154,0.03419,,,,,,,,,,,,,,,,,,,,,,,,,,0,0,0,0,0
4.4428,1783971481.2938,1,1,7.0000,-0.0001,1.42241,-0.00879,-2.63267,1.07068,1.57080,0.11675,-0.12762,-0.48150,0.03415,,,,,,,,,,,,,,,,,,,,,,,,,,0,0,0,0,0
4.4433,1783971481.2943,1,1,7.0000,-0.0001,1.42241,-0.00879,-2.63267,1.07068,1.57080,0.11675,-0.12762,-0.48150,0.03415,,,,,,,,,,,,,,,,,,,,,,,,,,0,0,0,0,0
4.4436,1783971481.2946,1,1,7.0000,-0.0001,1.42241,-0.00879,-2.63267,1.07068,1.57080,0.11675,-0.12762,-0.48150,0.03415,,,,,,,,,,,,,,,,,,,,,,,,,,0,0,0,0,0
4.4830,1783971481.3340,1,1,7.0000,-0.0001,1.42241,-0.00890,-2.63275,1.07081,1.57081,0.11675,-0.12763,-0.48146,0.03409,,,,,,,,,,,,,,,,,,,,,,,,,,0,0,0,0,0
4.4834,1783971481.3344,1,1,7.0000,-0.0001,1.42241,-0.00890,-2.63275,1.07081,1.57081,0.11675,-0.12763,-0.48146,0.03409,,,,,,,,,,,,,,,,,,,,,,,,,,0,0,0,0,0
4.4838,1783971481.3348,1,1,7.0000,-0.0001,1.42241,-0.00890,-2.63275,1.07081,1.57081,0.11675,-0.12763,-0.48146,0.03409,,,,,,,,,,,,,,,,,,,,,,,,,,0,0,0,0,0
4.4845,1783971481.3354,1,1,7.0000,-0.0001,1.42241,-0.00892,-2.63275,1.07083,1.57081,0.11675,-0.12763,-0.48146,0.03408,,,,,,,,,,,,,,,,,,,,,,,,,,0,0,0,0,0
4.6184,1783971481.4694,1,1,7.0000,-0.0001,1.42241,-0.00988,-2.63289,1.07199,1.57081,0.11675,-0.12762,-0.48152,0.03379,,,,,,,,,,,,,,,,,,,,,,,,,,0,0,0,0,0
4.6953,1783971481.5463,1,1,7.0000,-0.0001,1.42241,-0.00993,-2.63288,1.07205,1.57081,0.11675,-0.12761,-0.48153,0.03378,,,,,,,,,,,,,,,,,,,,,,,,,,0,0,0,0,0
4.6958,1783971481.5467,1,1,7.0000,-0.0001,1.42241,-0.00993,-2.63288,1.07205,1.57081,0.11675,-0.12761,-0.48153,0.03378,,,,,,,,,,,,,,,,,,,,,,,,,,0,0,0,0,0
4.6962,1783971481.5472,1,1,7.0000,-0.0001,1.42241,-0.00993,-2.63288,1.07205,1.57081,0.11675,-0.12761,-0.48153,0.03378,,,,,,,,,,,,,,,,,,,,,,,,,,0,0,0,0,0
4.6966,1783971481.5476,1,1,7.0000,-0.0001,1.42241,-0.00993,-2.63288,1.07205,1.57081,0.11675,-0.12761,-0.48153,0.03378,,,,,,,,,,,,,,,,,,,,,,,,,,0,0,0,0,0
4.6970,1783971481.5480,1,1,7.0000,-0.0001,1.42241,-0.00993,-2.63288,1.07205,1.57081,0.11675,-0.12761,-0.48153,0.03378,,,,,,,,,,,,,,,,,,,,,,,,,,0,0,0,0,0
4.6989,1783971481.5499,1,1,7.0000,-0.0001,1.42241,-0.00993,-2.63288,1.07205,1.57081,0.11675,-0.12761,-0.48153,0.03378,,,,,,,,,,,,,,,,,,,,,,,,,,0,0,0,0,0
4.6992,1783971481.5502,1,1,7.0000,-0.0001,1.42241,-0.00993,-2.63288,1.07205,1.57081,0.11675,-0.12761,-0.48153,0.03378,,,,,,,,,,,,,,,,,,,,,,,,,,0,0,0,0,0
4.7157,1783971481.5667,1,1,7.0000,-0.0001,1.42241,-0.00993,-2.63288,1.07205,1.57081,0.11675,-0.12761,-0.48153,0.03378,,,,,,,,,,,,,,,,,,,,,,,,,,0,0,0,0,0
4.7450,1783971481.5960,1,1,7.0000,-0.0001,1.42241,-0.00993,-2.63288,1.07205,1.57081,0.11675,-0.12761,-0.48153,0.03378,,,,,,,,,,,,,,,,,,,,,,,,,,0,0,0,0,0
4.7567,1783971481.6076,1,1,7.0000,-0.0001,1.42241,-0.00993,-2.63288,1.07205,1.57081,0.11675,-0.12761,-0.48153,0.03378,,,,,,,,,,,,,,,,,,,,,,,,,,0,0,0,0,0
4.7569,1783971481.6079,1,1,7.0000,-0.0001,1.42241,-0.00993,-2.63288,1.07205,1.57081,0.11675,-0.12761,-0.48153,0.03378,,,,,,,,,,,,,,,,,,,,,,,,,,0,0,0,0,0
4.7614,1783971481.6124,1,1,7.0000,-0.0001,1.42241,-0.00993,-2.63288,1.07205,1.57081,0.11675,-0.12761,-0.48153,0.03378,,,,,,,,,,,,,,,,,,,,,,,,,,0,0,0,0,0
4.8028,1783971481.6538,1,1,7.0000,-0.0001,1.42241,-0.00993,-2.63288,1.07205,1.57081,0.11675,-0.12761,-0.48153,0.03378,,,,,,,,,,,,,,,,,,,,,,,,,,0,0,0,0,0
4.8032,1783971481.6542,1,1,7.0000,-0.0001,1.42241,-0.00993,-2.63288,1.07205,1.57081,0.11675,-0.12761,-0.48153,0.03378,,,,,,,,,,,,,,,,,,,,,,,,,,0,0,0,0,0
4.8885,1783971481.7394,1,1,7.0000,-0.0001,1.42241,-0.01007,-2.63300,1.07222,1.57081,0.11675,-0.12762,-0.48146,0.03369,,,,,,,,,,,,,,,,,,,,,,,,,,0,0,0,0,0
4.8887,1783971481.7397,1,1,7.0000,-0.0001,1.42241,-0.01007,-2.63300,1.07222,1.57081,0.11675,-0.12762,-0.48146,0.03369,,,,,,,,,,,,,,,,,,,,,,,,,,0,0,0,0,0
4.8894,1783971481.7404,1,1,7.0000,-0.0001,1.42241,-0.01007,-2.63300,1.07222,1.57081,0.11675,-0.12762,-0.48146,0.03369,,,,,,,,,,,,,,,,,,,,,,,,,,0,0,0,0,0
4.8899,1783971481.7409,1,1,7.0000,-0.0001,1.42241,-0.01007,-2.63300,1.07222,1.57081,0.11675,-0.12762,-0.48146,0.03369,,,,,,,,,,,,,,,,,,,,,,,,,,0,0,0,0,0
4.9117,1783971481.7626,1,1,7.0000,-0.0001,1.42240,-0.01015,-2.63303,1.07232,1.57081,0.11675,-0.12762,-0.48145,0.03366,,,,,,,,,,,,,,,,,,,,,,,,,,0,0,0,0,0
4.9120,1783971481.7630,1,1,7.0000,-0.0001,1.42240,-0.01015,-2.63303,1.07232,1.57081,0.11675,-0.12762,-0.48145,0.03366,,,,,,,,,,,,,,,,,,,,,,,,,,0,0,0,0,0
4.9125,1783971481.7635,1,1,7.0000,-0.0001,1.42240,-0.01015,-2.63303,1.07232,1.57081,0.11675,-0.12762,-0.48145,0.03366,,,,,,,,,,,,,,,,,,,,,,,,,,0,0,0,0,0
4.9128,1783971481.7638,1,1,7.0000,-0.0001,1.42240,-0.01015,-2.63303,1.07232,1.57081,0.11675,-0.12762,-0.48145,0.03366,,,,,,,,,,,,,,,,,,,,,,,,,,0,0,0,0,0
4.9483,1783971481.7993,1,1,7.0000,-0.0001,1.42240,-0.01037,-2.63309,1.07258,1.57081,0.11675,-0.12763,-0.48144,0.03358,,,,,,,,,,,,,,,,,,,,,,,,,,0,0,0,0,0
4.9486,1783971481.7996,1,1,7.0000,-0.0001,1.42240,-0.01037,-2.63309,1.07258,1.57081,0.11675,-0.12763,-0.48144,0.03358,,,,,,,,,,,,,,,,,,,,,,,,,,0,0,0,0,0
4.9518,1783971481.8028,1,1,7.0000,-0.0001,1.42240,-0.01037,-2.63309,1.07258,1.57081,0.11675,-0.12763,-0.48144,0.03358,,,,,,,,,,,,,,,,,,,,,,,,,,0,0,0,0,0
4.9522,1783971481.8031,1,1,7.0000,-0.0001,1.42240,-0.01037,-2.63309,1.07258,1.57081,0.11675,-0.12763,-0.48144,0.03358,,,,,,,,,,,,,,,,,,,,,,,,,,0,0,0,0,0
4.9634,1783971481.8144,1,1,7.0000,-0.0001,1.42240,-0.01042,-2.63310,1.07264,1.57081,0.11675,-0.12763,-0.48144,0.03356,,,,,,,,,,,,,,,,,,,,,,,,,,0,0,0,0,0
4.9754,1783971481.8264,1,1,7.0000,-0.0001,1.42240,-0.01056,-2.63312,1.07280,1.57081,0.11675,-0.12762,-0.48145,0.03352,,,,,,,,,,,,,,,,,,,,,,,,,,0,0,0,0,0
4.9922,1783971481.8432,1,1,7.0000,-0.0001,1.42240,-0.01063,-2.63313,1.07289,1.57081,0.11675,-0.12762,-0.48145,0.03350,,,,,,,,,,,,,,,,,,,,,,,,,,0,0,0,0,0
4.9958,1783971481.8467,1,1,7.0000,-0.0001,1.42240,-0.01065,-2.63313,1.07292,1.57081,0.11675,-0.12762,-0.48145,0.03349,,,,,,,,,,,,,,,,,,,,,,,,,,0,0,0,0,0
5.0033,1783971481.8543,1,1,7.0000,-0.0001,1.42240,-0.01072,-2.63314,1.07300,1.57081,0.11675,-0.12762,-0.48146,0.03347,,,,,,,,,,,,,,,,,,,,,,,,,,0,0,0,0,0
5.0415,1783971481.8925,1,1,7.0000,-0.0001,1.42240,-0.01094,-2.63314,1.07328,1.57081,0.11675,-0.12762,-0.48150,0.03342,,,,,,,,,,,,,,,,,,,,,,,,,,0,0,0,0,0
5.0419,1783971481.8929,1,1,7.0000,-0.0001,1.42240,-0.01094,-2.63314,1.07328,1.57081,0.11675,-0.12762,-0.48150,0.03342,,,,,,,,,,,,,,,,,,,,,,,,,,0,0,0,0,0
5.0423,1783971481.8933,1,1,7.0000,-0.0001,1.42240,-0.01094,-2.63314,1.07328,1.57081,0.11675,-0.12762,-0.48150,0.03342,,,,,,,,,,,,,,,,,,,,,,,,,,0,0,0,0,0
5.0475,1783971481.8985,1,1,7.0000,-0.0001,1.42240,-0.01097,-2.63313,1.07332,1.57081,0.11675,-0.12761,-0.48151,0.03341,,,,,,,,,,,,,,,,,,,,,,,,,,0,0,0,0,0
5.0478,1783971481.8988,1,1,7.0000,-0.0001,1.42240,-0.01097,-2.63313,1.07332,1.57081,0.11675,-0.12761,-0.48151,0.03341,,,,,,,,,,,,,,,,,,,,,,,,,,0,0,0,0,0
5.0550,1783971481.9060,1,1,7.0000,-0.0001,1.42240,-0.01104,-2.63312,1.07339,1.57081,0.11675,-0.12761,-0.48153,0.03341,,,,,,,,,,,,,,,,,,,,,,,,,,0,0,0,0,0
5.0645,1783971481.9154,1,1,7.0000,-0.0001,1.42240,-0.01109,-2.63310,1.07346,1.57081,0.11675,-0.12761,-0.48155,0.03340,,,,,,,,,,,,,,,,,,,,,,,,,,0,0,0,0,0
5.0824,1783971481.9334,1,1,7.0000,-0.0001,1.42240,-0.01112,-2.63306,1.07351,1.57081,0.11675,-0.12760,-0.48159,0.03341,,,,,,,,,,,,,,,,,,,,,,,,,,0,0,0,0,0
5.0842,1783971481.9352,1,1,7.0000,-0.0001,1.42240,-0.01112,-2.63306,1.07351,1.57081,0.11675,-0.12760,-0.48159,0.03341,,,,,,,,,,,,,,,,,,,,,,,,,,0,0,0,0,0
5.0981,1783971481.9491,1,1,7.0000,-0.0001,1.42240,-0.01112,-2.63306,1.07351,1.57081,0.11675,-0.12760,-0.48159,0.03341,,,,,,,,,,,,,,,,,,,,,,,,,,0,0,0,0,0
5.1093,1783971481.9603,1,1,7.0000,-0.0001,1.42240,-0.01112,-2.63306,1.07351,1.57081,0.11675,-0.12760,-0.48159,0.03341,,,,,,,,,,,,,,,,,,,,,,,,,,0,0,0,0,0
5.1177,1783971481.9687,1,1,7.0000,-0.0001,1.42240,-0.01112,-2.63306,1.07351,1.57081,0.11675,-0.12760,-0.48159,0.03341,,,,,,,,,,,,,,,,,,,,,,,,,,0,0,0,0,0
5.1251,1783971481.9761,1,1,7.0000,-0.0001,1.42240,-0.01112,-2.63306,1.07351,1.57081,0.11675,-0.12760,-0.48159,0.03341,,,,,,,,,,,,,,,,,,,,,,,,,,0,0,0,0,0
5.1617,1783971482.0127,1,1,7.0000,-0.0001,1.42240,-0.01112,-2.63306,1.07351,1.57081,0.11675,-0.12760,-0.48159,0.03341,,,,,,,,,,,,,,,,,,,,,,,,,,0,0,0,0,0
5.1621,1783971482.0130,1,1,7.0000,-0.0001,1.42240,-0.01112,-2.63306,1.07351,1.57081,0.11675,-0.12760,-0.48159,0.03341,,,,,,,,,,,,,,,,,,,,,,,,,,0,0,0,0,0
5.1755,1783971482.0265,1,1,7.0000,-0.0001,1.42240,-0.01112,-2.63306,1.07351,1.57081,0.11675,-0.12760,-0.48159,0.03341,,,,,,,,,,,,,,,,,,,,,,,,,,0,0,0,0,0
5.1760,1783971482.0270,1,1,7.0000,-0.0001,1.42240,-0.01112,-2.63306,1.07351,1.57081,0.11675,-0.12760,-0.48159,0.03341,,,,,,,,,,,,,,,,,,,,,,,,,,0,0,0,0,0
5.1763,1783971482.0273,1,1,7.0000,-0.0001,1.42240,-0.01112,-2.63306,1.07351,1.57081,0.11675,-0.12760,-0.48159,0.03341,,,,,,,,,,,,,,,,,,,,,,,,,,0,0,0,0,0
5.1807,1783971482.0316,1,1,7.0000,-0.0001,1.42240,-0.01112,-2.63306,1.07351,1.57081,0.11675,-0.12760,-0.48159,0.03341,,,,,,,,,,,,,,,,,,,,,,,,,,0,0,0,0,0
5.1812,1783971482.0322,1,1,7.0000,-0.0001,1.42240,-0.01112,-2.63306,1.07351,1.57081,0.11675,-0.12760,-0.48159,0.03341,,,,,,,,,,,,,,,,,,,,,,,,,,0,0,0,0,0
5.1823,1783971482.0333,1,1,7.0000,-0.0001,1.42240,-0.01112,-2.63306,1.07351,1.57081,0.11675,-0.12760,-0.48159,0.03341,,,,,,,,,,,,,,,,,,,,,,,,,,0,0,0,0,0
5.1826,1783971482.0336,1,1,7.0000,-0.0001,1.42240,-0.01112,-2.63306,1.07351,1.57081,0.11675,-0.12760,-0.48159,0.03341,,,,,,,,,,,,,,,,,,,,,,,,,,0,0,0,0,0
5.1944,1783971482.0454,1,1,7.0000,-0.0001,1.42240,-0.01112,-2.63306,1.07351,1.57081,0.11675,-0.12760,-0.48159,0.03341,,,,,,,,,,,,,,,,,,,,,,,,,,0,0,0,0,0
5.2062,1783971482.0572,1,1,7.0000,-0.0001,1.42240,-0.01112,-2.63306,1.07351,1.57081,0.11675,-0.12760,-0.48159,0.03341,,,,,,,,,,,,,,,,,,,,,,,,,,0,0,0,0,0
5.2102,1783971482.0611,1,1,7.0000,-0.0001,1.42240,-0.01112,-2.63306,1.07351,1.57081,0.11675,-0.12760,-0.48159,0.03341,,,,,,,,,,,,,,,,,,,,,,,,,,0,0,0,0,0
5.2273,1783971482.0783,1,1,7.0000,-0.0001,1.42240,-0.01112,-2.63306,1.07351,1.57081,0.11675,-0.12760,-0.48159,0.03341,,,,,,,,,,,,,,,,,,,,,,,,,,0,0,0,0,0
5.2277,1783971482.0787,1,1,7.0000,-0.0001,1.42240,-0.01112,-2.63306,1.07351,1.57081,0.11675,-0.12760,-0.48159,0.03341,,,,,,,,,,,,,,,,,,,,,,,,,,0,0,0,0,0
5.2843,1783971482.1353,1,1,7.0000,-0.0001,1.42240,-0.01115,-2.63313,1.07355,1.57081,0.11675,-0.12761,-0.48154,0.03337,,,,,,,,,,,,,,,,,,,,,,,,,,0,0,0,0,0
5.2850,1783971482.1360,1,1,7.0000,-0.0001,1.42240,-0.01115,-2.63313,1.07355,1.57081,0.11675,-0.12761,-0.48154,0.03337,,,,,,,,,,,,,,,,,,,,,,,,,,0,0,0,0,0
5.2854,1783971482.1364,1,1,7.0000,-0.0001,1.42240,-0.01115,-2.63313,1.07355,1.57081,0.11675,-0.12761,-0.48154,0.03337,,,,,,,,,,,,,,,,,,,,,,,,,,0,0,0,0,0
5.2859,1783971482.1369,1,1,7.0000,-0.0001,1.42240,-0.01115,-2.63313,1.07355,1.57081,0.11675,-0.12761,-0.48154,0.03337,,,,,,,,,,,,,,,,,,,,,,,,,,0,0,0,0,0
5.2865,1783971482.1375,1,1,7.0000,-0.0001,1.42240,-0.01115,-2.63313,1.07355,1.57081,0.11675,-0.12761,-0.48154,0.03337,,,,,,,,,,,,,,,,,,,,,,,,,,0,0,0,0,0
5.2868,1783971482.1377,1,1,7.0000,-0.0001,1.42240,-0.01115,-2.63313,1.07355,1.57081,0.11675,-0.12761,-0.48154,0.03337,,,,,,,,,,,,,,,,,,,,,,,,,,0,0,0,0,0
5.3079,1783971482.1589,1,1,7.0000,-0.0001,1.42240,-0.01120,-2.63319,1.07361,1.57081,0.11675,-0.12761,-0.48151,0.03334,,,,,,,,,,,,,,,,,,,,,,,,,,0,0,0,0,0
5.3083,1783971482.1592,1,1,7.0000,-0.0001,1.42240,-0.01120,-2.63319,1.07361,1.57081,0.11675,-0.12761,-0.48151,0.03334,,,,,,,,,,,,,,,,,,,,,,,,,,0,0,0,0,0
5.3133,1783971482.1643,1,1,7.0000,-0.0001,1.42240,-0.01121,-2.63319,1.07362,1.57081,0.11675,-0.12761,-0.48151,0.03334,,,,,,,,,,,,,,,,,,,,,,,,,,0,0,0,0,0
5.3136,1783971482.1646,1,1,7.0000,-0.0001,1.42240,-0.01121,-2.63319,1.07362,1.57081,0.11675,-0.12761,-0.48151,0.03334,,,,,,,,,,,,,,,,,,,,,,,,,,0,0,0,0,0
5.3245,1783971482.1755,1,1,7.0000,-0.0001,1.42240,-0.01124,-2.63321,1.07365,1.57081,0.11675,-0.12762,-0.48150,0.03332,,,,,,,,,,,,,,,,,,,,,,,,,,0,0,0,0,0
5.3253,1783971482.1762,1,1,7.0000,-0.0001,1.42240,-0.01126,-2.63322,1.07368,1.57081,0.11675,-0.12762,-0.48149,0.03331,,,,,,,,,,,,,,,,,,,,,,,,,,0,0,0,0,0
5.3682,1783971482.2192,1,1,7.0000,-0.0001,1.42240,-0.01151,-2.63331,1.07398,1.57081,0.11675,-0.12762,-0.48146,0.03321,,,,,,,,,,,,,,,,,,,,,,,,,,0,0,0,0,0
5.3686,1783971482.2195,1,1,7.0000,-0.0001,1.42240,-0.01151,-2.63331,1.07398,1.57081,0.11675,-0.12762,-0.48146,0.03321,,,,,,,,,,,,,,,,,,,,,,,,,,0,0,0,0,0
5.3693,1783971482.2202,1,1,7.0000,-0.0001,1.42240,-0.01156,-2.63332,1.07404,1.57081,0.11675,-0.12762,-0.48146,0.03319,,,,,,,,,,,,,,,,,,,,,,,,,,0,0,0,0,0
5.3810,1783971482.2320,1,1,7.0000,-0.0001,1.42240,-0.01159,-2.63333,1.07407,1.57081,0.11675,-0.12762,-0.48146,0.03318,,,,,,,,,,,,,,,,,,,,,,,,,,0,0,0,0,0
5.3860,1783971482.2370,1,1,7.0000,-0.0001,1.42240,-0.01162,-2.63334,1.07411,1.57081,0.11675,-0.12762,-0.48146,0.03317,,,,,,,,,,,,,,,,,,,,,,,,,,0,0,0,0,0
5.3929,1783971482.2439,1,1,7.0000,-0.0001,1.42240,-0.01170,-2.63335,1.07420,1.57081,0.11675,-0.12762,-0.48146,0.03314,,,,,,,,,,,,,,,,,,,,,,,,,,0,0,0,0,0
5.4058,1783971482.2568,1,1,7.0000,-0.0001,1.42240,-0.01172,-2.63336,1.07423,1.57081,0.11675,-0.12762,-0.48146,0.03314,,,,,,,,,,,,,,,,,,,,,,,,,,0,0,0,0,0
5.4137,1783971482.2647,1,1,7.0000,-0.0001,1.42240,-0.01179,-2.63337,1.07431,1.57081,0.11675,-0.12762,-0.48147,0.03312,,,,,,,,,,,,,,,,,,,,,,,,,,0,0,0,0,0
5.4236,1783971482.2746,1,1,7.0000,-0.0001,1.42240,-0.01188,-2.63338,1.07442,1.57081,0.11674,-0.12762,-0.48147,0.03309,,,,,,,,,,,,,,,,,,,,,,,,,,0,0,0,0,0
5.4239,1783971482.2749,1,1,7.0000,-0.0001,1.42240,-0.01188,-2.63338,1.07442,1.57081,0.11674,-0.12762,-0.48147,0.03309,,,,,,,,,,,,,,,,,,,,,,,,,,0,0,0,0,0
5.4350,1783971482.2860,1,1,7.0000,-0.0001,1.42240,-0.01198,-2.63340,1.07455,1.57081,0.11674,-0.12762,-0.48147,0.03305,,,,,,,,,,,,,,,,,,,,,,,,,,0,0,0,0,0
5.4519,1783971482.3029,1,1,7.0000,-0.0001,1.42240,-0.01204,-2.63340,1.07462,1.57081,0.11674,-0.12762,-0.48148,0.03304,,,,,,,,,,,,,,,,,,,,,,,,,,0,0,0,0,0
5.4570,1783971482.3080,1,1,7.0000,-0.0001,1.42240,-0.01209,-2.63340,1.07469,1.57081,0.11674,-0.12761,-0.48149,0.03303,,,,,,,,,,,,,,,,,,,,,,,,,,0,0,0,0,0
5.4753,1783971482.3263,1,1,7.0000,-0.0001,1.42240,-0.01222,-2.63338,1.07484,1.57081,0.11674,-0.12761,-0.48152,0.03301,,,,,,,,,,,,,,,,,,,,,,,,,,0,0,0,0,0
5.4913,1783971482.3422,1,1,7.0000,-0.0001,1.42240,-0.01230,-2.63335,1.07495,1.57081,0.11674,-0.12760,-0.48156,0.03300,,,,,,,,,,,,,,,,,,,,,,,,,,0,0,0,0,0
5.4916,1783971482.3426,1,1,7.0000,-0.0001,1.42240,-0.01230,-2.63335,1.07495,1.57081,0.11674,-0.12760,-0.48156,0.03300,,,,,,,,,,,,,,,,,,,,,,,,,,0,0,0,0,0
5.4928,1783971482.3438,1,1,7.0000,-0.0001,1.42240,-0.01231,-2.63334,1.07496,1.57081,0.11674,-0.12760,-0.48158,0.03301,,,,,,,,,,,,,,,,,,,,,,,,,,0,0,0,0,0
5.4931,1783971482.3441,1,1,7.0000,-0.0001,1.42240,-0.01231,-2.63334,1.07496,1.57081,0.11674,-0.12760,-0.48158,0.03301,,,,,,,,,,,,,,,,,,,,,,,,,,0,0,0,0,0
5.5023,1783971482.3533,1,1,7.0000,-0.0001,1.42240,-0.01231,-2.63334,1.07496,1.57081,0.11674,-0.12760,-0.48158,0.03301,,,,,,,,,,,,,,,,,,,,,,,,,,0,0,0,0,0
5.5161,1783971482.3671,1,1,7.0000,-0.0001,1.42240,-0.01231,-2.63334,1.07496,1.57081,0.11674,-0.12760,-0.48158,0.03301,,,,,,,,,,,,,,,,,,,,,,,,,,0,0,0,0,0
5.5357,1783971482.3867,1,1,7.0000,-0.0001,1.42240,-0.01231,-2.63334,1.07496,1.57081,0.11674,-0.12760,-0.48158,0.03301,,,,,,,,,,,,,,,,,,,,,,,,,,0,0,0,0,0
5.5535,1783971482.4045,1,1,7.0000,-0.0001,1.42240,-0.01231,-2.63334,1.07496,1.57081,0.11674,-0.12760,-0.48158,0.03301,,,,,,,,,,,,,,,,,,,,,,,,,,0,0,0,0,0
5.5807,1783971482.4317,1,1,7.0000,-0.0001,1.42240,-0.01231,-2.63334,1.07496,1.57081,0.11674,-0.12760,-0.48158,0.03301,,,,,,,,,,,,,,,,,,,,,,,,,,0,0,0,0,0
5.5813,1783971482.4323,1,1,7.0000,-0.0001,1.42240,-0.01231,-2.63334,1.07496,1.57081,0.11674,-0.12760,-0.48158,0.03301,,,,,,,,,,,,,,,,,,,,,,,,,,0,0,0,0,0
5.5814,1783971482.4324,1,1,7.0000,-0.0001,1.42240,-0.01231,-2.63334,1.07496,1.57081,0.11674,-0.12760,-0.48158,0.03301,,,,,,,,,,,,,,,,,,,,,,,,,,0,0,0,0,0
5.6139,1783971482.4648,1,1,7.0000,-0.0001,1.42240,-0.01231,-2.63334,1.07496,1.57081,0.11674,-0.12760,-0.48158,0.03301,,,,,,,,,,,,,,,,,,,,,,,,,,0,0,0,0,0
5.6142,1783971482.4651,1,1,7.0000,-0.0001,1.42240,-0.01231,-2.63334,1.07496,1.57081,0.11674,-0.12760,-0.48158,0.03301,,,,,,,,,,,,,,,,,,,,,,,,,,0,0,0,0,0
5.6145,1783971482.4655,1,1,7.0000,-0.0001,1.42240,-0.01231,-2.63334,1.07496,1.57081,0.11674,-0.12760,-0.48158,0.03301,,,,,,,,,,,,,,,,,,,,,,,,,,0,0,0,0,0
5.6147,1783971482.4657,1,1,7.0000,-0.0001,1.42240,-0.01231,-2.63334,1.07496,1.57081,0.11674,-0.12760,-0.48158,0.03301,,,,,,,,,,,,,,,,,,,,,,,,,,0,0,0,0,0
5.6271,1783971482.4780,1,1,7.0000,-0.0001,1.42240,-0.01231,-2.63334,1.07496,1.57081,0.11674,-0.12760,-0.48158,0.03301,,,,,,,,,,,,,,,,,,,,,,,,,,0,0,0,0,0
5.6344,1783971482.4854,1,1,7.0000,-0.0001,1.42240,-0.01231,-2.63334,1.07496,1.57081,0.11674,-0.12760,-0.48158,0.03301,,,,,,,,,,,,,,,,,,,,,,,,,,0,0,0,0,0
5.6658,1783971482.5168,1,1,7.0000,-0.0001,1.42240,-0.01231,-2.63334,1.07496,1.57081,0.11674,-0.12760,-0.48158,0.03301,,,,,,,,,,,,,,,,,,,,,,,,,,0,0,0,0,0
5.6661,1783971482.5170,1,1,7.0000,-0.0001,1.42240,-0.01231,-2.63334,1.07496,1.57081,0.11674,-0.12760,-0.48158,0.03301,,,,,,,,,,,,,,,,,,,,,,,,,,0,0,0,0,0
5.6664,1783971482.5174,1,1,7.0000,-0.0001,1.42240,-0.01231,-2.63334,1.07496,1.57081,0.11674,-0.12760,-0.48158,0.03301,,,,,,,,,,,,,,,,,,,,,,,,,,0,0,0,0,0
5.6827,1783971482.5337,1,1,7.0000,-0.0001,1.42240,-0.01232,-2.63335,1.07497,1.57081,0.11674,-0.12760,-0.48157,0.03300,,,,,,,,,,,,,,,,,,,,,,,,,,0,0,0,0,0
5.6831,1783971482.5341,1,1,7.0000,-0.0001,1.42240,-0.01232,-2.63335,1.07497,1.57081,0.11674,-0.12760,-0.48157,0.03300,,,,,,,,,,,,,,,,,,,,,,,,,,0,0,0,0,0
5.6922,1783971482.5432,1,1,7.0000,-0.0001,1.42240,-0.01233,-2.63337,1.07498,1.57081,0.11674,-0.12760,-0.48156,0.03299,,,,,,,,,,,,,,,,,,,,,,,,,,0,0,0,0,0
5.7306,1783971482.5816,1,1,7.0000,-0.0001,1.42240,-0.01242,-2.63349,1.07510,1.57081,0.11674,-0.12761,-0.48148,0.03291,,,,,,,,,,,,,,,,,,,,,,,,,,0,0,0,0,0
5.7311,1783971482.5821,1,1,7.0000,-0.0001,1.42240,-0.01242,-2.63349,1.07510,1.57081,0.11674,-0.12761,-0.48148,0.03291,,,,,,,,,,,,,,,,,,,,,,,,,,0,0,0,0,0
5.7339,1783971482.5849,1,1,7.0000,-0.0001,1.42240,-0.01242,-2.63349,1.07510,1.57081,0.11674,-0.12761,-0.48148,0.03291,,,,,,,,,,,,,,,,,,,,,,,,,,0,0,0,0,0
5.7456,1783971482.5966,1,1,7.0000,-0.0001,1.42240,-0.01245,-2.63350,1.07514,1.57081,0.11674,-0.12762,-0.48148,0.03290,,,,,,,,,,,,,,,,,,,,,,,,,,0,0,0,0,0
5.7459,1783971482.5969,1,1,7.0000,-0.0001,1.42240,-0.01245,-2.63350,1.07514,1.57081,0.11674,-0.12762,-0.48148,0.03290,,,,,,,,,,,,,,,,,,,,,,,,,,0,0,0,0,0
5.7812,1783971482.6321,1,1,7.0000,-0.0001,1.42240,-0.01265,-2.63356,1.07537,1.57081,0.11674,-0.12762,-0.48146,0.03282,,,,,,,,,,,,,,,,,,,,,,,,,,0,0,0,0,0
5.7815,1783971482.6324,1,1,7.0000,-0.0001,1.42240,-0.01265,-2.63356,1.07537,1.57081,0.11674,-0.12762,-0.48146,0.03282,,,,,,,,,,,,,,,,,,,,,,,,,,0,0,0,0,0
5.7818,1783971482.6327,1,1,7.0000,-0.0001,1.42240,-0.01265,-2.63356,1.07537,1.57081,0.11674,-0.12762,-0.48146,0.03282,,,,,,,,,,,,,,,,,,,,,,,,,,0,0,0,0,0
5.8028,1783971482.6538,1,1,7.0000,-0.0001,1.42240,-0.01276,-2.63359,1.07551,1.57081,0.11674,-0.12762,-0.48146,0.03278,,,,,,,,,,,,,,,,,,,,,,,,,,0,0,0,0,0
5.8032,1783971482.6542,1,1,7.0000,-0.0001,1.42240,-0.01276,-2.63359,1.07551,1.57081,0.11674,-0.12762,-0.48146,0.03278,,,,,,,,,,,,,,,,,,,,,,,,,,0,0,0,0,0
5.8036,1783971482.6546,1,1,7.0000,-0.0001,1.42240,-0.01276,-2.63359,1.07551,1.57081,0.11674,-0.12762,-0.48146,0.03278,,,,,,,,,,,,,,,,,,,,,,,,,,0,0,0,0,0
5.8098,1783971482.6607,1,1,7.0000,-0.0001,1.42240,-0.01283,-2.63360,1.07558,1.57081,0.11674,-0.12762,-0.48146,0.03276,,,,,,,,,,,,,,,,,,,,,,,,,,0,0,0,0,0
5.8344,1783971482.6854,1,1,7.0000,-0.0001,1.42239,-0.01299,-2.63363,1.07578,1.57081,0.11674,-0.12762,-0.48146,0.03271,,,,,,,,,,,,,,,,,,,,,,,,,,0,0,0,0,0
5.8386,1783971482.6896,1,1,7.0000,-0.0001,1.42239,-0.01301,-2.63363,1.07580,1.57081,0.11674,-0.12762,-0.48147,0.03270,,,,,,,,,,,,,,,,,,,,,,,,,,0,0,0,0,0
5.8771,1783971482.7281,1,1,7.0000,-0.0001,1.42239,-0.01343,-2.63369,1.07632,1.57081,0.11674,-0.12761,-0.48150,0.03258,,,,,,,,,,,,,,,,,,,,,,,,,,0,0,0,0,0
5.8773,1783971482.7283,1,1,7.0000,-0.0001,1.42239,-0.01343,-2.63369,1.07632,1.57081,0.11674,-0.12761,-0.48150,0.03258,,,,,,,,,,,,,,,,,,,,,,,,,,0,0,0,0,0
5.8776,1783971482.7286,1,1,7.0000,-0.0001,1.42239,-0.01343,-2.63369,1.07632,1.57081,0.11674,-0.12761,-0.48150,0.03258,,,,,,,,,,,,,,,,,,,,,,,,,,0,0,0,0,0
5.8779,1783971482.7289,1,1,7.0000,-0.0001,1.42239,-0.01343,-2.63369,1.07632,1.57081,0.11674,-0.12761,-0.48150,0.03258,,,,,,,,,,,,,,,,,,,,,,,,,,0,0,0,0,0
5.8782,1783971482.7292,1,1,7.0000,-0.0001,1.42239,-0.01343,-2.63369,1.07632,1.57081,0.11674,-0.12761,-0.48150,0.03258,,,,,,,,,,,,,,,,,,,,,,,,,,0,0,0,0,0
5.8831,1783971482.7341,1,1,7.0000,-0.0001,1.42239,-0.01346,-2.63369,1.07636,1.57081,0.11674,-0.12761,-0.48150,0.03258,,,,,,,,,,,,,,,,,,,,,,,,,,0,0,0,0,0
5.9171,1783971482.7681,1,1,7.0000,-0.0001,1.42239,-0.01348,-2.63369,1.07639,1.57081,0.11674,-0.12761,-0.48150,0.03257,,,,,,,,,,,,,,,,,,,,,,,,,,0,0,0,0,0
5.9176,1783971482.7686,1,1,7.0000,-0.0001,1.42239,-0.01348,-2.63369,1.07639,1.57081,0.11674,-0.12761,-0.48150,0.03257,,,,,,,,,,,,,,,,,,,,,,,,,,0,0,0,0,0
5.9251,1783971482.7760,1,1,7.0000,-0.0001,1.42239,-0.01348,-2.63369,1.07639,1.57081,0.11674,-0.12761,-0.48150,0.03257,,,,,,,,,,,,,,,,,,,,,,,,,,0,0,0,0,0
5.9254,1783971482.7764,1,1,7.0000,-0.0001,1.42239,-0.01348,-2.63369,1.07639,1.57081,0.11674,-0.12761,-0.48150,0.03257,,,,,,,,,,,,,,,,,,,,,,,,,,0,0,0,0,0
5.9638,1783971482.8148,1,1,7.0000,-0.0001,1.42239,-0.01348,-2.63369,1.07639,1.57081,0.11674,-0.12761,-0.48150,0.03257,,,,,,,,,,,,,,,,,,,,,,,,,,0,0,0,0,0
5.9676,1783971482.8186,1,1,7.0000,-0.0001,1.42239,-0.01348,-2.63369,1.07639,1.57081,0.11674,-0.12761,-0.48150,0.03257,,,,,,,,,,,,,,,,,,,,,,,,,,0,0,0,0,0
5.9680,1783971482.8190,1,1,7.0000,-0.0001,1.42239,-0.01348,-2.63369,1.07639,1.57081,0.11674,-0.12761,-0.48150,0.03257,,,,,,,,,,,,,,,,,,,,,,,,,,0,0,0,0,0
5.9683,1783971482.8193,1,1,7.0000,-0.0001,1.42239,-0.01348,-2.63369,1.07639,1.57081,0.11674,-0.12761,-0.48150,0.03257,,,,,,,,,,,,,,,,,,,,,,,,,,0,0,0,0,0
5.9688,1783971482.8198,1,1,7.0000,-0.0001,1.42239,-0.01348,-2.63369,1.07639,1.57081,0.11674,-0.12761,-0.48150,0.03257,,,,,,,,,,,,,,,,,,,,,,,,,,0,0,0,0,0
5.9878,1783971482.8388,1,1,7.0000,-0.0001,1.42239,-0.01348,-2.63369,1.07639,1.57081,0.11674,-0.12761,-0.48150,0.03257,,,,,,,,,,,,,,,,,,,,,,,,,,0,0,0,0,0
6.0042,1783971482.8552,1,1,7.0000,-0.0001,1.42239,-0.01348,-2.63369,1.07639,1.57081,0.11674,-0.12761,-0.48150,0.03257,,,,,,,,,,,,,,,,,,,,,,,,,,0,0,0,0,0
6.0044,1783971482.8554,1,1,7.0000,-0.0001,1.42239,-0.01348,-2.63369,1.07639,1.57081,0.11674,-0.12761,-0.48150,0.03257,,,,,,,,,,,,,,,,,,,,,,,,,,0,0,0,0,0
6.0051,1783971482.8561,1,1,7.0000,-0.0001,1.42239,-0.01348,-2.63369,1.07639,1.57081,0.11674,-0.12761,-0.48150,0.03257,,,,,,,,,,,,,,,,,,,,,,,,,,0,0,0,0,0
6.0253,1783971482.8763,1,1,7.0000,-0.0001,1.42239,-0.01348,-2.63369,1.07639,1.57081,0.11674,-0.12761,-0.48150,0.03257,,,,,,,,,,,,,,,,,,,,,,,,,,0,0,0,0,0
6.0256,1783971482.8766,1,1,7.0000,-0.0001,1.42239,-0.01348,-2.63369,1.07639,1.57081,0.11674,-0.12761,-0.48150,0.03257,,,,,,,,,,,,,,,,,,,,,,,,,,0,0,0,0,0
6.0259,1783971482.8769,1,1,7.0000,-0.0001,1.42239,-0.01348,-2.63369,1.07639,1.57081,0.11674,-0.12761,-0.48150,0.03257,,,,,,,,,,,,,,,,,,,,,,,,,,0,0,0,0,0
6.0522,1783971482.9031,1,1,7.0000,-0.0001,1.42239,-0.01348,-2.63369,1.07639,1.57081,0.11674,-0.12761,-0.48150,0.03257,,,,,,,,,,,,,,,,,,,,,,,,,,0,0,0,0,0
6.0525,1783971482.9035,1,1,7.0000,-0.0001,1.42239,-0.01348,-2.63369,1.07639,1.57081,0.11674,-0.12761,-0.48150,0.03257,,,,,,,,,,,,,,,,,,,,,,,,,,0,0,0,0,0
6.0791,1783971482.9301,1,1,7.0000,-0.0001,1.42239,-0.01348,-2.63369,1.07639,1.57081,0.11674,-0.12761,-0.48150,0.03257,,,,,,,,,,,,,,,,,,,,,,,,,,0,0,0,0,0
6.0795,1783971482.9305,1,1,7.0000,-0.0001,1.42239,-0.01348,-2.63369,1.07639,1.57081,0.11674,-0.12761,-0.48150,0.03257,,,,,,,,,,,,,,,,,,,,,,,,,,0,0,0,0,0
6.0900,1783971482.9410,1,1,7.0000,-0.0001,1.42239,-0.01348,-2.63369,1.07639,1.57081,0.11674,-0.12761,-0.48150,0.03257,,,,,,,,,,,,,,,,,,,,,,,,,,0,0,0,0,0
6.1177,1783971482.9686,1,1,7.0000,-0.0001,1.42239,-0.01350,-2.63370,1.07642,1.57081,0.11674,-0.12761,-0.48150,0.03256,,,,,,,,,,,,,,,,,,,,,,,,,,0,0,0,0,0
6.1205,1783971482.9715,1,1,7.0000,-0.0001,1.42239,-0.01350,-2.63370,1.07642,1.57081,0.11674,-0.12761,-0.48150,0.03256,,,,,,,,,,,,,,,,,,,,,,,,,,0,0,0,0,0
6.1208,1783971482.9718,1,1,7.0000,-0.0001,1.42239,-0.01350,-2.63370,1.07642,1.57081,0.11674,-0.12761,-0.48150,0.03256,,,,,,,,,,,,,,,,,,,,,,,,,,0,0,0,0,0
6.2250,1783971483.0760,1,1,7.0000,-0.0001,1.42239,-0.01395,-2.63386,1.07695,1.57082,0.11674,-0.12762,-0.48145,0.03238,,,,,,,,,,,,,,,,,,,,,,,,,,0,0,0,0,0
6.2253,1783971483.0763,1,1,7.0000,-0.0001,1.42239,-0.01395,-2.63386,1.07695,1.57082,0.11674,-0.12762,-0.48145,0.03238,,,,,,,,,,,,,,,,,,,,,,,,,,0,0,0,0,0
6.2257,1783971483.0767,1,1,7.0000,-0.0001,1.42239,-0.01395,-2.63386,1.07695,1.57082,0.11674,-0.12762,-0.48145,0.03238,,,,,,,,,,,,,,,,,,,,,,,,,,0,0,0,0,0
6.2260,1783971483.0770,1,1,7.0000,-0.0001,1.42239,-0.01395,-2.63386,1.07695,1.57082,0.11674,-0.12762,-0.48145,0.03238,,,,,,,,,,,,,,,,,,,,,,,,,,0,0,0,0,0
6.2263,1783971483.0773,1,1,7.0000,-0.0001,1.42239,-0.01395,-2.63386,1.07695,1.57082,0.11674,-0.12762,-0.48145,0.03238,,,,,,,,,,,,,,,,,,,,,,,,,,0,0,0,0,0
6.2266,1783971483.0776,1,1,7.0000,-0.0001,1.42239,-0.01395,-2.63386,1.07695,1.57082,0.11674,-0.12762,-0.48145,0.03238,,,,,,,,,,,,,,,,,,,,,,,,,,0,0,0,0,0
6.2269,1783971483.0779,1,1,7.0000,-0.0001,1.42239,-0.01395,-2.63386,1.07695,1.57082,0.11674,-0.12762,-0.48145,0.03238,,,,,,,,,,,,,,,,,,,,,,,,,,0,0,0,0,0
6.2272,1783971483.0782,1,1,7.0000,-0.0001,1.42239,-0.01395,-2.63386,1.07695,1.57082,0.11674,-0.12762,-0.48145,0.03238,,,,,,,,,,,,,,,,,,,,,,,,,,0,0,0,0,0
6.2275,1783971483.0785,1,1,7.0000,-0.0001,1.42239,-0.01395,-2.63386,1.07695,1.57082,0.11674,-0.12762,-0.48145,0.03238,,,,,,,,,,,,,,,,,,,,,,,,,,0,0,0,0,0
6.2278,1783971483.0787,1,1,7.0000,-0.0001,1.42239,-0.01395,-2.63386,1.07695,1.57082,0.11674,-0.12762,-0.48145,0.03238,,,,,,,,,,,,,,,,,,,,,,,,,,0,0,0,0,0
6.2281,1783971483.0790,1,1,7.0000,-0.0001,1.42239,-0.01395,-2.63386,1.07695,1.57082,0.11674,-0.12762,-0.48145,0.03238,,,,,,,,,,,,,,,,,,,,,,,,,,0,0,0,0,0
6.2310,1783971483.0820,1,1,7.0000,-0.0001,1.42239,-0.01400,-2.63387,1.07701,1.57082,0.11674,-0.12762,-0.48145,0.03236,,,,,,,,,,,,,,,,,,,,,,,,,,0,0,0,0,0
6.2424,1783971483.0934,1,1,7.0000,-0.0001,1.42239,-0.01412,-2.63389,1.07714,1.57082,0.11674,-0.12762,-0.48145,0.03233,,,,,,,,,,,,,,,,,,,,,,,,,,0,0,0,0,0
6.2427,1783971483.0936,1,1,7.0000,-0.0001,1.42239,-0.01412,-2.63389,1.07714,1.57082,0.11674,-0.12762,-0.48145,0.03233,,,,,,,,,,,,,,,,,,,,,,,,,,0,0,0,0,0
6.2540,1783971483.1050,1,1,7.0000,-0.0001,1.42239,-0.01416,-2.63389,1.07720,1.57082,0.11674,-0.12762,-0.48146,0.03231,,,,,,,,,,,,,,,,,,,,,,,,,,0,0,0,0,0
6.2742,1783971483.1251,1,1,7.0000,-0.0001,1.42239,-0.01433,-2.63391,1.07739,1.57082,0.11674,-0.12761,-0.48147,0.03226,,,,,,,,,,,,,,,,,,,,,,,,,,0,0,0,0,0
6.2798,1783971483.1308,1,1,7.0000,-0.0001,1.42239,-0.01433,-2.63391,1.07740,1.57082,0.11674,-0.12761,-0.48147,0.03226,,,,,,,,,,,,,,,,,,,,,,,,,,0,0,0,0,0
6.2828,1783971483.1338,1,1,7.0000,-0.0001,1.42239,-0.01434,-2.63391,1.07742,1.57082,0.11674,-0.12761,-0.48147,0.03226,,,,,,,,,,,,,,,,,,,,,,,,,,0,0,0,0,0
6.2831,1783971483.1341,1,1,7.0000,-0.0001,1.42239,-0.01434,-2.63391,1.07742,1.57082,0.11674,-0.12761,-0.48147,0.03226,,,,,,,,,,,,,,,,,,,,,,,,,,0,0,0,0,0
6.2934,1783971483.1444,1,1,7.0000,-0.0001,1.42239,-0.01442,-2.63391,1.07751,1.57082,0.11674,-0.12761,-0.48148,0.03224,,,,,,,,,,,,,,,,,,,,,,,,,,0,0,0,0,0
6.3134,1783971483.1644,1,1,7.0000,-0.0001,1.42239,-0.01459,-2.63390,1.07773,1.57082,0.11674,-0.12760,-0.48152,0.03221,,,,,,,,,,,,,,,,,,,,,,,,,,0,0,0,0,0
6.3137,1783971483.1647,1,1,7.0000,-0.0001,1.42239,-0.01459,-2.63390,1.07773,1.57082,0.11674,-0.12760,-0.48152,0.03221,,,,,,,,,,,,,,,,,,,,,,,,,,0,0,0,0,0
6.3235,1783971483.1745,1,1,7.0000,-0.0001,1.42239,-0.01465,-2.63388,1.07780,1.57082,0.11674,-0.12760,-0.48154,0.03220,,,,,,,,,,,,,,,,,,,,,,,,,,0,0,0,0,0
6.3718,1783971483.2228,1,1,7.0000,-0.0001,1.42239,-0.01470,-2.63385,1.07786,1.57082,0.11674,-0.12760,-0.48158,0.03220,,,,,,,,,,,,,,,,,,,,,,,,,,0,0,0,0,0
6.4495,1783971483.3005,1,1,7.0000,-0.0001,1.42239,-0.01470,-2.63385,1.07786,1.57082,0.11674,-0.12760,-0.48158,0.03220,,,,,,,,,,,,,,,,,,,,,,,,,,0,0,0,0,0
6.4500,1783971483.3010,1,1,7.0000,-0.0001,1.42239,-0.01470,-2.63385,1.07786,1.57082,0.11674,-0.12760,-0.48158,0.03220,,,,,,,,,,,,,,,,,,,,,,,,,,0,0,0,0,0
6.4505,1783971483.3015,1,1,7.0000,-0.0001,1.42239,-0.01470,-2.63385,1.07786,1.57082,0.11674,-0.12760,-0.48158,0.03220,,,,,,,,,,,,,,,,,,,,,,,,,,0,0,0,0,0
6.4510,1783971483.3020,1,1,7.0000,-0.0001,1.42239,-0.01470,-2.63385,1.07786,1.57082,0.11674,-0.12760,-0.48158,0.03220,,,,,,,,,,,,,,,,,,,,,,,,,,0,0,0,0,0
6.4515,1783971483.3025,1,1,7.0000,-0.0001,1.42239,-0.01470,-2.63385,1.07786,1.57082,0.11674,-0.12760,-0.48158,0.03220,,,,,,,,,,,,,,,,,,,,,,,,,,0,0,0,0,0
6.4520,1783971483.3030,1,1,7.0000,-0.0001,1.42239,-0.01470,-2.63385,1.07786,1.57082,0.11674,-0.12760,-0.48158,0.03220,,,,,,,,,,,,,,,,,,,,,,,,,,0,0,0,0,0
6.4526,1783971483.3036,1,1,7.0000,-0.0001,1.42239,-0.01470,-2.63385,1.07786,1.57082,0.11674,-0.12760,-0.48158,0.03220,,,,,,,,,,,,,,,,,,,,,,,,,,0,0,0,0,0
6.4532,1783971483.3042,1,1,7.0000,-0.0001,1.42239,-0.01470,-2.63385,1.07786,1.57082,0.11674,-0.12760,-0.48158,0.03220,,,,,,,,,,,,,,,,,,,,,,,,,,0,0,0,0,0
6.4593,1783971483.3102,1,1,7.0000,-0.0001,1.42239,-0.01470,-2.63385,1.07786,1.57082,0.11674,-0.12760,-0.48158,0.03220,,,,,,,,,,,,,,,,,,,,,,,,,,0,0,0,0,0
6.5002,1783971483.3512,1,1,7.0000,-0.0001,1.42239,-0.01470,-2.63385,1.07786,1.57082,0.11674,-0.12760,-0.48158,0.03220,,,,,,,,,,,,,,,,,,,,,,,,,,0,0,0,0,0
6.5006,1783971483.3516,1,1,7.0000,-0.0001,1.42239,-0.01470,-2.63385,1.07786,1.57082,0.11674,-0.12760,-0.48158,0.03220,,,,,,,,,,,,,,,,,,,,,,,,,,0,0,0,0,0
6.5066,1783971483.3576,1,1,7.0000,-0.0001,1.42239,-0.01470,-2.63385,1.07786,1.57082,0.11674,-0.12760,-0.48158,0.03220,,,,,,,,,,,,,,,,,,,,,,,,,,0,0,0,0,0
6.5181,1783971483.3690,1,1,7.0000,-0.0001,1.42239,-0.01470,-2.63385,1.07786,1.57082,0.11674,-0.12760,-0.48157,0.03220,,,,,,,,,,,,,,,,,,,,,,,,,,0,0,0,0,0
6.5191,1783971483.3701,1,1,7.0000,-0.0001,1.42239,-0.01470,-2.63385,1.07786,1.57082,0.11674,-0.12760,-0.48157,0.03220,,,,,,,,,,,,,,,,,,,,,,,,,,0,0,0,0,0
6.5196,1783971483.3705,1,1,7.0000,-0.0001,1.42239,-0.01470,-2.63385,1.07786,1.57082,0.11674,-0.12760,-0.48157,0.03220,,,,,,,,,,,,,,,,,,,,,,,,,,0,0,0,0,0
6.5203,1783971483.3713,1,1,7.0000,-0.0001,1.42239,-0.01470,-2.63385,1.07786,1.57082,0.11674,-0.12760,-0.48157,0.03220,,,,,,,,,,,,,,,,,,,,,,,,,,0,0,0,0,0
6.5324,1783971483.3834,1,1,7.0000,-0.0001,1.42239,-0.01471,-2.63387,1.07787,1.57082,0.11674,-0.12760,-0.48156,0.03220,,,,,,,,,,,,,,,,,,,,,,,,,,0,0,0,0,0
6.5552,1783971483.4062,1,1,7.0000,-0.0001,1.42239,-0.01474,-2.63391,1.07791,1.57082,0.11674,-0.12760,-0.48153,0.03217,,,,,,,,,,,,,,,,,,,,,,,,,,0,0,0,0,0
6.5756,1783971483.4266,1,1,7.0000,-0.0001,1.42239,-0.01479,-2.63398,1.07797,1.57082,0.11674,-0.12761,-0.48149,0.03213,,,,,,,,,,,,,,,,,,,,,,,,,,0,0,0,0,0
6.5761,1783971483.4271,1,1,7.0000,-0.0001,1.42239,-0.01479,-2.63398,1.07797,1.57082,0.11674,-0.12761,-0.48149,0.03213,,,,,,,,,,,,,,,,,,,,,,,,,,0,0,0,0,0
6.5836,1783971483.4346,1,1,7.0000,-0.0001,1.42239,-0.01481,-2.63400,1.07799,1.57082,0.11674,-0.12761,-0.48148,0.03211,,,,,,,,,,,,,,,,,,,,,,,,,,0,0,0,0,0
6.5839,1783971483.4349,1,1,7.0000,-0.0001,1.42239,-0.01481,-2.63400,1.07799,1.57082,0.11674,-0.12761,-0.48148,0.03211,,,,,,,,,,,,,,,,,,,,,,,,,,0,0,0,0,0
6.5845,1783971483.4355,1,1,7.0000,-0.0001,1.42239,-0.01481,-2.63400,1.07799,1.57082,0.11674,-0.12761,-0.48148,0.03211,,,,,,,,,,,,,,,,,,,,,,,,,,0,0,0,0,0
6.5852,1783971483.4361,1,1,7.0000,-0.0001,1.42239,-0.01482,-2.63401,1.07801,1.57082,0.11674,-0.12761,-0.48148,0.03210,,,,,,,,,,,,,,,,,,,,,,,,,,0,0,0,0,0
6.5925,1783971483.4435,1,1,7.0000,-0.0001,1.42239,-0.01484,-2.63402,1.07804,1.57082,0.11674,-0.12761,-0.48147,0.03209,,,,,,,,,,,,,,,,,,,,,,,,,,0,0,0,0,0
