Martins-Lucaas/twinforge/sensors/Data/celula de carga/20260713_124830__samples.csv
t_rel_s,t_unix,cycle,phase,setpoint_n,force_net_n,q1,q2,q3,q4,q5,q6,tcp_x,tcp_y,tcp_z,taxel_0,taxel_1,taxel_2,taxel_3,taxel_4,taxel_5,taxel_6,taxel_7,taxel_8,taxel_9,taxel_10,taxel_11,taxel_12,taxel_13,taxel_14,taxel_15,taxel_16,taxel_17,taxel_18,taxel_19,taxel_20,taxel_21,taxel_22,taxel_23,taxel_24,n_RA,n_SA,cn_mm,cn_ra,cn_sa
0.0015,1783957710.1680,0,-1,5.0000,0.0000,1.42244,0.00070,-2.63055,1.05906,1.57082,0.11673,-0.12763,-0.48151,0.03737,,,,,,,,,,,,,,,,,,,,,,,,,,0,0,0,0,0
0.0038,1783957710.1703,1,0,5.0000,0.0000,1.42244,0.00070,-2.63055,1.05906,1.57082,0.11673,-0.12763,-0.48151,0.03737,,,,,,,,,,,,,,,,,,,,,,,,,,0,0,0,0,0
0.0042,1783957710.1707,1,0,5.0000,0.0000,1.42244,0.00070,-2.63055,1.05906,1.57082,0.11673,-0.12763,-0.48151,0.03737,,,,,,,,,,,,,,,,,,,,,,,,,,0,0,0,0,0
0.0217,1783957710.1882,1,0,5.0000,0.0000,1.42244,0.00070,-2.63055,1.05906,1.57082,0.11673,-0.12763,-0.48151,0.03737,,,,,,,,,,,,,,,,,,,,,,,,,,0,0,0,0,0
0.0229,1783957710.1894,1,0,5.0000,0.0000,1.42244,0.00070,-2.63055,1.05906,1.57082,0.11673,-0.12763,-0.48151,0.03737,,,,,,,,,,,,,,,,,,,,,,,,,,0,0,0,0,0
0.0234,1783957710.1899,1,0,5.0000,0.0000,1.42244,0.00070,-2.63055,1.05906,1.57082,0.11673,-0.12763,-0.48151,0.03737,,,,,,,,,,,,,,,,,,,,,,,,,,0,0,0,0,0
0.0389,1783957710.2054,1,0,5.0000,0.0000,1.42244,0.00070,-2.63054,1.05906,1.57082,0.11673,-0.12763,-0.48151,0.03737,,,,,,,,,,,,,,,,,,,,,,,,,,0,0,0,0,0
0.0436,1783957710.2101,1,0,5.0000,0.0000,1.42244,0.00070,-2.63054,1.05906,1.57082,0.11674,-0.12763,-0.48151,0.03737,,,,,,,,,,,,,,,,,,,,,,,,,,0,0,0,0,0
0.0441,1783957710.2106,1,0,5.0000,0.0000,1.42244,0.00070,-2.63054,1.05906,1.57082,0.11674,-0.12763,-0.48151,0.03737,,,,,,,,,,,,,,,,,,,,,,,,,,0,0,0,0,0
0.0454,1783957710.2119,1,0,5.0000,0.0000,1.42244,0.00071,-2.63054,1.05906,1.57081,0.11674,-0.12763,-0.48151,0.03737,,,,,,,,,,,,,,,,,,,,,,,,,,0,0,0,0,0
0.0457,1783957710.2122,1,0,5.0000,0.0000,1.42244,0.00071,-2.63054,1.05906,1.57081,0.11674,-0.12763,-0.48151,0.03737,,,,,,,,,,,,,,,,,,,,,,,,,,0,0,0,0,0
0.0492,1783957710.2157,1,0,5.0000,0.0000,1.42244,0.00071,-2.63054,1.05906,1.57081,0.11674,-0.12763,-0.48151,0.03737,,,,,,,,,,,,,,,,,,,,,,,,,,0,0,0,0,0
0.0521,1783957710.2186,1,0,5.0000,0.0000,1.42244,0.00071,-2.63054,1.05906,1.57081,0.11674,-0.12763,-0.48151,0.03737,,,,,,,,,,,,,,,,,,,,,,,,,,0,0,0,0,0
0.0525,1783957710.2190,1,0,5.0000,0.0000,1.42244,0.00071,-2.63054,1.05906,1.57081,0.11674,-0.12763,-0.48151,0.03737,,,,,,,,,,,,,,,,,,,,,,,,,,0,0,0,0,0
0.0959,1783957710.2624,1,0,5.0000,0.0000,1.42244,0.00071,-2.63053,1.05907,1.57080,0.11675,-0.12763,-0.48152,0.03738,,,,,,,,,,,,,,,,,,,,,,,,,,0,0,0,0,0
0.1037,1783957710.2702,1,0,5.0000,0.0000,1.42244,0.00071,-2.63053,1.05907,1.57080,0.11675,-0.12763,-0.48152,0.03738,,,,,,,,,,,,,,,,,,,,,,,,,,0,0,0,0,0
0.1042,1783957710.2707,1,0,5.0000,0.0000,1.42244,0.00071,-2.63053,1.05907,1.57080,0.11675,-0.12763,-0.48152,0.03738,,,,,,,,,,,,,,,,,,,,,,,,,,0,0,0,0,0
0.1047,1783957710.2712,1,0,5.0000,0.0000,1.42244,0.00071,-2.63053,1.05907,1.57080,0.11675,-0.12763,-0.48152,0.03738,,,,,,,,,,,,,,,,,,,,,,,,,,0,0,0,0,0
0.1065,1783957710.2730,1,0,5.0000,0.0000,1.42244,0.00071,-2.63053,1.05907,1.57080,0.11675,-0.12763,-0.48152,0.03738,,,,,,,,,,,,,,,,,,,,,,,,,,0,0,0,0,0
0.1071,1783957710.2736,1,0,5.0000,0.0000,1.42244,0.00071,-2.63053,1.05907,1.57080,0.11675,-0.12763,-0.48152,0.03738,,,,,,,,,,,,,,,,,,,,,,,,,,0,0,0,0,0
0.1076,1783957710.2741,1,0,5.0000,0.0000,1.42244,0.00071,-2.63053,1.05907,1.57080,0.11675,-0.12763,-0.48152,0.03738,,,,,,,,,,,,,,,,,,,,,,,,,,0,0,0,0,0
0.1080,1783957710.2745,1,0,5.0000,0.0000,1.42244,0.00071,-2.63053,1.05907,1.57080,0.11675,-0.12763,-0.48152,0.03738,,,,,,,,,,,,,,,,,,,,,,,,,,0,0,0,0,0
0.1264,1783957710.2929,1,0,5.0000,0.0000,1.42244,0.00071,-2.63053,1.05907,1.57080,0.11675,-0.12763,-0.48152,0.03738,,,,,,,,,,,,,,,,,,,,,,,,,,0,0,0,0,0
0.1268,1783957710.2933,1,0,5.0000,0.0000,1.42244,0.00071,-2.63053,1.05907,1.57080,0.11675,-0.12763,-0.48152,0.03738,,,,,,,,,,,,,,,,,,,,,,,,,,0,0,0,0,0
0.1273,1783957710.2938,1,0,5.0000,0.0000,1.42244,0.00071,-2.63053,1.05907,1.57080,0.11675,-0.12763,-0.48152,0.03738,,,,,,,,,,,,,,,,,,,,,,,,,,0,0,0,0,0
0.1276,1783957710.2941,1,0,5.0000,0.0000,1.42244,0.00071,-2.63053,1.05907,1.57080,0.11675,-0.12763,-0.48152,0.03738,,,,,,,,,,,,,,,,,,,,,,,,,,0,0,0,0,0
0.1280,1783957710.2945,1,0,5.0000,0.0000,1.42244,0.00071,-2.63053,1.05907,1.57080,0.11675,-0.12763,-0.48152,0.03738,,,,,,,,,,,,,,,,,,,,,,,,,,0,0,0,0,0
0.1304,1783957710.2969,1,0,5.0000,0.0000,1.42244,0.00071,-2.63053,1.05907,1.57080,0.11675,-0.12763,-0.48152,0.03738,,,,,,,,,,,,,,,,,,,,,,,,,,0,0,0,0,0
0.1309,1783957710.2974,1,0,5.0000,0.0000,1.42244,0.00071,-2.63053,1.05907,1.57080,0.11675,-0.12763,-0.48152,0.03738,,,,,,,,,,,,,,,,,,,,,,,,,,0,0,0,0,0
0.1340,1783957710.3005,1,0,5.0000,0.0000,1.42244,0.00071,-2.63053,1.05907,1.57080,0.11675,-0.12763,-0.48152,0.03738,,,,,,,,,,,,,,,,,,,,,,,,,,0,0,0,0,0
0.1412,1783957710.3077,1,0,5.0000,0.0000,1.42244,0.00071,-2.63053,1.05907,1.57080,0.11675,-0.12763,-0.48152,0.03738,,,,,,,,,,,,,,,,,,,,,,,,,,0,0,0,0,0
0.1413,1783957710.3078,1,0,5.0000,0.0000,1.42244,0.00071,-2.63053,1.05907,1.57080,0.11675,-0.12763,-0.48152,0.03738,,,,,,,,,,,,,,,,,,,,,,,,,,0,0,0,0,0
0.1417,1783957710.3082,1,0,5.0000,0.0000,1.42244,0.00071,-2.63053,1.05907,1.57080,0.11675,-0.12763,-0.48152,0.03738,,,,,,,,,,,,,,,,,,,,,,,,,,0,0,0,0,0
0.1420,1783957710.3085,1,0,5.0000,0.0000,1.42244,0.00071,-2.63053,1.05907,1.57080,0.11675,-0.12763,-0.48152,0.03738,,,,,,,,,,,,,,,,,,,,,,,,,,0,0,0,0,0
0.1426,1783957710.3090,1,0,5.0000,0.0000,1.42244,0.00071,-2.63053,1.05907,1.57080,0.11675,-0.12763,-0.48152,0.03738,,,,,,,,,,,,,,,,,,,,,,,,,,0,0,0,0,0
0.1440,1783957710.3105,1,0,5.0000,0.0000,1.42244,0.00071,-2.63053,1.05907,1.57080,0.11675,-0.12763,-0.48152,0.03738,,,,,,,,,,,,,,,,,,,,,,,,,,0,0,0,0,0
0.1686,1783957710.3351,1,0,5.0000,0.0000,1.42244,0.00071,-2.63053,1.05907,1.57080,0.11675,-0.12763,-0.48152,0.03738,,,,,,,,,,,,,,,,,,,,,,,,,,0,0,0,0,0
0.1720,1783957710.3385,1,0,5.0000,0.0000,1.42244,0.00071,-2.63053,1.05907,1.57080,0.11675,-0.12763,-0.48152,0.03738,,,,,,,,,,,,,,,,,,,,,,,,,,0,0,0,0,0
0.1726,1783957710.3391,1,0,5.0000,0.0000,1.42244,0.00071,-2.63053,1.05907,1.57080,0.11675,-0.12763,-0.48152,0.03738,,,,,,,,,,,,,,,,,,,,,,,,,,0,0,0,0,0
0.1732,1783957710.3397,1,0,5.0000,0.0000,1.42244,0.00071,-2.63053,1.05907,1.57080,0.11675,-0.12763,-0.48152,0.03738,,,,,,,,,,,,,,,,,,,,,,,,,,0,0,0,0,0
0.1799,1783957710.3464,1,0,5.0000,0.0000,1.42244,0.00071,-2.63053,1.05907,1.57080,0.11675,-0.12763,-0.48152,0.03738,,,,,,,,,,,,,,,,,,,,,,,,,,0,0,0,0,0
0.1803,1783957710.3467,1,0,5.0000,0.0000,1.42244,0.00071,-2.63053,1.05907,1.57080,0.11675,-0.12763,-0.48152,0.03738,,,,,,,,,,,,,,,,,,,,,,,,,,0,0,0,0,0
0.1829,1783957710.3494,1,0,5.0000,0.0000,1.42244,0.00071,-2.63053,1.05907,1.57080,0.11675,-0.12763,-0.48152,0.03738,,,,,,,,,,,,,,,,,,,,,,,,,,0,0,0,0,0
0.1833,1783957710.3498,1,0,5.0000,0.0000,1.42244,0.00071,-2.63053,1.05907,1.57080,0.11675,-0.12763,-0.48152,0.03738,,,,,,,,,,,,,,,,,,,,,,,,,,0,0,0,0,0
0.1837,1783957710.3501,1,0,5.0000,0.0000,1.42244,0.00071,-2.63053,1.05907,1.57080,0.11675,-0.12763,-0.48152,0.03738,,,,,,,,,,,,,,,,,,,,,,,,,,0,0,0,0,0
0.1942,1783957710.3607,1,0,5.0000,0.0000,1.42244,0.00071,-2.63053,1.05907,1.57080,0.11675,-0.12763,-0.48152,0.03738,,,,,,,,,,,,,,,,,,,,,,,,,,0,0,0,0,0
0.1946,1783957710.3611,1,0,5.0000,0.0000,1.42244,0.00071,-2.63053,1.05907,1.57080,0.11675,-0.12763,-0.48152,0.03738,,,,,,,,,,,,,,,,,,,,,,,,,,0,0,0,0,0
0.2141,1783957710.3806,1,0,5.0000,0.0000,1.42244,0.00071,-2.63053,1.05907,1.57080,0.11675,-0.12763,-0.48152,0.03738,,,,,,,,,,,,,,,,,,,,,,,,,,0,0,0,0,0
0.2172,1783957710.3837,1,0,5.0000,0.0000,1.42244,0.00071,-2.63053,1.05907,1.57080,0.11675,-0.12763,-0.48152,0.03738,,,,,,,,,,,,,,,,,,,,,,,,,,0,0,0,0,0
0.2255,1783957710.3920,1,0,5.0000,0.0000,1.42244,0.00071,-2.63053,1.05907,1.57080,0.11675,-0.12763,-0.48152,0.03738,,,,,,,,,,,,,,,,,,,,,,,,,,0,0,0,0,0
0.2259,1783957710.3924,1,0,5.0000,0.0000,1.42244,0.00071,-2.63053,1.05907,1.57080,0.11675,-0.12763,-0.48152,0.03738,,,,,,,,,,,,,,,,,,,,,,,,,,0,0,0,0,0
0.2427,1783957710.4092,1,0,5.0000,0.0000,1.42244,0.00071,-2.63053,1.05907,1.57080,0.11675,-0.12763,-0.48152,0.03738,,,,,,,,,,,,,,,,,,,,,,,,,,0,0,0,0,0
0.2440,1783957710.4105,1,0,5.0000,0.0000,1.42244,0.00071,-2.63053,1.05907,1.57080,0.11675,-0.12763,-0.48152,0.03738,,,,,,,,,,,,,,,,,,,,,,,,,,0,0,0,0,0
0.2443,1783957710.4108,1,0,5.0000,0.0000,1.42244,0.00071,-2.63053,1.05907,1.57080,0.11675,-0.12763,-0.48152,0.03738,,,,,,,,,,,,,,,,,,,,,,,,,,0,0,0,0,0
0.2504,1783957710.4169,1,0,5.0000,0.0000,1.42244,0.00071,-2.63053,1.05907,1.57080,0.11675,-0.12763,-0.48152,0.03738,,,,,,,,,,,,,,,,,,,,,,,,,,0,0,0,0,0
0.2611,1783957710.4276,1,0,5.0000,0.0000,1.42244,0.00071,-2.63053,1.05907,1.57080,0.11675,-0.12763,-0.48152,0.03738,,,,,,,,,,,,,,,,,,,,,,,,,,0,0,0,0,0
0.2709,1783957710.4374,1,0,5.0000,0.0000,1.42244,0.00071,-2.63053,1.05907,1.57080,0.11675,-0.12763,-0.48152,0.03738,,,,,,,,,,,,,,,,,,,,,,,,,,0,0,0,0,0
0.2851,1783957710.4516,1,0,5.0000,0.0000,1.42244,0.00071,-2.63053,1.05907,1.57080,0.11675,-0.12763,-0.48152,0.03738,,,,,,,,,,,,,,,,,,,,,,,,,,0,0,0,0,0
0.2938,1783957710.4603,1,0,5.0000,0.0000,1.42244,0.00071,-2.63053,1.05907,1.57080,0.11675,-0.12763,-0.48152,0.03738,,,,,,,,,,,,,,,,,,,,,,,,,,0,0,0,0,0
0.2943,1783957710.4608,1,0,5.0000,0.0000,1.42244,0.00071,-2.63053,1.05907,1.57080,0.11675,-0.12763,-0.48152,0.03738,,,,,,,,,,,,,,,,,,,,,,,,,,0,0,0,0,0
0.3085,1783957710.4750,1,0,5.0000,0.0000,1.42244,0.00071,-2.63053,1.05907,1.57080,0.11675,-0.12763,-0.48152,0.03738,,,,,,,,,,,,,,,,,,,,,,,,,,0,0,0,0,0
0.3116,1783957710.4781,1,0,5.0000,0.0000,1.42244,0.00071,-2.63053,1.05907,1.57080,0.11675,-0.12763,-0.48152,0.03738,,,,,,,,,,,,,,,,,,,,,,,,,,0,0,0,0,0
0.3122,1783957710.4786,1,0,5.0000,0.0000,1.42244,0.00071,-2.63053,1.05907,1.57080,0.11675,-0.12763,-0.48152,0.03738,,,,,,,,,,,,,,,,,,,,,,,,,,0,0,0,0,0
0.3304,1783957710.4969,1,0,5.0000,0.0000,1.42244,0.00071,-2.63053,1.05907,1.57080,0.11675,-0.12763,-0.48152,0.03738,,,,,,,,,,,,,,,,,,,,,,,,,,0,0,0,0,0
0.3349,1783957710.5014,1,0,5.0000,0.0000,1.42244,0.00071,-2.63053,1.05907,1.57080,0.11675,-0.12763,-0.48152,0.03738,,,,,,,,,,,,,,,,,,,,,,,,,,0,0,0,0,0
0.3445,1783957710.5110,1,0,5.0000,0.0000,1.42244,0.00071,-2.63053,1.05907,1.57080,0.11675,-0.12763,-0.48152,0.03738,,,,,,,,,,,,,,,,,,,,,,,,,,0,0,0,0,0
0.3541,1783957710.5205,1,0,5.0000,0.0000,1.42244,0.00071,-2.63053,1.05907,1.57080,0.11675,-0.12763,-0.48152,0.03738,,,,,,,,,,,,,,,,,,,,,,,,,,0,0,0,0,0
0.3544,1783957710.5209,1,0,5.0000,0.0000,1.42244,0.00071,-2.63053,1.05907,1.57080,0.11675,-0.12763,-0.48152,0.03738,,,,,,,,,,,,,,,,,,,,,,,,,,0,0,0,0,0
0.3606,1783957710.5271,1,0,5.0000,0.0000,1.42244,0.00071,-2.63053,1.05907,1.57080,0.11675,-0.12763,-0.48152,0.03738,,,,,,,,,,,,,,,,,,,,,,,,,,0,0,0,0,0
0.3612,1783957710.5277,1,0,5.0000,0.0000,1.42244,0.00071,-2.63053,1.05907,1.57080,0.11675,-0.12763,-0.48152,0.03738,,,,,,,,,,,,,,,,,,,,,,,,,,0,0,0,0,0
0.3733,1783957710.5398,1,0,5.0000,0.0000,1.42244,0.00071,-2.63053,1.05907,1.57080,0.11675,-0.12763,-0.48152,0.03738,,,,,,,,,,,,,,,,,,,,,,,,,,0,0,0,0,0
0.3883,1783957710.5548,1,0,5.0000,0.0000,1.42244,0.00071,-2.63053,1.05907,1.57080,0.11675,-0.12763,-0.48152,0.03738,,,,,,,,,,,,,,,,,,,,,,,,,,0,0,0,0,0
0.3900,1783957710.5565,1,0,5.0000,0.0000,1.42244,0.00071,-2.63053,1.05907,1.57080,0.11675,-0.12763,-0.48152,0.03738,,,,,,,,,,,,,,,,,,,,,,,,,,0,0,0,0,0
0.3904,1783957710.5569,1,0,5.0000,0.0000,1.42244,0.00071,-2.63053,1.05907,1.57080,0.11675,-0.12763,-0.48152,0.03738,,,,,,,,,,,,,,,,,,,,,,,,,,0,0,0,0,0
0.4003,1783957710.5668,1,0,5.0000,0.0000,1.42244,0.00071,-2.63053,1.05907,1.57080,0.11675,-0.12763,-0.48152,0.03738,,,,,,,,,,,,,,,,,,,,,,,,,,0,0,0,0,0
0.4105,1783957710.5770,1,0,5.0000,0.0000,1.42244,0.00071,-2.63053,1.05907,1.57080,0.11675,-0.12763,-0.48152,0.03738,,,,,,,,,,,,,,,,,,,,,,,,,,0,0,0,0,0
0.4200,1783957710.5865,1,0,5.0000,0.0000,1.42244,0.00071,-2.63053,1.05907,1.57080,0.11675,-0.12763,-0.48152,0.03738,,,,,,,,,,,,,,,,,,,,,,,,,,0,0,0,0,0
0.4206,1783957710.5871,1,0,5.0000,0.0000,1.42244,0.00071,-2.63053,1.05907,1.57080,0.11675,-0.12763,-0.48152,0.03738,,,,,,,,,,,,,,,,,,,,,,,,,,0,0,0,0,0
0.4302,1783957710.5967,1,0,5.0000,0.0000,1.42244,0.00071,-2.63053,1.05907,1.57080,0.11675,-0.12763,-0.48152,0.03738,,,,,,,,,,,,,,,,,,,,,,,,,,0,0,0,0,0
0.4453,1783957710.6118,1,0,5.0000,0.0000,1.42244,0.00071,-2.63053,1.05907,1.57080,0.11675,-0.12763,-0.48152,0.03738,,,,,,,,,,,,,,,,,,,,,,,,,,0,0,0,0,0
0.4514,1783957710.6179,1,0,5.0000,0.0000,1.42244,0.00071,-2.63053,1.05907,1.57080,0.11675,-0.12763,-0.48152,0.03738,,,,,,,,,,,,,,,,,,,,,,,,,,0,0,0,0,0
0.4519,1783957710.6184,1,0,5.0000,0.0000,1.42244,0.00071,-2.63053,1.05907,1.57080,0.11675,-0.12763,-0.48152,0.03738,,,,,,,,,,,,,,,,,,,,,,,,,,0,0,0,0,0
0.4618,1783957710.6283,1,0,5.0000,0.0000,1.42244,0.00071,-2.63053,1.05907,1.57080,0.11675,-0.12763,-0.48152,0.03738,,,,,,,,,,,,,,,,,,,,,,,,,,0,0,0,0,0
0.4621,1783957710.6286,1,0,5.0000,0.0000,1.42244,0.00071,-2.63053,1.05907,1.57080,0.11675,-0.12763,-0.48152,0.03738,,,,,,,,,,,,,,,,,,,,,,,,,,0,0,0,0,0
0.4704,1783957710.6369,1,0,5.0000,0.0000,1.42244,0.00071,-2.63053,1.05907,1.57080,0.11675,-0.12763,-0.48152,0.03738,,,,,,,,,,,,,,,,,,,,,,,,,,0,0,0,0,0
0.4707,1783957710.6372,1,0,5.0000,0.0000,1.42244,0.00071,-2.63053,1.05907,1.57080,0.11675,-0.12763,-0.48152,0.03738,,,,,,,,,,,,,,,,,,,,,,,,,,0,0,0,0,0
0.4861,1783957710.6525,1,0,5.0000,0.0000,1.42244,0.00071,-2.63053,1.05907,1.57080,0.11675,-0.12763,-0.48152,0.03738,,,,,,,,,,,,,,,,,,,,,,,,,,0,0,0,0,0
0.4976,1783957710.6641,1,0,5.0000,0.0000,1.42244,0.00071,-2.63053,1.05907,1.57080,0.11675,-0.12763,-0.48152,0.03738,,,,,,,,,,,,,,,,,,,,,,,,,,0,0,0,0,0
0.4979,1783957710.6644,1,0,5.0000,0.0000,1.42244,0.00071,-2.63053,1.05907,1.57080,0.11675,-0.12763,-0.48152,0.03738,,,,,,,,,,,,,,,,,,,,,,,,,,0,0,0,0,0
0.5013,1783957710.6678,1,0,5.0000,0.0000,1.42244,0.00071,-2.63053,1.05907,1.57080,0.11675,-0.12763,-0.48152,0.03738,,,,,,,,,,,,,,,,,,,,,,,,,,0,0,0,0,0
0.5017,1783957710.6682,1,0,5.0000,0.0000,1.42244,0.00071,-2.63053,1.05907,1.57080,0.11675,-0.12763,-0.48152,0.03738,,,,,,,,,,,,,,,,,,,,,,,,,,0,0,0,0,0
0.5126,1783957710.6791,1,0,5.0000,0.0000,1.42244,0.00071,-2.63053,1.05907,1.57080,0.11675,-0.12763,-0.48152,0.03738,,,,,,,,,,,,,,,,,,,,,,,,,,0,0,0,0,0
0.5252,1783957710.6917,1,0,5.0000,0.0000,1.42244,0.00071,-2.63053,1.05907,1.57080,0.11675,-0.12763,-0.48152,0.03738,,,,,,,,,,,,,,,,,,,,,,,,,,0,0,0,0,0
0.5331,1783957710.6996,1,0,5.0000,0.0000,1.42244,0.00071,-2.63053,1.05907,1.57080,0.11675,-0.12763,-0.48152,0.03738,,,,,,,,,,,,,,,,,,,,,,,,,,0,0,0,0,0
0.5487,1783957710.7152,1,0,5.0000,0.0000,1.42244,0.00071,-2.63053,1.05907,1.57080,0.11675,-0.12763,-0.48152,0.03738,,,,,,,,,,,,,,,,,,,,,,,,,,0,0,0,0,0
0.5937,1783957710.7602,1,0,5.0000,0.0000,1.42244,0.00071,-2.63053,1.05907,1.57080,0.11675,-0.12763,-0.48152,0.03738,,,,,,,,,,,,,,,,,,,,,,,,,,0,0,0,0,0
0.5943,1783957710.7608,1,0,5.0000,0.0000,1.42244,0.00071,-2.63053,1.05907,1.57080,0.11675,-0.12763,-0.48152,0.03738,,,,,,,,,,,,,,,,,,,,,,,,,,0,0,0,0,0
0.5949,1783957710.7614,1,0,5.0000,0.0000,1.42244,0.00071,-2.63053,1.05907,1.57080,0.11675,-0.12763,-0.48152,0.03738,,,,,,,,,,,,,,,,,,,,,,,,,,0,0,0,0,0
0.5952,1783957710.7617,1,0,5.0000,0.0000,1.42244,0.00071,-2.63053,1.05907,1.57080,0.11675,-0.12763,-0.48152,0.03738,,,,,,,,,,,,,,,,,,,,,,,,,,0,0,0,0,0
0.5957,1783957710.7622,1,0,5.0000,0.0000,1.42244,0.00071,-2.63053,1.05907,1.57080,0.11675,-0.12763,-0.48152,0.03738,,,,,,,,,,,,,,,,,,,,,,,,,,0,0,0,0,0
0.5961,1783957710.7626,1,0,5.0000,0.0000,1.42244,0.00071,-2.63053,1.05907,1.57080,0.11675,-0.12763,-0.48152,0.03738,,,,,,,,,,,,,,,,,,,,,,,,,,0,0,0,0,0
0.6012,1783957710.7677,1,0,5.0000,0.0000,1.42244,0.00071,-2.63053,1.05907,1.57080,0.11675,-0.12763,-0.48152,0.03738,,,,,,,,,,,,,,,,,,,,,,,,,,0,0,0,0,0
0.6014,1783957710.7679,1,0,5.0000,0.0000,1.42244,0.00071,-2.63053,1.05907,1.57080,0.11675,-0.12763,-0.48152,0.03738,,,,,,,,,,,,,,,,,,,,,,,,,,0,0,0,0,0
0.6133,1783957710.7797,1,0,5.0000,0.0000,1.42244,0.00071,-2.63053,1.05907,1.57080,0.11675,-0.12763,-0.48152,0.03738,,,,,,,,,,,,,,,,,,,,,,,,,,0,0,0,0,0
0.6213,1783957710.7878,1,0,5.0000,0.0000,1.42244,0.00071,-2.63053,1.05907,1.57080,0.11675,-0.12763,-0.48152,0.03738,,,,,,,,,,,,,,,,,,,,,,,,,,0,0,0,0,0
0.6343,1783957710.8008,1,0,5.0000,0.0000,1.42244,0.00071,-2.63053,1.05907,1.57080,0.11675,-0.12763,-0.48152,0.03738,,,,,,,,,,,,,,,,,,,,,,,,,,0,0,0,0,0
0.6492,1783957710.8157,1,0,5.0000,0.0000,1.42244,0.00071,-2.63053,1.05907,1.57080,0.11675,-0.12763,-0.48152,0.03738,,,,,,,,,,,,,,,,,,,,,,,,,,0,0,0,0,0
0.6521,1783957710.8186,1,0,5.0000,0.0000,1.42244,0.00071,-2.63053,1.05907,1.57080,0.11675,-0.12763,-0.48152,0.03738,,,,,,,,,,,,,,,,,,,,,,,,,,0,0,0,0,0
0.6525,1783957710.8190,1,0,5.0000,0.0000,1.42244,0.00071,-2.63053,1.05907,1.57080,0.11675,-0.12763,-0.48152,0.03738,,,,,,,,,,,,,,,,,,,,,,,,,,0,0,0,0,0
0.6653,1783957710.8318,1,0,5.0000,0.0000,1.42244,0.00071,-2.63053,1.05907,1.57080,0.11675,-0.12763,-0.48152,0.03738,,,,,,,,,,,,,,,,,,,,,,,,,,0,0,0,0,0
0.6916,1783957710.8581,1,0,5.0000,0.0000,1.42244,0.00071,-2.63053,1.05907,1.57080,0.11675,-0.12763,-0.48152,0.03738,,,,,,,,,,,,,,,,,,,,,,,,,,0,0,0,0,0
0.7380,1783957710.9045,1,1,5.0000,0.0000,1.42244,0.00071,-2.63053,1.05907,1.57080,0.11675,-0.12763,-0.48152,0.03738,,,,,,,,,,,,,,,,,,,,,,,,,,0,0,0,0,0
0.8013,1783957710.9678,1,1,5.0000,0.0000,1.42244,0.00071,-2.63053,1.05907,1.57080,0.11675,-0.12763,-0.48152,0.03738,,,,,,,,,,,,,,,,,,,,,,,,,,0,0,0,0,0
0.8017,1783957710.9682,1,1,5.0000,0.0000,1.42244,0.00071,-2.63053,1.05907,1.57080,0.11675,-0.12763,-0.48152,0.03738,,,,,,,,,,,,,,,,,,,,,,,,,,0,0,0,0,0
0.8069,1783957710.9734,1,1,5.0000,0.0000,1.42244,0.00071,-2.63053,1.05907,1.57080,0.11675,-0.12763,-0.48152,0.03738,,,,,,,,,,,,,,,,,,,,,,,,,,0,0,0,0,0
0.8073,1783957710.9738,1,1,5.0000,0.0000,1.42244,0.00071,-2.63053,1.05907,1.57080,0.11675,-0.12763,-0.48152,0.03738,,,,,,,,,,,,,,,,,,,,,,,,,,0,0,0,0,0
0.8110,1783957710.9775,1,1,5.0000,0.0000,1.42244,0.00071,-2.63053,1.05907,1.57080,0.11675,-0.12763,-0.48152,0.03738,,,,,,,,,,,,,,,,,,,,,,,,,,0,0,0,0,0
0.8116,1783957710.9781,1,1,5.0000,0.0000,1.42244,0.00071,-2.63053,1.05907,1.57080,0.11675,-0.12763,-0.48152,0.03738,,,,,,,,,,,,,,,,,,,,,,,,,,0,0,0,0,0
0.8141,1783957710.9806,1,1,5.0000,0.0000,1.42244,0.00071,-2.63053,1.05907,1.57080,0.11675,-0.12763,-0.48152,0.03738,,,,,,,,,,,,,,,,,,,,,,,,,,0,0,0,0,0
0.8144,1783957710.9808,1,1,5.0000,0.0000,1.42244,0.00071,-2.63053,1.05907,1.57080,0.11675,-0.12763,-0.48152,0.03738,,,,,,,,,,,,,,,,,,,,,,,,,,0,0,0,0,0
0.8243,1783957710.9908,1,1,5.0000,0.0000,1.42244,0.00071,-2.63053,1.05907,1.57080,0.11675,-0.12763,-0.48152,0.03738,,,,,,,,,,,,,,,,,,,,,,,,,,0,0,0,0,0
0.8247,1783957710.9912,1,1,5.0000,0.0000,1.42244,0.00071,-2.63053,1.05907,1.57080,0.11675,-0.12763,-0.48152,0.03738,,,,,,,,,,,,,,,,,,,,,,,,,,0,0,0,0,0
0.8302,1783957710.9967,1,1,5.0000,0.0000,1.42244,0.00071,-2.63053,1.05907,1.57080,0.11675,-0.12763,-0.48152,0.03738,,,,,,,,,,,,,,,,,,,,,,,,,,0,0,0,0,0
0.8306,1783957710.9971,1,1,5.0000,0.0000,1.42244,0.00071,-2.63053,1.05907,1.57080,0.11675,-0.12763,-0.48152,0.03738,,,,,,,,,,,,,,,,,,,,,,,,,,0,0,0,0,0
0.8324,1783957710.9989,1,1,5.0000,0.0000,1.42244,0.00071,-2.63053,1.05907,1.57080,0.11675,-0.12763,-0.48152,0.03738,,,,,,,,,,,,,,,,,,,,,,,,,,0,0,0,0,0
0.8331,1783957710.9996,1,1,5.0000,0.0000,1.42244,0.00071,-2.63053,1.05907,1.57080,0.11675,-0.12763,-0.48152,0.03738,,,,,,,,,,,,,,,,,,,,,,,,,,0,0,0,0,0
0.8333,1783957710.9998,1,1,5.0000,0.0000,1.42244,0.00071,-2.63053,1.05907,1.57080,0.11675,-0.12763,-0.48152,0.03738,,,,,,,,,,,,,,,,,,,,,,,,,,0,0,0,0,0
0.8402,1783957711.0067,1,1,5.0000,0.0000,1.42244,0.00071,-2.63053,1.05907,1.57080,0.11675,-0.12763,-0.48152,0.03738,,,,,,,,,,,,,,,,,,,,,,,,,,0,0,0,0,0
0.8407,1783957711.0072,1,1,5.0000,0.0000,1.42244,0.00071,-2.63053,1.05907,1.57080,0.11675,-0.12763,-0.48152,0.03738,,,,,,,,,,,,,,,,,,,,,,,,,,0,0,0,0,0
0.8427,1783957711.0092,1,1,5.0000,0.0000,1.42244,0.00071,-2.63053,1.05907,1.57080,0.11675,-0.12763,-0.48152,0.03738,,,,,,,,,,,,,,,,,,,,,,,,,,0,0,0,0,0
0.8431,1783957711.0096,1,1,5.0000,0.0000,1.42244,0.00071,-2.63053,1.05907,1.57080,0.11675,-0.12763,-0.48152,0.03738,,,,,,,,,,,,,,,,,,,,,,,,,,0,0,0,0,0
0.8539,1783957711.0204,1,1,5.0000,0.0000,1.42244,0.00071,-2.63053,1.05907,1.57080,0.11675,-0.12763,-0.48152,0.03738,,,,,,,,,,,,,,,,,,,,,,,,,,0,0,0,0,0
0.8619,1783957711.0284,1,1,5.0000,0.0000,1.42244,0.00071,-2.63053,1.05907,1.57080,0.11675,-0.12763,-0.48152,0.03738,,,,,,,,,,,,,,,,,,,,,,,,,,0,0,0,0,0
0.8750,1783957711.0415,1,1,5.0000,0.0000,1.42244,0.00071,-2.63053,1.05907,1.57080,0.11675,-0.12763,-0.48152,0.03738,,,,,,,,,,,,,,,,,,,,,,,,,,0,0,0,0,0
0.8803,1783957711.0468,1,1,5.0000,0.0000,1.42244,0.00071,-2.63053,1.05907,1.57080,0.11675,-0.12763,-0.48152,0.03738,,,,,,,,,,,,,,,,,,,,,,,,,,0,0,0,0,0
0.8811,1783957711.0476,1,1,5.0000,0.0000,1.42244,0.00071,-2.63053,1.05907,1.57080,0.11675,-0.12763,-0.48152,0.03738,,,,,,,,,,,,,,,,,,,,,,,,,,0,0,0,0,0
0.8955,1783957711.0620,1,1,5.0000,0.0000,1.42244,0.00071,-2.63053,1.05907,1.57080,0.11675,-0.12763,-0.48152,0.03738,,,,,,,,,,,,,,,,,,,,,,,,,,0,0,0,0,0
0.8960,1783957711.0624,1,1,5.0000,0.0000,1.42244,0.00071,-2.63053,1.05907,1.57080,0.11675,-0.12763,-0.48152,0.03738,,,,,,,,,,,,,,,,,,,,,,,,,,0,0,0,0,0
0.9017,1783957711.0681,1,1,5.0000,0.0000,1.42244,0.00071,-2.63053,1.05907,1.57080,0.11675,-0.12763,-0.48152,0.03738,,,,,,,,,,,,,,,,,,,,,,,,,,0,0,0,0,0
0.9021,1783957711.0686,1,1,5.0000,0.0000,1.42244,0.00071,-2.63053,1.05907,1.57080,0.11675,-0.12763,-0.48152,0.03738,,,,,,,,,,,,,,,,,,,,,,,,,,0,0,0,0,0
0.9228,1783957711.0893,1,1,5.0000,0.0000,1.42244,0.00071,-2.63053,1.05907,1.57080,0.11675,-0.12763,-0.48152,0.03738,,,,,,,,,,,,,,,,,,,,,,,,,,0,0,0,0,0
0.9235,1783957711.0900,1,1,5.0000,0.0000,1.42244,0.00071,-2.63053,1.05907,1.57080,0.11675,-0.12763,-0.48152,0.03738,,,,,,,,,,,,,,,,,,,,,,,,,,0,0,0,0,0
0.9320,1783957711.0984,1,1,5.0000,0.0000,1.42244,0.00071,-2.63053,1.05907,1.57080,0.11675,-0.12763,-0.48152,0.03738,,,,,,,,,,,,,,,,,,,,,,,,,,0,0,0,0,0
0.9423,1783957711.1088,1,1,5.0000,0.0000,1.42244,0.00071,-2.63053,1.05907,1.57080,0.11675,-0.12763,-0.48152,0.03738,,,,,,,,,,,,,,,,,,,,,,,,,,0,0,0,0,0
0.9587,1783957711.1252,1,1,5.0000,0.0000,1.42244,0.00071,-2.63053,1.05907,1.57080,0.11675,-0.12763,-0.48152,0.03738,,,,,,,,,,,,,,,,,,,,,,,,,,0,0,0,0,0
0.9590,1783957711.1255,1,1,5.0000,0.0000,1.42244,0.00071,-2.63053,1.05907,1.57080,0.11675,-0.12763,-0.48152,0.03738,,,,,,,,,,,,,,,,,,,,,,,,,,0,0,0,0,0
0.9661,1783957711.1326,1,1,5.0000,0.0000,1.42244,0.00071,-2.63053,1.05907,1.57080,0.11675,-0.12763,-0.48152,0.03738,,,,,,,,,,,,,,,,,,,,,,,,,,0,0,0,0,0
0.9720,1783957711.1385,1,1,5.0000,0.0000,1.42244,0.00071,-2.63053,1.05907,1.57080,0.11675,-0.12763,-0.48152,0.03738,,,,,,,,,,,,,,,,,,,,,,,,,,0,0,0,0,0
0.9723,1783957711.1388,1,1,5.0000,0.0000,1.42244,0.00071,-2.63053,1.05907,1.57080,0.11675,-0.12763,-0.48152,0.03738,,,,,,,,,,,,,,,,,,,,,,,,,,0,0,0,0,0
1.0013,1783957711.1678,1,1,5.0000,0.0000,1.42244,0.00071,-2.63053,1.05907,1.57080,0.11675,-0.12763,-0.48152,0.03738,,,,,,,,,,,,,,,,,,,,,,,,,,0,0,0,0,0
1.0173,1783957711.1838,1,1,5.0000,0.0000,1.42244,0.00071,-2.63053,1.05907,1.57080,0.11675,-0.12763,-0.48152,0.03738,,,,,,,,,,,,,,,,,,,,,,,,,,0,0,0,0,0
1.0176,1783957711.1841,1,1,5.0000,0.0000,1.42244,0.00071,-2.63053,1.05907,1.57080,0.11675,-0.12763,-0.48152,0.03738,,,,,,,,,,,,,,,,,,,,,,,,,,0,0,0,0,0
1.0312,1783957711.1977,1,1,5.0000,0.0000,1.42244,0.00071,-2.63054,1.05907,1.57080,0.11675,-0.12763,-0.48152,0.03738,,,,,,,,,,,,,,,,,,,,,,,,,,0,0,0,0,0
1.0494,1783957711.2159,1,1,5.0000,0.0000,1.42244,0.00069,-2.63056,1.05908,1.57080,0.11675,-0.12764,-0.48151,0.03736,,,,,,,,,,,,,,,,,,,,,,,,,,0,0,0,0,0
1.0497,1783957711.2162,1,1,5.0000,0.0000,1.42244,0.00069,-2.63056,1.05908,1.57080,0.11675,-0.12764,-0.48151,0.03736,,,,,,,,,,,,,,,,,,,,,,,,,,0,0,0,0,0
1.0500,1783957711.2165,1,1,5.0000,0.0000,1.42244,0.00069,-2.63056,1.05908,1.57080,0.11675,-0.12764,-0.48151,0.03736,,,,,,,,,,,,,,,,,,,,,,,,,,0,0,0,0,0
1.0502,1783957711.2167,1,1,5.0000,0.0000,1.42244,0.00069,-2.63056,1.05908,1.57080,0.11675,-0.12764,-0.48151,0.03736,,,,,,,,,,,,,,,,,,,,,,,,,,0,0,0,0,0
1.0505,1783957711.2170,1,1,5.0000,0.0000,1.42244,0.00069,-2.63056,1.05908,1.57080,0.11675,-0.12764,-0.48151,0.03736,,,,,,,,,,,,,,,,,,,,,,,,,,0,0,0,0,0
1.0665,1783957711.2330,1,1,5.0000,0.0000,1.42244,0.00063,-2.63060,1.05914,1.57080,0.11675,-0.12764,-0.48148,0.03732,,,,,,,,,,,,,,,,,,,,,,,,,,0,0,0,0,0
1.0672,1783957711.2337,1,1,5.0000,0.0000,1.42244,0.00063,-2.63060,1.05914,1.57080,0.11675,-0.12764,-0.48148,0.03732,,,,,,,,,,,,,,,,,,,,,,,,,,0,0,0,0,0
1.0721,1783957711.2386,1,1,5.0000,0.0000,1.42244,0.00061,-2.63062,1.05915,1.57080,0.11675,-0.12764,-0.48147,0.03731,,,,,,,,,,,,,,,,,,,,,,,,,,0,0,0,0,0
1.0724,1783957711.2389,1,1,5.0000,0.0000,1.42244,0.00061,-2.63062,1.05915,1.57080,0.11675,-0.12764,-0.48147,0.03731,,,,,,,,,,,,,,,,,,,,,,,,,,0,0,0,0,0
1.0856,1783957711.2520,1,1,5.0000,0.0000,1.42244,0.00059,-2.63063,1.05918,1.57080,0.11675,-0.12764,-0.48146,0.03730,,,,,,,,,,,,,,,,,,,,,,,,,,0,0,0,0,0
1.0858,1783957711.2523,1,1,5.0000,0.0000,1.42244,0.00059,-2.63063,1.05918,1.57080,0.11675,-0.12764,-0.48146,0.03730,,,,,,,,,,,,,,,,,,,,,,,,,,0,0,0,0,0
1.1018,1783957711.2683,1,1,5.0000,0.0000,1.42244,0.00050,-2.63067,1.05926,1.57080,0.11675,-0.12765,-0.48144,0.03726,,,,,,,,,,,,,,,,,,,,,,,,,,0,0,0,0,0
1.1310,1783957711.2975,1,1,5.0000,0.0000,1.42244,0.00041,-2.63069,1.05937,1.57080,0.11675,-0.12765,-0.48144,0.03722,,,,,,,,,,,,,,,,,,,,,,,,,,0,0,0,0,0
1.1321,1783957711.2986,1,1,5.0000,0.0000,1.42244,0.00041,-2.63069,1.05937,1.57080,0.11675,-0.12765,-0.48144,0.03722,,,,,,,,,,,,,,,,,,,,,,,,,,0,0,0,0,0
1.1324,1783957711.2989,1,1,5.0000,0.0000,1.42244,0.00041,-2.63069,1.05937,1.57080,0.11675,-0.12765,-0.48144,0.03722,,,,,,,,,,,,,,,,,,,,,,,,,,0,0,0,0,0
1.1327,1783957711.2992,1,1,5.0000,0.0000,1.42244,0.00041,-2.63069,1.05937,1.57080,0.11675,-0.12765,-0.48144,0.03722,,,,,,,,,,,,,,,,,,,,,,,,,,0,0,0,0,0
1.1360,1783957711.3025,1,1,5.0000,0.0000,1.42244,0.00040,-2.63069,1.05938,1.57080,0.11675,-0.12765,-0.48144,0.03722,,,,,,,,,,,,,,,,,,,,,,,,,,0,0,0,0,0
1.1467,1783957711.3132,1,1,5.0000,0.0000,1.42244,0.00031,-2.63071,1.05949,1.57080,0.11675,-0.12765,-0.48144,0.03719,,,,,,,,,,,,,,,,,,,,,,,,,,0,0,0,0,0
1.1505,1783957711.3170,1,1,5.0000,0.0000,1.42244,0.00026,-2.63072,1.05954,1.57080,0.11675,-0.12765,-0.48144,0.03718,,,,,,,,,,,,,,,,,,,,,,,,,,0,0,0,0,0
1.1625,1783957711.3290,1,1,5.0000,0.0000,1.42244,0.00009,-2.63075,1.05975,1.57080,0.11675,-0.12764,-0.48145,0.03712,,,,,,,,,,,,,,,,,,,,,,,,,,0,0,0,0,0
1.1715,1783957711.3380,1,1,5.0000,0.0000,1.42244,0.00008,-2.63075,1.05975,1.57080,0.11675,-0.12764,-0.48145,0.03712,,,,,,,,,,,,,,,,,,,,,,,,,,0,0,0,0,0
1.3533,1783957711.5198,1,1,5.0000,0.0000,1.42243,-0.00084,-2.63090,1.06092,1.57080,0.11675,-0.12763,-0.48150,0.03684,,,,,,,,,,,,,,,,,,,,,,,,,,0,0,0,0,0
1.3553,1783957711.5218,1,1,5.0000,0.0000,1.42243,-0.00084,-2.63090,1.06092,1.57080,0.11675,-0.12763,-0.48150,0.03684,,,,,,,,,,,,,,,,,,,,,,,,,,0,0,0,0,0
1.3557,1783957711.5222,1,1,5.0000,0.0000,1.42243,-0.00084,-2.63090,1.06092,1.57080,0.11675,-0.12763,-0.48150,0.03684,,,,,,,,,,,,,,,,,,,,,,,,,,0,0,0,0,0
1.3752,1783957711.5417,1,1,5.0000,0.0000,1.42243,-0.00094,-2.63092,1.06106,1.57080,0.11675,-0.12763,-0.48150,0.03680,,,,,,,,,,,,,,,,,,,,,,,,,,0,0,0,0,0
1.3775,1783957711.5440,1,1,5.0000,0.0000,1.42243,-0.00096,-2.63093,1.06108,1.57080,0.11675,-0.12763,-0.48150,0.03680,,,,,,,,,,,,,,,,,,,,,,,,,,0,0,0,0,0
1.3778,1783957711.5443,1,1,5.0000,0.0000,1.42243,-0.00096,-2.63093,1.06108,1.57080,0.11675,-0.12763,-0.48150,0.03680,,,,,,,,,,,,,,,,,,,,,,,,,,0,0,0,0,0
1.3781,1783957711.5446,1,1,5.0000,0.0000,1.42243,-0.00096,-2.63093,1.06108,1.57080,0.11675,-0.12763,-0.48150,0.03680,,,,,,,,,,,,,,,,,,,,,,,,,,0,0,0,0,0
1.3783,1783957711.5448,1,1,5.0000,0.0000,1.42243,-0.00096,-2.63093,1.06108,1.57080,0.11675,-0.12763,-0.48150,0.03680,,,,,,,,,,,,,,,,,,,,,,,,,,0,0,0,0,0
1.3786,1783957711.5451,1,1,5.0000,0.0000,1.42243,-0.00096,-2.63093,1.06108,1.57080,0.11675,-0.12763,-0.48150,0.03680,,,,,,,,,,,,,,,,,,,,,,,,,,0,0,0,0,0
1.3788,1783957711.5453,1,1,5.0000,0.0000,1.42243,-0.00096,-2.63093,1.06108,1.57080,0.11675,-0.12763,-0.48150,0.03680,,,,,,,,,,,,,,,,,,,,,,,,,,0,0,0,0,0
1.3792,1783957711.5457,1,1,5.0000,0.0000,1.42243,-0.00096,-2.63093,1.06108,1.57080,0.11675,-0.12763,-0.48150,0.03680,,,,,,,,,,,,,,,,,,,,,,,,,,0,0,0,0,0
1.3794,1783957711.5459,1,1,5.0000,0.0000,1.42243,-0.00096,-2.63093,1.06108,1.57080,0.11675,-0.12763,-0.48150,0.03680,,,,,,,,,,,,,,,,,,,,,,,,,,0,0,0,0,0
1.3797,1783957711.5462,1,1,5.0000,0.0000,1.42243,-0.00096,-2.63093,1.06108,1.57080,0.11675,-0.12763,-0.48150,0.03680,,,,,,,,,,,,,,,,,,,,,,,,,,0,0,0,0,0
1.3924,1783957711.5589,1,1,5.0000,0.0000,1.42243,-0.00108,-2.63095,1.06122,1.57080,0.11675,-0.12763,-0.48150,0.03676,,,,,,,,,,,,,,,,,,,,,,,,,,0,0,0,0,0
1.3931,1783957711.5596,1,1,5.0000,0.0000,1.42243,-0.00108,-2.63095,1.06122,1.57080,0.11675,-0.12763,-0.48150,0.03676,,,,,,,,,,,,,,,,,,,,,,,,,,0,0,0,0,0
1.3937,1783957711.5602,1,1,5.0000,0.0000,1.42243,-0.00113,-2.63096,1.06128,1.57080,0.11675,-0.12763,-0.48150,0.03674,,,,,,,,,,,,,,,,,,,,,,,,,,0,0,0,0,0
1.3974,1783957711.5639,1,1,5.0000,0.0000,1.42243,-0.00118,-2.63098,1.06135,1.57080,0.11675,-0.12763,-0.48150,0.03672,,,,,,,,,,,,,,,,,,,,,,,,,,0,0,0,0,0
1.4014,1783957711.5679,1,1,5.0000,0.0000,1.42243,-0.00118,-2.63098,1.06135,1.57080,0.11675,-0.12763,-0.48150,0.03672,,,,,,,,,,,,,,,,,,,,,,,,,,0,0,0,0,0
1.4017,1783957711.5682,1,1,5.0000,0.0000,1.42243,-0.00118,-2.63098,1.06135,1.57080,0.11675,-0.12763,-0.48150,0.03672,,,,,,,,,,,,,,,,,,,,,,,,,,0,0,0,0,0
1.4020,1783957711.5685,1,1,5.0000,0.0000,1.42243,-0.00118,-2.63098,1.06135,1.57080,0.11675,-0.12763,-0.48150,0.03672,,,,,,,,,,,,,,,,,,,,,,,,,,0,0,0,0,0
1.4215,1783957711.5880,1,1,5.0000,0.0000,1.42243,-0.00129,-2.63099,1.06148,1.57080,0.11675,-0.12763,-0.48151,0.03669,,,,,,,,,,,,,,,,,,,,,,,,,,0,0,0,0,0
1.4234,1783957711.5899,1,1,5.0000,0.0000,1.42243,-0.00129,-2.63099,1.06148,1.57080,0.11675,-0.12763,-0.48151,0.03669,,,,,,,,,,,,,,,,,,,,,,,,,,0,0,0,0,0
1.4236,1783957711.5901,1,1,5.0000,0.0000,1.42243,-0.00129,-2.63099,1.06148,1.57080,0.11675,-0.12763,-0.48151,0.03669,,,,,,,,,,,,,,,,,,,,,,,,,,0,0,0,0,0
1.4239,1783957711.5904,1,1,5.0000,0.0000,1.42243,-0.00129,-2.63099,1.06148,1.57080,0.11675,-0.12763,-0.48151,0.03669,,,,,,,,,,,,,,,,,,,,,,,,,,0,0,0,0,0
1.4244,1783957711.5908,1,1,5.0000,0.0000,1.42243,-0.00129,-2.63099,1.06148,1.57080,0.11675,-0.12763,-0.48151,0.03669,,,,,,,,,,,,,,,,,,,,,,,,,,0,0,0,0,0
1.4248,1783957711.5913,1,1,5.0000,0.0000,1.42243,-0.00129,-2.63099,1.06148,1.57080,0.11675,-0.12763,-0.48151,0.03669,,,,,,,,,,,,,,,,,,,,,,,,,,0,0,0,0,0
1.4256,1783957711.5921,1,1,5.0000,0.0000,1.42243,-0.00132,-2.63100,1.06153,1.57080,0.11675,-0.12763,-0.48151,0.03668,,,,,,,,,,,,,,,,,,,,,,,,,,0,0,0,0,0
1.4259,1783957711.5924,1,1,5.0000,0.0000,1.42243,-0.00132,-2.63100,1.06153,1.57080,0.11675,-0.12763,-0.48151,0.03668,,,,,,,,,,,,,,,,,,,,,,,,,,0,0,0,0,0
1.4344,1783957711.6009,1,1,5.0000,0.0000,1.42243,-0.00137,-2.63100,1.06158,1.57080,0.11675,-0.12763,-0.48151,0.03667,,,,,,,,,,,,,,,,,,,,,,,,,,0,0,0,0,0
1.4427,1783957711.6092,1,1,5.0000,0.0000,1.42243,-0.00138,-2.63100,1.06160,1.57080,0.11675,-0.12763,-0.48151,0.03666,,,,,,,,,,,,,,,,,,,,,,,,,,0,0,0,0,0
1.4541,1783957711.6206,1,1,5.0000,0.0000,1.42243,-0.00145,-2.63101,1.06168,1.57080,0.11675,-0.12763,-0.48152,0.03665,,,,,,,,,,,,,,,,,,,,,,,,,,0,0,0,0,0
1.4546,1783957711.6211,1,1,5.0000,0.0000,1.42243,-0.00145,-2.63101,1.06168,1.57080,0.11675,-0.12763,-0.48152,0.03665,,,,,,,,,,,,,,,,,,,,,,,,,,0,0,0,0,0
1.4624,1783957711.6289,1,1,5.0000,0.0000,1.42243,-0.00145,-2.63101,1.06169,1.57080,0.11675,-0.12763,-0.48152,0.03664,,,,,,,,,,,,,,,,,,,,,,,,,,0,0,0,0,0
1.4852,1783957711.6517,1,1,5.0000,0.0000,1.42243,-0.00161,-2.63105,1.06189,1.57080,0.11675,-0.12763,-0.48152,0.03659,,,,,,,,,,,,,,,,,,,,,,,,,,0,0,0,0,0
1.5152,1783957711.6817,1,1,5.0000,0.0000,1.42243,-0.00172,-2.63109,1.06204,1.57080,0.11675,-0.12763,-0.48151,0.03655,,,,,,,,,,,,,,,,,,,,,,,,,,0,0,0,0,0
1.5156,1783957711.6821,1,1,5.0000,0.0000,1.42243,-0.00172,-2.63109,1.06204,1.57080,0.11675,-0.12763,-0.48151,0.03655,,,,,,,,,,,,,,,,,,,,,,,,,,0,0,0,0,0
1.5247,1783957711.6912,1,1,5.0000,0.0000,1.42243,-0.00179,-2.63110,1.06211,1.57080,0.11675,-0.12763,-0.48151,0.03652,,,,,,,,,,,,,,,,,,,,,,,,,,0,0,0,0,0
1.5288,1783957711.6953,1,1,5.0000,0.0000,1.42243,-0.00179,-2.63110,1.06211,1.57080,0.11675,-0.12763,-0.48151,0.03652,,,,,,,,,,,,,,,,,,,,,,,,,,0,0,0,0,0
1.5294,1783957711.6959,1,1,5.0000,0.0000,1.42243,-0.00179,-2.63111,1.06212,1.57080,0.11675,-0.12763,-0.48151,0.03652,,,,,,,,,,,,,,,,,,,,,,,,,,0,0,0,0,0
1.5330,1783957711.6995,1,1,5.0000,0.0000,1.42243,-0.00179,-2.63111,1.06212,1.57080,0.11675,-0.12763,-0.48151,0.03652,,,,,,,,,,,,,,,,,,,,,,,,,,0,0,0,0,0
1.5335,1783957711.7000,1,1,5.0000,0.0000,1.42243,-0.00180,-2.63111,1.06213,1.57080,0.11675,-0.12763,-0.48151,0.03652,,,,,,,,,,,,,,,,,,,,,,,,,,0,0,0,0,0
1.5363,1783957711.7028,1,1,5.0000,0.0000,1.42243,-0.00180,-2.63111,1.06213,1.57080,0.11675,-0.12763,-0.48151,0.03652,,,,,,,,,,,,,,,,,,,,,,,,,,0,0,0,0,0
1.5368,1783957711.7033,1,1,5.0000,0.0000,1.42243,-0.00180,-2.63111,1.06213,1.57080,0.11675,-0.12763,-0.48151,0.03652,,,,,,,,,,,,,,,,,,,,,,,,,,0,0,0,0,0
1.5448,1783957711.7113,1,1,5.0000,0.0000,1.42243,-0.00185,-2.63112,1.06220,1.57080,0.11675,-0.12763,-0.48151,0.03650,,,,,,,,,,,,,,,,,,,,,,,,,,0,0,0,0,0
1.5453,1783957711.7118,1,1,5.0000,0.0000,1.42243,-0.00189,-2.63113,1.06224,1.57080,0.11675,-0.12763,-0.48151,0.03649,,,,,,,,,,,,,,,,,,,,,,,,,,0,0,0,0,0
1.5564,1783957711.7229,1,1,5.0000,0.0000,1.42243,-0.00190,-2.63113,1.06225,1.57080,0.11675,-0.12763,-0.48151,0.03649,,,,,,,,,,,,,,,,,,,,,,,,,,0,0,0,0,0
1.5725,1783957711.7390,1,1,5.0000,0.0000,1.42243,-0.00204,-2.63116,1.06243,1.57080,0.11675,-0.12763,-0.48151,0.03644,,,,,,,,,,,,,,,,,,,,,,,,,,0,0,0,0,0
1.5736,1783957711.7401,1,1,5.0000,0.0000,1.42243,-0.00210,-2.63118,1.06250,1.57080,0.11675,-0.12763,-0.48151,0.03642,,,,,,,,,,,,,,,,,,,,,,,,,,0,0,0,0,0
1.5738,1783957711.7403,1,1,5.0000,0.0000,1.42243,-0.00210,-2.63118,1.06250,1.57080,0.11675,-0.12763,-0.48151,0.03642,,,,,,,,,,,,,,,,,,,,,,,,,,0,0,0,0,0
1.6219,1783957711.7884,1,1,5.0000,0.0000,1.42243,-0.00241,-2.63125,1.06287,1.57080,0.11675,-0.12763,-0.48151,0.03631,,,,,,,,,,,,,,,,,,,,,,,,,,0,0,0,0,0
1.6223,1783957711.7888,1,1,5.0000,0.0000,1.42243,-0.00241,-2.63125,1.06287,1.57080,0.11675,-0.12763,-0.48151,0.03631,,,,,,,,,,,,,,,,,,,,,,,,,,0,0,0,0,0
1.6225,1783957711.7890,1,1,5.0000,0.0000,1.42243,-0.00241,-2.63125,1.06287,1.57080,0.11675,-0.12763,-0.48151,0.03631,,,,,,,,,,,,,,,,,,,,,,,,,,0,0,0,0,0
1.6242,1783957711.7907,1,1,5.0000,0.0000,1.42243,-0.00241,-2.63125,1.06287,1.57080,0.11675,-0.12763,-0.48151,0.03631,,,,,,,,,,,,,,,,,,,,,,,,,,0,0,0,0,0
1.6367,1783957711.8032,1,1,5.0000,0.0000,1.42243,-0.00249,-2.63126,1.06297,1.57080,0.11675,-0.12763,-0.48152,0.03629,,,,,,,,,,,,,,,,,,,,,,,,,,0,0,0,0,0
1.6741,1783957711.8406,1,1,5.0000,0.0000,1.42243,-0.00281,-2.63127,1.06338,1.57080,0.11675,-0.12762,-0.48157,0.03621,,,,,,,,,,,,,,,,,,,,,,,,,,0,0,0,0,0
1.6752,1783957711.8416,1,1,5.0000,0.0000,1.42243,-0.00281,-2.63127,1.06338,1.57080,0.11675,-0.12762,-0.48157,0.03621,,,,,,,,,,,,,,,,,,,,,,,,,,0,0,0,0,0
1.6755,1783957711.8420,1,1,5.0000,0.0000,1.42243,-0.00281,-2.63127,1.06338,1.57080,0.11675,-0.12762,-0.48157,0.03621,,,,,,,,,,,,,,,,,,,,,,,,,,0,0,0,0,0
1.6825,1783957711.8490,1,1,5.0000,0.0000,1.42243,-0.00282,-2.63127,1.06339,1.57080,0.11675,-0.12762,-0.48156,0.03621,,,,,,,,,,,,,,,,,,,,,,,,,,0,0,0,0,0
1.6834,1783957711.8499,1,1,5.0000,0.0000,1.42243,-0.00282,-2.63127,1.06339,1.57080,0.11675,-0.12762,-0.48156,0.03621,,,,,,,,,,,,,,,,,,,,,,,,,,0,0,0,0,0
1.6865,1783957711.8530,1,1,5.0000,0.0000,1.42243,-0.00283,-2.63127,1.06340,1.57080,0.11675,-0.12762,-0.48156,0.03620,,,,,,,,,,,,,,,,,,,,,,,,,,0,0,0,0,0
1.6868,1783957711.8533,1,1,5.0000,0.0000,1.42243,-0.00283,-2.63127,1.06340,1.57080,0.11675,-0.12762,-0.48156,0.03620,,,,,,,,,,,,,,,,,,,,,,,,,,0,0,0,0,0
1.6877,1783957711.8542,1,1,5.0000,0.0000,1.42243,-0.00283,-2.63127,1.06340,1.57080,0.11675,-0.12762,-0.48156,0.03620,,,,,,,,,,,,,,,,,,,,,,,,,,0,0,0,0,0
1.6880,1783957711.8545,1,1,5.0000,0.0000,1.42243,-0.00283,-2.63127,1.06340,1.57080,0.11675,-0.12762,-0.48156,0.03620,,,,,,,,,,,,,,,,,,,,,,,,,,0,0,0,0,0
1.7073,1783957711.8738,1,1,5.0000,0.0000,1.42243,-0.00289,-2.63131,1.06348,1.57080,0.11675,-0.12762,-0.48155,0.03617,,,,,,,,,,,,,,,,,,,,,,,,,,0,0,0,0,0
1.7273,1783957711.8938,1,1,5.0000,0.0000,1.42243,-0.00296,-2.63134,1.06356,1.57080,0.11675,-0.12762,-0.48154,0.03614,,,,,,,,,,,,,,,,,,,,,,,,,,0,0,0,0,0
1.7283,1783957711.8948,1,1,5.0000,0.0000,1.42243,-0.00296,-2.63134,1.06356,1.57080,0.11675,-0.12762,-0.48154,0.03614,,,,,,,,,,,,,,,,,,,,,,,,,,0,0,0,0,0
1.7305,1783957711.8970,1,1,5.0000,0.0000,1.42243,-0.00296,-2.63134,1.06356,1.57080,0.11675,-0.12762,-0.48154,0.03614,,,,,,,,,,,,,,,,,,,,,,,,,,0,0,0,0,0
1.7518,1783957711.9183,1,1,5.0000,0.0000,1.42243,-0.00306,-2.63137,1.06369,1.57080,0.11675,-0.12763,-0.48153,0.03611,,,,,,,,,,,,,,,,,,,,,,,,,,0,0,0,0,0
1.7524,1783957711.9189,1,1,5.0000,0.0000,1.42243,-0.00306,-2.63137,1.06369,1.57080,0.11675,-0.12763,-0.48153,0.03611,,,,,,,,,,,,,,,,,,,,,,,,,,0,0,0,0,0
1.7638,1783957711.9303,1,1,5.0000,0.0000,1.42243,-0.00314,-2.63139,1.06378,1.57080,0.11675,-0.12763,-0.48153,0.03608,,,,,,,,,,,,,,,,,,,,,,,,,,0,0,0,0,0
1.7754,1783957711.9419,1,1,5.0000,0.0000,1.42243,-0.00318,-2.63140,1.06384,1.57080,0.11675,-0.12763,-0.48153,0.03606,,,,,,,,,,,,,,,,,,,,,,,,,,0,0,0,0,0
1.7775,1783957711.9440,1,1,5.0000,0.0000,1.42243,-0.00322,-2.63141,1.06388,1.57080,0.11675,-0.12763,-0.48153,0.03605,,,,,,,,,,,,,,,,,,,,,,,,,,0,0,0,0,0
1.7821,1783957711.9486,1,1,5.0000,0.0000,1.42243,-0.00326,-2.63142,1.06393,1.57080,0.11675,-0.12763,-0.48152,0.03603,,,,,,,,,,,,,,,,,,,,,,,,,,0,0,0,0,0
1.7824,1783957711.9489,1,1,5.0000,0.0000,1.42243,-0.00326,-2.63142,1.06393,1.57080,0.11675,-0.12763,-0.48152,0.03603,,,,,,,,,,,,,,,,,,,,,,,,,,0,0,0,0,0
1.7916,1783957711.9581,1,1,5.0000,0.0000,1.42243,-0.00336,-2.63145,1.06405,1.57080,0.11675,-0.12763,-0.48152,0.03600,,,,,,,,,,,,,,,,,,,,,,,,,,0,0,0,0,0
1.8118,1783957711.9783,1,1,5.0000,0.0000,1.42243,-0.00344,-2.63147,1.06415,1.57080,0.11675,-0.12763,-0.48152,0.03597,,,,,,,,,,,,,,,,,,,,,,,,,,0,0,0,0,0
1.8215,1783957711.9880,1,1,5.0000,0.0000,1.42242,-0.00358,-2.63150,1.06431,1.57080,0.11675,-0.12763,-0.48152,0.03592,,,,,,,,,,,,,,,,,,,,,,,,,,0,0,0,0,0
1.8219,1783957711.9883,1,1,5.0000,0.0000,1.42242,-0.00358,-2.63150,1.06431,1.57080,0.11675,-0.12763,-0.48152,0.03592,,,,,,,,,,,,,,,,,,,,,,,,,,0,0,0,0,0
1.8303,1783957711.9968,1,1,5.0000,0.0000,1.42242,-0.00368,-2.63153,1.06444,1.57080,0.11675,-0.12763,-0.48152,0.03588,,,,,,,,,,,,,,,,,,,,,,,,,,0,0,0,0,0
1.8429,1783957712.0094,1,1,5.0000,0.0000,1.42242,-0.00383,-2.63156,1.06462,1.57080,0.11675,-0.12763,-0.48151,0.03583,,,,,,,,,,,,,,,,,,,,,,,,,,0,0,0,0,0
1.8528,1783957712.0193,1,1,5.0000,0.0000,1.42242,-0.00391,-2.63158,1.06472,1.57080,0.11675,-0.12763,-0.48151,0.03580,,,,,,,,,,,,,,,,,,,,,,,,,,0,0,0,0,0
1.8633,1783957712.0298,1,1,5.0000,0.0000,1.42242,-0.00394,-2.63159,1.06475,1.57080,0.11675,-0.12763,-0.48151,0.03579,,,,,,,,,,,,,,,,,,,,,,,,,,0,0,0,0,0
1.8718,1783957712.0383,1,1,5.0000,0.0000,1.42242,-0.00394,-2.63159,1.06475,1.57080,0.11675,-0.12763,-0.48151,0.03579,,,,,,,,,,,,,,,,,,,,,,,,,,0,0,0,0,0
1.8721,1783957712.0386,1,1,5.0000,0.0000,1.42242,-0.00394,-2.63159,1.06475,1.57080,0.11675,-0.12763,-0.48151,0.03579,,,,,,,,,,,,,,,,,,,,,,,,,,0,0,0,0,0
1.8846,1783957712.0511,1,1,5.0000,0.0000,1.42242,-0.00394,-2.63159,1.06475,1.57080,0.11675,-0.12763,-0.48151,0.03579,,,,,,,,,,,,,,,,,,,,,,,,,,0,0,0,0,0
1.9057,1783957712.0722,1,1,5.0000,0.0000,1.42242,-0.00399,-2.63159,1.06482,1.57080,0.11675,-0.12763,-0.48152,0.03578,,,,,,,,,,,,,,,,,,,,,,,,,,0,0,0,0,0
1.9131,1783957712.0796,1,1,5.0000,0.0000,1.42242,-0.00399,-2.63159,1.06482,1.57080,0.11675,-0.12763,-0.48152,0.03578,,,,,,,,,,,,,,,,,,,,,,,,,,0,0,0,0,0
1.9136,1783957712.0801,1,1,5.0000,0.0000,1.42242,-0.00400,-2.63159,1.06482,1.57080,0.11675,-0.12763,-0.48152,0.03578,,,,,,,,,,,,,,,,,,,,,,,,,,0,0,0,0,0
1.9553,1783957712.1218,1,1,5.0000,0.0000,1.42242,-0.00418,-2.63164,1.06505,1.57080,0.11675,-0.12763,-0.48151,0.03571,,,,,,,,,,,,,,,,,,,,,,,,,,0,0,0,0,0
1.9556,1783957712.1221,1,1,5.0000,0.0000,1.42242,-0.00418,-2.63164,1.06505,1.57080,0.11675,-0.12763,-0.48151,0.03571,,,,,,,,,,,,,,,,,,,,,,,,,,0,0,0,0,0
1.9574,1783957712.1239,1,1,5.0000,0.0000,1.42242,-0.00420,-2.63164,1.06507,1.57080,0.11675,-0.12763,-0.48151,0.03571,,,,,,,,,,,,,,,,,,,,,,,,,,0,0,0,0,0
1.9576,1783957712.1241,1,1,5.0000,0.0000,1.42242,-0.00420,-2.63164,1.06507,1.57080,0.11675,-0.12763,-0.48151,0.03571,,,,,,,,,,,,,,,,,,,,,,,,,,0,0,0,0,0
1.9581,1783957712.1246,1,1,5.0000,0.0000,1.42242,-0.00420,-2.63164,1.06507,1.57080,0.11675,-0.12763,-0.48151,0.03571,,,,,,,,,,,,,,,,,,,,,,,,,,0,0,0,0,0
1.9655,1783957712.1320,1,1,5.0000,0.0000,1.42242,-0.00425,-2.63165,1.06514,1.57080,0.11675,-0.12763,-0.48151,0.03569,,,,,,,,,,,,,,,,,,,,,,,,,,0,0,0,0,0
1.9658,1783957712.1323,1,1,5.0000,0.0000,1.42242,-0.00425,-2.63165,1.06514,1.57080,0.11675,-0.12763,-0.48151,0.03569,,,,,,,,,,,,,,,,,,,,,,,,,,0,0,0,0,0
1.9711,1783957712.1376,1,1,5.0000,0.0000,1.42242,-0.00429,-2.63166,1.06518,1.57080,0.11675,-0.12763,-0.48151,0.03568,,,,,,,,,,,,,,,,,,,,,,,,,,0,0,0,0,0
1.9876,1783957712.1541,1,1,5.0000,0.0000,1.42242,-0.00435,-2.63168,1.06526,1.57080,0.11675,-0.12763,-0.48151,0.03565,,,,,,,,,,,,,,,,,,,,,,,,,,0,0,0,0,0
1.9879,1783957712.1544,1,1,5.0000,0.0000,1.42242,-0.00435,-2.63168,1.06526,1.57080,0.11675,-0.12763,-0.48151,0.03565,,,,,,,,,,,,,,,,,,,,,,,,,,0,0,0,0,0
1.9977,1783957712.1642,1,1,5.0000,0.0000,1.42242,-0.00446,-2.63170,1.06539,1.57080,0.11675,-0.12763,-0.48151,0.03562,,,,,,,,,,,,,,,,,,,,,,,,,,0,0,0,0,0
1.9980,1783957712.1645,1,1,5.0000,0.0000,1.42242,-0.00446,-2.63170,1.06539,1.57080,0.11675,-0.12763,-0.48151,0.03562,,,,,,,,,,,,,,,,,,,,,,,,,,0,0,0,0,0
2.0024,1783957712.1689,1,1,5.0000,0.0000,1.42242,-0.00446,-2.63170,1.06539,1.57080,0.11675,-0.12763,-0.48151,0.03562,,,,,,,,,,,,,,,,,,,,,,,,,,0,0,0,0,0
2.0118,1783957712.1783,1,1,5.0000,0.0000,1.42242,-0.00448,-2.63171,1.06542,1.57080,0.11675,-0.12763,-0.48151,0.03561,,,,,,,,,,,,,,,,,,,,,,,,,,0,0,0,0,0
2.0343,1783957712.2008,1,1,5.0000,0.0000,1.42242,-0.00470,-2.63176,1.06568,1.57080,0.11675,-0.12763,-0.48151,0.03553,,,,,,,,,,,,,,,,,,,,,,,,,,0,0,0,0,0
2.0346,1783957712.2011,1,1,5.0000,0.0000,1.42242,-0.00470,-2.63176,1.06568,1.57080,0.11675,-0.12763,-0.48151,0.03553,,,,,,,,,,,,,,,,,,,,,,,,,,0,0,0,0,0
2.0349,1783957712.2014,1,1,5.0000,0.0000,1.42242,-0.00470,-2.63176,1.06568,1.57080,0.11675,-0.12763,-0.48151,0.03553,,,,,,,,,,,,,,,,,,,,,,,,,,0,0,0,0,0
2.0407,1783957712.2072,1,1,5.0000,0.0000,1.42242,-0.00471,-2.63176,1.06568,1.57080,0.11675,-0.12763,-0.48151,0.03553,,,,,,,,,,,,,,,,,,,,,,,,,,0,0,0,0,0
2.0411,1783957712.2076,1,1,5.0000,0.0000,1.42242,-0.00471,-2.63176,1.06568,1.57080,0.11675,-0.12763,-0.48151,0.03553,,,,,,,,,,,,,,,,,,,,,,,,,,0,0,0,0,0
2.0508,1783957712.2173,1,1,5.0000,0.0000,1.42242,-0.00477,-2.63177,1.06577,1.57080,0.11675,-0.12763,-0.48151,0.03551,,,,,,,,,,,,,,,,,,,,,,,,,,0,0,0,0,0
2.0685,1783957712.2349,1,1,5.0000,0.0000,1.42242,-0.00493,-2.63180,1.06596,1.57080,0.11675,-0.12762,-0.48152,0.03546,,,,,,,,,,,,,,,,,,,,,,,,,,0,0,0,0,0
2.0710,1783957712.2375,1,1,5.0000,0.0000,1.42242,-0.00498,-2.63180,1.06602,1.57080,0.11675,-0.12762,-0.48152,0.03545,,,,,,,,,,,,,,,,,,,,,,,,,,0,0,0,0,0
2.0863,1783957712.2528,1,1,5.0000,0.0000,1.42242,-0.00514,-2.63181,1.06622,1.57080,0.11675,-0.12762,-0.48154,0.03541,,,,,,,,,,,,,,,,,,,,,,,,,,0,0,0,0,0
2.1161,1783957712.2826,1,1,5.0000,0.0000,1.42242,-0.00520,-2.63183,1.06630,1.57080,0.11675,-0.12762,-0.48154,0.03538,,,,,,,,,,,,,,,,,,,,,,,,,,0,0,0,0,0
2.1564,1783957712.3229,1,1,5.0000,0.0000,1.42242,-0.00535,-2.63189,1.06648,1.57080,0.11675,-0.12762,-0.48152,0.03532,,,,,,,,,,,,,,,,,,,,,,,,,,0,0,0,0,0
2.1570,1783957712.3235,1,1,5.0000,0.0000,1.42242,-0.00535,-2.63189,1.06648,1.57080,0.11675,-0.12762,-0.48152,0.03532,,,,,,,,,,,,,,,,,,,,,,,,,,0,0,0,0,0
2.1610,1783957712.3275,1,1,5.0000,0.0000,1.42242,-0.00535,-2.63189,1.06648,1.57080,0.11675,-0.12762,-0.48152,0.03532,,,,,,,,,,,,,,,,,,,,,,,,,,0,0,0,0,0
2.1709,1783957712.3374,1,1,5.0000,0.0000,1.42242,-0.00538,-2.63190,1.06652,1.57080,0.11675,-0.12762,-0.48152,0.03531,,,,,,,,,,,,,,,,,,,,,,,,,,0,0,0,0,0
2.1762,1783957712.3427,1,1,5.0000,0.0000,1.42242,-0.00541,-2.63190,1.06655,1.57080,0.11675,-0.12762,-0.48152,0.03530,,,,,,,,,,,,,,,,,,,,,,,,,,0,0,0,0,0
2.1777,1783957712.3442,1,1,5.0000,0.0000,1.42242,-0.00544,-2.63191,1.06659,1.57080,0.11675,-0.12762,-0.48152,0.03529,,,,,,,,,,,,,,,,,,,,,,,,,,0,0,0,0,0
2.1780,1783957712.3445,1,1,5.0000,0.0000,1.42242,-0.00544,-2.63191,1.06659,1.57080,0.11675,-0.12762,-0.48152,0.03529,,,,,,,,,,,,,,,,,,,,,,,,,,0,0,0,0,0
2.1784,1783957712.3448,1,1,5.0000,0.0000,1.42242,-0.00544,-2.63191,1.06659,1.57080,0.11675,-0.12762,-0.48152,0.03529,,,,,,,,,,,,,,,,,,,,,,,,,,0,0,0,0,0
2.1827,1783957712.3492,1,1,5.0000,0.0000,1.42242,-0.00544,-2.63191,1.06659,1.57080,0.11675,-0.12762,-0.48152,0.03529,,,,,,,,,,,,,,,,,,,,,,,,,,0,0,0,0,0
2.1830,1783957712.3495,1,1,5.0000,0.0000,1.42242,-0.00544,-2.63191,1.06659,1.57080,0.11675,-0.12762,-0.48152,0.03529,,,,,,,,,,,,,,,,,,,,,,,,,,0,0,0,0,0
2.1918,1783957712.3583,1,1,5.0000,0.0000,1.42242,-0.00546,-2.63192,1.06662,1.57080,0.11675,-0.12762,-0.48152,0.03528,,,,,,,,,,,,,,,,,,,,,,,,,,0,0,0,0,0
2.1922,1783957712.3587,1,1,5.0000,0.0000,1.42242,-0.00546,-2.63192,1.06662,1.57080,0.11675,-0.12762,-0.48152,0.03528,,,,,,,,,,,,,,,,,,,,,,,,,,0,0,0,0,0
2.2437,1783957712.4102,1,1,5.0000,0.0000,1.42242,-0.00592,-2.63203,1.06717,1.57080,0.11675,-0.12762,-0.48151,0.03512,,,,,,,,,,,,,,,,,,,,,,,,,,0,0,0,0,0
2.2496,1783957712.4161,1,1,5.0000,0.0000,1.42242,-0.00592,-2.63203,1.06718,1.57080,0.11675,-0.12762,-0.48151,0.03512,,,,,,,,,,,,,,,,,,,,,,,,,,0,0,0,0,0
2.2630,1783957712.4295,1,1,5.0000,0.0000,1.42242,-0.00598,-2.63204,1.06725,1.57080,0.11675,-0.12762,-0.48151,0.03510,,,,,,,,,,,,,,,,,,,,,,,,,,0,0,0,0,0
2.2739,1783957712.4404,1,1,5.0000,0.0000,1.42242,-0.00609,-2.63206,1.06739,1.57080,0.11675,-0.12762,-0.48152,0.03507,,,,,,,,,,,,,,,,,,,,,,,,,,0,0,0,0,0
2.2741,1783957712.4406,1,1,5.0000,0.0000,1.42242,-0.00609,-2.63206,1.06739,1.57080,0.11675,-0.12762,-0.48152,0.03507,,,,,,,,,,,,,,,,,,,,,,,,,,0,0,0,0,0
2.2745,1783957712.4410,1,1,5.0000,0.0000,1.42242,-0.00609,-2.63206,1.06739,1.57080,0.11675,-0.12762,-0.48152,0.03507,,,,,,,,,,,,,,,,,,,,,,,,,,0,0,0,0,0
2.2748,1783957712.4413,1,1,5.0000,0.0000,1.42242,-0.00609,-2.63206,1.06739,1.57080,0.11675,-0.12762,-0.48152,0.03507,,,,,,,,,,,,,,,,,,,,,,,,,,0,0,0,0,0
2.2751,1783957712.4416,1,1,5.0000,0.0000,1.42242,-0.00609,-2.63206,1.06739,1.57080,0.11675,-0.12762,-0.48152,0.03507,,,,,,,,,,,,,,,,,,,,,,,,,,0,0,0,0,0
2.2815,1783957712.4480,1,1,5.0000,0.0000,1.42242,-0.00618,-2.63207,1.06749,1.57080,0.11675,-0.12762,-0.48152,0.03504,,,,,,,,,,,,,,,,,,,,,,,,,,0,0,0,0,0
2.2923,1783957712.4588,1,1,5.0000,0.0000,1.42241,-0.00626,-2.63208,1.06759,1.57080,0.11675,-0.12762,-0.48153,0.03502,,,,,,,,,,,,,,,,,,,,,,,,,,0,0,0,0,0
2.3206,1783957712.4871,1,1,5.0000,0.0000,1.42241,-0.00636,-2.63208,1.06773,1.57080,0.11675,-0.12762,-0.48155,0.03500,,,,,,,,,,,,,,,,,,,,,,,,,,0,0,0,0,0
2.3209,1783957712.4874,1,1,5.0000,0.0000,1.42241,-0.00636,-2.63208,1.06773,1.57080,0.11675,-0.12762,-0.48155,0.03500,,,,,,,,,,,,,,,,,,,,,,,,,,0,0,0,0,0
2.3213,1783957712.4878,1,1,5.0000,0.0000,1.42241,-0.00636,-2.63208,1.06773,1.57080,0.11675,-0.12762,-0.48155,0.03500,,,,,,,,,,,,,,,,,,,,,,,,,,0,0,0,0,0
2.3217,1783957712.4882,1,1,5.0000,0.0000,1.42241,-0.00637,-2.63208,1.06774,1.57080,0.11675,-0.12762,-0.48155,0.03499,,,,,,,,,,,,,,,,,,,,,,,,,,0,0,0,0,0
2.3405,1783957712.5070,1,1,5.0000,0.0000,1.42241,-0.00642,-2.63209,1.06780,1.57080,0.11675,-0.12762,-0.48155,0.03498,,,,,,,,,,,,,,,,,,,,,,,,,,0,0,0,0,0
2.3421,1783957712.5086,1,1,5.0000,0.0000,1.42241,-0.00642,-2.63209,1.06780,1.57080,0.11675,-0.12762,-0.48155,0.03498,,,,,,,,,,,,,,,,,,,,,,,,,,0,0,0,0,0
2.3424,1783957712.5089,1,1,5.0000,0.0000,1.42241,-0.00642,-2.63209,1.06780,1.57080,0.11675,-0.12762,-0.48155,0.03498,,,,,,,,,,,,,,,,,,,,,,,,,,0,0,0,0,0
2.3431,1783957712.5096,1,1,5.0000,0.0000,1.42241,-0.00642,-2.63209,1.06780,1.57080,0.11675,-0.12762,-0.48155,0.03498,,,,,,,,,,,,,,,,,,,,,,,,,,0,0,0,0,0
2.3435,1783957712.5100,1,1,5.0000,0.0000,1.42241,-0.00642,-2.63209,1.06780,1.57080,0.11675,-0.12762,-0.48155,0.03498,,,,,,,,,,,,,,,,,,,,,,,,,,0,0,0,0,0
2.3438,1783957712.5103,1,1,5.0000,0.0000,1.42241,-0.00642,-2.63209,1.06780,1.57080,0.11675,-0.12762,-0.48155,0.03498,,,,,,,,,,,,,,,,,,,,,,,,,,0,0,0,0,0
2.3544,1783957712.5209,1,1,5.0000,0.0000,1.42241,-0.00646,-2.63211,1.06785,1.57080,0.11675,-0.12762,-0.48154,0.03496,,,,,,,,,,,,,,,,,,,,,,,,,,0,0,0,0,0
2.3658,1783957712.5323,1,1,5.0000,0.0000,1.42241,-0.00649,-2.63212,1.06788,1.57080,0.11675,-0.12762,-0.48154,0.03495,,,,,,,,,,,,,,,,,,,,,,,,,,0,0,0,0,0
2.3661,1783957712.5326,1,1,5.0000,0.0000,1.42241,-0.00649,-2.63212,1.06788,1.57080,0.11675,-0.12762,-0.48154,0.03495,,,,,,,,,,,,,,,,,,,,,,,,,,0,0,0,0,0
2.3752,1783957712.5417,1,1,5.0000,0.0000,1.42241,-0.00652,-2.63213,1.06792,1.57080,0.11675,-0.12762,-0.48154,0.03493,,,,,,,,,,,,,,,,,,,,,,,,,,0,0,0,0,0
2.4018,1783957712.5683,1,1,5.0000,0.0000,1.42241,-0.00668,-2.63218,1.06811,1.57080,0.11675,-0.12762,-0.48153,0.03488,,,,,,,,,,,,,,,,,,,,,,,,,,0,0,0,0,0
2.4021,1783957712.5686,1,1,5.0000,0.0000,1.42241,-0.00668,-2.63218,1.06811,1.57080,0.11675,-0.12762,-0.48153,0.03488,,,,,,,,,,,,,,,,,,,,,,,,,,0,0,0,0,0
2.4317,1783957712.5982,1,1,5.0000,0.0000,1.42241,-0.00688,-2.63223,1.06836,1.57080,0.11675,-0.12762,-0.48152,0.03480,,,,,,,,,,,,,,,,,,,,,,,,,,0,0,0,0,0
2.4562,1783957712.6227,1,1,5.0000,0.0000,1.42241,-0.00701,-2.63226,1.06851,1.57080,0.11675,-0.12762,-0.48152,0.03476,,,,,,,,,,,,,,,,,,,,,,,,,,0,0,0,0,0
2.4637,1783957712.6302,1,1,5.0000,0.0000,1.42241,-0.00705,-2.63227,1.06856,1.57080,0.11675,-0.12762,-0.48152,0.03474,,,,,,,,,,,,,,,,,,,,,,,,,,0,0,0,0,0
2.4678,1783957712.6343,1,1,5.0000,0.0000,1.42241,-0.00709,-2.63228,1.06861,1.57080,0.11675,-0.12762,-0.48152,0.03473,,,,,,,,,,,,,,,,,,,,,,,,,,0,0,0,0,0
2.4681,1783957712.6346,1,1,5.0000,0.0000,1.42241,-0.00709,-2.63228,1.06861,1.57080,0.11675,-0.12762,-0.48152,0.03473,,,,,,,,,,,,,,,,,,,,,,,,,,0,0,0,0,0
2.4709,1783957712.6374,1,1,5.0000,0.0000,1.42241,-0.00713,-2.63229,1.06866,1.57080,0.11675,-0.12762,-0.48152,0.03472,,,,,,,,,,,,,,,,,,,,,,,,,,0,0,0,0,0
2.4713,1783957712.6378,1,1,5.0000,0.0000,1.42241,-0.00713,-2.63229,1.06866,1.57080,0.11675,-0.12762,-0.48152,0.03472,,,,,,,,,,,,,,,,,,,,,,,,,,0,0,0,0,0
2.4968,1783957712.6633,1,1,5.0000,0.0000,1.42241,-0.00742,-2.63234,1.06902,1.57080,0.11675,-0.12762,-0.48153,0.03463,,,,,,,,,,,,,,,,,,,,,,,,,,0,0,0,0,0
2.5194,1783957712.6859,1,1,5.0000,0.0000,1.42241,-0.00755,-2.63235,1.06918,1.57080,0.11675,-0.12762,-0.48155,0.03459,,,,,,,,,,,,,,,,,,,,,,,,,,0,0,0,0,0
2.6492,1783957712.8157,1,1,5.0000,0.0000,1.42241,-0.00806,-2.63249,1.06979,1.57080,0.11675,-0.12762,-0.48152,0.03441,,,,,,,,,,,,,,,,,,,,,,,,,,0,0,0,0,0
2.6505,1783957712.8170,1,1,5.0000,0.0000,1.42241,-0.00811,-2.63250,1.06985,1.57080,0.11675,-0.12762,-0.48152,0.03439,,,,,,,,,,,,,,,,,,,,,,,,,,0,0,0,0,0
2.6509,1783957712.8174,1,1,5.0000,0.0000,1.42241,-0.00811,-2.63250,1.06985,1.57080,0.11675,-0.12762,-0.48152,0.03439,,,,,,,,,,,,,,,,,,,,,,,,,,0,0,0,0,0
2.6561,1783957712.8226,1,1,5.0000,0.0000,1.42241,-0.00816,-2.63251,1.06992,1.57080,0.11675,-0.12762,-0.48152,0.03437,,,,,,,,,,,,,,,,,,,,,,,,,,0,0,0,0,0
2.6566,1783957712.8231,1,1,5.0000,0.0000,1.42241,-0.00816,-2.63251,1.06992,1.57080,0.11675,-0.12762,-0.48152,0.03437,,,,,,,,,,,,,,,,,,,,,,,,,,0,0,0,0,0
2.6650,1783957712.8315,1,1,5.0000,0.0000,1.42241,-0.00828,-2.63254,1.07006,1.57080,0.11675,-0.12762,-0.48152,0.03433,,,,,,,,,,,,,,,,,,,,,,,,,,0,0,0,0,0
2.7147,1783957712.8812,1,1,5.0000,0.0000,1.42241,-0.00865,-2.63261,1.07051,1.57080,0.11675,-0.12762,-0.48152,0.03421,,,,,,,,,,,,,,,,,,,,,,,,,,0,0,0,0,0
2.7151,1783957712.8816,1,1,5.0000,0.0000,1.42241,-0.00865,-2.63261,1.07051,1.57080,0.11675,-0.12762,-0.48152,0.03421,,,,,,,,,,,,,,,,,,,,,,,,,,0,0,0,0,0
2.7904,1783957712.9569,1,1,5.0000,0.0000,1.42241,-0.00886,-2.63266,1.07078,1.57080,0.11675,-0.12762,-0.48153,0.03414,,,,,,,,,,,,,,,,,,,,,,,,,,0,0,0,0,0
2.7930,1783957712.9595,1,1,5.0000,0.0000,1.42241,-0.00886,-2.63266,1.07078,1.57080,0.11675,-0.12762,-0.48153,0.03414,,,,,,,,,,,,,,,,,,,,,,,,,,0,0,0,0,0
2.8051,1783957712.9716,1,1,5.0000,0.0000,1.42241,-0.00892,-2.63267,1.07084,1.57080,0.11675,-0.12762,-0.48153,0.03412,,,,,,,,,,,,,,,,,,,,,,,,,,0,0,0,0,0
2.8124,1783957712.9789,1,1,5.0000,0.0000,1.42241,-0.00895,-2.63268,1.07088,1.57080,0.11675,-0.12762,-0.48153,0.03411,,,,,,,,,,,,,,,,,,,,,,,,,,0,0,0,0,0
2.8137,1783957712.9802,1,1,5.0000,0.0000,1.42241,-0.00896,-2.63268,1.07089,1.57080,0.11675,-0.12762,-0.48153,0.03411,,,,,,,,,,,,,,,,,,,,,,,,,,0,0,0,0,0
2.8153,1783957712.9818,1,1,5.0000,0.0000,1.42241,-0.00896,-2.63268,1.07089,1.57080,0.11675,-0.12762,-0.48153,0.03411,,,,,,,,,,,,,,,,,,,,,,,,,,0,0,0,0,0
2.8158,1783957712.9823,1,1,5.0000,0.0000,1.42241,-0.00896,-2.63268,1.07089,1.57080,0.11675,-0.12762,-0.48153,0.03411,,,,,,,,,,,,,,,,,,,,,,,,,,0,0,0,0,0
3.0754,1783957713.2419,1,1,5.0000,0.0000,1.42240,-0.01051,-2.63303,1.07276,1.57080,0.11675,-0.12761,-0.48151,0.03357,,,,,,,,,,,,,,,,,,,,,,,,,,0,0,0,0,0
3.1331,1783957713.2996,1,1,5.0000,0.0000,1.42240,-0.01083,-2.63310,1.07315,1.57080,0.11675,-0.12761,-0.48151,0.03347,,,,,,,,,,,,,,,,,,,,,,,,,,0,0,0,0,0
3.1493,1783957713.3158,1,1,5.0000,0.0000,1.42240,-0.01092,-2.63310,1.07327,1.57080,0.11675,-0.12761,-0.48153,0.03344,,,,,,,,,,,,,,,,,,,,,,,,,,0,0,0,0,0
3.1512,1783957713.3177,1,1,5.0000,0.0000,1.42240,-0.01093,-2.63310,1.07327,1.57080,0.11675,-0.12761,-0.48153,0.03344,,,,,,,,,,,,,,,,,,,,,,,,,,0,0,0,0,0
3.1519,1783957713.3184,1,1,5.0000,0.0000,1.42240,-0.01093,-2.63310,1.07327,1.57080,0.11675,-0.12761,-0.48153,0.03344,,,,,,,,,,,,,,,,,,,,,,,,,,0,0,0,0,0
3.1548,1783957713.3213,1,1,5.0000,0.0000,1.42240,-0.01094,-2.63310,1.07328,1.57080,0.11675,-0.12761,-0.48153,0.03344,,,,,,,,,,,,,,,,,,,,,,,,,,0,0,0,0,0
3.1551,1783957713.3216,1,1,5.0000,0.0000,1.42240,-0.01094,-2.63310,1.07328,1.57080,0.11675,-0.12761,-0.48153,0.03344,,,,,,,,,,,,,,,,,,,,,,,,,,0,0,0,0,0
3.1559,1783957713.3224,1,1,5.0000,0.0000,1.42240,-0.01094,-2.63310,1.07328,1.57080,0.11675,-0.12761,-0.48153,0.03344,,,,,,,,,,,,,,,,,,,,,,,,,,0,0,0,0,0
3.1625,1783957713.3290,1,1,5.0000,0.0000,1.42240,-0.01097,-2.63311,1.07333,1.57080,0.11675,-0.12761,-0.48153,0.03343,,,,,,,,,,,,,,,,,,,,,,,,,,0,0,0,0,0
3.1628,1783957713.3293,1,1,5.0000,0.0000,1.42240,-0.01097,-2.63311,1.07333,1.57080,0.11675,-0.12761,-0.48153,0.03343,,,,,,,,,,,,,,,,,,,,,,,,,,0,0,0,0,0
3.1647,1783957713.3312,1,1,5.0000,0.0000,1.42240,-0.01097,-2.63311,1.07333,1.57080,0.11675,-0.12761,-0.48153,0.03343,,,,,,,,,,,,,,,,,,,,,,,,,,0,0,0,0,0
3.1651,1783957713.3316,1,1,5.0000,0.0000,1.42240,-0.01097,-2.63311,1.07333,1.57080,0.11675,-0.12761,-0.48153,0.03343,,,,,,,,,,,,,,,,,,,,,,,,,,0,0,0,0,0
3.1657,1783957713.3322,1,1,5.0000,0.0000,1.42240,-0.01100,-2.63311,1.07336,1.57080,0.11675,-0.12761,-0.48153,0.03342,,,,,,,,,,,,,,,,,,,,,,,,,,0,0,0,0,0
3.1662,1783957713.3327,1,1,5.0000,0.0000,1.42240,-0.01100,-2.63311,1.07336,1.57080,0.11675,-0.12761,-0.48153,0.03342,,,,,,,,,,,,,,,,,,,,,,,,,,0,0,0,0,0
3.1666,1783957713.3331,1,1,5.0000,0.0000,1.42240,-0.01100,-2.63311,1.07336,1.57080,0.11675,-0.12761,-0.48153,0.03342,,,,,,,,,,,,,,,,,,,,,,,,,,0,0,0,0,0
3.1672,1783957713.3337,1,1,5.0000,0.0000,1.42240,-0.01100,-2.63311,1.07336,1.57080,0.11675,-0.12761,-0.48153,0.03342,,,,,,,,,,,,,,,,,,,,,,,,,,0,0,0,0,0
3.1675,1783957713.3340,1,1,5.0000,0.0000,1.42240,-0.01100,-2.63311,1.07336,1.57080,0.11675,-0.12761,-0.48153,0.03342,,,,,,,,,,,,,,,,,,,,,,,,,,0,0,0,0,0
3.1806,1783957713.3471,1,1,5.0000,0.0000,1.42240,-0.01102,-2.63311,1.07338,1.57080,0.11675,-0.12761,-0.48153,0.03342,,,,,,,,,,,,,,,,,,,,,,,,,,0,0,0,0,0
3.1810,1783957713.3475,1,1,5.0000,0.0000,1.42240,-0.01102,-2.63311,1.07338,1.57080,0.11675,-0.12761,-0.48153,0.03342,,,,,,,,,,,,,,,,,,,,,,,,,,0,0,0,0,0
3.1990,1783957713.3655,1,1,5.0000,0.0000,1.42240,-0.01117,-2.63317,1.07357,1.57081,0.11675,-0.12761,-0.48152,0.03336,,,,,,,,,,,,,,,,,,,,,,,,,,0,0,0,0,0
3.1998,1783957713.3663,1,1,5.0000,0.0000,1.42240,-0.01117,-2.63317,1.07357,1.57081,0.11675,-0.12761,-0.48152,0.03336,,,,,,,,,,,,,,,,,,,,,,,,,,0,0,0,0,0
3.2002,1783957713.3667,1,1,5.0000,0.0000,1.42240,-0.01117,-2.63317,1.07357,1.57081,0.11675,-0.12761,-0.48152,0.03336,,,,,,,,,,,,,,,,,,,,,,,,,,0,0,0,0,0
3.2098,1783957713.3763,1,1,5.0000,0.0000,1.42240,-0.01119,-2.63317,1.07359,1.57081,0.11675,-0.12761,-0.48152,0.03335,,,,,,,,,,,,,,,,,,,,,,,,,,0,0,0,0,0
3.2100,1783957713.3765,1,1,5.0000,0.0000,1.42240,-0.01119,-2.63317,1.07359,1.57081,0.11675,-0.12761,-0.48152,0.03335,,,,,,,,,,,,,,,,,,,,,,,,,,0,0,0,0,0
3.2113,1783957713.3778,1,1,5.0000,0.0000,1.42240,-0.01119,-2.63317,1.07359,1.57081,0.11675,-0.12761,-0.48152,0.03335,,,,,,,,,,,,,,,,,,,,,,,,,,0,0,0,0,0
3.2118,1783957713.3783,1,1,5.0000,0.0000,1.42240,-0.01119,-2.63317,1.07359,1.57081,0.11675,-0.12761,-0.48152,0.03335,,,,,,,,,,,,,,,,,,,,,,,,,,0,0,0,0,0
3.2138,1783957713.3803,1,1,5.0000,0.0000,1.42240,-0.01121,-2.63318,1.07361,1.57081,0.11675,-0.12761,-0.48152,0.03334,,,,,,,,,,,,,,,,,,,,,,,,,,0,0,0,0,0
3.2141,1783957713.3806,1,1,5.0000,0.0000,1.42240,-0.01121,-2.63318,1.07361,1.57081,0.11675,-0.12761,-0.48152,0.03334,,,,,,,,,,,,,,,,,,,,,,,,,,0,0,0,0,0
3.2144,1783957713.3809,1,1,5.0000,0.0000,1.42240,-0.01121,-2.63318,1.07361,1.57081,0.11675,-0.12761,-0.48152,0.03334,,,,,,,,,,,,,,,,,,,,,,,,,,0,0,0,0,0
3.2150,1783957713.3815,1,1,5.0000,0.0000,1.42240,-0.01121,-2.63318,1.07361,1.57081,0.11675,-0.12761,-0.48152,0.03334,,,,,,,,,,,,,,,,,,,,,,,,,,0,0,0,0,0
3.2154,1783957713.3819,1,1,5.0000,0.0000,1.42240,-0.01121,-2.63318,1.07361,1.57081,0.11675,-0.12761,-0.48152,0.03334,,,,,,,,,,,,,,,,,,,,,,,,,,0,0,0,0,0
3.2156,1783957713.3821,1,1,5.0000,0.0000,1.42240,-0.01121,-2.63318,1.07361,1.57081,0.11675,-0.12761,-0.48152,0.03334,,,,,,,,,,,,,,,,,,,,,,,,,,0,0,0,0,0
3.2159,1783957713.3823,1,1,5.0000,0.0000,1.42240,-0.01121,-2.63318,1.07361,1.57081,0.11675,-0.12761,-0.48152,0.03334,,,,,,,,,,,,,,,,,,,,,,,,,,0,0,0,0,0
3.2177,1783957713.3842,1,1,5.0000,0.0000,1.42240,-0.01123,-2.63319,1.07365,1.57081,0.11675,-0.12761,-0.48151,0.03333,,,,,,,,,,,,,,,,,,,,,,,,,,0,0,0,0,0
3.2178,1783957713.3843,1,1,5.0000,0.0000,1.42240,-0.01123,-2.63319,1.07365,1.57081,0.11675,-0.12761,-0.48151,0.03333,,,,,,,,,,,,,,,,,,,,,,,,,,0,0,0,0,0
3.2204,1783957713.3869,1,1,5.0000,0.0000,1.42240,-0.01123,-2.63319,1.07365,1.57081,0.11675,-0.12761,-0.48151,0.03333,,,,,,,,,,,,,,,,,,,,,,,,,,0,0,0,0,0
3.2208,1783957713.3873,1,1,5.0000,0.0000,1.42240,-0.01123,-2.63319,1.07365,1.57081,0.11675,-0.12761,-0.48151,0.03333,,,,,,,,,,,,,,,,,,,,,,,,,,0,0,0,0,0
3.2212,1783957713.3877,1,1,5.0000,0.0000,1.42240,-0.01123,-2.63319,1.07365,1.57081,0.11675,-0.12761,-0.48151,0.03333,,,,,,,,,,,,,,,,,,,,,,,,,,0,0,0,0,0
3.2261,1783957713.3926,1,1,5.0000,0.0000,1.42240,-0.01130,-2.63321,1.07374,1.57081,0.11675,-0.12761,-0.48151,0.03331,,,,,,,,,,,,,,,,,,,,,,,,,,0,0,0,0,0
3.2264,1783957713.3929,1,1,5.0000,0.0000,1.42240,-0.01130,-2.63321,1.07374,1.57081,0.11675,-0.12761,-0.48151,0.03331,,,,,,,,,,,,,,,,,,,,,,,,,,0,0,0,0,0
3.2312,1783957713.3977,1,1,5.0000,0.0000,1.42240,-0.01135,-2.63322,1.07379,1.57081,0.11675,-0.12761,-0.48151,0.03329,,,,,,,,,,,,,,,,,,,,,,,,,,0,0,0,0,0
3.2355,1783957713.4020,1,1,5.0000,0.0000,1.42240,-0.01139,-2.63323,1.07384,1.57081,0.11675,-0.12761,-0.48151,0.03328,,,,,,,,,,,,,,,,,,,,,,,,,,0,0,0,0,0
3.2358,1783957713.4023,1,1,5.0000,0.0000,1.42240,-0.01139,-2.63323,1.07384,1.57081,0.11675,-0.12761,-0.48151,0.03328,,,,,,,,,,,,,,,,,,,,,,,,,,0,0,0,0,0
3.2362,1783957713.4027,1,1,5.0000,0.0000,1.42240,-0.01139,-2.63323,1.07384,1.57081,0.11675,-0.12761,-0.48151,0.03328,,,,,,,,,,,,,,,,,,,,,,,,,,0,0,0,0,0
3.2400,1783957713.4065,1,1,5.0000,0.0000,1.42240,-0.01139,-2.63323,1.07384,1.57081,0.11675,-0.12761,-0.48151,0.03328,,,,,,,,,,,,,,,,,,,,,,,,,,0,0,0,0,0
3.2404,1783957713.4069,1,1,5.0000,0.0000,1.42240,-0.01139,-2.63323,1.07384,1.57081,0.11675,-0.12761,-0.48151,0.03328,,,,,,,,,,,,,,,,,,,,,,,,,,0,0,0,0,0
3.2419,1783957713.4084,1,1,5.0000,0.0000,1.42240,-0.01140,-2.63323,1.07385,1.57081,0.11675,-0.12761,-0.48151,0.03327,,,,,,,,,,,,,,,,,,,,,,,,,,0,0,0,0,0
3.2421,1783957713.4086,1,1,5.0000,0.0000,1.42240,-0.01140,-2.63323,1.07385,1.57081,0.11675,-0.12761,-0.48151,0.03327,,,,,,,,,,,,,,,,,,,,,,,,,,0,0,0,0,0
3.2444,1783957713.4109,1,1,5.0000,0.0000,1.42240,-0.01140,-2.63323,1.07385,1.57081,0.11675,-0.12761,-0.48151,0.03327,,,,,,,,,,,,,,,,,,,,,,,,,,0,0,0,0,0
3.2447,1783957713.4112,1,1,5.0000,0.0000,1.42240,-0.01140,-2.63323,1.07385,1.57081,0.11675,-0.12761,-0.48151,0.03327,,,,,,,,,,,,,,,,,,,,,,,,,,0,0,0,0,0
3.2450,1783957713.4115,1,1,5.0000,0.0000,1.42240,-0.01140,-2.63323,1.07385,1.57081,0.11675,-0.12761,-0.48151,0.03327,,,,,,,,,,,,,,,,,,,,,,,,,,0,0,0,0,0
3.2455,1783957713.4120,1,1,5.0000,0.0000,1.42240,-0.01140,-2.63323,1.07385,1.57081,0.11675,-0.12761,-0.48151,0.03327,,,,,,,,,,,,,,,,,,,,,,,,,,0,0,0,0,0
3.2638,1783957713.4303,1,1,5.0000,0.0000,1.42240,-0.01155,-2.63326,1.07404,1.57081,0.11675,-0.12761,-0.48151,0.03322,,,,,,,,,,,,,,,,,,,,,,,,,,0,0,0,0,0
3.2741,1783957713.4406,1,1,5.0000,0.0000,1.42240,-0.01171,-2.63330,1.07423,1.57081,0.11675,-0.12761,-0.48151,0.03317,,,,,,,,,,,,,,,,,,,,,,,,,,0,0,0,0,0
3.2745,1783957713.4410,1,1,5.0000,0.0000,1.42240,-0.01171,-2.63330,1.07423,1.57081,0.11675,-0.12761,-0.48151,0.03317,,,,,,,,,,,,,,,,,,,,,,,,,,0,0,0,0,0
3.2772,1783957713.4437,1,1,5.0000,0.0000,1.42240,-0.01171,-2.63330,1.07423,1.57081,0.11675,-0.12761,-0.48151,0.03317,,,,,,,,,,,,,,,,,,,,,,,,,,0,0,0,0,0
3.2813,1783957713.4478,1,1,5.0000,0.0000,1.42240,-0.01177,-2.63331,1.07429,1.57081,0.11675,-0.12761,-0.48151,0.03315,,,,,,,,,,,,,,,,,,,,,,,,,,0,0,0,0,0
3.2819,1783957713.4484,1,1,5.0000,0.0000,1.42240,-0.01182,-2.63332,1.07436,1.57081,0.11675,-0.12761,-0.48151,0.03313,,,,,,,,,,,,,,,,,,,,,,,,,,0,0,0,0,0
3.2872,1783957713.4537,1,1,5.0000,0.0000,1.42239,-0.01188,-2.63333,1.07443,1.57081,0.11675,-0.12761,-0.48151,0.03311,,,,,,,,,,,,,,,,,,,,,,,,,,0,0,0,0,0
3.3035,1783957713.4700,1,1,5.0000,0.0000,1.42239,-0.01195,-2.63334,1.07451,1.57081,0.11675,-0.12761,-0.48151,0.03309,,,,,,,,,,,,,,,,,,,,,,,,,,0,0,0,0,0
3.3233,1783957713.4898,1,1,5.0000,0.0000,1.42239,-0.01205,-2.63337,1.07464,1.57081,0.11675,-0.12761,-0.48151,0.03305,,,,,,,,,,,,,,,,,,,,,,,,,,0,0,0,0,0
3.3526,1783957713.5191,1,1,5.0000,0.0000,1.42239,-0.01212,-2.63337,1.07472,1.57081,0.11675,-0.12761,-0.48152,0.03304,,,,,,,,,,,,,,,,,,,,,,,,,,0,0,0,0,0
3.3551,1783957713.5216,1,1,5.0000,0.0000,1.42239,-0.01212,-2.63337,1.07472,1.57081,0.11675,-0.12761,-0.48152,0.03304,,,,,,,,,,,,,,,,,,,,,,,,,,0,0,0,0,0
3.3553,1783957713.5218,1,1,5.0000,0.0000,1.42239,-0.01212,-2.63337,1.07472,1.57081,0.11675,-0.12761,-0.48152,0.03304,,,,,,,,,,,,,,,,,,,,,,,,,,0,0,0,0,0
3.3567,1783957713.5232,1,1,5.0000,0.0000,1.42239,-0.01212,-2.63337,1.07472,1.57081,0.11675,-0.12761,-0.48152,0.03304,,,,,,,,,,,,,,,,,,,,,,,,,,0,0,0,0,0
3.3569,1783957713.5234,1,1,5.0000,0.0000,1.42239,-0.01212,-2.63337,1.07472,1.57081,0.11675,-0.12761,-0.48152,0.03304,,,,,,,,,,,,,,,,,,,,,,,,,,0,0,0,0,0
3.3573,1783957713.5238,1,1,5.0000,0.0000,1.42239,-0.01212,-2.63337,1.07472,1.57081,0.11675,-0.12761,-0.48152,0.03304,,,,,,,,,,,,,,,,,,,,,,,,,,0,0,0,0,0
3.3579,1783957713.5244,1,1,5.0000,0.0000,1.42239,-0.01213,-2.63337,1.07473,1.57081,0.11675,-0.12761,-0.48152,0.03304,,,,,,,,,,,,,,,,,,,,,,,,,,0,0,0,0,0
3.3583,1783957713.5248,1,1,5.0000,0.0000,1.42239,-0.01213,-2.63337,1.07473,1.57081,0.11675,-0.12761,-0.48152,0.03304,,,,,,,,,,,,,,,,,,,,,,,,,,0,0,0,0,0
3.3657,1783957713.5322,1,1,5.0000,0.0000,1.42239,-0.01216,-2.63337,1.07478,1.57081,0.11675,-0.12761,-0.48153,0.03303,,,,,,,,,,,,,,,,,,,,,,,,,,0,0,0,0,0
3.3731,1783957713.5396,1,1,5.0000,0.0000,1.42239,-0.01218,-2.63337,1.07480,1.57081,0.11675,-0.12761,-0.48153,0.03302,,,,,,,,,,,,,,,,,,,,,,,,,,0,0,0,0,0
3.3734,1783957713.5399,1,1,5.0000,0.0000,1.42239,-0.01218,-2.63337,1.07480,1.57081,0.11675,-0.12761,-0.48153,0.03302,,,,,,,,,,,,,,,,,,,,,,,,,,0,0,0,0,0
3.3743,1783957713.5408,1,1,5.0000,0.0000,1.42239,-0.01221,-2.63337,1.07484,1.57081,0.11675,-0.12761,-0.48154,0.03302,,,,,,,,,,,,,,,,,,,,,,,,,,0,0,0,0,0
3.3750,1783957713.5415,1,1,5.0000,0.0000,1.42239,-0.01221,-2.63337,1.07484,1.57081,0.11675,-0.12761,-0.48154,0.03302,,,,,,,,,,,,,,,,,,,,,,,,,,0,0,0,0,0
3.3803,1783957713.5468,1,1,5.0000,0.0000,1.42239,-0.01223,-2.63337,1.07487,1.57081,0.11675,-0.12761,-0.48154,0.03301,,,,,,,,,,,,,,,,,,,,,,,,,,0,0,0,0,0
3.3893,1783957713.5558,1,1,5.0000,0.0000,1.42239,-0.01224,-2.63337,1.07488,1.57081,0.11675,-0.12761,-0.48154,0.03301,,,,,,,,,,,,,,,,,,,,,,,,,,0,0,0,0,0
3.3993,1783957713.5658,1,1,5.0000,0.0000,1.42239,-0.01228,-2.63339,1.07493,1.57081,0.11675,-0.12761,-0.48153,0.03299,,,,,,,,,,,,,,,,,,,,,,,,,,0,0,0,0,0
3.4362,1783957713.6027,1,1,5.0000,0.0000,1.42239,-0.01246,-2.63345,1.07515,1.57081,0.11675,-0.12761,-0.48152,0.03292,,,,,,,,,,,,,,,,,,,,,,,,,,0,0,0,0,0
3.4604,1783957713.6269,1,1,5.0000,0.0000,1.42239,-0.01257,-2.63347,1.07528,1.57081,0.11675,-0.12761,-0.48152,0.03289,,,,,,,,,,,,,,,,,,,,,,,,,,0,0,0,0,0
3.4718,1783957713.6383,1,1,5.0000,0.0000,1.42239,-0.01271,-2.63351,1.07545,1.57081,0.11675,-0.12761,-0.48152,0.03284,,,,,,,,,,,,,,,,,,,,,,,,,,0,0,0,0,0
3.4721,1783957713.6386,1,1,5.0000,0.0000,1.42239,-0.01271,-2.63351,1.07545,1.57081,0.11675,-0.12761,-0.48152,0.03284,,,,,,,,,,,,,,,,,,,,,,,,,,0,0,0,0,0
3.4732,1783957713.6397,1,1,5.0000,0.0000,1.42239,-0.01271,-2.63351,1.07545,1.57081,0.11675,-0.12761,-0.48152,0.03284,,,,,,,,,,,,,,,,,,,,,,,,,,0,0,0,0,0
3.4739,1783957713.6404,1,1,5.0000,0.0000,1.42239,-0.01271,-2.63351,1.07545,1.57081,0.11675,-0.12761,-0.48152,0.03284,,,,,,,,,,,,,,,,,,,,,,,,,,0,0,0,0,0
3.4758,1783957713.6423,1,1,5.0000,0.0000,1.42239,-0.01271,-2.63351,1.07545,1.57081,0.11675,-0.12761,-0.48152,0.03284,,,,,,,,,,,,,,,,,,,,,,,,,,0,0,0,0,0
3.4762,1783957713.6427,1,1,5.0000,0.0000,1.42239,-0.01271,-2.63351,1.07545,1.57081,0.11675,-0.12761,-0.48152,0.03284,,,,,,,,,,,,,,,,,,,,,,,,,,0,0,0,0,0
3.4799,1783957713.6464,1,1,5.0000,0.0000,1.42239,-0.01271,-2.63351,1.07546,1.57081,0.11675,-0.12761,-0.48152,0.03284,,,,,,,,,,,,,,,,,,,,,,,,,,0,0,0,0,0
3.5260,1783957713.6925,1,1,5.0000,0.0000,1.42239,-0.01306,-2.63358,1.07588,1.57081,0.11675,-0.12761,-0.48152,0.03272,,,,,,,,,,,,,,,,,,,,,,,,,,0,0,0,0,0
3.5341,1783957713.7006,1,1,5.0000,0.0000,1.42239,-0.01306,-2.63358,1.07588,1.57081,0.11675,-0.12761,-0.48152,0.03272,,,,,,,,,,,,,,,,,,,,,,,,,,0,0,0,0,0
3.5345,1783957713.7010,1,1,5.0000,0.0000,1.42239,-0.01306,-2.63358,1.07588,1.57081,0.11675,-0.12761,-0.48152,0.03272,,,,,,,,,,,,,,,,,,,,,,,,,,0,0,0,0,0
3.5366,1783957713.7031,1,1,5.0000,0.0000,1.42239,-0.01306,-2.63358,1.07588,1.57081,0.11675,-0.12761,-0.48152,0.03272,,,,,,,,,,,,,,,,,,,,,,,,,,0,0,0,0,0
3.5369,1783957713.7034,1,1,5.0000,0.0000,1.42239,-0.01306,-2.63358,1.07588,1.57081,0.11675,-0.12761,-0.48152,0.03272,,,,,,,,,,,,,,,,,,,,,,,,,,0,0,0,0,0
3.5500,1783957713.7165,1,1,5.0000,0.0000,1.42239,-0.01317,-2.63359,1.07602,1.57081,0.11675,-0.12761,-0.48153,0.03269,,,,,,,,,,,,,,,,,,,,,,,,,,0,0,0,0,0
3.5726,1783957713.7391,1,1,5.0000,0.0000,1.42239,-0.01327,-2.63360,1.07614,1.57081,0.11675,-0.12760,-0.48154,0.03266,,,,,,,,,,,,,,,,,,,,,,,,,,0,0,0,0,0
3.5771,1783957713.7436,1,1,5.0000,0.0000,1.42239,-0.01329,-2.63360,1.07616,1.57081,0.11675,-0.12760,-0.48154,0.03266,,,,,,,,,,,,,,,,,,,,,,,,,,0,0,0,0,0
3.5861,1783957713.7526,1,1,5.0000,0.0000,1.42239,-0.01336,-2.63361,1.07626,1.57081,0.11675,-0.12760,-0.48155,0.03264,,,,,,,,,,,,,,,,,,,,,,,,,,0,0,0,0,0
3.5940,1783957713.7605,1,1,5.0000,0.0000,1.42239,-0.01343,-2.63362,1.07634,1.57081,0.11675,-0.12760,-0.48155,0.03262,,,,,,,,,,,,,,,,,,,,,,,,,,0,0,0,0,0
3.5961,1783957713.7626,1,1,5.0000,0.0000,1.42239,-0.01343,-2.63362,1.07634,1.57081,0.11675,-0.12760,-0.48155,0.03262,,,,,,,,,,,,,,,,,,,,,,,,,,0,0,0,0,0
3.6010,1783957713.7675,1,1,5.0000,0.0000,1.42239,-0.01343,-2.63362,1.07634,1.57081,0.11675,-0.12760,-0.48155,0.03262,,,,,,,,,,,,,,,,,,,,,,,,,,0,0,0,0,0
3.6015,1783957713.7680,1,1,5.0000,0.0000,1.42239,-0.01343,-2.63362,1.07634,1.57081,0.11675,-0.12760,-0.48155,0.03262,,,,,,,,,,,,,,,,,,,,,,,,,,0,0,0,0,0
3.6041,1783957713.7706,1,1,5.0000,0.0000,1.42239,-0.01343,-2.63362,1.07634,1.57081,0.11675,-0.12760,-0.48155,0.03261,,,,,,,,,,,,,,,,,,,,,,,,,,0,0,0,0,0
3.6045,1783957713.7710,1,1,5.0000,0.0000,1.42239,-0.01343,-2.63362,1.07634,1.57081,0.11675,-0.12760,-0.48155,0.03261,,,,,,,,,,,,,,,,,,,,,,,,,,0,0,0,0,0
3.6180,1783957713.7845,1,1,5.0000,0.0000,1.42239,-0.01351,-2.63364,1.07643,1.57081,0.11675,-0.12760,-0.48154,0.03259,,,,,,,,,,,,,,,,,,,,,,,,,,0,0,0,0,0
3.6227,1783957713.7892,1,1,5.0000,0.0000,1.42239,-0.01351,-2.63364,1.07643,1.57081,0.11675,-0.12760,-0.48154,0.03259,,,,,,,,,,,,,,,,,,,,,,,,,,0,0,0,0,0
3.8561,1783957714.0226,1,1,5.0000,0.0000,1.42238,-0.01482,-2.63395,1.07803,1.57081,0.11674,-0.12760,-0.48152,0.03213,,,,,,,,,,,,,,,,,,,,,,,,,,0,0,0,0,0
3.8570,1783957714.0234,1,1,5.0000,0.0000,1.42238,-0.01482,-2.63395,1.07803,1.57081,0.11674,-0.12760,-0.48152,0.03213,,,,,,,,,,,,,,,,,,,,,,,,,,0,0,0,0,0
3.8573,1783957714.0238,1,1,5.0000,0.0000,1.42238,-0.01482,-2.63395,1.07803,1.57081,0.11674,-0.12760,-0.48152,0.03213,,,,,,,,,,,,,,,,,,,,,,,,,,0,0,0,0,0
3.8861,1783957714.0526,1,1,5.0000,0.0000,1.42238,-0.01501,-2.63400,1.07825,1.57081,0.11674,-0.12760,-0.48152,0.03207,,,,,,,,,,,,,,,,,,,,,,,,,,0,0,0,0,0
3.8863,1783957714.0528,1,1,5.0000,0.0000,1.42238,-0.01501,-2.63400,1.07825,1.57081,0.11674,-0.12760,-0.48152,0.03207,,,,,,,,,,,,,,,,,,,,,,,,,,0,0,0,0,0
3.8867,1783957714.0532,1,1,5.0000,0.0000,1.42238,-0.01501,-2.63400,1.07825,1.57081,0.11674,-0.12760,-0.48152,0.03207,,,,,,,,,,,,,,,,,,,,,,,,,,0,0,0,0,0
3.8922,1783957714.0587,1,1,5.0000,0.0000,1.42238,-0.01501,-2.63400,1.07825,1.57081,0.11674,-0.12760,-0.48152,0.03207,,,,,,,,,,,,,,,,,,,,,,,,,,0,0,0,0,0
3.9021,1783957714.0686,1,1,5.0000,0.0000,1.42238,-0.01507,-2.63401,1.07833,1.57081,0.11674,-0.12760,-0.48152,0.03205,,,,,,,,,,,,,,,,,,,,,,,,,,0,0,0,0,0
3.9743,1783957714.1408,1,1,5.0000,0.0000,1.42238,-0.01559,-2.63411,1.07896,1.57081,0.11674,-0.12760,-0.48153,0.03188,,,,,,,,,,,,,,,,,,,,,,,,,,0,0,0,0,0
3.9746,1783957714.1411,1,1,5.0000,0.0000,1.42238,-0.01559,-2.63411,1.07896,1.57081,0.11674,-0.12760,-0.48153,0.03188,,,,,,,,,,,,,,,,,,,,,,,,,,0,0,0,0,0
4.0040,1783957714.1705,1,1,5.0000,0.0000,1.42238,-0.01584,-2.63410,1.07926,1.57081,0.11674,-0.12759,-0.48157,0.03182,,,,,,,,,,,,,,,,,,,,,,,,,,0,0,0,0,0
4.0044,1783957714.1709,1,1,5.0000,0.0000,1.42238,-0.01584,-2.63410,1.07926,1.57081,0.11674,-0.12759,-0.48157,0.03182,,,,,,,,,,,,,,,,,,,,,,,,,,0,0,0,0,0
4.0047,1783957714.1712,1,1,5.0000,0.0000,1.42238,-0.01584,-2.63410,1.07926,1.57081,0.11674,-0.12759,-0.48157,0.03182,,,,,,,,,,,,,,,,,,,,,,,,,,0,0,0,0,0
4.0050,1783957714.1715,1,1,5.0000,0.0000,1.42238,-0.01584,-2.63410,1.07926,1.57081,0.11674,-0.12759,-0.48157,0.03182,,,,,,,,,,,,,,,,,,,,,,,,,,0,0,0,0,0
4.0065,1783957714.1730,1,1,5.0000,0.0000,1.42238,-0.01586,-2.63410,1.07930,1.57081,0.11674,-0.12759,-0.48158,0.03182,,,,,,,,,,,,,,,,,,,,,,,,,,0,0,0,0,0
4.0069,1783957714.1734,1,1,5.0000,0.0000,1.42238,-0.01586,-2.63410,1.07930,1.57081,0.11674,-0.12759,-0.48158,0.03182,,,,,,,,,,,,,,,,,,,,,,,,,,0,0,0,0,0
4.0141,1783957714.1806,1,1,5.0000,0.0000,1.42238,-0.01588,-2.63409,1.07932,1.57081,0.11674,-0.12759,-0.48159,0.03182,,,,,,,,,,,,,,,,,,,,,,,,,,0,0,0,0,0
4.0145,1783957714.1810,1,1,5.0000,0.0000,1.42238,-0.01588,-2.63409,1.07932,1.57081,0.11674,-0.12759,-0.48159,0.03182,,,,,,,,,,,,,,,,,,,,,,,,,,0,0,0,0,0
4.0219,1783957714.1884,1,1,5.0000,0.0000,1.42238,-0.01589,-2.63409,1.07933,1.57081,0.11674,-0.12759,-0.48159,0.03181,,,,,,,,,,,,,,,,,,,,,,,,,,0,0,0,0,0
4.0221,1783957714.1886,1,1,5.0000,0.0000,1.42238,-0.01589,-2.63409,1.07933,1.57081,0.11674,-0.12759,-0.48159,0.03181,,,,,,,,,,,,,,,,,,,,,,,,,,0,0,0,0,0
4.0274,1783957714.1939,1,1,5.0000,0.0000,1.42238,-0.01590,-2.63410,1.07934,1.57081,0.11674,-0.12759,-0.48159,0.03181,,,,,,,,,,,,,,,,,,,,,,,,,,0,0,0,0,0
4.0318,1783957714.1983,1,1,5.0000,0.0000,1.42238,-0.01591,-2.63411,1.07936,1.57081,0.11674,-0.12759,-0.48158,0.03180,,,,,,,,,,,,,,,,,,,,,,,,,,0,0,0,0,0
4.0336,1783957714.2001,1,1,5.0000,0.0000,1.42238,-0.01591,-2.63411,1.07936,1.57081,0.11674,-0.12759,-0.48158,0.03180,,,,,,,,,,,,,,,,,,,,,,,,,,0,0,0,0,0
4.0343,1783957714.2008,1,1,5.0000,0.0000,1.42238,-0.01593,-2.63412,1.07938,1.57081,0.11674,-0.12759,-0.48158,0.03179,,,,,,,,,,,,,,,,,,,,,,,,,,0,0,0,0,0
4.0346,1783957714.2011,1,1,5.0000,0.0000,1.42238,-0.01593,-2.63412,1.07938,1.57081,0.11674,-0.12759,-0.48158,0.03179,,,,,,,,,,,,,,,,,,,,,,,,,,0,0,0,0,0
4.0349,1783957714.2014,1,1,5.0000,0.0000,1.42238,-0.01593,-2.63412,1.07938,1.57081,0.11674,-0.12759,-0.48158,0.03179,,,,,,,,,,,,,,,,,,,,,,,,,,0,0,0,0,0
4.0370,1783957714.2035,1,1,5.0000,0.0000,1.42238,-0.01593,-2.63412,1.07938,1.57081,0.11674,-0.12759,-0.48158,0.03179,,,,,,,,,,,,,,,,,,,,,,,,,,0,0,0,0,0
4.0373,1783957714.2038,1,1,5.0000,0.0000,1.42238,-0.01593,-2.63412,1.07938,1.57081,0.11674,-0.12759,-0.48158,0.03179,,,,,,,,,,,,,,,,,,,,,,,,,,0,0,0,0,0
4.0415,1783957714.2080,1,1,5.0000,0.0000,1.42238,-0.01595,-2.63413,1.07940,1.57081,0.11674,-0.12759,-0.48157,0.03178,,,,,,,,,,,,,,,,,,,,,,,,,,0,0,0,0,0
4.0421,1783957714.2086,1,1,5.0000,0.0000,1.42238,-0.01597,-2.63415,1.07943,1.57081,0.11674,-0.12759,-0.48156,0.03177,,,,,,,,,,,,,,,,,,,,,,,,,,0,0,0,0,0
4.0423,1783957714.2088,1,1,5.0000,0.0000,1.42238,-0.01597,-2.63415,1.07943,1.57081,0.11674,-0.12759,-0.48156,0.03177,,,,,,,,,,,,,,,,,,,,,,,,,,0,0,0,0,0
4.0513,1783957714.2178,1,1,5.0000,0.0000,1.42238,-0.01597,-2.63415,1.07943,1.57081,0.11674,-0.12759,-0.48156,0.03177,,,,,,,,,,,,,,,,,,,,,,,,,,0,0,0,0,0
4.0544,1783957714.2209,1,1,5.0000,0.0000,1.42238,-0.01598,-2.63415,1.07944,1.57081,0.11674,-0.12760,-0.48156,0.03177,,,,,,,,,,,,,,,,,,,,,,,,,,0,0,0,0,0
4.0547,1783957714.2212,1,1,5.0000,0.0000,1.42238,-0.01598,-2.63415,1.07944,1.57081,0.11674,-0.12760,-0.48156,0.03177,,,,,,,,,,,,,,,,,,,,,,,,,,0,0,0,0,0
4.0801,1783957714.2466,1,1,5.0000,0.0000,1.42238,-0.01607,-2.63419,1.07954,1.57082,0.11674,-0.12760,-0.48155,0.03173,,,,,,,,,,,,,,,,,,,,,,,,,,0,0,0,0,0
4.0811,1783957714.2476,1,1,5.0000,0.0000,1.42238,-0.01607,-2.63419,1.07954,1.57082,0.11674,-0.12760,-0.48155,0.03173,,,,,,,,,,,,,,,,,,,,,,,,,,0,0,0,0,0
4.0813,1783957714.2478,1,1,5.0000,0.0000,1.42238,-0.01607,-2.63419,1.07954,1.57082,0.11674,-0.12760,-0.48155,0.03173,,,,,,,,,,,,,,,,,,,,,,,,,,0,0,0,0,0
4.0847,1783957714.2512,1,1,5.0000,0.0000,1.42238,-0.01609,-2.63420,1.07957,1.57082,0.11674,-0.12760,-0.48155,0.03172,,,,,,,,,,,,,,,,,,,,,,,,,,0,0,0,0,0
4.0850,1783957714.2515,1,1,5.0000,0.0000,1.42238,-0.01609,-2.63420,1.07957,1.57082,0.11674,-0.12760,-0.48155,0.03172,,,,,,,,,,,,,,,,,,,,,,,,,,0,0,0,0,0
4.0902,1783957714.2567,1,1,5.0000,0.0000,1.42238,-0.01616,-2.63422,1.07966,1.57082,0.11674,-0.12760,-0.48154,0.03169,,,,,,,,,,,,,,,,,,,,,,,,,,0,0,0,0,0
4.0906,1783957714.2571,1,1,5.0000,0.0000,1.42238,-0.01616,-2.63422,1.07966,1.57082,0.11674,-0.12760,-0.48154,0.03169,,,,,,,,,,,,,,,,,,,,,,,,,,0,0,0,0,0
4.1076,1783957714.2741,1,1,5.0000,0.0000,1.42238,-0.01626,-2.63425,1.07978,1.57082,0.11674,-0.12760,-0.48153,0.03166,,,,,,,,,,,,,,,,,,,,,,,,,,0,0,0,0,0
4.1079,1783957714.2744,1,1,5.0000,0.0000,1.42238,-0.01626,-2.63425,1.07978,1.57082,0.11674,-0.12760,-0.48153,0.03166,,,,,,,,,,,,,,,,,,,,,,,,,,0,0,0,0,0
4.1143,1783957714.2808,1,1,5.0000,0.0000,1.42238,-0.01631,-2.63426,1.07983,1.57082,0.11674,-0.12760,-0.48153,0.03164,,,,,,,,,,,,,,,,,,,,,,,,,,0,0,0,0,0
4.1145,1783957714.2810,1,1,5.0000,0.0000,1.42238,-0.01631,-2.63426,1.07983,1.57082,0.11674,-0.12760,-0.48153,0.03164,,,,,,,,,,,,,,,,,,,,,,,,,,0,0,0,0,0
4.1158,1783957714.2823,1,1,5.0000,0.0000,1.42238,-0.01631,-2.63426,1.07983,1.57082,0.11674,-0.12760,-0.48153,0.03164,,,,,,,,,,,,,,,,,,,,,,,,,,0,0,0,0,0
4.1161,1783957714.2826,1,1,5.0000,0.0000,1.42238,-0.01631,-2.63426,1.07983,1.57082,0.11674,-0.12760,-0.48153,0.03164,,,,,,,,,,,,,,,,,,,,,,,,,,0,0,0,0,0
4.1172,1783957714.2837,1,1,5.0000,0.0000,1.42238,-0.01631,-2.63426,1.07983,1.57082,0.11674,-0.12760,-0.48153,0.03164,,,,,,,,,,,,,,,,,,,,,,,,,,0,0,0,0,0
4.1178,1783957714.2843,1,1,5.0000,0.0000,1.42238,-0.01634,-2.63427,1.07988,1.57082,0.11674,-0.12760,-0.48153,0.03163,,,,,,,,,,,,,,,,,,,,,,,,,,0,0,0,0,0
4.1181,1783957714.2846,1,1,5.0000,0.0000,1.42238,-0.01634,-2.63427,1.07988,1.57082,0.11674,-0.12760,-0.48153,0.03163,,,,,,,,,,,,,,,,,,,,,,,,,,0,0,0,0,0
4.1224,1783957714.2889,1,1,5.0000,0.0000,1.42238,-0.01639,-2.63428,1.07993,1.57082,0.11674,-0.12760,-0.48153,0.03161,,,,,,,,,,,,,,,,,,,,,,,,,,0,0,0,0,0
4.1228,1783957714.2892,1,1,5.0000,0.0000,1.42238,-0.01639,-2.63428,1.07993,1.57082,0.11674,-0.12760,-0.48153,0.03161,,,,,,,,,,,,,,,,,,,,,,,,,,0,0,0,0,0
4.1318,1783957714.2983,1,1,5.0000,0.0000,1.42238,-0.01649,-2.63430,1.08005,1.57082,0.11674,-0.12760,-0.48153,0.03158,,,,,,,,,,,,,,,,,,,,,,,,,,0,0,0,0,0
4.1322,1783957714.2987,1,1,5.0000,0.0000,1.42238,-0.01649,-2.63430,1.08005,1.57082,0.11674,-0.12760,-0.48153,0.03158,,,,,,,,,,,,,,,,,,,,,,,,,,0,0,0,0,0
4.1347,1783957714.3012,1,1,5.0000,0.0000,1.42238,-0.01649,-2.63430,1.08005,1.57082,0.11674,-0.12760,-0.48153,0.03158,,,,,,,,,,,,,,,,,,,,,,,,,,0,0,0,0,0
4.1351,1783957714.3016,1,1,5.0000,0.0000,1.42238,-0.01649,-2.63430,1.08005,1.57082,0.11674,-0.12760,-0.48153,0.03158,,,,,,,,,,,,,,,,,,,,,,,,,,0,0,0,0,0
4.1356,1783957714.3021,1,1,5.0000,0.0000,1.42238,-0.01649,-2.63430,1.08005,1.57082,0.11674,-0.12760,-0.48153,0.03158,,,,,,,,,,,,,,,,,,,,,,,,,,0,0,0,0,0
4.1359,1783957714.3024,1,1,5.0000,0.0000,1.42238,-0.01649,-2.63430,1.08005,1.57082,0.11674,-0.12760,-0.48153,0.03158,,,,,,,,,,,,,,,,,,,,,,,,,,0,0,0,0,0
4.1371,1783957714.3036,1,1,5.0000,0.0000,1.42238,-0.01649,-2.63430,1.08005,1.57082,0.11674,-0.12760,-0.48153,0.03158,,,,,,,,,,,,,,,,,,,,,,,,,,0,0,0,0,0
4.1375,1783957714.3040,1,1,5.0000,0.0000,1.42238,-0.01649,-2.63430,1.08005,1.57082,0.11674,-0.12760,-0.48153,0.03158,,,,,,,,,,,,,,,,,,,,,,,,,,0,0,0,0,0
4.1381,1783957714.3046,1,1,5.0000,0.0000,1.42238,-0.01649,-2.63430,1.08005,1.57082,0.11674,-0.12760,-0.48153,0.03157,,,,,,,,,,,,,,,,,,,,,,,,,,0,0,0,0,0
4.1385,1783957714.3049,1,1,5.0000,0.0000,1.42238,-0.01649,-2.63430,1.08005,1.57082,0.11674,-0.12760,-0.48153,0.03157,,,,,,,,,,,,,,,,,,,,,,,,,,0,0,0,0,0
4.1463,1783957714.3128,1,1,5.0000,0.0000,1.42238,-0.01653,-2.63431,1.08010,1.57082,0.11674,-0.12760,-0.48153,0.03156,,,,,,,,,,,,,,,,,,,,,,,,,,0,0,0,0,0
4.1467,1783957714.3132,1,1,5.0000,0.0000,1.42238,-0.01653,-2.63431,1.08010,1.57082,0.11674,-0.12760,-0.48153,0.03156,,,,,,,,,,,,,,,,,,,,,,,,,,0,0,0,0,0
4.1622,1783957714.3287,1,1,5.0000,0.4553,1.42238,-0.01670,-2.63435,1.08029,1.57082,0.11674,-0.12760,-0.48152,0.03150,,,,,,,,,,,,,,,,,,,,,,,,,,0,0,0,0,0
4.1625,1783957714.3290,1,1,5.0000,1.0572,1.42238,-0.01670,-2.63435,1.08029,1.57082,0.11674,-0.12760,-0.48152,0.03150,,,,,,,,,,,,,,,,,,,,,,,,,,0,0,0,0,0
4.1629,1783957714.3294,1,1,5.0000,1.5037,1.42238,-0.01670,-2.63435,1.08029,1.57082,0.11674,-0.12760,-0.48152,0.03150,,,,,,,,,,,,,,,,,,,,,,,,,,0,0,0,0,0
4.1635,1783957714.3299,1,1,5.0000,1.9741,1.42238,-0.01670,-2.63435,1.08029,1.57082,0.11674,-0.12760,-0.48152,0.03150,,,,,,,,,,,,,,,,,,,,,,,,,,0,0,0,0,0
4.1661,1783957714.3326,1,1,5.0000,1.9754,1.42238,-0.01675,-2.63436,1.08035,1.57082,0.11674,-0.12760,-0.48152,0.03149,,,,,,,,,,,,,,,,,,,,,,,,,,0,0,0,0,0
4.1664,1783957714.3329,1,1,5.0000,1.8724,1.42238,-0.01675,-2.63436,1.08035,1.57082,0.11674,-0.12760,-0.48152,0.03149,,,,,,,,,,,,,,,,,,,,,,,,,,0,0,0,0,0
4.1667,1783957714.3332,1,1,5.0000,1.5407,1.42238,-0.01675,-2.63436,1.08035,1.57082,0.11674,-0.12760,-0.48152,0.03149,,,,,,,,,,,,,,,,,,,,,,,,,,0,0,0,0,0
4.1714,1783957714.3379,1,1,5.0000,1.1380,1.42238,-0.01680,-2.63437,1.08041,1.57082,0.11674,-0.12760,-0.48152,0.03147,,,,,,,,,,,,,,,,,,,,,,,,,,0,0,0,0,0
4.1717,1783957714.3382,1,1,5.0000,1.0079,1.42238,-0.01680,-2.63437,1.08041,1.57082,0.11674,-0.12760,-0.48152,0.03147,,,,,,,,,,,,,,,,,,,,,,,,,,0,0,0,0,0
4.3289,1783957714.4954,1,1,5.0000,5.9597,1.42237,-0.01750,-2.63452,1.08127,1.57082,0.11674,-0.12760,-0.48152,0.03123,,,,,,,,,,,,,,,,,,,,,,,,,,0,0,0,0,0
4.3345,1783957714.5010,1,1,5.0000,5.8947,1.42237,-0.01758,-2.63454,1.08137,1.57082,0.11674,-0.12760,-0.48152,0.03121,,,,,,,,,,,,,,,,,,,,,,,,,,0,0,0,0,0
4.3349,1783957714.5014,1,1,5.0000,5.6073,1.42237,-0.01758,-2.63454,1.08137,1.57082,0.11674,-0.12760,-0.48152,0.03121,,,,,,,,,,,,,,,,,,,,,,,,,,0,0,0,0,0
4.3402,1783957714.5067,1,1,5.0000,5.0803,1.42237,-0.01763,-2.63455,1.08143,1.57082,0.11674,-0.12760,-0.48152,0.03119,,,,,,,,,,,,,,,,,,,,,,,,,,0,0,0,0,0
4.3509,1783957714.5174,1,1,5.0000,4.8213,1.42237,-0.01766,-2.63455,1.08146,1.57082,0.11674,-0.12760,-0.48152,0.03118,,,,,,,,,,,,,,,,,,,,,,,,,,0,0,0,0,0
4.3512,1783957714.5177,1,1,5.0000,4.7689,1.42237,-0.01766,-2.63455,1.08146,1.57082,0.11674,-0.12760,-0.48152,0.03118,,,,,,,,,,,,,,,,,,,,,,,,,,0,0,0,0,0
4.3704,1783957714.5369,1,1,5.0000,4.8862,1.42237,-0.01786,-2.63460,1.08171,1.57082,0.11674,-0.12760,-0.48152,0.03111,,,,,,,,,,,,,,,,,,,,,,,,,,0,0,0,0,0
4.3708,1783957714.5373,1,1,5.0000,5.0949,1.42237,-0.01786,-2.63460,1.08171,1.57082,0.11674,-0.12760,-0.48152,0.03111,,,,,,,,,,,,,,,,,,,,,,,,,,0,0,0,0,0
4.3805,1783957714.5470,1,1,5.0000,5.4646,1.42237,-0.01797,-2.63462,1.08184,1.57082,0.11674,-0.12760,-0.48152,0.03108,,,,,,,,,,,,,,,,,,,,,,,,,,0,0,0,0,0
4.3901,1783957714.5566,1,1,5.0000,5.4236,1.42237,-0.01812,-2.63465,1.08202,1.57082,0.11674,-0.12760,-0.48152,0.03103,,,,,,,,,,,,,,,,,,,,,,,,,,0,0,0,0,0
4.4032,1783957714.5697,1,1,5.0000,5.2001,1.42237,-0.01821,-2.63468,1.08214,1.57082,0.11674,-0.12760,-0.48152,0.03100,,,,,,,,,,,,,,,,,,,,,,,,,,0,0,0,0,0
4.4092,1783957714.5757,1,1,5.0000,4.2964,1.42237,-0.01821,-2.63468,1.08214,1.57082,0.11674,-0.12760,-0.48152,0.03100,,,,,,,,,,,,,,,,,,,,,,,,,,0,0,0,0,0
4.4228,1783957714.5893,1,1,5.0000,4.0255,1.42237,-0.01821,-2.63468,1.08214,1.57082,0.11674,-0.12760,-0.48152,0.03100,,,,,,,,,,,,,,,,,,,,,,,,,,0,0,0,0,0
4.4231,1783957714.5896,1,1,5.0000,3.8449,1.42237,-0.01821,-2.63468,1.08214,1.57082,0.11674,-0.12760,-0.48152,0.03100,,,,,,,,,,,,,,,,,,,,,,,,,,0,0,0,0,0
4.4375,1783957714.6040,1,1,5.0000,4.0135,1.42237,-0.01821,-2.63468,1.08214,1.57082,0.11674,-0.12760,-0.48152,0.03100,,,,,,,,,,,,,,,,,,,,,,,,,,0,0,0,0,0
4.4495,1783957714.6160,1,1,5.0000,4.3176,1.42237,-0.01821,-2.63468,1.08214,1.57082,0.11674,-0.12760,-0.48152,0.03100,,,,,,,,,,,,,,,,,,,,,,,,,,0,0,0,0,0
4.4518,1783957714.6183,1,1,5.0000,4.8973,1.42237,-0.01821,-2.63468,1.08214,1.57082,0.11674,-0.12760,-0.48152,0.03100,,,,,,,,,,,,,,,,,,,,,,,,,,0,0,0,0,0
4.4522,1783957714.6187,1,1,5.0000,5.1622,1.42237,-0.01821,-2.63468,1.08214,1.57082,0.11674,-0.12760,-0.48152,0.03100,,,,,,,,,,,,,,,,,,,,,,,,,,0,0,0,0,0
4.4600,1783957714.6265,1,1,5.0000,5.3840,1.42237,-0.01821,-2.63468,1.08214,1.57082,0.11674,-0.12760,-0.48152,0.03100,,,,,,,,,,,,,,,,,,,,,,,,,,0,0,0,0,0
4.4604,1783957714.6269,1,1,5.0000,5.4216,1.42237,-0.01821,-2.63468,1.08214,1.57082,0.11674,-0.12760,-0.48152,0.03100,,,,,,,,,,,,,,,,,,,,,,,,,,0,0,0,0,0
4.4697,1783957714.6362,1,1,5.0000,5.1803,1.42237,-0.01821,-2.63468,1.08214,1.57082,0.11674,-0.12760,-0.48152,0.03100,,,,,,,,,,,,,,,,,,,,,,,,,,0,0,0,0,0
4.4815,1783957714.6480,1,1,5.0000,4.7557,1.42237,-0.01821,-2.63468,1.08214,1.57082,0.11674,-0.12760,-0.48152,0.03100,,,,,,,,,,,,,,,,,,,,,,,,,,0,0,0,0,0
4.4942,1783957714.6607,1,1,5.0000,4.0480,1.42237,-0.01821,-2.63468,1.08214,1.57082,0.11674,-0.12760,-0.48152,0.03100,,,,,,,,,,,,,,,,,,,,,,,,,,0,0,0,0,0
4.5050,1783957714.6715,1,1,5.0000,3.9320,1.42237,-0.01821,-2.63468,1.08214,1.57082,0.11674,-0.12760,-0.48152,0.03100,,,,,,,,,,,,,,,,,,,,,,,,,,0,0,0,0,0
4.5108,1783957714.6773,1,1,5.0000,4.1546,1.42237,-0.01821,-2.63468,1.08214,1.57082,0.11674,-0.12760,-0.48152,0.03100,,,,,,,,,,,,,,,,,,,,,,,,,,0,0,0,0,0
4.5191,1783957714.6856,1,1,5.0000,4.5299,1.42237,-0.01821,-2.63468,1.08214,1.57082,0.11674,-0.12760,-0.48152,0.03100,,,,,,,,,,,,,,,,,,,,,,,,,,0,0,0,0,0
4.5447,1783957714.7112,1,1,5.0000,5.0855,1.42237,-0.01821,-2.63468,1.08214,1.57082,0.11674,-0.12760,-0.48152,0.03100,,,,,,,,,,,,,,,,,,,,,,,,,,0,0,0,0,0
4.5462,1783957714.7127,1,1,5.0000,5.1432,1.42237,-0.01821,-2.63468,1.08214,1.57082,0.11674,-0.12760,-0.48152,0.03100,,,,,,,,,,,,,,,,,,,,,,,,,,0,0,0,0,0
4.5465,1783957714.7130,1,1,5.0000,5.1416,1.42237,-0.01821,-2.63468,1.08214,1.57082,0.11674,-0.12760,-0.48152,0.03100,,,,,,,,,,,,,,,,,,,,,,,,,,0,0,0,0,0
4.5540,1783957714.7205,1,1,5.0000,5.0340,1.42237,-0.01821,-2.63468,1.08214,1.57082,0.11674,-0.12760,-0.48152,0.03100,,,,,,,,,,,,,,,,,,,,,,,,,,0,0,0,0,0
4.5542,1783957714.7207,1,1,5.0000,4.9446,1.42237,-0.01821,-2.63468,1.08214,1.57082,0.11674,-0.12760,-0.48152,0.03100,,,,,,,,,,,,,,,,,,,,,,,,,,0,0,0,0,0
4.5605,1783957714.7270,1,1,5.0000,4.7746,1.42237,-0.01821,-2.63468,1.08214,1.57082,0.11674,-0.12760,-0.48152,0.03100,,,,,,,,,,,,,,,,,,,,,,,,,,0,0,0,0,0
4.5609,1783957714.7274,1,1,5.0000,4.5149,1.42237,-0.01821,-2.63468,1.08214,1.57082,0.11674,-0.12760,-0.48152,0.03100,,,,,,,,,,,,,,,,,,,,,,,,,,0,0,0,0,0
4.5815,1783957714.7480,1,1,5.0000,4.1080,1.42237,-0.01821,-2.63468,1.08214,1.57082,0.11674,-0.12760,-0.48152,0.03100,,,,,,,,,,,,,,,,,,,,,,,,,,0,0,0,0,0
4.7166,1783957714.8831,1,1,5.0000,4.1586,1.42237,-0.01821,-2.63468,1.08214,1.57082,0.11674,-0.12760,-0.48152,0.03100,,,,,,,,,,,,,,,,,,,,,,,,,,0,0,0,0,0
4.7439,1783957714.9104,1,1,5.0000,4.3371,1.42237,-0.01821,-2.63468,1.08214,1.57082,0.11674,-0.12760,-0.48152,0.03100,,,,,,,,,,,,,,,,,,,,,,,,,,0,0,0,0,0
4.7461,1783957714.9126,1,1,5.0000,4.5553,1.42237,-0.01821,-2.63468,1.08214,1.57082,0.11674,-0.12760,-0.48152,0.03100,,,,,,,,,,,,,,,,,,,,,,,,,,0,0,0,0,0
4.7463,1783957714.9128,1,1,5.0000,5.1428,1.42237,-0.01821,-2.63468,1.08214,1.57082,0.11674,-0.12760,-0.48152,0.03100,,,,,,,,,,,,,,,,,,,,,,,,,,0,0,0,0,0
4.7467,1783957714.9132,1,1,5.0000,5.0669,1.42237,-0.01821,-2.63468,1.08214,1.57082,0.11674,-0.12760,-0.48152,0.03100,,,,,,,,,,,,,,,,,,,,,,,,,,0,0,0,0,0
4.7469,1783957714.9134,1,1,5.0000,4.8506,1.42237,-0.01821,-2.63468,1.08214,1.57082,0.11674,-0.12760,-0.48152,0.03100,,,,,,,,,,,,,,,,,,,,,,,,,,0,0,0,0,0
4.7473,1783957714.9137,1,1,5.0000,4.7175,1.42237,-0.01821,-2.63468,1.08214,1.57082,0.11674,-0.12760,-0.48152,0.03100,,,,,,,,,,,,,,,,,,,,,,,,,,0,0,0,0,0
4.7476,1783957714.9141,1,1,5.0000,4.1841,1.42237,-0.01821,-2.63468,1.08214,1.57082,0.11674,-0.12760,-0.48152,0.03100,,,,,,,,,,,,,,,,,,,,,,,,,,0,0,0,0,0
4.7479,1783957714.9143,1,1,5.0000,4.1614,1.42237,-0.01821,-2.63468,1.08214,1.57082,0.11674,-0.12760,-0.48152,0.03100,,,,,,,,,,,,,,,,,,,,,,,,,,0,0,0,0,0
4.7496,1783957714.9161,1,1,5.0000,4.2524,1.42237,-0.01821,-2.63468,1.08214,1.57082,0.11674,-0.12760,-0.48152,0.03100,,,,,,,,,,,,,,,,,,,,,,,,,,0,0,0,0,0
4.7502,1783957714.9167,1,1,5.0000,4.2665,1.42237,-0.01821,-2.63468,1.08214,1.57082,0.11674,-0.12760,-0.48152,0.03100,,,,,,,,,,,,,,,,,,,,,,,,,,0,0,0,0,0
4.7507,1783957714.9172,1,1,5.0000,4.8985,1.42237,-0.01821,-2.63468,1.08214,1.57082,0.11674,-0.12760,-0.48152,0.03100,,,,,,,,,,,,,,,,,,,,,,,,,,0,0,0,0,0
4.7523,1783957714.9188,1,1,5.0000,4.9950,1.42237,-0.01821,-2.63468,1.08214,1.57082,0.11674,-0.12760,-0.48152,0.03100,,,,,,,,,,,,,,,,,,,,,,,,,,0,0,0,0,0
4.7527,1783957714.9192,1,1,5.0000,4.9739,1.42237,-0.01821,-2.63468,1.08214,1.57082,0.11674,-0.12760,-0.48152,0.03100,,,,,,,,,,,,,,,,,,,,,,,,,,0,0,0,0,0
4.7530,1783957714.9194,1,1,5.0000,4.8130,1.42237,-0.01821,-2.63468,1.08214,1.57082,0.11674,-0.12760,-0.48152,0.03100,,,,,,,,,,,,,,,,,,,,,,,,,,0,0,0,0,0
4.7532,1783957714.9197,1,1,5.0000,4.2342,1.42237,-0.01821,-2.63468,1.08214,1.57082,0.11674,-0.12760,-0.48152,0.03100,,,,,,,,,,,,,,,,,,,,,,,,,,0,0,0,0,0
4.7535,1783957714.9200,1,1,5.0000,4.2233,1.42237,-0.01821,-2.63468,1.08214,1.57082,0.11674,-0.12760,-0.48152,0.03100,,,,,,,,,,,,,,,,,,,,,,,,,,0,0,0,0,0
4.7541,1783957714.9206,1,1,5.0000,4.3908,1.42237,-0.01821,-2.63468,1.08214,1.57082,0.11674,-0.12760,-0.48152,0.03100,,,,,,,,,,,,,,,,,,,,,,,,,,0,0,0,0,0
4.7543,1783957714.9208,1,1,5.0000,4.6317,1.42237,-0.01821,-2.63468,1.08214,1.57082,0.11674,-0.12760,-0.48152,0.03100,,,,,,,,,,,,,,,,,,,,,,,,,,0,0,0,0,0
4.7593,1783957714.9258,1,1,5.0000,4.8003,1.42237,-0.01821,-2.63468,1.08214,1.57082,0.11674,-0.12760,-0.48152,0.03100,,,,,,,,,,,,,,,,,,,,,,,,,,0,0,0,0,0
4.7762,1783957714.9427,1,1,5.0000,4.7612,1.42237,-0.01821,-2.63468,1.08214,1.57082,0.11674,-0.12760,-0.48152,0.03100,,,,,,,,,,,,,,,,,,,,,,,,,,0,0,0,0,0
4.7789,1783957714.9454,1,1,5.0000,4.6403,1.42237,-0.01821,-2.63468,1.08214,1.57082,0.11674,-0.12760,-0.48152,0.03100,,,,,,,,,,,,,,,,,,,,,,,,,,0,0,0,0,0
4.7990,1783957714.9655,1,1,5.0000,4.2374,1.42237,-0.01821,-2.63468,1.08214,1.57082,0.11674,-0.12760,-0.48152,0.03100,,,,,,,,,,,,,,,,,,,,,,,,,,0,0,0,0,0
4.8011,1783957714.9676,1,1,5.0000,4.1206,1.42237,-0.01821,-2.63468,1.08214,1.57082,0.11674,-0.12760,-0.48152,0.03100,,,,,,,,,,,,,,,,,,,,,,,,,,0,0,0,0,0
4.8125,1783957714.9790,1,1,5.0000,4.2115,1.42237,-0.01821,-2.63468,1.08214,1.57082,0.11674,-0.12760,-0.48152,0.03100,,,,,,,,,,,,,,,,,,,,,,,,,,0,0,0,0,0
4.8222,1783957714.9887,1,1,5.0000,4.3569,1.42237,-0.01821,-2.63468,1.08214,1.57082,0.11674,-0.12760,-0.48152,0.03100,,,,,,,,,,,,,,,,,,,,,,,,,,0,0,0,0,0
4.8328,1783957714.9993,1,1,5.0000,4.6553,1.42237,-0.01822,-2.63468,1.08214,1.57082,0.11674,-0.12760,-0.48152,0.03099,,,,,,,,,,,,,,,,,,,,,,,,,,0,0,0,0,0
4.8413,1783957715.0078,1,1,5.0000,4.7173,1.42237,-0.01822,-2.63468,1.08215,1.57082,0.11674,-0.12760,-0.48152,0.03099,,,,,,,,,,,,,,,,,,,,,,,,,,0,0,0,0,0
4.8503,1783957715.0168,1,1,5.0000,4.6815,1.42237,-0.01824,-2.63468,1.08218,1.57082,0.11674,-0.12759,-0.48153,0.03099,,,,,,,,,,,,,,,,,,,,,,,,,,0,0,0,0,0
4.8508,1783957715.0173,1,1,5.0000,4.6253,1.42237,-0.01824,-2.63468,1.08218,1.57082,0.11674,-0.12759,-0.48153,0.03099,,,,,,,,,,,,,,,,,,,,,,,,,,0,0,0,0,0
4.8599,1783957715.0264,1,1,5.0000,4.4609,1.42237,-0.01825,-2.63468,1.08220,1.57082,0.11674,-0.12759,-0.48153,0.03099,,,,,,,,,,,,,,,,,,,,,,,,,,0,0,0,0,0
4.8695,1783957715.0360,1,1,5.0000,4.1788,1.42237,-0.01826,-2.63468,1.08221,1.57082,0.11674,-0.12759,-0.48153,0.03099,,,,,,,,,,,,,,,,,,,,,,,,,,0,0,0,0,0
4.8811,1783957715.0476,1,1,5.0000,4.1960,1.42237,-0.01827,-2.63468,1.08223,1.57082,0.11674,-0.12759,-0.48153,0.03098,,,,,,,,,,,,,,,,,,,,,,,,,,0,0,0,0,0
4.8926,1783957715.0591,1,1,5.0000,4.2457,1.42237,-0.01827,-2.63468,1.08223,1.57082,0.11674,-0.12759,-0.48153,0.03098,,,,,,,,,,,,,,,,,,,,,,,,,,0,0,0,0,0
4.8930,1783957715.0595,1,1,5.0000,4.2834,1.42237,-0.01827,-2.63468,1.08223,1.57082,0.11674,-0.12759,-0.48153,0.03098,,,,,,,,,,,,,,,,,,,,,,,,,,0,0,0,0,0
4.9013,1783957715.0677,1,1,5.0000,4.4382,1.42237,-0.01827,-2.63468,1.08223,1.57082,0.11674,-0.12759,-0.48153,0.03098,,,,,,,,,,,,,,,,,,,,,,,,,,0,0,0,0,0
4.9096,1783957715.0761,1,1,5.0000,4.5925,1.42237,-0.01827,-2.63468,1.08223,1.57082,0.11674,-0.12759,-0.48153,0.03098,,,,,,,,,,,,,,,,,,,,,,,,,,0,0,0,0,0
4.9215,1783957715.0880,1,1,5.0000,4.5287,1.42237,-0.01827,-2.63468,1.08223,1.57082,0.11674,-0.12759,-0.48153,0.03098,,,,,,,,,,,,,,,,,,,,,,,,,,0,0,0,0,0
4.9351,1783957715.1016,1,1,5.0000,4.4472,1.42237,-0.01827,-2.63468,1.08223,1.57082,0.11674,-0.12759,-0.48153,0.03098,,,,,,,,,,,,,,,,,,,,,,,,,,0,0,0,0,0
4.9424,1783957715.1089,1,1,5.0000,4.1655,1.42237,-0.01827,-2.63468,1.08223,1.57082,0.11674,-0.12759,-0.48153,0.03098,,,,,,,,,,,,,,,,,,,,,,,,,,0,0,0,0,0
4.9505,1783957715.1170,1,1,5.0000,4.0844,1.42237,-0.01827,-2.63468,1.08223,1.57082,0.11674,-0.12759,-0.48153,0.03098,,,,,,,,,,,,,,,,,,,,,,,,,,0,0,0,0,0
4.9641,1783957715.1306,1,1,5.0000,4.1672,1.42237,-0.01827,-2.63468,1.08223,1.57082,0.11674,-0.12759,-0.48153,0.03098,,,,,,,,,,,,,,,,,,,,,,,,,,0,0,0,0,0
4.9725,1783957715.1390,1,1,5.0000,4.3227,1.42237,-0.01827,-2.63468,1.08223,1.57082,0.11674,-0.12759,-0.48153,0.03098,,,,,,,,,,,,,,,,,,,,,,,,,,0,0,0,0,0
4.9921,1783957715.1586,1,1,5.0000,4.5737,1.42237,-0.01827,-2.63468,1.08223,1.57082,0.11674,-0.12759,-0.48153,0.03098,,,,,,,,,,,,,,,,,,,,,,,,,,0,0,0,0,0
4.9953,1783957715.1618,1,1,5.0000,4.5862,1.42237,-0.01827,-2.63468,1.08223,1.57082,0.11674,-0.12759,-0.48153,0.03098,,,,,,,,,,,,,,,,,,,,,,,,,,0,0,0,0,0
5.0022,1783957715.1687,1,1,5.0000,4.5146,1.42237,-0.01827,-2.63468,1.08223,1.57082,0.11674,-0.12759,-0.48153,0.03098,,,,,,,,,,,,,,,,,,,,,,,,,,0,0,0,0,0
5.0027,1783957715.1691,1,1,5.0000,4.5059,1.42237,-0.01827,-2.63468,1.08223,1.57082,0.11674,-0.12759,-0.48153,0.03098,,,,,,,,,,,,,,,,,,,,,,,,,,0,0,0,0,0
5.0153,1783957715.1818,1,1,5.0000,4.3728,1.42237,-0.01827,-2.63468,1.08223,1.57082,0.11674,-0.12759,-0.48153,0.03098,,,,,,,,,,,,,,,,,,,,,,,,,,0,0,0,0,0
5.0226,1783957715.1891,1,1,5.0000,4.2195,1.42237,-0.01827,-2.63468,1.08223,1.57082,0.11674,-0.12759,-0.48153,0.03098,,,,,,,,,,,,,,,,,,,,,,,,,,0,0,0,0,0
5.0231,1783957715.1896,1,1,5.0000,4.1175,1.42237,-0.01827,-2.63468,1.08223,1.57082,0.11674,-0.12759,-0.48153,0.03098,,,,,,,,,,,,,,,,,,,,,,,,,,0,0,0,0,0
5.0289,1783957715.1954,1,1,5.0000,4.1223,1.42237,-0.01827,-2.63468,1.08223,1.57082,0.11674,-0.12759,-0.48153,0.03098,,,,,,,,,,,,,,,,,,,,,,,,,,0,0,0,0,0
5.0295,1783957715.1960,1,1,5.0000,4.1330,1.42237,-0.01827,-2.63468,1.08223,1.57082,0.11674,-0.12759,-0.48153,0.03098,,,,,,,,,,,,,,,,,,,,,,,,,,0,0,0,0,0
5.0490,1783957715.2155,1,1,5.0000,4.2029,1.42237,-0.01827,-2.63468,1.08223,1.57082,0.11674,-0.12759,-0.48153,0.03098,,,,,,,,,,,,,,,,,,,,,,,,,,0,0,0,0,0
5.0525,1783957715.2190,1,1,5.0000,4.2211,1.42237,-0.01827,-2.63468,1.08223,1.57082,0.11674,-0.12759,-0.48153,0.03098,,,,,,,,,,,,,,,,,,,,,,,,,,0,0,0,0,0
5.0528,1783957715.2193,1,1,5.0000,4.3415,1.42237,-0.01827,-2.63468,1.08223,1.57082,0.11674,-0.12759,-0.48153,0.03098,,,,,,,,,,,,,,,,,,,,,,,,,,0,0,0,0,0
5.0606,1783957715.2271,1,1,5.0000,4.5029,1.42237,-0.01827,-2.63468,1.08223,1.57082,0.11674,-0.12759,-0.48153,0.03098,,,,,,,,,,,,,,,,,,,,,,,,,,0,0,0,0,0
5.0839,1783957715.2504,1,1,5.0000,4.4250,1.42237,-0.01827,-2.63468,1.08223,1.57082,0.11674,-0.12759,-0.48153,0.03098,,,,,,,,,,,,,,,,,,,,,,,,,,0,0,0,0,0
5.0844,1783957715.2509,1,1,5.0000,4.3991,1.42237,-0.01827,-2.63468,1.08223,1.57082,0.11674,-0.12759,-0.48153,0.03098,,,,,,,,,,,,,,,,,,,,,,,,,,0,0,0,0,0
5.0846,1783957715.2511,1,1,5.0000,4.3405,1.42237,-0.01827,-2.63468,1.08223,1.57082,0.11674,-0.12759,-0.48153,0.03098,,,,,,,,,,,,,,,,,,,,,,,,,,0,0,0,0,0
5.0932,1783957715.2597,1,1,5.0000,4.1459,1.42237,-0.01827,-2.63468,1.08223,1.57082,0.11674,-0.12759,-0.48153,0.03098,,,,,,,,,,,,,,,,,,,,,,,,,,0,0,0,0,0
5.1065,1783957715.2730,1,1,5.0000,4.1124,1.42237,-0.01827,-2.63468,1.08223,1.57082,0.11674,-0.12759,-0.48153,0.03098,,,,,,,,,,,,,,,,,,,,,,,,,,0,0,0,0,0
5.1141,1783957715.2806,1,1,5.0000,4.1965,1.42237,-0.01827,-2.63468,1.08223,1.57082,0.11674,-0.12759,-0.48153,0.03098,,,,,,,,,,,,,,,,,,,,,,,,,,0,0,0,0,0
5.1144,1783957715.2809,1,1,5.0000,4.1994,1.42237,-0.01827,-2.63468,1.08223,1.57082,0.11674,-0.12759,-0.48153,0.03098,,,,,,,,,,,,,,,,,,,,,,,,,,0,0,0,0,0
5.1201,1783957715.2866,1,1,5.0000,4.2244,1.42237,-0.01827,-2.63468,1.08223,1.57082,0.11674,-0.12759,-0.48153,0.03098,,,,,,,,,,,,,,,,,,,,,,,,,,0,0,0,0,0
5.1205,1783957715.2870,1,1,5.0000,4.2536,1.42237,-0.01827,-2.63468,1.08223,1.57082,0.11674,-0.12759,-0.48153,0.03098,,,,,,,,,,,,,,,,,,,,,,,,,,0,0,0,0,0
5.1291,1783957715.2956,1,1,5.0000,4.4210,1.42237,-0.01827,-2.63468,1.08223,1.57082,0.11674,-0.12759,-0.48153,0.03098,,,,,,,,,,,,,,,,,,,,,,,,,,0,0,0,0,0
5.1295,1783957715.2960,1,1,5.0000,4.4322,1.42237,-0.01827,-2.63468,1.08223,1.57082,0.11674,-0.12759,-0.48153,0.03098,,,,,,,,,,,,,,,,,,,,,,,,,,0,0,0,0,0
5.1392,1783957715.3057,1,1,5.0000,4.4166,1.42237,-0.01827,-2.63468,1.08223,1.57082,0.11674,-0.12759,-0.48153,0.03098,,,,,,,,,,,,,,,,,,,,,,,,,,0,0,0,0,0
5.1533,1783957715.3198,1,1,5.0000,4.3595,1.42237,-0.01827,-2.63468,1.08223,1.57082,0.11674,-0.12759,-0.48153,0.03098,,,,,,,,,,,,,,,,,,,,,,,,,,0,0,0,0,0
5.1609,1783957715.3274,1,1,5.0000,4.2096,1.42237,-0.01827,-2.63468,1.08223,1.57082,0.11674,-0.12759,-0.48153,0.03098,,,,,,,,,,,,,,,,,,,,,,,,,,0,0,0,0,0
5.1710,1783957715.3374,1,1,5.0000,4.0597,1.42237,-0.01827,-2.63468,1.08223,1.57082,0.11674,-0.12759,-0.48153,0.03098,,,,,,,,,,,,,,,,,,,,,,,,,,0,0,0,0,0
5.1811,1783957715.3476,1,1,5.0000,4.0625,1.42237,-0.01827,-2.63468,1.08223,1.57082,0.11674,-0.12759,-0.48153,0.03098,,,,,,,,,,,,,,,,,,,,,,,,,,0,0,0,0,0
5.2003,1783957715.3668,1,1,5.0000,4.1137,1.42237,-0.01827,-2.63468,1.08223,1.57082,0.11674,-0.12759,-0.48153,0.03098,,,,,,,,,,,,,,,,,,,,,,,,,,0,0,0,0,0
5.2025,1783957715.3690,1,1,5.0000,4.2071,1.42237,-0.01827,-2.63468,1.08223,1.57082,0.11674,-0.12759,-0.48153,0.03098,,,,,,,,,,,,,,,,,,,,,,,,,,0,0,0,0,0
5.2104,1783957715.3769,1,1,5.0000,4.2902,1.42237,-0.01827,-2.63468,1.08223,1.57082,0.11674,-0.12759,-0.48153,0.03098,,,,,,,,,,,,,,,,,,,,,,,,,,0,0,0,0,0
5.2236,1783957715.3901,1,1,5.0000,4.2656,1.42237,-0.01827,-2.63468,1.08223,1.57082,0.11674,-0.12759,-0.48153,0.03098,,,,,,,,,,,,,,,,,,,,,,,,,,0,0,0,0,0
5.2329,1783957715.3994,1,1,5.0000,4.2154,1.42237,-0.01827,-2.63468,1.08223,1.57082,0.11674,-0.12759,-0.48153,0.03098,,,,,,,,,,,,,,,,,,,,,,,,,,0,0,0,0,0
5.2422,1783957715.4087,1,1,5.0000,4.0970,1.42237,-0.01827,-2.63468,1.08223,1.57082,0.11674,-0.12759,-0.48153,0.03098,,,,,,,,,,,,,,,,,,,,,,,,,,0,0,0,0,0
5.2426,1783957715.4091,1,1,5.0000,4.0928,1.42237,-0.01827,-2.63468,1.08223,1.57082,0.11674,-0.12759,-0.48153,0.03098,,,,,,,,,,,,,,,,,,,,,,,,,,0,0,0,0,0
5.2511,1783957715.4176,1,1,5.0000,4.0978,1.42237,-0.01827,-2.63468,1.08223,1.57082,0.11674,-0.12759,-0.48153,0.03098,,,,,,,,,,,,,,,,,,,,,,,,,,0,0,0,0,0
5.2641,1783957715.4306,1,1,5.0000,4.1172,1.42237,-0.01827,-2.63468,1.08223,1.57082,0.11674,-0.12759,-0.48153,0.03098,,,,,,,,,,,,,,,,,,,,,,,,,,0,0,0,0,0
5.2646,1783957715.4311,1,1,5.0000,4.1372,1.42237,-0.01827,-2.63468,1.08223,1.57082,0.11674,-0.12759,-0.48153,0.03098,,,,,,,,,,,,,,,,,,,,,,,,,,0,0,0,0,0
5.2720,1783957715.4385,1,1,5.0000,4.1891,1.42237,-0.01827,-2.63468,1.08223,1.57082,0.11674,-0.12759,-0.48153,0.03098,,,,,,,,,,,,,,,,,,,,,,,,,,0,0,0,0,0
5.2835,1783957715.4500,1,1,5.0000,4.2543,1.42237,-0.01827,-2.63468,1.08223,1.57082,0.11674,-0.12759,-0.48153,0.03098,,,,,,,,,,,,,,,,,,,,,,,,,,0,0,0,0,0
5.3001,1783957715.4666,1,1,5.0000,4.2659,1.42237,-0.01827,-2.63468,1.08223,1.57082,0.11674,-0.12759,-0.48153,0.03098,,,,,,,,,,,,,,,,,,,,,,,,,,0,0,0,0,0
5.3005,1783957715.4670,1,1,5.0000,4.2580,1.42237,-0.01827,-2.63468,1.08223,1.57082,0.11674,-0.12759,-0.48153,0.03098,,,,,,,,,,,,,,,,,,,,,,,,,,0,0,0,0,0
5.3052,1783957715.4716,1,1,5.0000,4.2332,1.42237,-0.01827,-2.63468,1.08223,1.57082,0.11674,-0.12759,-0.48153,0.03098,,,,,,,,,,,,,,,,,,,,,,,,,,0,0,0,0,0
5.3102,1783957715.4767,1,1,5.0000,4.1513,1.42237,-0.01827,-2.63468,1.08223,1.57082,0.11674,-0.12759,-0.48153,0.03098,,,,,,,,,,,,,,,,,,,,,,,,,,0,0,0,0,0
5.3243,1783957715.4908,1,1,5.0000,4.0713,1.42237,-0.01828,-2.63468,1.08223,1.57082,0.11674,-0.12759,-0.48153,0.03098,,,,,,,,,,,,,,,,,,,,,,,,,,0,0,0,0,0
5.3321,1783957715.4986,1,1,5.0000,4.0887,1.42237,-0.01828,-2.63468,1.08223,1.57082,0.11674,-0.12759,-0.48153,0.03098,,,,,,,,,,,,,,,,,,,,,,,,,,0,0,0,0,0
5.3462,1783957715.5127,1,1,5.0000,4.1059,1.42237,-0.01829,-2.63469,1.08222,1.57082,0.11674,-0.12759,-0.48152,0.03097,,,,,,,,,,,,,,,,,,,,,,,,,,0,0,0,0,0
5.3633,1783957715.5298,1,1,5.0000,4.1521,1.42237,-0.01829,-2.63469,1.08222,1.57082,0.11674,-0.12759,-0.48152,0.03097,,,,,,,,,,,,,,,,,,,,,,,,,,0,0,0,0,0
5.3639,1783957715.5304,1,1,5.0000,4.1673,1.42237,-0.01829,-2.63469,1.08222,1.57082,0.11674,-0.12759,-0.48152,0.03097,,,,,,,,,,,,,,,,,,,,,,,,,,0,0,0,0,0
5.3642,1783957715.5307,1,1,5.0000,4.2174,1.42237,-0.01829,-2.63469,1.08222,1.57082,0.11674,-0.12759,-0.48152,0.03097,,,,,,,,,,,,,,,,,,,,,,,,,,0,0,0,0,0
5.3749,1783957715.5414,1,1,5.0000,4.2309,1.42237,-0.01829,-2.63469,1.08222,1.57082,0.11674,-0.12759,-0.48152,0.03097,,,,,,,,,,,,,,,,,,,,,,,,,,0,0,0,0,0
5.3752,1783957715.5417,1,1,5.0000,4.2084,1.42237,-0.01829,-2.63469,1.08222,1.57082,0.11674,-0.12759,-0.48152,0.03097,,,,,,,,,,,,,,,,,,,,,,,,,,0,0,0,0,0
5.3807,1783957715.5472,1,1,5.0000,4.2001,1.42237,-0.01829,-2.63469,1.08222,1.57082,0.11674,-0.12759,-0.48152,0.03097,,,,,,,,,,,,,,,,,,,,,,,,,,0,0,0,0,0
5.3810,1783957715.5475,1,1,5.0000,4.1832,1.42237,-0.01829,-2.63469,1.08222,1.57082,0.11674,-0.12759,-0.48152,0.03097,,,,,,,,,,,,,,,,,,,,,,,,,,0,0,0,0,0
