Martins-Lucaas/twinforge/sensors/Data/celula de carga/20260713_152237__samples.csv
t_rel_s,t_unix,cycle,phase,setpoint_n,force_net_n,q1,q2,q3,q4,q5,q6,tcp_x,tcp_y,tcp_z,taxel_0,taxel_1,taxel_2,taxel_3,taxel_4,taxel_5,taxel_6,taxel_7,taxel_8,taxel_9,taxel_10,taxel_11,taxel_12,taxel_13,taxel_14,taxel_15,taxel_16,taxel_17,taxel_18,taxel_19,taxel_20,taxel_21,taxel_22,taxel_23,taxel_24,n_RA,n_SA,cn_mm,cn_ra,cn_sa
0.0006,1783966957.5174,0,-1,4.0000,-0.0000,1.42244,0.00072,-2.63045,1.05903,1.57084,0.11671,-0.12761,-0.48157,0.03741,,,,,,,,,,,,,,,,,,,,,,,,,,0,0,0,0,0
0.0065,1783966957.5233,1,0,4.0000,-0.0000,1.42244,0.00072,-2.63045,1.05903,1.57084,0.11671,-0.12761,-0.48157,0.03741,,,,,,,,,,,,,,,,,,,,,,,,,,0,0,0,0,0
0.0114,1783966957.5282,1,0,4.0000,-0.0000,1.42244,0.00072,-2.63045,1.05903,1.57084,0.11671,-0.12761,-0.48157,0.03741,,,,,,,,,,,,,,,,,,,,,,,,,,0,0,0,0,0
0.0118,1783966957.5286,1,0,4.0000,-0.0000,1.42244,0.00072,-2.63045,1.05903,1.57084,0.11671,-0.12761,-0.48157,0.03741,,,,,,,,,,,,,,,,,,,,,,,,,,0,0,0,0,0
0.0242,1783966957.5409,1,0,4.0000,-0.0000,1.42244,0.00072,-2.63045,1.05903,1.57084,0.11671,-0.12761,-0.48157,0.03741,,,,,,,,,,,,,,,,,,,,,,,,,,0,0,0,0,0
0.0245,1783966957.5412,1,0,4.0000,-0.0000,1.42244,0.00072,-2.63045,1.05903,1.57084,0.11671,-0.12761,-0.48157,0.03741,,,,,,,,,,,,,,,,,,,,,,,,,,0,0,0,0,0
0.0340,1783966957.5508,1,0,4.0000,-0.0000,1.42244,0.00072,-2.63045,1.05903,1.57084,0.11671,-0.12761,-0.48157,0.03741,,,,,,,,,,,,,,,,,,,,,,,,,,0,0,0,0,0
0.0344,1783966957.5512,1,0,4.0000,-0.0000,1.42244,0.00072,-2.63045,1.05903,1.57084,0.11671,-0.12761,-0.48157,0.03741,,,,,,,,,,,,,,,,,,,,,,,,,,0,0,0,0,0
0.0464,1783966957.5632,1,0,4.0000,-0.0000,1.42244,0.00072,-2.63045,1.05903,1.57084,0.11671,-0.12761,-0.48157,0.03741,,,,,,,,,,,,,,,,,,,,,,,,,,0,0,0,0,0
0.0543,1783966957.5711,1,0,4.0000,-0.0000,1.42244,0.00072,-2.63046,1.05903,1.57084,0.11672,-0.12762,-0.48157,0.03741,,,,,,,,,,,,,,,,,,,,,,,,,,0,0,0,0,0
0.0547,1783966957.5715,1,0,4.0000,-0.0000,1.42244,0.00072,-2.63046,1.05903,1.57084,0.11672,-0.12762,-0.48157,0.03741,,,,,,,,,,,,,,,,,,,,,,,,,,0,0,0,0,0
0.0640,1783966957.5808,1,0,4.0000,-0.0000,1.42244,0.00072,-2.63047,1.05904,1.57083,0.11672,-0.12762,-0.48156,0.03741,,,,,,,,,,,,,,,,,,,,,,,,,,0,0,0,0,0
0.0754,1783966957.5922,1,0,4.0000,-0.0000,1.42244,0.00072,-2.63049,1.05905,1.57082,0.11673,-0.12762,-0.48155,0.03740,,,,,,,,,,,,,,,,,,,,,,,,,,0,0,0,0,0
0.0861,1783966957.6029,1,0,4.0000,-0.0000,1.42244,0.00071,-2.63051,1.05906,1.57081,0.11674,-0.12763,-0.48153,0.03739,,,,,,,,,,,,,,,,,,,,,,,,,,0,0,0,0,0
0.0866,1783966957.6034,1,0,4.0000,-0.0000,1.42244,0.00071,-2.63051,1.05906,1.57081,0.11674,-0.12763,-0.48153,0.03739,,,,,,,,,,,,,,,,,,,,,,,,,,0,0,0,0,0
0.0983,1783966957.6151,1,0,4.0000,-0.0000,1.42244,0.00071,-2.63053,1.05906,1.57080,0.11675,-0.12763,-0.48152,0.03738,,,,,,,,,,,,,,,,,,,,,,,,,,0,0,0,0,0
0.1053,1783966957.6221,1,0,4.0000,-0.0000,1.42244,0.00071,-2.63053,1.05907,1.57080,0.11675,-0.12764,-0.48152,0.03738,,,,,,,,,,,,,,,,,,,,,,,,,,0,0,0,0,0
0.1333,1783966957.6501,1,0,4.0000,-0.0000,1.42244,0.00071,-2.63053,1.05907,1.57080,0.11675,-0.12764,-0.48152,0.03738,,,,,,,,,,,,,,,,,,,,,,,,,,0,0,0,0,0
0.2267,1783966957.7434,1,0,4.0000,-0.0000,1.42244,0.00071,-2.63053,1.05907,1.57080,0.11675,-0.12764,-0.48152,0.03738,,,,,,,,,,,,,,,,,,,,,,,,,,0,0,0,0,0
0.2287,1783966957.7454,1,0,4.0000,-0.0000,1.42244,0.00071,-2.63053,1.05907,1.57080,0.11675,-0.12764,-0.48152,0.03738,,,,,,,,,,,,,,,,,,,,,,,,,,0,0,0,0,0
0.2290,1783966957.7458,1,0,4.0000,-0.0000,1.42244,0.00071,-2.63053,1.05907,1.57080,0.11675,-0.12764,-0.48152,0.03738,,,,,,,,,,,,,,,,,,,,,,,,,,0,0,0,0,0
0.2388,1783966957.7556,1,0,4.0000,-0.0000,1.42244,0.00071,-2.63053,1.05907,1.57080,0.11675,-0.12764,-0.48152,0.03738,,,,,,,,,,,,,,,,,,,,,,,,,,0,0,0,0,0
0.2436,1783966957.7604,1,0,4.0000,-0.0000,1.42244,0.00071,-2.63053,1.05907,1.57080,0.11675,-0.12764,-0.48152,0.03738,,,,,,,,,,,,,,,,,,,,,,,,,,0,0,0,0,0
0.2488,1783966957.7655,1,0,4.0000,-0.0000,1.42244,0.00071,-2.63053,1.05907,1.57080,0.11675,-0.12764,-0.48152,0.03738,,,,,,,,,,,,,,,,,,,,,,,,,,0,0,0,0,0
0.2539,1783966957.7707,1,0,4.0000,-0.0000,1.42244,0.00071,-2.63053,1.05907,1.57080,0.11675,-0.12764,-0.48152,0.03738,,,,,,,,,,,,,,,,,,,,,,,,,,0,0,0,0,0
0.2554,1783966957.7722,1,0,4.0000,-0.0000,1.42244,0.00071,-2.63053,1.05907,1.57080,0.11675,-0.12764,-0.48152,0.03738,,,,,,,,,,,,,,,,,,,,,,,,,,0,0,0,0,0
0.2562,1783966957.7730,1,0,4.0000,-0.0000,1.42244,0.00071,-2.63053,1.05907,1.57080,0.11675,-0.12764,-0.48152,0.03738,,,,,,,,,,,,,,,,,,,,,,,,,,0,0,0,0,0
0.2565,1783966957.7732,1,0,4.0000,-0.0000,1.42244,0.00071,-2.63053,1.05907,1.57080,0.11675,-0.12764,-0.48152,0.03738,,,,,,,,,,,,,,,,,,,,,,,,,,0,0,0,0,0
0.2578,1783966957.7746,1,0,4.0000,-0.0000,1.42244,0.00071,-2.63053,1.05907,1.57080,0.11675,-0.12764,-0.48152,0.03738,,,,,,,,,,,,,,,,,,,,,,,,,,0,0,0,0,0
0.2581,1783966957.7749,1,0,4.0000,-0.0000,1.42244,0.00071,-2.63053,1.05907,1.57080,0.11675,-0.12764,-0.48152,0.03738,,,,,,,,,,,,,,,,,,,,,,,,,,0,0,0,0,0
0.2685,1783966957.7852,1,0,4.0000,-0.0000,1.42244,0.00071,-2.63053,1.05907,1.57080,0.11675,-0.12764,-0.48152,0.03738,,,,,,,,,,,,,,,,,,,,,,,,,,0,0,0,0,0
0.2699,1783966957.7867,1,0,4.0000,-0.0000,1.42244,0.00071,-2.63053,1.05907,1.57080,0.11675,-0.12764,-0.48152,0.03738,,,,,,,,,,,,,,,,,,,,,,,,,,0,0,0,0,0
0.2701,1783966957.7869,1,0,4.0000,-0.0000,1.42244,0.00071,-2.63053,1.05907,1.57080,0.11675,-0.12764,-0.48152,0.03738,,,,,,,,,,,,,,,,,,,,,,,,,,0,0,0,0,0
0.2890,1783966957.8058,1,0,4.0000,-0.0000,1.42244,0.00071,-2.63053,1.05907,1.57080,0.11675,-0.12764,-0.48152,0.03738,,,,,,,,,,,,,,,,,,,,,,,,,,0,0,0,0,0
0.2893,1783966957.8061,1,0,4.0000,-0.0000,1.42244,0.00071,-2.63053,1.05907,1.57080,0.11675,-0.12764,-0.48152,0.03738,,,,,,,,,,,,,,,,,,,,,,,,,,0,0,0,0,0
0.3074,1783966957.8242,1,0,4.0000,-0.0000,1.42244,0.00071,-2.63053,1.05907,1.57080,0.11675,-0.12764,-0.48152,0.03738,,,,,,,,,,,,,,,,,,,,,,,,,,0,0,0,0,0
0.3093,1783966957.8261,1,0,4.0000,-0.0000,1.42244,0.00071,-2.63053,1.05907,1.57080,0.11675,-0.12764,-0.48152,0.03738,,,,,,,,,,,,,,,,,,,,,,,,,,0,0,0,0,0
0.3157,1783966957.8324,1,0,4.0000,-0.0000,1.42244,0.00071,-2.63053,1.05907,1.57080,0.11675,-0.12764,-0.48152,0.03738,,,,,,,,,,,,,,,,,,,,,,,,,,0,0,0,0,0
0.3236,1783966957.8404,1,0,4.0000,-0.0000,1.42244,0.00071,-2.63053,1.05907,1.57080,0.11675,-0.12764,-0.48152,0.03738,,,,,,,,,,,,,,,,,,,,,,,,,,0,0,0,0,0
0.3365,1783966957.8533,1,0,4.0000,-0.0000,1.42244,0.00071,-2.63053,1.05907,1.57080,0.11675,-0.12764,-0.48152,0.03738,,,,,,,,,,,,,,,,,,,,,,,,,,0,0,0,0,0
0.3466,1783966957.8634,1,0,4.0000,-0.0000,1.42244,0.00071,-2.63053,1.05907,1.57080,0.11675,-0.12764,-0.48152,0.03738,,,,,,,,,,,,,,,,,,,,,,,,,,0,0,0,0,0
0.3552,1783966957.8719,1,0,4.0000,-0.0000,1.42244,0.00071,-2.63053,1.05907,1.57080,0.11675,-0.12764,-0.48152,0.03738,,,,,,,,,,,,,,,,,,,,,,,,,,0,0,0,0,0
0.3662,1783966957.8830,1,0,4.0000,-0.0000,1.42244,0.00071,-2.63053,1.05907,1.57080,0.11675,-0.12764,-0.48152,0.03738,,,,,,,,,,,,,,,,,,,,,,,,,,0,0,0,0,0
0.3739,1783966957.8907,1,0,4.0000,-0.0000,1.42244,0.00071,-2.63053,1.05907,1.57080,0.11675,-0.12764,-0.48152,0.03738,,,,,,,,,,,,,,,,,,,,,,,,,,0,0,0,0,0
0.3829,1783966957.8997,1,0,4.0000,-0.0000,1.42244,0.00071,-2.63053,1.05907,1.57080,0.11675,-0.12764,-0.48152,0.03738,,,,,,,,,,,,,,,,,,,,,,,,,,0,0,0,0,0
0.3848,1783966957.9016,1,0,4.0000,-0.0000,1.42244,0.00071,-2.63053,1.05907,1.57080,0.11675,-0.12764,-0.48152,0.03738,,,,,,,,,,,,,,,,,,,,,,,,,,0,0,0,0,0
0.3872,1783966957.9040,1,0,4.0000,-0.0000,1.42244,0.00071,-2.63053,1.05907,1.57080,0.11675,-0.12764,-0.48152,0.03738,,,,,,,,,,,,,,,,,,,,,,,,,,0,0,0,0,0
0.3881,1783966957.9049,1,0,4.0000,-0.0000,1.42244,0.00071,-2.63053,1.05907,1.57080,0.11675,-0.12764,-0.48152,0.03738,,,,,,,,,,,,,,,,,,,,,,,,,,0,0,0,0,0
0.3885,1783966957.9053,1,0,4.0000,-0.0000,1.42244,0.00071,-2.63053,1.05907,1.57080,0.11675,-0.12764,-0.48152,0.03738,,,,,,,,,,,,,,,,,,,,,,,,,,0,0,0,0,0
0.3899,1783966957.9067,1,0,4.0000,-0.0000,1.42244,0.00071,-2.63053,1.05907,1.57080,0.11675,-0.12764,-0.48152,0.03738,,,,,,,,,,,,,,,,,,,,,,,,,,0,0,0,0,0
0.3969,1783966957.9137,1,0,4.0000,-0.0000,1.42244,0.00071,-2.63053,1.05907,1.57080,0.11675,-0.12764,-0.48152,0.03738,,,,,,,,,,,,,,,,,,,,,,,,,,0,0,0,0,0
0.4036,1783966957.9204,1,0,4.0000,-0.0000,1.42244,0.00071,-2.63053,1.05907,1.57080,0.11675,-0.12764,-0.48152,0.03738,,,,,,,,,,,,,,,,,,,,,,,,,,0,0,0,0,0
0.4040,1783966957.9208,1,0,4.0000,-0.0000,1.42244,0.00071,-2.63053,1.05907,1.57080,0.11675,-0.12764,-0.48152,0.03738,,,,,,,,,,,,,,,,,,,,,,,,,,0,0,0,0,0
0.4097,1783966957.9265,1,0,4.0000,-0.0000,1.42244,0.00071,-2.63053,1.05907,1.57080,0.11675,-0.12764,-0.48152,0.03738,,,,,,,,,,,,,,,,,,,,,,,,,,0,0,0,0,0
0.4117,1783966957.9285,1,0,4.0000,-0.0000,1.42244,0.00071,-2.63053,1.05907,1.57080,0.11675,-0.12764,-0.48152,0.03738,,,,,,,,,,,,,,,,,,,,,,,,,,0,0,0,0,0
0.4232,1783966957.9400,1,0,4.0000,-0.0000,1.42244,0.00071,-2.63053,1.05907,1.57080,0.11675,-0.12764,-0.48152,0.03738,,,,,,,,,,,,,,,,,,,,,,,,,,0,0,0,0,0
0.4397,1783966957.9565,1,0,4.0000,-0.0000,1.42244,0.00071,-2.63053,1.05907,1.57080,0.11675,-0.12764,-0.48152,0.03738,,,,,,,,,,,,,,,,,,,,,,,,,,0,0,0,0,0
0.4540,1783966957.9708,1,0,4.0000,-0.0000,1.42244,0.00071,-2.63053,1.05907,1.57080,0.11675,-0.12764,-0.48152,0.03738,,,,,,,,,,,,,,,,,,,,,,,,,,0,0,0,0,0
0.4603,1783966957.9771,1,0,4.0000,-0.0000,1.42244,0.00071,-2.63053,1.05907,1.57080,0.11675,-0.12764,-0.48152,0.03738,,,,,,,,,,,,,,,,,,,,,,,,,,0,0,0,0,0
0.4757,1783966957.9925,1,0,4.0000,-0.0000,1.42244,0.00071,-2.63053,1.05907,1.57080,0.11675,-0.12764,-0.48152,0.03738,,,,,,,,,,,,,,,,,,,,,,,,,,0,0,0,0,0
0.4823,1783966957.9991,1,0,4.0000,-0.0000,1.42244,0.00071,-2.63053,1.05907,1.57080,0.11675,-0.12764,-0.48152,0.03738,,,,,,,,,,,,,,,,,,,,,,,,,,0,0,0,0,0
0.4967,1783966958.0135,1,0,4.0000,-0.0000,1.42244,0.00071,-2.63053,1.05907,1.57080,0.11675,-0.12764,-0.48152,0.03738,,,,,,,,,,,,,,,,,,,,,,,,,,0,0,0,0,0
0.4999,1783966958.0167,1,0,4.0000,-0.0000,1.42244,0.00071,-2.63053,1.05907,1.57080,0.11675,-0.12764,-0.48152,0.03738,,,,,,,,,,,,,,,,,,,,,,,,,,0,0,0,0,0
0.5079,1783966958.0247,1,0,4.0000,-0.0000,1.42244,0.00071,-2.63053,1.05907,1.57080,0.11675,-0.12764,-0.48152,0.03738,,,,,,,,,,,,,,,,,,,,,,,,,,0,0,0,0,0
0.5239,1783966958.0407,1,0,4.0000,-0.0000,1.42244,0.00071,-2.63053,1.05907,1.57080,0.11675,-0.12764,-0.48152,0.03738,,,,,,,,,,,,,,,,,,,,,,,,,,0,0,0,0,0
0.5281,1783966958.0449,1,0,4.0000,-0.0000,1.42244,0.00071,-2.63053,1.05907,1.57080,0.11675,-0.12764,-0.48152,0.03738,,,,,,,,,,,,,,,,,,,,,,,,,,0,0,0,0,0
0.5286,1783966958.0454,1,0,4.0000,-0.0000,1.42244,0.00071,-2.63053,1.05907,1.57080,0.11675,-0.12764,-0.48152,0.03738,,,,,,,,,,,,,,,,,,,,,,,,,,0,0,0,0,0
0.5327,1783966958.0495,1,0,4.0000,-0.0000,1.42244,0.00071,-2.63053,1.05907,1.57080,0.11675,-0.12764,-0.48152,0.03738,,,,,,,,,,,,,,,,,,,,,,,,,,0,0,0,0,0
0.5450,1783966958.0618,1,0,4.0000,-0.0000,1.42244,0.00071,-2.63053,1.05907,1.57080,0.11675,-0.12764,-0.48152,0.03738,,,,,,,,,,,,,,,,,,,,,,,,,,0,0,0,0,0
0.5572,1783966958.0740,1,0,4.0000,-0.0000,1.42244,0.00071,-2.63053,1.05907,1.57080,0.11675,-0.12764,-0.48152,0.03738,,,,,,,,,,,,,,,,,,,,,,,,,,0,0,0,0,0
0.5633,1783966958.0801,1,0,4.0000,-0.0000,1.42244,0.00071,-2.63053,1.05907,1.57080,0.11675,-0.12764,-0.48152,0.03738,,,,,,,,,,,,,,,,,,,,,,,,,,0,0,0,0,0
0.5800,1783966958.0967,1,0,4.0000,-0.0000,1.42244,0.00071,-2.63053,1.05907,1.57080,0.11675,-0.12764,-0.48152,0.03738,,,,,,,,,,,,,,,,,,,,,,,,,,0,0,0,0,0
0.5834,1783966958.1001,1,0,4.0000,-0.0000,1.42244,0.00071,-2.63053,1.05907,1.57080,0.11675,-0.12764,-0.48152,0.03738,,,,,,,,,,,,,,,,,,,,,,,,,,0,0,0,0,0
0.6437,1783966958.1605,1,0,4.0000,-0.0000,1.42244,0.00071,-2.63053,1.05907,1.57080,0.11675,-0.12764,-0.48152,0.03738,,,,,,,,,,,,,,,,,,,,,,,,,,0,0,0,0,0
0.6647,1783966958.1815,1,0,4.0000,-0.0000,1.42244,0.00071,-2.63053,1.05907,1.57080,0.11675,-0.12764,-0.48152,0.03738,,,,,,,,,,,,,,,,,,,,,,,,,,0,0,0,0,0
0.6681,1783966958.1848,1,0,4.0000,-0.0000,1.42244,0.00071,-2.63053,1.05907,1.57080,0.11675,-0.12764,-0.48152,0.03738,,,,,,,,,,,,,,,,,,,,,,,,,,0,0,0,0,0
0.6717,1783966958.1885,1,0,4.0000,-0.0000,1.42244,0.00071,-2.63053,1.05907,1.57080,0.11675,-0.12764,-0.48152,0.03738,,,,,,,,,,,,,,,,,,,,,,,,,,0,0,0,0,0
0.6865,1783966958.2033,1,0,4.0000,-0.0000,1.42244,0.00071,-2.63053,1.05907,1.57080,0.11675,-0.12764,-0.48152,0.03738,,,,,,,,,,,,,,,,,,,,,,,,,,0,0,0,0,0
0.6962,1783966958.2130,1,0,4.0000,-0.0000,1.42244,0.00071,-2.63053,1.05907,1.57080,0.11675,-0.12764,-0.48152,0.03738,,,,,,,,,,,,,,,,,,,,,,,,,,0,0,0,0,0
0.6966,1783966958.2134,1,0,4.0000,-0.0000,1.42244,0.00071,-2.63053,1.05907,1.57080,0.11675,-0.12764,-0.48152,0.03738,,,,,,,,,,,,,,,,,,,,,,,,,,0,0,0,0,0
0.6986,1783966958.2153,1,0,4.0000,-0.0000,1.42244,0.00071,-2.63053,1.05907,1.57080,0.11675,-0.12764,-0.48152,0.03738,,,,,,,,,,,,,,,,,,,,,,,,,,0,0,0,0,0
0.7014,1783966958.2182,1,0,4.0000,-0.0000,1.42244,0.00071,-2.63053,1.05907,1.57080,0.11675,-0.12764,-0.48152,0.03738,,,,,,,,,,,,,,,,,,,,,,,,,,0,0,0,0,0
0.7018,1783966958.2185,1,0,4.0000,-0.0000,1.42244,0.00071,-2.63053,1.05907,1.57080,0.11675,-0.12764,-0.48152,0.03738,,,,,,,,,,,,,,,,,,,,,,,,,,0,0,0,0,0
0.7167,1783966958.2335,1,0,4.0000,-0.0000,1.42244,0.00071,-2.63053,1.05907,1.57080,0.11675,-0.12764,-0.48152,0.03738,,,,,,,,,,,,,,,,,,,,,,,,,,0,0,0,0,0
0.7256,1783966958.2424,1,0,4.0000,-0.0000,1.42244,0.00071,-2.63053,1.05907,1.57080,0.11675,-0.12764,-0.48152,0.03738,,,,,,,,,,,,,,,,,,,,,,,,,,0,0,0,0,0
0.7286,1783966958.2454,1,1,4.0000,-0.0000,1.42244,0.00071,-2.63053,1.05907,1.57080,0.11675,-0.12764,-0.48152,0.03738,,,,,,,,,,,,,,,,,,,,,,,,,,0,0,0,0,0
0.7289,1783966958.2457,1,1,4.0000,-0.0000,1.42244,0.00071,-2.63053,1.05907,1.57080,0.11675,-0.12764,-0.48152,0.03738,,,,,,,,,,,,,,,,,,,,,,,,,,0,0,0,0,0
0.7314,1783966958.2481,1,1,4.0000,-0.0000,1.42244,0.00071,-2.63053,1.05907,1.57080,0.11675,-0.12764,-0.48152,0.03738,,,,,,,,,,,,,,,,,,,,,,,,,,0,0,0,0,0
0.7317,1783966958.2484,1,1,4.0000,-0.0000,1.42244,0.00071,-2.63053,1.05907,1.57080,0.11675,-0.12764,-0.48152,0.03738,,,,,,,,,,,,,,,,,,,,,,,,,,0,0,0,0,0
0.7386,1783966958.2554,1,1,4.0000,-0.0000,1.42244,0.00071,-2.63053,1.05907,1.57080,0.11675,-0.12764,-0.48152,0.03738,,,,,,,,,,,,,,,,,,,,,,,,,,0,0,0,0,0
0.7428,1783966958.2596,1,1,4.0000,-0.0000,1.42244,0.00071,-2.63053,1.05907,1.57080,0.11675,-0.12764,-0.48152,0.03738,,,,,,,,,,,,,,,,,,,,,,,,,,0,0,0,0,0
0.7431,1783966958.2599,1,1,4.0000,-0.0000,1.42244,0.00071,-2.63053,1.05907,1.57080,0.11675,-0.12764,-0.48152,0.03738,,,,,,,,,,,,,,,,,,,,,,,,,,0,0,0,0,0
0.7468,1783966958.2636,1,1,4.0000,-0.0000,1.42244,0.00071,-2.63053,1.05907,1.57080,0.11675,-0.12764,-0.48152,0.03738,,,,,,,,,,,,,,,,,,,,,,,,,,0,0,0,0,0
0.7652,1783966958.2820,1,1,4.0000,-0.0000,1.42244,0.00071,-2.63053,1.05907,1.57080,0.11675,-0.12764,-0.48152,0.03738,,,,,,,,,,,,,,,,,,,,,,,,,,0,0,0,0,0
0.7828,1783966958.2996,1,1,4.0000,-0.0000,1.42244,0.00071,-2.63053,1.05907,1.57080,0.11675,-0.12764,-0.48152,0.03738,,,,,,,,,,,,,,,,,,,,,,,,,,0,0,0,0,0
0.7831,1783966958.2999,1,1,4.0000,-0.0000,1.42244,0.00071,-2.63053,1.05907,1.57080,0.11675,-0.12764,-0.48152,0.03738,,,,,,,,,,,,,,,,,,,,,,,,,,0,0,0,0,0
0.8061,1783966958.3229,1,1,4.0000,-0.0000,1.42244,0.00071,-2.63053,1.05907,1.57080,0.11675,-0.12764,-0.48152,0.03738,,,,,,,,,,,,,,,,,,,,,,,,,,0,0,0,0,0
0.8070,1783966958.3238,1,1,4.0000,-0.0000,1.42244,0.00071,-2.63053,1.05907,1.57080,0.11675,-0.12764,-0.48152,0.03738,,,,,,,,,,,,,,,,,,,,,,,,,,0,0,0,0,0
0.8073,1783966958.3241,1,1,4.0000,-0.0000,1.42244,0.00071,-2.63053,1.05907,1.57080,0.11675,-0.12764,-0.48152,0.03738,,,,,,,,,,,,,,,,,,,,,,,,,,0,0,0,0,0
0.8233,1783966958.3400,1,1,4.0000,-0.0000,1.42244,0.00071,-2.63053,1.05907,1.57080,0.11675,-0.12764,-0.48152,0.03738,,,,,,,,,,,,,,,,,,,,,,,,,,0,0,0,0,0
0.8237,1783966958.3405,1,1,4.0000,-0.0000,1.42244,0.00071,-2.63053,1.05907,1.57080,0.11675,-0.12764,-0.48152,0.03738,,,,,,,,,,,,,,,,,,,,,,,,,,0,0,0,0,0
0.8240,1783966958.3408,1,1,4.0000,-0.0000,1.42244,0.00071,-2.63053,1.05907,1.57080,0.11675,-0.12764,-0.48152,0.03738,,,,,,,,,,,,,,,,,,,,,,,,,,0,0,0,0,0
0.8277,1783966958.3445,1,1,4.0000,-0.0000,1.42244,0.00071,-2.63053,1.05907,1.57080,0.11675,-0.12764,-0.48152,0.03738,,,,,,,,,,,,,,,,,,,,,,,,,,0,0,0,0,0
0.8280,1783966958.3448,1,1,4.0000,-0.0000,1.42244,0.00071,-2.63053,1.05907,1.57080,0.11675,-0.12764,-0.48152,0.03738,,,,,,,,,,,,,,,,,,,,,,,,,,0,0,0,0,0
0.8534,1783966958.3702,1,1,4.0000,-0.0000,1.42244,0.00071,-2.63053,1.05907,1.57080,0.11675,-0.12764,-0.48152,0.03738,,,,,,,,,,,,,,,,,,,,,,,,,,0,0,0,0,0
0.8562,1783966958.3730,1,1,4.0000,-0.0000,1.42244,0.00071,-2.63053,1.05907,1.57080,0.11675,-0.12764,-0.48152,0.03738,,,,,,,,,,,,,,,,,,,,,,,,,,0,0,0,0,0
0.8591,1783966958.3758,1,1,4.0000,-0.0000,1.42244,0.00071,-2.63053,1.05907,1.57080,0.11675,-0.12764,-0.48152,0.03738,,,,,,,,,,,,,,,,,,,,,,,,,,0,0,0,0,0
0.8688,1783966958.3855,1,1,4.0000,-0.0000,1.42244,0.00071,-2.63053,1.05907,1.57080,0.11675,-0.12764,-0.48152,0.03738,,,,,,,,,,,,,,,,,,,,,,,,,,0,0,0,0,0
0.8696,1783966958.3864,1,1,4.0000,-0.0000,1.42244,0.00071,-2.63053,1.05907,1.57080,0.11675,-0.12764,-0.48152,0.03738,,,,,,,,,,,,,,,,,,,,,,,,,,0,0,0,0,0
0.8700,1783966958.3868,1,1,4.0000,-0.0000,1.42244,0.00071,-2.63053,1.05907,1.57080,0.11675,-0.12764,-0.48152,0.03738,,,,,,,,,,,,,,,,,,,,,,,,,,0,0,0,0,0
0.8727,1783966958.3895,1,1,4.0000,-0.0000,1.42244,0.00071,-2.63053,1.05907,1.57080,0.11675,-0.12764,-0.48152,0.03738,,,,,,,,,,,,,,,,,,,,,,,,,,0,0,0,0,0
0.8731,1783966958.3898,1,1,4.0000,-0.0000,1.42244,0.00071,-2.63053,1.05907,1.57080,0.11675,-0.12764,-0.48152,0.03738,,,,,,,,,,,,,,,,,,,,,,,,,,0,0,0,0,0
0.8820,1783966958.3988,1,1,4.0000,-0.0000,1.42244,0.00071,-2.63053,1.05907,1.57080,0.11675,-0.12764,-0.48152,0.03738,,,,,,,,,,,,,,,,,,,,,,,,,,0,0,0,0,0
0.8825,1783966958.3993,1,1,4.0000,-0.0000,1.42244,0.00071,-2.63053,1.05907,1.57080,0.11675,-0.12764,-0.48152,0.03738,,,,,,,,,,,,,,,,,,,,,,,,,,0,0,0,0,0
0.8966,1783966958.4133,1,1,4.0000,-0.0000,1.42244,0.00071,-2.63053,1.05907,1.57080,0.11675,-0.12764,-0.48152,0.03738,,,,,,,,,,,,,,,,,,,,,,,,,,0,0,0,0,0
0.8969,1783966958.4137,1,1,4.0000,-0.0000,1.42244,0.00071,-2.63053,1.05907,1.57080,0.11675,-0.12764,-0.48152,0.03738,,,,,,,,,,,,,,,,,,,,,,,,,,0,0,0,0,0
0.9046,1783966958.4214,1,1,4.0000,-0.0000,1.42244,0.00071,-2.63053,1.05907,1.57080,0.11675,-0.12764,-0.48152,0.03738,,,,,,,,,,,,,,,,,,,,,,,,,,0,0,0,0,0
0.9050,1783966958.4218,1,1,4.0000,-0.0000,1.42244,0.00071,-2.63053,1.05907,1.57080,0.11675,-0.12764,-0.48152,0.03738,,,,,,,,,,,,,,,,,,,,,,,,,,0,0,0,0,0
0.9157,1783966958.4325,1,1,4.0000,-0.0000,1.42244,0.00071,-2.63053,1.05907,1.57080,0.11675,-0.12764,-0.48152,0.03738,,,,,,,,,,,,,,,,,,,,,,,,,,0,0,0,0,0
0.9238,1783966958.4406,1,1,4.0000,-0.0000,1.42244,0.00071,-2.63053,1.05907,1.57080,0.11675,-0.12764,-0.48152,0.03738,,,,,,,,,,,,,,,,,,,,,,,,,,0,0,0,0,0
0.9387,1783966958.4555,1,1,4.0000,-0.0000,1.42244,0.00071,-2.63053,1.05907,1.57080,0.11675,-0.12764,-0.48152,0.03738,,,,,,,,,,,,,,,,,,,,,,,,,,0,0,0,0,0
0.9389,1783966958.4556,1,1,4.0000,-0.0000,1.42244,0.00071,-2.63053,1.05907,1.57080,0.11675,-0.12764,-0.48152,0.03738,,,,,,,,,,,,,,,,,,,,,,,,,,0,0,0,0,0
0.9456,1783966958.4623,1,1,4.0000,-0.0000,1.42244,0.00071,-2.63053,1.05907,1.57080,0.11675,-0.12764,-0.48152,0.03738,,,,,,,,,,,,,,,,,,,,,,,,,,0,0,0,0,0
0.9561,1783966958.4729,1,1,4.0000,-0.0000,1.42244,0.00071,-2.63053,1.05907,1.57080,0.11675,-0.12764,-0.48152,0.03738,,,,,,,,,,,,,,,,,,,,,,,,,,0,0,0,0,0
0.9654,1783966958.4822,1,1,4.0000,-0.0000,1.42244,0.00071,-2.63053,1.05907,1.57080,0.11675,-0.12764,-0.48152,0.03738,,,,,,,,,,,,,,,,,,,,,,,,,,0,0,0,0,0
0.9758,1783966958.4925,1,1,4.0000,-0.0000,1.42244,0.00071,-2.63053,1.05907,1.57080,0.11675,-0.12764,-0.48152,0.03738,,,,,,,,,,,,,,,,,,,,,,,,,,0,0,0,0,0
0.9835,1783966958.5003,1,1,4.0000,-0.0000,1.42244,0.00071,-2.63053,1.05907,1.57080,0.11675,-0.12764,-0.48152,0.03738,,,,,,,,,,,,,,,,,,,,,,,,,,0,0,0,0,0
0.9961,1783966958.5129,1,1,4.0000,-0.0000,1.42244,0.00071,-2.63053,1.05907,1.57080,0.11675,-0.12764,-0.48152,0.03738,,,,,,,,,,,,,,,,,,,,,,,,,,0,0,0,0,0
1.0025,1783966958.5192,1,1,4.0000,-0.0000,1.42244,0.00071,-2.63053,1.05907,1.57080,0.11675,-0.12764,-0.48152,0.03738,,,,,,,,,,,,,,,,,,,,,,,,,,0,0,0,0,0
1.0027,1783966958.5195,1,1,4.0000,-0.0000,1.42244,0.00071,-2.63053,1.05907,1.57080,0.11675,-0.12764,-0.48152,0.03738,,,,,,,,,,,,,,,,,,,,,,,,,,0,0,0,0,0
1.0241,1783966958.5409,1,1,4.0000,-0.0000,1.42244,0.00070,-2.63056,1.05907,1.57080,0.11675,-0.12764,-0.48150,0.03736,,,,,,,,,,,,,,,,,,,,,,,,,,0,0,0,0,0
1.0296,1783966958.5464,1,1,4.0000,-0.0000,1.42244,0.00070,-2.63056,1.05907,1.57080,0.11675,-0.12764,-0.48150,0.03736,,,,,,,,,,,,,,,,,,,,,,,,,,0,0,0,0,0
1.0324,1783966958.5491,1,1,4.0000,-0.0000,1.42244,0.00070,-2.63056,1.05907,1.57080,0.11675,-0.12764,-0.48150,0.03736,,,,,,,,,,,,,,,,,,,,,,,,,,0,0,0,0,0
1.0584,1783966958.5752,1,1,4.0000,-0.0000,1.42244,0.00065,-2.63062,1.05908,1.57080,0.11675,-0.12765,-0.48145,0.03731,,,,,,,,,,,,,,,,,,,,,,,,,,0,0,0,0,0
1.0637,1783966958.5805,1,1,4.0000,-0.0000,1.42244,0.00065,-2.63062,1.05908,1.57080,0.11675,-0.12765,-0.48145,0.03731,,,,,,,,,,,,,,,,,,,,,,,,,,0,0,0,0,0
1.0678,1783966958.5846,1,1,4.0000,-0.0000,1.42244,0.00064,-2.63063,1.05909,1.57080,0.11675,-0.12765,-0.48145,0.03731,,,,,,,,,,,,,,,,,,,,,,,,,,0,0,0,0,0
1.0756,1783966958.5924,1,1,4.0000,-0.0000,1.42244,0.00061,-2.63064,1.05910,1.57080,0.11675,-0.12765,-0.48144,0.03729,,,,,,,,,,,,,,,,,,,,,,,,,,0,0,0,0,0
1.0892,1783966958.6060,1,1,4.0000,-0.0000,1.42244,0.00055,-2.63068,1.05914,1.57080,0.11675,-0.12765,-0.48141,0.03725,,,,,,,,,,,,,,,,,,,,,,,,,,0,0,0,0,0
1.0911,1783966958.6079,1,1,4.0000,-0.0000,1.42244,0.00055,-2.63068,1.05914,1.57080,0.11675,-0.12765,-0.48141,0.03725,,,,,,,,,,,,,,,,,,,,,,,,,,0,0,0,0,0
1.0914,1783966958.6082,1,1,4.0000,-0.0000,1.42244,0.00055,-2.63068,1.05914,1.57080,0.11675,-0.12765,-0.48141,0.03725,,,,,,,,,,,,,,,,,,,,,,,,,,0,0,0,0,0
1.1046,1783966958.6214,1,1,4.0000,-0.0000,1.42244,0.00052,-2.63069,1.05917,1.57080,0.11675,-0.12765,-0.48141,0.03724,,,,,,,,,,,,,,,,,,,,,,,,,,0,0,0,0,0
1.1264,1783966958.6432,1,1,4.0000,-0.0000,1.42244,0.00041,-2.63071,1.05928,1.57080,0.11675,-0.12765,-0.48140,0.03720,,,,,,,,,,,,,,,,,,,,,,,,,,0,0,0,0,0
1.1363,1783966958.6531,1,1,4.0000,-0.0000,1.42244,0.00035,-2.63073,1.05935,1.57080,0.11675,-0.12765,-0.48140,0.03718,,,,,,,,,,,,,,,,,,,,,,,,,,0,0,0,0,0
1.1377,1783966958.6545,1,1,4.0000,-0.0000,1.42244,0.00035,-2.63073,1.05935,1.57080,0.11675,-0.12765,-0.48140,0.03718,,,,,,,,,,,,,,,,,,,,,,,,,,0,0,0,0,0
1.1380,1783966958.6548,1,1,4.0000,-0.0000,1.42244,0.00035,-2.63073,1.05935,1.57080,0.11675,-0.12765,-0.48140,0.03718,,,,,,,,,,,,,,,,,,,,,,,,,,0,0,0,0,0
1.1496,1783966958.6663,1,1,4.0000,-0.0000,1.42244,0.00021,-2.63075,1.05952,1.57080,0.11675,-0.12765,-0.48140,0.03713,,,,,,,,,,,,,,,,,,,,,,,,,,0,0,0,0,0
1.1515,1783966958.6683,1,1,4.0000,-0.0000,1.42244,0.00021,-2.63075,1.05952,1.57080,0.11675,-0.12765,-0.48140,0.03713,,,,,,,,,,,,,,,,,,,,,,,,,,0,0,0,0,0
1.1637,1783966958.6805,1,1,4.0000,-0.0000,1.42244,0.00016,-2.63076,1.05958,1.57080,0.11675,-0.12765,-0.48141,0.03712,,,,,,,,,,,,,,,,,,,,,,,,,,0,0,0,0,0
1.1751,1783966958.6919,1,1,4.0000,-0.0000,1.42244,0.00004,-2.63078,1.05972,1.57080,0.11675,-0.12765,-0.48141,0.03708,,,,,,,,,,,,,,,,,,,,,,,,,,0,0,0,0,0
1.1888,1783966958.7055,1,1,4.0000,-0.0000,1.42244,-0.00001,-2.63079,1.05978,1.57080,0.11675,-0.12765,-0.48141,0.03706,,,,,,,,,,,,,,,,,,,,,,,,,,0,0,0,0,0
1.1987,1783966958.7155,1,1,4.0000,-0.0000,1.42244,-0.00007,-2.63079,1.05986,1.57080,0.11675,-0.12765,-0.48142,0.03705,,,,,,,,,,,,,,,,,,,,,,,,,,0,0,0,0,0
1.1991,1783966958.7159,1,1,4.0000,-0.0000,1.42244,-0.00007,-2.63079,1.05986,1.57080,0.11675,-0.12765,-0.48142,0.03705,,,,,,,,,,,,,,,,,,,,,,,,,,0,0,0,0,0
1.2051,1783966958.7219,1,1,4.0000,-0.0000,1.42244,-0.00011,-2.63080,1.05991,1.57080,0.11675,-0.12765,-0.48142,0.03704,,,,,,,,,,,,,,,,,,,,,,,,,,0,0,0,0,0
1.2115,1783966958.7283,1,1,4.0000,-0.0000,1.42244,-0.00018,-2.63080,1.06001,1.57080,0.11675,-0.12765,-0.48143,0.03702,,,,,,,,,,,,,,,,,,,,,,,,,,0,0,0,0,0
1.2253,1783966958.7421,1,1,4.0000,-0.0000,1.42244,-0.00031,-2.63080,1.06018,1.57080,0.11675,-0.12764,-0.48146,0.03699,,,,,,,,,,,,,,,,,,,,,,,,,,0,0,0,0,0
1.2316,1783966958.7484,1,1,4.0000,-0.0000,1.42244,-0.00038,-2.63080,1.06028,1.57080,0.11675,-0.12764,-0.48147,0.03697,,,,,,,,,,,,,,,,,,,,,,,,,,0,0,0,0,0
1.2426,1783966958.7594,1,1,4.0000,-0.0000,1.42244,-0.00046,-2.63079,1.06040,1.57080,0.11675,-0.12764,-0.48150,0.03696,,,,,,,,,,,,,,,,,,,,,,,,,,0,0,0,0,0
1.2524,1783966958.7692,1,1,4.0000,-0.0000,1.42244,-0.00046,-2.63079,1.06040,1.57080,0.11675,-0.12764,-0.48150,0.03696,,,,,,,,,,,,,,,,,,,,,,,,,,0,0,0,0,0
1.2620,1783966958.7787,1,1,4.0000,-0.0000,1.42244,-0.00046,-2.63079,1.06040,1.57080,0.11675,-0.12764,-0.48150,0.03696,,,,,,,,,,,,,,,,,,,,,,,,,,0,0,0,0,0
1.2725,1783966958.7892,1,1,4.0000,-0.0000,1.42244,-0.00046,-2.63079,1.06040,1.57080,0.11675,-0.12764,-0.48150,0.03696,,,,,,,,,,,,,,,,,,,,,,,,,,0,0,0,0,0
1.2827,1783966958.7994,1,1,4.0000,-0.0000,1.42244,-0.00046,-2.63079,1.06040,1.57080,0.11675,-0.12764,-0.48150,0.03696,,,,,,,,,,,,,,,,,,,,,,,,,,0,0,0,0,0
1.2935,1783966958.8103,1,1,4.0000,-0.0000,1.42244,-0.00046,-2.63079,1.06040,1.57080,0.11675,-0.12764,-0.48150,0.03696,,,,,,,,,,,,,,,,,,,,,,,,,,0,0,0,0,0
1.3056,1783966958.8224,1,1,4.0000,-0.0000,1.42244,-0.00046,-2.63079,1.06040,1.57080,0.11675,-0.12764,-0.48150,0.03696,,,,,,,,,,,,,,,,,,,,,,,,,,0,0,0,0,0
1.3061,1783966958.8229,1,1,4.0000,-0.0000,1.42244,-0.00046,-2.63079,1.06040,1.57080,0.11675,-0.12764,-0.48150,0.03696,,,,,,,,,,,,,,,,,,,,,,,,,,0,0,0,0,0
1.3170,1783966958.8338,1,1,4.0000,-0.0000,1.42244,-0.00046,-2.63079,1.06040,1.57080,0.11675,-0.12764,-0.48150,0.03696,,,,,,,,,,,,,,,,,,,,,,,,,,0,0,0,0,0
1.3175,1783966958.8343,1,1,4.0000,-0.0000,1.42244,-0.00046,-2.63079,1.06040,1.57080,0.11675,-0.12764,-0.48150,0.03696,,,,,,,,,,,,,,,,,,,,,,,,,,0,0,0,0,0
1.3255,1783966958.8422,1,1,4.0000,-0.0000,1.42244,-0.00046,-2.63079,1.06040,1.57080,0.11675,-0.12764,-0.48150,0.03696,,,,,,,,,,,,,,,,,,,,,,,,,,0,0,0,0,0
1.3362,1783966958.8529,1,1,4.0000,-0.0000,1.42244,-0.00046,-2.63079,1.06040,1.57080,0.11675,-0.12764,-0.48150,0.03696,,,,,,,,,,,,,,,,,,,,,,,,,,0,0,0,0,0
1.3461,1783966958.8629,1,1,4.0000,-0.0000,1.42244,-0.00046,-2.63079,1.06040,1.57080,0.11675,-0.12764,-0.48150,0.03696,,,,,,,,,,,,,,,,,,,,,,,,,,0,0,0,0,0
1.3523,1783966958.8691,1,1,4.0000,-0.0000,1.42244,-0.00046,-2.63079,1.06040,1.57080,0.11675,-0.12764,-0.48150,0.03696,,,,,,,,,,,,,,,,,,,,,,,,,,0,0,0,0,0
1.3616,1783966958.8784,1,1,4.0000,-0.0000,1.42244,-0.00046,-2.63079,1.06040,1.57080,0.11675,-0.12764,-0.48150,0.03696,,,,,,,,,,,,,,,,,,,,,,,,,,0,0,0,0,0
1.3773,1783966958.8941,1,1,4.0000,-0.0000,1.42244,-0.00046,-2.63079,1.06040,1.57080,0.11675,-0.12764,-0.48150,0.03696,,,,,,,,,,,,,,,,,,,,,,,,,,0,0,0,0,0
1.3813,1783966958.8981,1,1,4.0000,-0.0000,1.42244,-0.00046,-2.63079,1.06040,1.57080,0.11675,-0.12764,-0.48150,0.03696,,,,,,,,,,,,,,,,,,,,,,,,,,0,0,0,0,0
1.3818,1783966958.8986,1,1,4.0000,-0.0000,1.42244,-0.00046,-2.63079,1.06040,1.57080,0.11675,-0.12764,-0.48150,0.03696,,,,,,,,,,,,,,,,,,,,,,,,,,0,0,0,0,0
1.3954,1783966958.9122,1,1,4.0000,-0.0000,1.42244,-0.00046,-2.63079,1.06040,1.57080,0.11675,-0.12764,-0.48150,0.03696,,,,,,,,,,,,,,,,,,,,,,,,,,0,0,0,0,0
1.4066,1783966958.9234,1,1,4.0000,-0.0000,1.42244,-0.00046,-2.63079,1.06040,1.57080,0.11675,-0.12764,-0.48150,0.03696,,,,,,,,,,,,,,,,,,,,,,,,,,0,0,0,0,0
1.4159,1783966958.9327,1,1,4.0000,-0.0000,1.42244,-0.00046,-2.63079,1.06040,1.57080,0.11675,-0.12764,-0.48150,0.03696,,,,,,,,,,,,,,,,,,,,,,,,,,0,0,0,0,0
1.4364,1783966958.9532,1,1,4.0000,-0.0000,1.42244,-0.00047,-2.63079,1.06042,1.57080,0.11675,-0.12764,-0.48150,0.03697,,,,,,,,,,,,,,,,,,,,,,,,,,0,0,0,0,0
1.4485,1783966958.9653,1,1,4.0000,-0.0000,1.42244,-0.00048,-2.63080,1.06046,1.57080,0.11675,-0.12764,-0.48151,0.03696,,,,,,,,,,,,,,,,,,,,,,,,,,0,0,0,0,0
1.4552,1783966958.9720,1,1,4.0000,-0.0000,1.42244,-0.00048,-2.63080,1.06046,1.57080,0.11675,-0.12764,-0.48150,0.03696,,,,,,,,,,,,,,,,,,,,,,,,,,0,0,0,0,0
1.4556,1783966958.9724,1,1,4.0000,-0.0000,1.42244,-0.00048,-2.63080,1.06046,1.57080,0.11675,-0.12764,-0.48150,0.03696,,,,,,,,,,,,,,,,,,,,,,,,,,0,0,0,0,0
1.4561,1783966958.9729,1,1,4.0000,-0.0000,1.42244,-0.00048,-2.63080,1.06046,1.57080,0.11675,-0.12764,-0.48150,0.03696,,,,,,,,,,,,,,,,,,,,,,,,,,0,0,0,0,0
1.4695,1783966958.9863,1,1,4.0000,-0.0000,1.42244,-0.00050,-2.63083,1.06050,1.57080,0.11675,-0.12764,-0.48149,0.03695,,,,,,,,,,,,,,,,,,,,,,,,,,0,0,0,0,0
1.4818,1783966958.9986,1,1,4.0000,-0.0000,1.42244,-0.00055,-2.63087,1.06057,1.57080,0.11675,-0.12764,-0.48147,0.03692,,,,,,,,,,,,,,,,,,,,,,,,,,0,0,0,0,0
1.4867,1783966959.0035,1,1,4.0000,-0.0000,1.42244,-0.00056,-2.63087,1.06057,1.57080,0.11675,-0.12764,-0.48147,0.03692,,,,,,,,,,,,,,,,,,,,,,,,,,0,0,0,0,0
1.4913,1783966959.0081,1,1,4.0000,-0.0000,1.42244,-0.00057,-2.63088,1.06059,1.57080,0.11675,-0.12764,-0.48147,0.03691,,,,,,,,,,,,,,,,,,,,,,,,,,0,0,0,0,0
1.4916,1783966959.0084,1,1,4.0000,-0.0000,1.42244,-0.00057,-2.63088,1.06059,1.57080,0.11675,-0.12764,-0.48147,0.03691,,,,,,,,,,,,,,,,,,,,,,,,,,0,0,0,0,0
1.5051,1783966959.0218,1,1,4.0000,-0.0000,1.42244,-0.00062,-2.63091,1.06066,1.57080,0.11675,-0.12764,-0.48145,0.03688,,,,,,,,,,,,,,,,,,,,,,,,,,0,0,0,0,0
1.5114,1783966959.0282,1,1,4.0000,-0.0000,1.42244,-0.00065,-2.63093,1.06069,1.57080,0.11675,-0.12764,-0.48145,0.03687,,,,,,,,,,,,,,,,,,,,,,,,,,0,0,0,0,0
1.5228,1783966959.0396,1,1,4.0000,-0.0000,1.42244,-0.00069,-2.63094,1.06074,1.57080,0.11675,-0.12764,-0.48145,0.03686,,,,,,,,,,,,,,,,,,,,,,,,,,0,0,0,0,0
1.5395,1783966959.0563,1,1,4.0000,-0.0000,1.42244,-0.00082,-2.63097,1.06092,1.57080,0.11675,-0.12764,-0.48144,0.03681,,,,,,,,,,,,,,,,,,,,,,,,,,0,0,0,0,0
1.5416,1783966959.0584,1,1,4.0000,-0.0000,1.42244,-0.00082,-2.63097,1.06092,1.57080,0.11675,-0.12764,-0.48144,0.03681,,,,,,,,,,,,,,,,,,,,,,,,,,0,0,0,0,0
1.5418,1783966959.0586,1,1,4.0000,-0.0000,1.42244,-0.00082,-2.63097,1.06092,1.57080,0.11675,-0.12764,-0.48144,0.03681,,,,,,,,,,,,,,,,,,,,,,,,,,0,0,0,0,0
1.5656,1783966959.0824,1,1,4.0000,-0.0000,1.42244,-0.00094,-2.63100,1.06107,1.57080,0.11675,-0.12764,-0.48145,0.03677,,,,,,,,,,,,,,,,,,,,,,,,,,0,0,0,0,0
1.5691,1783966959.0858,1,1,4.0000,-0.0000,1.42244,-0.00099,-2.63101,1.06112,1.57080,0.11675,-0.12764,-0.48145,0.03676,,,,,,,,,,,,,,,,,,,,,,,,,,0,0,0,0,0
1.5694,1783966959.0862,1,1,4.0000,-0.0000,1.42244,-0.00099,-2.63101,1.06112,1.57080,0.11675,-0.12764,-0.48145,0.03676,,,,,,,,,,,,,,,,,,,,,,,,,,0,0,0,0,0
1.5746,1783966959.0914,1,1,4.0000,-0.0000,1.42244,-0.00104,-2.63101,1.06118,1.57080,0.11675,-0.12764,-0.48145,0.03674,,,,,,,,,,,,,,,,,,,,,,,,,,0,0,0,0,0
1.5845,1783966959.1013,1,1,4.0000,-0.0000,1.42244,-0.00106,-2.63102,1.06121,1.57080,0.11675,-0.12764,-0.48145,0.03673,,,,,,,,,,,,,,,,,,,,,,,,,,0,0,0,0,0
1.5930,1783966959.1098,1,1,4.0000,-0.0000,1.42244,-0.00112,-2.63103,1.06128,1.57080,0.11675,-0.12764,-0.48145,0.03672,,,,,,,,,,,,,,,,,,,,,,,,,,0,0,0,0,0
1.5935,1783966959.1103,1,1,4.0000,-0.0000,1.42244,-0.00112,-2.63103,1.06128,1.57080,0.11675,-0.12764,-0.48145,0.03672,,,,,,,,,,,,,,,,,,,,,,,,,,0,0,0,0,0
1.6088,1783966959.1256,1,1,4.0000,-0.0000,1.42244,-0.00130,-2.63106,1.06150,1.57080,0.11675,-0.12764,-0.48146,0.03666,,,,,,,,,,,,,,,,,,,,,,,,,,0,0,0,0,0
1.6159,1783966959.1327,1,1,4.0000,-0.0000,1.42244,-0.00140,-2.63107,1.06163,1.57080,0.11675,-0.12764,-0.48147,0.03663,,,,,,,,,,,,,,,,,,,,,,,,,,0,0,0,0,0
1.6235,1783966959.1403,1,1,4.0000,-0.0000,1.42244,-0.00149,-2.63109,1.06175,1.57080,0.11675,-0.12764,-0.48147,0.03660,,,,,,,,,,,,,,,,,,,,,,,,,,0,0,0,0,0
1.6324,1783966959.1492,1,1,4.0000,-0.0000,1.42244,-0.00157,-2.63110,1.06185,1.57080,0.11675,-0.12764,-0.48148,0.03658,,,,,,,,,,,,,,,,,,,,,,,,,,0,0,0,0,0
1.6327,1783966959.1495,1,1,4.0000,-0.0000,1.42244,-0.00157,-2.63110,1.06185,1.57080,0.11675,-0.12764,-0.48148,0.03658,,,,,,,,,,,,,,,,,,,,,,,,,,0,0,0,0,0
1.6446,1783966959.1613,1,1,4.0000,-0.0000,1.42244,-0.00160,-2.63110,1.06189,1.57080,0.11675,-0.12764,-0.48149,0.03657,,,,,,,,,,,,,,,,,,,,,,,,,,0,0,0,0,0
1.6615,1783966959.1783,1,1,4.0000,-0.0000,1.42244,-0.00160,-2.63110,1.06189,1.57080,0.11675,-0.12764,-0.48149,0.03657,,,,,,,,,,,,,,,,,,,,,,,,,,0,0,0,0,0
1.6644,1783966959.1812,1,1,4.0000,-0.0000,1.42244,-0.00160,-2.63110,1.06189,1.57080,0.11675,-0.12764,-0.48149,0.03657,,,,,,,,,,,,,,,,,,,,,,,,,,0,0,0,0,0
1.6713,1783966959.1881,1,1,4.0000,-0.0000,1.42244,-0.00160,-2.63110,1.06189,1.57080,0.11675,-0.12764,-0.48149,0.03657,,,,,,,,,,,,,,,,,,,,,,,,,,0,0,0,0,0
1.6826,1783966959.1994,1,1,4.0000,-0.0000,1.42244,-0.00160,-2.63110,1.06189,1.57080,0.11675,-0.12764,-0.48149,0.03657,,,,,,,,,,,,,,,,,,,,,,,,,,0,0,0,0,0
1.6931,1783966959.2099,1,1,4.0000,-0.0000,1.42244,-0.00160,-2.63110,1.06189,1.57080,0.11675,-0.12764,-0.48149,0.03657,,,,,,,,,,,,,,,,,,,,,,,,,,0,0,0,0,0
1.7054,1783966959.2222,1,1,4.0000,-0.0000,1.42244,-0.00160,-2.63110,1.06189,1.57080,0.11675,-0.12764,-0.48149,0.03657,,,,,,,,,,,,,,,,,,,,,,,,,,0,0,0,0,0
1.7059,1783966959.2227,1,1,4.0000,-0.0000,1.42244,-0.00160,-2.63110,1.06189,1.57080,0.11675,-0.12764,-0.48149,0.03657,,,,,,,,,,,,,,,,,,,,,,,,,,0,0,0,0,0
1.7135,1783966959.2303,1,1,4.0000,-0.0000,1.42244,-0.00160,-2.63110,1.06189,1.57080,0.11675,-0.12764,-0.48149,0.03657,,,,,,,,,,,,,,,,,,,,,,,,,,0,0,0,0,0
1.7273,1783966959.2441,1,1,4.0000,-0.0000,1.42244,-0.00160,-2.63110,1.06189,1.57080,0.11675,-0.12764,-0.48149,0.03657,,,,,,,,,,,,,,,,,,,,,,,,,,0,0,0,0,0
1.7347,1783966959.2515,1,1,4.0000,-0.0000,1.42244,-0.00160,-2.63110,1.06189,1.57080,0.11675,-0.12764,-0.48149,0.03657,,,,,,,,,,,,,,,,,,,,,,,,,,0,0,0,0,0
1.7350,1783966959.2518,1,1,4.0000,-0.0000,1.42244,-0.00160,-2.63110,1.06189,1.57080,0.11675,-0.12764,-0.48149,0.03657,,,,,,,,,,,,,,,,,,,,,,,,,,0,0,0,0,0
1.7530,1783966959.2698,1,1,4.0000,-0.0000,1.42244,-0.00160,-2.63110,1.06189,1.57080,0.11675,-0.12764,-0.48149,0.03657,,,,,,,,,,,,,,,,,,,,,,,,,,0,0,0,0,0
1.7629,1783966959.2797,1,1,4.0000,-0.0000,1.42244,-0.00160,-2.63110,1.06189,1.57080,0.11675,-0.12764,-0.48149,0.03657,,,,,,,,,,,,,,,,,,,,,,,,,,0,0,0,0,0
1.7635,1783966959.2803,1,1,4.0000,-0.0000,1.42244,-0.00160,-2.63110,1.06189,1.57080,0.11675,-0.12764,-0.48149,0.03657,,,,,,,,,,,,,,,,,,,,,,,,,,0,0,0,0,0
1.7738,1783966959.2906,1,1,4.0000,-0.0000,1.42244,-0.00160,-2.63110,1.06189,1.57080,0.11675,-0.12764,-0.48149,0.03657,,,,,,,,,,,,,,,,,,,,,,,,,,0,0,0,0,0
1.7848,1783966959.3016,1,1,4.0000,-0.0000,1.42244,-0.00160,-2.63110,1.06189,1.57080,0.11675,-0.12764,-0.48149,0.03657,,,,,,,,,,,,,,,,,,,,,,,,,,0,0,0,0,0
1.7938,1783966959.3106,1,1,4.0000,-0.0000,1.42244,-0.00160,-2.63110,1.06189,1.57080,0.11675,-0.12764,-0.48149,0.03657,,,,,,,,,,,,,,,,,,,,,,,,,,0,0,0,0,0
1.8043,1783966959.3211,1,1,4.0000,-0.0000,1.42244,-0.00160,-2.63110,1.06189,1.57080,0.11675,-0.12764,-0.48149,0.03657,,,,,,,,,,,,,,,,,,,,,,,,,,0,0,0,0,0
1.8116,1783966959.3284,1,1,4.0000,-0.0000,1.42244,-0.00160,-2.63110,1.06189,1.57080,0.11675,-0.12764,-0.48149,0.03657,,,,,,,,,,,,,,,,,,,,,,,,,,0,0,0,0,0
1.8223,1783966959.3391,1,1,4.0000,-0.0000,1.42244,-0.00160,-2.63110,1.06189,1.57080,0.11675,-0.12764,-0.48149,0.03657,,,,,,,,,,,,,,,,,,,,,,,,,,0,0,0,0,0
1.8435,1783966959.3603,1,1,4.0000,-0.0000,1.42244,-0.00160,-2.63110,1.06189,1.57080,0.11675,-0.12764,-0.48149,0.03657,,,,,,,,,,,,,,,,,,,,,,,,,,0,0,0,0,0
1.8491,1783966959.3658,1,1,4.0000,-0.0000,1.42244,-0.00160,-2.63110,1.06189,1.57080,0.11675,-0.12764,-0.48149,0.03657,,,,,,,,,,,,,,,,,,,,,,,,,,0,0,0,0,0
1.8494,1783966959.3662,1,1,4.0000,-0.0000,1.42244,-0.00160,-2.63110,1.06189,1.57080,0.11675,-0.12764,-0.48149,0.03657,,,,,,,,,,,,,,,,,,,,,,,,,,0,0,0,0,0
1.8559,1783966959.3727,1,1,4.0000,-0.0000,1.42244,-0.00160,-2.63109,1.06190,1.57080,0.11675,-0.12764,-0.48149,0.03657,,,,,,,,,,,,,,,,,,,,,,,,,,0,0,0,0,0
1.8643,1783966959.3811,1,1,4.0000,-0.0000,1.42244,-0.00161,-2.63109,1.06191,1.57080,0.11675,-0.12764,-0.48150,0.03657,,,,,,,,,,,,,,,,,,,,,,,,,,0,0,0,0,0
1.8763,1783966959.3931,1,1,4.0000,-0.0000,1.42244,-0.00162,-2.63109,1.06193,1.57080,0.11675,-0.12763,-0.48150,0.03657,,,,,,,,,,,,,,,,,,,,,,,,,,0,0,0,0,0
1.8868,1783966959.4036,1,1,4.0000,-0.0000,1.42243,-0.00165,-2.63111,1.06196,1.57080,0.11675,-0.12764,-0.48149,0.03656,,,,,,,,,,,,,,,,,,,,,,,,,,0,0,0,0,0
1.8938,1783966959.4106,1,1,4.0000,-0.0000,1.42243,-0.00166,-2.63112,1.06197,1.57080,0.11675,-0.12764,-0.48149,0.03655,,,,,,,,,,,,,,,,,,,,,,,,,,0,0,0,0,0
1.9065,1783966959.4233,1,1,4.0000,-0.0000,1.42243,-0.00170,-2.63114,1.06202,1.57080,0.11675,-0.12764,-0.48147,0.03653,,,,,,,,,,,,,,,,,,,,,,,,,,0,0,0,0,0
1.9131,1783966959.4299,1,1,4.0000,-0.0000,1.42243,-0.00171,-2.63115,1.06203,1.57080,0.11675,-0.12764,-0.48147,0.03653,,,,,,,,,,,,,,,,,,,,,,,,,,0,0,0,0,0
1.9135,1783966959.4303,1,1,4.0000,-0.0000,1.42243,-0.00171,-2.63115,1.06203,1.57080,0.11675,-0.12764,-0.48147,0.03653,,,,,,,,,,,,,,,,,,,,,,,,,,0,0,0,0,0
1.9231,1783966959.4399,1,1,4.0000,-0.0000,1.42243,-0.00176,-2.63118,1.06209,1.57080,0.11675,-0.12764,-0.48146,0.03650,,,,,,,,,,,,,,,,,,,,,,,,,,0,0,0,0,0
1.9456,1783966959.4624,1,1,4.0000,-0.0000,1.42243,-0.00183,-2.63120,1.06217,1.57080,0.11675,-0.12764,-0.48145,0.03647,,,,,,,,,,,,,,,,,,,,,,,,,,0,0,0,0,0
1.9531,1783966959.4699,1,1,4.0000,-0.0000,1.42243,-0.00187,-2.63122,1.06222,1.57080,0.11675,-0.12764,-0.48144,0.03645,,,,,,,,,,,,,,,,,,,,,,,,,,0,0,0,0,0
1.9534,1783966959.4702,1,1,4.0000,-0.0000,1.42243,-0.00187,-2.63122,1.06222,1.57080,0.11675,-0.12764,-0.48144,0.03645,,,,,,,,,,,,,,,,,,,,,,,,,,0,0,0,0,0
1.9538,1783966959.4705,1,1,4.0000,-0.0000,1.42243,-0.00187,-2.63122,1.06222,1.57080,0.11675,-0.12764,-0.48144,0.03645,,,,,,,,,,,,,,,,,,,,,,,,,,0,0,0,0,0
1.9540,1783966959.4708,1,1,4.0000,-0.0000,1.42243,-0.00187,-2.63122,1.06222,1.57080,0.11675,-0.12764,-0.48144,0.03645,,,,,,,,,,,,,,,,,,,,,,,,,,0,0,0,0,0
1.9668,1783966959.4836,1,1,4.0000,-0.0000,1.42243,-0.00193,-2.63123,1.06229,1.57080,0.11675,-0.12764,-0.48145,0.03644,,,,,,,,,,,,,,,,,,,,,,,,,,0,0,0,0,0
1.9746,1783966959.4913,1,1,4.0000,-0.0000,1.42243,-0.00200,-2.63124,1.06237,1.57080,0.11675,-0.12764,-0.48145,0.03641,,,,,,,,,,,,,,,,,,,,,,,,,,0,0,0,0,0
1.9817,1783966959.4984,1,1,4.0000,-0.0000,1.42243,-0.00204,-2.63125,1.06243,1.57080,0.11675,-0.12764,-0.48145,0.03640,,,,,,,,,,,,,,,,,,,,,,,,,,0,0,0,0,0
1.9914,1783966959.5082,1,1,4.0000,-0.0000,1.42243,-0.00216,-2.63127,1.06256,1.57080,0.11675,-0.12764,-0.48145,0.03636,,,,,,,,,,,,,,,,,,,,,,,,,,0,0,0,0,0
2.0033,1783966959.5201,1,1,4.0000,-0.0000,1.42243,-0.00220,-2.63128,1.06262,1.57080,0.11675,-0.12764,-0.48145,0.03635,,,,,,,,,,,,,,,,,,,,,,,,,,0,0,0,0,0
2.0182,1783966959.5350,1,1,4.0000,-0.0000,1.42243,-0.00233,-2.63130,1.06277,1.57080,0.11675,-0.12764,-0.48146,0.03631,,,,,,,,,,,,,,,,,,,,,,,,,,0,0,0,0,0
2.0188,1783966959.5356,1,1,4.0000,-0.0000,1.42243,-0.00237,-2.63130,1.06283,1.57080,0.11675,-0.12764,-0.48146,0.03629,,,,,,,,,,,,,,,,,,,,,,,,,,0,0,0,0,0
2.0220,1783966959.5388,1,1,4.0000,-0.0000,1.42243,-0.00237,-2.63130,1.06283,1.57080,0.11675,-0.12764,-0.48146,0.03629,,,,,,,,,,,,,,,,,,,,,,,,,,0,0,0,0,0
2.0227,1783966959.5394,1,1,4.0000,-0.0000,1.42243,-0.00237,-2.63130,1.06283,1.57080,0.11675,-0.12764,-0.48146,0.03629,,,,,,,,,,,,,,,,,,,,,,,,,,0,0,0,0,0
2.0349,1783966959.5517,1,1,4.0000,-0.0000,1.42243,-0.00241,-2.63131,1.06288,1.57080,0.11675,-0.12764,-0.48147,0.03628,,,,,,,,,,,,,,,,,,,,,,,,,,0,0,0,0,0
2.0447,1783966959.5615,1,1,4.0000,-0.0000,1.42243,-0.00248,-2.63131,1.06295,1.57080,0.11675,-0.12764,-0.48147,0.03627,,,,,,,,,,,,,,,,,,,,,,,,,,0,0,0,0,0
2.0516,1783966959.5684,1,1,4.0000,-0.0000,1.42243,-0.00255,-2.63131,1.06305,1.57080,0.11675,-0.12764,-0.48148,0.03625,,,,,,,,,,,,,,,,,,,,,,,,,,0,0,0,0,0
2.0617,1783966959.5784,1,1,4.0000,-0.0000,1.42243,-0.00264,-2.63131,1.06316,1.57080,0.11675,-0.12763,-0.48150,0.03623,,,,,,,,,,,,,,,,,,,,,,,,,,0,0,0,0,0
2.0714,1783966959.5882,1,1,4.0000,-0.0000,1.42243,-0.00275,-2.63131,1.06330,1.57080,0.11675,-0.12763,-0.48152,0.03620,,,,,,,,,,,,,,,,,,,,,,,,,,0,0,0,0,0
2.0819,1783966959.5987,1,1,4.0000,-0.0000,1.42243,-0.00281,-2.63130,1.06337,1.57080,0.11675,-0.12763,-0.48154,0.03620,,,,,,,,,,,,,,,,,,,,,,,,,,0,0,0,0,0
2.0970,1783966959.6138,1,1,4.0000,-0.0000,1.42243,-0.00283,-2.63129,1.06340,1.57080,0.11675,-0.12763,-0.48155,0.03620,,,,,,,,,,,,,,,,,,,,,,,,,,0,0,0,0,0
2.1010,1783966959.6178,1,1,4.0000,-0.0000,1.42243,-0.00283,-2.63129,1.06340,1.57080,0.11675,-0.12763,-0.48155,0.03620,,,,,,,,,,,,,,,,,,,,,,,,,,0,0,0,0,0
2.1014,1783966959.6182,1,1,4.0000,-0.0000,1.42243,-0.00283,-2.63129,1.06340,1.57080,0.11675,-0.12763,-0.48155,0.03620,,,,,,,,,,,,,,,,,,,,,,,,,,0,0,0,0,0
2.1136,1783966959.6304,1,1,4.0000,-0.0000,1.42243,-0.00283,-2.63129,1.06340,1.57080,0.11675,-0.12763,-0.48155,0.03620,,,,,,,,,,,,,,,,,,,,,,,,,,0,0,0,0,0
2.1212,1783966959.6380,1,1,4.0000,-0.0000,1.42243,-0.00283,-2.63129,1.06340,1.57080,0.11675,-0.12763,-0.48155,0.03620,,,,,,,,,,,,,,,,,,,,,,,,,,0,0,0,0,0
2.1215,1783966959.6383,1,1,4.0000,-0.0000,1.42243,-0.00283,-2.63129,1.06340,1.57080,0.11675,-0.12763,-0.48155,0.03620,,,,,,,,,,,,,,,,,,,,,,,,,,0,0,0,0,0
2.1348,1783966959.6516,1,1,4.0000,-0.0000,1.42243,-0.00283,-2.63129,1.06340,1.57080,0.11675,-0.12763,-0.48155,0.03620,,,,,,,,,,,,,,,,,,,,,,,,,,0,0,0,0,0
2.1560,1783966959.6727,1,1,4.0000,-0.0000,1.42243,-0.00283,-2.63129,1.06340,1.57080,0.11675,-0.12763,-0.48155,0.03620,,,,,,,,,,,,,,,,,,,,,,,,,,0,0,0,0,0
2.1564,1783966959.6732,1,1,4.0000,-0.0000,1.42243,-0.00283,-2.63129,1.06340,1.57080,0.11675,-0.12763,-0.48155,0.03620,,,,,,,,,,,,,,,,,,,,,,,,,,0,0,0,0,0
2.1615,1783966959.6783,1,1,4.0000,-0.0000,1.42243,-0.00283,-2.63129,1.06340,1.57080,0.11675,-0.12763,-0.48155,0.03620,,,,,,,,,,,,,,,,,,,,,,,,,,0,0,0,0,0
2.1715,1783966959.6883,1,1,4.0000,-0.0000,1.42243,-0.00283,-2.63129,1.06340,1.57080,0.11675,-0.12763,-0.48155,0.03620,,,,,,,,,,,,,,,,,,,,,,,,,,0,0,0,0,0
2.1889,1783966959.7056,1,1,4.0000,-0.0000,1.42243,-0.00283,-2.63129,1.06340,1.57080,0.11675,-0.12763,-0.48155,0.03620,,,,,,,,,,,,,,,,,,,,,,,,,,0,0,0,0,0
2.1920,1783966959.7088,1,1,4.0000,-0.0000,1.42243,-0.00283,-2.63129,1.06340,1.57080,0.11675,-0.12763,-0.48155,0.03620,,,,,,,,,,,,,,,,,,,,,,,,,,0,0,0,0,0
2.1923,1783966959.7091,1,1,4.0000,-0.0000,1.42243,-0.00283,-2.63129,1.06340,1.57080,0.11675,-0.12763,-0.48155,0.03620,,,,,,,,,,,,,,,,,,,,,,,,,,0,0,0,0,0
2.2084,1783966959.7252,1,1,4.0000,-0.0000,1.42243,-0.00283,-2.63129,1.06340,1.57080,0.11675,-0.12763,-0.48155,0.03620,,,,,,,,,,,,,,,,,,,,,,,,,,0,0,0,0,0
2.2651,1783966959.7818,1,1,4.0000,-0.0000,1.42243,-0.00283,-2.63129,1.06340,1.57080,0.11675,-0.12763,-0.48155,0.03620,,,,,,,,,,,,,,,,,,,,,,,,,,0,0,0,0,0
2.2775,1783966959.7943,1,1,4.0000,-0.0000,1.42243,-0.00283,-2.63129,1.06340,1.57080,0.11675,-0.12763,-0.48155,0.03620,,,,,,,,,,,,,,,,,,,,,,,,,,0,0,0,0,0
2.2814,1783966959.7982,1,1,4.0000,-0.0000,1.42243,-0.00283,-2.63129,1.06340,1.57080,0.11675,-0.12763,-0.48155,0.03620,,,,,,,,,,,,,,,,,,,,,,,,,,0,0,0,0,0
2.2819,1783966959.7987,1,1,4.0000,-0.0000,1.42243,-0.00283,-2.63129,1.06340,1.57080,0.11675,-0.12763,-0.48155,0.03620,,,,,,,,,,,,,,,,,,,,,,,,,,0,0,0,0,0
2.2872,1783966959.8040,1,1,4.0000,-0.0000,1.42243,-0.00283,-2.63129,1.06340,1.57080,0.11675,-0.12763,-0.48155,0.03620,,,,,,,,,,,,,,,,,,,,,,,,,,0,0,0,0,0
2.2886,1783966959.8054,1,1,4.0000,-0.0000,1.42243,-0.00283,-2.63129,1.06340,1.57080,0.11675,-0.12763,-0.48155,0.03620,,,,,,,,,,,,,,,,,,,,,,,,,,0,0,0,0,0
2.2889,1783966959.8057,1,1,4.0000,-0.0000,1.42243,-0.00283,-2.63129,1.06340,1.57080,0.11675,-0.12763,-0.48155,0.03620,,,,,,,,,,,,,,,,,,,,,,,,,,0,0,0,0,0
2.2894,1783966959.8062,1,1,4.0000,-0.0000,1.42243,-0.00283,-2.63129,1.06340,1.57080,0.11675,-0.12763,-0.48155,0.03620,,,,,,,,,,,,,,,,,,,,,,,,,,0,0,0,0,0
2.2897,1783966959.8065,1,1,4.0000,-0.0000,1.42243,-0.00283,-2.63129,1.06340,1.57080,0.11675,-0.12763,-0.48155,0.03620,,,,,,,,,,,,,,,,,,,,,,,,,,0,0,0,0,0
2.2910,1783966959.8078,1,1,4.0000,-0.0000,1.42243,-0.00283,-2.63129,1.06340,1.57080,0.11675,-0.12763,-0.48155,0.03620,,,,,,,,,,,,,,,,,,,,,,,,,,0,0,0,0,0
2.2913,1783966959.8080,1,1,4.0000,-0.0000,1.42243,-0.00283,-2.63129,1.06340,1.57080,0.11675,-0.12763,-0.48155,0.03620,,,,,,,,,,,,,,,,,,,,,,,,,,0,0,0,0,0
2.3025,1783966959.8193,1,1,4.0000,-0.0000,1.42243,-0.00283,-2.63130,1.06341,1.57080,0.11675,-0.12763,-0.48155,0.03619,,,,,,,,,,,,,,,,,,,,,,,,,,0,0,0,0,0
2.3166,1783966959.8334,1,1,4.0000,-0.0000,1.42243,-0.00286,-2.63133,1.06344,1.57080,0.11675,-0.12763,-0.48153,0.03617,,,,,,,,,,,,,,,,,,,,,,,,,,0,0,0,0,0
2.3229,1783966959.8397,1,1,4.0000,-0.0000,1.42243,-0.00289,-2.63136,1.06348,1.57080,0.11675,-0.12763,-0.48151,0.03615,,,,,,,,,,,,,,,,,,,,,,,,,,0,0,0,0,0
2.3326,1783966959.8494,1,1,4.0000,-0.0000,1.42243,-0.00293,-2.63140,1.06352,1.57080,0.11675,-0.12763,-0.48149,0.03612,,,,,,,,,,,,,,,,,,,,,,,,,,0,0,0,0,0
2.3555,1783966959.8723,1,1,4.0000,-0.0000,1.42243,-0.00303,-2.63150,1.06365,1.57080,0.11675,-0.12764,-0.48143,0.03605,,,,,,,,,,,,,,,,,,,,,,,,,,0,0,0,0,0
2.3643,1783966959.8811,1,1,4.0000,-0.0000,1.42243,-0.00306,-2.63150,1.06367,1.57080,0.11675,-0.12764,-0.48143,0.03604,,,,,,,,,,,,,,,,,,,,,,,,,,0,0,0,0,0
2.3655,1783966959.8822,1,1,4.0000,-0.0000,1.42243,-0.00306,-2.63150,1.06367,1.57080,0.11675,-0.12764,-0.48143,0.03604,,,,,,,,,,,,,,,,,,,,,,,,,,0,0,0,0,0
2.3769,1783966959.8937,1,1,4.0000,-0.0000,1.42243,-0.00313,-2.63151,1.06376,1.57080,0.11675,-0.12764,-0.48143,0.03602,,,,,,,,,,,,,,,,,,,,,,,,,,0,0,0,0,0
2.3839,1783966959.9007,1,1,4.0000,-0.0000,1.42243,-0.00317,-2.63152,1.06380,1.57080,0.11675,-0.12764,-0.48144,0.03601,,,,,,,,,,,,,,,,,,,,,,,,,,0,0,0,0,0
2.3927,1783966959.9095,1,1,4.0000,-0.0000,1.42243,-0.00319,-2.63152,1.06383,1.57080,0.11675,-0.12764,-0.48144,0.03600,,,,,,,,,,,,,,,,,,,,,,,,,,0,0,0,0,0
2.4052,1783966959.9220,1,1,4.0000,-0.0000,1.42243,-0.00328,-2.63153,1.06394,1.57080,0.11675,-0.12764,-0.48144,0.03597,,,,,,,,,,,,,,,,,,,,,,,,,,0,0,0,0,0
2.4128,1783966959.9296,1,1,4.0000,-0.0000,1.42243,-0.00329,-2.63153,1.06395,1.57080,0.11675,-0.12764,-0.48144,0.03597,,,,,,,,,,,,,,,,,,,,,,,,,,0,0,0,0,0
2.4257,1783966959.9425,1,1,4.0000,-0.0000,1.42243,-0.00337,-2.63154,1.06405,1.57080,0.11675,-0.12764,-0.48145,0.03595,,,,,,,,,,,,,,,,,,,,,,,,,,0,0,0,0,0
2.4262,1783966959.9430,1,1,4.0000,-0.0000,1.42243,-0.00337,-2.63154,1.06405,1.57080,0.11675,-0.12764,-0.48145,0.03595,,,,,,,,,,,,,,,,,,,,,,,,,,0,0,0,0,0
2.4314,1783966959.9481,1,1,4.0000,-0.0000,1.42243,-0.00346,-2.63156,1.06416,1.57080,0.11675,-0.12764,-0.48145,0.03592,,,,,,,,,,,,,,,,,,,,,,,,,,0,0,0,0,0
2.4448,1783966959.9616,1,1,4.0000,-0.0000,1.42243,-0.00357,-2.63157,1.06428,1.57080,0.11675,-0.12764,-0.48146,0.03589,,,,,,,,,,,,,,,,,,,,,,,,,,0,0,0,0,0
2.4575,1783966959.9743,1,1,4.0000,-0.0000,1.42243,-0.00360,-2.63158,1.06433,1.57080,0.11675,-0.12764,-0.48146,0.03588,,,,,,,,,,,,,,,,,,,,,,,,,,0,0,0,0,0
2.4634,1783966959.9802,1,1,4.0000,-0.0000,1.42243,-0.00366,-2.63158,1.06440,1.57080,0.11675,-0.12764,-0.48147,0.03586,,,,,,,,,,,,,,,,,,,,,,,,,,0,0,0,0,0
2.4789,1783966959.9957,1,1,4.0000,-0.0000,1.42243,-0.00381,-2.63159,1.06458,1.57080,0.11675,-0.12763,-0.48149,0.03582,,,,,,,,,,,,,,,,,,,,,,,,,,0,0,0,0,0
2.4868,1783966960.0036,1,1,4.0000,-0.0000,1.42243,-0.00388,-2.63159,1.06467,1.57080,0.11675,-0.12763,-0.48150,0.03580,,,,,,,,,,,,,,,,,,,,,,,,,,0,0,0,0,0
2.4925,1783966960.0093,1,1,4.0000,-0.0000,1.42243,-0.00392,-2.63159,1.06472,1.57080,0.11675,-0.12763,-0.48150,0.03579,,,,,,,,,,,,,,,,,,,,,,,,,,0,0,0,0,0
2.5021,1783966960.0189,1,1,4.0000,-0.0000,1.42243,-0.00398,-2.63159,1.06479,1.57080,0.11675,-0.12763,-0.48151,0.03578,,,,,,,,,,,,,,,,,,,,,,,,,,0,0,0,0,0
2.5230,1783966960.0398,1,1,4.0000,-0.0000,1.42243,-0.00400,-2.63159,1.06482,1.57080,0.11675,-0.12763,-0.48152,0.03578,,,,,,,,,,,,,,,,,,,,,,,,,,0,0,0,0,0
2.5234,1783966960.0402,1,1,4.0000,-0.0000,1.42243,-0.00400,-2.63159,1.06482,1.57080,0.11675,-0.12763,-0.48152,0.03578,,,,,,,,,,,,,,,,,,,,,,,,,,0,0,0,0,0
2.5239,1783966960.0407,1,1,4.0000,-0.0000,1.42243,-0.00400,-2.63159,1.06482,1.57080,0.11675,-0.12763,-0.48152,0.03578,,,,,,,,,,,,,,,,,,,,,,,,,,0,0,0,0,0
2.5323,1783966960.0490,1,1,4.0000,-0.0000,1.42243,-0.00400,-2.63159,1.06482,1.57080,0.11675,-0.12763,-0.48152,0.03578,,,,,,,,,,,,,,,,,,,,,,,,,,0,0,0,0,0
2.5326,1783966960.0494,1,1,4.0000,-0.0000,1.42243,-0.00400,-2.63159,1.06482,1.57080,0.11675,-0.12763,-0.48152,0.03578,,,,,,,,,,,,,,,,,,,,,,,,,,0,0,0,0,0
2.5420,1783966960.0588,1,1,4.0000,-0.0000,1.42243,-0.00400,-2.63159,1.06482,1.57080,0.11675,-0.12763,-0.48152,0.03578,,,,,,,,,,,,,,,,,,,,,,,,,,0,0,0,0,0
2.5556,1783966960.0724,1,1,4.0000,-0.0000,1.42243,-0.00400,-2.63159,1.06482,1.57080,0.11675,-0.12763,-0.48152,0.03578,,,,,,,,,,,,,,,,,,,,,,,,,,0,0,0,0,0
2.5652,1783966960.0820,1,1,4.0000,-0.0000,1.42243,-0.00400,-2.63159,1.06482,1.57080,0.11675,-0.12763,-0.48152,0.03578,,,,,,,,,,,,,,,,,,,,,,,,,,0,0,0,0,0
2.5655,1783966960.0823,1,1,4.0000,-0.0000,1.42243,-0.00400,-2.63159,1.06482,1.57080,0.11675,-0.12763,-0.48152,0.03578,,,,,,,,,,,,,,,,,,,,,,,,,,0,0,0,0,0
2.5725,1783966960.0893,1,1,4.0000,-0.0000,1.42243,-0.00400,-2.63159,1.06482,1.57080,0.11675,-0.12763,-0.48152,0.03578,,,,,,,,,,,,,,,,,,,,,,,,,,0,0,0,0,0
2.5817,1783966960.0984,1,1,4.0000,-0.0000,1.42243,-0.00400,-2.63159,1.06482,1.57080,0.11675,-0.12763,-0.48152,0.03578,,,,,,,,,,,,,,,,,,,,,,,,,,0,0,0,0,0
2.5934,1783966960.1101,1,1,4.0000,-0.0000,1.42243,-0.00400,-2.63159,1.06482,1.57080,0.11675,-0.12763,-0.48152,0.03578,,,,,,,,,,,,,,,,,,,,,,,,,,0,0,0,0,0
2.6020,1783966960.1188,1,1,4.0000,-0.0000,1.42243,-0.00400,-2.63159,1.06482,1.57080,0.11675,-0.12763,-0.48152,0.03578,,,,,,,,,,,,,,,,,,,,,,,,,,0,0,0,0,0
2.6029,1783966960.1197,1,1,4.0000,-0.0000,1.42243,-0.00400,-2.63159,1.06482,1.57080,0.11675,-0.12763,-0.48152,0.03578,,,,,,,,,,,,,,,,,,,,,,,,,,0,0,0,0,0
2.6132,1783966960.1299,1,1,4.0000,-0.0000,1.42243,-0.00400,-2.63159,1.06482,1.57080,0.11675,-0.12763,-0.48152,0.03578,,,,,,,,,,,,,,,,,,,,,,,,,,0,0,0,0,0
2.6229,1783966960.1397,1,1,4.0000,-0.0000,1.42243,-0.00400,-2.63159,1.06482,1.57080,0.11675,-0.12763,-0.48152,0.03578,,,,,,,,,,,,,,,,,,,,,,,,,,0,0,0,0,0
2.6324,1783966960.1492,1,1,4.0000,-0.0000,1.42243,-0.00400,-2.63159,1.06482,1.57080,0.11675,-0.12763,-0.48152,0.03578,,,,,,,,,,,,,,,,,,,,,,,,,,0,0,0,0,0
2.6329,1783966960.1497,1,1,4.0000,-0.0000,1.42243,-0.00400,-2.63159,1.06482,1.57080,0.11675,-0.12763,-0.48152,0.03578,,,,,,,,,,,,,,,,,,,,,,,,,,0,0,0,0,0
2.6439,1783966960.1607,1,1,4.0000,-0.0000,1.42243,-0.00400,-2.63159,1.06482,1.57080,0.11675,-0.12763,-0.48152,0.03578,,,,,,,,,,,,,,,,,,,,,,,,,,0,0,0,0,0
2.6726,1783966960.1894,1,1,4.0000,-0.0000,1.42243,-0.00400,-2.63159,1.06482,1.57080,0.11675,-0.12763,-0.48152,0.03578,,,,,,,,,,,,,,,,,,,,,,,,,,0,0,0,0,0
2.6759,1783966960.1927,1,1,4.0000,-0.0000,1.42243,-0.00400,-2.63159,1.06482,1.57080,0.11675,-0.12763,-0.48152,0.03578,,,,,,,,,,,,,,,,,,,,,,,,,,0,0,0,0,0
2.6764,1783966960.1932,1,1,4.0000,-0.0000,1.42243,-0.00400,-2.63159,1.06482,1.57080,0.11675,-0.12763,-0.48152,0.03578,,,,,,,,,,,,,,,,,,,,,,,,,,0,0,0,0,0
2.6869,1783966960.2037,1,1,4.0000,-0.0000,1.42243,-0.00400,-2.63159,1.06482,1.57080,0.11675,-0.12763,-0.48152,0.03578,,,,,,,,,,,,,,,,,,,,,,,,,,0,0,0,0,0
2.6884,1783966960.2052,1,1,4.0000,-0.0000,1.42243,-0.00400,-2.63159,1.06482,1.57080,0.11675,-0.12763,-0.48152,0.03578,,,,,,,,,,,,,,,,,,,,,,,,,,0,0,0,0,0
2.6953,1783966960.2121,1,1,4.0000,-0.0000,1.42243,-0.00400,-2.63159,1.06482,1.57080,0.11675,-0.12763,-0.48152,0.03578,,,,,,,,,,,,,,,,,,,,,,,,,,0,0,0,0,0
2.7829,1783966960.2997,1,1,4.0000,-0.0000,1.42243,-0.00417,-2.63171,1.06503,1.57080,0.11675,-0.12764,-0.48146,0.03568,,,,,,,,,,,,,,,,,,,,,,,,,,0,0,0,0,0
2.7868,1783966960.3036,1,1,4.0000,-0.0000,1.42243,-0.00420,-2.63172,1.06506,1.57080,0.11675,-0.12764,-0.48146,0.03567,,,,,,,,,,,,,,,,,,,,,,,,,,0,0,0,0,0
2.7940,1783966960.3107,1,1,4.0000,-0.0000,1.42243,-0.00422,-2.63173,1.06509,1.57080,0.11675,-0.12764,-0.48145,0.03566,,,,,,,,,,,,,,,,,,,,,,,,,,0,0,0,0,0
2.7977,1783966960.3145,1,1,4.0000,-0.0000,1.42243,-0.00425,-2.63174,1.06513,1.57080,0.11675,-0.12764,-0.48145,0.03565,,,,,,,,,,,,,,,,,,,,,,,,,,0,0,0,0,0
2.8035,1783966960.3203,1,1,4.0000,-0.0000,1.42243,-0.00428,-2.63175,1.06516,1.57080,0.11675,-0.12764,-0.48145,0.03564,,,,,,,,,,,,,,,,,,,,,,,,,,0,0,0,0,0
2.8136,1783966960.3304,1,1,4.0000,-0.0000,1.42243,-0.00430,-2.63175,1.06519,1.57080,0.11675,-0.12764,-0.48145,0.03563,,,,,,,,,,,,,,,,,,,,,,,,,,0,0,0,0,0
2.8147,1783966960.3315,1,1,4.0000,-0.0000,1.42243,-0.00433,-2.63176,1.06522,1.57080,0.11675,-0.12764,-0.48145,0.03562,,,,,,,,,,,,,,,,,,,,,,,,,,0,0,0,0,0
2.8149,1783966960.3317,1,1,4.0000,-0.0000,1.42243,-0.00433,-2.63176,1.06522,1.57080,0.11675,-0.12764,-0.48145,0.03562,,,,,,,,,,,,,,,,,,,,,,,,,,0,0,0,0,0
2.8152,1783966960.3320,1,1,4.0000,-0.0000,1.42243,-0.00433,-2.63176,1.06522,1.57080,0.11675,-0.12764,-0.48145,0.03562,,,,,,,,,,,,,,,,,,,,,,,,,,0,0,0,0,0
2.8187,1783966960.3355,1,1,4.0000,-0.0000,1.42243,-0.00436,-2.63176,1.06526,1.57080,0.11675,-0.12764,-0.48145,0.03561,,,,,,,,,,,,,,,,,,,,,,,,,,0,0,0,0,0
2.8189,1783966960.3357,1,1,4.0000,-0.0000,1.42243,-0.00436,-2.63176,1.06526,1.57080,0.11675,-0.12764,-0.48145,0.03561,,,,,,,,,,,,,,,,,,,,,,,,,,0,0,0,0,0
2.8194,1783966960.3362,1,1,4.0000,-0.0000,1.42243,-0.00436,-2.63176,1.06526,1.57080,0.11675,-0.12764,-0.48145,0.03561,,,,,,,,,,,,,,,,,,,,,,,,,,0,0,0,0,0
2.8197,1783966960.3365,1,1,4.0000,-0.0000,1.42243,-0.00436,-2.63176,1.06526,1.57080,0.11675,-0.12764,-0.48145,0.03561,,,,,,,,,,,,,,,,,,,,,,,,,,0,0,0,0,0
2.8213,1783966960.3381,1,1,4.0000,-0.0000,1.42243,-0.00436,-2.63176,1.06526,1.57080,0.11675,-0.12764,-0.48145,0.03561,,,,,,,,,,,,,,,,,,,,,,,,,,0,0,0,0,0
2.8222,1783966960.3390,1,1,4.0000,-0.0000,1.42243,-0.00436,-2.63176,1.06526,1.57080,0.11675,-0.12764,-0.48145,0.03561,,,,,,,,,,,,,,,,,,,,,,,,,,0,0,0,0,0
2.8379,1783966960.3547,1,1,4.0000,-0.0000,1.42243,-0.00442,-2.63178,1.06533,1.57080,0.11675,-0.12764,-0.48145,0.03559,,,,,,,,,,,,,,,,,,,,,,,,,,0,0,0,0,0
2.8629,1783966960.3797,1,1,4.0000,-0.0000,1.42242,-0.00466,-2.63182,1.06561,1.57080,0.11675,-0.12764,-0.48146,0.03552,,,,,,,,,,,,,,,,,,,,,,,,,,0,0,0,0,0
2.8632,1783966960.3800,1,1,4.0000,-0.0000,1.42242,-0.00466,-2.63182,1.06561,1.57080,0.11675,-0.12764,-0.48146,0.03552,,,,,,,,,,,,,,,,,,,,,,,,,,0,0,0,0,0
2.8674,1783966960.3842,1,1,4.0000,-0.0000,1.42242,-0.00467,-2.63182,1.06563,1.57080,0.11675,-0.12764,-0.48146,0.03551,,,,,,,,,,,,,,,,,,,,,,,,,,0,0,0,0,0
2.8679,1783966960.3847,1,1,4.0000,-0.0000,1.42242,-0.00467,-2.63182,1.06563,1.57080,0.11675,-0.12764,-0.48146,0.03551,,,,,,,,,,,,,,,,,,,,,,,,,,0,0,0,0,0
2.8760,1783966960.3928,1,1,4.0000,-0.0000,1.42242,-0.00473,-2.63183,1.06570,1.57080,0.11675,-0.12764,-0.48146,0.03549,,,,,,,,,,,,,,,,,,,,,,,,,,0,0,0,0,0
2.8888,1783966960.4056,1,1,4.0000,-0.0000,1.42242,-0.00485,-2.63184,1.06585,1.57080,0.11675,-0.12763,-0.48147,0.03546,,,,,,,,,,,,,,,,,,,,,,,,,,0,0,0,0,0
2.8935,1783966960.4102,1,1,4.0000,-0.0000,1.42242,-0.00490,-2.63185,1.06591,1.57080,0.11675,-0.12763,-0.48147,0.03544,,,,,,,,,,,,,,,,,,,,,,,,,,0,0,0,0,0
2.9017,1783966960.4185,1,1,4.0000,-0.0000,1.42242,-0.00490,-2.63185,1.06591,1.57080,0.11675,-0.12763,-0.48147,0.03544,,,,,,,,,,,,,,,,,,,,,,,,,,0,0,0,0,0
2.9020,1783966960.4188,1,1,4.0000,-0.0000,1.42242,-0.00490,-2.63185,1.06591,1.57080,0.11675,-0.12763,-0.48147,0.03544,,,,,,,,,,,,,,,,,,,,,,,,,,0,0,0,0,0
2.9187,1783966960.4355,1,1,4.0000,-0.0000,1.42242,-0.00500,-2.63184,1.06604,1.57080,0.11675,-0.12763,-0.48150,0.03543,,,,,,,,,,,,,,,,,,,,,,,,,,0,0,0,0,0
2.9227,1783966960.4395,1,1,4.0000,-0.0000,1.42242,-0.00503,-2.63184,1.06607,1.57080,0.11675,-0.12763,-0.48150,0.03542,,,,,,,,,,,,,,,,,,,,,,,,,,0,0,0,0,0
2.9336,1783966960.4504,1,1,4.0000,-0.0000,1.42242,-0.00508,-2.63183,1.06615,1.57080,0.11675,-0.12763,-0.48152,0.03541,,,,,,,,,,,,,,,,,,,,,,,,,,0,0,0,0,0
2.9469,1783966960.4637,1,1,4.0000,-0.0000,1.42242,-0.00517,-2.63179,1.06626,1.57080,0.11675,-0.12762,-0.48156,0.03541,,,,,,,,,,,,,,,,,,,,,,,,,,0,0,0,0,0
2.9474,1783966960.4642,1,1,4.0000,-0.0000,1.42242,-0.00517,-2.63179,1.06626,1.57080,0.11675,-0.12762,-0.48156,0.03541,,,,,,,,,,,,,,,,,,,,,,,,,,0,0,0,0,0
2.9511,1783966960.4679,1,1,4.0000,-0.0000,1.42242,-0.00519,-2.63178,1.06628,1.57080,0.11675,-0.12762,-0.48158,0.03541,,,,,,,,,,,,,,,,,,,,,,,,,,0,0,0,0,0
2.9515,1783966960.4683,1,1,4.0000,-0.0000,1.42242,-0.00519,-2.63178,1.06628,1.57080,0.11675,-0.12762,-0.48158,0.03541,,,,,,,,,,,,,,,,,,,,,,,,,,0,0,0,0,0
2.9644,1783966960.4812,1,1,4.0000,-0.0000,1.42242,-0.00519,-2.63177,1.06629,1.57080,0.11675,-0.12762,-0.48159,0.03541,,,,,,,,,,,,,,,,,,,,,,,,,,0,0,0,0,0
2.9772,1783966960.4940,1,1,4.0000,-0.0000,1.42242,-0.00519,-2.63177,1.06629,1.57080,0.11675,-0.12762,-0.48159,0.03541,,,,,,,,,,,,,,,,,,,,,,,,,,0,0,0,0,0
2.9913,1783966960.5081,1,1,4.0000,-0.0000,1.42242,-0.00519,-2.63177,1.06629,1.57080,0.11675,-0.12762,-0.48159,0.03541,,,,,,,,,,,,,,,,,,,,,,,,,,0,0,0,0,0
2.9916,1783966960.5084,1,1,4.0000,-0.0000,1.42242,-0.00519,-2.63177,1.06629,1.57080,0.11675,-0.12762,-0.48159,0.03541,,,,,,,,,,,,,,,,,,,,,,,,,,0,0,0,0,0
2.9953,1783966960.5120,1,1,4.0000,-0.0000,1.42242,-0.00519,-2.63177,1.06629,1.57080,0.11675,-0.12762,-0.48159,0.03541,,,,,,,,,,,,,,,,,,,,,,,,,,0,0,0,0,0
2.9956,1783966960.5124,1,1,4.0000,-0.0000,1.42242,-0.00519,-2.63177,1.06629,1.57080,0.11675,-0.12762,-0.48159,0.03541,,,,,,,,,,,,,,,,,,,,,,,,,,0,0,0,0,0
3.0028,1783966960.5196,1,1,4.0000,-0.0000,1.42242,-0.00519,-2.63177,1.06629,1.57080,0.11675,-0.12762,-0.48159,0.03541,,,,,,,,,,,,,,,,,,,,,,,,,,0,0,0,0,0
3.0031,1783966960.5199,1,1,4.0000,-0.0000,1.42242,-0.00519,-2.63177,1.06629,1.57080,0.11675,-0.12762,-0.48159,0.03541,,,,,,,,,,,,,,,,,,,,,,,,,,0,0,0,0,0
3.0152,1783966960.5320,1,1,4.0000,-0.0000,1.42242,-0.00519,-2.63177,1.06629,1.57080,0.11675,-0.12762,-0.48159,0.03541,,,,,,,,,,,,,,,,,,,,,,,,,,0,0,0,0,0
3.0220,1783966960.5388,1,1,4.0000,-0.0000,1.42242,-0.00519,-2.63177,1.06629,1.57080,0.11675,-0.12762,-0.48159,0.03541,,,,,,,,,,,,,,,,,,,,,,,,,,0,0,0,0,0
3.0227,1783966960.5395,1,1,4.0000,-0.0000,1.42242,-0.00519,-2.63177,1.06629,1.57080,0.11675,-0.12762,-0.48159,0.03541,,,,,,,,,,,,,,,,,,,,,,,,,,0,0,0,0,0
3.0325,1783966960.5493,1,1,4.0000,-0.0000,1.42242,-0.00519,-2.63177,1.06629,1.57080,0.11675,-0.12762,-0.48159,0.03541,,,,,,,,,,,,,,,,,,,,,,,,,,0,0,0,0,0
3.0420,1783966960.5588,1,1,4.0000,-0.0000,1.42242,-0.00519,-2.63177,1.06629,1.57080,0.11675,-0.12762,-0.48159,0.03541,,,,,,,,,,,,,,,,,,,,,,,,,,0,0,0,0,0
3.0750,1783966960.5918,1,1,4.0000,-0.0000,1.42242,-0.00519,-2.63177,1.06629,1.57080,0.11675,-0.12762,-0.48159,0.03541,,,,,,,,,,,,,,,,,,,,,,,,,,0,0,0,0,0
3.0797,1783966960.5965,1,1,4.0000,-0.0000,1.42242,-0.00519,-2.63177,1.06629,1.57080,0.11675,-0.12762,-0.48159,0.03541,,,,,,,,,,,,,,,,,,,,,,,,,,0,0,0,0,0
3.0823,1783966960.5991,1,1,4.0000,-0.0000,1.42242,-0.00519,-2.63177,1.06629,1.57080,0.11675,-0.12762,-0.48159,0.03541,,,,,,,,,,,,,,,,,,,,,,,,,,0,0,0,0,0
3.0830,1783966960.5998,1,1,4.0000,-0.0000,1.42242,-0.00519,-2.63177,1.06629,1.57080,0.11675,-0.12762,-0.48159,0.03541,,,,,,,,,,,,,,,,,,,,,,,,,,0,0,0,0,0
3.0860,1783966960.6028,1,1,4.0000,-0.0000,1.42242,-0.00519,-2.63177,1.06629,1.57080,0.11675,-0.12762,-0.48159,0.03541,,,,,,,,,,,,,,,,,,,,,,,,,,0,0,0,0,0
3.0867,1783966960.6035,1,1,4.0000,-0.0000,1.42242,-0.00519,-2.63177,1.06629,1.57080,0.11675,-0.12762,-0.48159,0.03541,,,,,,,,,,,,,,,,,,,,,,,,,,0,0,0,0,0
3.0934,1783966960.6102,1,1,4.0000,-0.0000,1.42242,-0.00519,-2.63177,1.06629,1.57080,0.11675,-0.12762,-0.48159,0.03541,,,,,,,,,,,,,,,,,,,,,,,,,,0,0,0,0,0
3.1058,1783966960.6226,1,1,4.0000,-0.0000,1.42242,-0.00519,-2.63177,1.06629,1.57080,0.11675,-0.12762,-0.48159,0.03541,,,,,,,,,,,,,,,,,,,,,,,,,,0,0,0,0,0
3.1115,1783966960.6282,1,1,4.0000,-0.0000,1.42242,-0.00519,-2.63177,1.06629,1.57080,0.11675,-0.12762,-0.48159,0.03541,,,,,,,,,,,,,,,,,,,,,,,,,,0,0,0,0,0
3.1217,1783966960.6385,1,1,4.0000,-0.0000,1.42242,-0.00519,-2.63177,1.06629,1.57080,0.11675,-0.12762,-0.48159,0.03541,,,,,,,,,,,,,,,,,,,,,,,,,,0,0,0,0,0
3.1348,1783966960.6516,1,1,4.0000,-0.0000,1.42242,-0.00519,-2.63177,1.06629,1.57080,0.11675,-0.12762,-0.48158,0.03541,,,,,,,,,,,,,,,,,,,,,,,,,,0,0,0,0,0
3.1352,1783966960.6520,1,1,4.0000,-0.0000,1.42242,-0.00519,-2.63177,1.06629,1.57080,0.11675,-0.12762,-0.48158,0.03541,,,,,,,,,,,,,,,,,,,,,,,,,,0,0,0,0,0
3.1449,1783966960.6617,1,1,4.0000,-0.0000,1.42242,-0.00520,-2.63178,1.06630,1.57080,0.11675,-0.12762,-0.48158,0.03541,,,,,,,,,,,,,,,,,,,,,,,,,,0,0,0,0,0
3.1518,1783966960.6686,1,1,4.0000,-0.0000,1.42242,-0.00521,-2.63180,1.06631,1.57080,0.11675,-0.12762,-0.48156,0.03540,,,,,,,,,,,,,,,,,,,,,,,,,,0,0,0,0,0
3.1521,1783966960.6689,1,1,4.0000,-0.0000,1.42242,-0.00521,-2.63180,1.06631,1.57080,0.11675,-0.12762,-0.48156,0.03540,,,,,,,,,,,,,,,,,,,,,,,,,,0,0,0,0,0
3.1771,1783966960.6939,1,1,4.0000,-0.0000,1.42242,-0.00524,-2.63186,1.06635,1.57080,0.11675,-0.12762,-0.48153,0.03536,,,,,,,,,,,,,,,,,,,,,,,,,,0,0,0,0,0
3.1775,1783966960.6943,1,1,4.0000,-0.0000,1.42242,-0.00524,-2.63186,1.06635,1.57080,0.11675,-0.12762,-0.48153,0.03536,,,,,,,,,,,,,,,,,,,,,,,,,,0,0,0,0,0
3.1787,1783966960.6955,1,1,4.0000,-0.0000,1.42242,-0.00526,-2.63187,1.06637,1.57080,0.11675,-0.12762,-0.48152,0.03535,,,,,,,,,,,,,,,,,,,,,,,,,,0,0,0,0,0
3.1788,1783966960.6956,1,1,4.0000,-0.0000,1.42242,-0.00526,-2.63187,1.06637,1.57080,0.11675,-0.12762,-0.48152,0.03535,,,,,,,,,,,,,,,,,,,,,,,,,,0,0,0,0,0
3.1850,1783966960.7017,1,1,4.0000,-0.0000,1.42242,-0.00527,-2.63189,1.06639,1.57080,0.11675,-0.12763,-0.48151,0.03534,,,,,,,,,,,,,,,,,,,,,,,,,,0,0,0,0,0
3.1954,1783966960.7122,1,1,4.0000,-0.0000,1.42242,-0.00529,-2.63190,1.06641,1.57080,0.11675,-0.12763,-0.48151,0.03533,,,,,,,,,,,,,,,,,,,,,,,,,,0,0,0,0,0
3.2029,1783966960.7196,1,1,4.0000,-0.0000,1.42242,-0.00533,-2.63192,1.06646,1.57080,0.11675,-0.12763,-0.48150,0.03531,,,,,,,,,,,,,,,,,,,,,,,,,,0,0,0,0,0
3.2032,1783966960.7199,1,1,4.0000,-0.0000,1.42242,-0.00533,-2.63192,1.06646,1.57080,0.11675,-0.12763,-0.48150,0.03531,,,,,,,,,,,,,,,,,,,,,,,,,,0,0,0,0,0
3.2114,1783966960.7282,1,1,4.0000,-0.0000,1.42242,-0.00539,-2.63195,1.06653,1.57080,0.11675,-0.12763,-0.48148,0.03528,,,,,,,,,,,,,,,,,,,,,,,,,,0,0,0,0,0
3.2236,1783966960.7404,1,1,4.0000,-0.0000,1.42242,-0.00543,-2.63197,1.06658,1.57080,0.11675,-0.12763,-0.48147,0.03526,,,,,,,,,,,,,,,,,,,,,,,,,,0,0,0,0,0
3.2320,1783966960.7488,1,1,4.0000,-0.0000,1.42242,-0.00547,-2.63198,1.06663,1.57080,0.11675,-0.12763,-0.48147,0.03525,,,,,,,,,,,,,,,,,,,,,,,,,,0,0,0,0,0
3.2487,1783966960.7655,1,1,4.0000,-0.0000,1.42242,-0.00563,-2.63203,1.06682,1.57080,0.11675,-0.12763,-0.48146,0.03519,,,,,,,,,,,,,,,,,,,,,,,,,,0,0,0,0,0
3.3034,1783966960.8201,1,1,4.0000,-0.0000,1.42242,-0.00597,-2.63210,1.06722,1.57080,0.11675,-0.12763,-0.48147,0.03508,,,,,,,,,,,,,,,,,,,,,,,,,,0,0,0,0,0
3.3037,1783966960.8205,1,1,4.0000,-0.0000,1.42242,-0.00597,-2.63210,1.06722,1.57080,0.11675,-0.12763,-0.48147,0.03508,,,,,,,,,,,,,,,,,,,,,,,,,,0,0,0,0,0
3.3115,1783966960.8283,1,1,4.0000,-0.0000,1.42242,-0.00601,-2.63210,1.06728,1.57080,0.11675,-0.12763,-0.48147,0.03506,,,,,,,,,,,,,,,,,,,,,,,,,,0,0,0,0,0
3.3132,1783966960.8300,1,1,4.0000,-0.0000,1.42242,-0.00601,-2.63210,1.06728,1.57080,0.11675,-0.12763,-0.48147,0.03506,,,,,,,,,,,,,,,,,,,,,,,,,,0,0,0,0,0
3.3169,1783966960.8337,1,1,4.0000,-0.0000,1.42242,-0.00602,-2.63210,1.06729,1.57080,0.11675,-0.12763,-0.48147,0.03506,,,,,,,,,,,,,,,,,,,,,,,,,,0,0,0,0,0
3.3189,1783966960.8357,1,1,4.0000,-0.0000,1.42242,-0.00603,-2.63210,1.06730,1.57080,0.11675,-0.12763,-0.48147,0.03506,,,,,,,,,,,,,,,,,,,,,,,,,,0,0,0,0,0
3.3269,1783966960.8437,1,1,4.0000,-0.0000,1.42242,-0.00607,-2.63210,1.06736,1.57080,0.11675,-0.12763,-0.48148,0.03505,,,,,,,,,,,,,,,,,,,,,,,,,,0,0,0,0,0
3.3273,1783966960.8441,1,1,4.0000,-0.0000,1.42242,-0.00607,-2.63210,1.06736,1.57080,0.11675,-0.12763,-0.48148,0.03505,,,,,,,,,,,,,,,,,,,,,,,,,,0,0,0,0,0
3.3276,1783966960.8443,1,1,4.0000,-0.0000,1.42242,-0.00607,-2.63210,1.06736,1.57080,0.11675,-0.12763,-0.48148,0.03505,,,,,,,,,,,,,,,,,,,,,,,,,,0,0,0,0,0
3.6681,1783966961.1849,1,1,4.0000,-0.0000,1.42242,-0.00681,-2.63230,1.06826,1.57080,0.11675,-0.12763,-0.48146,0.03479,,,,,,,,,,,,,,,,,,,,,,,,,,0,0,0,0,0
3.6692,1783966961.1860,1,1,4.0000,-0.0000,1.42242,-0.00681,-2.63230,1.06826,1.57080,0.11675,-0.12763,-0.48146,0.03479,,,,,,,,,,,,,,,,,,,,,,,,,,0,0,0,0,0
3.6694,1783966961.1862,1,1,4.0000,-0.0000,1.42242,-0.00681,-2.63230,1.06826,1.57080,0.11675,-0.12763,-0.48146,0.03479,,,,,,,,,,,,,,,,,,,,,,,,,,0,0,0,0,0
3.6828,1783966961.1995,1,1,4.0000,-0.0000,1.42242,-0.00686,-2.63231,1.06832,1.57080,0.11675,-0.12763,-0.48146,0.03477,,,,,,,,,,,,,,,,,,,,,,,,,,0,0,0,0,0
3.7154,1783966961.2322,1,1,4.0000,-0.0000,1.42242,-0.00708,-2.63234,1.06858,1.57080,0.11675,-0.12763,-0.48146,0.03470,,,,,,,,,,,,,,,,,,,,,,,,,,0,0,0,0,0
3.7361,1783966961.2529,1,1,4.0000,-0.0000,1.42241,-0.00727,-2.63237,1.06881,1.57080,0.11675,-0.12763,-0.48147,0.03464,,,,,,,,,,,,,,,,,,,,,,,,,,0,0,0,0,0
3.7582,1783966961.2749,1,1,4.0000,-0.0000,1.42241,-0.00748,-2.63240,1.06908,1.57080,0.11675,-0.12762,-0.48149,0.03458,,,,,,,,,,,,,,,,,,,,,,,,,,0,0,0,0,0
3.7590,1783966961.2758,1,1,4.0000,-0.0000,1.42241,-0.00751,-2.63240,1.06912,1.57080,0.11675,-0.12762,-0.48150,0.03458,,,,,,,,,,,,,,,,,,,,,,,,,,0,0,0,0,0
3.7593,1783966961.2761,1,1,4.0000,-0.0000,1.42241,-0.00751,-2.63240,1.06912,1.57080,0.11675,-0.12762,-0.48150,0.03458,,,,,,,,,,,,,,,,,,,,,,,,,,0,0,0,0,0
3.7631,1783966961.2799,1,1,4.0000,-0.0000,1.42241,-0.00753,-2.63240,1.06915,1.57080,0.11675,-0.12762,-0.48150,0.03457,,,,,,,,,,,,,,,,,,,,,,,,,,0,0,0,0,0
3.7638,1783966961.2806,1,1,4.0000,-0.0000,1.42241,-0.00753,-2.63240,1.06915,1.57080,0.11675,-0.12762,-0.48150,0.03457,,,,,,,,,,,,,,,,,,,,,,,,,,0,0,0,0,0
3.7698,1783966961.2866,1,1,4.0000,-0.0000,1.42241,-0.00753,-2.63240,1.06915,1.57080,0.11675,-0.12762,-0.48150,0.03457,,,,,,,,,,,,,,,,,,,,,,,,,,0,0,0,0,0
3.7703,1783966961.2870,1,1,4.0000,-0.0000,1.42241,-0.00753,-2.63240,1.06915,1.57080,0.11675,-0.12762,-0.48150,0.03457,,,,,,,,,,,,,,,,,,,,,,,,,,0,0,0,0,0
3.7714,1783966961.2881,1,1,4.0000,-0.0000,1.42241,-0.00753,-2.63240,1.06915,1.57080,0.11675,-0.12762,-0.48150,0.03457,,,,,,,,,,,,,,,,,,,,,,,,,,0,0,0,0,0
3.7718,1783966961.2886,1,1,4.0000,-0.0000,1.42241,-0.00753,-2.63240,1.06915,1.57080,0.11675,-0.12762,-0.48150,0.03457,,,,,,,,,,,,,,,,,,,,,,,,,,0,0,0,0,0
3.7851,1783966961.3019,1,1,4.0000,-0.0000,1.42241,-0.00753,-2.63240,1.06915,1.57080,0.11675,-0.12762,-0.48150,0.03457,,,,,,,,,,,,,,,,,,,,,,,,,,0,0,0,0,0
3.7915,1783966961.3082,1,1,4.0000,-0.0000,1.42241,-0.00753,-2.63240,1.06915,1.57080,0.11675,-0.12762,-0.48150,0.03457,,,,,,,,,,,,,,,,,,,,,,,,,,0,0,0,0,0
3.7918,1783966961.3086,1,1,4.0000,-0.0000,1.42241,-0.00753,-2.63240,1.06915,1.57080,0.11675,-0.12762,-0.48150,0.03457,,,,,,,,,,,,,,,,,,,,,,,,,,0,0,0,0,0
3.8007,1783966961.3175,1,1,4.0000,-0.0000,1.42241,-0.00753,-2.63240,1.06915,1.57080,0.11675,-0.12762,-0.48150,0.03457,,,,,,,,,,,,,,,,,,,,,,,,,,0,0,0,0,0
3.8011,1783966961.3179,1,1,4.0000,-0.0000,1.42241,-0.00753,-2.63240,1.06915,1.57080,0.11675,-0.12762,-0.48150,0.03457,,,,,,,,,,,,,,,,,,,,,,,,,,0,0,0,0,0
3.8015,1783966961.3183,1,1,4.0000,-0.0000,1.42241,-0.00753,-2.63240,1.06915,1.57080,0.11675,-0.12762,-0.48150,0.03457,,,,,,,,,,,,,,,,,,,,,,,,,,0,0,0,0,0
3.8019,1783966961.3187,1,1,4.0000,-0.0000,1.42241,-0.00753,-2.63240,1.06915,1.57080,0.11675,-0.12762,-0.48150,0.03457,,,,,,,,,,,,,,,,,,,,,,,,,,0,0,0,0,0
3.8238,1783966961.3406,1,1,4.0000,-0.0000,1.42241,-0.00753,-2.63240,1.06915,1.57080,0.11675,-0.12762,-0.48150,0.03457,,,,,,,,,,,,,,,,,,,,,,,,,,0,0,0,0,0
3.8242,1783966961.3410,1,1,4.0000,-0.0000,1.42241,-0.00753,-2.63240,1.06915,1.57080,0.11675,-0.12762,-0.48150,0.03457,,,,,,,,,,,,,,,,,,,,,,,,,,0,0,0,0,0
3.8247,1783966961.3415,1,1,4.0000,-0.0000,1.42241,-0.00753,-2.63240,1.06915,1.57080,0.11675,-0.12762,-0.48150,0.03457,,,,,,,,,,,,,,,,,,,,,,,,,,0,0,0,0,0
3.8271,1783966961.3439,1,1,4.0000,-0.0000,1.42241,-0.00753,-2.63240,1.06915,1.57080,0.11675,-0.12762,-0.48150,0.03457,,,,,,,,,,,,,,,,,,,,,,,,,,0,0,0,0,0
3.8275,1783966961.3443,1,1,4.0000,-0.0000,1.42241,-0.00753,-2.63240,1.06915,1.57080,0.11675,-0.12762,-0.48150,0.03457,,,,,,,,,,,,,,,,,,,,,,,,,,0,0,0,0,0
3.8338,1783966961.3506,1,1,4.0000,-0.0000,1.42241,-0.00753,-2.63240,1.06915,1.57080,0.11675,-0.12762,-0.48150,0.03457,,,,,,,,,,,,,,,,,,,,,,,,,,0,0,0,0,0
3.8393,1783966961.3561,1,1,4.0000,-0.0000,1.42241,-0.00753,-2.63240,1.06915,1.57080,0.11675,-0.12762,-0.48150,0.03457,,,,,,,,,,,,,,,,,,,,,,,,,,0,0,0,0,0
3.8397,1783966961.3565,1,1,4.0000,-0.0000,1.42241,-0.00753,-2.63240,1.06915,1.57080,0.11675,-0.12762,-0.48150,0.03457,,,,,,,,,,,,,,,,,,,,,,,,,,0,0,0,0,0
3.8524,1783966961.3691,1,1,4.0000,-0.0000,1.42241,-0.00753,-2.63240,1.06915,1.57080,0.11675,-0.12762,-0.48150,0.03457,,,,,,,,,,,,,,,,,,,,,,,,,,0,0,0,0,0
3.8535,1783966961.3703,1,1,4.0000,-0.0000,1.42241,-0.00753,-2.63240,1.06915,1.57080,0.11675,-0.12762,-0.48150,0.03457,,,,,,,,,,,,,,,,,,,,,,,,,,0,0,0,0,0
3.8539,1783966961.3706,1,1,4.0000,-0.0000,1.42241,-0.00753,-2.63240,1.06915,1.57080,0.11675,-0.12762,-0.48150,0.03457,,,,,,,,,,,,,,,,,,,,,,,,,,0,0,0,0,0
3.8684,1783966961.3852,1,1,4.0000,-0.0000,1.42241,-0.00753,-2.63240,1.06915,1.57080,0.11675,-0.12762,-0.48150,0.03457,,,,,,,,,,,,,,,,,,,,,,,,,,0,0,0,0,0
3.8705,1783966961.3873,1,1,4.0000,-0.0000,1.42241,-0.00753,-2.63240,1.06915,1.57080,0.11675,-0.12762,-0.48150,0.03457,,,,,,,,,,,,,,,,,,,,,,,,,,0,0,0,0,0
3.8710,1783966961.3878,1,1,4.0000,-0.0000,1.42241,-0.00753,-2.63240,1.06915,1.57080,0.11675,-0.12762,-0.48150,0.03457,,,,,,,,,,,,,,,,,,,,,,,,,,0,0,0,0,0
3.8733,1783966961.3901,1,1,4.0000,-0.0000,1.42241,-0.00753,-2.63240,1.06915,1.57080,0.11675,-0.12762,-0.48150,0.03457,,,,,,,,,,,,,,,,,,,,,,,,,,0,0,0,0,0
3.8736,1783966961.3904,1,1,4.0000,-0.0000,1.42241,-0.00753,-2.63240,1.06915,1.57080,0.11675,-0.12762,-0.48150,0.03457,,,,,,,,,,,,,,,,,,,,,,,,,,0,0,0,0,0
3.9007,1783966961.4175,1,1,4.0000,-0.0000,1.42241,-0.00753,-2.63240,1.06915,1.57080,0.11675,-0.12762,-0.48150,0.03457,,,,,,,,,,,,,,,,,,,,,,,,,,0,0,0,0,0
3.9012,1783966961.4179,1,1,4.0000,-0.0000,1.42241,-0.00753,-2.63240,1.06915,1.57080,0.11675,-0.12762,-0.48150,0.03457,,,,,,,,,,,,,,,,,,,,,,,,,,0,0,0,0,0
3.9158,1783966961.4325,1,1,4.0000,-0.0000,1.42241,-0.00753,-2.63240,1.06915,1.57080,0.11675,-0.12762,-0.48150,0.03457,,,,,,,,,,,,,,,,,,,,,,,,,,0,0,0,0,0
3.9172,1783966961.4340,1,1,4.0000,-0.0000,1.42241,-0.00753,-2.63240,1.06915,1.57080,0.11675,-0.12762,-0.48150,0.03457,,,,,,,,,,,,,,,,,,,,,,,,,,0,0,0,0,0
3.9176,1783966961.4344,1,1,4.0000,-0.0000,1.42241,-0.00753,-2.63240,1.06915,1.57080,0.11675,-0.12762,-0.48150,0.03457,,,,,,,,,,,,,,,,,,,,,,,,,,0,0,0,0,0
3.9181,1783966961.4349,1,1,4.0000,-0.0000,1.42241,-0.00753,-2.63240,1.06915,1.57080,0.11675,-0.12762,-0.48150,0.03457,,,,,,,,,,,,,,,,,,,,,,,,,,0,0,0,0,0
3.9198,1783966961.4366,1,1,4.0000,-0.0000,1.42241,-0.00753,-2.63240,1.06915,1.57080,0.11675,-0.12762,-0.48150,0.03457,,,,,,,,,,,,,,,,,,,,,,,,,,0,0,0,0,0
3.9202,1783966961.4370,1,1,4.0000,-0.0000,1.42241,-0.00753,-2.63240,1.06915,1.57080,0.11675,-0.12762,-0.48150,0.03457,,,,,,,,,,,,,,,,,,,,,,,,,,0,0,0,0,0
3.9352,1783966961.4520,1,1,4.0000,-0.0000,1.42241,-0.00753,-2.63240,1.06915,1.57080,0.11675,-0.12762,-0.48150,0.03457,,,,,,,,,,,,,,,,,,,,,,,,,,0,0,0,0,0
3.9356,1783966961.4524,1,1,4.0000,-0.0000,1.42241,-0.00753,-2.63240,1.06915,1.57080,0.11675,-0.12762,-0.48150,0.03457,,,,,,,,,,,,,,,,,,,,,,,,,,0,0,0,0,0
3.9645,1783966961.4813,1,1,4.0000,-0.0000,1.42241,-0.00753,-2.63240,1.06915,1.57080,0.11675,-0.12762,-0.48150,0.03457,,,,,,,,,,,,,,,,,,,,,,,,,,0,0,0,0,0
3.9764,1783966961.4932,1,1,4.0000,-0.0000,1.42241,-0.00753,-2.63240,1.06915,1.57080,0.11675,-0.12762,-0.48150,0.03457,,,,,,,,,,,,,,,,,,,,,,,,,,0,0,0,0,0
4.0065,1783966961.5233,1,1,4.0000,-0.0000,1.42241,-0.00756,-2.63241,1.06918,1.57080,0.11675,-0.12762,-0.48150,0.03456,,,,,,,,,,,,,,,,,,,,,,,,,,0,0,0,0,0
4.0160,1783966961.5328,1,1,4.0000,-0.0000,1.42241,-0.00759,-2.63243,1.06922,1.57080,0.11675,-0.12762,-0.48149,0.03454,,,,,,,,,,,,,,,,,,,,,,,,,,0,0,0,0,0
4.0164,1783966961.5332,1,1,4.0000,-0.0000,1.42241,-0.00759,-2.63243,1.06922,1.57080,0.11675,-0.12762,-0.48149,0.03454,,,,,,,,,,,,,,,,,,,,,,,,,,0,0,0,0,0
4.0170,1783966961.5338,1,1,4.0000,-0.0000,1.42241,-0.00759,-2.63243,1.06922,1.57080,0.11675,-0.12762,-0.48149,0.03454,,,,,,,,,,,,,,,,,,,,,,,,,,0,0,0,0,0
4.0175,1783966961.5343,1,1,4.0000,-0.0000,1.42241,-0.00759,-2.63243,1.06922,1.57080,0.11675,-0.12762,-0.48149,0.03454,,,,,,,,,,,,,,,,,,,,,,,,,,0,0,0,0,0
4.0211,1783966961.5379,1,1,4.0000,-0.0000,1.42241,-0.00760,-2.63244,1.06924,1.57080,0.11675,-0.12763,-0.48148,0.03453,,,,,,,,,,,,,,,,,,,,,,,,,,0,0,0,0,0
4.0215,1783966961.5383,1,1,4.0000,-0.0000,1.42241,-0.00760,-2.63244,1.06924,1.57080,0.11675,-0.12763,-0.48148,0.03453,,,,,,,,,,,,,,,,,,,,,,,,,,0,0,0,0,0
4.0218,1783966961.5386,1,1,4.0000,-0.0000,1.42241,-0.00760,-2.63244,1.06924,1.57080,0.11675,-0.12763,-0.48148,0.03453,,,,,,,,,,,,,,,,,,,,,,,,,,0,0,0,0,0
4.0283,1783966961.5451,1,1,4.0000,-0.0000,1.42241,-0.00765,-2.63248,1.06929,1.57080,0.11675,-0.12763,-0.48146,0.03451,,,,,,,,,,,,,,,,,,,,,,,,,,0,0,0,0,0
4.0304,1783966961.5471,1,1,4.0000,-0.0000,1.42241,-0.00765,-2.63248,1.06929,1.57080,0.11675,-0.12763,-0.48146,0.03451,,,,,,,,,,,,,,,,,,,,,,,,,,0,0,0,0,0
4.0310,1783966961.5478,1,1,4.0000,-0.0000,1.42241,-0.00765,-2.63248,1.06929,1.57080,0.11675,-0.12763,-0.48146,0.03451,,,,,,,,,,,,,,,,,,,,,,,,,,0,0,0,0,0
4.0312,1783966961.5480,1,1,4.0000,-0.0000,1.42241,-0.00765,-2.63248,1.06929,1.57080,0.11675,-0.12763,-0.48146,0.03451,,,,,,,,,,,,,,,,,,,,,,,,,,0,0,0,0,0
4.0315,1783966961.5483,1,1,4.0000,-0.0000,1.42241,-0.00765,-2.63248,1.06929,1.57080,0.11675,-0.12763,-0.48146,0.03451,,,,,,,,,,,,,,,,,,,,,,,,,,0,0,0,0,0
4.0317,1783966961.5485,1,1,4.0000,-0.0000,1.42241,-0.00765,-2.63248,1.06929,1.57080,0.11675,-0.12763,-0.48146,0.03451,,,,,,,,,,,,,,,,,,,,,,,,,,0,0,0,0,0
4.0433,1783966961.5601,1,1,4.0000,-0.0000,1.42241,-0.00767,-2.63249,1.06932,1.57080,0.11675,-0.12763,-0.48146,0.03450,,,,,,,,,,,,,,,,,,,,,,,,,,0,0,0,0,0
4.0436,1783966961.5604,1,1,4.0000,-0.0000,1.42241,-0.00767,-2.63249,1.06932,1.57080,0.11675,-0.12763,-0.48146,0.03450,,,,,,,,,,,,,,,,,,,,,,,,,,0,0,0,0,0
4.0499,1783966961.5667,1,1,4.0000,-0.0000,1.42241,-0.00769,-2.63250,1.06934,1.57080,0.11675,-0.12763,-0.48145,0.03449,,,,,,,,,,,,,,,,,,,,,,,,,,0,0,0,0,0
4.0503,1783966961.5671,1,1,4.0000,-0.0000,1.42241,-0.00769,-2.63250,1.06934,1.57080,0.11675,-0.12763,-0.48145,0.03449,,,,,,,,,,,,,,,,,,,,,,,,,,0,0,0,0,0
4.0511,1783966961.5678,1,1,4.0000,-0.0000,1.42241,-0.00771,-2.63251,1.06937,1.57080,0.11675,-0.12763,-0.48145,0.03448,,,,,,,,,,,,,,,,,,,,,,,,,,0,0,0,0,0
4.0514,1783966961.5682,1,1,4.0000,-0.0000,1.42241,-0.00771,-2.63251,1.06937,1.57080,0.11675,-0.12763,-0.48145,0.03448,,,,,,,,,,,,,,,,,,,,,,,,,,0,0,0,0,0
4.0568,1783966961.5735,1,1,4.0000,-0.0000,1.42241,-0.00774,-2.63252,1.06940,1.57080,0.11675,-0.12763,-0.48145,0.03447,,,,,,,,,,,,,,,,,,,,,,,,,,0,0,0,0,0
4.0613,1783966961.5781,1,1,4.0000,-0.0000,1.42241,-0.00777,-2.63253,1.06943,1.57080,0.11675,-0.12763,-0.48144,0.03446,,,,,,,,,,,,,,,,,,,,,,,,,,0,0,0,0,0
4.0692,1783966961.5859,1,1,4.0000,-0.0000,1.42241,-0.00777,-2.63253,1.06943,1.57080,0.11675,-0.12763,-0.48144,0.03445,,,,,,,,,,,,,,,,,,,,,,,,,,0,0,0,0,0
4.0871,1783966961.6038,1,1,4.0000,-0.0000,1.42241,-0.00787,-2.63255,1.06955,1.57080,0.11675,-0.12763,-0.48144,0.03442,,,,,,,,,,,,,,,,,,,,,,,,,,0,0,0,0,0
4.0873,1783966961.6041,1,1,4.0000,-0.0000,1.42241,-0.00787,-2.63255,1.06955,1.57080,0.11675,-0.12763,-0.48144,0.03442,,,,,,,,,,,,,,,,,,,,,,,,,,0,0,0,0,0
4.0961,1783966961.6129,1,1,4.0000,-0.0000,1.42241,-0.00790,-2.63255,1.06959,1.57080,0.11675,-0.12763,-0.48145,0.03441,,,,,,,,,,,,,,,,,,,,,,,,,,0,0,0,0,0
4.0991,1783966961.6159,1,1,4.0000,-0.0000,1.42241,-0.00793,-2.63256,1.06963,1.57080,0.11675,-0.12763,-0.48145,0.03440,,,,,,,,,,,,,,,,,,,,,,,,,,0,0,0,0,0
4.0995,1783966961.6163,1,1,4.0000,-0.0000,1.42241,-0.00793,-2.63256,1.06963,1.57080,0.11675,-0.12763,-0.48145,0.03440,,,,,,,,,,,,,,,,,,,,,,,,,,0,0,0,0,0
4.0999,1783966961.6167,1,1,4.0000,-0.0000,1.42241,-0.00793,-2.63256,1.06963,1.57080,0.11675,-0.12763,-0.48145,0.03440,,,,,,,,,,,,,,,,,,,,,,,,,,0,0,0,0,0
4.1141,1783966961.6308,1,1,4.0000,-0.0000,1.42241,-0.00808,-2.63258,1.06980,1.57080,0.11675,-0.12763,-0.48145,0.03436,,,,,,,,,,,,,,,,,,,,,,,,,,0,0,0,0,0
4.1191,1783966961.6359,1,1,4.0000,-0.0000,1.42241,-0.00814,-2.63259,1.06987,1.57080,0.11675,-0.12763,-0.48145,0.03434,,,,,,,,,,,,,,,,,,,,,,,,,,0,0,0,0,0
4.1194,1783966961.6362,1,1,4.0000,-0.0000,1.42241,-0.00814,-2.63259,1.06987,1.57080,0.11675,-0.12763,-0.48145,0.03434,,,,,,,,,,,,,,,,,,,,,,,,,,0,0,0,0,0
4.1196,1783966961.6364,1,1,4.0000,-0.0000,1.42241,-0.00814,-2.63259,1.06987,1.57080,0.11675,-0.12763,-0.48145,0.03434,,,,,,,,,,,,,,,,,,,,,,,,,,0,0,0,0,0
4.1198,1783966961.6366,1,1,4.0000,-0.0000,1.42241,-0.00814,-2.63259,1.06987,1.57080,0.11675,-0.12763,-0.48145,0.03434,,,,,,,,,,,,,,,,,,,,,,,,,,0,0,0,0,0
4.1201,1783966961.6369,1,1,4.0000,-0.0000,1.42241,-0.00814,-2.63259,1.06987,1.57080,0.11675,-0.12763,-0.48145,0.03434,,,,,,,,,,,,,,,,,,,,,,,,,,0,0,0,0,0
4.1296,1783966961.6464,1,1,4.0000,-0.0000,1.42241,-0.00816,-2.63259,1.06990,1.57080,0.11675,-0.12763,-0.48146,0.03433,,,,,,,,,,,,,,,,,,,,,,,,,,0,0,0,0,0
4.1537,1783966961.6705,1,1,4.0000,-0.0000,1.42241,-0.00840,-2.63262,1.07019,1.57080,0.11675,-0.12763,-0.48147,0.03426,,,,,,,,,,,,,,,,,,,,,,,,,,0,0,0,0,0
4.1541,1783966961.6709,1,1,4.0000,-0.0000,1.42241,-0.00840,-2.63262,1.07019,1.57080,0.11675,-0.12763,-0.48147,0.03426,,,,,,,,,,,,,,,,,,,,,,,,,,0,0,0,0,0
4.1544,1783966961.6712,1,1,4.0000,-0.0000,1.42241,-0.00840,-2.63262,1.07019,1.57080,0.11675,-0.12763,-0.48147,0.03426,,,,,,,,,,,,,,,,,,,,,,,,,,0,0,0,0,0
4.1648,1783966961.6816,1,1,4.0000,-0.0000,1.42241,-0.00855,-2.63264,1.07037,1.57080,0.11675,-0.12762,-0.48148,0.03421,,,,,,,,,,,,,,,,,,,,,,,,,,0,0,0,0,0
4.1655,1783966961.6823,1,1,4.0000,-0.0000,1.42241,-0.00855,-2.63264,1.07037,1.57080,0.11675,-0.12762,-0.48148,0.03421,,,,,,,,,,,,,,,,,,,,,,,,,,0,0,0,0,0
4.1657,1783966961.6825,1,1,4.0000,-0.0000,1.42241,-0.00855,-2.63264,1.07037,1.57080,0.11675,-0.12762,-0.48148,0.03421,,,,,,,,,,,,,,,,,,,,,,,,,,0,0,0,0,0
4.1766,1783966961.6934,1,1,4.0000,-0.0000,1.42241,-0.00867,-2.63266,1.07052,1.57080,0.11675,-0.12762,-0.48149,0.03418,,,,,,,,,,,,,,,,,,,,,,,,,,0,0,0,0,0
4.1863,1783966961.7031,1,1,4.0000,-0.0000,1.42241,-0.00869,-2.63266,1.07055,1.57080,0.11675,-0.12762,-0.48149,0.03417,,,,,,,,,,,,,,,,,,,,,,,,,,0,0,0,0,0
4.1944,1783966961.7112,1,1,4.0000,-0.0000,1.42241,-0.00869,-2.63266,1.07055,1.57080,0.11675,-0.12762,-0.48149,0.03417,,,,,,,,,,,,,,,,,,,,,,,,,,0,0,0,0,0
4.2078,1783966961.7246,1,1,4.0000,-0.0000,1.42241,-0.00869,-2.63266,1.07055,1.57080,0.11675,-0.12762,-0.48149,0.03417,,,,,,,,,,,,,,,,,,,,,,,,,,0,0,0,0,0
4.2201,1783966961.7368,1,1,4.0000,-0.0000,1.42241,-0.00869,-2.63266,1.07055,1.57080,0.11675,-0.12762,-0.48149,0.03417,,,,,,,,,,,,,,,,,,,,,,,,,,0,0,0,0,0
4.2238,1783966961.7406,1,1,4.0000,-0.0000,1.42241,-0.00869,-2.63266,1.07055,1.57080,0.11675,-0.12762,-0.48149,0.03417,,,,,,,,,,,,,,,,,,,,,,,,,,0,0,0,0,0
4.2346,1783966961.7514,1,1,4.0000,-0.0000,1.42241,-0.00869,-2.63266,1.07055,1.57080,0.11675,-0.12762,-0.48149,0.03417,,,,,,,,,,,,,,,,,,,,,,,,,,0,0,0,0,0
4.3065,1783966961.8233,1,1,4.0000,-0.0000,1.42241,-0.00869,-2.63266,1.07055,1.57080,0.11675,-0.12762,-0.48149,0.03417,,,,,,,,,,,,,,,,,,,,,,,,,,0,0,0,0,0
4.3089,1783966961.8257,1,1,4.0000,-0.0000,1.42241,-0.00869,-2.63266,1.07055,1.57080,0.11675,-0.12762,-0.48149,0.03417,,,,,,,,,,,,,,,,,,,,,,,,,,0,0,0,0,0
4.3093,1783966961.8261,1,1,4.0000,-0.0000,1.42241,-0.00869,-2.63266,1.07055,1.57080,0.11675,-0.12762,-0.48149,0.03417,,,,,,,,,,,,,,,,,,,,,,,,,,0,0,0,0,0
4.3266,1783966961.8433,1,1,4.0000,-0.0000,1.42241,-0.00869,-2.63266,1.07055,1.57080,0.11675,-0.12762,-0.48149,0.03417,,,,,,,,,,,,,,,,,,,,,,,,,,0,0,0,0,0
4.3293,1783966961.8461,1,1,4.0000,-0.0000,1.42241,-0.00869,-2.63266,1.07055,1.57080,0.11675,-0.12762,-0.48149,0.03417,,,,,,,,,,,,,,,,,,,,,,,,,,0,0,0,0,0
4.3298,1783966961.8466,1,1,4.0000,-0.0000,1.42241,-0.00869,-2.63266,1.07055,1.57080,0.11675,-0.12762,-0.48149,0.03417,,,,,,,,,,,,,,,,,,,,,,,,,,0,0,0,0,0
4.3350,1783966961.8518,1,1,4.0000,-0.0000,1.42241,-0.00869,-2.63266,1.07055,1.57080,0.11675,-0.12762,-0.48149,0.03417,,,,,,,,,,,,,,,,,,,,,,,,,,0,0,0,0,0
4.3353,1783966961.8521,1,1,4.0000,-0.0000,1.42241,-0.00869,-2.63266,1.07055,1.57080,0.11675,-0.12762,-0.48149,0.03417,,,,,,,,,,,,,,,,,,,,,,,,,,0,0,0,0,0
4.3367,1783966961.8535,1,1,4.0000,-0.0000,1.42241,-0.00869,-2.63266,1.07055,1.57080,0.11675,-0.12762,-0.48149,0.03417,,,,,,,,,,,,,,,,,,,,,,,,,,0,0,0,0,0
4.3370,1783966961.8538,1,1,4.0000,-0.0000,1.42241,-0.00869,-2.63266,1.07055,1.57080,0.11675,-0.12762,-0.48149,0.03417,,,,,,,,,,,,,,,,,,,,,,,,,,0,0,0,0,0
4.3373,1783966961.8540,1,1,4.0000,-0.0000,1.42241,-0.00869,-2.63266,1.07055,1.57080,0.11675,-0.12762,-0.48149,0.03417,,,,,,,,,,,,,,,,,,,,,,,,,,0,0,0,0,0
4.3376,1783966961.8544,1,1,4.0000,-0.0000,1.42241,-0.00869,-2.63266,1.07055,1.57080,0.11675,-0.12762,-0.48149,0.03417,,,,,,,,,,,,,,,,,,,,,,,,,,0,0,0,0,0
4.3378,1783966961.8546,1,1,4.0000,-0.0000,1.42241,-0.00869,-2.63266,1.07055,1.57080,0.11675,-0.12762,-0.48149,0.03417,,,,,,,,,,,,,,,,,,,,,,,,,,0,0,0,0,0
4.3466,1783966961.8634,1,1,4.0000,-0.0000,1.42241,-0.00869,-2.63266,1.07055,1.57080,0.11675,-0.12762,-0.48149,0.03417,,,,,,,,,,,,,,,,,,,,,,,,,,0,0,0,0,0
4.3532,1783966961.8700,1,1,4.0000,-0.0000,1.42241,-0.00869,-2.63266,1.07055,1.57080,0.11675,-0.12762,-0.48149,0.03417,,,,,,,,,,,,,,,,,,,,,,,,,,0,0,0,0,0
4.3640,1783966961.8808,1,1,4.0000,-0.0000,1.42241,-0.00869,-2.63266,1.07055,1.57080,0.11675,-0.12762,-0.48149,0.03417,,,,,,,,,,,,,,,,,,,,,,,,,,0,0,0,0,0
4.3740,1783966961.8907,1,1,4.0000,-0.0000,1.42241,-0.00869,-2.63266,1.07055,1.57080,0.11675,-0.12762,-0.48149,0.03417,,,,,,,,,,,,,,,,,,,,,,,,,,0,0,0,0,0
4.3856,1783966961.9024,1,1,4.0000,-0.0000,1.42241,-0.00869,-2.63266,1.07055,1.57080,0.11675,-0.12762,-0.48149,0.03417,,,,,,,,,,,,,,,,,,,,,,,,,,0,0,0,0,0
4.4067,1783966961.9235,1,1,4.0000,-0.0000,1.42241,-0.00870,-2.63266,1.07057,1.57080,0.11675,-0.12762,-0.48149,0.03417,,,,,,,,,,,,,,,,,,,,,,,,,,0,0,0,0,0
4.4075,1783966961.9243,1,1,4.0000,-0.0000,1.42241,-0.00871,-2.63266,1.07058,1.57080,0.11675,-0.12762,-0.48150,0.03417,,,,,,,,,,,,,,,,,,,,,,,,,,0,0,0,0,0
4.4145,1783966961.9313,1,1,4.0000,-0.0000,1.42241,-0.00872,-2.63266,1.07059,1.57080,0.11675,-0.12762,-0.48150,0.03417,,,,,,,,,,,,,,,,,,,,,,,,,,0,0,0,0,0
4.4242,1783966961.9410,1,1,4.0000,-0.0000,1.42241,-0.00874,-2.63266,1.07062,1.57080,0.11675,-0.12762,-0.48150,0.03416,,,,,,,,,,,,,,,,,,,,,,,,,,0,0,0,0,0
4.4363,1783966961.9531,1,1,4.0000,-0.0000,1.42241,-0.00875,-2.63268,1.07064,1.57081,0.11675,-0.12762,-0.48149,0.03415,,,,,,,,,,,,,,,,,,,,,,,,,,0,0,0,0,0
4.4492,1783966961.9660,1,1,4.0000,-0.0000,1.42241,-0.00879,-2.63270,1.07068,1.57081,0.11675,-0.12762,-0.48148,0.03414,,,,,,,,,,,,,,,,,,,,,,,,,,0,0,0,0,0
4.4565,1783966961.9733,1,1,4.0000,-0.0000,1.42241,-0.00880,-2.63271,1.07069,1.57081,0.11675,-0.12762,-0.48148,0.03413,,,,,,,,,,,,,,,,,,,,,,,,,,0,0,0,0,0
4.4663,1783966961.9831,1,1,4.0000,-0.0000,1.42241,-0.00884,-2.63273,1.07074,1.57081,0.11675,-0.12763,-0.48147,0.03411,,,,,,,,,,,,,,,,,,,,,,,,,,0,0,0,0,0
4.4666,1783966961.9834,1,1,4.0000,-0.0000,1.42241,-0.00884,-2.63273,1.07074,1.57081,0.11675,-0.12763,-0.48147,0.03411,,,,,,,,,,,,,,,,,,,,,,,,,,0,0,0,0,0
4.4758,1783966961.9926,1,1,4.0000,-0.0000,1.42241,-0.00892,-2.63277,1.07084,1.57081,0.11675,-0.12763,-0.48145,0.03407,,,,,,,,,,,,,,,,,,,,,,,,,,0,0,0,0,0
4.4865,1783966962.0033,1,1,4.0000,-0.0000,1.42241,-0.00893,-2.63277,1.07084,1.57081,0.11675,-0.12763,-0.48145,0.03407,,,,,,,,,,,,,,,,,,,,,,,,,,0,0,0,0,0
4.4871,1783966962.0039,1,1,4.0000,-0.0000,1.42241,-0.00894,-2.63278,1.07086,1.57081,0.11675,-0.12763,-0.48145,0.03406,,,,,,,,,,,,,,,,,,,,,,,,,,0,0,0,0,0
4.5009,1783966962.0177,1,1,4.0000,-0.0000,1.42241,-0.00903,-2.63280,1.07096,1.57081,0.11675,-0.12763,-0.48145,0.03403,,,,,,,,,,,,,,,,,,,,,,,,,,0,0,0,0,0
4.5054,1783966962.0222,1,1,4.0000,-0.0000,1.42241,-0.00907,-2.63281,1.07101,1.57081,0.11675,-0.12763,-0.48145,0.03402,,,,,,,,,,,,,,,,,,,,,,,,,,0,0,0,0,0
4.5064,1783966962.0232,1,1,4.0000,-0.0000,1.42241,-0.00907,-2.63281,1.07101,1.57081,0.11675,-0.12763,-0.48145,0.03402,,,,,,,,,,,,,,,,,,,,,,,,,,0,0,0,0,0
4.5158,1783966962.0326,1,1,4.0000,-0.0000,1.42241,-0.00912,-2.63282,1.07107,1.57081,0.11675,-0.12763,-0.48145,0.03400,,,,,,,,,,,,,,,,,,,,,,,,,,0,0,0,0,0
4.5272,1783966962.0440,1,1,4.0000,-0.0000,1.42241,-0.00920,-2.63283,1.07117,1.57081,0.11675,-0.12763,-0.48145,0.03397,,,,,,,,,,,,,,,,,,,,,,,,,,0,0,0,0,0
4.5385,1783966962.0553,1,1,4.0000,-0.0000,1.42241,-0.00925,-2.63284,1.07122,1.57081,0.11675,-0.12763,-0.48145,0.03396,,,,,,,,,,,,,,,,,,,,,,,,,,0,0,0,0,0
4.5388,1783966962.0556,1,1,4.0000,-0.0000,1.42241,-0.00925,-2.63284,1.07122,1.57081,0.11675,-0.12763,-0.48145,0.03396,,,,,,,,,,,,,,,,,,,,,,,,,,0,0,0,0,0
4.5446,1783966962.0614,1,1,4.0000,-0.0000,1.42241,-0.00927,-2.63284,1.07125,1.57081,0.11675,-0.12763,-0.48145,0.03395,,,,,,,,,,,,,,,,,,,,,,,,,,0,0,0,0,0
4.5588,1783966962.0756,1,1,4.0000,-0.0000,1.42241,-0.00939,-2.63286,1.07139,1.57081,0.11675,-0.12763,-0.48146,0.03392,,,,,,,,,,,,,,,,,,,,,,,,,,0,0,0,0,0
4.5685,1783966962.0853,1,1,4.0000,-0.0000,1.42241,-0.00955,-2.63288,1.07159,1.57081,0.11675,-0.12762,-0.48146,0.03387,,,,,,,,,,,,,,,,,,,,,,,,,,0,0,0,0,0
4.5783,1783966962.0951,1,1,4.0000,-0.0000,1.42241,-0.00967,-2.63290,1.07172,1.57081,0.11675,-0.12762,-0.48147,0.03383,,,,,,,,,,,,,,,,,,,,,,,,,,0,0,0,0,0
4.5832,1783966962.1000,1,1,4.0000,-0.0000,1.42241,-0.00977,-2.63292,1.07185,1.57081,0.11675,-0.12762,-0.48147,0.03380,,,,,,,,,,,,,,,,,,,,,,,,,,0,0,0,0,0
4.5835,1783966962.1003,1,1,4.0000,-0.0000,1.42241,-0.00977,-2.63292,1.07185,1.57081,0.11675,-0.12762,-0.48147,0.03380,,,,,,,,,,,,,,,,,,,,,,,,,,0,0,0,0,0
4.5954,1783966962.1122,1,1,4.0000,-0.0000,1.42241,-0.00986,-2.63293,1.07197,1.57081,0.11675,-0.12762,-0.48148,0.03377,,,,,,,,,,,,,,,,,,,,,,,,,,0,0,0,0,0
4.6079,1783966962.1247,1,1,4.0000,-0.0000,1.42241,-0.00986,-2.63293,1.07197,1.57081,0.11675,-0.12762,-0.48148,0.03377,,,,,,,,,,,,,,,,,,,,,,,,,,0,0,0,0,0
4.6148,1783966962.1316,1,1,4.0000,-0.0000,1.42241,-0.00986,-2.63293,1.07197,1.57081,0.11675,-0.12762,-0.48148,0.03377,,,,,,,,,,,,,,,,,,,,,,,,,,0,0,0,0,0
4.6294,1783966962.1462,1,1,4.0000,-0.0000,1.42241,-0.00986,-2.63293,1.07197,1.57081,0.11675,-0.12762,-0.48148,0.03377,,,,,,,,,,,,,,,,,,,,,,,,,,0,0,0,0,0
4.6341,1783966962.1509,1,1,4.0000,-0.0000,1.42241,-0.00986,-2.63293,1.07197,1.57081,0.11675,-0.12762,-0.48148,0.03377,,,,,,,,,,,,,,,,,,,,,,,,,,0,0,0,0,0
4.6617,1783966962.1785,1,1,4.0000,-0.0000,1.42241,-0.00986,-2.63293,1.07197,1.57081,0.11675,-0.12762,-0.48148,0.03377,,,,,,,,,,,,,,,,,,,,,,,,,,0,0,0,0,0
4.6643,1783966962.1811,1,1,4.0000,-0.0000,1.42241,-0.00986,-2.63293,1.07197,1.57081,0.11675,-0.12762,-0.48148,0.03377,,,,,,,,,,,,,,,,,,,,,,,,,,0,0,0,0,0
4.6646,1783966962.1814,1,1,4.0000,-0.0000,1.42241,-0.00986,-2.63293,1.07197,1.57081,0.11675,-0.12762,-0.48148,0.03377,,,,,,,,,,,,,,,,,,,,,,,,,,0,0,0,0,0
4.6649,1783966962.1817,1,1,4.0000,-0.0000,1.42241,-0.00986,-2.63293,1.07197,1.57081,0.11675,-0.12762,-0.48148,0.03377,,,,,,,,,,,,,,,,,,,,,,,,,,0,0,0,0,0
4.6652,1783966962.1820,1,1,4.0000,-0.0000,1.42241,-0.00986,-2.63293,1.07197,1.57081,0.11675,-0.12762,-0.48148,0.03377,,,,,,,,,,,,,,,,,,,,,,,,,,0,0,0,0,0
4.6730,1783966962.1898,1,1,4.0000,-0.0000,1.42241,-0.00986,-2.63293,1.07197,1.57081,0.11675,-0.12762,-0.48148,0.03377,,,,,,,,,,,,,,,,,,,,,,,,,,0,0,0,0,0
4.6865,1783966962.2033,1,1,4.0000,-0.0000,1.42241,-0.00986,-2.63293,1.07197,1.57081,0.11675,-0.12762,-0.48148,0.03377,,,,,,,,,,,,,,,,,,,,,,,,,,0,0,0,0,0
4.6868,1783966962.2036,1,1,4.0000,-0.0000,1.42241,-0.00986,-2.63293,1.07197,1.57081,0.11675,-0.12762,-0.48148,0.03377,,,,,,,,,,,,,,,,,,,,,,,,,,0,0,0,0,0
4.7160,1783966962.2328,1,1,4.0000,-0.0000,1.42241,-0.00986,-2.63293,1.07197,1.57081,0.11675,-0.12762,-0.48148,0.03377,,,,,,,,,,,,,,,,,,,,,,,,,,0,0,0,0,0
4.7163,1783966962.2331,1,1,4.0000,-0.0000,1.42241,-0.00986,-2.63293,1.07197,1.57081,0.11675,-0.12762,-0.48148,0.03377,,,,,,,,,,,,,,,,,,,,,,,,,,0,0,0,0,0
4.7192,1783966962.2360,1,1,4.0000,-0.0000,1.42241,-0.00986,-2.63293,1.07197,1.57081,0.11675,-0.12762,-0.48148,0.03377,,,,,,,,,,,,,,,,,,,,,,,,,,0,0,0,0,0
4.7195,1783966962.2363,1,1,4.0000,-0.0000,1.42241,-0.00986,-2.63293,1.07197,1.57081,0.11675,-0.12762,-0.48148,0.03377,,,,,,,,,,,,,,,,,,,,,,,,,,0,0,0,0,0
4.7316,1783966962.2484,1,1,4.0000,-0.0000,1.42241,-0.00986,-2.63293,1.07197,1.57081,0.11675,-0.12762,-0.48148,0.03377,,,,,,,,,,,,,,,,,,,,,,,,,,0,0,0,0,0
4.7319,1783966962.2487,1,1,4.0000,-0.0000,1.42241,-0.00986,-2.63293,1.07197,1.57081,0.11675,-0.12762,-0.48148,0.03377,,,,,,,,,,,,,,,,,,,,,,,,,,0,0,0,0,0
4.7445,1783966962.2612,1,1,4.0000,-0.0000,1.42241,-0.00986,-2.63293,1.07197,1.57081,0.11675,-0.12762,-0.48148,0.03377,,,,,,,,,,,,,,,,,,,,,,,,,,0,0,0,0,0
4.7459,1783966962.2627,1,1,4.0000,-0.0000,1.42241,-0.00986,-2.63293,1.07197,1.57081,0.11675,-0.12762,-0.48148,0.03377,,,,,,,,,,,,,,,,,,,,,,,,,,0,0,0,0,0
4.7462,1783966962.2630,1,1,4.0000,-0.0000,1.42241,-0.00986,-2.63293,1.07197,1.57081,0.11675,-0.12762,-0.48148,0.03377,,,,,,,,,,,,,,,,,,,,,,,,,,0,0,0,0,0
4.7561,1783966962.2729,1,1,4.0000,-0.0000,1.42241,-0.00986,-2.63293,1.07197,1.57081,0.11675,-0.12762,-0.48148,0.03377,,,,,,,,,,,,,,,,,,,,,,,,,,0,0,0,0,0
4.7648,1783966962.2816,1,1,4.0000,-0.0000,1.42241,-0.00986,-2.63293,1.07197,1.57081,0.11675,-0.12762,-0.48148,0.03377,,,,,,,,,,,,,,,,,,,,,,,,,,0,0,0,0,0
4.7764,1783966962.2932,1,1,4.0000,-0.0000,1.42241,-0.00986,-2.63293,1.07197,1.57081,0.11675,-0.12762,-0.48148,0.03377,,,,,,,,,,,,,,,,,,,,,,,,,,0,0,0,0,0
4.7840,1783966962.3008,1,1,4.0000,-0.0000,1.42241,-0.00986,-2.63293,1.07197,1.57081,0.11675,-0.12762,-0.48148,0.03377,,,,,,,,,,,,,,,,,,,,,,,,,,0,0,0,0,0
4.7844,1783966962.3012,1,1,4.0000,-0.0000,1.42241,-0.00986,-2.63293,1.07197,1.57081,0.11675,-0.12762,-0.48148,0.03377,,,,,,,,,,,,,,,,,,,,,,,,,,0,0,0,0,0
4.7948,1783966962.3116,1,1,4.0000,-0.0000,1.42241,-0.00986,-2.63293,1.07197,1.57081,0.11675,-0.12762,-0.48148,0.03377,,,,,,,,,,,,,,,,,,,,,,,,,,0,0,0,0,0
4.7957,1783966962.3125,1,1,4.0000,-0.0000,1.42241,-0.00986,-2.63293,1.07197,1.57081,0.11675,-0.12762,-0.48148,0.03377,,,,,,,,,,,,,,,,,,,,,,,,,,0,0,0,0,0
4.8159,1783966962.3326,1,1,4.0000,-0.0000,1.42241,-0.00986,-2.63293,1.07197,1.57081,0.11675,-0.12762,-0.48148,0.03377,,,,,,,,,,,,,,,,,,,,,,,,,,0,0,0,0,0
4.8169,1783966962.3337,1,1,4.0000,-0.0000,1.42241,-0.00986,-2.63293,1.07197,1.57081,0.11675,-0.12762,-0.48148,0.03377,,,,,,,,,,,,,,,,,,,,,,,,,,0,0,0,0,0
4.8173,1783966962.3341,1,1,4.0000,-0.0000,1.42241,-0.00986,-2.63293,1.07197,1.57081,0.11675,-0.12762,-0.48148,0.03377,,,,,,,,,,,,,,,,,,,,,,,,,,0,0,0,0,0
4.8241,1783966962.3409,1,1,4.0000,-0.0000,1.42241,-0.00987,-2.63293,1.07198,1.57081,0.11675,-0.12762,-0.48148,0.03377,,,,,,,,,,,,,,,,,,,,,,,,,,0,0,0,0,0
4.8245,1783966962.3413,1,1,4.0000,-0.0000,1.42241,-0.00987,-2.63293,1.07198,1.57081,0.11675,-0.12762,-0.48148,0.03377,,,,,,,,,,,,,,,,,,,,,,,,,,0,0,0,0,0
4.8453,1783966962.3621,1,1,4.0000,-0.0000,1.42241,-0.00990,-2.63293,1.07202,1.57081,0.11675,-0.12762,-0.48149,0.03377,,,,,,,,,,,,,,,,,,,,,,,,,,0,0,0,0,0
4.8467,1783966962.3635,1,1,4.0000,-0.0000,1.42241,-0.00990,-2.63293,1.07202,1.57081,0.11675,-0.12762,-0.48149,0.03377,,,,,,,,,,,,,,,,,,,,,,,,,,0,0,0,0,0
4.8473,1783966962.3641,1,1,4.0000,-0.0000,1.42241,-0.00990,-2.63294,1.07203,1.57081,0.11675,-0.12762,-0.48148,0.03376,,,,,,,,,,,,,,,,,,,,,,,,,,0,0,0,0,0
4.8595,1783966962.3763,1,1,4.0000,-0.0000,1.42241,-0.00995,-2.63297,1.07208,1.57081,0.11675,-0.12762,-0.48147,0.03373,,,,,,,,,,,,,,,,,,,,,,,,,,0,0,0,0,0
4.8637,1783966962.3805,1,1,4.0000,-0.0000,1.42241,-0.00997,-2.63299,1.07211,1.57081,0.11675,-0.12762,-0.48146,0.03372,,,,,,,,,,,,,,,,,,,,,,,,,,0,0,0,0,0
4.8640,1783966962.3808,1,1,4.0000,-0.0000,1.42241,-0.00997,-2.63299,1.07211,1.57081,0.11675,-0.12762,-0.48146,0.03372,,,,,,,,,,,,,,,,,,,,,,,,,,0,0,0,0,0
4.8756,1783966962.3924,1,1,4.0000,-0.0000,1.42241,-0.01000,-2.63300,1.07214,1.57081,0.11675,-0.12763,-0.48145,0.03371,,,,,,,,,,,,,,,,,,,,,,,,,,0,0,0,0,0
4.8759,1783966962.3927,1,1,4.0000,-0.0000,1.42241,-0.01000,-2.63300,1.07214,1.57081,0.11675,-0.12763,-0.48145,0.03371,,,,,,,,,,,,,,,,,,,,,,,,,,0,0,0,0,0
4.8878,1783966962.4046,1,1,4.0000,-0.0000,1.42241,-0.01004,-2.63302,1.07219,1.57081,0.11675,-0.12763,-0.48144,0.03369,,,,,,,,,,,,,,,,,,,,,,,,,,0,0,0,0,0
4.8967,1783966962.4135,1,1,4.0000,-0.0000,1.42240,-0.01009,-2.63304,1.07225,1.57081,0.11675,-0.12763,-0.48143,0.03367,,,,,,,,,,,,,,,,,,,,,,,,,,0,0,0,0,0
4.9119,1783966962.4287,1,1,4.0000,-0.0000,1.42240,-0.01013,-2.63306,1.07230,1.57081,0.11675,-0.12763,-0.48143,0.03365,,,,,,,,,,,,,,,,,,,,,,,,,,0,0,0,0,0
4.9186,1783966962.4354,1,1,4.0000,-0.0000,1.42240,-0.01016,-2.63306,1.07233,1.57081,0.11675,-0.12763,-0.48143,0.03364,,,,,,,,,,,,,,,,,,,,,,,,,,0,0,0,0,0
4.9267,1783966962.4435,1,1,4.0000,-0.0000,1.42240,-0.01022,-2.63307,1.07240,1.57081,0.11675,-0.12763,-0.48143,0.03362,,,,,,,,,,,,,,,,,,,,,,,,,,0,0,0,0,0
4.9399,1783966962.4567,1,1,4.0000,-0.0000,1.42240,-0.01035,-2.63310,1.07256,1.57081,0.11675,-0.12763,-0.48143,0.03358,,,,,,,,,,,,,,,,,,,,,,,,,,0,0,0,0,0
4.9440,1783966962.4608,1,1,4.0000,-0.0000,1.42240,-0.01036,-2.63310,1.07257,1.57081,0.11675,-0.12763,-0.48143,0.03358,,,,,,,,,,,,,,,,,,,,,,,,,,0,0,0,0,0
4.9443,1783966962.4611,1,1,4.0000,-0.0000,1.42240,-0.01036,-2.63310,1.07257,1.57081,0.11675,-0.12763,-0.48143,0.03358,,,,,,,,,,,,,,,,,,,,,,,,,,0,0,0,0,0
4.9638,1783966962.4806,1,1,4.0000,-0.0000,1.42240,-0.01047,-2.63312,1.07271,1.57081,0.11675,-0.12763,-0.48144,0.03354,,,,,,,,,,,,,,,,,,,,,,,,,,0,0,0,0,0
4.9646,1783966962.4814,1,1,4.0000,-0.0000,1.42240,-0.01047,-2.63312,1.07271,1.57081,0.11675,-0.12763,-0.48144,0.03354,,,,,,,,,,,,,,,,,,,,,,,,,,0,0,0,0,0
4.9649,1783966962.4817,1,1,4.0000,-0.0000,1.42240,-0.01047,-2.63312,1.07271,1.57081,0.11675,-0.12763,-0.48144,0.03354,,,,,,,,,,,,,,,,,,,,,,,,,,0,0,0,0,0
4.9813,1783966962.4981,1,1,4.0000,-0.0000,1.42240,-0.01056,-2.63313,1.07281,1.57081,0.11675,-0.12762,-0.48144,0.03351,,,,,,,,,,,,,,,,,,,,,,,,,,0,0,0,0,0
4.9952,1783966962.5120,1,1,4.0000,-0.0000,1.42240,-0.01076,-2.63315,1.07305,1.57081,0.11675,-0.12762,-0.48146,0.03346,,,,,,,,,,,,,,,,,,,,,,,,,,0,0,0,0,0
4.9955,1783966962.5123,1,1,4.0000,-0.0000,1.42240,-0.01076,-2.63315,1.07305,1.57081,0.11675,-0.12762,-0.48146,0.03346,,,,,,,,,,,,,,,,,,,,,,,,,,0,0,0,0,0
5.0199,1783966962.5367,1,1,4.0000,-0.0000,1.42240,-0.01103,-2.63318,1.07338,1.57081,0.11675,-0.12762,-0.48148,0.03338,,,,,,,,,,,,,,,,,,,,,,,,,,0,0,0,0,0
5.0203,1783966962.5371,1,1,4.0000,-0.0000,1.42240,-0.01103,-2.63318,1.07338,1.57081,0.11675,-0.12762,-0.48148,0.03338,,,,,,,,,,,,,,,,,,,,,,,,,,0,0,0,0,0
5.0234,1783966962.5402,1,1,4.0000,-0.0000,1.42240,-0.01105,-2.63319,1.07341,1.57081,0.11675,-0.12762,-0.48148,0.03337,,,,,,,,,,,,,,,,,,,,,,,,,,0,0,0,0,0
5.0239,1783966962.5407,1,1,4.0000,-0.0000,1.42240,-0.01105,-2.63319,1.07341,1.57081,0.11675,-0.12762,-0.48148,0.03337,,,,,,,,,,,,,,,,,,,,,,,,,,0,0,0,0,0
5.0395,1783966962.5563,1,1,4.0000,-0.0000,1.42240,-0.01105,-2.63319,1.07341,1.57081,0.11675,-0.12762,-0.48148,0.03337,,,,,,,,,,,,,,,,,,,,,,,,,,0,0,0,0,0
5.0461,1783966962.5629,1,1,4.0000,-0.0000,1.42240,-0.01105,-2.63319,1.07341,1.57081,0.11675,-0.12762,-0.48148,0.03337,,,,,,,,,,,,,,,,,,,,,,,,,,0,0,0,0,0
5.0465,1783966962.5633,1,1,4.0000,-0.0000,1.42240,-0.01105,-2.63319,1.07341,1.57081,0.11675,-0.12762,-0.48148,0.03337,,,,,,,,,,,,,,,,,,,,,,,,,,0,0,0,0,0
5.0672,1783966962.5840,1,1,4.0000,-0.0000,1.42240,-0.01105,-2.63319,1.07341,1.57081,0.11675,-0.12762,-0.48148,0.03337,,,,,,,,,,,,,,,,,,,,,,,,,,0,0,0,0,0
5.0712,1783966962.5880,1,1,4.0000,-0.0000,1.42240,-0.01105,-2.63319,1.07341,1.57081,0.11675,-0.12762,-0.48148,0.03337,,,,,,,,,,,,,,,,,,,,,,,,,,0,0,0,0,0
5.0757,1783966962.5925,1,1,4.0000,-0.0000,1.42240,-0.01105,-2.63319,1.07341,1.57081,0.11675,-0.12762,-0.48148,0.03337,,,,,,,,,,,,,,,,,,,,,,,,,,0,0,0,0,0
5.0761,1783966962.5929,1,1,4.0000,-0.0000,1.42240,-0.01105,-2.63319,1.07341,1.57081,0.11675,-0.12762,-0.48148,0.03337,,,,,,,,,,,,,,,,,,,,,,,,,,0,0,0,0,0
5.0965,1783966962.6133,1,1,4.0000,-0.0000,1.42240,-0.01105,-2.63319,1.07341,1.57081,0.11675,-0.12762,-0.48148,0.03337,,,,,,,,,,,,,,,,,,,,,,,,,,0,0,0,0,0
5.1012,1783966962.6179,1,1,4.0000,-0.0000,1.42240,-0.01105,-2.63319,1.07341,1.57081,0.11675,-0.12762,-0.48148,0.03337,,,,,,,,,,,,,,,,,,,,,,,,,,0,0,0,0,0
5.1192,1783966962.6360,1,1,4.0000,-0.0000,1.42240,-0.01105,-2.63319,1.07341,1.57081,0.11675,-0.12762,-0.48148,0.03337,,,,,,,,,,,,,,,,,,,,,,,,,,0,0,0,0,0
5.1238,1783966962.6405,1,1,4.0000,-0.0000,1.42240,-0.01105,-2.63319,1.07341,1.57081,0.11675,-0.12762,-0.48148,0.03337,,,,,,,,,,,,,,,,,,,,,,,,,,0,0,0,0,0
5.1339,1783966962.6506,1,1,4.0000,-0.0000,1.42240,-0.01105,-2.63319,1.07341,1.57081,0.11675,-0.12762,-0.48148,0.03337,,,,,,,,,,,,,,,,,,,,,,,,,,0,0,0,0,0
5.1372,1783966962.6540,1,1,4.0000,-0.0000,1.42240,-0.01105,-2.63319,1.07341,1.57081,0.11675,-0.12762,-0.48148,0.03337,,,,,,,,,,,,,,,,,,,,,,,,,,0,0,0,0,0
5.1434,1783966962.6601,1,1,4.0000,-0.0000,1.42240,-0.01105,-2.63319,1.07341,1.57081,0.11675,-0.12762,-0.48148,0.03337,,,,,,,,,,,,,,,,,,,,,,,,,,0,0,0,0,0
5.1543,1783966962.6711,1,1,4.0000,-0.0000,1.42240,-0.01105,-2.63319,1.07341,1.57081,0.11675,-0.12762,-0.48148,0.03337,,,,,,,,,,,,,,,,,,,,,,,,,,0,0,0,0,0
5.1639,1783966962.6807,1,1,4.0000,-0.0000,1.42240,-0.01105,-2.63319,1.07341,1.57081,0.11675,-0.12762,-0.48148,0.03337,,,,,,,,,,,,,,,,,,,,,,,,,,0,0,0,0,0
5.1753,1783966962.6921,1,1,4.0000,-0.0000,1.42240,-0.01105,-2.63319,1.07341,1.57081,0.11675,-0.12762,-0.48148,0.03337,,,,,,,,,,,,,,,,,,,,,,,,,,0,0,0,0,0
5.1853,1783966962.7021,1,1,4.0000,-0.0000,1.42240,-0.01105,-2.63319,1.07341,1.57081,0.11675,-0.12762,-0.48148,0.03337,,,,,,,,,,,,,,,,,,,,,,,,,,0,0,0,0,0
5.2254,1783966962.7422,1,1,4.0000,-0.0000,1.42240,-0.01105,-2.63319,1.07341,1.57081,0.11675,-0.12762,-0.48148,0.03337,,,,,,,,,,,,,,,,,,,,,,,,,,0,0,0,0,0
5.2260,1783966962.7428,1,1,4.0000,-0.0000,1.42240,-0.01105,-2.63319,1.07341,1.57081,0.11675,-0.12762,-0.48148,0.03337,,,,,,,,,,,,,,,,,,,,,,,,,,0,0,0,0,0
5.2277,1783966962.7445,1,1,4.0000,-0.0000,1.42240,-0.01105,-2.63319,1.07341,1.57081,0.11675,-0.12762,-0.48148,0.03337,,,,,,,,,,,,,,,,,,,,,,,,,,0,0,0,0,0
5.2282,1783966962.7450,1,1,4.0000,-0.0000,1.42240,-0.01105,-2.63319,1.07341,1.57081,0.11675,-0.12762,-0.48148,0.03337,,,,,,,,,,,,,,,,,,,,,,,,,,0,0,0,0,0
5.2299,1783966962.7467,1,1,4.0000,-0.0000,1.42240,-0.01105,-2.63319,1.07341,1.57081,0.11675,-0.12762,-0.48148,0.03337,,,,,,,,,,,,,,,,,,,,,,,,,,0,0,0,0,0
5.2304,1783966962.7472,1,1,4.0000,-0.0000,1.42240,-0.01105,-2.63319,1.07341,1.57081,0.11675,-0.12762,-0.48148,0.03337,,,,,,,,,,,,,,,,,,,,,,,,,,0,0,0,0,0
5.2443,1783966962.7611,1,1,4.0000,-0.0000,1.42240,-0.01106,-2.63318,1.07342,1.57081,0.11675,-0.12762,-0.48148,0.03337,,,,,,,,,,,,,,,,,,,,,,,,,,0,0,0,0,0
5.2458,1783966962.7626,1,1,4.0000,-0.0000,1.42240,-0.01106,-2.63318,1.07342,1.57081,0.11675,-0.12762,-0.48148,0.03337,,,,,,,,,,,,,,,,,,,,,,,,,,0,0,0,0,0
5.2462,1783966962.7630,1,1,4.0000,-0.0000,1.42240,-0.01106,-2.63318,1.07342,1.57081,0.11675,-0.12762,-0.48148,0.03337,,,,,,,,,,,,,,,,,,,,,,,,,,0,0,0,0,0
5.2555,1783966962.7723,1,1,4.0000,-0.0000,1.42240,-0.01109,-2.63318,1.07346,1.57081,0.11675,-0.12762,-0.48149,0.03337,,,,,,,,,,,,,,,,,,,,,,,,,,0,0,0,0,0
5.2715,1783966962.7883,1,1,4.0000,-0.0000,1.42240,-0.01110,-2.63319,1.07349,1.57081,0.11675,-0.12762,-0.48149,0.03336,,,,,,,,,,,,,,,,,,,,,,,,,,0,0,0,0,0
5.2745,1783966962.7913,1,1,4.0000,-0.0000,1.42240,-0.01110,-2.63319,1.07349,1.57081,0.11675,-0.12762,-0.48149,0.03336,,,,,,,,,,,,,,,,,,,,,,,,,,0,0,0,0,0
5.2749,1783966962.7916,1,1,4.0000,-0.0000,1.42240,-0.01110,-2.63319,1.07349,1.57081,0.11675,-0.12762,-0.48149,0.03336,,,,,,,,,,,,,,,,,,,,,,,,,,0,0,0,0,0
5.2998,1783966962.8166,1,1,4.0000,-0.0000,1.42240,-0.01123,-2.63327,1.07364,1.57081,0.11675,-0.12762,-0.48145,0.03329,,,,,,,,,,,,,,,,,,,,,,,,,,0,0,0,0,0
5.3002,1783966962.8170,1,1,4.0000,-0.0000,1.42240,-0.01123,-2.63327,1.07364,1.57081,0.11675,-0.12762,-0.48145,0.03329,,,,,,,,,,,,,,,,,,,,,,,,,,0,0,0,0,0
5.3005,1783966962.8173,1,1,4.0000,-0.0000,1.42240,-0.01123,-2.63327,1.07364,1.57081,0.11675,-0.12762,-0.48145,0.03329,,,,,,,,,,,,,,,,,,,,,,,,,,0,0,0,0,0
5.3192,1783966962.8360,1,1,4.0000,-0.0000,1.42240,-0.01133,-2.63335,1.07376,1.57081,0.11675,-0.12763,-0.48141,0.03323,,,,,,,,,,,,,,,,,,,,,,,,,,0,0,0,0,0
5.3313,1783966962.8481,1,1,4.0000,-0.0000,1.42240,-0.01136,-2.63335,1.07380,1.57081,0.11675,-0.12763,-0.48141,0.03323,,,,,,,,,,,,,,,,,,,,,,,,,,0,0,0,0,0
5.3460,1783966962.8628,1,1,4.0000,-0.0000,1.42240,-0.01144,-2.63335,1.07389,1.57081,0.11675,-0.12763,-0.48142,0.03320,,,,,,,,,,,,,,,,,,,,,,,,,,0,0,0,0,0
5.3478,1783966962.8646,1,1,4.0000,-0.0000,1.42240,-0.01148,-2.63336,1.07394,1.57081,0.11675,-0.12763,-0.48142,0.03319,,,,,,,,,,,,,,,,,,,,,,,,,,0,0,0,0,0
