Martins-Lucaas/twinforge/sensors/Data/celula de carga/20260713_150024__samples.csv
t_rel_s,t_unix,cycle,phase,setpoint_n,force_net_n,q1,q2,q3,q4,q5,q6,tcp_x,tcp_y,tcp_z,taxel_0,taxel_1,taxel_2,taxel_3,taxel_4,taxel_5,taxel_6,taxel_7,taxel_8,taxel_9,taxel_10,taxel_11,taxel_12,taxel_13,taxel_14,taxel_15,taxel_16,taxel_17,taxel_18,taxel_19,taxel_20,taxel_21,taxel_22,taxel_23,taxel_24,n_RA,n_SA,cn_mm,cn_ra,cn_sa
0.0169,1783965624.5681,1,0,1.0000,-0.0000,1.42244,0.00071,-2.63053,1.05907,1.57079,0.11676,-0.12764,-0.48152,0.03738,,,,,,,,,,,,,,,,,,,,,,,,,,0,0,0,0,0
0.0209,1783965624.5721,1,0,1.0000,-0.0000,1.42244,0.00071,-2.63053,1.05907,1.57079,0.11676,-0.12764,-0.48152,0.03738,,,,,,,,,,,,,,,,,,,,,,,,,,0,0,0,0,0
0.0214,1783965624.5725,1,0,1.0000,-0.0000,1.42244,0.00071,-2.63053,1.05907,1.57079,0.11676,-0.12764,-0.48152,0.03738,,,,,,,,,,,,,,,,,,,,,,,,,,0,0,0,0,0
0.0218,1783965624.5730,1,0,1.0000,-0.0000,1.42244,0.00071,-2.63053,1.05907,1.57079,0.11676,-0.12764,-0.48152,0.03738,,,,,,,,,,,,,,,,,,,,,,,,,,0,0,0,0,0
0.0240,1783965624.5752,1,0,1.0000,-0.0000,1.42244,0.00071,-2.63053,1.05907,1.57079,0.11676,-0.12764,-0.48152,0.03738,,,,,,,,,,,,,,,,,,,,,,,,,,0,0,0,0,0
0.0243,1783965624.5755,1,0,1.0000,-0.0000,1.42244,0.00071,-2.63053,1.05907,1.57079,0.11676,-0.12764,-0.48152,0.03738,,,,,,,,,,,,,,,,,,,,,,,,,,0,0,0,0,0
0.0247,1783965624.5759,1,0,1.0000,-0.0000,1.42244,0.00071,-2.63053,1.05907,1.57079,0.11676,-0.12764,-0.48152,0.03738,,,,,,,,,,,,,,,,,,,,,,,,,,0,0,0,0,0
0.0266,1783965624.5777,1,0,1.0000,-0.0000,1.42244,0.00071,-2.63053,1.05907,1.57079,0.11676,-0.12764,-0.48152,0.03738,,,,,,,,,,,,,,,,,,,,,,,,,,0,0,0,0,0
0.0269,1783965624.5781,1,0,1.0000,-0.0000,1.42244,0.00071,-2.63053,1.05907,1.57079,0.11676,-0.12764,-0.48152,0.03738,,,,,,,,,,,,,,,,,,,,,,,,,,0,0,0,0,0
0.0275,1783965624.5787,1,0,1.0000,-0.0000,1.42244,0.00071,-2.63053,1.05907,1.57079,0.11676,-0.12764,-0.48152,0.03738,,,,,,,,,,,,,,,,,,,,,,,,,,0,0,0,0,0
0.0278,1783965624.5789,1,0,1.0000,-0.0000,1.42244,0.00071,-2.63053,1.05907,1.57079,0.11676,-0.12764,-0.48152,0.03738,,,,,,,,,,,,,,,,,,,,,,,,,,0,0,0,0,0
0.0293,1783965624.5805,1,0,1.0000,-0.0000,1.42244,0.00071,-2.63053,1.05907,1.57079,0.11676,-0.12764,-0.48152,0.03738,,,,,,,,,,,,,,,,,,,,,,,,,,0,0,0,0,0
0.0296,1783965624.5808,1,0,1.0000,-0.0000,1.42244,0.00071,-2.63053,1.05907,1.57079,0.11676,-0.12764,-0.48152,0.03738,,,,,,,,,,,,,,,,,,,,,,,,,,0,0,0,0,0
0.0374,1783965624.5886,1,0,1.0000,-0.0000,1.42244,0.00071,-2.63053,1.05907,1.57079,0.11676,-0.12764,-0.48152,0.03738,,,,,,,,,,,,,,,,,,,,,,,,,,0,0,0,0,0
0.0378,1783965624.5890,1,0,1.0000,-0.0000,1.42244,0.00071,-2.63053,1.05907,1.57079,0.11676,-0.12764,-0.48152,0.03738,,,,,,,,,,,,,,,,,,,,,,,,,,0,0,0,0,0
0.0416,1783965624.5927,1,0,1.0000,-0.0000,1.42244,0.00071,-2.63053,1.05907,1.57079,0.11676,-0.12764,-0.48152,0.03738,,,,,,,,,,,,,,,,,,,,,,,,,,0,0,0,0,0
0.0420,1783965624.5932,1,0,1.0000,-0.0000,1.42244,0.00071,-2.63053,1.05907,1.57079,0.11676,-0.12764,-0.48152,0.03738,,,,,,,,,,,,,,,,,,,,,,,,,,0,0,0,0,0
0.0424,1783965624.5936,1,0,1.0000,-0.0000,1.42244,0.00071,-2.63053,1.05907,1.57079,0.11676,-0.12764,-0.48152,0.03738,,,,,,,,,,,,,,,,,,,,,,,,,,0,0,0,0,0
0.0495,1783965624.6007,1,0,1.0000,-0.0000,1.42244,0.00071,-2.63053,1.05907,1.57079,0.11676,-0.12764,-0.48152,0.03738,,,,,,,,,,,,,,,,,,,,,,,,,,0,0,0,0,0
0.0543,1783965624.6054,1,0,1.0000,-0.0000,1.42244,0.00071,-2.63053,1.05907,1.57079,0.11676,-0.12764,-0.48152,0.03738,,,,,,,,,,,,,,,,,,,,,,,,,,0,0,0,0,0
0.0662,1783965624.6174,1,0,1.0000,-0.0000,1.42244,0.00071,-2.63053,1.05907,1.57079,0.11676,-0.12764,-0.48152,0.03738,,,,,,,,,,,,,,,,,,,,,,,,,,0,0,0,0,0
0.0753,1783965624.6265,1,0,1.0000,-0.0000,1.42244,0.00071,-2.63053,1.05907,1.57079,0.11676,-0.12764,-0.48152,0.03738,,,,,,,,,,,,,,,,,,,,,,,,,,0,0,0,0,0
0.0836,1783965624.6348,1,0,1.0000,-0.0000,1.42244,0.00071,-2.63053,1.05907,1.57079,0.11676,-0.12764,-0.48152,0.03738,,,,,,,,,,,,,,,,,,,,,,,,,,0,0,0,0,0
0.0839,1783965624.6351,1,0,1.0000,-0.0000,1.42244,0.00071,-2.63053,1.05907,1.57079,0.11676,-0.12764,-0.48152,0.03738,,,,,,,,,,,,,,,,,,,,,,,,,,0,0,0,0,0
0.1283,1783965624.6795,1,0,1.0000,-0.0000,1.42244,0.00071,-2.63053,1.05907,1.57079,0.11676,-0.12764,-0.48152,0.03738,,,,,,,,,,,,,,,,,,,,,,,,,,0,0,0,0,0
0.1288,1783965624.6800,1,0,1.0000,-0.0000,1.42244,0.00071,-2.63053,1.05907,1.57079,0.11676,-0.12764,-0.48152,0.03738,,,,,,,,,,,,,,,,,,,,,,,,,,0,0,0,0,0
0.1293,1783965624.6805,1,0,1.0000,-0.0000,1.42244,0.00071,-2.63053,1.05907,1.57079,0.11676,-0.12764,-0.48152,0.03738,,,,,,,,,,,,,,,,,,,,,,,,,,0,0,0,0,0
0.1297,1783965624.6809,1,0,1.0000,-0.0000,1.42244,0.00071,-2.63053,1.05907,1.57079,0.11676,-0.12764,-0.48152,0.03738,,,,,,,,,,,,,,,,,,,,,,,,,,0,0,0,0,0
0.1364,1783965624.6876,1,0,1.0000,-0.0000,1.42244,0.00071,-2.63053,1.05907,1.57079,0.11676,-0.12764,-0.48152,0.03738,,,,,,,,,,,,,,,,,,,,,,,,,,0,0,0,0,0
0.1514,1783965624.7026,1,0,1.0000,-0.0000,1.42244,0.00071,-2.63053,1.05907,1.57079,0.11676,-0.12764,-0.48152,0.03738,,,,,,,,,,,,,,,,,,,,,,,,,,0,0,0,0,0
0.1542,1783965624.7054,1,0,1.0000,-0.0000,1.42244,0.00071,-2.63053,1.05907,1.57079,0.11676,-0.12764,-0.48152,0.03738,,,,,,,,,,,,,,,,,,,,,,,,,,0,0,0,0,0
0.1547,1783965624.7059,1,0,1.0000,-0.0000,1.42244,0.00071,-2.63053,1.05907,1.57079,0.11676,-0.12764,-0.48152,0.03738,,,,,,,,,,,,,,,,,,,,,,,,,,0,0,0,0,0
0.1684,1783965624.7195,1,0,1.0000,-0.0000,1.42244,0.00071,-2.63053,1.05907,1.57079,0.11676,-0.12764,-0.48152,0.03738,,,,,,,,,,,,,,,,,,,,,,,,,,0,0,0,0,0
0.1728,1783965624.7240,1,0,1.0000,-0.0000,1.42244,0.00071,-2.63053,1.05907,1.57079,0.11676,-0.12764,-0.48152,0.03738,,,,,,,,,,,,,,,,,,,,,,,,,,0,0,0,0,0
0.1731,1783965624.7243,1,0,1.0000,-0.0000,1.42244,0.00071,-2.63053,1.05907,1.57079,0.11676,-0.12764,-0.48152,0.03738,,,,,,,,,,,,,,,,,,,,,,,,,,0,0,0,0,0
0.1844,1783965624.7356,1,0,1.0000,-0.0000,1.42244,0.00071,-2.63053,1.05907,1.57079,0.11676,-0.12764,-0.48152,0.03738,,,,,,,,,,,,,,,,,,,,,,,,,,0,0,0,0,0
0.3246,1783965624.8758,1,0,1.0000,-0.0000,1.42244,0.00071,-2.63053,1.05907,1.57079,0.11676,-0.12764,-0.48152,0.03738,,,,,,,,,,,,,,,,,,,,,,,,,,0,0,0,0,0
0.3289,1783965624.8801,1,0,1.0000,-0.0000,1.42244,0.00071,-2.63053,1.05907,1.57079,0.11676,-0.12764,-0.48152,0.03738,,,,,,,,,,,,,,,,,,,,,,,,,,0,0,0,0,0
0.3541,1783965624.9053,1,0,1.0000,-0.0000,1.42244,0.00071,-2.63053,1.05907,1.57079,0.11676,-0.12764,-0.48152,0.03738,,,,,,,,,,,,,,,,,,,,,,,,,,0,0,0,0,0
0.3603,1783965624.9115,1,0,1.0000,-0.0000,1.42244,0.00071,-2.63053,1.05907,1.57079,0.11676,-0.12764,-0.48152,0.03738,,,,,,,,,,,,,,,,,,,,,,,,,,0,0,0,0,0
0.3606,1783965624.9118,1,0,1.0000,-0.0000,1.42244,0.00071,-2.63053,1.05907,1.57079,0.11676,-0.12764,-0.48152,0.03738,,,,,,,,,,,,,,,,,,,,,,,,,,0,0,0,0,0
0.3652,1783965624.9164,1,0,1.0000,-0.0000,1.42244,0.00071,-2.63053,1.05907,1.57079,0.11676,-0.12764,-0.48152,0.03738,,,,,,,,,,,,,,,,,,,,,,,,,,0,0,0,0,0
0.3675,1783965624.9187,1,0,1.0000,-0.0000,1.42244,0.00071,-2.63053,1.05907,1.57079,0.11676,-0.12764,-0.48152,0.03738,,,,,,,,,,,,,,,,,,,,,,,,,,0,0,0,0,0
0.3770,1783965624.9282,1,0,1.0000,-0.0000,1.42244,0.00071,-2.63053,1.05907,1.57079,0.11676,-0.12764,-0.48152,0.03738,,,,,,,,,,,,,,,,,,,,,,,,,,0,0,0,0,0
0.3785,1783965624.9297,1,0,1.0000,-0.0000,1.42244,0.00071,-2.63053,1.05907,1.57079,0.11676,-0.12764,-0.48152,0.03738,,,,,,,,,,,,,,,,,,,,,,,,,,0,0,0,0,0
0.3788,1783965624.9299,1,0,1.0000,-0.0000,1.42244,0.00071,-2.63053,1.05907,1.57079,0.11676,-0.12764,-0.48152,0.03738,,,,,,,,,,,,,,,,,,,,,,,,,,0,0,0,0,0
0.3841,1783965624.9353,1,0,1.0000,-0.0000,1.42244,0.00071,-2.63053,1.05907,1.57079,0.11676,-0.12764,-0.48152,0.03738,,,,,,,,,,,,,,,,,,,,,,,,,,0,0,0,0,0
0.3844,1783965624.9356,1,0,1.0000,-0.0000,1.42244,0.00071,-2.63053,1.05907,1.57079,0.11676,-0.12764,-0.48152,0.03738,,,,,,,,,,,,,,,,,,,,,,,,,,0,0,0,0,0
0.3958,1783965624.9470,1,0,1.0000,-0.0000,1.42244,0.00071,-2.63053,1.05907,1.57079,0.11676,-0.12764,-0.48152,0.03738,,,,,,,,,,,,,,,,,,,,,,,,,,0,0,0,0,0
0.3961,1783965624.9473,1,0,1.0000,-0.0000,1.42244,0.00071,-2.63053,1.05907,1.57079,0.11676,-0.12764,-0.48152,0.03738,,,,,,,,,,,,,,,,,,,,,,,,,,0,0,0,0,0
0.3977,1783965624.9489,1,0,1.0000,-0.0000,1.42244,0.00071,-2.63053,1.05907,1.57079,0.11676,-0.12764,-0.48152,0.03738,,,,,,,,,,,,,,,,,,,,,,,,,,0,0,0,0,0
0.3980,1783965624.9492,1,0,1.0000,-0.0000,1.42244,0.00071,-2.63053,1.05907,1.57079,0.11676,-0.12764,-0.48152,0.03738,,,,,,,,,,,,,,,,,,,,,,,,,,0,0,0,0,0
0.3992,1783965624.9504,1,0,1.0000,-0.0000,1.42244,0.00071,-2.63053,1.05907,1.57079,0.11676,-0.12764,-0.48152,0.03738,,,,,,,,,,,,,,,,,,,,,,,,,,0,0,0,0,0
0.3998,1783965624.9510,1,0,1.0000,-0.0000,1.42244,0.00071,-2.63053,1.05907,1.57079,0.11676,-0.12764,-0.48152,0.03738,,,,,,,,,,,,,,,,,,,,,,,,,,0,0,0,0,0
0.4041,1783965624.9553,1,0,1.0000,-0.0000,1.42244,0.00071,-2.63053,1.05907,1.57079,0.11676,-0.12764,-0.48152,0.03738,,,,,,,,,,,,,,,,,,,,,,,,,,0,0,0,0,0
0.4049,1783965624.9561,1,0,1.0000,-0.0000,1.42244,0.00071,-2.63053,1.05907,1.57079,0.11676,-0.12764,-0.48152,0.03738,,,,,,,,,,,,,,,,,,,,,,,,,,0,0,0,0,0
0.4053,1783965624.9565,1,0,1.0000,-0.0000,1.42244,0.00071,-2.63053,1.05907,1.57079,0.11676,-0.12764,-0.48152,0.03738,,,,,,,,,,,,,,,,,,,,,,,,,,0,0,0,0,0
0.4082,1783965624.9594,1,0,1.0000,-0.0000,1.42244,0.00071,-2.63053,1.05907,1.57079,0.11676,-0.12764,-0.48152,0.03738,,,,,,,,,,,,,,,,,,,,,,,,,,0,0,0,0,0
0.4088,1783965624.9600,1,0,1.0000,-0.0000,1.42244,0.00071,-2.63053,1.05907,1.57079,0.11676,-0.12764,-0.48152,0.03738,,,,,,,,,,,,,,,,,,,,,,,,,,0,0,0,0,0
0.4273,1783965624.9785,1,0,1.0000,-0.0000,1.42244,0.00071,-2.63053,1.05907,1.57079,0.11676,-0.12764,-0.48152,0.03738,,,,,,,,,,,,,,,,,,,,,,,,,,0,0,0,0,0
0.4279,1783965624.9791,1,0,1.0000,-0.0000,1.42244,0.00071,-2.63053,1.05907,1.57079,0.11676,-0.12764,-0.48152,0.03738,,,,,,,,,,,,,,,,,,,,,,,,,,0,0,0,0,0
0.4290,1783965624.9802,1,0,1.0000,-0.0000,1.42244,0.00071,-2.63053,1.05907,1.57079,0.11676,-0.12764,-0.48152,0.03738,,,,,,,,,,,,,,,,,,,,,,,,,,0,0,0,0,0
0.4293,1783965624.9805,1,0,1.0000,-0.0000,1.42244,0.00071,-2.63053,1.05907,1.57079,0.11676,-0.12764,-0.48152,0.03738,,,,,,,,,,,,,,,,,,,,,,,,,,0,0,0,0,0
0.4333,1783965624.9845,1,0,1.0000,-0.0000,1.42244,0.00071,-2.63053,1.05907,1.57079,0.11676,-0.12764,-0.48152,0.03738,,,,,,,,,,,,,,,,,,,,,,,,,,0,0,0,0,0
0.4337,1783965624.9849,1,0,1.0000,-0.0000,1.42244,0.00071,-2.63053,1.05907,1.57079,0.11676,-0.12764,-0.48152,0.03738,,,,,,,,,,,,,,,,,,,,,,,,,,0,0,0,0,0
0.4357,1783965624.9869,1,0,1.0000,-0.0000,1.42244,0.00071,-2.63053,1.05907,1.57079,0.11676,-0.12764,-0.48152,0.03738,,,,,,,,,,,,,,,,,,,,,,,,,,0,0,0,0,0
0.4359,1783965624.9870,1,0,1.0000,-0.0000,1.42244,0.00071,-2.63053,1.05907,1.57079,0.11676,-0.12764,-0.48152,0.03738,,,,,,,,,,,,,,,,,,,,,,,,,,0,0,0,0,0
0.4362,1783965624.9874,1,0,1.0000,-0.0000,1.42244,0.00071,-2.63053,1.05907,1.57079,0.11676,-0.12764,-0.48152,0.03738,,,,,,,,,,,,,,,,,,,,,,,,,,0,0,0,0,0
0.4365,1783965624.9877,1,0,1.0000,-0.0000,1.42244,0.00071,-2.63053,1.05907,1.57079,0.11676,-0.12764,-0.48152,0.03738,,,,,,,,,,,,,,,,,,,,,,,,,,0,0,0,0,0
0.4448,1783965624.9960,1,0,1.0000,-0.0000,1.42244,0.00071,-2.63053,1.05907,1.57079,0.11676,-0.12764,-0.48152,0.03738,,,,,,,,,,,,,,,,,,,,,,,,,,0,0,0,0,0
0.4545,1783965625.0057,1,0,1.0000,-0.0000,1.42244,0.00071,-2.63053,1.05907,1.57079,0.11676,-0.12764,-0.48152,0.03738,,,,,,,,,,,,,,,,,,,,,,,,,,0,0,0,0,0
0.4549,1783965625.0061,1,0,1.0000,-0.0000,1.42244,0.00071,-2.63053,1.05907,1.57079,0.11676,-0.12764,-0.48152,0.03738,,,,,,,,,,,,,,,,,,,,,,,,,,0,0,0,0,0
0.4906,1783965625.0418,1,0,1.0000,-0.0000,1.42244,0.00071,-2.63053,1.05907,1.57079,0.11676,-0.12764,-0.48152,0.03738,,,,,,,,,,,,,,,,,,,,,,,,,,0,0,0,0,0
0.4978,1783965625.0490,1,0,1.0000,-0.0000,1.42244,0.00071,-2.63053,1.05907,1.57079,0.11676,-0.12764,-0.48152,0.03738,,,,,,,,,,,,,,,,,,,,,,,,,,0,0,0,0,0
0.4999,1783965625.0511,1,0,1.0000,-0.0000,1.42244,0.00071,-2.63053,1.05907,1.57079,0.11676,-0.12764,-0.48152,0.03738,,,,,,,,,,,,,,,,,,,,,,,,,,0,0,0,0,0
0.5001,1783965625.0513,1,0,1.0000,-0.0000,1.42244,0.00071,-2.63053,1.05907,1.57079,0.11676,-0.12764,-0.48152,0.03738,,,,,,,,,,,,,,,,,,,,,,,,,,0,0,0,0,0
0.5014,1783965625.0526,1,0,1.0000,-0.0000,1.42244,0.00071,-2.63053,1.05907,1.57079,0.11676,-0.12764,-0.48152,0.03738,,,,,,,,,,,,,,,,,,,,,,,,,,0,0,0,0,0
0.5018,1783965625.0530,1,0,1.0000,-0.0000,1.42244,0.00071,-2.63053,1.05907,1.57079,0.11676,-0.12764,-0.48152,0.03738,,,,,,,,,,,,,,,,,,,,,,,,,,0,0,0,0,0
0.5067,1783965625.0578,1,0,1.0000,-0.0000,1.42244,0.00071,-2.63053,1.05907,1.57079,0.11676,-0.12764,-0.48152,0.03738,,,,,,,,,,,,,,,,,,,,,,,,,,0,0,0,0,0
0.5070,1783965625.0582,1,0,1.0000,-0.0000,1.42244,0.00071,-2.63053,1.05907,1.57079,0.11676,-0.12764,-0.48152,0.03738,,,,,,,,,,,,,,,,,,,,,,,,,,0,0,0,0,0
0.5211,1783965625.0723,1,0,1.0000,-0.0000,1.42244,0.00071,-2.63053,1.05907,1.57079,0.11676,-0.12764,-0.48152,0.03738,,,,,,,,,,,,,,,,,,,,,,,,,,0,0,0,0,0
0.5299,1783965625.0811,1,0,1.0000,-0.0000,1.42244,0.00071,-2.63053,1.05907,1.57079,0.11676,-0.12764,-0.48152,0.03738,,,,,,,,,,,,,,,,,,,,,,,,,,0,0,0,0,0
0.5340,1783965625.0852,1,0,1.0000,-0.0000,1.42244,0.00071,-2.63053,1.05907,1.57079,0.11676,-0.12764,-0.48152,0.03738,,,,,,,,,,,,,,,,,,,,,,,,,,0,0,0,0,0
0.5346,1783965625.0858,1,0,1.0000,-0.0000,1.42244,0.00071,-2.63053,1.05907,1.57079,0.11676,-0.12764,-0.48152,0.03738,,,,,,,,,,,,,,,,,,,,,,,,,,0,0,0,0,0
0.5439,1783965625.0951,1,0,1.0000,-0.0000,1.42244,0.00071,-2.63053,1.05907,1.57079,0.11676,-0.12764,-0.48152,0.03738,,,,,,,,,,,,,,,,,,,,,,,,,,0,0,0,0,0
0.5443,1783965625.0955,1,0,1.0000,-0.0000,1.42244,0.00071,-2.63053,1.05907,1.57079,0.11676,-0.12764,-0.48152,0.03738,,,,,,,,,,,,,,,,,,,,,,,,,,0,0,0,0,0
0.5618,1783965625.1130,1,0,1.0000,-0.0000,1.42244,0.00071,-2.63053,1.05907,1.57079,0.11676,-0.12764,-0.48152,0.03738,,,,,,,,,,,,,,,,,,,,,,,,,,0,0,0,0,0
0.5662,1783965625.1173,1,0,1.0000,-0.0000,1.42244,0.00071,-2.63053,1.05907,1.57079,0.11676,-0.12764,-0.48152,0.03738,,,,,,,,,,,,,,,,,,,,,,,,,,0,0,0,0,0
0.5665,1783965625.1177,1,0,1.0000,-0.0000,1.42244,0.00071,-2.63053,1.05907,1.57079,0.11676,-0.12764,-0.48152,0.03738,,,,,,,,,,,,,,,,,,,,,,,,,,0,0,0,0,0
0.5775,1783965625.1287,1,0,1.0000,-0.0000,1.42244,0.00071,-2.63053,1.05907,1.57079,0.11676,-0.12764,-0.48152,0.03738,,,,,,,,,,,,,,,,,,,,,,,,,,0,0,0,0,0
0.5857,1783965625.1369,1,0,1.0000,-0.0000,1.42244,0.00071,-2.63053,1.05907,1.57079,0.11676,-0.12764,-0.48152,0.03738,,,,,,,,,,,,,,,,,,,,,,,,,,0,0,0,0,0
0.5863,1783965625.1374,1,0,1.0000,-0.0000,1.42244,0.00071,-2.63053,1.05907,1.57079,0.11676,-0.12764,-0.48152,0.03738,,,,,,,,,,,,,,,,,,,,,,,,,,0,0,0,0,0
0.6012,1783965625.1524,1,0,1.0000,-0.0000,1.42244,0.00071,-2.63053,1.05907,1.57079,0.11676,-0.12764,-0.48152,0.03738,,,,,,,,,,,,,,,,,,,,,,,,,,0,0,0,0,0
0.6052,1783965625.1564,1,0,1.0000,-0.0000,1.42244,0.00071,-2.63053,1.05907,1.57079,0.11676,-0.12764,-0.48152,0.03738,,,,,,,,,,,,,,,,,,,,,,,,,,0,0,0,0,0
0.6601,1783965625.2113,1,0,1.0000,-0.0000,1.42244,0.00071,-2.63053,1.05907,1.57079,0.11676,-0.12764,-0.48152,0.03738,,,,,,,,,,,,,,,,,,,,,,,,,,0,0,0,0,0
0.6604,1783965625.2116,1,0,1.0000,-0.0000,1.42244,0.00071,-2.63053,1.05907,1.57079,0.11676,-0.12764,-0.48152,0.03738,,,,,,,,,,,,,,,,,,,,,,,,,,0,0,0,0,0
0.7001,1783965625.2512,1,0,1.0000,-0.0000,1.42244,0.00071,-2.63053,1.05907,1.57079,0.11676,-0.12764,-0.48152,0.03738,,,,,,,,,,,,,,,,,,,,,,,,,,0,0,0,0,0
0.7004,1783965625.2516,1,0,1.0000,-0.0000,1.42244,0.00071,-2.63053,1.05907,1.57079,0.11676,-0.12764,-0.48152,0.03738,,,,,,,,,,,,,,,,,,,,,,,,,,0,0,0,0,0
0.7476,1783965625.2987,1,1,1.0000,-0.0000,1.42244,0.00071,-2.63053,1.05907,1.57079,0.11676,-0.12764,-0.48152,0.03738,,,,,,,,,,,,,,,,,,,,,,,,,,0,0,0,0,0
0.7512,1783965625.3024,1,1,1.0000,-0.0000,1.42244,0.00071,-2.63053,1.05907,1.57079,0.11676,-0.12764,-0.48152,0.03738,,,,,,,,,,,,,,,,,,,,,,,,,,0,0,0,0,0
0.7516,1783965625.3028,1,1,1.0000,-0.0000,1.42244,0.00071,-2.63053,1.05907,1.57079,0.11676,-0.12764,-0.48152,0.03738,,,,,,,,,,,,,,,,,,,,,,,,,,0,0,0,0,0
0.7657,1783965625.3169,1,1,1.0000,-0.0000,1.42244,0.00071,-2.63053,1.05907,1.57079,0.11676,-0.12764,-0.48152,0.03738,,,,,,,,,,,,,,,,,,,,,,,,,,0,0,0,0,0
0.7703,1783965625.3215,1,1,1.0000,-0.0000,1.42244,0.00071,-2.63053,1.05907,1.57079,0.11676,-0.12764,-0.48152,0.03738,,,,,,,,,,,,,,,,,,,,,,,,,,0,0,0,0,0
0.7719,1783965625.3230,1,1,1.0000,-0.0000,1.42244,0.00071,-2.63053,1.05907,1.57079,0.11676,-0.12764,-0.48152,0.03738,,,,,,,,,,,,,,,,,,,,,,,,,,0,0,0,0,0
0.7862,1783965625.3374,1,1,1.0000,-0.0000,1.42244,0.00071,-2.63053,1.05907,1.57079,0.11676,-0.12764,-0.48152,0.03738,,,,,,,,,,,,,,,,,,,,,,,,,,0,0,0,0,0
0.7891,1783965625.3403,1,1,1.0000,-0.0000,1.42244,0.00071,-2.63053,1.05907,1.57079,0.11676,-0.12764,-0.48152,0.03738,,,,,,,,,,,,,,,,,,,,,,,,,,0,0,0,0,0
0.7895,1783965625.3407,1,1,1.0000,-0.0000,1.42244,0.00071,-2.63053,1.05907,1.57079,0.11676,-0.12764,-0.48152,0.03738,,,,,,,,,,,,,,,,,,,,,,,,,,0,0,0,0,0
0.7911,1783965625.3423,1,1,1.0000,-0.0000,1.42244,0.00071,-2.63053,1.05907,1.57079,0.11676,-0.12764,-0.48152,0.03738,,,,,,,,,,,,,,,,,,,,,,,,,,0,0,0,0,0
0.7914,1783965625.3426,1,1,1.0000,-0.0000,1.42244,0.00071,-2.63053,1.05907,1.57079,0.11676,-0.12764,-0.48152,0.03738,,,,,,,,,,,,,,,,,,,,,,,,,,0,0,0,0,0
0.7979,1783965625.3491,1,1,1.0000,-0.0000,1.42244,0.00071,-2.63053,1.05907,1.57079,0.11676,-0.12764,-0.48152,0.03738,,,,,,,,,,,,,,,,,,,,,,,,,,0,0,0,0,0
0.8004,1783965625.3516,1,1,1.0000,-0.0000,1.42244,0.00071,-2.63053,1.05907,1.57079,0.11676,-0.12764,-0.48152,0.03738,,,,,,,,,,,,,,,,,,,,,,,,,,0,0,0,0,0
0.8008,1783965625.3520,1,1,1.0000,-0.0000,1.42244,0.00071,-2.63053,1.05907,1.57079,0.11676,-0.12764,-0.48152,0.03738,,,,,,,,,,,,,,,,,,,,,,,,,,0,0,0,0,0
0.8012,1783965625.3523,1,1,1.0000,-0.0000,1.42244,0.00071,-2.63053,1.05907,1.57079,0.11676,-0.12764,-0.48152,0.03738,,,,,,,,,,,,,,,,,,,,,,,,,,0,0,0,0,0
0.8016,1783965625.3528,1,1,1.0000,-0.0000,1.42244,0.00071,-2.63053,1.05907,1.57079,0.11676,-0.12764,-0.48152,0.03738,,,,,,,,,,,,,,,,,,,,,,,,,,0,0,0,0,0
0.8050,1783965625.3562,1,1,1.0000,-0.0000,1.42244,0.00071,-2.63053,1.05907,1.57079,0.11676,-0.12764,-0.48152,0.03738,,,,,,,,,,,,,,,,,,,,,,,,,,0,0,0,0,0
0.8055,1783965625.3567,1,1,1.0000,-0.0000,1.42244,0.00071,-2.63053,1.05907,1.57079,0.11676,-0.12764,-0.48152,0.03738,,,,,,,,,,,,,,,,,,,,,,,,,,0,0,0,0,0
0.8104,1783965625.3616,1,1,1.0000,-0.0000,1.42244,0.00071,-2.63053,1.05907,1.57079,0.11676,-0.12764,-0.48152,0.03738,,,,,,,,,,,,,,,,,,,,,,,,,,0,0,0,0,0
0.8108,1783965625.3620,1,1,1.0000,-0.0000,1.42244,0.00071,-2.63053,1.05907,1.57079,0.11676,-0.12764,-0.48152,0.03738,,,,,,,,,,,,,,,,,,,,,,,,,,0,0,0,0,0
0.8176,1783965625.3687,1,1,1.0000,-0.0000,1.42244,0.00071,-2.63053,1.05907,1.57079,0.11676,-0.12764,-0.48152,0.03738,,,,,,,,,,,,,,,,,,,,,,,,,,0,0,0,0,0
0.8366,1783965625.3878,1,1,1.0000,-0.0000,1.42244,0.00071,-2.63053,1.05907,1.57079,0.11676,-0.12764,-0.48152,0.03738,,,,,,,,,,,,,,,,,,,,,,,,,,0,0,0,0,0
0.8369,1783965625.3881,1,1,1.0000,-0.0000,1.42244,0.00071,-2.63053,1.05907,1.57079,0.11676,-0.12764,-0.48152,0.03738,,,,,,,,,,,,,,,,,,,,,,,,,,0,0,0,0,0
0.8372,1783965625.3883,1,1,1.0000,-0.0000,1.42244,0.00071,-2.63053,1.05907,1.57079,0.11676,-0.12764,-0.48152,0.03738,,,,,,,,,,,,,,,,,,,,,,,,,,0,0,0,0,0
0.8418,1783965625.3930,1,1,1.0000,-0.0000,1.42244,0.00071,-2.63053,1.05907,1.57079,0.11676,-0.12764,-0.48152,0.03738,,,,,,,,,,,,,,,,,,,,,,,,,,0,0,0,0,0
0.8423,1783965625.3935,1,1,1.0000,-0.0000,1.42244,0.00071,-2.63053,1.05907,1.57079,0.11676,-0.12764,-0.48152,0.03738,,,,,,,,,,,,,,,,,,,,,,,,,,0,0,0,0,0
0.8427,1783965625.3939,1,1,1.0000,-0.0000,1.42244,0.00071,-2.63053,1.05907,1.57079,0.11676,-0.12764,-0.48152,0.03738,,,,,,,,,,,,,,,,,,,,,,,,,,0,0,0,0,0
0.8460,1783965625.3972,1,1,1.0000,-0.0000,1.42244,0.00071,-2.63053,1.05907,1.57079,0.11676,-0.12764,-0.48152,0.03738,,,,,,,,,,,,,,,,,,,,,,,,,,0,0,0,0,0
0.8465,1783965625.3977,1,1,1.0000,-0.0000,1.42244,0.00071,-2.63053,1.05907,1.57079,0.11676,-0.12764,-0.48152,0.03738,,,,,,,,,,,,,,,,,,,,,,,,,,0,0,0,0,0
0.8532,1783965625.4044,1,1,1.0000,-0.0000,1.42244,0.00071,-2.63053,1.05907,1.57079,0.11676,-0.12764,-0.48152,0.03738,,,,,,,,,,,,,,,,,,,,,,,,,,0,0,0,0,0
0.8955,1783965625.4467,1,1,1.0000,-0.0000,1.42244,0.00071,-2.63053,1.05907,1.57079,0.11676,-0.12764,-0.48152,0.03738,,,,,,,,,,,,,,,,,,,,,,,,,,0,0,0,0,0
0.8960,1783965625.4472,1,1,1.0000,-0.0000,1.42244,0.00071,-2.63053,1.05907,1.57079,0.11676,-0.12764,-0.48152,0.03738,,,,,,,,,,,,,,,,,,,,,,,,,,0,0,0,0,0
0.9236,1783965625.4748,1,1,1.0000,-0.0000,1.42244,0.00071,-2.63053,1.05907,1.57079,0.11676,-0.12764,-0.48152,0.03738,,,,,,,,,,,,,,,,,,,,,,,,,,0,0,0,0,0
0.9499,1783965625.5010,1,1,1.0000,-0.0000,1.42244,0.00071,-2.63053,1.05907,1.57079,0.11676,-0.12764,-0.48152,0.03738,,,,,,,,,,,,,,,,,,,,,,,,,,0,0,0,0,0
0.9571,1783965625.5083,1,1,1.0000,-0.0000,1.42244,0.00071,-2.63053,1.05907,1.57079,0.11676,-0.12764,-0.48152,0.03738,,,,,,,,,,,,,,,,,,,,,,,,,,0,0,0,0,0
0.9586,1783965625.5098,1,1,1.0000,-0.0000,1.42244,0.00071,-2.63053,1.05907,1.57079,0.11676,-0.12764,-0.48152,0.03738,,,,,,,,,,,,,,,,,,,,,,,,,,0,0,0,0,0
0.9617,1783965625.5129,1,1,1.0000,-0.0000,1.42244,0.00071,-2.63053,1.05907,1.57079,0.11676,-0.12764,-0.48152,0.03738,,,,,,,,,,,,,,,,,,,,,,,,,,0,0,0,0,0
0.9720,1783965625.5232,1,1,1.0000,-0.0000,1.42244,0.00071,-2.63053,1.05907,1.57079,0.11676,-0.12764,-0.48152,0.03738,,,,,,,,,,,,,,,,,,,,,,,,,,0,0,0,0,0
0.9722,1783965625.5234,1,1,1.0000,-0.0000,1.42244,0.00071,-2.63053,1.05907,1.57079,0.11676,-0.12764,-0.48152,0.03738,,,,,,,,,,,,,,,,,,,,,,,,,,0,0,0,0,0
0.9748,1783965625.5260,1,1,1.0000,-0.0000,1.42244,0.00071,-2.63053,1.05907,1.57079,0.11676,-0.12764,-0.48152,0.03738,,,,,,,,,,,,,,,,,,,,,,,,,,0,0,0,0,0
0.9751,1783965625.5263,1,1,1.0000,-0.0000,1.42244,0.00071,-2.63053,1.05907,1.57079,0.11676,-0.12764,-0.48152,0.03738,,,,,,,,,,,,,,,,,,,,,,,,,,0,0,0,0,0
0.9761,1783965625.5273,1,1,1.0000,-0.0000,1.42244,0.00071,-2.63053,1.05907,1.57079,0.11676,-0.12764,-0.48152,0.03738,,,,,,,,,,,,,,,,,,,,,,,,,,0,0,0,0,0
0.9765,1783965625.5277,1,1,1.0000,-0.0000,1.42244,0.00071,-2.63053,1.05907,1.57079,0.11676,-0.12764,-0.48152,0.03738,,,,,,,,,,,,,,,,,,,,,,,,,,0,0,0,0,0
0.9913,1783965625.5425,1,1,1.0000,-0.0000,1.42244,0.00071,-2.63053,1.05907,1.57079,0.11676,-0.12764,-0.48152,0.03738,,,,,,,,,,,,,,,,,,,,,,,,,,0,0,0,0,0
0.9918,1783965625.5430,1,1,1.0000,-0.0000,1.42244,0.00071,-2.63053,1.05907,1.57079,0.11676,-0.12764,-0.48152,0.03738,,,,,,,,,,,,,,,,,,,,,,,,,,0,0,0,0,0
0.9931,1783965625.5443,1,1,1.0000,-0.0000,1.42244,0.00071,-2.63053,1.05907,1.57079,0.11676,-0.12764,-0.48152,0.03738,,,,,,,,,,,,,,,,,,,,,,,,,,0,0,0,0,0
0.9933,1783965625.5445,1,1,1.0000,-0.0000,1.42244,0.00071,-2.63053,1.05907,1.57079,0.11676,-0.12764,-0.48152,0.03738,,,,,,,,,,,,,,,,,,,,,,,,,,0,0,0,0,0
1.1221,1783965625.6732,1,1,1.0000,-0.0000,1.42244,0.00038,-2.63069,1.05940,1.57080,0.11675,-0.12765,-0.48144,0.03721,,,,,,,,,,,,,,,,,,,,,,,,,,0,0,0,0,0
1.1249,1783965625.6761,1,1,1.0000,-0.0000,1.42244,0.00035,-2.63070,1.05943,1.57080,0.11675,-0.12765,-0.48144,0.03720,,,,,,,,,,,,,,,,,,,,,,,,,,0,0,0,0,0
1.1473,1783965625.6985,1,1,1.0000,-0.0000,1.42244,0.00022,-2.63072,1.05959,1.57080,0.11675,-0.12765,-0.48144,0.03716,,,,,,,,,,,,,,,,,,,,,,,,,,0,0,0,0,0
1.1493,1783965625.7005,1,1,1.0000,-0.0000,1.42244,0.00020,-2.63073,1.05961,1.57080,0.11675,-0.12765,-0.48144,0.03715,,,,,,,,,,,,,,,,,,,,,,,,,,0,0,0,0,0
1.1496,1783965625.7008,1,1,1.0000,-0.0000,1.42244,0.00020,-2.63073,1.05961,1.57080,0.11675,-0.12765,-0.48144,0.03715,,,,,,,,,,,,,,,,,,,,,,,,,,0,0,0,0,0
1.1514,1783965625.7026,1,1,1.0000,-0.0000,1.42244,0.00020,-2.63073,1.05961,1.57080,0.11675,-0.12765,-0.48144,0.03715,,,,,,,,,,,,,,,,,,,,,,,,,,0,0,0,0,0
1.1517,1783965625.7029,1,1,1.0000,-0.0000,1.42244,0.00020,-2.63073,1.05961,1.57080,0.11675,-0.12765,-0.48144,0.03715,,,,,,,,,,,,,,,,,,,,,,,,,,0,0,0,0,0
1.1523,1783965625.7034,1,1,1.0000,-0.0000,1.42244,0.00017,-2.63073,1.05964,1.57080,0.11675,-0.12765,-0.48144,0.03715,,,,,,,,,,,,,,,,,,,,,,,,,,0,0,0,0,0
1.1604,1783965625.7115,1,1,1.0000,-0.0000,1.42244,0.00010,-2.63074,1.05973,1.57080,0.11675,-0.12765,-0.48144,0.03712,,,,,,,,,,,,,,,,,,,,,,,,,,0,0,0,0,0
1.1606,1783965625.7118,1,1,1.0000,-0.0000,1.42244,0.00010,-2.63074,1.05973,1.57080,0.11675,-0.12765,-0.48144,0.03712,,,,,,,,,,,,,,,,,,,,,,,,,,0,0,0,0,0
1.1633,1783965625.7145,1,1,1.0000,-0.0000,1.42244,0.00010,-2.63074,1.05973,1.57080,0.11675,-0.12765,-0.48144,0.03712,,,,,,,,,,,,,,,,,,,,,,,,,,0,0,0,0,0
1.1657,1783965625.7169,1,1,1.0000,-0.0000,1.42244,0.00010,-2.63074,1.05973,1.57080,0.11675,-0.12765,-0.48144,0.03712,,,,,,,,,,,,,,,,,,,,,,,,,,0,0,0,0,0
1.1661,1783965625.7173,1,1,1.0000,-0.0000,1.42244,0.00010,-2.63074,1.05973,1.57080,0.11675,-0.12765,-0.48144,0.03712,,,,,,,,,,,,,,,,,,,,,,,,,,0,0,0,0,0
1.1664,1783965625.7176,1,1,1.0000,-0.0000,1.42244,0.00010,-2.63074,1.05973,1.57080,0.11675,-0.12765,-0.48144,0.03712,,,,,,,,,,,,,,,,,,,,,,,,,,0,0,0,0,0
1.1668,1783965625.7180,1,1,1.0000,-0.0000,1.42244,0.00010,-2.63074,1.05973,1.57080,0.11675,-0.12765,-0.48144,0.03712,,,,,,,,,,,,,,,,,,,,,,,,,,0,0,0,0,0
1.1672,1783965625.7183,1,1,1.0000,-0.0000,1.42244,0.00010,-2.63074,1.05973,1.57080,0.11675,-0.12765,-0.48144,0.03712,,,,,,,,,,,,,,,,,,,,,,,,,,0,0,0,0,0
1.1676,1783965625.7188,1,1,1.0000,-0.0000,1.42244,0.00010,-2.63074,1.05973,1.57080,0.11675,-0.12765,-0.48144,0.03712,,,,,,,,,,,,,,,,,,,,,,,,,,0,0,0,0,0
1.1686,1783965625.7198,1,1,1.0000,-0.0000,1.42244,0.00009,-2.63075,1.05974,1.57080,0.11675,-0.12765,-0.48145,0.03712,,,,,,,,,,,,,,,,,,,,,,,,,,0,0,0,0,0
1.2282,1783965625.7794,1,1,1.0000,-0.0000,1.42244,-0.00031,-2.63077,1.06025,1.57080,0.11675,-0.12764,-0.48150,0.03702,,,,,,,,,,,,,,,,,,,,,,,,,,0,0,0,0,0
1.2514,1783965625.8025,1,1,1.0000,-0.0000,1.42244,-0.00045,-2.63074,1.06043,1.57080,0.11675,-0.12763,-0.48155,0.03700,,,,,,,,,,,,,,,,,,,,,,,,,,0,0,0,0,0
1.2530,1783965625.8042,1,1,1.0000,-0.0000,1.42244,-0.00046,-2.63072,1.06045,1.57080,0.11675,-0.12763,-0.48156,0.03700,,,,,,,,,,,,,,,,,,,,,,,,,,0,0,0,0,0
1.2535,1783965625.8047,1,1,1.0000,-0.0000,1.42244,-0.00046,-2.63072,1.06045,1.57080,0.11675,-0.12763,-0.48156,0.03700,,,,,,,,,,,,,,,,,,,,,,,,,,0,0,0,0,0
1.2538,1783965625.8050,1,1,1.0000,-0.0000,1.42244,-0.00046,-2.63072,1.06045,1.57080,0.11675,-0.12763,-0.48156,0.03700,,,,,,,,,,,,,,,,,,,,,,,,,,0,0,0,0,0
1.2563,1783965625.8075,1,1,1.0000,-0.0000,1.42244,-0.00047,-2.63071,1.06046,1.57080,0.11675,-0.12763,-0.48157,0.03701,,,,,,,,,,,,,,,,,,,,,,,,,,0,0,0,0,0
1.2565,1783965625.8077,1,1,1.0000,-0.0000,1.42244,-0.00047,-2.63071,1.06046,1.57080,0.11675,-0.12763,-0.48157,0.03701,,,,,,,,,,,,,,,,,,,,,,,,,,0,0,0,0,0
1.2589,1783965625.8101,1,1,1.0000,-0.0000,1.42244,-0.00047,-2.63071,1.06046,1.57080,0.11675,-0.12763,-0.48157,0.03701,,,,,,,,,,,,,,,,,,,,,,,,,,0,0,0,0,0
1.2592,1783965625.8104,1,1,1.0000,-0.0000,1.42244,-0.00047,-2.63071,1.06046,1.57080,0.11675,-0.12763,-0.48157,0.03701,,,,,,,,,,,,,,,,,,,,,,,,,,0,0,0,0,0
1.2612,1783965625.8124,1,1,1.0000,-0.0000,1.42244,-0.00047,-2.63071,1.06046,1.57080,0.11675,-0.12763,-0.48157,0.03701,,,,,,,,,,,,,,,,,,,,,,,,,,0,0,0,0,0
1.2615,1783965625.8126,1,1,1.0000,-0.0000,1.42244,-0.00047,-2.63071,1.06046,1.57080,0.11675,-0.12763,-0.48157,0.03701,,,,,,,,,,,,,,,,,,,,,,,,,,0,0,0,0,0
1.2620,1783965625.8132,1,1,1.0000,-0.0000,1.42244,-0.00047,-2.63071,1.06046,1.57080,0.11675,-0.12763,-0.48157,0.03701,,,,,,,,,,,,,,,,,,,,,,,,,,0,0,0,0,0
1.2624,1783965625.8135,1,1,1.0000,-0.0000,1.42244,-0.00047,-2.63071,1.06046,1.57080,0.11675,-0.12763,-0.48157,0.03701,,,,,,,,,,,,,,,,,,,,,,,,,,0,0,0,0,0
1.2642,1783965625.8154,1,1,1.0000,-0.0000,1.42244,-0.00047,-2.63071,1.06046,1.57080,0.11675,-0.12763,-0.48157,0.03701,,,,,,,,,,,,,,,,,,,,,,,,,,0,0,0,0,0
1.2653,1783965625.8165,1,1,1.0000,-0.0000,1.42244,-0.00047,-2.63071,1.06046,1.57080,0.11675,-0.12763,-0.48157,0.03701,,,,,,,,,,,,,,,,,,,,,,,,,,0,0,0,0,0
1.2776,1783965625.8288,1,1,1.0000,-0.0000,1.42244,-0.00047,-2.63071,1.06046,1.57080,0.11675,-0.12763,-0.48157,0.03701,,,,,,,,,,,,,,,,,,,,,,,,,,0,0,0,0,0
1.2779,1783965625.8291,1,1,1.0000,-0.0000,1.42244,-0.00047,-2.63071,1.06046,1.57080,0.11675,-0.12763,-0.48157,0.03701,,,,,,,,,,,,,,,,,,,,,,,,,,0,0,0,0,0
1.2855,1783965625.8367,1,1,1.0000,-0.0000,1.42244,-0.00047,-2.63071,1.06046,1.57080,0.11675,-0.12763,-0.48157,0.03701,,,,,,,,,,,,,,,,,,,,,,,,,,0,0,0,0,0
1.2964,1783965625.8476,1,1,1.0000,-0.0000,1.42244,-0.00047,-2.63071,1.06046,1.57080,0.11675,-0.12763,-0.48157,0.03701,,,,,,,,,,,,,,,,,,,,,,,,,,0,0,0,0,0
1.3048,1783965625.8559,1,1,1.0000,-0.0000,1.42244,-0.00047,-2.63071,1.06046,1.57080,0.11675,-0.12763,-0.48157,0.03701,,,,,,,,,,,,,,,,,,,,,,,,,,0,0,0,0,0
1.4864,1783965626.0376,1,1,1.0000,-0.0000,1.42244,-0.00056,-2.63085,1.06060,1.57080,0.11675,-0.12764,-0.48149,0.03693,,,,,,,,,,,,,,,,,,,,,,,,,,0,0,0,0,0
1.4867,1783965626.0379,1,1,1.0000,-0.0000,1.42244,-0.00056,-2.63085,1.06060,1.57080,0.11675,-0.12764,-0.48149,0.03693,,,,,,,,,,,,,,,,,,,,,,,,,,0,0,0,0,0
1.4877,1783965626.0389,1,1,1.0000,-0.0000,1.42244,-0.00056,-2.63085,1.06060,1.57080,0.11675,-0.12764,-0.48149,0.03693,,,,,,,,,,,,,,,,,,,,,,,,,,0,0,0,0,0
1.4882,1783965626.0394,1,1,1.0000,-0.0000,1.42244,-0.00058,-2.63087,1.06062,1.57080,0.11675,-0.12764,-0.48148,0.03692,,,,,,,,,,,,,,,,,,,,,,,,,,0,0,0,0,0
1.4891,1783965626.0403,1,1,1.0000,-0.0000,1.42244,-0.00058,-2.63087,1.06062,1.57080,0.11675,-0.12764,-0.48148,0.03692,,,,,,,,,,,,,,,,,,,,,,,,,,0,0,0,0,0
1.4894,1783965626.0405,1,1,1.0000,-0.0000,1.42244,-0.00058,-2.63087,1.06062,1.57080,0.11675,-0.12764,-0.48148,0.03692,,,,,,,,,,,,,,,,,,,,,,,,,,0,0,0,0,0
1.4912,1783965626.0424,1,1,1.0000,-0.0000,1.42244,-0.00058,-2.63087,1.06062,1.57080,0.11675,-0.12764,-0.48148,0.03692,,,,,,,,,,,,,,,,,,,,,,,,,,0,0,0,0,0
1.4915,1783965626.0426,1,1,1.0000,-0.0000,1.42244,-0.00058,-2.63087,1.06062,1.57080,0.11675,-0.12764,-0.48148,0.03692,,,,,,,,,,,,,,,,,,,,,,,,,,0,0,0,0,0
1.4918,1783965626.0430,1,1,1.0000,-0.0000,1.42244,-0.00058,-2.63087,1.06062,1.57080,0.11675,-0.12764,-0.48148,0.03692,,,,,,,,,,,,,,,,,,,,,,,,,,0,0,0,0,0
1.4923,1783965626.0435,1,1,1.0000,-0.0000,1.42244,-0.00060,-2.63088,1.06065,1.57080,0.11675,-0.12764,-0.48147,0.03691,,,,,,,,,,,,,,,,,,,,,,,,,,0,0,0,0,0
1.5084,1783965626.0595,1,1,1.0000,-0.0000,1.42244,-0.00063,-2.63091,1.06069,1.57080,0.11675,-0.12764,-0.48146,0.03689,,,,,,,,,,,,,,,,,,,,,,,,,,0,0,0,0,0
1.5102,1783965626.0614,1,1,1.0000,-0.0000,1.42244,-0.00063,-2.63091,1.06069,1.57080,0.11675,-0.12764,-0.48146,0.03689,,,,,,,,,,,,,,,,,,,,,,,,,,0,0,0,0,0
1.5106,1783965626.0618,1,1,1.0000,-0.0000,1.42244,-0.00063,-2.63091,1.06069,1.57080,0.11675,-0.12764,-0.48146,0.03689,,,,,,,,,,,,,,,,,,,,,,,,,,0,0,0,0,0
1.5168,1783965626.0680,1,1,1.0000,-0.0000,1.42244,-0.00068,-2.63092,1.06074,1.57080,0.11675,-0.12764,-0.48146,0.03687,,,,,,,,,,,,,,,,,,,,,,,,,,0,0,0,0,0
1.5172,1783965626.0683,1,1,1.0000,-0.0000,1.42244,-0.00068,-2.63092,1.06074,1.57080,0.11675,-0.12764,-0.48146,0.03687,,,,,,,,,,,,,,,,,,,,,,,,,,0,0,0,0,0
1.5189,1783965626.0701,1,1,1.0000,-0.0000,1.42244,-0.00068,-2.63092,1.06074,1.57080,0.11675,-0.12764,-0.48146,0.03687,,,,,,,,,,,,,,,,,,,,,,,,,,0,0,0,0,0
1.5192,1783965626.0704,1,1,1.0000,-0.0000,1.42244,-0.00068,-2.63092,1.06074,1.57080,0.11675,-0.12764,-0.48146,0.03687,,,,,,,,,,,,,,,,,,,,,,,,,,0,0,0,0,0
1.5283,1783965626.0795,1,1,1.0000,-0.0000,1.42244,-0.00078,-2.63096,1.06087,1.57080,0.11675,-0.12764,-0.48145,0.03683,,,,,,,,,,,,,,,,,,,,,,,,,,0,0,0,0,0
1.5295,1783965626.0807,1,1,1.0000,-0.0000,1.42244,-0.00078,-2.63096,1.06087,1.57080,0.11675,-0.12764,-0.48145,0.03683,,,,,,,,,,,,,,,,,,,,,,,,,,0,0,0,0,0
1.5303,1783965626.0815,1,1,1.0000,-0.0000,1.42244,-0.00078,-2.63096,1.06087,1.57080,0.11675,-0.12764,-0.48145,0.03683,,,,,,,,,,,,,,,,,,,,,,,,,,0,0,0,0,0
1.5307,1783965626.0818,1,1,1.0000,-0.0000,1.42244,-0.00078,-2.63096,1.06087,1.57080,0.11675,-0.12764,-0.48145,0.03683,,,,,,,,,,,,,,,,,,,,,,,,,,0,0,0,0,0
1.5343,1783965626.0855,1,1,1.0000,-0.0000,1.42244,-0.00078,-2.63096,1.06087,1.57080,0.11675,-0.12764,-0.48145,0.03683,,,,,,,,,,,,,,,,,,,,,,,,,,0,0,0,0,0
1.5347,1783965626.0859,1,1,1.0000,-0.0000,1.42244,-0.00078,-2.63096,1.06087,1.57080,0.11675,-0.12764,-0.48145,0.03683,,,,,,,,,,,,,,,,,,,,,,,,,,0,0,0,0,0
1.5377,1783965626.0889,1,1,1.0000,-0.0000,1.42244,-0.00078,-2.63096,1.06088,1.57080,0.11675,-0.12764,-0.48145,0.03683,,,,,,,,,,,,,,,,,,,,,,,,,,0,0,0,0,0
1.5810,1783965626.1321,1,1,1.0000,-0.0000,1.42244,-0.00110,-2.63102,1.06126,1.57080,0.11675,-0.12764,-0.48146,0.03672,,,,,,,,,,,,,,,,,,,,,,,,,,0,0,0,0,0
1.6343,1783965626.1855,1,1,1.0000,-0.0000,1.42244,-0.00152,-2.63107,1.06179,1.57080,0.11675,-0.12764,-0.48149,0.03660,,,,,,,,,,,,,,,,,,,,,,,,,,0,0,0,0,0
1.6621,1783965626.2133,1,1,1.0000,-0.0000,1.42244,-0.00164,-2.63106,1.06195,1.57080,0.11675,-0.12763,-0.48152,0.03658,,,,,,,,,,,,,,,,,,,,,,,,,,0,0,0,0,0
1.6661,1783965626.2173,1,1,1.0000,-0.0000,1.42244,-0.00164,-2.63106,1.06195,1.57080,0.11675,-0.12763,-0.48152,0.03658,,,,,,,,,,,,,,,,,,,,,,,,,,0,0,0,0,0
1.6667,1783965626.2179,1,1,1.0000,-0.0000,1.42244,-0.00164,-2.63106,1.06195,1.57080,0.11675,-0.12763,-0.48152,0.03658,,,,,,,,,,,,,,,,,,,,,,,,,,0,0,0,0,0
1.6737,1783965626.2249,1,1,1.0000,-0.0000,1.42244,-0.00164,-2.63106,1.06195,1.57080,0.11675,-0.12763,-0.48152,0.03658,,,,,,,,,,,,,,,,,,,,,,,,,,0,0,0,0,0
1.6741,1783965626.2253,1,1,1.0000,-0.0000,1.42244,-0.00164,-2.63106,1.06195,1.57080,0.11675,-0.12763,-0.48152,0.03658,,,,,,,,,,,,,,,,,,,,,,,,,,0,0,0,0,0
1.6907,1783965626.2419,1,1,1.0000,-0.0000,1.42244,-0.00164,-2.63106,1.06195,1.57080,0.11675,-0.12763,-0.48152,0.03658,,,,,,,,,,,,,,,,,,,,,,,,,,0,0,0,0,0
1.6973,1783965626.2484,1,1,1.0000,-0.0000,1.42244,-0.00164,-2.63106,1.06195,1.57080,0.11675,-0.12763,-0.48152,0.03658,,,,,,,,,,,,,,,,,,,,,,,,,,0,0,0,0,0
1.7093,1783965626.2605,1,1,1.0000,-0.0000,1.42244,-0.00164,-2.63106,1.06195,1.57080,0.11675,-0.12763,-0.48152,0.03658,,,,,,,,,,,,,,,,,,,,,,,,,,0,0,0,0,0
1.7147,1783965626.2659,1,1,1.0000,-0.0000,1.42244,-0.00164,-2.63106,1.06195,1.57080,0.11675,-0.12763,-0.48152,0.03658,,,,,,,,,,,,,,,,,,,,,,,,,,0,0,0,0,0
1.7213,1783965626.2725,1,1,1.0000,-0.0000,1.42244,-0.00164,-2.63106,1.06195,1.57080,0.11675,-0.12763,-0.48152,0.03658,,,,,,,,,,,,,,,,,,,,,,,,,,0,0,0,0,0
1.7215,1783965626.2727,1,1,1.0000,-0.0000,1.42244,-0.00164,-2.63106,1.06195,1.57080,0.11675,-0.12763,-0.48152,0.03658,,,,,,,,,,,,,,,,,,,,,,,,,,0,0,0,0,0
1.7233,1783965626.2745,1,1,1.0000,-0.0000,1.42244,-0.00164,-2.63106,1.06195,1.57080,0.11675,-0.12763,-0.48152,0.03658,,,,,,,,,,,,,,,,,,,,,,,,,,0,0,0,0,0
1.7236,1783965626.2748,1,1,1.0000,-0.0000,1.42244,-0.00164,-2.63106,1.06195,1.57080,0.11675,-0.12763,-0.48152,0.03658,,,,,,,,,,,,,,,,,,,,,,,,,,0,0,0,0,0
1.7262,1783965626.2774,1,1,1.0000,-0.0000,1.42244,-0.00164,-2.63106,1.06195,1.57080,0.11675,-0.12763,-0.48152,0.03658,,,,,,,,,,,,,,,,,,,,,,,,,,0,0,0,0,0
1.7266,1783965626.2777,1,1,1.0000,-0.0000,1.42244,-0.00164,-2.63106,1.06195,1.57080,0.11675,-0.12763,-0.48152,0.03658,,,,,,,,,,,,,,,,,,,,,,,,,,0,0,0,0,0
1.7278,1783965626.2790,1,1,1.0000,-0.0000,1.42244,-0.00164,-2.63106,1.06195,1.57080,0.11675,-0.12763,-0.48152,0.03658,,,,,,,,,,,,,,,,,,,,,,,,,,0,0,0,0,0
1.7284,1783965626.2795,1,1,1.0000,-0.0000,1.42244,-0.00164,-2.63106,1.06195,1.57080,0.11675,-0.12763,-0.48152,0.03658,,,,,,,,,,,,,,,,,,,,,,,,,,0,0,0,0,0
1.7302,1783965626.2814,1,1,1.0000,-0.0000,1.42244,-0.00164,-2.63106,1.06195,1.57080,0.11675,-0.12763,-0.48152,0.03658,,,,,,,,,,,,,,,,,,,,,,,,,,0,0,0,0,0
1.7307,1783965626.2819,1,1,1.0000,-0.0000,1.42244,-0.00164,-2.63106,1.06195,1.57080,0.11675,-0.12763,-0.48152,0.03658,,,,,,,,,,,,,,,,,,,,,,,,,,0,0,0,0,0
1.7372,1783965626.2883,1,1,1.0000,-0.0000,1.42244,-0.00164,-2.63106,1.06195,1.57080,0.11675,-0.12763,-0.48152,0.03658,,,,,,,,,,,,,,,,,,,,,,,,,,0,0,0,0,0
1.7376,1783965626.2887,1,1,1.0000,-0.0000,1.42244,-0.00164,-2.63106,1.06195,1.57080,0.11675,-0.12763,-0.48152,0.03658,,,,,,,,,,,,,,,,,,,,,,,,,,0,0,0,0,0
1.7379,1783965626.2891,1,1,1.0000,-0.0000,1.42244,-0.00164,-2.63106,1.06195,1.57080,0.11675,-0.12763,-0.48152,0.03658,,,,,,,,,,,,,,,,,,,,,,,,,,0,0,0,0,0
1.7606,1783965626.3118,1,1,1.0000,-0.0000,1.42244,-0.00164,-2.63106,1.06195,1.57080,0.11675,-0.12763,-0.48152,0.03658,,,,,,,,,,,,,,,,,,,,,,,,,,0,0,0,0,0
1.7696,1783965626.3208,1,1,1.0000,-0.0000,1.42244,-0.00164,-2.63106,1.06195,1.57080,0.11675,-0.12763,-0.48152,0.03658,,,,,,,,,,,,,,,,,,,,,,,,,,0,0,0,0,0
1.7875,1783965626.3387,1,1,1.0000,-0.0000,1.42244,-0.00164,-2.63106,1.06195,1.57080,0.11675,-0.12763,-0.48152,0.03658,,,,,,,,,,,,,,,,,,,,,,,,,,0,0,0,0,0
1.8251,1783965626.3763,1,1,1.0000,-0.0000,1.42244,-0.00164,-2.63106,1.06195,1.57080,0.11675,-0.12763,-0.48152,0.03658,,,,,,,,,,,,,,,,,,,,,,,,,,0,0,0,0,0
1.8671,1783965626.4183,1,1,1.0000,-0.0000,1.42244,-0.00164,-2.63107,1.06195,1.57080,0.11675,-0.12763,-0.48152,0.03658,,,,,,,,,,,,,,,,,,,,,,,,,,0,0,0,0,0
1.8674,1783965626.4186,1,1,1.0000,-0.0000,1.42244,-0.00164,-2.63107,1.06195,1.57080,0.11675,-0.12763,-0.48152,0.03658,,,,,,,,,,,,,,,,,,,,,,,,,,0,0,0,0,0
1.8683,1783965626.4195,1,1,1.0000,-0.0000,1.42244,-0.00165,-2.63107,1.06195,1.57080,0.11675,-0.12763,-0.48152,0.03658,,,,,,,,,,,,,,,,,,,,,,,,,,0,0,0,0,0
1.8692,1783965626.4204,1,1,1.0000,-0.0000,1.42244,-0.00165,-2.63107,1.06195,1.57080,0.11675,-0.12763,-0.48152,0.03658,,,,,,,,,,,,,,,,,,,,,,,,,,0,0,0,0,0
1.8696,1783965626.4208,1,1,1.0000,-0.0000,1.42244,-0.00165,-2.63107,1.06195,1.57080,0.11675,-0.12763,-0.48152,0.03658,,,,,,,,,,,,,,,,,,,,,,,,,,0,0,0,0,0
1.8713,1783965626.4225,1,1,1.0000,-0.0000,1.42244,-0.00165,-2.63107,1.06195,1.57080,0.11675,-0.12763,-0.48152,0.03658,,,,,,,,,,,,,,,,,,,,,,,,,,0,0,0,0,0
1.8717,1783965626.4229,1,1,1.0000,-0.0000,1.42244,-0.00165,-2.63107,1.06195,1.57080,0.11675,-0.12763,-0.48152,0.03658,,,,,,,,,,,,,,,,,,,,,,,,,,0,0,0,0,0
1.8725,1783965626.4237,1,1,1.0000,-0.0000,1.42244,-0.00165,-2.63107,1.06196,1.57080,0.11675,-0.12763,-0.48152,0.03657,,,,,,,,,,,,,,,,,,,,,,,,,,0,0,0,0,0
1.8736,1783965626.4248,1,1,1.0000,-0.0000,1.42244,-0.00165,-2.63107,1.06196,1.57080,0.11675,-0.12763,-0.48152,0.03657,,,,,,,,,,,,,,,,,,,,,,,,,,0,0,0,0,0
1.8740,1783965626.4252,1,1,1.0000,-0.0000,1.42244,-0.00165,-2.63107,1.06196,1.57080,0.11675,-0.12763,-0.48152,0.03657,,,,,,,,,,,,,,,,,,,,,,,,,,0,0,0,0,0
1.8782,1783965626.4293,1,1,1.0000,-0.0000,1.42244,-0.00166,-2.63108,1.06197,1.57080,0.11675,-0.12763,-0.48151,0.03657,,,,,,,,,,,,,,,,,,,,,,,,,,0,0,0,0,0
1.8785,1783965626.4297,1,1,1.0000,-0.0000,1.42244,-0.00166,-2.63108,1.06197,1.57080,0.11675,-0.12763,-0.48151,0.03657,,,,,,,,,,,,,,,,,,,,,,,,,,0,0,0,0,0
1.8790,1783965626.4302,1,1,1.0000,-0.0000,1.42244,-0.00166,-2.63108,1.06197,1.57080,0.11675,-0.12763,-0.48151,0.03657,,,,,,,,,,,,,,,,,,,,,,,,,,0,0,0,0,0
1.8815,1783965626.4326,1,1,1.0000,-0.0000,1.42244,-0.00167,-2.63109,1.06198,1.57080,0.11675,-0.12763,-0.48151,0.03656,,,,,,,,,,,,,,,,,,,,,,,,,,0,0,0,0,0
1.8818,1783965626.4330,1,1,1.0000,-0.0000,1.42244,-0.00167,-2.63109,1.06198,1.57080,0.11675,-0.12763,-0.48151,0.03656,,,,,,,,,,,,,,,,,,,,,,,,,,0,0,0,0,0
1.8821,1783965626.4332,1,1,1.0000,-0.0000,1.42244,-0.00167,-2.63109,1.06198,1.57080,0.11675,-0.12763,-0.48151,0.03656,,,,,,,,,,,,,,,,,,,,,,,,,,0,0,0,0,0
1.8950,1783965626.4462,1,1,1.0000,-0.0000,1.42244,-0.00168,-2.63110,1.06199,1.57080,0.11675,-0.12763,-0.48150,0.03656,,,,,,,,,,,,,,,,,,,,,,,,,,0,0,0,0,0
1.8954,1783965626.4466,1,1,1.0000,-0.0000,1.42244,-0.00168,-2.63110,1.06199,1.57080,0.11675,-0.12763,-0.48150,0.03656,,,,,,,,,,,,,,,,,,,,,,,,,,0,0,0,0,0
1.8992,1783965626.4504,1,1,1.0000,-0.0000,1.42244,-0.00169,-2.63111,1.06201,1.57080,0.11675,-0.12764,-0.48150,0.03655,,,,,,,,,,,,,,,,,,,,,,,,,,0,0,0,0,0
1.9100,1783965626.4612,1,1,1.0000,-0.0000,1.42243,-0.00175,-2.63115,1.06208,1.57080,0.11675,-0.12764,-0.48147,0.03651,,,,,,,,,,,,,,,,,,,,,,,,,,0,0,0,0,0
1.9348,1783965626.4860,1,1,1.0000,-0.0000,1.42243,-0.00183,-2.63119,1.06217,1.57080,0.11675,-0.12764,-0.48145,0.03647,,,,,,,,,,,,,,,,,,,,,,,,,,0,0,0,0,0
2.0284,1783965626.5796,1,1,1.0000,-0.0000,1.42243,-0.00246,-2.63131,1.06293,1.57080,0.11675,-0.12764,-0.48147,0.03627,,,,,,,,,,,,,,,,,,,,,,,,,,0,0,0,0,0
2.0468,1783965626.5980,1,1,1.0000,-0.0000,1.42243,-0.00261,-2.63133,1.06313,1.57080,0.11675,-0.12764,-0.48148,0.03622,,,,,,,,,,,,,,,,,,,,,,,,,,0,0,0,0,0
2.0606,1783965626.6117,1,1,1.0000,-0.0000,1.42243,-0.00276,-2.63134,1.06332,1.57080,0.11675,-0.12763,-0.48150,0.03619,,,,,,,,,,,,,,,,,,,,,,,,,,0,0,0,0,0
2.0609,1783965626.6121,1,1,1.0000,-0.0000,1.42243,-0.00276,-2.63134,1.06332,1.57080,0.11675,-0.12763,-0.48150,0.03619,,,,,,,,,,,,,,,,,,,,,,,,,,0,0,0,0,0
2.0706,1783965626.6218,1,1,1.0000,-0.0000,1.42243,-0.00281,-2.63134,1.06338,1.57080,0.11675,-0.12763,-0.48151,0.03618,,,,,,,,,,,,,,,,,,,,,,,,,,0,0,0,0,0
2.0710,1783965626.6221,1,1,1.0000,-0.0000,1.42243,-0.00281,-2.63134,1.06338,1.57080,0.11675,-0.12763,-0.48151,0.03618,,,,,,,,,,,,,,,,,,,,,,,,,,0,0,0,0,0
2.0716,1783965626.6228,1,1,1.0000,-0.0000,1.42243,-0.00281,-2.63134,1.06338,1.57080,0.11675,-0.12763,-0.48151,0.03618,,,,,,,,,,,,,,,,,,,,,,,,,,0,0,0,0,0
2.0979,1783965626.6491,1,1,1.0000,-0.0000,1.42243,-0.00281,-2.63134,1.06338,1.57080,0.11675,-0.12763,-0.48151,0.03618,,,,,,,,,,,,,,,,,,,,,,,,,,0,0,0,0,0
2.1052,1783965626.6564,1,1,1.0000,-0.0000,1.42243,-0.00281,-2.63134,1.06338,1.57080,0.11675,-0.12763,-0.48151,0.03618,,,,,,,,,,,,,,,,,,,,,,,,,,0,0,0,0,0
2.1489,1783965626.7001,1,1,1.0000,-0.0000,1.42243,-0.00281,-2.63134,1.06338,1.57080,0.11675,-0.12763,-0.48151,0.03618,,,,,,,,,,,,,,,,,,,,,,,,,,0,0,0,0,0
2.1492,1783965626.7004,1,1,1.0000,-0.0000,1.42243,-0.00281,-2.63134,1.06338,1.57080,0.11675,-0.12763,-0.48151,0.03618,,,,,,,,,,,,,,,,,,,,,,,,,,0,0,0,0,0
2.1696,1783965626.7208,1,1,1.0000,-0.0000,1.42243,-0.00281,-2.63134,1.06338,1.57080,0.11675,-0.12763,-0.48151,0.03618,,,,,,,,,,,,,,,,,,,,,,,,,,0,0,0,0,0
2.2211,1783965626.7723,1,1,1.0000,-0.0000,1.42243,-0.00281,-2.63134,1.06338,1.57080,0.11675,-0.12763,-0.48151,0.03618,,,,,,,,,,,,,,,,,,,,,,,,,,0,0,0,0,0
2.2214,1783965626.7726,1,1,1.0000,-0.0000,1.42243,-0.00281,-2.63134,1.06338,1.57080,0.11675,-0.12763,-0.48151,0.03618,,,,,,,,,,,,,,,,,,,,,,,,,,0,0,0,0,0
2.2335,1783965626.7847,1,1,1.0000,-0.0000,1.42243,-0.00281,-2.63134,1.06338,1.57080,0.11675,-0.12763,-0.48151,0.03618,,,,,,,,,,,,,,,,,,,,,,,,,,0,0,0,0,0
2.2363,1783965626.7875,1,1,1.0000,-0.0000,1.42243,-0.00281,-2.63134,1.06338,1.57080,0.11675,-0.12763,-0.48151,0.03618,,,,,,,,,,,,,,,,,,,,,,,,,,0,0,0,0,0
2.2376,1783965626.7888,1,1,1.0000,-0.0000,1.42243,-0.00281,-2.63134,1.06338,1.57080,0.11675,-0.12763,-0.48151,0.03618,,,,,,,,,,,,,,,,,,,,,,,,,,0,0,0,0,0
2.2379,1783965626.7891,1,1,1.0000,-0.0000,1.42243,-0.00281,-2.63134,1.06338,1.57080,0.11675,-0.12763,-0.48151,0.03618,,,,,,,,,,,,,,,,,,,,,,,,,,0,0,0,0,0
2.2383,1783965626.7894,1,1,1.0000,-0.0000,1.42243,-0.00281,-2.63134,1.06338,1.57080,0.11675,-0.12763,-0.48151,0.03618,,,,,,,,,,,,,,,,,,,,,,,,,,0,0,0,0,0
2.2423,1783965626.7934,1,1,1.0000,-0.0000,1.42243,-0.00281,-2.63134,1.06338,1.57080,0.11675,-0.12763,-0.48151,0.03618,,,,,,,,,,,,,,,,,,,,,,,,,,0,0,0,0,0
2.2425,1783965626.7937,1,1,1.0000,-0.0000,1.42243,-0.00281,-2.63134,1.06338,1.57080,0.11675,-0.12763,-0.48151,0.03618,,,,,,,,,,,,,,,,,,,,,,,,,,0,0,0,0,0
2.2429,1783965626.7940,1,1,1.0000,-0.0000,1.42243,-0.00281,-2.63134,1.06338,1.57080,0.11675,-0.12763,-0.48151,0.03618,,,,,,,,,,,,,,,,,,,,,,,,,,0,0,0,0,0
2.2431,1783965626.7943,1,1,1.0000,-0.0000,1.42243,-0.00281,-2.63134,1.06338,1.57080,0.11675,-0.12763,-0.48151,0.03618,,,,,,,,,,,,,,,,,,,,,,,,,,0,0,0,0,0
2.2469,1783965626.7981,1,1,1.0000,-0.0000,1.42243,-0.00281,-2.63134,1.06338,1.57080,0.11675,-0.12763,-0.48151,0.03618,,,,,,,,,,,,,,,,,,,,,,,,,,0,0,0,0,0
2.2473,1783965626.7985,1,1,1.0000,-0.0000,1.42243,-0.00281,-2.63134,1.06338,1.57080,0.11675,-0.12763,-0.48151,0.03618,,,,,,,,,,,,,,,,,,,,,,,,,,0,0,0,0,0
2.2477,1783965626.7989,1,1,1.0000,-0.0000,1.42243,-0.00281,-2.63134,1.06338,1.57080,0.11675,-0.12763,-0.48151,0.03618,,,,,,,,,,,,,,,,,,,,,,,,,,0,0,0,0,0
2.2608,1783965626.8120,1,1,1.0000,-0.0000,1.42243,-0.00281,-2.63134,1.06338,1.57080,0.11675,-0.12763,-0.48151,0.03618,,,,,,,,,,,,,,,,,,,,,,,,,,0,0,0,0,0
2.2611,1783965626.8123,1,1,1.0000,-0.0000,1.42243,-0.00281,-2.63134,1.06338,1.57080,0.11675,-0.12763,-0.48151,0.03618,,,,,,,,,,,,,,,,,,,,,,,,,,0,0,0,0,0
2.2659,1783965626.8171,1,1,1.0000,-0.0000,1.42243,-0.00281,-2.63134,1.06338,1.57080,0.11675,-0.12763,-0.48151,0.03618,,,,,,,,,,,,,,,,,,,,,,,,,,0,0,0,0,0
2.2664,1783965626.8175,1,1,1.0000,-0.0000,1.42243,-0.00281,-2.63134,1.06338,1.57080,0.11675,-0.12763,-0.48151,0.03618,,,,,,,,,,,,,,,,,,,,,,,,,,0,0,0,0,0
2.2747,1783965626.8259,1,1,1.0000,-0.0000,1.42243,-0.00281,-2.63134,1.06338,1.57080,0.11675,-0.12763,-0.48151,0.03618,,,,,,,,,,,,,,,,,,,,,,,,,,0,0,0,0,0
2.2759,1783965626.8271,1,1,1.0000,-0.0000,1.42243,-0.00281,-2.63134,1.06338,1.57080,0.11675,-0.12763,-0.48151,0.03618,,,,,,,,,,,,,,,,,,,,,,,,,,0,0,0,0,0
2.2781,1783965626.8293,1,1,1.0000,-0.0000,1.42243,-0.00281,-2.63134,1.06338,1.57080,0.11675,-0.12763,-0.48151,0.03618,,,,,,,,,,,,,,,,,,,,,,,,,,0,0,0,0,0
2.2783,1783965626.8295,1,1,1.0000,-0.0000,1.42243,-0.00281,-2.63134,1.06338,1.57080,0.11675,-0.12763,-0.48151,0.03618,,,,,,,,,,,,,,,,,,,,,,,,,,0,0,0,0,0
2.2814,1783965626.8326,1,1,1.0000,-0.0000,1.42243,-0.00281,-2.63134,1.06339,1.57080,0.11675,-0.12763,-0.48151,0.03617,,,,,,,,,,,,,,,,,,,,,,,,,,0,0,0,0,0
2.2817,1783965626.8329,1,1,1.0000,-0.0000,1.42243,-0.00281,-2.63134,1.06339,1.57080,0.11675,-0.12763,-0.48151,0.03617,,,,,,,,,,,,,,,,,,,,,,,,,,0,0,0,0,0
2.3086,1783965626.8598,1,1,1.0000,-0.0000,1.42243,-0.00287,-2.63138,1.06346,1.57080,0.11675,-0.12763,-0.48149,0.03614,,,,,,,,,,,,,,,,,,,,,,,,,,0,0,0,0,0
2.3278,1783965626.8790,1,1,1.0000,-0.0000,1.42243,-0.00289,-2.63140,1.06348,1.57080,0.11675,-0.12764,-0.48148,0.03613,,,,,,,,,,,,,,,,,,,,,,,,,,0,0,0,0,0
2.3832,1783965626.9344,1,1,1.0000,-0.0000,1.42243,-0.00311,-2.63148,1.06374,1.57080,0.11675,-0.12764,-0.48146,0.03604,,,,,,,,,,,,,,,,,,,,,,,,,,0,0,0,0,0
2.3836,1783965626.9348,1,1,1.0000,-0.0000,1.42243,-0.00311,-2.63148,1.06374,1.57080,0.11675,-0.12764,-0.48146,0.03604,,,,,,,,,,,,,,,,,,,,,,,,,,0,0,0,0,0
2.4107,1783965626.9619,1,1,1.0000,-0.0000,1.42243,-0.00329,-2.63152,1.06396,1.57080,0.11675,-0.12764,-0.48146,0.03598,,,,,,,,,,,,,,,,,,,,,,,,,,0,0,0,0,0
2.4131,1783965626.9643,1,1,1.0000,-0.0000,1.42243,-0.00332,-2.63152,1.06399,1.57080,0.11675,-0.12764,-0.48146,0.03597,,,,,,,,,,,,,,,,,,,,,,,,,,0,0,0,0,0
2.4420,1783965626.9932,1,1,1.0000,-0.0000,1.42243,-0.00348,-2.63155,1.06419,1.57080,0.11675,-0.12764,-0.48146,0.03592,,,,,,,,,,,,,,,,,,,,,,,,,,0,0,0,0,0
2.4475,1783965626.9986,1,1,1.0000,-0.0000,1.42243,-0.00353,-2.63156,1.06424,1.57080,0.11675,-0.12764,-0.48146,0.03590,,,,,,,,,,,,,,,,,,,,,,,,,,0,0,0,0,0
2.4479,1783965626.9991,1,1,1.0000,-0.0000,1.42243,-0.00353,-2.63156,1.06424,1.57080,0.11675,-0.12764,-0.48146,0.03590,,,,,,,,,,,,,,,,,,,,,,,,,,0,0,0,0,0
2.4509,1783965627.0021,1,1,1.0000,-0.0000,1.42243,-0.00357,-2.63156,1.06430,1.57080,0.11675,-0.12764,-0.48147,0.03589,,,,,,,,,,,,,,,,,,,,,,,,,,0,0,0,0,0
2.4513,1783965627.0025,1,1,1.0000,-0.0000,1.42243,-0.00357,-2.63156,1.06430,1.57080,0.11675,-0.12764,-0.48147,0.03589,,,,,,,,,,,,,,,,,,,,,,,,,,0,0,0,0,0
2.4516,1783965627.0027,1,1,1.0000,-0.0000,1.42243,-0.00357,-2.63156,1.06430,1.57080,0.11675,-0.12764,-0.48147,0.03589,,,,,,,,,,,,,,,,,,,,,,,,,,0,0,0,0,0
2.4536,1783965627.0048,1,1,1.0000,-0.0000,1.42243,-0.00363,-2.63157,1.06436,1.57080,0.11675,-0.12764,-0.48147,0.03587,,,,,,,,,,,,,,,,,,,,,,,,,,0,0,0,0,0
2.4540,1783965627.0052,1,1,1.0000,-0.0000,1.42243,-0.00363,-2.63157,1.06436,1.57080,0.11675,-0.12764,-0.48147,0.03587,,,,,,,,,,,,,,,,,,,,,,,,,,0,0,0,0,0
2.4572,1783965627.0084,1,1,1.0000,-0.0000,1.42243,-0.00368,-2.63158,1.06443,1.57080,0.11675,-0.12764,-0.48147,0.03586,,,,,,,,,,,,,,,,,,,,,,,,,,0,0,0,0,0
2.4575,1783965627.0087,1,1,1.0000,-0.0000,1.42243,-0.00368,-2.63158,1.06443,1.57080,0.11675,-0.12764,-0.48147,0.03586,,,,,,,,,,,,,,,,,,,,,,,,,,0,0,0,0,0
2.4747,1783965627.0259,1,1,1.0000,-0.0000,1.42243,-0.00371,-2.63158,1.06447,1.57080,0.11675,-0.12763,-0.48148,0.03585,,,,,,,,,,,,,,,,,,,,,,,,,,0,0,0,0,0
2.4772,1783965627.0283,1,1,1.0000,-0.0000,1.42243,-0.00373,-2.63158,1.06449,1.57080,0.11675,-0.12763,-0.48148,0.03584,,,,,,,,,,,,,,,,,,,,,,,,,,0,0,0,0,0
2.4793,1783965627.0305,1,1,1.0000,-0.0000,1.42243,-0.00373,-2.63158,1.06449,1.57080,0.11675,-0.12763,-0.48148,0.03584,,,,,,,,,,,,,,,,,,,,,,,,,,0,0,0,0,0
2.4798,1783965627.0310,1,1,1.0000,-0.0000,1.42243,-0.00373,-2.63158,1.06449,1.57080,0.11675,-0.12763,-0.48148,0.03584,,,,,,,,,,,,,,,,,,,,,,,,,,0,0,0,0,0
2.4803,1783965627.0315,1,1,1.0000,-0.0000,1.42243,-0.00376,-2.63158,1.06452,1.57080,0.11675,-0.12763,-0.48149,0.03584,,,,,,,,,,,,,,,,,,,,,,,,,,0,0,0,0,0
2.4813,1783965627.0325,1,1,1.0000,-0.0000,1.42243,-0.00376,-2.63158,1.06452,1.57080,0.11675,-0.12763,-0.48149,0.03584,,,,,,,,,,,,,,,,,,,,,,,,,,0,0,0,0,0
2.4815,1783965627.0327,1,1,1.0000,-0.0000,1.42243,-0.00376,-2.63158,1.06452,1.57080,0.11675,-0.12763,-0.48149,0.03584,,,,,,,,,,,,,,,,,,,,,,,,,,0,0,0,0,0
2.5090,1783965627.0602,1,1,1.0000,-0.0000,1.42243,-0.00396,-2.63155,1.06478,1.57080,0.11675,-0.12762,-0.48154,0.03580,,,,,,,,,,,,,,,,,,,,,,,,,,0,0,0,0,0
2.5406,1783965627.0918,1,1,1.0000,-0.0000,1.42243,-0.00401,-2.63151,1.06483,1.57080,0.11675,-0.12762,-0.48158,0.03581,,,,,,,,,,,,,,,,,,,,,,,,,,0,0,0,0,0
2.5449,1783965627.0961,1,1,1.0000,-0.0000,1.42243,-0.00401,-2.63151,1.06483,1.57080,0.11675,-0.12762,-0.48158,0.03581,,,,,,,,,,,,,,,,,,,,,,,,,,0,0,0,0,0
2.5452,1783965627.0964,1,1,1.0000,-0.0000,1.42243,-0.00401,-2.63151,1.06483,1.57080,0.11675,-0.12762,-0.48158,0.03581,,,,,,,,,,,,,,,,,,,,,,,,,,0,0,0,0,0
2.5458,1783965627.0969,1,1,1.0000,-0.0000,1.42243,-0.00401,-2.63151,1.06483,1.57080,0.11675,-0.12762,-0.48158,0.03581,,,,,,,,,,,,,,,,,,,,,,,,,,0,0,0,0,0
2.5461,1783965627.0972,1,1,1.0000,-0.0000,1.42243,-0.00401,-2.63151,1.06483,1.57080,0.11675,-0.12762,-0.48158,0.03581,,,,,,,,,,,,,,,,,,,,,,,,,,0,0,0,0,0
2.5467,1783965627.0979,1,1,1.0000,-0.0000,1.42243,-0.00401,-2.63151,1.06483,1.57080,0.11675,-0.12762,-0.48158,0.03581,,,,,,,,,,,,,,,,,,,,,,,,,,0,0,0,0,0
2.5470,1783965627.0982,1,1,1.0000,-0.0000,1.42243,-0.00401,-2.63151,1.06483,1.57080,0.11675,-0.12762,-0.48158,0.03581,,,,,,,,,,,,,,,,,,,,,,,,,,0,0,0,0,0
2.5479,1783965627.0991,1,1,1.0000,-0.0000,1.42243,-0.00401,-2.63151,1.06483,1.57080,0.11675,-0.12762,-0.48158,0.03581,,,,,,,,,,,,,,,,,,,,,,,,,,0,0,0,0,0
2.5484,1783965627.0996,1,1,1.0000,-0.0000,1.42243,-0.00401,-2.63151,1.06483,1.57080,0.11675,-0.12762,-0.48158,0.03581,,,,,,,,,,,,,,,,,,,,,,,,,,0,0,0,0,0
2.5537,1783965627.1049,1,1,1.0000,-0.0000,1.42243,-0.00401,-2.63151,1.06483,1.57080,0.11675,-0.12762,-0.48158,0.03581,,,,,,,,,,,,,,,,,,,,,,,,,,0,0,0,0,0
2.5550,1783965627.1062,1,1,1.0000,-0.0000,1.42243,-0.00401,-2.63151,1.06483,1.57080,0.11675,-0.12762,-0.48158,0.03581,,,,,,,,,,,,,,,,,,,,,,,,,,0,0,0,0,0
2.5564,1783965627.1076,1,1,1.0000,-0.0000,1.42243,-0.00401,-2.63151,1.06483,1.57080,0.11675,-0.12762,-0.48158,0.03581,,,,,,,,,,,,,,,,,,,,,,,,,,0,0,0,0,0
2.5567,1783965627.1079,1,1,1.0000,-0.0000,1.42243,-0.00401,-2.63151,1.06483,1.57080,0.11675,-0.12762,-0.48158,0.03581,,,,,,,,,,,,,,,,,,,,,,,,,,0,0,0,0,0
2.5570,1783965627.1082,1,1,1.0000,-0.0000,1.42243,-0.00401,-2.63151,1.06483,1.57080,0.11675,-0.12762,-0.48158,0.03581,,,,,,,,,,,,,,,,,,,,,,,,,,0,0,0,0,0
2.5574,1783965627.1086,1,1,1.0000,-0.0000,1.42243,-0.00401,-2.63151,1.06483,1.57080,0.11675,-0.12762,-0.48158,0.03581,,,,,,,,,,,,,,,,,,,,,,,,,,0,0,0,0,0
2.5677,1783965627.1189,1,1,1.0000,-0.0000,1.42243,-0.00401,-2.63151,1.06483,1.57080,0.11675,-0.12762,-0.48158,0.03581,,,,,,,,,,,,,,,,,,,,,,,,,,0,0,0,0,0
2.5794,1783965627.1306,1,1,1.0000,-0.0000,1.42243,-0.00401,-2.63151,1.06483,1.57080,0.11675,-0.12762,-0.48158,0.03581,,,,,,,,,,,,,,,,,,,,,,,,,,0,0,0,0,0
2.5862,1783965627.1374,1,1,1.0000,-0.0000,1.42243,-0.00401,-2.63151,1.06483,1.57080,0.11675,-0.12762,-0.48158,0.03581,,,,,,,,,,,,,,,,,,,,,,,,,,0,0,0,0,0
2.6182,1783965627.1694,1,1,1.0000,-0.0000,1.42243,-0.00401,-2.63151,1.06483,1.57080,0.11675,-0.12762,-0.48158,0.03581,,,,,,,,,,,,,,,,,,,,,,,,,,0,0,0,0,0
2.6323,1783965627.1835,1,1,1.0000,-0.0000,1.42243,-0.00401,-2.63151,1.06483,1.57080,0.11675,-0.12762,-0.48158,0.03581,,,,,,,,,,,,,,,,,,,,,,,,,,0,0,0,0,0
2.6485,1783965627.1997,1,1,1.0000,-0.0000,1.42243,-0.00401,-2.63151,1.06483,1.57080,0.11675,-0.12762,-0.48158,0.03581,,,,,,,,,,,,,,,,,,,,,,,,,,0,0,0,0,0
2.6490,1783965627.2002,1,1,1.0000,-0.0000,1.42243,-0.00401,-2.63151,1.06483,1.57080,0.11675,-0.12762,-0.48158,0.03581,,,,,,,,,,,,,,,,,,,,,,,,,,0,0,0,0,0
2.6559,1783965627.2071,1,1,1.0000,-0.0000,1.42243,-0.00401,-2.63151,1.06483,1.57080,0.11675,-0.12762,-0.48158,0.03581,,,,,,,,,,,,,,,,,,,,,,,,,,0,0,0,0,0
2.6566,1783965627.2078,1,1,1.0000,-0.0000,1.42243,-0.00401,-2.63151,1.06483,1.57080,0.11675,-0.12762,-0.48158,0.03581,,,,,,,,,,,,,,,,,,,,,,,,,,0,0,0,0,0
2.6578,1783965627.2090,1,1,1.0000,-0.0000,1.42243,-0.00401,-2.63151,1.06483,1.57080,0.11675,-0.12762,-0.48158,0.03581,,,,,,,,,,,,,,,,,,,,,,,,,,0,0,0,0,0
2.6605,1783965627.2116,1,1,1.0000,-0.0000,1.42243,-0.00401,-2.63151,1.06483,1.57080,0.11675,-0.12762,-0.48158,0.03581,,,,,,,,,,,,,,,,,,,,,,,,,,0,0,0,0,0
2.6608,1783965627.2120,1,1,1.0000,-0.0000,1.42243,-0.00401,-2.63151,1.06483,1.57080,0.11675,-0.12762,-0.48158,0.03581,,,,,,,,,,,,,,,,,,,,,,,,,,0,0,0,0,0
2.6653,1783965627.2165,1,1,1.0000,-0.0000,1.42243,-0.00401,-2.63151,1.06483,1.57080,0.11675,-0.12762,-0.48158,0.03581,,,,,,,,,,,,,,,,,,,,,,,,,,0,0,0,0,0
2.6999,1783965627.2511,1,1,1.0000,-0.0000,1.42243,-0.00401,-2.63151,1.06483,1.57080,0.11675,-0.12762,-0.48158,0.03581,,,,,,,,,,,,,,,,,,,,,,,,,,0,0,0,0,0
2.7146,1783965627.2658,1,1,1.0000,-0.0000,1.42243,-0.00402,-2.63154,1.06485,1.57080,0.11675,-0.12762,-0.48156,0.03580,,,,,,,,,,,,,,,,,,,,,,,,,,0,0,0,0,0
2.7162,1783965627.2674,1,1,1.0000,-0.0000,1.42243,-0.00402,-2.63155,1.06485,1.57080,0.11675,-0.12762,-0.48155,0.03579,,,,,,,,,,,,,,,,,,,,,,,,,,0,0,0,0,0
2.7164,1783965627.2675,1,1,1.0000,-0.0000,1.42243,-0.00402,-2.63155,1.06485,1.57080,0.11675,-0.12762,-0.48155,0.03579,,,,,,,,,,,,,,,,,,,,,,,,,,0,0,0,0,0
2.7166,1783965627.2678,1,1,1.0000,-0.0000,1.42243,-0.00402,-2.63155,1.06485,1.57080,0.11675,-0.12762,-0.48155,0.03579,,,,,,,,,,,,,,,,,,,,,,,,,,0,0,0,0,0
2.7169,1783965627.2681,1,1,1.0000,-0.0000,1.42243,-0.00402,-2.63155,1.06485,1.57080,0.11675,-0.12762,-0.48155,0.03579,,,,,,,,,,,,,,,,,,,,,,,,,,0,0,0,0,0
2.7509,1783965627.3021,1,1,1.0000,-0.0000,1.42243,-0.00408,-2.63163,1.06493,1.57080,0.11675,-0.12763,-0.48151,0.03574,,,,,,,,,,,,,,,,,,,,,,,,,,0,0,0,0,0
2.8258,1783965627.3770,1,1,1.0000,-0.0000,1.42243,-0.00442,-2.63177,1.06533,1.57080,0.11675,-0.12764,-0.48145,0.03559,,,,,,,,,,,,,,,,,,,,,,,,,,0,0,0,0,0
2.8575,1783965627.4087,1,1,1.0000,-0.0000,1.42242,-0.00460,-2.63181,1.06554,1.57080,0.11675,-0.12764,-0.48145,0.03554,,,,,,,,,,,,,,,,,,,,,,,,,,0,0,0,0,0
2.8951,1783965627.4463,1,1,1.0000,-0.0000,1.42242,-0.00485,-2.63184,1.06585,1.57080,0.11675,-0.12763,-0.48147,0.03546,,,,,,,,,,,,,,,,,,,,,,,,,,0,0,0,0,0
2.8956,1783965627.4468,1,1,1.0000,-0.0000,1.42242,-0.00485,-2.63184,1.06585,1.57080,0.11675,-0.12763,-0.48147,0.03546,,,,,,,,,,,,,,,,,,,,,,,,,,0,0,0,0,0
2.9747,1783965627.5259,1,1,1.0000,-0.0000,1.42242,-0.00519,-2.63179,1.06628,1.57080,0.11675,-0.12762,-0.48157,0.03541,,,,,,,,,,,,,,,,,,,,,,,,,,0,0,0,0,0
2.9874,1783965627.5386,1,1,1.0000,-0.0000,1.42242,-0.00519,-2.63179,1.06628,1.57080,0.11675,-0.12762,-0.48157,0.03541,,,,,,,,,,,,,,,,,,,,,,,,,,0,0,0,0,0
2.9971,1783965627.5483,1,1,1.0000,-0.0000,1.42242,-0.00519,-2.63179,1.06628,1.57080,0.11675,-0.12762,-0.48157,0.03541,,,,,,,,,,,,,,,,,,,,,,,,,,0,0,0,0,0
3.0219,1783965627.5731,1,1,1.0000,-0.0000,1.42242,-0.00519,-2.63179,1.06628,1.57080,0.11675,-0.12762,-0.48157,0.03541,,,,,,,,,,,,,,,,,,,,,,,,,,0,0,0,0,0
3.0349,1783965627.5861,1,1,1.0000,-0.0000,1.42242,-0.00519,-2.63179,1.06628,1.57080,0.11675,-0.12762,-0.48157,0.03541,,,,,,,,,,,,,,,,,,,,,,,,,,0,0,0,0,0
3.0517,1783965627.6029,1,1,1.0000,-0.0000,1.42242,-0.00519,-2.63179,1.06628,1.57080,0.11675,-0.12762,-0.48157,0.03541,,,,,,,,,,,,,,,,,,,,,,,,,,0,0,0,0,0
3.0567,1783965627.6079,1,1,1.0000,-0.0000,1.42242,-0.00519,-2.63179,1.06628,1.57080,0.11675,-0.12762,-0.48157,0.03541,,,,,,,,,,,,,,,,,,,,,,,,,,0,0,0,0,0
3.0571,1783965627.6083,1,1,1.0000,-0.0000,1.42242,-0.00519,-2.63179,1.06628,1.57080,0.11675,-0.12762,-0.48157,0.03541,,,,,,,,,,,,,,,,,,,,,,,,,,0,0,0,0,0
3.0583,1783965627.6095,1,1,1.0000,-0.0000,1.42242,-0.00519,-2.63179,1.06628,1.57080,0.11675,-0.12762,-0.48157,0.03541,,,,,,,,,,,,,,,,,,,,,,,,,,0,0,0,0,0
3.0587,1783965627.6098,1,1,1.0000,-0.0000,1.42242,-0.00519,-2.63179,1.06628,1.57080,0.11675,-0.12762,-0.48157,0.03541,,,,,,,,,,,,,,,,,,,,,,,,,,0,0,0,0,0
3.0635,1783965627.6147,1,1,1.0000,-0.0000,1.42242,-0.00519,-2.63179,1.06628,1.57080,0.11675,-0.12762,-0.48157,0.03541,,,,,,,,,,,,,,,,,,,,,,,,,,0,0,0,0,0
3.0639,1783965627.6151,1,1,1.0000,-0.0000,1.42242,-0.00519,-2.63179,1.06628,1.57080,0.11675,-0.12762,-0.48157,0.03541,,,,,,,,,,,,,,,,,,,,,,,,,,0,0,0,0,0
3.0669,1783965627.6181,1,1,1.0000,-0.0000,1.42242,-0.00519,-2.63179,1.06628,1.57080,0.11675,-0.12762,-0.48157,0.03541,,,,,,,,,,,,,,,,,,,,,,,,,,0,0,0,0,0
3.0672,1783965627.6184,1,1,1.0000,-0.0000,1.42242,-0.00519,-2.63179,1.06628,1.57080,0.11675,-0.12762,-0.48157,0.03541,,,,,,,,,,,,,,,,,,,,,,,,,,0,0,0,0,0
3.0706,1783965627.6218,1,1,1.0000,-0.0000,1.42242,-0.00519,-2.63179,1.06628,1.57080,0.11675,-0.12762,-0.48157,0.03541,,,,,,,,,,,,,,,,,,,,,,,,,,0,0,0,0,0
3.0709,1783965627.6221,1,1,1.0000,-0.0000,1.42242,-0.00519,-2.63179,1.06628,1.57080,0.11675,-0.12762,-0.48157,0.03541,,,,,,,,,,,,,,,,,,,,,,,,,,0,0,0,0,0
3.0714,1783965627.6226,1,1,1.0000,-0.0000,1.42242,-0.00519,-2.63179,1.06628,1.57080,0.11675,-0.12762,-0.48157,0.03541,,,,,,,,,,,,,,,,,,,,,,,,,,0,0,0,0,0
3.1018,1783965627.6529,1,1,1.0000,-0.0000,1.42242,-0.00519,-2.63179,1.06628,1.57080,0.11675,-0.12762,-0.48157,0.03541,,,,,,,,,,,,,,,,,,,,,,,,,,0,0,0,0,0
3.1167,1783965627.6679,1,1,1.0000,-0.0000,1.42242,-0.00519,-2.63179,1.06628,1.57080,0.11675,-0.12762,-0.48157,0.03541,,,,,,,,,,,,,,,,,,,,,,,,,,0,0,0,0,0
3.1272,1783965627.6784,1,1,1.0000,-0.0000,1.42242,-0.00519,-2.63179,1.06628,1.57080,0.11675,-0.12762,-0.48157,0.03540,,,,,,,,,,,,,,,,,,,,,,,,,,0,0,0,0,0
3.1276,1783965627.6788,1,1,1.0000,-0.0000,1.42242,-0.00519,-2.63179,1.06628,1.57080,0.11675,-0.12762,-0.48157,0.03540,,,,,,,,,,,,,,,,,,,,,,,,,,0,0,0,0,0
3.1279,1783965627.6791,1,1,1.0000,-0.0000,1.42242,-0.00519,-2.63179,1.06628,1.57080,0.11675,-0.12762,-0.48157,0.03540,,,,,,,,,,,,,,,,,,,,,,,,,,0,0,0,0,0
3.1293,1783965627.6805,1,1,1.0000,-0.0000,1.42242,-0.00519,-2.63179,1.06628,1.57080,0.11675,-0.12762,-0.48157,0.03540,,,,,,,,,,,,,,,,,,,,,,,,,,0,0,0,0,0
3.1297,1783965627.6809,1,1,1.0000,-0.0000,1.42242,-0.00519,-2.63179,1.06628,1.57080,0.11675,-0.12762,-0.48157,0.03540,,,,,,,,,,,,,,,,,,,,,,,,,,0,0,0,0,0
3.1302,1783965627.6814,1,1,1.0000,-0.0000,1.42242,-0.00519,-2.63179,1.06628,1.57080,0.11675,-0.12762,-0.48157,0.03540,,,,,,,,,,,,,,,,,,,,,,,,,,0,0,0,0,0
3.1350,1783965627.6861,1,1,1.0000,-0.0000,1.42242,-0.00519,-2.63180,1.06629,1.57080,0.11675,-0.12762,-0.48156,0.03540,,,,,,,,,,,,,,,,,,,,,,,,,,0,0,0,0,0
3.1356,1783965627.6867,1,1,1.0000,-0.0000,1.42242,-0.00519,-2.63180,1.06629,1.57080,0.11675,-0.12762,-0.48156,0.03540,,,,,,,,,,,,,,,,,,,,,,,,,,0,0,0,0,0
3.1485,1783965627.6997,1,1,1.0000,-0.0000,1.42242,-0.00520,-2.63183,1.06631,1.57080,0.11675,-0.12762,-0.48154,0.03539,,,,,,,,,,,,,,,,,,,,,,,,,,0,0,0,0,0
3.1691,1783965627.7202,1,1,1.0000,-0.0000,1.42242,-0.00524,-2.63188,1.06635,1.57080,0.11675,-0.12763,-0.48151,0.03535,,,,,,,,,,,,,,,,,,,,,,,,,,0,0,0,0,0
3.1723,1783965627.7235,1,1,1.0000,-0.0000,1.42242,-0.00526,-2.63189,1.06637,1.57080,0.11675,-0.12763,-0.48150,0.03534,,,,,,,,,,,,,,,,,,,,,,,,,,0,0,0,0,0
3.2008,1783965627.7519,1,1,1.0000,-0.0000,1.42242,-0.00535,-2.63196,1.06648,1.57080,0.11675,-0.12763,-0.48147,0.03529,,,,,,,,,,,,,,,,,,,,,,,,,,0,0,0,0,0
3.2011,1783965627.7523,1,1,1.0000,-0.0000,1.42242,-0.00535,-2.63196,1.06648,1.57080,0.11675,-0.12763,-0.48147,0.03529,,,,,,,,,,,,,,,,,,,,,,,,,,0,0,0,0,0
3.2075,1783965627.7587,1,1,1.0000,-0.0000,1.42242,-0.00535,-2.63196,1.06648,1.57080,0.11675,-0.12763,-0.48147,0.03529,,,,,,,,,,,,,,,,,,,,,,,,,,0,0,0,0,0
3.2195,1783965627.7707,1,1,1.0000,-0.0000,1.42242,-0.00540,-2.63197,1.06654,1.57080,0.11675,-0.12763,-0.48147,0.03527,,,,,,,,,,,,,,,,,,,,,,,,,,0,0,0,0,0
3.2204,1783965627.7716,1,1,1.0000,-0.0000,1.42242,-0.00543,-2.63198,1.06657,1.57080,0.11675,-0.12763,-0.48146,0.03526,,,,,,,,,,,,,,,,,,,,,,,,,,0,0,0,0,0
3.2264,1783965627.7776,1,1,1.0000,-0.0000,1.42242,-0.00546,-2.63199,1.06662,1.57080,0.11675,-0.12763,-0.48146,0.03525,,,,,,,,,,,,,,,,,,,,,,,,,,0,0,0,0,0
3.2269,1783965627.7781,1,1,1.0000,-0.0000,1.42242,-0.00546,-2.63199,1.06662,1.57080,0.11675,-0.12763,-0.48146,0.03525,,,,,,,,,,,,,,,,,,,,,,,,,,0,0,0,0,0
3.2287,1783965627.7799,1,1,1.0000,-0.0000,1.42242,-0.00551,-2.63201,1.06667,1.57080,0.11675,-0.12763,-0.48146,0.03523,,,,,,,,,,,,,,,,,,,,,,,,,,0,0,0,0,0
3.2291,1783965627.7803,1,1,1.0000,-0.0000,1.42242,-0.00551,-2.63201,1.06667,1.57080,0.11675,-0.12763,-0.48146,0.03523,,,,,,,,,,,,,,,,,,,,,,,,,,0,0,0,0,0
3.2304,1783965627.7816,1,1,1.0000,-0.0000,1.42242,-0.00551,-2.63201,1.06667,1.57080,0.11675,-0.12763,-0.48146,0.03523,,,,,,,,,,,,,,,,,,,,,,,,,,0,0,0,0,0
3.2308,1783965627.7820,1,1,1.0000,-0.0000,1.42242,-0.00551,-2.63201,1.06667,1.57080,0.11675,-0.12763,-0.48146,0.03523,,,,,,,,,,,,,,,,,,,,,,,,,,0,0,0,0,0
3.2315,1783965627.7827,1,1,1.0000,-0.0000,1.42242,-0.00551,-2.63201,1.06667,1.57080,0.11675,-0.12763,-0.48146,0.03523,,,,,,,,,,,,,,,,,,,,,,,,,,0,0,0,0,0
3.2323,1783965627.7835,1,1,1.0000,-0.0000,1.42242,-0.00555,-2.63202,1.06673,1.57080,0.11675,-0.12763,-0.48146,0.03521,,,,,,,,,,,,,,,,,,,,,,,,,,0,0,0,0,0
3.2422,1783965627.7934,1,1,1.0000,-0.0000,1.42242,-0.00556,-2.63202,1.06674,1.57080,0.11675,-0.12763,-0.48146,0.03521,,,,,,,,,,,,,,,,,,,,,,,,,,0,0,0,0,0
3.2665,1783965627.8177,1,1,1.0000,-0.0000,1.42242,-0.00578,-2.63207,1.06700,1.57080,0.11675,-0.12763,-0.48146,0.03514,,,,,,,,,,,,,,,,,,,,,,,,,,0,0,0,0,0
3.2675,1783965627.8186,1,1,1.0000,-0.0000,1.42242,-0.00578,-2.63207,1.06700,1.57080,0.11675,-0.12763,-0.48146,0.03514,,,,,,,,,,,,,,,,,,,,,,,,,,0,0,0,0,0
3.2679,1783965627.8190,1,1,1.0000,-0.0000,1.42242,-0.00578,-2.63207,1.06700,1.57080,0.11675,-0.12763,-0.48146,0.03514,,,,,,,,,,,,,,,,,,,,,,,,,,0,0,0,0,0
3.2701,1783965627.8212,1,1,1.0000,-0.0000,1.42242,-0.00583,-2.63208,1.06706,1.57080,0.11675,-0.12763,-0.48146,0.03512,,,,,,,,,,,,,,,,,,,,,,,,,,0,0,0,0,0
3.2705,1783965627.8216,1,1,1.0000,-0.0000,1.42242,-0.00583,-2.63208,1.06706,1.57080,0.11675,-0.12763,-0.48146,0.03512,,,,,,,,,,,,,,,,,,,,,,,,,,0,0,0,0,0
3.2707,1783965627.8219,1,1,1.0000,-0.0000,1.42242,-0.00583,-2.63208,1.06706,1.57080,0.11675,-0.12763,-0.48146,0.03512,,,,,,,,,,,,,,,,,,,,,,,,,,0,0,0,0,0
3.2711,1783965627.8222,1,1,1.0000,-0.0000,1.42242,-0.00583,-2.63208,1.06706,1.57080,0.11675,-0.12763,-0.48146,0.03512,,,,,,,,,,,,,,,,,,,,,,,,,,0,0,0,0,0
3.2713,1783965627.8225,1,1,1.0000,-0.0000,1.42242,-0.00583,-2.63208,1.06706,1.57080,0.11675,-0.12763,-0.48146,0.03512,,,,,,,,,,,,,,,,,,,,,,,,,,0,0,0,0,0
3.2750,1783965627.8262,1,1,1.0000,-0.0000,1.42242,-0.00583,-2.63208,1.06706,1.57080,0.11675,-0.12763,-0.48146,0.03512,,,,,,,,,,,,,,,,,,,,,,,,,,0,0,0,0,0
3.2754,1783965627.8266,1,1,1.0000,-0.0000,1.42242,-0.00583,-2.63208,1.06706,1.57080,0.11675,-0.12763,-0.48146,0.03512,,,,,,,,,,,,,,,,,,,,,,,,,,0,0,0,0,0
3.2758,1783965627.8270,1,1,1.0000,-0.0000,1.42242,-0.00583,-2.63208,1.06706,1.57080,0.11675,-0.12763,-0.48146,0.03512,,,,,,,,,,,,,,,,,,,,,,,,,,0,0,0,0,0
3.2861,1783965627.8373,1,1,1.0000,-0.0000,1.42242,-0.00588,-2.63208,1.06711,1.57080,0.11675,-0.12763,-0.48146,0.03511,,,,,,,,,,,,,,,,,,,,,,,,,,0,0,0,0,0
3.2983,1783965627.8495,1,1,1.0000,-0.0000,1.42242,-0.00598,-2.63210,1.06723,1.57080,0.11675,-0.12763,-0.48146,0.03507,,,,,,,,,,,,,,,,,,,,,,,,,,0,0,0,0,0
3.3264,1783965627.8775,1,1,1.0000,-0.0000,1.42242,-0.00628,-2.63214,1.06761,1.57080,0.11675,-0.12763,-0.48148,0.03499,,,,,,,,,,,,,,,,,,,,,,,,,,0,0,0,0,0
3.3314,1783965627.8826,1,1,1.0000,-0.0000,1.42242,-0.00631,-2.63215,1.06765,1.57080,0.11675,-0.12763,-0.48149,0.03498,,,,,,,,,,,,,,,,,,,,,,,,,,0,0,0,0,0
3.3486,1783965627.8997,1,1,1.0000,-0.0000,1.42242,-0.00634,-2.63215,1.06769,1.57080,0.11675,-0.12763,-0.48149,0.03497,,,,,,,,,,,,,,,,,,,,,,,,,,0,0,0,0,0
3.3499,1783965627.9011,1,1,1.0000,-0.0000,1.42242,-0.00634,-2.63215,1.06769,1.57080,0.11675,-0.12763,-0.48149,0.03497,,,,,,,,,,,,,,,,,,,,,,,,,,0,0,0,0,0
3.3503,1783965627.9015,1,1,1.0000,-0.0000,1.42242,-0.00634,-2.63215,1.06769,1.57080,0.11675,-0.12763,-0.48149,0.03497,,,,,,,,,,,,,,,,,,,,,,,,,,0,0,0,0,0
3.3606,1783965627.9118,1,1,1.0000,-0.0000,1.42242,-0.00634,-2.63215,1.06769,1.57080,0.11675,-0.12763,-0.48149,0.03497,,,,,,,,,,,,,,,,,,,,,,,,,,0,0,0,0,0
3.3612,1783965627.9124,1,1,1.0000,-0.0000,1.42242,-0.00634,-2.63215,1.06769,1.57080,0.11675,-0.12763,-0.48149,0.03497,,,,,,,,,,,,,,,,,,,,,,,,,,0,0,0,0,0
3.3615,1783965627.9126,1,1,1.0000,-0.0000,1.42242,-0.00634,-2.63215,1.06769,1.57080,0.11675,-0.12763,-0.48149,0.03497,,,,,,,,,,,,,,,,,,,,,,,,,,0,0,0,0,0
3.3637,1783965627.9149,1,1,1.0000,-0.0000,1.42242,-0.00634,-2.63215,1.06769,1.57080,0.11675,-0.12763,-0.48149,0.03497,,,,,,,,,,,,,,,,,,,,,,,,,,0,0,0,0,0
3.3644,1783965627.9156,1,1,1.0000,-0.0000,1.42242,-0.00634,-2.63215,1.06769,1.57080,0.11675,-0.12763,-0.48149,0.03497,,,,,,,,,,,,,,,,,,,,,,,,,,0,0,0,0,0
3.3668,1783965627.9180,1,1,1.0000,-0.0000,1.42242,-0.00634,-2.63215,1.06769,1.57080,0.11675,-0.12763,-0.48149,0.03497,,,,,,,,,,,,,,,,,,,,,,,,,,0,0,0,0,0
3.3671,1783965627.9183,1,1,1.0000,-0.0000,1.42242,-0.00634,-2.63215,1.06769,1.57080,0.11675,-0.12763,-0.48149,0.03497,,,,,,,,,,,,,,,,,,,,,,,,,,0,0,0,0,0
3.3675,1783965627.9187,1,1,1.0000,-0.0000,1.42242,-0.00634,-2.63215,1.06769,1.57080,0.11675,-0.12763,-0.48149,0.03497,,,,,,,,,,,,,,,,,,,,,,,,,,0,0,0,0,0
3.3689,1783965627.9201,1,1,1.0000,-0.0000,1.42242,-0.00634,-2.63215,1.06769,1.57080,0.11675,-0.12763,-0.48149,0.03497,,,,,,,,,,,,,,,,,,,,,,,,,,0,0,0,0,0
3.3692,1783965627.9203,1,1,1.0000,-0.0000,1.42242,-0.00634,-2.63215,1.06769,1.57080,0.11675,-0.12763,-0.48149,0.03497,,,,,,,,,,,,,,,,,,,,,,,,,,0,0,0,0,0
3.3694,1783965627.9206,1,1,1.0000,-0.0000,1.42242,-0.00634,-2.63215,1.06769,1.57080,0.11675,-0.12763,-0.48149,0.03497,,,,,,,,,,,,,,,,,,,,,,,,,,0,0,0,0,0
3.3730,1783965627.9242,1,1,1.0000,-0.0000,1.42242,-0.00634,-2.63215,1.06769,1.57080,0.11675,-0.12763,-0.48149,0.03497,,,,,,,,,,,,,,,,,,,,,,,,,,0,0,0,0,0
3.3733,1783965627.9245,1,1,1.0000,-0.0000,1.42242,-0.00634,-2.63215,1.06769,1.57080,0.11675,-0.12763,-0.48149,0.03497,,,,,,,,,,,,,,,,,,,,,,,,,,0,0,0,0,0
3.3991,1783965627.9503,1,1,1.0000,-0.0000,1.42242,-0.00634,-2.63215,1.06769,1.57080,0.11675,-0.12763,-0.48149,0.03497,,,,,,,,,,,,,,,,,,,,,,,,,,0,0,0,0,0
3.3995,1783965627.9507,1,1,1.0000,-0.0000,1.42242,-0.00634,-2.63215,1.06769,1.57080,0.11675,-0.12763,-0.48149,0.03497,,,,,,,,,,,,,,,,,,,,,,,,,,0,0,0,0,0
3.4061,1783965627.9573,1,1,1.0000,-0.0000,1.42242,-0.00634,-2.63215,1.06769,1.57080,0.11675,-0.12763,-0.48149,0.03497,,,,,,,,,,,,,,,,,,,,,,,,,,0,0,0,0,0
3.4175,1783965627.9686,1,1,1.0000,-0.0000,1.42242,-0.00634,-2.63215,1.06769,1.57080,0.11675,-0.12763,-0.48149,0.03497,,,,,,,,,,,,,,,,,,,,,,,,,,0,0,0,0,0
3.4312,1783965627.9824,1,1,1.0000,-0.0000,1.42242,-0.00634,-2.63215,1.06769,1.57080,0.11675,-0.12763,-0.48149,0.03497,,,,,,,,,,,,,,,,,,,,,,,,,,0,0,0,0,0
3.4380,1783965627.9892,1,1,1.0000,-0.0000,1.42242,-0.00634,-2.63215,1.06769,1.57080,0.11675,-0.12763,-0.48149,0.03497,,,,,,,,,,,,,,,,,,,,,,,,,,0,0,0,0,0
3.4384,1783965627.9895,1,1,1.0000,-0.0000,1.42242,-0.00634,-2.63215,1.06769,1.57080,0.11675,-0.12763,-0.48149,0.03497,,,,,,,,,,,,,,,,,,,,,,,,,,0,0,0,0,0
3.4509,1783965628.0021,1,1,1.0000,-0.0000,1.42242,-0.00634,-2.63215,1.06769,1.57080,0.11675,-0.12763,-0.48149,0.03497,,,,,,,,,,,,,,,,,,,,,,,,,,0,0,0,0,0
3.4512,1783965628.0024,1,1,1.0000,-0.0000,1.42242,-0.00634,-2.63215,1.06769,1.57080,0.11675,-0.12763,-0.48149,0.03497,,,,,,,,,,,,,,,,,,,,,,,,,,0,0,0,0,0
3.4806,1783965628.0318,1,1,1.0000,-0.0000,1.42242,-0.00634,-2.63215,1.06769,1.57080,0.11675,-0.12763,-0.48149,0.03497,,,,,,,,,,,,,,,,,,,,,,,,,,0,0,0,0,0
3.5110,1783965628.0621,1,1,1.0000,-0.0000,1.42242,-0.00634,-2.63215,1.06769,1.57080,0.11675,-0.12763,-0.48149,0.03497,,,,,,,,,,,,,,,,,,,,,,,,,,0,0,0,0,0
3.5407,1783965628.0919,1,1,1.0000,-0.0000,1.42242,-0.00634,-2.63215,1.06769,1.57080,0.11675,-0.12763,-0.48149,0.03497,,,,,,,,,,,,,,,,,,,,,,,,,,0,0,0,0,0
3.5410,1783965628.0921,1,1,1.0000,-0.0000,1.42242,-0.00634,-2.63215,1.06769,1.57080,0.11675,-0.12763,-0.48149,0.03497,,,,,,,,,,,,,,,,,,,,,,,,,,0,0,0,0,0
3.5488,1783965628.1000,1,1,1.0000,-0.0000,1.42242,-0.00634,-2.63215,1.06770,1.57080,0.11675,-0.12763,-0.48149,0.03497,,,,,,,,,,,,,,,,,,,,,,,,,,0,0,0,0,0
3.5555,1783965628.1067,1,1,1.0000,-0.0000,1.42242,-0.00634,-2.63214,1.06770,1.57080,0.11675,-0.12763,-0.48150,0.03497,,,,,,,,,,,,,,,,,,,,,,,,,,0,0,0,0,0
3.5685,1783965628.1197,1,1,1.0000,-0.0000,1.42242,-0.00636,-2.63214,1.06773,1.57080,0.11675,-0.12762,-0.48151,0.03497,,,,,,,,,,,,,,,,,,,,,,,,,,0,0,0,0,0
3.5687,1783965628.1199,1,1,1.0000,-0.0000,1.42242,-0.00636,-2.63214,1.06773,1.57080,0.11675,-0.12762,-0.48151,0.03497,,,,,,,,,,,,,,,,,,,,,,,,,,0,0,0,0,0
3.6054,1783965628.1566,1,1,1.0000,-0.0000,1.42242,-0.00644,-2.63220,1.06782,1.57080,0.11675,-0.12763,-0.48147,0.03493,,,,,,,,,,,,,,,,,,,,,,,,,,0,0,0,0,0
3.6057,1783965628.1569,1,1,1.0000,-0.0000,1.42242,-0.00644,-2.63220,1.06782,1.57080,0.11675,-0.12763,-0.48147,0.03493,,,,,,,,,,,,,,,,,,,,,,,,,,0,0,0,0,0
3.6075,1783965628.1587,1,1,1.0000,-0.0000,1.42242,-0.00644,-2.63220,1.06782,1.57080,0.11675,-0.12763,-0.48147,0.03493,,,,,,,,,,,,,,,,,,,,,,,,,,0,0,0,0,0
3.6080,1783965628.1591,1,1,1.0000,-0.0000,1.42242,-0.00644,-2.63220,1.06782,1.57080,0.11675,-0.12763,-0.48147,0.03493,,,,,,,,,,,,,,,,,,,,,,,,,,0,0,0,0,0
3.6085,1783965628.1597,1,1,1.0000,-0.0000,1.42242,-0.00645,-2.63220,1.06783,1.57080,0.11675,-0.12763,-0.48147,0.03492,,,,,,,,,,,,,,,,,,,,,,,,,,0,0,0,0,0
3.6088,1783965628.1599,1,1,1.0000,-0.0000,1.42242,-0.00645,-2.63220,1.06783,1.57080,0.11675,-0.12763,-0.48147,0.03492,,,,,,,,,,,,,,,,,,,,,,,,,,0,0,0,0,0
3.6106,1783965628.1618,1,1,1.0000,-0.0000,1.42242,-0.00645,-2.63220,1.06783,1.57080,0.11675,-0.12763,-0.48147,0.03492,,,,,,,,,,,,,,,,,,,,,,,,,,0,0,0,0,0
3.6110,1783965628.1622,1,1,1.0000,-0.0000,1.42242,-0.00645,-2.63220,1.06783,1.57080,0.11675,-0.12763,-0.48147,0.03492,,,,,,,,,,,,,,,,,,,,,,,,,,0,0,0,0,0
3.6130,1783965628.1642,1,1,1.0000,-0.0000,1.42242,-0.00646,-2.63221,1.06784,1.57080,0.11675,-0.12763,-0.48147,0.03491,,,,,,,,,,,,,,,,,,,,,,,,,,0,0,0,0,0
3.6133,1783965628.1645,1,1,1.0000,-0.0000,1.42242,-0.00646,-2.63221,1.06784,1.57080,0.11675,-0.12763,-0.48147,0.03491,,,,,,,,,,,,,,,,,,,,,,,,,,0,0,0,0,0
3.6421,1783965628.1933,1,1,1.0000,-0.0000,1.42242,-0.00657,-2.63225,1.06797,1.57080,0.11675,-0.12763,-0.48145,0.03487,,,,,,,,,,,,,,,,,,,,,,,,,,0,0,0,0,0
3.6424,1783965628.1936,1,1,1.0000,-0.0000,1.42242,-0.00657,-2.63225,1.06797,1.57080,0.11675,-0.12763,-0.48145,0.03487,,,,,,,,,,,,,,,,,,,,,,,,,,0,0,0,0,0
3.6428,1783965628.1940,1,1,1.0000,-0.0000,1.42242,-0.00657,-2.63225,1.06797,1.57080,0.11675,-0.12763,-0.48145,0.03487,,,,,,,,,,,,,,,,,,,,,,,,,,0,0,0,0,0
3.6435,1783965628.1946,1,1,1.0000,-0.0000,1.42242,-0.00657,-2.63225,1.06797,1.57080,0.11675,-0.12763,-0.48145,0.03487,,,,,,,,,,,,,,,,,,,,,,,,,,0,0,0,0,0
3.6438,1783965628.1949,1,1,1.0000,-0.0000,1.42242,-0.00657,-2.63225,1.06797,1.57080,0.11675,-0.12763,-0.48145,0.03487,,,,,,,,,,,,,,,,,,,,,,,,,,0,0,0,0,0
3.6558,1783965628.2070,1,1,1.0000,-0.0000,1.42242,-0.00668,-2.63228,1.06810,1.57080,0.11675,-0.12763,-0.48145,0.03483,,,,,,,,,,,,,,,,,,,,,,,,,,0,0,0,0,0
3.6566,1783965628.2078,1,1,1.0000,-0.0000,1.42242,-0.00668,-2.63228,1.06810,1.57080,0.11675,-0.12763,-0.48145,0.03483,,,,,,,,,,,,,,,,,,,,,,,,,,0,0,0,0,0
3.7096,1783965628.2608,1,1,1.0000,-0.0000,1.42242,-0.00703,-2.63234,1.06853,1.57080,0.11675,-0.12763,-0.48146,0.03471,,,,,,,,,,,,,,,,,,,,,,,,,,0,0,0,0,0
3.7100,1783965628.2612,1,1,1.0000,-0.0000,1.42242,-0.00703,-2.63234,1.06853,1.57080,0.11675,-0.12763,-0.48146,0.03471,,,,,,,,,,,,,,,,,,,,,,,,,,0,0,0,0,0
3.7138,1783965628.2649,1,1,1.0000,-0.0000,1.42242,-0.00708,-2.63235,1.06858,1.57080,0.11675,-0.12763,-0.48146,0.03470,,,,,,,,,,,,,,,,,,,,,,,,,,0,0,0,0,0
3.7141,1783965628.2653,1,1,1.0000,-0.0000,1.42242,-0.00708,-2.63235,1.06858,1.57080,0.11675,-0.12763,-0.48146,0.03470,,,,,,,,,,,,,,,,,,,,,,,,,,0,0,0,0,0
3.7154,1783965628.2666,1,1,1.0000,-0.0000,1.42242,-0.00708,-2.63235,1.06858,1.57080,0.11675,-0.12763,-0.48146,0.03470,,,,,,,,,,,,,,,,,,,,,,,,,,0,0,0,0,0
3.7157,1783965628.2669,1,1,1.0000,-0.0000,1.42242,-0.00708,-2.63235,1.06858,1.57080,0.11675,-0.12763,-0.48146,0.03470,,,,,,,,,,,,,,,,,,,,,,,,,,0,0,0,0,0
3.7163,1783965628.2675,1,1,1.0000,-0.0000,1.42242,-0.00713,-2.63235,1.06864,1.57080,0.11675,-0.12763,-0.48147,0.03468,,,,,,,,,,,,,,,,,,,,,,,,,,0,0,0,0,0
3.7164,1783965628.2676,1,1,1.0000,-0.0000,1.42242,-0.00713,-2.63235,1.06864,1.57080,0.11675,-0.12763,-0.48147,0.03468,,,,,,,,,,,,,,,,,,,,,,,,,,0,0,0,0,0
3.7677,1783965628.3189,1,1,1.0000,-0.0000,1.42241,-0.00749,-2.63240,1.06909,1.57080,0.11675,-0.12763,-0.48149,0.03458,,,,,,,,,,,,,,,,,,,,,,,,,,0,0,0,0,0
3.7683,1783965628.3195,1,1,1.0000,-0.0000,1.42241,-0.00749,-2.63240,1.06909,1.57080,0.11675,-0.12763,-0.48149,0.03458,,,,,,,,,,,,,,,,,,,,,,,,,,0,0,0,0,0
3.7767,1783965628.3278,1,1,1.0000,-0.0000,1.42241,-0.00749,-2.63240,1.06909,1.57080,0.11675,-0.12763,-0.48149,0.03458,,,,,,,,,,,,,,,,,,,,,,,,,,0,0,0,0,0
3.7774,1783965628.3286,1,1,1.0000,-0.0000,1.42241,-0.00749,-2.63240,1.06909,1.57080,0.11675,-0.12763,-0.48149,0.03458,,,,,,,,,,,,,,,,,,,,,,,,,,0,0,0,0,0
3.7778,1783965628.3289,1,1,1.0000,-0.0000,1.42241,-0.00749,-2.63240,1.06909,1.57080,0.11675,-0.12763,-0.48149,0.03458,,,,,,,,,,,,,,,,,,,,,,,,,,0,0,0,0,0
3.8578,1783965628.4090,1,1,1.0000,-0.0000,1.42241,-0.00749,-2.63240,1.06909,1.57080,0.11675,-0.12763,-0.48149,0.03458,,,,,,,,,,,,,,,,,,,,,,,,,,0,0,0,0,0
3.9127,1783965628.4639,1,1,1.0000,-0.0000,1.42241,-0.00749,-2.63240,1.06909,1.57080,0.11675,-0.12763,-0.48149,0.03458,,,,,,,,,,,,,,,,,,,,,,,,,,0,0,0,0,0
3.9132,1783965628.4644,1,1,1.0000,-0.0000,1.42241,-0.00749,-2.63240,1.06909,1.57080,0.11675,-0.12763,-0.48149,0.03458,,,,,,,,,,,,,,,,,,,,,,,,,,0,0,0,0,0
3.9189,1783965628.4701,1,1,1.0000,-0.0000,1.42241,-0.00749,-2.63240,1.06909,1.57080,0.11675,-0.12763,-0.48149,0.03458,,,,,,,,,,,,,,,,,,,,,,,,,,0,0,0,0,0
3.9193,1783965628.4705,1,1,1.0000,-0.0000,1.42241,-0.00749,-2.63240,1.06909,1.57080,0.11675,-0.12763,-0.48149,0.03458,,,,,,,,,,,,,,,,,,,,,,,,,,0,0,0,0,0
3.9206,1783965628.4717,1,1,1.0000,-0.0000,1.42241,-0.00749,-2.63240,1.06909,1.57080,0.11675,-0.12763,-0.48149,0.03458,,,,,,,,,,,,,,,,,,,,,,,,,,0,0,0,0,0
3.9210,1783965628.4722,1,1,1.0000,-0.0000,1.42241,-0.00749,-2.63240,1.06909,1.57080,0.11675,-0.12763,-0.48149,0.03458,,,,,,,,,,,,,,,,,,,,,,,,,,0,0,0,0,0
3.9405,1783965628.4917,1,1,1.0000,-0.0000,1.42241,-0.00749,-2.63240,1.06909,1.57080,0.11675,-0.12763,-0.48149,0.03458,,,,,,,,,,,,,,,,,,,,,,,,,,0,0,0,0,0
3.9594,1783965628.5106,1,1,1.0000,-0.0000,1.42241,-0.00749,-2.63240,1.06909,1.57080,0.11675,-0.12763,-0.48149,0.03458,,,,,,,,,,,,,,,,,,,,,,,,,,0,0,0,0,0
3.9635,1783965628.5147,1,1,1.0000,-0.0000,1.42241,-0.00749,-2.63240,1.06909,1.57080,0.11675,-0.12763,-0.48149,0.03458,,,,,,,,,,,,,,,,,,,,,,,,,,0,0,0,0,0
3.9815,1783965628.5327,1,1,1.0000,-0.0000,1.42241,-0.00752,-2.63240,1.06913,1.57080,0.11675,-0.12762,-0.48150,0.03457,,,,,,,,,,,,,,,,,,,,,,,,,,0,0,0,0,0
4.0157,1783965628.5669,1,1,1.0000,-0.0000,1.42241,-0.00759,-2.63244,1.06922,1.57080,0.11675,-0.12763,-0.48148,0.03454,,,,,,,,,,,,,,,,,,,,,,,,,,0,0,0,0,0
4.0524,1783965628.6036,1,1,1.0000,-0.0000,1.42241,-0.00774,-2.63251,1.06939,1.57080,0.11675,-0.12763,-0.48145,0.03447,,,,,,,,,,,,,,,,,,,,,,,,,,0,0,0,0,0
4.0671,1783965628.6182,1,1,1.0000,-0.0000,1.42241,-0.00780,-2.63252,1.06947,1.57080,0.11675,-0.12763,-0.48145,0.03445,,,,,,,,,,,,,,,,,,,,,,,,,,0,0,0,0,0
4.0674,1783965628.6186,1,1,1.0000,-0.0000,1.42241,-0.00780,-2.63252,1.06947,1.57080,0.11675,-0.12763,-0.48145,0.03445,,,,,,,,,,,,,,,,,,,,,,,,,,0,0,0,0,0
4.0678,1783965628.6190,1,1,1.0000,-0.0000,1.42241,-0.00780,-2.63252,1.06947,1.57080,0.11675,-0.12763,-0.48145,0.03445,,,,,,,,,,,,,,,,,,,,,,,,,,0,0,0,0,0
4.0683,1783965628.6195,1,1,1.0000,-0.0000,1.42241,-0.00783,-2.63253,1.06951,1.57080,0.11675,-0.12763,-0.48145,0.03444,,,,,,,,,,,,,,,,,,,,,,,,,,0,0,0,0,0
4.0777,1783965628.6289,1,1,1.0000,-0.0000,1.42241,-0.00791,-2.63255,1.06961,1.57080,0.11675,-0.12763,-0.48145,0.03441,,,,,,,,,,,,,,,,,,,,,,,,,,0,0,0,0,0
4.0780,1783965628.6292,1,1,1.0000,-0.0000,1.42241,-0.00791,-2.63255,1.06961,1.57080,0.11675,-0.12763,-0.48145,0.03441,,,,,,,,,,,,,,,,,,,,,,,,,,0,0,0,0,0
4.0811,1783965628.6323,1,1,1.0000,-0.0000,1.42241,-0.00791,-2.63255,1.06961,1.57080,0.11675,-0.12763,-0.48145,0.03441,,,,,,,,,,,,,,,,,,,,,,,,,,0,0,0,0,0
4.0814,1783965628.6326,1,1,1.0000,-0.0000,1.42241,-0.00791,-2.63255,1.06961,1.57080,0.11675,-0.12763,-0.48145,0.03441,,,,,,,,,,,,,,,,,,,,,,,,,,0,0,0,0,0
4.0818,1783965628.6330,1,1,1.0000,-0.0000,1.42241,-0.00791,-2.63255,1.06961,1.57080,0.11675,-0.12763,-0.48145,0.03441,,,,,,,,,,,,,,,,,,,,,,,,,,0,0,0,0,0
4.0821,1783965628.6333,1,1,1.0000,-0.0000,1.42241,-0.00791,-2.63255,1.06961,1.57080,0.11675,-0.12763,-0.48145,0.03441,,,,,,,,,,,,,,,,,,,,,,,,,,0,0,0,0,0
4.0824,1783965628.6335,1,1,1.0000,-0.0000,1.42241,-0.00791,-2.63255,1.06961,1.57080,0.11675,-0.12763,-0.48145,0.03441,,,,,,,,,,,,,,,,,,,,,,,,,,0,0,0,0,0
4.0827,1783965628.6339,1,1,1.0000,-0.0000,1.42241,-0.00791,-2.63255,1.06961,1.57080,0.11675,-0.12763,-0.48145,0.03441,,,,,,,,,,,,,,,,,,,,,,,,,,0,0,0,0,0
4.0830,1783965628.6342,1,1,1.0000,-0.0000,1.42241,-0.00791,-2.63255,1.06961,1.57080,0.11675,-0.12763,-0.48145,0.03441,,,,,,,,,,,,,,,,,,,,,,,,,,0,0,0,0,0
4.0844,1783965628.6356,1,1,1.0000,-0.0000,1.42241,-0.00792,-2.63255,1.06961,1.57080,0.11675,-0.12763,-0.48145,0.03441,,,,,,,,,,,,,,,,,,,,,,,,,,0,0,0,0,0
4.0846,1783965628.6358,1,1,1.0000,-0.0000,1.42241,-0.00792,-2.63255,1.06961,1.57080,0.11675,-0.12763,-0.48145,0.03441,,,,,,,,,,,,,,,,,,,,,,,,,,0,0,0,0,0
4.0981,1783965628.6493,1,1,1.0000,-0.0000,1.42241,-0.00800,-2.63257,1.06971,1.57080,0.11675,-0.12763,-0.48145,0.03438,,,,,,,,,,,,,,,,,,,,,,,,,,0,0,0,0,0
4.1707,1783965628.7219,1,1,1.0000,-0.0000,1.42241,-0.00868,-2.63266,1.07053,1.57080,0.11675,-0.12762,-0.48149,0.03418,,,,,,,,,,,,,,,,,,,,,,,,,,0,0,0,0,0
4.1768,1783965628.7280,1,1,1.0000,-0.0000,1.42241,-0.00868,-2.63266,1.07053,1.57080,0.11675,-0.12762,-0.48149,0.03418,,,,,,,,,,,,,,,,,,,,,,,,,,0,0,0,0,0
4.1772,1783965628.7284,1,1,1.0000,-0.0000,1.42241,-0.00868,-2.63266,1.07053,1.57080,0.11675,-0.12762,-0.48149,0.03418,,,,,,,,,,,,,,,,,,,,,,,,,,0,0,0,0,0
4.1794,1783965628.7306,1,1,1.0000,-0.0000,1.42241,-0.00868,-2.63266,1.07053,1.57080,0.11675,-0.12762,-0.48149,0.03418,,,,,,,,,,,,,,,,,,,,,,,,,,0,0,0,0,0
4.1797,1783965628.7309,1,1,1.0000,-0.0000,1.42241,-0.00868,-2.63266,1.07053,1.57080,0.11675,-0.12762,-0.48149,0.03418,,,,,,,,,,,,,,,,,,,,,,,,,,0,0,0,0,0
4.1912,1783965628.7424,1,1,1.0000,-0.0000,1.42241,-0.00868,-2.63266,1.07053,1.57080,0.11675,-0.12762,-0.48149,0.03418,,,,,,,,,,,,,,,,,,,,,,,,,,0,0,0,0,0
4.1915,1783965628.7427,1,1,1.0000,-0.0000,1.42241,-0.00868,-2.63266,1.07053,1.57080,0.11675,-0.12762,-0.48149,0.03418,,,,,,,,,,,,,,,,,,,,,,,,,,0,0,0,0,0
4.2374,1783965628.7885,1,1,1.0000,-0.0000,1.42241,-0.00868,-2.63266,1.07053,1.57080,0.11675,-0.12762,-0.48149,0.03418,,,,,,,,,,,,,,,,,,,,,,,,,,0,0,0,0,0
4.2487,1783965628.7999,1,1,1.0000,-0.0000,1.42241,-0.00868,-2.63266,1.07053,1.57080,0.11675,-0.12762,-0.48149,0.03418,,,,,,,,,,,,,,,,,,,,,,,,,,0,0,0,0,0
4.2491,1783965628.8003,1,1,1.0000,-0.0000,1.42241,-0.00868,-2.63266,1.07053,1.57080,0.11675,-0.12762,-0.48149,0.03418,,,,,,,,,,,,,,,,,,,,,,,,,,0,0,0,0,0
4.2496,1783965628.8008,1,1,1.0000,-0.0000,1.42241,-0.00868,-2.63266,1.07053,1.57080,0.11675,-0.12762,-0.48149,0.03418,,,,,,,,,,,,,,,,,,,,,,,,,,0,0,0,0,0
4.2500,1783965628.8012,1,1,1.0000,-0.0000,1.42241,-0.00868,-2.63266,1.07053,1.57080,0.11675,-0.12762,-0.48149,0.03418,,,,,,,,,,,,,,,,,,,,,,,,,,0,0,0,0,0
4.2717,1783965628.8229,1,1,1.0000,-0.0000,1.42241,-0.00868,-2.63266,1.07053,1.57080,0.11675,-0.12762,-0.48149,0.03418,,,,,,,,,,,,,,,,,,,,,,,,,,0,0,0,0,0
4.2725,1783965628.8237,1,1,1.0000,-0.0000,1.42241,-0.00868,-2.63266,1.07053,1.57080,0.11675,-0.12762,-0.48149,0.03418,,,,,,,,,,,,,,,,,,,,,,,,,,0,0,0,0,0
4.2905,1783965628.8417,1,1,1.0000,-0.0000,1.42241,-0.00868,-2.63266,1.07053,1.57080,0.11675,-0.12762,-0.48149,0.03418,,,,,,,,,,,,,,,,,,,,,,,,,,0,0,0,0,0
4.2914,1783965628.8426,1,1,1.0000,-0.0000,1.42241,-0.00868,-2.63266,1.07053,1.57080,0.11675,-0.12762,-0.48149,0.03418,,,,,,,,,,,,,,,,,,,,,,,,,,0,0,0,0,0
4.2917,1783965628.8428,1,1,1.0000,-0.0000,1.42241,-0.00868,-2.63266,1.07053,1.57080,0.11675,-0.12762,-0.48149,0.03418,,,,,,,,,,,,,,,,,,,,,,,,,,0,0,0,0,0
4.2936,1783965628.8447,1,1,1.0000,-0.0000,1.42241,-0.00868,-2.63266,1.07053,1.57080,0.11675,-0.12762,-0.48149,0.03418,,,,,,,,,,,,,,,,,,,,,,,,,,0,0,0,0,0
4.3181,1783965628.8692,1,1,1.0000,-0.0000,1.42241,-0.00868,-2.63266,1.07053,1.57080,0.11675,-0.12762,-0.48149,0.03418,,,,,,,,,,,,,,,,,,,,,,,,,,0,0,0,0,0
4.3217,1783965628.8729,1,1,1.0000,-0.0000,1.42241,-0.00868,-2.63266,1.07053,1.57080,0.11675,-0.12762,-0.48149,0.03418,,,,,,,,,,,,,,,,,,,,,,,,,,0,0,0,0,0
4.3232,1783965628.8744,1,1,1.0000,-0.0000,1.42241,-0.00868,-2.63266,1.07053,1.57080,0.11675,-0.12762,-0.48149,0.03418,,,,,,,,,,,,,,,,,,,,,,,,,,0,0,0,0,0
4.3262,1783965628.8773,1,1,1.0000,-0.0000,1.42241,-0.00868,-2.63266,1.07053,1.57080,0.11675,-0.12762,-0.48149,0.03418,,,,,,,,,,,,,,,,,,,,,,,,,,0,0,0,0,0
4.3265,1783965628.8777,1,1,1.0000,-0.0000,1.42241,-0.00868,-2.63266,1.07053,1.57080,0.11675,-0.12762,-0.48149,0.03418,,,,,,,,,,,,,,,,,,,,,,,,,,0,0,0,0,0
4.3270,1783965628.8782,1,1,1.0000,-0.0000,1.42241,-0.00868,-2.63266,1.07053,1.57080,0.11675,-0.12762,-0.48149,0.03418,,,,,,,,,,,,,,,,,,,,,,,,,,0,0,0,0,0
4.3291,1783965628.8802,1,1,1.0000,-0.0000,1.42241,-0.00868,-2.63266,1.07053,1.57080,0.11675,-0.12762,-0.48149,0.03418,,,,,,,,,,,,,,,,,,,,,,,,,,0,0,0,0,0
4.3295,1783965628.8806,1,1,1.0000,-0.0000,1.42241,-0.00868,-2.63266,1.07053,1.57080,0.11675,-0.12762,-0.48149,0.03418,,,,,,,,,,,,,,,,,,,,,,,,,,0,0,0,0,0
4.3299,1783965628.8811,1,1,1.0000,-0.0000,1.42241,-0.00868,-2.63266,1.07053,1.57080,0.11675,-0.12762,-0.48149,0.03418,,,,,,,,,,,,,,,,,,,,,,,,,,0,0,0,0,0
4.3304,1783965628.8815,1,1,1.0000,-0.0000,1.42241,-0.00868,-2.63266,1.07053,1.57080,0.11675,-0.12762,-0.48149,0.03418,,,,,,,,,,,,,,,,,,,,,,,,,,0,0,0,0,0
4.3341,1783965628.8853,1,1,1.0000,-0.0000,1.42241,-0.00868,-2.63266,1.07053,1.57080,0.11675,-0.12762,-0.48149,0.03418,,,,,,,,,,,,,,,,,,,,,,,,,,0,0,0,0,0
4.5404,1783965629.0916,1,1,1.0000,-0.0000,1.42241,-0.00928,-2.63284,1.07126,1.57080,0.11675,-0.12763,-0.48145,0.03395,,,,,,,,,,,,,,,,,,,,,,,,,,0,0,0,0,0
4.5582,1783965629.1093,1,1,1.0000,-0.0000,1.42241,-0.00944,-2.63287,1.07145,1.57081,0.11675,-0.12763,-0.48146,0.03390,,,,,,,,,,,,,,,,,,,,,,,,,,0,0,0,0,0
4.5606,1783965629.1118,1,1,1.0000,-0.0000,1.42241,-0.00945,-2.63287,1.07146,1.57081,0.11675,-0.12763,-0.48146,0.03390,,,,,,,,,,,,,,,,,,,,,,,,,,0,0,0,0,0
4.5608,1783965629.1120,1,1,1.0000,-0.0000,1.42241,-0.00945,-2.63287,1.07146,1.57081,0.11675,-0.12763,-0.48146,0.03390,,,,,,,,,,,,,,,,,,,,,,,,,,0,0,0,0,0
4.5779,1783965629.1291,1,1,1.0000,-0.0000,1.42241,-0.00955,-2.63288,1.07159,1.57081,0.11675,-0.12762,-0.48147,0.03387,,,,,,,,,,,,,,,,,,,,,,,,,,0,0,0,0,0
4.5785,1783965629.1297,1,1,1.0000,-0.0000,1.42241,-0.00955,-2.63288,1.07159,1.57081,0.11675,-0.12762,-0.48147,0.03387,,,,,,,,,,,,,,,,,,,,,,,,,,0,0,0,0,0
4.5788,1783965629.1300,1,1,1.0000,-0.0000,1.42241,-0.00955,-2.63288,1.07159,1.57081,0.11675,-0.12762,-0.48147,0.03387,,,,,,,,,,,,,,,,,,,,,,,,,,0,0,0,0,0
4.5793,1783965629.1305,1,1,1.0000,-0.0000,1.42241,-0.00955,-2.63288,1.07159,1.57081,0.11675,-0.12762,-0.48147,0.03387,,,,,,,,,,,,,,,,,,,,,,,,,,0,0,0,0,0
4.5813,1783965629.1325,1,1,1.0000,-0.0000,1.42241,-0.00959,-2.63288,1.07163,1.57081,0.11675,-0.12762,-0.48147,0.03386,,,,,,,,,,,,,,,,,,,,,,,,,,0,0,0,0,0
4.5815,1783965629.1327,1,1,1.0000,-0.0000,1.42241,-0.00959,-2.63288,1.07163,1.57081,0.11675,-0.12762,-0.48147,0.03386,,,,,,,,,,,,,,,,,,,,,,,,,,0,0,0,0,0
4.5819,1783965629.1331,1,1,1.0000,-0.0000,1.42241,-0.00959,-2.63288,1.07163,1.57081,0.11675,-0.12762,-0.48147,0.03386,,,,,,,,,,,,,,,,,,,,,,,,,,0,0,0,0,0
4.5822,1783965629.1334,1,1,1.0000,-0.0000,1.42241,-0.00959,-2.63288,1.07163,1.57081,0.11675,-0.12762,-0.48147,0.03386,,,,,,,,,,,,,,,,,,,,,,,,,,0,0,0,0,0
4.5824,1783965629.1336,1,1,1.0000,-0.0000,1.42241,-0.00959,-2.63288,1.07163,1.57081,0.11675,-0.12762,-0.48147,0.03386,,,,,,,,,,,,,,,,,,,,,,,,,,0,0,0,0,0
4.5827,1783965629.1338,1,1,1.0000,-0.0000,1.42241,-0.00959,-2.63288,1.07163,1.57081,0.11675,-0.12762,-0.48147,0.03386,,,,,,,,,,,,,,,,,,,,,,,,,,0,0,0,0,0
4.5829,1783965629.1341,1,1,1.0000,-0.0000,1.42241,-0.00959,-2.63288,1.07163,1.57081,0.11675,-0.12762,-0.48147,0.03386,,,,,,,,,,,,,,,,,,,,,,,,,,0,0,0,0,0
4.5860,1783965629.1372,1,1,1.0000,-0.0000,1.42241,-0.00964,-2.63288,1.07169,1.57081,0.11675,-0.12762,-0.48148,0.03385,,,,,,,,,,,,,,,,,,,,,,,,,,0,0,0,0,0
4.5863,1783965629.1375,1,1,1.0000,-0.0000,1.42241,-0.00964,-2.63288,1.07169,1.57081,0.11675,-0.12762,-0.48148,0.03385,,,,,,,,,,,,,,,,,,,,,,,,,,0,0,0,0,0
4.5870,1783965629.1382,1,1,1.0000,-0.0000,1.42241,-0.00964,-2.63288,1.07169,1.57081,0.11675,-0.12762,-0.48148,0.03385,,,,,,,,,,,,,,,,,,,,,,,,,,0,0,0,0,0
4.5874,1783965629.1386,1,1,1.0000,-0.0000,1.42241,-0.00964,-2.63288,1.07169,1.57081,0.11675,-0.12762,-0.48148,0.03385,,,,,,,,,,,,,,,,,,,,,,,,,,0,0,0,0,0
4.5894,1783965629.1405,1,1,1.0000,-0.0000,1.42241,-0.00968,-2.63289,1.07174,1.57081,0.11675,-0.12762,-0.48148,0.03383,,,,,,,,,,,,,,,,,,,,,,,,,,0,0,0,0,0
4.5897,1783965629.1409,1,1,1.0000,-0.0000,1.42241,-0.00968,-2.63289,1.07174,1.57081,0.11675,-0.12762,-0.48148,0.03383,,,,,,,,,,,,,,,,,,,,,,,,,,0,0,0,0,0
4.5944,1783965629.1456,1,1,1.0000,-0.0000,1.42241,-0.00973,-2.63289,1.07180,1.57081,0.11675,-0.12762,-0.48149,0.03382,,,,,,,,,,,,,,,,,,,,,,,,,,0,0,0,0,0
4.5959,1783965629.1471,1,1,1.0000,-0.0000,1.42241,-0.00973,-2.63289,1.07180,1.57081,0.11675,-0.12762,-0.48149,0.03382,,,,,,,,,,,,,,,,,,,,,,,,,,0,0,0,0,0
4.5980,1783965629.1492,1,1,1.0000,-0.0000,1.42241,-0.00977,-2.63289,1.07185,1.57081,0.11675,-0.12762,-0.48150,0.03381,,,,,,,,,,,,,,,,,,,,,,,,,,0,0,0,0,0
4.5982,1783965629.1494,1,1,1.0000,-0.0000,1.42241,-0.00977,-2.63289,1.07185,1.57081,0.11675,-0.12762,-0.48150,0.03381,,,,,,,,,,,,,,,,,,,,,,,,,,0,0,0,0,0
4.6005,1783965629.1517,1,1,1.0000,-0.0000,1.42241,-0.00981,-2.63289,1.07191,1.57081,0.11675,-0.12762,-0.48150,0.03380,,,,,,,,,,,,,,,,,,,,,,,,,,0,0,0,0,0
4.6017,1783965629.1529,1,1,1.0000,-0.0000,1.42241,-0.00981,-2.63289,1.07191,1.57081,0.11675,-0.12762,-0.48150,0.03380,,,,,,,,,,,,,,,,,,,,,,,,,,0,0,0,0,0
4.6059,1783965629.1570,1,1,1.0000,-0.0000,1.42241,-0.00985,-2.63289,1.07195,1.57081,0.11675,-0.12762,-0.48151,0.03379,,,,,,,,,,,,,,,,,,,,,,,,,,0,0,0,0,0
4.6063,1783965629.1575,1,1,1.0000,-0.0000,1.42241,-0.00985,-2.63289,1.07195,1.57081,0.11675,-0.12762,-0.48151,0.03379,,,,,,,,,,,,,,,,,,,,,,,,,,0,0,0,0,0
4.6107,1783965629.1619,1,1,1.0000,-0.0000,1.42241,-0.00988,-2.63289,1.07199,1.57081,0.11675,-0.12762,-0.48152,0.03379,,,,,,,,,,,,,,,,,,,,,,,,,,0,0,0,0,0
4.6304,1783965629.1816,1,1,1.0000,-0.0000,1.42241,-0.00993,-2.63288,1.07205,1.57081,0.11675,-0.12761,-0.48153,0.03378,,,,,,,,,,,,,,,,,,,,,,,,,,0,0,0,0,0
4.6353,1783965629.1865,1,1,1.0000,-0.0000,1.42241,-0.00993,-2.63288,1.07205,1.57081,0.11675,-0.12761,-0.48153,0.03378,,,,,,,,,,,,,,,,,,,,,,,,,,0,0,0,0,0
4.6359,1783965629.1871,1,1,1.0000,-0.0000,1.42241,-0.00993,-2.63288,1.07205,1.57081,0.11675,-0.12761,-0.48153,0.03378,,,,,,,,,,,,,,,,,,,,,,,,,,0,0,0,0,0
4.6443,1783965629.1955,1,1,1.0000,-0.0000,1.42241,-0.00993,-2.63288,1.07205,1.57081,0.11675,-0.12761,-0.48153,0.03378,,,,,,,,,,,,,,,,,,,,,,,,,,0,0,0,0,0
4.6467,1783965629.1979,1,1,1.0000,-0.0000,1.42241,-0.00993,-2.63288,1.07205,1.57081,0.11675,-0.12761,-0.48153,0.03378,,,,,,,,,,,,,,,,,,,,,,,,,,0,0,0,0,0
4.6471,1783965629.1983,1,1,1.0000,-0.0000,1.42241,-0.00993,-2.63288,1.07205,1.57081,0.11675,-0.12761,-0.48153,0.03378,,,,,,,,,,,,,,,,,,,,,,,,,,0,0,0,0,0
4.6634,1783965629.2145,1,1,1.0000,-0.0000,1.42241,-0.00993,-2.63288,1.07205,1.57081,0.11675,-0.12761,-0.48153,0.03378,,,,,,,,,,,,,,,,,,,,,,,,,,0,0,0,0,0
4.6648,1783965629.2159,1,1,1.0000,-0.0000,1.42241,-0.00993,-2.63288,1.07205,1.57081,0.11675,-0.12761,-0.48153,0.03378,,,,,,,,,,,,,,,,,,,,,,,,,,0,0,0,0,0
4.6656,1783965629.2168,1,1,1.0000,-0.0000,1.42241,-0.00993,-2.63288,1.07205,1.57081,0.11675,-0.12761,-0.48153,0.03378,,,,,,,,,,,,,,,,,,,,,,,,,,0,0,0,0,0
4.6659,1783965629.2171,1,1,1.0000,-0.0000,1.42241,-0.00993,-2.63288,1.07205,1.57081,0.11675,-0.12761,-0.48153,0.03378,,,,,,,,,,,,,,,,,,,,,,,,,,0,0,0,0,0
4.6782,1783965629.2294,1,1,1.0000,-0.0000,1.42241,-0.00993,-2.63288,1.07205,1.57081,0.11675,-0.12761,-0.48153,0.03378,,,,,,,,,,,,,,,,,,,,,,,,,,0,0,0,0,0
4.6787,1783965629.2299,1,1,1.0000,-0.0000,1.42241,-0.00993,-2.63288,1.07205,1.57081,0.11675,-0.12761,-0.48153,0.03378,,,,,,,,,,,,,,,,,,,,,,,,,,0,0,0,0,0
4.6790,1783965629.2302,1,1,1.0000,-0.0000,1.42241,-0.00993,-2.63288,1.07205,1.57081,0.11675,-0.12761,-0.48153,0.03378,,,,,,,,,,,,,,,,,,,,,,,,,,0,0,0,0,0
4.6842,1783965629.2354,1,1,1.0000,-0.0000,1.42241,-0.00993,-2.63288,1.07205,1.57081,0.11675,-0.12761,-0.48153,0.03378,,,,,,,,,,,,,,,,,,,,,,,,,,0,0,0,0,0
4.6915,1783965629.2427,1,1,1.0000,-0.0000,1.42241,-0.00993,-2.63288,1.07205,1.57081,0.11675,-0.12761,-0.48153,0.03378,,,,,,,,,,,,,,,,,,,,,,,,,,0,0,0,0,0
4.6946,1783965629.2458,1,1,1.0000,-0.0000,1.42241,-0.00993,-2.63288,1.07205,1.57081,0.11675,-0.12761,-0.48153,0.03378,,,,,,,,,,,,,,,,,,,,,,,,,,0,0,0,0,0
4.6950,1783965629.2462,1,1,1.0000,-0.0000,1.42241,-0.00993,-2.63288,1.07205,1.57081,0.11675,-0.12761,-0.48153,0.03378,,,,,,,,,,,,,,,,,,,,,,,,,,0,0,0,0,0
4.6985,1783965629.2497,1,1,1.0000,-0.0000,1.42241,-0.00993,-2.63288,1.07205,1.57081,0.11675,-0.12761,-0.48153,0.03378,,,,,,,,,,,,,,,,,,,,,,,,,,0,0,0,0,0
4.6989,1783965629.2501,1,1,1.0000,-0.0000,1.42241,-0.00993,-2.63288,1.07205,1.57081,0.11675,-0.12761,-0.48153,0.03378,,,,,,,,,,,,,,,,,,,,,,,,,,0,0,0,0,0
4.7088,1783965629.2599,1,1,1.0000,-0.0000,1.42241,-0.00993,-2.63288,1.07205,1.57081,0.11675,-0.12761,-0.48153,0.03378,,,,,,,,,,,,,,,,,,,,,,,,,,0,0,0,0,0
4.7091,1783965629.2603,1,1,1.0000,-0.0000,1.42241,-0.00993,-2.63288,1.07205,1.57081,0.11675,-0.12761,-0.48153,0.03378,,,,,,,,,,,,,,,,,,,,,,,,,,0,0,0,0,0
4.7096,1783965629.2608,1,1,1.0000,-0.0000,1.42241,-0.00993,-2.63288,1.07205,1.57081,0.11675,-0.12761,-0.48153,0.03378,,,,,,,,,,,,,,,,,,,,,,,,,,0,0,0,0,0
4.7099,1783965629.2611,1,1,1.0000,-0.0000,1.42241,-0.00993,-2.63288,1.07205,1.57081,0.11675,-0.12761,-0.48153,0.03378,,,,,,,,,,,,,,,,,,,,,,,,,,0,0,0,0,0
4.7102,1783965629.2614,1,1,1.0000,-0.0000,1.42241,-0.00993,-2.63288,1.07205,1.57081,0.11675,-0.12761,-0.48153,0.03378,,,,,,,,,,,,,,,,,,,,,,,,,,0,0,0,0,0
4.7105,1783965629.2617,1,1,1.0000,-0.0000,1.42241,-0.00993,-2.63288,1.07205,1.57081,0.11675,-0.12761,-0.48153,0.03378,,,,,,,,,,,,,,,,,,,,,,,,,,0,0,0,0,0
4.7175,1783965629.2687,1,1,1.0000,-0.0000,1.42241,-0.00993,-2.63288,1.07205,1.57081,0.11675,-0.12761,-0.48153,0.03378,,,,,,,,,,,,,,,,,,,,,,,,,,0,0,0,0,0
4.7178,1783965629.2690,1,1,1.0000,-0.0000,1.42241,-0.00993,-2.63288,1.07205,1.57081,0.11675,-0.12761,-0.48153,0.03378,,,,,,,,,,,,,,,,,,,,,,,,,,0,0,0,0,0
4.7314,1783965629.2826,1,1,1.0000,-0.0000,1.42241,-0.00993,-2.63288,1.07205,1.57081,0.11675,-0.12761,-0.48153,0.03378,,,,,,,,,,,,,,,,,,,,,,,,,,0,0,0,0,0
4.7344,1783965629.2856,1,1,1.0000,-0.0000,1.42241,-0.00993,-2.63288,1.07205,1.57081,0.11675,-0.12761,-0.48153,0.03378,,,,,,,,,,,,,,,,,,,,,,,,,,0,0,0,0,0
4.7347,1783965629.2859,1,1,1.0000,-0.0000,1.42241,-0.00993,-2.63288,1.07205,1.57081,0.11675,-0.12761,-0.48153,0.03378,,,,,,,,,,,,,,,,,,,,,,,,,,0,0,0,0,0
4.7367,1783965629.2879,1,1,1.0000,-0.0000,1.42241,-0.00993,-2.63288,1.07205,1.57081,0.11675,-0.12761,-0.48153,0.03378,,,,,,,,,,,,,,,,,,,,,,,,,,0,0,0,0,0
4.7370,1783965629.2882,1,1,1.0000,-0.0000,1.42241,-0.00993,-2.63288,1.07205,1.57081,0.11675,-0.12761,-0.48153,0.03378,,,,,,,,,,,,,,,,,,,,,,,,,,0,0,0,0,0
4.7372,1783965629.2884,1,1,1.0000,-0.0000,1.42241,-0.00993,-2.63288,1.07205,1.57081,0.11675,-0.12761,-0.48153,0.03378,,,,,,,,,,,,,,,,,,,,,,,,,,0,0,0,0,0
4.7375,1783965629.2887,1,1,1.0000,-0.0000,1.42241,-0.00993,-2.63288,1.07205,1.57081,0.11675,-0.12761,-0.48153,0.03378,,,,,,,,,,,,,,,,,,,,,,,,,,0,0,0,0,0
4.7378,1783965629.2890,1,1,1.0000,-0.0000,1.42241,-0.00993,-2.63288,1.07205,1.57081,0.11675,-0.12761,-0.48153,0.03378,,,,,,,,,,,,,,,,,,,,,,,,,,0,0,0,0,0
4.7496,1783965629.3008,1,1,1.0000,-0.0000,1.42241,-0.00993,-2.63288,1.07205,1.57081,0.11675,-0.12761,-0.48153,0.03378,,,,,,,,,,,,,,,,,,,,,,,,,,0,0,0,0,0
4.7675,1783965629.3187,1,1,1.0000,-0.0000,1.42241,-0.00993,-2.63288,1.07205,1.57081,0.11675,-0.12761,-0.48153,0.03378,,,,,,,,,,,,,,,,,,,,,,,,,,0,0,0,0,0
4.7858,1783965629.3369,1,1,1.0000,-0.0000,1.42241,-0.00993,-2.63288,1.07205,1.57081,0.11675,-0.12761,-0.48153,0.03378,,,,,,,,,,,,,,,,,,,,,,,,,,0,0,0,0,0
4.7918,1783965629.3430,1,1,1.0000,-0.0000,1.42241,-0.00993,-2.63288,1.07205,1.57081,0.11675,-0.12761,-0.48153,0.03378,,,,,,,,,,,,,,,,,,,,,,,,,,0,0,0,0,0
4.8419,1783965629.3931,1,1,1.0000,-0.0000,1.42241,-0.00996,-2.63291,1.07210,1.57081,0.11675,-0.12762,-0.48151,0.03376,,,,,,,,,,,,,,,,,,,,,,,,,,0,0,0,0,0
4.8488,1783965629.4000,1,1,1.0000,-0.0000,1.42241,-0.00998,-2.63295,1.07213,1.57081,0.11675,-0.12762,-0.48149,0.03374,,,,,,,,,,,,,,,,,,,,,,,,,,0,0,0,0,0
4.8680,1783965629.4191,1,1,1.0000,-0.0000,1.42241,-0.01002,-2.63298,1.07217,1.57081,0.11675,-0.12762,-0.48147,0.03371,,,,,,,,,,,,,,,,,,,,,,,,,,0,0,0,0,0
4.8689,1783965629.4201,1,1,1.0000,-0.0000,1.42241,-0.01003,-2.63299,1.07218,1.57081,0.11675,-0.12762,-0.48147,0.03371,,,,,,,,,,,,,,,,,,,,,,,,,,0,0,0,0,0
4.8693,1783965629.4205,1,1,1.0000,-0.0000,1.42241,-0.01003,-2.63299,1.07218,1.57081,0.11675,-0.12762,-0.48147,0.03371,,,,,,,,,,,,,,,,,,,,,,,,,,0,0,0,0,0
4.8991,1783965629.4503,1,1,1.0000,-0.0000,1.42240,-0.01012,-2.63304,1.07228,1.57081,0.11675,-0.12763,-0.48144,0.03366,,,,,,,,,,,,,,,,,,,,,,,,,,0,0,0,0,0
4.9003,1783965629.4515,1,1,1.0000,-0.0000,1.42240,-0.01012,-2.63304,1.07228,1.57081,0.11675,-0.12763,-0.48144,0.03366,,,,,,,,,,,,,,,,,,,,,,,,,,0,0,0,0,0
4.9017,1783965629.4528,1,1,1.0000,-0.0000,1.42240,-0.01013,-2.63304,1.07229,1.57081,0.11675,-0.12763,-0.48144,0.03366,,,,,,,,,,,,,,,,,,,,,,,,,,0,0,0,0,0
4.9021,1783965629.4533,1,1,1.0000,-0.0000,1.42240,-0.01013,-2.63304,1.07229,1.57081,0.11675,-0.12763,-0.48144,0.03366,,,,,,,,,,,,,,,,,,,,,,,,,,0,0,0,0,0
4.9044,1783965629.4556,1,1,1.0000,-0.0000,1.42240,-0.01013,-2.63304,1.07229,1.57081,0.11675,-0.12763,-0.48144,0.03366,,,,,,,,,,,,,,,,,,,,,,,,,,0,0,0,0,0
4.9063,1783965629.4575,1,1,1.0000,-0.0000,1.42240,-0.01014,-2.63305,1.07231,1.57081,0.11675,-0.12763,-0.48144,0.03365,,,,,,,,,,,,,,,,,,,,,,,,,,0,0,0,0,0
4.9067,1783965629.4578,1,1,1.0000,-0.0000,1.42240,-0.01014,-2.63305,1.07231,1.57081,0.11675,-0.12763,-0.48144,0.03365,,,,,,,,,,,,,,,,,,,,,,,,,,0,0,0,0,0
4.9071,1783965629.4583,1,1,1.0000,-0.0000,1.42240,-0.01014,-2.63305,1.07231,1.57081,0.11675,-0.12763,-0.48144,0.03365,,,,,,,,,,,,,,,,,,,,,,,,,,0,0,0,0,0
4.9383,1783965629.4895,1,1,1.0000,-0.0000,1.42240,-0.01033,-2.63308,1.07253,1.57081,0.11675,-0.12763,-0.48144,0.03359,,,,,,,,,,,,,,,,,,,,,,,,,,0,0,0,0,0
4.9392,1783965629.4904,1,1,1.0000,-0.0000,1.42240,-0.01033,-2.63308,1.07253,1.57081,0.11675,-0.12763,-0.48144,0.03359,,,,,,,,,,,,,,,,,,,,,,,,,,0,0,0,0,0
4.9396,1783965629.4908,1,1,1.0000,-0.0000,1.42240,-0.01033,-2.63308,1.07253,1.57081,0.11675,-0.12763,-0.48144,0.03359,,,,,,,,,,,,,,,,,,,,,,,,,,0,0,0,0,0
4.9434,1783965629.4946,1,1,1.0000,-0.0000,1.42240,-0.01038,-2.63309,1.07259,1.57081,0.11675,-0.12763,-0.48144,0.03358,,,,,,,,,,,,,,,,,,,,,,,,,,0,0,0,0,0
4.9598,1783965629.5110,1,1,1.0000,-0.0000,1.42240,-0.01045,-2.63311,1.07268,1.57081,0.11675,-0.12763,-0.48144,0.03355,,,,,,,,,,,,,,,,,,,,,,,,,,0,0,0,0,0
5.0114,1783965629.5626,1,1,1.0000,-0.0000,1.42240,-0.01084,-2.63315,1.07314,1.57081,0.11675,-0.12762,-0.48147,0.03344,,,,,,,,,,,,,,,,,,,,,,,,,,0,0,0,0,0
5.0674,1783965629.6186,1,1,1.0000,-0.0000,1.42240,-0.01112,-2.63313,1.07349,1.57081,0.11675,-0.12761,-0.48153,0.03338,,,,,,,,,,,,,,,,,,,,,,,,,,0,0,0,0,0
5.0856,1783965629.6368,1,1,1.0000,-0.0000,1.42240,-0.01112,-2.63313,1.07349,1.57081,0.11675,-0.12761,-0.48153,0.03338,,,,,,,,,,,,,,,,,,,,,,,,,,0,0,0,0,0
5.0876,1783965629.6388,1,1,1.0000,-0.0000,1.42240,-0.01112,-2.63313,1.07349,1.57081,0.11675,-0.12761,-0.48153,0.03338,,,,,,,,,,,,,,,,,,,,,,,,,,0,0,0,0,0
5.0881,1783965629.6393,1,1,1.0000,-0.0000,1.42240,-0.01112,-2.63313,1.07349,1.57081,0.11675,-0.12761,-0.48153,0.03338,,,,,,,,,,,,,,,,,,,,,,,,,,0,0,0,0,0
5.0903,1783965629.6415,1,1,1.0000,-0.0000,1.42240,-0.01112,-2.63313,1.07349,1.57081,0.11675,-0.12761,-0.48153,0.03338,,,,,,,,,,,,,,,,,,,,,,,,,,0,0,0,0,0
5.1056,1783965629.6568,1,1,1.0000,-0.0000,1.42240,-0.01112,-2.63313,1.07349,1.57081,0.11675,-0.12761,-0.48153,0.03338,,,,,,,,,,,,,,,,,,,,,,,,,,0,0,0,0,0
5.1085,1783965629.6596,1,1,1.0000,-0.0000,1.42240,-0.01112,-2.63313,1.07349,1.57081,0.11675,-0.12761,-0.48153,0.03338,,,,,,,,,,,,,,,,,,,,,,,,,,0,0,0,0,0
5.1090,1783965629.6601,1,1,1.0000,-0.0000,1.42240,-0.01112,-2.63313,1.07349,1.57081,0.11675,-0.12761,-0.48153,0.03338,,,,,,,,,,,,,,,,,,,,,,,,,,0,0,0,0,0
5.1092,1783965629.6604,1,1,1.0000,-0.0000,1.42240,-0.01112,-2.63313,1.07349,1.57081,0.11675,-0.12761,-0.48153,0.03338,,,,,,,,,,,,,,,,,,,,,,,,,,0,0,0,0,0
5.1099,1783965629.6610,1,1,1.0000,-0.0000,1.42240,-0.01112,-2.63313,1.07349,1.57081,0.11675,-0.12761,-0.48153,0.03338,,,,,,,,,,,,,,,,,,,,,,,,,,0,0,0,0,0
5.1105,1783965629.6616,1,1,1.0000,-0.0000,1.42240,-0.01112,-2.63313,1.07349,1.57081,0.11675,-0.12761,-0.48153,0.03338,,,,,,,,,,,,,,,,,,,,,,,,,,0,0,0,0,0
5.1132,1783965629.6644,1,1,1.0000,-0.0000,1.42240,-0.01112,-2.63313,1.07349,1.57081,0.11675,-0.12761,-0.48153,0.03338,,,,,,,,,,,,,,,,,,,,,,,,,,0,0,0,0,0
5.2013,1783965629.7525,1,1,1.0000,-0.0000,1.42240,-0.01112,-2.63313,1.07349,1.57081,0.11675,-0.12761,-0.48153,0.03338,,,,,,,,,,,,,,,,,,,,,,,,,,0,0,0,0,0
5.2064,1783965629.7576,1,1,1.0000,-0.0000,1.42240,-0.01112,-2.63313,1.07349,1.57081,0.11675,-0.12761,-0.48153,0.03338,,,,,,,,,,,,,,,,,,,,,,,,,,0,0,0,0,0
5.2068,1783965629.7580,1,1,1.0000,-0.0000,1.42240,-0.01112,-2.63313,1.07349,1.57081,0.11675,-0.12761,-0.48153,0.03338,,,,,,,,,,,,,,,,,,,,,,,,,,0,0,0,0,0
5.2073,1783965629.7585,1,1,1.0000,-0.0000,1.42240,-0.01112,-2.63313,1.07349,1.57081,0.11675,-0.12761,-0.48153,0.03338,,,,,,,,,,,,,,,,,,,,,,,,,,0,0,0,0,0
5.2077,1783965629.7589,1,1,1.0000,-0.0000,1.42240,-0.01112,-2.63313,1.07349,1.57081,0.11675,-0.12761,-0.48153,0.03338,,,,,,,,,,,,,,,,,,,,,,,,,,0,0,0,0,0
5.2082,1783965629.7594,1,1,1.0000,-0.0000,1.42240,-0.01112,-2.63313,1.07349,1.57081,0.11675,-0.12761,-0.48153,0.03338,,,,,,,,,,,,,,,,,,,,,,,,,,0,0,0,0,0
5.2085,1783965629.7597,1,1,1.0000,-0.0000,1.42240,-0.01112,-2.63313,1.07349,1.57081,0.11675,-0.12761,-0.48153,0.03338,,,,,,,,,,,,,,,,,,,,,,,,,,0,0,0,0,0
5.2098,1783965629.7610,1,1,1.0000,-0.0000,1.42240,-0.01112,-2.63313,1.07349,1.57081,0.11675,-0.12761,-0.48153,0.03338,,,,,,,,,,,,,,,,,,,,,,,,,,0,0,0,0,0
5.2102,1783965629.7614,1,1,1.0000,-0.0000,1.42240,-0.01112,-2.63313,1.07349,1.57081,0.11675,-0.12761,-0.48153,0.03338,,,,,,,,,,,,,,,,,,,,,,,,,,0,0,0,0,0
5.2153,1783965629.7665,1,1,1.0000,-0.0000,1.42240,-0.01112,-2.63313,1.07349,1.57081,0.11675,-0.12761,-0.48153,0.03338,,,,,,,,,,,,,,,,,,,,,,,,,,0,0,0,0,0
5.2156,1783965629.7668,1,1,1.0000,-0.0000,1.42240,-0.01112,-2.63313,1.07349,1.57081,0.11675,-0.12761,-0.48153,0.03338,,,,,,,,,,,,,,,,,,,,,,,,,,0,0,0,0,0
5.2170,1783965629.7682,1,1,1.0000,-0.0000,1.42240,-0.01112,-2.63313,1.07349,1.57081,0.11675,-0.12761,-0.48153,0.03338,,,,,,,,,,,,,,,,,,,,,,,,,,0,0,0,0,0
5.2191,1783965629.7703,1,1,1.0000,-0.0000,1.42240,-0.01112,-2.63313,1.07349,1.57081,0.11675,-0.12761,-0.48153,0.03338,,,,,,,,,,,,,,,,,,,,,,,,,,0,0,0,0,0
5.2195,1783965629.7707,1,1,1.0000,-0.0000,1.42240,-0.01112,-2.63313,1.07349,1.57081,0.11675,-0.12761,-0.48153,0.03338,,,,,,,,,,,,,,,,,,,,,,,,,,0,0,0,0,0
5.2420,1783965629.7931,1,1,1.0000,-0.0000,1.42240,-0.01112,-2.63313,1.07349,1.57081,0.11675,-0.12761,-0.48153,0.03338,,,,,,,,,,,,,,,,,,,,,,,,,,0,0,0,0,0
5.3369,1783965629.8881,1,1,1.0000,-0.0000,1.42240,-0.01141,-2.63330,1.07386,1.57081,0.11675,-0.12762,-0.48145,0.03323,,,,,,,,,,,,,,,,,,,,,,,,,,0,0,0,0,0
5.3506,1783965629.9018,1,1,1.0000,-0.0000,1.42240,-0.01144,-2.63331,1.07388,1.57081,0.11675,-0.12762,-0.48145,0.03323,,,,,,,,,,,,,,,,,,,,,,,,,,0,0,0,0,0
