Martins-Lucaas/twinforge/sensors/Data/celula de carga/20260713_155345__samples.csv
t_rel_s,t_unix,cycle,phase,setpoint_n,force_net_n,q1,q2,q3,q4,q5,q6,tcp_x,tcp_y,tcp_z,taxel_0,taxel_1,taxel_2,taxel_3,taxel_4,taxel_5,taxel_6,taxel_7,taxel_8,taxel_9,taxel_10,taxel_11,taxel_12,taxel_13,taxel_14,taxel_15,taxel_16,taxel_17,taxel_18,taxel_19,taxel_20,taxel_21,taxel_22,taxel_23,taxel_24,n_RA,n_SA,cn_mm,cn_ra,cn_sa
0.0111,1783968825.6989,1,0,7.0000,-0.0000,1.42244,0.00072,-2.63045,1.05901,1.57084,0.11672,-0.12761,-0.48157,0.03741,,,,,,,,,,,,,,,,,,,,,,,,,,0,0,0,0,0
0.0263,1783968825.7142,1,0,7.0000,-0.0000,1.42244,0.00072,-2.63045,1.05901,1.57084,0.11672,-0.12761,-0.48157,0.03741,,,,,,,,,,,,,,,,,,,,,,,,,,0,0,0,0,0
0.0306,1783968825.7185,1,0,7.0000,-0.0000,1.42244,0.00072,-2.63045,1.05901,1.57084,0.11672,-0.12761,-0.48157,0.03741,,,,,,,,,,,,,,,,,,,,,,,,,,0,0,0,0,0
0.0310,1783968825.7188,1,0,7.0000,-0.0000,1.42244,0.00072,-2.63045,1.05901,1.57084,0.11672,-0.12761,-0.48157,0.03741,,,,,,,,,,,,,,,,,,,,,,,,,,0,0,0,0,0
0.0386,1783968825.7264,1,0,7.0000,-0.0000,1.42244,0.00072,-2.63045,1.05901,1.57084,0.11672,-0.12762,-0.48157,0.03741,,,,,,,,,,,,,,,,,,,,,,,,,,0,0,0,0,0
0.0529,1783968825.7407,1,0,7.0000,-0.0000,1.42244,0.00071,-2.63047,1.05903,1.57083,0.11673,-0.12762,-0.48156,0.03740,,,,,,,,,,,,,,,,,,,,,,,,,,0,0,0,0,0
0.0616,1783968825.7495,1,0,7.0000,-0.0000,1.42244,0.00071,-2.63049,1.05904,1.57082,0.11673,-0.12762,-0.48155,0.03740,,,,,,,,,,,,,,,,,,,,,,,,,,0,0,0,0,0
0.0735,1783968825.7614,1,0,7.0000,-0.0000,1.42244,0.00071,-2.63051,1.05905,1.57081,0.11674,-0.12763,-0.48153,0.03739,,,,,,,,,,,,,,,,,,,,,,,,,,0,0,0,0,0
0.0827,1783968825.7705,1,0,7.0000,-0.0000,1.42244,0.00071,-2.63052,1.05906,1.57080,0.11675,-0.12763,-0.48153,0.03738,,,,,,,,,,,,,,,,,,,,,,,,,,0,0,0,0,0
0.0896,1783968825.7774,1,0,7.0000,-0.0000,1.42244,0.00071,-2.63053,1.05907,1.57080,0.11675,-0.12764,-0.48152,0.03738,,,,,,,,,,,,,,,,,,,,,,,,,,0,0,0,0,0
0.0998,1783968825.7877,1,0,7.0000,-0.0000,1.42244,0.00071,-2.63053,1.05907,1.57080,0.11675,-0.12764,-0.48152,0.03738,,,,,,,,,,,,,,,,,,,,,,,,,,0,0,0,0,0
0.1003,1783968825.7882,1,0,7.0000,-0.0000,1.42244,0.00071,-2.63053,1.05907,1.57080,0.11675,-0.12764,-0.48152,0.03738,,,,,,,,,,,,,,,,,,,,,,,,,,0,0,0,0,0
0.1119,1783968825.7998,1,0,7.0000,-0.0000,1.42244,0.00071,-2.63053,1.05907,1.57080,0.11675,-0.12764,-0.48152,0.03738,,,,,,,,,,,,,,,,,,,,,,,,,,0,0,0,0,0
0.1125,1783968825.8004,1,0,7.0000,-0.0000,1.42244,0.00071,-2.63053,1.05907,1.57080,0.11675,-0.12764,-0.48152,0.03738,,,,,,,,,,,,,,,,,,,,,,,,,,0,0,0,0,0
0.1190,1783968825.8068,1,0,7.0000,-0.0000,1.42244,0.00071,-2.63053,1.05907,1.57080,0.11675,-0.12764,-0.48152,0.03738,,,,,,,,,,,,,,,,,,,,,,,,,,0,0,0,0,0
0.1348,1783968825.8226,1,0,7.0000,-0.0000,1.42244,0.00071,-2.63053,1.05907,1.57080,0.11675,-0.12764,-0.48152,0.03738,,,,,,,,,,,,,,,,,,,,,,,,,,0,0,0,0,0
0.1381,1783968825.8260,1,0,7.0000,-0.0000,1.42244,0.00071,-2.63053,1.05907,1.57080,0.11675,-0.12764,-0.48152,0.03738,,,,,,,,,,,,,,,,,,,,,,,,,,0,0,0,0,0
0.1524,1783968825.8403,1,0,7.0000,-0.0000,1.42244,0.00071,-2.63053,1.05907,1.57080,0.11675,-0.12764,-0.48152,0.03738,,,,,,,,,,,,,,,,,,,,,,,,,,0,0,0,0,0
0.1640,1783968825.8519,1,0,7.0000,-0.0000,1.42244,0.00071,-2.63053,1.05907,1.57080,0.11675,-0.12764,-0.48152,0.03738,,,,,,,,,,,,,,,,,,,,,,,,,,0,0,0,0,0
0.1644,1783968825.8523,1,0,7.0000,-0.0000,1.42244,0.00071,-2.63053,1.05907,1.57080,0.11675,-0.12764,-0.48152,0.03738,,,,,,,,,,,,,,,,,,,,,,,,,,0,0,0,0,0
0.1718,1783968825.8596,1,0,7.0000,-0.0000,1.42244,0.00071,-2.63053,1.05907,1.57080,0.11675,-0.12764,-0.48152,0.03738,,,,,,,,,,,,,,,,,,,,,,,,,,0,0,0,0,0
0.1720,1783968825.8598,1,0,7.0000,-0.0000,1.42244,0.00071,-2.63053,1.05907,1.57080,0.11675,-0.12764,-0.48152,0.03738,,,,,,,,,,,,,,,,,,,,,,,,,,0,0,0,0,0
0.1830,1783968825.8709,1,0,7.0000,-0.0000,1.42244,0.00071,-2.63053,1.05907,1.57080,0.11675,-0.12764,-0.48152,0.03738,,,,,,,,,,,,,,,,,,,,,,,,,,0,0,0,0,0
0.1943,1783968825.8821,1,0,7.0000,-0.0000,1.42244,0.00071,-2.63053,1.05907,1.57080,0.11675,-0.12764,-0.48152,0.03738,,,,,,,,,,,,,,,,,,,,,,,,,,0,0,0,0,0
0.2134,1783968825.9012,1,0,7.0000,-0.0000,1.42244,0.00071,-2.63053,1.05907,1.57080,0.11675,-0.12764,-0.48152,0.03738,,,,,,,,,,,,,,,,,,,,,,,,,,0,0,0,0,0
0.2198,1783968825.9077,1,0,7.0000,-0.0000,1.42244,0.00071,-2.63053,1.05907,1.57080,0.11675,-0.12764,-0.48152,0.03738,,,,,,,,,,,,,,,,,,,,,,,,,,0,0,0,0,0
0.2201,1783968825.9080,1,0,7.0000,-0.0000,1.42244,0.00071,-2.63053,1.05907,1.57080,0.11675,-0.12764,-0.48152,0.03738,,,,,,,,,,,,,,,,,,,,,,,,,,0,0,0,0,0
0.2226,1783968825.9105,1,0,7.0000,-0.0000,1.42244,0.00071,-2.63053,1.05907,1.57080,0.11675,-0.12764,-0.48152,0.03738,,,,,,,,,,,,,,,,,,,,,,,,,,0,0,0,0,0
0.2311,1783968825.9189,1,0,7.0000,-0.0000,1.42244,0.00071,-2.63053,1.05907,1.57080,0.11675,-0.12764,-0.48152,0.03738,,,,,,,,,,,,,,,,,,,,,,,,,,0,0,0,0,0
0.2386,1783968825.9264,1,0,7.0000,-0.0000,1.42244,0.00071,-2.63053,1.05907,1.57080,0.11675,-0.12764,-0.48152,0.03738,,,,,,,,,,,,,,,,,,,,,,,,,,0,0,0,0,0
0.2525,1783968825.9404,1,0,7.0000,-0.0000,1.42244,0.00071,-2.63053,1.05907,1.57080,0.11675,-0.12764,-0.48152,0.03738,,,,,,,,,,,,,,,,,,,,,,,,,,0,0,0,0,0
0.2739,1783968825.9617,1,0,7.0000,-0.0000,1.42244,0.00071,-2.63053,1.05907,1.57080,0.11675,-0.12764,-0.48152,0.03738,,,,,,,,,,,,,,,,,,,,,,,,,,0,0,0,0,0
0.2781,1783968825.9660,1,0,7.0000,-0.0000,1.42244,0.00071,-2.63053,1.05907,1.57080,0.11675,-0.12764,-0.48152,0.03738,,,,,,,,,,,,,,,,,,,,,,,,,,0,0,0,0,0
0.2785,1783968825.9663,1,0,7.0000,-0.0000,1.42244,0.00071,-2.63053,1.05907,1.57080,0.11675,-0.12764,-0.48152,0.03738,,,,,,,,,,,,,,,,,,,,,,,,,,0,0,0,0,0
0.2816,1783968825.9695,1,0,7.0000,-0.0000,1.42244,0.00071,-2.63053,1.05907,1.57080,0.11675,-0.12764,-0.48152,0.03738,,,,,,,,,,,,,,,,,,,,,,,,,,0,0,0,0,0
0.2819,1783968825.9698,1,0,7.0000,-0.0000,1.42244,0.00071,-2.63053,1.05907,1.57080,0.11675,-0.12764,-0.48152,0.03738,,,,,,,,,,,,,,,,,,,,,,,,,,0,0,0,0,0
0.2919,1783968825.9797,1,0,7.0000,-0.0000,1.42244,0.00071,-2.63053,1.05907,1.57080,0.11675,-0.12764,-0.48152,0.03738,,,,,,,,,,,,,,,,,,,,,,,,,,0,0,0,0,0
0.2987,1783968825.9865,1,0,7.0000,-0.0000,1.42244,0.00071,-2.63053,1.05907,1.57080,0.11675,-0.12764,-0.48152,0.03738,,,,,,,,,,,,,,,,,,,,,,,,,,0,0,0,0,0
0.2990,1783968825.9869,1,0,7.0000,-0.0000,1.42244,0.00071,-2.63053,1.05907,1.57080,0.11675,-0.12764,-0.48152,0.03738,,,,,,,,,,,,,,,,,,,,,,,,,,0,0,0,0,0
0.3125,1783968826.0003,1,0,7.0000,-0.0000,1.42244,0.00071,-2.63053,1.05907,1.57080,0.11675,-0.12764,-0.48152,0.03738,,,,,,,,,,,,,,,,,,,,,,,,,,0,0,0,0,0
0.3212,1783968826.0091,1,0,7.0000,-0.0000,1.42244,0.00071,-2.63053,1.05907,1.57080,0.11675,-0.12764,-0.48152,0.03738,,,,,,,,,,,,,,,,,,,,,,,,,,0,0,0,0,0
0.3415,1783968826.0294,1,0,7.0000,-0.0000,1.42244,0.00071,-2.63053,1.05907,1.57080,0.11675,-0.12764,-0.48152,0.03738,,,,,,,,,,,,,,,,,,,,,,,,,,0,0,0,0,0
0.3422,1783968826.0300,1,0,7.0000,-0.0000,1.42244,0.00071,-2.63053,1.05907,1.57080,0.11675,-0.12764,-0.48152,0.03738,,,,,,,,,,,,,,,,,,,,,,,,,,0,0,0,0,0
0.3512,1783968826.0390,1,0,7.0000,-0.0000,1.42244,0.00071,-2.63053,1.05907,1.57080,0.11675,-0.12764,-0.48152,0.03738,,,,,,,,,,,,,,,,,,,,,,,,,,0,0,0,0,0
0.3644,1783968826.0523,1,0,7.0000,-0.0000,1.42244,0.00071,-2.63053,1.05907,1.57080,0.11675,-0.12764,-0.48152,0.03738,,,,,,,,,,,,,,,,,,,,,,,,,,0,0,0,0,0
0.3646,1783968826.0524,1,0,7.0000,-0.0000,1.42244,0.00071,-2.63053,1.05907,1.57080,0.11675,-0.12764,-0.48152,0.03738,,,,,,,,,,,,,,,,,,,,,,,,,,0,0,0,0,0
0.3686,1783968826.0565,1,0,7.0000,-0.0000,1.42244,0.00071,-2.63053,1.05907,1.57080,0.11675,-0.12764,-0.48152,0.03738,,,,,,,,,,,,,,,,,,,,,,,,,,0,0,0,0,0
0.3688,1783968826.0567,1,0,7.0000,-0.0000,1.42244,0.00071,-2.63053,1.05907,1.57080,0.11675,-0.12764,-0.48152,0.03738,,,,,,,,,,,,,,,,,,,,,,,,,,0,0,0,0,0
0.3839,1783968826.0718,1,0,7.0000,-0.0000,1.42244,0.00071,-2.63053,1.05907,1.57080,0.11675,-0.12764,-0.48152,0.03738,,,,,,,,,,,,,,,,,,,,,,,,,,0,0,0,0,0
0.3842,1783968826.0721,1,0,7.0000,-0.0000,1.42244,0.00071,-2.63053,1.05907,1.57080,0.11675,-0.12764,-0.48152,0.03738,,,,,,,,,,,,,,,,,,,,,,,,,,0,0,0,0,0
0.3998,1783968826.0877,1,0,7.0000,-0.0000,1.42244,0.00071,-2.63053,1.05907,1.57080,0.11675,-0.12764,-0.48152,0.03738,,,,,,,,,,,,,,,,,,,,,,,,,,0,0,0,0,0
0.4001,1783968826.0880,1,0,7.0000,-0.0000,1.42244,0.00071,-2.63053,1.05907,1.57080,0.11675,-0.12764,-0.48152,0.03738,,,,,,,,,,,,,,,,,,,,,,,,,,0,0,0,0,0
0.4037,1783968826.0915,1,0,7.0000,-0.0000,1.42244,0.00071,-2.63053,1.05907,1.57080,0.11675,-0.12764,-0.48152,0.03738,,,,,,,,,,,,,,,,,,,,,,,,,,0,0,0,0,0
0.4122,1783968826.1000,1,0,7.0000,-0.0000,1.42244,0.00071,-2.63053,1.05907,1.57080,0.11675,-0.12764,-0.48152,0.03738,,,,,,,,,,,,,,,,,,,,,,,,,,0,0,0,0,0
0.4180,1783968826.1059,1,0,7.0000,-0.0000,1.42244,0.00071,-2.63053,1.05907,1.57080,0.11675,-0.12764,-0.48152,0.03738,,,,,,,,,,,,,,,,,,,,,,,,,,0,0,0,0,0
0.4397,1783968826.1275,1,0,7.0000,-0.0000,1.42244,0.00071,-2.63053,1.05907,1.57080,0.11675,-0.12764,-0.48152,0.03738,,,,,,,,,,,,,,,,,,,,,,,,,,0,0,0,0,0
0.4400,1783968826.1279,1,0,7.0000,-0.0000,1.42244,0.00071,-2.63053,1.05907,1.57080,0.11675,-0.12764,-0.48152,0.03738,,,,,,,,,,,,,,,,,,,,,,,,,,0,0,0,0,0
0.4479,1783968826.1358,1,0,7.0000,-0.0000,1.42244,0.00071,-2.63053,1.05907,1.57080,0.11675,-0.12764,-0.48152,0.03738,,,,,,,,,,,,,,,,,,,,,,,,,,0,0,0,0,0
0.4483,1783968826.1362,1,0,7.0000,-0.0000,1.42244,0.00071,-2.63053,1.05907,1.57080,0.11675,-0.12764,-0.48152,0.03738,,,,,,,,,,,,,,,,,,,,,,,,,,0,0,0,0,0
0.4587,1783968826.1466,1,0,7.0000,-0.0000,1.42244,0.00071,-2.63053,1.05907,1.57080,0.11675,-0.12764,-0.48152,0.03738,,,,,,,,,,,,,,,,,,,,,,,,,,0,0,0,0,0
0.4717,1783968826.1595,1,0,7.0000,-0.0000,1.42244,0.00071,-2.63053,1.05907,1.57080,0.11675,-0.12764,-0.48152,0.03738,,,,,,,,,,,,,,,,,,,,,,,,,,0,0,0,0,0
0.4804,1783968826.1683,1,0,7.0000,-0.0000,1.42244,0.00071,-2.63053,1.05907,1.57080,0.11675,-0.12764,-0.48152,0.03738,,,,,,,,,,,,,,,,,,,,,,,,,,0,0,0,0,0
0.4890,1783968826.1768,1,0,7.0000,-0.0000,1.42244,0.00071,-2.63053,1.05907,1.57080,0.11675,-0.12764,-0.48152,0.03738,,,,,,,,,,,,,,,,,,,,,,,,,,0,0,0,0,0
0.5001,1783968826.1879,1,0,7.0000,-0.0000,1.42244,0.00071,-2.63053,1.05907,1.57080,0.11675,-0.12764,-0.48152,0.03738,,,,,,,,,,,,,,,,,,,,,,,,,,0,0,0,0,0
0.5101,1783968826.1979,1,0,7.0000,-0.0000,1.42244,0.00071,-2.63053,1.05907,1.57080,0.11675,-0.12764,-0.48152,0.03738,,,,,,,,,,,,,,,,,,,,,,,,,,0,0,0,0,0
0.5199,1783968826.2077,1,0,7.0000,-0.0000,1.42244,0.00071,-2.63053,1.05907,1.57080,0.11675,-0.12764,-0.48152,0.03738,,,,,,,,,,,,,,,,,,,,,,,,,,0,0,0,0,0
0.5202,1783968826.2080,1,0,7.0000,-0.0000,1.42244,0.00071,-2.63053,1.05907,1.57080,0.11675,-0.12764,-0.48152,0.03738,,,,,,,,,,,,,,,,,,,,,,,,,,0,0,0,0,0
0.5296,1783968826.2174,1,0,7.0000,-0.0000,1.42244,0.00071,-2.63053,1.05907,1.57080,0.11675,-0.12764,-0.48152,0.03738,,,,,,,,,,,,,,,,,,,,,,,,,,0,0,0,0,0
0.5390,1783968826.2268,1,0,7.0000,-0.0000,1.42244,0.00071,-2.63053,1.05907,1.57080,0.11675,-0.12764,-0.48152,0.03738,,,,,,,,,,,,,,,,,,,,,,,,,,0,0,0,0,0
0.5480,1783968826.2359,1,0,7.0000,-0.0000,1.42244,0.00071,-2.63053,1.05907,1.57080,0.11675,-0.12764,-0.48152,0.03738,,,,,,,,,,,,,,,,,,,,,,,,,,0,0,0,0,0
0.5483,1783968826.2362,1,0,7.0000,-0.0000,1.42244,0.00071,-2.63053,1.05907,1.57080,0.11675,-0.12764,-0.48152,0.03738,,,,,,,,,,,,,,,,,,,,,,,,,,0,0,0,0,0
0.5641,1783968826.2520,1,0,7.0000,-0.0000,1.42244,0.00071,-2.63053,1.05907,1.57080,0.11675,-0.12764,-0.48152,0.03738,,,,,,,,,,,,,,,,,,,,,,,,,,0,0,0,0,0
0.5743,1783968826.2622,1,0,7.0000,-0.0000,1.42244,0.00071,-2.63053,1.05907,1.57080,0.11675,-0.12764,-0.48152,0.03738,,,,,,,,,,,,,,,,,,,,,,,,,,0,0,0,0,0
0.5745,1783968826.2624,1,0,7.0000,-0.0000,1.42244,0.00071,-2.63053,1.05907,1.57080,0.11675,-0.12764,-0.48152,0.03738,,,,,,,,,,,,,,,,,,,,,,,,,,0,0,0,0,0
0.5913,1783968826.2792,1,0,7.0000,-0.0000,1.42244,0.00071,-2.63053,1.05907,1.57080,0.11675,-0.12764,-0.48152,0.03738,,,,,,,,,,,,,,,,,,,,,,,,,,0,0,0,0,0
0.6017,1783968826.2896,1,0,7.0000,-0.0000,1.42244,0.00071,-2.63053,1.05907,1.57080,0.11675,-0.12764,-0.48152,0.03738,,,,,,,,,,,,,,,,,,,,,,,,,,0,0,0,0,0
0.6050,1783968826.2928,1,0,7.0000,-0.0000,1.42244,0.00071,-2.63053,1.05907,1.57080,0.11675,-0.12764,-0.48152,0.03738,,,,,,,,,,,,,,,,,,,,,,,,,,0,0,0,0,0
0.6082,1783968826.2961,1,0,7.0000,-0.0000,1.42244,0.00071,-2.63053,1.05907,1.57080,0.11675,-0.12764,-0.48152,0.03738,,,,,,,,,,,,,,,,,,,,,,,,,,0,0,0,0,0
0.6086,1783968826.2964,1,0,7.0000,-0.0000,1.42244,0.00071,-2.63053,1.05907,1.57080,0.11675,-0.12764,-0.48152,0.03738,,,,,,,,,,,,,,,,,,,,,,,,,,0,0,0,0,0
0.6181,1783968826.3060,1,0,7.0000,-0.0000,1.42244,0.00071,-2.63053,1.05907,1.57080,0.11675,-0.12764,-0.48152,0.03738,,,,,,,,,,,,,,,,,,,,,,,,,,0,0,0,0,0
0.6421,1783968826.3299,1,0,7.0000,-0.0000,1.42244,0.00071,-2.63053,1.05907,1.57080,0.11675,-0.12764,-0.48152,0.03738,,,,,,,,,,,,,,,,,,,,,,,,,,0,0,0,0,0
0.6452,1783968826.3331,1,0,7.0000,-0.0000,1.42244,0.00071,-2.63053,1.05907,1.57080,0.11675,-0.12764,-0.48152,0.03738,,,,,,,,,,,,,,,,,,,,,,,,,,0,0,0,0,0
0.6479,1783968826.3358,1,0,7.0000,-0.0000,1.42244,0.00071,-2.63053,1.05907,1.57080,0.11675,-0.12764,-0.48152,0.03738,,,,,,,,,,,,,,,,,,,,,,,,,,0,0,0,0,0
0.6482,1783968826.3361,1,0,7.0000,-0.0000,1.42244,0.00071,-2.63053,1.05907,1.57080,0.11675,-0.12764,-0.48152,0.03738,,,,,,,,,,,,,,,,,,,,,,,,,,0,0,0,0,0
0.6636,1783968826.3515,1,0,7.0000,-0.0000,1.42244,0.00071,-2.63053,1.05907,1.57080,0.11675,-0.12764,-0.48152,0.03738,,,,,,,,,,,,,,,,,,,,,,,,,,0,0,0,0,0
0.6784,1783968826.3663,1,0,7.0000,-0.0000,1.42244,0.00071,-2.63053,1.05907,1.57080,0.11675,-0.12764,-0.48152,0.03738,,,,,,,,,,,,,,,,,,,,,,,,,,0,0,0,0,0
0.6832,1783968826.3711,1,0,7.0000,-0.0000,1.42244,0.00071,-2.63053,1.05907,1.57080,0.11675,-0.12764,-0.48152,0.03738,,,,,,,,,,,,,,,,,,,,,,,,,,0,0,0,0,0
0.6840,1783968826.3718,1,0,7.0000,-0.0000,1.42244,0.00071,-2.63053,1.05907,1.57080,0.11675,-0.12764,-0.48152,0.03738,,,,,,,,,,,,,,,,,,,,,,,,,,0,0,0,0,0
0.6921,1783968826.3799,1,0,7.0000,-0.0000,1.42244,0.00071,-2.63053,1.05907,1.57080,0.11675,-0.12764,-0.48152,0.03738,,,,,,,,,,,,,,,,,,,,,,,,,,0,0,0,0,0
0.7043,1783968826.3922,1,0,7.0000,-0.0000,1.42244,0.00071,-2.63053,1.05907,1.57080,0.11675,-0.12764,-0.48152,0.03738,,,,,,,,,,,,,,,,,,,,,,,,,,0,0,0,0,0
0.7091,1783968826.3970,1,0,7.0000,-0.0000,1.42244,0.00071,-2.63053,1.05907,1.57080,0.11675,-0.12764,-0.48152,0.03738,,,,,,,,,,,,,,,,,,,,,,,,,,0,0,0,0,0
0.7214,1783968826.4092,1,0,7.0000,-0.0000,1.42244,0.00071,-2.63053,1.05907,1.57080,0.11675,-0.12764,-0.48152,0.03738,,,,,,,,,,,,,,,,,,,,,,,,,,0,0,0,0,0
0.7303,1783968826.4182,1,1,7.0000,-0.0000,1.42244,0.00071,-2.63053,1.05907,1.57080,0.11675,-0.12764,-0.48152,0.03738,,,,,,,,,,,,,,,,,,,,,,,,,,0,0,0,0,0
0.7443,1783968826.4321,1,1,7.0000,-0.0000,1.42244,0.00071,-2.63053,1.05907,1.57080,0.11675,-0.12764,-0.48152,0.03738,,,,,,,,,,,,,,,,,,,,,,,,,,0,0,0,0,0
0.7502,1783968826.4381,1,1,7.0000,-0.0000,1.42244,0.00071,-2.63053,1.05907,1.57080,0.11675,-0.12764,-0.48152,0.03738,,,,,,,,,,,,,,,,,,,,,,,,,,0,0,0,0,0
0.7506,1783968826.4384,1,1,7.0000,-0.0000,1.42244,0.00071,-2.63053,1.05907,1.57080,0.11675,-0.12764,-0.48152,0.03738,,,,,,,,,,,,,,,,,,,,,,,,,,0,0,0,0,0
0.7641,1783968826.4520,1,1,7.0000,-0.0000,1.42244,0.00071,-2.63053,1.05907,1.57080,0.11675,-0.12764,-0.48152,0.03738,,,,,,,,,,,,,,,,,,,,,,,,,,0,0,0,0,0
0.7693,1783968826.4572,1,1,7.0000,-0.0000,1.42244,0.00071,-2.63053,1.05907,1.57080,0.11675,-0.12764,-0.48152,0.03738,,,,,,,,,,,,,,,,,,,,,,,,,,0,0,0,0,0
0.7798,1783968826.4677,1,1,7.0000,-0.0000,1.42244,0.00071,-2.63053,1.05907,1.57080,0.11675,-0.12764,-0.48152,0.03738,,,,,,,,,,,,,,,,,,,,,,,,,,0,0,0,0,0
0.7908,1783968826.4787,1,1,7.0000,-0.0000,1.42244,0.00071,-2.63053,1.05907,1.57080,0.11675,-0.12764,-0.48152,0.03738,,,,,,,,,,,,,,,,,,,,,,,,,,0,0,0,0,0
0.8064,1783968826.4943,1,1,7.0000,-0.0000,1.42244,0.00071,-2.63053,1.05907,1.57080,0.11675,-0.12764,-0.48152,0.03738,,,,,,,,,,,,,,,,,,,,,,,,,,0,0,0,0,0
0.8069,1783968826.4948,1,1,7.0000,-0.0000,1.42244,0.00071,-2.63053,1.05907,1.57080,0.11675,-0.12764,-0.48152,0.03738,,,,,,,,,,,,,,,,,,,,,,,,,,0,0,0,0,0
0.8106,1783968826.4985,1,1,7.0000,-0.0000,1.42244,0.00071,-2.63053,1.05907,1.57080,0.11675,-0.12764,-0.48152,0.03738,,,,,,,,,,,,,,,,,,,,,,,,,,0,0,0,0,0
0.8109,1783968826.4988,1,1,7.0000,-0.0000,1.42244,0.00071,-2.63053,1.05907,1.57080,0.11675,-0.12764,-0.48152,0.03738,,,,,,,,,,,,,,,,,,,,,,,,,,0,0,0,0,0
0.8239,1783968826.5118,1,1,7.0000,-0.0000,1.42244,0.00071,-2.63053,1.05907,1.57080,0.11675,-0.12764,-0.48152,0.03738,,,,,,,,,,,,,,,,,,,,,,,,,,0,0,0,0,0
0.8339,1783968826.5218,1,1,7.0000,-0.0000,1.42244,0.00071,-2.63053,1.05907,1.57080,0.11675,-0.12764,-0.48152,0.03738,,,,,,,,,,,,,,,,,,,,,,,,,,0,0,0,0,0
0.8343,1783968826.5222,1,1,7.0000,-0.0000,1.42244,0.00071,-2.63053,1.05907,1.57080,0.11675,-0.12764,-0.48152,0.03738,,,,,,,,,,,,,,,,,,,,,,,,,,0,0,0,0,0
0.8465,1783968826.5344,1,1,7.0000,-0.0000,1.42244,0.00071,-2.63053,1.05907,1.57080,0.11675,-0.12764,-0.48152,0.03738,,,,,,,,,,,,,,,,,,,,,,,,,,0,0,0,0,0
0.8505,1783968826.5384,1,1,7.0000,-0.0000,1.42244,0.00071,-2.63053,1.05907,1.57080,0.11675,-0.12764,-0.48152,0.03738,,,,,,,,,,,,,,,,,,,,,,,,,,0,0,0,0,0
0.8597,1783968826.5476,1,1,7.0000,-0.0000,1.42244,0.00071,-2.63053,1.05907,1.57080,0.11675,-0.12764,-0.48152,0.03738,,,,,,,,,,,,,,,,,,,,,,,,,,0,0,0,0,0
0.8721,1783968826.5599,1,1,7.0000,-0.0000,1.42244,0.00071,-2.63053,1.05907,1.57080,0.11675,-0.12764,-0.48152,0.03738,,,,,,,,,,,,,,,,,,,,,,,,,,0,0,0,0,0
0.8960,1783968826.5839,1,1,7.0000,-0.0000,1.42244,0.00071,-2.63053,1.05907,1.57080,0.11675,-0.12764,-0.48152,0.03738,,,,,,,,,,,,,,,,,,,,,,,,,,0,0,0,0,0
0.8964,1783968826.5842,1,1,7.0000,-0.0000,1.42244,0.00071,-2.63053,1.05907,1.57080,0.11675,-0.12764,-0.48152,0.03738,,,,,,,,,,,,,,,,,,,,,,,,,,0,0,0,0,0
0.9107,1783968826.5986,1,1,7.0000,-0.0000,1.42244,0.00071,-2.63053,1.05907,1.57080,0.11675,-0.12764,-0.48152,0.03738,,,,,,,,,,,,,,,,,,,,,,,,,,0,0,0,0,0
0.9135,1783968826.6014,1,1,7.0000,-0.0000,1.42244,0.00071,-2.63053,1.05907,1.57080,0.11675,-0.12764,-0.48152,0.03738,,,,,,,,,,,,,,,,,,,,,,,,,,0,0,0,0,0
0.9162,1783968826.6040,1,1,7.0000,-0.0000,1.42244,0.00071,-2.63053,1.05907,1.57080,0.11675,-0.12764,-0.48152,0.03738,,,,,,,,,,,,,,,,,,,,,,,,,,0,0,0,0,0
0.9218,1783968826.6097,1,1,7.0000,-0.0000,1.42244,0.00071,-2.63053,1.05907,1.57080,0.11675,-0.12764,-0.48152,0.03738,,,,,,,,,,,,,,,,,,,,,,,,,,0,0,0,0,0
0.9300,1783968826.6179,1,1,7.0000,-0.0000,1.42244,0.00071,-2.63053,1.05907,1.57080,0.11675,-0.12764,-0.48152,0.03738,,,,,,,,,,,,,,,,,,,,,,,,,,0,0,0,0,0
0.9521,1783968826.6399,1,1,7.0000,-0.0000,1.42244,0.00071,-2.63053,1.05907,1.57080,0.11675,-0.12764,-0.48152,0.03738,,,,,,,,,,,,,,,,,,,,,,,,,,0,0,0,0,0
0.9524,1783968826.6403,1,1,7.0000,-0.0000,1.42244,0.00071,-2.63053,1.05907,1.57080,0.11675,-0.12764,-0.48152,0.03738,,,,,,,,,,,,,,,,,,,,,,,,,,0,0,0,0,0
0.9554,1783968826.6432,1,1,7.0000,-0.0000,1.42244,0.00071,-2.63053,1.05907,1.57080,0.11675,-0.12764,-0.48152,0.03738,,,,,,,,,,,,,,,,,,,,,,,,,,0,0,0,0,0
0.9560,1783968826.6438,1,1,7.0000,-0.0000,1.42244,0.00071,-2.63053,1.05907,1.57080,0.11675,-0.12764,-0.48152,0.03738,,,,,,,,,,,,,,,,,,,,,,,,,,0,0,0,0,0
0.9650,1783968826.6528,1,1,7.0000,-0.0000,1.42244,0.00071,-2.63053,1.05907,1.57080,0.11675,-0.12764,-0.48152,0.03738,,,,,,,,,,,,,,,,,,,,,,,,,,0,0,0,0,0
0.9708,1783968826.6587,1,1,7.0000,-0.0000,1.42244,0.00071,-2.63053,1.05907,1.57080,0.11675,-0.12764,-0.48152,0.03738,,,,,,,,,,,,,,,,,,,,,,,,,,0,0,0,0,0
0.9840,1783968826.6719,1,1,7.0000,-0.0000,1.42244,0.00071,-2.63053,1.05907,1.57080,0.11675,-0.12764,-0.48152,0.03738,,,,,,,,,,,,,,,,,,,,,,,,,,0,0,0,0,0
0.9844,1783968826.6723,1,1,7.0000,-0.0000,1.42244,0.00071,-2.63053,1.05907,1.57080,0.11675,-0.12764,-0.48152,0.03738,,,,,,,,,,,,,,,,,,,,,,,,,,0,0,0,0,0
0.9932,1783968826.6811,1,1,7.0000,-0.0000,1.42244,0.00071,-2.63053,1.05907,1.57080,0.11675,-0.12764,-0.48152,0.03738,,,,,,,,,,,,,,,,,,,,,,,,,,0,0,0,0,0
1.0021,1783968826.6900,1,1,7.0000,-0.0000,1.42244,0.00071,-2.63053,1.05907,1.57080,0.11675,-0.12764,-0.48152,0.03738,,,,,,,,,,,,,,,,,,,,,,,,,,0,0,0,0,0
1.0025,1783968826.6903,1,1,7.0000,-0.0000,1.42244,0.00071,-2.63053,1.05907,1.57080,0.11675,-0.12764,-0.48152,0.03738,,,,,,,,,,,,,,,,,,,,,,,,,,0,0,0,0,0
1.0118,1783968826.6997,1,1,7.0000,-0.0000,1.42244,0.00071,-2.63053,1.05907,1.57080,0.11675,-0.12764,-0.48152,0.03738,,,,,,,,,,,,,,,,,,,,,,,,,,0,0,0,0,0
1.0221,1783968826.7100,1,1,7.0000,-0.0000,1.42244,0.00071,-2.63053,1.05907,1.57080,0.11675,-0.12764,-0.48152,0.03738,,,,,,,,,,,,,,,,,,,,,,,,,,0,0,0,0,0
1.0324,1783968826.7202,1,1,7.0000,-0.0000,1.42244,0.00069,-2.63056,1.05907,1.57080,0.11675,-0.12764,-0.48150,0.03736,,,,,,,,,,,,,,,,,,,,,,,,,,0,0,0,0,0
1.0386,1783968826.7265,1,1,7.0000,-0.0000,1.42244,0.00068,-2.63058,1.05907,1.57080,0.11675,-0.12764,-0.48148,0.03735,,,,,,,,,,,,,,,,,,,,,,,,,,0,0,0,0,0
1.0518,1783968826.7397,1,1,7.0000,-0.0000,1.42244,0.00065,-2.63061,1.05907,1.57080,0.11675,-0.12765,-0.48146,0.03732,,,,,,,,,,,,,,,,,,,,,,,,,,0,0,0,0,0
1.0603,1783968826.7482,1,1,7.0000,-0.0000,1.42244,0.00064,-2.63062,1.05908,1.57080,0.11675,-0.12765,-0.48145,0.03731,,,,,,,,,,,,,,,,,,,,,,,,,,0,0,0,0,0
1.0692,1783968826.7571,1,1,7.0000,-0.0000,1.42244,0.00062,-2.63064,1.05909,1.57080,0.11675,-0.12765,-0.48143,0.03729,,,,,,,,,,,,,,,,,,,,,,,,,,0,0,0,0,0
1.0696,1783968826.7574,1,1,7.0000,-0.0000,1.42244,0.00062,-2.63064,1.05909,1.57080,0.11675,-0.12765,-0.48143,0.03729,,,,,,,,,,,,,,,,,,,,,,,,,,0,0,0,0,0
1.0798,1783968826.7676,1,1,7.0000,-0.0000,1.42244,0.00058,-2.63067,1.05910,1.57080,0.11675,-0.12765,-0.48141,0.03727,,,,,,,,,,,,,,,,,,,,,,,,,,0,0,0,0,0
1.0801,1783968826.7680,1,1,7.0000,-0.0000,1.42244,0.00058,-2.63067,1.05910,1.57080,0.11675,-0.12765,-0.48141,0.03727,,,,,,,,,,,,,,,,,,,,,,,,,,0,0,0,0,0
1.0887,1783968826.7766,1,1,7.0000,-0.0000,1.42244,0.00057,-2.63067,1.05911,1.57080,0.11675,-0.12765,-0.48141,0.03726,,,,,,,,,,,,,,,,,,,,,,,,,,0,0,0,0,0
1.0890,1783968826.7769,1,1,7.0000,-0.0000,1.42244,0.00057,-2.63067,1.05911,1.57080,0.11675,-0.12765,-0.48141,0.03726,,,,,,,,,,,,,,,,,,,,,,,,,,0,0,0,0,0
1.0997,1783968826.7876,1,1,7.0000,-0.0000,1.42244,0.00051,-2.63070,1.05916,1.57080,0.11675,-0.12765,-0.48140,0.03723,,,,,,,,,,,,,,,,,,,,,,,,,,0,0,0,0,0
1.1307,1783968826.8186,1,1,7.0000,-0.0000,1.42244,0.00038,-2.63073,1.05930,1.57080,0.11675,-0.12765,-0.48139,0.03718,,,,,,,,,,,,,,,,,,,,,,,,,,0,0,0,0,0
1.1386,1783968826.8265,1,1,7.0000,-0.0000,1.42244,0.00029,-2.63074,1.05940,1.57080,0.11675,-0.12765,-0.48139,0.03715,,,,,,,,,,,,,,,,,,,,,,,,,,0,0,0,0,0
1.1396,1783968826.8275,1,1,7.0000,-0.0000,1.42244,0.00029,-2.63074,1.05940,1.57080,0.11675,-0.12765,-0.48139,0.03715,,,,,,,,,,,,,,,,,,,,,,,,,,0,0,0,0,0
1.1407,1783968826.8286,1,1,7.0000,-0.0000,1.42244,0.00029,-2.63074,1.05940,1.57080,0.11675,-0.12765,-0.48139,0.03715,,,,,,,,,,,,,,,,,,,,,,,,,,0,0,0,0,0
1.1411,1783968826.8290,1,1,7.0000,-0.0000,1.42244,0.00029,-2.63074,1.05940,1.57080,0.11675,-0.12765,-0.48139,0.03715,,,,,,,,,,,,,,,,,,,,,,,,,,0,0,0,0,0
1.1524,1783968826.8403,1,1,7.0000,-0.0000,1.42244,0.00024,-2.63075,1.05946,1.57080,0.11675,-0.12765,-0.48139,0.03714,,,,,,,,,,,,,,,,,,,,,,,,,,0,0,0,0,0
1.1637,1783968826.8516,1,1,7.0000,-0.0000,1.42244,0.00012,-2.63077,1.05960,1.57080,0.11675,-0.12765,-0.48140,0.03710,,,,,,,,,,,,,,,,,,,,,,,,,,0,0,0,0,0
1.1687,1783968826.8566,1,1,7.0000,-0.0000,1.42244,0.00007,-2.63078,1.05966,1.57080,0.11675,-0.12765,-0.48140,0.03708,,,,,,,,,,,,,,,,,,,,,,,,,,0,0,0,0,0
1.1842,1783968826.8721,1,1,7.0000,-0.0000,1.42244,0.00003,-2.63078,1.05972,1.57080,0.11675,-0.12765,-0.48140,0.03707,,,,,,,,,,,,,,,,,,,,,,,,,,0,0,0,0,0
1.1879,1783968826.8758,1,1,7.0000,-0.0000,1.42244,-0.00000,-2.63079,1.05976,1.57080,0.11675,-0.12765,-0.48141,0.03706,,,,,,,,,,,,,,,,,,,,,,,,,,0,0,0,0,0
1.1883,1783968826.8762,1,1,7.0000,-0.0000,1.42244,-0.00000,-2.63079,1.05976,1.57080,0.11675,-0.12765,-0.48141,0.03706,,,,,,,,,,,,,,,,,,,,,,,,,,0,0,0,0,0
1.2009,1783968826.8887,1,1,7.0000,-0.0000,1.42244,-0.00005,-2.63079,1.05981,1.57080,0.11675,-0.12765,-0.48141,0.03705,,,,,,,,,,,,,,,,,,,,,,,,,,0,0,0,0,0
1.2152,1783968826.9030,1,1,7.0000,-0.0000,1.42244,-0.00011,-2.63079,1.05990,1.57080,0.11675,-0.12765,-0.48142,0.03703,,,,,,,,,,,,,,,,,,,,,,,,,,0,0,0,0,0
1.2225,1783968826.9104,1,1,7.0000,-0.0000,1.42244,-0.00019,-2.63079,1.06000,1.57080,0.11675,-0.12765,-0.48144,0.03702,,,,,,,,,,,,,,,,,,,,,,,,,,0,0,0,0,0
1.2313,1783968826.9192,1,1,7.0000,-0.0000,1.42244,-0.00027,-2.63079,1.06011,1.57080,0.11675,-0.12764,-0.48146,0.03700,,,,,,,,,,,,,,,,,,,,,,,,,,0,0,0,0,0
1.2402,1783968826.9280,1,1,7.0000,-0.0000,1.42244,-0.00039,-2.63078,1.06027,1.57080,0.11675,-0.12764,-0.48149,0.03698,,,,,,,,,,,,,,,,,,,,,,,,,,0,0,0,0,0
1.2549,1783968826.9428,1,1,7.0000,-0.0000,1.42244,-0.00046,-2.63075,1.06038,1.57080,0.11675,-0.12763,-0.48152,0.03698,,,,,,,,,,,,,,,,,,,,,,,,,,0,0,0,0,0
1.2597,1783968826.9476,1,1,7.0000,-0.0000,1.42244,-0.00047,-2.63074,1.06039,1.57080,0.11675,-0.12763,-0.48154,0.03698,,,,,,,,,,,,,,,,,,,,,,,,,,0,0,0,0,0
1.2748,1783968826.9627,1,1,7.0000,-0.0000,1.42244,-0.00047,-2.63074,1.06039,1.57080,0.11675,-0.12763,-0.48154,0.03698,,,,,,,,,,,,,,,,,,,,,,,,,,0,0,0,0,0
1.2866,1783968826.9745,1,1,7.0000,-0.0000,1.42244,-0.00047,-2.63074,1.06039,1.57080,0.11675,-0.12763,-0.48154,0.03698,,,,,,,,,,,,,,,,,,,,,,,,,,0,0,0,0,0
1.2899,1783968826.9778,1,1,7.0000,-0.0000,1.42244,-0.00047,-2.63074,1.06039,1.57080,0.11675,-0.12763,-0.48154,0.03698,,,,,,,,,,,,,,,,,,,,,,,,,,0,0,0,0,0
1.2903,1783968826.9781,1,1,7.0000,-0.0000,1.42244,-0.00047,-2.63074,1.06039,1.57080,0.11675,-0.12763,-0.48154,0.03698,,,,,,,,,,,,,,,,,,,,,,,,,,0,0,0,0,0
1.3027,1783968826.9906,1,1,7.0000,-0.0000,1.42244,-0.00047,-2.63074,1.06039,1.57080,0.11675,-0.12763,-0.48154,0.03698,,,,,,,,,,,,,,,,,,,,,,,,,,0,0,0,0,0
1.3096,1783968826.9975,1,1,7.0000,-0.0000,1.42244,-0.00047,-2.63074,1.06039,1.57080,0.11675,-0.12763,-0.48154,0.03698,,,,,,,,,,,,,,,,,,,,,,,,,,0,0,0,0,0
1.3099,1783968826.9978,1,1,7.0000,-0.0000,1.42244,-0.00047,-2.63074,1.06039,1.57080,0.11675,-0.12763,-0.48154,0.03698,,,,,,,,,,,,,,,,,,,,,,,,,,0,0,0,0,0
1.3219,1783968827.0098,1,1,7.0000,-0.0000,1.42244,-0.00047,-2.63074,1.06039,1.57080,0.11675,-0.12763,-0.48154,0.03698,,,,,,,,,,,,,,,,,,,,,,,,,,0,0,0,0,0
1.3281,1783968827.0160,1,1,7.0000,-0.0000,1.42244,-0.00047,-2.63074,1.06039,1.57080,0.11675,-0.12763,-0.48154,0.03698,,,,,,,,,,,,,,,,,,,,,,,,,,0,0,0,0,0
1.3284,1783968827.0163,1,1,7.0000,-0.0000,1.42244,-0.00047,-2.63074,1.06039,1.57080,0.11675,-0.12763,-0.48154,0.03698,,,,,,,,,,,,,,,,,,,,,,,,,,0,0,0,0,0
1.3412,1783968827.0291,1,1,7.0000,-0.0000,1.42244,-0.00047,-2.63074,1.06039,1.57080,0.11675,-0.12763,-0.48154,0.03698,,,,,,,,,,,,,,,,,,,,,,,,,,0,0,0,0,0
1.3639,1783968827.0517,1,1,7.0000,-0.0000,1.42244,-0.00047,-2.63074,1.06039,1.57080,0.11675,-0.12763,-0.48154,0.03698,,,,,,,,,,,,,,,,,,,,,,,,,,0,0,0,0,0
1.3642,1783968827.0521,1,1,7.0000,-0.0000,1.42244,-0.00047,-2.63074,1.06039,1.57080,0.11675,-0.12763,-0.48154,0.03698,,,,,,,,,,,,,,,,,,,,,,,,,,0,0,0,0,0
1.3646,1783968827.0525,1,1,7.0000,-0.0000,1.42244,-0.00047,-2.63074,1.06039,1.57080,0.11675,-0.12763,-0.48154,0.03698,,,,,,,,,,,,,,,,,,,,,,,,,,0,0,0,0,0
1.3680,1783968827.0559,1,1,7.0000,-0.0000,1.42244,-0.00047,-2.63074,1.06039,1.57080,0.11675,-0.12763,-0.48154,0.03698,,,,,,,,,,,,,,,,,,,,,,,,,,0,0,0,0,0
1.3683,1783968827.0561,1,1,7.0000,-0.0000,1.42244,-0.00047,-2.63074,1.06039,1.57080,0.11675,-0.12763,-0.48154,0.03698,,,,,,,,,,,,,,,,,,,,,,,,,,0,0,0,0,0
1.3800,1783968827.0678,1,1,7.0000,-0.0000,1.42244,-0.00047,-2.63074,1.06039,1.57080,0.11675,-0.12763,-0.48154,0.03698,,,,,,,,,,,,,,,,,,,,,,,,,,0,0,0,0,0
1.3890,1783968827.0769,1,1,7.0000,-0.0000,1.42244,-0.00047,-2.63074,1.06039,1.57080,0.11675,-0.12763,-0.48154,0.03698,,,,,,,,,,,,,,,,,,,,,,,,,,0,0,0,0,0
1.4022,1783968827.0900,1,1,7.0000,-0.0000,1.42244,-0.00047,-2.63074,1.06039,1.57080,0.11675,-0.12763,-0.48154,0.03698,,,,,,,,,,,,,,,,,,,,,,,,,,0,0,0,0,0
1.4117,1783968827.0995,1,1,7.0000,-0.0000,1.42244,-0.00047,-2.63074,1.06039,1.57080,0.11675,-0.12763,-0.48154,0.03698,,,,,,,,,,,,,,,,,,,,,,,,,,0,0,0,0,0
1.4198,1783968827.1077,1,1,7.0000,-0.0000,1.42244,-0.00047,-2.63074,1.06039,1.57080,0.11675,-0.12763,-0.48154,0.03698,,,,,,,,,,,,,,,,,,,,,,,,,,0,0,0,0,0
1.4317,1783968827.1196,1,1,7.0000,-0.0000,1.42244,-0.00047,-2.63074,1.06039,1.57080,0.11675,-0.12763,-0.48154,0.03698,,,,,,,,,,,,,,,,,,,,,,,,,,0,0,0,0,0
1.4425,1783968827.1304,1,1,7.0000,-0.0000,1.42244,-0.00047,-2.63074,1.06039,1.57080,0.11675,-0.12763,-0.48154,0.03698,,,,,,,,,,,,,,,,,,,,,,,,,,0,0,0,0,0
1.4508,1783968827.1387,1,1,7.0000,-0.0000,1.42244,-0.00047,-2.63075,1.06040,1.57080,0.11675,-0.12763,-0.48153,0.03698,,,,,,,,,,,,,,,,,,,,,,,,,,0,0,0,0,0
1.4617,1783968827.1495,1,1,7.0000,-0.0000,1.42244,-0.00050,-2.63078,1.06045,1.57080,0.11675,-0.12763,-0.48152,0.03696,,,,,,,,,,,,,,,,,,,,,,,,,,0,0,0,0,0
1.4685,1783968827.1564,1,1,7.0000,-0.0000,1.42244,-0.00051,-2.63080,1.06048,1.57080,0.11675,-0.12764,-0.48151,0.03695,,,,,,,,,,,,,,,,,,,,,,,,,,0,0,0,0,0
1.4688,1783968827.1567,1,1,7.0000,-0.0000,1.42244,-0.00051,-2.63080,1.06048,1.57080,0.11675,-0.12764,-0.48151,0.03695,,,,,,,,,,,,,,,,,,,,,,,,,,0,0,0,0,0
1.4820,1783968827.1699,1,1,7.0000,-0.0000,1.42244,-0.00054,-2.63082,1.06051,1.57080,0.11675,-0.12764,-0.48150,0.03694,,,,,,,,,,,,,,,,,,,,,,,,,,0,0,0,0,0
1.4917,1783968827.1796,1,1,7.0000,-0.0000,1.42244,-0.00060,-2.63087,1.06060,1.57080,0.11675,-0.12764,-0.48147,0.03690,,,,,,,,,,,,,,,,,,,,,,,,,,0,0,0,0,0
1.5022,1783968827.1901,1,1,7.0000,-0.0000,1.42244,-0.00062,-2.63090,1.06063,1.57080,0.11675,-0.12764,-0.48146,0.03689,,,,,,,,,,,,,,,,,,,,,,,,,,0,0,0,0,0
1.5027,1783968827.1906,1,1,7.0000,-0.0000,1.42244,-0.00062,-2.63090,1.06063,1.57080,0.11675,-0.12764,-0.48146,0.03689,,,,,,,,,,,,,,,,,,,,,,,,,,0,0,0,0,0
1.5087,1783968827.1965,1,1,7.0000,-0.0000,1.42244,-0.00064,-2.63090,1.06065,1.57080,0.11675,-0.12764,-0.48146,0.03688,,,,,,,,,,,,,,,,,,,,,,,,,,0,0,0,0,0
1.5228,1783968827.2106,1,1,7.0000,-0.0000,1.42244,-0.00070,-2.63093,1.06074,1.57080,0.11675,-0.12764,-0.48145,0.03685,,,,,,,,,,,,,,,,,,,,,,,,,,0,0,0,0,0
1.5231,1783968827.2110,1,1,7.0000,-0.0000,1.42244,-0.00070,-2.63093,1.06074,1.57080,0.11675,-0.12764,-0.48145,0.03685,,,,,,,,,,,,,,,,,,,,,,,,,,0,0,0,0,0
1.5291,1783968827.2170,1,1,7.0000,-0.0000,1.42244,-0.00077,-2.63095,1.06083,1.57080,0.11675,-0.12764,-0.48145,0.03683,,,,,,,,,,,,,,,,,,,,,,,,,,0,0,0,0,0
1.5294,1783968827.2173,1,1,7.0000,-0.0000,1.42244,-0.00077,-2.63095,1.06083,1.57080,0.11675,-0.12764,-0.48145,0.03683,,,,,,,,,,,,,,,,,,,,,,,,,,0,0,0,0,0
1.5402,1783968827.2281,1,1,7.0000,-0.0000,1.42244,-0.00079,-2.63096,1.06085,1.57080,0.11675,-0.12764,-0.48145,0.03682,,,,,,,,,,,,,,,,,,,,,,,,,,0,0,0,0,0
1.5405,1783968827.2284,1,1,7.0000,-0.0000,1.42244,-0.00079,-2.63096,1.06085,1.57080,0.11675,-0.12764,-0.48145,0.03682,,,,,,,,,,,,,,,,,,,,,,,,,,0,0,0,0,0
1.5487,1783968827.2366,1,1,7.0000,-0.0000,1.42244,-0.00084,-2.63097,1.06093,1.57080,0.11675,-0.12764,-0.48145,0.03680,,,,,,,,,,,,,,,,,,,,,,,,,,0,0,0,0,0
1.5640,1783968827.2518,1,1,7.0000,-0.0000,1.42244,-0.00091,-2.63098,1.06101,1.57080,0.11675,-0.12764,-0.48145,0.03678,,,,,,,,,,,,,,,,,,,,,,,,,,0,0,0,0,0
1.5685,1783968827.2564,1,1,7.0000,-0.0000,1.42244,-0.00094,-2.63099,1.06104,1.57080,0.11675,-0.12764,-0.48145,0.03677,,,,,,,,,,,,,,,,,,,,,,,,,,0,0,0,0,0
1.5781,1783968827.2660,1,1,7.0000,-0.0000,1.42244,-0.00102,-2.63101,1.06115,1.57080,0.11675,-0.12764,-0.48145,0.03675,,,,,,,,,,,,,,,,,,,,,,,,,,0,0,0,0,0
1.5880,1783968827.2759,1,1,7.0000,-0.0000,1.42244,-0.00113,-2.63103,1.06128,1.57080,0.11675,-0.12764,-0.48145,0.03671,,,,,,,,,,,,,,,,,,,,,,,,,,0,0,0,0,0
1.6049,1783968827.2927,1,1,7.0000,-0.0000,1.42244,-0.00120,-2.63104,1.06138,1.57080,0.11675,-0.12764,-0.48146,0.03669,,,,,,,,,,,,,,,,,,,,,,,,,,0,0,0,0,0
1.6107,1783968827.2986,1,1,7.0000,-0.0000,1.42244,-0.00124,-2.63104,1.06142,1.57080,0.11675,-0.12764,-0.48146,0.03668,,,,,,,,,,,,,,,,,,,,,,,,,,0,0,0,0,0
1.6113,1783968827.2991,1,1,7.0000,-0.0000,1.42244,-0.00124,-2.63104,1.06142,1.57080,0.11675,-0.12764,-0.48146,0.03668,,,,,,,,,,,,,,,,,,,,,,,,,,0,0,0,0,0
1.6224,1783968827.3103,1,1,7.0000,-0.0000,1.42244,-0.00132,-2.63106,1.06153,1.57080,0.11675,-0.12764,-0.48147,0.03665,,,,,,,,,,,,,,,,,,,,,,,,,,0,0,0,0,0
1.6309,1783968827.3187,1,1,7.0000,-0.0000,1.42244,-0.00134,-2.63106,1.06155,1.57080,0.11675,-0.12764,-0.48147,0.03665,,,,,,,,,,,,,,,,,,,,,,,,,,0,0,0,0,0
1.6435,1783968827.3314,1,1,7.0000,-0.0000,1.42244,-0.00141,-2.63105,1.06164,1.57080,0.11675,-0.12764,-0.48148,0.03664,,,,,,,,,,,,,,,,,,,,,,,,,,0,0,0,0,0
1.6497,1783968827.3376,1,1,7.0000,-0.0000,1.42244,-0.00147,-2.63105,1.06172,1.57080,0.11675,-0.12764,-0.48150,0.03662,,,,,,,,,,,,,,,,,,,,,,,,,,0,0,0,0,0
1.6712,1783968827.3590,1,1,7.0000,-0.0000,1.42243,-0.00161,-2.63101,1.06190,1.57080,0.11675,-0.12763,-0.48155,0.03661,,,,,,,,,,,,,,,,,,,,,,,,,,0,0,0,0,0
1.6813,1783968827.3691,1,1,7.0000,-0.0000,1.42243,-0.00165,-2.63098,1.06195,1.57080,0.11675,-0.12762,-0.48158,0.03661,,,,,,,,,,,,,,,,,,,,,,,,,,0,0,0,0,0
1.6815,1783968827.3694,1,1,7.0000,-0.0000,1.42243,-0.00165,-2.63098,1.06195,1.57080,0.11675,-0.12762,-0.48158,0.03661,,,,,,,,,,,,,,,,,,,,,,,,,,0,0,0,0,0
1.6901,1783968827.3780,1,1,7.0000,-0.0000,1.42243,-0.00165,-2.63098,1.06195,1.57080,0.11675,-0.12762,-0.48158,0.03661,,,,,,,,,,,,,,,,,,,,,,,,,,0,0,0,0,0
1.6905,1783968827.3784,1,1,7.0000,-0.0000,1.42243,-0.00165,-2.63098,1.06195,1.57080,0.11675,-0.12762,-0.48158,0.03661,,,,,,,,,,,,,,,,,,,,,,,,,,0,0,0,0,0
1.7007,1783968827.3885,1,1,7.0000,-0.0000,1.42243,-0.00165,-2.63098,1.06195,1.57080,0.11675,-0.12762,-0.48158,0.03661,,,,,,,,,,,,,,,,,,,,,,,,,,0,0,0,0,0
1.7099,1783968827.3978,1,1,7.0000,-0.0000,1.42243,-0.00165,-2.63098,1.06195,1.57080,0.11675,-0.12762,-0.48158,0.03661,,,,,,,,,,,,,,,,,,,,,,,,,,0,0,0,0,0
1.7192,1783968827.4070,1,1,7.0000,-0.0000,1.42243,-0.00165,-2.63098,1.06195,1.57080,0.11675,-0.12762,-0.48158,0.03661,,,,,,,,,,,,,,,,,,,,,,,,,,0,0,0,0,0
1.7326,1783968827.4205,1,1,7.0000,-0.0000,1.42243,-0.00165,-2.63098,1.06195,1.57080,0.11675,-0.12762,-0.48158,0.03661,,,,,,,,,,,,,,,,,,,,,,,,,,0,0,0,0,0
1.7330,1783968827.4208,1,1,7.0000,-0.0000,1.42243,-0.00165,-2.63098,1.06195,1.57080,0.11675,-0.12762,-0.48158,0.03661,,,,,,,,,,,,,,,,,,,,,,,,,,0,0,0,0,0
1.7392,1783968827.4270,1,1,7.0000,-0.0000,1.42243,-0.00165,-2.63098,1.06195,1.57080,0.11675,-0.12762,-0.48158,0.03661,,,,,,,,,,,,,,,,,,,,,,,,,,0,0,0,0,0
1.7397,1783968827.4275,1,1,7.0000,-0.0000,1.42243,-0.00165,-2.63098,1.06195,1.57080,0.11675,-0.12762,-0.48158,0.03661,,,,,,,,,,,,,,,,,,,,,,,,,,0,0,0,0,0
1.7492,1783968827.4370,1,1,7.0000,-0.0000,1.42243,-0.00165,-2.63098,1.06195,1.57080,0.11675,-0.12762,-0.48158,0.03661,,,,,,,,,,,,,,,,,,,,,,,,,,0,0,0,0,0
1.7660,1783968827.4539,1,1,7.0000,-0.0000,1.42243,-0.00165,-2.63098,1.06195,1.57080,0.11675,-0.12762,-0.48158,0.03661,,,,,,,,,,,,,,,,,,,,,,,,,,0,0,0,0,0
1.7762,1783968827.4641,1,1,7.0000,-0.0000,1.42243,-0.00165,-2.63098,1.06195,1.57080,0.11675,-0.12762,-0.48158,0.03661,,,,,,,,,,,,,,,,,,,,,,,,,,0,0,0,0,0
1.7826,1783968827.4704,1,1,7.0000,-0.0000,1.42243,-0.00165,-2.63098,1.06195,1.57080,0.11675,-0.12762,-0.48158,0.03661,,,,,,,,,,,,,,,,,,,,,,,,,,0,0,0,0,0
1.7909,1783968827.4787,1,1,7.0000,-0.0000,1.42243,-0.00165,-2.63098,1.06195,1.57080,0.11675,-0.12762,-0.48158,0.03661,,,,,,,,,,,,,,,,,,,,,,,,,,0,0,0,0,0
1.8024,1783968827.4903,1,1,7.0000,-0.0000,1.42243,-0.00165,-2.63098,1.06195,1.57080,0.11675,-0.12762,-0.48158,0.03661,,,,,,,,,,,,,,,,,,,,,,,,,,0,0,0,0,0
1.8098,1783968827.4977,1,1,7.0000,-0.0000,1.42243,-0.00165,-2.63098,1.06195,1.57080,0.11675,-0.12762,-0.48158,0.03661,,,,,,,,,,,,,,,,,,,,,,,,,,0,0,0,0,0
1.8197,1783968827.5076,1,1,7.0000,-0.0000,1.42243,-0.00165,-2.63098,1.06195,1.57080,0.11675,-0.12762,-0.48158,0.03661,,,,,,,,,,,,,,,,,,,,,,,,,,0,0,0,0,0
1.8203,1783968827.5082,1,1,7.0000,-0.0000,1.42243,-0.00165,-2.63098,1.06195,1.57080,0.11675,-0.12762,-0.48158,0.03661,,,,,,,,,,,,,,,,,,,,,,,,,,0,0,0,0,0
1.8285,1783968827.5164,1,1,7.0000,-0.0000,1.42243,-0.00165,-2.63098,1.06195,1.57080,0.11675,-0.12762,-0.48158,0.03661,,,,,,,,,,,,,,,,,,,,,,,,,,0,0,0,0,0
1.8428,1783968827.5306,1,1,7.0000,-0.0000,1.42243,-0.00165,-2.63098,1.06195,1.57080,0.11675,-0.12762,-0.48158,0.03661,,,,,,,,,,,,,,,,,,,,,,,,,,0,0,0,0,0
1.8522,1783968827.5401,1,1,7.0000,-0.0000,1.42243,-0.00165,-2.63098,1.06195,1.57080,0.11675,-0.12762,-0.48158,0.03661,,,,,,,,,,,,,,,,,,,,,,,,,,0,0,0,0,0
1.8525,1783968827.5403,1,1,7.0000,-0.0000,1.42243,-0.00165,-2.63098,1.06195,1.57080,0.11675,-0.12762,-0.48158,0.03661,,,,,,,,,,,,,,,,,,,,,,,,,,0,0,0,0,0
1.8601,1783968827.5480,1,1,7.0000,-0.0000,1.42243,-0.00165,-2.63098,1.06195,1.57080,0.11675,-0.12762,-0.48158,0.03661,,,,,,,,,,,,,,,,,,,,,,,,,,0,0,0,0,0
1.8716,1783968827.5595,1,1,7.0000,-0.0000,1.42243,-0.00165,-2.63099,1.06196,1.57080,0.11675,-0.12762,-0.48158,0.03661,,,,,,,,,,,,,,,,,,,,,,,,,,0,0,0,0,0
1.8933,1783968827.5811,1,1,7.0000,-0.0000,1.42243,-0.00168,-2.63105,1.06200,1.57080,0.11675,-0.12763,-0.48154,0.03658,,,,,,,,,,,,,,,,,,,,,,,,,,0,0,0,0,0
1.8939,1783968827.5818,1,1,7.0000,-0.0000,1.42243,-0.00168,-2.63105,1.06200,1.57080,0.11675,-0.12763,-0.48154,0.03658,,,,,,,,,,,,,,,,,,,,,,,,,,0,0,0,0,0
1.8981,1783968827.5860,1,1,7.0000,-0.0000,1.42243,-0.00168,-2.63105,1.06200,1.57080,0.11675,-0.12763,-0.48154,0.03658,,,,,,,,,,,,,,,,,,,,,,,,,,0,0,0,0,0
1.8986,1783968827.5864,1,1,7.0000,-0.0000,1.42243,-0.00168,-2.63105,1.06200,1.57080,0.11675,-0.12763,-0.48154,0.03658,,,,,,,,,,,,,,,,,,,,,,,,,,0,0,0,0,0
1.9180,1783968827.6058,1,1,7.0000,-0.0000,1.42243,-0.00173,-2.63110,1.06206,1.57080,0.11675,-0.12763,-0.48151,0.03654,,,,,,,,,,,,,,,,,,,,,,,,,,0,0,0,0,0
1.9189,1783968827.6068,1,1,7.0000,-0.0000,1.42243,-0.00173,-2.63110,1.06206,1.57080,0.11675,-0.12763,-0.48151,0.03654,,,,,,,,,,,,,,,,,,,,,,,,,,0,0,0,0,0
1.9193,1783968827.6072,1,1,7.0000,-0.0000,1.42243,-0.00173,-2.63110,1.06206,1.57080,0.11675,-0.12763,-0.48151,0.03654,,,,,,,,,,,,,,,,,,,,,,,,,,0,0,0,0,0
1.9300,1783968827.6178,1,1,7.0000,-0.0000,1.42243,-0.00177,-2.63112,1.06210,1.57080,0.11675,-0.12763,-0.48150,0.03652,,,,,,,,,,,,,,,,,,,,,,,,,,0,0,0,0,0
1.9395,1783968827.6274,1,1,7.0000,-0.0000,1.42243,-0.00182,-2.63115,1.06216,1.57080,0.11675,-0.12764,-0.48149,0.03650,,,,,,,,,,,,,,,,,,,,,,,,,,0,0,0,0,0
1.9483,1783968827.6361,1,1,7.0000,-0.0000,1.42243,-0.00188,-2.63118,1.06224,1.57080,0.11675,-0.12764,-0.48147,0.03647,,,,,,,,,,,,,,,,,,,,,,,,,,0,0,0,0,0
1.9726,1783968827.6605,1,1,7.0000,-0.0000,1.42243,-0.00204,-2.63122,1.06243,1.57080,0.11675,-0.12764,-0.48147,0.03641,,,,,,,,,,,,,,,,,,,,,,,,,,0,0,0,0,0
1.9734,1783968827.6612,1,1,7.0000,-0.0000,1.42243,-0.00204,-2.63122,1.06243,1.57080,0.11675,-0.12764,-0.48147,0.03641,,,,,,,,,,,,,,,,,,,,,,,,,,0,0,0,0,0
1.9798,1783968827.6676,1,1,7.0000,-0.0000,1.42243,-0.00209,-2.63124,1.06249,1.57080,0.11675,-0.12764,-0.48146,0.03639,,,,,,,,,,,,,,,,,,,,,,,,,,0,0,0,0,0
1.9939,1783968827.6817,1,1,7.0000,-0.0000,1.42243,-0.00214,-2.63125,1.06255,1.57080,0.11675,-0.12764,-0.48146,0.03637,,,,,,,,,,,,,,,,,,,,,,,,,,0,0,0,0,0
2.0086,1783968827.6965,1,1,7.0000,-0.0000,1.42243,-0.00227,-2.63127,1.06270,1.57080,0.11675,-0.12764,-0.48146,0.03633,,,,,,,,,,,,,,,,,,,,,,,,,,0,0,0,0,0
2.0099,1783968827.6977,1,1,7.0000,-0.0000,1.42243,-0.00227,-2.63127,1.06270,1.57080,0.11675,-0.12764,-0.48146,0.03633,,,,,,,,,,,,,,,,,,,,,,,,,,0,0,0,0,0
2.0200,1783968827.7079,1,1,7.0000,-0.0000,1.42243,-0.00229,-2.63128,1.06273,1.57080,0.11675,-0.12764,-0.48147,0.03632,,,,,,,,,,,,,,,,,,,,,,,,,,0,0,0,0,0
2.0352,1783968827.7231,1,1,7.0000,-0.0000,1.42243,-0.00243,-2.63130,1.06290,1.57080,0.11675,-0.12764,-0.48147,0.03628,,,,,,,,,,,,,,,,,,,,,,,,,,0,0,0,0,0
2.0390,1783968827.7268,1,1,7.0000,-0.0000,1.42243,-0.00248,-2.63131,1.06296,1.57080,0.11675,-0.12764,-0.48148,0.03627,,,,,,,,,,,,,,,,,,,,,,,,,,0,0,0,0,0
2.0498,1783968827.7377,1,1,7.0000,-0.0000,1.42243,-0.00263,-2.63133,1.06315,1.57080,0.11675,-0.12764,-0.48148,0.03622,,,,,,,,,,,,,,,,,,,,,,,,,,0,0,0,0,0
2.0597,1783968827.7475,1,1,7.0000,-0.0000,1.42243,-0.00272,-2.63134,1.06326,1.57080,0.11675,-0.12763,-0.48149,0.03620,,,,,,,,,,,,,,,,,,,,,,,,,,0,0,0,0,0
2.0601,1783968827.7479,1,1,7.0000,-0.0000,1.42243,-0.00272,-2.63134,1.06326,1.57080,0.11675,-0.12763,-0.48149,0.03620,,,,,,,,,,,,,,,,,,,,,,,,,,0,0,0,0,0
2.0742,1783968827.7621,1,1,7.0000,-0.0000,1.42243,-0.00280,-2.63135,1.06338,1.57080,0.11675,-0.12763,-0.48150,0.03617,,,,,,,,,,,,,,,,,,,,,,,,,,0,0,0,0,0
2.0816,1783968827.7694,1,1,7.0000,-0.0000,1.42243,-0.00280,-2.63135,1.06338,1.57080,0.11675,-0.12763,-0.48150,0.03617,,,,,,,,,,,,,,,,,,,,,,,,,,0,0,0,0,0
2.0941,1783968827.7819,1,1,7.0000,-0.0000,1.42243,-0.00280,-2.63135,1.06338,1.57080,0.11675,-0.12763,-0.48150,0.03617,,,,,,,,,,,,,,,,,,,,,,,,,,0,0,0,0,0
2.0992,1783968827.7871,1,1,7.0000,-0.0000,1.42243,-0.00280,-2.63135,1.06338,1.57080,0.11675,-0.12763,-0.48150,0.03617,,,,,,,,,,,,,,,,,,,,,,,,,,0,0,0,0,0
2.1096,1783968827.7975,1,1,7.0000,-0.0000,1.42243,-0.00280,-2.63135,1.06338,1.57080,0.11675,-0.12763,-0.48150,0.03617,,,,,,,,,,,,,,,,,,,,,,,,,,0,0,0,0,0
2.1190,1783968827.8069,1,1,7.0000,-0.0000,1.42243,-0.00280,-2.63135,1.06338,1.57080,0.11675,-0.12763,-0.48150,0.03617,,,,,,,,,,,,,,,,,,,,,,,,,,0,0,0,0,0
2.1293,1783968827.8172,1,1,7.0000,-0.0000,1.42243,-0.00280,-2.63135,1.06338,1.57080,0.11675,-0.12763,-0.48150,0.03617,,,,,,,,,,,,,,,,,,,,,,,,,,0,0,0,0,0
2.1419,1783968827.8298,1,1,7.0000,-0.0000,1.42243,-0.00280,-2.63135,1.06338,1.57080,0.11675,-0.12763,-0.48150,0.03617,,,,,,,,,,,,,,,,,,,,,,,,,,0,0,0,0,0
2.1486,1783968827.8365,1,1,7.0000,-0.0000,1.42243,-0.00280,-2.63135,1.06338,1.57080,0.11675,-0.12763,-0.48150,0.03617,,,,,,,,,,,,,,,,,,,,,,,,,,0,0,0,0,0
2.1641,1783968827.8519,1,1,7.0000,-0.0000,1.42243,-0.00280,-2.63135,1.06338,1.57080,0.11675,-0.12763,-0.48150,0.03617,,,,,,,,,,,,,,,,,,,,,,,,,,0,0,0,0,0
2.1831,1783968827.8710,1,1,7.0000,-0.0000,1.42243,-0.00280,-2.63135,1.06338,1.57080,0.11675,-0.12763,-0.48150,0.03617,,,,,,,,,,,,,,,,,,,,,,,,,,0,0,0,0,0
2.1835,1783968827.8713,1,1,7.0000,-0.0000,1.42243,-0.00280,-2.63135,1.06338,1.57080,0.11675,-0.12763,-0.48150,0.03617,,,,,,,,,,,,,,,,,,,,,,,,,,0,0,0,0,0
2.1838,1783968827.8716,1,1,7.0000,-0.0000,1.42243,-0.00280,-2.63135,1.06338,1.57080,0.11675,-0.12763,-0.48150,0.03617,,,,,,,,,,,,,,,,,,,,,,,,,,0,0,0,0,0
2.1916,1783968827.8795,1,1,7.0000,-0.0000,1.42243,-0.00280,-2.63135,1.06338,1.57080,0.11675,-0.12763,-0.48150,0.03617,,,,,,,,,,,,,,,,,,,,,,,,,,0,0,0,0,0
2.1982,1783968827.8861,1,1,7.0000,-0.0000,1.42243,-0.00280,-2.63135,1.06338,1.57080,0.11675,-0.12763,-0.48150,0.03617,,,,,,,,,,,,,,,,,,,,,,,,,,0,0,0,0,0
2.2128,1783968827.9007,1,1,7.0000,-0.0000,1.42243,-0.00280,-2.63135,1.06338,1.57080,0.11675,-0.12763,-0.48150,0.03617,,,,,,,,,,,,,,,,,,,,,,,,,,0,0,0,0,0
2.2192,1783968827.9071,1,1,7.0000,-0.0000,1.42243,-0.00280,-2.63135,1.06338,1.57080,0.11675,-0.12763,-0.48150,0.03617,,,,,,,,,,,,,,,,,,,,,,,,,,0,0,0,0,0
2.2295,1783968827.9174,1,1,7.0000,-0.0000,1.42243,-0.00280,-2.63135,1.06338,1.57080,0.11675,-0.12763,-0.48150,0.03617,,,,,,,,,,,,,,,,,,,,,,,,,,0,0,0,0,0
2.2486,1783968827.9365,1,1,7.0000,-0.0000,1.42243,-0.00280,-2.63135,1.06338,1.57080,0.11675,-0.12763,-0.48150,0.03617,,,,,,,,,,,,,,,,,,,,,,,,,,0,0,0,0,0
2.2489,1783968827.9368,1,1,7.0000,-0.0000,1.42243,-0.00280,-2.63135,1.06338,1.57080,0.11675,-0.12763,-0.48150,0.03617,,,,,,,,,,,,,,,,,,,,,,,,,,0,0,0,0,0
2.2509,1783968827.9388,1,1,7.0000,-0.0000,1.42243,-0.00280,-2.63135,1.06338,1.57080,0.11675,-0.12763,-0.48150,0.03617,,,,,,,,,,,,,,,,,,,,,,,,,,0,0,0,0,0
2.2618,1783968827.9497,1,1,7.0000,-0.0000,1.42243,-0.00280,-2.63135,1.06338,1.57080,0.11675,-0.12763,-0.48150,0.03617,,,,,,,,,,,,,,,,,,,,,,,,,,0,0,0,0,0
2.2851,1783968827.9729,1,1,7.0000,-0.0000,1.42243,-0.00281,-2.63135,1.06338,1.57080,0.11675,-0.12763,-0.48150,0.03617,,,,,,,,,,,,,,,,,,,,,,,,,,0,0,0,0,0
2.2861,1783968827.9740,1,1,7.0000,-0.0000,1.42243,-0.00281,-2.63135,1.06338,1.57080,0.11675,-0.12763,-0.48150,0.03617,,,,,,,,,,,,,,,,,,,,,,,,,,0,0,0,0,0
2.2886,1783968827.9765,1,1,7.0000,-0.0000,1.42243,-0.00281,-2.63135,1.06339,1.57080,0.11675,-0.12763,-0.48150,0.03617,,,,,,,,,,,,,,,,,,,,,,,,,,0,0,0,0,0
2.2888,1783968827.9767,1,1,7.0000,-0.0000,1.42243,-0.00281,-2.63135,1.06339,1.57080,0.11675,-0.12763,-0.48150,0.03617,,,,,,,,,,,,,,,,,,,,,,,,,,0,0,0,0,0
2.3009,1783968827.9887,1,1,7.0000,-0.0000,1.42243,-0.00283,-2.63136,1.06341,1.57080,0.11675,-0.12763,-0.48150,0.03616,,,,,,,,,,,,,,,,,,,,,,,,,,0,0,0,0,0
2.3327,1783968828.0206,1,1,7.0000,-0.0000,1.42243,-0.00290,-2.63141,1.06349,1.57080,0.11675,-0.12764,-0.48148,0.03613,,,,,,,,,,,,,,,,,,,,,,,,,,0,0,0,0,0
2.3336,1783968828.0215,1,1,7.0000,-0.0000,1.42243,-0.00290,-2.63141,1.06349,1.57080,0.11675,-0.12764,-0.48148,0.03613,,,,,,,,,,,,,,,,,,,,,,,,,,0,0,0,0,0
2.3428,1783968828.0307,1,1,7.0000,-0.0000,1.42243,-0.00294,-2.63143,1.06354,1.57080,0.11675,-0.12764,-0.48146,0.03610,,,,,,,,,,,,,,,,,,,,,,,,,,0,0,0,0,0
2.3453,1783968828.0332,1,1,7.0000,-0.0000,1.42243,-0.00294,-2.63143,1.06354,1.57080,0.11675,-0.12764,-0.48146,0.03610,,,,,,,,,,,,,,,,,,,,,,,,,,0,0,0,0,0
2.3486,1783968828.0365,1,1,7.0000,-0.0000,1.42243,-0.00294,-2.63143,1.06355,1.57080,0.11675,-0.12764,-0.48146,0.03610,,,,,,,,,,,,,,,,,,,,,,,,,,0,0,0,0,0
2.3489,1783968828.0367,1,1,7.0000,-0.0000,1.42243,-0.00294,-2.63143,1.06355,1.57080,0.11675,-0.12764,-0.48146,0.03610,,,,,,,,,,,,,,,,,,,,,,,,,,0,0,0,0,0
2.3635,1783968828.0513,1,1,7.0000,-0.0000,1.42243,-0.00299,-2.63145,1.06360,1.57080,0.11675,-0.12764,-0.48146,0.03608,,,,,,,,,,,,,,,,,,,,,,,,,,0,0,0,0,0
2.3720,1783968828.0599,1,1,7.0000,-0.0000,1.42243,-0.00302,-2.63146,1.06364,1.57080,0.11675,-0.12764,-0.48146,0.03607,,,,,,,,,,,,,,,,,,,,,,,,,,0,0,0,0,0
2.3729,1783968828.0608,1,1,7.0000,-0.0000,1.42243,-0.00303,-2.63146,1.06364,1.57080,0.11675,-0.12764,-0.48146,0.03607,,,,,,,,,,,,,,,,,,,,,,,,,,0,0,0,0,0
2.3858,1783968828.0737,1,1,7.0000,-0.0000,1.42243,-0.00311,-2.63148,1.06374,1.57080,0.11675,-0.12764,-0.48146,0.03604,,,,,,,,,,,,,,,,,,,,,,,,,,0,0,0,0,0
2.3888,1783968828.0767,1,1,7.0000,-0.0000,1.42243,-0.00315,-2.63149,1.06379,1.57080,0.11675,-0.12764,-0.48146,0.03603,,,,,,,,,,,,,,,,,,,,,,,,,,0,0,0,0,0
2.3996,1783968828.0875,1,1,7.0000,-0.0000,1.42243,-0.00325,-2.63151,1.06391,1.57080,0.11675,-0.12764,-0.48146,0.03599,,,,,,,,,,,,,,,,,,,,,,,,,,0,0,0,0,0
2.4187,1783968828.1065,1,1,7.0000,-0.0000,1.42243,-0.00334,-2.63152,1.06402,1.57080,0.11675,-0.12764,-0.48146,0.03596,,,,,,,,,,,,,,,,,,,,,,,,,,0,0,0,0,0
2.4245,1783968828.1124,1,1,7.0000,-0.0000,1.42243,-0.00343,-2.63154,1.06412,1.57080,0.11675,-0.12764,-0.48146,0.03594,,,,,,,,,,,,,,,,,,,,,,,,,,0,0,0,0,0
2.4534,1783968828.1413,1,1,7.0000,-0.0000,1.42243,-0.00359,-2.63157,1.06431,1.57080,0.11675,-0.12764,-0.48147,0.03589,,,,,,,,,,,,,,,,,,,,,,,,,,0,0,0,0,0
2.4571,1783968828.1450,1,1,7.0000,-0.0000,1.42243,-0.00363,-2.63157,1.06436,1.57080,0.11675,-0.12764,-0.48147,0.03587,,,,,,,,,,,,,,,,,,,,,,,,,,0,0,0,0,0
2.4582,1783968828.1461,1,1,7.0000,-0.0000,1.42243,-0.00363,-2.63157,1.06436,1.57080,0.11675,-0.12764,-0.48147,0.03587,,,,,,,,,,,,,,,,,,,,,,,,,,0,0,0,0,0
2.4706,1783968828.1585,1,1,7.0000,-0.0000,1.42243,-0.00376,-2.63159,1.06453,1.57080,0.11675,-0.12763,-0.48148,0.03583,,,,,,,,,,,,,,,,,,,,,,,,,,0,0,0,0,0
2.4839,1783968828.1717,1,1,7.0000,-0.0000,1.42243,-0.00389,-2.63161,1.06469,1.57080,0.11675,-0.12763,-0.48149,0.03579,,,,,,,,,,,,,,,,,,,,,,,,,,0,0,0,0,0
2.4900,1783968828.1778,1,1,7.0000,-0.0000,1.42243,-0.00396,-2.63161,1.06477,1.57080,0.11675,-0.12763,-0.48150,0.03578,,,,,,,,,,,,,,,,,,,,,,,,,,0,0,0,0,0
2.5023,1783968828.1902,1,1,7.0000,-0.0000,1.42243,-0.00398,-2.63161,1.06481,1.57080,0.11675,-0.12763,-0.48150,0.03577,,,,,,,,,,,,,,,,,,,,,,,,,,0,0,0,0,0
2.5097,1783968828.1976,1,1,7.0000,-0.0000,1.42243,-0.00398,-2.63161,1.06481,1.57080,0.11675,-0.12763,-0.48150,0.03577,,,,,,,,,,,,,,,,,,,,,,,,,,0,0,0,0,0
2.5221,1783968828.2100,1,1,7.0000,-0.0000,1.42243,-0.00398,-2.63161,1.06481,1.57080,0.11675,-0.12763,-0.48150,0.03577,,,,,,,,,,,,,,,,,,,,,,,,,,0,0,0,0,0
2.5331,1783968828.2210,1,1,7.0000,-0.0000,1.42243,-0.00398,-2.63161,1.06481,1.57080,0.11675,-0.12763,-0.48150,0.03577,,,,,,,,,,,,,,,,,,,,,,,,,,0,0,0,0,0
2.5529,1783968828.2407,1,1,7.0000,-0.0000,1.42243,-0.00398,-2.63161,1.06481,1.57080,0.11675,-0.12763,-0.48150,0.03577,,,,,,,,,,,,,,,,,,,,,,,,,,0,0,0,0,0
2.5571,1783968828.2449,1,1,7.0000,-0.0000,1.42243,-0.00398,-2.63161,1.06481,1.57080,0.11675,-0.12763,-0.48150,0.03577,,,,,,,,,,,,,,,,,,,,,,,,,,0,0,0,0,0
2.5635,1783968828.2513,1,1,7.0000,-0.0000,1.42243,-0.00398,-2.63161,1.06481,1.57080,0.11675,-0.12763,-0.48150,0.03577,,,,,,,,,,,,,,,,,,,,,,,,,,0,0,0,0,0
2.5743,1783968828.2621,1,1,7.0000,-0.0000,1.42243,-0.00398,-2.63161,1.06481,1.57080,0.11675,-0.12763,-0.48150,0.03577,,,,,,,,,,,,,,,,,,,,,,,,,,0,0,0,0,0
2.5932,1783968828.2810,1,1,7.0000,-0.0000,1.42243,-0.00398,-2.63161,1.06481,1.57080,0.11675,-0.12763,-0.48150,0.03577,,,,,,,,,,,,,,,,,,,,,,,,,,0,0,0,0,0
2.5934,1783968828.2813,1,1,7.0000,-0.0000,1.42243,-0.00398,-2.63161,1.06481,1.57080,0.11675,-0.12763,-0.48150,0.03577,,,,,,,,,,,,,,,,,,,,,,,,,,0,0,0,0,0
2.5947,1783968828.2826,1,1,7.0000,-0.0000,1.42243,-0.00398,-2.63161,1.06481,1.57080,0.11675,-0.12763,-0.48150,0.03577,,,,,,,,,,,,,,,,,,,,,,,,,,0,0,0,0,0
2.5950,1783968828.2828,1,1,7.0000,-0.0000,1.42243,-0.00398,-2.63161,1.06481,1.57080,0.11675,-0.12763,-0.48150,0.03577,,,,,,,,,,,,,,,,,,,,,,,,,,0,0,0,0,0
2.6037,1783968828.2915,1,1,7.0000,-0.0000,1.42243,-0.00398,-2.63161,1.06481,1.57080,0.11675,-0.12763,-0.48150,0.03577,,,,,,,,,,,,,,,,,,,,,,,,,,0,0,0,0,0
2.6100,1783968828.2979,1,1,7.0000,-0.0000,1.42243,-0.00398,-2.63161,1.06481,1.57080,0.11675,-0.12763,-0.48150,0.03577,,,,,,,,,,,,,,,,,,,,,,,,,,0,0,0,0,0
2.6103,1783968828.2981,1,1,7.0000,-0.0000,1.42243,-0.00398,-2.63161,1.06481,1.57080,0.11675,-0.12763,-0.48150,0.03577,,,,,,,,,,,,,,,,,,,,,,,,,,0,0,0,0,0
2.6327,1783968828.3205,1,1,7.0000,-0.0000,1.42243,-0.00398,-2.63161,1.06481,1.57080,0.11675,-0.12763,-0.48150,0.03577,,,,,,,,,,,,,,,,,,,,,,,,,,0,0,0,0,0
2.6401,1783968828.3280,1,1,7.0000,-0.0000,1.42243,-0.00398,-2.63161,1.06481,1.57080,0.11675,-0.12763,-0.48150,0.03577,,,,,,,,,,,,,,,,,,,,,,,,,,0,0,0,0,0
2.6516,1783968828.3395,1,1,7.0000,-0.0000,1.42243,-0.00398,-2.63161,1.06481,1.57080,0.11675,-0.12763,-0.48150,0.03577,,,,,,,,,,,,,,,,,,,,,,,,,,0,0,0,0,0
2.6546,1783968828.3425,1,1,7.0000,-0.0000,1.42243,-0.00398,-2.63161,1.06481,1.57080,0.11675,-0.12763,-0.48150,0.03577,,,,,,,,,,,,,,,,,,,,,,,,,,0,0,0,0,0
2.6645,1783968828.3524,1,1,7.0000,-0.0000,1.42243,-0.00398,-2.63161,1.06481,1.57080,0.11675,-0.12763,-0.48150,0.03577,,,,,,,,,,,,,,,,,,,,,,,,,,0,0,0,0,0
2.6714,1783968828.3593,1,1,7.0000,-0.0000,1.42243,-0.00398,-2.63161,1.06481,1.57080,0.11675,-0.12763,-0.48150,0.03577,,,,,,,,,,,,,,,,,,,,,,,,,,0,0,0,0,0
2.6718,1783968828.3597,1,1,7.0000,-0.0000,1.42243,-0.00398,-2.63161,1.06481,1.57080,0.11675,-0.12763,-0.48150,0.03577,,,,,,,,,,,,,,,,,,,,,,,,,,0,0,0,0,0
2.6809,1783968828.3688,1,1,7.0000,-0.0000,1.42243,-0.00398,-2.63161,1.06481,1.57080,0.11675,-0.12763,-0.48150,0.03577,,,,,,,,,,,,,,,,,,,,,,,,,,0,0,0,0,0
2.6812,1783968828.3690,1,1,7.0000,-0.0000,1.42243,-0.00398,-2.63161,1.06481,1.57080,0.11675,-0.12763,-0.48150,0.03577,,,,,,,,,,,,,,,,,,,,,,,,,,0,0,0,0,0
2.6958,1783968828.3836,1,1,7.0000,-0.0000,1.42243,-0.00398,-2.63161,1.06481,1.57080,0.11675,-0.12763,-0.48150,0.03577,,,,,,,,,,,,,,,,,,,,,,,,,,0,0,0,0,0
2.7080,1783968828.3959,1,1,7.0000,-0.0000,1.42243,-0.00399,-2.63161,1.06481,1.57080,0.11675,-0.12763,-0.48150,0.03577,,,,,,,,,,,,,,,,,,,,,,,,,,0,0,0,0,0
2.7087,1783968828.3966,1,1,7.0000,-0.0000,1.42243,-0.00399,-2.63161,1.06482,1.57080,0.11675,-0.12763,-0.48150,0.03577,,,,,,,,,,,,,,,,,,,,,,,,,,0,0,0,0,0
2.7106,1783968828.3985,1,1,7.0000,-0.0000,1.42243,-0.00399,-2.63161,1.06482,1.57080,0.11675,-0.12763,-0.48150,0.03577,,,,,,,,,,,,,,,,,,,,,,,,,,0,0,0,0,0
2.7109,1783968828.3987,1,1,7.0000,-0.0000,1.42243,-0.00399,-2.63161,1.06482,1.57080,0.11675,-0.12763,-0.48150,0.03577,,,,,,,,,,,,,,,,,,,,,,,,,,0,0,0,0,0
2.7499,1783968828.4378,1,1,7.0000,-0.0000,1.42243,-0.00406,-2.63166,1.06491,1.57080,0.11675,-0.12763,-0.48148,0.03573,,,,,,,,,,,,,,,,,,,,,,,,,,0,0,0,0,0
2.7521,1783968828.4399,1,1,7.0000,-0.0000,1.42243,-0.00406,-2.63166,1.06491,1.57080,0.11675,-0.12763,-0.48148,0.03573,,,,,,,,,,,,,,,,,,,,,,,,,,0,0,0,0,0
2.7527,1783968828.4406,1,1,7.0000,-0.0000,1.42243,-0.00408,-2.63167,1.06493,1.57080,0.11675,-0.12763,-0.48147,0.03572,,,,,,,,,,,,,,,,,,,,,,,,,,0,0,0,0,0
2.7551,1783968828.4430,1,1,7.0000,-0.0000,1.42243,-0.00408,-2.63167,1.06493,1.57080,0.11675,-0.12763,-0.48147,0.03572,,,,,,,,,,,,,,,,,,,,,,,,,,0,0,0,0,0
2.7555,1783968828.4434,1,1,7.0000,-0.0000,1.42243,-0.00408,-2.63167,1.06493,1.57080,0.11675,-0.12763,-0.48147,0.03572,,,,,,,,,,,,,,,,,,,,,,,,,,0,0,0,0,0
2.7594,1783968828.4473,1,1,7.0000,-0.0000,1.42243,-0.00410,-2.63169,1.06495,1.57080,0.11675,-0.12764,-0.48147,0.03571,,,,,,,,,,,,,,,,,,,,,,,,,,0,0,0,0,0
2.7599,1783968828.4477,1,1,7.0000,-0.0000,1.42243,-0.00410,-2.63169,1.06495,1.57080,0.11675,-0.12764,-0.48147,0.03571,,,,,,,,,,,,,,,,,,,,,,,,,,0,0,0,0,0
2.7637,1783968828.4515,1,1,7.0000,-0.0000,1.42243,-0.00410,-2.63169,1.06495,1.57080,0.11675,-0.12764,-0.48147,0.03571,,,,,,,,,,,,,,,,,,,,,,,,,,0,0,0,0,0
2.7642,1783968828.4520,1,1,7.0000,-0.0000,1.42243,-0.00410,-2.63169,1.06495,1.57080,0.11675,-0.12764,-0.48147,0.03571,,,,,,,,,,,,,,,,,,,,,,,,,,0,0,0,0,0
2.7731,1783968828.4609,1,1,7.0000,-0.0000,1.42243,-0.00413,-2.63170,1.06499,1.57080,0.11675,-0.12764,-0.48146,0.03570,,,,,,,,,,,,,,,,,,,,,,,,,,0,0,0,0,0
2.7736,1783968828.4615,1,1,7.0000,-0.0000,1.42243,-0.00413,-2.63170,1.06499,1.57080,0.11675,-0.12764,-0.48146,0.03570,,,,,,,,,,,,,,,,,,,,,,,,,,0,0,0,0,0
2.7782,1783968828.4661,1,1,7.0000,-0.0000,1.42243,-0.00416,-2.63171,1.06502,1.57080,0.11675,-0.12764,-0.48146,0.03569,,,,,,,,,,,,,,,,,,,,,,,,,,0,0,0,0,0
2.7968,1783968828.4847,1,1,7.0000,-0.0000,1.42243,-0.00423,-2.63173,1.06511,1.57080,0.11675,-0.12764,-0.48145,0.03566,,,,,,,,,,,,,,,,,,,,,,,,,,0,0,0,0,0
2.7971,1783968828.4849,1,1,7.0000,-0.0000,1.42243,-0.00423,-2.63173,1.06511,1.57080,0.11675,-0.12764,-0.48145,0.03566,,,,,,,,,,,,,,,,,,,,,,,,,,0,0,0,0,0
2.8010,1783968828.4888,1,1,7.0000,-0.0000,1.42243,-0.00426,-2.63174,1.06515,1.57080,0.11675,-0.12764,-0.48145,0.03565,,,,,,,,,,,,,,,,,,,,,,,,,,0,0,0,0,0
2.8081,1783968828.4960,1,1,7.0000,-0.0000,1.42243,-0.00430,-2.63175,1.06520,1.57080,0.11675,-0.12764,-0.48145,0.03563,,,,,,,,,,,,,,,,,,,,,,,,,,0,0,0,0,0
2.8087,1783968828.4966,1,1,7.0000,-0.0000,1.42243,-0.00435,-2.63176,1.06525,1.57080,0.11675,-0.12764,-0.48145,0.03562,,,,,,,,,,,,,,,,,,,,,,,,,,0,0,0,0,0
2.8201,1783968828.5080,1,1,7.0000,-0.0000,1.42243,-0.00445,-2.63178,1.06538,1.57080,0.11675,-0.12764,-0.48145,0.03558,,,,,,,,,,,,,,,,,,,,,,,,,,0,0,0,0,0
2.8370,1783968828.5248,1,1,7.0000,-0.0000,1.42243,-0.00453,-2.63180,1.06547,1.57080,0.11675,-0.12764,-0.48145,0.03556,,,,,,,,,,,,,,,,,,,,,,,,,,0,0,0,0,0
2.8396,1783968828.5275,1,1,7.0000,-0.0000,1.42243,-0.00453,-2.63180,1.06547,1.57080,0.11675,-0.12764,-0.48145,0.03556,,,,,,,,,,,,,,,,,,,,,,,,,,0,0,0,0,0
2.8399,1783968828.5278,1,1,7.0000,-0.0000,1.42243,-0.00453,-2.63180,1.06547,1.57080,0.11675,-0.12764,-0.48145,0.03556,,,,,,,,,,,,,,,,,,,,,,,,,,0,0,0,0,0
2.8546,1783968828.5425,1,1,7.0000,-0.0000,1.42242,-0.00466,-2.63182,1.06562,1.57080,0.11675,-0.12764,-0.48146,0.03552,,,,,,,,,,,,,,,,,,,,,,,,,,0,0,0,0,0
2.8549,1783968828.5428,1,1,7.0000,-0.0000,1.42242,-0.00466,-2.63182,1.06562,1.57080,0.11675,-0.12764,-0.48146,0.03552,,,,,,,,,,,,,,,,,,,,,,,,,,0,0,0,0,0
2.8594,1783968828.5473,1,1,7.0000,-0.0000,1.42242,-0.00466,-2.63182,1.06563,1.57080,0.11675,-0.12764,-0.48146,0.03551,,,,,,,,,,,,,,,,,,,,,,,,,,0,0,0,0,0
2.8598,1783968828.5476,1,1,7.0000,-0.0000,1.42242,-0.00466,-2.63182,1.06563,1.57080,0.11675,-0.12764,-0.48146,0.03551,,,,,,,,,,,,,,,,,,,,,,,,,,0,0,0,0,0
2.8694,1783968828.5573,1,1,7.0000,-0.0000,1.42242,-0.00473,-2.63183,1.06570,1.57080,0.11675,-0.12764,-0.48146,0.03549,,,,,,,,,,,,,,,,,,,,,,,,,,0,0,0,0,0
2.8778,1783968828.5657,1,1,7.0000,-0.0000,1.42242,-0.00480,-2.63184,1.06579,1.57080,0.11675,-0.12763,-0.48146,0.03547,,,,,,,,,,,,,,,,,,,,,,,,,,0,0,0,0,0
2.8933,1783968828.5812,1,1,7.0000,-0.0000,1.42242,-0.00498,-2.63186,1.06601,1.57080,0.11675,-0.12763,-0.48148,0.03542,,,,,,,,,,,,,,,,,,,,,,,,,,0,0,0,0,0
2.8937,1783968828.5815,1,1,7.0000,-0.0000,1.42242,-0.00498,-2.63186,1.06601,1.57080,0.11675,-0.12763,-0.48148,0.03542,,,,,,,,,,,,,,,,,,,,,,,,,,0,0,0,0,0
2.8986,1783968828.5865,1,1,7.0000,-0.0000,1.42242,-0.00502,-2.63187,1.06606,1.57080,0.11675,-0.12763,-0.48148,0.03541,,,,,,,,,,,,,,,,,,,,,,,,,,0,0,0,0,0
2.9087,1783968828.5965,1,1,7.0000,-0.0000,1.42242,-0.00513,-2.63188,1.06620,1.57080,0.11675,-0.12763,-0.48149,0.03538,,,,,,,,,,,,,,,,,,,,,,,,,,0,0,0,0,0
2.9090,1783968828.5968,1,1,7.0000,-0.0000,1.42242,-0.00513,-2.63188,1.06620,1.57080,0.11675,-0.12763,-0.48149,0.03538,,,,,,,,,,,,,,,,,,,,,,,,,,0,0,0,0,0
2.9217,1783968828.6096,1,1,7.0000,-0.0000,1.42242,-0.00516,-2.63188,1.06624,1.57080,0.11675,-0.12763,-0.48149,0.03537,,,,,,,,,,,,,,,,,,,,,,,,,,0,0,0,0,0
2.9315,1783968828.6194,1,1,7.0000,-0.0000,1.42242,-0.00516,-2.63188,1.06624,1.57080,0.11675,-0.12763,-0.48149,0.03537,,,,,,,,,,,,,,,,,,,,,,,,,,0,0,0,0,0
2.9427,1783968828.6306,1,1,7.0000,-0.0000,1.42242,-0.00516,-2.63188,1.06624,1.57080,0.11675,-0.12763,-0.48149,0.03537,,,,,,,,,,,,,,,,,,,,,,,,,,0,0,0,0,0
2.9636,1783968828.6515,1,1,7.0000,-0.0000,1.42242,-0.00516,-2.63188,1.06624,1.57080,0.11675,-0.12763,-0.48149,0.03537,,,,,,,,,,,,,,,,,,,,,,,,,,0,0,0,0,0
2.9647,1783968828.6526,1,1,7.0000,-0.0000,1.42242,-0.00516,-2.63188,1.06624,1.57080,0.11675,-0.12763,-0.48149,0.03537,,,,,,,,,,,,,,,,,,,,,,,,,,0,0,0,0,0
2.9808,1783968828.6687,1,1,7.0000,-0.0000,1.42242,-0.00516,-2.63188,1.06624,1.57080,0.11675,-0.12763,-0.48149,0.03537,,,,,,,,,,,,,,,,,,,,,,,,,,0,0,0,0,0
2.9821,1783968828.6699,1,1,7.0000,-0.0000,1.42242,-0.00516,-2.63188,1.06624,1.57080,0.11675,-0.12763,-0.48149,0.03537,,,,,,,,,,,,,,,,,,,,,,,,,,0,0,0,0,0
2.9962,1783968828.6840,1,1,7.0000,-0.0000,1.42242,-0.00516,-2.63188,1.06624,1.57080,0.11675,-0.12763,-0.48149,0.03537,,,,,,,,,,,,,,,,,,,,,,,,,,0,0,0,0,0
3.0008,1783968828.6886,1,1,7.0000,-0.0000,1.42242,-0.00516,-2.63188,1.06624,1.57080,0.11675,-0.12763,-0.48149,0.03537,,,,,,,,,,,,,,,,,,,,,,,,,,0,0,0,0,0
3.0122,1783968828.7001,1,1,7.0000,-0.0000,1.42242,-0.00516,-2.63188,1.06624,1.57080,0.11675,-0.12763,-0.48149,0.03537,,,,,,,,,,,,,,,,,,,,,,,,,,0,0,0,0,0
3.0205,1783968828.7084,1,1,7.0000,-0.0000,1.42242,-0.00516,-2.63188,1.06624,1.57080,0.11675,-0.12763,-0.48149,0.03537,,,,,,,,,,,,,,,,,,,,,,,,,,0,0,0,0,0
3.0208,1783968828.7086,1,1,7.0000,-0.0000,1.42242,-0.00516,-2.63188,1.06624,1.57080,0.11675,-0.12763,-0.48149,0.03537,,,,,,,,,,,,,,,,,,,,,,,,,,0,0,0,0,0
3.0321,1783968828.7200,1,1,7.0000,-0.0000,1.42242,-0.00516,-2.63188,1.06624,1.57080,0.11675,-0.12763,-0.48149,0.03537,,,,,,,,,,,,,,,,,,,,,,,,,,0,0,0,0,0
3.0384,1783968828.7263,1,1,7.0000,-0.0000,1.42242,-0.00516,-2.63188,1.06624,1.57080,0.11675,-0.12763,-0.48149,0.03537,,,,,,,,,,,,,,,,,,,,,,,,,,0,0,0,0,0
3.0492,1783968828.7370,1,1,7.0000,-0.0000,1.42242,-0.00516,-2.63188,1.06624,1.57080,0.11675,-0.12763,-0.48149,0.03537,,,,,,,,,,,,,,,,,,,,,,,,,,0,0,0,0,0
3.0618,1783968828.7497,1,1,7.0000,-0.0000,1.42242,-0.00516,-2.63188,1.06624,1.57080,0.11675,-0.12763,-0.48149,0.03537,,,,,,,,,,,,,,,,,,,,,,,,,,0,0,0,0,0
3.0714,1783968828.7593,1,1,7.0000,-0.0000,1.42242,-0.00516,-2.63188,1.06624,1.57080,0.11675,-0.12763,-0.48149,0.03537,,,,,,,,,,,,,,,,,,,,,,,,,,0,0,0,0,0
3.0813,1783968828.7692,1,1,7.0000,-0.0000,1.42242,-0.00516,-2.63188,1.06624,1.57080,0.11675,-0.12763,-0.48149,0.03537,,,,,,,,,,,,,,,,,,,,,,,,,,0,0,0,0,0
3.0903,1783968828.7781,1,1,7.0000,-0.0000,1.42242,-0.00516,-2.63188,1.06624,1.57080,0.11675,-0.12763,-0.48149,0.03537,,,,,,,,,,,,,,,,,,,,,,,,,,0,0,0,0,0
3.1086,1783968828.7965,1,1,7.0000,-0.0000,1.42242,-0.00516,-2.63188,1.06624,1.57080,0.11675,-0.12763,-0.48149,0.03537,,,,,,,,,,,,,,,,,,,,,,,,,,0,0,0,0,0
3.1130,1783968828.8009,1,1,7.0000,-0.0000,1.42242,-0.00516,-2.63188,1.06624,1.57080,0.11675,-0.12763,-0.48149,0.03537,,,,,,,,,,,,,,,,,,,,,,,,,,0,0,0,0,0
3.1133,1783968828.8012,1,1,7.0000,-0.0000,1.42242,-0.00516,-2.63188,1.06624,1.57080,0.11675,-0.12763,-0.48149,0.03537,,,,,,,,,,,,,,,,,,,,,,,,,,0,0,0,0,0
3.1216,1783968828.8094,1,1,7.0000,-0.0000,1.42242,-0.00516,-2.63188,1.06624,1.57080,0.11675,-0.12763,-0.48149,0.03537,,,,,,,,,,,,,,,,,,,,,,,,,,0,0,0,0,0
3.1335,1783968828.8214,1,1,7.0000,-0.0000,1.42242,-0.00516,-2.63188,1.06624,1.57080,0.11675,-0.12763,-0.48149,0.03537,,,,,,,,,,,,,,,,,,,,,,,,,,0,0,0,0,0
3.1408,1783968828.8287,1,1,7.0000,-0.0000,1.42242,-0.00517,-2.63188,1.06625,1.57080,0.11675,-0.12763,-0.48150,0.03537,,,,,,,,,,,,,,,,,,,,,,,,,,0,0,0,0,0
3.1519,1783968828.8397,1,1,7.0000,-0.0000,1.42242,-0.00517,-2.63188,1.06626,1.57080,0.11675,-0.12763,-0.48150,0.03537,,,,,,,,,,,,,,,,,,,,,,,,,,0,0,0,0,0
3.1635,1783968828.8514,1,1,7.0000,-0.0000,1.42242,-0.00519,-2.63190,1.06629,1.57080,0.11675,-0.12763,-0.48149,0.03536,,,,,,,,,,,,,,,,,,,,,,,,,,0,0,0,0,0
3.1702,1783968828.8581,1,1,7.0000,-0.0000,1.42242,-0.00522,-2.63192,1.06632,1.57080,0.11675,-0.12763,-0.48148,0.03534,,,,,,,,,,,,,,,,,,,,,,,,,,0,0,0,0,0
3.1828,1783968828.8707,1,1,7.0000,-0.0000,1.42242,-0.00526,-2.63195,1.06637,1.57080,0.11675,-0.12763,-0.48146,0.03532,,,,,,,,,,,,,,,,,,,,,,,,,,0,0,0,0,0
3.1910,1783968828.8789,1,1,7.0000,-0.0000,1.42242,-0.00527,-2.63196,1.06639,1.57080,0.11675,-0.12763,-0.48146,0.03531,,,,,,,,,,,,,,,,,,,,,,,,,,0,0,0,0,0
3.2009,1783968828.8888,1,1,7.0000,-0.0000,1.42242,-0.00533,-2.63198,1.06645,1.57080,0.11675,-0.12764,-0.48145,0.03528,,,,,,,,,,,,,,,,,,,,,,,,,,0,0,0,0,0
3.2106,1783968828.8985,1,1,7.0000,-0.0000,1.42242,-0.00538,-2.63201,1.06652,1.57080,0.11675,-0.12764,-0.48144,0.03526,,,,,,,,,,,,,,,,,,,,,,,,,,0,0,0,0,0
3.2216,1783968828.9095,1,1,7.0000,-0.0000,1.42242,-0.00540,-2.63201,1.06654,1.57080,0.11675,-0.12764,-0.48144,0.03525,,,,,,,,,,,,,,,,,,,,,,,,,,0,0,0,0,0
3.2363,1783968828.9242,1,1,7.0000,-0.0000,1.42242,-0.00549,-2.63203,1.06664,1.57080,0.11675,-0.12764,-0.48144,0.03522,,,,,,,,,,,,,,,,,,,,,,,,,,0,0,0,0,0
3.2369,1783968828.9247,1,1,7.0000,-0.0000,1.42242,-0.00549,-2.63203,1.06664,1.57080,0.11675,-0.12764,-0.48144,0.03522,,,,,,,,,,,,,,,,,,,,,,,,,,0,0,0,0,0
3.2381,1783968828.9259,1,1,7.0000,-0.0000,1.42242,-0.00549,-2.63203,1.06664,1.57080,0.11675,-0.12764,-0.48144,0.03522,,,,,,,,,,,,,,,,,,,,,,,,,,0,0,0,0,0
3.2533,1783968828.9411,1,1,7.0000,-0.0000,1.42242,-0.00559,-2.63205,1.06676,1.57080,0.11675,-0.12764,-0.48144,0.03519,,,,,,,,,,,,,,,,,,,,,,,,,,0,0,0,0,0
3.2612,1783968828.9490,1,1,7.0000,-0.0000,1.42242,-0.00569,-2.63206,1.06689,1.57080,0.11675,-0.12764,-0.48145,0.03516,,,,,,,,,,,,,,,,,,,,,,,,,,0,0,0,0,0
3.2716,1783968828.9594,1,1,7.0000,-0.0000,1.42242,-0.00575,-2.63207,1.06696,1.57080,0.11675,-0.12763,-0.48145,0.03514,,,,,,,,,,,,,,,,,,,,,,,,,,0,0,0,0,0
3.2848,1783968828.9727,1,1,7.0000,-0.0000,1.42242,-0.00583,-2.63208,1.06705,1.57080,0.11675,-0.12763,-0.48145,0.03512,,,,,,,,,,,,,,,,,,,,,,,,,,0,0,0,0,0
3.2933,1783968828.9812,1,1,7.0000,-0.0000,1.42242,-0.00591,-2.63210,1.06716,1.57080,0.11675,-0.12763,-0.48146,0.03509,,,,,,,,,,,,,,,,,,,,,,,,,,0,0,0,0,0
3.2937,1783968828.9816,1,1,7.0000,-0.0000,1.42242,-0.00591,-2.63210,1.06716,1.57080,0.11675,-0.12763,-0.48146,0.03509,,,,,,,,,,,,,,,,,,,,,,,,,,0,0,0,0,0
3.3047,1783968828.9926,1,1,7.0000,-0.0000,1.42242,-0.00606,-2.63212,1.06734,1.57080,0.11675,-0.12763,-0.48147,0.03505,,,,,,,,,,,,,,,,,,,,,,,,,,0,0,0,0,0
3.3051,1783968828.9930,1,1,7.0000,-0.0000,1.42242,-0.00606,-2.63212,1.06734,1.57080,0.11675,-0.12763,-0.48147,0.03505,,,,,,,,,,,,,,,,,,,,,,,,,,0,0,0,0,0
3.3095,1783968828.9974,1,1,7.0000,-0.0000,1.42242,-0.00611,-2.63212,1.06740,1.57080,0.11675,-0.12763,-0.48147,0.03503,,,,,,,,,,,,,,,,,,,,,,,,,,0,0,0,0,0
3.3099,1783968828.9978,1,1,7.0000,-0.0000,1.42242,-0.00611,-2.63212,1.06740,1.57080,0.11675,-0.12763,-0.48147,0.03503,,,,,,,,,,,,,,,,,,,,,,,,,,0,0,0,0,0
3.3238,1783968829.0117,1,1,7.0000,-0.0000,1.42242,-0.00624,-2.63214,1.06756,1.57080,0.11675,-0.12763,-0.48148,0.03499,,,,,,,,,,,,,,,,,,,,,,,,,,0,0,0,0,0
3.3327,1783968829.0206,1,1,7.0000,-0.0000,1.42242,-0.00630,-2.63215,1.06764,1.57080,0.11675,-0.12763,-0.48148,0.03498,,,,,,,,,,,,,,,,,,,,,,,,,,0,0,0,0,0
3.3328,1783968829.0207,1,1,7.0000,-0.0000,1.42242,-0.00630,-2.63215,1.06764,1.57080,0.11675,-0.12763,-0.48148,0.03498,,,,,,,,,,,,,,,,,,,,,,,,,,0,0,0,0,0
3.3410,1783968829.0289,1,1,7.0000,-0.0000,1.42242,-0.00630,-2.63215,1.06764,1.57080,0.11675,-0.12763,-0.48148,0.03498,,,,,,,,,,,,,,,,,,,,,,,,,,0,0,0,0,0
3.3516,1783968829.0394,1,1,7.0000,-0.0000,1.42242,-0.00630,-2.63215,1.06764,1.57080,0.11675,-0.12763,-0.48148,0.03498,,,,,,,,,,,,,,,,,,,,,,,,,,0,0,0,0,0
3.3639,1783968829.0517,1,1,7.0000,-0.0000,1.42242,-0.00630,-2.63215,1.06764,1.57080,0.11675,-0.12763,-0.48148,0.03498,,,,,,,,,,,,,,,,,,,,,,,,,,0,0,0,0,0
3.3709,1783968829.0587,1,1,7.0000,-0.0000,1.42242,-0.00630,-2.63215,1.06764,1.57080,0.11675,-0.12763,-0.48148,0.03498,,,,,,,,,,,,,,,,,,,,,,,,,,0,0,0,0,0
3.3824,1783968829.0703,1,1,7.0000,-0.0000,1.42242,-0.00630,-2.63215,1.06764,1.57080,0.11675,-0.12763,-0.48148,0.03498,,,,,,,,,,,,,,,,,,,,,,,,,,0,0,0,0,0
3.3882,1783968829.0760,1,1,7.0000,-0.0000,1.42242,-0.00630,-2.63215,1.06764,1.57080,0.11675,-0.12763,-0.48148,0.03498,,,,,,,,,,,,,,,,,,,,,,,,,,0,0,0,0,0
3.3888,1783968829.0767,1,1,7.0000,-0.0000,1.42242,-0.00630,-2.63215,1.06764,1.57080,0.11675,-0.12763,-0.48148,0.03498,,,,,,,,,,,,,,,,,,,,,,,,,,0,0,0,0,0
3.4117,1783968829.0995,1,1,7.0000,-0.0000,1.42242,-0.00630,-2.63215,1.06764,1.57080,0.11675,-0.12763,-0.48148,0.03498,,,,,,,,,,,,,,,,,,,,,,,,,,0,0,0,0,0
3.4123,1783968829.1002,1,1,7.0000,-0.0000,1.42242,-0.00630,-2.63215,1.06764,1.57080,0.11675,-0.12763,-0.48148,0.03498,,,,,,,,,,,,,,,,,,,,,,,,,,0,0,0,0,0
3.4227,1783968829.1105,1,1,7.0000,-0.0000,1.42242,-0.00630,-2.63215,1.06764,1.57080,0.11675,-0.12763,-0.48148,0.03498,,,,,,,,,,,,,,,,,,,,,,,,,,0,0,0,0,0
3.4291,1783968829.1170,1,1,7.0000,-0.0000,1.42242,-0.00630,-2.63215,1.06764,1.57080,0.11675,-0.12763,-0.48148,0.03498,,,,,,,,,,,,,,,,,,,,,,,,,,0,0,0,0,0
3.4295,1783968829.1174,1,1,7.0000,-0.0000,1.42242,-0.00630,-2.63215,1.06764,1.57080,0.11675,-0.12763,-0.48148,0.03498,,,,,,,,,,,,,,,,,,,,,,,,,,0,0,0,0,0
3.4448,1783968829.1327,1,1,7.0000,-0.0000,1.42242,-0.00630,-2.63215,1.06764,1.57080,0.11675,-0.12763,-0.48148,0.03498,,,,,,,,,,,,,,,,,,,,,,,,,,0,0,0,0,0
3.4492,1783968829.1370,1,1,7.0000,-0.0000,1.42242,-0.00630,-2.63215,1.06764,1.57080,0.11675,-0.12763,-0.48148,0.03498,,,,,,,,,,,,,,,,,,,,,,,,,,0,0,0,0,0
3.4628,1783968829.1507,1,1,7.0000,-0.0000,1.42242,-0.00630,-2.63215,1.06764,1.57080,0.11675,-0.12763,-0.48148,0.03498,,,,,,,,,,,,,,,,,,,,,,,,,,0,0,0,0,0
3.4734,1783968829.1613,1,1,7.0000,-0.0000,1.42242,-0.00630,-2.63215,1.06764,1.57080,0.11675,-0.12763,-0.48148,0.03498,,,,,,,,,,,,,,,,,,,,,,,,,,0,0,0,0,0
3.4738,1783968829.1617,1,1,7.0000,-0.0000,1.42242,-0.00630,-2.63215,1.06764,1.57080,0.11675,-0.12763,-0.48148,0.03498,,,,,,,,,,,,,,,,,,,,,,,,,,0,0,0,0,0
3.4788,1783968829.1667,1,1,7.0000,-0.0000,1.42242,-0.00630,-2.63215,1.06764,1.57080,0.11675,-0.12763,-0.48148,0.03498,,,,,,,,,,,,,,,,,,,,,,,,,,0,0,0,0,0
3.4901,1783968829.1780,1,1,7.0000,-0.0000,1.42242,-0.00630,-2.63215,1.06764,1.57080,0.11675,-0.12763,-0.48148,0.03498,,,,,,,,,,,,,,,,,,,,,,,,,,0,0,0,0,0
3.5117,1783968829.1996,1,1,7.0000,-0.0000,1.42242,-0.00630,-2.63215,1.06764,1.57080,0.11675,-0.12763,-0.48148,0.03498,,,,,,,,,,,,,,,,,,,,,,,,,,0,0,0,0,0
3.5163,1783968829.2041,1,1,7.0000,-0.0000,1.42242,-0.00630,-2.63215,1.06764,1.57080,0.11675,-0.12763,-0.48148,0.03498,,,,,,,,,,,,,,,,,,,,,,,,,,0,0,0,0,0
3.5168,1783968829.2047,1,1,7.0000,-0.0000,1.42242,-0.00630,-2.63215,1.06764,1.57080,0.11675,-0.12763,-0.48148,0.03498,,,,,,,,,,,,,,,,,,,,,,,,,,0,0,0,0,0
3.5243,1783968829.2121,1,1,7.0000,-0.0000,1.42242,-0.00630,-2.63215,1.06764,1.57080,0.11675,-0.12763,-0.48148,0.03498,,,,,,,,,,,,,,,,,,,,,,,,,,0,0,0,0,0
3.5306,1783968829.2185,1,1,7.0000,-0.0000,1.42242,-0.00630,-2.63215,1.06764,1.57080,0.11675,-0.12763,-0.48148,0.03498,,,,,,,,,,,,,,,,,,,,,,,,,,0,0,0,0,0
3.5309,1783968829.2188,1,1,7.0000,-0.0000,1.42242,-0.00630,-2.63215,1.06764,1.57080,0.11675,-0.12763,-0.48148,0.03498,,,,,,,,,,,,,,,,,,,,,,,,,,0,0,0,0,0
3.5433,1783968829.2311,1,1,7.0000,-0.0000,1.42242,-0.00630,-2.63215,1.06764,1.57080,0.11675,-0.12763,-0.48148,0.03498,,,,,,,,,,,,,,,,,,,,,,,,,,0,0,0,0,0
3.5505,1783968829.2383,1,1,7.0000,-0.0000,1.42242,-0.00631,-2.63215,1.06764,1.57080,0.11675,-0.12763,-0.48149,0.03498,,,,,,,,,,,,,,,,,,,,,,,,,,0,0,0,0,0
3.5635,1783968829.2514,1,1,7.0000,-0.0000,1.42242,-0.00633,-2.63214,1.06768,1.57080,0.11675,-0.12763,-0.48149,0.03497,,,,,,,,,,,,,,,,,,,,,,,,,,0,0,0,0,0
3.5717,1783968829.2596,1,1,7.0000,-0.0000,1.42242,-0.00635,-2.63214,1.06771,1.57080,0.11675,-0.12763,-0.48150,0.03497,,,,,,,,,,,,,,,,,,,,,,,,,,0,0,0,0,0
3.5808,1783968829.2687,1,1,7.0000,-0.0000,1.42242,-0.00636,-2.63215,1.06772,1.57080,0.11675,-0.12763,-0.48149,0.03497,,,,,,,,,,,,,,,,,,,,,,,,,,0,0,0,0,0
3.5812,1783968829.2691,1,1,7.0000,-0.0000,1.42242,-0.00636,-2.63215,1.06772,1.57080,0.11675,-0.12763,-0.48149,0.03497,,,,,,,,,,,,,,,,,,,,,,,,,,0,0,0,0,0
3.5926,1783968829.2805,1,1,7.0000,-0.0000,1.42242,-0.00640,-2.63218,1.06776,1.57080,0.11675,-0.12763,-0.48148,0.03494,,,,,,,,,,,,,,,,,,,,,,,,,,0,0,0,0,0
3.6018,1783968829.2896,1,1,7.0000,-0.0000,1.42242,-0.00644,-2.63220,1.06781,1.57080,0.11675,-0.12763,-0.48147,0.03492,,,,,,,,,,,,,,,,,,,,,,,,,,0,0,0,0,0
3.6100,1783968829.2979,1,1,7.0000,-0.0000,1.42242,-0.00649,-2.63224,1.06787,1.57080,0.11675,-0.12763,-0.48145,0.03489,,,,,,,,,,,,,,,,,,,,,,,,,,0,0,0,0,0
3.6215,1783968829.3093,1,1,7.0000,-0.0000,1.42242,-0.00657,-2.63229,1.06797,1.57080,0.11675,-0.12764,-0.48142,0.03485,,,,,,,,,,,,,,,,,,,,,,,,,,0,0,0,0,0
3.6320,1783968829.3198,1,1,7.0000,-0.0000,1.42242,-0.00660,-2.63231,1.06800,1.57080,0.11675,-0.12764,-0.48141,0.03483,,,,,,,,,,,,,,,,,,,,,,,,,,0,0,0,0,0
3.6416,1783968829.3294,1,1,7.0000,-0.0000,1.42242,-0.00663,-2.63231,1.06804,1.57080,0.11675,-0.12764,-0.48142,0.03482,,,,,,,,,,,,,,,,,,,,,,,,,,0,0,0,0,0
3.6418,1783968829.3297,1,1,7.0000,-0.0000,1.42242,-0.00663,-2.63231,1.06804,1.57080,0.11675,-0.12764,-0.48142,0.03482,,,,,,,,,,,,,,,,,,,,,,,,,,0,0,0,0,0
3.6532,1783968829.3411,1,1,7.0000,-0.0000,1.42242,-0.00672,-2.63232,1.06814,1.57080,0.11675,-0.12764,-0.48142,0.03480,,,,,,,,,,,,,,,,,,,,,,,,,,0,0,0,0,0
3.6618,1783968829.3497,1,1,7.0000,-0.0000,1.42242,-0.00679,-2.63233,1.06823,1.57080,0.11675,-0.12764,-0.48143,0.03478,,,,,,,,,,,,,,,,,,,,,,,,,,0,0,0,0,0
3.6621,1783968829.3500,1,1,7.0000,-0.0000,1.42242,-0.00679,-2.63233,1.06823,1.57080,0.11675,-0.12764,-0.48143,0.03478,,,,,,,,,,,,,,,,,,,,,,,,,,0,0,0,0,0
3.6705,1783968829.3584,1,1,7.0000,-0.0000,1.42242,-0.00680,-2.63233,1.06824,1.57080,0.11675,-0.12764,-0.48143,0.03478,,,,,,,,,,,,,,,,,,,,,,,,,,0,0,0,0,0
3.6708,1783968829.3587,1,1,7.0000,-0.0000,1.42242,-0.00680,-2.63233,1.06824,1.57080,0.11675,-0.12764,-0.48143,0.03478,,,,,,,,,,,,,,,,,,,,,,,,,,0,0,0,0,0
3.6779,1783968829.3658,1,1,7.0000,-0.0000,1.42242,-0.00684,-2.63233,1.06829,1.57080,0.11675,-0.12763,-0.48143,0.03476,,,,,,,,,,,,,,,,,,,,,,,,,,0,0,0,0,0
3.6969,1783968829.3848,1,1,7.0000,-0.0000,1.42242,-0.00693,-2.63234,1.06840,1.57080,0.11675,-0.12763,-0.48144,0.03474,,,,,,,,,,,,,,,,,,,,,,,,,,0,0,0,0,0
3.6998,1783968829.3876,1,1,7.0000,-0.0000,1.42242,-0.00693,-2.63234,1.06840,1.57080,0.11675,-0.12763,-0.48144,0.03474,,,,,,,,,,,,,,,,,,,,,,,,,,0,0,0,0,0
3.7002,1783968829.3881,1,1,7.0000,-0.0000,1.42242,-0.00693,-2.63234,1.06840,1.57080,0.11675,-0.12763,-0.48144,0.03474,,,,,,,,,,,,,,,,,,,,,,,,,,0,0,0,0,0
3.7133,1783968829.4011,1,1,7.0000,-0.0000,1.42242,-0.00708,-2.63236,1.06858,1.57080,0.11675,-0.12763,-0.48145,0.03469,,,,,,,,,,,,,,,,,,,,,,,,,,0,0,0,0,0
3.7136,1783968829.4014,1,1,7.0000,-0.0000,1.42242,-0.00708,-2.63236,1.06858,1.57080,0.11675,-0.12763,-0.48145,0.03469,,,,,,,,,,,,,,,,,,,,,,,,,,0,0,0,0,0
3.7209,1783968829.4087,1,1,7.0000,-0.0000,1.42242,-0.00713,-2.63237,1.06864,1.57080,0.11675,-0.12763,-0.48146,0.03468,,,,,,,,,,,,,,,,,,,,,,,,,,0,0,0,0,0
3.7212,1783968829.4090,1,1,7.0000,-0.0000,1.42242,-0.00713,-2.63237,1.06864,1.57080,0.11675,-0.12763,-0.48146,0.03468,,,,,,,,,,,,,,,,,,,,,,,,,,0,0,0,0,0
3.7305,1783968829.4183,1,1,7.0000,-0.0000,1.42242,-0.00715,-2.63237,1.06866,1.57080,0.11675,-0.12763,-0.48146,0.03467,,,,,,,,,,,,,,,,,,,,,,,,,,0,0,0,0,0
3.7382,1783968829.4261,1,1,7.0000,-0.0000,1.42242,-0.00720,-2.63237,1.06872,1.57080,0.11675,-0.12763,-0.48147,0.03466,,,,,,,,,,,,,,,,,,,,,,,,,,0,0,0,0,0
3.7505,1783968829.4383,1,1,7.0000,-0.0000,1.42242,-0.00730,-2.63237,1.06886,1.57080,0.11675,-0.12763,-0.48148,0.03464,,,,,,,,,,,,,,,,,,,,,,,,,,0,0,0,0,0
3.7641,1783968829.4520,1,1,7.0000,-0.0000,1.42241,-0.00742,-2.63236,1.06900,1.57080,0.11675,-0.12762,-0.48151,0.03461,,,,,,,,,,,,,,,,,,,,,,,,,,0,0,0,0,0
3.7728,1783968829.4606,1,1,7.0000,-0.0000,1.42241,-0.00752,-2.63235,1.06913,1.57080,0.11675,-0.12762,-0.48153,0.03460,,,,,,,,,,,,,,,,,,,,,,,,,,0,0,0,0,0
3.7732,1783968829.4610,1,1,7.0000,-0.0000,1.42241,-0.00752,-2.63235,1.06913,1.57080,0.11675,-0.12762,-0.48153,0.03460,,,,,,,,,,,,,,,,,,,,,,,,,,0,0,0,0,0
3.7810,1783968829.4688,1,1,7.0000,-0.0000,1.42241,-0.00756,-2.63234,1.06918,1.57080,0.11675,-0.12762,-0.48155,0.03459,,,,,,,,,,,,,,,,,,,,,,,,,,0,0,0,0,0
3.7813,1783968829.4692,1,1,7.0000,-0.0000,1.42241,-0.00756,-2.63234,1.06918,1.57080,0.11675,-0.12762,-0.48155,0.03459,,,,,,,,,,,,,,,,,,,,,,,,,,0,0,0,0,0
3.7915,1783968829.4794,1,1,7.0000,-0.0000,1.42241,-0.00756,-2.63234,1.06918,1.57080,0.11675,-0.12762,-0.48155,0.03459,,,,,,,,,,,,,,,,,,,,,,,,,,0,0,0,0,0
3.8014,1783968829.4892,1,1,7.0000,-0.0000,1.42241,-0.00756,-2.63234,1.06918,1.57080,0.11675,-0.12762,-0.48155,0.03459,,,,,,,,,,,,,,,,,,,,,,,,,,0,0,0,0,0
3.8160,1783968829.5039,1,1,7.0000,-0.0000,1.42241,-0.00756,-2.63234,1.06918,1.57080,0.11675,-0.12762,-0.48155,0.03459,,,,,,,,,,,,,,,,,,,,,,,,,,0,0,0,0,0
3.8213,1783968829.5092,1,1,7.0000,-0.0000,1.42241,-0.00756,-2.63234,1.06918,1.57080,0.11675,-0.12762,-0.48155,0.03459,,,,,,,,,,,,,,,,,,,,,,,,,,0,0,0,0,0
3.8216,1783968829.5095,1,1,7.0000,-0.0000,1.42241,-0.00756,-2.63234,1.06918,1.57080,0.11675,-0.12762,-0.48155,0.03459,,,,,,,,,,,,,,,,,,,,,,,,,,0,0,0,0,0
3.8355,1783968829.5233,1,1,7.0000,-0.0000,1.42241,-0.00756,-2.63234,1.06918,1.57080,0.11675,-0.12762,-0.48155,0.03459,,,,,,,,,,,,,,,,,,,,,,,,,,0,0,0,0,0
3.8381,1783968829.5260,1,1,7.0000,-0.0000,1.42241,-0.00756,-2.63234,1.06918,1.57080,0.11675,-0.12762,-0.48155,0.03459,,,,,,,,,,,,,,,,,,,,,,,,,,0,0,0,0,0
3.8607,1783968829.5485,1,1,7.0000,-0.0000,1.42241,-0.00756,-2.63234,1.06918,1.57080,0.11675,-0.12762,-0.48155,0.03459,,,,,,,,,,,,,,,,,,,,,,,,,,0,0,0,0,0
3.8616,1783968829.5495,1,1,7.0000,-0.0000,1.42241,-0.00756,-2.63234,1.06918,1.57080,0.11675,-0.12762,-0.48155,0.03459,,,,,,,,,,,,,,,,,,,,,,,,,,0,0,0,0,0
3.8619,1783968829.5497,1,1,7.0000,-0.0000,1.42241,-0.00756,-2.63234,1.06918,1.57080,0.11675,-0.12762,-0.48155,0.03459,,,,,,,,,,,,,,,,,,,,,,,,,,0,0,0,0,0
3.8755,1783968829.5634,1,1,7.0000,-0.0000,1.42241,-0.00756,-2.63234,1.06918,1.57080,0.11675,-0.12762,-0.48155,0.03459,,,,,,,,,,,,,,,,,,,,,,,,,,0,0,0,0,0
3.8782,1783968829.5661,1,1,7.0000,-0.0000,1.42241,-0.00756,-2.63234,1.06918,1.57080,0.11675,-0.12762,-0.48155,0.03459,,,,,,,,,,,,,,,,,,,,,,,,,,0,0,0,0,0
3.8913,1783968829.5791,1,1,7.0000,-0.0000,1.42241,-0.00756,-2.63234,1.06918,1.57080,0.11675,-0.12762,-0.48155,0.03459,,,,,,,,,,,,,,,,,,,,,,,,,,0,0,0,0,0
3.9268,1783968829.6146,1,1,7.0000,-0.0000,1.42241,-0.00756,-2.63234,1.06918,1.57080,0.11675,-0.12762,-0.48155,0.03459,,,,,,,,,,,,,,,,,,,,,,,,,,0,0,0,0,0
3.9335,1783968829.6213,1,1,7.0000,-0.0000,1.42241,-0.00756,-2.63234,1.06918,1.57080,0.11675,-0.12762,-0.48155,0.03459,,,,,,,,,,,,,,,,,,,,,,,,,,0,0,0,0,0
3.9344,1783968829.6223,1,1,7.0000,-0.0000,1.42241,-0.00756,-2.63234,1.06918,1.57080,0.11675,-0.12762,-0.48155,0.03459,,,,,,,,,,,,,,,,,,,,,,,,,,0,0,0,0,0
3.9347,1783968829.6226,1,1,7.0000,-0.0000,1.42241,-0.00756,-2.63234,1.06918,1.57080,0.11675,-0.12762,-0.48155,0.03459,,,,,,,,,,,,,,,,,,,,,,,,,,0,0,0,0,0
3.9392,1783968829.6271,1,1,7.0000,-0.0000,1.42241,-0.00756,-2.63234,1.06918,1.57080,0.11675,-0.12762,-0.48155,0.03459,,,,,,,,,,,,,,,,,,,,,,,,,,0,0,0,0,0
3.9533,1783968829.6412,1,1,7.0000,-0.0000,1.42241,-0.00756,-2.63234,1.06918,1.57080,0.11675,-0.12762,-0.48155,0.03459,,,,,,,,,,,,,,,,,,,,,,,,,,0,0,0,0,0
3.9537,1783968829.6415,1,1,7.0000,-0.0000,1.42241,-0.00756,-2.63234,1.06918,1.57080,0.11675,-0.12762,-0.48155,0.03459,,,,,,,,,,,,,,,,,,,,,,,,,,0,0,0,0,0
3.9607,1783968829.6486,1,1,7.0000,-0.0000,1.42241,-0.00756,-2.63234,1.06918,1.57080,0.11675,-0.12762,-0.48155,0.03459,,,,,,,,,,,,,,,,,,,,,,,,,,0,0,0,0,0
4.0212,1783968829.7091,1,1,7.0000,-0.0000,1.42241,-0.00764,-2.63244,1.06929,1.57080,0.11675,-0.12762,-0.48149,0.03453,,,,,,,,,,,,,,,,,,,,,,,,,,0,0,0,0,0
4.0215,1783968829.7093,1,1,7.0000,-0.0000,1.42241,-0.00764,-2.63244,1.06929,1.57080,0.11675,-0.12762,-0.48149,0.03453,,,,,,,,,,,,,,,,,,,,,,,,,,0,0,0,0,0
4.0248,1783968829.7126,1,1,7.0000,-0.0000,1.42241,-0.00766,-2.63246,1.06931,1.57080,0.11675,-0.12763,-0.48148,0.03451,,,,,,,,,,,,,,,,,,,,,,,,,,0,0,0,0,0
4.0258,1783968829.7137,1,1,7.0000,-0.0000,1.42241,-0.00766,-2.63246,1.06931,1.57080,0.11675,-0.12763,-0.48148,0.03451,,,,,,,,,,,,,,,,,,,,,,,,,,0,0,0,0,0
4.0261,1783968829.7140,1,1,7.0000,-0.0000,1.42241,-0.00766,-2.63246,1.06931,1.57080,0.11675,-0.12763,-0.48148,0.03451,,,,,,,,,,,,,,,,,,,,,,,,,,0,0,0,0,0
4.0264,1783968829.7143,1,1,7.0000,-0.0000,1.42241,-0.00766,-2.63246,1.06931,1.57080,0.11675,-0.12763,-0.48148,0.03451,,,,,,,,,,,,,,,,,,,,,,,,,,0,0,0,0,0
4.0280,1783968829.7159,1,1,7.0000,-0.0000,1.42241,-0.00766,-2.63246,1.06931,1.57080,0.11675,-0.12763,-0.48148,0.03451,,,,,,,,,,,,,,,,,,,,,,,,,,0,0,0,0,0
4.0287,1783968829.7166,1,1,7.0000,-0.0000,1.42241,-0.00769,-2.63248,1.06934,1.57080,0.11675,-0.12763,-0.48147,0.03450,,,,,,,,,,,,,,,,,,,,,,,,,,0,0,0,0,0
4.0315,1783968829.7194,1,1,7.0000,-0.0000,1.42241,-0.00769,-2.63248,1.06934,1.57080,0.11675,-0.12763,-0.48147,0.03450,,,,,,,,,,,,,,,,,,,,,,,,,,0,0,0,0,0
4.0318,1783968829.7197,1,1,7.0000,-0.0000,1.42241,-0.00769,-2.63248,1.06934,1.57080,0.11675,-0.12763,-0.48147,0.03450,,,,,,,,,,,,,,,,,,,,,,,,,,0,0,0,0,0
4.0321,1783968829.7200,1,1,7.0000,-0.0000,1.42241,-0.00769,-2.63248,1.06934,1.57080,0.11675,-0.12763,-0.48147,0.03450,,,,,,,,,,,,,,,,,,,,,,,,,,0,0,0,0,0
4.0395,1783968829.7274,1,1,7.0000,-0.0000,1.42241,-0.00773,-2.63252,1.06939,1.57080,0.11675,-0.12763,-0.48144,0.03447,,,,,,,,,,,,,,,,,,,,,,,,,,0,0,0,0,0
4.0514,1783968829.7393,1,1,7.0000,-0.0000,1.42241,-0.00779,-2.63256,1.06945,1.57080,0.11675,-0.12763,-0.48142,0.03443,,,,,,,,,,,,,,,,,,,,,,,,,,0,0,0,0,0
4.0642,1783968829.7521,1,1,7.0000,-0.0000,1.42241,-0.00782,-2.63256,1.06949,1.57080,0.11675,-0.12763,-0.48142,0.03443,,,,,,,,,,,,,,,,,,,,,,,,,,0,0,0,0,0
4.0731,1783968829.7609,1,1,7.0000,-0.0000,1.42241,-0.00790,-2.63257,1.06959,1.57080,0.11675,-0.12763,-0.48143,0.03440,,,,,,,,,,,,,,,,,,,,,,,,,,0,0,0,0,0
4.0735,1783968829.7614,1,1,7.0000,-0.0000,1.42241,-0.00790,-2.63257,1.06959,1.57080,0.11675,-0.12763,-0.48143,0.03440,,,,,,,,,,,,,,,,,,,,,,,,,,0,0,0,0,0
4.0853,1783968829.7731,1,1,7.0000,-0.0000,1.42241,-0.00794,-2.63258,1.06964,1.57080,0.11675,-0.12763,-0.48143,0.03439,,,,,,,,,,,,,,,,,,,,,,,,,,0,0,0,0,0
4.0911,1783968829.7789,1,1,7.0000,-0.0000,1.42241,-0.00796,-2.63258,1.06966,1.57080,0.11675,-0.12763,-0.48144,0.03439,,,,,,,,,,,,,,,,,,,,,,,,,,0,0,0,0,0
4.1007,1783968829.7885,1,1,7.0000,-0.0000,1.42241,-0.00806,-2.63259,1.06978,1.57080,0.11675,-0.12763,-0.48144,0.03436,,,,,,,,,,,,,,,,,,,,,,,,,,0,0,0,0,0
4.1105,1783968829.7984,1,1,7.0000,-0.0000,1.42241,-0.00807,-2.63259,1.06979,1.57080,0.11675,-0.12763,-0.48144,0.03435,,,,,,,,,,,,,,,,,,,,,,,,,,0,0,0,0,0
4.1257,1783968829.8135,1,1,7.0000,-0.0000,1.42241,-0.00820,-2.63261,1.06994,1.57080,0.11675,-0.12763,-0.48145,0.03432,,,,,,,,,,,,,,,,,,,,,,,,,,0,0,0,0,0
4.1317,1783968829.8196,1,1,7.0000,-0.0000,1.42241,-0.00825,-2.63261,1.07000,1.57080,0.11675,-0.12763,-0.48145,0.03430,,,,,,,,,,,,,,,,,,,,,,,,,,0,0,0,0,0
4.1439,1783968829.8317,1,1,7.0000,-0.0000,1.42241,-0.00835,-2.63262,1.07012,1.57080,0.11675,-0.12763,-0.48146,0.03427,,,,,,,,,,,,,,,,,,,,,,,,,,0,0,0,0,0
4.1443,1783968829.8321,1,1,7.0000,-0.0000,1.42241,-0.00835,-2.63262,1.07012,1.57080,0.11675,-0.12763,-0.48146,0.03427,,,,,,,,,,,,,,,,,,,,,,,,,,0,0,0,0,0
4.1542,1783968829.8421,1,1,7.0000,-0.0000,1.42241,-0.00839,-2.63263,1.07016,1.57080,0.11675,-0.12763,-0.48147,0.03426,,,,,,,,,,,,,,,,,,,,,,,,,,0,0,0,0,0
4.1546,1783968829.8424,1,1,7.0000,-0.0000,1.42241,-0.00839,-2.63263,1.07016,1.57080,0.11675,-0.12763,-0.48147,0.03426,,,,,,,,,,,,,,,,,,,,,,,,,,0,0,0,0,0
4.1582,1783968829.8460,1,1,7.0000,-0.0000,1.42241,-0.00841,-2.63263,1.07019,1.57080,0.11675,-0.12763,-0.48147,0.03425,,,,,,,,,,,,,,,,,,,,,,,,,,0,0,0,0,0
4.1691,1783968829.8570,1,1,7.0000,-0.0000,1.42241,-0.00850,-2.63263,1.07031,1.57080,0.11675,-0.12762,-0.48148,0.03423,,,,,,,,,,,,,,,,,,,,,,,,,,0,0,0,0,0
4.1829,1783968829.8707,1,1,7.0000,-0.0000,1.42241,-0.00861,-2.63263,1.07045,1.57080,0.11675,-0.12762,-0.48150,0.03421,,,,,,,,,,,,,,,,,,,,,,,,,,0,0,0,0,0
4.1946,1783968829.8825,1,1,7.0000,-0.0000,1.42241,-0.00870,-2.63262,1.07056,1.57080,0.11675,-0.12762,-0.48152,0.03419,,,,,,,,,,,,,,,,,,,,,,,,,,0,0,0,0,0
4.2056,1783968829.8934,1,1,7.0000,-0.0000,1.42241,-0.00874,-2.63261,1.07062,1.57080,0.11675,-0.12762,-0.48154,0.03419,,,,,,,,,,,,,,,,,,,,,,,,,,0,0,0,0,0
4.2119,1783968829.8998,1,1,7.0000,-0.0000,1.42241,-0.00874,-2.63261,1.07062,1.57080,0.11675,-0.12762,-0.48154,0.03419,,,,,,,,,,,,,,,,,,,,,,,,,,0,0,0,0,0
4.2259,1783968829.9138,1,1,7.0000,-0.0000,1.42241,-0.00874,-2.63261,1.07062,1.57080,0.11675,-0.12762,-0.48154,0.03419,,,,,,,,,,,,,,,,,,,,,,,,,,0,0,0,0,0
4.2313,1783968829.9192,1,1,7.0000,-0.0000,1.42241,-0.00874,-2.63261,1.07062,1.57080,0.11675,-0.12762,-0.48154,0.03419,,,,,,,,,,,,,,,,,,,,,,,,,,0,0,0,0,0
4.2496,1783968829.9374,1,1,7.0000,-0.0000,1.42241,-0.00874,-2.63261,1.07062,1.57080,0.11675,-0.12762,-0.48154,0.03419,,,,,,,,,,,,,,,,,,,,,,,,,,0,0,0,0,0
4.2621,1783968829.9499,1,1,7.0000,-0.0000,1.42241,-0.00874,-2.63261,1.07062,1.57080,0.11675,-0.12762,-0.48154,0.03419,,,,,,,,,,,,,,,,,,,,,,,,,,0,0,0,0,0
4.2736,1783968829.9614,1,1,7.0000,-0.0000,1.42241,-0.00874,-2.63261,1.07062,1.57080,0.11675,-0.12762,-0.48154,0.03419,,,,,,,,,,,,,,,,,,,,,,,,,,0,0,0,0,0
4.2739,1783968829.9617,1,1,7.0000,-0.0000,1.42241,-0.00874,-2.63261,1.07062,1.57080,0.11675,-0.12762,-0.48154,0.03419,,,,,,,,,,,,,,,,,,,,,,,,,,0,0,0,0,0
4.2914,1783968829.9792,1,1,7.0000,-0.0000,1.42241,-0.00874,-2.63261,1.07062,1.57080,0.11675,-0.12762,-0.48154,0.03419,,,,,,,,,,,,,,,,,,,,,,,,,,0,0,0,0,0
4.2949,1783968829.9828,1,1,7.0000,-0.0000,1.42241,-0.00874,-2.63261,1.07062,1.57080,0.11675,-0.12762,-0.48154,0.03419,,,,,,,,,,,,,,,,,,,,,,,,,,0,0,0,0,0
4.3010,1783968829.9888,1,1,7.0000,-0.0000,1.42241,-0.00874,-2.63261,1.07062,1.57080,0.11675,-0.12762,-0.48154,0.03419,,,,,,,,,,,,,,,,,,,,,,,,,,0,0,0,0,0
4.3013,1783968829.9891,1,1,7.0000,-0.0000,1.42241,-0.00874,-2.63261,1.07062,1.57080,0.11675,-0.12762,-0.48154,0.03419,,,,,,,,,,,,,,,,,,,,,,,,,,0,0,0,0,0
4.3103,1783968829.9981,1,1,7.0000,-0.0000,1.42241,-0.00874,-2.63261,1.07062,1.57080,0.11675,-0.12762,-0.48154,0.03419,,,,,,,,,,,,,,,,,,,,,,,,,,0,0,0,0,0
4.3258,1783968830.0137,1,1,7.0000,-0.0000,1.42241,-0.00874,-2.63261,1.07062,1.57080,0.11675,-0.12762,-0.48154,0.03419,,,,,,,,,,,,,,,,,,,,,,,,,,0,0,0,0,0
4.3328,1783968830.0206,1,1,7.0000,-0.0000,1.42241,-0.00874,-2.63261,1.07062,1.57080,0.11675,-0.12762,-0.48154,0.03419,,,,,,,,,,,,,,,,,,,,,,,,,,0,0,0,0,0
4.3331,1783968830.0210,1,1,7.0000,-0.0000,1.42241,-0.00874,-2.63261,1.07062,1.57080,0.11675,-0.12762,-0.48154,0.03419,,,,,,,,,,,,,,,,,,,,,,,,,,0,0,0,0,0
4.3457,1783968830.0336,1,1,7.0000,-0.0000,1.42241,-0.00874,-2.63261,1.07062,1.57080,0.11675,-0.12762,-0.48154,0.03419,,,,,,,,,,,,,,,,,,,,,,,,,,0,0,0,0,0
4.3731,1783968830.0610,1,1,7.0000,-0.0000,1.42241,-0.00874,-2.63261,1.07062,1.57080,0.11675,-0.12762,-0.48154,0.03419,,,,,,,,,,,,,,,,,,,,,,,,,,0,0,0,0,0
4.3756,1783968830.0635,1,1,7.0000,-0.0000,1.42241,-0.00874,-2.63261,1.07062,1.57080,0.11675,-0.12762,-0.48154,0.03419,,,,,,,,,,,,,,,,,,,,,,,,,,0,0,0,0,0
4.3761,1783968830.0639,1,1,7.0000,-0.0000,1.42241,-0.00874,-2.63261,1.07062,1.57080,0.11675,-0.12762,-0.48154,0.03419,,,,,,,,,,,,,,,,,,,,,,,,,,0,0,0,0,0
4.3804,1783968830.0683,1,1,7.0000,-0.0000,1.42241,-0.00874,-2.63261,1.07062,1.57080,0.11675,-0.12762,-0.48154,0.03419,,,,,,,,,,,,,,,,,,,,,,,,,,0,0,0,0,0
4.3812,1783968830.0690,1,1,7.0000,-0.0000,1.42241,-0.00874,-2.63261,1.07062,1.57080,0.11675,-0.12762,-0.48154,0.03419,,,,,,,,,,,,,,,,,,,,,,,,,,0,0,0,0,0
4.3929,1783968830.0808,1,1,7.0000,-0.0000,1.42241,-0.00874,-2.63261,1.07062,1.57080,0.11675,-0.12762,-0.48154,0.03419,,,,,,,,,,,,,,,,,,,,,,,,,,0,0,0,0,0
4.3933,1783968830.0811,1,1,7.0000,-0.0000,1.42241,-0.00874,-2.63261,1.07062,1.57080,0.11675,-0.12762,-0.48154,0.03419,,,,,,,,,,,,,,,,,,,,,,,,,,0,0,0,0,0
4.4518,1783968830.1397,1,1,7.0000,-0.0000,1.42241,-0.00881,-2.63268,1.07070,1.57081,0.11675,-0.12762,-0.48150,0.03414,,,,,,,,,,,,,,,,,,,,,,,,,,0,0,0,0,0
4.4538,1783968830.1417,1,1,7.0000,-0.0000,1.42241,-0.00882,-2.63269,1.07072,1.57081,0.11675,-0.12762,-0.48149,0.03413,,,,,,,,,,,,,,,,,,,,,,,,,,0,0,0,0,0
4.4541,1783968830.1420,1,1,7.0000,-0.0000,1.42241,-0.00882,-2.63269,1.07072,1.57081,0.11675,-0.12762,-0.48149,0.03413,,,,,,,,,,,,,,,,,,,,,,,,,,0,0,0,0,0
4.4544,1783968830.1423,1,1,7.0000,-0.0000,1.42241,-0.00882,-2.63269,1.07072,1.57081,0.11675,-0.12762,-0.48149,0.03413,,,,,,,,,,,,,,,,,,,,,,,,,,0,0,0,0,0
4.4547,1783968830.1425,1,1,7.0000,-0.0000,1.42241,-0.00882,-2.63269,1.07072,1.57081,0.11675,-0.12762,-0.48149,0.03413,,,,,,,,,,,,,,,,,,,,,,,,,,0,0,0,0,0
4.4610,1783968830.1488,1,1,7.0000,-0.0000,1.42241,-0.00886,-2.63272,1.07076,1.57081,0.11675,-0.12762,-0.48148,0.03411,,,,,,,,,,,,,,,,,,,,,,,,,,0,0,0,0,0
4.4684,1783968830.1563,1,1,7.0000,-0.0000,1.42241,-0.00886,-2.63272,1.07076,1.57081,0.11675,-0.12762,-0.48148,0.03411,,,,,,,,,,,,,,,,,,,,,,,,,,0,0,0,0,0
4.4900,1783968830.1779,1,1,7.0000,-0.0000,1.42241,-0.00899,-2.63276,1.07092,1.57081,0.11675,-0.12763,-0.48146,0.03406,,,,,,,,,,,,,,,,,,,,,,,,,,0,0,0,0,0
4.4936,1783968830.1815,1,1,7.0000,-0.0000,1.42241,-0.00903,-2.63278,1.07096,1.57081,0.11675,-0.12763,-0.48146,0.03404,,,,,,,,,,,,,,,,,,,,,,,,,,0,0,0,0,0
4.4941,1783968830.1820,1,1,7.0000,-0.0000,1.42241,-0.00903,-2.63278,1.07096,1.57081,0.11675,-0.12763,-0.48146,0.03404,,,,,,,,,,,,,,,,,,,,,,,,,,0,0,0,0,0
4.5002,1783968830.1881,1,1,7.0000,-0.0000,1.42241,-0.00907,-2.63279,1.07101,1.57081,0.11675,-0.12763,-0.48146,0.03403,,,,,,,,,,,,,,,,,,,,,,,,,,0,0,0,0,0
4.5009,1783968830.1888,1,1,7.0000,-0.0000,1.42241,-0.00907,-2.63279,1.07101,1.57081,0.11675,-0.12763,-0.48146,0.03403,,,,,,,,,,,,,,,,,,,,,,,,,,0,0,0,0,0
4.6202,1783968830.3081,1,1,7.0000,-0.0000,1.42241,-0.00992,-2.63289,1.07205,1.57081,0.11675,-0.12762,-0.48152,0.03378,,,,,,,,,,,,,,,,,,,,,,,,,,0,0,0,0,0
4.6206,1783968830.3084,1,1,7.0000,-0.0000,1.42241,-0.00992,-2.63289,1.07205,1.57081,0.11675,-0.12762,-0.48152,0.03378,,,,,,,,,,,,,,,,,,,,,,,,,,0,0,0,0,0
4.6211,1783968830.3090,1,1,7.0000,-0.0000,1.42241,-0.00992,-2.63289,1.07205,1.57081,0.11675,-0.12762,-0.48152,0.03378,,,,,,,,,,,,,,,,,,,,,,,,,,0,0,0,0,0
4.6219,1783968830.3098,1,1,7.0000,-0.0000,1.42241,-0.00992,-2.63289,1.07205,1.57081,0.11675,-0.12762,-0.48152,0.03378,,,,,,,,,,,,,,,,,,,,,,,,,,0,0,0,0,0
4.6222,1783968830.3101,1,1,7.0000,-0.0000,1.42241,-0.00992,-2.63289,1.07205,1.57081,0.11675,-0.12762,-0.48152,0.03378,,,,,,,,,,,,,,,,,,,,,,,,,,0,0,0,0,0
4.6234,1783968830.3113,1,1,7.0000,-0.0000,1.42241,-0.00992,-2.63289,1.07205,1.57081,0.11675,-0.12762,-0.48152,0.03378,,,,,,,,,,,,,,,,,,,,,,,,,,0,0,0,0,0
4.6237,1783968830.3115,1,1,7.0000,-0.0000,1.42241,-0.00992,-2.63289,1.07205,1.57081,0.11675,-0.12762,-0.48152,0.03378,,,,,,,,,,,,,,,,,,,,,,,,,,0,0,0,0,0
4.6259,1783968830.3137,1,1,7.0000,-0.0000,1.42241,-0.00992,-2.63289,1.07205,1.57081,0.11675,-0.12762,-0.48152,0.03378,,,,,,,,,,,,,,,,,,,,,,,,,,0,0,0,0,0
4.6262,1783968830.3140,1,1,7.0000,-0.0000,1.42241,-0.00992,-2.63289,1.07205,1.57081,0.11675,-0.12762,-0.48152,0.03378,,,,,,,,,,,,,,,,,,,,,,,,,,0,0,0,0,0
4.6265,1783968830.3143,1,1,7.0000,-0.0000,1.42241,-0.00992,-2.63289,1.07205,1.57081,0.11675,-0.12762,-0.48152,0.03378,,,,,,,,,,,,,,,,,,,,,,,,,,0,0,0,0,0
4.6267,1783968830.3146,1,1,7.0000,-0.0000,1.42241,-0.00992,-2.63289,1.07205,1.57081,0.11675,-0.12762,-0.48152,0.03378,,,,,,,,,,,,,,,,,,,,,,,,,,0,0,0,0,0
4.6270,1783968830.3149,1,1,7.0000,-0.0000,1.42241,-0.00992,-2.63289,1.07205,1.57081,0.11675,-0.12762,-0.48152,0.03378,,,,,,,,,,,,,,,,,,,,,,,,,,0,0,0,0,0
4.6399,1783968830.3278,1,1,7.0000,-0.0000,1.42241,-0.00992,-2.63289,1.07205,1.57081,0.11675,-0.12762,-0.48152,0.03378,,,,,,,,,,,,,,,,,,,,,,,,,,0,0,0,0,0
4.6407,1783968830.3286,1,1,7.0000,-0.0000,1.42241,-0.00992,-2.63289,1.07205,1.57081,0.11675,-0.12762,-0.48152,0.03378,,,,,,,,,,,,,,,,,,,,,,,,,,0,0,0,0,0
4.6413,1783968830.3291,1,1,7.0000,-0.0000,1.42241,-0.00992,-2.63289,1.07205,1.57081,0.11675,-0.12762,-0.48152,0.03378,,,,,,,,,,,,,,,,,,,,,,,,,,0,0,0,0,0
4.6453,1783968830.3332,1,1,7.0000,-0.0000,1.42241,-0.00992,-2.63289,1.07205,1.57081,0.11675,-0.12762,-0.48152,0.03378,,,,,,,,,,,,,,,,,,,,,,,,,,0,0,0,0,0
4.6457,1783968830.3335,1,1,7.0000,-0.0000,1.42241,-0.00992,-2.63289,1.07205,1.57081,0.11675,-0.12762,-0.48152,0.03378,,,,,,,,,,,,,,,,,,,,,,,,,,0,0,0,0,0
4.6459,1783968830.3337,1,1,7.0000,-0.0000,1.42241,-0.00992,-2.63289,1.07205,1.57081,0.11675,-0.12762,-0.48152,0.03378,,,,,,,,,,,,,,,,,,,,,,,,,,0,0,0,0,0
4.6501,1783968830.3380,1,1,7.0000,-0.0000,1.42241,-0.00992,-2.63289,1.07205,1.57081,0.11675,-0.12762,-0.48152,0.03378,,,,,,,,,,,,,,,,,,,,,,,,,,0,0,0,0,0
4.6503,1783968830.3382,1,1,7.0000,-0.0000,1.42241,-0.00992,-2.63289,1.07205,1.57081,0.11675,-0.12762,-0.48152,0.03378,,,,,,,,,,,,,,,,,,,,,,,,,,0,0,0,0,0
4.8137,1783968830.5016,1,1,7.0000,-0.0000,1.42241,-0.00992,-2.63289,1.07205,1.57081,0.11675,-0.12762,-0.48152,0.03378,,,,,,,,,,,,,,,,,,,,,,,,,,0,0,0,0,0
4.8714,1783968830.5593,1,1,7.0000,-0.0000,1.42241,-0.01001,-2.63297,1.07216,1.57081,0.11675,-0.12762,-0.48148,0.03372,,,,,,,,,,,,,,,,,,,,,,,,,,0,0,0,0,0
4.9595,1783968830.6473,1,1,7.0000,-0.0000,1.42240,-0.01041,-2.63310,1.07263,1.57081,0.11675,-0.12763,-0.48144,0.03357,,,,,,,,,,,,,,,,,,,,,,,,,,0,0,0,0,0
4.9597,1783968830.6476,1,1,7.0000,-0.0000,1.42240,-0.01041,-2.63310,1.07263,1.57081,0.11675,-0.12763,-0.48144,0.03357,,,,,,,,,,,,,,,,,,,,,,,,,,0,0,0,0,0
4.9639,1783968830.6517,1,1,7.0000,-0.0000,1.42240,-0.01044,-2.63310,1.07266,1.57081,0.11675,-0.12763,-0.48144,0.03356,,,,,,,,,,,,,,,,,,,,,,,,,,0,0,0,0,0
4.9737,1783968830.6616,1,1,7.0000,-0.0000,1.42240,-0.01057,-2.63312,1.07282,1.57081,0.11675,-0.12762,-0.48145,0.03351,,,,,,,,,,,,,,,,,,,,,,,,,,0,0,0,0,0
5.0212,1783968830.7091,1,1,7.0000,-0.0000,1.42240,-0.01095,-2.63315,1.07329,1.57081,0.11675,-0.12762,-0.48149,0.03341,,,,,,,,,,,,,,,,,,,,,,,,,,0,0,0,0,0
5.0225,1783968830.7104,1,1,7.0000,-0.0000,1.42240,-0.01095,-2.63315,1.07329,1.57081,0.11675,-0.12762,-0.48149,0.03341,,,,,,,,,,,,,,,,,,,,,,,,,,0,0,0,0,0
5.0229,1783968830.7107,1,1,7.0000,-0.0000,1.42240,-0.01095,-2.63315,1.07329,1.57081,0.11675,-0.12762,-0.48149,0.03341,,,,,,,,,,,,,,,,,,,,,,,,,,0,0,0,0,0
5.0296,1783968830.7175,1,1,7.0000,-0.0000,1.42240,-0.01103,-2.63315,1.07339,1.57081,0.11675,-0.12761,-0.48151,0.03339,,,,,,,,,,,,,,,,,,,,,,,,,,0,0,0,0,0
5.0304,1783968830.7183,1,1,7.0000,-0.0000,1.42240,-0.01103,-2.63315,1.07339,1.57081,0.11675,-0.12761,-0.48151,0.03339,,,,,,,,,,,,,,,,,,,,,,,,,,0,0,0,0,0
5.0309,1783968830.7188,1,1,7.0000,-0.0000,1.42240,-0.01103,-2.63315,1.07339,1.57081,0.11675,-0.12761,-0.48151,0.03339,,,,,,,,,,,,,,,,,,,,,,,,,,0,0,0,0,0
5.0312,1783968830.7191,1,1,7.0000,-0.0000,1.42240,-0.01103,-2.63315,1.07339,1.57081,0.11675,-0.12761,-0.48151,0.03339,,,,,,,,,,,,,,,,,,,,,,,,,,0,0,0,0,0
5.0345,1783968830.7224,1,1,7.0000,-0.0000,1.42240,-0.01107,-2.63314,1.07343,1.57081,0.11675,-0.12761,-0.48151,0.03339,,,,,,,,,,,,,,,,,,,,,,,,,,0,0,0,0,0
5.0349,1783968830.7228,1,1,7.0000,-0.0000,1.42240,-0.01107,-2.63314,1.07343,1.57081,0.11675,-0.12761,-0.48151,0.03339,,,,,,,,,,,,,,,,,,,,,,,,,,0,0,0,0,0
5.0440,1783968830.7319,1,1,7.0000,-0.0000,1.42240,-0.01112,-2.63313,1.07349,1.57081,0.11675,-0.12761,-0.48153,0.03338,,,,,,,,,,,,,,,,,,,,,,,,,,0,0,0,0,0
5.0512,1783968830.7390,1,1,7.0000,-0.0000,1.42240,-0.01112,-2.63313,1.07349,1.57081,0.11675,-0.12761,-0.48153,0.03338,,,,,,,,,,,,,,,,,,,,,,,,,,0,0,0,0,0
5.0604,1783968830.7483,1,1,7.0000,-0.0000,1.42240,-0.01112,-2.63313,1.07349,1.57081,0.11675,-0.12761,-0.48153,0.03338,,,,,,,,,,,,,,,,,,,,,,,,,,0,0,0,0,0
5.0613,1783968830.7492,1,1,7.0000,-0.0000,1.42240,-0.01112,-2.63313,1.07349,1.57081,0.11675,-0.12761,-0.48153,0.03338,,,,,,,,,,,,,,,,,,,,,,,,,,0,0,0,0,0
5.0623,1783968830.7501,1,1,7.0000,-0.0000,1.42240,-0.01112,-2.63313,1.07349,1.57081,0.11675,-0.12761,-0.48153,0.03338,,,,,,,,,,,,,,,,,,,,,,,,,,0,0,0,0,0
5.0627,1783968830.7505,1,1,7.0000,-0.0000,1.42240,-0.01112,-2.63313,1.07349,1.57081,0.11675,-0.12761,-0.48153,0.03338,,,,,,,,,,,,,,,,,,,,,,,,,,0,0,0,0,0
5.0638,1783968830.7516,1,1,7.0000,-0.0000,1.42240,-0.01112,-2.63313,1.07349,1.57081,0.11675,-0.12761,-0.48153,0.03338,,,,,,,,,,,,,,,,,,,,,,,,,,0,0,0,0,0
5.0642,1783968830.7521,1,1,7.0000,-0.0000,1.42240,-0.01112,-2.63313,1.07349,1.57081,0.11675,-0.12761,-0.48153,0.03338,,,,,,,,,,,,,,,,,,,,,,,,,,0,0,0,0,0
5.0654,1783968830.7532,1,1,7.0000,-0.0000,1.42240,-0.01112,-2.63313,1.07349,1.57081,0.11675,-0.12761,-0.48153,0.03338,,,,,,,,,,,,,,,,,,,,,,,,,,0,0,0,0,0
5.0703,1783968830.7582,1,1,7.0000,-0.0000,1.42240,-0.01112,-2.63313,1.07349,1.57081,0.11675,-0.12761,-0.48153,0.03338,,,,,,,,,,,,,,,,,,,,,,,,,,0,0,0,0,0
5.0708,1783968830.7587,1,1,7.0000,-0.0000,1.42240,-0.01112,-2.63313,1.07349,1.57081,0.11675,-0.12761,-0.48153,0.03338,,,,,,,,,,,,,,,,,,,,,,,,,,0,0,0,0,0
5.0736,1783968830.7615,1,1,7.0000,-0.0000,1.42240,-0.01112,-2.63313,1.07349,1.57081,0.11675,-0.12761,-0.48153,0.03338,,,,,,,,,,,,,,,,,,,,,,,,,,0,0,0,0,0
5.0738,1783968830.7617,1,1,7.0000,-0.0000,1.42240,-0.01112,-2.63313,1.07349,1.57081,0.11675,-0.12761,-0.48153,0.03338,,,,,,,,,,,,,,,,,,,,,,,,,,0,0,0,0,0
5.0755,1783968830.7634,1,1,7.0000,-0.0000,1.42240,-0.01112,-2.63313,1.07349,1.57081,0.11675,-0.12761,-0.48153,0.03338,,,,,,,,,,,,,,,,,,,,,,,,,,0,0,0,0,0
5.0799,1783968830.7677,1,1,7.0000,-0.0000,1.42240,-0.01112,-2.63313,1.07349,1.57081,0.11675,-0.12761,-0.48153,0.03338,,,,,,,,,,,,,,,,,,,,,,,,,,0,0,0,0,0
5.0863,1783968830.7742,1,1,7.0000,-0.0000,1.42240,-0.01112,-2.63313,1.07349,1.57081,0.11675,-0.12761,-0.48153,0.03338,,,,,,,,,,,,,,,,,,,,,,,,,,0,0,0,0,0
5.0919,1783968830.7798,1,1,7.0000,-0.0000,1.42240,-0.01112,-2.63313,1.07349,1.57081,0.11675,-0.12761,-0.48153,0.03338,,,,,,,,,,,,,,,,,,,,,,,,,,0,0,0,0,0
5.0923,1783968830.7802,1,1,7.0000,-0.0000,1.42240,-0.01112,-2.63313,1.07349,1.57081,0.11675,-0.12761,-0.48153,0.03338,,,,,,,,,,,,,,,,,,,,,,,,,,0,0,0,0,0
5.0927,1783968830.7806,1,1,7.0000,-0.0000,1.42240,-0.01112,-2.63313,1.07349,1.57081,0.11675,-0.12761,-0.48153,0.03338,,,,,,,,,,,,,,,,,,,,,,,,,,0,0,0,0,0
5.0958,1783968830.7836,1,1,7.0000,-0.0000,1.42240,-0.01112,-2.63313,1.07349,1.57081,0.11675,-0.12761,-0.48153,0.03338,,,,,,,,,,,,,,,,,,,,,,,,,,0,0,0,0,0
5.0983,1783968830.7861,1,1,7.0000,-0.0000,1.42240,-0.01112,-2.63313,1.07349,1.57081,0.11675,-0.12761,-0.48153,0.03338,,,,,,,,,,,,,,,,,,,,,,,,,,0,0,0,0,0
5.0985,1783968830.7864,1,1,7.0000,-0.0000,1.42240,-0.01112,-2.63313,1.07349,1.57081,0.11675,-0.12761,-0.48153,0.03338,,,,,,,,,,,,,,,,,,,,,,,,,,0,0,0,0,0
5.0994,1783968830.7873,1,1,7.0000,-0.0000,1.42240,-0.01112,-2.63313,1.07349,1.57081,0.11675,-0.12761,-0.48153,0.03338,,,,,,,,,,,,,,,,,,,,,,,,,,0,0,0,0,0
5.0997,1783968830.7876,1,1,7.0000,-0.0000,1.42240,-0.01112,-2.63313,1.07349,1.57081,0.11675,-0.12761,-0.48153,0.03338,,,,,,,,,,,,,,,,,,,,,,,,,,0,0,0,0,0
5.1045,1783968830.7923,1,1,7.0000,-0.0000,1.42240,-0.01112,-2.63313,1.07349,1.57081,0.11675,-0.12761,-0.48153,0.03338,,,,,,,,,,,,,,,,,,,,,,,,,,0,0,0,0,0
5.1049,1783968830.7927,1,1,7.0000,-0.0000,1.42240,-0.01112,-2.63313,1.07349,1.57081,0.11675,-0.12761,-0.48153,0.03338,,,,,,,,,,,,,,,,,,,,,,,,,,0,0,0,0,0
5.1056,1783968830.7935,1,1,7.0000,-0.0000,1.42240,-0.01112,-2.63313,1.07349,1.57081,0.11675,-0.12761,-0.48153,0.03338,,,,,,,,,,,,,,,,,,,,,,,,,,0,0,0,0,0
5.1060,1783968830.7938,1,1,7.0000,-0.0000,1.42240,-0.01112,-2.63313,1.07349,1.57081,0.11675,-0.12761,-0.48153,0.03338,,,,,,,,,,,,,,,,,,,,,,,,,,0,0,0,0,0
5.1134,1783968830.8012,1,1,7.0000,-0.0000,1.42240,-0.01112,-2.63313,1.07349,1.57081,0.11675,-0.12761,-0.48153,0.03338,,,,,,,,,,,,,,,,,,,,,,,,,,0,0,0,0,0
5.1137,1783968830.8016,1,1,7.0000,-0.0000,1.42240,-0.01112,-2.63313,1.07349,1.57081,0.11675,-0.12761,-0.48153,0.03338,,,,,,,,,,,,,,,,,,,,,,,,,,0,0,0,0,0
5.1184,1783968830.8063,1,1,7.0000,-0.0000,1.42240,-0.01112,-2.63313,1.07349,1.57081,0.11675,-0.12761,-0.48153,0.03338,,,,,,,,,,,,,,,,,,,,,,,,,,0,0,0,0,0
5.1219,1783968830.8098,1,1,7.0000,-0.0000,1.42240,-0.01112,-2.63313,1.07349,1.57081,0.11675,-0.12761,-0.48153,0.03338,,,,,,,,,,,,,,,,,,,,,,,,,,0,0,0,0,0
5.1236,1783968830.8115,1,1,7.0000,-0.0000,1.42240,-0.01112,-2.63313,1.07349,1.57081,0.11675,-0.12761,-0.48153,0.03338,,,,,,,,,,,,,,,,,,,,,,,,,,0,0,0,0,0
5.1239,1783968830.8118,1,1,7.0000,-0.0000,1.42240,-0.01112,-2.63313,1.07349,1.57081,0.11675,-0.12761,-0.48153,0.03338,,,,,,,,,,,,,,,,,,,,,,,,,,0,0,0,0,0
5.1243,1783968830.8121,1,1,7.0000,-0.0000,1.42240,-0.01112,-2.63313,1.07349,1.57081,0.11675,-0.12761,-0.48153,0.03338,,,,,,,,,,,,,,,,,,,,,,,,,,0,0,0,0,0
5.1318,1783968830.8197,1,1,7.0000,-0.0000,1.42240,-0.01112,-2.63313,1.07349,1.57081,0.11675,-0.12761,-0.48153,0.03338,,,,,,,,,,,,,,,,,,,,,,,,,,0,0,0,0,0
5.1321,1783968830.8200,1,1,7.0000,-0.0000,1.42240,-0.01112,-2.63313,1.07349,1.57081,0.11675,-0.12761,-0.48153,0.03338,,,,,,,,,,,,,,,,,,,,,,,,,,0,0,0,0,0
5.1333,1783968830.8212,1,1,7.0000,-0.0000,1.42240,-0.01112,-2.63313,1.07349,1.57081,0.11675,-0.12761,-0.48153,0.03338,,,,,,,,,,,,,,,,,,,,,,,,,,0,0,0,0,0
5.1350,1783968830.8229,1,1,7.0000,-0.0000,1.42240,-0.01112,-2.63313,1.07349,1.57081,0.11675,-0.12761,-0.48153,0.03338,,,,,,,,,,,,,,,,,,,,,,,,,,0,0,0,0,0
5.1353,1783968830.8232,1,1,7.0000,-0.0000,1.42240,-0.01112,-2.63313,1.07349,1.57081,0.11675,-0.12761,-0.48153,0.03338,,,,,,,,,,,,,,,,,,,,,,,,,,0,0,0,0,0
5.1528,1783968830.8407,1,1,7.0000,-0.0000,1.42240,-0.01112,-2.63313,1.07349,1.57081,0.11675,-0.12761,-0.48153,0.03338,,,,,,,,,,,,,,,,,,,,,,,,,,0,0,0,0,0
5.1540,1783968830.8418,1,1,7.0000,-0.0000,1.42240,-0.01112,-2.63313,1.07349,1.57081,0.11675,-0.12761,-0.48153,0.03338,,,,,,,,,,,,,,,,,,,,,,,,,,0,0,0,0,0
5.1544,1783968830.8423,1,1,7.0000,-0.0000,1.42240,-0.01112,-2.63313,1.07349,1.57081,0.11675,-0.12761,-0.48153,0.03338,,,,,,,,,,,,,,,,,,,,,,,,,,0,0,0,0,0
5.1598,1783968830.8476,1,1,7.0000,-0.0000,1.42240,-0.01112,-2.63313,1.07349,1.57081,0.11675,-0.12761,-0.48153,0.03338,,,,,,,,,,,,,,,,,,,,,,,,,,0,0,0,0,0
5.1640,1783968830.8519,1,1,7.0000,-0.0000,1.42240,-0.01112,-2.63313,1.07349,1.57081,0.11675,-0.12761,-0.48153,0.03338,,,,,,,,,,,,,,,,,,,,,,,,,,0,0,0,0,0
5.1644,1783968830.8522,1,1,7.0000,-0.0000,1.42240,-0.01112,-2.63313,1.07349,1.57081,0.11675,-0.12761,-0.48153,0.03338,,,,,,,,,,,,,,,,,,,,,,,,,,0,0,0,0,0
5.1659,1783968830.8538,1,1,7.0000,-0.0000,1.42240,-0.01112,-2.63313,1.07349,1.57081,0.11675,-0.12761,-0.48153,0.03338,,,,,,,,,,,,,,,,,,,,,,,,,,0,0,0,0,0
5.1706,1783968830.8584,1,1,7.0000,-0.0000,1.42240,-0.01112,-2.63313,1.07349,1.57081,0.11675,-0.12761,-0.48153,0.03338,,,,,,,,,,,,,,,,,,,,,,,,,,0,0,0,0,0
5.1708,1783968830.8587,1,1,7.0000,-0.0000,1.42240,-0.01112,-2.63313,1.07349,1.57081,0.11675,-0.12761,-0.48153,0.03338,,,,,,,,,,,,,,,,,,,,,,,,,,0,0,0,0,0
5.1722,1783968830.8600,1,1,7.0000,-0.0000,1.42240,-0.01112,-2.63313,1.07349,1.57081,0.11675,-0.12761,-0.48153,0.03338,,,,,,,,,,,,,,,,,,,,,,,,,,0,0,0,0,0
5.1750,1783968830.8629,1,1,7.0000,-0.0000,1.42240,-0.01112,-2.63313,1.07349,1.57081,0.11675,-0.12761,-0.48153,0.03338,,,,,,,,,,,,,,,,,,,,,,,,,,0,0,0,0,0
5.1753,1783968830.8632,1,1,7.0000,-0.0000,1.42240,-0.01112,-2.63313,1.07349,1.57081,0.11675,-0.12761,-0.48153,0.03338,,,,,,,,,,,,,,,,,,,,,,,,,,0,0,0,0,0
5.1816,1783968830.8694,1,1,7.0000,-0.0000,1.42240,-0.01112,-2.63313,1.07349,1.57081,0.11675,-0.12761,-0.48153,0.03338,,,,,,,,,,,,,,,,,,,,,,,,,,0,0,0,0,0
5.1818,1783968830.8696,1,1,7.0000,-0.0000,1.42240,-0.01112,-2.63313,1.07349,1.57081,0.11675,-0.12761,-0.48153,0.03338,,,,,,,,,,,,,,,,,,,,,,,,,,0,0,0,0,0
5.1908,1783968830.8787,1,1,7.0000,-0.0000,1.42240,-0.01112,-2.63313,1.07349,1.57081,0.11675,-0.12761,-0.48153,0.03338,,,,,,,,,,,,,,,,,,,,,,,,,,0,0,0,0,0
