Martins-Lucaas/twinforge/sensors/Data/celula de carga/20260713_155008__samples.csv
t_rel_s,t_unix,cycle,phase,setpoint_n,force_net_n,q1,q2,q3,q4,q5,q6,tcp_x,tcp_y,tcp_z,taxel_0,taxel_1,taxel_2,taxel_3,taxel_4,taxel_5,taxel_6,taxel_7,taxel_8,taxel_9,taxel_10,taxel_11,taxel_12,taxel_13,taxel_14,taxel_15,taxel_16,taxel_17,taxel_18,taxel_19,taxel_20,taxel_21,taxel_22,taxel_23,taxel_24,n_RA,n_SA,cn_mm,cn_ra,cn_sa
0.0015,1783968608.3508,0,-1,6.5000,-0.0000,1.42244,0.00067,-2.63054,1.05911,1.57083,0.11672,-0.12762,-0.48152,0.03737,,,,,,,,,,,,,,,,,,,,,,,,,,0,0,0,0,0
0.0257,1783968608.3751,1,0,6.5000,-0.0000,1.42244,0.00068,-2.63054,1.05911,1.57083,0.11672,-0.12762,-0.48152,0.03737,,,,,,,,,,,,,,,,,,,,,,,,,,0,0,0,0,0
0.0334,1783968608.3827,1,0,6.5000,-0.0000,1.42244,0.00068,-2.63054,1.05910,1.57083,0.11672,-0.12763,-0.48152,0.03737,,,,,,,,,,,,,,,,,,,,,,,,,,0,0,0,0,0
0.0372,1783968608.3865,1,0,6.5000,-0.0000,1.42244,0.00068,-2.63054,1.05910,1.57082,0.11673,-0.12763,-0.48152,0.03737,,,,,,,,,,,,,,,,,,,,,,,,,,0,0,0,0,0
0.0400,1783968608.3893,1,0,6.5000,-0.0000,1.42244,0.00068,-2.63054,1.05910,1.57082,0.11673,-0.12763,-0.48152,0.03737,,,,,,,,,,,,,,,,,,,,,,,,,,0,0,0,0,0
0.0403,1783968608.3896,1,0,6.5000,-0.0000,1.42244,0.00068,-2.63054,1.05910,1.57082,0.11673,-0.12763,-0.48152,0.03737,,,,,,,,,,,,,,,,,,,,,,,,,,0,0,0,0,0
0.0415,1783968608.3908,1,0,6.5000,-0.0000,1.42244,0.00069,-2.63054,1.05909,1.57082,0.11673,-0.12763,-0.48152,0.03737,,,,,,,,,,,,,,,,,,,,,,,,,,0,0,0,0,0
0.0419,1783968608.3912,1,0,6.5000,-0.0000,1.42244,0.00069,-2.63054,1.05909,1.57082,0.11673,-0.12763,-0.48152,0.03737,,,,,,,,,,,,,,,,,,,,,,,,,,0,0,0,0,0
0.0423,1783968608.3916,1,0,6.5000,-0.0000,1.42244,0.00069,-2.63054,1.05909,1.57082,0.11673,-0.12763,-0.48152,0.03737,,,,,,,,,,,,,,,,,,,,,,,,,,0,0,0,0,0
0.0427,1783968608.3921,1,0,6.5000,-0.0000,1.42244,0.00069,-2.63054,1.05909,1.57082,0.11673,-0.12763,-0.48152,0.03737,,,,,,,,,,,,,,,,,,,,,,,,,,0,0,0,0,0
0.0495,1783968608.3988,1,0,6.5000,-0.0000,1.42244,0.00069,-2.63054,1.05908,1.57081,0.11674,-0.12763,-0.48152,0.03737,,,,,,,,,,,,,,,,,,,,,,,,,,0,0,0,0,0
0.0520,1783968608.4013,1,0,6.5000,-0.0000,1.42244,0.00069,-2.63054,1.05908,1.57081,0.11674,-0.12763,-0.48152,0.03737,,,,,,,,,,,,,,,,,,,,,,,,,,0,0,0,0,0
0.0524,1783968608.4017,1,0,6.5000,-0.0000,1.42244,0.00069,-2.63054,1.05908,1.57081,0.11674,-0.12763,-0.48152,0.03737,,,,,,,,,,,,,,,,,,,,,,,,,,0,0,0,0,0
0.0817,1783968608.4311,1,0,6.5000,-0.0000,1.42244,0.00071,-2.63053,1.05907,1.57080,0.11675,-0.12764,-0.48152,0.03738,,,,,,,,,,,,,,,,,,,,,,,,,,0,0,0,0,0
0.0873,1783968608.4366,1,0,6.5000,-0.0000,1.42244,0.00071,-2.63053,1.05907,1.57080,0.11675,-0.12764,-0.48152,0.03738,,,,,,,,,,,,,,,,,,,,,,,,,,0,0,0,0,0
0.0944,1783968608.4437,1,0,6.5000,-0.0000,1.42244,0.00071,-2.63053,1.05907,1.57080,0.11675,-0.12764,-0.48152,0.03738,,,,,,,,,,,,,,,,,,,,,,,,,,0,0,0,0,0
0.1146,1783968608.4639,1,0,6.5000,-0.0000,1.42244,0.00071,-2.63053,1.05907,1.57080,0.11675,-0.12764,-0.48152,0.03738,,,,,,,,,,,,,,,,,,,,,,,,,,0,0,0,0,0
0.1193,1783968608.4686,1,0,6.5000,-0.0000,1.42244,0.00071,-2.63053,1.05907,1.57080,0.11675,-0.12764,-0.48152,0.03738,,,,,,,,,,,,,,,,,,,,,,,,,,0,0,0,0,0
0.1196,1783968608.4689,1,0,6.5000,-0.0000,1.42244,0.00071,-2.63053,1.05907,1.57080,0.11675,-0.12764,-0.48152,0.03738,,,,,,,,,,,,,,,,,,,,,,,,,,0,0,0,0,0
0.1420,1783968608.4913,1,0,6.5000,-0.0000,1.42244,0.00071,-2.63053,1.05907,1.57080,0.11675,-0.12764,-0.48152,0.03738,,,,,,,,,,,,,,,,,,,,,,,,,,0,0,0,0,0
0.1433,1783968608.4927,1,0,6.5000,-0.0000,1.42244,0.00071,-2.63053,1.05907,1.57080,0.11675,-0.12764,-0.48152,0.03738,,,,,,,,,,,,,,,,,,,,,,,,,,0,0,0,0,0
0.1436,1783968608.4929,1,0,6.5000,-0.0000,1.42244,0.00071,-2.63053,1.05907,1.57080,0.11675,-0.12764,-0.48152,0.03738,,,,,,,,,,,,,,,,,,,,,,,,,,0,0,0,0,0
0.1439,1783968608.4933,1,0,6.5000,-0.0000,1.42244,0.00071,-2.63053,1.05907,1.57080,0.11675,-0.12764,-0.48152,0.03738,,,,,,,,,,,,,,,,,,,,,,,,,,0,0,0,0,0
0.1442,1783968608.4936,1,0,6.5000,-0.0000,1.42244,0.00071,-2.63053,1.05907,1.57080,0.11675,-0.12764,-0.48152,0.03738,,,,,,,,,,,,,,,,,,,,,,,,,,0,0,0,0,0
0.1464,1783968608.4958,1,0,6.5000,-0.0000,1.42244,0.00071,-2.63053,1.05907,1.57080,0.11675,-0.12764,-0.48152,0.03738,,,,,,,,,,,,,,,,,,,,,,,,,,0,0,0,0,0
0.1580,1783968608.5074,1,0,6.5000,-0.0000,1.42244,0.00071,-2.63053,1.05907,1.57080,0.11675,-0.12764,-0.48152,0.03738,,,,,,,,,,,,,,,,,,,,,,,,,,0,0,0,0,0
0.1753,1783968608.5246,1,0,6.5000,-0.0000,1.42244,0.00071,-2.63053,1.05907,1.57080,0.11675,-0.12764,-0.48152,0.03738,,,,,,,,,,,,,,,,,,,,,,,,,,0,0,0,0,0
0.1808,1783968608.5301,1,0,6.5000,-0.0000,1.42244,0.00071,-2.63053,1.05907,1.57080,0.11675,-0.12764,-0.48152,0.03738,,,,,,,,,,,,,,,,,,,,,,,,,,0,0,0,0,0
0.2101,1783968608.5595,1,0,6.5000,-0.0000,1.42244,0.00071,-2.63053,1.05907,1.57080,0.11675,-0.12764,-0.48152,0.03738,,,,,,,,,,,,,,,,,,,,,,,,,,0,0,0,0,0
0.2104,1783968608.5597,1,0,6.5000,-0.0000,1.42244,0.00071,-2.63053,1.05907,1.57080,0.11675,-0.12764,-0.48152,0.03738,,,,,,,,,,,,,,,,,,,,,,,,,,0,0,0,0,0
0.2425,1783968608.5918,1,0,6.5000,-0.0000,1.42244,0.00071,-2.63053,1.05907,1.57080,0.11675,-0.12764,-0.48152,0.03738,,,,,,,,,,,,,,,,,,,,,,,,,,0,0,0,0,0
0.2445,1783968608.5938,1,0,6.5000,-0.0000,1.42244,0.00071,-2.63053,1.05907,1.57080,0.11675,-0.12764,-0.48152,0.03738,,,,,,,,,,,,,,,,,,,,,,,,,,0,0,0,0,0
0.2449,1783968608.5942,1,0,6.5000,-0.0000,1.42244,0.00071,-2.63053,1.05907,1.57080,0.11675,-0.12764,-0.48152,0.03738,,,,,,,,,,,,,,,,,,,,,,,,,,0,0,0,0,0
0.2572,1783968608.6066,1,0,6.5000,-0.0000,1.42244,0.00071,-2.63053,1.05907,1.57080,0.11675,-0.12764,-0.48152,0.03738,,,,,,,,,,,,,,,,,,,,,,,,,,0,0,0,0,0
0.2616,1783968608.6109,1,0,6.5000,-0.0000,1.42244,0.00071,-2.63053,1.05907,1.57080,0.11675,-0.12764,-0.48152,0.03738,,,,,,,,,,,,,,,,,,,,,,,,,,0,0,0,0,0
0.2633,1783968608.6127,1,0,6.5000,-0.0000,1.42244,0.00071,-2.63053,1.05907,1.57080,0.11675,-0.12764,-0.48152,0.03738,,,,,,,,,,,,,,,,,,,,,,,,,,0,0,0,0,0
0.2638,1783968608.6132,1,0,6.5000,-0.0000,1.42244,0.00071,-2.63053,1.05907,1.57080,0.11675,-0.12764,-0.48152,0.03738,,,,,,,,,,,,,,,,,,,,,,,,,,0,0,0,0,0
0.2642,1783968608.6135,1,0,6.5000,-0.0000,1.42244,0.00071,-2.63053,1.05907,1.57080,0.11675,-0.12764,-0.48152,0.03738,,,,,,,,,,,,,,,,,,,,,,,,,,0,0,0,0,0
0.2973,1783968608.6466,1,0,6.5000,-0.0000,1.42244,0.00071,-2.63053,1.05907,1.57080,0.11675,-0.12764,-0.48152,0.03738,,,,,,,,,,,,,,,,,,,,,,,,,,0,0,0,0,0
0.2988,1783968608.6482,1,0,6.5000,-0.0000,1.42244,0.00071,-2.63053,1.05907,1.57080,0.11675,-0.12764,-0.48152,0.03738,,,,,,,,,,,,,,,,,,,,,,,,,,0,0,0,0,0
0.3046,1783968608.6539,1,0,6.5000,-0.0000,1.42244,0.00071,-2.63053,1.05907,1.57080,0.11675,-0.12764,-0.48152,0.03738,,,,,,,,,,,,,,,,,,,,,,,,,,0,0,0,0,0
0.3051,1783968608.6544,1,0,6.5000,-0.0000,1.42244,0.00071,-2.63053,1.05907,1.57080,0.11675,-0.12764,-0.48152,0.03738,,,,,,,,,,,,,,,,,,,,,,,,,,0,0,0,0,0
0.3072,1783968608.6565,1,0,6.5000,-0.0000,1.42244,0.00071,-2.63053,1.05907,1.57080,0.11675,-0.12764,-0.48152,0.03738,,,,,,,,,,,,,,,,,,,,,,,,,,0,0,0,0,0
0.3076,1783968608.6569,1,0,6.5000,-0.0000,1.42244,0.00071,-2.63053,1.05907,1.57080,0.11675,-0.12764,-0.48152,0.03738,,,,,,,,,,,,,,,,,,,,,,,,,,0,0,0,0,0
0.3081,1783968608.6575,1,0,6.5000,-0.0000,1.42244,0.00071,-2.63053,1.05907,1.57080,0.11675,-0.12764,-0.48152,0.03738,,,,,,,,,,,,,,,,,,,,,,,,,,0,0,0,0,0
0.3184,1783968608.6677,1,0,6.5000,-0.0000,1.42244,0.00071,-2.63053,1.05907,1.57080,0.11675,-0.12764,-0.48152,0.03738,,,,,,,,,,,,,,,,,,,,,,,,,,0,0,0,0,0
0.3413,1783968608.6907,1,0,6.5000,-0.0000,1.42244,0.00071,-2.63053,1.05907,1.57080,0.11675,-0.12764,-0.48152,0.03738,,,,,,,,,,,,,,,,,,,,,,,,,,0,0,0,0,0
0.3417,1783968608.6910,1,0,6.5000,-0.0000,1.42244,0.00071,-2.63053,1.05907,1.57080,0.11675,-0.12764,-0.48152,0.03738,,,,,,,,,,,,,,,,,,,,,,,,,,0,0,0,0,0
0.3614,1783968608.7107,1,0,6.5000,-0.0000,1.42244,0.00071,-2.63053,1.05907,1.57080,0.11675,-0.12764,-0.48152,0.03738,,,,,,,,,,,,,,,,,,,,,,,,,,0,0,0,0,0
0.3619,1783968608.7112,1,0,6.5000,-0.0000,1.42244,0.00071,-2.63053,1.05907,1.57080,0.11675,-0.12764,-0.48152,0.03738,,,,,,,,,,,,,,,,,,,,,,,,,,0,0,0,0,0
0.4014,1783968608.7507,1,0,6.5000,-0.0000,1.42244,0.00071,-2.63053,1.05907,1.57080,0.11675,-0.12764,-0.48152,0.03738,,,,,,,,,,,,,,,,,,,,,,,,,,0,0,0,0,0
0.4041,1783968608.7534,1,0,6.5000,-0.0000,1.42244,0.00071,-2.63053,1.05907,1.57080,0.11675,-0.12764,-0.48152,0.03738,,,,,,,,,,,,,,,,,,,,,,,,,,0,0,0,0,0
0.4215,1783968608.7708,1,0,6.5000,-0.0000,1.42244,0.00071,-2.63053,1.05907,1.57080,0.11675,-0.12764,-0.48152,0.03738,,,,,,,,,,,,,,,,,,,,,,,,,,0,0,0,0,0
0.4218,1783968608.7712,1,0,6.5000,-0.0000,1.42244,0.00071,-2.63053,1.05907,1.57080,0.11675,-0.12764,-0.48152,0.03738,,,,,,,,,,,,,,,,,,,,,,,,,,0,0,0,0,0
0.4241,1783968608.7734,1,0,6.5000,-0.0000,1.42244,0.00071,-2.63053,1.05907,1.57080,0.11675,-0.12764,-0.48152,0.03738,,,,,,,,,,,,,,,,,,,,,,,,,,0,0,0,0,0
0.4244,1783968608.7737,1,0,6.5000,-0.0000,1.42244,0.00071,-2.63053,1.05907,1.57080,0.11675,-0.12764,-0.48152,0.03738,,,,,,,,,,,,,,,,,,,,,,,,,,0,0,0,0,0
0.4455,1783968608.7948,1,0,6.5000,-0.0000,1.42244,0.00071,-2.63053,1.05907,1.57080,0.11675,-0.12764,-0.48152,0.03738,,,,,,,,,,,,,,,,,,,,,,,,,,0,0,0,0,0
0.4493,1783968608.7986,1,0,6.5000,-0.0000,1.42244,0.00071,-2.63053,1.05907,1.57080,0.11675,-0.12764,-0.48152,0.03738,,,,,,,,,,,,,,,,,,,,,,,,,,0,0,0,0,0
0.4533,1783968608.8026,1,0,6.5000,-0.0000,1.42244,0.00071,-2.63053,1.05907,1.57080,0.11675,-0.12764,-0.48152,0.03738,,,,,,,,,,,,,,,,,,,,,,,,,,0,0,0,0,0
0.4537,1783968608.8031,1,0,6.5000,-0.0000,1.42244,0.00071,-2.63053,1.05907,1.57080,0.11675,-0.12764,-0.48152,0.03738,,,,,,,,,,,,,,,,,,,,,,,,,,0,0,0,0,0
0.5273,1783968608.8766,1,0,6.5000,-0.0000,1.42244,0.00071,-2.63053,1.05907,1.57080,0.11675,-0.12764,-0.48152,0.03738,,,,,,,,,,,,,,,,,,,,,,,,,,0,0,0,0,0
0.5278,1783968608.8772,1,0,6.5000,-0.0000,1.42244,0.00071,-2.63053,1.05907,1.57080,0.11675,-0.12764,-0.48152,0.03738,,,,,,,,,,,,,,,,,,,,,,,,,,0,0,0,0,0
0.5283,1783968608.8776,1,0,6.5000,-0.0000,1.42244,0.00071,-2.63053,1.05907,1.57080,0.11675,-0.12764,-0.48152,0.03738,,,,,,,,,,,,,,,,,,,,,,,,,,0,0,0,0,0
0.5307,1783968608.8800,1,0,6.5000,-0.0000,1.42244,0.00071,-2.63053,1.05907,1.57080,0.11675,-0.12764,-0.48152,0.03738,,,,,,,,,,,,,,,,,,,,,,,,,,0,0,0,0,0
0.5311,1783968608.8804,1,0,6.5000,-0.0000,1.42244,0.00071,-2.63053,1.05907,1.57080,0.11675,-0.12764,-0.48152,0.03738,,,,,,,,,,,,,,,,,,,,,,,,,,0,0,0,0,0
0.5353,1783968608.8846,1,0,6.5000,-0.0000,1.42244,0.00071,-2.63053,1.05907,1.57080,0.11675,-0.12764,-0.48152,0.03738,,,,,,,,,,,,,,,,,,,,,,,,,,0,0,0,0,0
0.5390,1783968608.8884,1,0,6.5000,-0.0000,1.42244,0.00071,-2.63053,1.05907,1.57080,0.11675,-0.12764,-0.48152,0.03738,,,,,,,,,,,,,,,,,,,,,,,,,,0,0,0,0,0
0.5393,1783968608.8887,1,0,6.5000,-0.0000,1.42244,0.00071,-2.63053,1.05907,1.57080,0.11675,-0.12764,-0.48152,0.03738,,,,,,,,,,,,,,,,,,,,,,,,,,0,0,0,0,0
0.5413,1783968608.8906,1,0,6.5000,-0.0000,1.42244,0.00071,-2.63053,1.05907,1.57080,0.11675,-0.12764,-0.48152,0.03738,,,,,,,,,,,,,,,,,,,,,,,,,,0,0,0,0,0
0.5414,1783968608.8908,1,0,6.5000,-0.0000,1.42244,0.00071,-2.63053,1.05907,1.57080,0.11675,-0.12764,-0.48152,0.03738,,,,,,,,,,,,,,,,,,,,,,,,,,0,0,0,0,0
0.5418,1783968608.8911,1,0,6.5000,-0.0000,1.42244,0.00071,-2.63053,1.05907,1.57080,0.11675,-0.12764,-0.48152,0.03738,,,,,,,,,,,,,,,,,,,,,,,,,,0,0,0,0,0
0.5421,1783968608.8914,1,0,6.5000,-0.0000,1.42244,0.00071,-2.63053,1.05907,1.57080,0.11675,-0.12764,-0.48152,0.03738,,,,,,,,,,,,,,,,,,,,,,,,,,0,0,0,0,0
0.5946,1783968608.9439,1,0,6.5000,-0.0000,1.42244,0.00071,-2.63053,1.05907,1.57080,0.11675,-0.12764,-0.48152,0.03738,,,,,,,,,,,,,,,,,,,,,,,,,,0,0,0,0,0
0.6142,1783968608.9636,1,0,6.5000,-0.0000,1.42244,0.00071,-2.63053,1.05907,1.57080,0.11675,-0.12764,-0.48152,0.03738,,,,,,,,,,,,,,,,,,,,,,,,,,0,0,0,0,0
0.6147,1783968608.9641,1,0,6.5000,-0.0000,1.42244,0.00071,-2.63053,1.05907,1.57080,0.11675,-0.12764,-0.48152,0.03738,,,,,,,,,,,,,,,,,,,,,,,,,,0,0,0,0,0
0.6151,1783968608.9644,1,0,6.5000,-0.0000,1.42244,0.00071,-2.63053,1.05907,1.57080,0.11675,-0.12764,-0.48152,0.03738,,,,,,,,,,,,,,,,,,,,,,,,,,0,0,0,0,0
0.6164,1783968608.9658,1,0,6.5000,-0.0000,1.42244,0.00071,-2.63053,1.05907,1.57080,0.11675,-0.12764,-0.48152,0.03738,,,,,,,,,,,,,,,,,,,,,,,,,,0,0,0,0,0
0.6167,1783968608.9660,1,0,6.5000,-0.0000,1.42244,0.00071,-2.63053,1.05907,1.57080,0.11675,-0.12764,-0.48152,0.03738,,,,,,,,,,,,,,,,,,,,,,,,,,0,0,0,0,0
0.6192,1783968608.9686,1,0,6.5000,-0.0000,1.42244,0.00071,-2.63053,1.05907,1.57080,0.11675,-0.12764,-0.48152,0.03738,,,,,,,,,,,,,,,,,,,,,,,,,,0,0,0,0,0
0.6195,1783968608.9688,1,0,6.5000,-0.0000,1.42244,0.00071,-2.63053,1.05907,1.57080,0.11675,-0.12764,-0.48152,0.03738,,,,,,,,,,,,,,,,,,,,,,,,,,0,0,0,0,0
0.6279,1783968608.9772,1,0,6.5000,-0.0000,1.42244,0.00071,-2.63053,1.05907,1.57080,0.11675,-0.12764,-0.48152,0.03738,,,,,,,,,,,,,,,,,,,,,,,,,,0,0,0,0,0
0.6620,1783968609.0114,1,0,6.5000,-0.0000,1.42244,0.00071,-2.63053,1.05907,1.57080,0.11675,-0.12764,-0.48152,0.03738,,,,,,,,,,,,,,,,,,,,,,,,,,0,0,0,0,0
0.6624,1783968609.0117,1,0,6.5000,-0.0000,1.42244,0.00071,-2.63053,1.05907,1.57080,0.11675,-0.12764,-0.48152,0.03738,,,,,,,,,,,,,,,,,,,,,,,,,,0,0,0,0,0
0.6629,1783968609.0122,1,0,6.5000,-0.0000,1.42244,0.00071,-2.63053,1.05907,1.57080,0.11675,-0.12764,-0.48152,0.03738,,,,,,,,,,,,,,,,,,,,,,,,,,0,0,0,0,0
0.7105,1783968609.0599,1,0,6.5000,-0.0000,1.42244,0.00071,-2.63053,1.05907,1.57080,0.11675,-0.12764,-0.48152,0.03738,,,,,,,,,,,,,,,,,,,,,,,,,,0,0,0,0,0
0.7118,1783968609.0611,1,0,6.5000,-0.0000,1.42244,0.00071,-2.63053,1.05907,1.57080,0.11675,-0.12764,-0.48152,0.03738,,,,,,,,,,,,,,,,,,,,,,,,,,0,0,0,0,0
0.7122,1783968609.0615,1,0,6.5000,-0.0000,1.42244,0.00071,-2.63053,1.05907,1.57080,0.11675,-0.12764,-0.48152,0.03738,,,,,,,,,,,,,,,,,,,,,,,,,,0,0,0,0,0
0.7127,1783968609.0621,1,0,6.5000,-0.0000,1.42244,0.00071,-2.63053,1.05907,1.57080,0.11675,-0.12764,-0.48152,0.03738,,,,,,,,,,,,,,,,,,,,,,,,,,0,0,0,0,0
0.7146,1783968609.0639,1,0,6.5000,-0.0000,1.42244,0.00071,-2.63053,1.05907,1.57080,0.11675,-0.12764,-0.48152,0.03738,,,,,,,,,,,,,,,,,,,,,,,,,,0,0,0,0,0
0.7237,1783968609.0730,1,0,6.5000,-0.0000,1.42244,0.00071,-2.63053,1.05907,1.57080,0.11675,-0.12764,-0.48152,0.03738,,,,,,,,,,,,,,,,,,,,,,,,,,0,0,0,0,0
0.7375,1783968609.0869,1,1,6.5000,-0.0000,1.42244,0.00071,-2.63053,1.05907,1.57080,0.11675,-0.12764,-0.48152,0.03738,,,,,,,,,,,,,,,,,,,,,,,,,,0,0,0,0,0
0.7582,1783968609.1075,1,1,6.5000,-0.0000,1.42244,0.00071,-2.63053,1.05907,1.57080,0.11675,-0.12764,-0.48152,0.03738,,,,,,,,,,,,,,,,,,,,,,,,,,0,0,0,0,0
0.7641,1783968609.1134,1,1,6.5000,-0.0000,1.42244,0.00071,-2.63053,1.05907,1.57080,0.11675,-0.12764,-0.48152,0.03738,,,,,,,,,,,,,,,,,,,,,,,,,,0,0,0,0,0
0.7804,1783968609.1298,1,1,6.5000,-0.0000,1.42244,0.00071,-2.63053,1.05907,1.57080,0.11675,-0.12764,-0.48152,0.03738,,,,,,,,,,,,,,,,,,,,,,,,,,0,0,0,0,0
0.7908,1783968609.1401,1,1,6.5000,-0.0000,1.42244,0.00071,-2.63053,1.05907,1.57080,0.11675,-0.12764,-0.48152,0.03738,,,,,,,,,,,,,,,,,,,,,,,,,,0,0,0,0,0
0.7922,1783968609.1415,1,1,6.5000,-0.0000,1.42244,0.00071,-2.63053,1.05907,1.57080,0.11675,-0.12764,-0.48152,0.03738,,,,,,,,,,,,,,,,,,,,,,,,,,0,0,0,0,0
0.7926,1783968609.1419,1,1,6.5000,-0.0000,1.42244,0.00071,-2.63053,1.05907,1.57080,0.11675,-0.12764,-0.48152,0.03738,,,,,,,,,,,,,,,,,,,,,,,,,,0,0,0,0,0
0.7987,1783968609.1481,1,1,6.5000,-0.0000,1.42244,0.00071,-2.63053,1.05907,1.57080,0.11675,-0.12764,-0.48152,0.03738,,,,,,,,,,,,,,,,,,,,,,,,,,0,0,0,0,0
0.7993,1783968609.1486,1,1,6.5000,-0.0000,1.42244,0.00071,-2.63053,1.05907,1.57080,0.11675,-0.12764,-0.48152,0.03738,,,,,,,,,,,,,,,,,,,,,,,,,,0,0,0,0,0
0.7997,1783968609.1490,1,1,6.5000,-0.0000,1.42244,0.00071,-2.63053,1.05907,1.57080,0.11675,-0.12764,-0.48152,0.03738,,,,,,,,,,,,,,,,,,,,,,,,,,0,0,0,0,0
0.8001,1783968609.1494,1,1,6.5000,-0.0000,1.42244,0.00071,-2.63053,1.05907,1.57080,0.11675,-0.12764,-0.48152,0.03738,,,,,,,,,,,,,,,,,,,,,,,,,,0,0,0,0,0
0.8717,1783968609.2210,1,1,6.5000,-0.0000,1.42244,0.00071,-2.63053,1.05907,1.57080,0.11675,-0.12764,-0.48152,0.03738,,,,,,,,,,,,,,,,,,,,,,,,,,0,0,0,0,0
0.9193,1783968609.2687,1,1,6.5000,-0.0000,1.42244,0.00071,-2.63053,1.05907,1.57080,0.11675,-0.12764,-0.48152,0.03738,,,,,,,,,,,,,,,,,,,,,,,,,,0,0,0,0,0
0.9448,1783968609.2942,1,1,6.5000,-0.0000,1.42244,0.00071,-2.63053,1.05907,1.57080,0.11675,-0.12764,-0.48152,0.03738,,,,,,,,,,,,,,,,,,,,,,,,,,0,0,0,0,0
0.9531,1783968609.3025,1,1,6.5000,-0.0000,1.42244,0.00071,-2.63053,1.05907,1.57080,0.11675,-0.12764,-0.48152,0.03738,,,,,,,,,,,,,,,,,,,,,,,,,,0,0,0,0,0
0.9630,1783968609.3124,1,1,6.5000,-0.0000,1.42244,0.00071,-2.63053,1.05907,1.57080,0.11675,-0.12764,-0.48152,0.03738,,,,,,,,,,,,,,,,,,,,,,,,,,0,0,0,0,0
0.9633,1783968609.3127,1,1,6.5000,-0.0000,1.42244,0.00071,-2.63053,1.05907,1.57080,0.11675,-0.12764,-0.48152,0.03738,,,,,,,,,,,,,,,,,,,,,,,,,,0,0,0,0,0
0.9637,1783968609.3130,1,1,6.5000,-0.0000,1.42244,0.00071,-2.63053,1.05907,1.57080,0.11675,-0.12764,-0.48152,0.03738,,,,,,,,,,,,,,,,,,,,,,,,,,0,0,0,0,0
0.9797,1783968609.3291,1,1,6.5000,-0.0000,1.42244,0.00071,-2.63053,1.05907,1.57080,0.11675,-0.12764,-0.48152,0.03738,,,,,,,,,,,,,,,,,,,,,,,,,,0,0,0,0,0
0.9801,1783968609.3294,1,1,6.5000,-0.0000,1.42244,0.00071,-2.63053,1.05907,1.57080,0.11675,-0.12764,-0.48152,0.03738,,,,,,,,,,,,,,,,,,,,,,,,,,0,0,0,0,0
1.0120,1783968609.3613,1,1,6.5000,-0.0000,1.42244,0.00071,-2.63053,1.05907,1.57080,0.11675,-0.12764,-0.48152,0.03738,,,,,,,,,,,,,,,,,,,,,,,,,,0,0,0,0,0
1.0179,1783968609.3672,1,1,6.5000,-0.0000,1.42244,0.00071,-2.63053,1.05907,1.57080,0.11675,-0.12764,-0.48152,0.03738,,,,,,,,,,,,,,,,,,,,,,,,,,0,0,0,0,0
1.0393,1783968609.3886,1,1,6.5000,-0.0000,1.42244,0.00070,-2.63056,1.05907,1.57080,0.11675,-0.12764,-0.48150,0.03736,,,,,,,,,,,,,,,,,,,,,,,,,,0,0,0,0,0
1.0686,1783968609.4179,1,1,6.5000,-0.0000,1.42244,0.00064,-2.63060,1.05908,1.57080,0.11675,-0.12764,-0.48147,0.03732,,,,,,,,,,,,,,,,,,,,,,,,,,0,0,0,0,0
1.1208,1783968609.4702,1,1,6.5000,-0.0000,1.42244,0.00041,-2.63072,1.05923,1.57080,0.11675,-0.12766,-0.48138,0.03718,,,,,,,,,,,,,,,,,,,,,,,,,,0,0,0,0,0
1.1212,1783968609.4705,1,1,6.5000,-0.0000,1.42244,0.00041,-2.63072,1.05923,1.57080,0.11675,-0.12766,-0.48138,0.03718,,,,,,,,,,,,,,,,,,,,,,,,,,0,0,0,0,0
1.1240,1783968609.4733,1,1,6.5000,-0.0000,1.42244,0.00038,-2.63072,1.05927,1.57080,0.11675,-0.12766,-0.48138,0.03718,,,,,,,,,,,,,,,,,,,,,,,,,,0,0,0,0,0
1.1264,1783968609.4758,1,1,6.5000,-0.0000,1.42244,0.00034,-2.63073,1.05931,1.57080,0.11675,-0.12766,-0.48139,0.03717,,,,,,,,,,,,,,,,,,,,,,,,,,0,0,0,0,0
1.1267,1783968609.4760,1,1,6.5000,-0.0000,1.42244,0.00034,-2.63073,1.05931,1.57080,0.11675,-0.12766,-0.48139,0.03717,,,,,,,,,,,,,,,,,,,,,,,,,,0,0,0,0,0
1.1377,1783968609.4870,1,1,6.5000,-0.0000,1.42244,0.00032,-2.63073,1.05933,1.57080,0.11675,-0.12766,-0.48139,0.03716,,,,,,,,,,,,,,,,,,,,,,,,,,0,0,0,0,0
1.1381,1783968609.4874,1,1,6.5000,-0.0000,1.42244,0.00032,-2.63073,1.05933,1.57080,0.11675,-0.12766,-0.48139,0.03716,,,,,,,,,,,,,,,,,,,,,,,,,,0,0,0,0,0
1.1690,1783968609.5183,1,1,6.5000,-0.0000,1.42244,0.00017,-2.63075,1.05952,1.57080,0.11675,-0.12765,-0.48140,0.03712,,,,,,,,,,,,,,,,,,,,,,,,,,0,0,0,0,0
1.1698,1783968609.5191,1,1,6.5000,-0.0000,1.42244,0.00013,-2.63075,1.05957,1.57080,0.11675,-0.12765,-0.48140,0.03710,,,,,,,,,,,,,,,,,,,,,,,,,,0,0,0,0,0
1.1876,1783968609.5369,1,1,6.5000,-0.0000,1.42244,-0.00007,-2.63078,1.05983,1.57080,0.11675,-0.12765,-0.48142,0.03704,,,,,,,,,,,,,,,,,,,,,,,,,,0,0,0,0,0
1.2250,1783968609.5743,1,1,6.5000,-0.0000,1.42244,-0.00027,-2.63079,1.06010,1.57080,0.11675,-0.12764,-0.48145,0.03700,,,,,,,,,,,,,,,,,,,,,,,,,,0,0,0,0,0
1.2351,1783968609.5845,1,1,6.5000,-0.0000,1.42244,-0.00037,-2.63078,1.06024,1.57080,0.11675,-0.12764,-0.48148,0.03698,,,,,,,,,,,,,,,,,,,,,,,,,,0,0,0,0,0
1.2538,1783968609.6032,1,1,6.5000,-0.0000,1.42244,-0.00047,-2.63076,1.06038,1.57080,0.11675,-0.12763,-0.48152,0.03697,,,,,,,,,,,,,,,,,,,,,,,,,,0,0,0,0,0
1.2749,1783968609.6242,1,1,6.5000,-0.0000,1.42244,-0.00047,-2.63076,1.06038,1.57080,0.11675,-0.12763,-0.48152,0.03697,,,,,,,,,,,,,,,,,,,,,,,,,,0,0,0,0,0
1.2819,1783968609.6313,1,1,6.5000,-0.0000,1.42244,-0.00047,-2.63076,1.06038,1.57080,0.11675,-0.12763,-0.48152,0.03697,,,,,,,,,,,,,,,,,,,,,,,,,,0,0,0,0,0
1.2822,1783968609.6316,1,1,6.5000,-0.0000,1.42244,-0.00047,-2.63076,1.06038,1.57080,0.11675,-0.12763,-0.48152,0.03697,,,,,,,,,,,,,,,,,,,,,,,,,,0,0,0,0,0
1.2826,1783968609.6319,1,1,6.5000,-0.0000,1.42244,-0.00047,-2.63076,1.06038,1.57080,0.11675,-0.12763,-0.48152,0.03697,,,,,,,,,,,,,,,,,,,,,,,,,,0,0,0,0,0
1.2919,1783968609.6413,1,1,6.5000,-0.0000,1.42244,-0.00047,-2.63076,1.06038,1.57080,0.11675,-0.12763,-0.48152,0.03697,,,,,,,,,,,,,,,,,,,,,,,,,,0,0,0,0,0
1.3480,1783968609.6973,1,1,6.5000,-0.0000,1.42244,-0.00047,-2.63076,1.06038,1.57080,0.11675,-0.12763,-0.48152,0.03697,,,,,,,,,,,,,,,,,,,,,,,,,,0,0,0,0,0
1.3629,1783968609.7122,1,1,6.5000,-0.0000,1.42244,-0.00047,-2.63076,1.06038,1.57080,0.11675,-0.12763,-0.48152,0.03697,,,,,,,,,,,,,,,,,,,,,,,,,,0,0,0,0,0
1.3699,1783968609.7192,1,1,6.5000,-0.0000,1.42244,-0.00047,-2.63076,1.06038,1.57080,0.11675,-0.12763,-0.48152,0.03697,,,,,,,,,,,,,,,,,,,,,,,,,,0,0,0,0,0
1.3707,1783968609.7200,1,1,6.5000,-0.0000,1.42244,-0.00047,-2.63076,1.06038,1.57080,0.11675,-0.12763,-0.48152,0.03697,,,,,,,,,,,,,,,,,,,,,,,,,,0,0,0,0,0
1.3718,1783968609.7211,1,1,6.5000,-0.0000,1.42244,-0.00047,-2.63076,1.06038,1.57080,0.11675,-0.12763,-0.48152,0.03697,,,,,,,,,,,,,,,,,,,,,,,,,,0,0,0,0,0
1.3720,1783968609.7214,1,1,6.5000,-0.0000,1.42244,-0.00047,-2.63076,1.06038,1.57080,0.11675,-0.12763,-0.48152,0.03697,,,,,,,,,,,,,,,,,,,,,,,,,,0,0,0,0,0
1.3792,1783968609.7286,1,1,6.5000,-0.0000,1.42244,-0.00047,-2.63076,1.06038,1.57080,0.11675,-0.12763,-0.48152,0.03697,,,,,,,,,,,,,,,,,,,,,,,,,,0,0,0,0,0
1.4027,1783968609.7521,1,1,6.5000,-0.0000,1.42244,-0.00047,-2.63076,1.06038,1.57080,0.11675,-0.12763,-0.48152,0.03697,,,,,,,,,,,,,,,,,,,,,,,,,,0,0,0,0,0
1.4099,1783968609.7592,1,1,6.5000,-0.0000,1.42244,-0.00047,-2.63076,1.06038,1.57080,0.11675,-0.12763,-0.48152,0.03697,,,,,,,,,,,,,,,,,,,,,,,,,,0,0,0,0,0
1.4102,1783968609.7595,1,1,6.5000,-0.0000,1.42244,-0.00047,-2.63076,1.06038,1.57080,0.11675,-0.12763,-0.48152,0.03697,,,,,,,,,,,,,,,,,,,,,,,,,,0,0,0,0,0
1.4110,1783968609.7603,1,1,6.5000,-0.0000,1.42244,-0.00047,-2.63076,1.06038,1.57080,0.11675,-0.12763,-0.48152,0.03697,,,,,,,,,,,,,,,,,,,,,,,,,,0,0,0,0,0
1.4113,1783968609.7607,1,1,6.5000,-0.0000,1.42244,-0.00047,-2.63076,1.06038,1.57080,0.11675,-0.12763,-0.48152,0.03697,,,,,,,,,,,,,,,,,,,,,,,,,,0,0,0,0,0
1.4181,1783968609.7675,1,1,6.5000,-0.0000,1.42244,-0.00047,-2.63076,1.06038,1.57080,0.11675,-0.12763,-0.48152,0.03697,,,,,,,,,,,,,,,,,,,,,,,,,,0,0,0,0,0
1.4184,1783968609.7678,1,1,6.5000,-0.0000,1.42244,-0.00047,-2.63076,1.06038,1.57080,0.11675,-0.12763,-0.48152,0.03697,,,,,,,,,,,,,,,,,,,,,,,,,,0,0,0,0,0
1.4195,1783968609.7688,1,1,6.5000,-0.0000,1.42244,-0.00047,-2.63076,1.06038,1.57080,0.11675,-0.12763,-0.48152,0.03697,,,,,,,,,,,,,,,,,,,,,,,,,,0,0,0,0,0
1.4223,1783968609.7716,1,1,6.5000,-0.0000,1.42244,-0.00047,-2.63076,1.06038,1.57080,0.11675,-0.12763,-0.48152,0.03697,,,,,,,,,,,,,,,,,,,,,,,,,,0,0,0,0,0
1.4227,1783968609.7720,1,1,6.5000,-0.0000,1.42244,-0.00047,-2.63076,1.06038,1.57080,0.11675,-0.12763,-0.48152,0.03697,,,,,,,,,,,,,,,,,,,,,,,,,,0,0,0,0,0
1.4249,1783968609.7742,1,1,6.5000,-0.0000,1.42244,-0.00047,-2.63076,1.06038,1.57080,0.11675,-0.12763,-0.48152,0.03697,,,,,,,,,,,,,,,,,,,,,,,,,,0,0,0,0,0
1.4253,1783968609.7747,1,1,6.5000,-0.0000,1.42244,-0.00047,-2.63076,1.06038,1.57080,0.11675,-0.12763,-0.48152,0.03697,,,,,,,,,,,,,,,,,,,,,,,,,,0,0,0,0,0
1.4263,1783968609.7757,1,1,6.5000,-0.0000,1.42244,-0.00047,-2.63076,1.06038,1.57080,0.11675,-0.12763,-0.48152,0.03697,,,,,,,,,,,,,,,,,,,,,,,,,,0,0,0,0,0
1.4268,1783968609.7761,1,1,6.5000,-0.0000,1.42244,-0.00047,-2.63076,1.06038,1.57080,0.11675,-0.12763,-0.48152,0.03697,,,,,,,,,,,,,,,,,,,,,,,,,,0,0,0,0,0
1.4274,1783968609.7767,1,1,6.5000,-0.0000,1.42244,-0.00047,-2.63076,1.06038,1.57080,0.11675,-0.12763,-0.48152,0.03697,,,,,,,,,,,,,,,,,,,,,,,,,,0,0,0,0,0
1.4278,1783968609.7772,1,1,6.5000,-0.0000,1.42244,-0.00047,-2.63076,1.06038,1.57080,0.11675,-0.12763,-0.48152,0.03697,,,,,,,,,,,,,,,,,,,,,,,,,,0,0,0,0,0
1.4500,1783968609.7993,1,1,6.5000,-0.0000,1.42244,-0.00048,-2.63078,1.06044,1.57080,0.11675,-0.12764,-0.48151,0.03697,,,,,,,,,,,,,,,,,,,,,,,,,,0,0,0,0,0
1.4526,1783968609.8019,1,1,6.5000,-0.0000,1.42244,-0.00048,-2.63078,1.06044,1.57080,0.11675,-0.12764,-0.48151,0.03697,,,,,,,,,,,,,,,,,,,,,,,,,,0,0,0,0,0
1.4540,1783968609.8033,1,1,6.5000,-0.0000,1.42244,-0.00049,-2.63079,1.06046,1.57080,0.11675,-0.12764,-0.48151,0.03696,,,,,,,,,,,,,,,,,,,,,,,,,,0,0,0,0,0
1.4672,1783968609.8165,1,1,6.5000,-0.0000,1.42244,-0.00049,-2.63080,1.06047,1.57080,0.11675,-0.12764,-0.48151,0.03696,,,,,,,,,,,,,,,,,,,,,,,,,,0,0,0,0,0
1.4805,1783968609.8299,1,1,6.5000,-0.0000,1.42244,-0.00053,-2.63084,1.06052,1.57080,0.11675,-0.12764,-0.48149,0.03693,,,,,,,,,,,,,,,,,,,,,,,,,,0,0,0,0,0
1.4900,1783968609.8394,1,1,6.5000,-0.0000,1.42244,-0.00057,-2.63087,1.06058,1.57080,0.11675,-0.12764,-0.48147,0.03691,,,,,,,,,,,,,,,,,,,,,,,,,,0,0,0,0,0
1.5128,1783968609.8621,1,1,6.5000,-0.0000,1.42244,-0.00064,-2.63091,1.06068,1.57080,0.11675,-0.12764,-0.48145,0.03688,,,,,,,,,,,,,,,,,,,,,,,,,,0,0,0,0,0
1.5191,1783968609.8684,1,1,6.5000,-0.0000,1.42244,-0.00065,-2.63091,1.06068,1.57080,0.11675,-0.12764,-0.48145,0.03687,,,,,,,,,,,,,,,,,,,,,,,,,,0,0,0,0,0
1.5221,1783968609.8715,1,1,6.5000,-0.0000,1.42244,-0.00066,-2.63092,1.06070,1.57080,0.11675,-0.12764,-0.48145,0.03687,,,,,,,,,,,,,,,,,,,,,,,,,,0,0,0,0,0
1.5226,1783968609.8719,1,1,6.5000,-0.0000,1.42244,-0.00066,-2.63092,1.06070,1.57080,0.11675,-0.12764,-0.48145,0.03687,,,,,,,,,,,,,,,,,,,,,,,,,,0,0,0,0,0
1.5514,1783968609.9007,1,1,6.5000,-0.0000,1.42244,-0.00089,-2.63098,1.06100,1.57080,0.11675,-0.12764,-0.48145,0.03679,,,,,,,,,,,,,,,,,,,,,,,,,,0,0,0,0,0
1.5687,1783968609.9180,1,1,6.5000,-0.0000,1.42244,-0.00096,-2.63100,1.06109,1.57080,0.11675,-0.12764,-0.48145,0.03677,,,,,,,,,,,,,,,,,,,,,,,,,,0,0,0,0,0
1.5703,1783968609.9196,1,1,6.5000,-0.0000,1.42244,-0.00100,-2.63100,1.06114,1.57080,0.11675,-0.12764,-0.48145,0.03675,,,,,,,,,,,,,,,,,,,,,,,,,,0,0,0,0,0
1.5706,1783968609.9200,1,1,6.5000,-0.0000,1.42244,-0.00100,-2.63100,1.06114,1.57080,0.11675,-0.12764,-0.48145,0.03675,,,,,,,,,,,,,,,,,,,,,,,,,,0,0,0,0,0
1.5724,1783968609.9217,1,1,6.5000,-0.0000,1.42244,-0.00100,-2.63100,1.06114,1.57080,0.11675,-0.12764,-0.48145,0.03675,,,,,,,,,,,,,,,,,,,,,,,,,,0,0,0,0,0
1.5738,1783968609.9231,1,1,6.5000,-0.0000,1.42244,-0.00104,-2.63101,1.06119,1.57080,0.11675,-0.12764,-0.48145,0.03674,,,,,,,,,,,,,,,,,,,,,,,,,,0,0,0,0,0
1.5774,1783968609.9267,1,1,6.5000,-0.0000,1.42244,-0.00104,-2.63101,1.06119,1.57080,0.11675,-0.12764,-0.48145,0.03674,,,,,,,,,,,,,,,,,,,,,,,,,,0,0,0,0,0
1.5782,1783968609.9275,1,1,6.5000,-0.0000,1.42244,-0.00109,-2.63102,1.06124,1.57080,0.11675,-0.12764,-0.48145,0.03673,,,,,,,,,,,,,,,,,,,,,,,,,,0,0,0,0,0
1.5787,1783968609.9280,1,1,6.5000,-0.0000,1.42244,-0.00109,-2.63102,1.06124,1.57080,0.11675,-0.12764,-0.48145,0.03673,,,,,,,,,,,,,,,,,,,,,,,,,,0,0,0,0,0
1.5790,1783968609.9284,1,1,6.5000,-0.0000,1.42244,-0.00109,-2.63102,1.06124,1.57080,0.11675,-0.12764,-0.48145,0.03673,,,,,,,,,,,,,,,,,,,,,,,,,,0,0,0,0,0
1.5808,1783968609.9301,1,1,6.5000,-0.0000,1.42244,-0.00109,-2.63102,1.06124,1.57080,0.11675,-0.12764,-0.48145,0.03673,,,,,,,,,,,,,,,,,,,,,,,,,,0,0,0,0,0
1.5888,1783968609.9381,1,1,6.5000,-0.0000,1.42244,-0.00109,-2.63102,1.06125,1.57080,0.11675,-0.12764,-0.48145,0.03672,,,,,,,,,,,,,,,,,,,,,,,,,,0,0,0,0,0
1.5907,1783968609.9400,1,1,6.5000,-0.0000,1.42244,-0.00111,-2.63102,1.06127,1.57080,0.11675,-0.12764,-0.48146,0.03672,,,,,,,,,,,,,,,,,,,,,,,,,,0,0,0,0,0
1.5911,1783968609.9404,1,1,6.5000,-0.0000,1.42244,-0.00111,-2.63102,1.06127,1.57080,0.11675,-0.12764,-0.48146,0.03672,,,,,,,,,,,,,,,,,,,,,,,,,,0,0,0,0,0
1.5941,1783968609.9434,1,1,6.5000,-0.0000,1.42244,-0.00113,-2.63103,1.06130,1.57080,0.11675,-0.12764,-0.48146,0.03671,,,,,,,,,,,,,,,,,,,,,,,,,,0,0,0,0,0
1.5946,1783968609.9439,1,1,6.5000,-0.0000,1.42244,-0.00113,-2.63103,1.06130,1.57080,0.11675,-0.12764,-0.48146,0.03671,,,,,,,,,,,,,,,,,,,,,,,,,,0,0,0,0,0
1.6460,1783968609.9953,1,1,6.5000,-0.0000,1.42244,-0.00161,-2.63110,1.06190,1.57080,0.11675,-0.12764,-0.48149,0.03657,,,,,,,,,,,,,,,,,,,,,,,,,,0,0,0,0,0
1.6552,1783968610.0045,1,1,6.5000,-0.0000,1.42244,-0.00161,-2.63110,1.06190,1.57080,0.11675,-0.12764,-0.48149,0.03657,,,,,,,,,,,,,,,,,,,,,,,,,,0,0,0,0,0
1.6796,1783968610.0289,1,1,6.5000,-0.0000,1.42244,-0.00161,-2.63110,1.06190,1.57080,0.11675,-0.12764,-0.48149,0.03657,,,,,,,,,,,,,,,,,,,,,,,,,,0,0,0,0,0
1.6808,1783968610.0301,1,1,6.5000,-0.0000,1.42244,-0.00161,-2.63110,1.06190,1.57080,0.11675,-0.12764,-0.48149,0.03657,,,,,,,,,,,,,,,,,,,,,,,,,,0,0,0,0,0
1.6811,1783968610.0304,1,1,6.5000,-0.0000,1.42244,-0.00161,-2.63110,1.06190,1.57080,0.11675,-0.12764,-0.48149,0.03657,,,,,,,,,,,,,,,,,,,,,,,,,,0,0,0,0,0
1.6835,1783968610.0328,1,1,6.5000,-0.0000,1.42244,-0.00161,-2.63110,1.06190,1.57080,0.11675,-0.12764,-0.48149,0.03657,,,,,,,,,,,,,,,,,,,,,,,,,,0,0,0,0,0
1.6935,1783968610.0428,1,1,6.5000,-0.0000,1.42244,-0.00161,-2.63110,1.06190,1.57080,0.11675,-0.12764,-0.48149,0.03657,,,,,,,,,,,,,,,,,,,,,,,,,,0,0,0,0,0
1.7093,1783968610.0586,1,1,6.5000,-0.0000,1.42244,-0.00161,-2.63110,1.06190,1.57080,0.11675,-0.12764,-0.48149,0.03657,,,,,,,,,,,,,,,,,,,,,,,,,,0,0,0,0,0
1.7130,1783968610.0623,1,1,6.5000,-0.0000,1.42244,-0.00161,-2.63110,1.06190,1.57080,0.11675,-0.12764,-0.48149,0.03657,,,,,,,,,,,,,,,,,,,,,,,,,,0,0,0,0,0
1.7133,1783968610.0626,1,1,6.5000,-0.0000,1.42244,-0.00161,-2.63110,1.06190,1.57080,0.11675,-0.12764,-0.48149,0.03657,,,,,,,,,,,,,,,,,,,,,,,,,,0,0,0,0,0
1.7181,1783968610.0675,1,1,6.5000,-0.0000,1.42244,-0.00161,-2.63110,1.06190,1.57080,0.11675,-0.12764,-0.48149,0.03657,,,,,,,,,,,,,,,,,,,,,,,,,,0,0,0,0,0
1.7185,1783968610.0678,1,1,6.5000,-0.0000,1.42244,-0.00161,-2.63110,1.06190,1.57080,0.11675,-0.12764,-0.48149,0.03657,,,,,,,,,,,,,,,,,,,,,,,,,,0,0,0,0,0
1.7275,1783968610.0768,1,1,6.5000,-0.0000,1.42244,-0.00161,-2.63110,1.06190,1.57080,0.11675,-0.12764,-0.48149,0.03657,,,,,,,,,,,,,,,,,,,,,,,,,,0,0,0,0,0
1.7298,1783968610.0791,1,1,6.5000,-0.0000,1.42244,-0.00161,-2.63110,1.06190,1.57080,0.11675,-0.12764,-0.48149,0.03657,,,,,,,,,,,,,,,,,,,,,,,,,,0,0,0,0,0
1.7303,1783968610.0796,1,1,6.5000,-0.0000,1.42244,-0.00161,-2.63110,1.06190,1.57080,0.11675,-0.12764,-0.48149,0.03657,,,,,,,,,,,,,,,,,,,,,,,,,,0,0,0,0,0
1.7308,1783968610.0801,1,1,6.5000,-0.0000,1.42244,-0.00161,-2.63110,1.06190,1.57080,0.11675,-0.12764,-0.48149,0.03657,,,,,,,,,,,,,,,,,,,,,,,,,,0,0,0,0,0
1.7319,1783968610.0812,1,1,6.5000,-0.0000,1.42244,-0.00161,-2.63110,1.06190,1.57080,0.11675,-0.12764,-0.48149,0.03657,,,,,,,,,,,,,,,,,,,,,,,,,,0,0,0,0,0
1.7323,1783968610.0816,1,1,6.5000,-0.0000,1.42244,-0.00161,-2.63110,1.06190,1.57080,0.11675,-0.12764,-0.48149,0.03657,,,,,,,,,,,,,,,,,,,,,,,,,,0,0,0,0,0
1.7390,1783968610.0884,1,1,6.5000,-0.0000,1.42244,-0.00161,-2.63110,1.06190,1.57080,0.11675,-0.12764,-0.48149,0.03657,,,,,,,,,,,,,,,,,,,,,,,,,,0,0,0,0,0
1.7401,1783968610.0894,1,1,6.5000,-0.0000,1.42244,-0.00161,-2.63110,1.06190,1.57080,0.11675,-0.12764,-0.48149,0.03657,,,,,,,,,,,,,,,,,,,,,,,,,,0,0,0,0,0
1.7520,1783968610.1013,1,1,6.5000,-0.0000,1.42244,-0.00161,-2.63110,1.06190,1.57080,0.11675,-0.12764,-0.48149,0.03657,,,,,,,,,,,,,,,,,,,,,,,,,,0,0,0,0,0
1.7524,1783968610.1018,1,1,6.5000,-0.0000,1.42244,-0.00161,-2.63110,1.06190,1.57080,0.11675,-0.12764,-0.48149,0.03657,,,,,,,,,,,,,,,,,,,,,,,,,,0,0,0,0,0
1.7628,1783968610.1122,1,1,6.5000,-0.0000,1.42244,-0.00161,-2.63110,1.06190,1.57080,0.11675,-0.12764,-0.48149,0.03657,,,,,,,,,,,,,,,,,,,,,,,,,,0,0,0,0,0
1.7704,1783968610.1198,1,1,6.5000,-0.0000,1.42244,-0.00161,-2.63110,1.06190,1.57080,0.11675,-0.12764,-0.48149,0.03657,,,,,,,,,,,,,,,,,,,,,,,,,,0,0,0,0,0
1.7710,1783968610.1203,1,1,6.5000,-0.0000,1.42244,-0.00161,-2.63110,1.06190,1.57080,0.11675,-0.12764,-0.48149,0.03657,,,,,,,,,,,,,,,,,,,,,,,,,,0,0,0,0,0
1.7730,1783968610.1224,1,1,6.5000,-0.0000,1.42244,-0.00161,-2.63110,1.06190,1.57080,0.11675,-0.12764,-0.48149,0.03657,,,,,,,,,,,,,,,,,,,,,,,,,,0,0,0,0,0
1.7741,1783968610.1235,1,1,6.5000,-0.0000,1.42244,-0.00161,-2.63110,1.06190,1.57080,0.11675,-0.12764,-0.48149,0.03657,,,,,,,,,,,,,,,,,,,,,,,,,,0,0,0,0,0
1.7745,1783968610.1239,1,1,6.5000,-0.0000,1.42244,-0.00161,-2.63110,1.06190,1.57080,0.11675,-0.12764,-0.48149,0.03657,,,,,,,,,,,,,,,,,,,,,,,,,,0,0,0,0,0
1.7749,1783968610.1242,1,1,6.5000,-0.0000,1.42244,-0.00161,-2.63110,1.06190,1.57080,0.11675,-0.12764,-0.48149,0.03657,,,,,,,,,,,,,,,,,,,,,,,,,,0,0,0,0,0
1.7781,1783968610.1274,1,1,6.5000,-0.0000,1.42244,-0.00161,-2.63110,1.06190,1.57080,0.11675,-0.12764,-0.48149,0.03657,,,,,,,,,,,,,,,,,,,,,,,,,,0,0,0,0,0
1.7835,1783968610.1328,1,1,6.5000,-0.0000,1.42244,-0.00161,-2.63110,1.06190,1.57080,0.11675,-0.12764,-0.48149,0.03657,,,,,,,,,,,,,,,,,,,,,,,,,,0,0,0,0,0
1.7839,1783968610.1332,1,1,6.5000,-0.0000,1.42244,-0.00161,-2.63110,1.06190,1.57080,0.11675,-0.12764,-0.48149,0.03657,,,,,,,,,,,,,,,,,,,,,,,,,,0,0,0,0,0
1.7886,1783968610.1379,1,1,6.5000,-0.0000,1.42244,-0.00161,-2.63110,1.06190,1.57080,0.11675,-0.12764,-0.48149,0.03657,,,,,,,,,,,,,,,,,,,,,,,,,,0,0,0,0,0
1.7901,1783968610.1395,1,1,6.5000,-0.0000,1.42244,-0.00161,-2.63110,1.06190,1.57080,0.11675,-0.12764,-0.48149,0.03657,,,,,,,,,,,,,,,,,,,,,,,,,,0,0,0,0,0
1.8145,1783968610.1638,1,1,6.5000,-0.0000,1.42244,-0.00161,-2.63110,1.06190,1.57080,0.11675,-0.12764,-0.48149,0.03657,,,,,,,,,,,,,,,,,,,,,,,,,,0,0,0,0,0
1.8147,1783968610.1641,1,1,6.5000,-0.0000,1.42244,-0.00161,-2.63110,1.06190,1.57080,0.11675,-0.12764,-0.48149,0.03657,,,,,,,,,,,,,,,,,,,,,,,,,,0,0,0,0,0
1.8169,1783968610.1662,1,1,6.5000,-0.0000,1.42244,-0.00161,-2.63110,1.06190,1.57080,0.11675,-0.12764,-0.48149,0.03657,,,,,,,,,,,,,,,,,,,,,,,,,,0,0,0,0,0
1.8174,1783968610.1667,1,1,6.5000,-0.0000,1.42244,-0.00161,-2.63110,1.06190,1.57080,0.11675,-0.12764,-0.48149,0.03657,,,,,,,,,,,,,,,,,,,,,,,,,,0,0,0,0,0
1.8192,1783968610.1685,1,1,6.5000,-0.0000,1.42244,-0.00161,-2.63110,1.06190,1.57080,0.11675,-0.12764,-0.48149,0.03657,,,,,,,,,,,,,,,,,,,,,,,,,,0,0,0,0,0
1.8194,1783968610.1688,1,1,6.5000,-0.0000,1.42244,-0.00161,-2.63110,1.06190,1.57080,0.11675,-0.12764,-0.48149,0.03657,,,,,,,,,,,,,,,,,,,,,,,,,,0,0,0,0,0
1.8228,1783968610.1721,1,1,6.5000,-0.0000,1.42244,-0.00161,-2.63110,1.06190,1.57080,0.11675,-0.12764,-0.48149,0.03657,,,,,,,,,,,,,,,,,,,,,,,,,,0,0,0,0,0
1.8232,1783968610.1726,1,1,6.5000,-0.0000,1.42244,-0.00161,-2.63110,1.06190,1.57080,0.11675,-0.12764,-0.48149,0.03657,,,,,,,,,,,,,,,,,,,,,,,,,,0,0,0,0,0
1.8307,1783968610.1801,1,1,6.5000,-0.0000,1.42244,-0.00161,-2.63110,1.06190,1.57080,0.11675,-0.12764,-0.48149,0.03657,,,,,,,,,,,,,,,,,,,,,,,,,,0,0,0,0,0
1.8319,1783968610.1812,1,1,6.5000,-0.0000,1.42244,-0.00161,-2.63110,1.06190,1.57080,0.11675,-0.12764,-0.48149,0.03657,,,,,,,,,,,,,,,,,,,,,,,,,,0,0,0,0,0
1.8323,1783968610.1816,1,1,6.5000,-0.0000,1.42244,-0.00161,-2.63110,1.06190,1.57080,0.11675,-0.12764,-0.48149,0.03657,,,,,,,,,,,,,,,,,,,,,,,,,,0,0,0,0,0
1.8327,1783968610.1820,1,1,6.5000,-0.0000,1.42244,-0.00161,-2.63110,1.06190,1.57080,0.11675,-0.12764,-0.48149,0.03657,,,,,,,,,,,,,,,,,,,,,,,,,,0,0,0,0,0
1.8348,1783968610.1842,1,1,6.5000,-0.0000,1.42244,-0.00161,-2.63110,1.06190,1.57080,0.11675,-0.12764,-0.48149,0.03657,,,,,,,,,,,,,,,,,,,,,,,,,,0,0,0,0,0
1.8351,1783968610.1844,1,1,6.5000,-0.0000,1.42244,-0.00161,-2.63110,1.06190,1.57080,0.11675,-0.12764,-0.48149,0.03657,,,,,,,,,,,,,,,,,,,,,,,,,,0,0,0,0,0
1.8354,1783968610.1847,1,1,6.5000,-0.0000,1.42244,-0.00161,-2.63110,1.06190,1.57080,0.11675,-0.12764,-0.48149,0.03657,,,,,,,,,,,,,,,,,,,,,,,,,,0,0,0,0,0
1.8392,1783968610.1886,1,1,6.5000,-0.0000,1.42244,-0.00161,-2.63110,1.06190,1.57080,0.11675,-0.12764,-0.48149,0.03657,,,,,,,,,,,,,,,,,,,,,,,,,,0,0,0,0,0
1.8395,1783968610.1888,1,1,6.5000,-0.0000,1.42244,-0.00161,-2.63110,1.06190,1.57080,0.11675,-0.12764,-0.48149,0.03657,,,,,,,,,,,,,,,,,,,,,,,,,,0,0,0,0,0
1.8493,1783968610.1987,1,1,6.5000,-0.0000,1.42244,-0.00161,-2.63110,1.06190,1.57080,0.11675,-0.12764,-0.48149,0.03657,,,,,,,,,,,,,,,,,,,,,,,,,,0,0,0,0,0
1.8499,1783968610.1992,1,1,6.5000,-0.0000,1.42244,-0.00161,-2.63110,1.06190,1.57080,0.11675,-0.12764,-0.48149,0.03657,,,,,,,,,,,,,,,,,,,,,,,,,,0,0,0,0,0
1.8582,1783968610.2075,1,1,6.5000,-0.0000,1.42244,-0.00162,-2.63110,1.06191,1.57080,0.11675,-0.12764,-0.48149,0.03657,,,,,,,,,,,,,,,,,,,,,,,,,,0,0,0,0,0
1.8746,1783968610.2239,1,1,6.5000,-0.0000,1.42244,-0.00163,-2.63110,1.06194,1.57080,0.11675,-0.12764,-0.48149,0.03656,,,,,,,,,,,,,,,,,,,,,,,,,,0,0,0,0,0
1.8771,1783968610.2264,1,1,6.5000,-0.0000,1.42244,-0.00163,-2.63110,1.06194,1.57080,0.11675,-0.12764,-0.48149,0.03656,,,,,,,,,,,,,,,,,,,,,,,,,,0,0,0,0,0
1.8870,1783968610.2363,1,1,6.5000,-0.0000,1.42244,-0.00166,-2.63111,1.06196,1.57080,0.11675,-0.12764,-0.48148,0.03655,,,,,,,,,,,,,,,,,,,,,,,,,,0,0,0,0,0
1.9021,1783968610.2514,1,1,6.5000,-0.0000,1.42243,-0.00173,-2.63117,1.06205,1.57080,0.11675,-0.12764,-0.48146,0.03651,,,,,,,,,,,,,,,,,,,,,,,,,,0,0,0,0,0
1.9024,1783968610.2517,1,1,6.5000,-0.0000,1.42243,-0.00173,-2.63117,1.06205,1.57080,0.11675,-0.12764,-0.48146,0.03651,,,,,,,,,,,,,,,,,,,,,,,,,,0,0,0,0,0
1.9105,1783968610.2598,1,1,6.5000,-0.0000,1.42243,-0.00173,-2.63117,1.06206,1.57080,0.11675,-0.12764,-0.48146,0.03651,,,,,,,,,,,,,,,,,,,,,,,,,,0,0,0,0,0
1.9228,1783968610.2721,1,1,6.5000,-0.0000,1.42243,-0.00178,-2.63119,1.06211,1.57080,0.11675,-0.12764,-0.48145,0.03649,,,,,,,,,,,,,,,,,,,,,,,,,,0,0,0,0,0
1.9232,1783968610.2725,1,1,6.5000,-0.0000,1.42243,-0.00178,-2.63119,1.06211,1.57080,0.11675,-0.12764,-0.48145,0.03649,,,,,,,,,,,,,,,,,,,,,,,,,,0,0,0,0,0
1.9304,1783968610.2797,1,1,6.5000,-0.0000,1.42243,-0.00183,-2.63121,1.06217,1.57080,0.11675,-0.12764,-0.48144,0.03647,,,,,,,,,,,,,,,,,,,,,,,,,,0,0,0,0,0
1.9368,1783968610.2861,1,1,6.5000,-0.0000,1.42243,-0.00186,-2.63122,1.06221,1.57080,0.11675,-0.12764,-0.48144,0.03645,,,,,,,,,,,,,,,,,,,,,,,,,,0,0,0,0,0
1.9539,1783968610.3032,1,1,6.5000,-0.0000,1.42243,-0.00193,-2.63124,1.06230,1.57080,0.11675,-0.12764,-0.48144,0.03643,,,,,,,,,,,,,,,,,,,,,,,,,,0,0,0,0,0
1.9583,1783968610.3076,1,1,6.5000,-0.0000,1.42243,-0.00196,-2.63125,1.06233,1.57080,0.11675,-0.12764,-0.48144,0.03642,,,,,,,,,,,,,,,,,,,,,,,,,,0,0,0,0,0
1.9860,1783968610.3353,1,1,6.5000,-0.0000,1.42243,-0.00214,-2.63127,1.06254,1.57080,0.11675,-0.12764,-0.48144,0.03636,,,,,,,,,,,,,,,,,,,,,,,,,,0,0,0,0,0
1.9866,1783968610.3359,1,1,6.5000,-0.0000,1.42243,-0.00214,-2.63127,1.06254,1.57080,0.11675,-0.12764,-0.48144,0.03636,,,,,,,,,,,,,,,,,,,,,,,,,,0,0,0,0,0
1.9869,1783968610.3362,1,1,6.5000,-0.0000,1.42243,-0.00214,-2.63127,1.06254,1.57080,0.11675,-0.12764,-0.48144,0.03636,,,,,,,,,,,,,,,,,,,,,,,,,,0,0,0,0,0
1.9872,1783968610.3366,1,1,6.5000,-0.0000,1.42243,-0.00214,-2.63127,1.06254,1.57080,0.11675,-0.12764,-0.48144,0.03636,,,,,,,,,,,,,,,,,,,,,,,,,,0,0,0,0,0
1.9980,1783968610.3473,1,1,6.5000,-0.0000,1.42243,-0.00225,-2.63129,1.06267,1.57080,0.11675,-0.12764,-0.48145,0.03633,,,,,,,,,,,,,,,,,,,,,,,,,,0,0,0,0,0
1.9984,1783968610.3477,1,1,6.5000,-0.0000,1.42243,-0.00225,-2.63129,1.06267,1.57080,0.11675,-0.12764,-0.48145,0.03633,,,,,,,,,,,,,,,,,,,,,,,,,,0,0,0,0,0
2.0193,1783968610.3686,1,1,6.5000,-0.0000,1.42243,-0.00236,-2.63130,1.06281,1.57080,0.11675,-0.12764,-0.48146,0.03630,,,,,,,,,,,,,,,,,,,,,,,,,,0,0,0,0,0
2.0206,1783968610.3699,1,1,6.5000,-0.0000,1.42243,-0.00236,-2.63130,1.06281,1.57080,0.11675,-0.12764,-0.48146,0.03630,,,,,,,,,,,,,,,,,,,,,,,,,,0,0,0,0,0
2.0286,1783968610.3780,1,1,6.5000,-0.0000,1.42243,-0.00245,-2.63132,1.06292,1.57080,0.11675,-0.12764,-0.48146,0.03627,,,,,,,,,,,,,,,,,,,,,,,,,,0,0,0,0,0
2.0669,1783968610.4162,1,1,6.5000,-0.0000,1.42243,-0.00278,-2.63135,1.06334,1.57080,0.11675,-0.12763,-0.48150,0.03618,,,,,,,,,,,,,,,,,,,,,,,,,,0,0,0,0,0
2.0822,1783968610.4315,1,1,6.5000,-0.0000,1.42243,-0.00278,-2.63135,1.06334,1.57080,0.11675,-0.12763,-0.48150,0.03618,,,,,,,,,,,,,,,,,,,,,,,,,,0,0,0,0,0
2.0889,1783968610.4382,1,1,6.5000,-0.0000,1.42243,-0.00278,-2.63135,1.06334,1.57080,0.11675,-0.12763,-0.48150,0.03618,,,,,,,,,,,,,,,,,,,,,,,,,,0,0,0,0,0
2.0908,1783968610.4401,1,1,6.5000,-0.0000,1.42243,-0.00278,-2.63135,1.06334,1.57080,0.11675,-0.12763,-0.48150,0.03618,,,,,,,,,,,,,,,,,,,,,,,,,,0,0,0,0,0
2.0917,1783968610.4410,1,1,6.5000,-0.0000,1.42243,-0.00278,-2.63135,1.06334,1.57080,0.11675,-0.12763,-0.48150,0.03618,,,,,,,,,,,,,,,,,,,,,,,,,,0,0,0,0,0
2.0920,1783968610.4413,1,1,6.5000,-0.0000,1.42243,-0.00278,-2.63135,1.06334,1.57080,0.11675,-0.12763,-0.48150,0.03618,,,,,,,,,,,,,,,,,,,,,,,,,,0,0,0,0,0
2.0947,1783968610.4440,1,1,6.5000,-0.0000,1.42243,-0.00278,-2.63135,1.06334,1.57080,0.11675,-0.12763,-0.48150,0.03618,,,,,,,,,,,,,,,,,,,,,,,,,,0,0,0,0,0
2.0951,1783968610.4444,1,1,6.5000,-0.0000,1.42243,-0.00278,-2.63135,1.06334,1.57080,0.11675,-0.12763,-0.48150,0.03618,,,,,,,,,,,,,,,,,,,,,,,,,,0,0,0,0,0
2.1001,1783968610.4495,1,1,6.5000,-0.0000,1.42243,-0.00278,-2.63135,1.06334,1.57080,0.11675,-0.12763,-0.48150,0.03618,,,,,,,,,,,,,,,,,,,,,,,,,,0,0,0,0,0
2.1100,1783968610.4593,1,1,6.5000,-0.0000,1.42243,-0.00278,-2.63135,1.06334,1.57080,0.11675,-0.12763,-0.48150,0.03618,,,,,,,,,,,,,,,,,,,,,,,,,,0,0,0,0,0
2.1196,1783968610.4689,1,1,6.5000,-0.0000,1.42243,-0.00278,-2.63135,1.06334,1.57080,0.11675,-0.12763,-0.48150,0.03618,,,,,,,,,,,,,,,,,,,,,,,,,,0,0,0,0,0
2.1301,1783968610.4794,1,1,6.5000,-0.0000,1.42243,-0.00278,-2.63135,1.06334,1.57080,0.11675,-0.12763,-0.48150,0.03618,,,,,,,,,,,,,,,,,,,,,,,,,,0,0,0,0,0
2.1430,1783968610.4923,1,1,6.5000,-0.0000,1.42243,-0.00278,-2.63135,1.06334,1.57080,0.11675,-0.12763,-0.48150,0.03618,,,,,,,,,,,,,,,,,,,,,,,,,,0,0,0,0,0
2.1555,1783968610.5049,1,1,6.5000,-0.0000,1.42243,-0.00278,-2.63135,1.06334,1.57080,0.11675,-0.12763,-0.48150,0.03618,,,,,,,,,,,,,,,,,,,,,,,,,,0,0,0,0,0
2.1581,1783968610.5074,1,1,6.5000,-0.0000,1.42243,-0.00278,-2.63135,1.06334,1.57080,0.11675,-0.12763,-0.48150,0.03618,,,,,,,,,,,,,,,,,,,,,,,,,,0,0,0,0,0
2.1710,1783968610.5203,1,1,6.5000,-0.0000,1.42243,-0.00278,-2.63135,1.06334,1.57080,0.11675,-0.12763,-0.48150,0.03618,,,,,,,,,,,,,,,,,,,,,,,,,,0,0,0,0,0
2.1889,1783968610.5382,1,1,6.5000,-0.0000,1.42243,-0.00278,-2.63135,1.06334,1.57080,0.11675,-0.12763,-0.48150,0.03618,,,,,,,,,,,,,,,,,,,,,,,,,,0,0,0,0,0
2.1983,1783968610.5476,1,1,6.5000,-0.0000,1.42243,-0.00278,-2.63135,1.06334,1.57080,0.11675,-0.12763,-0.48150,0.03618,,,,,,,,,,,,,,,,,,,,,,,,,,0,0,0,0,0
2.1992,1783968610.5485,1,1,6.5000,-0.0000,1.42243,-0.00278,-2.63135,1.06334,1.57080,0.11675,-0.12763,-0.48150,0.03618,,,,,,,,,,,,,,,,,,,,,,,,,,0,0,0,0,0
2.1995,1783968610.5488,1,1,6.5000,-0.0000,1.42243,-0.00278,-2.63135,1.06334,1.57080,0.11675,-0.12763,-0.48150,0.03618,,,,,,,,,,,,,,,,,,,,,,,,,,0,0,0,0,0
2.2090,1783968610.5583,1,1,6.5000,-0.0000,1.42243,-0.00278,-2.63135,1.06334,1.57080,0.11675,-0.12763,-0.48150,0.03618,,,,,,,,,,,,,,,,,,,,,,,,,,0,0,0,0,0
2.2281,1783968610.5774,1,1,6.5000,-0.0000,1.42243,-0.00278,-2.63135,1.06334,1.57080,0.11675,-0.12763,-0.48150,0.03618,,,,,,,,,,,,,,,,,,,,,,,,,,0,0,0,0,0
2.2285,1783968610.5779,1,1,6.5000,-0.0000,1.42243,-0.00278,-2.63135,1.06334,1.57080,0.11675,-0.12763,-0.48150,0.03618,,,,,,,,,,,,,,,,,,,,,,,,,,0,0,0,0,0
2.2304,1783968610.5797,1,1,6.5000,-0.0000,1.42243,-0.00278,-2.63135,1.06334,1.57080,0.11675,-0.12763,-0.48150,0.03618,,,,,,,,,,,,,,,,,,,,,,,,,,0,0,0,0,0
2.2430,1783968610.5923,1,1,6.5000,-0.0000,1.42243,-0.00278,-2.63135,1.06334,1.57080,0.11675,-0.12763,-0.48150,0.03618,,,,,,,,,,,,,,,,,,,,,,,,,,0,0,0,0,0
2.2479,1783968610.5973,1,1,6.5000,-0.0000,1.42243,-0.00278,-2.63135,1.06334,1.57080,0.11675,-0.12763,-0.48150,0.03618,,,,,,,,,,,,,,,,,,,,,,,,,,0,0,0,0,0
2.2604,1783968610.6097,1,1,6.5000,-0.0000,1.42243,-0.00278,-2.63135,1.06334,1.57080,0.11675,-0.12763,-0.48150,0.03618,,,,,,,,,,,,,,,,,,,,,,,,,,0,0,0,0,0
2.2694,1783968610.6187,1,1,6.5000,-0.0000,1.42243,-0.00278,-2.63135,1.06334,1.57080,0.11675,-0.12763,-0.48150,0.03618,,,,,,,,,,,,,,,,,,,,,,,,,,0,0,0,0,0
2.2821,1783968610.6314,1,1,6.5000,-0.0000,1.42243,-0.00279,-2.63135,1.06336,1.57080,0.11675,-0.12763,-0.48150,0.03618,,,,,,,,,,,,,,,,,,,,,,,,,,0,0,0,0,0
2.2906,1783968610.6399,1,1,6.5000,-0.0000,1.42243,-0.00280,-2.63135,1.06338,1.57080,0.11675,-0.12763,-0.48150,0.03617,,,,,,,,,,,,,,,,,,,,,,,,,,0,0,0,0,0
2.3006,1783968610.6499,1,1,6.5000,-0.0000,1.42243,-0.00281,-2.63135,1.06339,1.57080,0.11675,-0.12763,-0.48151,0.03617,,,,,,,,,,,,,,,,,,,,,,,,,,0,0,0,0,0
2.3103,1783968610.6597,1,1,6.5000,-0.0000,1.42243,-0.00283,-2.63136,1.06341,1.57080,0.11675,-0.12763,-0.48150,0.03616,,,,,,,,,,,,,,,,,,,,,,,,,,0,0,0,0,0
2.3273,1783968610.6766,1,1,6.5000,-0.0000,1.42243,-0.00288,-2.63140,1.06347,1.57080,0.11675,-0.12764,-0.48148,0.03614,,,,,,,,,,,,,,,,,,,,,,,,,,0,0,0,0,0
2.3276,1783968610.6769,1,1,6.5000,-0.0000,1.42243,-0.00288,-2.63140,1.06347,1.57080,0.11675,-0.12764,-0.48148,0.03614,,,,,,,,,,,,,,,,,,,,,,,,,,0,0,0,0,0
2.3280,1783968610.6773,1,1,6.5000,-0.0000,1.42243,-0.00288,-2.63140,1.06347,1.57080,0.11675,-0.12764,-0.48148,0.03614,,,,,,,,,,,,,,,,,,,,,,,,,,0,0,0,0,0
2.3282,1783968610.6776,1,1,6.5000,-0.0000,1.42243,-0.00288,-2.63140,1.06347,1.57080,0.11675,-0.12764,-0.48148,0.03614,,,,,,,,,,,,,,,,,,,,,,,,,,0,0,0,0,0
2.3439,1783968610.6932,1,1,6.5000,-0.0000,1.42243,-0.00293,-2.63142,1.06352,1.57080,0.11675,-0.12764,-0.48147,0.03611,,,,,,,,,,,,,,,,,,,,,,,,,,0,0,0,0,0
2.3443,1783968610.6936,1,1,6.5000,-0.0000,1.42243,-0.00293,-2.63142,1.06352,1.57080,0.11675,-0.12764,-0.48147,0.03611,,,,,,,,,,,,,,,,,,,,,,,,,,0,0,0,0,0
2.3543,1783968610.7036,1,1,6.5000,-0.0000,1.42243,-0.00301,-2.63146,1.06361,1.57080,0.11675,-0.12764,-0.48145,0.03607,,,,,,,,,,,,,,,,,,,,,,,,,,0,0,0,0,0
2.3546,1783968610.7039,1,1,6.5000,-0.0000,1.42243,-0.00301,-2.63146,1.06361,1.57080,0.11675,-0.12764,-0.48145,0.03607,,,,,,,,,,,,,,,,,,,,,,,,,,0,0,0,0,0
2.3622,1783968610.7115,1,1,6.5000,-0.0000,1.42243,-0.00301,-2.63146,1.06362,1.57080,0.11675,-0.12764,-0.48145,0.03607,,,,,,,,,,,,,,,,,,,,,,,,,,0,0,0,0,0
2.3685,1783968610.7178,1,1,6.5000,-0.0000,1.42243,-0.00302,-2.63147,1.06364,1.57080,0.11675,-0.12764,-0.48145,0.03607,,,,,,,,,,,,,,,,,,,,,,,,,,0,0,0,0,0
2.3689,1783968610.7182,1,1,6.5000,-0.0000,1.42243,-0.00302,-2.63147,1.06364,1.57080,0.11675,-0.12764,-0.48145,0.03607,,,,,,,,,,,,,,,,,,,,,,,,,,0,0,0,0,0
2.3784,1783968610.7278,1,1,6.5000,-0.0000,1.42243,-0.00310,-2.63149,1.06373,1.57080,0.11675,-0.12764,-0.48145,0.03604,,,,,,,,,,,,,,,,,,,,,,,,,,0,0,0,0,0
2.3887,1783968610.7380,1,1,6.5000,-0.0000,1.42243,-0.00318,-2.63150,1.06383,1.57080,0.11675,-0.12764,-0.48145,0.03601,,,,,,,,,,,,,,,,,,,,,,,,,,0,0,0,0,0
2.3982,1783968610.7476,1,1,6.5000,-0.0000,1.42243,-0.00321,-2.63151,1.06386,1.57080,0.11675,-0.12764,-0.48145,0.03600,,,,,,,,,,,,,,,,,,,,,,,,,,0,0,0,0,0
2.4074,1783968610.7567,1,1,6.5000,-0.0000,1.42243,-0.00327,-2.63152,1.06393,1.57080,0.11675,-0.12764,-0.48145,0.03598,,,,,,,,,,,,,,,,,,,,,,,,,,0,0,0,0,0
2.4302,1783968610.7796,1,1,6.5000,-0.0000,1.42243,-0.00341,-2.63154,1.06409,1.57080,0.11675,-0.12764,-0.48146,0.03594,,,,,,,,,,,,,,,,,,,,,,,,,,0,0,0,0,0
2.4344,1783968610.7837,1,1,6.5000,-0.0000,1.42243,-0.00345,-2.63155,1.06415,1.57080,0.11675,-0.12764,-0.48146,0.03593,,,,,,,,,,,,,,,,,,,,,,,,,,0,0,0,0,0
2.4384,1783968610.7878,1,1,6.5000,-0.0000,1.42243,-0.00350,-2.63155,1.06421,1.57080,0.11675,-0.12764,-0.48146,0.03591,,,,,,,,,,,,,,,,,,,,,,,,,,0,0,0,0,0
2.4388,1783968610.7881,1,1,6.5000,-0.0000,1.42243,-0.00350,-2.63155,1.06421,1.57080,0.11675,-0.12764,-0.48146,0.03591,,,,,,,,,,,,,,,,,,,,,,,,,,0,0,0,0,0
2.4478,1783968610.7971,1,1,6.5000,-0.0000,1.42243,-0.00361,-2.63157,1.06434,1.57080,0.11675,-0.12764,-0.48147,0.03588,,,,,,,,,,,,,,,,,,,,,,,,,,0,0,0,0,0
2.4669,1783968610.8162,1,1,6.5000,-0.0000,1.42243,-0.00367,-2.63157,1.06442,1.57080,0.11675,-0.12763,-0.48148,0.03586,,,,,,,,,,,,,,,,,,,,,,,,,,0,0,0,0,0
2.4744,1783968610.8237,1,1,6.5000,-0.0000,1.42243,-0.00374,-2.63157,1.06449,1.57080,0.11675,-0.12763,-0.48149,0.03585,,,,,,,,,,,,,,,,,,,,,,,,,,0,0,0,0,0
2.4791,1783968610.8284,1,1,6.5000,-0.0000,1.42243,-0.00377,-2.63157,1.06453,1.57080,0.11675,-0.12763,-0.48149,0.03584,,,,,,,,,,,,,,,,,,,,,,,,,,0,0,0,0,0
2.4794,1783968610.8287,1,1,6.5000,-0.0000,1.42243,-0.00377,-2.63157,1.06453,1.57080,0.11675,-0.12763,-0.48149,0.03584,,,,,,,,,,,,,,,,,,,,,,,,,,0,0,0,0,0
2.4878,1783968610.8371,1,1,6.5000,-0.0000,1.42243,-0.00384,-2.63157,1.06462,1.57080,0.11675,-0.12763,-0.48151,0.03582,,,,,,,,,,,,,,,,,,,,,,,,,,0,0,0,0,0
2.4981,1783968610.8475,1,1,6.5000,-0.0000,1.42243,-0.00394,-2.63156,1.06475,1.57080,0.11675,-0.12763,-0.48153,0.03580,,,,,,,,,,,,,,,,,,,,,,,,,,0,0,0,0,0
2.5102,1783968610.8595,1,1,6.5000,-0.0000,1.42243,-0.00401,-2.63154,1.06483,1.57080,0.11675,-0.12762,-0.48156,0.03580,,,,,,,,,,,,,,,,,,,,,,,,,,0,0,0,0,0
2.5386,1783968610.8879,1,1,6.5000,-0.0000,1.42243,-0.00401,-2.63154,1.06483,1.57080,0.11675,-0.12762,-0.48156,0.03580,,,,,,,,,,,,,,,,,,,,,,,,,,0,0,0,0,0
2.5444,1783968610.8937,1,1,6.5000,-0.0000,1.42243,-0.00401,-2.63154,1.06483,1.57080,0.11675,-0.12762,-0.48156,0.03580,,,,,,,,,,,,,,,,,,,,,,,,,,0,0,0,0,0
2.5447,1783968610.8940,1,1,6.5000,-0.0000,1.42243,-0.00401,-2.63154,1.06483,1.57080,0.11675,-0.12762,-0.48156,0.03580,,,,,,,,,,,,,,,,,,,,,,,,,,0,0,0,0,0
2.5451,1783968610.8944,1,1,6.5000,-0.0000,1.42243,-0.00401,-2.63154,1.06483,1.57080,0.11675,-0.12762,-0.48156,0.03580,,,,,,,,,,,,,,,,,,,,,,,,,,0,0,0,0,0
2.5507,1783968610.9000,1,1,6.5000,-0.0000,1.42243,-0.00401,-2.63154,1.06483,1.57080,0.11675,-0.12762,-0.48156,0.03580,,,,,,,,,,,,,,,,,,,,,,,,,,0,0,0,0,0
2.5583,1783968610.9077,1,1,6.5000,-0.0000,1.42243,-0.00401,-2.63154,1.06483,1.57080,0.11675,-0.12762,-0.48156,0.03580,,,,,,,,,,,,,,,,,,,,,,,,,,0,0,0,0,0
2.5586,1783968610.9079,1,1,6.5000,-0.0000,1.42243,-0.00401,-2.63154,1.06483,1.57080,0.11675,-0.12762,-0.48156,0.03580,,,,,,,,,,,,,,,,,,,,,,,,,,0,0,0,0,0
2.5732,1783968610.9225,1,1,6.5000,-0.0000,1.42243,-0.00401,-2.63154,1.06483,1.57080,0.11675,-0.12762,-0.48156,0.03580,,,,,,,,,,,,,,,,,,,,,,,,,,0,0,0,0,0
2.5815,1783968610.9309,1,1,6.5000,-0.0000,1.42243,-0.00401,-2.63154,1.06483,1.57080,0.11675,-0.12762,-0.48156,0.03580,,,,,,,,,,,,,,,,,,,,,,,,,,0,0,0,0,0
2.5821,1783968610.9314,1,1,6.5000,-0.0000,1.42243,-0.00401,-2.63154,1.06483,1.57080,0.11675,-0.12762,-0.48156,0.03580,,,,,,,,,,,,,,,,,,,,,,,,,,0,0,0,0,0
2.5934,1783968610.9427,1,1,6.5000,-0.0000,1.42243,-0.00401,-2.63154,1.06483,1.57080,0.11675,-0.12762,-0.48156,0.03580,,,,,,,,,,,,,,,,,,,,,,,,,,0,0,0,0,0
2.5984,1783968610.9478,1,1,6.5000,-0.0000,1.42243,-0.00401,-2.63154,1.06483,1.57080,0.11675,-0.12762,-0.48156,0.03580,,,,,,,,,,,,,,,,,,,,,,,,,,0,0,0,0,0
2.6074,1783968610.9567,1,1,6.5000,-0.0000,1.42243,-0.00401,-2.63154,1.06483,1.57080,0.11675,-0.12762,-0.48156,0.03580,,,,,,,,,,,,,,,,,,,,,,,,,,0,0,0,0,0
2.6183,1783968610.9677,1,1,6.5000,-0.0000,1.42243,-0.00401,-2.63154,1.06483,1.57080,0.11675,-0.12762,-0.48156,0.03580,,,,,,,,,,,,,,,,,,,,,,,,,,0,0,0,0,0
2.6186,1783968610.9679,1,1,6.5000,-0.0000,1.42243,-0.00401,-2.63154,1.06483,1.57080,0.11675,-0.12762,-0.48156,0.03580,,,,,,,,,,,,,,,,,,,,,,,,,,0,0,0,0,0
2.6356,1783968610.9849,1,1,6.5000,-0.0000,1.42243,-0.00401,-2.63154,1.06483,1.57080,0.11675,-0.12762,-0.48156,0.03580,,,,,,,,,,,,,,,,,,,,,,,,,,0,0,0,0,0
2.6389,1783968610.9882,1,1,6.5000,-0.0000,1.42243,-0.00401,-2.63154,1.06483,1.57080,0.11675,-0.12762,-0.48156,0.03580,,,,,,,,,,,,,,,,,,,,,,,,,,0,0,0,0,0
2.6464,1783968610.9957,1,1,6.5000,-0.0000,1.42243,-0.00401,-2.63154,1.06483,1.57080,0.11675,-0.12762,-0.48156,0.03580,,,,,,,,,,,,,,,,,,,,,,,,,,0,0,0,0,0
2.6614,1783968611.0107,1,1,6.5000,-0.0000,1.42243,-0.00401,-2.63154,1.06483,1.57080,0.11675,-0.12762,-0.48156,0.03580,,,,,,,,,,,,,,,,,,,,,,,,,,0,0,0,0,0
2.6682,1783968611.0175,1,1,6.5000,-0.0000,1.42243,-0.00401,-2.63154,1.06483,1.57080,0.11675,-0.12762,-0.48156,0.03580,,,,,,,,,,,,,,,,,,,,,,,,,,0,0,0,0,0
2.6782,1783968611.0275,1,1,6.5000,-0.0000,1.42243,-0.00401,-2.63154,1.06483,1.57080,0.11675,-0.12762,-0.48156,0.03580,,,,,,,,,,,,,,,,,,,,,,,,,,0,0,0,0,0
2.6786,1783968611.0279,1,1,6.5000,-0.0000,1.42243,-0.00401,-2.63154,1.06483,1.57080,0.11675,-0.12762,-0.48156,0.03580,,,,,,,,,,,,,,,,,,,,,,,,,,0,0,0,0,0
2.7336,1783968611.0829,1,1,6.5000,-0.0000,1.42243,-0.00403,-2.63158,1.06487,1.57080,0.11675,-0.12763,-0.48154,0.03578,,,,,,,,,,,,,,,,,,,,,,,,,,0,0,0,0,0
2.7402,1783968611.0896,1,1,6.5000,-0.0000,1.42243,-0.00405,-2.63160,1.06489,1.57080,0.11675,-0.12763,-0.48152,0.03576,,,,,,,,,,,,,,,,,,,,,,,,,,0,0,0,0,0
2.7442,1783968611.0935,1,1,6.5000,-0.0000,1.42243,-0.00406,-2.63162,1.06491,1.57080,0.11675,-0.12763,-0.48151,0.03575,,,,,,,,,,,,,,,,,,,,,,,,,,0,0,0,0,0
2.7445,1783968611.0938,1,1,6.5000,-0.0000,1.42243,-0.00406,-2.63162,1.06491,1.57080,0.11675,-0.12763,-0.48151,0.03575,,,,,,,,,,,,,,,,,,,,,,,,,,0,0,0,0,0
2.7448,1783968611.0941,1,1,6.5000,-0.0000,1.42243,-0.00406,-2.63162,1.06491,1.57080,0.11675,-0.12763,-0.48151,0.03575,,,,,,,,,,,,,,,,,,,,,,,,,,0,0,0,0,0
2.7496,1783968611.0989,1,1,6.5000,-0.0000,1.42243,-0.00408,-2.63164,1.06493,1.57080,0.11675,-0.12763,-0.48150,0.03574,,,,,,,,,,,,,,,,,,,,,,,,,,0,0,0,0,0
2.7509,1783968611.1002,1,1,6.5000,-0.0000,1.42243,-0.00408,-2.63164,1.06493,1.57080,0.11675,-0.12763,-0.48150,0.03574,,,,,,,,,,,,,,,,,,,,,,,,,,0,0,0,0,0
2.7635,1783968611.1128,1,1,6.5000,-0.0000,1.42243,-0.00411,-2.63166,1.06496,1.57080,0.11675,-0.12763,-0.48149,0.03572,,,,,,,,,,,,,,,,,,,,,,,,,,0,0,0,0,0
2.7688,1783968611.1181,1,1,6.5000,-0.0000,1.42243,-0.00413,-2.63167,1.06498,1.57080,0.11675,-0.12763,-0.48148,0.03571,,,,,,,,,,,,,,,,,,,,,,,,,,0,0,0,0,0
2.7794,1783968611.1287,1,1,6.5000,-0.0000,1.42243,-0.00417,-2.63170,1.06504,1.57080,0.11675,-0.12763,-0.48147,0.03569,,,,,,,,,,,,,,,,,,,,,,,,,,0,0,0,0,0
2.7888,1783968611.1381,1,1,6.5000,-0.0000,1.42243,-0.00419,-2.63170,1.06506,1.57080,0.11675,-0.12764,-0.48147,0.03568,,,,,,,,,,,,,,,,,,,,,,,,,,0,0,0,0,0
2.7976,1783968611.1469,1,1,6.5000,-0.0000,1.42243,-0.00424,-2.63172,1.06512,1.57080,0.11675,-0.12764,-0.48146,0.03566,,,,,,,,,,,,,,,,,,,,,,,,,,0,0,0,0,0
2.8091,1783968611.1585,1,1,6.5000,-0.0000,1.42243,-0.00435,-2.63175,1.06526,1.57080,0.11675,-0.12764,-0.48146,0.03562,,,,,,,,,,,,,,,,,,,,,,,,,,0,0,0,0,0
2.8170,1783968611.1663,1,1,6.5000,-0.0000,1.42243,-0.00436,-2.63175,1.06527,1.57080,0.11675,-0.12764,-0.48146,0.03562,,,,,,,,,,,,,,,,,,,,,,,,,,0,0,0,0,0
2.8385,1783968611.1879,1,1,6.5000,-0.0000,1.42243,-0.00457,-2.63180,1.06552,1.57080,0.11675,-0.12764,-0.48146,0.03555,,,,,,,,,,,,,,,,,,,,,,,,,,0,0,0,0,0
2.8392,1783968611.1885,1,1,6.5000,-0.0000,1.42243,-0.00457,-2.63180,1.06552,1.57080,0.11675,-0.12764,-0.48146,0.03555,,,,,,,,,,,,,,,,,,,,,,,,,,0,0,0,0,0
2.8396,1783968611.1889,1,1,6.5000,-0.0000,1.42243,-0.00457,-2.63180,1.06552,1.57080,0.11675,-0.12764,-0.48146,0.03555,,,,,,,,,,,,,,,,,,,,,,,,,,0,0,0,0,0
2.8510,1783968611.2003,1,1,6.5000,-0.0000,1.42243,-0.00460,-2.63180,1.06555,1.57080,0.11675,-0.12764,-0.48146,0.03554,,,,,,,,,,,,,,,,,,,,,,,,,,0,0,0,0,0
2.8584,1783968611.2077,1,1,6.5000,-0.0000,1.42242,-0.00465,-2.63181,1.06561,1.57080,0.11675,-0.12764,-0.48146,0.03552,,,,,,,,,,,,,,,,,,,,,,,,,,0,0,0,0,0
2.8702,1783968611.2195,1,1,6.5000,-0.0000,1.42242,-0.00478,-2.63183,1.06577,1.57080,0.11675,-0.12763,-0.48147,0.03548,,,,,,,,,,,,,,,,,,,,,,,,,,0,0,0,0,0
2.8706,1783968611.2199,1,1,6.5000,-0.0000,1.42242,-0.00478,-2.63183,1.06577,1.57080,0.11675,-0.12763,-0.48147,0.03548,,,,,,,,,,,,,,,,,,,,,,,,,,0,0,0,0,0
2.8801,1783968611.2294,1,1,6.5000,-0.0000,1.42242,-0.00488,-2.63185,1.06589,1.57080,0.11675,-0.12763,-0.48147,0.03545,,,,,,,,,,,,,,,,,,,,,,,,,,0,0,0,0,0
2.8804,1783968611.2298,1,1,6.5000,-0.0000,1.42242,-0.00488,-2.63185,1.06589,1.57080,0.11675,-0.12763,-0.48147,0.03545,,,,,,,,,,,,,,,,,,,,,,,,,,0,0,0,0,0
2.8931,1783968611.2424,1,1,6.5000,-0.0000,1.42242,-0.00502,-2.63187,1.06606,1.57080,0.11675,-0.12763,-0.48148,0.03540,,,,,,,,,,,,,,,,,,,,,,,,,,0,0,0,0,0
2.9440,1783968611.2933,1,1,6.5000,-0.0000,1.42242,-0.00512,-2.63188,1.06619,1.57080,0.11675,-0.12763,-0.48148,0.03538,,,,,,,,,,,,,,,,,,,,,,,,,,0,0,0,0,0
2.9504,1783968611.2998,1,1,6.5000,-0.0000,1.42242,-0.00512,-2.63188,1.06619,1.57080,0.11675,-0.12763,-0.48148,0.03538,,,,,,,,,,,,,,,,,,,,,,,,,,0,0,0,0,0
2.9508,1783968611.3001,1,1,6.5000,-0.0000,1.42242,-0.00512,-2.63188,1.06619,1.57080,0.11675,-0.12763,-0.48148,0.03538,,,,,,,,,,,,,,,,,,,,,,,,,,0,0,0,0,0
2.9561,1783968611.3054,1,1,6.5000,-0.0000,1.42242,-0.00512,-2.63188,1.06619,1.57080,0.11675,-0.12763,-0.48148,0.03538,,,,,,,,,,,,,,,,,,,,,,,,,,0,0,0,0,0
2.9601,1783968611.3094,1,1,6.5000,-0.0000,1.42242,-0.00512,-2.63188,1.06619,1.57080,0.11675,-0.12763,-0.48148,0.03538,,,,,,,,,,,,,,,,,,,,,,,,,,0,0,0,0,0
2.9605,1783968611.3098,1,1,6.5000,-0.0000,1.42242,-0.00512,-2.63188,1.06619,1.57080,0.11675,-0.12763,-0.48148,0.03538,,,,,,,,,,,,,,,,,,,,,,,,,,0,0,0,0,0
2.9631,1783968611.3125,1,1,6.5000,-0.0000,1.42242,-0.00512,-2.63188,1.06619,1.57080,0.11675,-0.12763,-0.48148,0.03538,,,,,,,,,,,,,,,,,,,,,,,,,,0,0,0,0,0
2.9636,1783968611.3129,1,1,6.5000,-0.0000,1.42242,-0.00512,-2.63188,1.06619,1.57080,0.11675,-0.12763,-0.48148,0.03538,,,,,,,,,,,,,,,,,,,,,,,,,,0,0,0,0,0
2.9676,1783968611.3169,1,1,6.5000,-0.0000,1.42242,-0.00512,-2.63188,1.06619,1.57080,0.11675,-0.12763,-0.48148,0.03538,,,,,,,,,,,,,,,,,,,,,,,,,,0,0,0,0,0
2.9679,1783968611.3173,1,1,6.5000,-0.0000,1.42242,-0.00512,-2.63188,1.06619,1.57080,0.11675,-0.12763,-0.48148,0.03538,,,,,,,,,,,,,,,,,,,,,,,,,,0,0,0,0,0
3.0182,1783968611.3675,1,1,6.5000,-0.0000,1.42242,-0.00512,-2.63188,1.06619,1.57080,0.11675,-0.12763,-0.48148,0.03538,,,,,,,,,,,,,,,,,,,,,,,,,,0,0,0,0,0
3.0185,1783968611.3678,1,1,6.5000,-0.0000,1.42242,-0.00512,-2.63188,1.06619,1.57080,0.11675,-0.12763,-0.48148,0.03538,,,,,,,,,,,,,,,,,,,,,,,,,,0,0,0,0,0
3.0302,1783968611.3796,1,1,6.5000,-0.0000,1.42242,-0.00512,-2.63188,1.06619,1.57080,0.11675,-0.12763,-0.48148,0.03538,,,,,,,,,,,,,,,,,,,,,,,,,,0,0,0,0,0
3.0306,1783968611.3799,1,1,6.5000,-0.0000,1.42242,-0.00512,-2.63188,1.06619,1.57080,0.11675,-0.12763,-0.48148,0.03538,,,,,,,,,,,,,,,,,,,,,,,,,,0,0,0,0,0
3.0322,1783968611.3815,1,1,6.5000,-0.0000,1.42242,-0.00512,-2.63188,1.06619,1.57080,0.11675,-0.12763,-0.48148,0.03538,,,,,,,,,,,,,,,,,,,,,,,,,,0,0,0,0,0
3.0326,1783968611.3819,1,1,6.5000,-0.0000,1.42242,-0.00512,-2.63188,1.06619,1.57080,0.11675,-0.12763,-0.48148,0.03538,,,,,,,,,,,,,,,,,,,,,,,,,,0,0,0,0,0
3.0330,1783968611.3823,1,1,6.5000,-0.0000,1.42242,-0.00512,-2.63188,1.06619,1.57080,0.11675,-0.12763,-0.48148,0.03538,,,,,,,,,,,,,,,,,,,,,,,,,,0,0,0,0,0
3.0332,1783968611.3825,1,1,6.5000,-0.0000,1.42242,-0.00512,-2.63188,1.06619,1.57080,0.11675,-0.12763,-0.48148,0.03538,,,,,,,,,,,,,,,,,,,,,,,,,,0,0,0,0,0
3.0448,1783968611.3941,1,1,6.5000,-0.0000,1.42242,-0.00512,-2.63188,1.06619,1.57080,0.11675,-0.12763,-0.48148,0.03538,,,,,,,,,,,,,,,,,,,,,,,,,,0,0,0,0,0
3.0481,1783968611.3974,1,1,6.5000,-0.0000,1.42242,-0.00512,-2.63188,1.06619,1.57080,0.11675,-0.12763,-0.48148,0.03538,,,,,,,,,,,,,,,,,,,,,,,,,,0,0,0,0,0
3.0508,1783968611.4001,1,1,6.5000,-0.0000,1.42242,-0.00512,-2.63188,1.06619,1.57080,0.11675,-0.12763,-0.48148,0.03538,,,,,,,,,,,,,,,,,,,,,,,,,,0,0,0,0,0
3.0567,1783968611.4060,1,1,6.5000,-0.0000,1.42242,-0.00512,-2.63188,1.06619,1.57080,0.11675,-0.12763,-0.48148,0.03538,,,,,,,,,,,,,,,,,,,,,,,,,,0,0,0,0,0
3.0570,1783968611.4063,1,1,6.5000,-0.0000,1.42242,-0.00512,-2.63188,1.06619,1.57080,0.11675,-0.12763,-0.48148,0.03538,,,,,,,,,,,,,,,,,,,,,,,,,,0,0,0,0,0
3.0672,1783968611.4165,1,1,6.5000,-0.0000,1.42242,-0.00512,-2.63188,1.06619,1.57080,0.11675,-0.12763,-0.48148,0.03538,,,,,,,,,,,,,,,,,,,,,,,,,,0,0,0,0,0
3.0675,1783968611.4169,1,1,6.5000,-0.0000,1.42242,-0.00512,-2.63188,1.06619,1.57080,0.11675,-0.12763,-0.48148,0.03538,,,,,,,,,,,,,,,,,,,,,,,,,,0,0,0,0,0
3.0776,1783968611.4269,1,1,6.5000,-0.0000,1.42242,-0.00512,-2.63188,1.06619,1.57080,0.11675,-0.12763,-0.48148,0.03538,,,,,,,,,,,,,,,,,,,,,,,,,,0,0,0,0,0
3.0784,1783968611.4277,1,1,6.5000,-0.0000,1.42242,-0.00512,-2.63188,1.06619,1.57080,0.11675,-0.12763,-0.48148,0.03538,,,,,,,,,,,,,,,,,,,,,,,,,,0,0,0,0,0
3.2035,1783968611.5528,1,1,6.5000,-0.0000,1.42242,-0.00535,-2.63200,1.06648,1.57080,0.11675,-0.12764,-0.48144,0.03527,,,,,,,,,,,,,,,,,,,,,,,,,,0,0,0,0,0
3.2119,1783968611.5612,1,1,6.5000,-0.0000,1.42242,-0.00537,-2.63200,1.06650,1.57080,0.11675,-0.12764,-0.48144,0.03527,,,,,,,,,,,,,,,,,,,,,,,,,,0,0,0,0,0
3.2182,1783968611.5676,1,1,6.5000,-0.0000,1.42242,-0.00541,-2.63201,1.06655,1.57080,0.11675,-0.12764,-0.48144,0.03525,,,,,,,,,,,,,,,,,,,,,,,,,,0,0,0,0,0
3.2211,1783968611.5704,1,1,6.5000,-0.0000,1.42242,-0.00541,-2.63201,1.06655,1.57080,0.11675,-0.12764,-0.48144,0.03525,,,,,,,,,,,,,,,,,,,,,,,,,,0,0,0,0,0
3.2225,1783968611.5718,1,1,6.5000,-0.0000,1.42242,-0.00544,-2.63202,1.06659,1.57080,0.11675,-0.12764,-0.48144,0.03524,,,,,,,,,,,,,,,,,,,,,,,,,,0,0,0,0,0
3.2227,1783968611.5720,1,1,6.5000,-0.0000,1.42242,-0.00544,-2.63202,1.06659,1.57080,0.11675,-0.12764,-0.48144,0.03524,,,,,,,,,,,,,,,,,,,,,,,,,,0,0,0,0,0
3.2235,1783968611.5728,1,1,6.5000,-0.0000,1.42242,-0.00544,-2.63202,1.06659,1.57080,0.11675,-0.12764,-0.48144,0.03524,,,,,,,,,,,,,,,,,,,,,,,,,,0,0,0,0,0
3.2238,1783968611.5731,1,1,6.5000,-0.0000,1.42242,-0.00544,-2.63202,1.06659,1.57080,0.11675,-0.12764,-0.48144,0.03524,,,,,,,,,,,,,,,,,,,,,,,,,,0,0,0,0,0
3.2291,1783968611.5785,1,1,6.5000,-0.0000,1.42242,-0.00544,-2.63202,1.06659,1.57080,0.11675,-0.12764,-0.48144,0.03524,,,,,,,,,,,,,,,,,,,,,,,,,,0,0,0,0,0
3.2310,1783968611.5804,1,1,6.5000,-0.0000,1.42242,-0.00545,-2.63202,1.06660,1.57080,0.11675,-0.12764,-0.48144,0.03524,,,,,,,,,,,,,,,,,,,,,,,,,,0,0,0,0,0
3.2323,1783968611.5816,1,1,6.5000,-0.0000,1.42242,-0.00545,-2.63202,1.06660,1.57080,0.11675,-0.12764,-0.48144,0.03524,,,,,,,,,,,,,,,,,,,,,,,,,,0,0,0,0,0
3.2327,1783968611.5821,1,1,6.5000,-0.0000,1.42242,-0.00545,-2.63202,1.06660,1.57080,0.11675,-0.12764,-0.48144,0.03524,,,,,,,,,,,,,,,,,,,,,,,,,,0,0,0,0,0
3.2453,1783968611.5946,1,1,6.5000,-0.0000,1.42242,-0.00554,-2.63204,1.06671,1.57080,0.11675,-0.12764,-0.48144,0.03521,,,,,,,,,,,,,,,,,,,,,,,,,,0,0,0,0,0
3.2497,1783968611.5991,1,1,6.5000,-0.0000,1.42242,-0.00559,-2.63204,1.06676,1.57080,0.11675,-0.12764,-0.48144,0.03519,,,,,,,,,,,,,,,,,,,,,,,,,,0,0,0,0,0
3.2502,1783968611.5996,1,1,6.5000,-0.0000,1.42242,-0.00564,-2.63205,1.06683,1.57080,0.11675,-0.12764,-0.48144,0.03518,,,,,,,,,,,,,,,,,,,,,,,,,,0,0,0,0,0
3.2532,1783968611.6025,1,1,6.5000,-0.0000,1.42242,-0.00564,-2.63205,1.06683,1.57080,0.11675,-0.12764,-0.48144,0.03518,,,,,,,,,,,,,,,,,,,,,,,,,,0,0,0,0,0
3.2536,1783968611.6029,1,1,6.5000,-0.0000,1.42242,-0.00564,-2.63205,1.06683,1.57080,0.11675,-0.12764,-0.48144,0.03518,,,,,,,,,,,,,,,,,,,,,,,,,,0,0,0,0,0
3.2608,1783968611.6102,1,1,6.5000,-0.0000,1.42242,-0.00570,-2.63206,1.06690,1.57080,0.11675,-0.12764,-0.48145,0.03516,,,,,,,,,,,,,,,,,,,,,,,,,,0,0,0,0,0
3.2621,1783968611.6114,1,1,6.5000,-0.0000,1.42242,-0.00570,-2.63206,1.06690,1.57080,0.11675,-0.12764,-0.48145,0.03516,,,,,,,,,,,,,,,,,,,,,,,,,,0,0,0,0,0
3.2624,1783968611.6117,1,1,6.5000,-0.0000,1.42242,-0.00570,-2.63206,1.06690,1.57080,0.11675,-0.12764,-0.48145,0.03516,,,,,,,,,,,,,,,,,,,,,,,,,,0,0,0,0,0
3.2666,1783968611.6159,1,1,6.5000,-0.0000,1.42242,-0.00572,-2.63207,1.06692,1.57080,0.11675,-0.12764,-0.48145,0.03515,,,,,,,,,,,,,,,,,,,,,,,,,,0,0,0,0,0
3.2669,1783968611.6162,1,1,6.5000,-0.0000,1.42242,-0.00572,-2.63207,1.06692,1.57080,0.11675,-0.12764,-0.48145,0.03515,,,,,,,,,,,,,,,,,,,,,,,,,,0,0,0,0,0
3.2704,1783968611.6197,1,1,6.5000,-0.0000,1.42242,-0.00575,-2.63207,1.06696,1.57080,0.11675,-0.12763,-0.48145,0.03514,,,,,,,,,,,,,,,,,,,,,,,,,,0,0,0,0,0
3.2707,1783968611.6200,1,1,6.5000,-0.0000,1.42242,-0.00575,-2.63207,1.06696,1.57080,0.11675,-0.12763,-0.48145,0.03514,,,,,,,,,,,,,,,,,,,,,,,,,,0,0,0,0,0
3.2805,1783968611.6298,1,1,6.5000,-0.0000,1.42242,-0.00582,-2.63208,1.06705,1.57080,0.11675,-0.12763,-0.48145,0.03512,,,,,,,,,,,,,,,,,,,,,,,,,,0,0,0,0,0
3.2818,1783968611.6311,1,1,6.5000,-0.0000,1.42242,-0.00582,-2.63208,1.06705,1.57080,0.11675,-0.12763,-0.48145,0.03512,,,,,,,,,,,,,,,,,,,,,,,,,,0,0,0,0,0
3.2822,1783968611.6315,1,1,6.5000,-0.0000,1.42242,-0.00587,-2.63209,1.06711,1.57080,0.11675,-0.12763,-0.48145,0.03510,,,,,,,,,,,,,,,,,,,,,,,,,,0,0,0,0,0
3.2834,1783968611.6327,1,1,6.5000,-0.0000,1.42242,-0.00587,-2.63209,1.06711,1.57080,0.11675,-0.12763,-0.48145,0.03510,,,,,,,,,,,,,,,,,,,,,,,,,,0,0,0,0,0
3.2836,1783968611.6330,1,1,6.5000,-0.0000,1.42242,-0.00587,-2.63209,1.06711,1.57080,0.11675,-0.12763,-0.48145,0.03510,,,,,,,,,,,,,,,,,,,,,,,,,,0,0,0,0,0
3.2901,1783968611.6394,1,1,6.5000,-0.0000,1.42242,-0.00592,-2.63210,1.06717,1.57080,0.11675,-0.12763,-0.48146,0.03509,,,,,,,,,,,,,,,,,,,,,,,,,,0,0,0,0,0
3.2904,1783968611.6397,1,1,6.5000,-0.0000,1.42242,-0.00592,-2.63210,1.06717,1.57080,0.11675,-0.12763,-0.48146,0.03509,,,,,,,,,,,,,,,,,,,,,,,,,,0,0,0,0,0
3.2983,1783968611.6477,1,1,6.5000,-0.0000,1.42242,-0.00594,-2.63210,1.06719,1.57080,0.11675,-0.12763,-0.48146,0.03508,,,,,,,,,,,,,,,,,,,,,,,,,,0,0,0,0,0
3.2993,1783968611.6486,1,1,6.5000,-0.0000,1.42242,-0.00594,-2.63210,1.06719,1.57080,0.11675,-0.12763,-0.48146,0.03508,,,,,,,,,,,,,,,,,,,,,,,,,,0,0,0,0,0
3.2996,1783968611.6489,1,1,6.5000,-0.0000,1.42242,-0.00594,-2.63210,1.06719,1.57080,0.11675,-0.12763,-0.48146,0.03508,,,,,,,,,,,,,,,,,,,,,,,,,,0,0,0,0,0
3.3147,1783968611.6641,1,1,6.5000,-0.0000,1.42242,-0.00606,-2.63210,1.06734,1.57080,0.11675,-0.12763,-0.48148,0.03505,,,,,,,,,,,,,,,,,,,,,,,,,,0,0,0,0,0
3.3150,1783968611.6644,1,1,6.5000,-0.0000,1.42242,-0.00606,-2.63210,1.06734,1.57080,0.11675,-0.12763,-0.48148,0.03505,,,,,,,,,,,,,,,,,,,,,,,,,,0,0,0,0,0
3.3173,1783968611.6667,1,1,6.5000,-0.0000,1.42242,-0.00606,-2.63210,1.06734,1.57080,0.11675,-0.12763,-0.48148,0.03505,,,,,,,,,,,,,,,,,,,,,,,,,,0,0,0,0,0
3.3177,1783968611.6670,1,1,6.5000,-0.0000,1.42242,-0.00606,-2.63210,1.06734,1.57080,0.11675,-0.12763,-0.48148,0.03505,,,,,,,,,,,,,,,,,,,,,,,,,,0,0,0,0,0
3.3302,1783968611.6795,1,1,6.5000,-0.0000,1.42242,-0.00623,-2.63210,1.06755,1.57080,0.11675,-0.12763,-0.48150,0.03501,,,,,,,,,,,,,,,,,,,,,,,,,,0,0,0,0,0
3.3514,1783968611.7007,1,1,6.5000,-0.0000,1.42242,-0.00637,-2.63208,1.06773,1.57080,0.11675,-0.12762,-0.48155,0.03499,,,,,,,,,,,,,,,,,,,,,,,,,,0,0,0,0,0
3.3520,1783968611.7013,1,1,6.5000,-0.0000,1.42242,-0.00637,-2.63208,1.06773,1.57080,0.11675,-0.12762,-0.48155,0.03499,,,,,,,,,,,,,,,,,,,,,,,,,,0,0,0,0,0
3.3524,1783968611.7017,1,1,6.5000,-0.0000,1.42242,-0.00637,-2.63208,1.06773,1.57080,0.11675,-0.12762,-0.48155,0.03499,,,,,,,,,,,,,,,,,,,,,,,,,,0,0,0,0,0
3.3589,1783968611.7083,1,1,6.5000,-0.0000,1.42242,-0.00637,-2.63208,1.06773,1.57080,0.11675,-0.12762,-0.48155,0.03499,,,,,,,,,,,,,,,,,,,,,,,,,,0,0,0,0,0
3.3691,1783968611.7184,1,1,6.5000,-0.0000,1.42242,-0.00637,-2.63208,1.06773,1.57080,0.11675,-0.12762,-0.48155,0.03499,,,,,,,,,,,,,,,,,,,,,,,,,,0,0,0,0,0
3.3783,1783968611.7276,1,1,6.5000,-0.0000,1.42242,-0.00637,-2.63208,1.06773,1.57080,0.11675,-0.12762,-0.48155,0.03499,,,,,,,,,,,,,,,,,,,,,,,,,,0,0,0,0,0
3.3863,1783968611.7357,1,1,6.5000,-0.0000,1.42242,-0.00637,-2.63208,1.06773,1.57080,0.11675,-0.12762,-0.48155,0.03499,,,,,,,,,,,,,,,,,,,,,,,,,,0,0,0,0,0
3.3990,1783968611.7483,1,1,6.5000,-0.0000,1.42242,-0.00637,-2.63208,1.06773,1.57080,0.11675,-0.12762,-0.48155,0.03499,,,,,,,,,,,,,,,,,,,,,,,,,,0,0,0,0,0
3.4167,1783968611.7660,1,1,6.5000,-0.0000,1.42242,-0.00637,-2.63208,1.06773,1.57080,0.11675,-0.12762,-0.48155,0.03499,,,,,,,,,,,,,,,,,,,,,,,,,,0,0,0,0,0
3.4191,1783968611.7684,1,1,6.5000,-0.0000,1.42242,-0.00637,-2.63208,1.06773,1.57080,0.11675,-0.12762,-0.48155,0.03499,,,,,,,,,,,,,,,,,,,,,,,,,,0,0,0,0,0
3.4269,1783968611.7762,1,1,6.5000,-0.0000,1.42242,-0.00637,-2.63208,1.06773,1.57080,0.11675,-0.12762,-0.48155,0.03499,,,,,,,,,,,,,,,,,,,,,,,,,,0,0,0,0,0
3.4384,1783968611.7877,1,1,6.5000,-0.0000,1.42242,-0.00637,-2.63208,1.06773,1.57080,0.11675,-0.12762,-0.48155,0.03499,,,,,,,,,,,,,,,,,,,,,,,,,,0,0,0,0,0
3.5239,1783968611.8733,1,1,6.5000,-0.0000,1.42242,-0.00637,-2.63208,1.06773,1.57080,0.11675,-0.12762,-0.48155,0.03499,,,,,,,,,,,,,,,,,,,,,,,,,,0,0,0,0,0
3.5583,1783968611.9076,1,1,6.5000,-0.0000,1.42242,-0.00637,-2.63208,1.06773,1.57080,0.11675,-0.12762,-0.48155,0.03499,,,,,,,,,,,,,,,,,,,,,,,,,,0,0,0,0,0
3.5817,1783968611.9310,1,1,6.5000,-0.0000,1.42242,-0.00639,-2.63210,1.06775,1.57080,0.11675,-0.12762,-0.48153,0.03498,,,,,,,,,,,,,,,,,,,,,,,,,,0,0,0,0,0
3.5875,1783968611.9369,1,1,6.5000,-0.0000,1.42242,-0.00640,-2.63212,1.06777,1.57080,0.11675,-0.12762,-0.48152,0.03497,,,,,,,,,,,,,,,,,,,,,,,,,,0,0,0,0,0
3.5908,1783968611.9401,1,1,6.5000,-0.0000,1.42242,-0.00640,-2.63212,1.06777,1.57080,0.11675,-0.12762,-0.48152,0.03497,,,,,,,,,,,,,,,,,,,,,,,,,,0,0,0,0,0
3.6207,1783968611.9701,1,1,6.5000,-0.0000,1.42242,-0.00652,-2.63221,1.06790,1.57080,0.11675,-0.12763,-0.48147,0.03490,,,,,,,,,,,,,,,,,,,,,,,,,,0,0,0,0,0
3.6301,1783968611.9795,1,1,6.5000,-0.0000,1.42242,-0.00655,-2.63222,1.06794,1.57080,0.11675,-0.12763,-0.48147,0.03488,,,,,,,,,,,,,,,,,,,,,,,,,,0,0,0,0,0
3.6304,1783968611.9798,1,1,6.5000,-0.0000,1.42242,-0.00655,-2.63222,1.06794,1.57080,0.11675,-0.12763,-0.48147,0.03488,,,,,,,,,,,,,,,,,,,,,,,,,,0,0,0,0,0
3.6331,1783968611.9825,1,1,6.5000,-0.0000,1.42242,-0.00655,-2.63222,1.06794,1.57080,0.11675,-0.12763,-0.48147,0.03488,,,,,,,,,,,,,,,,,,,,,,,,,,0,0,0,0,0
3.6334,1783968611.9828,1,1,6.5000,-0.0000,1.42242,-0.00655,-2.63222,1.06794,1.57080,0.11675,-0.12763,-0.48147,0.03488,,,,,,,,,,,,,,,,,,,,,,,,,,0,0,0,0,0
3.6337,1783968611.9831,1,1,6.5000,-0.0000,1.42242,-0.00655,-2.63222,1.06794,1.57080,0.11675,-0.12763,-0.48147,0.03488,,,,,,,,,,,,,,,,,,,,,,,,,,0,0,0,0,0
3.6390,1783968611.9883,1,1,6.5000,-0.0000,1.42242,-0.00660,-2.63224,1.06800,1.57080,0.11675,-0.12763,-0.48146,0.03486,,,,,,,,,,,,,,,,,,,,,,,,,,0,0,0,0,0
3.6392,1783968611.9886,1,1,6.5000,-0.0000,1.42242,-0.00660,-2.63224,1.06800,1.57080,0.11675,-0.12763,-0.48146,0.03486,,,,,,,,,,,,,,,,,,,,,,,,,,0,0,0,0,0
3.6400,1783968611.9893,1,1,6.5000,-0.0000,1.42242,-0.00660,-2.63224,1.06800,1.57080,0.11675,-0.12763,-0.48146,0.03486,,,,,,,,,,,,,,,,,,,,,,,,,,0,0,0,0,0
3.6403,1783968611.9896,1,1,6.5000,-0.0000,1.42242,-0.00660,-2.63224,1.06800,1.57080,0.11675,-0.12763,-0.48146,0.03486,,,,,,,,,,,,,,,,,,,,,,,,,,0,0,0,0,0
3.6429,1783968611.9922,1,1,6.5000,-0.0000,1.42242,-0.00663,-2.63225,1.06804,1.57080,0.11675,-0.12763,-0.48146,0.03485,,,,,,,,,,,,,,,,,,,,,,,,,,0,0,0,0,0
3.6431,1783968611.9925,1,1,6.5000,-0.0000,1.42242,-0.00663,-2.63225,1.06804,1.57080,0.11675,-0.12763,-0.48146,0.03485,,,,,,,,,,,,,,,,,,,,,,,,,,0,0,0,0,0
3.6471,1783968611.9964,1,1,6.5000,-0.0000,1.42242,-0.00667,-2.63227,1.06808,1.57080,0.11675,-0.12763,-0.48146,0.03484,,,,,,,,,,,,,,,,,,,,,,,,,,0,0,0,0,0
3.6474,1783968611.9967,1,1,6.5000,-0.0000,1.42242,-0.00667,-2.63227,1.06808,1.57080,0.11675,-0.12763,-0.48146,0.03484,,,,,,,,,,,,,,,,,,,,,,,,,,0,0,0,0,0
3.6717,1783968612.0210,1,1,6.5000,-0.0000,1.42242,-0.00678,-2.63229,1.06822,1.57080,0.11675,-0.12763,-0.48145,0.03480,,,,,,,,,,,,,,,,,,,,,,,,,,0,0,0,0,0
3.6720,1783968612.0213,1,1,6.5000,-0.0000,1.42242,-0.00678,-2.63229,1.06822,1.57080,0.11675,-0.12763,-0.48145,0.03480,,,,,,,,,,,,,,,,,,,,,,,,,,0,0,0,0,0
3.6730,1783968612.0223,1,1,6.5000,-0.0000,1.42242,-0.00678,-2.63229,1.06822,1.57080,0.11675,-0.12763,-0.48145,0.03480,,,,,,,,,,,,,,,,,,,,,,,,,,0,0,0,0,0
3.6733,1783968612.0226,1,1,6.5000,-0.0000,1.42242,-0.00678,-2.63229,1.06822,1.57080,0.11675,-0.12763,-0.48145,0.03480,,,,,,,,,,,,,,,,,,,,,,,,,,0,0,0,0,0
3.6735,1783968612.0229,1,1,6.5000,-0.0000,1.42242,-0.00678,-2.63229,1.06822,1.57080,0.11675,-0.12763,-0.48145,0.03480,,,,,,,,,,,,,,,,,,,,,,,,,,0,0,0,0,0
3.6776,1783968612.0269,1,1,6.5000,-0.0000,1.42242,-0.00681,-2.63230,1.06826,1.57080,0.11675,-0.12763,-0.48145,0.03478,,,,,,,,,,,,,,,,,,,,,,,,,,0,0,0,0,0
3.6783,1783968612.0276,1,1,6.5000,-0.0000,1.42242,-0.00681,-2.63230,1.06826,1.57080,0.11675,-0.12763,-0.48145,0.03478,,,,,,,,,,,,,,,,,,,,,,,,,,0,0,0,0,0
3.6812,1783968612.0305,1,1,6.5000,-0.0000,1.42242,-0.00681,-2.63230,1.06826,1.57080,0.11675,-0.12763,-0.48145,0.03478,,,,,,,,,,,,,,,,,,,,,,,,,,0,0,0,0,0
3.6838,1783968612.0331,1,1,6.5000,-0.0000,1.42242,-0.00682,-2.63230,1.06827,1.57080,0.11675,-0.12763,-0.48145,0.03478,,,,,,,,,,,,,,,,,,,,,,,,,,0,0,0,0,0
3.6846,1783968612.0339,1,1,6.5000,-0.0000,1.42242,-0.00682,-2.63230,1.06827,1.57080,0.11675,-0.12763,-0.48145,0.03478,,,,,,,,,,,,,,,,,,,,,,,,,,0,0,0,0,0
3.6926,1783968612.0420,1,1,6.5000,-0.0000,1.42242,-0.00687,-2.63231,1.06833,1.57080,0.11675,-0.12763,-0.48146,0.03477,,,,,,,,,,,,,,,,,,,,,,,,,,0,0,0,0,0
3.7004,1783968612.0498,1,1,6.5000,-0.0000,1.42242,-0.00696,-2.63233,1.06843,1.57080,0.11675,-0.12763,-0.48146,0.03474,,,,,,,,,,,,,,,,,,,,,,,,,,0,0,0,0,0
3.7045,1783968612.0539,1,1,6.5000,-0.0000,1.42242,-0.00701,-2.63233,1.06849,1.57080,0.11675,-0.12763,-0.48146,0.03472,,,,,,,,,,,,,,,,,,,,,,,,,,0,0,0,0,0
3.7050,1783968612.0543,1,1,6.5000,-0.0000,1.42242,-0.00701,-2.63233,1.06849,1.57080,0.11675,-0.12763,-0.48146,0.03472,,,,,,,,,,,,,,,,,,,,,,,,,,0,0,0,0,0
3.7226,1783968612.0719,1,1,6.5000,-0.0000,1.42242,-0.00711,-2.63235,1.06861,1.57080,0.11675,-0.12763,-0.48146,0.03469,,,,,,,,,,,,,,,,,,,,,,,,,,0,0,0,0,0
3.7230,1783968612.0723,1,1,6.5000,-0.0000,1.42242,-0.00711,-2.63235,1.06861,1.57080,0.11675,-0.12763,-0.48146,0.03469,,,,,,,,,,,,,,,,,,,,,,,,,,0,0,0,0,0
3.7303,1783968612.0796,1,1,6.5000,-0.0000,1.42242,-0.00717,-2.63236,1.06869,1.57080,0.11675,-0.12763,-0.48147,0.03467,,,,,,,,,,,,,,,,,,,,,,,,,,0,0,0,0,0
3.7307,1783968612.0800,1,1,6.5000,-0.0000,1.42242,-0.00717,-2.63236,1.06869,1.57080,0.11675,-0.12763,-0.48147,0.03467,,,,,,,,,,,,,,,,,,,,,,,,,,0,0,0,0,0
3.7347,1783968612.0841,1,1,6.5000,-0.0000,1.42242,-0.00721,-2.63236,1.06874,1.57080,0.11675,-0.12763,-0.48147,0.03466,,,,,,,,,,,,,,,,,,,,,,,,,,0,0,0,0,0
3.7350,1783968612.0843,1,1,6.5000,-0.0000,1.42242,-0.00721,-2.63236,1.06874,1.57080,0.11675,-0.12763,-0.48147,0.03466,,,,,,,,,,,,,,,,,,,,,,,,,,0,0,0,0,0
3.7427,1783968612.0920,1,1,6.5000,-0.0000,1.42242,-0.00730,-2.63237,1.06885,1.57080,0.11675,-0.12763,-0.48148,0.03464,,,,,,,,,,,,,,,,,,,,,,,,,,0,0,0,0,0
3.7612,1783968612.1105,1,1,6.5000,-0.0000,1.42241,-0.00747,-2.63238,1.06906,1.57080,0.11675,-0.12762,-0.48150,0.03460,,,,,,,,,,,,,,,,,,,,,,,,,,0,0,0,0,0
3.7628,1783968612.1122,1,1,6.5000,-0.0000,1.42241,-0.00750,-2.63238,1.06911,1.57080,0.11675,-0.12762,-0.48151,0.03459,,,,,,,,,,,,,,,,,,,,,,,,,,0,0,0,0,0
3.7631,1783968612.1124,1,1,6.5000,-0.0000,1.42241,-0.00750,-2.63238,1.06911,1.57080,0.11675,-0.12762,-0.48151,0.03459,,,,,,,,,,,,,,,,,,,,,,,,,,0,0,0,0,0
3.7745,1783968612.1238,1,1,6.5000,-0.0000,1.42241,-0.00755,-2.63237,1.06917,1.57080,0.11675,-0.12762,-0.48152,0.03458,,,,,,,,,,,,,,,,,,,,,,,,,,0,0,0,0,0
3.7748,1783968612.1241,1,1,6.5000,-0.0000,1.42241,-0.00755,-2.63237,1.06917,1.57080,0.11675,-0.12762,-0.48152,0.03458,,,,,,,,,,,,,,,,,,,,,,,,,,0,0,0,0,0
3.7825,1783968612.1318,1,1,6.5000,-0.0000,1.42241,-0.00755,-2.63237,1.06917,1.57080,0.11675,-0.12762,-0.48152,0.03458,,,,,,,,,,,,,,,,,,,,,,,,,,0,0,0,0,0
3.7827,1783968612.1320,1,1,6.5000,-0.0000,1.42241,-0.00755,-2.63237,1.06917,1.57080,0.11675,-0.12762,-0.48152,0.03458,,,,,,,,,,,,,,,,,,,,,,,,,,0,0,0,0,0
3.7883,1783968612.1376,1,1,6.5000,-0.0000,1.42241,-0.00755,-2.63237,1.06917,1.57080,0.11675,-0.12762,-0.48152,0.03458,,,,,,,,,,,,,,,,,,,,,,,,,,0,0,0,0,0
3.7936,1783968612.1429,1,1,6.5000,-0.0000,1.42241,-0.00755,-2.63237,1.06917,1.57080,0.11675,-0.12762,-0.48152,0.03458,,,,,,,,,,,,,,,,,,,,,,,,,,0,0,0,0,0
3.7942,1783968612.1436,1,1,6.5000,-0.0000,1.42241,-0.00755,-2.63237,1.06917,1.57080,0.11675,-0.12762,-0.48152,0.03458,,,,,,,,,,,,,,,,,,,,,,,,,,0,0,0,0,0
3.7945,1783968612.1438,1,1,6.5000,-0.0000,1.42241,-0.00755,-2.63237,1.06917,1.57080,0.11675,-0.12762,-0.48152,0.03458,,,,,,,,,,,,,,,,,,,,,,,,,,0,0,0,0,0
3.7947,1783968612.1440,1,1,6.5000,-0.0000,1.42241,-0.00755,-2.63237,1.06917,1.57080,0.11675,-0.12762,-0.48152,0.03458,,,,,,,,,,,,,,,,,,,,,,,,,,0,0,0,0,0
3.8023,1783968612.1516,1,1,6.5000,-0.0000,1.42241,-0.00755,-2.63237,1.06917,1.57080,0.11675,-0.12762,-0.48152,0.03458,,,,,,,,,,,,,,,,,,,,,,,,,,0,0,0,0,0
3.8038,1783968612.1531,1,1,6.5000,-0.0000,1.42241,-0.00755,-2.63237,1.06917,1.57080,0.11675,-0.12762,-0.48152,0.03458,,,,,,,,,,,,,,,,,,,,,,,,,,0,0,0,0,0
3.8041,1783968612.1534,1,1,6.5000,-0.0000,1.42241,-0.00755,-2.63237,1.06917,1.57080,0.11675,-0.12762,-0.48152,0.03458,,,,,,,,,,,,,,,,,,,,,,,,,,0,0,0,0,0
3.8105,1783968612.1599,1,1,6.5000,-0.0000,1.42241,-0.00755,-2.63237,1.06917,1.57080,0.11675,-0.12762,-0.48152,0.03458,,,,,,,,,,,,,,,,,,,,,,,,,,0,0,0,0,0
3.8211,1783968612.1704,1,1,6.5000,-0.0000,1.42241,-0.00755,-2.63237,1.06917,1.57080,0.11675,-0.12762,-0.48152,0.03458,,,,,,,,,,,,,,,,,,,,,,,,,,0,0,0,0,0
3.8294,1783968612.1787,1,1,6.5000,-0.0000,1.42241,-0.00755,-2.63237,1.06917,1.57080,0.11675,-0.12762,-0.48152,0.03458,,,,,,,,,,,,,,,,,,,,,,,,,,0,0,0,0,0
3.8440,1783968612.1933,1,1,6.5000,-0.0000,1.42241,-0.00755,-2.63237,1.06917,1.57080,0.11675,-0.12762,-0.48152,0.03458,,,,,,,,,,,,,,,,,,,,,,,,,,0,0,0,0,0
3.8479,1783968612.1972,1,1,6.5000,-0.0000,1.42241,-0.00755,-2.63237,1.06917,1.57080,0.11675,-0.12762,-0.48152,0.03458,,,,,,,,,,,,,,,,,,,,,,,,,,0,0,0,0,0
3.8482,1783968612.1976,1,1,6.5000,-0.0000,1.42241,-0.00755,-2.63237,1.06917,1.57080,0.11675,-0.12762,-0.48152,0.03458,,,,,,,,,,,,,,,,,,,,,,,,,,0,0,0,0,0
3.8630,1783968612.2123,1,1,6.5000,-0.0000,1.42241,-0.00755,-2.63237,1.06917,1.57080,0.11675,-0.12762,-0.48152,0.03458,,,,,,,,,,,,,,,,,,,,,,,,,,0,0,0,0,0
3.8672,1783968612.2165,1,1,6.5000,-0.0000,1.42241,-0.00755,-2.63237,1.06917,1.57080,0.11675,-0.12762,-0.48152,0.03458,,,,,,,,,,,,,,,,,,,,,,,,,,0,0,0,0,0
3.8782,1783968612.2276,1,1,6.5000,-0.0000,1.42241,-0.00755,-2.63237,1.06917,1.57080,0.11675,-0.12762,-0.48152,0.03458,,,,,,,,,,,,,,,,,,,,,,,,,,0,0,0,0,0
3.8787,1783968612.2280,1,1,6.5000,-0.0000,1.42241,-0.00755,-2.63237,1.06917,1.57080,0.11675,-0.12762,-0.48152,0.03458,,,,,,,,,,,,,,,,,,,,,,,,,,0,0,0,0,0
3.8885,1783968612.2378,1,1,6.5000,-0.0000,1.42241,-0.00755,-2.63237,1.06917,1.57080,0.11675,-0.12762,-0.48152,0.03458,,,,,,,,,,,,,,,,,,,,,,,,,,0,0,0,0,0
3.8889,1783968612.2382,1,1,6.5000,-0.0000,1.42241,-0.00755,-2.63237,1.06917,1.57080,0.11675,-0.12762,-0.48152,0.03458,,,,,,,,,,,,,,,,,,,,,,,,,,0,0,0,0,0
3.8984,1783968612.2478,1,1,6.5000,-0.0000,1.42241,-0.00755,-2.63237,1.06917,1.57080,0.11675,-0.12762,-0.48152,0.03458,,,,,,,,,,,,,,,,,,,,,,,,,,0,0,0,0,0
3.9108,1783968612.2601,1,1,6.5000,-0.0000,1.42241,-0.00755,-2.63237,1.06917,1.57080,0.11675,-0.12762,-0.48152,0.03458,,,,,,,,,,,,,,,,,,,,,,,,,,0,0,0,0,0
3.9223,1783968612.2716,1,1,6.5000,-0.0000,1.42241,-0.00755,-2.63237,1.06917,1.57080,0.11675,-0.12762,-0.48152,0.03458,,,,,,,,,,,,,,,,,,,,,,,,,,0,0,0,0,0
3.9226,1783968612.2719,1,1,6.5000,-0.0000,1.42241,-0.00755,-2.63237,1.06917,1.57080,0.11675,-0.12762,-0.48152,0.03458,,,,,,,,,,,,,,,,,,,,,,,,,,0,0,0,0,0
3.9324,1783968612.2817,1,1,6.5000,-0.0000,1.42241,-0.00755,-2.63237,1.06917,1.57080,0.11675,-0.12762,-0.48152,0.03458,,,,,,,,,,,,,,,,,,,,,,,,,,0,0,0,0,0
3.9327,1783968612.2820,1,1,6.5000,-0.0000,1.42241,-0.00755,-2.63237,1.06917,1.57080,0.11675,-0.12762,-0.48152,0.03458,,,,,,,,,,,,,,,,,,,,,,,,,,0,0,0,0,0
3.9383,1783968612.2876,1,1,6.5000,-0.0000,1.42241,-0.00755,-2.63237,1.06917,1.57080,0.11675,-0.12762,-0.48152,0.03458,,,,,,,,,,,,,,,,,,,,,,,,,,0,0,0,0,0
3.9486,1783968612.2979,1,1,6.5000,-0.0000,1.42241,-0.00755,-2.63237,1.06917,1.57080,0.11675,-0.12762,-0.48152,0.03458,,,,,,,,,,,,,,,,,,,,,,,,,,0,0,0,0,0
3.9674,1783968612.3168,1,1,6.5000,-0.0000,1.42241,-0.00755,-2.63237,1.06917,1.57080,0.11675,-0.12762,-0.48152,0.03458,,,,,,,,,,,,,,,,,,,,,,,,,,0,0,0,0,0
3.9715,1783968612.3208,1,1,6.5000,-0.0000,1.42241,-0.00755,-2.63237,1.06917,1.57080,0.11675,-0.12762,-0.48152,0.03458,,,,,,,,,,,,,,,,,,,,,,,,,,0,0,0,0,0
3.9822,1783968612.3316,1,1,6.5000,-0.0000,1.42241,-0.00755,-2.63237,1.06917,1.57080,0.11675,-0.12762,-0.48152,0.03458,,,,,,,,,,,,,,,,,,,,,,,,,,0,0,0,0,0
3.9873,1783968612.3366,1,1,6.5000,-0.0000,1.42241,-0.00756,-2.63238,1.06918,1.57080,0.11675,-0.12762,-0.48152,0.03458,,,,,,,,,,,,,,,,,,,,,,,,,,0,0,0,0,0
3.9984,1783968612.3477,1,1,6.5000,-0.0000,1.42241,-0.00758,-2.63240,1.06921,1.57080,0.11675,-0.12762,-0.48151,0.03456,,,,,,,,,,,,,,,,,,,,,,,,,,0,0,0,0,0
4.0104,1783968612.3597,1,1,6.5000,-0.0000,1.42241,-0.00761,-2.63242,1.06925,1.57080,0.11675,-0.12762,-0.48150,0.03454,,,,,,,,,,,,,,,,,,,,,,,,,,0,0,0,0,0
4.0246,1783968612.3739,1,1,6.5000,-0.0000,1.42241,-0.00764,-2.63244,1.06928,1.57080,0.11675,-0.12763,-0.48149,0.03453,,,,,,,,,,,,,,,,,,,,,,,,,,0,0,0,0,0
4.0323,1783968612.3816,1,1,6.5000,-0.0000,1.42241,-0.00767,-2.63246,1.06932,1.57080,0.11675,-0.12763,-0.48148,0.03451,,,,,,,,,,,,,,,,,,,,,,,,,,0,0,0,0,0
4.0412,1783968612.3905,1,1,6.5000,-0.0000,1.42241,-0.00770,-2.63248,1.06935,1.57080,0.11675,-0.12763,-0.48147,0.03450,,,,,,,,,,,,,,,,,,,,,,,,,,0,0,0,0,0
4.0495,1783968612.3988,1,1,6.5000,-0.0000,1.42241,-0.00771,-2.63248,1.06937,1.57080,0.11675,-0.12763,-0.48147,0.03449,,,,,,,,,,,,,,,,,,,,,,,,,,0,0,0,0,0
4.0681,1783968612.4175,1,1,6.5000,-0.0000,1.42241,-0.00786,-2.63252,1.06954,1.57080,0.11675,-0.12763,-0.48146,0.03444,,,,,,,,,,,,,,,,,,,,,,,,,,0,0,0,0,0
4.0687,1783968612.4180,1,1,6.5000,-0.0000,1.42241,-0.00786,-2.63252,1.06954,1.57080,0.11675,-0.12763,-0.48146,0.03444,,,,,,,,,,,,,,,,,,,,,,,,,,0,0,0,0,0
4.0770,1783968612.4264,1,1,6.5000,-0.0000,1.42241,-0.00786,-2.63253,1.06954,1.57080,0.11675,-0.12763,-0.48146,0.03443,,,,,,,,,,,,,,,,,,,,,,,,,,0,0,0,0,0
4.0904,1783968612.4397,1,1,6.5000,-0.0000,1.42241,-0.00797,-2.63255,1.06968,1.57080,0.11675,-0.12763,-0.48146,0.03440,,,,,,,,,,,,,,,,,,,,,,,,,,0,0,0,0,0
4.1032,1783968612.4525,1,1,6.5000,-0.0000,1.42241,-0.00807,-2.63257,1.06979,1.57080,0.11675,-0.12763,-0.48146,0.03437,,,,,,,,,,,,,,,,,,,,,,,,,,0,0,0,0,0
4.1096,1783968612.4589,1,1,6.5000,-0.0000,1.42241,-0.00807,-2.63257,1.06980,1.57080,0.11675,-0.12763,-0.48146,0.03436,,,,,,,,,,,,,,,,,,,,,,,,,,0,0,0,0,0
4.1197,1783968612.4691,1,1,6.5000,-0.0000,1.42241,-0.00815,-2.63258,1.06989,1.57080,0.11675,-0.12763,-0.48146,0.03434,,,,,,,,,,,,,,,,,,,,,,,,,,0,0,0,0,0
4.1302,1783968612.4795,1,1,6.5000,-0.0000,1.42241,-0.00820,-2.63259,1.06995,1.57080,0.11675,-0.12763,-0.48146,0.03432,,,,,,,,,,,,,,,,,,,,,,,,,,0,0,0,0,0
4.1401,1783968612.4895,1,1,6.5000,-0.0000,1.42241,-0.00824,-2.63260,1.07000,1.57080,0.11675,-0.12763,-0.48147,0.03431,,,,,,,,,,,,,,,,,,,,,,,,,,0,0,0,0,0
4.1503,1783968612.4996,1,1,6.5000,-0.0000,1.42241,-0.00836,-2.63261,1.07015,1.57080,0.11675,-0.12763,-0.48147,0.03427,,,,,,,,,,,,,,,,,,,,,,,,,,0,0,0,0,0
4.2169,1783968612.5662,1,1,6.5000,-0.0000,1.42241,-0.00873,-2.63265,1.07060,1.57080,0.11675,-0.12762,-0.48151,0.03417,,,,,,,,,,,,,,,,,,,,,,,,,,0,0,0,0,0
4.2505,1783968612.5998,1,1,6.5000,-0.0000,1.42241,-0.00873,-2.63265,1.07060,1.57080,0.11675,-0.12762,-0.48151,0.03417,,,,,,,,,,,,,,,,,,,,,,,,,,0,0,0,0,0
4.2553,1783968612.6046,1,1,6.5000,-0.0000,1.42241,-0.00873,-2.63265,1.07060,1.57080,0.11675,-0.12762,-0.48151,0.03417,,,,,,,,,,,,,,,,,,,,,,,,,,0,0,0,0,0
4.2864,1783968612.6357,1,1,6.5000,-0.0000,1.42241,-0.00873,-2.63265,1.07060,1.57080,0.11675,-0.12762,-0.48151,0.03417,,,,,,,,,,,,,,,,,,,,,,,,,,0,0,0,0,0
4.2868,1783968612.6361,1,1,6.5000,-0.0000,1.42241,-0.00873,-2.63265,1.07060,1.57080,0.11675,-0.12762,-0.48151,0.03417,,,,,,,,,,,,,,,,,,,,,,,,,,0,0,0,0,0
4.2877,1783968612.6370,1,1,6.5000,-0.0000,1.42241,-0.00873,-2.63265,1.07060,1.57080,0.11675,-0.12762,-0.48151,0.03417,,,,,,,,,,,,,,,,,,,,,,,,,,0,0,0,0,0
4.2893,1783968612.6386,1,1,6.5000,-0.0000,1.42241,-0.00873,-2.63265,1.07060,1.57080,0.11675,-0.12762,-0.48151,0.03417,,,,,,,,,,,,,,,,,,,,,,,,,,0,0,0,0,0
4.2897,1783968612.6390,1,1,6.5000,-0.0000,1.42241,-0.00873,-2.63265,1.07060,1.57080,0.11675,-0.12762,-0.48151,0.03417,,,,,,,,,,,,,,,,,,,,,,,,,,0,0,0,0,0
4.2903,1783968612.6396,1,1,6.5000,-0.0000,1.42241,-0.00873,-2.63265,1.07060,1.57080,0.11675,-0.12762,-0.48151,0.03417,,,,,,,,,,,,,,,,,,,,,,,,,,0,0,0,0,0
4.2907,1783968612.6400,1,1,6.5000,-0.0000,1.42241,-0.00873,-2.63265,1.07060,1.57080,0.11675,-0.12762,-0.48151,0.03417,,,,,,,,,,,,,,,,,,,,,,,,,,0,0,0,0,0
4.2909,1783968612.6402,1,1,6.5000,-0.0000,1.42241,-0.00873,-2.63265,1.07060,1.57080,0.11675,-0.12762,-0.48151,0.03417,,,,,,,,,,,,,,,,,,,,,,,,,,0,0,0,0,0
4.2913,1783968612.6406,1,1,6.5000,-0.0000,1.42241,-0.00873,-2.63265,1.07060,1.57080,0.11675,-0.12762,-0.48151,0.03417,,,,,,,,,,,,,,,,,,,,,,,,,,0,0,0,0,0
4.2915,1783968612.6408,1,1,6.5000,-0.0000,1.42241,-0.00873,-2.63265,1.07060,1.57080,0.11675,-0.12762,-0.48151,0.03417,,,,,,,,,,,,,,,,,,,,,,,,,,0,0,0,0,0
4.2924,1783968612.6418,1,1,6.5000,-0.0000,1.42241,-0.00873,-2.63265,1.07060,1.57080,0.11675,-0.12762,-0.48151,0.03417,,,,,,,,,,,,,,,,,,,,,,,,,,0,0,0,0,0
4.2927,1783968612.6420,1,1,6.5000,-0.0000,1.42241,-0.00873,-2.63265,1.07060,1.57080,0.11675,-0.12762,-0.48151,0.03417,,,,,,,,,,,,,,,,,,,,,,,,,,0,0,0,0,0
4.2990,1783968612.6483,1,1,6.5000,-0.0000,1.42241,-0.00873,-2.63265,1.07060,1.57080,0.11675,-0.12762,-0.48151,0.03417,,,,,,,,,,,,,,,,,,,,,,,,,,0,0,0,0,0
4.3083,1783968612.6576,1,1,6.5000,-0.0000,1.42241,-0.00873,-2.63265,1.07060,1.57080,0.11675,-0.12762,-0.48151,0.03417,,,,,,,,,,,,,,,,,,,,,,,,,,0,0,0,0,0
4.3207,1783968612.6700,1,1,6.5000,-0.0000,1.42241,-0.00873,-2.63265,1.07060,1.57080,0.11675,-0.12762,-0.48151,0.03417,,,,,,,,,,,,,,,,,,,,,,,,,,0,0,0,0,0
4.3344,1783968612.6837,1,1,6.5000,-0.0000,1.42241,-0.00873,-2.63265,1.07060,1.57080,0.11675,-0.12762,-0.48151,0.03417,,,,,,,,,,,,,,,,,,,,,,,,,,0,0,0,0,0
4.3415,1783968612.6908,1,1,6.5000,-0.0000,1.42241,-0.00873,-2.63265,1.07060,1.57080,0.11675,-0.12762,-0.48151,0.03417,,,,,,,,,,,,,,,,,,,,,,,,,,0,0,0,0,0
4.3418,1783968612.6912,1,1,6.5000,-0.0000,1.42241,-0.00873,-2.63265,1.07060,1.57080,0.11675,-0.12762,-0.48151,0.03417,,,,,,,,,,,,,,,,,,,,,,,,,,0,0,0,0,0
4.3570,1783968612.7064,1,1,6.5000,-0.0000,1.42241,-0.00873,-2.63265,1.07060,1.57080,0.11675,-0.12762,-0.48151,0.03417,,,,,,,,,,,,,,,,,,,,,,,,,,0,0,0,0,0
4.3581,1783968612.7074,1,1,6.5000,-0.0000,1.42241,-0.00873,-2.63265,1.07060,1.57080,0.11675,-0.12762,-0.48151,0.03417,,,,,,,,,,,,,,,,,,,,,,,,,,0,0,0,0,0
4.3746,1783968612.7240,1,1,6.5000,-0.0000,1.42241,-0.00873,-2.63265,1.07060,1.57080,0.11675,-0.12762,-0.48151,0.03417,,,,,,,,,,,,,,,,,,,,,,,,,,0,0,0,0,0
4.3749,1783968612.7243,1,1,6.5000,-0.0000,1.42241,-0.00873,-2.63265,1.07060,1.57080,0.11675,-0.12762,-0.48151,0.03417,,,,,,,,,,,,,,,,,,,,,,,,,,0,0,0,0,0
4.3797,1783968612.7290,1,1,6.5000,-0.0000,1.42241,-0.00873,-2.63265,1.07060,1.57080,0.11675,-0.12762,-0.48151,0.03417,,,,,,,,,,,,,,,,,,,,,,,,,,0,0,0,0,0
4.3975,1783968612.7468,1,1,6.5000,-0.0000,1.42241,-0.00873,-2.63265,1.07060,1.57080,0.11675,-0.12762,-0.48151,0.03417,,,,,,,,,,,,,,,,,,,,,,,,,,0,0,0,0,0
4.3993,1783968612.7486,1,1,6.5000,-0.0000,1.42241,-0.00873,-2.63265,1.07061,1.57080,0.11675,-0.12762,-0.48151,0.03417,,,,,,,,,,,,,,,,,,,,,,,,,,0,0,0,0,0
4.3995,1783968612.7489,1,1,6.5000,-0.0000,1.42241,-0.00873,-2.63265,1.07061,1.57080,0.11675,-0.12762,-0.48151,0.03417,,,,,,,,,,,,,,,,,,,,,,,,,,0,0,0,0,0
4.4152,1783968612.7645,1,1,6.5000,-0.0000,1.42241,-0.00876,-2.63267,1.07064,1.57080,0.11675,-0.12762,-0.48150,0.03416,,,,,,,,,,,,,,,,,,,,,,,,,,0,0,0,0,0
4.4182,1783968612.7675,1,1,6.5000,-0.0000,1.42241,-0.00877,-2.63268,1.07065,1.57080,0.11675,-0.12762,-0.48149,0.03415,,,,,,,,,,,,,,,,,,,,,,,,,,0,0,0,0,0
4.4325,1783968612.7818,1,1,6.5000,-0.0000,1.42241,-0.00879,-2.63270,1.07069,1.57080,0.11675,-0.12762,-0.48148,0.03413,,,,,,,,,,,,,,,,,,,,,,,,,,0,0,0,0,0
4.4377,1783968612.7870,1,1,6.5000,-0.0000,1.42241,-0.00880,-2.63270,1.07069,1.57080,0.11675,-0.12762,-0.48148,0.03413,,,,,,,,,,,,,,,,,,,,,,,,,,0,0,0,0,0
4.4384,1783968612.7877,1,1,6.5000,-0.0000,1.42241,-0.00880,-2.63271,1.07070,1.57080,0.11675,-0.12762,-0.48148,0.03413,,,,,,,,,,,,,,,,,,,,,,,,,,0,0,0,0,0
4.4477,1783968612.7970,1,1,6.5000,-0.0000,1.42241,-0.00883,-2.63272,1.07073,1.57080,0.11675,-0.12763,-0.48147,0.03412,,,,,,,,,,,,,,,,,,,,,,,,,,0,0,0,0,0
4.4589,1783968612.8082,1,1,6.5000,-0.0000,1.42241,-0.00889,-2.63276,1.07079,1.57080,0.11675,-0.12763,-0.48145,0.03408,,,,,,,,,,,,,,,,,,,,,,,,,,0,0,0,0,0
4.4989,1783968612.8482,1,1,6.5000,-0.0000,1.42241,-0.00902,-2.63279,1.07095,1.57080,0.11675,-0.12763,-0.48145,0.03404,,,,,,,,,,,,,,,,,,,,,,,,,,0,0,0,0,0
4.4993,1783968612.8486,1,1,6.5000,-0.0000,1.42241,-0.00902,-2.63279,1.07095,1.57080,0.11675,-0.12763,-0.48145,0.03404,,,,,,,,,,,,,,,,,,,,,,,,,,0,0,0,0,0
4.5042,1783968612.8535,1,1,6.5000,-0.0000,1.42241,-0.00906,-2.63280,1.07100,1.57080,0.11675,-0.12763,-0.48145,0.03402,,,,,,,,,,,,,,,,,,,,,,,,,,0,0,0,0,0
4.5048,1783968612.8541,1,1,6.5000,-0.0000,1.42241,-0.00906,-2.63280,1.07100,1.57080,0.11675,-0.12763,-0.48145,0.03402,,,,,,,,,,,,,,,,,,,,,,,,,,0,0,0,0,0
4.5090,1783968612.8583,1,1,6.5000,-0.0000,1.42241,-0.00910,-2.63281,1.07105,1.57080,0.11675,-0.12763,-0.48145,0.03401,,,,,,,,,,,,,,,,,,,,,,,,,,0,0,0,0,0
4.5529,1783968612.9022,1,1,6.5000,-0.0000,1.42241,-0.00944,-2.63287,1.07145,1.57081,0.11675,-0.12763,-0.48146,0.03390,,,,,,,,,,,,,,,,,,,,,,,,,,0,0,0,0,0
4.5600,1783968612.9093,1,1,6.5000,-0.0000,1.42241,-0.00946,-2.63287,1.07148,1.57081,0.11675,-0.12763,-0.48146,0.03389,,,,,,,,,,,,,,,,,,,,,,,,,,0,0,0,0,0
4.5802,1783968612.9295,1,1,6.5000,-0.0000,1.42241,-0.00963,-2.63289,1.07168,1.57081,0.11675,-0.12762,-0.48147,0.03385,,,,,,,,,,,,,,,,,,,,,,,,,,0,0,0,0,0
4.5813,1783968612.9306,1,1,6.5000,-0.0000,1.42241,-0.00963,-2.63289,1.07168,1.57081,0.11675,-0.12762,-0.48147,0.03385,,,,,,,,,,,,,,,,,,,,,,,,,,0,0,0,0,0
4.5816,1783968612.9310,1,1,6.5000,-0.0000,1.42241,-0.00963,-2.63289,1.07168,1.57081,0.11675,-0.12762,-0.48147,0.03385,,,,,,,,,,,,,,,,,,,,,,,,,,0,0,0,0,0
4.5831,1783968612.9325,1,1,6.5000,-0.0000,1.42241,-0.00967,-2.63289,1.07174,1.57081,0.11675,-0.12762,-0.48148,0.03383,,,,,,,,,,,,,,,,,,,,,,,,,,0,0,0,0,0
4.5835,1783968612.9329,1,1,6.5000,-0.0000,1.42241,-0.00967,-2.63289,1.07174,1.57081,0.11675,-0.12762,-0.48148,0.03383,,,,,,,,,,,,,,,,,,,,,,,,,,0,0,0,0,0
4.5885,1783968612.9378,1,1,6.5000,-0.0000,1.42241,-0.00972,-2.63289,1.07179,1.57081,0.11675,-0.12762,-0.48148,0.03382,,,,,,,,,,,,,,,,,,,,,,,,,,0,0,0,0,0
4.5977,1783968612.9470,1,1,6.5000,-0.0000,1.42241,-0.00980,-2.63290,1.07190,1.57081,0.11675,-0.12762,-0.48149,0.03380,,,,,,,,,,,,,,,,,,,,,,,,,,0,0,0,0,0
4.6113,1783968612.9606,1,1,6.5000,-0.0000,1.42241,-0.00992,-2.63289,1.07205,1.57081,0.11675,-0.12762,-0.48152,0.03378,,,,,,,,,,,,,,,,,,,,,,,,,,0,0,0,0,0
4.6115,1783968612.9609,1,1,6.5000,-0.0000,1.42241,-0.00992,-2.63289,1.07205,1.57081,0.11675,-0.12762,-0.48152,0.03378,,,,,,,,,,,,,,,,,,,,,,,,,,0,0,0,0,0
4.6213,1783968612.9706,1,1,6.5000,-0.0000,1.42241,-0.00992,-2.63289,1.07205,1.57081,0.11675,-0.12762,-0.48152,0.03378,,,,,,,,,,,,,,,,,,,,,,,,,,0,0,0,0,0
4.6289,1783968612.9782,1,1,6.5000,-0.0000,1.42241,-0.00992,-2.63289,1.07205,1.57081,0.11675,-0.12762,-0.48152,0.03378,,,,,,,,,,,,,,,,,,,,,,,,,,0,0,0,0,0
4.6389,1783968612.9883,1,1,6.5000,-0.0000,1.42241,-0.00992,-2.63289,1.07205,1.57081,0.11675,-0.12762,-0.48152,0.03378,,,,,,,,,,,,,,,,,,,,,,,,,,0,0,0,0,0
4.6477,1783968612.9971,1,1,6.5000,-0.0000,1.42241,-0.00992,-2.63289,1.07205,1.57081,0.11675,-0.12762,-0.48152,0.03378,,,,,,,,,,,,,,,,,,,,,,,,,,0,0,0,0,0
4.6567,1783968613.0061,1,1,6.5000,-0.0000,1.42241,-0.00992,-2.63289,1.07205,1.57081,0.11675,-0.12762,-0.48152,0.03378,,,,,,,,,,,,,,,,,,,,,,,,,,0,0,0,0,0
4.6705,1783968613.0198,1,1,6.5000,-0.0000,1.42241,-0.00992,-2.63289,1.07205,1.57081,0.11675,-0.12762,-0.48152,0.03378,,,,,,,,,,,,,,,,,,,,,,,,,,0,0,0,0,0
4.7024,1783968613.0517,1,1,6.5000,-0.0000,1.42241,-0.00992,-2.63289,1.07205,1.57081,0.11675,-0.12762,-0.48152,0.03378,,,,,,,,,,,,,,,,,,,,,,,,,,0,0,0,0,0
4.7027,1783968613.0521,1,1,6.5000,-0.0000,1.42241,-0.00992,-2.63289,1.07205,1.57081,0.11675,-0.12762,-0.48152,0.03378,,,,,,,,,,,,,,,,,,,,,,,,,,0,0,0,0,0
4.7045,1783968613.0538,1,1,6.5000,-0.0000,1.42241,-0.00992,-2.63289,1.07205,1.57081,0.11675,-0.12762,-0.48152,0.03378,,,,,,,,,,,,,,,,,,,,,,,,,,0,0,0,0,0
4.7143,1783968613.0637,1,1,6.5000,-0.0000,1.42241,-0.00992,-2.63289,1.07205,1.57081,0.11675,-0.12762,-0.48152,0.03378,,,,,,,,,,,,,,,,,,,,,,,,,,0,0,0,0,0
4.7165,1783968613.0658,1,1,6.5000,-0.0000,1.42241,-0.00992,-2.63289,1.07205,1.57081,0.11675,-0.12762,-0.48152,0.03378,,,,,,,,,,,,,,,,,,,,,,,,,,0,0,0,0,0
4.7224,1783968613.0717,1,1,6.5000,-0.0000,1.42241,-0.00992,-2.63289,1.07205,1.57081,0.11675,-0.12762,-0.48152,0.03378,,,,,,,,,,,,,,,,,,,,,,,,,,0,0,0,0,0
4.7227,1783968613.0720,1,1,6.5000,-0.0000,1.42241,-0.00992,-2.63289,1.07205,1.57081,0.11675,-0.12762,-0.48152,0.03378,,,,,,,,,,,,,,,,,,,,,,,,,,0,0,0,0,0
4.7313,1783968613.0806,1,1,6.5000,-0.0000,1.42241,-0.00992,-2.63289,1.07205,1.57081,0.11675,-0.12762,-0.48152,0.03378,,,,,,,,,,,,,,,,,,,,,,,,,,0,0,0,0,0
4.7389,1783968613.0882,1,1,6.5000,-0.0000,1.42241,-0.00992,-2.63289,1.07205,1.57081,0.11675,-0.12762,-0.48152,0.03378,,,,,,,,,,,,,,,,,,,,,,,,,,0,0,0,0,0
4.7479,1783968613.0972,1,1,6.5000,-0.0000,1.42241,-0.00992,-2.63289,1.07205,1.57081,0.11675,-0.12762,-0.48152,0.03378,,,,,,,,,,,,,,,,,,,,,,,,,,0,0,0,0,0
4.7637,1783968613.1131,1,1,6.5000,-0.0000,1.42241,-0.00992,-2.63289,1.07205,1.57081,0.11675,-0.12762,-0.48152,0.03378,,,,,,,,,,,,,,,,,,,,,,,,,,0,0,0,0,0
4.7681,1783968613.1174,1,1,6.5000,-0.0000,1.42241,-0.00992,-2.63289,1.07205,1.57081,0.11675,-0.12762,-0.48152,0.03378,,,,,,,,,,,,,,,,,,,,,,,,,,0,0,0,0,0
4.7685,1783968613.1178,1,1,6.5000,-0.0000,1.42241,-0.00992,-2.63289,1.07205,1.57081,0.11675,-0.12762,-0.48152,0.03378,,,,,,,,,,,,,,,,,,,,,,,,,,0,0,0,0,0
4.7840,1783968613.1333,1,1,6.5000,-0.0000,1.42241,-0.00992,-2.63289,1.07205,1.57081,0.11675,-0.12762,-0.48152,0.03378,,,,,,,,,,,,,,,,,,,,,,,,,,0,0,0,0,0
4.7884,1783968613.1377,1,1,6.5000,-0.0000,1.42241,-0.00992,-2.63289,1.07205,1.57081,0.11675,-0.12762,-0.48152,0.03378,,,,,,,,,,,,,,,,,,,,,,,,,,0,0,0,0,0
4.7887,1783968613.1380,1,1,6.5000,-0.0000,1.42241,-0.00992,-2.63289,1.07205,1.57081,0.11675,-0.12762,-0.48152,0.03378,,,,,,,,,,,,,,,,,,,,,,,,,,0,0,0,0,0
4.8023,1783968613.1517,1,1,6.5000,-0.0000,1.42241,-0.00992,-2.63289,1.07205,1.57081,0.11675,-0.12762,-0.48152,0.03378,,,,,,,,,,,,,,,,,,,,,,,,,,0,0,0,0,0
4.8104,1783968613.1597,1,1,6.5000,-0.0000,1.42241,-0.00992,-2.63289,1.07205,1.57081,0.11675,-0.12762,-0.48152,0.03378,,,,,,,,,,,,,,,,,,,,,,,,,,0,0,0,0,0
4.8168,1783968613.1661,1,1,6.5000,-0.0000,1.42241,-0.00992,-2.63289,1.07205,1.57081,0.11675,-0.12762,-0.48152,0.03378,,,,,,,,,,,,,,,,,,,,,,,,,,0,0,0,0,0
4.8285,1783968613.1779,1,1,6.5000,-0.0000,1.42241,-0.00993,-2.63290,1.07206,1.57081,0.11675,-0.12762,-0.48152,0.03377,,,,,,,,,,,,,,,,,,,,,,,,,,0,0,0,0,0
4.8423,1783968613.1916,1,1,6.5000,-0.0000,1.42241,-0.00995,-2.63292,1.07209,1.57081,0.11675,-0.12762,-0.48150,0.03376,,,,,,,,,,,,,,,,,,,,,,,,,,0,0,0,0,0
4.8426,1783968613.1919,1,1,6.5000,-0.0000,1.42241,-0.00995,-2.63292,1.07209,1.57081,0.11675,-0.12762,-0.48150,0.03376,,,,,,,,,,,,,,,,,,,,,,,,,,0,0,0,0,0
4.8503,1783968613.1996,1,1,6.5000,-0.0000,1.42241,-0.00996,-2.63292,1.07210,1.57081,0.11675,-0.12762,-0.48150,0.03376,,,,,,,,,,,,,,,,,,,,,,,,,,0,0,0,0,0
4.8603,1783968613.2096,1,1,6.5000,-0.0000,1.42241,-0.00997,-2.63294,1.07212,1.57081,0.11675,-0.12762,-0.48150,0.03374,,,,,,,,,,,,,,,,,,,,,,,,,,0,0,0,0,0
4.8668,1783968613.2161,1,1,6.5000,-0.0000,1.42241,-0.01000,-2.63296,1.07215,1.57081,0.11675,-0.12762,-0.48148,0.03373,,,,,,,,,,,,,,,,,,,,,,,,,,0,0,0,0,0
4.8671,1783968613.2164,1,1,6.5000,-0.0000,1.42241,-0.01000,-2.63296,1.07215,1.57081,0.11675,-0.12762,-0.48148,0.03373,,,,,,,,,,,,,,,,,,,,,,,,,,0,0,0,0,0
4.8882,1783968613.2375,1,1,6.5000,-0.0000,1.42240,-0.01006,-2.63300,1.07221,1.57081,0.11675,-0.12762,-0.48146,0.03369,,,,,,,,,,,,,,,,,,,,,,,,,,0,0,0,0,0
4.8888,1783968613.2381,1,1,6.5000,-0.0000,1.42240,-0.01006,-2.63300,1.07221,1.57081,0.11675,-0.12762,-0.48146,0.03369,,,,,,,,,,,,,,,,,,,,,,,,,,0,0,0,0,0
4.8969,1783968613.2463,1,1,6.5000,-0.0000,1.42240,-0.01009,-2.63302,1.07226,1.57081,0.11675,-0.12762,-0.48145,0.03368,,,,,,,,,,,,,,,,,,,,,,,,,,0,0,0,0,0
4.9559,1783968613.3052,1,1,6.5000,-0.0000,1.42240,-0.01042,-2.63310,1.07264,1.57081,0.11675,-0.12763,-0.48144,0.03356,,,,,,,,,,,,,,,,,,,,,,,,,,0,0,0,0,0
4.9584,1783968613.3078,1,1,6.5000,-0.0000,1.42240,-0.01047,-2.63311,1.07270,1.57081,0.11675,-0.12763,-0.48144,0.03355,,,,,,,,,,,,,,,,,,,,,,,,,,0,0,0,0,0
4.9589,1783968613.3083,1,1,6.5000,-0.0000,1.42240,-0.01047,-2.63311,1.07270,1.57081,0.11675,-0.12763,-0.48144,0.03355,,,,,,,,,,,,,,,,,,,,,,,,,,0,0,0,0,0
4.9593,1783968613.3086,1,1,6.5000,-0.0000,1.42240,-0.01047,-2.63311,1.07270,1.57081,0.11675,-0.12763,-0.48144,0.03355,,,,,,,,,,,,,,,,,,,,,,,,,,0,0,0,0,0
4.9710,1783968613.3204,1,1,6.5000,-0.0000,1.42240,-0.01058,-2.63313,1.07283,1.57081,0.11675,-0.12762,-0.48145,0.03351,,,,,,,,,,,,,,,,,,,,,,,,,,0,0,0,0,0
4.9768,1783968613.3262,1,1,6.5000,-0.0000,1.42240,-0.01058,-2.63313,1.07283,1.57081,0.11675,-0.12762,-0.48145,0.03351,,,,,,,,,,,,,,,,,,,,,,,,,,0,0,0,0,0
4.9772,1783968613.3266,1,1,6.5000,-0.0000,1.42240,-0.01058,-2.63313,1.07283,1.57081,0.11675,-0.12762,-0.48145,0.03351,,,,,,,,,,,,,,,,,,,,,,,,,,0,0,0,0,0
4.9890,1783968613.3383,1,1,6.5000,-0.0000,1.42240,-0.01065,-2.63314,1.07292,1.57081,0.11675,-0.12762,-0.48145,0.03349,,,,,,,,,,,,,,,,,,,,,,,,,,0,0,0,0,0
5.0040,1783968613.3533,1,1,6.5000,-0.0000,1.42240,-0.01078,-2.63315,1.07307,1.57081,0.11675,-0.12762,-0.48146,0.03345,,,,,,,,,,,,,,,,,,,,,,,,,,0,0,0,0,0
5.0067,1783968613.3560,1,1,6.5000,-0.0000,1.42240,-0.01078,-2.63315,1.07307,1.57081,0.11675,-0.12762,-0.48146,0.03345,,,,,,,,,,,,,,,,,,,,,,,,,,0,0,0,0,0
5.0071,1783968613.3564,1,1,6.5000,-0.0000,1.42240,-0.01078,-2.63315,1.07307,1.57081,0.11675,-0.12762,-0.48146,0.03345,,,,,,,,,,,,,,,,,,,,,,,,,,0,0,0,0,0
5.0297,1783968613.3790,1,1,6.5000,-0.0000,1.42240,-0.01089,-2.63314,1.07322,1.57081,0.11675,-0.12762,-0.48149,0.03343,,,,,,,,,,,,,,,,,,,,,,,,,,0,0,0,0,0
5.0313,1783968613.3806,1,1,6.5000,-0.0000,1.42240,-0.01093,-2.63314,1.07326,1.57081,0.11675,-0.12762,-0.48149,0.03342,,,,,,,,,,,,,,,,,,,,,,,,,,0,0,0,0,0
5.0317,1783968613.3810,1,1,6.5000,-0.0000,1.42240,-0.01093,-2.63314,1.07326,1.57081,0.11675,-0.12762,-0.48149,0.03342,,,,,,,,,,,,,,,,,,,,,,,,,,0,0,0,0,0
5.0477,1783968613.3971,1,1,6.5000,-0.0000,1.42240,-0.01105,-2.63312,1.07342,1.57081,0.11675,-0.12761,-0.48153,0.03340,,,,,,,,,,,,,,,,,,,,,,,,,,0,0,0,0,0
5.0534,1783968613.4027,1,1,6.5000,-0.0000,1.42240,-0.01108,-2.63311,1.07345,1.57081,0.11675,-0.12761,-0.48154,0.03340,,,,,,,,,,,,,,,,,,,,,,,,,,0,0,0,0,0
5.0567,1783968613.4060,1,1,6.5000,-0.0000,1.42240,-0.01110,-2.63310,1.07348,1.57081,0.11675,-0.12761,-0.48156,0.03340,,,,,,,,,,,,,,,,,,,,,,,,,,0,0,0,0,0
5.0571,1783968613.4064,1,1,6.5000,-0.0000,1.42240,-0.01110,-2.63310,1.07348,1.57081,0.11675,-0.12761,-0.48156,0.03340,,,,,,,,,,,,,,,,,,,,,,,,,,0,0,0,0,0
5.0674,1783968613.4167,1,1,6.5000,-0.0000,1.42240,-0.01112,-2.63307,1.07350,1.57081,0.11675,-0.12760,-0.48158,0.03341,,,,,,,,,,,,,,,,,,,,,,,,,,0,0,0,0,0
5.1076,1783968613.4569,1,1,6.5000,-0.0000,1.42240,-0.01112,-2.63307,1.07350,1.57081,0.11675,-0.12760,-0.48158,0.03341,,,,,,,,,,,,,,,,,,,,,,,,,,0,0,0,0,0
5.1137,1783968613.4630,1,1,6.5000,-0.0000,1.42240,-0.01112,-2.63307,1.07350,1.57081,0.11675,-0.12760,-0.48158,0.03341,,,,,,,,,,,,,,,,,,,,,,,,,,0,0,0,0,0
5.1145,1783968613.4638,1,1,6.5000,-0.0000,1.42240,-0.01112,-2.63307,1.07350,1.57081,0.11675,-0.12760,-0.48158,0.03341,,,,,,,,,,,,,,,,,,,,,,,,,,0,0,0,0,0
5.1195,1783968613.4689,1,1,6.5000,-0.0000,1.42240,-0.01112,-2.63307,1.07350,1.57081,0.11675,-0.12760,-0.48158,0.03341,,,,,,,,,,,,,,,,,,,,,,,,,,0,0,0,0,0
5.1408,1783968613.4902,1,1,6.5000,-0.0000,1.42240,-0.01112,-2.63307,1.07350,1.57081,0.11675,-0.12760,-0.48158,0.03341,,,,,,,,,,,,,,,,,,,,,,,,,,0,0,0,0,0
5.1783,1783968613.5276,1,1,6.5000,-0.0000,1.42240,-0.01112,-2.63307,1.07350,1.57081,0.11675,-0.12760,-0.48158,0.03341,,,,,,,,,,,,,,,,,,,,,,,,,,0,0,0,0,0
5.2605,1783968613.6098,1,1,6.5000,-0.0000,1.42240,-0.01114,-2.63311,1.07353,1.57081,0.11675,-0.12761,-0.48156,0.03339,,,,,,,,,,,,,,,,,,,,,,,,,,0,0,0,0,0
5.2618,1783968613.6111,1,1,6.5000,-0.0000,1.42240,-0.01114,-2.63311,1.07353,1.57081,0.11675,-0.12761,-0.48156,0.03339,,,,,,,,,,,,,,,,,,,,,,,,,,0,0,0,0,0
5.2625,1783968613.6118,1,1,6.5000,-0.0000,1.42240,-0.01115,-2.63312,1.07354,1.57081,0.11675,-0.12761,-0.48155,0.03338,,,,,,,,,,,,,,,,,,,,,,,,,,0,0,0,0,0
5.2627,1783968613.6121,1,1,6.5000,-0.0000,1.42240,-0.01115,-2.63312,1.07354,1.57081,0.11675,-0.12761,-0.48155,0.03338,,,,,,,,,,,,,,,,,,,,,,,,,,0,0,0,0,0
5.2669,1783968613.6162,1,1,6.5000,-0.0000,1.42240,-0.01115,-2.63314,1.07355,1.57081,0.11675,-0.12761,-0.48154,0.03337,,,,,,,,,,,,,,,,,,,,,,,,,,0,0,0,0,0
5.2672,1783968613.6165,1,1,6.5000,-0.0000,1.42240,-0.01115,-2.63314,1.07355,1.57081,0.11675,-0.12761,-0.48154,0.03337,,,,,,,,,,,,,,,,,,,,,,,,,,0,0,0,0,0
