Martins-Lucaas/twinforge/sensors/Data/20260707_131652__samples.csv
t_rel_s,t_unix,cycle,phase,setpoint_n,force_net_n,q1,q2,q3,q4,q5,q6,tcp_x,tcp_y,tcp_z,taxel_0,taxel_1,taxel_2,taxel_3,taxel_4,taxel_5,taxel_6,taxel_7,taxel_8,taxel_9,taxel_10,taxel_11,taxel_12,taxel_13,taxel_14,taxel_15,taxel_16,taxel_17,taxel_18,taxel_19,taxel_20,taxel_21,taxel_22,taxel_23,taxel_24,n_RA,n_SA,cn_mm,cn_ra,cn_sa
0.0078,1783441012.7218,1,0,1.0000,0.0000,1.42117,-0.05370,-2.70347,1.25333,1.56227,0.11528,-0.13140,-0.46641,0.01782,,,,,,,,,,,,,,,,,,,,,,,,,,0,0,0,0,0
0.0150,1783441012.7290,1,0,1.0000,0.0000,1.42117,-0.05370,-2.70347,1.25333,1.56227,0.11528,-0.13140,-0.46641,0.01782,,,,,,,,,,,,,,,,,,,,,,,,,,0,0,0,0,0
0.0368,1783441012.7508,1,0,1.0000,0.0000,1.42117,-0.05370,-2.70347,1.25333,1.56227,0.11528,-0.13140,-0.46641,0.01782,,,,,,,,,,,,,,,,,,,,,,,,,,0,0,0,0,0
0.0373,1783441012.7513,1,0,1.0000,0.0000,1.42117,-0.05370,-2.70347,1.25333,1.56227,0.11528,-0.13140,-0.46641,0.01782,,,,,,,,,,,,,,,,,,,,,,,,,,0,0,0,0,0
0.0481,1783441012.7621,1,0,1.0000,0.0000,1.42117,-0.05370,-2.70347,1.25333,1.56227,0.11528,-0.13140,-0.46641,0.01782,,,,,,,,,,,,,,,,,,,,,,,,,,0,0,0,0,0
0.0591,1783441012.7731,1,0,1.0000,0.0000,1.42117,-0.05370,-2.70347,1.25333,1.56227,0.11528,-0.13140,-0.46641,0.01782,,,,,,,,,,,,,,,,,,,,,,,,,,0,0,0,0,0
0.0723,1783441012.7863,1,0,1.0000,0.0000,1.42117,-0.05370,-2.70347,1.25333,1.56227,0.11528,-0.13140,-0.46641,0.01782,,,,,,,,,,,,,,,,,,,,,,,,,,0,0,0,0,0
0.0803,1783441012.7943,1,0,1.0000,0.0000,1.42117,-0.05370,-2.70347,1.25333,1.56227,0.11528,-0.13140,-0.46641,0.01782,,,,,,,,,,,,,,,,,,,,,,,,,,0,0,0,0,0
0.0860,1783441012.8000,1,0,1.0000,0.0000,1.42117,-0.05370,-2.70347,1.25333,1.56227,0.11528,-0.13140,-0.46641,0.01782,,,,,,,,,,,,,,,,,,,,,,,,,,0,0,0,0,0
0.0865,1783441012.8005,1,0,1.0000,0.0000,1.42117,-0.05370,-2.70347,1.25333,1.56227,0.11528,-0.13140,-0.46641,0.01782,,,,,,,,,,,,,,,,,,,,,,,,,,0,0,0,0,0
0.0957,1783441012.8097,1,0,1.0000,0.0000,1.42117,-0.05370,-2.70347,1.25333,1.56227,0.11528,-0.13140,-0.46641,0.01782,,,,,,,,,,,,,,,,,,,,,,,,,,0,0,0,0,0
0.1060,1783441012.8200,1,0,1.0000,0.0000,1.42117,-0.05370,-2.70347,1.25333,1.56227,0.11528,-0.13140,-0.46641,0.01782,,,,,,,,,,,,,,,,,,,,,,,,,,0,0,0,0,0
0.1169,1783441012.8309,1,0,1.0000,0.0000,1.42117,-0.05370,-2.70347,1.25333,1.56227,0.11528,-0.13140,-0.46641,0.01782,,,,,,,,,,,,,,,,,,,,,,,,,,0,0,0,0,0
0.1286,1783441012.8426,1,0,1.0000,0.0000,1.42117,-0.05370,-2.70347,1.25333,1.56227,0.11528,-0.13140,-0.46641,0.01782,,,,,,,,,,,,,,,,,,,,,,,,,,0,0,0,0,0
0.1360,1783441012.8500,1,0,1.0000,0.0000,1.42117,-0.05370,-2.70347,1.25333,1.56227,0.11528,-0.13140,-0.46641,0.01782,,,,,,,,,,,,,,,,,,,,,,,,,,0,0,0,0,0
0.1469,1783441012.8609,1,0,1.0000,0.0000,1.42117,-0.05370,-2.70347,1.25333,1.56227,0.11528,-0.13140,-0.46641,0.01782,,,,,,,,,,,,,,,,,,,,,,,,,,0,0,0,0,0
0.1599,1783441012.8739,1,0,1.0000,0.0000,1.42117,-0.05370,-2.70347,1.25333,1.56227,0.11528,-0.13140,-0.46641,0.01782,,,,,,,,,,,,,,,,,,,,,,,,,,0,0,0,0,0
0.1709,1783441012.8849,1,0,1.0000,0.0000,1.42117,-0.05370,-2.70347,1.25333,1.56227,0.11528,-0.13140,-0.46641,0.01782,,,,,,,,,,,,,,,,,,,,,,,,,,0,0,0,0,0
0.1789,1783441012.8929,1,0,1.0000,0.0000,1.42117,-0.05370,-2.70347,1.25333,1.56227,0.11528,-0.13140,-0.46641,0.01782,,,,,,,,,,,,,,,,,,,,,,,,,,0,0,0,0,0
0.1886,1783441012.9026,1,0,1.0000,0.0000,1.42117,-0.05370,-2.70347,1.25333,1.56227,0.11528,-0.13140,-0.46641,0.01782,,,,,,,,,,,,,,,,,,,,,,,,,,0,0,0,0,0
0.1994,1783441012.9134,1,0,1.0000,0.0000,1.42117,-0.05370,-2.70347,1.25333,1.56227,0.11528,-0.13140,-0.46641,0.01782,,,,,,,,,,,,,,,,,,,,,,,,,,0,0,0,0,0
0.2112,1783441012.9252,1,0,1.0000,0.0000,1.42117,-0.05370,-2.70347,1.25333,1.56227,0.11528,-0.13140,-0.46641,0.01782,,,,,,,,,,,,,,,,,,,,,,,,,,0,0,0,0,0
0.2208,1783441012.9348,1,0,1.0000,0.0000,1.42117,-0.05370,-2.70347,1.25333,1.56227,0.11528,-0.13140,-0.46641,0.01782,,,,,,,,,,,,,,,,,,,,,,,,,,0,0,0,0,0
0.2312,1783441012.9452,1,0,1.0000,0.0000,1.42117,-0.05370,-2.70347,1.25333,1.56227,0.11528,-0.13140,-0.46641,0.01782,,,,,,,,,,,,,,,,,,,,,,,,,,0,0,0,0,0
0.2395,1783441012.9535,1,0,1.0000,0.0000,1.42117,-0.05370,-2.70347,1.25333,1.56227,0.11528,-0.13140,-0.46641,0.01782,,,,,,,,,,,,,,,,,,,,,,,,,,0,0,0,0,0
0.2499,1783441012.9640,1,0,1.0000,0.0000,1.42117,-0.05370,-2.70347,1.25333,1.56227,0.11528,-0.13140,-0.46641,0.01782,,,,,,,,,,,,,,,,,,,,,,,,,,0,0,0,0,0
0.2661,1783441012.9801,1,0,1.0000,0.0000,1.42117,-0.05370,-2.70347,1.25333,1.56227,0.11528,-0.13140,-0.46641,0.01782,,,,,,,,,,,,,,,,,,,,,,,,,,0,0,0,0,0
0.2724,1783441012.9864,1,0,1.0000,0.0000,1.42117,-0.05370,-2.70347,1.25333,1.56227,0.11528,-0.13140,-0.46641,0.01782,,,,,,,,,,,,,,,,,,,,,,,,,,0,0,0,0,0
0.2849,1783441012.9989,1,0,1.0000,0.0000,1.42117,-0.05370,-2.70347,1.25333,1.56227,0.11528,-0.13140,-0.46641,0.01782,,,,,,,,,,,,,,,,,,,,,,,,,,0,0,0,0,0
0.2895,1783441013.0035,1,0,1.0000,0.0000,1.42117,-0.05370,-2.70347,1.25333,1.56227,0.11528,-0.13140,-0.46641,0.01782,,,,,,,,,,,,,,,,,,,,,,,,,,0,0,0,0,0
0.2901,1783441013.0042,1,0,1.0000,0.0000,1.42117,-0.05370,-2.70347,1.25333,1.56227,0.11528,-0.13140,-0.46641,0.01782,,,,,,,,,,,,,,,,,,,,,,,,,,0,0,0,0,0
0.3003,1783441013.0143,1,0,1.0000,0.0000,1.42117,-0.05370,-2.70347,1.25333,1.56227,0.11528,-0.13140,-0.46641,0.01782,,,,,,,,,,,,,,,,,,,,,,,,,,0,0,0,0,0
0.3105,1783441013.0245,1,0,1.0000,0.0000,1.42117,-0.05370,-2.70347,1.25333,1.56227,0.11528,-0.13140,-0.46641,0.01782,,,,,,,,,,,,,,,,,,,,,,,,,,0,0,0,0,0
0.3221,1783441013.0361,1,0,1.0000,0.0000,1.42117,-0.05370,-2.70347,1.25333,1.56227,0.11528,-0.13140,-0.46641,0.01782,,,,,,,,,,,,,,,,,,,,,,,,,,0,0,0,0,0
0.3372,1783441013.0513,1,0,1.0000,0.0000,1.42117,-0.05370,-2.70347,1.25333,1.56227,0.11528,-0.13140,-0.46641,0.01782,,,,,,,,,,,,,,,,,,,,,,,,,,0,0,0,0,0
0.3382,1783441013.0522,1,0,1.0000,0.0000,1.42117,-0.05370,-2.70347,1.25333,1.56227,0.11528,-0.13140,-0.46641,0.01782,,,,,,,,,,,,,,,,,,,,,,,,,,0,0,0,0,0
0.3389,1783441013.0529,1,0,1.0000,0.0000,1.42117,-0.05370,-2.70347,1.25333,1.56227,0.11528,-0.13140,-0.46641,0.01782,,,,,,,,,,,,,,,,,,,,,,,,,,0,0,0,0,0
0.3950,1783441013.1090,1,0,1.0000,0.0000,1.42117,-0.05370,-2.70347,1.25333,1.56227,0.11528,-0.13140,-0.46641,0.01782,,,,,,,,,,,,,,,,,,,,,,,,,,0,0,0,0,0
0.3952,1783441013.1092,1,0,1.0000,0.0000,1.42117,-0.05370,-2.70347,1.25333,1.56227,0.11528,-0.13140,-0.46641,0.01782,,,,,,,,,,,,,,,,,,,,,,,,,,0,0,0,0,0
0.4138,1783441013.1279,1,0,1.0000,0.0000,1.42117,-0.05370,-2.70347,1.25333,1.56227,0.11528,-0.13140,-0.46641,0.01782,,,,,,,,,,,,,,,,,,,,,,,,,,0,0,0,0,0
0.4143,1783441013.1283,1,0,1.0000,0.0000,1.42117,-0.05370,-2.70347,1.25333,1.56227,0.11528,-0.13140,-0.46641,0.01782,,,,,,,,,,,,,,,,,,,,,,,,,,0,0,0,0,0
0.4150,1783441013.1290,1,0,1.0000,0.0000,1.42117,-0.05370,-2.70347,1.25333,1.56227,0.11528,-0.13140,-0.46641,0.01782,,,,,,,,,,,,,,,,,,,,,,,,,,0,0,0,0,0
0.4233,1783441013.1373,1,0,1.0000,0.0000,1.42117,-0.05370,-2.70347,1.25333,1.56227,0.11528,-0.13140,-0.46641,0.01782,,,,,,,,,,,,,,,,,,,,,,,,,,0,0,0,0,0
0.4236,1783441013.1377,1,0,1.0000,0.0000,1.42117,-0.05370,-2.70347,1.25333,1.56227,0.11528,-0.13140,-0.46641,0.01782,,,,,,,,,,,,,,,,,,,,,,,,,,0,0,0,0,0
0.4411,1783441013.1552,1,0,1.0000,0.0000,1.42117,-0.05370,-2.70347,1.25333,1.56227,0.11528,-0.13140,-0.46641,0.01782,,,,,,,,,,,,,,,,,,,,,,,,,,0,0,0,0,0
0.4727,1783441013.1868,1,0,1.0000,0.0000,1.42117,-0.05370,-2.70347,1.25333,1.56227,0.11528,-0.13140,-0.46641,0.01782,,,,,,,,,,,,,,,,,,,,,,,,,,0,0,0,0,0
0.4731,1783441013.1871,1,0,1.0000,0.0000,1.42117,-0.05370,-2.70347,1.25333,1.56227,0.11528,-0.13140,-0.46641,0.01782,,,,,,,,,,,,,,,,,,,,,,,,,,0,0,0,0,0
0.4809,1783441013.1949,1,0,1.0000,0.0000,1.42117,-0.05370,-2.70347,1.25333,1.56227,0.11528,-0.13140,-0.46641,0.01782,,,,,,,,,,,,,,,,,,,,,,,,,,0,0,0,0,0
0.4814,1783441013.1954,1,0,1.0000,0.0000,1.42117,-0.05370,-2.70347,1.25333,1.56227,0.11528,-0.13140,-0.46641,0.01782,,,,,,,,,,,,,,,,,,,,,,,,,,0,0,0,0,0
0.4820,1783441013.1960,1,0,1.0000,0.0000,1.42117,-0.05370,-2.70347,1.25333,1.56227,0.11528,-0.13140,-0.46641,0.01782,,,,,,,,,,,,,,,,,,,,,,,,,,0,0,0,0,0
0.4922,1783441013.2063,1,0,1.0000,0.0000,1.42117,-0.05370,-2.70347,1.25333,1.56227,0.11528,-0.13140,-0.46641,0.01782,,,,,,,,,,,,,,,,,,,,,,,,,,0,0,0,0,0
0.4982,1783441013.2123,1,0,1.0000,0.0000,1.42117,-0.05370,-2.70347,1.25333,1.56227,0.11528,-0.13140,-0.46641,0.01782,,,,,,,,,,,,,,,,,,,,,,,,,,0,0,0,0,0
0.5096,1783441013.2236,1,0,1.0000,0.0000,1.42117,-0.05370,-2.70347,1.25333,1.56227,0.11528,-0.13140,-0.46641,0.01782,,,,,,,,,,,,,,,,,,,,,,,,,,0,0,0,0,0
0.5223,1783441013.2364,1,0,1.0000,0.0000,1.42117,-0.05370,-2.70347,1.25333,1.56227,0.11528,-0.13140,-0.46641,0.01782,,,,,,,,,,,,,,,,,,,,,,,,,,0,0,0,0,0
0.5398,1783441013.2538,1,0,1.0000,0.0000,1.42117,-0.05370,-2.70347,1.25333,1.56227,0.11528,-0.13140,-0.46641,0.01782,,,,,,,,,,,,,,,,,,,,,,,,,,0,0,0,0,0
0.5403,1783441013.2543,1,0,1.0000,0.0000,1.42117,-0.05370,-2.70347,1.25333,1.56227,0.11528,-0.13140,-0.46641,0.01782,,,,,,,,,,,,,,,,,,,,,,,,,,0,0,0,0,0
0.5479,1783441013.2619,1,0,1.0000,0.0000,1.42117,-0.05370,-2.70347,1.25333,1.56227,0.11528,-0.13140,-0.46641,0.01782,,,,,,,,,,,,,,,,,,,,,,,,,,0,0,0,0,0
0.5483,1783441013.2623,1,0,1.0000,0.0000,1.42117,-0.05370,-2.70347,1.25333,1.56227,0.11528,-0.13140,-0.46641,0.01782,,,,,,,,,,,,,,,,,,,,,,,,,,0,0,0,0,0
0.5608,1783441013.2749,1,0,1.0000,0.0000,1.42117,-0.05370,-2.70347,1.25333,1.56227,0.11528,-0.13140,-0.46641,0.01782,,,,,,,,,,,,,,,,,,,,,,,,,,0,0,0,0,0
0.5692,1783441013.2832,1,0,1.0000,0.0000,1.42117,-0.05370,-2.70347,1.25333,1.56227,0.11528,-0.13140,-0.46641,0.01782,,,,,,,,,,,,,,,,,,,,,,,,,,0,0,0,0,0
0.5963,1783441013.3103,1,0,1.0000,0.0000,1.42117,-0.05370,-2.70347,1.25333,1.56227,0.11528,-0.13140,-0.46641,0.01782,,,,,,,,,,,,,,,,,,,,,,,,,,0,0,0,0,0
0.6151,1783441013.3291,1,0,1.0000,0.0000,1.42117,-0.05370,-2.70347,1.25333,1.56227,0.11528,-0.13140,-0.46641,0.01782,,,,,,,,,,,,,,,,,,,,,,,,,,0,0,0,0,0
0.6154,1783441013.3295,1,0,1.0000,0.0000,1.42117,-0.05370,-2.70347,1.25333,1.56227,0.11528,-0.13140,-0.46641,0.01782,,,,,,,,,,,,,,,,,,,,,,,,,,0,0,0,0,0
0.6408,1783441013.3548,1,0,1.0000,0.0000,1.42117,-0.05370,-2.70347,1.25333,1.56227,0.11528,-0.13140,-0.46641,0.01782,,,,,,,,,,,,,,,,,,,,,,,,,,0,0,0,0,0
0.6432,1783441013.3572,1,0,1.0000,0.0000,1.42117,-0.05370,-2.70347,1.25333,1.56227,0.11528,-0.13140,-0.46641,0.01782,,,,,,,,,,,,,,,,,,,,,,,,,,0,0,0,0,0
0.6556,1783441013.3697,1,0,1.0000,0.0000,1.42117,-0.05370,-2.70347,1.25333,1.56227,0.11528,-0.13140,-0.46641,0.01782,,,,,,,,,,,,,,,,,,,,,,,,,,0,0,0,0,0
0.6564,1783441013.3705,1,0,1.0000,0.0000,1.42117,-0.05370,-2.70347,1.25333,1.56227,0.11528,-0.13140,-0.46641,0.01782,,,,,,,,,,,,,,,,,,,,,,,,,,0,0,0,0,0
0.6715,1783441013.3855,1,0,1.0000,0.0000,1.42117,-0.05370,-2.70347,1.25333,1.56227,0.11528,-0.13140,-0.46641,0.01782,,,,,,,,,,,,,,,,,,,,,,,,,,0,0,0,0,0
0.6719,1783441013.3859,1,0,1.0000,0.0000,1.42117,-0.05370,-2.70347,1.25333,1.56227,0.11528,-0.13140,-0.46641,0.01782,,,,,,,,,,,,,,,,,,,,,,,,,,0,0,0,0,0
0.6818,1783441013.3958,1,0,1.0000,0.0000,1.42117,-0.05370,-2.70347,1.25333,1.56227,0.11528,-0.13140,-0.46641,0.01782,,,,,,,,,,,,,,,,,,,,,,,,,,0,0,0,0,0
0.6902,1783441013.4042,1,0,1.0000,0.0000,1.42117,-0.05370,-2.70347,1.25333,1.56227,0.11528,-0.13140,-0.46641,0.01782,,,,,,,,,,,,,,,,,,,,,,,,,,0,0,0,0,0
0.7003,1783441013.4144,1,0,1.0000,0.0000,1.42117,-0.05370,-2.70347,1.25333,1.56227,0.11528,-0.13140,-0.46641,0.01782,,,,,,,,,,,,,,,,,,,,,,,,,,0,0,0,0,0
0.7103,1783441013.4244,1,0,1.0000,0.0000,1.42117,-0.05370,-2.70347,1.25333,1.56227,0.11528,-0.13140,-0.46641,0.01782,,,,,,,,,,,,,,,,,,,,,,,,,,0,0,0,0,0
0.7201,1783441013.4342,1,0,1.0000,0.0000,1.42117,-0.05370,-2.70347,1.25333,1.56227,0.11528,-0.13140,-0.46641,0.01782,,,,,,,,,,,,,,,,,,,,,,,,,,0,0,0,0,0
0.7973,1783441013.5114,1,0,1.0000,0.0000,1.42117,-0.05370,-2.70347,1.25333,1.56227,0.11528,-0.13140,-0.46641,0.01782,,,,,,,,,,,,,,,,,,,,,,,,,,0,0,0,0,0
0.7978,1783441013.5119,1,0,1.0000,0.0000,1.42117,-0.05370,-2.70347,1.25333,1.56227,0.11528,-0.13140,-0.46641,0.01782,,,,,,,,,,,,,,,,,,,,,,,,,,0,0,0,0,0
0.7983,1783441013.5123,1,0,1.0000,0.0000,1.42117,-0.05370,-2.70347,1.25333,1.56227,0.11528,-0.13140,-0.46641,0.01782,,,,,,,,,,,,,,,,,,,,,,,,,,0,0,0,0,0
0.8003,1783441013.5143,1,0,1.0000,0.0000,1.42117,-0.05370,-2.70347,1.25333,1.56227,0.11528,-0.13140,-0.46641,0.01782,,,,,,,,,,,,,,,,,,,,,,,,,,0,0,0,0,0
0.8008,1783441013.5149,1,0,1.0000,0.0000,1.42117,-0.05370,-2.70347,1.25333,1.56227,0.11528,-0.13140,-0.46641,0.01782,,,,,,,,,,,,,,,,,,,,,,,,,,0,0,0,0,0
0.8013,1783441013.5154,1,0,1.0000,0.0000,1.42117,-0.05370,-2.70347,1.25333,1.56227,0.11528,-0.13140,-0.46641,0.01782,,,,,,,,,,,,,,,,,,,,,,,,,,0,0,0,0,0
0.8017,1783441013.5157,1,0,1.0000,0.0000,1.42117,-0.05370,-2.70347,1.25333,1.56227,0.11528,-0.13140,-0.46641,0.01782,,,,,,,,,,,,,,,,,,,,,,,,,,0,0,0,0,0
0.8113,1783441013.5254,1,0,1.0000,0.0000,1.42117,-0.05370,-2.70347,1.25333,1.56227,0.11528,-0.13140,-0.46641,0.01782,,,,,,,,,,,,,,,,,,,,,,,,,,0,0,0,0,0
0.8118,1783441013.5258,1,0,1.0000,0.0000,1.42117,-0.05370,-2.70347,1.25333,1.56227,0.11528,-0.13140,-0.46641,0.01782,,,,,,,,,,,,,,,,,,,,,,,,,,0,0,0,0,0
0.8235,1783441013.5375,1,0,1.0000,0.0000,1.42117,-0.05370,-2.70347,1.25333,1.56227,0.11528,-0.13140,-0.46641,0.01782,,,,,,,,,,,,,,,,,,,,,,,,,,0,0,0,0,0
0.8241,1783441013.5382,1,0,1.0000,0.0000,1.42117,-0.05370,-2.70347,1.25333,1.56227,0.11528,-0.13140,-0.46641,0.01782,,,,,,,,,,,,,,,,,,,,,,,,,,0,0,0,0,0
0.8368,1783441013.5509,1,0,1.0000,0.0000,1.42117,-0.05370,-2.70347,1.25333,1.56227,0.11528,-0.13140,-0.46641,0.01782,,,,,,,,,,,,,,,,,,,,,,,,,,0,0,0,0,0
0.8471,1783441013.5611,1,0,1.0000,0.0000,1.42117,-0.05370,-2.70347,1.25333,1.56227,0.11528,-0.13140,-0.46641,0.01782,,,,,,,,,,,,,,,,,,,,,,,,,,0,0,0,0,0
0.8592,1783441013.5732,1,0,1.0000,0.0000,1.42117,-0.05370,-2.70347,1.25333,1.56227,0.11528,-0.13140,-0.46641,0.01782,,,,,,,,,,,,,,,,,,,,,,,,,,0,0,0,0,0
0.8671,1783441013.5811,1,0,1.0000,0.0000,1.42117,-0.05370,-2.70347,1.25333,1.56227,0.11528,-0.13140,-0.46641,0.01782,,,,,,,,,,,,,,,,,,,,,,,,,,0,0,0,0,0
0.8676,1783441013.5816,1,0,1.0000,0.0000,1.42117,-0.05370,-2.70347,1.25333,1.56227,0.11528,-0.13140,-0.46641,0.01782,,,,,,,,,,,,,,,,,,,,,,,,,,0,0,0,0,0
0.8802,1783441013.5942,1,0,1.0000,0.0000,1.42117,-0.05370,-2.70347,1.25333,1.56227,0.11528,-0.13140,-0.46641,0.01782,,,,,,,,,,,,,,,,,,,,,,,,,,0,0,0,0,0
0.8804,1783441013.5945,1,0,1.0000,0.0000,1.42117,-0.05370,-2.70347,1.25333,1.56227,0.11528,-0.13140,-0.46641,0.01782,,,,,,,,,,,,,,,,,,,,,,,,,,0,0,0,0,0
0.8991,1783441013.6132,1,0,1.0000,0.0000,1.42117,-0.05370,-2.70347,1.25333,1.56227,0.11528,-0.13140,-0.46641,0.01782,,,,,,,,,,,,,,,,,,,,,,,,,,0,0,0,0,0
0.9078,1783441013.6218,1,0,1.0000,0.0000,1.42117,-0.05370,-2.70347,1.25333,1.56227,0.11528,-0.13140,-0.46641,0.01782,,,,,,,,,,,,,,,,,,,,,,,,,,0,0,0,0,0
0.9093,1783441013.6233,1,0,1.0000,0.0000,1.42117,-0.05370,-2.70347,1.25333,1.56227,0.11528,-0.13140,-0.46641,0.01782,,,,,,,,,,,,,,,,,,,,,,,,,,0,0,0,0,0
0.9097,1783441013.6237,1,0,1.0000,0.0000,1.42117,-0.05370,-2.70347,1.25333,1.56227,0.11528,-0.13140,-0.46641,0.01782,,,,,,,,,,,,,,,,,,,,,,,,,,0,0,0,0,0
0.9197,1783441013.6337,1,0,1.0000,0.0000,1.42117,-0.05370,-2.70347,1.25333,1.56227,0.11528,-0.13140,-0.46641,0.01782,,,,,,,,,,,,,,,,,,,,,,,,,,0,0,0,0,0
0.9273,1783441013.6413,1,0,1.0000,0.0000,1.42117,-0.05370,-2.70347,1.25333,1.56227,0.11528,-0.13140,-0.46641,0.01782,,,,,,,,,,,,,,,,,,,,,,,,,,0,0,0,0,0
0.9277,1783441013.6417,1,0,1.0000,0.0000,1.42117,-0.05370,-2.70347,1.25333,1.56227,0.11528,-0.13140,-0.46641,0.01782,,,,,,,,,,,,,,,,,,,,,,,,,,0,0,0,0,0
0.9415,1783441013.6556,1,0,1.0000,0.0000,1.42117,-0.05370,-2.70347,1.25333,1.56227,0.11528,-0.13140,-0.46641,0.01782,,,,,,,,,,,,,,,,,,,,,,,,,,0,0,0,0,0
0.9511,1783441013.6652,1,0,1.0000,0.0000,1.42117,-0.05370,-2.70347,1.25333,1.56227,0.11528,-0.13140,-0.46641,0.01782,,,,,,,,,,,,,,,,,,,,,,,,,,0,0,0,0,0
0.9514,1783441013.6655,1,0,1.0000,0.0000,1.42117,-0.05370,-2.70347,1.25333,1.56227,0.11528,-0.13140,-0.46641,0.01782,,,,,,,,,,,,,,,,,,,,,,,,,,0,0,0,0,0
0.9562,1783441013.6702,1,0,1.0000,0.0000,1.42117,-0.05370,-2.70347,1.25333,1.56227,0.11528,-0.13140,-0.46641,0.01782,,,,,,,,,,,,,,,,,,,,,,,,,,0,0,0,0,0
0.9567,1783441013.6707,1,0,1.0000,0.0000,1.42117,-0.05370,-2.70347,1.25333,1.56227,0.11528,-0.13140,-0.46641,0.01782,,,,,,,,,,,,,,,,,,,,,,,,,,0,0,0,0,0
0.9842,1783441013.6982,1,0,1.0000,0.0000,1.42117,-0.05370,-2.70347,1.25333,1.56227,0.11528,-0.13140,-0.46641,0.01782,,,,,,,,,,,,,,,,,,,,,,,,,,0,0,0,0,0
0.9846,1783441013.6986,1,0,1.0000,0.0000,1.42117,-0.05370,-2.70347,1.25333,1.56227,0.11528,-0.13140,-0.46641,0.01782,,,,,,,,,,,,,,,,,,,,,,,,,,0,0,0,0,0
0.9857,1783441013.6997,1,0,1.0000,0.0000,1.42117,-0.05370,-2.70347,1.25333,1.56227,0.11528,-0.13140,-0.46641,0.01782,,,,,,,,,,,,,,,,,,,,,,,,,,0,0,0,0,0
0.9860,1783441013.7001,1,0,1.0000,0.0000,1.42117,-0.05370,-2.70347,1.25333,1.56227,0.11528,-0.13140,-0.46641,0.01782,,,,,,,,,,,,,,,,,,,,,,,,,,0,0,0,0,0
0.9971,1783441013.7111,1,0,1.0000,0.0000,1.42117,-0.05370,-2.70347,1.25333,1.56227,0.11528,-0.13140,-0.46641,0.01782,,,,,,,,,,,,,,,,,,,,,,,,,,0,0,0,0,0
0.9976,1783441013.7116,1,0,1.0000,0.0000,1.42117,-0.05370,-2.70347,1.25333,1.56227,0.11528,-0.13140,-0.46641,0.01782,,,,,,,,,,,,,,,,,,,,,,,,,,0,0,0,0,0
1.0061,1783441013.7202,1,0,1.0000,0.0000,1.42117,-0.05370,-2.70347,1.25333,1.56227,0.11528,-0.13140,-0.46641,0.01782,,,,,,,,,,,,,,,,,,,,,,,,,,0,0,0,0,0
1.0162,1783441013.7302,1,0,1.0000,0.0000,1.42117,-0.05370,-2.70347,1.25333,1.56227,0.11528,-0.13140,-0.46641,0.01782,,,,,,,,,,,,,,,,,,,,,,,,,,0,0,0,0,0
1.0291,1783441013.7431,1,0,1.0000,0.0000,1.42117,-0.05370,-2.70347,1.25333,1.56227,0.11528,-0.13140,-0.46641,0.01782,,,,,,,,,,,,,,,,,,,,,,,,,,0,0,0,0,0
1.0530,1783441013.7670,1,0,1.0000,0.0000,1.42117,-0.05370,-2.70347,1.25333,1.56227,0.11528,-0.13140,-0.46641,0.01782,,,,,,,,,,,,,,,,,,,,,,,,,,0,0,0,0,0
1.0534,1783441013.7675,1,0,1.0000,0.0000,1.42117,-0.05370,-2.70347,1.25333,1.56227,0.11528,-0.13140,-0.46641,0.01782,,,,,,,,,,,,,,,,,,,,,,,,,,0,0,0,0,0
1.0585,1783441013.7725,1,0,1.0000,0.0000,1.42117,-0.05370,-2.70347,1.25333,1.56227,0.11528,-0.13140,-0.46641,0.01782,,,,,,,,,,,,,,,,,,,,,,,,,,0,0,0,0,0
1.0592,1783441013.7732,1,0,1.0000,0.0000,1.42117,-0.05370,-2.70347,1.25333,1.56227,0.11528,-0.13140,-0.46641,0.01782,,,,,,,,,,,,,,,,,,,,,,,,,,0,0,0,0,0
1.0997,1783441013.8137,1,0,1.0000,0.0000,1.42117,-0.05370,-2.70347,1.25333,1.56227,0.11528,-0.13140,-0.46641,0.01782,,,,,,,,,,,,,,,,,,,,,,,,,,0,0,0,0,0
1.1002,1783441013.8142,1,0,1.0000,0.0000,1.42117,-0.05370,-2.70347,1.25333,1.56227,0.11528,-0.13140,-0.46641,0.01782,,,,,,,,,,,,,,,,,,,,,,,,,,0,0,0,0,0
1.1092,1783441013.8232,1,0,1.0000,0.0000,1.42117,-0.05370,-2.70347,1.25333,1.56227,0.11528,-0.13140,-0.46641,0.01782,,,,,,,,,,,,,,,,,,,,,,,,,,0,0,0,0,0
1.1115,1783441013.8255,1,0,1.0000,0.0000,1.42117,-0.05370,-2.70347,1.25333,1.56227,0.11528,-0.13140,-0.46641,0.01782,,,,,,,,,,,,,,,,,,,,,,,,,,0,0,0,0,0
1.1119,1783441013.8259,1,0,1.0000,0.0000,1.42117,-0.05370,-2.70347,1.25333,1.56227,0.11528,-0.13140,-0.46641,0.01782,,,,,,,,,,,,,,,,,,,,,,,,,,0,0,0,0,0
1.1172,1783441013.8312,1,0,1.0000,0.0000,1.42117,-0.05370,-2.70347,1.25333,1.56227,0.11528,-0.13140,-0.46641,0.01782,,,,,,,,,,,,,,,,,,,,,,,,,,0,0,0,0,0
1.1177,1783441013.8317,1,0,1.0000,0.0000,1.42117,-0.05370,-2.70347,1.25333,1.56227,0.11528,-0.13140,-0.46641,0.01782,,,,,,,,,,,,,,,,,,,,,,,,,,0,0,0,0,0
1.1282,1783441013.8422,1,0,1.0000,0.0000,1.42117,-0.05370,-2.70347,1.25333,1.56227,0.11528,-0.13140,-0.46641,0.01782,,,,,,,,,,,,,,,,,,,,,,,,,,0,0,0,0,0
1.1422,1783441013.8562,1,0,1.0000,0.0000,1.42117,-0.05370,-2.70347,1.25333,1.56227,0.11528,-0.13140,-0.46641,0.01782,,,,,,,,,,,,,,,,,,,,,,,,,,0,0,0,0,0
1.1473,1783441013.8613,1,0,1.0000,0.0000,1.42117,-0.05370,-2.70347,1.25333,1.56227,0.11528,-0.13140,-0.46641,0.01782,,,,,,,,,,,,,,,,,,,,,,,,,,0,0,0,0,0
1.1607,1783441013.8747,1,0,1.0000,0.0000,1.42117,-0.05370,-2.70347,1.25333,1.56227,0.11528,-0.13140,-0.46641,0.01782,,,,,,,,,,,,,,,,,,,,,,,,,,0,0,0,0,0
1.1847,1783441013.8988,1,0,1.0000,0.0000,1.42117,-0.05370,-2.70347,1.25333,1.56227,0.11528,-0.13140,-0.46641,0.01782,,,,,,,,,,,,,,,,,,,,,,,,,,0,0,0,0,0
1.1852,1783441013.8992,1,0,1.0000,0.0000,1.42117,-0.05370,-2.70347,1.25333,1.56227,0.11528,-0.13140,-0.46641,0.01782,,,,,,,,,,,,,,,,,,,,,,,,,,0,0,0,0,0
1.1937,1783441013.9077,1,0,1.0000,0.0000,1.42117,-0.05370,-2.70347,1.25333,1.56227,0.11528,-0.13140,-0.46641,0.01782,,,,,,,,,,,,,,,,,,,,,,,,,,0,0,0,0,0
1.1990,1783441013.9130,1,0,1.0000,0.0000,1.42117,-0.05370,-2.70347,1.25333,1.56227,0.11528,-0.13140,-0.46641,0.01782,,,,,,,,,,,,,,,,,,,,,,,,,,0,0,0,0,0
1.2110,1783441013.9250,1,0,1.0000,0.0000,1.42117,-0.05370,-2.70347,1.25333,1.56227,0.11528,-0.13140,-0.46641,0.01782,,,,,,,,,,,,,,,,,,,,,,,,,,0,0,0,0,0
1.2199,1783441013.9339,1,0,1.0000,0.0000,1.42117,-0.05370,-2.70347,1.25333,1.56227,0.11528,-0.13140,-0.46641,0.01782,,,,,,,,,,,,,,,,,,,,,,,,,,0,0,0,0,0
1.2262,1783441013.9402,1,0,1.0000,0.0000,1.42117,-0.05370,-2.70347,1.25333,1.56227,0.11528,-0.13140,-0.46641,0.01782,,,,,,,,,,,,,,,,,,,,,,,,,,0,0,0,0,0
1.2473,1783441013.9613,1,0,1.0000,0.0000,1.42117,-0.05370,-2.70347,1.25333,1.56227,0.11528,-0.13140,-0.46641,0.01782,,,,,,,,,,,,,,,,,,,,,,,,,,0,0,0,0,0
1.2560,1783441013.9700,1,0,1.0000,0.0000,1.42117,-0.05370,-2.70347,1.25333,1.56227,0.11528,-0.13140,-0.46641,0.01782,,,,,,,,,,,,,,,,,,,,,,,,,,0,0,0,0,0
1.2567,1783441013.9707,1,0,1.0000,0.0000,1.42117,-0.05370,-2.70347,1.25333,1.56227,0.11528,-0.13140,-0.46641,0.01782,,,,,,,,,,,,,,,,,,,,,,,,,,0,0,0,0,0
1.2659,1783441013.9799,1,0,1.0000,0.0000,1.42117,-0.05370,-2.70347,1.25333,1.56227,0.11528,-0.13140,-0.46641,0.01782,,,,,,,,,,,,,,,,,,,,,,,,,,0,0,0,0,0
1.2800,1783441013.9940,1,0,1.0000,0.0000,1.42117,-0.05370,-2.70347,1.25333,1.56227,0.11528,-0.13140,-0.46641,0.01782,,,,,,,,,,,,,,,,,,,,,,,,,,0,0,0,0,0
1.2914,1783441014.0054,1,0,1.0000,0.0000,1.42117,-0.05370,-2.70347,1.25333,1.56227,0.11528,-0.13140,-0.46641,0.01782,,,,,,,,,,,,,,,,,,,,,,,,,,0,0,0,0,0
1.2923,1783441014.0063,1,0,1.0000,0.0000,1.42117,-0.05370,-2.70347,1.25333,1.56227,0.11528,-0.13140,-0.46641,0.01782,,,,,,,,,,,,,,,,,,,,,,,,,,0,0,0,0,0
1.3002,1783441014.0143,1,0,1.0000,0.0000,1.42117,-0.05370,-2.70347,1.25333,1.56227,0.11528,-0.13140,-0.46641,0.01782,,,,,,,,,,,,,,,,,,,,,,,,,,0,0,0,0,0
1.3057,1783441014.0197,1,0,1.0000,0.0000,1.42117,-0.05370,-2.70347,1.25333,1.56227,0.11528,-0.13140,-0.46641,0.01782,,,,,,,,,,,,,,,,,,,,,,,,,,0,0,0,0,0
1.3309,1783441014.0449,1,0,1.0000,0.0000,1.42117,-0.05370,-2.70347,1.25333,1.56227,0.11528,-0.13140,-0.46641,0.01782,,,,,,,,,,,,,,,,,,,,,,,,,,0,0,0,0,0
1.3313,1783441014.0453,1,0,1.0000,0.0000,1.42117,-0.05370,-2.70347,1.25333,1.56227,0.11528,-0.13140,-0.46641,0.01782,,,,,,,,,,,,,,,,,,,,,,,,,,0,0,0,0,0
1.3711,1783441014.0851,1,0,1.0000,0.0000,1.42117,-0.05370,-2.70347,1.25333,1.56227,0.11528,-0.13140,-0.46641,0.01782,,,,,,,,,,,,,,,,,,,,,,,,,,0,0,0,0,0
1.3717,1783441014.0857,1,0,1.0000,0.0000,1.42117,-0.05370,-2.70347,1.25333,1.56227,0.11528,-0.13140,-0.46641,0.01782,,,,,,,,,,,,,,,,,,,,,,,,,,0,0,0,0,0
1.3722,1783441014.0862,1,0,1.0000,0.0000,1.42117,-0.05370,-2.70347,1.25333,1.56227,0.11528,-0.13140,-0.46641,0.01782,,,,,,,,,,,,,,,,,,,,,,,,,,0,0,0,0,0
1.3928,1783441014.1068,1,0,1.0000,0.0000,1.42117,-0.05370,-2.70347,1.25333,1.56227,0.11528,-0.13140,-0.46641,0.01782,,,,,,,,,,,,,,,,,,,,,,,,,,0,0,0,0,0
1.3933,1783441014.1073,1,0,1.0000,0.0000,1.42117,-0.05370,-2.70347,1.25333,1.56227,0.11528,-0.13140,-0.46641,0.01782,,,,,,,,,,,,,,,,,,,,,,,,,,0,0,0,0,0
1.4077,1783441014.1217,1,0,1.0000,0.0000,1.42117,-0.05370,-2.70347,1.25333,1.56227,0.11528,-0.13140,-0.46641,0.01782,,,,,,,,,,,,,,,,,,,,,,,,,,0,0,0,0,0
1.4087,1783441014.1228,1,0,1.0000,0.0000,1.42117,-0.05370,-2.70347,1.25333,1.56227,0.11528,-0.13140,-0.46641,0.01782,,,,,,,,,,,,,,,,,,,,,,,,,,0,0,0,0,0
1.4090,1783441014.1231,1,0,1.0000,0.0000,1.42117,-0.05370,-2.70347,1.25333,1.56227,0.11528,-0.13140,-0.46641,0.01782,,,,,,,,,,,,,,,,,,,,,,,,,,0,0,0,0,0
1.4094,1783441014.1234,1,0,1.0000,0.0000,1.42117,-0.05370,-2.70347,1.25333,1.56227,0.11528,-0.13140,-0.46641,0.01782,,,,,,,,,,,,,,,,,,,,,,,,,,0,0,0,0,0
1.4367,1783441014.1508,1,0,1.0000,0.0000,1.42117,-0.05370,-2.70347,1.25333,1.56227,0.11528,-0.13140,-0.46641,0.01782,,,,,,,,,,,,,,,,,,,,,,,,,,0,0,0,0,0
1.4371,1783441014.1512,1,0,1.0000,0.0000,1.42117,-0.05370,-2.70347,1.25333,1.56227,0.11528,-0.13140,-0.46641,0.01782,,,,,,,,,,,,,,,,,,,,,,,,,,0,0,0,0,0
1.4536,1783441014.1677,1,0,1.0000,0.0000,1.42117,-0.05370,-2.70347,1.25333,1.56227,0.11528,-0.13140,-0.46641,0.01782,,,,,,,,,,,,,,,,,,,,,,,,,,0,0,0,0,0
1.4541,1783441014.1681,1,0,1.0000,0.0000,1.42117,-0.05370,-2.70347,1.25333,1.56227,0.11528,-0.13140,-0.46641,0.01782,,,,,,,,,,,,,,,,,,,,,,,,,,0,0,0,0,0
1.4698,1783441014.1838,1,0,1.0000,0.0000,1.42117,-0.05370,-2.70347,1.25333,1.56227,0.11528,-0.13140,-0.46641,0.01782,,,,,,,,,,,,,,,,,,,,,,,,,,0,0,0,0,0
1.4702,1783441014.1842,1,0,1.0000,0.0000,1.42117,-0.05370,-2.70347,1.25333,1.56227,0.11528,-0.13140,-0.46641,0.01782,,,,,,,,,,,,,,,,,,,,,,,,,,0,0,0,0,0
1.4779,1783441014.1919,1,0,1.0000,0.0000,1.42117,-0.05370,-2.70347,1.25333,1.56227,0.11528,-0.13140,-0.46641,0.01782,,,,,,,,,,,,,,,,,,,,,,,,,,0,0,0,0,0
1.4872,1783441014.2012,1,0,1.0000,0.0000,1.42117,-0.05370,-2.70347,1.25333,1.56227,0.11528,-0.13140,-0.46641,0.01782,,,,,,,,,,,,,,,,,,,,,,,,,,0,0,0,0,0
1.5119,1783441014.2259,1,0,1.0000,0.0000,1.42117,-0.05370,-2.70347,1.25333,1.56227,0.11528,-0.13140,-0.46641,0.01782,,,,,,,,,,,,,,,,,,,,,,,,,,0,0,0,0,0
1.5138,1783441014.2278,1,0,1.0000,0.0000,1.42117,-0.05370,-2.70347,1.25333,1.56227,0.11528,-0.13140,-0.46641,0.01782,,,,,,,,,,,,,,,,,,,,,,,,,,0,0,0,0,0
1.5143,1783441014.2284,1,0,1.0000,0.0000,1.42117,-0.05370,-2.70347,1.25333,1.56227,0.11528,-0.13140,-0.46641,0.01782,,,,,,,,,,,,,,,,,,,,,,,,,,0,0,0,0,0
1.5284,1783441014.2424,1,0,1.0000,0.0000,1.42117,-0.05370,-2.70347,1.25333,1.56227,0.11528,-0.13140,-0.46641,0.01782,,,,,,,,,,,,,,,,,,,,,,,,,,0,0,0,0,0
1.5291,1783441014.2431,1,0,1.0000,0.0000,1.42117,-0.05370,-2.70347,1.25333,1.56227,0.11528,-0.13140,-0.46641,0.01782,,,,,,,,,,,,,,,,,,,,,,,,,,0,0,0,0,0
1.5412,1783441014.2552,1,0,1.0000,0.0000,1.42117,-0.05370,-2.70347,1.25333,1.56227,0.11528,-0.13140,-0.46641,0.01782,,,,,,,,,,,,,,,,,,,,,,,,,,0,0,0,0,0
1.5515,1783441014.2655,1,0,1.0000,0.0000,1.42117,-0.05370,-2.70347,1.25333,1.56227,0.11528,-0.13140,-0.46641,0.01782,,,,,,,,,,,,,,,,,,,,,,,,,,0,0,0,0,0
1.5640,1783441014.2780,1,0,1.0000,0.0000,1.42117,-0.05370,-2.70347,1.25333,1.56227,0.11528,-0.13140,-0.46641,0.01782,,,,,,,,,,,,,,,,,,,,,,,,,,0,0,0,0,0
1.5691,1783441014.2832,1,0,1.0000,0.0000,1.42117,-0.05370,-2.70347,1.25333,1.56227,0.11528,-0.13140,-0.46641,0.01782,,,,,,,,,,,,,,,,,,,,,,,,,,0,0,0,0,0
1.5696,1783441014.2836,1,0,1.0000,0.0000,1.42117,-0.05370,-2.70347,1.25333,1.56227,0.11528,-0.13140,-0.46641,0.01782,,,,,,,,,,,,,,,,,,,,,,,,,,0,0,0,0,0
1.5787,1783441014.2927,1,0,1.0000,0.0000,1.42117,-0.05370,-2.70347,1.25333,1.56227,0.11528,-0.13140,-0.46641,0.01782,,,,,,,,,,,,,,,,,,,,,,,,,,0,0,0,0,0
1.5905,1783441014.3045,1,0,1.0000,0.0000,1.42117,-0.05370,-2.70347,1.25333,1.56227,0.11528,-0.13140,-0.46641,0.01782,,,,,,,,,,,,,,,,,,,,,,,,,,0,0,0,0,0
1.5911,1783441014.3051,1,0,1.0000,0.0000,1.42117,-0.05370,-2.70347,1.25333,1.56227,0.11528,-0.13140,-0.46641,0.01782,,,,,,,,,,,,,,,,,,,,,,,,,,0,0,0,0,0
1.5985,1783441014.3125,1,0,1.0000,0.0000,1.42117,-0.05370,-2.70347,1.25333,1.56227,0.11528,-0.13140,-0.46641,0.01782,,,,,,,,,,,,,,,,,,,,,,,,,,0,0,0,0,0
1.6130,1783441014.3270,1,0,1.0000,0.0000,1.42117,-0.05370,-2.70347,1.25333,1.56227,0.11528,-0.13140,-0.46641,0.01782,,,,,,,,,,,,,,,,,,,,,,,,,,0,0,0,0,0
1.6367,1783441014.3507,1,0,1.0000,0.0000,1.42117,-0.05370,-2.70347,1.25333,1.56227,0.11528,-0.13140,-0.46641,0.01782,,,,,,,,,,,,,,,,,,,,,,,,,,0,0,0,0,0
1.6372,1783441014.3512,1,0,1.0000,0.0000,1.42117,-0.05370,-2.70347,1.25333,1.56227,0.11528,-0.13140,-0.46641,0.01782,,,,,,,,,,,,,,,,,,,,,,,,,,0,0,0,0,0
1.6433,1783441014.3573,1,0,1.0000,0.0000,1.42117,-0.05370,-2.70347,1.25333,1.56227,0.11528,-0.13140,-0.46641,0.01782,,,,,,,,,,,,,,,,,,,,,,,,,,0,0,0,0,0
1.6440,1783441014.3580,1,0,1.0000,0.0000,1.42117,-0.05370,-2.70347,1.25333,1.56227,0.11528,-0.13140,-0.46641,0.01782,,,,,,,,,,,,,,,,,,,,,,,,,,0,0,0,0,0
1.6523,1783441014.3664,1,0,1.0000,0.0000,1.42117,-0.05370,-2.70347,1.25333,1.56227,0.11528,-0.13140,-0.46641,0.01782,,,,,,,,,,,,,,,,,,,,,,,,,,0,0,0,0,0
1.7023,1783441014.4163,1,0,1.0000,0.0000,1.42117,-0.05370,-2.70347,1.25333,1.56227,0.11528,-0.13140,-0.46641,0.01782,,,,,,,,,,,,,,,,,,,,,,,,,,0,0,0,0,0
1.7031,1783441014.4171,1,0,1.0000,0.0000,1.42117,-0.05370,-2.70347,1.25333,1.56227,0.11528,-0.13140,-0.46641,0.01782,,,,,,,,,,,,,,,,,,,,,,,,,,0,0,0,0,0
1.7035,1783441014.4175,1,0,1.0000,0.0000,1.42117,-0.05370,-2.70347,1.25333,1.56227,0.11528,-0.13140,-0.46641,0.01782,,,,,,,,,,,,,,,,,,,,,,,,,,0,0,0,0,0
1.7087,1783441014.4227,1,0,1.0000,0.0000,1.42117,-0.05370,-2.70347,1.25333,1.56227,0.11528,-0.13140,-0.46641,0.01782,,,,,,,,,,,,,,,,,,,,,,,,,,0,0,0,0,0
1.7162,1783441014.4302,1,0,1.0000,0.0000,1.42117,-0.05370,-2.70347,1.25333,1.56227,0.11528,-0.13140,-0.46641,0.01782,,,,,,,,,,,,,,,,,,,,,,,,,,0,0,0,0,0
1.7391,1783441014.4532,1,0,1.0000,0.0000,1.42117,-0.05370,-2.70347,1.25333,1.56227,0.11528,-0.13140,-0.46641,0.01782,,,,,,,,,,,,,,,,,,,,,,,,,,0,0,0,0,0
1.7397,1783441014.4537,1,0,1.0000,0.0000,1.42117,-0.05370,-2.70347,1.25333,1.56227,0.11528,-0.13140,-0.46641,0.01782,,,,,,,,,,,,,,,,,,,,,,,,,,0,0,0,0,0
1.7673,1783441014.4813,1,0,1.0000,0.0000,1.42117,-0.05370,-2.70347,1.25333,1.56227,0.11528,-0.13140,-0.46641,0.01782,,,,,,,,,,,,,,,,,,,,,,,,,,0,0,0,0,0
1.7678,1783441014.4818,1,0,1.0000,0.0000,1.42117,-0.05370,-2.70347,1.25333,1.56227,0.11528,-0.13140,-0.46641,0.01782,,,,,,,,,,,,,,,,,,,,,,,,,,0,0,0,0,0
1.7682,1783441014.4822,1,0,1.0000,0.0000,1.42117,-0.05370,-2.70347,1.25333,1.56227,0.11528,-0.13140,-0.46641,0.01782,,,,,,,,,,,,,,,,,,,,,,,,,,0,0,0,0,0
1.7759,1783441014.4900,1,0,1.0000,0.0000,1.42117,-0.05370,-2.70347,1.25333,1.56227,0.11528,-0.13140,-0.46641,0.01782,,,,,,,,,,,,,,,,,,,,,,,,,,0,0,0,0,0
1.7763,1783441014.4904,1,0,1.0000,0.0000,1.42117,-0.05370,-2.70347,1.25333,1.56227,0.11528,-0.13140,-0.46641,0.01782,,,,,,,,,,,,,,,,,,,,,,,,,,0,0,0,0,0
1.7876,1783441014.5016,1,0,1.0000,0.0000,1.42117,-0.05370,-2.70347,1.25333,1.56227,0.11528,-0.13140,-0.46641,0.01782,,,,,,,,,,,,,,,,,,,,,,,,,,0,0,0,0,0
1.8040,1783441014.5180,1,0,1.0000,0.0000,1.42117,-0.05370,-2.70347,1.25333,1.56227,0.11528,-0.13140,-0.46641,0.01782,,,,,,,,,,,,,,,,,,,,,,,,,,0,0,0,0,0
1.8127,1783441014.5268,1,0,1.0000,0.0000,1.42117,-0.05370,-2.70347,1.25333,1.56227,0.11528,-0.13140,-0.46641,0.01782,,,,,,,,,,,,,,,,,,,,,,,,,,0,0,0,0,0
1.8191,1783441014.5331,1,0,1.0000,0.0000,1.42117,-0.05370,-2.70347,1.25333,1.56227,0.11528,-0.13140,-0.46641,0.01782,,,,,,,,,,,,,,,,,,,,,,,,,,0,0,0,0,0
1.8271,1783441014.5411,1,0,1.0000,0.0000,1.42117,-0.05370,-2.70347,1.25333,1.56227,0.11528,-0.13140,-0.46641,0.01782,,,,,,,,,,,,,,,,,,,,,,,,,,0,0,0,0,0
1.8275,1783441014.5415,1,0,1.0000,0.0000,1.42117,-0.05370,-2.70347,1.25333,1.56227,0.11528,-0.13140,-0.46641,0.01782,,,,,,,,,,,,,,,,,,,,,,,,,,0,0,0,0,0
1.8401,1783441014.5542,1,0,1.0000,0.0000,1.42117,-0.05370,-2.70347,1.25333,1.56227,0.11528,-0.13140,-0.46641,0.01782,,,,,,,,,,,,,,,,,,,,,,,,,,0,0,0,0,0
1.8406,1783441014.5546,1,0,1.0000,0.0000,1.42117,-0.05370,-2.70347,1.25333,1.56227,0.11528,-0.13140,-0.46641,0.01782,,,,,,,,,,,,,,,,,,,,,,,,,,0,0,0,0,0
1.8641,1783441014.5781,1,0,1.0000,0.0000,1.42117,-0.05370,-2.70347,1.25333,1.56227,0.11528,-0.13140,-0.46641,0.01782,,,,,,,,,,,,,,,,,,,,,,,,,,0,0,0,0,0
1.8697,1783441014.5837,1,0,1.0000,0.0000,1.42117,-0.05370,-2.70347,1.25333,1.56227,0.11528,-0.13140,-0.46641,0.01782,,,,,,,,,,,,,,,,,,,,,,,,,,0,0,0,0,0
1.8701,1783441014.5841,1,0,1.0000,0.0000,1.42117,-0.05370,-2.70347,1.25333,1.56227,0.11528,-0.13140,-0.46641,0.01782,,,,,,,,,,,,,,,,,,,,,,,,,,0,0,0,0,0
1.8703,1783441014.5844,1,0,1.0000,0.0000,1.42117,-0.05370,-2.70347,1.25333,1.56227,0.11528,-0.13140,-0.46641,0.01782,,,,,,,,,,,,,,,,,,,,,,,,,,0,0,0,0,0
1.8710,1783441014.5851,1,0,1.0000,0.0000,1.42117,-0.05370,-2.70347,1.25333,1.56227,0.11528,-0.13140,-0.46641,0.01782,,,,,,,,,,,,,,,,,,,,,,,,,,0,0,0,0,0
1.8794,1783441014.5934,1,0,1.0000,0.0000,1.42117,-0.05370,-2.70347,1.25333,1.56227,0.11528,-0.13140,-0.46641,0.01782,,,,,,,,,,,,,,,,,,,,,,,,,,0,0,0,0,0
1.8798,1783441014.5938,1,0,1.0000,0.0000,1.42117,-0.05370,-2.70347,1.25333,1.56227,0.11528,-0.13140,-0.46641,0.01782,,,,,,,,,,,,,,,,,,,,,,,,,,0,0,0,0,0
1.8861,1783441014.6001,1,0,1.0000,0.0000,1.42117,-0.05370,-2.70347,1.25333,1.56227,0.11528,-0.13140,-0.46641,0.01782,,,,,,,,,,,,,,,,,,,,,,,,,,0,0,0,0,0
1.8978,1783441014.6119,1,0,1.0000,0.0000,1.42117,-0.05370,-2.70347,1.25333,1.56227,0.11528,-0.13140,-0.46641,0.01782,,,,,,,,,,,,,,,,,,,,,,,,,,0,0,0,0,0
1.9120,1783441014.6261,1,0,1.0000,0.0000,1.42117,-0.05370,-2.70347,1.25333,1.56227,0.11528,-0.13140,-0.46641,0.01782,,,,,,,,,,,,,,,,,,,,,,,,,,0,0,0,0,0
1.9240,1783441014.6381,1,0,1.0000,0.0000,1.42117,-0.05370,-2.70347,1.25333,1.56227,0.11528,-0.13140,-0.46641,0.01782,,,,,,,,,,,,,,,,,,,,,,,,,,0,0,0,0,0
1.9312,1783441014.6452,1,0,1.0000,0.0000,1.42117,-0.05370,-2.70347,1.25333,1.56227,0.11528,-0.13140,-0.46641,0.01782,,,,,,,,,,,,,,,,,,,,,,,,,,0,0,0,0,0
1.9316,1783441014.6457,1,0,1.0000,0.0000,1.42117,-0.05370,-2.70347,1.25333,1.56227,0.11528,-0.13140,-0.46641,0.01782,,,,,,,,,,,,,,,,,,,,,,,,,,0,0,0,0,0
1.9436,1783441014.6576,1,0,1.0000,0.0000,1.42117,-0.05370,-2.70347,1.25333,1.56227,0.11528,-0.13140,-0.46641,0.01782,,,,,,,,,,,,,,,,,,,,,,,,,,0,0,0,0,0
1.9511,1783441014.6651,1,0,1.0000,0.0000,1.42117,-0.05370,-2.70347,1.25333,1.56227,0.11528,-0.13140,-0.46641,0.01782,,,,,,,,,,,,,,,,,,,,,,,,,,0,0,0,0,0
1.9607,1783441014.6747,1,0,1.0000,0.0000,1.42117,-0.05370,-2.70347,1.25333,1.56227,0.11528,-0.13140,-0.46641,0.01782,,,,,,,,,,,,,,,,,,,,,,,,,,0,0,0,0,0
1.9720,1783441014.6861,1,0,1.0000,0.0000,1.42117,-0.05370,-2.70347,1.25333,1.56227,0.11528,-0.13140,-0.46641,0.01782,,,,,,,,,,,,,,,,,,,,,,,,,,0,0,0,0,0
1.9820,1783441014.6960,1,0,1.0000,0.0000,1.42117,-0.05370,-2.70347,1.25333,1.56227,0.11528,-0.13140,-0.46641,0.01782,,,,,,,,,,,,,,,,,,,,,,,,,,0,0,0,0,0
1.9892,1783441014.7032,1,0,1.0000,0.0000,1.42117,-0.05370,-2.70347,1.25333,1.56227,0.11528,-0.13140,-0.46641,0.01782,,,,,,,,,,,,,,,,,,,,,,,,,,0,0,0,0,0
2.0069,1783441014.7210,1,0,1.0000,0.0000,1.42117,-0.05370,-2.70347,1.25333,1.56227,0.11528,-0.13140,-0.46641,0.01782,,,,,,,,,,,,,,,,,,,,,,,,,,0,0,0,0,0
2.0173,1783441014.7313,1,0,1.0000,0.0000,1.42117,-0.05370,-2.70347,1.25333,1.56227,0.11528,-0.13140,-0.46641,0.01782,,,,,,,,,,,,,,,,,,,,,,,,,,0,0,0,0,0
2.0211,1783441014.7351,1,0,1.0000,0.0000,1.42117,-0.05370,-2.70347,1.25333,1.56227,0.11528,-0.13140,-0.46641,0.01782,,,,,,,,,,,,,,,,,,,,,,,,,,0,0,0,0,0
2.0215,1783441014.7355,1,0,1.0000,0.0000,1.42117,-0.05370,-2.70347,1.25333,1.56227,0.11528,-0.13140,-0.46641,0.01782,,,,,,,,,,,,,,,,,,,,,,,,,,0,0,0,0,0
2.0291,1783441014.7432,1,0,1.0000,0.0000,1.42117,-0.05370,-2.70347,1.25333,1.56227,0.11528,-0.13140,-0.46641,0.01782,,,,,,,,,,,,,,,,,,,,,,,,,,0,0,0,0,0
2.0426,1783441014.7566,1,0,1.0000,0.0000,1.42117,-0.05370,-2.70347,1.25333,1.56227,0.11528,-0.13140,-0.46641,0.01782,,,,,,,,,,,,,,,,,,,,,,,,,,0,0,0,0,0
2.0434,1783441014.7575,1,0,1.0000,0.0000,1.42117,-0.05370,-2.70347,1.25333,1.56227,0.11528,-0.13140,-0.46641,0.01782,,,,,,,,,,,,,,,,,,,,,,,,,,0,0,0,0,0
2.0630,1783441014.7771,1,0,1.0000,0.0000,1.42117,-0.05370,-2.70347,1.25333,1.56227,0.11528,-0.13140,-0.46641,0.01782,,,,,,,,,,,,,,,,,,,,,,,,,,0,0,0,0,0
2.0773,1783441014.7913,1,0,1.0000,0.0000,1.42117,-0.05370,-2.70347,1.25333,1.56227,0.11528,-0.13140,-0.46641,0.01782,,,,,,,,,,,,,,,,,,,,,,,,,,0,0,0,0,0
2.0831,1783441014.7972,1,0,1.0000,0.0000,1.42117,-0.05370,-2.70347,1.25333,1.56227,0.11528,-0.13140,-0.46641,0.01782,,,,,,,,,,,,,,,,,,,,,,,,,,0,0,0,0,0
2.0836,1783441014.7976,1,0,1.0000,0.0000,1.42117,-0.05370,-2.70347,1.25333,1.56227,0.11528,-0.13140,-0.46641,0.01782,,,,,,,,,,,,,,,,,,,,,,,,,,0,0,0,0,0
2.0917,1783441014.8057,1,0,1.0000,0.0000,1.42117,-0.05370,-2.70347,1.25333,1.56227,0.11528,-0.13140,-0.46641,0.01782,,,,,,,,,,,,,,,,,,,,,,,,,,0,0,0,0,0
2.0920,1783441014.8060,1,0,1.0000,0.0000,1.42117,-0.05370,-2.70347,1.25333,1.56227,0.11528,-0.13140,-0.46641,0.01782,,,,,,,,,,,,,,,,,,,,,,,,,,0,0,0,0,0
2.1021,1783441014.8161,1,0,1.0000,0.0000,1.42117,-0.05370,-2.70347,1.25333,1.56227,0.11528,-0.13140,-0.46641,0.01782,,,,,,,,,,,,,,,,,,,,,,,,,,0,0,0,0,0
2.1030,1783441014.8170,1,0,1.0000,0.0000,1.42117,-0.05370,-2.70347,1.25333,1.56227,0.11528,-0.13140,-0.46641,0.01782,,,,,,,,,,,,,,,,,,,,,,,,,,0,0,0,0,0
2.1124,1783441014.8264,1,0,1.0000,0.0000,1.42117,-0.05370,-2.70347,1.25333,1.56227,0.11528,-0.13140,-0.46641,0.01782,,,,,,,,,,,,,,,,,,,,,,,,,,0,0,0,0,0
2.1237,1783441014.8378,1,0,1.0000,0.0000,1.42117,-0.05370,-2.70347,1.25333,1.56227,0.11528,-0.13140,-0.46641,0.01782,,,,,,,,,,,,,,,,,,,,,,,,,,0,0,0,0,0
2.1314,1783441014.8454,1,0,1.0000,0.0000,1.42117,-0.05370,-2.70347,1.25333,1.56227,0.11528,-0.13140,-0.46641,0.01782,,,,,,,,,,,,,,,,,,,,,,,,,,0,0,0,0,0
2.1318,1783441014.8458,1,0,1.0000,0.0000,1.42117,-0.05370,-2.70347,1.25333,1.56227,0.11528,-0.13140,-0.46641,0.01782,,,,,,,,,,,,,,,,,,,,,,,,,,0,0,0,0,0
2.1391,1783441014.8532,1,0,1.0000,0.0000,1.42117,-0.05370,-2.70347,1.25333,1.56227,0.11528,-0.13140,-0.46641,0.01782,,,,,,,,,,,,,,,,,,,,,,,,,,0,0,0,0,0
2.1397,1783441014.8537,1,0,1.0000,0.0000,1.42117,-0.05370,-2.70347,1.25333,1.56227,0.11528,-0.13140,-0.46641,0.01782,,,,,,,,,,,,,,,,,,,,,,,,,,0,0,0,0,0
2.1500,1783441014.8640,1,0,1.0000,0.0000,1.42117,-0.05370,-2.70347,1.25333,1.56227,0.11528,-0.13140,-0.46641,0.01782,,,,,,,,,,,,,,,,,,,,,,,,,,0,0,0,0,0
2.1646,1783441014.8786,1,0,1.0000,0.0000,1.42117,-0.05370,-2.70347,1.25333,1.56227,0.11528,-0.13140,-0.46641,0.01782,,,,,,,,,,,,,,,,,,,,,,,,,,0,0,0,0,0
2.1795,1783441014.8936,1,0,1.0000,0.0000,1.42117,-0.05370,-2.70347,1.25333,1.56227,0.11528,-0.13140,-0.46641,0.01782,,,,,,,,,,,,,,,,,,,,,,,,,,0,0,0,0,0
2.1799,1783441014.8939,1,0,1.0000,0.0000,1.42117,-0.05370,-2.70347,1.25333,1.56227,0.11528,-0.13140,-0.46641,0.01782,,,,,,,,,,,,,,,,,,,,,,,,,,0,0,0,0,0
2.1926,1783441014.9067,1,0,1.0000,0.0000,1.42117,-0.05370,-2.70347,1.25333,1.56227,0.11528,-0.13140,-0.46641,0.01782,,,,,,,,,,,,,,,,,,,,,,,,,,0,0,0,0,0
2.2153,1783441014.9293,1,0,1.0000,0.0000,1.42117,-0.05370,-2.70347,1.25333,1.56227,0.11528,-0.13140,-0.46641,0.01782,,,,,,,,,,,,,,,,,,,,,,,,,,0,0,0,0,0
2.2156,1783441014.9297,1,0,1.0000,0.0000,1.42117,-0.05370,-2.70347,1.25333,1.56227,0.11528,-0.13140,-0.46641,0.01782,,,,,,,,,,,,,,,,,,,,,,,,,,0,0,0,0,0
2.2193,1783441014.9333,1,0,1.0000,0.0000,1.42117,-0.05370,-2.70347,1.25333,1.56227,0.11528,-0.13140,-0.46641,0.01782,,,,,,,,,,,,,,,,,,,,,,,,,,0,0,0,0,0
2.2197,1783441014.9337,1,0,1.0000,0.0000,1.42117,-0.05370,-2.70347,1.25333,1.56227,0.11528,-0.13140,-0.46641,0.01782,,,,,,,,,,,,,,,,,,,,,,,,,,0,0,0,0,0
2.2299,1783441014.9440,1,0,1.0000,0.0000,1.42117,-0.05370,-2.70347,1.25333,1.56227,0.11528,-0.13140,-0.46641,0.01782,,,,,,,,,,,,,,,,,,,,,,,,,,0,0,0,0,0
2.2472,1783441014.9612,1,0,1.0000,0.0000,1.42117,-0.05370,-2.70347,1.25333,1.56227,0.11528,-0.13140,-0.46641,0.01782,,,,,,,,,,,,,,,,,,,,,,,,,,0,0,0,0,0
2.2498,1783441014.9638,1,0,1.0000,0.0000,1.42117,-0.05370,-2.70347,1.25333,1.56227,0.11528,-0.13140,-0.46641,0.01782,,,,,,,,,,,,,,,,,,,,,,,,,,0,0,0,0,0
2.2603,1783441014.9743,1,0,1.0000,0.0000,1.42117,-0.05370,-2.70347,1.25333,1.56227,0.11528,-0.13140,-0.46641,0.01782,,,,,,,,,,,,,,,,,,,,,,,,,,0,0,0,0,0
2.2807,1783441014.9947,1,0,1.0000,0.0000,1.42117,-0.05370,-2.70347,1.25333,1.56227,0.11528,-0.13140,-0.46641,0.01782,,,,,,,,,,,,,,,,,,,,,,,,,,0,0,0,0,0
2.2883,1783441015.0024,1,0,1.0000,0.0000,1.42117,-0.05370,-2.70347,1.25333,1.56227,0.11528,-0.13140,-0.46641,0.01782,,,,,,,,,,,,,,,,,,,,,,,,,,0,0,0,0,0
2.2937,1783441015.0077,1,0,1.0000,0.0000,1.42117,-0.05370,-2.70347,1.25333,1.56227,0.11528,-0.13140,-0.46641,0.01782,,,,,,,,,,,,,,,,,,,,,,,,,,0,0,0,0,0
2.3008,1783441015.0148,1,0,1.0000,0.0000,1.42117,-0.05370,-2.70347,1.25333,1.56227,0.11528,-0.13140,-0.46641,0.01782,,,,,,,,,,,,,,,,,,,,,,,,,,0,0,0,0,0
2.3114,1783441015.0254,1,0,1.0000,0.0000,1.42117,-0.05370,-2.70347,1.25333,1.56227,0.11528,-0.13140,-0.46641,0.01782,,,,,,,,,,,,,,,,,,,,,,,,,,0,0,0,0,0
2.3252,1783441015.0392,1,0,1.0000,0.0000,1.42117,-0.05370,-2.70347,1.25333,1.56227,0.11528,-0.13140,-0.46641,0.01782,,,,,,,,,,,,,,,,,,,,,,,,,,0,0,0,0,0
2.3372,1783441015.0512,1,0,1.0000,0.0000,1.42117,-0.05370,-2.70347,1.25333,1.56227,0.11528,-0.13140,-0.46641,0.01782,,,,,,,,,,,,,,,,,,,,,,,,,,0,0,0,0,0
2.3475,1783441015.0615,1,0,1.0000,0.0000,1.42117,-0.05370,-2.70347,1.25333,1.56227,0.11528,-0.13140,-0.46641,0.01782,,,,,,,,,,,,,,,,,,,,,,,,,,0,0,0,0,0
2.3677,1783441015.0817,1,0,1.0000,0.0000,1.42117,-0.05370,-2.70347,1.25333,1.56227,0.11528,-0.13140,-0.46641,0.01782,,,,,,,,,,,,,,,,,,,,,,,,,,0,0,0,0,0
2.3683,1783441015.0824,1,0,1.0000,0.0000,1.42117,-0.05370,-2.70347,1.25333,1.56227,0.11528,-0.13140,-0.46641,0.01782,,,,,,,,,,,,,,,,,,,,,,,,,,0,0,0,0,0
2.3869,1783441015.1010,1,0,1.0000,0.0000,1.42117,-0.05370,-2.70347,1.25333,1.56227,0.11528,-0.13140,-0.46641,0.01782,,,,,,,,,,,,,,,,,,,,,,,,,,0,0,0,0,0
2.3916,1783441015.1056,1,0,1.0000,0.0000,1.42117,-0.05370,-2.70347,1.25333,1.56227,0.11528,-0.13140,-0.46641,0.01782,,,,,,,,,,,,,,,,,,,,,,,,,,0,0,0,0,0
2.4437,1783441015.1577,1,0,1.0000,0.0000,1.42117,-0.05370,-2.70347,1.25333,1.56227,0.11528,-0.13140,-0.46641,0.01782,,,,,,,,,,,,,,,,,,,,,,,,,,0,0,0,0,0
2.4460,1783441015.1601,1,0,1.0000,0.0000,1.42117,-0.05370,-2.70347,1.25333,1.56227,0.11528,-0.13140,-0.46641,0.01782,,,,,,,,,,,,,,,,,,,,,,,,,,0,0,0,0,0
2.4468,1783441015.1608,1,0,1.0000,0.0000,1.42117,-0.05370,-2.70347,1.25333,1.56227,0.11528,-0.13140,-0.46641,0.01782,,,,,,,,,,,,,,,,,,,,,,,,,,0,0,0,0,0
2.4474,1783441015.1614,1,0,1.0000,0.0000,1.42117,-0.05370,-2.70347,1.25333,1.56227,0.11528,-0.13140,-0.46641,0.01782,,,,,,,,,,,,,,,,,,,,,,,,,,0,0,0,0,0
2.4511,1783441015.1651,1,0,1.0000,0.0000,1.42117,-0.05370,-2.70347,1.25333,1.56227,0.11528,-0.13140,-0.46641,0.01782,,,,,,,,,,,,,,,,,,,,,,,,,,0,0,0,0,0
2.4646,1783441015.1787,1,0,1.0000,0.0000,1.42117,-0.05370,-2.70347,1.25333,1.56227,0.11528,-0.13140,-0.46641,0.01782,,,,,,,,,,,,,,,,,,,,,,,,,,0,0,0,0,0
2.4712,1783441015.1853,1,0,1.0000,0.0000,1.42117,-0.05370,-2.70347,1.25333,1.56227,0.11528,-0.13140,-0.46641,0.01782,,,,,,,,,,,,,,,,,,,,,,,,,,0,0,0,0,0
2.4850,1783441015.1991,1,0,1.0000,0.0000,1.42117,-0.05370,-2.70347,1.25333,1.56227,0.11528,-0.13140,-0.46641,0.01782,,,,,,,,,,,,,,,,,,,,,,,,,,0,0,0,0,0
2.4928,1783441015.2069,1,0,1.0000,0.0000,1.42117,-0.05370,-2.70347,1.25333,1.56227,0.11528,-0.13140,-0.46641,0.01782,,,,,,,,,,,,,,,,,,,,,,,,,,0,0,0,0,0
2.5038,1783441015.2179,1,0,1.0000,0.0000,1.42117,-0.05370,-2.70347,1.25333,1.56227,0.11528,-0.13140,-0.46641,0.01782,,,,,,,,,,,,,,,,,,,,,,,,,,0,0,0,0,0
2.5117,1783441015.2258,1,0,1.0000,0.0000,1.42117,-0.05370,-2.70347,1.25333,1.56227,0.11528,-0.13140,-0.46641,0.01782,,,,,,,,,,,,,,,,,,,,,,,,,,0,0,0,0,0
2.5197,1783441015.2338,1,0,1.0000,0.0000,1.42117,-0.05370,-2.70347,1.25333,1.56227,0.11528,-0.13140,-0.46641,0.01782,,,,,,,,,,,,,,,,,,,,,,,,,,0,0,0,0,0
2.5290,1783441015.2431,1,0,1.0000,0.0000,1.42117,-0.05370,-2.70347,1.25333,1.56227,0.11528,-0.13140,-0.46641,0.01782,,,,,,,,,,,,,,,,,,,,,,,,,,0,0,0,0,0
2.5414,1783441015.2554,1,0,1.0000,0.0000,1.42117,-0.05370,-2.70347,1.25333,1.56227,0.11528,-0.13140,-0.46641,0.01782,,,,,,,,,,,,,,,,,,,,,,,,,,0,0,0,0,0
2.5550,1783441015.2690,1,0,1.0000,0.0000,1.42117,-0.05370,-2.70347,1.25333,1.56227,0.11528,-0.13140,-0.46641,0.01782,,,,,,,,,,,,,,,,,,,,,,,,,,0,0,0,0,0
2.5642,1783441015.2783,1,0,1.0000,0.0000,1.42117,-0.05370,-2.70347,1.25333,1.56227,0.11528,-0.13140,-0.46641,0.01782,,,,,,,,,,,,,,,,,,,,,,,,,,0,0,0,0,0
2.5892,1783441015.3032,1,0,1.0000,0.0000,1.42117,-0.05370,-2.70347,1.25333,1.56227,0.11528,-0.13140,-0.46641,0.01782,,,,,,,,,,,,,,,,,,,,,,,,,,0,0,0,0,0
2.5896,1783441015.3036,1,0,1.0000,0.0000,1.42117,-0.05370,-2.70347,1.25333,1.56227,0.11528,-0.13140,-0.46641,0.01782,,,,,,,,,,,,,,,,,,,,,,,,,,0,0,0,0,0
2.5913,1783441015.3054,1,0,1.0000,0.0000,1.42117,-0.05370,-2.70347,1.25333,1.56227,0.11528,-0.13140,-0.46641,0.01782,,,,,,,,,,,,,,,,,,,,,,,,,,0,0,0,0,0
2.6041,1783441015.3181,1,0,1.0000,0.0000,1.42117,-0.05370,-2.70347,1.25333,1.56227,0.11528,-0.13140,-0.46641,0.01782,,,,,,,,,,,,,,,,,,,,,,,,,,0,0,0,0,0
2.6133,1783441015.3273,1,0,1.0000,0.0000,1.42117,-0.05370,-2.70347,1.25333,1.56227,0.11528,-0.13140,-0.46641,0.01782,,,,,,,,,,,,,,,,,,,,,,,,,,0,0,0,0,0
2.6250,1783441015.3391,1,0,1.0000,0.0000,1.42117,-0.05370,-2.70347,1.25333,1.56227,0.11528,-0.13140,-0.46641,0.01782,,,,,,,,,,,,,,,,,,,,,,,,,,0,0,0,0,0
2.6562,1783441015.3703,1,0,1.0000,0.0000,1.42117,-0.05370,-2.70347,1.25333,1.56227,0.11528,-0.13140,-0.46641,0.01782,,,,,,,,,,,,,,,,,,,,,,,,,,0,0,0,0,0
2.6568,1783441015.3708,1,0,1.0000,0.0000,1.42117,-0.05370,-2.70347,1.25333,1.56227,0.11528,-0.13140,-0.46641,0.01782,,,,,,,,,,,,,,,,,,,,,,,,,,0,0,0,0,0
2.6634,1783441015.3774,1,0,1.0000,0.0000,1.42117,-0.05370,-2.70347,1.25333,1.56227,0.11528,-0.13140,-0.46641,0.01782,,,,,,,,,,,,,,,,,,,,,,,,,,0,0,0,0,0
2.6638,1783441015.3779,1,0,1.0000,0.0000,1.42117,-0.05370,-2.70347,1.25333,1.56227,0.11528,-0.13140,-0.46641,0.01782,,,,,,,,,,,,,,,,,,,,,,,,,,0,0,0,0,0
2.6639,1783441015.3779,1,0,1.0000,0.0000,1.42117,-0.05370,-2.70347,1.25333,1.56227,0.11528,-0.13140,-0.46641,0.01782,,,,,,,,,,,,,,,,,,,,,,,,,,0,0,0,0,0
