Martins-Lucaas/twinforge/sensors/Data/20260704_155239__samples.csv
t_rel_s,t_unix,cycle,phase,setpoint_n,force_net_n,q1,q2,q3,q4,q5,q6,tcp_x,tcp_y,tcp_z,taxel_0,taxel_1,taxel_2,taxel_3,taxel_4,taxel_5,taxel_6,taxel_7,taxel_8,taxel_9,taxel_10,taxel_11,taxel_12,taxel_13,taxel_14,taxel_15,taxel_16,taxel_17,taxel_18,taxel_19,taxel_20,taxel_21,taxel_22,taxel_23,taxel_24,n_RA,n_SA,cn_mm,cn_ra,cn_sa
0.0053,1783191159.1604,1,0,1.0000,0.0000,1.44682,0.23328,-2.77748,0.97337,1.57080,0.00000,-0.14512,-0.38003,0.04653,,,,,,,,,,,,,,,,,,,,,,,,,,0,0,0,0,0
0.0056,1783191159.1607,1,0,1.0000,0.0000,1.44682,0.23328,-2.77748,0.97337,1.57080,0.00000,-0.14512,-0.38003,0.04653,,,,,,,,,,,,,,,,,,,,,,,,,,0,0,0,0,0
0.0142,1783191159.1693,1,0,1.0000,0.0000,1.44682,0.23328,-2.77748,0.97337,1.57080,0.00000,-0.14512,-0.38003,0.04653,,,,,,,,,,,,,,,,,,,,,,,,,,0,0,0,0,0
0.0146,1783191159.1696,1,0,1.0000,0.0000,1.44682,0.23328,-2.77748,0.97337,1.57080,0.00000,-0.14512,-0.38003,0.04653,,,,,,,,,,,,,,,,,,,,,,,,,,0,0,0,0,0
0.0197,1783191159.1748,1,0,1.0000,0.0000,1.44682,0.23328,-2.77748,0.97337,1.57080,0.00000,-0.14512,-0.38003,0.04653,,,,,,,,,,,,,,,,,,,,,,,,,,0,0,0,0,0
0.0348,1783191159.1899,1,0,1.0000,0.0000,1.44682,0.23328,-2.77748,0.97337,1.57080,0.00000,-0.14512,-0.38003,0.04653,,,,,,,,,,,,,,,,,,,,,,,,,,0,0,0,0,0
0.0406,1783191159.1957,1,0,1.0000,0.0000,1.44682,0.23328,-2.77748,0.97337,1.57080,0.00000,-0.14512,-0.38003,0.04653,,,,,,,,,,,,,,,,,,,,,,,,,,0,0,0,0,0
0.0510,1783191159.2061,1,0,1.0000,0.0000,1.44682,0.23328,-2.77748,0.97337,1.57080,0.00000,-0.14512,-0.38003,0.04653,,,,,,,,,,,,,,,,,,,,,,,,,,0,0,0,0,0
0.0514,1783191159.2065,1,0,1.0000,0.0000,1.44682,0.23328,-2.77748,0.97337,1.57080,0.00000,-0.14512,-0.38003,0.04653,,,,,,,,,,,,,,,,,,,,,,,,,,0,0,0,0,0
0.0600,1783191159.2150,1,0,1.0000,0.0000,1.44682,0.23328,-2.77748,0.97337,1.57080,0.00000,-0.14512,-0.38003,0.04653,,,,,,,,,,,,,,,,,,,,,,,,,,0,0,0,0,0
0.0699,1783191159.2250,1,0,1.0000,0.0000,1.44682,0.23328,-2.77748,0.97337,1.57080,0.00000,-0.14512,-0.38003,0.04653,,,,,,,,,,,,,,,,,,,,,,,,,,0,0,0,0,0
0.0796,1783191159.2347,1,0,1.0000,0.0000,1.44682,0.23328,-2.77748,0.97337,1.57080,0.00000,-0.14512,-0.38003,0.04653,,,,,,,,,,,,,,,,,,,,,,,,,,0,0,0,0,0
0.0804,1783191159.2355,1,0,1.0000,0.0000,1.44682,0.23328,-2.77748,0.97337,1.57080,0.00000,-0.14512,-0.38003,0.04653,,,,,,,,,,,,,,,,,,,,,,,,,,0,0,0,0,0
0.0900,1783191159.2451,1,0,1.0000,0.0000,1.44682,0.23328,-2.77748,0.97337,1.57080,0.00000,-0.14512,-0.38003,0.04653,,,,,,,,,,,,,,,,,,,,,,,,,,0,0,0,0,0
0.0904,1783191159.2455,1,0,1.0000,0.0000,1.44682,0.23328,-2.77748,0.97337,1.57080,0.00000,-0.14512,-0.38003,0.04653,,,,,,,,,,,,,,,,,,,,,,,,,,0,0,0,0,0
0.1068,1783191159.2619,1,0,1.0000,0.0000,1.44682,0.23328,-2.77748,0.97337,1.57080,0.00000,-0.14512,-0.38003,0.04653,,,,,,,,,,,,,,,,,,,,,,,,,,0,0,0,0,0
0.1071,1783191159.2622,1,0,1.0000,0.0000,1.44682,0.23328,-2.77748,0.97337,1.57080,0.00000,-0.14512,-0.38003,0.04653,,,,,,,,,,,,,,,,,,,,,,,,,,0,0,0,0,0
0.1104,1783191159.2655,1,0,1.0000,0.0000,1.44682,0.23328,-2.77748,0.97337,1.57080,0.00000,-0.14512,-0.38003,0.04653,,,,,,,,,,,,,,,,,,,,,,,,,,0,0,0,0,0
0.1109,1783191159.2660,1,0,1.0000,0.0000,1.44682,0.23328,-2.77748,0.97337,1.57080,0.00000,-0.14512,-0.38003,0.04653,,,,,,,,,,,,,,,,,,,,,,,,,,0,0,0,0,0
0.1199,1783191159.2749,1,0,1.0000,0.0000,1.44682,0.23328,-2.77748,0.97337,1.57080,0.00000,-0.14512,-0.38003,0.04653,,,,,,,,,,,,,,,,,,,,,,,,,,0,0,0,0,0
0.1367,1783191159.2918,1,0,1.0000,0.0000,1.44682,0.23328,-2.77748,0.97337,1.57080,0.00000,-0.14512,-0.38003,0.04653,,,,,,,,,,,,,,,,,,,,,,,,,,0,0,0,0,0
0.1427,1783191159.2978,1,0,1.0000,0.0000,1.44682,0.23328,-2.77748,0.97337,1.57080,0.00000,-0.14512,-0.38003,0.04653,,,,,,,,,,,,,,,,,,,,,,,,,,0,0,0,0,0
0.1519,1783191159.3070,1,0,1.0000,0.0000,1.44682,0.23328,-2.77748,0.97337,1.57080,0.00000,-0.14512,-0.38003,0.04653,,,,,,,,,,,,,,,,,,,,,,,,,,0,0,0,0,0
0.1614,1783191159.3165,1,0,1.0000,0.0000,1.44682,0.23328,-2.77748,0.97337,1.57080,0.00000,-0.14512,-0.38003,0.04653,,,,,,,,,,,,,,,,,,,,,,,,,,0,0,0,0,0
0.1706,1783191159.3257,1,0,1.0000,0.0000,1.44682,0.23328,-2.77748,0.97337,1.57080,0.00000,-0.14512,-0.38003,0.04653,,,,,,,,,,,,,,,,,,,,,,,,,,0,0,0,0,0
0.1813,1783191159.3364,1,0,1.0000,0.0000,1.44682,0.23328,-2.77748,0.97337,1.57080,0.00000,-0.14512,-0.38003,0.04653,,,,,,,,,,,,,,,,,,,,,,,,,,0,0,0,0,0
0.1816,1783191159.3367,1,0,1.0000,0.0000,1.44682,0.23328,-2.77748,0.97337,1.57080,0.00000,-0.14512,-0.38003,0.04653,,,,,,,,,,,,,,,,,,,,,,,,,,0,0,0,0,0
0.1912,1783191159.3462,1,0,1.0000,0.0000,1.44682,0.23328,-2.77748,0.97337,1.57080,0.00000,-0.14512,-0.38003,0.04653,,,,,,,,,,,,,,,,,,,,,,,,,,0,0,0,0,0
0.2054,1783191159.3604,1,0,1.0000,0.0000,1.44682,0.23328,-2.77748,0.97337,1.57080,0.00000,-0.14512,-0.38003,0.04653,,,,,,,,,,,,,,,,,,,,,,,,,,0,0,0,0,0
0.2117,1783191159.3668,1,0,1.0000,0.0000,1.44682,0.23328,-2.77748,0.97337,1.57080,0.00000,-0.14512,-0.38003,0.04653,,,,,,,,,,,,,,,,,,,,,,,,,,0,0,0,0,0
0.2199,1783191159.3749,1,0,1.0000,0.0000,1.44682,0.23328,-2.77748,0.97337,1.57080,0.00000,-0.14512,-0.38003,0.04653,,,,,,,,,,,,,,,,,,,,,,,,,,0,0,0,0,0
0.2335,1783191159.3886,1,0,1.0000,0.0000,1.44682,0.23328,-2.77748,0.97337,1.57080,0.00000,-0.14512,-0.38003,0.04653,,,,,,,,,,,,,,,,,,,,,,,,,,0,0,0,0,0
0.2400,1783191159.3950,1,0,1.0000,0.0000,1.44682,0.23328,-2.77748,0.97337,1.57080,0.00000,-0.14512,-0.38003,0.04653,,,,,,,,,,,,,,,,,,,,,,,,,,0,0,0,0,0
0.2519,1783191159.4069,1,0,1.0000,0.0000,1.44682,0.23328,-2.77748,0.97337,1.57080,0.00000,-0.14512,-0.38003,0.04653,,,,,,,,,,,,,,,,,,,,,,,,,,0,0,0,0,0
0.2679,1783191159.4230,1,0,1.0000,0.0000,1.44682,0.23328,-2.77748,0.97337,1.57080,0.00000,-0.14512,-0.38003,0.04653,,,,,,,,,,,,,,,,,,,,,,,,,,0,0,0,0,0
0.2789,1783191159.4340,1,0,1.0000,0.0000,1.44682,0.23328,-2.77748,0.97337,1.57080,0.00000,-0.14512,-0.38003,0.04653,,,,,,,,,,,,,,,,,,,,,,,,,,0,0,0,0,0
0.2870,1783191159.4421,1,0,1.0000,0.0000,1.44682,0.23328,-2.77748,0.97337,1.57080,0.00000,-0.14512,-0.38003,0.04653,,,,,,,,,,,,,,,,,,,,,,,,,,0,0,0,0,0
0.2965,1783191159.4516,1,0,1.0000,0.0000,1.44682,0.23328,-2.77748,0.97337,1.57080,0.00000,-0.14512,-0.38003,0.04653,,,,,,,,,,,,,,,,,,,,,,,,,,0,0,0,0,0
0.3076,1783191159.4627,1,0,1.0000,0.0000,1.44682,0.23328,-2.77748,0.97337,1.57080,0.00000,-0.14512,-0.38003,0.04653,,,,,,,,,,,,,,,,,,,,,,,,,,0,0,0,0,0
0.3168,1783191159.4719,1,0,1.0000,0.0000,1.44682,0.23328,-2.77748,0.97337,1.57080,0.00000,-0.14512,-0.38003,0.04653,,,,,,,,,,,,,,,,,,,,,,,,,,0,0,0,0,0
0.3273,1783191159.4824,1,0,1.0000,0.0000,1.44682,0.23328,-2.77748,0.97337,1.57080,0.00000,-0.14512,-0.38003,0.04653,,,,,,,,,,,,,,,,,,,,,,,,,,0,0,0,0,0
0.3351,1783191159.4901,1,0,1.0000,0.0000,1.44682,0.23328,-2.77748,0.97337,1.57080,0.00000,-0.14512,-0.38003,0.04653,,,,,,,,,,,,,,,,,,,,,,,,,,0,0,0,0,0
0.3458,1783191159.5009,1,0,1.0000,0.0000,1.44682,0.23328,-2.77748,0.97337,1.57080,0.00000,-0.14512,-0.38003,0.04653,,,,,,,,,,,,,,,,,,,,,,,,,,0,0,0,0,0
0.3554,1783191159.5104,1,0,1.0000,0.0000,1.44682,0.23328,-2.77748,0.97337,1.57080,0.00000,-0.14512,-0.38003,0.04653,,,,,,,,,,,,,,,,,,,,,,,,,,0,0,0,0,0
0.3710,1783191159.5261,1,0,1.0000,0.0000,1.44682,0.23328,-2.77748,0.97337,1.57080,0.00000,-0.14512,-0.38003,0.04653,,,,,,,,,,,,,,,,,,,,,,,,,,0,0,0,0,0
0.3767,1783191159.5318,1,0,1.0000,0.0000,1.44682,0.23328,-2.77748,0.97337,1.57080,0.00000,-0.14512,-0.38003,0.04653,,,,,,,,,,,,,,,,,,,,,,,,,,0,0,0,0,0
0.3769,1783191159.5320,1,0,1.0000,0.0000,1.44682,0.23328,-2.77748,0.97337,1.57080,0.00000,-0.14512,-0.38003,0.04653,,,,,,,,,,,,,,,,,,,,,,,,,,0,0,0,0,0
0.3907,1783191159.5458,1,0,1.0000,0.0000,1.44682,0.23328,-2.77748,0.97337,1.57080,0.00000,-0.14512,-0.38003,0.04653,,,,,,,,,,,,,,,,,,,,,,,,,,0,0,0,0,0
0.3959,1783191159.5509,1,0,1.0000,0.0000,1.44682,0.23328,-2.77748,0.97337,1.57080,0.00000,-0.14512,-0.38003,0.04653,,,,,,,,,,,,,,,,,,,,,,,,,,0,0,0,0,0
0.4080,1783191159.5631,1,0,1.0000,0.0000,1.44682,0.23328,-2.77748,0.97337,1.57080,0.00000,-0.14512,-0.38003,0.04653,,,,,,,,,,,,,,,,,,,,,,,,,,0,0,0,0,0
0.4135,1783191159.5685,1,0,1.0000,0.0000,1.44682,0.23328,-2.77748,0.97337,1.57080,0.00000,-0.14512,-0.38003,0.04653,,,,,,,,,,,,,,,,,,,,,,,,,,0,0,0,0,0
0.4246,1783191159.5797,1,0,1.0000,0.0000,1.44682,0.23328,-2.77748,0.97337,1.57080,0.00000,-0.14512,-0.38003,0.04653,,,,,,,,,,,,,,,,,,,,,,,,,,0,0,0,0,0
0.4338,1783191159.5889,1,0,1.0000,0.0000,1.44682,0.23328,-2.77748,0.97337,1.57080,0.00000,-0.14512,-0.38003,0.04653,,,,,,,,,,,,,,,,,,,,,,,,,,0,0,0,0,0
0.4450,1783191159.6001,1,0,1.0000,0.0000,1.44682,0.23328,-2.77748,0.97337,1.57080,0.00000,-0.14512,-0.38003,0.04653,,,,,,,,,,,,,,,,,,,,,,,,,,0,0,0,0,0
0.4454,1783191159.6005,1,0,1.0000,0.0000,1.44682,0.23328,-2.77748,0.97337,1.57080,0.00000,-0.14512,-0.38003,0.04653,,,,,,,,,,,,,,,,,,,,,,,,,,0,0,0,0,0
0.4579,1783191159.6130,1,0,1.0000,0.0000,1.44682,0.23328,-2.77748,0.97337,1.57080,0.00000,-0.14512,-0.38003,0.04653,,,,,,,,,,,,,,,,,,,,,,,,,,0,0,0,0,0
0.4648,1783191159.6199,1,0,1.0000,0.0000,1.44682,0.23328,-2.77748,0.97337,1.57080,0.00000,-0.14512,-0.38003,0.04653,,,,,,,,,,,,,,,,,,,,,,,,,,0,0,0,0,0
0.4766,1783191159.6316,1,0,1.0000,0.0000,1.44682,0.23328,-2.77748,0.97337,1.57080,0.00000,-0.14512,-0.38003,0.04653,,,,,,,,,,,,,,,,,,,,,,,,,,0,0,0,0,0
0.4868,1783191159.6418,1,0,1.0000,0.0000,1.44682,0.23328,-2.77748,0.97337,1.57080,0.00000,-0.14512,-0.38003,0.04653,,,,,,,,,,,,,,,,,,,,,,,,,,0,0,0,0,0
0.4872,1783191159.6422,1,0,1.0000,0.0000,1.44682,0.23328,-2.77748,0.97337,1.57080,0.00000,-0.14512,-0.38003,0.04653,,,,,,,,,,,,,,,,,,,,,,,,,,0,0,0,0,0
0.5085,1783191159.6635,1,0,1.0000,0.0000,1.44682,0.23328,-2.77748,0.97337,1.57080,0.00000,-0.14512,-0.38003,0.04653,,,,,,,,,,,,,,,,,,,,,,,,,,0,0,0,0,0
0.5172,1783191159.6722,1,0,1.0000,0.0000,1.44682,0.23328,-2.77748,0.97337,1.57080,0.00000,-0.14512,-0.38003,0.04653,,,,,,,,,,,,,,,,,,,,,,,,,,0,0,0,0,0
0.5175,1783191159.6726,1,0,1.0000,0.0000,1.44682,0.23328,-2.77748,0.97337,1.57080,0.00000,-0.14512,-0.38003,0.04653,,,,,,,,,,,,,,,,,,,,,,,,,,0,0,0,0,0
0.5178,1783191159.6729,1,0,1.0000,0.0000,1.44682,0.23328,-2.77748,0.97337,1.57080,0.00000,-0.14512,-0.38003,0.04653,,,,,,,,,,,,,,,,,,,,,,,,,,0,0,0,0,0
0.5265,1783191159.6816,1,0,1.0000,0.0000,1.44682,0.23328,-2.77748,0.97337,1.57080,0.00000,-0.14512,-0.38003,0.04653,,,,,,,,,,,,,,,,,,,,,,,,,,0,0,0,0,0
0.5337,1783191159.6888,1,0,1.0000,0.0000,1.44682,0.23328,-2.77748,0.97337,1.57080,0.00000,-0.14512,-0.38003,0.04653,,,,,,,,,,,,,,,,,,,,,,,,,,0,0,0,0,0
0.5447,1783191159.6998,1,0,1.0000,0.0000,1.44682,0.23328,-2.77748,0.97337,1.57080,0.00000,-0.14512,-0.38003,0.04653,,,,,,,,,,,,,,,,,,,,,,,,,,0,0,0,0,0
0.5590,1783191159.7141,1,0,1.0000,0.0000,1.44682,0.23328,-2.77748,0.97337,1.57080,0.00000,-0.14512,-0.38003,0.04653,,,,,,,,,,,,,,,,,,,,,,,,,,0,0,0,0,0
0.5663,1783191159.7213,1,0,1.0000,0.0000,1.44682,0.23328,-2.77748,0.97337,1.57080,0.00000,-0.14512,-0.38003,0.04653,,,,,,,,,,,,,,,,,,,,,,,,,,0,0,0,0,0
0.5739,1783191159.7290,1,0,1.0000,0.0000,1.44682,0.23328,-2.77748,0.97337,1.57080,0.00000,-0.14512,-0.38003,0.04653,,,,,,,,,,,,,,,,,,,,,,,,,,0,0,0,0,0
0.5849,1783191159.7400,1,0,1.0000,0.0000,1.44682,0.23328,-2.77748,0.97337,1.57080,0.00000,-0.14512,-0.38003,0.04653,,,,,,,,,,,,,,,,,,,,,,,,,,0,0,0,0,0
0.5974,1783191159.7525,1,0,1.0000,0.0000,1.44682,0.23328,-2.77748,0.97337,1.57080,0.00000,-0.14512,-0.38003,0.04653,,,,,,,,,,,,,,,,,,,,,,,,,,0,0,0,0,0
0.6041,1783191159.7592,1,0,1.0000,0.0000,1.44682,0.23328,-2.77748,0.97337,1.57080,0.00000,-0.14512,-0.38003,0.04653,,,,,,,,,,,,,,,,,,,,,,,,,,0,0,0,0,0
0.6184,1783191159.7735,1,0,1.0000,0.0000,1.44682,0.23328,-2.77748,0.97337,1.57080,0.00000,-0.14512,-0.38003,0.04653,,,,,,,,,,,,,,,,,,,,,,,,,,0,0,0,0,0
0.6241,1783191159.7792,1,0,1.0000,0.0000,1.44682,0.23328,-2.77748,0.97337,1.57080,0.00000,-0.14512,-0.38003,0.04653,,,,,,,,,,,,,,,,,,,,,,,,,,0,0,0,0,0
0.6247,1783191159.7798,1,0,1.0000,0.0000,1.44682,0.23328,-2.77748,0.97337,1.57080,0.00000,-0.14512,-0.38003,0.04653,,,,,,,,,,,,,,,,,,,,,,,,,,0,0,0,0,0
0.6336,1783191159.7886,1,0,1.0000,0.0000,1.44682,0.23328,-2.77748,0.97337,1.57080,0.00000,-0.14512,-0.38003,0.04653,,,,,,,,,,,,,,,,,,,,,,,,,,0,0,0,0,0
0.6459,1783191159.8010,1,0,1.0000,0.0000,1.44682,0.23328,-2.77748,0.97337,1.57080,0.00000,-0.14512,-0.38003,0.04653,,,,,,,,,,,,,,,,,,,,,,,,,,0,0,0,0,0
0.6556,1783191159.8106,1,0,1.0000,0.0000,1.44682,0.23328,-2.77748,0.97337,1.57080,0.00000,-0.14512,-0.38003,0.04653,,,,,,,,,,,,,,,,,,,,,,,,,,0,0,0,0,0
0.6663,1783191159.8214,1,0,1.0000,0.0000,1.44682,0.23328,-2.77748,0.97337,1.57080,0.00000,-0.14512,-0.38003,0.04653,,,,,,,,,,,,,,,,,,,,,,,,,,0,0,0,0,0
0.6739,1783191159.8290,1,0,1.0000,0.0000,1.44682,0.23328,-2.77748,0.97337,1.57080,0.00000,-0.14512,-0.38003,0.04653,,,,,,,,,,,,,,,,,,,,,,,,,,0,0,0,0,0
0.6908,1783191159.8459,1,0,1.0000,0.0000,1.44682,0.23328,-2.77748,0.97337,1.57080,0.00000,-0.14512,-0.38003,0.04653,,,,,,,,,,,,,,,,,,,,,,,,,,0,0,0,0,0
0.7793,1783191159.9343,1,1,1.0000,0.0000,1.44682,0.23328,-2.77748,0.97337,1.57080,0.00000,-0.14512,-0.38003,0.04653,,,,,,,,,,,,,,,,,,,,,,,,,,0,0,0,0,0
0.7796,1783191159.9347,1,1,1.0000,0.0000,1.44682,0.23328,-2.77748,0.97337,1.57080,0.00000,-0.14512,-0.38003,0.04653,,,,,,,,,,,,,,,,,,,,,,,,,,0,0,0,0,0
0.7799,1783191159.9350,1,1,1.0000,0.0000,1.44682,0.23328,-2.77748,0.97337,1.57080,0.00000,-0.14512,-0.38003,0.04653,,,,,,,,,,,,,,,,,,,,,,,,,,0,0,0,0,0
0.7803,1783191159.9353,1,1,1.0000,0.0000,1.44682,0.23328,-2.77748,0.97337,1.57080,0.00000,-0.14512,-0.38003,0.04653,,,,,,,,,,,,,,,,,,,,,,,,,,0,0,0,0,0
0.7806,1783191159.9357,1,1,1.0000,0.0000,1.44682,0.23328,-2.77748,0.97337,1.57080,0.00000,-0.14512,-0.38003,0.04653,,,,,,,,,,,,,,,,,,,,,,,,,,0,0,0,0,0
0.7810,1783191159.9361,1,1,1.0000,0.0000,1.44682,0.23328,-2.77748,0.97337,1.57080,0.00000,-0.14512,-0.38003,0.04653,,,,,,,,,,,,,,,,,,,,,,,,,,0,0,0,0,0
0.7814,1783191159.9365,1,1,1.0000,0.0000,1.44682,0.23328,-2.77748,0.97337,1.57080,0.00000,-0.14512,-0.38003,0.04653,,,,,,,,,,,,,,,,,,,,,,,,,,0,0,0,0,0
0.7818,1783191159.9368,1,1,1.0000,0.0000,1.44682,0.23328,-2.77748,0.97337,1.57080,0.00000,-0.14512,-0.38003,0.04653,,,,,,,,,,,,,,,,,,,,,,,,,,0,0,0,0,0
0.7821,1783191159.9372,1,1,1.0000,0.0000,1.44682,0.23328,-2.77748,0.97337,1.57080,0.00000,-0.14512,-0.38003,0.04653,,,,,,,,,,,,,,,,,,,,,,,,,,0,0,0,0,0
0.7847,1783191159.9398,1,1,1.0000,0.0000,1.44682,0.23328,-2.77748,0.97337,1.57080,0.00000,-0.14512,-0.38003,0.04653,,,,,,,,,,,,,,,,,,,,,,,,,,0,0,0,0,0
0.7851,1783191159.9401,1,1,1.0000,0.0000,1.44682,0.23328,-2.77748,0.97337,1.57080,0.00000,-0.14512,-0.38003,0.04653,,,,,,,,,,,,,,,,,,,,,,,,,,0,0,0,0,0
0.7934,1783191159.9485,1,1,1.0000,0.0000,1.44682,0.23328,-2.77748,0.97337,1.57080,0.00000,-0.14512,-0.38003,0.04653,,,,,,,,,,,,,,,,,,,,,,,,,,0,0,0,0,0
0.8046,1783191159.9597,1,1,1.0000,0.0000,1.44682,0.23328,-2.77748,0.97337,1.57080,0.00000,-0.14512,-0.38003,0.04653,,,,,,,,,,,,,,,,,,,,,,,,,,0,0,0,0,0
0.8154,1783191159.9704,1,1,1.0000,0.0000,1.44682,0.23328,-2.77748,0.97337,1.57080,0.00000,-0.14512,-0.38003,0.04653,,,,,,,,,,,,,,,,,,,,,,,,,,0,0,0,0,0
0.8157,1783191159.9708,1,1,1.0000,0.0000,1.44682,0.23328,-2.77748,0.97337,1.57080,0.00000,-0.14512,-0.38003,0.04653,,,,,,,,,,,,,,,,,,,,,,,,,,0,0,0,0,0
0.8237,1783191159.9788,1,1,1.0000,0.0000,1.44682,0.23328,-2.77748,0.97337,1.57080,0.00000,-0.14512,-0.38003,0.04653,,,,,,,,,,,,,,,,,,,,,,,,,,0,0,0,0,0
0.8338,1783191159.9888,1,1,1.0000,0.0000,1.44682,0.23328,-2.77748,0.97337,1.57080,0.00000,-0.14512,-0.38003,0.04653,,,,,,,,,,,,,,,,,,,,,,,,,,0,0,0,0,0
0.8437,1783191159.9988,1,1,1.0000,0.0000,1.44682,0.23328,-2.77748,0.97337,1.57080,0.00000,-0.14512,-0.38003,0.04653,,,,,,,,,,,,,,,,,,,,,,,,,,0,0,0,0,0
0.8558,1783191160.0109,1,1,1.0000,0.0000,1.44682,0.23328,-2.77748,0.97337,1.57080,0.00000,-0.14512,-0.38003,0.04653,,,,,,,,,,,,,,,,,,,,,,,,,,0,0,0,0,0
0.8662,1783191160.0213,1,1,1.0000,0.0000,1.44682,0.23328,-2.77748,0.97337,1.57080,0.00000,-0.14512,-0.38003,0.04653,,,,,,,,,,,,,,,,,,,,,,,,,,0,0,0,0,0
0.8820,1783191160.0371,1,1,1.0000,0.0000,1.44682,0.23328,-2.77748,0.97337,1.57080,0.00000,-0.14512,-0.38003,0.04653,,,,,,,,,,,,,,,,,,,,,,,,,,0,0,0,0,0
0.8913,1783191160.0463,1,1,1.0000,0.0000,1.44682,0.23328,-2.77748,0.97337,1.57080,0.00000,-0.14512,-0.38003,0.04653,,,,,,,,,,,,,,,,,,,,,,,,,,0,0,0,0,0
0.9029,1783191160.0580,1,1,1.0000,0.0000,1.44682,0.23328,-2.77748,0.97337,1.57080,0.00000,-0.14512,-0.38003,0.04653,,,,,,,,,,,,,,,,,,,,,,,,,,0,0,0,0,0
0.9104,1783191160.0654,1,1,1.0000,0.0000,1.44682,0.23328,-2.77748,0.97337,1.57080,0.00000,-0.14512,-0.38003,0.04653,,,,,,,,,,,,,,,,,,,,,,,,,,0,0,0,0,0
0.9192,1783191160.0743,1,1,1.0000,0.0000,1.44682,0.23328,-2.77748,0.97337,1.57080,0.00000,-0.14512,-0.38003,0.04653,,,,,,,,,,,,,,,,,,,,,,,,,,0,0,0,0,0
0.9195,1783191160.0746,1,1,1.0000,0.0000,1.44682,0.23328,-2.77748,0.97337,1.57080,0.00000,-0.14512,-0.38003,0.04653,,,,,,,,,,,,,,,,,,,,,,,,,,0,0,0,0,0
0.9269,1783191160.0820,1,1,1.0000,0.0000,1.44682,0.23326,-2.77748,0.97339,1.57080,0.00000,-0.14512,-0.38003,0.04652,,,,,,,,,,,,,,,,,,,,,,,,,,0,0,0,0,0
0.9408,1783191160.0958,1,1,1.0000,0.0000,1.44682,0.23301,-2.77755,0.97371,1.57080,0.00000,-0.14512,-0.38003,0.04646,,,,,,,,,,,,,,,,,,,,,,,,,,0,0,0,0,0
0.9466,1783191160.1017,1,1,1.0000,0.0000,1.44682,0.23293,-2.77757,0.97381,1.57080,0.00000,-0.14512,-0.38003,0.04644,,,,,,,,,,,,,,,,,,,,,,,,,,0,0,0,0,0
0.9585,1783191160.1135,1,1,1.0000,0.0000,1.44682,0.23285,-2.77759,0.97391,1.57080,0.00000,-0.14512,-0.38003,0.04642,,,,,,,,,,,,,,,,,,,,,,,,,,0,0,0,0,0
0.9727,1783191160.1278,1,1,1.0000,0.0000,1.44682,0.23248,-2.77768,0.97437,1.57080,0.00000,-0.14512,-0.38003,0.04632,,,,,,,,,,,,,,,,,,,,,,,,,,0,0,0,0,0
0.9897,1783191160.1448,1,1,1.0000,0.0000,1.44682,0.23233,-2.77772,0.97456,1.57080,0.00000,-0.14512,-0.38003,0.04628,,,,,,,,,,,,,,,,,,,,,,,,,,0,0,0,0,0
1.0038,1783191160.1589,1,1,1.0000,0.0000,1.44682,0.23210,-2.77778,0.97485,1.57080,0.00000,-0.14512,-0.38003,0.04622,,,,,,,,,,,,,,,,,,,,,,,,,,0,0,0,0,0
1.0041,1783191160.1592,1,1,1.0000,0.0000,1.44682,0.23210,-2.77778,0.97485,1.57080,0.00000,-0.14512,-0.38003,0.04622,,,,,,,,,,,,,,,,,,,,,,,,,,0,0,0,0,0
1.0048,1783191160.1599,1,1,1.0000,0.0000,1.44682,0.23202,-2.77780,0.97496,1.57080,0.00000,-0.14512,-0.38003,0.04620,,,,,,,,,,,,,,,,,,,,,,,,,,0,0,0,0,0
1.0104,1783191160.1655,1,1,1.0000,0.0000,1.44682,0.23202,-2.77780,0.97496,1.57080,0.00000,-0.14512,-0.38003,0.04620,,,,,,,,,,,,,,,,,,,,,,,,,,0,0,0,0,0
1.0108,1783191160.1659,1,1,1.0000,0.0000,1.44682,0.23202,-2.77780,0.97496,1.57080,0.00000,-0.14512,-0.38003,0.04620,,,,,,,,,,,,,,,,,,,,,,,,,,0,0,0,0,0
1.0287,1783191160.1837,1,1,1.0000,0.0000,1.44682,0.23166,-2.77789,0.97540,1.57080,0.00000,-0.14512,-0.38003,0.04611,,,,,,,,,,,,,,,,,,,,,,,,,,0,0,0,0,0
1.0434,1783191160.1985,1,1,1.0000,0.0000,1.44682,0.23148,-2.77794,0.97563,1.57080,0.00000,-0.14512,-0.38003,0.04606,,,,,,,,,,,,,,,,,,,,,,,,,,0,0,0,0,0
1.0568,1783191160.2118,1,1,1.0000,0.0000,1.44682,0.23127,-2.77799,0.97589,1.57080,0.00000,-0.14512,-0.38003,0.04600,,,,,,,,,,,,,,,,,,,,,,,,,,0,0,0,0,0
1.0608,1783191160.2159,1,1,1.0000,0.0000,1.44682,0.23119,-2.77802,0.97600,1.57080,0.00000,-0.14512,-0.38003,0.04598,,,,,,,,,,,,,,,,,,,,,,,,,,0,0,0,0,0
1.0611,1783191160.2161,1,1,1.0000,0.0000,1.44682,0.23119,-2.77802,0.97600,1.57080,0.00000,-0.14512,-0.38003,0.04598,,,,,,,,,,,,,,,,,,,,,,,,,,0,0,0,0,0
1.0773,1783191160.2324,1,1,1.0000,0.0000,1.44682,0.23102,-2.77806,0.97620,1.57080,0.00000,-0.14512,-0.38003,0.04594,,,,,,,,,,,,,,,,,,,,,,,,,,0,0,0,0,0
1.0895,1783191160.2446,1,1,1.0000,0.0000,1.44682,0.23075,-2.77813,0.97655,1.57080,0.00000,-0.14512,-0.38003,0.04587,,,,,,,,,,,,,,,,,,,,,,,,,,0,0,0,0,0
1.0899,1783191160.2450,1,1,1.0000,0.0000,1.44682,0.23075,-2.77813,0.97655,1.57080,0.00000,-0.14512,-0.38003,0.04587,,,,,,,,,,,,,,,,,,,,,,,,,,0,0,0,0,0
1.0972,1783191160.2523,1,1,1.0000,0.0000,1.44682,0.23057,-2.77818,0.97678,1.57080,0.00000,-0.14512,-0.38003,0.04582,,,,,,,,,,,,,,,,,,,,,,,,,,0,0,0,0,0
1.0976,1783191160.2527,1,1,1.0000,0.0000,1.44682,0.23057,-2.77818,0.97678,1.57080,0.00000,-0.14512,-0.38003,0.04582,,,,,,,,,,,,,,,,,,,,,,,,,,0,0,0,0,0
1.1089,1783191160.2639,1,1,1.0000,0.0000,1.44682,0.23050,-2.77819,0.97686,1.57080,0.00000,-0.14512,-0.38003,0.04580,,,,,,,,,,,,,,,,,,,,,,,,,,0,0,0,0,0
1.1091,1783191160.2642,1,1,1.0000,0.0000,1.44682,0.23050,-2.77819,0.97686,1.57080,0.00000,-0.14512,-0.38003,0.04580,,,,,,,,,,,,,,,,,,,,,,,,,,0,0,0,0,0
1.1167,1783191160.2718,1,1,1.0000,0.0000,1.44682,0.23036,-2.77823,0.97704,1.57080,0.00000,-0.14512,-0.38003,0.04576,,,,,,,,,,,,,,,,,,,,,,,,,,0,0,0,0,0
1.1309,1783191160.2860,1,1,1.0000,0.0000,1.44682,0.23018,-2.77827,0.97726,1.57080,0.00000,-0.14512,-0.38003,0.04572,,,,,,,,,,,,,,,,,,,,,,,,,,0,0,0,0,0
1.1371,1783191160.2922,1,1,1.0000,0.0000,1.44682,0.23011,-2.77829,0.97735,1.57080,0.00000,-0.14512,-0.38003,0.04570,,,,,,,,,,,,,,,,,,,,,,,,,,0,0,0,0,0
1.1372,1783191160.2923,1,1,1.0000,0.0000,1.44682,0.23011,-2.77829,0.97735,1.57080,0.00000,-0.14512,-0.38003,0.04570,,,,,,,,,,,,,,,,,,,,,,,,,,0,0,0,0,0
1.1482,1783191160.3033,1,1,1.0000,0.0000,1.44682,0.22993,-2.77834,0.97758,1.57080,0.00000,-0.14512,-0.38003,0.04565,,,,,,,,,,,,,,,,,,,,,,,,,,0,0,0,0,0
1.1576,1783191160.3126,1,1,1.0000,0.0000,1.44682,0.22965,-2.77841,0.97793,1.57080,0.00000,-0.14512,-0.38003,0.04558,,,,,,,,,,,,,,,,,,,,,,,,,,0,0,0,0,0
1.1811,1783191160.3362,1,1,1.0000,0.0000,1.44682,0.22935,-2.77849,0.97830,1.57080,0.00000,-0.14512,-0.38003,0.04550,,,,,,,,,,,,,,,,,,,,,,,,,,0,0,0,0,0
1.2019,1783191160.3569,1,1,1.0000,0.0000,1.44682,0.22913,-2.77854,0.97859,1.57080,0.00000,-0.14512,-0.38003,0.04544,,,,,,,,,,,,,,,,,,,,,,,,,,0,0,0,0,0
1.2023,1783191160.3574,1,1,1.0000,0.0000,1.44682,0.22913,-2.77854,0.97859,1.57080,0.00000,-0.14512,-0.38003,0.04544,,,,,,,,,,,,,,,,,,,,,,,,,,0,0,0,0,0
1.2111,1783191160.3662,1,1,1.0000,0.0000,1.44682,0.22898,-2.77858,0.97877,1.57080,0.00000,-0.14512,-0.38003,0.04541,,,,,,,,,,,,,,,,,,,,,,,,,,0,0,0,0,0
1.2170,1783191160.3721,1,1,1.0000,0.0000,1.44682,0.22881,-2.77863,0.97899,1.57080,0.00000,-0.14512,-0.38003,0.04536,,,,,,,,,,,,,,,,,,,,,,,,,,0,0,0,0,0
1.2342,1783191160.3892,1,1,1.0000,0.0000,1.44682,0.22865,-2.77867,0.97918,1.57080,0.00000,-0.14512,-0.38003,0.04532,,,,,,,,,,,,,,,,,,,,,,,,,,0,0,0,0,0
1.2452,1783191160.4003,1,1,1.0000,0.0000,1.44682,0.22835,-2.77874,0.97955,1.57080,0.00000,-0.14512,-0.38003,0.04524,,,,,,,,,,,,,,,,,,,,,,,,,,0,0,0,0,0
1.2466,1783191160.4017,1,1,1.0000,0.0000,1.44682,0.22835,-2.77874,0.97955,1.57080,0.00000,-0.14512,-0.38003,0.04524,,,,,,,,,,,,,,,,,,,,,,,,,,0,0,0,0,0
1.2579,1783191160.4130,1,1,1.0000,0.0000,1.44682,0.22825,-2.77877,0.97968,1.57080,0.00000,-0.14512,-0.38003,0.04522,,,,,,,,,,,,,,,,,,,,,,,,,,0,0,0,0,0
1.2691,1783191160.4242,1,1,1.0000,0.0000,1.44682,0.22806,-2.77882,0.97992,1.57080,0.00000,-0.14512,-0.38003,0.04517,,,,,,,,,,,,,,,,,,,,,,,,,,0,0,0,0,0
1.2695,1783191160.4246,1,1,1.0000,0.0000,1.44682,0.22806,-2.77882,0.97992,1.57080,0.00000,-0.14512,-0.38003,0.04517,,,,,,,,,,,,,,,,,,,,,,,,,,0,0,0,0,0
1.2820,1783191160.4370,1,1,1.0000,0.0000,1.44682,0.22789,-2.77886,0.98014,1.57080,0.00000,-0.14512,-0.38003,0.04512,,,,,,,,,,,,,,,,,,,,,,,,,,0,0,0,0,0
1.2824,1783191160.4374,1,1,1.0000,0.0000,1.44682,0.22789,-2.77886,0.98014,1.57080,0.00000,-0.14512,-0.38003,0.04512,,,,,,,,,,,,,,,,,,,,,,,,,,0,0,0,0,0
1.2874,1783191160.4425,1,1,1.0000,0.0000,1.44682,0.22787,-2.77887,0.98017,1.57080,0.00000,-0.14512,-0.38003,0.04512,,,,,,,,,,,,,,,,,,,,,,,,,,0,0,0,0,0
1.2879,1783191160.4430,1,1,1.0000,0.0000,1.44682,0.22787,-2.77887,0.98017,1.57080,0.00000,-0.14512,-0.38003,0.04512,,,,,,,,,,,,,,,,,,,,,,,,,,0,0,0,0,0
1.2968,1783191160.4518,1,1,1.0000,0.0000,1.44682,0.22763,-2.77892,0.98046,1.57080,0.00000,-0.14512,-0.38003,0.04506,,,,,,,,,,,,,,,,,,,,,,,,,,0,0,0,0,0
1.3108,1783191160.4658,1,1,1.0000,0.0000,1.44682,0.22735,-2.77900,0.98081,1.57080,0.00000,-0.14512,-0.38003,0.04498,,,,,,,,,,,,,,,,,,,,,,,,,,0,0,0,0,0
1.3201,1783191160.4752,1,1,1.0000,0.0000,1.44682,0.22733,-2.77900,0.98084,1.57080,0.00000,-0.14512,-0.38003,0.04498,,,,,,,,,,,,,,,,,,,,,,,,,,0,0,0,0,0
1.3208,1783191160.4759,1,1,1.0000,0.0000,1.44682,0.22729,-2.77901,0.98089,1.57080,0.00000,-0.14512,-0.38003,0.04497,,,,,,,,,,,,,,,,,,,,,,,,,,0,0,0,0,0
1.3327,1783191160.4878,1,1,1.0000,0.0000,1.44682,0.22705,-2.77907,0.98119,1.57080,0.00001,-0.14512,-0.38003,0.04491,,,,,,,,,,,,,,,,,,,,,,,,,,0,0,0,0,0
1.3411,1783191160.4962,1,1,1.0000,0.0000,1.44682,0.22697,-2.77909,0.98130,1.57080,0.00001,-0.14512,-0.38003,0.04488,,,,,,,,,,,,,,,,,,,,,,,,,,0,0,0,0,0
1.3530,1783191160.5080,1,1,1.0000,0.0000,1.44682,0.22681,-2.77913,0.98149,1.57080,0.00001,-0.14512,-0.38003,0.04484,,,,,,,,,,,,,,,,,,,,,,,,,,0,0,0,0,0
1.3592,1783191160.5143,1,1,1.0000,0.0000,1.44682,0.22671,-2.77916,0.98161,1.57080,0.00001,-0.14512,-0.38003,0.04482,,,,,,,,,,,,,,,,,,,,,,,,,,0,0,0,0,0
1.3596,1783191160.5147,1,1,1.0000,0.0000,1.44682,0.22671,-2.77916,0.98161,1.57080,0.00001,-0.14512,-0.38003,0.04482,,,,,,,,,,,,,,,,,,,,,,,,,,0,0,0,0,0
1.3827,1783191160.5378,1,1,1.0000,0.0000,1.44682,0.22637,-2.77925,0.98205,1.57080,0.00001,-0.14512,-0.38003,0.04473,,,,,,,,,,,,,,,,,,,,,,,,,,0,0,0,0,0
1.3836,1783191160.5387,1,1,1.0000,0.0000,1.44682,0.22637,-2.77925,0.98205,1.57080,0.00001,-0.14512,-0.38003,0.04473,,,,,,,,,,,,,,,,,,,,,,,,,,0,0,0,0,0
1.3839,1783191160.5390,1,1,1.0000,0.0000,1.44682,0.22637,-2.77925,0.98205,1.57080,0.00001,-0.14512,-0.38003,0.04473,,,,,,,,,,,,,,,,,,,,,,,,,,0,0,0,0,0
1.3870,1783191160.5421,1,1,1.0000,0.0000,1.44682,0.22630,-2.77926,0.98213,1.57080,0.00001,-0.14512,-0.38003,0.04471,,,,,,,,,,,,,,,,,,,,,,,,,,0,0,0,0,0
1.4006,1783191160.5557,1,1,1.0000,0.0000,1.44682,0.22604,-2.77933,0.98245,1.57080,0.00001,-0.14512,-0.38003,0.04464,,,,,,,,,,,,,,,,,,,,,,,,,,0,0,0,0,0
1.4116,1783191160.5667,1,1,1.0000,0.0000,1.44682,0.22597,-2.77935,0.98255,1.57080,0.00001,-0.14512,-0.38003,0.04462,,,,,,,,,,,,,,,,,,,,,,,,,,0,0,0,0,0
1.4120,1783191160.5670,1,1,1.0000,0.0000,1.44682,0.22597,-2.77935,0.98255,1.57080,0.00001,-0.14512,-0.38003,0.04462,,,,,,,,,,,,,,,,,,,,,,,,,,0,0,0,0,0
1.4223,1783191160.5774,1,1,1.0000,0.0000,1.44682,0.22569,-2.77942,0.98290,1.57080,0.00001,-0.14512,-0.38002,0.04455,,,,,,,,,,,,,,,,,,,,,,,,,,0,0,0,0,0
1.4388,1783191160.5938,1,1,1.0000,0.0000,1.44682,0.22549,-2.77947,0.98315,1.57080,0.00001,-0.14512,-0.38002,0.04450,,,,,,,,,,,,,,,,,,,,,,,,,,0,0,0,0,0
1.4391,1783191160.5942,1,1,1.0000,0.0000,1.44682,0.22549,-2.77947,0.98315,1.57080,0.00001,-0.14512,-0.38002,0.04450,,,,,,,,,,,,,,,,,,,,,,,,,,0,0,0,0,0
1.4480,1783191160.6031,1,1,1.0000,0.0000,1.44682,0.22538,-2.77950,0.98329,1.57080,0.00001,-0.14512,-0.38002,0.04447,,,,,,,,,,,,,,,,,,,,,,,,,,0,0,0,0,0
1.4487,1783191160.6038,1,1,1.0000,0.0000,1.44682,0.22529,-2.77952,0.98339,1.57080,0.00001,-0.14512,-0.38002,0.04445,,,,,,,,,,,,,,,,,,,,,,,,,,0,0,0,0,0
1.4576,1783191160.6127,1,1,1.0000,0.0000,1.44682,0.22512,-2.77956,0.98361,1.57080,0.00001,-0.14512,-0.38002,0.04440,,,,,,,,,,,,,,,,,,,,,,,,,,0,0,0,0,0
1.4668,1783191160.6219,1,1,1.0000,0.0000,1.44682,0.22510,-2.77957,0.98364,1.57080,0.00001,-0.14512,-0.38002,0.04440,,,,,,,,,,,,,,,,,,,,,,,,,,0,0,0,0,0
1.4671,1783191160.6222,1,1,1.0000,0.0000,1.44682,0.22510,-2.77957,0.98364,1.57080,0.00001,-0.14512,-0.38002,0.04440,,,,,,,,,,,,,,,,,,,,,,,,,,0,0,0,0,0
1.4795,1783191160.6345,1,1,1.0000,0.0000,1.44682,0.22487,-2.77963,0.98393,1.57080,0.00001,-0.14512,-0.38002,0.04434,,,,,,,,,,,,,,,,,,,,,,,,,,0,0,0,0,0
1.4875,1783191160.6426,1,1,1.0000,0.0000,1.44682,0.22467,-2.77968,0.98418,1.57080,0.00001,-0.14512,-0.38002,0.04429,,,,,,,,,,,,,,,,,,,,,,,,,,0,0,0,0,0
1.4968,1783191160.6519,1,1,1.0000,0.0000,1.44682,0.22456,-2.77970,0.98431,1.57080,0.00001,-0.14512,-0.38002,0.04426,,,,,,,,,,,,,,,,,,,,,,,,,,0,0,0,0,0
1.5080,1783191160.6630,1,1,1.0000,0.0000,1.44682,0.22445,-2.77973,0.98445,1.57080,0.00001,-0.14512,-0.38002,0.04423,,,,,,,,,,,,,,,,,,,,,,,,,,0,0,0,0,0
1.5173,1783191160.6724,1,1,1.0000,0.0000,1.44682,0.22420,-2.77979,0.98477,1.57080,0.00001,-0.14512,-0.38002,0.04417,,,,,,,,,,,,,,,,,,,,,,,,,,0,0,0,0,0
1.5410,1783191160.6960,1,1,1.0000,0.0000,1.44682,0.22384,-2.77988,0.98521,1.57080,0.00001,-0.14512,-0.38002,0.04407,,,,,,,,,,,,,,,,,,,,,,,,,,0,0,0,0,0
1.5411,1783191160.6962,1,1,1.0000,0.0000,1.44682,0.22384,-2.77988,0.98521,1.57080,0.00001,-0.14512,-0.38002,0.04407,,,,,,,,,,,,,,,,,,,,,,,,,,0,0,0,0,0
1.5505,1783191160.7055,1,1,1.0000,0.0000,1.44682,0.22366,-2.77993,0.98544,1.57080,0.00001,-0.14512,-0.38002,0.04403,,,,,,,,,,,,,,,,,,,,,,,,,,0,0,0,0,0
1.5576,1783191160.7127,1,1,1.0000,0.0000,1.44682,0.22364,-2.77993,0.98546,1.57080,0.00001,-0.14512,-0.38002,0.04402,,,,,,,,,,,,,,,,,,,,,,,,,,0,0,0,0,0
1.5682,1783191160.7233,1,1,1.0000,0.0000,1.44682,0.22353,-2.77996,0.98561,1.57080,0.00001,-0.14512,-0.38002,0.04399,,,,,,,,,,,,,,,,,,,,,,,,,,0,0,0,0,0
1.5769,1783191160.7320,1,1,1.0000,0.0000,1.44682,0.22327,-2.78003,0.98593,1.57080,0.00001,-0.14512,-0.38002,0.04393,,,,,,,,,,,,,,,,,,,,,,,,,,0,0,0,0,0
1.5889,1783191160.7440,1,1,1.0000,0.0000,1.44682,0.22319,-2.78005,0.98602,1.57080,0.00001,-0.14512,-0.38002,0.04391,,,,,,,,,,,,,,,,,,,,,,,,,,0,0,0,0,0
1.5979,1783191160.7529,1,1,1.0000,0.0000,1.44682,0.22301,-2.78009,0.98624,1.57080,0.00001,-0.14512,-0.38002,0.04386,,,,,,,,,,,,,,,,,,,,,,,,,,0,0,0,0,0
1.6094,1783191160.7645,1,1,1.0000,0.0000,1.44681,0.22273,-2.78016,0.98660,1.57080,0.00001,-0.14512,-0.38002,0.04379,,,,,,,,,,,,,,,,,,,,,,,,,,0,0,0,0,0
1.6200,1783191160.7751,1,1,1.0000,0.0000,1.44681,0.22271,-2.78017,0.98662,1.57080,0.00001,-0.14512,-0.38002,0.04378,,,,,,,,,,,,,,,,,,,,,,,,,,0,0,0,0,0
1.6347,1783191160.7898,1,1,1.0000,0.0000,1.44681,0.22243,-2.78024,0.98698,1.57080,0.00001,-0.14512,-0.38002,0.04371,,,,,,,,,,,,,,,,,,,,,,,,,,0,0,0,0,0
1.6376,1783191160.7926,1,1,1.0000,0.0000,1.44681,0.22234,-2.78026,0.98709,1.57080,0.00001,-0.14512,-0.38002,0.04369,,,,,,,,,,,,,,,,,,,,,,,,,,0,0,0,0,0
1.6473,1783191160.8023,1,1,1.0000,0.0000,1.44681,0.22232,-2.78026,0.98711,1.57080,0.00001,-0.14512,-0.38002,0.04368,,,,,,,,,,,,,,,,,,,,,,,,,,0,0,0,0,0
1.6585,1783191160.8135,1,1,1.0000,0.0000,1.44681,0.22209,-2.78032,0.98740,1.57080,0.00001,-0.14512,-0.38002,0.04362,,,,,,,,,,,,,,,,,,,,,,,,,,0,0,0,0,0
1.6666,1783191160.8216,1,1,1.0000,0.0000,1.44681,0.22189,-2.78037,0.98766,1.57080,0.00001,-0.14512,-0.38002,0.04357,,,,,,,,,,,,,,,,,,,,,,,,,,0,0,0,0,0
1.6670,1783191160.8221,1,1,1.0000,0.0000,1.44681,0.22189,-2.78037,0.98766,1.57080,0.00001,-0.14512,-0.38002,0.04357,,,,,,,,,,,,,,,,,,,,,,,,,,0,0,0,0,0
1.6787,1783191160.8338,1,1,1.0000,0.0000,1.44681,0.22178,-2.78040,0.98778,1.57080,0.00001,-0.14512,-0.38002,0.04354,,,,,,,,,,,,,,,,,,,,,,,,,,0,0,0,0,0
1.6792,1783191160.8342,1,1,1.0000,0.0000,1.44681,0.22178,-2.78040,0.98778,1.57080,0.00001,-0.14512,-0.38002,0.04354,,,,,,,,,,,,,,,,,,,,,,,,,,0,0,0,0,0
1.7004,1783191160.8555,1,1,1.0000,0.0000,1.44681,0.22141,-2.78049,0.98825,1.57080,0.00001,-0.14512,-0.38002,0.04345,,,,,,,,,,,,,,,,,,,,,,,,,,0,0,0,0,0
1.7031,1783191160.8582,1,1,1.0000,0.0000,1.44681,0.22141,-2.78049,0.98825,1.57080,0.00001,-0.14512,-0.38002,0.04345,,,,,,,,,,,,,,,,,,,,,,,,,,0,0,0,0,0
1.7069,1783191160.8620,1,1,1.0000,0.0000,1.44681,0.22139,-2.78050,0.98827,1.57080,0.00001,-0.14512,-0.38002,0.04344,,,,,,,,,,,,,,,,,,,,,,,,,,0,0,0,0,0
1.7229,1783191160.8780,1,1,1.0000,0.0000,1.44681,0.22106,-2.78058,0.98869,1.57080,0.00001,-0.14512,-0.38002,0.04336,,,,,,,,,,,,,,,,,,,,,,,,,,0,0,0,0,0
1.7289,1783191160.8840,1,1,1.0000,0.0000,1.44681,0.22087,-2.78063,0.98892,1.57080,0.00001,-0.14512,-0.38002,0.04331,,,,,,,,,,,,,,,,,,,,,,,,,,0,0,0,0,0
1.7413,1783191160.8963,1,1,1.0000,0.0000,1.44681,0.22081,-2.78064,0.98900,1.57080,0.00001,-0.14512,-0.38002,0.04329,,,,,,,,,,,,,,,,,,,,,,,,,,0,0,0,0,0
1.7417,1783191160.8968,1,1,1.0000,0.0000,1.44681,0.22081,-2.78064,0.98900,1.57080,0.00001,-0.14512,-0.38002,0.04329,,,,,,,,,,,,,,,,,,,,,,,,,,0,0,0,0,0
1.7465,1783191160.9016,1,1,1.0000,0.0000,1.44681,0.22074,-2.78066,0.98909,1.57080,0.00001,-0.14512,-0.38002,0.04328,,,,,,,,,,,,,,,,,,,,,,,,,,0,0,0,0,0
1.7469,1783191160.9019,1,1,1.0000,0.0000,1.44681,0.22074,-2.78066,0.98909,1.57080,0.00001,-0.14512,-0.38002,0.04328,,,,,,,,,,,,,,,,,,,,,,,,,,0,0,0,0,0
1.7575,1783191160.9125,1,1,1.0000,0.0000,1.44681,0.22048,-2.78072,0.98941,1.57080,0.00001,-0.14512,-0.38002,0.04321,,,,,,,,,,,,,,,,,,,,,,,,,,0,0,0,0,0
1.7670,1783191160.9221,1,1,1.0000,0.0000,1.44681,0.22046,-2.78073,0.98943,1.57080,0.00001,-0.14512,-0.38002,0.04320,,,,,,,,,,,,,,,,,,,,,,,,,,0,0,0,0,0
1.7770,1783191160.9320,1,1,1.0000,0.0000,1.44681,0.22023,-2.78079,0.98973,1.57080,0.00001,-0.14512,-0.38002,0.04314,,,,,,,,,,,,,,,,,,,,,,,,,,0,0,0,0,0
1.7932,1783191160.9482,1,1,1.0000,0.0000,1.44681,0.21994,-2.78086,0.99008,1.57080,0.00001,-0.14512,-0.38002,0.04307,,,,,,,,,,,,,,,,,,,,,,,,,,0,0,0,0,0
1.8002,1783191160.9552,1,1,1.0000,0.0000,1.44681,0.21992,-2.78086,0.99011,1.57080,0.00001,-0.14512,-0.38002,0.04307,,,,,,,,,,,,,,,,,,,,,,,,,,0,0,0,0,0
1.8107,1783191160.9658,1,1,1.0000,0.0000,1.44681,0.21973,-2.78091,0.99035,1.57080,0.00001,-0.14512,-0.38002,0.04302,,,,,,,,,,,,,,,,,,,,,,,,,,0,0,0,0,0
1.8211,1783191160.9762,1,1,1.0000,0.0000,1.44681,0.21955,-2.78095,0.99057,1.57080,0.00001,-0.14512,-0.38002,0.04297,,,,,,,,,,,,,,,,,,,,,,,,,,0,0,0,0,0
1.8272,1783191160.9823,1,1,1.0000,0.0000,1.44681,0.21953,-2.78096,0.99060,1.57080,0.00001,-0.14512,-0.38002,0.04297,,,,,,,,,,,,,,,,,,,,,,,,,,0,0,0,0,0
1.8484,1783191161.0035,1,1,1.0000,0.0000,1.44681,0.21909,-2.78107,0.99114,1.57080,0.00001,-0.14512,-0.38002,0.04285,,,,,,,,,,,,,,,,,,,,,,,,,,0,0,0,0,0
1.8487,1783191161.0038,1,1,1.0000,0.0000,1.44681,0.21909,-2.78107,0.99114,1.57080,0.00001,-0.14512,-0.38002,0.04285,,,,,,,,,,,,,,,,,,,,,,,,,,0,0,0,0,0
1.8576,1783191161.0127,1,1,1.0000,0.0000,1.44681,0.21899,-2.78109,0.99127,1.57080,0.00001,-0.14512,-0.38002,0.04283,,,,,,,,,,,,,,,,,,,,,,,,,,0,0,0,0,0
1.8694,1783191161.0244,1,1,1.0000,0.0000,1.44681,0.21880,-2.78114,0.99151,1.57080,0.00001,-0.14512,-0.38002,0.04278,,,,,,,,,,,,,,,,,,,,,,,,,,0,0,0,0,0
1.8783,1783191161.0334,1,1,1.0000,0.0000,1.44681,0.21862,-2.78119,0.99173,1.57080,0.00001,-0.14512,-0.38002,0.04273,,,,,,,,,,,,,,,,,,,,,,,,,,0,0,0,0,0
1.8786,1783191161.0336,1,1,1.0000,0.0000,1.44681,0.21862,-2.78119,0.99173,1.57080,0.00001,-0.14512,-0.38002,0.04273,,,,,,,,,,,,,,,,,,,,,,,,,,0,0,0,0,0
1.8938,1783191161.0489,1,1,1.0000,0.0000,1.44681,0.21846,-2.78123,0.99193,1.57080,0.00001,-0.14512,-0.38002,0.04269,,,,,,,,,,,,,,,,,,,,,,,,,,0,0,0,0,0
1.8985,1783191161.0536,1,1,1.0000,0.0000,1.44681,0.21836,-2.78125,0.99205,1.57080,0.00001,-0.14512,-0.38002,0.04267,,,,,,,,,,,,,,,,,,,,,,,,,,0,0,0,0,0
1.9066,1783191161.0617,1,1,1.0000,0.0000,1.44681,0.21816,-2.78130,0.99231,1.57080,0.00001,-0.14512,-0.38002,0.04261,,,,,,,,,,,,,,,,,,,,,,,,,,0,0,0,0,0
1.9069,1783191161.0620,1,1,1.0000,0.0000,1.44681,0.21816,-2.78130,0.99231,1.57080,0.00001,-0.14512,-0.38002,0.04261,,,,,,,,,,,,,,,,,,,,,,,,,,0,0,0,0,0
1.9185,1783191161.0736,1,1,1.0000,0.0000,1.44681,0.21806,-2.78132,0.99243,1.57080,0.00001,-0.14512,-0.38002,0.04259,,,,,,,,,,,,,,,,,,,,,,,,,,0,0,0,0,0
1.9302,1783191161.0853,1,1,1.0000,0.0000,1.44681,0.21786,-2.78137,0.99268,1.57080,0.00001,-0.14512,-0.38002,0.04254,,,,,,,,,,,,,,,,,,,,,,,,,,0,0,0,0,0
1.9439,1783191161.0989,1,1,1.0000,0.0000,1.44681,0.21769,-2.78142,0.99290,1.57080,0.00001,-0.14512,-0.38002,0.04249,,,,,,,,,,,,,,,,,,,,,,,,,,0,0,0,0,0
1.9507,1783191161.1057,1,1,1.0000,0.0000,1.44681,0.21761,-2.78144,0.99299,1.57080,0.00001,-0.14512,-0.38002,0.04247,,,,,,,,,,,,,,,,,,,,,,,,,,0,0,0,0,0
1.9602,1783191161.1153,1,1,1.0000,0.0000,1.44681,0.21743,-2.78148,0.99322,1.57080,0.00001,-0.14512,-0.38002,0.04243,,,,,,,,,,,,,,,,,,,,,,,,,,0,0,0,0,0
1.9684,1783191161.1234,1,1,1.0000,0.0000,1.44681,0.21723,-2.78153,0.99347,1.57080,0.00001,-0.14512,-0.38002,0.04238,,,,,,,,,,,,,,,,,,,,,,,,,,0,0,0,0,0
1.9866,1783191161.1416,1,1,1.0000,0.0000,1.44681,0.21701,-2.78158,0.99374,1.57080,0.00001,-0.14512,-0.38002,0.04232,,,,,,,,,,,,,,,,,,,,,,,,,,0,0,0,0,0
1.9915,1783191161.1465,1,1,1.0000,0.0000,1.44681,0.21693,-2.78160,0.99384,1.57080,0.00001,-0.14512,-0.38002,0.04230,,,,,,,,,,,,,,,,,,,,,,,,,,0,0,0,0,0
2.0001,1783191161.1552,1,1,1.0000,0.0000,1.44681,0.21675,-2.78165,0.99406,1.57080,0.00001,-0.14512,-0.38002,0.04225,,,,,,,,,,,,,,,,,,,,,,,,,,0,0,0,0,0
2.0077,1783191161.1628,1,1,1.0000,0.0000,1.44681,0.21673,-2.78165,0.99409,1.57080,0.00001,-0.14512,-0.38002,0.04225,,,,,,,,,,,,,,,,,,,,,,,,,,0,0,0,0,0
2.0203,1783191161.1753,1,1,1.0000,0.0000,1.44681,0.21649,-2.78171,0.99438,1.57080,0.00001,-0.14512,-0.38002,0.04219,,,,,,,,,,,,,,,,,,,,,,,,,,0,0,0,0,0
2.0297,1783191161.1847,1,1,1.0000,0.0000,1.44681,0.21621,-2.78178,0.99474,1.57080,0.00001,-0.14512,-0.38002,0.04211,,,,,,,,,,,,,,,,,,,,,,,,,,0,0,0,0,0
2.0373,1783191161.1923,1,1,1.0000,0.0000,1.44681,0.21619,-2.78179,0.99476,1.57080,0.00001,-0.14512,-0.38002,0.04211,,,,,,,,,,,,,,,,,,,,,,,,,,0,0,0,0,0
2.0376,1783191161.1927,1,1,1.0000,0.0000,1.44681,0.21619,-2.78179,0.99476,1.57080,0.00001,-0.14512,-0.38002,0.04211,,,,,,,,,,,,,,,,,,,,,,,,,,0,0,0,0,0
2.0514,1783191161.2065,1,1,1.0000,0.0000,1.44681,0.21599,-2.78183,0.99501,1.57080,0.00001,-0.14512,-0.38002,0.04206,,,,,,,,,,,,,,,,,,,,,,,,,,0,0,0,0,0
2.0585,1783191161.2136,1,1,1.0000,0.0000,1.44681,0.21581,-2.78188,0.99523,1.57080,0.00001,-0.14512,-0.38002,0.04201,,,,,,,,,,,,,,,,,,,,,,,,,,0,0,0,0,0
2.0694,1783191161.2245,1,1,1.0000,0.0000,1.44681,0.21572,-2.78190,0.99535,1.57080,0.00001,-0.14512,-0.38002,0.04199,,,,,,,,,,,,,,,,,,,,,,,,,,0,0,0,0,0
2.0769,1783191161.2320,1,1,1.0000,0.0000,1.44681,0.21560,-2.78193,0.99549,1.57080,0.00001,-0.14512,-0.38002,0.04196,,,,,,,,,,,,,,,,,,,,,,,,,,0,0,0,0,0
2.0884,1783191161.2434,1,1,1.0000,0.0000,1.44681,0.21543,-2.78197,0.99570,1.57080,0.00001,-0.14512,-0.38002,0.04192,,,,,,,,,,,,,,,,,,,,,,,,,,0,0,0,0,0
2.0990,1783191161.2541,1,1,1.0000,0.0000,1.44681,0.21532,-2.78200,0.99584,1.57080,0.00001,-0.14512,-0.38002,0.04189,,,,,,,,,,,,,,,,,,,,,,,,,,0,0,0,0,0
2.1073,1783191161.2624,1,1,1.0000,0.0000,1.44681,0.21519,-2.78203,0.99601,1.57080,0.00001,-0.14512,-0.38002,0.04185,,,,,,,,,,,,,,,,,,,,,,,,,,0,0,0,0,0
2.1219,1783191161.2769,1,1,1.0000,0.0000,1.44681,0.21480,-2.78213,0.99649,1.57080,0.00001,-0.14512,-0.38002,0.04176,,,,,,,,,,,,,,,,,,,,,,,,,,0,0,0,0,0
2.1263,1783191161.2814,1,1,1.0000,0.0000,1.44681,0.21480,-2.78213,0.99649,1.57080,0.00001,-0.14512,-0.38002,0.04176,,,,,,,,,,,,,,,,,,,,,,,,,,0,0,0,0,0
2.1266,1783191161.2817,1,1,1.0000,0.0000,1.44681,0.21480,-2.78213,0.99649,1.57080,0.00001,-0.14512,-0.38002,0.04176,,,,,,,,,,,,,,,,,,,,,,,,,,0,0,0,0,0
2.1387,1783191161.2938,1,1,1.0000,0.0000,1.44681,0.21467,-2.78216,0.99666,1.57080,0.00001,-0.14512,-0.38002,0.04172,,,,,,,,,,,,,,,,,,,,,,,,,,0,0,0,0,0
2.1594,1783191161.3144,1,1,1.0000,0.0000,1.44681,0.21439,-2.78223,0.99701,1.57080,0.00002,-0.14512,-0.38002,0.04165,,,,,,,,,,,,,,,,,,,,,,,,,,0,0,0,0,0
2.1602,1783191161.3153,1,1,1.0000,0.0000,1.44681,0.21439,-2.78223,0.99701,1.57080,0.00002,-0.14512,-0.38002,0.04165,,,,,,,,,,,,,,,,,,,,,,,,,,0,0,0,0,0
2.1605,1783191161.3156,1,1,1.0000,0.0000,1.44681,0.21439,-2.78223,0.99701,1.57080,0.00002,-0.14512,-0.38002,0.04165,,,,,,,,,,,,,,,,,,,,,,,,,,0,0,0,0,0
2.1673,1783191161.3224,1,1,1.0000,0.0000,1.44681,0.21425,-2.78226,0.99718,1.57080,0.00002,-0.14512,-0.38002,0.04162,,,,,,,,,,,,,,,,,,,,,,,,,,0,0,0,0,0
2.1677,1783191161.3228,1,1,1.0000,0.0000,1.44681,0.21425,-2.78226,0.99718,1.57080,0.00002,-0.14512,-0.38002,0.04162,,,,,,,,,,,,,,,,,,,,,,,,,,0,0,0,0,0
2.1770,1783191161.3321,1,1,1.0000,0.0000,1.44681,0.21395,-2.78233,0.99755,1.57080,0.00002,-0.14512,-0.38002,0.04154,,,,,,,,,,,,,,,,,,,,,,,,,,0,0,0,0,0
2.1907,1783191161.3458,1,1,1.0000,0.0000,1.44681,0.21384,-2.78236,0.99768,1.57080,0.00002,-0.14512,-0.38002,0.04151,,,,,,,,,,,,,,,,,,,,,,,,,,0,0,0,0,0
2.2003,1783191161.3554,1,1,1.0000,0.0000,1.44681,0.21373,-2.78239,0.99783,1.57080,0.00002,-0.14512,-0.38002,0.04148,,,,,,,,,,,,,,,,,,,,,,,,,,0,0,0,0,0
2.2093,1783191161.3644,1,1,1.0000,0.0000,1.44681,0.21347,-2.78245,0.99815,1.57080,0.00002,-0.14512,-0.38002,0.04142,,,,,,,,,,,,,,,,,,,,,,,,,,0,0,0,0,0
2.2165,1783191161.3716,1,1,1.0000,0.0000,1.44681,0.21347,-2.78245,0.99815,1.57080,0.00002,-0.14512,-0.38002,0.04142,,,,,,,,,,,,,,,,,,,,,,,,,,0,0,0,0,0
2.2174,1783191161.3725,1,1,1.0000,0.0000,1.44681,0.21345,-2.78246,0.99818,1.57080,0.00002,-0.14512,-0.38002,0.04141,,,,,,,,,,,,,,,,,,,,,,,,,,0,0,0,0,0
2.2265,1783191161.3816,1,1,1.0000,0.0000,1.44681,0.21331,-2.78249,0.99835,1.57080,0.00002,-0.14512,-0.38002,0.04138,,,,,,,,,,,,,,,,,,,,,,,,,,0,0,0,0,0
2.2379,1783191161.3930,1,1,1.0000,0.0000,1.44681,0.21301,-2.78256,0.99872,1.57080,0.00002,-0.14512,-0.38002,0.04130,,,,,,,,,,,,,,,,,,,,,,,,,,0,0,0,0,0
2.2383,1783191161.3934,1,1,1.0000,0.0000,1.44681,0.21301,-2.78256,0.99872,1.57080,0.00002,-0.14512,-0.38002,0.04130,,,,,,,,,,,,,,,,,,,,,,,,,,0,0,0,0,0
2.2556,1783191161.4106,1,1,1.0000,0.0000,1.44681,0.21286,-2.78260,0.99891,1.57080,0.00002,-0.14512,-0.38002,0.04126,,,,,,,,,,,,,,,,,,,,,,,,,,0,0,0,0,0
2.2592,1783191161.4143,1,1,1.0000,0.0000,1.44681,0.21279,-2.78262,0.99900,1.57080,0.00002,-0.14512,-0.38002,0.04124,,,,,,,,,,,,,,,,,,,,,,,,,,0,0,0,0,0
2.2675,1783191161.4226,1,1,1.0000,0.0000,1.44681,0.21262,-2.78266,0.99921,1.57080,0.00002,-0.14512,-0.38002,0.04120,,,,,,,,,,,,,,,,,,,,,,,,,,0,0,0,0,0
2.2769,1783191161.4320,1,1,1.0000,0.0000,1.44681,0.21251,-2.78269,0.99934,1.57080,0.00002,-0.14512,-0.38002,0.04117,,,,,,,,,,,,,,,,,,,,,,,,,,0,0,0,0,0
2.2773,1783191161.4323,1,1,1.0000,0.0000,1.44681,0.21251,-2.78269,0.99934,1.57080,0.00002,-0.14512,-0.38002,0.04117,,,,,,,,,,,,,,,,,,,,,,,,,,0,0,0,0,0
2.2880,1783191161.4431,1,1,1.0000,0.0000,1.44681,0.21237,-2.78272,0.99952,1.57080,0.00002,-0.14512,-0.38002,0.04114,,,,,,,,,,,,,,,,,,,,,,,,,,0,0,0,0,0
2.2986,1783191161.4536,1,1,1.0000,0.0000,1.44681,0.21206,-2.78279,0.99989,1.57080,0.00002,-0.14512,-0.38002,0.04106,,,,,,,,,,,,,,,,,,,,,,,,,,0,0,0,0,0
2.3075,1783191161.4626,1,1,1.0000,0.0000,1.44681,0.21198,-2.78281,1.00000,1.57080,0.00002,-0.14512,-0.38002,0.04104,,,,,,,,,,,,,,,,,,,,,,,,,,0,0,0,0,0
2.3174,1783191161.4725,1,1,1.0000,0.0000,1.44681,0.21185,-2.78285,1.00017,1.57080,0.00002,-0.14512,-0.38002,0.04101,,,,,,,,,,,,,,,,,,,,,,,,,,0,0,0,0,0
2.3267,1783191161.4817,1,1,1.0000,0.0000,1.44681,0.21167,-2.78289,1.00038,1.57080,0.00002,-0.14512,-0.38002,0.04096,,,,,,,,,,,,,,,,,,,,,,,,,,0,0,0,0,0
2.3365,1783191161.4916,1,1,1.0000,0.0000,1.44681,0.21159,-2.78291,1.00049,1.57080,0.00002,-0.14512,-0.38002,0.04094,,,,,,,,,,,,,,,,,,,,,,,,,,0,0,0,0,0
2.3594,1783191161.5145,1,1,1.0000,0.0000,1.44681,0.21112,-2.78302,1.00106,1.57080,0.00002,-0.14512,-0.38002,0.04082,,,,,,,,,,,,,,,,,,,,,,,,,,0,0,0,0,0
2.3609,1783191161.5159,1,1,1.0000,0.0000,1.44681,0.21104,-2.78304,1.00117,1.57080,0.00002,-0.14512,-0.38002,0.04080,,,,,,,,,,,,,,,,,,,,,,,,,,0,0,0,0,0
2.3698,1783191161.5249,1,1,1.0000,0.0000,1.44681,0.21102,-2.78305,1.00119,1.57080,0.00002,-0.14512,-0.38002,0.04080,,,,,,,,,,,,,,,,,,,,,,,,,,0,0,0,0,0
2.3787,1783191161.5338,1,1,1.0000,0.0000,1.44681,0.21090,-2.78307,1.00134,1.57080,0.00002,-0.14512,-0.38002,0.04077,,,,,,,,,,,,,,,,,,,,,,,,,,0,0,0,0,0
2.3884,1783191161.5435,1,1,1.0000,0.0000,1.44681,0.21073,-2.78312,1.00155,1.57080,0.00002,-0.14512,-0.38002,0.04072,,,,,,,,,,,,,,,,,,,,,,,,,,0,0,0,0,0
2.4011,1783191161.5561,1,1,1.0000,0.0000,1.44681,0.21056,-2.78316,1.00176,1.57080,0.00002,-0.14512,-0.38002,0.04068,,,,,,,,,,,,,,,,,,,,,,,,,,0,0,0,0,0
2.4014,1783191161.5565,1,1,1.0000,0.0000,1.44681,0.21056,-2.78316,1.00176,1.57080,0.00002,-0.14512,-0.38002,0.04068,,,,,,,,,,,,,,,,,,,,,,,,,,0,0,0,0,0
2.4073,1783191161.5624,1,1,1.0000,0.0000,1.44681,0.21048,-2.78318,1.00186,1.57080,0.00002,-0.14512,-0.38002,0.04066,,,,,,,,,,,,,,,,,,,,,,,,,,0,0,0,0,0
2.4078,1783191161.5629,1,1,1.0000,0.0000,1.44681,0.21048,-2.78318,1.00186,1.57080,0.00002,-0.14512,-0.38002,0.04066,,,,,,,,,,,,,,,,,,,,,,,,,,0,0,0,0,0
2.4213,1783191161.5764,1,1,1.0000,0.0000,1.44681,0.21009,-2.78327,1.00234,1.57080,0.00002,-0.14512,-0.38002,0.04056,,,,,,,,,,,,,,,,,,,,,,,,,,0,0,0,0,0
2.4276,1783191161.5827,1,1,1.0000,0.0000,1.44681,0.21009,-2.78327,1.00234,1.57080,0.00002,-0.14512,-0.38002,0.04056,,,,,,,,,,,,,,,,,,,,,,,,,,0,0,0,0,0
2.4410,1783191161.5961,1,1,1.0000,0.0000,1.44681,0.20987,-2.78332,1.00261,1.57080,0.00002,-0.14512,-0.38002,0.04051,,,,,,,,,,,,,,,,,,,,,,,,,,0,0,0,0,0
2.4474,1783191161.6024,1,1,1.0000,0.0000,1.44680,0.20979,-2.78334,1.00272,1.57080,0.00002,-0.14512,-0.38002,0.04048,,,,,,,,,,,,,,,,,,,,,,,,,,0,0,0,0,0
2.4478,1783191161.6029,1,1,1.0000,0.0000,1.44680,0.20979,-2.78334,1.00272,1.57080,0.00002,-0.14512,-0.38002,0.04048,,,,,,,,,,,,,,,,,,,,,,,,,,0,0,0,0,0
2.4621,1783191161.6171,1,1,1.0000,0.0000,1.44680,0.20962,-2.78338,1.00293,1.57080,0.00002,-0.14512,-0.38002,0.04044,,,,,,,,,,,,,,,,,,,,,,,,,,0,0,0,0,0
2.4680,1783191161.6231,1,1,1.0000,0.0000,1.44680,0.20954,-2.78340,1.00303,1.57079,0.00002,-0.14512,-0.38002,0.04042,,,,,,,,,,,,,,,,,,,,,,,,,,0,0,0,0,0
2.4781,1783191161.6332,1,1,1.0000,0.0000,1.44680,0.20923,-2.78348,1.00341,1.57079,0.00002,-0.14512,-0.38002,0.04034,,,,,,,,,,,,,,,,,,,,,,,,,,0,0,0,0,0
2.4785,1783191161.6336,1,1,1.0000,0.0000,1.44680,0.20923,-2.78348,1.00341,1.57079,0.00002,-0.14512,-0.38002,0.04034,,,,,,,,,,,,,,,,,,,,,,,,,,0,0,0,0,0
2.4877,1783191161.6428,1,1,1.0000,0.0000,1.44680,0.20915,-2.78350,1.00352,1.57079,0.00002,-0.14512,-0.38002,0.04032,,,,,,,,,,,,,,,,,,,,,,,,,,0,0,0,0,0
2.5043,1783191161.6594,1,1,1.0000,0.0000,1.44680,0.20893,-2.78355,1.00379,1.57079,0.00002,-0.14512,-0.38002,0.04027,,,,,,,,,,,,,,,,,,,,,,,,,,0,0,0,0,0
2.5075,1783191161.6626,1,1,1.0000,0.0000,1.44680,0.20884,-2.78357,1.00390,1.57079,0.00002,-0.14512,-0.38002,0.04024,,,,,,,,,,,,,,,,,,,,,,,,,,0,0,0,0,0
2.5081,1783191161.6632,1,1,1.0000,0.0000,1.44680,0.20884,-2.78357,1.00390,1.57079,0.00002,-0.14512,-0.38002,0.04024,,,,,,,,,,,,,,,,,,,,,,,,,,0,0,0,0,0
2.5171,1783191161.6722,1,1,1.0000,0.0000,1.44680,0.20873,-2.78360,1.00403,1.57079,0.00002,-0.14512,-0.38002,0.04022,,,,,,,,,,,,,,,,,,,,,,,,,,0,0,0,0,0
2.5289,1783191161.6839,1,1,1.0000,0.0000,1.44680,0.20849,-2.78366,1.00433,1.57079,0.00002,-0.14512,-0.38002,0.04016,,,,,,,,,,,,,,,,,,,,,,,,,,0,0,0,0,0
2.5410,1783191161.6960,1,1,1.0000,0.0000,1.44680,0.20820,-2.78373,1.00469,1.57079,0.00002,-0.14512,-0.38002,0.04008,,,,,,,,,,,,,,,,,,,,,,,,,,0,0,0,0,0
2.5468,1783191161.7018,1,1,1.0000,0.0000,1.44680,0.20820,-2.78373,1.00469,1.57079,0.00002,-0.14512,-0.38002,0.04008,,,,,,,,,,,,,,,,,,,,,,,,,,0,0,0,0,0
2.5670,1783191161.7221,1,1,1.0000,0.0000,1.44680,0.20789,-2.78380,1.00507,1.57079,0.00002,-0.14512,-0.38002,0.04001,,,,,,,,,,,,,,,,,,,,,,,,,,0,0,0,0,0
2.5678,1783191161.7229,1,1,1.0000,0.0000,1.44680,0.20789,-2.78380,1.00507,1.57079,0.00002,-0.14512,-0.38002,0.04001,,,,,,,,,,,,,,,,,,,,,,,,,,0,0,0,0,0
2.5784,1783191161.7334,1,1,1.0000,0.0000,1.44680,0.20772,-2.78384,1.00528,1.57079,0.00002,-0.14512,-0.38002,0.03996,,,,,,,,,,,,,,,,,,,,,,,,,,0,0,0,0,0
2.6089,1783191161.7639,1,1,1.0000,0.0000,1.44680,0.20731,-2.78394,1.00579,1.57079,0.00002,-0.14512,-0.38002,0.03986,,,,,,,,,,,,,,,,,,,,,,,,,,0,0,0,0,0
2.6091,1783191161.7642,1,1,1.0000,0.0000,1.44680,0.20731,-2.78394,1.00579,1.57079,0.00002,-0.14512,-0.38002,0.03986,,,,,,,,,,,,,,,,,,,,,,,,,,0,0,0,0,0
2.6096,1783191161.7646,1,1,1.0000,0.0000,1.44680,0.20731,-2.78394,1.00579,1.57079,0.00002,-0.14512,-0.38002,0.03986,,,,,,,,,,,,,,,,,,,,,,,,,,0,0,0,0,0
2.6098,1783191161.7649,1,1,1.0000,0.0000,1.44680,0.20731,-2.78394,1.00579,1.57079,0.00002,-0.14512,-0.38002,0.03986,,,,,,,,,,,,,,,,,,,,,,,,,,0,0,0,0,0
2.6195,1783191161.7745,1,1,1.0000,0.0000,1.44680,0.20717,-2.78397,1.00597,1.57079,0.00002,-0.14512,-0.38002,0.03982,,,,,,,,,,,,,,,,,,,,,,,,,,0,0,0,0,0
2.6296,1783191161.7847,1,1,1.0000,0.0000,1.44680,0.20686,-2.78405,1.00635,1.57079,0.00002,-0.14512,-0.38002,0.03975,,,,,,,,,,,,,,,,,,,,,,,,,,0,0,0,0,0
2.6415,1783191161.7966,1,1,1.0000,0.0000,1.44680,0.20678,-2.78406,1.00644,1.57079,0.00002,-0.14512,-0.38002,0.03973,,,,,,,,,,,,,,,,,,,,,,,,,,0,0,0,0,0
2.6463,1783191161.8013,1,1,1.0000,0.0000,1.44680,0.20670,-2.78408,1.00655,1.57079,0.00002,-0.14512,-0.38002,0.03970,,,,,,,,,,,,,,,,,,,,,,,,,,0,0,0,0,0
2.6467,1783191161.8017,1,1,1.0000,0.0000,1.44680,0.20670,-2.78408,1.00655,1.57079,0.00002,-0.14512,-0.38002,0.03970,,,,,,,,,,,,,,,,,,,,,,,,,,0,0,0,0,0
2.6588,1783191161.8139,1,1,1.0000,0.0000,1.44680,0.20639,-2.78416,1.00693,1.57079,0.00002,-0.14512,-0.38002,0.03963,,,,,,,,,,,,,,,,,,,,,,,,,,0,0,0,0,0
2.6676,1783191161.8226,1,1,1.0000,0.0000,1.44680,0.20630,-2.78418,1.00704,1.57079,0.00002,-0.14512,-0.38002,0.03960,,,,,,,,,,,,,,,,,,,,,,,,,,0,0,0,0,0
2.6679,1783191161.8229,1,1,1.0000,0.0000,1.44680,0.20630,-2.78418,1.00704,1.57079,0.00002,-0.14512,-0.38002,0.03960,,,,,,,,,,,,,,,,,,,,,,,,,,0,0,0,0,0
2.6776,1783191161.8327,1,1,1.0000,0.0000,1.44680,0.20617,-2.78421,1.00721,1.57079,0.00002,-0.14512,-0.38002,0.03957,,,,,,,,,,,,,,,,,,,,,,,,,,0,0,0,0,0
2.6780,1783191161.8330,1,1,1.0000,0.0000,1.44680,0.20617,-2.78421,1.00721,1.57079,0.00002,-0.14512,-0.38002,0.03957,,,,,,,,,,,,,,,,,,,,,,,,,,0,0,0,0,0
2.6874,1783191161.8425,1,1,1.0000,0.0000,1.44680,0.20599,-2.78425,1.00742,1.57079,0.00002,-0.14512,-0.38002,0.03953,,,,,,,,,,,,,,,,,,,,,,,,,,0,0,0,0,0
2.6970,1783191161.8521,1,1,1.0000,0.0000,1.44680,0.20583,-2.78429,1.00763,1.57079,0.00002,-0.14512,-0.38002,0.03949,,,,,,,,,,,,,,,,,,,,,,,,,,0,0,0,0,0
2.7130,1783191161.8680,1,1,1.0000,0.0000,1.44680,0.20561,-2.78434,1.00790,1.57079,0.00002,-0.14512,-0.38002,0.03943,,,,,,,,,,,,,,,,,,,,,,,,,,0,0,0,0,0
2.7211,1783191161.8762,1,1,1.0000,0.0000,1.44680,0.20543,-2.78439,1.00812,1.57079,0.00002,-0.14512,-0.38002,0.03939,,,,,,,,,,,,,,,,,,,,,,,,,,0,0,0,0,0
2.7214,1783191161.8765,1,1,1.0000,0.0000,1.44680,0.20543,-2.78439,1.00812,1.57079,0.00002,-0.14512,-0.38002,0.03939,,,,,,,,,,,,,,,,,,,,,,,,,,0,0,0,0,0
2.7302,1783191161.8852,1,1,1.0000,0.0000,1.44680,0.20541,-2.78439,1.00815,1.57079,0.00002,-0.14512,-0.38002,0.03938,,,,,,,,,,,,,,,,,,,,,,,,,,0,0,0,0,0
2.7400,1783191161.8950,1,1,1.0000,0.0000,1.44680,0.20527,-2.78443,1.00832,1.57079,0.00002,-0.14512,-0.38002,0.03935,,,,,,,,,,,,,,,,,,,,,,,,,,0,0,0,0,0
2.7403,1783191161.8953,1,1,1.0000,0.0000,1.44680,0.20527,-2.78443,1.00832,1.57079,0.00002,-0.14512,-0.38002,0.03935,,,,,,,,,,,,,,,,,,,,,,,,,,0,0,0,0,0
2.7502,1783191161.9052,1,1,1.0000,0.0000,1.44680,0.20496,-2.78450,1.00870,1.57079,0.00002,-0.14512,-0.38002,0.03927,,,,,,,,,,,,,,,,,,,,,,,,,,0,0,0,0,0
2.7504,1783191161.9055,1,1,1.0000,0.0000,1.44680,0.20496,-2.78450,1.00870,1.57079,0.00002,-0.14512,-0.38002,0.03927,,,,,,,,,,,,,,,,,,,,,,,,,,0,0,0,0,0
2.7611,1783191161.9162,1,1,1.0000,0.0000,1.44680,0.20486,-2.78452,1.00883,1.57079,0.00002,-0.14512,-0.38002,0.03924,,,,,,,,,,,,,,,,,,,,,,,,,,0,0,0,0,0
2.7704,1783191161.9255,1,1,1.0000,0.0000,1.44680,0.20474,-2.78455,1.00897,1.57079,0.00002,-0.14512,-0.38002,0.03921,,,,,,,,,,,,,,,,,,,,,,,,,,0,0,0,0,0
2.7838,1783191161.9389,1,1,1.0000,0.0000,1.44680,0.20448,-2.78461,1.00930,1.57079,0.00002,-0.14512,-0.38002,0.03915,,,,,,,,,,,,,,,,,,,,,,,,,,0,0,0,0,0
2.7931,1783191161.9481,1,1,1.0000,0.0000,1.44680,0.20440,-2.78463,1.00940,1.57079,0.00002,-0.14512,-0.38002,0.03913,,,,,,,,,,,,,,,,,,,,,,,,,,0,0,0,0,0
2.8005,1783191161.9555,1,1,1.0000,0.0000,1.44680,0.20432,-2.78465,1.00950,1.57079,0.00002,-0.14512,-0.38002,0.03911,,,,,,,,,,,,,,,,,,,,,,,,,,0,0,0,0,0
2.8125,1783191161.9675,1,1,1.0000,0.0000,1.44680,0.20401,-2.78472,1.00988,1.57079,0.00002,-0.14512,-0.38001,0.03903,,,,,,,,,,,,,,,,,,,,,,,,,,0,0,0,0,0
2.8238,1783191161.9788,1,1,1.0000,0.0000,1.44680,0.20391,-2.78475,1.01001,1.57079,0.00002,-0.14512,-0.38001,0.03900,,,,,,,,,,,,,,,,,,,,,,,,,,0,0,0,0,0
2.8300,1783191161.9851,1,1,1.0000,0.0000,1.44680,0.20379,-2.78478,1.01015,1.57079,0.00002,-0.14512,-0.38001,0.03897,,,,,,,,,,,,,,,,,,,,,,,,,,0,0,0,0,0
2.8402,1783191161.9953,1,1,1.0000,0.0000,1.44680,0.20361,-2.78482,1.01037,1.57079,0.00002,-0.14512,-0.38001,0.03893,,,,,,,,,,,,,,,,,,,,,,,,,,0,0,0,0,0
2.8503,1783191162.0054,1,1,1.0000,0.0000,1.44680,0.20350,-2.78484,1.01050,1.57079,0.00002,-0.14512,-0.38001,0.03890,,,,,,,,,,,,,,,,,,,,,,,,,,0,0,0,0,0
2.8635,1783191162.0185,1,1,1.0000,0.0000,1.44680,0.20326,-2.78490,1.01080,1.57079,0.00002,-0.14512,-0.38001,0.03884,,,,,,,,,,,,,,,,,,,,,,,,,,0,0,0,0,0
2.8760,1783191162.0311,1,1,1.0000,0.0000,1.44680,0.20297,-2.78497,1.01116,1.57079,0.00002,-0.14512,-0.38001,0.03877,,,,,,,,,,,,,,,,,,,,,,,,,,0,0,0,0,0
2.8816,1783191162.0366,1,1,1.0000,0.0000,1.44680,0.20295,-2.78497,1.01119,1.57079,0.00002,-0.14512,-0.38001,0.03876,,,,,,,,,,,,,,,,,,,,,,,,,,0,0,0,0,0
2.8902,1783191162.0453,1,1,1.0000,0.0000,1.44680,0.20284,-2.78500,1.01133,1.57079,0.00002,-0.14512,-0.38001,0.03873,,,,,,,,,,,,,,,,,,,,,,,,,,0,0,0,0,0
2.9024,1783191162.0575,1,1,1.0000,0.0000,1.44680,0.20257,-2.78506,1.01166,1.57079,0.00002,-0.14512,-0.38001,0.03867,,,,,,,,,,,,,,,,,,,,,,,,,,0,0,0,0,0
2.9130,1783191162.0681,1,1,1.0000,0.0000,1.44680,0.20249,-2.78508,1.01175,1.57079,0.00002,-0.14512,-0.38001,0.03865,,,,,,,,,,,,,,,,,,,,,,,,,,0,0,0,0,0
2.9215,1783191162.0765,1,1,1.0000,0.0000,1.44680,0.20231,-2.78513,1.01198,1.57079,0.00002,-0.14512,-0.38001,0.03860,,,,,,,,,,,,,,,,,,,,,,,,,,0,0,0,0,0
2.9314,1783191162.0864,1,1,1.0000,0.0000,1.44680,0.20210,-2.78517,1.01224,1.57079,0.00002,-0.14512,-0.38001,0.03855,,,,,,,,,,,,,,,,,,,,,,,,,,0,0,0,0,0
2.9436,1783191162.0986,1,1,1.0000,0.0000,1.44680,0.20200,-2.78520,1.01237,1.57079,0.00002,-0.14512,-0.38001,0.03853,,,,,,,,,,,,,,,,,,,,,,,,,,0,0,0,0,0
2.9554,1783191162.1104,1,1,1.0000,0.0000,1.44680,0.20180,-2.78525,1.01261,1.57079,0.00002,-0.14512,-0.38001,0.03847,,,,,,,,,,,,,,,,,,,,,,,,,,0,0,0,0,0
2.9599,1783191162.1150,1,1,1.0000,0.0000,1.44680,0.20171,-2.78527,1.01273,1.57079,0.00002,-0.14512,-0.38001,0.03845,,,,,,,,,,,,,,,,,,,,,,,,,,0,0,0,0,0
2.9604,1783191162.1154,1,1,1.0000,0.0000,1.44680,0.20171,-2.78527,1.01273,1.57079,0.00002,-0.14512,-0.38001,0.03845,,,,,,,,,,,,,,,,,,,,,,,,,,0,0,0,0,0
2.9741,1783191162.1291,1,1,1.0000,0.0000,1.44680,0.20154,-2.78531,1.01293,1.57079,0.00003,-0.14512,-0.38001,0.03841,,,,,,,,,,,,,,,,,,,,,,,,,,0,0,0,0,0
2.9802,1783191162.1353,1,1,1.0000,0.0000,1.44680,0.20145,-2.78533,1.01304,1.57079,0.00003,-0.14512,-0.38001,0.03839,,,,,,,,,,,,,,,,,,,,,,,,,,0,0,0,0,0
2.9902,1783191162.1453,1,1,1.0000,0.0000,1.44680,0.20115,-2.78540,1.01342,1.57079,0.00003,-0.14512,-0.38001,0.03831,,,,,,,,,,,,,,,,,,,,,,,,,,0,0,0,0,0
3.0022,1783191162.1573,1,1,1.0000,0.0000,1.44680,0.20104,-2.78542,1.01355,1.57079,0.00003,-0.14512,-0.38001,0.03829,,,,,,,,,,,,,,,,,,,,,,,,,,0,0,0,0,0
3.0163,1783191162.1714,1,1,1.0000,0.0000,1.44680,0.20084,-2.78547,1.01380,1.57079,0.00003,-0.14512,-0.38001,0.03824,,,,,,,,,,,,,,,,,,,,,,,,,,0,0,0,0,0
3.0228,1783191162.1778,1,1,1.0000,0.0000,1.44680,0.20066,-2.78551,1.01402,1.57079,0.00003,-0.14512,-0.38001,0.03819,,,,,,,,,,,,,,,,,,,,,,,,,,0,0,0,0,0
3.0317,1783191162.1868,1,1,1.0000,0.0000,1.44680,0.20064,-2.78552,1.01404,1.57079,0.00003,-0.14512,-0.38001,0.03819,,,,,,,,,,,,,,,,,,,,,,,,,,0,0,0,0,0
3.0320,1783191162.1871,1,1,1.0000,0.0000,1.44680,0.20064,-2.78552,1.01404,1.57079,0.00003,-0.14512,-0.38001,0.03819,,,,,,,,,,,,,,,,,,,,,,,,,,0,0,0,0,0
3.0402,1783191162.1953,1,1,1.0000,0.0000,1.44680,0.20050,-2.78555,1.01422,1.57079,0.00003,-0.14512,-0.38001,0.03815,,,,,,,,,,,,,,,,,,,,,,,,,,0,0,0,0,0
3.0556,1783191162.2106,1,1,1.0000,0.0000,1.44680,0.20010,-2.78564,1.01471,1.57079,0.00003,-0.14512,-0.38001,0.03805,,,,,,,,,,,,,,,,,,,,,,,,,,0,0,0,0,0
3.0610,1783191162.2161,1,1,1.0000,0.0000,1.44680,0.20008,-2.78565,1.01473,1.57079,0.00003,-0.14512,-0.38001,0.03805,,,,,,,,,,,,,,,,,,,,,,,,,,0,0,0,0,0
3.0613,1783191162.2163,1,1,1.0000,0.0000,1.44680,0.20008,-2.78565,1.01473,1.57079,0.00003,-0.14512,-0.38001,0.03805,,,,,,,,,,,,,,,,,,,,,,,,,,0,0,0,0,0
3.0758,1783191162.2309,1,1,1.0000,0.0000,1.44680,0.19988,-2.78570,1.01498,1.57079,0.00003,-0.14512,-0.38001,0.03800,,,,,,,,,,,,,,,,,,,,,,,,,,0,0,0,0,0
3.0823,1783191162.2373,1,1,1.0000,0.0000,1.44680,0.19970,-2.78574,1.01520,1.57079,0.00003,-0.14512,-0.38001,0.03795,,,,,,,,,,,,,,,,,,,,,,,,,,0,0,0,0,0
3.0948,1783191162.2499,1,1,1.0000,0.0000,1.44680,0.19962,-2.78576,1.01530,1.57079,0.00003,-0.14512,-0.38001,0.03793,,,,,,,,,,,,,,,,,,,,,,,,,,0,0,0,0,0
3.1037,1783191162.2587,1,1,1.0000,0.0000,1.44680,0.19944,-2.78580,1.01552,1.57079,0.00003,-0.14512,-0.38001,0.03789,,,,,,,,,,,,,,,,,,,,,,,,,,0,0,0,0,0
3.1122,1783191162.2672,1,1,1.0000,0.0000,1.44680,0.19923,-2.78585,1.01578,1.57079,0.00003,-0.14512,-0.38001,0.03783,,,,,,,,,,,,,,,,,,,,,,,,,,0,0,0,0,0
3.1131,1783191162.2682,1,1,1.0000,0.0000,1.44680,0.19914,-2.78587,1.01589,1.57079,0.00003,-0.14512,-0.38001,0.03781,,,,,,,,,,,,,,,,,,,,,,,,,,0,0,0,0,0
3.1212,1783191162.2763,1,1,1.0000,0.0000,1.44680,0.19912,-2.78587,1.01591,1.57079,0.00003,-0.14512,-0.38001,0.03781,,,,,,,,,,,,,,,,,,,,,,,,,,0,0,0,0,0
3.1217,1783191162.2767,1,1,1.0000,0.0000,1.44680,0.19912,-2.78587,1.01591,1.57079,0.00003,-0.14512,-0.38001,0.03781,,,,,,,,,,,,,,,,,,,,,,,,,,0,0,0,0,0
3.1313,1783191162.2863,1,1,1.0000,0.0000,1.44680,0.19901,-2.78590,1.01606,1.57079,0.00003,-0.14512,-0.38001,0.03778,,,,,,,,,,,,,,,,,,,,,,,,,,0,0,0,0,0
3.1400,1783191162.2951,1,1,1.0000,0.0000,1.44680,0.19883,-2.78594,1.01627,1.57079,0.00003,-0.14512,-0.38001,0.03774,,,,,,,,,,,,,,,,,,,,,,,,,,0,0,0,0,0
3.1537,1783191162.3088,1,1,1.0000,0.0000,1.44680,0.19866,-2.78598,1.01648,1.57079,0.00003,-0.14512,-0.38001,0.03769,,,,,,,,,,,,,,,,,,,,,,,,,,0,0,0,0,0
3.1540,1783191162.3090,1,1,1.0000,0.0000,1.44680,0.19866,-2.78598,1.01648,1.57079,0.00003,-0.14512,-0.38001,0.03769,,,,,,,,,,,,,,,,,,,,,,,,,,0,0,0,0,0
3.1604,1783191162.3154,1,1,1.0000,0.0000,1.44680,0.19858,-2.78600,1.01658,1.57079,0.00003,-0.14512,-0.38001,0.03767,,,,,,,,,,,,,,,,,,,,,,,,,,0,0,0,0,0
3.1784,1783191162.3334,1,1,1.0000,0.0000,1.44680,0.19818,-2.78609,1.01707,1.57079,0.00003,-0.14512,-0.38001,0.03757,,,,,,,,,,,,,,,,,,,,,,,,,,0,0,0,0,0
3.1802,1783191162.3352,1,1,1.0000,0.0000,1.44680,0.19818,-2.78609,1.01707,1.57079,0.00003,-0.14512,-0.38001,0.03757,,,,,,,,,,,,,,,,,,,,,,,,,,0,0,0,0,0
3.1906,1783191162.3457,1,1,1.0000,0.0000,1.44680,0.19805,-2.78612,1.01724,1.57079,0.00003,-0.14512,-0.38001,0.03754,,,,,,,,,,,,,,,,,,,,,,,,,,0,0,0,0,0
3.2006,1783191162.3556,1,1,1.0000,0.0000,1.44680,0.19787,-2.78617,1.01746,1.57079,0.00003,-0.14512,-0.38001,0.03750,,,,,,,,,,,,,,,,,,,,,,,,,,0,0,0,0,0
3.2102,1783191162.3652,1,1,1.0000,0.0000,1.44680,0.19776,-2.78619,1.01759,1.57079,0.00003,-0.14512,-0.38001,0.03747,,,,,,,,,,,,,,,,,,,,,,,,,,0,0,0,0,0
3.2239,1783191162.3790,1,1,1.0000,0.0000,1.44680,0.19752,-2.78625,1.01789,1.57079,0.00003,-0.14512,-0.38001,0.03741,,,,,,,,,,,,,,,,,,,,,,,,,,0,0,0,0,0
3.2341,1783191162.3892,1,1,1.0000,0.0000,1.44680,0.19722,-2.78632,1.01826,1.57079,0.00003,-0.14512,-0.38001,0.03733,,,,,,,,,,,,,,,,,,,,,,,,,,0,0,0,0,0
3.2450,1783191162.4000,1,1,1.0000,0.0000,1.44680,0.19715,-2.78633,1.01834,1.57079,0.00003,-0.14512,-0.38001,0.03732,,,,,,,,,,,,,,,,,,,,,,,,,,0,0,0,0,0
3.2571,1783191162.4122,1,1,1.0000,0.0000,1.44680,0.19691,-2.78639,1.01864,1.57079,0.00003,-0.14512,-0.38001,0.03726,,,,,,,,,,,,,,,,,,,,,,,,,,0,0,0,0,0
3.2575,1783191162.4125,1,1,1.0000,0.0000,1.44680,0.19691,-2.78639,1.01864,1.57079,0.00003,-0.14512,-0.38001,0.03726,,,,,,,,,,,,,,,,,,,,,,,,,,0,0,0,0,0
3.2637,1783191162.4188,1,1,1.0000,0.0000,1.44680,0.19682,-2.78641,1.01875,1.57079,0.00003,-0.14512,-0.38001,0.03723,,,,,,,,,,,,,,,,,,,,,,,,,,0,0,0,0,0
3.2642,1783191162.4193,1,1,1.0000,0.0000,1.44680,0.19682,-2.78641,1.01875,1.57079,0.00003,-0.14512,-0.38001,0.03723,,,,,,,,,,,,,,,,,,,,,,,,,,0,0,0,0,0
3.2869,1783191162.4420,1,1,1.0000,0.0000,1.44679,0.19645,-2.78650,1.01921,1.57079,0.00003,-0.14512,-0.38001,0.03714,,,,,,,,,,,,,,,,,,,,,,,,,,0,0,0,0,0
3.2914,1783191162.4465,1,1,1.0000,0.0000,1.44679,0.19635,-2.78652,1.01934,1.57079,0.00003,-0.14512,-0.38001,0.03712,,,,,,,,,,,,,,,,,,,,,,,,,,0,0,0,0,0
3.2918,1783191162.4469,1,1,1.0000,0.0000,1.44679,0.19635,-2.78652,1.01934,1.57079,0.00003,-0.14512,-0.38001,0.03712,,,,,,,,,,,,,,,,,,,,,,,,,,0,0,0,0,0
3.2963,1783191162.4514,1,1,1.0000,0.0000,1.44679,0.19626,-2.78654,1.01944,1.57079,0.00003,-0.14512,-0.38001,0.03710,,,,,,,,,,,,,,,,,,,,,,,,,,0,0,0,0,0
3.3084,1783191162.4635,1,1,1.0000,0.0000,1.44679,0.19619,-2.78655,1.01952,1.57079,0.00003,-0.14512,-0.38001,0.03708,,,,,,,,,,,,,,,,,,,,,,,,,,0,0,0,0,0
3.3136,1783191162.4687,1,1,1.0000,0.0000,1.44679,0.19604,-2.78659,1.01972,1.57079,0.00003,-0.14512,-0.38001,0.03704,,,,,,,,,,,,,,,,,,,,,,,,,,0,0,0,0,0
3.3139,1783191162.4690,1,1,1.0000,0.0000,1.44679,0.19604,-2.78659,1.01972,1.57079,0.00003,-0.14512,-0.38001,0.03704,,,,,,,,,,,,,,,,,,,,,,,,,,0,0,0,0,0
3.3250,1783191162.4800,1,1,1.0000,0.0000,1.44679,0.19586,-2.78663,1.01994,1.57079,0.00003,-0.14511,-0.38001,0.03700,,,,,,,,,,,,,,,,,,,,,,,,,,0,0,0,0,0
3.3358,1783191162.4909,1,1,1.0000,0.0000,1.44679,0.19578,-2.78665,1.02004,1.57079,0.00003,-0.14511,-0.38001,0.03698,,,,,,,,,,,,,,,,,,,,,,,,,,0,0,0,0,0
3.3363,1783191162.4913,1,1,1.0000,0.0000,1.44679,0.19578,-2.78665,1.02004,1.57079,0.00003,-0.14511,-0.38001,0.03698,,,,,,,,,,,,,,,,,,,,,,,,,,0,0,0,0,0
3.3371,1783191162.4922,1,1,1.0000,0.0000,1.44679,0.19569,-2.78667,1.02014,1.57079,0.00003,-0.14511,-0.38001,0.03696,,,,,,,,,,,,,,,,,,,,,,,,,,0,0,0,0,0
3.3435,1783191162.4986,1,1,1.0000,0.0000,1.44679,0.19559,-2.78669,1.02026,1.57079,0.00003,-0.14511,-0.38001,0.03693,,,,,,,,,,,,,,,,,,,,,,,,,,0,0,0,0,0
3.3439,1783191162.4990,1,1,1.0000,0.0000,1.44679,0.19559,-2.78669,1.02026,1.57079,0.00003,-0.14511,-0.38001,0.03693,,,,,,,,,,,,,,,,,,,,,,,,,,0,0,0,0,0
3.3539,1783191162.5090,1,1,1.0000,0.0000,1.44679,0.19529,-2.78676,1.02063,1.57079,0.00003,-0.14511,-0.38001,0.03686,,,,,,,,,,,,,,,,,,,,,,,,,,0,0,0,0,0
3.3639,1783191162.5190,1,1,1.0000,0.0000,1.44679,0.19528,-2.78677,1.02065,1.57079,0.00003,-0.14511,-0.38001,0.03685,,,,,,,,,,,,,,,,,,,,,,,,,,0,0,0,0,0
3.3842,1783191162.5393,1,1,1.0000,0.0000,1.44679,0.19489,-2.78686,1.02113,1.57079,0.00003,-0.14511,-0.38001,0.03676,,,,,,,,,,,,,,,,,,,,,,,,,,0,0,0,0,0
3.3846,1783191162.5396,1,1,1.0000,0.0000,1.44679,0.19489,-2.78686,1.02113,1.57079,0.00003,-0.14511,-0.38001,0.03676,,,,,,,,,,,,,,,,,,,,,,,,,,0,0,0,0,0
3.3850,1783191162.5401,1,1,1.0000,0.0000,1.44679,0.19481,-2.78687,1.02123,1.57079,0.00003,-0.14511,-0.38001,0.03674,,,,,,,,,,,,,,,,,,,,,,,,,,0,0,0,0,0
3.3937,1783191162.5487,1,1,1.0000,0.0000,1.44679,0.19479,-2.78688,1.02125,1.57079,0.00003,-0.14511,-0.38001,0.03673,,,,,,,,,,,,,,,,,,,,,,,,,,0,0,0,0,0
3.3939,1783191162.5490,1,1,1.0000,0.0000,1.44679,0.19479,-2.78688,1.02125,1.57079,0.00003,-0.14511,-0.38001,0.03673,,,,,,,,,,,,,,,,,,,,,,,,,,0,0,0,0,0
3.4039,1783191162.5590,1,1,1.0000,0.0000,1.44679,0.19467,-2.78691,1.02139,1.57079,0.00003,-0.14511,-0.38001,0.03670,,,,,,,,,,,,,,,,,,,,,,,,,,0,0,0,0,0
3.4138,1783191162.5689,1,1,1.0000,0.0000,1.44679,0.19441,-2.78697,1.02172,1.57079,0.00003,-0.14511,-0.38001,0.03664,,,,,,,,,,,,,,,,,,,,,,,,,,0,0,0,0,0
3.4261,1783191162.5812,1,1,1.0000,0.0000,1.44679,0.19433,-2.78698,1.02182,1.57079,0.00003,-0.14511,-0.38001,0.03662,,,,,,,,,,,,,,,,,,,,,,,,,,0,0,0,0,0
3.4386,1783191162.5936,1,1,1.0000,0.0000,1.44679,0.19404,-2.78705,1.02218,1.57079,0.00003,-0.14511,-0.38001,0.03655,,,,,,,,,,,,,,,,,,,,,,,,,,0,0,0,0,0
3.4441,1783191162.5992,1,1,1.0000,0.0000,1.44679,0.19393,-2.78708,1.02230,1.57079,0.00003,-0.14511,-0.38001,0.03652,,,,,,,,,,,,,,,,,,,,,,,,,,0,0,0,0,0
3.4555,1783191162.6105,1,1,1.0000,0.0000,1.44679,0.19383,-2.78710,1.02243,1.57079,0.00003,-0.14511,-0.38001,0.03649,,,,,,,,,,,,,,,,,,,,,,,,,,0,0,0,0,0
3.4643,1783191162.6194,1,1,1.0000,0.0000,1.44679,0.19371,-2.78713,1.02258,1.57079,0.00003,-0.14511,-0.38001,0.03646,,,,,,,,,,,,,,,,,,,,,,,,,,0,0,0,0,0
3.4743,1783191162.6294,1,1,1.0000,0.0000,1.44679,0.19344,-2.78719,1.02291,1.57079,0.00003,-0.14511,-0.38001,0.03640,,,,,,,,,,,,,,,,,,,,,,,,,,0,0,0,0,0
3.4859,1783191162.6409,1,1,1.0000,0.0000,1.44679,0.19336,-2.78721,1.02301,1.57079,0.00003,-0.14511,-0.38001,0.03638,,,,,,,,,,,,,,,,,,,,,,,,,,0,0,0,0,0
3.4963,1783191162.6513,1,1,1.0000,0.0000,1.44679,0.19318,-2.78725,1.02323,1.57079,0.00003,-0.14511,-0.38001,0.03633,,,,,,,,,,,,,,,,,,,,,,,,,,0,0,0,0,0
3.5049,1783191162.6600,1,1,1.0000,0.0000,1.44679,0.19288,-2.78732,1.02360,1.57079,0.00003,-0.14511,-0.38001,0.03626,,,,,,,,,,,,,,,,,,,,,,,,,,0,0,0,0,0
3.5138,1783191162.6689,1,1,1.0000,0.0000,1.44679,0.19286,-2.78732,1.02362,1.57079,0.00003,-0.14511,-0.38001,0.03625,,,,,,,,,,,,,,,,,,,,,,,,,,0,0,0,0,0
3.5283,1783191162.6834,1,1,1.0000,0.0000,1.44679,0.19266,-2.78737,1.02387,1.57079,0.00003,-0.14511,-0.38001,0.03620,,,,,,,,,,,,,,,,,,,,,,,,,,0,0,0,0,0
3.5344,1783191162.6894,1,1,1.0000,0.0000,1.44679,0.19247,-2.78741,1.02410,1.57079,0.00003,-0.14511,-0.38001,0.03616,,,,,,,,,,,,,,,,,,,,,,,,,,0,0,0,0,0
3.5451,1783191162.7002,1,1,1.0000,0.0000,1.44679,0.19239,-2.78743,1.02420,1.57079,0.00003,-0.14511,-0.38001,0.03614,,,,,,,,,,,,,,,,,,,,,,,,,,0,0,0,0,0
3.5455,1783191162.7005,1,1,1.0000,0.0000,1.44679,0.19239,-2.78743,1.02420,1.57079,0.00003,-0.14511,-0.38001,0.03614,,,,,,,,,,,,,,,,,,,,,,,,,,0,0,0,0,0
3.5551,1783191162.7102,1,1,1.0000,0.0000,1.44679,0.19221,-2.78747,1.02442,1.57079,0.00003,-0.14511,-0.38001,0.03609,,,,,,,,,,,,,,,,,,,,,,,,,,0,0,0,0,0
3.5669,1783191162.7219,1,1,1.0000,0.0000,1.44679,0.19191,-2.78754,1.02479,1.57079,0.00003,-0.14511,-0.38001,0.03602,,,,,,,,,,,,,,,,,,,,,,,,,,0,0,0,0,0
3.5742,1783191162.7293,1,1,1.0000,0.0000,1.44679,0.19189,-2.78754,1.02481,1.57079,0.00003,-0.14511,-0.38001,0.03602,,,,,,,,,,,,,,,,,,,,,,,,,,0,0,0,0,0
3.5876,1783191162.7427,1,1,1.0000,0.0000,1.44679,0.19169,-2.78759,1.02506,1.57079,0.00003,-0.14511,-0.38001,0.03597,,,,,,,,,,,,,,,,,,,,,,,,,,0,0,0,0,0
3.5942,1783191162.7492,1,1,1.0000,0.0000,1.44679,0.19151,-2.78763,1.02529,1.57079,0.00003,-0.14511,-0.38001,0.03592,,,,,,,,,,,,,,,,,,,,,,,,,,0,0,0,0,0
3.6083,1783191162.7633,1,1,1.0000,0.0000,1.44679,0.19143,-2.78765,1.02539,1.57079,0.00003,-0.14511,-0.38001,0.03590,,,,,,,,,,,,,,,,,,,,,,,,,,0,0,0,0,0
3.6138,1783191162.7689,1,1,1.0000,0.0000,1.44679,0.19124,-2.78769,1.02561,1.57079,0.00003,-0.14511,-0.38001,0.03586,,,,,,,,,,,,,,,,,,,,,,,,,,0,0,0,0,0
3.6245,1783191162.7796,1,1,1.0000,0.0000,1.44679,0.19103,-2.78774,1.02587,1.57079,0.00003,-0.14511,-0.38001,0.03580,,,,,,,,,,,,,,,,,,,,,,,,,,0,0,0,0,0
3.6359,1783191162.7910,1,1,1.0000,0.0000,1.44679,0.19092,-2.78777,1.02600,1.57079,0.00003,-0.14511,-0.38001,0.03578,,,,,,,,,,,,,,,,,,,,,,,,,,0,0,0,0,0
3.6443,1783191162.7994,1,1,1.0000,0.0000,1.44679,0.19080,-2.78779,1.02615,1.57079,0.00003,-0.14511,-0.38001,0.03575,,,,,,,,,,,,,,,,,,,,,,,,,,0,0,0,0,0
3.6555,1783191162.8106,1,1,1.0000,0.0000,1.44679,0.19054,-2.78785,1.02648,1.57079,0.00003,-0.14511,-0.38001,0.03568,,,,,,,,,,,,,,,,,,,,,,,,,,0,0,0,0,0
3.6703,1783191162.8253,1,1,1.0000,0.0000,1.44679,0.19037,-2.78789,1.02668,1.57079,0.00003,-0.14511,-0.38001,0.03564,,,,,,,,,,,,,,,,,,,,,,,,,,0,0,0,0,0
3.6742,1783191162.8292,1,1,1.0000,0.0000,1.44679,0.19027,-2.78791,1.02681,1.57079,0.00003,-0.14511,-0.38001,0.03562,,,,,,,,,,,,,,,,,,,,,,,,,,0,0,0,0,0
3.6895,1783191162.8446,1,1,1.0000,0.0000,1.44679,0.18997,-2.78798,1.02717,1.57079,0.00003,-0.14511,-0.38001,0.03554,,,,,,,,,,,,,,,,,,,,,,,,,,0,0,0,0,0
3.6943,1783191162.8493,1,1,1.0000,0.0000,1.44679,0.18995,-2.78799,1.02719,1.57079,0.00003,-0.14511,-0.38001,0.03554,,,,,,,,,,,,,,,,,,,,,,,,,,0,0,0,0,0
3.7039,1783191162.8590,1,1,1.0000,0.0000,1.44679,0.18983,-2.78801,1.02734,1.57079,0.00003,-0.14511,-0.38001,0.03551,,,,,,,,,,,,,,,,,,,,,,,,,,0,0,0,0,0
3.7147,1783191162.8698,1,1,1.0000,0.0000,1.44679,0.18956,-2.78807,1.02767,1.57079,0.00003,-0.14511,-0.38001,0.03544,,,,,,,,,,,,,,,,,,,,,,,,,,0,0,0,0,0
3.7237,1783191162.8788,1,1,1.0000,0.0000,1.44679,0.18954,-2.78808,1.02770,1.57079,0.00003,-0.14511,-0.38001,0.03544,,,,,,,,,,,,,,,,,,,,,,,,,,0,0,0,0,0
3.7356,1783191162.8906,1,1,1.0000,0.0000,1.44679,0.18930,-2.78813,1.02800,1.57079,0.00003,-0.14511,-0.38001,0.03538,,,,,,,,,,,,,,,,,,,,,,,,,,0,0,0,0,0
3.7452,1783191162.9003,1,1,1.0000,0.0000,1.44679,0.18900,-2.78820,1.02837,1.57079,0.00003,-0.14511,-0.38001,0.03530,,,,,,,,,,,,,,,,,,,,,,,,,,0,0,0,0,0
3.7455,1783191162.9006,1,1,1.0000,0.0000,1.44679,0.18900,-2.78820,1.02837,1.57079,0.00003,-0.14511,-0.38001,0.03530,,,,,,,,,,,,,,,,,,,,,,,,,,0,0,0,0,0
3.7538,1783191162.9089,1,1,1.0000,0.0000,1.44679,0.18898,-2.78821,1.02839,1.57079,0.00003,-0.14511,-0.38001,0.03530,,,,,,,,,,,,,,,,,,,,,,,,,,0,0,0,0,0
3.7760,1783191162.9311,1,1,1.0000,0.0000,1.44679,0.18859,-2.78829,1.02886,1.57079,0.00003,-0.14511,-0.38001,0.03520,,,,,,,,,,,,,,,,,,,,,,,,,,0,0,0,0,0
3.7763,1783191162.9314,1,1,1.0000,0.0000,1.44679,0.18859,-2.78829,1.02886,1.57079,0.00003,-0.14511,-0.38001,0.03520,,,,,,,,,,,,,,,,,,,,,,,,,,0,0,0,0,0
3.7769,1783191162.9320,1,1,1.0000,0.0000,1.44679,0.18859,-2.78829,1.02886,1.57079,0.00003,-0.14511,-0.38001,0.03520,,,,,,,,,,,,,,,,,,,,,,,,,,0,0,0,0,0
3.7953,1783191162.9504,1,1,1.0000,0.0000,1.44679,0.18832,-2.78835,1.02919,1.57079,0.00003,-0.14511,-0.38001,0.03514,,,,,,,,,,,,,,,,,,,,,,,,,,0,0,0,0,0
3.7957,1783191162.9508,1,1,1.0000,0.0000,1.44679,0.18832,-2.78835,1.02919,1.57079,0.00003,-0.14511,-0.38001,0.03514,,,,,,,,,,,,,,,,,,,,,,,,,,0,0,0,0,0
3.7961,1783191162.9512,1,1,1.0000,0.0000,1.44679,0.18832,-2.78835,1.02919,1.57079,0.00003,-0.14511,-0.38001,0.03514,,,,,,,,,,,,,,,,,,,,,,,,,,0,0,0,0,0
3.8053,1783191162.9604,1,1,1.0000,0.0000,1.44679,0.18802,-2.78842,1.02956,1.57079,0.00004,-0.14511,-0.38001,0.03506,,,,,,,,,,,,,,,,,,,,,,,,,,0,0,0,0,0
3.8058,1783191162.9608,1,1,1.0000,0.0000,1.44679,0.18802,-2.78842,1.02956,1.57079,0.00004,-0.14511,-0.38001,0.03506,,,,,,,,,,,,,,,,,,,,,,,,,,0,0,0,0,0
3.8152,1783191162.9703,1,1,1.0000,0.0000,1.44679,0.18801,-2.78843,1.02958,1.57079,0.00004,-0.14511,-0.38001,0.03506,,,,,,,,,,,,,,,,,,,,,,,,,,0,0,0,0,0
3.8157,1783191162.9707,1,1,1.0000,0.0000,1.44679,0.18801,-2.78843,1.02958,1.57079,0.00004,-0.14511,-0.38001,0.03506,,,,,,,,,,,,,,,,,,,,,,,,,,0,0,0,0,0
3.8252,1783191162.9803,1,1,1.0000,0.0000,1.44679,0.18780,-2.78847,1.02983,1.57079,0.00004,-0.14511,-0.38001,0.03501,,,,,,,,,,,,,,,,,,,,,,,,,,0,0,0,0,0
3.8400,1783191162.9951,1,1,1.0000,0.0000,1.44679,0.18762,-2.78851,1.03006,1.57079,0.00004,-0.14511,-0.38001,0.03496,,,,,,,,,,,,,,,,,,,,,,,,,,0,0,0,0,0
3.8403,1783191162.9954,1,1,1.0000,0.0000,1.44679,0.18762,-2.78851,1.03006,1.57079,0.00004,-0.14511,-0.38001,0.03496,,,,,,,,,,,,,,,,,,,,,,,,,,0,0,0,0,0
3.8478,1783191163.0029,1,1,1.0000,0.0000,1.44679,0.18754,-2.78853,1.03016,1.57079,0.00004,-0.14511,-0.38001,0.03495,,,,,,,,,,,,,,,,,,,,,,,,,,0,0,0,0,0
3.8482,1783191163.0033,1,1,1.0000,0.0000,1.44679,0.18754,-2.78853,1.03016,1.57079,0.00004,-0.14511,-0.38001,0.03495,,,,,,,,,,,,,,,,,,,,,,,,,,0,0,0,0,0
3.8558,1783191163.0109,1,1,1.0000,0.0000,1.44679,0.18735,-2.78857,1.03039,1.57079,0.00004,-0.14511,-0.38001,0.03490,,,,,,,,,,,,,,,,,,,,,,,,,,0,0,0,0,0
3.8562,1783191163.0112,1,1,1.0000,0.0000,1.44679,0.18735,-2.78857,1.03039,1.57079,0.00004,-0.14511,-0.38001,0.03490,,,,,,,,,,,,,,,,,,,,,,,,,,0,0,0,0,0
3.8642,1783191163.0192,1,1,1.0000,0.0000,1.44679,0.18714,-2.78862,1.03064,1.57079,0.00004,-0.14511,-0.38001,0.03485,,,,,,,,,,,,,,,,,,,,,,,,,,0,0,0,0,0
3.8644,1783191163.0195,1,1,1.0000,0.0000,1.44679,0.18714,-2.78862,1.03064,1.57079,0.00004,-0.14511,-0.38001,0.03485,,,,,,,,,,,,,,,,,,,,,,,,,,0,0,0,0,0
3.8757,1783191163.0308,1,1,1.0000,0.0000,1.44679,0.18703,-2.78865,1.03078,1.57079,0.00004,-0.14511,-0.38001,0.03482,,,,,,,,,,,,,,,,,,,,,,,,,,0,0,0,0,0
3.8875,1783191163.0425,1,1,1.0000,0.0000,1.44679,0.18683,-2.78869,1.03103,1.57079,0.00004,-0.14511,-0.38001,0.03477,,,,,,,,,,,,,,,,,,,,,,,,,,0,0,0,0,0
3.8970,1783191163.0521,1,1,1.0000,0.0000,1.44679,0.18664,-2.78873,1.03125,1.57079,0.00004,-0.14511,-0.38001,0.03473,,,,,,,,,,,,,,,,,,,,,,,,,,0,0,0,0,0
3.9074,1783191163.0624,1,1,1.0000,0.0000,1.44679,0.18656,-2.78875,1.03135,1.57079,0.00004,-0.14511,-0.38001,0.03471,,,,,,,,,,,,,,,,,,,,,,,,,,0,0,0,0,0
3.9138,1783191163.0689,1,1,1.0000,0.0000,1.44679,0.18637,-2.78879,1.03158,1.57079,0.00004,-0.14511,-0.38001,0.03466,,,,,,,,,,,,,,,,,,,,,,,,,,0,0,0,0,0
3.9238,1783191163.0789,1,1,1.0000,0.0000,1.44679,0.18616,-2.78884,1.03184,1.57079,0.00004,-0.14511,-0.38001,0.03461,,,,,,,,,,,,,,,,,,,,,,,,,,0,0,0,0,0
3.9370,1783191163.0921,1,1,1.0000,0.0000,1.44679,0.18601,-2.78888,1.03203,1.57079,0.00004,-0.14511,-0.38001,0.03457,,,,,,,,,,,,,,,,,,,,,,,,,,0,0,0,0,0
3.9373,1783191163.0924,1,1,1.0000,0.0000,1.44679,0.18601,-2.78888,1.03203,1.57079,0.00004,-0.14511,-0.38001,0.03457,,,,,,,,,,,,,,,,,,,,,,,,,,0,0,0,0,0
3.9450,1783191163.1001,1,1,1.0000,0.0000,1.44679,0.18585,-2.78891,1.03222,1.57079,0.00004,-0.14511,-0.38001,0.03453,,,,,,,,,,,,,,,,,,,,,,,,,,0,0,0,0,0
3.9454,1783191163.1005,1,1,1.0000,0.0000,1.44679,0.18585,-2.78891,1.03222,1.57079,0.00004,-0.14511,-0.38001,0.03453,,,,,,,,,,,,,,,,,,,,,,,,,,0,0,0,0,0
3.9560,1783191163.1110,1,1,1.0000,0.0000,1.44679,0.18567,-2.78895,1.03245,1.57079,0.00004,-0.14511,-0.38001,0.03449,,,,,,,,,,,,,,,,,,,,,,,,,,0,0,0,0,0
3.9683,1783191163.1233,1,1,1.0000,0.0000,1.44679,0.18558,-2.78897,1.03255,1.57079,0.00004,-0.14511,-0.38001,0.03447,,,,,,,,,,,,,,,,,,,,,,,,,,0,0,0,0,0
3.9759,1783191163.1310,1,1,1.0000,0.0000,1.44679,0.18540,-2.78901,1.03278,1.57079,0.00004,-0.14511,-0.38001,0.03442,,,,,,,,,,,,,,,,,,,,,,,,,,0,0,0,0,0
3.9984,1783191163.1534,1,1,1.0000,0.0000,1.44679,0.18503,-2.78910,1.03323,1.57079,0.00004,-0.14511,-0.38001,0.03433,,,,,,,,,,,,,,,,,,,,,,,,,,0,0,0,0,0
3.9986,1783191163.1537,1,1,1.0000,0.0000,1.44679,0.18503,-2.78910,1.03323,1.57079,0.00004,-0.14511,-0.38001,0.03433,,,,,,,,,,,,,,,,,,,,,,,,,,0,0,0,0,0
4.0081,1783191163.1632,1,1,1.0000,0.0000,1.44679,0.18487,-2.78913,1.03342,1.57079,0.00004,-0.14511,-0.38001,0.03429,,,,,,,,,,,,,,,,,,,,,,,,,,0,0,0,0,0
4.0190,1783191163.1741,1,1,1.0000,0.0000,1.44679,0.18469,-2.78917,1.03364,1.57079,0.00004,-0.14511,-0.38001,0.03425,,,,,,,,,,,,,,,,,,,,,,,,,,0,0,0,0,0
4.0253,1783191163.1804,1,1,1.0000,0.0000,1.44679,0.18461,-2.78919,1.03374,1.57079,0.00004,-0.14511,-0.38001,0.03423,,,,,,,,,,,,,,,,,,,,,,,,,,0,0,0,0,0
4.0343,1783191163.1893,1,1,1.0000,0.0000,1.44679,0.18442,-2.78923,1.03397,1.57079,0.00004,-0.14511,-0.38001,0.03418,,,,,,,,,,,,,,,,,,,,,,,,,,0,0,0,0,0
4.0464,1783191163.2015,1,1,1.0000,0.0000,1.44679,0.18412,-2.78930,1.03434,1.57079,0.00004,-0.14511,-0.38001,0.03411,,,,,,,,,,,,,,,,,,,,,,,,,,0,0,0,0,0
4.0579,1783191163.2130,1,1,1.0000,0.0000,1.44679,0.18405,-2.78932,1.03442,1.57079,0.00004,-0.14511,-0.38001,0.03409,,,,,,,,,,,,,,,,,,,,,,,,,,0,0,0,0,0
4.0635,1783191163.2186,1,1,1.0000,0.0000,1.44679,0.18398,-2.78933,1.03451,1.57079,0.00004,-0.14511,-0.38001,0.03407,,,,,,,,,,,,,,,,,,,,,,,,,,0,0,0,0,0
4.0638,1783191163.2189,1,1,1.0000,0.0000,1.44679,0.18398,-2.78933,1.03451,1.57079,0.00004,-0.14511,-0.38001,0.03407,,,,,,,,,,,,,,,,,,,,,,,,,,0,0,0,0,0
4.0757,1783191163.2308,1,1,1.0000,0.0000,1.44679,0.18371,-2.78939,1.03484,1.57079,0.00004,-0.14511,-0.38001,0.03401,,,,,,,,,,,,,,,,,,,,,,,,,,0,0,0,0,0
4.0837,1783191163.2388,1,1,1.0000,0.0000,1.44679,0.18369,-2.78940,1.03487,1.57079,0.00004,-0.14511,-0.38001,0.03400,,,,,,,,,,,,,,,,,,,,,,,,,,0,0,0,0,0
4.0840,1783191163.2391,1,1,1.0000,0.0000,1.44679,0.18369,-2.78940,1.03487,1.57079,0.00004,-0.14511,-0.38001,0.03400,,,,,,,,,,,,,,,,,,,,,,,,,,0,0,0,0,0
4.1001,1783191163.2551,1,1,1.0000,0.0000,1.44679,0.18333,-2.78948,1.03530,1.57079,0.00004,-0.14511,-0.38001,0.03392,,,,,,,,,,,,,,,,,,,,,,,,,,0,0,0,0,0
4.1065,1783191163.2615,1,1,1.0000,0.0000,1.44679,0.18314,-2.78952,1.03554,1.57079,0.00004,-0.14511,-0.38001,0.03387,,,,,,,,,,,,,,,,,,,,,,,,,,0,0,0,0,0
4.1135,1783191163.2686,1,1,1.0000,0.0000,1.44679,0.18312,-2.78952,1.03556,1.57079,0.00004,-0.14511,-0.38001,0.03387,,,,,,,,,,,,,,,,,,,,,,,,,,0,0,0,0,0
4.1139,1783191163.2690,1,1,1.0000,0.0000,1.44679,0.18312,-2.78952,1.03556,1.57079,0.00004,-0.14511,-0.38001,0.03387,,,,,,,,,,,,,,,,,,,,,,,,,,0,0,0,0,0
4.1277,1783191163.2827,1,1,1.0000,0.0000,1.44679,0.18291,-2.78957,1.03582,1.57079,0.00004,-0.14511,-0.38001,0.03382,,,,,,,,,,,,,,,,,,,,,,,,,,0,0,0,0,0
4.1365,1783191163.2916,1,1,1.0000,0.0000,1.44679,0.18273,-2.78961,1.03604,1.57079,0.00004,-0.14511,-0.38001,0.03377,,,,,,,,,,,,,,,,,,,,,,,,,,0,0,0,0,0
4.1370,1783191163.2921,1,1,1.0000,0.0000,1.44678,0.18265,-2.78963,1.03614,1.57079,0.00004,-0.14511,-0.38001,0.03375,,,,,,,,,,,,,,,,,,,,,,,,,,0,0,0,0,0
4.1445,1783191163.2996,1,1,1.0000,0.0000,1.44678,0.18265,-2.78963,1.03614,1.57079,0.00004,-0.14511,-0.38001,0.03375,,,,,,,,,,,,,,,,,,,,,,,,,,0,0,0,0,0
4.1581,1783191163.3132,1,1,1.0000,0.0000,1.44678,0.18242,-2.78968,1.03642,1.57079,0.00004,-0.14511,-0.38001,0.03370,,,,,,,,,,,,,,,,,,,,,,,,,,0,0,0,0,0
4.1646,1783191163.3196,1,1,1.0000,0.0000,1.44678,0.18233,-2.78970,1.03653,1.57079,0.00004,-0.14511,-0.38001,0.03367,,,,,,,,,,,,,,,,,,,,,,,,,,0,0,0,0,0
4.1771,1783191163.3321,1,1,1.0000,0.0000,1.44678,0.18216,-2.78974,1.03674,1.57079,0.00004,-0.14511,-0.38001,0.03363,,,,,,,,,,,,,,,,,,,,,,,,,,0,0,0,0,0
4.1839,1783191163.3390,1,1,1.0000,0.0000,1.44678,0.18207,-2.78976,1.03684,1.57079,0.00004,-0.14511,-0.38001,0.03361,,,,,,,,,,,,,,,,,,,,,,,,,,0,0,0,0,0
4.1844,1783191163.3395,1,1,1.0000,0.0000,1.44678,0.18207,-2.78976,1.03684,1.57079,0.00004,-0.14511,-0.38001,0.03361,,,,,,,,,,,,,,,,,,,,,,,,,,0,0,0,0,0
4.2067,1783191163.3618,1,1,1.0000,0.0000,1.44678,0.18165,-2.78985,1.03736,1.57079,0.00004,-0.14511,-0.38000,0.03351,,,,,,,,,,,,,,,,,,,,,,,,,,0,0,0,0,0
4.2073,1783191163.3624,1,1,1.0000,0.0000,1.44678,0.18165,-2.78985,1.03736,1.57079,0.00004,-0.14511,-0.38000,0.03351,,,,,,,,,,,,,,,,,,,,,,,,,,0,0,0,0,0
4.2076,1783191163.3627,1,1,1.0000,0.0000,1.44678,0.18165,-2.78985,1.03736,1.57079,0.00004,-0.14511,-0.38000,0.03351,,,,,,,,,,,,,,,,,,,,,,,,,,0,0,0,0,0
4.2182,1783191163.3733,1,1,1.0000,0.0000,1.44678,0.18144,-2.78990,1.03761,1.57079,0.00004,-0.14511,-0.38000,0.03346,,,,,,,,,,,,,,,,,,,,,,,,,,0,0,0,0,0
4.2185,1783191163.3736,1,1,1.0000,0.0000,1.44678,0.18144,-2.78990,1.03761,1.57079,0.00004,-0.14511,-0.38000,0.03346,,,,,,,,,,,,,,,,,,,,,,,,,,0,0,0,0,0
4.2236,1783191163.3787,1,1,1.0000,0.0000,1.44678,0.18135,-2.78992,1.03773,1.57079,0.00004,-0.14511,-0.38000,0.03343,,,,,,,,,,,,,,,,,,,,,,,,,,0,0,0,0,0
4.2238,1783191163.3789,1,1,1.0000,0.0000,1.44678,0.18135,-2.78992,1.03773,1.57079,0.00004,-0.14511,-0.38000,0.03343,,,,,,,,,,,,,,,,,,,,,,,,,,0,0,0,0,0
4.2341,1783191163.3892,1,1,1.0000,0.0000,1.44678,0.18123,-2.78994,1.03787,1.57079,0.00004,-0.14511,-0.38000,0.03341,,,,,,,,,,,,,,,,,,,,,,,,,,0,0,0,0,0
4.2474,1783191163.4025,1,1,1.0000,0.0000,1.44678,0.18098,-2.79000,1.03817,1.57079,0.00004,-0.14511,-0.38000,0.03335,,,,,,,,,,,,,,,,,,,,,,,,,,0,0,0,0,0
4.2478,1783191163.4028,1,1,1.0000,0.0000,1.44678,0.18098,-2.79000,1.03817,1.57079,0.00004,-0.14511,-0.38000,0.03335,,,,,,,,,,,,,,,,,,,,,,,,,,0,0,0,0,0
4.2604,1783191163.4155,1,1,1.0000,0.0000,1.44678,0.18068,-2.79006,1.03854,1.57079,0.00004,-0.14511,-0.38000,0.03327,,,,,,,,,,,,,,,,,,,,,,,,,,0,0,0,0,0
4.2612,1783191163.4163,1,1,1.0000,0.0000,1.44678,0.18068,-2.79006,1.03854,1.57079,0.00004,-0.14511,-0.38000,0.03327,,,,,,,,,,,,,,,,,,,,,,,,,,0,0,0,0,0
4.2689,1783191163.4240,1,1,1.0000,0.0000,1.44678,0.18061,-2.79008,1.03862,1.57079,0.00004,-0.14511,-0.38000,0.03326,,,,,,,,,,,,,,,,,,,,,,,,,,0,0,0,0,0
4.2817,1783191163.4367,1,1,1.0000,0.0000,1.44678,0.18036,-2.79013,1.03893,1.57079,0.00004,-0.14511,-0.38000,0.03320,,,,,,,,,,,,,,,,,,,,,,,,,,0,0,0,0,0
4.2882,1783191163.4433,1,1,1.0000,0.0000,1.44678,0.18027,-2.79015,1.03904,1.57079,0.00004,-0.14511,-0.38000,0.03317,,,,,,,,,,,,,,,,,,,,,,,,,,0,0,0,0,0
4.3042,1783191163.4593,1,1,1.0000,0.0000,1.44678,0.18010,-2.79019,1.03925,1.57079,0.00004,-0.14511,-0.38000,0.03313,,,,,,,,,,,,,,,,,,,,,,,,,,0,0,0,0,0
4.3155,1783191163.4706,1,1,1.0000,0.0000,1.44678,0.17979,-2.79026,1.03963,1.57079,0.00004,-0.14511,-0.38000,0.03306,,,,,,,,,,,,,,,,,,,,,,,,,,0,0,0,0,0
4.3221,1783191163.4772,1,1,1.0000,0.0000,1.44678,0.17970,-2.79028,1.03974,1.57079,0.00004,-0.14511,-0.38000,0.03303,,,,,,,,,,,,,,,,,,,,,,,,,,0,0,0,0,0
4.3225,1783191163.4776,1,1,1.0000,0.0000,1.44678,0.17970,-2.79028,1.03974,1.57079,0.00004,-0.14511,-0.38000,0.03303,,,,,,,,,,,,,,,,,,,,,,,,,,0,0,0,0,0
4.3320,1783191163.4871,1,1,1.0000,0.0000,1.44678,0.17963,-2.79030,1.03982,1.57079,0.00004,-0.14511,-0.38000,0.03302,,,,,,,,,,,,,,,,,,,,,,,,,,0,0,0,0,0
4.3324,1783191163.4874,1,1,1.0000,0.0000,1.44678,0.17963,-2.79030,1.03982,1.57079,0.00004,-0.14511,-0.38000,0.03302,,,,,,,,,,,,,,,,,,,,,,,,,,0,0,0,0,0
4.3413,1783191163.4964,1,1,1.0000,0.0000,1.44678,0.17938,-2.79035,1.04013,1.57079,0.00004,-0.14511,-0.38000,0.03296,,,,,,,,,,,,,,,,,,,,,,,,,,0,0,0,0,0
4.3485,1783191163.5036,1,1,1.0000,0.0000,1.44678,0.17929,-2.79037,1.04024,1.57079,0.00004,-0.14511,-0.38000,0.03293,,,,,,,,,,,,,,,,,,,,,,,,,,0,0,0,0,0
4.3492,1783191163.5043,1,1,1.0000,0.0000,1.44678,0.17929,-2.79037,1.04024,1.57079,0.00004,-0.14511,-0.38000,0.03293,,,,,,,,,,,,,,,,,,,,,,,,,,0,0,0,0,0
4.3599,1783191163.5149,1,1,1.0000,0.0000,1.44678,0.17920,-2.79039,1.04034,1.57079,0.00004,-0.14511,-0.38000,0.03291,,,,,,,,,,,,,,,,,,,,,,,,,,0,0,0,0,0
4.3677,1783191163.5228,1,1,1.0000,0.0000,1.44678,0.17902,-2.79043,1.04057,1.57079,0.00004,-0.14511,-0.38000,0.03287,,,,,,,,,,,,,,,,,,,,,,,,,,0,0,0,0,0
4.3836,1783191163.5387,1,1,1.0000,0.0000,1.44678,0.17871,-2.79050,1.04094,1.57079,0.00004,-0.14511,-0.38000,0.03279,,,,,,,,,,,,,,,,,,,,,,,,,,0,0,0,0,0
4.3882,1783191163.5432,1,1,1.0000,0.0000,1.44678,0.17869,-2.79050,1.04097,1.57079,0.00004,-0.14511,-0.38000,0.03279,,,,,,,,,,,,,,,,,,,,,,,,,,0,0,0,0,0
4.3994,1783191163.5545,1,1,1.0000,0.0000,1.44678,0.17849,-2.79055,1.04122,1.57079,0.00004,-0.14511,-0.38000,0.03274,,,,,,,,,,,,,,,,,,,,,,,,,,0,0,0,0,0
4.4128,1783191163.5679,1,1,1.0000,0.0000,1.44678,0.17828,-2.79059,1.04147,1.57079,0.00004,-0.14511,-0.38000,0.03269,,,,,,,,,,,,,,,,,,,,,,,,,,0,0,0,0,0
4.4185,1783191163.5736,1,1,1.0000,0.0000,1.44678,0.17822,-2.79061,1.04155,1.57079,0.00004,-0.14511,-0.38000,0.03268,,,,,,,,,,,,,,,,,,,,,,,,,,0,0,0,0,0
4.4277,1783191163.5828,1,1,1.0000,0.0000,1.44678,0.17803,-2.79065,1.04178,1.57079,0.00004,-0.14511,-0.38000,0.03263,,,,,,,,,,,,,,,,,,,,,,,,,,0,0,0,0,0
4.4386,1783191163.5936,1,1,1.0000,0.0000,1.44678,0.17772,-2.79071,1.04215,1.57079,0.00004,-0.14511,-0.38000,0.03256,,,,,,,,,,,,,,,,,,,,,,,,,,0,0,0,0,0
4.4494,1783191163.6045,1,1,1.0000,0.0000,1.44678,0.17766,-2.79073,1.04223,1.57079,0.00004,-0.14511,-0.38000,0.03254,,,,,,,,,,,,,,,,,,,,,,,,,,0,0,0,0,0
4.4622,1783191163.6172,1,1,1.0000,0.0000,1.44678,0.17740,-2.79078,1.04254,1.57079,0.00004,-0.14511,-0.38000,0.03248,,,,,,,,,,,,,,,,,,,,,,,,,,0,0,0,0,0
4.4683,1783191163.6234,1,1,1.0000,0.0000,1.44678,0.17731,-2.79080,1.04265,1.57079,0.00004,-0.14511,-0.38000,0.03246,,,,,,,,,,,,,,,,,,,,,,,,,,0,0,0,0,0
4.4790,1783191163.6341,1,1,1.0000,0.0000,1.44678,0.17723,-2.79082,1.04275,1.57079,0.00004,-0.14511,-0.38000,0.03244,,,,,,,,,,,,,,,,,,,,,,,,,,0,0,0,0,0
4.4794,1783191163.6345,1,1,1.0000,0.0000,1.44678,0.17723,-2.79082,1.04275,1.57079,0.00004,-0.14511,-0.38000,0.03244,,,,,,,,,,,,,,,,,,,,,,,,,,0,0,0,0,0
4.4876,1783191163.6426,1,1,1.0000,0.0000,1.44678,0.17704,-2.79086,1.04298,1.57079,0.00004,-0.14511,-0.38000,0.03239,,,,,,,,,,,,,,,,,,,,,,,,,,0,0,0,0,0
4.4880,1783191163.6431,1,1,1.0000,0.0000,1.44678,0.17704,-2.79086,1.04298,1.57079,0.00004,-0.14511,-0.38000,0.03239,,,,,,,,,,,,,,,,,,,,,,,,,,0,0,0,0,0
4.5106,1783191163.6657,1,1,1.0000,0.0000,1.44678,0.17667,-2.79094,1.04343,1.57079,0.00004,-0.14511,-0.38000,0.03230,,,,,,,,,,,,,,,,,,,,,,,,,,0,0,0,0,0
4.5111,1783191163.6661,1,1,1.0000,0.0000,1.44678,0.17667,-2.79094,1.04343,1.57079,0.00004,-0.14511,-0.38000,0.03230,,,,,,,,,,,,,,,,,,,,,,,,,,0,0,0,0,0
4.5200,1783191163.6751,1,1,1.0000,0.0000,1.44678,0.17651,-2.79098,1.04363,1.57079,0.00004,-0.14511,-0.38000,0.03226,,,,,,,,,,,,,,,,,,,,,,,,,,0,0,0,0,0
4.5205,1783191163.6756,1,1,1.0000,0.0000,1.44678,0.17651,-2.79098,1.04363,1.57079,0.00004,-0.14511,-0.38000,0.03226,,,,,,,,,,,,,,,,,,,,,,,,,,0,0,0,0,0
4.5294,1783191163.6845,1,1,1.0000,0.0000,1.44678,0.17632,-2.79102,1.04385,1.57079,0.00004,-0.14511,-0.38000,0.03222,,,,,,,,,,,,,,,,,,,,,,,,,,0,0,0,0,0
4.5298,1783191163.6848,1,1,1.0000,0.0000,1.44678,0.17632,-2.79102,1.04385,1.57079,0.00004,-0.14511,-0.38000,0.03222,,,,,,,,,,,,,,,,,,,,,,,,,,0,0,0,0,0
4.5379,1783191163.6930,1,1,1.0000,0.0000,1.44678,0.17624,-2.79104,1.04395,1.57079,0.00004,-0.14511,-0.38000,0.03220,,,,,,,,,,,,,,,,,,,,,,,,,,0,0,0,0,0
4.5605,1783191163.7156,1,1,1.0000,0.0000,1.44678,0.17575,-2.79115,1.04456,1.57079,0.00004,-0.14511,-0.38000,0.03208,,,,,,,,,,,,,,,,,,,,,,,,,,0,0,0,0,0
4.5650,1783191163.7201,1,1,1.0000,0.0000,1.44678,0.17573,-2.79115,1.04458,1.57079,0.00004,-0.14511,-0.38000,0.03207,,,,,,,,,,,,,,,,,,,,,,,,,,0,0,0,0,0
4.5692,1783191163.7242,1,1,1.0000,0.0000,1.44678,0.17568,-2.79116,1.04464,1.57079,0.00004,-0.14511,-0.38000,0.03206,,,,,,,,,,,,,,,,,,,,,,,,,,0,0,0,0,0
4.5820,1783191163.7371,1,1,1.0000,0.0000,1.44678,0.17543,-2.79122,1.04495,1.57079,0.00004,-0.14511,-0.38000,0.03200,,,,,,,,,,,,,,,,,,,,,,,,,,0,0,0,0,0
4.5942,1783191163.7492,1,1,1.0000,0.0000,1.44678,0.17531,-2.79124,1.04509,1.57079,0.00004,-0.14511,-0.38000,0.03197,,,,,,,,,,,,,,,,,,,,,,,,,,0,0,0,0,0
4.5981,1783191163.7532,1,1,1.0000,0.0000,1.44678,0.17525,-2.79125,1.04516,1.57079,0.00004,-0.14511,-0.38000,0.03196,,,,,,,,,,,,,,,,,,,,,,,,,,0,0,0,0,0
4.5986,1783191163.7536,1,1,1.0000,0.0000,1.44678,0.17525,-2.79125,1.04516,1.57079,0.00004,-0.14511,-0.38000,0.03196,,,,,,,,,,,,,,,,,,,,,,,,,,0,0,0,0,0
4.6183,1783191163.7734,1,1,1.0000,0.0000,1.44678,0.17476,-2.79136,1.04576,1.57079,0.00004,-0.14511,-0.38000,0.03184,,,,,,,,,,,,,,,,,,,,,,,,,,0,0,0,0,0
4.6237,1783191163.7787,1,1,1.0000,0.0000,1.44678,0.17476,-2.79136,1.04576,1.57079,0.00004,-0.14511,-0.38000,0.03184,,,,,,,,,,,,,,,,,,,,,,,,,,0,0,0,0,0
4.6240,1783191163.7791,1,1,1.0000,0.0000,1.44678,0.17476,-2.79136,1.04576,1.57079,0.00004,-0.14511,-0.38000,0.03184,,,,,,,,,,,,,,,,,,,,,,,,,,0,0,0,0,0
4.6274,1783191163.7824,1,1,1.0000,0.0000,1.44678,0.17474,-2.79137,1.04578,1.57079,0.00004,-0.14511,-0.38000,0.03183,,,,,,,,,,,,,,,,,,,,,,,,,,0,0,0,0,0
4.6277,1783191163.7828,1,1,1.0000,0.0000,1.44678,0.17474,-2.79137,1.04578,1.57079,0.00004,-0.14511,-0.38000,0.03183,,,,,,,,,,,,,,,,,,,,,,,,,,0,0,0,0,0
4.6386,1783191163.7936,1,1,1.0000,0.0000,1.44678,0.17453,-2.79141,1.04604,1.57079,0.00004,-0.14511,-0.38000,0.03178,,,,,,,,,,,,,,,,,,,,,,,,,,0,0,0,0,0
4.6609,1783191163.8160,1,1,1.0000,0.0000,1.44678,0.17417,-2.79149,1.04647,1.57079,0.00005,-0.14511,-0.38000,0.03170,,,,,,,,,,,,,,,,,,,,,,,,,,0,0,0,0,0
4.6732,1783191163.8282,1,1,1.0000,0.0000,1.44678,0.17385,-2.79156,1.04686,1.57079,0.00005,-0.14511,-0.38000,0.03162,,,,,,,,,,,,,,,,,,,,,,,,,,0,0,0,0,0
4.6735,1783191163.8286,1,1,1.0000,0.0000,1.44678,0.17385,-2.79156,1.04686,1.57079,0.00005,-0.14511,-0.38000,0.03162,,,,,,,,,,,,,,,,,,,,,,,,,,0,0,0,0,0
4.6739,1783191163.8289,1,1,1.0000,0.0000,1.44678,0.17385,-2.79156,1.04686,1.57079,0.00005,-0.14511,-0.38000,0.03162,,,,,,,,,,,,,,,,,,,,,,,,,,0,0,0,0,0
4.6911,1783191163.8461,1,1,1.0000,0.0000,1.44678,0.17370,-2.79159,1.04705,1.57079,0.00005,-0.14511,-0.38000,0.03158,,,,,,,,,,,,,,,,,,,,,,,,,,0,0,0,0,0
4.6914,1783191163.8465,1,1,1.0000,0.0000,1.44678,0.17370,-2.79159,1.04705,1.57079,0.00005,-0.14511,-0.38000,0.03158,,,,,,,,,,,,,,,,,,,,,,,,,,0,0,0,0,0
4.7253,1783191163.8803,1,1,1.0000,0.0000,1.44678,0.17313,-2.79171,1.04774,1.57079,0.00005,-0.14511,-0.38000,0.03145,,,,,,,,,,,,,,,,,,,,,,,,,,0,0,0,0,0
4.7255,1783191163.8806,1,1,1.0000,0.0000,1.44678,0.17313,-2.79171,1.04774,1.57079,0.00005,-0.14511,-0.38000,0.03145,,,,,,,,,,,,,,,,,,,,,,,,,,0,0,0,0,0
4.7258,1783191163.8808,1,1,1.0000,0.0000,1.44678,0.17313,-2.79171,1.04774,1.57079,0.00005,-0.14511,-0.38000,0.03145,,,,,,,,,,,,,,,,,,,,,,,,,,0,0,0,0,0
4.7260,1783191163.8811,1,1,1.0000,0.0000,1.44678,0.17313,-2.79171,1.04774,1.57079,0.00005,-0.14511,-0.38000,0.03145,,,,,,,,,,,,,,,,,,,,,,,,,,0,0,0,0,0
4.7263,1783191163.8814,1,1,1.0000,0.0000,1.44678,0.17313,-2.79171,1.04774,1.57079,0.00005,-0.14511,-0.38000,0.03145,,,,,,,,,,,,,,,,,,,,,,,,,,0,0,0,0,0
4.7280,1783191163.8830,1,1,1.0000,0.0000,1.44678,0.17313,-2.79171,1.04774,1.57079,0.00005,-0.14511,-0.38000,0.03145,,,,,,,,,,,,,,,,,,,,,,,,,,0,0,0,0,0
4.7376,1783191163.8927,1,1,1.0000,0.0000,1.44678,0.17285,-2.79177,1.04808,1.57079,0.00005,-0.14511,-0.38000,0.03138,,,,,,,,,,,,,,,,,,,,,,,,,,0,0,0,0,0
4.7507,1783191163.9058,1,1,1.0000,0.0000,1.44678,0.17277,-2.79179,1.04818,1.57079,0.00005,-0.14511,-0.38000,0.03136,,,,,,,,,,,,,,,,,,,,,,,,,,0,0,0,0,0
4.7610,1783191163.9161,1,1,1.0000,0.0000,1.44678,0.17247,-2.79186,1.04854,1.57079,0.00005,-0.14511,-0.38000,0.03129,,,,,,,,,,,,,,,,,,,,,,,,,,0,0,0,0,0
4.7612,1783191163.9163,1,1,1.0000,0.0000,1.44678,0.17247,-2.79186,1.04854,1.57079,0.00005,-0.14511,-0.38000,0.03129,,,,,,,,,,,,,,,,,,,,,,,,,,0,0,0,0,0
4.7616,1783191163.9166,1,1,1.0000,0.0000,1.44678,0.17247,-2.79186,1.04854,1.57079,0.00005,-0.14511,-0.38000,0.03129,,,,,,,,,,,,,,,,,,,,,,,,,,0,0,0,0,0
4.7694,1783191163.9245,1,1,1.0000,0.0000,1.44678,0.17227,-2.79190,1.04878,1.57079,0.00005,-0.14511,-0.38000,0.03124,,,,,,,,,,,,,,,,,,,,,,,,,,0,0,0,0,0
4.7790,1783191163.9340,1,1,1.0000,0.0000,1.44678,0.17226,-2.79190,1.04880,1.57079,0.00005,-0.14511,-0.38000,0.03124,,,,,,,,,,,,,,,,,,,,,,,,,,0,0,0,0,0
4.7889,1783191163.9440,1,1,1.0000,0.0000,1.44678,0.17205,-2.79195,1.04906,1.57079,0.00005,-0.14511,-0.38000,0.03119,,,,,,,,,,,,,,,,,,,,,,,,,,0,0,0,0,0
4.7891,1783191163.9442,1,1,1.0000,0.0000,1.44678,0.17205,-2.79195,1.04906,1.57079,0.00005,-0.14511,-0.38000,0.03119,,,,,,,,,,,,,,,,,,,,,,,,,,0,0,0,0,0
4.7985,1783191163.9536,1,1,1.0000,0.0000,1.44678,0.17186,-2.79199,1.04929,1.57079,0.00005,-0.14511,-0.38000,0.03114,,,,,,,,,,,,,,,,,,,,,,,,,,0,0,0,0,0
4.8185,1783191163.9735,1,1,1.0000,0.0000,1.44678,0.17159,-2.79205,1.04962,1.57079,0.00005,-0.14511,-0.38000,0.03108,,,,,,,,,,,,,,,,,,,,,,,,,,0,0,0,0,0
4.8189,1783191163.9740,1,1,1.0000,0.0000,1.44678,0.17159,-2.79205,1.04962,1.57079,0.00005,-0.14511,-0.38000,0.03108,,,,,,,,,,,,,,,,,,,,,,,,,,0,0,0,0,0
4.8278,1783191163.9828,1,1,1.0000,0.0000,1.44678,0.17137,-2.79209,1.04988,1.57079,0.00005,-0.14511,-0.38000,0.03102,,,,,,,,,,,,,,,,,,,,,,,,,,0,0,0,0,0
4.8410,1783191163.9961,1,1,1.0000,0.0000,1.44678,0.17121,-2.79213,1.05007,1.57079,0.00005,-0.14511,-0.38000,0.03099,,,,,,,,,,,,,,,,,,,,,,,,,,0,0,0,0,0
4.8414,1783191163.9965,1,1,1.0000,0.0000,1.44678,0.17121,-2.79213,1.05007,1.57079,0.00005,-0.14511,-0.38000,0.03099,,,,,,,,,,,,,,,,,,,,,,,,,,0,0,0,0,0
4.8492,1783191164.0043,1,1,1.0000,0.0000,1.44678,0.17105,-2.79216,1.05027,1.57079,0.00005,-0.14511,-0.38000,0.03095,,,,,,,,,,,,,,,,,,,,,,,,,,0,0,0,0,0
4.8496,1783191164.0047,1,1,1.0000,0.0000,1.44678,0.17105,-2.79216,1.05027,1.57079,0.00005,-0.14511,-0.38000,0.03095,,,,,,,,,,,,,,,,,,,,,,,,,,0,0,0,0,0
4.8603,1783191164.0154,1,1,1.0000,0.0000,1.44678,0.17086,-2.79220,1.05050,1.57079,0.00005,-0.14511,-0.38000,0.03090,,,,,,,,,,,,,,,,,,,,,,,,,,0,0,0,0,0
4.8719,1783191164.0269,1,1,1.0000,0.0000,1.44678,0.17078,-2.79222,1.05060,1.57079,0.00005,-0.14511,-0.38000,0.03088,,,,,,,,,,,,,,,,,,,,,,,,,,0,0,0,0,0
4.8830,1783191164.0381,1,1,1.0000,0.0000,1.44678,0.17048,-2.79228,1.05096,1.57079,0.00005,-0.14511,-0.38000,0.03081,,,,,,,,,,,,,,,,,,,,,,,,,,0,0,0,0,0
4.8877,1783191164.0428,1,1,1.0000,0.0000,1.44678,0.17037,-2.79231,1.05109,1.57079,0.00005,-0.14511,-0.38000,0.03079,,,,,,,,,,,,,,,,,,,,,,,,,,0,0,0,0,0
4.8984,1783191164.0534,1,1,1.0000,0.0000,1.44678,0.17026,-2.79233,1.05122,1.57079,0.00005,-0.14511,-0.38000,0.03076,,,,,,,,,,,,,,,,,,,,,,,,,,0,0,0,0,0
4.9198,1783191164.0749,1,1,1.0000,0.0000,1.44678,0.16987,-2.79242,1.05171,1.57079,0.00005,-0.14511,-0.38000,0.03066,,,,,,,,,,,,,,,,,,,,,,,,,,0,0,0,0,0
4.9252,1783191164.0803,1,1,1.0000,0.0000,1.44678,0.16984,-2.79242,1.05173,1.57079,0.00005,-0.14511,-0.38000,0.03066,,,,,,,,,,,,,,,,,,,,,,,,,,0,0,0,0,0
4.9256,1783191164.0807,1,1,1.0000,0.0000,1.44678,0.16984,-2.79242,1.05173,1.57079,0.00005,-0.14511,-0.38000,0.03066,,,,,,,,,,,,,,,,,,,,,,,,,,0,0,0,0,0
4.9295,1783191164.0846,1,1,1.0000,0.0000,1.44678,0.16978,-2.79243,1.05181,1.57079,0.00005,-0.14511,-0.38000,0.03064,,,,,,,,,,,,,,,,,,,,,,,,,,0,0,0,0,0
4.9298,1783191164.0849,1,1,1.0000,0.0000,1.44678,0.16978,-2.79243,1.05181,1.57079,0.00005,-0.14511,-0.38000,0.03064,,,,,,,,,,,,,,,,,,,,,,,,,,0,0,0,0,0
4.9384,1783191164.0935,1,1,1.0000,0.0000,1.44678,0.16959,-2.79247,1.05204,1.57079,0.00005,-0.14511,-0.38000,0.03060,,,,,,,,,,,,,,,,,,,,,,,,,,0,0,0,0,0
4.9482,1783191164.1032,1,1,1.0000,0.0000,1.44678,0.16938,-2.79252,1.05230,1.57079,0.00005,-0.14511,-0.38000,0.03055,,,,,,,,,,,,,,,,,,,,,,,,,,0,0,0,0,0
4.9610,1783191164.1161,1,1,1.0000,0.0000,1.44678,0.16922,-2.79255,1.05249,1.57079,0.00005,-0.14511,-0.38000,0.03051,,,,,,,,,,,,,,,,,,,,,,,,,,0,0,0,0,0
4.9683,1783191164.1234,1,1,1.0000,0.0000,1.44678,0.16914,-2.79257,1.05258,1.57079,0.00005,-0.14511,-0.38000,0.03049,,,,,,,,,,,,,,,,,,,,,,,,,,0,0,0,0,0
4.9787,1783191164.1338,1,1,1.0000,0.0000,1.44678,0.16887,-2.79263,1.05292,1.57079,0.00005,-0.14511,-0.38000,0.03043,,,,,,,,,,,,,,,,,,,,,,,,,,0,0,0,0,0
4.9880,1783191164.1430,1,1,1.0000,0.0000,1.44678,0.16885,-2.79263,1.05294,1.57079,0.00005,-0.14511,-0.38000,0.03042,,,,,,,,,,,,,,,,,,,,,,,,,,0,0,0,0,0
5.0011,1783191164.1561,1,1,1.0000,0.0000,1.44678,0.16848,-2.79271,1.05338,1.57079,0.00005,-0.14511,-0.38000,0.03033,,,,,,,,,,,,,,,,,,,,,,,,,,0,0,0,0,0
5.0013,1783191164.1564,1,1,1.0000,0.0000,1.44678,0.16848,-2.79271,1.05338,1.57079,0.00005,-0.14511,-0.38000,0.03033,,,,,,,,,,,,,,,,,,,,,,,,,,0,0,0,0,0
5.0142,1783191164.1693,1,1,1.0000,0.0000,1.44677,0.16829,-2.79275,1.05362,1.57079,0.00005,-0.14511,-0.38000,0.03029,,,,,,,,,,,,,,,,,,,,,,,,,,0,0,0,0,0
5.0211,1783191164.1762,1,1,1.0000,0.0000,1.44677,0.16822,-2.79277,1.05371,1.57079,0.00005,-0.14511,-0.38000,0.03027,,,,,,,,,,,,,,,,,,,,,,,,,,0,0,0,0,0
5.0214,1783191164.1765,1,1,1.0000,0.0000,1.44677,0.16822,-2.79277,1.05371,1.57079,0.00005,-0.14511,-0.38000,0.03027,,,,,,,,,,,,,,,,,,,,,,,,,,0,0,0,0,0
5.0329,1783191164.1880,1,1,1.0000,0.0000,1.44677,0.16796,-2.79282,1.05402,1.57079,0.00005,-0.14511,-0.38000,0.03021,,,,,,,,,,,,,,,,,,,,,,,,,,0,0,0,0,0
5.0397,1783191164.1948,1,1,1.0000,0.0000,1.44677,0.16787,-2.79284,1.05413,1.57079,0.00005,-0.14511,-0.38000,0.03019,,,,,,,,,,,,,,,,,,,,,,,,,,0,0,0,0,0
5.0492,1783191164.2043,1,1,1.0000,0.0000,1.44677,0.16779,-2.79286,1.05423,1.57079,0.00005,-0.14511,-0.38000,0.03017,,,,,,,,,,,,,,,,,,,,,,,,,,0,0,0,0,0
5.0496,1783191164.2046,1,1,1.0000,0.0000,1.44677,0.16779,-2.79286,1.05423,1.57079,0.00005,-0.14511,-0.38000,0.03017,,,,,,,,,,,,,,,,,,,,,,,,,,0,0,0,0,0
5.0587,1783191164.2137,1,1,1.0000,0.0000,1.44677,0.16759,-2.79290,1.05446,1.57079,0.00005,-0.14511,-0.38000,0.03012,,,,,,,,,,,,,,,,,,,,,,,,,,0,0,0,0,0
5.0703,1783191164.2254,1,1,1.0000,0.0000,1.44677,0.16728,-2.79297,1.05484,1.57079,0.00005,-0.14511,-0.38000,0.03005,,,,,,,,,,,,,,,,,,,,,,,,,,0,0,0,0,0
5.0778,1783191164.2329,1,1,1.0000,0.0000,1.44677,0.16727,-2.79297,1.05486,1.57079,0.00005,-0.14511,-0.38000,0.03004,,,,,,,,,,,,,,,,,,,,,,,,,,0,0,0,0,0
5.0923,1783191164.2474,1,1,1.0000,0.0000,1.44677,0.16706,-2.79301,1.05511,1.57079,0.00005,-0.14511,-0.38000,0.02999,,,,,,,,,,,,,,,,,,,,,,,,,,0,0,0,0,0
5.1024,1783191164.2575,1,1,1.0000,0.0000,1.44677,0.16678,-2.79307,1.05544,1.57079,0.00005,-0.14511,-0.38000,0.02993,,,,,,,,,,,,,,,,,,,,,,,,,,0,0,0,0,0
5.1027,1783191164.2578,1,1,1.0000,0.0000,1.44677,0.16678,-2.79307,1.05544,1.57079,0.00005,-0.14511,-0.38000,0.02993,,,,,,,,,,,,,,,,,,,,,,,,,,0,0,0,0,0
5.1174,1783191164.2724,1,1,1.0000,0.0000,1.44677,0.16664,-2.79310,1.05561,1.57079,0.00005,-0.14511,-0.38000,0.02989,,,,,,,,,,,,,,,,,,,,,,,,,,0,0,0,0,0
5.1236,1783191164.2787,1,1,1.0000,0.0000,1.44677,0.16655,-2.79312,1.05572,1.57079,0.00005,-0.14511,-0.38000,0.02987,,,,,,,,,,,,,,,,,,,,,,,,,,0,0,0,0,0
5.1240,1783191164.2791,1,1,1.0000,0.0000,1.44677,0.16655,-2.79312,1.05572,1.57079,0.00005,-0.14511,-0.38000,0.02987,,,,,,,,,,,,,,,,,,,,,,,,,,0,0,0,0,0
5.1275,1783191164.2826,1,1,1.0000,0.0000,1.44677,0.16646,-2.79314,1.05584,1.57079,0.00005,-0.14511,-0.38000,0.02985,,,,,,,,,,,,,,,,,,,,,,,,,,0,0,0,0,0
5.1280,1783191164.2830,1,1,1.0000,0.0000,1.44677,0.16646,-2.79314,1.05584,1.57079,0.00005,-0.14511,-0.38000,0.02985,,,,,,,,,,,,,,,,,,,,,,,,,,0,0,0,0,0
5.1394,1783191164.2944,1,1,1.0000,0.0000,1.44677,0.16634,-2.79317,1.05598,1.57079,0.00005,-0.14511,-0.38000,0.02982,,,,,,,,,,,,,,,,,,,,,,,,,,0,0,0,0,0
5.1491,1783191164.3041,1,1,1.0000,0.0000,1.44677,0.16609,-2.79322,1.05628,1.57079,0.00005,-0.14511,-0.38000,0.02976,,,,,,,,,,,,,,,,,,,,,,,,,,0,0,0,0,0
5.1602,1783191164.3153,1,1,1.0000,0.0000,1.44677,0.16587,-2.79326,1.05655,1.57079,0.00005,-0.14511,-0.38000,0.02971,,,,,,,,,,,,,,,,,,,,,,,,,,0,0,0,0,0
5.1611,1783191164.3161,1,1,1.0000,0.0000,1.44677,0.16587,-2.79326,1.05655,1.57079,0.00005,-0.14511,-0.38000,0.02971,,,,,,,,,,,,,,,,,,,,,,,,,,0,0,0,0,0
5.1689,1783191164.3239,1,1,1.0000,0.0000,1.44677,0.16579,-2.79328,1.05665,1.57079,0.00005,-0.14511,-0.38000,0.02969,,,,,,,,,,,,,,,,,,,,,,,,,,0,0,0,0,0
5.1792,1783191164.3343,1,1,1.0000,0.0000,1.44677,0.16559,-2.79332,1.05689,1.57079,0.00005,-0.14511,-0.38000,0.02964,,,,,,,,,,,,,,,,,,,,,,,,,,0,0,0,0,0
5.1904,1783191164.3455,1,1,1.0000,0.0000,1.44677,0.16528,-2.79339,1.05726,1.57079,0.00005,-0.14511,-0.38000,0.02957,,,,,,,,,,,,,,,,,,,,,,,,,,0,0,0,0,0
5.1973,1783191164.3524,1,1,1.0000,0.0000,1.44677,0.16526,-2.79339,1.05729,1.57079,0.00005,-0.14511,-0.38000,0.02956,,,,,,,,,,,,,,,,,,,,,,,,,,0,0,0,0,0
5.1977,1783191164.3528,1,1,1.0000,0.0000,1.44677,0.16526,-2.79339,1.05729,1.57079,0.00005,-0.14511,-0.38000,0.02956,,,,,,,,,,,,,,,,,,,,,,,,,,0,0,0,0,0
5.2078,1783191164.3629,1,1,1.0000,0.0000,1.44677,0.16514,-2.79342,1.05744,1.57079,0.00005,-0.14511,-0.38000,0.02954,,,,,,,,,,,,,,,,,,,,,,,,,,0,0,0,0,0
5.2302,1783191164.3853,1,1,1.0000,0.0000,1.44677,0.16476,-2.79350,1.05790,1.57079,0.00005,-0.14511,-0.38000,0.02944,,,,,,,,,,,,,,,,,,,,,,,,,,0,0,0,0,0
5.2320,1783191164.3871,1,1,1.0000,0.0000,1.44677,0.16476,-2.79350,1.05790,1.57079,0.00005,-0.14511,-0.38000,0.02944,,,,,,,,,,,,,,,,,,,,,,,,,,0,0,0,0,0
5.2325,1783191164.3875,1,1,1.0000,0.0000,1.44677,0.16476,-2.79350,1.05790,1.57079,0.00005,-0.14511,-0.38000,0.02944,,,,,,,,,,,,,,,,,,,,,,,,,,0,0,0,0,0
5.2397,1783191164.3948,1,1,1.0000,0.0000,1.44677,0.16464,-2.79353,1.05804,1.57079,0.00005,-0.14511,-0.38000,0.02942,,,,,,,,,,,,,,,,,,,,,,,,,,0,0,0,0,0
5.2486,1783191164.4037,1,1,1.0000,0.0000,1.44677,0.16445,-2.79356,1.05827,1.57079,0.00005,-0.14511,-0.38000,0.02937,,,,,,,,,,,,,,,,,,,,,,,,,,0,0,0,0,0
5.2577,1783191164.4127,1,1,1.0000,0.0000,1.44677,0.16434,-2.79359,1.05841,1.57079,0.00005,-0.14511,-0.38000,0.02934,,,,,,,,,,,,,,,,,,,,,,,,,,0,0,0,0,0
5.2731,1783191164.4281,1,1,1.0000,0.0000,1.44677,0.16397,-2.79367,1.05885,1.57079,0.00005,-0.14511,-0.38000,0.02926,,,,,,,,,,,,,,,,,,,,,,,,,,0,0,0,0,0
5.2819,1783191164.4370,1,1,1.0000,0.0000,1.44677,0.16387,-2.79369,1.05898,1.57079,0.00005,-0.14511,-0.38000,0.02923,,,,,,,,,,,,,,,,,,,,,,,,,,0,0,0,0,0
5.2823,1783191164.4373,1,1,1.0000,0.0000,1.44677,0.16387,-2.79369,1.05898,1.57079,0.00005,-0.14511,-0.38000,0.02923,,,,,,,,,,,,,,,,,,,,,,,,,,0,0,0,0,0
5.2918,1783191164.4468,1,1,1.0000,0.0000,1.44677,0.16378,-2.79371,1.05908,1.57079,0.00005,-0.14511,-0.38000,0.02921,,,,,,,,,,,,,,,,,,,,,,,,,,0,0,0,0,0
5.2923,1783191164.4474,1,1,1.0000,0.0000,1.44677,0.16378,-2.79371,1.05908,1.57079,0.00005,-0.14511,-0.38000,0.02921,,,,,,,,,,,,,,,,,,,,,,,,,,0,0,0,0,0
5.3047,1783191164.4598,1,1,1.0000,0.0000,1.44677,0.16347,-2.79377,1.05945,1.57079,0.00005,-0.14511,-0.38000,0.02914,,,,,,,,,,,,,,,,,,,,,,,,,,0,0,0,0,0
5.3055,1783191164.4606,1,1,1.0000,0.0000,1.44677,0.16336,-2.79379,1.05958,1.57079,0.00005,-0.14511,-0.38000,0.02911,,,,,,,,,,,,,,,,,,,,,,,,,,0,0,0,0,0
5.3116,1783191164.4666,1,1,1.0000,0.0000,1.44677,0.16327,-2.79381,1.05970,1.57079,0.00005,-0.14511,-0.38000,0.02909,,,,,,,,,,,,,,,,,,,,,,,,,,0,0,0,0,0
5.3121,1783191164.4672,1,1,1.0000,0.0000,1.44677,0.16327,-2.79381,1.05970,1.57079,0.00005,-0.14511,-0.38000,0.02909,,,,,,,,,,,,,,,,,,,,,,,,,,0,0,0,0,0
5.3229,1783191164.4780,1,1,1.0000,0.0000,1.44677,0.16320,-2.79383,1.05978,1.57079,0.00005,-0.14511,-0.38000,0.02907,,,,,,,,,,,,,,,,,,,,,,,,,,0,0,0,0,0
5.3313,1783191164.4863,1,1,1.0000,0.0000,1.44677,0.16304,-2.79386,1.05998,1.57079,0.00005,-0.14511,-0.38000,0.02904,,,,,,,,,,,,,,,,,,,,,,,,,,0,0,0,0,0
5.3316,1783191164.4867,1,1,1.0000,0.0000,1.44677,0.16304,-2.79386,1.05998,1.57079,0.00005,-0.14511,-0.38000,0.02904,,,,,,,,,,,,,,,,,,,,,,,,,,0,0,0,0,0
5.3422,1783191164.4973,1,1,1.0000,0.0000,1.44677,0.16277,-2.79392,1.06031,1.57079,0.00005,-0.14511,-0.38000,0.02897,,,,,,,,,,,,,,,,,,,,,,,,,,0,0,0,0,0
5.3532,1783191164.5083,1,1,1.0000,0.0000,1.44677,0.16270,-2.79393,1.06039,1.57079,0.00005,-0.14511,-0.38000,0.02896,,,,,,,,,,,,,,,,,,,,,,,,,,0,0,0,0,0
5.3535,1783191164.5085,1,1,1.0000,0.0000,1.44677,0.16270,-2.79393,1.06039,1.57079,0.00005,-0.14511,-0.38000,0.02896,,,,,,,,,,,,,,,,,,,,,,,,,,0,0,0,0,0
