Martins-Lucaas/twinforge/sensors/Data/20260704_154354__samples.csv
t_rel_s,t_unix,cycle,phase,setpoint_n,force_net_n,q1,q2,q3,q4,q5,q6,tcp_x,tcp_y,tcp_z,taxel_0,taxel_1,taxel_2,taxel_3,taxel_4,taxel_5,taxel_6,taxel_7,taxel_8,taxel_9,taxel_10,taxel_11,taxel_12,taxel_13,taxel_14,taxel_15,taxel_16,taxel_17,taxel_18,taxel_19,taxel_20,taxel_21,taxel_22,taxel_23,taxel_24,n_RA,n_SA,cn_mm,cn_ra,cn_sa
0.0048,1783190634.6491,1,0,1.0000,0.0000,1.44682,0.23328,-2.77748,0.97337,1.57080,0.00000,-0.14512,-0.38003,0.04653,,,,,,,,,,,,,,,,,,,,,,,,,,0,0,0,0,0
0.0167,1783190634.6610,1,0,1.0000,0.0000,1.44682,0.23328,-2.77748,0.97337,1.57080,0.00000,-0.14512,-0.38003,0.04653,,,,,,,,,,,,,,,,,,,,,,,,,,0,0,0,0,0
0.0255,1783190634.6698,1,0,1.0000,0.0000,1.44682,0.23328,-2.77748,0.97337,1.57080,0.00000,-0.14512,-0.38003,0.04653,,,,,,,,,,,,,,,,,,,,,,,,,,0,0,0,0,0
0.0335,1783190634.6778,1,0,1.0000,0.0000,1.44682,0.23328,-2.77748,0.97337,1.57080,0.00000,-0.14512,-0.38003,0.04653,,,,,,,,,,,,,,,,,,,,,,,,,,0,0,0,0,0
0.0432,1783190634.6875,1,0,1.0000,0.0000,1.44682,0.23328,-2.77748,0.97337,1.57080,0.00000,-0.14512,-0.38003,0.04653,,,,,,,,,,,,,,,,,,,,,,,,,,0,0,0,0,0
0.0438,1783190634.6880,1,0,1.0000,0.0000,1.44682,0.23328,-2.77748,0.97337,1.57080,0.00000,-0.14512,-0.38003,0.04653,,,,,,,,,,,,,,,,,,,,,,,,,,0,0,0,0,0
0.0554,1783190634.6997,1,0,1.0000,0.0000,1.44682,0.23328,-2.77748,0.97337,1.57080,0.00000,-0.14512,-0.38003,0.04653,,,,,,,,,,,,,,,,,,,,,,,,,,0,0,0,0,0
0.0669,1783190634.7111,1,0,1.0000,0.0000,1.44682,0.23328,-2.77748,0.97337,1.57080,0.00000,-0.14512,-0.38003,0.04653,,,,,,,,,,,,,,,,,,,,,,,,,,0,0,0,0,0
0.0832,1783190634.7274,1,0,1.0000,0.0000,1.44682,0.23328,-2.77748,0.97337,1.57080,0.00000,-0.14512,-0.38003,0.04653,,,,,,,,,,,,,,,,,,,,,,,,,,0,0,0,0,0
0.0988,1783190634.7431,1,0,1.0000,0.0000,1.44682,0.23328,-2.77748,0.97337,1.57080,0.00000,-0.14512,-0.38003,0.04653,,,,,,,,,,,,,,,,,,,,,,,,,,0,0,0,0,0
0.0992,1783190634.7434,1,0,1.0000,0.0000,1.44682,0.23328,-2.77748,0.97337,1.57080,0.00000,-0.14512,-0.38003,0.04653,,,,,,,,,,,,,,,,,,,,,,,,,,0,0,0,0,0
0.0995,1783190634.7438,1,0,1.0000,0.0000,1.44682,0.23328,-2.77748,0.97337,1.57080,0.00000,-0.14512,-0.38003,0.04653,,,,,,,,,,,,,,,,,,,,,,,,,,0,0,0,0,0
0.1168,1783190634.7611,1,0,1.0000,0.0000,1.44682,0.23328,-2.77748,0.97337,1.57080,0.00000,-0.14512,-0.38003,0.04653,,,,,,,,,,,,,,,,,,,,,,,,,,0,0,0,0,0
0.1208,1783190634.7651,1,0,1.0000,0.0000,1.44682,0.23328,-2.77748,0.97337,1.57080,0.00000,-0.14512,-0.38003,0.04653,,,,,,,,,,,,,,,,,,,,,,,,,,0,0,0,0,0
0.1738,1783190634.8181,1,0,1.0000,0.0000,1.44682,0.23328,-2.77748,0.97337,1.57080,0.00000,-0.14512,-0.38003,0.04653,,,,,,,,,,,,,,,,,,,,,,,,,,0,0,0,0,0
0.1741,1783190634.8184,1,0,1.0000,0.0000,1.44682,0.23328,-2.77748,0.97337,1.57080,0.00000,-0.14512,-0.38003,0.04653,,,,,,,,,,,,,,,,,,,,,,,,,,0,0,0,0,0
0.1744,1783190634.8187,1,0,1.0000,0.0000,1.44682,0.23328,-2.77748,0.97337,1.57080,0.00000,-0.14512,-0.38003,0.04653,,,,,,,,,,,,,,,,,,,,,,,,,,0,0,0,0,0
0.1846,1783190634.8289,1,0,1.0000,0.0000,1.44682,0.23328,-2.77748,0.97337,1.57080,0.00000,-0.14512,-0.38003,0.04653,,,,,,,,,,,,,,,,,,,,,,,,,,0,0,0,0,0
0.1848,1783190634.8291,1,0,1.0000,0.0000,1.44682,0.23328,-2.77748,0.97337,1.57080,0.00000,-0.14512,-0.38003,0.04653,,,,,,,,,,,,,,,,,,,,,,,,,,0,0,0,0,0
0.1851,1783190634.8294,1,0,1.0000,0.0000,1.44682,0.23328,-2.77748,0.97337,1.57080,0.00000,-0.14512,-0.38003,0.04653,,,,,,,,,,,,,,,,,,,,,,,,,,0,0,0,0,0
0.1854,1783190634.8297,1,0,1.0000,0.0000,1.44682,0.23328,-2.77748,0.97337,1.57080,0.00000,-0.14512,-0.38003,0.04653,,,,,,,,,,,,,,,,,,,,,,,,,,0,0,0,0,0
0.1857,1783190634.8300,1,0,1.0000,0.0000,1.44682,0.23328,-2.77748,0.97337,1.57080,0.00000,-0.14512,-0.38003,0.04653,,,,,,,,,,,,,,,,,,,,,,,,,,0,0,0,0,0
0.2079,1783190634.8522,1,0,1.0000,0.0000,1.44682,0.23328,-2.77748,0.97337,1.57080,0.00000,-0.14512,-0.38003,0.04653,,,,,,,,,,,,,,,,,,,,,,,,,,0,0,0,0,0
0.2603,1783190634.9046,1,0,1.0000,0.0000,1.44682,0.23328,-2.77748,0.97337,1.57080,0.00000,-0.14512,-0.38003,0.04653,,,,,,,,,,,,,,,,,,,,,,,,,,0,0,0,0,0
0.2611,1783190634.9054,1,0,1.0000,0.0000,1.44682,0.23328,-2.77748,0.97337,1.57080,0.00000,-0.14512,-0.38003,0.04653,,,,,,,,,,,,,,,,,,,,,,,,,,0,0,0,0,0
0.3040,1783190634.9483,1,0,1.0000,0.0000,1.44682,0.23328,-2.77748,0.97337,1.57080,0.00000,-0.14512,-0.38003,0.04653,,,,,,,,,,,,,,,,,,,,,,,,,,0,0,0,0,0
0.3044,1783190634.9487,1,0,1.0000,0.0000,1.44682,0.23328,-2.77748,0.97337,1.57080,0.00000,-0.14512,-0.38003,0.04653,,,,,,,,,,,,,,,,,,,,,,,,,,0,0,0,0,0
0.3050,1783190634.9493,1,0,1.0000,0.0000,1.44682,0.23328,-2.77748,0.97337,1.57080,0.00000,-0.14512,-0.38003,0.04653,,,,,,,,,,,,,,,,,,,,,,,,,,0,0,0,0,0
0.3114,1783190634.9557,1,0,1.0000,0.0000,1.44682,0.23328,-2.77748,0.97337,1.57080,0.00000,-0.14512,-0.38003,0.04653,,,,,,,,,,,,,,,,,,,,,,,,,,0,0,0,0,0
0.3118,1783190634.9561,1,0,1.0000,0.0000,1.44682,0.23328,-2.77748,0.97337,1.57080,0.00000,-0.14512,-0.38003,0.04653,,,,,,,,,,,,,,,,,,,,,,,,,,0,0,0,0,0
0.3500,1783190634.9943,1,0,1.0000,0.0000,1.44682,0.23328,-2.77748,0.97337,1.57080,0.00000,-0.14512,-0.38003,0.04653,,,,,,,,,,,,,,,,,,,,,,,,,,0,0,0,0,0
0.3503,1783190634.9946,1,0,1.0000,0.0000,1.44682,0.23328,-2.77748,0.97337,1.57080,0.00000,-0.14512,-0.38003,0.04653,,,,,,,,,,,,,,,,,,,,,,,,,,0,0,0,0,0
0.3532,1783190634.9975,1,0,1.0000,0.0000,1.44682,0.23328,-2.77748,0.97337,1.57080,0.00000,-0.14512,-0.38003,0.04653,,,,,,,,,,,,,,,,,,,,,,,,,,0,0,0,0,0
0.3535,1783190634.9978,1,0,1.0000,0.0000,1.44682,0.23328,-2.77748,0.97337,1.57080,0.00000,-0.14512,-0.38003,0.04653,,,,,,,,,,,,,,,,,,,,,,,,,,0,0,0,0,0
0.3679,1783190635.0121,1,0,1.0000,0.0000,1.44682,0.23328,-2.77748,0.97337,1.57080,0.00000,-0.14512,-0.38003,0.04653,,,,,,,,,,,,,,,,,,,,,,,,,,0,0,0,0,0
0.3779,1783190635.0222,1,0,1.0000,0.0000,1.44682,0.23328,-2.77748,0.97337,1.57080,0.00000,-0.14512,-0.38003,0.04653,,,,,,,,,,,,,,,,,,,,,,,,,,0,0,0,0,0
0.3782,1783190635.0225,1,0,1.0000,0.0000,1.44682,0.23328,-2.77748,0.97337,1.57080,0.00000,-0.14512,-0.38003,0.04653,,,,,,,,,,,,,,,,,,,,,,,,,,0,0,0,0,0
0.3848,1783190635.0291,1,0,1.0000,0.0000,1.44682,0.23328,-2.77748,0.97337,1.57080,0.00000,-0.14512,-0.38003,0.04653,,,,,,,,,,,,,,,,,,,,,,,,,,0,0,0,0,0
0.3852,1783190635.0295,1,0,1.0000,0.0000,1.44682,0.23328,-2.77748,0.97337,1.57080,0.00000,-0.14512,-0.38003,0.04653,,,,,,,,,,,,,,,,,,,,,,,,,,0,0,0,0,0
0.3949,1783190635.0391,1,0,1.0000,0.0000,1.44682,0.23328,-2.77748,0.97337,1.57080,0.00000,-0.14512,-0.38003,0.04653,,,,,,,,,,,,,,,,,,,,,,,,,,0,0,0,0,0
0.4077,1783190635.0520,1,0,1.0000,0.0000,1.44682,0.23328,-2.77748,0.97337,1.57080,0.00000,-0.14512,-0.38003,0.04653,,,,,,,,,,,,,,,,,,,,,,,,,,0,0,0,0,0
0.4299,1783190635.0742,1,0,1.0000,0.0000,1.44682,0.23328,-2.77748,0.97337,1.57080,0.00000,-0.14512,-0.38003,0.04653,,,,,,,,,,,,,,,,,,,,,,,,,,0,0,0,0,0
0.4302,1783190635.0745,1,0,1.0000,0.0000,1.44682,0.23328,-2.77748,0.97337,1.57080,0.00000,-0.14512,-0.38003,0.04653,,,,,,,,,,,,,,,,,,,,,,,,,,0,0,0,0,0
0.4332,1783190635.0775,1,0,1.0000,0.0000,1.44682,0.23328,-2.77748,0.97337,1.57080,0.00000,-0.14512,-0.38003,0.04653,,,,,,,,,,,,,,,,,,,,,,,,,,0,0,0,0,0
0.4335,1783190635.0778,1,0,1.0000,0.0000,1.44682,0.23328,-2.77748,0.97337,1.57080,0.00000,-0.14512,-0.38003,0.04653,,,,,,,,,,,,,,,,,,,,,,,,,,0,0,0,0,0
0.4435,1783190635.0878,1,0,1.0000,0.0000,1.44682,0.23328,-2.77748,0.97337,1.57080,0.00000,-0.14512,-0.38003,0.04653,,,,,,,,,,,,,,,,,,,,,,,,,,0,0,0,0,0
0.4534,1783190635.0977,1,0,1.0000,0.0000,1.44682,0.23328,-2.77748,0.97337,1.57080,0.00000,-0.14512,-0.38003,0.04653,,,,,,,,,,,,,,,,,,,,,,,,,,0,0,0,0,0
0.4708,1783190635.1151,1,0,1.0000,0.0000,1.44682,0.23328,-2.77748,0.97337,1.57080,0.00000,-0.14512,-0.38003,0.04653,,,,,,,,,,,,,,,,,,,,,,,,,,0,0,0,0,0
0.4749,1783190635.1192,1,0,1.0000,0.0000,1.44682,0.23328,-2.77748,0.97337,1.57080,0.00000,-0.14512,-0.38003,0.04653,,,,,,,,,,,,,,,,,,,,,,,,,,0,0,0,0,0
0.4752,1783190635.1195,1,0,1.0000,0.0000,1.44682,0.23328,-2.77748,0.97337,1.57080,0.00000,-0.14512,-0.38003,0.04653,,,,,,,,,,,,,,,,,,,,,,,,,,0,0,0,0,0
0.4858,1783190635.1301,1,0,1.0000,0.0000,1.44682,0.23328,-2.77748,0.97337,1.57080,0.00000,-0.14512,-0.38003,0.04653,,,,,,,,,,,,,,,,,,,,,,,,,,0,0,0,0,0
0.4942,1783190635.1385,1,0,1.0000,0.0000,1.44682,0.23328,-2.77748,0.97337,1.57080,0.00000,-0.14512,-0.38003,0.04653,,,,,,,,,,,,,,,,,,,,,,,,,,0,0,0,0,0
0.5055,1783190635.1498,1,0,1.0000,0.0000,1.44682,0.23328,-2.77748,0.97337,1.57080,0.00000,-0.14512,-0.38003,0.04653,,,,,,,,,,,,,,,,,,,,,,,,,,0,0,0,0,0
0.5136,1783190635.1578,1,0,1.0000,0.0000,1.44682,0.23328,-2.77748,0.97337,1.57080,0.00000,-0.14512,-0.38003,0.04653,,,,,,,,,,,,,,,,,,,,,,,,,,0,0,0,0,0
0.5289,1783190635.1731,1,0,1.0000,0.0000,1.44682,0.23328,-2.77748,0.97337,1.57080,0.00000,-0.14512,-0.38003,0.04653,,,,,,,,,,,,,,,,,,,,,,,,,,0,0,0,0,0
0.5336,1783190635.1779,1,0,1.0000,0.0000,1.44682,0.23328,-2.77748,0.97337,1.57080,0.00000,-0.14512,-0.38003,0.04653,,,,,,,,,,,,,,,,,,,,,,,,,,0,0,0,0,0
0.5477,1783190635.1920,1,0,1.0000,0.0000,1.44682,0.23328,-2.77748,0.97337,1.57080,0.00000,-0.14512,-0.38003,0.04653,,,,,,,,,,,,,,,,,,,,,,,,,,0,0,0,0,0
0.5543,1783190635.1985,1,0,1.0000,0.0000,1.44682,0.23328,-2.77748,0.97337,1.57080,0.00000,-0.14512,-0.38003,0.04653,,,,,,,,,,,,,,,,,,,,,,,,,,0,0,0,0,0
0.5639,1783190635.2082,1,0,1.0000,0.0000,1.44682,0.23328,-2.77748,0.97337,1.57080,0.00000,-0.14512,-0.38003,0.04653,,,,,,,,,,,,,,,,,,,,,,,,,,0,0,0,0,0
0.5643,1783190635.2086,1,0,1.0000,0.0000,1.44682,0.23328,-2.77748,0.97337,1.57080,0.00000,-0.14512,-0.38003,0.04653,,,,,,,,,,,,,,,,,,,,,,,,,,0,0,0,0,0
0.5804,1783190635.2246,1,0,1.0000,0.0000,1.44682,0.23328,-2.77748,0.97337,1.57080,0.00000,-0.14512,-0.38003,0.04653,,,,,,,,,,,,,,,,,,,,,,,,,,0,0,0,0,0
0.5883,1783190635.2326,1,0,1.0000,0.0000,1.44682,0.23328,-2.77748,0.97337,1.57080,0.00000,-0.14512,-0.38003,0.04653,,,,,,,,,,,,,,,,,,,,,,,,,,0,0,0,0,0
0.5951,1783190635.2394,1,0,1.0000,0.0000,1.44682,0.23328,-2.77748,0.97337,1.57080,0.00000,-0.14512,-0.38003,0.04653,,,,,,,,,,,,,,,,,,,,,,,,,,0,0,0,0,0
0.6039,1783190635.2482,1,0,1.0000,0.0000,1.44682,0.23328,-2.77748,0.97337,1.57080,0.00000,-0.14512,-0.38003,0.04653,,,,,,,,,,,,,,,,,,,,,,,,,,0,0,0,0,0
0.6136,1783190635.2579,1,0,1.0000,0.0000,1.44682,0.23328,-2.77748,0.97337,1.57080,0.00000,-0.14512,-0.38003,0.04653,,,,,,,,,,,,,,,,,,,,,,,,,,0,0,0,0,0
0.6289,1783190635.2732,1,0,1.0000,0.0000,1.44682,0.23328,-2.77748,0.97337,1.57080,0.00000,-0.14512,-0.38003,0.04653,,,,,,,,,,,,,,,,,,,,,,,,,,0,0,0,0,0
0.6332,1783190635.2775,1,0,1.0000,0.0000,1.44682,0.23328,-2.77748,0.97337,1.57080,0.00000,-0.14512,-0.38003,0.04653,,,,,,,,,,,,,,,,,,,,,,,,,,0,0,0,0,0
0.6335,1783190635.2778,1,0,1.0000,0.0000,1.44682,0.23328,-2.77748,0.97337,1.57080,0.00000,-0.14512,-0.38003,0.04653,,,,,,,,,,,,,,,,,,,,,,,,,,0,0,0,0,0
0.6465,1783190635.2908,1,0,1.0000,0.0000,1.44682,0.23328,-2.77748,0.97337,1.57080,0.00000,-0.14512,-0.38003,0.04653,,,,,,,,,,,,,,,,,,,,,,,,,,0,0,0,0,0
0.6569,1783190635.3012,1,0,1.0000,0.0000,1.44682,0.23328,-2.77748,0.97337,1.57080,0.00000,-0.14512,-0.38003,0.04653,,,,,,,,,,,,,,,,,,,,,,,,,,0,0,0,0,0
0.6635,1783190635.3078,1,0,1.0000,0.0000,1.44682,0.23328,-2.77748,0.97337,1.57080,0.00000,-0.14512,-0.38003,0.04653,,,,,,,,,,,,,,,,,,,,,,,,,,0,0,0,0,0
0.6793,1783190635.3236,1,0,1.0000,0.0000,1.44682,0.23328,-2.77748,0.97337,1.57080,0.00000,-0.14512,-0.38003,0.04653,,,,,,,,,,,,,,,,,,,,,,,,,,0,0,0,0,0
0.6881,1783190635.3323,1,0,1.0000,0.0000,1.44682,0.23328,-2.77748,0.97337,1.57080,0.00000,-0.14512,-0.38003,0.04653,,,,,,,,,,,,,,,,,,,,,,,,,,0,0,0,0,0
0.7019,1783190635.3462,1,0,1.0000,0.0000,1.44682,0.23328,-2.77748,0.97337,1.57080,0.00000,-0.14512,-0.38003,0.04653,,,,,,,,,,,,,,,,,,,,,,,,,,0,0,0,0,0
0.7128,1783190635.3571,1,0,1.0000,0.0000,1.44682,0.23328,-2.77748,0.97337,1.57080,0.00000,-0.14512,-0.38003,0.04653,,,,,,,,,,,,,,,,,,,,,,,,,,0,0,0,0,0
0.7132,1783190635.3575,1,0,1.0000,0.0000,1.44682,0.23328,-2.77748,0.97337,1.57080,0.00000,-0.14512,-0.38003,0.04653,,,,,,,,,,,,,,,,,,,,,,,,,,0,0,0,0,0
0.7203,1783190635.3646,1,0,1.0000,0.0000,1.44682,0.23328,-2.77748,0.97337,1.57080,0.00000,-0.14512,-0.38003,0.04653,,,,,,,,,,,,,,,,,,,,,,,,,,0,0,0,0,0
0.7320,1783190635.3763,1,1,1.0000,0.0000,1.44682,0.23328,-2.77748,0.97337,1.57080,0.00000,-0.14512,-0.38003,0.04653,,,,,,,,,,,,,,,,,,,,,,,,,,0,0,0,0,0
0.7377,1783190635.3820,1,1,1.0000,0.0000,1.44682,0.23328,-2.77748,0.97337,1.57080,0.00000,-0.14512,-0.38003,0.04653,,,,,,,,,,,,,,,,,,,,,,,,,,0,0,0,0,0
0.7488,1783190635.3931,1,1,1.0000,0.0000,1.44682,0.23328,-2.77748,0.97337,1.57080,0.00000,-0.14512,-0.38003,0.04653,,,,,,,,,,,,,,,,,,,,,,,,,,0,0,0,0,0
0.7629,1783190635.4072,1,1,1.0000,0.0000,1.44682,0.23328,-2.77748,0.97337,1.57080,0.00000,-0.14512,-0.38003,0.04653,,,,,,,,,,,,,,,,,,,,,,,,,,0,0,0,0,0
0.7671,1783190635.4114,1,1,1.0000,0.0000,1.44682,0.23328,-2.77748,0.97337,1.57080,0.00000,-0.14512,-0.38003,0.04653,,,,,,,,,,,,,,,,,,,,,,,,,,0,0,0,0,0
0.7810,1783190635.4253,1,1,1.0000,0.0000,1.44682,0.23328,-2.77748,0.97337,1.57080,0.00000,-0.14512,-0.38003,0.04653,,,,,,,,,,,,,,,,,,,,,,,,,,0,0,0,0,0
0.7813,1783190635.4256,1,1,1.0000,0.0000,1.44682,0.23328,-2.77748,0.97337,1.57080,0.00000,-0.14512,-0.38003,0.04653,,,,,,,,,,,,,,,,,,,,,,,,,,0,0,0,0,0
0.7869,1783190635.4311,1,1,1.0000,0.0000,1.44682,0.23328,-2.77748,0.97337,1.57080,0.00000,-0.14512,-0.38003,0.04653,,,,,,,,,,,,,,,,,,,,,,,,,,0,0,0,0,0
0.7993,1783190635.4436,1,1,1.0000,0.0000,1.44682,0.23328,-2.77748,0.97337,1.57080,0.00000,-0.14512,-0.38003,0.04653,,,,,,,,,,,,,,,,,,,,,,,,,,0,0,0,0,0
0.8110,1783190635.4553,1,1,1.0000,0.0000,1.44682,0.23328,-2.77748,0.97337,1.57080,0.00000,-0.14512,-0.38003,0.04653,,,,,,,,,,,,,,,,,,,,,,,,,,0,0,0,0,0
0.8182,1783190635.4624,1,1,1.0000,0.0000,1.44682,0.23328,-2.77748,0.97337,1.57080,0.00000,-0.14512,-0.38003,0.04653,,,,,,,,,,,,,,,,,,,,,,,,,,0,0,0,0,0
0.8290,1783190635.4733,1,1,1.0000,0.0000,1.44682,0.23328,-2.77748,0.97337,1.57080,0.00000,-0.14512,-0.38003,0.04653,,,,,,,,,,,,,,,,,,,,,,,,,,0,0,0,0,0
0.8295,1783190635.4738,1,1,1.0000,0.0000,1.44682,0.23328,-2.77748,0.97337,1.57080,0.00000,-0.14512,-0.38003,0.04653,,,,,,,,,,,,,,,,,,,,,,,,,,0,0,0,0,0
0.8370,1783190635.4813,1,1,1.0000,0.0000,1.44682,0.23328,-2.77748,0.97337,1.57080,0.00000,-0.14512,-0.38003,0.04653,,,,,,,,,,,,,,,,,,,,,,,,,,0,0,0,0,0
0.8470,1783190635.4913,1,1,1.0000,0.0000,1.44682,0.23328,-2.77748,0.97337,1.57080,0.00000,-0.14512,-0.38003,0.04653,,,,,,,,,,,,,,,,,,,,,,,,,,0,0,0,0,0
0.8583,1783190635.5026,1,1,1.0000,0.0000,1.44682,0.23328,-2.77748,0.97337,1.57080,0.00000,-0.14512,-0.38003,0.04653,,,,,,,,,,,,,,,,,,,,,,,,,,0,0,0,0,0
0.8669,1783190635.5112,1,1,1.0000,0.0000,1.44682,0.23328,-2.77748,0.97337,1.57080,0.00000,-0.14512,-0.38003,0.04653,,,,,,,,,,,,,,,,,,,,,,,,,,0,0,0,0,0
0.8672,1783190635.5115,1,1,1.0000,0.0000,1.44682,0.23328,-2.77748,0.97337,1.57080,0.00000,-0.14512,-0.38003,0.04653,,,,,,,,,,,,,,,,,,,,,,,,,,0,0,0,0,0
0.8814,1783190635.5256,1,1,1.0000,0.0000,1.44682,0.23328,-2.77748,0.97337,1.57080,0.00000,-0.14512,-0.38003,0.04653,,,,,,,,,,,,,,,,,,,,,,,,,,0,0,0,0,0
0.8929,1783190635.5372,1,1,1.0000,0.0000,1.44682,0.23328,-2.77748,0.97337,1.57080,0.00000,-0.14512,-0.38003,0.04653,,,,,,,,,,,,,,,,,,,,,,,,,,0,0,0,0,0
0.8932,1783190635.5375,1,1,1.0000,0.0000,1.44682,0.23328,-2.77748,0.97337,1.57080,0.00000,-0.14512,-0.38003,0.04653,,,,,,,,,,,,,,,,,,,,,,,,,,0,0,0,0,0
0.8969,1783190635.5412,1,1,1.0000,0.0000,1.44682,0.23328,-2.77748,0.97337,1.57080,0.00000,-0.14512,-0.38003,0.04653,,,,,,,,,,,,,,,,,,,,,,,,,,0,0,0,0,0
0.9076,1783190635.5518,1,1,1.0000,0.0000,1.44682,0.23328,-2.77748,0.97337,1.57080,0.00000,-0.14512,-0.38003,0.04653,,,,,,,,,,,,,,,,,,,,,,,,,,0,0,0,0,0
0.9210,1783190635.5652,1,1,1.0000,0.0000,1.44682,0.23328,-2.77748,0.97337,1.57080,0.00000,-0.14512,-0.38003,0.04653,,,,,,,,,,,,,,,,,,,,,,,,,,0,0,0,0,0
0.9214,1783190635.5657,1,1,1.0000,0.0000,1.44682,0.23328,-2.77748,0.97337,1.57080,0.00000,-0.14512,-0.38003,0.04653,,,,,,,,,,,,,,,,,,,,,,,,,,0,0,0,0,0
0.9348,1783190635.5790,1,1,1.0000,0.0000,1.44682,0.23316,-2.77751,0.97352,1.57080,0.00000,-0.14512,-0.38003,0.04650,,,,,,,,,,,,,,,,,,,,,,,,,,0,0,0,0,0
0.9414,1783190635.5857,1,1,1.0000,0.0000,1.44682,0.23301,-2.77755,0.97371,1.57080,0.00000,-0.14512,-0.38003,0.04646,,,,,,,,,,,,,,,,,,,,,,,,,,0,0,0,0,0
0.9469,1783190635.5912,1,1,1.0000,0.0000,1.44682,0.23293,-2.77757,0.97381,1.57080,0.00000,-0.14512,-0.38003,0.04644,,,,,,,,,,,,,,,,,,,,,,,,,,0,0,0,0,0
0.9627,1783190635.6070,1,1,1.0000,0.0000,1.44682,0.23284,-2.77759,0.97392,1.57080,0.00000,-0.14512,-0.38003,0.04641,,,,,,,,,,,,,,,,,,,,,,,,,,0,0,0,0,0
0.9666,1783190635.6109,1,1,1.0000,0.0000,1.44682,0.23278,-2.77761,0.97400,1.57080,0.00000,-0.14512,-0.38003,0.04640,,,,,,,,,,,,,,,,,,,,,,,,,,0,0,0,0,0
0.9670,1783190635.6113,1,1,1.0000,0.0000,1.44682,0.23278,-2.77761,0.97400,1.57080,0.00000,-0.14512,-0.38003,0.04640,,,,,,,,,,,,,,,,,,,,,,,,,,0,0,0,0,0
0.9819,1783190635.6262,1,1,1.0000,0.0000,1.44682,0.23258,-2.77766,0.97425,1.57080,0.00000,-0.14512,-0.38003,0.04635,,,,,,,,,,,,,,,,,,,,,,,,,,0,0,0,0,0
0.9878,1783190635.6320,1,1,1.0000,0.0000,1.44682,0.23257,-2.77766,0.97426,1.57080,0.00000,-0.14512,-0.38003,0.04634,,,,,,,,,,,,,,,,,,,,,,,,,,0,0,0,0,0
0.9975,1783190635.6418,1,1,1.0000,0.0000,1.44682,0.23246,-2.77769,0.97439,1.57080,0.00000,-0.14512,-0.38003,0.04631,,,,,,,,,,,,,,,,,,,,,,,,,,0,0,0,0,0
1.0087,1783190635.6530,1,1,1.0000,0.0000,1.44682,0.23235,-2.77772,0.97454,1.57080,0.00000,-0.14512,-0.38003,0.04629,,,,,,,,,,,,,,,,,,,,,,,,,,0,0,0,0,0
1.0175,1783190635.6618,1,1,1.0000,0.0000,1.44682,0.23230,-2.77773,0.97459,1.57080,0.00000,-0.14512,-0.38003,0.04627,,,,,,,,,,,,,,,,,,,,,,,,,,0,0,0,0,0
1.0289,1783190635.6732,1,1,1.0000,0.0000,1.44682,0.23212,-2.77777,0.97482,1.57080,0.00000,-0.14512,-0.38003,0.04623,,,,,,,,,,,,,,,,,,,,,,,,,,0,0,0,0,0
1.0294,1783190635.6737,1,1,1.0000,0.0000,1.44682,0.23212,-2.77777,0.97482,1.57080,0.00000,-0.14512,-0.38003,0.04623,,,,,,,,,,,,,,,,,,,,,,,,,,0,0,0,0,0
1.0436,1783190635.6879,1,1,1.0000,0.0000,1.44682,0.23198,-2.77781,0.97500,1.57080,0.00000,-0.14512,-0.38003,0.04619,,,,,,,,,,,,,,,,,,,,,,,,,,0,0,0,0,0
1.0479,1783190635.6922,1,1,1.0000,0.0000,1.44682,0.23198,-2.77781,0.97501,1.57080,0.00000,-0.14512,-0.38003,0.04619,,,,,,,,,,,,,,,,,,,,,,,,,,0,0,0,0,0
1.0568,1783190635.7011,1,1,1.0000,0.0000,1.44682,0.23187,-2.77784,0.97514,1.57080,0.00000,-0.14512,-0.38003,0.04616,,,,,,,,,,,,,,,,,,,,,,,,,,0,0,0,0,0
1.0694,1783190635.7137,1,1,1.0000,0.0000,1.44682,0.23176,-2.77787,0.97528,1.57080,0.00000,-0.14512,-0.38003,0.04613,,,,,,,,,,,,,,,,,,,,,,,,,,0,0,0,0,0
1.0697,1783190635.7140,1,1,1.0000,0.0000,1.44682,0.23176,-2.77787,0.97528,1.57080,0.00000,-0.14512,-0.38003,0.04613,,,,,,,,,,,,,,,,,,,,,,,,,,0,0,0,0,0
1.0849,1783190635.7292,1,1,1.0000,0.0000,1.44682,0.23160,-2.77791,0.97548,1.57080,0.00000,-0.14512,-0.38003,0.04609,,,,,,,,,,,,,,,,,,,,,,,,,,0,0,0,0,0
1.0876,1783190635.7318,1,1,1.0000,0.0000,1.44682,0.23160,-2.77791,0.97548,1.57080,0.00000,-0.14512,-0.38003,0.04609,,,,,,,,,,,,,,,,,,,,,,,,,,0,0,0,0,0
1.0881,1783190635.7324,1,1,1.0000,0.0000,1.44682,0.23160,-2.77791,0.97548,1.57080,0.00000,-0.14512,-0.38003,0.04609,,,,,,,,,,,,,,,,,,,,,,,,,,0,0,0,0,0
1.1013,1783190635.7456,1,1,1.0000,0.0000,1.44682,0.23139,-2.77796,0.97574,1.57080,0.00000,-0.14512,-0.38003,0.04603,,,,,,,,,,,,,,,,,,,,,,,,,,0,0,0,0,0
1.1111,1783190635.7554,1,1,1.0000,0.0000,1.44682,0.23136,-2.77797,0.97578,1.57080,0.00000,-0.14512,-0.38003,0.04603,,,,,,,,,,,,,,,,,,,,,,,,,,0,0,0,0,0
1.1115,1783190635.7558,1,1,1.0000,0.0000,1.44682,0.23136,-2.77797,0.97578,1.57080,0.00000,-0.14512,-0.38003,0.04603,,,,,,,,,,,,,,,,,,,,,,,,,,0,0,0,0,0
1.1223,1783190635.7666,1,1,1.0000,0.0000,1.44682,0.23122,-2.77801,0.97595,1.57080,0.00000,-0.14512,-0.38003,0.04599,,,,,,,,,,,,,,,,,,,,,,,,,,0,0,0,0,0
1.1226,1783190635.7669,1,1,1.0000,0.0000,1.44682,0.23122,-2.77801,0.97595,1.57080,0.00000,-0.14512,-0.38003,0.04599,,,,,,,,,,,,,,,,,,,,,,,,,,0,0,0,0,0
1.1281,1783190635.7723,1,1,1.0000,0.0000,1.44682,0.23116,-2.77802,0.97603,1.57080,0.00000,-0.14512,-0.38003,0.04598,,,,,,,,,,,,,,,,,,,,,,,,,,0,0,0,0,0
1.1418,1783190635.7861,1,1,1.0000,0.0000,1.44682,0.23107,-2.77805,0.97615,1.57080,0.00000,-0.14512,-0.38003,0.04595,,,,,,,,,,,,,,,,,,,,,,,,,,0,0,0,0,0
1.1487,1783190635.7930,1,1,1.0000,0.0000,1.44682,0.23094,-2.77808,0.97631,1.57080,0.00000,-0.14512,-0.38003,0.04592,,,,,,,,,,,,,,,,,,,,,,,,,,0,0,0,0,0
1.1489,1783190635.7932,1,1,1.0000,0.0000,1.44682,0.23094,-2.77808,0.97631,1.57080,0.00000,-0.14512,-0.38003,0.04592,,,,,,,,,,,,,,,,,,,,,,,,,,0,0,0,0,0
1.1627,1783190635.8070,1,1,1.0000,0.0000,1.44682,0.23080,-2.77812,0.97649,1.57080,0.00000,-0.14512,-0.38003,0.04588,,,,,,,,,,,,,,,,,,,,,,,,,,0,0,0,0,0
1.1706,1783190635.8149,1,1,1.0000,0.0000,1.44682,0.23075,-2.77813,0.97655,1.57080,0.00000,-0.14512,-0.38003,0.04587,,,,,,,,,,,,,,,,,,,,,,,,,,0,0,0,0,0
1.1771,1783190635.8213,1,1,1.0000,0.0000,1.44682,0.23064,-2.77816,0.97668,1.57080,0.00000,-0.14512,-0.38003,0.04584,,,,,,,,,,,,,,,,,,,,,,,,,,0,0,0,0,0
1.1911,1783190635.8354,1,1,1.0000,0.0000,1.44682,0.23050,-2.77819,0.97686,1.57080,0.00000,-0.14512,-0.38003,0.04580,,,,,,,,,,,,,,,,,,,,,,,,,,0,0,0,0,0
1.2030,1783190635.8473,1,1,1.0000,0.0000,1.44682,0.23041,-2.77821,0.97697,1.57080,0.00000,-0.14512,-0.38003,0.04578,,,,,,,,,,,,,,,,,,,,,,,,,,0,0,0,0,0
1.2034,1783190635.8477,1,1,1.0000,0.0000,1.44682,0.23041,-2.77821,0.97697,1.57080,0.00000,-0.14512,-0.38003,0.04578,,,,,,,,,,,,,,,,,,,,,,,,,,0,0,0,0,0
1.2104,1783190635.8546,1,1,1.0000,0.0000,1.44682,0.23028,-2.77825,0.97713,1.57080,0.00000,-0.14512,-0.38003,0.04575,,,,,,,,,,,,,,,,,,,,,,,,,,0,0,0,0,0
1.2237,1783190635.8680,1,1,1.0000,0.0000,1.44682,0.23015,-2.77828,0.97730,1.57080,0.00000,-0.14512,-0.38003,0.04571,,,,,,,,,,,,,,,,,,,,,,,,,,0,0,0,0,0
1.2463,1783190635.8906,1,1,1.0000,0.0000,1.44682,0.22986,-2.77836,0.97767,1.57080,0.00000,-0.14512,-0.38003,0.04563,,,,,,,,,,,,,,,,,,,,,,,,,,0,0,0,0,0
1.2466,1783190635.8909,1,1,1.0000,0.0000,1.44682,0.22986,-2.77836,0.97767,1.57080,0.00000,-0.14512,-0.38003,0.04563,,,,,,,,,,,,,,,,,,,,,,,,,,0,0,0,0,0
1.2507,1783190635.8950,1,1,1.0000,0.0000,1.44682,0.22986,-2.77836,0.97767,1.57080,0.00000,-0.14512,-0.38003,0.04563,,,,,,,,,,,,,,,,,,,,,,,,,,0,0,0,0,0
1.2512,1783190635.8955,1,1,1.0000,0.0000,1.44682,0.22986,-2.77836,0.97767,1.57080,0.00000,-0.14512,-0.38003,0.04563,,,,,,,,,,,,,,,,,,,,,,,,,,0,0,0,0,0
1.2622,1783190635.9065,1,1,1.0000,0.0000,1.44682,0.22976,-2.77838,0.97779,1.57080,0.00000,-0.14512,-0.38003,0.04561,,,,,,,,,,,,,,,,,,,,,,,,,,0,0,0,0,0
1.2713,1783190635.9156,1,1,1.0000,0.0000,1.44682,0.22964,-2.77841,0.97795,1.57080,0.00000,-0.14512,-0.38003,0.04558,,,,,,,,,,,,,,,,,,,,,,,,,,0,0,0,0,0
1.2718,1783190635.9161,1,1,1.0000,0.0000,1.44682,0.22964,-2.77841,0.97795,1.57080,0.00000,-0.14512,-0.38003,0.04558,,,,,,,,,,,,,,,,,,,,,,,,,,0,0,0,0,0
1.2809,1783190635.9252,1,1,1.0000,0.0000,1.44682,0.22950,-2.77845,0.97812,1.57080,0.00000,-0.14512,-0.38003,0.04554,,,,,,,,,,,,,,,,,,,,,,,,,,0,0,0,0,0
1.2930,1783190635.9373,1,1,1.0000,0.0000,1.44682,0.22940,-2.77847,0.97824,1.57080,0.00000,-0.14512,-0.38003,0.04552,,,,,,,,,,,,,,,,,,,,,,,,,,0,0,0,0,0
1.3048,1783190635.9491,1,1,1.0000,0.0000,1.44682,0.22921,-2.77852,0.97849,1.57080,0.00000,-0.14512,-0.38003,0.04547,,,,,,,,,,,,,,,,,,,,,,,,,,0,0,0,0,0
1.3112,1783190635.9555,1,1,1.0000,0.0000,1.44682,0.22921,-2.77852,0.97849,1.57080,0.00000,-0.14512,-0.38003,0.04547,,,,,,,,,,,,,,,,,,,,,,,,,,0,0,0,0,0
1.3270,1783190635.9713,1,1,1.0000,0.0000,1.44682,0.22905,-2.77856,0.97868,1.57080,0.00000,-0.14512,-0.38003,0.04543,,,,,,,,,,,,,,,,,,,,,,,,,,0,0,0,0,0
1.3312,1783190635.9755,1,1,1.0000,0.0000,1.44682,0.22899,-2.77858,0.97876,1.57080,0.00000,-0.14512,-0.38003,0.04541,,,,,,,,,,,,,,,,,,,,,,,,,,0,0,0,0,0
1.3316,1783190635.9758,1,1,1.0000,0.0000,1.44682,0.22899,-2.77858,0.97876,1.57080,0.00000,-0.14512,-0.38003,0.04541,,,,,,,,,,,,,,,,,,,,,,,,,,0,0,0,0,0
1.3447,1783190635.9890,1,1,1.0000,0.0000,1.44682,0.22884,-2.77862,0.97895,1.57080,0.00000,-0.14512,-0.38003,0.04537,,,,,,,,,,,,,,,,,,,,,,,,,,0,0,0,0,0
1.3522,1783190635.9964,1,1,1.0000,0.0000,1.44682,0.22880,-2.77863,0.97899,1.57080,0.00000,-0.14512,-0.38003,0.04536,,,,,,,,,,,,,,,,,,,,,,,,,,0,0,0,0,0
1.3656,1783190636.0099,1,1,1.0000,0.0000,1.44682,0.22856,-2.77869,0.97930,1.57080,0.00000,-0.14512,-0.38003,0.04530,,,,,,,,,,,,,,,,,,,,,,,,,,0,0,0,0,0
1.3705,1783190636.0148,1,1,1.0000,0.0000,1.44682,0.22856,-2.77869,0.97930,1.57080,0.00000,-0.14512,-0.38003,0.04530,,,,,,,,,,,,,,,,,,,,,,,,,,0,0,0,0,0
1.3836,1783190636.0279,1,1,1.0000,0.0000,1.44682,0.22846,-2.77871,0.97942,1.57080,0.00000,-0.14512,-0.38003,0.04527,,,,,,,,,,,,,,,,,,,,,,,,,,0,0,0,0,0
1.3840,1783190636.0283,1,1,1.0000,0.0000,1.44682,0.22846,-2.77871,0.97942,1.57080,0.00000,-0.14512,-0.38003,0.04527,,,,,,,,,,,,,,,,,,,,,,,,,,0,0,0,0,0
1.3940,1783190636.0383,1,1,1.0000,0.0000,1.44682,0.22827,-2.77876,0.97967,1.57080,0.00000,-0.14512,-0.38003,0.04522,,,,,,,,,,,,,,,,,,,,,,,,,,0,0,0,0,0
1.4010,1783190636.0453,1,1,1.0000,0.0000,1.44682,0.22820,-2.77878,0.97975,1.57080,0.00000,-0.14512,-0.38003,0.04520,,,,,,,,,,,,,,,,,,,,,,,,,,0,0,0,0,0
1.4014,1783190636.0457,1,1,1.0000,0.0000,1.44682,0.22820,-2.77878,0.97975,1.57080,0.00000,-0.14512,-0.38003,0.04520,,,,,,,,,,,,,,,,,,,,,,,,,,0,0,0,0,0
1.4117,1783190636.0560,1,1,1.0000,0.0000,1.44682,0.22815,-2.77879,0.97981,1.57080,0.00000,-0.14512,-0.38003,0.04519,,,,,,,,,,,,,,,,,,,,,,,,,,0,0,0,0,0
1.4254,1783190636.0697,1,1,1.0000,0.0000,1.44682,0.22791,-2.77885,0.98012,1.57080,0.00000,-0.14512,-0.38003,0.04513,,,,,,,,,,,,,,,,,,,,,,,,,,0,0,0,0,0
1.4257,1783190636.0700,1,1,1.0000,0.0000,1.44682,0.22791,-2.77885,0.98012,1.57080,0.00000,-0.14512,-0.38003,0.04513,,,,,,,,,,,,,,,,,,,,,,,,,,0,0,0,0,0
1.4342,1783190636.0785,1,1,1.0000,0.0000,1.44682,0.22784,-2.77887,0.98020,1.57080,0.00000,-0.14512,-0.38003,0.04511,,,,,,,,,,,,,,,,,,,,,,,,,,0,0,0,0,0
1.4450,1783190636.0893,1,1,1.0000,0.0000,1.44682,0.22777,-2.77889,0.98029,1.57080,0.00000,-0.14512,-0.38003,0.04509,,,,,,,,,,,,,,,,,,,,,,,,,,0,0,0,0,0
1.4453,1783190636.0896,1,1,1.0000,0.0000,1.44682,0.22777,-2.77889,0.98029,1.57080,0.00000,-0.14512,-0.38003,0.04509,,,,,,,,,,,,,,,,,,,,,,,,,,0,0,0,0,0
1.4522,1783190636.0965,1,1,1.0000,0.0000,1.44682,0.22772,-2.77890,0.98035,1.57080,0.00000,-0.14512,-0.38003,0.04508,,,,,,,,,,,,,,,,,,,,,,,,,,0,0,0,0,0
1.4530,1783190636.0972,1,1,1.0000,0.0000,1.44682,0.22767,-2.77892,0.98042,1.57080,0.00000,-0.14512,-0.38003,0.04507,,,,,,,,,,,,,,,,,,,,,,,,,,0,0,0,0,0
1.4636,1783190636.1078,1,1,1.0000,0.0000,1.44682,0.22761,-2.77893,0.98049,1.57080,0.00000,-0.14512,-0.38003,0.04505,,,,,,,,,,,,,,,,,,,,,,,,,,0,0,0,0,0
1.4720,1783190636.1163,1,1,1.0000,0.0000,1.44682,0.22756,-2.77894,0.98055,1.57080,0.00000,-0.14512,-0.38003,0.04504,,,,,,,,,,,,,,,,,,,,,,,,,,0,0,0,0,0
1.4807,1783190636.1250,1,1,1.0000,0.0000,1.44682,0.22738,-2.77899,0.98078,1.57080,0.00000,-0.14512,-0.38003,0.04499,,,,,,,,,,,,,,,,,,,,,,,,,,0,0,0,0,0
1.4989,1783190636.1432,1,1,1.0000,0.0000,1.44682,0.22723,-2.77903,0.98096,1.57080,0.00000,-0.14512,-0.38003,0.04495,,,,,,,,,,,,,,,,,,,,,,,,,,0,0,0,0,0
1.5039,1783190636.1482,1,1,1.0000,0.0000,1.44682,0.22721,-2.77903,0.98099,1.57080,0.00000,-0.14512,-0.38003,0.04495,,,,,,,,,,,,,,,,,,,,,,,,,,0,0,0,0,0
1.5130,1783190636.1573,1,1,1.0000,0.0000,1.44682,0.22707,-2.77907,0.98117,1.57080,0.00001,-0.14512,-0.38003,0.04491,,,,,,,,,,,,,,,,,,,,,,,,,,0,0,0,0,0
1.5240,1783190636.1683,1,1,1.0000,0.0000,1.44682,0.22701,-2.77908,0.98124,1.57080,0.00001,-0.14512,-0.38003,0.04489,,,,,,,,,,,,,,,,,,,,,,,,,,0,0,0,0,0
1.5304,1783190636.1747,1,1,1.0000,0.0000,1.44682,0.22696,-2.77909,0.98130,1.57080,0.00001,-0.14512,-0.38003,0.04488,,,,,,,,,,,,,,,,,,,,,,,,,,0,0,0,0,0
1.5464,1783190636.1907,1,1,1.0000,0.0000,1.44682,0.22671,-2.77916,0.98162,1.57080,0.00001,-0.14512,-0.38003,0.04482,,,,,,,,,,,,,,,,,,,,,,,,,,0,0,0,0,0
1.5529,1783190636.1971,1,1,1.0000,0.0000,1.44682,0.22664,-2.77918,0.98170,1.57080,0.00001,-0.14512,-0.38003,0.04480,,,,,,,,,,,,,,,,,,,,,,,,,,0,0,0,0,0
1.5531,1783190636.1974,1,1,1.0000,0.0000,1.44682,0.22664,-2.77918,0.98170,1.57080,0.00001,-0.14512,-0.38003,0.04480,,,,,,,,,,,,,,,,,,,,,,,,,,0,0,0,0,0
1.5627,1783190636.2069,1,1,1.0000,0.0000,1.44682,0.22661,-2.77918,0.98174,1.57080,0.00001,-0.14512,-0.38003,0.04479,,,,,,,,,,,,,,,,,,,,,,,,,,0,0,0,0,0
1.5630,1783190636.2073,1,1,1.0000,0.0000,1.44682,0.22661,-2.77918,0.98174,1.57080,0.00001,-0.14512,-0.38003,0.04479,,,,,,,,,,,,,,,,,,,,,,,,,,0,0,0,0,0
1.5723,1783190636.2166,1,1,1.0000,0.0000,1.44682,0.22653,-2.77921,0.98185,1.57080,0.00001,-0.14512,-0.38003,0.04477,,,,,,,,,,,,,,,,,,,,,,,,,,0,0,0,0,0
1.5728,1783190636.2171,1,1,1.0000,0.0000,1.44682,0.22647,-2.77922,0.98192,1.57080,0.00001,-0.14512,-0.38003,0.04475,,,,,,,,,,,,,,,,,,,,,,,,,,0,0,0,0,0
1.6518,1783190636.2961,1,1,1.0000,0.0000,1.44682,0.22577,-2.77940,0.98280,1.57080,0.00001,-0.14512,-0.38003,0.04457,,,,,,,,,,,,,,,,,,,,,,,,,,0,0,0,0,0
1.6521,1783190636.2964,1,1,1.0000,0.0000,1.44682,0.22577,-2.77940,0.98280,1.57080,0.00001,-0.14512,-0.38003,0.04457,,,,,,,,,,,,,,,,,,,,,,,,,,0,0,0,0,0
1.6524,1783190636.2967,1,1,1.0000,0.0000,1.44682,0.22577,-2.77940,0.98280,1.57080,0.00001,-0.14512,-0.38003,0.04457,,,,,,,,,,,,,,,,,,,,,,,,,,0,0,0,0,0
1.6528,1783190636.2971,1,1,1.0000,0.0000,1.44682,0.22572,-2.77941,0.98286,1.57080,0.00001,-0.14512,-0.38003,0.04456,,,,,,,,,,,,,,,,,,,,,,,,,,0,0,0,0,0
1.6530,1783190636.2973,1,1,1.0000,0.0000,1.44682,0.22572,-2.77941,0.98286,1.57080,0.00001,-0.14512,-0.38003,0.04456,,,,,,,,,,,,,,,,,,,,,,,,,,0,0,0,0,0
1.6546,1783190636.2989,1,1,1.0000,0.0000,1.44682,0.22572,-2.77941,0.98286,1.57080,0.00001,-0.14512,-0.38003,0.04456,,,,,,,,,,,,,,,,,,,,,,,,,,0,0,0,0,0
1.6549,1783190636.2991,1,1,1.0000,0.0000,1.44682,0.22572,-2.77941,0.98286,1.57080,0.00001,-0.14512,-0.38003,0.04456,,,,,,,,,,,,,,,,,,,,,,,,,,0,0,0,0,0
1.6552,1783190636.2995,1,1,1.0000,0.0000,1.44682,0.22572,-2.77941,0.98286,1.57080,0.00001,-0.14512,-0.38003,0.04456,,,,,,,,,,,,,,,,,,,,,,,,,,0,0,0,0,0
1.6555,1783190636.2998,1,1,1.0000,0.0000,1.44682,0.22572,-2.77941,0.98286,1.57080,0.00001,-0.14512,-0.38003,0.04456,,,,,,,,,,,,,,,,,,,,,,,,,,0,0,0,0,0
1.6707,1783190636.3150,1,1,1.0000,0.0000,1.44682,0.22544,-2.77948,0.98320,1.57080,0.00001,-0.14512,-0.38002,0.04449,,,,,,,,,,,,,,,,,,,,,,,,,,0,0,0,0,0
1.6710,1783190636.3153,1,1,1.0000,0.0000,1.44682,0.22544,-2.77948,0.98320,1.57080,0.00001,-0.14512,-0.38002,0.04449,,,,,,,,,,,,,,,,,,,,,,,,,,0,0,0,0,0
1.6819,1783190636.3262,1,1,1.0000,0.0000,1.44682,0.22541,-2.77949,0.98324,1.57080,0.00001,-0.14512,-0.38002,0.04448,,,,,,,,,,,,,,,,,,,,,,,,,,0,0,0,0,0
1.7027,1783190636.3470,1,1,1.0000,0.0000,1.44682,0.22521,-2.77954,0.98349,1.57080,0.00001,-0.14512,-0.38002,0.04443,,,,,,,,,,,,,,,,,,,,,,,,,,0,0,0,0,0
1.7049,1783190636.3492,1,1,1.0000,0.0000,1.44682,0.22520,-2.77954,0.98351,1.57080,0.00001,-0.14512,-0.38002,0.04443,,,,,,,,,,,,,,,,,,,,,,,,,,0,0,0,0,0
1.7145,1783190636.3588,1,1,1.0000,0.0000,1.44682,0.22512,-2.77956,0.98361,1.57080,0.00001,-0.14512,-0.38002,0.04440,,,,,,,,,,,,,,,,,,,,,,,,,,0,0,0,0,0
1.7215,1783190636.3658,1,1,1.0000,0.0000,1.44682,0.22498,-2.77959,0.98378,1.57080,0.00001,-0.14512,-0.38002,0.04437,,,,,,,,,,,,,,,,,,,,,,,,,,0,0,0,0,0
1.7360,1783190636.3803,1,1,1.0000,0.0000,1.44682,0.22484,-2.77963,0.98396,1.57080,0.00001,-0.14512,-0.38002,0.04433,,,,,,,,,,,,,,,,,,,,,,,,,,0,0,0,0,0
1.7410,1783190636.3853,1,1,1.0000,0.0000,1.44682,0.22481,-2.77964,0.98400,1.57080,0.00001,-0.14512,-0.38002,0.04433,,,,,,,,,,,,,,,,,,,,,,,,,,0,0,0,0,0
1.7413,1783190636.3856,1,1,1.0000,0.0000,1.44682,0.22481,-2.77964,0.98400,1.57080,0.00001,-0.14512,-0.38002,0.04433,,,,,,,,,,,,,,,,,,,,,,,,,,0,0,0,0,0
1.7557,1783190636.4000,1,1,1.0000,0.0000,1.44682,0.22467,-2.77967,0.98417,1.57080,0.00001,-0.14512,-0.38002,0.04429,,,,,,,,,,,,,,,,,,,,,,,,,,0,0,0,0,0
1.7561,1783190636.4004,1,1,1.0000,0.0000,1.44682,0.22467,-2.77967,0.98417,1.57080,0.00001,-0.14512,-0.38002,0.04429,,,,,,,,,,,,,,,,,,,,,,,,,,0,0,0,0,0
1.7654,1783190636.4097,1,1,1.0000,0.0000,1.44682,0.22460,-2.77969,0.98426,1.57080,0.00001,-0.14512,-0.38002,0.04427,,,,,,,,,,,,,,,,,,,,,,,,,,0,0,0,0,0
1.7722,1783190636.4164,1,1,1.0000,0.0000,1.44682,0.22457,-2.77970,0.98430,1.57080,0.00001,-0.14512,-0.38002,0.04426,,,,,,,,,,,,,,,,,,,,,,,,,,0,0,0,0,0
1.7727,1783190636.4170,1,1,1.0000,0.0000,1.44682,0.22452,-2.77971,0.98436,1.57080,0.00001,-0.14512,-0.38002,0.04425,,,,,,,,,,,,,,,,,,,,,,,,,,0,0,0,0,0
1.7802,1783190636.4245,1,1,1.0000,0.0000,1.44682,0.22445,-2.77973,0.98444,1.57080,0.00001,-0.14512,-0.38002,0.04423,,,,,,,,,,,,,,,,,,,,,,,,,,0,0,0,0,0
1.7808,1783190636.4251,1,1,1.0000,0.0000,1.44682,0.22438,-2.77975,0.98453,1.57080,0.00001,-0.14512,-0.38002,0.04421,,,,,,,,,,,,,,,,,,,,,,,,,,0,0,0,0,0
1.7928,1783190636.4371,1,1,1.0000,0.0000,1.44682,0.22424,-2.77978,0.98471,1.57080,0.00001,-0.14512,-0.38002,0.04418,,,,,,,,,,,,,,,,,,,,,,,,,,0,0,0,0,0
1.7931,1783190636.4374,1,1,1.0000,0.0000,1.44682,0.22424,-2.77978,0.98471,1.57080,0.00001,-0.14512,-0.38002,0.04418,,,,,,,,,,,,,,,,,,,,,,,,,,0,0,0,0,0
1.8024,1783190636.4467,1,1,1.0000,0.0000,1.44682,0.22421,-2.77979,0.98475,1.57080,0.00001,-0.14512,-0.38002,0.04417,,,,,,,,,,,,,,,,,,,,,,,,,,0,0,0,0,0
1.8129,1783190636.4572,1,1,1.0000,0.0000,1.44682,0.22413,-2.77981,0.98485,1.57080,0.00001,-0.14512,-0.38002,0.04415,,,,,,,,,,,,,,,,,,,,,,,,,,0,0,0,0,0
1.8204,1783190636.4647,1,1,1.0000,0.0000,1.44682,0.22401,-2.77984,0.98499,1.57080,0.00001,-0.14512,-0.38002,0.04412,,,,,,,,,,,,,,,,,,,,,,,,,,0,0,0,0,0
1.8211,1783190636.4653,1,1,1.0000,0.0000,1.44682,0.22401,-2.77984,0.98499,1.57080,0.00001,-0.14512,-0.38002,0.04412,,,,,,,,,,,,,,,,,,,,,,,,,,0,0,0,0,0
1.8329,1783190636.4772,1,1,1.0000,0.0000,1.44682,0.22392,-2.77986,0.98511,1.57080,0.00001,-0.14512,-0.38002,0.04409,,,,,,,,,,,,,,,,,,,,,,,,,,0,0,0,0,0
1.8436,1783190636.4879,1,1,1.0000,0.0000,1.44682,0.22378,-2.77990,0.98528,1.57080,0.00001,-0.14512,-0.38002,0.04406,,,,,,,,,,,,,,,,,,,,,,,,,,0,0,0,0,0
1.8737,1783190636.5180,1,1,1.0000,0.0000,1.44682,0.22342,-2.77999,0.98574,1.57080,0.00001,-0.14512,-0.38002,0.04397,,,,,,,,,,,,,,,,,,,,,,,,,,0,0,0,0,0
1.8740,1783190636.5183,1,1,1.0000,0.0000,1.44682,0.22342,-2.77999,0.98574,1.57080,0.00001,-0.14512,-0.38002,0.04397,,,,,,,,,,,,,,,,,,,,,,,,,,0,0,0,0,0
1.8803,1783190636.5246,1,1,1.0000,0.0000,1.44682,0.22335,-2.78001,0.98583,1.57080,0.00001,-0.14512,-0.38002,0.04395,,,,,,,,,,,,,,,,,,,,,,,,,,0,0,0,0,0
1.8808,1783190636.5251,1,1,1.0000,0.0000,1.44682,0.22335,-2.78001,0.98583,1.57080,0.00001,-0.14512,-0.38002,0.04395,,,,,,,,,,,,,,,,,,,,,,,,,,0,0,0,0,0
1.8936,1783190636.5379,1,1,1.0000,0.0000,1.44682,0.22326,-2.78003,0.98594,1.57080,0.00001,-0.14512,-0.38002,0.04392,,,,,,,,,,,,,,,,,,,,,,,,,,0,0,0,0,0
1.9056,1783190636.5499,1,1,1.0000,0.0000,1.44682,0.22306,-2.78008,0.98619,1.57080,0.00001,-0.14512,-0.38002,0.04387,,,,,,,,,,,,,,,,,,,,,,,,,,0,0,0,0,0
1.9114,1783190636.5557,1,1,1.0000,0.0000,1.44682,0.22299,-2.78010,0.98628,1.57080,0.00001,-0.14512,-0.38002,0.04385,,,,,,,,,,,,,,,,,,,,,,,,,,0,0,0,0,0
1.9209,1783190636.5652,1,1,1.0000,0.0000,1.44682,0.22294,-2.78011,0.98633,1.57080,0.00001,-0.14512,-0.38002,0.04384,,,,,,,,,,,,,,,,,,,,,,,,,,0,0,0,0,0
1.9316,1783190636.5759,1,1,1.0000,0.0000,1.44682,0.22283,-2.78014,0.98647,1.57080,0.00001,-0.14512,-0.38002,0.04381,,,,,,,,,,,,,,,,,,,,,,,,,,0,0,0,0,0
1.9434,1783190636.5877,1,1,1.0000,0.0000,1.44681,0.22269,-2.78017,0.98665,1.57080,0.00001,-0.14512,-0.38002,0.04378,,,,,,,,,,,,,,,,,,,,,,,,,,0,0,0,0,0
1.9506,1783190636.5949,1,1,1.0000,0.0000,1.44681,0.22265,-2.78018,0.98670,1.57080,0.00001,-0.14512,-0.38002,0.04377,,,,,,,,,,,,,,,,,,,,,,,,,,0,0,0,0,0
1.9664,1783190636.6107,1,1,1.0000,0.0000,1.44681,0.22240,-2.78024,0.98701,1.57080,0.00001,-0.14512,-0.38002,0.04370,,,,,,,,,,,,,,,,,,,,,,,,,,0,0,0,0,0
1.9704,1783190636.6147,1,1,1.0000,0.0000,1.44681,0.22233,-2.78026,0.98710,1.57080,0.00001,-0.14512,-0.38002,0.04369,,,,,,,,,,,,,,,,,,,,,,,,,,0,0,0,0,0
1.9807,1783190636.6250,1,1,1.0000,0.0000,1.44681,0.22229,-2.78027,0.98715,1.57080,0.00001,-0.14512,-0.38002,0.04367,,,,,,,,,,,,,,,,,,,,,,,,,,0,0,0,0,0
1.9918,1783190636.6361,1,1,1.0000,0.0000,1.44681,0.22218,-2.78030,0.98729,1.57080,0.00001,-0.14512,-0.38002,0.04365,,,,,,,,,,,,,,,,,,,,,,,,,,0,0,0,0,0
1.9921,1783190636.6364,1,1,1.0000,0.0000,1.44681,0.22218,-2.78030,0.98729,1.57080,0.00001,-0.14512,-0.38002,0.04365,,,,,,,,,,,,,,,,,,,,,,,,,,0,0,0,0,0
2.0078,1783190636.6521,1,1,1.0000,0.0000,1.44681,0.22202,-2.78034,0.98748,1.57080,0.00001,-0.14512,-0.38002,0.04361,,,,,,,,,,,,,,,,,,,,,,,,,,0,0,0,0,0
2.0129,1783190636.6572,1,1,1.0000,0.0000,1.44681,0.22194,-2.78036,0.98758,1.57080,0.00001,-0.14512,-0.38002,0.04359,,,,,,,,,,,,,,,,,,,,,,,,,,0,0,0,0,0
2.0267,1783190636.6710,1,1,1.0000,0.0000,1.44681,0.22174,-2.78041,0.98783,1.57080,0.00001,-0.14512,-0.38002,0.04353,,,,,,,,,,,,,,,,,,,,,,,,,,0,0,0,0,0
2.0309,1783190636.6752,1,1,1.0000,0.0000,1.44681,0.22168,-2.78043,0.98792,1.57080,0.00001,-0.14512,-0.38002,0.04352,,,,,,,,,,,,,,,,,,,,,,,,,,0,0,0,0,0
2.0424,1783190636.6867,1,1,1.0000,0.0000,1.44681,0.22163,-2.78044,0.98797,1.57080,0.00001,-0.14512,-0.38002,0.04350,,,,,,,,,,,,,,,,,,,,,,,,,,0,0,0,0,0
2.0506,1783190636.6948,1,1,1.0000,0.0000,1.44681,0.22152,-2.78046,0.98811,1.57080,0.00001,-0.14512,-0.38002,0.04348,,,,,,,,,,,,,,,,,,,,,,,,,,0,0,0,0,0
2.0659,1783190636.7102,1,1,1.0000,0.0000,1.44681,0.22137,-2.78050,0.98830,1.57080,0.00001,-0.14512,-0.38002,0.04344,,,,,,,,,,,,,,,,,,,,,,,,,,0,0,0,0,0
2.0704,1783190636.7147,1,1,1.0000,0.0000,1.44681,0.22133,-2.78051,0.98834,1.57080,0.00001,-0.14512,-0.38002,0.04343,,,,,,,,,,,,,,,,,,,,,,,,,,0,0,0,0,0
2.0809,1783190636.7252,1,1,1.0000,0.0000,1.44681,0.22116,-2.78056,0.98857,1.57080,0.00001,-0.14512,-0.38002,0.04338,,,,,,,,,,,,,,,,,,,,,,,,,,0,0,0,0,0
2.0912,1783190636.7355,1,1,1.0000,0.0000,1.44681,0.22102,-2.78059,0.98874,1.57080,0.00001,-0.14512,-0.38002,0.04335,,,,,,,,,,,,,,,,,,,,,,,,,,0,0,0,0,0
2.1131,1783190636.7573,1,1,1.0000,0.0000,1.44681,0.22079,-2.78065,0.98902,1.57080,0.00001,-0.14512,-0.38002,0.04329,,,,,,,,,,,,,,,,,,,,,,,,,,0,0,0,0,0
2.1158,1783190636.7600,1,1,1.0000,0.0000,1.44681,0.22079,-2.78065,0.98902,1.57080,0.00001,-0.14512,-0.38002,0.04329,,,,,,,,,,,,,,,,,,,,,,,,,,0,0,0,0,0
2.1161,1783190636.7603,1,1,1.0000,0.0000,1.44681,0.22079,-2.78065,0.98902,1.57080,0.00001,-0.14512,-0.38002,0.04329,,,,,,,,,,,,,,,,,,,,,,,,,,0,0,0,0,0
2.1269,1783190636.7712,1,1,1.0000,0.0000,1.44681,0.22071,-2.78067,0.98912,1.57080,0.00001,-0.14512,-0.38002,0.04327,,,,,,,,,,,,,,,,,,,,,,,,,,0,0,0,0,0
2.1272,1783190636.7715,1,1,1.0000,0.0000,1.44681,0.22071,-2.78067,0.98912,1.57080,0.00001,-0.14512,-0.38002,0.04327,,,,,,,,,,,,,,,,,,,,,,,,,,0,0,0,0,0
2.1315,1783190636.7758,1,1,1.0000,0.0000,1.44681,0.22068,-2.78067,0.98916,1.57080,0.00001,-0.14512,-0.38002,0.04326,,,,,,,,,,,,,,,,,,,,,,,,,,0,0,0,0,0
2.1485,1783190636.7928,1,1,1.0000,0.0000,1.44681,0.22043,-2.78074,0.98948,1.57080,0.00001,-0.14512,-0.38002,0.04320,,,,,,,,,,,,,,,,,,,,,,,,,,0,0,0,0,0
2.1505,1783190636.7948,1,1,1.0000,0.0000,1.44681,0.22036,-2.78075,0.98956,1.57080,0.00001,-0.14512,-0.38002,0.04318,,,,,,,,,,,,,,,,,,,,,,,,,,0,0,0,0,0
2.1653,1783190636.8096,1,1,1.0000,0.0000,1.44681,0.22026,-2.78078,0.98968,1.57080,0.00001,-0.14512,-0.38002,0.04315,,,,,,,,,,,,,,,,,,,,,,,,,,0,0,0,0,0
2.1658,1783190636.8101,1,1,1.0000,0.0000,1.44681,0.22026,-2.78078,0.98968,1.57080,0.00001,-0.14512,-0.38002,0.04315,,,,,,,,,,,,,,,,,,,,,,,,,,0,0,0,0,0
2.1730,1783190636.8173,1,1,1.0000,0.0000,1.44681,0.22013,-2.78081,0.98984,1.57080,0.00001,-0.14512,-0.38002,0.04312,,,,,,,,,,,,,,,,,,,,,,,,,,0,0,0,0,0
2.1856,1783190636.8299,1,1,1.0000,0.0000,1.44681,0.22005,-2.78083,0.98995,1.57080,0.00001,-0.14512,-0.38002,0.04310,,,,,,,,,,,,,,,,,,,,,,,,,,0,0,0,0,0
2.1930,1783190636.8373,1,1,1.0000,0.0000,1.44681,0.21997,-2.78085,0.99005,1.57080,0.00001,-0.14512,-0.38002,0.04308,,,,,,,,,,,,,,,,,,,,,,,,,,0,0,0,0,0
2.2002,1783190636.8445,1,1,1.0000,0.0000,1.44681,0.21991,-2.78087,0.99012,1.57080,0.00001,-0.14512,-0.38002,0.04306,,,,,,,,,,,,,,,,,,,,,,,,,,0,0,0,0,0
2.2007,1783190636.8450,1,1,1.0000,0.0000,1.44681,0.21991,-2.78087,0.99012,1.57080,0.00001,-0.14512,-0.38002,0.04306,,,,,,,,,,,,,,,,,,,,,,,,,,0,0,0,0,0
2.2151,1783190636.8594,1,1,1.0000,0.0000,1.44681,0.21970,-2.78092,0.99038,1.57080,0.00001,-0.14512,-0.38002,0.04301,,,,,,,,,,,,,,,,,,,,,,,,,,0,0,0,0,0
2.2263,1783190636.8706,1,1,1.0000,0.0000,1.44681,0.21961,-2.78094,0.99050,1.57080,0.00001,-0.14512,-0.38002,0.04298,,,,,,,,,,,,,,,,,,,,,,,,,,0,0,0,0,0
2.2351,1783190636.8794,1,1,1.0000,0.0000,1.44681,0.21948,-2.78097,0.99066,1.57080,0.00001,-0.14512,-0.38002,0.04295,,,,,,,,,,,,,,,,,,,,,,,,,,0,0,0,0,0
2.2470,1783190636.8912,1,1,1.0000,0.0000,1.44681,0.21939,-2.78099,0.99077,1.57080,0.00001,-0.14512,-0.38002,0.04293,,,,,,,,,,,,,,,,,,,,,,,,,,0,0,0,0,0
2.2552,1783190636.8995,1,1,1.0000,0.0000,1.44681,0.21931,-2.78101,0.99087,1.57080,0.00001,-0.14512,-0.38002,0.04291,,,,,,,,,,,,,,,,,,,,,,,,,,0,0,0,0,0
2.2784,1783190636.9227,1,1,1.0000,0.0000,1.44681,0.21903,-2.78108,0.99122,1.57080,0.00001,-0.14512,-0.38002,0.04284,,,,,,,,,,,,,,,,,,,,,,,,,,0,0,0,0,0
2.2997,1783190636.9439,1,1,1.0000,0.0000,1.44681,0.21875,-2.78115,0.99158,1.57080,0.00001,-0.14512,-0.38002,0.04276,,,,,,,,,,,,,,,,,,,,,,,,,,0,0,0,0,0
2.3000,1783190636.9443,1,1,1.0000,0.0000,1.44681,0.21875,-2.78115,0.99158,1.57080,0.00001,-0.14512,-0.38002,0.04276,,,,,,,,,,,,,,,,,,,,,,,,,,0,0,0,0,0
2.3003,1783190636.9446,1,1,1.0000,0.0000,1.44681,0.21875,-2.78115,0.99158,1.57080,0.00001,-0.14512,-0.38002,0.04276,,,,,,,,,,,,,,,,,,,,,,,,,,0,0,0,0,0
2.3051,1783190636.9494,1,1,1.0000,0.0000,1.44681,0.21873,-2.78116,0.99159,1.57080,0.00001,-0.14512,-0.38002,0.04276,,,,,,,,,,,,,,,,,,,,,,,,,,0,0,0,0,0
2.3055,1783190636.9498,1,1,1.0000,0.0000,1.44681,0.21873,-2.78116,0.99159,1.57080,0.00001,-0.14512,-0.38002,0.04276,,,,,,,,,,,,,,,,,,,,,,,,,,0,0,0,0,0
2.3213,1783190636.9656,1,1,1.0000,0.0000,1.44681,0.21852,-2.78121,0.99186,1.57080,0.00001,-0.14512,-0.38002,0.04271,,,,,,,,,,,,,,,,,,,,,,,,,,0,0,0,0,0
2.3246,1783190636.9688,1,1,1.0000,0.0000,1.44681,0.21852,-2.78121,0.99186,1.57080,0.00001,-0.14512,-0.38002,0.04271,,,,,,,,,,,,,,,,,,,,,,,,,,0,0,0,0,0
2.3252,1783190636.9695,1,1,1.0000,0.0000,1.44681,0.21845,-2.78123,0.99194,1.57080,0.00001,-0.14512,-0.38002,0.04269,,,,,,,,,,,,,,,,,,,,,,,,,,0,0,0,0,0
2.3357,1783190636.9800,1,1,1.0000,0.0000,1.44681,0.21838,-2.78124,0.99203,1.57080,0.00001,-0.14512,-0.38002,0.04267,,,,,,,,,,,,,,,,,,,,,,,,,,0,0,0,0,0
2.3510,1783190636.9953,1,1,1.0000,0.0000,1.44681,0.21822,-2.78128,0.99223,1.57080,0.00001,-0.14512,-0.38002,0.04263,,,,,,,,,,,,,,,,,,,,,,,,,,0,0,0,0,0
2.3588,1783190637.0031,1,1,1.0000,0.0000,1.44681,0.21808,-2.78132,0.99240,1.57080,0.00001,-0.14512,-0.38002,0.04260,,,,,,,,,,,,,,,,,,,,,,,,,,0,0,0,0,0
2.3695,1783190637.0138,1,1,1.0000,0.0000,1.44681,0.21804,-2.78133,0.99246,1.57080,0.00001,-0.14512,-0.38002,0.04258,,,,,,,,,,,,,,,,,,,,,,,,,,0,0,0,0,0
2.3698,1783190637.0141,1,1,1.0000,0.0000,1.44681,0.21804,-2.78133,0.99246,1.57080,0.00001,-0.14512,-0.38002,0.04258,,,,,,,,,,,,,,,,,,,,,,,,,,0,0,0,0,0
2.3766,1783190637.0209,1,1,1.0000,0.0000,1.44681,0.21799,-2.78134,0.99252,1.57080,0.00001,-0.14512,-0.38002,0.04257,,,,,,,,,,,,,,,,,,,,,,,,,,0,0,0,0,0
2.3773,1783190637.0216,1,1,1.0000,0.0000,1.44681,0.21793,-2.78136,0.99259,1.57080,0.00001,-0.14512,-0.38002,0.04256,,,,,,,,,,,,,,,,,,,,,,,,,,0,0,0,0,0
2.3864,1783190637.0307,1,1,1.0000,0.0000,1.44681,0.21779,-2.78139,0.99277,1.57080,0.00001,-0.14512,-0.38002,0.04252,,,,,,,,,,,,,,,,,,,,,,,,,,0,0,0,0,0
2.3952,1783190637.0395,1,1,1.0000,0.0000,1.44681,0.21772,-2.78141,0.99285,1.57080,0.00001,-0.14512,-0.38002,0.04250,,,,,,,,,,,,,,,,,,,,,,,,,,0,0,0,0,0
2.4042,1783190637.0485,1,1,1.0000,0.0000,1.44681,0.21768,-2.78142,0.99291,1.57080,0.00001,-0.14512,-0.38002,0.04249,,,,,,,,,,,,,,,,,,,,,,,,,,0,0,0,0,0
2.4047,1783190637.0490,1,1,1.0000,0.0000,1.44681,0.21768,-2.78142,0.99291,1.57080,0.00001,-0.14512,-0.38002,0.04249,,,,,,,,,,,,,,,,,,,,,,,,,,0,0,0,0,0
2.4176,1783190637.0619,1,1,1.0000,0.0000,1.44681,0.21742,-2.78148,0.99322,1.57080,0.00001,-0.14512,-0.38002,0.04243,,,,,,,,,,,,,,,,,,,,,,,,,,0,0,0,0,0
2.4180,1783190637.0623,1,1,1.0000,0.0000,1.44681,0.21742,-2.78148,0.99322,1.57080,0.00001,-0.14512,-0.38002,0.04243,,,,,,,,,,,,,,,,,,,,,,,,,,0,0,0,0,0
2.4287,1783190637.0730,1,1,1.0000,0.0000,1.44681,0.21741,-2.78148,0.99324,1.57080,0.00001,-0.14512,-0.38002,0.04242,,,,,,,,,,,,,,,,,,,,,,,,,,0,0,0,0,0
2.4293,1783190637.0736,1,1,1.0000,0.0000,1.44681,0.21738,-2.78149,0.99328,1.57080,0.00001,-0.14512,-0.38002,0.04241,,,,,,,,,,,,,,,,,,,,,,,,,,0,0,0,0,0
2.4358,1783190637.0801,1,1,1.0000,0.0000,1.44681,0.21733,-2.78150,0.99334,1.57080,0.00001,-0.14512,-0.38002,0.04240,,,,,,,,,,,,,,,,,,,,,,,,,,0,0,0,0,0
2.4362,1783190637.0805,1,1,1.0000,0.0000,1.44681,0.21733,-2.78150,0.99334,1.57080,0.00001,-0.14512,-0.38002,0.04240,,,,,,,,,,,,,,,,,,,,,,,,,,0,0,0,0,0
2.4444,1783190637.0887,1,1,1.0000,0.0000,1.44681,0.21720,-2.78154,0.99350,1.57080,0.00001,-0.14512,-0.38002,0.04237,,,,,,,,,,,,,,,,,,,,,,,,,,0,0,0,0,0
2.4584,1783190637.1026,1,1,1.0000,0.0000,1.44681,0.21705,-2.78157,0.99369,1.57080,0.00001,-0.14512,-0.38002,0.04233,,,,,,,,,,,,,,,,,,,,,,,,,,0,0,0,0,0
2.4674,1783190637.1117,1,1,1.0000,0.0000,1.44681,0.21696,-2.78159,0.99380,1.57080,0.00001,-0.14512,-0.38002,0.04231,,,,,,,,,,,,,,,,,,,,,,,,,,0,0,0,0,0
2.4787,1783190637.1230,1,1,1.0000,0.0000,1.44681,0.21676,-2.78164,0.99405,1.57080,0.00001,-0.14512,-0.38002,0.04226,,,,,,,,,,,,,,,,,,,,,,,,,,0,0,0,0,0
2.4863,1783190637.1306,1,1,1.0000,0.0000,1.44681,0.21669,-2.78166,0.99413,1.57080,0.00001,-0.14512,-0.38002,0.04224,,,,,,,,,,,,,,,,,,,,,,,,,,0,0,0,0,0
2.4969,1783190637.1412,1,1,1.0000,0.0000,1.44681,0.21666,-2.78167,0.99418,1.57080,0.00001,-0.14512,-0.38002,0.04223,,,,,,,,,,,,,,,,,,,,,,,,,,0,0,0,0,0
2.5094,1783190637.1537,1,1,1.0000,0.0000,1.44681,0.21646,-2.78172,0.99442,1.57080,0.00001,-0.14512,-0.38002,0.04218,,,,,,,,,,,,,,,,,,,,,,,,,,0,0,0,0,0
2.5206,1783190637.1649,1,1,1.0000,0.0000,1.44681,0.21645,-2.78172,0.99444,1.57080,0.00001,-0.14512,-0.38002,0.04218,,,,,,,,,,,,,,,,,,,,,,,,,,0,0,0,0,0
2.5210,1783190637.1653,1,1,1.0000,0.0000,1.44681,0.21645,-2.78172,0.99444,1.57080,0.00001,-0.14512,-0.38002,0.04218,,,,,,,,,,,,,,,,,,,,,,,,,,0,0,0,0,0
2.5248,1783190637.1691,1,1,1.0000,0.0000,1.44681,0.21641,-2.78173,0.99448,1.57080,0.00001,-0.14512,-0.38002,0.04217,,,,,,,,,,,,,,,,,,,,,,,,,,0,0,0,0,0
2.5253,1783190637.1696,1,1,1.0000,0.0000,1.44681,0.21636,-2.78174,0.99455,1.57080,0.00001,-0.14512,-0.38002,0.04215,,,,,,,,,,,,,,,,,,,,,,,,,,0,0,0,0,0
2.5364,1783190637.1807,1,1,1.0000,0.0000,1.44681,0.21623,-2.78178,0.99471,1.57080,0.00001,-0.14512,-0.38002,0.04212,,,,,,,,,,,,,,,,,,,,,,,,,,0,0,0,0,0
2.5473,1783190637.1916,1,1,1.0000,0.0000,1.44681,0.21608,-2.78181,0.99489,1.57080,0.00001,-0.14512,-0.38002,0.04208,,,,,,,,,,,,,,,,,,,,,,,,,,0,0,0,0,0
2.5627,1783190637.2070,1,1,1.0000,0.0000,1.44681,0.21597,-2.78184,0.99504,1.57080,0.00001,-0.14512,-0.38002,0.04205,,,,,,,,,,,,,,,,,,,,,,,,,,0,0,0,0,0
2.5642,1783190637.2085,1,1,1.0000,0.0000,1.44681,0.21597,-2.78184,0.99504,1.57080,0.00001,-0.14512,-0.38002,0.04205,,,,,,,,,,,,,,,,,,,,,,,,,,0,0,0,0,0
2.5806,1783190637.2249,1,1,1.0000,0.0000,1.44681,0.21584,-2.78187,0.99520,1.57080,0.00001,-0.14512,-0.38002,0.04202,,,,,,,,,,,,,,,,,,,,,,,,,,0,0,0,0,0
2.5860,1783190637.2302,1,1,1.0000,0.0000,1.44681,0.21575,-2.78189,0.99530,1.57080,0.00001,-0.14512,-0.38002,0.04200,,,,,,,,,,,,,,,,,,,,,,,,,,0,0,0,0,0
2.5862,1783190637.2305,1,1,1.0000,0.0000,1.44681,0.21575,-2.78189,0.99530,1.57080,0.00001,-0.14512,-0.38002,0.04200,,,,,,,,,,,,,,,,,,,,,,,,,,0,0,0,0,0
2.5943,1783190637.2386,1,1,1.0000,0.0000,1.44681,0.21562,-2.78192,0.99547,1.57080,0.00001,-0.14512,-0.38002,0.04197,,,,,,,,,,,,,,,,,,,,,,,,,,0,0,0,0,0
2.6085,1783190637.2528,1,1,1.0000,0.0000,1.44681,0.21548,-2.78196,0.99565,1.57080,0.00001,-0.14512,-0.38002,0.04193,,,,,,,,,,,,,,,,,,,,,,,,,,0,0,0,0,0
2.6202,1783190637.2645,1,1,1.0000,0.0000,1.44681,0.21541,-2.78198,0.99574,1.57080,0.00001,-0.14512,-0.38002,0.04191,,,,,,,,,,,,,,,,,,,,,,,,,,0,0,0,0,0
2.6206,1783190637.2649,1,1,1.0000,0.0000,1.44681,0.21541,-2.78198,0.99574,1.57080,0.00001,-0.14512,-0.38002,0.04191,,,,,,,,,,,,,,,,,,,,,,,,,,0,0,0,0,0
2.6248,1783190637.2691,1,1,1.0000,0.0000,1.44681,0.21536,-2.78199,0.99580,1.57080,0.00001,-0.14512,-0.38002,0.04190,,,,,,,,,,,,,,,,,,,,,,,,,,0,0,0,0,0
2.6254,1783190637.2697,1,1,1.0000,0.0000,1.44681,0.21530,-2.78200,0.99586,1.57080,0.00001,-0.14512,-0.38002,0.04188,,,,,,,,,,,,,,,,,,,,,,,,,,0,0,0,0,0
2.6367,1783190637.2809,1,1,1.0000,0.0000,1.44681,0.21524,-2.78202,0.99594,1.57080,0.00001,-0.14512,-0.38002,0.04187,,,,,,,,,,,,,,,,,,,,,,,,,,0,0,0,0,0
2.6485,1783190637.2928,1,1,1.0000,0.0000,1.44681,0.21515,-2.78204,0.99606,1.57080,0.00001,-0.14512,-0.38002,0.04184,,,,,,,,,,,,,,,,,,,,,,,,,,0,0,0,0,0
2.6489,1783190637.2932,1,1,1.0000,0.0000,1.44681,0.21515,-2.78204,0.99606,1.57080,0.00001,-0.14512,-0.38002,0.04184,,,,,,,,,,,,,,,,,,,,,,,,,,0,0,0,0,0
2.6580,1783190637.3023,1,1,1.0000,0.0000,1.44681,0.21494,-2.78209,0.99632,1.57080,0.00001,-0.14512,-0.38002,0.04179,,,,,,,,,,,,,,,,,,,,,,,,,,0,0,0,0,0
2.6585,1783190637.3027,1,1,1.0000,0.0000,1.44681,0.21494,-2.78209,0.99632,1.57080,0.00001,-0.14512,-0.38002,0.04179,,,,,,,,,,,,,,,,,,,,,,,,,,0,0,0,0,0
2.6660,1783190637.3103,1,1,1.0000,0.0000,1.44681,0.21487,-2.78211,0.99641,1.57080,0.00001,-0.14512,-0.38002,0.04177,,,,,,,,,,,,,,,,,,,,,,,,,,0,0,0,0,0
2.6775,1783190637.3218,1,1,1.0000,0.0000,1.44681,0.21480,-2.78213,0.99649,1.57080,0.00001,-0.14512,-0.38002,0.04176,,,,,,,,,,,,,,,,,,,,,,,,,,0,0,0,0,0
2.6858,1783190637.3301,1,1,1.0000,0.0000,1.44681,0.21470,-2.78215,0.99662,1.57080,0.00001,-0.14512,-0.38002,0.04173,,,,,,,,,,,,,,,,,,,,,,,,,,0,0,0,0,0
2.6862,1783190637.3305,1,1,1.0000,0.0000,1.44681,0.21470,-2.78215,0.99662,1.57080,0.00001,-0.14512,-0.38002,0.04173,,,,,,,,,,,,,,,,,,,,,,,,,,0,0,0,0,0
2.6969,1783190637.3412,1,1,1.0000,0.0000,1.44681,0.21464,-2.78217,0.99670,1.57080,0.00001,-0.14512,-0.38002,0.04171,,,,,,,,,,,,,,,,,,,,,,,,,,0,0,0,0,0
2.7046,1783190637.3489,1,1,1.0000,0.0000,1.44681,0.21459,-2.78218,0.99675,1.57080,0.00001,-0.14512,-0.38002,0.04170,,,,,,,,,,,,,,,,,,,,,,,,,,0,0,0,0,0
2.7051,1783190637.3494,1,1,1.0000,0.0000,1.44681,0.21459,-2.78218,0.99675,1.57080,0.00001,-0.14512,-0.38002,0.04170,,,,,,,,,,,,,,,,,,,,,,,,,,0,0,0,0,0
2.7289,1783190637.3732,1,1,1.0000,0.0000,1.44681,0.21426,-2.78226,0.99716,1.57080,0.00002,-0.14512,-0.38002,0.04162,,,,,,,,,,,,,,,,,,,,,,,,,,0,0,0,0,0
2.7298,1783190637.3741,1,1,1.0000,0.0000,1.44681,0.21425,-2.78226,0.99718,1.57080,0.00002,-0.14512,-0.38002,0.04162,,,,,,,,,,,,,,,,,,,,,,,,,,0,0,0,0,0
2.7301,1783190637.3743,1,1,1.0000,0.0000,1.44681,0.21425,-2.78226,0.99718,1.57080,0.00002,-0.14512,-0.38002,0.04162,,,,,,,,,,,,,,,,,,,,,,,,,,0,0,0,0,0
2.7360,1783190637.3803,1,1,1.0000,0.0000,1.44681,0.21423,-2.78227,0.99721,1.57080,0.00002,-0.14512,-0.38002,0.04161,,,,,,,,,,,,,,,,,,,,,,,,,,0,0,0,0,0
2.7365,1783190637.3808,1,1,1.0000,0.0000,1.44681,0.21423,-2.78227,0.99721,1.57080,0.00002,-0.14512,-0.38002,0.04161,,,,,,,,,,,,,,,,,,,,,,,,,,0,0,0,0,0
2.7443,1783190637.3886,1,1,1.0000,0.0000,1.44681,0.21414,-2.78229,0.99731,1.57080,0.00002,-0.14512,-0.38002,0.04159,,,,,,,,,,,,,,,,,,,,,,,,,,0,0,0,0,0
2.7682,1783190637.4125,1,1,1.0000,0.0000,1.44681,0.21393,-2.78234,0.99758,1.57080,0.00002,-0.14512,-0.38002,0.04153,,,,,,,,,,,,,,,,,,,,,,,,,,0,0,0,0,0
2.7748,1783190637.4191,1,1,1.0000,0.0000,1.44681,0.21379,-2.78237,0.99774,1.57080,0.00002,-0.14512,-0.38002,0.04150,,,,,,,,,,,,,,,,,,,,,,,,,,0,0,0,0,0
2.7869,1783190637.4312,1,1,1.0000,0.0000,1.44681,0.21365,-2.78241,0.99792,1.57080,0.00002,-0.14512,-0.38002,0.04146,,,,,,,,,,,,,,,,,,,,,,,,,,0,0,0,0,0
2.7873,1783190637.4316,1,1,1.0000,0.0000,1.44681,0.21365,-2.78241,0.99792,1.57080,0.00002,-0.14512,-0.38002,0.04146,,,,,,,,,,,,,,,,,,,,,,,,,,0,0,0,0,0
2.7990,1783190637.4432,1,1,1.0000,0.0000,1.44681,0.21355,-2.78243,0.99804,1.57080,0.00002,-0.14512,-0.38002,0.04144,,,,,,,,,,,,,,,,,,,,,,,,,,0,0,0,0,0
2.8081,1783190637.4524,1,1,1.0000,0.0000,1.44681,0.21342,-2.78246,0.99820,1.57080,0.00002,-0.14512,-0.38002,0.04141,,,,,,,,,,,,,,,,,,,,,,,,,,0,0,0,0,0
2.8085,1783190637.4528,1,1,1.0000,0.0000,1.44681,0.21342,-2.78246,0.99820,1.57080,0.00002,-0.14512,-0.38002,0.04141,,,,,,,,,,,,,,,,,,,,,,,,,,0,0,0,0,0
2.8161,1783190637.4604,1,1,1.0000,0.0000,1.44681,0.21335,-2.78248,0.99829,1.57080,0.00002,-0.14512,-0.38002,0.04139,,,,,,,,,,,,,,,,,,,,,,,,,,0,0,0,0,0
2.8166,1783190637.4609,1,1,1.0000,0.0000,1.44681,0.21335,-2.78248,0.99829,1.57080,0.00002,-0.14512,-0.38002,0.04139,,,,,,,,,,,,,,,,,,,,,,,,,,0,0,0,0,0
2.8326,1783190637.4769,1,1,1.0000,0.0000,1.44681,0.21319,-2.78252,0.99849,1.57080,0.00002,-0.14512,-0.38002,0.04135,,,,,,,,,,,,,,,,,,,,,,,,,,0,0,0,0,0
2.8329,1783190637.4772,1,1,1.0000,0.0000,1.44681,0.21319,-2.78252,0.99849,1.57080,0.00002,-0.14512,-0.38002,0.04135,,,,,,,,,,,,,,,,,,,,,,,,,,0,0,0,0,0
2.8418,1783190637.4861,1,1,1.0000,0.0000,1.44681,0.21298,-2.78257,0.99875,1.57080,0.00002,-0.14512,-0.38002,0.04129,,,,,,,,,,,,,,,,,,,,,,,,,,0,0,0,0,0
2.8422,1783190637.4865,1,1,1.0000,0.0000,1.44681,0.21298,-2.78257,0.99875,1.57080,0.00002,-0.14512,-0.38002,0.04129,,,,,,,,,,,,,,,,,,,,,,,,,,0,0,0,0,0
2.8498,1783190637.4941,1,1,1.0000,0.0000,1.44681,0.21297,-2.78257,0.99876,1.57080,0.00002,-0.14512,-0.38002,0.04129,,,,,,,,,,,,,,,,,,,,,,,,,,0,0,0,0,0
2.8608,1783190637.5050,1,1,1.0000,0.0000,1.44681,0.21289,-2.78259,0.99887,1.57080,0.00002,-0.14512,-0.38002,0.04127,,,,,,,,,,,,,,,,,,,,,,,,,,0,0,0,0,0
2.8699,1783190637.5142,1,1,1.0000,0.0000,1.44681,0.21269,-2.78264,0.99912,1.57080,0.00002,-0.14512,-0.38002,0.04122,,,,,,,,,,,,,,,,,,,,,,,,,,0,0,0,0,0
2.8818,1783190637.5261,1,1,1.0000,0.0000,1.44681,0.21264,-2.78265,0.99918,1.57080,0.00002,-0.14512,-0.38002,0.04121,,,,,,,,,,,,,,,,,,,,,,,,,,0,0,0,0,0
2.8821,1783190637.5264,1,1,1.0000,0.0000,1.44681,0.21264,-2.78265,0.99918,1.57080,0.00002,-0.14512,-0.38002,0.04121,,,,,,,,,,,,,,,,,,,,,,,,,,0,0,0,0,0
2.8902,1783190637.5345,1,1,1.0000,0.0000,1.44681,0.21253,-2.78268,0.99932,1.57080,0.00002,-0.14512,-0.38002,0.04118,,,,,,,,,,,,,,,,,,,,,,,,,,0,0,0,0,0
2.8987,1783190637.5430,1,1,1.0000,0.0000,1.44681,0.21239,-2.78271,0.99949,1.57080,0.00002,-0.14512,-0.38002,0.04114,,,,,,,,,,,,,,,,,,,,,,,,,,0,0,0,0,0
2.9062,1783190637.5505,1,1,1.0000,0.0000,1.44681,0.21232,-2.78273,0.99958,1.57080,0.00002,-0.14512,-0.38002,0.04113,,,,,,,,,,,,,,,,,,,,,,,,,,0,0,0,0,0
2.9177,1783190637.5620,1,1,1.0000,0.0000,1.44681,0.21222,-2.78275,0.99970,1.57080,0.00002,-0.14512,-0.38002,0.04110,,,,,,,,,,,,,,,,,,,,,,,,,,0,0,0,0,0
2.9181,1783190637.5624,1,1,1.0000,0.0000,1.44681,0.21222,-2.78275,0.99970,1.57080,0.00002,-0.14512,-0.38002,0.04110,,,,,,,,,,,,,,,,,,,,,,,,,,0,0,0,0,0
2.9348,1783190637.5791,1,1,1.0000,0.0000,1.44681,0.21202,-2.78280,0.99995,1.57080,0.00002,-0.14512,-0.38002,0.04105,,,,,,,,,,,,,,,,,,,,,,,,,,0,0,0,0,0
2.9414,1783190637.5857,1,1,1.0000,0.0000,1.44681,0.21201,-2.78281,0.99996,1.57080,0.00002,-0.14512,-0.38002,0.04105,,,,,,,,,,,,,,,,,,,,,,,,,,0,0,0,0,0
2.9470,1783190637.5912,1,1,1.0000,0.0000,1.44681,0.21192,-2.78283,1.00007,1.57080,0.00002,-0.14512,-0.38002,0.04103,,,,,,,,,,,,,,,,,,,,,,,,,,0,0,0,0,0
2.9628,1783190637.6071,1,1,1.0000,0.0000,1.44681,0.21165,-2.78289,1.00040,1.57080,0.00002,-0.14512,-0.38002,0.04096,,,,,,,,,,,,,,,,,,,,,,,,,,0,0,0,0,0
2.9674,1783190637.6117,1,1,1.0000,0.0000,1.44681,0.21165,-2.78289,1.00040,1.57080,0.00002,-0.14512,-0.38002,0.04096,,,,,,,,,,,,,,,,,,,,,,,,,,0,0,0,0,0
2.9678,1783190637.6121,1,1,1.0000,0.0000,1.44681,0.21165,-2.78289,1.00040,1.57080,0.00002,-0.14512,-0.38002,0.04096,,,,,,,,,,,,,,,,,,,,,,,,,,0,0,0,0,0
2.9912,1783190637.6355,1,1,1.0000,0.0000,1.44681,0.21135,-2.78296,1.00078,1.57080,0.00002,-0.14512,-0.38002,0.04088,,,,,,,,,,,,,,,,,,,,,,,,,,0,0,0,0,0
2.9916,1783190637.6359,1,1,1.0000,0.0000,1.44681,0.21135,-2.78296,1.00078,1.57080,0.00002,-0.14512,-0.38002,0.04088,,,,,,,,,,,,,,,,,,,,,,,,,,0,0,0,0,0
2.9962,1783190637.6405,1,1,1.0000,0.0000,1.44681,0.21135,-2.78296,1.00078,1.57080,0.00002,-0.14512,-0.38002,0.04088,,,,,,,,,,,,,,,,,,,,,,,,,,0,0,0,0,0
2.9967,1783190637.6409,1,1,1.0000,0.0000,1.44681,0.21135,-2.78296,1.00078,1.57080,0.00002,-0.14512,-0.38002,0.04088,,,,,,,,,,,,,,,,,,,,,,,,,,0,0,0,0,0
3.0059,1783190637.6502,1,1,1.0000,0.0000,1.44681,0.21126,-2.78299,1.00090,1.57080,0.00002,-0.14512,-0.38002,0.04086,,,,,,,,,,,,,,,,,,,,,,,,,,0,0,0,0,0
3.0141,1783190637.6584,1,1,1.0000,0.0000,1.44681,0.21113,-2.78302,1.00106,1.57080,0.00002,-0.14512,-0.38002,0.04082,,,,,,,,,,,,,,,,,,,,,,,,,,0,0,0,0,0
3.0145,1783190637.6588,1,1,1.0000,0.0000,1.44681,0.21113,-2.78302,1.00106,1.57080,0.00002,-0.14512,-0.38002,0.04082,,,,,,,,,,,,,,,,,,,,,,,,,,0,0,0,0,0
3.0302,1783190637.6745,1,1,1.0000,0.0000,1.44681,0.21097,-2.78306,1.00125,1.57080,0.00002,-0.14512,-0.38002,0.04078,,,,,,,,,,,,,,,,,,,,,,,,,,0,0,0,0,0
3.0353,1783190637.6796,1,1,1.0000,0.0000,1.44681,0.21094,-2.78306,1.00129,1.57080,0.00002,-0.14512,-0.38002,0.04078,,,,,,,,,,,,,,,,,,,,,,,,,,0,0,0,0,0
3.0457,1783190637.6900,1,1,1.0000,0.0000,1.44681,0.21076,-2.78311,1.00152,1.57080,0.00002,-0.14512,-0.38002,0.04073,,,,,,,,,,,,,,,,,,,,,,,,,,0,0,0,0,0
3.0560,1783190637.7003,1,1,1.0000,0.0000,1.44681,0.21069,-2.78313,1.00161,1.57080,0.00002,-0.14512,-0.38002,0.04071,,,,,,,,,,,,,,,,,,,,,,,,,,0,0,0,0,0
3.0645,1783190637.7087,1,1,1.0000,0.0000,1.44681,0.21064,-2.78314,1.00166,1.57080,0.00002,-0.14512,-0.38002,0.04070,,,,,,,,,,,,,,,,,,,,,,,,,,0,0,0,0,0
3.0818,1783190637.7261,1,1,1.0000,0.0000,1.44681,0.21032,-2.78321,1.00206,1.57080,0.00002,-0.14512,-0.38002,0.04062,,,,,,,,,,,,,,,,,,,,,,,,,,0,0,0,0,0
3.0821,1783190637.7264,1,1,1.0000,0.0000,1.44681,0.21032,-2.78321,1.00206,1.57080,0.00002,-0.14512,-0.38002,0.04062,,,,,,,,,,,,,,,,,,,,,,,,,,0,0,0,0,0
3.0851,1783190637.7294,1,1,1.0000,0.0000,1.44681,0.21032,-2.78321,1.00206,1.57080,0.00002,-0.14512,-0.38002,0.04062,,,,,,,,,,,,,,,,,,,,,,,,,,0,0,0,0,0
3.0958,1783190637.7401,1,1,1.0000,0.0000,1.44681,0.21027,-2.78323,1.00212,1.57080,0.00002,-0.14512,-0.38002,0.04061,,,,,,,,,,,,,,,,,,,,,,,,,,0,0,0,0,0
3.0961,1783190637.7404,1,1,1.0000,0.0000,1.44681,0.21027,-2.78323,1.00212,1.57080,0.00002,-0.14512,-0.38002,0.04061,,,,,,,,,,,,,,,,,,,,,,,,,,0,0,0,0,0
3.1046,1783190637.7489,1,1,1.0000,0.0000,1.44681,0.21016,-2.78325,1.00226,1.57080,0.00002,-0.14512,-0.38002,0.04058,,,,,,,,,,,,,,,,,,,,,,,,,,0,0,0,0,0
3.1159,1783190637.7602,1,1,1.0000,0.0000,1.44681,0.21002,-2.78329,1.00243,1.57080,0.00002,-0.14512,-0.38002,0.04054,,,,,,,,,,,,,,,,,,,,,,,,,,0,0,0,0,0
3.1256,1783190637.7699,1,1,1.0000,0.0000,1.44681,0.20992,-2.78331,1.00255,1.57080,0.00002,-0.14512,-0.38002,0.04052,,,,,,,,,,,,,,,,,,,,,,,,,,0,0,0,0,0
3.1258,1783190637.7701,1,1,1.0000,0.0000,1.44681,0.20992,-2.78331,1.00255,1.57080,0.00002,-0.14512,-0.38002,0.04052,,,,,,,,,,,,,,,,,,,,,,,,,,0,0,0,0,0
3.1360,1783190637.7803,1,1,1.0000,0.0000,1.44680,0.20979,-2.78334,1.00272,1.57080,0.00002,-0.14512,-0.38002,0.04049,,,,,,,,,,,,,,,,,,,,,,,,,,0,0,0,0,0
3.1458,1783190637.7901,1,1,1.0000,0.0000,1.44680,0.20965,-2.78338,1.00289,1.57080,0.00002,-0.14512,-0.38002,0.04045,,,,,,,,,,,,,,,,,,,,,,,,,,0,0,0,0,0
3.1567,1783190637.8009,1,1,1.0000,0.0000,1.44680,0.20960,-2.78339,1.00295,1.57080,0.00002,-0.14512,-0.38002,0.04044,,,,,,,,,,,,,,,,,,,,,,,,,,0,0,0,0,0
3.1644,1783190637.8086,1,1,1.0000,0.0000,1.44680,0.20949,-2.78341,1.00309,1.57079,0.00002,-0.14512,-0.38002,0.04041,,,,,,,,,,,,,,,,,,,,,,,,,,0,0,0,0,0
3.1743,1783190637.8186,1,1,1.0000,0.0000,1.44680,0.20928,-2.78347,1.00335,1.57079,0.00002,-0.14512,-0.38002,0.04036,,,,,,,,,,,,,,,,,,,,,,,,,,0,0,0,0,0
3.1940,1783190637.8383,1,1,1.0000,0.0000,1.44680,0.20916,-2.78349,1.00350,1.57079,0.00002,-0.14512,-0.38002,0.04033,,,,,,,,,,,,,,,,,,,,,,,,,,0,0,0,0,0
3.1943,1783190637.8386,1,1,1.0000,0.0000,1.44680,0.20916,-2.78349,1.00350,1.57079,0.00002,-0.14512,-0.38002,0.04033,,,,,,,,,,,,,,,,,,,,,,,,,,0,0,0,0,0
3.1947,1783190637.8389,1,1,1.0000,0.0000,1.44680,0.20916,-2.78349,1.00350,1.57079,0.00002,-0.14512,-0.38002,0.04033,,,,,,,,,,,,,,,,,,,,,,,,,,0,0,0,0,0
3.1949,1783190637.8392,1,1,1.0000,0.0000,1.44680,0.20916,-2.78349,1.00350,1.57079,0.00002,-0.14512,-0.38002,0.04033,,,,,,,,,,,,,,,,,,,,,,,,,,0,0,0,0,0
3.2059,1783190637.8502,1,1,1.0000,0.0000,1.44680,0.20904,-2.78352,1.00364,1.57079,0.00002,-0.14512,-0.38002,0.04030,,,,,,,,,,,,,,,,,,,,,,,,,,0,0,0,0,0
3.2170,1783190637.8613,1,1,1.0000,0.0000,1.44680,0.20899,-2.78353,1.00370,1.57079,0.00002,-0.14512,-0.38002,0.04028,,,,,,,,,,,,,,,,,,,,,,,,,,0,0,0,0,0
3.2449,1783190637.8892,1,1,1.0000,0.0000,1.44680,0.20865,-2.78362,1.00413,1.57079,0.00002,-0.14512,-0.38002,0.04020,,,,,,,,,,,,,,,,,,,,,,,,,,0,0,0,0,0
3.2451,1783190637.8894,1,1,1.0000,0.0000,1.44680,0.20865,-2.78362,1.00413,1.57079,0.00002,-0.14512,-0.38002,0.04020,,,,,,,,,,,,,,,,,,,,,,,,,,0,0,0,0,0
3.2481,1783190637.8923,1,1,1.0000,0.0000,1.44680,0.20863,-2.78362,1.00416,1.57079,0.00002,-0.14512,-0.38002,0.04019,,,,,,,,,,,,,,,,,,,,,,,,,,0,0,0,0,0
3.2542,1783190637.8984,1,1,1.0000,0.0000,1.44680,0.20854,-2.78364,1.00426,1.57079,0.00002,-0.14512,-0.38002,0.04017,,,,,,,,,,,,,,,,,,,,,,,,,,0,0,0,0,0
3.2668,1783190637.9111,1,1,1.0000,0.0000,1.44680,0.20843,-2.78367,1.00441,1.57079,0.00002,-0.14512,-0.38002,0.04014,,,,,,,,,,,,,,,,,,,,,,,,,,0,0,0,0,0
3.2744,1783190637.9187,1,1,1.0000,0.0000,1.44680,0.20838,-2.78368,1.00446,1.57079,0.00002,-0.14512,-0.38002,0.04013,,,,,,,,,,,,,,,,,,,,,,,,,,0,0,0,0,0
3.2941,1783190637.9384,1,1,1.0000,0.0000,1.44680,0.20805,-2.78376,1.00488,1.57079,0.00002,-0.14512,-0.38002,0.04005,,,,,,,,,,,,,,,,,,,,,,,,,,0,0,0,0,0
3.2944,1783190637.9386,1,1,1.0000,0.0000,1.44680,0.20805,-2.78376,1.00488,1.57079,0.00002,-0.14512,-0.38002,0.04005,,,,,,,,,,,,,,,,,,,,,,,,,,0,0,0,0,0
3.2947,1783190637.9390,1,1,1.0000,0.0000,1.44680,0.20805,-2.78376,1.00488,1.57079,0.00002,-0.14512,-0.38002,0.04005,,,,,,,,,,,,,,,,,,,,,,,,,,0,0,0,0,0
3.2949,1783190637.9392,1,1,1.0000,0.0000,1.44680,0.20805,-2.78376,1.00488,1.57079,0.00002,-0.14512,-0.38002,0.04005,,,,,,,,,,,,,,,,,,,,,,,,,,0,0,0,0,0
3.3075,1783190637.9517,1,1,1.0000,0.0000,1.44680,0.20802,-2.78377,1.00492,1.57079,0.00002,-0.14512,-0.38002,0.04004,,,,,,,,,,,,,,,,,,,,,,,,,,0,0,0,0,0
3.3078,1783190637.9521,1,1,1.0000,0.0000,1.44680,0.20802,-2.78377,1.00492,1.57079,0.00002,-0.14512,-0.38002,0.04004,,,,,,,,,,,,,,,,,,,,,,,,,,0,0,0,0,0
3.3144,1783190637.9586,1,1,1.0000,0.0000,1.44680,0.20793,-2.78379,1.00502,1.57079,0.00002,-0.14512,-0.38002,0.04002,,,,,,,,,,,,,,,,,,,,,,,,,,0,0,0,0,0
3.3277,1783190637.9720,1,1,1.0000,0.0000,1.44680,0.20781,-2.78382,1.00517,1.57079,0.00002,-0.14512,-0.38002,0.03999,,,,,,,,,,,,,,,,,,,,,,,,,,0,0,0,0,0
3.3379,1783190637.9822,1,1,1.0000,0.0000,1.44680,0.20771,-2.78384,1.00529,1.57079,0.00002,-0.14512,-0.38002,0.03996,,,,,,,,,,,,,,,,,,,,,,,,,,0,0,0,0,0
3.3451,1783190637.9894,1,1,1.0000,0.0000,1.44680,0.20765,-2.78386,1.00537,1.57079,0.00002,-0.14512,-0.38002,0.03994,,,,,,,,,,,,,,,,,,,,,,,,,,0,0,0,0,0
3.3544,1783190637.9986,1,1,1.0000,0.0000,1.44680,0.20743,-2.78391,1.00564,1.57079,0.00002,-0.14512,-0.38002,0.03989,,,,,,,,,,,,,,,,,,,,,,,,,,0,0,0,0,0
3.3660,1783190638.0103,1,1,1.0000,0.0000,1.44680,0.20740,-2.78392,1.00568,1.57079,0.00002,-0.14512,-0.38002,0.03988,,,,,,,,,,,,,,,,,,,,,,,,,,0,0,0,0,0
3.3769,1783190638.0212,1,1,1.0000,0.0000,1.44680,0.20732,-2.78394,1.00579,1.57079,0.00002,-0.14512,-0.38002,0.03986,,,,,,,,,,,,,,,,,,,,,,,,,,0,0,0,0,0
3.4011,1783190638.0454,1,1,1.0000,0.0000,1.44680,0.20710,-2.78399,1.00605,1.57079,0.00002,-0.14512,-0.38002,0.03981,,,,,,,,,,,,,,,,,,,,,,,,,,0,0,0,0,0
3.4016,1783190638.0459,1,1,1.0000,0.0000,1.44680,0.20703,-2.78400,1.00613,1.57079,0.00002,-0.14512,-0.38002,0.03979,,,,,,,,,,,,,,,,,,,,,,,,,,0,0,0,0,0
3.4046,1783190638.0489,1,1,1.0000,0.0000,1.44680,0.20703,-2.78400,1.00613,1.57079,0.00002,-0.14512,-0.38002,0.03979,,,,,,,,,,,,,,,,,,,,,,,,,,0,0,0,0,0
3.4186,1783190638.0629,1,1,1.0000,0.0000,1.44680,0.20682,-2.78405,1.00640,1.57079,0.00002,-0.14512,-0.38002,0.03974,,,,,,,,,,,,,,,,,,,,,,,,,,0,0,0,0,0
3.4260,1783190638.0703,1,1,1.0000,0.0000,1.44680,0.20678,-2.78406,1.00644,1.57079,0.00002,-0.14512,-0.38002,0.03973,,,,,,,,,,,,,,,,,,,,,,,,,,0,0,0,0,0
3.4263,1783190638.0706,1,1,1.0000,0.0000,1.44680,0.20678,-2.78406,1.00644,1.57079,0.00002,-0.14512,-0.38002,0.03973,,,,,,,,,,,,,,,,,,,,,,,,,,0,0,0,0,0
3.4462,1783190638.0905,1,1,1.0000,0.0000,1.44680,0.20658,-2.78411,1.00669,1.57079,0.00002,-0.14512,-0.38002,0.03968,,,,,,,,,,,,,,,,,,,,,,,,,,0,0,0,0,0
3.4467,1783190638.0910,1,1,1.0000,0.0000,1.44680,0.20658,-2.78411,1.00669,1.57079,0.00002,-0.14512,-0.38002,0.03968,,,,,,,,,,,,,,,,,,,,,,,,,,0,0,0,0,0
3.4588,1783190638.1031,1,1,1.0000,0.0000,1.44680,0.20648,-2.78413,1.00682,1.57079,0.00002,-0.14512,-0.38002,0.03965,,,,,,,,,,,,,,,,,,,,,,,,,,0,0,0,0,0
3.4592,1783190638.1034,1,1,1.0000,0.0000,1.44680,0.20648,-2.78413,1.00682,1.57079,0.00002,-0.14512,-0.38002,0.03965,,,,,,,,,,,,,,,,,,,,,,,,,,0,0,0,0,0
3.4594,1783190638.1037,1,1,1.0000,0.0000,1.44680,0.20648,-2.78413,1.00682,1.57079,0.00002,-0.14512,-0.38002,0.03965,,,,,,,,,,,,,,,,,,,,,,,,,,0,0,0,0,0
3.4685,1783190638.1128,1,1,1.0000,0.0000,1.44680,0.20635,-2.78417,1.00698,1.57079,0.00002,-0.14512,-0.38002,0.03962,,,,,,,,,,,,,,,,,,,,,,,,,,0,0,0,0,0
3.4688,1783190638.1131,1,1,1.0000,0.0000,1.44680,0.20635,-2.78417,1.00698,1.57079,0.00002,-0.14512,-0.38002,0.03962,,,,,,,,,,,,,,,,,,,,,,,,,,0,0,0,0,0
3.4779,1783190638.1222,1,1,1.0000,0.0000,1.44680,0.20620,-2.78420,1.00716,1.57079,0.00002,-0.14512,-0.38002,0.03958,,,,,,,,,,,,,,,,,,,,,,,,,,0,0,0,0,0
3.4845,1783190638.1288,1,1,1.0000,0.0000,1.44680,0.20619,-2.78420,1.00718,1.57079,0.00002,-0.14512,-0.38002,0.03958,,,,,,,,,,,,,,,,,,,,,,,,,,0,0,0,0,0
3.4850,1783190638.1293,1,1,1.0000,0.0000,1.44680,0.20619,-2.78420,1.00718,1.57079,0.00002,-0.14512,-0.38002,0.03958,,,,,,,,,,,,,,,,,,,,,,,,,,0,0,0,0,0
3.4968,1783190638.1411,1,1,1.0000,0.0000,1.44680,0.20608,-2.78423,1.00731,1.57079,0.00002,-0.14512,-0.38002,0.03955,,,,,,,,,,,,,,,,,,,,,,,,,,0,0,0,0,0
3.4972,1783190638.1415,1,1,1.0000,0.0000,1.44680,0.20608,-2.78423,1.00731,1.57079,0.00002,-0.14512,-0.38002,0.03955,,,,,,,,,,,,,,,,,,,,,,,,,,0,0,0,0,0
3.5045,1783190638.1487,1,1,1.0000,0.0000,1.44680,0.20597,-2.78426,1.00746,1.57079,0.00002,-0.14512,-0.38002,0.03952,,,,,,,,,,,,,,,,,,,,,,,,,,0,0,0,0,0
3.5143,1783190638.1586,1,1,1.0000,0.0000,1.44680,0.20592,-2.78427,1.00751,1.57079,0.00002,-0.14512,-0.38002,0.03951,,,,,,,,,,,,,,,,,,,,,,,,,,0,0,0,0,0
3.5244,1783190638.1687,1,1,1.0000,0.0000,1.44680,0.20580,-2.78430,1.00766,1.57079,0.00002,-0.14512,-0.38002,0.03948,,,,,,,,,,,,,,,,,,,,,,,,,,0,0,0,0,0
3.5499,1783190638.1942,1,1,1.0000,0.0000,1.44680,0.20549,-2.78437,1.00805,1.57079,0.00002,-0.14512,-0.38002,0.03940,,,,,,,,,,,,,,,,,,,,,,,,,,0,0,0,0,0
3.5505,1783190638.1948,1,1,1.0000,0.0000,1.44680,0.20549,-2.78437,1.00805,1.57079,0.00002,-0.14512,-0.38002,0.03940,,,,,,,,,,,,,,,,,,,,,,,,,,0,0,0,0,0
3.5509,1783190638.1952,1,1,1.0000,0.0000,1.44680,0.20549,-2.78437,1.00805,1.57079,0.00002,-0.14512,-0.38002,0.03940,,,,,,,,,,,,,,,,,,,,,,,,,,0,0,0,0,0
3.5551,1783190638.1993,1,1,1.0000,0.0000,1.44680,0.20543,-2.78439,1.00812,1.57079,0.00002,-0.14512,-0.38002,0.03938,,,,,,,,,,,,,,,,,,,,,,,,,,0,0,0,0,0
3.5660,1783190638.2102,1,1,1.0000,0.0000,1.44680,0.20528,-2.78442,1.00830,1.57079,0.00002,-0.14512,-0.38002,0.03935,,,,,,,,,,,,,,,,,,,,,,,,,,0,0,0,0,0
3.5778,1783190638.2221,1,1,1.0000,0.0000,1.44680,0.20519,-2.78444,1.00842,1.57079,0.00002,-0.14512,-0.38002,0.03933,,,,,,,,,,,,,,,,,,,,,,,,,,0,0,0,0,0
3.5857,1783190638.2300,1,1,1.0000,0.0000,1.44680,0.20506,-2.78447,1.00858,1.57079,0.00002,-0.14512,-0.38002,0.03929,,,,,,,,,,,,,,,,,,,,,,,,,,0,0,0,0,0
3.5944,1783190638.2387,1,1,1.0000,0.0000,1.44680,0.20491,-2.78451,1.00876,1.57079,0.00002,-0.14512,-0.38002,0.03926,,,,,,,,,,,,,,,,,,,,,,,,,,0,0,0,0,0
3.6061,1783190638.2504,1,1,1.0000,0.0000,1.44680,0.20487,-2.78452,1.00882,1.57079,0.00002,-0.14512,-0.38002,0.03924,,,,,,,,,,,,,,,,,,,,,,,,,,0,0,0,0,0
3.6065,1783190638.2508,1,1,1.0000,0.0000,1.44680,0.20487,-2.78452,1.00882,1.57079,0.00002,-0.14512,-0.38002,0.03924,,,,,,,,,,,,,,,,,,,,,,,,,,0,0,0,0,0
3.6154,1783190638.2597,1,1,1.0000,0.0000,1.44680,0.20475,-2.78455,1.00896,1.57079,0.00002,-0.14512,-0.38002,0.03922,,,,,,,,,,,,,,,,,,,,,,,,,,0,0,0,0,0
3.6264,1783190638.2707,1,1,1.0000,0.0000,1.44680,0.20461,-2.78458,1.00913,1.57079,0.00002,-0.14512,-0.38002,0.03918,,,,,,,,,,,,,,,,,,,,,,,,,,0,0,0,0,0
3.6342,1783190638.2785,1,1,1.0000,0.0000,1.44680,0.20456,-2.78459,1.00919,1.57079,0.00002,-0.14512,-0.38002,0.03917,,,,,,,,,,,,,,,,,,,,,,,,,,0,0,0,0,0
3.6484,1783190638.2927,1,1,1.0000,0.0000,1.44680,0.20438,-2.78463,1.00942,1.57079,0.00002,-0.14512,-0.38002,0.03912,,,,,,,,,,,,,,,,,,,,,,,,,,0,0,0,0,0
3.6487,1783190638.2930,1,1,1.0000,0.0000,1.44680,0.20438,-2.78463,1.00942,1.57079,0.00002,-0.14512,-0.38002,0.03912,,,,,,,,,,,,,,,,,,,,,,,,,,0,0,0,0,0
3.6599,1783190638.3041,1,1,1.0000,0.0000,1.44680,0.20424,-2.78467,1.00959,1.57079,0.00002,-0.14512,-0.38002,0.03909,,,,,,,,,,,,,,,,,,,,,,,,,,0,0,0,0,0
3.6602,1783190638.3045,1,1,1.0000,0.0000,1.44680,0.20424,-2.78467,1.00959,1.57079,0.00002,-0.14512,-0.38002,0.03909,,,,,,,,,,,,,,,,,,,,,,,,,,0,0,0,0,0
3.6697,1783190638.3140,1,1,1.0000,0.0000,1.44680,0.20414,-2.78469,1.00971,1.57079,0.00002,-0.14512,-0.38002,0.03906,,,,,,,,,,,,,,,,,,,,,,,,,,0,0,0,0,0
3.6858,1783190638.3301,1,1,1.0000,0.0000,1.44680,0.20394,-2.78474,1.00997,1.57079,0.00002,-0.14512,-0.38002,0.03901,,,,,,,,,,,,,,,,,,,,,,,,,,0,0,0,0,0
3.7008,1783190638.3451,1,1,1.0000,0.0000,1.44680,0.20384,-2.78476,1.01009,1.57079,0.00002,-0.14512,-0.38002,0.03899,,,,,,,,,,,,,,,,,,,,,,,,,,0,0,0,0,0
3.7029,1783190638.3472,1,1,1.0000,0.0000,1.44680,0.20378,-2.78478,1.01016,1.57079,0.00002,-0.14512,-0.38002,0.03897,,,,,,,,,,,,,,,,,,,,,,,,,,0,0,0,0,0
3.7033,1783190638.3476,1,1,1.0000,0.0000,1.44680,0.20378,-2.78478,1.01016,1.57079,0.00002,-0.14512,-0.38002,0.03897,,,,,,,,,,,,,,,,,,,,,,,,,,0,0,0,0,0
3.7099,1783190638.3542,1,1,1.0000,0.0000,1.44680,0.20364,-2.78481,1.01034,1.57079,0.00002,-0.14512,-0.38002,0.03894,,,,,,,,,,,,,,,,,,,,,,,,,,0,0,0,0,0
3.7101,1783190638.3544,1,1,1.0000,0.0000,1.44680,0.20364,-2.78481,1.01034,1.57079,0.00002,-0.14512,-0.38002,0.03894,,,,,,,,,,,,,,,,,,,,,,,,,,0,0,0,0,0
3.7194,1783190638.3637,1,1,1.0000,0.0000,1.44680,0.20357,-2.78483,1.01043,1.57079,0.00002,-0.14512,-0.38002,0.03892,,,,,,,,,,,,,,,,,,,,,,,,,,0,0,0,0,0
3.7291,1783190638.3734,1,1,1.0000,0.0000,1.44680,0.20352,-2.78484,1.01048,1.57079,0.00002,-0.14512,-0.38002,0.03891,,,,,,,,,,,,,,,,,,,,,,,,,,0,0,0,0,0
3.7297,1783190638.3740,1,1,1.0000,0.0000,1.44680,0.20347,-2.78485,1.01055,1.57079,0.00002,-0.14512,-0.38002,0.03889,,,,,,,,,,,,,,,,,,,,,,,,,,0,0,0,0,0
3.7629,1783190638.4072,1,1,1.0000,0.0000,1.44680,0.20310,-2.78494,1.01100,1.57079,0.00002,-0.14512,-0.38002,0.03880,,,,,,,,,,,,,,,,,,,,,,,,,,0,0,0,0,0
3.7631,1783190638.4074,1,1,1.0000,0.0000,1.44680,0.20310,-2.78494,1.01100,1.57079,0.00002,-0.14512,-0.38002,0.03880,,,,,,,,,,,,,,,,,,,,,,,,,,0,0,0,0,0
3.7634,1783190638.4077,1,1,1.0000,0.0000,1.44680,0.20310,-2.78494,1.01100,1.57079,0.00002,-0.14512,-0.38002,0.03880,,,,,,,,,,,,,,,,,,,,,,,,,,0,0,0,0,0
3.7715,1783190638.4158,1,1,1.0000,0.0000,1.44680,0.20296,-2.78497,1.01117,1.57079,0.00002,-0.14512,-0.38001,0.03877,,,,,,,,,,,,,,,,,,,,,,,,,,0,0,0,0,0
3.7793,1783190638.4235,1,1,1.0000,0.0000,1.44680,0.20289,-2.78499,1.01126,1.57079,0.00002,-0.14512,-0.38001,0.03875,,,,,,,,,,,,,,,,,,,,,,,,,,0,0,0,0,0
3.7795,1783190638.4238,1,1,1.0000,0.0000,1.44680,0.20289,-2.78499,1.01126,1.57079,0.00002,-0.14512,-0.38001,0.03875,,,,,,,,,,,,,,,,,,,,,,,,,,0,0,0,0,0
3.8064,1783190638.4507,1,1,1.0000,0.0000,1.44680,0.20259,-2.78506,1.01164,1.57079,0.00002,-0.14512,-0.38001,0.03867,,,,,,,,,,,,,,,,,,,,,,,,,,0,0,0,0,0
3.8067,1783190638.4510,1,1,1.0000,0.0000,1.44680,0.20259,-2.78506,1.01164,1.57079,0.00002,-0.14512,-0.38001,0.03867,,,,,,,,,,,,,,,,,,,,,,,,,,0,0,0,0,0
3.8070,1783190638.4513,1,1,1.0000,0.0000,1.44680,0.20259,-2.78506,1.01164,1.57079,0.00002,-0.14512,-0.38001,0.03867,,,,,,,,,,,,,,,,,,,,,,,,,,0,0,0,0,0
3.8097,1783190638.4540,1,1,1.0000,0.0000,1.44680,0.20257,-2.78506,1.01165,1.57079,0.00002,-0.14512,-0.38001,0.03867,,,,,,,,,,,,,,,,,,,,,,,,,,0,0,0,0,0
3.8219,1783190638.4662,1,1,1.0000,0.0000,1.44680,0.20243,-2.78510,1.01183,1.57079,0.00002,-0.14512,-0.38001,0.03863,,,,,,,,,,,,,,,,,,,,,,,,,,0,0,0,0,0
3.8319,1783190638.4762,1,1,1.0000,0.0000,1.44680,0.20229,-2.78513,1.01201,1.57079,0.00002,-0.14512,-0.38001,0.03860,,,,,,,,,,,,,,,,,,,,,,,,,,0,0,0,0,0
3.8322,1783190638.4765,1,1,1.0000,0.0000,1.44680,0.20229,-2.78513,1.01201,1.57079,0.00002,-0.14512,-0.38001,0.03860,,,,,,,,,,,,,,,,,,,,,,,,,,0,0,0,0,0
3.8405,1783190638.4848,1,1,1.0000,0.0000,1.44680,0.20222,-2.78515,1.01210,1.57079,0.00002,-0.14512,-0.38001,0.03858,,,,,,,,,,,,,,,,,,,,,,,,,,0,0,0,0,0
3.8408,1783190638.4851,1,1,1.0000,0.0000,1.44680,0.20222,-2.78515,1.01210,1.57079,0.00002,-0.14512,-0.38001,0.03858,,,,,,,,,,,,,,,,,,,,,,,,,,0,0,0,0,0
3.8513,1783190638.4956,1,1,1.0000,0.0000,1.44680,0.20212,-2.78517,1.01222,1.57079,0.00002,-0.14512,-0.38001,0.03856,,,,,,,,,,,,,,,,,,,,,,,,,,0,0,0,0,0
3.8517,1783190638.4960,1,1,1.0000,0.0000,1.44680,0.20212,-2.78517,1.01222,1.57079,0.00002,-0.14512,-0.38001,0.03856,,,,,,,,,,,,,,,,,,,,,,,,,,0,0,0,0,0
3.8628,1783190638.5071,1,1,1.0000,0.0000,1.44680,0.20191,-2.78522,1.01247,1.57079,0.00002,-0.14512,-0.38001,0.03850,,,,,,,,,,,,,,,,,,,,,,,,,,0,0,0,0,0
3.8631,1783190638.5073,1,1,1.0000,0.0000,1.44680,0.20191,-2.78522,1.01247,1.57079,0.00002,-0.14512,-0.38001,0.03850,,,,,,,,,,,,,,,,,,,,,,,,,,0,0,0,0,0
3.8700,1783190638.5143,1,1,1.0000,0.0000,1.44680,0.20184,-2.78524,1.01256,1.57079,0.00002,-0.14512,-0.38001,0.03849,,,,,,,,,,,,,,,,,,,,,,,,,,0,0,0,0,0
3.8835,1783190638.5278,1,1,1.0000,0.0000,1.44680,0.20177,-2.78525,1.01265,1.57079,0.00002,-0.14512,-0.38001,0.03847,,,,,,,,,,,,,,,,,,,,,,,,,,0,0,0,0,0
3.8898,1783190638.5341,1,1,1.0000,0.0000,1.44680,0.20166,-2.78528,1.01278,1.57079,0.00002,-0.14512,-0.38001,0.03844,,,,,,,,,,,,,,,,,,,,,,,,,,0,0,0,0,0
3.8900,1783190638.5343,1,1,1.0000,0.0000,1.44680,0.20166,-2.78528,1.01278,1.57079,0.00002,-0.14512,-0.38001,0.03844,,,,,,,,,,,,,,,,,,,,,,,,,,0,0,0,0,0
3.9046,1783190638.5489,1,1,1.0000,0.0000,1.44680,0.20159,-2.78529,1.01287,1.57079,0.00002,-0.14512,-0.38001,0.03842,,,,,,,,,,,,,,,,,,,,,,,,,,0,0,0,0,0
3.9049,1783190638.5492,1,1,1.0000,0.0000,1.44680,0.20159,-2.78529,1.01287,1.57079,0.00002,-0.14512,-0.38001,0.03842,,,,,,,,,,,,,,,,,,,,,,,,,,0,0,0,0,0
3.9115,1783190638.5558,1,1,1.0000,0.0000,1.44680,0.20150,-2.78531,1.01298,1.57079,0.00003,-0.14512,-0.38001,0.03840,,,,,,,,,,,,,,,,,,,,,,,,,,0,0,0,0,0
3.9118,1783190638.5561,1,1,1.0000,0.0000,1.44680,0.20150,-2.78531,1.01298,1.57079,0.00003,-0.14512,-0.38001,0.03840,,,,,,,,,,,,,,,,,,,,,,,,,,0,0,0,0,0
3.9237,1783190638.5680,1,1,1.0000,0.0000,1.44680,0.20129,-2.78536,1.01324,1.57079,0.00003,-0.14512,-0.38001,0.03835,,,,,,,,,,,,,,,,,,,,,,,,,,0,0,0,0,0
3.9240,1783190638.5683,1,1,1.0000,0.0000,1.44680,0.20129,-2.78536,1.01324,1.57079,0.00003,-0.14512,-0.38001,0.03835,,,,,,,,,,,,,,,,,,,,,,,,,,0,0,0,0,0
3.9307,1783190638.5750,1,1,1.0000,0.0000,1.44680,0.20122,-2.78538,1.01333,1.57079,0.00003,-0.14512,-0.38001,0.03833,,,,,,,,,,,,,,,,,,,,,,,,,,0,0,0,0,0
3.9310,1783190638.5752,1,1,1.0000,0.0000,1.44680,0.20122,-2.78538,1.01333,1.57079,0.00003,-0.14512,-0.38001,0.03833,,,,,,,,,,,,,,,,,,,,,,,,,,0,0,0,0,0
3.9410,1783190638.5853,1,1,1.0000,0.0000,1.44680,0.20119,-2.78539,1.01337,1.57079,0.00003,-0.14512,-0.38001,0.03832,,,,,,,,,,,,,,,,,,,,,,,,,,0,0,0,0,0
3.9416,1783190638.5859,1,1,1.0000,0.0000,1.44680,0.20115,-2.78540,1.01341,1.57079,0.00003,-0.14512,-0.38001,0.03831,,,,,,,,,,,,,,,,,,,,,,,,,,0,0,0,0,0
3.9513,1783190638.5956,1,1,1.0000,0.0000,1.44680,0.20104,-2.78542,1.01354,1.57079,0.00003,-0.14512,-0.38001,0.03829,,,,,,,,,,,,,,,,,,,,,,,,,,0,0,0,0,0
3.9517,1783190638.5960,1,1,1.0000,0.0000,1.44680,0.20104,-2.78542,1.01354,1.57079,0.00003,-0.14512,-0.38001,0.03829,,,,,,,,,,,,,,,,,,,,,,,,,,0,0,0,0,0
3.9625,1783190638.6067,1,1,1.0000,0.0000,1.44680,0.20097,-2.78544,1.01363,1.57079,0.00003,-0.14512,-0.38001,0.03827,,,,,,,,,,,,,,,,,,,,,,,,,,0,0,0,0,0
3.9739,1783190638.6182,1,1,1.0000,0.0000,1.44680,0.20082,-2.78548,1.01382,1.57079,0.00003,-0.14512,-0.38001,0.03823,,,,,,,,,,,,,,,,,,,,,,,,,,0,0,0,0,0
3.9743,1783190638.6186,1,1,1.0000,0.0000,1.44680,0.20082,-2.78548,1.01382,1.57079,0.00003,-0.14512,-0.38001,0.03823,,,,,,,,,,,,,,,,,,,,,,,,,,0,0,0,0,0
3.9846,1783190638.6289,1,1,1.0000,0.0000,1.44680,0.20067,-2.78551,1.01400,1.57079,0.00003,-0.14512,-0.38001,0.03819,,,,,,,,,,,,,,,,,,,,,,,,,,0,0,0,0,0
3.9906,1783190638.6349,1,1,1.0000,0.0000,1.44680,0.20060,-2.78553,1.01409,1.57079,0.00003,-0.14512,-0.38001,0.03818,,,,,,,,,,,,,,,,,,,,,,,,,,0,0,0,0,0
4.0070,1783190638.6512,1,1,1.0000,0.0000,1.44680,0.20048,-2.78556,1.01424,1.57079,0.00003,-0.14512,-0.38001,0.03815,,,,,,,,,,,,,,,,,,,,,,,,,,0,0,0,0,0
4.0121,1783190638.6563,1,1,1.0000,0.0000,1.44680,0.20042,-2.78557,1.01431,1.57079,0.00003,-0.14512,-0.38001,0.03813,,,,,,,,,,,,,,,,,,,,,,,,,,0,0,0,0,0
4.0211,1783190638.6654,1,1,1.0000,0.0000,1.44680,0.20036,-2.78558,1.01439,1.57079,0.00003,-0.14512,-0.38001,0.03812,,,,,,,,,,,,,,,,,,,,,,,,,,0,0,0,0,0
4.0217,1783190638.6660,1,1,1.0000,0.0000,1.44680,0.20035,-2.78559,1.01440,1.57079,0.00003,-0.14512,-0.38001,0.03811,,,,,,,,,,,,,,,,,,,,,,,,,,0,0,0,0,0
4.0307,1783190638.6750,1,1,1.0000,0.0000,1.44680,0.20026,-2.78561,1.01451,1.57079,0.00003,-0.14512,-0.38001,0.03809,,,,,,,,,,,,,,,,,,,,,,,,,,0,0,0,0,0
4.0443,1783190638.6886,1,1,1.0000,0.0000,1.44680,0.20005,-2.78566,1.01477,1.57079,0.00003,-0.14512,-0.38001,0.03804,,,,,,,,,,,,,,,,,,,,,,,,,,0,0,0,0,0
4.0446,1783190638.6889,1,1,1.0000,0.0000,1.44680,0.20005,-2.78566,1.01477,1.57079,0.00003,-0.14512,-0.38001,0.03804,,,,,,,,,,,,,,,,,,,,,,,,,,0,0,0,0,0
4.0552,1783190638.6995,1,1,1.0000,0.0000,1.44680,0.19997,-2.78567,1.01487,1.57079,0.00003,-0.14512,-0.38001,0.03802,,,,,,,,,,,,,,,,,,,,,,,,,,0,0,0,0,0
4.0558,1783190638.7001,1,1,1.0000,0.0000,1.44680,0.19997,-2.78567,1.01487,1.57079,0.00003,-0.14512,-0.38001,0.03802,,,,,,,,,,,,,,,,,,,,,,,,,,0,0,0,0,0
4.0622,1783190638.7064,1,1,1.0000,0.0000,1.44680,0.19990,-2.78569,1.01495,1.57079,0.00003,-0.14512,-0.38001,0.03800,,,,,,,,,,,,,,,,,,,,,,,,,,0,0,0,0,0
4.0626,1783190638.7069,1,1,1.0000,0.0000,1.44680,0.19990,-2.78569,1.01495,1.57079,0.00003,-0.14512,-0.38001,0.03800,,,,,,,,,,,,,,,,,,,,,,,,,,0,0,0,0,0
4.0698,1783190638.7141,1,1,1.0000,0.0000,1.44680,0.19980,-2.78571,1.01508,1.57079,0.00003,-0.14512,-0.38001,0.03798,,,,,,,,,,,,,,,,,,,,,,,,,,0,0,0,0,0
4.0798,1783190638.7241,1,1,1.0000,0.0000,1.44680,0.19974,-2.78573,1.01515,1.57079,0.00003,-0.14512,-0.38001,0.03796,,,,,,,,,,,,,,,,,,,,,,,,,,0,0,0,0,0
4.0928,1783190638.7371,1,1,1.0000,0.0000,1.44680,0.19964,-2.78575,1.01528,1.57079,0.00003,-0.14512,-0.38001,0.03794,,,,,,,,,,,,,,,,,,,,,,,,,,0,0,0,0,0
4.0931,1783190638.7374,1,1,1.0000,0.0000,1.44680,0.19964,-2.78575,1.01528,1.57079,0.00003,-0.14512,-0.38001,0.03794,,,,,,,,,,,,,,,,,,,,,,,,,,0,0,0,0,0
4.1131,1783190638.7574,1,1,1.0000,0.0000,1.44680,0.19935,-2.78582,1.01563,1.57079,0.00003,-0.14512,-0.38001,0.03787,,,,,,,,,,,,,,,,,,,,,,,,,,0,0,0,0,0
4.1138,1783190638.7581,1,1,1.0000,0.0000,1.44680,0.19935,-2.78582,1.01564,1.57079,0.00003,-0.14512,-0.38001,0.03786,,,,,,,,,,,,,,,,,,,,,,,,,,0,0,0,0,0
4.1289,1783190638.7732,1,1,1.0000,0.0000,1.44680,0.19923,-2.78585,1.01577,1.57079,0.00003,-0.14512,-0.38001,0.03784,,,,,,,,,,,,,,,,,,,,,,,,,,0,0,0,0,0
4.1298,1783190638.7741,1,1,1.0000,0.0000,1.44680,0.19918,-2.78586,1.01584,1.57079,0.00003,-0.14512,-0.38001,0.03782,,,,,,,,,,,,,,,,,,,,,,,,,,0,0,0,0,0
4.1300,1783190638.7743,1,1,1.0000,0.0000,1.44680,0.19918,-2.78586,1.01584,1.57079,0.00003,-0.14512,-0.38001,0.03782,,,,,,,,,,,,,,,,,,,,,,,,,,0,0,0,0,0
4.1411,1783190638.7854,1,1,1.0000,0.0000,1.44680,0.19912,-2.78587,1.01592,1.57079,0.00003,-0.14512,-0.38001,0.03781,,,,,,,,,,,,,,,,,,,,,,,,,,0,0,0,0,0
4.1501,1783190638.7943,1,1,1.0000,0.0000,1.44680,0.19902,-2.78590,1.01604,1.57079,0.00003,-0.14512,-0.38001,0.03778,,,,,,,,,,,,,,,,,,,,,,,,,,0,0,0,0,0
4.1630,1783190638.8073,1,1,1.0000,0.0000,1.44680,0.19880,-2.78595,1.01631,1.57079,0.00003,-0.14512,-0.38001,0.03773,,,,,,,,,,,,,,,,,,,,,,,,,,0,0,0,0,0
4.1700,1783190638.8143,1,1,1.0000,0.0000,1.44680,0.19873,-2.78596,1.01639,1.57079,0.00003,-0.14512,-0.38001,0.03771,,,,,,,,,,,,,,,,,,,,,,,,,,0,0,0,0,0
4.1807,1783190638.8250,1,1,1.0000,0.0000,1.44680,0.19870,-2.78597,1.01644,1.57079,0.00003,-0.14512,-0.38001,0.03770,,,,,,,,,,,,,,,,,,,,,,,,,,0,0,0,0,0
4.1918,1783190638.8361,1,1,1.0000,0.0000,1.44680,0.19856,-2.78600,1.01661,1.57079,0.00003,-0.14512,-0.38001,0.03767,,,,,,,,,,,,,,,,,,,,,,,,,,0,0,0,0,0
4.2008,1783190638.8450,1,1,1.0000,0.0000,1.44680,0.19849,-2.78602,1.01669,1.57079,0.00003,-0.14512,-0.38001,0.03765,,,,,,,,,,,,,,,,,,,,,,,,,,0,0,0,0,0
4.2146,1783190638.8589,1,1,1.0000,0.0000,1.44680,0.19833,-2.78606,1.01689,1.57079,0.00003,-0.14512,-0.38001,0.03761,,,,,,,,,,,,,,,,,,,,,,,,,,0,0,0,0,0
4.2193,1783190638.8635,1,1,1.0000,0.0000,1.44680,0.19825,-2.78607,1.01698,1.57079,0.00003,-0.14512,-0.38001,0.03759,,,,,,,,,,,,,,,,,,,,,,,,,,0,0,0,0,0
4.2197,1783190638.8640,1,1,1.0000,0.0000,1.44680,0.19825,-2.78607,1.01698,1.57079,0.00003,-0.14512,-0.38001,0.03759,,,,,,,,,,,,,,,,,,,,,,,,,,0,0,0,0,0
4.2304,1783190638.8747,1,1,1.0000,0.0000,1.44680,0.19811,-2.78611,1.01716,1.57079,0.00003,-0.14512,-0.38001,0.03756,,,,,,,,,,,,,,,,,,,,,,,,,,0,0,0,0,0
4.2409,1783190638.8852,1,1,1.0000,0.0000,1.44680,0.19806,-2.78612,1.01722,1.57079,0.00003,-0.14512,-0.38001,0.03754,,,,,,,,,,,,,,,,,,,,,,,,,,0,0,0,0,0
4.2499,1783190638.8941,1,1,1.0000,0.0000,1.44680,0.19788,-2.78616,1.01745,1.57079,0.00003,-0.14512,-0.38001,0.03750,,,,,,,,,,,,,,,,,,,,,,,,,,0,0,0,0,0
4.2627,1783190638.9070,1,1,1.0000,0.0000,1.44680,0.19779,-2.78618,1.01755,1.57079,0.00003,-0.14512,-0.38001,0.03748,,,,,,,,,,,,,,,,,,,,,,,,,,0,0,0,0,0
4.2745,1783190638.9187,1,1,1.0000,0.0000,1.44680,0.19764,-2.78622,1.01774,1.57079,0.00003,-0.14512,-0.38001,0.03744,,,,,,,,,,,,,,,,,,,,,,,,,,0,0,0,0,0
4.2797,1783190638.9240,1,1,1.0000,0.0000,1.44680,0.19757,-2.78623,1.01782,1.57079,0.00003,-0.14512,-0.38001,0.03742,,,,,,,,,,,,,,,,,,,,,,,,,,0,0,0,0,0
4.2997,1783190638.9440,1,1,1.0000,0.0000,1.44680,0.19738,-2.78628,1.01806,1.57079,0.00003,-0.14512,-0.38001,0.03738,,,,,,,,,,,,,,,,,,,,,,,,,,0,0,0,0,0
4.3003,1783190638.9446,1,1,1.0000,0.0000,1.44680,0.19738,-2.78628,1.01806,1.57079,0.00003,-0.14512,-0.38001,0.03738,,,,,,,,,,,,,,,,,,,,,,,,,,0,0,0,0,0
4.3164,1783190638.9607,1,1,1.0000,0.0000,1.44680,0.19712,-2.78634,1.01838,1.57079,0.00003,-0.14512,-0.38001,0.03731,,,,,,,,,,,,,,,,,,,,,,,,,,0,0,0,0,0
4.3194,1783190638.9637,1,1,1.0000,0.0000,1.44680,0.19712,-2.78634,1.01838,1.57079,0.00003,-0.14512,-0.38001,0.03731,,,,,,,,,,,,,,,,,,,,,,,,,,0,0,0,0,0
4.3198,1783190638.9641,1,1,1.0000,0.0000,1.44680,0.19712,-2.78634,1.01838,1.57079,0.00003,-0.14512,-0.38001,0.03731,,,,,,,,,,,,,,,,,,,,,,,,,,0,0,0,0,0
4.3346,1783190638.9788,1,1,1.0000,0.0000,1.44680,0.19696,-2.78637,1.01857,1.57079,0.00003,-0.14512,-0.38001,0.03727,,,,,,,,,,,,,,,,,,,,,,,,,,0,0,0,0,0
4.3395,1783190638.9838,1,1,1.0000,0.0000,1.44680,0.19689,-2.78639,1.01866,1.57079,0.00003,-0.14512,-0.38001,0.03725,,,,,,,,,,,,,,,,,,,,,,,,,,0,0,0,0,0
4.3538,1783190638.9981,1,1,1.0000,0.0000,1.44680,0.19674,-2.78643,1.01885,1.57079,0.00003,-0.14512,-0.38001,0.03721,,,,,,,,,,,,,,,,,,,,,,,,,,0,0,0,0,0
4.3541,1783190638.9984,1,1,1.0000,0.0000,1.44680,0.19674,-2.78643,1.01885,1.57079,0.00003,-0.14512,-0.38001,0.03721,,,,,,,,,,,,,,,,,,,,,,,,,,0,0,0,0,0
4.3629,1783190639.0071,1,1,1.0000,0.0000,1.44680,0.19665,-2.78645,1.01896,1.57079,0.00003,-0.14512,-0.38001,0.03719,,,,,,,,,,,,,,,,,,,,,,,,,,0,0,0,0,0
4.3633,1783190639.0076,1,1,1.0000,0.0000,1.44680,0.19665,-2.78645,1.01896,1.57079,0.00003,-0.14512,-0.38001,0.03719,,,,,,,,,,,,,,,,,,,,,,,,,,0,0,0,0,0
4.3699,1783190639.0142,1,1,1.0000,0.0000,1.44680,0.19652,-2.78648,1.01912,1.57079,0.00003,-0.14511,-0.38001,0.03716,,,,,,,,,,,,,,,,,,,,,,,,,,0,0,0,0,0
4.3703,1783190639.0146,1,1,1.0000,0.0000,1.44680,0.19652,-2.78648,1.01912,1.57079,0.00003,-0.14511,-0.38001,0.03716,,,,,,,,,,,,,,,,,,,,,,,,,,0,0,0,0,0
4.3806,1783190639.0249,1,1,1.0000,0.0000,1.44679,0.19644,-2.78650,1.01922,1.57079,0.00003,-0.14511,-0.38001,0.03714,,,,,,,,,,,,,,,,,,,,,,,,,,0,0,0,0,0
4.3897,1783190639.0340,1,1,1.0000,0.0000,1.44679,0.19634,-2.78652,1.01934,1.57079,0.00003,-0.14511,-0.38001,0.03712,,,,,,,,,,,,,,,,,,,,,,,,,,0,0,0,0,0
4.3994,1783190639.0437,1,1,1.0000,0.0000,1.44679,0.19621,-2.78655,1.01950,1.57079,0.00003,-0.14511,-0.38001,0.03708,,,,,,,,,,,,,,,,,,,,,,,,,,0,0,0,0,0
4.4194,1783190639.0637,1,1,1.0000,0.0000,1.44679,0.19602,-2.78659,1.01973,1.57079,0.00003,-0.14511,-0.38001,0.03704,,,,,,,,,,,,,,,,,,,,,,,,,,0,0,0,0,0
4.4220,1783190639.0663,1,1,1.0000,0.0000,1.44679,0.19597,-2.78661,1.01980,1.57079,0.00003,-0.14511,-0.38001,0.03702,,,,,,,,,,,,,,,,,,,,,,,,,,0,0,0,0,0
4.4298,1783190639.0740,1,1,1.0000,0.0000,1.44679,0.19583,-2.78664,1.01996,1.57079,0.00003,-0.14511,-0.38001,0.03699,,,,,,,,,,,,,,,,,,,,,,,,,,0,0,0,0,0
4.4404,1783190639.0846,1,1,1.0000,0.0000,1.44679,0.19576,-2.78665,1.02005,1.57079,0.00003,-0.14511,-0.38001,0.03697,,,,,,,,,,,,,,,,,,,,,,,,,,0,0,0,0,0
4.4407,1783190639.0850,1,1,1.0000,0.0000,1.44679,0.19576,-2.78665,1.02005,1.57079,0.00003,-0.14511,-0.38001,0.03697,,,,,,,,,,,,,,,,,,,,,,,,,,0,0,0,0,0
4.4499,1783190639.0942,1,1,1.0000,0.0000,1.44679,0.19566,-2.78668,1.02017,1.57079,0.00003,-0.14511,-0.38001,0.03695,,,,,,,,,,,,,,,,,,,,,,,,,,0,0,0,0,0
4.4659,1783190639.1102,1,1,1.0000,0.0000,1.44679,0.19539,-2.78674,1.02052,1.57079,0.00003,-0.14511,-0.38001,0.03688,,,,,,,,,,,,,,,,,,,,,,,,,,0,0,0,0,0
4.4663,1783190639.1106,1,1,1.0000,0.0000,1.44679,0.19539,-2.78674,1.02052,1.57079,0.00003,-0.14511,-0.38001,0.03688,,,,,,,,,,,,,,,,,,,,,,,,,,0,0,0,0,0
4.4708,1783190639.1151,1,1,1.0000,0.0000,1.44679,0.19539,-2.78674,1.02052,1.57079,0.00003,-0.14511,-0.38001,0.03688,,,,,,,,,,,,,,,,,,,,,,,,,,0,0,0,0,0
4.4802,1783190639.1245,1,1,1.0000,0.0000,1.44679,0.19534,-2.78675,1.02057,1.57079,0.00003,-0.14511,-0.38001,0.03687,,,,,,,,,,,,,,,,,,,,,,,,,,0,0,0,0,0
4.4897,1783190639.1340,1,1,1.0000,0.0000,1.44679,0.19515,-2.78679,1.02080,1.57079,0.00003,-0.14511,-0.38001,0.03682,,,,,,,,,,,,,,,,,,,,,,,,,,0,0,0,0,0
4.5020,1783190639.1462,1,1,1.0000,0.0000,1.44679,0.19501,-2.78683,1.02098,1.57079,0.00003,-0.14511,-0.38001,0.03679,,,,,,,,,,,,,,,,,,,,,,,,,,0,0,0,0,0
4.5098,1783190639.1541,1,1,1.0000,0.0000,1.44679,0.19497,-2.78684,1.02102,1.57079,0.00003,-0.14511,-0.38001,0.03678,,,,,,,,,,,,,,,,,,,,,,,,,,0,0,0,0,0
4.5224,1783190639.1667,1,1,1.0000,0.0000,1.44679,0.19483,-2.78687,1.02120,1.57079,0.00003,-0.14511,-0.38001,0.03674,,,,,,,,,,,,,,,,,,,,,,,,,,0,0,0,0,0
4.5366,1783190639.1809,1,1,1.0000,0.0000,1.44679,0.19475,-2.78689,1.02129,1.57079,0.00003,-0.14511,-0.38001,0.03672,,,,,,,,,,,,,,,,,,,,,,,,,,0,0,0,0,0
4.5404,1783190639.1846,1,1,1.0000,0.0000,1.44679,0.19472,-2.78689,1.02134,1.57079,0.00003,-0.14511,-0.38001,0.03671,,,,,,,,,,,,,,,,,,,,,,,,,,0,0,0,0,0
4.5408,1783190639.1851,1,1,1.0000,0.0000,1.44679,0.19472,-2.78689,1.02134,1.57079,0.00003,-0.14511,-0.38001,0.03671,,,,,,,,,,,,,,,,,,,,,,,,,,0,0,0,0,0
4.5504,1783190639.1947,1,1,1.0000,0.0000,1.44679,0.19453,-2.78694,1.02157,1.57079,0.00003,-0.14511,-0.38001,0.03667,,,,,,,,,,,,,,,,,,,,,,,,,,0,0,0,0,0
4.5669,1783190639.2112,1,1,1.0000,0.0000,1.44679,0.19437,-2.78697,1.02177,1.57079,0.00003,-0.14511,-0.38001,0.03663,,,,,,,,,,,,,,,,,,,,,,,,,,0,0,0,0,0
4.5748,1783190639.2191,1,1,1.0000,0.0000,1.44679,0.19431,-2.78699,1.02184,1.57079,0.00003,-0.14511,-0.38001,0.03661,,,,,,,,,,,,,,,,,,,,,,,,,,0,0,0,0,0
4.5806,1783190639.2249,1,1,1.0000,0.0000,1.44679,0.19426,-2.78700,1.02190,1.57079,0.00003,-0.14511,-0.38001,0.03660,,,,,,,,,,,,,,,,,,,,,,,,,,0,0,0,0,0
4.5899,1783190639.2342,1,1,1.0000,0.0000,1.44679,0.19414,-2.78703,1.02205,1.57079,0.00003,-0.14511,-0.38001,0.03657,,,,,,,,,,,,,,,,,,,,,,,,,,0,0,0,0,0
4.6040,1783190639.2483,1,1,1.0000,0.0000,1.44679,0.19404,-2.78705,1.02217,1.57079,0.00003,-0.14511,-0.38001,0.03655,,,,,,,,,,,,,,,,,,,,,,,,,,0,0,0,0,0
4.6104,1783190639.2547,1,1,1.0000,0.0000,1.44679,0.19390,-2.78708,1.02234,1.57079,0.00003,-0.14511,-0.38001,0.03651,,,,,,,,,,,,,,,,,,,,,,,,,,0,0,0,0,0
4.6249,1783190639.2692,1,1,1.0000,0.0000,1.44679,0.19375,-2.78712,1.02253,1.57079,0.00003,-0.14511,-0.38001,0.03648,,,,,,,,,,,,,,,,,,,,,,,,,,0,0,0,0,0
4.6293,1783190639.2736,1,1,1.0000,0.0000,1.44679,0.19374,-2.78712,1.02254,1.57079,0.00003,-0.14511,-0.38001,0.03647,,,,,,,,,,,,,,,,,,,,,,,,,,0,0,0,0,0
4.6299,1783190639.2742,1,1,1.0000,0.0000,1.44679,0.19372,-2.78712,1.02257,1.57079,0.00003,-0.14511,-0.38001,0.03647,,,,,,,,,,,,,,,,,,,,,,,,,,0,0,0,0,0
4.6394,1783190639.2837,1,1,1.0000,0.0000,1.44679,0.19363,-2.78714,1.02267,1.57079,0.00003,-0.14511,-0.38001,0.03645,,,,,,,,,,,,,,,,,,,,,,,,,,0,0,0,0,0
4.6504,1783190639.2947,1,1,1.0000,0.0000,1.44679,0.19351,-2.78717,1.02282,1.57079,0.00003,-0.14511,-0.38001,0.03642,,,,,,,,,,,,,,,,,,,,,,,,,,0,0,0,0,0
4.6715,1783190639.3158,1,1,1.0000,0.0000,1.44679,0.19327,-2.78723,1.02312,1.57079,0.00003,-0.14511,-0.38001,0.03636,,,,,,,,,,,,,,,,,,,,,,,,,,0,0,0,0,0
4.6732,1783190639.3175,1,1,1.0000,0.0000,1.44679,0.19327,-2.78723,1.02312,1.57079,0.00003,-0.14511,-0.38001,0.03636,,,,,,,,,,,,,,,,,,,,,,,,,,0,0,0,0,0
4.6738,1783190639.3181,1,1,1.0000,0.0000,1.44679,0.19320,-2.78724,1.02321,1.57079,0.00003,-0.14511,-0.38001,0.03634,,,,,,,,,,,,,,,,,,,,,,,,,,0,0,0,0,0
4.6859,1783190639.3302,1,1,1.0000,0.0000,1.44679,0.19312,-2.78726,1.02331,1.57079,0.00003,-0.14511,-0.38001,0.03632,,,,,,,,,,,,,,,,,,,,,,,,,,0,0,0,0,0
4.6984,1783190639.3427,1,1,1.0000,0.0000,1.44679,0.19300,-2.78729,1.02344,1.57079,0.00003,-0.14511,-0.38001,0.03629,,,,,,,,,,,,,,,,,,,,,,,,,,0,0,0,0,0
4.7088,1783190639.3531,1,1,1.0000,0.0000,1.44679,0.19289,-2.78731,1.02359,1.57079,0.00003,-0.14511,-0.38001,0.03626,,,,,,,,,,,,,,,,,,,,,,,,,,0,0,0,0,0
4.7139,1783190639.3582,1,1,1.0000,0.0000,1.44679,0.19287,-2.78732,1.02361,1.57079,0.00003,-0.14511,-0.38001,0.03626,,,,,,,,,,,,,,,,,,,,,,,,,,0,0,0,0,0
4.7143,1783190639.3586,1,1,1.0000,0.0000,1.44679,0.19287,-2.78732,1.02361,1.57079,0.00003,-0.14511,-0.38001,0.03626,,,,,,,,,,,,,,,,,,,,,,,,,,0,0,0,0,0
4.7258,1783190639.3701,1,1,1.0000,0.0000,1.44679,0.19272,-2.78735,1.02380,1.57079,0.00003,-0.14511,-0.38001,0.03622,,,,,,,,,,,,,,,,,,,,,,,,,,0,0,0,0,0
4.7262,1783190639.3705,1,1,1.0000,0.0000,1.44679,0.19272,-2.78735,1.02380,1.57079,0.00003,-0.14511,-0.38001,0.03622,,,,,,,,,,,,,,,,,,,,,,,,,,0,0,0,0,0
4.7340,1783190639.3783,1,1,1.0000,0.0000,1.44679,0.19257,-2.78739,1.02398,1.57079,0.00003,-0.14511,-0.38001,0.03618,,,,,,,,,,,,,,,,,,,,,,,,,,0,0,0,0,0
4.7344,1783190639.3787,1,1,1.0000,0.0000,1.44679,0.19257,-2.78739,1.02398,1.57079,0.00003,-0.14511,-0.38001,0.03618,,,,,,,,,,,,,,,,,,,,,,,,,,0,0,0,0,0
4.7487,1783190639.3930,1,1,1.0000,0.0000,1.44679,0.19249,-2.78741,1.02408,1.57079,0.00003,-0.14511,-0.38001,0.03616,,,,,,,,,,,,,,,,,,,,,,,,,,0,0,0,0,0
4.7586,1783190639.4029,1,1,1.0000,0.0000,1.44679,0.19238,-2.78743,1.02422,1.57079,0.00003,-0.14511,-0.38001,0.03614,,,,,,,,,,,,,,,,,,,,,,,,,,0,0,0,0,0
4.7719,1783190639.4162,1,1,1.0000,0.0000,1.44679,0.19226,-2.78746,1.02436,1.57079,0.00003,-0.14511,-0.38001,0.03611,,,,,,,,,,,,,,,,,,,,,,,,,,0,0,0,0,0
4.7765,1783190639.4207,1,1,1.0000,0.0000,1.44679,0.19224,-2.78746,1.02438,1.57079,0.00003,-0.14511,-0.38001,0.03610,,,,,,,,,,,,,,,,,,,,,,,,,,0,0,0,0,0
4.7839,1783190639.4282,1,1,1.0000,0.0000,1.44679,0.19216,-2.78748,1.02449,1.57079,0.00003,-0.14511,-0.38001,0.03608,,,,,,,,,,,,,,,,,,,,,,,,,,0,0,0,0,0
4.7842,1783190639.4285,1,1,1.0000,0.0000,1.44679,0.19216,-2.78748,1.02449,1.57079,0.00003,-0.14511,-0.38001,0.03608,,,,,,,,,,,,,,,,,,,,,,,,,,0,0,0,0,0
4.7940,1783190639.4383,1,1,1.0000,0.0000,1.44679,0.19194,-2.78753,1.02475,1.57079,0.00003,-0.14511,-0.38001,0.03603,,,,,,,,,,,,,,,,,,,,,,,,,,0,0,0,0,0
4.7942,1783190639.4385,1,1,1.0000,0.0000,1.44679,0.19194,-2.78753,1.02475,1.57079,0.00003,-0.14511,-0.38001,0.03603,,,,,,,,,,,,,,,,,,,,,,,,,,0,0,0,0,0
4.8084,1783190639.4527,1,1,1.0000,0.0000,1.44679,0.19186,-2.78755,1.02485,1.57079,0.00003,-0.14511,-0.38001,0.03601,,,,,,,,,,,,,,,,,,,,,,,,,,0,0,0,0,0
4.8141,1783190639.4583,1,1,1.0000,0.0000,1.44679,0.19180,-2.78756,1.02493,1.57079,0.00003,-0.14511,-0.38001,0.03599,,,,,,,,,,,,,,,,,,,,,,,,,,0,0,0,0,0
4.8144,1783190639.4587,1,1,1.0000,0.0000,1.44679,0.19180,-2.78756,1.02493,1.57079,0.00003,-0.14511,-0.38001,0.03599,,,,,,,,,,,,,,,,,,,,,,,,,,0,0,0,0,0
4.8259,1783190639.4702,1,1,1.0000,0.0000,1.44679,0.19163,-2.78760,1.02513,1.57079,0.00003,-0.14511,-0.38001,0.03595,,,,,,,,,,,,,,,,,,,,,,,,,,0,0,0,0,0
4.8262,1783190639.4705,1,1,1.0000,0.0000,1.44679,0.19163,-2.78760,1.02513,1.57079,0.00003,-0.14511,-0.38001,0.03595,,,,,,,,,,,,,,,,,,,,,,,,,,0,0,0,0,0
4.8363,1783190639.4805,1,1,1.0000,0.0000,1.44679,0.19162,-2.78761,1.02515,1.57079,0.00003,-0.14511,-0.38001,0.03595,,,,,,,,,,,,,,,,,,,,,,,,,,0,0,0,0,0
4.8365,1783190639.4808,1,1,1.0000,0.0000,1.44679,0.19162,-2.78761,1.02515,1.57079,0.00003,-0.14511,-0.38001,0.03595,,,,,,,,,,,,,,,,,,,,,,,,,,0,0,0,0,0
4.8442,1783190639.4885,1,1,1.0000,0.0000,1.44679,0.19153,-2.78763,1.02526,1.57079,0.00003,-0.14511,-0.38001,0.03593,,,,,,,,,,,,,,,,,,,,,,,,,,0,0,0,0,0
4.8559,1783190639.5002,1,1,1.0000,0.0000,1.44679,0.19131,-2.78767,1.02552,1.57079,0.00003,-0.14511,-0.38001,0.03587,,,,,,,,,,,,,,,,,,,,,,,,,,0,0,0,0,0
4.8641,1783190639.5084,1,1,1.0000,0.0000,1.44679,0.19124,-2.78769,1.02561,1.57079,0.00003,-0.14511,-0.38001,0.03586,,,,,,,,,,,,,,,,,,,,,,,,,,0,0,0,0,0
4.8756,1783190639.5199,1,1,1.0000,0.0000,1.44679,0.19117,-2.78771,1.02570,1.57079,0.00003,-0.14511,-0.38001,0.03584,,,,,,,,,,,,,,,,,,,,,,,,,,0,0,0,0,0
4.8873,1783190639.5316,1,1,1.0000,0.0000,1.44679,0.19100,-2.78775,1.02591,1.57079,0.00003,-0.14511,-0.38001,0.03580,,,,,,,,,,,,,,,,,,,,,,,,,,0,0,0,0,0
4.8942,1783190639.5385,1,1,1.0000,0.0000,1.44679,0.19099,-2.78775,1.02592,1.57079,0.00003,-0.14511,-0.38001,0.03579,,,,,,,,,,,,,,,,,,,,,,,,,,0,0,0,0,0
4.9059,1783190639.5502,1,1,1.0000,0.0000,1.44679,0.19083,-2.78778,1.02611,1.57079,0.00003,-0.14511,-0.38001,0.03575,,,,,,,,,,,,,,,,,,,,,,,,,,0,0,0,0,0
4.9143,1783190639.5585,1,1,1.0000,0.0000,1.44679,0.19068,-2.78782,1.02630,1.57079,0.00003,-0.14511,-0.38001,0.03572,,,,,,,,,,,,,,,,,,,,,,,,,,0,0,0,0,0
4.9146,1783190639.5588,1,1,1.0000,0.0000,1.44679,0.19068,-2.78782,1.02630,1.57079,0.00003,-0.14511,-0.38001,0.03572,,,,,,,,,,,,,,,,,,,,,,,,,,0,0,0,0,0
4.9306,1783190639.5749,1,1,1.0000,0.0000,1.44679,0.19058,-2.78784,1.02643,1.57079,0.00003,-0.14511,-0.38001,0.03569,,,,,,,,,,,,,,,,,,,,,,,,,,0,0,0,0,0
4.9342,1783190639.5785,1,1,1.0000,0.0000,1.44679,0.19054,-2.78785,1.02647,1.57079,0.00003,-0.14511,-0.38001,0.03568,,,,,,,,,,,,,,,,,,,,,,,,,,0,0,0,0,0
4.9344,1783190639.5787,1,1,1.0000,0.0000,1.44679,0.19054,-2.78785,1.02647,1.57079,0.00003,-0.14511,-0.38001,0.03568,,,,,,,,,,,,,,,,,,,,,,,,,,0,0,0,0,0
4.9462,1783190639.5905,1,1,1.0000,0.0000,1.44679,0.19037,-2.78789,1.02668,1.57079,0.00003,-0.14511,-0.38001,0.03564,,,,,,,,,,,,,,,,,,,,,,,,,,0,0,0,0,0
4.9465,1783190639.5908,1,1,1.0000,0.0000,1.44679,0.19037,-2.78789,1.02668,1.57079,0.00003,-0.14511,-0.38001,0.03564,,,,,,,,,,,,,,,,,,,,,,,,,,0,0,0,0,0
4.9582,1783190639.6025,1,1,1.0000,0.0000,1.44679,0.19032,-2.78790,1.02674,1.57079,0.00003,-0.14511,-0.38001,0.03563,,,,,,,,,,,,,,,,,,,,,,,,,,0,0,0,0,0
4.9646,1783190639.6089,1,1,1.0000,0.0000,1.44679,0.19027,-2.78791,1.02681,1.57079,0.00003,-0.14511,-0.38001,0.03562,,,,,,,,,,,,,,,,,,,,,,,,,,0,0,0,0,0
4.9776,1783190639.6219,1,1,1.0000,0.0000,1.44679,0.19005,-2.78796,1.02707,1.57079,0.00003,-0.14511,-0.38001,0.03556,,,,,,,,,,,,,,,,,,,,,,,,,,0,0,0,0,0
4.9890,1783190639.6333,1,1,1.0000,0.0000,1.44679,0.18997,-2.78798,1.02717,1.57079,0.00003,-0.14511,-0.38001,0.03554,,,,,,,,,,,,,,,,,,,,,,,,,,0,0,0,0,0
4.9990,1783190639.6433,1,1,1.0000,0.0000,1.44679,0.18982,-2.78801,1.02736,1.57079,0.00003,-0.14511,-0.38001,0.03551,,,,,,,,,,,,,,,,,,,,,,,,,,0,0,0,0,0
5.0044,1783190639.6487,1,1,1.0000,0.0000,1.44679,0.18975,-2.78803,1.02745,1.57079,0.00003,-0.14511,-0.38001,0.03549,,,,,,,,,,,,,,,,,,,,,,,,,,0,0,0,0,0
5.0047,1783190639.6489,1,1,1.0000,0.0000,1.44679,0.18975,-2.78803,1.02745,1.57079,0.00003,-0.14511,-0.38001,0.03549,,,,,,,,,,,,,,,,,,,,,,,,,,0,0,0,0,0
5.0142,1783190639.6585,1,1,1.0000,0.0000,1.44679,0.18966,-2.78805,1.02755,1.57079,0.00003,-0.14511,-0.38001,0.03547,,,,,,,,,,,,,,,,,,,,,,,,,,0,0,0,0,0
5.0144,1783190639.6587,1,1,1.0000,0.0000,1.44679,0.18966,-2.78805,1.02755,1.57079,0.00003,-0.14511,-0.38001,0.03547,,,,,,,,,,,,,,,,,,,,,,,,,,0,0,0,0,0
5.0318,1783190639.6761,1,1,1.0000,0.0000,1.44679,0.18944,-2.78810,1.02782,1.57079,0.00003,-0.14511,-0.38001,0.03541,,,,,,,,,,,,,,,,,,,,,,,,,,0,0,0,0,0
5.0321,1783190639.6764,1,1,1.0000,0.0000,1.44679,0.18944,-2.78810,1.02782,1.57079,0.00003,-0.14511,-0.38001,0.03541,,,,,,,,,,,,,,,,,,,,,,,,,,0,0,0,0,0
5.0357,1783190639.6800,1,1,1.0000,0.0000,1.44679,0.18936,-2.78812,1.02791,1.57079,0.00003,-0.14511,-0.38001,0.03539,,,,,,,,,,,,,,,,,,,,,,,,,,0,0,0,0,0
5.0360,1783190639.6803,1,1,1.0000,0.0000,1.44679,0.18936,-2.78812,1.02791,1.57079,0.00003,-0.14511,-0.38001,0.03539,,,,,,,,,,,,,,,,,,,,,,,,,,0,0,0,0,0
5.0504,1783190639.6947,1,1,1.0000,0.0000,1.44679,0.18925,-2.78814,1.02806,1.57079,0.00003,-0.14511,-0.38001,0.03536,,,,,,,,,,,,,,,,,,,,,,,,,,0,0,0,0,0
5.0509,1783190639.6951,1,1,1.0000,0.0000,1.44679,0.18925,-2.78814,1.02806,1.57079,0.00003,-0.14511,-0.38001,0.03536,,,,,,,,,,,,,,,,,,,,,,,,,,0,0,0,0,0
5.0602,1783190639.7045,1,1,1.0000,0.0000,1.44679,0.18913,-2.78817,1.02820,1.57079,0.00003,-0.14511,-0.38001,0.03534,,,,,,,,,,,,,,,,,,,,,,,,,,0,0,0,0,0
5.0606,1783190639.7049,1,1,1.0000,0.0000,1.44679,0.18913,-2.78817,1.02820,1.57079,0.00003,-0.14511,-0.38001,0.03534,,,,,,,,,,,,,,,,,,,,,,,,,,0,0,0,0,0
5.0653,1783190639.7096,1,1,1.0000,0.0000,1.44679,0.18906,-2.78819,1.02829,1.57079,0.00003,-0.14511,-0.38001,0.03532,,,,,,,,,,,,,,,,,,,,,,,,,,0,0,0,0,0
5.0790,1783190639.7233,1,1,1.0000,0.0000,1.44679,0.18894,-2.78821,1.02844,1.57079,0.00003,-0.14511,-0.38001,0.03529,,,,,,,,,,,,,,,,,,,,,,,,,,0,0,0,0,0
5.0867,1783190639.7310,1,1,1.0000,0.0000,1.44679,0.18882,-2.78824,1.02858,1.57079,0.00003,-0.14511,-0.38001,0.03526,,,,,,,,,,,,,,,,,,,,,,,,,,0,0,0,0,0
5.0871,1783190639.7314,1,1,1.0000,0.0000,1.44679,0.18882,-2.78824,1.02858,1.57079,0.00003,-0.14511,-0.38001,0.03526,,,,,,,,,,,,,,,,,,,,,,,,,,0,0,0,0,0
5.1863,1783190639.8306,1,1,1.0000,0.0000,1.44679,0.18761,-2.78852,1.03007,1.57079,0.00004,-0.14511,-0.38001,0.03496,,,,,,,,,,,,,,,,,,,,,,,,,,0,0,0,0,0
5.1867,1783190639.8310,1,1,1.0000,0.0000,1.44679,0.18761,-2.78852,1.03007,1.57079,0.00004,-0.14511,-0.38001,0.03496,,,,,,,,,,,,,,,,,,,,,,,,,,0,0,0,0,0
5.1870,1783190639.8313,1,1,1.0000,0.0000,1.44679,0.18761,-2.78852,1.03007,1.57079,0.00004,-0.14511,-0.38001,0.03496,,,,,,,,,,,,,,,,,,,,,,,,,,0,0,0,0,0
5.1874,1783190639.8316,1,1,1.0000,0.0000,1.44679,0.18761,-2.78852,1.03007,1.57079,0.00004,-0.14511,-0.38001,0.03496,,,,,,,,,,,,,,,,,,,,,,,,,,0,0,0,0,0
5.1876,1783190639.8319,1,1,1.0000,0.0000,1.44679,0.18761,-2.78852,1.03007,1.57079,0.00004,-0.14511,-0.38001,0.03496,,,,,,,,,,,,,,,,,,,,,,,,,,0,0,0,0,0
5.1879,1783190639.8322,1,1,1.0000,0.0000,1.44679,0.18761,-2.78852,1.03007,1.57079,0.00004,-0.14511,-0.38001,0.03496,,,,,,,,,,,,,,,,,,,,,,,,,,0,0,0,0,0
5.1882,1783190639.8325,1,1,1.0000,0.0000,1.44679,0.18761,-2.78852,1.03007,1.57079,0.00004,-0.14511,-0.38001,0.03496,,,,,,,,,,,,,,,,,,,,,,,,,,0,0,0,0,0
5.1885,1783190639.8328,1,1,1.0000,0.0000,1.44679,0.18761,-2.78852,1.03007,1.57079,0.00004,-0.14511,-0.38001,0.03496,,,,,,,,,,,,,,,,,,,,,,,,,,0,0,0,0,0
5.1888,1783190639.8330,1,1,1.0000,0.0000,1.44679,0.18761,-2.78852,1.03007,1.57079,0.00004,-0.14511,-0.38001,0.03496,,,,,,,,,,,,,,,,,,,,,,,,,,0,0,0,0,0
5.1890,1783190639.8333,1,1,1.0000,0.0000,1.44679,0.18761,-2.78852,1.03007,1.57079,0.00004,-0.14511,-0.38001,0.03496,,,,,,,,,,,,,,,,,,,,,,,,,,0,0,0,0,0
5.1893,1783190639.8336,1,1,1.0000,0.0000,1.44679,0.18761,-2.78852,1.03007,1.57079,0.00004,-0.14511,-0.38001,0.03496,,,,,,,,,,,,,,,,,,,,,,,,,,0,0,0,0,0
5.1896,1783190639.8339,1,1,1.0000,0.0000,1.44679,0.18761,-2.78852,1.03007,1.57079,0.00004,-0.14511,-0.38001,0.03496,,,,,,,,,,,,,,,,,,,,,,,,,,0,0,0,0,0
5.1963,1783190639.8406,1,1,1.0000,0.0000,1.44679,0.18759,-2.78852,1.03008,1.57079,0.00004,-0.14511,-0.38001,0.03496,,,,,,,,,,,,,,,,,,,,,,,,,,0,0,0,0,0
5.1966,1783190639.8409,1,1,1.0000,0.0000,1.44679,0.18759,-2.78852,1.03008,1.57079,0.00004,-0.14511,-0.38001,0.03496,,,,,,,,,,,,,,,,,,,,,,,,,,0,0,0,0,0
5.2041,1783190639.8484,1,1,1.0000,0.0000,1.44679,0.18751,-2.78854,1.03019,1.57079,0.00004,-0.14511,-0.38001,0.03494,,,,,,,,,,,,,,,,,,,,,,,,,,0,0,0,0,0
