Martins-Lucaas/twinforge/sensors/Data/20260704_152259__samples.csv
t_rel_s,t_unix,cycle,phase,setpoint_n,force_net_n,q1,q2,q3,q4,q5,q6,tcp_x,tcp_y,tcp_z,taxel_0,taxel_1,taxel_2,taxel_3,taxel_4,taxel_5,taxel_6,taxel_7,taxel_8,taxel_9,taxel_10,taxel_11,taxel_12,taxel_13,taxel_14,taxel_15,taxel_16,taxel_17,taxel_18,taxel_19,taxel_20,taxel_21,taxel_22,taxel_23,taxel_24,n_RA,n_SA,cn_mm,cn_ra,cn_sa
0.0025,1783189379.3649,1,0,1.0000,0.0000,1.44682,0.23271,-2.77762,0.97408,1.57080,0.00000,-0.14512,-0.38003,0.04638,,,,,,,,,,,,,,,,,,,,,,,,,,0,0,0,0,0
0.0157,1783189379.3781,1,0,1.0000,0.0000,1.44682,0.23273,-2.77761,0.97405,1.57080,0.00000,-0.14512,-0.38003,0.04639,,,,,,,,,,,,,,,,,,,,,,,,,,0,0,0,0,0
0.0478,1783189379.4101,1,0,1.0000,0.0000,1.44682,0.23273,-2.77761,0.97406,1.57080,0.00000,-0.14512,-0.38003,0.04639,,,,,,,,,,,,,,,,,,,,,,,,,,0,0,0,0,0
0.0544,1783189379.4168,1,0,1.0000,0.0000,1.44682,0.23273,-2.77761,0.97406,1.57080,0.00000,-0.14512,-0.38003,0.04639,,,,,,,,,,,,,,,,,,,,,,,,,,0,0,0,0,0
0.0548,1783189379.4172,1,0,1.0000,0.0000,1.44682,0.23273,-2.77761,0.97406,1.57080,0.00000,-0.14512,-0.38003,0.04639,,,,,,,,,,,,,,,,,,,,,,,,,,0,0,0,0,0
0.0552,1783189379.4176,1,0,1.0000,0.0000,1.44682,0.23273,-2.77761,0.97406,1.57080,0.00000,-0.14512,-0.38003,0.04639,,,,,,,,,,,,,,,,,,,,,,,,,,0,0,0,0,0
0.0612,1783189379.4236,1,0,1.0000,0.0000,1.44682,0.23273,-2.77761,0.97406,1.57080,0.00000,-0.14512,-0.38003,0.04639,,,,,,,,,,,,,,,,,,,,,,,,,,0,0,0,0,0
0.0745,1783189379.4368,1,0,1.0000,0.0000,1.44682,0.23273,-2.77761,0.97406,1.57080,0.00000,-0.14512,-0.38003,0.04639,,,,,,,,,,,,,,,,,,,,,,,,,,0,0,0,0,0
0.0855,1783189379.4479,1,0,1.0000,0.0000,1.44682,0.23273,-2.77761,0.97406,1.57080,0.00000,-0.14512,-0.38003,0.04638,,,,,,,,,,,,,,,,,,,,,,,,,,0,0,0,0,0
0.0916,1783189379.4540,1,0,1.0000,0.0000,1.44682,0.23273,-2.77761,0.97406,1.57080,0.00000,-0.14512,-0.38003,0.04638,,,,,,,,,,,,,,,,,,,,,,,,,,0,0,0,0,0
0.1049,1783189379.4673,1,0,1.0000,0.0000,1.44682,0.23272,-2.77761,0.97406,1.57080,0.00000,-0.14512,-0.38003,0.04638,,,,,,,,,,,,,,,,,,,,,,,,,,0,0,0,0,0
0.1052,1783189379.4676,1,0,1.0000,0.0000,1.44682,0.23272,-2.77761,0.97406,1.57080,0.00000,-0.14512,-0.38003,0.04638,,,,,,,,,,,,,,,,,,,,,,,,,,0,0,0,0,0
0.1178,1783189379.4802,1,0,1.0000,0.0000,1.44682,0.23272,-2.77762,0.97406,1.57080,0.00000,-0.14512,-0.38003,0.04638,,,,,,,,,,,,,,,,,,,,,,,,,,0,0,0,0,0
0.1216,1783189379.4840,1,0,1.0000,0.0000,1.44682,0.23272,-2.77762,0.97406,1.57080,0.00000,-0.14512,-0.38003,0.04638,,,,,,,,,,,,,,,,,,,,,,,,,,0,0,0,0,0
0.1309,1783189379.4933,1,0,1.0000,0.0000,1.44682,0.23272,-2.77762,0.97406,1.57080,0.00000,-0.14512,-0.38003,0.04638,,,,,,,,,,,,,,,,,,,,,,,,,,0,0,0,0,0
0.1315,1783189379.4939,1,0,1.0000,0.0000,1.44682,0.23272,-2.77762,0.97406,1.57080,0.00000,-0.14512,-0.38003,0.04638,,,,,,,,,,,,,,,,,,,,,,,,,,0,0,0,0,0
0.1429,1783189379.5053,1,0,1.0000,0.0000,1.44682,0.23272,-2.77762,0.97406,1.57080,0.00000,-0.14512,-0.38003,0.04638,,,,,,,,,,,,,,,,,,,,,,,,,,0,0,0,0,0
0.1513,1783189379.5136,1,0,1.0000,0.0000,1.44682,0.23272,-2.77762,0.97406,1.57080,0.00000,-0.14512,-0.38003,0.04638,,,,,,,,,,,,,,,,,,,,,,,,,,0,0,0,0,0
0.1758,1783189379.5382,1,0,1.0000,0.0000,1.44682,0.23272,-2.77762,0.97407,1.57080,0.00000,-0.14512,-0.38003,0.04638,,,,,,,,,,,,,,,,,,,,,,,,,,0,0,0,0,0
0.1764,1783189379.5387,1,0,1.0000,0.0000,1.44682,0.23272,-2.77762,0.97407,1.57080,0.00000,-0.14512,-0.38003,0.04638,,,,,,,,,,,,,,,,,,,,,,,,,,0,0,0,0,0
0.1817,1783189379.5441,1,0,1.0000,0.0000,1.44682,0.23272,-2.77762,0.97407,1.57080,0.00000,-0.14512,-0.38003,0.04638,,,,,,,,,,,,,,,,,,,,,,,,,,0,0,0,0,0
0.1940,1783189379.5563,1,0,1.0000,0.0000,1.44682,0.23272,-2.77762,0.97407,1.57080,0.00000,-0.14512,-0.38003,0.04638,,,,,,,,,,,,,,,,,,,,,,,,,,0,0,0,0,0
0.1943,1783189379.5567,1,0,1.0000,0.0000,1.44682,0.23272,-2.77762,0.97407,1.57080,0.00000,-0.14512,-0.38003,0.04638,,,,,,,,,,,,,,,,,,,,,,,,,,0,0,0,0,0
0.2106,1783189379.5729,1,0,1.0000,0.0000,1.44682,0.23272,-2.77762,0.97407,1.57080,0.00000,-0.14512,-0.38003,0.04638,,,,,,,,,,,,,,,,,,,,,,,,,,0,0,0,0,0
0.2223,1783189379.5847,1,0,1.0000,0.0000,1.44682,0.23272,-2.77762,0.97407,1.57080,0.00000,-0.14512,-0.38003,0.04638,,,,,,,,,,,,,,,,,,,,,,,,,,0,0,0,0,0
0.2226,1783189379.5850,1,0,1.0000,0.0000,1.44682,0.23272,-2.77762,0.97407,1.57080,0.00000,-0.14512,-0.38003,0.04638,,,,,,,,,,,,,,,,,,,,,,,,,,0,0,0,0,0
0.2378,1783189379.6002,1,0,1.0000,0.0000,1.44682,0.23272,-2.77762,0.97407,1.57080,0.00000,-0.14512,-0.38003,0.04638,,,,,,,,,,,,,,,,,,,,,,,,,,0,0,0,0,0
0.2411,1783189379.6034,1,0,1.0000,0.0000,1.44682,0.23272,-2.77762,0.97407,1.57080,0.00000,-0.14512,-0.38003,0.04638,,,,,,,,,,,,,,,,,,,,,,,,,,0,0,0,0,0
0.2548,1783189379.6172,1,0,1.0000,0.0000,1.44682,0.23272,-2.77762,0.97407,1.57080,0.00000,-0.14512,-0.38003,0.04638,,,,,,,,,,,,,,,,,,,,,,,,,,0,0,0,0,0
0.2619,1783189379.6242,1,0,1.0000,0.0000,1.44682,0.23272,-2.77762,0.97407,1.57080,0.00000,-0.14512,-0.38003,0.04638,,,,,,,,,,,,,,,,,,,,,,,,,,0,0,0,0,0
0.2779,1783189379.6402,1,0,1.0000,0.0000,1.44682,0.23272,-2.77762,0.97407,1.57080,0.00000,-0.14512,-0.38003,0.04638,,,,,,,,,,,,,,,,,,,,,,,,,,0,0,0,0,0
0.2825,1783189379.6448,1,0,1.0000,0.0000,1.44682,0.23272,-2.77762,0.97407,1.57080,0.00000,-0.14512,-0.38003,0.04638,,,,,,,,,,,,,,,,,,,,,,,,,,0,0,0,0,0
0.2925,1783189379.6549,1,0,1.0000,0.0000,1.44682,0.23272,-2.77762,0.97407,1.57080,0.00000,-0.14512,-0.38003,0.04638,,,,,,,,,,,,,,,,,,,,,,,,,,0,0,0,0,0
0.3029,1783189379.6652,1,0,1.0000,0.0000,1.44682,0.23272,-2.77762,0.97407,1.57080,0.00000,-0.14512,-0.38003,0.04638,,,,,,,,,,,,,,,,,,,,,,,,,,0,0,0,0,0
0.3032,1783189379.6655,1,0,1.0000,0.0000,1.44682,0.23272,-2.77762,0.97407,1.57080,0.00000,-0.14512,-0.38003,0.04638,,,,,,,,,,,,,,,,,,,,,,,,,,0,0,0,0,0
0.3118,1783189379.6742,1,0,1.0000,0.0000,1.44682,0.23272,-2.77762,0.97407,1.57080,0.00000,-0.14512,-0.38003,0.04638,,,,,,,,,,,,,,,,,,,,,,,,,,0,0,0,0,0
0.3228,1783189379.6851,1,0,1.0000,0.0000,1.44682,0.23272,-2.77762,0.97407,1.57080,0.00000,-0.14512,-0.38003,0.04638,,,,,,,,,,,,,,,,,,,,,,,,,,0,0,0,0,0
0.3231,1783189379.6855,1,0,1.0000,0.0000,1.44682,0.23272,-2.77762,0.97407,1.57080,0.00000,-0.14512,-0.38003,0.04638,,,,,,,,,,,,,,,,,,,,,,,,,,0,0,0,0,0
0.3374,1783189379.6997,1,0,1.0000,0.0000,1.44682,0.23272,-2.77762,0.97407,1.57080,0.00000,-0.14512,-0.38003,0.04638,,,,,,,,,,,,,,,,,,,,,,,,,,0,0,0,0,0
0.3444,1783189379.7068,1,0,1.0000,0.0000,1.44682,0.23272,-2.77762,0.97407,1.57080,0.00000,-0.14512,-0.38003,0.04638,,,,,,,,,,,,,,,,,,,,,,,,,,0,0,0,0,0
0.3526,1783189379.7150,1,0,1.0000,0.0000,1.44682,0.23272,-2.77762,0.97407,1.57080,0.00000,-0.14512,-0.38003,0.04638,,,,,,,,,,,,,,,,,,,,,,,,,,0,0,0,0,0
0.3611,1783189379.7235,1,0,1.0000,0.0000,1.44682,0.23272,-2.77762,0.97407,1.57080,0.00000,-0.14512,-0.38003,0.04638,,,,,,,,,,,,,,,,,,,,,,,,,,0,0,0,0,0
0.3776,1783189379.7400,1,0,1.0000,0.0000,1.44682,0.23272,-2.77762,0.97407,1.57080,0.00000,-0.14512,-0.38003,0.04638,,,,,,,,,,,,,,,,,,,,,,,,,,0,0,0,0,0
0.3828,1783189379.7452,1,0,1.0000,0.0000,1.44682,0.23272,-2.77762,0.97407,1.57080,0.00000,-0.14512,-0.38003,0.04638,,,,,,,,,,,,,,,,,,,,,,,,,,0,0,0,0,0
0.3915,1783189379.7539,1,0,1.0000,0.0000,1.44682,0.23272,-2.77762,0.97407,1.57080,0.00000,-0.14512,-0.38003,0.04638,,,,,,,,,,,,,,,,,,,,,,,,,,0,0,0,0,0
0.4017,1783189379.7641,1,0,1.0000,0.0000,1.44682,0.23272,-2.77762,0.97407,1.57080,0.00000,-0.14512,-0.38003,0.04638,,,,,,,,,,,,,,,,,,,,,,,,,,0,0,0,0,0
0.4165,1783189379.7789,1,0,1.0000,0.0000,1.44682,0.23272,-2.77762,0.97407,1.57080,0.00000,-0.14512,-0.38003,0.04638,,,,,,,,,,,,,,,,,,,,,,,,,,0,0,0,0,0
0.4170,1783189379.7794,1,0,1.0000,0.0000,1.44682,0.23272,-2.77762,0.97407,1.57080,0.00000,-0.14512,-0.38003,0.04638,,,,,,,,,,,,,,,,,,,,,,,,,,0,0,0,0,0
0.4292,1783189379.7916,1,0,1.0000,0.0000,1.44682,0.23272,-2.77762,0.97407,1.57080,0.00000,-0.14512,-0.38003,0.04638,,,,,,,,,,,,,,,,,,,,,,,,,,0,0,0,0,0
0.4399,1783189379.8022,1,0,1.0000,0.0000,1.44682,0.23272,-2.77762,0.97407,1.57080,0.00000,-0.14512,-0.38003,0.04638,,,,,,,,,,,,,,,,,,,,,,,,,,0,0,0,0,0
0.4507,1783189379.8130,1,0,1.0000,0.0000,1.44682,0.23272,-2.77762,0.97407,1.57080,0.00000,-0.14512,-0.38003,0.04638,,,,,,,,,,,,,,,,,,,,,,,,,,0,0,0,0,0
0.4513,1783189379.8137,1,0,1.0000,0.0000,1.44682,0.23272,-2.77762,0.97407,1.57080,0.00000,-0.14512,-0.38003,0.04638,,,,,,,,,,,,,,,,,,,,,,,,,,0,0,0,0,0
0.4568,1783189379.8191,1,0,1.0000,0.0000,1.44682,0.23272,-2.77762,0.97407,1.57080,0.00000,-0.14512,-0.38003,0.04638,,,,,,,,,,,,,,,,,,,,,,,,,,0,0,0,0,0
0.4571,1783189379.8194,1,0,1.0000,0.0000,1.44682,0.23272,-2.77762,0.97407,1.57080,0.00000,-0.14512,-0.38003,0.04638,,,,,,,,,,,,,,,,,,,,,,,,,,0,0,0,0,0
0.4651,1783189379.8275,1,0,1.0000,0.0000,1.44682,0.23272,-2.77762,0.97407,1.57080,0.00000,-0.14512,-0.38003,0.04638,,,,,,,,,,,,,,,,,,,,,,,,,,0,0,0,0,0
0.5130,1783189379.8753,1,0,1.0000,0.0000,1.44682,0.23272,-2.77762,0.97407,1.57080,0.00000,-0.14512,-0.38003,0.04638,,,,,,,,,,,,,,,,,,,,,,,,,,0,0,0,0,0
0.5136,1783189379.8760,1,0,1.0000,0.0000,1.44682,0.23272,-2.77762,0.97407,1.57080,0.00000,-0.14512,-0.38003,0.04638,,,,,,,,,,,,,,,,,,,,,,,,,,0,0,0,0,0
0.5140,1783189379.8764,1,0,1.0000,0.0000,1.44682,0.23272,-2.77762,0.97407,1.57080,0.00000,-0.14512,-0.38003,0.04638,,,,,,,,,,,,,,,,,,,,,,,,,,0,0,0,0,0
0.5472,1783189379.9095,1,0,1.0000,0.0000,1.44682,0.23272,-2.77762,0.97407,1.57080,0.00000,-0.14512,-0.38003,0.04638,,,,,,,,,,,,,,,,,,,,,,,,,,0,0,0,0,0
0.5475,1783189379.9099,1,0,1.0000,0.0000,1.44682,0.23272,-2.77762,0.97407,1.57080,0.00000,-0.14512,-0.38003,0.04638,,,,,,,,,,,,,,,,,,,,,,,,,,0,0,0,0,0
0.5478,1783189379.9101,1,0,1.0000,0.0000,1.44682,0.23272,-2.77762,0.97407,1.57080,0.00000,-0.14512,-0.38003,0.04638,,,,,,,,,,,,,,,,,,,,,,,,,,0,0,0,0,0
0.5484,1783189379.9107,1,0,1.0000,0.0000,1.44682,0.23272,-2.77762,0.97407,1.57080,0.00000,-0.14512,-0.38003,0.04638,,,,,,,,,,,,,,,,,,,,,,,,,,0,0,0,0,0
0.5553,1783189379.9177,1,0,1.0000,0.0000,1.44682,0.23272,-2.77762,0.97407,1.57080,0.00000,-0.14512,-0.38003,0.04638,,,,,,,,,,,,,,,,,,,,,,,,,,0,0,0,0,0
0.5556,1783189379.9180,1,0,1.0000,0.0000,1.44682,0.23272,-2.77762,0.97407,1.57080,0.00000,-0.14512,-0.38003,0.04638,,,,,,,,,,,,,,,,,,,,,,,,,,0,0,0,0,0
0.5651,1783189379.9274,1,0,1.0000,0.0000,1.44682,0.23272,-2.77762,0.97407,1.57080,0.00000,-0.14512,-0.38003,0.04638,,,,,,,,,,,,,,,,,,,,,,,,,,0,0,0,0,0
0.5850,1783189379.9474,1,0,1.0000,0.0000,1.44682,0.23272,-2.77762,0.97407,1.57080,0.00000,-0.14512,-0.38003,0.04638,,,,,,,,,,,,,,,,,,,,,,,,,,0,0,0,0,0
0.5854,1783189379.9478,1,0,1.0000,0.0000,1.44682,0.23272,-2.77762,0.97407,1.57080,0.00000,-0.14512,-0.38003,0.04638,,,,,,,,,,,,,,,,,,,,,,,,,,0,0,0,0,0
0.5858,1783189379.9482,1,0,1.0000,0.0000,1.44682,0.23272,-2.77762,0.97407,1.57080,0.00000,-0.14512,-0.38003,0.04638,,,,,,,,,,,,,,,,,,,,,,,,,,0,0,0,0,0
0.5861,1783189379.9484,1,0,1.0000,0.0000,1.44682,0.23272,-2.77762,0.97407,1.57080,0.00000,-0.14512,-0.38003,0.04638,,,,,,,,,,,,,,,,,,,,,,,,,,0,0,0,0,0
0.5961,1783189379.9585,1,0,1.0000,0.0000,1.44682,0.23272,-2.77762,0.97407,1.57080,0.00000,-0.14512,-0.38003,0.04638,,,,,,,,,,,,,,,,,,,,,,,,,,0,0,0,0,0
0.6116,1783189379.9739,1,0,1.0000,0.0000,1.44682,0.23272,-2.77762,0.97407,1.57080,0.00000,-0.14512,-0.38003,0.04638,,,,,,,,,,,,,,,,,,,,,,,,,,0,0,0,0,0
0.6161,1783189379.9785,1,0,1.0000,0.0000,1.44682,0.23272,-2.77762,0.97407,1.57080,0.00000,-0.14512,-0.38003,0.04638,,,,,,,,,,,,,,,,,,,,,,,,,,0,0,0,0,0
0.6170,1783189379.9793,1,0,1.0000,0.0000,1.44682,0.23272,-2.77762,0.97407,1.57080,0.00000,-0.14512,-0.38003,0.04638,,,,,,,,,,,,,,,,,,,,,,,,,,0,0,0,0,0
0.6299,1783189379.9923,1,0,1.0000,0.0000,1.44682,0.23272,-2.77762,0.97407,1.57080,0.00000,-0.14512,-0.38003,0.04638,,,,,,,,,,,,,,,,,,,,,,,,,,0,0,0,0,0
0.6303,1783189379.9927,1,0,1.0000,0.0000,1.44682,0.23272,-2.77762,0.97407,1.57080,0.00000,-0.14512,-0.38003,0.04638,,,,,,,,,,,,,,,,,,,,,,,,,,0,0,0,0,0
0.6381,1783189380.0004,1,0,1.0000,0.0000,1.44682,0.23272,-2.77762,0.97407,1.57080,0.00000,-0.14512,-0.38003,0.04638,,,,,,,,,,,,,,,,,,,,,,,,,,0,0,0,0,0
0.6455,1783189380.0079,1,0,1.0000,0.0000,1.44682,0.23272,-2.77762,0.97407,1.57080,0.00000,-0.14512,-0.38003,0.04638,,,,,,,,,,,,,,,,,,,,,,,,,,0,0,0,0,0
0.6566,1783189380.0190,1,0,1.0000,0.0000,1.44682,0.23272,-2.77762,0.97407,1.57080,0.00000,-0.14512,-0.38003,0.04638,,,,,,,,,,,,,,,,,,,,,,,,,,0,0,0,0,0
0.6652,1783189380.0276,1,0,1.0000,0.0000,1.44682,0.23272,-2.77762,0.97407,1.57080,0.00000,-0.14512,-0.38003,0.04638,,,,,,,,,,,,,,,,,,,,,,,,,,0,0,0,0,0
0.6850,1783189380.0474,1,0,1.0000,0.0000,1.44682,0.23272,-2.77762,0.97407,1.57080,0.00000,-0.14512,-0.38003,0.04638,,,,,,,,,,,,,,,,,,,,,,,,,,0,0,0,0,0
0.6888,1783189380.0512,1,0,1.0000,0.0000,1.44682,0.23272,-2.77762,0.97407,1.57080,0.00000,-0.14512,-0.38003,0.04638,,,,,,,,,,,,,,,,,,,,,,,,,,0,0,0,0,0
0.6999,1783189380.0623,1,0,1.0000,0.0000,1.44682,0.23272,-2.77762,0.97407,1.57080,0.00000,-0.14512,-0.38003,0.04638,,,,,,,,,,,,,,,,,,,,,,,,,,0,0,0,0,0
0.7002,1783189380.0626,1,0,1.0000,0.0000,1.44682,0.23272,-2.77762,0.97407,1.57080,0.00000,-0.14512,-0.38003,0.04638,,,,,,,,,,,,,,,,,,,,,,,,,,0,0,0,0,0
0.7077,1783189380.0700,1,0,1.0000,0.0000,1.44682,0.23272,-2.77762,0.97407,1.57080,0.00000,-0.14512,-0.38003,0.04638,,,,,,,,,,,,,,,,,,,,,,,,,,0,0,0,0,0
0.7080,1783189380.0703,1,0,1.0000,0.0000,1.44682,0.23272,-2.77762,0.97407,1.57080,0.00000,-0.14512,-0.38003,0.04638,,,,,,,,,,,,,,,,,,,,,,,,,,0,0,0,0,0
0.7157,1783189380.0781,1,0,1.0000,0.0000,1.44682,0.23272,-2.77762,0.97407,1.57080,0.00000,-0.14512,-0.38003,0.04638,,,,,,,,,,,,,,,,,,,,,,,,,,0,0,0,0,0
0.7161,1783189380.0784,1,0,1.0000,0.0000,1.44682,0.23272,-2.77762,0.97407,1.57080,0.00000,-0.14512,-0.38003,0.04638,,,,,,,,,,,,,,,,,,,,,,,,,,0,0,0,0,0
0.7294,1783189380.0918,1,0,1.0000,0.0000,1.44682,0.23272,-2.77762,0.97407,1.57080,0.00000,-0.14512,-0.38003,0.04638,,,,,,,,,,,,,,,,,,,,,,,,,,0,0,0,0,0
0.7362,1783189380.0985,1,1,1.0000,0.0000,1.44682,0.23272,-2.77762,0.97407,1.57080,0.00000,-0.14512,-0.38003,0.04638,,,,,,,,,,,,,,,,,,,,,,,,,,0,0,0,0,0
0.7368,1783189380.0991,1,1,1.0000,0.0000,1.44682,0.23272,-2.77762,0.97407,1.57080,0.00000,-0.14512,-0.38003,0.04638,,,,,,,,,,,,,,,,,,,,,,,,,,0,0,0,0,0
0.7491,1783189380.1115,1,1,1.0000,0.0000,1.44682,0.23272,-2.77762,0.97407,1.57080,0.00000,-0.14512,-0.38003,0.04638,,,,,,,,,,,,,,,,,,,,,,,,,,0,0,0,0,0
0.7568,1783189380.1192,1,1,1.0000,0.0000,1.44682,0.23272,-2.77762,0.97407,1.57080,0.00000,-0.14512,-0.38003,0.04638,,,,,,,,,,,,,,,,,,,,,,,,,,0,0,0,0,0
0.7572,1783189380.1196,1,1,1.0000,0.0000,1.44682,0.23272,-2.77762,0.97407,1.57080,0.00000,-0.14512,-0.38003,0.04638,,,,,,,,,,,,,,,,,,,,,,,,,,0,0,0,0,0
0.7697,1783189380.1321,1,1,1.0000,0.0000,1.44682,0.23272,-2.77762,0.97407,1.57080,0.00000,-0.14512,-0.38003,0.04638,,,,,,,,,,,,,,,,,,,,,,,,,,0,0,0,0,0
0.7920,1783189380.1544,1,1,1.0000,0.0000,1.44682,0.23272,-2.77762,0.97407,1.57080,0.00000,-0.14512,-0.38003,0.04638,,,,,,,,,,,,,,,,,,,,,,,,,,0,0,0,0,0
0.7923,1783189380.1546,1,1,1.0000,0.0000,1.44682,0.23272,-2.77762,0.97407,1.57080,0.00000,-0.14512,-0.38003,0.04638,,,,,,,,,,,,,,,,,,,,,,,,,,0,0,0,0,0
0.7953,1783189380.1576,1,1,1.0000,0.0000,1.44682,0.23272,-2.77762,0.97407,1.57080,0.00000,-0.14512,-0.38003,0.04638,,,,,,,,,,,,,,,,,,,,,,,,,,0,0,0,0,0
0.7956,1783189380.1580,1,1,1.0000,0.0000,1.44682,0.23272,-2.77762,0.97407,1.57080,0.00000,-0.14512,-0.38003,0.04638,,,,,,,,,,,,,,,,,,,,,,,,,,0,0,0,0,0
0.8078,1783189380.1702,1,1,1.0000,0.0000,1.44682,0.23272,-2.77762,0.97407,1.57080,0.00000,-0.14512,-0.38003,0.04638,,,,,,,,,,,,,,,,,,,,,,,,,,0,0,0,0,0
0.8160,1783189380.1784,1,1,1.0000,0.0000,1.44682,0.23272,-2.77762,0.97407,1.57080,0.00000,-0.14512,-0.38003,0.04638,,,,,,,,,,,,,,,,,,,,,,,,,,0,0,0,0,0
0.8267,1783189380.1890,1,1,1.0000,0.0000,1.44682,0.23272,-2.77762,0.97407,1.57080,0.00000,-0.14512,-0.38003,0.04638,,,,,,,,,,,,,,,,,,,,,,,,,,0,0,0,0,0
0.8376,1783189380.1999,1,1,1.0000,0.0000,1.44682,0.23272,-2.77762,0.97407,1.57080,0.00000,-0.14512,-0.38003,0.04638,,,,,,,,,,,,,,,,,,,,,,,,,,0,0,0,0,0
0.8501,1783189380.2125,1,1,1.0000,0.0000,1.44682,0.23272,-2.77762,0.97407,1.57080,0.00000,-0.14512,-0.38003,0.04638,,,,,,,,,,,,,,,,,,,,,,,,,,0,0,0,0,0
0.8574,1783189380.2197,1,1,1.0000,0.0000,1.44682,0.23272,-2.77762,0.97407,1.57080,0.00000,-0.14512,-0.38003,0.04638,,,,,,,,,,,,,,,,,,,,,,,,,,0,0,0,0,0
0.8654,1783189380.2277,1,1,1.0000,0.0000,1.44682,0.23272,-2.77762,0.97407,1.57080,0.00000,-0.14512,-0.38003,0.04638,,,,,,,,,,,,,,,,,,,,,,,,,,0,0,0,0,0
0.8755,1783189380.2379,1,1,1.0000,0.0000,1.44682,0.23272,-2.77762,0.97407,1.57080,0.00000,-0.14512,-0.38003,0.04638,,,,,,,,,,,,,,,,,,,,,,,,,,0,0,0,0,0
0.8912,1783189380.2536,1,1,1.0000,0.0000,1.44682,0.23272,-2.77762,0.97407,1.57080,0.00000,-0.14512,-0.38003,0.04638,,,,,,,,,,,,,,,,,,,,,,,,,,0,0,0,0,0
0.8958,1783189380.2581,1,1,1.0000,0.0000,1.44682,0.23272,-2.77762,0.97407,1.57080,0.00000,-0.14512,-0.38003,0.04638,,,,,,,,,,,,,,,,,,,,,,,,,,0,0,0,0,0
0.9060,1783189380.2683,1,1,1.0000,0.0000,1.44682,0.23272,-2.77762,0.97407,1.57080,0.00000,-0.14512,-0.38003,0.04638,,,,,,,,,,,,,,,,,,,,,,,,,,0,0,0,0,0
0.9176,1783189380.2800,1,1,1.0000,0.0000,1.44682,0.23272,-2.77762,0.97407,1.57080,0.00000,-0.14512,-0.38003,0.04638,,,,,,,,,,,,,,,,,,,,,,,,,,0,0,0,0,0
0.9272,1783189380.2896,1,1,1.0000,0.0000,1.44682,0.23272,-2.77762,0.97407,1.57080,0.00000,-0.14512,-0.38003,0.04638,,,,,,,,,,,,,,,,,,,,,,,,,,0,0,0,0,0
0.9372,1783189380.2996,1,1,1.0000,0.0000,1.44682,0.23270,-2.77762,0.97410,1.57080,0.00000,-0.14512,-0.38003,0.04638,,,,,,,,,,,,,,,,,,,,,,,,,,0,0,0,0,0
0.9516,1783189380.3140,1,1,1.0000,0.0000,1.44682,0.23267,-2.77763,0.97413,1.57080,0.00000,-0.14512,-0.38003,0.04637,,,,,,,,,,,,,,,,,,,,,,,,,,0,0,0,0,0
0.9618,1783189380.3242,1,1,1.0000,0.0000,1.44682,0.23266,-2.77763,0.97414,1.57080,0.00000,-0.14512,-0.38003,0.04637,,,,,,,,,,,,,,,,,,,,,,,,,,0,0,0,0,0
0.9650,1783189380.3274,1,1,1.0000,0.0000,1.44682,0.23266,-2.77763,0.97414,1.57080,0.00000,-0.14512,-0.38003,0.04637,,,,,,,,,,,,,,,,,,,,,,,,,,0,0,0,0,0
0.9654,1783189380.3278,1,1,1.0000,0.0000,1.44682,0.23266,-2.77763,0.97414,1.57080,0.00000,-0.14512,-0.38003,0.04637,,,,,,,,,,,,,,,,,,,,,,,,,,0,0,0,0,0
0.9758,1783189380.3381,1,1,1.0000,0.0000,1.44682,0.23265,-2.77763,0.97416,1.57080,0.00000,-0.14512,-0.38003,0.04636,,,,,,,,,,,,,,,,,,,,,,,,,,0,0,0,0,0
0.9922,1783189380.3546,1,1,1.0000,0.0000,1.44682,0.23263,-2.77764,0.97417,1.57080,0.00000,-0.14512,-0.38003,0.04636,,,,,,,,,,,,,,,,,,,,,,,,,,0,0,0,0,0
0.9976,1783189380.3600,1,1,1.0000,0.0000,1.44682,0.23262,-2.77764,0.97419,1.57080,0.00000,-0.14512,-0.38003,0.04636,,,,,,,,,,,,,,,,,,,,,,,,,,0,0,0,0,0
0.9978,1783189380.3602,1,1,1.0000,0.0000,1.44682,0.23262,-2.77764,0.97419,1.57080,0.00000,-0.14512,-0.38003,0.04636,,,,,,,,,,,,,,,,,,,,,,,,,,0,0,0,0,0
1.0057,1783189380.3681,1,1,1.0000,0.0000,1.44682,0.23260,-2.77765,0.97421,1.57080,0.00000,-0.14512,-0.38003,0.04635,,,,,,,,,,,,,,,,,,,,,,,,,,0,0,0,0,0
1.0155,1783189380.3779,1,1,1.0000,0.0000,1.44682,0.23259,-2.77765,0.97422,1.57080,0.00000,-0.14512,-0.38003,0.04635,,,,,,,,,,,,,,,,,,,,,,,,,,0,0,0,0,0
1.0158,1783189380.3781,1,1,1.0000,0.0000,1.44682,0.23259,-2.77765,0.97422,1.57080,0.00000,-0.14512,-0.38003,0.04635,,,,,,,,,,,,,,,,,,,,,,,,,,0,0,0,0,0
1.0262,1783189380.3886,1,1,1.0000,0.0000,1.44682,0.23259,-2.77765,0.97424,1.57080,0.00000,-0.14512,-0.38003,0.04635,,,,,,,,,,,,,,,,,,,,,,,,,,0,0,0,0,0
1.0415,1783189380.4039,1,1,1.0000,0.0000,1.44682,0.23257,-2.77766,0.97426,1.57080,0.00000,-0.14512,-0.38003,0.04634,,,,,,,,,,,,,,,,,,,,,,,,,,0,0,0,0,0
1.0458,1783189380.4081,1,1,1.0000,0.0000,1.44682,0.23256,-2.77766,0.97426,1.57080,0.00000,-0.14512,-0.38003,0.04634,,,,,,,,,,,,,,,,,,,,,,,,,,0,0,0,0,0
1.0592,1783189380.4216,1,1,1.0000,0.0000,1.44682,0.23255,-2.77766,0.97428,1.57080,0.00000,-0.14512,-0.38003,0.04634,,,,,,,,,,,,,,,,,,,,,,,,,,0,0,0,0,0
1.0597,1783189380.4220,1,1,1.0000,0.0000,1.44682,0.23255,-2.77766,0.97428,1.57080,0.00000,-0.14512,-0.38003,0.04634,,,,,,,,,,,,,,,,,,,,,,,,,,0,0,0,0,0
1.0656,1783189380.4280,1,1,1.0000,0.0000,1.44682,0.23253,-2.77767,0.97431,1.57080,0.00000,-0.14512,-0.38003,0.04633,,,,,,,,,,,,,,,,,,,,,,,,,,0,0,0,0,0
1.0752,1783189380.4375,1,1,1.0000,0.0000,1.44682,0.23252,-2.77767,0.97432,1.57080,0.00000,-0.14512,-0.38003,0.04633,,,,,,,,,,,,,,,,,,,,,,,,,,0,0,0,0,0
1.1033,1783189380.4657,1,1,1.0000,0.0000,1.44682,0.23249,-2.77767,0.97435,1.57080,0.00000,-0.14512,-0.38003,0.04632,,,,,,,,,,,,,,,,,,,,,,,,,,0,0,0,0,0
1.1037,1783189380.4660,1,1,1.0000,0.0000,1.44682,0.23249,-2.77767,0.97435,1.57080,0.00000,-0.14512,-0.38003,0.04632,,,,,,,,,,,,,,,,,,,,,,,,,,0,0,0,0,0
1.1064,1783189380.4688,1,1,1.0000,0.0000,1.44682,0.23249,-2.77768,0.97436,1.57080,0.00000,-0.14512,-0.38003,0.04632,,,,,,,,,,,,,,,,,,,,,,,,,,0,0,0,0,0
1.1149,1783189380.4773,1,1,1.0000,0.0000,1.44682,0.23248,-2.77768,0.97437,1.57080,0.00000,-0.14512,-0.38003,0.04632,,,,,,,,,,,,,,,,,,,,,,,,,,0,0,0,0,0
1.1154,1783189380.4778,1,1,1.0000,0.0000,1.44682,0.23248,-2.77768,0.97437,1.57080,0.00000,-0.14512,-0.38003,0.04632,,,,,,,,,,,,,,,,,,,,,,,,,,0,0,0,0,0
1.1252,1783189380.4876,1,1,1.0000,0.0000,1.44682,0.23245,-2.77768,0.97440,1.57080,0.00000,-0.14512,-0.38003,0.04631,,,,,,,,,,,,,,,,,,,,,,,,,,0,0,0,0,0
1.1420,1783189380.5044,1,1,1.0000,0.0000,1.44682,0.23244,-2.77769,0.97442,1.57080,0.00000,-0.14512,-0.38003,0.04631,,,,,,,,,,,,,,,,,,,,,,,,,,0,0,0,0,0
1.1423,1783189380.5047,1,1,1.0000,0.0000,1.44682,0.23244,-2.77769,0.97442,1.57080,0.00000,-0.14512,-0.38003,0.04631,,,,,,,,,,,,,,,,,,,,,,,,,,0,0,0,0,0
1.1459,1783189380.5082,1,1,1.0000,0.0000,1.44682,0.23243,-2.77769,0.97443,1.57080,0.00000,-0.14512,-0.38003,0.04631,,,,,,,,,,,,,,,,,,,,,,,,,,0,0,0,0,0
1.1570,1783189380.5194,1,1,1.0000,0.0000,1.44682,0.23241,-2.77770,0.97446,1.57080,0.00000,-0.14512,-0.38003,0.04630,,,,,,,,,,,,,,,,,,,,,,,,,,0,0,0,0,0
1.1665,1783189380.5289,1,1,1.0000,0.0000,1.44682,0.23241,-2.77770,0.97446,1.57080,0.00000,-0.14512,-0.38003,0.04630,,,,,,,,,,,,,,,,,,,,,,,,,,0,0,0,0,0
1.1769,1783189380.5392,1,1,1.0000,0.0000,1.44682,0.23239,-2.77770,0.97448,1.57080,0.00000,-0.14512,-0.38003,0.04630,,,,,,,,,,,,,,,,,,,,,,,,,,0,0,0,0,0
1.1771,1783189380.5395,1,1,1.0000,0.0000,1.44682,0.23239,-2.77770,0.97448,1.57080,0.00000,-0.14512,-0.38003,0.04630,,,,,,,,,,,,,,,,,,,,,,,,,,0,0,0,0,0
1.1869,1783189380.5492,1,1,1.0000,0.0000,1.44682,0.23237,-2.77771,0.97450,1.57080,0.00000,-0.14512,-0.38003,0.04629,,,,,,,,,,,,,,,,,,,,,,,,,,0,0,0,0,0
1.2001,1783189380.5625,1,1,1.0000,0.0000,1.44682,0.23236,-2.77771,0.97451,1.57080,0.00000,-0.14512,-0.38003,0.04629,,,,,,,,,,,,,,,,,,,,,,,,,,0,0,0,0,0
1.2065,1783189380.5688,1,1,1.0000,0.0000,1.44682,0.23235,-2.77771,0.97453,1.57080,0.00000,-0.14512,-0.38003,0.04629,,,,,,,,,,,,,,,,,,,,,,,,,,0,0,0,0,0
1.2172,1783189380.5796,1,1,1.0000,0.0000,1.44682,0.23233,-2.77772,0.97456,1.57080,0.00000,-0.14512,-0.38003,0.04628,,,,,,,,,,,,,,,,,,,,,,,,,,0,0,0,0,0
1.2264,1783189380.5887,1,1,1.0000,0.0000,1.44682,0.23233,-2.77772,0.97456,1.57080,0.00000,-0.14512,-0.38003,0.04628,,,,,,,,,,,,,,,,,,,,,,,,,,0,0,0,0,0
1.2376,1783189380.5999,1,1,1.0000,0.0000,1.44682,0.23231,-2.77772,0.97458,1.57080,0.00000,-0.14512,-0.38003,0.04628,,,,,,,,,,,,,,,,,,,,,,,,,,0,0,0,0,0
1.2476,1783189380.6100,1,1,1.0000,0.0000,1.44682,0.23229,-2.77773,0.97460,1.57080,0.00000,-0.14512,-0.38003,0.04627,,,,,,,,,,,,,,,,,,,,,,,,,,0,0,0,0,0
1.2585,1783189380.6209,1,1,1.0000,0.0000,1.44682,0.23228,-2.77773,0.97462,1.57080,0.00000,-0.14512,-0.38003,0.04627,,,,,,,,,,,,,,,,,,,,,,,,,,0,0,0,0,0
1.2589,1783189380.6212,1,1,1.0000,0.0000,1.44682,0.23228,-2.77773,0.97462,1.57080,0.00000,-0.14512,-0.38003,0.04627,,,,,,,,,,,,,,,,,,,,,,,,,,0,0,0,0,0
1.2679,1783189380.6303,1,1,1.0000,0.0000,1.44682,0.23228,-2.77773,0.97462,1.57080,0.00000,-0.14512,-0.38003,0.04627,,,,,,,,,,,,,,,,,,,,,,,,,,0,0,0,0,0
1.2775,1783189380.6399,1,1,1.0000,0.0000,1.44682,0.23226,-2.77774,0.97465,1.57080,0.00000,-0.14512,-0.38003,0.04626,,,,,,,,,,,,,,,,,,,,,,,,,,0,0,0,0,0
1.2865,1783189380.6489,1,1,1.0000,0.0000,1.44682,0.23225,-2.77774,0.97465,1.57080,0.00000,-0.14512,-0.38003,0.04626,,,,,,,,,,,,,,,,,,,,,,,,,,0,0,0,0,0
1.3036,1783189380.6660,1,1,1.0000,0.0000,1.44682,0.23223,-2.77774,0.97469,1.57080,0.00000,-0.14512,-0.38003,0.04625,,,,,,,,,,,,,,,,,,,,,,,,,,0,0,0,0,0
1.3056,1783189380.6679,1,1,1.0000,0.0000,1.44682,0.23222,-2.77775,0.97470,1.57080,0.00000,-0.14512,-0.38003,0.04625,,,,,,,,,,,,,,,,,,,,,,,,,,0,0,0,0,0
1.3152,1783189380.6776,1,1,1.0000,0.0000,1.44682,0.23221,-2.77775,0.97471,1.57080,0.00000,-0.14512,-0.38003,0.04625,,,,,,,,,,,,,,,,,,,,,,,,,,0,0,0,0,0
1.3271,1783189380.6894,1,1,1.0000,0.0000,1.44682,0.23220,-2.77775,0.97472,1.57080,0.00000,-0.14512,-0.38003,0.04625,,,,,,,,,,,,,,,,,,,,,,,,,,0,0,0,0,0
1.3382,1783189380.7006,1,1,1.0000,0.0000,1.44682,0.23217,-2.77776,0.97475,1.57080,0.00000,-0.14512,-0.38003,0.04624,,,,,,,,,,,,,,,,,,,,,,,,,,0,0,0,0,0
1.3489,1783189380.7113,1,1,1.0000,0.0000,1.44682,0.23217,-2.77776,0.97476,1.57080,0.00000,-0.14512,-0.38003,0.04624,,,,,,,,,,,,,,,,,,,,,,,,,,0,0,0,0,0
1.3555,1783189380.7178,1,1,1.0000,0.0000,1.44682,0.23216,-2.77776,0.97477,1.57080,0.00000,-0.14512,-0.38003,0.04624,,,,,,,,,,,,,,,,,,,,,,,,,,0,0,0,0,0
1.3558,1783189380.7182,1,1,1.0000,0.0000,1.44682,0.23216,-2.77776,0.97477,1.57080,0.00000,-0.14512,-0.38003,0.04624,,,,,,,,,,,,,,,,,,,,,,,,,,0,0,0,0,0
1.3710,1783189380.7334,1,1,1.0000,0.0000,1.44682,0.23213,-2.77777,0.97481,1.57080,0.00000,-0.14512,-0.38003,0.04623,,,,,,,,,,,,,,,,,,,,,,,,,,0,0,0,0,0
1.3714,1783189380.7338,1,1,1.0000,0.0000,1.44682,0.23213,-2.77777,0.97481,1.57080,0.00000,-0.14512,-0.38003,0.04623,,,,,,,,,,,,,,,,,,,,,,,,,,0,0,0,0,0
1.3762,1783189380.7385,1,1,1.0000,0.0000,1.44682,0.23213,-2.77777,0.97481,1.57080,0.00000,-0.14512,-0.38003,0.04623,,,,,,,,,,,,,,,,,,,,,,,,,,0,0,0,0,0
1.3769,1783189380.7393,1,1,1.0000,0.0000,1.44682,0.23213,-2.77777,0.97481,1.57080,0.00000,-0.14512,-0.38003,0.04623,,,,,,,,,,,,,,,,,,,,,,,,,,0,0,0,0,0
1.3852,1783189380.7476,1,1,1.0000,0.0000,1.44682,0.23212,-2.77777,0.97482,1.57080,0.00000,-0.14512,-0.38003,0.04623,,,,,,,,,,,,,,,,,,,,,,,,,,0,0,0,0,0
1.4016,1783189380.7640,1,1,1.0000,0.0000,1.44682,0.23209,-2.77778,0.97485,1.57080,0.00000,-0.14512,-0.38003,0.04622,,,,,,,,,,,,,,,,,,,,,,,,,,0,0,0,0,0
1.4020,1783189380.7643,1,1,1.0000,0.0000,1.44682,0.23209,-2.77778,0.97485,1.57080,0.00000,-0.14512,-0.38003,0.04622,,,,,,,,,,,,,,,,,,,,,,,,,,0,0,0,0,0
1.4092,1783189380.7716,1,1,1.0000,0.0000,1.44682,0.23209,-2.77778,0.97486,1.57080,0.00000,-0.14512,-0.38003,0.04622,,,,,,,,,,,,,,,,,,,,,,,,,,0,0,0,0,0
1.4096,1783189380.7719,1,1,1.0000,0.0000,1.44682,0.23209,-2.77778,0.97486,1.57080,0.00000,-0.14512,-0.38003,0.04622,,,,,,,,,,,,,,,,,,,,,,,,,,0,0,0,0,0
1.4169,1783189380.7793,1,1,1.0000,0.0000,1.44682,0.23207,-2.77778,0.97488,1.57080,0.00000,-0.14512,-0.38003,0.04621,,,,,,,,,,,,,,,,,,,,,,,,,,0,0,0,0,0
1.4253,1783189380.7877,1,1,1.0000,0.0000,1.44682,0.23206,-2.77779,0.97490,1.57080,0.00000,-0.14512,-0.38003,0.04621,,,,,,,,,,,,,,,,,,,,,,,,,,0,0,0,0,0
1.4256,1783189380.7880,1,1,1.0000,0.0000,1.44682,0.23206,-2.77779,0.97490,1.57080,0.00000,-0.14512,-0.38003,0.04621,,,,,,,,,,,,,,,,,,,,,,,,,,0,0,0,0,0
1.4378,1783189380.8002,1,1,1.0000,0.0000,1.44682,0.23205,-2.77779,0.97491,1.57080,0.00000,-0.14512,-0.38003,0.04621,,,,,,,,,,,,,,,,,,,,,,,,,,0,0,0,0,0
1.4490,1783189380.8114,1,1,1.0000,0.0000,1.44682,0.23203,-2.77779,0.97494,1.57080,0.00000,-0.14512,-0.38003,0.04620,,,,,,,,,,,,,,,,,,,,,,,,,,0,0,0,0,0
1.4494,1783189380.8118,1,1,1.0000,0.0000,1.44682,0.23203,-2.77779,0.97494,1.57080,0.00000,-0.14512,-0.38003,0.04620,,,,,,,,,,,,,,,,,,,,,,,,,,0,0,0,0,0
1.4569,1783189380.8193,1,1,1.0000,0.0000,1.44682,0.23201,-2.77780,0.97496,1.57080,0.00000,-0.14512,-0.38003,0.04620,,,,,,,,,,,,,,,,,,,,,,,,,,0,0,0,0,0
1.4689,1783189380.8312,1,1,1.0000,0.0000,1.44682,0.23200,-2.77780,0.97497,1.57080,0.00000,-0.14512,-0.38003,0.04620,,,,,,,,,,,,,,,,,,,,,,,,,,0,0,0,0,0
1.4693,1783189380.8316,1,1,1.0000,0.0000,1.44682,0.23200,-2.77780,0.97497,1.57080,0.00000,-0.14512,-0.38003,0.04620,,,,,,,,,,,,,,,,,,,,,,,,,,0,0,0,0,0
1.4763,1783189380.8386,1,1,1.0000,0.0000,1.44682,0.23200,-2.77780,0.97497,1.57080,0.00000,-0.14512,-0.38003,0.04619,,,,,,,,,,,,,,,,,,,,,,,,,,0,0,0,0,0
1.4768,1783189380.8391,1,1,1.0000,0.0000,1.44682,0.23199,-2.77780,0.97498,1.57080,0.00000,-0.14512,-0.38003,0.04619,,,,,,,,,,,,,,,,,,,,,,,,,,0,0,0,0,0
1.4880,1783189380.8503,1,1,1.0000,0.0000,1.44682,0.23198,-2.77781,0.97499,1.57080,0.00000,-0.14512,-0.38003,0.04619,,,,,,,,,,,,,,,,,,,,,,,,,,0,0,0,0,0
1.5099,1783189380.8723,1,1,1.0000,0.0000,1.44682,0.23195,-2.77781,0.97503,1.57080,0.00000,-0.14512,-0.38003,0.04618,,,,,,,,,,,,,,,,,,,,,,,,,,0,0,0,0,0
1.5103,1783189380.8727,1,1,1.0000,0.0000,1.44682,0.23195,-2.77781,0.97503,1.57080,0.00000,-0.14512,-0.38003,0.04618,,,,,,,,,,,,,,,,,,,,,,,,,,0,0,0,0,0
1.5170,1783189380.8794,1,1,1.0000,0.0000,1.44682,0.23194,-2.77782,0.97505,1.57080,0.00000,-0.14512,-0.38003,0.04618,,,,,,,,,,,,,,,,,,,,,,,,,,0,0,0,0,0
1.5267,1783189380.8891,1,1,1.0000,0.0000,1.44682,0.23193,-2.77782,0.97506,1.57080,0.00000,-0.14512,-0.38003,0.04618,,,,,,,,,,,,,,,,,,,,,,,,,,0,0,0,0,0
1.5270,1783189380.8894,1,1,1.0000,0.0000,1.44682,0.23193,-2.77782,0.97506,1.57080,0.00000,-0.14512,-0.38003,0.04618,,,,,,,,,,,,,,,,,,,,,,,,,,0,0,0,0,0
1.5394,1783189380.9017,1,1,1.0000,0.0000,1.44682,0.23192,-2.77782,0.97507,1.57080,0.00000,-0.14512,-0.38003,0.04617,,,,,,,,,,,,,,,,,,,,,,,,,,0,0,0,0,0
1.5477,1783189380.9100,1,1,1.0000,0.0000,1.44682,0.23191,-2.77783,0.97509,1.57080,0.00000,-0.14512,-0.38003,0.04617,,,,,,,,,,,,,,,,,,,,,,,,,,0,0,0,0,0
1.5481,1783189380.9105,1,1,1.0000,0.0000,1.44682,0.23191,-2.77783,0.97509,1.57080,0.00000,-0.14512,-0.38003,0.04617,,,,,,,,,,,,,,,,,,,,,,,,,,0,0,0,0,0
1.5560,1783189380.9184,1,1,1.0000,0.0000,1.44682,0.23190,-2.77783,0.97510,1.57080,0.00000,-0.14512,-0.38003,0.04617,,,,,,,,,,,,,,,,,,,,,,,,,,0,0,0,0,0
1.5658,1783189380.9282,1,1,1.0000,0.0000,1.44682,0.23189,-2.77783,0.97511,1.57080,0.00000,-0.14512,-0.38003,0.04617,,,,,,,,,,,,,,,,,,,,,,,,,,0,0,0,0,0
1.5663,1783189380.9286,1,1,1.0000,0.0000,1.44682,0.23189,-2.77783,0.97511,1.57080,0.00000,-0.14512,-0.38003,0.04617,,,,,,,,,,,,,,,,,,,,,,,,,,0,0,0,0,0
1.5769,1783189380.9393,1,1,1.0000,0.0000,1.44682,0.23186,-2.77784,0.97514,1.57080,0.00000,-0.14512,-0.38003,0.04616,,,,,,,,,,,,,,,,,,,,,,,,,,0,0,0,0,0
1.5887,1783189380.9511,1,1,1.0000,0.0000,1.44682,0.23185,-2.77784,0.97516,1.57080,0.00000,-0.14512,-0.38003,0.04616,,,,,,,,,,,,,,,,,,,,,,,,,,0,0,0,0,0
1.5890,1783189380.9514,1,1,1.0000,0.0000,1.44682,0.23185,-2.77784,0.97516,1.57080,0.00000,-0.14512,-0.38003,0.04616,,,,,,,,,,,,,,,,,,,,,,,,,,0,0,0,0,0
1.5974,1783189380.9598,1,1,1.0000,0.0000,1.44682,0.23185,-2.77784,0.97516,1.57080,0.00000,-0.14512,-0.38003,0.04615,,,,,,,,,,,,,,,,,,,,,,,,,,0,0,0,0,0
1.6081,1783189380.9705,1,1,1.0000,0.0000,1.44682,0.23183,-2.77784,0.97518,1.57080,0.00000,-0.14512,-0.38003,0.04615,,,,,,,,,,,,,,,,,,,,,,,,,,0,0,0,0,0
1.6161,1783189380.9785,1,1,1.0000,0.0000,1.44682,0.23183,-2.77785,0.97519,1.57080,0.00000,-0.14512,-0.38003,0.04615,,,,,,,,,,,,,,,,,,,,,,,,,,0,0,0,0,0
1.6265,1783189380.9888,1,1,1.0000,0.0000,1.44682,0.23181,-2.77785,0.97520,1.57080,0.00000,-0.14512,-0.38003,0.04615,,,,,,,,,,,,,,,,,,,,,,,,,,0,0,0,0,0
1.6393,1783189381.0016,1,1,1.0000,0.0000,1.44682,0.23179,-2.77786,0.97524,1.57080,0.00000,-0.14512,-0.38003,0.04614,,,,,,,,,,,,,,,,,,,,,,,,,,0,0,0,0,0
1.6502,1783189381.0126,1,1,1.0000,0.0000,1.44682,0.23178,-2.77786,0.97525,1.57080,0.00000,-0.14512,-0.38003,0.04614,,,,,,,,,,,,,,,,,,,,,,,,,,0,0,0,0,0
1.6568,1783189381.0191,1,1,1.0000,0.0000,1.44682,0.23177,-2.77786,0.97526,1.57080,0.00000,-0.14512,-0.38003,0.04614,,,,,,,,,,,,,,,,,,,,,,,,,,0,0,0,0,0
1.6688,1783189381.0311,1,1,1.0000,0.0000,1.44682,0.23175,-2.77787,0.97528,1.57080,0.00000,-0.14512,-0.38003,0.04613,,,,,,,,,,,,,,,,,,,,,,,,,,0,0,0,0,0
1.6689,1783189381.0313,1,1,1.0000,0.0000,1.44682,0.23175,-2.77787,0.97528,1.57080,0.00000,-0.14512,-0.38003,0.04613,,,,,,,,,,,,,,,,,,,,,,,,,,0,0,0,0,0
1.6787,1783189381.0410,1,1,1.0000,0.0000,1.44682,0.23175,-2.77787,0.97528,1.57080,0.00000,-0.14512,-0.38003,0.04613,,,,,,,,,,,,,,,,,,,,,,,,,,0,0,0,0,0
1.6876,1783189381.0499,1,1,1.0000,0.0000,1.44682,0.23174,-2.77787,0.97530,1.57080,0.00000,-0.14512,-0.38003,0.04613,,,,,,,,,,,,,,,,,,,,,,,,,,0,0,0,0,0
1.6953,1783189381.0577,1,1,1.0000,0.0000,1.44682,0.23172,-2.77787,0.97532,1.57080,0.00000,-0.14512,-0.38003,0.04612,,,,,,,,,,,,,,,,,,,,,,,,,,0,0,0,0,0
1.6958,1783189381.0582,1,1,1.0000,0.0000,1.44682,0.23172,-2.77787,0.97532,1.57080,0.00000,-0.14512,-0.38003,0.04612,,,,,,,,,,,,,,,,,,,,,,,,,,0,0,0,0,0
1.7109,1783189381.0733,1,1,1.0000,0.0000,1.44682,0.23171,-2.77788,0.97534,1.57080,0.00000,-0.14512,-0.38003,0.04612,,,,,,,,,,,,,,,,,,,,,,,,,,0,0,0,0,0
1.7160,1783189381.0784,1,1,1.0000,0.0000,1.44682,0.23170,-2.77788,0.97535,1.57080,0.00000,-0.14512,-0.38003,0.04612,,,,,,,,,,,,,,,,,,,,,,,,,,0,0,0,0,0
1.7277,1783189381.0900,1,1,1.0000,0.0000,1.44682,0.23169,-2.77788,0.97537,1.57080,0.00000,-0.14512,-0.38003,0.04611,,,,,,,,,,,,,,,,,,,,,,,,,,0,0,0,0,0
1.7281,1783189381.0905,1,1,1.0000,0.0000,1.44682,0.23169,-2.77788,0.97537,1.57080,0.00000,-0.14512,-0.38003,0.04611,,,,,,,,,,,,,,,,,,,,,,,,,,0,0,0,0,0
1.7355,1783189381.0978,1,1,1.0000,0.0000,1.44682,0.23168,-2.77788,0.97538,1.57080,0.00000,-0.14512,-0.38003,0.04611,,,,,,,,,,,,,,,,,,,,,,,,,,0,0,0,0,0
1.7610,1783189381.1233,1,1,1.0000,0.0000,1.44682,0.23163,-2.77790,0.97543,1.57080,0.00000,-0.14512,-0.38003,0.04610,,,,,,,,,,,,,,,,,,,,,,,,,,0,0,0,0,0
1.7708,1783189381.1331,1,1,1.0000,0.0000,1.44682,0.23163,-2.77790,0.97544,1.57080,0.00000,-0.14512,-0.38003,0.04610,,,,,,,,,,,,,,,,,,,,,,,,,,0,0,0,0,0
1.7769,1783189381.1393,1,1,1.0000,0.0000,1.44682,0.23162,-2.77790,0.97545,1.57080,0.00000,-0.14512,-0.38003,0.04610,,,,,,,,,,,,,,,,,,,,,,,,,,0,0,0,0,0
1.7773,1783189381.1397,1,1,1.0000,0.0000,1.44682,0.23162,-2.77790,0.97545,1.57080,0.00000,-0.14512,-0.38003,0.04610,,,,,,,,,,,,,,,,,,,,,,,,,,0,0,0,0,0
1.7775,1783189381.1399,1,1,1.0000,0.0000,1.44682,0.23162,-2.77790,0.97545,1.57080,0.00000,-0.14512,-0.38003,0.04610,,,,,,,,,,,,,,,,,,,,,,,,,,0,0,0,0,0
1.7779,1783189381.1402,1,1,1.0000,0.0000,1.44682,0.23162,-2.77790,0.97545,1.57080,0.00000,-0.14512,-0.38003,0.04610,,,,,,,,,,,,,,,,,,,,,,,,,,0,0,0,0,0
1.7871,1783189381.1494,1,1,1.0000,0.0000,1.44682,0.23160,-2.77790,0.97547,1.57080,0.00000,-0.14512,-0.38003,0.04609,,,,,,,,,,,,,,,,,,,,,,,,,,0,0,0,0,0
1.8112,1783189381.1736,1,1,1.0000,0.0000,1.44682,0.23158,-2.77791,0.97550,1.57080,0.00000,-0.14512,-0.38003,0.04608,,,,,,,,,,,,,,,,,,,,,,,,,,0,0,0,0,0
1.8170,1783189381.1794,1,1,1.0000,0.0000,1.44682,0.23156,-2.77791,0.97553,1.57080,0.00000,-0.14512,-0.38003,0.04608,,,,,,,,,,,,,,,,,,,,,,,,,,0,0,0,0,0
1.8173,1783189381.1797,1,1,1.0000,0.0000,1.44682,0.23156,-2.77791,0.97553,1.57080,0.00000,-0.14512,-0.38003,0.04608,,,,,,,,,,,,,,,,,,,,,,,,,,0,0,0,0,0
1.8378,1783189381.2002,1,1,1.0000,0.0000,1.44682,0.23154,-2.77792,0.97555,1.57080,0.00000,-0.14512,-0.38003,0.04607,,,,,,,,,,,,,,,,,,,,,,,,,,0,0,0,0,0
1.8400,1783189381.2024,1,1,1.0000,0.0000,1.44682,0.23154,-2.77792,0.97555,1.57080,0.00000,-0.14512,-0.38003,0.04607,,,,,,,,,,,,,,,,,,,,,,,,,,0,0,0,0,0
1.8475,1783189381.2098,1,1,1.0000,0.0000,1.44682,0.23152,-2.77792,0.97557,1.57080,0.00000,-0.14512,-0.38003,0.04607,,,,,,,,,,,,,,,,,,,,,,,,,,0,0,0,0,0
1.8481,1783189381.2104,1,1,1.0000,0.0000,1.44682,0.23152,-2.77792,0.97557,1.57080,0.00000,-0.14512,-0.38003,0.04607,,,,,,,,,,,,,,,,,,,,,,,,,,0,0,0,0,0
1.8585,1783189381.2209,1,1,1.0000,0.0000,1.44682,0.23151,-2.77793,0.97558,1.57080,0.00000,-0.14512,-0.38003,0.04607,,,,,,,,,,,,,,,,,,,,,,,,,,0,0,0,0,0
1.8731,1783189381.2354,1,1,1.0000,0.0000,1.44682,0.23149,-2.77793,0.97562,1.57080,0.00000,-0.14512,-0.38003,0.04606,,,,,,,,,,,,,,,,,,,,,,,,,,0,0,0,0,0
1.8735,1783189381.2359,1,1,1.0000,0.0000,1.44682,0.23149,-2.77793,0.97562,1.57080,0.00000,-0.14512,-0.38003,0.04606,,,,,,,,,,,,,,,,,,,,,,,,,,0,0,0,0,0
1.8752,1783189381.2376,1,1,1.0000,0.0000,1.44682,0.23149,-2.77793,0.97562,1.57080,0.00000,-0.14512,-0.38003,0.04606,,,,,,,,,,,,,,,,,,,,,,,,,,0,0,0,0,0
1.8855,1783189381.2479,1,1,1.0000,0.0000,1.44682,0.23147,-2.77794,0.97564,1.57080,0.00000,-0.14512,-0.38003,0.04606,,,,,,,,,,,,,,,,,,,,,,,,,,0,0,0,0,0
1.8959,1783189381.2583,1,1,1.0000,0.0000,1.44682,0.23146,-2.77794,0.97564,1.57080,0.00000,-0.14512,-0.38003,0.04606,,,,,,,,,,,,,,,,,,,,,,,,,,0,0,0,0,0
1.9136,1783189381.2760,1,1,1.0000,0.0000,1.44682,0.23143,-2.77795,0.97568,1.57080,0.00000,-0.14512,-0.38003,0.04605,,,,,,,,,,,,,,,,,,,,,,,,,,0,0,0,0,0
1.9168,1783189381.2792,1,1,1.0000,0.0000,1.44682,0.23143,-2.77795,0.97569,1.57080,0.00000,-0.14512,-0.38003,0.04605,,,,,,,,,,,,,,,,,,,,,,,,,,0,0,0,0,0
1.9169,1783189381.2793,1,1,1.0000,0.0000,1.44682,0.23143,-2.77795,0.97569,1.57080,0.00000,-0.14512,-0.38003,0.04605,,,,,,,,,,,,,,,,,,,,,,,,,,0,0,0,0,0
1.9252,1783189381.2876,1,1,1.0000,0.0000,1.44682,0.23142,-2.77795,0.97570,1.57080,0.00000,-0.14512,-0.38003,0.04604,,,,,,,,,,,,,,,,,,,,,,,,,,0,0,0,0,0
1.9255,1783189381.2878,1,1,1.0000,0.0000,1.44682,0.23142,-2.77795,0.97570,1.57080,0.00000,-0.14512,-0.38003,0.04604,,,,,,,,,,,,,,,,,,,,,,,,,,0,0,0,0,0
1.9367,1783189381.2991,1,1,1.0000,0.0000,1.44682,0.23140,-2.77796,0.97573,1.57080,0.00000,-0.14512,-0.38003,0.04604,,,,,,,,,,,,,,,,,,,,,,,,,,0,0,0,0,0
1.9455,1783189381.3078,1,1,1.0000,0.0000,1.44682,0.23139,-2.77796,0.97574,1.57080,0.00000,-0.14512,-0.38003,0.04604,,,,,,,,,,,,,,,,,,,,,,,,,,0,0,0,0,0
1.9866,1783189381.3490,1,1,1.0000,0.0000,1.44682,0.23134,-2.77797,0.97580,1.57080,0.00000,-0.14512,-0.38003,0.04602,,,,,,,,,,,,,,,,,,,,,,,,,,0,0,0,0,0
2.0181,1783189381.3805,1,1,1.0000,0.0000,1.44682,0.23130,-2.77798,0.97586,1.57080,0.00000,-0.14512,-0.38003,0.04601,,,,,,,,,,,,,,,,,,,,,,,,,,0,0,0,0,0
2.0185,1783189381.3808,1,1,1.0000,0.0000,1.44682,0.23130,-2.77798,0.97586,1.57080,0.00000,-0.14512,-0.38003,0.04601,,,,,,,,,,,,,,,,,,,,,,,,,,0,0,0,0,0
2.0187,1783189381.3811,1,1,1.0000,0.0000,1.44682,0.23130,-2.77798,0.97586,1.57080,0.00000,-0.14512,-0.38003,0.04601,,,,,,,,,,,,,,,,,,,,,,,,,,0,0,0,0,0
2.0190,1783189381.3813,1,1,1.0000,0.0000,1.44682,0.23130,-2.77798,0.97586,1.57080,0.00000,-0.14512,-0.38003,0.04601,,,,,,,,,,,,,,,,,,,,,,,,,,0,0,0,0,0
2.0193,1783189381.3817,1,1,1.0000,0.0000,1.44682,0.23130,-2.77798,0.97586,1.57080,0.00000,-0.14512,-0.38003,0.04601,,,,,,,,,,,,,,,,,,,,,,,,,,0,0,0,0,0
2.0195,1783189381.3819,1,1,1.0000,0.0000,1.44682,0.23130,-2.77798,0.97586,1.57080,0.00000,-0.14512,-0.38003,0.04601,,,,,,,,,,,,,,,,,,,,,,,,,,0,0,0,0,0
2.0210,1783189381.3833,1,1,1.0000,0.0000,1.44682,0.23129,-2.77798,0.97587,1.57080,0.00000,-0.14512,-0.38003,0.04601,,,,,,,,,,,,,,,,,,,,,,,,,,0,0,0,0,0
2.0212,1783189381.3836,1,1,1.0000,0.0000,1.44682,0.23129,-2.77798,0.97587,1.57080,0.00000,-0.14512,-0.38003,0.04601,,,,,,,,,,,,,,,,,,,,,,,,,,0,0,0,0,0
2.0315,1783189381.3938,1,1,1.0000,0.0000,1.44682,0.23127,-2.77799,0.97589,1.57080,0.00000,-0.14512,-0.38003,0.04600,,,,,,,,,,,,,,,,,,,,,,,,,,0,0,0,0,0
2.0375,1783189381.3999,1,1,1.0000,0.0000,1.44682,0.23126,-2.77799,0.97590,1.57080,0.00000,-0.14512,-0.38003,0.04600,,,,,,,,,,,,,,,,,,,,,,,,,,0,0,0,0,0
2.0455,1783189381.4079,1,1,1.0000,0.0000,1.44682,0.23126,-2.77799,0.97590,1.57080,0.00000,-0.14512,-0.38003,0.04600,,,,,,,,,,,,,,,,,,,,,,,,,,0,0,0,0,0
2.0554,1783189381.4177,1,1,1.0000,0.0000,1.44682,0.23125,-2.77799,0.97592,1.57080,0.00000,-0.14512,-0.38003,0.04600,,,,,,,,,,,,,,,,,,,,,,,,,,0,0,0,0,0
2.0701,1783189381.4325,1,1,1.0000,0.0000,1.44682,0.23123,-2.77800,0.97594,1.57080,0.00000,-0.14512,-0.38003,0.04599,,,,,,,,,,,,,,,,,,,,,,,,,,0,0,0,0,0
2.0759,1783189381.4383,1,1,1.0000,0.0000,1.44682,0.23123,-2.77800,0.97594,1.57080,0.00000,-0.14512,-0.38003,0.04599,,,,,,,,,,,,,,,,,,,,,,,,,,0,0,0,0,0
2.0888,1783189381.4512,1,1,1.0000,0.0000,1.44682,0.23120,-2.77801,0.97598,1.57080,0.00000,-0.14512,-0.38003,0.04599,,,,,,,,,,,,,,,,,,,,,,,,,,0,0,0,0,0
2.0892,1783189381.4516,1,1,1.0000,0.0000,1.44682,0.23120,-2.77801,0.97598,1.57080,0.00000,-0.14512,-0.38003,0.04599,,,,,,,,,,,,,,,,,,,,,,,,,,0,0,0,0,0
2.1001,1783189381.4625,1,1,1.0000,0.0000,1.44682,0.23119,-2.77801,0.97599,1.57080,0.00000,-0.14512,-0.38003,0.04598,,,,,,,,,,,,,,,,,,,,,,,,,,0,0,0,0,0
2.1056,1783189381.4680,1,1,1.0000,0.0000,1.44682,0.23118,-2.77801,0.97600,1.57080,0.00000,-0.14512,-0.38003,0.04598,,,,,,,,,,,,,,,,,,,,,,,,,,0,0,0,0,0
2.1201,1783189381.4825,1,1,1.0000,0.0000,1.44682,0.23117,-2.77802,0.97602,1.57080,0.00000,-0.14512,-0.38003,0.04598,,,,,,,,,,,,,,,,,,,,,,,,,,0,0,0,0,0
2.1263,1783189381.4887,1,1,1.0000,0.0000,1.44682,0.23116,-2.77802,0.97603,1.57080,0.00000,-0.14512,-0.38003,0.04598,,,,,,,,,,,,,,,,,,,,,,,,,,0,0,0,0,0
2.1352,1783189381.4976,1,1,1.0000,0.0000,1.44682,0.23115,-2.77802,0.97603,1.57080,0.00000,-0.14512,-0.38003,0.04597,,,,,,,,,,,,,,,,,,,,,,,,,,0,0,0,0,0
2.1458,1783189381.5081,1,1,1.0000,0.0000,1.44682,0.23113,-2.77802,0.97606,1.57080,0.00000,-0.14512,-0.38003,0.04597,,,,,,,,,,,,,,,,,,,,,,,,,,0,0,0,0,0
2.1460,1783189381.5084,1,1,1.0000,0.0000,1.44682,0.23113,-2.77802,0.97606,1.57080,0.00000,-0.14512,-0.38003,0.04597,,,,,,,,,,,,,,,,,,,,,,,,,,0,0,0,0,0
2.1551,1783189381.5175,1,1,1.0000,0.0000,1.44682,0.23111,-2.77803,0.97608,1.57080,0.00000,-0.14512,-0.38003,0.04596,,,,,,,,,,,,,,,,,,,,,,,,,,0,0,0,0,0
2.1662,1783189381.5286,1,1,1.0000,0.0000,1.44682,0.23111,-2.77803,0.97609,1.57080,0.00000,-0.14512,-0.38003,0.04596,,,,,,,,,,,,,,,,,,,,,,,,,,0,0,0,0,0
2.1806,1783189381.5429,1,1,1.0000,0.0000,1.44682,0.23109,-2.77804,0.97612,1.57080,0.00000,-0.14512,-0.38003,0.04596,,,,,,,,,,,,,,,,,,,,,,,,,,0,0,0,0,0
2.1855,1783189381.5479,1,1,1.0000,0.0000,1.44682,0.23109,-2.77804,0.97612,1.57080,0.00000,-0.14512,-0.38003,0.04596,,,,,,,,,,,,,,,,,,,,,,,,,,0,0,0,0,0
2.2013,1783189381.5636,1,1,1.0000,0.0000,1.44682,0.23107,-2.77804,0.97614,1.57080,0.00000,-0.14512,-0.38003,0.04595,,,,,,,,,,,,,,,,,,,,,,,,,,0,0,0,0,0
2.2092,1783189381.5716,1,1,1.0000,0.0000,1.44682,0.23105,-2.77805,0.97617,1.57080,0.00000,-0.14512,-0.38003,0.04595,,,,,,,,,,,,,,,,,,,,,,,,,,0,0,0,0,0
2.2251,1783189381.5875,1,1,1.0000,0.0000,1.44682,0.23104,-2.77805,0.97618,1.57080,0.00000,-0.14512,-0.38003,0.04594,,,,,,,,,,,,,,,,,,,,,,,,,,0,0,0,0,0
2.2257,1783189381.5881,1,1,1.0000,0.0000,1.44682,0.23104,-2.77805,0.97618,1.57080,0.00000,-0.14512,-0.38003,0.04594,,,,,,,,,,,,,,,,,,,,,,,,,,0,0,0,0,0
2.2259,1783189381.5883,1,1,1.0000,0.0000,1.44682,0.23104,-2.77805,0.97618,1.57080,0.00000,-0.14512,-0.38003,0.04594,,,,,,,,,,,,,,,,,,,,,,,,,,0,0,0,0,0
2.2381,1783189381.6005,1,1,1.0000,0.0000,1.44682,0.23102,-2.77805,0.97620,1.57080,0.00000,-0.14512,-0.38003,0.04594,,,,,,,,,,,,,,,,,,,,,,,,,,0,0,0,0,0
2.2458,1783189381.6082,1,1,1.0000,0.0000,1.44682,0.23101,-2.77806,0.97621,1.57080,0.00000,-0.14512,-0.38003,0.04594,,,,,,,,,,,,,,,,,,,,,,,,,,0,0,0,0,0
2.2613,1783189381.6236,1,1,1.0000,0.0000,1.44682,0.23100,-2.77806,0.97623,1.57080,0.00000,-0.14512,-0.38003,0.04593,,,,,,,,,,,,,,,,,,,,,,,,,,0,0,0,0,0
2.2698,1783189381.6322,1,1,1.0000,0.0000,1.44682,0.23097,-2.77807,0.97626,1.57080,0.00000,-0.14512,-0.38003,0.04593,,,,,,,,,,,,,,,,,,,,,,,,,,0,0,0,0,0
2.2766,1783189381.6389,1,1,1.0000,0.0000,1.44682,0.23097,-2.77807,0.97627,1.57080,0.00000,-0.14512,-0.38003,0.04593,,,,,,,,,,,,,,,,,,,,,,,,,,0,0,0,0,0
2.2956,1783189381.6579,1,1,1.0000,0.0000,1.44682,0.23096,-2.77807,0.97628,1.57080,0.00000,-0.14512,-0.38003,0.04592,,,,,,,,,,,,,,,,,,,,,,,,,,0,0,0,0,0
2.3009,1783189381.6633,1,1,1.0000,0.0000,1.44682,0.23095,-2.77807,0.97629,1.57080,0.00000,-0.14512,-0.38003,0.04592,,,,,,,,,,,,,,,,,,,,,,,,,,0,0,0,0,0
2.3078,1783189381.6701,1,1,1.0000,0.0000,1.44682,0.23093,-2.77808,0.97632,1.57080,0.00000,-0.14512,-0.38003,0.04592,,,,,,,,,,,,,,,,,,,,,,,,,,0,0,0,0,0
2.3270,1783189381.6894,1,1,1.0000,0.0000,1.44682,0.23092,-2.77808,0.97633,1.57080,0.00000,-0.14512,-0.38003,0.04591,,,,,,,,,,,,,,,,,,,,,,,,,,0,0,0,0,0
2.3273,1783189381.6897,1,1,1.0000,0.0000,1.44682,0.23092,-2.77808,0.97633,1.57080,0.00000,-0.14512,-0.38003,0.04591,,,,,,,,,,,,,,,,,,,,,,,,,,0,0,0,0,0
2.3361,1783189381.6984,1,1,1.0000,0.0000,1.44682,0.23091,-2.77808,0.97634,1.57080,0.00000,-0.14512,-0.38003,0.04591,,,,,,,,,,,,,,,,,,,,,,,,,,0,0,0,0,0
2.3458,1783189381.7082,1,1,1.0000,0.0000,1.44682,0.23090,-2.77808,0.97635,1.57080,0.00000,-0.14512,-0.38003,0.04591,,,,,,,,,,,,,,,,,,,,,,,,,,0,0,0,0,0
2.3552,1783189381.7176,1,1,1.0000,0.0000,1.44682,0.23089,-2.77809,0.97636,1.57080,0.00000,-0.14512,-0.38003,0.04591,,,,,,,,,,,,,,,,,,,,,,,,,,0,0,0,0,0
2.3677,1783189381.7301,1,1,1.0000,0.0000,1.44682,0.23087,-2.77809,0.97640,1.57080,0.00000,-0.14512,-0.38003,0.04590,,,,,,,,,,,,,,,,,,,,,,,,,,0,0,0,0,0
2.3851,1783189381.7475,1,1,1.0000,0.0000,1.44682,0.23085,-2.77810,0.97641,1.57080,0.00000,-0.14512,-0.38003,0.04590,,,,,,,,,,,,,,,,,,,,,,,,,,0,0,0,0,0
2.3899,1783189381.7523,1,1,1.0000,0.0000,1.44682,0.23084,-2.77810,0.97643,1.57080,0.00000,-0.14512,-0.38003,0.04589,,,,,,,,,,,,,,,,,,,,,,,,,,0,0,0,0,0
2.3903,1783189381.7527,1,1,1.0000,0.0000,1.44682,0.23084,-2.77810,0.97643,1.57080,0.00000,-0.14512,-0.38003,0.04589,,,,,,,,,,,,,,,,,,,,,,,,,,0,0,0,0,0
2.4053,1783189381.7676,1,1,1.0000,0.0000,1.44682,0.23081,-2.77811,0.97646,1.57080,0.00000,-0.14512,-0.38003,0.04589,,,,,,,,,,,,,,,,,,,,,,,,,,0,0,0,0,0
2.4091,1783189381.7715,1,1,1.0000,0.0000,1.44682,0.23081,-2.77811,0.97646,1.57080,0.00000,-0.14512,-0.38003,0.04589,,,,,,,,,,,,,,,,,,,,,,,,,,0,0,0,0,0
2.4097,1783189381.7721,1,1,1.0000,0.0000,1.44682,0.23081,-2.77811,0.97646,1.57080,0.00000,-0.14512,-0.38003,0.04589,,,,,,,,,,,,,,,,,,,,,,,,,,0,0,0,0,0
2.4280,1783189381.7904,1,1,1.0000,0.0000,1.44682,0.23079,-2.77811,0.97649,1.57080,0.00000,-0.14512,-0.38003,0.04588,,,,,,,,,,,,,,,,,,,,,,,,,,0,0,0,0,0
2.4301,1783189381.7925,1,1,1.0000,0.0000,1.44682,0.23078,-2.77811,0.97650,1.57080,0.00000,-0.14512,-0.38003,0.04588,,,,,,,,,,,,,,,,,,,,,,,,,,0,0,0,0,0
2.4395,1783189381.8018,1,1,1.0000,0.0000,1.44682,0.23078,-2.77811,0.97650,1.57080,0.00000,-0.14512,-0.38003,0.04588,,,,,,,,,,,,,,,,,,,,,,,,,,0,0,0,0,0
2.4497,1783189381.8121,1,1,1.0000,0.0000,1.44682,0.23076,-2.77812,0.97652,1.57080,0.00000,-0.14512,-0.38003,0.04587,,,,,,,,,,,,,,,,,,,,,,,,,,0,0,0,0,0
2.4596,1783189381.8220,1,1,1.0000,0.0000,1.44682,0.23075,-2.77812,0.97655,1.57080,0.00000,-0.14512,-0.38003,0.04587,,,,,,,,,,,,,,,,,,,,,,,,,,0,0,0,0,0
2.4599,1783189381.8223,1,1,1.0000,0.0000,1.44682,0.23075,-2.77812,0.97655,1.57080,0.00000,-0.14512,-0.38003,0.04587,,,,,,,,,,,,,,,,,,,,,,,,,,0,0,0,0,0
2.4733,1783189381.8357,1,1,1.0000,0.0000,1.44682,0.23074,-2.77813,0.97656,1.57080,0.00000,-0.14512,-0.38003,0.04587,,,,,,,,,,,,,,,,,,,,,,,,,,0,0,0,0,0
2.4802,1783189381.8426,1,1,1.0000,0.0000,1.44682,0.23073,-2.77813,0.97657,1.57080,0.00000,-0.14512,-0.38003,0.04586,,,,,,,,,,,,,,,,,,,,,,,,,,0,0,0,0,0
2.4938,1783189381.8561,1,1,1.0000,0.0000,1.44682,0.23071,-2.77813,0.97659,1.57080,0.00000,-0.14512,-0.38003,0.04586,,,,,,,,,,,,,,,,,,,,,,,,,,0,0,0,0,0
2.5065,1783189381.8688,1,1,1.0000,0.0000,1.44682,0.23070,-2.77814,0.97661,1.57080,0.00000,-0.14512,-0.38003,0.04586,,,,,,,,,,,,,,,,,,,,,,,,,,0,0,0,0,0
2.5092,1783189381.8716,1,1,1.0000,0.0000,1.44682,0.23070,-2.77814,0.97661,1.57080,0.00000,-0.14512,-0.38003,0.04586,,,,,,,,,,,,,,,,,,,,,,,,,,0,0,0,0,0
2.5099,1783189381.8722,1,1,1.0000,0.0000,1.44682,0.23069,-2.77814,0.97662,1.57080,0.00000,-0.14512,-0.38003,0.04585,,,,,,,,,,,,,,,,,,,,,,,,,,0,0,0,0,0
2.5311,1783189381.8934,1,1,1.0000,0.0000,1.44682,0.23066,-2.77815,0.97665,1.57080,0.00000,-0.14512,-0.38003,0.04585,,,,,,,,,,,,,,,,,,,,,,,,,,0,0,0,0,0
2.5393,1783189381.9017,1,1,1.0000,0.0000,1.44682,0.23066,-2.77815,0.97666,1.57080,0.00000,-0.14512,-0.38003,0.04584,,,,,,,,,,,,,,,,,,,,,,,,,,0,0,0,0,0
2.5491,1783189381.9115,1,1,1.0000,0.0000,1.44682,0.23064,-2.77815,0.97668,1.57080,0.00000,-0.14512,-0.38003,0.04584,,,,,,,,,,,,,,,,,,,,,,,,,,0,0,0,0,0
2.5623,1783189381.9246,1,1,1.0000,0.0000,1.44682,0.23063,-2.77815,0.97669,1.57080,0.00000,-0.14512,-0.38003,0.04584,,,,,,,,,,,,,,,,,,,,,,,,,,0,0,0,0,0
2.5625,1783189381.9249,1,1,1.0000,0.0000,1.44682,0.23063,-2.77815,0.97669,1.57080,0.00000,-0.14512,-0.38003,0.04584,,,,,,,,,,,,,,,,,,,,,,,,,,0,0,0,0,0
2.5729,1783189381.9352,1,1,1.0000,0.0000,1.44682,0.23062,-2.77816,0.97671,1.57080,0.00000,-0.14512,-0.38003,0.04583,,,,,,,,,,,,,,,,,,,,,,,,,,0,0,0,0,0
2.5809,1783189381.9433,1,1,1.0000,0.0000,1.44682,0.23060,-2.77816,0.97673,1.57080,0.00000,-0.14512,-0.38003,0.04583,,,,,,,,,,,,,,,,,,,,,,,,,,0,0,0,0,0
2.5902,1783189381.9526,1,1,1.0000,0.0000,1.44682,0.23059,-2.77816,0.97674,1.57080,0.00000,-0.14512,-0.38003,0.04583,,,,,,,,,,,,,,,,,,,,,,,,,,0,0,0,0,0
2.5994,1783189381.9618,1,1,1.0000,0.0000,1.44682,0.23058,-2.77817,0.97675,1.57080,0.00000,-0.14512,-0.38003,0.04582,,,,,,,,,,,,,,,,,,,,,,,,,,0,0,0,0,0
2.6097,1783189381.9720,1,1,1.0000,0.0000,1.44682,0.23056,-2.77817,0.97678,1.57080,0.00000,-0.14512,-0.38003,0.04582,,,,,,,,,,,,,,,,,,,,,,,,,,0,0,0,0,0
2.6898,1783189382.0522,1,1,1.0000,0.0000,1.44682,0.23047,-2.77820,0.97690,1.57080,0.00000,-0.14512,-0.38003,0.04580,,,,,,,,,,,,,,,,,,,,,,,,,,0,0,0,0,0
2.7201,1783189382.0825,1,1,1.0000,0.0000,1.44682,0.23043,-2.77820,0.97694,1.57080,0.00000,-0.14512,-0.38003,0.04579,,,,,,,,,,,,,,,,,,,,,,,,,,0,0,0,0,0
2.7204,1783189382.0828,1,1,1.0000,0.0000,1.44682,0.23043,-2.77820,0.97694,1.57080,0.00000,-0.14512,-0.38003,0.04579,,,,,,,,,,,,,,,,,,,,,,,,,,0,0,0,0,0
2.7207,1783189382.0831,1,1,1.0000,0.0000,1.44682,0.23043,-2.77820,0.97694,1.57080,0.00000,-0.14512,-0.38003,0.04579,,,,,,,,,,,,,,,,,,,,,,,,,,0,0,0,0,0
2.7210,1783189382.0834,1,1,1.0000,0.0000,1.44682,0.23043,-2.77820,0.97694,1.57080,0.00000,-0.14512,-0.38003,0.04579,,,,,,,,,,,,,,,,,,,,,,,,,,0,0,0,0,0
2.7215,1783189382.0839,1,1,1.0000,0.0000,1.44682,0.23043,-2.77821,0.97695,1.57080,0.00000,-0.14512,-0.38003,0.04578,,,,,,,,,,,,,,,,,,,,,,,,,,0,0,0,0,0
2.7218,1783189382.0842,1,1,1.0000,0.0000,1.44682,0.23043,-2.77821,0.97695,1.57080,0.00000,-0.14512,-0.38003,0.04578,,,,,,,,,,,,,,,,,,,,,,,,,,0,0,0,0,0
2.7220,1783189382.0844,1,1,1.0000,0.0000,1.44682,0.23043,-2.77821,0.97695,1.57080,0.00000,-0.14512,-0.38003,0.04578,,,,,,,,,,,,,,,,,,,,,,,,,,0,0,0,0,0
2.7349,1783189382.0973,1,1,1.0000,0.0000,1.44682,0.23041,-2.77821,0.97697,1.57080,0.00000,-0.14512,-0.38003,0.04578,,,,,,,,,,,,,,,,,,,,,,,,,,0,0,0,0,0
2.7352,1783189382.0975,1,1,1.0000,0.0000,1.44682,0.23041,-2.77821,0.97697,1.57080,0.00000,-0.14512,-0.38003,0.04578,,,,,,,,,,,,,,,,,,,,,,,,,,0,0,0,0,0
2.7417,1783189382.1040,1,1,1.0000,0.0000,1.44682,0.23041,-2.77821,0.97697,1.57080,0.00000,-0.14512,-0.38003,0.04578,,,,,,,,,,,,,,,,,,,,,,,,,,0,0,0,0,0
2.7418,1783189382.1042,1,1,1.0000,0.0000,1.44682,0.23041,-2.77821,0.97697,1.57080,0.00000,-0.14512,-0.38003,0.04578,,,,,,,,,,,,,,,,,,,,,,,,,,0,0,0,0,0
2.7499,1783189382.1123,1,1,1.0000,0.0000,1.44682,0.23039,-2.77821,0.97699,1.57080,0.00000,-0.14512,-0.38003,0.04578,,,,,,,,,,,,,,,,,,,,,,,,,,0,0,0,0,0
2.7667,1783189382.1291,1,1,1.0000,0.0000,1.44682,0.23037,-2.77822,0.97702,1.57080,0.00000,-0.14512,-0.38003,0.04577,,,,,,,,,,,,,,,,,,,,,,,,,,0,0,0,0,0
2.7711,1783189382.1335,1,1,1.0000,0.0000,1.44682,0.23037,-2.77822,0.97703,1.57080,0.00000,-0.14512,-0.38003,0.04577,,,,,,,,,,,,,,,,,,,,,,,,,,0,0,0,0,0
2.7837,1783189382.1461,1,1,1.0000,0.0000,1.44682,0.23035,-2.77823,0.97705,1.57080,0.00000,-0.14512,-0.38003,0.04576,,,,,,,,,,,,,,,,,,,,,,,,,,0,0,0,0,0
2.7896,1783189382.1520,1,1,1.0000,0.0000,1.44682,0.23033,-2.77823,0.97707,1.57080,0.00000,-0.14512,-0.38003,0.04576,,,,,,,,,,,,,,,,,,,,,,,,,,0,0,0,0,0
2.8009,1783189382.1633,1,1,1.0000,0.0000,1.44682,0.23033,-2.77823,0.97707,1.57080,0.00000,-0.14512,-0.38003,0.04576,,,,,,,,,,,,,,,,,,,,,,,,,,0,0,0,0,0
2.8108,1783189382.1732,1,1,1.0000,0.0000,1.44682,0.23031,-2.77824,0.97709,1.57080,0.00000,-0.14512,-0.38003,0.04575,,,,,,,,,,,,,,,,,,,,,,,,,,0,0,0,0,0
2.8236,1783189382.1860,1,1,1.0000,0.0000,1.44682,0.23029,-2.77824,0.97713,1.57080,0.00000,-0.14512,-0.38003,0.04575,,,,,,,,,,,,,,,,,,,,,,,,,,0,0,0,0,0
2.8378,1783189382.2002,1,1,1.0000,0.0000,1.44682,0.23027,-2.77824,0.97714,1.57080,0.00000,-0.14512,-0.38003,0.04574,,,,,,,,,,,,,,,,,,,,,,,,,,0,0,0,0,0
2.8381,1783189382.2005,1,1,1.0000,0.0000,1.44682,0.23027,-2.77824,0.97714,1.57080,0.00000,-0.14512,-0.38003,0.04574,,,,,,,,,,,,,,,,,,,,,,,,,,0,0,0,0,0
2.8417,1783189382.2041,1,1,1.0000,0.0000,1.44682,0.23027,-2.77825,0.97715,1.57080,0.00000,-0.14512,-0.38003,0.04574,,,,,,,,,,,,,,,,,,,,,,,,,,0,0,0,0,0
2.8420,1783189382.2043,1,1,1.0000,0.0000,1.44682,0.23027,-2.77825,0.97715,1.57080,0.00000,-0.14512,-0.38003,0.04574,,,,,,,,,,,,,,,,,,,,,,,,,,0,0,0,0,0
2.8496,1783189382.2120,1,1,1.0000,0.0000,1.44682,0.23025,-2.77825,0.97717,1.57080,0.00000,-0.14512,-0.38003,0.04574,,,,,,,,,,,,,,,,,,,,,,,,,,0,0,0,0,0
2.8594,1783189382.2218,1,1,1.0000,0.0000,1.44682,0.23025,-2.77825,0.97717,1.57080,0.00000,-0.14512,-0.38003,0.04574,,,,,,,,,,,,,,,,,,,,,,,,,,0,0,0,0,0
2.8598,1783189382.2222,1,1,1.0000,0.0000,1.44682,0.23025,-2.77825,0.97717,1.57080,0.00000,-0.14512,-0.38003,0.04574,,,,,,,,,,,,,,,,,,,,,,,,,,0,0,0,0,0
2.8698,1783189382.2322,1,1,1.0000,0.0000,1.44682,0.23023,-2.77826,0.97720,1.57080,0.00000,-0.14512,-0.38003,0.04573,,,,,,,,,,,,,,,,,,,,,,,,,,0,0,0,0,0
2.8831,1783189382.2455,1,1,1.0000,0.0000,1.44682,0.23020,-2.77826,0.97723,1.57080,0.00000,-0.14512,-0.38003,0.04573,,,,,,,,,,,,,,,,,,,,,,,,,,0,0,0,0,0
2.8971,1783189382.2595,1,1,1.0000,0.0000,1.44682,0.23020,-2.77826,0.97723,1.57080,0.00000,-0.14512,-0.38003,0.04573,,,,,,,,,,,,,,,,,,,,,,,,,,0,0,0,0,0
2.8998,1783189382.2622,1,1,1.0000,0.0000,1.44682,0.23019,-2.77827,0.97724,1.57080,0.00000,-0.14512,-0.38003,0.04572,,,,,,,,,,,,,,,,,,,,,,,,,,0,0,0,0,0
2.9002,1783189382.2626,1,1,1.0000,0.0000,1.44682,0.23019,-2.77827,0.97724,1.57080,0.00000,-0.14512,-0.38003,0.04572,,,,,,,,,,,,,,,,,,,,,,,,,,0,0,0,0,0
2.9100,1783189382.2724,1,1,1.0000,0.0000,1.44682,0.23017,-2.77827,0.97727,1.57080,0.00000,-0.14512,-0.38003,0.04572,,,,,,,,,,,,,,,,,,,,,,,,,,0,0,0,0,0
2.9194,1783189382.2818,1,1,1.0000,0.0000,1.44682,0.23016,-2.77827,0.97728,1.57080,0.00000,-0.14512,-0.38003,0.04571,,,,,,,,,,,,,,,,,,,,,,,,,,0,0,0,0,0
2.9412,1783189382.3036,1,1,1.0000,0.0000,1.44682,0.23014,-2.77828,0.97731,1.57080,0.00000,-0.14512,-0.38003,0.04571,,,,,,,,,,,,,,,,,,,,,,,,,,0,0,0,0,0
2.9420,1783189382.3043,1,1,1.0000,0.0000,1.44682,0.23013,-2.77828,0.97732,1.57080,0.00000,-0.14512,-0.38003,0.04571,,,,,,,,,,,,,,,,,,,,,,,,,,0,0,0,0,0
2.9490,1783189382.3114,1,1,1.0000,0.0000,1.44682,0.23013,-2.77828,0.97732,1.57080,0.00000,-0.14512,-0.38003,0.04571,,,,,,,,,,,,,,,,,,,,,,,,,,0,0,0,0,0
2.9497,1783189382.3121,1,1,1.0000,0.0000,1.44682,0.23013,-2.77828,0.97732,1.57080,0.00000,-0.14512,-0.38003,0.04571,,,,,,,,,,,,,,,,,,,,,,,,,,0,0,0,0,0
2.9597,1783189382.3221,1,1,1.0000,0.0000,1.44682,0.23012,-2.77828,0.97733,1.57080,0.00000,-0.14512,-0.38003,0.04570,,,,,,,,,,,,,,,,,,,,,,,,,,0,0,0,0,0
2.9704,1783189382.3328,1,1,1.0000,0.0000,1.44682,0.23009,-2.77829,0.97737,1.57080,0.00000,-0.14512,-0.38003,0.04570,,,,,,,,,,,,,,,,,,,,,,,,,,0,0,0,0,0
2.9857,1783189382.3480,1,1,1.0000,0.0000,1.44682,0.23008,-2.77829,0.97738,1.57080,0.00000,-0.14512,-0.38003,0.04569,,,,,,,,,,,,,,,,,,,,,,,,,,0,0,0,0,0
2.9999,1783189382.3623,1,1,1.0000,0.0000,1.44682,0.23006,-2.77830,0.97741,1.57080,0.00000,-0.14512,-0.38003,0.04569,,,,,,,,,,,,,,,,,,,,,,,,,,0,0,0,0,0
3.0023,1783189382.3646,1,1,1.0000,0.0000,1.44682,0.23005,-2.77830,0.97742,1.57080,0.00000,-0.14512,-0.38003,0.04569,,,,,,,,,,,,,,,,,,,,,,,,,,0,0,0,0,0
3.0026,1783189382.3650,1,1,1.0000,0.0000,1.44682,0.23005,-2.77830,0.97742,1.57080,0.00000,-0.14512,-0.38003,0.04569,,,,,,,,,,,,,,,,,,,,,,,,,,0,0,0,0,0
3.0097,1783189382.3721,1,1,1.0000,0.0000,1.44682,0.23005,-2.77830,0.97742,1.57080,0.00000,-0.14512,-0.38003,0.04569,,,,,,,,,,,,,,,,,,,,,,,,,,0,0,0,0,0
3.0210,1783189382.3834,1,1,1.0000,0.0000,1.44682,0.23004,-2.77831,0.97744,1.57080,0.00000,-0.14512,-0.38003,0.04568,,,,,,,,,,,,,,,,,,,,,,,,,,0,0,0,0,0
3.0297,1783189382.3921,1,1,1.0000,0.0000,1.44682,0.23001,-2.77831,0.97747,1.57080,0.00000,-0.14512,-0.38003,0.04568,,,,,,,,,,,,,,,,,,,,,,,,,,0,0,0,0,0
3.0300,1783189382.3924,1,1,1.0000,0.0000,1.44682,0.23001,-2.77831,0.97747,1.57080,0.00000,-0.14512,-0.38003,0.04568,,,,,,,,,,,,,,,,,,,,,,,,,,0,0,0,0,0
3.0455,1783189382.4079,1,1,1.0000,0.0000,1.44682,0.23000,-2.77831,0.97748,1.57080,0.00000,-0.14512,-0.38003,0.04567,,,,,,,,,,,,,,,,,,,,,,,,,,0,0,0,0,0
3.0488,1783189382.4112,1,1,1.0000,0.0000,1.44682,0.23000,-2.77831,0.97748,1.57080,0.00000,-0.14512,-0.38003,0.04567,,,,,,,,,,,,,,,,,,,,,,,,,,0,0,0,0,0
3.0492,1783189382.4116,1,1,1.0000,0.0000,1.44682,0.23000,-2.77831,0.97748,1.57080,0.00000,-0.14512,-0.38003,0.04567,,,,,,,,,,,,,,,,,,,,,,,,,,0,0,0,0,0
3.0595,1783189382.4219,1,1,1.0000,0.0000,1.44682,0.22998,-2.77832,0.97751,1.57080,0.00000,-0.14512,-0.38003,0.04567,,,,,,,,,,,,,,,,,,,,,,,,,,0,0,0,0,0
3.0597,1783189382.4221,1,1,1.0000,0.0000,1.44682,0.22998,-2.77832,0.97751,1.57080,0.00000,-0.14512,-0.38003,0.04567,,,,,,,,,,,,,,,,,,,,,,,,,,0,0,0,0,0
3.0716,1783189382.4340,1,1,1.0000,0.0000,1.44682,0.22997,-2.77832,0.97753,1.57080,0.00000,-0.14512,-0.38003,0.04566,,,,,,,,,,,,,,,,,,,,,,,,,,0,0,0,0,0
3.0838,1783189382.4462,1,1,1.0000,0.0000,1.44682,0.22995,-2.77833,0.97755,1.57080,0.00000,-0.14512,-0.38003,0.04566,,,,,,,,,,,,,,,,,,,,,,,,,,0,0,0,0,0
3.0908,1783189382.4532,1,1,1.0000,0.0000,1.44682,0.22993,-2.77833,0.97757,1.57080,0.00000,-0.14512,-0.38003,0.04566,,,,,,,,,,,,,,,,,,,,,,,,,,0,0,0,0,0
3.1060,1783189382.4683,1,1,1.0000,0.0000,1.44682,0.22992,-2.77834,0.97759,1.57080,0.00000,-0.14512,-0.38003,0.04565,,,,,,,,,,,,,,,,,,,,,,,,,,0,0,0,0,0
3.1063,1783189382.4687,1,1,1.0000,0.0000,1.44682,0.22992,-2.77834,0.97759,1.57080,0.00000,-0.14512,-0.38003,0.04565,,,,,,,,,,,,,,,,,,,,,,,,,,0,0,0,0,0
3.1110,1783189382.4734,1,1,1.0000,0.0000,1.44682,0.22991,-2.77834,0.97759,1.57080,0.00000,-0.14512,-0.38003,0.04565,,,,,,,,,,,,,,,,,,,,,,,,,,0,0,0,0,0
3.1209,1783189382.4833,1,1,1.0000,0.0000,1.44682,0.22990,-2.77834,0.97761,1.57080,0.00000,-0.14512,-0.38003,0.04565,,,,,,,,,,,,,,,,,,,,,,,,,,0,0,0,0,0
3.1457,1783189382.5080,1,1,1.0000,0.0000,1.44682,0.22987,-2.77835,0.97765,1.57080,0.00000,-0.14512,-0.38003,0.04564,,,,,,,,,,,,,,,,,,,,,,,,,,0,0,0,0,0
3.1460,1783189382.5084,1,1,1.0000,0.0000,1.44682,0.22987,-2.77835,0.97765,1.57080,0.00000,-0.14512,-0.38003,0.04564,,,,,,,,,,,,,,,,,,,,,,,,,,0,0,0,0,0
3.1510,1783189382.5133,1,1,1.0000,0.0000,1.44682,0.22986,-2.77835,0.97766,1.57080,0.00000,-0.14512,-0.38003,0.04564,,,,,,,,,,,,,,,,,,,,,,,,,,0,0,0,0,0
3.1643,1783189382.5267,1,1,1.0000,0.0000,1.44682,0.22985,-2.77835,0.97768,1.57080,0.00000,-0.14512,-0.38003,0.04563,,,,,,,,,,,,,,,,,,,,,,,,,,0,0,0,0,0
3.1729,1783189382.5353,1,1,1.0000,0.0000,1.44682,0.22984,-2.77836,0.97769,1.57080,0.00000,-0.14512,-0.38003,0.04563,,,,,,,,,,,,,,,,,,,,,,,,,,0,0,0,0,0
3.1736,1783189382.5360,1,1,1.0000,0.0000,1.44682,0.22983,-2.77836,0.97769,1.57080,0.00000,-0.14512,-0.38003,0.04563,,,,,,,,,,,,,,,,,,,,,,,,,,0,0,0,0,0
3.2032,1783189382.5656,1,1,1.0000,0.0000,1.44682,0.22980,-2.77837,0.97774,1.57080,0.00000,-0.14512,-0.38003,0.04562,,,,,,,,,,,,,,,,,,,,,,,,,,0,0,0,0,0
3.2035,1783189382.5659,1,1,1.0000,0.0000,1.44682,0.22980,-2.77837,0.97774,1.57080,0.00000,-0.14512,-0.38003,0.04562,,,,,,,,,,,,,,,,,,,,,,,,,,0,0,0,0,0
3.2139,1783189382.5763,1,1,1.0000,0.0000,1.44682,0.22977,-2.77837,0.97777,1.57080,0.00000,-0.14512,-0.38003,0.04561,,,,,,,,,,,,,,,,,,,,,,,,,,0,0,0,0,0
3.2142,1783189382.5766,1,1,1.0000,0.0000,1.44682,0.22977,-2.77837,0.97777,1.57080,0.00000,-0.14512,-0.38003,0.04561,,,,,,,,,,,,,,,,,,,,,,,,,,0,0,0,0,0
3.2200,1783189382.5823,1,1,1.0000,0.0000,1.44682,0.22977,-2.77837,0.97777,1.57080,0.00000,-0.14512,-0.38003,0.04561,,,,,,,,,,,,,,,,,,,,,,,,,,0,0,0,0,0
3.2203,1783189382.5827,1,1,1.0000,0.0000,1.44682,0.22977,-2.77837,0.97777,1.57080,0.00000,-0.14512,-0.38003,0.04561,,,,,,,,,,,,,,,,,,,,,,,,,,0,0,0,0,0
3.2299,1783189382.5923,1,1,1.0000,0.0000,1.44682,0.22977,-2.77838,0.97778,1.57080,0.00000,-0.14512,-0.38003,0.04561,,,,,,,,,,,,,,,,,,,,,,,,,,0,0,0,0,0
3.2302,1783189382.5926,1,1,1.0000,0.0000,1.44682,0.22977,-2.77838,0.97778,1.57080,0.00000,-0.14512,-0.38003,0.04561,,,,,,,,,,,,,,,,,,,,,,,,,,0,0,0,0,0
3.2462,1783189382.6085,1,1,1.0000,0.0000,1.44682,0.22975,-2.77838,0.97780,1.57080,0.00000,-0.14512,-0.38003,0.04561,,,,,,,,,,,,,,,,,,,,,,,,,,0,0,0,0,0
3.2466,1783189382.6089,1,1,1.0000,0.0000,1.44682,0.22975,-2.77838,0.97780,1.57080,0.00000,-0.14512,-0.38003,0.04561,,,,,,,,,,,,,,,,,,,,,,,,,,0,0,0,0,0
3.2499,1783189382.6123,1,1,1.0000,0.0000,1.44682,0.22974,-2.77838,0.97781,1.57080,0.00000,-0.14512,-0.38003,0.04561,,,,,,,,,,,,,,,,,,,,,,,,,,0,0,0,0,0
3.2593,1783189382.6217,1,1,1.0000,0.0000,1.44682,0.22973,-2.77838,0.97782,1.57080,0.00000,-0.14512,-0.38003,0.04560,,,,,,,,,,,,,,,,,,,,,,,,,,0,0,0,0,0
3.2701,1783189382.6324,1,1,1.0000,0.0000,1.44682,0.22971,-2.77839,0.97785,1.57080,0.00000,-0.14512,-0.38003,0.04560,,,,,,,,,,,,,,,,,,,,,,,,,,0,0,0,0,0
3.2813,1783189382.6437,1,1,1.0000,0.0000,1.44682,0.22970,-2.77839,0.97786,1.57080,0.00000,-0.14512,-0.38003,0.04560,,,,,,,,,,,,,,,,,,,,,,,,,,0,0,0,0,0
3.2929,1783189382.6552,1,1,1.0000,0.0000,1.44682,0.22969,-2.77839,0.97787,1.57080,0.00000,-0.14512,-0.38003,0.04559,,,,,,,,,,,,,,,,,,,,,,,,,,0,0,0,0,0
3.2991,1783189382.6614,1,1,1.0000,0.0000,1.44682,0.22968,-2.77840,0.97789,1.57080,0.00000,-0.14512,-0.38003,0.04559,,,,,,,,,,,,,,,,,,,,,,,,,,0,0,0,0,0
3.3111,1783189382.6734,1,1,1.0000,0.0000,1.44682,0.22967,-2.77840,0.97790,1.57080,0.00000,-0.14512,-0.38003,0.04559,,,,,,,,,,,,,,,,,,,,,,,,,,0,0,0,0,0
3.3195,1783189382.6819,1,1,1.0000,0.0000,1.44682,0.22966,-2.77840,0.97791,1.57080,0.00000,-0.14512,-0.38003,0.04558,,,,,,,,,,,,,,,,,,,,,,,,,,0,0,0,0,0
3.3296,1783189382.6920,1,1,1.0000,0.0000,1.44682,0.22963,-2.77841,0.97794,1.57080,0.00000,-0.14512,-0.38003,0.04558,,,,,,,,,,,,,,,,,,,,,,,,,,0,0,0,0,0
3.3470,1783189382.7094,1,1,1.0000,0.0000,1.44682,0.22962,-2.77841,0.97796,1.57080,0.00000,-0.14512,-0.38003,0.04557,,,,,,,,,,,,,,,,,,,,,,,,,,0,0,0,0,0
3.3497,1783189382.7120,1,1,1.0000,0.0000,1.44682,0.22962,-2.77841,0.97797,1.57080,0.00000,-0.14512,-0.38003,0.04557,,,,,,,,,,,,,,,,,,,,,,,,,,0,0,0,0,0
3.3606,1783189382.7229,1,1,1.0000,0.0000,1.44682,0.22960,-2.77842,0.97798,1.57080,0.00000,-0.14512,-0.38003,0.04557,,,,,,,,,,,,,,,,,,,,,,,,,,0,0,0,0,0
3.3754,1783189382.7377,1,1,1.0000,0.0000,1.44682,0.22959,-2.77842,0.97800,1.57080,0.00000,-0.14512,-0.38003,0.04557,,,,,,,,,,,,,,,,,,,,,,,,,,0,0,0,0,0
3.3794,1783189382.7417,1,1,1.0000,0.0000,1.44682,0.22958,-2.77842,0.97801,1.57080,0.00000,-0.14512,-0.38003,0.04557,,,,,,,,,,,,,,,,,,,,,,,,,,0,0,0,0,0
3.3797,1783189382.7421,1,1,1.0000,0.0000,1.44682,0.22958,-2.77842,0.97801,1.57080,0.00000,-0.14512,-0.38003,0.04557,,,,,,,,,,,,,,,,,,,,,,,,,,0,0,0,0,0
3.3916,1783189382.7540,1,1,1.0000,0.0000,1.44682,0.22956,-2.77843,0.97804,1.57080,0.00000,-0.14512,-0.38003,0.04556,,,,,,,,,,,,,,,,,,,,,,,,,,0,0,0,0,0
3.4005,1783189382.7629,1,1,1.0000,0.0000,1.44682,0.22955,-2.77843,0.97805,1.57080,0.00000,-0.14512,-0.38003,0.04556,,,,,,,,,,,,,,,,,,,,,,,,,,0,0,0,0,0
3.4114,1783189382.7738,1,1,1.0000,0.0000,1.44682,0.22954,-2.77843,0.97806,1.57080,0.00000,-0.14512,-0.38003,0.04555,,,,,,,,,,,,,,,,,,,,,,,,,,0,0,0,0,0
3.4194,1783189382.7818,1,1,1.0000,0.0000,1.44682,0.22953,-2.77844,0.97807,1.57080,0.00000,-0.14512,-0.38003,0.04555,,,,,,,,,,,,,,,,,,,,,,,,,,0,0,0,0,0
3.4299,1783189382.7923,1,1,1.0000,0.0000,1.44682,0.22952,-2.77844,0.97809,1.57080,0.00000,-0.14512,-0.38003,0.04555,,,,,,,,,,,,,,,,,,,,,,,,,,0,0,0,0,0
3.4303,1783189382.7927,1,1,1.0000,0.0000,1.44682,0.22952,-2.77844,0.97809,1.57080,0.00000,-0.14512,-0.38003,0.04555,,,,,,,,,,,,,,,,,,,,,,,,,,0,0,0,0,0
3.4400,1783189382.8024,1,1,1.0000,0.0000,1.44682,0.22951,-2.77844,0.97810,1.57080,0.00000,-0.14512,-0.38003,0.04555,,,,,,,,,,,,,,,,,,,,,,,,,,0,0,0,0,0
3.4496,1783189382.8120,1,1,1.0000,0.0000,1.44682,0.22948,-2.77845,0.97813,1.57080,0.00000,-0.14512,-0.38003,0.04554,,,,,,,,,,,,,,,,,,,,,,,,,,0,0,0,0,0
3.4499,1783189382.8123,1,1,1.0000,0.0000,1.44682,0.22948,-2.77845,0.97813,1.57080,0.00000,-0.14512,-0.38003,0.04554,,,,,,,,,,,,,,,,,,,,,,,,,,0,0,0,0,0
3.4595,1783189382.8219,1,1,1.0000,0.0000,1.44682,0.22948,-2.77845,0.97814,1.57080,0.00000,-0.14512,-0.38003,0.04554,,,,,,,,,,,,,,,,,,,,,,,,,,0,0,0,0,0
3.4698,1783189382.8322,1,1,1.0000,0.0000,1.44682,0.22947,-2.77845,0.97815,1.57080,0.00000,-0.14512,-0.38003,0.04553,,,,,,,,,,,,,,,,,,,,,,,,,,0,0,0,0,0
3.4794,1783189382.8417,1,1,1.0000,0.0000,1.44682,0.22946,-2.77845,0.97817,1.57080,0.00000,-0.14512,-0.38003,0.04553,,,,,,,,,,,,,,,,,,,,,,,,,,0,0,0,0,0
3.4973,1783189382.8596,1,1,1.0000,0.0000,1.44682,0.22944,-2.77846,0.97818,1.57080,0.00000,-0.14512,-0.38003,0.04553,,,,,,,,,,,,,,,,,,,,,,,,,,0,0,0,0,0
3.5000,1783189382.8623,1,1,1.0000,0.0000,1.44682,0.22944,-2.77846,0.97819,1.57080,0.00000,-0.14512,-0.38003,0.04553,,,,,,,,,,,,,,,,,,,,,,,,,,0,0,0,0,0
3.5003,1783189382.8627,1,1,1.0000,0.0000,1.44682,0.22944,-2.77846,0.97819,1.57080,0.00000,-0.14512,-0.38003,0.04553,,,,,,,,,,,,,,,,,,,,,,,,,,0,0,0,0,0
3.5113,1783189382.8737,1,1,1.0000,0.0000,1.44682,0.22941,-2.77847,0.97822,1.57080,0.00000,-0.14512,-0.38003,0.04552,,,,,,,,,,,,,,,,,,,,,,,,,,0,0,0,0,0
3.5117,1783189382.8740,1,1,1.0000,0.0000,1.44682,0.22941,-2.77847,0.97822,1.57080,0.00000,-0.14512,-0.38003,0.04552,,,,,,,,,,,,,,,,,,,,,,,,,,0,0,0,0,0
3.5198,1783189382.8822,1,1,1.0000,0.0000,1.44682,0.22940,-2.77847,0.97824,1.57080,0.00000,-0.14512,-0.38003,0.04552,,,,,,,,,,,,,,,,,,,,,,,,,,0,0,0,0,0
3.5201,1783189382.8824,1,1,1.0000,0.0000,1.44682,0.22940,-2.77847,0.97824,1.57080,0.00000,-0.14512,-0.38003,0.04552,,,,,,,,,,,,,,,,,,,,,,,,,,0,0,0,0,0
3.5290,1783189382.8913,1,1,1.0000,0.0000,1.44682,0.22940,-2.77847,0.97824,1.57080,0.00000,-0.14512,-0.38003,0.04552,,,,,,,,,,,,,,,,,,,,,,,,,,0,0,0,0,0
3.5298,1783189382.8922,1,1,1.0000,0.0000,1.44682,0.22939,-2.77847,0.97825,1.57080,0.00000,-0.14512,-0.38003,0.04551,,,,,,,,,,,,,,,,,,,,,,,,,,0,0,0,0,0
3.5396,1783189382.9020,1,1,1.0000,0.0000,1.44682,0.22937,-2.77848,0.97827,1.57080,0.00000,-0.14512,-0.38003,0.04551,,,,,,,,,,,,,,,,,,,,,,,,,,0,0,0,0,0
3.5518,1783189382.9141,1,1,1.0000,0.0000,1.44682,0.22936,-2.77848,0.97828,1.57080,0.00000,-0.14512,-0.38003,0.04551,,,,,,,,,,,,,,,,,,,,,,,,,,0,0,0,0,0
3.5610,1783189382.9234,1,1,1.0000,0.0000,1.44682,0.22935,-2.77848,0.97830,1.57080,0.00000,-0.14512,-0.38003,0.04551,,,,,,,,,,,,,,,,,,,,,,,,,,0,0,0,0,0
3.5617,1783189382.9240,1,1,1.0000,0.0000,1.44682,0.22935,-2.77848,0.97831,1.57080,0.00000,-0.14512,-0.38003,0.04550,,,,,,,,,,,,,,,,,,,,,,,,,,0,0,0,0,0
3.5700,1783189382.9324,1,1,1.0000,0.0000,1.44682,0.22933,-2.77849,0.97833,1.57080,0.00000,-0.14512,-0.38003,0.04550,,,,,,,,,,,,,,,,,,,,,,,,,,0,0,0,0,0
3.5799,1783189382.9422,1,1,1.0000,0.0000,1.44682,0.22932,-2.77849,0.97834,1.57080,0.00000,-0.14512,-0.38003,0.04550,,,,,,,,,,,,,,,,,,,,,,,,,,0,0,0,0,0
3.5959,1783189382.9582,1,1,1.0000,0.0000,1.44682,0.22930,-2.77849,0.97836,1.57080,0.00000,-0.14512,-0.38003,0.04549,,,,,,,,,,,,,,,,,,,,,,,,,,0,0,0,0,0
3.6003,1783189382.9627,1,1,1.0000,0.0000,1.44682,0.22929,-2.77850,0.97837,1.57080,0.00000,-0.14512,-0.38003,0.04549,,,,,,,,,,,,,,,,,,,,,,,,,,0,0,0,0,0
3.6006,1783189382.9630,1,1,1.0000,0.0000,1.44682,0.22929,-2.77850,0.97837,1.57080,0.00000,-0.14512,-0.38003,0.04549,,,,,,,,,,,,,,,,,,,,,,,,,,0,0,0,0,0
3.6142,1783189382.9765,1,1,1.0000,0.0000,1.44682,0.22928,-2.77850,0.97839,1.57080,0.00000,-0.14512,-0.38003,0.04549,,,,,,,,,,,,,,,,,,,,,,,,,,0,0,0,0,0
3.6146,1783189382.9770,1,1,1.0000,0.0000,1.44682,0.22928,-2.77850,0.97839,1.57080,0.00000,-0.14512,-0.38003,0.04549,,,,,,,,,,,,,,,,,,,,,,,,,,0,0,0,0,0
3.6201,1783189382.9824,1,1,1.0000,0.0000,1.44682,0.22927,-2.77850,0.97840,1.57080,0.00000,-0.14512,-0.38003,0.04548,,,,,,,,,,,,,,,,,,,,,,,,,,0,0,0,0,0
3.6330,1783189382.9954,1,1,1.0000,0.0000,1.44682,0.22925,-2.77851,0.97843,1.57080,0.00000,-0.14512,-0.38003,0.04548,,,,,,,,,,,,,,,,,,,,,,,,,,0,0,0,0,0
3.6396,1783189383.0020,1,1,1.0000,0.0000,1.44682,0.22924,-2.77851,0.97844,1.57080,0.00000,-0.14512,-0.38003,0.04548,,,,,,,,,,,,,,,,,,,,,,,,,,0,0,0,0,0
3.6570,1783189383.0193,1,1,1.0000,0.0000,1.44682,0.22922,-2.77851,0.97846,1.57080,0.00000,-0.14512,-0.38003,0.04547,,,,,,,,,,,,,,,,,,,,,,,,,,0,0,0,0,0
3.6605,1783189383.0229,1,1,1.0000,0.0000,1.44682,0.22921,-2.77852,0.97847,1.57080,0.00000,-0.14512,-0.38003,0.04547,,,,,,,,,,,,,,,,,,,,,,,,,,0,0,0,0,0
3.6609,1783189383.0232,1,1,1.0000,0.0000,1.44682,0.22921,-2.77852,0.97847,1.57080,0.00000,-0.14512,-0.38003,0.04547,,,,,,,,,,,,,,,,,,,,,,,,,,0,0,0,0,0
3.6737,1783189383.0361,1,1,1.0000,0.0000,1.44682,0.22919,-2.77852,0.97850,1.57080,0.00000,-0.14512,-0.38003,0.04546,,,,,,,,,,,,,,,,,,,,,,,,,,0,0,0,0,0
3.6821,1783189383.0445,1,1,1.0000,0.0000,1.44682,0.22919,-2.77852,0.97851,1.57080,0.00000,-0.14512,-0.38003,0.04546,,,,,,,,,,,,,,,,,,,,,,,,,,0,0,0,0,0
3.6825,1783189383.0449,1,1,1.0000,0.0000,1.44682,0.22919,-2.77852,0.97851,1.57080,0.00000,-0.14512,-0.38003,0.04546,,,,,,,,,,,,,,,,,,,,,,,,,,0,0,0,0,0
3.6924,1783189383.0548,1,1,1.0000,0.0000,1.44682,0.22917,-2.77853,0.97852,1.57080,0.00000,-0.14512,-0.38003,0.04546,,,,,,,,,,,,,,,,,,,,,,,,,,0,0,0,0,0
3.7019,1783189383.0643,1,1,1.0000,0.0000,1.44682,0.22916,-2.77853,0.97853,1.57080,0.00000,-0.14512,-0.38003,0.04546,,,,,,,,,,,,,,,,,,,,,,,,,,0,0,0,0,0
3.7023,1783189383.0646,1,1,1.0000,0.0000,1.44682,0.22916,-2.77853,0.97853,1.57080,0.00000,-0.14512,-0.38003,0.04546,,,,,,,,,,,,,,,,,,,,,,,,,,0,0,0,0,0
3.7099,1783189383.0722,1,1,1.0000,0.0000,1.44682,0.22915,-2.77853,0.97855,1.57080,0.00000,-0.14512,-0.38003,0.04545,,,,,,,,,,,,,,,,,,,,,,,,,,0,0,0,0,0
3.7202,1783189383.0825,1,1,1.0000,0.0000,1.44682,0.22914,-2.77854,0.97857,1.57080,0.00000,-0.14512,-0.38003,0.04545,,,,,,,,,,,,,,,,,,,,,,,,,,0,0,0,0,0
3.7297,1783189383.0921,1,1,1.0000,0.0000,1.44682,0.22912,-2.77854,0.97859,1.57080,0.00000,-0.14512,-0.38003,0.04544,,,,,,,,,,,,,,,,,,,,,,,,,,0,0,0,0,0
3.7395,1783189383.1019,1,1,1.0000,0.0000,1.44682,0.22912,-2.77854,0.97859,1.57080,0.00000,-0.14512,-0.38003,0.04544,,,,,,,,,,,,,,,,,,,,,,,,,,0,0,0,0,0
3.7629,1783189383.1252,1,1,1.0000,0.0000,1.44682,0.22909,-2.77855,0.97863,1.57080,0.00000,-0.14512,-0.38003,0.04544,,,,,,,,,,,,,,,,,,,,,,,,,,0,0,0,0,0
3.7632,1783189383.1255,1,1,1.0000,0.0000,1.44682,0.22909,-2.77855,0.97863,1.57080,0.00000,-0.14512,-0.38003,0.04544,,,,,,,,,,,,,,,,,,,,,,,,,,0,0,0,0,0
3.7635,1783189383.1259,1,1,1.0000,0.0000,1.44682,0.22909,-2.77855,0.97863,1.57080,0.00000,-0.14512,-0.38003,0.04544,,,,,,,,,,,,,,,,,,,,,,,,,,0,0,0,0,0
3.7730,1783189383.1353,1,1,1.0000,0.0000,1.44682,0.22908,-2.77855,0.97864,1.57080,0.00000,-0.14512,-0.38003,0.04543,,,,,,,,,,,,,,,,,,,,,,,,,,0,0,0,0,0
3.7901,1783189383.1525,1,1,1.0000,0.0000,1.44682,0.22905,-2.77856,0.97868,1.57080,0.00000,-0.14512,-0.38003,0.04542,,,,,,,,,,,,,,,,,,,,,,,,,,0,0,0,0,0
3.7908,1783189383.1531,1,1,1.0000,0.0000,1.44682,0.22905,-2.77856,0.97868,1.57080,0.00000,-0.14512,-0.38003,0.04542,,,,,,,,,,,,,,,,,,,,,,,,,,0,0,0,0,0
3.7911,1783189383.1534,1,1,1.0000,0.0000,1.44682,0.22905,-2.77856,0.97868,1.57080,0.00000,-0.14512,-0.38003,0.04542,,,,,,,,,,,,,,,,,,,,,,,,,,0,0,0,0,0
3.8082,1783189383.1705,1,1,1.0000,0.0000,1.44682,0.22903,-2.77856,0.97870,1.57080,0.00000,-0.14512,-0.38003,0.04542,,,,,,,,,,,,,,,,,,,,,,,,,,0,0,0,0,0
3.8166,1783189383.1790,1,1,1.0000,0.0000,1.44682,0.22902,-2.77857,0.97872,1.57080,0.00000,-0.14512,-0.38003,0.04542,,,,,,,,,,,,,,,,,,,,,,,,,,0,0,0,0,0
3.8169,1783189383.1793,1,1,1.0000,0.0000,1.44682,0.22902,-2.77857,0.97872,1.57080,0.00000,-0.14512,-0.38003,0.04542,,,,,,,,,,,,,,,,,,,,,,,,,,0,0,0,0,0
3.8242,1783189383.1865,1,1,1.0000,0.0000,1.44682,0.22902,-2.77857,0.97872,1.57080,0.00000,-0.14512,-0.38003,0.04542,,,,,,,,,,,,,,,,,,,,,,,,,,0,0,0,0,0
3.8380,1783189383.2003,1,1,1.0000,0.0000,1.44682,0.22899,-2.77857,0.97875,1.57080,0.00000,-0.14512,-0.38003,0.04541,,,,,,,,,,,,,,,,,,,,,,,,,,0,0,0,0,0
3.8491,1783189383.2115,1,1,1.0000,0.0000,1.44682,0.22897,-2.77858,0.97878,1.57080,0.00000,-0.14512,-0.38003,0.04541,,,,,,,,,,,,,,,,,,,,,,,,,,0,0,0,0,0
3.8499,1783189383.2123,1,1,1.0000,0.0000,1.44682,0.22897,-2.77858,0.97878,1.57080,0.00000,-0.14512,-0.38003,0.04541,,,,,,,,,,,,,,,,,,,,,,,,,,0,0,0,0,0
3.8597,1783189383.2221,1,1,1.0000,0.0000,1.44682,0.22897,-2.77858,0.97878,1.57080,0.00000,-0.14512,-0.38003,0.04540,,,,,,,,,,,,,,,,,,,,,,,,,,0,0,0,0,0
3.8648,1783189383.2272,1,1,1.0000,0.0000,1.44682,0.22896,-2.77858,0.97879,1.57080,0.00000,-0.14512,-0.38003,0.04540,,,,,,,,,,,,,,,,,,,,,,,,,,0,0,0,0,0
3.8738,1783189383.2362,1,1,1.0000,0.0000,1.44682,0.22894,-2.77859,0.97881,1.57080,0.00000,-0.14512,-0.38003,0.04540,,,,,,,,,,,,,,,,,,,,,,,,,,0,0,0,0,0
3.8741,1783189383.2365,1,1,1.0000,0.0000,1.44682,0.22894,-2.77859,0.97881,1.57080,0.00000,-0.14512,-0.38003,0.04540,,,,,,,,,,,,,,,,,,,,,,,,,,0,0,0,0,0
3.8830,1783189383.2453,1,1,1.0000,0.0000,1.44682,0.22894,-2.77859,0.97881,1.57080,0.00000,-0.14512,-0.38003,0.04540,,,,,,,,,,,,,,,,,,,,,,,,,,0,0,0,0,0
3.8943,1783189383.2567,1,1,1.0000,0.0000,1.44682,0.22892,-2.77859,0.97884,1.57080,0.00000,-0.14512,-0.38003,0.04539,,,,,,,,,,,,,,,,,,,,,,,,,,0,0,0,0,0
3.9063,1783189383.2687,1,1,1.0000,0.0000,1.44682,0.22890,-2.77860,0.97887,1.57080,0.00000,-0.14512,-0.38003,0.04539,,,,,,,,,,,,,,,,,,,,,,,,,,0,0,0,0,0
3.9131,1783189383.2754,1,1,1.0000,0.0000,1.44682,0.22890,-2.77860,0.97887,1.57080,0.00000,-0.14512,-0.38003,0.04539,,,,,,,,,,,,,,,,,,,,,,,,,,0,0,0,0,0
3.9296,1783189383.2920,1,1,1.0000,0.0000,1.44682,0.22888,-2.77860,0.97890,1.57080,0.00000,-0.14512,-0.38003,0.04538,,,,,,,,,,,,,,,,,,,,,,,,,,0,0,0,0,0
3.9340,1783189383.2963,1,1,1.0000,0.0000,1.44682,0.22887,-2.77860,0.97891,1.57080,0.00000,-0.14512,-0.38003,0.04538,,,,,,,,,,,,,,,,,,,,,,,,,,0,0,0,0,0
3.9343,1783189383.2966,1,1,1.0000,0.0000,1.44682,0.22887,-2.77860,0.97891,1.57080,0.00000,-0.14512,-0.38003,0.04538,,,,,,,,,,,,,,,,,,,,,,,,,,0,0,0,0,0
3.9465,1783189383.3089,1,1,1.0000,0.0000,1.44682,0.22886,-2.77861,0.97891,1.57080,0.00000,-0.14512,-0.38003,0.04538,,,,,,,,,,,,,,,,,,,,,,,,,,0,0,0,0,0
3.9468,1783189383.3091,1,1,1.0000,0.0000,1.44682,0.22886,-2.77861,0.97891,1.57080,0.00000,-0.14512,-0.38003,0.04538,,,,,,,,,,,,,,,,,,,,,,,,,,0,0,0,0,0
3.9687,1783189383.3311,1,1,1.0000,0.0000,1.44682,0.22882,-2.77862,0.97896,1.57080,0.00000,-0.14512,-0.38003,0.04537,,,,,,,,,,,,,,,,,,,,,,,,,,0,0,0,0,0
3.9690,1783189383.3314,1,1,1.0000,0.0000,1.44682,0.22882,-2.77862,0.97896,1.57080,0.00000,-0.14512,-0.38003,0.04537,,,,,,,,,,,,,,,,,,,,,,,,,,0,0,0,0,0
3.9729,1783189383.3353,1,1,1.0000,0.0000,1.44682,0.22882,-2.77862,0.97896,1.57080,0.00000,-0.14512,-0.38003,0.04537,,,,,,,,,,,,,,,,,,,,,,,,,,0,0,0,0,0
3.9838,1783189383.3462,1,1,1.0000,0.0000,1.44682,0.22881,-2.77862,0.97898,1.57080,0.00000,-0.14512,-0.38003,0.04536,,,,,,,,,,,,,,,,,,,,,,,,,,0,0,0,0,0
3.9979,1783189383.3603,1,1,1.0000,0.0000,1.44682,0.22879,-2.77863,0.97901,1.57080,0.00000,-0.14512,-0.38003,0.04536,,,,,,,,,,,,,,,,,,,,,,,,,,0,0,0,0,0
4.0091,1783189383.3715,1,1,1.0000,0.0000,1.44682,0.22878,-2.77863,0.97902,1.57080,0.00000,-0.14512,-0.38003,0.04536,,,,,,,,,,,,,,,,,,,,,,,,,,0,0,0,0,0
4.0149,1783189383.3773,1,1,1.0000,0.0000,1.44682,0.22877,-2.77863,0.97903,1.57080,0.00000,-0.14512,-0.38003,0.04535,,,,,,,,,,,,,,,,,,,,,,,,,,0,0,0,0,0
4.0251,1783189383.3874,1,1,1.0000,0.0000,1.44682,0.22875,-2.77863,0.97906,1.57080,0.00000,-0.14512,-0.38003,0.04535,,,,,,,,,,,,,,,,,,,,,,,,,,0,0,0,0,0
4.0377,1783189383.4001,1,1,1.0000,0.0000,1.44682,0.22874,-2.77864,0.97907,1.57080,0.00000,-0.14512,-0.38003,0.04534,,,,,,,,,,,,,,,,,,,,,,,,,,0,0,0,0,0
4.0427,1783189383.4051,1,1,1.0000,0.0000,1.44682,0.22873,-2.77864,0.97908,1.57080,0.00000,-0.14512,-0.38003,0.04534,,,,,,,,,,,,,,,,,,,,,,,,,,0,0,0,0,0
4.0431,1783189383.4054,1,1,1.0000,0.0000,1.44682,0.22873,-2.77864,0.97908,1.57080,0.00000,-0.14512,-0.38003,0.04534,,,,,,,,,,,,,,,,,,,,,,,,,,0,0,0,0,0
4.0537,1783189383.4161,1,1,1.0000,0.0000,1.44682,0.22871,-2.77864,0.97910,1.57080,0.00000,-0.14512,-0.38003,0.04534,,,,,,,,,,,,,,,,,,,,,,,,,,0,0,0,0,0
4.0539,1783189383.4162,1,1,1.0000,0.0000,1.44682,0.22871,-2.77864,0.97910,1.57080,0.00000,-0.14512,-0.38003,0.04534,,,,,,,,,,,,,,,,,,,,,,,,,,0,0,0,0,0
4.0673,1783189383.4296,1,1,1.0000,0.0000,1.44682,0.22871,-2.77865,0.97911,1.57080,0.00000,-0.14512,-0.38003,0.04534,,,,,,,,,,,,,,,,,,,,,,,,,,0,0,0,0,0
4.0733,1783189383.4357,1,1,1.0000,0.0000,1.44682,0.22870,-2.77865,0.97912,1.57080,0.00000,-0.14512,-0.38003,0.04533,,,,,,,,,,,,,,,,,,,,,,,,,,0,0,0,0,0
4.0740,1783189383.4363,1,1,1.0000,0.0000,1.44682,0.22869,-2.77865,0.97913,1.57080,0.00000,-0.14512,-0.38003,0.04533,,,,,,,,,,,,,,,,,,,,,,,,,,0,0,0,0,0
4.0831,1783189383.4454,1,1,1.0000,0.0000,1.44682,0.22867,-2.77865,0.97915,1.57080,0.00000,-0.14512,-0.38003,0.04533,,,,,,,,,,,,,,,,,,,,,,,,,,0,0,0,0,0
4.0931,1783189383.4555,1,1,1.0000,0.0000,1.44682,0.22867,-2.77866,0.97916,1.57080,0.00000,-0.14512,-0.38003,0.04533,,,,,,,,,,,,,,,,,,,,,,,,,,0,0,0,0,0
4.1031,1783189383.4654,1,1,1.0000,0.0000,1.44682,0.22865,-2.77866,0.97917,1.57080,0.00000,-0.14512,-0.38003,0.04532,,,,,,,,,,,,,,,,,,,,,,,,,,0,0,0,0,0
4.1142,1783189383.4766,1,1,1.0000,0.0000,1.44682,0.22863,-2.77867,0.97921,1.57080,0.00000,-0.14512,-0.38003,0.04532,,,,,,,,,,,,,,,,,,,,,,,,,,0,0,0,0,0
4.1146,1783189383.4770,1,1,1.0000,0.0000,1.44682,0.22863,-2.77867,0.97921,1.57080,0.00000,-0.14512,-0.38003,0.04532,,,,,,,,,,,,,,,,,,,,,,,,,,0,0,0,0,0
4.1262,1783189383.4885,1,1,1.0000,0.0000,1.44682,0.22862,-2.77867,0.97921,1.57080,0.00000,-0.14512,-0.38003,0.04532,,,,,,,,,,,,,,,,,,,,,,,,,,0,0,0,0,0
4.1348,1783189383.4972,1,1,1.0000,0.0000,1.44682,0.22861,-2.77867,0.97923,1.57080,0.00000,-0.14512,-0.38003,0.04531,,,,,,,,,,,,,,,,,,,,,,,,,,0,0,0,0,0
4.1435,1783189383.5059,1,1,1.0000,0.0000,1.44682,0.22859,-2.77867,0.97925,1.57080,0.00000,-0.14512,-0.38003,0.04531,,,,,,,,,,,,,,,,,,,,,,,,,,0,0,0,0,0
4.1525,1783189383.5148,1,1,1.0000,0.0000,1.44682,0.22858,-2.77868,0.97926,1.57080,0.00000,-0.14512,-0.38003,0.04530,,,,,,,,,,,,,,,,,,,,,,,,,,0,0,0,0,0
4.1528,1783189383.5151,1,1,1.0000,0.0000,1.44682,0.22858,-2.77868,0.97926,1.57080,0.00000,-0.14512,-0.38003,0.04530,,,,,,,,,,,,,,,,,,,,,,,,,,0,0,0,0,0
4.1665,1783189383.5289,1,1,1.0000,0.0000,1.44682,0.22857,-2.77868,0.97929,1.57080,0.00000,-0.14512,-0.38003,0.04530,,,,,,,,,,,,,,,,,,,,,,,,,,0,0,0,0,0
4.1728,1783189383.5352,1,1,1.0000,0.0000,1.44682,0.22856,-2.77868,0.97930,1.57080,0.00000,-0.14512,-0.38003,0.04530,,,,,,,,,,,,,,,,,,,,,,,,,,0,0,0,0,0
4.1732,1783189383.5356,1,1,1.0000,0.0000,1.44682,0.22856,-2.77868,0.97930,1.57080,0.00000,-0.14512,-0.38003,0.04530,,,,,,,,,,,,,,,,,,,,,,,,,,0,0,0,0,0
4.1840,1783189383.5463,1,1,1.0000,0.0000,1.44682,0.22854,-2.77869,0.97932,1.57080,0.00000,-0.14512,-0.38003,0.04529,,,,,,,,,,,,,,,,,,,,,,,,,,0,0,0,0,0
4.1843,1783189383.5466,1,1,1.0000,0.0000,1.44682,0.22854,-2.77869,0.97932,1.57080,0.00000,-0.14512,-0.38003,0.04529,,,,,,,,,,,,,,,,,,,,,,,,,,0,0,0,0,0
4.1942,1783189383.5565,1,1,1.0000,0.0000,1.44682,0.22853,-2.77869,0.97933,1.57080,0.00000,-0.14512,-0.38003,0.04529,,,,,,,,,,,,,,,,,,,,,,,,,,0,0,0,0,0
4.1944,1783189383.5568,1,1,1.0000,0.0000,1.44682,0.22853,-2.77869,0.97933,1.57080,0.00000,-0.14512,-0.38003,0.04529,,,,,,,,,,,,,,,,,,,,,,,,,,0,0,0,0,0
4.2027,1783189383.5651,1,1,1.0000,0.0000,1.44682,0.22852,-2.77869,0.97934,1.57080,0.00000,-0.14512,-0.38003,0.04529,,,,,,,,,,,,,,,,,,,,,,,,,,0,0,0,0,0
4.2030,1783189383.5654,1,1,1.0000,0.0000,1.44682,0.22852,-2.77869,0.97934,1.57080,0.00000,-0.14512,-0.38003,0.04529,,,,,,,,,,,,,,,,,,,,,,,,,,0,0,0,0,0
4.2138,1783189383.5762,1,1,1.0000,0.0000,1.44682,0.22851,-2.77870,0.97936,1.57080,0.00000,-0.14512,-0.38003,0.04529,,,,,,,,,,,,,,,,,,,,,,,,,,0,0,0,0,0
4.2141,1783189383.5765,1,1,1.0000,0.0000,1.44682,0.22851,-2.77870,0.97936,1.57080,0.00000,-0.14512,-0.38003,0.04529,,,,,,,,,,,,,,,,,,,,,,,,,,0,0,0,0,0
4.2286,1783189383.5909,1,1,1.0000,0.0000,1.44682,0.22849,-2.77870,0.97938,1.57080,0.00000,-0.14512,-0.38003,0.04528,,,,,,,,,,,,,,,,,,,,,,,,,,0,0,0,0,0
4.2328,1783189383.5952,1,1,1.0000,0.0000,1.44682,0.22848,-2.77870,0.97939,1.57080,0.00000,-0.14512,-0.38003,0.04528,,,,,,,,,,,,,,,,,,,,,,,,,,0,0,0,0,0
4.2528,1783189383.6152,1,1,1.0000,0.0000,1.44682,0.22846,-2.77871,0.97942,1.57080,0.00000,-0.14512,-0.38003,0.04527,,,,,,,,,,,,,,,,,,,,,,,,,,0,0,0,0,0
4.2577,1783189383.6201,1,1,1.0000,0.0000,1.44682,0.22845,-2.77871,0.97944,1.57080,0.00000,-0.14512,-0.38003,0.04527,,,,,,,,,,,,,,,,,,,,,,,,,,0,0,0,0,0
4.2580,1783189383.6203,1,1,1.0000,0.0000,1.44682,0.22845,-2.77871,0.97944,1.57080,0.00000,-0.14512,-0.38003,0.04527,,,,,,,,,,,,,,,,,,,,,,,,,,0,0,0,0,0
4.2729,1783189383.6353,1,1,1.0000,0.0000,1.44682,0.22843,-2.77872,0.97946,1.57080,0.00000,-0.14512,-0.38003,0.04526,,,,,,,,,,,,,,,,,,,,,,,,,,0,0,0,0,0
4.2738,1783189383.6362,1,1,1.0000,0.0000,1.44682,0.22843,-2.77872,0.97946,1.57080,0.00000,-0.14512,-0.38003,0.04526,,,,,,,,,,,,,,,,,,,,,,,,,,0,0,0,0,0
4.2740,1783189383.6364,1,1,1.0000,0.0000,1.44682,0.22843,-2.77872,0.97946,1.57080,0.00000,-0.14512,-0.38003,0.04526,,,,,,,,,,,,,,,,,,,,,,,,,,0,0,0,0,0
4.2836,1783189383.6460,1,1,1.0000,0.0000,1.44682,0.22842,-2.77872,0.97947,1.57080,0.00000,-0.14512,-0.38003,0.04526,,,,,,,,,,,,,,,,,,,,,,,,,,0,0,0,0,0
4.2947,1783189383.6570,1,1,1.0000,0.0000,1.44682,0.22839,-2.77873,0.97950,1.57080,0.00000,-0.14512,-0.38003,0.04525,,,,,,,,,,,,,,,,,,,,,,,,,,0,0,0,0,0
4.3037,1783189383.6660,1,1,1.0000,0.0000,1.44682,0.22838,-2.77873,0.97951,1.57080,0.00000,-0.14512,-0.38003,0.04525,,,,,,,,,,,,,,,,,,,,,,,,,,0,0,0,0,0
4.3165,1783189383.6788,1,1,1.0000,0.0000,1.44682,0.22837,-2.77873,0.97952,1.57080,0.00000,-0.14512,-0.38003,0.04525,,,,,,,,,,,,,,,,,,,,,,,,,,0,0,0,0,0
4.3307,1783189383.6931,1,1,1.0000,0.0000,1.44682,0.22835,-2.77874,0.97955,1.57080,0.00000,-0.14512,-0.38003,0.04525,,,,,,,,,,,,,,,,,,,,,,,,,,0,0,0,0,0
4.3333,1783189383.6956,1,1,1.0000,0.0000,1.44682,0.22835,-2.77874,0.97955,1.57080,0.00000,-0.14512,-0.38003,0.04525,,,,,,,,,,,,,,,,,,,,,,,,,,0,0,0,0,0
4.3341,1783189383.6964,1,1,1.0000,0.0000,1.44682,0.22835,-2.77874,0.97955,1.57080,0.00000,-0.14512,-0.38003,0.04524,,,,,,,,,,,,,,,,,,,,,,,,,,0,0,0,0,0
4.3437,1783189383.7060,1,1,1.0000,0.0000,1.44682,0.22834,-2.77874,0.97956,1.57080,0.00000,-0.14512,-0.38003,0.04524,,,,,,,,,,,,,,,,,,,,,,,,,,0,0,0,0,0
4.3548,1783189383.7171,1,1,1.0000,0.0000,1.44682,0.22832,-2.77874,0.97960,1.57080,0.00000,-0.14512,-0.38003,0.04524,,,,,,,,,,,,,,,,,,,,,,,,,,0,0,0,0,0
4.3745,1783189383.7368,1,1,1.0000,0.0000,1.44682,0.22830,-2.77875,0.97962,1.57080,0.00000,-0.14512,-0.38003,0.04523,,,,,,,,,,,,,,,,,,,,,,,,,,0,0,0,0,0
4.3747,1783189383.7371,1,1,1.0000,0.0000,1.44682,0.22830,-2.77875,0.97962,1.57080,0.00000,-0.14512,-0.38003,0.04523,,,,,,,,,,,,,,,,,,,,,,,,,,0,0,0,0,0
4.3845,1783189383.7469,1,1,1.0000,0.0000,1.44682,0.22829,-2.77875,0.97963,1.57080,0.00000,-0.14512,-0.38003,0.04523,,,,,,,,,,,,,,,,,,,,,,,,,,0,0,0,0,0
4.3927,1783189383.7551,1,1,1.0000,0.0000,1.44682,0.22828,-2.77875,0.97964,1.57080,0.00000,-0.14512,-0.38003,0.04523,,,,,,,,,,,,,,,,,,,,,,,,,,0,0,0,0,0
4.4057,1783189383.7681,1,1,1.0000,0.0000,1.44682,0.22826,-2.77876,0.97967,1.57080,0.00000,-0.14512,-0.38003,0.04522,,,,,,,,,,,,,,,,,,,,,,,,,,0,0,0,0,0
4.4200,1783189383.7823,1,1,1.0000,0.0000,1.44682,0.22823,-2.77877,0.97970,1.57080,0.00000,-0.14512,-0.38003,0.04521,,,,,,,,,,,,,,,,,,,,,,,,,,0,0,0,0,0
4.4236,1783189383.7860,1,1,1.0000,0.0000,1.44682,0.22823,-2.77877,0.97970,1.57080,0.00000,-0.14512,-0.38003,0.04521,,,,,,,,,,,,,,,,,,,,,,,,,,0,0,0,0,0
4.4329,1783189383.7953,1,1,1.0000,0.0000,1.44682,0.22823,-2.77877,0.97971,1.57080,0.00000,-0.14512,-0.38003,0.04521,,,,,,,,,,,,,,,,,,,,,,,,,,0,0,0,0,0
4.4437,1783189383.8060,1,1,1.0000,0.0000,1.44682,0.22821,-2.77877,0.97973,1.57080,0.00000,-0.14512,-0.38003,0.04521,,,,,,,,,,,,,,,,,,,,,,,,,,0,0,0,0,0
4.4442,1783189383.8066,1,1,1.0000,0.0000,1.44682,0.22821,-2.77877,0.97973,1.57080,0.00000,-0.14512,-0.38003,0.04521,,,,,,,,,,,,,,,,,,,,,,,,,,0,0,0,0,0
4.4547,1783189383.8171,1,1,1.0000,0.0000,1.44682,0.22820,-2.77877,0.97974,1.57080,0.00000,-0.14512,-0.38003,0.04521,,,,,,,,,,,,,,,,,,,,,,,,,,0,0,0,0,0
4.4628,1783189383.8252,1,1,1.0000,0.0000,1.44682,0.22819,-2.77878,0.97975,1.57080,0.00000,-0.14512,-0.38003,0.04520,,,,,,,,,,,,,,,,,,,,,,,,,,0,0,0,0,0
4.4632,1783189383.8256,1,1,1.0000,0.0000,1.44682,0.22819,-2.77878,0.97975,1.57080,0.00000,-0.14512,-0.38003,0.04520,,,,,,,,,,,,,,,,,,,,,,,,,,0,0,0,0,0
4.4779,1783189383.8403,1,1,1.0000,0.0000,1.44682,0.22816,-2.77879,0.97979,1.57080,0.00000,-0.14512,-0.38003,0.04519,,,,,,,,,,,,,,,,,,,,,,,,,,0,0,0,0,0
4.4835,1783189383.8458,1,1,1.0000,0.0000,1.44682,0.22816,-2.77879,0.97979,1.57080,0.00000,-0.14512,-0.38003,0.04519,,,,,,,,,,,,,,,,,,,,,,,,,,0,0,0,0,0
4.4932,1783189383.8556,1,1,1.0000,0.0000,1.44682,0.22816,-2.77879,0.97980,1.57080,0.00000,-0.14512,-0.38003,0.04519,,,,,,,,,,,,,,,,,,,,,,,,,,0,0,0,0,0
4.5082,1783189383.8705,1,1,1.0000,0.0000,1.44682,0.22813,-2.77879,0.97983,1.57080,0.00000,-0.14512,-0.38003,0.04519,,,,,,,,,,,,,,,,,,,,,,,,,,0,0,0,0,0
4.5130,1783189383.8753,1,1,1.0000,0.0000,1.44682,0.22813,-2.77879,0.97983,1.57080,0.00000,-0.14512,-0.38003,0.04519,,,,,,,,,,,,,,,,,,,,,,,,,,0,0,0,0,0
4.5133,1783189383.8757,1,1,1.0000,0.0000,1.44682,0.22813,-2.77879,0.97983,1.57080,0.00000,-0.14512,-0.38003,0.04519,,,,,,,,,,,,,,,,,,,,,,,,,,0,0,0,0,0
4.5271,1783189383.8895,1,1,1.0000,0.0000,1.44682,0.22811,-2.77880,0.97986,1.57080,0.00000,-0.14512,-0.38003,0.04518,,,,,,,,,,,,,,,,,,,,,,,,,,0,0,0,0,0
4.5368,1783189383.8992,1,1,1.0000,0.0000,1.44682,0.22809,-2.77880,0.97988,1.57080,0.00000,-0.14512,-0.38003,0.04518,,,,,,,,,,,,,,,,,,,,,,,,,,0,0,0,0,0
4.5458,1783189383.9082,1,1,1.0000,0.0000,1.44682,0.22808,-2.77880,0.97989,1.57080,0.00000,-0.14512,-0.38003,0.04517,,,,,,,,,,,,,,,,,,,,,,,,,,0,0,0,0,0
4.5462,1783189383.9086,1,1,1.0000,0.0000,1.44682,0.22808,-2.77880,0.97989,1.57080,0.00000,-0.14512,-0.38003,0.04517,,,,,,,,,,,,,,,,,,,,,,,,,,0,0,0,0,0
4.5540,1783189383.9164,1,1,1.0000,0.0000,1.44682,0.22808,-2.77881,0.97990,1.57080,0.00000,-0.14512,-0.38003,0.04517,,,,,,,,,,,,,,,,,,,,,,,,,,0,0,0,0,0
4.5666,1783189383.9290,1,1,1.0000,0.0000,1.44682,0.22806,-2.77881,0.97992,1.57080,0.00000,-0.14512,-0.38003,0.04517,,,,,,,,,,,,,,,,,,,,,,,,,,0,0,0,0,0
4.5779,1783189383.9403,1,1,1.0000,0.0000,1.44682,0.22805,-2.77881,0.97993,1.57080,0.00000,-0.14512,-0.38003,0.04517,,,,,,,,,,,,,,,,,,,,,,,,,,0,0,0,0,0
4.5828,1783189383.9452,1,1,1.0000,0.0000,1.44682,0.22804,-2.77881,0.97994,1.57080,0.00000,-0.14512,-0.38003,0.04516,,,,,,,,,,,,,,,,,,,,,,,,,,0,0,0,0,0
4.5938,1783189383.9562,1,1,1.0000,0.0000,1.44682,0.22802,-2.77882,0.97997,1.57080,0.00000,-0.14512,-0.38003,0.04516,,,,,,,,,,,,,,,,,,,,,,,,,,0,0,0,0,0
4.6046,1783189383.9670,1,1,1.0000,0.0000,1.44682,0.22801,-2.77882,0.97998,1.57080,0.00000,-0.14512,-0.38003,0.04516,,,,,,,,,,,,,,,,,,,,,,,,,,0,0,0,0,0
4.6151,1783189383.9774,1,1,1.0000,0.0000,1.44682,0.22800,-2.77883,0.97999,1.57080,0.00000,-0.14512,-0.38003,0.04515,,,,,,,,,,,,,,,,,,,,,,,,,,0,0,0,0,0
4.6237,1783189383.9860,1,1,1.0000,0.0000,1.44682,0.22799,-2.77883,0.98001,1.57080,0.00000,-0.14512,-0.38003,0.04515,,,,,,,,,,,,,,,,,,,,,,,,,,0,0,0,0,0
4.6240,1783189383.9863,1,1,1.0000,0.0000,1.44682,0.22799,-2.77883,0.98001,1.57080,0.00000,-0.14512,-0.38003,0.04515,,,,,,,,,,,,,,,,,,,,,,,,,,0,0,0,0,0
4.6389,1783189384.0013,1,1,1.0000,0.0000,1.44682,0.22798,-2.77883,0.98002,1.57080,0.00000,-0.14512,-0.38003,0.04515,,,,,,,,,,,,,,,,,,,,,,,,,,0,0,0,0,0
4.6428,1783189384.0051,1,1,1.0000,0.0000,1.44682,0.22797,-2.77883,0.98003,1.57080,0.00000,-0.14512,-0.38003,0.04515,,,,,,,,,,,,,,,,,,,,,,,,,,0,0,0,0,0
4.6596,1783189384.0220,1,1,1.0000,0.0000,1.44682,0.22794,-2.77884,0.98008,1.57080,0.00000,-0.14512,-0.38003,0.04514,,,,,,,,,,,,,,,,,,,,,,,,,,0,0,0,0,0
4.6646,1783189384.0270,1,1,1.0000,0.0000,1.44682,0.22794,-2.77884,0.98008,1.57080,0.00000,-0.14512,-0.38003,0.04514,,,,,,,,,,,,,,,,,,,,,,,,,,0,0,0,0,0
4.6805,1783189384.0428,1,1,1.0000,0.0000,1.44682,0.22792,-2.77885,0.98009,1.57080,0.00000,-0.14512,-0.38003,0.04513,,,,,,,,,,,,,,,,,,,,,,,,,,0,0,0,0,0
4.6837,1783189384.0460,1,1,1.0000,0.0000,1.44682,0.22791,-2.77885,0.98010,1.57080,0.00000,-0.14512,-0.38003,0.04513,,,,,,,,,,,,,,,,,,,,,,,,,,0,0,0,0,0
4.6839,1783189384.0463,1,1,1.0000,0.0000,1.44682,0.22791,-2.77885,0.98010,1.57080,0.00000,-0.14512,-0.38003,0.04513,,,,,,,,,,,,,,,,,,,,,,,,,,0,0,0,0,0
4.6843,1783189384.0467,1,1,1.0000,0.0000,1.44682,0.22791,-2.77885,0.98010,1.57080,0.00000,-0.14512,-0.38003,0.04513,,,,,,,,,,,,,,,,,,,,,,,,,,0,0,0,0,0
4.6928,1783189384.0551,1,1,1.0000,0.0000,1.44682,0.22791,-2.77885,0.98011,1.57080,0.00000,-0.14512,-0.38003,0.04513,,,,,,,,,,,,,,,,,,,,,,,,,,0,0,0,0,0
4.7031,1783189384.0655,1,1,1.0000,0.0000,1.44682,0.22789,-2.77885,0.98013,1.57080,0.00000,-0.14512,-0.38003,0.04513,,,,,,,,,,,,,,,,,,,,,,,,,,0,0,0,0,0
4.7151,1783189384.0775,1,1,1.0000,0.0000,1.44682,0.22787,-2.77886,0.98016,1.57080,0.00000,-0.14512,-0.38003,0.04512,,,,,,,,,,,,,,,,,,,,,,,,,,0,0,0,0,0
4.7259,1783189384.0883,1,1,1.0000,0.0000,1.44682,0.22786,-2.77886,0.98017,1.57080,0.00000,-0.14512,-0.38003,0.04512,,,,,,,,,,,,,,,,,,,,,,,,,,0,0,0,0,0
4.7263,1783189384.0887,1,1,1.0000,0.0000,1.44682,0.22786,-2.77886,0.98017,1.57080,0.00000,-0.14512,-0.38003,0.04512,,,,,,,,,,,,,,,,,,,,,,,,,,0,0,0,0,0
4.7330,1783189384.0953,1,1,1.0000,0.0000,1.44682,0.22786,-2.77886,0.98018,1.57080,0.00000,-0.14512,-0.38003,0.04512,,,,,,,,,,,,,,,,,,,,,,,,,,0,0,0,0,0
4.7429,1783189384.1052,1,1,1.0000,0.0000,1.44682,0.22783,-2.77887,0.98020,1.57080,0.00000,-0.14512,-0.38003,0.04511,,,,,,,,,,,,,,,,,,,,,,,,,,0,0,0,0,0
4.7577,1783189384.1201,1,1,1.0000,0.0000,1.44682,0.22782,-2.77887,0.98022,1.57080,0.00000,-0.14512,-0.38003,0.04511,,,,,,,,,,,,,,,,,,,,,,,,,,0,0,0,0,0
4.7634,1783189384.1257,1,1,1.0000,0.0000,1.44682,0.22781,-2.77887,0.98023,1.57080,0.00000,-0.14512,-0.38003,0.04510,,,,,,,,,,,,,,,,,,,,,,,,,,0,0,0,0,0
4.7636,1783189384.1260,1,1,1.0000,0.0000,1.44682,0.22781,-2.77887,0.98023,1.57080,0.00000,-0.14512,-0.38003,0.04510,,,,,,,,,,,,,,,,,,,,,,,,,,0,0,0,0,0
4.7839,1783189384.1463,1,1,1.0000,0.0000,1.44682,0.22778,-2.77888,0.98027,1.57080,0.00000,-0.14512,-0.38003,0.04510,,,,,,,,,,,,,,,,,,,,,,,,,,0,0,0,0,0
4.7843,1783189384.1467,1,1,1.0000,0.0000,1.44682,0.22778,-2.77888,0.98027,1.57080,0.00000,-0.14512,-0.38003,0.04510,,,,,,,,,,,,,,,,,,,,,,,,,,0,0,0,0,0
4.7846,1783189384.1470,1,1,1.0000,0.0000,1.44682,0.22778,-2.77888,0.98027,1.57080,0.00000,-0.14512,-0.38003,0.04510,,,,,,,,,,,,,,,,,,,,,,,,,,0,0,0,0,0
4.7928,1783189384.1552,1,1,1.0000,0.0000,1.44682,0.22777,-2.77888,0.98028,1.57080,0.00000,-0.14512,-0.38003,0.04509,,,,,,,,,,,,,,,,,,,,,,,,,,0,0,0,0,0
4.8057,1783189384.1680,1,1,1.0000,0.0000,1.44682,0.22774,-2.77889,0.98032,1.57080,0.00000,-0.14512,-0.38003,0.04509,,,,,,,,,,,,,,,,,,,,,,,,,,0,0,0,0,0
4.8128,1783189384.1752,1,1,1.0000,0.0000,1.44682,0.22774,-2.77889,0.98032,1.57080,0.00000,-0.14512,-0.38003,0.04509,,,,,,,,,,,,,,,,,,,,,,,,,,0,0,0,0,0
4.8132,1783189384.1755,1,1,1.0000,0.0000,1.44682,0.22774,-2.77889,0.98032,1.57080,0.00000,-0.14512,-0.38003,0.04509,,,,,,,,,,,,,,,,,,,,,,,,,,0,0,0,0,0
4.8378,1783189384.2002,1,1,1.0000,0.0000,1.44682,0.22770,-2.77890,0.98037,1.57080,0.00000,-0.14512,-0.38003,0.04507,,,,,,,,,,,,,,,,,,,,,,,,,,0,0,0,0,0
4.8382,1783189384.2006,1,1,1.0000,0.0000,1.44682,0.22770,-2.77890,0.98037,1.57080,0.00000,-0.14512,-0.38003,0.04507,,,,,,,,,,,,,,,,,,,,,,,,,,0,0,0,0,0
4.8473,1783189384.2097,1,1,1.0000,0.0000,1.44682,0.22770,-2.77890,0.98037,1.57080,0.00000,-0.14512,-0.38003,0.04507,,,,,,,,,,,,,,,,,,,,,,,,,,0,0,0,0,0
4.8477,1783189384.2101,1,1,1.0000,0.0000,1.44682,0.22770,-2.77890,0.98037,1.57080,0.00000,-0.14512,-0.38003,0.04507,,,,,,,,,,,,,,,,,,,,,,,,,,0,0,0,0,0
4.8558,1783189384.2182,1,1,1.0000,0.0000,1.44682,0.22769,-2.77891,0.98039,1.57080,0.00000,-0.14512,-0.38003,0.04507,,,,,,,,,,,,,,,,,,,,,,,,,,0,0,0,0,0
4.8673,1783189384.2297,1,1,1.0000,0.0000,1.44682,0.22766,-2.77891,0.98042,1.57080,0.00000,-0.14512,-0.38003,0.04507,,,,,,,,,,,,,,,,,,,,,,,,,,0,0,0,0,0
4.8677,1783189384.2300,1,1,1.0000,0.0000,1.44682,0.22766,-2.77891,0.98042,1.57080,0.00000,-0.14512,-0.38003,0.04507,,,,,,,,,,,,,,,,,,,,,,,,,,0,0,0,0,0
4.8741,1783189384.2365,1,1,1.0000,0.0000,1.44682,0.22766,-2.77891,0.98042,1.57080,0.00000,-0.14512,-0.38003,0.04506,,,,,,,,,,,,,,,,,,,,,,,,,,0,0,0,0,0
4.8861,1783189384.2485,1,1,1.0000,0.0000,1.44682,0.22764,-2.77892,0.98044,1.57080,0.00000,-0.14512,-0.38003,0.04506,,,,,,,,,,,,,,,,,,,,,,,,,,0,0,0,0,0
4.8965,1783189384.2589,1,1,1.0000,0.0000,1.44682,0.22763,-2.77892,0.98046,1.57080,0.00000,-0.14512,-0.38003,0.04506,,,,,,,,,,,,,,,,,,,,,,,,,,0,0,0,0,0
4.8969,1783189384.2593,1,1,1.0000,0.0000,1.44682,0.22763,-2.77892,0.98046,1.57080,0.00000,-0.14512,-0.38003,0.04506,,,,,,,,,,,,,,,,,,,,,,,,,,0,0,0,0,0
4.9029,1783189384.2653,1,1,1.0000,0.0000,1.44682,0.22762,-2.77892,0.98048,1.57080,0.00000,-0.14512,-0.38003,0.04505,,,,,,,,,,,,,,,,,,,,,,,,,,0,0,0,0,0
4.9138,1783189384.2761,1,1,1.0000,0.0000,1.44682,0.22760,-2.77893,0.98049,1.57080,0.00000,-0.14512,-0.38003,0.04505,,,,,,,,,,,,,,,,,,,,,,,,,,0,0,0,0,0
4.9300,1783189384.2924,1,1,1.0000,0.0000,1.44682,0.22757,-2.77893,0.98053,1.57080,0.00000,-0.14512,-0.38003,0.04504,,,,,,,,,,,,,,,,,,,,,,,,,,0,0,0,0,0
4.9304,1783189384.2927,1,1,1.0000,0.0000,1.44682,0.22757,-2.77893,0.98053,1.57080,0.00000,-0.14512,-0.38003,0.04504,,,,,,,,,,,,,,,,,,,,,,,,,,0,0,0,0,0
4.9340,1783189384.2964,1,1,1.0000,0.0000,1.44682,0.22757,-2.77893,0.98053,1.57080,0.00000,-0.14512,-0.38003,0.04504,,,,,,,,,,,,,,,,,,,,,,,,,,0,0,0,0,0
4.9343,1783189384.2967,1,1,1.0000,0.0000,1.44682,0.22757,-2.77893,0.98053,1.57080,0.00000,-0.14512,-0.38003,0.04504,,,,,,,,,,,,,,,,,,,,,,,,,,0,0,0,0,0
4.9456,1783189384.3079,1,1,1.0000,0.0000,1.44682,0.22756,-2.77894,0.98054,1.57080,0.00000,-0.14512,-0.38003,0.04504,,,,,,,,,,,,,,,,,,,,,,,,,,0,0,0,0,0
4.9546,1783189384.3169,1,1,1.0000,0.0000,1.44682,0.22755,-2.77894,0.98056,1.57080,0.00000,-0.14512,-0.38003,0.04504,,,,,,,,,,,,,,,,,,,,,,,,,,0,0,0,0,0
4.9666,1783189384.3290,1,1,1.0000,0.0000,1.44682,0.22754,-2.77894,0.98057,1.57080,0.00000,-0.14512,-0.38003,0.04503,,,,,,,,,,,,,,,,,,,,,,,,,,0,0,0,0,0
4.9872,1783189384.3496,1,1,1.0000,0.0000,1.44682,0.22751,-2.77895,0.98061,1.57080,0.00000,-0.14512,-0.38003,0.04502,,,,,,,,,,,,,,,,,,,,,,,,,,0,0,0,0,0
4.9876,1783189384.3500,1,1,1.0000,0.0000,1.44682,0.22751,-2.77895,0.98061,1.57080,0.00000,-0.14512,-0.38003,0.04502,,,,,,,,,,,,,,,,,,,,,,,,,,0,0,0,0,0
4.9932,1783189384.3555,1,1,1.0000,0.0000,1.44682,0.22750,-2.77895,0.98063,1.57080,0.00000,-0.14512,-0.38003,0.04502,,,,,,,,,,,,,,,,,,,,,,,,,,0,0,0,0,0
4.9939,1783189384.3562,1,1,1.0000,0.0000,1.44682,0.22750,-2.77895,0.98063,1.57080,0.00000,-0.14512,-0.38003,0.04502,,,,,,,,,,,,,,,,,,,,,,,,,,0,0,0,0,0
5.0049,1783189384.3673,1,1,1.0000,0.0000,1.44682,0.22749,-2.77895,0.98063,1.57080,0.00000,-0.14512,-0.38003,0.04502,,,,,,,,,,,,,,,,,,,,,,,,,,0,0,0,0,0
5.0178,1783189384.3802,1,1,1.0000,0.0000,1.44682,0.22747,-2.77896,0.98066,1.57080,0.00000,-0.14512,-0.38003,0.04502,,,,,,,,,,,,,,,,,,,,,,,,,,0,0,0,0,0
5.0247,1783189384.3870,1,1,1.0000,0.0000,1.44682,0.22747,-2.77896,0.98066,1.57080,0.00000,-0.14512,-0.38003,0.04502,,,,,,,,,,,,,,,,,,,,,,,,,,0,0,0,0,0
5.0381,1783189384.4005,1,1,1.0000,0.0000,1.44682,0.22745,-2.77897,0.98069,1.57080,0.00000,-0.14512,-0.38003,0.04501,,,,,,,,,,,,,,,,,,,,,,,,,,0,0,0,0,0
5.0384,1783189384.4007,1,1,1.0000,0.0000,1.44682,0.22745,-2.77897,0.98069,1.57080,0.00000,-0.14512,-0.38003,0.04501,,,,,,,,,,,,,,,,,,,,,,,,,,0,0,0,0,0
5.0474,1783189384.4098,1,1,1.0000,0.0000,1.44682,0.22743,-2.77897,0.98071,1.57080,0.00000,-0.14512,-0.38003,0.04501,,,,,,,,,,,,,,,,,,,,,,,,,,0,0,0,0,0
5.0530,1783189384.4154,1,1,1.0000,0.0000,1.44682,0.22742,-2.77897,0.98072,1.57080,0.00000,-0.14512,-0.38003,0.04500,,,,,,,,,,,,,,,,,,,,,,,,,,0,0,0,0,0
5.0627,1783189384.4251,1,1,1.0000,0.0000,1.44682,0.22742,-2.77897,0.98072,1.57080,0.00000,-0.14512,-0.38003,0.04500,,,,,,,,,,,,,,,,,,,,,,,,,,0,0,0,0,0
5.0730,1783189384.4354,1,1,1.0000,0.0000,1.44682,0.22741,-2.77898,0.98074,1.57080,0.00000,-0.14512,-0.38003,0.04500,,,,,,,,,,,,,,,,,,,,,,,,,,0,0,0,0,0
5.0911,1783189384.4534,1,1,1.0000,0.0000,1.44682,0.22739,-2.77898,0.98076,1.57080,0.00000,-0.14512,-0.38003,0.04499,,,,,,,,,,,,,,,,,,,,,,,,,,0,0,0,0,0
5.0947,1783189384.4571,1,1,1.0000,0.0000,1.44682,0.22738,-2.77898,0.98077,1.57080,0.00000,-0.14512,-0.38003,0.04499,,,,,,,,,,,,,,,,,,,,,,,,,,0,0,0,0,0
5.1032,1783189384.4656,1,1,1.0000,0.0000,1.44682,0.22736,-2.77899,0.98079,1.57080,0.00000,-0.14512,-0.38003,0.04499,,,,,,,,,,,,,,,,,,,,,,,,,,0,0,0,0,0
5.1141,1783189384.4765,1,1,1.0000,0.0000,1.44682,0.22735,-2.77899,0.98081,1.57080,0.00000,-0.14512,-0.38003,0.04498,,,,,,,,,,,,,,,,,,,,,,,,,,0,0,0,0,0
5.1247,1783189384.4871,1,1,1.0000,0.0000,1.44682,0.22734,-2.77899,0.98082,1.57080,0.00000,-0.14512,-0.38003,0.04498,,,,,,,,,,,,,,,,,,,,,,,,,,0,0,0,0,0
5.1358,1783189384.4981,1,1,1.0000,0.0000,1.44682,0.22733,-2.77900,0.98084,1.57080,0.00000,-0.14512,-0.38003,0.04498,,,,,,,,,,,,,,,,,,,,,,,,,,0,0,0,0,0
5.1480,1783189384.5104,1,1,1.0000,0.0000,1.44682,0.22732,-2.77900,0.98085,1.57080,0.00000,-0.14512,-0.38003,0.04498,,,,,,,,,,,,,,,,,,,,,,,,,,0,0,0,0,0
5.1530,1783189384.5153,1,1,1.0000,0.0000,1.44682,0.22731,-2.77900,0.98086,1.57080,0.00000,-0.14512,-0.38003,0.04497,,,,,,,,,,,,,,,,,,,,,,,,,,0,0,0,0,0
5.1534,1783189384.5157,1,1,1.0000,0.0000,1.44682,0.22731,-2.77900,0.98086,1.57080,0.00000,-0.14512,-0.38003,0.04497,,,,,,,,,,,,,,,,,,,,,,,,,,0,0,0,0,0
5.1691,1783189384.5315,1,1,1.0000,0.0000,1.44682,0.22728,-2.77901,0.98090,1.57080,0.00000,-0.14512,-0.38003,0.04497,,,,,,,,,,,,,,,,,,,,,,,,,,0,0,0,0,0
5.1737,1783189384.5361,1,1,1.0000,0.0000,1.44682,0.22727,-2.77901,0.98091,1.57080,0.00000,-0.14512,-0.38003,0.04496,,,,,,,,,,,,,,,,,,,,,,,,,,0,0,0,0,0
5.1742,1783189384.5365,1,1,1.0000,0.0000,1.44682,0.22727,-2.77901,0.98091,1.57080,0.00000,-0.14512,-0.38003,0.04496,,,,,,,,,,,,,,,,,,,,,,,,,,0,0,0,0,0
5.1957,1783189384.5581,1,1,1.0000,0.0000,1.44682,0.22725,-2.77902,0.98093,1.57080,0.00000,-0.14512,-0.38003,0.04496,,,,,,,,,,,,,,,,,,,,,,,,,,0,0,0,0,0
5.1962,1783189384.5586,1,1,1.0000,0.0000,1.44682,0.22725,-2.77902,0.98093,1.57080,0.00000,-0.14512,-0.38003,0.04496,,,,,,,,,,,,,,,,,,,,,,,,,,0,0,0,0,0
5.2032,1783189384.5655,1,1,1.0000,0.0000,1.44682,0.22724,-2.77902,0.98094,1.57080,0.00000,-0.14512,-0.38003,0.04496,,,,,,,,,,,,,,,,,,,,,,,,,,0,0,0,0,0
5.2178,1783189384.5801,1,1,1.0000,0.0000,1.44682,0.22722,-2.77902,0.98097,1.57080,0.00000,-0.14512,-0.38003,0.04495,,,,,,,,,,,,,,,,,,,,,,,,,,0,0,0,0,0
5.2279,1783189384.5903,1,1,1.0000,0.0000,1.44682,0.22721,-2.77903,0.98099,1.57080,0.00000,-0.14512,-0.38003,0.04495,,,,,,,,,,,,,,,,,,,,,,,,,,0,0,0,0,0
5.2380,1783189384.6003,1,1,1.0000,0.0000,1.44682,0.22720,-2.77903,0.98100,1.57080,0.00000,-0.14512,-0.38003,0.04494,,,,,,,,,,,,,,,,,,,,,,,,,,0,0,0,0,0
5.2437,1783189384.6061,1,1,1.0000,0.0000,1.44682,0.22719,-2.77903,0.98101,1.57080,0.00000,-0.14512,-0.38003,0.04494,,,,,,,,,,,,,,,,,,,,,,,,,,0,0,0,0,0
5.2441,1783189384.6064,1,1,1.0000,0.0000,1.44682,0.22719,-2.77903,0.98101,1.57080,0.00000,-0.14512,-0.38003,0.04494,,,,,,,,,,,,,,,,,,,,,,,,,,0,0,0,0,0
5.2562,1783189384.6185,1,1,1.0000,0.0000,1.44682,0.22718,-2.77903,0.98103,1.57080,0.00000,-0.14512,-0.38003,0.04494,,,,,,,,,,,,,,,,,,,,,,,,,,0,0,0,0,0
5.2565,1783189384.6188,1,1,1.0000,0.0000,1.44682,0.22718,-2.77903,0.98103,1.57080,0.00000,-0.14512,-0.38003,0.04494,,,,,,,,,,,,,,,,,,,,,,,,,,0,0,0,0,0
5.2657,1783189384.6280,1,1,1.0000,0.0000,1.44682,0.22717,-2.77904,0.98104,1.57080,0.00000,-0.14512,-0.38003,0.04494,,,,,,,,,,,,,,,,,,,,,,,,,,0,0,0,0,0
5.2659,1783189384.6283,1,1,1.0000,0.0000,1.44682,0.22717,-2.77904,0.98104,1.57080,0.00000,-0.14512,-0.38003,0.04494,,,,,,,,,,,,,,,,,,,,,,,,,,0,0,0,0,0
5.2726,1783189384.6350,1,1,1.0000,0.0000,1.44682,0.22716,-2.77904,0.98104,1.57080,0.00000,-0.14512,-0.38003,0.04494,,,,,,,,,,,,,,,,,,,,,,,,,,0,0,0,0,0
5.2732,1783189384.6355,1,1,1.0000,0.0000,1.44682,0.22716,-2.77904,0.98104,1.57080,0.00000,-0.14512,-0.38003,0.04494,,,,,,,,,,,,,,,,,,,,,,,,,,0,0,0,0,0
5.2828,1783189384.6452,1,1,1.0000,0.0000,1.44682,0.22714,-2.77904,0.98107,1.57080,0.00000,-0.14512,-0.38003,0.04493,,,,,,,,,,,,,,,,,,,,,,,,,,0,0,0,0,0
5.2989,1783189384.6613,1,1,1.0000,0.0000,1.44682,0.22712,-2.77905,0.98110,1.57080,0.00000,-0.14512,-0.38003,0.04493,,,,,,,,,,,,,,,,,,,,,,,,,,0,0,0,0,0
5.3042,1783189384.6666,1,1,1.0000,0.0000,1.44682,0.22712,-2.77905,0.98110,1.57080,0.00000,-0.14512,-0.38003,0.04492,,,,,,,,,,,,,,,,,,,,,,,,,,0,0,0,0,0
5.3045,1783189384.6669,1,1,1.0000,0.0000,1.44682,0.22712,-2.77905,0.98110,1.57080,0.00000,-0.14512,-0.38003,0.04492,,,,,,,,,,,,,,,,,,,,,,,,,,0,0,0,0,0
5.3140,1783189384.6764,1,1,1.0000,0.0000,1.44682,0.22710,-2.77905,0.98112,1.57080,0.00000,-0.14512,-0.38003,0.04492,,,,,,,,,,,,,,,,,,,,,,,,,,0,0,0,0,0
5.3145,1783189384.6768,1,1,1.0000,0.0000,1.44682,0.22710,-2.77905,0.98112,1.57080,0.00000,-0.14512,-0.38003,0.04492,,,,,,,,,,,,,,,,,,,,,,,,,,0,0,0,0,0
