Martins-Lucaas/twinforge/sensors/Data/20260713_171323__samples.csv
t_rel_s,t_unix,cycle,phase,setpoint_n,force_net_n,q1,q2,q3,q4,q5,q6,tcp_x,tcp_y,tcp_z,taxel_0,taxel_1,taxel_2,taxel_3,taxel_4,taxel_5,taxel_6,taxel_7,taxel_8,taxel_9,taxel_10,taxel_11,taxel_12,taxel_13,taxel_14,taxel_15,taxel_16,taxel_17,taxel_18,taxel_19,taxel_20,taxel_21,taxel_22,taxel_23,taxel_24,n_RA,n_SA,cn_mm,cn_ra,cn_sa
0.0011,1783973603.5046,0,-1,0.5000,-0.0000,1.42244,0.00070,-2.63055,1.05908,1.57083,0.11673,-0.12763,-0.48151,0.03737,,,,,,,,,,,,,,,,,,,,,,,,,,0,0,0,0,0
0.0016,1783973603.5051,0,-1,0.5000,-0.0000,1.42244,0.00070,-2.63055,1.05908,1.57083,0.11673,-0.12763,-0.48151,0.03737,,,,,,,,,,,,,,,,,,,,,,,,,,0,0,0,0,0
0.0044,1783973603.5079,1,0,0.5000,-0.0000,1.42244,0.00070,-2.63055,1.05908,1.57083,0.11673,-0.12763,-0.48151,0.03737,,,,,,,,,,,,,,,,,,,,,,,,,,0,0,0,0,0
0.0116,1783973603.5151,1,0,0.5000,-0.0000,1.42244,0.00070,-2.63055,1.05908,1.57083,0.11673,-0.12763,-0.48151,0.03737,,,,,,,,,,,,,,,,,,,,,,,,,,0,0,0,0,0
0.0118,1783973603.5153,1,0,0.5000,-0.0000,1.42244,0.00070,-2.63055,1.05908,1.57083,0.11673,-0.12763,-0.48151,0.03737,,,,,,,,,,,,,,,,,,,,,,,,,,0,0,0,0,0
0.0238,1783973603.5273,1,0,0.5000,-0.0000,1.42244,0.00070,-2.63055,1.05908,1.57083,0.11673,-0.12763,-0.48151,0.03737,,,,,,,,,,,,,,,,,,,,,,,,,,0,0,0,0,0
0.0241,1783973603.5276,1,0,0.5000,-0.0000,1.42244,0.00070,-2.63055,1.05908,1.57083,0.11673,-0.12763,-0.48151,0.03737,,,,,,,,,,,,,,,,,,,,,,,,,,0,0,0,0,0
0.0344,1783973603.5379,1,0,0.5000,-0.0000,1.42244,0.00070,-2.63054,1.05908,1.57083,0.11673,-0.12763,-0.48151,0.03737,,,,,,,,,,,,,,,,,,,,,,,,,,0,0,0,0,0
0.0496,1783973603.5531,1,0,0.5000,-0.0000,1.42244,0.00070,-2.63054,1.05908,1.57082,0.11674,-0.12763,-0.48152,0.03738,,,,,,,,,,,,,,,,,,,,,,,,,,0,0,0,0,0
0.0546,1783973603.5581,1,0,0.5000,-0.0000,1.42244,0.00071,-2.63054,1.05907,1.57081,0.11674,-0.12763,-0.48152,0.03738,,,,,,,,,,,,,,,,,,,,,,,,,,0,0,0,0,0
0.0552,1783973603.5587,1,0,0.5000,-0.0000,1.42244,0.00071,-2.63054,1.05907,1.57081,0.11674,-0.12763,-0.48152,0.03738,,,,,,,,,,,,,,,,,,,,,,,,,,0,0,0,0,0
0.0586,1783973603.5621,1,0,0.5000,-0.0000,1.42244,0.00071,-2.63054,1.05907,1.57081,0.11674,-0.12763,-0.48152,0.03738,,,,,,,,,,,,,,,,,,,,,,,,,,0,0,0,0,0
0.0867,1783973603.5902,1,0,0.5000,-0.0000,1.42244,0.00071,-2.63053,1.05907,1.57080,0.11675,-0.12764,-0.48152,0.03738,,,,,,,,,,,,,,,,,,,,,,,,,,0,0,0,0,0
0.0869,1783973603.5904,1,0,0.5000,-0.0000,1.42244,0.00071,-2.63053,1.05907,1.57080,0.11675,-0.12764,-0.48152,0.03738,,,,,,,,,,,,,,,,,,,,,,,,,,0,0,0,0,0
0.0931,1783973603.5966,1,0,0.5000,-0.0000,1.42244,0.00071,-2.63053,1.05907,1.57080,0.11675,-0.12764,-0.48152,0.03738,,,,,,,,,,,,,,,,,,,,,,,,,,0,0,0,0,0
0.0999,1783973603.6034,1,0,0.5000,-0.0000,1.42244,0.00071,-2.63053,1.05907,1.57080,0.11675,-0.12764,-0.48152,0.03738,,,,,,,,,,,,,,,,,,,,,,,,,,0,0,0,0,0
0.1108,1783973603.6143,1,0,0.5000,-0.0000,1.42244,0.00071,-2.63053,1.05907,1.57080,0.11675,-0.12764,-0.48152,0.03738,,,,,,,,,,,,,,,,,,,,,,,,,,0,0,0,0,0
0.1257,1783973603.6292,1,0,0.5000,-0.0000,1.42244,0.00071,-2.63053,1.05907,1.57080,0.11675,-0.12764,-0.48152,0.03738,,,,,,,,,,,,,,,,,,,,,,,,,,0,0,0,0,0
0.1506,1783973603.6541,1,0,0.5000,-0.0000,1.42244,0.00071,-2.63053,1.05907,1.57080,0.11675,-0.12764,-0.48152,0.03738,,,,,,,,,,,,,,,,,,,,,,,,,,0,0,0,0,0
0.1510,1783973603.6545,1,0,0.5000,-0.0000,1.42244,0.00071,-2.63053,1.05907,1.57080,0.11675,-0.12764,-0.48152,0.03738,,,,,,,,,,,,,,,,,,,,,,,,,,0,0,0,0,0
0.1518,1783973603.6553,1,0,0.5000,-0.0000,1.42244,0.00071,-2.63053,1.05907,1.57080,0.11675,-0.12764,-0.48152,0.03738,,,,,,,,,,,,,,,,,,,,,,,,,,0,0,0,0,0
0.1522,1783973603.6557,1,0,0.5000,-0.0000,1.42244,0.00071,-2.63053,1.05907,1.57080,0.11675,-0.12764,-0.48152,0.03738,,,,,,,,,,,,,,,,,,,,,,,,,,0,0,0,0,0
0.1598,1783973603.6633,1,0,0.5000,-0.0000,1.42244,0.00071,-2.63053,1.05907,1.57080,0.11675,-0.12764,-0.48152,0.03738,,,,,,,,,,,,,,,,,,,,,,,,,,0,0,0,0,0
0.1728,1783973603.6763,1,0,0.5000,-0.0000,1.42244,0.00071,-2.63053,1.05907,1.57080,0.11675,-0.12764,-0.48152,0.03738,,,,,,,,,,,,,,,,,,,,,,,,,,0,0,0,0,0
0.1965,1783973603.7000,1,0,0.5000,-0.0000,1.42244,0.00071,-2.63053,1.05907,1.57080,0.11675,-0.12764,-0.48152,0.03738,,,,,,,,,,,,,,,,,,,,,,,,,,0,0,0,0,0
0.1969,1783973603.7004,1,0,0.5000,-0.0000,1.42244,0.00071,-2.63053,1.05907,1.57080,0.11675,-0.12764,-0.48152,0.03738,,,,,,,,,,,,,,,,,,,,,,,,,,0,0,0,0,0
0.2070,1783973603.7105,1,0,0.5000,-0.0000,1.42244,0.00071,-2.63053,1.05907,1.57080,0.11675,-0.12764,-0.48152,0.03738,,,,,,,,,,,,,,,,,,,,,,,,,,0,0,0,0,0
0.2156,1783973603.7191,1,0,0.5000,-0.0000,1.42244,0.00071,-2.63053,1.05907,1.57080,0.11675,-0.12764,-0.48152,0.03738,,,,,,,,,,,,,,,,,,,,,,,,,,0,0,0,0,0
0.2252,1783973603.7287,1,0,0.5000,-0.0000,1.42244,0.00071,-2.63053,1.05907,1.57080,0.11675,-0.12764,-0.48152,0.03738,,,,,,,,,,,,,,,,,,,,,,,,,,0,0,0,0,0
0.2551,1783973603.7586,1,0,0.5000,-0.0000,1.42244,0.00071,-2.63053,1.05907,1.57080,0.11675,-0.12764,-0.48152,0.03738,,,,,,,,,,,,,,,,,,,,,,,,,,0,0,0,0,0
0.2730,1783973603.7765,1,0,0.5000,-0.0000,1.42244,0.00071,-2.63053,1.05907,1.57080,0.11675,-0.12764,-0.48152,0.03738,,,,,,,,,,,,,,,,,,,,,,,,,,0,0,0,0,0
0.2733,1783973603.7768,1,0,0.5000,-0.0000,1.42244,0.00071,-2.63053,1.05907,1.57080,0.11675,-0.12764,-0.48152,0.03738,,,,,,,,,,,,,,,,,,,,,,,,,,0,0,0,0,0
0.2749,1783973603.7784,1,0,0.5000,-0.0000,1.42244,0.00071,-2.63053,1.05907,1.57080,0.11675,-0.12764,-0.48152,0.03738,,,,,,,,,,,,,,,,,,,,,,,,,,0,0,0,0,0
0.2848,1783973603.7883,1,0,0.5000,-0.0000,1.42244,0.00071,-2.63053,1.05907,1.57080,0.11675,-0.12764,-0.48152,0.03738,,,,,,,,,,,,,,,,,,,,,,,,,,0,0,0,0,0
0.3138,1783973603.8173,1,0,0.5000,-0.0000,1.42244,0.00071,-2.63053,1.05907,1.57080,0.11675,-0.12764,-0.48152,0.03738,,,,,,,,,,,,,,,,,,,,,,,,,,0,0,0,0,0
0.3148,1783973603.8183,1,0,0.5000,-0.0000,1.42244,0.00071,-2.63053,1.05907,1.57080,0.11675,-0.12764,-0.48152,0.03738,,,,,,,,,,,,,,,,,,,,,,,,,,0,0,0,0,0
0.3196,1783973603.8231,1,0,0.5000,-0.0000,1.42244,0.00071,-2.63053,1.05907,1.57080,0.11675,-0.12764,-0.48152,0.03738,,,,,,,,,,,,,,,,,,,,,,,,,,0,0,0,0,0
0.3508,1783973603.8543,1,0,0.5000,-0.0000,1.42244,0.00071,-2.63053,1.05907,1.57080,0.11675,-0.12764,-0.48152,0.03738,,,,,,,,,,,,,,,,,,,,,,,,,,0,0,0,0,0
0.3639,1783973603.8674,1,0,0.5000,-0.0000,1.42244,0.00071,-2.63053,1.05907,1.57080,0.11675,-0.12764,-0.48152,0.03738,,,,,,,,,,,,,,,,,,,,,,,,,,0,0,0,0,0
0.3643,1783973603.8678,1,0,0.5000,-0.0000,1.42244,0.00071,-2.63053,1.05907,1.57080,0.11675,-0.12764,-0.48152,0.03738,,,,,,,,,,,,,,,,,,,,,,,,,,0,0,0,0,0
0.3928,1783973603.8963,1,0,0.5000,-0.0000,1.42244,0.00071,-2.63053,1.05907,1.57080,0.11675,-0.12764,-0.48152,0.03738,,,,,,,,,,,,,,,,,,,,,,,,,,0,0,0,0,0
0.3932,1783973603.8967,1,0,0.5000,-0.0000,1.42244,0.00071,-2.63053,1.05907,1.57080,0.11675,-0.12764,-0.48152,0.03738,,,,,,,,,,,,,,,,,,,,,,,,,,0,0,0,0,0
0.3935,1783973603.8970,1,0,0.5000,-0.0000,1.42244,0.00071,-2.63053,1.05907,1.57080,0.11675,-0.12764,-0.48152,0.03738,,,,,,,,,,,,,,,,,,,,,,,,,,0,0,0,0,0
0.4044,1783973603.9079,1,0,0.5000,-0.0000,1.42244,0.00071,-2.63053,1.05907,1.57080,0.11675,-0.12764,-0.48152,0.03738,,,,,,,,,,,,,,,,,,,,,,,,,,0,0,0,0,0
0.4048,1783973603.9083,1,0,0.5000,-0.0000,1.42244,0.00071,-2.63053,1.05907,1.57080,0.11675,-0.12764,-0.48152,0.03738,,,,,,,,,,,,,,,,,,,,,,,,,,0,0,0,0,0
0.4162,1783973603.9197,1,0,0.5000,-0.0000,1.42244,0.00071,-2.63053,1.05907,1.57080,0.11675,-0.12764,-0.48152,0.03738,,,,,,,,,,,,,,,,,,,,,,,,,,0,0,0,0,0
0.4506,1783973603.9541,1,0,0.5000,-0.0000,1.42244,0.00071,-2.63053,1.05907,1.57080,0.11675,-0.12764,-0.48152,0.03738,,,,,,,,,,,,,,,,,,,,,,,,,,0,0,0,0,0
0.4509,1783973603.9544,1,0,0.5000,-0.0000,1.42244,0.00071,-2.63053,1.05907,1.57080,0.11675,-0.12764,-0.48152,0.03738,,,,,,,,,,,,,,,,,,,,,,,,,,0,0,0,0,0
0.4512,1783973603.9547,1,0,0.5000,-0.0000,1.42244,0.00071,-2.63053,1.05907,1.57080,0.11675,-0.12764,-0.48152,0.03738,,,,,,,,,,,,,,,,,,,,,,,,,,0,0,0,0,0
0.4515,1783973603.9550,1,0,0.5000,-0.0000,1.42244,0.00071,-2.63053,1.05907,1.57080,0.11675,-0.12764,-0.48152,0.03738,,,,,,,,,,,,,,,,,,,,,,,,,,0,0,0,0,0
0.4696,1783973603.9730,1,0,0.5000,-0.0000,1.42244,0.00071,-2.63053,1.05907,1.57080,0.11675,-0.12764,-0.48152,0.03738,,,,,,,,,,,,,,,,,,,,,,,,,,0,0,0,0,0
0.4991,1783973604.0026,1,0,0.5000,-0.0000,1.42244,0.00071,-2.63053,1.05907,1.57080,0.11675,-0.12764,-0.48152,0.03738,,,,,,,,,,,,,,,,,,,,,,,,,,0,0,0,0,0
0.4996,1783973604.0031,1,0,0.5000,-0.0000,1.42244,0.00071,-2.63053,1.05907,1.57080,0.11675,-0.12764,-0.48152,0.03738,,,,,,,,,,,,,,,,,,,,,,,,,,0,0,0,0,0
0.5173,1783973604.0208,1,0,0.5000,-0.0000,1.42244,0.00071,-2.63053,1.05907,1.57080,0.11675,-0.12764,-0.48152,0.03738,,,,,,,,,,,,,,,,,,,,,,,,,,0,0,0,0,0
0.5177,1783973604.0212,1,0,0.5000,-0.0000,1.42244,0.00071,-2.63053,1.05907,1.57080,0.11675,-0.12764,-0.48152,0.03738,,,,,,,,,,,,,,,,,,,,,,,,,,0,0,0,0,0
0.5276,1783973604.0311,1,0,0.5000,-0.0000,1.42244,0.00071,-2.63053,1.05907,1.57080,0.11675,-0.12764,-0.48152,0.03738,,,,,,,,,,,,,,,,,,,,,,,,,,0,0,0,0,0
0.5498,1783973604.0533,1,0,0.5000,-0.0000,1.42244,0.00071,-2.63053,1.05907,1.57080,0.11675,-0.12764,-0.48152,0.03738,,,,,,,,,,,,,,,,,,,,,,,,,,0,0,0,0,0
0.5505,1783973604.0540,1,0,0.5000,-0.0000,1.42244,0.00071,-2.63053,1.05907,1.57080,0.11675,-0.12764,-0.48152,0.03738,,,,,,,,,,,,,,,,,,,,,,,,,,0,0,0,0,0
0.5538,1783973604.0573,1,0,0.5000,-0.0000,1.42244,0.00071,-2.63053,1.05907,1.57080,0.11675,-0.12764,-0.48152,0.03738,,,,,,,,,,,,,,,,,,,,,,,,,,0,0,0,0,0
0.5546,1783973604.0581,1,0,0.5000,-0.0000,1.42244,0.00071,-2.63053,1.05907,1.57080,0.11675,-0.12764,-0.48152,0.03738,,,,,,,,,,,,,,,,,,,,,,,,,,0,0,0,0,0
0.5914,1783973604.0949,1,0,0.5000,-0.0000,1.42244,0.00071,-2.63053,1.05907,1.57080,0.11675,-0.12764,-0.48152,0.03738,,,,,,,,,,,,,,,,,,,,,,,,,,0,0,0,0,0
0.5917,1783973604.0951,1,0,0.5000,-0.0000,1.42244,0.00071,-2.63053,1.05907,1.57080,0.11675,-0.12764,-0.48152,0.03738,,,,,,,,,,,,,,,,,,,,,,,,,,0,0,0,0,0
0.5920,1783973604.0955,1,0,0.5000,-0.0000,1.42244,0.00071,-2.63053,1.05907,1.57080,0.11675,-0.12764,-0.48152,0.03738,,,,,,,,,,,,,,,,,,,,,,,,,,0,0,0,0,0
0.6034,1783973604.1069,1,0,0.5000,-0.0000,1.42244,0.00071,-2.63053,1.05907,1.57080,0.11675,-0.12764,-0.48152,0.03738,,,,,,,,,,,,,,,,,,,,,,,,,,0,0,0,0,0
0.6047,1783973604.1082,1,0,0.5000,-0.0000,1.42244,0.00071,-2.63053,1.05907,1.57080,0.11675,-0.12764,-0.48152,0.03738,,,,,,,,,,,,,,,,,,,,,,,,,,0,0,0,0,0
0.6155,1783973604.1190,1,0,0.5000,-0.0000,1.42244,0.00071,-2.63053,1.05907,1.57080,0.11675,-0.12764,-0.48152,0.03738,,,,,,,,,,,,,,,,,,,,,,,,,,0,0,0,0,0
0.6303,1783973604.1338,1,0,0.5000,-0.0000,1.42244,0.00071,-2.63053,1.05907,1.57080,0.11675,-0.12764,-0.48152,0.03738,,,,,,,,,,,,,,,,,,,,,,,,,,0,0,0,0,0
0.6309,1783973604.1344,1,0,0.5000,-0.0000,1.42244,0.00071,-2.63053,1.05907,1.57080,0.11675,-0.12764,-0.48152,0.03738,,,,,,,,,,,,,,,,,,,,,,,,,,0,0,0,0,0
0.6453,1783973604.1487,1,0,0.5000,-0.0000,1.42244,0.00071,-2.63053,1.05907,1.57080,0.11675,-0.12764,-0.48152,0.03738,,,,,,,,,,,,,,,,,,,,,,,,,,0,0,0,0,0
0.6455,1783973604.1490,1,0,0.5000,-0.0000,1.42244,0.00071,-2.63053,1.05907,1.57080,0.11675,-0.12764,-0.48152,0.03738,,,,,,,,,,,,,,,,,,,,,,,,,,0,0,0,0,0
0.6484,1783973604.1519,1,0,0.5000,-0.0000,1.42244,0.00071,-2.63053,1.05907,1.57080,0.11675,-0.12764,-0.48152,0.03738,,,,,,,,,,,,,,,,,,,,,,,,,,0,0,0,0,0
0.6487,1783973604.1522,1,0,0.5000,-0.0000,1.42244,0.00071,-2.63053,1.05907,1.57080,0.11675,-0.12764,-0.48152,0.03738,,,,,,,,,,,,,,,,,,,,,,,,,,0,0,0,0,0
0.6968,1783973604.2003,1,0,0.5000,-0.0000,1.42244,0.00071,-2.63053,1.05907,1.57080,0.11675,-0.12764,-0.48152,0.03738,,,,,,,,,,,,,,,,,,,,,,,,,,0,0,0,0,0
0.6971,1783973604.2006,1,0,0.5000,-0.0000,1.42244,0.00071,-2.63053,1.05907,1.57080,0.11675,-0.12764,-0.48152,0.03738,,,,,,,,,,,,,,,,,,,,,,,,,,0,0,0,0,0
0.6974,1783973604.2009,1,0,0.5000,-0.0000,1.42244,0.00071,-2.63053,1.05907,1.57080,0.11675,-0.12764,-0.48152,0.03738,,,,,,,,,,,,,,,,,,,,,,,,,,0,0,0,0,0
0.7049,1783973604.2084,1,0,0.5000,-0.0000,1.42244,0.00071,-2.63053,1.05907,1.57080,0.11675,-0.12764,-0.48152,0.03738,,,,,,,,,,,,,,,,,,,,,,,,,,0,0,0,0,0
0.7083,1783973604.2118,1,0,0.5000,-0.0000,1.42244,0.00071,-2.63053,1.05907,1.57080,0.11675,-0.12764,-0.48152,0.03738,,,,,,,,,,,,,,,,,,,,,,,,,,0,0,0,0,0
0.7283,1783973604.2318,1,1,0.5000,-0.0000,1.42244,0.00071,-2.63053,1.05907,1.57080,0.11675,-0.12764,-0.48152,0.03738,,,,,,,,,,,,,,,,,,,,,,,,,,0,0,0,0,0
0.7286,1783973604.2321,1,1,0.5000,-0.0000,1.42244,0.00071,-2.63053,1.05907,1.57080,0.11675,-0.12764,-0.48152,0.03738,,,,,,,,,,,,,,,,,,,,,,,,,,0,0,0,0,0
0.7373,1783973604.2408,1,1,0.5000,-0.0000,1.42244,0.00071,-2.63053,1.05907,1.57080,0.11675,-0.12764,-0.48152,0.03738,,,,,,,,,,,,,,,,,,,,,,,,,,0,0,0,0,0
0.7642,1783973604.2677,1,1,0.5000,-0.0000,1.42244,0.00071,-2.63053,1.05907,1.57080,0.11675,-0.12764,-0.48152,0.03738,,,,,,,,,,,,,,,,,,,,,,,,,,0,0,0,0,0
0.7647,1783973604.2682,1,1,0.5000,-0.0000,1.42244,0.00071,-2.63053,1.05907,1.57080,0.11675,-0.12764,-0.48152,0.03738,,,,,,,,,,,,,,,,,,,,,,,,,,0,0,0,0,0
0.7798,1783973604.2833,1,1,0.5000,-0.0000,1.42244,0.00071,-2.63053,1.05907,1.57080,0.11675,-0.12764,-0.48152,0.03738,,,,,,,,,,,,,,,,,,,,,,,,,,0,0,0,0,0
0.7876,1783973604.2911,1,1,0.5000,-0.0000,1.42244,0.00071,-2.63053,1.05907,1.57080,0.11675,-0.12764,-0.48152,0.03738,,,,,,,,,,,,,,,,,,,,,,,,,,0,0,0,0,0
0.7880,1783973604.2915,1,1,0.5000,-0.0000,1.42244,0.00071,-2.63053,1.05907,1.57080,0.11675,-0.12764,-0.48152,0.03738,,,,,,,,,,,,,,,,,,,,,,,,,,0,0,0,0,0
0.8172,1783973604.3207,1,1,0.5000,-0.0000,1.42244,0.00071,-2.63053,1.05907,1.57080,0.11675,-0.12764,-0.48152,0.03738,,,,,,,,,,,,,,,,,,,,,,,,,,0,0,0,0,0
0.8176,1783973604.3211,1,1,0.5000,-0.0000,1.42244,0.00071,-2.63053,1.05907,1.57080,0.11675,-0.12764,-0.48152,0.03738,,,,,,,,,,,,,,,,,,,,,,,,,,0,0,0,0,0
0.8244,1783973604.3279,1,1,0.5000,-0.0000,1.42244,0.00071,-2.63053,1.05907,1.57080,0.11675,-0.12764,-0.48152,0.03738,,,,,,,,,,,,,,,,,,,,,,,,,,0,0,0,0,0
0.8518,1783973604.3553,1,1,0.5000,-0.0000,1.42244,0.00071,-2.63053,1.05907,1.57080,0.11675,-0.12764,-0.48152,0.03738,,,,,,,,,,,,,,,,,,,,,,,,,,0,0,0,0,0
0.8521,1783973604.3556,1,1,0.5000,-0.0000,1.42244,0.00071,-2.63053,1.05907,1.57080,0.11675,-0.12764,-0.48152,0.03738,,,,,,,,,,,,,,,,,,,,,,,,,,0,0,0,0,0
0.8609,1783973604.3644,1,1,0.5000,-0.0000,1.42244,0.00071,-2.63053,1.05907,1.57080,0.11675,-0.12764,-0.48152,0.03738,,,,,,,,,,,,,,,,,,,,,,,,,,0,0,0,0,0
0.9074,1783973604.4109,1,1,0.5000,-0.0000,1.42244,0.00071,-2.63053,1.05907,1.57080,0.11675,-0.12764,-0.48152,0.03738,,,,,,,,,,,,,,,,,,,,,,,,,,0,0,0,0,0
0.9079,1783973604.4114,1,1,0.5000,-0.0000,1.42244,0.00071,-2.63053,1.05907,1.57080,0.11675,-0.12764,-0.48152,0.03738,,,,,,,,,,,,,,,,,,,,,,,,,,0,0,0,0,0
0.9246,1783973604.4281,1,1,0.5000,-0.0000,1.42244,0.00071,-2.63053,1.05907,1.57080,0.11675,-0.12764,-0.48152,0.03738,,,,,,,,,,,,,,,,,,,,,,,,,,0,0,0,0,0
0.9549,1783973604.4584,1,1,0.5000,-0.0000,1.42244,0.00071,-2.63053,1.05907,1.57080,0.11675,-0.12764,-0.48152,0.03738,,,,,,,,,,,,,,,,,,,,,,,,,,0,0,0,0,0
0.9552,1783973604.4587,1,1,0.5000,-0.0000,1.42244,0.00071,-2.63053,1.05907,1.57080,0.11675,-0.12764,-0.48152,0.03738,,,,,,,,,,,,,,,,,,,,,,,,,,0,0,0,0,0
0.9573,1783973604.4608,1,1,0.5000,-0.0000,1.42244,0.00071,-2.63053,1.05907,1.57080,0.11675,-0.12764,-0.48152,0.03738,,,,,,,,,,,,,,,,,,,,,,,,,,0,0,0,0,0
0.9695,1783973604.4730,1,1,0.5000,-0.0000,1.42244,0.00071,-2.63053,1.05907,1.57080,0.11675,-0.12764,-0.48152,0.03738,,,,,,,,,,,,,,,,,,,,,,,,,,0,0,0,0,0
0.9845,1783973604.4880,1,1,0.5000,-0.0000,1.42244,0.00071,-2.63053,1.05907,1.57080,0.11675,-0.12764,-0.48152,0.03738,,,,,,,,,,,,,,,,,,,,,,,,,,0,0,0,0,0
0.9848,1783973604.4883,1,1,0.5000,-0.0000,1.42244,0.00071,-2.63053,1.05907,1.57080,0.11675,-0.12764,-0.48152,0.03738,,,,,,,,,,,,,,,,,,,,,,,,,,0,0,0,0,0
0.9931,1783973604.4966,1,1,0.5000,-0.0000,1.42244,0.00071,-2.63053,1.05907,1.57080,0.11675,-0.12764,-0.48152,0.03738,,,,,,,,,,,,,,,,,,,,,,,,,,0,0,0,0,0
0.9934,1783973604.4969,1,1,0.5000,-0.0000,1.42244,0.00071,-2.63053,1.05907,1.57080,0.11675,-0.12764,-0.48152,0.03738,,,,,,,,,,,,,,,,,,,,,,,,,,0,0,0,0,0
1.0000,1783973604.5035,1,1,0.5000,-0.0000,1.42244,0.00071,-2.63053,1.05907,1.57080,0.11675,-0.12764,-0.48152,0.03738,,,,,,,,,,,,,,,,,,,,,,,,,,0,0,0,0,0
1.0003,1783973604.5038,1,1,0.5000,-0.0000,1.42244,0.00071,-2.63053,1.05907,1.57080,0.11675,-0.12764,-0.48152,0.03738,,,,,,,,,,,,,,,,,,,,,,,,,,0,0,0,0,0
1.0275,1783973604.5310,1,1,0.5000,-0.0000,1.42244,0.00070,-2.63054,1.05907,1.57080,0.11675,-0.12764,-0.48151,0.03737,,,,,,,,,,,,,,,,,,,,,,,,,,0,0,0,0,0
1.0278,1783973604.5313,1,1,0.5000,-0.0000,1.42244,0.00070,-2.63054,1.05907,1.57080,0.11675,-0.12764,-0.48151,0.03737,,,,,,,,,,,,,,,,,,,,,,,,,,0,0,0,0,0
1.0280,1783973604.5315,1,1,0.5000,-0.0000,1.42244,0.00070,-2.63054,1.05907,1.57080,0.11675,-0.12764,-0.48151,0.03737,,,,,,,,,,,,,,,,,,,,,,,,,,0,0,0,0,0
1.0363,1783973604.5398,1,1,0.5000,-0.0000,1.42244,0.00070,-2.63055,1.05908,1.57080,0.11675,-0.12764,-0.48151,0.03737,,,,,,,,,,,,,,,,,,,,,,,,,,0,0,0,0,0
1.0710,1783973604.5745,1,1,0.5000,-0.0000,1.42244,0.00062,-2.63061,1.05915,1.57080,0.11675,-0.12764,-0.48147,0.03732,,,,,,,,,,,,,,,,,,,,,,,,,,0,0,0,0,0
1.0713,1783973604.5748,1,1,0.5000,-0.0000,1.42244,0.00062,-2.63061,1.05915,1.57080,0.11675,-0.12764,-0.48147,0.03732,,,,,,,,,,,,,,,,,,,,,,,,,,0,0,0,0,0
1.0793,1783973604.5828,1,1,0.5000,-0.0000,1.42244,0.00061,-2.63062,1.05916,1.57080,0.11675,-0.12764,-0.48147,0.03731,,,,,,,,,,,,,,,,,,,,,,,,,,0,0,0,0,0
1.0856,1783973604.5891,1,1,0.5000,-0.0000,1.42244,0.00060,-2.63063,1.05918,1.57080,0.11675,-0.12764,-0.48146,0.03731,,,,,,,,,,,,,,,,,,,,,,,,,,0,0,0,0,0
1.1271,1783973604.6306,1,1,0.5000,-0.0000,1.42244,0.00037,-2.63069,1.05944,1.57080,0.11675,-0.12765,-0.48145,0.03722,,,,,,,,,,,,,,,,,,,,,,,,,,0,0,0,0,0
1.1274,1783973604.6309,1,1,0.5000,-0.0000,1.42244,0.00037,-2.63069,1.05944,1.57080,0.11675,-0.12765,-0.48145,0.03722,,,,,,,,,,,,,,,,,,,,,,,,,,0,0,0,0,0
1.1278,1783973604.6313,1,1,0.5000,-0.0000,1.42244,0.00037,-2.63069,1.05944,1.57080,0.11675,-0.12765,-0.48145,0.03722,,,,,,,,,,,,,,,,,,,,,,,,,,0,0,0,0,0
1.1281,1783973604.6316,1,1,0.5000,-0.0000,1.42244,0.00037,-2.63069,1.05944,1.57080,0.11675,-0.12765,-0.48145,0.03722,,,,,,,,,,,,,,,,,,,,,,,,,,0,0,0,0,0
1.1365,1783973604.6400,1,1,0.5000,-0.0000,1.42244,0.00035,-2.63070,1.05947,1.57080,0.11675,-0.12765,-0.48145,0.03721,,,,,,,,,,,,,,,,,,,,,,,,,,0,0,0,0,0
1.1562,1783973604.6597,1,1,0.5000,-0.0000,1.42244,0.00015,-2.63073,1.05971,1.57080,0.11675,-0.12764,-0.48145,0.03715,,,,,,,,,,,,,,,,,,,,,,,,,,0,0,0,0,0
1.1581,1783973604.6616,1,1,0.5000,-0.0000,1.42244,0.00015,-2.63073,1.05971,1.57080,0.11675,-0.12764,-0.48145,0.03715,,,,,,,,,,,,,,,,,,,,,,,,,,0,0,0,0,0
1.1659,1783973604.6694,1,1,0.5000,-0.0000,1.42244,0.00014,-2.63073,1.05971,1.57080,0.11675,-0.12764,-0.48145,0.03714,,,,,,,,,,,,,,,,,,,,,,,,,,0,0,0,0,0
1.1871,1783973604.6906,1,1,0.5000,-0.0000,1.42244,-0.00007,-2.63077,1.05996,1.57080,0.11675,-0.12764,-0.48146,0.03708,,,,,,,,,,,,,,,,,,,,,,,,,,0,0,0,0,0
1.1875,1783973604.6910,1,1,0.5000,-0.0000,1.42244,-0.00007,-2.63077,1.05996,1.57080,0.11675,-0.12764,-0.48146,0.03708,,,,,,,,,,,,,,,,,,,,,,,,,,0,0,0,0,0
1.1980,1783973604.7015,1,1,0.5000,-0.0000,1.42244,-0.00017,-2.63079,1.06009,1.57080,0.11675,-0.12764,-0.48147,0.03705,,,,,,,,,,,,,,,,,,,,,,,,,,0,0,0,0,0
1.1983,1783973604.7018,1,1,0.5000,-0.0000,1.42244,-0.00017,-2.63079,1.06009,1.57080,0.11675,-0.12764,-0.48147,0.03705,,,,,,,,,,,,,,,,,,,,,,,,,,0,0,0,0,0
1.2192,1783973604.7227,1,1,0.5000,-0.0000,1.42244,-0.00042,-2.63083,1.06041,1.57080,0.11675,-0.12764,-0.48148,0.03697,,,,,,,,,,,,,,,,,,,,,,,,,,0,0,0,0,0
1.2198,1783973604.7233,1,1,0.5000,-0.0000,1.42244,-0.00042,-2.63083,1.06041,1.57080,0.11675,-0.12764,-0.48148,0.03697,,,,,,,,,,,,,,,,,,,,,,,,,,0,0,0,0,0
1.2261,1783973604.7296,1,1,0.5000,-0.0000,1.42244,-0.00042,-2.63083,1.06041,1.57080,0.11675,-0.12764,-0.48148,0.03697,,,,,,,,,,,,,,,,,,,,,,,,,,0,0,0,0,0
1.2264,1783973604.7299,1,1,0.5000,-0.0000,1.42244,-0.00042,-2.63083,1.06041,1.57080,0.11675,-0.12764,-0.48148,0.03697,,,,,,,,,,,,,,,,,,,,,,,,,,0,0,0,0,0
1.2344,1783973604.7379,1,1,0.5000,-0.0000,1.42244,-0.00042,-2.63083,1.06041,1.57080,0.11675,-0.12764,-0.48148,0.03697,,,,,,,,,,,,,,,,,,,,,,,,,,0,0,0,0,0
1.2529,1783973604.7564,1,1,0.5000,-0.0000,1.42244,-0.00042,-2.63083,1.06041,1.57080,0.11675,-0.12764,-0.48148,0.03697,,,,,,,,,,,,,,,,,,,,,,,,,,0,0,0,0,0
1.2646,1783973604.7681,1,1,0.5000,-0.0000,1.42244,-0.00042,-2.63083,1.06041,1.57080,0.11675,-0.12764,-0.48148,0.03697,,,,,,,,,,,,,,,,,,,,,,,,,,0,0,0,0,0
1.2693,1783973604.7728,1,1,0.5000,-0.0000,1.42244,-0.00042,-2.63083,1.06041,1.57080,0.11675,-0.12764,-0.48148,0.03697,,,,,,,,,,,,,,,,,,,,,,,,,,0,0,0,0,0
1.2697,1783973604.7732,1,1,0.5000,-0.0000,1.42244,-0.00042,-2.63083,1.06041,1.57080,0.11675,-0.12764,-0.48148,0.03697,,,,,,,,,,,,,,,,,,,,,,,,,,0,0,0,0,0
1.3473,1783973604.8508,1,1,0.5000,-0.0000,1.42244,-0.00042,-2.63083,1.06041,1.57080,0.11675,-0.12764,-0.48148,0.03697,,,,,,,,,,,,,,,,,,,,,,,,,,0,0,0,0,0
1.3478,1783973604.8512,1,1,0.5000,-0.0000,1.42244,-0.00042,-2.63083,1.06041,1.57080,0.11675,-0.12764,-0.48148,0.03697,,,,,,,,,,,,,,,,,,,,,,,,,,0,0,0,0,0
1.3483,1783973604.8518,1,1,0.5000,-0.0000,1.42244,-0.00042,-2.63083,1.06041,1.57080,0.11675,-0.12764,-0.48148,0.03697,,,,,,,,,,,,,,,,,,,,,,,,,,0,0,0,0,0
1.3487,1783973604.8522,1,1,0.5000,-0.0000,1.42244,-0.00042,-2.63083,1.06041,1.57080,0.11675,-0.12764,-0.48148,0.03697,,,,,,,,,,,,,,,,,,,,,,,,,,0,0,0,0,0
1.4497,1783973604.9532,1,1,0.5000,-0.0000,1.42244,-0.00044,-2.63083,1.06044,1.57080,0.11675,-0.12764,-0.48148,0.03697,,,,,,,,,,,,,,,,,,,,,,,,,,0,0,0,0,0
1.4499,1783973604.9534,1,1,0.5000,-0.0000,1.42244,-0.00044,-2.63083,1.06044,1.57080,0.11675,-0.12764,-0.48148,0.03697,,,,,,,,,,,,,,,,,,,,,,,,,,0,0,0,0,0
1.4503,1783973604.9538,1,1,0.5000,-0.0000,1.42244,-0.00044,-2.63083,1.06044,1.57080,0.11675,-0.12764,-0.48148,0.03697,,,,,,,,,,,,,,,,,,,,,,,,,,0,0,0,0,0
1.4508,1783973604.9543,1,1,0.5000,-0.0000,1.42244,-0.00045,-2.63083,1.06046,1.57080,0.11675,-0.12764,-0.48149,0.03696,,,,,,,,,,,,,,,,,,,,,,,,,,0,0,0,0,0
1.4511,1783973604.9546,1,1,0.5000,-0.0000,1.42244,-0.00045,-2.63083,1.06046,1.57080,0.11675,-0.12764,-0.48149,0.03696,,,,,,,,,,,,,,,,,,,,,,,,,,0,0,0,0,0
1.4515,1783973604.9550,1,1,0.5000,-0.0000,1.42244,-0.00045,-2.63083,1.06046,1.57080,0.11675,-0.12764,-0.48149,0.03696,,,,,,,,,,,,,,,,,,,,,,,,,,0,0,0,0,0
1.4768,1783973604.9803,1,1,0.5000,-0.0000,1.42244,-0.00051,-2.63088,1.06054,1.57080,0.11675,-0.12764,-0.48147,0.03693,,,,,,,,,,,,,,,,,,,,,,,,,,0,0,0,0,0
1.4772,1783973604.9807,1,1,0.5000,-0.0000,1.42244,-0.00051,-2.63088,1.06054,1.57080,0.11675,-0.12764,-0.48147,0.03693,,,,,,,,,,,,,,,,,,,,,,,,,,0,0,0,0,0
1.4777,1783973604.9812,1,1,0.5000,-0.0000,1.42244,-0.00051,-2.63088,1.06054,1.57080,0.11675,-0.12764,-0.48147,0.03693,,,,,,,,,,,,,,,,,,,,,,,,,,0,0,0,0,0
1.4782,1783973604.9817,1,1,0.5000,-0.0000,1.42244,-0.00051,-2.63088,1.06054,1.57080,0.11675,-0.12764,-0.48147,0.03693,,,,,,,,,,,,,,,,,,,,,,,,,,0,0,0,0,0
1.4788,1783973604.9823,1,1,0.5000,-0.0000,1.42244,-0.00053,-2.63089,1.06057,1.57080,0.11675,-0.12764,-0.48146,0.03692,,,,,,,,,,,,,,,,,,,,,,,,,,0,0,0,0,0
1.4909,1783973604.9944,1,1,0.5000,-0.0000,1.42244,-0.00056,-2.63091,1.06061,1.57080,0.11675,-0.12764,-0.48145,0.03690,,,,,,,,,,,,,,,,,,,,,,,,,,0,0,0,0,0
1.4913,1783973604.9948,1,1,0.5000,-0.0000,1.42244,-0.00056,-2.63091,1.06061,1.57080,0.11675,-0.12764,-0.48145,0.03690,,,,,,,,,,,,,,,,,,,,,,,,,,0,0,0,0,0
1.4917,1783973604.9952,1,1,0.5000,-0.0000,1.42244,-0.00056,-2.63091,1.06061,1.57080,0.11675,-0.12764,-0.48145,0.03690,,,,,,,,,,,,,,,,,,,,,,,,,,0,0,0,0,0
1.5007,1783973605.0042,1,1,0.5000,-0.0000,1.42244,-0.00059,-2.63092,1.06064,1.57080,0.11675,-0.12764,-0.48145,0.03689,,,,,,,,,,,,,,,,,,,,,,,,,,0,0,0,0,0
1.5243,1783973605.0278,1,1,0.5000,-0.0000,1.42244,-0.00071,-2.63097,1.06079,1.57080,0.11675,-0.12765,-0.48143,0.03684,,,,,,,,,,,,,,,,,,,,,,,,,,0,0,0,0,0
1.5247,1783973605.0282,1,1,0.5000,-0.0000,1.42244,-0.00071,-2.63097,1.06079,1.57080,0.11675,-0.12765,-0.48143,0.03684,,,,,,,,,,,,,,,,,,,,,,,,,,0,0,0,0,0
1.5931,1783973605.0966,1,1,0.5000,-0.0000,1.42244,-0.00115,-2.63104,1.06132,1.57080,0.11675,-0.12764,-0.48145,0.03670,,,,,,,,,,,,,,,,,,,,,,,,,,0,0,0,0,0
1.5935,1783973605.0970,1,1,0.5000,-0.0000,1.42244,-0.00115,-2.63104,1.06132,1.57080,0.11675,-0.12764,-0.48145,0.03670,,,,,,,,,,,,,,,,,,,,,,,,,,0,0,0,0,0
1.5939,1783973605.0974,1,1,0.5000,-0.0000,1.42244,-0.00115,-2.63104,1.06132,1.57080,0.11675,-0.12764,-0.48145,0.03670,,,,,,,,,,,,,,,,,,,,,,,,,,0,0,0,0,0
1.5946,1783973605.0981,1,1,0.5000,-0.0000,1.42244,-0.00115,-2.63104,1.06132,1.57080,0.11675,-0.12764,-0.48145,0.03670,,,,,,,,,,,,,,,,,,,,,,,,,,0,0,0,0,0
1.5950,1783973605.0985,1,1,0.5000,-0.0000,1.42244,-0.00118,-2.63104,1.06136,1.57080,0.11675,-0.12764,-0.48145,0.03670,,,,,,,,,,,,,,,,,,,,,,,,,,0,0,0,0,0
1.5954,1783973605.0989,1,1,0.5000,-0.0000,1.42244,-0.00118,-2.63104,1.06136,1.57080,0.11675,-0.12764,-0.48145,0.03670,,,,,,,,,,,,,,,,,,,,,,,,,,0,0,0,0,0
1.5985,1783973605.1020,1,1,0.5000,-0.0000,1.42244,-0.00118,-2.63104,1.06136,1.57080,0.11675,-0.12764,-0.48145,0.03670,,,,,,,,,,,,,,,,,,,,,,,,,,0,0,0,0,0
1.5991,1783973605.1026,1,1,0.5000,-0.0000,1.42244,-0.00121,-2.63105,1.06140,1.57080,0.11675,-0.12764,-0.48146,0.03668,,,,,,,,,,,,,,,,,,,,,,,,,,0,0,0,0,0
1.6395,1783973605.1430,1,1,0.5000,-0.0000,1.42244,-0.00145,-2.63105,1.06170,1.57080,0.11675,-0.12764,-0.48150,0.03663,,,,,,,,,,,,,,,,,,,,,,,,,,0,0,0,0,0
1.6398,1783973605.1433,1,1,0.5000,-0.0000,1.42244,-0.00145,-2.63105,1.06170,1.57080,0.11675,-0.12764,-0.48150,0.03663,,,,,,,,,,,,,,,,,,,,,,,,,,0,0,0,0,0
1.6411,1783973605.1446,1,1,0.5000,-0.0000,1.42244,-0.00145,-2.63105,1.06170,1.57080,0.11675,-0.12764,-0.48150,0.03663,,,,,,,,,,,,,,,,,,,,,,,,,,0,0,0,0,0
1.6413,1783973605.1448,1,1,0.5000,-0.0000,1.42244,-0.00145,-2.63105,1.06170,1.57080,0.11675,-0.12764,-0.48150,0.03663,,,,,,,,,,,,,,,,,,,,,,,,,,0,0,0,0,0
1.6469,1783973605.1504,1,1,0.5000,-0.0000,1.42244,-0.00152,-2.63104,1.06179,1.57080,0.11675,-0.12763,-0.48151,0.03662,,,,,,,,,,,,,,,,,,,,,,,,,,0,0,0,0,0
1.6607,1783973605.1642,1,1,0.5000,-0.0000,1.42244,-0.00160,-2.63102,1.06190,1.57080,0.11675,-0.12763,-0.48155,0.03661,,,,,,,,,,,,,,,,,,,,,,,,,,0,0,0,0,0
1.6811,1783973605.1846,1,1,0.5000,-0.0000,1.42243,-0.00165,-2.63098,1.06196,1.57080,0.11675,-0.12762,-0.48159,0.03662,,,,,,,,,,,,,,,,,,,,,,,,,,0,0,0,0,0
1.6959,1783973605.1994,1,1,0.5000,-0.0000,1.42243,-0.00165,-2.63098,1.06196,1.57080,0.11675,-0.12762,-0.48159,0.03662,,,,,,,,,,,,,,,,,,,,,,,,,,0,0,0,0,0
1.6962,1783973605.1997,1,1,0.5000,-0.0000,1.42243,-0.00165,-2.63098,1.06196,1.57080,0.11675,-0.12762,-0.48159,0.03662,,,,,,,,,,,,,,,,,,,,,,,,,,0,0,0,0,0
1.7434,1783973605.2469,1,1,0.5000,-0.0000,1.42243,-0.00165,-2.63098,1.06196,1.57080,0.11675,-0.12762,-0.48159,0.03662,,,,,,,,,,,,,,,,,,,,,,,,,,0,0,0,0,0
1.7438,1783973605.2473,1,1,0.5000,-0.0000,1.42243,-0.00165,-2.63098,1.06196,1.57080,0.11675,-0.12762,-0.48159,0.03662,,,,,,,,,,,,,,,,,,,,,,,,,,0,0,0,0,0
1.7441,1783973605.2476,1,1,0.5000,-0.0000,1.42243,-0.00165,-2.63098,1.06196,1.57080,0.11675,-0.12762,-0.48159,0.03662,,,,,,,,,,,,,,,,,,,,,,,,,,0,0,0,0,0
1.7444,1783973605.2478,1,1,0.5000,-0.0000,1.42243,-0.00165,-2.63098,1.06196,1.57080,0.11675,-0.12762,-0.48159,0.03662,,,,,,,,,,,,,,,,,,,,,,,,,,0,0,0,0,0
1.7447,1783973605.2482,1,1,0.5000,-0.0000,1.42243,-0.00165,-2.63098,1.06196,1.57080,0.11675,-0.12762,-0.48159,0.03662,,,,,,,,,,,,,,,,,,,,,,,,,,0,0,0,0,0
1.7468,1783973605.2503,1,1,0.5000,-0.0000,1.42243,-0.00165,-2.63098,1.06196,1.57080,0.11675,-0.12762,-0.48159,0.03662,,,,,,,,,,,,,,,,,,,,,,,,,,0,0,0,0,0
1.7530,1783973605.2564,1,1,0.5000,-0.0000,1.42243,-0.00165,-2.63098,1.06196,1.57080,0.11675,-0.12762,-0.48159,0.03662,,,,,,,,,,,,,,,,,,,,,,,,,,0,0,0,0,0
1.7533,1783973605.2568,1,1,0.5000,-0.0000,1.42243,-0.00165,-2.63098,1.06196,1.57080,0.11675,-0.12762,-0.48159,0.03662,,,,,,,,,,,,,,,,,,,,,,,,,,0,0,0,0,0
1.7636,1783973605.2671,1,1,0.5000,-0.0000,1.42243,-0.00165,-2.63098,1.06196,1.57080,0.11675,-0.12762,-0.48159,0.03662,,,,,,,,,,,,,,,,,,,,,,,,,,0,0,0,0,0
1.7894,1783973605.2929,1,1,0.5000,-0.0000,1.42243,-0.00165,-2.63098,1.06196,1.57080,0.11675,-0.12762,-0.48159,0.03662,,,,,,,,,,,,,,,,,,,,,,,,,,0,0,0,0,0
1.7897,1783973605.2932,1,1,0.5000,-0.0000,1.42243,-0.00165,-2.63098,1.06196,1.57080,0.11675,-0.12762,-0.48159,0.03662,,,,,,,,,,,,,,,,,,,,,,,,,,0,0,0,0,0
1.8553,1783973605.3588,1,1,0.5000,-0.0000,1.42243,-0.00165,-2.63098,1.06196,1.57080,0.11675,-0.12762,-0.48158,0.03661,,,,,,,,,,,,,,,,,,,,,,,,,,0,0,0,0,0
1.8556,1783973605.3591,1,1,0.5000,-0.0000,1.42243,-0.00165,-2.63098,1.06196,1.57080,0.11675,-0.12762,-0.48158,0.03661,,,,,,,,,,,,,,,,,,,,,,,,,,0,0,0,0,0
1.8558,1783973605.3593,1,1,0.5000,-0.0000,1.42243,-0.00165,-2.63098,1.06196,1.57080,0.11675,-0.12762,-0.48158,0.03661,,,,,,,,,,,,,,,,,,,,,,,,,,0,0,0,0,0
1.8561,1783973605.3596,1,1,0.5000,-0.0000,1.42243,-0.00165,-2.63098,1.06196,1.57080,0.11675,-0.12762,-0.48158,0.03661,,,,,,,,,,,,,,,,,,,,,,,,,,0,0,0,0,0
1.8757,1783973605.3792,1,1,0.5000,-0.0000,1.42243,-0.00167,-2.63103,1.06199,1.57080,0.11675,-0.12763,-0.48155,0.03659,,,,,,,,,,,,,,,,,,,,,,,,,,0,0,0,0,0
1.8782,1783973605.3817,1,1,0.5000,-0.0000,1.42243,-0.00167,-2.63103,1.06199,1.57080,0.11675,-0.12763,-0.48155,0.03659,,,,,,,,,,,,,,,,,,,,,,,,,,0,0,0,0,0
1.8935,1783973605.3970,1,1,0.5000,-0.0000,1.42243,-0.00168,-2.63105,1.06201,1.57080,0.11675,-0.12763,-0.48154,0.03657,,,,,,,,,,,,,,,,,,,,,,,,,,0,0,0,0,0
1.9121,1783973605.4156,1,1,0.5000,-0.0000,1.42243,-0.00173,-2.63111,1.06206,1.57080,0.11675,-0.12763,-0.48150,0.03654,,,,,,,,,,,,,,,,,,,,,,,,,,0,0,0,0,0
1.9125,1783973605.4160,1,1,0.5000,-0.0000,1.42243,-0.00173,-2.63111,1.06206,1.57080,0.11675,-0.12763,-0.48150,0.03654,,,,,,,,,,,,,,,,,,,,,,,,,,0,0,0,0,0
1.9275,1783973605.4310,1,1,0.5000,-0.0000,1.42243,-0.00180,-2.63115,1.06214,1.57080,0.11675,-0.12764,-0.48148,0.03650,,,,,,,,,,,,,,,,,,,,,,,,,,0,0,0,0,0
1.9280,1783973605.4315,1,1,0.5000,-0.0000,1.42243,-0.00180,-2.63115,1.06214,1.57080,0.11675,-0.12764,-0.48148,0.03650,,,,,,,,,,,,,,,,,,,,,,,,,,0,0,0,0,0
1.9313,1783973605.4348,1,1,0.5000,-0.0000,1.42243,-0.00183,-2.63117,1.06217,1.57080,0.11675,-0.12764,-0.48147,0.03649,,,,,,,,,,,,,,,,,,,,,,,,,,0,0,0,0,0
2.1272,1783973605.6307,1,1,0.5000,-0.0000,1.42243,-0.00278,-2.63135,1.06334,1.57080,0.11675,-0.12763,-0.48149,0.03618,,,,,,,,,,,,,,,,,,,,,,,,,,0,0,0,0,0
2.1276,1783973605.6311,1,1,0.5000,-0.0000,1.42243,-0.00278,-2.63135,1.06334,1.57080,0.11675,-0.12763,-0.48149,0.03618,,,,,,,,,,,,,,,,,,,,,,,,,,0,0,0,0,0
2.1280,1783973605.6315,1,1,0.5000,-0.0000,1.42243,-0.00278,-2.63135,1.06334,1.57080,0.11675,-0.12763,-0.48149,0.03618,,,,,,,,,,,,,,,,,,,,,,,,,,0,0,0,0,0
2.1284,1783973605.6319,1,1,0.5000,-0.0000,1.42243,-0.00278,-2.63135,1.06334,1.57080,0.11675,-0.12763,-0.48149,0.03618,,,,,,,,,,,,,,,,,,,,,,,,,,0,0,0,0,0
2.1288,1783973605.6323,1,1,0.5000,-0.0000,1.42243,-0.00278,-2.63135,1.06334,1.57080,0.11675,-0.12763,-0.48149,0.03618,,,,,,,,,,,,,,,,,,,,,,,,,,0,0,0,0,0
2.1292,1783973605.6327,1,1,0.5000,-0.0000,1.42243,-0.00278,-2.63135,1.06334,1.57080,0.11675,-0.12763,-0.48149,0.03618,,,,,,,,,,,,,,,,,,,,,,,,,,0,0,0,0,0
2.1296,1783973605.6330,1,1,0.5000,-0.0000,1.42243,-0.00278,-2.63135,1.06334,1.57080,0.11675,-0.12763,-0.48149,0.03618,,,,,,,,,,,,,,,,,,,,,,,,,,0,0,0,0,0
2.1298,1783973605.6333,1,1,0.5000,-0.0000,1.42243,-0.00278,-2.63135,1.06334,1.57080,0.11675,-0.12763,-0.48149,0.03618,,,,,,,,,,,,,,,,,,,,,,,,,,0,0,0,0,0
2.1302,1783973605.6337,1,1,0.5000,-0.0000,1.42243,-0.00278,-2.63135,1.06334,1.57080,0.11675,-0.12763,-0.48149,0.03618,,,,,,,,,,,,,,,,,,,,,,,,,,0,0,0,0,0
2.1305,1783973605.6340,1,1,0.5000,-0.0000,1.42243,-0.00278,-2.63135,1.06334,1.57080,0.11675,-0.12763,-0.48149,0.03618,,,,,,,,,,,,,,,,,,,,,,,,,,0,0,0,0,0
2.1311,1783973605.6346,1,1,0.5000,-0.0000,1.42243,-0.00278,-2.63135,1.06334,1.57080,0.11675,-0.12763,-0.48149,0.03618,,,,,,,,,,,,,,,,,,,,,,,,,,0,0,0,0,0
2.1314,1783973605.6349,1,1,0.5000,-0.0000,1.42243,-0.00278,-2.63135,1.06334,1.57080,0.11675,-0.12763,-0.48149,0.03618,,,,,,,,,,,,,,,,,,,,,,,,,,0,0,0,0,0
2.1318,1783973605.6353,1,1,0.5000,-0.0000,1.42243,-0.00278,-2.63135,1.06334,1.57080,0.11675,-0.12763,-0.48149,0.03618,,,,,,,,,,,,,,,,,,,,,,,,,,0,0,0,0,0
2.1321,1783973605.6356,1,1,0.5000,-0.0000,1.42243,-0.00278,-2.63135,1.06334,1.57080,0.11675,-0.12763,-0.48149,0.03618,,,,,,,,,,,,,,,,,,,,,,,,,,0,0,0,0,0
2.1484,1783973605.6519,1,1,0.5000,-0.0000,1.42243,-0.00278,-2.63135,1.06334,1.57080,0.11675,-0.12763,-0.48149,0.03618,,,,,,,,,,,,,,,,,,,,,,,,,,0,0,0,0,0
2.1592,1783973605.6627,1,1,0.5000,-0.0000,1.42243,-0.00278,-2.63135,1.06334,1.57080,0.11675,-0.12763,-0.48149,0.03618,,,,,,,,,,,,,,,,,,,,,,,,,,0,0,0,0,0
2.1866,1783973605.6901,1,1,0.5000,-0.0000,1.42243,-0.00278,-2.63135,1.06334,1.57080,0.11675,-0.12763,-0.48149,0.03618,,,,,,,,,,,,,,,,,,,,,,,,,,0,0,0,0,0
2.1875,1783973605.6910,1,1,0.5000,-0.0000,1.42243,-0.00278,-2.63135,1.06334,1.57080,0.11675,-0.12763,-0.48149,0.03618,,,,,,,,,,,,,,,,,,,,,,,,,,0,0,0,0,0
2.1904,1783973605.6939,1,1,0.5000,-0.0000,1.42243,-0.00278,-2.63135,1.06334,1.57080,0.11675,-0.12763,-0.48149,0.03618,,,,,,,,,,,,,,,,,,,,,,,,,,0,0,0,0,0
2.2072,1783973605.7107,1,1,0.5000,-0.0000,1.42243,-0.00278,-2.63135,1.06334,1.57080,0.11675,-0.12763,-0.48149,0.03618,,,,,,,,,,,,,,,,,,,,,,,,,,0,0,0,0,0
2.2129,1783973605.7164,1,1,0.5000,-0.0000,1.42243,-0.00278,-2.63135,1.06334,1.57080,0.11675,-0.12763,-0.48149,0.03618,,,,,,,,,,,,,,,,,,,,,,,,,,0,0,0,0,0
2.2192,1783973605.7227,1,1,0.5000,-0.0000,1.42243,-0.00278,-2.63135,1.06334,1.57080,0.11675,-0.12763,-0.48149,0.03618,,,,,,,,,,,,,,,,,,,,,,,,,,0,0,0,0,0
2.2507,1783973605.7542,1,1,0.5000,-0.0000,1.42243,-0.00278,-2.63135,1.06334,1.57080,0.11675,-0.12763,-0.48149,0.03618,,,,,,,,,,,,,,,,,,,,,,,,,,0,0,0,0,0
2.2512,1783973605.7547,1,1,0.5000,-0.0000,1.42243,-0.00278,-2.63135,1.06334,1.57080,0.11675,-0.12763,-0.48149,0.03618,,,,,,,,,,,,,,,,,,,,,,,,,,0,0,0,0,0
2.2516,1783973605.7551,1,1,0.5000,-0.0000,1.42243,-0.00278,-2.63135,1.06334,1.57080,0.11675,-0.12763,-0.48149,0.03618,,,,,,,,,,,,,,,,,,,,,,,,,,0,0,0,0,0
2.2557,1783973605.7592,1,1,0.5000,-0.0000,1.42243,-0.00278,-2.63135,1.06334,1.57080,0.11675,-0.12763,-0.48149,0.03618,,,,,,,,,,,,,,,,,,,,,,,,,,0,0,0,0,0
2.2561,1783973605.7596,1,1,0.5000,-0.0000,1.42243,-0.00278,-2.63135,1.06334,1.57080,0.11675,-0.12763,-0.48149,0.03618,,,,,,,,,,,,,,,,,,,,,,,,,,0,0,0,0,0
2.2652,1783973605.7687,1,1,0.5000,-0.0000,1.42243,-0.00278,-2.63135,1.06334,1.57080,0.11675,-0.12763,-0.48149,0.03618,,,,,,,,,,,,,,,,,,,,,,,,,,0,0,0,0,0
2.2759,1783973605.7794,1,1,0.5000,-0.0000,1.42243,-0.00278,-2.63135,1.06335,1.57080,0.11675,-0.12763,-0.48150,0.03618,,,,,,,,,,,,,,,,,,,,,,,,,,0,0,0,0,0
2.2761,1783973605.7796,1,1,0.5000,-0.0000,1.42243,-0.00278,-2.63135,1.06335,1.57080,0.11675,-0.12763,-0.48150,0.03618,,,,,,,,,,,,,,,,,,,,,,,,,,0,0,0,0,0
2.2857,1783973605.7892,1,1,0.5000,-0.0000,1.42243,-0.00280,-2.63135,1.06337,1.57080,0.11675,-0.12763,-0.48150,0.03617,,,,,,,,,,,,,,,,,,,,,,,,,,0,0,0,0,0
2.3541,1783973605.8576,1,1,0.5000,-0.0000,1.42243,-0.00298,-2.63145,1.06358,1.57080,0.11675,-0.12764,-0.48146,0.03609,,,,,,,,,,,,,,,,,,,,,,,,,,0,0,0,0,0
2.3545,1783973605.8580,1,1,0.5000,-0.0000,1.42243,-0.00298,-2.63145,1.06358,1.57080,0.11675,-0.12764,-0.48146,0.03609,,,,,,,,,,,,,,,,,,,,,,,,,,0,0,0,0,0
2.3610,1783973605.8645,1,1,0.5000,-0.0000,1.42243,-0.00298,-2.63145,1.06359,1.57080,0.11675,-0.12764,-0.48146,0.03608,,,,,,,,,,,,,,,,,,,,,,,,,,0,0,0,0,0
2.3614,1783973605.8649,1,1,0.5000,-0.0000,1.42243,-0.00298,-2.63145,1.06359,1.57080,0.11675,-0.12764,-0.48146,0.03608,,,,,,,,,,,,,,,,,,,,,,,,,,0,0,0,0,0
2.3652,1783973605.8687,1,1,0.5000,-0.0000,1.42243,-0.00300,-2.63146,1.06361,1.57080,0.11675,-0.12764,-0.48146,0.03608,,,,,,,,,,,,,,,,,,,,,,,,,,0,0,0,0,0
2.3911,1783973605.8946,1,1,0.5000,-0.0000,1.42243,-0.00319,-2.63150,1.06384,1.57080,0.11675,-0.12764,-0.48145,0.03601,,,,,,,,,,,,,,,,,,,,,,,,,,0,0,0,0,0
2.3917,1783973605.8952,1,1,0.5000,-0.0000,1.42243,-0.00319,-2.63150,1.06384,1.57080,0.11675,-0.12764,-0.48145,0.03601,,,,,,,,,,,,,,,,,,,,,,,,,,0,0,0,0,0
2.3956,1783973605.8991,1,1,0.5000,-0.0000,1.42243,-0.00321,-2.63150,1.06386,1.57080,0.11675,-0.12764,-0.48145,0.03601,,,,,,,,,,,,,,,,,,,,,,,,,,0,0,0,0,0
2.3960,1783973605.8995,1,1,0.5000,-0.0000,1.42243,-0.00321,-2.63150,1.06386,1.57080,0.11675,-0.12764,-0.48145,0.03601,,,,,,,,,,,,,,,,,,,,,,,,,,0,0,0,0,0
2.4036,1783973605.9071,1,1,0.5000,-0.0000,1.42243,-0.00327,-2.63152,1.06394,1.57080,0.11675,-0.12764,-0.48145,0.03598,,,,,,,,,,,,,,,,,,,,,,,,,,0,0,0,0,0
2.4041,1783973605.9075,1,1,0.5000,-0.0000,1.42243,-0.00327,-2.63152,1.06394,1.57080,0.11675,-0.12764,-0.48145,0.03598,,,,,,,,,,,,,,,,,,,,,,,,,,0,0,0,0,0
2.4155,1783973605.9190,1,1,0.5000,-0.0000,1.42243,-0.00341,-2.63154,1.06410,1.57080,0.11675,-0.12764,-0.48146,0.03594,,,,,,,,,,,,,,,,,,,,,,,,,,0,0,0,0,0
2.4258,1783973605.9293,1,1,0.5000,-0.0000,1.42243,-0.00342,-2.63154,1.06411,1.57080,0.11675,-0.12764,-0.48146,0.03594,,,,,,,,,,,,,,,,,,,,,,,,,,0,0,0,0,0
2.4264,1783973605.9299,1,1,0.5000,-0.0000,1.42243,-0.00342,-2.63154,1.06411,1.57080,0.11675,-0.12764,-0.48146,0.03594,,,,,,,,,,,,,,,,,,,,,,,,,,0,0,0,0,0
2.4363,1783973605.9398,1,1,0.5000,-0.0000,1.42243,-0.00349,-2.63155,1.06420,1.57080,0.11675,-0.12764,-0.48146,0.03591,,,,,,,,,,,,,,,,,,,,,,,,,,0,0,0,0,0
2.4425,1783973605.9460,1,1,0.5000,-0.0000,1.42243,-0.00353,-2.63156,1.06424,1.57080,0.11675,-0.12764,-0.48146,0.03590,,,,,,,,,,,,,,,,,,,,,,,,,,0,0,0,0,0
2.4583,1783973605.9618,1,1,0.5000,-0.0000,1.42243,-0.00372,-2.63159,1.06447,1.57080,0.11675,-0.12764,-0.48147,0.03584,,,,,,,,,,,,,,,,,,,,,,,,,,0,0,0,0,0
2.4660,1783973605.9695,1,1,0.5000,-0.0000,1.42243,-0.00382,-2.63160,1.06459,1.57080,0.11675,-0.12763,-0.48148,0.03581,,,,,,,,,,,,,,,,,,,,,,,,,,0,0,0,0,0
2.4721,1783973605.9756,1,1,0.5000,-0.0000,1.42243,-0.00390,-2.63161,1.06469,1.57080,0.11675,-0.12763,-0.48148,0.03579,,,,,,,,,,,,,,,,,,,,,,,,,,0,0,0,0,0
2.4857,1783973605.9892,1,1,0.5000,-0.0000,1.42243,-0.00396,-2.63162,1.06477,1.57080,0.11675,-0.12763,-0.48149,0.03577,,,,,,,,,,,,,,,,,,,,,,,,,,0,0,0,0,0
2.4941,1783973605.9976,1,1,0.5000,-0.0000,1.42243,-0.00396,-2.63162,1.06477,1.57080,0.11675,-0.12763,-0.48149,0.03577,,,,,,,,,,,,,,,,,,,,,,,,,,0,0,0,0,0
2.5039,1783973606.0074,1,1,0.5000,-0.0000,1.42243,-0.00396,-2.63162,1.06477,1.57080,0.11675,-0.12763,-0.48149,0.03577,,,,,,,,,,,,,,,,,,,,,,,,,,0,0,0,0,0
2.5201,1783973606.0236,1,1,0.5000,-0.0000,1.42243,-0.00396,-2.63162,1.06477,1.57080,0.11675,-0.12763,-0.48149,0.03577,,,,,,,,,,,,,,,,,,,,,,,,,,0,0,0,0,0
2.5250,1783973606.0285,1,1,0.5000,-0.0000,1.42243,-0.00396,-2.63162,1.06477,1.57080,0.11675,-0.12763,-0.48149,0.03577,,,,,,,,,,,,,,,,,,,,,,,,,,0,0,0,0,0
2.5254,1783973606.0289,1,1,0.5000,-0.0000,1.42243,-0.00396,-2.63162,1.06477,1.57080,0.11675,-0.12763,-0.48149,0.03577,,,,,,,,,,,,,,,,,,,,,,,,,,0,0,0,0,0
2.5448,1783973606.0483,1,1,0.5000,-0.0000,1.42243,-0.00396,-2.63162,1.06477,1.57080,0.11675,-0.12763,-0.48149,0.03577,,,,,,,,,,,,,,,,,,,,,,,,,,0,0,0,0,0
2.5452,1783973606.0487,1,1,0.5000,-0.0000,1.42243,-0.00396,-2.63162,1.06477,1.57080,0.11675,-0.12763,-0.48149,0.03577,,,,,,,,,,,,,,,,,,,,,,,,,,0,0,0,0,0
2.5543,1783973606.0578,1,1,0.5000,-0.0000,1.42243,-0.00396,-2.63162,1.06477,1.57080,0.11675,-0.12763,-0.48149,0.03577,,,,,,,,,,,,,,,,,,,,,,,,,,0,0,0,0,0
2.5619,1783973606.0653,1,1,0.5000,-0.0000,1.42243,-0.00396,-2.63162,1.06477,1.57080,0.11675,-0.12763,-0.48149,0.03577,,,,,,,,,,,,,,,,,,,,,,,,,,0,0,0,0,0
2.5715,1783973606.0750,1,1,0.5000,-0.0000,1.42243,-0.00396,-2.63162,1.06477,1.57080,0.11675,-0.12763,-0.48149,0.03577,,,,,,,,,,,,,,,,,,,,,,,,,,0,0,0,0,0
2.5945,1783973606.0980,1,1,0.5000,-0.0000,1.42243,-0.00396,-2.63162,1.06477,1.57080,0.11675,-0.12763,-0.48149,0.03577,,,,,,,,,,,,,,,,,,,,,,,,,,0,0,0,0,0
2.5960,1783973606.0995,1,1,0.5000,-0.0000,1.42243,-0.00396,-2.63162,1.06477,1.57080,0.11675,-0.12763,-0.48149,0.03577,,,,,,,,,,,,,,,,,,,,,,,,,,0,0,0,0,0
2.6032,1783973606.1067,1,1,0.5000,-0.0000,1.42243,-0.00396,-2.63162,1.06477,1.57080,0.11675,-0.12763,-0.48149,0.03577,,,,,,,,,,,,,,,,,,,,,,,,,,0,0,0,0,0
2.6142,1783973606.1177,1,1,0.5000,-0.0000,1.42243,-0.00396,-2.63162,1.06477,1.57080,0.11675,-0.12763,-0.48149,0.03577,,,,,,,,,,,,,,,,,,,,,,,,,,0,0,0,0,0
2.6215,1783973606.1250,1,1,0.5000,-0.0000,1.42243,-0.00396,-2.63162,1.06477,1.57080,0.11675,-0.12763,-0.48149,0.03577,,,,,,,,,,,,,,,,,,,,,,,,,,0,0,0,0,0
2.6219,1783973606.1254,1,1,0.5000,-0.0000,1.42243,-0.00396,-2.63162,1.06477,1.57080,0.11675,-0.12763,-0.48149,0.03577,,,,,,,,,,,,,,,,,,,,,,,,,,0,0,0,0,0
2.6322,1783973606.1357,1,1,0.5000,-0.0000,1.42243,-0.00396,-2.63162,1.06477,1.57080,0.11675,-0.12763,-0.48149,0.03577,,,,,,,,,,,,,,,,,,,,,,,,,,0,0,0,0,0
2.6631,1783973606.1666,1,1,0.5000,-0.0000,1.42243,-0.00396,-2.63162,1.06477,1.57080,0.11675,-0.12763,-0.48149,0.03577,,,,,,,,,,,,,,,,,,,,,,,,,,0,0,0,0,0
2.6635,1783973606.1670,1,1,0.5000,-0.0000,1.42243,-0.00396,-2.63162,1.06477,1.57080,0.11675,-0.12763,-0.48149,0.03577,,,,,,,,,,,,,,,,,,,,,,,,,,0,0,0,0,0
2.6639,1783973606.1674,1,1,0.5000,-0.0000,1.42243,-0.00396,-2.63162,1.06477,1.57080,0.11675,-0.12763,-0.48149,0.03577,,,,,,,,,,,,,,,,,,,,,,,,,,0,0,0,0,0
2.6696,1783973606.1731,1,1,0.5000,-0.0000,1.42243,-0.00396,-2.63162,1.06477,1.57080,0.11675,-0.12763,-0.48149,0.03577,,,,,,,,,,,,,,,,,,,,,,,,,,0,0,0,0,0
2.6715,1783973606.1750,1,1,0.5000,-0.0000,1.42243,-0.00396,-2.63162,1.06477,1.57080,0.11675,-0.12763,-0.48149,0.03577,,,,,,,,,,,,,,,,,,,,,,,,,,0,0,0,0,0
2.6916,1783973606.1951,1,1,0.5000,-0.0000,1.42243,-0.00396,-2.63162,1.06477,1.57080,0.11675,-0.12763,-0.48149,0.03577,,,,,,,,,,,,,,,,,,,,,,,,,,0,0,0,0,0
2.6968,1783973606.2003,1,1,0.5000,-0.0000,1.42243,-0.00396,-2.63162,1.06477,1.57080,0.11675,-0.12763,-0.48149,0.03577,,,,,,,,,,,,,,,,,,,,,,,,,,0,0,0,0,0
2.6973,1783973606.2008,1,1,0.5000,-0.0000,1.42243,-0.00396,-2.63162,1.06477,1.57080,0.11675,-0.12763,-0.48149,0.03577,,,,,,,,,,,,,,,,,,,,,,,,,,0,0,0,0,0
2.7025,1783973606.2060,1,1,0.5000,-0.0000,1.42243,-0.00396,-2.63162,1.06477,1.57080,0.11675,-0.12763,-0.48149,0.03577,,,,,,,,,,,,,,,,,,,,,,,,,,0,0,0,0,0
2.7126,1783973606.2161,1,1,0.5000,-0.0000,1.42243,-0.00398,-2.63161,1.06480,1.57080,0.11675,-0.12763,-0.48150,0.03577,,,,,,,,,,,,,,,,,,,,,,,,,,0,0,0,0,0
2.7226,1783973606.2261,1,1,0.5000,-0.0000,1.42243,-0.00398,-2.63162,1.06480,1.57080,0.11675,-0.12763,-0.48150,0.03577,,,,,,,,,,,,,,,,,,,,,,,,,,0,0,0,0,0
2.7319,1783973606.2354,1,1,0.5000,-0.0000,1.42243,-0.00401,-2.63164,1.06483,1.57080,0.11675,-0.12763,-0.48149,0.03576,,,,,,,,,,,,,,,,,,,,,,,,,,0,0,0,0,0
2.7322,1783973606.2357,1,1,0.5000,-0.0000,1.42243,-0.00401,-2.63164,1.06483,1.57080,0.11675,-0.12763,-0.48149,0.03576,,,,,,,,,,,,,,,,,,,,,,,,,,0,0,0,0,0
2.7528,1783973606.2563,1,1,0.5000,-0.0000,1.42243,-0.00410,-2.63171,1.06495,1.57080,0.11675,-0.12764,-0.48145,0.03570,,,,,,,,,,,,,,,,,,,,,,,,,,0,0,0,0,0
2.7545,1783973606.2580,1,1,0.5000,-0.0000,1.42243,-0.00410,-2.63171,1.06495,1.57080,0.11675,-0.12764,-0.48145,0.03570,,,,,,,,,,,,,,,,,,,,,,,,,,0,0,0,0,0
2.7606,1783973606.2641,1,1,0.5000,-0.0000,1.42243,-0.00410,-2.63171,1.06496,1.57080,0.11675,-0.12764,-0.48145,0.03570,,,,,,,,,,,,,,,,,,,,,,,,,,0,0,0,0,0
2.7609,1783973606.2644,1,1,0.5000,-0.0000,1.42243,-0.00410,-2.63171,1.06496,1.57080,0.11675,-0.12764,-0.48145,0.03570,,,,,,,,,,,,,,,,,,,,,,,,,,0,0,0,0,0
2.7740,1783973606.2775,1,1,0.5000,-0.0000,1.42243,-0.00414,-2.63173,1.06500,1.57080,0.11675,-0.12764,-0.48144,0.03568,,,,,,,,,,,,,,,,,,,,,,,,,,0,0,0,0,0
2.7852,1783973606.2887,1,1,0.5000,-0.0000,1.42243,-0.00417,-2.63174,1.06503,1.57080,0.11675,-0.12764,-0.48144,0.03567,,,,,,,,,,,,,,,,,,,,,,,,,,0,0,0,0,0
2.8064,1783973606.3099,1,1,0.5000,-0.0000,1.42243,-0.00428,-2.63176,1.06517,1.57080,0.11675,-0.12764,-0.48144,0.03563,,,,,,,,,,,,,,,,,,,,,,,,,,0,0,0,0,0
2.8070,1783973606.3105,1,1,0.5000,-0.0000,1.42243,-0.00429,-2.63176,1.06517,1.57080,0.11675,-0.12764,-0.48144,0.03563,,,,,,,,,,,,,,,,,,,,,,,,,,0,0,0,0,0
2.8124,1783973606.3159,1,1,0.5000,-0.0000,1.42243,-0.00431,-2.63176,1.06520,1.57080,0.11675,-0.12764,-0.48144,0.03562,,,,,,,,,,,,,,,,,,,,,,,,,,0,0,0,0,0
2.8127,1783973606.3162,1,1,0.5000,-0.0000,1.42243,-0.00431,-2.63176,1.06520,1.57080,0.11675,-0.12764,-0.48144,0.03562,,,,,,,,,,,,,,,,,,,,,,,,,,0,0,0,0,0
2.8336,1783973606.3371,1,1,0.5000,-0.0000,1.42242,-0.00454,-2.63181,1.06548,1.57080,0.11675,-0.12764,-0.48145,0.03555,,,,,,,,,,,,,,,,,,,,,,,,,,0,0,0,0,0
2.8363,1783973606.3397,1,1,0.5000,-0.0000,1.42242,-0.00460,-2.63182,1.06555,1.57080,0.11675,-0.12764,-0.48145,0.03553,,,,,,,,,,,,,,,,,,,,,,,,,,0,0,0,0,0
2.8366,1783973606.3401,1,1,0.5000,-0.0000,1.42242,-0.00460,-2.63182,1.06555,1.57080,0.11675,-0.12764,-0.48145,0.03553,,,,,,,,,,,,,,,,,,,,,,,,,,0,0,0,0,0
2.8700,1783973606.3735,1,1,0.5000,-0.0000,1.42242,-0.00479,-2.63184,1.06577,1.57080,0.11675,-0.12764,-0.48146,0.03547,,,,,,,,,,,,,,,,,,,,,,,,,,0,0,0,0,0
2.8705,1783973606.3740,1,1,0.5000,-0.0000,1.42242,-0.00479,-2.63184,1.06577,1.57080,0.11675,-0.12764,-0.48146,0.03547,,,,,,,,,,,,,,,,,,,,,,,,,,0,0,0,0,0
2.8718,1783973606.3753,1,1,0.5000,-0.0000,1.42242,-0.00479,-2.63184,1.06577,1.57080,0.11675,-0.12764,-0.48146,0.03547,,,,,,,,,,,,,,,,,,,,,,,,,,0,0,0,0,0
2.8722,1783973606.3757,1,1,0.5000,-0.0000,1.42242,-0.00479,-2.63184,1.06577,1.57080,0.11675,-0.12764,-0.48146,0.03547,,,,,,,,,,,,,,,,,,,,,,,,,,0,0,0,0,0
2.8792,1783973606.3827,1,1,0.5000,-0.0000,1.42242,-0.00481,-2.63185,1.06580,1.57080,0.11675,-0.12764,-0.48146,0.03547,,,,,,,,,,,,,,,,,,,,,,,,,,0,0,0,0,0
2.9039,1783973606.4074,1,1,0.5000,-0.0000,1.42242,-0.00499,-2.63185,1.06602,1.57080,0.11675,-0.12763,-0.48149,0.03542,,,,,,,,,,,,,,,,,,,,,,,,,,0,0,0,0,0
2.9041,1783973606.4076,1,1,0.5000,-0.0000,1.42242,-0.00499,-2.63185,1.06602,1.57080,0.11675,-0.12763,-0.48149,0.03542,,,,,,,,,,,,,,,,,,,,,,,,,,0,0,0,0,0
2.9206,1783973606.4241,1,1,0.5000,-0.0000,1.42242,-0.00512,-2.63184,1.06619,1.57080,0.11675,-0.12763,-0.48152,0.03540,,,,,,,,,,,,,,,,,,,,,,,,,,0,0,0,0,0
2.9271,1783973606.4306,1,1,0.5000,-0.0000,1.42242,-0.00517,-2.63182,1.06625,1.57080,0.11675,-0.12762,-0.48154,0.03539,,,,,,,,,,,,,,,,,,,,,,,,,,0,0,0,0,0
2.9702,1783973606.4737,1,1,0.5000,-0.0000,1.42242,-0.00519,-2.63181,1.06627,1.57080,0.11675,-0.12762,-0.48155,0.03539,,,,,,,,,,,,,,,,,,,,,,,,,,0,0,0,0,0
2.9706,1783973606.4741,1,1,0.5000,-0.0000,1.42242,-0.00519,-2.63181,1.06627,1.57080,0.11675,-0.12762,-0.48155,0.03539,,,,,,,,,,,,,,,,,,,,,,,,,,0,0,0,0,0
2.9711,1783973606.4746,1,1,0.5000,-0.0000,1.42242,-0.00519,-2.63181,1.06627,1.57080,0.11675,-0.12762,-0.48155,0.03539,,,,,,,,,,,,,,,,,,,,,,,,,,0,0,0,0,0
2.9714,1783973606.4749,1,1,0.5000,-0.0000,1.42242,-0.00519,-2.63181,1.06627,1.57080,0.11675,-0.12762,-0.48155,0.03539,,,,,,,,,,,,,,,,,,,,,,,,,,0,0,0,0,0
2.9717,1783973606.4752,1,1,0.5000,-0.0000,1.42242,-0.00519,-2.63181,1.06627,1.57080,0.11675,-0.12762,-0.48155,0.03539,,,,,,,,,,,,,,,,,,,,,,,,,,0,0,0,0,0
2.9733,1783973606.4768,1,1,0.5000,-0.0000,1.42242,-0.00519,-2.63181,1.06627,1.57080,0.11675,-0.12762,-0.48155,0.03539,,,,,,,,,,,,,,,,,,,,,,,,,,0,0,0,0,0
2.9737,1783973606.4772,1,1,0.5000,-0.0000,1.42242,-0.00519,-2.63181,1.06627,1.57080,0.11675,-0.12762,-0.48155,0.03539,,,,,,,,,,,,,,,,,,,,,,,,,,0,0,0,0,0
2.9851,1783973606.4886,1,1,0.5000,-0.0000,1.42242,-0.00519,-2.63181,1.06627,1.57080,0.11675,-0.12762,-0.48155,0.03539,,,,,,,,,,,,,,,,,,,,,,,,,,0,0,0,0,0
2.9854,1783973606.4889,1,1,0.5000,-0.0000,1.42242,-0.00519,-2.63181,1.06627,1.57080,0.11675,-0.12762,-0.48155,0.03539,,,,,,,,,,,,,,,,,,,,,,,,,,0,0,0,0,0
3.0006,1783973606.5041,1,1,0.5000,-0.0000,1.42242,-0.00519,-2.63181,1.06627,1.57080,0.11675,-0.12762,-0.48155,0.03539,,,,,,,,,,,,,,,,,,,,,,,,,,0,0,0,0,0
3.0030,1783973606.5065,1,1,0.5000,-0.0000,1.42242,-0.00519,-2.63181,1.06627,1.57080,0.11675,-0.12762,-0.48155,0.03539,,,,,,,,,,,,,,,,,,,,,,,,,,0,0,0,0,0
3.0032,1783973606.5067,1,1,0.5000,-0.0000,1.42242,-0.00519,-2.63181,1.06627,1.57080,0.11675,-0.12762,-0.48155,0.03539,,,,,,,,,,,,,,,,,,,,,,,,,,0,0,0,0,0
3.0257,1783973606.5291,1,1,0.5000,-0.0000,1.42242,-0.00519,-2.63181,1.06627,1.57080,0.11675,-0.12762,-0.48155,0.03539,,,,,,,,,,,,,,,,,,,,,,,,,,0,0,0,0,0
3.0261,1783973606.5296,1,1,0.5000,-0.0000,1.42242,-0.00519,-2.63181,1.06627,1.57080,0.11675,-0.12762,-0.48155,0.03539,,,,,,,,,,,,,,,,,,,,,,,,,,0,0,0,0,0
3.0307,1783973606.5342,1,1,0.5000,-0.0000,1.42242,-0.00519,-2.63181,1.06627,1.57080,0.11675,-0.12762,-0.48155,0.03539,,,,,,,,,,,,,,,,,,,,,,,,,,0,0,0,0,0
3.0702,1783973606.5737,1,1,0.5000,-0.0000,1.42242,-0.00519,-2.63181,1.06627,1.57080,0.11675,-0.12762,-0.48155,0.03539,,,,,,,,,,,,,,,,,,,,,,,,,,0,0,0,0,0
3.0706,1783973606.5741,1,1,0.5000,-0.0000,1.42242,-0.00519,-2.63181,1.06627,1.57080,0.11675,-0.12762,-0.48155,0.03539,,,,,,,,,,,,,,,,,,,,,,,,,,0,0,0,0,0
3.0711,1783973606.5746,1,1,0.5000,-0.0000,1.42242,-0.00519,-2.63181,1.06627,1.57080,0.11675,-0.12762,-0.48155,0.03539,,,,,,,,,,,,,,,,,,,,,,,,,,0,0,0,0,0
3.0926,1783973606.5961,1,1,0.5000,-0.0000,1.42242,-0.00519,-2.63181,1.06627,1.57080,0.11675,-0.12762,-0.48155,0.03539,,,,,,,,,,,,,,,,,,,,,,,,,,0,0,0,0,0
3.1058,1783973606.6093,1,1,0.5000,-0.0000,1.42242,-0.00519,-2.63181,1.06627,1.57080,0.11675,-0.12762,-0.48155,0.03539,,,,,,,,,,,,,,,,,,,,,,,,,,0,0,0,0,0
3.1091,1783973606.6126,1,1,0.5000,-0.0000,1.42242,-0.00519,-2.63181,1.06627,1.57080,0.11675,-0.12762,-0.48155,0.03539,,,,,,,,,,,,,,,,,,,,,,,,,,0,0,0,0,0
3.1094,1783973606.6129,1,1,0.5000,-0.0000,1.42242,-0.00519,-2.63181,1.06627,1.57080,0.11675,-0.12762,-0.48155,0.03539,,,,,,,,,,,,,,,,,,,,,,,,,,0,0,0,0,0
3.1147,1783973606.6181,1,1,0.5000,-0.0000,1.42242,-0.00519,-2.63181,1.06628,1.57080,0.11675,-0.12762,-0.48155,0.03539,,,,,,,,,,,,,,,,,,,,,,,,,,0,0,0,0,0
3.1152,1783973606.6187,1,1,0.5000,-0.0000,1.42242,-0.00519,-2.63181,1.06628,1.57080,0.11675,-0.12762,-0.48155,0.03539,,,,,,,,,,,,,,,,,,,,,,,,,,0,0,0,0,0
3.1281,1783973606.6316,1,1,0.5000,-0.0000,1.42242,-0.00519,-2.63182,1.06629,1.57080,0.11675,-0.12762,-0.48154,0.03539,,,,,,,,,,,,,,,,,,,,,,,,,,0,0,0,0,0
3.1352,1783973606.6387,1,1,0.5000,-0.0000,1.42242,-0.00520,-2.63183,1.06630,1.57080,0.11675,-0.12762,-0.48154,0.03538,,,,,,,,,,,,,,,,,,,,,,,,,,0,0,0,0,0
3.1541,1783973606.6576,1,1,0.5000,-0.0000,1.42242,-0.00521,-2.63185,1.06631,1.57080,0.11675,-0.12762,-0.48153,0.03537,,,,,,,,,,,,,,,,,,,,,,,,,,0,0,0,0,0
3.1560,1783973606.6595,1,1,0.5000,-0.0000,1.42242,-0.00522,-2.63186,1.06633,1.57080,0.11675,-0.12762,-0.48152,0.03537,,,,,,,,,,,,,,,,,,,,,,,,,,0,0,0,0,0
3.1563,1783973606.6598,1,1,0.5000,-0.0000,1.42242,-0.00522,-2.63186,1.06633,1.57080,0.11675,-0.12762,-0.48152,0.03537,,,,,,,,,,,,,,,,,,,,,,,,,,0,0,0,0,0
3.1635,1783973606.6669,1,1,0.5000,-0.0000,1.42242,-0.00524,-2.63189,1.06636,1.57080,0.11675,-0.12763,-0.48150,0.03535,,,,,,,,,,,,,,,,,,,,,,,,,,0,0,0,0,0
3.1775,1783973606.6810,1,1,0.5000,-0.0000,1.42242,-0.00530,-2.63195,1.06642,1.57080,0.11675,-0.12763,-0.48147,0.03531,,,,,,,,,,,,,,,,,,,,,,,,,,0,0,0,0,0
3.1879,1783973606.6914,1,1,0.5000,-0.0000,1.42242,-0.00537,-2.63202,1.06650,1.57080,0.11675,-0.12764,-0.48143,0.03526,,,,,,,,,,,,,,,,,,,,,,,,,,0,0,0,0,0
3.1952,1783973606.6987,1,1,0.5000,-0.0000,1.42242,-0.00543,-2.63207,1.06656,1.57080,0.11675,-0.12764,-0.48140,0.03522,,,,,,,,,,,,,,,,,,,,,,,,,,0,0,0,0,0
3.2071,1783973606.7106,1,1,0.5000,-0.0000,1.42242,-0.00544,-2.63207,1.06658,1.57080,0.11675,-0.12764,-0.48140,0.03522,,,,,,,,,,,,,,,,,,,,,,,,,,0,0,0,0,0
3.2251,1783973606.7286,1,1,0.5000,-0.0000,1.42242,-0.00552,-2.63207,1.06669,1.57080,0.11675,-0.12764,-0.48141,0.03520,,,,,,,,,,,,,,,,,,,,,,,,,,0,0,0,0,0
3.2416,1783973606.7451,1,1,0.5000,-0.0000,1.42242,-0.00558,-2.63208,1.06675,1.57080,0.11675,-0.12764,-0.48142,0.03518,,,,,,,,,,,,,,,,,,,,,,,,,,0,0,0,0,0
3.2444,1783973606.7479,1,1,0.5000,-0.0000,1.42242,-0.00560,-2.63208,1.06678,1.57080,0.11675,-0.12764,-0.48142,0.03517,,,,,,,,,,,,,,,,,,,,,,,,,,0,0,0,0,0
3.2615,1783973606.7650,1,1,0.5000,-0.0000,1.42242,-0.00568,-2.63209,1.06687,1.57080,0.11675,-0.12764,-0.48143,0.03515,,,,,,,,,,,,,,,,,,,,,,,,,,0,0,0,0,0
3.2642,1783973606.7677,1,1,0.5000,-0.0000,1.42242,-0.00570,-2.63209,1.06690,1.57080,0.11675,-0.12764,-0.48143,0.03515,,,,,,,,,,,,,,,,,,,,,,,,,,0,0,0,0,0
3.2885,1783973606.7920,1,1,0.5000,-0.0000,1.42242,-0.00591,-2.63211,1.06715,1.57080,0.11675,-0.12764,-0.48145,0.03508,,,,,,,,,,,,,,,,,,,,,,,,,,0,0,0,0,0
3.2912,1783973606.7947,1,1,0.5000,-0.0000,1.42242,-0.00592,-2.63211,1.06716,1.57080,0.11675,-0.12764,-0.48145,0.03508,,,,,,,,,,,,,,,,,,,,,,,,,,0,0,0,0,0
3.2914,1783973606.7949,1,1,0.5000,-0.0000,1.42242,-0.00592,-2.63211,1.06716,1.57080,0.11675,-0.12764,-0.48145,0.03508,,,,,,,,,,,,,,,,,,,,,,,,,,0,0,0,0,0
3.3180,1783973606.8215,1,1,0.5000,-0.0000,1.42242,-0.00609,-2.63212,1.06738,1.57080,0.11675,-0.12763,-0.48147,0.03504,,,,,,,,,,,,,,,,,,,,,,,,,,0,0,0,0,0
3.3239,1783973606.8274,1,1,0.5000,-0.0000,1.42242,-0.00618,-2.63212,1.06748,1.57080,0.11675,-0.12763,-0.48149,0.03502,,,,,,,,,,,,,,,,,,,,,,,,,,0,0,0,0,0
3.3338,1783973606.8373,1,1,0.5000,-0.0000,1.42242,-0.00626,-2.63211,1.06758,1.57080,0.11675,-0.12763,-0.48150,0.03500,,,,,,,,,,,,,,,,,,,,,,,,,,0,0,0,0,0
3.3341,1783973606.8376,1,1,0.5000,-0.0000,1.42242,-0.00626,-2.63211,1.06758,1.57080,0.11675,-0.12763,-0.48150,0.03500,,,,,,,,,,,,,,,,,,,,,,,,,,0,0,0,0,0
3.3470,1783973606.8505,1,1,0.5000,-0.0000,1.42242,-0.00637,-2.63210,1.06772,1.57080,0.11675,-0.12762,-0.48154,0.03499,,,,,,,,,,,,,,,,,,,,,,,,,,0,0,0,0,0
3.3833,1783973606.8868,1,1,0.5000,-0.0000,1.42242,-0.00637,-2.63210,1.06772,1.57080,0.11675,-0.12762,-0.48154,0.03499,,,,,,,,,,,,,,,,,,,,,,,,,,0,0,0,0,0
3.3837,1783973606.8872,1,1,0.5000,-0.0000,1.42242,-0.00637,-2.63210,1.06772,1.57080,0.11675,-0.12762,-0.48154,0.03499,,,,,,,,,,,,,,,,,,,,,,,,,,0,0,0,0,0
3.3845,1783973606.8880,1,1,0.5000,-0.0000,1.42242,-0.00637,-2.63210,1.06772,1.57080,0.11675,-0.12762,-0.48154,0.03499,,,,,,,,,,,,,,,,,,,,,,,,,,0,0,0,0,0
3.3848,1783973606.8882,1,1,0.5000,-0.0000,1.42242,-0.00637,-2.63210,1.06772,1.57080,0.11675,-0.12762,-0.48154,0.03499,,,,,,,,,,,,,,,,,,,,,,,,,,0,0,0,0,0
3.4073,1783973606.9108,1,1,0.5000,-0.0000,1.42242,-0.00637,-2.63210,1.06772,1.57080,0.11675,-0.12762,-0.48154,0.03499,,,,,,,,,,,,,,,,,,,,,,,,,,0,0,0,0,0
3.4076,1783973606.9111,1,1,0.5000,-0.0000,1.42242,-0.00637,-2.63210,1.06772,1.57080,0.11675,-0.12762,-0.48154,0.03499,,,,,,,,,,,,,,,,,,,,,,,,,,0,0,0,0,0
3.4207,1783973606.9242,1,1,0.5000,-0.0000,1.42242,-0.00637,-2.63210,1.06772,1.57080,0.11675,-0.12762,-0.48154,0.03499,,,,,,,,,,,,,,,,,,,,,,,,,,0,0,0,0,0
3.4211,1783973606.9246,1,1,0.5000,-0.0000,1.42242,-0.00637,-2.63210,1.06772,1.57080,0.11675,-0.12762,-0.48154,0.03499,,,,,,,,,,,,,,,,,,,,,,,,,,0,0,0,0,0
3.4299,1783973606.9334,1,1,0.5000,-0.0000,1.42242,-0.00637,-2.63210,1.06772,1.57080,0.11675,-0.12762,-0.48154,0.03499,,,,,,,,,,,,,,,,,,,,,,,,,,0,0,0,0,0
3.4371,1783973606.9405,1,1,0.5000,-0.0000,1.42242,-0.00637,-2.63210,1.06772,1.57080,0.11675,-0.12762,-0.48154,0.03499,,,,,,,,,,,,,,,,,,,,,,,,,,0,0,0,0,0
3.4413,1783973606.9447,1,1,0.5000,-0.0000,1.42242,-0.00637,-2.63210,1.06772,1.57080,0.11675,-0.12762,-0.48154,0.03499,,,,,,,,,,,,,,,,,,,,,,,,,,0,0,0,0,0
3.4416,1783973606.9451,1,1,0.5000,-0.0000,1.42242,-0.00637,-2.63210,1.06772,1.57080,0.11675,-0.12762,-0.48154,0.03499,,,,,,,,,,,,,,,,,,,,,,,,,,0,0,0,0,0
3.5045,1783973607.0080,1,1,0.5000,-0.0000,1.42242,-0.00637,-2.63210,1.06772,1.57080,0.11675,-0.12762,-0.48154,0.03499,,,,,,,,,,,,,,,,,,,,,,,,,,0,0,0,0,0
3.5048,1783973607.0083,1,1,0.5000,-0.0000,1.42242,-0.00637,-2.63210,1.06772,1.57080,0.11675,-0.12762,-0.48154,0.03499,,,,,,,,,,,,,,,,,,,,,,,,,,0,0,0,0,0
3.5052,1783973607.0086,1,1,0.5000,-0.0000,1.42242,-0.00637,-2.63210,1.06772,1.57080,0.11675,-0.12762,-0.48154,0.03499,,,,,,,,,,,,,,,,,,,,,,,,,,0,0,0,0,0
3.5055,1783973607.0090,1,1,0.5000,-0.0000,1.42242,-0.00637,-2.63210,1.06772,1.57080,0.11675,-0.12762,-0.48154,0.03499,,,,,,,,,,,,,,,,,,,,,,,,,,0,0,0,0,0
3.5058,1783973607.0092,1,1,0.5000,-0.0000,1.42242,-0.00637,-2.63210,1.06772,1.57080,0.11675,-0.12762,-0.48154,0.03499,,,,,,,,,,,,,,,,,,,,,,,,,,0,0,0,0,0
3.5156,1783973607.0191,1,1,0.5000,-0.0000,1.42242,-0.00637,-2.63210,1.06772,1.57080,0.11675,-0.12762,-0.48154,0.03499,,,,,,,,,,,,,,,,,,,,,,,,,,0,0,0,0,0
3.5245,1783973607.0280,1,1,0.5000,-0.0000,1.42242,-0.00637,-2.63210,1.06772,1.57080,0.11675,-0.12762,-0.48154,0.03499,,,,,,,,,,,,,,,,,,,,,,,,,,0,0,0,0,0
3.5430,1783973607.0465,1,1,0.5000,-0.0000,1.42242,-0.00637,-2.63210,1.06772,1.57080,0.11675,-0.12762,-0.48154,0.03499,,,,,,,,,,,,,,,,,,,,,,,,,,0,0,0,0,0
3.5707,1783973607.0742,1,1,0.5000,-0.0000,1.42242,-0.00637,-2.63210,1.06773,1.57080,0.11675,-0.12762,-0.48153,0.03498,,,,,,,,,,,,,,,,,,,,,,,,,,0,0,0,0,0
3.5713,1783973607.0748,1,1,0.5000,-0.0000,1.42242,-0.00638,-2.63211,1.06774,1.57080,0.11675,-0.12762,-0.48153,0.03498,,,,,,,,,,,,,,,,,,,,,,,,,,0,0,0,0,0
3.5746,1783973607.0781,1,1,0.5000,-0.0000,1.42242,-0.00638,-2.63211,1.06774,1.57080,0.11675,-0.12762,-0.48153,0.03498,,,,,,,,,,,,,,,,,,,,,,,,,,0,0,0,0,0
3.5850,1783973607.0885,1,1,0.5000,-0.0000,1.42242,-0.00640,-2.63214,1.06777,1.57080,0.11675,-0.12762,-0.48151,0.03496,,,,,,,,,,,,,,,,,,,,,,,,,,0,0,0,0,0
3.5953,1783973607.0988,1,1,0.5000,-0.0000,1.42242,-0.00642,-2.63215,1.06779,1.57080,0.11675,-0.12763,-0.48150,0.03495,,,,,,,,,,,,,,,,,,,,,,,,,,0,0,0,0,0
3.5955,1783973607.0990,1,1,0.5000,-0.0000,1.42242,-0.00642,-2.63215,1.06779,1.57080,0.11675,-0.12763,-0.48150,0.03495,,,,,,,,,,,,,,,,,,,,,,,,,,0,0,0,0,0
3.6064,1783973607.1099,1,1,0.5000,-0.0000,1.42242,-0.00644,-2.63217,1.06782,1.57080,0.11675,-0.12763,-0.48149,0.03494,,,,,,,,,,,,,,,,,,,,,,,,,,0,0,0,0,0
3.6174,1783973607.1209,1,1,0.5000,-0.0000,1.42242,-0.00648,-2.63219,1.06786,1.57080,0.11675,-0.12763,-0.48148,0.03491,,,,,,,,,,,,,,,,,,,,,,,,,,0,0,0,0,0
3.6452,1783973607.1487,1,1,0.5000,-0.0000,1.42242,-0.00664,-2.63225,1.06805,1.57080,0.11675,-0.12763,-0.48146,0.03485,,,,,,,,,,,,,,,,,,,,,,,,,,0,0,0,0,0
3.6457,1783973607.1492,1,1,0.5000,-0.0000,1.42242,-0.00664,-2.63225,1.06805,1.57080,0.11675,-0.12763,-0.48146,0.03485,,,,,,,,,,,,,,,,,,,,,,,,,,0,0,0,0,0
3.6472,1783973607.1507,1,1,0.5000,-0.0000,1.42242,-0.00664,-2.63225,1.06805,1.57080,0.11675,-0.12763,-0.48146,0.03485,,,,,,,,,,,,,,,,,,,,,,,,,,0,0,0,0,0
3.6976,1783973607.2011,1,1,0.5000,-0.0000,1.42242,-0.00694,-2.63232,1.06841,1.57080,0.11675,-0.12763,-0.48146,0.03475,,,,,,,,,,,,,,,,,,,,,,,,,,0,0,0,0,0
3.6983,1783973607.2018,1,1,0.5000,-0.0000,1.42242,-0.00694,-2.63232,1.06841,1.57080,0.11675,-0.12763,-0.48146,0.03475,,,,,,,,,,,,,,,,,,,,,,,,,,0,0,0,0,0
3.6990,1783973607.2025,1,1,0.5000,-0.0000,1.42242,-0.00698,-2.63233,1.06846,1.57080,0.11675,-0.12763,-0.48146,0.03473,,,,,,,,,,,,,,,,,,,,,,,,,,0,0,0,0,0
3.7160,1783973607.2195,1,1,0.5000,-0.0000,1.42242,-0.00704,-2.63234,1.06853,1.57080,0.11675,-0.12763,-0.48146,0.03472,,,,,,,,,,,,,,,,,,,,,,,,,,0,0,0,0,0
3.7164,1783973607.2199,1,1,0.5000,-0.0000,1.42242,-0.00704,-2.63234,1.06853,1.57080,0.11675,-0.12763,-0.48146,0.03472,,,,,,,,,,,,,,,,,,,,,,,,,,0,0,0,0,0
3.7201,1783973607.2236,1,1,0.5000,-0.0000,1.42242,-0.00707,-2.63234,1.06857,1.57080,0.11675,-0.12763,-0.48147,0.03471,,,,,,,,,,,,,,,,,,,,,,,,,,0,0,0,0,0
3.7275,1783973607.2309,1,1,0.5000,-0.0000,1.42242,-0.00716,-2.63235,1.06868,1.57080,0.11675,-0.12763,-0.48147,0.03468,,,,,,,,,,,,,,,,,,,,,,,,,,0,0,0,0,0
3.7277,1783973607.2312,1,1,0.5000,-0.0000,1.42242,-0.00716,-2.63235,1.06868,1.57080,0.11675,-0.12763,-0.48147,0.03468,,,,,,,,,,,,,,,,,,,,,,,,,,0,0,0,0,0
3.7921,1783973607.2956,1,1,0.5000,-0.0000,1.42241,-0.00754,-2.63231,1.06916,1.57080,0.11675,-0.12761,-0.48157,0.03461,,,,,,,,,,,,,,,,,,,,,,,,,,0,0,0,0,0
3.7926,1783973607.2961,1,1,0.5000,-0.0000,1.42241,-0.00754,-2.63231,1.06916,1.57080,0.11675,-0.12761,-0.48157,0.03461,,,,,,,,,,,,,,,,,,,,,,,,,,0,0,0,0,0
3.7930,1783973607.2965,1,1,0.5000,-0.0000,1.42241,-0.00754,-2.63231,1.06916,1.57080,0.11675,-0.12761,-0.48157,0.03461,,,,,,,,,,,,,,,,,,,,,,,,,,0,0,0,0,0
3.7934,1783973607.2969,1,1,0.5000,-0.0000,1.42241,-0.00754,-2.63231,1.06916,1.57080,0.11675,-0.12761,-0.48157,0.03461,,,,,,,,,,,,,,,,,,,,,,,,,,0,0,0,0,0
3.8298,1783973607.3333,1,1,0.5000,-0.0000,1.42241,-0.00756,-2.63229,1.06918,1.57080,0.11675,-0.12761,-0.48159,0.03462,,,,,,,,,,,,,,,,,,,,,,,,,,0,0,0,0,0
3.8301,1783973607.3336,1,1,0.5000,-0.0000,1.42241,-0.00756,-2.63229,1.06918,1.57080,0.11675,-0.12761,-0.48159,0.03462,,,,,,,,,,,,,,,,,,,,,,,,,,0,0,0,0,0
3.8396,1783973607.3431,1,1,0.5000,-0.0000,1.42241,-0.00756,-2.63229,1.06918,1.57080,0.11675,-0.12761,-0.48159,0.03462,,,,,,,,,,,,,,,,,,,,,,,,,,0,0,0,0,0
3.8399,1783973607.3434,1,1,0.5000,-0.0000,1.42241,-0.00756,-2.63229,1.06918,1.57080,0.11675,-0.12761,-0.48159,0.03462,,,,,,,,,,,,,,,,,,,,,,,,,,0,0,0,0,0
3.8408,1783973607.3443,1,1,0.5000,-0.0000,1.42241,-0.00756,-2.63229,1.06918,1.57080,0.11675,-0.12761,-0.48159,0.03462,,,,,,,,,,,,,,,,,,,,,,,,,,0,0,0,0,0
3.8412,1783973607.3447,1,1,0.5000,-0.0000,1.42241,-0.00756,-2.63229,1.06918,1.57080,0.11675,-0.12761,-0.48159,0.03462,,,,,,,,,,,,,,,,,,,,,,,,,,0,0,0,0,0
3.8514,1783973607.3549,1,1,0.5000,-0.0000,1.42241,-0.00756,-2.63229,1.06918,1.57080,0.11675,-0.12761,-0.48159,0.03462,,,,,,,,,,,,,,,,,,,,,,,,,,0,0,0,0,0
3.9024,1783973607.4059,1,1,0.5000,-0.0000,1.42241,-0.00756,-2.63229,1.06918,1.57080,0.11675,-0.12761,-0.48159,0.03462,,,,,,,,,,,,,,,,,,,,,,,,,,0,0,0,0,0
3.9032,1783973607.4067,1,1,0.5000,-0.0000,1.42241,-0.00756,-2.63229,1.06918,1.57080,0.11675,-0.12761,-0.48159,0.03462,,,,,,,,,,,,,,,,,,,,,,,,,,0,0,0,0,0
3.9035,1783973607.4070,1,1,0.5000,-0.0000,1.42241,-0.00756,-2.63229,1.06918,1.57080,0.11675,-0.12761,-0.48159,0.03462,,,,,,,,,,,,,,,,,,,,,,,,,,0,0,0,0,0
3.9539,1783973607.4574,1,1,0.5000,-0.0000,1.42241,-0.00756,-2.63229,1.06918,1.57080,0.11675,-0.12761,-0.48159,0.03462,,,,,,,,,,,,,,,,,,,,,,,,,,0,0,0,0,0
3.9543,1783973607.4578,1,1,0.5000,-0.0000,1.42241,-0.00756,-2.63229,1.06918,1.57080,0.11675,-0.12761,-0.48159,0.03462,,,,,,,,,,,,,,,,,,,,,,,,,,0,0,0,0,0
3.9550,1783973607.4585,1,1,0.5000,-0.0000,1.42241,-0.00756,-2.63229,1.06918,1.57080,0.11675,-0.12761,-0.48159,0.03462,,,,,,,,,,,,,,,,,,,,,,,,,,0,0,0,0,0
3.9772,1783973607.4807,1,1,0.5000,-0.0000,1.42241,-0.00756,-2.63231,1.06919,1.57080,0.11675,-0.12761,-0.48158,0.03461,,,,,,,,,,,,,,,,,,,,,,,,,,0,0,0,0,0
3.9775,1783973607.4810,1,1,0.5000,-0.0000,1.42241,-0.00756,-2.63231,1.06919,1.57080,0.11675,-0.12761,-0.48158,0.03461,,,,,,,,,,,,,,,,,,,,,,,,,,0,0,0,0,0
3.9827,1783973607.4862,1,1,0.5000,-0.0000,1.42241,-0.00756,-2.63231,1.06920,1.57080,0.11675,-0.12761,-0.48157,0.03461,,,,,,,,,,,,,,,,,,,,,,,,,,0,0,0,0,0
3.9891,1783973607.4926,1,1,0.5000,-0.0000,1.42241,-0.00757,-2.63233,1.06921,1.57080,0.11675,-0.12761,-0.48156,0.03460,,,,,,,,,,,,,,,,,,,,,,,,,,0,0,0,0,0
4.0003,1783973607.5038,1,1,0.5000,-0.0000,1.42241,-0.00760,-2.63238,1.06924,1.57080,0.11675,-0.12762,-0.48153,0.03457,,,,,,,,,,,,,,,,,,,,,,,,,,0,0,0,0,0
4.0307,1783973607.5342,1,1,0.5000,-0.0000,1.42241,-0.00767,-2.63244,1.06932,1.57080,0.11675,-0.12762,-0.48149,0.03452,,,,,,,,,,,,,,,,,,,,,,,,,,0,0,0,0,0
4.0311,1783973607.5346,1,1,0.5000,-0.0000,1.42241,-0.00769,-2.63246,1.06934,1.57080,0.11675,-0.12763,-0.48148,0.03450,,,,,,,,,,,,,,,,,,,,,,,,,,0,0,0,0,0
4.0484,1783973607.5519,1,1,0.5000,-0.0000,1.42241,-0.00773,-2.63248,1.06939,1.57080,0.11675,-0.12763,-0.48147,0.03448,,,,,,,,,,,,,,,,,,,,,,,,,,0,0,0,0,0
4.0487,1783973607.5522,1,1,0.5000,-0.0000,1.42241,-0.00773,-2.63248,1.06939,1.57080,0.11675,-0.12763,-0.48147,0.03448,,,,,,,,,,,,,,,,,,,,,,,,,,0,0,0,0,0
4.0504,1783973607.5539,1,1,0.5000,-0.0000,1.42241,-0.00773,-2.63248,1.06939,1.57080,0.11675,-0.12763,-0.48147,0.03448,,,,,,,,,,,,,,,,,,,,,,,,,,0,0,0,0,0
4.0510,1783973607.5545,1,1,0.5000,-0.0000,1.42241,-0.00775,-2.63249,1.06941,1.57080,0.11675,-0.12763,-0.48147,0.03448,,,,,,,,,,,,,,,,,,,,,,,,,,0,0,0,0,0
4.0636,1783973607.5671,1,1,0.5000,-0.0000,1.42241,-0.00780,-2.63251,1.06947,1.57080,0.11675,-0.12763,-0.48146,0.03446,,,,,,,,,,,,,,,,,,,,,,,,,,0,0,0,0,0
4.0639,1783973607.5674,1,1,0.5000,-0.0000,1.42241,-0.00780,-2.63251,1.06947,1.57080,0.11675,-0.12763,-0.48146,0.03446,,,,,,,,,,,,,,,,,,,,,,,,,,0,0,0,0,0
4.1106,1783973607.6141,1,1,0.5000,-0.0000,1.42241,-0.00812,-2.63258,1.06986,1.57080,0.11675,-0.12763,-0.48146,0.03435,,,,,,,,,,,,,,,,,,,,,,,,,,0,0,0,0,0
4.1112,1783973607.6147,1,1,0.5000,-0.0000,1.42241,-0.00815,-2.63258,1.06989,1.57080,0.11675,-0.12763,-0.48146,0.03434,,,,,,,,,,,,,,,,,,,,,,,,,,0,0,0,0,0
4.1182,1783973607.6217,1,1,0.5000,-0.0000,1.42241,-0.00818,-2.63259,1.06992,1.57080,0.11675,-0.12763,-0.48146,0.03433,,,,,,,,,,,,,,,,,,,,,,,,,,0,0,0,0,0
4.1190,1783973607.6225,1,1,0.5000,-0.0000,1.42241,-0.00822,-2.63259,1.06996,1.57080,0.11675,-0.12763,-0.48146,0.03432,,,,,,,,,,,,,,,,,,,,,,,,,,0,0,0,0,0
4.1205,1783973607.6240,1,1,0.5000,-0.0000,1.42241,-0.00822,-2.63259,1.06996,1.57080,0.11675,-0.12763,-0.48146,0.03432,,,,,,,,,,,,,,,,,,,,,,,,,,0,0,0,0,0
4.1329,1783973607.6364,1,1,0.5000,-0.0000,1.42241,-0.00830,-2.63261,1.07006,1.57080,0.11675,-0.12763,-0.48146,0.03429,,,,,,,,,,,,,,,,,,,,,,,,,,0,0,0,0,0
4.1525,1783973607.6560,1,1,0.5000,-0.0000,1.42241,-0.00840,-2.63262,1.07018,1.57080,0.11675,-0.12763,-0.48147,0.03426,,,,,,,,,,,,,,,,,,,,,,,,,,0,0,0,0,0
4.1528,1783973607.6563,1,1,0.5000,-0.0000,1.42241,-0.00840,-2.63262,1.07018,1.57080,0.11675,-0.12763,-0.48147,0.03426,,,,,,,,,,,,,,,,,,,,,,,,,,0,0,0,0,0
4.1999,1783973607.7034,1,1,0.5000,-0.0000,1.42241,-0.00874,-2.63261,1.07062,1.57080,0.11675,-0.12762,-0.48154,0.03419,,,,,,,,,,,,,,,,,,,,,,,,,,0,0,0,0,0
4.2002,1783973607.7037,1,1,0.5000,-0.0000,1.42241,-0.00874,-2.63261,1.07062,1.57080,0.11675,-0.12762,-0.48154,0.03419,,,,,,,,,,,,,,,,,,,,,,,,,,0,0,0,0,0
4.2005,1783973607.7040,1,1,0.5000,-0.0000,1.42241,-0.00874,-2.63261,1.07062,1.57080,0.11675,-0.12762,-0.48154,0.03419,,,,,,,,,,,,,,,,,,,,,,,,,,0,0,0,0,0
4.2009,1783973607.7044,1,1,0.5000,-0.0000,1.42241,-0.00874,-2.63261,1.07062,1.57080,0.11675,-0.12762,-0.48154,0.03419,,,,,,,,,,,,,,,,,,,,,,,,,,0,0,0,0,0
4.2062,1783973607.7097,1,1,0.5000,-0.0000,1.42241,-0.00874,-2.63261,1.07062,1.57080,0.11675,-0.12762,-0.48154,0.03419,,,,,,,,,,,,,,,,,,,,,,,,,,0,0,0,0,0
4.2368,1783973607.7403,1,1,0.5000,-0.0000,1.42241,-0.00874,-2.63261,1.07062,1.57080,0.11675,-0.12762,-0.48154,0.03419,,,,,,,,,,,,,,,,,,,,,,,,,,0,0,0,0,0
4.2370,1783973607.7405,1,1,0.5000,-0.0000,1.42241,-0.00874,-2.63261,1.07062,1.57080,0.11675,-0.12762,-0.48154,0.03419,,,,,,,,,,,,,,,,,,,,,,,,,,0,0,0,0,0
4.2704,1783973607.7739,1,1,0.5000,-0.0000,1.42241,-0.00874,-2.63261,1.07062,1.57080,0.11675,-0.12762,-0.48154,0.03419,,,,,,,,,,,,,,,,,,,,,,,,,,0,0,0,0,0
4.2711,1783973607.7746,1,1,0.5000,-0.0000,1.42241,-0.00874,-2.63261,1.07062,1.57080,0.11675,-0.12762,-0.48154,0.03419,,,,,,,,,,,,,,,,,,,,,,,,,,0,0,0,0,0
4.3585,1783973607.8620,1,1,0.5000,-0.0000,1.42241,-0.00874,-2.63261,1.07062,1.57080,0.11675,-0.12762,-0.48154,0.03419,,,,,,,,,,,,,,,,,,,,,,,,,,0,0,0,0,0
4.3591,1783973607.8626,1,1,0.5000,-0.0000,1.42241,-0.00874,-2.63261,1.07062,1.57080,0.11675,-0.12762,-0.48154,0.03419,,,,,,,,,,,,,,,,,,,,,,,,,,0,0,0,0,0
4.3593,1783973607.8628,1,1,0.5000,-0.0000,1.42241,-0.00874,-2.63261,1.07062,1.57080,0.11675,-0.12762,-0.48154,0.03419,,,,,,,,,,,,,,,,,,,,,,,,,,0,0,0,0,0
4.3596,1783973607.8631,1,1,0.5000,-0.0000,1.42241,-0.00874,-2.63261,1.07062,1.57080,0.11675,-0.12762,-0.48154,0.03419,,,,,,,,,,,,,,,,,,,,,,,,,,0,0,0,0,0
4.3600,1783973607.8634,1,1,0.5000,-0.0000,1.42241,-0.00874,-2.63261,1.07062,1.57080,0.11675,-0.12762,-0.48154,0.03419,,,,,,,,,,,,,,,,,,,,,,,,,,0,0,0,0,0
4.3603,1783973607.8638,1,1,0.5000,-0.0000,1.42241,-0.00874,-2.63261,1.07062,1.57080,0.11675,-0.12762,-0.48154,0.03419,,,,,,,,,,,,,,,,,,,,,,,,,,0,0,0,0,0
4.3605,1783973607.8640,1,1,0.5000,-0.0000,1.42241,-0.00874,-2.63261,1.07062,1.57080,0.11675,-0.12762,-0.48154,0.03419,,,,,,,,,,,,,,,,,,,,,,,,,,0,0,0,0,0
4.3611,1783973607.8646,1,1,0.5000,-0.0000,1.42241,-0.00874,-2.63261,1.07062,1.57080,0.11675,-0.12762,-0.48154,0.03419,,,,,,,,,,,,,,,,,,,,,,,,,,0,0,0,0,0
4.4618,1783973607.9653,1,1,0.5000,-0.0000,1.42241,-0.00888,-2.63273,1.07078,1.57080,0.11675,-0.12763,-0.48147,0.03410,,,,,,,,,,,,,,,,,,,,,,,,,,0,0,0,0,0
4.4623,1783973607.9658,1,1,0.5000,-0.0000,1.42241,-0.00888,-2.63273,1.07078,1.57080,0.11675,-0.12763,-0.48147,0.03410,,,,,,,,,,,,,,,,,,,,,,,,,,0,0,0,0,0
4.4631,1783973607.9666,1,1,0.5000,-0.0000,1.42241,-0.00889,-2.63274,1.07079,1.57080,0.11675,-0.12763,-0.48147,0.03409,,,,,,,,,,,,,,,,,,,,,,,,,,0,0,0,0,0
4.4632,1783973607.9667,1,1,0.5000,-0.0000,1.42241,-0.00889,-2.63274,1.07079,1.57080,0.11675,-0.12763,-0.48147,0.03409,,,,,,,,,,,,,,,,,,,,,,,,,,0,0,0,0,0
4.5166,1783973608.0201,1,1,0.5000,-0.0000,1.42241,-0.00920,-2.63283,1.07116,1.57081,0.11675,-0.12763,-0.48145,0.03398,,,,,,,,,,,,,,,,,,,,,,,,,,0,0,0,0,0
4.5171,1783973608.0206,1,1,0.5000,-0.0000,1.42241,-0.00920,-2.63283,1.07116,1.57081,0.11675,-0.12763,-0.48145,0.03398,,,,,,,,,,,,,,,,,,,,,,,,,,0,0,0,0,0
4.5173,1783973608.0208,1,1,0.5000,-0.0000,1.42241,-0.00920,-2.63283,1.07116,1.57081,0.11675,-0.12763,-0.48145,0.03398,,,,,,,,,,,,,,,,,,,,,,,,,,0,0,0,0,0
4.5176,1783973608.0211,1,1,0.5000,-0.0000,1.42241,-0.00920,-2.63283,1.07116,1.57081,0.11675,-0.12763,-0.48145,0.03398,,,,,,,,,,,,,,,,,,,,,,,,,,0,0,0,0,0
4.5200,1783973608.0235,1,1,0.5000,-0.0000,1.42241,-0.00924,-2.63284,1.07122,1.57081,0.11675,-0.12763,-0.48145,0.03396,,,,,,,,,,,,,,,,,,,,,,,,,,0,0,0,0,0
4.5202,1783973608.0237,1,1,0.5000,-0.0000,1.42241,-0.00924,-2.63284,1.07122,1.57081,0.11675,-0.12763,-0.48145,0.03396,,,,,,,,,,,,,,,,,,,,,,,,,,0,0,0,0,0
4.5276,1783973608.0311,1,1,0.5000,-0.0000,1.42241,-0.00925,-2.63284,1.07122,1.57081,0.11675,-0.12763,-0.48145,0.03396,,,,,,,,,,,,,,,,,,,,,,,,,,0,0,0,0,0
4.5739,1783973608.0774,1,1,0.5000,-0.0000,1.42241,-0.00954,-2.63288,1.07157,1.57081,0.11675,-0.12762,-0.48146,0.03387,,,,,,,,,,,,,,,,,,,,,,,,,,0,0,0,0,0
4.5744,1783973608.0779,1,1,0.5000,-0.0000,1.42241,-0.00954,-2.63288,1.07157,1.57081,0.11675,-0.12762,-0.48146,0.03387,,,,,,,,,,,,,,,,,,,,,,,,,,0,0,0,0,0
4.6120,1783973608.1155,1,1,0.5000,-0.0000,1.42241,-0.00977,-2.63287,1.07186,1.57081,0.11675,-0.12762,-0.48151,0.03382,,,,,,,,,,,,,,,,,,,,,,,,,,0,0,0,0,0
4.6124,1783973608.1158,1,1,0.5000,-0.0000,1.42241,-0.00977,-2.63287,1.07186,1.57081,0.11675,-0.12762,-0.48151,0.03382,,,,,,,,,,,,,,,,,,,,,,,,,,0,0,0,0,0
4.6126,1783973608.1161,1,1,0.5000,-0.0000,1.42241,-0.00977,-2.63287,1.07186,1.57081,0.11675,-0.12762,-0.48151,0.03382,,,,,,,,,,,,,,,,,,,,,,,,,,0,0,0,0,0
4.6429,1783973608.1464,1,1,0.5000,-0.0000,1.42241,-0.00993,-2.63280,1.07206,1.57081,0.11675,-0.12761,-0.48159,0.03381,,,,,,,,,,,,,,,,,,,,,,,,,,0,0,0,0,0
4.6433,1783973608.1468,1,1,0.5000,-0.0000,1.42241,-0.00993,-2.63280,1.07206,1.57081,0.11675,-0.12761,-0.48159,0.03381,,,,,,,,,,,,,,,,,,,,,,,,,,0,0,0,0,0
4.6698,1783973608.1733,1,1,0.5000,-0.0000,1.42241,-0.00993,-2.63280,1.07206,1.57081,0.11675,-0.12761,-0.48159,0.03381,,,,,,,,,,,,,,,,,,,,,,,,,,0,0,0,0,0
4.6785,1783973608.1820,1,1,0.5000,-0.0000,1.42241,-0.00993,-2.63280,1.07206,1.57081,0.11675,-0.12761,-0.48159,0.03381,,,,,,,,,,,,,,,,,,,,,,,,,,0,0,0,0,0
4.6791,1783973608.1826,1,1,0.5000,-0.0000,1.42241,-0.00993,-2.63280,1.07206,1.57081,0.11675,-0.12761,-0.48159,0.03381,,,,,,,,,,,,,,,,,,,,,,,,,,0,0,0,0,0
4.7422,1783973608.2457,1,1,0.5000,-0.0000,1.42241,-0.00993,-2.63280,1.07206,1.57081,0.11675,-0.12761,-0.48159,0.03381,,,,,,,,,,,,,,,,,,,,,,,,,,0,0,0,0,0
4.7427,1783973608.2462,1,1,0.5000,-0.0000,1.42241,-0.00993,-2.63280,1.07206,1.57081,0.11675,-0.12761,-0.48159,0.03381,,,,,,,,,,,,,,,,,,,,,,,,,,0,0,0,0,0
4.7434,1783973608.2469,1,1,0.5000,-0.0000,1.42241,-0.00993,-2.63280,1.07206,1.57081,0.11675,-0.12761,-0.48159,0.03381,,,,,,,,,,,,,,,,,,,,,,,,,,0,0,0,0,0
4.7438,1783973608.2473,1,1,0.5000,-0.0000,1.42241,-0.00993,-2.63280,1.07206,1.57081,0.11675,-0.12761,-0.48159,0.03381,,,,,,,,,,,,,,,,,,,,,,,,,,0,0,0,0,0
4.7442,1783973608.2477,1,1,0.5000,-0.0000,1.42241,-0.00993,-2.63280,1.07206,1.57081,0.11675,-0.12761,-0.48159,0.03381,,,,,,,,,,,,,,,,,,,,,,,,,,0,0,0,0,0
4.7493,1783973608.2528,1,1,0.5000,-0.0000,1.42241,-0.00993,-2.63280,1.07206,1.57081,0.11675,-0.12761,-0.48159,0.03381,,,,,,,,,,,,,,,,,,,,,,,,,,0,0,0,0,0
4.7496,1783973608.2531,1,1,0.5000,-0.0000,1.42241,-0.00993,-2.63280,1.07206,1.57081,0.11675,-0.12761,-0.48159,0.03381,,,,,,,,,,,,,,,,,,,,,,,,,,0,0,0,0,0
4.7900,1783973608.2935,1,1,0.5000,-0.0000,1.42241,-0.00993,-2.63280,1.07206,1.57081,0.11675,-0.12761,-0.48159,0.03381,,,,,,,,,,,,,,,,,,,,,,,,,,0,0,0,0,0
4.7903,1783973608.2938,1,1,0.5000,-0.0000,1.42241,-0.00993,-2.63280,1.07206,1.57081,0.11675,-0.12761,-0.48159,0.03381,,,,,,,,,,,,,,,,,,,,,,,,,,0,0,0,0,0
4.7932,1783973608.2967,1,1,0.5000,-0.0000,1.42241,-0.00993,-2.63280,1.07206,1.57081,0.11675,-0.12761,-0.48159,0.03381,,,,,,,,,,,,,,,,,,,,,,,,,,0,0,0,0,0
4.8002,1783973608.3037,1,1,0.5000,-0.0000,1.42241,-0.00993,-2.63280,1.07206,1.57081,0.11675,-0.12761,-0.48159,0.03381,,,,,,,,,,,,,,,,,,,,,,,,,,0,0,0,0,0
4.8083,1783973608.3118,1,1,0.5000,-0.0000,1.42241,-0.00993,-2.63280,1.07206,1.57081,0.11675,-0.12761,-0.48159,0.03381,,,,,,,,,,,,,,,,,,,,,,,,,,0,0,0,0,0
4.8210,1783973608.3245,1,1,0.5000,-0.0000,1.42241,-0.00993,-2.63280,1.07206,1.57081,0.11675,-0.12761,-0.48159,0.03381,,,,,,,,,,,,,,,,,,,,,,,,,,0,0,0,0,0
4.8484,1783973608.3519,1,1,0.5000,-0.0000,1.42241,-0.00996,-2.63287,1.07211,1.57081,0.11675,-0.12761,-0.48154,0.03378,,,,,,,,,,,,,,,,,,,,,,,,,,0,0,0,0,0
4.8487,1783973608.3522,1,1,0.5000,-0.0000,1.42241,-0.00996,-2.63287,1.07211,1.57081,0.11675,-0.12761,-0.48154,0.03378,,,,,,,,,,,,,,,,,,,,,,,,,,0,0,0,0,0
4.8491,1783973608.3525,1,1,0.5000,-0.0000,1.42241,-0.00996,-2.63287,1.07211,1.57081,0.11675,-0.12761,-0.48154,0.03378,,,,,,,,,,,,,,,,,,,,,,,,,,0,0,0,0,0
4.8501,1783973608.3536,1,1,0.5000,-0.0000,1.42241,-0.00996,-2.63287,1.07211,1.57081,0.11675,-0.12761,-0.48154,0.03378,,,,,,,,,,,,,,,,,,,,,,,,,,0,0,0,0,0
4.8637,1783973608.3672,1,1,0.5000,-0.0000,1.42241,-0.00998,-2.63290,1.07213,1.57081,0.11675,-0.12761,-0.48153,0.03376,,,,,,,,,,,,,,,,,,,,,,,,,,0,0,0,0,0
4.8720,1783973608.3755,1,1,0.5000,-0.0000,1.42241,-0.01002,-2.63293,1.07217,1.57081,0.11675,-0.12762,-0.48151,0.03374,,,,,,,,,,,,,,,,,,,,,,,,,,0,0,0,0,0
4.8898,1783973608.3933,1,1,0.5000,-0.0000,1.42241,-0.01005,-2.63295,1.07221,1.57081,0.11675,-0.12762,-0.48150,0.03372,,,,,,,,,,,,,,,,,,,,,,,,,,0,0,0,0,0
4.8915,1783973608.3950,1,1,0.5000,-0.0000,1.42240,-0.01007,-2.63296,1.07223,1.57081,0.11675,-0.12762,-0.48149,0.03371,,,,,,,,,,,,,,,,,,,,,,,,,,0,0,0,0,0
4.9182,1783973608.4216,1,1,0.5000,-0.0000,1.42240,-0.01019,-2.63302,1.07237,1.57081,0.11675,-0.12762,-0.48147,0.03365,,,,,,,,,,,,,,,,,,,,,,,,,,0,0,0,0,0
4.9199,1783973608.4234,1,1,0.5000,-0.0000,1.42240,-0.01021,-2.63302,1.07240,1.57081,0.11675,-0.12762,-0.48147,0.03365,,,,,,,,,,,,,,,,,,,,,,,,,,0,0,0,0,0
4.9203,1783973608.4238,1,1,0.5000,-0.0000,1.42240,-0.01021,-2.63302,1.07240,1.57081,0.11675,-0.12762,-0.48147,0.03365,,,,,,,,,,,,,,,,,,,,,,,,,,0,0,0,0,0
4.9305,1783973608.4340,1,1,0.5000,-0.0000,1.42240,-0.01028,-2.63305,1.07248,1.57081,0.11675,-0.12762,-0.48146,0.03362,,,,,,,,,,,,,,,,,,,,,,,,,,0,0,0,0,0
4.9486,1783973608.4521,1,1,0.5000,-0.0000,1.42240,-0.01040,-2.63308,1.07262,1.57081,0.11675,-0.12762,-0.48146,0.03358,,,,,,,,,,,,,,,,,,,,,,,,,,0,0,0,0,0
4.9525,1783973608.4560,1,1,0.5000,-0.0000,1.42240,-0.01043,-2.63308,1.07265,1.57081,0.11675,-0.12762,-0.48146,0.03357,,,,,,,,,,,,,,,,,,,,,,,,,,0,0,0,0,0
4.9528,1783973608.4563,1,1,0.5000,-0.0000,1.42240,-0.01043,-2.63308,1.07265,1.57081,0.11675,-0.12762,-0.48146,0.03357,,,,,,,,,,,,,,,,,,,,,,,,,,0,0,0,0,0
4.9821,1783973608.4856,1,1,0.5000,-0.0000,1.42240,-0.01060,-2.63311,1.07286,1.57081,0.11675,-0.12762,-0.48146,0.03351,,,,,,,,,,,,,,,,,,,,,,,,,,0,0,0,0,0
5.1579,1783973608.6614,1,1,0.5000,-0.0000,1.42240,-0.01112,-2.63307,1.07350,1.57081,0.11675,-0.12760,-0.48158,0.03341,,,,,,,,,,,,,,,,,,,,,,,,,,0,0,0,0,0
5.1583,1783973608.6618,1,1,0.5000,-0.0000,1.42240,-0.01112,-2.63307,1.07350,1.57081,0.11675,-0.12760,-0.48158,0.03341,,,,,,,,,,,,,,,,,,,,,,,,,,0,0,0,0,0
5.1586,1783973608.6621,1,1,0.5000,-0.0000,1.42240,-0.01112,-2.63307,1.07350,1.57081,0.11675,-0.12760,-0.48158,0.03341,,,,,,,,,,,,,,,,,,,,,,,,,,0,0,0,0,0
5.1589,1783973608.6624,1,1,0.5000,-0.0000,1.42240,-0.01112,-2.63307,1.07350,1.57081,0.11675,-0.12760,-0.48158,0.03341,,,,,,,,,,,,,,,,,,,,,,,,,,0,0,0,0,0
5.1592,1783973608.6627,1,1,0.5000,-0.0000,1.42240,-0.01112,-2.63307,1.07350,1.57081,0.11675,-0.12760,-0.48158,0.03341,,,,,,,,,,,,,,,,,,,,,,,,,,0,0,0,0,0
5.1597,1783973608.6632,1,1,0.5000,-0.0000,1.42240,-0.01112,-2.63307,1.07350,1.57081,0.11675,-0.12760,-0.48158,0.03341,,,,,,,,,,,,,,,,,,,,,,,,,,0,0,0,0,0
5.1601,1783973608.6636,1,1,0.5000,-0.0000,1.42240,-0.01112,-2.63307,1.07350,1.57081,0.11675,-0.12760,-0.48158,0.03341,,,,,,,,,,,,,,,,,,,,,,,,,,0,0,0,0,0
5.1604,1783973608.6639,1,1,0.5000,-0.0000,1.42240,-0.01112,-2.63307,1.07350,1.57081,0.11675,-0.12760,-0.48158,0.03341,,,,,,,,,,,,,,,,,,,,,,,,,,0,0,0,0,0
5.1608,1783973608.6643,1,1,0.5000,-0.0000,1.42240,-0.01112,-2.63307,1.07350,1.57081,0.11675,-0.12760,-0.48158,0.03341,,,,,,,,,,,,,,,,,,,,,,,,,,0,0,0,0,0
5.1610,1783973608.6645,1,1,0.5000,-0.0000,1.42240,-0.01112,-2.63307,1.07350,1.57081,0.11675,-0.12760,-0.48158,0.03341,,,,,,,,,,,,,,,,,,,,,,,,,,0,0,0,0,0
5.1613,1783973608.6648,1,1,0.5000,-0.0000,1.42240,-0.01112,-2.63307,1.07350,1.57081,0.11675,-0.12760,-0.48158,0.03341,,,,,,,,,,,,,,,,,,,,,,,,,,0,0,0,0,0
5.1882,1783973608.6917,1,1,0.5000,-0.0000,1.42240,-0.01112,-2.63307,1.07350,1.57081,0.11675,-0.12760,-0.48158,0.03341,,,,,,,,,,,,,,,,,,,,,,,,,,0,0,0,0,0
5.1887,1783973608.6922,1,1,0.5000,-0.0000,1.42240,-0.01112,-2.63307,1.07350,1.57081,0.11675,-0.12760,-0.48158,0.03341,,,,,,,,,,,,,,,,,,,,,,,,,,0,0,0,0,0
5.1891,1783973608.6926,1,1,0.5000,-0.0000,1.42240,-0.01112,-2.63307,1.07350,1.57081,0.11675,-0.12760,-0.48158,0.03341,,,,,,,,,,,,,,,,,,,,,,,,,,0,0,0,0,0
5.1894,1783973608.6929,1,1,0.5000,-0.0000,1.42240,-0.01112,-2.63307,1.07350,1.57081,0.11675,-0.12760,-0.48158,0.03341,,,,,,,,,,,,,,,,,,,,,,,,,,0,0,0,0,0
5.2068,1783973608.7103,1,1,0.5000,-0.0000,1.42240,-0.01112,-2.63307,1.07350,1.57081,0.11675,-0.12760,-0.48158,0.03341,,,,,,,,,,,,,,,,,,,,,,,,,,0,0,0,0,0
5.2071,1783973608.7106,1,1,0.5000,-0.0000,1.42240,-0.01112,-2.63307,1.07350,1.57081,0.11675,-0.12760,-0.48158,0.03341,,,,,,,,,,,,,,,,,,,,,,,,,,0,0,0,0,0
5.2087,1783973608.7122,1,1,0.5000,-0.0000,1.42240,-0.01112,-2.63307,1.07350,1.57081,0.11675,-0.12760,-0.48158,0.03341,,,,,,,,,,,,,,,,,,,,,,,,,,0,0,0,0,0
5.2090,1783973608.7125,1,1,0.5000,-0.0000,1.42240,-0.01112,-2.63307,1.07350,1.57081,0.11675,-0.12760,-0.48158,0.03341,,,,,,,,,,,,,,,,,,,,,,,,,,0,0,0,0,0
5.2131,1783973608.7166,1,1,0.5000,-0.0000,1.42240,-0.01112,-2.63307,1.07350,1.57081,0.11675,-0.12760,-0.48158,0.03341,,,,,,,,,,,,,,,,,,,,,,,,,,0,0,0,0,0
5.2135,1783973608.7170,1,1,0.5000,-0.0000,1.42240,-0.01112,-2.63307,1.07350,1.57081,0.11675,-0.12760,-0.48158,0.03341,,,,,,,,,,,,,,,,,,,,,,,,,,0,0,0,0,0
5.2231,1783973608.7266,1,1,0.5000,-0.0000,1.42240,-0.01112,-2.63307,1.07350,1.57081,0.11675,-0.12760,-0.48158,0.03341,,,,,,,,,,,,,,,,,,,,,,,,,,0,0,0,0,0
5.2378,1783973608.7413,1,1,0.5000,-0.0000,1.42240,-0.01112,-2.63307,1.07350,1.57081,0.11675,-0.12760,-0.48158,0.03341,,,,,,,,,,,,,,,,,,,,,,,,,,0,0,0,0,0
5.2576,1783973608.7611,1,1,0.5000,-0.0000,1.42240,-0.01113,-2.63310,1.07352,1.57081,0.11675,-0.12761,-0.48156,0.03340,,,,,,,,,,,,,,,,,,,,,,,,,,0,0,0,0,0
5.2597,1783973608.7632,1,1,0.5000,-0.0000,1.42240,-0.01114,-2.63311,1.07353,1.57081,0.11675,-0.12761,-0.48155,0.03339,,,,,,,,,,,,,,,,,,,,,,,,,,0,0,0,0,0
5.2701,1783973608.7736,1,1,0.5000,-0.0000,1.42240,-0.01114,-2.63313,1.07354,1.57081,0.11675,-0.12761,-0.48154,0.03338,,,,,,,,,,,,,,,,,,,,,,,,,,0,0,0,0,0
5.2785,1783973608.7820,1,1,0.5000,-0.0000,1.42240,-0.01115,-2.63314,1.07355,1.57081,0.11675,-0.12761,-0.48154,0.03338,,,,,,,,,,,,,,,,,,,,,,,,,,0,0,0,0,0
5.3679,1783973608.8714,1,1,0.5000,-0.0000,1.42240,-0.01156,-2.63333,1.07404,1.57081,0.11675,-0.12762,-0.48146,0.03319,,,,,,,,,,,,,,,,,,,,,,,,,,0,0,0,0,0
5.3683,1783973608.8718,1,1,0.5000,-0.0000,1.42240,-0.01156,-2.63333,1.07404,1.57081,0.11675,-0.12762,-0.48146,0.03319,,,,,,,,,,,,,,,,,,,,,,,,,,0,0,0,0,0
5.3688,1783973608.8723,1,1,0.5000,-0.0000,1.42240,-0.01156,-2.63333,1.07404,1.57081,0.11675,-0.12762,-0.48146,0.03319,,,,,,,,,,,,,,,,,,,,,,,,,,0,0,0,0,0
5.4700,1783973608.9735,1,1,0.5000,-0.0000,1.42240,-0.01229,-2.63344,1.07493,1.57081,0.11675,-0.12761,-0.48150,0.03297,,,,,,,,,,,,,,,,,,,,,,,,,,0,0,0,0,0
5.4704,1783973608.9739,1,1,0.5000,-0.0000,1.42240,-0.01229,-2.63344,1.07493,1.57081,0.11675,-0.12761,-0.48150,0.03297,,,,,,,,,,,,,,,,,,,,,,,,,,0,0,0,0,0
5.4708,1783973608.9743,1,1,0.5000,-0.0000,1.42240,-0.01229,-2.63344,1.07493,1.57081,0.11675,-0.12761,-0.48150,0.03297,,,,,,,,,,,,,,,,,,,,,,,,,,0,0,0,0,0
5.4712,1783973608.9747,1,1,0.5000,-0.0000,1.42240,-0.01229,-2.63344,1.07493,1.57081,0.11675,-0.12761,-0.48150,0.03297,,,,,,,,,,,,,,,,,,,,,,,,,,0,0,0,0,0
5.4719,1783973608.9754,1,1,0.5000,-0.0000,1.42240,-0.01229,-2.63344,1.07493,1.57081,0.11675,-0.12761,-0.48150,0.03297,,,,,,,,,,,,,,,,,,,,,,,,,,0,0,0,0,0
5.4722,1783973608.9757,1,1,0.5000,-0.0000,1.42240,-0.01229,-2.63344,1.07493,1.57081,0.11675,-0.12761,-0.48150,0.03297,,,,,,,,,,,,,,,,,,,,,,,,,,0,0,0,0,0
5.4725,1783973608.9760,1,1,0.5000,-0.0000,1.42240,-0.01229,-2.63344,1.07493,1.57081,0.11675,-0.12761,-0.48150,0.03297,,,,,,,,,,,,,,,,,,,,,,,,,,0,0,0,0,0
5.4729,1783973608.9764,1,1,0.5000,-0.0000,1.42240,-0.01229,-2.63344,1.07493,1.57081,0.11675,-0.12761,-0.48150,0.03297,,,,,,,,,,,,,,,,,,,,,,,,,,0,0,0,0,0
5.4732,1783973608.9767,1,1,0.5000,-0.0000,1.42240,-0.01229,-2.63344,1.07493,1.57081,0.11675,-0.12761,-0.48150,0.03297,,,,,,,,,,,,,,,,,,,,,,,,,,0,0,0,0,0
5.4811,1783973608.9846,1,1,0.5000,-0.0000,1.42240,-0.01229,-2.63344,1.07493,1.57081,0.11675,-0.12761,-0.48150,0.03297,,,,,,,,,,,,,,,,,,,,,,,,,,0,0,0,0,0
5.4884,1783973608.9919,1,1,0.5000,-0.0000,1.42240,-0.01229,-2.63344,1.07493,1.57081,0.11675,-0.12761,-0.48150,0.03297,,,,,,,,,,,,,,,,,,,,,,,,,,0,0,0,0,0
5.5128,1783973609.0163,1,1,0.5000,-0.0000,1.42240,-0.01229,-2.63344,1.07493,1.57081,0.11675,-0.12761,-0.48150,0.03297,,,,,,,,,,,,,,,,,,,,,,,,,,0,0,0,0,0
5.5131,1783973609.0166,1,1,0.5000,-0.0000,1.42240,-0.01229,-2.63344,1.07493,1.57081,0.11675,-0.12761,-0.48150,0.03297,,,,,,,,,,,,,,,,,,,,,,,,,,0,0,0,0,0
5.5207,1783973609.0242,1,1,0.5000,-0.0000,1.42240,-0.01229,-2.63344,1.07493,1.57081,0.11675,-0.12761,-0.48150,0.03297,,,,,,,,,,,,,,,,,,,,,,,,,,0,0,0,0,0
5.5245,1783973609.0280,1,1,0.5000,-0.0000,1.42240,-0.01229,-2.63344,1.07493,1.57081,0.11675,-0.12761,-0.48150,0.03297,,,,,,,,,,,,,,,,,,,,,,,,,,0,0,0,0,0
5.5248,1783973609.0283,1,1,0.5000,-0.0000,1.42240,-0.01229,-2.63344,1.07493,1.57081,0.11675,-0.12761,-0.48150,0.03297,,,,,,,,,,,,,,,,,,,,,,,,,,0,0,0,0,0
5.5392,1783973609.0427,1,1,0.5000,-0.0000,1.42240,-0.01229,-2.63344,1.07493,1.57081,0.11675,-0.12761,-0.48150,0.03297,,,,,,,,,,,,,,,,,,,,,,,,,,0,0,0,0,0
5.5699,1783973609.0734,1,1,0.5000,-0.0000,1.42240,-0.01229,-2.63344,1.07493,1.57081,0.11675,-0.12761,-0.48150,0.03297,,,,,,,,,,,,,,,,,,,,,,,,,,0,0,0,0,0
5.5701,1783973609.0736,1,1,0.5000,-0.0000,1.42240,-0.01229,-2.63344,1.07493,1.57081,0.11675,-0.12761,-0.48150,0.03297,,,,,,,,,,,,,,,,,,,,,,,,,,0,0,0,0,0
5.5705,1783973609.0740,1,1,0.5000,-0.0000,1.42240,-0.01229,-2.63344,1.07493,1.57081,0.11675,-0.12761,-0.48150,0.03297,,,,,,,,,,,,,,,,,,,,,,,,,,0,0,0,0,0
5.5894,1783973609.0929,1,1,0.5000,-0.0000,1.42240,-0.01229,-2.63344,1.07493,1.57081,0.11675,-0.12761,-0.48150,0.03297,,,,,,,,,,,,,,,,,,,,,,,,,,0,0,0,0,0
5.5985,1783973609.1020,1,1,0.5000,-0.0000,1.42240,-0.01229,-2.63344,1.07493,1.57081,0.11675,-0.12761,-0.48150,0.03297,,,,,,,,,,,,,,,,,,,,,,,,,,0,0,0,0,0
5.6724,1783973609.1759,1,1,0.5000,-0.0000,1.42240,-0.01230,-2.63344,1.07494,1.57081,0.11675,-0.12761,-0.48150,0.03297,,,,,,,,,,,,,,,,,,,,,,,,,,0,0,0,0,0
5.6729,1783973609.1764,1,1,0.5000,-0.0000,1.42240,-0.01230,-2.63344,1.07494,1.57081,0.11675,-0.12761,-0.48150,0.03297,,,,,,,,,,,,,,,,,,,,,,,,,,0,0,0,0,0
5.6732,1783973609.1767,1,1,0.5000,-0.0000,1.42240,-0.01230,-2.63344,1.07494,1.57081,0.11675,-0.12761,-0.48150,0.03297,,,,,,,,,,,,,,,,,,,,,,,,,,0,0,0,0,0
5.6889,1783973609.1924,1,1,0.5000,-0.0000,1.42240,-0.01232,-2.63344,1.07497,1.57081,0.11674,-0.12761,-0.48150,0.03296,,,,,,,,,,,,,,,,,,,,,,,,,,0,0,0,0,0
5.6894,1783973609.1928,1,1,0.5000,-0.0000,1.42240,-0.01232,-2.63344,1.07497,1.57081,0.11674,-0.12761,-0.48150,0.03296,,,,,,,,,,,,,,,,,,,,,,,,,,0,0,0,0,0
5.7481,1783973609.2516,1,1,0.5000,-0.0000,1.42240,-0.01253,-2.63356,1.07523,1.57081,0.11674,-0.12762,-0.48144,0.03285,,,,,,,,,,,,,,,,,,,,,,,,,,0,0,0,0,0
5.7482,1783973609.2517,1,1,0.5000,-0.0000,1.42240,-0.01253,-2.63356,1.07523,1.57081,0.11674,-0.12762,-0.48144,0.03285,,,,,,,,,,,,,,,,,,,,,,,,,,0,0,0,0,0
5.7485,1783973609.2520,1,1,0.5000,-0.0000,1.42240,-0.01253,-2.63356,1.07523,1.57081,0.11674,-0.12762,-0.48144,0.03285,,,,,,,,,,,,,,,,,,,,,,,,,,0,0,0,0,0
5.7488,1783973609.2523,1,1,0.5000,-0.0000,1.42240,-0.01253,-2.63356,1.07523,1.57081,0.11674,-0.12762,-0.48144,0.03285,,,,,,,,,,,,,,,,,,,,,,,,,,0,0,0,0,0
5.7491,1783973609.2526,1,1,0.5000,-0.0000,1.42240,-0.01253,-2.63356,1.07523,1.57081,0.11674,-0.12762,-0.48144,0.03285,,,,,,,,,,,,,,,,,,,,,,,,,,0,0,0,0,0
5.7910,1783973609.2945,1,1,0.5000,-0.0000,1.42240,-0.01270,-2.63359,1.07543,1.57081,0.11674,-0.12762,-0.48145,0.03280,,,,,,,,,,,,,,,,,,,,,,,,,,0,0,0,0,0
5.7914,1783973609.2949,1,1,0.5000,-0.0000,1.42240,-0.01270,-2.63359,1.07543,1.57081,0.11674,-0.12762,-0.48145,0.03280,,,,,,,,,,,,,,,,,,,,,,,,,,0,0,0,0,0
5.7921,1783973609.2956,1,1,0.5000,-0.0000,1.42240,-0.01274,-2.63360,1.07548,1.57081,0.11674,-0.12762,-0.48145,0.03278,,,,,,,,,,,,,,,,,,,,,,,,,,0,0,0,0,0
5.7977,1783973609.3012,1,1,0.5000,-0.0000,1.42240,-0.01279,-2.63361,1.07554,1.57081,0.11674,-0.12762,-0.48145,0.03277,,,,,,,,,,,,,,,,,,,,,,,,,,0,0,0,0,0
5.8270,1783973609.3305,1,1,0.5000,-0.0000,1.42239,-0.01301,-2.63364,1.07580,1.57081,0.11674,-0.12762,-0.48146,0.03270,,,,,,,,,,,,,,,,,,,,,,,,,,0,0,0,0,0
5.8387,1783973609.3422,1,1,0.5000,-0.0000,1.42239,-0.01311,-2.63365,1.07592,1.57081,0.11674,-0.12762,-0.48147,0.03267,,,,,,,,,,,,,,,,,,,,,,,,,,0,0,0,0,0
5.8391,1783973609.3426,1,1,0.5000,-0.0000,1.42239,-0.01311,-2.63365,1.07592,1.57081,0.11674,-0.12762,-0.48147,0.03267,,,,,,,,,,,,,,,,,,,,,,,,,,0,0,0,0,0
5.8395,1783973609.3430,1,1,0.5000,-0.0000,1.42239,-0.01311,-2.63365,1.07592,1.57081,0.11674,-0.12762,-0.48147,0.03267,,,,,,,,,,,,,,,,,,,,,,,,,,0,0,0,0,0
5.8575,1783973609.3610,1,1,0.5000,-0.0000,1.42239,-0.01332,-2.63368,1.07618,1.57081,0.11674,-0.12761,-0.48148,0.03261,,,,,,,,,,,,,,,,,,,,,,,,,,0,0,0,0,0
5.8734,1783973609.3769,1,1,0.5000,-0.0000,1.42239,-0.01345,-2.63369,1.07635,1.57081,0.11674,-0.12761,-0.48149,0.03257,,,,,,,,,,,,,,,,,,,,,,,,,,0,0,0,0,0
5.8787,1783973609.3822,1,1,0.5000,-0.0000,1.42239,-0.01345,-2.63369,1.07635,1.57081,0.11674,-0.12761,-0.48149,0.03257,,,,,,,,,,,,,,,,,,,,,,,,,,0,0,0,0,0
5.8853,1783973609.3888,1,1,0.5000,-0.0000,1.42239,-0.01345,-2.63369,1.07635,1.57081,0.11674,-0.12761,-0.48149,0.03257,,,,,,,,,,,,,,,,,,,,,,,,,,0,0,0,0,0
5.8959,1783973609.3994,1,1,0.5000,-0.0000,1.42239,-0.01345,-2.63369,1.07635,1.57081,0.11674,-0.12761,-0.48149,0.03257,,,,,,,,,,,,,,,,,,,,,,,,,,0,0,0,0,0
5.9002,1783973609.4037,1,1,0.5000,-0.0000,1.42239,-0.01345,-2.63369,1.07635,1.57081,0.11674,-0.12761,-0.48149,0.03257,,,,,,,,,,,,,,,,,,,,,,,,,,0,0,0,0,0
5.9005,1783973609.4040,1,1,0.5000,-0.0000,1.42239,-0.01345,-2.63369,1.07635,1.57081,0.11674,-0.12761,-0.48149,0.03257,,,,,,,,,,,,,,,,,,,,,,,,,,0,0,0,0,0
5.9229,1783973609.4264,1,1,0.5000,-0.0000,1.42239,-0.01345,-2.63369,1.07635,1.57081,0.11674,-0.12761,-0.48149,0.03257,,,,,,,,,,,,,,,,,,,,,,,,,,0,0,0,0,0
5.9245,1783973609.4280,1,1,0.5000,-0.0000,1.42239,-0.01345,-2.63369,1.07635,1.57081,0.11674,-0.12761,-0.48149,0.03257,,,,,,,,,,,,,,,,,,,,,,,,,,0,0,0,0,0
5.9248,1783973609.4283,1,1,0.5000,-0.0000,1.42239,-0.01345,-2.63369,1.07635,1.57081,0.11674,-0.12761,-0.48149,0.03257,,,,,,,,,,,,,,,,,,,,,,,,,,0,0,0,0,0
5.9300,1783973609.4335,1,1,0.5000,-0.0000,1.42239,-0.01345,-2.63369,1.07635,1.57081,0.11674,-0.12761,-0.48149,0.03257,,,,,,,,,,,,,,,,,,,,,,,,,,0,0,0,0,0
5.9303,1783973609.4338,1,1,0.5000,-0.0000,1.42239,-0.01345,-2.63369,1.07635,1.57081,0.11674,-0.12761,-0.48149,0.03257,,,,,,,,,,,,,,,,,,,,,,,,,,0,0,0,0,0
5.9463,1783973609.4498,1,1,0.5000,-0.0000,1.42239,-0.01345,-2.63369,1.07635,1.57081,0.11674,-0.12761,-0.48149,0.03257,,,,,,,,,,,,,,,,,,,,,,,,,,0,0,0,0,0
5.9497,1783973609.4532,1,1,0.5000,-0.0000,1.42239,-0.01345,-2.63369,1.07635,1.57081,0.11674,-0.12761,-0.48149,0.03257,,,,,,,,,,,,,,,,,,,,,,,,,,0,0,0,0,0
5.9620,1783973609.4655,1,1,0.5000,-0.0000,1.42239,-0.01345,-2.63369,1.07635,1.57081,0.11674,-0.12761,-0.48149,0.03257,,,,,,,,,,,,,,,,,,,,,,,,,,0,0,0,0,0
5.9719,1783973609.4754,1,1,0.5000,-0.0000,1.42239,-0.01345,-2.63369,1.07635,1.57081,0.11674,-0.12761,-0.48149,0.03257,,,,,,,,,,,,,,,,,,,,,,,,,,0,0,0,0,0
5.9810,1783973609.4845,1,1,0.5000,-0.0000,1.42239,-0.01345,-2.63369,1.07635,1.57081,0.11674,-0.12761,-0.48149,0.03257,,,,,,,,,,,,,,,,,,,,,,,,,,0,0,0,0,0
6.0000,1783973609.5035,1,1,0.5000,-0.0000,1.42239,-0.01345,-2.63369,1.07635,1.57081,0.11674,-0.12761,-0.48149,0.03257,,,,,,,,,,,,,,,,,,,,,,,,,,0,0,0,0,0
6.0444,1783973609.5479,1,1,0.5000,-0.0000,1.42239,-0.01345,-2.63369,1.07635,1.57081,0.11674,-0.12761,-0.48149,0.03257,,,,,,,,,,,,,,,,,,,,,,,,,,0,0,0,0,0
6.0447,1783973609.5482,1,1,0.5000,-0.0000,1.42239,-0.01345,-2.63369,1.07635,1.57081,0.11674,-0.12761,-0.48149,0.03257,,,,,,,,,,,,,,,,,,,,,,,,,,0,0,0,0,0
6.0450,1783973609.5485,1,1,0.5000,-0.0000,1.42239,-0.01345,-2.63369,1.07635,1.57081,0.11674,-0.12761,-0.48149,0.03257,,,,,,,,,,,,,,,,,,,,,,,,,,0,0,0,0,0
6.0829,1783973609.5864,1,1,0.5000,-0.0000,1.42239,-0.01345,-2.63369,1.07635,1.57081,0.11674,-0.12761,-0.48149,0.03257,,,,,,,,,,,,,,,,,,,,,,,,,,0,0,0,0,0
6.0832,1783973609.5867,1,1,0.5000,-0.0000,1.42239,-0.01345,-2.63369,1.07635,1.57081,0.11674,-0.12761,-0.48149,0.03257,,,,,,,,,,,,,,,,,,,,,,,,,,0,0,0,0,0
6.0835,1783973609.5870,1,1,0.5000,-0.0000,1.42239,-0.01345,-2.63369,1.07635,1.57081,0.11674,-0.12761,-0.48149,0.03257,,,,,,,,,,,,,,,,,,,,,,,,,,0,0,0,0,0
6.1234,1783973609.6269,1,1,0.5000,-0.0000,1.42239,-0.01351,-2.63372,1.07643,1.57081,0.11674,-0.12761,-0.48149,0.03255,,,,,,,,,,,,,,,,,,,,,,,,,,0,0,0,0,0
6.1238,1783973609.6273,1,1,0.5000,-0.0000,1.42239,-0.01351,-2.63372,1.07643,1.57081,0.11674,-0.12761,-0.48149,0.03255,,,,,,,,,,,,,,,,,,,,,,,,,,0,0,0,0,0
6.1244,1783973609.6279,1,1,0.5000,-0.0000,1.42239,-0.01353,-2.63373,1.07645,1.57081,0.11674,-0.12761,-0.48148,0.03254,,,,,,,,,,,,,,,,,,,,,,,,,,0,0,0,0,0
6.1494,1783973609.6528,1,1,0.5000,-0.0000,1.42239,-0.01360,-2.63378,1.07654,1.57082,0.11674,-0.12762,-0.48145,0.03250,,,,,,,,,,,,,,,,,,,,,,,,,,0,0,0,0,0
6.1499,1783973609.6534,1,1,0.5000,-0.0000,1.42239,-0.01360,-2.63378,1.07654,1.57082,0.11674,-0.12762,-0.48145,0.03250,,,,,,,,,,,,,,,,,,,,,,,,,,0,0,0,0,0
6.1502,1783973609.6537,1,1,0.5000,-0.0000,1.42239,-0.01360,-2.63378,1.07654,1.57082,0.11674,-0.12762,-0.48145,0.03250,,,,,,,,,,,,,,,,,,,,,,,,,,0,0,0,0,0
6.1507,1783973609.6542,1,1,0.5000,-0.0000,1.42239,-0.01360,-2.63378,1.07654,1.57082,0.11674,-0.12762,-0.48145,0.03250,,,,,,,,,,,,,,,,,,,,,,,,,,0,0,0,0,0
6.1509,1783973609.6544,1,1,0.5000,-0.0000,1.42239,-0.01360,-2.63378,1.07654,1.57082,0.11674,-0.12762,-0.48145,0.03250,,,,,,,,,,,,,,,,,,,,,,,,,,0,0,0,0,0
6.1844,1783973609.6878,1,1,0.5000,-0.0000,1.42239,-0.01374,-2.63383,1.07669,1.57082,0.11674,-0.12762,-0.48143,0.03244,,,,,,,,,,,,,,,,,,,,,,,,,,0,0,0,0,0
6.2138,1783973609.7173,1,1,0.5000,-0.0000,1.42239,-0.01390,-2.63386,1.07689,1.57082,0.11674,-0.12762,-0.48144,0.03239,,,,,,,,,,,,,,,,,,,,,,,,,,0,0,0,0,0
6.2144,1783973609.7178,1,1,0.5000,-0.0000,1.42239,-0.01390,-2.63386,1.07689,1.57082,0.11674,-0.12762,-0.48144,0.03239,,,,,,,,,,,,,,,,,,,,,,,,,,0,0,0,0,0
6.2149,1783973609.7184,1,1,0.5000,-0.0000,1.42239,-0.01390,-2.63386,1.07689,1.57082,0.11674,-0.12762,-0.48144,0.03239,,,,,,,,,,,,,,,,,,,,,,,,,,0,0,0,0,0
6.3070,1783973609.8105,1,1,0.5000,-0.0000,1.42239,-0.01463,-2.63395,1.07777,1.57082,0.11674,-0.12761,-0.48148,0.03217,,,,,,,,,,,,,,,,,,,,,,,,,,0,0,0,0,0
6.3073,1783973609.8108,1,1,0.5000,-0.0000,1.42239,-0.01463,-2.63395,1.07777,1.57082,0.11674,-0.12761,-0.48148,0.03217,,,,,,,,,,,,,,,,,,,,,,,,,,0,0,0,0,0
6.3076,1783973609.8111,1,1,0.5000,-0.0000,1.42239,-0.01463,-2.63395,1.07777,1.57082,0.11674,-0.12761,-0.48148,0.03217,,,,,,,,,,,,,,,,,,,,,,,,,,0,0,0,0,0
6.3080,1783973609.8115,1,1,0.5000,-0.0000,1.42239,-0.01463,-2.63395,1.07777,1.57082,0.11674,-0.12761,-0.48148,0.03217,,,,,,,,,,,,,,,,,,,,,,,,,,0,0,0,0,0
6.3083,1783973609.8118,1,1,0.5000,-0.0000,1.42239,-0.01463,-2.63395,1.07777,1.57082,0.11674,-0.12761,-0.48148,0.03217,,,,,,,,,,,,,,,,,,,,,,,,,,0,0,0,0,0
6.3335,1783973609.8370,1,1,0.5000,-0.0000,1.42239,-0.01463,-2.63395,1.07777,1.57082,0.11674,-0.12761,-0.48148,0.03217,,,,,,,,,,,,,,,,,,,,,,,,,,0,0,0,0,0
6.3337,1783973609.8372,1,1,0.5000,-0.0000,1.42239,-0.01463,-2.63395,1.07777,1.57082,0.11674,-0.12761,-0.48148,0.03217,,,,,,,,,,,,,,,,,,,,,,,,,,0,0,0,0,0
6.3347,1783973609.8382,1,1,0.5000,-0.0000,1.42239,-0.01463,-2.63395,1.07777,1.57082,0.11674,-0.12761,-0.48148,0.03217,,,,,,,,,,,,,,,,,,,,,,,,,,0,0,0,0,0
6.3350,1783973609.8385,1,1,0.5000,-0.0000,1.42239,-0.01463,-2.63395,1.07777,1.57082,0.11674,-0.12761,-0.48148,0.03217,,,,,,,,,,,,,,,,,,,,,,,,,,0,0,0,0,0
6.3460,1783973609.8495,1,1,0.5000,-0.0000,1.42239,-0.01463,-2.63395,1.07777,1.57082,0.11674,-0.12761,-0.48148,0.03217,,,,,,,,,,,,,,,,,,,,,,,,,,0,0,0,0,0
6.3545,1783973609.8579,1,1,0.5000,-0.0000,1.42239,-0.01463,-2.63395,1.07777,1.57082,0.11674,-0.12761,-0.48148,0.03217,,,,,,,,,,,,,,,,,,,,,,,,,,0,0,0,0,0
6.3645,1783973609.8680,1,1,0.5000,-0.0000,1.42239,-0.01463,-2.63395,1.07777,1.57082,0.11674,-0.12761,-0.48148,0.03217,,,,,,,,,,,,,,,,,,,,,,,,,,0,0,0,0,0
6.3712,1783973609.8747,1,1,0.5000,-0.0000,1.42239,-0.01463,-2.63395,1.07777,1.57082,0.11674,-0.12761,-0.48148,0.03217,,,,,,,,,,,,,,,,,,,,,,,,,,0,0,0,0,0
6.3870,1783973609.8905,1,1,0.5000,-0.0000,1.42239,-0.01463,-2.63395,1.07777,1.57082,0.11674,-0.12761,-0.48148,0.03217,,,,,,,,,,,,,,,,,,,,,,,,,,0,0,0,0,0
6.3981,1783973609.9016,1,1,0.5000,-0.0000,1.42239,-0.01463,-2.63395,1.07777,1.57082,0.11674,-0.12761,-0.48148,0.03217,,,,,,,,,,,,,,,,,,,,,,,,,,0,0,0,0,0
6.4041,1783973609.9076,1,1,0.5000,-0.0000,1.42239,-0.01463,-2.63395,1.07777,1.57082,0.11674,-0.12761,-0.48148,0.03217,,,,,,,,,,,,,,,,,,,,,,,,,,0,0,0,0,0
6.4045,1783973609.9079,1,1,0.5000,-0.0000,1.42239,-0.01463,-2.63395,1.07777,1.57082,0.11674,-0.12761,-0.48148,0.03217,,,,,,,,,,,,,,,,,,,,,,,,,,0,0,0,0,0
6.4181,1783973609.9216,1,1,0.5000,-0.0000,1.42239,-0.01463,-2.63395,1.07777,1.57082,0.11674,-0.12761,-0.48148,0.03217,,,,,,,,,,,,,,,,,,,,,,,,,,0,0,0,0,0
6.4463,1783973609.9498,1,1,0.5000,-0.0000,1.42239,-0.01463,-2.63395,1.07777,1.57082,0.11674,-0.12761,-0.48148,0.03217,,,,,,,,,,,,,,,,,,,,,,,,,,0,0,0,0,0
6.4466,1783973609.9501,1,1,0.5000,-0.0000,1.42239,-0.01463,-2.63395,1.07777,1.57082,0.11674,-0.12761,-0.48148,0.03217,,,,,,,,,,,,,,,,,,,,,,,,,,0,0,0,0,0
6.4537,1783973609.9572,1,1,0.5000,-0.0000,1.42239,-0.01463,-2.63395,1.07777,1.57082,0.11674,-0.12761,-0.48148,0.03217,,,,,,,,,,,,,,,,,,,,,,,,,,0,0,0,0,0
6.4560,1783973609.9595,1,1,0.5000,-0.0000,1.42239,-0.01463,-2.63395,1.07777,1.57082,0.11674,-0.12761,-0.48148,0.03217,,,,,,,,,,,,,,,,,,,,,,,,,,0,0,0,0,0
6.4630,1783973609.9664,1,1,0.5000,-0.0000,1.42239,-0.01463,-2.63395,1.07777,1.57082,0.11674,-0.12761,-0.48148,0.03217,,,,,,,,,,,,,,,,,,,,,,,,,,0,0,0,0,0
6.4742,1783973609.9777,1,1,0.5000,-0.0000,1.42239,-0.01463,-2.63395,1.07777,1.57082,0.11674,-0.12761,-0.48148,0.03217,,,,,,,,,,,,,,,,,,,,,,,,,,0,0,0,0,0
6.4899,1783973609.9934,1,1,0.5000,-0.0000,1.42239,-0.01463,-2.63395,1.07777,1.57082,0.11674,-0.12761,-0.48148,0.03217,,,,,,,,,,,,,,,,,,,,,,,,,,0,0,0,0,0
6.4985,1783973610.0020,1,1,0.5000,-0.0000,1.42239,-0.01463,-2.63395,1.07777,1.57082,0.11674,-0.12761,-0.48148,0.03217,,,,,,,,,,,,,,,,,,,,,,,,,,0,0,0,0,0
6.5403,1783973610.0438,1,1,0.5000,-0.0000,1.42239,-0.01468,-2.63396,1.07785,1.57082,0.11674,-0.12761,-0.48150,0.03216,,,,,,,,,,,,,,,,,,,,,,,,,,0,0,0,0,0
6.5406,1783973610.0441,1,1,0.5000,-0.0000,1.42239,-0.01468,-2.63396,1.07785,1.57082,0.11674,-0.12761,-0.48150,0.03216,,,,,,,,,,,,,,,,,,,,,,,,,,0,0,0,0,0
6.5409,1783973610.0444,1,1,0.5000,-0.0000,1.42239,-0.01468,-2.63396,1.07785,1.57082,0.11674,-0.12761,-0.48150,0.03216,,,,,,,,,,,,,,,,,,,,,,,,,,0,0,0,0,0
6.5432,1783973610.0467,1,1,0.5000,-0.0000,1.42239,-0.01468,-2.63396,1.07785,1.57082,0.11674,-0.12761,-0.48150,0.03216,,,,,,,,,,,,,,,,,,,,,,,,,,0,0,0,0,0
6.5435,1783973610.0470,1,1,0.5000,-0.0000,1.42239,-0.01468,-2.63396,1.07785,1.57082,0.11674,-0.12761,-0.48150,0.03216,,,,,,,,,,,,,,,,,,,,,,,,,,0,0,0,0,0
6.5544,1783973610.0579,1,1,0.5000,-0.0000,1.42239,-0.01472,-2.63398,1.07789,1.57082,0.11674,-0.12761,-0.48148,0.03214,,,,,,,,,,,,,,,,,,,,,,,,,,0,0,0,0,0
6.5549,1783973610.0584,1,1,0.5000,-0.0000,1.42239,-0.01472,-2.63398,1.07789,1.57082,0.11674,-0.12761,-0.48148,0.03214,,,,,,,,,,,,,,,,,,,,,,,,,,0,0,0,0,0
6.5772,1783973610.0807,1,1,0.5000,-0.0000,1.42239,-0.01487,-2.63408,1.07806,1.57082,0.11674,-0.12762,-0.48143,0.03206,,,,,,,,,,,,,,,,,,,,,,,,,,0,0,0,0,0
6.5890,1783973610.0925,1,1,0.5000,-0.0000,1.42239,-0.01493,-2.63412,1.07813,1.57082,0.11674,-0.12762,-0.48141,0.03203,,,,,,,,,,,,,,,,,,,,,,,,,,0,0,0,0,0
6.5893,1783973610.0928,1,1,0.5000,-0.0000,1.42239,-0.01493,-2.63412,1.07813,1.57082,0.11674,-0.12762,-0.48141,0.03203,,,,,,,,,,,,,,,,,,,,,,,,,,0,0,0,0,0
6.5963,1783973610.0998,1,1,0.5000,-0.0000,1.42239,-0.01494,-2.63412,1.07815,1.57082,0.11674,-0.12762,-0.48141,0.03202,,,,,,,,,,,,,,,,,,,,,,,,,,0,0,0,0,0
6.5967,1783973610.1001,1,1,0.5000,-0.0000,1.42239,-0.01494,-2.63412,1.07815,1.57082,0.11674,-0.12762,-0.48141,0.03202,,,,,,,,,,,,,,,,,,,,,,,,,,0,0,0,0,0
6.6202,1783973610.1237,1,1,0.5000,-0.0000,1.42239,-0.01508,-2.63413,1.07831,1.57082,0.11674,-0.12762,-0.48142,0.03198,,,,,,,,,,,,,,,,,,,,,,,,,,0,0,0,0,0
6.7192,1783973610.2227,1,1,0.5000,-0.0000,1.42238,-0.01573,-2.63417,1.07910,1.57082,0.11674,-0.12761,-0.48150,0.03181,,,,,,,,,,,,,,,,,,,,,,,,,,0,0,0,0,0
6.7196,1783973610.2231,1,1,0.5000,-0.0000,1.42238,-0.01573,-2.63417,1.07910,1.57082,0.11674,-0.12761,-0.48150,0.03181,,,,,,,,,,,,,,,,,,,,,,,,,,0,0,0,0,0
6.7204,1783973610.2239,1,1,0.5000,-0.0000,1.42238,-0.01576,-2.63417,1.07915,1.57082,0.11674,-0.12760,-0.48150,0.03181,,,,,,,,,,,,,,,,,,,,,,,,,,0,0,0,0,0
6.7209,1783973610.2244,1,1,0.5000,-0.0000,1.42238,-0.01576,-2.63417,1.07915,1.57082,0.11674,-0.12760,-0.48150,0.03181,,,,,,,,,,,,,,,,,,,,,,,,,,0,0,0,0,0
6.7211,1783973610.2246,1,1,0.5000,-0.0000,1.42238,-0.01576,-2.63417,1.07915,1.57082,0.11674,-0.12760,-0.48150,0.03181,,,,,,,,,,,,,,,,,,,,,,,,,,0,0,0,0,0
6.7215,1783973610.2250,1,1,0.5000,-0.0000,1.42238,-0.01576,-2.63417,1.07915,1.57082,0.11674,-0.12760,-0.48150,0.03181,,,,,,,,,,,,,,,,,,,,,,,,,,0,0,0,0,0
6.7218,1783973610.2253,1,1,0.5000,-0.0000,1.42238,-0.01576,-2.63417,1.07915,1.57082,0.11674,-0.12760,-0.48150,0.03181,,,,,,,,,,,,,,,,,,,,,,,,,,0,0,0,0,0
6.7221,1783973610.2256,1,1,0.5000,-0.0000,1.42238,-0.01576,-2.63417,1.07915,1.57082,0.11674,-0.12760,-0.48150,0.03181,,,,,,,,,,,,,,,,,,,,,,,,,,0,0,0,0,0
6.7224,1783973610.2259,1,1,0.5000,-0.0000,1.42238,-0.01576,-2.63417,1.07915,1.57082,0.11674,-0.12760,-0.48150,0.03181,,,,,,,,,,,,,,,,,,,,,,,,,,0,0,0,0,0
6.7253,1783973610.2288,1,1,0.5000,-0.0000,1.42238,-0.01580,-2.63417,1.07919,1.57082,0.11674,-0.12760,-0.48151,0.03180,,,,,,,,,,,,,,,,,,,,,,,,,,0,0,0,0,0
6.7255,1783973610.2290,1,1,0.5000,-0.0000,1.42238,-0.01580,-2.63417,1.07919,1.57082,0.11674,-0.12760,-0.48151,0.03180,,,,,,,,,,,,,,,,,,,,,,,,,,0,0,0,0,0
6.7514,1783973610.2549,1,1,0.5000,-0.0000,1.42238,-0.01589,-2.63414,1.07931,1.57082,0.11674,-0.12760,-0.48155,0.03179,,,,,,,,,,,,,,,,,,,,,,,,,,0,0,0,0,0
6.7520,1783973610.2555,1,1,0.5000,-0.0000,1.42238,-0.01589,-2.63414,1.07931,1.57082,0.11674,-0.12760,-0.48155,0.03179,,,,,,,,,,,,,,,,,,,,,,,,,,0,0,0,0,0
6.7888,1783973610.2923,1,1,0.5000,-0.0000,1.42238,-0.01589,-2.63414,1.07931,1.57082,0.11674,-0.12760,-0.48155,0.03179,,,,,,,,,,,,,,,,,,,,,,,,,,0,0,0,0,0
