Martins-Lucaas/twinforge/sensors/Data/20260704_142507__samples.csv
t_rel_s,t_unix,cycle,phase,setpoint_n,force_net_n,q1,q2,q3,q4,q5,q6,tcp_x,tcp_y,tcp_z,taxel_0,taxel_1,taxel_2,taxel_3,taxel_4,taxel_5,taxel_6,taxel_7,taxel_8,taxel_9,taxel_10,taxel_11,taxel_12,taxel_13,taxel_14,taxel_15,taxel_16,taxel_17,taxel_18,taxel_19,taxel_20,taxel_21,taxel_22,taxel_23,taxel_24,n_RA,n_SA,cn_mm,cn_ra,cn_sa
0.0010,1783185907.5542,0,-1,1.0000,-0.0000,1.44682,0.23328,-2.77748,0.97337,1.57080,0.00000,-0.14512,-0.38003,0.04653,,,,,,,,,,,,,,,,,,,,,,,,,,0,0,0,0,0
0.0169,1783185907.5702,1,0,1.0000,-0.0000,1.44682,0.23328,-2.77748,0.97337,1.57080,0.00000,-0.14512,-0.38003,0.04653,,,,,,,,,,,,,,,,,,,,,,,,,,0,0,0,0,0
0.0212,1783185907.5745,1,0,1.0000,-0.0000,1.44682,0.23328,-2.77748,0.97337,1.57080,0.00000,-0.14512,-0.38003,0.04653,,,,,,,,,,,,,,,,,,,,,,,,,,0,0,0,0,0
0.0217,1783185907.5750,1,0,1.0000,-0.0000,1.44682,0.23328,-2.77748,0.97337,1.57080,0.00000,-0.14512,-0.38003,0.04653,,,,,,,,,,,,,,,,,,,,,,,,,,0,0,0,0,0
0.0299,1783185907.5831,1,0,1.0000,-0.0000,1.44682,0.23328,-2.77748,0.97337,1.57080,0.00000,-0.14512,-0.38003,0.04653,,,,,,,,,,,,,,,,,,,,,,,,,,0,0,0,0,0
0.0301,1783185907.5834,1,0,1.0000,-0.0000,1.44682,0.23328,-2.77748,0.97337,1.57080,0.00000,-0.14512,-0.38003,0.04653,,,,,,,,,,,,,,,,,,,,,,,,,,0,0,0,0,0
0.0425,1783185907.5957,1,0,1.0000,-0.0000,1.44682,0.23328,-2.77748,0.97337,1.57080,0.00000,-0.14512,-0.38003,0.04653,,,,,,,,,,,,,,,,,,,,,,,,,,0,0,0,0,0
0.0495,1783185907.6028,1,0,1.0000,-0.0000,1.44682,0.23328,-2.77748,0.97337,1.57080,0.00000,-0.14512,-0.38003,0.04653,,,,,,,,,,,,,,,,,,,,,,,,,,0,0,0,0,0
0.0498,1783185907.6031,1,0,1.0000,-0.0000,1.44682,0.23328,-2.77748,0.97337,1.57080,0.00000,-0.14512,-0.38003,0.04653,,,,,,,,,,,,,,,,,,,,,,,,,,0,0,0,0,0
0.0588,1783185907.6120,1,0,1.0000,-0.0000,1.44682,0.23328,-2.77748,0.97337,1.57080,0.00000,-0.14512,-0.38003,0.04653,,,,,,,,,,,,,,,,,,,,,,,,,,0,0,0,0,0
0.0728,1783185907.6261,1,0,1.0000,-0.0000,1.44682,0.23328,-2.77748,0.97337,1.57080,0.00000,-0.14512,-0.38003,0.04653,,,,,,,,,,,,,,,,,,,,,,,,,,0,0,0,0,0
0.0798,1783185907.6331,1,0,1.0000,-0.0000,1.44682,0.23328,-2.77748,0.97337,1.57080,0.00000,-0.14512,-0.38003,0.04653,,,,,,,,,,,,,,,,,,,,,,,,,,0,0,0,0,0
0.0916,1783185907.6449,1,0,1.0000,-0.0000,1.44682,0.23328,-2.77748,0.97337,1.57080,0.00000,-0.14512,-0.38003,0.04653,,,,,,,,,,,,,,,,,,,,,,,,,,0,0,0,0,0
0.1015,1783185907.6547,1,0,1.0000,-0.0000,1.44682,0.23328,-2.77748,0.97337,1.57080,0.00000,-0.14512,-0.38003,0.04653,,,,,,,,,,,,,,,,,,,,,,,,,,0,0,0,0,0
0.1097,1783185907.6629,1,0,1.0000,-0.0000,1.44682,0.23328,-2.77748,0.97337,1.57080,0.00000,-0.14512,-0.38003,0.04653,,,,,,,,,,,,,,,,,,,,,,,,,,0,0,0,0,0
0.1261,1783185907.6794,1,0,1.0000,-0.0000,1.44682,0.23328,-2.77748,0.97337,1.57080,0.00000,-0.14512,-0.38003,0.04653,,,,,,,,,,,,,,,,,,,,,,,,,,0,0,0,0,0
0.1296,1783185907.6829,1,0,1.0000,-0.0000,1.44682,0.23328,-2.77748,0.97337,1.57080,0.00000,-0.14512,-0.38003,0.04653,,,,,,,,,,,,,,,,,,,,,,,,,,0,0,0,0,0
0.1440,1783185907.6972,1,0,1.0000,-0.0000,1.44682,0.23328,-2.77748,0.97337,1.57080,0.00000,-0.14512,-0.38003,0.04653,,,,,,,,,,,,,,,,,,,,,,,,,,0,0,0,0,0
0.1500,1783185907.7032,1,0,1.0000,-0.0000,1.44682,0.23328,-2.77748,0.97337,1.57080,0.00000,-0.14512,-0.38003,0.04653,,,,,,,,,,,,,,,,,,,,,,,,,,0,0,0,0,0
0.1585,1783185907.7118,1,0,1.0000,-0.0000,1.44682,0.23328,-2.77748,0.97337,1.57080,0.00000,-0.14512,-0.38003,0.04653,,,,,,,,,,,,,,,,,,,,,,,,,,0,0,0,0,0
0.1589,1783185907.7122,1,0,1.0000,-0.0000,1.44682,0.23328,-2.77748,0.97337,1.57080,0.00000,-0.14512,-0.38003,0.04653,,,,,,,,,,,,,,,,,,,,,,,,,,0,0,0,0,0
0.1688,1783185907.7221,1,0,1.0000,-0.0000,1.44682,0.23328,-2.77748,0.97337,1.57080,0.00000,-0.14512,-0.38003,0.04653,,,,,,,,,,,,,,,,,,,,,,,,,,0,0,0,0,0
0.1853,1783185907.7386,1,0,1.0000,-0.0000,1.44682,0.23328,-2.77748,0.97337,1.57080,0.00000,-0.14512,-0.38003,0.04653,,,,,,,,,,,,,,,,,,,,,,,,,,0,0,0,0,0
0.1888,1783185907.7420,1,0,1.0000,-0.0000,1.44682,0.23328,-2.77748,0.97337,1.57080,0.00000,-0.14512,-0.38003,0.04653,,,,,,,,,,,,,,,,,,,,,,,,,,0,0,0,0,0
0.1891,1783185907.7423,1,0,1.0000,-0.0000,1.44682,0.23328,-2.77748,0.97337,1.57080,0.00000,-0.14512,-0.38003,0.04653,,,,,,,,,,,,,,,,,,,,,,,,,,0,0,0,0,0
0.1987,1783185907.7519,1,0,1.0000,-0.0000,1.44682,0.23328,-2.77748,0.97337,1.57080,0.00000,-0.14512,-0.38003,0.04653,,,,,,,,,,,,,,,,,,,,,,,,,,0,0,0,0,0
0.2088,1783185907.7620,1,0,1.0000,-0.0000,1.44682,0.23328,-2.77748,0.97337,1.57080,0.00000,-0.14512,-0.38003,0.04653,,,,,,,,,,,,,,,,,,,,,,,,,,0,0,0,0,0
0.2191,1783185907.7724,1,0,1.0000,-0.0000,1.44682,0.23328,-2.77748,0.97337,1.57080,0.00000,-0.14512,-0.38003,0.04653,,,,,,,,,,,,,,,,,,,,,,,,,,0,0,0,0,0
0.2296,1783185907.7829,1,0,1.0000,-0.0000,1.44682,0.23328,-2.77748,0.97337,1.57080,0.00000,-0.14512,-0.38003,0.04653,,,,,,,,,,,,,,,,,,,,,,,,,,0,0,0,0,0
0.2400,1783185907.7932,1,0,1.0000,-0.0000,1.44682,0.23328,-2.77748,0.97337,1.57080,0.00000,-0.14512,-0.38003,0.04653,,,,,,,,,,,,,,,,,,,,,,,,,,0,0,0,0,0
0.2488,1783185907.8021,1,0,1.0000,-0.0000,1.44682,0.23328,-2.77748,0.97337,1.57080,0.00000,-0.14512,-0.38003,0.04653,,,,,,,,,,,,,,,,,,,,,,,,,,0,0,0,0,0
0.2588,1783185907.8120,1,0,1.0000,-0.0000,1.44682,0.23328,-2.77748,0.97337,1.57080,0.00000,-0.14512,-0.38003,0.04653,,,,,,,,,,,,,,,,,,,,,,,,,,0,0,0,0,0
0.2697,1783185907.8229,1,0,1.0000,-0.0000,1.44682,0.23328,-2.77748,0.97337,1.57080,0.00000,-0.14512,-0.38003,0.04653,,,,,,,,,,,,,,,,,,,,,,,,,,0,0,0,0,0
0.2913,1783185907.8445,1,0,1.0000,-0.0000,1.44682,0.23328,-2.77748,0.97337,1.57080,0.00000,-0.14512,-0.38003,0.04653,,,,,,,,,,,,,,,,,,,,,,,,,,0,0,0,0,0
0.2917,1783185907.8449,1,0,1.0000,-0.0000,1.44682,0.23328,-2.77748,0.97337,1.57080,0.00000,-0.14512,-0.38003,0.04653,,,,,,,,,,,,,,,,,,,,,,,,,,0,0,0,0,0
0.2994,1783185907.8526,1,0,1.0000,-0.0000,1.44682,0.23328,-2.77748,0.97337,1.57080,0.00000,-0.14512,-0.38003,0.04653,,,,,,,,,,,,,,,,,,,,,,,,,,0,0,0,0,0
0.3156,1783185907.8688,1,0,1.0000,-0.0000,1.44682,0.23328,-2.77748,0.97337,1.57080,0.00000,-0.14512,-0.38003,0.04653,,,,,,,,,,,,,,,,,,,,,,,,,,0,0,0,0,0
0.3187,1783185907.8720,1,0,1.0000,-0.0000,1.44682,0.23328,-2.77748,0.97337,1.57080,0.00000,-0.14512,-0.38003,0.04653,,,,,,,,,,,,,,,,,,,,,,,,,,0,0,0,0,0
0.3191,1783185907.8724,1,0,1.0000,-0.0000,1.44682,0.23328,-2.77748,0.97337,1.57080,0.00000,-0.14512,-0.38003,0.04653,,,,,,,,,,,,,,,,,,,,,,,,,,0,0,0,0,0
0.3309,1783185907.8841,1,0,1.0000,-0.0000,1.44682,0.23328,-2.77748,0.97337,1.57080,0.00000,-0.14512,-0.38003,0.04653,,,,,,,,,,,,,,,,,,,,,,,,,,0,0,0,0,0
0.3407,1783185907.8940,1,0,1.0000,-0.0000,1.44682,0.23328,-2.77748,0.97337,1.57080,0.00000,-0.14512,-0.38003,0.04653,,,,,,,,,,,,,,,,,,,,,,,,,,0,0,0,0,0
0.3495,1783185907.9028,1,0,1.0000,-0.0000,1.44682,0.23328,-2.77748,0.97337,1.57080,0.00000,-0.14512,-0.38003,0.04653,,,,,,,,,,,,,,,,,,,,,,,,,,0,0,0,0,0
0.3499,1783185907.9032,1,0,1.0000,-0.0000,1.44682,0.23328,-2.77748,0.97337,1.57080,0.00000,-0.14512,-0.38003,0.04653,,,,,,,,,,,,,,,,,,,,,,,,,,0,0,0,0,0
0.3608,1783185907.9141,1,0,1.0000,-0.0000,1.44682,0.23328,-2.77748,0.97337,1.57080,0.00000,-0.14512,-0.38003,0.04653,,,,,,,,,,,,,,,,,,,,,,,,,,0,0,0,0,0
0.3729,1783185907.9261,1,0,1.0000,-0.0000,1.44682,0.23328,-2.77748,0.97337,1.57080,0.00000,-0.14512,-0.38003,0.04653,,,,,,,,,,,,,,,,,,,,,,,,,,0,0,0,0,0
0.3732,1783185907.9264,1,0,1.0000,-0.0000,1.44682,0.23328,-2.77748,0.97337,1.57080,0.00000,-0.14512,-0.38003,0.04653,,,,,,,,,,,,,,,,,,,,,,,,,,0,0,0,0,0
0.3798,1783185907.9331,1,0,1.0000,-0.0000,1.44682,0.23328,-2.77748,0.97337,1.57080,0.00000,-0.14512,-0.38003,0.04653,,,,,,,,,,,,,,,,,,,,,,,,,,0,0,0,0,0
0.3890,1783185907.9422,1,0,1.0000,-0.0000,1.44682,0.23328,-2.77748,0.97337,1.57080,0.00000,-0.14512,-0.38003,0.04653,,,,,,,,,,,,,,,,,,,,,,,,,,0,0,0,0,0
0.4048,1783185907.9580,1,0,1.0000,-0.0000,1.44682,0.23328,-2.77748,0.97337,1.57080,0.00000,-0.14512,-0.38003,0.04653,,,,,,,,,,,,,,,,,,,,,,,,,,0,0,0,0,0
0.4100,1783185907.9633,1,0,1.0000,-0.0000,1.44682,0.23328,-2.77748,0.97337,1.57080,0.00000,-0.14512,-0.38003,0.04653,,,,,,,,,,,,,,,,,,,,,,,,,,0,0,0,0,0
0.4219,1783185907.9751,1,0,1.0000,-0.0000,1.44682,0.23328,-2.77748,0.97337,1.57080,0.00000,-0.14512,-0.38003,0.04653,,,,,,,,,,,,,,,,,,,,,,,,,,0,0,0,0,0
0.4223,1783185907.9756,1,0,1.0000,-0.0000,1.44682,0.23328,-2.77748,0.97337,1.57080,0.00000,-0.14512,-0.38003,0.04653,,,,,,,,,,,,,,,,,,,,,,,,,,0,0,0,0,0
0.4307,1783185907.9839,1,0,1.0000,-0.0000,1.44682,0.23328,-2.77748,0.97337,1.57080,0.00000,-0.14512,-0.38003,0.04653,,,,,,,,,,,,,,,,,,,,,,,,,,0,0,0,0,0
0.4395,1783185907.9927,1,0,1.0000,-0.0000,1.44682,0.23328,-2.77748,0.97337,1.57080,0.00000,-0.14512,-0.38003,0.04653,,,,,,,,,,,,,,,,,,,,,,,,,,0,0,0,0,0
0.4505,1783185908.0038,1,0,1.0000,-0.0000,1.44682,0.23328,-2.77748,0.97337,1.57080,0.00000,-0.14512,-0.38003,0.04653,,,,,,,,,,,,,,,,,,,,,,,,,,0,0,0,0,0
0.4587,1783185908.0119,1,0,1.0000,-0.0000,1.44682,0.23328,-2.77748,0.97337,1.57080,0.00000,-0.14512,-0.38003,0.04653,,,,,,,,,,,,,,,,,,,,,,,,,,0,0,0,0,0
0.4590,1783185908.0123,1,0,1.0000,-0.0000,1.44682,0.23328,-2.77748,0.97337,1.57080,0.00000,-0.14512,-0.38003,0.04653,,,,,,,,,,,,,,,,,,,,,,,,,,0,0,0,0,0
0.4735,1783185908.0267,1,0,1.0000,-0.0000,1.44682,0.23328,-2.77748,0.97337,1.57080,0.00000,-0.14512,-0.38003,0.04653,,,,,,,,,,,,,,,,,,,,,,,,,,0,0,0,0,0
0.4896,1783185908.0428,1,0,1.0000,-0.0000,1.44682,0.23328,-2.77748,0.97337,1.57080,0.00000,-0.14512,-0.38003,0.04653,,,,,,,,,,,,,,,,,,,,,,,,,,0,0,0,0,0
0.4901,1783185908.0434,1,0,1.0000,-0.0000,1.44682,0.23328,-2.77748,0.97337,1.57080,0.00000,-0.14512,-0.38003,0.04653,,,,,,,,,,,,,,,,,,,,,,,,,,0,0,0,0,0
0.5004,1783185908.0536,1,0,1.0000,-0.0000,1.44682,0.23328,-2.77748,0.97337,1.57080,0.00000,-0.14512,-0.38003,0.04653,,,,,,,,,,,,,,,,,,,,,,,,,,0,0,0,0,0
0.5099,1783185908.0632,1,0,1.0000,-0.0000,1.44682,0.23328,-2.77748,0.97337,1.57080,0.00000,-0.14512,-0.38003,0.04653,,,,,,,,,,,,,,,,,,,,,,,,,,0,0,0,0,0
0.5197,1783185908.0729,1,0,1.0000,-0.0000,1.44682,0.23328,-2.77748,0.97337,1.57080,0.00000,-0.14512,-0.38003,0.04653,,,,,,,,,,,,,,,,,,,,,,,,,,0,0,0,0,0
0.5309,1783185908.0841,1,0,1.0000,-0.0000,1.44682,0.23328,-2.77748,0.97337,1.57080,0.00000,-0.14512,-0.38003,0.04653,,,,,,,,,,,,,,,,,,,,,,,,,,0,0,0,0,0
0.5393,1783185908.0926,1,0,1.0000,-0.0000,1.44682,0.23328,-2.77748,0.97337,1.57080,0.00000,-0.14512,-0.38003,0.04653,,,,,,,,,,,,,,,,,,,,,,,,,,0,0,0,0,0
0.5607,1783185908.1140,1,0,1.0000,-0.0000,1.44682,0.23328,-2.77748,0.97337,1.57080,0.00000,-0.14512,-0.38003,0.04653,,,,,,,,,,,,,,,,,,,,,,,,,,0,0,0,0,0
0.5655,1783185908.1188,1,0,1.0000,-0.0000,1.44682,0.23328,-2.77748,0.97337,1.57080,0.00000,-0.14512,-0.38003,0.04653,,,,,,,,,,,,,,,,,,,,,,,,,,0,0,0,0,0
0.5728,1783185908.1261,1,0,1.0000,-0.0000,1.44682,0.23328,-2.77748,0.97337,1.57080,0.00000,-0.14512,-0.38003,0.04653,,,,,,,,,,,,,,,,,,,,,,,,,,0,0,0,0,0
0.5733,1783185908.1265,1,0,1.0000,-0.0000,1.44682,0.23328,-2.77748,0.97337,1.57080,0.00000,-0.14512,-0.38003,0.04653,,,,,,,,,,,,,,,,,,,,,,,,,,0,0,0,0,0
0.5811,1783185908.1343,1,0,1.0000,-0.0000,1.44682,0.23328,-2.77748,0.97337,1.57080,0.00000,-0.14512,-0.38003,0.04653,,,,,,,,,,,,,,,,,,,,,,,,,,0,0,0,0,0
0.5923,1783185908.1456,1,0,1.0000,-0.0000,1.44682,0.23328,-2.77748,0.97337,1.57080,0.00000,-0.14512,-0.38003,0.04653,,,,,,,,,,,,,,,,,,,,,,,,,,0,0,0,0,0
0.6021,1783185908.1553,1,0,1.0000,-0.0000,1.44682,0.23328,-2.77748,0.97337,1.57080,0.00000,-0.14512,-0.38003,0.04653,,,,,,,,,,,,,,,,,,,,,,,,,,0,0,0,0,0
0.6095,1783185908.1627,1,0,1.0000,-0.0000,1.44682,0.23328,-2.77748,0.97337,1.57080,0.00000,-0.14512,-0.38003,0.04653,,,,,,,,,,,,,,,,,,,,,,,,,,0,0,0,0,0
0.6099,1783185908.1631,1,0,1.0000,-0.0000,1.44682,0.23328,-2.77748,0.97337,1.57080,0.00000,-0.14512,-0.38003,0.04653,,,,,,,,,,,,,,,,,,,,,,,,,,0,0,0,0,0
0.6212,1783185908.1745,1,0,1.0000,-0.0000,1.44682,0.23328,-2.77748,0.97337,1.57080,0.00000,-0.14512,-0.38003,0.04653,,,,,,,,,,,,,,,,,,,,,,,,,,0,0,0,0,0
0.6379,1783185908.1912,1,0,1.0000,-0.0000,1.44682,0.23328,-2.77748,0.97337,1.57080,0.00000,-0.14512,-0.38003,0.04653,,,,,,,,,,,,,,,,,,,,,,,,,,0,0,0,0,0
0.6424,1783185908.1956,1,0,1.0000,-0.0000,1.44682,0.23328,-2.77748,0.97337,1.57080,0.00000,-0.14512,-0.38003,0.04653,,,,,,,,,,,,,,,,,,,,,,,,,,0,0,0,0,0
0.6553,1783185908.2086,1,0,1.0000,-0.0000,1.44682,0.23328,-2.77748,0.97337,1.57080,0.00000,-0.14512,-0.38003,0.04653,,,,,,,,,,,,,,,,,,,,,,,,,,0,0,0,0,0
0.6588,1783185908.2120,1,0,1.0000,-0.0000,1.44682,0.23328,-2.77748,0.97337,1.57080,0.00000,-0.14512,-0.38003,0.04653,,,,,,,,,,,,,,,,,,,,,,,,,,0,0,0,0,0
0.6755,1783185908.2287,1,0,1.0000,-0.0000,1.44682,0.23328,-2.77748,0.97337,1.57080,0.00000,-0.14512,-0.38003,0.04653,,,,,,,,,,,,,,,,,,,,,,,,,,0,0,0,0,0
0.6786,1783185908.2319,1,0,1.0000,-0.0000,1.44682,0.23328,-2.77748,0.97337,1.57080,0.00000,-0.14512,-0.38003,0.04653,,,,,,,,,,,,,,,,,,,,,,,,,,0,0,0,0,0
0.6791,1783185908.2323,1,0,1.0000,-0.0000,1.44682,0.23328,-2.77748,0.97337,1.57080,0.00000,-0.14512,-0.38003,0.04653,,,,,,,,,,,,,,,,,,,,,,,,,,0,0,0,0,0
0.6948,1783185908.2480,1,0,1.0000,-0.0000,1.44682,0.23328,-2.77748,0.97337,1.57080,0.00000,-0.14512,-0.38003,0.04653,,,,,,,,,,,,,,,,,,,,,,,,,,0,0,0,0,0
0.7019,1783185908.2552,1,0,1.0000,-0.0000,1.44682,0.23328,-2.77748,0.97337,1.57080,0.00000,-0.14512,-0.38003,0.04653,,,,,,,,,,,,,,,,,,,,,,,,,,0,0,0,0,0
0.7099,1783185908.2632,1,0,1.0000,-0.0000,1.44682,0.23328,-2.77748,0.97337,1.57080,0.00000,-0.14512,-0.38003,0.04653,,,,,,,,,,,,,,,,,,,,,,,,,,0,0,0,0,0
0.7188,1783185908.2720,1,0,1.0000,-0.0000,1.44682,0.23328,-2.77748,0.97337,1.57080,0.00000,-0.14512,-0.38003,0.04653,,,,,,,,,,,,,,,,,,,,,,,,,,0,0,0,0,0
0.7308,1783185908.2840,1,1,1.0000,-0.0000,1.44682,0.23328,-2.77748,0.97337,1.57080,0.00000,-0.14512,-0.38003,0.04653,,,,,,,,,,,,,,,,,,,,,,,,,,0,0,0,0,0
0.7398,1783185908.2930,1,1,1.0000,-0.0000,1.44682,0.23328,-2.77748,0.97337,1.57080,0.00000,-0.14512,-0.38003,0.04653,,,,,,,,,,,,,,,,,,,,,,,,,,0,0,0,0,0
0.7510,1783185908.3043,1,1,1.0000,-0.0000,1.44682,0.23328,-2.77748,0.97337,1.57080,0.00000,-0.14512,-0.38003,0.04653,,,,,,,,,,,,,,,,,,,,,,,,,,0,0,0,0,0
0.7604,1783185908.3136,1,1,1.0000,-0.0000,1.44682,0.23328,-2.77748,0.97337,1.57080,0.00000,-0.14512,-0.38003,0.04653,,,,,,,,,,,,,,,,,,,,,,,,,,0,0,0,0,0
0.7689,1783185908.3222,1,1,1.0000,-0.0000,1.44682,0.23328,-2.77748,0.97337,1.57080,0.00000,-0.14512,-0.38003,0.04653,,,,,,,,,,,,,,,,,,,,,,,,,,0,0,0,0,0
0.7814,1783185908.3347,1,1,1.0000,-0.0000,1.44682,0.23328,-2.77748,0.97337,1.57080,0.00000,-0.14512,-0.38003,0.04653,,,,,,,,,,,,,,,,,,,,,,,,,,0,0,0,0,0
0.8032,1783185908.3565,1,1,1.0000,-0.0000,1.44682,0.23328,-2.77748,0.97337,1.57080,0.00000,-0.14512,-0.38003,0.04653,,,,,,,,,,,,,,,,,,,,,,,,,,0,0,0,0,0
0.8170,1783185908.3702,1,1,1.0000,-0.0000,1.44682,0.23328,-2.77748,0.97337,1.57080,0.00000,-0.14512,-0.38003,0.04653,,,,,,,,,,,,,,,,,,,,,,,,,,0,0,0,0,0
0.8198,1783185908.3731,1,1,1.0000,-0.0000,1.44682,0.23328,-2.77748,0.97337,1.57080,0.00000,-0.14512,-0.38003,0.04653,,,,,,,,,,,,,,,,,,,,,,,,,,0,0,0,0,0
0.8429,1783185908.3962,1,1,1.0000,-0.0000,1.44682,0.23328,-2.77748,0.97337,1.57080,0.00000,-0.14512,-0.38003,0.04653,,,,,,,,,,,,,,,,,,,,,,,,,,0,0,0,0,0
0.8491,1783185908.4023,1,1,1.0000,-0.0000,1.44682,0.23328,-2.77748,0.97337,1.57080,0.00000,-0.14512,-0.38003,0.04653,,,,,,,,,,,,,,,,,,,,,,,,,,0,0,0,0,0
0.8495,1783185908.4027,1,1,1.0000,-0.0000,1.44682,0.23328,-2.77748,0.97337,1.57080,0.00000,-0.14512,-0.38003,0.04653,,,,,,,,,,,,,,,,,,,,,,,,,,0,0,0,0,0
0.8535,1783185908.4067,1,1,1.0000,-0.0000,1.44682,0.23328,-2.77748,0.97337,1.57080,0.00000,-0.14512,-0.38003,0.04653,,,,,,,,,,,,,,,,,,,,,,,,,,0,0,0,0,0
0.8539,1783185908.4071,1,1,1.0000,-0.0000,1.44682,0.23328,-2.77748,0.97337,1.57080,0.00000,-0.14512,-0.38003,0.04653,,,,,,,,,,,,,,,,,,,,,,,,,,0,0,0,0,0
0.8598,1783185908.4130,1,1,1.0000,-0.0000,1.44682,0.23328,-2.77748,0.97337,1.57080,0.00000,-0.14512,-0.38003,0.04653,,,,,,,,,,,,,,,,,,,,,,,,,,0,0,0,0,0
0.8602,1783185908.4134,1,1,1.0000,-0.0000,1.44682,0.23328,-2.77748,0.97337,1.57080,0.00000,-0.14512,-0.38003,0.04653,,,,,,,,,,,,,,,,,,,,,,,,,,0,0,0,0,0
0.8704,1783185908.4237,1,1,1.0000,-0.0000,1.44682,0.23328,-2.77748,0.97337,1.57080,0.00000,-0.14512,-0.38003,0.04653,,,,,,,,,,,,,,,,,,,,,,,,,,0,0,0,0,0
0.8830,1783185908.4362,1,1,1.0000,-0.0000,1.44682,0.23328,-2.77748,0.97337,1.57080,0.00000,-0.14512,-0.38003,0.04653,,,,,,,,,,,,,,,,,,,,,,,,,,0,0,0,0,0
0.8890,1783185908.4423,1,1,1.0000,-0.0000,1.44682,0.23328,-2.77748,0.97337,1.57080,0.00000,-0.14512,-0.38003,0.04653,,,,,,,,,,,,,,,,,,,,,,,,,,0,0,0,0,0
0.9059,1783185908.4591,1,1,1.0000,-0.0000,1.44682,0.23328,-2.77748,0.97337,1.57080,0.00000,-0.14512,-0.38003,0.04653,,,,,,,,,,,,,,,,,,,,,,,,,,0,0,0,0,0
0.9089,1783185908.4621,1,1,1.0000,-0.0000,1.44682,0.23328,-2.77748,0.97337,1.57080,0.00000,-0.14512,-0.38003,0.04653,,,,,,,,,,,,,,,,,,,,,,,,,,0,0,0,0,0
0.9195,1783185908.4727,1,1,1.0000,-0.0000,1.44682,0.23328,-2.77748,0.97337,1.57080,0.00000,-0.14512,-0.38003,0.04653,,,,,,,,,,,,,,,,,,,,,,,,,,0,0,0,0,0
0.9297,1783185908.4830,1,1,1.0000,-0.0000,1.44682,0.23323,-2.77749,0.97342,1.57080,0.00000,-0.14512,-0.38003,0.04652,,,,,,,,,,,,,,,,,,,,,,,,,,0,0,0,0,0
0.9448,1783185908.4981,1,1,1.0000,-0.0000,1.44682,0.23301,-2.77754,0.97370,1.57080,0.00000,-0.14512,-0.38003,0.04646,,,,,,,,,,,,,,,,,,,,,,,,,,0,0,0,0,0
0.9506,1783185908.5038,1,1,1.0000,-0.0000,1.44682,0.23301,-2.77754,0.97370,1.57080,0.00000,-0.14512,-0.38003,0.04646,,,,,,,,,,,,,,,,,,,,,,,,,,0,0,0,0,0
0.9624,1783185908.5157,1,1,1.0000,-0.0000,1.44682,0.23295,-2.77756,0.97378,1.57080,0.00000,-0.14512,-0.38003,0.04644,,,,,,,,,,,,,,,,,,,,,,,,,,0,0,0,0,0
0.9698,1783185908.5230,1,1,1.0000,-0.0000,1.44682,0.23286,-2.77759,0.97390,1.57080,0.00000,-0.14512,-0.38003,0.04642,,,,,,,,,,,,,,,,,,,,,,,,,,0,0,0,0,0
0.9701,1783185908.5233,1,1,1.0000,-0.0000,1.44682,0.23286,-2.77759,0.97390,1.57080,0.00000,-0.14512,-0.38003,0.04642,,,,,,,,,,,,,,,,,,,,,,,,,,0,0,0,0,0
0.9803,1783185908.5335,1,1,1.0000,-0.0000,1.44682,0.23275,-2.77761,0.97403,1.57080,0.00000,-0.14512,-0.38003,0.04639,,,,,,,,,,,,,,,,,,,,,,,,,,0,0,0,0,0
0.9906,1783185908.5438,1,1,1.0000,-0.0000,1.44682,0.23272,-2.77762,0.97407,1.57080,0.00000,-0.14512,-0.38003,0.04638,,,,,,,,,,,,,,,,,,,,,,,,,,0,0,0,0,0
1.0090,1783185908.5622,1,1,1.0000,-0.0000,1.44682,0.23254,-2.77767,0.97430,1.57080,0.00000,-0.14512,-0.38003,0.04633,,,,,,,,,,,,,,,,,,,,,,,,,,0,0,0,0,0
1.0093,1783185908.5626,1,1,1.0000,-0.0000,1.44682,0.23254,-2.77767,0.97430,1.57080,0.00000,-0.14512,-0.38003,0.04633,,,,,,,,,,,,,,,,,,,,,,,,,,0,0,0,0,0
1.0099,1783185908.5631,1,1,1.0000,-0.0000,1.44682,0.23254,-2.77767,0.97430,1.57080,0.00000,-0.14512,-0.38003,0.04633,,,,,,,,,,,,,,,,,,,,,,,,,,0,0,0,0,0
1.0102,1783185908.5634,1,1,1.0000,-0.0000,1.44682,0.23254,-2.77767,0.97430,1.57080,0.00000,-0.14512,-0.38003,0.04633,,,,,,,,,,,,,,,,,,,,,,,,,,0,0,0,0,0
1.0193,1783185908.5725,1,1,1.0000,-0.0000,1.44682,0.23250,-2.77768,0.97434,1.57080,0.00000,-0.14512,-0.38003,0.04633,,,,,,,,,,,,,,,,,,,,,,,,,,0,0,0,0,0
1.0297,1783185908.5830,1,1,1.0000,-0.0000,1.44682,0.23237,-2.77771,0.97451,1.57080,0.00000,-0.14512,-0.38003,0.04629,,,,,,,,,,,,,,,,,,,,,,,,,,0,0,0,0,0
1.0391,1783185908.5924,1,1,1.0000,-0.0000,1.44682,0.23227,-2.77774,0.97464,1.57080,0.00000,-0.14512,-0.38003,0.04626,,,,,,,,,,,,,,,,,,,,,,,,,,0,0,0,0,0
1.0497,1783185908.6030,1,1,1.0000,-0.0000,1.44682,0.23224,-2.77775,0.97468,1.57080,0.00000,-0.14512,-0.38003,0.04626,,,,,,,,,,,,,,,,,,,,,,,,,,0,0,0,0,0
1.0599,1783185908.6132,1,1,1.0000,-0.0000,1.44682,0.23215,-2.77777,0.97478,1.57080,0.00000,-0.14512,-0.38003,0.04623,,,,,,,,,,,,,,,,,,,,,,,,,,0,0,0,0,0
1.0734,1783185908.6267,1,1,1.0000,-0.0000,1.44682,0.23204,-2.77780,0.97492,1.57080,0.00000,-0.14512,-0.38003,0.04620,,,,,,,,,,,,,,,,,,,,,,,,,,0,0,0,0,0
1.0786,1783185908.6319,1,1,1.0000,-0.0000,1.44682,0.23202,-2.77780,0.97495,1.57080,0.00000,-0.14512,-0.38003,0.04620,,,,,,,,,,,,,,,,,,,,,,,,,,0,0,0,0,0
1.0897,1783185908.6430,1,1,1.0000,-0.0000,1.44682,0.23189,-2.77784,0.97512,1.57080,0.00000,-0.14512,-0.38003,0.04616,,,,,,,,,,,,,,,,,,,,,,,,,,0,0,0,0,0
1.1036,1783185908.6569,1,1,1.0000,-0.0000,1.44682,0.23178,-2.77786,0.97525,1.57080,0.00000,-0.14512,-0.38003,0.04614,,,,,,,,,,,,,,,,,,,,,,,,,,0,0,0,0,0
1.1130,1783185908.6663,1,1,1.0000,-0.0000,1.44682,0.23171,-2.77788,0.97534,1.57080,0.00000,-0.14512,-0.38003,0.04612,,,,,,,,,,,,,,,,,,,,,,,,,,0,0,0,0,0
1.1135,1783185908.6668,1,1,1.0000,-0.0000,1.44682,0.23171,-2.77788,0.97534,1.57080,0.00000,-0.14512,-0.38003,0.04612,,,,,,,,,,,,,,,,,,,,,,,,,,0,0,0,0,0
1.1188,1783185908.6721,1,1,1.0000,-0.0000,1.44682,0.23167,-2.77789,0.97539,1.57080,0.00000,-0.14512,-0.38003,0.04611,,,,,,,,,,,,,,,,,,,,,,,,,,0,0,0,0,0
1.1318,1783185908.6850,1,1,1.0000,-0.0000,1.44682,0.23157,-2.77792,0.97552,1.57080,0.00000,-0.14512,-0.38003,0.04608,,,,,,,,,,,,,,,,,,,,,,,,,,0,0,0,0,0
1.1392,1783185908.6924,1,1,1.0000,-0.0000,1.44682,0.23153,-2.77793,0.97556,1.57080,0.00000,-0.14512,-0.38003,0.04607,,,,,,,,,,,,,,,,,,,,,,,,,,0,0,0,0,0
1.1531,1783185908.7063,1,1,1.0000,-0.0000,1.44682,0.23135,-2.77797,0.97579,1.57080,0.00000,-0.14512,-0.38003,0.04602,,,,,,,,,,,,,,,,,,,,,,,,,,0,0,0,0,0
1.1535,1783185908.7067,1,1,1.0000,-0.0000,1.44682,0.23135,-2.77797,0.97579,1.57080,0.00000,-0.14512,-0.38003,0.04602,,,,,,,,,,,,,,,,,,,,,,,,,,0,0,0,0,0
1.1608,1783185908.7141,1,1,1.0000,-0.0000,1.44682,0.23130,-2.77799,0.97586,1.57080,0.00000,-0.14512,-0.38003,0.04601,,,,,,,,,,,,,,,,,,,,,,,,,,0,0,0,0,0
1.1612,1783185908.7144,1,1,1.0000,-0.0000,1.44682,0.23130,-2.77799,0.97586,1.57080,0.00000,-0.14512,-0.38003,0.04601,,,,,,,,,,,,,,,,,,,,,,,,,,0,0,0,0,0
1.1690,1783185908.7223,1,1,1.0000,-0.0000,1.44682,0.23126,-2.77800,0.97590,1.57080,0.00000,-0.14512,-0.38003,0.04600,,,,,,,,,,,,,,,,,,,,,,,,,,0,0,0,0,0
1.1793,1783185908.7325,1,1,1.0000,-0.0000,1.44682,0.23118,-2.77802,0.97600,1.57080,0.00000,-0.14512,-0.38003,0.04598,,,,,,,,,,,,,,,,,,,,,,,,,,0,0,0,0,0
1.1898,1783185908.7431,1,1,1.0000,-0.0000,1.44682,0.23103,-2.77806,0.97620,1.57080,0.00000,-0.14512,-0.38003,0.04594,,,,,,,,,,,,,,,,,,,,,,,,,,0,0,0,0,0
1.1901,1783185908.7434,1,1,1.0000,-0.0000,1.44682,0.23103,-2.77806,0.97620,1.57080,0.00000,-0.14512,-0.38003,0.04594,,,,,,,,,,,,,,,,,,,,,,,,,,0,0,0,0,0
1.2001,1783185908.7533,1,1,1.0000,-0.0000,1.44682,0.23102,-2.77806,0.97620,1.57080,0.00000,-0.14512,-0.38003,0.04594,,,,,,,,,,,,,,,,,,,,,,,,,,0,0,0,0,0
1.2128,1783185908.7660,1,1,1.0000,-0.0000,1.44682,0.23090,-2.77809,0.97636,1.57080,0.00000,-0.14512,-0.38003,0.04591,,,,,,,,,,,,,,,,,,,,,,,,,,0,0,0,0,0
1.2231,1783185908.7763,1,1,1.0000,-0.0000,1.44682,0.23086,-2.77810,0.97641,1.57080,0.00000,-0.14512,-0.38003,0.04590,,,,,,,,,,,,,,,,,,,,,,,,,,0,0,0,0,0
1.2298,1783185908.7830,1,1,1.0000,-0.0000,1.44682,0.23082,-2.77811,0.97646,1.57080,0.00000,-0.14512,-0.38003,0.04589,,,,,,,,,,,,,,,,,,,,,,,,,,0,0,0,0,0
1.2302,1783185908.7834,1,1,1.0000,-0.0000,1.44682,0.23082,-2.77811,0.97646,1.57080,0.00000,-0.14512,-0.38003,0.04589,,,,,,,,,,,,,,,,,,,,,,,,,,0,0,0,0,0
1.2401,1783185908.7933,1,1,1.0000,-0.0000,1.44682,0.23074,-2.77813,0.97656,1.57080,0.00000,-0.14512,-0.38003,0.04586,,,,,,,,,,,,,,,,,,,,,,,,,,0,0,0,0,0
1.2513,1783185908.8045,1,1,1.0000,-0.0000,1.44682,0.23058,-2.77817,0.97676,1.57080,0.00000,-0.14512,-0.38003,0.04582,,,,,,,,,,,,,,,,,,,,,,,,,,0,0,0,0,0
1.2590,1783185908.8122,1,1,1.0000,-0.0000,1.44682,0.23058,-2.77817,0.97677,1.57080,0.00000,-0.14512,-0.38003,0.04582,,,,,,,,,,,,,,,,,,,,,,,,,,0,0,0,0,0
1.2723,1783185908.8255,1,1,1.0000,-0.0000,1.44682,0.23050,-2.77819,0.97687,1.57080,0.00000,-0.14512,-0.38003,0.04580,,,,,,,,,,,,,,,,,,,,,,,,,,0,0,0,0,0
1.2785,1783185908.8318,1,1,1.0000,-0.0000,1.44682,0.23041,-2.77821,0.97697,1.57080,0.00000,-0.14512,-0.38003,0.04578,,,,,,,,,,,,,,,,,,,,,,,,,,0,0,0,0,0
1.2789,1783185908.8321,1,1,1.0000,-0.0000,1.44682,0.23041,-2.77821,0.97697,1.57080,0.00000,-0.14512,-0.38003,0.04578,,,,,,,,,,,,,,,,,,,,,,,,,,0,0,0,0,0
1.2981,1783185908.8514,1,1,1.0000,-0.0000,1.44682,0.23029,-2.77824,0.97712,1.57080,0.00000,-0.14512,-0.38003,0.04575,,,,,,,,,,,,,,,,,,,,,,,,,,0,0,0,0,0
1.2987,1783185908.8520,1,1,1.0000,-0.0000,1.44682,0.23029,-2.77824,0.97712,1.57080,0.00000,-0.14512,-0.38003,0.04575,,,,,,,,,,,,,,,,,,,,,,,,,,0,0,0,0,0
1.2991,1783185908.8524,1,1,1.0000,-0.0000,1.44682,0.23029,-2.77824,0.97712,1.57080,0.00000,-0.14512,-0.38003,0.04575,,,,,,,,,,,,,,,,,,,,,,,,,,0,0,0,0,0
1.3093,1783185908.8625,1,1,1.0000,-0.0000,1.44682,0.23014,-2.77829,0.97732,1.57080,0.00000,-0.14512,-0.38003,0.04571,,,,,,,,,,,,,,,,,,,,,,,,,,0,0,0,0,0
1.3186,1783185908.8718,1,1,1.0000,-0.0000,1.44682,0.23013,-2.77829,0.97733,1.57080,0.00000,-0.14512,-0.38003,0.04571,,,,,,,,,,,,,,,,,,,,,,,,,,0,0,0,0,0
1.3189,1783185908.8721,1,1,1.0000,-0.0000,1.44682,0.23013,-2.77829,0.97733,1.57080,0.00000,-0.14512,-0.38003,0.04571,,,,,,,,,,,,,,,,,,,,,,,,,,0,0,0,0,0
1.3305,1783185908.8838,1,1,1.0000,-0.0000,1.44682,0.23005,-2.77831,0.97743,1.57080,0.00000,-0.14512,-0.38003,0.04568,,,,,,,,,,,,,,,,,,,,,,,,,,0,0,0,0,0
1.3390,1783185908.8923,1,1,1.0000,-0.0000,1.44682,0.22997,-2.77833,0.97753,1.57080,0.00000,-0.14512,-0.38003,0.04566,,,,,,,,,,,,,,,,,,,,,,,,,,0,0,0,0,0
1.3504,1783185908.9037,1,1,1.0000,-0.0000,1.44682,0.22993,-2.77834,0.97758,1.57080,0.00000,-0.14512,-0.38003,0.04565,,,,,,,,,,,,,,,,,,,,,,,,,,0,0,0,0,0
1.3596,1783185908.9128,1,1,1.0000,-0.0000,1.44682,0.22985,-2.77836,0.97768,1.57080,0.00000,-0.14512,-0.38003,0.04563,,,,,,,,,,,,,,,,,,,,,,,,,,0,0,0,0,0
1.3721,1783185908.9254,1,1,1.0000,-0.0000,1.44682,0.22969,-2.77840,0.97788,1.57080,0.00000,-0.14512,-0.38003,0.04559,,,,,,,,,,,,,,,,,,,,,,,,,,0,0,0,0,0
1.3797,1783185908.9330,1,1,1.0000,-0.0000,1.44682,0.22968,-2.77840,0.97789,1.57080,0.00000,-0.14512,-0.38003,0.04559,,,,,,,,,,,,,,,,,,,,,,,,,,0,0,0,0,0
1.3954,1783185908.9487,1,1,1.0000,-0.0000,1.44682,0.22956,-2.77843,0.97804,1.57080,0.00000,-0.14512,-0.38003,0.04556,,,,,,,,,,,,,,,,,,,,,,,,,,0,0,0,0,0
1.4039,1783185908.9572,1,1,1.0000,-0.0000,1.44682,0.22952,-2.77844,0.97809,1.57080,0.00000,-0.14512,-0.38003,0.04555,,,,,,,,,,,,,,,,,,,,,,,,,,0,0,0,0,0
1.4107,1783185908.9640,1,1,1.0000,-0.0000,1.44682,0.22948,-2.77845,0.97814,1.57080,0.00000,-0.14512,-0.38003,0.04554,,,,,,,,,,,,,,,,,,,,,,,,,,0,0,0,0,0
1.4187,1783185908.9720,1,1,1.0000,-0.0000,1.44682,0.22940,-2.77847,0.97824,1.57080,0.00000,-0.14512,-0.38003,0.04552,,,,,,,,,,,,,,,,,,,,,,,,,,0,0,0,0,0
1.4291,1783185908.9823,1,1,1.0000,-0.0000,1.44682,0.22924,-2.77851,0.97844,1.57080,0.00000,-0.14512,-0.38003,0.04547,,,,,,,,,,,,,,,,,,,,,,,,,,0,0,0,0,0
1.4430,1783185908.9963,1,1,1.0000,-0.0000,1.44682,0.22922,-2.77852,0.97847,1.57080,0.00000,-0.14512,-0.38003,0.04547,,,,,,,,,,,,,,,,,,,,,,,,,,0,0,0,0,0
1.4530,1783185909.0062,1,1,1.0000,-0.0000,1.44682,0.22912,-2.77855,0.97860,1.57080,0.00000,-0.14512,-0.38003,0.04544,,,,,,,,,,,,,,,,,,,,,,,,,,0,0,0,0,0
1.4633,1783185909.0166,1,1,1.0000,-0.0000,1.44682,0.22907,-2.77856,0.97865,1.57080,0.00000,-0.14512,-0.38003,0.04543,,,,,,,,,,,,,,,,,,,,,,,,,,0,0,0,0,0
1.4745,1783185909.0277,1,1,1.0000,-0.0000,1.44682,0.22900,-2.77858,0.97875,1.57080,0.00000,-0.14512,-0.38003,0.04541,,,,,,,,,,,,,,,,,,,,,,,,,,0,0,0,0,0
1.4789,1783185909.0321,1,1,1.0000,-0.0000,1.44682,0.22895,-2.77859,0.97880,1.57080,0.00000,-0.14512,-0.38003,0.04540,,,,,,,,,,,,,,,,,,,,,,,,,,0,0,0,0,0
1.4890,1783185909.0422,1,1,1.0000,-0.0000,1.44682,0.22880,-2.77863,0.97900,1.57080,0.00000,-0.14512,-0.38003,0.04536,,,,,,,,,,,,,,,,,,,,,,,,,,0,0,0,0,0
1.5001,1783185909.0534,1,1,1.0000,-0.0000,1.44682,0.22879,-2.77863,0.97901,1.57080,0.00000,-0.14512,-0.38003,0.04536,,,,,,,,,,,,,,,,,,,,,,,,,,0,0,0,0,0
1.5131,1783185909.0663,1,1,1.0000,-0.0000,1.44682,0.22867,-2.77866,0.97916,1.57080,0.00000,-0.14512,-0.38003,0.04533,,,,,,,,,,,,,,,,,,,,,,,,,,0,0,0,0,0
1.5210,1783185909.0742,1,1,1.0000,-0.0000,1.44682,0.22862,-2.77867,0.97922,1.57080,0.00000,-0.14512,-0.38003,0.04531,,,,,,,,,,,,,,,,,,,,,,,,,,0,0,0,0,0
1.5289,1783185909.0821,1,1,1.0000,-0.0000,1.44682,0.22859,-2.77868,0.97926,1.57080,0.00000,-0.14512,-0.38003,0.04530,,,,,,,,,,,,,,,,,,,,,,,,,,0,0,0,0,0
1.5429,1783185909.0962,1,1,1.0000,-0.0000,1.44682,0.22845,-2.77872,0.97943,1.57080,0.00000,-0.14512,-0.38003,0.04527,,,,,,,,,,,,,,,,,,,,,,,,,,0,0,0,0,0
1.5630,1783185909.1163,1,1,1.0000,-0.0000,1.44682,0.22832,-2.77875,0.97959,1.57080,0.00000,-0.14512,-0.38003,0.04524,,,,,,,,,,,,,,,,,,,,,,,,,,0,0,0,0,0
1.5704,1783185909.1236,1,1,1.0000,-0.0000,1.44682,0.22826,-2.77876,0.97967,1.57080,0.00000,-0.14512,-0.38003,0.04522,,,,,,,,,,,,,,,,,,,,,,,,,,0,0,0,0,0
1.5769,1783185909.1302,1,1,1.0000,-0.0000,1.44682,0.22818,-2.77879,0.97978,1.57080,0.00000,-0.14512,-0.38003,0.04520,,,,,,,,,,,,,,,,,,,,,,,,,,0,0,0,0,0
1.5772,1783185909.1305,1,1,1.0000,-0.0000,1.44682,0.22818,-2.77879,0.97978,1.57080,0.00000,-0.14512,-0.38003,0.04520,,,,,,,,,,,,,,,,,,,,,,,,,,0,0,0,0,0
1.5830,1783185909.1363,1,1,1.0000,-0.0000,1.44682,0.22818,-2.77879,0.97978,1.57080,0.00000,-0.14512,-0.38003,0.04520,,,,,,,,,,,,,,,,,,,,,,,,,,0,0,0,0,0
1.5834,1783185909.1367,1,1,1.0000,-0.0000,1.44682,0.22818,-2.77879,0.97978,1.57080,0.00000,-0.14512,-0.38003,0.04520,,,,,,,,,,,,,,,,,,,,,,,,,,0,0,0,0,0
1.5929,1783185909.1462,1,1,1.0000,-0.0000,1.44682,0.22810,-2.77880,0.97987,1.57080,0.00000,-0.14512,-0.38003,0.04518,,,,,,,,,,,,,,,,,,,,,,,,,,0,0,0,0,0
1.6054,1783185909.1587,1,1,1.0000,-0.0000,1.44682,0.22795,-2.77884,0.98006,1.57080,0.00000,-0.14512,-0.38003,0.04514,,,,,,,,,,,,,,,,,,,,,,,,,,0,0,0,0,0
1.6174,1783185909.1707,1,1,1.0000,-0.0000,1.44682,0.22789,-2.77886,0.98014,1.57080,0.00000,-0.14512,-0.38003,0.04512,,,,,,,,,,,,,,,,,,,,,,,,,,0,0,0,0,0
1.6252,1783185909.1785,1,1,1.0000,-0.0000,1.44682,0.22783,-2.77887,0.98021,1.57080,0.00000,-0.14512,-0.38003,0.04511,,,,,,,,,,,,,,,,,,,,,,,,,,0,0,0,0,0
1.6256,1783185909.1788,1,1,1.0000,-0.0000,1.44682,0.22783,-2.77887,0.98021,1.57080,0.00000,-0.14512,-0.38003,0.04511,,,,,,,,,,,,,,,,,,,,,,,,,,0,0,0,0,0
1.6303,1783185909.1836,1,1,1.0000,-0.0000,1.44682,0.22778,-2.77889,0.98027,1.57080,0.00000,-0.14512,-0.38003,0.04510,,,,,,,,,,,,,,,,,,,,,,,,,,0,0,0,0,0
1.6306,1783185909.1838,1,1,1.0000,-0.0000,1.44682,0.22778,-2.77889,0.98027,1.57080,0.00000,-0.14512,-0.38003,0.04510,,,,,,,,,,,,,,,,,,,,,,,,,,0,0,0,0,0
1.6391,1783185909.1924,1,1,1.0000,-0.0000,1.44682,0.22768,-2.77891,0.98040,1.57080,0.00000,-0.14512,-0.38003,0.04507,,,,,,,,,,,,,,,,,,,,,,,,,,0,0,0,0,0
1.6493,1783185909.2026,1,1,1.0000,-0.0000,1.44682,0.22765,-2.77892,0.98044,1.57080,0.00000,-0.14512,-0.38003,0.04506,,,,,,,,,,,,,,,,,,,,,,,,,,0,0,0,0,0
1.6611,1783185909.2144,1,1,1.0000,-0.0000,1.44682,0.22752,-2.77895,0.98061,1.57080,0.00000,-0.14512,-0.38003,0.04503,,,,,,,,,,,,,,,,,,,,,,,,,,0,0,0,0,0
1.6725,1783185909.2258,1,1,1.0000,-0.0000,1.44682,0.22741,-2.77898,0.98074,1.57080,0.00000,-0.14512,-0.38003,0.04500,,,,,,,,,,,,,,,,,,,,,,,,,,0,0,0,0,0
1.6794,1783185909.2327,1,1,1.0000,-0.0000,1.44682,0.22740,-2.77898,0.98075,1.57080,0.00000,-0.14512,-0.38003,0.04500,,,,,,,,,,,,,,,,,,,,,,,,,,0,0,0,0,0
1.6900,1783185909.2433,1,1,1.0000,-0.0000,1.44682,0.22730,-2.77901,0.98088,1.57080,0.00000,-0.14512,-0.38003,0.04497,,,,,,,,,,,,,,,,,,,,,,,,,,0,0,0,0,0
1.6904,1783185909.2436,1,1,1.0000,-0.0000,1.44682,0.22730,-2.77901,0.98088,1.57080,0.00000,-0.14512,-0.38003,0.04497,,,,,,,,,,,,,,,,,,,,,,,,,,0,0,0,0,0
1.8051,1783185909.3583,1,1,1.0000,-0.0000,1.44682,0.22636,-2.77925,0.98205,1.57080,0.00001,-0.14512,-0.38003,0.04473,,,,,,,,,,,,,,,,,,,,,,,,,,0,0,0,0,0
1.8054,1783185909.3586,1,1,1.0000,-0.0000,1.44682,0.22636,-2.77925,0.98205,1.57080,0.00001,-0.14512,-0.38003,0.04473,,,,,,,,,,,,,,,,,,,,,,,,,,0,0,0,0,0
1.8057,1783185909.3589,1,1,1.0000,-0.0000,1.44682,0.22636,-2.77925,0.98205,1.57080,0.00001,-0.14512,-0.38003,0.04473,,,,,,,,,,,,,,,,,,,,,,,,,,0,0,0,0,0
1.8060,1783185909.3592,1,1,1.0000,-0.0000,1.44682,0.22636,-2.77925,0.98205,1.57080,0.00001,-0.14512,-0.38003,0.04473,,,,,,,,,,,,,,,,,,,,,,,,,,0,0,0,0,0
1.8062,1783185909.3594,1,1,1.0000,-0.0000,1.44682,0.22636,-2.77925,0.98205,1.57080,0.00001,-0.14512,-0.38003,0.04473,,,,,,,,,,,,,,,,,,,,,,,,,,0,0,0,0,0
1.8547,1783185909.4080,1,1,1.0000,-0.0000,1.44682,0.22594,-2.77935,0.98258,1.57080,0.00001,-0.14512,-0.38003,0.04462,,,,,,,,,,,,,,,,,,,,,,,,,,0,0,0,0,0
1.8550,1783185909.4082,1,1,1.0000,-0.0000,1.44682,0.22594,-2.77935,0.98258,1.57080,0.00001,-0.14512,-0.38003,0.04462,,,,,,,,,,,,,,,,,,,,,,,,,,0,0,0,0,0
1.8553,1783185909.4085,1,1,1.0000,-0.0000,1.44682,0.22594,-2.77935,0.98258,1.57080,0.00001,-0.14512,-0.38003,0.04462,,,,,,,,,,,,,,,,,,,,,,,,,,0,0,0,0,0
1.8556,1783185909.4088,1,1,1.0000,-0.0000,1.44682,0.22594,-2.77935,0.98258,1.57080,0.00001,-0.14512,-0.38003,0.04462,,,,,,,,,,,,,,,,,,,,,,,,,,0,0,0,0,0
1.8560,1783185909.4092,1,1,1.0000,-0.0000,1.44682,0.22594,-2.77935,0.98258,1.57080,0.00001,-0.14512,-0.38003,0.04462,,,,,,,,,,,,,,,,,,,,,,,,,,0,0,0,0,0
1.8563,1783185909.4095,1,1,1.0000,-0.0000,1.44682,0.22594,-2.77935,0.98258,1.57080,0.00001,-0.14512,-0.38003,0.04462,,,,,,,,,,,,,,,,,,,,,,,,,,0,0,0,0,0
1.8565,1783185909.4097,1,1,1.0000,-0.0000,1.44682,0.22594,-2.77935,0.98258,1.57080,0.00001,-0.14512,-0.38003,0.04462,,,,,,,,,,,,,,,,,,,,,,,,,,0,0,0,0,0
1.8567,1783185909.4100,1,1,1.0000,-0.0000,1.44682,0.22594,-2.77935,0.98258,1.57080,0.00001,-0.14512,-0.38003,0.04462,,,,,,,,,,,,,,,,,,,,,,,,,,0,0,0,0,0
1.8574,1783185909.4107,1,1,1.0000,-0.0000,1.44682,0.22594,-2.77935,0.98259,1.57080,0.00001,-0.14512,-0.38003,0.04462,,,,,,,,,,,,,,,,,,,,,,,,,,0,0,0,0,0
1.8578,1783185909.4110,1,1,1.0000,-0.0000,1.44682,0.22594,-2.77935,0.98259,1.57080,0.00001,-0.14512,-0.38003,0.04462,,,,,,,,,,,,,,,,,,,,,,,,,,0,0,0,0,0
1.8634,1783185909.4166,1,1,1.0000,-0.0000,1.44682,0.22591,-2.77936,0.98262,1.57080,0.00001,-0.14512,-0.38003,0.04461,,,,,,,,,,,,,,,,,,,,,,,,,,0,0,0,0,0
1.8636,1783185909.4169,1,1,1.0000,-0.0000,1.44682,0.22591,-2.77936,0.98262,1.57080,0.00001,-0.14512,-0.38003,0.04461,,,,,,,,,,,,,,,,,,,,,,,,,,0,0,0,0,0
1.8741,1783185909.4274,1,1,1.0000,-0.0000,1.44682,0.22578,-2.77939,0.98279,1.57080,0.00001,-0.14512,-0.38003,0.04458,,,,,,,,,,,,,,,,,,,,,,,,,,0,0,0,0,0
1.8840,1783185909.4373,1,1,1.0000,-0.0000,1.44682,0.22572,-2.77941,0.98285,1.57080,0.00001,-0.14512,-0.38003,0.04456,,,,,,,,,,,,,,,,,,,,,,,,,,0,0,0,0,0
1.8845,1783185909.4377,1,1,1.0000,-0.0000,1.44682,0.22572,-2.77941,0.98285,1.57080,0.00001,-0.14512,-0.38003,0.04456,,,,,,,,,,,,,,,,,,,,,,,,,,0,0,0,0,0
1.8917,1783185909.4449,1,1,1.0000,-0.0000,1.44682,0.22569,-2.77942,0.98289,1.57080,0.00001,-0.14512,-0.38003,0.04455,,,,,,,,,,,,,,,,,,,,,,,,,,0,0,0,0,0
1.8990,1783185909.4523,1,1,1.0000,-0.0000,1.44682,0.22561,-2.77944,0.98300,1.57080,0.00001,-0.14512,-0.38003,0.04453,,,,,,,,,,,,,,,,,,,,,,,,,,0,0,0,0,0
1.9089,1783185909.4621,1,1,1.0000,-0.0000,1.44682,0.22551,-2.77946,0.98313,1.57080,0.00001,-0.14512,-0.38003,0.04450,,,,,,,,,,,,,,,,,,,,,,,,,,0,0,0,0,0
1.9227,1783185909.4759,1,1,1.0000,-0.0000,1.44682,0.22542,-2.77948,0.98323,1.57080,0.00001,-0.14512,-0.38003,0.04448,,,,,,,,,,,,,,,,,,,,,,,,,,0,0,0,0,0
1.9230,1783185909.4763,1,1,1.0000,-0.0000,1.44682,0.22542,-2.77948,0.98323,1.57080,0.00001,-0.14512,-0.38003,0.04448,,,,,,,,,,,,,,,,,,,,,,,,,,0,0,0,0,0
1.9293,1783185909.4826,1,1,1.0000,-0.0000,1.44682,0.22534,-2.77951,0.98334,1.57080,0.00001,-0.14512,-0.38003,0.04446,,,,,,,,,,,,,,,,,,,,,,,,,,0,0,0,0,0
1.9416,1783185909.4948,1,1,1.0000,-0.0000,1.44682,0.22518,-2.77954,0.98353,1.57080,0.00001,-0.14512,-0.38002,0.04442,,,,,,,,,,,,,,,,,,,,,,,,,,0,0,0,0,0
1.9498,1783185909.5031,1,1,1.0000,-0.0000,1.44682,0.22518,-2.77955,0.98354,1.57080,0.00001,-0.14512,-0.38002,0.04442,,,,,,,,,,,,,,,,,,,,,,,,,,0,0,0,0,0
1.9502,1783185909.5034,1,1,1.0000,-0.0000,1.44682,0.22518,-2.77955,0.98354,1.57080,0.00001,-0.14512,-0.38002,0.04442,,,,,,,,,,,,,,,,,,,,,,,,,,0,0,0,0,0
1.9662,1783185909.5195,1,1,1.0000,-0.0000,1.44682,0.22506,-2.77958,0.98369,1.57080,0.00001,-0.14512,-0.38002,0.04439,,,,,,,,,,,,,,,,,,,,,,,,,,0,0,0,0,0
1.9710,1783185909.5243,1,1,1.0000,-0.0000,1.44682,0.22501,-2.77959,0.98375,1.57080,0.00001,-0.14512,-0.38002,0.04438,,,,,,,,,,,,,,,,,,,,,,,,,,0,0,0,0,0
1.9865,1783185909.5397,1,1,1.0000,-0.0000,1.44682,0.22494,-2.77961,0.98384,1.57080,0.00001,-0.14512,-0.38002,0.04436,,,,,,,,,,,,,,,,,,,,,,,,,,0,0,0,0,0
1.9885,1783185909.5418,1,1,1.0000,-0.0000,1.44682,0.22494,-2.77961,0.98384,1.57080,0.00001,-0.14512,-0.38002,0.04436,,,,,,,,,,,,,,,,,,,,,,,,,,0,0,0,0,0
1.9892,1783185909.5425,1,1,1.0000,-0.0000,1.44682,0.22489,-2.77962,0.98390,1.57080,0.00001,-0.14512,-0.38002,0.04435,,,,,,,,,,,,,,,,,,,,,,,,,,0,0,0,0,0
1.9987,1783185909.5519,1,1,1.0000,-0.0000,1.44682,0.22478,-2.77965,0.98403,1.57080,0.00001,-0.14512,-0.38002,0.04432,,,,,,,,,,,,,,,,,,,,,,,,,,0,0,0,0,0
2.0105,1783185909.5638,1,1,1.0000,-0.0000,1.44682,0.22473,-2.77966,0.98410,1.57080,0.00001,-0.14512,-0.38002,0.04430,,,,,,,,,,,,,,,,,,,,,,,,,,0,0,0,0,0
2.0254,1783185909.5786,1,1,1.0000,-0.0000,1.44682,0.22461,-2.77969,0.98425,1.57080,0.00001,-0.14512,-0.38002,0.04427,,,,,,,,,,,,,,,,,,,,,,,,,,0,0,0,0,0
2.0339,1783185909.5872,1,1,1.0000,-0.0000,1.44682,0.22456,-2.77970,0.98431,1.57080,0.00001,-0.14512,-0.38002,0.04426,,,,,,,,,,,,,,,,,,,,,,,,,,0,0,0,0,0
2.0343,1783185909.5875,1,1,1.0000,-0.0000,1.44682,0.22456,-2.77970,0.98431,1.57080,0.00001,-0.14512,-0.38002,0.04426,,,,,,,,,,,,,,,,,,,,,,,,,,0,0,0,0,0
2.0396,1783185909.5928,1,1,1.0000,-0.0000,1.44682,0.22455,-2.77970,0.98432,1.57080,0.00001,-0.14512,-0.38002,0.04426,,,,,,,,,,,,,,,,,,,,,,,,,,0,0,0,0,0
2.0489,1783185909.6021,1,1,1.0000,-0.0000,1.44682,0.22449,-2.77972,0.98440,1.57080,0.00001,-0.14512,-0.38002,0.04424,,,,,,,,,,,,,,,,,,,,,,,,,,0,0,0,0,0
2.0493,1783185909.6026,1,1,1.0000,-0.0000,1.44682,0.22444,-2.77973,0.98446,1.57080,0.00001,-0.14512,-0.38002,0.04423,,,,,,,,,,,,,,,,,,,,,,,,,,0,0,0,0,0
2.0592,1783185909.6125,1,1,1.0000,-0.0000,1.44682,0.22433,-2.77976,0.98459,1.57080,0.00001,-0.14512,-0.38002,0.04420,,,,,,,,,,,,,,,,,,,,,,,,,,0,0,0,0,0
2.0695,1783185909.6227,1,1,1.0000,-0.0000,1.44682,0.22428,-2.77977,0.98467,1.57080,0.00001,-0.14512,-0.38002,0.04419,,,,,,,,,,,,,,,,,,,,,,,,,,0,0,0,0,0
2.0698,1783185909.6230,1,1,1.0000,-0.0000,1.44682,0.22428,-2.77977,0.98467,1.57080,0.00001,-0.14512,-0.38002,0.04419,,,,,,,,,,,,,,,,,,,,,,,,,,0,0,0,0,0
2.0808,1783185909.6340,1,1,1.0000,-0.0000,1.44682,0.22423,-2.77978,0.98472,1.57080,0.00001,-0.14512,-0.38002,0.04418,,,,,,,,,,,,,,,,,,,,,,,,,,0,0,0,0,0
2.0814,1783185909.6347,1,1,1.0000,-0.0000,1.44682,0.22420,-2.77979,0.98477,1.57080,0.00001,-0.14512,-0.38002,0.04417,,,,,,,,,,,,,,,,,,,,,,,,,,0,0,0,0,0
2.0892,1783185909.6425,1,1,1.0000,-0.0000,1.44682,0.22411,-2.77981,0.98487,1.57080,0.00001,-0.14512,-0.38002,0.04414,,,,,,,,,,,,,,,,,,,,,,,,,,0,0,0,0,0
2.0990,1783185909.6522,1,1,1.0000,-0.0000,1.44682,0.22410,-2.77982,0.98488,1.57080,0.00001,-0.14512,-0.38002,0.04414,,,,,,,,,,,,,,,,,,,,,,,,,,0,0,0,0,0
2.1088,1783185909.6621,1,1,1.0000,-0.0000,1.44682,0.22404,-2.77983,0.98496,1.57080,0.00001,-0.14512,-0.38002,0.04413,,,,,,,,,,,,,,,,,,,,,,,,,,0,0,0,0,0
2.1215,1783185909.6748,1,1,1.0000,-0.0000,1.44682,0.22383,-2.77988,0.98522,1.57080,0.00001,-0.14512,-0.38002,0.04407,,,,,,,,,,,,,,,,,,,,,,,,,,0,0,0,0,0
2.1295,1783185909.6828,1,1,1.0000,-0.0000,1.44682,0.22383,-2.77989,0.98523,1.57080,0.00001,-0.14512,-0.38002,0.04407,,,,,,,,,,,,,,,,,,,,,,,,,,0,0,0,0,0
2.1405,1783185909.6938,1,1,1.0000,-0.0000,1.44682,0.22378,-2.77990,0.98529,1.57080,0.00001,-0.14512,-0.38002,0.04406,,,,,,,,,,,,,,,,,,,,,,,,,,0,0,0,0,0
2.1489,1783185909.7022,1,1,1.0000,-0.0000,1.44682,0.22370,-2.77992,0.98538,1.57080,0.00001,-0.14512,-0.38002,0.04404,,,,,,,,,,,,,,,,,,,,,,,,,,0,0,0,0,0
2.1601,1783185909.7134,1,1,1.0000,-0.0000,1.44682,0.22365,-2.77993,0.98545,1.57080,0.00001,-0.14512,-0.38002,0.04403,,,,,,,,,,,,,,,,,,,,,,,,,,0,0,0,0,0
2.1715,1783185909.7247,1,1,1.0000,-0.0000,1.44682,0.22354,-2.77996,0.98559,1.57080,0.00001,-0.14512,-0.38002,0.04400,,,,,,,,,,,,,,,,,,,,,,,,,,0,0,0,0,0
2.1846,1783185909.7379,1,1,1.0000,-0.0000,1.44682,0.22338,-2.78000,0.98579,1.57080,0.00001,-0.14512,-0.38002,0.04396,,,,,,,,,,,,,,,,,,,,,,,,,,0,0,0,0,0
2.1896,1783185909.7428,1,1,1.0000,-0.0000,1.44682,0.22337,-2.78000,0.98579,1.57080,0.00001,-0.14512,-0.38002,0.04395,,,,,,,,,,,,,,,,,,,,,,,,,,0,0,0,0,0
2.2014,1783185909.7546,1,1,1.0000,-0.0000,1.44682,0.22329,-2.78002,0.98589,1.57080,0.00001,-0.14512,-0.38002,0.04393,,,,,,,,,,,,,,,,,,,,,,,,,,0,0,0,0,0
2.2098,1783185909.7630,1,1,1.0000,-0.0000,1.44682,0.22321,-2.78004,0.98600,1.57080,0.00001,-0.14512,-0.38002,0.04391,,,,,,,,,,,,,,,,,,,,,,,,,,0,0,0,0,0
2.2232,1783185909.7764,1,1,1.0000,-0.0000,1.44682,0.22317,-2.78005,0.98604,1.57080,0.00001,-0.14512,-0.38002,0.04390,,,,,,,,,,,,,,,,,,,,,,,,,,0,0,0,0,0
2.2294,1783185909.7826,1,1,1.0000,-0.0000,1.44682,0.22309,-2.78007,0.98615,1.57080,0.00001,-0.14512,-0.38002,0.04388,,,,,,,,,,,,,,,,,,,,,,,,,,0,0,0,0,0
2.2404,1783185909.7936,1,1,1.0000,-0.0000,1.44682,0.22298,-2.78010,0.98628,1.57080,0.00001,-0.14512,-0.38002,0.04385,,,,,,,,,,,,,,,,,,,,,,,,,,0,0,0,0,0
2.2488,1783185909.8021,1,1,1.0000,-0.0000,1.44682,0.22293,-2.78011,0.98635,1.57080,0.00001,-0.14512,-0.38002,0.04384,,,,,,,,,,,,,,,,,,,,,,,,,,0,0,0,0,0
2.2598,1783185909.8131,1,1,1.0000,-0.0000,1.44682,0.22288,-2.78012,0.98641,1.57080,0.00001,-0.14512,-0.38002,0.04383,,,,,,,,,,,,,,,,,,,,,,,,,,0,0,0,0,0
2.2723,1783185909.8255,1,1,1.0000,-0.0000,1.44682,0.22276,-2.78015,0.98656,1.57080,0.00001,-0.14512,-0.38002,0.04380,,,,,,,,,,,,,,,,,,,,,,,,,,0,0,0,0,0
2.2945,1783185909.8477,1,1,1.0000,-0.0000,1.44681,0.22258,-2.78020,0.98678,1.57080,0.00001,-0.14512,-0.38002,0.04375,,,,,,,,,,,,,,,,,,,,,,,,,,0,0,0,0,0
2.2948,1783185909.8480,1,1,1.0000,-0.0000,1.44681,0.22258,-2.78020,0.98678,1.57080,0.00001,-0.14512,-0.38002,0.04375,,,,,,,,,,,,,,,,,,,,,,,,,,0,0,0,0,0
2.2988,1783185909.8520,1,1,1.0000,-0.0000,1.44681,0.22253,-2.78021,0.98685,1.57080,0.00001,-0.14512,-0.38002,0.04374,,,,,,,,,,,,,,,,,,,,,,,,,,0,0,0,0,0
2.2990,1783185909.8522,1,1,1.0000,-0.0000,1.44681,0.22253,-2.78021,0.98685,1.57080,0.00001,-0.14512,-0.38002,0.04374,,,,,,,,,,,,,,,,,,,,,,,,,,0,0,0,0,0
2.3099,1783185909.8631,1,1,1.0000,-0.0000,1.44681,0.22247,-2.78023,0.98692,1.57080,0.00001,-0.14512,-0.38002,0.04372,,,,,,,,,,,,,,,,,,,,,,,,,,0,0,0,0,0
2.3103,1783185909.8636,1,1,1.0000,-0.0000,1.44681,0.22247,-2.78023,0.98692,1.57080,0.00001,-0.14512,-0.38002,0.04372,,,,,,,,,,,,,,,,,,,,,,,,,,0,0,0,0,0
2.3229,1783185909.8762,1,1,1.0000,-0.0000,1.44681,0.22239,-2.78025,0.98702,1.57080,0.00001,-0.14512,-0.38002,0.04370,,,,,,,,,,,,,,,,,,,,,,,,,,0,0,0,0,0
2.3343,1783185909.8876,1,1,1.0000,-0.0000,1.44681,0.22231,-2.78027,0.98713,1.57080,0.00001,-0.14512,-0.38002,0.04368,,,,,,,,,,,,,,,,,,,,,,,,,,0,0,0,0,0
2.3420,1783185909.8952,1,1,1.0000,-0.0000,1.44681,0.22227,-2.78028,0.98717,1.57080,0.00001,-0.14512,-0.38002,0.04367,,,,,,,,,,,,,,,,,,,,,,,,,,0,0,0,0,0
2.3489,1783185909.9022,1,1,1.0000,-0.0000,1.44681,0.22223,-2.78029,0.98722,1.57080,0.00001,-0.14512,-0.38002,0.04366,,,,,,,,,,,,,,,,,,,,,,,,,,0,0,0,0,0
2.3605,1783185909.9138,1,1,1.0000,-0.0000,1.44681,0.22208,-2.78032,0.98741,1.57080,0.00001,-0.14512,-0.38002,0.04362,,,,,,,,,,,,,,,,,,,,,,,,,,0,0,0,0,0
2.3609,1783185909.9141,1,1,1.0000,-0.0000,1.44681,0.22208,-2.78032,0.98741,1.57080,0.00001,-0.14512,-0.38002,0.04362,,,,,,,,,,,,,,,,,,,,,,,,,,0,0,0,0,0
2.3695,1783185909.9228,1,1,1.0000,-0.0000,1.44681,0.22202,-2.78034,0.98749,1.57080,0.00001,-0.14512,-0.38002,0.04361,,,,,,,,,,,,,,,,,,,,,,,,,,0,0,0,0,0
2.3697,1783185909.9229,1,1,1.0000,-0.0000,1.44681,0.22202,-2.78034,0.98749,1.57080,0.00001,-0.14512,-0.38002,0.04361,,,,,,,,,,,,,,,,,,,,,,,,,,0,0,0,0,0
2.3806,1783185909.9338,1,1,1.0000,-0.0000,1.44681,0.22198,-2.78035,0.98754,1.57080,0.00001,-0.14512,-0.38002,0.04359,,,,,,,,,,,,,,,,,,,,,,,,,,0,0,0,0,0
2.3895,1783185909.9427,1,1,1.0000,-0.0000,1.44681,0.22185,-2.78038,0.98769,1.57080,0.00001,-0.14512,-0.38002,0.04356,,,,,,,,,,,,,,,,,,,,,,,,,,0,0,0,0,0
2.3897,1783185909.9430,1,1,1.0000,-0.0000,1.44681,0.22185,-2.78038,0.98769,1.57080,0.00001,-0.14512,-0.38002,0.04356,,,,,,,,,,,,,,,,,,,,,,,,,,0,0,0,0,0
2.3984,1783185909.9517,1,1,1.0000,-0.0000,1.44681,0.22185,-2.78038,0.98771,1.57080,0.00001,-0.14512,-0.38002,0.04356,,,,,,,,,,,,,,,,,,,,,,,,,,0,0,0,0,0
2.3987,1783185909.9520,1,1,1.0000,-0.0000,1.44681,0.22185,-2.78038,0.98771,1.57080,0.00001,-0.14512,-0.38002,0.04356,,,,,,,,,,,,,,,,,,,,,,,,,,0,0,0,0,0
2.4133,1783185909.9666,1,1,1.0000,-0.0000,1.44681,0.22168,-2.78042,0.98791,1.57080,0.00001,-0.14512,-0.38002,0.04352,,,,,,,,,,,,,,,,,,,,,,,,,,0,0,0,0,0
2.4191,1783185909.9723,1,1,1.0000,-0.0000,1.44681,0.22163,-2.78044,0.98798,1.57080,0.00001,-0.14512,-0.38002,0.04350,,,,,,,,,,,,,,,,,,,,,,,,,,0,0,0,0,0
2.4296,1783185909.9828,1,1,1.0000,-0.0000,1.44681,0.22157,-2.78045,0.98805,1.57080,0.00001,-0.14512,-0.38002,0.04349,,,,,,,,,,,,,,,,,,,,,,,,,,0,0,0,0,0
2.4419,1783185909.9951,1,1,1.0000,-0.0000,1.44681,0.22149,-2.78047,0.98815,1.57080,0.00001,-0.14512,-0.38002,0.04347,,,,,,,,,,,,,,,,,,,,,,,,,,0,0,0,0,0
2.4422,1783185909.9955,1,1,1.0000,-0.0000,1.44681,0.22149,-2.78047,0.98815,1.57080,0.00001,-0.14512,-0.38002,0.04347,,,,,,,,,,,,,,,,,,,,,,,,,,0,0,0,0,0
2.4512,1783185910.0045,1,1,1.0000,-0.0000,1.44681,0.22140,-2.78049,0.98826,1.57080,0.00001,-0.14512,-0.38002,0.04345,,,,,,,,,,,,,,,,,,,,,,,,,,0,0,0,0,0
2.4585,1783185910.0118,1,1,1.0000,-0.0000,1.44681,0.22139,-2.78050,0.98827,1.57080,0.00001,-0.14512,-0.38002,0.04344,,,,,,,,,,,,,,,,,,,,,,,,,,0,0,0,0,0
2.4695,1783185910.0227,1,1,1.0000,-0.0000,1.44681,0.22128,-2.78052,0.98841,1.57080,0.00001,-0.14512,-0.38002,0.04342,,,,,,,,,,,,,,,,,,,,,,,,,,0,0,0,0,0
2.4796,1783185910.0329,1,1,1.0000,-0.0000,1.44681,0.22117,-2.78055,0.98854,1.57080,0.00001,-0.14512,-0.38002,0.04339,,,,,,,,,,,,,,,,,,,,,,,,,,0,0,0,0,0
2.4908,1783185910.0441,1,1,1.0000,-0.0000,1.44681,0.22111,-2.78057,0.98862,1.57080,0.00001,-0.14512,-0.38002,0.04337,,,,,,,,,,,,,,,,,,,,,,,,,,0,0,0,0,0
2.4989,1783185910.0521,1,1,1.0000,-0.0000,1.44681,0.22105,-2.78058,0.98870,1.57080,0.00001,-0.14512,-0.38002,0.04336,,,,,,,,,,,,,,,,,,,,,,,,,,0,0,0,0,0
2.5096,1783185910.0628,1,1,1.0000,-0.0000,1.44681,0.22090,-2.78062,0.98888,1.57080,0.00001,-0.14512,-0.38002,0.04332,,,,,,,,,,,,,,,,,,,,,,,,,,0,0,0,0,0
2.5217,1783185910.0750,1,1,1.0000,-0.0000,1.44681,0.22087,-2.78063,0.98893,1.57080,0.00001,-0.14512,-0.38002,0.04331,,,,,,,,,,,,,,,,,,,,,,,,,,0,0,0,0,0
2.5407,1783185910.0939,1,1,1.0000,-0.0000,1.44681,0.22068,-2.78067,0.98916,1.57080,0.00001,-0.14512,-0.38002,0.04326,,,,,,,,,,,,,,,,,,,,,,,,,,0,0,0,0,0
2.5496,1783185910.1029,1,1,1.0000,-0.0000,1.44681,0.22062,-2.78069,0.98923,1.57080,0.00001,-0.14512,-0.38002,0.04325,,,,,,,,,,,,,,,,,,,,,,,,,,0,0,0,0,0
2.5605,1783185910.1138,1,1,1.0000,-0.0000,1.44681,0.22056,-2.78070,0.98931,1.57080,0.00001,-0.14512,-0.38002,0.04323,,,,,,,,,,,,,,,,,,,,,,,,,,0,0,0,0,0
2.5695,1783185910.1228,1,1,1.0000,-0.0000,1.44681,0.22041,-2.78074,0.98950,1.57080,0.00001,-0.14512,-0.38002,0.04319,,,,,,,,,,,,,,,,,,,,,,,,,,0,0,0,0,0
2.5699,1783185910.1232,1,1,1.0000,-0.0000,1.44681,0.22041,-2.78074,0.98950,1.57080,0.00001,-0.14512,-0.38002,0.04319,,,,,,,,,,,,,,,,,,,,,,,,,,0,0,0,0,0
2.5823,1783185910.1355,1,1,1.0000,-0.0000,1.44681,0.22037,-2.78075,0.98954,1.57080,0.00001,-0.14512,-0.38002,0.04318,,,,,,,,,,,,,,,,,,,,,,,,,,0,0,0,0,0
2.5827,1783185910.1359,1,1,1.0000,-0.0000,1.44681,0.22037,-2.78075,0.98954,1.57080,0.00001,-0.14512,-0.38002,0.04318,,,,,,,,,,,,,,,,,,,,,,,,,,0,0,0,0,0
2.5887,1783185910.1420,1,1,1.0000,-0.0000,1.44681,0.22034,-2.78076,0.98959,1.57080,0.00001,-0.14512,-0.38002,0.04317,,,,,,,,,,,,,,,,,,,,,,,,,,0,0,0,0,0
2.5891,1783185910.1423,1,1,1.0000,-0.0000,1.44681,0.22034,-2.78076,0.98959,1.57080,0.00001,-0.14512,-0.38002,0.04317,,,,,,,,,,,,,,,,,,,,,,,,,,0,0,0,0,0
2.6011,1783185910.1544,1,1,1.0000,-0.0000,1.44681,0.22019,-2.78080,0.98978,1.57080,0.00001,-0.14512,-0.38002,0.04313,,,,,,,,,,,,,,,,,,,,,,,,,,0,0,0,0,0
2.6123,1783185910.1656,1,1,1.0000,-0.0000,1.44681,0.22013,-2.78081,0.98985,1.57080,0.00001,-0.14512,-0.38002,0.04312,,,,,,,,,,,,,,,,,,,,,,,,,,0,0,0,0,0
2.6193,1783185910.1726,1,1,1.0000,-0.0000,1.44681,0.22006,-2.78083,0.98993,1.57080,0.00001,-0.14512,-0.38002,0.04310,,,,,,,,,,,,,,,,,,,,,,,,,,0,0,0,0,0
2.6327,1783185910.1860,1,1,1.0000,-0.0000,1.44681,0.21991,-2.78086,0.99012,1.57080,0.00001,-0.14512,-0.38002,0.04306,,,,,,,,,,,,,,,,,,,,,,,,,,0,0,0,0,0
2.6396,1783185910.1928,1,1,1.0000,-0.0000,1.44681,0.21990,-2.78087,0.99013,1.57080,0.00001,-0.14512,-0.38002,0.04306,,,,,,,,,,,,,,,,,,,,,,,,,,0,0,0,0,0
2.6491,1783185910.2024,1,1,1.0000,-0.0000,1.44681,0.21984,-2.78088,0.99021,1.57080,0.00001,-0.14512,-0.38002,0.04305,,,,,,,,,,,,,,,,,,,,,,,,,,0,0,0,0,0
2.6713,1783185910.2245,1,1,1.0000,-0.0000,1.44681,0.21963,-2.78093,0.99047,1.57080,0.00001,-0.14512,-0.38002,0.04299,,,,,,,,,,,,,,,,,,,,,,,,,,0,0,0,0,0
2.6716,1783185910.2249,1,1,1.0000,-0.0000,1.44681,0.21963,-2.78093,0.99047,1.57080,0.00001,-0.14512,-0.38002,0.04299,,,,,,,,,,,,,,,,,,,,,,,,,,0,0,0,0,0
2.6720,1783185910.2252,1,1,1.0000,-0.0000,1.44681,0.21963,-2.78093,0.99047,1.57080,0.00001,-0.14512,-0.38002,0.04299,,,,,,,,,,,,,,,,,,,,,,,,,,0,0,0,0,0
2.6844,1783185910.2376,1,1,1.0000,-0.0000,1.44681,0.21952,-2.78096,0.99060,1.57080,0.00001,-0.14512,-0.38002,0.04296,,,,,,,,,,,,,,,,,,,,,,,,,,0,0,0,0,0
2.6910,1783185910.2443,1,1,1.0000,-0.0000,1.44681,0.21942,-2.78099,0.99073,1.57080,0.00001,-0.14512,-0.38002,0.04294,,,,,,,,,,,,,,,,,,,,,,,,,,0,0,0,0,0
2.7033,1783185910.2565,1,1,1.0000,-0.0000,1.44681,0.21939,-2.78100,0.99078,1.57080,0.00001,-0.14512,-0.38002,0.04293,,,,,,,,,,,,,,,,,,,,,,,,,,0,0,0,0,0
2.7102,1783185910.2635,1,1,1.0000,-0.0000,1.44681,0.21930,-2.78102,0.99088,1.57080,0.00001,-0.14512,-0.38002,0.04291,,,,,,,,,,,,,,,,,,,,,,,,,,0,0,0,0,0
2.7188,1783185910.2720,1,1,1.0000,-0.0000,1.44681,0.21920,-2.78104,0.99101,1.57080,0.00001,-0.14512,-0.38002,0.04288,,,,,,,,,,,,,,,,,,,,,,,,,,0,0,0,0,0
2.7288,1783185910.2821,1,1,1.0000,-0.0000,1.44681,0.21915,-2.78105,0.99107,1.57080,0.00001,-0.14512,-0.38002,0.04287,,,,,,,,,,,,,,,,,,,,,,,,,,0,0,0,0,0
2.7420,1783185910.2953,1,1,1.0000,-0.0000,1.44681,0.21903,-2.78108,0.99122,1.57080,0.00001,-0.14512,-0.38002,0.04284,,,,,,,,,,,,,,,,,,,,,,,,,,0,0,0,0,0
2.7486,1783185910.3018,1,1,1.0000,-0.0000,1.44681,0.21898,-2.78110,0.99128,1.57080,0.00001,-0.14512,-0.38002,0.04282,,,,,,,,,,,,,,,,,,,,,,,,,,0,0,0,0,0
2.7489,1783185910.3022,1,1,1.0000,-0.0000,1.44681,0.21898,-2.78110,0.99128,1.57080,0.00001,-0.14512,-0.38002,0.04282,,,,,,,,,,,,,,,,,,,,,,,,,,0,0,0,0,0
2.7625,1783185910.3157,1,1,1.0000,-0.0000,1.44681,0.21889,-2.78112,0.99139,1.57080,0.00001,-0.14512,-0.38002,0.04280,,,,,,,,,,,,,,,,,,,,,,,,,,0,0,0,0,0
2.7702,1783185910.3234,1,1,1.0000,-0.0000,1.44681,0.21881,-2.78114,0.99150,1.57080,0.00001,-0.14512,-0.38002,0.04278,,,,,,,,,,,,,,,,,,,,,,,,,,0,0,0,0,0
2.7839,1783185910.3371,1,1,1.0000,-0.0000,1.44681,0.21865,-2.78118,0.99169,1.57080,0.00001,-0.14512,-0.38002,0.04274,,,,,,,,,,,,,,,,,,,,,,,,,,0,0,0,0,0
2.7843,1783185910.3376,1,1,1.0000,-0.0000,1.44681,0.21865,-2.78118,0.99169,1.57080,0.00001,-0.14512,-0.38002,0.04274,,,,,,,,,,,,,,,,,,,,,,,,,,0,0,0,0,0
2.7917,1783185910.3449,1,1,1.0000,-0.0000,1.44681,0.21864,-2.78118,0.99170,1.57080,0.00001,-0.14512,-0.38002,0.04274,,,,,,,,,,,,,,,,,,,,,,,,,,0,0,0,0,0
2.7992,1783185910.3524,1,1,1.0000,-0.0000,1.44681,0.21858,-2.78119,0.99178,1.57080,0.00001,-0.14512,-0.38002,0.04272,,,,,,,,,,,,,,,,,,,,,,,,,,0,0,0,0,0
2.8115,1783185910.3648,1,1,1.0000,-0.0000,1.44681,0.21843,-2.78123,0.99197,1.57080,0.00001,-0.14512,-0.38002,0.04268,,,,,,,,,,,,,,,,,,,,,,,,,,0,0,0,0,0
2.8191,1783185910.3724,1,1,1.0000,-0.0000,1.44681,0.21842,-2.78123,0.99198,1.57080,0.00001,-0.14512,-0.38002,0.04268,,,,,,,,,,,,,,,,,,,,,,,,,,0,0,0,0,0
2.8297,1783185910.3830,1,1,1.0000,-0.0000,1.44681,0.21831,-2.78126,0.99211,1.57080,0.00001,-0.14512,-0.38002,0.04265,,,,,,,,,,,,,,,,,,,,,,,,,,0,0,0,0,0
2.8446,1783185910.3978,1,1,1.0000,-0.0000,1.44681,0.21816,-2.78130,0.99231,1.57080,0.00001,-0.14512,-0.38002,0.04261,,,,,,,,,,,,,,,,,,,,,,,,,,0,0,0,0,0
2.8564,1783185910.4096,1,1,1.0000,-0.0000,1.44681,0.21812,-2.78131,0.99235,1.57080,0.00001,-0.14512,-0.38002,0.04260,,,,,,,,,,,,,,,,,,,,,,,,,,0,0,0,0,0
2.8600,1783185910.4133,1,1,1.0000,-0.0000,1.44681,0.21809,-2.78132,0.99240,1.57080,0.00001,-0.14512,-0.38002,0.04260,,,,,,,,,,,,,,,,,,,,,,,,,,0,0,0,0,0
2.8719,1783185910.4251,1,1,1.0000,-0.0000,1.44681,0.21793,-2.78135,0.99259,1.57080,0.00001,-0.14512,-0.38002,0.04256,,,,,,,,,,,,,,,,,,,,,,,,,,0,0,0,0,0
2.8799,1783185910.4332,1,1,1.0000,-0.0000,1.44681,0.21788,-2.78137,0.99265,1.57080,0.00001,-0.14512,-0.38002,0.04254,,,,,,,,,,,,,,,,,,,,,,,,,,0,0,0,0,0
2.8898,1783185910.4430,1,1,1.0000,-0.0000,1.44681,0.21783,-2.78138,0.99272,1.57080,0.00001,-0.14512,-0.38002,0.04253,,,,,,,,,,,,,,,,,,,,,,,,,,0,0,0,0,0
2.8902,1783185910.4435,1,1,1.0000,-0.0000,1.44681,0.21783,-2.78138,0.99272,1.57080,0.00001,-0.14512,-0.38002,0.04253,,,,,,,,,,,,,,,,,,,,,,,,,,0,0,0,0,0
2.8990,1783185910.4522,1,1,1.0000,-0.0000,1.44681,0.21775,-2.78140,0.99281,1.57080,0.00001,-0.14512,-0.38002,0.04251,,,,,,,,,,,,,,,,,,,,,,,,,,0,0,0,0,0
2.9088,1783185910.4620,1,1,1.0000,-0.0000,1.44681,0.21771,-2.78141,0.99287,1.57080,0.00001,-0.14512,-0.38002,0.04250,,,,,,,,,,,,,,,,,,,,,,,,,,0,0,0,0,0
2.9091,1783185910.4624,1,1,1.0000,-0.0000,1.44681,0.21771,-2.78141,0.99287,1.57080,0.00001,-0.14512,-0.38002,0.04250,,,,,,,,,,,,,,,,,,,,,,,,,,0,0,0,0,0
2.9229,1783185910.4762,1,1,1.0000,-0.0000,1.44681,0.21759,-2.78144,0.99302,1.57080,0.00001,-0.14512,-0.38002,0.04247,,,,,,,,,,,,,,,,,,,,,,,,,,0,0,0,0,0
2.9232,1783185910.4764,1,1,1.0000,-0.0000,1.44681,0.21759,-2.78144,0.99302,1.57080,0.00001,-0.14512,-0.38002,0.04247,,,,,,,,,,,,,,,,,,,,,,,,,,0,0,0,0,0
2.9313,1783185910.4845,1,1,1.0000,-0.0000,1.44681,0.21748,-2.78147,0.99315,1.57080,0.00001,-0.14512,-0.38002,0.04244,,,,,,,,,,,,,,,,,,,,,,,,,,0,0,0,0,0
2.9521,1783185910.5054,1,1,1.0000,-0.0000,1.44681,0.21737,-2.78149,0.99328,1.57080,0.00001,-0.14512,-0.38002,0.04241,,,,,,,,,,,,,,,,,,,,,,,,,,0,0,0,0,0
2.9525,1783185910.5058,1,1,1.0000,-0.0000,1.44681,0.21737,-2.78149,0.99328,1.57080,0.00001,-0.14512,-0.38002,0.04241,,,,,,,,,,,,,,,,,,,,,,,,,,0,0,0,0,0
2.9610,1783185910.5143,1,1,1.0000,-0.0000,1.44681,0.21730,-2.78151,0.99338,1.57080,0.00001,-0.14512,-0.38002,0.04239,,,,,,,,,,,,,,,,,,,,,,,,,,0,0,0,0,0
2.9697,1783185910.5230,1,1,1.0000,-0.0000,1.44681,0.21724,-2.78152,0.99345,1.57080,0.00001,-0.14512,-0.38002,0.04238,,,,,,,,,,,,,,,,,,,,,,,,,,0,0,0,0,0
2.9700,1783185910.5233,1,1,1.0000,-0.0000,1.44681,0.21724,-2.78152,0.99345,1.57080,0.00001,-0.14512,-0.38002,0.04238,,,,,,,,,,,,,,,,,,,,,,,,,,0,0,0,0,0
2.9793,1783185910.5325,1,1,1.0000,-0.0000,1.44681,0.21718,-2.78154,0.99353,1.57080,0.00001,-0.14512,-0.38002,0.04236,,,,,,,,,,,,,,,,,,,,,,,,,,0,0,0,0,0
3.0166,1783185910.5699,1,1,1.0000,-0.0000,1.44681,0.21688,-2.78161,0.99390,1.57080,0.00001,-0.14512,-0.38002,0.04229,,,,,,,,,,,,,,,,,,,,,,,,,,0,0,0,0,0
3.0170,1783185910.5702,1,1,1.0000,-0.0000,1.44681,0.21688,-2.78161,0.99390,1.57080,0.00001,-0.14512,-0.38002,0.04229,,,,,,,,,,,,,,,,,,,,,,,,,,0,0,0,0,0
3.0177,1783185910.5709,1,1,1.0000,-0.0000,1.44681,0.21684,-2.78162,0.99395,1.57080,0.00001,-0.14512,-0.38002,0.04228,,,,,,,,,,,,,,,,,,,,,,,,,,0,0,0,0,0
3.0288,1783185910.5820,1,1,1.0000,-0.0000,1.44681,0.21680,-2.78163,0.99400,1.57080,0.00001,-0.14512,-0.38002,0.04227,,,,,,,,,,,,,,,,,,,,,,,,,,0,0,0,0,0
3.0358,1783185910.5891,1,1,1.0000,-0.0000,1.44681,0.21676,-2.78164,0.99405,1.57080,0.00001,-0.14512,-0.38002,0.04226,,,,,,,,,,,,,,,,,,,,,,,,,,0,0,0,0,0
3.0362,1783185910.5895,1,1,1.0000,-0.0000,1.44681,0.21676,-2.78164,0.99405,1.57080,0.00001,-0.14512,-0.38002,0.04226,,,,,,,,,,,,,,,,,,,,,,,,,,0,0,0,0,0
3.0389,1783185910.5921,1,1,1.0000,-0.0000,1.44681,0.21672,-2.78165,0.99409,1.57080,0.00001,-0.14512,-0.38002,0.04225,,,,,,,,,,,,,,,,,,,,,,,,,,0,0,0,0,0
3.0497,1783185910.6029,1,1,1.0000,-0.0000,1.44681,0.21657,-2.78169,0.99429,1.57080,0.00001,-0.14512,-0.38002,0.04221,,,,,,,,,,,,,,,,,,,,,,,,,,0,0,0,0,0
3.0650,1783185910.6183,1,1,1.0000,-0.0000,1.44681,0.21651,-2.78171,0.99436,1.57080,0.00001,-0.14512,-0.38002,0.04219,,,,,,,,,,,,,,,,,,,,,,,,,,0,0,0,0,0
3.0739,1783185910.6271,1,1,1.0000,-0.0000,1.44681,0.21643,-2.78173,0.99446,1.57080,0.00001,-0.14512,-0.38002,0.04217,,,,,,,,,,,,,,,,,,,,,,,,,,0,0,0,0,0
3.0828,1783185910.6360,1,1,1.0000,-0.0000,1.44681,0.21634,-2.78175,0.99457,1.57080,0.00001,-0.14512,-0.38002,0.04215,,,,,,,,,,,,,,,,,,,,,,,,,,0,0,0,0,0
3.0945,1783185910.6477,1,1,1.0000,-0.0000,1.44681,0.21631,-2.78176,0.99461,1.57080,0.00001,-0.14512,-0.38002,0.04214,,,,,,,,,,,,,,,,,,,,,,,,,,0,0,0,0,0
3.0947,1783185910.6480,1,1,1.0000,-0.0000,1.44681,0.21631,-2.78176,0.99461,1.57080,0.00001,-0.14512,-0.38002,0.04214,,,,,,,,,,,,,,,,,,,,,,,,,,0,0,0,0,0
3.0992,1783185910.6524,1,1,1.0000,-0.0000,1.44681,0.21627,-2.78176,0.99466,1.57080,0.00001,-0.14512,-0.38002,0.04213,,,,,,,,,,,,,,,,,,,,,,,,,,0,0,0,0,0
3.0995,1783185910.6527,1,1,1.0000,-0.0000,1.44681,0.21627,-2.78176,0.99466,1.57080,0.00001,-0.14512,-0.38002,0.04213,,,,,,,,,,,,,,,,,,,,,,,,,,0,0,0,0,0
3.1157,1783185910.6689,1,1,1.0000,-0.0000,1.44681,0.21606,-2.78182,0.99492,1.57080,0.00001,-0.14512,-0.38002,0.04208,,,,,,,,,,,,,,,,,,,,,,,,,,0,0,0,0,0
3.1185,1783185910.6718,1,1,1.0000,-0.0000,1.44681,0.21606,-2.78182,0.99492,1.57080,0.00001,-0.14512,-0.38002,0.04208,,,,,,,,,,,,,,,,,,,,,,,,,,0,0,0,0,0
3.1285,1783185910.6817,1,1,1.0000,-0.0000,1.44681,0.21604,-2.78182,0.99495,1.57080,0.00001,-0.14512,-0.38002,0.04207,,,,,,,,,,,,,,,,,,,,,,,,,,0,0,0,0,0
3.1288,1783185910.6820,1,1,1.0000,-0.0000,1.44681,0.21604,-2.78182,0.99495,1.57080,0.00001,-0.14512,-0.38002,0.04207,,,,,,,,,,,,,,,,,,,,,,,,,,0,0,0,0,0
3.1388,1783185910.6920,1,1,1.0000,-0.0000,1.44681,0.21593,-2.78185,0.99508,1.57080,0.00001,-0.14512,-0.38002,0.04205,,,,,,,,,,,,,,,,,,,,,,,,,,0,0,0,0,0
3.1545,1783185910.7077,1,1,1.0000,-0.0000,1.44681,0.21585,-2.78187,0.99518,1.57080,0.00001,-0.14512,-0.38002,0.04202,,,,,,,,,,,,,,,,,,,,,,,,,,0,0,0,0,0
3.1597,1783185910.7129,1,1,1.0000,-0.0000,1.44681,0.21581,-2.78188,0.99523,1.57080,0.00001,-0.14512,-0.38002,0.04201,,,,,,,,,,,,,,,,,,,,,,,,,,0,0,0,0,0
3.1690,1783185910.7223,1,1,1.0000,-0.0000,1.44681,0.21571,-2.78190,0.99536,1.57080,0.00001,-0.14512,-0.38002,0.04199,,,,,,,,,,,,,,,,,,,,,,,,,,0,0,0,0,0
3.1803,1783185910.7335,1,1,1.0000,-0.0000,1.44681,0.21560,-2.78193,0.99549,1.57080,0.00001,-0.14512,-0.38002,0.04196,,,,,,,,,,,,,,,,,,,,,,,,,,0,0,0,0,0
3.1890,1783185910.7423,1,1,1.0000,-0.0000,1.44681,0.21558,-2.78193,0.99552,1.57080,0.00001,-0.14512,-0.38002,0.04196,,,,,,,,,,,,,,,,,,,,,,,,,,0,0,0,0,0
3.2380,1783185910.7913,1,1,1.0000,-0.0000,1.44681,0.21515,-2.78204,0.99606,1.57080,0.00001,-0.14512,-0.38002,0.04185,,,,,,,,,,,,,,,,,,,,,,,,,,0,0,0,0,0
3.2384,1783185910.7916,1,1,1.0000,-0.0000,1.44681,0.21515,-2.78204,0.99606,1.57080,0.00001,-0.14512,-0.38002,0.04185,,,,,,,,,,,,,,,,,,,,,,,,,,0,0,0,0,0
3.2650,1783185910.8183,1,1,1.0000,-0.0000,1.44681,0.21493,-2.78209,0.99633,1.57080,0.00001,-0.14512,-0.38002,0.04179,,,,,,,,,,,,,,,,,,,,,,,,,,0,0,0,0,0
3.2658,1783185910.8191,1,1,1.0000,-0.0000,1.44681,0.21493,-2.78209,0.99633,1.57080,0.00001,-0.14512,-0.38002,0.04179,,,,,,,,,,,,,,,,,,,,,,,,,,0,0,0,0,0
3.2660,1783185910.8192,1,1,1.0000,-0.0000,1.44681,0.21493,-2.78209,0.99633,1.57080,0.00001,-0.14512,-0.38002,0.04179,,,,,,,,,,,,,,,,,,,,,,,,,,0,0,0,0,0
3.2663,1783185910.8196,1,1,1.0000,-0.0000,1.44681,0.21493,-2.78209,0.99633,1.57080,0.00001,-0.14512,-0.38002,0.04179,,,,,,,,,,,,,,,,,,,,,,,,,,0,0,0,0,0
3.2667,1783185910.8200,1,1,1.0000,-0.0000,1.44681,0.21493,-2.78209,0.99633,1.57080,0.00001,-0.14512,-0.38002,0.04179,,,,,,,,,,,,,,,,,,,,,,,,,,0,0,0,0,0
3.2689,1783185910.8221,1,1,1.0000,-0.0000,1.44681,0.21493,-2.78209,0.99633,1.57080,0.00001,-0.14512,-0.38002,0.04179,,,,,,,,,,,,,,,,,,,,,,,,,,0,0,0,0,0
3.2699,1783185910.8231,1,1,1.0000,-0.0000,1.44681,0.21492,-2.78210,0.99635,1.57080,0.00001,-0.14512,-0.38002,0.04179,,,,,,,,,,,,,,,,,,,,,,,,,,0,0,0,0,0
3.2812,1783185910.8344,1,1,1.0000,-0.0000,1.44681,0.21485,-2.78211,0.99642,1.57080,0.00001,-0.14512,-0.38002,0.04177,,,,,,,,,,,,,,,,,,,,,,,,,,0,0,0,0,0
3.2888,1783185910.8420,1,1,1.0000,-0.0000,1.44681,0.21476,-2.78214,0.99654,1.57080,0.00001,-0.14512,-0.38002,0.04175,,,,,,,,,,,,,,,,,,,,,,,,,,0,0,0,0,0
3.3020,1783185910.8552,1,1,1.0000,-0.0000,1.44681,0.21464,-2.78216,0.99669,1.57080,0.00001,-0.14512,-0.38002,0.04172,,,,,,,,,,,,,,,,,,,,,,,,,,0,0,0,0,0
3.3097,1783185910.8629,1,1,1.0000,-0.0000,1.44681,0.21458,-2.78218,0.99677,1.57080,0.00001,-0.14512,-0.38002,0.04170,,,,,,,,,,,,,,,,,,,,,,,,,,0,0,0,0,0
3.3098,1783185910.8631,1,1,1.0000,-0.0000,1.44681,0.21458,-2.78218,0.99677,1.57080,0.00001,-0.14512,-0.38002,0.04170,,,,,,,,,,,,,,,,,,,,,,,,,,0,0,0,0,0
3.3203,1783185910.8736,1,1,1.0000,-0.0000,1.44681,0.21448,-2.78220,0.99689,1.57080,0.00002,-0.14512,-0.38002,0.04168,,,,,,,,,,,,,,,,,,,,,,,,,,0,0,0,0,0
3.3299,1783185910.8831,1,1,1.0000,-0.0000,1.44681,0.21442,-2.78222,0.99697,1.57080,0.00002,-0.14512,-0.38002,0.04166,,,,,,,,,,,,,,,,,,,,,,,,,,0,0,0,0,0
3.3303,1783185910.8835,1,1,1.0000,-0.0000,1.44681,0.21442,-2.78222,0.99697,1.57080,0.00002,-0.14512,-0.38002,0.04166,,,,,,,,,,,,,,,,,,,,,,,,,,0,0,0,0,0
3.3434,1783185910.8967,1,1,1.0000,-0.0000,1.44681,0.21431,-2.78224,0.99710,1.57080,0.00002,-0.14512,-0.38002,0.04163,,,,,,,,,,,,,,,,,,,,,,,,,,0,0,0,0,0
3.3437,1783185910.8970,1,1,1.0000,-0.0000,1.44681,0.21431,-2.78224,0.99710,1.57080,0.00002,-0.14512,-0.38002,0.04163,,,,,,,,,,,,,,,,,,,,,,,,,,0,0,0,0,0
3.3490,1783185910.9023,1,1,1.0000,-0.0000,1.44681,0.21426,-2.78226,0.99716,1.57080,0.00002,-0.14512,-0.38002,0.04162,,,,,,,,,,,,,,,,,,,,,,,,,,0,0,0,0,0
3.3592,1783185910.9124,1,1,1.0000,-0.0000,1.44681,0.21415,-2.78228,0.99730,1.57080,0.00002,-0.14512,-0.38002,0.04159,,,,,,,,,,,,,,,,,,,,,,,,,,0,0,0,0,0
3.3688,1783185910.9221,1,1,1.0000,-0.0000,1.44681,0.21412,-2.78229,0.99734,1.57080,0.00002,-0.14512,-0.38002,0.04158,,,,,,,,,,,,,,,,,,,,,,,,,,0,0,0,0,0
3.3790,1783185910.9322,1,1,1.0000,-0.0000,1.44681,0.21398,-2.78232,0.99751,1.57080,0.00002,-0.14512,-0.38002,0.04155,,,,,,,,,,,,,,,,,,,,,,,,,,0,0,0,0,0
3.3888,1783185910.9420,1,1,1.0000,-0.0000,1.44681,0.21393,-2.78234,0.99757,1.57080,0.00002,-0.14512,-0.38002,0.04153,,,,,,,,,,,,,,,,,,,,,,,,,,0,0,0,0,0
3.4006,1783185910.9538,1,1,1.0000,-0.0000,1.44681,0.21386,-2.78235,0.99766,1.57080,0.00002,-0.14512,-0.38002,0.04152,,,,,,,,,,,,,,,,,,,,,,,,,,0,0,0,0,0
3.4010,1783185910.9543,1,1,1.0000,-0.0000,1.44681,0.21386,-2.78235,0.99766,1.57080,0.00002,-0.14512,-0.38002,0.04152,,,,,,,,,,,,,,,,,,,,,,,,,,0,0,0,0,0
3.4093,1783185910.9626,1,1,1.0000,-0.0000,1.44681,0.21376,-2.78238,0.99778,1.57080,0.00002,-0.14512,-0.38002,0.04149,,,,,,,,,,,,,,,,,,,,,,,,,,0,0,0,0,0
3.4098,1783185910.9631,1,1,1.0000,-0.0000,1.44681,0.21371,-2.78239,0.99785,1.57080,0.00002,-0.14512,-0.38002,0.04148,,,,,,,,,,,,,,,,,,,,,,,,,,0,0,0,0,0
3.4246,1783185910.9779,1,1,1.0000,-0.0000,1.44681,0.21365,-2.78241,0.99793,1.57080,0.00002,-0.14512,-0.38002,0.04146,,,,,,,,,,,,,,,,,,,,,,,,,,0,0,0,0,0
3.4311,1783185910.9843,1,1,1.0000,-0.0000,1.44681,0.21358,-2.78242,0.99800,1.57080,0.00002,-0.14512,-0.38002,0.04145,,,,,,,,,,,,,,,,,,,,,,,,,,0,0,0,0,0
3.4430,1783185910.9963,1,1,1.0000,-0.0000,1.44681,0.21343,-2.78246,0.99819,1.57080,0.00002,-0.14512,-0.38002,0.04141,,,,,,,,,,,,,,,,,,,,,,,,,,0,0,0,0,0
3.4637,1783185911.0169,1,1,1.0000,-0.0000,1.44681,0.21331,-2.78249,0.99834,1.57080,0.00002,-0.14512,-0.38002,0.04138,,,,,,,,,,,,,,,,,,,,,,,,,,0,0,0,0,0
3.4817,1783185911.0350,1,1,1.0000,-0.0000,1.44681,0.21315,-2.78253,0.99855,1.57080,0.00002,-0.14512,-0.38002,0.04134,,,,,,,,,,,,,,,,,,,,,,,,,,0,0,0,0,0
3.4820,1783185911.0353,1,1,1.0000,-0.0000,1.44681,0.21315,-2.78253,0.99855,1.57080,0.00002,-0.14512,-0.38002,0.04134,,,,,,,,,,,,,,,,,,,,,,,,,,0,0,0,0,0
3.4898,1783185911.0430,1,1,1.0000,-0.0000,1.44681,0.21308,-2.78254,0.99863,1.57080,0.00002,-0.14512,-0.38002,0.04132,,,,,,,,,,,,,,,,,,,,,,,,,,0,0,0,0,0
3.4901,1783185911.0433,1,1,1.0000,-0.0000,1.44681,0.21308,-2.78254,0.99863,1.57080,0.00002,-0.14512,-0.38002,0.04132,,,,,,,,,,,,,,,,,,,,,,,,,,0,0,0,0,0
3.5050,1783185911.0583,1,1,1.0000,-0.0000,1.44681,0.21293,-2.78258,0.99881,1.57080,0.00002,-0.14512,-0.38002,0.04128,,,,,,,,,,,,,,,,,,,,,,,,,,0,0,0,0,0
3.5093,1783185911.0625,1,1,1.0000,-0.0000,1.44681,0.21293,-2.78258,0.99881,1.57080,0.00002,-0.14512,-0.38002,0.04128,,,,,,,,,,,,,,,,,,,,,,,,,,0,0,0,0,0
3.5099,1783185911.0631,1,1,1.0000,-0.0000,1.44681,0.21292,-2.78258,0.99883,1.57080,0.00002,-0.14512,-0.38002,0.04128,,,,,,,,,,,,,,,,,,,,,,,,,,0,0,0,0,0
3.5242,1783185911.0775,1,1,1.0000,-0.0000,1.44681,0.21281,-2.78261,0.99896,1.57080,0.00002,-0.14512,-0.38002,0.04125,,,,,,,,,,,,,,,,,,,,,,,,,,0,0,0,0,0
3.5305,1783185911.0837,1,1,1.0000,-0.0000,1.44681,0.21271,-2.78263,0.99909,1.57080,0.00002,-0.14512,-0.38002,0.04122,,,,,,,,,,,,,,,,,,,,,,,,,,0,0,0,0,0
3.5389,1783185911.0921,1,1,1.0000,-0.0000,1.44681,0.21266,-2.78265,0.99916,1.57080,0.00002,-0.14512,-0.38002,0.04121,,,,,,,,,,,,,,,,,,,,,,,,,,0,0,0,0,0
3.5543,1783185911.1075,1,1,1.0000,-0.0000,1.44681,0.21254,-2.78268,0.99930,1.57080,0.00002,-0.14512,-0.38002,0.04118,,,,,,,,,,,,,,,,,,,,,,,,,,0,0,0,0,0
3.5621,1783185911.1153,1,1,1.0000,-0.0000,1.44681,0.21243,-2.78270,0.99944,1.57080,0.00002,-0.14512,-0.38002,0.04115,,,,,,,,,,,,,,,,,,,,,,,,,,0,0,0,0,0
3.5701,1783185911.1233,1,1,1.0000,-0.0000,1.44681,0.21238,-2.78271,0.99950,1.57080,0.00002,-0.14512,-0.38002,0.04114,,,,,,,,,,,,,,,,,,,,,,,,,,0,0,0,0,0
3.5787,1783185911.1319,1,1,1.0000,-0.0000,1.44681,0.21235,-2.78272,0.99953,1.57080,0.00002,-0.14512,-0.38002,0.04113,,,,,,,,,,,,,,,,,,,,,,,,,,0,0,0,0,0
3.5897,1783185911.1430,1,1,1.0000,-0.0000,1.44681,0.21225,-2.78275,0.99966,1.57080,0.00002,-0.14512,-0.38002,0.04111,,,,,,,,,,,,,,,,,,,,,,,,,,0,0,0,0,0
3.6050,1783185911.1583,1,1,1.0000,-0.0000,1.44681,0.21219,-2.78276,0.99973,1.57080,0.00002,-0.14512,-0.38002,0.04109,,,,,,,,,,,,,,,,,,,,,,,,,,0,0,0,0,0
3.6100,1783185911.1633,1,1,1.0000,-0.0000,1.44681,0.21213,-2.78278,0.99981,1.57080,0.00002,-0.14512,-0.38002,0.04108,,,,,,,,,,,,,,,,,,,,,,,,,,0,0,0,0,0
3.6250,1783185911.1783,1,1,1.0000,-0.0000,1.44681,0.21197,-2.78281,1.00001,1.57080,0.00002,-0.14512,-0.38002,0.04104,,,,,,,,,,,,,,,,,,,,,,,,,,0,0,0,0,0
3.6310,1783185911.1843,1,1,1.0000,-0.0000,1.44681,0.21192,-2.78283,1.00007,1.57080,0.00002,-0.14512,-0.38002,0.04102,,,,,,,,,,,,,,,,,,,,,,,,,,0,0,0,0,0
3.6401,1783185911.1934,1,1,1.0000,-0.0000,1.44681,0.21190,-2.78283,1.00010,1.57080,0.00002,-0.14512,-0.38002,0.04102,,,,,,,,,,,,,,,,,,,,,,,,,,0,0,0,0,0
3.6489,1783185911.2022,1,1,1.0000,-0.0000,1.44681,0.21183,-2.78285,1.00018,1.57080,0.00002,-0.14512,-0.38002,0.04100,,,,,,,,,,,,,,,,,,,,,,,,,,0,0,0,0,0
3.6493,1783185911.2025,1,1,1.0000,-0.0000,1.44681,0.21183,-2.78285,1.00018,1.57080,0.00002,-0.14512,-0.38002,0.04100,,,,,,,,,,,,,,,,,,,,,,,,,,0,0,0,0,0
3.6664,1783185911.2196,1,1,1.0000,-0.0000,1.44681,0.21171,-2.78288,1.00033,1.57080,0.00002,-0.14512,-0.38002,0.04097,,,,,,,,,,,,,,,,,,,,,,,,,,0,0,0,0,0
3.6738,1783185911.2270,1,1,1.0000,-0.0000,1.44681,0.21162,-2.78290,1.00044,1.57080,0.00002,-0.14512,-0.38002,0.04095,,,,,,,,,,,,,,,,,,,,,,,,,,0,0,0,0,0
3.6742,1783185911.2274,1,1,1.0000,-0.0000,1.44681,0.21162,-2.78290,1.00044,1.57080,0.00002,-0.14512,-0.38002,0.04095,,,,,,,,,,,,,,,,,,,,,,,,,,0,0,0,0,0
3.6789,1783185911.2321,1,1,1.0000,-0.0000,1.44681,0.21157,-2.78291,1.00051,1.57080,0.00002,-0.14512,-0.38002,0.04094,,,,,,,,,,,,,,,,,,,,,,,,,,0,0,0,0,0
3.6793,1783185911.2325,1,1,1.0000,-0.0000,1.44681,0.21157,-2.78291,1.00051,1.57080,0.00002,-0.14512,-0.38002,0.04094,,,,,,,,,,,,,,,,,,,,,,,,,,0,0,0,0,0
3.6908,1783185911.2440,1,1,1.0000,-0.0000,1.44681,0.21146,-2.78294,1.00064,1.57080,0.00002,-0.14512,-0.38002,0.04091,,,,,,,,,,,,,,,,,,,,,,,,,,0,0,0,0,0
3.7058,1783185911.2591,1,1,1.0000,-0.0000,1.44681,0.21137,-2.78296,1.00075,1.57080,0.00002,-0.14512,-0.38002,0.04089,,,,,,,,,,,,,,,,,,,,,,,,,,0,0,0,0,0
3.7093,1783185911.2626,1,1,1.0000,-0.0000,1.44681,0.21137,-2.78296,1.00075,1.57080,0.00002,-0.14512,-0.38002,0.04089,,,,,,,,,,,,,,,,,,,,,,,,,,0,0,0,0,0
3.7099,1783185911.2631,1,1,1.0000,-0.0000,1.44681,0.21133,-2.78297,1.00080,1.57080,0.00002,-0.14512,-0.38002,0.04088,,,,,,,,,,,,,,,,,,,,,,,,,,0,0,0,0,0
3.7188,1783185911.2720,1,1,1.0000,-0.0000,1.44681,0.21129,-2.78298,1.00086,1.57080,0.00002,-0.14512,-0.38002,0.04086,,,,,,,,,,,,,,,,,,,,,,,,,,0,0,0,0,0
3.7288,1783185911.2820,1,1,1.0000,-0.0000,1.44681,0.21125,-2.78299,1.00090,1.57080,0.00002,-0.14512,-0.38002,0.04085,,,,,,,,,,,,,,,,,,,,,,,,,,0,0,0,0,0
3.7406,1783185911.2938,1,1,1.0000,-0.0000,1.44681,0.21111,-2.78302,1.00108,1.57080,0.00002,-0.14512,-0.38002,0.04082,,,,,,,,,,,,,,,,,,,,,,,,,,0,0,0,0,0
3.7511,1783185911.3044,1,1,1.0000,-0.0000,1.44681,0.21100,-2.78305,1.00121,1.57080,0.00002,-0.14512,-0.38002,0.04079,,,,,,,,,,,,,,,,,,,,,,,,,,0,0,0,0,0
3.7595,1783185911.3127,1,1,1.0000,-0.0000,1.44681,0.21098,-2.78305,1.00124,1.57080,0.00002,-0.14512,-0.38002,0.04079,,,,,,,,,,,,,,,,,,,,,,,,,,0,0,0,0,0
3.7804,1783185911.3336,1,1,1.0000,-0.0000,1.44681,0.21083,-2.78309,1.00143,1.57080,0.00002,-0.14512,-0.38002,0.04075,,,,,,,,,,,,,,,,,,,,,,,,,,0,0,0,0,0
3.7808,1783185911.3340,1,1,1.0000,-0.0000,1.44681,0.21083,-2.78309,1.00143,1.57080,0.00002,-0.14512,-0.38002,0.04075,,,,,,,,,,,,,,,,,,,,,,,,,,0,0,0,0,0
3.7886,1783185911.3419,1,1,1.0000,-0.0000,1.44681,0.21079,-2.78310,1.00147,1.57080,0.00002,-0.14512,-0.38002,0.04074,,,,,,,,,,,,,,,,,,,,,,,,,,0,0,0,0,0
3.7890,1783185911.3423,1,1,1.0000,-0.0000,1.44681,0.21079,-2.78310,1.00147,1.57080,0.00002,-0.14512,-0.38002,0.04074,,,,,,,,,,,,,,,,,,,,,,,,,,0,0,0,0,0
3.8169,1783185911.3701,1,1,1.0000,-0.0000,1.44681,0.21054,-2.78316,1.00179,1.57080,0.00002,-0.14512,-0.38002,0.04067,,,,,,,,,,,,,,,,,,,,,,,,,,0,0,0,0,0
3.8171,1783185911.3704,1,1,1.0000,-0.0000,1.44681,0.21054,-2.78316,1.00179,1.57080,0.00002,-0.14512,-0.38002,0.04067,,,,,,,,,,,,,,,,,,,,,,,,,,0,0,0,0,0
3.8223,1783185911.3755,1,1,1.0000,-0.0000,1.44681,0.21049,-2.78317,1.00185,1.57080,0.00002,-0.14512,-0.38002,0.04066,,,,,,,,,,,,,,,,,,,,,,,,,,0,0,0,0,0
3.8370,1783185911.3903,1,1,1.0000,-0.0000,1.44681,0.21037,-2.78320,1.00200,1.57080,0.00002,-0.14512,-0.38002,0.04063,,,,,,,,,,,,,,,,,,,,,,,,,,0,0,0,0,0
3.8465,1783185911.3998,1,1,1.0000,-0.0000,1.44681,0.21033,-2.78321,1.00204,1.57080,0.00002,-0.14512,-0.38002,0.04062,,,,,,,,,,,,,,,,,,,,,,,,,,0,0,0,0,0
3.8469,1783185911.4001,1,1,1.0000,-0.0000,1.44681,0.21033,-2.78321,1.00204,1.57080,0.00002,-0.14512,-0.38002,0.04062,,,,,,,,,,,,,,,,,,,,,,,,,,0,0,0,0,0
3.8547,1783185911.4080,1,1,1.0000,-0.0000,1.44681,0.21025,-2.78323,1.00215,1.57080,0.00002,-0.14512,-0.38002,0.04060,,,,,,,,,,,,,,,,,,,,,,,,,,0,0,0,0,0
3.8551,1783185911.4084,1,1,1.0000,-0.0000,1.44681,0.21025,-2.78323,1.00215,1.57080,0.00002,-0.14512,-0.38002,0.04060,,,,,,,,,,,,,,,,,,,,,,,,,,0,0,0,0,0
3.8592,1783185911.4124,1,1,1.0000,-0.0000,1.44681,0.21019,-2.78324,1.00222,1.57080,0.00002,-0.14512,-0.38002,0.04059,,,,,,,,,,,,,,,,,,,,,,,,,,0,0,0,0,0
3.8594,1783185911.4127,1,1,1.0000,-0.0000,1.44681,0.21019,-2.78324,1.00222,1.57080,0.00002,-0.14512,-0.38002,0.04059,,,,,,,,,,,,,,,,,,,,,,,,,,0,0,0,0,0
3.8689,1783185911.4221,1,1,1.0000,-0.0000,1.44681,0.21008,-2.78327,1.00235,1.57080,0.00002,-0.14512,-0.38002,0.04056,,,,,,,,,,,,,,,,,,,,,,,,,,0,0,0,0,0
3.8692,1783185911.4225,1,1,1.0000,-0.0000,1.44681,0.21008,-2.78327,1.00235,1.57080,0.00002,-0.14512,-0.38002,0.04056,,,,,,,,,,,,,,,,,,,,,,,,,,0,0,0,0,0
3.8803,1783185911.4336,1,1,1.0000,-0.0000,1.44681,0.21005,-2.78328,1.00239,1.57080,0.00002,-0.14512,-0.38002,0.04055,,,,,,,,,,,,,,,,,,,,,,,,,,0,0,0,0,0
3.8904,1783185911.4437,1,1,1.0000,-0.0000,1.44681,0.20991,-2.78331,1.00256,1.57080,0.00002,-0.14512,-0.38002,0.04052,,,,,,,,,,,,,,,,,,,,,,,,,,0,0,0,0,0
3.9022,1783185911.4555,1,1,1.0000,-0.0000,1.44681,0.20985,-2.78333,1.00264,1.57080,0.00002,-0.14512,-0.38002,0.04050,,,,,,,,,,,,,,,,,,,,,,,,,,0,0,0,0,0
3.9132,1783185911.4665,1,1,1.0000,-0.0000,1.44680,0.20979,-2.78334,1.00272,1.57080,0.00002,-0.14512,-0.38002,0.04048,,,,,,,,,,,,,,,,,,,,,,,,,,0,0,0,0,0
3.9195,1783185911.4727,1,1,1.0000,-0.0000,1.44680,0.20969,-2.78337,1.00284,1.57080,0.00002,-0.14512,-0.38002,0.04046,,,,,,,,,,,,,,,,,,,,,,,,,,0,0,0,0,0
3.9321,1783185911.4853,1,1,1.0000,-0.0000,1.44680,0.20958,-2.78339,1.00297,1.57079,0.00002,-0.14512,-0.38002,0.04043,,,,,,,,,,,,,,,,,,,,,,,,,,0,0,0,0,0
3.9429,1783185911.4962,1,1,1.0000,-0.0000,1.44680,0.20951,-2.78341,1.00306,1.57079,0.00002,-0.14512,-0.38002,0.04041,,,,,,,,,,,,,,,,,,,,,,,,,,0,0,0,0,0
3.9497,1783185911.5029,1,1,1.0000,-0.0000,1.44680,0.20941,-2.78343,1.00319,1.57079,0.00002,-0.14512,-0.38002,0.04039,,,,,,,,,,,,,,,,,,,,,,,,,,0,0,0,0,0
3.9595,1783185911.5128,1,1,1.0000,-0.0000,1.44680,0.20936,-2.78345,1.00325,1.57079,0.00002,-0.14512,-0.38002,0.04038,,,,,,,,,,,,,,,,,,,,,,,,,,0,0,0,0,0
3.9758,1783185911.5291,1,1,1.0000,-0.0000,1.44680,0.20924,-2.78347,1.00340,1.57079,0.00002,-0.14512,-0.38002,0.04035,,,,,,,,,,,,,,,,,,,,,,,,,,0,0,0,0,0
3.9787,1783185911.5319,1,1,1.0000,-0.0000,1.44680,0.20919,-2.78349,1.00346,1.57079,0.00002,-0.14512,-0.38002,0.04033,,,,,,,,,,,,,,,,,,,,,,,,,,0,0,0,0,0
3.9791,1783185911.5323,1,1,1.0000,-0.0000,1.44680,0.20919,-2.78349,1.00346,1.57079,0.00002,-0.14512,-0.38002,0.04033,,,,,,,,,,,,,,,,,,,,,,,,,,0,0,0,0,0
3.9926,1783185911.5459,1,1,1.0000,-0.0000,1.44680,0.20908,-2.78351,1.00360,1.57079,0.00002,-0.14512,-0.38002,0.04031,,,,,,,,,,,,,,,,,,,,,,,,,,0,0,0,0,0
3.9987,1783185911.5519,1,1,1.0000,-0.0000,1.44680,0.20905,-2.78352,1.00364,1.57079,0.00002,-0.14512,-0.38002,0.04030,,,,,,,,,,,,,,,,,,,,,,,,,,0,0,0,0,0
4.0087,1783185911.5620,1,1,1.0000,-0.0000,1.44680,0.20896,-2.78354,1.00374,1.57079,0.00002,-0.14512,-0.38002,0.04028,,,,,,,,,,,,,,,,,,,,,,,,,,0,0,0,0,0
4.0196,1783185911.5729,1,1,1.0000,-0.0000,1.44680,0.20886,-2.78357,1.00388,1.57079,0.00002,-0.14512,-0.38002,0.04025,,,,,,,,,,,,,,,,,,,,,,,,,,0,0,0,0,0
4.0346,1783185911.5878,1,1,1.0000,-0.0000,1.44680,0.20874,-2.78359,1.00402,1.57079,0.00002,-0.14512,-0.38002,0.04022,,,,,,,,,,,,,,,,,,,,,,,,,,0,0,0,0,0
4.0406,1783185911.5938,1,1,1.0000,-0.0000,1.44680,0.20869,-2.78361,1.00409,1.57079,0.00002,-0.14512,-0.38002,0.04021,,,,,,,,,,,,,,,,,,,,,,,,,,0,0,0,0,0
4.0488,1783185911.6021,1,1,1.0000,-0.0000,1.44680,0.20858,-2.78363,1.00422,1.57079,0.00002,-0.14512,-0.38002,0.04018,,,,,,,,,,,,,,,,,,,,,,,,,,0,0,0,0,0
4.0587,1783185911.6119,1,1,1.0000,-0.0000,1.44680,0.20854,-2.78364,1.00426,1.57079,0.00002,-0.14512,-0.38002,0.04017,,,,,,,,,,,,,,,,,,,,,,,,,,0,0,0,0,0
4.0757,1783185911.6290,1,1,1.0000,-0.0000,1.44680,0.20835,-2.78369,1.00450,1.57079,0.00002,-0.14512,-0.38002,0.04012,,,,,,,,,,,,,,,,,,,,,,,,,,0,0,0,0,0
4.0762,1783185911.6295,1,1,1.0000,-0.0000,1.44680,0.20835,-2.78369,1.00450,1.57079,0.00002,-0.14512,-0.38002,0.04012,,,,,,,,,,,,,,,,,,,,,,,,,,0,0,0,0,0
4.0811,1783185911.6343,1,1,1.0000,-0.0000,1.44680,0.20835,-2.78369,1.00450,1.57079,0.00002,-0.14512,-0.38002,0.04012,,,,,,,,,,,,,,,,,,,,,,,,,,0,0,0,0,0
4.0818,1783185911.6350,1,1,1.0000,-0.0000,1.44680,0.20834,-2.78369,1.00451,1.57079,0.00002,-0.14512,-0.38002,0.04012,,,,,,,,,,,,,,,,,,,,,,,,,,0,0,0,0,0
4.0925,1783185911.6458,1,1,1.0000,-0.0000,1.44680,0.20828,-2.78370,1.00459,1.57079,0.00002,-0.14512,-0.38002,0.04010,,,,,,,,,,,,,,,,,,,,,,,,,,0,0,0,0,0
4.0928,1783185911.6461,1,1,1.0000,-0.0000,1.44680,0.20828,-2.78370,1.00459,1.57079,0.00002,-0.14512,-0.38002,0.04010,,,,,,,,,,,,,,,,,,,,,,,,,,0,0,0,0,0
4.0992,1783185911.6524,1,1,1.0000,-0.0000,1.44680,0.20818,-2.78373,1.00471,1.57079,0.00002,-0.14512,-0.38002,0.04008,,,,,,,,,,,,,,,,,,,,,,,,,,0,0,0,0,0
4.1092,1783185911.6625,1,1,1.0000,-0.0000,1.44680,0.20808,-2.78375,1.00484,1.57079,0.00002,-0.14512,-0.38002,0.04005,,,,,,,,,,,,,,,,,,,,,,,,,,0,0,0,0,0
4.1214,1783185911.6746,1,1,1.0000,-0.0000,1.44680,0.20804,-2.78376,1.00488,1.57079,0.00002,-0.14512,-0.38002,0.04004,,,,,,,,,,,,,,,,,,,,,,,,,,0,0,0,0,0
4.1308,1783185911.6841,1,1,1.0000,-0.0000,1.44680,0.20790,-2.78379,1.00505,1.57079,0.00002,-0.14512,-0.38002,0.04001,,,,,,,,,,,,,,,,,,,,,,,,,,0,0,0,0,0
4.1388,1783185911.6921,1,1,1.0000,-0.0000,1.44680,0.20780,-2.78382,1.00519,1.57079,0.00002,-0.14512,-0.38002,0.03998,,,,,,,,,,,,,,,,,,,,,,,,,,0,0,0,0,0
4.1489,1783185911.7021,1,1,1.0000,-0.0000,1.44680,0.20779,-2.78382,1.00519,1.57079,0.00002,-0.14512,-0.38002,0.03998,,,,,,,,,,,,,,,,,,,,,,,,,,0,0,0,0,0
4.1611,1783185911.7144,1,1,1.0000,-0.0000,1.44680,0.20771,-2.78384,1.00530,1.57079,0.00002,-0.14512,-0.38002,0.03996,,,,,,,,,,,,,,,,,,,,,,,,,,0,0,0,0,0
4.1687,1783185911.7220,1,1,1.0000,-0.0000,1.44680,0.20762,-2.78386,1.00541,1.57079,0.00002,-0.14512,-0.38002,0.03994,,,,,,,,,,,,,,,,,,,,,,,,,,0,0,0,0,0
4.1691,1783185911.7224,1,1,1.0000,-0.0000,1.44680,0.20762,-2.78386,1.00541,1.57079,0.00002,-0.14512,-0.38002,0.03994,,,,,,,,,,,,,,,,,,,,,,,,,,0,0,0,0,0
4.1824,1783185911.7357,1,1,1.0000,-0.0000,1.44680,0.20755,-2.78388,1.00550,1.57079,0.00002,-0.14512,-0.38002,0.03992,,,,,,,,,,,,,,,,,,,,,,,,,,0,0,0,0,0
4.1887,1783185911.7420,1,1,1.0000,-0.0000,1.44680,0.20750,-2.78389,1.00556,1.57079,0.00002,-0.14512,-0.38002,0.03991,,,,,,,,,,,,,,,,,,,,,,,,,,0,0,0,0,0
4.1891,1783185911.7424,1,1,1.0000,-0.0000,1.44680,0.20750,-2.78389,1.00556,1.57079,0.00002,-0.14512,-0.38002,0.03991,,,,,,,,,,,,,,,,,,,,,,,,,,0,0,0,0,0
4.2027,1783185911.7560,1,1,1.0000,-0.0000,1.44680,0.20734,-2.78393,1.00576,1.57079,0.00002,-0.14512,-0.38002,0.03987,,,,,,,,,,,,,,,,,,,,,,,,,,0,0,0,0,0
4.2128,1783185911.7660,1,1,1.0000,-0.0000,1.44680,0.20731,-2.78394,1.00579,1.57079,0.00002,-0.14512,-0.38002,0.03986,,,,,,,,,,,,,,,,,,,,,,,,,,0,0,0,0,0
4.2204,1783185911.7736,1,1,1.0000,-0.0000,1.44680,0.20725,-2.78395,1.00587,1.57079,0.00002,-0.14512,-0.38002,0.03984,,,,,,,,,,,,,,,,,,,,,,,,,,0,0,0,0,0
4.2332,1783185911.7865,1,1,1.0000,-0.0000,1.44680,0.20716,-2.78397,1.00598,1.57079,0.00002,-0.14512,-0.38002,0.03982,,,,,,,,,,,,,,,,,,,,,,,,,,0,0,0,0,0
4.2392,1783185911.7924,1,1,1.0000,-0.0000,1.44680,0.20712,-2.78398,1.00602,1.57079,0.00002,-0.14512,-0.38002,0.03981,,,,,,,,,,,,,,,,,,,,,,,,,,0,0,0,0,0
4.2502,1783185911.8035,1,1,1.0000,-0.0000,1.44680,0.20698,-2.78401,1.00620,1.57079,0.00002,-0.14512,-0.38002,0.03978,,,,,,,,,,,,,,,,,,,,,,,,,,0,0,0,0,0
4.2590,1783185911.8123,1,1,1.0000,-0.0000,1.44680,0.20687,-2.78404,1.00633,1.57079,0.00002,-0.14512,-0.38002,0.03975,,,,,,,,,,,,,,,,,,,,,,,,,,0,0,0,0,0
4.2802,1783185911.8335,1,1,1.0000,-0.0000,1.44680,0.20678,-2.78406,1.00644,1.57079,0.00002,-0.14512,-0.38002,0.03973,,,,,,,,,,,,,,,,,,,,,,,,,,0,0,0,0,0
4.2807,1783185911.8339,1,1,1.0000,-0.0000,1.44680,0.20678,-2.78406,1.00644,1.57079,0.00002,-0.14512,-0.38002,0.03973,,,,,,,,,,,,,,,,,,,,,,,,,,0,0,0,0,0
4.2910,1783185911.8443,1,1,1.0000,-0.0000,1.44680,0.20670,-2.78408,1.00655,1.57079,0.00002,-0.14512,-0.38002,0.03970,,,,,,,,,,,,,,,,,,,,,,,,,,0,0,0,0,0
4.2987,1783185911.8520,1,1,1.0000,-0.0000,1.44680,0.20666,-2.78409,1.00659,1.57079,0.00002,-0.14512,-0.38002,0.03970,,,,,,,,,,,,,,,,,,,,,,,,,,0,0,0,0,0
4.2991,1783185911.8523,1,1,1.0000,-0.0000,1.44680,0.20666,-2.78409,1.00659,1.57079,0.00002,-0.14512,-0.38002,0.03970,,,,,,,,,,,,,,,,,,,,,,,,,,0,0,0,0,0
4.3085,1783185911.8618,1,1,1.0000,-0.0000,1.44680,0.20657,-2.78411,1.00670,1.57079,0.00002,-0.14512,-0.38002,0.03967,,,,,,,,,,,,,,,,,,,,,,,,,,0,0,0,0,0
4.3089,1783185911.8621,1,1,1.0000,-0.0000,1.44680,0.20657,-2.78411,1.00670,1.57079,0.00002,-0.14512,-0.38002,0.03967,,,,,,,,,,,,,,,,,,,,,,,,,,0,0,0,0,0
4.3212,1783185911.8744,1,1,1.0000,-0.0000,1.44680,0.20641,-2.78415,1.00690,1.57079,0.00002,-0.14512,-0.38002,0.03963,,,,,,,,,,,,,,,,,,,,,,,,,,0,0,0,0,0
4.3297,1783185911.8830,1,1,1.0000,-0.0000,1.44680,0.20639,-2.78416,1.00693,1.57079,0.00002,-0.14512,-0.38002,0.03963,,,,,,,,,,,,,,,,,,,,,,,,,,0,0,0,0,0
4.3442,1783185911.8974,1,1,1.0000,-0.0000,1.44680,0.20628,-2.78418,1.00707,1.57079,0.00002,-0.14512,-0.38002,0.03960,,,,,,,,,,,,,,,,,,,,,,,,,,0,0,0,0,0
4.3488,1783185911.9020,1,1,1.0000,-0.0000,1.44680,0.20624,-2.78419,1.00712,1.57079,0.00002,-0.14512,-0.38002,0.03959,,,,,,,,,,,,,,,,,,,,,,,,,,0,0,0,0,0
4.3600,1783185911.9132,1,1,1.0000,-0.0000,1.44680,0.20620,-2.78420,1.00717,1.57079,0.00002,-0.14512,-0.38002,0.03958,,,,,,,,,,,,,,,,,,,,,,,,,,0,0,0,0,0
4.3699,1783185911.9231,1,1,1.0000,-0.0000,1.44680,0.20606,-2.78424,1.00734,1.57079,0.00002,-0.14512,-0.38002,0.03954,,,,,,,,,,,,,,,,,,,,,,,,,,0,0,0,0,0
4.3833,1783185911.9365,1,1,1.0000,-0.0000,1.44680,0.20595,-2.78426,1.00748,1.57079,0.00002,-0.14512,-0.38002,0.03952,,,,,,,,,,,,,,,,,,,,,,,,,,0,0,0,0,0
4.3891,1783185911.9423,1,1,1.0000,-0.0000,1.44680,0.20594,-2.78426,1.00748,1.57079,0.00002,-0.14512,-0.38002,0.03952,,,,,,,,,,,,,,,,,,,,,,,,,,0,0,0,0,0
4.3989,1783185911.9522,1,1,1.0000,-0.0000,1.44680,0.20586,-2.78428,1.00759,1.57079,0.00002,-0.14512,-0.38002,0.03949,,,,,,,,,,,,,,,,,,,,,,,,,,0,0,0,0,0
4.4099,1783185911.9631,1,1,1.0000,-0.0000,1.44680,0.20577,-2.78430,1.00769,1.57079,0.00002,-0.14512,-0.38002,0.03947,,,,,,,,,,,,,,,,,,,,,,,,,,0,0,0,0,0
4.4229,1783185911.9762,1,1,1.0000,-0.0000,1.44680,0.20570,-2.78432,1.00779,1.57079,0.00002,-0.14512,-0.38002,0.03945,,,,,,,,,,,,,,,,,,,,,,,,,,0,0,0,0,0
4.4293,1783185911.9826,1,1,1.0000,-0.0000,1.44680,0.20565,-2.78433,1.00785,1.57079,0.00002,-0.14512,-0.38002,0.03944,,,,,,,,,,,,,,,,,,,,,,,,,,0,0,0,0,0
4.4300,1783185911.9832,1,1,1.0000,-0.0000,1.44680,0.20560,-2.78435,1.00791,1.57079,0.00002,-0.14512,-0.38002,0.03943,,,,,,,,,,,,,,,,,,,,,,,,,,0,0,0,0,0
4.4445,1783185911.9977,1,1,1.0000,-0.0000,1.44680,0.20549,-2.78437,1.00805,1.57079,0.00002,-0.14512,-0.38002,0.03940,,,,,,,,,,,,,,,,,,,,,,,,,,0,0,0,0,0
4.4507,1783185912.0039,1,1,1.0000,-0.0000,1.44680,0.20546,-2.78438,1.00808,1.57079,0.00002,-0.14512,-0.38002,0.03939,,,,,,,,,,,,,,,,,,,,,,,,,,0,0,0,0,0
4.4587,1783185912.0120,1,1,1.0000,-0.0000,1.44680,0.20540,-2.78439,1.00816,1.57079,0.00002,-0.14512,-0.38002,0.03938,,,,,,,,,,,,,,,,,,,,,,,,,,0,0,0,0,0
4.4591,1783185912.0124,1,1,1.0000,-0.0000,1.44680,0.20540,-2.78439,1.00816,1.57079,0.00002,-0.14512,-0.38002,0.03938,,,,,,,,,,,,,,,,,,,,,,,,,,0,0,0,0,0
4.4728,1783185912.0260,1,1,1.0000,-0.0000,1.44680,0.20531,-2.78441,1.00827,1.57079,0.00002,-0.14512,-0.38002,0.03936,,,,,,,,,,,,,,,,,,,,,,,,,,0,0,0,0,0
4.4826,1783185912.0359,1,1,1.0000,-0.0000,1.44680,0.20523,-2.78443,1.00836,1.57079,0.00002,-0.14512,-0.38002,0.03934,,,,,,,,,,,,,,,,,,,,,,,,,,0,0,0,0,0
4.4929,1783185912.0461,1,1,1.0000,-0.0000,1.44680,0.20513,-2.78446,1.00849,1.57079,0.00002,-0.14512,-0.38002,0.03931,,,,,,,,,,,,,,,,,,,,,,,,,,0,0,0,0,0
4.4932,1783185912.0465,1,1,1.0000,-0.0000,1.44680,0.20513,-2.78446,1.00849,1.57079,0.00002,-0.14512,-0.38002,0.03931,,,,,,,,,,,,,,,,,,,,,,,,,,0,0,0,0,0
4.5026,1783185912.0558,1,1,1.0000,-0.0000,1.44680,0.20502,-2.78448,1.00862,1.57079,0.00002,-0.14512,-0.38002,0.03928,,,,,,,,,,,,,,,,,,,,,,,,,,0,0,0,0,0
4.5131,1783185912.0663,1,1,1.0000,-0.0000,1.44680,0.20499,-2.78449,1.00866,1.57079,0.00002,-0.14512,-0.38002,0.03928,,,,,,,,,,,,,,,,,,,,,,,,,,0,0,0,0,0
4.5138,1783185912.0671,1,1,1.0000,-0.0000,1.44680,0.20495,-2.78450,1.00871,1.57079,0.00002,-0.14512,-0.38002,0.03927,,,,,,,,,,,,,,,,,,,,,,,,,,0,0,0,0,0
4.5247,1783185912.0779,1,1,1.0000,-0.0000,1.44680,0.20485,-2.78452,1.00883,1.57079,0.00002,-0.14512,-0.38002,0.03924,,,,,,,,,,,,,,,,,,,,,,,,,,0,0,0,0,0
4.5294,1783185912.0826,1,1,1.0000,-0.0000,1.44680,0.20480,-2.78454,1.00890,1.57079,0.00002,-0.14512,-0.38002,0.03923,,,,,,,,,,,,,,,,,,,,,,,,,,0,0,0,0,0
4.5301,1783185912.0833,1,1,1.0000,-0.0000,1.44680,0.20480,-2.78454,1.00890,1.57079,0.00002,-0.14512,-0.38002,0.03923,,,,,,,,,,,,,,,,,,,,,,,,,,0,0,0,0,0
4.5404,1783185912.0936,1,1,1.0000,-0.0000,1.44680,0.20476,-2.78454,1.00894,1.57079,0.00002,-0.14512,-0.38002,0.03922,,,,,,,,,,,,,,,,,,,,,,,,,,0,0,0,0,0
4.5526,1783185912.1058,1,1,1.0000,-0.0000,1.44680,0.20463,-2.78458,1.00911,1.57079,0.00002,-0.14512,-0.38002,0.03918,,,,,,,,,,,,,,,,,,,,,,,,,,0,0,0,0,0
4.5602,1783185912.1135,1,1,1.0000,-0.0000,1.44680,0.20452,-2.78460,1.00925,1.57079,0.00002,-0.14512,-0.38002,0.03916,,,,,,,,,,,,,,,,,,,,,,,,,,0,0,0,0,0
4.5606,1783185912.1139,1,1,1.0000,-0.0000,1.44680,0.20452,-2.78460,1.00925,1.57079,0.00002,-0.14512,-0.38002,0.03916,,,,,,,,,,,,,,,,,,,,,,,,,,0,0,0,0,0
4.5690,1783185912.1223,1,1,1.0000,-0.0000,1.44680,0.20451,-2.78460,1.00926,1.57079,0.00002,-0.14512,-0.38002,0.03916,,,,,,,,,,,,,,,,,,,,,,,,,,0,0,0,0,0
4.5697,1783185912.1229,1,1,1.0000,-0.0000,1.44680,0.20448,-2.78461,1.00929,1.57079,0.00002,-0.14512,-0.38002,0.03915,,,,,,,,,,,,,,,,,,,,,,,,,,0,0,0,0,0
4.5801,1783185912.1333,1,1,1.0000,-0.0000,1.44680,0.20440,-2.78463,1.00939,1.57079,0.00002,-0.14512,-0.38002,0.03913,,,,,,,,,,,,,,,,,,,,,,,,,,0,0,0,0,0
4.5902,1783185912.1435,1,1,1.0000,-0.0000,1.44680,0.20429,-2.78466,1.00953,1.57079,0.00002,-0.14512,-0.38002,0.03910,,,,,,,,,,,,,,,,,,,,,,,,,,0,0,0,0,0
4.6005,1783185912.1538,1,1,1.0000,-0.0000,1.44680,0.20426,-2.78466,1.00957,1.57079,0.00002,-0.14512,-0.38002,0.03909,,,,,,,,,,,,,,,,,,,,,,,,,,0,0,0,0,0
4.6090,1783185912.1623,1,1,1.0000,-0.0000,1.44680,0.20417,-2.78468,1.00967,1.57079,0.00002,-0.14512,-0.38002,0.03907,,,,,,,,,,,,,,,,,,,,,,,,,,0,0,0,0,0
4.6098,1783185912.1630,1,1,1.0000,-0.0000,1.44680,0.20412,-2.78470,1.00974,1.57079,0.00002,-0.14512,-0.38002,0.03906,,,,,,,,,,,,,,,,,,,,,,,,,,0,0,0,0,0
4.6190,1783185912.1722,1,1,1.0000,-0.0000,1.44680,0.20401,-2.78472,1.00987,1.57079,0.00002,-0.14512,-0.38002,0.03903,,,,,,,,,,,,,,,,,,,,,,,,,,0,0,0,0,0
4.6192,1783185912.1725,1,1,1.0000,-0.0000,1.44680,0.20401,-2.78472,1.00987,1.57079,0.00002,-0.14512,-0.38002,0.03903,,,,,,,,,,,,,,,,,,,,,,,,,,0,0,0,0,0
4.6299,1783185912.1832,1,1,1.0000,-0.0000,1.44680,0.20398,-2.78473,1.00991,1.57079,0.00002,-0.14512,-0.38002,0.03902,,,,,,,,,,,,,,,,,,,,,,,,,,0,0,0,0,0
4.6302,1783185912.1835,1,1,1.0000,-0.0000,1.44680,0.20398,-2.78473,1.00991,1.57079,0.00002,-0.14512,-0.38002,0.03902,,,,,,,,,,,,,,,,,,,,,,,,,,0,0,0,0,0
4.6419,1783185912.1952,1,1,1.0000,-0.0000,1.44680,0.20384,-2.78476,1.01008,1.57079,0.00002,-0.14512,-0.38002,0.03899,,,,,,,,,,,,,,,,,,,,,,,,,,0,0,0,0,0
4.6487,1783185912.2019,1,1,1.0000,-0.0000,1.44680,0.20379,-2.78477,1.01015,1.57079,0.00002,-0.14512,-0.38002,0.03897,,,,,,,,,,,,,,,,,,,,,,,,,,0,0,0,0,0
4.6490,1783185912.2022,1,1,1.0000,-0.0000,1.44680,0.20379,-2.78477,1.01015,1.57079,0.00002,-0.14512,-0.38002,0.03897,,,,,,,,,,,,,,,,,,,,,,,,,,0,0,0,0,0
4.6584,1783185912.2116,1,1,1.0000,-0.0000,1.44680,0.20375,-2.78478,1.01019,1.57079,0.00002,-0.14512,-0.38002,0.03897,,,,,,,,,,,,,,,,,,,,,,,,,,0,0,0,0,0
4.6691,1783185912.2224,1,1,1.0000,-0.0000,1.44680,0.20367,-2.78480,1.01030,1.57079,0.00002,-0.14512,-0.38002,0.03894,,,,,,,,,,,,,,,,,,,,,,,,,,0,0,0,0,0
4.6807,1783185912.2339,1,1,1.0000,-0.0000,1.44680,0.20351,-2.78484,1.01050,1.57079,0.00002,-0.14512,-0.38002,0.03890,,,,,,,,,,,,,,,,,,,,,,,,,,0,0,0,0,0
4.6899,1783185912.2431,1,1,1.0000,-0.0000,1.44680,0.20347,-2.78485,1.01054,1.57079,0.00002,-0.14512,-0.38002,0.03890,,,,,,,,,,,,,,,,,,,,,,,,,,0,0,0,0,0
4.6997,1783185912.2530,1,1,1.0000,-0.0000,1.44680,0.20339,-2.78487,1.01065,1.57079,0.00002,-0.14512,-0.38002,0.03887,,,,,,,,,,,,,,,,,,,,,,,,,,0,0,0,0,0
4.7089,1783185912.2621,1,1,1.0000,-0.0000,1.44680,0.20328,-2.78489,1.01078,1.57079,0.00002,-0.14512,-0.38002,0.03885,,,,,,,,,,,,,,,,,,,,,,,,,,0,0,0,0,0
4.7193,1783185912.2725,1,1,1.0000,-0.0000,1.44680,0.20325,-2.78490,1.01082,1.57079,0.00002,-0.14512,-0.38002,0.03884,,,,,,,,,,,,,,,,,,,,,,,,,,0,0,0,0,0
4.7317,1783185912.2850,1,1,1.0000,-0.0000,1.44680,0.20311,-2.78494,1.01099,1.57079,0.00002,-0.14512,-0.38002,0.03880,,,,,,,,,,,,,,,,,,,,,,,,,,0,0,0,0,0
4.7423,1783185912.2955,1,1,1.0000,-0.0000,1.44680,0.20300,-2.78496,1.01112,1.57079,0.00002,-0.14512,-0.38002,0.03878,,,,,,,,,,,,,,,,,,,,,,,,,,0,0,0,0,0
4.7426,1783185912.2958,1,1,1.0000,-0.0000,1.44680,0.20300,-2.78496,1.01112,1.57079,0.00002,-0.14512,-0.38002,0.03878,,,,,,,,,,,,,,,,,,,,,,,,,,0,0,0,0,0
4.7512,1783185912.3044,1,1,1.0000,-0.0000,1.44680,0.20297,-2.78497,1.01117,1.57079,0.00002,-0.14512,-0.38002,0.03877,,,,,,,,,,,,,,,,,,,,,,,,,,0,0,0,0,0
4.7600,1783185912.3133,1,1,1.0000,-0.0000,1.44680,0.20288,-2.78499,1.01127,1.57079,0.00002,-0.14512,-0.38002,0.03875,,,,,,,,,,,,,,,,,,,,,,,,,,0,0,0,0,0
4.7687,1783185912.3219,1,1,1.0000,-0.0000,1.44680,0.20277,-2.78501,1.01140,1.57079,0.00002,-0.14512,-0.38002,0.03872,,,,,,,,,,,,,,,,,,,,,,,,,,0,0,0,0,0
4.7692,1783185912.3224,1,1,1.0000,-0.0000,1.44680,0.20277,-2.78501,1.01140,1.57079,0.00002,-0.14512,-0.38002,0.03872,,,,,,,,,,,,,,,,,,,,,,,,,,0,0,0,0,0
4.7788,1783185912.3320,1,1,1.0000,-0.0000,1.44680,0.20274,-2.78502,1.01145,1.57079,0.00002,-0.14512,-0.38002,0.03871,,,,,,,,,,,,,,,,,,,,,,,,,,0,0,0,0,0
4.7924,1783185912.3457,1,1,1.0000,-0.0000,1.44680,0.20260,-2.78505,1.01162,1.57079,0.00002,-0.14512,-0.38002,0.03868,,,,,,,,,,,,,,,,,,,,,,,,,,0,0,0,0,0
4.7991,1783185912.3523,1,1,1.0000,-0.0000,1.44680,0.20250,-2.78508,1.01175,1.57079,0.00002,-0.14512,-0.38002,0.03865,,,,,,,,,,,,,,,,,,,,,,,,,,0,0,0,0,0
4.7994,1783185912.3526,1,1,1.0000,-0.0000,1.44680,0.20250,-2.78508,1.01175,1.57079,0.00002,-0.14512,-0.38002,0.03865,,,,,,,,,,,,,,,,,,,,,,,,,,0,0,0,0,0
4.8129,1783185912.3662,1,1,1.0000,-0.0000,1.44680,0.20246,-2.78509,1.01179,1.57079,0.00002,-0.14512,-0.38002,0.03864,,,,,,,,,,,,,,,,,,,,,,,,,,0,0,0,0,0
4.8133,1783185912.3665,1,1,1.0000,-0.0000,1.44680,0.20246,-2.78509,1.01179,1.57079,0.00002,-0.14512,-0.38002,0.03864,,,,,,,,,,,,,,,,,,,,,,,,,,0,0,0,0,0
4.8196,1783185912.3728,1,1,1.0000,-0.0000,1.44680,0.20237,-2.78511,1.01190,1.57079,0.00002,-0.14512,-0.38002,0.03862,,,,,,,,,,,,,,,,,,,,,,,,,,0,0,0,0,0
4.8199,1783185912.3731,1,1,1.0000,-0.0000,1.44680,0.20237,-2.78511,1.01190,1.57079,0.00002,-0.14512,-0.38002,0.03862,,,,,,,,,,,,,,,,,,,,,,,,,,0,0,0,0,0
4.8334,1783185912.3866,1,1,1.0000,-0.0000,1.44680,0.20227,-2.78513,1.01203,1.57079,0.00002,-0.14512,-0.38002,0.03859,,,,,,,,,,,,,,,,,,,,,,,,,,0,0,0,0,0
4.8395,1783185912.3927,1,1,1.0000,-0.0000,1.44680,0.20223,-2.78514,1.01207,1.57079,0.00002,-0.14512,-0.38002,0.03858,,,,,,,,,,,,,,,,,,,,,,,,,,0,0,0,0,0
4.8587,1783185912.4120,1,1,1.0000,-0.0000,1.44680,0.20199,-2.78520,1.01237,1.57079,0.00002,-0.14512,-0.38002,0.03852,,,,,,,,,,,,,,,,,,,,,,,,,,0,0,0,0,0
4.8614,1783185912.4147,1,1,1.0000,-0.0000,1.44680,0.20199,-2.78520,1.01237,1.57079,0.00002,-0.14512,-0.38002,0.03852,,,,,,,,,,,,,,,,,,,,,,,,,,0,0,0,0,0
4.8622,1783185912.4154,1,1,1.0000,-0.0000,1.44680,0.20199,-2.78520,1.01237,1.57079,0.00002,-0.14512,-0.38002,0.03852,,,,,,,,,,,,,,,,,,,,,,,,,,0,0,0,0,0
4.8686,1783185912.4218,1,1,1.0000,-0.0000,1.44680,0.20198,-2.78520,1.01239,1.57079,0.00002,-0.14512,-0.38002,0.03852,,,,,,,,,,,,,,,,,,,,,,,,,,0,0,0,0,0
4.8690,1783185912.4222,1,1,1.0000,-0.0000,1.44680,0.20198,-2.78520,1.01239,1.57079,0.00002,-0.14512,-0.38002,0.03852,,,,,,,,,,,,,,,,,,,,,,,,,,0,0,0,0,0
4.8793,1783185912.4326,1,1,1.0000,-0.0000,1.44680,0.20187,-2.78523,1.01252,1.57079,0.00002,-0.14512,-0.38001,0.03849,,,,,,,,,,,,,,,,,,,,,,,,,,0,0,0,0,0
4.8797,1783185912.4330,1,1,1.0000,-0.0000,1.44680,0.20187,-2.78523,1.01252,1.57079,0.00002,-0.14512,-0.38001,0.03849,,,,,,,,,,,,,,,,,,,,,,,,,,0,0,0,0,0
4.8937,1783185912.4469,1,1,1.0000,-0.0000,1.44680,0.20175,-2.78526,1.01267,1.57079,0.00002,-0.14512,-0.38001,0.03846,,,,,,,,,,,,,,,,,,,,,,,,,,0,0,0,0,0
4.8939,1783185912.4472,1,1,1.0000,-0.0000,1.44680,0.20175,-2.78526,1.01267,1.57079,0.00002,-0.14512,-0.38001,0.03846,,,,,,,,,,,,,,,,,,,,,,,,,,0,0,0,0,0
4.8996,1783185912.4529,1,1,1.0000,-0.0000,1.44680,0.20173,-2.78526,1.01270,1.57079,0.00002,-0.14512,-0.38001,0.03846,,,,,,,,,,,,,,,,,,,,,,,,,,0,0,0,0,0
4.8999,1783185912.4531,1,1,1.0000,-0.0000,1.44680,0.20173,-2.78526,1.01270,1.57079,0.00002,-0.14512,-0.38001,0.03846,,,,,,,,,,,,,,,,,,,,,,,,,,0,0,0,0,0
4.9087,1783185912.4619,1,1,1.0000,-0.0000,1.44680,0.20164,-2.78528,1.01280,1.57079,0.00002,-0.14512,-0.38001,0.03844,,,,,,,,,,,,,,,,,,,,,,,,,,0,0,0,0,0
4.9090,1783185912.4622,1,1,1.0000,-0.0000,1.44680,0.20164,-2.78528,1.01280,1.57079,0.00002,-0.14512,-0.38001,0.03844,,,,,,,,,,,,,,,,,,,,,,,,,,0,0,0,0,0
4.9211,1783185912.4744,1,1,1.0000,-0.0000,1.44680,0.20148,-2.78532,1.01300,1.57079,0.00003,-0.14512,-0.38001,0.03840,,,,,,,,,,,,,,,,,,,,,,,,,,0,0,0,0,0
4.9219,1783185912.4751,1,1,1.0000,-0.0000,1.44680,0.20148,-2.78532,1.01300,1.57079,0.00003,-0.14512,-0.38001,0.03840,,,,,,,,,,,,,,,,,,,,,,,,,,0,0,0,0,0
4.9352,1783185912.4884,1,1,1.0000,-0.0000,1.44680,0.20141,-2.78534,1.01309,1.57079,0.00003,-0.14512,-0.38001,0.03838,,,,,,,,,,,,,,,,,,,,,,,,,,0,0,0,0,0
4.9425,1783185912.4957,1,1,1.0000,-0.0000,1.44680,0.20131,-2.78536,1.01321,1.57079,0.00003,-0.14512,-0.38001,0.03835,,,,,,,,,,,,,,,,,,,,,,,,,,0,0,0,0,0
4.9500,1783185912.5032,1,1,1.0000,-0.0000,1.44680,0.20125,-2.78537,1.01328,1.57079,0.00003,-0.14512,-0.38001,0.03834,,,,,,,,,,,,,,,,,,,,,,,,,,0,0,0,0,0
4.9502,1783185912.5035,1,1,1.0000,-0.0000,1.44680,0.20125,-2.78537,1.01328,1.57079,0.00003,-0.14512,-0.38001,0.03834,,,,,,,,,,,,,,,,,,,,,,,,,,0,0,0,0,0
4.9584,1783185912.5116,1,1,1.0000,-0.0000,1.44680,0.20122,-2.78538,1.01333,1.57079,0.00003,-0.14512,-0.38001,0.03833,,,,,,,,,,,,,,,,,,,,,,,,,,0,0,0,0,0
4.9588,1783185912.5120,1,1,1.0000,-0.0000,1.44680,0.20122,-2.78538,1.01333,1.57079,0.00003,-0.14512,-0.38001,0.03833,,,,,,,,,,,,,,,,,,,,,,,,,,0,0,0,0,0
4.9687,1783185912.5220,1,1,1.0000,-0.0000,1.44680,0.20113,-2.78540,1.01343,1.57079,0.00003,-0.14512,-0.38001,0.03831,,,,,,,,,,,,,,,,,,,,,,,,,,0,0,0,0,0
4.9800,1783185912.5333,1,1,1.0000,-0.0000,1.44680,0.20097,-2.78544,1.01363,1.57079,0.00003,-0.14512,-0.38001,0.03827,,,,,,,,,,,,,,,,,,,,,,,,,,0,0,0,0,0
5.0048,1783185912.5581,1,1,1.0000,-0.0000,1.44680,0.20080,-2.78548,1.01384,1.57079,0.00003,-0.14512,-0.38001,0.03823,,,,,,,,,,,,,,,,,,,,,,,,,,0,0,0,0,0
5.0052,1783185912.5585,1,1,1.0000,-0.0000,1.44680,0.20080,-2.78548,1.01384,1.57079,0.00003,-0.14512,-0.38001,0.03823,,,,,,,,,,,,,,,,,,,,,,,,,,0,0,0,0,0
5.0090,1783185912.5623,1,1,1.0000,-0.0000,1.44680,0.20075,-2.78549,1.01391,1.57079,0.00003,-0.14512,-0.38001,0.03821,,,,,,,,,,,,,,,,,,,,,,,,,,0,0,0,0,0
5.0094,1783185912.5626,1,1,1.0000,-0.0000,1.44680,0.20075,-2.78549,1.01391,1.57079,0.00003,-0.14512,-0.38001,0.03821,,,,,,,,,,,,,,,,,,,,,,,,,,0,0,0,0,0
5.0188,1783185912.5720,1,1,1.0000,-0.0000,1.44680,0.20069,-2.78551,1.01398,1.57079,0.00003,-0.14512,-0.38001,0.03820,,,,,,,,,,,,,,,,,,,,,,,,,,0,0,0,0,0
5.0290,1783185912.5823,1,1,1.0000,-0.0000,1.44680,0.20064,-2.78552,1.01404,1.57079,0.00003,-0.14512,-0.38001,0.03819,,,,,,,,,,,,,,,,,,,,,,,,,,0,0,0,0,0
5.0420,1783185912.5952,1,1,1.0000,-0.0000,1.44680,0.20051,-2.78555,1.01420,1.57079,0.00003,-0.14512,-0.38001,0.03816,,,,,,,,,,,,,,,,,,,,,,,,,,0,0,0,0,0
5.0488,1783185912.6021,1,1,1.0000,-0.0000,1.44680,0.20050,-2.78555,1.01421,1.57079,0.00003,-0.14512,-0.38001,0.03815,,,,,,,,,,,,,,,,,,,,,,,,,,0,0,0,0,0
5.0611,1783185912.6144,1,1,1.0000,-0.0000,1.44680,0.20039,-2.78558,1.01435,1.57079,0.00003,-0.14512,-0.38001,0.03812,,,,,,,,,,,,,,,,,,,,,,,,,,0,0,0,0,0
5.0709,1783185912.6241,1,1,1.0000,-0.0000,1.44680,0.20022,-2.78561,1.01455,1.57079,0.00003,-0.14512,-0.38001,0.03808,,,,,,,,,,,,,,,,,,,,,,,,,,0,0,0,0,0
5.0823,1783185912.6356,1,1,1.0000,-0.0000,1.44680,0.20020,-2.78562,1.01458,1.57079,0.00003,-0.14512,-0.38001,0.03808,,,,,,,,,,,,,,,,,,,,,,,,,,0,0,0,0,0
5.1045,1783185912.6578,1,1,1.0000,-0.0000,1.44680,0.20005,-2.78566,1.01477,1.57079,0.00003,-0.14512,-0.38001,0.03804,,,,,,,,,,,,,,,,,,,,,,,,,,0,0,0,0,0
5.1050,1783185912.6582,1,1,1.0000,-0.0000,1.44680,0.20005,-2.78566,1.01477,1.57079,0.00003,-0.14512,-0.38001,0.03804,,,,,,,,,,,,,,,,,,,,,,,,,,0,0,0,0,0
5.1131,1783185912.6664,1,1,1.0000,-0.0000,1.44680,0.20001,-2.78566,1.01482,1.57079,0.00003,-0.14512,-0.38001,0.03803,,,,,,,,,,,,,,,,,,,,,,,,,,0,0,0,0,0
5.1191,1783185912.6723,1,1,1.0000,-0.0000,1.44680,0.19992,-2.78568,1.01492,1.57079,0.00003,-0.14512,-0.38001,0.03801,,,,,,,,,,,,,,,,,,,,,,,,,,0,0,0,0,0
5.1298,1783185912.6830,1,1,1.0000,-0.0000,1.44680,0.19976,-2.78572,1.01513,1.57079,0.00003,-0.14512,-0.38001,0.03797,,,,,,,,,,,,,,,,,,,,,,,,,,0,0,0,0,0
5.1412,1783185912.6945,1,1,1.0000,-0.0000,1.44680,0.19975,-2.78572,1.01513,1.57079,0.00003,-0.14512,-0.38001,0.03797,,,,,,,,,,,,,,,,,,,,,,,,,,0,0,0,0,0
5.1488,1783185912.7021,1,1,1.0000,-0.0000,1.44680,0.19971,-2.78574,1.01519,1.57079,0.00003,-0.14512,-0.38001,0.03795,,,,,,,,,,,,,,,,,,,,,,,,,,0,0,0,0,0
5.1610,1783185912.7143,1,1,1.0000,-0.0000,1.44680,0.19958,-2.78576,1.01535,1.57079,0.00003,-0.14512,-0.38001,0.03792,,,,,,,,,,,,,,,,,,,,,,,,,,0,0,0,0,0
5.1614,1783185912.7146,1,1,1.0000,-0.0000,1.44680,0.19958,-2.78576,1.01535,1.57079,0.00003,-0.14512,-0.38001,0.03792,,,,,,,,,,,,,,,,,,,,,,,,,,0,0,0,0,0
5.1709,1783185912.7242,1,1,1.0000,-0.0000,1.44680,0.19954,-2.78577,1.01539,1.57079,0.00003,-0.14512,-0.38001,0.03791,,,,,,,,,,,,,,,,,,,,,,,,,,0,0,0,0,0
5.1787,1783185912.7320,1,1,1.0000,-0.0000,1.44680,0.19946,-2.78579,1.01550,1.57079,0.00003,-0.14512,-0.38001,0.03789,,,,,,,,,,,,,,,,,,,,,,,,,,0,0,0,0,0
5.1932,1783185912.7465,1,1,1.0000,-0.0000,1.44680,0.19929,-2.78583,1.01570,1.57079,0.00003,-0.14512,-0.38001,0.03785,,,,,,,,,,,,,,,,,,,,,,,,,,0,0,0,0,0
5.2018,1783185912.7551,1,1,1.0000,-0.0000,1.44680,0.19927,-2.78584,1.01573,1.57079,0.00003,-0.14512,-0.38001,0.03784,,,,,,,,,,,,,,,,,,,,,,,,,,0,0,0,0,0
5.2087,1783185912.7619,1,1,1.0000,-0.0000,1.44680,0.19924,-2.78584,1.01577,1.57079,0.00003,-0.14512,-0.38001,0.03784,,,,,,,,,,,,,,,,,,,,,,,,,,0,0,0,0,0
5.2187,1783185912.7720,1,1,1.0000,-0.0000,1.44680,0.19911,-2.78587,1.01592,1.57079,0.00003,-0.14512,-0.38001,0.03781,,,,,,,,,,,,,,,,,,,,,,,,,,0,0,0,0,0
5.2289,1783185912.7821,1,1,1.0000,-0.0000,1.44680,0.19910,-2.78588,1.01593,1.57079,0.00003,-0.14512,-0.38001,0.03780,,,,,,,,,,,,,,,,,,,,,,,,,,0,0,0,0,0
5.2411,1783185912.7944,1,1,1.0000,-0.0000,1.44680,0.19899,-2.78590,1.01608,1.57079,0.00003,-0.14512,-0.38001,0.03778,,,,,,,,,,,,,,,,,,,,,,,,,,0,0,0,0,0
5.2418,1783185912.7950,1,1,1.0000,-0.0000,1.44680,0.19893,-2.78591,1.01614,1.57079,0.00003,-0.14512,-0.38001,0.03776,,,,,,,,,,,,,,,,,,,,,,,,,,0,0,0,0,0
5.2571,1783185912.8104,1,1,1.0000,-0.0000,1.44680,0.19882,-2.78594,1.01628,1.57079,0.00003,-0.14512,-0.38001,0.03773,,,,,,,,,,,,,,,,,,,,,,,,,,0,0,0,0,0
5.2632,1783185912.8165,1,1,1.0000,-0.0000,1.44680,0.19879,-2.78595,1.01632,1.57079,0.00003,-0.14512,-0.38001,0.03773,,,,,,,,,,,,,,,,,,,,,,,,,,0,0,0,0,0
5.2688,1783185912.8220,1,1,1.0000,-0.0000,1.44680,0.19875,-2.78596,1.01637,1.57079,0.00003,-0.14512,-0.38001,0.03772,,,,,,,,,,,,,,,,,,,,,,,,,,0,0,0,0,0
5.2831,1783185912.8363,1,1,1.0000,-0.0000,1.44680,0.19860,-2.78599,1.01656,1.57079,0.00003,-0.14512,-0.38001,0.03768,,,,,,,,,,,,,,,,,,,,,,,,,,0,0,0,0,0
5.2954,1783185912.8487,1,1,1.0000,-0.0000,1.44680,0.19852,-2.78601,1.01665,1.57079,0.00003,-0.14512,-0.38001,0.03766,,,,,,,,,,,,,,,,,,,,,,,,,,0,0,0,0,0
5.3098,1783185912.8630,1,1,1.0000,-0.0000,1.44680,0.19832,-2.78606,1.01691,1.57079,0.00003,-0.14512,-0.38001,0.03761,,,,,,,,,,,,,,,,,,,,,,,,,,0,0,0,0,0
5.3102,1783185912.8634,1,1,1.0000,-0.0000,1.44680,0.19832,-2.78606,1.01691,1.57079,0.00003,-0.14512,-0.38001,0.03761,,,,,,,,,,,,,,,,,,,,,,,,,,0,0,0,0,0
5.3117,1783185912.8650,1,1,1.0000,-0.0000,1.44680,0.19832,-2.78606,1.01691,1.57079,0.00003,-0.14512,-0.38001,0.03761,,,,,,,,,,,,,,,,,,,,,,,,,,0,0,0,0,0
5.3122,1783185912.8654,1,1,1.0000,-0.0000,1.44680,0.19832,-2.78606,1.01691,1.57079,0.00003,-0.14512,-0.38001,0.03761,,,,,,,,,,,,,,,,,,,,,,,,,,0,0,0,0,0
5.3221,1783185912.8754,1,1,1.0000,-0.0000,1.44680,0.19828,-2.78607,1.01695,1.57079,0.00003,-0.14512,-0.38001,0.03760,,,,,,,,,,,,,,,,,,,,,,,,,,0,0,0,0,0
5.3226,1783185912.8759,1,1,1.0000,-0.0000,1.44680,0.19828,-2.78607,1.01695,1.57079,0.00003,-0.14512,-0.38001,0.03760,,,,,,,,,,,,,,,,,,,,,,,,,,0,0,0,0,0
5.3298,1783185912.8830,1,1,1.0000,-0.0000,1.44680,0.19819,-2.78609,1.01705,1.57079,0.00003,-0.14512,-0.38001,0.03758,,,,,,,,,,,,,,,,,,,,,,,,,,0,0,0,0,0
5.3299,1783185912.8832,1,1,1.0000,-0.0000,1.44680,0.19819,-2.78609,1.01705,1.57079,0.00003,-0.14512,-0.38001,0.03758,,,,,,,,,,,,,,,,,,,,,,,,,,0,0,0,0,0
5.3451,1783185912.8984,1,1,1.0000,-0.0000,1.44680,0.19809,-2.78611,1.01719,1.57079,0.00003,-0.14512,-0.38001,0.03755,,,,,,,,,,,,,,,,,,,,,,,,,,0,0,0,0,0
5.3537,1783185912.9070,1,1,1.0000,-0.0000,1.44680,0.19801,-2.78613,1.01728,1.57079,0.00003,-0.14512,-0.38001,0.03753,,,,,,,,,,,,,,,,,,,,,,,,,,0,0,0,0,0
5.3587,1783185912.9120,1,1,1.0000,-0.0000,1.44680,0.19797,-2.78614,1.01734,1.57079,0.00003,-0.14512,-0.38001,0.03752,,,,,,,,,,,,,,,,,,,,,,,,,,0,0,0,0,0
5.3739,1783185912.9271,1,1,1.0000,-0.0000,1.44680,0.19781,-2.78618,1.01753,1.57079,0.00003,-0.14512,-0.38001,0.03748,,,,,,,,,,,,,,,,,,,,,,,,,,0,0,0,0,0
5.3914,1783185912.9447,1,1,1.0000,-0.0000,1.44680,0.19769,-2.78621,1.01768,1.57079,0.00003,-0.14512,-0.38001,0.03745,,,,,,,,,,,,,,,,,,,,,,,,,,0,0,0,0,0
5.4044,1783185912.9577,1,1,1.0000,-0.0000,1.44680,0.19758,-2.78623,1.01782,1.57079,0.00003,-0.14512,-0.38001,0.03742,,,,,,,,,,,,,,,,,,,,,,,,,,0,0,0,0,0
