Martins-Lucaas/twinforge/sensors/Data/20260704_152904__samples.csv
t_rel_s,t_unix,cycle,phase,setpoint_n,force_net_n,q1,q2,q3,q4,q5,q6,tcp_x,tcp_y,tcp_z,taxel_0,taxel_1,taxel_2,taxel_3,taxel_4,taxel_5,taxel_6,taxel_7,taxel_8,taxel_9,taxel_10,taxel_11,taxel_12,taxel_13,taxel_14,taxel_15,taxel_16,taxel_17,taxel_18,taxel_19,taxel_20,taxel_21,taxel_22,taxel_23,taxel_24,n_RA,n_SA,cn_mm,cn_ra,cn_sa
0.0122,1783189744.7040,1,0,2.0000,0.0000,1.44682,0.23328,-2.77748,0.97337,1.57080,0.00000,-0.14512,-0.38003,0.04653,,,,,,,,,,,,,,,,,,,,,,,,,,0,0,0,0,0
0.0126,1783189744.7043,1,0,2.0000,0.0000,1.44682,0.23328,-2.77748,0.97337,1.57080,0.00000,-0.14512,-0.38003,0.04653,,,,,,,,,,,,,,,,,,,,,,,,,,0,0,0,0,0
0.0210,1783189744.7127,1,0,2.0000,0.0000,1.44682,0.23328,-2.77748,0.97337,1.57080,0.00000,-0.14512,-0.38003,0.04653,,,,,,,,,,,,,,,,,,,,,,,,,,0,0,0,0,0
0.0349,1783189744.7267,1,0,2.0000,0.0000,1.44682,0.23328,-2.77748,0.97337,1.57080,0.00000,-0.14512,-0.38003,0.04653,,,,,,,,,,,,,,,,,,,,,,,,,,0,0,0,0,0
0.0406,1783189744.7323,1,0,2.0000,0.0000,1.44682,0.23328,-2.77748,0.97337,1.57080,0.00000,-0.14512,-0.38003,0.04653,,,,,,,,,,,,,,,,,,,,,,,,,,0,0,0,0,0
0.0514,1783189744.7431,1,0,2.0000,0.0000,1.44682,0.23328,-2.77748,0.97337,1.57080,0.00000,-0.14512,-0.38003,0.04653,,,,,,,,,,,,,,,,,,,,,,,,,,0,0,0,0,0
0.0650,1783189744.7567,1,0,2.0000,0.0000,1.44682,0.23328,-2.77748,0.97337,1.57080,0.00000,-0.14512,-0.38003,0.04653,,,,,,,,,,,,,,,,,,,,,,,,,,0,0,0,0,0
0.0654,1783189744.7572,1,0,2.0000,0.0000,1.44682,0.23328,-2.77748,0.97337,1.57080,0.00000,-0.14512,-0.38003,0.04653,,,,,,,,,,,,,,,,,,,,,,,,,,0,0,0,0,0
0.0701,1783189744.7619,1,0,2.0000,0.0000,1.44682,0.23328,-2.77748,0.97337,1.57080,0.00000,-0.14512,-0.38003,0.04653,,,,,,,,,,,,,,,,,,,,,,,,,,0,0,0,0,0
0.0706,1783189744.7623,1,0,2.0000,0.0000,1.44682,0.23328,-2.77748,0.97337,1.57080,0.00000,-0.14512,-0.38003,0.04653,,,,,,,,,,,,,,,,,,,,,,,,,,0,0,0,0,0
0.0906,1783189744.7823,1,0,2.0000,0.0000,1.44682,0.23328,-2.77748,0.97337,1.57080,0.00000,-0.14512,-0.38003,0.04653,,,,,,,,,,,,,,,,,,,,,,,,,,0,0,0,0,0
0.0912,1783189744.7829,1,0,2.0000,0.0000,1.44682,0.23328,-2.77748,0.97337,1.57080,0.00000,-0.14512,-0.38003,0.04653,,,,,,,,,,,,,,,,,,,,,,,,,,0,0,0,0,0
0.1101,1783189744.8018,1,0,2.0000,0.0000,1.44682,0.23328,-2.77748,0.97337,1.57080,0.00000,-0.14512,-0.38003,0.04653,,,,,,,,,,,,,,,,,,,,,,,,,,0,0,0,0,0
0.1154,1783189744.8071,1,0,2.0000,0.0000,1.44682,0.23328,-2.77748,0.97337,1.57080,0.00000,-0.14512,-0.38003,0.04653,,,,,,,,,,,,,,,,,,,,,,,,,,0,0,0,0,0
0.1159,1783189744.8077,1,0,2.0000,0.0000,1.44682,0.23328,-2.77748,0.97337,1.57080,0.00000,-0.14512,-0.38003,0.04653,,,,,,,,,,,,,,,,,,,,,,,,,,0,0,0,0,0
0.1205,1783189744.8122,1,0,2.0000,0.0000,1.44682,0.23328,-2.77748,0.97337,1.57080,0.00000,-0.14512,-0.38003,0.04653,,,,,,,,,,,,,,,,,,,,,,,,,,0,0,0,0,0
0.1311,1783189744.8228,1,0,2.0000,0.0000,1.44682,0.23328,-2.77748,0.97337,1.57080,0.00000,-0.14512,-0.38003,0.04653,,,,,,,,,,,,,,,,,,,,,,,,,,0,0,0,0,0
0.1402,1783189744.8319,1,0,2.0000,0.0000,1.44682,0.23328,-2.77748,0.97337,1.57080,0.00000,-0.14512,-0.38003,0.04653,,,,,,,,,,,,,,,,,,,,,,,,,,0,0,0,0,0
0.1536,1783189744.8453,1,0,2.0000,0.0000,1.44682,0.23328,-2.77748,0.97337,1.57080,0.00000,-0.14512,-0.38003,0.04653,,,,,,,,,,,,,,,,,,,,,,,,,,0,0,0,0,0
0.1540,1783189744.8457,1,0,2.0000,0.0000,1.44682,0.23328,-2.77748,0.97337,1.57080,0.00000,-0.14512,-0.38003,0.04653,,,,,,,,,,,,,,,,,,,,,,,,,,0,0,0,0,0
0.1603,1783189744.8521,1,0,2.0000,0.0000,1.44682,0.23328,-2.77748,0.97337,1.57080,0.00000,-0.14512,-0.38003,0.04653,,,,,,,,,,,,,,,,,,,,,,,,,,0,0,0,0,0
0.1605,1783189744.8523,1,0,2.0000,0.0000,1.44682,0.23328,-2.77748,0.97337,1.57080,0.00000,-0.14512,-0.38003,0.04653,,,,,,,,,,,,,,,,,,,,,,,,,,0,0,0,0,0
0.1699,1783189744.8616,1,0,2.0000,0.0000,1.44682,0.23328,-2.77748,0.97337,1.57080,0.00000,-0.14512,-0.38003,0.04653,,,,,,,,,,,,,,,,,,,,,,,,,,0,0,0,0,0
0.1800,1783189744.8717,1,0,2.0000,0.0000,1.44682,0.23328,-2.77748,0.97337,1.57080,0.00000,-0.14512,-0.38003,0.04653,,,,,,,,,,,,,,,,,,,,,,,,,,0,0,0,0,0
0.1802,1783189744.8719,1,0,2.0000,0.0000,1.44682,0.23328,-2.77748,0.97337,1.57080,0.00000,-0.14512,-0.38003,0.04653,,,,,,,,,,,,,,,,,,,,,,,,,,0,0,0,0,0
0.1903,1783189744.8821,1,0,2.0000,0.0000,1.44682,0.23328,-2.77748,0.97337,1.57080,0.00000,-0.14512,-0.38003,0.04653,,,,,,,,,,,,,,,,,,,,,,,,,,0,0,0,0,0
0.1908,1783189744.8825,1,0,2.0000,0.0000,1.44682,0.23328,-2.77748,0.97337,1.57080,0.00000,-0.14512,-0.38003,0.04653,,,,,,,,,,,,,,,,,,,,,,,,,,0,0,0,0,0
0.2220,1783189744.9137,1,0,2.0000,0.0000,1.44682,0.23328,-2.77748,0.97337,1.57080,0.00000,-0.14512,-0.38003,0.04653,,,,,,,,,,,,,,,,,,,,,,,,,,0,0,0,0,0
0.2225,1783189744.9142,1,0,2.0000,0.0000,1.44682,0.23328,-2.77748,0.97337,1.57080,0.00000,-0.14512,-0.38003,0.04653,,,,,,,,,,,,,,,,,,,,,,,,,,0,0,0,0,0
0.2305,1783189744.9222,1,0,2.0000,0.0000,1.44682,0.23328,-2.77748,0.97337,1.57080,0.00000,-0.14512,-0.38003,0.04653,,,,,,,,,,,,,,,,,,,,,,,,,,0,0,0,0,0
0.2401,1783189744.9318,1,0,2.0000,0.0000,1.44682,0.23328,-2.77748,0.97337,1.57080,0.00000,-0.14512,-0.38003,0.04653,,,,,,,,,,,,,,,,,,,,,,,,,,0,0,0,0,0
0.2543,1783189744.9460,1,0,2.0000,0.0000,1.44682,0.23328,-2.77748,0.97337,1.57080,0.00000,-0.14512,-0.38003,0.04653,,,,,,,,,,,,,,,,,,,,,,,,,,0,0,0,0,0
0.2621,1783189744.9539,1,0,2.0000,0.0000,1.44682,0.23328,-2.77748,0.97337,1.57080,0.00000,-0.14512,-0.38003,0.04653,,,,,,,,,,,,,,,,,,,,,,,,,,0,0,0,0,0
0.2625,1783189744.9542,1,0,2.0000,0.0000,1.44682,0.23328,-2.77748,0.97337,1.57080,0.00000,-0.14512,-0.38003,0.04653,,,,,,,,,,,,,,,,,,,,,,,,,,0,0,0,0,0
0.2735,1783189744.9652,1,0,2.0000,0.0000,1.44682,0.23328,-2.77748,0.97337,1.57080,0.00000,-0.14512,-0.38003,0.04653,,,,,,,,,,,,,,,,,,,,,,,,,,0,0,0,0,0
0.2832,1783189744.9749,1,0,2.0000,0.0000,1.44682,0.23328,-2.77748,0.97337,1.57080,0.00000,-0.14512,-0.38003,0.04653,,,,,,,,,,,,,,,,,,,,,,,,,,0,0,0,0,0
0.2839,1783189744.9757,1,0,2.0000,0.0000,1.44682,0.23328,-2.77748,0.97337,1.57080,0.00000,-0.14512,-0.38003,0.04653,,,,,,,,,,,,,,,,,,,,,,,,,,0,0,0,0,0
0.2898,1783189744.9816,1,0,2.0000,0.0000,1.44682,0.23328,-2.77748,0.97337,1.57080,0.00000,-0.14512,-0.38003,0.04653,,,,,,,,,,,,,,,,,,,,,,,,,,0,0,0,0,0
0.3008,1783189744.9926,1,0,2.0000,0.0000,1.44682,0.23328,-2.77748,0.97337,1.57080,0.00000,-0.14512,-0.38003,0.04653,,,,,,,,,,,,,,,,,,,,,,,,,,0,0,0,0,0
0.3109,1783189745.0026,1,0,2.0000,0.0000,1.44682,0.23328,-2.77748,0.97337,1.57080,0.00000,-0.14512,-0.38003,0.04653,,,,,,,,,,,,,,,,,,,,,,,,,,0,0,0,0,0
0.3223,1783189745.0141,1,0,2.0000,0.0000,1.44682,0.23328,-2.77748,0.97337,1.57080,0.00000,-0.14512,-0.38003,0.04653,,,,,,,,,,,,,,,,,,,,,,,,,,0,0,0,0,0
0.3317,1783189745.0235,1,0,2.0000,0.0000,1.44682,0.23328,-2.77748,0.97337,1.57080,0.00000,-0.14512,-0.38003,0.04653,,,,,,,,,,,,,,,,,,,,,,,,,,0,0,0,0,0
0.3421,1783189745.0338,1,0,2.0000,0.0000,1.44682,0.23328,-2.77748,0.97337,1.57080,0.00000,-0.14512,-0.38003,0.04653,,,,,,,,,,,,,,,,,,,,,,,,,,0,0,0,0,0
0.3500,1783189745.0418,1,0,2.0000,0.0000,1.44682,0.23328,-2.77748,0.97337,1.57080,0.00000,-0.14512,-0.38003,0.04653,,,,,,,,,,,,,,,,,,,,,,,,,,0,0,0,0,0
0.3654,1783189745.0572,1,0,2.0000,0.0000,1.44682,0.23328,-2.77748,0.97337,1.57080,0.00000,-0.14512,-0.38003,0.04653,,,,,,,,,,,,,,,,,,,,,,,,,,0,0,0,0,0
0.3659,1783189745.0576,1,0,2.0000,0.0000,1.44682,0.23328,-2.77748,0.97337,1.57080,0.00000,-0.14512,-0.38003,0.04653,,,,,,,,,,,,,,,,,,,,,,,,,,0,0,0,0,0
0.3723,1783189745.0641,1,0,2.0000,0.0000,1.44682,0.23328,-2.77748,0.97337,1.57080,0.00000,-0.14512,-0.38003,0.04653,,,,,,,,,,,,,,,,,,,,,,,,,,0,0,0,0,0
0.3841,1783189745.0759,1,0,2.0000,0.0000,1.44682,0.23328,-2.77748,0.97337,1.57080,0.00000,-0.14512,-0.38003,0.04653,,,,,,,,,,,,,,,,,,,,,,,,,,0,0,0,0,0
0.3845,1783189745.0762,1,0,2.0000,0.0000,1.44682,0.23328,-2.77748,0.97337,1.57080,0.00000,-0.14512,-0.38003,0.04653,,,,,,,,,,,,,,,,,,,,,,,,,,0,0,0,0,0
0.3915,1783189745.0832,1,0,2.0000,0.0000,1.44682,0.23328,-2.77748,0.97337,1.57080,0.00000,-0.14512,-0.38003,0.04653,,,,,,,,,,,,,,,,,,,,,,,,,,0,0,0,0,0
0.4015,1783189745.0932,1,0,2.0000,0.0000,1.44682,0.23328,-2.77748,0.97337,1.57080,0.00000,-0.14512,-0.38003,0.04653,,,,,,,,,,,,,,,,,,,,,,,,,,0,0,0,0,0
0.4133,1783189745.1051,1,0,2.0000,0.0000,1.44682,0.23328,-2.77748,0.97337,1.57080,0.00000,-0.14512,-0.38003,0.04653,,,,,,,,,,,,,,,,,,,,,,,,,,0,0,0,0,0
0.4218,1783189745.1135,1,0,2.0000,0.0000,1.44682,0.23328,-2.77748,0.97337,1.57080,0.00000,-0.14512,-0.38003,0.04653,,,,,,,,,,,,,,,,,,,,,,,,,,0,0,0,0,0
0.4221,1783189745.1138,1,0,2.0000,0.0000,1.44682,0.23328,-2.77748,0.97337,1.57080,0.00000,-0.14512,-0.38003,0.04653,,,,,,,,,,,,,,,,,,,,,,,,,,0,0,0,0,0
0.4299,1783189745.1217,1,0,2.0000,0.0000,1.44682,0.23328,-2.77748,0.97337,1.57080,0.00000,-0.14512,-0.38003,0.04653,,,,,,,,,,,,,,,,,,,,,,,,,,0,0,0,0,0
0.4403,1783189745.1320,1,0,2.0000,0.0000,1.44682,0.23328,-2.77748,0.97337,1.57080,0.00000,-0.14512,-0.38003,0.04653,,,,,,,,,,,,,,,,,,,,,,,,,,0,0,0,0,0
0.4405,1783189745.1323,1,0,2.0000,0.0000,1.44682,0.23328,-2.77748,0.97337,1.57080,0.00000,-0.14512,-0.38003,0.04653,,,,,,,,,,,,,,,,,,,,,,,,,,0,0,0,0,0
0.4508,1783189745.1426,1,0,2.0000,0.0000,1.44682,0.23328,-2.77748,0.97337,1.57080,0.00000,-0.14512,-0.38003,0.04653,,,,,,,,,,,,,,,,,,,,,,,,,,0,0,0,0,0
0.4641,1783189745.1558,1,0,2.0000,0.0000,1.44682,0.23328,-2.77748,0.97337,1.57080,0.00000,-0.14512,-0.38003,0.04653,,,,,,,,,,,,,,,,,,,,,,,,,,0,0,0,0,0
0.4645,1783189745.1563,1,0,2.0000,0.0000,1.44682,0.23328,-2.77748,0.97337,1.57080,0.00000,-0.14512,-0.38003,0.04653,,,,,,,,,,,,,,,,,,,,,,,,,,0,0,0,0,0
0.4748,1783189745.1665,1,0,2.0000,0.0000,1.44682,0.23328,-2.77748,0.97337,1.57080,0.00000,-0.14512,-0.38003,0.04653,,,,,,,,,,,,,,,,,,,,,,,,,,0,0,0,0,0
0.4814,1783189745.1732,1,0,2.0000,0.0000,1.44682,0.23328,-2.77748,0.97337,1.57080,0.00000,-0.14512,-0.38003,0.04653,,,,,,,,,,,,,,,,,,,,,,,,,,0,0,0,0,0
0.4902,1783189745.1819,1,0,2.0000,0.0000,1.44682,0.23328,-2.77748,0.97337,1.57080,0.00000,-0.14512,-0.38003,0.04653,,,,,,,,,,,,,,,,,,,,,,,,,,0,0,0,0,0
0.4907,1783189745.1824,1,0,2.0000,0.0000,1.44682,0.23328,-2.77748,0.97337,1.57080,0.00000,-0.14512,-0.38003,0.04653,,,,,,,,,,,,,,,,,,,,,,,,,,0,0,0,0,0
0.5000,1783189745.1917,1,0,2.0000,0.0000,1.44682,0.23328,-2.77748,0.97337,1.57080,0.00000,-0.14512,-0.38003,0.04653,,,,,,,,,,,,,,,,,,,,,,,,,,0,0,0,0,0
0.5003,1783189745.1920,1,0,2.0000,0.0000,1.44682,0.23328,-2.77748,0.97337,1.57080,0.00000,-0.14512,-0.38003,0.04653,,,,,,,,,,,,,,,,,,,,,,,,,,0,0,0,0,0
0.5216,1783189745.2133,1,0,2.0000,0.0000,1.44682,0.23328,-2.77748,0.97337,1.57080,0.00000,-0.14512,-0.38003,0.04653,,,,,,,,,,,,,,,,,,,,,,,,,,0,0,0,0,0
0.5221,1783189745.2138,1,0,2.0000,0.0000,1.44682,0.23328,-2.77748,0.97337,1.57080,0.00000,-0.14512,-0.38003,0.04653,,,,,,,,,,,,,,,,,,,,,,,,,,0,0,0,0,0
0.5298,1783189745.2216,1,0,2.0000,0.0000,1.44682,0.23328,-2.77748,0.97337,1.57080,0.00000,-0.14512,-0.38003,0.04653,,,,,,,,,,,,,,,,,,,,,,,,,,0,0,0,0,0
0.5443,1783189745.2360,1,0,2.0000,0.0000,1.44682,0.23328,-2.77748,0.97337,1.57080,0.00000,-0.14512,-0.38003,0.04653,,,,,,,,,,,,,,,,,,,,,,,,,,0,0,0,0,0
0.5497,1783189745.2415,1,0,2.0000,0.0000,1.44682,0.23328,-2.77748,0.97337,1.57080,0.00000,-0.14512,-0.38003,0.04653,,,,,,,,,,,,,,,,,,,,,,,,,,0,0,0,0,0
0.5634,1783189745.2551,1,0,2.0000,0.0000,1.44682,0.23328,-2.77748,0.97337,1.57080,0.00000,-0.14512,-0.38003,0.04653,,,,,,,,,,,,,,,,,,,,,,,,,,0,0,0,0,0
0.5698,1783189745.2616,1,0,2.0000,0.0000,1.44682,0.23328,-2.77748,0.97337,1.57080,0.00000,-0.14512,-0.38003,0.04653,,,,,,,,,,,,,,,,,,,,,,,,,,0,0,0,0,0
0.5703,1783189745.2620,1,0,2.0000,0.0000,1.44682,0.23328,-2.77748,0.97337,1.57080,0.00000,-0.14512,-0.38003,0.04653,,,,,,,,,,,,,,,,,,,,,,,,,,0,0,0,0,0
0.5800,1783189745.2717,1,0,2.0000,0.0000,1.44682,0.23328,-2.77748,0.97337,1.57080,0.00000,-0.14512,-0.38003,0.04653,,,,,,,,,,,,,,,,,,,,,,,,,,0,0,0,0,0
0.5898,1783189745.2816,1,0,2.0000,0.0000,1.44682,0.23328,-2.77748,0.97337,1.57080,0.00000,-0.14512,-0.38003,0.04653,,,,,,,,,,,,,,,,,,,,,,,,,,0,0,0,0,0
0.6002,1783189745.2919,1,0,2.0000,0.0000,1.44682,0.23328,-2.77748,0.97337,1.57080,0.00000,-0.14512,-0.38003,0.04653,,,,,,,,,,,,,,,,,,,,,,,,,,0,0,0,0,0
0.6243,1783189745.3160,1,0,2.0000,0.0000,1.44682,0.23328,-2.77748,0.97337,1.57080,0.00000,-0.14512,-0.38003,0.04653,,,,,,,,,,,,,,,,,,,,,,,,,,0,0,0,0,0
0.6251,1783189745.3168,1,0,2.0000,0.0000,1.44682,0.23328,-2.77748,0.97337,1.57080,0.00000,-0.14512,-0.38003,0.04653,,,,,,,,,,,,,,,,,,,,,,,,,,0,0,0,0,0
0.6314,1783189745.3232,1,0,2.0000,0.0000,1.44682,0.23328,-2.77748,0.97337,1.57080,0.00000,-0.14512,-0.38003,0.04653,,,,,,,,,,,,,,,,,,,,,,,,,,0,0,0,0,0
0.6323,1783189745.3240,1,0,2.0000,0.0000,1.44682,0.23328,-2.77748,0.97337,1.57080,0.00000,-0.14512,-0.38003,0.04653,,,,,,,,,,,,,,,,,,,,,,,,,,0,0,0,0,0
0.6408,1783189745.3325,1,0,2.0000,0.0000,1.44682,0.23328,-2.77748,0.97337,1.57080,0.00000,-0.14512,-0.38003,0.04653,,,,,,,,,,,,,,,,,,,,,,,,,,0,0,0,0,0
0.6502,1783189745.3419,1,0,2.0000,0.0000,1.44682,0.23328,-2.77748,0.97337,1.57080,0.00000,-0.14512,-0.38003,0.04653,,,,,,,,,,,,,,,,,,,,,,,,,,0,0,0,0,0
0.6635,1783189745.3552,1,0,2.0000,0.0000,1.44682,0.23328,-2.77748,0.97337,1.57080,0.00000,-0.14512,-0.38003,0.04653,,,,,,,,,,,,,,,,,,,,,,,,,,0,0,0,0,0
0.6722,1783189745.3640,1,0,2.0000,0.0000,1.44682,0.23328,-2.77748,0.97337,1.57080,0.00000,-0.14512,-0.38003,0.04653,,,,,,,,,,,,,,,,,,,,,,,,,,0,0,0,0,0
0.6725,1783189745.3643,1,0,2.0000,0.0000,1.44682,0.23328,-2.77748,0.97337,1.57080,0.00000,-0.14512,-0.38003,0.04653,,,,,,,,,,,,,,,,,,,,,,,,,,0,0,0,0,0
0.6820,1783189745.3737,1,0,2.0000,0.0000,1.44682,0.23328,-2.77748,0.97337,1.57080,0.00000,-0.14512,-0.38003,0.04653,,,,,,,,,,,,,,,,,,,,,,,,,,0,0,0,0,0
0.6823,1783189745.3740,1,0,2.0000,0.0000,1.44682,0.23328,-2.77748,0.97337,1.57080,0.00000,-0.14512,-0.38003,0.04653,,,,,,,,,,,,,,,,,,,,,,,,,,0,0,0,0,0
0.6918,1783189745.3835,1,0,2.0000,0.0000,1.44682,0.23328,-2.77748,0.97337,1.57080,0.00000,-0.14512,-0.38003,0.04653,,,,,,,,,,,,,,,,,,,,,,,,,,0,0,0,0,0
0.6924,1783189745.3842,1,0,2.0000,0.0000,1.44682,0.23328,-2.77748,0.97337,1.57080,0.00000,-0.14512,-0.38003,0.04653,,,,,,,,,,,,,,,,,,,,,,,,,,0,0,0,0,0
0.7046,1783189745.3963,1,0,2.0000,0.0000,1.44682,0.23328,-2.77748,0.97337,1.57080,0.00000,-0.14512,-0.38003,0.04653,,,,,,,,,,,,,,,,,,,,,,,,,,0,0,0,0,0
0.7105,1783189745.4022,1,0,2.0000,0.0000,1.44682,0.23328,-2.77748,0.97337,1.57080,0.00000,-0.14512,-0.38003,0.04653,,,,,,,,,,,,,,,,,,,,,,,,,,0,0,0,0,0
0.7201,1783189745.4118,1,0,2.0000,0.0000,1.44682,0.23328,-2.77748,0.97337,1.57080,0.00000,-0.14512,-0.38003,0.04653,,,,,,,,,,,,,,,,,,,,,,,,,,0,0,0,0,0
0.7312,1783189745.4230,1,1,2.0000,0.0000,1.44682,0.23328,-2.77748,0.97337,1.57080,0.00000,-0.14512,-0.38003,0.04653,,,,,,,,,,,,,,,,,,,,,,,,,,0,0,0,0,0
0.7319,1783189745.4237,1,1,2.0000,0.0000,1.44682,0.23328,-2.77748,0.97337,1.57080,0.00000,-0.14512,-0.38003,0.04653,,,,,,,,,,,,,,,,,,,,,,,,,,0,0,0,0,0
0.7402,1783189745.4319,1,1,2.0000,0.0000,1.44682,0.23328,-2.77748,0.97337,1.57080,0.00000,-0.14512,-0.38003,0.04653,,,,,,,,,,,,,,,,,,,,,,,,,,0,0,0,0,0
0.7536,1783189745.4454,1,1,2.0000,0.0000,1.44682,0.23328,-2.77748,0.97337,1.57080,0.00000,-0.14512,-0.38003,0.04653,,,,,,,,,,,,,,,,,,,,,,,,,,0,0,0,0,0
0.7683,1783189745.4600,1,1,2.0000,0.0000,1.44682,0.23328,-2.77748,0.97337,1.57080,0.00000,-0.14512,-0.38003,0.04653,,,,,,,,,,,,,,,,,,,,,,,,,,0,0,0,0,0
0.7760,1783189745.4677,1,1,2.0000,0.0000,1.44682,0.23328,-2.77748,0.97337,1.57080,0.00000,-0.14512,-0.38003,0.04653,,,,,,,,,,,,,,,,,,,,,,,,,,0,0,0,0,0
0.7764,1783189745.4682,1,1,2.0000,0.0000,1.44682,0.23328,-2.77748,0.97337,1.57080,0.00000,-0.14512,-0.38003,0.04653,,,,,,,,,,,,,,,,,,,,,,,,,,0,0,0,0,0
0.7861,1783189745.4778,1,1,2.0000,0.0000,1.44682,0.23328,-2.77748,0.97337,1.57080,0.00000,-0.14512,-0.38003,0.04653,,,,,,,,,,,,,,,,,,,,,,,,,,0,0,0,0,0
0.7897,1783189745.4814,1,1,2.0000,0.0000,1.44682,0.23328,-2.77748,0.97337,1.57080,0.00000,-0.14512,-0.38003,0.04653,,,,,,,,,,,,,,,,,,,,,,,,,,0,0,0,0,0
0.7899,1783189745.4817,1,1,2.0000,0.0000,1.44682,0.23328,-2.77748,0.97337,1.57080,0.00000,-0.14512,-0.38003,0.04653,,,,,,,,,,,,,,,,,,,,,,,,,,0,0,0,0,0
0.8032,1783189745.4949,1,1,2.0000,0.0000,1.44682,0.23328,-2.77748,0.97337,1.57080,0.00000,-0.14512,-0.38003,0.04653,,,,,,,,,,,,,,,,,,,,,,,,,,0,0,0,0,0
0.8099,1783189745.5016,1,1,2.0000,0.0000,1.44682,0.23328,-2.77748,0.97337,1.57080,0.00000,-0.14512,-0.38003,0.04653,,,,,,,,,,,,,,,,,,,,,,,,,,0,0,0,0,0
0.8240,1783189745.5158,1,1,2.0000,0.0000,1.44682,0.23328,-2.77748,0.97337,1.57080,0.00000,-0.14512,-0.38003,0.04653,,,,,,,,,,,,,,,,,,,,,,,,,,0,0,0,0,0
0.8298,1783189745.5215,1,1,2.0000,0.0000,1.44682,0.23328,-2.77748,0.97337,1.57080,0.00000,-0.14512,-0.38003,0.04653,,,,,,,,,,,,,,,,,,,,,,,,,,0,0,0,0,0
0.8399,1783189745.5317,1,1,2.0000,0.0000,1.44682,0.23328,-2.77748,0.97337,1.57080,0.00000,-0.14512,-0.38003,0.04653,,,,,,,,,,,,,,,,,,,,,,,,,,0,0,0,0,0
0.8401,1783189745.5318,1,1,2.0000,0.0000,1.44682,0.23328,-2.77748,0.97337,1.57080,0.00000,-0.14512,-0.38003,0.04653,,,,,,,,,,,,,,,,,,,,,,,,,,0,0,0,0,0
0.8518,1783189745.5435,1,1,2.0000,0.0000,1.44682,0.23328,-2.77748,0.97337,1.57080,0.00000,-0.14512,-0.38003,0.04653,,,,,,,,,,,,,,,,,,,,,,,,,,0,0,0,0,0
0.8609,1783189745.5527,1,1,2.0000,0.0000,1.44682,0.23328,-2.77748,0.97337,1.57080,0.00000,-0.14512,-0.38003,0.04653,,,,,,,,,,,,,,,,,,,,,,,,,,0,0,0,0,0
0.8612,1783189745.5530,1,1,2.0000,0.0000,1.44682,0.23328,-2.77748,0.97337,1.57080,0.00000,-0.14512,-0.38003,0.04653,,,,,,,,,,,,,,,,,,,,,,,,,,0,0,0,0,0
0.8726,1783189745.5644,1,1,2.0000,0.0000,1.44682,0.23328,-2.77748,0.97337,1.57080,0.00000,-0.14512,-0.38003,0.04653,,,,,,,,,,,,,,,,,,,,,,,,,,0,0,0,0,0
0.8860,1783189745.5778,1,1,2.0000,0.0000,1.44682,0.23328,-2.77748,0.97337,1.57080,0.00000,-0.14512,-0.38003,0.04653,,,,,,,,,,,,,,,,,,,,,,,,,,0,0,0,0,0
0.8905,1783189745.5822,1,1,2.0000,0.0000,1.44682,0.23328,-2.77748,0.97337,1.57080,0.00000,-0.14512,-0.38003,0.04653,,,,,,,,,,,,,,,,,,,,,,,,,,0,0,0,0,0
0.9002,1783189745.5919,1,1,2.0000,0.0000,1.44682,0.23328,-2.77748,0.97337,1.57080,0.00000,-0.14512,-0.38003,0.04653,,,,,,,,,,,,,,,,,,,,,,,,,,0,0,0,0,0
0.9155,1783189745.6073,1,1,2.0000,0.0000,1.44682,0.23328,-2.77748,0.97337,1.57080,0.00000,-0.14512,-0.38003,0.04653,,,,,,,,,,,,,,,,,,,,,,,,,,0,0,0,0,0
0.9244,1783189745.6161,1,1,2.0000,0.0000,1.44682,0.23326,-2.77748,0.97339,1.57080,0.00000,-0.14512,-0.38003,0.04652,,,,,,,,,,,,,,,,,,,,,,,,,,0,0,0,0,0
0.9300,1783189745.6217,1,1,2.0000,0.0000,1.44682,0.23322,-2.77749,0.97344,1.57080,0.00000,-0.14512,-0.38003,0.04651,,,,,,,,,,,,,,,,,,,,,,,,,,0,0,0,0,0
0.9409,1783189745.6326,1,1,2.0000,0.0000,1.44682,0.23301,-2.77755,0.97371,1.57080,0.00000,-0.14512,-0.38003,0.04646,,,,,,,,,,,,,,,,,,,,,,,,,,0,0,0,0,0
0.9499,1783189745.6416,1,1,2.0000,0.0000,1.44682,0.23285,-2.77759,0.97390,1.57080,0.00000,-0.14512,-0.38003,0.04642,,,,,,,,,,,,,,,,,,,,,,,,,,0,0,0,0,0
0.9603,1783189745.6520,1,1,2.0000,0.0000,1.44682,0.23282,-2.77759,0.97394,1.57080,0.00000,-0.14512,-0.38003,0.04641,,,,,,,,,,,,,,,,,,,,,,,,,,0,0,0,0,0
0.9731,1783189745.6648,1,1,2.0000,0.0000,1.44682,0.23270,-2.77763,0.97410,1.57080,0.00000,-0.14512,-0.38003,0.04638,,,,,,,,,,,,,,,,,,,,,,,,,,0,0,0,0,0
0.9800,1783189745.6717,1,1,2.0000,0.0000,1.44682,0.23264,-2.77764,0.97417,1.57080,0.00000,-0.14512,-0.38003,0.04636,,,,,,,,,,,,,,,,,,,,,,,,,,0,0,0,0,0
0.9924,1783189745.6841,1,1,2.0000,0.0000,1.44682,0.23254,-2.77767,0.97429,1.57080,0.00000,-0.14512,-0.38003,0.04634,,,,,,,,,,,,,,,,,,,,,,,,,,0,0,0,0,0
1.0029,1783189745.6946,1,1,2.0000,0.0000,1.44682,0.23241,-2.77770,0.97446,1.57080,0.00000,-0.14512,-0.38003,0.04630,,,,,,,,,,,,,,,,,,,,,,,,,,0,0,0,0,0
1.0106,1783189745.7024,1,1,2.0000,0.0000,1.44682,0.23227,-2.77774,0.97464,1.57080,0.00000,-0.14512,-0.38003,0.04626,,,,,,,,,,,,,,,,,,,,,,,,,,0,0,0,0,0
1.0300,1783189745.7218,1,1,2.0000,0.0000,1.44682,0.23216,-2.77777,0.97478,1.57080,0.00000,-0.14512,-0.38003,0.04623,,,,,,,,,,,,,,,,,,,,,,,,,,0,0,0,0,0
1.0306,1783189745.7223,1,1,2.0000,0.0000,1.44682,0.23216,-2.77777,0.97478,1.57080,0.00000,-0.14512,-0.38003,0.04623,,,,,,,,,,,,,,,,,,,,,,,,,,0,0,0,0,0
1.0308,1783189745.7226,1,1,2.0000,0.0000,1.44682,0.23216,-2.77777,0.97478,1.57080,0.00000,-0.14512,-0.38003,0.04623,,,,,,,,,,,,,,,,,,,,,,,,,,0,0,0,0,0
1.0400,1783189745.7317,1,1,2.0000,0.0000,1.44682,0.23204,-2.77779,0.97492,1.57080,0.00000,-0.14512,-0.38003,0.04621,,,,,,,,,,,,,,,,,,,,,,,,,,0,0,0,0,0
1.0403,1783189745.7321,1,1,2.0000,0.0000,1.44682,0.23204,-2.77779,0.97492,1.57080,0.00000,-0.14512,-0.38003,0.04621,,,,,,,,,,,,,,,,,,,,,,,,,,0,0,0,0,0
1.0515,1783189745.7433,1,1,2.0000,0.0000,1.44682,0.23200,-2.77781,0.97498,1.57080,0.00000,-0.14512,-0.38003,0.04619,,,,,,,,,,,,,,,,,,,,,,,,,,0,0,0,0,0
1.0521,1783189745.7439,1,1,2.0000,0.0000,1.44682,0.23195,-2.77782,0.97504,1.57080,0.00000,-0.14512,-0.38003,0.04618,,,,,,,,,,,,,,,,,,,,,,,,,,0,0,0,0,0
1.0739,1783189745.7656,1,1,2.0000,0.0000,1.44682,0.23168,-2.77789,0.97538,1.57080,0.00000,-0.14512,-0.38003,0.04611,,,,,,,,,,,,,,,,,,,,,,,,,,0,0,0,0,0
1.0749,1783189745.7667,1,1,2.0000,0.0000,1.44682,0.23168,-2.77789,0.97538,1.57080,0.00000,-0.14512,-0.38003,0.04611,,,,,,,,,,,,,,,,,,,,,,,,,,0,0,0,0,0
1.0753,1783189745.7670,1,1,2.0000,0.0000,1.44682,0.23168,-2.77789,0.97538,1.57080,0.00000,-0.14512,-0.38003,0.04611,,,,,,,,,,,,,,,,,,,,,,,,,,0,0,0,0,0
1.0820,1783189745.7738,1,1,2.0000,0.0000,1.44682,0.23165,-2.77790,0.97542,1.57080,0.00000,-0.14512,-0.38003,0.04610,,,,,,,,,,,,,,,,,,,,,,,,,,0,0,0,0,0
1.0898,1783189745.7816,1,1,2.0000,0.0000,1.44682,0.23156,-2.77792,0.97553,1.57080,0.00000,-0.14512,-0.38003,0.04608,,,,,,,,,,,,,,,,,,,,,,,,,,0,0,0,0,0
1.1001,1783189745.7919,1,1,2.0000,0.0000,1.44682,0.23145,-2.77795,0.97567,1.57080,0.00000,-0.14512,-0.38003,0.04605,,,,,,,,,,,,,,,,,,,,,,,,,,0,0,0,0,0
1.1150,1783189745.8068,1,1,2.0000,0.0000,1.44682,0.23135,-2.77797,0.97579,1.57080,0.00000,-0.14512,-0.38003,0.04602,,,,,,,,,,,,,,,,,,,,,,,,,,0,0,0,0,0
1.1154,1783189745.8071,1,1,2.0000,0.0000,1.44682,0.23135,-2.77797,0.97579,1.57080,0.00000,-0.14512,-0.38003,0.04602,,,,,,,,,,,,,,,,,,,,,,,,,,0,0,0,0,0
1.1320,1783189745.8237,1,1,2.0000,0.0000,1.44682,0.23108,-2.77804,0.97613,1.57080,0.00000,-0.14512,-0.38003,0.04595,,,,,,,,,,,,,,,,,,,,,,,,,,0,0,0,0,0
1.1425,1783189745.8343,1,1,2.0000,0.0000,1.44682,0.23104,-2.77805,0.97618,1.57080,0.00000,-0.14512,-0.38003,0.04594,,,,,,,,,,,,,,,,,,,,,,,,,,0,0,0,0,0
1.1429,1783189745.8346,1,1,2.0000,0.0000,1.44682,0.23104,-2.77805,0.97618,1.57080,0.00000,-0.14512,-0.38003,0.04594,,,,,,,,,,,,,,,,,,,,,,,,,,0,0,0,0,0
1.1432,1783189745.8349,1,1,2.0000,0.0000,1.44682,0.23104,-2.77805,0.97618,1.57080,0.00000,-0.14512,-0.38003,0.04594,,,,,,,,,,,,,,,,,,,,,,,,,,0,0,0,0,0
1.1510,1783189745.8427,1,1,2.0000,0.0000,1.44682,0.23093,-2.77808,0.97632,1.57080,0.00000,-0.14512,-0.38003,0.04591,,,,,,,,,,,,,,,,,,,,,,,,,,0,0,0,0,0
1.1622,1783189745.8539,1,1,2.0000,0.0000,1.44682,0.23079,-2.77812,0.97649,1.57080,0.00000,-0.14512,-0.38003,0.04588,,,,,,,,,,,,,,,,,,,,,,,,,,0,0,0,0,0
1.1760,1783189745.8677,1,1,2.0000,0.0000,1.44682,0.23064,-2.77816,0.97669,1.57080,0.00000,-0.14512,-0.38003,0.04584,,,,,,,,,,,,,,,,,,,,,,,,,,0,0,0,0,0
1.1849,1783189745.8767,1,1,2.0000,0.0000,1.44682,0.23050,-2.77819,0.97686,1.57080,0.00000,-0.14512,-0.38003,0.04580,,,,,,,,,,,,,,,,,,,,,,,,,,0,0,0,0,0
1.1933,1783189745.8850,1,1,2.0000,0.0000,1.44682,0.23044,-2.77821,0.97694,1.57080,0.00000,-0.14512,-0.38003,0.04579,,,,,,,,,,,,,,,,,,,,,,,,,,0,0,0,0,0
1.2002,1783189745.8920,1,1,2.0000,0.0000,1.44682,0.23039,-2.77822,0.97700,1.57080,0.00000,-0.14512,-0.38003,0.04577,,,,,,,,,,,,,,,,,,,,,,,,,,0,0,0,0,0
1.2121,1783189745.9039,1,1,2.0000,0.0000,1.44682,0.23021,-2.77827,0.97722,1.57080,0.00000,-0.14512,-0.38003,0.04573,,,,,,,,,,,,,,,,,,,,,,,,,,0,0,0,0,0
1.2214,1783189745.9132,1,1,2.0000,0.0000,1.44682,0.23014,-2.77828,0.97731,1.57080,0.00000,-0.14512,-0.38003,0.04571,,,,,,,,,,,,,,,,,,,,,,,,,,0,0,0,0,0
1.2351,1783189745.9268,1,1,2.0000,0.0000,1.44682,0.23005,-2.77831,0.97742,1.57080,0.00000,-0.14512,-0.38003,0.04569,,,,,,,,,,,,,,,,,,,,,,,,,,0,0,0,0,0
1.2433,1783189745.9351,1,1,2.0000,0.0000,1.44682,0.22992,-2.77834,0.97758,1.57080,0.00000,-0.14512,-0.38003,0.04565,,,,,,,,,,,,,,,,,,,,,,,,,,0,0,0,0,0
1.2513,1783189745.9430,1,1,2.0000,0.0000,1.44682,0.22979,-2.77837,0.97776,1.57080,0.00000,-0.14512,-0.38003,0.04562,,,,,,,,,,,,,,,,,,,,,,,,,,0,0,0,0,0
1.2624,1783189745.9542,1,1,2.0000,0.0000,1.44682,0.22974,-2.77839,0.97781,1.57080,0.00000,-0.14512,-0.38003,0.04560,,,,,,,,,,,,,,,,,,,,,,,,,,0,0,0,0,0
1.2714,1783189745.9631,1,1,2.0000,0.0000,1.44682,0.22963,-2.77841,0.97795,1.57080,0.00000,-0.14512,-0.38003,0.04558,,,,,,,,,,,,,,,,,,,,,,,,,,0,0,0,0,0
1.2807,1783189745.9725,1,1,2.0000,0.0000,1.44682,0.22950,-2.77845,0.97812,1.57080,0.00000,-0.14512,-0.38003,0.04554,,,,,,,,,,,,,,,,,,,,,,,,,,0,0,0,0,0
1.2811,1783189745.9729,1,1,2.0000,0.0000,1.44682,0.22950,-2.77845,0.97812,1.57080,0.00000,-0.14512,-0.38003,0.04554,,,,,,,,,,,,,,,,,,,,,,,,,,0,0,0,0,0
1.2952,1783189745.9869,1,1,2.0000,0.0000,1.44682,0.22940,-2.77847,0.97824,1.57080,0.00000,-0.14512,-0.38003,0.04552,,,,,,,,,,,,,,,,,,,,,,,,,,0,0,0,0,0
1.3021,1783189745.9938,1,1,2.0000,0.0000,1.44682,0.22927,-2.77851,0.97840,1.57080,0.00000,-0.14512,-0.38003,0.04548,,,,,,,,,,,,,,,,,,,,,,,,,,0,0,0,0,0
1.3025,1783189745.9942,1,1,2.0000,0.0000,1.44682,0.22927,-2.77851,0.97840,1.57080,0.00000,-0.14512,-0.38003,0.04548,,,,,,,,,,,,,,,,,,,,,,,,,,0,0,0,0,0
1.3131,1783189746.0049,1,1,2.0000,0.0000,1.44682,0.22914,-2.77854,0.97857,1.57080,0.00000,-0.14512,-0.38003,0.04545,,,,,,,,,,,,,,,,,,,,,,,,,,0,0,0,0,0
1.3201,1783189746.0118,1,1,2.0000,0.0000,1.44682,0.22909,-2.77855,0.97863,1.57080,0.00000,-0.14512,-0.38003,0.04544,,,,,,,,,,,,,,,,,,,,,,,,,,0,0,0,0,0
1.3437,1783189746.0354,1,1,2.0000,0.0000,1.44682,0.22885,-2.77862,0.97894,1.57080,0.00000,-0.14512,-0.38003,0.04537,,,,,,,,,,,,,,,,,,,,,,,,,,0,0,0,0,0
1.3441,1783189746.0358,1,1,2.0000,0.0000,1.44682,0.22883,-2.77862,0.97895,1.57080,0.00000,-0.14512,-0.38003,0.04537,,,,,,,,,,,,,,,,,,,,,,,,,,0,0,0,0,0
1.3520,1783189746.0437,1,1,2.0000,0.0000,1.44682,0.22875,-2.77864,0.97906,1.57080,0.00000,-0.14512,-0.38003,0.04535,,,,,,,,,,,,,,,,,,,,,,,,,,0,0,0,0,0
1.3648,1783189746.0565,1,1,2.0000,0.0000,1.44682,0.22856,-2.77869,0.97930,1.57080,0.00000,-0.14512,-0.38003,0.04530,,,,,,,,,,,,,,,,,,,,,,,,,,0,0,0,0,0
1.3714,1783189746.0631,1,1,2.0000,0.0000,1.44682,0.22849,-2.77871,0.97939,1.57080,0.00000,-0.14512,-0.38003,0.04528,,,,,,,,,,,,,,,,,,,,,,,,,,0,0,0,0,0
1.3721,1783189746.0638,1,1,2.0000,0.0000,1.44682,0.22849,-2.77871,0.97939,1.57080,0.00000,-0.14512,-0.38003,0.04528,,,,,,,,,,,,,,,,,,,,,,,,,,0,0,0,0,0
1.3841,1783189746.0758,1,1,2.0000,0.0000,1.44682,0.22839,-2.77873,0.97951,1.57080,0.00000,-0.14512,-0.38003,0.04525,,,,,,,,,,,,,,,,,,,,,,,,,,0,0,0,0,0
1.3844,1783189746.0761,1,1,2.0000,0.0000,1.44682,0.22839,-2.77873,0.97951,1.57080,0.00000,-0.14512,-0.38003,0.04525,,,,,,,,,,,,,,,,,,,,,,,,,,0,0,0,0,0
1.4027,1783189746.0944,1,1,2.0000,0.0000,1.44682,0.22819,-2.77878,0.97976,1.57080,0.00000,-0.14512,-0.38003,0.04520,,,,,,,,,,,,,,,,,,,,,,,,,,0,0,0,0,0
1.4030,1783189746.0948,1,1,2.0000,0.0000,1.44682,0.22819,-2.77878,0.97976,1.57080,0.00000,-0.14512,-0.38003,0.04520,,,,,,,,,,,,,,,,,,,,,,,,,,0,0,0,0,0
1.4099,1783189746.1016,1,1,2.0000,0.0000,1.44682,0.22815,-2.77879,0.97981,1.57080,0.00000,-0.14512,-0.38003,0.04519,,,,,,,,,,,,,,,,,,,,,,,,,,0,0,0,0,0
1.4212,1783189746.1130,1,1,2.0000,0.0000,1.44682,0.22797,-2.77884,0.98003,1.57080,0.00000,-0.14512,-0.38003,0.04514,,,,,,,,,,,,,,,,,,,,,,,,,,0,0,0,0,0
1.4215,1783189746.1132,1,1,2.0000,0.0000,1.44682,0.22797,-2.77884,0.98003,1.57080,0.00000,-0.14512,-0.38003,0.04514,,,,,,,,,,,,,,,,,,,,,,,,,,0,0,0,0,0
1.4365,1783189746.1282,1,1,2.0000,0.0000,1.44682,0.22782,-2.77888,0.98022,1.57080,0.00000,-0.14512,-0.38003,0.04511,,,,,,,,,,,,,,,,,,,,,,,,,,0,0,0,0,0
1.4429,1783189746.1347,1,1,2.0000,0.0000,1.44682,0.22779,-2.77888,0.98026,1.57080,0.00000,-0.14512,-0.38003,0.04510,,,,,,,,,,,,,,,,,,,,,,,,,,0,0,0,0,0
1.4508,1783189746.1425,1,1,2.0000,0.0000,1.44682,0.22768,-2.77891,0.98040,1.57080,0.00000,-0.14512,-0.38003,0.04507,,,,,,,,,,,,,,,,,,,,,,,,,,0,0,0,0,0
1.4604,1783189746.1521,1,1,2.0000,0.0000,1.44682,0.22748,-2.77896,0.98066,1.57080,0.00000,-0.14512,-0.38003,0.04502,,,,,,,,,,,,,,,,,,,,,,,,,,0,0,0,0,0
1.4608,1783189746.1525,1,1,2.0000,0.0000,1.44682,0.22748,-2.77896,0.98066,1.57080,0.00000,-0.14512,-0.38003,0.04502,,,,,,,,,,,,,,,,,,,,,,,,,,0,0,0,0,0
1.4612,1783189746.1529,1,1,2.0000,0.0000,1.44682,0.22748,-2.77896,0.98066,1.57080,0.00000,-0.14512,-0.38003,0.04502,,,,,,,,,,,,,,,,,,,,,,,,,,0,0,0,0,0
1.4709,1783189746.1626,1,1,2.0000,0.0000,1.44682,0.22747,-2.77897,0.98067,1.57080,0.00000,-0.14512,-0.38003,0.04501,,,,,,,,,,,,,,,,,,,,,,,,,,0,0,0,0,0
1.4933,1783189746.1850,1,1,2.0000,0.0000,1.44682,0.22725,-2.77902,0.98095,1.57080,0.00000,-0.14512,-0.38003,0.04496,,,,,,,,,,,,,,,,,,,,,,,,,,0,0,0,0,0
1.5049,1783189746.1966,1,1,2.0000,0.0000,1.44682,0.22715,-2.77905,0.98107,1.57080,0.00000,-0.14512,-0.38003,0.04493,,,,,,,,,,,,,,,,,,,,,,,,,,0,0,0,0,0
1.5053,1783189746.1970,1,1,2.0000,0.0000,1.44682,0.22715,-2.77905,0.98107,1.57080,0.00000,-0.14512,-0.38003,0.04493,,,,,,,,,,,,,,,,,,,,,,,,,,0,0,0,0,0
1.5058,1783189746.1975,1,1,2.0000,0.0000,1.44682,0.22715,-2.77905,0.98107,1.57080,0.00000,-0.14512,-0.38003,0.04493,,,,,,,,,,,,,,,,,,,,,,,,,,0,0,0,0,0
1.5194,1783189746.2112,1,1,2.0000,0.0000,1.44682,0.22695,-2.77910,0.98132,1.57080,0.00001,-0.14512,-0.38003,0.04488,,,,,,,,,,,,,,,,,,,,,,,,,,0,0,0,0,0
1.5238,1783189746.2155,1,1,2.0000,0.0000,1.44682,0.22688,-2.77912,0.98141,1.57080,0.00001,-0.14512,-0.38003,0.04486,,,,,,,,,,,,,,,,,,,,,,,,,,0,0,0,0,0
1.5502,1783189746.2419,1,1,2.0000,0.0000,1.44682,0.22665,-2.77917,0.98169,1.57080,0.00001,-0.14512,-0.38003,0.04480,,,,,,,,,,,,,,,,,,,,,,,,,,0,0,0,0,0
1.5545,1783189746.2463,1,1,2.0000,0.0000,1.44682,0.22665,-2.77917,0.98169,1.57080,0.00001,-0.14512,-0.38003,0.04480,,,,,,,,,,,,,,,,,,,,,,,,,,0,0,0,0,0
1.5549,1783189746.2466,1,1,2.0000,0.0000,1.44682,0.22665,-2.77917,0.98169,1.57080,0.00001,-0.14512,-0.38003,0.04480,,,,,,,,,,,,,,,,,,,,,,,,,,0,0,0,0,0
1.5688,1783189746.2605,1,1,2.0000,0.0000,1.44682,0.22649,-2.77921,0.98189,1.57080,0.00001,-0.14512,-0.38003,0.04476,,,,,,,,,,,,,,,,,,,,,,,,,,0,0,0,0,0
1.5691,1783189746.2608,1,1,2.0000,0.0000,1.44682,0.22649,-2.77921,0.98189,1.57080,0.00001,-0.14512,-0.38003,0.04476,,,,,,,,,,,,,,,,,,,,,,,,,,0,0,0,0,0
1.5724,1783189746.2642,1,1,2.0000,0.0000,1.44682,0.22642,-2.77923,0.98198,1.57080,0.00001,-0.14512,-0.38003,0.04474,,,,,,,,,,,,,,,,,,,,,,,,,,0,0,0,0,0
1.5728,1783189746.2645,1,1,2.0000,0.0000,1.44682,0.22642,-2.77923,0.98198,1.57080,0.00001,-0.14512,-0.38003,0.04474,,,,,,,,,,,,,,,,,,,,,,,,,,0,0,0,0,0
1.5850,1783189746.2767,1,1,2.0000,0.0000,1.44682,0.22628,-2.77927,0.98216,1.57080,0.00001,-0.14512,-0.38003,0.04470,,,,,,,,,,,,,,,,,,,,,,,,,,0,0,0,0,0
1.6012,1783189746.2929,1,1,2.0000,0.0000,1.44682,0.22616,-2.77930,0.98230,1.57080,0.00001,-0.14512,-0.38003,0.04467,,,,,,,,,,,,,,,,,,,,,,,,,,0,0,0,0,0
1.6053,1783189746.2970,1,1,2.0000,0.0000,1.44682,0.22611,-2.77931,0.98237,1.57080,0.00001,-0.14512,-0.38003,0.04466,,,,,,,,,,,,,,,,,,,,,,,,,,0,0,0,0,0
1.6139,1783189746.3056,1,1,2.0000,0.0000,1.44682,0.22605,-2.77933,0.98244,1.57080,0.00001,-0.14512,-0.38003,0.04465,,,,,,,,,,,,,,,,,,,,,,,,,,0,0,0,0,0
1.6226,1783189746.3144,1,1,2.0000,0.0000,1.44682,0.22600,-2.77934,0.98250,1.57080,0.00001,-0.14512,-0.38003,0.04463,,,,,,,,,,,,,,,,,,,,,,,,,,0,0,0,0,0
1.6230,1783189746.3147,1,1,2.0000,0.0000,1.44682,0.22600,-2.77934,0.98250,1.57080,0.00001,-0.14512,-0.38003,0.04463,,,,,,,,,,,,,,,,,,,,,,,,,,0,0,0,0,0
1.6504,1783189746.3422,1,1,2.0000,0.0000,1.44682,0.22567,-2.77942,0.98292,1.57080,0.00001,-0.14512,-0.38003,0.04455,,,,,,,,,,,,,,,,,,,,,,,,,,0,0,0,0,0
1.6508,1783189746.3425,1,1,2.0000,0.0000,1.44682,0.22567,-2.77942,0.98292,1.57080,0.00001,-0.14512,-0.38003,0.04455,,,,,,,,,,,,,,,,,,,,,,,,,,0,0,0,0,0
1.6526,1783189746.3443,1,1,2.0000,0.0000,1.44682,0.22565,-2.77943,0.98295,1.57080,0.00001,-0.14512,-0.38003,0.04454,,,,,,,,,,,,,,,,,,,,,,,,,,0,0,0,0,0
1.6529,1783189746.3446,1,1,2.0000,0.0000,1.44682,0.22565,-2.77943,0.98295,1.57080,0.00001,-0.14512,-0.38003,0.04454,,,,,,,,,,,,,,,,,,,,,,,,,,0,0,0,0,0
1.6693,1783189746.3610,1,1,2.0000,0.0000,1.44682,0.22545,-2.77948,0.98319,1.57080,0.00001,-0.14512,-0.38002,0.04449,,,,,,,,,,,,,,,,,,,,,,,,,,0,0,0,0,0
1.6739,1783189746.3656,1,1,2.0000,0.0000,1.44682,0.22545,-2.77948,0.98319,1.57080,0.00001,-0.14512,-0.38002,0.04449,,,,,,,,,,,,,,,,,,,,,,,,,,0,0,0,0,0
1.6876,1783189746.3794,1,1,2.0000,0.0000,1.44682,0.22535,-2.77950,0.98332,1.57080,0.00001,-0.14512,-0.38002,0.04447,,,,,,,,,,,,,,,,,,,,,,,,,,0,0,0,0,0
1.6939,1783189746.3857,1,1,2.0000,0.0000,1.44682,0.22522,-2.77954,0.98348,1.57080,0.00001,-0.14512,-0.38002,0.04443,,,,,,,,,,,,,,,,,,,,,,,,,,0,0,0,0,0
1.7043,1783189746.3960,1,1,2.0000,0.0000,1.44682,0.22508,-2.77957,0.98366,1.57080,0.00001,-0.14512,-0.38002,0.04439,,,,,,,,,,,,,,,,,,,,,,,,,,0,0,0,0,0
1.7130,1783189746.4047,1,1,2.0000,0.0000,1.44682,0.22505,-2.77958,0.98370,1.57080,0.00001,-0.14512,-0.38002,0.04439,,,,,,,,,,,,,,,,,,,,,,,,,,0,0,0,0,0
1.7230,1783189746.4148,1,1,2.0000,0.0000,1.44682,0.22496,-2.77960,0.98380,1.57080,0.00001,-0.14512,-0.38002,0.04436,,,,,,,,,,,,,,,,,,,,,,,,,,0,0,0,0,0
1.7465,1783189746.4383,1,1,2.0000,0.0000,1.44682,0.22475,-2.77965,0.98407,1.57080,0.00001,-0.14512,-0.38002,0.04431,,,,,,,,,,,,,,,,,,,,,,,,,,0,0,0,0,0
1.7489,1783189746.4406,1,1,2.0000,0.0000,1.44682,0.22469,-2.77967,0.98415,1.57080,0.00001,-0.14512,-0.38002,0.04429,,,,,,,,,,,,,,,,,,,,,,,,,,0,0,0,0,0
1.7492,1783189746.4409,1,1,2.0000,0.0000,1.44682,0.22469,-2.77967,0.98415,1.57080,0.00001,-0.14512,-0.38002,0.04429,,,,,,,,,,,,,,,,,,,,,,,,,,0,0,0,0,0
1.7572,1783189746.4489,1,1,2.0000,0.0000,1.44682,0.22455,-2.77970,0.98432,1.57080,0.00001,-0.14512,-0.38002,0.04426,,,,,,,,,,,,,,,,,,,,,,,,,,0,0,0,0,0
1.7575,1783189746.4493,1,1,2.0000,0.0000,1.44682,0.22455,-2.77970,0.98432,1.57080,0.00001,-0.14512,-0.38002,0.04426,,,,,,,,,,,,,,,,,,,,,,,,,,0,0,0,0,0
1.7631,1783189746.4548,1,1,2.0000,0.0000,1.44682,0.22448,-2.77972,0.98441,1.57080,0.00001,-0.14512,-0.38002,0.04424,,,,,,,,,,,,,,,,,,,,,,,,,,0,0,0,0,0
1.7732,1783189746.4650,1,1,2.0000,0.0000,1.44682,0.22445,-2.77973,0.98445,1.57080,0.00001,-0.14512,-0.38002,0.04423,,,,,,,,,,,,,,,,,,,,,,,,,,0,0,0,0,0
1.7838,1783189746.4756,1,1,2.0000,0.0000,1.44682,0.22436,-2.77975,0.98455,1.57080,0.00001,-0.14512,-0.38002,0.04421,,,,,,,,,,,,,,,,,,,,,,,,,,0,0,0,0,0
1.7843,1783189746.4761,1,1,2.0000,0.0000,1.44682,0.22431,-2.77976,0.98462,1.57080,0.00001,-0.14512,-0.38002,0.04420,,,,,,,,,,,,,,,,,,,,,,,,,,0,0,0,0,0
1.7940,1783189746.4858,1,1,2.0000,0.0000,1.44682,0.22425,-2.77978,0.98470,1.57080,0.00001,-0.14512,-0.38002,0.04418,,,,,,,,,,,,,,,,,,,,,,,,,,0,0,0,0,0
1.8075,1783189746.4992,1,1,2.0000,0.0000,1.44682,0.22415,-2.77980,0.98482,1.57080,0.00001,-0.14512,-0.38002,0.04416,,,,,,,,,,,,,,,,,,,,,,,,,,0,0,0,0,0
1.8129,1783189746.5046,1,1,2.0000,0.0000,1.44682,0.22402,-2.77984,0.98499,1.57080,0.00001,-0.14512,-0.38002,0.04412,,,,,,,,,,,,,,,,,,,,,,,,,,0,0,0,0,0
1.8232,1783189746.5150,1,1,2.0000,0.0000,1.44682,0.22388,-2.77987,0.98516,1.57080,0.00001,-0.14512,-0.38002,0.04408,,,,,,,,,,,,,,,,,,,,,,,,,,0,0,0,0,0
1.8346,1783189746.5264,1,1,2.0000,0.0000,1.44682,0.22385,-2.77988,0.98520,1.57080,0.00001,-0.14512,-0.38002,0.04408,,,,,,,,,,,,,,,,,,,,,,,,,,0,0,0,0,0
1.8524,1783189746.5442,1,1,2.0000,0.0000,1.44682,0.22365,-2.77993,0.98545,1.57080,0.00001,-0.14512,-0.38002,0.04403,,,,,,,,,,,,,,,,,,,,,,,,,,0,0,0,0,0
1.8573,1783189746.5490,1,1,2.0000,0.0000,1.44682,0.22364,-2.77993,0.98546,1.57080,0.00001,-0.14512,-0.38002,0.04402,,,,,,,,,,,,,,,,,,,,,,,,,,0,0,0,0,0
1.8627,1783189746.5544,1,1,2.0000,0.0000,1.44682,0.22360,-2.77994,0.98551,1.57080,0.00001,-0.14512,-0.38002,0.04401,,,,,,,,,,,,,,,,,,,,,,,,,,0,0,0,0,0
1.8630,1783189746.5548,1,1,2.0000,0.0000,1.44682,0.22360,-2.77994,0.98551,1.57080,0.00001,-0.14512,-0.38002,0.04401,,,,,,,,,,,,,,,,,,,,,,,,,,0,0,0,0,0
1.8732,1783189746.5649,1,1,2.0000,0.0000,1.44682,0.22342,-2.77999,0.98574,1.57080,0.00001,-0.14512,-0.38002,0.04397,,,,,,,,,,,,,,,,,,,,,,,,,,0,0,0,0,0
1.8852,1783189746.5769,1,1,2.0000,0.0000,1.44682,0.22328,-2.78002,0.98591,1.57080,0.00001,-0.14512,-0.38002,0.04393,,,,,,,,,,,,,,,,,,,,,,,,,,0,0,0,0,0
1.9003,1783189746.5921,1,1,2.0000,0.0000,1.44682,0.22316,-2.78005,0.98606,1.57080,0.00001,-0.14512,-0.38002,0.04390,,,,,,,,,,,,,,,,,,,,,,,,,,0,0,0,0,0
1.9029,1783189746.5947,1,1,2.0000,0.0000,1.44682,0.22316,-2.78005,0.98606,1.57080,0.00001,-0.14512,-0.38002,0.04390,,,,,,,,,,,,,,,,,,,,,,,,,,0,0,0,0,0
1.9206,1783189746.6123,1,1,2.0000,0.0000,1.44682,0.22300,-2.78009,0.98626,1.57080,0.00001,-0.14512,-0.38002,0.04386,,,,,,,,,,,,,,,,,,,,,,,,,,0,0,0,0,0
1.9235,1783189746.6152,1,1,2.0000,0.0000,1.44682,0.22300,-2.78009,0.98626,1.57080,0.00001,-0.14512,-0.38002,0.04386,,,,,,,,,,,,,,,,,,,,,,,,,,0,0,0,0,0
1.9239,1783189746.6156,1,1,2.0000,0.0000,1.44682,0.22300,-2.78009,0.98626,1.57080,0.00001,-0.14512,-0.38002,0.04386,,,,,,,,,,,,,,,,,,,,,,,,,,0,0,0,0,0
1.9329,1783189746.6246,1,1,2.0000,0.0000,1.44682,0.22282,-2.78014,0.98649,1.57080,0.00001,-0.14512,-0.38002,0.04381,,,,,,,,,,,,,,,,,,,,,,,,,,0,0,0,0,0
1.9563,1783189746.6481,1,1,2.0000,0.0000,1.44681,0.22258,-2.78020,0.98678,1.57080,0.00001,-0.14512,-0.38002,0.04375,,,,,,,,,,,,,,,,,,,,,,,,,,0,0,0,0,0
1.9630,1783189746.6548,1,1,2.0000,0.0000,1.44681,0.22252,-2.78021,0.98686,1.57080,0.00001,-0.14512,-0.38002,0.04373,,,,,,,,,,,,,,,,,,,,,,,,,,0,0,0,0,0
1.9634,1783189746.6551,1,1,2.0000,0.0000,1.44681,0.22252,-2.78021,0.98686,1.57080,0.00001,-0.14512,-0.38002,0.04373,,,,,,,,,,,,,,,,,,,,,,,,,,0,0,0,0,0
1.9735,1783189746.6652,1,1,2.0000,0.0000,1.44681,0.22238,-2.78025,0.98703,1.57080,0.00001,-0.14512,-0.38002,0.04370,,,,,,,,,,,,,,,,,,,,,,,,,,0,0,0,0,0
1.9830,1783189746.6747,1,1,2.0000,0.0000,1.44681,0.22234,-2.78026,0.98709,1.57080,0.00001,-0.14512,-0.38002,0.04369,,,,,,,,,,,,,,,,,,,,,,,,,,0,0,0,0,0
1.9963,1783189746.6880,1,1,2.0000,0.0000,1.44681,0.22209,-2.78032,0.98740,1.57080,0.00001,-0.14512,-0.38002,0.04362,,,,,,,,,,,,,,,,,,,,,,,,,,0,0,0,0,0
2.0107,1783189746.7024,1,1,2.0000,0.0000,1.44681,0.22201,-2.78034,0.98750,1.57080,0.00001,-0.14512,-0.38002,0.04360,,,,,,,,,,,,,,,,,,,,,,,,,,0,0,0,0,0
2.0128,1783189746.7045,1,1,2.0000,0.0000,1.44681,0.22198,-2.78035,0.98754,1.57080,0.00001,-0.14512,-0.38002,0.04359,,,,,,,,,,,,,,,,,,,,,,,,,,0,0,0,0,0
2.0229,1783189746.7146,1,1,2.0000,0.0000,1.44681,0.22187,-2.78038,0.98768,1.57080,0.00001,-0.14512,-0.38002,0.04357,,,,,,,,,,,,,,,,,,,,,,,,,,0,0,0,0,0
2.0327,1783189746.7244,1,1,2.0000,0.0000,1.44681,0.22173,-2.78041,0.98785,1.57080,0.00001,-0.14512,-0.38002,0.04353,,,,,,,,,,,,,,,,,,,,,,,,,,0,0,0,0,0
2.0509,1783189746.7427,1,1,2.0000,0.0000,1.44681,0.22157,-2.78045,0.98805,1.57080,0.00001,-0.14512,-0.38002,0.04349,,,,,,,,,,,,,,,,,,,,,,,,,,0,0,0,0,0
2.0528,1783189746.7446,1,1,2.0000,0.0000,1.44681,0.22150,-2.78047,0.98813,1.57080,0.00001,-0.14512,-0.38002,0.04347,,,,,,,,,,,,,,,,,,,,,,,,,,0,0,0,0,0
2.0629,1783189746.7547,1,1,2.0000,0.0000,1.44681,0.22136,-2.78050,0.98831,1.57080,0.00001,-0.14512,-0.38002,0.04344,,,,,,,,,,,,,,,,,,,,,,,,,,0,0,0,0,0
2.0744,1783189746.7661,1,1,2.0000,0.0000,1.44681,0.22132,-2.78051,0.98836,1.57080,0.00001,-0.14512,-0.38002,0.04342,,,,,,,,,,,,,,,,,,,,,,,,,,0,0,0,0,0
2.0859,1783189746.7777,1,1,2.0000,0.0000,1.44681,0.22114,-2.78056,0.98859,1.57080,0.00001,-0.14512,-0.38002,0.04338,,,,,,,,,,,,,,,,,,,,,,,,,,0,0,0,0,0
2.0972,1783189746.7889,1,1,2.0000,0.0000,1.44681,0.22106,-2.78058,0.98869,1.57080,0.00001,-0.14512,-0.38002,0.04336,,,,,,,,,,,,,,,,,,,,,,,,,,0,0,0,0,0
2.1047,1783189746.7964,1,1,2.0000,0.0000,1.44681,0.22097,-2.78060,0.98879,1.57080,0.00001,-0.14512,-0.38002,0.04334,,,,,,,,,,,,,,,,,,,,,,,,,,0,0,0,0,0
2.1131,1783189746.8049,1,1,2.0000,0.0000,1.44681,0.22085,-2.78063,0.98895,1.57080,0.00001,-0.14512,-0.38002,0.04330,,,,,,,,,,,,,,,,,,,,,,,,,,0,0,0,0,0
2.1249,1783189746.8166,1,1,2.0000,0.0000,1.44681,0.22071,-2.78067,0.98913,1.57080,0.00001,-0.14512,-0.38002,0.04327,,,,,,,,,,,,,,,,,,,,,,,,,,0,0,0,0,0
2.1251,1783189746.8168,1,1,2.0000,0.0000,1.44681,0.22071,-2.78067,0.98913,1.57080,0.00001,-0.14512,-0.38002,0.04327,,,,,,,,,,,,,,,,,,,,,,,,,,0,0,0,0,0
2.1370,1783189746.8287,1,1,2.0000,0.0000,1.44681,0.22061,-2.78069,0.98925,1.57080,0.00001,-0.14512,-0.38002,0.04324,,,,,,,,,,,,,,,,,,,,,,,,,,0,0,0,0,0
2.1444,1783189746.8362,1,1,2.0000,0.0000,1.44681,0.22048,-2.78072,0.98941,1.57080,0.00001,-0.14512,-0.38002,0.04321,,,,,,,,,,,,,,,,,,,,,,,,,,0,0,0,0,0
2.1558,1783189746.8476,1,1,2.0000,0.0000,1.44681,0.22041,-2.78074,0.98950,1.57080,0.00001,-0.14512,-0.38002,0.04319,,,,,,,,,,,,,,,,,,,,,,,,,,0,0,0,0,0
2.1565,1783189746.8482,1,1,2.0000,0.0000,1.44681,0.22040,-2.78074,0.98951,1.57080,0.00001,-0.14512,-0.38002,0.04319,,,,,,,,,,,,,,,,,,,,,,,,,,0,0,0,0,0
2.1653,1783189746.8571,1,1,2.0000,0.0000,1.44681,0.22032,-2.78076,0.98962,1.57080,0.00001,-0.14512,-0.38002,0.04317,,,,,,,,,,,,,,,,,,,,,,,,,,0,0,0,0,0
2.1727,1783189746.8644,1,1,2.0000,0.0000,1.44681,0.22019,-2.78080,0.98978,1.57080,0.00001,-0.14512,-0.38002,0.04313,,,,,,,,,,,,,,,,,,,,,,,,,,0,0,0,0,0
2.1732,1783189746.8649,1,1,2.0000,0.0000,1.44681,0.22019,-2.78080,0.98978,1.57080,0.00001,-0.14512,-0.38002,0.04313,,,,,,,,,,,,,,,,,,,,,,,,,,0,0,0,0,0
2.1866,1783189746.8784,1,1,2.0000,0.0000,1.44681,0.22005,-2.78083,0.98995,1.57080,0.00001,-0.14512,-0.38002,0.04310,,,,,,,,,,,,,,,,,,,,,,,,,,0,0,0,0,0
2.1996,1783189746.8913,1,1,2.0000,0.0000,1.44681,0.21995,-2.78085,0.99007,1.57080,0.00001,-0.14512,-0.38002,0.04307,,,,,,,,,,,,,,,,,,,,,,,,,,0,0,0,0,0
2.2036,1783189746.8953,1,1,2.0000,0.0000,1.44681,0.21989,-2.78087,0.99015,1.57080,0.00001,-0.14512,-0.38002,0.04306,,,,,,,,,,,,,,,,,,,,,,,,,,0,0,0,0,0
2.2149,1783189746.9067,1,1,2.0000,0.0000,1.44681,0.21968,-2.78092,0.99041,1.57080,0.00001,-0.14512,-0.38002,0.04300,,,,,,,,,,,,,,,,,,,,,,,,,,0,0,0,0,0
2.2271,1783189746.9188,1,1,2.0000,0.0000,1.44681,0.21965,-2.78093,0.99045,1.57080,0.00001,-0.14512,-0.38002,0.04300,,,,,,,,,,,,,,,,,,,,,,,,,,0,0,0,0,0
2.2352,1783189746.9269,1,1,2.0000,0.0000,1.44681,0.21957,-2.78095,0.99055,1.57080,0.00001,-0.14512,-0.38002,0.04297,,,,,,,,,,,,,,,,,,,,,,,,,,0,0,0,0,0
2.2430,1783189746.9347,1,1,2.0000,0.0000,1.44681,0.21945,-2.78098,0.99070,1.57080,0.00001,-0.14512,-0.38002,0.04294,,,,,,,,,,,,,,,,,,,,,,,,,,0,0,0,0,0
2.2585,1783189746.9503,1,1,2.0000,0.0000,1.44681,0.21935,-2.78100,0.99082,1.57080,0.00001,-0.14512,-0.38002,0.04292,,,,,,,,,,,,,,,,,,,,,,,,,,0,0,0,0,0
2.2628,1783189746.9546,1,1,2.0000,0.0000,1.44681,0.21929,-2.78102,0.99090,1.57080,0.00001,-0.14512,-0.38002,0.04290,,,,,,,,,,,,,,,,,,,,,,,,,,0,0,0,0,0
2.2738,1783189746.9655,1,1,2.0000,0.0000,1.44681,0.21908,-2.78107,0.99116,1.57080,0.00001,-0.14512,-0.38002,0.04285,,,,,,,,,,,,,,,,,,,,,,,,,,0,0,0,0,0
2.2742,1783189746.9660,1,1,2.0000,0.0000,1.44681,0.21908,-2.78107,0.99116,1.57080,0.00001,-0.14512,-0.38002,0.04285,,,,,,,,,,,,,,,,,,,,,,,,,,0,0,0,0,0
2.2838,1783189746.9755,1,1,2.0000,0.0000,1.44681,0.21907,-2.78107,0.99117,1.57080,0.00001,-0.14512,-0.38002,0.04285,,,,,,,,,,,,,,,,,,,,,,,,,,0,0,0,0,0
2.2844,1783189746.9761,1,1,2.0000,0.0000,1.44681,0.21904,-2.78108,0.99120,1.57080,0.00001,-0.14512,-0.38002,0.04284,,,,,,,,,,,,,,,,,,,,,,,,,,0,0,0,0,0
2.2932,1783189746.9849,1,1,2.0000,0.0000,1.44681,0.21896,-2.78110,0.99131,1.57080,0.00001,-0.14512,-0.38002,0.04282,,,,,,,,,,,,,,,,,,,,,,,,,,0,0,0,0,0
2.2935,1783189746.9852,1,1,2.0000,0.0000,1.44681,0.21896,-2.78110,0.99131,1.57080,0.00001,-0.14512,-0.38002,0.04282,,,,,,,,,,,,,,,,,,,,,,,,,,0,0,0,0,0
2.3099,1783189747.0016,1,1,2.0000,0.0000,1.44681,0.21883,-2.78113,0.99147,1.57080,0.00001,-0.14512,-0.38002,0.04279,,,,,,,,,,,,,,,,,,,,,,,,,,0,0,0,0,0
2.3102,1783189747.0019,1,1,2.0000,0.0000,1.44681,0.21883,-2.78113,0.99147,1.57080,0.00001,-0.14512,-0.38002,0.04279,,,,,,,,,,,,,,,,,,,,,,,,,,0,0,0,0,0
2.3165,1783189747.0082,1,1,2.0000,0.0000,1.44681,0.21875,-2.78115,0.99157,1.57080,0.00001,-0.14512,-0.38002,0.04276,,,,,,,,,,,,,,,,,,,,,,,,,,0,0,0,0,0
2.3260,1783189747.0177,1,1,2.0000,0.0000,1.44681,0.21861,-2.78119,0.99174,1.57080,0.00001,-0.14512,-0.38002,0.04273,,,,,,,,,,,,,,,,,,,,,,,,,,0,0,0,0,0
2.3376,1783189747.0293,1,1,2.0000,0.0000,1.44681,0.21847,-2.78122,0.99192,1.57080,0.00001,-0.14512,-0.38002,0.04269,,,,,,,,,,,,,,,,,,,,,,,,,,0,0,0,0,0
2.3456,1783189747.0374,1,1,2.0000,0.0000,1.44681,0.21844,-2.78123,0.99196,1.57080,0.00001,-0.14512,-0.38002,0.04269,,,,,,,,,,,,,,,,,,,,,,,,,,0,0,0,0,0
2.3665,1783189747.0582,1,1,2.0000,0.0000,1.44681,0.21824,-2.78128,0.99221,1.57080,0.00001,-0.14512,-0.38002,0.04263,,,,,,,,,,,,,,,,,,,,,,,,,,0,0,0,0,0
2.3749,1783189747.0666,1,1,2.0000,0.0000,1.44681,0.21819,-2.78129,0.99226,1.57080,0.00001,-0.14512,-0.38002,0.04262,,,,,,,,,,,,,,,,,,,,,,,,,,0,0,0,0,0
2.3752,1783189747.0669,1,1,2.0000,0.0000,1.44681,0.21819,-2.78129,0.99226,1.57080,0.00001,-0.14512,-0.38002,0.04262,,,,,,,,,,,,,,,,,,,,,,,,,,0,0,0,0,0
2.3883,1783189747.0801,1,1,2.0000,0.0000,1.44681,0.21794,-2.78135,0.99259,1.57080,0.00001,-0.14512,-0.38002,0.04256,,,,,,,,,,,,,,,,,,,,,,,,,,0,0,0,0,0
2.3946,1783189747.0863,1,1,2.0000,0.0000,1.44681,0.21787,-2.78137,0.99267,1.57080,0.00001,-0.14512,-0.38002,0.04254,,,,,,,,,,,,,,,,,,,,,,,,,,0,0,0,0,0
2.3949,1783189747.0867,1,1,2.0000,0.0000,1.44681,0.21787,-2.78137,0.99267,1.57080,0.00001,-0.14512,-0.38002,0.04254,,,,,,,,,,,,,,,,,,,,,,,,,,0,0,0,0,0
2.4047,1783189747.0965,1,1,2.0000,0.0000,1.44681,0.21783,-2.78138,0.99271,1.57080,0.00001,-0.14512,-0.38002,0.04253,,,,,,,,,,,,,,,,,,,,,,,,,,0,0,0,0,0
2.4052,1783189747.0969,1,1,2.0000,0.0000,1.44681,0.21783,-2.78138,0.99271,1.57080,0.00001,-0.14512,-0.38002,0.04253,,,,,,,,,,,,,,,,,,,,,,,,,,0,0,0,0,0
2.4128,1783189747.1046,1,1,2.0000,0.0000,1.44681,0.21775,-2.78140,0.99282,1.57080,0.00001,-0.14512,-0.38002,0.04251,,,,,,,,,,,,,,,,,,,,,,,,,,0,0,0,0,0
2.4134,1783189747.1051,1,1,2.0000,0.0000,1.44681,0.21775,-2.78140,0.99282,1.57080,0.00001,-0.14512,-0.38002,0.04251,,,,,,,,,,,,,,,,,,,,,,,,,,0,0,0,0,0
2.4231,1783189747.1148,1,1,2.0000,0.0000,1.44681,0.21763,-2.78143,0.99296,1.57080,0.00001,-0.14512,-0.38002,0.04248,,,,,,,,,,,,,,,,,,,,,,,,,,0,0,0,0,0
2.4345,1783189747.1262,1,1,2.0000,0.0000,1.44681,0.21759,-2.78144,0.99302,1.57080,0.00001,-0.14512,-0.38002,0.04247,,,,,,,,,,,,,,,,,,,,,,,,,,0,0,0,0,0
2.4466,1783189747.1383,1,1,2.0000,0.0000,1.44681,0.21740,-2.78149,0.99325,1.57080,0.00001,-0.14512,-0.38002,0.04242,,,,,,,,,,,,,,,,,,,,,,,,,,0,0,0,0,0
2.5275,1783189747.2192,1,1,2.0000,0.0000,1.44681,0.21662,-2.78168,0.99423,1.57080,0.00001,-0.14512,-0.38002,0.04222,,,,,,,,,,,,,,,,,,,,,,,,,,0,0,0,0,0
2.5278,1783189747.2196,1,1,2.0000,0.0000,1.44681,0.21662,-2.78168,0.99423,1.57080,0.00001,-0.14512,-0.38002,0.04222,,,,,,,,,,,,,,,,,,,,,,,,,,0,0,0,0,0
2.5281,1783189747.2198,1,1,2.0000,0.0000,1.44681,0.21662,-2.78168,0.99423,1.57080,0.00001,-0.14512,-0.38002,0.04222,,,,,,,,,,,,,,,,,,,,,,,,,,0,0,0,0,0
2.5287,1783189747.2205,1,1,2.0000,0.0000,1.44681,0.21658,-2.78169,0.99427,1.57080,0.00001,-0.14512,-0.38002,0.04221,,,,,,,,,,,,,,,,,,,,,,,,,,0,0,0,0,0
2.5291,1783189747.2208,1,1,2.0000,0.0000,1.44681,0.21658,-2.78169,0.99427,1.57080,0.00001,-0.14512,-0.38002,0.04221,,,,,,,,,,,,,,,,,,,,,,,,,,0,0,0,0,0
2.5295,1783189747.2212,1,1,2.0000,0.0000,1.44681,0.21658,-2.78169,0.99427,1.57080,0.00001,-0.14512,-0.38002,0.04221,,,,,,,,,,,,,,,,,,,,,,,,,,0,0,0,0,0
2.5299,1783189747.2216,1,1,2.0000,0.0000,1.44681,0.21658,-2.78169,0.99427,1.57080,0.00001,-0.14512,-0.38002,0.04221,,,,,,,,,,,,,,,,,,,,,,,,,,0,0,0,0,0
2.5302,1783189747.2219,1,1,2.0000,0.0000,1.44681,0.21658,-2.78169,0.99427,1.57080,0.00001,-0.14512,-0.38002,0.04221,,,,,,,,,,,,,,,,,,,,,,,,,,0,0,0,0,0
2.5356,1783189747.2273,1,1,2.0000,0.0000,1.44681,0.21654,-2.78170,0.99433,1.57080,0.00001,-0.14512,-0.38002,0.04220,,,,,,,,,,,,,,,,,,,,,,,,,,0,0,0,0,0
2.5359,1783189747.2276,1,1,2.0000,0.0000,1.44681,0.21654,-2.78170,0.99433,1.57080,0.00001,-0.14512,-0.38002,0.04220,,,,,,,,,,,,,,,,,,,,,,,,,,0,0,0,0,0
2.5432,1783189747.2349,1,1,2.0000,0.0000,1.44681,0.21642,-2.78173,0.99447,1.57080,0.00001,-0.14512,-0.38002,0.04217,,,,,,,,,,,,,,,,,,,,,,,,,,0,0,0,0,0
2.5709,1783189747.2627,1,1,2.0000,0.0000,1.44681,0.21612,-2.78180,0.99485,1.57080,0.00001,-0.14512,-0.38002,0.04209,,,,,,,,,,,,,,,,,,,,,,,,,,0,0,0,0,0
2.5739,1783189747.2656,1,1,2.0000,0.0000,1.44681,0.21605,-2.78182,0.99494,1.57080,0.00001,-0.14512,-0.38002,0.04207,,,,,,,,,,,,,,,,,,,,,,,,,,0,0,0,0,0
2.5830,1783189747.2747,1,1,2.0000,0.0000,1.44681,0.21604,-2.78182,0.99495,1.57080,0.00001,-0.14512,-0.38002,0.04207,,,,,,,,,,,,,,,,,,,,,,,,,,0,0,0,0,0
2.5927,1783189747.2844,1,1,2.0000,0.0000,1.44681,0.21593,-2.78185,0.99509,1.57080,0.00001,-0.14512,-0.38002,0.04204,,,,,,,,,,,,,,,,,,,,,,,,,,0,0,0,0,0
2.6091,1783189747.3009,1,1,2.0000,0.0000,1.44681,0.21580,-2.78188,0.99525,1.57080,0.00001,-0.14512,-0.38002,0.04201,,,,,,,,,,,,,,,,,,,,,,,,,,0,0,0,0,0
2.6142,1783189747.3059,1,1,2.0000,0.0000,1.44681,0.21577,-2.78189,0.99529,1.57080,0.00001,-0.14512,-0.38002,0.04200,,,,,,,,,,,,,,,,,,,,,,,,,,0,0,0,0,0
2.6251,1783189747.3168,1,1,2.0000,0.0000,1.44681,0.21558,-2.78193,0.99552,1.57080,0.00001,-0.14512,-0.38002,0.04196,,,,,,,,,,,,,,,,,,,,,,,,,,0,0,0,0,0
2.6327,1783189747.3245,1,1,2.0000,0.0000,1.44681,0.21544,-2.78197,0.99570,1.57080,0.00001,-0.14512,-0.38002,0.04192,,,,,,,,,,,,,,,,,,,,,,,,,,0,0,0,0,0
2.6444,1783189747.3361,1,1,2.0000,0.0000,1.44681,0.21539,-2.78198,0.99575,1.57080,0.00001,-0.14512,-0.38002,0.04191,,,,,,,,,,,,,,,,,,,,,,,,,,0,0,0,0,0
2.6533,1783189747.3451,1,1,2.0000,0.0000,1.44681,0.21528,-2.78201,0.99589,1.57080,0.00001,-0.14512,-0.38002,0.04188,,,,,,,,,,,,,,,,,,,,,,,,,,0,0,0,0,0
2.6699,1783189747.3616,1,1,2.0000,0.0000,1.44681,0.21513,-2.78205,0.99608,1.57080,0.00001,-0.14512,-0.38002,0.04184,,,,,,,,,,,,,,,,,,,,,,,,,,0,0,0,0,0
2.6757,1783189747.3674,1,1,2.0000,0.0000,1.44681,0.21509,-2.78205,0.99612,1.57080,0.00001,-0.14512,-0.38002,0.04183,,,,,,,,,,,,,,,,,,,,,,,,,,0,0,0,0,0
2.6869,1783189747.3787,1,1,2.0000,0.0000,1.44681,0.21491,-2.78210,0.99635,1.57080,0.00001,-0.14512,-0.38002,0.04179,,,,,,,,,,,,,,,,,,,,,,,,,,0,0,0,0,0
2.7037,1783189747.3955,1,1,2.0000,0.0000,1.44681,0.21476,-2.78213,0.99654,1.57080,0.00001,-0.14512,-0.38002,0.04175,,,,,,,,,,,,,,,,,,,,,,,,,,0,0,0,0,0
2.7164,1783189747.4081,1,1,2.0000,0.0000,1.44681,0.21455,-2.78219,0.99681,1.57080,0.00001,-0.14512,-0.38002,0.04169,,,,,,,,,,,,,,,,,,,,,,,,,,0,0,0,0,0
2.7168,1783189747.4085,1,1,2.0000,0.0000,1.44681,0.21455,-2.78219,0.99681,1.57080,0.00001,-0.14512,-0.38002,0.04169,,,,,,,,,,,,,,,,,,,,,,,,,,0,0,0,0,0
2.7273,1783189747.4190,1,1,2.0000,0.0000,1.44681,0.21448,-2.78220,0.99689,1.57080,0.00002,-0.14512,-0.38002,0.04167,,,,,,,,,,,,,,,,,,,,,,,,,,0,0,0,0,0
2.7276,1783189747.4194,1,1,2.0000,0.0000,1.44681,0.21448,-2.78220,0.99689,1.57080,0.00002,-0.14512,-0.38002,0.04167,,,,,,,,,,,,,,,,,,,,,,,,,,0,0,0,0,0
2.7336,1783189747.4254,1,1,2.0000,0.0000,1.44681,0.21443,-2.78222,0.99695,1.57080,0.00002,-0.14512,-0.38002,0.04166,,,,,,,,,,,,,,,,,,,,,,,,,,0,0,0,0,0
2.7339,1783189747.4256,1,1,2.0000,0.0000,1.44681,0.21443,-2.78222,0.99695,1.57080,0.00002,-0.14512,-0.38002,0.04166,,,,,,,,,,,,,,,,,,,,,,,,,,0,0,0,0,0
2.7448,1783189747.4366,1,1,2.0000,0.0000,1.44681,0.21425,-2.78226,0.99717,1.57080,0.00002,-0.14512,-0.38002,0.04162,,,,,,,,,,,,,,,,,,,,,,,,,,0,0,0,0,0
2.7451,1783189747.4369,1,1,2.0000,0.0000,1.44681,0.21425,-2.78226,0.99717,1.57080,0.00002,-0.14512,-0.38002,0.04162,,,,,,,,,,,,,,,,,,,,,,,,,,0,0,0,0,0
2.7531,1783189747.4448,1,1,2.0000,0.0000,1.44681,0.21411,-2.78229,0.99735,1.57080,0.00002,-0.14512,-0.38002,0.04158,,,,,,,,,,,,,,,,,,,,,,,,,,0,0,0,0,0
2.7706,1783189747.4623,1,1,2.0000,0.0000,1.44681,0.21401,-2.78232,0.99747,1.57080,0.00002,-0.14512,-0.38002,0.04156,,,,,,,,,,,,,,,,,,,,,,,,,,0,0,0,0,0
2.7709,1783189747.4627,1,1,2.0000,0.0000,1.44681,0.21401,-2.78232,0.99747,1.57080,0.00002,-0.14512,-0.38002,0.04156,,,,,,,,,,,,,,,,,,,,,,,,,,0,0,0,0,0
2.7757,1783189747.4675,1,1,2.0000,0.0000,1.44681,0.21395,-2.78233,0.99755,1.57080,0.00002,-0.14512,-0.38002,0.04154,,,,,,,,,,,,,,,,,,,,,,,,,,0,0,0,0,0
2.7761,1783189747.4678,1,1,2.0000,0.0000,1.44681,0.21395,-2.78233,0.99755,1.57080,0.00002,-0.14512,-0.38002,0.04154,,,,,,,,,,,,,,,,,,,,,,,,,,0,0,0,0,0
2.7872,1783189747.4789,1,1,2.0000,0.0000,1.44681,0.21381,-2.78237,0.99772,1.57080,0.00002,-0.14512,-0.38002,0.04150,,,,,,,,,,,,,,,,,,,,,,,,,,0,0,0,0,0
2.7927,1783189747.4844,1,1,2.0000,0.0000,1.44681,0.21377,-2.78238,0.99778,1.57080,0.00002,-0.14512,-0.38002,0.04149,,,,,,,,,,,,,,,,,,,,,,,,,,0,0,0,0,0
2.7930,1783189747.4847,1,1,2.0000,0.0000,1.44681,0.21377,-2.78238,0.99778,1.57080,0.00002,-0.14512,-0.38002,0.04149,,,,,,,,,,,,,,,,,,,,,,,,,,0,0,0,0,0
2.8026,1783189747.4943,1,1,2.0000,0.0000,1.44681,0.21365,-2.78240,0.99792,1.57080,0.00002,-0.14512,-0.38002,0.04146,,,,,,,,,,,,,,,,,,,,,,,,,,0,0,0,0,0
2.8029,1783189747.4947,1,1,2.0000,0.0000,1.44681,0.21365,-2.78240,0.99792,1.57080,0.00002,-0.14512,-0.38002,0.04146,,,,,,,,,,,,,,,,,,,,,,,,,,0,0,0,0,0
2.8149,1783189747.5066,1,1,2.0000,0.0000,1.44681,0.21345,-2.78246,0.99818,1.57080,0.00002,-0.14512,-0.38002,0.04141,,,,,,,,,,,,,,,,,,,,,,,,,,0,0,0,0,0
2.8240,1783189747.5157,1,1,2.0000,0.0000,1.44681,0.21343,-2.78246,0.99819,1.57080,0.00002,-0.14512,-0.38002,0.04141,,,,,,,,,,,,,,,,,,,,,,,,,,0,0,0,0,0
2.8245,1783189747.5162,1,1,2.0000,0.0000,1.44681,0.21340,-2.78247,0.99823,1.57080,0.00002,-0.14512,-0.38002,0.04140,,,,,,,,,,,,,,,,,,,,,,,,,,0,0,0,0,0
2.8372,1783189747.5290,1,1,2.0000,0.0000,1.44681,0.21322,-2.78251,0.99846,1.57080,0.00002,-0.14512,-0.38002,0.04135,,,,,,,,,,,,,,,,,,,,,,,,,,0,0,0,0,0
2.8434,1783189747.5351,1,1,2.0000,0.0000,1.44681,0.21315,-2.78253,0.99855,1.57080,0.00002,-0.14512,-0.38002,0.04134,,,,,,,,,,,,,,,,,,,,,,,,,,0,0,0,0,0
2.8547,1783189747.5464,1,1,2.0000,0.0000,1.44681,0.21310,-2.78254,0.99860,1.57080,0.00002,-0.14512,-0.38002,0.04132,,,,,,,,,,,,,,,,,,,,,,,,,,0,0,0,0,0
2.8759,1783189747.5676,1,1,2.0000,0.0000,1.44681,0.21278,-2.78262,0.99900,1.57080,0.00002,-0.14512,-0.38002,0.04124,,,,,,,,,,,,,,,,,,,,,,,,,,0,0,0,0,0
2.8765,1783189747.5682,1,1,2.0000,0.0000,1.44681,0.21278,-2.78262,0.99900,1.57080,0.00002,-0.14512,-0.38002,0.04124,,,,,,,,,,,,,,,,,,,,,,,,,,0,0,0,0,0
2.8845,1783189747.5763,1,1,2.0000,0.0000,1.44681,0.21273,-2.78263,0.99906,1.57080,0.00002,-0.14512,-0.38002,0.04123,,,,,,,,,,,,,,,,,,,,,,,,,,0,0,0,0,0
2.8941,1783189747.5859,1,1,2.0000,0.0000,1.44681,0.21262,-2.78266,0.99920,1.57080,0.00002,-0.14512,-0.38002,0.04120,,,,,,,,,,,,,,,,,,,,,,,,,,0,0,0,0,0
2.9025,1783189747.5942,1,1,2.0000,0.0000,1.44681,0.21248,-2.78269,0.99938,1.57080,0.00002,-0.14512,-0.38002,0.04117,,,,,,,,,,,,,,,,,,,,,,,,,,0,0,0,0,0
2.9030,1783189747.5947,1,1,2.0000,0.0000,1.44681,0.21248,-2.78269,0.99938,1.57080,0.00002,-0.14512,-0.38002,0.04117,,,,,,,,,,,,,,,,,,,,,,,,,,0,0,0,0,0
2.9169,1783189747.6086,1,1,2.0000,0.0000,1.44681,0.21239,-2.78271,0.99949,1.57080,0.00002,-0.14512,-0.38002,0.04114,,,,,,,,,,,,,,,,,,,,,,,,,,0,0,0,0,0
2.9236,1783189747.6153,1,1,2.0000,0.0000,1.44681,0.21232,-2.78273,0.99957,1.57080,0.00002,-0.14512,-0.38002,0.04113,,,,,,,,,,,,,,,,,,,,,,,,,,0,0,0,0,0
2.9338,1783189747.6256,1,1,2.0000,0.0000,1.44681,0.21211,-2.78278,0.99983,1.57080,0.00002,-0.14512,-0.38002,0.04107,,,,,,,,,,,,,,,,,,,,,,,,,,0,0,0,0,0
2.9490,1783189747.6407,1,1,2.0000,0.0000,1.44681,0.21202,-2.78280,0.99995,1.57080,0.00002,-0.14512,-0.38002,0.04105,,,,,,,,,,,,,,,,,,,,,,,,,,0,0,0,0,0
2.9552,1783189747.6469,1,1,2.0000,0.0000,1.44681,0.21196,-2.78282,1.00003,1.57080,0.00002,-0.14512,-0.38002,0.04103,,,,,,,,,,,,,,,,,,,,,,,,,,0,0,0,0,0
2.9555,1783189747.6472,1,1,2.0000,0.0000,1.44681,0.21196,-2.78282,1.00003,1.57080,0.00002,-0.14512,-0.38002,0.04103,,,,,,,,,,,,,,,,,,,,,,,,,,0,0,0,0,0
2.9809,1783189747.6726,1,1,2.0000,0.0000,1.44681,0.21167,-2.78289,1.00038,1.57080,0.00002,-0.14512,-0.38002,0.04096,,,,,,,,,,,,,,,,,,,,,,,,,,0,0,0,0,0
2.9813,1783189747.6730,1,1,2.0000,0.0000,1.44681,0.21167,-2.78289,1.00038,1.57080,0.00002,-0.14512,-0.38002,0.04096,,,,,,,,,,,,,,,,,,,,,,,,,,0,0,0,0,0
2.9836,1783189747.6754,1,1,2.0000,0.0000,1.44681,0.21167,-2.78289,1.00038,1.57080,0.00002,-0.14512,-0.38002,0.04096,,,,,,,,,,,,,,,,,,,,,,,,,,0,0,0,0,0
2.9840,1783189747.6757,1,1,2.0000,0.0000,1.44681,0.21167,-2.78289,1.00038,1.57080,0.00002,-0.14512,-0.38002,0.04096,,,,,,,,,,,,,,,,,,,,,,,,,,0,0,0,0,0
3.0028,1783189747.6945,1,1,2.0000,0.0000,1.44681,0.21150,-2.78293,1.00060,1.57080,0.00002,-0.14512,-0.38002,0.04092,,,,,,,,,,,,,,,,,,,,,,,,,,0,0,0,0,0
3.0044,1783189747.6961,1,1,2.0000,0.0000,1.44681,0.21146,-2.78294,1.00064,1.57080,0.00002,-0.14512,-0.38002,0.04091,,,,,,,,,,,,,,,,,,,,,,,,,,0,0,0,0,0
3.0246,1783189747.7163,1,1,2.0000,0.0000,1.44681,0.21113,-2.78302,1.00105,1.57080,0.00002,-0.14512,-0.38002,0.04082,,,,,,,,,,,,,,,,,,,,,,,,,,0,0,0,0,0
3.0253,1783189747.7170,1,1,2.0000,0.0000,1.44681,0.21113,-2.78302,1.00105,1.57080,0.00002,-0.14512,-0.38002,0.04082,,,,,,,,,,,,,,,,,,,,,,,,,,0,0,0,0,0
3.0368,1783189747.7286,1,1,2.0000,0.0000,1.44681,0.21110,-2.78303,1.00109,1.57080,0.00002,-0.14512,-0.38002,0.04082,,,,,,,,,,,,,,,,,,,,,,,,,,0,0,0,0,0
3.0432,1783189747.7350,1,1,2.0000,0.0000,1.44681,0.21106,-2.78303,1.00114,1.57080,0.00002,-0.14512,-0.38002,0.04081,,,,,,,,,,,,,,,,,,,,,,,,,,0,0,0,0,0
3.0591,1783189747.7509,1,1,2.0000,0.0000,1.44681,0.21090,-2.78307,1.00134,1.57080,0.00002,-0.14512,-0.38002,0.04077,,,,,,,,,,,,,,,,,,,,,,,,,,0,0,0,0,0
3.0627,1783189747.7544,1,1,2.0000,0.0000,1.44681,0.21089,-2.78308,1.00136,1.57080,0.00002,-0.14512,-0.38002,0.04076,,,,,,,,,,,,,,,,,,,,,,,,,,0,0,0,0,0
3.0631,1783189747.7548,1,1,2.0000,0.0000,1.44681,0.21089,-2.78308,1.00136,1.57080,0.00002,-0.14512,-0.38002,0.04076,,,,,,,,,,,,,,,,,,,,,,,,,,0,0,0,0,0
3.0775,1783189747.7692,1,1,2.0000,0.0000,1.44681,0.21066,-2.78313,1.00163,1.57080,0.00002,-0.14512,-0.38002,0.04071,,,,,,,,,,,,,,,,,,,,,,,,,,0,0,0,0,0
3.0828,1783189747.7746,1,1,2.0000,0.0000,1.44681,0.21059,-2.78315,1.00172,1.57080,0.00002,-0.14512,-0.38002,0.04069,,,,,,,,,,,,,,,,,,,,,,,,,,0,0,0,0,0
3.0929,1783189747.7846,1,1,2.0000,0.0000,1.44681,0.21051,-2.78317,1.00182,1.57080,0.00002,-0.14512,-0.38002,0.04067,,,,,,,,,,,,,,,,,,,,,,,,,,0,0,0,0,0
3.0933,1783189747.7850,1,1,2.0000,0.0000,1.44681,0.21051,-2.78317,1.00182,1.57080,0.00002,-0.14512,-0.38002,0.04067,,,,,,,,,,,,,,,,,,,,,,,,,,0,0,0,0,0
3.1098,1783189747.8016,1,1,2.0000,0.0000,1.44681,0.21035,-2.78321,1.00203,1.57080,0.00002,-0.14512,-0.38002,0.04063,,,,,,,,,,,,,,,,,,,,,,,,,,0,0,0,0,0
3.1146,1783189747.8063,1,1,2.0000,0.0000,1.44681,0.21029,-2.78322,1.00210,1.57080,0.00002,-0.14512,-0.38002,0.04061,,,,,,,,,,,,,,,,,,,,,,,,,,0,0,0,0,0
3.1150,1783189747.8067,1,1,2.0000,0.0000,1.44681,0.21029,-2.78322,1.00210,1.57080,0.00002,-0.14512,-0.38002,0.04061,,,,,,,,,,,,,,,,,,,,,,,,,,0,0,0,0,0
3.1248,1783189747.8166,1,1,2.0000,0.0000,1.44681,0.21024,-2.78323,1.00216,1.57080,0.00002,-0.14512,-0.38002,0.04060,,,,,,,,,,,,,,,,,,,,,,,,,,0,0,0,0,0
3.1370,1783189747.8287,1,1,2.0000,0.0000,1.44681,0.21005,-2.78328,1.00239,1.57080,0.00002,-0.14512,-0.38002,0.04055,,,,,,,,,,,,,,,,,,,,,,,,,,0,0,0,0,0
3.1373,1783189747.8290,1,1,2.0000,0.0000,1.44681,0.21005,-2.78328,1.00239,1.57080,0.00002,-0.14512,-0.38002,0.04055,,,,,,,,,,,,,,,,,,,,,,,,,,0,0,0,0,0
3.1427,1783189747.8344,1,1,2.0000,0.0000,1.44681,0.20998,-2.78330,1.00248,1.57080,0.00002,-0.14512,-0.38002,0.04053,,,,,,,,,,,,,,,,,,,,,,,,,,0,0,0,0,0
3.1553,1783189747.8470,1,1,2.0000,0.0000,1.44681,0.20990,-2.78332,1.00258,1.57080,0.00002,-0.14512,-0.38002,0.04051,,,,,,,,,,,,,,,,,,,,,,,,,,0,0,0,0,0
3.1645,1783189747.8563,1,1,2.0000,0.0000,1.44680,0.20979,-2.78334,1.00272,1.57080,0.00002,-0.14512,-0.38002,0.04048,,,,,,,,,,,,,,,,,,,,,,,,,,0,0,0,0,0
3.1772,1783189747.8689,1,1,2.0000,0.0000,1.44680,0.20967,-2.78337,1.00286,1.57080,0.00002,-0.14512,-0.38002,0.04046,,,,,,,,,,,,,,,,,,,,,,,,,,0,0,0,0,0
3.1774,1783189747.8692,1,1,2.0000,0.0000,1.44680,0.20967,-2.78337,1.00286,1.57080,0.00002,-0.14512,-0.38002,0.04046,,,,,,,,,,,,,,,,,,,,,,,,,,0,0,0,0,0
3.1941,1783189747.8859,1,1,2.0000,0.0000,1.44680,0.20951,-2.78341,1.00307,1.57079,0.00002,-0.14512,-0.38002,0.04041,,,,,,,,,,,,,,,,,,,,,,,,,,0,0,0,0,0
3.1944,1783189747.8861,1,1,2.0000,0.0000,1.44680,0.20951,-2.78341,1.00307,1.57079,0.00002,-0.14512,-0.38002,0.04041,,,,,,,,,,,,,,,,,,,,,,,,,,0,0,0,0,0
3.2020,1783189747.8937,1,1,2.0000,0.0000,1.44680,0.20936,-2.78344,1.00325,1.57079,0.00002,-0.14512,-0.38002,0.04038,,,,,,,,,,,,,,,,,,,,,,,,,,0,0,0,0,0
3.2037,1783189747.8954,1,1,2.0000,0.0000,1.44680,0.20936,-2.78344,1.00325,1.57079,0.00002,-0.14512,-0.38002,0.04038,,,,,,,,,,,,,,,,,,,,,,,,,,0,0,0,0,0
3.2144,1783189747.9062,1,1,2.0000,0.0000,1.44680,0.20928,-2.78346,1.00334,1.57079,0.00002,-0.14512,-0.38002,0.04036,,,,,,,,,,,,,,,,,,,,,,,,,,0,0,0,0,0
3.2259,1783189747.9176,1,1,2.0000,0.0000,1.44680,0.20917,-2.78349,1.00348,1.57079,0.00002,-0.14512,-0.38002,0.04033,,,,,,,,,,,,,,,,,,,,,,,,,,0,0,0,0,0
3.2328,1783189747.9246,1,1,2.0000,0.0000,1.44680,0.20906,-2.78352,1.00362,1.57079,0.00002,-0.14512,-0.38002,0.04030,,,,,,,,,,,,,,,,,,,,,,,,,,0,0,0,0,0
3.2442,1783189747.9359,1,1,2.0000,0.0000,1.44680,0.20905,-2.78352,1.00364,1.57079,0.00002,-0.14512,-0.38002,0.04030,,,,,,,,,,,,,,,,,,,,,,,,,,0,0,0,0,0
3.2447,1783189747.9365,1,1,2.0000,0.0000,1.44680,0.20901,-2.78353,1.00368,1.57079,0.00002,-0.14512,-0.38002,0.04029,,,,,,,,,,,,,,,,,,,,,,,,,,0,0,0,0,0
3.2528,1783189747.9445,1,1,2.0000,0.0000,1.44680,0.20889,-2.78356,1.00383,1.57079,0.00002,-0.14512,-0.38002,0.04026,,,,,,,,,,,,,,,,,,,,,,,,,,0,0,0,0,0
3.2531,1783189747.9448,1,1,2.0000,0.0000,1.44680,0.20889,-2.78356,1.00383,1.57079,0.00002,-0.14512,-0.38002,0.04026,,,,,,,,,,,,,,,,,,,,,,,,,,0,0,0,0,0
3.2629,1783189747.9546,1,1,2.0000,0.0000,1.44680,0.20875,-2.78359,1.00401,1.57079,0.00002,-0.14512,-0.38002,0.04022,,,,,,,,,,,,,,,,,,,,,,,,,,0,0,0,0,0
3.2858,1783189747.9776,1,1,2.0000,0.0000,1.44680,0.20856,-2.78364,1.00424,1.57079,0.00002,-0.14512,-0.38002,0.04017,,,,,,,,,,,,,,,,,,,,,,,,,,0,0,0,0,0
3.2861,1783189747.9779,1,1,2.0000,0.0000,1.44680,0.20856,-2.78364,1.00424,1.57079,0.00002,-0.14512,-0.38002,0.04017,,,,,,,,,,,,,,,,,,,,,,,,,,0,0,0,0,0
3.2930,1783189747.9847,1,1,2.0000,0.0000,1.44680,0.20844,-2.78367,1.00439,1.57079,0.00002,-0.14512,-0.38002,0.04015,,,,,,,,,,,,,,,,,,,,,,,,,,0,0,0,0,0
3.3031,1783189747.9948,1,1,2.0000,0.0000,1.44680,0.20843,-2.78367,1.00440,1.57079,0.00002,-0.14512,-0.38002,0.04014,,,,,,,,,,,,,,,,,,,,,,,,,,0,0,0,0,0
3.3129,1783189748.0047,1,1,2.0000,0.0000,1.44680,0.20828,-2.78370,1.00459,1.57079,0.00002,-0.14512,-0.38002,0.04010,,,,,,,,,,,,,,,,,,,,,,,,,,0,0,0,0,0
3.3278,1783189748.0195,1,1,2.0000,0.0000,1.44680,0.20806,-2.78376,1.00486,1.57079,0.00002,-0.14512,-0.38002,0.04005,,,,,,,,,,,,,,,,,,,,,,,,,,0,0,0,0,0
3.3334,1783189748.0251,1,1,2.0000,0.0000,1.44680,0.20805,-2.78376,1.00487,1.57079,0.00002,-0.14512,-0.38002,0.04005,,,,,,,,,,,,,,,,,,,,,,,,,,0,0,0,0,0
3.3469,1783189748.0387,1,1,2.0000,0.0000,1.44680,0.20791,-2.78379,1.00505,1.57079,0.00002,-0.14512,-0.38002,0.04001,,,,,,,,,,,,,,,,,,,,,,,,,,0,0,0,0,0
3.3540,1783189748.0457,1,1,2.0000,0.0000,1.44680,0.20776,-2.78383,1.00523,1.57079,0.00002,-0.14512,-0.38002,0.03997,,,,,,,,,,,,,,,,,,,,,,,,,,0,0,0,0,0
3.3628,1783189748.0545,1,1,2.0000,0.0000,1.44680,0.20775,-2.78383,1.00524,1.57079,0.00002,-0.14512,-0.38002,0.03997,,,,,,,,,,,,,,,,,,,,,,,,,,0,0,0,0,0
3.3727,1783189748.0645,1,1,2.0000,0.0000,1.44680,0.20761,-2.78387,1.00543,1.57079,0.00002,-0.14512,-0.38002,0.03993,,,,,,,,,,,,,,,,,,,,,,,,,,0,0,0,0,0
3.3731,1783189748.0649,1,1,2.0000,0.0000,1.44680,0.20761,-2.78387,1.00543,1.57079,0.00002,-0.14512,-0.38002,0.03993,,,,,,,,,,,,,,,,,,,,,,,,,,0,0,0,0,0
3.3847,1783189748.0764,1,1,2.0000,0.0000,1.44680,0.20739,-2.78392,1.00569,1.57079,0.00002,-0.14512,-0.38002,0.03988,,,,,,,,,,,,,,,,,,,,,,,,,,0,0,0,0,0
3.3850,1783189748.0767,1,1,2.0000,0.0000,1.44680,0.20739,-2.78392,1.00569,1.57079,0.00002,-0.14512,-0.38002,0.03988,,,,,,,,,,,,,,,,,,,,,,,,,,0,0,0,0,0
3.3968,1783189748.0885,1,1,2.0000,0.0000,1.44680,0.20735,-2.78393,1.00574,1.57079,0.00002,-0.14512,-0.38002,0.03987,,,,,,,,,,,,,,,,,,,,,,,,,,0,0,0,0,0
3.3971,1783189748.0888,1,1,2.0000,0.0000,1.44680,0.20735,-2.78393,1.00574,1.57079,0.00002,-0.14512,-0.38002,0.03987,,,,,,,,,,,,,,,,,,,,,,,,,,0,0,0,0,0
3.4029,1783189748.0946,1,1,2.0000,0.0000,1.44680,0.20730,-2.78394,1.00581,1.57079,0.00002,-0.14512,-0.38002,0.03986,,,,,,,,,,,,,,,,,,,,,,,,,,0,0,0,0,0
3.4032,1783189748.0949,1,1,2.0000,0.0000,1.44680,0.20730,-2.78394,1.00581,1.57079,0.00002,-0.14512,-0.38002,0.03986,,,,,,,,,,,,,,,,,,,,,,,,,,0,0,0,0,0
3.4147,1783189748.1064,1,1,2.0000,0.0000,1.44680,0.20709,-2.78399,1.00606,1.57079,0.00002,-0.14512,-0.38002,0.03980,,,,,,,,,,,,,,,,,,,,,,,,,,0,0,0,0,0
3.4150,1783189748.1067,1,1,2.0000,0.0000,1.44680,0.20709,-2.78399,1.00606,1.57079,0.00002,-0.14512,-0.38002,0.03980,,,,,,,,,,,,,,,,,,,,,,,,,,0,0,0,0,0
3.4290,1783189748.1208,1,1,2.0000,0.0000,1.44680,0.20700,-2.78401,1.00618,1.57079,0.00002,-0.14512,-0.38002,0.03978,,,,,,,,,,,,,,,,,,,,,,,,,,0,0,0,0,0
3.4335,1783189748.1252,1,1,2.0000,0.0000,1.44680,0.20693,-2.78403,1.00626,1.57079,0.00002,-0.14512,-0.38002,0.03976,,,,,,,,,,,,,,,,,,,,,,,,,,0,0,0,0,0
3.4452,1783189748.1370,1,1,2.0000,0.0000,1.44680,0.20672,-2.78408,1.00652,1.57079,0.00002,-0.14512,-0.38002,0.03971,,,,,,,,,,,,,,,,,,,,,,,,,,0,0,0,0,0
3.4529,1783189748.1447,1,1,2.0000,0.0000,1.44680,0.20671,-2.78408,1.00653,1.57079,0.00002,-0.14512,-0.38002,0.03971,,,,,,,,,,,,,,,,,,,,,,,,,,0,0,0,0,0
3.4532,1783189748.1450,1,1,2.0000,0.0000,1.44680,0.20671,-2.78408,1.00653,1.57079,0.00002,-0.14512,-0.38002,0.03971,,,,,,,,,,,,,,,,,,,,,,,,,,0,0,0,0,0
3.4628,1783189748.1545,1,1,2.0000,0.0000,1.44680,0.20663,-2.78410,1.00664,1.57079,0.00002,-0.14512,-0.38002,0.03969,,,,,,,,,,,,,,,,,,,,,,,,,,0,0,0,0,0
3.4738,1783189748.1656,1,1,2.0000,0.0000,1.44680,0.20642,-2.78415,1.00689,1.57079,0.00002,-0.14512,-0.38002,0.03964,,,,,,,,,,,,,,,,,,,,,,,,,,0,0,0,0,0
3.4850,1783189748.1768,1,1,2.0000,0.0000,1.44680,0.20638,-2.78416,1.00695,1.57079,0.00002,-0.14512,-0.38002,0.03962,,,,,,,,,,,,,,,,,,,,,,,,,,0,0,0,0,0
3.4935,1783189748.1852,1,1,2.0000,0.0000,1.44680,0.20626,-2.78419,1.00709,1.57079,0.00002,-0.14512,-0.38002,0.03960,,,,,,,,,,,,,,,,,,,,,,,,,,0,0,0,0,0
3.5029,1783189748.1946,1,1,2.0000,0.0000,1.44680,0.20612,-2.78422,1.00726,1.57079,0.00002,-0.14512,-0.38002,0.03956,,,,,,,,,,,,,,,,,,,,,,,,,,0,0,0,0,0
3.5032,1783189748.1950,1,1,2.0000,0.0000,1.44680,0.20612,-2.78422,1.00726,1.57079,0.00002,-0.14512,-0.38002,0.03956,,,,,,,,,,,,,,,,,,,,,,,,,,0,0,0,0,0
3.5140,1783189748.2058,1,1,2.0000,0.0000,1.44680,0.20604,-2.78424,1.00737,1.57079,0.00002,-0.14512,-0.38002,0.03954,,,,,,,,,,,,,,,,,,,,,,,,,,0,0,0,0,0
3.5143,1783189748.2061,1,1,2.0000,0.0000,1.44680,0.20604,-2.78424,1.00737,1.57079,0.00002,-0.14512,-0.38002,0.03954,,,,,,,,,,,,,,,,,,,,,,,,,,0,0,0,0,0
3.5249,1783189748.2166,1,1,2.0000,0.0000,1.44680,0.20589,-2.78428,1.00755,1.57079,0.00002,-0.14512,-0.38002,0.03950,,,,,,,,,,,,,,,,,,,,,,,,,,0,0,0,0,0
3.5355,1783189748.2273,1,1,2.0000,0.0000,1.44680,0.20575,-2.78431,1.00772,1.57079,0.00002,-0.14512,-0.38002,0.03947,,,,,,,,,,,,,,,,,,,,,,,,,,0,0,0,0,0
3.5470,1783189748.2387,1,1,2.0000,0.0000,1.44680,0.20570,-2.78432,1.00778,1.57079,0.00002,-0.14512,-0.38002,0.03945,,,,,,,,,,,,,,,,,,,,,,,,,,0,0,0,0,0
3.5530,1783189748.2447,1,1,2.0000,0.0000,1.44680,0.20559,-2.78435,1.00792,1.57079,0.00002,-0.14512,-0.38002,0.03943,,,,,,,,,,,,,,,,,,,,,,,,,,0,0,0,0,0
3.5532,1783189748.2450,1,1,2.0000,0.0000,1.44680,0.20559,-2.78435,1.00792,1.57079,0.00002,-0.14512,-0.38002,0.03943,,,,,,,,,,,,,,,,,,,,,,,,,,0,0,0,0,0
3.5663,1783189748.2581,1,1,2.0000,0.0000,1.44680,0.20538,-2.78440,1.00818,1.57079,0.00002,-0.14512,-0.38002,0.03937,,,,,,,,,,,,,,,,,,,,,,,,,,0,0,0,0,0
3.5747,1783189748.2665,1,1,2.0000,0.0000,1.44680,0.20537,-2.78440,1.00820,1.57079,0.00002,-0.14512,-0.38002,0.03937,,,,,,,,,,,,,,,,,,,,,,,,,,0,0,0,0,0
3.5750,1783189748.2668,1,1,2.0000,0.0000,1.44680,0.20537,-2.78440,1.00820,1.57079,0.00002,-0.14512,-0.38002,0.03937,,,,,,,,,,,,,,,,,,,,,,,,,,0,0,0,0,0
3.5901,1783189748.2818,1,1,2.0000,0.0000,1.44680,0.20515,-2.78445,1.00847,1.57079,0.00002,-0.14512,-0.38002,0.03932,,,,,,,,,,,,,,,,,,,,,,,,,,0,0,0,0,0
3.5939,1783189748.2856,1,1,2.0000,0.0000,1.44680,0.20508,-2.78447,1.00856,1.57079,0.00002,-0.14512,-0.38002,0.03930,,,,,,,,,,,,,,,,,,,,,,,,,,0,0,0,0,0
3.6028,1783189748.2946,1,1,2.0000,0.0000,1.44680,0.20506,-2.78447,1.00857,1.57079,0.00002,-0.14512,-0.38002,0.03929,,,,,,,,,,,,,,,,,,,,,,,,,,0,0,0,0,0
3.6145,1783189748.3063,1,1,2.0000,0.0000,1.44680,0.20492,-2.78451,1.00875,1.57079,0.00002,-0.14512,-0.38002,0.03926,,,,,,,,,,,,,,,,,,,,,,,,,,0,0,0,0,0
3.6370,1783189748.3287,1,1,2.0000,0.0000,1.44680,0.20466,-2.78457,1.00907,1.57079,0.00002,-0.14512,-0.38002,0.03919,,,,,,,,,,,,,,,,,,,,,,,,,,0,0,0,0,0
3.6374,1783189748.3291,1,1,2.0000,0.0000,1.44680,0.20466,-2.78457,1.00907,1.57079,0.00002,-0.14512,-0.38002,0.03919,,,,,,,,,,,,,,,,,,,,,,,,,,0,0,0,0,0
3.6390,1783189748.3308,1,1,2.0000,0.0000,1.44680,0.20466,-2.78457,1.00907,1.57079,0.00002,-0.14512,-0.38002,0.03919,,,,,,,,,,,,,,,,,,,,,,,,,,0,0,0,0,0
3.6394,1783189748.3311,1,1,2.0000,0.0000,1.44680,0.20466,-2.78457,1.00907,1.57079,0.00002,-0.14512,-0.38002,0.03919,,,,,,,,,,,,,,,,,,,,,,,,,,0,0,0,0,0
3.6430,1783189748.3347,1,1,2.0000,0.0000,1.44680,0.20461,-2.78458,1.00914,1.57079,0.00002,-0.14512,-0.38002,0.03918,,,,,,,,,,,,,,,,,,,,,,,,,,0,0,0,0,0
3.6435,1783189748.3352,1,1,2.0000,0.0000,1.44680,0.20461,-2.78458,1.00914,1.57079,0.00002,-0.14512,-0.38002,0.03918,,,,,,,,,,,,,,,,,,,,,,,,,,0,0,0,0,0
3.6551,1783189748.3468,1,1,2.0000,0.0000,1.44680,0.20440,-2.78463,1.00939,1.57079,0.00002,-0.14512,-0.38002,0.03913,,,,,,,,,,,,,,,,,,,,,,,,,,0,0,0,0,0
3.6628,1783189748.3545,1,1,2.0000,0.0000,1.44680,0.20439,-2.78463,1.00941,1.57079,0.00002,-0.14512,-0.38002,0.03913,,,,,,,,,,,,,,,,,,,,,,,,,,0,0,0,0,0
3.6729,1783189748.3646,1,1,2.0000,0.0000,1.44680,0.20424,-2.78467,1.00959,1.57079,0.00002,-0.14512,-0.38002,0.03909,,,,,,,,,,,,,,,,,,,,,,,,,,0,0,0,0,0
3.6912,1783189748.3829,1,1,2.0000,0.0000,1.44680,0.20403,-2.78472,1.00985,1.57079,0.00002,-0.14512,-0.38002,0.03904,,,,,,,,,,,,,,,,,,,,,,,,,,0,0,0,0,0
3.6945,1783189748.3863,1,1,2.0000,0.0000,1.44680,0.20402,-2.78472,1.00986,1.57079,0.00002,-0.14512,-0.38002,0.03903,,,,,,,,,,,,,,,,,,,,,,,,,,0,0,0,0,0
3.7195,1783189748.4112,1,1,2.0000,0.0000,1.44680,0.20373,-2.78479,1.01022,1.57079,0.00002,-0.14512,-0.38002,0.03896,,,,,,,,,,,,,,,,,,,,,,,,,,0,0,0,0,0
3.7470,1783189748.4388,1,1,2.0000,0.0000,1.44680,0.20336,-2.78488,1.01068,1.57079,0.00002,-0.14512,-0.38002,0.03887,,,,,,,,,,,,,,,,,,,,,,,,,,0,0,0,0,0
3.7656,1783189748.4573,1,1,2.0000,0.0000,1.44680,0.20320,-2.78492,1.01088,1.57079,0.00002,-0.14512,-0.38002,0.03883,,,,,,,,,,,,,,,,,,,,,,,,,,0,0,0,0,0
3.7660,1783189748.4578,1,1,2.0000,0.0000,1.44680,0.20320,-2.78492,1.01088,1.57079,0.00002,-0.14512,-0.38002,0.03883,,,,,,,,,,,,,,,,,,,,,,,,,,0,0,0,0,0
3.7663,1783189748.4580,1,1,2.0000,0.0000,1.44680,0.20320,-2.78492,1.01088,1.57079,0.00002,-0.14512,-0.38002,0.03883,,,,,,,,,,,,,,,,,,,,,,,,,,0,0,0,0,0
3.7665,1783189748.4583,1,1,2.0000,0.0000,1.44680,0.20320,-2.78492,1.01088,1.57079,0.00002,-0.14512,-0.38002,0.03883,,,,,,,,,,,,,,,,,,,,,,,,,,0,0,0,0,0
3.7669,1783189748.4587,1,1,2.0000,0.0000,1.44680,0.20320,-2.78492,1.01088,1.57079,0.00002,-0.14512,-0.38002,0.03883,,,,,,,,,,,,,,,,,,,,,,,,,,0,0,0,0,0
3.7671,1783189748.4589,1,1,2.0000,0.0000,1.44680,0.20320,-2.78492,1.01088,1.57079,0.00002,-0.14512,-0.38002,0.03883,,,,,,,,,,,,,,,,,,,,,,,,,,0,0,0,0,0
3.7674,1783189748.4591,1,1,2.0000,0.0000,1.44680,0.20320,-2.78492,1.01088,1.57079,0.00002,-0.14512,-0.38002,0.03883,,,,,,,,,,,,,,,,,,,,,,,,,,0,0,0,0,0
3.7826,1783189748.4743,1,1,2.0000,0.0000,1.44680,0.20298,-2.78497,1.01114,1.57079,0.00002,-0.14512,-0.38001,0.03877,,,,,,,,,,,,,,,,,,,,,,,,,,0,0,0,0,0
3.7992,1783189748.4910,1,1,2.0000,0.0000,1.44680,0.20286,-2.78499,1.01129,1.57079,0.00002,-0.14512,-0.38001,0.03874,,,,,,,,,,,,,,,,,,,,,,,,,,0,0,0,0,0
3.8009,1783189748.4926,1,1,2.0000,0.0000,1.44680,0.20281,-2.78501,1.01136,1.57079,0.00002,-0.14512,-0.38001,0.03873,,,,,,,,,,,,,,,,,,,,,,,,,,0,0,0,0,0
3.8012,1783189748.4930,1,1,2.0000,0.0000,1.44680,0.20281,-2.78501,1.01136,1.57079,0.00002,-0.14512,-0.38001,0.03873,,,,,,,,,,,,,,,,,,,,,,,,,,0,0,0,0,0
3.8035,1783189748.4953,1,1,2.0000,0.0000,1.44680,0.20281,-2.78501,1.01136,1.57079,0.00002,-0.14512,-0.38001,0.03873,,,,,,,,,,,,,,,,,,,,,,,,,,0,0,0,0,0
3.8039,1783189748.4957,1,1,2.0000,0.0000,1.44680,0.20281,-2.78501,1.01136,1.57079,0.00002,-0.14512,-0.38001,0.03873,,,,,,,,,,,,,,,,,,,,,,,,,,0,0,0,0,0
3.8145,1783189748.5062,1,1,2.0000,0.0000,1.44680,0.20273,-2.78502,1.01146,1.57079,0.00002,-0.14512,-0.38001,0.03871,,,,,,,,,,,,,,,,,,,,,,,,,,0,0,0,0,0
3.8148,1783189748.5065,1,1,2.0000,0.0000,1.44680,0.20273,-2.78502,1.01146,1.57079,0.00002,-0.14512,-0.38001,0.03871,,,,,,,,,,,,,,,,,,,,,,,,,,0,0,0,0,0
3.8490,1783189748.5407,1,1,2.0000,0.0000,1.44680,0.20233,-2.78512,1.01195,1.57079,0.00002,-0.14512,-0.38001,0.03861,,,,,,,,,,,,,,,,,,,,,,,,,,0,0,0,0,0
3.8578,1783189748.5496,1,1,2.0000,0.0000,1.44680,0.20224,-2.78514,1.01206,1.57079,0.00002,-0.14512,-0.38001,0.03859,,,,,,,,,,,,,,,,,,,,,,,,,,0,0,0,0,0
3.8581,1783189748.5498,1,1,2.0000,0.0000,1.44680,0.20224,-2.78514,1.01206,1.57079,0.00002,-0.14512,-0.38001,0.03859,,,,,,,,,,,,,,,,,,,,,,,,,,0,0,0,0,0
3.8584,1783189748.5501,1,1,2.0000,0.0000,1.44680,0.20224,-2.78514,1.01206,1.57079,0.00002,-0.14512,-0.38001,0.03859,,,,,,,,,,,,,,,,,,,,,,,,,,0,0,0,0,0
3.8629,1783189748.5547,1,1,2.0000,0.0000,1.44680,0.20219,-2.78515,1.01213,1.57079,0.00002,-0.14512,-0.38001,0.03857,,,,,,,,,,,,,,,,,,,,,,,,,,0,0,0,0,0
3.8746,1783189748.5664,1,1,2.0000,0.0000,1.44680,0.20211,-2.78517,1.01222,1.57079,0.00002,-0.14512,-0.38001,0.03855,,,,,,,,,,,,,,,,,,,,,,,,,,0,0,0,0,0
3.8828,1783189748.5746,1,1,2.0000,0.0000,1.44680,0.20203,-2.78519,1.01233,1.57079,0.00002,-0.14512,-0.38001,0.03853,,,,,,,,,,,,,,,,,,,,,,,,,,0,0,0,0,0
3.8968,1783189748.5886,1,1,2.0000,0.0000,1.44680,0.20174,-2.78526,1.01268,1.57079,0.00002,-0.14512,-0.38001,0.03846,,,,,,,,,,,,,,,,,,,,,,,,,,0,0,0,0,0
3.9027,1783189748.5944,1,1,2.0000,0.0000,1.44680,0.20174,-2.78526,1.01268,1.57079,0.00002,-0.14512,-0.38001,0.03846,,,,,,,,,,,,,,,,,,,,,,,,,,0,0,0,0,0
3.9127,1783189748.6045,1,1,2.0000,0.0000,1.44680,0.20167,-2.78527,1.01277,1.57079,0.00002,-0.14512,-0.38001,0.03844,,,,,,,,,,,,,,,,,,,,,,,,,,0,0,0,0,0
3.9131,1783189748.6048,1,1,2.0000,0.0000,1.44680,0.20167,-2.78527,1.01277,1.57079,0.00002,-0.14512,-0.38001,0.03844,,,,,,,,,,,,,,,,,,,,,,,,,,0,0,0,0,0
3.9258,1783189748.6175,1,1,2.0000,0.0000,1.44680,0.20151,-2.78531,1.01297,1.57079,0.00003,-0.14512,-0.38001,0.03840,,,,,,,,,,,,,,,,,,,,,,,,,,0,0,0,0,0
3.9261,1783189748.6178,1,1,2.0000,0.0000,1.44680,0.20151,-2.78531,1.01297,1.57079,0.00003,-0.14512,-0.38001,0.03840,,,,,,,,,,,,,,,,,,,,,,,,,,0,0,0,0,0
3.9402,1783189748.6320,1,1,2.0000,0.0000,1.44680,0.20146,-2.78533,1.01303,1.57079,0.00003,-0.14512,-0.38001,0.03839,,,,,,,,,,,,,,,,,,,,,,,,,,0,0,0,0,0
3.9569,1783189748.6486,1,1,2.0000,0.0000,1.44680,0.20112,-2.78540,1.01344,1.57079,0.00003,-0.14512,-0.38001,0.03831,,,,,,,,,,,,,,,,,,,,,,,,,,0,0,0,0,0
3.9572,1783189748.6489,1,1,2.0000,0.0000,1.44680,0.20112,-2.78540,1.01344,1.57079,0.00003,-0.14512,-0.38001,0.03831,,,,,,,,,,,,,,,,,,,,,,,,,,0,0,0,0,0
3.9601,1783189748.6518,1,1,2.0000,0.0000,1.44680,0.20112,-2.78540,1.01344,1.57079,0.00003,-0.14512,-0.38001,0.03831,,,,,,,,,,,,,,,,,,,,,,,,,,0,0,0,0,0
3.9608,1783189748.6525,1,1,2.0000,0.0000,1.44680,0.20112,-2.78540,1.01344,1.57079,0.00003,-0.14512,-0.38001,0.03831,,,,,,,,,,,,,,,,,,,,,,,,,,0,0,0,0,0
3.9626,1783189748.6544,1,1,2.0000,0.0000,1.44680,0.20112,-2.78540,1.01344,1.57079,0.00003,-0.14512,-0.38001,0.03831,,,,,,,,,,,,,,,,,,,,,,,,,,0,0,0,0,0
3.9629,1783189748.6546,1,1,2.0000,0.0000,1.44680,0.20112,-2.78540,1.01344,1.57079,0.00003,-0.14512,-0.38001,0.03831,,,,,,,,,,,,,,,,,,,,,,,,,,0,0,0,0,0
3.9757,1783189748.6674,1,1,2.0000,0.0000,1.44680,0.20105,-2.78542,1.01353,1.57079,0.00003,-0.14512,-0.38001,0.03829,,,,,,,,,,,,,,,,,,,,,,,,,,0,0,0,0,0
3.9832,1783189748.6749,1,1,2.0000,0.0000,1.44680,0.20095,-2.78545,1.01366,1.57079,0.00003,-0.14512,-0.38001,0.03826,,,,,,,,,,,,,,,,,,,,,,,,,,0,0,0,0,0
3.9969,1783189748.6886,1,1,2.0000,0.0000,1.44680,0.20084,-2.78547,1.01380,1.57079,0.00003,-0.14512,-0.38001,0.03824,,,,,,,,,,,,,,,,,,,,,,,,,,0,0,0,0,0
3.9972,1783189748.6890,1,1,2.0000,0.0000,1.44680,0.20084,-2.78547,1.01380,1.57079,0.00003,-0.14512,-0.38001,0.03824,,,,,,,,,,,,,,,,,,,,,,,,,,0,0,0,0,0
4.0049,1783189748.6966,1,1,2.0000,0.0000,1.44680,0.20072,-2.78550,1.01394,1.57079,0.00003,-0.14512,-0.38001,0.03821,,,,,,,,,,,,,,,,,,,,,,,,,,0,0,0,0,0
4.0132,1783189748.7050,1,1,2.0000,0.0000,1.44680,0.20057,-2.78553,1.01412,1.57079,0.00003,-0.14512,-0.38001,0.03817,,,,,,,,,,,,,,,,,,,,,,,,,,0,0,0,0,0
4.0227,1783189748.7144,1,1,2.0000,0.0000,1.44680,0.20050,-2.78555,1.01421,1.57079,0.00003,-0.14512,-0.38001,0.03815,,,,,,,,,,,,,,,,,,,,,,,,,,0,0,0,0,0
4.0342,1783189748.7259,1,1,2.0000,0.0000,1.44680,0.20043,-2.78557,1.01430,1.57079,0.00003,-0.14512,-0.38001,0.03813,,,,,,,,,,,,,,,,,,,,,,,,,,0,0,0,0,0
4.0442,1783189748.7360,1,1,2.0000,0.0000,1.44680,0.20033,-2.78559,1.01443,1.57079,0.00003,-0.14512,-0.38001,0.03811,,,,,,,,,,,,,,,,,,,,,,,,,,0,0,0,0,0
4.0533,1783189748.7450,1,1,2.0000,0.0000,1.44680,0.20025,-2.78561,1.01452,1.57079,0.00003,-0.14512,-0.38001,0.03809,,,,,,,,,,,,,,,,,,,,,,,,,,0,0,0,0,0
4.0629,1783189748.7546,1,1,2.0000,0.0000,1.44680,0.20016,-2.78563,1.01463,1.57079,0.00003,-0.14512,-0.38001,0.03807,,,,,,,,,,,,,,,,,,,,,,,,,,0,0,0,0,0
4.0729,1783189748.7646,1,1,2.0000,0.0000,1.44680,0.19995,-2.78568,1.01489,1.57079,0.00003,-0.14512,-0.38001,0.03801,,,,,,,,,,,,,,,,,,,,,,,,,,0,0,0,0,0
4.0839,1783189748.7756,1,1,2.0000,0.0000,1.44680,0.19988,-2.78570,1.01498,1.57079,0.00003,-0.14512,-0.38001,0.03800,,,,,,,,,,,,,,,,,,,,,,,,,,0,0,0,0,0
4.0991,1783189748.7909,1,1,2.0000,0.0000,1.44680,0.19976,-2.78572,1.01513,1.57079,0.00003,-0.14512,-0.38001,0.03797,,,,,,,,,,,,,,,,,,,,,,,,,,0,0,0,0,0
4.1031,1783189748.7948,1,1,2.0000,0.0000,1.44680,0.19970,-2.78574,1.01520,1.57079,0.00003,-0.14512,-0.38001,0.03795,,,,,,,,,,,,,,,,,,,,,,,,,,0,0,0,0,0
4.1169,1783189748.8086,1,1,2.0000,0.0000,1.44680,0.19959,-2.78576,1.01533,1.57079,0.00003,-0.14512,-0.38001,0.03793,,,,,,,,,,,,,,,,,,,,,,,,,,0,0,0,0,0
4.1172,1783189748.8089,1,1,2.0000,0.0000,1.44680,0.19959,-2.78576,1.01533,1.57079,0.00003,-0.14512,-0.38001,0.03793,,,,,,,,,,,,,,,,,,,,,,,,,,0,0,0,0,0
4.1237,1783189748.8154,1,1,2.0000,0.0000,1.44680,0.19954,-2.78577,1.01540,1.57079,0.00003,-0.14512,-0.38001,0.03791,,,,,,,,,,,,,,,,,,,,,,,,,,0,0,0,0,0
4.1242,1783189748.8159,1,1,2.0000,0.0000,1.44680,0.19954,-2.78577,1.01540,1.57079,0.00003,-0.14512,-0.38001,0.03791,,,,,,,,,,,,,,,,,,,,,,,,,,0,0,0,0,0
4.1348,1783189748.8265,1,1,2.0000,0.0000,1.44680,0.19933,-2.78582,1.01566,1.57079,0.00003,-0.14512,-0.38001,0.03786,,,,,,,,,,,,,,,,,,,,,,,,,,0,0,0,0,0
4.1449,1783189748.8366,1,1,2.0000,0.0000,1.44680,0.19925,-2.78584,1.01576,1.57079,0.00003,-0.14512,-0.38001,0.03784,,,,,,,,,,,,,,,,,,,,,,,,,,0,0,0,0,0
4.1452,1783189748.8370,1,1,2.0000,0.0000,1.44680,0.19925,-2.78584,1.01576,1.57079,0.00003,-0.14512,-0.38001,0.03784,,,,,,,,,,,,,,,,,,,,,,,,,,0,0,0,0,0
4.1538,1783189748.8456,1,1,2.0000,0.0000,1.44680,0.19916,-2.78586,1.01587,1.57079,0.00003,-0.14512,-0.38001,0.03782,,,,,,,,,,,,,,,,,,,,,,,,,,0,0,0,0,0
4.1630,1783189748.8547,1,1,2.0000,0.0000,1.44680,0.19903,-2.78589,1.01603,1.57079,0.00003,-0.14512,-0.38001,0.03778,,,,,,,,,,,,,,,,,,,,,,,,,,0,0,0,0,0
4.1733,1783189748.8650,1,1,2.0000,0.0000,1.44680,0.19894,-2.78591,1.01614,1.57079,0.00003,-0.14512,-0.38001,0.03776,,,,,,,,,,,,,,,,,,,,,,,,,,0,0,0,0,0
4.1827,1783189748.8745,1,1,2.0000,0.0000,1.44680,0.19886,-2.78593,1.01624,1.57079,0.00003,-0.14512,-0.38001,0.03774,,,,,,,,,,,,,,,,,,,,,,,,,,0,0,0,0,0
4.2120,1783189748.9038,1,1,2.0000,0.0000,1.44680,0.19857,-2.78600,1.01660,1.57079,0.00003,-0.14512,-0.38001,0.03767,,,,,,,,,,,,,,,,,,,,,,,,,,0,0,0,0,0
4.2148,1783189748.9066,1,1,2.0000,0.0000,1.44680,0.19848,-2.78602,1.01670,1.57079,0.00003,-0.14512,-0.38001,0.03765,,,,,,,,,,,,,,,,,,,,,,,,,,0,0,0,0,0
4.2228,1783189748.9145,1,1,2.0000,0.0000,1.44680,0.19835,-2.78605,1.01687,1.57079,0.00003,-0.14512,-0.38001,0.03762,,,,,,,,,,,,,,,,,,,,,,,,,,0,0,0,0,0
4.2232,1783189748.9149,1,1,2.0000,0.0000,1.44680,0.19835,-2.78605,1.01687,1.57079,0.00003,-0.14512,-0.38001,0.03762,,,,,,,,,,,,,,,,,,,,,,,,,,0,0,0,0,0
4.2351,1783189748.9269,1,1,2.0000,0.0000,1.44680,0.19820,-2.78609,1.01705,1.57079,0.00003,-0.14512,-0.38001,0.03758,,,,,,,,,,,,,,,,,,,,,,,,,,0,0,0,0,0
4.2356,1783189748.9273,1,1,2.0000,0.0000,1.44680,0.19820,-2.78609,1.01705,1.57079,0.00003,-0.14512,-0.38001,0.03758,,,,,,,,,,,,,,,,,,,,,,,,,,0,0,0,0,0
4.2494,1783189748.9411,1,1,2.0000,0.0000,1.44680,0.19808,-2.78611,1.01720,1.57079,0.00003,-0.14512,-0.38001,0.03755,,,,,,,,,,,,,,,,,,,,,,,,,,0,0,0,0,0
4.2498,1783189748.9415,1,1,2.0000,0.0000,1.44680,0.19808,-2.78611,1.01720,1.57079,0.00003,-0.14512,-0.38001,0.03755,,,,,,,,,,,,,,,,,,,,,,,,,,0,0,0,0,0
4.2561,1783189748.9478,1,1,2.0000,0.0000,1.44680,0.19803,-2.78613,1.01727,1.57079,0.00003,-0.14512,-0.38001,0.03754,,,,,,,,,,,,,,,,,,,,,,,,,,0,0,0,0,0
4.2853,1783189748.9770,1,1,2.0000,0.0000,1.44680,0.19765,-2.78622,1.01773,1.57079,0.00003,-0.14512,-0.38001,0.03744,,,,,,,,,,,,,,,,,,,,,,,,,,0,0,0,0,0
4.2868,1783189748.9785,1,1,2.0000,0.0000,1.44680,0.19765,-2.78622,1.01773,1.57079,0.00003,-0.14512,-0.38001,0.03744,,,,,,,,,,,,,,,,,,,,,,,,,,0,0,0,0,0
4.2871,1783189748.9788,1,1,2.0000,0.0000,1.44680,0.19765,-2.78622,1.01773,1.57079,0.00003,-0.14512,-0.38001,0.03744,,,,,,,,,,,,,,,,,,,,,,,,,,0,0,0,0,0
4.2932,1783189748.9849,1,1,2.0000,0.0000,1.44680,0.19764,-2.78622,1.01774,1.57079,0.00003,-0.14512,-0.38001,0.03744,,,,,,,,,,,,,,,,,,,,,,,,,,0,0,0,0,0
4.2935,1783189748.9852,1,1,2.0000,0.0000,1.44680,0.19764,-2.78622,1.01774,1.57079,0.00003,-0.14512,-0.38001,0.03744,,,,,,,,,,,,,,,,,,,,,,,,,,0,0,0,0,0
4.3100,1783189749.0017,1,1,2.0000,0.0000,1.44680,0.19742,-2.78627,1.01801,1.57079,0.00003,-0.14512,-0.38001,0.03738,,,,,,,,,,,,,,,,,,,,,,,,,,0,0,0,0,0
4.3176,1783189749.0093,1,1,2.0000,0.0000,1.44680,0.19728,-2.78630,1.01819,1.57079,0.00003,-0.14512,-0.38001,0.03735,,,,,,,,,,,,,,,,,,,,,,,,,,0,0,0,0,0
4.3280,1783189749.0198,1,1,2.0000,0.0000,1.44680,0.19726,-2.78630,1.01820,1.57079,0.00003,-0.14512,-0.38001,0.03735,,,,,,,,,,,,,,,,,,,,,,,,,,0,0,0,0,0
4.3363,1783189749.0281,1,1,2.0000,0.0000,1.44680,0.19718,-2.78632,1.01831,1.57079,0.00003,-0.14512,-0.38001,0.03732,,,,,,,,,,,,,,,,,,,,,,,,,,0,0,0,0,0
4.3541,1783189749.0458,1,1,2.0000,0.0000,1.44680,0.19690,-2.78639,1.01865,1.57079,0.00003,-0.14512,-0.38001,0.03726,,,,,,,,,,,,,,,,,,,,,,,,,,0,0,0,0,0
4.3677,1783189749.0594,1,1,2.0000,0.0000,1.44680,0.19683,-2.78641,1.01874,1.57079,0.00003,-0.14512,-0.38001,0.03724,,,,,,,,,,,,,,,,,,,,,,,,,,0,0,0,0,0
4.3681,1783189749.0598,1,1,2.0000,0.0000,1.44680,0.19683,-2.78641,1.01874,1.57079,0.00003,-0.14512,-0.38001,0.03724,,,,,,,,,,,,,,,,,,,,,,,,,,0,0,0,0,0
4.3739,1783189749.0656,1,1,2.0000,0.0000,1.44680,0.19672,-2.78643,1.01887,1.57079,0.00003,-0.14512,-0.38001,0.03721,,,,,,,,,,,,,,,,,,,,,,,,,,0,0,0,0,0
4.3850,1783189749.0768,1,1,2.0000,0.0000,1.44680,0.19665,-2.78645,1.01896,1.57079,0.00003,-0.14512,-0.38001,0.03719,,,,,,,,,,,,,,,,,,,,,,,,,,0,0,0,0,0
4.3854,1783189749.0772,1,1,2.0000,0.0000,1.44680,0.19665,-2.78645,1.01896,1.57079,0.00003,-0.14512,-0.38001,0.03719,,,,,,,,,,,,,,,,,,,,,,,,,,0,0,0,0,0
4.3930,1783189749.0847,1,1,2.0000,0.0000,1.44680,0.19656,-2.78647,1.01907,1.57079,0.00003,-0.14512,-0.38001,0.03717,,,,,,,,,,,,,,,,,,,,,,,,,,0,0,0,0,0
4.4065,1783189749.0982,1,1,2.0000,0.0000,1.44679,0.19635,-2.78652,1.01933,1.57079,0.00003,-0.14511,-0.38001,0.03712,,,,,,,,,,,,,,,,,,,,,,,,,,0,0,0,0,0
4.4134,1783189749.1051,1,1,2.0000,0.0000,1.44679,0.19627,-2.78653,1.01942,1.57079,0.00003,-0.14511,-0.38001,0.03710,,,,,,,,,,,,,,,,,,,,,,,,,,0,0,0,0,0
4.4137,1783189749.1054,1,1,2.0000,0.0000,1.44679,0.19627,-2.78653,1.01942,1.57079,0.00003,-0.14511,-0.38001,0.03710,,,,,,,,,,,,,,,,,,,,,,,,,,0,0,0,0,0
4.4229,1783189749.1146,1,1,2.0000,0.0000,1.44679,0.19624,-2.78654,1.01946,1.57079,0.00003,-0.14511,-0.38001,0.03709,,,,,,,,,,,,,,,,,,,,,,,,,,0,0,0,0,0
4.4352,1783189749.1269,1,1,2.0000,0.0000,1.44679,0.19610,-2.78658,1.01964,1.57079,0.00003,-0.14511,-0.38001,0.03706,,,,,,,,,,,,,,,,,,,,,,,,,,0,0,0,0,0
4.4432,1783189749.1349,1,1,2.0000,0.0000,1.44679,0.19603,-2.78659,1.01972,1.57079,0.00003,-0.14511,-0.38001,0.03704,,,,,,,,,,,,,,,,,,,,,,,,,,0,0,0,0,0
4.4547,1783189749.1465,1,1,2.0000,0.0000,1.44679,0.19593,-2.78661,1.01984,1.57079,0.00003,-0.14511,-0.38001,0.03702,,,,,,,,,,,,,,,,,,,,,,,,,,0,0,0,0,0
4.4684,1783189749.1602,1,1,2.0000,0.0000,1.44679,0.19572,-2.78666,1.02010,1.57079,0.00003,-0.14511,-0.38001,0.03696,,,,,,,,,,,,,,,,,,,,,,,,,,0,0,0,0,0
4.4730,1783189749.1647,1,1,2.0000,0.0000,1.44679,0.19565,-2.78668,1.02019,1.57079,0.00003,-0.14511,-0.38001,0.03694,,,,,,,,,,,,,,,,,,,,,,,,,,0,0,0,0,0
4.4869,1783189749.1786,1,1,2.0000,0.0000,1.44679,0.19558,-2.78670,1.02028,1.57079,0.00003,-0.14511,-0.38001,0.03693,,,,,,,,,,,,,,,,,,,,,,,,,,0,0,0,0,0
4.4941,1783189749.1858,1,1,2.0000,0.0000,1.44679,0.19547,-2.78672,1.02041,1.57079,0.00003,-0.14511,-0.38001,0.03690,,,,,,,,,,,,,,,,,,,,,,,,,,0,0,0,0,0
4.5106,1783189749.2024,1,1,2.0000,0.0000,1.44679,0.19536,-2.78675,1.02055,1.57079,0.00003,-0.14511,-0.38001,0.03687,,,,,,,,,,,,,,,,,,,,,,,,,,0,0,0,0,0
4.5281,1783189749.2198,1,1,2.0000,0.0000,1.44679,0.19509,-2.78681,1.02087,1.57079,0.00003,-0.14511,-0.38001,0.03681,,,,,,,,,,,,,,,,,,,,,,,,,,0,0,0,0,0
4.5285,1783189749.2202,1,1,2.0000,0.0000,1.44679,0.19509,-2.78681,1.02087,1.57079,0.00003,-0.14511,-0.38001,0.03681,,,,,,,,,,,,,,,,,,,,,,,,,,0,0,0,0,0
4.6249,1783189749.3167,1,1,2.0000,0.0000,1.44679,0.19408,-2.78704,1.02213,1.57079,0.00003,-0.14511,-0.38001,0.03656,,,,,,,,,,,,,,,,,,,,,,,,,,0,0,0,0,0
4.6254,1783189749.3171,1,1,2.0000,0.0000,1.44679,0.19408,-2.78704,1.02213,1.57079,0.00003,-0.14511,-0.38001,0.03656,,,,,,,,,,,,,,,,,,,,,,,,,,0,0,0,0,0
4.6256,1783189749.3173,1,1,2.0000,0.0000,1.44679,0.19408,-2.78704,1.02213,1.57079,0.00003,-0.14511,-0.38001,0.03656,,,,,,,,,,,,,,,,,,,,,,,,,,0,0,0,0,0
4.6260,1783189749.3177,1,1,2.0000,0.0000,1.44679,0.19408,-2.78704,1.02213,1.57079,0.00003,-0.14511,-0.38001,0.03656,,,,,,,,,,,,,,,,,,,,,,,,,,0,0,0,0,0
4.6263,1783189749.3180,1,1,2.0000,0.0000,1.44679,0.19408,-2.78704,1.02213,1.57079,0.00003,-0.14511,-0.38001,0.03656,,,,,,,,,,,,,,,,,,,,,,,,,,0,0,0,0,0
4.6265,1783189749.3182,1,1,2.0000,0.0000,1.44679,0.19408,-2.78704,1.02213,1.57079,0.00003,-0.14511,-0.38001,0.03656,,,,,,,,,,,,,,,,,,,,,,,,,,0,0,0,0,0
4.6267,1783189749.3185,1,1,2.0000,0.0000,1.44679,0.19408,-2.78704,1.02213,1.57079,0.00003,-0.14511,-0.38001,0.03656,,,,,,,,,,,,,,,,,,,,,,,,,,0,0,0,0,0
4.6271,1783189749.3189,1,1,2.0000,0.0000,1.44679,0.19408,-2.78704,1.02213,1.57079,0.00003,-0.14511,-0.38001,0.03656,,,,,,,,,,,,,,,,,,,,,,,,,,0,0,0,0,0
4.6273,1783189749.3190,1,1,2.0000,0.0000,1.44679,0.19408,-2.78704,1.02213,1.57079,0.00003,-0.14511,-0.38001,0.03656,,,,,,,,,,,,,,,,,,,,,,,,,,0,0,0,0,0
4.6290,1783189749.3208,1,1,2.0000,0.0000,1.44679,0.19404,-2.78705,1.02217,1.57079,0.00003,-0.14511,-0.38001,0.03655,,,,,,,,,,,,,,,,,,,,,,,,,,0,0,0,0,0
4.6292,1783189749.3210,1,1,2.0000,0.0000,1.44679,0.19404,-2.78705,1.02217,1.57079,0.00003,-0.14511,-0.38001,0.03655,,,,,,,,,,,,,,,,,,,,,,,,,,0,0,0,0,0
4.6356,1783189749.3273,1,1,2.0000,0.0000,1.44679,0.19399,-2.78706,1.02223,1.57079,0.00003,-0.14511,-0.38001,0.03653,,,,,,,,,,,,,,,,,,,,,,,,,,0,0,0,0,0
4.6359,1783189749.3277,1,1,2.0000,0.0000,1.44679,0.19399,-2.78706,1.02223,1.57079,0.00003,-0.14511,-0.38001,0.03653,,,,,,,,,,,,,,,,,,,,,,,,,,0,0,0,0,0
4.6494,1783189749.3412,1,1,2.0000,0.0000,1.44679,0.19371,-2.78713,1.02257,1.57079,0.00003,-0.14511,-0.38001,0.03647,,,,,,,,,,,,,,,,,,,,,,,,,,0,0,0,0,0
4.6618,1783189749.3535,1,1,2.0000,0.0000,1.44679,0.19367,-2.78714,1.02263,1.57079,0.00003,-0.14511,-0.38001,0.03645,,,,,,,,,,,,,,,,,,,,,,,,,,0,0,0,0,0
4.6662,1783189749.3579,1,1,2.0000,0.0000,1.44679,0.19361,-2.78715,1.02269,1.57079,0.00003,-0.14511,-0.38001,0.03644,,,,,,,,,,,,,,,,,,,,,,,,,,0,0,0,0,0
4.6759,1783189749.3676,1,1,2.0000,0.0000,1.44679,0.19348,-2.78718,1.02286,1.57079,0.00003,-0.14511,-0.38001,0.03641,,,,,,,,,,,,,,,,,,,,,,,,,,0,0,0,0,0
4.6765,1783189749.3682,1,1,2.0000,0.0000,1.44679,0.19348,-2.78718,1.02286,1.57079,0.00003,-0.14511,-0.38001,0.03641,,,,,,,,,,,,,,,,,,,,,,,,,,0,0,0,0,0
4.6873,1783189749.3791,1,1,2.0000,0.0000,1.44679,0.19339,-2.78720,1.02297,1.57079,0.00003,-0.14511,-0.38001,0.03639,,,,,,,,,,,,,,,,,,,,,,,,,,0,0,0,0,0
4.6978,1783189749.3895,1,1,2.0000,0.0000,1.44679,0.19324,-2.78723,1.02315,1.57079,0.00003,-0.14511,-0.38001,0.03635,,,,,,,,,,,,,,,,,,,,,,,,,,0,0,0,0,0
4.7139,1783189749.4056,1,1,2.0000,0.0000,1.44679,0.19303,-2.78728,1.02341,1.57079,0.00003,-0.14511,-0.38001,0.03630,,,,,,,,,,,,,,,,,,,,,,,,,,0,0,0,0,0
4.7158,1783189749.4075,1,1,2.0000,0.0000,1.44679,0.19303,-2.78728,1.02341,1.57079,0.00003,-0.14511,-0.38001,0.03630,,,,,,,,,,,,,,,,,,,,,,,,,,0,0,0,0,0
4.7303,1783189749.4221,1,1,2.0000,0.0000,1.44679,0.19287,-2.78732,1.02361,1.57079,0.00003,-0.14511,-0.38001,0.03626,,,,,,,,,,,,,,,,,,,,,,,,,,0,0,0,0,0
4.7389,1783189749.4306,1,1,2.0000,0.0000,1.44679,0.19272,-2.78735,1.02379,1.57079,0.00003,-0.14511,-0.38001,0.03622,,,,,,,,,,,,,,,,,,,,,,,,,,0,0,0,0,0
4.7392,1783189749.4309,1,1,2.0000,0.0000,1.44679,0.19272,-2.78735,1.02379,1.57079,0.00003,-0.14511,-0.38001,0.03622,,,,,,,,,,,,,,,,,,,,,,,,,,0,0,0,0,0
4.7500,1783189749.4418,1,1,2.0000,0.0000,1.44679,0.19267,-2.78736,1.02385,1.57079,0.00003,-0.14511,-0.38001,0.03621,,,,,,,,,,,,,,,,,,,,,,,,,,0,0,0,0,0
4.7591,1783189749.4508,1,1,2.0000,0.0000,1.44679,0.19256,-2.78739,1.02399,1.57079,0.00003,-0.14511,-0.38001,0.03618,,,,,,,,,,,,,,,,,,,,,,,,,,0,0,0,0,0
4.7594,1783189749.4511,1,1,2.0000,0.0000,1.44679,0.19256,-2.78739,1.02399,1.57079,0.00003,-0.14511,-0.38001,0.03618,,,,,,,,,,,,,,,,,,,,,,,,,,0,0,0,0,0
4.7676,1783189749.4593,1,1,2.0000,0.0000,1.44679,0.19242,-2.78742,1.02417,1.57079,0.00003,-0.14511,-0.38001,0.03615,,,,,,,,,,,,,,,,,,,,,,,,,,0,0,0,0,0
4.7758,1783189749.4676,1,1,2.0000,0.0000,1.44679,0.19234,-2.78744,1.02426,1.57079,0.00003,-0.14511,-0.38001,0.03613,,,,,,,,,,,,,,,,,,,,,,,,,,0,0,0,0,0
4.7879,1783189749.4796,1,1,2.0000,0.0000,1.44679,0.19225,-2.78746,1.02438,1.57079,0.00003,-0.14511,-0.38001,0.03610,,,,,,,,,,,,,,,,,,,,,,,,,,0,0,0,0,0
4.7958,1783189749.4875,1,1,2.0000,0.0000,1.44679,0.19211,-2.78749,1.02454,1.57079,0.00003,-0.14511,-0.38001,0.03607,,,,,,,,,,,,,,,,,,,,,,,,,,0,0,0,0,0
4.7965,1783189749.4883,1,1,2.0000,0.0000,1.44679,0.19211,-2.78749,1.02454,1.57079,0.00003,-0.14511,-0.38001,0.03607,,,,,,,,,,,,,,,,,,,,,,,,,,0,0,0,0,0
4.8791,1783189749.5708,1,1,2.0000,0.0000,1.44679,0.19125,-2.78769,1.02561,1.57079,0.00003,-0.14511,-0.38001,0.03586,,,,,,,,,,,,,,,,,,,,,,,,,,0,0,0,0,0
4.8794,1783189749.5711,1,1,2.0000,0.0000,1.44679,0.19125,-2.78769,1.02561,1.57079,0.00003,-0.14511,-0.38001,0.03586,,,,,,,,,,,,,,,,,,,,,,,,,,0,0,0,0,0
4.8797,1783189749.5715,1,1,2.0000,0.0000,1.44679,0.19125,-2.78769,1.02561,1.57079,0.00003,-0.14511,-0.38001,0.03586,,,,,,,,,,,,,,,,,,,,,,,,,,0,0,0,0,0
4.8800,1783189749.5718,1,1,2.0000,0.0000,1.44679,0.19125,-2.78769,1.02561,1.57079,0.00003,-0.14511,-0.38001,0.03586,,,,,,,,,,,,,,,,,,,,,,,,,,0,0,0,0,0
4.8811,1783189749.5728,1,1,2.0000,0.0000,1.44679,0.19117,-2.78771,1.02569,1.57079,0.00003,-0.14511,-0.38001,0.03584,,,,,,,,,,,,,,,,,,,,,,,,,,0,0,0,0,0
4.8815,1783189749.5733,1,1,2.0000,0.0000,1.44679,0.19117,-2.78771,1.02569,1.57079,0.00003,-0.14511,-0.38001,0.03584,,,,,,,,,,,,,,,,,,,,,,,,,,0,0,0,0,0
4.8819,1783189749.5737,1,1,2.0000,0.0000,1.44679,0.19117,-2.78771,1.02569,1.57079,0.00003,-0.14511,-0.38001,0.03584,,,,,,,,,,,,,,,,,,,,,,,,,,0,0,0,0,0
4.8902,1783189749.5820,1,1,2.0000,0.0000,1.44679,0.19103,-2.78774,1.02587,1.57079,0.00003,-0.14511,-0.38001,0.03580,,,,,,,,,,,,,,,,,,,,,,,,,,0,0,0,0,0
4.8905,1783189749.5822,1,1,2.0000,0.0000,1.44679,0.19103,-2.78774,1.02587,1.57079,0.00003,-0.14511,-0.38001,0.03580,,,,,,,,,,,,,,,,,,,,,,,,,,0,0,0,0,0
4.8969,1783189749.5886,1,1,2.0000,0.0000,1.44679,0.19102,-2.78774,1.02589,1.57079,0.00003,-0.14511,-0.38001,0.03580,,,,,,,,,,,,,,,,,,,,,,,,,,0,0,0,0,0
4.9096,1783189749.6014,1,1,2.0000,0.0000,1.44679,0.19087,-2.78778,1.02607,1.57079,0.00003,-0.14511,-0.38001,0.03576,,,,,,,,,,,,,,,,,,,,,,,,,,0,0,0,0,0
4.9219,1783189749.6136,1,1,2.0000,0.0000,1.44679,0.19072,-2.78781,1.02625,1.57079,0.00003,-0.14511,-0.38001,0.03573,,,,,,,,,,,,,,,,,,,,,,,,,,0,0,0,0,0
4.9270,1783189749.6187,1,1,2.0000,0.0000,1.44679,0.19071,-2.78781,1.02626,1.57079,0.00003,-0.14511,-0.38001,0.03572,,,,,,,,,,,,,,,,,,,,,,,,,,0,0,0,0,0
4.9373,1783189749.6291,1,1,2.0000,0.0000,1.44679,0.19056,-2.78785,1.02645,1.57079,0.00003,-0.14511,-0.38001,0.03569,,,,,,,,,,,,,,,,,,,,,,,,,,0,0,0,0,0
4.9376,1783189749.6293,1,1,2.0000,0.0000,1.44679,0.19056,-2.78785,1.02645,1.57079,0.00003,-0.14511,-0.38001,0.03569,,,,,,,,,,,,,,,,,,,,,,,,,,0,0,0,0,0
4.9482,1783189749.6399,1,1,2.0000,0.0000,1.44679,0.19041,-2.78788,1.02662,1.57079,0.00003,-0.14511,-0.38001,0.03565,,,,,,,,,,,,,,,,,,,,,,,,,,0,0,0,0,0
4.9569,1783189749.6486,1,1,2.0000,0.0000,1.44679,0.19033,-2.78790,1.02673,1.57079,0.00003,-0.14511,-0.38001,0.03563,,,,,,,,,,,,,,,,,,,,,,,,,,0,0,0,0,0
4.9667,1783189749.6584,1,1,2.0000,0.0000,1.44679,0.19024,-2.78792,1.02683,1.57079,0.00003,-0.14511,-0.38001,0.03561,,,,,,,,,,,,,,,,,,,,,,,,,,0,0,0,0,0
4.9782,1783189749.6700,1,1,2.0000,0.0000,1.44679,0.19003,-2.78797,1.02709,1.57079,0.00003,-0.14511,-0.38001,0.03556,,,,,,,,,,,,,,,,,,,,,,,,,,0,0,0,0,0
4.9931,1783189749.6848,1,1,2.0000,0.0000,1.44679,0.18994,-2.78799,1.02721,1.57079,0.00003,-0.14511,-0.38001,0.03553,,,,,,,,,,,,,,,,,,,,,,,,,,0,0,0,0,0
4.9958,1783189749.6876,1,1,2.0000,0.0000,1.44679,0.18994,-2.78799,1.02721,1.57079,0.00003,-0.14511,-0.38001,0.03553,,,,,,,,,,,,,,,,,,,,,,,,,,0,0,0,0,0
4.9961,1783189749.6879,1,1,2.0000,0.0000,1.44679,0.18994,-2.78799,1.02721,1.57079,0.00003,-0.14511,-0.38001,0.03553,,,,,,,,,,,,,,,,,,,,,,,,,,0,0,0,0,0
5.0098,1783189749.7015,1,1,2.0000,0.0000,1.44679,0.18966,-2.78805,1.02756,1.57079,0.00003,-0.14511,-0.38001,0.03547,,,,,,,,,,,,,,,,,,,,,,,,,,0,0,0,0,0
5.0211,1783189749.7128,1,1,2.0000,0.0000,1.44679,0.18961,-2.78806,1.02761,1.57079,0.00003,-0.14511,-0.38001,0.03545,,,,,,,,,,,,,,,,,,,,,,,,,,0,0,0,0,0
5.0269,1783189749.7186,1,1,2.0000,0.0000,1.44679,0.18956,-2.78807,1.02768,1.57079,0.00003,-0.14511,-0.38001,0.03544,,,,,,,,,,,,,,,,,,,,,,,,,,0,0,0,0,0
5.0360,1783189749.7278,1,1,2.0000,0.0000,1.44679,0.18942,-2.78810,1.02784,1.57079,0.00003,-0.14511,-0.38001,0.03541,,,,,,,,,,,,,,,,,,,,,,,,,,0,0,0,0,0
5.0369,1783189749.7287,1,1,2.0000,0.0000,1.44679,0.18935,-2.78812,1.02793,1.57079,0.00003,-0.14511,-0.38001,0.03539,,,,,,,,,,,,,,,,,,,,,,,,,,0,0,0,0,0
5.0504,1783189749.7422,1,1,2.0000,0.0000,1.44679,0.18927,-2.78814,1.02803,1.57079,0.00003,-0.14511,-0.38001,0.03537,,,,,,,,,,,,,,,,,,,,,,,,,,0,0,0,0,0
5.0575,1783189749.7493,1,1,2.0000,0.0000,1.44679,0.18920,-2.78815,1.02811,1.57079,0.00003,-0.14511,-0.38001,0.03535,,,,,,,,,,,,,,,,,,,,,,,,,,0,0,0,0,0
5.0732,1783189749.7649,1,1,2.0000,0.0000,1.44679,0.18903,-2.78819,1.02832,1.57079,0.00003,-0.14511,-0.38001,0.03531,,,,,,,,,,,,,,,,,,,,,,,,,,0,0,0,0,0
5.0733,1783189749.7651,1,1,2.0000,0.0000,1.44679,0.18903,-2.78819,1.02832,1.57079,0.00003,-0.14511,-0.38001,0.03531,,,,,,,,,,,,,,,,,,,,,,,,,,0,0,0,0,0
5.0851,1783189749.7769,1,1,2.0000,0.0000,1.44679,0.18893,-2.78822,1.02845,1.57079,0.00003,-0.14511,-0.38001,0.03529,,,,,,,,,,,,,,,,,,,,,,,,,,0,0,0,0,0
5.0899,1783189749.7816,1,1,2.0000,0.0000,1.44679,0.18886,-2.78823,1.02853,1.57079,0.00003,-0.14511,-0.38001,0.03527,,,,,,,,,,,,,,,,,,,,,,,,,,0,0,0,0,0
5.0902,1783189749.7819,1,1,2.0000,0.0000,1.44679,0.18886,-2.78823,1.02853,1.57079,0.00003,-0.14511,-0.38001,0.03527,,,,,,,,,,,,,,,,,,,,,,,,,,0,0,0,0,0
5.0994,1783189749.7911,1,1,2.0000,0.0000,1.44679,0.18871,-2.78826,1.02871,1.57079,0.00003,-0.14511,-0.38001,0.03523,,,,,,,,,,,,,,,,,,,,,,,,,,0,0,0,0,0
5.1098,1783189749.8015,1,1,2.0000,0.0000,1.44679,0.18863,-2.78828,1.02881,1.57079,0.00003,-0.14511,-0.38001,0.03521,,,,,,,,,,,,,,,,,,,,,,,,,,0,0,0,0,0
5.1250,1783189749.8167,1,1,2.0000,0.0000,1.44679,0.18846,-2.78832,1.02902,1.57079,0.00003,-0.14511,-0.38001,0.03517,,,,,,,,,,,,,,,,,,,,,,,,,,0,0,0,0,0
5.1344,1783189749.8262,1,1,2.0000,0.0000,1.44679,0.18840,-2.78834,1.02909,1.57079,0.00003,-0.14511,-0.38001,0.03516,,,,,,,,,,,,,,,,,,,,,,,,,,0,0,0,0,0
5.1451,1783189749.8368,1,1,2.0000,0.0000,1.44679,0.18830,-2.78836,1.02922,1.57079,0.00003,-0.14511,-0.38001,0.03513,,,,,,,,,,,,,,,,,,,,,,,,,,0,0,0,0,0
5.1520,1783189749.8438,1,1,2.0000,0.0000,1.44679,0.18823,-2.78837,1.02930,1.57079,0.00003,-0.14511,-0.38001,0.03512,,,,,,,,,,,,,,,,,,,,,,,,,,0,0,0,0,0
5.1612,1783189749.8529,1,1,2.0000,0.0000,1.44679,0.18801,-2.78842,1.02957,1.57079,0.00004,-0.14511,-0.38001,0.03506,,,,,,,,,,,,,,,,,,,,,,,,,,0,0,0,0,0
5.1713,1783189749.8631,1,1,2.0000,0.0000,1.44679,0.18800,-2.78843,1.02958,1.57079,0.00004,-0.14511,-0.38001,0.03506,,,,,,,,,,,,,,,,,,,,,,,,,,0,0,0,0,0
5.1833,1783189749.8751,1,1,2.0000,0.0000,1.44679,0.18789,-2.78845,1.02972,1.57079,0.00004,-0.14511,-0.38001,0.03503,,,,,,,,,,,,,,,,,,,,,,,,,,0,0,0,0,0
5.1893,1783189749.8810,1,1,2.0000,0.0000,1.44679,0.18777,-2.78848,1.02987,1.57079,0.00004,-0.14511,-0.38001,0.03500,,,,,,,,,,,,,,,,,,,,,,,,,,0,0,0,0,0
5.1896,1783189749.8814,1,1,2.0000,0.0000,1.44679,0.18777,-2.78848,1.02987,1.57079,0.00004,-0.14511,-0.38001,0.03500,,,,,,,,,,,,,,,,,,,,,,,,,,0,0,0,0,0
5.2018,1783189749.8935,1,1,2.0000,0.0000,1.44679,0.18772,-2.78849,1.02993,1.57079,0.00004,-0.14511,-0.38001,0.03499,,,,,,,,,,,,,,,,,,,,,,,,,,0,0,0,0,0
5.2130,1783189749.9047,1,1,2.0000,0.0000,1.44679,0.18753,-2.78853,1.03017,1.57079,0.00004,-0.14511,-0.38001,0.03494,,,,,,,,,,,,,,,,,,,,,,,,,,0,0,0,0,0
5.2252,1783189749.9169,1,1,2.0000,0.0000,1.44679,0.18738,-2.78857,1.03035,1.57079,0.00004,-0.14511,-0.38001,0.03491,,,,,,,,,,,,,,,,,,,,,,,,,,0,0,0,0,0
5.2255,1783189749.9172,1,1,2.0000,0.0000,1.44679,0.18738,-2.78857,1.03035,1.57079,0.00004,-0.14511,-0.38001,0.03491,,,,,,,,,,,,,,,,,,,,,,,,,,0,0,0,0,0
5.2331,1783189749.9249,1,1,2.0000,0.0000,1.44679,0.18734,-2.78857,1.03039,1.57079,0.00004,-0.14511,-0.38001,0.03490,,,,,,,,,,,,,,,,,,,,,,,,,,0,0,0,0,0
5.2391,1783189749.9308,1,1,2.0000,0.0000,1.44679,0.18731,-2.78858,1.03044,1.57079,0.00004,-0.14511,-0.38001,0.03489,,,,,,,,,,,,,,,,,,,,,,,,,,0,0,0,0,0
5.2396,1783189749.9313,1,1,2.0000,0.0000,1.44679,0.18731,-2.78858,1.03044,1.57079,0.00004,-0.14511,-0.38001,0.03489,,,,,,,,,,,,,,,,,,,,,,,,,,0,0,0,0,0
5.2501,1783189749.9419,1,1,2.0000,0.0000,1.44679,0.18714,-2.78862,1.03064,1.57079,0.00004,-0.14511,-0.38001,0.03485,,,,,,,,,,,,,,,,,,,,,,,,,,0,0,0,0,0
5.2504,1783189749.9422,1,1,2.0000,0.0000,1.44679,0.18714,-2.78862,1.03064,1.57079,0.00004,-0.14511,-0.38001,0.03485,,,,,,,,,,,,,,,,,,,,,,,,,,0,0,0,0,0
5.2600,1783189749.9517,1,1,2.0000,0.0000,1.44679,0.18712,-2.78862,1.03066,1.57079,0.00004,-0.14511,-0.38001,0.03484,,,,,,,,,,,,,,,,,,,,,,,,,,0,0,0,0,0
5.2715,1783189749.9632,1,1,2.0000,0.0000,1.44679,0.18697,-2.78866,1.03085,1.57079,0.00004,-0.14511,-0.38001,0.03481,,,,,,,,,,,,,,,,,,,,,,,,,,0,0,0,0,0
5.2719,1783189749.9636,1,1,2.0000,0.0000,1.44679,0.18697,-2.78866,1.03085,1.57079,0.00004,-0.14511,-0.38001,0.03481,,,,,,,,,,,,,,,,,,,,,,,,,,0,0,0,0,0
5.2801,1783189749.9718,1,1,2.0000,0.0000,1.44679,0.18682,-2.78869,1.03103,1.57079,0.00004,-0.14511,-0.38001,0.03477,,,,,,,,,,,,,,,,,,,,,,,,,,0,0,0,0,0
5.2908,1783189749.9826,1,1,2.0000,0.0000,1.44679,0.18674,-2.78871,1.03113,1.57079,0.00004,-0.14511,-0.38001,0.03475,,,,,,,,,,,,,,,,,,,,,,,,,,0,0,0,0,0
5.2994,1783189749.9911,1,1,2.0000,0.0000,1.44679,0.18667,-2.78873,1.03121,1.57079,0.00004,-0.14511,-0.38001,0.03473,,,,,,,,,,,,,,,,,,,,,,,,,,0,0,0,0,0
5.3109,1783189750.0027,1,1,2.0000,0.0000,1.44679,0.18650,-2.78876,1.03142,1.57079,0.00004,-0.14511,-0.38001,0.03469,,,,,,,,,,,,,,,,,,,,,,,,,,0,0,0,0,0
5.3326,1783189750.0243,1,1,2.0000,0.0000,1.44679,0.18633,-2.78880,1.03163,1.57079,0.00004,-0.14511,-0.38001,0.03465,,,,,,,,,,,,,,,,,,,,,,,,,,0,0,0,0,0
5.3332,1783189750.0249,1,1,2.0000,0.0000,1.44679,0.18626,-2.78882,1.03172,1.57079,0.00004,-0.14511,-0.38001,0.03463,,,,,,,,,,,,,,,,,,,,,,,,,,0,0,0,0,0
5.3405,1783189750.0323,1,1,2.0000,0.0000,1.44679,0.18618,-2.78884,1.03181,1.57079,0.00004,-0.14511,-0.38001,0.03461,,,,,,,,,,,,,,,,,,,,,,,,,,0,0,0,0,0
5.3513,1783189750.0431,1,1,2.0000,0.0000,1.44679,0.18610,-2.78885,1.03191,1.57079,0.00004,-0.14511,-0.38001,0.03459,,,,,,,,,,,,,,,,,,,,,,,,,,0,0,0,0,0
