Martins-Lucaas/twinforge/sensors/Data/20260704_153716__samples.csv
t_rel_s,t_unix,cycle,phase,setpoint_n,force_net_n,q1,q2,q3,q4,q5,q6,tcp_x,tcp_y,tcp_z,taxel_0,taxel_1,taxel_2,taxel_3,taxel_4,taxel_5,taxel_6,taxel_7,taxel_8,taxel_9,taxel_10,taxel_11,taxel_12,taxel_13,taxel_14,taxel_15,taxel_16,taxel_17,taxel_18,taxel_19,taxel_20,taxel_21,taxel_22,taxel_23,taxel_24,n_RA,n_SA,cn_mm,cn_ra,cn_sa
0.0015,1783190236.8205,0,-1,1.0000,0.0000,1.44682,0.23328,-2.77748,0.97337,1.57080,0.00000,-0.14512,-0.38003,0.04653,,,,,,,,,,,,,,,,,,,,,,,,,,0,0,0,0,0
0.0135,1783190236.8325,1,0,1.0000,0.0000,1.44682,0.23328,-2.77748,0.97337,1.57080,0.00000,-0.14512,-0.38003,0.04653,,,,,,,,,,,,,,,,,,,,,,,,,,0,0,0,0,0
0.0138,1783190236.8329,1,0,1.0000,0.0000,1.44682,0.23328,-2.77748,0.97337,1.57080,0.00000,-0.14512,-0.38003,0.04653,,,,,,,,,,,,,,,,,,,,,,,,,,0,0,0,0,0
0.0255,1783190236.8445,1,0,1.0000,0.0000,1.44682,0.23328,-2.77748,0.97337,1.57080,0.00000,-0.14512,-0.38003,0.04653,,,,,,,,,,,,,,,,,,,,,,,,,,0,0,0,0,0
0.0258,1783190236.8448,1,0,1.0000,0.0000,1.44682,0.23328,-2.77748,0.97337,1.57080,0.00000,-0.14512,-0.38003,0.04653,,,,,,,,,,,,,,,,,,,,,,,,,,0,0,0,0,0
0.0317,1783190236.8508,1,0,1.0000,0.0000,1.44682,0.23328,-2.77748,0.97337,1.57080,0.00000,-0.14512,-0.38003,0.04653,,,,,,,,,,,,,,,,,,,,,,,,,,0,0,0,0,0
0.0439,1783190236.8630,1,0,1.0000,0.0000,1.44682,0.23328,-2.77748,0.97337,1.57080,0.00000,-0.14512,-0.38003,0.04653,,,,,,,,,,,,,,,,,,,,,,,,,,0,0,0,0,0
0.0777,1783190236.8967,1,0,1.0000,0.0000,1.44682,0.23328,-2.77748,0.97337,1.57080,0.00000,-0.14512,-0.38003,0.04653,,,,,,,,,,,,,,,,,,,,,,,,,,0,0,0,0,0
0.0782,1783190236.8972,1,0,1.0000,0.0000,1.44682,0.23328,-2.77748,0.97337,1.57080,0.00000,-0.14512,-0.38003,0.04653,,,,,,,,,,,,,,,,,,,,,,,,,,0,0,0,0,0
0.0897,1783190236.9088,1,0,1.0000,0.0000,1.44682,0.23328,-2.77748,0.97337,1.57080,0.00000,-0.14512,-0.38003,0.04653,,,,,,,,,,,,,,,,,,,,,,,,,,0,0,0,0,0
0.0900,1783190236.9090,1,0,1.0000,0.0000,1.44682,0.23328,-2.77748,0.97337,1.57080,0.00000,-0.14512,-0.38003,0.04653,,,,,,,,,,,,,,,,,,,,,,,,,,0,0,0,0,0
0.0958,1783190236.9148,1,0,1.0000,0.0000,1.44682,0.23328,-2.77748,0.97337,1.57080,0.00000,-0.14512,-0.38003,0.04653,,,,,,,,,,,,,,,,,,,,,,,,,,0,0,0,0,0
0.1035,1783190236.9225,1,0,1.0000,0.0000,1.44682,0.23328,-2.77748,0.97337,1.57080,0.00000,-0.14512,-0.38003,0.04653,,,,,,,,,,,,,,,,,,,,,,,,,,0,0,0,0,0
0.1157,1783190236.9348,1,0,1.0000,0.0000,1.44682,0.23328,-2.77748,0.97337,1.57080,0.00000,-0.14512,-0.38003,0.04653,,,,,,,,,,,,,,,,,,,,,,,,,,0,0,0,0,0
0.1255,1783190236.9445,1,0,1.0000,0.0000,1.44682,0.23328,-2.77748,0.97337,1.57080,0.00000,-0.14512,-0.38003,0.04653,,,,,,,,,,,,,,,,,,,,,,,,,,0,0,0,0,0
0.1257,1783190236.9448,1,0,1.0000,0.0000,1.44682,0.23328,-2.77748,0.97337,1.57080,0.00000,-0.14512,-0.38003,0.04653,,,,,,,,,,,,,,,,,,,,,,,,,,0,0,0,0,0
0.1316,1783190236.9506,1,0,1.0000,0.0000,1.44682,0.23328,-2.77748,0.97337,1.57080,0.00000,-0.14512,-0.38003,0.04653,,,,,,,,,,,,,,,,,,,,,,,,,,0,0,0,0,0
0.1484,1783190236.9674,1,0,1.0000,0.0000,1.44682,0.23328,-2.77748,0.97337,1.57080,0.00000,-0.14512,-0.38003,0.04653,,,,,,,,,,,,,,,,,,,,,,,,,,0,0,0,0,0
0.1542,1783190236.9732,1,0,1.0000,0.0000,1.44682,0.23328,-2.77748,0.97337,1.57080,0.00000,-0.14512,-0.38003,0.04653,,,,,,,,,,,,,,,,,,,,,,,,,,0,0,0,0,0
0.1632,1783190236.9822,1,0,1.0000,0.0000,1.44682,0.23328,-2.77748,0.97337,1.57080,0.00000,-0.14512,-0.38003,0.04653,,,,,,,,,,,,,,,,,,,,,,,,,,0,0,0,0,0
0.1790,1783190236.9981,1,0,1.0000,0.0000,1.44682,0.23328,-2.77748,0.97337,1.57080,0.00000,-0.14512,-0.38003,0.04653,,,,,,,,,,,,,,,,,,,,,,,,,,0,0,0,0,0
0.1811,1783190237.0001,1,0,1.0000,0.0000,1.44682,0.23328,-2.77748,0.97337,1.57080,0.00000,-0.14512,-0.38003,0.04653,,,,,,,,,,,,,,,,,,,,,,,,,,0,0,0,0,0
0.1814,1783190237.0004,1,0,1.0000,0.0000,1.44682,0.23328,-2.77748,0.97337,1.57080,0.00000,-0.14512,-0.38003,0.04653,,,,,,,,,,,,,,,,,,,,,,,,,,0,0,0,0,0
0.1952,1783190237.0142,1,0,1.0000,0.0000,1.44682,0.23328,-2.77748,0.97337,1.57080,0.00000,-0.14512,-0.38003,0.04653,,,,,,,,,,,,,,,,,,,,,,,,,,0,0,0,0,0
0.2529,1783190237.0719,1,0,1.0000,0.0000,1.44682,0.23328,-2.77748,0.97337,1.57080,0.00000,-0.14512,-0.38003,0.04653,,,,,,,,,,,,,,,,,,,,,,,,,,0,0,0,0,0
0.2533,1783190237.0723,1,0,1.0000,0.0000,1.44682,0.23328,-2.77748,0.97337,1.57080,0.00000,-0.14512,-0.38003,0.04653,,,,,,,,,,,,,,,,,,,,,,,,,,0,0,0,0,0
0.2537,1783190237.0727,1,0,1.0000,0.0000,1.44682,0.23328,-2.77748,0.97337,1.57080,0.00000,-0.14512,-0.38003,0.04653,,,,,,,,,,,,,,,,,,,,,,,,,,0,0,0,0,0
0.2541,1783190237.0731,1,0,1.0000,0.0000,1.44682,0.23328,-2.77748,0.97337,1.57080,0.00000,-0.14512,-0.38003,0.04653,,,,,,,,,,,,,,,,,,,,,,,,,,0,0,0,0,0
0.2543,1783190237.0733,1,0,1.0000,0.0000,1.44682,0.23328,-2.77748,0.97337,1.57080,0.00000,-0.14512,-0.38003,0.04653,,,,,,,,,,,,,,,,,,,,,,,,,,0,0,0,0,0
0.2546,1783190237.0737,1,0,1.0000,0.0000,1.44682,0.23328,-2.77748,0.97337,1.57080,0.00000,-0.14512,-0.38003,0.04653,,,,,,,,,,,,,,,,,,,,,,,,,,0,0,0,0,0
0.2550,1783190237.0741,1,0,1.0000,0.0000,1.44682,0.23328,-2.77748,0.97337,1.57080,0.00000,-0.14512,-0.38003,0.04653,,,,,,,,,,,,,,,,,,,,,,,,,,0,0,0,0,0
0.2682,1783190237.0872,1,0,1.0000,0.0000,1.44682,0.23328,-2.77748,0.97337,1.57080,0.00000,-0.14512,-0.38003,0.04653,,,,,,,,,,,,,,,,,,,,,,,,,,0,0,0,0,0
0.2737,1783190237.0928,1,0,1.0000,0.0000,1.44682,0.23328,-2.77748,0.97337,1.57080,0.00000,-0.14512,-0.38003,0.04653,,,,,,,,,,,,,,,,,,,,,,,,,,0,0,0,0,0
0.2740,1783190237.0930,1,0,1.0000,0.0000,1.44682,0.23328,-2.77748,0.97337,1.57080,0.00000,-0.14512,-0.38003,0.04653,,,,,,,,,,,,,,,,,,,,,,,,,,0,0,0,0,0
0.2834,1783190237.1024,1,0,1.0000,0.0000,1.44682,0.23328,-2.77748,0.97337,1.57080,0.00000,-0.14512,-0.38003,0.04653,,,,,,,,,,,,,,,,,,,,,,,,,,0,0,0,0,0
0.2981,1783190237.1172,1,0,1.0000,0.0000,1.44682,0.23328,-2.77748,0.97337,1.57080,0.00000,-0.14512,-0.38003,0.04653,,,,,,,,,,,,,,,,,,,,,,,,,,0,0,0,0,0
0.3027,1783190237.1217,1,0,1.0000,0.0000,1.44682,0.23328,-2.77748,0.97337,1.57080,0.00000,-0.14512,-0.38003,0.04653,,,,,,,,,,,,,,,,,,,,,,,,,,0,0,0,0,0
0.3234,1783190237.1425,1,0,1.0000,0.0000,1.44682,0.23328,-2.77748,0.97337,1.57080,0.00000,-0.14512,-0.38003,0.04653,,,,,,,,,,,,,,,,,,,,,,,,,,0,0,0,0,0
0.3283,1783190237.1473,1,0,1.0000,0.0000,1.44682,0.23328,-2.77748,0.97337,1.57080,0.00000,-0.14512,-0.38003,0.04653,,,,,,,,,,,,,,,,,,,,,,,,,,0,0,0,0,0
0.3327,1783190237.1518,1,0,1.0000,0.0000,1.44682,0.23328,-2.77748,0.97337,1.57080,0.00000,-0.14512,-0.38003,0.04653,,,,,,,,,,,,,,,,,,,,,,,,,,0,0,0,0,0
0.3414,1783190237.1604,1,0,1.0000,0.0000,1.44682,0.23328,-2.77748,0.97337,1.57080,0.00000,-0.14512,-0.38003,0.04653,,,,,,,,,,,,,,,,,,,,,,,,,,0,0,0,0,0
0.3558,1783190237.1748,1,0,1.0000,0.0000,1.44682,0.23328,-2.77748,0.97337,1.57080,0.00000,-0.14512,-0.38003,0.04653,,,,,,,,,,,,,,,,,,,,,,,,,,0,0,0,0,0
0.3757,1783190237.1947,1,0,1.0000,0.0000,1.44682,0.23328,-2.77748,0.97337,1.57080,0.00000,-0.14512,-0.38003,0.04653,,,,,,,,,,,,,,,,,,,,,,,,,,0,0,0,0,0
0.3817,1783190237.2007,1,0,1.0000,0.0000,1.44682,0.23328,-2.77748,0.97337,1.57080,0.00000,-0.14512,-0.38003,0.04653,,,,,,,,,,,,,,,,,,,,,,,,,,0,0,0,0,0
0.3821,1783190237.2011,1,0,1.0000,0.0000,1.44682,0.23328,-2.77748,0.97337,1.57080,0.00000,-0.14512,-0.38003,0.04653,,,,,,,,,,,,,,,,,,,,,,,,,,0,0,0,0,0
0.3911,1783190237.2101,1,0,1.0000,0.0000,1.44682,0.23328,-2.77748,0.97337,1.57080,0.00000,-0.14512,-0.38003,0.04653,,,,,,,,,,,,,,,,,,,,,,,,,,0,0,0,0,0
0.3915,1783190237.2105,1,0,1.0000,0.0000,1.44682,0.23328,-2.77748,0.97337,1.57080,0.00000,-0.14512,-0.38003,0.04653,,,,,,,,,,,,,,,,,,,,,,,,,,0,0,0,0,0
0.4033,1783190237.2223,1,0,1.0000,0.0000,1.44682,0.23328,-2.77748,0.97337,1.57080,0.00000,-0.14512,-0.38003,0.04653,,,,,,,,,,,,,,,,,,,,,,,,,,0,0,0,0,0
0.4861,1783190237.3051,1,0,1.0000,0.0000,1.44682,0.23328,-2.77748,0.97337,1.57080,0.00000,-0.14512,-0.38003,0.04653,,,,,,,,,,,,,,,,,,,,,,,,,,0,0,0,0,0
0.4866,1783190237.3056,1,0,1.0000,0.0000,1.44682,0.23328,-2.77748,0.97337,1.57080,0.00000,-0.14512,-0.38003,0.04653,,,,,,,,,,,,,,,,,,,,,,,,,,0,0,0,0,0
0.4869,1783190237.3059,1,0,1.0000,0.0000,1.44682,0.23328,-2.77748,0.97337,1.57080,0.00000,-0.14512,-0.38003,0.04653,,,,,,,,,,,,,,,,,,,,,,,,,,0,0,0,0,0
0.4872,1783190237.3062,1,0,1.0000,0.0000,1.44682,0.23328,-2.77748,0.97337,1.57080,0.00000,-0.14512,-0.38003,0.04653,,,,,,,,,,,,,,,,,,,,,,,,,,0,0,0,0,0
0.4878,1783190237.3069,1,0,1.0000,0.0000,1.44682,0.23328,-2.77748,0.97337,1.57080,0.00000,-0.14512,-0.38003,0.04653,,,,,,,,,,,,,,,,,,,,,,,,,,0,0,0,0,0
0.4881,1783190237.3071,1,0,1.0000,0.0000,1.44682,0.23328,-2.77748,0.97337,1.57080,0.00000,-0.14512,-0.38003,0.04653,,,,,,,,,,,,,,,,,,,,,,,,,,0,0,0,0,0
0.4961,1783190237.3151,1,0,1.0000,0.0000,1.44682,0.23328,-2.77748,0.97337,1.57080,0.00000,-0.14512,-0.38003,0.04653,,,,,,,,,,,,,,,,,,,,,,,,,,0,0,0,0,0
0.5009,1783190237.3200,1,0,1.0000,0.0000,1.44682,0.23328,-2.77748,0.97337,1.57080,0.00000,-0.14512,-0.38003,0.04653,,,,,,,,,,,,,,,,,,,,,,,,,,0,0,0,0,0
0.5013,1783190237.3203,1,0,1.0000,0.0000,1.44682,0.23328,-2.77748,0.97337,1.57080,0.00000,-0.14512,-0.38003,0.04653,,,,,,,,,,,,,,,,,,,,,,,,,,0,0,0,0,0
0.5113,1783190237.3303,1,0,1.0000,0.0000,1.44682,0.23328,-2.77748,0.97337,1.57080,0.00000,-0.14512,-0.38003,0.04653,,,,,,,,,,,,,,,,,,,,,,,,,,0,0,0,0,0
0.5121,1783190237.3311,1,0,1.0000,0.0000,1.44682,0.23328,-2.77748,0.97337,1.57080,0.00000,-0.14512,-0.38003,0.04653,,,,,,,,,,,,,,,,,,,,,,,,,,0,0,0,0,0
0.5283,1783190237.3473,1,0,1.0000,0.0000,1.44682,0.23328,-2.77748,0.97337,1.57080,0.00000,-0.14512,-0.38003,0.04653,,,,,,,,,,,,,,,,,,,,,,,,,,0,0,0,0,0
0.5288,1783190237.3479,1,0,1.0000,0.0000,1.44682,0.23328,-2.77748,0.97337,1.57080,0.00000,-0.14512,-0.38003,0.04653,,,,,,,,,,,,,,,,,,,,,,,,,,0,0,0,0,0
0.5330,1783190237.3521,1,0,1.0000,0.0000,1.44682,0.23328,-2.77748,0.97337,1.57080,0.00000,-0.14512,-0.38003,0.04653,,,,,,,,,,,,,,,,,,,,,,,,,,0,0,0,0,0
0.5411,1783190237.3601,1,0,1.0000,0.0000,1.44682,0.23328,-2.77748,0.97337,1.57080,0.00000,-0.14512,-0.38003,0.04653,,,,,,,,,,,,,,,,,,,,,,,,,,0,0,0,0,0
0.5540,1783190237.3730,1,0,1.0000,0.0000,1.44682,0.23328,-2.77748,0.97337,1.57080,0.00000,-0.14512,-0.38003,0.04653,,,,,,,,,,,,,,,,,,,,,,,,,,0,0,0,0,0
0.5655,1783190237.3845,1,0,1.0000,0.0000,1.44682,0.23328,-2.77748,0.97337,1.57080,0.00000,-0.14512,-0.38003,0.04653,,,,,,,,,,,,,,,,,,,,,,,,,,0,0,0,0,0
0.5658,1783190237.3848,1,0,1.0000,0.0000,1.44682,0.23328,-2.77748,0.97337,1.57080,0.00000,-0.14512,-0.38003,0.04653,,,,,,,,,,,,,,,,,,,,,,,,,,0,0,0,0,0
0.5721,1783190237.3912,1,0,1.0000,0.0000,1.44682,0.23328,-2.77748,0.97337,1.57080,0.00000,-0.14512,-0.38003,0.04653,,,,,,,,,,,,,,,,,,,,,,,,,,0,0,0,0,0
0.5725,1783190237.3916,1,0,1.0000,0.0000,1.44682,0.23328,-2.77748,0.97337,1.57080,0.00000,-0.14512,-0.38003,0.04653,,,,,,,,,,,,,,,,,,,,,,,,,,0,0,0,0,0
0.5815,1783190237.4005,1,0,1.0000,0.0000,1.44682,0.23328,-2.77748,0.97337,1.57080,0.00000,-0.14512,-0.38003,0.04653,,,,,,,,,,,,,,,,,,,,,,,,,,0,0,0,0,0
0.5818,1783190237.4008,1,0,1.0000,0.0000,1.44682,0.23328,-2.77748,0.97337,1.57080,0.00000,-0.14512,-0.38003,0.04653,,,,,,,,,,,,,,,,,,,,,,,,,,0,0,0,0,0
0.5925,1783190237.4115,1,0,1.0000,0.0000,1.44682,0.23328,-2.77748,0.97337,1.57080,0.00000,-0.14512,-0.38003,0.04653,,,,,,,,,,,,,,,,,,,,,,,,,,0,0,0,0,0
0.6013,1783190237.4203,1,0,1.0000,0.0000,1.44682,0.23328,-2.77748,0.97337,1.57080,0.00000,-0.14512,-0.38003,0.04653,,,,,,,,,,,,,,,,,,,,,,,,,,0,0,0,0,0
0.6118,1783190237.4308,1,0,1.0000,0.0000,1.44682,0.23328,-2.77748,0.97337,1.57080,0.00000,-0.14512,-0.38003,0.04653,,,,,,,,,,,,,,,,,,,,,,,,,,0,0,0,0,0
0.6121,1783190237.4312,1,0,1.0000,0.0000,1.44682,0.23328,-2.77748,0.97337,1.57080,0.00000,-0.14512,-0.38003,0.04653,,,,,,,,,,,,,,,,,,,,,,,,,,0,0,0,0,0
0.6317,1783190237.4507,1,0,1.0000,0.0000,1.44682,0.23328,-2.77748,0.97337,1.57080,0.00000,-0.14512,-0.38003,0.04653,,,,,,,,,,,,,,,,,,,,,,,,,,0,0,0,0,0
0.6321,1783190237.4511,1,0,1.0000,0.0000,1.44682,0.23328,-2.77748,0.97337,1.57080,0.00000,-0.14512,-0.38003,0.04653,,,,,,,,,,,,,,,,,,,,,,,,,,0,0,0,0,0
0.6337,1783190237.4527,1,0,1.0000,0.0000,1.44682,0.23328,-2.77748,0.97337,1.57080,0.00000,-0.14512,-0.38003,0.04653,,,,,,,,,,,,,,,,,,,,,,,,,,0,0,0,0,0
0.6454,1783190237.4644,1,0,1.0000,0.0000,1.44682,0.23328,-2.77748,0.97337,1.57080,0.00000,-0.14512,-0.38003,0.04653,,,,,,,,,,,,,,,,,,,,,,,,,,0,0,0,0,0
0.6511,1783190237.4702,1,0,1.0000,0.0000,1.44682,0.23328,-2.77748,0.97337,1.57080,0.00000,-0.14512,-0.38003,0.04653,,,,,,,,,,,,,,,,,,,,,,,,,,0,0,0,0,0
0.6519,1783190237.4709,1,0,1.0000,0.0000,1.44682,0.23328,-2.77748,0.97337,1.57080,0.00000,-0.14512,-0.38003,0.04653,,,,,,,,,,,,,,,,,,,,,,,,,,0,0,0,0,0
0.6630,1783190237.4820,1,0,1.0000,0.0000,1.44682,0.23328,-2.77748,0.97337,1.57080,0.00000,-0.14512,-0.38003,0.04653,,,,,,,,,,,,,,,,,,,,,,,,,,0,0,0,0,0
0.6765,1783190237.4955,1,0,1.0000,0.0000,1.44682,0.23328,-2.77748,0.97337,1.57080,0.00000,-0.14512,-0.38003,0.04653,,,,,,,,,,,,,,,,,,,,,,,,,,0,0,0,0,0
0.6819,1783190237.5009,1,0,1.0000,0.0000,1.44682,0.23328,-2.77748,0.97337,1.57080,0.00000,-0.14512,-0.38003,0.04653,,,,,,,,,,,,,,,,,,,,,,,,,,0,0,0,0,0
0.6918,1783190237.5108,1,0,1.0000,0.0000,1.44682,0.23328,-2.77748,0.97337,1.57080,0.00000,-0.14512,-0.38003,0.04653,,,,,,,,,,,,,,,,,,,,,,,,,,0,0,0,0,0
0.7040,1783190237.5230,1,0,1.0000,0.0000,1.44682,0.23328,-2.77748,0.97337,1.57080,0.00000,-0.14512,-0.38003,0.04653,,,,,,,,,,,,,,,,,,,,,,,,,,0,0,0,0,0
0.7119,1783190237.5309,1,0,1.0000,0.0000,1.44682,0.23328,-2.77748,0.97337,1.57080,0.00000,-0.14512,-0.38003,0.04653,,,,,,,,,,,,,,,,,,,,,,,,,,0,0,0,0,0
0.7337,1783190237.5527,1,1,1.0000,0.0000,1.44682,0.23328,-2.77748,0.97337,1.57080,0.00000,-0.14512,-0.38003,0.04653,,,,,,,,,,,,,,,,,,,,,,,,,,0,0,0,0,0
0.7340,1783190237.5531,1,1,1.0000,0.0000,1.44682,0.23328,-2.77748,0.97337,1.57080,0.00000,-0.14512,-0.38003,0.04653,,,,,,,,,,,,,,,,,,,,,,,,,,0,0,0,0,0
0.7430,1783190237.5620,1,1,1.0000,0.0000,1.44682,0.23328,-2.77748,0.97337,1.57080,0.00000,-0.14512,-0.38003,0.04653,,,,,,,,,,,,,,,,,,,,,,,,,,0,0,0,0,0
0.7526,1783190237.5716,1,1,1.0000,0.0000,1.44682,0.23328,-2.77748,0.97337,1.57080,0.00000,-0.14512,-0.38003,0.04653,,,,,,,,,,,,,,,,,,,,,,,,,,0,0,0,0,0
0.7623,1783190237.5813,1,1,1.0000,0.0000,1.44682,0.23328,-2.77748,0.97337,1.57080,0.00000,-0.14512,-0.38003,0.04653,,,,,,,,,,,,,,,,,,,,,,,,,,0,0,0,0,0
0.7760,1783190237.5950,1,1,1.0000,0.0000,1.44682,0.23328,-2.77748,0.97337,1.57080,0.00000,-0.14512,-0.38003,0.04653,,,,,,,,,,,,,,,,,,,,,,,,,,0,0,0,0,0
0.7856,1783190237.6046,1,1,1.0000,0.0000,1.44682,0.23328,-2.77748,0.97337,1.57080,0.00000,-0.14512,-0.38003,0.04653,,,,,,,,,,,,,,,,,,,,,,,,,,0,0,0,0,0
0.7936,1783190237.6126,1,1,1.0000,0.0000,1.44682,0.23328,-2.77748,0.97337,1.57080,0.00000,-0.14512,-0.38003,0.04653,,,,,,,,,,,,,,,,,,,,,,,,,,0,0,0,0,0
0.7940,1783190237.6130,1,1,1.0000,0.0000,1.44682,0.23328,-2.77748,0.97337,1.57080,0.00000,-0.14512,-0.38003,0.04653,,,,,,,,,,,,,,,,,,,,,,,,,,0,0,0,0,0
0.8010,1783190237.6201,1,1,1.0000,0.0000,1.44682,0.23328,-2.77748,0.97337,1.57080,0.00000,-0.14512,-0.38003,0.04653,,,,,,,,,,,,,,,,,,,,,,,,,,0,0,0,0,0
0.8015,1783190237.6205,1,1,1.0000,0.0000,1.44682,0.23328,-2.77748,0.97337,1.57080,0.00000,-0.14512,-0.38003,0.04653,,,,,,,,,,,,,,,,,,,,,,,,,,0,0,0,0,0
0.8118,1783190237.6309,1,1,1.0000,0.0000,1.44682,0.23328,-2.77748,0.97337,1.57080,0.00000,-0.14512,-0.38003,0.04653,,,,,,,,,,,,,,,,,,,,,,,,,,0,0,0,0,0
0.8121,1783190237.6311,1,1,1.0000,0.0000,1.44682,0.23328,-2.77748,0.97337,1.57080,0.00000,-0.14512,-0.38003,0.04653,,,,,,,,,,,,,,,,,,,,,,,,,,0,0,0,0,0
0.8273,1783190237.6463,1,1,1.0000,0.0000,1.44682,0.23328,-2.77748,0.97337,1.57080,0.00000,-0.14512,-0.38003,0.04653,,,,,,,,,,,,,,,,,,,,,,,,,,0,0,0,0,0
0.8383,1783190237.6573,1,1,1.0000,0.0000,1.44682,0.23328,-2.77748,0.97337,1.57080,0.00000,-0.14512,-0.38003,0.04653,,,,,,,,,,,,,,,,,,,,,,,,,,0,0,0,0,0
0.8422,1783190237.6612,1,1,1.0000,0.0000,1.44682,0.23328,-2.77748,0.97337,1.57080,0.00000,-0.14512,-0.38003,0.04653,,,,,,,,,,,,,,,,,,,,,,,,,,0,0,0,0,0
0.8425,1783190237.6615,1,1,1.0000,0.0000,1.44682,0.23328,-2.77748,0.97337,1.57080,0.00000,-0.14512,-0.38003,0.04653,,,,,,,,,,,,,,,,,,,,,,,,,,0,0,0,0,0
0.8516,1783190237.6706,1,1,1.0000,0.0000,1.44682,0.23328,-2.77748,0.97337,1.57080,0.00000,-0.14512,-0.38003,0.04653,,,,,,,,,,,,,,,,,,,,,,,,,,0,0,0,0,0
0.8655,1783190237.6846,1,1,1.0000,0.0000,1.44682,0.23328,-2.77748,0.97337,1.57080,0.00000,-0.14512,-0.38003,0.04653,,,,,,,,,,,,,,,,,,,,,,,,,,0,0,0,0,0
0.8788,1783190237.6979,1,1,1.0000,0.0000,1.44682,0.23328,-2.77748,0.97337,1.57080,0.00000,-0.14512,-0.38003,0.04653,,,,,,,,,,,,,,,,,,,,,,,,,,0,0,0,0,0
0.8791,1783190237.6982,1,1,1.0000,0.0000,1.44682,0.23328,-2.77748,0.97337,1.57080,0.00000,-0.14512,-0.38003,0.04653,,,,,,,,,,,,,,,,,,,,,,,,,,0,0,0,0,0
0.8856,1783190237.7047,1,1,1.0000,0.0000,1.44682,0.23328,-2.77748,0.97337,1.57080,0.00000,-0.14512,-0.38003,0.04653,,,,,,,,,,,,,,,,,,,,,,,,,,0,0,0,0,0
0.8965,1783190237.7155,1,1,1.0000,0.0000,1.44682,0.23328,-2.77748,0.97337,1.57080,0.00000,-0.14512,-0.38003,0.04653,,,,,,,,,,,,,,,,,,,,,,,,,,0,0,0,0,0
0.9095,1783190237.7286,1,1,1.0000,0.0000,1.44682,0.23328,-2.77748,0.97337,1.57080,0.00000,-0.14512,-0.38003,0.04653,,,,,,,,,,,,,,,,,,,,,,,,,,0,0,0,0,0
0.9182,1783190237.7372,1,1,1.0000,0.0000,1.44682,0.23328,-2.77748,0.97337,1.57080,0.00000,-0.14512,-0.38003,0.04653,,,,,,,,,,,,,,,,,,,,,,,,,,0,0,0,0,0
0.9244,1783190237.7434,1,1,1.0000,0.0000,1.44682,0.23328,-2.77748,0.97337,1.57080,0.00000,-0.14512,-0.38003,0.04653,,,,,,,,,,,,,,,,,,,,,,,,,,0,0,0,0,0
0.9370,1783190237.7560,1,1,1.0000,0.0000,1.44682,0.23316,-2.77751,0.97352,1.57080,0.00000,-0.14512,-0.38003,0.04650,,,,,,,,,,,,,,,,,,,,,,,,,,0,0,0,0,0
0.9440,1783190237.7630,1,1,1.0000,0.0000,1.44682,0.23301,-2.77755,0.97371,1.57080,0.00000,-0.14512,-0.38003,0.04646,,,,,,,,,,,,,,,,,,,,,,,,,,0,0,0,0,0
0.9443,1783190237.7633,1,1,1.0000,0.0000,1.44682,0.23301,-2.77755,0.97371,1.57080,0.00000,-0.14512,-0.38003,0.04646,,,,,,,,,,,,,,,,,,,,,,,,,,0,0,0,0,0
0.9522,1783190237.7713,1,1,1.0000,0.0000,1.44682,0.23293,-2.77757,0.97381,1.57080,0.00000,-0.14512,-0.38003,0.04644,,,,,,,,,,,,,,,,,,,,,,,,,,0,0,0,0,0
0.9659,1783190237.7849,1,1,1.0000,0.0000,1.44682,0.23284,-2.77759,0.97392,1.57080,0.00000,-0.14512,-0.38003,0.04641,,,,,,,,,,,,,,,,,,,,,,,,,,0,0,0,0,0
0.9725,1783190237.7915,1,1,1.0000,0.0000,1.44682,0.23271,-2.77762,0.97408,1.57080,0.00000,-0.14512,-0.38003,0.04638,,,,,,,,,,,,,,,,,,,,,,,,,,0,0,0,0,0
0.9856,1783190237.8046,1,1,1.0000,0.0000,1.44682,0.23258,-2.77766,0.97425,1.57080,0.00000,-0.14512,-0.38003,0.04635,,,,,,,,,,,,,,,,,,,,,,,,,,0,0,0,0,0
0.9965,1783190237.8155,1,1,1.0000,0.0000,1.44682,0.23251,-2.77767,0.97433,1.57080,0.00000,-0.14512,-0.38003,0.04633,,,,,,,,,,,,,,,,,,,,,,,,,,0,0,0,0,0
1.0016,1783190237.8206,1,1,1.0000,0.0000,1.44682,0.23246,-2.77769,0.97439,1.57080,0.00000,-0.14512,-0.38003,0.04631,,,,,,,,,,,,,,,,,,,,,,,,,,0,0,0,0,0
1.0112,1783190237.8302,1,1,1.0000,0.0000,1.44682,0.23235,-2.77772,0.97454,1.57080,0.00000,-0.14512,-0.38003,0.04629,,,,,,,,,,,,,,,,,,,,,,,,,,0,0,0,0,0
1.0257,1783190237.8447,1,1,1.0000,0.0000,1.44682,0.23225,-2.77774,0.97466,1.57080,0.00000,-0.14512,-0.38003,0.04626,,,,,,,,,,,,,,,,,,,,,,,,,,0,0,0,0,0
1.0373,1783190237.8564,1,1,1.0000,0.0000,1.44682,0.23205,-2.77779,0.97491,1.57080,0.00000,-0.14512,-0.38003,0.04621,,,,,,,,,,,,,,,,,,,,,,,,,,0,0,0,0,0
1.0415,1783190237.8605,1,1,1.0000,0.0000,1.44682,0.23198,-2.77781,0.97500,1.57080,0.00000,-0.14512,-0.38003,0.04619,,,,,,,,,,,,,,,,,,,,,,,,,,0,0,0,0,0
1.0516,1783190237.8707,1,1,1.0000,0.0000,1.44682,0.23195,-2.77782,0.97504,1.57080,0.00000,-0.14512,-0.38003,0.04618,,,,,,,,,,,,,,,,,,,,,,,,,,0,0,0,0,0
1.0618,1783190237.8808,1,1,1.0000,0.0000,1.44682,0.23187,-2.77784,0.97514,1.57080,0.00000,-0.14512,-0.38003,0.04616,,,,,,,,,,,,,,,,,,,,,,,,,,0,0,0,0,0
1.0718,1783190237.8908,1,1,1.0000,0.0000,1.44682,0.23176,-2.77787,0.97528,1.57080,0.00000,-0.14512,-0.38003,0.04613,,,,,,,,,,,,,,,,,,,,,,,,,,0,0,0,0,0
1.0832,1783190237.9022,1,1,1.0000,0.0000,1.44682,0.23171,-2.77788,0.97534,1.57080,0.00000,-0.14512,-0.38003,0.04612,,,,,,,,,,,,,,,,,,,,,,,,,,0,0,0,0,0
1.0840,1783190237.9030,1,1,1.0000,0.0000,1.44682,0.23166,-2.77789,0.97540,1.57080,0.00000,-0.14512,-0.38003,0.04610,,,,,,,,,,,,,,,,,,,,,,,,,,0,0,0,0,0
1.0986,1783190237.9176,1,1,1.0000,0.0000,1.44682,0.23146,-2.77795,0.97566,1.57080,0.00000,-0.14512,-0.38003,0.04605,,,,,,,,,,,,,,,,,,,,,,,,,,0,0,0,0,0
1.1018,1783190237.9208,1,1,1.0000,0.0000,1.44682,0.23139,-2.77796,0.97574,1.57080,0.00000,-0.14512,-0.38003,0.04603,,,,,,,,,,,,,,,,,,,,,,,,,,0,0,0,0,0
1.1132,1783190237.9322,1,1,1.0000,0.0000,1.44682,0.23136,-2.77797,0.97578,1.57080,0.00000,-0.14512,-0.38003,0.04603,,,,,,,,,,,,,,,,,,,,,,,,,,0,0,0,0,0
1.1400,1783190237.9591,1,1,1.0000,0.0000,1.44682,0.23112,-2.77803,0.97609,1.57080,0.00000,-0.14512,-0.38003,0.04596,,,,,,,,,,,,,,,,,,,,,,,,,,0,0,0,0,0
1.1460,1783190237.9650,1,1,1.0000,0.0000,1.44682,0.23107,-2.77805,0.97615,1.57080,0.00000,-0.14512,-0.38003,0.04595,,,,,,,,,,,,,,,,,,,,,,,,,,0,0,0,0,0
1.1465,1783190237.9655,1,1,1.0000,0.0000,1.44682,0.23107,-2.77805,0.97615,1.57080,0.00000,-0.14512,-0.38003,0.04595,,,,,,,,,,,,,,,,,,,,,,,,,,0,0,0,0,0
1.1468,1783190237.9658,1,1,1.0000,0.0000,1.44682,0.23107,-2.77805,0.97615,1.57080,0.00000,-0.14512,-0.38003,0.04595,,,,,,,,,,,,,,,,,,,,,,,,,,0,0,0,0,0
1.1519,1783190237.9709,1,1,1.0000,0.0000,1.44682,0.23094,-2.77808,0.97631,1.57080,0.00000,-0.14512,-0.38003,0.04592,,,,,,,,,,,,,,,,,,,,,,,,,,0,0,0,0,0
1.1612,1783190237.9803,1,1,1.0000,0.0000,1.44682,0.23080,-2.77812,0.97649,1.57080,0.00000,-0.14512,-0.38003,0.04588,,,,,,,,,,,,,,,,,,,,,,,,,,0,0,0,0,0
1.1615,1783190237.9805,1,1,1.0000,0.0000,1.44682,0.23080,-2.77812,0.97649,1.57080,0.00000,-0.14512,-0.38003,0.04588,,,,,,,,,,,,,,,,,,,,,,,,,,0,0,0,0,0
1.1751,1783190237.9941,1,1,1.0000,0.0000,1.44682,0.23076,-2.77812,0.97653,1.57080,0.00000,-0.14512,-0.38003,0.04587,,,,,,,,,,,,,,,,,,,,,,,,,,0,0,0,0,0
1.2091,1783190238.0281,1,1,1.0000,0.0000,1.44682,0.23041,-2.77822,0.97697,1.57080,0.00000,-0.14512,-0.38003,0.04578,,,,,,,,,,,,,,,,,,,,,,,,,,0,0,0,0,0
1.2568,1783190238.0758,1,1,1.0000,0.0000,1.44682,0.22996,-2.77833,0.97754,1.57080,0.00000,-0.14512,-0.38003,0.04566,,,,,,,,,,,,,,,,,,,,,,,,,,0,0,0,0,0
1.2572,1783190238.0762,1,1,1.0000,0.0000,1.44682,0.22996,-2.77833,0.97754,1.57080,0.00000,-0.14512,-0.38003,0.04566,,,,,,,,,,,,,,,,,,,,,,,,,,0,0,0,0,0
1.2682,1783190238.0872,1,1,1.0000,0.0000,1.44682,0.22981,-2.77837,0.97772,1.57080,0.00000,-0.14512,-0.38003,0.04562,,,,,,,,,,,,,,,,,,,,,,,,,,0,0,0,0,0
1.3298,1783190238.1488,1,1,1.0000,0.0000,1.44682,0.22916,-2.77853,0.97854,1.57080,0.00000,-0.14512,-0.38003,0.04545,,,,,,,,,,,,,,,,,,,,,,,,,,0,0,0,0,0
1.3302,1783190238.1492,1,1,1.0000,0.0000,1.44682,0.22916,-2.77853,0.97854,1.57080,0.00000,-0.14512,-0.38003,0.04545,,,,,,,,,,,,,,,,,,,,,,,,,,0,0,0,0,0
1.3307,1783190238.1497,1,1,1.0000,0.0000,1.44682,0.22916,-2.77853,0.97854,1.57080,0.00000,-0.14512,-0.38003,0.04545,,,,,,,,,,,,,,,,,,,,,,,,,,0,0,0,0,0
1.3311,1783190238.1501,1,1,1.0000,0.0000,1.44682,0.22916,-2.77853,0.97854,1.57080,0.00000,-0.14512,-0.38003,0.04545,,,,,,,,,,,,,,,,,,,,,,,,,,0,0,0,0,0
1.3318,1783190238.1508,1,1,1.0000,0.0000,1.44682,0.22909,-2.77855,0.97863,1.57080,0.00000,-0.14512,-0.38003,0.04544,,,,,,,,,,,,,,,,,,,,,,,,,,0,0,0,0,0
1.3642,1783190238.1832,1,1,1.0000,0.0000,1.44682,0.22873,-2.77864,0.97908,1.57080,0.00000,-0.14512,-0.38003,0.04534,,,,,,,,,,,,,,,,,,,,,,,,,,0,0,0,0,0
1.4288,1783190238.2478,1,1,1.0000,0.0000,1.44682,0.22801,-2.77883,0.97998,1.57080,0.00000,-0.14512,-0.38003,0.04515,,,,,,,,,,,,,,,,,,,,,,,,,,0,0,0,0,0
1.4291,1783190238.2481,1,1,1.0000,0.0000,1.44682,0.22801,-2.77883,0.97998,1.57080,0.00000,-0.14512,-0.38003,0.04515,,,,,,,,,,,,,,,,,,,,,,,,,,0,0,0,0,0
1.4295,1783190238.2485,1,1,1.0000,0.0000,1.44682,0.22801,-2.77883,0.97998,1.57080,0.00000,-0.14512,-0.38003,0.04515,,,,,,,,,,,,,,,,,,,,,,,,,,0,0,0,0,0
1.4297,1783190238.2487,1,1,1.0000,0.0000,1.44682,0.22801,-2.77883,0.97998,1.57080,0.00000,-0.14512,-0.38003,0.04515,,,,,,,,,,,,,,,,,,,,,,,,,,0,0,0,0,0
1.4300,1783190238.2490,1,1,1.0000,0.0000,1.44682,0.22801,-2.77883,0.97998,1.57080,0.00000,-0.14512,-0.38003,0.04515,,,,,,,,,,,,,,,,,,,,,,,,,,0,0,0,0,0
1.4302,1783190238.2492,1,1,1.0000,0.0000,1.44682,0.22801,-2.77883,0.97998,1.57080,0.00000,-0.14512,-0.38003,0.04515,,,,,,,,,,,,,,,,,,,,,,,,,,0,0,0,0,0
1.4304,1783190238.2495,1,1,1.0000,0.0000,1.44682,0.22801,-2.77883,0.97998,1.57080,0.00000,-0.14512,-0.38003,0.04515,,,,,,,,,,,,,,,,,,,,,,,,,,0,0,0,0,0
1.4307,1783190238.2498,1,1,1.0000,0.0000,1.44682,0.22801,-2.77883,0.97998,1.57080,0.00000,-0.14512,-0.38003,0.04515,,,,,,,,,,,,,,,,,,,,,,,,,,0,0,0,0,0
1.4310,1783190238.2500,1,1,1.0000,0.0000,1.44682,0.22801,-2.77883,0.97998,1.57080,0.00000,-0.14512,-0.38003,0.04515,,,,,,,,,,,,,,,,,,,,,,,,,,0,0,0,0,0
1.4312,1783190238.2502,1,1,1.0000,0.0000,1.44682,0.22801,-2.77883,0.97998,1.57080,0.00000,-0.14512,-0.38003,0.04515,,,,,,,,,,,,,,,,,,,,,,,,,,0,0,0,0,0
1.4315,1783190238.2505,1,1,1.0000,0.0000,1.44682,0.22801,-2.77883,0.97998,1.57080,0.00000,-0.14512,-0.38003,0.04515,,,,,,,,,,,,,,,,,,,,,,,,,,0,0,0,0,0
1.4320,1783190238.2510,1,1,1.0000,0.0000,1.44682,0.22801,-2.77883,0.97998,1.57080,0.00000,-0.14512,-0.38003,0.04515,,,,,,,,,,,,,,,,,,,,,,,,,,0,0,0,0,0
1.4321,1783190238.2511,1,1,1.0000,0.0000,1.44682,0.22801,-2.77883,0.97998,1.57080,0.00000,-0.14512,-0.38003,0.04515,,,,,,,,,,,,,,,,,,,,,,,,,,0,0,0,0,0
1.5025,1783190238.3216,1,1,1.0000,0.0000,1.44682,0.22729,-2.77901,0.98090,1.57080,0.00000,-0.14512,-0.38003,0.04497,,,,,,,,,,,,,,,,,,,,,,,,,,0,0,0,0,0
1.5028,1783190238.3218,1,1,1.0000,0.0000,1.44682,0.22729,-2.77901,0.98090,1.57080,0.00000,-0.14512,-0.38003,0.04497,,,,,,,,,,,,,,,,,,,,,,,,,,0,0,0,0,0
1.5031,1783190238.3221,1,1,1.0000,0.0000,1.44682,0.22729,-2.77901,0.98090,1.57080,0.00000,-0.14512,-0.38003,0.04497,,,,,,,,,,,,,,,,,,,,,,,,,,0,0,0,0,0
1.5035,1783190238.3225,1,1,1.0000,0.0000,1.44682,0.22729,-2.77901,0.98090,1.57080,0.00000,-0.14512,-0.38003,0.04497,,,,,,,,,,,,,,,,,,,,,,,,,,0,0,0,0,0
1.5042,1783190238.3233,1,1,1.0000,0.0000,1.44682,0.22726,-2.77902,0.98093,1.57080,0.00000,-0.14512,-0.38003,0.04496,,,,,,,,,,,,,,,,,,,,,,,,,,0,0,0,0,0
1.5045,1783190238.3235,1,1,1.0000,0.0000,1.44682,0.22726,-2.77902,0.98093,1.57080,0.00000,-0.14512,-0.38003,0.04496,,,,,,,,,,,,,,,,,,,,,,,,,,0,0,0,0,0
1.5235,1783190238.3425,1,1,1.0000,0.0000,1.44682,0.22706,-2.77907,0.98117,1.57080,0.00001,-0.14512,-0.38003,0.04491,,,,,,,,,,,,,,,,,,,,,,,,,,0,0,0,0,0
1.5243,1783190238.3433,1,1,1.0000,0.0000,1.44682,0.22706,-2.77907,0.98117,1.57080,0.00001,-0.14512,-0.38003,0.04491,,,,,,,,,,,,,,,,,,,,,,,,,,0,0,0,0,0
1.5261,1783190238.3451,1,1,1.0000,0.0000,1.44682,0.22706,-2.77907,0.98117,1.57080,0.00001,-0.14512,-0.38003,0.04491,,,,,,,,,,,,,,,,,,,,,,,,,,0,0,0,0,0
1.5265,1783190238.3455,1,1,1.0000,0.0000,1.44682,0.22706,-2.77907,0.98117,1.57080,0.00001,-0.14512,-0.38003,0.04491,,,,,,,,,,,,,,,,,,,,,,,,,,0,0,0,0,0
1.5448,1783190238.3638,1,1,1.0000,0.0000,1.44682,0.22684,-2.77913,0.98146,1.57080,0.00001,-0.14512,-0.38003,0.04485,,,,,,,,,,,,,,,,,,,,,,,,,,0,0,0,0,0
1.5451,1783190238.3641,1,1,1.0000,0.0000,1.44682,0.22684,-2.77913,0.98146,1.57080,0.00001,-0.14512,-0.38003,0.04485,,,,,,,,,,,,,,,,,,,,,,,,,,0,0,0,0,0
1.5522,1783190238.3712,1,1,1.0000,0.0000,1.44682,0.22676,-2.77914,0.98155,1.57080,0.00001,-0.14512,-0.38003,0.04483,,,,,,,,,,,,,,,,,,,,,,,,,,0,0,0,0,0
1.5525,1783190238.3715,1,1,1.0000,0.0000,1.44682,0.22676,-2.77914,0.98155,1.57080,0.00001,-0.14512,-0.38003,0.04483,,,,,,,,,,,,,,,,,,,,,,,,,,0,0,0,0,0
1.5568,1783190238.3758,1,1,1.0000,0.0000,1.44682,0.22675,-2.77915,0.98156,1.57080,0.00001,-0.14512,-0.38003,0.04483,,,,,,,,,,,,,,,,,,,,,,,,,,0,0,0,0,0
1.5620,1783190238.3810,1,1,1.0000,0.0000,1.44682,0.22672,-2.77916,0.98161,1.57080,0.00001,-0.14512,-0.38003,0.04482,,,,,,,,,,,,,,,,,,,,,,,,,,0,0,0,0,0
1.5624,1783190238.3814,1,1,1.0000,0.0000,1.44682,0.22672,-2.77916,0.98161,1.57080,0.00001,-0.14512,-0.38003,0.04482,,,,,,,,,,,,,,,,,,,,,,,,,,0,0,0,0,0
1.5776,1783190238.3966,1,1,1.0000,0.0000,1.44682,0.22647,-2.77922,0.98191,1.57080,0.00001,-0.14512,-0.38003,0.04476,,,,,,,,,,,,,,,,,,,,,,,,,,0,0,0,0,0
1.5862,1783190238.4052,1,1,1.0000,0.0000,1.44682,0.22641,-2.77924,0.98200,1.57080,0.00001,-0.14512,-0.38003,0.04474,,,,,,,,,,,,,,,,,,,,,,,,,,0,0,0,0,0
1.5949,1783190238.4140,1,1,1.0000,0.0000,1.44682,0.22636,-2.77925,0.98205,1.57080,0.00001,-0.14512,-0.38003,0.04473,,,,,,,,,,,,,,,,,,,,,,,,,,0,0,0,0,0
1.6021,1783190238.4212,1,1,1.0000,0.0000,1.44682,0.22625,-2.77927,0.98219,1.57080,0.00001,-0.14512,-0.38003,0.04470,,,,,,,,,,,,,,,,,,,,,,,,,,0,0,0,0,0
1.6024,1783190238.4215,1,1,1.0000,0.0000,1.44682,0.22625,-2.77927,0.98219,1.57080,0.00001,-0.14512,-0.38003,0.04470,,,,,,,,,,,,,,,,,,,,,,,,,,0,0,0,0,0
1.6153,1783190238.4344,1,1,1.0000,0.0000,1.44682,0.22604,-2.77933,0.98245,1.57080,0.00001,-0.14512,-0.38003,0.04464,,,,,,,,,,,,,,,,,,,,,,,,,,0,0,0,0,0
1.6162,1783190238.4352,1,1,1.0000,0.0000,1.44682,0.22604,-2.77933,0.98245,1.57080,0.00001,-0.14512,-0.38003,0.04464,,,,,,,,,,,,,,,,,,,,,,,,,,0,0,0,0,0
1.6222,1783190238.4412,1,1,1.0000,0.0000,1.44682,0.22604,-2.77933,0.98246,1.57080,0.00001,-0.14512,-0.38003,0.04464,,,,,,,,,,,,,,,,,,,,,,,,,,0,0,0,0,0
1.6225,1783190238.4416,1,1,1.0000,0.0000,1.44682,0.22604,-2.77933,0.98246,1.57080,0.00001,-0.14512,-0.38003,0.04464,,,,,,,,,,,,,,,,,,,,,,,,,,0,0,0,0,0
1.6361,1783190238.4551,1,1,1.0000,0.0000,1.44682,0.22587,-2.77937,0.98267,1.57080,0.00001,-0.14512,-0.38003,0.04460,,,,,,,,,,,,,,,,,,,,,,,,,,0,0,0,0,0
1.6539,1783190238.4730,1,1,1.0000,0.0000,1.44682,0.22577,-2.77940,0.98280,1.57080,0.00001,-0.14512,-0.38003,0.04457,,,,,,,,,,,,,,,,,,,,,,,,,,0,0,0,0,0
1.6543,1783190238.4733,1,1,1.0000,0.0000,1.44682,0.22577,-2.77940,0.98280,1.57080,0.00001,-0.14512,-0.38003,0.04457,,,,,,,,,,,,,,,,,,,,,,,,,,0,0,0,0,0
1.6663,1783190238.4854,1,1,1.0000,0.0000,1.44682,0.22558,-2.77944,0.98303,1.57080,0.00001,-0.14512,-0.38003,0.04453,,,,,,,,,,,,,,,,,,,,,,,,,,0,0,0,0,0
1.6712,1783190238.4902,1,1,1.0000,0.0000,1.44682,0.22551,-2.77946,0.98312,1.57080,0.00001,-0.14512,-0.38003,0.04451,,,,,,,,,,,,,,,,,,,,,,,,,,0,0,0,0,0
1.6722,1783190238.4912,1,1,1.0000,0.0000,1.44682,0.22551,-2.77946,0.98312,1.57080,0.00001,-0.14512,-0.38003,0.04451,,,,,,,,,,,,,,,,,,,,,,,,,,0,0,0,0,0
1.6815,1783190238.5005,1,1,1.0000,0.0000,1.44682,0.22547,-2.77947,0.98317,1.57080,0.00001,-0.14512,-0.38002,0.04450,,,,,,,,,,,,,,,,,,,,,,,,,,0,0,0,0,0
1.6980,1783190238.5170,1,1,1.0000,0.0000,1.44682,0.22522,-2.77953,0.98348,1.57080,0.00001,-0.14512,-0.38002,0.04443,,,,,,,,,,,,,,,,,,,,,,,,,,0,0,0,0,0
1.7019,1783190238.5209,1,1,1.0000,0.0000,1.44682,0.22515,-2.77955,0.98357,1.57080,0.00001,-0.14512,-0.38002,0.04441,,,,,,,,,,,,,,,,,,,,,,,,,,0,0,0,0,0
1.7125,1783190238.5315,1,1,1.0000,0.0000,1.44682,0.22511,-2.77956,0.98362,1.57080,0.00001,-0.14512,-0.38002,0.04440,,,,,,,,,,,,,,,,,,,,,,,,,,0,0,0,0,0
1.7232,1783190238.5422,1,1,1.0000,0.0000,1.44682,0.22500,-2.77959,0.98376,1.57080,0.00001,-0.14512,-0.38002,0.04437,,,,,,,,,,,,,,,,,,,,,,,,,,0,0,0,0,0
1.7236,1783190238.5426,1,1,1.0000,0.0000,1.44682,0.22500,-2.77959,0.98376,1.57080,0.00001,-0.14512,-0.38002,0.04437,,,,,,,,,,,,,,,,,,,,,,,,,,0,0,0,0,0
1.7330,1783190238.5520,1,1,1.0000,0.0000,1.44682,0.22479,-2.77964,0.98402,1.57080,0.00001,-0.14512,-0.38002,0.04432,,,,,,,,,,,,,,,,,,,,,,,,,,0,0,0,0,0
1.7542,1783190238.5732,1,1,1.0000,0.0000,1.44682,0.22468,-2.77967,0.98417,1.57080,0.00001,-0.14512,-0.38002,0.04429,,,,,,,,,,,,,,,,,,,,,,,,,,0,0,0,0,0
1.7548,1783190238.5738,1,1,1.0000,0.0000,1.44682,0.22468,-2.77967,0.98417,1.57080,0.00001,-0.14512,-0.38002,0.04429,,,,,,,,,,,,,,,,,,,,,,,,,,0,0,0,0,0
1.7625,1783190238.5816,1,1,1.0000,0.0000,1.44682,0.22456,-2.77970,0.98431,1.57080,0.00001,-0.14512,-0.38002,0.04426,,,,,,,,,,,,,,,,,,,,,,,,,,0,0,0,0,0
1.7632,1783190238.5822,1,1,1.0000,0.0000,1.44682,0.22456,-2.77970,0.98431,1.57080,0.00001,-0.14512,-0.38002,0.04426,,,,,,,,,,,,,,,,,,,,,,,,,,0,0,0,0,0
1.7738,1783190238.5929,1,1,1.0000,0.0000,1.44682,0.22451,-2.77971,0.98437,1.57080,0.00001,-0.14512,-0.38002,0.04425,,,,,,,,,,,,,,,,,,,,,,,,,,0,0,0,0,0
1.7854,1783190238.6045,1,1,1.0000,0.0000,1.44682,0.22433,-2.77976,0.98460,1.57080,0.00001,-0.14512,-0.38002,0.04420,,,,,,,,,,,,,,,,,,,,,,,,,,0,0,0,0,0
1.7926,1783190238.6116,1,1,1.0000,0.0000,1.44682,0.22419,-2.77980,0.98477,1.57080,0.00001,-0.14512,-0.38002,0.04416,,,,,,,,,,,,,,,,,,,,,,,,,,0,0,0,0,0
1.7932,1783190238.6122,1,1,1.0000,0.0000,1.44682,0.22419,-2.77980,0.98477,1.57080,0.00001,-0.14512,-0.38002,0.04416,,,,,,,,,,,,,,,,,,,,,,,,,,0,0,0,0,0
1.8035,1783190238.6225,1,1,1.0000,0.0000,1.44682,0.22418,-2.77980,0.98478,1.57080,0.00001,-0.14512,-0.38002,0.04416,,,,,,,,,,,,,,,,,,,,,,,,,,0,0,0,0,0
1.8041,1783190238.6231,1,1,1.0000,0.0000,1.44682,0.22416,-2.77980,0.98481,1.57080,0.00001,-0.14512,-0.38002,0.04416,,,,,,,,,,,,,,,,,,,,,,,,,,0,0,0,0,0
1.8159,1783190238.6349,1,1,1.0000,0.0000,1.44682,0.22402,-2.77984,0.98499,1.57080,0.00001,-0.14512,-0.38002,0.04412,,,,,,,,,,,,,,,,,,,,,,,,,,0,0,0,0,0
1.8210,1783190238.6400,1,1,1.0000,0.0000,1.44682,0.22396,-2.77985,0.98506,1.57080,0.00001,-0.14512,-0.38002,0.04411,,,,,,,,,,,,,,,,,,,,,,,,,,0,0,0,0,0
1.8214,1783190238.6404,1,1,1.0000,0.0000,1.44682,0.22396,-2.77985,0.98506,1.57080,0.00001,-0.14512,-0.38002,0.04411,,,,,,,,,,,,,,,,,,,,,,,,,,0,0,0,0,0
1.8312,1783190238.6503,1,1,1.0000,0.0000,1.44682,0.22395,-2.77986,0.98508,1.57080,0.00001,-0.14512,-0.38002,0.04410,,,,,,,,,,,,,,,,,,,,,,,,,,0,0,0,0,0
1.8425,1783190238.6615,1,1,1.0000,0.0000,1.44682,0.22380,-2.77989,0.98526,1.57080,0.00001,-0.14512,-0.38002,0.04406,,,,,,,,,,,,,,,,,,,,,,,,,,0,0,0,0,0
1.8565,1783190238.6755,1,1,1.0000,0.0000,1.44682,0.22359,-2.77995,0.98552,1.57080,0.00001,-0.14512,-0.38002,0.04401,,,,,,,,,,,,,,,,,,,,,,,,,,0,0,0,0,0
1.8617,1783190238.6807,1,1,1.0000,0.0000,1.44682,0.22358,-2.77995,0.98554,1.57080,0.00001,-0.14512,-0.38002,0.04401,,,,,,,,,,,,,,,,,,,,,,,,,,0,0,0,0,0
1.8621,1783190238.6812,1,1,1.0000,0.0000,1.44682,0.22358,-2.77995,0.98554,1.57080,0.00001,-0.14512,-0.38002,0.04401,,,,,,,,,,,,,,,,,,,,,,,,,,0,0,0,0,0
1.8725,1783190238.6915,1,1,1.0000,0.0000,1.44682,0.22347,-2.77998,0.98567,1.57080,0.00001,-0.14512,-0.38002,0.04398,,,,,,,,,,,,,,,,,,,,,,,,,,0,0,0,0,0
1.8813,1783190238.7003,1,1,1.0000,0.0000,1.44682,0.22336,-2.78000,0.98581,1.57080,0.00001,-0.14512,-0.38002,0.04395,,,,,,,,,,,,,,,,,,,,,,,,,,0,0,0,0,0
1.9087,1783190238.7277,1,1,1.0000,0.0000,1.44682,0.22306,-2.78008,0.98619,1.57080,0.00001,-0.14512,-0.38002,0.04387,,,,,,,,,,,,,,,,,,,,,,,,,,0,0,0,0,0
1.9181,1783190238.7372,1,1,1.0000,0.0000,1.44682,0.22299,-2.78010,0.98628,1.57080,0.00001,-0.14512,-0.38002,0.04385,,,,,,,,,,,,,,,,,,,,,,,,,,0,0,0,0,0
1.9228,1783190238.7418,1,1,1.0000,0.0000,1.44682,0.22298,-2.78010,0.98629,1.57080,0.00001,-0.14512,-0.38002,0.04385,,,,,,,,,,,,,,,,,,,,,,,,,,0,0,0,0,0
1.9232,1783190238.7422,1,1,1.0000,0.0000,1.44682,0.22298,-2.78010,0.98629,1.57080,0.00001,-0.14512,-0.38002,0.04385,,,,,,,,,,,,,,,,,,,,,,,,,,0,0,0,0,0
1.9375,1783190238.7565,1,1,1.0000,0.0000,1.44682,0.22282,-2.78014,0.98649,1.57080,0.00001,-0.14512,-0.38002,0.04381,,,,,,,,,,,,,,,,,,,,,,,,,,0,0,0,0,0
1.9379,1783190238.7570,1,1,1.0000,0.0000,1.44682,0.22282,-2.78014,0.98649,1.57080,0.00001,-0.14512,-0.38002,0.04381,,,,,,,,,,,,,,,,,,,,,,,,,,0,0,0,0,0
1.9428,1783190238.7619,1,1,1.0000,0.0000,1.44682,0.22276,-2.78015,0.98656,1.57080,0.00001,-0.14512,-0.38002,0.04380,,,,,,,,,,,,,,,,,,,,,,,,,,0,0,0,0,0
1.9613,1783190238.7803,1,1,1.0000,0.0000,1.44681,0.22260,-2.78019,0.98676,1.57080,0.00001,-0.14512,-0.38002,0.04375,,,,,,,,,,,,,,,,,,,,,,,,,,0,0,0,0,0
1.9618,1783190238.7809,1,1,1.0000,0.0000,1.44681,0.22260,-2.78019,0.98676,1.57080,0.00001,-0.14512,-0.38002,0.04375,,,,,,,,,,,,,,,,,,,,,,,,,,0,0,0,0,0
1.9622,1783190238.7812,1,1,1.0000,0.0000,1.44681,0.22260,-2.78019,0.98676,1.57080,0.00001,-0.14512,-0.38002,0.04375,,,,,,,,,,,,,,,,,,,,,,,,,,0,0,0,0,0
1.9715,1783190238.7905,1,1,1.0000,0.0000,1.44681,0.22246,-2.78023,0.98694,1.57080,0.00001,-0.14512,-0.38002,0.04372,,,,,,,,,,,,,,,,,,,,,,,,,,0,0,0,0,0
1.9816,1783190238.8007,1,1,1.0000,0.0000,1.44681,0.22238,-2.78025,0.98704,1.57080,0.00001,-0.14512,-0.38002,0.04370,,,,,,,,,,,,,,,,,,,,,,,,,,0,0,0,0,0
1.9914,1783190238.8105,1,1,1.0000,0.0000,1.44681,0.22232,-2.78027,0.98712,1.57080,0.00001,-0.14512,-0.38002,0.04368,,,,,,,,,,,,,,,,,,,,,,,,,,0,0,0,0,0
2.0211,1783190238.8401,1,1,1.0000,0.0000,1.44681,0.22200,-2.78035,0.98752,1.57080,0.00001,-0.14512,-0.38002,0.04360,,,,,,,,,,,,,,,,,,,,,,,,,,0,0,0,0,0
2.0214,1783190238.8404,1,1,1.0000,0.0000,1.44681,0.22200,-2.78035,0.98752,1.57080,0.00001,-0.14512,-0.38002,0.04360,,,,,,,,,,,,,,,,,,,,,,,,,,0,0,0,0,0
2.0217,1783190238.8407,1,1,1.0000,0.0000,1.44681,0.22200,-2.78035,0.98752,1.57080,0.00001,-0.14512,-0.38002,0.04360,,,,,,,,,,,,,,,,,,,,,,,,,,0,0,0,0,0
2.0250,1783190238.8440,1,1,1.0000,0.0000,1.44681,0.22193,-2.78036,0.98761,1.57080,0.00001,-0.14512,-0.38002,0.04358,,,,,,,,,,,,,,,,,,,,,,,,,,0,0,0,0,0
2.0322,1783190238.8513,1,1,1.0000,0.0000,1.44681,0.22178,-2.78040,0.98778,1.57080,0.00001,-0.14512,-0.38002,0.04354,,,,,,,,,,,,,,,,,,,,,,,,,,0,0,0,0,0
2.0433,1783190238.8623,1,1,1.0000,0.0000,1.44681,0.22177,-2.78040,0.98780,1.57080,0.00001,-0.14512,-0.38002,0.04354,,,,,,,,,,,,,,,,,,,,,,,,,,0,0,0,0,0
2.0520,1783190238.8711,1,1,1.0000,0.0000,1.44681,0.22163,-2.78044,0.98798,1.57080,0.00001,-0.14512,-0.38002,0.04350,,,,,,,,,,,,,,,,,,,,,,,,,,0,0,0,0,0
2.0523,1783190238.8713,1,1,1.0000,0.0000,1.44681,0.22163,-2.78044,0.98798,1.57080,0.00001,-0.14512,-0.38002,0.04350,,,,,,,,,,,,,,,,,,,,,,,,,,0,0,0,0,0
2.0613,1783190238.8803,1,1,1.0000,0.0000,1.44681,0.22149,-2.78047,0.98815,1.57080,0.00001,-0.14512,-0.38002,0.04347,,,,,,,,,,,,,,,,,,,,,,,,,,0,0,0,0,0
2.0617,1783190238.8807,1,1,1.0000,0.0000,1.44681,0.22149,-2.78047,0.98815,1.57080,0.00001,-0.14512,-0.38002,0.04347,,,,,,,,,,,,,,,,,,,,,,,,,,0,0,0,0,0
2.0712,1783190238.8903,1,1,1.0000,0.0000,1.44681,0.22148,-2.78047,0.98817,1.57080,0.00001,-0.14512,-0.38002,0.04347,,,,,,,,,,,,,,,,,,,,,,,,,,0,0,0,0,0
2.0812,1783190238.9003,1,1,1.0000,0.0000,1.44681,0.22133,-2.78051,0.98834,1.57080,0.00001,-0.14512,-0.38002,0.04343,,,,,,,,,,,,,,,,,,,,,,,,,,0,0,0,0,0
2.0815,1783190238.9005,1,1,1.0000,0.0000,1.44681,0.22133,-2.78051,0.98834,1.57080,0.00001,-0.14512,-0.38002,0.04343,,,,,,,,,,,,,,,,,,,,,,,,,,0,0,0,0,0
2.0927,1783190238.9118,1,1,1.0000,0.0000,1.44681,0.22113,-2.78056,0.98860,1.57080,0.00001,-0.14512,-0.38002,0.04338,,,,,,,,,,,,,,,,,,,,,,,,,,0,0,0,0,0
2.1071,1783190238.9261,1,1,1.0000,0.0000,1.44681,0.22108,-2.78057,0.98866,1.57080,0.00001,-0.14512,-0.38002,0.04336,,,,,,,,,,,,,,,,,,,,,,,,,,0,0,0,0,0
2.1166,1783190238.9356,1,1,1.0000,0.0000,1.44681,0.22090,-2.78062,0.98888,1.57080,0.00001,-0.14512,-0.38002,0.04332,,,,,,,,,,,,,,,,,,,,,,,,,,0,0,0,0,0
2.1269,1783190238.9460,1,1,1.0000,0.0000,1.44681,0.22083,-2.78064,0.98897,1.57080,0.00001,-0.14512,-0.38002,0.04330,,,,,,,,,,,,,,,,,,,,,,,,,,0,0,0,0,0
2.1361,1783190238.9551,1,1,1.0000,0.0000,1.44681,0.22074,-2.78066,0.98909,1.57080,0.00001,-0.14512,-0.38002,0.04328,,,,,,,,,,,,,,,,,,,,,,,,,,0,0,0,0,0
2.1435,1783190238.9625,1,1,1.0000,0.0000,1.44681,0.22068,-2.78067,0.98917,1.57080,0.00001,-0.14512,-0.38002,0.04326,,,,,,,,,,,,,,,,,,,,,,,,,,0,0,0,0,0
2.1513,1783190238.9703,1,1,1.0000,0.0000,1.44681,0.22054,-2.78071,0.98934,1.57080,0.00001,-0.14512,-0.38002,0.04322,,,,,,,,,,,,,,,,,,,,,,,,,,0,0,0,0,0
2.1517,1783190238.9707,1,1,1.0000,0.0000,1.44681,0.22054,-2.78071,0.98934,1.57080,0.00001,-0.14512,-0.38002,0.04322,,,,,,,,,,,,,,,,,,,,,,,,,,0,0,0,0,0
2.1640,1783190238.9830,1,1,1.0000,0.0000,1.44681,0.22042,-2.78074,0.98948,1.57080,0.00001,-0.14512,-0.38002,0.04319,,,,,,,,,,,,,,,,,,,,,,,,,,0,0,0,0,0
2.1726,1783190238.9916,1,1,1.0000,0.0000,1.44681,0.22031,-2.78077,0.98962,1.57080,0.00001,-0.14512,-0.38002,0.04317,,,,,,,,,,,,,,,,,,,,,,,,,,0,0,0,0,0
2.1730,1783190238.9920,1,1,1.0000,0.0000,1.44681,0.22031,-2.78077,0.98962,1.57080,0.00001,-0.14512,-0.38002,0.04317,,,,,,,,,,,,,,,,,,,,,,,,,,0,0,0,0,0
2.1811,1783190239.0002,1,1,1.0000,0.0000,1.44681,0.22017,-2.78080,0.98979,1.57080,0.00001,-0.14512,-0.38002,0.04313,,,,,,,,,,,,,,,,,,,,,,,,,,0,0,0,0,0
2.1814,1783190239.0005,1,1,1.0000,0.0000,1.44681,0.22017,-2.78080,0.98979,1.57080,0.00001,-0.14512,-0.38002,0.04313,,,,,,,,,,,,,,,,,,,,,,,,,,0,0,0,0,0
2.1921,1783190239.0111,1,1,1.0000,0.0000,1.44681,0.22013,-2.78081,0.98985,1.57080,0.00001,-0.14512,-0.38002,0.04312,,,,,,,,,,,,,,,,,,,,,,,,,,0,0,0,0,0
2.2042,1783190239.0232,1,1,1.0000,0.0000,1.44681,0.21995,-2.78086,0.99007,1.57080,0.00001,-0.14512,-0.38002,0.04307,,,,,,,,,,,,,,,,,,,,,,,,,,0,0,0,0,0
2.2123,1783190239.0313,1,1,1.0000,0.0000,1.44681,0.21981,-2.78089,0.99025,1.57080,0.00001,-0.14512,-0.38002,0.04304,,,,,,,,,,,,,,,,,,,,,,,,,,0,0,0,0,0
2.2234,1783190239.0424,1,1,1.0000,0.0000,1.44681,0.21980,-2.78089,0.99026,1.57080,0.00001,-0.14512,-0.38002,0.04303,,,,,,,,,,,,,,,,,,,,,,,,,,0,0,0,0,0
2.2312,1783190239.0503,1,1,1.0000,0.0000,1.44681,0.21972,-2.78091,0.99036,1.57080,0.00001,-0.14512,-0.38002,0.04301,,,,,,,,,,,,,,,,,,,,,,,,,,0,0,0,0,0
2.2315,1783190239.0505,1,1,1.0000,0.0000,1.44681,0.21972,-2.78091,0.99036,1.57080,0.00001,-0.14512,-0.38002,0.04301,,,,,,,,,,,,,,,,,,,,,,,,,,0,0,0,0,0
2.2411,1783190239.0601,1,1,1.0000,0.0000,1.44681,0.21951,-2.78096,0.99062,1.57080,0.00001,-0.14512,-0.38002,0.04296,,,,,,,,,,,,,,,,,,,,,,,,,,0,0,0,0,0
2.2415,1783190239.0605,1,1,1.0000,0.0000,1.44681,0.21951,-2.78096,0.99062,1.57080,0.00001,-0.14512,-0.38002,0.04296,,,,,,,,,,,,,,,,,,,,,,,,,,0,0,0,0,0
2.2513,1783190239.0704,1,1,1.0000,0.0000,1.44681,0.21945,-2.78098,0.99070,1.57080,0.00001,-0.14512,-0.38002,0.04294,,,,,,,,,,,,,,,,,,,,,,,,,,0,0,0,0,0
2.2662,1783190239.0852,1,1,1.0000,0.0000,1.44681,0.21933,-2.78101,0.99085,1.57080,0.00001,-0.14512,-0.38002,0.04291,,,,,,,,,,,,,,,,,,,,,,,,,,0,0,0,0,0
2.2714,1783190239.0904,1,1,1.0000,0.0000,1.44681,0.21927,-2.78102,0.99092,1.57080,0.00001,-0.14512,-0.38002,0.04290,,,,,,,,,,,,,,,,,,,,,,,,,,0,0,0,0,0
2.2813,1783190239.1003,1,1,1.0000,0.0000,1.44681,0.21920,-2.78104,0.99101,1.57080,0.00001,-0.14512,-0.38002,0.04288,,,,,,,,,,,,,,,,,,,,,,,,,,0,0,0,0,0
2.2921,1783190239.1111,1,1,1.0000,0.0000,1.44681,0.21905,-2.78108,0.99119,1.57080,0.00001,-0.14512,-0.38002,0.04284,,,,,,,,,,,,,,,,,,,,,,,,,,0,0,0,0,0
2.3013,1783190239.1204,1,1,1.0000,0.0000,1.44681,0.21891,-2.78111,0.99137,1.57080,0.00001,-0.14512,-0.38002,0.04281,,,,,,,,,,,,,,,,,,,,,,,,,,0,0,0,0,0
2.3252,1783190239.1443,1,1,1.0000,0.0000,1.44681,0.21872,-2.78116,0.99160,1.57080,0.00001,-0.14512,-0.38002,0.04276,,,,,,,,,,,,,,,,,,,,,,,,,,0,0,0,0,0
2.3353,1783190239.1543,1,1,1.0000,0.0000,1.44681,0.21861,-2.78119,0.99175,1.57080,0.00001,-0.14512,-0.38002,0.04273,,,,,,,,,,,,,,,,,,,,,,,,,,0,0,0,0,0
2.3544,1783190239.1734,1,1,1.0000,0.0000,1.44681,0.21845,-2.78123,0.99195,1.57080,0.00001,-0.14512,-0.38002,0.04269,,,,,,,,,,,,,,,,,,,,,,,,,,0,0,0,0,0
2.4816,1783190239.3006,1,1,1.0000,0.0000,1.44681,0.21709,-2.78156,0.99364,1.57080,0.00001,-0.14512,-0.38002,0.04234,,,,,,,,,,,,,,,,,,,,,,,,,,0,0,0,0,0
2.4820,1783190239.3010,1,1,1.0000,0.0000,1.44681,0.21709,-2.78156,0.99364,1.57080,0.00001,-0.14512,-0.38002,0.04234,,,,,,,,,,,,,,,,,,,,,,,,,,0,0,0,0,0
2.4822,1783190239.3012,1,1,1.0000,0.0000,1.44681,0.21709,-2.78156,0.99364,1.57080,0.00001,-0.14512,-0.38002,0.04234,,,,,,,,,,,,,,,,,,,,,,,,,,0,0,0,0,0
2.4824,1783190239.3015,1,1,1.0000,0.0000,1.44681,0.21709,-2.78156,0.99364,1.57080,0.00001,-0.14512,-0.38002,0.04234,,,,,,,,,,,,,,,,,,,,,,,,,,0,0,0,0,0
2.5003,1783190239.3193,1,1,1.0000,0.0000,1.44681,0.21695,-2.78160,0.99381,1.57080,0.00001,-0.14512,-0.38002,0.04231,,,,,,,,,,,,,,,,,,,,,,,,,,0,0,0,0,0
2.5007,1783190239.3197,1,1,1.0000,0.0000,1.44681,0.21695,-2.78160,0.99381,1.57080,0.00001,-0.14512,-0.38002,0.04231,,,,,,,,,,,,,,,,,,,,,,,,,,0,0,0,0,0
2.5011,1783190239.3201,1,1,1.0000,0.0000,1.44681,0.21695,-2.78160,0.99381,1.57080,0.00001,-0.14512,-0.38002,0.04231,,,,,,,,,,,,,,,,,,,,,,,,,,0,0,0,0,0
2.5014,1783190239.3204,1,1,1.0000,0.0000,1.44681,0.21695,-2.78160,0.99381,1.57080,0.00001,-0.14512,-0.38002,0.04231,,,,,,,,,,,,,,,,,,,,,,,,,,0,0,0,0,0
2.5018,1783190239.3208,1,1,1.0000,0.0000,1.44681,0.21695,-2.78160,0.99381,1.57080,0.00001,-0.14512,-0.38002,0.04231,,,,,,,,,,,,,,,,,,,,,,,,,,0,0,0,0,0
2.5021,1783190239.3211,1,1,1.0000,0.0000,1.44681,0.21695,-2.78160,0.99381,1.57080,0.00001,-0.14512,-0.38002,0.04231,,,,,,,,,,,,,,,,,,,,,,,,,,0,0,0,0,0
2.5025,1783190239.3216,1,1,1.0000,0.0000,1.44681,0.21695,-2.78160,0.99381,1.57080,0.00001,-0.14512,-0.38002,0.04231,,,,,,,,,,,,,,,,,,,,,,,,,,0,0,0,0,0
2.5029,1783190239.3219,1,1,1.0000,0.0000,1.44681,0.21695,-2.78160,0.99381,1.57080,0.00001,-0.14512,-0.38002,0.04231,,,,,,,,,,,,,,,,,,,,,,,,,,0,0,0,0,0
2.5033,1783190239.3223,1,1,1.0000,0.0000,1.44681,0.21695,-2.78160,0.99381,1.57080,0.00001,-0.14512,-0.38002,0.04231,,,,,,,,,,,,,,,,,,,,,,,,,,0,0,0,0,0
2.5039,1783190239.3229,1,1,1.0000,0.0000,1.44681,0.21690,-2.78161,0.99387,1.57080,0.00001,-0.14512,-0.38002,0.04229,,,,,,,,,,,,,,,,,,,,,,,,,,0,0,0,0,0
2.5041,1783190239.3231,1,1,1.0000,0.0000,1.44681,0.21690,-2.78161,0.99387,1.57080,0.00001,-0.14512,-0.38002,0.04229,,,,,,,,,,,,,,,,,,,,,,,,,,0,0,0,0,0
2.5075,1783190239.3265,1,1,1.0000,0.0000,1.44681,0.21690,-2.78161,0.99387,1.57080,0.00001,-0.14512,-0.38002,0.04229,,,,,,,,,,,,,,,,,,,,,,,,,,0,0,0,0,0
2.5080,1783190239.3271,1,1,1.0000,0.0000,1.44681,0.21685,-2.78162,0.99394,1.57080,0.00001,-0.14512,-0.38002,0.04228,,,,,,,,,,,,,,,,,,,,,,,,,,0,0,0,0,0
2.5166,1783190239.3356,1,1,1.0000,0.0000,1.44681,0.21679,-2.78164,0.99401,1.57080,0.00001,-0.14512,-0.38002,0.04226,,,,,,,,,,,,,,,,,,,,,,,,,,0,0,0,0,0
2.5236,1783190239.3426,1,1,1.0000,0.0000,1.44681,0.21678,-2.78164,0.99403,1.57080,0.00001,-0.14512,-0.38002,0.04226,,,,,,,,,,,,,,,,,,,,,,,,,,0,0,0,0,0
2.5242,1783190239.3432,1,1,1.0000,0.0000,1.44681,0.21674,-2.78165,0.99407,1.57080,0.00001,-0.14512,-0.38002,0.04225,,,,,,,,,,,,,,,,,,,,,,,,,,0,0,0,0,0
2.5325,1783190239.3515,1,1,1.0000,0.0000,1.44681,0.21663,-2.78168,0.99422,1.57080,0.00001,-0.14512,-0.38002,0.04222,,,,,,,,,,,,,,,,,,,,,,,,,,0,0,0,0,0
2.5413,1783190239.3603,1,1,1.0000,0.0000,1.44681,0.21648,-2.78171,0.99439,1.57080,0.00001,-0.14512,-0.38002,0.04219,,,,,,,,,,,,,,,,,,,,,,,,,,0,0,0,0,0
2.5417,1783190239.3607,1,1,1.0000,0.0000,1.44681,0.21648,-2.78171,0.99439,1.57080,0.00001,-0.14512,-0.38002,0.04219,,,,,,,,,,,,,,,,,,,,,,,,,,0,0,0,0,0
2.5531,1783190239.3721,1,1,1.0000,0.0000,1.44681,0.21641,-2.78173,0.99449,1.57080,0.00001,-0.14512,-0.38002,0.04217,,,,,,,,,,,,,,,,,,,,,,,,,,0,0,0,0,0
2.5630,1783190239.3820,1,1,1.0000,0.0000,1.44681,0.21634,-2.78175,0.99457,1.57080,0.00001,-0.14512,-0.38002,0.04215,,,,,,,,,,,,,,,,,,,,,,,,,,0,0,0,0,0
2.5634,1783190239.3824,1,1,1.0000,0.0000,1.44681,0.21634,-2.78175,0.99457,1.57080,0.00001,-0.14512,-0.38002,0.04215,,,,,,,,,,,,,,,,,,,,,,,,,,0,0,0,0,0
2.5731,1783190239.3921,1,1,1.0000,0.0000,1.44681,0.21618,-2.78179,0.99477,1.57080,0.00001,-0.14512,-0.38002,0.04211,,,,,,,,,,,,,,,,,,,,,,,,,,0,0,0,0,0
2.5736,1783190239.3926,1,1,1.0000,0.0000,1.44681,0.21618,-2.78179,0.99477,1.57080,0.00001,-0.14512,-0.38002,0.04211,,,,,,,,,,,,,,,,,,,,,,,,,,0,0,0,0,0
2.5812,1783190239.4002,1,1,1.0000,0.0000,1.44681,0.21617,-2.78179,0.99479,1.57080,0.00001,-0.14512,-0.38002,0.04211,,,,,,,,,,,,,,,,,,,,,,,,,,0,0,0,0,0
2.5924,1783190239.4114,1,1,1.0000,0.0000,1.44681,0.21602,-2.78183,0.99497,1.57080,0.00001,-0.14512,-0.38002,0.04207,,,,,,,,,,,,,,,,,,,,,,,,,,0,0,0,0,0
2.6013,1783190239.4204,1,1,1.0000,0.0000,1.44681,0.21588,-2.78186,0.99515,1.57080,0.00001,-0.14512,-0.38002,0.04203,,,,,,,,,,,,,,,,,,,,,,,,,,0,0,0,0,0
2.6122,1783190239.4312,1,1,1.0000,0.0000,1.44681,0.21579,-2.78188,0.99525,1.57080,0.00001,-0.14512,-0.38002,0.04201,,,,,,,,,,,,,,,,,,,,,,,,,,0,0,0,0,0
2.6125,1783190239.4315,1,1,1.0000,0.0000,1.44681,0.21579,-2.78188,0.99525,1.57080,0.00001,-0.14512,-0.38002,0.04201,,,,,,,,,,,,,,,,,,,,,,,,,,0,0,0,0,0
2.6224,1783190239.4415,1,1,1.0000,0.0000,1.44681,0.21571,-2.78190,0.99536,1.57080,0.00001,-0.14512,-0.38002,0.04199,,,,,,,,,,,,,,,,,,,,,,,,,,0,0,0,0,0
2.6322,1783190239.4512,1,1,1.0000,0.0000,1.44681,0.21551,-2.78195,0.99561,1.57080,0.00001,-0.14512,-0.38002,0.04194,,,,,,,,,,,,,,,,,,,,,,,,,,0,0,0,0,0
2.6439,1783190239.4629,1,1,1.0000,0.0000,1.44681,0.21550,-2.78195,0.99562,1.57080,0.00001,-0.14512,-0.38002,0.04193,,,,,,,,,,,,,,,,,,,,,,,,,,0,0,0,0,0
2.6449,1783190239.4639,1,1,1.0000,0.0000,1.44681,0.21546,-2.78196,0.99566,1.57080,0.00001,-0.14512,-0.38002,0.04193,,,,,,,,,,,,,,,,,,,,,,,,,,0,0,0,0,0
2.6540,1783190239.4730,1,1,1.0000,0.0000,1.44681,0.21535,-2.78199,0.99580,1.57080,0.00001,-0.14512,-0.38002,0.04190,,,,,,,,,,,,,,,,,,,,,,,,,,0,0,0,0,0
2.6543,1783190239.4734,1,1,1.0000,0.0000,1.44681,0.21535,-2.78199,0.99580,1.57080,0.00001,-0.14512,-0.38002,0.04190,,,,,,,,,,,,,,,,,,,,,,,,,,0,0,0,0,0
2.6682,1783190239.4872,1,1,1.0000,0.0000,1.44681,0.21514,-2.78204,0.99606,1.57080,0.00001,-0.14512,-0.38002,0.04184,,,,,,,,,,,,,,,,,,,,,,,,,,0,0,0,0,0
2.6771,1783190239.4962,1,1,1.0000,0.0000,1.44681,0.21510,-2.78205,0.99612,1.57080,0.00001,-0.14512,-0.38002,0.04183,,,,,,,,,,,,,,,,,,,,,,,,,,0,0,0,0,0
2.6774,1783190239.4964,1,1,1.0000,0.0000,1.44681,0.21510,-2.78205,0.99612,1.57080,0.00001,-0.14512,-0.38002,0.04183,,,,,,,,,,,,,,,,,,,,,,,,,,0,0,0,0,0
2.6824,1783190239.5014,1,1,1.0000,0.0000,1.44681,0.21505,-2.78206,0.99618,1.57080,0.00001,-0.14512,-0.38002,0.04182,,,,,,,,,,,,,,,,,,,,,,,,,,0,0,0,0,0
2.6920,1783190239.5111,1,1,1.0000,0.0000,1.44681,0.21492,-2.78210,0.99635,1.57080,0.00001,-0.14512,-0.38002,0.04179,,,,,,,,,,,,,,,,,,,,,,,,,,0,0,0,0,0
2.7062,1783190239.5252,1,1,1.0000,0.0000,1.44681,0.21480,-2.78213,0.99649,1.57080,0.00001,-0.14512,-0.38002,0.04176,,,,,,,,,,,,,,,,,,,,,,,,,,0,0,0,0,0
2.7162,1783190239.5353,1,1,1.0000,0.0000,1.44681,0.21462,-2.78217,0.99671,1.57080,0.00001,-0.14512,-0.38002,0.04171,,,,,,,,,,,,,,,,,,,,,,,,,,0,0,0,0,0
2.7231,1783190239.5421,1,1,1.0000,0.0000,1.44681,0.21455,-2.78219,0.99680,1.57080,0.00001,-0.14512,-0.38002,0.04169,,,,,,,,,,,,,,,,,,,,,,,,,,0,0,0,0,0
2.7233,1783190239.5424,1,1,1.0000,0.0000,1.44681,0.21455,-2.78219,0.99680,1.57080,0.00001,-0.14512,-0.38002,0.04169,,,,,,,,,,,,,,,,,,,,,,,,,,0,0,0,0,0
2.7318,1783190239.5509,1,1,1.0000,0.0000,1.44681,0.21448,-2.78220,0.99689,1.57080,0.00002,-0.14512,-0.38002,0.04167,,,,,,,,,,,,,,,,,,,,,,,,,,0,0,0,0,0
2.7323,1783190239.5513,1,1,1.0000,0.0000,1.44681,0.21447,-2.78221,0.99690,1.57080,0.00002,-0.14512,-0.38002,0.04167,,,,,,,,,,,,,,,,,,,,,,,,,,0,0,0,0,0
2.7443,1783190239.5633,1,1,1.0000,0.0000,1.44681,0.21432,-2.78224,0.99709,1.57080,0.00002,-0.14512,-0.38002,0.04163,,,,,,,,,,,,,,,,,,,,,,,,,,0,0,0,0,0
2.7529,1783190239.5719,1,1,1.0000,0.0000,1.44681,0.21418,-2.78228,0.99726,1.57080,0.00002,-0.14512,-0.38002,0.04160,,,,,,,,,,,,,,,,,,,,,,,,,,0,0,0,0,0
2.7534,1783190239.5724,1,1,1.0000,0.0000,1.44681,0.21418,-2.78228,0.99726,1.57080,0.00002,-0.14512,-0.38002,0.04160,,,,,,,,,,,,,,,,,,,,,,,,,,0,0,0,0,0
2.7620,1783190239.5810,1,1,1.0000,0.0000,1.44681,0.21417,-2.78228,0.99728,1.57080,0.00002,-0.14512,-0.38002,0.04160,,,,,,,,,,,,,,,,,,,,,,,,,,0,0,0,0,0
2.7784,1783190239.5975,1,1,1.0000,0.0000,1.44681,0.21396,-2.78233,0.99754,1.57080,0.00002,-0.14512,-0.38002,0.04154,,,,,,,,,,,,,,,,,,,,,,,,,,0,0,0,0,0
2.7787,1783190239.5977,1,1,1.0000,0.0000,1.44681,0.21396,-2.78233,0.99754,1.57080,0.00002,-0.14512,-0.38002,0.04154,,,,,,,,,,,,,,,,,,,,,,,,,,0,0,0,0,0
2.7811,1783190239.6001,1,1,1.0000,0.0000,1.44681,0.21389,-2.78235,0.99763,1.57080,0.00002,-0.14512,-0.38002,0.04152,,,,,,,,,,,,,,,,,,,,,,,,,,0,0,0,0,0
2.7814,1783190239.6004,1,1,1.0000,0.0000,1.44681,0.21389,-2.78235,0.99763,1.57080,0.00002,-0.14512,-0.38002,0.04152,,,,,,,,,,,,,,,,,,,,,,,,,,0,0,0,0,0
2.7822,1783190239.6012,1,1,1.0000,0.0000,1.44681,0.21389,-2.78235,0.99763,1.57080,0.00002,-0.14512,-0.38002,0.04152,,,,,,,,,,,,,,,,,,,,,,,,,,0,0,0,0,0
2.7927,1783190239.6117,1,1,1.0000,0.0000,1.44681,0.21380,-2.78237,0.99773,1.57080,0.00002,-0.14512,-0.38002,0.04150,,,,,,,,,,,,,,,,,,,,,,,,,,0,0,0,0,0
2.8124,1783190239.6314,1,1,1.0000,0.0000,1.44681,0.21352,-2.78244,0.99809,1.57080,0.00002,-0.14512,-0.38002,0.04143,,,,,,,,,,,,,,,,,,,,,,,,,,0,0,0,0,0
2.8128,1783190239.6318,1,1,1.0000,0.0000,1.44681,0.21352,-2.78244,0.99809,1.57080,0.00002,-0.14512,-0.38002,0.04143,,,,,,,,,,,,,,,,,,,,,,,,,,0,0,0,0,0
2.8131,1783190239.6321,1,1,1.0000,0.0000,1.44681,0.21352,-2.78244,0.99809,1.57080,0.00002,-0.14512,-0.38002,0.04143,,,,,,,,,,,,,,,,,,,,,,,,,,0,0,0,0,0
2.8133,1783190239.6324,1,1,1.0000,0.0000,1.44681,0.21352,-2.78244,0.99809,1.57080,0.00002,-0.14512,-0.38002,0.04143,,,,,,,,,,,,,,,,,,,,,,,,,,0,0,0,0,0
2.8237,1783190239.6428,1,1,1.0000,0.0000,1.44681,0.21350,-2.78244,0.99810,1.57080,0.00002,-0.14512,-0.38002,0.04143,,,,,,,,,,,,,,,,,,,,,,,,,,0,0,0,0,0
2.8330,1783190239.6521,1,1,1.0000,0.0000,1.44681,0.21336,-2.78248,0.99828,1.57080,0.00002,-0.14512,-0.38002,0.04139,,,,,,,,,,,,,,,,,,,,,,,,,,0,0,0,0,0
2.8412,1783190239.6602,1,1,1.0000,0.0000,1.44681,0.21322,-2.78251,0.99846,1.57080,0.00002,-0.14512,-0.38002,0.04135,,,,,,,,,,,,,,,,,,,,,,,,,,0,0,0,0,0
2.8587,1783190239.6778,1,1,1.0000,0.0000,1.44681,0.21311,-2.78254,0.99860,1.57080,0.00002,-0.14512,-0.38002,0.04133,,,,,,,,,,,,,,,,,,,,,,,,,,0,0,0,0,0
2.8615,1783190239.6805,1,1,1.0000,0.0000,1.44681,0.21305,-2.78255,0.99866,1.57080,0.00002,-0.14512,-0.38002,0.04131,,,,,,,,,,,,,,,,,,,,,,,,,,0,0,0,0,0
2.8618,1783190239.6808,1,1,1.0000,0.0000,1.44681,0.21305,-2.78255,0.99866,1.57080,0.00002,-0.14512,-0.38002,0.04131,,,,,,,,,,,,,,,,,,,,,,,,,,0,0,0,0,0
2.8808,1783190239.6998,1,1,1.0000,0.0000,1.44681,0.21284,-2.78260,0.99893,1.57080,0.00002,-0.14512,-0.38002,0.04126,,,,,,,,,,,,,,,,,,,,,,,,,,0,0,0,0,0
2.8812,1783190239.7002,1,1,1.0000,0.0000,1.44681,0.21284,-2.78260,0.99893,1.57080,0.00002,-0.14512,-0.38002,0.04126,,,,,,,,,,,,,,,,,,,,,,,,,,0,0,0,0,0
2.8836,1783190239.7026,1,1,1.0000,0.0000,1.44681,0.21284,-2.78260,0.99893,1.57080,0.00002,-0.14512,-0.38002,0.04126,,,,,,,,,,,,,,,,,,,,,,,,,,0,0,0,0,0
2.8926,1783190239.7117,1,1,1.0000,0.0000,1.44681,0.21269,-2.78264,0.99911,1.57080,0.00002,-0.14512,-0.38002,0.04122,,,,,,,,,,,,,,,,,,,,,,,,,,0,0,0,0,0
2.8930,1783190239.7120,1,1,1.0000,0.0000,1.44681,0.21269,-2.78264,0.99911,1.57080,0.00002,-0.14512,-0.38002,0.04122,,,,,,,,,,,,,,,,,,,,,,,,,,0,0,0,0,0
2.9034,1783190239.7224,1,1,1.0000,0.0000,1.44681,0.21255,-2.78267,0.99928,1.57080,0.00002,-0.14512,-0.38002,0.04119,,,,,,,,,,,,,,,,,,,,,,,,,,0,0,0,0,0
2.9126,1783190239.7316,1,1,1.0000,0.0000,1.44681,0.21247,-2.78269,0.99939,1.57080,0.00002,-0.14512,-0.38002,0.04116,,,,,,,,,,,,,,,,,,,,,,,,,,0,0,0,0,0
2.9285,1783190239.7475,1,1,1.0000,0.0000,1.44681,0.21226,-2.78274,0.99965,1.57080,0.00002,-0.14512,-0.38002,0.04111,,,,,,,,,,,,,,,,,,,,,,,,,,0,0,0,0,0
2.9325,1783190239.7515,1,1,1.0000,0.0000,1.44681,0.21219,-2.78276,0.99974,1.57080,0.00002,-0.14512,-0.38002,0.04109,,,,,,,,,,,,,,,,,,,,,,,,,,0,0,0,0,0
2.9431,1783190239.7622,1,1,1.0000,0.0000,1.44681,0.21217,-2.78277,0.99976,1.57080,0.00002,-0.14512,-0.38002,0.04109,,,,,,,,,,,,,,,,,,,,,,,,,,0,0,0,0,0
2.9539,1783190239.7730,1,1,1.0000,0.0000,1.44681,0.21203,-2.78280,0.99994,1.57080,0.00002,-0.14512,-0.38002,0.04105,,,,,,,,,,,,,,,,,,,,,,,,,,0,0,0,0,0
2.9543,1783190239.7733,1,1,1.0000,0.0000,1.44681,0.21203,-2.78280,0.99994,1.57080,0.00002,-0.14512,-0.38002,0.04105,,,,,,,,,,,,,,,,,,,,,,,,,,0,0,0,0,0
2.9684,1783190239.7874,1,1,1.0000,0.0000,1.44681,0.21182,-2.78285,1.00020,1.57080,0.00002,-0.14512,-0.38002,0.04100,,,,,,,,,,,,,,,,,,,,,,,,,,0,0,0,0,0
2.9712,1783190239.7902,1,1,1.0000,0.0000,1.44681,0.21182,-2.78285,1.00020,1.57080,0.00002,-0.14512,-0.38002,0.04100,,,,,,,,,,,,,,,,,,,,,,,,,,0,0,0,0,0
2.9714,1783190239.7904,1,1,1.0000,0.0000,1.44681,0.21182,-2.78285,1.00020,1.57080,0.00002,-0.14512,-0.38002,0.04100,,,,,,,,,,,,,,,,,,,,,,,,,,0,0,0,0,0
2.9857,1783190239.8048,1,1,1.0000,0.0000,1.44681,0.21166,-2.78289,1.00039,1.57080,0.00002,-0.14512,-0.38002,0.04096,,,,,,,,,,,,,,,,,,,,,,,,,,0,0,0,0,0
2.9941,1783190239.8131,1,1,1.0000,0.0000,1.44681,0.21152,-2.78292,1.00057,1.57080,0.00002,-0.14512,-0.38002,0.04092,,,,,,,,,,,,,,,,,,,,,,,,,,0,0,0,0,0
3.0312,1783190239.8502,1,1,1.0000,0.0000,1.44681,0.21121,-2.78300,1.00095,1.57080,0.00002,-0.14512,-0.38002,0.04085,,,,,,,,,,,,,,,,,,,,,,,,,,0,0,0,0,0
3.0529,1783190239.8719,1,1,1.0000,0.0000,1.44681,0.21091,-2.78307,1.00133,1.57080,0.00002,-0.14512,-0.38002,0.04077,,,,,,,,,,,,,,,,,,,,,,,,,,0,0,0,0,0
3.0533,1783190239.8724,1,1,1.0000,0.0000,1.44681,0.21091,-2.78307,1.00133,1.57080,0.00002,-0.14512,-0.38002,0.04077,,,,,,,,,,,,,,,,,,,,,,,,,,0,0,0,0,0
3.0537,1783190239.8727,1,1,1.0000,0.0000,1.44681,0.21091,-2.78307,1.00133,1.57080,0.00002,-0.14512,-0.38002,0.04077,,,,,,,,,,,,,,,,,,,,,,,,,,0,0,0,0,0
3.0557,1783190239.8747,1,1,1.0000,0.0000,1.44681,0.21091,-2.78307,1.00133,1.57080,0.00002,-0.14512,-0.38002,0.04077,,,,,,,,,,,,,,,,,,,,,,,,,,0,0,0,0,0
3.0560,1783190239.8750,1,1,1.0000,0.0000,1.44681,0.21091,-2.78307,1.00133,1.57080,0.00002,-0.14512,-0.38002,0.04077,,,,,,,,,,,,,,,,,,,,,,,,,,0,0,0,0,0
3.0660,1783190239.8850,1,1,1.0000,0.0000,1.44681,0.21083,-2.78309,1.00143,1.57080,0.00002,-0.14512,-0.38002,0.04075,,,,,,,,,,,,,,,,,,,,,,,,,,0,0,0,0,0
3.0662,1783190239.8853,1,1,1.0000,0.0000,1.44681,0.21083,-2.78309,1.00143,1.57080,0.00002,-0.14512,-0.38002,0.04075,,,,,,,,,,,,,,,,,,,,,,,,,,0,0,0,0,0
3.0732,1783190239.8922,1,1,1.0000,0.0000,1.44681,0.21077,-2.78311,1.00151,1.57080,0.00002,-0.14512,-0.38002,0.04073,,,,,,,,,,,,,,,,,,,,,,,,,,0,0,0,0,0
3.0735,1783190239.8925,1,1,1.0000,0.0000,1.44681,0.21077,-2.78311,1.00151,1.57080,0.00002,-0.14512,-0.38002,0.04073,,,,,,,,,,,,,,,,,,,,,,,,,,0,0,0,0,0
3.0856,1783190239.9046,1,1,1.0000,0.0000,1.44681,0.21060,-2.78315,1.00171,1.57080,0.00002,-0.14512,-0.38002,0.04069,,,,,,,,,,,,,,,,,,,,,,,,,,0,0,0,0,0
3.0908,1783190239.9098,1,1,1.0000,0.0000,1.44681,0.21060,-2.78315,1.00171,1.57080,0.00002,-0.14512,-0.38002,0.04069,,,,,,,,,,,,,,,,,,,,,,,,,,0,0,0,0,0
3.0912,1783190239.9102,1,1,1.0000,0.0000,1.44681,0.21060,-2.78315,1.00171,1.57080,0.00002,-0.14512,-0.38002,0.04069,,,,,,,,,,,,,,,,,,,,,,,,,,0,0,0,0,0
3.1018,1783190239.9209,1,1,1.0000,0.0000,1.44681,0.21050,-2.78317,1.00183,1.57080,0.00002,-0.14512,-0.38002,0.04067,,,,,,,,,,,,,,,,,,,,,,,,,,0,0,0,0,0
3.1132,1783190239.9322,1,1,1.0000,0.0000,1.44681,0.21029,-2.78322,1.00209,1.57080,0.00002,-0.14512,-0.38002,0.04061,,,,,,,,,,,,,,,,,,,,,,,,,,0,0,0,0,0
3.1215,1783190239.9405,1,1,1.0000,0.0000,1.44681,0.21022,-2.78324,1.00218,1.57080,0.00002,-0.14512,-0.38002,0.04059,,,,,,,,,,,,,,,,,,,,,,,,,,0,0,0,0,0
3.1217,1783190239.9408,1,1,1.0000,0.0000,1.44681,0.21022,-2.78324,1.00218,1.57080,0.00002,-0.14512,-0.38002,0.04059,,,,,,,,,,,,,,,,,,,,,,,,,,0,0,0,0,0
3.1328,1783190239.9518,1,1,1.0000,0.0000,1.44681,0.21015,-2.78325,1.00227,1.57080,0.00002,-0.14512,-0.38002,0.04058,,,,,,,,,,,,,,,,,,,,,,,,,,0,0,0,0,0
3.1448,1783190239.9638,1,1,1.0000,0.0000,1.44681,0.20999,-2.78329,1.00247,1.57080,0.00002,-0.14512,-0.38002,0.04054,,,,,,,,,,,,,,,,,,,,,,,,,,0,0,0,0,0
3.1512,1783190239.9703,1,1,1.0000,0.0000,1.44681,0.20999,-2.78329,1.00247,1.57080,0.00002,-0.14512,-0.38002,0.04054,,,,,,,,,,,,,,,,,,,,,,,,,,0,0,0,0,0
3.1677,1783190239.9867,1,1,1.0000,0.0000,1.44681,0.20983,-2.78333,1.00267,1.57080,0.00002,-0.14512,-0.38002,0.04049,,,,,,,,,,,,,,,,,,,,,,,,,,0,0,0,0,0
3.1711,1783190239.9901,1,1,1.0000,0.0000,1.44680,0.20975,-2.78335,1.00276,1.57080,0.00002,-0.14512,-0.38002,0.04048,,,,,,,,,,,,,,,,,,,,,,,,,,0,0,0,0,0
3.1714,1783190239.9905,1,1,1.0000,0.0000,1.44680,0.20975,-2.78335,1.00276,1.57080,0.00002,-0.14512,-0.38002,0.04048,,,,,,,,,,,,,,,,,,,,,,,,,,0,0,0,0,0
3.1911,1783190240.0102,1,1,1.0000,0.0000,1.44680,0.20958,-2.78339,1.00298,1.57079,0.00002,-0.14512,-0.38002,0.04043,,,,,,,,,,,,,,,,,,,,,,,,,,0,0,0,0,0
3.1945,1783190240.0135,1,1,1.0000,0.0000,1.44680,0.20954,-2.78340,1.00303,1.57079,0.00002,-0.14512,-0.38002,0.04042,,,,,,,,,,,,,,,,,,,,,,,,,,0,0,0,0,0
3.2014,1783190240.0204,1,1,1.0000,0.0000,1.44680,0.20944,-2.78343,1.00316,1.57079,0.00002,-0.14512,-0.38002,0.04040,,,,,,,,,,,,,,,,,,,,,,,,,,0,0,0,0,0
3.2158,1783190240.0348,1,1,1.0000,0.0000,1.44680,0.20936,-2.78344,1.00325,1.57079,0.00002,-0.14512,-0.38002,0.04038,,,,,,,,,,,,,,,,,,,,,,,,,,0,0,0,0,0
3.2269,1783190240.0459,1,1,1.0000,0.0000,1.44680,0.20921,-2.78348,1.00343,1.57079,0.00002,-0.14512,-0.38002,0.04034,,,,,,,,,,,,,,,,,,,,,,,,,,0,0,0,0,0
3.2333,1783190240.0523,1,1,1.0000,0.0000,1.44680,0.20907,-2.78352,1.00361,1.57079,0.00002,-0.14512,-0.38002,0.04030,,,,,,,,,,,,,,,,,,,,,,,,,,0,0,0,0,0
3.2336,1783190240.0526,1,1,1.0000,0.0000,1.44680,0.20907,-2.78352,1.00361,1.57079,0.00002,-0.14512,-0.38002,0.04030,,,,,,,,,,,,,,,,,,,,,,,,,,0,0,0,0,0
3.2432,1783190240.0622,1,1,1.0000,0.0000,1.44680,0.20900,-2.78353,1.00370,1.57079,0.00002,-0.14512,-0.38002,0.04028,,,,,,,,,,,,,,,,,,,,,,,,,,0,0,0,0,0
3.2522,1783190240.0712,1,1,1.0000,0.0000,1.44680,0.20896,-2.78354,1.00374,1.57079,0.00002,-0.14512,-0.38002,0.04028,,,,,,,,,,,,,,,,,,,,,,,,,,0,0,0,0,0
3.2525,1783190240.0716,1,1,1.0000,0.0000,1.44680,0.20893,-2.78355,1.00379,1.57079,0.00002,-0.14512,-0.38002,0.04027,,,,,,,,,,,,,,,,,,,,,,,,,,0,0,0,0,0
3.2686,1783190240.0876,1,1,1.0000,0.0000,1.44680,0.20876,-2.78359,1.00399,1.57079,0.00002,-0.14512,-0.38002,0.04023,,,,,,,,,,,,,,,,,,,,,,,,,,0,0,0,0,0
3.2733,1783190240.0923,1,1,1.0000,0.0000,1.44680,0.20875,-2.78359,1.00401,1.57079,0.00002,-0.14512,-0.38002,0.04022,,,,,,,,,,,,,,,,,,,,,,,,,,0,0,0,0,0
3.2737,1783190240.0927,1,1,1.0000,0.0000,1.44680,0.20875,-2.78359,1.00401,1.57079,0.00002,-0.14512,-0.38002,0.04022,,,,,,,,,,,,,,,,,,,,,,,,,,0,0,0,0,0
3.2911,1783190240.1101,1,1,1.0000,0.0000,1.44680,0.20853,-2.78365,1.00428,1.57079,0.00002,-0.14512,-0.38002,0.04017,,,,,,,,,,,,,,,,,,,,,,,,,,0,0,0,0,0
3.2942,1783190240.1132,1,1,1.0000,0.0000,1.44680,0.20845,-2.78366,1.00438,1.57079,0.00002,-0.14512,-0.38002,0.04015,,,,,,,,,,,,,,,,,,,,,,,,,,0,0,0,0,0
3.3011,1783190240.1201,1,1,1.0000,0.0000,1.44680,0.20838,-2.78368,1.00446,1.57079,0.00002,-0.14512,-0.38002,0.04013,,,,,,,,,,,,,,,,,,,,,,,,,,0,0,0,0,0
3.3015,1783190240.1205,1,1,1.0000,0.0000,1.44680,0.20838,-2.78368,1.00446,1.57079,0.00002,-0.14512,-0.38002,0.04013,,,,,,,,,,,,,,,,,,,,,,,,,,0,0,0,0,0
3.3115,1783190240.1306,1,1,1.0000,0.0000,1.44680,0.20835,-2.78369,1.00450,1.57079,0.00002,-0.14512,-0.38002,0.04012,,,,,,,,,,,,,,,,,,,,,,,,,,0,0,0,0,0
3.3221,1783190240.1411,1,1,1.0000,0.0000,1.44680,0.20821,-2.78372,1.00468,1.57079,0.00002,-0.14512,-0.38002,0.04009,,,,,,,,,,,,,,,,,,,,,,,,,,0,0,0,0,0
3.3367,1783190240.1558,1,1,1.0000,0.0000,1.44680,0.20810,-2.78375,1.00481,1.57079,0.00002,-0.14512,-0.38002,0.04006,,,,,,,,,,,,,,,,,,,,,,,,,,0,0,0,0,0
3.3420,1783190240.1610,1,1,1.0000,0.0000,1.44680,0.20805,-2.78376,1.00488,1.57079,0.00002,-0.14512,-0.38002,0.04005,,,,,,,,,,,,,,,,,,,,,,,,,,0,0,0,0,0
3.3424,1783190240.1614,1,1,1.0000,0.0000,1.44680,0.20805,-2.78376,1.00488,1.57079,0.00002,-0.14512,-0.38002,0.04005,,,,,,,,,,,,,,,,,,,,,,,,,,0,0,0,0,0
3.3529,1783190240.1719,1,1,1.0000,0.0000,1.44680,0.20784,-2.78381,1.00514,1.57079,0.00002,-0.14512,-0.38002,0.03999,,,,,,,,,,,,,,,,,,,,,,,,,,0,0,0,0,0
3.3618,1783190240.1808,1,1,1.0000,0.0000,1.44680,0.20777,-2.78383,1.00522,1.57079,0.00002,-0.14512,-0.38002,0.03997,,,,,,,,,,,,,,,,,,,,,,,,,,0,0,0,0,0
3.3760,1783190240.1950,1,1,1.0000,0.0000,1.44680,0.20767,-2.78385,1.00534,1.57079,0.00002,-0.14512,-0.38002,0.03995,,,,,,,,,,,,,,,,,,,,,,,,,,0,0,0,0,0
3.3810,1783190240.2000,1,1,1.0000,0.0000,1.44680,0.20754,-2.78388,1.00551,1.57079,0.00002,-0.14512,-0.38002,0.03992,,,,,,,,,,,,,,,,,,,,,,,,,,0,0,0,0,0
3.3812,1783190240.2003,1,1,1.0000,0.0000,1.44680,0.20754,-2.78388,1.00551,1.57079,0.00002,-0.14512,-0.38002,0.03992,,,,,,,,,,,,,,,,,,,,,,,,,,0,0,0,0,0
3.3927,1783190240.2117,1,1,1.0000,0.0000,1.44680,0.20745,-2.78390,1.00561,1.57079,0.00002,-0.14512,-0.38002,0.03990,,,,,,,,,,,,,,,,,,,,,,,,,,0,0,0,0,0
3.4024,1783190240.2215,1,1,1.0000,0.0000,1.44680,0.20737,-2.78392,1.00572,1.57079,0.00002,-0.14512,-0.38002,0.03987,,,,,,,,,,,,,,,,,,,,,,,,,,0,0,0,0,0
3.4115,1783190240.2305,1,1,1.0000,0.0000,1.44680,0.20724,-2.78395,1.00588,1.57079,0.00002,-0.14512,-0.38002,0.03984,,,,,,,,,,,,,,,,,,,,,,,,,,0,0,0,0,0
3.4213,1783190240.2403,1,1,1.0000,0.0000,1.44680,0.20710,-2.78399,1.00606,1.57079,0.00002,-0.14512,-0.38002,0.03981,,,,,,,,,,,,,,,,,,,,,,,,,,0,0,0,0,0
3.4328,1783190240.2518,1,1,1.0000,0.0000,1.44680,0.20700,-2.78401,1.00618,1.57079,0.00002,-0.14512,-0.38002,0.03978,,,,,,,,,,,,,,,,,,,,,,,,,,0,0,0,0,0
3.4468,1783190240.2658,1,1,1.0000,0.0000,1.44680,0.20680,-2.78406,1.00643,1.57079,0.00002,-0.14512,-0.38002,0.03973,,,,,,,,,,,,,,,,,,,,,,,,,,0,0,0,0,0
3.4540,1783190240.2730,1,1,1.0000,0.0000,1.44680,0.20678,-2.78406,1.00644,1.57079,0.00002,-0.14512,-0.38002,0.03973,,,,,,,,,,,,,,,,,,,,,,,,,,0,0,0,0,0
3.4618,1783190240.2809,1,1,1.0000,0.0000,1.44680,0.20670,-2.78408,1.00655,1.57079,0.00002,-0.14512,-0.38002,0.03971,,,,,,,,,,,,,,,,,,,,,,,,,,0,0,0,0,0
3.4714,1783190240.2904,1,1,1.0000,0.0000,1.44680,0.20657,-2.78411,1.00671,1.57079,0.00002,-0.14512,-0.38002,0.03967,,,,,,,,,,,,,,,,,,,,,,,,,,0,0,0,0,0
3.4823,1783190240.3013,1,1,1.0000,0.0000,1.44680,0.20643,-2.78415,1.00689,1.57079,0.00002,-0.14512,-0.38002,0.03964,,,,,,,,,,,,,,,,,,,,,,,,,,0,0,0,0,0
3.4953,1783190240.3144,1,1,1.0000,0.0000,1.44680,0.20633,-2.78417,1.00701,1.57079,0.00002,-0.14512,-0.38002,0.03961,,,,,,,,,,,,,,,,,,,,,,,,,,0,0,0,0,0
3.5066,1783190240.3256,1,1,1.0000,0.0000,1.44680,0.20612,-2.78422,1.00726,1.57079,0.00002,-0.14512,-0.38002,0.03956,,,,,,,,,,,,,,,,,,,,,,,,,,0,0,0,0,0
3.5167,1783190240.3357,1,1,1.0000,0.0000,1.44680,0.20608,-2.78423,1.00732,1.57079,0.00002,-0.14512,-0.38002,0.03955,,,,,,,,,,,,,,,,,,,,,,,,,,0,0,0,0,0
3.5232,1783190240.3423,1,1,1.0000,0.0000,1.44680,0.20603,-2.78424,1.00738,1.57079,0.00002,-0.14512,-0.38002,0.03954,,,,,,,,,,,,,,,,,,,,,,,,,,0,0,0,0,0
3.5343,1783190240.3533,1,1,1.0000,0.0000,1.44680,0.20582,-2.78429,1.00763,1.57079,0.00002,-0.14512,-0.38002,0.03949,,,,,,,,,,,,,,,,,,,,,,,,,,0,0,0,0,0
3.5496,1783190240.3686,1,1,1.0000,0.0000,1.44680,0.20571,-2.78432,1.00778,1.57079,0.00002,-0.14512,-0.38002,0.03946,,,,,,,,,,,,,,,,,,,,,,,,,,0,0,0,0,0
3.5566,1783190240.3756,1,1,1.0000,0.0000,1.44680,0.20559,-2.78435,1.00792,1.57079,0.00002,-0.14512,-0.38002,0.03943,,,,,,,,,,,,,,,,,,,,,,,,,,0,0,0,0,0
3.5569,1783190240.3759,1,1,1.0000,0.0000,1.44680,0.20559,-2.78435,1.00792,1.57079,0.00002,-0.14512,-0.38002,0.03943,,,,,,,,,,,,,,,,,,,,,,,,,,0,0,0,0,0
3.5618,1783190240.3808,1,1,1.0000,0.0000,1.44680,0.20552,-2.78436,1.00800,1.57079,0.00002,-0.14512,-0.38002,0.03941,,,,,,,,,,,,,,,,,,,,,,,,,,0,0,0,0,0
3.5727,1783190240.3917,1,1,1.0000,0.0000,1.44680,0.20544,-2.78438,1.00811,1.57079,0.00002,-0.14512,-0.38002,0.03939,,,,,,,,,,,,,,,,,,,,,,,,,,0,0,0,0,0
3.5971,1783190240.4161,1,1,1.0000,0.0000,1.44680,0.20508,-2.78447,1.00855,1.57079,0.00002,-0.14512,-0.38002,0.03930,,,,,,,,,,,,,,,,,,,,,,,,,,0,0,0,0,0
3.5974,1783190240.4164,1,1,1.0000,0.0000,1.44680,0.20508,-2.78447,1.00855,1.57079,0.00002,-0.14512,-0.38002,0.03930,,,,,,,,,,,,,,,,,,,,,,,,,,0,0,0,0,0
3.6039,1783190240.4230,1,1,1.0000,0.0000,1.44680,0.20508,-2.78447,1.00855,1.57079,0.00002,-0.14512,-0.38002,0.03930,,,,,,,,,,,,,,,,,,,,,,,,,,0,0,0,0,0
3.6042,1783190240.4232,1,1,1.0000,0.0000,1.44680,0.20508,-2.78447,1.00855,1.57079,0.00002,-0.14512,-0.38002,0.03930,,,,,,,,,,,,,,,,,,,,,,,,,,0,0,0,0,0
3.6111,1783190240.4301,1,1,1.0000,0.0000,1.44680,0.20503,-2.78448,1.00861,1.57079,0.00002,-0.14512,-0.38002,0.03929,,,,,,,,,,,,,,,,,,,,,,,,,,0,0,0,0,0
3.6114,1783190240.4304,1,1,1.0000,0.0000,1.44680,0.20503,-2.78448,1.00861,1.57079,0.00002,-0.14512,-0.38002,0.03929,,,,,,,,,,,,,,,,,,,,,,,,,,0,0,0,0,0
3.6212,1783190240.4402,1,1,1.0000,0.0000,1.44680,0.20485,-2.78452,1.00884,1.57079,0.00002,-0.14512,-0.38002,0.03924,,,,,,,,,,,,,,,,,,,,,,,,,,0,0,0,0,0
3.6337,1783190240.4527,1,1,1.0000,0.0000,1.44680,0.20477,-2.78454,1.00894,1.57079,0.00002,-0.14512,-0.38002,0.03922,,,,,,,,,,,,,,,,,,,,,,,,,,0,0,0,0,0
3.6432,1783190240.4622,1,1,1.0000,0.0000,1.44680,0.20468,-2.78456,1.00905,1.57079,0.00002,-0.14512,-0.38002,0.03920,,,,,,,,,,,,,,,,,,,,,,,,,,0,0,0,0,0
3.6569,1783190240.4760,1,1,1.0000,0.0000,1.44680,0.20441,-2.78463,1.00938,1.57079,0.00002,-0.14512,-0.38002,0.03913,,,,,,,,,,,,,,,,,,,,,,,,,,0,0,0,0,0
3.6615,1783190240.4806,1,1,1.0000,0.0000,1.44680,0.20441,-2.78463,1.00938,1.57079,0.00002,-0.14512,-0.38002,0.03913,,,,,,,,,,,,,,,,,,,,,,,,,,0,0,0,0,0
3.6618,1783190240.4808,1,1,1.0000,0.0000,1.44680,0.20441,-2.78463,1.00938,1.57079,0.00002,-0.14512,-0.38002,0.03913,,,,,,,,,,,,,,,,,,,,,,,,,,0,0,0,0,0
3.6747,1783190240.4938,1,1,1.0000,0.0000,1.44680,0.20431,-2.78465,1.00950,1.57079,0.00002,-0.14512,-0.38002,0.03910,,,,,,,,,,,,,,,,,,,,,,,,,,0,0,0,0,0
3.6828,1783190240.5018,1,1,1.0000,0.0000,1.44680,0.20418,-2.78468,1.00967,1.57079,0.00002,-0.14512,-0.38002,0.03907,,,,,,,,,,,,,,,,,,,,,,,,,,0,0,0,0,0
3.6999,1783190240.5189,1,1,1.0000,0.0000,1.44680,0.20406,-2.78471,1.00982,1.57079,0.00002,-0.14512,-0.38002,0.03904,,,,,,,,,,,,,,,,,,,,,,,,,,0,0,0,0,0
3.7016,1783190240.5206,1,1,1.0000,0.0000,1.44680,0.20401,-2.78472,1.00988,1.57079,0.00002,-0.14512,-0.38002,0.03903,,,,,,,,,,,,,,,,,,,,,,,,,,0,0,0,0,0
3.7117,1783190240.5307,1,1,1.0000,0.0000,1.44680,0.20388,-2.78475,1.01004,1.57079,0.00002,-0.14512,-0.38002,0.03900,,,,,,,,,,,,,,,,,,,,,,,,,,0,0,0,0,0
3.7122,1783190240.5312,1,1,1.0000,0.0000,1.44680,0.20388,-2.78475,1.01004,1.57079,0.00002,-0.14512,-0.38002,0.03900,,,,,,,,,,,,,,,,,,,,,,,,,,0,0,0,0,0
3.7212,1783190240.5403,1,1,1.0000,0.0000,1.44680,0.20373,-2.78479,1.01022,1.57079,0.00002,-0.14512,-0.38002,0.03896,,,,,,,,,,,,,,,,,,,,,,,,,,0,0,0,0,0
3.7216,1783190240.5406,1,1,1.0000,0.0000,1.44680,0.20373,-2.78479,1.01022,1.57079,0.00002,-0.14512,-0.38002,0.03896,,,,,,,,,,,,,,,,,,,,,,,,,,0,0,0,0,0
3.7328,1783190240.5519,1,1,1.0000,0.0000,1.44680,0.20364,-2.78481,1.01034,1.57079,0.00002,-0.14512,-0.38002,0.03894,,,,,,,,,,,,,,,,,,,,,,,,,,0,0,0,0,0
3.7454,1783190240.5644,1,1,1.0000,0.0000,1.44680,0.20343,-2.78486,1.01059,1.57079,0.00002,-0.14512,-0.38002,0.03888,,,,,,,,,,,,,,,,,,,,,,,,,,0,0,0,0,0
3.7528,1783190240.5719,1,1,1.0000,0.0000,1.44680,0.20336,-2.78488,1.01068,1.57079,0.00002,-0.14512,-0.38002,0.03887,,,,,,,,,,,,,,,,,,,,,,,,,,0,0,0,0,0
3.8348,1783190240.6539,1,1,1.0000,0.0000,1.44680,0.20256,-2.78506,1.01166,1.57079,0.00002,-0.14512,-0.38001,0.03867,,,,,,,,,,,,,,,,,,,,,,,,,,0,0,0,0,0
3.8353,1783190240.6543,1,1,1.0000,0.0000,1.44680,0.20256,-2.78506,1.01166,1.57079,0.00002,-0.14512,-0.38001,0.03867,,,,,,,,,,,,,,,,,,,,,,,,,,0,0,0,0,0
3.8356,1783190240.6546,1,1,1.0000,0.0000,1.44680,0.20256,-2.78506,1.01166,1.57079,0.00002,-0.14512,-0.38001,0.03867,,,,,,,,,,,,,,,,,,,,,,,,,,0,0,0,0,0
3.8361,1783190240.6552,1,1,1.0000,0.0000,1.44680,0.20256,-2.78506,1.01166,1.57079,0.00002,-0.14512,-0.38001,0.03867,,,,,,,,,,,,,,,,,,,,,,,,,,0,0,0,0,0
3.8574,1783190240.6764,1,1,1.0000,0.0000,1.44680,0.20234,-2.78512,1.01194,1.57079,0.00002,-0.14512,-0.38001,0.03861,,,,,,,,,,,,,,,,,,,,,,,,,,0,0,0,0,0
3.8577,1783190240.6767,1,1,1.0000,0.0000,1.44680,0.20234,-2.78512,1.01194,1.57079,0.00002,-0.14512,-0.38001,0.03861,,,,,,,,,,,,,,,,,,,,,,,,,,0,0,0,0,0
3.8680,1783190240.6871,1,1,1.0000,0.0000,1.44680,0.20219,-2.78515,1.01213,1.57079,0.00002,-0.14512,-0.38001,0.03857,,,,,,,,,,,,,,,,,,,,,,,,,,0,0,0,0,0
3.8890,1783190240.7080,1,1,1.0000,0.0000,1.44680,0.20200,-2.78520,1.01236,1.57079,0.00002,-0.14512,-0.38001,0.03853,,,,,,,,,,,,,,,,,,,,,,,,,,0,0,0,0,0
3.8893,1783190240.7084,1,1,1.0000,0.0000,1.44680,0.20200,-2.78520,1.01236,1.57079,0.00002,-0.14512,-0.38001,0.03853,,,,,,,,,,,,,,,,,,,,,,,,,,0,0,0,0,0
3.8897,1783190240.7087,1,1,1.0000,0.0000,1.44680,0.20200,-2.78520,1.01236,1.57079,0.00002,-0.14512,-0.38001,0.03853,,,,,,,,,,,,,,,,,,,,,,,,,,0,0,0,0,0
3.8932,1783190240.7122,1,1,1.0000,0.0000,1.44680,0.20194,-2.78521,1.01243,1.57079,0.00002,-0.14512,-0.38001,0.03851,,,,,,,,,,,,,,,,,,,,,,,,,,0,0,0,0,0
3.9389,1783190240.7579,1,1,1.0000,0.0000,1.44680,0.20149,-2.78532,1.01299,1.57079,0.00003,-0.14512,-0.38001,0.03840,,,,,,,,,,,,,,,,,,,,,,,,,,0,0,0,0,0
3.9392,1783190240.7582,1,1,1.0000,0.0000,1.44680,0.20149,-2.78532,1.01299,1.57079,0.00003,-0.14512,-0.38001,0.03840,,,,,,,,,,,,,,,,,,,,,,,,,,0,0,0,0,0
3.9396,1783190240.7586,1,1,1.0000,0.0000,1.44680,0.20149,-2.78532,1.01299,1.57079,0.00003,-0.14512,-0.38001,0.03840,,,,,,,,,,,,,,,,,,,,,,,,,,0,0,0,0,0
3.9412,1783190240.7603,1,1,1.0000,0.0000,1.44680,0.20147,-2.78532,1.01302,1.57079,0.00003,-0.14512,-0.38001,0.03839,,,,,,,,,,,,,,,,,,,,,,,,,,0,0,0,0,0
3.9560,1783190240.7750,1,1,1.0000,0.0000,1.44680,0.20132,-2.78536,1.01320,1.57079,0.00003,-0.14512,-0.38001,0.03836,,,,,,,,,,,,,,,,,,,,,,,,,,0,0,0,0,0
3.9636,1783190240.7826,1,1,1.0000,0.0000,1.44680,0.20126,-2.78537,1.01327,1.57079,0.00003,-0.14512,-0.38001,0.03834,,,,,,,,,,,,,,,,,,,,,,,,,,0,0,0,0,0
3.9639,1783190240.7829,1,1,1.0000,0.0000,1.44680,0.20126,-2.78537,1.01327,1.57079,0.00003,-0.14512,-0.38001,0.03834,,,,,,,,,,,,,,,,,,,,,,,,,,0,0,0,0,0
3.9758,1783190240.7948,1,1,1.0000,0.0000,1.44680,0.20116,-2.78539,1.01340,1.57079,0.00003,-0.14512,-0.38001,0.03832,,,,,,,,,,,,,,,,,,,,,,,,,,0,0,0,0,0
3.9814,1783190240.8004,1,1,1.0000,0.0000,1.44680,0.20102,-2.78543,1.01357,1.57079,0.00003,-0.14512,-0.38001,0.03828,,,,,,,,,,,,,,,,,,,,,,,,,,0,0,0,0,0
3.9817,1783190240.8007,1,1,1.0000,0.0000,1.44680,0.20102,-2.78543,1.01357,1.57079,0.00003,-0.14512,-0.38001,0.03828,,,,,,,,,,,,,,,,,,,,,,,,,,0,0,0,0,0
4.0173,1783190240.8363,1,1,1.0000,0.0000,1.44680,0.20064,-2.78552,1.01404,1.57079,0.00003,-0.14512,-0.38001,0.03819,,,,,,,,,,,,,,,,,,,,,,,,,,0,0,0,0,0
4.0176,1783190240.8366,1,1,1.0000,0.0000,1.44680,0.20064,-2.78552,1.01404,1.57079,0.00003,-0.14512,-0.38001,0.03819,,,,,,,,,,,,,,,,,,,,,,,,,,0,0,0,0,0
4.0179,1783190240.8370,1,1,1.0000,0.0000,1.44680,0.20064,-2.78552,1.01404,1.57079,0.00003,-0.14512,-0.38001,0.03819,,,,,,,,,,,,,,,,,,,,,,,,,,0,0,0,0,0
4.0217,1783190240.8408,1,1,1.0000,0.0000,1.44680,0.20064,-2.78552,1.01404,1.57079,0.00003,-0.14512,-0.38001,0.03819,,,,,,,,,,,,,,,,,,,,,,,,,,0,0,0,0,0
4.0321,1783190240.8511,1,1,1.0000,0.0000,1.44680,0.20059,-2.78553,1.01410,1.57079,0.00003,-0.14512,-0.38001,0.03817,,,,,,,,,,,,,,,,,,,,,,,,,,0,0,0,0,0
4.0414,1783190240.8604,1,1,1.0000,0.0000,1.44680,0.20040,-2.78557,1.01433,1.57079,0.00003,-0.14512,-0.38001,0.03813,,,,,,,,,,,,,,,,,,,,,,,,,,0,0,0,0,0
4.0756,1783190240.8946,1,1,1.0000,0.0000,1.44680,0.20003,-2.78566,1.01480,1.57079,0.00003,-0.14512,-0.38001,0.03803,,,,,,,,,,,,,,,,,,,,,,,,,,0,0,0,0,0
4.0759,1783190240.8949,1,1,1.0000,0.0000,1.44680,0.20003,-2.78566,1.01480,1.57079,0.00003,-0.14512,-0.38001,0.03803,,,,,,,,,,,,,,,,,,,,,,,,,,0,0,0,0,0
4.0762,1783190240.8952,1,1,1.0000,0.0000,1.44680,0.20003,-2.78566,1.01480,1.57079,0.00003,-0.14512,-0.38001,0.03803,,,,,,,,,,,,,,,,,,,,,,,,,,0,0,0,0,0
4.0769,1783190240.8960,1,1,1.0000,0.0000,1.44680,0.19995,-2.78568,1.01489,1.57079,0.00003,-0.14512,-0.38001,0.03802,,,,,,,,,,,,,,,,,,,,,,,,,,0,0,0,0,0
4.0864,1783190240.9054,1,1,1.0000,0.0000,1.44680,0.19988,-2.78569,1.01497,1.57079,0.00003,-0.14512,-0.38001,0.03800,,,,,,,,,,,,,,,,,,,,,,,,,,0,0,0,0,0
4.0920,1783190240.9110,1,1,1.0000,0.0000,1.44680,0.19987,-2.78570,1.01499,1.57079,0.00003,-0.14512,-0.38001,0.03800,,,,,,,,,,,,,,,,,,,,,,,,,,0,0,0,0,0
4.0923,1783190240.9114,1,1,1.0000,0.0000,1.44680,0.19987,-2.78570,1.01499,1.57079,0.00003,-0.14512,-0.38001,0.03800,,,,,,,,,,,,,,,,,,,,,,,,,,0,0,0,0,0
4.1092,1783190240.9282,1,1,1.0000,0.0000,1.44680,0.19964,-2.78575,1.01527,1.57079,0.00003,-0.14512,-0.38001,0.03794,,,,,,,,,,,,,,,,,,,,,,,,,,0,0,0,0,0
4.1095,1783190240.9286,1,1,1.0000,0.0000,1.44680,0.19964,-2.78575,1.01527,1.57079,0.00003,-0.14512,-0.38001,0.03794,,,,,,,,,,,,,,,,,,,,,,,,,,0,0,0,0,0
4.1131,1783190240.9321,1,1,1.0000,0.0000,1.44680,0.19964,-2.78575,1.01527,1.57079,0.00003,-0.14512,-0.38001,0.03794,,,,,,,,,,,,,,,,,,,,,,,,,,0,0,0,0,0
4.1213,1783190240.9404,1,1,1.0000,0.0000,1.44680,0.19960,-2.78576,1.01533,1.57079,0.00003,-0.14512,-0.38001,0.03793,,,,,,,,,,,,,,,,,,,,,,,,,,0,0,0,0,0
4.1322,1783190240.9512,1,1,1.0000,0.0000,1.44680,0.19948,-2.78579,1.01547,1.57079,0.00003,-0.14512,-0.38001,0.03790,,,,,,,,,,,,,,,,,,,,,,,,,,0,0,0,0,0
4.1451,1783190240.9642,1,1,1.0000,0.0000,1.44680,0.19926,-2.78584,1.01574,1.57079,0.00003,-0.14512,-0.38001,0.03784,,,,,,,,,,,,,,,,,,,,,,,,,,0,0,0,0,0
4.1549,1783190240.9740,1,1,1.0000,0.0000,1.44680,0.19923,-2.78585,1.01579,1.57079,0.00003,-0.14512,-0.38001,0.03783,,,,,,,,,,,,,,,,,,,,,,,,,,0,0,0,0,0
4.1618,1783190240.9808,1,1,1.0000,0.0000,1.44680,0.19914,-2.78587,1.01589,1.57079,0.00003,-0.14512,-0.38001,0.03781,,,,,,,,,,,,,,,,,,,,,,,,,,0,0,0,0,0
4.1620,1783190240.9811,1,1,1.0000,0.0000,1.44680,0.19914,-2.78587,1.01589,1.57079,0.00003,-0.14512,-0.38001,0.03781,,,,,,,,,,,,,,,,,,,,,,,,,,0,0,0,0,0
4.1711,1783190240.9901,1,1,1.0000,0.0000,1.44680,0.19902,-2.78590,1.01604,1.57079,0.00003,-0.14512,-0.38001,0.03778,,,,,,,,,,,,,,,,,,,,,,,,,,0,0,0,0,0
4.1714,1783190240.9904,1,1,1.0000,0.0000,1.44680,0.19902,-2.78590,1.01604,1.57079,0.00003,-0.14512,-0.38001,0.03778,,,,,,,,,,,,,,,,,,,,,,,,,,0,0,0,0,0
4.1811,1783190241.0001,1,1,1.0000,0.0000,1.44680,0.19897,-2.78591,1.01610,1.57079,0.00003,-0.14512,-0.38001,0.03777,,,,,,,,,,,,,,,,,,,,,,,,,,0,0,0,0,0
4.1815,1783190241.0005,1,1,1.0000,0.0000,1.44680,0.19897,-2.78591,1.01610,1.57079,0.00003,-0.14512,-0.38001,0.03777,,,,,,,,,,,,,,,,,,,,,,,,,,0,0,0,0,0
4.1914,1783190241.0104,1,1,1.0000,0.0000,1.44680,0.19885,-2.78593,1.01624,1.57079,0.00003,-0.14512,-0.38001,0.03774,,,,,,,,,,,,,,,,,,,,,,,,,,0,0,0,0,0
4.2162,1783190241.0352,1,1,1.0000,0.0000,1.44680,0.19860,-2.78599,1.01655,1.57079,0.00003,-0.14512,-0.38001,0.03768,,,,,,,,,,,,,,,,,,,,,,,,,,0,0,0,0,0
4.2166,1783190241.0356,1,1,1.0000,0.0000,1.44680,0.19860,-2.78599,1.01655,1.57079,0.00003,-0.14512,-0.38001,0.03768,,,,,,,,,,,,,,,,,,,,,,,,,,0,0,0,0,0
4.2170,1783190241.0360,1,1,1.0000,0.0000,1.44680,0.19856,-2.78600,1.01660,1.57079,0.00003,-0.14512,-0.38001,0.03767,,,,,,,,,,,,,,,,,,,,,,,,,,0,0,0,0,0
4.2228,1783190241.0419,1,1,1.0000,0.0000,1.44680,0.19852,-2.78601,1.01666,1.57079,0.00003,-0.14512,-0.38001,0.03766,,,,,,,,,,,,,,,,,,,,,,,,,,0,0,0,0,0
4.2334,1783190241.0525,1,1,1.0000,0.0000,1.44680,0.19840,-2.78604,1.01680,1.57079,0.00003,-0.14512,-0.38001,0.03763,,,,,,,,,,,,,,,,,,,,,,,,,,0,0,0,0,0
4.2492,1783190241.0682,1,1,1.0000,0.0000,1.44680,0.19823,-2.78608,1.01701,1.57079,0.00003,-0.14512,-0.38001,0.03759,,,,,,,,,,,,,,,,,,,,,,,,,,0,0,0,0,0
4.2496,1783190241.0686,1,1,1.0000,0.0000,1.44680,0.19823,-2.78608,1.01701,1.57079,0.00003,-0.14512,-0.38001,0.03759,,,,,,,,,,,,,,,,,,,,,,,,,,0,0,0,0,0
4.2666,1783190241.0856,1,1,1.0000,0.0000,1.44680,0.19801,-2.78613,1.01728,1.57079,0.00003,-0.14512,-0.38001,0.03753,,,,,,,,,,,,,,,,,,,,,,,,,,0,0,0,0,0
4.2732,1783190241.0922,1,1,1.0000,0.0000,1.44680,0.19798,-2.78614,1.01732,1.57079,0.00003,-0.14512,-0.38001,0.03752,,,,,,,,,,,,,,,,,,,,,,,,,,0,0,0,0,0
4.2735,1783190241.0925,1,1,1.0000,0.0000,1.44680,0.19798,-2.78614,1.01732,1.57079,0.00003,-0.14512,-0.38001,0.03752,,,,,,,,,,,,,,,,,,,,,,,,,,0,0,0,0,0
4.2810,1783190241.1000,1,1,1.0000,0.0000,1.44680,0.19789,-2.78616,1.01743,1.57079,0.00003,-0.14512,-0.38001,0.03750,,,,,,,,,,,,,,,,,,,,,,,,,,0,0,0,0,0
4.2813,1783190241.1003,1,1,1.0000,0.0000,1.44680,0.19789,-2.78616,1.01743,1.57079,0.00003,-0.14512,-0.38001,0.03750,,,,,,,,,,,,,,,,,,,,,,,,,,0,0,0,0,0
4.2911,1783190241.1101,1,1,1.0000,0.0000,1.44680,0.19778,-2.78619,1.01757,1.57079,0.00003,-0.14512,-0.38001,0.03747,,,,,,,,,,,,,,,,,,,,,,,,,,0,0,0,0,0
4.3052,1783190241.1243,1,1,1.0000,0.0000,1.44680,0.19767,-2.78621,1.01770,1.57079,0.00003,-0.14512,-0.38001,0.03745,,,,,,,,,,,,,,,,,,,,,,,,,,0,0,0,0,0
4.3177,1783190241.1367,1,1,1.0000,0.0000,1.44680,0.19746,-2.78626,1.01796,1.57079,0.00003,-0.14512,-0.38001,0.03739,,,,,,,,,,,,,,,,,,,,,,,,,,0,0,0,0,0
4.3181,1783190241.1371,1,1,1.0000,0.0000,1.44680,0.19746,-2.78626,1.01796,1.57079,0.00003,-0.14512,-0.38001,0.03739,,,,,,,,,,,,,,,,,,,,,,,,,,0,0,0,0,0
4.3217,1783190241.1407,1,1,1.0000,0.0000,1.44680,0.19739,-2.78628,1.01805,1.57079,0.00003,-0.14512,-0.38001,0.03738,,,,,,,,,,,,,,,,,,,,,,,,,,0,0,0,0,0
4.3220,1783190241.1410,1,1,1.0000,0.0000,1.44680,0.19739,-2.78628,1.01805,1.57079,0.00003,-0.14512,-0.38001,0.03738,,,,,,,,,,,,,,,,,,,,,,,,,,0,0,0,0,0
4.3315,1783190241.1505,1,1,1.0000,0.0000,1.44680,0.19738,-2.78628,1.01806,1.57079,0.00003,-0.14512,-0.38001,0.03737,,,,,,,,,,,,,,,,,,,,,,,,,,0,0,0,0,0
4.3442,1783190241.1632,1,1,1.0000,0.0000,1.44680,0.19727,-2.78630,1.01820,1.57079,0.00003,-0.14512,-0.38001,0.03735,,,,,,,,,,,,,,,,,,,,,,,,,,0,0,0,0,0
4.3513,1783190241.1704,1,1,1.0000,0.0000,1.44680,0.19715,-2.78633,1.01834,1.57079,0.00003,-0.14512,-0.38001,0.03732,,,,,,,,,,,,,,,,,,,,,,,,,,0,0,0,0,0
4.3653,1783190241.1843,1,1,1.0000,0.0000,1.44680,0.19705,-2.78635,1.01847,1.57079,0.00003,-0.14512,-0.38001,0.03729,,,,,,,,,,,,,,,,,,,,,,,,,,0,0,0,0,0
4.3734,1783190241.1924,1,1,1.0000,0.0000,1.44680,0.19691,-2.78639,1.01864,1.57079,0.00003,-0.14512,-0.38001,0.03726,,,,,,,,,,,,,,,,,,,,,,,,,,0,0,0,0,0
4.3738,1783190241.1928,1,1,1.0000,0.0000,1.44680,0.19691,-2.78639,1.01864,1.57079,0.00003,-0.14512,-0.38001,0.03726,,,,,,,,,,,,,,,,,,,,,,,,,,0,0,0,0,0
4.3854,1783190241.2044,1,1,1.0000,0.0000,1.44680,0.19676,-2.78642,1.01882,1.57079,0.00003,-0.14512,-0.38001,0.03722,,,,,,,,,,,,,,,,,,,,,,,,,,0,0,0,0,0
4.3857,1783190241.2048,1,1,1.0000,0.0000,1.44680,0.19676,-2.78642,1.01882,1.57079,0.00003,-0.14512,-0.38001,0.03722,,,,,,,,,,,,,,,,,,,,,,,,,,0,0,0,0,0
4.3931,1783190241.2121,1,1,1.0000,0.0000,1.44680,0.19673,-2.78643,1.01886,1.57079,0.00003,-0.14512,-0.38001,0.03721,,,,,,,,,,,,,,,,,,,,,,,,,,0,0,0,0,0
4.4020,1783190241.2210,1,1,1.0000,0.0000,1.44680,0.19664,-2.78645,1.01897,1.57079,0.00003,-0.14512,-0.38001,0.03719,,,,,,,,,,,,,,,,,,,,,,,,,,0,0,0,0,0
4.4166,1783190241.2356,1,1,1.0000,0.0000,1.44680,0.19653,-2.78648,1.01911,1.57079,0.00003,-0.14511,-0.38001,0.03716,,,,,,,,,,,,,,,,,,,,,,,,,,0,0,0,0,0
4.4213,1783190241.2403,1,1,1.0000,0.0000,1.44680,0.19648,-2.78649,1.01917,1.57079,0.00003,-0.14511,-0.38001,0.03715,,,,,,,,,,,,,,,,,,,,,,,,,,0,0,0,0,0
4.4218,1783190241.2408,1,1,1.0000,0.0000,1.44680,0.19648,-2.78649,1.01917,1.57079,0.00003,-0.14511,-0.38001,0.03715,,,,,,,,,,,,,,,,,,,,,,,,,,0,0,0,0,0
4.4318,1783190241.2508,1,1,1.0000,0.0000,1.44679,0.19636,-2.78651,1.01932,1.57079,0.00003,-0.14511,-0.38001,0.03712,,,,,,,,,,,,,,,,,,,,,,,,,,0,0,0,0,0
4.4414,1783190241.2605,1,1,1.0000,0.0000,1.44679,0.19614,-2.78657,1.01959,1.57079,0.00003,-0.14511,-0.38001,0.03707,,,,,,,,,,,,,,,,,,,,,,,,,,0,0,0,0,0
4.4513,1783190241.2703,1,1,1.0000,0.0000,1.44679,0.19613,-2.78657,1.01960,1.57079,0.00003,-0.14511,-0.38001,0.03706,,,,,,,,,,,,,,,,,,,,,,,,,,0,0,0,0,0
4.4676,1783190241.2867,1,1,1.0000,0.0000,1.44679,0.19596,-2.78661,1.01980,1.57079,0.00003,-0.14511,-0.38001,0.03702,,,,,,,,,,,,,,,,,,,,,,,,,,0,0,0,0,0
4.4759,1783190241.2950,1,1,1.0000,0.0000,1.44679,0.19590,-2.78662,1.01988,1.57079,0.00003,-0.14511,-0.38001,0.03701,,,,,,,,,,,,,,,,,,,,,,,,,,0,0,0,0,0
4.4851,1783190241.3042,1,1,1.0000,0.0000,1.44679,0.19580,-2.78664,1.02001,1.57079,0.00003,-0.14511,-0.38001,0.03698,,,,,,,,,,,,,,,,,,,,,,,,,,0,0,0,0,0
4.4997,1783190241.3187,1,1,1.0000,0.0000,1.44679,0.19559,-2.78669,1.02027,1.57079,0.00003,-0.14511,-0.38001,0.03693,,,,,,,,,,,,,,,,,,,,,,,,,,0,0,0,0,0
4.5058,1783190241.3248,1,1,1.0000,0.0000,1.44679,0.19551,-2.78671,1.02036,1.57079,0.00003,-0.14511,-0.38001,0.03691,,,,,,,,,,,,,,,,,,,,,,,,,,0,0,0,0,0
4.5062,1783190241.3252,1,1,1.0000,0.0000,1.44679,0.19551,-2.78671,1.02036,1.57079,0.00003,-0.14511,-0.38001,0.03691,,,,,,,,,,,,,,,,,,,,,,,,,,0,0,0,0,0
4.5233,1783190241.3423,1,1,1.0000,0.0000,1.44679,0.19535,-2.78675,1.02056,1.57079,0.00003,-0.14511,-0.38001,0.03687,,,,,,,,,,,,,,,,,,,,,,,,,,0,0,0,0,0
4.5236,1783190241.3426,1,1,1.0000,0.0000,1.44679,0.19535,-2.78675,1.02056,1.57079,0.00003,-0.14511,-0.38001,0.03687,,,,,,,,,,,,,,,,,,,,,,,,,,0,0,0,0,0
4.5268,1783190241.3458,1,1,1.0000,0.0000,1.44679,0.19528,-2.78676,1.02064,1.57079,0.00003,-0.14511,-0.38001,0.03685,,,,,,,,,,,,,,,,,,,,,,,,,,0,0,0,0,0
4.5271,1783190241.3461,1,1,1.0000,0.0000,1.44679,0.19528,-2.78676,1.02064,1.57079,0.00003,-0.14511,-0.38001,0.03685,,,,,,,,,,,,,,,,,,,,,,,,,,0,0,0,0,0
4.5355,1783190241.3546,1,1,1.0000,0.0000,1.44679,0.19521,-2.78678,1.02073,1.57079,0.00003,-0.14511,-0.38001,0.03684,,,,,,,,,,,,,,,,,,,,,,,,,,0,0,0,0,0
4.5359,1783190241.3549,1,1,1.0000,0.0000,1.44679,0.19521,-2.78678,1.02073,1.57079,0.00003,-0.14511,-0.38001,0.03684,,,,,,,,,,,,,,,,,,,,,,,,,,0,0,0,0,0
4.5480,1783190241.3670,1,1,1.0000,0.0000,1.44679,0.19511,-2.78680,1.02085,1.57079,0.00003,-0.14511,-0.38001,0.03681,,,,,,,,,,,,,,,,,,,,,,,,,,0,0,0,0,0
4.5484,1783190241.3675,1,1,1.0000,0.0000,1.44679,0.19511,-2.78680,1.02085,1.57079,0.00003,-0.14511,-0.38001,0.03681,,,,,,,,,,,,,,,,,,,,,,,,,,0,0,0,0,0
4.5576,1783190241.3766,1,1,1.0000,0.0000,1.44679,0.19490,-2.78685,1.02111,1.57079,0.00003,-0.14511,-0.38001,0.03676,,,,,,,,,,,,,,,,,,,,,,,,,,0,0,0,0,0
4.5659,1783190241.3849,1,1,1.0000,0.0000,1.44679,0.19483,-2.78687,1.02120,1.57079,0.00003,-0.14511,-0.38001,0.03674,,,,,,,,,,,,,,,,,,,,,,,,,,0,0,0,0,0
4.5663,1783190241.3853,1,1,1.0000,0.0000,1.44679,0.19483,-2.78687,1.02120,1.57079,0.00003,-0.14511,-0.38001,0.03674,,,,,,,,,,,,,,,,,,,,,,,,,,0,0,0,0,0
4.5806,1783190241.3996,1,1,1.0000,0.0000,1.44679,0.19473,-2.78689,1.02132,1.57079,0.00003,-0.14511,-0.38001,0.03672,,,,,,,,,,,,,,,,,,,,,,,,,,0,0,0,0,0
4.5859,1783190241.4050,1,1,1.0000,0.0000,1.44679,0.19460,-2.78692,1.02148,1.57079,0.00003,-0.14511,-0.38001,0.03669,,,,,,,,,,,,,,,,,,,,,,,,,,0,0,0,0,0
4.5949,1783190241.4139,1,1,1.0000,0.0000,1.44679,0.19453,-2.78694,1.02157,1.57079,0.00003,-0.14511,-0.38001,0.03667,,,,,,,,,,,,,,,,,,,,,,,,,,0,0,0,0,0
4.6057,1783190241.4247,1,1,1.0000,0.0000,1.44679,0.19443,-2.78696,1.02169,1.57079,0.00003,-0.14511,-0.38001,0.03664,,,,,,,,,,,,,,,,,,,,,,,,,,0,0,0,0,0
4.6224,1783190241.4414,1,1,1.0000,0.0000,1.44679,0.19415,-2.78702,1.02204,1.57079,0.00003,-0.14511,-0.38001,0.03657,,,,,,,,,,,,,,,,,,,,,,,,,,0,0,0,0,0
4.6228,1783190241.4418,1,1,1.0000,0.0000,1.44679,0.19415,-2.78702,1.02204,1.57079,0.00003,-0.14511,-0.38001,0.03657,,,,,,,,,,,,,,,,,,,,,,,,,,0,0,0,0,0
4.6284,1783190241.4474,1,1,1.0000,0.0000,1.44679,0.19415,-2.78702,1.02204,1.57079,0.00003,-0.14511,-0.38001,0.03657,,,,,,,,,,,,,,,,,,,,,,,,,,0,0,0,0,0
4.6358,1783190241.4549,1,1,1.0000,0.0000,1.44679,0.19410,-2.78704,1.02209,1.57079,0.00003,-0.14511,-0.38001,0.03656,,,,,,,,,,,,,,,,,,,,,,,,,,0,0,0,0,0
4.6452,1783190241.4643,1,1,1.0000,0.0000,1.44679,0.19392,-2.78708,1.02232,1.57079,0.00003,-0.14511,-0.38001,0.03652,,,,,,,,,,,,,,,,,,,,,,,,,,0,0,0,0,0
4.6616,1783190241.4807,1,1,1.0000,0.0000,1.44679,0.19380,-2.78711,1.02247,1.57079,0.00003,-0.14511,-0.38001,0.03649,,,,,,,,,,,,,,,,,,,,,,,,,,0,0,0,0,0
4.6698,1783190241.4889,1,1,1.0000,0.0000,1.44679,0.19368,-2.78713,1.02261,1.57079,0.00003,-0.14511,-0.38001,0.03646,,,,,,,,,,,,,,,,,,,,,,,,,,0,0,0,0,0
4.6702,1783190241.4893,1,1,1.0000,0.0000,1.44679,0.19368,-2.78713,1.02261,1.57079,0.00003,-0.14511,-0.38001,0.03646,,,,,,,,,,,,,,,,,,,,,,,,,,0,0,0,0,0
4.6757,1783190241.4947,1,1,1.0000,0.0000,1.44679,0.19361,-2.78715,1.02270,1.57079,0.00003,-0.14511,-0.38001,0.03644,,,,,,,,,,,,,,,,,,,,,,,,,,0,0,0,0,0
4.6872,1783190241.5062,1,1,1.0000,0.0000,1.44679,0.19347,-2.78718,1.02288,1.57079,0.00003,-0.14511,-0.38001,0.03640,,,,,,,,,,,,,,,,,,,,,,,,,,0,0,0,0,0
4.6957,1783190241.5147,1,1,1.0000,0.0000,1.44679,0.19342,-2.78719,1.02293,1.57079,0.00003,-0.14511,-0.38001,0.03639,,,,,,,,,,,,,,,,,,,,,,,,,,0,0,0,0,0
4.6960,1783190241.5150,1,1,1.0000,0.0000,1.44679,0.19342,-2.78719,1.02293,1.57079,0.00003,-0.14511,-0.38001,0.03639,,,,,,,,,,,,,,,,,,,,,,,,,,0,0,0,0,0
4.7257,1783190241.5447,1,1,1.0000,0.0000,1.44679,0.19306,-2.78727,1.02337,1.57079,0.00003,-0.14511,-0.38001,0.03630,,,,,,,,,,,,,,,,,,,,,,,,,,0,0,0,0,0
4.7260,1783190241.5451,1,1,1.0000,0.0000,1.44679,0.19306,-2.78727,1.02337,1.57079,0.00003,-0.14511,-0.38001,0.03630,,,,,,,,,,,,,,,,,,,,,,,,,,0,0,0,0,0
4.7271,1783190241.5461,1,1,1.0000,0.0000,1.44679,0.19306,-2.78727,1.02337,1.57079,0.00003,-0.14511,-0.38001,0.03630,,,,,,,,,,,,,,,,,,,,,,,,,,0,0,0,0,0
4.7352,1783190241.5542,1,1,1.0000,0.0000,1.44679,0.19293,-2.78731,1.02354,1.57079,0.00003,-0.14511,-0.38001,0.03627,,,,,,,,,,,,,,,,,,,,,,,,,,0,0,0,0,0
4.7560,1783190241.5750,1,1,1.0000,0.0000,1.44679,0.19273,-2.78735,1.02378,1.57079,0.00003,-0.14511,-0.38001,0.03622,,,,,,,,,,,,,,,,,,,,,,,,,,0,0,0,0,0
4.7611,1783190241.5801,1,1,1.0000,0.0000,1.44679,0.19262,-2.78738,1.02392,1.57079,0.00003,-0.14511,-0.38001,0.03620,,,,,,,,,,,,,,,,,,,,,,,,,,0,0,0,0,0
4.7614,1783190241.5804,1,1,1.0000,0.0000,1.44679,0.19262,-2.78738,1.02392,1.57079,0.00003,-0.14511,-0.38001,0.03620,,,,,,,,,,,,,,,,,,,,,,,,,,0,0,0,0,0
4.7785,1783190241.5975,1,1,1.0000,0.0000,1.44679,0.19240,-2.78743,1.02418,1.57079,0.00003,-0.14511,-0.38001,0.03614,,,,,,,,,,,,,,,,,,,,,,,,,,0,0,0,0,0
4.7789,1783190241.5979,1,1,1.0000,0.0000,1.44679,0.19240,-2.78743,1.02418,1.57079,0.00003,-0.14511,-0.38001,0.03614,,,,,,,,,,,,,,,,,,,,,,,,,,0,0,0,0,0
4.7854,1783190241.6044,1,1,1.0000,0.0000,1.44679,0.19237,-2.78743,1.02423,1.57079,0.00003,-0.14511,-0.38001,0.03613,,,,,,,,,,,,,,,,,,,,,,,,,,0,0,0,0,0
4.7857,1783190241.6047,1,1,1.0000,0.0000,1.44679,0.19237,-2.78743,1.02423,1.57079,0.00003,-0.14511,-0.38001,0.03613,,,,,,,,,,,,,,,,,,,,,,,,,,0,0,0,0,0
4.7953,1783190241.6143,1,1,1.0000,0.0000,1.44679,0.19228,-2.78745,1.02433,1.57079,0.00003,-0.14511,-0.38001,0.03611,,,,,,,,,,,,,,,,,,,,,,,,,,0,0,0,0,0
4.8053,1783190241.6244,1,1,1.0000,0.0000,1.44679,0.19216,-2.78748,1.02448,1.57079,0.00003,-0.14511,-0.38001,0.03608,,,,,,,,,,,,,,,,,,,,,,,,,,0,0,0,0,0
4.8170,1783190241.6360,1,1,1.0000,0.0000,1.44679,0.19206,-2.78750,1.02461,1.57079,0.00003,-0.14511,-0.38001,0.03606,,,,,,,,,,,,,,,,,,,,,,,,,,0,0,0,0,0
4.8296,1783190241.6486,1,1,1.0000,0.0000,1.44679,0.19184,-2.78755,1.02487,1.57079,0.00003,-0.14511,-0.38001,0.03600,,,,,,,,,,,,,,,,,,,,,,,,,,0,0,0,0,0
4.8350,1783190241.6541,1,1,1.0000,0.0000,1.44679,0.19177,-2.78757,1.02496,1.57079,0.00003,-0.14511,-0.38001,0.03599,,,,,,,,,,,,,,,,,,,,,,,,,,0,0,0,0,0
4.8500,1783190241.6690,1,1,1.0000,0.0000,1.44679,0.19170,-2.78759,1.02505,1.57079,0.00003,-0.14511,-0.38001,0.03597,,,,,,,,,,,,,,,,,,,,,,,,,,0,0,0,0,0
4.8559,1783190241.6749,1,1,1.0000,0.0000,1.44679,0.19165,-2.78760,1.02511,1.57079,0.00003,-0.14511,-0.38001,0.03596,,,,,,,,,,,,,,,,,,,,,,,,,,0,0,0,0,0
4.8564,1783190241.6754,1,1,1.0000,0.0000,1.44679,0.19165,-2.78760,1.02511,1.57079,0.00003,-0.14511,-0.38001,0.03596,,,,,,,,,,,,,,,,,,,,,,,,,,0,0,0,0,0
4.8654,1783190241.6844,1,1,1.0000,0.0000,1.44679,0.19153,-2.78762,1.02525,1.57079,0.00003,-0.14511,-0.38001,0.03593,,,,,,,,,,,,,,,,,,,,,,,,,,0,0,0,0,0
4.8659,1783190241.6849,1,1,1.0000,0.0000,1.44679,0.19153,-2.78762,1.02525,1.57079,0.00003,-0.14511,-0.38001,0.03593,,,,,,,,,,,,,,,,,,,,,,,,,,0,0,0,0,0
4.8775,1783190241.6966,1,1,1.0000,0.0000,1.44679,0.19143,-2.78765,1.02538,1.57079,0.00003,-0.14511,-0.38001,0.03590,,,,,,,,,,,,,,,,,,,,,,,,,,0,0,0,0,0
4.8778,1783190241.6968,1,1,1.0000,0.0000,1.44679,0.19143,-2.78765,1.02538,1.57079,0.00003,-0.14511,-0.38001,0.03590,,,,,,,,,,,,,,,,,,,,,,,,,,0,0,0,0,0
4.8881,1783190241.7071,1,1,1.0000,0.0000,1.44679,0.19129,-2.78768,1.02555,1.57079,0.00003,-0.14511,-0.38001,0.03587,,,,,,,,,,,,,,,,,,,,,,,,,,0,0,0,0,0
4.8998,1783190241.7189,1,1,1.0000,0.0000,1.44679,0.19114,-2.78771,1.02573,1.57079,0.00003,-0.14511,-0.38001,0.03583,,,,,,,,,,,,,,,,,,,,,,,,,,0,0,0,0,0
4.9097,1783190241.7287,1,1,1.0000,0.0000,1.44679,0.19107,-2.78773,1.02582,1.57079,0.00003,-0.14511,-0.38001,0.03581,,,,,,,,,,,,,,,,,,,,,,,,,,0,0,0,0,0
4.9151,1783190241.7342,1,1,1.0000,0.0000,1.44679,0.19102,-2.78774,1.02588,1.57079,0.00003,-0.14511,-0.38001,0.03580,,,,,,,,,,,,,,,,,,,,,,,,,,0,0,0,0,0
4.9304,1783190241.7494,1,1,1.0000,0.0000,1.44679,0.19089,-2.78777,1.02604,1.57079,0.00003,-0.14511,-0.38001,0.03577,,,,,,,,,,,,,,,,,,,,,,,,,,0,0,0,0,0
4.9484,1783190241.7674,1,1,1.0000,0.0000,1.44679,0.19066,-2.78782,1.02632,1.57079,0.00003,-0.14511,-0.38001,0.03571,,,,,,,,,,,,,,,,,,,,,,,,,,0,0,0,0,0
4.9489,1783190241.7680,1,1,1.0000,0.0000,1.44679,0.19059,-2.78784,1.02641,1.57079,0.00003,-0.14511,-0.38001,0.03569,,,,,,,,,,,,,,,,,,,,,,,,,,0,0,0,0,0
4.9565,1783190241.7755,1,1,1.0000,0.0000,1.44679,0.19051,-2.78786,1.02650,1.57079,0.00003,-0.14511,-0.38001,0.03568,,,,,,,,,,,,,,,,,,,,,,,,,,0,0,0,0,0
4.9653,1783190241.7843,1,1,1.0000,0.0000,1.44679,0.19048,-2.78786,1.02655,1.57079,0.00003,-0.14511,-0.38001,0.03567,,,,,,,,,,,,,,,,,,,,,,,,,,0,0,0,0,0
4.9785,1783190241.7975,1,1,1.0000,0.0000,1.44679,0.19034,-2.78790,1.02672,1.57079,0.00003,-0.14511,-0.38001,0.03563,,,,,,,,,,,,,,,,,,,,,,,,,,0,0,0,0,0
4.9878,1783190241.8068,1,1,1.0000,0.0000,1.44679,0.19027,-2.78791,1.02680,1.57079,0.00003,-0.14511,-0.38001,0.03562,,,,,,,,,,,,,,,,,,,,,,,,,,0,0,0,0,0
4.9881,1783190241.8071,1,1,1.0000,0.0000,1.44679,0.19027,-2.78791,1.02680,1.57079,0.00003,-0.14511,-0.38001,0.03562,,,,,,,,,,,,,,,,,,,,,,,,,,0,0,0,0,0
4.9947,1783190241.8137,1,1,1.0000,0.0000,1.44679,0.19022,-2.78792,1.02686,1.57079,0.00003,-0.14511,-0.38001,0.03561,,,,,,,,,,,,,,,,,,,,,,,,,,0,0,0,0,0
4.9950,1783190241.8140,1,1,1.0000,0.0000,1.44679,0.19022,-2.78792,1.02686,1.57079,0.00003,-0.14511,-0.38001,0.03561,,,,,,,,,,,,,,,,,,,,,,,,,,0,0,0,0,0
5.0047,1783190241.8237,1,1,1.0000,0.0000,1.44679,0.19010,-2.78795,1.02700,1.57079,0.00003,-0.14511,-0.38001,0.03558,,,,,,,,,,,,,,,,,,,,,,,,,,0,0,0,0,0
5.0052,1783190241.8243,1,1,1.0000,0.0000,1.44679,0.19003,-2.78797,1.02709,1.57079,0.00003,-0.14511,-0.38001,0.03556,,,,,,,,,,,,,,,,,,,,,,,,,,0,0,0,0,0
5.0147,1783190241.8337,1,1,1.0000,0.0000,1.44679,0.18988,-2.78800,1.02728,1.57079,0.00003,-0.14511,-0.38001,0.03552,,,,,,,,,,,,,,,,,,,,,,,,,,0,0,0,0,0
5.0323,1783190241.8513,1,1,1.0000,0.0000,1.44679,0.18981,-2.78802,1.02737,1.57079,0.00003,-0.14511,-0.38001,0.03550,,,,,,,,,,,,,,,,,,,,,,,,,,0,0,0,0,0
5.0351,1783190241.8541,1,1,1.0000,0.0000,1.44679,0.18976,-2.78803,1.02743,1.57079,0.00003,-0.14511,-0.38001,0.03549,,,,,,,,,,,,,,,,,,,,,,,,,,0,0,0,0,0
5.0453,1783190241.8643,1,1,1.0000,0.0000,1.44679,0.18964,-2.78805,1.02757,1.57079,0.00003,-0.14511,-0.38001,0.03546,,,,,,,,,,,,,,,,,,,,,,,,,,0,0,0,0,0
5.0589,1783190241.8780,1,1,1.0000,0.0000,1.44679,0.18954,-2.78808,1.02770,1.57079,0.00003,-0.14511,-0.38001,0.03544,,,,,,,,,,,,,,,,,,,,,,,,,,0,0,0,0,0
5.0714,1783190241.8904,1,1,1.0000,0.0000,1.44679,0.18933,-2.78813,1.02796,1.57079,0.00003,-0.14511,-0.38001,0.03538,,,,,,,,,,,,,,,,,,,,,,,,,,0,0,0,0,0
5.0772,1783190241.8962,1,1,1.0000,0.0000,1.44679,0.18925,-2.78814,1.02805,1.57079,0.00003,-0.14511,-0.38001,0.03537,,,,,,,,,,,,,,,,,,,,,,,,,,0,0,0,0,0
5.0902,1783190241.9093,1,1,1.0000,0.0000,1.44679,0.18918,-2.78816,1.02814,1.57079,0.00003,-0.14511,-0.38001,0.03535,,,,,,,,,,,,,,,,,,,,,,,,,,0,0,0,0,0
5.0973,1783190241.9163,1,1,1.0000,0.0000,1.44679,0.18907,-2.78818,1.02827,1.57079,0.00003,-0.14511,-0.38001,0.03532,,,,,,,,,,,,,,,,,,,,,,,,,,0,0,0,0,0
5.0977,1783190241.9167,1,1,1.0000,0.0000,1.44679,0.18907,-2.78818,1.02827,1.57079,0.00003,-0.14511,-0.38001,0.03532,,,,,,,,,,,,,,,,,,,,,,,,,,0,0,0,0,0
5.1126,1783190241.9316,1,1,1.0000,0.0000,1.44679,0.18900,-2.78820,1.02836,1.57079,0.00003,-0.14511,-0.38001,0.03530,,,,,,,,,,,,,,,,,,,,,,,,,,0,0,0,0,0
5.1163,1783190241.9353,1,1,1.0000,0.0000,1.44679,0.18896,-2.78821,1.02841,1.57079,0.00003,-0.14511,-0.38001,0.03530,,,,,,,,,,,,,,,,,,,,,,,,,,0,0,0,0,0
5.1170,1783190241.9360,1,1,1.0000,0.0000,1.44679,0.18891,-2.78822,1.02847,1.57079,0.00003,-0.14511,-0.38001,0.03528,,,,,,,,,,,,,,,,,,,,,,,,,,0,0,0,0,0
5.1272,1783190241.9462,1,1,1.0000,0.0000,1.44679,0.18877,-2.78825,1.02864,1.57079,0.00003,-0.14511,-0.38001,0.03525,,,,,,,,,,,,,,,,,,,,,,,,,,0,0,0,0,0
5.1362,1783190241.9552,1,1,1.0000,0.0000,1.44679,0.18862,-2.78829,1.02882,1.57079,0.00003,-0.14511,-0.38001,0.03521,,,,,,,,,,,,,,,,,,,,,,,,,,0,0,0,0,0
5.1479,1783190241.9669,1,1,1.0000,0.0000,1.44679,0.18857,-2.78830,1.02888,1.57079,0.00003,-0.14511,-0.38001,0.03520,,,,,,,,,,,,,,,,,,,,,,,,,,0,0,0,0,0
5.1551,1783190241.9741,1,1,1.0000,0.0000,1.44679,0.18846,-2.78832,1.02902,1.57079,0.00003,-0.14511,-0.38001,0.03517,,,,,,,,,,,,,,,,,,,,,,,,,,0,0,0,0,0
5.1692,1783190241.9882,1,1,1.0000,0.0000,1.44679,0.18830,-2.78836,1.02922,1.57079,0.00003,-0.14511,-0.38001,0.03513,,,,,,,,,,,,,,,,,,,,,,,,,,0,0,0,0,0
5.1789,1783190241.9979,1,1,1.0000,0.0000,1.44679,0.18821,-2.78838,1.02932,1.57079,0.00003,-0.14511,-0.38001,0.03511,,,,,,,,,,,,,,,,,,,,,,,,,,0,0,0,0,0
5.1855,1783190242.0046,1,1,1.0000,0.0000,1.44679,0.18808,-2.78841,1.02949,1.57079,0.00004,-0.14511,-0.38001,0.03508,,,,,,,,,,,,,,,,,,,,,,,,,,0,0,0,0,0
5.1858,1783190242.0048,1,1,1.0000,0.0000,1.44679,0.18808,-2.78841,1.02949,1.57079,0.00004,-0.14511,-0.38001,0.03508,,,,,,,,,,,,,,,,,,,,,,,,,,0,0,0,0,0
5.1956,1783190242.0146,1,1,1.0000,0.0000,1.44679,0.18793,-2.78844,1.02967,1.57079,0.00004,-0.14511,-0.38001,0.03504,,,,,,,,,,,,,,,,,,,,,,,,,,0,0,0,0,0
5.2051,1783190242.0241,1,1,1.0000,0.0000,1.44679,0.18789,-2.78845,1.02973,1.57079,0.00004,-0.14511,-0.38001,0.03503,,,,,,,,,,,,,,,,,,,,,,,,,,0,0,0,0,0
5.2225,1783190242.0416,1,1,1.0000,0.0000,1.44679,0.18762,-2.78851,1.03005,1.57079,0.00004,-0.14511,-0.38001,0.03497,,,,,,,,,,,,,,,,,,,,,,,,,,0,0,0,0,0
5.2250,1783190242.0440,1,1,1.0000,0.0000,1.44679,0.18762,-2.78851,1.03005,1.57079,0.00004,-0.14511,-0.38001,0.03497,,,,,,,,,,,,,,,,,,,,,,,,,,0,0,0,0,0
5.2256,1783190242.0446,1,1,1.0000,0.0000,1.44679,0.18762,-2.78851,1.03005,1.57079,0.00004,-0.14511,-0.38001,0.03497,,,,,,,,,,,,,,,,,,,,,,,,,,0,0,0,0,0
5.2371,1783190242.0562,1,1,1.0000,0.0000,1.44679,0.18752,-2.78853,1.03017,1.57079,0.00004,-0.14511,-0.38001,0.03494,,,,,,,,,,,,,,,,,,,,,,,,,,0,0,0,0,0
5.2374,1783190242.0565,1,1,1.0000,0.0000,1.44679,0.18752,-2.78853,1.03017,1.57079,0.00004,-0.14511,-0.38001,0.03494,,,,,,,,,,,,,,,,,,,,,,,,,,0,0,0,0,0
5.2490,1783190242.0680,1,1,1.0000,0.0000,1.44679,0.18732,-2.78858,1.03042,1.57079,0.00004,-0.14511,-0.38001,0.03489,,,,,,,,,,,,,,,,,,,,,,,,,,0,0,0,0,0
5.2553,1783190242.0743,1,1,1.0000,0.0000,1.44679,0.18724,-2.78860,1.03051,1.57079,0.00004,-0.14511,-0.38001,0.03487,,,,,,,,,,,,,,,,,,,,,,,,,,0,0,0,0,0
5.2656,1783190242.0846,1,1,1.0000,0.0000,1.44679,0.18720,-2.78861,1.03057,1.57079,0.00004,-0.14511,-0.38001,0.03486,,,,,,,,,,,,,,,,,,,,,,,,,,0,0,0,0,0
5.2892,1783190242.1082,1,1,1.0000,0.0000,1.44679,0.18692,-2.78867,1.03091,1.57079,0.00004,-0.14511,-0.38001,0.03479,,,,,,,,,,,,,,,,,,,,,,,,,,0,0,0,0,0
5.2901,1783190242.1092,1,1,1.0000,0.0000,1.44679,0.18692,-2.78867,1.03091,1.57079,0.00004,-0.14511,-0.38001,0.03479,,,,,,,,,,,,,,,,,,,,,,,,,,0,0,0,0,0
5.2905,1783190242.1095,1,1,1.0000,0.0000,1.44679,0.18692,-2.78867,1.03091,1.57079,0.00004,-0.14511,-0.38001,0.03479,,,,,,,,,,,,,,,,,,,,,,,,,,0,0,0,0,0
5.2955,1783190242.1145,1,1,1.0000,0.0000,1.44679,0.18689,-2.78868,1.03095,1.57079,0.00004,-0.14511,-0.38001,0.03479,,,,,,,,,,,,,,,,,,,,,,,,,,0,0,0,0,0
5.3124,1783190242.1314,1,1,1.0000,0.0000,1.44679,0.18663,-2.78874,1.03127,1.57079,0.00004,-0.14511,-0.38001,0.03472,,,,,,,,,,,,,,,,,,,,,,,,,,0,0,0,0,0
5.3209,1783190242.1399,1,1,1.0000,0.0000,1.44679,0.18654,-2.78876,1.03137,1.57079,0.00004,-0.14511,-0.38001,0.03470,,,,,,,,,,,,,,,,,,,,,,,,,,0,0,0,0,0
5.3212,1783190242.1402,1,1,1.0000,0.0000,1.44679,0.18654,-2.78876,1.03137,1.57079,0.00004,-0.14511,-0.38001,0.03470,,,,,,,,,,,,,,,,,,,,,,,,,,0,0,0,0,0
5.3253,1783190242.1443,1,1,1.0000,0.0000,1.44679,0.18651,-2.78876,1.03142,1.57079,0.00004,-0.14511,-0.38001,0.03469,,,,,,,,,,,,,,,,,,,,,,,,,,0,0,0,0,0
5.3380,1783190242.1570,1,1,1.0000,0.0000,1.44679,0.18632,-2.78881,1.03165,1.57079,0.00004,-0.14511,-0.38001,0.03465,,,,,,,,,,,,,,,,,,,,,,,,,,0,0,0,0,0
5.3455,1783190242.1645,1,1,1.0000,0.0000,1.44679,0.18624,-2.78882,1.03174,1.57079,0.00004,-0.14511,-0.38001,0.03463,,,,,,,,,,,,,,,,,,,,,,,,,,0,0,0,0,0
5.3553,1783190242.1743,1,1,1.0000,0.0000,1.44679,0.18620,-2.78883,1.03180,1.57079,0.00004,-0.14511,-0.38001,0.03462,,,,,,,,,,,,,,,,,,,,,,,,,,0,0,0,0,0
5.3673,1783190242.1863,1,1,1.0000,0.0000,1.44679,0.18601,-2.78887,1.03203,1.57079,0.00004,-0.14511,-0.38001,0.03457,,,,,,,,,,,,,,,,,,,,,,,,,,0,0,0,0,0
5.3757,1783190242.1947,1,1,1.0000,0.0000,1.44679,0.18586,-2.78891,1.03220,1.57079,0.00004,-0.14511,-0.38001,0.03454,,,,,,,,,,,,,,,,,,,,,,,,,,0,0,0,0,0
5.3864,1783190242.2055,1,1,1.0000,0.0000,1.44679,0.18582,-2.78892,1.03226,1.57079,0.00004,-0.14511,-0.38001,0.03452,,,,,,,,,,,,,,,,,,,,,,,,,,0,0,0,0,0
5.3997,1783190242.2188,1,1,1.0000,0.0000,1.44679,0.18563,-2.78896,1.03249,1.57079,0.00004,-0.14511,-0.38001,0.03448,,,,,,,,,,,,,,,,,,,,,,,,,,0,0,0,0,0
5.4087,1783190242.2277,1,1,1.0000,0.0000,1.44679,0.18548,-2.78899,1.03267,1.57079,0.00004,-0.14511,-0.38001,0.03444,,,,,,,,,,,,,,,,,,,,,,,,,,0,0,0,0,0
