Martins-Lucaas/twinforge/sensors/Data/20260704_154514__samples.csv
t_rel_s,t_unix,cycle,phase,setpoint_n,force_net_n,q1,q2,q3,q4,q5,q6,tcp_x,tcp_y,tcp_z,taxel_0,taxel_1,taxel_2,taxel_3,taxel_4,taxel_5,taxel_6,taxel_7,taxel_8,taxel_9,taxel_10,taxel_11,taxel_12,taxel_13,taxel_14,taxel_15,taxel_16,taxel_17,taxel_18,taxel_19,taxel_20,taxel_21,taxel_22,taxel_23,taxel_24,n_RA,n_SA,cn_mm,cn_ra,cn_sa
0.0042,1783190714.4970,1,0,1.0000,0.0000,1.44682,0.23328,-2.77748,0.97337,1.57080,0.00000,-0.14512,-0.38003,0.04653,,,,,,,,,,,,,,,,,,,,,,,,,,0,0,0,0,0
0.0245,1783190714.5173,1,0,1.0000,0.0000,1.44682,0.23328,-2.77748,0.97337,1.57080,0.00000,-0.14512,-0.38003,0.04653,,,,,,,,,,,,,,,,,,,,,,,,,,0,0,0,0,0
0.0455,1783190714.5384,1,0,1.0000,0.0000,1.44682,0.23328,-2.77748,0.97337,1.57080,0.00000,-0.14512,-0.38003,0.04653,,,,,,,,,,,,,,,,,,,,,,,,,,0,0,0,0,0
0.0458,1783190714.5387,1,0,1.0000,0.0000,1.44682,0.23328,-2.77748,0.97337,1.57080,0.00000,-0.14512,-0.38003,0.04653,,,,,,,,,,,,,,,,,,,,,,,,,,0,0,0,0,0
0.0569,1783190714.5497,1,0,1.0000,0.0000,1.44682,0.23328,-2.77748,0.97337,1.57080,0.00000,-0.14512,-0.38003,0.04653,,,,,,,,,,,,,,,,,,,,,,,,,,0,0,0,0,0
0.0664,1783190714.5593,1,0,1.0000,0.0000,1.44682,0.23328,-2.77748,0.97337,1.57080,0.00000,-0.14512,-0.38003,0.04653,,,,,,,,,,,,,,,,,,,,,,,,,,0,0,0,0,0
0.0747,1783190714.5676,1,0,1.0000,0.0000,1.44682,0.23328,-2.77748,0.97337,1.57080,0.00000,-0.14512,-0.38003,0.04653,,,,,,,,,,,,,,,,,,,,,,,,,,0,0,0,0,0
0.0881,1783190714.5809,1,0,1.0000,0.0000,1.44682,0.23328,-2.77748,0.97337,1.57080,0.00000,-0.14512,-0.38003,0.04653,,,,,,,,,,,,,,,,,,,,,,,,,,0,0,0,0,0
0.0884,1783190714.5812,1,0,1.0000,0.0000,1.44682,0.23328,-2.77748,0.97337,1.57080,0.00000,-0.14512,-0.38003,0.04653,,,,,,,,,,,,,,,,,,,,,,,,,,0,0,0,0,0
0.0974,1783190714.5903,1,0,1.0000,0.0000,1.44682,0.23328,-2.77748,0.97337,1.57080,0.00000,-0.14512,-0.38003,0.04653,,,,,,,,,,,,,,,,,,,,,,,,,,0,0,0,0,0
0.0977,1783190714.5905,1,0,1.0000,0.0000,1.44682,0.23328,-2.77748,0.97337,1.57080,0.00000,-0.14512,-0.38003,0.04653,,,,,,,,,,,,,,,,,,,,,,,,,,0,0,0,0,0
0.1054,1783190714.5983,1,0,1.0000,0.0000,1.44682,0.23328,-2.77748,0.97337,1.57080,0.00000,-0.14512,-0.38003,0.04653,,,,,,,,,,,,,,,,,,,,,,,,,,0,0,0,0,0
0.1203,1783190714.6131,1,0,1.0000,0.0000,1.44682,0.23328,-2.77748,0.97337,1.57080,0.00000,-0.14512,-0.38003,0.04653,,,,,,,,,,,,,,,,,,,,,,,,,,0,0,0,0,0
0.1243,1783190714.6171,1,0,1.0000,0.0000,1.44682,0.23328,-2.77748,0.97337,1.57080,0.00000,-0.14512,-0.38003,0.04653,,,,,,,,,,,,,,,,,,,,,,,,,,0,0,0,0,0
0.1455,1783190714.6383,1,0,1.0000,0.0000,1.44682,0.23328,-2.77748,0.97337,1.57080,0.00000,-0.14512,-0.38003,0.04653,,,,,,,,,,,,,,,,,,,,,,,,,,0,0,0,0,0
0.1482,1783190714.6410,1,0,1.0000,0.0000,1.44682,0.23328,-2.77748,0.97337,1.57080,0.00000,-0.14512,-0.38003,0.04653,,,,,,,,,,,,,,,,,,,,,,,,,,0,0,0,0,0
0.1563,1783190714.6491,1,0,1.0000,0.0000,1.44682,0.23328,-2.77748,0.97337,1.57080,0.00000,-0.14512,-0.38003,0.04653,,,,,,,,,,,,,,,,,,,,,,,,,,0,0,0,0,0
0.1642,1783190714.6570,1,0,1.0000,0.0000,1.44682,0.23328,-2.77748,0.97337,1.57080,0.00000,-0.14512,-0.38003,0.04653,,,,,,,,,,,,,,,,,,,,,,,,,,0,0,0,0,0
0.1739,1783190714.6667,1,0,1.0000,0.0000,1.44682,0.23328,-2.77748,0.97337,1.57080,0.00000,-0.14512,-0.38003,0.04653,,,,,,,,,,,,,,,,,,,,,,,,,,0,0,0,0,0
0.1875,1783190714.6803,1,0,1.0000,0.0000,1.44682,0.23328,-2.77748,0.97337,1.57080,0.00000,-0.14512,-0.38003,0.04653,,,,,,,,,,,,,,,,,,,,,,,,,,0,0,0,0,0
0.1966,1783190714.6895,1,0,1.0000,0.0000,1.44682,0.23328,-2.77748,0.97337,1.57080,0.00000,-0.14512,-0.38003,0.04653,,,,,,,,,,,,,,,,,,,,,,,,,,0,0,0,0,0
0.2041,1783190714.6970,1,0,1.0000,0.0000,1.44682,0.23328,-2.77748,0.97337,1.57080,0.00000,-0.14512,-0.38003,0.04653,,,,,,,,,,,,,,,,,,,,,,,,,,0,0,0,0,0
0.2160,1783190714.7088,1,0,1.0000,0.0000,1.44682,0.23328,-2.77748,0.97337,1.57080,0.00000,-0.14512,-0.38003,0.04653,,,,,,,,,,,,,,,,,,,,,,,,,,0,0,0,0,0
0.2243,1783190714.7171,1,0,1.0000,0.0000,1.44682,0.23328,-2.77748,0.97337,1.57080,0.00000,-0.14512,-0.38003,0.04653,,,,,,,,,,,,,,,,,,,,,,,,,,0,0,0,0,0
0.2463,1783190714.7391,1,0,1.0000,0.0000,1.44682,0.23328,-2.77748,0.97337,1.57080,0.00000,-0.14512,-0.38003,0.04653,,,,,,,,,,,,,,,,,,,,,,,,,,0,0,0,0,0
0.2465,1783190714.7393,1,0,1.0000,0.0000,1.44682,0.23328,-2.77748,0.97337,1.57080,0.00000,-0.14512,-0.38003,0.04653,,,,,,,,,,,,,,,,,,,,,,,,,,0,0,0,0,0
0.2548,1783190714.7476,1,0,1.0000,0.0000,1.44682,0.23328,-2.77748,0.97337,1.57080,0.00000,-0.14512,-0.38003,0.04653,,,,,,,,,,,,,,,,,,,,,,,,,,0,0,0,0,0
0.2659,1783190714.7587,1,0,1.0000,0.0000,1.44682,0.23328,-2.77748,0.97337,1.57080,0.00000,-0.14512,-0.38003,0.04653,,,,,,,,,,,,,,,,,,,,,,,,,,0,0,0,0,0
0.2763,1783190714.7691,1,0,1.0000,0.0000,1.44682,0.23328,-2.77748,0.97337,1.57080,0.00000,-0.14512,-0.38003,0.04653,,,,,,,,,,,,,,,,,,,,,,,,,,0,0,0,0,0
0.2905,1783190714.7833,1,0,1.0000,0.0000,1.44682,0.23328,-2.77748,0.97337,1.57080,0.00000,-0.14512,-0.38003,0.04653,,,,,,,,,,,,,,,,,,,,,,,,,,0,0,0,0,0
0.2909,1783190714.7837,1,0,1.0000,0.0000,1.44682,0.23328,-2.77748,0.97337,1.57080,0.00000,-0.14512,-0.38003,0.04653,,,,,,,,,,,,,,,,,,,,,,,,,,0,0,0,0,0
0.2970,1783190714.7898,1,0,1.0000,0.0000,1.44682,0.23328,-2.77748,0.97337,1.57080,0.00000,-0.14512,-0.38003,0.04653,,,,,,,,,,,,,,,,,,,,,,,,,,0,0,0,0,0
0.3066,1783190714.7994,1,0,1.0000,0.0000,1.44682,0.23328,-2.77748,0.97337,1.57080,0.00000,-0.14512,-0.38003,0.04653,,,,,,,,,,,,,,,,,,,,,,,,,,0,0,0,0,0
0.3184,1783190714.8112,1,0,1.0000,0.0000,1.44682,0.23328,-2.77748,0.97337,1.57080,0.00000,-0.14512,-0.38003,0.04653,,,,,,,,,,,,,,,,,,,,,,,,,,0,0,0,0,0
0.3188,1783190714.8117,1,0,1.0000,0.0000,1.44682,0.23328,-2.77748,0.97337,1.57080,0.00000,-0.14512,-0.38003,0.04653,,,,,,,,,,,,,,,,,,,,,,,,,,0,0,0,0,0
0.3257,1783190714.8185,1,0,1.0000,0.0000,1.44682,0.23328,-2.77748,0.97337,1.57080,0.00000,-0.14512,-0.38003,0.04653,,,,,,,,,,,,,,,,,,,,,,,,,,0,0,0,0,0
0.3411,1783190714.8339,1,0,1.0000,0.0000,1.44682,0.23328,-2.77748,0.97337,1.57080,0.00000,-0.14512,-0.38003,0.04653,,,,,,,,,,,,,,,,,,,,,,,,,,0,0,0,0,0
0.3443,1783190714.8371,1,0,1.0000,0.0000,1.44682,0.23328,-2.77748,0.97337,1.57080,0.00000,-0.14512,-0.38003,0.04653,,,,,,,,,,,,,,,,,,,,,,,,,,0,0,0,0,0
0.3447,1783190714.8375,1,0,1.0000,0.0000,1.44682,0.23328,-2.77748,0.97337,1.57080,0.00000,-0.14512,-0.38003,0.04653,,,,,,,,,,,,,,,,,,,,,,,,,,0,0,0,0,0
0.3552,1783190714.8480,1,0,1.0000,0.0000,1.44682,0.23328,-2.77748,0.97337,1.57080,0.00000,-0.14512,-0.38003,0.04653,,,,,,,,,,,,,,,,,,,,,,,,,,0,0,0,0,0
0.3641,1783190714.8569,1,0,1.0000,0.0000,1.44682,0.23328,-2.77748,0.97337,1.57080,0.00000,-0.14512,-0.38003,0.04653,,,,,,,,,,,,,,,,,,,,,,,,,,0,0,0,0,0
0.3750,1783190714.8678,1,0,1.0000,0.0000,1.44682,0.23328,-2.77748,0.97337,1.57080,0.00000,-0.14512,-0.38003,0.04653,,,,,,,,,,,,,,,,,,,,,,,,,,0,0,0,0,0
0.3914,1783190714.8842,1,0,1.0000,0.0000,1.44682,0.23328,-2.77748,0.97337,1.57080,0.00000,-0.14512,-0.38003,0.04653,,,,,,,,,,,,,,,,,,,,,,,,,,0,0,0,0,0
0.3981,1783190714.8910,1,0,1.0000,0.0000,1.44682,0.23328,-2.77748,0.97337,1.57080,0.00000,-0.14512,-0.38003,0.04653,,,,,,,,,,,,,,,,,,,,,,,,,,0,0,0,0,0
0.3986,1783190714.8914,1,0,1.0000,0.0000,1.44682,0.23328,-2.77748,0.97337,1.57080,0.00000,-0.14512,-0.38003,0.04653,,,,,,,,,,,,,,,,,,,,,,,,,,0,0,0,0,0
0.4048,1783190714.8977,1,0,1.0000,0.0000,1.44682,0.23328,-2.77748,0.97337,1.57080,0.00000,-0.14512,-0.38003,0.04653,,,,,,,,,,,,,,,,,,,,,,,,,,0,0,0,0,0
0.4178,1783190714.9106,1,0,1.0000,0.0000,1.44682,0.23328,-2.77748,0.97337,1.57080,0.00000,-0.14512,-0.38003,0.04653,,,,,,,,,,,,,,,,,,,,,,,,,,0,0,0,0,0
0.4243,1783190714.9171,1,0,1.0000,0.0000,1.44682,0.23328,-2.77748,0.97337,1.57080,0.00000,-0.14512,-0.38003,0.04653,,,,,,,,,,,,,,,,,,,,,,,,,,0,0,0,0,0
0.4343,1783190714.9271,1,0,1.0000,0.0000,1.44682,0.23328,-2.77748,0.97337,1.57080,0.00000,-0.14512,-0.38003,0.04653,,,,,,,,,,,,,,,,,,,,,,,,,,0,0,0,0,0
0.4470,1783190714.9398,1,0,1.0000,0.0000,1.44682,0.23328,-2.77748,0.97337,1.57080,0.00000,-0.14512,-0.38003,0.04653,,,,,,,,,,,,,,,,,,,,,,,,,,0,0,0,0,0
0.4568,1783190714.9497,1,0,1.0000,0.0000,1.44682,0.23328,-2.77748,0.97337,1.57080,0.00000,-0.14512,-0.38003,0.04653,,,,,,,,,,,,,,,,,,,,,,,,,,0,0,0,0,0
0.4642,1783190714.9570,1,0,1.0000,0.0000,1.44682,0.23328,-2.77748,0.97337,1.57080,0.00000,-0.14512,-0.38003,0.04653,,,,,,,,,,,,,,,,,,,,,,,,,,0,0,0,0,0
0.4645,1783190714.9573,1,0,1.0000,0.0000,1.44682,0.23328,-2.77748,0.97337,1.57080,0.00000,-0.14512,-0.38003,0.04653,,,,,,,,,,,,,,,,,,,,,,,,,,0,0,0,0,0
0.4762,1783190714.9690,1,0,1.0000,0.0000,1.44682,0.23328,-2.77748,0.97337,1.57080,0.00000,-0.14512,-0.38003,0.04653,,,,,,,,,,,,,,,,,,,,,,,,,,0,0,0,0,0
0.4765,1783190714.9693,1,0,1.0000,0.0000,1.44682,0.23328,-2.77748,0.97337,1.57080,0.00000,-0.14512,-0.38003,0.04653,,,,,,,,,,,,,,,,,,,,,,,,,,0,0,0,0,0
0.4881,1783190714.9809,1,0,1.0000,0.0000,1.44682,0.23328,-2.77748,0.97337,1.57080,0.00000,-0.14512,-0.38003,0.04653,,,,,,,,,,,,,,,,,,,,,,,,,,0,0,0,0,0
0.4884,1783190714.9812,1,0,1.0000,0.0000,1.44682,0.23328,-2.77748,0.97337,1.57080,0.00000,-0.14512,-0.38003,0.04653,,,,,,,,,,,,,,,,,,,,,,,,,,0,0,0,0,0
0.5241,1783190715.0170,1,0,1.0000,0.0000,1.44682,0.23328,-2.77748,0.97337,1.57080,0.00000,-0.14512,-0.38003,0.04653,,,,,,,,,,,,,,,,,,,,,,,,,,0,0,0,0,0
0.5246,1783190715.0175,1,0,1.0000,0.0000,1.44682,0.23328,-2.77748,0.97337,1.57080,0.00000,-0.14512,-0.38003,0.04653,,,,,,,,,,,,,,,,,,,,,,,,,,0,0,0,0,0
0.5250,1783190715.0178,1,0,1.0000,0.0000,1.44682,0.23328,-2.77748,0.97337,1.57080,0.00000,-0.14512,-0.38003,0.04653,,,,,,,,,,,,,,,,,,,,,,,,,,0,0,0,0,0
0.5269,1783190715.0197,1,0,1.0000,0.0000,1.44682,0.23328,-2.77748,0.97337,1.57080,0.00000,-0.14512,-0.38003,0.04653,,,,,,,,,,,,,,,,,,,,,,,,,,0,0,0,0,0
0.5272,1783190715.0200,1,0,1.0000,0.0000,1.44682,0.23328,-2.77748,0.97337,1.57080,0.00000,-0.14512,-0.38003,0.04653,,,,,,,,,,,,,,,,,,,,,,,,,,0,0,0,0,0
0.5345,1783190715.0274,1,0,1.0000,0.0000,1.44682,0.23328,-2.77748,0.97337,1.57080,0.00000,-0.14512,-0.38003,0.04653,,,,,,,,,,,,,,,,,,,,,,,,,,0,0,0,0,0
0.5515,1783190715.0443,1,0,1.0000,0.0000,1.44682,0.23328,-2.77748,0.97337,1.57080,0.00000,-0.14512,-0.38003,0.04653,,,,,,,,,,,,,,,,,,,,,,,,,,0,0,0,0,0
0.5588,1783190715.0517,1,0,1.0000,0.0000,1.44682,0.23328,-2.77748,0.97337,1.57080,0.00000,-0.14512,-0.38003,0.04653,,,,,,,,,,,,,,,,,,,,,,,,,,0,0,0,0,0
0.5657,1783190715.0586,1,0,1.0000,0.0000,1.44682,0.23328,-2.77748,0.97337,1.57080,0.00000,-0.14512,-0.38003,0.04653,,,,,,,,,,,,,,,,,,,,,,,,,,0,0,0,0,0
0.5753,1783190715.0682,1,0,1.0000,0.0000,1.44682,0.23328,-2.77748,0.97337,1.57080,0.00000,-0.14512,-0.38003,0.04653,,,,,,,,,,,,,,,,,,,,,,,,,,0,0,0,0,0
0.5886,1783190715.0815,1,0,1.0000,0.0000,1.44682,0.23328,-2.77748,0.97337,1.57080,0.00000,-0.14512,-0.38003,0.04653,,,,,,,,,,,,,,,,,,,,,,,,,,0,0,0,0,0
0.5965,1783190715.0893,1,0,1.0000,0.0000,1.44682,0.23328,-2.77748,0.97337,1.57080,0.00000,-0.14512,-0.38003,0.04653,,,,,,,,,,,,,,,,,,,,,,,,,,0,0,0,0,0
0.6064,1783190715.0992,1,0,1.0000,0.0000,1.44682,0.23328,-2.77748,0.97337,1.57080,0.00000,-0.14512,-0.38003,0.04653,,,,,,,,,,,,,,,,,,,,,,,,,,0,0,0,0,0
0.6144,1783190715.1072,1,0,1.0000,0.0000,1.44682,0.23328,-2.77748,0.97337,1.57080,0.00000,-0.14512,-0.38003,0.04653,,,,,,,,,,,,,,,,,,,,,,,,,,0,0,0,0,0
0.6246,1783190715.1174,1,0,1.0000,0.0000,1.44682,0.23328,-2.77748,0.97337,1.57080,0.00000,-0.14512,-0.38003,0.04653,,,,,,,,,,,,,,,,,,,,,,,,,,0,0,0,0,0
0.6247,1783190715.1176,1,0,1.0000,0.0000,1.44682,0.23328,-2.77748,0.97337,1.57080,0.00000,-0.14512,-0.38003,0.04653,,,,,,,,,,,,,,,,,,,,,,,,,,0,0,0,0,0
0.6344,1783190715.1272,1,0,1.0000,0.0000,1.44682,0.23328,-2.77748,0.97337,1.57080,0.00000,-0.14512,-0.38003,0.04653,,,,,,,,,,,,,,,,,,,,,,,,,,0,0,0,0,0
0.6562,1783190715.1491,1,0,1.0000,0.0000,1.44682,0.23328,-2.77748,0.97337,1.57080,0.00000,-0.14512,-0.38003,0.04653,,,,,,,,,,,,,,,,,,,,,,,,,,0,0,0,0,0
0.6565,1783190715.1493,1,0,1.0000,0.0000,1.44682,0.23328,-2.77748,0.97337,1.57080,0.00000,-0.14512,-0.38003,0.04653,,,,,,,,,,,,,,,,,,,,,,,,,,0,0,0,0,0
0.6686,1783190715.1614,1,0,1.0000,0.0000,1.44682,0.23328,-2.77748,0.97337,1.57080,0.00000,-0.14512,-0.38003,0.04653,,,,,,,,,,,,,,,,,,,,,,,,,,0,0,0,0,0
0.6689,1783190715.1618,1,0,1.0000,0.0000,1.44682,0.23328,-2.77748,0.97337,1.57080,0.00000,-0.14512,-0.38003,0.04653,,,,,,,,,,,,,,,,,,,,,,,,,,0,0,0,0,0
0.6780,1783190715.1709,1,0,1.0000,0.0000,1.44682,0.23328,-2.77748,0.97337,1.57080,0.00000,-0.14512,-0.38003,0.04653,,,,,,,,,,,,,,,,,,,,,,,,,,0,0,0,0,0
0.6859,1783190715.1787,1,0,1.0000,0.0000,1.44682,0.23328,-2.77748,0.97337,1.57080,0.00000,-0.14512,-0.38003,0.04653,,,,,,,,,,,,,,,,,,,,,,,,,,0,0,0,0,0
0.6995,1783190715.1923,1,0,1.0000,0.0000,1.44682,0.23328,-2.77748,0.97337,1.57080,0.00000,-0.14512,-0.38003,0.04653,,,,,,,,,,,,,,,,,,,,,,,,,,0,0,0,0,0
0.7085,1783190715.2014,1,0,1.0000,0.0000,1.44682,0.23328,-2.77748,0.97337,1.57080,0.00000,-0.14512,-0.38003,0.04653,,,,,,,,,,,,,,,,,,,,,,,,,,0,0,0,0,0
0.7090,1783190715.2019,1,0,1.0000,0.0000,1.44682,0.23328,-2.77748,0.97337,1.57080,0.00000,-0.14512,-0.38003,0.04653,,,,,,,,,,,,,,,,,,,,,,,,,,0,0,0,0,0
0.7148,1783190715.2077,1,0,1.0000,0.0000,1.44682,0.23328,-2.77748,0.97337,1.57080,0.00000,-0.14512,-0.38003,0.04653,,,,,,,,,,,,,,,,,,,,,,,,,,0,0,0,0,0
0.7245,1783190715.2173,1,0,1.0000,0.0000,1.44682,0.23328,-2.77748,0.97337,1.57080,0.00000,-0.14512,-0.38003,0.04653,,,,,,,,,,,,,,,,,,,,,,,,,,0,0,0,0,0
0.7407,1783190715.2335,1,1,1.0000,0.0000,1.44682,0.23328,-2.77748,0.97337,1.57080,0.00000,-0.14512,-0.38003,0.04653,,,,,,,,,,,,,,,,,,,,,,,,,,0,0,0,0,0
0.7562,1783190715.2490,1,1,1.0000,0.0000,1.44682,0.23328,-2.77748,0.97337,1.57080,0.00000,-0.14512,-0.38003,0.04653,,,,,,,,,,,,,,,,,,,,,,,,,,0,0,0,0,0
0.7565,1783190715.2493,1,1,1.0000,0.0000,1.44682,0.23328,-2.77748,0.97337,1.57080,0.00000,-0.14512,-0.38003,0.04653,,,,,,,,,,,,,,,,,,,,,,,,,,0,0,0,0,0
0.7645,1783190715.2573,1,1,1.0000,0.0000,1.44682,0.23328,-2.77748,0.97337,1.57080,0.00000,-0.14512,-0.38003,0.04653,,,,,,,,,,,,,,,,,,,,,,,,,,0,0,0,0,0
0.7648,1783190715.2577,1,1,1.0000,0.0000,1.44682,0.23328,-2.77748,0.97337,1.57080,0.00000,-0.14512,-0.38003,0.04653,,,,,,,,,,,,,,,,,,,,,,,,,,0,0,0,0,0
0.7739,1783190715.2667,1,1,1.0000,0.0000,1.44682,0.23328,-2.77748,0.97337,1.57080,0.00000,-0.14512,-0.38003,0.04653,,,,,,,,,,,,,,,,,,,,,,,,,,0,0,0,0,0
0.7841,1783190715.2770,1,1,1.0000,0.0000,1.44682,0.23328,-2.77748,0.97337,1.57080,0.00000,-0.14512,-0.38003,0.04653,,,,,,,,,,,,,,,,,,,,,,,,,,0,0,0,0,0
0.7843,1783190715.2771,1,1,1.0000,0.0000,1.44682,0.23328,-2.77748,0.97337,1.57080,0.00000,-0.14512,-0.38003,0.04653,,,,,,,,,,,,,,,,,,,,,,,,,,0,0,0,0,0
0.8055,1783190715.2983,1,1,1.0000,0.0000,1.44682,0.23328,-2.77748,0.97337,1.57080,0.00000,-0.14512,-0.38003,0.04653,,,,,,,,,,,,,,,,,,,,,,,,,,0,0,0,0,0
0.8069,1783190715.2997,1,1,1.0000,0.0000,1.44682,0.23328,-2.77748,0.97337,1.57080,0.00000,-0.14512,-0.38003,0.04653,,,,,,,,,,,,,,,,,,,,,,,,,,0,0,0,0,0
0.8140,1783190715.3069,1,1,1.0000,0.0000,1.44682,0.23328,-2.77748,0.97337,1.57080,0.00000,-0.14512,-0.38003,0.04653,,,,,,,,,,,,,,,,,,,,,,,,,,0,0,0,0,0
0.8143,1783190715.3071,1,1,1.0000,0.0000,1.44682,0.23328,-2.77748,0.97337,1.57080,0.00000,-0.14512,-0.38003,0.04653,,,,,,,,,,,,,,,,,,,,,,,,,,0,0,0,0,0
0.8257,1783190715.3186,1,1,1.0000,0.0000,1.44682,0.23328,-2.77748,0.97337,1.57080,0.00000,-0.14512,-0.38003,0.04653,,,,,,,,,,,,,,,,,,,,,,,,,,0,0,0,0,0
0.8368,1783190715.3296,1,1,1.0000,0.0000,1.44682,0.23328,-2.77748,0.97337,1.57080,0.00000,-0.14512,-0.38003,0.04653,,,,,,,,,,,,,,,,,,,,,,,,,,0,0,0,0,0
0.8459,1783190715.3387,1,1,1.0000,0.0000,1.44682,0.23328,-2.77748,0.97337,1.57080,0.00000,-0.14512,-0.38003,0.04653,,,,,,,,,,,,,,,,,,,,,,,,,,0,0,0,0,0
0.8582,1783190715.3510,1,1,1.0000,0.0000,1.44682,0.23328,-2.77748,0.97337,1.57080,0.00000,-0.14512,-0.38003,0.04653,,,,,,,,,,,,,,,,,,,,,,,,,,0,0,0,0,0
0.8642,1783190715.3570,1,1,1.0000,0.0000,1.44682,0.23328,-2.77748,0.97337,1.57080,0.00000,-0.14512,-0.38003,0.04653,,,,,,,,,,,,,,,,,,,,,,,,,,0,0,0,0,0
0.8645,1783190715.3573,1,1,1.0000,0.0000,1.44682,0.23328,-2.77748,0.97337,1.57080,0.00000,-0.14512,-0.38003,0.04653,,,,,,,,,,,,,,,,,,,,,,,,,,0,0,0,0,0
0.8740,1783190715.3668,1,1,1.0000,0.0000,1.44682,0.23328,-2.77748,0.97337,1.57080,0.00000,-0.14512,-0.38003,0.04653,,,,,,,,,,,,,,,,,,,,,,,,,,0,0,0,0,0
0.8858,1783190715.3786,1,1,1.0000,0.0000,1.44682,0.23328,-2.77748,0.97337,1.57080,0.00000,-0.14512,-0.38003,0.04653,,,,,,,,,,,,,,,,,,,,,,,,,,0,0,0,0,0
0.9101,1783190715.4029,1,1,1.0000,0.0000,1.44682,0.23328,-2.77748,0.97337,1.57080,0.00000,-0.14512,-0.38003,0.04653,,,,,,,,,,,,,,,,,,,,,,,,,,0,0,0,0,0
0.9104,1783190715.4032,1,1,1.0000,0.0000,1.44682,0.23328,-2.77748,0.97337,1.57080,0.00000,-0.14512,-0.38003,0.04653,,,,,,,,,,,,,,,,,,,,,,,,,,0,0,0,0,0
0.9168,1783190715.4097,1,1,1.0000,0.0000,1.44682,0.23328,-2.77748,0.97337,1.57080,0.00000,-0.14512,-0.38003,0.04653,,,,,,,,,,,,,,,,,,,,,,,,,,0,0,0,0,0
0.9241,1783190715.4170,1,1,1.0000,0.0000,1.44682,0.23326,-2.77748,0.97339,1.57080,0.00000,-0.14512,-0.38003,0.04652,,,,,,,,,,,,,,,,,,,,,,,,,,0,0,0,0,0
0.9380,1783190715.4308,1,1,1.0000,0.0000,1.44682,0.23309,-2.77753,0.97361,1.57080,0.00000,-0.14512,-0.38003,0.04648,,,,,,,,,,,,,,,,,,,,,,,,,,0,0,0,0,0
0.9447,1783190715.4375,1,1,1.0000,0.0000,1.44682,0.23293,-2.77757,0.97381,1.57080,0.00000,-0.14512,-0.38003,0.04644,,,,,,,,,,,,,,,,,,,,,,,,,,0,0,0,0,0
0.9610,1783190715.4538,1,1,1.0000,0.0000,1.44682,0.23284,-2.77759,0.97392,1.57080,0.00000,-0.14512,-0.38003,0.04641,,,,,,,,,,,,,,,,,,,,,,,,,,0,0,0,0,0
0.9612,1783190715.4541,1,1,1.0000,0.0000,1.44682,0.23284,-2.77759,0.97392,1.57080,0.00000,-0.14512,-0.38003,0.04641,,,,,,,,,,,,,,,,,,,,,,,,,,0,0,0,0,0
0.9673,1783190715.4602,1,1,1.0000,0.0000,1.44682,0.23278,-2.77761,0.97400,1.57080,0.00000,-0.14512,-0.38003,0.04640,,,,,,,,,,,,,,,,,,,,,,,,,,0,0,0,0,0
0.9763,1783190715.4691,1,1,1.0000,0.0000,1.44682,0.23258,-2.77766,0.97425,1.57080,0.00000,-0.14512,-0.38003,0.04635,,,,,,,,,,,,,,,,,,,,,,,,,,0,0,0,0,0
0.9841,1783190715.4769,1,1,1.0000,0.0000,1.44682,0.23257,-2.77766,0.97426,1.57080,0.00000,-0.14512,-0.38003,0.04634,,,,,,,,,,,,,,,,,,,,,,,,,,0,0,0,0,0
0.9940,1783190715.4868,1,1,1.0000,0.0000,1.44682,0.23251,-2.77767,0.97433,1.57080,0.00000,-0.14512,-0.38003,0.04633,,,,,,,,,,,,,,,,,,,,,,,,,,0,0,0,0,0
1.0059,1783190715.4987,1,1,1.0000,0.0000,1.44682,0.23235,-2.77772,0.97454,1.57080,0.00000,-0.14512,-0.38003,0.04629,,,,,,,,,,,,,,,,,,,,,,,,,,0,0,0,0,0
1.0162,1783190715.5090,1,1,1.0000,0.0000,1.44682,0.23230,-2.77773,0.97459,1.57080,0.00000,-0.14512,-0.38003,0.04627,,,,,,,,,,,,,,,,,,,,,,,,,,0,0,0,0,0
1.0244,1783190715.5173,1,1,1.0000,0.0000,1.44682,0.23219,-2.77776,0.97474,1.57080,0.00000,-0.14512,-0.38003,0.04624,,,,,,,,,,,,,,,,,,,,,,,,,,0,0,0,0,0
1.0248,1783190715.5176,1,1,1.0000,0.0000,1.44682,0.23219,-2.77776,0.97474,1.57080,0.00000,-0.14512,-0.38003,0.04624,,,,,,,,,,,,,,,,,,,,,,,,,,0,0,0,0,0
1.0418,1783190715.5346,1,1,1.0000,0.0000,1.44682,0.23198,-2.77781,0.97500,1.57080,0.00000,-0.14512,-0.38003,0.04619,,,,,,,,,,,,,,,,,,,,,,,,,,0,0,0,0,0
1.0453,1783190715.5381,1,1,1.0000,0.0000,1.44682,0.23197,-2.77781,0.97501,1.57080,0.00000,-0.14512,-0.38003,0.04619,,,,,,,,,,,,,,,,,,,,,,,,,,0,0,0,0,0
1.0620,1783190715.5548,1,1,1.0000,0.0000,1.44682,0.23176,-2.77787,0.97527,1.57080,0.00000,-0.14512,-0.38003,0.04613,,,,,,,,,,,,,,,,,,,,,,,,,,0,0,0,0,0
1.0637,1783190715.5565,1,1,1.0000,0.0000,1.44682,0.23176,-2.77787,0.97527,1.57080,0.00000,-0.14512,-0.38003,0.04613,,,,,,,,,,,,,,,,,,,,,,,,,,0,0,0,0,0
1.0644,1783190715.5572,1,1,1.0000,0.0000,1.44682,0.23169,-2.77789,0.97536,1.57080,0.00000,-0.14512,-0.38003,0.04611,,,,,,,,,,,,,,,,,,,,,,,,,,0,0,0,0,0
1.0737,1783190715.5665,1,1,1.0000,0.0000,1.44682,0.23168,-2.77789,0.97538,1.57080,0.00000,-0.14512,-0.38003,0.04611,,,,,,,,,,,,,,,,,,,,,,,,,,0,0,0,0,0
1.0741,1783190715.5669,1,1,1.0000,0.0000,1.44682,0.23168,-2.77789,0.97538,1.57080,0.00000,-0.14512,-0.38003,0.04611,,,,,,,,,,,,,,,,,,,,,,,,,,0,0,0,0,0
1.0907,1783190715.5835,1,1,1.0000,0.0000,1.44682,0.23147,-2.77794,0.97564,1.57080,0.00000,-0.14512,-0.38003,0.04606,,,,,,,,,,,,,,,,,,,,,,,,,,0,0,0,0,0
1.0940,1783190715.5868,1,1,1.0000,0.0000,1.44682,0.23140,-2.77796,0.97572,1.57080,0.00000,-0.14512,-0.38003,0.04604,,,,,,,,,,,,,,,,,,,,,,,,,,0,0,0,0,0
1.1097,1783190715.6025,1,1,1.0000,0.0000,1.44682,0.23129,-2.77799,0.97587,1.57080,0.00000,-0.14512,-0.38003,0.04601,,,,,,,,,,,,,,,,,,,,,,,,,,0,0,0,0,0
1.1148,1783190715.6077,1,1,1.0000,0.0000,1.44682,0.23124,-2.77800,0.97593,1.57080,0.00000,-0.14512,-0.38003,0.04600,,,,,,,,,,,,,,,,,,,,,,,,,,0,0,0,0,0
1.1151,1783190715.6080,1,1,1.0000,0.0000,1.44682,0.23124,-2.77800,0.97593,1.57080,0.00000,-0.14512,-0.38003,0.04600,,,,,,,,,,,,,,,,,,,,,,,,,,0,0,0,0,0
1.1244,1783190715.6172,1,1,1.0000,0.0000,1.44682,0.23105,-2.77805,0.97618,1.57080,0.00000,-0.14512,-0.38003,0.04594,,,,,,,,,,,,,,,,,,,,,,,,,,0,0,0,0,0
1.1246,1783190715.6174,1,1,1.0000,0.0000,1.44682,0.23105,-2.77805,0.97618,1.57080,0.00000,-0.14512,-0.38003,0.04594,,,,,,,,,,,,,,,,,,,,,,,,,,0,0,0,0,0
1.1339,1783190715.6268,1,1,1.0000,0.0000,1.44682,0.23103,-2.77805,0.97619,1.57080,0.00000,-0.14512,-0.38003,0.04594,,,,,,,,,,,,,,,,,,,,,,,,,,0,0,0,0,0
1.1491,1783190715.6419,1,1,1.0000,0.0000,1.44682,0.23083,-2.77811,0.97645,1.57080,0.00000,-0.14512,-0.38003,0.04589,,,,,,,,,,,,,,,,,,,,,,,,,,0,0,0,0,0
1.1644,1783190715.6572,1,1,1.0000,0.0000,1.44682,0.23068,-2.77815,0.97664,1.57080,0.00000,-0.14512,-0.38003,0.04585,,,,,,,,,,,,,,,,,,,,,,,,,,0,0,0,0,0
1.1648,1783190715.6576,1,1,1.0000,0.0000,1.44682,0.23068,-2.77815,0.97664,1.57080,0.00000,-0.14512,-0.38003,0.04585,,,,,,,,,,,,,,,,,,,,,,,,,,0,0,0,0,0
1.1650,1783190715.6578,1,1,1.0000,0.0000,1.44682,0.23068,-2.77815,0.97664,1.57080,0.00000,-0.14512,-0.38003,0.04585,,,,,,,,,,,,,,,,,,,,,,,,,,0,0,0,0,0
1.1654,1783190715.6582,1,1,1.0000,0.0000,1.44682,0.23068,-2.77815,0.97664,1.57080,0.00000,-0.14512,-0.38003,0.04585,,,,,,,,,,,,,,,,,,,,,,,,,,0,0,0,0,0
1.1739,1783190715.6667,1,1,1.0000,0.0000,1.44682,0.23060,-2.77817,0.97674,1.57080,0.00000,-0.14512,-0.38003,0.04583,,,,,,,,,,,,,,,,,,,,,,,,,,0,0,0,0,0
1.1842,1783190715.6770,1,1,1.0000,0.0000,1.44682,0.23040,-2.77822,0.97699,1.57080,0.00000,-0.14512,-0.38003,0.04578,,,,,,,,,,,,,,,,,,,,,,,,,,0,0,0,0,0
1.1845,1783190715.6774,1,1,1.0000,0.0000,1.44682,0.23040,-2.77822,0.97699,1.57080,0.00000,-0.14512,-0.38003,0.04578,,,,,,,,,,,,,,,,,,,,,,,,,,0,0,0,0,0
1.1950,1783190715.6878,1,1,1.0000,0.0000,1.44682,0.23039,-2.77822,0.97701,1.57080,0.00000,-0.14512,-0.38003,0.04577,,,,,,,,,,,,,,,,,,,,,,,,,,0,0,0,0,0
1.2164,1783190715.7093,1,1,1.0000,0.0000,1.44682,0.23004,-2.77831,0.97744,1.57080,0.00000,-0.14512,-0.38003,0.04568,,,,,,,,,,,,,,,,,,,,,,,,,,0,0,0,0,0
1.2168,1783190715.7096,1,1,1.0000,0.0000,1.44682,0.23004,-2.77831,0.97744,1.57080,0.00000,-0.14512,-0.38003,0.04568,,,,,,,,,,,,,,,,,,,,,,,,,,0,0,0,0,0
1.2179,1783190715.7107,1,1,1.0000,0.0000,1.44682,0.23004,-2.77831,0.97744,1.57080,0.00000,-0.14512,-0.38003,0.04568,,,,,,,,,,,,,,,,,,,,,,,,,,0,0,0,0,0
1.2236,1783190715.7165,1,1,1.0000,0.0000,1.44682,0.23004,-2.77831,0.97744,1.57080,0.00000,-0.14512,-0.38003,0.04568,,,,,,,,,,,,,,,,,,,,,,,,,,0,0,0,0,0
1.2242,1783190715.7170,1,1,1.0000,0.0000,1.44682,0.23003,-2.77831,0.97745,1.57080,0.00000,-0.14512,-0.38003,0.04568,,,,,,,,,,,,,,,,,,,,,,,,,,0,0,0,0,0
1.2395,1783190715.7323,1,1,1.0000,0.0000,1.44682,0.22989,-2.77835,0.97763,1.57080,0.00000,-0.14512,-0.38003,0.04564,,,,,,,,,,,,,,,,,,,,,,,,,,0,0,0,0,0
1.2442,1783190715.7370,1,1,1.0000,0.0000,1.44682,0.22975,-2.77838,0.97781,1.57080,0.00000,-0.14512,-0.38003,0.04561,,,,,,,,,,,,,,,,,,,,,,,,,,0,0,0,0,0
1.2542,1783190715.7471,1,1,1.0000,0.0000,1.44682,0.22974,-2.77839,0.97782,1.57080,0.00000,-0.14512,-0.38003,0.04560,,,,,,,,,,,,,,,,,,,,,,,,,,0,0,0,0,0
1.2545,1783190715.7473,1,1,1.0000,0.0000,1.44682,0.22974,-2.77839,0.97782,1.57080,0.00000,-0.14512,-0.38003,0.04560,,,,,,,,,,,,,,,,,,,,,,,,,,0,0,0,0,0
1.2693,1783190715.7621,1,1,1.0000,0.0000,1.44682,0.22953,-2.77844,0.97808,1.57080,0.00000,-0.14512,-0.38003,0.04555,,,,,,,,,,,,,,,,,,,,,,,,,,0,0,0,0,0
1.2763,1783190715.7692,1,1,1.0000,0.0000,1.44682,0.22939,-2.77848,0.97825,1.57080,0.00000,-0.14512,-0.38003,0.04551,,,,,,,,,,,,,,,,,,,,,,,,,,0,0,0,0,0
1.2766,1783190715.7694,1,1,1.0000,0.0000,1.44682,0.22939,-2.77848,0.97825,1.57080,0.00000,-0.14512,-0.38003,0.04551,,,,,,,,,,,,,,,,,,,,,,,,,,0,0,0,0,0
1.2874,1783190715.7803,1,1,1.0000,0.0000,1.44682,0.22938,-2.77848,0.97827,1.57080,0.00000,-0.14512,-0.38003,0.04551,,,,,,,,,,,,,,,,,,,,,,,,,,0,0,0,0,0
1.2985,1783190715.7913,1,1,1.0000,0.0000,1.44682,0.22924,-2.77852,0.97845,1.57080,0.00000,-0.14512,-0.38003,0.04547,,,,,,,,,,,,,,,,,,,,,,,,,,0,0,0,0,0
1.3042,1783190715.7970,1,1,1.0000,0.0000,1.44682,0.22910,-2.77855,0.97862,1.57080,0.00000,-0.14512,-0.38003,0.04544,,,,,,,,,,,,,,,,,,,,,,,,,,0,0,0,0,0
1.3043,1783190715.7972,1,1,1.0000,0.0000,1.44682,0.22910,-2.77855,0.97862,1.57080,0.00000,-0.14512,-0.38003,0.04544,,,,,,,,,,,,,,,,,,,,,,,,,,0,0,0,0,0
1.3183,1783190715.8111,1,1,1.0000,0.0000,1.44682,0.22905,-2.77856,0.97868,1.57080,0.00000,-0.14512,-0.38003,0.04543,,,,,,,,,,,,,,,,,,,,,,,,,,0,0,0,0,0
1.3300,1783190715.8228,1,1,1.0000,0.0000,1.44682,0.22888,-2.77861,0.97890,1.57080,0.00000,-0.14512,-0.38003,0.04538,,,,,,,,,,,,,,,,,,,,,,,,,,0,0,0,0,0
1.3303,1783190715.8232,1,1,1.0000,0.0000,1.44682,0.22888,-2.77861,0.97890,1.57080,0.00000,-0.14512,-0.38003,0.04538,,,,,,,,,,,,,,,,,,,,,,,,,,0,0,0,0,0
1.3350,1783190715.8278,1,1,1.0000,0.0000,1.44682,0.22881,-2.77862,0.97898,1.57080,0.00000,-0.14512,-0.38003,0.04536,,,,,,,,,,,,,,,,,,,,,,,,,,0,0,0,0,0
1.3511,1783190715.8439,1,1,1.0000,0.0000,1.44682,0.22870,-2.77865,0.97913,1.57080,0.00000,-0.14512,-0.38003,0.04533,,,,,,,,,,,,,,,,,,,,,,,,,,0,0,0,0,0
1.3542,1783190715.8470,1,1,1.0000,0.0000,1.44682,0.22865,-2.77867,0.97919,1.57080,0.00000,-0.14512,-0.38003,0.04532,,,,,,,,,,,,,,,,,,,,,,,,,,0,0,0,0,0
1.3709,1783190715.8638,1,1,1.0000,0.0000,1.44682,0.22845,-2.77872,0.97944,1.57080,0.00000,-0.14512,-0.38003,0.04527,,,,,,,,,,,,,,,,,,,,,,,,,,0,0,0,0,0
1.3739,1783190715.8668,1,1,1.0000,0.0000,1.44682,0.22844,-2.77872,0.97945,1.57080,0.00000,-0.14512,-0.38003,0.04526,,,,,,,,,,,,,,,,,,,,,,,,,,0,0,0,0,0
1.3744,1783190715.8672,1,1,1.0000,0.0000,1.44682,0.22844,-2.77872,0.97945,1.57080,0.00000,-0.14512,-0.38003,0.04526,,,,,,,,,,,,,,,,,,,,,,,,,,0,0,0,0,0
1.3857,1783190715.8785,1,1,1.0000,0.0000,1.44682,0.22830,-2.77876,0.97963,1.57080,0.00000,-0.14512,-0.38003,0.04523,,,,,,,,,,,,,,,,,,,,,,,,,,0,0,0,0,0
1.3947,1783190715.8876,1,1,1.0000,0.0000,1.44682,0.22816,-2.77879,0.97980,1.57080,0.00000,-0.14512,-0.38003,0.04519,,,,,,,,,,,,,,,,,,,,,,,,,,0,0,0,0,0
1.4045,1783190715.8973,1,1,1.0000,0.0000,1.44682,0.22808,-2.77881,0.97990,1.57080,0.00000,-0.14512,-0.38003,0.04517,,,,,,,,,,,,,,,,,,,,,,,,,,0,0,0,0,0
1.4047,1783190715.8976,1,1,1.0000,0.0000,1.44682,0.22808,-2.77881,0.97990,1.57080,0.00000,-0.14512,-0.38003,0.04517,,,,,,,,,,,,,,,,,,,,,,,,,,0,0,0,0,0
1.4166,1783190715.9095,1,1,1.0000,0.0000,1.44682,0.22794,-2.77885,0.98008,1.57080,0.00000,-0.14512,-0.38003,0.04513,,,,,,,,,,,,,,,,,,,,,,,,,,0,0,0,0,0
1.4245,1783190715.9173,1,1,1.0000,0.0000,1.44682,0.22780,-2.77888,0.98025,1.57080,0.00000,-0.14512,-0.38003,0.04510,,,,,,,,,,,,,,,,,,,,,,,,,,0,0,0,0,0
1.4249,1783190715.9177,1,1,1.0000,0.0000,1.44682,0.22780,-2.77888,0.98025,1.57080,0.00000,-0.14512,-0.38003,0.04510,,,,,,,,,,,,,,,,,,,,,,,,,,0,0,0,0,0
1.4341,1783190715.9269,1,1,1.0000,0.0000,1.44682,0.22779,-2.77889,0.98027,1.57080,0.00000,-0.14512,-0.38003,0.04510,,,,,,,,,,,,,,,,,,,,,,,,,,0,0,0,0,0
1.4444,1783190715.9372,1,1,1.0000,0.0000,1.44682,0.22764,-2.77892,0.98045,1.57080,0.00000,-0.14512,-0.38003,0.04506,,,,,,,,,,,,,,,,,,,,,,,,,,0,0,0,0,0
1.4446,1783190715.9374,1,1,1.0000,0.0000,1.44682,0.22764,-2.77892,0.98045,1.57080,0.00000,-0.14512,-0.38003,0.04506,,,,,,,,,,,,,,,,,,,,,,,,,,0,0,0,0,0
1.4558,1783190715.9486,1,1,1.0000,0.0000,1.44682,0.22751,-2.77896,0.98062,1.57080,0.00000,-0.14512,-0.38003,0.04502,,,,,,,,,,,,,,,,,,,,,,,,,,0,0,0,0,0
1.4808,1783190715.9736,1,1,1.0000,0.0000,1.44682,0.22722,-2.77903,0.98098,1.57080,0.00000,-0.14512,-0.38003,0.04495,,,,,,,,,,,,,,,,,,,,,,,,,,0,0,0,0,0
1.4811,1783190715.9739,1,1,1.0000,0.0000,1.44682,0.22722,-2.77903,0.98098,1.57080,0.00000,-0.14512,-0.38003,0.04495,,,,,,,,,,,,,,,,,,,,,,,,,,0,0,0,0,0
1.4813,1783190715.9742,1,1,1.0000,0.0000,1.44682,0.22722,-2.77903,0.98098,1.57080,0.00000,-0.14512,-0.38003,0.04495,,,,,,,,,,,,,,,,,,,,,,,,,,0,0,0,0,0
1.4876,1783190715.9804,1,1,1.0000,0.0000,1.44682,0.22715,-2.77905,0.98107,1.57080,0.00000,-0.14512,-0.38003,0.04493,,,,,,,,,,,,,,,,,,,,,,,,,,0,0,0,0,0
1.4879,1783190715.9808,1,1,1.0000,0.0000,1.44682,0.22715,-2.77905,0.98107,1.57080,0.00000,-0.14512,-0.38003,0.04493,,,,,,,,,,,,,,,,,,,,,,,,,,0,0,0,0,0
1.5004,1783190715.9932,1,1,1.0000,0.0000,1.44682,0.22705,-2.77907,0.98120,1.57080,0.00001,-0.14512,-0.38003,0.04490,,,,,,,,,,,,,,,,,,,,,,,,,,0,0,0,0,0
1.5038,1783190715.9966,1,1,1.0000,0.0000,1.44682,0.22705,-2.77907,0.98120,1.57080,0.00001,-0.14512,-0.38003,0.04490,,,,,,,,,,,,,,,,,,,,,,,,,,0,0,0,0,0
1.5044,1783190715.9972,1,1,1.0000,0.0000,1.44682,0.22701,-2.77908,0.98124,1.57080,0.00001,-0.14512,-0.38003,0.04489,,,,,,,,,,,,,,,,,,,,,,,,,,0,0,0,0,0
1.5414,1783190716.0342,1,1,1.0000,0.0000,1.44682,0.22662,-2.77918,0.98173,1.57080,0.00001,-0.14512,-0.38003,0.04479,,,,,,,,,,,,,,,,,,,,,,,,,,0,0,0,0,0
1.5550,1783190716.0478,1,1,1.0000,0.0000,1.44682,0.22648,-2.77922,0.98191,1.57080,0.00001,-0.14512,-0.38003,0.04476,,,,,,,,,,,,,,,,,,,,,,,,,,0,0,0,0,0
1.5553,1783190716.0481,1,1,1.0000,0.0000,1.44682,0.22648,-2.77922,0.98191,1.57080,0.00001,-0.14512,-0.38003,0.04476,,,,,,,,,,,,,,,,,,,,,,,,,,0,0,0,0,0
1.5765,1783190716.0693,1,1,1.0000,0.0000,1.44682,0.22625,-2.77927,0.98219,1.57080,0.00001,-0.14512,-0.38003,0.04470,,,,,,,,,,,,,,,,,,,,,,,,,,0,0,0,0,0
1.5769,1783190716.0698,1,1,1.0000,0.0000,1.44682,0.22625,-2.77927,0.98219,1.57080,0.00001,-0.14512,-0.38003,0.04470,,,,,,,,,,,,,,,,,,,,,,,,,,0,0,0,0,0
1.5871,1783190716.0799,1,1,1.0000,0.0000,1.44682,0.22624,-2.77928,0.98221,1.57080,0.00001,-0.14512,-0.38003,0.04469,,,,,,,,,,,,,,,,,,,,,,,,,,0,0,0,0,0
1.5941,1783190716.0870,1,1,1.0000,0.0000,1.44682,0.22615,-2.77930,0.98231,1.57080,0.00001,-0.14512,-0.38003,0.04467,,,,,,,,,,,,,,,,,,,,,,,,,,0,0,0,0,0
1.6045,1783190716.0973,1,1,1.0000,0.0000,1.44682,0.22595,-2.77935,0.98257,1.57080,0.00001,-0.14512,-0.38003,0.04462,,,,,,,,,,,,,,,,,,,,,,,,,,0,0,0,0,0
1.6204,1783190716.1133,1,1,1.0000,0.0000,1.44682,0.22585,-2.77938,0.98270,1.57080,0.00001,-0.14512,-0.38003,0.04459,,,,,,,,,,,,,,,,,,,,,,,,,,0,0,0,0,0
1.6291,1783190716.1220,1,1,1.0000,0.0000,1.44682,0.22576,-2.77940,0.98280,1.57080,0.00001,-0.14512,-0.38003,0.04457,,,,,,,,,,,,,,,,,,,,,,,,,,0,0,0,0,0
1.6360,1783190716.1288,1,1,1.0000,0.0000,1.44682,0.22571,-2.77941,0.98287,1.57080,0.00001,-0.14512,-0.38003,0.04456,,,,,,,,,,,,,,,,,,,,,,,,,,0,0,0,0,0
1.6459,1783190716.1387,1,1,1.0000,0.0000,1.44682,0.22564,-2.77943,0.98296,1.57080,0.00001,-0.14512,-0.38003,0.04454,,,,,,,,,,,,,,,,,,,,,,,,,,0,0,0,0,0
1.6576,1783190716.1504,1,1,1.0000,0.0000,1.44682,0.22549,-2.77947,0.98314,1.57080,0.00001,-0.14512,-0.38003,0.04450,,,,,,,,,,,,,,,,,,,,,,,,,,0,0,0,0,0
1.6640,1783190716.1568,1,1,1.0000,0.0000,1.44682,0.22542,-2.77948,0.98323,1.57080,0.00001,-0.14512,-0.38002,0.04448,,,,,,,,,,,,,,,,,,,,,,,,,,0,0,0,0,0
1.6646,1783190716.1574,1,1,1.0000,0.0000,1.44682,0.22535,-2.77950,0.98332,1.57080,0.00001,-0.14512,-0.38002,0.04446,,,,,,,,,,,,,,,,,,,,,,,,,,0,0,0,0,0
1.6784,1783190716.1712,1,1,1.0000,0.0000,1.44682,0.22527,-2.77952,0.98342,1.57080,0.00001,-0.14512,-0.38002,0.04444,,,,,,,,,,,,,,,,,,,,,,,,,,0,0,0,0,0
1.6870,1783190716.1798,1,1,1.0000,0.0000,1.44682,0.22521,-2.77954,0.98349,1.57080,0.00001,-0.14512,-0.38002,0.04443,,,,,,,,,,,,,,,,,,,,,,,,,,0,0,0,0,0
1.6941,1783190716.1869,1,1,1.0000,0.0000,1.44682,0.22511,-2.77956,0.98362,1.57080,0.00001,-0.14512,-0.38002,0.04440,,,,,,,,,,,,,,,,,,,,,,,,,,0,0,0,0,0
1.7047,1783190716.1976,1,1,1.0000,0.0000,1.44682,0.22504,-2.77958,0.98371,1.57080,0.00001,-0.14512,-0.38002,0.04438,,,,,,,,,,,,,,,,,,,,,,,,,,0,0,0,0,0
1.7051,1783190716.1979,1,1,1.0000,0.0000,1.44682,0.22504,-2.77958,0.98371,1.57080,0.00001,-0.14512,-0.38002,0.04438,,,,,,,,,,,,,,,,,,,,,,,,,,0,0,0,0,0
1.7148,1783190716.2076,1,1,1.0000,0.0000,1.44682,0.22495,-2.77960,0.98382,1.57080,0.00001,-0.14512,-0.38002,0.04436,,,,,,,,,,,,,,,,,,,,,,,,,,0,0,0,0,0
1.7271,1783190716.2199,1,1,1.0000,0.0000,1.44682,0.22475,-2.77965,0.98407,1.57080,0.00001,-0.14512,-0.38002,0.04431,,,,,,,,,,,,,,,,,,,,,,,,,,0,0,0,0,0
1.7360,1783190716.2288,1,1,1.0000,0.0000,1.44682,0.22468,-2.77967,0.98416,1.57080,0.00001,-0.14512,-0.38002,0.04429,,,,,,,,,,,,,,,,,,,,,,,,,,0,0,0,0,0
1.7367,1783190716.2296,1,1,1.0000,0.0000,1.44682,0.22467,-2.77967,0.98417,1.57080,0.00001,-0.14512,-0.38002,0.04429,,,,,,,,,,,,,,,,,,,,,,,,,,0,0,0,0,0
1.7488,1783190716.2416,1,1,1.0000,0.0000,1.44682,0.22457,-2.77970,0.98430,1.57080,0.00001,-0.14512,-0.38002,0.04426,,,,,,,,,,,,,,,,,,,,,,,,,,0,0,0,0,0
1.7493,1783190716.2421,1,1,1.0000,0.0000,1.44682,0.22457,-2.77970,0.98430,1.57080,0.00001,-0.14512,-0.38002,0.04426,,,,,,,,,,,,,,,,,,,,,,,,,,0,0,0,0,0
1.7558,1783190716.2486,1,1,1.0000,0.0000,1.44682,0.22451,-2.77971,0.98437,1.57080,0.00001,-0.14512,-0.38002,0.04425,,,,,,,,,,,,,,,,,,,,,,,,,,0,0,0,0,0
1.7565,1783190716.2493,1,1,1.0000,0.0000,1.44682,0.22445,-2.77973,0.98444,1.57080,0.00001,-0.14512,-0.38002,0.04423,,,,,,,,,,,,,,,,,,,,,,,,,,0,0,0,0,0
1.7664,1783190716.2592,1,1,1.0000,0.0000,1.44682,0.22444,-2.77973,0.98446,1.57080,0.00001,-0.14512,-0.38002,0.04423,,,,,,,,,,,,,,,,,,,,,,,,,,0,0,0,0,0
1.7823,1783190716.2751,1,1,1.0000,0.0000,1.44682,0.22422,-2.77979,0.98473,1.57080,0.00001,-0.14512,-0.38002,0.04417,,,,,,,,,,,,,,,,,,,,,,,,,,0,0,0,0,0
1.7874,1783190716.2802,1,1,1.0000,0.0000,1.44682,0.22415,-2.77981,0.98482,1.57080,0.00001,-0.14512,-0.38002,0.04415,,,,,,,,,,,,,,,,,,,,,,,,,,0,0,0,0,0
1.7972,1783190716.2900,1,1,1.0000,0.0000,1.44682,0.22407,-2.77982,0.98492,1.57080,0.00001,-0.14512,-0.38002,0.04413,,,,,,,,,,,,,,,,,,,,,,,,,,0,0,0,0,0
1.8087,1783190716.3015,1,1,1.0000,0.0000,1.44682,0.22397,-2.77985,0.98505,1.57080,0.00001,-0.14512,-0.38002,0.04411,,,,,,,,,,,,,,,,,,,,,,,,,,0,0,0,0,0
1.8152,1783190716.3081,1,1,1.0000,0.0000,1.44682,0.22391,-2.77987,0.98512,1.57080,0.00001,-0.14512,-0.38002,0.04409,,,,,,,,,,,,,,,,,,,,,,,,,,0,0,0,0,0
1.8288,1783190716.3216,1,1,1.0000,0.0000,1.44682,0.22381,-2.77989,0.98525,1.57080,0.00001,-0.14512,-0.38002,0.04407,,,,,,,,,,,,,,,,,,,,,,,,,,0,0,0,0,0
1.8385,1783190716.3313,1,1,1.0000,0.0000,1.44682,0.22369,-2.77992,0.98540,1.57080,0.00001,-0.14512,-0.38002,0.04404,,,,,,,,,,,,,,,,,,,,,,,,,,0,0,0,0,0
1.8500,1783190716.3428,1,1,1.0000,0.0000,1.44682,0.22348,-2.77997,0.98566,1.57080,0.00001,-0.14512,-0.38002,0.04398,,,,,,,,,,,,,,,,,,,,,,,,,,0,0,0,0,0
1.8611,1783190716.3539,1,1,1.0000,0.0000,1.44682,0.22345,-2.77998,0.98570,1.57080,0.00001,-0.14512,-0.38002,0.04397,,,,,,,,,,,,,,,,,,,,,,,,,,0,0,0,0,0
1.8685,1783190716.3613,1,1,1.0000,0.0000,1.44682,0.22336,-2.78000,0.98581,1.57080,0.00001,-0.14512,-0.38002,0.04395,,,,,,,,,,,,,,,,,,,,,,,,,,0,0,0,0,0
1.8688,1783190716.3616,1,1,1.0000,0.0000,1.44682,0.22336,-2.78000,0.98581,1.57080,0.00001,-0.14512,-0.38002,0.04395,,,,,,,,,,,,,,,,,,,,,,,,,,0,0,0,0,0
1.8904,1783190716.3832,1,1,1.0000,0.0000,1.44682,0.22320,-2.78004,0.98601,1.57080,0.00001,-0.14512,-0.38002,0.04391,,,,,,,,,,,,,,,,,,,,,,,,,,0,0,0,0,0
1.8908,1783190716.3836,1,1,1.0000,0.0000,1.44682,0.22320,-2.78004,0.98601,1.57080,0.00001,-0.14512,-0.38002,0.04391,,,,,,,,,,,,,,,,,,,,,,,,,,0,0,0,0,0
1.8998,1783190716.3926,1,1,1.0000,0.0000,1.44682,0.22309,-2.78007,0.98615,1.57080,0.00001,-0.14512,-0.38002,0.04388,,,,,,,,,,,,,,,,,,,,,,,,,,0,0,0,0,0
1.9099,1783190716.4027,1,1,1.0000,0.0000,1.44682,0.22288,-2.78012,0.98641,1.57080,0.00001,-0.14512,-0.38002,0.04383,,,,,,,,,,,,,,,,,,,,,,,,,,0,0,0,0,0
1.9103,1783190716.4031,1,1,1.0000,0.0000,1.44682,0.22288,-2.78012,0.98641,1.57080,0.00001,-0.14512,-0.38002,0.04383,,,,,,,,,,,,,,,,,,,,,,,,,,0,0,0,0,0
1.9173,1783190716.4101,1,1,1.0000,0.0000,1.44682,0.22287,-2.78013,0.98642,1.57080,0.00001,-0.14512,-0.38002,0.04382,,,,,,,,,,,,,,,,,,,,,,,,,,0,0,0,0,0
1.9177,1783190716.4105,1,1,1.0000,0.0000,1.44682,0.22287,-2.78013,0.98642,1.57080,0.00001,-0.14512,-0.38002,0.04382,,,,,,,,,,,,,,,,,,,,,,,,,,0,0,0,0,0
1.9308,1783190716.4236,1,1,1.0000,0.0000,1.44682,0.22276,-2.78015,0.98656,1.57080,0.00001,-0.14512,-0.38002,0.04380,,,,,,,,,,,,,,,,,,,,,,,,,,0,0,0,0,0
1.9407,1783190716.4335,1,1,1.0000,0.0000,1.44681,0.22265,-2.78018,0.98670,1.57080,0.00001,-0.14512,-0.38002,0.04377,,,,,,,,,,,,,,,,,,,,,,,,,,0,0,0,0,0
1.9488,1783190716.4416,1,1,1.0000,0.0000,1.44681,0.22260,-2.78019,0.98676,1.57080,0.00001,-0.14512,-0.38002,0.04376,,,,,,,,,,,,,,,,,,,,,,,,,,0,0,0,0,0
1.9490,1783190716.4418,1,1,1.0000,0.0000,1.44681,0.22260,-2.78019,0.98676,1.57080,0.00001,-0.14512,-0.38002,0.04376,,,,,,,,,,,,,,,,,,,,,,,,,,0,0,0,0,0
1.9575,1783190716.4503,1,1,1.0000,0.0000,1.44681,0.22249,-2.78022,0.98690,1.57080,0.00001,-0.14512,-0.38002,0.04373,,,,,,,,,,,,,,,,,,,,,,,,,,0,0,0,0,0
1.9578,1783190716.4506,1,1,1.0000,0.0000,1.44681,0.22249,-2.78022,0.98690,1.57080,0.00001,-0.14512,-0.38002,0.04373,,,,,,,,,,,,,,,,,,,,,,,,,,0,0,0,0,0
1.9703,1783190716.4631,1,1,1.0000,0.0000,1.44681,0.22228,-2.78028,0.98717,1.57080,0.00001,-0.14512,-0.38002,0.04367,,,,,,,,,,,,,,,,,,,,,,,,,,0,0,0,0,0
1.9707,1783190716.4635,1,1,1.0000,0.0000,1.44681,0.22228,-2.78028,0.98717,1.57080,0.00001,-0.14512,-0.38002,0.04367,,,,,,,,,,,,,,,,,,,,,,,,,,0,0,0,0,0
1.9794,1783190716.4722,1,1,1.0000,0.0000,1.44681,0.22226,-2.78028,0.98718,1.57080,0.00001,-0.14512,-0.38002,0.04367,,,,,,,,,,,,,,,,,,,,,,,,,,0,0,0,0,0
1.9797,1783190716.4725,1,1,1.0000,0.0000,1.44681,0.22226,-2.78028,0.98718,1.57080,0.00001,-0.14512,-0.38002,0.04367,,,,,,,,,,,,,,,,,,,,,,,,,,0,0,0,0,0
1.9874,1783190716.4802,1,1,1.0000,0.0000,1.44681,0.22218,-2.78030,0.98728,1.57080,0.00001,-0.14512,-0.38002,0.04365,,,,,,,,,,,,,,,,,,,,,,,,,,0,0,0,0,0
1.9877,1783190716.4805,1,1,1.0000,0.0000,1.44681,0.22218,-2.78030,0.98728,1.57080,0.00001,-0.14512,-0.38002,0.04365,,,,,,,,,,,,,,,,,,,,,,,,,,0,0,0,0,0
1.9974,1783190716.4903,1,1,1.0000,0.0000,1.44681,0.22198,-2.78035,0.98753,1.57080,0.00001,-0.14512,-0.38002,0.04360,,,,,,,,,,,,,,,,,,,,,,,,,,0,0,0,0,0
2.0075,1783190716.5003,1,1,1.0000,0.0000,1.44681,0.22197,-2.78035,0.98755,1.57080,0.00001,-0.14512,-0.38002,0.04359,,,,,,,,,,,,,,,,,,,,,,,,,,0,0,0,0,0
2.0174,1783190716.5103,1,1,1.0000,0.0000,1.44681,0.22183,-2.78039,0.98773,1.57080,0.00001,-0.14512,-0.38002,0.04356,,,,,,,,,,,,,,,,,,,,,,,,,,0,0,0,0,0
2.0295,1783190716.5223,1,1,1.0000,0.0000,1.44681,0.22162,-2.78044,0.98799,1.57080,0.00001,-0.14512,-0.38002,0.04350,,,,,,,,,,,,,,,,,,,,,,,,,,0,0,0,0,0
2.0432,1783190716.5360,1,1,1.0000,0.0000,1.44681,0.22158,-2.78045,0.98804,1.57080,0.00001,-0.14512,-0.38002,0.04349,,,,,,,,,,,,,,,,,,,,,,,,,,0,0,0,0,0
2.0487,1783190716.5415,1,1,1.0000,0.0000,1.44681,0.22146,-2.78048,0.98818,1.57080,0.00001,-0.14512,-0.38002,0.04346,,,,,,,,,,,,,,,,,,,,,,,,,,0,0,0,0,0
2.0490,1783190716.5418,1,1,1.0000,0.0000,1.44681,0.22146,-2.78048,0.98818,1.57080,0.00001,-0.14512,-0.38002,0.04346,,,,,,,,,,,,,,,,,,,,,,,,,,0,0,0,0,0
2.0632,1783190716.5561,1,1,1.0000,0.0000,1.44681,0.22133,-2.78051,0.98836,1.57080,0.00001,-0.14512,-0.38002,0.04343,,,,,,,,,,,,,,,,,,,,,,,,,,0,0,0,0,0
2.0673,1783190716.5601,1,1,1.0000,0.0000,1.44681,0.22131,-2.78052,0.98837,1.57080,0.00001,-0.14512,-0.38002,0.04342,,,,,,,,,,,,,,,,,,,,,,,,,,0,0,0,0,0
2.0677,1783190716.5605,1,1,1.0000,0.0000,1.44681,0.22131,-2.78052,0.98837,1.57080,0.00001,-0.14512,-0.38002,0.04342,,,,,,,,,,,,,,,,,,,,,,,,,,0,0,0,0,0
2.0813,1783190716.5741,1,1,1.0000,0.0000,1.44681,0.22110,-2.78057,0.98863,1.57080,0.00001,-0.14512,-0.38002,0.04337,,,,,,,,,,,,,,,,,,,,,,,,,,0,0,0,0,0
2.0887,1783190716.5815,1,1,1.0000,0.0000,1.44681,0.22096,-2.78060,0.98881,1.57080,0.00001,-0.14512,-0.38002,0.04333,,,,,,,,,,,,,,,,,,,,,,,,,,0,0,0,0,0
2.0890,1783190716.5819,1,1,1.0000,0.0000,1.44681,0.22096,-2.78060,0.98881,1.57080,0.00001,-0.14512,-0.38002,0.04333,,,,,,,,,,,,,,,,,,,,,,,,,,0,0,0,0,0
2.1007,1783190716.5935,1,1,1.0000,0.0000,1.44681,0.22092,-2.78061,0.98886,1.57080,0.00001,-0.14512,-0.38002,0.04332,,,,,,,,,,,,,,,,,,,,,,,,,,0,0,0,0,0
2.1010,1783190716.5938,1,1,1.0000,0.0000,1.44681,0.22092,-2.78061,0.98886,1.57080,0.00001,-0.14512,-0.38002,0.04332,,,,,,,,,,,,,,,,,,,,,,,,,,0,0,0,0,0
2.1095,1783190716.6023,1,1,1.0000,0.0000,1.44681,0.22081,-2.78064,0.98900,1.57080,0.00001,-0.14512,-0.38002,0.04329,,,,,,,,,,,,,,,,,,,,,,,,,,0,0,0,0,0
2.1200,1783190716.6128,1,1,1.0000,0.0000,1.44681,0.22067,-2.78068,0.98918,1.57080,0.00001,-0.14512,-0.38002,0.04326,,,,,,,,,,,,,,,,,,,,,,,,,,0,0,0,0,0
2.1206,1783190716.6134,1,1,1.0000,0.0000,1.44681,0.22067,-2.78068,0.98918,1.57080,0.00001,-0.14512,-0.38002,0.04326,,,,,,,,,,,,,,,,,,,,,,,,,,0,0,0,0,0
2.1327,1783190716.6255,1,1,1.0000,0.0000,1.44681,0.22057,-2.78070,0.98929,1.57080,0.00001,-0.14512,-0.38002,0.04323,,,,,,,,,,,,,,,,,,,,,,,,,,0,0,0,0,0
2.1331,1783190716.6259,1,1,1.0000,0.0000,1.44681,0.22057,-2.78070,0.98929,1.57080,0.00001,-0.14512,-0.38002,0.04323,,,,,,,,,,,,,,,,,,,,,,,,,,0,0,0,0,0
2.1379,1783190716.6307,1,1,1.0000,0.0000,1.44681,0.22051,-2.78072,0.98937,1.57080,0.00001,-0.14512,-0.38002,0.04322,,,,,,,,,,,,,,,,,,,,,,,,,,0,0,0,0,0
2.1382,1783190716.6310,1,1,1.0000,0.0000,1.44681,0.22051,-2.78072,0.98937,1.57080,0.00001,-0.14512,-0.38002,0.04322,,,,,,,,,,,,,,,,,,,,,,,,,,0,0,0,0,0
2.1482,1783190716.6410,1,1,1.0000,0.0000,1.44681,0.22037,-2.78075,0.98954,1.57080,0.00001,-0.14512,-0.38002,0.04318,,,,,,,,,,,,,,,,,,,,,,,,,,0,0,0,0,0
2.1588,1783190716.6517,1,1,1.0000,0.0000,1.44681,0.22029,-2.78077,0.98964,1.57080,0.00001,-0.14512,-0.38002,0.04316,,,,,,,,,,,,,,,,,,,,,,,,,,0,0,0,0,0
2.1593,1783190716.6521,1,1,1.0000,0.0000,1.44681,0.22029,-2.78077,0.98964,1.57080,0.00001,-0.14512,-0.38002,0.04316,,,,,,,,,,,,,,,,,,,,,,,,,,0,0,0,0,0
2.1691,1783190716.6620,1,1,1.0000,0.0000,1.44681,0.22015,-2.78081,0.98982,1.57080,0.00001,-0.14512,-0.38002,0.04312,,,,,,,,,,,,,,,,,,,,,,,,,,0,0,0,0,0
2.1780,1783190716.6708,1,1,1.0000,0.0000,1.44681,0.22001,-2.78084,0.99000,1.57080,0.00001,-0.14512,-0.38002,0.04309,,,,,,,,,,,,,,,,,,,,,,,,,,0,0,0,0,0
2.1930,1783190716.6859,1,1,1.0000,0.0000,1.44681,0.21991,-2.78086,0.99012,1.57080,0.00001,-0.14512,-0.38002,0.04306,,,,,,,,,,,,,,,,,,,,,,,,,,0,0,0,0,0
2.1933,1783190716.6861,1,1,1.0000,0.0000,1.44681,0.21991,-2.78086,0.99012,1.57080,0.00001,-0.14512,-0.38002,0.04306,,,,,,,,,,,,,,,,,,,,,,,,,,0,0,0,0,0
2.1996,1783190716.6924,1,1,1.0000,0.0000,1.44681,0.21985,-2.78088,0.99019,1.57080,0.00001,-0.14512,-0.38002,0.04305,,,,,,,,,,,,,,,,,,,,,,,,,,0,0,0,0,0
2.1999,1783190716.6928,1,1,1.0000,0.0000,1.44681,0.21985,-2.78088,0.99019,1.57080,0.00001,-0.14512,-0.38002,0.04305,,,,,,,,,,,,,,,,,,,,,,,,,,0,0,0,0,0
2.2088,1783190716.7016,1,1,1.0000,0.0000,1.44681,0.21965,-2.78093,0.99045,1.57080,0.00001,-0.14512,-0.38002,0.04300,,,,,,,,,,,,,,,,,,,,,,,,,,0,0,0,0,0
2.2093,1783190716.7021,1,1,1.0000,0.0000,1.44681,0.21965,-2.78093,0.99045,1.57080,0.00001,-0.14512,-0.38002,0.04300,,,,,,,,,,,,,,,,,,,,,,,,,,0,0,0,0,0
2.2188,1783190716.7116,1,1,1.0000,0.0000,1.44681,0.21963,-2.78093,0.99047,1.57080,0.00001,-0.14512,-0.38002,0.04299,,,,,,,,,,,,,,,,,,,,,,,,,,0,0,0,0,0
2.2344,1783190716.7272,1,1,1.0000,0.0000,1.44681,0.21942,-2.78099,0.99073,1.57080,0.00001,-0.14512,-0.38002,0.04294,,,,,,,,,,,,,,,,,,,,,,,,,,0,0,0,0,0
2.2410,1783190716.7338,1,1,1.0000,0.0000,1.44681,0.21935,-2.78100,0.99082,1.57080,0.00001,-0.14512,-0.38002,0.04292,,,,,,,,,,,,,,,,,,,,,,,,,,0,0,0,0,0
2.2413,1783190716.7341,1,1,1.0000,0.0000,1.44681,0.21935,-2.78100,0.99082,1.57080,0.00001,-0.14512,-0.38002,0.04292,,,,,,,,,,,,,,,,,,,,,,,,,,0,0,0,0,0
2.2494,1783190716.7423,1,1,1.0000,0.0000,1.44681,0.21931,-2.78102,0.99088,1.57080,0.00001,-0.14512,-0.38002,0.04291,,,,,,,,,,,,,,,,,,,,,,,,,,0,0,0,0,0
2.2594,1783190716.7522,1,1,1.0000,0.0000,1.44681,0.21919,-2.78104,0.99102,1.57080,0.00001,-0.14512,-0.38002,0.04288,,,,,,,,,,,,,,,,,,,,,,,,,,0,0,0,0,0
2.2713,1783190716.7642,1,1,1.0000,0.0000,1.44681,0.21899,-2.78109,0.99127,1.57080,0.00001,-0.14512,-0.38002,0.04283,,,,,,,,,,,,,,,,,,,,,,,,,,0,0,0,0,0
2.2927,1783190716.7855,1,1,1.0000,0.0000,1.44681,0.21876,-2.78115,0.99156,1.57080,0.00001,-0.14512,-0.38002,0.04277,,,,,,,,,,,,,,,,,,,,,,,,,,0,0,0,0,0
2.2990,1783190716.7918,1,1,1.0000,0.0000,1.44681,0.21869,-2.78117,0.99164,1.57080,0.00001,-0.14512,-0.38002,0.04275,,,,,,,,,,,,,,,,,,,,,,,,,,0,0,0,0,0
2.3091,1783190716.8020,1,1,1.0000,0.0000,1.44681,0.21865,-2.78118,0.99170,1.57080,0.00001,-0.14512,-0.38002,0.04274,,,,,,,,,,,,,,,,,,,,,,,,,,0,0,0,0,0
2.3095,1783190716.8023,1,1,1.0000,0.0000,1.44681,0.21865,-2.78118,0.99170,1.57080,0.00001,-0.14512,-0.38002,0.04274,,,,,,,,,,,,,,,,,,,,,,,,,,0,0,0,0,0
2.3192,1783190716.8120,1,1,1.0000,0.0000,1.44681,0.21853,-2.78121,0.99184,1.57080,0.00001,-0.14512,-0.38002,0.04271,,,,,,,,,,,,,,,,,,,,,,,,,,0,0,0,0,0
2.3194,1783190716.8123,1,1,1.0000,0.0000,1.44681,0.21853,-2.78121,0.99184,1.57080,0.00001,-0.14512,-0.38002,0.04271,,,,,,,,,,,,,,,,,,,,,,,,,,0,0,0,0,0
2.3282,1783190716.8211,1,1,1.0000,0.0000,1.44681,0.21840,-2.78124,0.99201,1.57080,0.00001,-0.14512,-0.38002,0.04267,,,,,,,,,,,,,,,,,,,,,,,,,,0,0,0,0,0
2.3427,1783190716.8355,1,1,1.0000,0.0000,1.44681,0.21828,-2.78127,0.99215,1.57080,0.00001,-0.14512,-0.38002,0.04265,,,,,,,,,,,,,,,,,,,,,,,,,,0,0,0,0,0
2.3545,1783190716.8474,1,1,1.0000,0.0000,1.44681,0.21810,-2.78131,0.99238,1.57080,0.00001,-0.14512,-0.38002,0.04260,,,,,,,,,,,,,,,,,,,,,,,,,,0,0,0,0,0
2.3547,1783190716.8476,1,1,1.0000,0.0000,1.44681,0.21810,-2.78131,0.99238,1.57080,0.00001,-0.14512,-0.38002,0.04260,,,,,,,,,,,,,,,,,,,,,,,,,,0,0,0,0,0
2.3551,1783190716.8479,1,1,1.0000,0.0000,1.44681,0.21810,-2.78131,0.99238,1.57080,0.00001,-0.14512,-0.38002,0.04260,,,,,,,,,,,,,,,,,,,,,,,,,,0,0,0,0,0
2.3619,1783190716.8547,1,1,1.0000,0.0000,1.44681,0.21796,-2.78135,0.99255,1.57080,0.00001,-0.14512,-0.38002,0.04256,,,,,,,,,,,,,,,,,,,,,,,,,,0,0,0,0,0
2.3748,1783190716.8676,1,1,1.0000,0.0000,1.44681,0.21793,-2.78136,0.99259,1.57080,0.00001,-0.14512,-0.38002,0.04255,,,,,,,,,,,,,,,,,,,,,,,,,,0,0,0,0,0
2.3806,1783190716.8734,1,1,1.0000,0.0000,1.44681,0.21784,-2.78138,0.99270,1.57080,0.00001,-0.14512,-0.38002,0.04253,,,,,,,,,,,,,,,,,,,,,,,,,,0,0,0,0,0
2.4018,1783190716.8946,1,1,1.0000,0.0000,1.44681,0.21768,-2.78142,0.99290,1.57080,0.00001,-0.14512,-0.38002,0.04249,,,,,,,,,,,,,,,,,,,,,,,,,,0,0,0,0,0
2.4021,1783190716.8949,1,1,1.0000,0.0000,1.44681,0.21768,-2.78142,0.99290,1.57080,0.00001,-0.14512,-0.38002,0.04249,,,,,,,,,,,,,,,,,,,,,,,,,,0,0,0,0,0
2.4025,1783190716.8953,1,1,1.0000,0.0000,1.44681,0.21768,-2.78142,0.99290,1.57080,0.00001,-0.14512,-0.38002,0.04249,,,,,,,,,,,,,,,,,,,,,,,,,,0,0,0,0,0
2.4152,1783190716.9080,1,1,1.0000,0.0000,1.44681,0.21750,-2.78146,0.99313,1.57080,0.00001,-0.14512,-0.38002,0.04244,,,,,,,,,,,,,,,,,,,,,,,,,,0,0,0,0,0
2.4252,1783190716.9180,1,1,1.0000,0.0000,1.44681,0.21735,-2.78150,0.99331,1.57080,0.00001,-0.14512,-0.38002,0.04241,,,,,,,,,,,,,,,,,,,,,,,,,,0,0,0,0,0
2.4425,1783190716.9353,1,1,1.0000,0.0000,1.44681,0.21724,-2.78153,0.99346,1.57080,0.00001,-0.14512,-0.38002,0.04238,,,,,,,,,,,,,,,,,,,,,,,,,,0,0,0,0,0
2.4429,1783190716.9357,1,1,1.0000,0.0000,1.44681,0.21724,-2.78153,0.99346,1.57080,0.00001,-0.14512,-0.38002,0.04238,,,,,,,,,,,,,,,,,,,,,,,,,,0,0,0,0,0
2.4456,1783190716.9384,1,1,1.0000,0.0000,1.44681,0.21718,-2.78154,0.99353,1.57080,0.00001,-0.14512,-0.38002,0.04236,,,,,,,,,,,,,,,,,,,,,,,,,,0,0,0,0,0
2.4532,1783190716.9460,1,1,1.0000,0.0000,1.44681,0.21712,-2.78156,0.99360,1.57080,0.00001,-0.14512,-0.38002,0.04235,,,,,,,,,,,,,,,,,,,,,,,,,,0,0,0,0,0
2.4630,1783190716.9558,1,1,1.0000,0.0000,1.44681,0.21707,-2.78157,0.99366,1.57080,0.00001,-0.14512,-0.38002,0.04234,,,,,,,,,,,,,,,,,,,,,,,,,,0,0,0,0,0
2.4633,1783190716.9561,1,1,1.0000,0.0000,1.44681,0.21707,-2.78157,0.99366,1.57080,0.00001,-0.14512,-0.38002,0.04234,,,,,,,,,,,,,,,,,,,,,,,,,,0,0,0,0,0
2.4706,1783190716.9634,1,1,1.0000,0.0000,1.44681,0.21696,-2.78160,0.99380,1.57080,0.00001,-0.14512,-0.38002,0.04231,,,,,,,,,,,,,,,,,,,,,,,,,,0,0,0,0,0
2.4808,1783190716.9736,1,1,1.0000,0.0000,1.44681,0.21675,-2.78165,0.99407,1.57080,0.00001,-0.14512,-0.38002,0.04225,,,,,,,,,,,,,,,,,,,,,,,,,,0,0,0,0,0
2.5049,1783190716.9977,1,1,1.0000,0.0000,1.44681,0.21657,-2.78169,0.99428,1.57080,0.00001,-0.14512,-0.38002,0.04221,,,,,,,,,,,,,,,,,,,,,,,,,,0,0,0,0,0
2.5053,1783190716.9981,1,1,1.0000,0.0000,1.44681,0.21657,-2.78169,0.99428,1.57080,0.00001,-0.14512,-0.38002,0.04221,,,,,,,,,,,,,,,,,,,,,,,,,,0,0,0,0,0
2.5057,1783190716.9985,1,1,1.0000,0.0000,1.44681,0.21657,-2.78169,0.99428,1.57080,0.00001,-0.14512,-0.38002,0.04221,,,,,,,,,,,,,,,,,,,,,,,,,,0,0,0,0,0
2.5149,1783190717.0077,1,1,1.0000,0.0000,1.44681,0.21651,-2.78170,0.99436,1.57080,0.00001,-0.14512,-0.38002,0.04219,,,,,,,,,,,,,,,,,,,,,,,,,,0,0,0,0,0
2.5154,1783190717.0083,1,1,1.0000,0.0000,1.44681,0.21651,-2.78170,0.99436,1.57080,0.00001,-0.14512,-0.38002,0.04219,,,,,,,,,,,,,,,,,,,,,,,,,,0,0,0,0,0
2.5248,1783190717.0176,1,1,1.0000,0.0000,1.44681,0.21642,-2.78173,0.99448,1.57080,0.00001,-0.14512,-0.38002,0.04217,,,,,,,,,,,,,,,,,,,,,,,,,,0,0,0,0,0
2.5314,1783190717.0242,1,1,1.0000,0.0000,1.44681,0.21635,-2.78174,0.99456,1.57080,0.00001,-0.14512,-0.38002,0.04215,,,,,,,,,,,,,,,,,,,,,,,,,,0,0,0,0,0
2.5516,1783190717.0445,1,1,1.0000,0.0000,1.44681,0.21613,-2.78180,0.99483,1.57080,0.00001,-0.14512,-0.38002,0.04210,,,,,,,,,,,,,,,,,,,,,,,,,,0,0,0,0,0
2.5551,1783190717.0480,1,1,1.0000,0.0000,1.44681,0.21611,-2.78180,0.99486,1.57080,0.00001,-0.14512,-0.38002,0.04209,,,,,,,,,,,,,,,,,,,,,,,,,,0,0,0,0,0
2.5648,1783190717.0577,1,1,1.0000,0.0000,1.44681,0.21597,-2.78184,0.99504,1.57080,0.00001,-0.14512,-0.38002,0.04205,,,,,,,,,,,,,,,,,,,,,,,,,,0,0,0,0,0
2.5651,1783190717.0579,1,1,1.0000,0.0000,1.44681,0.21597,-2.78184,0.99504,1.57080,0.00001,-0.14512,-0.38002,0.04205,,,,,,,,,,,,,,,,,,,,,,,,,,0,0,0,0,0
2.5703,1783190717.0631,1,1,1.0000,0.0000,1.44681,0.21591,-2.78185,0.99511,1.57080,0.00001,-0.14512,-0.38002,0.04204,,,,,,,,,,,,,,,,,,,,,,,,,,0,0,0,0,0
2.5819,1783190717.0747,1,1,1.0000,0.0000,1.44681,0.21586,-2.78187,0.99517,1.57080,0.00001,-0.14512,-0.38002,0.04203,,,,,,,,,,,,,,,,,,,,,,,,,,0,0,0,0,0
2.6009,1783190717.0937,1,1,1.0000,0.0000,1.44681,0.21553,-2.78195,0.99558,1.57080,0.00001,-0.14512,-0.38002,0.04194,,,,,,,,,,,,,,,,,,,,,,,,,,0,0,0,0,0
2.6012,1783190717.0940,1,1,1.0000,0.0000,1.44681,0.21553,-2.78195,0.99558,1.57080,0.00001,-0.14512,-0.38002,0.04194,,,,,,,,,,,,,,,,,,,,,,,,,,0,0,0,0,0
2.6025,1783190717.0953,1,1,1.0000,0.0000,1.44681,0.21553,-2.78195,0.99558,1.57080,0.00001,-0.14512,-0.38002,0.04194,,,,,,,,,,,,,,,,,,,,,,,,,,0,0,0,0,0
2.6028,1783190717.0957,1,1,1.0000,0.0000,1.44681,0.21553,-2.78195,0.99558,1.57080,0.00001,-0.14512,-0.38002,0.04194,,,,,,,,,,,,,,,,,,,,,,,,,,0,0,0,0,0
2.6214,1783190717.1142,1,1,1.0000,0.0000,1.44681,0.21537,-2.78198,0.99578,1.57080,0.00001,-0.14512,-0.38002,0.04190,,,,,,,,,,,,,,,,,,,,,,,,,,0,0,0,0,0
2.6220,1783190717.1148,1,1,1.0000,0.0000,1.44681,0.21537,-2.78198,0.99578,1.57080,0.00001,-0.14512,-0.38002,0.04190,,,,,,,,,,,,,,,,,,,,,,,,,,0,0,0,0,0
2.6322,1783190717.1250,1,1,1.0000,0.0000,1.44681,0.21523,-2.78202,0.99595,1.57080,0.00001,-0.14512,-0.38002,0.04187,,,,,,,,,,,,,,,,,,,,,,,,,,0,0,0,0,0
2.6487,1783190717.1416,1,1,1.0000,0.0000,1.44681,0.21508,-2.78206,0.99615,1.57080,0.00001,-0.14512,-0.38002,0.04183,,,,,,,,,,,,,,,,,,,,,,,,,,0,0,0,0,0
2.6493,1783190717.1421,1,1,1.0000,0.0000,1.44681,0.21508,-2.78206,0.99615,1.57080,0.00001,-0.14512,-0.38002,0.04183,,,,,,,,,,,,,,,,,,,,,,,,,,0,0,0,0,0
2.6541,1783190717.1470,1,1,1.0000,0.0000,1.44681,0.21501,-2.78207,0.99623,1.57080,0.00001,-0.14512,-0.38002,0.04181,,,,,,,,,,,,,,,,,,,,,,,,,,0,0,0,0,0
2.6545,1783190717.1474,1,1,1.0000,0.0000,1.44681,0.21501,-2.78207,0.99623,1.57080,0.00001,-0.14512,-0.38002,0.04181,,,,,,,,,,,,,,,,,,,,,,,,,,0,0,0,0,0
2.6625,1783190717.1553,1,1,1.0000,0.0000,1.44681,0.21487,-2.78211,0.99641,1.57080,0.00001,-0.14512,-0.38002,0.04177,,,,,,,,,,,,,,,,,,,,,,,,,,0,0,0,0,0
2.6769,1783190717.1697,1,1,1.0000,0.0000,1.44681,0.21477,-2.78213,0.99653,1.57080,0.00001,-0.14512,-0.38002,0.04175,,,,,,,,,,,,,,,,,,,,,,,,,,0,0,0,0,0
2.6772,1783190717.1700,1,1,1.0000,0.0000,1.44681,0.21477,-2.78213,0.99653,1.57080,0.00001,-0.14512,-0.38002,0.04175,,,,,,,,,,,,,,,,,,,,,,,,,,0,0,0,0,0
2.6821,1783190717.1749,1,1,1.0000,0.0000,1.44681,0.21471,-2.78215,0.99660,1.57080,0.00001,-0.14512,-0.38002,0.04173,,,,,,,,,,,,,,,,,,,,,,,,,,0,0,0,0,0
2.6824,1783190717.1752,1,1,1.0000,0.0000,1.44681,0.21471,-2.78215,0.99660,1.57080,0.00001,-0.14512,-0.38002,0.04173,,,,,,,,,,,,,,,,,,,,,,,,,,0,0,0,0,0
2.7048,1783190717.1976,1,1,1.0000,0.0000,1.44681,0.21448,-2.78220,0.99690,1.57080,0.00002,-0.14512,-0.38002,0.04167,,,,,,,,,,,,,,,,,,,,,,,,,,0,0,0,0,0
2.7050,1783190717.1978,1,1,1.0000,0.0000,1.44681,0.21448,-2.78220,0.99690,1.57080,0.00002,-0.14512,-0.38002,0.04167,,,,,,,,,,,,,,,,,,,,,,,,,,0,0,0,0,0
2.7148,1783190717.2076,1,1,1.0000,0.0000,1.44681,0.21434,-2.78224,0.99706,1.57080,0.00002,-0.14512,-0.38002,0.04164,,,,,,,,,,,,,,,,,,,,,,,,,,0,0,0,0,0
2.7209,1783190717.2137,1,1,1.0000,0.0000,1.44681,0.21420,-2.78227,0.99723,1.57080,0.00002,-0.14512,-0.38002,0.04160,,,,,,,,,,,,,,,,,,,,,,,,,,0,0,0,0,0
2.7306,1783190717.2234,1,1,1.0000,0.0000,1.44681,0.21419,-2.78227,0.99725,1.57080,0.00002,-0.14512,-0.38002,0.04160,,,,,,,,,,,,,,,,,,,,,,,,,,0,0,0,0,0
2.7473,1783190717.2401,1,1,1.0000,0.0000,1.44681,0.21398,-2.78233,0.99751,1.57080,0.00002,-0.14512,-0.38002,0.04155,,,,,,,,,,,,,,,,,,,,,,,,,,0,0,0,0,0
2.7476,1783190717.2404,1,1,1.0000,0.0000,1.44681,0.21398,-2.78233,0.99751,1.57080,0.00002,-0.14512,-0.38002,0.04155,,,,,,,,,,,,,,,,,,,,,,,,,,0,0,0,0,0
2.7510,1783190717.2439,1,1,1.0000,0.0000,1.44681,0.21391,-2.78234,0.99760,1.57080,0.00002,-0.14512,-0.38002,0.04153,,,,,,,,,,,,,,,,,,,,,,,,,,0,0,0,0,0
2.7514,1783190717.2442,1,1,1.0000,0.0000,1.44681,0.21391,-2.78234,0.99760,1.57080,0.00002,-0.14512,-0.38002,0.04153,,,,,,,,,,,,,,,,,,,,,,,,,,0,0,0,0,0
2.7641,1783190717.2569,1,1,1.0000,0.0000,1.44681,0.21386,-2.78235,0.99766,1.57080,0.00002,-0.14512,-0.38002,0.04152,,,,,,,,,,,,,,,,,,,,,,,,,,0,0,0,0,0
2.7718,1783190717.2646,1,1,1.0000,0.0000,1.44681,0.21375,-2.78238,0.99780,1.57080,0.00002,-0.14512,-0.38002,0.04149,,,,,,,,,,,,,,,,,,,,,,,,,,0,0,0,0,0
2.7722,1783190717.2650,1,1,1.0000,0.0000,1.44681,0.21375,-2.78238,0.99780,1.57080,0.00002,-0.14512,-0.38002,0.04149,,,,,,,,,,,,,,,,,,,,,,,,,,0,0,0,0,0
2.7824,1783190717.2752,1,1,1.0000,0.0000,1.44681,0.21354,-2.78243,0.99806,1.57080,0.00002,-0.14512,-0.38002,0.04144,,,,,,,,,,,,,,,,,,,,,,,,,,0,0,0,0,0
2.7917,1783190717.2845,1,1,1.0000,0.0000,1.44681,0.21353,-2.78244,0.99807,1.57080,0.00002,-0.14512,-0.38002,0.04143,,,,,,,,,,,,,,,,,,,,,,,,,,0,0,0,0,0
2.8039,1783190717.2967,1,1,1.0000,0.0000,1.44681,0.21338,-2.78247,0.99826,1.57080,0.00002,-0.14512,-0.38002,0.04140,,,,,,,,,,,,,,,,,,,,,,,,,,0,0,0,0,0
2.8043,1783190717.2972,1,1,1.0000,0.0000,1.44681,0.21338,-2.78247,0.99826,1.57080,0.00002,-0.14512,-0.38002,0.04140,,,,,,,,,,,,,,,,,,,,,,,,,,0,0,0,0,0
2.8144,1783190717.3072,1,1,1.0000,0.0000,1.44681,0.21324,-2.78251,0.99843,1.57080,0.00002,-0.14512,-0.38002,0.04136,,,,,,,,,,,,,,,,,,,,,,,,,,0,0,0,0,0
2.8148,1783190717.3076,1,1,1.0000,0.0000,1.44681,0.21324,-2.78251,0.99843,1.57080,0.00002,-0.14512,-0.38002,0.04136,,,,,,,,,,,,,,,,,,,,,,,,,,0,0,0,0,0
2.8209,1783190717.3137,1,1,1.0000,0.0000,1.44681,0.21320,-2.78252,0.99849,1.57080,0.00002,-0.14512,-0.38002,0.04135,,,,,,,,,,,,,,,,,,,,,,,,,,0,0,0,0,0
2.8328,1783190717.3256,1,1,1.0000,0.0000,1.44681,0.21302,-2.78256,0.99871,1.57080,0.00002,-0.14512,-0.38002,0.04130,,,,,,,,,,,,,,,,,,,,,,,,,,0,0,0,0,0
2.8409,1783190717.3337,1,1,1.0000,0.0000,1.44681,0.21287,-2.78259,0.99889,1.57080,0.00002,-0.14512,-0.38002,0.04127,,,,,,,,,,,,,,,,,,,,,,,,,,0,0,0,0,0
2.8413,1783190717.3341,1,1,1.0000,0.0000,1.44681,0.21287,-2.78259,0.99889,1.57080,0.00002,-0.14512,-0.38002,0.04127,,,,,,,,,,,,,,,,,,,,,,,,,,0,0,0,0,0
2.8527,1783190717.3456,1,1,1.0000,0.0000,1.44681,0.21283,-2.78261,0.99894,1.57080,0.00002,-0.14512,-0.38002,0.04126,,,,,,,,,,,,,,,,,,,,,,,,,,0,0,0,0,0
2.8531,1783190717.3459,1,1,1.0000,0.0000,1.44681,0.21283,-2.78261,0.99894,1.57080,0.00002,-0.14512,-0.38002,0.04126,,,,,,,,,,,,,,,,,,,,,,,,,,0,0,0,0,0
2.8659,1783190717.3587,1,1,1.0000,0.0000,1.44681,0.21265,-2.78265,0.99917,1.57080,0.00002,-0.14512,-0.38002,0.04121,,,,,,,,,,,,,,,,,,,,,,,,,,0,0,0,0,0
2.8738,1783190717.3666,1,1,1.0000,0.0000,1.44681,0.21258,-2.78267,0.99926,1.57080,0.00002,-0.14512,-0.38002,0.04119,,,,,,,,,,,,,,,,,,,,,,,,,,0,0,0,0,0
2.8841,1783190717.3769,1,1,1.0000,0.0000,1.44681,0.21253,-2.78268,0.99931,1.57080,0.00002,-0.14512,-0.38002,0.04118,,,,,,,,,,,,,,,,,,,,,,,,,,0,0,0,0,0
2.9064,1783190717.3992,1,1,1.0000,0.0000,1.44681,0.21221,-2.78276,0.99971,1.57080,0.00002,-0.14512,-0.38002,0.04110,,,,,,,,,,,,,,,,,,,,,,,,,,0,0,0,0,0
2.9067,1783190717.3996,1,1,1.0000,0.0000,1.44681,0.21221,-2.78276,0.99971,1.57080,0.00002,-0.14512,-0.38002,0.04110,,,,,,,,,,,,,,,,,,,,,,,,,,0,0,0,0,0
2.9148,1783190717.4076,1,1,1.0000,0.0000,1.44681,0.21216,-2.78277,0.99977,1.57080,0.00002,-0.14512,-0.38002,0.04109,,,,,,,,,,,,,,,,,,,,,,,,,,0,0,0,0,0
2.9253,1783190717.4181,1,1,1.0000,0.0000,1.44681,0.21198,-2.78281,1.00000,1.57080,0.00002,-0.14512,-0.38002,0.04104,,,,,,,,,,,,,,,,,,,,,,,,,,0,0,0,0,0
2.9382,1783190717.4310,1,1,1.0000,0.0000,1.44681,0.21190,-2.78283,1.00010,1.57080,0.00002,-0.14512,-0.38002,0.04102,,,,,,,,,,,,,,,,,,,,,,,,,,0,0,0,0,0
2.9441,1783190717.4369,1,1,1.0000,0.0000,1.44681,0.21186,-2.78284,1.00014,1.57080,0.00002,-0.14512,-0.38002,0.04101,,,,,,,,,,,,,,,,,,,,,,,,,,0,0,0,0,0
2.9447,1783190717.4376,1,1,1.0000,0.0000,1.44681,0.21181,-2.78285,1.00020,1.57080,0.00002,-0.14512,-0.38002,0.04100,,,,,,,,,,,,,,,,,,,,,,,,,,0,0,0,0,0
2.9569,1783190717.4498,1,1,1.0000,0.0000,1.44681,0.21161,-2.78290,1.00046,1.57080,0.00002,-0.14512,-0.38002,0.04095,,,,,,,,,,,,,,,,,,,,,,,,,,0,0,0,0,0
2.9651,1783190717.4579,1,1,1.0000,0.0000,1.44681,0.21154,-2.78292,1.00054,1.57080,0.00002,-0.14512,-0.38002,0.04093,,,,,,,,,,,,,,,,,,,,,,,,,,0,0,0,0,0
2.9783,1783190717.4711,1,1,1.0000,0.0000,1.44681,0.21145,-2.78294,1.00066,1.57080,0.00002,-0.14512,-0.38002,0.04090,,,,,,,,,,,,,,,,,,,,,,,,,,0,0,0,0,0
2.9861,1783190717.4789,1,1,1.0000,0.0000,1.44681,0.21131,-2.78297,1.00082,1.57080,0.00002,-0.14512,-0.38002,0.04087,,,,,,,,,,,,,,,,,,,,,,,,,,0,0,0,0,0
2.9942,1783190717.4870,1,1,1.0000,0.0000,1.44681,0.21117,-2.78301,1.00100,1.57080,0.00002,-0.14512,-0.38002,0.04083,,,,,,,,,,,,,,,,,,,,,,,,,,0,0,0,0,0
3.0081,1783190717.5010,1,1,1.0000,0.0000,1.44681,0.21114,-2.78302,1.00104,1.57080,0.00002,-0.14512,-0.38002,0.04083,,,,,,,,,,,,,,,,,,,,,,,,,,0,0,0,0,0
3.0142,1783190717.5070,1,1,1.0000,0.0000,1.44681,0.21105,-2.78304,1.00115,1.57080,0.00002,-0.14512,-0.38002,0.04080,,,,,,,,,,,,,,,,,,,,,,,,,,0,0,0,0,0
3.0145,1783190717.5073,1,1,1.0000,0.0000,1.44681,0.21105,-2.78304,1.00115,1.57080,0.00002,-0.14512,-0.38002,0.04080,,,,,,,,,,,,,,,,,,,,,,,,,,0,0,0,0,0
3.0240,1783190717.5169,1,1,1.0000,0.0000,1.44681,0.21094,-2.78306,1.00129,1.57080,0.00002,-0.14512,-0.38002,0.04078,,,,,,,,,,,,,,,,,,,,,,,,,,0,0,0,0,0
3.0340,1783190717.5268,1,1,1.0000,0.0000,1.44681,0.21089,-2.78308,1.00135,1.57080,0.00002,-0.14512,-0.38002,0.04076,,,,,,,,,,,,,,,,,,,,,,,,,,0,0,0,0,0
3.0449,1783190717.5377,1,1,1.0000,0.0000,1.44681,0.21070,-2.78312,1.00158,1.57080,0.00002,-0.14512,-0.38002,0.04072,,,,,,,,,,,,,,,,,,,,,,,,,,0,0,0,0,0
3.0451,1783190717.5379,1,1,1.0000,0.0000,1.44681,0.21070,-2.78312,1.00158,1.57080,0.00002,-0.14512,-0.38002,0.04072,,,,,,,,,,,,,,,,,,,,,,,,,,0,0,0,0,0
3.0578,1783190717.5507,1,1,1.0000,0.0000,1.44681,0.21056,-2.78316,1.00176,1.57080,0.00002,-0.14512,-0.38002,0.04068,,,,,,,,,,,,,,,,,,,,,,,,,,0,0,0,0,0
3.0582,1783190717.5510,1,1,1.0000,0.0000,1.44681,0.21056,-2.78316,1.00176,1.57080,0.00002,-0.14512,-0.38002,0.04068,,,,,,,,,,,,,,,,,,,,,,,,,,0,0,0,0,0
3.0673,1783190717.5601,1,1,1.0000,0.0000,1.44681,0.21053,-2.78316,1.00180,1.57080,0.00002,-0.14512,-0.38002,0.04067,,,,,,,,,,,,,,,,,,,,,,,,,,0,0,0,0,0
3.0749,1783190717.5677,1,1,1.0000,0.0000,1.44681,0.21044,-2.78318,1.00191,1.57080,0.00002,-0.14512,-0.38002,0.04065,,,,,,,,,,,,,,,,,,,,,,,,,,0,0,0,0,0
3.0754,1783190717.5682,1,1,1.0000,0.0000,1.44681,0.21044,-2.78318,1.00191,1.57080,0.00002,-0.14512,-0.38002,0.04065,,,,,,,,,,,,,,,,,,,,,,,,,,0,0,0,0,0
3.0842,1783190717.5770,1,1,1.0000,0.0000,1.44681,0.21032,-2.78321,1.00205,1.57080,0.00002,-0.14512,-0.38002,0.04062,,,,,,,,,,,,,,,,,,,,,,,,,,0,0,0,0,0
3.0953,1783190717.5881,1,1,1.0000,0.0000,1.44681,0.21028,-2.78322,1.00211,1.57080,0.00002,-0.14512,-0.38002,0.04061,,,,,,,,,,,,,,,,,,,,,,,,,,0,0,0,0,0
3.1144,1783190717.6072,1,1,1.0000,0.0000,1.44681,0.20995,-2.78330,1.00252,1.57080,0.00002,-0.14512,-0.38002,0.04052,,,,,,,,,,,,,,,,,,,,,,,,,,0,0,0,0,0
3.1184,1783190717.6113,1,1,1.0000,0.0000,1.44681,0.20995,-2.78330,1.00252,1.57080,0.00002,-0.14512,-0.38002,0.04052,,,,,,,,,,,,,,,,,,,,,,,,,,0,0,0,0,0
3.1187,1783190717.6115,1,1,1.0000,0.0000,1.44681,0.20995,-2.78330,1.00252,1.57080,0.00002,-0.14512,-0.38002,0.04052,,,,,,,,,,,,,,,,,,,,,,,,,,0,0,0,0,0
3.1265,1783190717.6193,1,1,1.0000,0.0000,1.44681,0.20991,-2.78331,1.00256,1.57080,0.00002,-0.14512,-0.38002,0.04052,,,,,,,,,,,,,,,,,,,,,,,,,,0,0,0,0,0
3.1268,1783190717.6196,1,1,1.0000,0.0000,1.44681,0.20991,-2.78331,1.00256,1.57080,0.00002,-0.14512,-0.38002,0.04052,,,,,,,,,,,,,,,,,,,,,,,,,,0,0,0,0,0
3.1351,1783190717.6279,1,1,1.0000,0.0000,1.44681,0.20983,-2.78333,1.00267,1.57080,0.00002,-0.14512,-0.38002,0.04049,,,,,,,,,,,,,,,,,,,,,,,,,,0,0,0,0,0
3.1449,1783190717.6377,1,1,1.0000,0.0000,1.44680,0.20971,-2.78336,1.00281,1.57080,0.00002,-0.14512,-0.38002,0.04047,,,,,,,,,,,,,,,,,,,,,,,,,,0,0,0,0,0
3.1578,1783190717.6506,1,1,1.0000,0.0000,1.44680,0.20961,-2.78338,1.00294,1.57080,0.00002,-0.14512,-0.38002,0.04044,,,,,,,,,,,,,,,,,,,,,,,,,,0,0,0,0,0
3.1649,1783190717.6578,1,1,1.0000,0.0000,1.44680,0.20948,-2.78342,1.00311,1.57079,0.00002,-0.14512,-0.38002,0.04041,,,,,,,,,,,,,,,,,,,,,,,,,,0,0,0,0,0
3.1653,1783190717.6581,1,1,1.0000,0.0000,1.44680,0.20948,-2.78342,1.00311,1.57079,0.00002,-0.14512,-0.38002,0.04041,,,,,,,,,,,,,,,,,,,,,,,,,,0,0,0,0,0
3.1739,1783190717.6668,1,1,1.0000,0.0000,1.44680,0.20933,-2.78345,1.00328,1.57079,0.00002,-0.14512,-0.38002,0.04037,,,,,,,,,,,,,,,,,,,,,,,,,,0,0,0,0,0
3.1843,1783190717.6771,1,1,1.0000,0.0000,1.44680,0.20932,-2.78345,1.00330,1.57079,0.00002,-0.14512,-0.38002,0.04037,,,,,,,,,,,,,,,,,,,,,,,,,,0,0,0,0,0
3.1955,1783190717.6883,1,1,1.0000,0.0000,1.44680,0.20921,-2.78348,1.00343,1.57079,0.00002,-0.14512,-0.38002,0.04034,,,,,,,,,,,,,,,,,,,,,,,,,,0,0,0,0,0
3.1958,1783190717.6886,1,1,1.0000,0.0000,1.44680,0.20921,-2.78348,1.00343,1.57079,0.00002,-0.14512,-0.38002,0.04034,,,,,,,,,,,,,,,,,,,,,,,,,,0,0,0,0,0
3.2186,1783190717.7114,1,1,1.0000,0.0000,1.44680,0.20900,-2.78353,1.00370,1.57079,0.00002,-0.14512,-0.38002,0.04029,,,,,,,,,,,,,,,,,,,,,,,,,,0,0,0,0,0
3.2191,1783190717.7119,1,1,1.0000,0.0000,1.44680,0.20900,-2.78353,1.00370,1.57079,0.00002,-0.14512,-0.38002,0.04029,,,,,,,,,,,,,,,,,,,,,,,,,,0,0,0,0,0
3.2240,1783190717.7169,1,1,1.0000,0.0000,1.44680,0.20893,-2.78355,1.00378,1.57079,0.00002,-0.14512,-0.38002,0.04027,,,,,,,,,,,,,,,,,,,,,,,,,,0,0,0,0,0
3.2341,1783190717.7270,1,1,1.0000,0.0000,1.44680,0.20872,-2.78360,1.00405,1.57079,0.00002,-0.14512,-0.38002,0.04021,,,,,,,,,,,,,,,,,,,,,,,,,,0,0,0,0,0
3.2447,1783190717.7376,1,1,1.0000,0.0000,1.44680,0.20869,-2.78361,1.00409,1.57079,0.00002,-0.14512,-0.38002,0.04021,,,,,,,,,,,,,,,,,,,,,,,,,,0,0,0,0,0
3.2450,1783190717.7378,1,1,1.0000,0.0000,1.44680,0.20869,-2.78361,1.00409,1.57079,0.00002,-0.14512,-0.38002,0.04021,,,,,,,,,,,,,,,,,,,,,,,,,,0,0,0,0,0
3.2649,1783190717.7577,1,1,1.0000,0.0000,1.44680,0.20848,-2.78366,1.00434,1.57079,0.00002,-0.14512,-0.38002,0.04016,,,,,,,,,,,,,,,,,,,,,,,,,,0,0,0,0,0
3.2655,1783190717.7584,1,1,1.0000,0.0000,1.44680,0.20848,-2.78366,1.00434,1.57079,0.00002,-0.14512,-0.38002,0.04016,,,,,,,,,,,,,,,,,,,,,,,,,,0,0,0,0,0
3.2743,1783190717.7671,1,1,1.0000,0.0000,1.44680,0.20844,-2.78367,1.00440,1.57079,0.00002,-0.14512,-0.38002,0.04014,,,,,,,,,,,,,,,,,,,,,,,,,,0,0,0,0,0
3.2891,1783190717.7819,1,1,1.0000,0.0000,1.44680,0.20817,-2.78373,1.00472,1.57079,0.00002,-0.14512,-0.38002,0.04008,,,,,,,,,,,,,,,,,,,,,,,,,,0,0,0,0,0
3.2969,1783190717.7898,1,1,1.0000,0.0000,1.44680,0.20810,-2.78375,1.00481,1.57079,0.00002,-0.14512,-0.38002,0.04006,,,,,,,,,,,,,,,,,,,,,,,,,,0,0,0,0,0
3.2973,1783190717.7901,1,1,1.0000,0.0000,1.44680,0.20810,-2.78375,1.00481,1.57079,0.00002,-0.14512,-0.38002,0.04006,,,,,,,,,,,,,,,,,,,,,,,,,,0,0,0,0,0
3.3038,1783190717.7967,1,1,1.0000,0.0000,1.44680,0.20809,-2.78375,1.00482,1.57079,0.00002,-0.14512,-0.38002,0.04006,,,,,,,,,,,,,,,,,,,,,,,,,,0,0,0,0,0
3.3161,1783190717.8089,1,1,1.0000,0.0000,1.44680,0.20795,-2.78379,1.00500,1.57079,0.00002,-0.14512,-0.38002,0.04002,,,,,,,,,,,,,,,,,,,,,,,,,,0,0,0,0,0
3.3262,1783190717.8190,1,1,1.0000,0.0000,1.44680,0.20780,-2.78382,1.00518,1.57079,0.00002,-0.14512,-0.38002,0.03998,,,,,,,,,,,,,,,,,,,,,,,,,,0,0,0,0,0
3.3267,1783190717.8195,1,1,1.0000,0.0000,1.44680,0.20780,-2.78382,1.00518,1.57079,0.00002,-0.14512,-0.38002,0.03998,,,,,,,,,,,,,,,,,,,,,,,,,,0,0,0,0,0
3.3384,1783190717.8312,1,1,1.0000,0.0000,1.44680,0.20771,-2.78384,1.00530,1.57079,0.00002,-0.14512,-0.38002,0.03996,,,,,,,,,,,,,,,,,,,,,,,,,,0,0,0,0,0
3.3481,1783190717.8409,1,1,1.0000,0.0000,1.44680,0.20758,-2.78387,1.00546,1.57079,0.00002,-0.14512,-0.38002,0.03993,,,,,,,,,,,,,,,,,,,,,,,,,,0,0,0,0,0
3.3680,1783190717.8609,1,1,1.0000,0.0000,1.44680,0.20739,-2.78392,1.00569,1.57079,0.00002,-0.14512,-0.38002,0.03988,,,,,,,,,,,,,,,,,,,,,,,,,,0,0,0,0,0
3.3743,1783190717.8671,1,1,1.0000,0.0000,1.44680,0.20727,-2.78395,1.00584,1.57079,0.00002,-0.14512,-0.38002,0.03985,,,,,,,,,,,,,,,,,,,,,,,,,,0,0,0,0,0
3.3772,1783190717.8700,1,1,1.0000,0.0000,1.44680,0.20721,-2.78396,1.00592,1.57079,0.00002,-0.14512,-0.38002,0.03983,,,,,,,,,,,,,,,,,,,,,,,,,,0,0,0,0,0
3.3775,1783190717.8703,1,1,1.0000,0.0000,1.44680,0.20721,-2.78396,1.00592,1.57079,0.00002,-0.14512,-0.38002,0.03983,,,,,,,,,,,,,,,,,,,,,,,,,,0,0,0,0,0
3.3850,1783190717.8778,1,1,1.0000,0.0000,1.44680,0.20713,-2.78398,1.00601,1.57079,0.00002,-0.14512,-0.38002,0.03981,,,,,,,,,,,,,,,,,,,,,,,,,,0,0,0,0,0
3.3853,1783190717.8781,1,1,1.0000,0.0000,1.44680,0.20713,-2.78398,1.00601,1.57079,0.00002,-0.14512,-0.38002,0.03981,,,,,,,,,,,,,,,,,,,,,,,,,,0,0,0,0,0
3.3991,1783190717.8919,1,1,1.0000,0.0000,1.44680,0.20704,-2.78400,1.00613,1.57079,0.00002,-0.14512,-0.38002,0.03979,,,,,,,,,,,,,,,,,,,,,,,,,,0,0,0,0,0
3.3994,1783190717.8922,1,1,1.0000,0.0000,1.44680,0.20704,-2.78400,1.00613,1.57079,0.00002,-0.14512,-0.38002,0.03979,,,,,,,,,,,,,,,,,,,,,,,,,,0,0,0,0,0
3.4042,1783190717.8970,1,1,1.0000,0.0000,1.44680,0.20697,-2.78402,1.00621,1.57079,0.00002,-0.14512,-0.38002,0.03977,,,,,,,,,,,,,,,,,,,,,,,,,,0,0,0,0,0
3.4190,1783190717.9118,1,1,1.0000,0.0000,1.44680,0.20676,-2.78407,1.00647,1.57079,0.00002,-0.14512,-0.38002,0.03972,,,,,,,,,,,,,,,,,,,,,,,,,,0,0,0,0,0
3.4193,1783190717.9121,1,1,1.0000,0.0000,1.44680,0.20676,-2.78407,1.00647,1.57079,0.00002,-0.14512,-0.38002,0.03972,,,,,,,,,,,,,,,,,,,,,,,,,,0,0,0,0,0
3.4249,1783190717.9178,1,1,1.0000,0.0000,1.44680,0.20672,-2.78408,1.00653,1.57079,0.00002,-0.14512,-0.38002,0.03971,,,,,,,,,,,,,,,,,,,,,,,,,,0,0,0,0,0
3.4359,1783190717.9287,1,1,1.0000,0.0000,1.44680,0.20660,-2.78411,1.00667,1.57079,0.00002,-0.14512,-0.38002,0.03968,,,,,,,,,,,,,,,,,,,,,,,,,,0,0,0,0,0
3.4459,1783190717.9387,1,1,1.0000,0.0000,1.44680,0.20646,-2.78414,1.00684,1.57079,0.00002,-0.14512,-0.38002,0.03965,,,,,,,,,,,,,,,,,,,,,,,,,,0,0,0,0,0
3.4462,1783190717.9390,1,1,1.0000,0.0000,1.44680,0.20646,-2.78414,1.00684,1.57079,0.00002,-0.14512,-0.38002,0.03965,,,,,,,,,,,,,,,,,,,,,,,,,,0,0,0,0,0
3.4536,1783190717.9464,1,1,1.0000,0.0000,1.44680,0.20642,-2.78415,1.00690,1.57079,0.00002,-0.14512,-0.38002,0.03963,,,,,,,,,,,,,,,,,,,,,,,,,,0,0,0,0,0
3.4540,1783190717.9469,1,1,1.0000,0.0000,1.44680,0.20642,-2.78415,1.00690,1.57079,0.00002,-0.14512,-0.38002,0.03963,,,,,,,,,,,,,,,,,,,,,,,,,,0,0,0,0,0
3.4677,1783190717.9605,1,1,1.0000,0.0000,1.44680,0.20623,-2.78419,1.00713,1.57079,0.00002,-0.14512,-0.38002,0.03959,,,,,,,,,,,,,,,,,,,,,,,,,,0,0,0,0,0
3.4742,1783190717.9670,1,1,1.0000,0.0000,1.44680,0.20609,-2.78423,1.00730,1.57079,0.00002,-0.14512,-0.38002,0.03955,,,,,,,,,,,,,,,,,,,,,,,,,,0,0,0,0,0
3.4849,1783190717.9778,1,1,1.0000,0.0000,1.44680,0.20605,-2.78424,1.00736,1.57079,0.00002,-0.14512,-0.38002,0.03954,,,,,,,,,,,,,,,,,,,,,,,,,,0,0,0,0,0
3.4979,1783190717.9907,1,1,1.0000,0.0000,1.44680,0.20586,-2.78428,1.00759,1.57079,0.00002,-0.14512,-0.38002,0.03949,,,,,,,,,,,,,,,,,,,,,,,,,,0,0,0,0,0
3.5081,1783190718.0010,1,1,1.0000,0.0000,1.44680,0.20579,-2.78430,1.00768,1.57079,0.00002,-0.14512,-0.38002,0.03948,,,,,,,,,,,,,,,,,,,,,,,,,,0,0,0,0,0
3.5202,1783190718.0130,1,1,1.0000,0.0000,1.44680,0.20569,-2.78432,1.00779,1.57079,0.00002,-0.14512,-0.38002,0.03945,,,,,,,,,,,,,,,,,,,,,,,,,,0,0,0,0,0
3.5209,1783190718.0137,1,1,1.0000,0.0000,1.44680,0.20563,-2.78434,1.00787,1.57079,0.00002,-0.14512,-0.38002,0.03944,,,,,,,,,,,,,,,,,,,,,,,,,,0,0,0,0,0
3.5267,1783190718.0195,1,1,1.0000,0.0000,1.44680,0.20556,-2.78435,1.00796,1.57079,0.00002,-0.14512,-0.38002,0.03942,,,,,,,,,,,,,,,,,,,,,,,,,,0,0,0,0,0
3.5369,1783190718.0297,1,1,1.0000,0.0000,1.44680,0.20542,-2.78439,1.00813,1.57079,0.00002,-0.14512,-0.38002,0.03938,,,,,,,,,,,,,,,,,,,,,,,,,,0,0,0,0,0
3.5372,1783190718.0301,1,1,1.0000,0.0000,1.44680,0.20542,-2.78439,1.00813,1.57079,0.00002,-0.14512,-0.38002,0.03938,,,,,,,,,,,,,,,,,,,,,,,,,,0,0,0,0,0
3.5497,1783190718.0425,1,1,1.0000,0.0000,1.44680,0.20532,-2.78441,1.00825,1.57079,0.00002,-0.14512,-0.38002,0.03936,,,,,,,,,,,,,,,,,,,,,,,,,,0,0,0,0,0
3.5613,1783190718.0541,1,1,1.0000,0.0000,1.44680,0.20512,-2.78446,1.00851,1.57079,0.00002,-0.14512,-0.38002,0.03931,,,,,,,,,,,,,,,,,,,,,,,,,,0,0,0,0,0
3.5819,1783190718.0747,1,1,1.0000,0.0000,1.44680,0.20497,-2.78449,1.00868,1.57079,0.00002,-0.14512,-0.38002,0.03927,,,,,,,,,,,,,,,,,,,,,,,,,,0,0,0,0,0
3.5822,1783190718.0750,1,1,1.0000,0.0000,1.44680,0.20497,-2.78449,1.00868,1.57079,0.00002,-0.14512,-0.38002,0.03927,,,,,,,,,,,,,,,,,,,,,,,,,,0,0,0,0,0
3.6063,1783190718.0992,1,1,1.0000,0.0000,1.44680,0.20476,-2.78454,1.00895,1.57079,0.00002,-0.14512,-0.38002,0.03922,,,,,,,,,,,,,,,,,,,,,,,,,,0,0,0,0,0
3.6066,1783190718.0994,1,1,1.0000,0.0000,1.44680,0.20476,-2.78454,1.00895,1.57079,0.00002,-0.14512,-0.38002,0.03922,,,,,,,,,,,,,,,,,,,,,,,,,,0,0,0,0,0
3.6092,1783190718.1021,1,1,1.0000,0.0000,1.44680,0.20471,-2.78456,1.00901,1.57079,0.00002,-0.14512,-0.38002,0.03920,,,,,,,,,,,,,,,,,,,,,,,,,,0,0,0,0,0
3.6236,1783190718.1164,1,1,1.0000,0.0000,1.44680,0.20450,-2.78461,1.00927,1.57079,0.00002,-0.14512,-0.38002,0.03915,,,,,,,,,,,,,,,,,,,,,,,,,,0,0,0,0,0
3.6241,1783190718.1170,1,1,1.0000,0.0000,1.44680,0.20450,-2.78461,1.00927,1.57079,0.00002,-0.14512,-0.38002,0.03915,,,,,,,,,,,,,,,,,,,,,,,,,,0,0,0,0,0
3.6292,1783190718.1221,1,1,1.0000,0.0000,1.44680,0.20443,-2.78462,1.00936,1.57079,0.00002,-0.14512,-0.38002,0.03913,,,,,,,,,,,,,,,,,,,,,,,,,,0,0,0,0,0
3.6339,1783190718.1267,1,1,1.0000,0.0000,1.44680,0.20442,-2.78463,1.00937,1.57079,0.00002,-0.14512,-0.38002,0.03913,,,,,,,,,,,,,,,,,,,,,,,,,,0,0,0,0,0
3.6343,1783190718.1271,1,1,1.0000,0.0000,1.44680,0.20442,-2.78463,1.00937,1.57079,0.00002,-0.14512,-0.38002,0.03913,,,,,,,,,,,,,,,,,,,,,,,,,,0,0,0,0,0
3.6580,1783190718.1509,1,1,1.0000,0.0000,1.44680,0.20419,-2.78468,1.00965,1.57079,0.00002,-0.14512,-0.38002,0.03907,,,,,,,,,,,,,,,,,,,,,,,,,,0,0,0,0,0
3.6583,1783190718.1512,1,1,1.0000,0.0000,1.44680,0.20419,-2.78468,1.00965,1.57079,0.00002,-0.14512,-0.38002,0.03907,,,,,,,,,,,,,,,,,,,,,,,,,,0,0,0,0,0
3.6762,1783190718.1690,1,1,1.0000,0.0000,1.44680,0.20403,-2.78472,1.00986,1.57079,0.00002,-0.14512,-0.38002,0.03903,,,,,,,,,,,,,,,,,,,,,,,,,,0,0,0,0,0
3.6770,1783190718.1698,1,1,1.0000,0.0000,1.44680,0.20395,-2.78474,1.00995,1.57079,0.00002,-0.14512,-0.38002,0.03902,,,,,,,,,,,,,,,,,,,,,,,,,,0,0,0,0,0
3.6872,1783190718.1800,1,1,1.0000,0.0000,1.44680,0.20381,-2.78477,1.01013,1.57079,0.00002,-0.14512,-0.38002,0.03898,,,,,,,,,,,,,,,,,,,,,,,,,,0,0,0,0,0
3.6939,1783190718.1867,1,1,1.0000,0.0000,1.44680,0.20380,-2.78477,1.01014,1.57079,0.00002,-0.14512,-0.38002,0.03898,,,,,,,,,,,,,,,,,,,,,,,,,,0,0,0,0,0
3.6942,1783190718.1871,1,1,1.0000,0.0000,1.44680,0.20380,-2.78477,1.01014,1.57079,0.00002,-0.14512,-0.38002,0.03898,,,,,,,,,,,,,,,,,,,,,,,,,,0,0,0,0,0
3.7050,1783190718.1979,1,1,1.0000,0.0000,1.44680,0.20369,-2.78480,1.01027,1.57079,0.00002,-0.14512,-0.38002,0.03895,,,,,,,,,,,,,,,,,,,,,,,,,,0,0,0,0,0
3.7254,1783190718.2182,1,1,1.0000,0.0000,1.44680,0.20352,-2.78484,1.01048,1.57079,0.00002,-0.14512,-0.38002,0.03891,,,,,,,,,,,,,,,,,,,,,,,,,,0,0,0,0,0
3.7258,1783190718.2186,1,1,1.0000,0.0000,1.44680,0.20352,-2.78484,1.01048,1.57079,0.00002,-0.14512,-0.38002,0.03891,,,,,,,,,,,,,,,,,,,,,,,,,,0,0,0,0,0
3.7370,1783190718.2298,1,1,1.0000,0.0000,1.44680,0.20334,-2.78488,1.01071,1.57079,0.00002,-0.14512,-0.38002,0.03886,,,,,,,,,,,,,,,,,,,,,,,,,,0,0,0,0,0
3.7373,1783190718.2301,1,1,1.0000,0.0000,1.44680,0.20334,-2.78488,1.01071,1.57079,0.00002,-0.14512,-0.38002,0.03886,,,,,,,,,,,,,,,,,,,,,,,,,,0,0,0,0,0
3.7451,1783190718.2379,1,1,1.0000,0.0000,1.44680,0.20319,-2.78492,1.01089,1.57079,0.00002,-0.14512,-0.38002,0.03882,,,,,,,,,,,,,,,,,,,,,,,,,,0,0,0,0,0
3.7453,1783190718.2382,1,1,1.0000,0.0000,1.44680,0.20319,-2.78492,1.01089,1.57079,0.00002,-0.14512,-0.38002,0.03882,,,,,,,,,,,,,,,,,,,,,,,,,,0,0,0,0,0
3.7548,1783190718.2477,1,1,1.0000,0.0000,1.44680,0.20318,-2.78492,1.01090,1.57079,0.00002,-0.14512,-0.38002,0.03882,,,,,,,,,,,,,,,,,,,,,,,,,,0,0,0,0,0
3.7894,1783190718.2822,1,1,1.0000,0.0000,1.44680,0.20285,-2.78500,1.01131,1.57079,0.00002,-0.14512,-0.38001,0.03874,,,,,,,,,,,,,,,,,,,,,,,,,,0,0,0,0,0
3.7896,1783190718.2824,1,1,1.0000,0.0000,1.44680,0.20285,-2.78500,1.01131,1.57079,0.00002,-0.14512,-0.38001,0.03874,,,,,,,,,,,,,,,,,,,,,,,,,,0,0,0,0,0
3.7899,1783190718.2827,1,1,1.0000,0.0000,1.44680,0.20285,-2.78500,1.01131,1.57079,0.00002,-0.14512,-0.38001,0.03874,,,,,,,,,,,,,,,,,,,,,,,,,,0,0,0,0,0
3.7939,1783190718.2867,1,1,1.0000,0.0000,1.44680,0.20279,-2.78501,1.01139,1.57079,0.00002,-0.14512,-0.38001,0.03872,,,,,,,,,,,,,,,,,,,,,,,,,,0,0,0,0,0
3.8263,1783190718.3191,1,1,1.0000,0.0000,1.44680,0.20245,-2.78509,1.01180,1.57079,0.00002,-0.14512,-0.38001,0.03864,,,,,,,,,,,,,,,,,,,,,,,,,,0,0,0,0,0
3.8265,1783190718.3194,1,1,1.0000,0.0000,1.44680,0.20245,-2.78509,1.01180,1.57079,0.00002,-0.14512,-0.38001,0.03864,,,,,,,,,,,,,,,,,,,,,,,,,,0,0,0,0,0
3.8312,1783190718.3240,1,1,1.0000,0.0000,1.44680,0.20240,-2.78510,1.01187,1.57079,0.00002,-0.14512,-0.38001,0.03863,,,,,,,,,,,,,,,,,,,,,,,,,,0,0,0,0,0
3.8317,1783190718.3246,1,1,1.0000,0.0000,1.44680,0.20240,-2.78510,1.01187,1.57079,0.00002,-0.14512,-0.38001,0.03863,,,,,,,,,,,,,,,,,,,,,,,,,,0,0,0,0,0
3.8359,1783190718.3287,1,1,1.0000,0.0000,1.44680,0.20233,-2.78512,1.01195,1.57079,0.00002,-0.14512,-0.38001,0.03861,,,,,,,,,,,,,,,,,,,,,,,,,,0,0,0,0,0
3.8479,1783190718.3407,1,1,1.0000,0.0000,1.44680,0.20229,-2.78513,1.01201,1.57079,0.00002,-0.14512,-0.38001,0.03860,,,,,,,,,,,,,,,,,,,,,,,,,,0,0,0,0,0
3.8875,1783190718.3804,1,1,1.0000,0.0000,1.44680,0.20183,-2.78524,1.01257,1.57079,0.00002,-0.14512,-0.38001,0.03848,,,,,,,,,,,,,,,,,,,,,,,,,,0,0,0,0,0
3.8880,1783190718.3808,1,1,1.0000,0.0000,1.44680,0.20183,-2.78524,1.01257,1.57079,0.00002,-0.14512,-0.38001,0.03848,,,,,,,,,,,,,,,,,,,,,,,,,,0,0,0,0,0
3.8883,1783190718.3811,1,1,1.0000,0.0000,1.44680,0.20183,-2.78524,1.01257,1.57079,0.00002,-0.14512,-0.38001,0.03848,,,,,,,,,,,,,,,,,,,,,,,,,,0,0,0,0,0
3.9023,1783190718.3952,1,1,1.0000,0.0000,1.44680,0.20170,-2.78527,1.01273,1.57079,0.00002,-0.14512,-0.38001,0.03845,,,,,,,,,,,,,,,,,,,,,,,,,,0,0,0,0,0
3.9312,1783190718.4241,1,1,1.0000,0.0000,1.44680,0.20133,-2.78536,1.01319,1.57079,0.00003,-0.14512,-0.38001,0.03836,,,,,,,,,,,,,,,,,,,,,,,,,,0,0,0,0,0
3.9318,1783190718.4246,1,1,1.0000,0.0000,1.44680,0.20133,-2.78536,1.01319,1.57079,0.00003,-0.14512,-0.38001,0.03836,,,,,,,,,,,,,,,,,,,,,,,,,,0,0,0,0,0
3.9365,1783190718.4293,1,1,1.0000,0.0000,1.44680,0.20132,-2.78536,1.01320,1.57079,0.00003,-0.14512,-0.38001,0.03836,,,,,,,,,,,,,,,,,,,,,,,,,,0,0,0,0,0
3.9371,1783190718.4299,1,1,1.0000,0.0000,1.44680,0.20128,-2.78537,1.01324,1.57079,0.00003,-0.14512,-0.38001,0.03835,,,,,,,,,,,,,,,,,,,,,,,,,,0,0,0,0,0
3.9542,1783190718.4470,1,1,1.0000,0.0000,1.44680,0.20103,-2.78543,1.01356,1.57079,0.00003,-0.14512,-0.38001,0.03828,,,,,,,,,,,,,,,,,,,,,,,,,,0,0,0,0,0
3.9545,1783190718.4473,1,1,1.0000,0.0000,1.44680,0.20103,-2.78543,1.01356,1.57079,0.00003,-0.14512,-0.38001,0.03828,,,,,,,,,,,,,,,,,,,,,,,,,,0,0,0,0,0
3.9658,1783190718.4586,1,1,1.0000,0.0000,1.44680,0.20098,-2.78544,1.01362,1.57079,0.00003,-0.14512,-0.38001,0.03827,,,,,,,,,,,,,,,,,,,,,,,,,,0,0,0,0,0
3.9815,1783190718.4743,1,1,1.0000,0.0000,1.44680,0.20072,-2.78550,1.01394,1.57079,0.00003,-0.14512,-0.38001,0.03821,,,,,,,,,,,,,,,,,,,,,,,,,,0,0,0,0,0
3.9850,1783190718.4778,1,1,1.0000,0.0000,1.44680,0.20065,-2.78551,1.01402,1.57079,0.00003,-0.14512,-0.38001,0.03819,,,,,,,,,,,,,,,,,,,,,,,,,,0,0,0,0,0
3.9992,1783190718.4920,1,1,1.0000,0.0000,1.44680,0.20061,-2.78552,1.01408,1.57079,0.00003,-0.14512,-0.38001,0.03818,,,,,,,,,,,,,,,,,,,,,,,,,,0,0,0,0,0
4.0059,1783190718.4987,1,1,1.0000,0.0000,1.44680,0.20049,-2.78555,1.01422,1.57079,0.00003,-0.14512,-0.38001,0.03815,,,,,,,,,,,,,,,,,,,,,,,,,,0,0,0,0,0
4.0138,1783190718.5066,1,1,1.0000,0.0000,1.44680,0.20035,-2.78559,1.01440,1.57079,0.00003,-0.14512,-0.38001,0.03811,,,,,,,,,,,,,,,,,,,,,,,,,,0,0,0,0,0
4.0323,1783190718.5251,1,1,1.0000,0.0000,1.44680,0.20025,-2.78561,1.01452,1.57079,0.00003,-0.14512,-0.38001,0.03809,,,,,,,,,,,,,,,,,,,,,,,,,,0,0,0,0,0
4.0358,1783190718.5286,1,1,1.0000,0.0000,1.44680,0.20019,-2.78562,1.01460,1.57079,0.00003,-0.14512,-0.38001,0.03807,,,,,,,,,,,,,,,,,,,,,,,,,,0,0,0,0,0
4.0361,1783190718.5290,1,1,1.0000,0.0000,1.44680,0.20019,-2.78562,1.01460,1.57079,0.00003,-0.14512,-0.38001,0.03807,,,,,,,,,,,,,,,,,,,,,,,,,,0,0,0,0,0
4.0486,1783190718.5414,1,1,1.0000,0.0000,1.44680,0.19998,-2.78567,1.01486,1.57079,0.00003,-0.14512,-0.38001,0.03802,,,,,,,,,,,,,,,,,,,,,,,,,,0,0,0,0,0
4.0490,1783190718.5419,1,1,1.0000,0.0000,1.44680,0.19998,-2.78567,1.01486,1.57079,0.00003,-0.14512,-0.38001,0.03802,,,,,,,,,,,,,,,,,,,,,,,,,,0,0,0,0,0
4.0565,1783190718.5494,1,1,1.0000,0.0000,1.44680,0.19996,-2.78568,1.01487,1.57079,0.00003,-0.14512,-0.38001,0.03802,,,,,,,,,,,,,,,,,,,,,,,,,,0,0,0,0,0
4.0658,1783190718.5586,1,1,1.0000,0.0000,1.44680,0.19982,-2.78571,1.01506,1.57079,0.00003,-0.14512,-0.38001,0.03798,,,,,,,,,,,,,,,,,,,,,,,,,,0,0,0,0,0
4.0660,1783190718.5589,1,1,1.0000,0.0000,1.44680,0.19982,-2.78571,1.01506,1.57079,0.00003,-0.14512,-0.38001,0.03798,,,,,,,,,,,,,,,,,,,,,,,,,,0,0,0,0,0
4.0818,1783190718.5747,1,1,1.0000,0.0000,1.44680,0.19966,-2.78575,1.01525,1.57079,0.00003,-0.14512,-0.38001,0.03794,,,,,,,,,,,,,,,,,,,,,,,,,,0,0,0,0,0
4.0858,1783190718.5787,1,1,1.0000,0.0000,1.44680,0.19963,-2.78575,1.01529,1.57079,0.00003,-0.14512,-0.38001,0.03793,,,,,,,,,,,,,,,,,,,,,,,,,,0,0,0,0,0
4.0940,1783190718.5868,1,1,1.0000,0.0000,1.44680,0.19951,-2.78578,1.01543,1.57079,0.00003,-0.14512,-0.38001,0.03791,,,,,,,,,,,,,,,,,,,,,,,,,,0,0,0,0,0
4.1052,1783190718.5980,1,1,1.0000,0.0000,1.44680,0.19930,-2.78583,1.01570,1.57079,0.00003,-0.14512,-0.38001,0.03785,,,,,,,,,,,,,,,,,,,,,,,,,,0,0,0,0,0
4.1055,1783190718.5983,1,1,1.0000,0.0000,1.44680,0.19930,-2.78583,1.01570,1.57079,0.00003,-0.14512,-0.38001,0.03785,,,,,,,,,,,,,,,,,,,,,,,,,,0,0,0,0,0
4.1147,1783190718.6075,1,1,1.0000,0.0000,1.44680,0.19929,-2.78583,1.01571,1.57079,0.00003,-0.14512,-0.38001,0.03785,,,,,,,,,,,,,,,,,,,,,,,,,,0,0,0,0,0
4.1303,1783190718.6232,1,1,1.0000,0.0000,1.44680,0.19907,-2.78589,1.01598,1.57079,0.00003,-0.14512,-0.38001,0.03779,,,,,,,,,,,,,,,,,,,,,,,,,,0,0,0,0,0
4.1380,1783190718.6308,1,1,1.0000,0.0000,1.44680,0.19899,-2.78590,1.01607,1.57079,0.00003,-0.14512,-0.38001,0.03778,,,,,,,,,,,,,,,,,,,,,,,,,,0,0,0,0,0
4.1383,1783190718.6311,1,1,1.0000,0.0000,1.44680,0.19899,-2.78590,1.01607,1.57079,0.00003,-0.14512,-0.38001,0.03778,,,,,,,,,,,,,,,,,,,,,,,,,,0,0,0,0,0
4.1439,1783190718.6367,1,1,1.0000,0.0000,1.44680,0.19898,-2.78591,1.01609,1.57079,0.00003,-0.14512,-0.38001,0.03777,,,,,,,,,,,,,,,,,,,,,,,,,,0,0,0,0,0
4.1442,1783190718.6370,1,1,1.0000,0.0000,1.44680,0.19898,-2.78591,1.01609,1.57079,0.00003,-0.14512,-0.38001,0.03777,,,,,,,,,,,,,,,,,,,,,,,,,,0,0,0,0,0
4.1540,1783190718.6468,1,1,1.0000,0.0000,1.44680,0.19883,-2.78594,1.01627,1.57079,0.00003,-0.14512,-0.38001,0.03774,,,,,,,,,,,,,,,,,,,,,,,,,,0,0,0,0,0
4.1638,1783190718.6567,1,1,1.0000,0.0000,1.44680,0.19869,-2.78597,1.01645,1.57079,0.00003,-0.14512,-0.38001,0.03770,,,,,,,,,,,,,,,,,,,,,,,,,,0,0,0,0,0
4.1812,1783190718.6740,1,1,1.0000,0.0000,1.44680,0.19852,-2.78601,1.01665,1.57079,0.00003,-0.14512,-0.38001,0.03766,,,,,,,,,,,,,,,,,,,,,,,,,,0,0,0,0,0
4.1879,1783190718.6807,1,1,1.0000,0.0000,1.44680,0.19846,-2.78603,1.01673,1.57079,0.00003,-0.14512,-0.38001,0.03764,,,,,,,,,,,,,,,,,,,,,,,,,,0,0,0,0,0
4.1971,1783190718.6899,1,1,1.0000,0.0000,1.44680,0.19831,-2.78606,1.01691,1.57079,0.00003,-0.14512,-0.38001,0.03761,,,,,,,,,,,,,,,,,,,,,,,,,,0,0,0,0,0
4.1973,1783190718.6901,1,1,1.0000,0.0000,1.44680,0.19831,-2.78606,1.01691,1.57079,0.00003,-0.14512,-0.38001,0.03761,,,,,,,,,,,,,,,,,,,,,,,,,,0,0,0,0,0
4.2038,1783190718.6966,1,1,1.0000,0.0000,1.44680,0.19830,-2.78606,1.01692,1.57079,0.00003,-0.14512,-0.38001,0.03760,,,,,,,,,,,,,,,,,,,,,,,,,,0,0,0,0,0
4.2041,1783190718.6969,1,1,1.0000,0.0000,1.44680,0.19830,-2.78606,1.01692,1.57079,0.00003,-0.14512,-0.38001,0.03760,,,,,,,,,,,,,,,,,,,,,,,,,,0,0,0,0,0
4.2178,1783190718.7107,1,1,1.0000,0.0000,1.44680,0.19808,-2.78611,1.01719,1.57079,0.00003,-0.14512,-0.38001,0.03755,,,,,,,,,,,,,,,,,,,,,,,,,,0,0,0,0,0
4.2263,1783190718.7191,1,1,1.0000,0.0000,1.44680,0.19794,-2.78615,1.01737,1.57079,0.00003,-0.14512,-0.38001,0.03751,,,,,,,,,,,,,,,,,,,,,,,,,,0,0,0,0,0
4.2377,1783190718.7305,1,1,1.0000,0.0000,1.44680,0.19789,-2.78616,1.01743,1.57079,0.00003,-0.14512,-0.38001,0.03750,,,,,,,,,,,,,,,,,,,,,,,,,,0,0,0,0,0
4.2445,1783190718.7373,1,1,1.0000,0.0000,1.44680,0.19784,-2.78617,1.01749,1.57079,0.00003,-0.14512,-0.38001,0.03749,,,,,,,,,,,,,,,,,,,,,,,,,,0,0,0,0,0
4.2450,1783190718.7379,1,1,1.0000,0.0000,1.44680,0.19778,-2.78619,1.01757,1.57079,0.00003,-0.14512,-0.38001,0.03747,,,,,,,,,,,,,,,,,,,,,,,,,,0,0,0,0,0
4.2558,1783190718.7486,1,1,1.0000,0.0000,1.44680,0.19763,-2.78622,1.01775,1.57079,0.00003,-0.14512,-0.38001,0.03744,,,,,,,,,,,,,,,,,,,,,,,,,,0,0,0,0,0
4.2692,1783190718.7620,1,1,1.0000,0.0000,1.44680,0.19754,-2.78624,1.01787,1.57079,0.00003,-0.14512,-0.38001,0.03741,,,,,,,,,,,,,,,,,,,,,,,,,,0,0,0,0,0
4.2739,1783190718.7668,1,1,1.0000,0.0000,1.44680,0.19747,-2.78626,1.01794,1.57079,0.00003,-0.14512,-0.38001,0.03740,,,,,,,,,,,,,,,,,,,,,,,,,,0,0,0,0,0
4.2909,1783190718.7837,1,1,1.0000,0.0000,1.44680,0.19726,-2.78631,1.01821,1.57079,0.00003,-0.14512,-0.38001,0.03734,,,,,,,,,,,,,,,,,,,,,,,,,,0,0,0,0,0
4.2949,1783190718.7877,1,1,1.0000,0.0000,1.44680,0.19725,-2.78631,1.01822,1.57079,0.00003,-0.14512,-0.38001,0.03734,,,,,,,,,,,,,,,,,,,,,,,,,,0,0,0,0,0
4.3040,1783190718.7968,1,1,1.0000,0.0000,1.44680,0.19716,-2.78633,1.01833,1.57079,0.00003,-0.14512,-0.38001,0.03732,,,,,,,,,,,,,,,,,,,,,,,,,,0,0,0,0,0
4.3188,1783190718.8116,1,1,1.0000,0.0000,1.44680,0.19695,-2.78638,1.01858,1.57079,0.00003,-0.14512,-0.38001,0.03727,,,,,,,,,,,,,,,,,,,,,,,,,,0,0,0,0,0
4.3459,1783190718.8387,1,1,1.0000,0.0000,1.44680,0.19658,-2.78646,1.01905,1.57079,0.00003,-0.14512,-0.38001,0.03718,,,,,,,,,,,,,,,,,,,,,,,,,,0,0,0,0,0
4.3462,1783190718.8390,1,1,1.0000,0.0000,1.44680,0.19658,-2.78646,1.01905,1.57079,0.00003,-0.14512,-0.38001,0.03718,,,,,,,,,,,,,,,,,,,,,,,,,,0,0,0,0,0
4.3465,1783190718.8393,1,1,1.0000,0.0000,1.44680,0.19658,-2.78646,1.01905,1.57079,0.00003,-0.14512,-0.38001,0.03718,,,,,,,,,,,,,,,,,,,,,,,,,,0,0,0,0,0
4.3468,1783190718.8396,1,1,1.0000,0.0000,1.44680,0.19658,-2.78646,1.01905,1.57079,0.00003,-0.14512,-0.38001,0.03718,,,,,,,,,,,,,,,,,,,,,,,,,,0,0,0,0,0
4.3536,1783190718.8465,1,1,1.0000,0.0000,1.44680,0.19657,-2.78647,1.01906,1.57079,0.00003,-0.14512,-0.38001,0.03717,,,,,,,,,,,,,,,,,,,,,,,,,,0,0,0,0,0
4.3540,1783190718.8468,1,1,1.0000,0.0000,1.44680,0.19657,-2.78647,1.01906,1.57079,0.00003,-0.14512,-0.38001,0.03717,,,,,,,,,,,,,,,,,,,,,,,,,,0,0,0,0,0
4.3639,1783190718.8567,1,1,1.0000,0.0000,1.44680,0.19648,-2.78649,1.01917,1.57079,0.00003,-0.14511,-0.38001,0.03715,,,,,,,,,,,,,,,,,,,,,,,,,,0,0,0,0,0
4.3766,1783190718.8694,1,1,1.0000,0.0000,1.44679,0.19627,-2.78653,1.01942,1.57079,0.00003,-0.14511,-0.38001,0.03710,,,,,,,,,,,,,,,,,,,,,,,,,,0,0,0,0,0
4.3868,1783190718.8797,1,1,1.0000,0.0000,1.44679,0.19619,-2.78655,1.01952,1.57079,0.00003,-0.14511,-0.38001,0.03708,,,,,,,,,,,,,,,,,,,,,,,,,,0,0,0,0,0
4.4025,1783190718.8954,1,1,1.0000,0.0000,1.44679,0.19602,-2.78659,1.01973,1.57079,0.00003,-0.14511,-0.38001,0.03704,,,,,,,,,,,,,,,,,,,,,,,,,,0,0,0,0,0
4.4083,1783190718.9011,1,1,1.0000,0.0000,1.44679,0.19596,-2.78661,1.01981,1.57079,0.00003,-0.14511,-0.38001,0.03702,,,,,,,,,,,,,,,,,,,,,,,,,,0,0,0,0,0
4.4172,1783190718.9100,1,1,1.0000,0.0000,1.44679,0.19591,-2.78662,1.01987,1.57079,0.00003,-0.14511,-0.38001,0.03701,,,,,,,,,,,,,,,,,,,,,,,,,,0,0,0,0,0
4.4175,1783190718.9103,1,1,1.0000,0.0000,1.44679,0.19591,-2.78662,1.01987,1.57079,0.00003,-0.14511,-0.38001,0.03701,,,,,,,,,,,,,,,,,,,,,,,,,,0,0,0,0,0
4.4292,1783190718.9220,1,1,1.0000,0.0000,1.44679,0.19572,-2.78666,1.02010,1.57079,0.00003,-0.14511,-0.38001,0.03696,,,,,,,,,,,,,,,,,,,,,,,,,,0,0,0,0,0
4.4404,1783190718.9332,1,1,1.0000,0.0000,1.44679,0.19557,-2.78670,1.02028,1.57079,0.00003,-0.14511,-0.38001,0.03693,,,,,,,,,,,,,,,,,,,,,,,,,,0,0,0,0,0
4.4474,1783190718.9402,1,1,1.0000,0.0000,1.44679,0.19557,-2.78670,1.02029,1.57079,0.00003,-0.14511,-0.38001,0.03692,,,,,,,,,,,,,,,,,,,,,,,,,,0,0,0,0,0
4.4592,1783190718.9520,1,1,1.0000,0.0000,1.44679,0.19545,-2.78672,1.02043,1.57079,0.00003,-0.14511,-0.38001,0.03690,,,,,,,,,,,,,,,,,,,,,,,,,,0,0,0,0,0
4.4696,1783190718.9624,1,1,1.0000,0.0000,1.44679,0.19534,-2.78675,1.02058,1.57079,0.00003,-0.14511,-0.38001,0.03687,,,,,,,,,,,,,,,,,,,,,,,,,,0,0,0,0,0
4.4793,1783190718.9721,1,1,1.0000,0.0000,1.44679,0.19529,-2.78676,1.02064,1.57079,0.00003,-0.14511,-0.38001,0.03686,,,,,,,,,,,,,,,,,,,,,,,,,,0,0,0,0,0
4.4891,1783190718.9820,1,1,1.0000,0.0000,1.44679,0.19510,-2.78681,1.02087,1.57079,0.00003,-0.14511,-0.38001,0.03681,,,,,,,,,,,,,,,,,,,,,,,,,,0,0,0,0,0
4.4895,1783190718.9823,1,1,1.0000,0.0000,1.44679,0.19510,-2.78681,1.02087,1.57079,0.00003,-0.14511,-0.38001,0.03681,,,,,,,,,,,,,,,,,,,,,,,,,,0,0,0,0,0
4.4972,1783190718.9900,1,1,1.0000,0.0000,1.44679,0.19495,-2.78684,1.02105,1.57079,0.00003,-0.14511,-0.38001,0.03677,,,,,,,,,,,,,,,,,,,,,,,,,,0,0,0,0,0
4.4977,1783190718.9906,1,1,1.0000,0.0000,1.44679,0.19495,-2.78684,1.02105,1.57079,0.00003,-0.14511,-0.38001,0.03677,,,,,,,,,,,,,,,,,,,,,,,,,,0,0,0,0,0
4.5148,1783190719.0076,1,1,1.0000,0.0000,1.44679,0.19488,-2.78686,1.02114,1.57079,0.00003,-0.14511,-0.38001,0.03675,,,,,,,,,,,,,,,,,,,,,,,,,,0,0,0,0,0
4.5171,1783190719.0099,1,1,1.0000,0.0000,1.44679,0.19483,-2.78687,1.02120,1.57079,0.00003,-0.14511,-0.38001,0.03674,,,,,,,,,,,,,,,,,,,,,,,,,,0,0,0,0,0
4.5173,1783190719.0101,1,1,1.0000,0.0000,1.44679,0.19483,-2.78687,1.02120,1.57079,0.00003,-0.14511,-0.38001,0.03674,,,,,,,,,,,,,,,,,,,,,,,,,,0,0,0,0,0
4.5283,1783190719.0211,1,1,1.0000,0.0000,1.44679,0.19471,-2.78690,1.02135,1.57079,0.00003,-0.14511,-0.38001,0.03671,,,,,,,,,,,,,,,,,,,,,,,,,,0,0,0,0,0
4.5483,1783190719.0411,1,1,1.0000,0.0000,1.44679,0.19454,-2.78693,1.02155,1.57079,0.00003,-0.14511,-0.38001,0.03667,,,,,,,,,,,,,,,,,,,,,,,,,,0,0,0,0,0
4.5491,1783190719.0419,1,1,1.0000,0.0000,1.44679,0.19447,-2.78695,1.02164,1.57079,0.00003,-0.14511,-0.38001,0.03665,,,,,,,,,,,,,,,,,,,,,,,,,,0,0,0,0,0
4.5493,1783190719.0422,1,1,1.0000,0.0000,1.44679,0.19447,-2.78695,1.02164,1.57079,0.00003,-0.14511,-0.38001,0.03665,,,,,,,,,,,,,,,,,,,,,,,,,,0,0,0,0,0
4.5579,1783190719.0508,1,1,1.0000,0.0000,1.44679,0.19432,-2.78698,1.02182,1.57079,0.00003,-0.14511,-0.38001,0.03662,,,,,,,,,,,,,,,,,,,,,,,,,,0,0,0,0,0
4.5582,1783190719.0511,1,1,1.0000,0.0000,1.44679,0.19432,-2.78698,1.02182,1.57079,0.00003,-0.14511,-0.38001,0.03662,,,,,,,,,,,,,,,,,,,,,,,,,,0,0,0,0,0
4.5682,1783190719.0610,1,1,1.0000,0.0000,1.44679,0.19431,-2.78699,1.02183,1.57079,0.00003,-0.14511,-0.38001,0.03661,,,,,,,,,,,,,,,,,,,,,,,,,,0,0,0,0,0
4.5685,1783190719.0613,1,1,1.0000,0.0000,1.44679,0.19431,-2.78699,1.02183,1.57079,0.00003,-0.14511,-0.38001,0.03661,,,,,,,,,,,,,,,,,,,,,,,,,,0,0,0,0,0
4.5773,1783190719.0701,1,1,1.0000,0.0000,1.44679,0.19420,-2.78701,1.02197,1.57079,0.00003,-0.14511,-0.38001,0.03659,,,,,,,,,,,,,,,,,,,,,,,,,,0,0,0,0,0
4.5778,1783190719.0706,1,1,1.0000,0.0000,1.44679,0.19420,-2.78701,1.02197,1.57079,0.00003,-0.14511,-0.38001,0.03659,,,,,,,,,,,,,,,,,,,,,,,,,,0,0,0,0,0
4.5938,1783190719.0866,1,1,1.0000,0.0000,1.44679,0.19407,-2.78704,1.02213,1.57079,0.00003,-0.14511,-0.38001,0.03655,,,,,,,,,,,,,,,,,,,,,,,,,,0,0,0,0,0
4.5980,1783190719.0908,1,1,1.0000,0.0000,1.44679,0.19403,-2.78705,1.02218,1.57079,0.00003,-0.14511,-0.38001,0.03655,,,,,,,,,,,,,,,,,,,,,,,,,,0,0,0,0,0
4.5983,1783190719.0911,1,1,1.0000,0.0000,1.44679,0.19403,-2.78705,1.02218,1.57079,0.00003,-0.14511,-0.38001,0.03655,,,,,,,,,,,,,,,,,,,,,,,,,,0,0,0,0,0
4.6114,1783190719.1043,1,1,1.0000,0.0000,1.44679,0.19384,-2.78710,1.02241,1.57079,0.00003,-0.14511,-0.38001,0.03650,,,,,,,,,,,,,,,,,,,,,,,,,,0,0,0,0,0
4.6119,1783190719.1047,1,1,1.0000,0.0000,1.44679,0.19384,-2.78710,1.02241,1.57079,0.00003,-0.14511,-0.38001,0.03650,,,,,,,,,,,,,,,,,,,,,,,,,,0,0,0,0,0
4.6173,1783190719.1101,1,1,1.0000,0.0000,1.44679,0.19370,-2.78713,1.02259,1.57079,0.00003,-0.14511,-0.38001,0.03646,,,,,,,,,,,,,,,,,,,,,,,,,,0,0,0,0,0
4.6271,1783190719.1199,1,1,1.0000,0.0000,1.44679,0.19369,-2.78713,1.02261,1.57079,0.00003,-0.14511,-0.38001,0.03646,,,,,,,,,,,,,,,,,,,,,,,,,,0,0,0,0,0
4.6275,1783190719.1204,1,1,1.0000,0.0000,1.44679,0.19369,-2.78713,1.02261,1.57079,0.00003,-0.14511,-0.38001,0.03646,,,,,,,,,,,,,,,,,,,,,,,,,,0,0,0,0,0
4.6402,1783190719.1330,1,1,1.0000,0.0000,1.44679,0.19358,-2.78716,1.02274,1.57079,0.00003,-0.14511,-0.38001,0.03643,,,,,,,,,,,,,,,,,,,,,,,,,,0,0,0,0,0
4.6405,1783190719.1333,1,1,1.0000,0.0000,1.44679,0.19358,-2.78716,1.02274,1.57079,0.00003,-0.14511,-0.38001,0.03643,,,,,,,,,,,,,,,,,,,,,,,,,,0,0,0,0,0
4.6473,1783190719.1402,1,1,1.0000,0.0000,1.44679,0.19346,-2.78718,1.02289,1.57079,0.00003,-0.14511,-0.38001,0.03640,,,,,,,,,,,,,,,,,,,,,,,,,,0,0,0,0,0
4.6651,1783190719.1579,1,1,1.0000,0.0000,1.44679,0.19329,-2.78722,1.02309,1.57079,0.00003,-0.14511,-0.38001,0.03636,,,,,,,,,,,,,,,,,,,,,,,,,,0,0,0,0,0
4.6675,1783190719.1603,1,1,1.0000,0.0000,1.44679,0.19329,-2.78722,1.02309,1.57079,0.00003,-0.14511,-0.38001,0.03636,,,,,,,,,,,,,,,,,,,,,,,,,,0,0,0,0,0
4.6678,1783190719.1606,1,1,1.0000,0.0000,1.44679,0.19329,-2.78722,1.02309,1.57079,0.00003,-0.14511,-0.38001,0.03636,,,,,,,,,,,,,,,,,,,,,,,,,,0,0,0,0,0
4.6775,1783190719.1703,1,1,1.0000,0.0000,1.44679,0.19307,-2.78727,1.02337,1.57079,0.00003,-0.14511,-0.38001,0.03631,,,,,,,,,,,,,,,,,,,,,,,,,,0,0,0,0,0
4.6989,1783190719.1917,1,1,1.0000,0.0000,1.44679,0.19295,-2.78730,1.02351,1.57079,0.00003,-0.14511,-0.38001,0.03628,,,,,,,,,,,,,,,,,,,,,,,,,,0,0,0,0,0
4.7053,1783190719.1981,1,1,1.0000,0.0000,1.44679,0.19283,-2.78733,1.02366,1.57079,0.00003,-0.14511,-0.38001,0.03625,,,,,,,,,,,,,,,,,,,,,,,,,,0,0,0,0,0
4.7057,1783190719.1985,1,1,1.0000,0.0000,1.44679,0.19283,-2.78733,1.02366,1.57079,0.00003,-0.14511,-0.38001,0.03625,,,,,,,,,,,,,,,,,,,,,,,,,,0,0,0,0,0
4.7105,1783190719.2034,1,1,1.0000,0.0000,1.44679,0.19283,-2.78733,1.02366,1.57079,0.00003,-0.14511,-0.38001,0.03625,,,,,,,,,,,,,,,,,,,,,,,,,,0,0,0,0,0
4.7224,1783190719.2153,1,1,1.0000,0.0000,1.44679,0.19273,-2.78735,1.02379,1.57079,0.00003,-0.14511,-0.38001,0.03622,,,,,,,,,,,,,,,,,,,,,,,,,,0,0,0,0,0
4.7380,1783190719.2308,1,1,1.0000,0.0000,1.44679,0.19244,-2.78742,1.02414,1.57079,0.00003,-0.14511,-0.38001,0.03615,,,,,,,,,,,,,,,,,,,,,,,,,,0,0,0,0,0
4.7515,1783190719.2444,1,1,1.0000,0.0000,1.44679,0.19239,-2.78743,1.02420,1.57079,0.00003,-0.14511,-0.38001,0.03614,,,,,,,,,,,,,,,,,,,,,,,,,,0,0,0,0,0
4.7519,1783190719.2447,1,1,1.0000,0.0000,1.44679,0.19239,-2.78743,1.02420,1.57079,0.00003,-0.14511,-0.38001,0.03614,,,,,,,,,,,,,,,,,,,,,,,,,,0,0,0,0,0
4.7585,1783190719.2513,1,1,1.0000,0.0000,1.44679,0.19228,-2.78745,1.02434,1.57079,0.00003,-0.14511,-0.38001,0.03611,,,,,,,,,,,,,,,,,,,,,,,,,,0,0,0,0,0
4.7670,1783190719.2598,1,1,1.0000,0.0000,1.44679,0.19213,-2.78749,1.02451,1.57079,0.00003,-0.14511,-0.38001,0.03608,,,,,,,,,,,,,,,,,,,,,,,,,,0,0,0,0,0
4.7674,1783190719.2602,1,1,1.0000,0.0000,1.44679,0.19213,-2.78749,1.02451,1.57079,0.00003,-0.14511,-0.38001,0.03608,,,,,,,,,,,,,,,,,,,,,,,,,,0,0,0,0,0
4.7772,1783190719.2701,1,1,1.0000,0.0000,1.44679,0.19209,-2.78750,1.02457,1.57079,0.00003,-0.14511,-0.38001,0.03606,,,,,,,,,,,,,,,,,,,,,,,,,,0,0,0,0,0
4.7776,1783190719.2705,1,1,1.0000,0.0000,1.44679,0.19209,-2.78750,1.02457,1.57079,0.00003,-0.14511,-0.38001,0.03606,,,,,,,,,,,,,,,,,,,,,,,,,,0,0,0,0,0
4.7989,1783190719.2918,1,1,1.0000,0.0000,1.44679,0.19176,-2.78757,1.02498,1.57079,0.00003,-0.14511,-0.38001,0.03598,,,,,,,,,,,,,,,,,,,,,,,,,,0,0,0,0,0
4.8020,1783190719.2948,1,1,1.0000,0.0000,1.44679,0.19176,-2.78757,1.02498,1.57079,0.00003,-0.14511,-0.38001,0.03598,,,,,,,,,,,,,,,,,,,,,,,,,,0,0,0,0,0
4.8098,1783190719.3026,1,1,1.0000,0.0000,1.44679,0.19171,-2.78758,1.02504,1.57079,0.00003,-0.14511,-0.38001,0.03597,,,,,,,,,,,,,,,,,,,,,,,,,,0,0,0,0,0
4.8181,1783190719.3109,1,1,1.0000,0.0000,1.44679,0.19159,-2.78761,1.02518,1.57079,0.00003,-0.14511,-0.38001,0.03594,,,,,,,,,,,,,,,,,,,,,,,,,,0,0,0,0,0
4.8294,1783190719.3222,1,1,1.0000,0.0000,1.44679,0.19145,-2.78764,1.02536,1.57079,0.00003,-0.14511,-0.38001,0.03591,,,,,,,,,,,,,,,,,,,,,,,,,,0,0,0,0,0
4.8376,1783190719.3304,1,1,1.0000,0.0000,1.44679,0.19140,-2.78765,1.02541,1.57079,0.00003,-0.14511,-0.38001,0.03590,,,,,,,,,,,,,,,,,,,,,,,,,,0,0,0,0,0
4.8515,1783190719.3444,1,1,1.0000,0.0000,1.44679,0.19121,-2.78770,1.02564,1.57079,0.00003,-0.14511,-0.38001,0.03585,,,,,,,,,,,,,,,,,,,,,,,,,,0,0,0,0,0
4.8520,1783190719.3448,1,1,1.0000,0.0000,1.44679,0.19121,-2.78770,1.02564,1.57079,0.00003,-0.14511,-0.38001,0.03585,,,,,,,,,,,,,,,,,,,,,,,,,,0,0,0,0,0
4.8580,1783190719.3509,1,1,1.0000,0.0000,1.44679,0.19107,-2.78773,1.02582,1.57079,0.00003,-0.14511,-0.38001,0.03581,,,,,,,,,,,,,,,,,,,,,,,,,,0,0,0,0,0
4.8825,1783190719.3753,1,1,1.0000,0.0000,1.44679,0.19084,-2.78778,1.02611,1.57079,0.00003,-0.14511,-0.38001,0.03576,,,,,,,,,,,,,,,,,,,,,,,,,,0,0,0,0,0
4.8872,1783190719.3800,1,1,1.0000,0.0000,1.44679,0.19076,-2.78780,1.02620,1.57079,0.00003,-0.14511,-0.38001,0.03574,,,,,,,,,,,,,,,,,,,,,,,,,,0,0,0,0,0
4.9035,1783190719.3964,1,1,1.0000,0.0000,1.44679,0.19066,-2.78782,1.02632,1.57079,0.00003,-0.14511,-0.38001,0.03571,,,,,,,,,,,,,,,,,,,,,,,,,,0,0,0,0,0
4.9154,1783190719.4083,1,1,1.0000,0.0000,1.44679,0.19045,-2.78787,1.02658,1.57079,0.00003,-0.14511,-0.38001,0.03566,,,,,,,,,,,,,,,,,,,,,,,,,,0,0,0,0,0
4.9172,1783190719.4100,1,1,1.0000,0.0000,1.44679,0.19038,-2.78789,1.02666,1.57079,0.00003,-0.14511,-0.38001,0.03564,,,,,,,,,,,,,,,,,,,,,,,,,,0,0,0,0,0
4.9174,1783190719.4102,1,1,1.0000,0.0000,1.44679,0.19038,-2.78789,1.02666,1.57079,0.00003,-0.14511,-0.38001,0.03564,,,,,,,,,,,,,,,,,,,,,,,,,,0,0,0,0,0
4.9272,1783190719.4201,1,1,1.0000,0.0000,1.44679,0.19037,-2.78789,1.02668,1.57079,0.00003,-0.14511,-0.38001,0.03564,,,,,,,,,,,,,,,,,,,,,,,,,,0,0,0,0,0
4.9372,1783190719.4300,1,1,1.0000,0.0000,1.44679,0.19022,-2.78792,1.02686,1.57079,0.00003,-0.14511,-0.38001,0.03560,,,,,,,,,,,,,,,,,,,,,,,,,,0,0,0,0,0
4.9543,1783190719.4471,1,1,1.0000,0.0000,1.44679,0.19006,-2.78796,1.02706,1.57079,0.00003,-0.14511,-0.38001,0.03557,,,,,,,,,,,,,,,,,,,,,,,,,,0,0,0,0,0
4.9739,1783190719.4667,1,1,1.0000,0.0000,1.44679,0.18977,-2.78803,1.02742,1.57079,0.00003,-0.14511,-0.38001,0.03549,,,,,,,,,,,,,,,,,,,,,,,,,,0,0,0,0,0
4.9742,1783190719.4670,1,1,1.0000,0.0000,1.44679,0.18977,-2.78803,1.02742,1.57079,0.00003,-0.14511,-0.38001,0.03549,,,,,,,,,,,,,,,,,,,,,,,,,,0,0,0,0,0
4.9775,1783190719.4703,1,1,1.0000,0.0000,1.44679,0.18970,-2.78804,1.02751,1.57079,0.00003,-0.14511,-0.38001,0.03548,,,,,,,,,,,,,,,,,,,,,,,,,,0,0,0,0,0
4.9778,1783190719.4706,1,1,1.0000,0.0000,1.44679,0.18970,-2.78804,1.02751,1.57079,0.00003,-0.14511,-0.38001,0.03548,,,,,,,,,,,,,,,,,,,,,,,,,,0,0,0,0,0
4.9878,1783190719.4806,1,1,1.0000,0.0000,1.44679,0.18968,-2.78805,1.02752,1.57079,0.00003,-0.14511,-0.38001,0.03547,,,,,,,,,,,,,,,,,,,,,,,,,,0,0,0,0,0
5.0014,1783190719.4942,1,1,1.0000,0.0000,1.44679,0.18946,-2.78810,1.02780,1.57079,0.00003,-0.14511,-0.38001,0.03542,,,,,,,,,,,,,,,,,,,,,,,,,,0,0,0,0,0
5.0081,1783190719.5009,1,1,1.0000,0.0000,1.44679,0.18939,-2.78811,1.02789,1.57079,0.00003,-0.14511,-0.38001,0.03540,,,,,,,,,,,,,,,,,,,,,,,,,,0,0,0,0,0
5.0172,1783190719.5100,1,1,1.0000,0.0000,1.44679,0.18931,-2.78813,1.02799,1.57079,0.00003,-0.14511,-0.38001,0.03538,,,,,,,,,,,,,,,,,,,,,,,,,,0,0,0,0,0
5.0175,1783190719.5103,1,1,1.0000,0.0000,1.44679,0.18931,-2.78813,1.02799,1.57079,0.00003,-0.14511,-0.38001,0.03538,,,,,,,,,,,,,,,,,,,,,,,,,,0,0,0,0,0
5.0289,1783190719.5217,1,1,1.0000,0.0000,1.44679,0.18924,-2.78815,1.02806,1.57079,0.00003,-0.14511,-0.38001,0.03536,,,,,,,,,,,,,,,,,,,,,,,,,,0,0,0,0,0
5.0294,1783190719.5222,1,1,1.0000,0.0000,1.44679,0.18919,-2.78816,1.02812,1.57079,0.00003,-0.14511,-0.38001,0.03535,,,,,,,,,,,,,,,,,,,,,,,,,,0,0,0,0,0
5.0400,1783190719.5328,1,1,1.0000,0.0000,1.44679,0.18907,-2.78818,1.02827,1.57079,0.00003,-0.14511,-0.38001,0.03532,,,,,,,,,,,,,,,,,,,,,,,,,,0,0,0,0,0
5.0403,1783190719.5332,1,1,1.0000,0.0000,1.44679,0.18907,-2.78818,1.02827,1.57079,0.00003,-0.14511,-0.38001,0.03532,,,,,,,,,,,,,,,,,,,,,,,,,,0,0,0,0,0
5.0616,1783190719.5544,1,1,1.0000,0.0000,1.44679,0.18883,-2.78824,1.02857,1.57079,0.00003,-0.14511,-0.38001,0.03526,,,,,,,,,,,,,,,,,,,,,,,,,,0,0,0,0,0
5.0673,1783190719.5601,1,1,1.0000,0.0000,1.44679,0.18875,-2.78826,1.02866,1.57079,0.00003,-0.14511,-0.38001,0.03524,,,,,,,,,,,,,,,,,,,,,,,,,,0,0,0,0,0
5.0774,1783190719.5702,1,1,1.0000,0.0000,1.44679,0.18867,-2.78827,1.02876,1.57079,0.00003,-0.14511,-0.38001,0.03522,,,,,,,,,,,,,,,,,,,,,,,,,,0,0,0,0,0
5.0776,1783190719.5705,1,1,1.0000,0.0000,1.44679,0.18867,-2.78827,1.02876,1.57079,0.00003,-0.14511,-0.38001,0.03522,,,,,,,,,,,,,,,,,,,,,,,,,,0,0,0,0,0
5.0893,1783190719.5821,1,1,1.0000,0.0000,1.44679,0.18856,-2.78830,1.02890,1.57079,0.00003,-0.14511,-0.38001,0.03520,,,,,,,,,,,,,,,,,,,,,,,,,,0,0,0,0,0
5.1054,1783190719.5982,1,1,1.0000,0.0000,1.44679,0.18843,-2.78833,1.02906,1.57079,0.00003,-0.14511,-0.38001,0.03516,,,,,,,,,,,,,,,,,,,,,,,,,,0,0,0,0,0
5.1057,1783190719.5985,1,1,1.0000,0.0000,1.44679,0.18843,-2.78833,1.02906,1.57079,0.00003,-0.14511,-0.38001,0.03516,,,,,,,,,,,,,,,,,,,,,,,,,,0,0,0,0,0
5.1097,1783190719.6025,1,1,1.0000,0.0000,1.44679,0.18839,-2.78834,1.02911,1.57079,0.00003,-0.14511,-0.38001,0.03516,,,,,,,,,,,,,,,,,,,,,,,,,,0,0,0,0,0
5.1178,1783190719.6106,1,1,1.0000,0.0000,1.44679,0.18827,-2.78836,1.02925,1.57079,0.00003,-0.14511,-0.38001,0.03513,,,,,,,,,,,,,,,,,,,,,,,,,,0,0,0,0,0
5.1182,1783190719.6110,1,1,1.0000,0.0000,1.44679,0.18827,-2.78836,1.02925,1.57079,0.00003,-0.14511,-0.38001,0.03513,,,,,,,,,,,,,,,,,,,,,,,,,,0,0,0,0,0
5.1293,1783190719.6222,1,1,1.0000,0.0000,1.44679,0.18805,-2.78841,1.02952,1.57079,0.00004,-0.14511,-0.38001,0.03507,,,,,,,,,,,,,,,,,,,,,,,,,,0,0,0,0,0
5.1387,1783190719.6315,1,1,1.0000,0.0000,1.44679,0.18804,-2.78842,1.02954,1.57079,0.00004,-0.14511,-0.38001,0.03507,,,,,,,,,,,,,,,,,,,,,,,,,,0,0,0,0,0
5.1613,1783190719.6541,1,1,1.0000,0.0000,1.44679,0.18781,-2.78847,1.02982,1.57079,0.00004,-0.14511,-0.38001,0.03501,,,,,,,,,,,,,,,,,,,,,,,,,,0,0,0,0,0
5.1617,1783190719.6545,1,1,1.0000,0.0000,1.44679,0.18781,-2.78847,1.02982,1.57079,0.00004,-0.14511,-0.38001,0.03501,,,,,,,,,,,,,,,,,,,,,,,,,,0,0,0,0,0
5.1685,1783190719.6613,1,1,1.0000,0.0000,1.44679,0.18780,-2.78847,1.02984,1.57079,0.00004,-0.14511,-0.38001,0.03501,,,,,,,,,,,,,,,,,,,,,,,,,,0,0,0,0,0
5.1790,1783190719.6718,1,1,1.0000,0.0000,1.44679,0.18764,-2.78851,1.03003,1.57079,0.00004,-0.14511,-0.38001,0.03497,,,,,,,,,,,,,,,,,,,,,,,,,,0,0,0,0,0
5.1874,1783190719.6803,1,1,1.0000,0.0000,1.44679,0.18749,-2.78854,1.03021,1.57079,0.00004,-0.14511,-0.38001,0.03493,,,,,,,,,,,,,,,,,,,,,,,,,,0,0,0,0,0
