Martins-Lucaas/twinforge/sensors/Data/20260713_161051__samples.csv
t_rel_s,t_unix,cycle,phase,setpoint_n,force_net_n,q1,q2,q3,q4,q5,q6,tcp_x,tcp_y,tcp_z,taxel_0,taxel_1,taxel_2,taxel_3,taxel_4,taxel_5,taxel_6,taxel_7,taxel_8,taxel_9,taxel_10,taxel_11,taxel_12,taxel_13,taxel_14,taxel_15,taxel_16,taxel_17,taxel_18,taxel_19,taxel_20,taxel_21,taxel_22,taxel_23,taxel_24,n_RA,n_SA,cn_mm,cn_ra,cn_sa
0.0055,1783969851.7723,1,0,0.5000,-0.0000,1.42244,0.00067,-2.63054,1.05916,1.57081,0.11674,-0.12763,-0.48153,0.03738,,,,,,,,,,,,,,,,,,,,,,,,,,0,0,0,0,0
0.0172,1783969851.7840,1,0,0.5000,-0.0000,1.42244,0.00067,-2.63054,1.05916,1.57081,0.11674,-0.12763,-0.48153,0.03738,,,,,,,,,,,,,,,,,,,,,,,,,,0,0,0,0,0
0.0276,1783969851.7944,1,0,0.5000,-0.0000,1.42244,0.00068,-2.63054,1.05915,1.57081,0.11675,-0.12763,-0.48153,0.03738,,,,,,,,,,,,,,,,,,,,,,,,,,0,0,0,0,0
0.0348,1783969851.8016,1,0,0.5000,-0.0000,1.42244,0.00068,-2.63054,1.05914,1.57081,0.11675,-0.12763,-0.48153,0.03738,,,,,,,,,,,,,,,,,,,,,,,,,,0,0,0,0,0
0.0424,1783969851.8092,1,0,0.5000,-0.0000,1.42244,0.00069,-2.63054,1.05912,1.57080,0.11675,-0.12763,-0.48153,0.03738,,,,,,,,,,,,,,,,,,,,,,,,,,0,0,0,0,0
0.0542,1783969851.8210,1,0,0.5000,-0.0000,1.42244,0.00070,-2.63053,1.05909,1.57080,0.11675,-0.12763,-0.48152,0.03738,,,,,,,,,,,,,,,,,,,,,,,,,,0,0,0,0,0
0.0678,1783969851.8345,1,0,0.5000,-0.0000,1.42244,0.00071,-2.63053,1.05907,1.57080,0.11675,-0.12764,-0.48152,0.03738,,,,,,,,,,,,,,,,,,,,,,,,,,0,0,0,0,0
0.0734,1783969851.8401,1,0,0.5000,-0.0000,1.42244,0.00071,-2.63053,1.05907,1.57080,0.11675,-0.12764,-0.48152,0.03738,,,,,,,,,,,,,,,,,,,,,,,,,,0,0,0,0,0
0.0836,1783969851.8504,1,0,0.5000,-0.0000,1.42244,0.00071,-2.63053,1.05907,1.57080,0.11675,-0.12764,-0.48152,0.03738,,,,,,,,,,,,,,,,,,,,,,,,,,0,0,0,0,0
0.0944,1783969851.8612,1,0,0.5000,-0.0000,1.42244,0.00071,-2.63053,1.05907,1.57080,0.11675,-0.12764,-0.48152,0.03738,,,,,,,,,,,,,,,,,,,,,,,,,,0,0,0,0,0
0.1083,1783969851.8751,1,0,0.5000,-0.0000,1.42244,0.00071,-2.63053,1.05907,1.57080,0.11675,-0.12764,-0.48152,0.03738,,,,,,,,,,,,,,,,,,,,,,,,,,0,0,0,0,0
0.1139,1783969851.8807,1,0,0.5000,-0.0000,1.42244,0.00071,-2.63053,1.05907,1.57080,0.11675,-0.12764,-0.48152,0.03738,,,,,,,,,,,,,,,,,,,,,,,,,,0,0,0,0,0
0.1142,1783969851.8810,1,0,0.5000,-0.0000,1.42244,0.00071,-2.63053,1.05907,1.57080,0.11675,-0.12764,-0.48152,0.03738,,,,,,,,,,,,,,,,,,,,,,,,,,0,0,0,0,0
0.1236,1783969851.8904,1,0,0.5000,-0.0000,1.42244,0.00071,-2.63053,1.05907,1.57080,0.11675,-0.12764,-0.48152,0.03738,,,,,,,,,,,,,,,,,,,,,,,,,,0,0,0,0,0
0.1350,1783969851.9017,1,0,0.5000,-0.0000,1.42244,0.00071,-2.63053,1.05907,1.57080,0.11675,-0.12764,-0.48152,0.03738,,,,,,,,,,,,,,,,,,,,,,,,,,0,0,0,0,0
0.1471,1783969851.9138,1,0,0.5000,-0.0000,1.42244,0.00071,-2.63053,1.05907,1.57080,0.11675,-0.12764,-0.48152,0.03738,,,,,,,,,,,,,,,,,,,,,,,,,,0,0,0,0,0
0.1554,1783969851.9222,1,0,0.5000,-0.0000,1.42244,0.00071,-2.63053,1.05907,1.57080,0.11675,-0.12764,-0.48152,0.03738,,,,,,,,,,,,,,,,,,,,,,,,,,0,0,0,0,0
0.1644,1783969851.9312,1,0,0.5000,-0.0000,1.42244,0.00071,-2.63053,1.05907,1.57080,0.11675,-0.12764,-0.48152,0.03738,,,,,,,,,,,,,,,,,,,,,,,,,,0,0,0,0,0
0.1744,1783969851.9412,1,0,0.5000,-0.0000,1.42244,0.00071,-2.63053,1.05907,1.57080,0.11675,-0.12764,-0.48152,0.03738,,,,,,,,,,,,,,,,,,,,,,,,,,0,0,0,0,0
0.1749,1783969851.9417,1,0,0.5000,-0.0000,1.42244,0.00071,-2.63053,1.05907,1.57080,0.11675,-0.12764,-0.48152,0.03738,,,,,,,,,,,,,,,,,,,,,,,,,,0,0,0,0,0
0.1875,1783969851.9543,1,0,0.5000,-0.0000,1.42244,0.00071,-2.63053,1.05907,1.57080,0.11675,-0.12764,-0.48152,0.03738,,,,,,,,,,,,,,,,,,,,,,,,,,0,0,0,0,0
0.2250,1783969851.9917,1,0,0.5000,-0.0000,1.42244,0.00071,-2.63053,1.05907,1.57080,0.11675,-0.12764,-0.48152,0.03738,,,,,,,,,,,,,,,,,,,,,,,,,,0,0,0,0,0
0.2262,1783969851.9929,1,0,0.5000,-0.0000,1.42244,0.00071,-2.63053,1.05907,1.57080,0.11675,-0.12764,-0.48152,0.03738,,,,,,,,,,,,,,,,,,,,,,,,,,0,0,0,0,0
0.2276,1783969851.9944,1,0,0.5000,-0.0000,1.42244,0.00071,-2.63053,1.05907,1.57080,0.11675,-0.12764,-0.48152,0.03738,,,,,,,,,,,,,,,,,,,,,,,,,,0,0,0,0,0
0.2279,1783969851.9947,1,0,0.5000,-0.0000,1.42244,0.00071,-2.63053,1.05907,1.57080,0.11675,-0.12764,-0.48152,0.03738,,,,,,,,,,,,,,,,,,,,,,,,,,0,0,0,0,0
0.2288,1783969851.9955,1,0,0.5000,-0.0000,1.42244,0.00071,-2.63053,1.05907,1.57080,0.11675,-0.12764,-0.48152,0.03738,,,,,,,,,,,,,,,,,,,,,,,,,,0,0,0,0,0
0.2291,1783969851.9959,1,0,0.5000,-0.0000,1.42244,0.00071,-2.63053,1.05907,1.57080,0.11675,-0.12764,-0.48152,0.03738,,,,,,,,,,,,,,,,,,,,,,,,,,0,0,0,0,0
0.2380,1783969852.0048,1,0,0.5000,-0.0000,1.42244,0.00071,-2.63053,1.05907,1.57080,0.11675,-0.12764,-0.48152,0.03738,,,,,,,,,,,,,,,,,,,,,,,,,,0,0,0,0,0
0.2494,1783969852.0162,1,0,0.5000,-0.0000,1.42244,0.00071,-2.63053,1.05907,1.57080,0.11675,-0.12764,-0.48152,0.03738,,,,,,,,,,,,,,,,,,,,,,,,,,0,0,0,0,0
0.2542,1783969852.0209,1,0,0.5000,-0.0000,1.42244,0.00071,-2.63053,1.05907,1.57080,0.11675,-0.12764,-0.48152,0.03738,,,,,,,,,,,,,,,,,,,,,,,,,,0,0,0,0,0
0.2545,1783969852.0213,1,0,0.5000,-0.0000,1.42244,0.00071,-2.63053,1.05907,1.57080,0.11675,-0.12764,-0.48152,0.03738,,,,,,,,,,,,,,,,,,,,,,,,,,0,0,0,0,0
0.2668,1783969852.0336,1,0,0.5000,-0.0000,1.42244,0.00071,-2.63053,1.05907,1.57080,0.11675,-0.12764,-0.48152,0.03738,,,,,,,,,,,,,,,,,,,,,,,,,,0,0,0,0,0
0.2732,1783969852.0399,1,0,0.5000,-0.0000,1.42244,0.00071,-2.63053,1.05907,1.57080,0.11675,-0.12764,-0.48152,0.03738,,,,,,,,,,,,,,,,,,,,,,,,,,0,0,0,0,0
0.2848,1783969852.0516,1,0,0.5000,-0.0000,1.42244,0.00071,-2.63053,1.05907,1.57080,0.11675,-0.12764,-0.48152,0.03738,,,,,,,,,,,,,,,,,,,,,,,,,,0,0,0,0,0
0.2950,1783969852.0618,1,0,0.5000,-0.0000,1.42244,0.00071,-2.63053,1.05907,1.57080,0.11675,-0.12764,-0.48152,0.03738,,,,,,,,,,,,,,,,,,,,,,,,,,0,0,0,0,0
0.3039,1783969852.0707,1,0,0.5000,-0.0000,1.42244,0.00071,-2.63053,1.05907,1.57080,0.11675,-0.12764,-0.48152,0.03738,,,,,,,,,,,,,,,,,,,,,,,,,,0,0,0,0,0
0.3043,1783969852.0711,1,0,0.5000,-0.0000,1.42244,0.00071,-2.63053,1.05907,1.57080,0.11675,-0.12764,-0.48152,0.03738,,,,,,,,,,,,,,,,,,,,,,,,,,0,0,0,0,0
0.3155,1783969852.0823,1,0,0.5000,-0.0000,1.42244,0.00071,-2.63053,1.05907,1.57080,0.11675,-0.12764,-0.48152,0.03738,,,,,,,,,,,,,,,,,,,,,,,,,,0,0,0,0,0
0.3320,1783969852.0988,1,0,0.5000,-0.0000,1.42244,0.00071,-2.63053,1.05907,1.57080,0.11675,-0.12764,-0.48152,0.03738,,,,,,,,,,,,,,,,,,,,,,,,,,0,0,0,0,0
0.3355,1783969852.1023,1,0,0.5000,-0.0000,1.42244,0.00071,-2.63053,1.05907,1.57080,0.11675,-0.12764,-0.48152,0.03738,,,,,,,,,,,,,,,,,,,,,,,,,,0,0,0,0,0
0.3449,1783969852.1117,1,0,0.5000,-0.0000,1.42244,0.00071,-2.63053,1.05907,1.57080,0.11675,-0.12764,-0.48152,0.03738,,,,,,,,,,,,,,,,,,,,,,,,,,0,0,0,0,0
0.3532,1783969852.1200,1,0,0.5000,-0.0000,1.42244,0.00071,-2.63053,1.05907,1.57080,0.11675,-0.12764,-0.48152,0.03738,,,,,,,,,,,,,,,,,,,,,,,,,,0,0,0,0,0
0.3537,1783969852.1204,1,0,0.5000,-0.0000,1.42244,0.00071,-2.63053,1.05907,1.57080,0.11675,-0.12764,-0.48152,0.03738,,,,,,,,,,,,,,,,,,,,,,,,,,0,0,0,0,0
0.3637,1783969852.1305,1,0,0.5000,-0.0000,1.42244,0.00071,-2.63053,1.05907,1.57080,0.11675,-0.12764,-0.48152,0.03738,,,,,,,,,,,,,,,,,,,,,,,,,,0,0,0,0,0
0.3751,1783969852.1418,1,0,0.5000,-0.0000,1.42244,0.00071,-2.63053,1.05907,1.57080,0.11675,-0.12764,-0.48152,0.03738,,,,,,,,,,,,,,,,,,,,,,,,,,0,0,0,0,0
0.3867,1783969852.1535,1,0,0.5000,-0.0000,1.42244,0.00071,-2.63053,1.05907,1.57080,0.11675,-0.12764,-0.48152,0.03738,,,,,,,,,,,,,,,,,,,,,,,,,,0,0,0,0,0
0.3951,1783969852.1619,1,0,0.5000,-0.0000,1.42244,0.00071,-2.63053,1.05907,1.57080,0.11675,-0.12764,-0.48152,0.03738,,,,,,,,,,,,,,,,,,,,,,,,,,0,0,0,0,0
0.4069,1783969852.1737,1,0,0.5000,-0.0000,1.42244,0.00071,-2.63053,1.05907,1.57080,0.11675,-0.12764,-0.48152,0.03738,,,,,,,,,,,,,,,,,,,,,,,,,,0,0,0,0,0
0.4178,1783969852.1846,1,0,0.5000,-0.0000,1.42244,0.00071,-2.63053,1.05907,1.57080,0.11675,-0.12764,-0.48152,0.03738,,,,,,,,,,,,,,,,,,,,,,,,,,0,0,0,0,0
0.4281,1783969852.1949,1,0,0.5000,-0.0000,1.42244,0.00071,-2.63053,1.05907,1.57080,0.11675,-0.12764,-0.48152,0.03738,,,,,,,,,,,,,,,,,,,,,,,,,,0,0,0,0,0
0.4380,1783969852.2048,1,0,0.5000,-0.0000,1.42244,0.00071,-2.63053,1.05907,1.57080,0.11675,-0.12764,-0.48152,0.03738,,,,,,,,,,,,,,,,,,,,,,,,,,0,0,0,0,0
0.4451,1783969852.2119,1,0,0.5000,-0.0000,1.42244,0.00071,-2.63053,1.05907,1.57080,0.11675,-0.12764,-0.48152,0.03738,,,,,,,,,,,,,,,,,,,,,,,,,,0,0,0,0,0
0.4459,1783969852.2127,1,0,0.5000,-0.0000,1.42244,0.00071,-2.63053,1.05907,1.57080,0.11675,-0.12764,-0.48152,0.03738,,,,,,,,,,,,,,,,,,,,,,,,,,0,0,0,0,0
0.4569,1783969852.2237,1,0,0.5000,-0.0000,1.42244,0.00071,-2.63053,1.05907,1.57080,0.11675,-0.12764,-0.48152,0.03738,,,,,,,,,,,,,,,,,,,,,,,,,,0,0,0,0,0
0.4807,1783969852.2475,1,0,0.5000,-0.0000,1.42244,0.00071,-2.63053,1.05907,1.57080,0.11675,-0.12764,-0.48152,0.03738,,,,,,,,,,,,,,,,,,,,,,,,,,0,0,0,0,0
0.4828,1783969852.2496,1,0,0.5000,-0.0000,1.42244,0.00071,-2.63053,1.05907,1.57080,0.11675,-0.12764,-0.48152,0.03738,,,,,,,,,,,,,,,,,,,,,,,,,,0,0,0,0,0
0.4833,1783969852.2501,1,0,0.5000,-0.0000,1.42244,0.00071,-2.63053,1.05907,1.57080,0.11675,-0.12764,-0.48152,0.03738,,,,,,,,,,,,,,,,,,,,,,,,,,0,0,0,0,0
0.4979,1783969852.2647,1,0,0.5000,-0.0000,1.42244,0.00071,-2.63053,1.05907,1.57080,0.11675,-0.12764,-0.48152,0.03738,,,,,,,,,,,,,,,,,,,,,,,,,,0,0,0,0,0
0.4982,1783969852.2649,1,0,0.5000,-0.0000,1.42244,0.00071,-2.63053,1.05907,1.57080,0.11675,-0.12764,-0.48152,0.03738,,,,,,,,,,,,,,,,,,,,,,,,,,0,0,0,0,0
0.5228,1783969852.2895,1,0,0.5000,-0.0000,1.42244,0.00071,-2.63053,1.05907,1.57080,0.11675,-0.12764,-0.48152,0.03738,,,,,,,,,,,,,,,,,,,,,,,,,,0,0,0,0,0
0.5278,1783969852.2946,1,0,0.5000,-0.0000,1.42244,0.00071,-2.63053,1.05907,1.57080,0.11675,-0.12764,-0.48152,0.03738,,,,,,,,,,,,,,,,,,,,,,,,,,0,0,0,0,0
0.5292,1783969852.2959,1,0,0.5000,-0.0000,1.42244,0.00071,-2.63053,1.05907,1.57080,0.11675,-0.12764,-0.48152,0.03738,,,,,,,,,,,,,,,,,,,,,,,,,,0,0,0,0,0
0.5298,1783969852.2965,1,0,0.5000,-0.0000,1.42244,0.00071,-2.63053,1.05907,1.57080,0.11675,-0.12764,-0.48152,0.03738,,,,,,,,,,,,,,,,,,,,,,,,,,0,0,0,0,0
0.5299,1783969852.2967,1,0,0.5000,-0.0000,1.42244,0.00071,-2.63053,1.05907,1.57080,0.11675,-0.12764,-0.48152,0.03738,,,,,,,,,,,,,,,,,,,,,,,,,,0,0,0,0,0
0.5465,1783969852.3133,1,0,0.5000,-0.0000,1.42244,0.00071,-2.63053,1.05907,1.57080,0.11675,-0.12764,-0.48152,0.03738,,,,,,,,,,,,,,,,,,,,,,,,,,0,0,0,0,0
0.5594,1783969852.3262,1,0,0.5000,-0.0000,1.42244,0.00071,-2.63053,1.05907,1.57080,0.11675,-0.12764,-0.48152,0.03738,,,,,,,,,,,,,,,,,,,,,,,,,,0,0,0,0,0
0.5608,1783969852.3276,1,0,0.5000,-0.0000,1.42244,0.00071,-2.63053,1.05907,1.57080,0.11675,-0.12764,-0.48152,0.03738,,,,,,,,,,,,,,,,,,,,,,,,,,0,0,0,0,0
0.5611,1783969852.3279,1,0,0.5000,-0.0000,1.42244,0.00071,-2.63053,1.05907,1.57080,0.11675,-0.12764,-0.48152,0.03738,,,,,,,,,,,,,,,,,,,,,,,,,,0,0,0,0,0
0.5673,1783969852.3341,1,0,0.5000,-0.0000,1.42244,0.00071,-2.63053,1.05907,1.57080,0.11675,-0.12764,-0.48152,0.03738,,,,,,,,,,,,,,,,,,,,,,,,,,0,0,0,0,0
0.5809,1783969852.3476,1,0,0.5000,-0.0000,1.42244,0.00071,-2.63053,1.05907,1.57080,0.11675,-0.12764,-0.48152,0.03738,,,,,,,,,,,,,,,,,,,,,,,,,,0,0,0,0,0
0.5865,1783969852.3533,1,0,0.5000,-0.0000,1.42244,0.00071,-2.63053,1.05907,1.57080,0.11675,-0.12764,-0.48152,0.03738,,,,,,,,,,,,,,,,,,,,,,,,,,0,0,0,0,0
0.5869,1783969852.3537,1,0,0.5000,-0.0000,1.42244,0.00071,-2.63053,1.05907,1.57080,0.11675,-0.12764,-0.48152,0.03738,,,,,,,,,,,,,,,,,,,,,,,,,,0,0,0,0,0
0.5991,1783969852.3659,1,0,0.5000,-0.0000,1.42244,0.00071,-2.63053,1.05907,1.57080,0.11675,-0.12764,-0.48152,0.03738,,,,,,,,,,,,,,,,,,,,,,,,,,0,0,0,0,0
0.5994,1783969852.3662,1,0,0.5000,-0.0000,1.42244,0.00071,-2.63053,1.05907,1.57080,0.11675,-0.12764,-0.48152,0.03738,,,,,,,,,,,,,,,,,,,,,,,,,,0,0,0,0,0
0.6074,1783969852.3742,1,0,0.5000,-0.0000,1.42244,0.00071,-2.63053,1.05907,1.57080,0.11675,-0.12764,-0.48152,0.03738,,,,,,,,,,,,,,,,,,,,,,,,,,0,0,0,0,0
0.6190,1783969852.3857,1,0,0.5000,-0.0000,1.42244,0.00071,-2.63053,1.05907,1.57080,0.11675,-0.12764,-0.48152,0.03738,,,,,,,,,,,,,,,,,,,,,,,,,,0,0,0,0,0
0.6194,1783969852.3862,1,0,0.5000,-0.0000,1.42244,0.00071,-2.63053,1.05907,1.57080,0.11675,-0.12764,-0.48152,0.03738,,,,,,,,,,,,,,,,,,,,,,,,,,0,0,0,0,0
0.6303,1783969852.3971,1,0,0.5000,-0.0000,1.42244,0.00071,-2.63053,1.05907,1.57080,0.11675,-0.12764,-0.48152,0.03738,,,,,,,,,,,,,,,,,,,,,,,,,,0,0,0,0,0
0.6305,1783969852.3973,1,0,0.5000,-0.0000,1.42244,0.00071,-2.63053,1.05907,1.57080,0.11675,-0.12764,-0.48152,0.03738,,,,,,,,,,,,,,,,,,,,,,,,,,0,0,0,0,0
0.6379,1783969852.4047,1,0,0.5000,-0.0000,1.42244,0.00071,-2.63053,1.05907,1.57080,0.11675,-0.12764,-0.48152,0.03738,,,,,,,,,,,,,,,,,,,,,,,,,,0,0,0,0,0
0.6472,1783969852.4139,1,0,0.5000,-0.0000,1.42244,0.00071,-2.63053,1.05907,1.57080,0.11675,-0.12764,-0.48152,0.03738,,,,,,,,,,,,,,,,,,,,,,,,,,0,0,0,0,0
0.6474,1783969852.4142,1,0,0.5000,-0.0000,1.42244,0.00071,-2.63053,1.05907,1.57080,0.11675,-0.12764,-0.48152,0.03738,,,,,,,,,,,,,,,,,,,,,,,,,,0,0,0,0,0
0.6585,1783969852.4253,1,0,0.5000,-0.0000,1.42244,0.00071,-2.63053,1.05907,1.57080,0.11675,-0.12764,-0.48152,0.03738,,,,,,,,,,,,,,,,,,,,,,,,,,0,0,0,0,0
0.6665,1783969852.4333,1,0,0.5000,-0.0000,1.42244,0.00071,-2.63053,1.05907,1.57080,0.11675,-0.12764,-0.48152,0.03738,,,,,,,,,,,,,,,,,,,,,,,,,,0,0,0,0,0
0.6669,1783969852.4337,1,0,0.5000,-0.0000,1.42244,0.00071,-2.63053,1.05907,1.57080,0.11675,-0.12764,-0.48152,0.03738,,,,,,,,,,,,,,,,,,,,,,,,,,0,0,0,0,0
0.6802,1783969852.4470,1,0,0.5000,-0.0000,1.42244,0.00071,-2.63053,1.05907,1.57080,0.11675,-0.12764,-0.48152,0.03738,,,,,,,,,,,,,,,,,,,,,,,,,,0,0,0,0,0
0.6930,1783969852.4598,1,0,0.5000,-0.0000,1.42244,0.00071,-2.63053,1.05907,1.57080,0.11675,-0.12764,-0.48152,0.03738,,,,,,,,,,,,,,,,,,,,,,,,,,0,0,0,0,0
0.6998,1783969852.4666,1,0,0.5000,-0.0000,1.42244,0.00071,-2.63053,1.05907,1.57080,0.11675,-0.12764,-0.48152,0.03738,,,,,,,,,,,,,,,,,,,,,,,,,,0,0,0,0,0
0.7002,1783969852.4670,1,0,0.5000,-0.0000,1.42244,0.00071,-2.63053,1.05907,1.57080,0.11675,-0.12764,-0.48152,0.03738,,,,,,,,,,,,,,,,,,,,,,,,,,0,0,0,0,0
0.7056,1783969852.4724,1,0,0.5000,-0.0000,1.42244,0.00071,-2.63053,1.05907,1.57080,0.11675,-0.12764,-0.48152,0.03738,,,,,,,,,,,,,,,,,,,,,,,,,,0,0,0,0,0
0.7232,1783969852.4900,1,0,0.5000,-0.0000,1.42244,0.00071,-2.63053,1.05907,1.57080,0.11675,-0.12764,-0.48152,0.03738,,,,,,,,,,,,,,,,,,,,,,,,,,0,0,0,0,0
0.7339,1783969852.5007,1,1,0.5000,-0.0000,1.42244,0.00071,-2.63053,1.05907,1.57080,0.11675,-0.12764,-0.48152,0.03738,,,,,,,,,,,,,,,,,,,,,,,,,,0,0,0,0,0
0.7373,1783969852.5041,1,1,0.5000,-0.0000,1.42244,0.00071,-2.63053,1.05907,1.57080,0.11675,-0.12764,-0.48152,0.03738,,,,,,,,,,,,,,,,,,,,,,,,,,0,0,0,0,0
0.7381,1783969852.5048,1,1,0.5000,-0.0000,1.42244,0.00071,-2.63053,1.05907,1.57080,0.11675,-0.12764,-0.48152,0.03738,,,,,,,,,,,,,,,,,,,,,,,,,,0,0,0,0,0
0.7491,1783969852.5159,1,1,0.5000,-0.0000,1.42244,0.00071,-2.63053,1.05907,1.57080,0.11675,-0.12764,-0.48152,0.03738,,,,,,,,,,,,,,,,,,,,,,,,,,0,0,0,0,0
0.7615,1783969852.5283,1,1,0.5000,-0.0000,1.42244,0.00071,-2.63053,1.05907,1.57080,0.11675,-0.12764,-0.48152,0.03738,,,,,,,,,,,,,,,,,,,,,,,,,,0,0,0,0,0
0.7672,1783969852.5339,1,1,0.5000,-0.0000,1.42244,0.00071,-2.63053,1.05907,1.57080,0.11675,-0.12764,-0.48152,0.03738,,,,,,,,,,,,,,,,,,,,,,,,,,0,0,0,0,0
0.7674,1783969852.5342,1,1,0.5000,-0.0000,1.42244,0.00071,-2.63053,1.05907,1.57080,0.11675,-0.12764,-0.48152,0.03738,,,,,,,,,,,,,,,,,,,,,,,,,,0,0,0,0,0
0.7795,1783969852.5463,1,1,0.5000,-0.0000,1.42244,0.00071,-2.63053,1.05907,1.57080,0.11675,-0.12764,-0.48152,0.03738,,,,,,,,,,,,,,,,,,,,,,,,,,0,0,0,0,0
0.7875,1783969852.5543,1,1,0.5000,-0.0000,1.42244,0.00071,-2.63053,1.05907,1.57080,0.11675,-0.12764,-0.48152,0.03738,,,,,,,,,,,,,,,,,,,,,,,,,,0,0,0,0,0
0.7881,1783969852.5548,1,1,0.5000,-0.0000,1.42244,0.00071,-2.63053,1.05907,1.57080,0.11675,-0.12764,-0.48152,0.03738,,,,,,,,,,,,,,,,,,,,,,,,,,0,0,0,0,0
0.7968,1783969852.5636,1,1,0.5000,-0.0000,1.42244,0.00071,-2.63053,1.05907,1.57080,0.11675,-0.12764,-0.48152,0.03738,,,,,,,,,,,,,,,,,,,,,,,,,,0,0,0,0,0
0.8062,1783969852.5730,1,1,0.5000,-0.0000,1.42244,0.00071,-2.63053,1.05907,1.57080,0.11675,-0.12764,-0.48152,0.03738,,,,,,,,,,,,,,,,,,,,,,,,,,0,0,0,0,0
0.8288,1783969852.5955,1,1,0.5000,-0.0000,1.42244,0.00071,-2.63053,1.05907,1.57080,0.11675,-0.12764,-0.48152,0.03738,,,,,,,,,,,,,,,,,,,,,,,,,,0,0,0,0,0
0.8386,1783969852.6054,1,1,0.5000,-0.0000,1.42244,0.00071,-2.63053,1.05907,1.57080,0.11675,-0.12764,-0.48152,0.03738,,,,,,,,,,,,,,,,,,,,,,,,,,0,0,0,0,0
0.8389,1783969852.6056,1,1,0.5000,-0.0000,1.42244,0.00071,-2.63053,1.05907,1.57080,0.11675,-0.12764,-0.48152,0.03738,,,,,,,,,,,,,,,,,,,,,,,,,,0,0,0,0,0
0.8520,1783969852.6187,1,1,0.5000,-0.0000,1.42244,0.00071,-2.63053,1.05907,1.57080,0.11675,-0.12764,-0.48152,0.03738,,,,,,,,,,,,,,,,,,,,,,,,,,0,0,0,0,0
0.8534,1783969852.6202,1,1,0.5000,-0.0000,1.42244,0.00071,-2.63053,1.05907,1.57080,0.11675,-0.12764,-0.48152,0.03738,,,,,,,,,,,,,,,,,,,,,,,,,,0,0,0,0,0
0.8630,1783969852.6298,1,1,0.5000,-0.0000,1.42244,0.00071,-2.63053,1.05907,1.57080,0.11675,-0.12764,-0.48152,0.03738,,,,,,,,,,,,,,,,,,,,,,,,,,0,0,0,0,0
0.8651,1783969852.6319,1,1,0.5000,-0.0000,1.42244,0.00071,-2.63053,1.05907,1.57080,0.11675,-0.12764,-0.48152,0.03738,,,,,,,,,,,,,,,,,,,,,,,,,,0,0,0,0,0
0.8656,1783969852.6324,1,1,0.5000,-0.0000,1.42244,0.00071,-2.63053,1.05907,1.57080,0.11675,-0.12764,-0.48152,0.03738,,,,,,,,,,,,,,,,,,,,,,,,,,0,0,0,0,0
0.8815,1783969852.6483,1,1,0.5000,-0.0000,1.42244,0.00071,-2.63053,1.05907,1.57080,0.11675,-0.12764,-0.48152,0.03738,,,,,,,,,,,,,,,,,,,,,,,,,,0,0,0,0,0
0.8856,1783969852.6524,1,1,0.5000,-0.0000,1.42244,0.00071,-2.63053,1.05907,1.57080,0.11675,-0.12764,-0.48152,0.03738,,,,,,,,,,,,,,,,,,,,,,,,,,0,0,0,0,0
0.9092,1783969852.6760,1,1,0.5000,-0.0000,1.42244,0.00071,-2.63053,1.05907,1.57080,0.11675,-0.12764,-0.48152,0.03738,,,,,,,,,,,,,,,,,,,,,,,,,,0,0,0,0,0
0.9096,1783969852.6764,1,1,0.5000,-0.0000,1.42244,0.00071,-2.63053,1.05907,1.57080,0.11675,-0.12764,-0.48152,0.03738,,,,,,,,,,,,,,,,,,,,,,,,,,0,0,0,0,0
0.9189,1783969852.6857,1,1,0.5000,-0.0000,1.42244,0.00071,-2.63053,1.05907,1.57080,0.11675,-0.12764,-0.48152,0.03738,,,,,,,,,,,,,,,,,,,,,,,,,,0,0,0,0,0
0.9279,1783969852.6946,1,1,0.5000,-0.0000,1.42244,0.00071,-2.63053,1.05907,1.57080,0.11675,-0.12764,-0.48152,0.03738,,,,,,,,,,,,,,,,,,,,,,,,,,0,0,0,0,0
0.9430,1783969852.7098,1,1,0.5000,-0.0000,1.42244,0.00071,-2.63053,1.05907,1.57080,0.11675,-0.12764,-0.48152,0.03738,,,,,,,,,,,,,,,,,,,,,,,,,,0,0,0,0,0
0.9477,1783969852.7145,1,1,0.5000,-0.0000,1.42244,0.00071,-2.63053,1.05907,1.57080,0.11675,-0.12764,-0.48152,0.03738,,,,,,,,,,,,,,,,,,,,,,,,,,0,0,0,0,0
0.9561,1783969852.7229,1,1,0.5000,-0.0000,1.42244,0.00071,-2.63053,1.05907,1.57080,0.11675,-0.12764,-0.48152,0.03738,,,,,,,,,,,,,,,,,,,,,,,,,,0,0,0,0,0
0.9678,1783969852.7346,1,1,0.5000,-0.0000,1.42244,0.00071,-2.63053,1.05907,1.57080,0.11675,-0.12764,-0.48152,0.03738,,,,,,,,,,,,,,,,,,,,,,,,,,0,0,0,0,0
0.9879,1783969852.7547,1,1,0.5000,-0.0000,1.42244,0.00071,-2.63053,1.05907,1.57080,0.11675,-0.12764,-0.48152,0.03738,,,,,,,,,,,,,,,,,,,,,,,,,,0,0,0,0,0
0.9910,1783969852.7578,1,1,0.5000,-0.0000,1.42244,0.00071,-2.63053,1.05907,1.57080,0.11675,-0.12764,-0.48152,0.03738,,,,,,,,,,,,,,,,,,,,,,,,,,0,0,0,0,0
0.9994,1783969852.7662,1,1,0.5000,-0.0000,1.42244,0.00071,-2.63053,1.05907,1.57080,0.11675,-0.12764,-0.48152,0.03738,,,,,,,,,,,,,,,,,,,,,,,,,,0,0,0,0,0
1.0105,1783969852.7773,1,1,0.5000,-0.0000,1.42244,0.00071,-2.63053,1.05907,1.57080,0.11675,-0.12764,-0.48152,0.03738,,,,,,,,,,,,,,,,,,,,,,,,,,0,0,0,0,0
1.0178,1783969852.7845,1,1,0.5000,-0.0000,1.42244,0.00071,-2.63053,1.05907,1.57080,0.11675,-0.12764,-0.48152,0.03738,,,,,,,,,,,,,,,,,,,,,,,,,,0,0,0,0,0
1.0301,1783969852.7969,1,1,0.5000,-0.0000,1.42244,0.00071,-2.63054,1.05907,1.57080,0.11675,-0.12764,-0.48152,0.03738,,,,,,,,,,,,,,,,,,,,,,,,,,0,0,0,0,0
1.0461,1783969852.8129,1,1,0.5000,-0.0000,1.42244,0.00070,-2.63055,1.05908,1.57080,0.11675,-0.12764,-0.48151,0.03737,,,,,,,,,,,,,,,,,,,,,,,,,,0,0,0,0,0
1.0505,1783969852.8173,1,1,0.5000,-0.0000,1.42244,0.00068,-2.63057,1.05909,1.57080,0.11675,-0.12764,-0.48150,0.03736,,,,,,,,,,,,,,,,,,,,,,,,,,0,0,0,0,0
1.0508,1783969852.8176,1,1,0.5000,-0.0000,1.42244,0.00068,-2.63057,1.05909,1.57080,0.11675,-0.12764,-0.48150,0.03736,,,,,,,,,,,,,,,,,,,,,,,,,,0,0,0,0,0
1.1591,1783969852.9259,1,1,0.5000,-0.0000,1.42244,0.00020,-2.63073,1.05963,1.57080,0.11675,-0.12765,-0.48145,0.03716,,,,,,,,,,,,,,,,,,,,,,,,,,0,0,0,0,0
1.1594,1783969852.9262,1,1,0.5000,-0.0000,1.42244,0.00020,-2.63073,1.05963,1.57080,0.11675,-0.12765,-0.48145,0.03716,,,,,,,,,,,,,,,,,,,,,,,,,,0,0,0,0,0
1.1818,1783969852.9485,1,1,0.5000,-0.0000,1.42244,0.00003,-2.63076,1.05982,1.57080,0.11675,-0.12765,-0.48145,0.03710,,,,,,,,,,,,,,,,,,,,,,,,,,0,0,0,0,0
1.1880,1783969852.9548,1,1,0.5000,-0.0000,1.42244,-0.00007,-2.63077,1.05994,1.57080,0.11675,-0.12764,-0.48145,0.03707,,,,,,,,,,,,,,,,,,,,,,,,,,0,0,0,0,0
1.1978,1783969852.9646,1,1,0.5000,-0.0000,1.42244,-0.00007,-2.63077,1.05995,1.57080,0.11675,-0.12764,-0.48145,0.03707,,,,,,,,,,,,,,,,,,,,,,,,,,0,0,0,0,0
1.1996,1783969852.9664,1,1,0.5000,-0.0000,1.42244,-0.00008,-2.63078,1.05996,1.57080,0.11675,-0.12764,-0.48146,0.03707,,,,,,,,,,,,,,,,,,,,,,,,,,0,0,0,0,0
1.2000,1783969852.9667,1,1,0.5000,-0.0000,1.42244,-0.00008,-2.63078,1.05996,1.57080,0.11675,-0.12764,-0.48146,0.03707,,,,,,,,,,,,,,,,,,,,,,,,,,0,0,0,0,0
1.2017,1783969852.9684,1,1,0.5000,-0.0000,1.42244,-0.00008,-2.63078,1.05996,1.57080,0.11675,-0.12764,-0.48146,0.03707,,,,,,,,,,,,,,,,,,,,,,,,,,0,0,0,0,0
1.2039,1783969852.9707,1,1,0.5000,-0.0000,1.42244,-0.00010,-2.63078,1.05999,1.57080,0.11675,-0.12764,-0.48146,0.03706,,,,,,,,,,,,,,,,,,,,,,,,,,0,0,0,0,0
1.2042,1783969852.9710,1,1,0.5000,-0.0000,1.42244,-0.00010,-2.63078,1.05999,1.57080,0.11675,-0.12764,-0.48146,0.03706,,,,,,,,,,,,,,,,,,,,,,,,,,0,0,0,0,0
1.2173,1783969852.9841,1,1,0.5000,-0.0000,1.42244,-0.00019,-2.63078,1.06010,1.57080,0.11675,-0.12764,-0.48147,0.03704,,,,,,,,,,,,,,,,,,,,,,,,,,0,0,0,0,0
1.2199,1783969852.9867,1,1,0.5000,-0.0000,1.42244,-0.00022,-2.63078,1.06014,1.57080,0.11675,-0.12764,-0.48147,0.03703,,,,,,,,,,,,,,,,,,,,,,,,,,0,0,0,0,0
1.2203,1783969852.9871,1,1,0.5000,-0.0000,1.42244,-0.00022,-2.63078,1.06014,1.57080,0.11675,-0.12764,-0.48147,0.03703,,,,,,,,,,,,,,,,,,,,,,,,,,0,0,0,0,0
1.2220,1783969852.9888,1,1,0.5000,-0.0000,1.42244,-0.00022,-2.63078,1.06014,1.57080,0.11675,-0.12764,-0.48147,0.03703,,,,,,,,,,,,,,,,,,,,,,,,,,0,0,0,0,0
1.2223,1783969852.9891,1,1,0.5000,-0.0000,1.42244,-0.00022,-2.63078,1.06014,1.57080,0.11675,-0.12764,-0.48147,0.03703,,,,,,,,,,,,,,,,,,,,,,,,,,0,0,0,0,0
1.2341,1783969853.0009,1,1,0.5000,-0.0000,1.42244,-0.00033,-2.63078,1.06028,1.57080,0.11675,-0.12764,-0.48149,0.03701,,,,,,,,,,,,,,,,,,,,,,,,,,0,0,0,0,0
1.2483,1783969853.0151,1,1,0.5000,-0.0000,1.42244,-0.00045,-2.63077,1.06044,1.57080,0.11675,-0.12763,-0.48153,0.03699,,,,,,,,,,,,,,,,,,,,,,,,,,0,0,0,0,0
1.2512,1783969853.0180,1,1,0.5000,-0.0000,1.42244,-0.00047,-2.63076,1.06046,1.57080,0.11675,-0.12763,-0.48154,0.03699,,,,,,,,,,,,,,,,,,,,,,,,,,0,0,0,0,0
1.2642,1783969853.0309,1,1,0.5000,-0.0000,1.42244,-0.00047,-2.63076,1.06046,1.57080,0.11675,-0.12763,-0.48154,0.03699,,,,,,,,,,,,,,,,,,,,,,,,,,0,0,0,0,0
1.2737,1783969853.0404,1,1,0.5000,-0.0000,1.42244,-0.00047,-2.63076,1.06046,1.57080,0.11675,-0.12763,-0.48154,0.03699,,,,,,,,,,,,,,,,,,,,,,,,,,0,0,0,0,0
1.2802,1783969853.0470,1,1,0.5000,-0.0000,1.42244,-0.00047,-2.63076,1.06046,1.57080,0.11675,-0.12763,-0.48154,0.03699,,,,,,,,,,,,,,,,,,,,,,,,,,0,0,0,0,0
1.2933,1783969853.0601,1,1,0.5000,-0.0000,1.42244,-0.00047,-2.63076,1.06046,1.57080,0.11675,-0.12763,-0.48154,0.03699,,,,,,,,,,,,,,,,,,,,,,,,,,0,0,0,0,0
1.3069,1783969853.0737,1,1,0.5000,-0.0000,1.42244,-0.00047,-2.63076,1.06046,1.57080,0.11675,-0.12763,-0.48154,0.03699,,,,,,,,,,,,,,,,,,,,,,,,,,0,0,0,0,0
1.3082,1783969853.0750,1,1,0.5000,-0.0000,1.42244,-0.00047,-2.63076,1.06046,1.57080,0.11675,-0.12763,-0.48154,0.03699,,,,,,,,,,,,,,,,,,,,,,,,,,0,0,0,0,0
1.3085,1783969853.0753,1,1,0.5000,-0.0000,1.42244,-0.00047,-2.63076,1.06046,1.57080,0.11675,-0.12763,-0.48154,0.03699,,,,,,,,,,,,,,,,,,,,,,,,,,0,0,0,0,0
1.3133,1783969853.0800,1,1,0.5000,-0.0000,1.42244,-0.00047,-2.63076,1.06046,1.57080,0.11675,-0.12763,-0.48154,0.03699,,,,,,,,,,,,,,,,,,,,,,,,,,0,0,0,0,0
1.3137,1783969853.0805,1,1,0.5000,-0.0000,1.42244,-0.00047,-2.63076,1.06046,1.57080,0.11675,-0.12763,-0.48154,0.03699,,,,,,,,,,,,,,,,,,,,,,,,,,0,0,0,0,0
1.3151,1783969853.0818,1,1,0.5000,-0.0000,1.42244,-0.00047,-2.63076,1.06046,1.57080,0.11675,-0.12763,-0.48154,0.03699,,,,,,,,,,,,,,,,,,,,,,,,,,0,0,0,0,0
1.3155,1783969853.0822,1,1,0.5000,-0.0000,1.42244,-0.00047,-2.63076,1.06046,1.57080,0.11675,-0.12763,-0.48154,0.03699,,,,,,,,,,,,,,,,,,,,,,,,,,0,0,0,0,0
1.3168,1783969853.0836,1,1,0.5000,-0.0000,1.42244,-0.00047,-2.63076,1.06046,1.57080,0.11675,-0.12763,-0.48154,0.03699,,,,,,,,,,,,,,,,,,,,,,,,,,0,0,0,0,0
1.3171,1783969853.0839,1,1,0.5000,-0.0000,1.42244,-0.00047,-2.63076,1.06046,1.57080,0.11675,-0.12763,-0.48154,0.03699,,,,,,,,,,,,,,,,,,,,,,,,,,0,0,0,0,0
1.3231,1783969853.0899,1,1,0.5000,-0.0000,1.42244,-0.00047,-2.63076,1.06046,1.57080,0.11675,-0.12763,-0.48154,0.03699,,,,,,,,,,,,,,,,,,,,,,,,,,0,0,0,0,0
1.3234,1783969853.0902,1,1,0.5000,-0.0000,1.42244,-0.00047,-2.63076,1.06046,1.57080,0.11675,-0.12763,-0.48154,0.03699,,,,,,,,,,,,,,,,,,,,,,,,,,0,0,0,0,0
1.3439,1783969853.1107,1,1,0.5000,-0.0000,1.42244,-0.00047,-2.63076,1.06046,1.57080,0.11675,-0.12763,-0.48154,0.03699,,,,,,,,,,,,,,,,,,,,,,,,,,0,0,0,0,0
1.3484,1783969853.1152,1,1,0.5000,-0.0000,1.42244,-0.00047,-2.63076,1.06046,1.57080,0.11675,-0.12763,-0.48154,0.03699,,,,,,,,,,,,,,,,,,,,,,,,,,0,0,0,0,0
1.3502,1783969853.1169,1,1,0.5000,-0.0000,1.42244,-0.00047,-2.63076,1.06046,1.57080,0.11675,-0.12763,-0.48154,0.03699,,,,,,,,,,,,,,,,,,,,,,,,,,0,0,0,0,0
1.3507,1783969853.1175,1,1,0.5000,-0.0000,1.42244,-0.00047,-2.63076,1.06046,1.57080,0.11675,-0.12763,-0.48154,0.03699,,,,,,,,,,,,,,,,,,,,,,,,,,0,0,0,0,0
1.3532,1783969853.1200,1,1,0.5000,-0.0000,1.42244,-0.00047,-2.63076,1.06046,1.57080,0.11675,-0.12763,-0.48154,0.03699,,,,,,,,,,,,,,,,,,,,,,,,,,0,0,0,0,0
1.3771,1783969853.1439,1,1,0.5000,-0.0000,1.42244,-0.00047,-2.63076,1.06046,1.57080,0.11675,-0.12763,-0.48154,0.03699,,,,,,,,,,,,,,,,,,,,,,,,,,0,0,0,0,0
1.3832,1783969853.1500,1,1,0.5000,-0.0000,1.42244,-0.00047,-2.63076,1.06046,1.57080,0.11675,-0.12763,-0.48154,0.03699,,,,,,,,,,,,,,,,,,,,,,,,,,0,0,0,0,0
1.3965,1783969853.1633,1,1,0.5000,-0.0000,1.42244,-0.00047,-2.63076,1.06046,1.57080,0.11675,-0.12763,-0.48154,0.03699,,,,,,,,,,,,,,,,,,,,,,,,,,0,0,0,0,0
1.3989,1783969853.1657,1,1,0.5000,-0.0000,1.42244,-0.00047,-2.63076,1.06046,1.57080,0.11675,-0.12763,-0.48154,0.03699,,,,,,,,,,,,,,,,,,,,,,,,,,0,0,0,0,0
1.3994,1783969853.1662,1,1,0.5000,-0.0000,1.42244,-0.00047,-2.63076,1.06046,1.57080,0.11675,-0.12763,-0.48154,0.03699,,,,,,,,,,,,,,,,,,,,,,,,,,0,0,0,0,0
1.4037,1783969853.1704,1,1,0.5000,-0.0000,1.42244,-0.00047,-2.63076,1.06046,1.57080,0.11675,-0.12763,-0.48154,0.03699,,,,,,,,,,,,,,,,,,,,,,,,,,0,0,0,0,0
1.4086,1783969853.1754,1,1,0.5000,-0.0000,1.42244,-0.00047,-2.63076,1.06046,1.57080,0.11675,-0.12763,-0.48154,0.03699,,,,,,,,,,,,,,,,,,,,,,,,,,0,0,0,0,0
1.4089,1783969853.1756,1,1,0.5000,-0.0000,1.42244,-0.00047,-2.63076,1.06046,1.57080,0.11675,-0.12763,-0.48154,0.03699,,,,,,,,,,,,,,,,,,,,,,,,,,0,0,0,0,0
1.4222,1783969853.1890,1,1,0.5000,-0.0000,1.42244,-0.00047,-2.63076,1.06046,1.57080,0.11675,-0.12763,-0.48154,0.03699,,,,,,,,,,,,,,,,,,,,,,,,,,0,0,0,0,0
1.4234,1783969853.1902,1,1,0.5000,-0.0000,1.42244,-0.00047,-2.63076,1.06046,1.57080,0.11675,-0.12763,-0.48154,0.03699,,,,,,,,,,,,,,,,,,,,,,,,,,0,0,0,0,0
1.4412,1783969853.2080,1,1,0.5000,-0.0000,1.42244,-0.00047,-2.63076,1.06047,1.57080,0.11675,-0.12763,-0.48154,0.03699,,,,,,,,,,,,,,,,,,,,,,,,,,0,0,0,0,0
1.4538,1783969853.2205,1,1,0.5000,-0.0000,1.42244,-0.00048,-2.63077,1.06049,1.57080,0.11675,-0.12763,-0.48153,0.03698,,,,,,,,,,,,,,,,,,,,,,,,,,0,0,0,0,0
1.4555,1783969853.2223,1,1,0.5000,-0.0000,1.42244,-0.00048,-2.63078,1.06049,1.57080,0.11675,-0.12763,-0.48153,0.03698,,,,,,,,,,,,,,,,,,,,,,,,,,0,0,0,0,0
1.4558,1783969853.2226,1,1,0.5000,-0.0000,1.42244,-0.00048,-2.63078,1.06049,1.57080,0.11675,-0.12763,-0.48153,0.03698,,,,,,,,,,,,,,,,,,,,,,,,,,0,0,0,0,0
1.4591,1783969853.2259,1,1,0.5000,-0.0000,1.42244,-0.00048,-2.63078,1.06050,1.57080,0.11675,-0.12763,-0.48153,0.03698,,,,,,,,,,,,,,,,,,,,,,,,,,0,0,0,0,0
1.4669,1783969853.2337,1,1,0.5000,-0.0000,1.42244,-0.00050,-2.63081,1.06053,1.57080,0.11675,-0.12763,-0.48151,0.03696,,,,,,,,,,,,,,,,,,,,,,,,,,0,0,0,0,0
1.4672,1783969853.2339,1,1,0.5000,-0.0000,1.42244,-0.00050,-2.63081,1.06053,1.57080,0.11675,-0.12763,-0.48151,0.03696,,,,,,,,,,,,,,,,,,,,,,,,,,0,0,0,0,0
1.4783,1783969853.2450,1,1,0.5000,-0.0000,1.42244,-0.00053,-2.63084,1.06057,1.57080,0.11675,-0.12764,-0.48150,0.03694,,,,,,,,,,,,,,,,,,,,,,,,,,0,0,0,0,0
1.4872,1783969853.2540,1,1,0.5000,-0.0000,1.42244,-0.00056,-2.63086,1.06060,1.57080,0.11675,-0.12764,-0.48148,0.03692,,,,,,,,,,,,,,,,,,,,,,,,,,0,0,0,0,0
1.4877,1783969853.2544,1,1,0.5000,-0.0000,1.42244,-0.00056,-2.63086,1.06060,1.57080,0.11675,-0.12764,-0.48148,0.03692,,,,,,,,,,,,,,,,,,,,,,,,,,0,0,0,0,0
1.5000,1783969853.2668,1,1,0.5000,-0.0000,1.42244,-0.00060,-2.63089,1.06065,1.57080,0.11675,-0.12764,-0.48147,0.03690,,,,,,,,,,,,,,,,,,,,,,,,,,0,0,0,0,0
1.5077,1783969853.2745,1,1,0.5000,-0.0000,1.42244,-0.00064,-2.63092,1.06070,1.57080,0.11675,-0.12764,-0.48146,0.03688,,,,,,,,,,,,,,,,,,,,,,,,,,0,0,0,0,0
1.5183,1783969853.2851,1,1,0.5000,-0.0000,1.42244,-0.00067,-2.63093,1.06074,1.57080,0.11675,-0.12764,-0.48145,0.03686,,,,,,,,,,,,,,,,,,,,,,,,,,0,0,0,0,0
1.5189,1783969853.2856,1,1,0.5000,-0.0000,1.42244,-0.00068,-2.63093,1.06074,1.57080,0.11675,-0.12764,-0.48145,0.03686,,,,,,,,,,,,,,,,,,,,,,,,,,0,0,0,0,0
1.5298,1783969853.2966,1,1,0.5000,-0.0000,1.42244,-0.00071,-2.63094,1.06079,1.57080,0.11675,-0.12764,-0.48145,0.03685,,,,,,,,,,,,,,,,,,,,,,,,,,0,0,0,0,0
1.5394,1783969853.3062,1,1,0.5000,-0.0000,1.42244,-0.00081,-2.63097,1.06091,1.57080,0.11675,-0.12764,-0.48145,0.03682,,,,,,,,,,,,,,,,,,,,,,,,,,0,0,0,0,0
1.5511,1783969853.3179,1,1,0.5000,-0.0000,1.42244,-0.00090,-2.63099,1.06103,1.57080,0.11675,-0.12764,-0.48145,0.03678,,,,,,,,,,,,,,,,,,,,,,,,,,0,0,0,0,0
1.5577,1783969853.3245,1,1,0.5000,-0.0000,1.42244,-0.00091,-2.63099,1.06103,1.57080,0.11675,-0.12764,-0.48145,0.03678,,,,,,,,,,,,,,,,,,,,,,,,,,0,0,0,0,0
1.5694,1783969853.3362,1,1,0.5000,-0.0000,1.42244,-0.00098,-2.63100,1.06112,1.57080,0.11675,-0.12764,-0.48145,0.03676,,,,,,,,,,,,,,,,,,,,,,,,,,0,0,0,0,0
1.5809,1783969853.3477,1,1,0.5000,-0.0000,1.42244,-0.00103,-2.63101,1.06118,1.57080,0.11675,-0.12764,-0.48145,0.03675,,,,,,,,,,,,,,,,,,,,,,,,,,0,0,0,0,0
1.5918,1783969853.3586,1,1,0.5000,-0.0000,1.42244,-0.00111,-2.63103,1.06127,1.57080,0.11675,-0.12764,-0.48145,0.03672,,,,,,,,,,,,,,,,,,,,,,,,,,0,0,0,0,0
1.5978,1783969853.3646,1,1,0.5000,-0.0000,1.42244,-0.00115,-2.63103,1.06132,1.57080,0.11675,-0.12764,-0.48146,0.03671,,,,,,,,,,,,,,,,,,,,,,,,,,0,0,0,0,0
1.5983,1783969853.3651,1,1,0.5000,-0.0000,1.42244,-0.00115,-2.63103,1.06132,1.57080,0.11675,-0.12764,-0.48146,0.03671,,,,,,,,,,,,,,,,,,,,,,,,,,0,0,0,0,0
1.6211,1783969853.3879,1,1,0.5000,-0.0000,1.42244,-0.00145,-2.63108,1.06169,1.57080,0.11675,-0.12764,-0.48147,0.03661,,,,,,,,,,,,,,,,,,,,,,,,,,0,0,0,0,0
1.6812,1783969853.4479,1,1,0.5000,-0.0000,1.42244,-0.00158,-2.63110,1.06186,1.57080,0.11675,-0.12764,-0.48148,0.03658,,,,,,,,,,,,,,,,,,,,,,,,,,0,0,0,0,0
1.6878,1783969853.4546,1,1,0.5000,-0.0000,1.42244,-0.00158,-2.63110,1.06186,1.57080,0.11675,-0.12764,-0.48148,0.03658,,,,,,,,,,,,,,,,,,,,,,,,,,0,0,0,0,0
1.6893,1783969853.4561,1,1,0.5000,-0.0000,1.42244,-0.00158,-2.63110,1.06186,1.57080,0.11675,-0.12764,-0.48148,0.03658,,,,,,,,,,,,,,,,,,,,,,,,,,0,0,0,0,0
1.6930,1783969853.4598,1,1,0.5000,-0.0000,1.42244,-0.00158,-2.63110,1.06186,1.57080,0.11675,-0.12764,-0.48148,0.03658,,,,,,,,,,,,,,,,,,,,,,,,,,0,0,0,0,0
1.6934,1783969853.4601,1,1,0.5000,-0.0000,1.42244,-0.00158,-2.63110,1.06186,1.57080,0.11675,-0.12764,-0.48148,0.03658,,,,,,,,,,,,,,,,,,,,,,,,,,0,0,0,0,0
1.6997,1783969853.4665,1,1,0.5000,-0.0000,1.42244,-0.00158,-2.63110,1.06186,1.57080,0.11675,-0.12764,-0.48148,0.03658,,,,,,,,,,,,,,,,,,,,,,,,,,0,0,0,0,0
1.7001,1783969853.4668,1,1,0.5000,-0.0000,1.42244,-0.00158,-2.63110,1.06186,1.57080,0.11675,-0.12764,-0.48148,0.03658,,,,,,,,,,,,,,,,,,,,,,,,,,0,0,0,0,0
1.7036,1783969853.4704,1,1,0.5000,-0.0000,1.42244,-0.00158,-2.63110,1.06186,1.57080,0.11675,-0.12764,-0.48148,0.03658,,,,,,,,,,,,,,,,,,,,,,,,,,0,0,0,0,0
1.7093,1783969853.4761,1,1,0.5000,-0.0000,1.42244,-0.00158,-2.63110,1.06186,1.57080,0.11675,-0.12764,-0.48148,0.03658,,,,,,,,,,,,,,,,,,,,,,,,,,0,0,0,0,0
1.7229,1783969853.4897,1,1,0.5000,-0.0000,1.42244,-0.00158,-2.63110,1.06186,1.57080,0.11675,-0.12764,-0.48148,0.03658,,,,,,,,,,,,,,,,,,,,,,,,,,0,0,0,0,0
1.7438,1783969853.5106,1,1,0.5000,-0.0000,1.42244,-0.00158,-2.63110,1.06186,1.57080,0.11675,-0.12764,-0.48148,0.03658,,,,,,,,,,,,,,,,,,,,,,,,,,0,0,0,0,0
1.7514,1783969853.5182,1,1,0.5000,-0.0000,1.42244,-0.00158,-2.63110,1.06186,1.57080,0.11675,-0.12764,-0.48148,0.03658,,,,,,,,,,,,,,,,,,,,,,,,,,0,0,0,0,0
1.7518,1783969853.5186,1,1,0.5000,-0.0000,1.42244,-0.00158,-2.63110,1.06186,1.57080,0.11675,-0.12764,-0.48148,0.03658,,,,,,,,,,,,,,,,,,,,,,,,,,0,0,0,0,0
1.7580,1783969853.5248,1,1,0.5000,-0.0000,1.42244,-0.00158,-2.63110,1.06186,1.57080,0.11675,-0.12764,-0.48148,0.03658,,,,,,,,,,,,,,,,,,,,,,,,,,0,0,0,0,0
1.7588,1783969853.5256,1,1,0.5000,-0.0000,1.42244,-0.00158,-2.63110,1.06186,1.57080,0.11675,-0.12764,-0.48148,0.03658,,,,,,,,,,,,,,,,,,,,,,,,,,0,0,0,0,0
1.7610,1783969853.5278,1,1,0.5000,-0.0000,1.42244,-0.00158,-2.63110,1.06186,1.57080,0.11675,-0.12764,-0.48148,0.03658,,,,,,,,,,,,,,,,,,,,,,,,,,0,0,0,0,0
1.7613,1783969853.5281,1,1,0.5000,-0.0000,1.42244,-0.00158,-2.63110,1.06186,1.57080,0.11675,-0.12764,-0.48148,0.03658,,,,,,,,,,,,,,,,,,,,,,,,,,0,0,0,0,0
1.7699,1783969853.5367,1,1,0.5000,-0.0000,1.42244,-0.00158,-2.63110,1.06186,1.57080,0.11675,-0.12764,-0.48148,0.03658,,,,,,,,,,,,,,,,,,,,,,,,,,0,0,0,0,0
1.7762,1783969853.5429,1,1,0.5000,-0.0000,1.42244,-0.00158,-2.63110,1.06186,1.57080,0.11675,-0.12764,-0.48148,0.03658,,,,,,,,,,,,,,,,,,,,,,,,,,0,0,0,0,0
1.7780,1783969853.5448,1,1,0.5000,-0.0000,1.42244,-0.00158,-2.63110,1.06186,1.57080,0.11675,-0.12764,-0.48148,0.03658,,,,,,,,,,,,,,,,,,,,,,,,,,0,0,0,0,0
1.8041,1783969853.5709,1,1,0.5000,-0.0000,1.42244,-0.00158,-2.63110,1.06186,1.57080,0.11675,-0.12764,-0.48148,0.03658,,,,,,,,,,,,,,,,,,,,,,,,,,0,0,0,0,0
1.8079,1783969853.5747,1,1,0.5000,-0.0000,1.42244,-0.00158,-2.63110,1.06186,1.57080,0.11675,-0.12764,-0.48148,0.03658,,,,,,,,,,,,,,,,,,,,,,,,,,0,0,0,0,0
1.8083,1783969853.5751,1,1,0.5000,-0.0000,1.42244,-0.00158,-2.63110,1.06186,1.57080,0.11675,-0.12764,-0.48148,0.03658,,,,,,,,,,,,,,,,,,,,,,,,,,0,0,0,0,0
1.8092,1783969853.5760,1,1,0.5000,-0.0000,1.42244,-0.00158,-2.63110,1.06186,1.57080,0.11675,-0.12764,-0.48148,0.03658,,,,,,,,,,,,,,,,,,,,,,,,,,0,0,0,0,0
1.8095,1783969853.5762,1,1,0.5000,-0.0000,1.42244,-0.00158,-2.63110,1.06186,1.57080,0.11675,-0.12764,-0.48148,0.03658,,,,,,,,,,,,,,,,,,,,,,,,,,0,0,0,0,0
1.8183,1783969853.5851,1,1,0.5000,-0.0000,1.42244,-0.00158,-2.63110,1.06186,1.57080,0.11675,-0.12764,-0.48148,0.03658,,,,,,,,,,,,,,,,,,,,,,,,,,0,0,0,0,0
1.8270,1783969853.5938,1,1,0.5000,-0.0000,1.42244,-0.00158,-2.63110,1.06186,1.57080,0.11675,-0.12764,-0.48148,0.03658,,,,,,,,,,,,,,,,,,,,,,,,,,0,0,0,0,0
1.8485,1783969853.6152,1,1,0.5000,-0.0000,1.42244,-0.00158,-2.63110,1.06186,1.57080,0.11675,-0.12764,-0.48148,0.03658,,,,,,,,,,,,,,,,,,,,,,,,,,0,0,0,0,0
1.8487,1783969853.6155,1,1,0.5000,-0.0000,1.42244,-0.00158,-2.63110,1.06186,1.57080,0.11675,-0.12764,-0.48148,0.03658,,,,,,,,,,,,,,,,,,,,,,,,,,0,0,0,0,0
1.8675,1783969853.6342,1,1,0.5000,-0.0000,1.42244,-0.00158,-2.63110,1.06186,1.57080,0.11675,-0.12764,-0.48148,0.03658,,,,,,,,,,,,,,,,,,,,,,,,,,0,0,0,0,0
1.8678,1783969853.6345,1,1,0.5000,-0.0000,1.42244,-0.00158,-2.63110,1.06186,1.57080,0.11675,-0.12764,-0.48148,0.03658,,,,,,,,,,,,,,,,,,,,,,,,,,0,0,0,0,0
1.8681,1783969853.6348,1,1,0.5000,-0.0000,1.42244,-0.00158,-2.63110,1.06186,1.57080,0.11675,-0.12764,-0.48148,0.03658,,,,,,,,,,,,,,,,,,,,,,,,,,0,0,0,0,0
1.8684,1783969853.6351,1,1,0.5000,-0.0000,1.42244,-0.00158,-2.63110,1.06186,1.57080,0.11675,-0.12764,-0.48148,0.03658,,,,,,,,,,,,,,,,,,,,,,,,,,0,0,0,0,0
1.8687,1783969853.6354,1,1,0.5000,-0.0000,1.42244,-0.00158,-2.63110,1.06186,1.57080,0.11675,-0.12764,-0.48148,0.03658,,,,,,,,,,,,,,,,,,,,,,,,,,0,0,0,0,0
1.8861,1783969853.6528,1,1,0.5000,-0.0000,1.42244,-0.00159,-2.63110,1.06187,1.57080,0.11675,-0.12764,-0.48148,0.03657,,,,,,,,,,,,,,,,,,,,,,,,,,0,0,0,0,0
1.8873,1783969853.6541,1,1,0.5000,-0.0000,1.42244,-0.00160,-2.63110,1.06188,1.57080,0.11675,-0.12764,-0.48148,0.03657,,,,,,,,,,,,,,,,,,,,,,,,,,0,0,0,0,0
1.8876,1783969853.6544,1,1,0.5000,-0.0000,1.42244,-0.00160,-2.63110,1.06188,1.57080,0.11675,-0.12764,-0.48148,0.03657,,,,,,,,,,,,,,,,,,,,,,,,,,0,0,0,0,0
1.9084,1783969853.6752,1,1,0.5000,-0.0000,1.42244,-0.00167,-2.63114,1.06198,1.57080,0.11675,-0.12764,-0.48147,0.03654,,,,,,,,,,,,,,,,,,,,,,,,,,0,0,0,0,0
1.9088,1783969853.6756,1,1,0.5000,-0.0000,1.42244,-0.00167,-2.63114,1.06198,1.57080,0.11675,-0.12764,-0.48147,0.03654,,,,,,,,,,,,,,,,,,,,,,,,,,0,0,0,0,0
1.9091,1783969853.6759,1,1,0.5000,-0.0000,1.42244,-0.00167,-2.63114,1.06198,1.57080,0.11675,-0.12764,-0.48147,0.03654,,,,,,,,,,,,,,,,,,,,,,,,,,0,0,0,0,0
1.9350,1783969853.7018,1,1,0.5000,-0.0000,1.42243,-0.00178,-2.63119,1.06210,1.57080,0.11675,-0.12764,-0.48145,0.03649,,,,,,,,,,,,,,,,,,,,,,,,,,0,0,0,0,0
1.9430,1783969853.7097,1,1,0.5000,-0.0000,1.42243,-0.00180,-2.63119,1.06213,1.57080,0.11675,-0.12764,-0.48145,0.03648,,,,,,,,,,,,,,,,,,,,,,,,,,0,0,0,0,0
1.9482,1783969853.7150,1,1,0.5000,-0.0000,1.42243,-0.00182,-2.63120,1.06215,1.57080,0.11675,-0.12764,-0.48145,0.03647,,,,,,,,,,,,,,,,,,,,,,,,,,0,0,0,0,0
1.9509,1783969853.7177,1,1,0.5000,-0.0000,1.42243,-0.00184,-2.63121,1.06218,1.57080,0.11675,-0.12764,-0.48145,0.03646,,,,,,,,,,,,,,,,,,,,,,,,,,0,0,0,0,0
1.9514,1783969853.7182,1,1,0.5000,-0.0000,1.42243,-0.00184,-2.63121,1.06218,1.57080,0.11675,-0.12764,-0.48145,0.03646,,,,,,,,,,,,,,,,,,,,,,,,,,0,0,0,0,0
1.9646,1783969853.7314,1,1,0.5000,-0.0000,1.42243,-0.00196,-2.63123,1.06232,1.57080,0.11675,-0.12764,-0.48144,0.03642,,,,,,,,,,,,,,,,,,,,,,,,,,0,0,0,0,0
2.0135,1783969853.7803,1,1,0.5000,-0.0000,1.42243,-0.00223,-2.63128,1.06265,1.57080,0.11675,-0.12764,-0.48145,0.03634,,,,,,,,,,,,,,,,,,,,,,,,,,0,0,0,0,0
2.0722,1783969853.8390,1,1,0.5000,-0.0000,1.42243,-0.00276,-2.63135,1.06331,1.57080,0.11675,-0.12763,-0.48149,0.03618,,,,,,,,,,,,,,,,,,,,,,,,,,0,0,0,0,0
2.0725,1783969853.8393,1,1,0.5000,-0.0000,1.42243,-0.00276,-2.63135,1.06331,1.57080,0.11675,-0.12763,-0.48149,0.03618,,,,,,,,,,,,,,,,,,,,,,,,,,0,0,0,0,0
2.0766,1783969853.8434,1,1,0.5000,-0.0000,1.42243,-0.00276,-2.63135,1.06331,1.57080,0.11675,-0.12763,-0.48149,0.03618,,,,,,,,,,,,,,,,,,,,,,,,,,0,0,0,0,0
2.0770,1783969853.8437,1,1,0.5000,-0.0000,1.42243,-0.00276,-2.63135,1.06331,1.57080,0.11675,-0.12763,-0.48149,0.03618,,,,,,,,,,,,,,,,,,,,,,,,,,0,0,0,0,0
2.0808,1783969853.8475,1,1,0.5000,-0.0000,1.42243,-0.00276,-2.63135,1.06331,1.57080,0.11675,-0.12763,-0.48149,0.03618,,,,,,,,,,,,,,,,,,,,,,,,,,0,0,0,0,0
2.0815,1783969853.8482,1,1,0.5000,-0.0000,1.42243,-0.00276,-2.63135,1.06331,1.57080,0.11675,-0.12763,-0.48149,0.03618,,,,,,,,,,,,,,,,,,,,,,,,,,0,0,0,0,0
2.0932,1783969853.8600,1,1,0.5000,-0.0000,1.42243,-0.00276,-2.63135,1.06331,1.57080,0.11675,-0.12763,-0.48149,0.03618,,,,,,,,,,,,,,,,,,,,,,,,,,0,0,0,0,0
2.0952,1783969853.8620,1,1,0.5000,-0.0000,1.42243,-0.00276,-2.63135,1.06331,1.57080,0.11675,-0.12763,-0.48149,0.03618,,,,,,,,,,,,,,,,,,,,,,,,,,0,0,0,0,0
2.0956,1783969853.8624,1,1,0.5000,-0.0000,1.42243,-0.00276,-2.63135,1.06331,1.57080,0.11675,-0.12763,-0.48149,0.03618,,,,,,,,,,,,,,,,,,,,,,,,,,0,0,0,0,0
2.0961,1783969853.8628,1,1,0.5000,-0.0000,1.42243,-0.00276,-2.63135,1.06331,1.57080,0.11675,-0.12763,-0.48149,0.03618,,,,,,,,,,,,,,,,,,,,,,,,,,0,0,0,0,0
2.0964,1783969853.8632,1,1,0.5000,-0.0000,1.42243,-0.00276,-2.63135,1.06331,1.57080,0.11675,-0.12763,-0.48149,0.03618,,,,,,,,,,,,,,,,,,,,,,,,,,0,0,0,0,0
2.0981,1783969853.8649,1,1,0.5000,-0.0000,1.42243,-0.00276,-2.63135,1.06331,1.57080,0.11675,-0.12763,-0.48149,0.03618,,,,,,,,,,,,,,,,,,,,,,,,,,0,0,0,0,0
2.0988,1783969853.8656,1,1,0.5000,-0.0000,1.42243,-0.00276,-2.63135,1.06331,1.57080,0.11675,-0.12763,-0.48149,0.03618,,,,,,,,,,,,,,,,,,,,,,,,,,0,0,0,0,0
2.1091,1783969853.8758,1,1,0.5000,-0.0000,1.42243,-0.00276,-2.63135,1.06331,1.57080,0.11675,-0.12763,-0.48149,0.03618,,,,,,,,,,,,,,,,,,,,,,,,,,0,0,0,0,0
2.1319,1783969853.8987,1,1,0.5000,-0.0000,1.42243,-0.00276,-2.63135,1.06331,1.57080,0.11675,-0.12763,-0.48149,0.03618,,,,,,,,,,,,,,,,,,,,,,,,,,0,0,0,0,0
2.1323,1783969853.8991,1,1,0.5000,-0.0000,1.42243,-0.00276,-2.63135,1.06331,1.57080,0.11675,-0.12763,-0.48149,0.03618,,,,,,,,,,,,,,,,,,,,,,,,,,0,0,0,0,0
2.1443,1783969853.9111,1,1,0.5000,-0.0000,1.42243,-0.00276,-2.63135,1.06331,1.57080,0.11675,-0.12763,-0.48149,0.03618,,,,,,,,,,,,,,,,,,,,,,,,,,0,0,0,0,0
2.1542,1783969853.9210,1,1,0.5000,-0.0000,1.42243,-0.00276,-2.63135,1.06331,1.57080,0.11675,-0.12763,-0.48149,0.03618,,,,,,,,,,,,,,,,,,,,,,,,,,0,0,0,0,0
2.1594,1783969853.9261,1,1,0.5000,-0.0000,1.42243,-0.00276,-2.63135,1.06331,1.57080,0.11675,-0.12763,-0.48149,0.03618,,,,,,,,,,,,,,,,,,,,,,,,,,0,0,0,0,0
2.1683,1783969853.9351,1,1,0.5000,-0.0000,1.42243,-0.00276,-2.63135,1.06331,1.57080,0.11675,-0.12763,-0.48149,0.03618,,,,,,,,,,,,,,,,,,,,,,,,,,0,0,0,0,0
2.2030,1783969853.9698,1,1,0.5000,-0.0000,1.42243,-0.00276,-2.63135,1.06331,1.57080,0.11675,-0.12763,-0.48149,0.03618,,,,,,,,,,,,,,,,,,,,,,,,,,0,0,0,0,0
2.2043,1783969853.9711,1,1,0.5000,-0.0000,1.42243,-0.00276,-2.63135,1.06331,1.57080,0.11675,-0.12763,-0.48149,0.03618,,,,,,,,,,,,,,,,,,,,,,,,,,0,0,0,0,0
2.2048,1783969853.9716,1,1,0.5000,-0.0000,1.42243,-0.00276,-2.63135,1.06331,1.57080,0.11675,-0.12763,-0.48149,0.03618,,,,,,,,,,,,,,,,,,,,,,,,,,0,0,0,0,0
2.2137,1783969853.9805,1,1,0.5000,-0.0000,1.42243,-0.00276,-2.63135,1.06331,1.57080,0.11675,-0.12763,-0.48149,0.03618,,,,,,,,,,,,,,,,,,,,,,,,,,0,0,0,0,0
2.2214,1783969853.9881,1,1,0.5000,-0.0000,1.42243,-0.00276,-2.63135,1.06331,1.57080,0.11675,-0.12763,-0.48149,0.03618,,,,,,,,,,,,,,,,,,,,,,,,,,0,0,0,0,0
2.2218,1783969853.9886,1,1,0.5000,-0.0000,1.42243,-0.00276,-2.63135,1.06331,1.57080,0.11675,-0.12763,-0.48149,0.03618,,,,,,,,,,,,,,,,,,,,,,,,,,0,0,0,0,0
2.2351,1783969854.0018,1,1,0.5000,-0.0000,1.42243,-0.00276,-2.63135,1.06331,1.57080,0.11675,-0.12763,-0.48149,0.03618,,,,,,,,,,,,,,,,,,,,,,,,,,0,0,0,0,0
2.2412,1783969854.0079,1,1,0.5000,-0.0000,1.42243,-0.00276,-2.63135,1.06331,1.57080,0.11675,-0.12763,-0.48149,0.03618,,,,,,,,,,,,,,,,,,,,,,,,,,0,0,0,0,0
2.2562,1783969854.0230,1,1,0.5000,-0.0000,1.42243,-0.00276,-2.63135,1.06331,1.57080,0.11675,-0.12763,-0.48149,0.03618,,,,,,,,,,,,,,,,,,,,,,,,,,0,0,0,0,0
2.2618,1783969854.0286,1,1,0.5000,-0.0000,1.42243,-0.00276,-2.63135,1.06331,1.57080,0.11675,-0.12763,-0.48149,0.03618,,,,,,,,,,,,,,,,,,,,,,,,,,0,0,0,0,0
2.2685,1783969854.0353,1,1,0.5000,-0.0000,1.42243,-0.00276,-2.63135,1.06331,1.57080,0.11675,-0.12763,-0.48149,0.03618,,,,,,,,,,,,,,,,,,,,,,,,,,0,0,0,0,0
2.2854,1783969854.0522,1,1,0.5000,-0.0000,1.42243,-0.00277,-2.63135,1.06333,1.57080,0.11675,-0.12763,-0.48150,0.03618,,,,,,,,,,,,,,,,,,,,,,,,,,0,0,0,0,0
2.2882,1783969854.0549,1,1,0.5000,-0.0000,1.42243,-0.00278,-2.63134,1.06334,1.57080,0.11675,-0.12763,-0.48150,0.03618,,,,,,,,,,,,,,,,,,,,,,,,,,0,0,0,0,0
2.2885,1783969854.0553,1,1,0.5000,-0.0000,1.42243,-0.00278,-2.63134,1.06334,1.57080,0.11675,-0.12763,-0.48150,0.03618,,,,,,,,,,,,,,,,,,,,,,,,,,0,0,0,0,0
2.2991,1783969854.0658,1,1,0.5000,-0.0000,1.42243,-0.00279,-2.63135,1.06335,1.57080,0.11675,-0.12763,-0.48150,0.03618,,,,,,,,,,,,,,,,,,,,,,,,,,0,0,0,0,0
2.3108,1783969854.0776,1,1,0.5000,-0.0000,1.42243,-0.00283,-2.63137,1.06340,1.57080,0.11675,-0.12763,-0.48149,0.03616,,,,,,,,,,,,,,,,,,,,,,,,,,0,0,0,0,0
2.3230,1783969854.0897,1,1,0.5000,-0.0000,1.42243,-0.00286,-2.63140,1.06345,1.57080,0.11675,-0.12764,-0.48148,0.03614,,,,,,,,,,,,,,,,,,,,,,,,,,0,0,0,0,0
2.3320,1783969854.0988,1,1,0.5000,-0.0000,1.42243,-0.00288,-2.63140,1.06346,1.57080,0.11675,-0.12764,-0.48147,0.03613,,,,,,,,,,,,,,,,,,,,,,,,,,0,0,0,0,0
2.3457,1783969854.1124,1,1,0.5000,-0.0000,1.42243,-0.00293,-2.63143,1.06352,1.57080,0.11675,-0.12764,-0.48146,0.03611,,,,,,,,,,,,,,,,,,,,,,,,,,0,0,0,0,0
2.3492,1783969854.1160,1,1,0.5000,-0.0000,1.42243,-0.00296,-2.63144,1.06355,1.57080,0.11675,-0.12764,-0.48146,0.03609,,,,,,,,,,,,,,,,,,,,,,,,,,0,0,0,0,0
2.3598,1783969854.1266,1,1,0.5000,-0.0000,1.42243,-0.00301,-2.63147,1.06362,1.57080,0.11675,-0.12764,-0.48145,0.03607,,,,,,,,,,,,,,,,,,,,,,,,,,0,0,0,0,0
2.3709,1783969854.1376,1,1,0.5000,-0.0000,1.42243,-0.00305,-2.63148,1.06366,1.57080,0.11675,-0.12764,-0.48145,0.03606,,,,,,,,,,,,,,,,,,,,,,,,,,0,0,0,0,0
2.3989,1783969854.1657,1,1,0.5000,-0.0000,1.42243,-0.00319,-2.63150,1.06383,1.57080,0.11675,-0.12764,-0.48145,0.03601,,,,,,,,,,,,,,,,,,,,,,,,,,0,0,0,0,0
2.4030,1783969854.1697,1,1,0.5000,-0.0000,1.42243,-0.00324,-2.63151,1.06389,1.57080,0.11675,-0.12764,-0.48145,0.03599,,,,,,,,,,,,,,,,,,,,,,,,,,0,0,0,0,0
2.4044,1783969854.1711,1,1,0.5000,-0.0000,1.42243,-0.00324,-2.63151,1.06389,1.57080,0.11675,-0.12764,-0.48145,0.03599,,,,,,,,,,,,,,,,,,,,,,,,,,0,0,0,0,0
2.4047,1783969854.1715,1,1,0.5000,-0.0000,1.42243,-0.00324,-2.63151,1.06389,1.57080,0.11675,-0.12764,-0.48145,0.03599,,,,,,,,,,,,,,,,,,,,,,,,,,0,0,0,0,0
2.4096,1783969854.1764,1,1,0.5000,-0.0000,1.42243,-0.00329,-2.63152,1.06395,1.57080,0.11675,-0.12764,-0.48145,0.03598,,,,,,,,,,,,,,,,,,,,,,,,,,0,0,0,0,0
2.4211,1783969854.1879,1,1,0.5000,-0.0000,1.42243,-0.00335,-2.63153,1.06403,1.57080,0.11675,-0.12764,-0.48145,0.03596,,,,,,,,,,,,,,,,,,,,,,,,,,0,0,0,0,0
2.4284,1783969854.1952,1,1,0.5000,-0.0000,1.42243,-0.00339,-2.63154,1.06408,1.57080,0.11675,-0.12764,-0.48145,0.03594,,,,,,,,,,,,,,,,,,,,,,,,,,0,0,0,0,0
2.4428,1783969854.2096,1,1,0.5000,-0.0000,1.42243,-0.00356,-2.63157,1.06427,1.57080,0.11675,-0.12764,-0.48146,0.03589,,,,,,,,,,,,,,,,,,,,,,,,,,0,0,0,0,0
2.4488,1783969854.2156,1,1,0.5000,-0.0000,1.42243,-0.00356,-2.63157,1.06427,1.57080,0.11675,-0.12764,-0.48146,0.03589,,,,,,,,,,,,,,,,,,,,,,,,,,0,0,0,0,0
2.4750,1783969854.2417,1,1,0.5000,-0.0000,1.42243,-0.00374,-2.63157,1.06449,1.57080,0.11675,-0.12763,-0.48148,0.03585,,,,,,,,,,,,,,,,,,,,,,,,,,0,0,0,0,0
2.5010,1783969854.2678,1,1,0.5000,-0.0000,1.42243,-0.00396,-2.63156,1.06477,1.57080,0.11675,-0.12763,-0.48153,0.03580,,,,,,,,,,,,,,,,,,,,,,,,,,0,0,0,0,0
2.5110,1783969854.2778,1,1,0.5000,-0.0000,1.42243,-0.00401,-2.63155,1.06483,1.57080,0.11675,-0.12762,-0.48155,0.03579,,,,,,,,,,,,,,,,,,,,,,,,,,0,0,0,0,0
2.5115,1783969854.2782,1,1,0.5000,-0.0000,1.42243,-0.00401,-2.63155,1.06483,1.57080,0.11675,-0.12762,-0.48155,0.03579,,,,,,,,,,,,,,,,,,,,,,,,,,0,0,0,0,0
2.5116,1783969854.2784,1,1,0.5000,-0.0000,1.42243,-0.00401,-2.63155,1.06483,1.57080,0.11675,-0.12762,-0.48155,0.03579,,,,,,,,,,,,,,,,,,,,,,,,,,0,0,0,0,0
2.5342,1783969854.3010,1,1,0.5000,-0.0000,1.42243,-0.00401,-2.63155,1.06483,1.57080,0.11675,-0.12762,-0.48155,0.03579,,,,,,,,,,,,,,,,,,,,,,,,,,0,0,0,0,0
2.5454,1783969854.3122,1,1,0.5000,-0.0000,1.42243,-0.00401,-2.63155,1.06483,1.57080,0.11675,-0.12762,-0.48155,0.03579,,,,,,,,,,,,,,,,,,,,,,,,,,0,0,0,0,0
2.5522,1783969854.3190,1,1,0.5000,-0.0000,1.42243,-0.00401,-2.63155,1.06483,1.57080,0.11675,-0.12762,-0.48155,0.03579,,,,,,,,,,,,,,,,,,,,,,,,,,0,0,0,0,0
2.5531,1783969854.3199,1,1,0.5000,-0.0000,1.42243,-0.00401,-2.63155,1.06483,1.57080,0.11675,-0.12762,-0.48155,0.03579,,,,,,,,,,,,,,,,,,,,,,,,,,0,0,0,0,0
2.5741,1783969854.3409,1,1,0.5000,-0.0000,1.42243,-0.00401,-2.63155,1.06483,1.57080,0.11675,-0.12762,-0.48155,0.03579,,,,,,,,,,,,,,,,,,,,,,,,,,0,0,0,0,0
2.5745,1783969854.3413,1,1,0.5000,-0.0000,1.42243,-0.00401,-2.63155,1.06483,1.57080,0.11675,-0.12762,-0.48155,0.03579,,,,,,,,,,,,,,,,,,,,,,,,,,0,0,0,0,0
2.5768,1783969854.3435,1,1,0.5000,-0.0000,1.42243,-0.00401,-2.63155,1.06483,1.57080,0.11675,-0.12762,-0.48155,0.03579,,,,,,,,,,,,,,,,,,,,,,,,,,0,0,0,0,0
2.5770,1783969854.3438,1,1,0.5000,-0.0000,1.42243,-0.00401,-2.63155,1.06483,1.57080,0.11675,-0.12762,-0.48155,0.03579,,,,,,,,,,,,,,,,,,,,,,,,,,0,0,0,0,0
2.6037,1783969854.3705,1,1,0.5000,-0.0000,1.42243,-0.00401,-2.63155,1.06483,1.57080,0.11675,-0.12762,-0.48155,0.03579,,,,,,,,,,,,,,,,,,,,,,,,,,0,0,0,0,0
2.6040,1783969854.3708,1,1,0.5000,-0.0000,1.42243,-0.00401,-2.63155,1.06483,1.57080,0.11675,-0.12762,-0.48155,0.03579,,,,,,,,,,,,,,,,,,,,,,,,,,0,0,0,0,0
2.7928,1783969854.5596,1,1,0.5000,-0.0000,1.42243,-0.00423,-2.63172,1.06510,1.57080,0.11675,-0.12764,-0.48146,0.03567,,,,,,,,,,,,,,,,,,,,,,,,,,0,0,0,0,0
2.8013,1783969854.5681,1,1,0.5000,-0.0000,1.42243,-0.00430,-2.63174,1.06519,1.57080,0.11675,-0.12764,-0.48146,0.03564,,,,,,,,,,,,,,,,,,,,,,,,,,0,0,0,0,0
2.8028,1783969854.5696,1,1,0.5000,-0.0000,1.42243,-0.00430,-2.63174,1.06519,1.57080,0.11675,-0.12764,-0.48146,0.03564,,,,,,,,,,,,,,,,,,,,,,,,,,0,0,0,0,0
2.8144,1783969854.5812,1,1,0.5000,-0.0000,1.42243,-0.00434,-2.63175,1.06524,1.57080,0.11675,-0.12764,-0.48145,0.03562,,,,,,,,,,,,,,,,,,,,,,,,,,0,0,0,0,0
2.8170,1783969854.5838,1,1,0.5000,-0.0000,1.42243,-0.00436,-2.63176,1.06526,1.57080,0.11675,-0.12764,-0.48145,0.03562,,,,,,,,,,,,,,,,,,,,,,,,,,0,0,0,0,0
2.8189,1783969854.5857,1,1,0.5000,-0.0000,1.42243,-0.00436,-2.63176,1.06526,1.57080,0.11675,-0.12764,-0.48145,0.03562,,,,,,,,,,,,,,,,,,,,,,,,,,0,0,0,0,0
2.8192,1783969854.5860,1,1,0.5000,-0.0000,1.42243,-0.00436,-2.63176,1.06526,1.57080,0.11675,-0.12764,-0.48145,0.03562,,,,,,,,,,,,,,,,,,,,,,,,,,0,0,0,0,0
2.8289,1783969854.5957,1,1,0.5000,-0.0000,1.42243,-0.00445,-2.63178,1.06536,1.57080,0.11675,-0.12764,-0.48145,0.03559,,,,,,,,,,,,,,,,,,,,,,,,,,0,0,0,0,0
2.8331,1783969854.5999,1,1,0.5000,-0.0000,1.42243,-0.00449,-2.63178,1.06541,1.57080,0.11675,-0.12764,-0.48145,0.03557,,,,,,,,,,,,,,,,,,,,,,,,,,0,0,0,0,0
2.8346,1783969854.6013,1,1,0.5000,-0.0000,1.42243,-0.00449,-2.63178,1.06541,1.57080,0.11675,-0.12764,-0.48145,0.03557,,,,,,,,,,,,,,,,,,,,,,,,,,0,0,0,0,0
2.8351,1783969854.6019,1,1,0.5000,-0.0000,1.42243,-0.00449,-2.63178,1.06541,1.57080,0.11675,-0.12764,-0.48145,0.03557,,,,,,,,,,,,,,,,,,,,,,,,,,0,0,0,0,0
2.8363,1783969854.6031,1,1,0.5000,-0.0000,1.42242,-0.00453,-2.63179,1.06547,1.57080,0.11675,-0.12764,-0.48145,0.03556,,,,,,,,,,,,,,,,,,,,,,,,,,0,0,0,0,0
2.8366,1783969854.6034,1,1,0.5000,-0.0000,1.42242,-0.00453,-2.63179,1.06547,1.57080,0.11675,-0.12764,-0.48145,0.03556,,,,,,,,,,,,,,,,,,,,,,,,,,0,0,0,0,0
2.8370,1783969854.6038,1,1,0.5000,-0.0000,1.42242,-0.00453,-2.63179,1.06547,1.57080,0.11675,-0.12764,-0.48145,0.03556,,,,,,,,,,,,,,,,,,,,,,,,,,0,0,0,0,0
2.8375,1783969854.6043,1,1,0.5000,-0.0000,1.42242,-0.00453,-2.63179,1.06547,1.57080,0.11675,-0.12764,-0.48145,0.03556,,,,,,,,,,,,,,,,,,,,,,,,,,0,0,0,0,0
2.8452,1783969854.6120,1,1,0.5000,-0.0000,1.42242,-0.00454,-2.63180,1.06548,1.57080,0.11675,-0.12764,-0.48145,0.03555,,,,,,,,,,,,,,,,,,,,,,,,,,0,0,0,0,0
2.8506,1783969854.6173,1,1,0.5000,-0.0000,1.42242,-0.00456,-2.63180,1.06550,1.57080,0.11675,-0.12764,-0.48145,0.03555,,,,,,,,,,,,,,,,,,,,,,,,,,0,0,0,0,0
2.8529,1783969854.6197,1,1,0.5000,-0.0000,1.42242,-0.00458,-2.63180,1.06553,1.57080,0.11675,-0.12764,-0.48146,0.03554,,,,,,,,,,,,,,,,,,,,,,,,,,0,0,0,0,0
2.8534,1783969854.6202,1,1,0.5000,-0.0000,1.42242,-0.00458,-2.63180,1.06553,1.57080,0.11675,-0.12764,-0.48146,0.03554,,,,,,,,,,,,,,,,,,,,,,,,,,0,0,0,0,0
2.8539,1783969854.6207,1,1,0.5000,-0.0000,1.42242,-0.00458,-2.63180,1.06553,1.57080,0.11675,-0.12764,-0.48146,0.03554,,,,,,,,,,,,,,,,,,,,,,,,,,0,0,0,0,0
2.8602,1783969854.6270,1,1,0.5000,-0.0000,1.42242,-0.00466,-2.63181,1.06562,1.57080,0.11675,-0.12764,-0.48146,0.03552,,,,,,,,,,,,,,,,,,,,,,,,,,0,0,0,0,0
2.8607,1783969854.6274,1,1,0.5000,-0.0000,1.42242,-0.00466,-2.63181,1.06562,1.57080,0.11675,-0.12764,-0.48146,0.03552,,,,,,,,,,,,,,,,,,,,,,,,,,0,0,0,0,0
2.8610,1783969854.6278,1,1,0.5000,-0.0000,1.42242,-0.00466,-2.63181,1.06562,1.57080,0.11675,-0.12764,-0.48146,0.03552,,,,,,,,,,,,,,,,,,,,,,,,,,0,0,0,0,0
2.8614,1783969854.6282,1,1,0.5000,-0.0000,1.42242,-0.00466,-2.63181,1.06562,1.57080,0.11675,-0.12764,-0.48146,0.03552,,,,,,,,,,,,,,,,,,,,,,,,,,0,0,0,0,0
2.8727,1783969854.6395,1,1,0.5000,-0.0000,1.42242,-0.00468,-2.63182,1.06564,1.57080,0.11675,-0.12764,-0.48146,0.03551,,,,,,,,,,,,,,,,,,,,,,,,,,0,0,0,0,0
2.8841,1783969854.6509,1,1,0.5000,-0.0000,1.42242,-0.00478,-2.63183,1.06577,1.57080,0.11675,-0.12763,-0.48147,0.03548,,,,,,,,,,,,,,,,,,,,,,,,,,0,0,0,0,0
2.8845,1783969854.6513,1,1,0.5000,-0.0000,1.42242,-0.00478,-2.63183,1.06577,1.57080,0.11675,-0.12763,-0.48147,0.03548,,,,,,,,,,,,,,,,,,,,,,,,,,0,0,0,0,0
2.8945,1783969854.6613,1,1,0.5000,-0.0000,1.42242,-0.00487,-2.63184,1.06588,1.57080,0.11675,-0.12763,-0.48147,0.03545,,,,,,,,,,,,,,,,,,,,,,,,,,0,0,0,0,0
2.9024,1783969854.6692,1,1,0.5000,-0.0000,1.42242,-0.00488,-2.63184,1.06589,1.57080,0.11675,-0.12763,-0.48147,0.03545,,,,,,,,,,,,,,,,,,,,,,,,,,0,0,0,0,0
2.9029,1783969854.6697,1,1,0.5000,-0.0000,1.42242,-0.00488,-2.63184,1.06589,1.57080,0.11675,-0.12763,-0.48147,0.03545,,,,,,,,,,,,,,,,,,,,,,,,,,0,0,0,0,0
2.9143,1783969854.6810,1,1,0.5000,-0.0000,1.42242,-0.00493,-2.63184,1.06595,1.57080,0.11675,-0.12763,-0.48148,0.03544,,,,,,,,,,,,,,,,,,,,,,,,,,0,0,0,0,0
2.9148,1783969854.6815,1,1,0.5000,-0.0000,1.42242,-0.00493,-2.63184,1.06595,1.57080,0.11675,-0.12763,-0.48148,0.03544,,,,,,,,,,,,,,,,,,,,,,,,,,0,0,0,0,0
2.9368,1783969854.7036,1,1,0.5000,-0.0000,1.42242,-0.00510,-2.63182,1.06617,1.57080,0.11675,-0.12762,-0.48153,0.03541,,,,,,,,,,,,,,,,,,,,,,,,,,0,0,0,0,0
2.9375,1783969854.7043,1,1,0.5000,-0.0000,1.42242,-0.00510,-2.63182,1.06617,1.57080,0.11675,-0.12762,-0.48153,0.03541,,,,,,,,,,,,,,,,,,,,,,,,,,0,0,0,0,0
2.9379,1783969854.7047,1,1,0.5000,-0.0000,1.42242,-0.00510,-2.63182,1.06617,1.57080,0.11675,-0.12762,-0.48153,0.03541,,,,,,,,,,,,,,,,,,,,,,,,,,0,0,0,0,0
2.9413,1783969854.7081,1,1,0.5000,-0.0000,1.42242,-0.00513,-2.63181,1.06621,1.57080,0.11675,-0.12762,-0.48154,0.03541,,,,,,,,,,,,,,,,,,,,,,,,,,0,0,0,0,0
2.9416,1783969854.7084,1,1,0.5000,-0.0000,1.42242,-0.00513,-2.63181,1.06621,1.57080,0.11675,-0.12762,-0.48154,0.03541,,,,,,,,,,,,,,,,,,,,,,,,,,0,0,0,0,0
2.9545,1783969854.7212,1,1,0.5000,-0.0000,1.42242,-0.00519,-2.63178,1.06627,1.57080,0.11675,-0.12762,-0.48157,0.03541,,,,,,,,,,,,,,,,,,,,,,,,,,0,0,0,0,0
2.9656,1783969854.7324,1,1,0.5000,-0.0000,1.42242,-0.00519,-2.63177,1.06628,1.57080,0.11675,-0.12762,-0.48158,0.03541,,,,,,,,,,,,,,,,,,,,,,,,,,0,0,0,0,0
2.9735,1783969854.7403,1,1,0.5000,-0.0000,1.42242,-0.00519,-2.63177,1.06628,1.57080,0.11675,-0.12762,-0.48158,0.03541,,,,,,,,,,,,,,,,,,,,,,,,,,0,0,0,0,0
2.9847,1783969854.7514,1,1,0.5000,-0.0000,1.42242,-0.00519,-2.63177,1.06628,1.57080,0.11675,-0.12762,-0.48158,0.03541,,,,,,,,,,,,,,,,,,,,,,,,,,0,0,0,0,0
2.9960,1783969854.7628,1,1,0.5000,-0.0000,1.42242,-0.00519,-2.63177,1.06628,1.57080,0.11675,-0.12762,-0.48158,0.03541,,,,,,,,,,,,,,,,,,,,,,,,,,0,0,0,0,0
2.9964,1783969854.7632,1,1,0.5000,-0.0000,1.42242,-0.00519,-2.63177,1.06628,1.57080,0.11675,-0.12762,-0.48158,0.03541,,,,,,,,,,,,,,,,,,,,,,,,,,0,0,0,0,0
3.0015,1783969854.7683,1,1,0.5000,-0.0000,1.42242,-0.00519,-2.63177,1.06628,1.57080,0.11675,-0.12762,-0.48158,0.03541,,,,,,,,,,,,,,,,,,,,,,,,,,0,0,0,0,0
3.0018,1783969854.7685,1,1,0.5000,-0.0000,1.42242,-0.00519,-2.63177,1.06628,1.57080,0.11675,-0.12762,-0.48158,0.03541,,,,,,,,,,,,,,,,,,,,,,,,,,0,0,0,0,0
3.0165,1783969854.7833,1,1,0.5000,-0.0000,1.42242,-0.00519,-2.63177,1.06628,1.57080,0.11675,-0.12762,-0.48158,0.03541,,,,,,,,,,,,,,,,,,,,,,,,,,0,0,0,0,0
3.0168,1783969854.7836,1,1,0.5000,-0.0000,1.42242,-0.00519,-2.63177,1.06628,1.57080,0.11675,-0.12762,-0.48158,0.03541,,,,,,,,,,,,,,,,,,,,,,,,,,0,0,0,0,0
3.0361,1783969854.8029,1,1,0.5000,-0.0000,1.42242,-0.00519,-2.63177,1.06628,1.57080,0.11675,-0.12762,-0.48158,0.03541,,,,,,,,,,,,,,,,,,,,,,,,,,0,0,0,0,0
3.0366,1783969854.8033,1,1,0.5000,-0.0000,1.42242,-0.00519,-2.63177,1.06628,1.57080,0.11675,-0.12762,-0.48158,0.03541,,,,,,,,,,,,,,,,,,,,,,,,,,0,0,0,0,0
3.0440,1783969854.8108,1,1,0.5000,-0.0000,1.42242,-0.00519,-2.63177,1.06628,1.57080,0.11675,-0.12762,-0.48158,0.03541,,,,,,,,,,,,,,,,,,,,,,,,,,0,0,0,0,0
3.0546,1783969854.8213,1,1,0.5000,-0.0000,1.42242,-0.00519,-2.63177,1.06628,1.57080,0.11675,-0.12762,-0.48158,0.03541,,,,,,,,,,,,,,,,,,,,,,,,,,0,0,0,0,0
3.0651,1783969854.8319,1,1,0.5000,-0.0000,1.42242,-0.00519,-2.63177,1.06628,1.57080,0.11675,-0.12762,-0.48158,0.03541,,,,,,,,,,,,,,,,,,,,,,,,,,0,0,0,0,0
3.0747,1783969854.8415,1,1,0.5000,-0.0000,1.42242,-0.00519,-2.63177,1.06628,1.57080,0.11675,-0.12762,-0.48158,0.03541,,,,,,,,,,,,,,,,,,,,,,,,,,0,0,0,0,0
3.0869,1783969854.8537,1,1,0.5000,-0.0000,1.42242,-0.00519,-2.63177,1.06628,1.57080,0.11675,-0.12762,-0.48158,0.03541,,,,,,,,,,,,,,,,,,,,,,,,,,0,0,0,0,0
3.0931,1783969854.8599,1,1,0.5000,-0.0000,1.42242,-0.00519,-2.63177,1.06628,1.57080,0.11675,-0.12762,-0.48158,0.03541,,,,,,,,,,,,,,,,,,,,,,,,,,0,0,0,0,0
3.1058,1783969854.8726,1,1,0.5000,-0.0000,1.42242,-0.00519,-2.63177,1.06628,1.57080,0.11675,-0.12762,-0.48158,0.03541,,,,,,,,,,,,,,,,,,,,,,,,,,0,0,0,0,0
3.1143,1783969854.8811,1,1,0.5000,-0.0000,1.42242,-0.00519,-2.63177,1.06628,1.57080,0.11675,-0.12762,-0.48158,0.03541,,,,,,,,,,,,,,,,,,,,,,,,,,0,0,0,0,0
3.1228,1783969854.8895,1,1,0.5000,-0.0000,1.42242,-0.00519,-2.63177,1.06628,1.57080,0.11675,-0.12762,-0.48158,0.03541,,,,,,,,,,,,,,,,,,,,,,,,,,0,0,0,0,0
3.1233,1783969854.8901,1,1,0.5000,-0.0000,1.42242,-0.00519,-2.63177,1.06628,1.57080,0.11675,-0.12762,-0.48158,0.03541,,,,,,,,,,,,,,,,,,,,,,,,,,0,0,0,0,0
3.1331,1783969854.8999,1,1,0.5000,-0.0000,1.42242,-0.00519,-2.63177,1.06628,1.57080,0.11675,-0.12762,-0.48158,0.03541,,,,,,,,,,,,,,,,,,,,,,,,,,0,0,0,0,0
3.1449,1783969854.9116,1,1,0.5000,-0.0000,1.42242,-0.00520,-2.63178,1.06629,1.57080,0.11675,-0.12762,-0.48157,0.03540,,,,,,,,,,,,,,,,,,,,,,,,,,0,0,0,0,0
3.1593,1783969854.9261,1,1,0.5000,-0.0000,1.42242,-0.00522,-2.63183,1.06632,1.57080,0.11675,-0.12762,-0.48155,0.03538,,,,,,,,,,,,,,,,,,,,,,,,,,0,0,0,0,0
3.1616,1783969854.9283,1,1,0.5000,-0.0000,1.42242,-0.00523,-2.63185,1.06633,1.57080,0.11675,-0.12762,-0.48153,0.03537,,,,,,,,,,,,,,,,,,,,,,,,,,0,0,0,0,0
3.1785,1783969854.9452,1,1,0.5000,-0.0000,1.42242,-0.00524,-2.63187,1.06635,1.57080,0.11675,-0.12762,-0.48152,0.03536,,,,,,,,,,,,,,,,,,,,,,,,,,0,0,0,0,0
3.1822,1783969854.9490,1,1,0.5000,-0.0000,1.42242,-0.00526,-2.63188,1.06637,1.57080,0.11675,-0.12763,-0.48151,0.03535,,,,,,,,,,,,,,,,,,,,,,,,,,0,0,0,0,0
3.1825,1783969854.9493,1,1,0.5000,-0.0000,1.42242,-0.00526,-2.63188,1.06637,1.57080,0.11675,-0.12763,-0.48151,0.03535,,,,,,,,,,,,,,,,,,,,,,,,,,0,0,0,0,0
3.1949,1783969854.9617,1,1,0.5000,-0.0000,1.42242,-0.00532,-2.63194,1.06644,1.57080,0.11675,-0.12763,-0.48148,0.03531,,,,,,,,,,,,,,,,,,,,,,,,,,0,0,0,0,0
3.2017,1783969854.9685,1,1,0.5000,-0.0000,1.42242,-0.00532,-2.63194,1.06644,1.57080,0.11675,-0.12763,-0.48148,0.03531,,,,,,,,,,,,,,,,,,,,,,,,,,0,0,0,0,0
3.2170,1783969854.9838,1,1,0.5000,-0.0000,1.42242,-0.00539,-2.63197,1.06653,1.57080,0.11675,-0.12763,-0.48146,0.03527,,,,,,,,,,,,,,,,,,,,,,,,,,0,0,0,0,0
3.2239,1783969854.9907,1,1,0.5000,-0.0000,1.42242,-0.00542,-2.63199,1.06657,1.57080,0.11675,-0.12763,-0.48146,0.03526,,,,,,,,,,,,,,,,,,,,,,,,,,0,0,0,0,0
3.2360,1783969855.0028,1,1,0.5000,-0.0000,1.42242,-0.00547,-2.63200,1.06662,1.57080,0.11675,-0.12763,-0.48146,0.03524,,,,,,,,,,,,,,,,,,,,,,,,,,0,0,0,0,0
3.2438,1783969855.0106,1,1,0.5000,-0.0000,1.42242,-0.00554,-2.63202,1.06671,1.57080,0.11675,-0.12763,-0.48146,0.03522,,,,,,,,,,,,,,,,,,,,,,,,,,0,0,0,0,0
3.2591,1783969855.0259,1,1,0.5000,-0.0000,1.42242,-0.00563,-2.63204,1.06682,1.57080,0.11675,-0.12763,-0.48145,0.03518,,,,,,,,,,,,,,,,,,,,,,,,,,0,0,0,0,0
3.2651,1783969855.0319,1,1,0.5000,-0.0000,1.42242,-0.00566,-2.63204,1.06685,1.57080,0.11675,-0.12763,-0.48145,0.03518,,,,,,,,,,,,,,,,,,,,,,,,,,0,0,0,0,0
3.2738,1783969855.0405,1,1,0.5000,-0.0000,1.42242,-0.00572,-2.63206,1.06692,1.57080,0.11675,-0.12763,-0.48146,0.03516,,,,,,,,,,,,,,,,,,,,,,,,,,0,0,0,0,0
3.2742,1783969855.0410,1,1,0.5000,-0.0000,1.42242,-0.00572,-2.63206,1.06692,1.57080,0.11675,-0.12763,-0.48146,0.03516,,,,,,,,,,,,,,,,,,,,,,,,,,0,0,0,0,0
3.2852,1783969855.0519,1,1,0.5000,-0.0000,1.42242,-0.00586,-2.63208,1.06709,1.57080,0.11675,-0.12763,-0.48146,0.03511,,,,,,,,,,,,,,,,,,,,,,,,,,0,0,0,0,0
3.2936,1783969855.0604,1,1,0.5000,-0.0000,1.42242,-0.00586,-2.63208,1.06709,1.57080,0.11675,-0.12763,-0.48146,0.03511,,,,,,,,,,,,,,,,,,,,,,,,,,0,0,0,0,0
3.3021,1783969855.0689,1,1,0.5000,-0.0000,1.42242,-0.00590,-2.63209,1.06714,1.57080,0.11675,-0.12763,-0.48146,0.03510,,,,,,,,,,,,,,,,,,,,,,,,,,0,0,0,0,0
3.3137,1783969855.0805,1,1,0.5000,-0.0000,1.42242,-0.00601,-2.63210,1.06727,1.57080,0.11675,-0.12763,-0.48147,0.03507,,,,,,,,,,,,,,,,,,,,,,,,,,0,0,0,0,0
3.3237,1783969855.0905,1,1,0.5000,-0.0000,1.42242,-0.00614,-2.63212,1.06744,1.57080,0.11675,-0.12763,-0.48148,0.03503,,,,,,,,,,,,,,,,,,,,,,,,,,0,0,0,0,0
3.3387,1783969855.1055,1,1,0.5000,-0.0000,1.42242,-0.00627,-2.63213,1.06760,1.57080,0.11675,-0.12763,-0.48149,0.03499,,,,,,,,,,,,,,,,,,,,,,,,,,0,0,0,0,0
3.3447,1783969855.1115,1,1,0.5000,-0.0000,1.42242,-0.00633,-2.63214,1.06768,1.57080,0.11675,-0.12763,-0.48150,0.03497,,,,,,,,,,,,,,,,,,,,,,,,,,0,0,0,0,0
3.3569,1783969855.1237,1,1,0.5000,-0.0000,1.42242,-0.00636,-2.63214,1.06771,1.57080,0.11675,-0.12763,-0.48150,0.03497,,,,,,,,,,,,,,,,,,,,,,,,,,0,0,0,0,0
3.3640,1783969855.1307,1,1,0.5000,-0.0000,1.42242,-0.00636,-2.63214,1.06771,1.57080,0.11675,-0.12763,-0.48150,0.03497,,,,,,,,,,,,,,,,,,,,,,,,,,0,0,0,0,0
3.3737,1783969855.1405,1,1,0.5000,-0.0000,1.42242,-0.00636,-2.63214,1.06771,1.57080,0.11675,-0.12763,-0.48150,0.03497,,,,,,,,,,,,,,,,,,,,,,,,,,0,0,0,0,0
3.3741,1783969855.1408,1,1,0.5000,-0.0000,1.42242,-0.00636,-2.63214,1.06771,1.57080,0.11675,-0.12763,-0.48150,0.03497,,,,,,,,,,,,,,,,,,,,,,,,,,0,0,0,0,0
3.3843,1783969855.1510,1,1,0.5000,-0.0000,1.42242,-0.00636,-2.63214,1.06771,1.57080,0.11675,-0.12763,-0.48150,0.03497,,,,,,,,,,,,,,,,,,,,,,,,,,0,0,0,0,0
3.3978,1783969855.1646,1,1,0.5000,-0.0000,1.42242,-0.00636,-2.63214,1.06771,1.57080,0.11675,-0.12763,-0.48150,0.03497,,,,,,,,,,,,,,,,,,,,,,,,,,0,0,0,0,0
3.4053,1783969855.1721,1,1,0.5000,-0.0000,1.42242,-0.00636,-2.63214,1.06771,1.57080,0.11675,-0.12763,-0.48150,0.03497,,,,,,,,,,,,,,,,,,,,,,,,,,0,0,0,0,0
3.4119,1783969855.1787,1,1,0.5000,-0.0000,1.42242,-0.00636,-2.63214,1.06771,1.57080,0.11675,-0.12763,-0.48150,0.03497,,,,,,,,,,,,,,,,,,,,,,,,,,0,0,0,0,0
3.4228,1783969855.1895,1,1,0.5000,-0.0000,1.42242,-0.00636,-2.63214,1.06771,1.57080,0.11675,-0.12763,-0.48150,0.03497,,,,,,,,,,,,,,,,,,,,,,,,,,0,0,0,0,0
3.4475,1783969855.2142,1,1,0.5000,-0.0000,1.42242,-0.00636,-2.63214,1.06771,1.57080,0.11675,-0.12763,-0.48150,0.03497,,,,,,,,,,,,,,,,,,,,,,,,,,0,0,0,0,0
3.4482,1783969855.2150,1,1,0.5000,-0.0000,1.42242,-0.00636,-2.63214,1.06771,1.57080,0.11675,-0.12763,-0.48150,0.03497,,,,,,,,,,,,,,,,,,,,,,,,,,0,0,0,0,0
3.4540,1783969855.2208,1,1,0.5000,-0.0000,1.42242,-0.00636,-2.63214,1.06771,1.57080,0.11675,-0.12763,-0.48150,0.03497,,,,,,,,,,,,,,,,,,,,,,,,,,0,0,0,0,0
3.4678,1783969855.2346,1,1,0.5000,-0.0000,1.42242,-0.00636,-2.63214,1.06771,1.57080,0.11675,-0.12763,-0.48150,0.03497,,,,,,,,,,,,,,,,,,,,,,,,,,0,0,0,0,0
3.4737,1783969855.2405,1,1,0.5000,-0.0000,1.42242,-0.00636,-2.63214,1.06771,1.57080,0.11675,-0.12763,-0.48150,0.03497,,,,,,,,,,,,,,,,,,,,,,,,,,0,0,0,0,0
3.4987,1783969855.2655,1,1,0.5000,-0.0000,1.42242,-0.00636,-2.63214,1.06771,1.57080,0.11675,-0.12763,-0.48150,0.03497,,,,,,,,,,,,,,,,,,,,,,,,,,0,0,0,0,0
3.5040,1783969855.2707,1,1,0.5000,-0.0000,1.42242,-0.00636,-2.63214,1.06771,1.57080,0.11675,-0.12763,-0.48150,0.03497,,,,,,,,,,,,,,,,,,,,,,,,,,0,0,0,0,0
3.5051,1783969855.2719,1,1,0.5000,-0.0000,1.42242,-0.00636,-2.63214,1.06771,1.57080,0.11675,-0.12763,-0.48150,0.03497,,,,,,,,,,,,,,,,,,,,,,,,,,0,0,0,0,0
3.5190,1783969855.2857,1,1,0.5000,-0.0000,1.42242,-0.00636,-2.63214,1.06771,1.57080,0.11675,-0.12763,-0.48150,0.03497,,,,,,,,,,,,,,,,,,,,,,,,,,0,0,0,0,0
3.5192,1783969855.2860,1,1,0.5000,-0.0000,1.42242,-0.00636,-2.63214,1.06771,1.57080,0.11675,-0.12763,-0.48150,0.03497,,,,,,,,,,,,,,,,,,,,,,,,,,0,0,0,0,0
3.5266,1783969855.2933,1,1,0.5000,-0.0000,1.42242,-0.00636,-2.63214,1.06771,1.57080,0.11675,-0.12763,-0.48150,0.03497,,,,,,,,,,,,,,,,,,,,,,,,,,0,0,0,0,0
3.5318,1783969855.2986,1,1,0.5000,-0.0000,1.42242,-0.00636,-2.63214,1.06771,1.57080,0.11675,-0.12763,-0.48150,0.03497,,,,,,,,,,,,,,,,,,,,,,,,,,0,0,0,0,0
3.5494,1783969855.3161,1,1,0.5000,-0.0000,1.42242,-0.00636,-2.63214,1.06771,1.57080,0.11675,-0.12763,-0.48150,0.03497,,,,,,,,,,,,,,,,,,,,,,,,,,0,0,0,0,0
3.5576,1783969855.3244,1,1,0.5000,-0.0000,1.42242,-0.00636,-2.63214,1.06771,1.57080,0.11675,-0.12763,-0.48150,0.03497,,,,,,,,,,,,,,,,,,,,,,,,,,0,0,0,0,0
3.5763,1783969855.3431,1,1,0.5000,-0.0000,1.42242,-0.00638,-2.63214,1.06774,1.57080,0.11675,-0.12763,-0.48150,0.03496,,,,,,,,,,,,,,,,,,,,,,,,,,0,0,0,0,0
3.6001,1783969855.3669,1,1,0.5000,-0.0000,1.42242,-0.00643,-2.63219,1.06780,1.57080,0.11675,-0.12763,-0.48148,0.03493,,,,,,,,,,,,,,,,,,,,,,,,,,0,0,0,0,0
3.6034,1783969855.3702,1,1,0.5000,-0.0000,1.42242,-0.00643,-2.63219,1.06780,1.57080,0.11675,-0.12763,-0.48148,0.03493,,,,,,,,,,,,,,,,,,,,,,,,,,0,0,0,0,0
3.6042,1783969855.3709,1,1,0.5000,-0.0000,1.42242,-0.00645,-2.63220,1.06783,1.57080,0.11675,-0.12763,-0.48147,0.03492,,,,,,,,,,,,,,,,,,,,,,,,,,0,0,0,0,0
3.6046,1783969855.3713,1,1,0.5000,-0.0000,1.42242,-0.00645,-2.63220,1.06783,1.57080,0.11675,-0.12763,-0.48147,0.03492,,,,,,,,,,,,,,,,,,,,,,,,,,0,0,0,0,0
3.6049,1783969855.3717,1,1,0.5000,-0.0000,1.42242,-0.00645,-2.63220,1.06783,1.57080,0.11675,-0.12763,-0.48147,0.03492,,,,,,,,,,,,,,,,,,,,,,,,,,0,0,0,0,0
3.6128,1783969855.3795,1,1,0.5000,-0.0000,1.42242,-0.00650,-2.63224,1.06789,1.57080,0.11675,-0.12763,-0.48145,0.03489,,,,,,,,,,,,,,,,,,,,,,,,,,0,0,0,0,0
3.6130,1783969855.3798,1,1,0.5000,-0.0000,1.42242,-0.00650,-2.63224,1.06789,1.57080,0.11675,-0.12763,-0.48145,0.03489,,,,,,,,,,,,,,,,,,,,,,,,,,0,0,0,0,0
3.6262,1783969855.3930,1,1,0.5000,-0.0000,1.42242,-0.00651,-2.63224,1.06790,1.57080,0.11675,-0.12763,-0.48145,0.03488,,,,,,,,,,,,,,,,,,,,,,,,,,0,0,0,0,0
3.6322,1783969855.3989,1,1,0.5000,-0.0000,1.42242,-0.00655,-2.63226,1.06794,1.57080,0.11675,-0.12763,-0.48144,0.03487,,,,,,,,,,,,,,,,,,,,,,,,,,0,0,0,0,0
3.6490,1783969855.4158,1,1,0.5000,-0.0000,1.42242,-0.00662,-2.63228,1.06802,1.57080,0.11675,-0.12763,-0.48143,0.03484,,,,,,,,,,,,,,,,,,,,,,,,,,0,0,0,0,0
3.6523,1783969855.4191,1,1,0.5000,-0.0000,1.42242,-0.00662,-2.63228,1.06803,1.57080,0.11675,-0.12763,-0.48143,0.03484,,,,,,,,,,,,,,,,,,,,,,,,,,0,0,0,0,0
3.6691,1783969855.4359,1,1,0.5000,-0.0000,1.42242,-0.00672,-2.63230,1.06814,1.57080,0.11675,-0.12763,-0.48144,0.03481,,,,,,,,,,,,,,,,,,,,,,,,,,0,0,0,0,0
3.6721,1783969855.4389,1,1,0.5000,-0.0000,1.42242,-0.00672,-2.63230,1.06814,1.57080,0.11675,-0.12763,-0.48144,0.03481,,,,,,,,,,,,,,,,,,,,,,,,,,0,0,0,0,0
3.6726,1783969855.4394,1,1,0.5000,-0.0000,1.42242,-0.00672,-2.63230,1.06814,1.57080,0.11675,-0.12763,-0.48144,0.03481,,,,,,,,,,,,,,,,,,,,,,,,,,0,0,0,0,0
3.6838,1783969855.4506,1,1,0.5000,-0.0000,1.42242,-0.00678,-2.63231,1.06821,1.57080,0.11675,-0.12763,-0.48144,0.03479,,,,,,,,,,,,,,,,,,,,,,,,,,0,0,0,0,0
3.6840,1783969855.4508,1,1,0.5000,-0.0000,1.42242,-0.00678,-2.63231,1.06821,1.57080,0.11675,-0.12763,-0.48144,0.03479,,,,,,,,,,,,,,,,,,,,,,,,,,0,0,0,0,0
3.6944,1783969855.4612,1,1,0.5000,-0.0000,1.42242,-0.00686,-2.63232,1.06832,1.57080,0.11675,-0.12763,-0.48145,0.03476,,,,,,,,,,,,,,,,,,,,,,,,,,0,0,0,0,0
3.7055,1783969855.4723,1,1,0.5000,-0.0000,1.42242,-0.00703,-2.63235,1.06852,1.57080,0.11675,-0.12763,-0.48145,0.03471,,,,,,,,,,,,,,,,,,,,,,,,,,0,0,0,0,0
3.7142,1783969855.4810,1,1,0.5000,-0.0000,1.42242,-0.00709,-2.63235,1.06859,1.57080,0.11675,-0.12763,-0.48146,0.03469,,,,,,,,,,,,,,,,,,,,,,,,,,0,0,0,0,0
3.7239,1783969855.4907,1,1,0.5000,-0.0000,1.42242,-0.00713,-2.63236,1.06863,1.57080,0.11675,-0.12763,-0.48146,0.03468,,,,,,,,,,,,,,,,,,,,,,,,,,0,0,0,0,0
3.7243,1783969855.4911,1,1,0.5000,-0.0000,1.42242,-0.00713,-2.63236,1.06863,1.57080,0.11675,-0.12763,-0.48146,0.03468,,,,,,,,,,,,,,,,,,,,,,,,,,0,0,0,0,0
3.7361,1783969855.5029,1,1,0.5000,-0.0000,1.42242,-0.00721,-2.63237,1.06874,1.57080,0.11675,-0.12763,-0.48147,0.03466,,,,,,,,,,,,,,,,,,,,,,,,,,0,0,0,0,0
3.7365,1783969855.5033,1,1,0.5000,-0.0000,1.42242,-0.00721,-2.63237,1.06874,1.57080,0.11675,-0.12763,-0.48147,0.03466,,,,,,,,,,,,,,,,,,,,,,,,,,0,0,0,0,0
3.7442,1783969855.5110,1,1,0.5000,-0.0000,1.42241,-0.00729,-2.63237,1.06883,1.57080,0.11675,-0.12763,-0.48148,0.03464,,,,,,,,,,,,,,,,,,,,,,,,,,0,0,0,0,0
3.7553,1783969855.5221,1,1,0.5000,-0.0000,1.42241,-0.00737,-2.63238,1.06893,1.57080,0.11675,-0.12763,-0.48148,0.03462,,,,,,,,,,,,,,,,,,,,,,,,,,0,0,0,0,0
3.7667,1783969855.5334,1,1,0.5000,-0.0000,1.42241,-0.00748,-2.63239,1.06908,1.57080,0.11675,-0.12762,-0.48150,0.03459,,,,,,,,,,,,,,,,,,,,,,,,,,0,0,0,0,0
3.7750,1783969855.5418,1,1,0.5000,-0.0000,1.42241,-0.00754,-2.63239,1.06916,1.57080,0.11675,-0.12762,-0.48151,0.03457,,,,,,,,,,,,,,,,,,,,,,,,,,0,0,0,0,0
3.7756,1783969855.5424,1,1,0.5000,-0.0000,1.42241,-0.00754,-2.63239,1.06916,1.57080,0.11675,-0.12762,-0.48151,0.03457,,,,,,,,,,,,,,,,,,,,,,,,,,0,0,0,0,0
3.8266,1783969855.5934,1,1,0.5000,-0.0000,1.42241,-0.00754,-2.63239,1.06916,1.57080,0.11675,-0.12762,-0.48151,0.03457,,,,,,,,,,,,,,,,,,,,,,,,,,0,0,0,0,0
3.8783,1783969855.6451,1,1,0.5000,-0.0000,1.42241,-0.00754,-2.63239,1.06916,1.57080,0.11675,-0.12762,-0.48151,0.03457,,,,,,,,,,,,,,,,,,,,,,,,,,0,0,0,0,0
3.9159,1783969855.6826,1,1,0.5000,-0.0000,1.42241,-0.00754,-2.63239,1.06916,1.57080,0.11675,-0.12762,-0.48151,0.03457,,,,,,,,,,,,,,,,,,,,,,,,,,0,0,0,0,0
3.9165,1783969855.6833,1,1,0.5000,-0.0000,1.42241,-0.00754,-2.63239,1.06916,1.57080,0.11675,-0.12762,-0.48151,0.03457,,,,,,,,,,,,,,,,,,,,,,,,,,0,0,0,0,0
3.9253,1783969855.6920,1,1,0.5000,-0.0000,1.42241,-0.00754,-2.63239,1.06916,1.57080,0.11675,-0.12762,-0.48151,0.03457,,,,,,,,,,,,,,,,,,,,,,,,,,0,0,0,0,0
3.9481,1783969855.7148,1,1,0.5000,-0.0000,1.42241,-0.00754,-2.63239,1.06916,1.57080,0.11675,-0.12762,-0.48151,0.03457,,,,,,,,,,,,,,,,,,,,,,,,,,0,0,0,0,0
3.9568,1783969855.7236,1,1,0.5000,-0.0000,1.42241,-0.00754,-2.63239,1.06916,1.57080,0.11675,-0.12762,-0.48151,0.03457,,,,,,,,,,,,,,,,,,,,,,,,,,0,0,0,0,0
3.9588,1783969855.7256,1,1,0.5000,-0.0000,1.42241,-0.00754,-2.63239,1.06916,1.57080,0.11675,-0.12762,-0.48151,0.03457,,,,,,,,,,,,,,,,,,,,,,,,,,0,0,0,0,0
3.9593,1783969855.7261,1,1,0.5000,-0.0000,1.42241,-0.00754,-2.63239,1.06916,1.57080,0.11675,-0.12762,-0.48151,0.03457,,,,,,,,,,,,,,,,,,,,,,,,,,0,0,0,0,0
3.9600,1783969855.7268,1,1,0.5000,-0.0000,1.42241,-0.00754,-2.63239,1.06916,1.57080,0.11675,-0.12762,-0.48151,0.03457,,,,,,,,,,,,,,,,,,,,,,,,,,0,0,0,0,0
3.9605,1783969855.7273,1,1,0.5000,-0.0000,1.42241,-0.00754,-2.63239,1.06916,1.57080,0.11675,-0.12762,-0.48151,0.03457,,,,,,,,,,,,,,,,,,,,,,,,,,0,0,0,0,0
3.9610,1783969855.7278,1,1,0.5000,-0.0000,1.42241,-0.00754,-2.63239,1.06916,1.57080,0.11675,-0.12762,-0.48151,0.03457,,,,,,,,,,,,,,,,,,,,,,,,,,0,0,0,0,0
3.9617,1783969855.7285,1,1,0.5000,-0.0000,1.42241,-0.00754,-2.63239,1.06916,1.57080,0.11675,-0.12762,-0.48151,0.03457,,,,,,,,,,,,,,,,,,,,,,,,,,0,0,0,0,0
3.9654,1783969855.7322,1,1,0.5000,-0.0000,1.42241,-0.00754,-2.63239,1.06916,1.57080,0.11675,-0.12762,-0.48151,0.03457,,,,,,,,,,,,,,,,,,,,,,,,,,0,0,0,0,0
3.9684,1783969855.7352,1,1,0.5000,-0.0000,1.42241,-0.00754,-2.63239,1.06916,1.57080,0.11675,-0.12762,-0.48151,0.03457,,,,,,,,,,,,,,,,,,,,,,,,,,0,0,0,0,0
3.9752,1783969855.7419,1,1,0.5000,-0.0000,1.42241,-0.00754,-2.63239,1.06916,1.57080,0.11675,-0.12762,-0.48151,0.03457,,,,,,,,,,,,,,,,,,,,,,,,,,0,0,0,0,0
3.9851,1783969855.7519,1,1,0.5000,-0.0000,1.42241,-0.00755,-2.63239,1.06917,1.57080,0.11675,-0.12762,-0.48151,0.03457,,,,,,,,,,,,,,,,,,,,,,,,,,0,0,0,0,0
3.9854,1783969855.7522,1,1,0.5000,-0.0000,1.42241,-0.00755,-2.63239,1.06917,1.57080,0.11675,-0.12762,-0.48151,0.03457,,,,,,,,,,,,,,,,,,,,,,,,,,0,0,0,0,0
3.9969,1783969855.7637,1,1,0.5000,-0.0000,1.42241,-0.00756,-2.63239,1.06919,1.57080,0.11675,-0.12762,-0.48151,0.03457,,,,,,,,,,,,,,,,,,,,,,,,,,0,0,0,0,0
3.9983,1783969855.7650,1,1,0.5000,-0.0000,1.42241,-0.00756,-2.63239,1.06919,1.57080,0.11675,-0.12762,-0.48151,0.03457,,,,,,,,,,,,,,,,,,,,,,,,,,0,0,0,0,0
4.0097,1783969855.7765,1,1,0.5000,-0.0000,1.42241,-0.00757,-2.63240,1.06921,1.57080,0.11675,-0.12762,-0.48151,0.03456,,,,,,,,,,,,,,,,,,,,,,,,,,0,0,0,0,0
4.0145,1783969855.7813,1,1,0.5000,-0.0000,1.42241,-0.00758,-2.63240,1.06921,1.57080,0.11675,-0.12762,-0.48151,0.03456,,,,,,,,,,,,,,,,,,,,,,,,,,0,0,0,0,0
4.0264,1783969855.7931,1,1,0.5000,-0.0000,1.42241,-0.00761,-2.63243,1.06925,1.57080,0.11675,-0.12762,-0.48149,0.03454,,,,,,,,,,,,,,,,,,,,,,,,,,0,0,0,0,0
4.0266,1783969855.7934,1,1,0.5000,-0.0000,1.42241,-0.00761,-2.63243,1.06925,1.57080,0.11675,-0.12762,-0.48149,0.03454,,,,,,,,,,,,,,,,,,,,,,,,,,0,0,0,0,0
4.0384,1783969855.8052,1,1,0.5000,-0.0000,1.42241,-0.00763,-2.63244,1.06927,1.57080,0.11675,-0.12762,-0.48149,0.03453,,,,,,,,,,,,,,,,,,,,,,,,,,0,0,0,0,0
4.0480,1783969855.8148,1,1,0.5000,-0.0000,1.42241,-0.00768,-2.63246,1.06933,1.57080,0.11675,-0.12763,-0.48148,0.03451,,,,,,,,,,,,,,,,,,,,,,,,,,0,0,0,0,0
4.0578,1783969855.8246,1,1,0.5000,-0.0000,1.42241,-0.00774,-2.63249,1.06940,1.57080,0.11675,-0.12763,-0.48147,0.03448,,,,,,,,,,,,,,,,,,,,,,,,,,0,0,0,0,0
4.0640,1783969855.8308,1,1,0.5000,-0.0000,1.42241,-0.00777,-2.63250,1.06944,1.57080,0.11675,-0.12763,-0.48146,0.03447,,,,,,,,,,,,,,,,,,,,,,,,,,0,0,0,0,0
4.0643,1783969855.8311,1,1,0.5000,-0.0000,1.42241,-0.00777,-2.63250,1.06944,1.57080,0.11675,-0.12763,-0.48146,0.03447,,,,,,,,,,,,,,,,,,,,,,,,,,0,0,0,0,0
4.0783,1783969855.8450,1,1,0.5000,-0.0000,1.42241,-0.00782,-2.63251,1.06949,1.57080,0.11675,-0.12763,-0.48146,0.03445,,,,,,,,,,,,,,,,,,,,,,,,,,0,0,0,0,0
4.0855,1783969855.8523,1,1,0.5000,-0.0000,1.42241,-0.00788,-2.63253,1.06957,1.57080,0.11675,-0.12763,-0.48146,0.03443,,,,,,,,,,,,,,,,,,,,,,,,,,0,0,0,0,0
4.1002,1783969855.8670,1,1,0.5000,-0.0000,1.42241,-0.00798,-2.63255,1.06968,1.57080,0.11675,-0.12763,-0.48146,0.03439,,,,,,,,,,,,,,,,,,,,,,,,,,0,0,0,0,0
4.1052,1783969855.8720,1,1,0.5000,-0.0000,1.42241,-0.00800,-2.63256,1.06971,1.57080,0.11675,-0.12763,-0.48146,0.03439,,,,,,,,,,,,,,,,,,,,,,,,,,0,0,0,0,0
4.1169,1783969855.8836,1,1,0.5000,-0.0000,1.42241,-0.00810,-2.63258,1.06983,1.57080,0.11675,-0.12763,-0.48146,0.03435,,,,,,,,,,,,,,,,,,,,,,,,,,0,0,0,0,0
4.1228,1783969855.8896,1,1,0.5000,-0.0000,1.42241,-0.00810,-2.63258,1.06983,1.57080,0.11675,-0.12763,-0.48146,0.03435,,,,,,,,,,,,,,,,,,,,,,,,,,0,0,0,0,0
4.1336,1783969855.9003,1,1,0.5000,-0.0000,1.42241,-0.00816,-2.63258,1.06990,1.57080,0.11675,-0.12763,-0.48146,0.03434,,,,,,,,,,,,,,,,,,,,,,,,,,0,0,0,0,0
4.1439,1783969855.9107,1,1,0.5000,-0.0000,1.42241,-0.00829,-2.63260,1.07006,1.57080,0.11675,-0.12763,-0.48147,0.03429,,,,,,,,,,,,,,,,,,,,,,,,,,0,0,0,0,0
4.1601,1783969855.9269,1,1,0.5000,-0.0000,1.42241,-0.00851,-2.63264,1.07033,1.57080,0.11675,-0.12762,-0.48148,0.03423,,,,,,,,,,,,,,,,,,,,,,,,,,0,0,0,0,0
4.1604,1783969855.9272,1,1,0.5000,-0.0000,1.42241,-0.00851,-2.63264,1.07033,1.57080,0.11675,-0.12762,-0.48148,0.03423,,,,,,,,,,,,,,,,,,,,,,,,,,0,0,0,0,0
4.1654,1783969855.9321,1,1,0.5000,-0.0000,1.42241,-0.00856,-2.63265,1.07039,1.57080,0.11675,-0.12762,-0.48148,0.03421,,,,,,,,,,,,,,,,,,,,,,,,,,0,0,0,0,0
4.1755,1783969855.9423,1,1,0.5000,-0.0000,1.42241,-0.00865,-2.63266,1.07050,1.57080,0.11675,-0.12762,-0.48149,0.03419,,,,,,,,,,,,,,,,,,,,,,,,,,0,0,0,0,0
4.1761,1783969855.9429,1,1,0.5000,-0.0000,1.42241,-0.00869,-2.63266,1.07054,1.57080,0.11675,-0.12762,-0.48149,0.03418,,,,,,,,,,,,,,,,,,,,,,,,,,0,0,0,0,0
4.1883,1783969855.9550,1,1,0.5000,-0.0000,1.42241,-0.00871,-2.63266,1.07058,1.57080,0.11675,-0.12762,-0.48150,0.03417,,,,,,,,,,,,,,,,,,,,,,,,,,0,0,0,0,0
4.1957,1783969855.9624,1,1,0.5000,-0.0000,1.42241,-0.00871,-2.63266,1.07058,1.57080,0.11675,-0.12762,-0.48150,0.03417,,,,,,,,,,,,,,,,,,,,,,,,,,0,0,0,0,0
4.2067,1783969855.9735,1,1,0.5000,-0.0000,1.42241,-0.00871,-2.63266,1.07058,1.57080,0.11675,-0.12762,-0.48150,0.03417,,,,,,,,,,,,,,,,,,,,,,,,,,0,0,0,0,0
4.2127,1783969855.9795,1,1,0.5000,-0.0000,1.42241,-0.00871,-2.63266,1.07058,1.57080,0.11675,-0.12762,-0.48150,0.03417,,,,,,,,,,,,,,,,,,,,,,,,,,0,0,0,0,0
4.2243,1783969855.9911,1,1,0.5000,-0.0000,1.42241,-0.00871,-2.63266,1.07058,1.57080,0.11675,-0.12762,-0.48150,0.03417,,,,,,,,,,,,,,,,,,,,,,,,,,0,0,0,0,0
4.2248,1783969855.9915,1,1,0.5000,-0.0000,1.42241,-0.00871,-2.63266,1.07058,1.57080,0.11675,-0.12762,-0.48150,0.03417,,,,,,,,,,,,,,,,,,,,,,,,,,0,0,0,0,0
4.2336,1783969856.0004,1,1,0.5000,-0.0000,1.42241,-0.00871,-2.63266,1.07058,1.57080,0.11675,-0.12762,-0.48150,0.03417,,,,,,,,,,,,,,,,,,,,,,,,,,0,0,0,0,0
4.2562,1783969856.0230,1,1,0.5000,-0.0000,1.42241,-0.00871,-2.63266,1.07058,1.57080,0.11675,-0.12762,-0.48150,0.03417,,,,,,,,,,,,,,,,,,,,,,,,,,0,0,0,0,0
4.2666,1783969856.0333,1,1,0.5000,-0.0000,1.42241,-0.00871,-2.63266,1.07058,1.57080,0.11675,-0.12762,-0.48150,0.03417,,,,,,,,,,,,,,,,,,,,,,,,,,0,0,0,0,0
4.2694,1783969856.0362,1,1,0.5000,-0.0000,1.42241,-0.00871,-2.63266,1.07058,1.57080,0.11675,-0.12762,-0.48150,0.03417,,,,,,,,,,,,,,,,,,,,,,,,,,0,0,0,0,0
4.2756,1783969856.0424,1,1,0.5000,-0.0000,1.42241,-0.00871,-2.63266,1.07058,1.57080,0.11675,-0.12762,-0.48150,0.03417,,,,,,,,,,,,,,,,,,,,,,,,,,0,0,0,0,0
4.2765,1783969856.0433,1,1,0.5000,-0.0000,1.42241,-0.00871,-2.63266,1.07058,1.57080,0.11675,-0.12762,-0.48150,0.03417,,,,,,,,,,,,,,,,,,,,,,,,,,0,0,0,0,0
4.2861,1783969856.0529,1,1,0.5000,-0.0000,1.42241,-0.00871,-2.63266,1.07058,1.57080,0.11675,-0.12762,-0.48150,0.03417,,,,,,,,,,,,,,,,,,,,,,,,,,0,0,0,0,0
4.2959,1783969856.0627,1,1,0.5000,-0.0000,1.42241,-0.00871,-2.63266,1.07058,1.57080,0.11675,-0.12762,-0.48150,0.03417,,,,,,,,,,,,,,,,,,,,,,,,,,0,0,0,0,0
4.3088,1783969856.0755,1,1,0.5000,-0.0000,1.42241,-0.00871,-2.63266,1.07058,1.57080,0.11675,-0.12762,-0.48150,0.03417,,,,,,,,,,,,,,,,,,,,,,,,,,0,0,0,0,0
4.3185,1783969856.0853,1,1,0.5000,-0.0000,1.42241,-0.00871,-2.63266,1.07058,1.57080,0.11675,-0.12762,-0.48150,0.03417,,,,,,,,,,,,,,,,,,,,,,,,,,0,0,0,0,0
4.3239,1783969856.0907,1,1,0.5000,-0.0000,1.42241,-0.00871,-2.63266,1.07058,1.57080,0.11675,-0.12762,-0.48150,0.03417,,,,,,,,,,,,,,,,,,,,,,,,,,0,0,0,0,0
4.3337,1783969856.1005,1,1,0.5000,-0.0000,1.42241,-0.00871,-2.63266,1.07058,1.57080,0.11675,-0.12762,-0.48150,0.03417,,,,,,,,,,,,,,,,,,,,,,,,,,0,0,0,0,0
4.3453,1783969856.1120,1,1,0.5000,-0.0000,1.42241,-0.00871,-2.63266,1.07058,1.57080,0.11675,-0.12762,-0.48150,0.03417,,,,,,,,,,,,,,,,,,,,,,,,,,0,0,0,0,0
4.3520,1783969856.1188,1,1,0.5000,-0.0000,1.42241,-0.00871,-2.63266,1.07058,1.57080,0.11675,-0.12762,-0.48150,0.03417,,,,,,,,,,,,,,,,,,,,,,,,,,0,0,0,0,0
4.3680,1783969856.1347,1,1,0.5000,-0.0000,1.42241,-0.00871,-2.63266,1.07058,1.57080,0.11675,-0.12762,-0.48150,0.03417,,,,,,,,,,,,,,,,,,,,,,,,,,0,0,0,0,0
4.3737,1783969856.1405,1,1,0.5000,-0.0000,1.42241,-0.00871,-2.63266,1.07058,1.57080,0.11675,-0.12762,-0.48150,0.03417,,,,,,,,,,,,,,,,,,,,,,,,,,0,0,0,0,0
4.3841,1783969856.1509,1,1,0.5000,-0.0000,1.42241,-0.00871,-2.63266,1.07058,1.57080,0.11675,-0.12762,-0.48150,0.03417,,,,,,,,,,,,,,,,,,,,,,,,,,0,0,0,0,0
4.3844,1783969856.1512,1,1,0.5000,-0.0000,1.42241,-0.00871,-2.63266,1.07058,1.57080,0.11675,-0.12762,-0.48150,0.03417,,,,,,,,,,,,,,,,,,,,,,,,,,0,0,0,0,0
4.3929,1783969856.1597,1,1,0.5000,-0.0000,1.42241,-0.00871,-2.63266,1.07058,1.57080,0.11675,-0.12762,-0.48150,0.03417,,,,,,,,,,,,,,,,,,,,,,,,,,0,0,0,0,0
4.4186,1783969856.1853,1,1,0.5000,-0.0000,1.42241,-0.00872,-2.63266,1.07060,1.57080,0.11675,-0.12762,-0.48150,0.03417,,,,,,,,,,,,,,,,,,,,,,,,,,0,0,0,0,0
4.4257,1783969856.1925,1,1,0.5000,-0.0000,1.42241,-0.00873,-2.63266,1.07061,1.57080,0.11675,-0.12762,-0.48150,0.03417,,,,,,,,,,,,,,,,,,,,,,,,,,0,0,0,0,0
4.4262,1783969856.1929,1,1,0.5000,-0.0000,1.42241,-0.00873,-2.63266,1.07061,1.57080,0.11675,-0.12762,-0.48150,0.03417,,,,,,,,,,,,,,,,,,,,,,,,,,0,0,0,0,0
4.4265,1783969856.1933,1,1,0.5000,-0.0000,1.42241,-0.00873,-2.63266,1.07061,1.57080,0.11675,-0.12762,-0.48150,0.03417,,,,,,,,,,,,,,,,,,,,,,,,,,0,0,0,0,0
4.4359,1783969856.2026,1,1,0.5000,-0.0000,1.42241,-0.00875,-2.63268,1.07063,1.57080,0.11675,-0.12762,-0.48149,0.03415,,,,,,,,,,,,,,,,,,,,,,,,,,0,0,0,0,0
4.4480,1783969856.2148,1,1,0.5000,-0.0000,1.42241,-0.00880,-2.63272,1.07070,1.57081,0.11675,-0.12762,-0.48147,0.03412,,,,,,,,,,,,,,,,,,,,,,,,,,0,0,0,0,0
4.4520,1783969856.2188,1,1,0.5000,-0.0000,1.42241,-0.00883,-2.63274,1.07072,1.57081,0.11675,-0.12763,-0.48146,0.03411,,,,,,,,,,,,,,,,,,,,,,,,,,0,0,0,0,0
4.4524,1783969856.2192,1,1,0.5000,-0.0000,1.42241,-0.00883,-2.63274,1.07072,1.57081,0.11675,-0.12763,-0.48146,0.03411,,,,,,,,,,,,,,,,,,,,,,,,,,0,0,0,0,0
4.4697,1783969856.2365,1,1,0.5000,-0.0000,1.42241,-0.00886,-2.63275,1.07076,1.57081,0.11675,-0.12763,-0.48146,0.03410,,,,,,,,,,,,,,,,,,,,,,,,,,0,0,0,0,0
4.4758,1783969856.2426,1,1,0.5000,-0.0000,1.42241,-0.00890,-2.63277,1.07081,1.57081,0.11675,-0.12763,-0.48145,0.03408,,,,,,,,,,,,,,,,,,,,,,,,,,0,0,0,0,0
4.4831,1783969856.2499,1,1,0.5000,-0.0000,1.42241,-0.00893,-2.63278,1.07084,1.57081,0.11675,-0.12763,-0.48144,0.03407,,,,,,,,,,,,,,,,,,,,,,,,,,0,0,0,0,0
4.4931,1783969856.2599,1,1,0.5000,-0.0000,1.42241,-0.00896,-2.63279,1.07088,1.57081,0.11675,-0.12763,-0.48144,0.03405,,,,,,,,,,,,,,,,,,,,,,,,,,0,0,0,0,0
4.5199,1783969856.2867,1,1,0.5000,-0.0000,1.42241,-0.00910,-2.63282,1.07104,1.57081,0.11675,-0.12763,-0.48144,0.03401,,,,,,,,,,,,,,,,,,,,,,,,,,0,0,0,0,0
4.5221,1783969856.2889,1,1,0.5000,-0.0000,1.42241,-0.00910,-2.63282,1.07104,1.57081,0.11675,-0.12763,-0.48144,0.03401,,,,,,,,,,,,,,,,,,,,,,,,,,0,0,0,0,0
4.5223,1783969856.2891,1,1,0.5000,-0.0000,1.42241,-0.00910,-2.63282,1.07104,1.57081,0.11675,-0.12763,-0.48144,0.03401,,,,,,,,,,,,,,,,,,,,,,,,,,0,0,0,0,0
4.5256,1783969856.2924,1,1,0.5000,-0.0000,1.42241,-0.00913,-2.63282,1.07108,1.57081,0.11675,-0.12763,-0.48144,0.03400,,,,,,,,,,,,,,,,,,,,,,,,,,0,0,0,0,0
4.5260,1783969856.2927,1,1,0.5000,-0.0000,1.42241,-0.00913,-2.63282,1.07108,1.57081,0.11675,-0.12763,-0.48144,0.03400,,,,,,,,,,,,,,,,,,,,,,,,,,0,0,0,0,0
4.5320,1783969856.2988,1,1,0.5000,-0.0000,1.42241,-0.00922,-2.63284,1.07119,1.57081,0.11675,-0.12763,-0.48145,0.03397,,,,,,,,,,,,,,,,,,,,,,,,,,0,0,0,0,0
4.5484,1783969856.3152,1,1,0.5000,-0.0000,1.42241,-0.00940,-2.63286,1.07139,1.57081,0.11675,-0.12763,-0.48145,0.03391,,,,,,,,,,,,,,,,,,,,,,,,,,0,0,0,0,0
4.5533,1783969856.3201,1,1,0.5000,-0.0000,1.42241,-0.00940,-2.63286,1.07140,1.57081,0.11675,-0.12763,-0.48145,0.03391,,,,,,,,,,,,,,,,,,,,,,,,,,0,0,0,0,0
4.5536,1783969856.3204,1,1,0.5000,-0.0000,1.42241,-0.00940,-2.63286,1.07140,1.57081,0.11675,-0.12763,-0.48145,0.03391,,,,,,,,,,,,,,,,,,,,,,,,,,0,0,0,0,0
4.5710,1783969856.3377,1,1,0.5000,-0.0000,1.42241,-0.00950,-2.63288,1.07152,1.57081,0.11675,-0.12763,-0.48146,0.03388,,,,,,,,,,,,,,,,,,,,,,,,,,0,0,0,0,0
4.5757,1783969856.3425,1,1,0.5000,-0.0000,1.42241,-0.00958,-2.63289,1.07161,1.57081,0.11675,-0.12762,-0.48146,0.03386,,,,,,,,,,,,,,,,,,,,,,,,,,0,0,0,0,0
4.5850,1783969856.3518,1,1,0.5000,-0.0000,1.42241,-0.00958,-2.63289,1.07162,1.57081,0.11675,-0.12762,-0.48146,0.03386,,,,,,,,,,,,,,,,,,,,,,,,,,0,0,0,0,0
4.5853,1783969856.3521,1,1,0.5000,-0.0000,1.42241,-0.00958,-2.63289,1.07162,1.57081,0.11675,-0.12762,-0.48146,0.03386,,,,,,,,,,,,,,,,,,,,,,,,,,0,0,0,0,0
4.5934,1783969856.3602,1,1,0.5000,-0.0000,1.42241,-0.00961,-2.63289,1.07165,1.57081,0.11675,-0.12762,-0.48147,0.03385,,,,,,,,,,,,,,,,,,,,,,,,,,0,0,0,0,0
4.6165,1783969856.3833,1,1,0.5000,-0.0000,1.42241,-0.00979,-2.63287,1.07188,1.57081,0.11675,-0.12762,-0.48151,0.03381,,,,,,,,,,,,,,,,,,,,,,,,,,0,0,0,0,0
4.6240,1783969856.3908,1,1,0.5000,-0.0000,1.42241,-0.00985,-2.63286,1.07196,1.57081,0.11675,-0.12761,-0.48153,0.03380,,,,,,,,,,,,,,,,,,,,,,,,,,0,0,0,0,0
4.6243,1783969856.3911,1,1,0.5000,-0.0000,1.42241,-0.00985,-2.63286,1.07196,1.57081,0.11675,-0.12761,-0.48153,0.03380,,,,,,,,,,,,,,,,,,,,,,,,,,0,0,0,0,0
4.6281,1783969856.3949,1,1,0.5000,-0.0000,1.42241,-0.00988,-2.63285,1.07199,1.57081,0.11675,-0.12761,-0.48154,0.03380,,,,,,,,,,,,,,,,,,,,,,,,,,0,0,0,0,0
4.6325,1783969856.3993,1,1,0.5000,-0.0000,1.42241,-0.00990,-2.63285,1.07202,1.57081,0.11675,-0.12761,-0.48155,0.03380,,,,,,,,,,,,,,,,,,,,,,,,,,0,0,0,0,0
4.6455,1783969856.4123,1,1,0.5000,-0.0000,1.42241,-0.00993,-2.63282,1.07206,1.57081,0.11675,-0.12761,-0.48157,0.03381,,,,,,,,,,,,,,,,,,,,,,,,,,0,0,0,0,0
4.6524,1783969856.4192,1,1,0.5000,-0.0000,1.42241,-0.00993,-2.63282,1.07206,1.57081,0.11675,-0.12761,-0.48157,0.03381,,,,,,,,,,,,,,,,,,,,,,,,,,0,0,0,0,0
4.6528,1783969856.4195,1,1,0.5000,-0.0000,1.42241,-0.00993,-2.63282,1.07206,1.57081,0.11675,-0.12761,-0.48157,0.03381,,,,,,,,,,,,,,,,,,,,,,,,,,0,0,0,0,0
4.6762,1783969856.4429,1,1,0.5000,-0.0000,1.42241,-0.00993,-2.63282,1.07206,1.57081,0.11675,-0.12761,-0.48157,0.03381,,,,,,,,,,,,,,,,,,,,,,,,,,0,0,0,0,0
4.6854,1783969856.4521,1,1,0.5000,-0.0000,1.42241,-0.00993,-2.63282,1.07206,1.57081,0.11675,-0.12761,-0.48157,0.03381,,,,,,,,,,,,,,,,,,,,,,,,,,0,0,0,0,0
4.6986,1783969856.4654,1,1,0.5000,-0.0000,1.42241,-0.00993,-2.63282,1.07206,1.57081,0.11675,-0.12761,-0.48157,0.03381,,,,,,,,,,,,,,,,,,,,,,,,,,0,0,0,0,0
4.7070,1783969856.4738,1,1,0.5000,-0.0000,1.42241,-0.00993,-2.63282,1.07206,1.57081,0.11675,-0.12761,-0.48157,0.03381,,,,,,,,,,,,,,,,,,,,,,,,,,0,0,0,0,0
4.7178,1783969856.4846,1,1,0.5000,-0.0000,1.42241,-0.00993,-2.63282,1.07206,1.57081,0.11675,-0.12761,-0.48157,0.03381,,,,,,,,,,,,,,,,,,,,,,,,,,0,0,0,0,0
4.7293,1783969856.4961,1,1,0.5000,-0.0000,1.42241,-0.00993,-2.63282,1.07206,1.57081,0.11675,-0.12761,-0.48157,0.03381,,,,,,,,,,,,,,,,,,,,,,,,,,0,0,0,0,0
4.7314,1783969856.4981,1,1,0.5000,-0.0000,1.42241,-0.00993,-2.63282,1.07206,1.57081,0.11675,-0.12761,-0.48157,0.03381,,,,,,,,,,,,,,,,,,,,,,,,,,0,0,0,0,0
4.7322,1783969856.4990,1,1,0.5000,-0.0000,1.42241,-0.00993,-2.63282,1.07206,1.57081,0.11675,-0.12761,-0.48157,0.03381,,,,,,,,,,,,,,,,,,,,,,,,,,0,0,0,0,0
4.7385,1783969856.5053,1,1,0.5000,-0.0000,1.42241,-0.00993,-2.63282,1.07206,1.57081,0.11675,-0.12761,-0.48157,0.03381,,,,,,,,,,,,,,,,,,,,,,,,,,0,0,0,0,0
4.7388,1783969856.5056,1,1,0.5000,-0.0000,1.42241,-0.00993,-2.63282,1.07206,1.57081,0.11675,-0.12761,-0.48157,0.03381,,,,,,,,,,,,,,,,,,,,,,,,,,0,0,0,0,0
4.7443,1783969856.5111,1,1,0.5000,-0.0000,1.42241,-0.00993,-2.63282,1.07206,1.57081,0.11675,-0.12761,-0.48157,0.03381,,,,,,,,,,,,,,,,,,,,,,,,,,0,0,0,0,0
4.7528,1783969856.5196,1,1,0.5000,-0.0000,1.42241,-0.00993,-2.63282,1.07206,1.57081,0.11675,-0.12761,-0.48157,0.03381,,,,,,,,,,,,,,,,,,,,,,,,,,0,0,0,0,0
4.7642,1783969856.5309,1,1,0.5000,-0.0000,1.42241,-0.00993,-2.63282,1.07206,1.57081,0.11675,-0.12761,-0.48157,0.03381,,,,,,,,,,,,,,,,,,,,,,,,,,0,0,0,0,0
4.7765,1783969856.5433,1,1,0.5000,-0.0000,1.42241,-0.00993,-2.63282,1.07206,1.57081,0.11675,-0.12761,-0.48157,0.03381,,,,,,,,,,,,,,,,,,,,,,,,,,0,0,0,0,0
4.7833,1783969856.5501,1,1,0.5000,-0.0000,1.42241,-0.00993,-2.63282,1.07206,1.57081,0.11675,-0.12761,-0.48157,0.03381,,,,,,,,,,,,,,,,,,,,,,,,,,0,0,0,0,0
4.7838,1783969856.5506,1,1,0.5000,-0.0000,1.42241,-0.00993,-2.63282,1.07206,1.57081,0.11675,-0.12761,-0.48157,0.03381,,,,,,,,,,,,,,,,,,,,,,,,,,0,0,0,0,0
4.7957,1783969856.5625,1,1,0.5000,-0.0000,1.42241,-0.00993,-2.63282,1.07206,1.57081,0.11675,-0.12761,-0.48157,0.03381,,,,,,,,,,,,,,,,,,,,,,,,,,0,0,0,0,0
4.8040,1783969856.5708,1,1,0.5000,-0.0000,1.42241,-0.00993,-2.63282,1.07206,1.57081,0.11675,-0.12761,-0.48157,0.03381,,,,,,,,,,,,,,,,,,,,,,,,,,0,0,0,0,0
4.8043,1783969856.5711,1,1,0.5000,-0.0000,1.42241,-0.00993,-2.63282,1.07206,1.57081,0.11675,-0.12761,-0.48157,0.03381,,,,,,,,,,,,,,,,,,,,,,,,,,0,0,0,0,0
4.8162,1783969856.5829,1,1,0.5000,-0.0000,1.42241,-0.00993,-2.63282,1.07206,1.57081,0.11675,-0.12761,-0.48157,0.03381,,,,,,,,,,,,,,,,,,,,,,,,,,0,0,0,0,0
4.8166,1783969856.5834,1,1,0.5000,-0.0000,1.42241,-0.00993,-2.63282,1.07206,1.57081,0.11675,-0.12761,-0.48157,0.03381,,,,,,,,,,,,,,,,,,,,,,,,,,0,0,0,0,0
4.8260,1783969856.5927,1,1,0.5000,-0.0000,1.42241,-0.00993,-2.63282,1.07206,1.57081,0.11675,-0.12761,-0.48157,0.03381,,,,,,,,,,,,,,,,,,,,,,,,,,0,0,0,0,0
4.8335,1783969856.6003,1,1,0.5000,-0.0000,1.42241,-0.00994,-2.63283,1.07206,1.57081,0.11675,-0.12761,-0.48157,0.03380,,,,,,,,,,,,,,,,,,,,,,,,,,0,0,0,0,0
4.8458,1783969856.6126,1,1,0.5000,-0.0000,1.42241,-0.00994,-2.63285,1.07208,1.57081,0.11675,-0.12761,-0.48156,0.03379,,,,,,,,,,,,,,,,,,,,,,,,,,0,0,0,0,0
4.8569,1783969856.6236,1,1,0.5000,-0.0000,1.42241,-0.00996,-2.63287,1.07210,1.57081,0.11675,-0.12761,-0.48154,0.03378,,,,,,,,,,,,,,,,,,,,,,,,,,0,0,0,0,0
4.8671,1783969856.6339,1,1,0.5000,-0.0000,1.42241,-0.00998,-2.63291,1.07213,1.57081,0.11675,-0.12761,-0.48152,0.03376,,,,,,,,,,,,,,,,,,,,,,,,,,0,0,0,0,0
4.8783,1783969856.6450,1,1,0.5000,-0.0000,1.42241,-0.01002,-2.63295,1.07217,1.57081,0.11675,-0.12762,-0.48149,0.03373,,,,,,,,,,,,,,,,,,,,,,,,,,0,0,0,0,0
4.8840,1783969856.6507,1,1,0.5000,-0.0000,1.42241,-0.01003,-2.63296,1.07219,1.57081,0.11675,-0.12762,-0.48149,0.03372,,,,,,,,,,,,,,,,,,,,,,,,,,0,0,0,0,0
4.8843,1783969856.6511,1,1,0.5000,-0.0000,1.42241,-0.01003,-2.63296,1.07219,1.57081,0.11675,-0.12762,-0.48149,0.03372,,,,,,,,,,,,,,,,,,,,,,,,,,0,0,0,0,0
4.8961,1783969856.6629,1,1,0.5000,-0.0000,1.42240,-0.01009,-2.63300,1.07225,1.57081,0.11675,-0.12762,-0.48147,0.03369,,,,,,,,,,,,,,,,,,,,,,,,,,0,0,0,0,0
4.8964,1783969856.6632,1,1,0.5000,-0.0000,1.42240,-0.01009,-2.63300,1.07225,1.57081,0.11675,-0.12762,-0.48147,0.03369,,,,,,,,,,,,,,,,,,,,,,,,,,0,0,0,0,0
4.9045,1783969856.6712,1,1,0.5000,-0.0000,1.42240,-0.01014,-2.63303,1.07231,1.57081,0.11675,-0.12762,-0.48145,0.03366,,,,,,,,,,,,,,,,,,,,,,,,,,0,0,0,0,0
4.9047,1783969856.6715,1,1,0.5000,-0.0000,1.42240,-0.01014,-2.63303,1.07231,1.57081,0.11675,-0.12762,-0.48145,0.03366,,,,,,,,,,,,,,,,,,,,,,,,,,0,0,0,0,0
4.9205,1783969856.6873,1,1,0.5000,-0.0000,1.42240,-0.01018,-2.63304,1.07236,1.57081,0.11675,-0.12762,-0.48145,0.03365,,,,,,,,,,,,,,,,,,,,,,,,,,0,0,0,0,0
4.9295,1783969856.6963,1,1,0.5000,-0.0000,1.42240,-0.01024,-2.63305,1.07243,1.57081,0.11675,-0.12762,-0.48145,0.03363,,,,,,,,,,,,,,,,,,,,,,,,,,0,0,0,0,0
4.9329,1783969856.6997,1,1,0.5000,-0.0000,1.42240,-0.01024,-2.63305,1.07243,1.57081,0.11675,-0.12762,-0.48145,0.03363,,,,,,,,,,,,,,,,,,,,,,,,,,0,0,0,0,0
4.9439,1783969856.7106,1,1,0.5000,-0.0000,1.42240,-0.01030,-2.63307,1.07250,1.57081,0.11675,-0.12762,-0.48145,0.03361,,,,,,,,,,,,,,,,,,,,,,,,,,0,0,0,0,0
4.9629,1783969856.7297,1,1,0.5000,-0.0000,1.42240,-0.01050,-2.63310,1.07274,1.57081,0.11675,-0.12762,-0.48145,0.03354,,,,,,,,,,,,,,,,,,,,,,,,,,0,0,0,0,0
4.9650,1783969856.7317,1,1,0.5000,-0.0000,1.42240,-0.01050,-2.63310,1.07274,1.57081,0.11675,-0.12762,-0.48145,0.03354,,,,,,,,,,,,,,,,,,,,,,,,,,0,0,0,0,0
4.9653,1783969856.7321,1,1,0.5000,-0.0000,1.42240,-0.01050,-2.63310,1.07274,1.57081,0.11675,-0.12762,-0.48145,0.03354,,,,,,,,,,,,,,,,,,,,,,,,,,0,0,0,0,0
4.9787,1783969856.7455,1,1,0.5000,-0.0000,1.42240,-0.01055,-2.63311,1.07279,1.57081,0.11675,-0.12762,-0.48145,0.03353,,,,,,,,,,,,,,,,,,,,,,,,,,0,0,0,0,0
4.9859,1783969856.7527,1,1,0.5000,-0.0000,1.42240,-0.01062,-2.63312,1.07288,1.57081,0.11675,-0.12762,-0.48146,0.03350,,,,,,,,,,,,,,,,,,,,,,,,,,0,0,0,0,0
4.9948,1783969856.7616,1,1,0.5000,-0.0000,1.42240,-0.01071,-2.63314,1.07299,1.57081,0.11675,-0.12762,-0.48146,0.03347,,,,,,,,,,,,,,,,,,,,,,,,,,0,0,0,0,0
5.0079,1783969856.7747,1,1,0.5000,-0.0000,1.42240,-0.01091,-2.63317,1.07323,1.57081,0.11675,-0.12762,-0.48147,0.03341,,,,,,,,,,,,,,,,,,,,,,,,,,0,0,0,0,0
5.0083,1783969856.7751,1,1,0.5000,-0.0000,1.42240,-0.01091,-2.63317,1.07323,1.57081,0.11675,-0.12762,-0.48147,0.03341,,,,,,,,,,,,,,,,,,,,,,,,,,0,0,0,0,0
5.0341,1783969856.8009,1,1,0.5000,-0.0000,1.42240,-0.01105,-2.63319,1.07341,1.57081,0.11675,-0.12762,-0.48148,0.03337,,,,,,,,,,,,,,,,,,,,,,,,,,0,0,0,0,0
5.0368,1783969856.8036,1,1,0.5000,-0.0000,1.42240,-0.01105,-2.63319,1.07341,1.57081,0.11675,-0.12762,-0.48148,0.03337,,,,,,,,,,,,,,,,,,,,,,,,,,0,0,0,0,0
5.0371,1783969856.8038,1,1,0.5000,-0.0000,1.42240,-0.01105,-2.63319,1.07341,1.57081,0.11675,-0.12762,-0.48148,0.03337,,,,,,,,,,,,,,,,,,,,,,,,,,0,0,0,0,0
5.0374,1783969856.8042,1,1,0.5000,-0.0000,1.42240,-0.01105,-2.63319,1.07341,1.57081,0.11675,-0.12762,-0.48148,0.03337,,,,,,,,,,,,,,,,,,,,,,,,,,0,0,0,0,0
5.0538,1783969856.8206,1,1,0.5000,-0.0000,1.42240,-0.01105,-2.63319,1.07341,1.57081,0.11675,-0.12762,-0.48148,0.03337,,,,,,,,,,,,,,,,,,,,,,,,,,0,0,0,0,0
5.0645,1783969856.8312,1,1,0.5000,-0.0000,1.42240,-0.01105,-2.63319,1.07341,1.57081,0.11675,-0.12762,-0.48148,0.03337,,,,,,,,,,,,,,,,,,,,,,,,,,0,0,0,0,0
5.0648,1783969856.8316,1,1,0.5000,-0.0000,1.42240,-0.01105,-2.63319,1.07341,1.57081,0.11675,-0.12762,-0.48148,0.03337,,,,,,,,,,,,,,,,,,,,,,,,,,0,0,0,0,0
5.0835,1783969856.8503,1,1,0.5000,-0.0000,1.42240,-0.01105,-2.63319,1.07341,1.57081,0.11675,-0.12762,-0.48148,0.03337,,,,,,,,,,,,,,,,,,,,,,,,,,0,0,0,0,0
5.0842,1783969856.8510,1,1,0.5000,-0.0000,1.42240,-0.01105,-2.63319,1.07341,1.57081,0.11675,-0.12762,-0.48148,0.03337,,,,,,,,,,,,,,,,,,,,,,,,,,0,0,0,0,0
5.0845,1783969856.8513,1,1,0.5000,-0.0000,1.42240,-0.01105,-2.63319,1.07341,1.57081,0.11675,-0.12762,-0.48148,0.03337,,,,,,,,,,,,,,,,,,,,,,,,,,0,0,0,0,0
5.0882,1783969856.8550,1,1,0.5000,-0.0000,1.42240,-0.01105,-2.63319,1.07341,1.57081,0.11675,-0.12762,-0.48148,0.03337,,,,,,,,,,,,,,,,,,,,,,,,,,0,0,0,0,0
5.0931,1783969856.8599,1,1,0.5000,-0.0000,1.42240,-0.01105,-2.63319,1.07341,1.57081,0.11675,-0.12762,-0.48148,0.03337,,,,,,,,,,,,,,,,,,,,,,,,,,0,0,0,0,0
5.1066,1783969856.8734,1,1,0.5000,-0.0000,1.42240,-0.01105,-2.63319,1.07341,1.57081,0.11675,-0.12762,-0.48148,0.03337,,,,,,,,,,,,,,,,,,,,,,,,,,0,0,0,0,0
5.1126,1783969856.8794,1,1,0.5000,-0.0000,1.42240,-0.01105,-2.63319,1.07341,1.57081,0.11675,-0.12762,-0.48148,0.03337,,,,,,,,,,,,,,,,,,,,,,,,,,0,0,0,0,0
5.1289,1783969856.8957,1,1,0.5000,-0.0000,1.42240,-0.01105,-2.63319,1.07341,1.57081,0.11675,-0.12762,-0.48148,0.03337,,,,,,,,,,,,,,,,,,,,,,,,,,0,0,0,0,0
5.1383,1783969856.9051,1,1,0.5000,-0.0000,1.42240,-0.01105,-2.63319,1.07341,1.57081,0.11675,-0.12762,-0.48148,0.03337,,,,,,,,,,,,,,,,,,,,,,,,,,0,0,0,0,0
5.1480,1783969856.9147,1,1,0.5000,-0.0000,1.42240,-0.01105,-2.63319,1.07341,1.57081,0.11675,-0.12762,-0.48148,0.03337,,,,,,,,,,,,,,,,,,,,,,,,,,0,0,0,0,0
5.1550,1783969856.9217,1,1,0.5000,-0.0000,1.42240,-0.01105,-2.63319,1.07341,1.57081,0.11675,-0.12762,-0.48148,0.03337,,,,,,,,,,,,,,,,,,,,,,,,,,0,0,0,0,0
5.1553,1783969856.9221,1,1,0.5000,-0.0000,1.42240,-0.01105,-2.63319,1.07341,1.57081,0.11675,-0.12762,-0.48148,0.03337,,,,,,,,,,,,,,,,,,,,,,,,,,0,0,0,0,0
5.1646,1783969856.9313,1,1,0.5000,-0.0000,1.42240,-0.01105,-2.63319,1.07341,1.57081,0.11675,-0.12762,-0.48148,0.03337,,,,,,,,,,,,,,,,,,,,,,,,,,0,0,0,0,0
5.1784,1783969856.9452,1,1,0.5000,-0.0000,1.42240,-0.01105,-2.63319,1.07341,1.57081,0.11675,-0.12762,-0.48148,0.03337,,,,,,,,,,,,,,,,,,,,,,,,,,0,0,0,0,0
5.1856,1783969856.9523,1,1,0.5000,-0.0000,1.42240,-0.01105,-2.63319,1.07341,1.57081,0.11675,-0.12762,-0.48148,0.03337,,,,,,,,,,,,,,,,,,,,,,,,,,0,0,0,0,0
5.1973,1783969856.9641,1,1,0.5000,-0.0000,1.42240,-0.01105,-2.63319,1.07341,1.57081,0.11675,-0.12762,-0.48148,0.03337,,,,,,,,,,,,,,,,,,,,,,,,,,0,0,0,0,0
5.2051,1783969856.9719,1,1,0.5000,-0.0000,1.42240,-0.01105,-2.63319,1.07341,1.57081,0.11675,-0.12762,-0.48148,0.03337,,,,,,,,,,,,,,,,,,,,,,,,,,0,0,0,0,0
5.2126,1783969856.9794,1,1,0.5000,-0.0000,1.42240,-0.01105,-2.63319,1.07341,1.57081,0.11675,-0.12762,-0.48148,0.03337,,,,,,,,,,,,,,,,,,,,,,,,,,0,0,0,0,0
5.2130,1783969856.9798,1,1,0.5000,-0.0000,1.42240,-0.01105,-2.63319,1.07341,1.57081,0.11675,-0.12762,-0.48148,0.03337,,,,,,,,,,,,,,,,,,,,,,,,,,0,0,0,0,0
5.2281,1783969856.9949,1,1,0.5000,-0.0000,1.42240,-0.01105,-2.63319,1.07341,1.57081,0.11675,-0.12762,-0.48148,0.03337,,,,,,,,,,,,,,,,,,,,,,,,,,0,0,0,0,0
5.2284,1783969856.9952,1,1,0.5000,-0.0000,1.42240,-0.01105,-2.63319,1.07341,1.57081,0.11675,-0.12762,-0.48148,0.03337,,,,,,,,,,,,,,,,,,,,,,,,,,0,0,0,0,0
5.2373,1783969857.0041,1,1,0.5000,-0.0000,1.42240,-0.01105,-2.63319,1.07341,1.57081,0.11675,-0.12762,-0.48148,0.03337,,,,,,,,,,,,,,,,,,,,,,,,,,0,0,0,0,0
5.2448,1783969857.0116,1,1,0.5000,-0.0000,1.42240,-0.01106,-2.63318,1.07342,1.57081,0.11675,-0.12762,-0.48148,0.03337,,,,,,,,,,,,,,,,,,,,,,,,,,0,0,0,0,0
5.2451,1783969857.0119,1,1,0.5000,-0.0000,1.42240,-0.01106,-2.63318,1.07342,1.57081,0.11675,-0.12762,-0.48148,0.03337,,,,,,,,,,,,,,,,,,,,,,,,,,0,0,0,0,0
5.2548,1783969857.0216,1,1,0.5000,-0.0000,1.42240,-0.01107,-2.63318,1.07343,1.57081,0.11675,-0.12762,-0.48149,0.03337,,,,,,,,,,,,,,,,,,,,,,,,,,0,0,0,0,0
5.3023,1783969857.0690,1,1,0.5000,-0.0000,1.42240,-0.01120,-2.63325,1.07361,1.57081,0.11674,-0.12762,-0.48146,0.03331,,,,,,,,,,,,,,,,,,,,,,,,,,0,0,0,0,0
5.3220,1783969857.0888,1,1,0.5000,-0.0000,1.42240,-0.01135,-2.63334,1.07378,1.57081,0.11674,-0.12763,-0.48142,0.03323,,,,,,,,,,,,,,,,,,,,,,,,,,0,0,0,0,0
5.3323,1783969857.0990,1,1,0.5000,-0.0000,1.42240,-0.01136,-2.63334,1.07379,1.57081,0.11674,-0.12763,-0.48142,0.03323,,,,,,,,,,,,,,,,,,,,,,,,,,0,0,0,0,0
5.3445,1783969857.1113,1,1,0.5000,-0.0000,1.42240,-0.01142,-2.63335,1.07387,1.57081,0.11674,-0.12763,-0.48142,0.03321,,,,,,,,,,,,,,,,,,,,,,,,,,0,0,0,0,0
5.3457,1783969857.1125,1,1,0.5000,-0.0000,1.42240,-0.01142,-2.63335,1.07387,1.57081,0.11674,-0.12763,-0.48142,0.03321,,,,,,,,,,,,,,,,,,,,,,,,,,0,0,0,0,0
5.3460,1783969857.1128,1,1,0.5000,-0.0000,1.42240,-0.01142,-2.63335,1.07387,1.57081,0.11674,-0.12763,-0.48142,0.03321,,,,,,,,,,,,,,,,,,,,,,,,,,0,0,0,0,0
5.3464,1783969857.1131,1,1,0.5000,-0.0000,1.42240,-0.01142,-2.63335,1.07387,1.57081,0.11674,-0.12763,-0.48142,0.03321,,,,,,,,,,,,,,,,,,,,,,,,,,0,0,0,0,0
5.3467,1783969857.1134,1,1,0.5000,-0.0000,1.42240,-0.01142,-2.63335,1.07387,1.57081,0.11674,-0.12763,-0.48142,0.03321,,,,,,,,,,,,,,,,,,,,,,,,,,0,0,0,0,0
5.3575,1783969857.1242,1,1,0.5000,-0.0000,1.42240,-0.01149,-2.63335,1.07395,1.57081,0.11674,-0.12763,-0.48143,0.03319,,,,,,,,,,,,,,,,,,,,,,,,,,0,0,0,0,0
5.4163,1783969857.1831,1,1,0.5000,-0.0000,1.42240,-0.01190,-2.63340,1.07444,1.57081,0.11674,-0.12762,-0.48146,0.03307,,,,,,,,,,,,,,,,,,,,,,,,,,0,0,0,0,0
5.4166,1783969857.1833,1,1,0.5000,-0.0000,1.42240,-0.01190,-2.63340,1.07444,1.57081,0.11674,-0.12762,-0.48146,0.03307,,,,,,,,,,,,,,,,,,,,,,,,,,0,0,0,0,0
5.4181,1783969857.1849,1,1,0.5000,-0.0000,1.42240,-0.01190,-2.63340,1.07444,1.57081,0.11674,-0.12762,-0.48146,0.03307,,,,,,,,,,,,,,,,,,,,,,,,,,0,0,0,0,0
5.4185,1783969857.1853,1,1,0.5000,-0.0000,1.42240,-0.01190,-2.63340,1.07444,1.57081,0.11674,-0.12762,-0.48146,0.03307,,,,,,,,,,,,,,,,,,,,,,,,,,0,0,0,0,0
5.4191,1783969857.1859,1,1,0.5000,-0.0000,1.42240,-0.01190,-2.63340,1.07444,1.57081,0.11674,-0.12762,-0.48146,0.03307,,,,,,,,,,,,,,,,,,,,,,,,,,0,0,0,0,0
5.4195,1783969857.1863,1,1,0.5000,-0.0000,1.42240,-0.01190,-2.63340,1.07444,1.57081,0.11674,-0.12762,-0.48146,0.03307,,,,,,,,,,,,,,,,,,,,,,,,,,0,0,0,0,0
5.4419,1783969857.2087,1,1,0.5000,-0.0000,1.42240,-0.01203,-2.63340,1.07460,1.57081,0.11674,-0.12762,-0.48148,0.03304,,,,,,,,,,,,,,,,,,,,,,,,,,0,0,0,0,0
5.4423,1783969857.2090,1,1,0.5000,-0.0000,1.42240,-0.01203,-2.63340,1.07460,1.57081,0.11674,-0.12762,-0.48148,0.03304,,,,,,,,,,,,,,,,,,,,,,,,,,0,0,0,0,0
5.4460,1783969857.2128,1,1,0.5000,-0.0000,1.42240,-0.01206,-2.63340,1.07464,1.57081,0.11674,-0.12762,-0.48148,0.03303,,,,,,,,,,,,,,,,,,,,,,,,,,0,0,0,0,0
5.4463,1783969857.2131,1,1,0.5000,-0.0000,1.42240,-0.01206,-2.63340,1.07464,1.57081,0.11674,-0.12762,-0.48148,0.03303,,,,,,,,,,,,,,,,,,,,,,,,,,0,0,0,0,0
5.4535,1783969857.2203,1,1,0.5000,-0.0000,1.42240,-0.01214,-2.63340,1.07474,1.57081,0.11674,-0.12761,-0.48150,0.03302,,,,,,,,,,,,,,,,,,,,,,,,,,0,0,0,0,0
