Martins-Lucaas/twinforge/sensors/Data/20260713_150221__samples.csv
t_rel_s,t_unix,cycle,phase,setpoint_n,force_net_n,q1,q2,q3,q4,q5,q6,tcp_x,tcp_y,tcp_z,taxel_0,taxel_1,taxel_2,taxel_3,taxel_4,taxel_5,taxel_6,taxel_7,taxel_8,taxel_9,taxel_10,taxel_11,taxel_12,taxel_13,taxel_14,taxel_15,taxel_16,taxel_17,taxel_18,taxel_19,taxel_20,taxel_21,taxel_22,taxel_23,taxel_24,n_RA,n_SA,cn_mm,cn_ra,cn_sa
0.0013,1783965741.3269,0,-1,1.0000,-0.0000,1.42244,0.00067,-2.63054,1.05911,1.57084,0.11672,-0.12762,-0.48152,0.03736,,,,,,,,,,,,,,,,,,,,,,,,,,0,0,0,0,0
0.0092,1783965741.3348,1,0,1.0000,-0.0000,1.42244,0.00067,-2.63054,1.05911,1.57084,0.11672,-0.12762,-0.48152,0.03736,,,,,,,,,,,,,,,,,,,,,,,,,,0,0,0,0,0
0.0137,1783965741.3394,1,0,1.0000,-0.0000,1.42244,0.00067,-2.63054,1.05911,1.57084,0.11672,-0.12762,-0.48152,0.03736,,,,,,,,,,,,,,,,,,,,,,,,,,0,0,0,0,0
0.0140,1783965741.3396,1,0,1.0000,-0.0000,1.42244,0.00067,-2.63054,1.05911,1.57084,0.11672,-0.12762,-0.48152,0.03736,,,,,,,,,,,,,,,,,,,,,,,,,,0,0,0,0,0
0.0173,1783965741.3430,1,0,1.0000,-0.0000,1.42244,0.00067,-2.63054,1.05911,1.57084,0.11672,-0.12762,-0.48152,0.03736,,,,,,,,,,,,,,,,,,,,,,,,,,0,0,0,0,0
0.0308,1783965741.3565,1,0,1.0000,-0.0000,1.42244,0.00067,-2.63054,1.05911,1.57084,0.11672,-0.12762,-0.48152,0.03736,,,,,,,,,,,,,,,,,,,,,,,,,,0,0,0,0,0
0.0319,1783965741.3576,1,0,1.0000,-0.0000,1.42244,0.00067,-2.63054,1.05911,1.57084,0.11672,-0.12762,-0.48152,0.03736,,,,,,,,,,,,,,,,,,,,,,,,,,0,0,0,0,0
0.0323,1783965741.3579,1,0,1.0000,-0.0000,1.42244,0.00067,-2.63054,1.05911,1.57084,0.11672,-0.12762,-0.48152,0.03736,,,,,,,,,,,,,,,,,,,,,,,,,,0,0,0,0,0
0.0375,1783965741.3631,1,0,1.0000,-0.0000,1.42244,0.00067,-2.63054,1.05911,1.57084,0.11672,-0.12762,-0.48152,0.03736,,,,,,,,,,,,,,,,,,,,,,,,,,0,0,0,0,0
0.0581,1783965741.3838,1,0,1.0000,-0.0000,1.42244,0.00067,-2.63054,1.05911,1.57083,0.11672,-0.12762,-0.48152,0.03737,,,,,,,,,,,,,,,,,,,,,,,,,,0,0,0,0,0
0.0603,1783965741.3859,1,0,1.0000,-0.0000,1.42244,0.00067,-2.63054,1.05911,1.57083,0.11672,-0.12762,-0.48152,0.03737,,,,,,,,,,,,,,,,,,,,,,,,,,0,0,0,0,0
0.0859,1783965741.4115,1,0,1.0000,-0.0000,1.42244,0.00070,-2.63053,1.05908,1.57081,0.11674,-0.12763,-0.48152,0.03738,,,,,,,,,,,,,,,,,,,,,,,,,,0,0,0,0,0
0.0901,1783965741.4157,1,0,1.0000,-0.0000,1.42244,0.00070,-2.63053,1.05907,1.57080,0.11675,-0.12763,-0.48152,0.03738,,,,,,,,,,,,,,,,,,,,,,,,,,0,0,0,0,0
0.0904,1783965741.4160,1,0,1.0000,-0.0000,1.42244,0.00070,-2.63053,1.05907,1.57080,0.11675,-0.12763,-0.48152,0.03738,,,,,,,,,,,,,,,,,,,,,,,,,,0,0,0,0,0
0.0907,1783965741.4163,1,0,1.0000,-0.0000,1.42244,0.00070,-2.63053,1.05907,1.57080,0.11675,-0.12763,-0.48152,0.03738,,,,,,,,,,,,,,,,,,,,,,,,,,0,0,0,0,0
0.0923,1783965741.4179,1,0,1.0000,-0.0000,1.42244,0.00070,-2.63053,1.05907,1.57080,0.11675,-0.12763,-0.48152,0.03738,,,,,,,,,,,,,,,,,,,,,,,,,,0,0,0,0,0
0.0931,1783965741.4187,1,0,1.0000,-0.0000,1.42244,0.00071,-2.63053,1.05907,1.57080,0.11675,-0.12763,-0.48152,0.03738,,,,,,,,,,,,,,,,,,,,,,,,,,0,0,0,0,0
0.0997,1783965741.4254,1,0,1.0000,-0.0000,1.42244,0.00071,-2.63053,1.05907,1.57080,0.11675,-0.12763,-0.48152,0.03738,,,,,,,,,,,,,,,,,,,,,,,,,,0,0,0,0,0
0.1001,1783965741.4257,1,0,1.0000,-0.0000,1.42244,0.00071,-2.63053,1.05907,1.57080,0.11675,-0.12763,-0.48152,0.03738,,,,,,,,,,,,,,,,,,,,,,,,,,0,0,0,0,0
0.1003,1783965741.4260,1,0,1.0000,-0.0000,1.42244,0.00071,-2.63053,1.05907,1.57080,0.11675,-0.12763,-0.48152,0.03738,,,,,,,,,,,,,,,,,,,,,,,,,,0,0,0,0,0
0.1009,1783965741.4265,1,0,1.0000,-0.0000,1.42244,0.00071,-2.63053,1.05907,1.57080,0.11675,-0.12764,-0.48152,0.03738,,,,,,,,,,,,,,,,,,,,,,,,,,0,0,0,0,0
0.1023,1783965741.4279,1,0,1.0000,-0.0000,1.42244,0.00071,-2.63053,1.05907,1.57080,0.11675,-0.12764,-0.48152,0.03738,,,,,,,,,,,,,,,,,,,,,,,,,,0,0,0,0,0
0.1025,1783965741.4282,1,0,1.0000,-0.0000,1.42244,0.00071,-2.63053,1.05907,1.57080,0.11675,-0.12764,-0.48152,0.03738,,,,,,,,,,,,,,,,,,,,,,,,,,0,0,0,0,0
0.1036,1783965741.4292,1,0,1.0000,-0.0000,1.42244,0.00071,-2.63053,1.05907,1.57080,0.11675,-0.12764,-0.48152,0.03738,,,,,,,,,,,,,,,,,,,,,,,,,,0,0,0,0,0
0.1372,1783965741.4629,1,0,1.0000,-0.0000,1.42244,0.00071,-2.63053,1.05907,1.57080,0.11675,-0.12764,-0.48152,0.03738,,,,,,,,,,,,,,,,,,,,,,,,,,0,0,0,0,0
0.1380,1783965741.4637,1,0,1.0000,-0.0000,1.42244,0.00071,-2.63053,1.05907,1.57080,0.11675,-0.12764,-0.48152,0.03738,,,,,,,,,,,,,,,,,,,,,,,,,,0,0,0,0,0
0.1384,1783965741.4641,1,0,1.0000,-0.0000,1.42244,0.00071,-2.63053,1.05907,1.57080,0.11675,-0.12764,-0.48152,0.03738,,,,,,,,,,,,,,,,,,,,,,,,,,0,0,0,0,0
0.1388,1783965741.4645,1,0,1.0000,-0.0000,1.42244,0.00071,-2.63053,1.05907,1.57080,0.11675,-0.12764,-0.48152,0.03738,,,,,,,,,,,,,,,,,,,,,,,,,,0,0,0,0,0
0.1391,1783965741.4648,1,0,1.0000,-0.0000,1.42244,0.00071,-2.63053,1.05907,1.57080,0.11675,-0.12764,-0.48152,0.03738,,,,,,,,,,,,,,,,,,,,,,,,,,0,0,0,0,0
0.2222,1783965741.5479,1,0,1.0000,-0.0000,1.42244,0.00071,-2.63053,1.05907,1.57080,0.11675,-0.12764,-0.48152,0.03738,,,,,,,,,,,,,,,,,,,,,,,,,,0,0,0,0,0
0.2539,1783965741.5795,1,0,1.0000,-0.0000,1.42244,0.00071,-2.63053,1.05907,1.57080,0.11675,-0.12764,-0.48152,0.03738,,,,,,,,,,,,,,,,,,,,,,,,,,0,0,0,0,0
0.2619,1783965741.5875,1,0,1.0000,-0.0000,1.42244,0.00071,-2.63053,1.05907,1.57080,0.11675,-0.12764,-0.48152,0.03738,,,,,,,,,,,,,,,,,,,,,,,,,,0,0,0,0,0
0.2622,1783965741.5878,1,0,1.0000,-0.0000,1.42244,0.00071,-2.63053,1.05907,1.57080,0.11675,-0.12764,-0.48152,0.03738,,,,,,,,,,,,,,,,,,,,,,,,,,0,0,0,0,0
0.2685,1783965741.5942,1,0,1.0000,-0.0000,1.42244,0.00071,-2.63053,1.05907,1.57080,0.11675,-0.12764,-0.48152,0.03738,,,,,,,,,,,,,,,,,,,,,,,,,,0,0,0,0,0
0.2689,1783965741.5945,1,0,1.0000,-0.0000,1.42244,0.00071,-2.63053,1.05907,1.57080,0.11675,-0.12764,-0.48152,0.03738,,,,,,,,,,,,,,,,,,,,,,,,,,0,0,0,0,0
0.2731,1783965741.5987,1,0,1.0000,-0.0000,1.42244,0.00071,-2.63053,1.05907,1.57080,0.11675,-0.12764,-0.48152,0.03738,,,,,,,,,,,,,,,,,,,,,,,,,,0,0,0,0,0
0.2800,1783965741.6056,1,0,1.0000,-0.0000,1.42244,0.00071,-2.63053,1.05907,1.57080,0.11675,-0.12764,-0.48152,0.03738,,,,,,,,,,,,,,,,,,,,,,,,,,0,0,0,0,0
0.2802,1783965741.6059,1,0,1.0000,-0.0000,1.42244,0.00071,-2.63053,1.05907,1.57080,0.11675,-0.12764,-0.48152,0.03738,,,,,,,,,,,,,,,,,,,,,,,,,,0,0,0,0,0
0.2822,1783965741.6079,1,0,1.0000,-0.0000,1.42244,0.00071,-2.63053,1.05907,1.57080,0.11675,-0.12764,-0.48152,0.03738,,,,,,,,,,,,,,,,,,,,,,,,,,0,0,0,0,0
0.2825,1783965741.6081,1,0,1.0000,-0.0000,1.42244,0.00071,-2.63053,1.05907,1.57080,0.11675,-0.12764,-0.48152,0.03738,,,,,,,,,,,,,,,,,,,,,,,,,,0,0,0,0,0
0.2865,1783965741.6121,1,0,1.0000,-0.0000,1.42244,0.00071,-2.63053,1.05907,1.57080,0.11675,-0.12764,-0.48152,0.03738,,,,,,,,,,,,,,,,,,,,,,,,,,0,0,0,0,0
0.2868,1783965741.6124,1,0,1.0000,-0.0000,1.42244,0.00071,-2.63053,1.05907,1.57080,0.11675,-0.12764,-0.48152,0.03738,,,,,,,,,,,,,,,,,,,,,,,,,,0,0,0,0,0
0.2929,1783965741.6185,1,0,1.0000,-0.0000,1.42244,0.00071,-2.63053,1.05907,1.57080,0.11675,-0.12764,-0.48152,0.03738,,,,,,,,,,,,,,,,,,,,,,,,,,0,0,0,0,0
0.2936,1783965741.6192,1,0,1.0000,-0.0000,1.42244,0.00071,-2.63053,1.05907,1.57080,0.11675,-0.12764,-0.48152,0.03738,,,,,,,,,,,,,,,,,,,,,,,,,,0,0,0,0,0
0.3204,1783965741.6460,1,0,1.0000,-0.0000,1.42244,0.00071,-2.63053,1.05907,1.57080,0.11675,-0.12764,-0.48152,0.03738,,,,,,,,,,,,,,,,,,,,,,,,,,0,0,0,0,0
0.3228,1783965741.6485,1,0,1.0000,-0.0000,1.42244,0.00071,-2.63053,1.05907,1.57080,0.11675,-0.12764,-0.48152,0.03738,,,,,,,,,,,,,,,,,,,,,,,,,,0,0,0,0,0
0.3424,1783965741.6681,1,0,1.0000,-0.0000,1.42244,0.00071,-2.63053,1.05907,1.57080,0.11675,-0.12764,-0.48152,0.03738,,,,,,,,,,,,,,,,,,,,,,,,,,0,0,0,0,0
0.3507,1783965741.6764,1,0,1.0000,-0.0000,1.42244,0.00071,-2.63053,1.05907,1.57080,0.11675,-0.12764,-0.48152,0.03738,,,,,,,,,,,,,,,,,,,,,,,,,,0,0,0,0,0
0.3524,1783965741.6781,1,0,1.0000,-0.0000,1.42244,0.00071,-2.63053,1.05907,1.57080,0.11675,-0.12764,-0.48152,0.03738,,,,,,,,,,,,,,,,,,,,,,,,,,0,0,0,0,0
0.3529,1783965741.6785,1,0,1.0000,-0.0000,1.42244,0.00071,-2.63053,1.05907,1.57080,0.11675,-0.12764,-0.48152,0.03738,,,,,,,,,,,,,,,,,,,,,,,,,,0,0,0,0,0
0.3557,1783965741.6813,1,0,1.0000,-0.0000,1.42244,0.00071,-2.63053,1.05907,1.57080,0.11675,-0.12764,-0.48152,0.03738,,,,,,,,,,,,,,,,,,,,,,,,,,0,0,0,0,0
0.3560,1783965741.6816,1,0,1.0000,-0.0000,1.42244,0.00071,-2.63053,1.05907,1.57080,0.11675,-0.12764,-0.48152,0.03738,,,,,,,,,,,,,,,,,,,,,,,,,,0,0,0,0,0
0.3682,1783965741.6938,1,0,1.0000,-0.0000,1.42244,0.00071,-2.63053,1.05907,1.57080,0.11675,-0.12764,-0.48152,0.03738,,,,,,,,,,,,,,,,,,,,,,,,,,0,0,0,0,0
0.3700,1783965741.6956,1,0,1.0000,-0.0000,1.42244,0.00071,-2.63053,1.05907,1.57080,0.11675,-0.12764,-0.48152,0.03738,,,,,,,,,,,,,,,,,,,,,,,,,,0,0,0,0,0
0.3731,1783965741.6988,1,0,1.0000,-0.0000,1.42244,0.00071,-2.63053,1.05907,1.57080,0.11675,-0.12764,-0.48152,0.03738,,,,,,,,,,,,,,,,,,,,,,,,,,0,0,0,0,0
0.3736,1783965741.6992,1,0,1.0000,-0.0000,1.42244,0.00071,-2.63053,1.05907,1.57080,0.11675,-0.12764,-0.48152,0.03738,,,,,,,,,,,,,,,,,,,,,,,,,,0,0,0,0,0
0.3893,1783965741.7149,1,0,1.0000,-0.0000,1.42244,0.00071,-2.63053,1.05907,1.57080,0.11675,-0.12764,-0.48152,0.03738,,,,,,,,,,,,,,,,,,,,,,,,,,0,0,0,0,0
0.3919,1783965741.7175,1,0,1.0000,-0.0000,1.42244,0.00071,-2.63053,1.05907,1.57080,0.11675,-0.12764,-0.48152,0.03738,,,,,,,,,,,,,,,,,,,,,,,,,,0,0,0,0,0
0.3924,1783965741.7181,1,0,1.0000,-0.0000,1.42244,0.00071,-2.63053,1.05907,1.57080,0.11675,-0.12764,-0.48152,0.03738,,,,,,,,,,,,,,,,,,,,,,,,,,0,0,0,0,0
0.3962,1783965741.7219,1,0,1.0000,-0.0000,1.42244,0.00071,-2.63053,1.05907,1.57080,0.11675,-0.12764,-0.48152,0.03738,,,,,,,,,,,,,,,,,,,,,,,,,,0,0,0,0,0
0.3983,1783965741.7239,1,0,1.0000,-0.0000,1.42244,0.00071,-2.63053,1.05907,1.57080,0.11675,-0.12764,-0.48152,0.03738,,,,,,,,,,,,,,,,,,,,,,,,,,0,0,0,0,0
0.3986,1783965741.7243,1,0,1.0000,-0.0000,1.42244,0.00071,-2.63053,1.05907,1.57080,0.11675,-0.12764,-0.48152,0.03738,,,,,,,,,,,,,,,,,,,,,,,,,,0,0,0,0,0
0.3989,1783965741.7245,1,0,1.0000,-0.0000,1.42244,0.00071,-2.63053,1.05907,1.57080,0.11675,-0.12764,-0.48152,0.03738,,,,,,,,,,,,,,,,,,,,,,,,,,0,0,0,0,0
0.3992,1783965741.7248,1,0,1.0000,-0.0000,1.42244,0.00071,-2.63053,1.05907,1.57080,0.11675,-0.12764,-0.48152,0.03738,,,,,,,,,,,,,,,,,,,,,,,,,,0,0,0,0,0
0.3995,1783965741.7252,1,0,1.0000,-0.0000,1.42244,0.00071,-2.63053,1.05907,1.57080,0.11675,-0.12764,-0.48152,0.03738,,,,,,,,,,,,,,,,,,,,,,,,,,0,0,0,0,0
0.3999,1783965741.7256,1,0,1.0000,-0.0000,1.42244,0.00071,-2.63053,1.05907,1.57080,0.11675,-0.12764,-0.48152,0.03738,,,,,,,,,,,,,,,,,,,,,,,,,,0,0,0,0,0
0.4012,1783965741.7268,1,0,1.0000,-0.0000,1.42244,0.00071,-2.63053,1.05907,1.57080,0.11675,-0.12764,-0.48152,0.03738,,,,,,,,,,,,,,,,,,,,,,,,,,0,0,0,0,0
0.4016,1783965741.7273,1,0,1.0000,-0.0000,1.42244,0.00071,-2.63053,1.05907,1.57080,0.11675,-0.12764,-0.48152,0.03738,,,,,,,,,,,,,,,,,,,,,,,,,,0,0,0,0,0
0.4028,1783965741.7284,1,0,1.0000,-0.0000,1.42244,0.00071,-2.63053,1.05907,1.57080,0.11675,-0.12764,-0.48152,0.03738,,,,,,,,,,,,,,,,,,,,,,,,,,0,0,0,0,0
0.4051,1783965741.7307,1,0,1.0000,-0.0000,1.42244,0.00071,-2.63053,1.05907,1.57080,0.11675,-0.12764,-0.48152,0.03738,,,,,,,,,,,,,,,,,,,,,,,,,,0,0,0,0,0
0.4054,1783965741.7311,1,0,1.0000,-0.0000,1.42244,0.00071,-2.63053,1.05907,1.57080,0.11675,-0.12764,-0.48152,0.03738,,,,,,,,,,,,,,,,,,,,,,,,,,0,0,0,0,0
0.4174,1783965741.7431,1,0,1.0000,-0.0000,1.42244,0.00071,-2.63053,1.05907,1.57080,0.11675,-0.12764,-0.48152,0.03738,,,,,,,,,,,,,,,,,,,,,,,,,,0,0,0,0,0
0.4232,1783965741.7488,1,0,1.0000,-0.0000,1.42244,0.00071,-2.63053,1.05907,1.57080,0.11675,-0.12764,-0.48152,0.03738,,,,,,,,,,,,,,,,,,,,,,,,,,0,0,0,0,0
0.4237,1783965741.7493,1,0,1.0000,-0.0000,1.42244,0.00071,-2.63053,1.05907,1.57080,0.11675,-0.12764,-0.48152,0.03738,,,,,,,,,,,,,,,,,,,,,,,,,,0,0,0,0,0
0.4240,1783965741.7496,1,0,1.0000,-0.0000,1.42244,0.00071,-2.63053,1.05907,1.57080,0.11675,-0.12764,-0.48152,0.03738,,,,,,,,,,,,,,,,,,,,,,,,,,0,0,0,0,0
0.4318,1783965741.7575,1,0,1.0000,-0.0000,1.42244,0.00071,-2.63053,1.05907,1.57080,0.11675,-0.12764,-0.48152,0.03738,,,,,,,,,,,,,,,,,,,,,,,,,,0,0,0,0,0
0.4422,1783965741.7678,1,0,1.0000,-0.0000,1.42244,0.00071,-2.63053,1.05907,1.57080,0.11675,-0.12764,-0.48152,0.03738,,,,,,,,,,,,,,,,,,,,,,,,,,0,0,0,0,0
0.4451,1783965741.7707,1,0,1.0000,-0.0000,1.42244,0.00071,-2.63053,1.05907,1.57080,0.11675,-0.12764,-0.48152,0.03738,,,,,,,,,,,,,,,,,,,,,,,,,,0,0,0,0,0
0.4455,1783965741.7711,1,0,1.0000,-0.0000,1.42244,0.00071,-2.63053,1.05907,1.57080,0.11675,-0.12764,-0.48152,0.03738,,,,,,,,,,,,,,,,,,,,,,,,,,0,0,0,0,0
0.4531,1783965741.7787,1,0,1.0000,-0.0000,1.42244,0.00071,-2.63053,1.05907,1.57080,0.11675,-0.12764,-0.48152,0.03738,,,,,,,,,,,,,,,,,,,,,,,,,,0,0,0,0,0
0.4535,1783965741.7791,1,0,1.0000,-0.0000,1.42244,0.00071,-2.63053,1.05907,1.57080,0.11675,-0.12764,-0.48152,0.03738,,,,,,,,,,,,,,,,,,,,,,,,,,0,0,0,0,0
0.4577,1783965741.7833,1,0,1.0000,-0.0000,1.42244,0.00071,-2.63053,1.05907,1.57080,0.11675,-0.12764,-0.48152,0.03738,,,,,,,,,,,,,,,,,,,,,,,,,,0,0,0,0,0
0.4586,1783965741.7842,1,0,1.0000,-0.0000,1.42244,0.00071,-2.63053,1.05907,1.57080,0.11675,-0.12764,-0.48152,0.03738,,,,,,,,,,,,,,,,,,,,,,,,,,0,0,0,0,0
0.4589,1783965741.7845,1,0,1.0000,-0.0000,1.42244,0.00071,-2.63053,1.05907,1.57080,0.11675,-0.12764,-0.48152,0.03738,,,,,,,,,,,,,,,,,,,,,,,,,,0,0,0,0,0
0.4592,1783965741.7848,1,0,1.0000,-0.0000,1.42244,0.00071,-2.63053,1.05907,1.57080,0.11675,-0.12764,-0.48152,0.03738,,,,,,,,,,,,,,,,,,,,,,,,,,0,0,0,0,0
0.4595,1783965741.7851,1,0,1.0000,-0.0000,1.42244,0.00071,-2.63053,1.05907,1.57080,0.11675,-0.12764,-0.48152,0.03738,,,,,,,,,,,,,,,,,,,,,,,,,,0,0,0,0,0
0.4689,1783965741.7946,1,0,1.0000,-0.0000,1.42244,0.00071,-2.63053,1.05907,1.57080,0.11675,-0.12764,-0.48152,0.03738,,,,,,,,,,,,,,,,,,,,,,,,,,0,0,0,0,0
0.4820,1783965741.8076,1,0,1.0000,-0.0000,1.42244,0.00071,-2.63053,1.05907,1.57080,0.11675,-0.12764,-0.48152,0.03738,,,,,,,,,,,,,,,,,,,,,,,,,,0,0,0,0,0
0.4874,1783965741.8131,1,0,1.0000,-0.0000,1.42244,0.00071,-2.63053,1.05907,1.57080,0.11675,-0.12764,-0.48152,0.03738,,,,,,,,,,,,,,,,,,,,,,,,,,0,0,0,0,0
0.4951,1783965741.8208,1,0,1.0000,-0.0000,1.42244,0.00071,-2.63053,1.05907,1.57080,0.11675,-0.12764,-0.48152,0.03738,,,,,,,,,,,,,,,,,,,,,,,,,,0,0,0,0,0
0.5080,1783965741.8337,1,0,1.0000,-0.0000,1.42244,0.00071,-2.63053,1.05907,1.57080,0.11675,-0.12764,-0.48152,0.03738,,,,,,,,,,,,,,,,,,,,,,,,,,0,0,0,0,0
0.5162,1783965741.8418,1,0,1.0000,-0.0000,1.42244,0.00071,-2.63053,1.05907,1.57080,0.11675,-0.12764,-0.48152,0.03738,,,,,,,,,,,,,,,,,,,,,,,,,,0,0,0,0,0
0.5316,1783965741.8572,1,0,1.0000,-0.0000,1.42244,0.00071,-2.63053,1.05907,1.57080,0.11675,-0.12764,-0.48152,0.03738,,,,,,,,,,,,,,,,,,,,,,,,,,0,0,0,0,0
0.5490,1783965741.8746,1,0,1.0000,-0.0000,1.42244,0.00071,-2.63053,1.05907,1.57080,0.11675,-0.12764,-0.48152,0.03738,,,,,,,,,,,,,,,,,,,,,,,,,,0,0,0,0,0
0.5493,1783965741.8750,1,0,1.0000,-0.0000,1.42244,0.00071,-2.63053,1.05907,1.57080,0.11675,-0.12764,-0.48152,0.03738,,,,,,,,,,,,,,,,,,,,,,,,,,0,0,0,0,0
0.5497,1783965741.8754,1,0,1.0000,-0.0000,1.42244,0.00071,-2.63053,1.05907,1.57080,0.11675,-0.12764,-0.48152,0.03738,,,,,,,,,,,,,,,,,,,,,,,,,,0,0,0,0,0
0.5572,1783965741.8828,1,0,1.0000,-0.0000,1.42244,0.00071,-2.63053,1.05907,1.57080,0.11675,-0.12764,-0.48152,0.03738,,,,,,,,,,,,,,,,,,,,,,,,,,0,0,0,0,0
0.5577,1783965741.8833,1,0,1.0000,-0.0000,1.42244,0.00071,-2.63053,1.05907,1.57080,0.11675,-0.12764,-0.48152,0.03738,,,,,,,,,,,,,,,,,,,,,,,,,,0,0,0,0,0
0.5713,1783965741.8969,1,0,1.0000,-0.0000,1.42244,0.00071,-2.63053,1.05907,1.57080,0.11675,-0.12764,-0.48152,0.03738,,,,,,,,,,,,,,,,,,,,,,,,,,0,0,0,0,0
0.5885,1783965741.9141,1,0,1.0000,-0.0000,1.42244,0.00071,-2.63053,1.05907,1.57080,0.11675,-0.12764,-0.48152,0.03738,,,,,,,,,,,,,,,,,,,,,,,,,,0,0,0,0,0
0.6000,1783965741.9256,1,0,1.0000,-0.0000,1.42244,0.00071,-2.63053,1.05907,1.57080,0.11675,-0.12764,-0.48152,0.03738,,,,,,,,,,,,,,,,,,,,,,,,,,0,0,0,0,0
0.6017,1783965741.9273,1,0,1.0000,-0.0000,1.42244,0.00071,-2.63053,1.05907,1.57080,0.11675,-0.12764,-0.48152,0.03738,,,,,,,,,,,,,,,,,,,,,,,,,,0,0,0,0,0
0.6054,1783965741.9311,1,0,1.0000,-0.0000,1.42244,0.00071,-2.63053,1.05907,1.57080,0.11675,-0.12764,-0.48152,0.03738,,,,,,,,,,,,,,,,,,,,,,,,,,0,0,0,0,0
0.6147,1783965741.9404,1,0,1.0000,-0.0000,1.42244,0.00071,-2.63053,1.05907,1.57080,0.11675,-0.12764,-0.48152,0.03738,,,,,,,,,,,,,,,,,,,,,,,,,,0,0,0,0,0
0.6150,1783965741.9407,1,0,1.0000,-0.0000,1.42244,0.00071,-2.63053,1.05907,1.57080,0.11675,-0.12764,-0.48152,0.03738,,,,,,,,,,,,,,,,,,,,,,,,,,0,0,0,0,0
0.6265,1783965741.9522,1,0,1.0000,-0.0000,1.42244,0.00071,-2.63053,1.05907,1.57080,0.11675,-0.12764,-0.48152,0.03738,,,,,,,,,,,,,,,,,,,,,,,,,,0,0,0,0,0
0.6356,1783965741.9612,1,0,1.0000,-0.0000,1.42244,0.00071,-2.63053,1.05907,1.57080,0.11675,-0.12764,-0.48152,0.03738,,,,,,,,,,,,,,,,,,,,,,,,,,0,0,0,0,0
0.6508,1783965741.9764,1,0,1.0000,-0.0000,1.42244,0.00071,-2.63053,1.05907,1.57080,0.11675,-0.12764,-0.48152,0.03738,,,,,,,,,,,,,,,,,,,,,,,,,,0,0,0,0,0
0.6578,1783965741.9835,1,0,1.0000,-0.0000,1.42244,0.00071,-2.63053,1.05907,1.57080,0.11675,-0.12764,-0.48152,0.03738,,,,,,,,,,,,,,,,,,,,,,,,,,0,0,0,0,0
0.6690,1783965741.9947,1,0,1.0000,-0.0000,1.42244,0.00071,-2.63053,1.05907,1.57080,0.11675,-0.12764,-0.48152,0.03738,,,,,,,,,,,,,,,,,,,,,,,,,,0,0,0,0,0
0.6763,1783965742.0020,1,0,1.0000,-0.0000,1.42244,0.00071,-2.63053,1.05907,1.57080,0.11675,-0.12764,-0.48152,0.03738,,,,,,,,,,,,,,,,,,,,,,,,,,0,0,0,0,0
0.6771,1783965742.0028,1,0,1.0000,-0.0000,1.42244,0.00071,-2.63053,1.05907,1.57080,0.11675,-0.12764,-0.48152,0.03738,,,,,,,,,,,,,,,,,,,,,,,,,,0,0,0,0,0
0.6979,1783965742.0235,1,0,1.0000,-0.0000,1.42244,0.00071,-2.63053,1.05907,1.57080,0.11675,-0.12764,-0.48152,0.03738,,,,,,,,,,,,,,,,,,,,,,,,,,0,0,0,0,0
0.6994,1783965742.0251,1,0,1.0000,-0.0000,1.42244,0.00071,-2.63053,1.05907,1.57080,0.11675,-0.12764,-0.48152,0.03738,,,,,,,,,,,,,,,,,,,,,,,,,,0,0,0,0,0
0.7063,1783965742.0319,1,0,1.0000,-0.0000,1.42244,0.00071,-2.63053,1.05907,1.57080,0.11675,-0.12764,-0.48152,0.03738,,,,,,,,,,,,,,,,,,,,,,,,,,0,0,0,0,0
0.7160,1783965742.0417,1,0,1.0000,-0.0000,1.42244,0.00071,-2.63053,1.05907,1.57080,0.11675,-0.12764,-0.48152,0.03738,,,,,,,,,,,,,,,,,,,,,,,,,,0,0,0,0,0
0.7352,1783965742.0609,1,1,1.0000,-0.0000,1.42244,0.00071,-2.63053,1.05907,1.57080,0.11675,-0.12764,-0.48152,0.03738,,,,,,,,,,,,,,,,,,,,,,,,,,0,0,0,0,0
0.7365,1783965742.0621,1,1,1.0000,-0.0000,1.42244,0.00071,-2.63053,1.05907,1.57080,0.11675,-0.12764,-0.48152,0.03738,,,,,,,,,,,,,,,,,,,,,,,,,,0,0,0,0,0
0.7496,1783965742.0753,1,1,1.0000,-0.0000,1.42244,0.00071,-2.63053,1.05907,1.57080,0.11675,-0.12764,-0.48152,0.03738,,,,,,,,,,,,,,,,,,,,,,,,,,0,0,0,0,0
0.7501,1783965742.0757,1,1,1.0000,-0.0000,1.42244,0.00071,-2.63053,1.05907,1.57080,0.11675,-0.12764,-0.48152,0.03738,,,,,,,,,,,,,,,,,,,,,,,,,,0,0,0,0,0
0.7596,1783965742.0852,1,1,1.0000,-0.0000,1.42244,0.00071,-2.63053,1.05907,1.57080,0.11675,-0.12764,-0.48152,0.03738,,,,,,,,,,,,,,,,,,,,,,,,,,0,0,0,0,0
0.7599,1783965742.0856,1,1,1.0000,-0.0000,1.42244,0.00071,-2.63053,1.05907,1.57080,0.11675,-0.12764,-0.48152,0.03738,,,,,,,,,,,,,,,,,,,,,,,,,,0,0,0,0,0
0.7692,1783965742.0948,1,1,1.0000,-0.0000,1.42244,0.00071,-2.63053,1.05907,1.57080,0.11675,-0.12764,-0.48152,0.03738,,,,,,,,,,,,,,,,,,,,,,,,,,0,0,0,0,0
0.7764,1783965742.1020,1,1,1.0000,-0.0000,1.42244,0.00071,-2.63053,1.05907,1.57080,0.11675,-0.12764,-0.48152,0.03738,,,,,,,,,,,,,,,,,,,,,,,,,,0,0,0,0,0
0.7769,1783965742.1026,1,1,1.0000,-0.0000,1.42244,0.00071,-2.63053,1.05907,1.57080,0.11675,-0.12764,-0.48152,0.03738,,,,,,,,,,,,,,,,,,,,,,,,,,0,0,0,0,0
0.7899,1783965742.1155,1,1,1.0000,-0.0000,1.42244,0.00071,-2.63053,1.05907,1.57080,0.11675,-0.12764,-0.48152,0.03738,,,,,,,,,,,,,,,,,,,,,,,,,,0,0,0,0,0
0.8021,1783965742.1277,1,1,1.0000,-0.0000,1.42244,0.00071,-2.63053,1.05907,1.57080,0.11675,-0.12764,-0.48152,0.03738,,,,,,,,,,,,,,,,,,,,,,,,,,0,0,0,0,0
0.8060,1783965742.1317,1,1,1.0000,-0.0000,1.42244,0.00071,-2.63053,1.05907,1.57080,0.11675,-0.12764,-0.48152,0.03738,,,,,,,,,,,,,,,,,,,,,,,,,,0,0,0,0,0
0.8063,1783965742.1319,1,1,1.0000,-0.0000,1.42244,0.00071,-2.63053,1.05907,1.57080,0.11675,-0.12764,-0.48152,0.03738,,,,,,,,,,,,,,,,,,,,,,,,,,0,0,0,0,0
0.8183,1783965742.1439,1,1,1.0000,-0.0000,1.42244,0.00071,-2.63053,1.05907,1.57080,0.11675,-0.12764,-0.48152,0.03738,,,,,,,,,,,,,,,,,,,,,,,,,,0,0,0,0,0
0.8323,1783965742.1579,1,1,1.0000,-0.0000,1.42244,0.00071,-2.63053,1.05907,1.57080,0.11675,-0.12764,-0.48152,0.03738,,,,,,,,,,,,,,,,,,,,,,,,,,0,0,0,0,0
0.8464,1783965742.1720,1,1,1.0000,-0.0000,1.42244,0.00071,-2.63053,1.05907,1.57080,0.11675,-0.12764,-0.48152,0.03738,,,,,,,,,,,,,,,,,,,,,,,,,,0,0,0,0,0
0.8563,1783965742.1819,1,1,1.0000,-0.0000,1.42244,0.00071,-2.63053,1.05907,1.57080,0.11675,-0.12764,-0.48152,0.03738,,,,,,,,,,,,,,,,,,,,,,,,,,0,0,0,0,0
0.8619,1783965742.1875,1,1,1.0000,-0.0000,1.42244,0.00071,-2.63053,1.05907,1.57080,0.11675,-0.12764,-0.48152,0.03738,,,,,,,,,,,,,,,,,,,,,,,,,,0,0,0,0,0
0.8690,1783965742.1946,1,1,1.0000,-0.0000,1.42244,0.00071,-2.63053,1.05907,1.57080,0.11675,-0.12764,-0.48152,0.03738,,,,,,,,,,,,,,,,,,,,,,,,,,0,0,0,0,0
0.8779,1783965742.2035,1,1,1.0000,-0.0000,1.42244,0.00071,-2.63053,1.05907,1.57080,0.11675,-0.12764,-0.48152,0.03738,,,,,,,,,,,,,,,,,,,,,,,,,,0,0,0,0,0
0.8781,1783965742.2038,1,1,1.0000,-0.0000,1.42244,0.00071,-2.63053,1.05907,1.57080,0.11675,-0.12764,-0.48152,0.03738,,,,,,,,,,,,,,,,,,,,,,,,,,0,0,0,0,0
0.8966,1783965742.2222,1,1,1.0000,-0.0000,1.42244,0.00071,-2.63053,1.05907,1.57080,0.11675,-0.12764,-0.48152,0.03738,,,,,,,,,,,,,,,,,,,,,,,,,,0,0,0,0,0
0.9018,1783965742.2274,1,1,1.0000,-0.0000,1.42244,0.00071,-2.63053,1.05907,1.57080,0.11675,-0.12764,-0.48152,0.03738,,,,,,,,,,,,,,,,,,,,,,,,,,0,0,0,0,0
0.9020,1783965742.2277,1,1,1.0000,-0.0000,1.42244,0.00071,-2.63053,1.05907,1.57080,0.11675,-0.12764,-0.48152,0.03738,,,,,,,,,,,,,,,,,,,,,,,,,,0,0,0,0,0
0.9075,1783965742.2331,1,1,1.0000,-0.0000,1.42244,0.00071,-2.63053,1.05907,1.57080,0.11675,-0.12764,-0.48152,0.03738,,,,,,,,,,,,,,,,,,,,,,,,,,0,0,0,0,0
0.9189,1783965742.2445,1,1,1.0000,-0.0000,1.42244,0.00071,-2.63053,1.05907,1.57080,0.11675,-0.12764,-0.48152,0.03738,,,,,,,,,,,,,,,,,,,,,,,,,,0,0,0,0,0
0.9374,1783965742.2631,1,1,1.0000,-0.0000,1.42244,0.00071,-2.63053,1.05907,1.57080,0.11675,-0.12764,-0.48152,0.03738,,,,,,,,,,,,,,,,,,,,,,,,,,0,0,0,0,0
0.9377,1783965742.2633,1,1,1.0000,-0.0000,1.42244,0.00071,-2.63053,1.05907,1.57080,0.11675,-0.12764,-0.48152,0.03738,,,,,,,,,,,,,,,,,,,,,,,,,,0,0,0,0,0
0.9421,1783965742.2677,1,1,1.0000,-0.0000,1.42244,0.00071,-2.63053,1.05907,1.57080,0.11675,-0.12764,-0.48152,0.03738,,,,,,,,,,,,,,,,,,,,,,,,,,0,0,0,0,0
0.9598,1783965742.2855,1,1,1.0000,-0.0000,1.42244,0.00071,-2.63053,1.05907,1.57080,0.11675,-0.12764,-0.48152,0.03738,,,,,,,,,,,,,,,,,,,,,,,,,,0,0,0,0,0
0.9650,1783965742.2907,1,1,1.0000,-0.0000,1.42244,0.00071,-2.63053,1.05907,1.57080,0.11675,-0.12764,-0.48152,0.03738,,,,,,,,,,,,,,,,,,,,,,,,,,0,0,0,0,0
0.9654,1783965742.2911,1,1,1.0000,-0.0000,1.42244,0.00071,-2.63053,1.05907,1.57080,0.11675,-0.12764,-0.48152,0.03738,,,,,,,,,,,,,,,,,,,,,,,,,,0,0,0,0,0
0.9711,1783965742.2967,1,1,1.0000,-0.0000,1.42244,0.00071,-2.63053,1.05907,1.57080,0.11675,-0.12764,-0.48152,0.03738,,,,,,,,,,,,,,,,,,,,,,,,,,0,0,0,0,0
0.9786,1783965742.3043,1,1,1.0000,-0.0000,1.42244,0.00071,-2.63053,1.05907,1.57080,0.11675,-0.12764,-0.48152,0.03738,,,,,,,,,,,,,,,,,,,,,,,,,,0,0,0,0,0
1.0034,1783965742.3290,1,1,1.0000,-0.0000,1.42244,0.00071,-2.63053,1.05907,1.57080,0.11675,-0.12764,-0.48152,0.03738,,,,,,,,,,,,,,,,,,,,,,,,,,0,0,0,0,0
1.0066,1783965742.3323,1,1,1.0000,-0.0000,1.42244,0.00071,-2.63053,1.05907,1.57080,0.11675,-0.12764,-0.48152,0.03738,,,,,,,,,,,,,,,,,,,,,,,,,,0,0,0,0,0
1.0083,1783965742.3339,1,1,1.0000,-0.0000,1.42244,0.00071,-2.63053,1.05907,1.57080,0.11675,-0.12764,-0.48152,0.03738,,,,,,,,,,,,,,,,,,,,,,,,,,0,0,0,0,0
1.0089,1783965742.3345,1,1,1.0000,-0.0000,1.42244,0.00071,-2.63053,1.05907,1.57080,0.11675,-0.12764,-0.48152,0.03738,,,,,,,,,,,,,,,,,,,,,,,,,,0,0,0,0,0
1.0197,1783965742.3453,1,1,1.0000,-0.0000,1.42244,0.00070,-2.63055,1.05907,1.57080,0.11675,-0.12764,-0.48151,0.03737,,,,,,,,,,,,,,,,,,,,,,,,,,0,0,0,0,0
1.0285,1783965742.3541,1,1,1.0000,-0.0000,1.42244,0.00069,-2.63057,1.05907,1.57080,0.11675,-0.12764,-0.48149,0.03735,,,,,,,,,,,,,,,,,,,,,,,,,,0,0,0,0,0
1.0374,1783965742.3631,1,1,1.0000,-0.0000,1.42244,0.00067,-2.63060,1.05907,1.57080,0.11675,-0.12764,-0.48146,0.03733,,,,,,,,,,,,,,,,,,,,,,,,,,0,0,0,0,0
1.0578,1783965742.3834,1,1,1.0000,-0.0000,1.42244,0.00063,-2.63064,1.05909,1.57080,0.11675,-0.12765,-0.48144,0.03730,,,,,,,,,,,,,,,,,,,,,,,,,,0,0,0,0,0
1.0599,1783965742.3855,1,1,1.0000,-0.0000,1.42244,0.00063,-2.63064,1.05909,1.57080,0.11675,-0.12765,-0.48144,0.03730,,,,,,,,,,,,,,,,,,,,,,,,,,0,0,0,0,0
1.0730,1783965742.3986,1,1,1.0000,-0.0000,1.42244,0.00061,-2.63065,1.05911,1.57080,0.11675,-0.12765,-0.48143,0.03729,,,,,,,,,,,,,,,,,,,,,,,,,,0,0,0,0,0
1.0771,1783965742.4027,1,1,1.0000,-0.0000,1.42244,0.00059,-2.63066,1.05912,1.57080,0.11675,-0.12765,-0.48142,0.03728,,,,,,,,,,,,,,,,,,,,,,,,,,0,0,0,0,0
1.0853,1783965742.4110,1,1,1.0000,-0.0000,1.42244,0.00054,-2.63068,1.05916,1.57080,0.11675,-0.12765,-0.48141,0.03725,,,,,,,,,,,,,,,,,,,,,,,,,,0,0,0,0,0
1.0976,1783965742.4233,1,1,1.0000,-0.0000,1.42244,0.00049,-2.63071,1.05920,1.57080,0.11675,-0.12765,-0.48139,0.03722,,,,,,,,,,,,,,,,,,,,,,,,,,0,0,0,0,0
1.1051,1783965742.4307,1,1,1.0000,-0.0000,1.42244,0.00047,-2.63071,1.05922,1.57080,0.11675,-0.12765,-0.48139,0.03721,,,,,,,,,,,,,,,,,,,,,,,,,,0,0,0,0,0
1.1054,1783965742.4311,1,1,1.0000,-0.0000,1.42244,0.00047,-2.63071,1.05922,1.57080,0.11675,-0.12765,-0.48139,0.03721,,,,,,,,,,,,,,,,,,,,,,,,,,0,0,0,0,0
1.1184,1783965742.4440,1,1,1.0000,-0.0000,1.42244,0.00040,-2.63073,1.05929,1.57080,0.11675,-0.12765,-0.48139,0.03719,,,,,,,,,,,,,,,,,,,,,,,,,,0,0,0,0,0
1.1378,1783965742.4634,1,1,1.0000,-0.0000,1.42244,0.00031,-2.63074,1.05941,1.57080,0.11675,-0.12765,-0.48139,0.03716,,,,,,,,,,,,,,,,,,,,,,,,,,0,0,0,0,0
1.1398,1783965742.4654,1,1,1.0000,-0.0000,1.42244,0.00031,-2.63074,1.05941,1.57080,0.11675,-0.12765,-0.48139,0.03716,,,,,,,,,,,,,,,,,,,,,,,,,,0,0,0,0,0
1.1401,1783965742.4658,1,1,1.0000,-0.0000,1.42244,0.00031,-2.63074,1.05941,1.57080,0.11675,-0.12765,-0.48139,0.03716,,,,,,,,,,,,,,,,,,,,,,,,,,0,0,0,0,0
1.1555,1783965742.4812,1,1,1.0000,-0.0000,1.42244,0.00015,-2.63077,1.05959,1.57080,0.11675,-0.12765,-0.48140,0.03711,,,,,,,,,,,,,,,,,,,,,,,,,,0,0,0,0,0
1.1605,1783965742.4861,1,1,1.0000,-0.0000,1.42244,0.00015,-2.63077,1.05960,1.57080,0.11675,-0.12765,-0.48140,0.03711,,,,,,,,,,,,,,,,,,,,,,,,,,0,0,0,0,0
1.1612,1783965742.4869,1,1,1.0000,-0.0000,1.42244,0.00013,-2.63077,1.05962,1.57080,0.11675,-0.12765,-0.48140,0.03711,,,,,,,,,,,,,,,,,,,,,,,,,,0,0,0,0,0
1.1733,1783965742.4989,1,1,1.0000,-0.0000,1.42244,0.00003,-2.63078,1.05974,1.57080,0.11675,-0.12765,-0.48141,0.03708,,,,,,,,,,,,,,,,,,,,,,,,,,0,0,0,0,0
1.1993,1783965742.5249,1,1,1.0000,-0.0000,1.42244,-0.00010,-2.63080,1.05991,1.57080,0.11675,-0.12765,-0.48142,0.03704,,,,,,,,,,,,,,,,,,,,,,,,,,0,0,0,0,0
1.1997,1783965742.5254,1,1,1.0000,-0.0000,1.42244,-0.00010,-2.63080,1.05991,1.57080,0.11675,-0.12765,-0.48142,0.03704,,,,,,,,,,,,,,,,,,,,,,,,,,0,0,0,0,0
1.2089,1783965742.5346,1,1,1.0000,-0.0000,1.42244,-0.00019,-2.63080,1.06003,1.57080,0.11675,-0.12765,-0.48144,0.03702,,,,,,,,,,,,,,,,,,,,,,,,,,0,0,0,0,0
1.2092,1783965742.5349,1,1,1.0000,-0.0000,1.42244,-0.00019,-2.63080,1.06003,1.57080,0.11675,-0.12765,-0.48144,0.03702,,,,,,,,,,,,,,,,,,,,,,,,,,0,0,0,0,0
1.2119,1783965742.5375,1,1,1.0000,-0.0000,1.42244,-0.00019,-2.63080,1.06003,1.57080,0.11675,-0.12765,-0.48144,0.03702,,,,,,,,,,,,,,,,,,,,,,,,,,0,0,0,0,0
1.2125,1783965742.5381,1,1,1.0000,-0.0000,1.42244,-0.00019,-2.63080,1.06003,1.57080,0.11675,-0.12765,-0.48144,0.03702,,,,,,,,,,,,,,,,,,,,,,,,,,0,0,0,0,0
1.2200,1783965742.5456,1,1,1.0000,-0.0000,1.42244,-0.00027,-2.63080,1.06013,1.57080,0.11675,-0.12764,-0.48146,0.03700,,,,,,,,,,,,,,,,,,,,,,,,,,0,0,0,0,0
1.2292,1783965742.5549,1,1,1.0000,-0.0000,1.42244,-0.00038,-2.63078,1.06029,1.57080,0.11675,-0.12764,-0.48149,0.03699,,,,,,,,,,,,,,,,,,,,,,,,,,0,0,0,0,0
1.2314,1783965742.5571,1,1,1.0000,-0.0000,1.42244,-0.00038,-2.63078,1.06029,1.57080,0.11675,-0.12764,-0.48149,0.03699,,,,,,,,,,,,,,,,,,,,,,,,,,0,0,0,0,0
1.2412,1783965742.5668,1,1,1.0000,-0.0000,1.42244,-0.00046,-2.63076,1.06039,1.57080,0.11675,-0.12763,-0.48152,0.03698,,,,,,,,,,,,,,,,,,,,,,,,,,0,0,0,0,0
1.2414,1783965742.5671,1,1,1.0000,-0.0000,1.42244,-0.00046,-2.63076,1.06039,1.57080,0.11675,-0.12763,-0.48152,0.03698,,,,,,,,,,,,,,,,,,,,,,,,,,0,0,0,0,0
1.2456,1783965742.5712,1,1,1.0000,-0.0000,1.42244,-0.00047,-2.63075,1.06041,1.57080,0.11675,-0.12763,-0.48153,0.03698,,,,,,,,,,,,,,,,,,,,,,,,,,0,0,0,0,0
1.2556,1783965742.5812,1,1,1.0000,-0.0000,1.42244,-0.00047,-2.63075,1.06041,1.57080,0.11675,-0.12763,-0.48153,0.03698,,,,,,,,,,,,,,,,,,,,,,,,,,0,0,0,0,0
1.2683,1783965742.5939,1,1,1.0000,-0.0000,1.42244,-0.00047,-2.63075,1.06041,1.57080,0.11675,-0.12763,-0.48153,0.03698,,,,,,,,,,,,,,,,,,,,,,,,,,0,0,0,0,0
1.2830,1783965742.6086,1,1,1.0000,-0.0000,1.42244,-0.00047,-2.63075,1.06041,1.57080,0.11675,-0.12763,-0.48153,0.03698,,,,,,,,,,,,,,,,,,,,,,,,,,0,0,0,0,0
1.2853,1783965742.6109,1,1,1.0000,-0.0000,1.42244,-0.00047,-2.63075,1.06041,1.57080,0.11675,-0.12763,-0.48153,0.03698,,,,,,,,,,,,,,,,,,,,,,,,,,0,0,0,0,0
1.2856,1783965742.6112,1,1,1.0000,-0.0000,1.42244,-0.00047,-2.63075,1.06041,1.57080,0.11675,-0.12763,-0.48153,0.03698,,,,,,,,,,,,,,,,,,,,,,,,,,0,0,0,0,0
1.2974,1783965742.6230,1,1,1.0000,-0.0000,1.42244,-0.00047,-2.63075,1.06041,1.57080,0.11675,-0.12763,-0.48153,0.03698,,,,,,,,,,,,,,,,,,,,,,,,,,0,0,0,0,0
1.3059,1783965742.6316,1,1,1.0000,-0.0000,1.42244,-0.00047,-2.63075,1.06041,1.57080,0.11675,-0.12763,-0.48153,0.03698,,,,,,,,,,,,,,,,,,,,,,,,,,0,0,0,0,0
1.3149,1783965742.6406,1,1,1.0000,-0.0000,1.42244,-0.00047,-2.63075,1.06041,1.57080,0.11675,-0.12763,-0.48153,0.03698,,,,,,,,,,,,,,,,,,,,,,,,,,0,0,0,0,0
1.3279,1783965742.6535,1,1,1.0000,-0.0000,1.42244,-0.00047,-2.63075,1.06041,1.57080,0.11675,-0.12763,-0.48153,0.03698,,,,,,,,,,,,,,,,,,,,,,,,,,0,0,0,0,0
1.3356,1783965742.6613,1,1,1.0000,-0.0000,1.42244,-0.00047,-2.63075,1.06041,1.57080,0.11675,-0.12763,-0.48153,0.03698,,,,,,,,,,,,,,,,,,,,,,,,,,0,0,0,0,0
1.3460,1783965742.6717,1,1,1.0000,-0.0000,1.42244,-0.00047,-2.63075,1.06041,1.57080,0.11675,-0.12763,-0.48153,0.03698,,,,,,,,,,,,,,,,,,,,,,,,,,0,0,0,0,0
1.3631,1783965742.6887,1,1,1.0000,-0.0000,1.42244,-0.00047,-2.63075,1.06041,1.57080,0.11675,-0.12763,-0.48153,0.03698,,,,,,,,,,,,,,,,,,,,,,,,,,0,0,0,0,0
1.3697,1783965742.6954,1,1,1.0000,-0.0000,1.42244,-0.00047,-2.63075,1.06041,1.57080,0.11675,-0.12763,-0.48153,0.03698,,,,,,,,,,,,,,,,,,,,,,,,,,0,0,0,0,0
1.3770,1783965742.7027,1,1,1.0000,-0.0000,1.42244,-0.00047,-2.63075,1.06041,1.57080,0.11675,-0.12763,-0.48153,0.03698,,,,,,,,,,,,,,,,,,,,,,,,,,0,0,0,0,0
1.3773,1783965742.7029,1,1,1.0000,-0.0000,1.42244,-0.00047,-2.63075,1.06041,1.57080,0.11675,-0.12763,-0.48153,0.03698,,,,,,,,,,,,,,,,,,,,,,,,,,0,0,0,0,0
1.3852,1783965742.7109,1,1,1.0000,-0.0000,1.42244,-0.00047,-2.63075,1.06041,1.57080,0.11675,-0.12763,-0.48153,0.03698,,,,,,,,,,,,,,,,,,,,,,,,,,0,0,0,0,0
1.3856,1783965742.7112,1,1,1.0000,-0.0000,1.42244,-0.00047,-2.63075,1.06041,1.57080,0.11675,-0.12763,-0.48153,0.03698,,,,,,,,,,,,,,,,,,,,,,,,,,0,0,0,0,0
1.4132,1783965742.7388,1,1,1.0000,-0.0000,1.42244,-0.00047,-2.63075,1.06041,1.57080,0.11675,-0.12763,-0.48153,0.03698,,,,,,,,,,,,,,,,,,,,,,,,,,0,0,0,0,0
1.4136,1783965742.7393,1,1,1.0000,-0.0000,1.42244,-0.00047,-2.63075,1.06041,1.57080,0.11675,-0.12763,-0.48153,0.03698,,,,,,,,,,,,,,,,,,,,,,,,,,0,0,0,0,0
1.4163,1783965742.7420,1,1,1.0000,-0.0000,1.42244,-0.00047,-2.63075,1.06041,1.57080,0.11675,-0.12763,-0.48153,0.03698,,,,,,,,,,,,,,,,,,,,,,,,,,0,0,0,0,0
1.4251,1783965742.7508,1,1,1.0000,-0.0000,1.42244,-0.00047,-2.63075,1.06041,1.57080,0.11675,-0.12763,-0.48153,0.03698,,,,,,,,,,,,,,,,,,,,,,,,,,0,0,0,0,0
1.4353,1783965742.7610,1,1,1.0000,-0.0000,1.42244,-0.00047,-2.63075,1.06042,1.57080,0.11675,-0.12763,-0.48153,0.03698,,,,,,,,,,,,,,,,,,,,,,,,,,0,0,0,0,0
1.4463,1783965742.7719,1,1,1.0000,-0.0000,1.42244,-0.00048,-2.63077,1.06044,1.57080,0.11675,-0.12763,-0.48153,0.03698,,,,,,,,,,,,,,,,,,,,,,,,,,0,0,0,0,0
1.4553,1783965742.7809,1,1,1.0000,-0.0000,1.42244,-0.00048,-2.63078,1.06047,1.57080,0.11675,-0.12763,-0.48152,0.03697,,,,,,,,,,,,,,,,,,,,,,,,,,0,0,0,0,0
1.4701,1783965742.7957,1,1,1.0000,-0.0000,1.42244,-0.00050,-2.63080,1.06049,1.57080,0.11675,-0.12764,-0.48151,0.03696,,,,,,,,,,,,,,,,,,,,,,,,,,0,0,0,0,0
1.4775,1783965742.8031,1,1,1.0000,-0.0000,1.42244,-0.00052,-2.63083,1.06053,1.57080,0.11675,-0.12764,-0.48150,0.03694,,,,,,,,,,,,,,,,,,,,,,,,,,0,0,0,0,0
1.4778,1783965742.8034,1,1,1.0000,-0.0000,1.42244,-0.00052,-2.63083,1.06053,1.57080,0.11675,-0.12764,-0.48150,0.03694,,,,,,,,,,,,,,,,,,,,,,,,,,0,0,0,0,0
1.4932,1783965742.8188,1,1,1.0000,-0.0000,1.42244,-0.00055,-2.63085,1.06056,1.57080,0.11675,-0.12764,-0.48149,0.03693,,,,,,,,,,,,,,,,,,,,,,,,,,0,0,0,0,0
1.4970,1783965742.8226,1,1,1.0000,-0.0000,1.42244,-0.00057,-2.63086,1.06059,1.57080,0.11675,-0.12764,-0.48148,0.03692,,,,,,,,,,,,,,,,,,,,,,,,,,0,0,0,0,0
1.5112,1783965742.8368,1,1,1.0000,-0.0000,1.42244,-0.00065,-2.63091,1.06069,1.57080,0.11675,-0.12764,-0.48146,0.03688,,,,,,,,,,,,,,,,,,,,,,,,,,0,0,0,0,0
1.5116,1783965742.8372,1,1,1.0000,-0.0000,1.42244,-0.00065,-2.63091,1.06069,1.57080,0.11675,-0.12764,-0.48146,0.03688,,,,,,,,,,,,,,,,,,,,,,,,,,0,0,0,0,0
1.5165,1783965742.8422,1,1,1.0000,-0.0000,1.42244,-0.00065,-2.63091,1.06069,1.57080,0.11675,-0.12764,-0.48146,0.03688,,,,,,,,,,,,,,,,,,,,,,,,,,0,0,0,0,0
1.5432,1783965742.8689,1,1,1.0000,-0.0000,1.42244,-0.00081,-2.63096,1.06089,1.57080,0.11675,-0.12764,-0.48145,0.03682,,,,,,,,,,,,,,,,,,,,,,,,,,0,0,0,0,0
1.5483,1783965742.8739,1,1,1.0000,-0.0000,1.42244,-0.00081,-2.63096,1.06089,1.57080,0.11675,-0.12764,-0.48145,0.03682,,,,,,,,,,,,,,,,,,,,,,,,,,0,0,0,0,0
1.5531,1783965742.8788,1,1,1.0000,-0.0000,1.42244,-0.00083,-2.63097,1.06092,1.57080,0.11675,-0.12764,-0.48145,0.03681,,,,,,,,,,,,,,,,,,,,,,,,,,0,0,0,0,0
1.5620,1783965742.8877,1,1,1.0000,-0.0000,1.42244,-0.00089,-2.63098,1.06100,1.57080,0.11675,-0.12764,-0.48145,0.03679,,,,,,,,,,,,,,,,,,,,,,,,,,0,0,0,0,0
1.5623,1783965742.8879,1,1,1.0000,-0.0000,1.42244,-0.00089,-2.63098,1.06100,1.57080,0.11675,-0.12764,-0.48145,0.03679,,,,,,,,,,,,,,,,,,,,,,,,,,0,0,0,0,0
1.5653,1783965742.8909,1,1,1.0000,-0.0000,1.42244,-0.00093,-2.63099,1.06105,1.57080,0.11675,-0.12764,-0.48145,0.03678,,,,,,,,,,,,,,,,,,,,,,,,,,0,0,0,0,0
1.5657,1783965742.8914,1,1,1.0000,-0.0000,1.42244,-0.00093,-2.63099,1.06105,1.57080,0.11675,-0.12764,-0.48145,0.03678,,,,,,,,,,,,,,,,,,,,,,,,,,0,0,0,0,0
1.5992,1783965742.9248,1,1,1.0000,-0.0000,1.42244,-0.00119,-2.63103,1.06136,1.57080,0.11675,-0.12764,-0.48146,0.03670,,,,,,,,,,,,,,,,,,,,,,,,,,0,0,0,0,0
1.5996,1783965742.9253,1,1,1.0000,-0.0000,1.42244,-0.00119,-2.63103,1.06136,1.57080,0.11675,-0.12764,-0.48146,0.03670,,,,,,,,,,,,,,,,,,,,,,,,,,0,0,0,0,0
1.6185,1783965742.9442,1,1,1.0000,-0.0000,1.42244,-0.00126,-2.63104,1.06145,1.57080,0.11675,-0.12764,-0.48147,0.03668,,,,,,,,,,,,,,,,,,,,,,,,,,0,0,0,0,0
1.6231,1783965742.9487,1,1,1.0000,-0.0000,1.42244,-0.00129,-2.63104,1.06150,1.57080,0.11675,-0.12764,-0.48147,0.03667,,,,,,,,,,,,,,,,,,,,,,,,,,0,0,0,0,0
1.6236,1783965742.9492,1,1,1.0000,-0.0000,1.42244,-0.00129,-2.63104,1.06150,1.57080,0.11675,-0.12764,-0.48147,0.03667,,,,,,,,,,,,,,,,,,,,,,,,,,0,0,0,0,0
1.6257,1783965742.9514,1,1,1.0000,-0.0000,1.42244,-0.00133,-2.63105,1.06155,1.57080,0.11675,-0.12764,-0.48148,0.03666,,,,,,,,,,,,,,,,,,,,,,,,,,0,0,0,0,0
1.6261,1783965742.9518,1,1,1.0000,-0.0000,1.42244,-0.00133,-2.63105,1.06155,1.57080,0.11675,-0.12764,-0.48148,0.03666,,,,,,,,,,,,,,,,,,,,,,,,,,0,0,0,0,0
1.6282,1783965742.9539,1,1,1.0000,-0.0000,1.42244,-0.00133,-2.63105,1.06155,1.57080,0.11675,-0.12764,-0.48148,0.03666,,,,,,,,,,,,,,,,,,,,,,,,,,0,0,0,0,0
1.6287,1783965742.9543,1,1,1.0000,-0.0000,1.42244,-0.00133,-2.63105,1.06155,1.57080,0.11675,-0.12764,-0.48148,0.03666,,,,,,,,,,,,,,,,,,,,,,,,,,0,0,0,0,0
1.6375,1783965742.9632,1,1,1.0000,-0.0000,1.42244,-0.00146,-2.63105,1.06171,1.57080,0.11675,-0.12764,-0.48150,0.03663,,,,,,,,,,,,,,,,,,,,,,,,,,0,0,0,0,0
1.6566,1783965742.9822,1,1,1.0000,-0.0000,1.42244,-0.00161,-2.63104,1.06190,1.57080,0.11675,-0.12763,-0.48153,0.03660,,,,,,,,,,,,,,,,,,,,,,,,,,0,0,0,0,0
1.6688,1783965742.9944,1,1,1.0000,-0.0000,1.42244,-0.00165,-2.63103,1.06195,1.57080,0.11675,-0.12763,-0.48155,0.03659,,,,,,,,,,,,,,,,,,,,,,,,,,0,0,0,0,0
1.6694,1783965742.9950,1,1,1.0000,-0.0000,1.42244,-0.00165,-2.63103,1.06195,1.57080,0.11675,-0.12763,-0.48155,0.03659,,,,,,,,,,,,,,,,,,,,,,,,,,0,0,0,0,0
1.6813,1783965743.0070,1,1,1.0000,-0.0000,1.42244,-0.00165,-2.63103,1.06195,1.57080,0.11675,-0.12763,-0.48155,0.03659,,,,,,,,,,,,,,,,,,,,,,,,,,0,0,0,0,0
1.6854,1783965743.0110,1,1,1.0000,-0.0000,1.42244,-0.00165,-2.63103,1.06195,1.57080,0.11675,-0.12763,-0.48155,0.03659,,,,,,,,,,,,,,,,,,,,,,,,,,0,0,0,0,0
1.6967,1783965743.0224,1,1,1.0000,-0.0000,1.42244,-0.00165,-2.63103,1.06195,1.57080,0.11675,-0.12763,-0.48155,0.03659,,,,,,,,,,,,,,,,,,,,,,,,,,0,0,0,0,0
1.7229,1783965743.0485,1,1,1.0000,-0.0000,1.42244,-0.00165,-2.63103,1.06195,1.57080,0.11675,-0.12763,-0.48155,0.03659,,,,,,,,,,,,,,,,,,,,,,,,,,0,0,0,0,0
1.7233,1783965743.0489,1,1,1.0000,-0.0000,1.42244,-0.00165,-2.63103,1.06195,1.57080,0.11675,-0.12763,-0.48155,0.03659,,,,,,,,,,,,,,,,,,,,,,,,,,0,0,0,0,0
1.7237,1783965743.0493,1,1,1.0000,-0.0000,1.42244,-0.00165,-2.63103,1.06195,1.57080,0.11675,-0.12763,-0.48155,0.03659,,,,,,,,,,,,,,,,,,,,,,,,,,0,0,0,0,0
1.7285,1783965743.0542,1,1,1.0000,-0.0000,1.42244,-0.00165,-2.63103,1.06195,1.57080,0.11675,-0.12763,-0.48155,0.03659,,,,,,,,,,,,,,,,,,,,,,,,,,0,0,0,0,0
1.7292,1783965743.0548,1,1,1.0000,-0.0000,1.42244,-0.00165,-2.63103,1.06195,1.57080,0.11675,-0.12763,-0.48155,0.03659,,,,,,,,,,,,,,,,,,,,,,,,,,0,0,0,0,0
1.7375,1783965743.0632,1,1,1.0000,-0.0000,1.42244,-0.00165,-2.63103,1.06195,1.57080,0.11675,-0.12763,-0.48155,0.03659,,,,,,,,,,,,,,,,,,,,,,,,,,0,0,0,0,0
1.7524,1783965743.0780,1,1,1.0000,-0.0000,1.42244,-0.00165,-2.63103,1.06195,1.57080,0.11675,-0.12763,-0.48155,0.03659,,,,,,,,,,,,,,,,,,,,,,,,,,0,0,0,0,0
1.7576,1783965743.0832,1,1,1.0000,-0.0000,1.42244,-0.00165,-2.63103,1.06195,1.57080,0.11675,-0.12763,-0.48155,0.03659,,,,,,,,,,,,,,,,,,,,,,,,,,0,0,0,0,0
1.7733,1783965743.0990,1,1,1.0000,-0.0000,1.42244,-0.00165,-2.63103,1.06195,1.57080,0.11675,-0.12763,-0.48155,0.03659,,,,,,,,,,,,,,,,,,,,,,,,,,0,0,0,0,0
1.7762,1783965743.1018,1,1,1.0000,-0.0000,1.42244,-0.00165,-2.63103,1.06195,1.57080,0.11675,-0.12763,-0.48155,0.03659,,,,,,,,,,,,,,,,,,,,,,,,,,0,0,0,0,0
1.7765,1783965743.1022,1,1,1.0000,-0.0000,1.42244,-0.00165,-2.63103,1.06195,1.57080,0.11675,-0.12763,-0.48155,0.03659,,,,,,,,,,,,,,,,,,,,,,,,,,0,0,0,0,0
1.7857,1783965743.1113,1,1,1.0000,-0.0000,1.42244,-0.00165,-2.63103,1.06195,1.57080,0.11675,-0.12763,-0.48155,0.03659,,,,,,,,,,,,,,,,,,,,,,,,,,0,0,0,0,0
1.7960,1783965743.1217,1,1,1.0000,-0.0000,1.42244,-0.00165,-2.63103,1.06195,1.57080,0.11675,-0.12763,-0.48155,0.03659,,,,,,,,,,,,,,,,,,,,,,,,,,0,0,0,0,0
1.8174,1783965743.1431,1,1,1.0000,-0.0000,1.42244,-0.00165,-2.63103,1.06195,1.57080,0.11675,-0.12763,-0.48155,0.03659,,,,,,,,,,,,,,,,,,,,,,,,,,0,0,0,0,0
1.8226,1783965743.1483,1,1,1.0000,-0.0000,1.42244,-0.00165,-2.63103,1.06195,1.57080,0.11675,-0.12763,-0.48155,0.03659,,,,,,,,,,,,,,,,,,,,,,,,,,0,0,0,0,0
1.8268,1783965743.1524,1,1,1.0000,-0.0000,1.42244,-0.00165,-2.63103,1.06195,1.57080,0.11675,-0.12763,-0.48155,0.03659,,,,,,,,,,,,,,,,,,,,,,,,,,0,0,0,0,0
1.8271,1783965743.1528,1,1,1.0000,-0.0000,1.42244,-0.00165,-2.63103,1.06195,1.57080,0.11675,-0.12763,-0.48155,0.03659,,,,,,,,,,,,,,,,,,,,,,,,,,0,0,0,0,0
1.8427,1783965743.1684,1,1,1.0000,-0.0000,1.42244,-0.00165,-2.63103,1.06195,1.57080,0.11675,-0.12763,-0.48155,0.03659,,,,,,,,,,,,,,,,,,,,,,,,,,0,0,0,0,0
1.8534,1783965743.1791,1,1,1.0000,-0.0000,1.42244,-0.00165,-2.63103,1.06195,1.57080,0.11675,-0.12763,-0.48154,0.03659,,,,,,,,,,,,,,,,,,,,,,,,,,0,0,0,0,0
1.8561,1783965743.1817,1,1,1.0000,-0.0000,1.42244,-0.00165,-2.63103,1.06195,1.57080,0.11675,-0.12763,-0.48154,0.03659,,,,,,,,,,,,,,,,,,,,,,,,,,0,0,0,0,0
1.8565,1783965743.1822,1,1,1.0000,-0.0000,1.42244,-0.00165,-2.63103,1.06195,1.57080,0.11675,-0.12763,-0.48154,0.03659,,,,,,,,,,,,,,,,,,,,,,,,,,0,0,0,0,0
1.8768,1783965743.2024,1,1,1.0000,-0.0000,1.42243,-0.00166,-2.63106,1.06199,1.57080,0.11675,-0.12763,-0.48153,0.03658,,,,,,,,,,,,,,,,,,,,,,,,,,0,0,0,0,0
1.8801,1783965743.2057,1,1,1.0000,-0.0000,1.42243,-0.00166,-2.63106,1.06199,1.57080,0.11675,-0.12763,-0.48153,0.03658,,,,,,,,,,,,,,,,,,,,,,,,,,0,0,0,0,0
1.8805,1783965743.2061,1,1,1.0000,-0.0000,1.42243,-0.00166,-2.63106,1.06199,1.57080,0.11675,-0.12763,-0.48153,0.03658,,,,,,,,,,,,,,,,,,,,,,,,,,0,0,0,0,0
1.8860,1783965743.2116,1,1,1.0000,-0.0000,1.42243,-0.00167,-2.63107,1.06199,1.57080,0.11675,-0.12763,-0.48152,0.03657,,,,,,,,,,,,,,,,,,,,,,,,,,0,0,0,0,0
1.8956,1783965743.2213,1,1,1.0000,-0.0000,1.42243,-0.00169,-2.63109,1.06201,1.57080,0.11675,-0.12763,-0.48151,0.03656,,,,,,,,,,,,,,,,,,,,,,,,,,0,0,0,0,0
1.9066,1783965743.2322,1,1,1.0000,-0.0000,1.42243,-0.00173,-2.63114,1.06207,1.57080,0.11675,-0.12764,-0.48148,0.03652,,,,,,,,,,,,,,,,,,,,,,,,,,0,0,0,0,0
1.9258,1783965743.2515,1,1,1.0000,-0.0000,1.42243,-0.00185,-2.63124,1.06220,1.57080,0.11675,-0.12765,-0.48143,0.03645,,,,,,,,,,,,,,,,,,,,,,,,,,0,0,0,0,0
1.9265,1783965743.2521,1,1,1.0000,-0.0000,1.42243,-0.00185,-2.63124,1.06220,1.57080,0.11675,-0.12765,-0.48143,0.03645,,,,,,,,,,,,,,,,,,,,,,,,,,0,0,0,0,0
1.9286,1783965743.2542,1,1,1.0000,-0.0000,1.42243,-0.00185,-2.63124,1.06220,1.57080,0.11675,-0.12765,-0.48143,0.03645,,,,,,,,,,,,,,,,,,,,,,,,,,0,0,0,0,0
1.9290,1783965743.2547,1,1,1.0000,-0.0000,1.42243,-0.00185,-2.63124,1.06220,1.57080,0.11675,-0.12765,-0.48143,0.03645,,,,,,,,,,,,,,,,,,,,,,,,,,0,0,0,0,0
1.9378,1783965743.2634,1,1,1.0000,-0.0000,1.42243,-0.00188,-2.63126,1.06223,1.57080,0.11675,-0.12765,-0.48141,0.03643,,,,,,,,,,,,,,,,,,,,,,,,,,0,0,0,0,0
1.9460,1783965743.2717,1,1,1.0000,-0.0000,1.42243,-0.00191,-2.63126,1.06226,1.57080,0.11675,-0.12765,-0.48142,0.03642,,,,,,,,,,,,,,,,,,,,,,,,,,0,0,0,0,0
1.9464,1783965743.2721,1,1,1.0000,-0.0000,1.42243,-0.00191,-2.63126,1.06226,1.57080,0.11675,-0.12765,-0.48142,0.03642,,,,,,,,,,,,,,,,,,,,,,,,,,0,0,0,0,0
1.9586,1783965743.2843,1,1,1.0000,-0.0000,1.42243,-0.00199,-2.63127,1.06236,1.57080,0.11675,-0.12765,-0.48142,0.03640,,,,,,,,,,,,,,,,,,,,,,,,,,0,0,0,0,0
1.9662,1783965743.2919,1,1,1.0000,-0.0000,1.42243,-0.00203,-2.63127,1.06241,1.57080,0.11675,-0.12765,-0.48143,0.03639,,,,,,,,,,,,,,,,,,,,,,,,,,0,0,0,0,0
1.9800,1783965743.3056,1,1,1.0000,-0.0000,1.42243,-0.00208,-2.63128,1.06247,1.57080,0.11675,-0.12764,-0.48143,0.03638,,,,,,,,,,,,,,,,,,,,,,,,,,0,0,0,0,0
2.0009,1783965743.3266,1,1,1.0000,-0.0000,1.42243,-0.00217,-2.63129,1.06259,1.57080,0.11675,-0.12764,-0.48144,0.03635,,,,,,,,,,,,,,,,,,,,,,,,,,0,0,0,0,0
2.0015,1783965743.3271,1,1,1.0000,-0.0000,1.42243,-0.00220,-2.63129,1.06262,1.57080,0.11675,-0.12764,-0.48144,0.03634,,,,,,,,,,,,,,,,,,,,,,,,,,0,0,0,0,0
2.0184,1783965743.3441,1,1,1.0000,-0.0000,1.42243,-0.00239,-2.63131,1.06284,1.57080,0.11675,-0.12764,-0.48146,0.03628,,,,,,,,,,,,,,,,,,,,,,,,,,0,0,0,0,0
2.0313,1783965743.3569,1,1,1.0000,-0.0000,1.42243,-0.00250,-2.63133,1.06298,1.57080,0.11675,-0.12764,-0.48146,0.03625,,,,,,,,,,,,,,,,,,,,,,,,,,0,0,0,0,0
2.0360,1783965743.3616,1,1,1.0000,-0.0000,1.42243,-0.00250,-2.63133,1.06298,1.57080,0.11675,-0.12764,-0.48146,0.03625,,,,,,,,,,,,,,,,,,,,,,,,,,0,0,0,0,0
2.0466,1783965743.3722,1,1,1.0000,-0.0000,1.42243,-0.00255,-2.63132,1.06304,1.57080,0.11675,-0.12764,-0.48147,0.03624,,,,,,,,,,,,,,,,,,,,,,,,,,0,0,0,0,0
2.0501,1783965743.3758,1,1,1.0000,-0.0000,1.42243,-0.00257,-2.63132,1.06307,1.57080,0.11675,-0.12764,-0.48148,0.03624,,,,,,,,,,,,,,,,,,,,,,,,,,0,0,0,0,0
2.0607,1783965743.3864,1,1,1.0000,-0.0000,1.42243,-0.00263,-2.63132,1.06314,1.57080,0.11675,-0.12763,-0.48149,0.03623,,,,,,,,,,,,,,,,,,,,,,,,,,0,0,0,0,0
2.0684,1783965743.3940,1,1,1.0000,-0.0000,1.42243,-0.00269,-2.63131,1.06322,1.57080,0.11675,-0.12763,-0.48151,0.03622,,,,,,,,,,,,,,,,,,,,,,,,,,0,0,0,0,0
2.0856,1783965743.4112,1,1,1.0000,-0.0000,1.42243,-0.00281,-2.63127,1.06338,1.57080,0.11675,-0.12762,-0.48156,0.03620,,,,,,,,,,,,,,,,,,,,,,,,,,0,0,0,0,0
2.0869,1783965743.4125,1,1,1.0000,-0.0000,1.42243,-0.00281,-2.63127,1.06338,1.57080,0.11675,-0.12762,-0.48156,0.03620,,,,,,,,,,,,,,,,,,,,,,,,,,0,0,0,0,0
2.0970,1783965743.4226,1,1,1.0000,-0.0000,1.42243,-0.00283,-2.63126,1.06340,1.57080,0.11675,-0.12762,-0.48157,0.03621,,,,,,,,,,,,,,,,,,,,,,,,,,0,0,0,0,0
2.1376,1783965743.4632,1,1,1.0000,-0.0000,1.42243,-0.00283,-2.63126,1.06340,1.57080,0.11675,-0.12762,-0.48157,0.03621,,,,,,,,,,,,,,,,,,,,,,,,,,0,0,0,0,0
2.1519,1783965743.4775,1,1,1.0000,-0.0000,1.42243,-0.00283,-2.63126,1.06340,1.57080,0.11675,-0.12762,-0.48157,0.03621,,,,,,,,,,,,,,,,,,,,,,,,,,0,0,0,0,0
2.1629,1783965743.4886,1,1,1.0000,-0.0000,1.42243,-0.00283,-2.63126,1.06340,1.57080,0.11675,-0.12762,-0.48157,0.03621,,,,,,,,,,,,,,,,,,,,,,,,,,0,0,0,0,0
2.1658,1783965743.4915,1,1,1.0000,-0.0000,1.42243,-0.00283,-2.63126,1.06340,1.57080,0.11675,-0.12762,-0.48157,0.03621,,,,,,,,,,,,,,,,,,,,,,,,,,0,0,0,0,0
2.1662,1783965743.4918,1,1,1.0000,-0.0000,1.42243,-0.00283,-2.63126,1.06340,1.57080,0.11675,-0.12762,-0.48157,0.03621,,,,,,,,,,,,,,,,,,,,,,,,,,0,0,0,0,0
2.1675,1783965743.4931,1,1,1.0000,-0.0000,1.42243,-0.00283,-2.63126,1.06340,1.57080,0.11675,-0.12762,-0.48157,0.03621,,,,,,,,,,,,,,,,,,,,,,,,,,0,0,0,0,0
2.1678,1783965743.4934,1,1,1.0000,-0.0000,1.42243,-0.00283,-2.63126,1.06340,1.57080,0.11675,-0.12762,-0.48157,0.03621,,,,,,,,,,,,,,,,,,,,,,,,,,0,0,0,0,0
2.1692,1783965743.4948,1,1,1.0000,-0.0000,1.42243,-0.00283,-2.63126,1.06340,1.57080,0.11675,-0.12762,-0.48157,0.03621,,,,,,,,,,,,,,,,,,,,,,,,,,0,0,0,0,0
2.1697,1783965743.4953,1,1,1.0000,-0.0000,1.42243,-0.00283,-2.63126,1.06340,1.57080,0.11675,-0.12762,-0.48157,0.03621,,,,,,,,,,,,,,,,,,,,,,,,,,0,0,0,0,0
2.1765,1783965743.5021,1,1,1.0000,-0.0000,1.42243,-0.00283,-2.63126,1.06340,1.57080,0.11675,-0.12762,-0.48157,0.03621,,,,,,,,,,,,,,,,,,,,,,,,,,0,0,0,0,0
2.1768,1783965743.5024,1,1,1.0000,-0.0000,1.42243,-0.00283,-2.63126,1.06340,1.57080,0.11675,-0.12762,-0.48157,0.03621,,,,,,,,,,,,,,,,,,,,,,,,,,0,0,0,0,0
2.1990,1783965743.5247,1,1,1.0000,-0.0000,1.42243,-0.00283,-2.63126,1.06340,1.57080,0.11675,-0.12762,-0.48157,0.03621,,,,,,,,,,,,,,,,,,,,,,,,,,0,0,0,0,0
2.2002,1783965743.5259,1,1,1.0000,-0.0000,1.42243,-0.00283,-2.63126,1.06340,1.57080,0.11675,-0.12762,-0.48157,0.03621,,,,,,,,,,,,,,,,,,,,,,,,,,0,0,0,0,0
2.2006,1783965743.5263,1,1,1.0000,-0.0000,1.42243,-0.00283,-2.63126,1.06340,1.57080,0.11675,-0.12762,-0.48157,0.03621,,,,,,,,,,,,,,,,,,,,,,,,,,0,0,0,0,0
2.2109,1783965743.5365,1,1,1.0000,-0.0000,1.42243,-0.00283,-2.63126,1.06340,1.57080,0.11675,-0.12762,-0.48157,0.03621,,,,,,,,,,,,,,,,,,,,,,,,,,0,0,0,0,0
2.2321,1783965743.5577,1,1,1.0000,-0.0000,1.42243,-0.00283,-2.63126,1.06340,1.57080,0.11675,-0.12762,-0.48157,0.03621,,,,,,,,,,,,,,,,,,,,,,,,,,0,0,0,0,0
2.2326,1783965743.5582,1,1,1.0000,-0.0000,1.42243,-0.00283,-2.63126,1.06340,1.57080,0.11675,-0.12762,-0.48157,0.03621,,,,,,,,,,,,,,,,,,,,,,,,,,0,0,0,0,0
2.2357,1783965743.5613,1,1,1.0000,-0.0000,1.42243,-0.00283,-2.63126,1.06340,1.57080,0.11675,-0.12762,-0.48157,0.03621,,,,,,,,,,,,,,,,,,,,,,,,,,0,0,0,0,0
2.2363,1783965743.5619,1,1,1.0000,-0.0000,1.42243,-0.00283,-2.63126,1.06340,1.57080,0.11675,-0.12762,-0.48157,0.03621,,,,,,,,,,,,,,,,,,,,,,,,,,0,0,0,0,0
2.2498,1783965743.5754,1,1,1.0000,-0.0000,1.42243,-0.00283,-2.63126,1.06340,1.57080,0.11675,-0.12762,-0.48157,0.03621,,,,,,,,,,,,,,,,,,,,,,,,,,0,0,0,0,0
2.2501,1783965743.5757,1,1,1.0000,-0.0000,1.42243,-0.00283,-2.63126,1.06340,1.57080,0.11675,-0.12762,-0.48157,0.03621,,,,,,,,,,,,,,,,,,,,,,,,,,0,0,0,0,0
2.2577,1783965743.5834,1,1,1.0000,-0.0000,1.42243,-0.00283,-2.63126,1.06340,1.57080,0.11675,-0.12762,-0.48157,0.03621,,,,,,,,,,,,,,,,,,,,,,,,,,0,0,0,0,0
2.2689,1783965743.5945,1,1,1.0000,-0.0000,1.42243,-0.00283,-2.63126,1.06340,1.57080,0.11675,-0.12762,-0.48157,0.03621,,,,,,,,,,,,,,,,,,,,,,,,,,0,0,0,0,0
2.2860,1783965743.6116,1,1,1.0000,-0.0000,1.42243,-0.00283,-2.63129,1.06341,1.57080,0.11675,-0.12762,-0.48156,0.03620,,,,,,,,,,,,,,,,,,,,,,,,,,0,0,0,0,0
2.2863,1783965743.6119,1,1,1.0000,-0.0000,1.42243,-0.00283,-2.63129,1.06341,1.57080,0.11675,-0.12762,-0.48156,0.03620,,,,,,,,,,,,,,,,,,,,,,,,,,0,0,0,0,0
2.2876,1783965743.6132,1,1,1.0000,-0.0000,1.42243,-0.00283,-2.63129,1.06341,1.57080,0.11675,-0.12762,-0.48156,0.03620,,,,,,,,,,,,,,,,,,,,,,,,,,0,0,0,0,0
2.2962,1783965743.6219,1,1,1.0000,-0.0000,1.42243,-0.00284,-2.63129,1.06342,1.57080,0.11675,-0.12762,-0.48155,0.03619,,,,,,,,,,,,,,,,,,,,,,,,,,0,0,0,0,0
2.3165,1783965743.6421,1,1,1.0000,-0.0000,1.42243,-0.00287,-2.63134,1.06346,1.57080,0.11675,-0.12763,-0.48152,0.03617,,,,,,,,,,,,,,,,,,,,,,,,,,0,0,0,0,0
2.3168,1783965743.6424,1,1,1.0000,-0.0000,1.42243,-0.00287,-2.63134,1.06346,1.57080,0.11675,-0.12763,-0.48152,0.03617,,,,,,,,,,,,,,,,,,,,,,,,,,0,0,0,0,0
2.3304,1783965743.6561,1,1,1.0000,-0.0000,1.42243,-0.00290,-2.63137,1.06350,1.57080,0.11675,-0.12763,-0.48150,0.03614,,,,,,,,,,,,,,,,,,,,,,,,,,0,0,0,0,0
2.3380,1783965743.6637,1,1,1.0000,-0.0000,1.42243,-0.00292,-2.63139,1.06352,1.57080,0.11675,-0.12763,-0.48149,0.03613,,,,,,,,,,,,,,,,,,,,,,,,,,0,0,0,0,0
2.3471,1783965743.6727,1,1,1.0000,-0.0000,1.42243,-0.00296,-2.63142,1.06357,1.57080,0.11675,-0.12764,-0.48148,0.03611,,,,,,,,,,,,,,,,,,,,,,,,,,0,0,0,0,0
2.3618,1783965743.6875,1,1,1.0000,-0.0000,1.42243,-0.00300,-2.63143,1.06361,1.57080,0.11675,-0.12764,-0.48148,0.03609,,,,,,,,,,,,,,,,,,,,,,,,,,0,0,0,0,0
2.3621,1783965743.6878,1,1,1.0000,-0.0000,1.42243,-0.00300,-2.63143,1.06361,1.57080,0.11675,-0.12764,-0.48148,0.03609,,,,,,,,,,,,,,,,,,,,,,,,,,0,0,0,0,0
2.4397,1783965743.7653,1,1,1.0000,-0.0000,1.42243,-0.00351,-2.63155,1.06421,1.57080,0.11675,-0.12764,-0.48147,0.03591,,,,,,,,,,,,,,,,,,,,,,,,,,0,0,0,0,0
2.4429,1783965743.7685,1,1,1.0000,-0.0000,1.42243,-0.00355,-2.63156,1.06427,1.57080,0.11675,-0.12764,-0.48147,0.03590,,,,,,,,,,,,,,,,,,,,,,,,,,0,0,0,0,0
2.4471,1783965743.7727,1,1,1.0000,-0.0000,1.42243,-0.00360,-2.63156,1.06432,1.57080,0.11675,-0.12764,-0.48147,0.03588,,,,,,,,,,,,,,,,,,,,,,,,,,0,0,0,0,0
2.4499,1783965743.7755,1,1,1.0000,-0.0000,1.42243,-0.00365,-2.63157,1.06438,1.57080,0.11675,-0.12764,-0.48147,0.03587,,,,,,,,,,,,,,,,,,,,,,,,,,0,0,0,0,0
2.4502,1783965743.7759,1,1,1.0000,-0.0000,1.42243,-0.00365,-2.63157,1.06438,1.57080,0.11675,-0.12764,-0.48147,0.03587,,,,,,,,,,,,,,,,,,,,,,,,,,0,0,0,0,0
2.4530,1783965743.7787,1,1,1.0000,-0.0000,1.42243,-0.00365,-2.63157,1.06438,1.57080,0.11675,-0.12764,-0.48147,0.03587,,,,,,,,,,,,,,,,,,,,,,,,,,0,0,0,0,0
2.4570,1783965743.7826,1,1,1.0000,-0.0000,1.42243,-0.00370,-2.63158,1.06445,1.57080,0.11675,-0.12764,-0.48147,0.03585,,,,,,,,,,,,,,,,,,,,,,,,,,0,0,0,0,0
2.4580,1783965743.7836,1,1,1.0000,-0.0000,1.42243,-0.00375,-2.63159,1.06451,1.57080,0.11675,-0.12763,-0.48148,0.03584,,,,,,,,,,,,,,,,,,,,,,,,,,0,0,0,0,0
2.4583,1783965743.7840,1,1,1.0000,-0.0000,1.42243,-0.00375,-2.63159,1.06451,1.57080,0.11675,-0.12763,-0.48148,0.03584,,,,,,,,,,,,,,,,,,,,,,,,,,0,0,0,0,0
2.4591,1783965743.7847,1,1,1.0000,-0.0000,1.42243,-0.00375,-2.63159,1.06451,1.57080,0.11675,-0.12763,-0.48148,0.03584,,,,,,,,,,,,,,,,,,,,,,,,,,0,0,0,0,0
2.4700,1783965743.7956,1,1,1.0000,-0.0000,1.42243,-0.00388,-2.63161,1.06467,1.57080,0.11675,-0.12763,-0.48148,0.03580,,,,,,,,,,,,,,,,,,,,,,,,,,0,0,0,0,0
2.4968,1783965743.8224,1,1,1.0000,-0.0000,1.42243,-0.00394,-2.63162,1.06474,1.57080,0.11675,-0.12763,-0.48149,0.03578,,,,,,,,,,,,,,,,,,,,,,,,,,0,0,0,0,0
2.5034,1783965743.8290,1,1,1.0000,-0.0000,1.42243,-0.00394,-2.63162,1.06474,1.57080,0.11675,-0.12763,-0.48149,0.03578,,,,,,,,,,,,,,,,,,,,,,,,,,0,0,0,0,0
2.5132,1783965743.8388,1,1,1.0000,-0.0000,1.42243,-0.00394,-2.63162,1.06474,1.57080,0.11675,-0.12763,-0.48149,0.03578,,,,,,,,,,,,,,,,,,,,,,,,,,0,0,0,0,0
2.5824,1783965743.9080,1,1,1.0000,-0.0000,1.42243,-0.00394,-2.63162,1.06474,1.57080,0.11675,-0.12763,-0.48149,0.03578,,,,,,,,,,,,,,,,,,,,,,,,,,0,0,0,0,0
2.5909,1783965743.9165,1,1,1.0000,-0.0000,1.42243,-0.00394,-2.63162,1.06474,1.57080,0.11675,-0.12763,-0.48149,0.03578,,,,,,,,,,,,,,,,,,,,,,,,,,0,0,0,0,0
2.6082,1783965743.9339,1,1,1.0000,-0.0000,1.42243,-0.00394,-2.63162,1.06474,1.57080,0.11675,-0.12763,-0.48149,0.03578,,,,,,,,,,,,,,,,,,,,,,,,,,0,0,0,0,0
2.6097,1783965743.9353,1,1,1.0000,-0.0000,1.42243,-0.00394,-2.63162,1.06474,1.57080,0.11675,-0.12763,-0.48149,0.03578,,,,,,,,,,,,,,,,,,,,,,,,,,0,0,0,0,0
2.6214,1783965743.9470,1,1,1.0000,-0.0000,1.42243,-0.00394,-2.63162,1.06474,1.57080,0.11675,-0.12763,-0.48149,0.03578,,,,,,,,,,,,,,,,,,,,,,,,,,0,0,0,0,0
2.6327,1783965743.9583,1,1,1.0000,-0.0000,1.42243,-0.00394,-2.63162,1.06474,1.57080,0.11675,-0.12763,-0.48149,0.03578,,,,,,,,,,,,,,,,,,,,,,,,,,0,0,0,0,0
2.6331,1783965743.9588,1,1,1.0000,-0.0000,1.42243,-0.00394,-2.63162,1.06474,1.57080,0.11675,-0.12763,-0.48149,0.03578,,,,,,,,,,,,,,,,,,,,,,,,,,0,0,0,0,0
2.6338,1783965743.9594,1,1,1.0000,-0.0000,1.42243,-0.00394,-2.63162,1.06474,1.57080,0.11675,-0.12763,-0.48149,0.03578,,,,,,,,,,,,,,,,,,,,,,,,,,0,0,0,0,0
2.6470,1783965743.9726,1,1,1.0000,-0.0000,1.42243,-0.00394,-2.63162,1.06474,1.57080,0.11675,-0.12763,-0.48149,0.03578,,,,,,,,,,,,,,,,,,,,,,,,,,0,0,0,0,0
2.6483,1783965743.9740,1,1,1.0000,-0.0000,1.42243,-0.00394,-2.63162,1.06474,1.57080,0.11675,-0.12763,-0.48149,0.03578,,,,,,,,,,,,,,,,,,,,,,,,,,0,0,0,0,0
2.6498,1783965743.9754,1,1,1.0000,-0.0000,1.42243,-0.00394,-2.63162,1.06474,1.57080,0.11675,-0.12763,-0.48149,0.03578,,,,,,,,,,,,,,,,,,,,,,,,,,0,0,0,0,0
2.6515,1783965743.9771,1,1,1.0000,-0.0000,1.42243,-0.00394,-2.63162,1.06474,1.57080,0.11675,-0.12763,-0.48149,0.03578,,,,,,,,,,,,,,,,,,,,,,,,,,0,0,0,0,0
2.6518,1783965743.9774,1,1,1.0000,-0.0000,1.42243,-0.00394,-2.63162,1.06474,1.57080,0.11675,-0.12763,-0.48149,0.03578,,,,,,,,,,,,,,,,,,,,,,,,,,0,0,0,0,0
2.6526,1783965743.9782,1,1,1.0000,-0.0000,1.42243,-0.00394,-2.63162,1.06474,1.57080,0.11675,-0.12763,-0.48149,0.03578,,,,,,,,,,,,,,,,,,,,,,,,,,0,0,0,0,0
2.6529,1783965743.9786,1,1,1.0000,-0.0000,1.42243,-0.00394,-2.63162,1.06474,1.57080,0.11675,-0.12763,-0.48149,0.03578,,,,,,,,,,,,,,,,,,,,,,,,,,0,0,0,0,0
2.6589,1783965743.9846,1,1,1.0000,-0.0000,1.42243,-0.00394,-2.63162,1.06474,1.57080,0.11675,-0.12763,-0.48149,0.03578,,,,,,,,,,,,,,,,,,,,,,,,,,0,0,0,0,0
2.6612,1783965743.9869,1,1,1.0000,-0.0000,1.42243,-0.00394,-2.63162,1.06474,1.57080,0.11675,-0.12763,-0.48149,0.03578,,,,,,,,,,,,,,,,,,,,,,,,,,0,0,0,0,0
2.6619,1783965743.9876,1,1,1.0000,-0.0000,1.42243,-0.00394,-2.63162,1.06474,1.57080,0.11675,-0.12763,-0.48149,0.03578,,,,,,,,,,,,,,,,,,,,,,,,,,0,0,0,0,0
2.6626,1783965743.9882,1,1,1.0000,-0.0000,1.42243,-0.00394,-2.63162,1.06474,1.57080,0.11675,-0.12763,-0.48149,0.03578,,,,,,,,,,,,,,,,,,,,,,,,,,0,0,0,0,0
2.6629,1783965743.9886,1,1,1.0000,-0.0000,1.42243,-0.00394,-2.63162,1.06474,1.57080,0.11675,-0.12763,-0.48149,0.03578,,,,,,,,,,,,,,,,,,,,,,,,,,0,0,0,0,0
2.6783,1783965744.0040,1,1,1.0000,-0.0000,1.42243,-0.00394,-2.63162,1.06474,1.57080,0.11675,-0.12763,-0.48149,0.03578,,,,,,,,,,,,,,,,,,,,,,,,,,0,0,0,0,0
2.6797,1783965744.0054,1,1,1.0000,-0.0000,1.42243,-0.00394,-2.63162,1.06474,1.57080,0.11675,-0.12763,-0.48149,0.03578,,,,,,,,,,,,,,,,,,,,,,,,,,0,0,0,0,0
2.6801,1783965744.0057,1,1,1.0000,-0.0000,1.42243,-0.00394,-2.63162,1.06474,1.57080,0.11675,-0.12763,-0.48149,0.03578,,,,,,,,,,,,,,,,,,,,,,,,,,0,0,0,0,0
2.6933,1783965744.0190,1,1,1.0000,-0.0000,1.42243,-0.00394,-2.63162,1.06474,1.57080,0.11675,-0.12763,-0.48149,0.03578,,,,,,,,,,,,,,,,,,,,,,,,,,0,0,0,0,0
2.6970,1783965744.0226,1,1,1.0000,-0.0000,1.42243,-0.00394,-2.63162,1.06474,1.57080,0.11675,-0.12763,-0.48149,0.03578,,,,,,,,,,,,,,,,,,,,,,,,,,0,0,0,0,0
2.6974,1783965744.0231,1,1,1.0000,-0.0000,1.42243,-0.00394,-2.63162,1.06474,1.57080,0.11675,-0.12763,-0.48149,0.03578,,,,,,,,,,,,,,,,,,,,,,,,,,0,0,0,0,0
2.7059,1783965744.0315,1,1,1.0000,-0.0000,1.42243,-0.00394,-2.63162,1.06474,1.57080,0.11675,-0.12763,-0.48149,0.03578,,,,,,,,,,,,,,,,,,,,,,,,,,0,0,0,0,0
2.7063,1783965744.0319,1,1,1.0000,-0.0000,1.42243,-0.00394,-2.63162,1.06474,1.57080,0.11675,-0.12763,-0.48149,0.03578,,,,,,,,,,,,,,,,,,,,,,,,,,0,0,0,0,0
2.7151,1783965744.0407,1,1,1.0000,-0.0000,1.42243,-0.00394,-2.63162,1.06474,1.57080,0.11675,-0.12763,-0.48149,0.03578,,,,,,,,,,,,,,,,,,,,,,,,,,0,0,0,0,0
2.7248,1783965744.0504,1,1,1.0000,-0.0000,1.42243,-0.00395,-2.63162,1.06475,1.57080,0.11675,-0.12763,-0.48149,0.03578,,,,,,,,,,,,,,,,,,,,,,,,,,0,0,0,0,0
2.7251,1783965744.0508,1,1,1.0000,-0.0000,1.42243,-0.00395,-2.63162,1.06475,1.57080,0.11675,-0.12763,-0.48149,0.03578,,,,,,,,,,,,,,,,,,,,,,,,,,0,0,0,0,0
2.7488,1783965744.0744,1,1,1.0000,-0.0000,1.42243,-0.00403,-2.63166,1.06486,1.57080,0.11675,-0.12763,-0.48147,0.03574,,,,,,,,,,,,,,,,,,,,,,,,,,0,0,0,0,0
2.7509,1783965744.0765,1,1,1.0000,-0.0000,1.42243,-0.00403,-2.63166,1.06486,1.57080,0.11675,-0.12763,-0.48147,0.03574,,,,,,,,,,,,,,,,,,,,,,,,,,0,0,0,0,0
2.7513,1783965744.0769,1,1,1.0000,-0.0000,1.42243,-0.00403,-2.63166,1.06486,1.57080,0.11675,-0.12763,-0.48147,0.03574,,,,,,,,,,,,,,,,,,,,,,,,,,0,0,0,0,0
2.7607,1783965744.0864,1,1,1.0000,-0.0000,1.42243,-0.00406,-2.63167,1.06489,1.57080,0.11675,-0.12764,-0.48147,0.03573,,,,,,,,,,,,,,,,,,,,,,,,,,0,0,0,0,0
2.8567,1783965744.1823,1,1,1.0000,-0.0000,1.42242,-0.00463,-2.63181,1.06558,1.57080,0.11675,-0.12764,-0.48145,0.03552,,,,,,,,,,,,,,,,,,,,,,,,,,0,0,0,0,0
2.8804,1783965744.2061,1,1,1.0000,-0.0000,1.42242,-0.00475,-2.63183,1.06573,1.57080,0.11675,-0.12763,-0.48146,0.03549,,,,,,,,,,,,,,,,,,,,,,,,,,0,0,0,0,0
2.8830,1783965744.2087,1,1,1.0000,-0.0000,1.42242,-0.00479,-2.63183,1.06578,1.57080,0.11675,-0.12763,-0.48146,0.03548,,,,,,,,,,,,,,,,,,,,,,,,,,0,0,0,0,0
2.8879,1783965744.2135,1,1,1.0000,-0.0000,1.42242,-0.00483,-2.63184,1.06583,1.57080,0.11675,-0.12763,-0.48147,0.03546,,,,,,,,,,,,,,,,,,,,,,,,,,0,0,0,0,0
2.9030,1783965744.2287,1,1,1.0000,-0.0000,1.42242,-0.00489,-2.63185,1.06591,1.57080,0.11675,-0.12763,-0.48147,0.03545,,,,,,,,,,,,,,,,,,,,,,,,,,0,0,0,0,0
2.9118,1783965744.2375,1,1,1.0000,-0.0000,1.42242,-0.00493,-2.63184,1.06595,1.57080,0.11675,-0.12763,-0.48148,0.03544,,,,,,,,,,,,,,,,,,,,,,,,,,0,0,0,0,0
3.0210,1783965744.3466,1,1,1.0000,-0.0000,1.42242,-0.00519,-2.63176,1.06628,1.57080,0.11675,-0.12762,-0.48159,0.03541,,,,,,,,,,,,,,,,,,,,,,,,,,0,0,0,0,0
3.0215,1783965744.3472,1,1,1.0000,-0.0000,1.42242,-0.00519,-2.63176,1.06628,1.57080,0.11675,-0.12762,-0.48159,0.03541,,,,,,,,,,,,,,,,,,,,,,,,,,0,0,0,0,0
3.0222,1783965744.3478,1,1,1.0000,-0.0000,1.42242,-0.00519,-2.63176,1.06628,1.57080,0.11675,-0.12762,-0.48159,0.03541,,,,,,,,,,,,,,,,,,,,,,,,,,0,0,0,0,0
3.0225,1783965744.3481,1,1,1.0000,-0.0000,1.42242,-0.00519,-2.63176,1.06628,1.57080,0.11675,-0.12762,-0.48159,0.03541,,,,,,,,,,,,,,,,,,,,,,,,,,0,0,0,0,0
3.0359,1783965744.3615,1,1,1.0000,-0.0000,1.42242,-0.00519,-2.63176,1.06628,1.57080,0.11675,-0.12762,-0.48159,0.03541,,,,,,,,,,,,,,,,,,,,,,,,,,0,0,0,0,0
3.0516,1783965744.3773,1,1,1.0000,-0.0000,1.42242,-0.00519,-2.63176,1.06628,1.57080,0.11675,-0.12762,-0.48159,0.03541,,,,,,,,,,,,,,,,,,,,,,,,,,0,0,0,0,0
3.0700,1783965744.3957,1,1,1.0000,-0.0000,1.42242,-0.00519,-2.63176,1.06628,1.57080,0.11675,-0.12762,-0.48159,0.03541,,,,,,,,,,,,,,,,,,,,,,,,,,0,0,0,0,0
3.0723,1783965744.3979,1,1,1.0000,-0.0000,1.42242,-0.00519,-2.63176,1.06628,1.57080,0.11675,-0.12762,-0.48159,0.03541,,,,,,,,,,,,,,,,,,,,,,,,,,0,0,0,0,0
3.1175,1783965744.4432,1,1,1.0000,-0.0000,1.42242,-0.00519,-2.63176,1.06628,1.57080,0.11675,-0.12762,-0.48159,0.03541,,,,,,,,,,,,,,,,,,,,,,,,,,0,0,0,0,0
3.1834,1783965744.5090,1,1,1.0000,-0.0000,1.42242,-0.00528,-2.63191,1.06640,1.57080,0.11675,-0.12763,-0.48150,0.03533,,,,,,,,,,,,,,,,,,,,,,,,,,0,0,0,0,0
3.1940,1783965744.5197,1,1,1.0000,-0.0000,1.42242,-0.00534,-2.63196,1.06646,1.57080,0.11675,-0.12763,-0.48147,0.03529,,,,,,,,,,,,,,,,,,,,,,,,,,0,0,0,0,0
3.1964,1783965744.5220,1,1,1.0000,-0.0000,1.42242,-0.00534,-2.63196,1.06646,1.57080,0.11675,-0.12763,-0.48147,0.03529,,,,,,,,,,,,,,,,,,,,,,,,,,0,0,0,0,0
3.1967,1783965744.5223,1,1,1.0000,-0.0000,1.42242,-0.00534,-2.63196,1.06646,1.57080,0.11675,-0.12763,-0.48147,0.03529,,,,,,,,,,,,,,,,,,,,,,,,,,0,0,0,0,0
3.2210,1783965744.5466,1,1,1.0000,-0.0000,1.42242,-0.00542,-2.63199,1.06656,1.57080,0.11675,-0.12763,-0.48146,0.03526,,,,,,,,,,,,,,,,,,,,,,,,,,0,0,0,0,0
3.2265,1783965744.5521,1,1,1.0000,-0.0000,1.42242,-0.00542,-2.63199,1.06657,1.57080,0.11675,-0.12763,-0.48146,0.03526,,,,,,,,,,,,,,,,,,,,,,,,,,0,0,0,0,0
3.2292,1783965744.5548,1,1,1.0000,-0.0000,1.42242,-0.00542,-2.63199,1.06657,1.57080,0.11675,-0.12763,-0.48146,0.03526,,,,,,,,,,,,,,,,,,,,,,,,,,0,0,0,0,0
3.2297,1783965744.5553,1,1,1.0000,-0.0000,1.42242,-0.00542,-2.63199,1.06657,1.57080,0.11675,-0.12763,-0.48146,0.03526,,,,,,,,,,,,,,,,,,,,,,,,,,0,0,0,0,0
3.2304,1783965744.5561,1,1,1.0000,-0.0000,1.42242,-0.00544,-2.63199,1.06659,1.57080,0.11675,-0.12763,-0.48146,0.03525,,,,,,,,,,,,,,,,,,,,,,,,,,0,0,0,0,0
3.2321,1783965744.5577,1,1,1.0000,-0.0000,1.42242,-0.00544,-2.63199,1.06659,1.57080,0.11675,-0.12763,-0.48146,0.03525,,,,,,,,,,,,,,,,,,,,,,,,,,0,0,0,0,0
3.2471,1783965744.5728,1,1,1.0000,-0.0000,1.42242,-0.00560,-2.63203,1.06678,1.57080,0.11675,-0.12763,-0.48146,0.03520,,,,,,,,,,,,,,,,,,,,,,,,,,0,0,0,0,0
3.2495,1783965744.5752,1,1,1.0000,-0.0000,1.42242,-0.00560,-2.63203,1.06678,1.57080,0.11675,-0.12763,-0.48146,0.03520,,,,,,,,,,,,,,,,,,,,,,,,,,0,0,0,0,0
3.2512,1783965744.5769,1,1,1.0000,-0.0000,1.42242,-0.00565,-2.63204,1.06684,1.57080,0.11675,-0.12763,-0.48146,0.03518,,,,,,,,,,,,,,,,,,,,,,,,,,0,0,0,0,0
3.2517,1783965744.5773,1,1,1.0000,-0.0000,1.42242,-0.00565,-2.63204,1.06684,1.57080,0.11675,-0.12763,-0.48146,0.03518,,,,,,,,,,,,,,,,,,,,,,,,,,0,0,0,0,0
3.2560,1783965744.5817,1,1,1.0000,-0.0000,1.42242,-0.00565,-2.63204,1.06684,1.57080,0.11675,-0.12763,-0.48146,0.03518,,,,,,,,,,,,,,,,,,,,,,,,,,0,0,0,0,0
3.2565,1783965744.5821,1,1,1.0000,-0.0000,1.42242,-0.00565,-2.63204,1.06684,1.57080,0.11675,-0.12763,-0.48146,0.03518,,,,,,,,,,,,,,,,,,,,,,,,,,0,0,0,0,0
3.2586,1783965744.5843,1,1,1.0000,-0.0000,1.42242,-0.00566,-2.63204,1.06685,1.57080,0.11675,-0.12763,-0.48146,0.03518,,,,,,,,,,,,,,,,,,,,,,,,,,0,0,0,0,0
3.2590,1783965744.5846,1,1,1.0000,-0.0000,1.42242,-0.00566,-2.63204,1.06685,1.57080,0.11675,-0.12763,-0.48146,0.03518,,,,,,,,,,,,,,,,,,,,,,,,,,0,0,0,0,0
3.2593,1783965744.5849,1,1,1.0000,-0.0000,1.42242,-0.00566,-2.63204,1.06685,1.57080,0.11675,-0.12763,-0.48146,0.03518,,,,,,,,,,,,,,,,,,,,,,,,,,0,0,0,0,0
3.2597,1783965744.5853,1,1,1.0000,-0.0000,1.42242,-0.00566,-2.63204,1.06685,1.57080,0.11675,-0.12763,-0.48146,0.03518,,,,,,,,,,,,,,,,,,,,,,,,,,0,0,0,0,0
3.2601,1783965744.5857,1,1,1.0000,-0.0000,1.42242,-0.00566,-2.63204,1.06685,1.57080,0.11675,-0.12763,-0.48146,0.03518,,,,,,,,,,,,,,,,,,,,,,,,,,0,0,0,0,0
3.2607,1783965744.5863,1,1,1.0000,-0.0000,1.42242,-0.00566,-2.63204,1.06685,1.57080,0.11675,-0.12763,-0.48146,0.03518,,,,,,,,,,,,,,,,,,,,,,,,,,0,0,0,0,0
3.2619,1783965744.5876,1,1,1.0000,-0.0000,1.42242,-0.00567,-2.63205,1.06687,1.57080,0.11675,-0.12763,-0.48146,0.03517,,,,,,,,,,,,,,,,,,,,,,,,,,0,0,0,0,0
3.2622,1783965744.5878,1,1,1.0000,-0.0000,1.42242,-0.00567,-2.63205,1.06687,1.57080,0.11675,-0.12763,-0.48146,0.03517,,,,,,,,,,,,,,,,,,,,,,,,,,0,0,0,0,0
3.2625,1783965744.5881,1,1,1.0000,-0.0000,1.42242,-0.00567,-2.63205,1.06687,1.57080,0.11675,-0.12763,-0.48146,0.03517,,,,,,,,,,,,,,,,,,,,,,,,,,0,0,0,0,0
3.2631,1783965744.5888,1,1,1.0000,-0.0000,1.42242,-0.00567,-2.63205,1.06687,1.57080,0.11675,-0.12763,-0.48146,0.03517,,,,,,,,,,,,,,,,,,,,,,,,,,0,0,0,0,0
3.2634,1783965744.5890,1,1,1.0000,-0.0000,1.42242,-0.00567,-2.63205,1.06687,1.57080,0.11675,-0.12763,-0.48146,0.03517,,,,,,,,,,,,,,,,,,,,,,,,,,0,0,0,0,0
3.2683,1783965744.5940,1,1,1.0000,-0.0000,1.42242,-0.00570,-2.63205,1.06690,1.57080,0.11675,-0.12763,-0.48146,0.03516,,,,,,,,,,,,,,,,,,,,,,,,,,0,0,0,0,0
3.2687,1783965744.5943,1,1,1.0000,-0.0000,1.42242,-0.00570,-2.63205,1.06690,1.57080,0.11675,-0.12763,-0.48146,0.03516,,,,,,,,,,,,,,,,,,,,,,,,,,0,0,0,0,0
3.2691,1783965744.5948,1,1,1.0000,-0.0000,1.42242,-0.00570,-2.63205,1.06690,1.57080,0.11675,-0.12763,-0.48146,0.03516,,,,,,,,,,,,,,,,,,,,,,,,,,0,0,0,0,0
3.2695,1783965744.5951,1,1,1.0000,-0.0000,1.42242,-0.00570,-2.63205,1.06690,1.57080,0.11675,-0.12763,-0.48146,0.03516,,,,,,,,,,,,,,,,,,,,,,,,,,0,0,0,0,0
3.2721,1783965744.5977,1,1,1.0000,-0.0000,1.42242,-0.00574,-2.63206,1.06694,1.57080,0.11675,-0.12763,-0.48146,0.03515,,,,,,,,,,,,,,,,,,,,,,,,,,0,0,0,0,0
3.2729,1783965744.5985,1,1,1.0000,-0.0000,1.42242,-0.00574,-2.63206,1.06694,1.57080,0.11675,-0.12763,-0.48146,0.03515,,,,,,,,,,,,,,,,,,,,,,,,,,0,0,0,0,0
3.2781,1783965744.6038,1,1,1.0000,-0.0000,1.42242,-0.00583,-2.63208,1.06705,1.57080,0.11675,-0.12763,-0.48146,0.03512,,,,,,,,,,,,,,,,,,,,,,,,,,0,0,0,0,0
3.2863,1783965744.6119,1,1,1.0000,-0.0000,1.42242,-0.00588,-2.63209,1.06711,1.57080,0.11675,-0.12763,-0.48146,0.03510,,,,,,,,,,,,,,,,,,,,,,,,,,0,0,0,0,0
3.2866,1783965744.6123,1,1,1.0000,-0.0000,1.42242,-0.00588,-2.63209,1.06711,1.57080,0.11675,-0.12763,-0.48146,0.03510,,,,,,,,,,,,,,,,,,,,,,,,,,0,0,0,0,0
3.2915,1783965744.6171,1,1,1.0000,-0.0000,1.42242,-0.00588,-2.63209,1.06712,1.57080,0.11675,-0.12763,-0.48146,0.03510,,,,,,,,,,,,,,,,,,,,,,,,,,0,0,0,0,0
3.3090,1783965744.6347,1,1,1.0000,-0.0000,1.42242,-0.00598,-2.63210,1.06725,1.57080,0.11675,-0.12763,-0.48147,0.03507,,,,,,,,,,,,,,,,,,,,,,,,,,0,0,0,0,0
3.3114,1783965744.6371,1,1,1.0000,-0.0000,1.42242,-0.00602,-2.63210,1.06729,1.57080,0.11675,-0.12763,-0.48147,0.03506,,,,,,,,,,,,,,,,,,,,,,,,,,0,0,0,0,0
3.3117,1783965744.6374,1,1,1.0000,-0.0000,1.42242,-0.00602,-2.63210,1.06729,1.57080,0.11675,-0.12763,-0.48147,0.03506,,,,,,,,,,,,,,,,,,,,,,,,,,0,0,0,0,0
3.3121,1783965744.6377,1,1,1.0000,-0.0000,1.42242,-0.00602,-2.63210,1.06729,1.57080,0.11675,-0.12763,-0.48147,0.03506,,,,,,,,,,,,,,,,,,,,,,,,,,0,0,0,0,0
3.3124,1783965744.6380,1,1,1.0000,-0.0000,1.42242,-0.00602,-2.63210,1.06729,1.57080,0.11675,-0.12763,-0.48147,0.03506,,,,,,,,,,,,,,,,,,,,,,,,,,0,0,0,0,0
3.3127,1783965744.6384,1,1,1.0000,-0.0000,1.42242,-0.00602,-2.63210,1.06729,1.57080,0.11675,-0.12763,-0.48147,0.03506,,,,,,,,,,,,,,,,,,,,,,,,,,0,0,0,0,0
3.3130,1783965744.6386,1,1,1.0000,-0.0000,1.42242,-0.00602,-2.63210,1.06729,1.57080,0.11675,-0.12763,-0.48147,0.03506,,,,,,,,,,,,,,,,,,,,,,,,,,0,0,0,0,0
3.3133,1783965744.6389,1,1,1.0000,-0.0000,1.42242,-0.00602,-2.63210,1.06729,1.57080,0.11675,-0.12763,-0.48147,0.03506,,,,,,,,,,,,,,,,,,,,,,,,,,0,0,0,0,0
3.3198,1783965744.6454,1,1,1.0000,-0.0000,1.42242,-0.00611,-2.63211,1.06740,1.57080,0.11675,-0.12763,-0.48148,0.03504,,,,,,,,,,,,,,,,,,,,,,,,,,0,0,0,0,0
3.3201,1783965744.6457,1,1,1.0000,-0.0000,1.42242,-0.00611,-2.63211,1.06740,1.57080,0.11675,-0.12763,-0.48148,0.03504,,,,,,,,,,,,,,,,,,,,,,,,,,0,0,0,0,0
3.3213,1783965744.6470,1,1,1.0000,-0.0000,1.42242,-0.00611,-2.63211,1.06740,1.57080,0.11675,-0.12763,-0.48148,0.03504,,,,,,,,,,,,,,,,,,,,,,,,,,0,0,0,0,0
3.3219,1783965744.6476,1,1,1.0000,-0.0000,1.42242,-0.00616,-2.63212,1.06746,1.57080,0.11675,-0.12763,-0.48148,0.03503,,,,,,,,,,,,,,,,,,,,,,,,,,0,0,0,0,0
3.3232,1783965744.6488,1,1,1.0000,-0.0000,1.42242,-0.00616,-2.63212,1.06746,1.57080,0.11675,-0.12763,-0.48148,0.03503,,,,,,,,,,,,,,,,,,,,,,,,,,0,0,0,0,0
3.3235,1783965744.6491,1,1,1.0000,-0.0000,1.42242,-0.00616,-2.63212,1.06746,1.57080,0.11675,-0.12763,-0.48148,0.03503,,,,,,,,,,,,,,,,,,,,,,,,,,0,0,0,0,0
3.3238,1783965744.6495,1,1,1.0000,-0.0000,1.42242,-0.00616,-2.63212,1.06746,1.57080,0.11675,-0.12763,-0.48148,0.03503,,,,,,,,,,,,,,,,,,,,,,,,,,0,0,0,0,0
3.3251,1783965744.6507,1,1,1.0000,-0.0000,1.42242,-0.00616,-2.63212,1.06746,1.57080,0.11675,-0.12763,-0.48148,0.03503,,,,,,,,,,,,,,,,,,,,,,,,,,0,0,0,0,0
3.3254,1783965744.6510,1,1,1.0000,-0.0000,1.42242,-0.00616,-2.63212,1.06746,1.57080,0.11675,-0.12763,-0.48148,0.03503,,,,,,,,,,,,,,,,,,,,,,,,,,0,0,0,0,0
3.3359,1783965744.6616,1,1,1.0000,-0.0000,1.42242,-0.00628,-2.63212,1.06761,1.57080,0.11675,-0.12763,-0.48150,0.03499,,,,,,,,,,,,,,,,,,,,,,,,,,0,0,0,0,0
3.3363,1783965744.6619,1,1,1.0000,-0.0000,1.42242,-0.00628,-2.63212,1.06761,1.57080,0.11675,-0.12763,-0.48150,0.03499,,,,,,,,,,,,,,,,,,,,,,,,,,0,0,0,0,0
3.3521,1783965744.6778,1,1,1.0000,-0.0000,1.42242,-0.00636,-2.63212,1.06772,1.57080,0.11675,-0.12762,-0.48152,0.03498,,,,,,,,,,,,,,,,,,,,,,,,,,0,0,0,0,0
3.3587,1783965744.6843,1,1,1.0000,-0.0000,1.42242,-0.00636,-2.63212,1.06772,1.57080,0.11675,-0.12762,-0.48152,0.03498,,,,,,,,,,,,,,,,,,,,,,,,,,0,0,0,0,0
3.3801,1783965744.7057,1,1,1.0000,-0.0000,1.42242,-0.00636,-2.63212,1.06772,1.57080,0.11675,-0.12762,-0.48152,0.03498,,,,,,,,,,,,,,,,,,,,,,,,,,0,0,0,0,0
3.3905,1783965744.7161,1,1,1.0000,-0.0000,1.42242,-0.00636,-2.63212,1.06772,1.57080,0.11675,-0.12762,-0.48152,0.03498,,,,,,,,,,,,,,,,,,,,,,,,,,0,0,0,0,0
3.3915,1783965744.7171,1,1,1.0000,-0.0000,1.42242,-0.00636,-2.63212,1.06772,1.57080,0.11675,-0.12762,-0.48152,0.03498,,,,,,,,,,,,,,,,,,,,,,,,,,0,0,0,0,0
3.3918,1783965744.7175,1,1,1.0000,-0.0000,1.42242,-0.00636,-2.63212,1.06772,1.57080,0.11675,-0.12762,-0.48152,0.03498,,,,,,,,,,,,,,,,,,,,,,,,,,0,0,0,0,0
3.3965,1783965744.7221,1,1,1.0000,-0.0000,1.42242,-0.00636,-2.63212,1.06772,1.57080,0.11675,-0.12762,-0.48152,0.03498,,,,,,,,,,,,,,,,,,,,,,,,,,0,0,0,0,0
3.3969,1783965744.7225,1,1,1.0000,-0.0000,1.42242,-0.00636,-2.63212,1.06772,1.57080,0.11675,-0.12762,-0.48152,0.03498,,,,,,,,,,,,,,,,,,,,,,,,,,0,0,0,0,0
3.4150,1783965744.7407,1,1,1.0000,-0.0000,1.42242,-0.00636,-2.63212,1.06772,1.57080,0.11675,-0.12762,-0.48152,0.03498,,,,,,,,,,,,,,,,,,,,,,,,,,0,0,0,0,0
3.4153,1783965744.7410,1,1,1.0000,-0.0000,1.42242,-0.00636,-2.63212,1.06772,1.57080,0.11675,-0.12762,-0.48152,0.03498,,,,,,,,,,,,,,,,,,,,,,,,,,0,0,0,0,0
3.4164,1783965744.7420,1,1,1.0000,-0.0000,1.42242,-0.00636,-2.63212,1.06772,1.57080,0.11675,-0.12762,-0.48152,0.03498,,,,,,,,,,,,,,,,,,,,,,,,,,0,0,0,0,0
3.4286,1783965744.7542,1,1,1.0000,-0.0000,1.42242,-0.00636,-2.63212,1.06772,1.57080,0.11675,-0.12762,-0.48152,0.03498,,,,,,,,,,,,,,,,,,,,,,,,,,0,0,0,0,0
3.4719,1783965744.7975,1,1,1.0000,-0.0000,1.42242,-0.00636,-2.63212,1.06772,1.57080,0.11675,-0.12762,-0.48152,0.03498,,,,,,,,,,,,,,,,,,,,,,,,,,0,0,0,0,0
3.4732,1783965744.7988,1,1,1.0000,-0.0000,1.42242,-0.00636,-2.63212,1.06772,1.57080,0.11675,-0.12762,-0.48152,0.03498,,,,,,,,,,,,,,,,,,,,,,,,,,0,0,0,0,0
3.4738,1783965744.7995,1,1,1.0000,-0.0000,1.42242,-0.00636,-2.63212,1.06772,1.57080,0.11675,-0.12762,-0.48152,0.03498,,,,,,,,,,,,,,,,,,,,,,,,,,0,0,0,0,0
3.4773,1783965744.8030,1,1,1.0000,-0.0000,1.42242,-0.00636,-2.63212,1.06772,1.57080,0.11675,-0.12762,-0.48152,0.03498,,,,,,,,,,,,,,,,,,,,,,,,,,0,0,0,0,0
3.4779,1783965744.8036,1,1,1.0000,-0.0000,1.42242,-0.00636,-2.63212,1.06772,1.57080,0.11675,-0.12762,-0.48152,0.03498,,,,,,,,,,,,,,,,,,,,,,,,,,0,0,0,0,0
3.4822,1783965744.8078,1,1,1.0000,-0.0000,1.42242,-0.00636,-2.63212,1.06772,1.57080,0.11675,-0.12762,-0.48152,0.03498,,,,,,,,,,,,,,,,,,,,,,,,,,0,0,0,0,0
3.4862,1783965744.8118,1,1,1.0000,-0.0000,1.42242,-0.00636,-2.63212,1.06772,1.57080,0.11675,-0.12762,-0.48152,0.03498,,,,,,,,,,,,,,,,,,,,,,,,,,0,0,0,0,0
3.4866,1783965744.8123,1,1,1.0000,-0.0000,1.42242,-0.00636,-2.63212,1.06772,1.57080,0.11675,-0.12762,-0.48152,0.03498,,,,,,,,,,,,,,,,,,,,,,,,,,0,0,0,0,0
3.5002,1783965744.8259,1,1,1.0000,-0.0000,1.42242,-0.00636,-2.63212,1.06772,1.57080,0.11675,-0.12762,-0.48152,0.03498,,,,,,,,,,,,,,,,,,,,,,,,,,0,0,0,0,0
3.5171,1783965744.8427,1,1,1.0000,-0.0000,1.42242,-0.00636,-2.63212,1.06772,1.57080,0.11675,-0.12762,-0.48152,0.03498,,,,,,,,,,,,,,,,,,,,,,,,,,0,0,0,0,0
3.5206,1783965744.8463,1,1,1.0000,-0.0000,1.42242,-0.00636,-2.63212,1.06772,1.57080,0.11675,-0.12762,-0.48152,0.03498,,,,,,,,,,,,,,,,,,,,,,,,,,0,0,0,0,0
3.5329,1783965744.8586,1,1,1.0000,-0.0000,1.42242,-0.00636,-2.63212,1.06772,1.57080,0.11675,-0.12762,-0.48152,0.03498,,,,,,,,,,,,,,,,,,,,,,,,,,0,0,0,0,0
3.5380,1783965744.8637,1,1,1.0000,-0.0000,1.42242,-0.00636,-2.63212,1.06772,1.57080,0.11675,-0.12762,-0.48152,0.03498,,,,,,,,,,,,,,,,,,,,,,,,,,0,0,0,0,0
3.5383,1783965744.8639,1,1,1.0000,-0.0000,1.42242,-0.00636,-2.63212,1.06772,1.57080,0.11675,-0.12762,-0.48152,0.03498,,,,,,,,,,,,,,,,,,,,,,,,,,0,0,0,0,0
3.5393,1783965744.8650,1,1,1.0000,-0.0000,1.42242,-0.00636,-2.63212,1.06772,1.57080,0.11675,-0.12762,-0.48152,0.03498,,,,,,,,,,,,,,,,,,,,,,,,,,0,0,0,0,0
3.5582,1783965744.8838,1,1,1.0000,-0.0000,1.42242,-0.00636,-2.63212,1.06772,1.57080,0.11675,-0.12762,-0.48152,0.03498,,,,,,,,,,,,,,,,,,,,,,,,,,0,0,0,0,0
3.5586,1783965744.8843,1,1,1.0000,-0.0000,1.42242,-0.00636,-2.63212,1.06772,1.57080,0.11675,-0.12762,-0.48152,0.03498,,,,,,,,,,,,,,,,,,,,,,,,,,0,0,0,0,0
3.5631,1783965744.8887,1,1,1.0000,-0.0000,1.42242,-0.00636,-2.63212,1.06772,1.57080,0.11675,-0.12762,-0.48152,0.03498,,,,,,,,,,,,,,,,,,,,,,,,,,0,0,0,0,0
3.5634,1783965744.8890,1,1,1.0000,-0.0000,1.42242,-0.00636,-2.63212,1.06772,1.57080,0.11675,-0.12762,-0.48152,0.03498,,,,,,,,,,,,,,,,,,,,,,,,,,0,0,0,0,0
3.5649,1783965744.8905,1,1,1.0000,-0.0000,1.42242,-0.00636,-2.63212,1.06772,1.57080,0.11675,-0.12762,-0.48152,0.03498,,,,,,,,,,,,,,,,,,,,,,,,,,0,0,0,0,0
3.5652,1783965744.8908,1,1,1.0000,-0.0000,1.42242,-0.00636,-2.63212,1.06772,1.57080,0.11675,-0.12762,-0.48152,0.03498,,,,,,,,,,,,,,,,,,,,,,,,,,0,0,0,0,0
3.5800,1783965744.9057,1,1,1.0000,-0.0000,1.42242,-0.00639,-2.63214,1.06776,1.57080,0.11675,-0.12762,-0.48151,0.03496,,,,,,,,,,,,,,,,,,,,,,,,,,0,0,0,0,0
3.5988,1783965744.9245,1,1,1.0000,-0.0000,1.42242,-0.00643,-2.63217,1.06780,1.57080,0.11675,-0.12763,-0.48149,0.03494,,,,,,,,,,,,,,,,,,,,,,,,,,0,0,0,0,0
3.6022,1783965744.9279,1,1,1.0000,-0.0000,1.42242,-0.00645,-2.63219,1.06783,1.57080,0.11675,-0.12763,-0.48148,0.03492,,,,,,,,,,,,,,,,,,,,,,,,,,0,0,0,0,0
3.6025,1783965744.9282,1,1,1.0000,-0.0000,1.42242,-0.00645,-2.63219,1.06783,1.57080,0.11675,-0.12763,-0.48148,0.03492,,,,,,,,,,,,,,,,,,,,,,,,,,0,0,0,0,0
3.6118,1783965744.9374,1,1,1.0000,-0.0000,1.42242,-0.00650,-2.63222,1.06789,1.57080,0.11675,-0.12763,-0.48146,0.03490,,,,,,,,,,,,,,,,,,,,,,,,,,0,0,0,0,0
3.6169,1783965744.9425,1,1,1.0000,-0.0000,1.42242,-0.00650,-2.63222,1.06789,1.57080,0.11675,-0.12763,-0.48146,0.03490,,,,,,,,,,,,,,,,,,,,,,,,,,0,0,0,0,0
3.6172,1783965744.9429,1,1,1.0000,-0.0000,1.42242,-0.00650,-2.63222,1.06789,1.57080,0.11675,-0.12763,-0.48146,0.03490,,,,,,,,,,,,,,,,,,,,,,,,,,0,0,0,0,0
3.6289,1783965744.9545,1,1,1.0000,-0.0000,1.42242,-0.00653,-2.63223,1.06792,1.57080,0.11675,-0.12763,-0.48146,0.03488,,,,,,,,,,,,,,,,,,,,,,,,,,0,0,0,0,0
3.6293,1783965744.9549,1,1,1.0000,-0.0000,1.42242,-0.00653,-2.63223,1.06792,1.57080,0.11675,-0.12763,-0.48146,0.03488,,,,,,,,,,,,,,,,,,,,,,,,,,0,0,0,0,0
3.6366,1783965744.9622,1,1,1.0000,-0.0000,1.42242,-0.00658,-2.63225,1.06798,1.57080,0.11675,-0.12763,-0.48145,0.03486,,,,,,,,,,,,,,,,,,,,,,,,,,0,0,0,0,0
3.6371,1783965744.9627,1,1,1.0000,-0.0000,1.42242,-0.00658,-2.63225,1.06798,1.57080,0.11675,-0.12763,-0.48145,0.03486,,,,,,,,,,,,,,,,,,,,,,,,,,0,0,0,0,0
3.6464,1783965744.9721,1,1,1.0000,-0.0000,1.42242,-0.00665,-2.63227,1.06806,1.57080,0.11675,-0.12763,-0.48145,0.03484,,,,,,,,,,,,,,,,,,,,,,,,,,0,0,0,0,0
3.6600,1783965744.9857,1,1,1.0000,-0.0000,1.42242,-0.00669,-2.63228,1.06811,1.57080,0.11675,-0.12763,-0.48145,0.03482,,,,,,,,,,,,,,,,,,,,,,,,,,0,0,0,0,0
3.6687,1783965744.9944,1,1,1.0000,-0.0000,1.42242,-0.00676,-2.63230,1.06819,1.57080,0.11675,-0.12763,-0.48145,0.03480,,,,,,,,,,,,,,,,,,,,,,,,,,0,0,0,0,0
3.6858,1783965745.0114,1,1,1.0000,-0.0000,1.42242,-0.00686,-2.63231,1.06831,1.57080,0.11675,-0.12763,-0.48145,0.03477,,,,,,,,,,,,,,,,,,,,,,,,,,0,0,0,0,0
3.6985,1783965745.0242,1,1,1.0000,-0.0000,1.42242,-0.00702,-2.63234,1.06850,1.57080,0.11675,-0.12763,-0.48146,0.03472,,,,,,,,,,,,,,,,,,,,,,,,,,0,0,0,0,0
3.7084,1783965745.0341,1,1,1.0000,-0.0000,1.42242,-0.00708,-2.63235,1.06857,1.57080,0.11675,-0.12763,-0.48146,0.03470,,,,,,,,,,,,,,,,,,,,,,,,,,0,0,0,0,0
3.7221,1783965745.0478,1,1,1.0000,-0.0000,1.42242,-0.00714,-2.63236,1.06865,1.57080,0.11675,-0.12763,-0.48146,0.03468,,,,,,,,,,,,,,,,,,,,,,,,,,0,0,0,0,0
3.7224,1783965745.0481,1,1,1.0000,-0.0000,1.42242,-0.00714,-2.63236,1.06865,1.57080,0.11675,-0.12763,-0.48146,0.03468,,,,,,,,,,,,,,,,,,,,,,,,,,0,0,0,0,0
3.7384,1783965745.0641,1,1,1.0000,-0.0000,1.42241,-0.00729,-2.63237,1.06884,1.57080,0.11675,-0.12763,-0.48148,0.03464,,,,,,,,,,,,,,,,,,,,,,,,,,0,0,0,0,0
3.7389,1783965745.0645,1,1,1.0000,-0.0000,1.42241,-0.00729,-2.63237,1.06884,1.57080,0.11675,-0.12763,-0.48148,0.03464,,,,,,,,,,,,,,,,,,,,,,,,,,0,0,0,0,0
3.7415,1783965745.0672,1,1,1.0000,-0.0000,1.42241,-0.00729,-2.63237,1.06884,1.57080,0.11675,-0.12763,-0.48148,0.03464,,,,,,,,,,,,,,,,,,,,,,,,,,0,0,0,0,0
3.7421,1783965745.0678,1,1,1.0000,-0.0000,1.42241,-0.00733,-2.63238,1.06889,1.57080,0.11675,-0.12763,-0.48148,0.03463,,,,,,,,,,,,,,,,,,,,,,,,,,0,0,0,0,0
3.7473,1783965745.0729,1,1,1.0000,-0.0000,1.42241,-0.00737,-2.63238,1.06894,1.57080,0.11675,-0.12763,-0.48149,0.03461,,,,,,,,,,,,,,,,,,,,,,,,,,0,0,0,0,0
3.7477,1783965745.0733,1,1,1.0000,-0.0000,1.42241,-0.00737,-2.63238,1.06894,1.57080,0.11675,-0.12763,-0.48149,0.03461,,,,,,,,,,,,,,,,,,,,,,,,,,0,0,0,0,0
3.7493,1783965745.0749,1,1,1.0000,-0.0000,1.42241,-0.00737,-2.63238,1.06894,1.57080,0.11675,-0.12763,-0.48149,0.03461,,,,,,,,,,,,,,,,,,,,,,,,,,0,0,0,0,0
3.7499,1783965745.0755,1,1,1.0000,-0.0000,1.42241,-0.00742,-2.63238,1.06900,1.57080,0.11675,-0.12763,-0.48149,0.03460,,,,,,,,,,,,,,,,,,,,,,,,,,0,0,0,0,0
3.7724,1783965745.0980,1,1,1.0000,-0.0000,1.42241,-0.00754,-2.63239,1.06916,1.57080,0.11675,-0.12762,-0.48151,0.03457,,,,,,,,,,,,,,,,,,,,,,,,,,0,0,0,0,0
3.7728,1783965745.0984,1,1,1.0000,-0.0000,1.42241,-0.00754,-2.63239,1.06916,1.57080,0.11675,-0.12762,-0.48151,0.03457,,,,,,,,,,,,,,,,,,,,,,,,,,0,0,0,0,0
3.7731,1783965745.0988,1,1,1.0000,-0.0000,1.42241,-0.00754,-2.63239,1.06916,1.57080,0.11675,-0.12762,-0.48151,0.03457,,,,,,,,,,,,,,,,,,,,,,,,,,0,0,0,0,0
3.7781,1783965745.1038,1,1,1.0000,-0.0000,1.42241,-0.00754,-2.63239,1.06916,1.57080,0.11675,-0.12762,-0.48151,0.03457,,,,,,,,,,,,,,,,,,,,,,,,,,0,0,0,0,0
3.7864,1783965745.1120,1,1,1.0000,-0.0000,1.42241,-0.00754,-2.63239,1.06916,1.57080,0.11675,-0.12762,-0.48151,0.03457,,,,,,,,,,,,,,,,,,,,,,,,,,0,0,0,0,0
3.7867,1783965745.1123,1,1,1.0000,-0.0000,1.42241,-0.00754,-2.63239,1.06916,1.57080,0.11675,-0.12762,-0.48151,0.03457,,,,,,,,,,,,,,,,,,,,,,,,,,0,0,0,0,0
3.8002,1783965745.1258,1,1,1.0000,-0.0000,1.42241,-0.00754,-2.63239,1.06916,1.57080,0.11675,-0.12762,-0.48151,0.03457,,,,,,,,,,,,,,,,,,,,,,,,,,0,0,0,0,0
3.8005,1783965745.1262,1,1,1.0000,-0.0000,1.42241,-0.00754,-2.63239,1.06916,1.57080,0.11675,-0.12762,-0.48151,0.03457,,,,,,,,,,,,,,,,,,,,,,,,,,0,0,0,0,0
3.8092,1783965745.1349,1,1,1.0000,-0.0000,1.42241,-0.00754,-2.63239,1.06916,1.57080,0.11675,-0.12762,-0.48151,0.03457,,,,,,,,,,,,,,,,,,,,,,,,,,0,0,0,0,0
3.8265,1783965745.1521,1,1,1.0000,-0.0000,1.42241,-0.00754,-2.63239,1.06916,1.57080,0.11675,-0.12762,-0.48151,0.03457,,,,,,,,,,,,,,,,,,,,,,,,,,0,0,0,0,0
3.8268,1783965745.1525,1,1,1.0000,-0.0000,1.42241,-0.00754,-2.63239,1.06916,1.57080,0.11675,-0.12762,-0.48151,0.03457,,,,,,,,,,,,,,,,,,,,,,,,,,0,0,0,0,0
3.8380,1783965745.1636,1,1,1.0000,-0.0000,1.42241,-0.00754,-2.63239,1.06916,1.57080,0.11675,-0.12762,-0.48151,0.03457,,,,,,,,,,,,,,,,,,,,,,,,,,0,0,0,0,0
3.8399,1783965745.1655,1,1,1.0000,-0.0000,1.42241,-0.00754,-2.63239,1.06916,1.57080,0.11675,-0.12762,-0.48151,0.03457,,,,,,,,,,,,,,,,,,,,,,,,,,0,0,0,0,0
3.8402,1783965745.1658,1,1,1.0000,-0.0000,1.42241,-0.00754,-2.63239,1.06916,1.57080,0.11675,-0.12762,-0.48151,0.03457,,,,,,,,,,,,,,,,,,,,,,,,,,0,0,0,0,0
3.8487,1783965745.1744,1,1,1.0000,-0.0000,1.42241,-0.00754,-2.63239,1.06916,1.57080,0.11675,-0.12762,-0.48151,0.03457,,,,,,,,,,,,,,,,,,,,,,,,,,0,0,0,0,0
3.8490,1783965745.1746,1,1,1.0000,-0.0000,1.42241,-0.00754,-2.63239,1.06916,1.57080,0.11675,-0.12762,-0.48151,0.03457,,,,,,,,,,,,,,,,,,,,,,,,,,0,0,0,0,0
3.8721,1783965745.1977,1,1,1.0000,-0.0000,1.42241,-0.00754,-2.63239,1.06916,1.57080,0.11675,-0.12762,-0.48151,0.03457,,,,,,,,,,,,,,,,,,,,,,,,,,0,0,0,0,0
3.8776,1783965745.2032,1,1,1.0000,-0.0000,1.42241,-0.00754,-2.63239,1.06916,1.57080,0.11675,-0.12762,-0.48151,0.03457,,,,,,,,,,,,,,,,,,,,,,,,,,0,0,0,0,0
3.8811,1783965745.2068,1,1,1.0000,-0.0000,1.42241,-0.00754,-2.63239,1.06916,1.57080,0.11675,-0.12762,-0.48151,0.03457,,,,,,,,,,,,,,,,,,,,,,,,,,0,0,0,0,0
3.8816,1783965745.2073,1,1,1.0000,-0.0000,1.42241,-0.00754,-2.63239,1.06916,1.57080,0.11675,-0.12762,-0.48151,0.03457,,,,,,,,,,,,,,,,,,,,,,,,,,0,0,0,0,0
3.8889,1783965745.2145,1,1,1.0000,-0.0000,1.42241,-0.00754,-2.63239,1.06916,1.57080,0.11675,-0.12762,-0.48151,0.03457,,,,,,,,,,,,,,,,,,,,,,,,,,0,0,0,0,0
3.9090,1783965745.2347,1,1,1.0000,-0.0000,1.42241,-0.00754,-2.63239,1.06916,1.57080,0.11675,-0.12762,-0.48151,0.03457,,,,,,,,,,,,,,,,,,,,,,,,,,0,0,0,0,0
3.9373,1783965745.2630,1,1,1.0000,-0.0000,1.42241,-0.00754,-2.63239,1.06916,1.57080,0.11675,-0.12762,-0.48151,0.03457,,,,,,,,,,,,,,,,,,,,,,,,,,0,0,0,0,0
3.9433,1783965745.2689,1,1,1.0000,-0.0000,1.42241,-0.00754,-2.63239,1.06916,1.57080,0.11675,-0.12762,-0.48151,0.03457,,,,,,,,,,,,,,,,,,,,,,,,,,0,0,0,0,0
3.9436,1783965745.2692,1,1,1.0000,-0.0000,1.42241,-0.00754,-2.63239,1.06916,1.57080,0.11675,-0.12762,-0.48151,0.03457,,,,,,,,,,,,,,,,,,,,,,,,,,0,0,0,0,0
3.9439,1783965745.2695,1,1,1.0000,-0.0000,1.42241,-0.00754,-2.63239,1.06916,1.57080,0.11675,-0.12762,-0.48151,0.03457,,,,,,,,,,,,,,,,,,,,,,,,,,0,0,0,0,0
3.9492,1783965745.2749,1,1,1.0000,-0.0000,1.42241,-0.00754,-2.63239,1.06916,1.57080,0.11675,-0.12762,-0.48151,0.03457,,,,,,,,,,,,,,,,,,,,,,,,,,0,0,0,0,0
3.9554,1783965745.2810,1,1,1.0000,-0.0000,1.42241,-0.00754,-2.63239,1.06916,1.57080,0.11675,-0.12762,-0.48151,0.03457,,,,,,,,,,,,,,,,,,,,,,,,,,0,0,0,0,0
3.9558,1783965745.2814,1,1,1.0000,-0.0000,1.42241,-0.00754,-2.63239,1.06916,1.57080,0.11675,-0.12762,-0.48151,0.03457,,,,,,,,,,,,,,,,,,,,,,,,,,0,0,0,0,0
3.9761,1783965745.3017,1,1,1.0000,-0.0000,1.42241,-0.00754,-2.63239,1.06916,1.57080,0.11675,-0.12762,-0.48151,0.03457,,,,,,,,,,,,,,,,,,,,,,,,,,0,0,0,0,0
3.9769,1783965745.3025,1,1,1.0000,-0.0000,1.42241,-0.00754,-2.63239,1.06916,1.57080,0.11675,-0.12762,-0.48151,0.03457,,,,,,,,,,,,,,,,,,,,,,,,,,0,0,0,0,0
3.9772,1783965745.3028,1,1,1.0000,-0.0000,1.42241,-0.00754,-2.63239,1.06916,1.57080,0.11675,-0.12762,-0.48151,0.03457,,,,,,,,,,,,,,,,,,,,,,,,,,0,0,0,0,0
3.9889,1783965745.3146,1,1,1.0000,-0.0000,1.42241,-0.00755,-2.63239,1.06917,1.57080,0.11675,-0.12762,-0.48151,0.03457,,,,,,,,,,,,,,,,,,,,,,,,,,0,0,0,0,0
3.9892,1783965745.3149,1,1,1.0000,-0.0000,1.42241,-0.00755,-2.63239,1.06917,1.57080,0.11675,-0.12762,-0.48151,0.03457,,,,,,,,,,,,,,,,,,,,,,,,,,0,0,0,0,0
4.0069,1783965745.3325,1,1,1.0000,-0.0000,1.42241,-0.00757,-2.63241,1.06920,1.57080,0.11675,-0.12762,-0.48150,0.03456,,,,,,,,,,,,,,,,,,,,,,,,,,0,0,0,0,0
4.0095,1783965745.3351,1,1,1.0000,-0.0000,1.42241,-0.00757,-2.63241,1.06920,1.57080,0.11675,-0.12762,-0.48150,0.03456,,,,,,,,,,,,,,,,,,,,,,,,,,0,0,0,0,0
4.0102,1783965745.3359,1,1,1.0000,-0.0000,1.42241,-0.00758,-2.63241,1.06922,1.57080,0.11675,-0.12762,-0.48150,0.03455,,,,,,,,,,,,,,,,,,,,,,,,,,0,0,0,0,0
4.0150,1783965745.3407,1,1,1.0000,-0.0000,1.42241,-0.00760,-2.63243,1.06923,1.57080,0.11675,-0.12762,-0.48149,0.03454,,,,,,,,,,,,,,,,,,,,,,,,,,0,0,0,0,0
4.0328,1783965745.3584,1,1,1.0000,-0.0000,1.42241,-0.00769,-2.63250,1.06934,1.57080,0.11675,-0.12763,-0.48145,0.03449,,,,,,,,,,,,,,,,,,,,,,,,,,0,0,0,0,0
4.0388,1783965745.3644,1,1,1.0000,-0.0000,1.42241,-0.00769,-2.63250,1.06934,1.57080,0.11675,-0.12763,-0.48145,0.03449,,,,,,,,,,,,,,,,,,,,,,,,,,0,0,0,0,0
4.0459,1783965745.3715,1,1,1.0000,-0.0000,1.42241,-0.00771,-2.63251,1.06936,1.57080,0.11675,-0.12763,-0.48145,0.03448,,,,,,,,,,,,,,,,,,,,,,,,,,0,0,0,0,0
4.0549,1783965745.3805,1,1,1.0000,-0.0000,1.42241,-0.00775,-2.63252,1.06941,1.57080,0.11675,-0.12763,-0.48145,0.03446,,,,,,,,,,,,,,,,,,,,,,,,,,0,0,0,0,0
4.0553,1783965745.3809,1,1,1.0000,-0.0000,1.42241,-0.00775,-2.63252,1.06941,1.57080,0.11675,-0.12763,-0.48145,0.03446,,,,,,,,,,,,,,,,,,,,,,,,,,0,0,0,0,0
4.0800,1783965745.4057,1,1,1.0000,-0.0000,1.42241,-0.00784,-2.63255,1.06952,1.57080,0.11675,-0.12763,-0.48144,0.03443,,,,,,,,,,,,,,,,,,,,,,,,,,0,0,0,0,0
4.0804,1783965745.4061,1,1,1.0000,-0.0000,1.42241,-0.00784,-2.63255,1.06952,1.57080,0.11675,-0.12763,-0.48144,0.03443,,,,,,,,,,,,,,,,,,,,,,,,,,0,0,0,0,0
4.0817,1783965745.4074,1,1,1.0000,-0.0000,1.42241,-0.00787,-2.63255,1.06955,1.57080,0.11675,-0.12763,-0.48144,0.03442,,,,,,,,,,,,,,,,,,,,,,,,,,0,0,0,0,0
4.0820,1783965745.4077,1,1,1.0000,-0.0000,1.42241,-0.00787,-2.63255,1.06955,1.57080,0.11675,-0.12763,-0.48144,0.03442,,,,,,,,,,,,,,,,,,,,,,,,,,0,0,0,0,0
4.0921,1783965745.4177,1,1,1.0000,-0.0000,1.42241,-0.00790,-2.63256,1.06959,1.57080,0.11675,-0.12763,-0.48144,0.03441,,,,,,,,,,,,,,,,,,,,,,,,,,0,0,0,0,0
4.0925,1783965745.4181,1,1,1.0000,-0.0000,1.42241,-0.00790,-2.63256,1.06959,1.57080,0.11675,-0.12763,-0.48144,0.03441,,,,,,,,,,,,,,,,,,,,,,,,,,0,0,0,0,0
4.0955,1783965745.4211,1,1,1.0000,-0.0000,1.42241,-0.00791,-2.63256,1.06960,1.57080,0.11675,-0.12763,-0.48144,0.03441,,,,,,,,,,,,,,,,,,,,,,,,,,0,0,0,0,0
4.0959,1783965745.4215,1,1,1.0000,-0.0000,1.42241,-0.00791,-2.63256,1.06960,1.57080,0.11675,-0.12763,-0.48144,0.03441,,,,,,,,,,,,,,,,,,,,,,,,,,0,0,0,0,0
4.1133,1783965745.4390,1,1,1.0000,-0.0000,1.42241,-0.00805,-2.63258,1.06977,1.57080,0.11675,-0.12763,-0.48145,0.03436,,,,,,,,,,,,,,,,,,,,,,,,,,0,0,0,0,0
4.1140,1783965745.4397,1,1,1.0000,-0.0000,1.42241,-0.00811,-2.63259,1.06983,1.57080,0.11675,-0.12763,-0.48145,0.03435,,,,,,,,,,,,,,,,,,,,,,,,,,0,0,0,0,0
4.1182,1783965745.4438,1,1,1.0000,-0.0000,1.42241,-0.00816,-2.63260,1.06990,1.57080,0.11675,-0.12763,-0.48145,0.03433,,,,,,,,,,,,,,,,,,,,,,,,,,0,0,0,0,0
4.1260,1783965745.4516,1,1,1.0000,-0.0000,1.42241,-0.00817,-2.63260,1.06991,1.57080,0.11675,-0.12763,-0.48145,0.03433,,,,,,,,,,,,,,,,,,,,,,,,,,0,0,0,0,0
4.1263,1783965745.4519,1,1,1.0000,-0.0000,1.42241,-0.00817,-2.63260,1.06991,1.57080,0.11675,-0.12763,-0.48145,0.03433,,,,,,,,,,,,,,,,,,,,,,,,,,0,0,0,0,0
4.1387,1783965745.4644,1,1,1.0000,-0.0000,1.42241,-0.00824,-2.63261,1.07000,1.57080,0.11675,-0.12763,-0.48146,0.03430,,,,,,,,,,,,,,,,,,,,,,,,,,0,0,0,0,0
4.1533,1783965745.4789,1,1,1.0000,-0.0000,1.42241,-0.00837,-2.63262,1.07015,1.57080,0.11675,-0.12763,-0.48147,0.03427,,,,,,,,,,,,,,,,,,,,,,,,,,0,0,0,0,0
4.1584,1783965745.4840,1,1,1.0000,-0.0000,1.42241,-0.00838,-2.63262,1.07016,1.57080,0.11675,-0.12763,-0.48147,0.03426,,,,,,,,,,,,,,,,,,,,,,,,,,0,0,0,0,0
4.1683,1783965745.4939,1,1,1.0000,-0.0000,1.42241,-0.00841,-2.63262,1.07020,1.57080,0.11675,-0.12763,-0.48147,0.03426,,,,,,,,,,,,,,,,,,,,,,,,,,0,0,0,0,0
4.1687,1783965745.4943,1,1,1.0000,-0.0000,1.42241,-0.00841,-2.63262,1.07020,1.57080,0.11675,-0.12763,-0.48147,0.03426,,,,,,,,,,,,,,,,,,,,,,,,,,0,0,0,0,0
4.2560,1783965745.5817,1,1,1.0000,-0.0000,1.42241,-0.00875,-2.63256,1.07062,1.57080,0.11675,-0.12761,-0.48158,0.03421,,,,,,,,,,,,,,,,,,,,,,,,,,0,0,0,0,0
4.2565,1783965745.5821,1,1,1.0000,-0.0000,1.42241,-0.00875,-2.63256,1.07062,1.57080,0.11675,-0.12761,-0.48158,0.03421,,,,,,,,,,,,,,,,,,,,,,,,,,0,0,0,0,0
4.2568,1783965745.5824,1,1,1.0000,-0.0000,1.42241,-0.00875,-2.63256,1.07062,1.57080,0.11675,-0.12761,-0.48158,0.03421,,,,,,,,,,,,,,,,,,,,,,,,,,0,0,0,0,0
4.2819,1783965745.6076,1,1,1.0000,-0.0000,1.42241,-0.00875,-2.63256,1.07062,1.57080,0.11675,-0.12761,-0.48158,0.03421,,,,,,,,,,,,,,,,,,,,,,,,,,0,0,0,0,0
4.2833,1783965745.6089,1,1,1.0000,-0.0000,1.42241,-0.00875,-2.63256,1.07062,1.57080,0.11675,-0.12761,-0.48158,0.03421,,,,,,,,,,,,,,,,,,,,,,,,,,0,0,0,0,0
4.2836,1783965745.6092,1,1,1.0000,-0.0000,1.42241,-0.00875,-2.63256,1.07062,1.57080,0.11675,-0.12761,-0.48158,0.03421,,,,,,,,,,,,,,,,,,,,,,,,,,0,0,0,0,0
4.2876,1783965745.6132,1,1,1.0000,-0.0000,1.42241,-0.00875,-2.63256,1.07062,1.57080,0.11675,-0.12761,-0.48158,0.03421,,,,,,,,,,,,,,,,,,,,,,,,,,0,0,0,0,0
4.2880,1783965745.6136,1,1,1.0000,-0.0000,1.42241,-0.00875,-2.63256,1.07062,1.57080,0.11675,-0.12761,-0.48158,0.03421,,,,,,,,,,,,,,,,,,,,,,,,,,0,0,0,0,0
4.2886,1783965745.6143,1,1,1.0000,-0.0000,1.42241,-0.00875,-2.63256,1.07062,1.57080,0.11675,-0.12761,-0.48158,0.03421,,,,,,,,,,,,,,,,,,,,,,,,,,0,0,0,0,0
4.2889,1783965745.6146,1,1,1.0000,-0.0000,1.42241,-0.00875,-2.63256,1.07062,1.57080,0.11675,-0.12761,-0.48158,0.03421,,,,,,,,,,,,,,,,,,,,,,,,,,0,0,0,0,0
4.2973,1783965745.6229,1,1,1.0000,-0.0000,1.42241,-0.00875,-2.63256,1.07062,1.57080,0.11675,-0.12761,-0.48158,0.03421,,,,,,,,,,,,,,,,,,,,,,,,,,0,0,0,0,0
4.2982,1783965745.6238,1,1,1.0000,-0.0000,1.42241,-0.00875,-2.63256,1.07062,1.57080,0.11675,-0.12761,-0.48158,0.03421,,,,,,,,,,,,,,,,,,,,,,,,,,0,0,0,0,0
4.2995,1783965745.6251,1,1,1.0000,-0.0000,1.42241,-0.00875,-2.63256,1.07062,1.57080,0.11675,-0.12761,-0.48158,0.03421,,,,,,,,,,,,,,,,,,,,,,,,,,0,0,0,0,0
4.3007,1783965745.6264,1,1,1.0000,-0.0000,1.42241,-0.00875,-2.63256,1.07062,1.57080,0.11675,-0.12761,-0.48158,0.03421,,,,,,,,,,,,,,,,,,,,,,,,,,0,0,0,0,0
4.3010,1783965745.6267,1,1,1.0000,-0.0000,1.42241,-0.00875,-2.63256,1.07062,1.57080,0.11675,-0.12761,-0.48158,0.03421,,,,,,,,,,,,,,,,,,,,,,,,,,0,0,0,0,0
4.3013,1783965745.6269,1,1,1.0000,-0.0000,1.42241,-0.00875,-2.63256,1.07062,1.57080,0.11675,-0.12761,-0.48158,0.03421,,,,,,,,,,,,,,,,,,,,,,,,,,0,0,0,0,0
4.3021,1783965745.6277,1,1,1.0000,-0.0000,1.42241,-0.00875,-2.63256,1.07062,1.57080,0.11675,-0.12761,-0.48158,0.03421,,,,,,,,,,,,,,,,,,,,,,,,,,0,0,0,0,0
4.3130,1783965745.6386,1,1,1.0000,-0.0000,1.42241,-0.00875,-2.63256,1.07062,1.57080,0.11675,-0.12761,-0.48158,0.03421,,,,,,,,,,,,,,,,,,,,,,,,,,0,0,0,0,0
4.3133,1783965745.6389,1,1,1.0000,-0.0000,1.42241,-0.00875,-2.63256,1.07062,1.57080,0.11675,-0.12761,-0.48158,0.03421,,,,,,,,,,,,,,,,,,,,,,,,,,0,0,0,0,0
4.3175,1783965745.6431,1,1,1.0000,-0.0000,1.42241,-0.00875,-2.63256,1.07062,1.57080,0.11675,-0.12761,-0.48158,0.03421,,,,,,,,,,,,,,,,,,,,,,,,,,0,0,0,0,0
4.3180,1783965745.6437,1,1,1.0000,-0.0000,1.42241,-0.00875,-2.63256,1.07062,1.57080,0.11675,-0.12761,-0.48158,0.03421,,,,,,,,,,,,,,,,,,,,,,,,,,0,0,0,0,0
4.3331,1783965745.6587,1,1,1.0000,-0.0000,1.42241,-0.00875,-2.63256,1.07062,1.57080,0.11675,-0.12761,-0.48158,0.03421,,,,,,,,,,,,,,,,,,,,,,,,,,0,0,0,0,0
4.3372,1783965745.6628,1,1,1.0000,-0.0000,1.42241,-0.00875,-2.63256,1.07062,1.57080,0.11675,-0.12761,-0.48158,0.03421,,,,,,,,,,,,,,,,,,,,,,,,,,0,0,0,0,0
4.3517,1783965745.6773,1,1,1.0000,-0.0000,1.42241,-0.00875,-2.63256,1.07062,1.57080,0.11675,-0.12761,-0.48158,0.03421,,,,,,,,,,,,,,,,,,,,,,,,,,0,0,0,0,0
4.3558,1783965745.6815,1,1,1.0000,-0.0000,1.42241,-0.00875,-2.63256,1.07062,1.57080,0.11675,-0.12761,-0.48158,0.03421,,,,,,,,,,,,,,,,,,,,,,,,,,0,0,0,0,0
4.3860,1783965745.7117,1,1,1.0000,-0.0000,1.42241,-0.00875,-2.63256,1.07062,1.57080,0.11675,-0.12761,-0.48158,0.03421,,,,,,,,,,,,,,,,,,,,,,,,,,0,0,0,0,0
4.3865,1783965745.7122,1,1,1.0000,-0.0000,1.42241,-0.00875,-2.63256,1.07062,1.57080,0.11675,-0.12761,-0.48158,0.03421,,,,,,,,,,,,,,,,,,,,,,,,,,0,0,0,0,0
4.3880,1783965745.7136,1,1,1.0000,-0.0000,1.42241,-0.00875,-2.63256,1.07062,1.57080,0.11675,-0.12761,-0.48158,0.03421,,,,,,,,,,,,,,,,,,,,,,,,,,0,0,0,0,0
4.3883,1783965745.7139,1,1,1.0000,-0.0000,1.42241,-0.00875,-2.63256,1.07062,1.57080,0.11675,-0.12761,-0.48158,0.03421,,,,,,,,,,,,,,,,,,,,,,,,,,0,0,0,0,0
4.3886,1783965745.7142,1,1,1.0000,-0.0000,1.42241,-0.00875,-2.63256,1.07062,1.57080,0.11675,-0.12761,-0.48158,0.03421,,,,,,,,,,,,,,,,,,,,,,,,,,0,0,0,0,0
4.3968,1783965745.7224,1,1,1.0000,-0.0000,1.42241,-0.00875,-2.63256,1.07062,1.57080,0.11675,-0.12761,-0.48158,0.03421,,,,,,,,,,,,,,,,,,,,,,,,,,0,0,0,0,0
4.4207,1783965745.7464,1,1,1.0000,-0.0000,1.42241,-0.00876,-2.63260,1.07065,1.57080,0.11675,-0.12761,-0.48155,0.03419,,,,,,,,,,,,,,,,,,,,,,,,,,0,0,0,0,0
4.4214,1783965745.7471,1,1,1.0000,-0.0000,1.42241,-0.00876,-2.63260,1.07065,1.57080,0.11675,-0.12761,-0.48155,0.03419,,,,,,,,,,,,,,,,,,,,,,,,,,0,0,0,0,0
4.4379,1783965745.7636,1,1,1.0000,-0.0000,1.42241,-0.00879,-2.63264,1.07068,1.57080,0.11675,-0.12762,-0.48153,0.03417,,,,,,,,,,,,,,,,,,,,,,,,,,0,0,0,0,0
4.4381,1783965745.7637,1,1,1.0000,-0.0000,1.42241,-0.00879,-2.63264,1.07068,1.57080,0.11675,-0.12762,-0.48153,0.03417,,,,,,,,,,,,,,,,,,,,,,,,,,0,0,0,0,0
4.4490,1783965745.7746,1,1,1.0000,-0.0000,1.42241,-0.00882,-2.63267,1.07071,1.57080,0.11675,-0.12762,-0.48151,0.03414,,,,,,,,,,,,,,,,,,,,,,,,,,0,0,0,0,0
4.4511,1783965745.7767,1,1,1.0000,-0.0000,1.42241,-0.00882,-2.63267,1.07071,1.57080,0.11675,-0.12762,-0.48151,0.03414,,,,,,,,,,,,,,,,,,,,,,,,,,0,0,0,0,0
4.4514,1783965745.7770,1,1,1.0000,-0.0000,1.42241,-0.00882,-2.63267,1.07071,1.57080,0.11675,-0.12762,-0.48151,0.03414,,,,,,,,,,,,,,,,,,,,,,,,,,0,0,0,0,0
4.4572,1783965745.7829,1,1,1.0000,-0.0000,1.42241,-0.00882,-2.63267,1.07072,1.57080,0.11675,-0.12762,-0.48151,0.03414,,,,,,,,,,,,,,,,,,,,,,,,,,0,0,0,0,0
4.4576,1783965745.7832,1,1,1.0000,-0.0000,1.42241,-0.00882,-2.63267,1.07072,1.57080,0.11675,-0.12762,-0.48151,0.03414,,,,,,,,,,,,,,,,,,,,,,,,,,0,0,0,0,0
4.4695,1783965745.7951,1,1,1.0000,-0.0000,1.42241,-0.00887,-2.63270,1.07077,1.57080,0.11675,-0.12762,-0.48149,0.03412,,,,,,,,,,,,,,,,,,,,,,,,,,0,0,0,0,0
4.4701,1783965745.7957,1,1,1.0000,-0.0000,1.42241,-0.00889,-2.63272,1.07080,1.57080,0.11675,-0.12762,-0.48148,0.03410,,,,,,,,,,,,,,,,,,,,,,,,,,0,0,0,0,0
4.4805,1783965745.8061,1,1,1.0000,-0.0000,1.42241,-0.00895,-2.63275,1.07087,1.57081,0.11675,-0.12763,-0.48147,0.03407,,,,,,,,,,,,,,,,,,,,,,,,,,0,0,0,0,0
4.4808,1783965745.8064,1,1,1.0000,-0.0000,1.42241,-0.00895,-2.63275,1.07087,1.57081,0.11675,-0.12763,-0.48147,0.03407,,,,,,,,,,,,,,,,,,,,,,,,,,0,0,0,0,0
4.4863,1783965745.8120,1,1,1.0000,-0.0000,1.42241,-0.00898,-2.63277,1.07091,1.57081,0.11675,-0.12763,-0.48146,0.03405,,,,,,,,,,,,,,,,,,,,,,,,,,0,0,0,0,0
4.4867,1783965745.8123,1,1,1.0000,-0.0000,1.42241,-0.00898,-2.63277,1.07091,1.57081,0.11675,-0.12763,-0.48146,0.03405,,,,,,,,,,,,,,,,,,,,,,,,,,0,0,0,0,0
4.4976,1783965745.8232,1,1,1.0000,-0.0000,1.42241,-0.00900,-2.63278,1.07093,1.57081,0.11675,-0.12763,-0.48146,0.03405,,,,,,,,,,,,,,,,,,,,,,,,,,0,0,0,0,0
4.4980,1783965745.8236,1,1,1.0000,-0.0000,1.42241,-0.00902,-2.63278,1.07095,1.57081,0.11675,-0.12763,-0.48146,0.03404,,,,,,,,,,,,,,,,,,,,,,,,,,0,0,0,0,0
4.5373,1783965745.8629,1,1,1.0000,-0.0000,1.42241,-0.00924,-2.63283,1.07121,1.57081,0.11675,-0.12763,-0.48145,0.03397,,,,,,,,,,,,,,,,,,,,,,,,,,0,0,0,0,0
4.5380,1783965745.8637,1,1,1.0000,-0.0000,1.42241,-0.00928,-2.63284,1.07126,1.57081,0.11675,-0.12763,-0.48145,0.03395,,,,,,,,,,,,,,,,,,,,,,,,,,0,0,0,0,0
4.5395,1783965745.8652,1,1,1.0000,-0.0000,1.42241,-0.00928,-2.63284,1.07126,1.57081,0.11675,-0.12763,-0.48145,0.03395,,,,,,,,,,,,,,,,,,,,,,,,,,0,0,0,0,0
4.5398,1783965745.8654,1,1,1.0000,-0.0000,1.42241,-0.00928,-2.63284,1.07126,1.57081,0.11675,-0.12763,-0.48145,0.03395,,,,,,,,,,,,,,,,,,,,,,,,,,0,0,0,0,0
4.5525,1783965745.8781,1,1,1.0000,-0.0000,1.42241,-0.00930,-2.63284,1.07129,1.57081,0.11675,-0.12763,-0.48145,0.03394,,,,,,,,,,,,,,,,,,,,,,,,,,0,0,0,0,0
4.5548,1783965745.8804,1,1,1.0000,-0.0000,1.42241,-0.00933,-2.63285,1.07132,1.57081,0.11675,-0.12763,-0.48146,0.03394,,,,,,,,,,,,,,,,,,,,,,,,,,0,0,0,0,0
4.5551,1783965745.8808,1,1,1.0000,-0.0000,1.42241,-0.00933,-2.63285,1.07132,1.57081,0.11675,-0.12763,-0.48146,0.03394,,,,,,,,,,,,,,,,,,,,,,,,,,0,0,0,0,0
4.5719,1783965745.8975,1,1,1.0000,-0.0000,1.42241,-0.00952,-2.63288,1.07154,1.57081,0.11675,-0.12762,-0.48146,0.03388,,,,,,,,,,,,,,,,,,,,,,,,,,0,0,0,0,0
4.5890,1783965745.9147,1,1,1.0000,-0.0000,1.42241,-0.00959,-2.63289,1.07163,1.57081,0.11675,-0.12762,-0.48147,0.03386,,,,,,,,,,,,,,,,,,,,,,,,,,0,0,0,0,0
4.5902,1783965745.9158,1,1,1.0000,-0.0000,1.42241,-0.00961,-2.63289,1.07165,1.57081,0.11675,-0.12762,-0.48147,0.03385,,,,,,,,,,,,,,,,,,,,,,,,,,0,0,0,0,0
4.5904,1783965745.9161,1,1,1.0000,-0.0000,1.42241,-0.00961,-2.63289,1.07165,1.57081,0.11675,-0.12762,-0.48147,0.03385,,,,,,,,,,,,,,,,,,,,,,,,,,0,0,0,0,0
4.5908,1783965745.9164,1,1,1.0000,-0.0000,1.42241,-0.00961,-2.63289,1.07165,1.57081,0.11675,-0.12762,-0.48147,0.03385,,,,,,,,,,,,,,,,,,,,,,,,,,0,0,0,0,0
4.5968,1783965745.9225,1,1,1.0000,-0.0000,1.42241,-0.00963,-2.63289,1.07168,1.57081,0.11675,-0.12762,-0.48147,0.03385,,,,,,,,,,,,,,,,,,,,,,,,,,0,0,0,0,0
4.5972,1783965745.9228,1,1,1.0000,-0.0000,1.42241,-0.00963,-2.63289,1.07168,1.57081,0.11675,-0.12762,-0.48147,0.03385,,,,,,,,,,,,,,,,,,,,,,,,,,0,0,0,0,0
4.6061,1783965745.9317,1,1,1.0000,-0.0000,1.42241,-0.00972,-2.63288,1.07180,1.57081,0.11675,-0.12762,-0.48149,0.03383,,,,,,,,,,,,,,,,,,,,,,,,,,0,0,0,0,0
4.6065,1783965745.9321,1,1,1.0000,-0.0000,1.42241,-0.00972,-2.63288,1.07180,1.57081,0.11675,-0.12762,-0.48149,0.03383,,,,,,,,,,,,,,,,,,,,,,,,,,0,0,0,0,0
4.6168,1783965745.9424,1,1,1.0000,-0.0000,1.42241,-0.00979,-2.63288,1.07188,1.57081,0.11675,-0.12762,-0.48151,0.03381,,,,,,,,,,,,,,,,,,,,,,,,,,0,0,0,0,0
4.6171,1783965745.9427,1,1,1.0000,-0.0000,1.42241,-0.00979,-2.63288,1.07188,1.57081,0.11675,-0.12762,-0.48151,0.03381,,,,,,,,,,,,,,,,,,,,,,,,,,0,0,0,0,0
4.6260,1783965745.9517,1,1,1.0000,-0.0000,1.42241,-0.00988,-2.63286,1.07199,1.57081,0.11675,-0.12761,-0.48154,0.03380,,,,,,,,,,,,,,,,,,,,,,,,,,0,0,0,0,0
4.6381,1783965745.9638,1,1,1.0000,-0.0000,1.42241,-0.00993,-2.63283,1.07206,1.57081,0.11675,-0.12761,-0.48157,0.03380,,,,,,,,,,,,,,,,,,,,,,,,,,0,0,0,0,0
4.6385,1783965745.9641,1,1,1.0000,-0.0000,1.42241,-0.00993,-2.63283,1.07206,1.57081,0.11675,-0.12761,-0.48157,0.03380,,,,,,,,,,,,,,,,,,,,,,,,,,0,0,0,0,0
4.6519,1783965745.9775,1,1,1.0000,-0.0000,1.42241,-0.00993,-2.63283,1.07206,1.57081,0.11675,-0.12761,-0.48157,0.03380,,,,,,,,,,,,,,,,,,,,,,,,,,0,0,0,0,0
4.6586,1783965745.9843,1,1,1.0000,-0.0000,1.42241,-0.00993,-2.63283,1.07206,1.57081,0.11675,-0.12761,-0.48157,0.03380,,,,,,,,,,,,,,,,,,,,,,,,,,0,0,0,0,0
4.6951,1783965746.0207,1,1,1.0000,-0.0000,1.42241,-0.00993,-2.63283,1.07206,1.57081,0.11675,-0.12761,-0.48157,0.03380,,,,,,,,,,,,,,,,,,,,,,,,,,0,0,0,0,0
4.6975,1783965746.0232,1,1,1.0000,-0.0000,1.42241,-0.00993,-2.63283,1.07206,1.57081,0.11675,-0.12761,-0.48157,0.03380,,,,,,,,,,,,,,,,,,,,,,,,,,0,0,0,0,0
4.7023,1783965746.0280,1,1,1.0000,-0.0000,1.42241,-0.00993,-2.63283,1.07206,1.57081,0.11675,-0.12761,-0.48157,0.03380,,,,,,,,,,,,,,,,,,,,,,,,,,0,0,0,0,0
4.7027,1783965746.0283,1,1,1.0000,-0.0000,1.42241,-0.00993,-2.63283,1.07206,1.57081,0.11675,-0.12761,-0.48157,0.03380,,,,,,,,,,,,,,,,,,,,,,,,,,0,0,0,0,0
4.7088,1783965746.0344,1,1,1.0000,-0.0000,1.42241,-0.00993,-2.63283,1.07206,1.57081,0.11675,-0.12761,-0.48157,0.03380,,,,,,,,,,,,,,,,,,,,,,,,,,0,0,0,0,0
4.7092,1783965746.0349,1,1,1.0000,-0.0000,1.42241,-0.00993,-2.63283,1.07206,1.57081,0.11675,-0.12761,-0.48157,0.03380,,,,,,,,,,,,,,,,,,,,,,,,,,0,0,0,0,0
4.7124,1783965746.0381,1,1,1.0000,-0.0000,1.42241,-0.00993,-2.63283,1.07206,1.57081,0.11675,-0.12761,-0.48157,0.03380,,,,,,,,,,,,,,,,,,,,,,,,,,0,0,0,0,0
4.7261,1783965746.0517,1,1,1.0000,-0.0000,1.42241,-0.00993,-2.63283,1.07206,1.57081,0.11675,-0.12761,-0.48157,0.03380,,,,,,,,,,,,,,,,,,,,,,,,,,0,0,0,0,0
4.7279,1783965746.0536,1,1,1.0000,-0.0000,1.42241,-0.00993,-2.63283,1.07206,1.57081,0.11675,-0.12761,-0.48157,0.03380,,,,,,,,,,,,,,,,,,,,,,,,,,0,0,0,0,0
4.7365,1783965746.0621,1,1,1.0000,-0.0000,1.42241,-0.00993,-2.63283,1.07206,1.57081,0.11675,-0.12761,-0.48157,0.03380,,,,,,,,,,,,,,,,,,,,,,,,,,0,0,0,0,0
4.7450,1783965746.0706,1,1,1.0000,-0.0000,1.42241,-0.00993,-2.63283,1.07206,1.57081,0.11675,-0.12761,-0.48157,0.03380,,,,,,,,,,,,,,,,,,,,,,,,,,0,0,0,0,0
4.7455,1783965746.0711,1,1,1.0000,-0.0000,1.42241,-0.00993,-2.63283,1.07206,1.57081,0.11675,-0.12761,-0.48157,0.03380,,,,,,,,,,,,,,,,,,,,,,,,,,0,0,0,0,0
4.7581,1783965746.0838,1,1,1.0000,-0.0000,1.42241,-0.00993,-2.63283,1.07206,1.57081,0.11675,-0.12761,-0.48157,0.03380,,,,,,,,,,,,,,,,,,,,,,,,,,0,0,0,0,0
