Martins-Lucaas/twinforge/sensors/Data/20260704_145119__samples.csv
t_rel_s,t_unix,cycle,phase,setpoint_n,force_net_n,q1,q2,q3,q4,q5,q6,tcp_x,tcp_y,tcp_z,taxel_0,taxel_1,taxel_2,taxel_3,taxel_4,taxel_5,taxel_6,taxel_7,taxel_8,taxel_9,taxel_10,taxel_11,taxel_12,taxel_13,taxel_14,taxel_15,taxel_16,taxel_17,taxel_18,taxel_19,taxel_20,taxel_21,taxel_22,taxel_23,taxel_24,n_RA,n_SA,cn_mm,cn_ra,cn_sa
0.0072,1783187479.3264,1,0,1.0000,0.0000,1.44682,0.23328,-2.77748,0.97337,1.57080,0.00000,-0.14512,-0.38003,0.04653,,,,,,,,,,,,,,,,,,,,,,,,,,0,0,0,0,0
0.0075,1783187479.3267,1,0,1.0000,0.0000,1.44682,0.23328,-2.77748,0.97337,1.57080,0.00000,-0.14512,-0.38003,0.04653,,,,,,,,,,,,,,,,,,,,,,,,,,0,0,0,0,0
0.0148,1783187479.3340,1,0,1.0000,0.0000,1.44682,0.23328,-2.77748,0.97337,1.57080,0.00000,-0.14512,-0.38003,0.04653,,,,,,,,,,,,,,,,,,,,,,,,,,0,0,0,0,0
0.0231,1783187479.3423,1,0,1.0000,0.0000,1.44682,0.23328,-2.77748,0.97337,1.57080,0.00000,-0.14512,-0.38003,0.04653,,,,,,,,,,,,,,,,,,,,,,,,,,0,0,0,0,0
0.0234,1783187479.3427,1,0,1.0000,0.0000,1.44682,0.23328,-2.77748,0.97337,1.57080,0.00000,-0.14512,-0.38003,0.04653,,,,,,,,,,,,,,,,,,,,,,,,,,0,0,0,0,0
0.0355,1783187479.3548,1,0,1.0000,0.0000,1.44682,0.23328,-2.77748,0.97337,1.57080,0.00000,-0.14512,-0.38003,0.04653,,,,,,,,,,,,,,,,,,,,,,,,,,0,0,0,0,0
0.0473,1783187479.3665,1,0,1.0000,0.0000,1.44682,0.23328,-2.77748,0.97337,1.57080,0.00000,-0.14512,-0.38003,0.04653,,,,,,,,,,,,,,,,,,,,,,,,,,0,0,0,0,0
0.0560,1783187479.3752,1,0,1.0000,0.0000,1.44682,0.23328,-2.77748,0.97337,1.57080,0.00000,-0.14512,-0.38003,0.04653,,,,,,,,,,,,,,,,,,,,,,,,,,0,0,0,0,0
0.0563,1783187479.3755,1,0,1.0000,0.0000,1.44682,0.23328,-2.77748,0.97337,1.57080,0.00000,-0.14512,-0.38003,0.04653,,,,,,,,,,,,,,,,,,,,,,,,,,0,0,0,0,0
0.0731,1783187479.3923,1,0,1.0000,0.0000,1.44682,0.23328,-2.77748,0.97337,1.57080,0.00000,-0.14512,-0.38003,0.04653,,,,,,,,,,,,,,,,,,,,,,,,,,0,0,0,0,0
0.0758,1783187479.3951,1,0,1.0000,0.0000,1.44682,0.23328,-2.77748,0.97337,1.57080,0.00000,-0.14512,-0.38003,0.04653,,,,,,,,,,,,,,,,,,,,,,,,,,0,0,0,0,0
0.0850,1783187479.4042,1,0,1.0000,0.0000,1.44682,0.23328,-2.77748,0.97337,1.57080,0.00000,-0.14512,-0.38003,0.04653,,,,,,,,,,,,,,,,,,,,,,,,,,0,0,0,0,0
0.0948,1783187479.4140,1,0,1.0000,0.0000,1.44682,0.23328,-2.77748,0.97337,1.57080,0.00000,-0.14512,-0.38003,0.04653,,,,,,,,,,,,,,,,,,,,,,,,,,0,0,0,0,0
0.1043,1783187479.4235,1,0,1.0000,0.0000,1.44682,0.23328,-2.77748,0.97337,1.57080,0.00000,-0.14512,-0.38003,0.04653,,,,,,,,,,,,,,,,,,,,,,,,,,0,0,0,0,0
0.1164,1783187479.4356,1,0,1.0000,0.0000,1.44682,0.23328,-2.77748,0.97337,1.57080,0.00000,-0.14512,-0.38003,0.04653,,,,,,,,,,,,,,,,,,,,,,,,,,0,0,0,0,0
0.1254,1783187479.4447,1,0,1.0000,0.0000,1.44682,0.23328,-2.77748,0.97337,1.57080,0.00000,-0.14512,-0.38003,0.04653,,,,,,,,,,,,,,,,,,,,,,,,,,0,0,0,0,0
0.1338,1783187479.4531,1,0,1.0000,0.0000,1.44682,0.23328,-2.77748,0.97337,1.57080,0.00000,-0.14512,-0.38003,0.04653,,,,,,,,,,,,,,,,,,,,,,,,,,0,0,0,0,0
0.1432,1783187479.4625,1,0,1.0000,0.0000,1.44682,0.23328,-2.77748,0.97337,1.57080,0.00000,-0.14512,-0.38003,0.04653,,,,,,,,,,,,,,,,,,,,,,,,,,0,0,0,0,0
0.1435,1783187479.4628,1,0,1.0000,0.0000,1.44682,0.23328,-2.77748,0.97337,1.57080,0.00000,-0.14512,-0.38003,0.04653,,,,,,,,,,,,,,,,,,,,,,,,,,0,0,0,0,0
0.1581,1783187479.4773,1,0,1.0000,0.0000,1.44682,0.23328,-2.77748,0.97337,1.57080,0.00000,-0.14512,-0.38003,0.04653,,,,,,,,,,,,,,,,,,,,,,,,,,0,0,0,0,0
0.1584,1783187479.4777,1,0,1.0000,0.0000,1.44682,0.23328,-2.77748,0.97337,1.57080,0.00000,-0.14512,-0.38003,0.04653,,,,,,,,,,,,,,,,,,,,,,,,,,0,0,0,0,0
0.1707,1783187479.4900,1,0,1.0000,0.0000,1.44682,0.23328,-2.77748,0.97337,1.57080,0.00000,-0.14512,-0.38003,0.04653,,,,,,,,,,,,,,,,,,,,,,,,,,0,0,0,0,0
0.1747,1783187479.4939,1,0,1.0000,0.0000,1.44682,0.23328,-2.77748,0.97337,1.57080,0.00000,-0.14512,-0.38003,0.04653,,,,,,,,,,,,,,,,,,,,,,,,,,0,0,0,0,0
0.1875,1783187479.5068,1,0,1.0000,0.0000,1.44682,0.23328,-2.77748,0.97337,1.57080,0.00000,-0.14512,-0.38003,0.04653,,,,,,,,,,,,,,,,,,,,,,,,,,0,0,0,0,0
0.1940,1783187479.5132,1,0,1.0000,0.0000,1.44682,0.23328,-2.77748,0.97337,1.57080,0.00000,-0.14512,-0.38003,0.04653,,,,,,,,,,,,,,,,,,,,,,,,,,0,0,0,0,0
0.1944,1783187479.5136,1,0,1.0000,0.0000,1.44682,0.23328,-2.77748,0.97337,1.57080,0.00000,-0.14512,-0.38003,0.04653,,,,,,,,,,,,,,,,,,,,,,,,,,0,0,0,0,0
0.2030,1783187479.5222,1,0,1.0000,0.0000,1.44682,0.23328,-2.77748,0.97337,1.57080,0.00000,-0.14512,-0.38003,0.04653,,,,,,,,,,,,,,,,,,,,,,,,,,0,0,0,0,0
0.2033,1783187479.5225,1,0,1.0000,0.0000,1.44682,0.23328,-2.77748,0.97337,1.57080,0.00000,-0.14512,-0.38003,0.04653,,,,,,,,,,,,,,,,,,,,,,,,,,0,0,0,0,0
0.2148,1783187479.5340,1,0,1.0000,0.0000,1.44682,0.23328,-2.77748,0.97337,1.57080,0.00000,-0.14512,-0.38003,0.04653,,,,,,,,,,,,,,,,,,,,,,,,,,0,0,0,0,0
0.2151,1783187479.5343,1,0,1.0000,0.0000,1.44682,0.23328,-2.77748,0.97337,1.57080,0.00000,-0.14512,-0.38003,0.04653,,,,,,,,,,,,,,,,,,,,,,,,,,0,0,0,0,0
0.2244,1783187479.5437,1,0,1.0000,0.0000,1.44682,0.23328,-2.77748,0.97337,1.57080,0.00000,-0.14512,-0.38003,0.04653,,,,,,,,,,,,,,,,,,,,,,,,,,0,0,0,0,0
0.2333,1783187479.5525,1,0,1.0000,0.0000,1.44682,0.23328,-2.77748,0.97337,1.57080,0.00000,-0.14512,-0.38003,0.04653,,,,,,,,,,,,,,,,,,,,,,,,,,0,0,0,0,0
0.2472,1783187479.5665,1,0,1.0000,0.0000,1.44682,0.23328,-2.77748,0.97337,1.57080,0.00000,-0.14512,-0.38003,0.04653,,,,,,,,,,,,,,,,,,,,,,,,,,0,0,0,0,0
0.2476,1783187479.5668,1,0,1.0000,0.0000,1.44682,0.23328,-2.77748,0.97337,1.57080,0.00000,-0.14512,-0.38003,0.04653,,,,,,,,,,,,,,,,,,,,,,,,,,0,0,0,0,0
0.2564,1783187479.5756,1,0,1.0000,0.0000,1.44682,0.23328,-2.77748,0.97337,1.57080,0.00000,-0.14512,-0.38003,0.04653,,,,,,,,,,,,,,,,,,,,,,,,,,0,0,0,0,0
0.2750,1783187479.5943,1,0,1.0000,0.0000,1.44682,0.23328,-2.77748,0.97337,1.57080,0.00000,-0.14512,-0.38003,0.04653,,,,,,,,,,,,,,,,,,,,,,,,,,0,0,0,0,0
0.2754,1783187479.5947,1,0,1.0000,0.0000,1.44682,0.23328,-2.77748,0.97337,1.57080,0.00000,-0.14512,-0.38003,0.04653,,,,,,,,,,,,,,,,,,,,,,,,,,0,0,0,0,0
0.2833,1783187479.6026,1,0,1.0000,0.0000,1.44682,0.23328,-2.77748,0.97337,1.57080,0.00000,-0.14512,-0.38003,0.04653,,,,,,,,,,,,,,,,,,,,,,,,,,0,0,0,0,0
0.2950,1783187479.6142,1,0,1.0000,0.0000,1.44682,0.23328,-2.77748,0.97337,1.57080,0.00000,-0.14512,-0.38003,0.04653,,,,,,,,,,,,,,,,,,,,,,,,,,0,0,0,0,0
0.3032,1783187479.6224,1,0,1.0000,0.0000,1.44682,0.23328,-2.77748,0.97337,1.57080,0.00000,-0.14512,-0.38003,0.04653,,,,,,,,,,,,,,,,,,,,,,,,,,0,0,0,0,0
0.3154,1783187479.6346,1,0,1.0000,0.0000,1.44682,0.23328,-2.77748,0.97337,1.57080,0.00000,-0.14512,-0.38003,0.04653,,,,,,,,,,,,,,,,,,,,,,,,,,0,0,0,0,0
0.3307,1783187479.6499,1,0,1.0000,0.0000,1.44682,0.23328,-2.77748,0.97337,1.57080,0.00000,-0.14512,-0.38003,0.04653,,,,,,,,,,,,,,,,,,,,,,,,,,0,0,0,0,0
0.3384,1783187479.6577,1,0,1.0000,0.0000,1.44682,0.23328,-2.77748,0.97337,1.57080,0.00000,-0.14512,-0.38003,0.04653,,,,,,,,,,,,,,,,,,,,,,,,,,0,0,0,0,0
0.3489,1783187479.6681,1,0,1.0000,0.0000,1.44682,0.23328,-2.77748,0.97337,1.57080,0.00000,-0.14512,-0.38003,0.04653,,,,,,,,,,,,,,,,,,,,,,,,,,0,0,0,0,0
0.3574,1783187479.6767,1,0,1.0000,0.0000,1.44682,0.23328,-2.77748,0.97337,1.57080,0.00000,-0.14512,-0.38003,0.04653,,,,,,,,,,,,,,,,,,,,,,,,,,0,0,0,0,0
0.3738,1783187479.6930,1,0,1.0000,0.0000,1.44682,0.23328,-2.77748,0.97337,1.57080,0.00000,-0.14512,-0.38003,0.04653,,,,,,,,,,,,,,,,,,,,,,,,,,0,0,0,0,0
0.3816,1783187479.7008,1,0,1.0000,0.0000,1.44682,0.23328,-2.77748,0.97337,1.57080,0.00000,-0.14512,-0.38003,0.04653,,,,,,,,,,,,,,,,,,,,,,,,,,0,0,0,0,0
0.3910,1783187479.7102,1,0,1.0000,0.0000,1.44682,0.23328,-2.77748,0.97337,1.57080,0.00000,-0.14512,-0.38003,0.04653,,,,,,,,,,,,,,,,,,,,,,,,,,0,0,0,0,0
0.3912,1783187479.7105,1,0,1.0000,0.0000,1.44682,0.23328,-2.77748,0.97337,1.57080,0.00000,-0.14512,-0.38003,0.04653,,,,,,,,,,,,,,,,,,,,,,,,,,0,0,0,0,0
0.3989,1783187479.7181,1,0,1.0000,0.0000,1.44682,0.23328,-2.77748,0.97337,1.57080,0.00000,-0.14512,-0.38003,0.04653,,,,,,,,,,,,,,,,,,,,,,,,,,0,0,0,0,0
0.4084,1783187479.7276,1,0,1.0000,0.0000,1.44682,0.23328,-2.77748,0.97337,1.57080,0.00000,-0.14512,-0.38003,0.04653,,,,,,,,,,,,,,,,,,,,,,,,,,0,0,0,0,0
0.4219,1783187479.7411,1,0,1.0000,0.0000,1.44682,0.23328,-2.77748,0.97337,1.57080,0.00000,-0.14512,-0.38003,0.04653,,,,,,,,,,,,,,,,,,,,,,,,,,0,0,0,0,0
0.4324,1783187479.7516,1,0,1.0000,0.0000,1.44682,0.23328,-2.77748,0.97337,1.57080,0.00000,-0.14512,-0.38003,0.04653,,,,,,,,,,,,,,,,,,,,,,,,,,0,0,0,0,0
0.4418,1783187479.7610,1,0,1.0000,0.0000,1.44682,0.23328,-2.77748,0.97337,1.57080,0.00000,-0.14512,-0.38003,0.04653,,,,,,,,,,,,,,,,,,,,,,,,,,0,0,0,0,0
0.4538,1783187479.7731,1,0,1.0000,0.0000,1.44682,0.23328,-2.77748,0.97337,1.57080,0.00000,-0.14512,-0.38003,0.04653,,,,,,,,,,,,,,,,,,,,,,,,,,0,0,0,0,0
0.4618,1783187479.7811,1,0,1.0000,0.0000,1.44682,0.23328,-2.77748,0.97337,1.57080,0.00000,-0.14512,-0.38003,0.04653,,,,,,,,,,,,,,,,,,,,,,,,,,0,0,0,0,0
0.4762,1783187479.7955,1,0,1.0000,0.0000,1.44682,0.23328,-2.77748,0.97337,1.57080,0.00000,-0.14512,-0.38003,0.04653,,,,,,,,,,,,,,,,,,,,,,,,,,0,0,0,0,0
0.4820,1783187479.8012,1,0,1.0000,0.0000,1.44682,0.23328,-2.77748,0.97337,1.57080,0.00000,-0.14512,-0.38003,0.04653,,,,,,,,,,,,,,,,,,,,,,,,,,0,0,0,0,0
0.4919,1783187479.8111,1,0,1.0000,0.0000,1.44682,0.23328,-2.77748,0.97337,1.57080,0.00000,-0.14512,-0.38003,0.04653,,,,,,,,,,,,,,,,,,,,,,,,,,0,0,0,0,0
0.5030,1783187479.8222,1,0,1.0000,0.0000,1.44682,0.23328,-2.77748,0.97337,1.57080,0.00000,-0.14512,-0.38003,0.04653,,,,,,,,,,,,,,,,,,,,,,,,,,0,0,0,0,0
0.5234,1783187479.8426,1,0,1.0000,0.0000,1.44682,0.23328,-2.77748,0.97337,1.57080,0.00000,-0.14512,-0.38003,0.04653,,,,,,,,,,,,,,,,,,,,,,,,,,0,0,0,0,0
0.5243,1783187479.8435,1,0,1.0000,0.0000,1.44682,0.23328,-2.77748,0.97337,1.57080,0.00000,-0.14512,-0.38003,0.04653,,,,,,,,,,,,,,,,,,,,,,,,,,0,0,0,0,0
0.5246,1783187479.8438,1,0,1.0000,0.0000,1.44682,0.23328,-2.77748,0.97337,1.57080,0.00000,-0.14512,-0.38003,0.04653,,,,,,,,,,,,,,,,,,,,,,,,,,0,0,0,0,0
0.5320,1783187479.8513,1,0,1.0000,0.0000,1.44682,0.23328,-2.77748,0.97337,1.57080,0.00000,-0.14512,-0.38003,0.04653,,,,,,,,,,,,,,,,,,,,,,,,,,0,0,0,0,0
0.5323,1783187479.8515,1,0,1.0000,0.0000,1.44682,0.23328,-2.77748,0.97337,1.57080,0.00000,-0.14512,-0.38003,0.04653,,,,,,,,,,,,,,,,,,,,,,,,,,0,0,0,0,0
0.5445,1783187479.8637,1,0,1.0000,0.0000,1.44682,0.23328,-2.77748,0.97337,1.57080,0.00000,-0.14512,-0.38003,0.04653,,,,,,,,,,,,,,,,,,,,,,,,,,0,0,0,0,0
0.5448,1783187479.8640,1,0,1.0000,0.0000,1.44682,0.23328,-2.77748,0.97337,1.57080,0.00000,-0.14512,-0.38003,0.04653,,,,,,,,,,,,,,,,,,,,,,,,,,0,0,0,0,0
0.5537,1783187479.8730,1,0,1.0000,0.0000,1.44682,0.23328,-2.77748,0.97337,1.57080,0.00000,-0.14512,-0.38003,0.04653,,,,,,,,,,,,,,,,,,,,,,,,,,0,0,0,0,0
0.5622,1783187479.8815,1,0,1.0000,0.0000,1.44682,0.23328,-2.77748,0.97337,1.57080,0.00000,-0.14512,-0.38003,0.04653,,,,,,,,,,,,,,,,,,,,,,,,,,0,0,0,0,0
0.5630,1783187479.8822,1,0,1.0000,0.0000,1.44682,0.23328,-2.77748,0.97337,1.57080,0.00000,-0.14512,-0.38003,0.04653,,,,,,,,,,,,,,,,,,,,,,,,,,0,0,0,0,0
0.5796,1783187479.8988,1,0,1.0000,0.0000,1.44682,0.23328,-2.77748,0.97337,1.57080,0.00000,-0.14512,-0.38003,0.04653,,,,,,,,,,,,,,,,,,,,,,,,,,0,0,0,0,0
0.5825,1783187479.9018,1,0,1.0000,0.0000,1.44682,0.23328,-2.77748,0.97337,1.57080,0.00000,-0.14512,-0.38003,0.04653,,,,,,,,,,,,,,,,,,,,,,,,,,0,0,0,0,0
0.5951,1783187479.9144,1,0,1.0000,0.0000,1.44682,0.23328,-2.77748,0.97337,1.57080,0.00000,-0.14512,-0.38003,0.04653,,,,,,,,,,,,,,,,,,,,,,,,,,0,0,0,0,0
0.5954,1783187479.9146,1,0,1.0000,0.0000,1.44682,0.23328,-2.77748,0.97337,1.57080,0.00000,-0.14512,-0.38003,0.04653,,,,,,,,,,,,,,,,,,,,,,,,,,0,0,0,0,0
0.6031,1783187479.9224,1,0,1.0000,0.0000,1.44682,0.23328,-2.77748,0.97337,1.57080,0.00000,-0.14512,-0.38003,0.04653,,,,,,,,,,,,,,,,,,,,,,,,,,0,0,0,0,0
0.6128,1783187479.9321,1,0,1.0000,0.0000,1.44682,0.23328,-2.77748,0.97337,1.57080,0.00000,-0.14512,-0.38003,0.04653,,,,,,,,,,,,,,,,,,,,,,,,,,0,0,0,0,0
0.6250,1783187479.9443,1,0,1.0000,0.0000,1.44682,0.23328,-2.77748,0.97337,1.57080,0.00000,-0.14512,-0.38003,0.04653,,,,,,,,,,,,,,,,,,,,,,,,,,0,0,0,0,0
0.6254,1783187479.9446,1,0,1.0000,0.0000,1.44682,0.23328,-2.77748,0.97337,1.57080,0.00000,-0.14512,-0.38003,0.04653,,,,,,,,,,,,,,,,,,,,,,,,,,0,0,0,0,0
0.6345,1783187479.9537,1,0,1.0000,0.0000,1.44682,0.23328,-2.77748,0.97337,1.57080,0.00000,-0.14512,-0.38003,0.04653,,,,,,,,,,,,,,,,,,,,,,,,,,0,0,0,0,0
0.6433,1783187479.9625,1,0,1.0000,0.0000,1.44682,0.23328,-2.77748,0.97337,1.57080,0.00000,-0.14512,-0.38003,0.04653,,,,,,,,,,,,,,,,,,,,,,,,,,0,0,0,0,0
0.6519,1783187479.9711,1,0,1.0000,0.0000,1.44682,0.23328,-2.77748,0.97337,1.57080,0.00000,-0.14512,-0.38003,0.04653,,,,,,,,,,,,,,,,,,,,,,,,,,0,0,0,0,0
0.6621,1783187479.9813,1,0,1.0000,0.0000,1.44682,0.23328,-2.77748,0.97337,1.57080,0.00000,-0.14512,-0.38003,0.04653,,,,,,,,,,,,,,,,,,,,,,,,,,0,0,0,0,0
0.6735,1783187479.9927,1,0,1.0000,0.0000,1.44682,0.23328,-2.77748,0.97337,1.57080,0.00000,-0.14512,-0.38003,0.04653,,,,,,,,,,,,,,,,,,,,,,,,,,0,0,0,0,0
0.7109,1783187480.0301,1,0,1.0000,0.0000,1.44682,0.23328,-2.77748,0.97337,1.57080,0.00000,-0.14512,-0.38003,0.04653,,,,,,,,,,,,,,,,,,,,,,,,,,0,0,0,0,0
0.7203,1783187480.0396,1,0,1.0000,0.0000,1.44682,0.23328,-2.77748,0.97337,1.57080,0.00000,-0.14512,-0.38003,0.04653,,,,,,,,,,,,,,,,,,,,,,,,,,0,0,0,0,0
0.7272,1783187480.0464,1,0,1.0000,0.0000,1.44682,0.23328,-2.77748,0.97337,1.57080,0.00000,-0.14512,-0.38003,0.04653,,,,,,,,,,,,,,,,,,,,,,,,,,0,0,0,0,0
0.7276,1783187480.0468,1,0,1.0000,0.0000,1.44682,0.23328,-2.77748,0.97337,1.57080,0.00000,-0.14512,-0.38003,0.04653,,,,,,,,,,,,,,,,,,,,,,,,,,0,0,0,0,0
0.7287,1783187480.0480,1,0,1.0000,0.0000,1.44682,0.23328,-2.77748,0.97337,1.57080,0.00000,-0.14512,-0.38003,0.04653,,,,,,,,,,,,,,,,,,,,,,,,,,0,0,0,0,0
0.7291,1783187480.0483,1,0,1.0000,0.0000,1.44682,0.23328,-2.77748,0.97337,1.57080,0.00000,-0.14512,-0.38003,0.04653,,,,,,,,,,,,,,,,,,,,,,,,,,0,0,0,0,0
0.7330,1783187480.0522,1,1,1.0000,0.0000,1.44682,0.23328,-2.77748,0.97337,1.57080,0.00000,-0.14512,-0.38003,0.04653,,,,,,,,,,,,,,,,,,,,,,,,,,0,0,0,0,0
0.7333,1783187480.0525,1,1,1.0000,0.0000,1.44682,0.23328,-2.77748,0.97337,1.57080,0.00000,-0.14512,-0.38003,0.04653,,,,,,,,,,,,,,,,,,,,,,,,,,0,0,0,0,0
0.7450,1783187480.0643,1,1,1.0000,0.0000,1.44682,0.23328,-2.77748,0.97337,1.57080,0.00000,-0.14512,-0.38003,0.04653,,,,,,,,,,,,,,,,,,,,,,,,,,0,0,0,0,0
0.7527,1783187480.0719,1,1,1.0000,0.0000,1.44682,0.23328,-2.77748,0.97337,1.57080,0.00000,-0.14512,-0.38003,0.04653,,,,,,,,,,,,,,,,,,,,,,,,,,0,0,0,0,0
0.7621,1783187480.0814,1,1,1.0000,0.0000,1.44682,0.23328,-2.77748,0.97337,1.57080,0.00000,-0.14512,-0.38003,0.04653,,,,,,,,,,,,,,,,,,,,,,,,,,0,0,0,0,0
0.7843,1783187480.1035,1,1,1.0000,0.0000,1.44682,0.23328,-2.77748,0.97337,1.57080,0.00000,-0.14512,-0.38003,0.04653,,,,,,,,,,,,,,,,,,,,,,,,,,0,0,0,0,0
0.7879,1783187480.1071,1,1,1.0000,0.0000,1.44682,0.23328,-2.77748,0.97337,1.57080,0.00000,-0.14512,-0.38003,0.04653,,,,,,,,,,,,,,,,,,,,,,,,,,0,0,0,0,0
0.7926,1783187480.1119,1,1,1.0000,0.0000,1.44682,0.23328,-2.77748,0.97337,1.57080,0.00000,-0.14512,-0.38003,0.04653,,,,,,,,,,,,,,,,,,,,,,,,,,0,0,0,0,0
0.8018,1783187480.1211,1,1,1.0000,0.0000,1.44682,0.23328,-2.77748,0.97337,1.57080,0.00000,-0.14512,-0.38003,0.04653,,,,,,,,,,,,,,,,,,,,,,,,,,0,0,0,0,0
0.8022,1783187480.1214,1,1,1.0000,0.0000,1.44682,0.23328,-2.77748,0.97337,1.57080,0.00000,-0.14512,-0.38003,0.04653,,,,,,,,,,,,,,,,,,,,,,,,,,0,0,0,0,0
0.8126,1783187480.1318,1,1,1.0000,0.0000,1.44682,0.23328,-2.77748,0.97337,1.57080,0.00000,-0.14512,-0.38003,0.04653,,,,,,,,,,,,,,,,,,,,,,,,,,0,0,0,0,0
0.8227,1783187480.1420,1,1,1.0000,0.0000,1.44682,0.23328,-2.77748,0.97337,1.57080,0.00000,-0.14512,-0.38003,0.04653,,,,,,,,,,,,,,,,,,,,,,,,,,0,0,0,0,0
0.8336,1783187480.1529,1,1,1.0000,0.0000,1.44682,0.23328,-2.77748,0.97337,1.57080,0.00000,-0.14512,-0.38003,0.04653,,,,,,,,,,,,,,,,,,,,,,,,,,0,0,0,0,0
0.8421,1783187480.1613,1,1,1.0000,0.0000,1.44682,0.23328,-2.77748,0.97337,1.57080,0.00000,-0.14512,-0.38003,0.04653,,,,,,,,,,,,,,,,,,,,,,,,,,0,0,0,0,0
0.8538,1783187480.1730,1,1,1.0000,0.0000,1.44682,0.23328,-2.77748,0.97337,1.57080,0.00000,-0.14512,-0.38003,0.04653,,,,,,,,,,,,,,,,,,,,,,,,,,0,0,0,0,0
0.8620,1783187480.1813,1,1,1.0000,0.0000,1.44682,0.23328,-2.77748,0.97337,1.57080,0.00000,-0.14512,-0.38003,0.04653,,,,,,,,,,,,,,,,,,,,,,,,,,0,0,0,0,0
0.8756,1783187480.1948,1,1,1.0000,0.0000,1.44682,0.23328,-2.77748,0.97337,1.57080,0.00000,-0.14512,-0.38003,0.04653,,,,,,,,,,,,,,,,,,,,,,,,,,0,0,0,0,0
0.8860,1783187480.2052,1,1,1.0000,0.0000,1.44682,0.23328,-2.77748,0.97337,1.57080,0.00000,-0.14512,-0.38003,0.04653,,,,,,,,,,,,,,,,,,,,,,,,,,0,0,0,0,0
0.8922,1783187480.2114,1,1,1.0000,0.0000,1.44682,0.23328,-2.77748,0.97337,1.57080,0.00000,-0.14512,-0.38003,0.04653,,,,,,,,,,,,,,,,,,,,,,,,,,0,0,0,0,0
0.9068,1783187480.2261,1,1,1.0000,0.0000,1.44682,0.23328,-2.77748,0.97337,1.57080,0.00000,-0.14512,-0.38003,0.04653,,,,,,,,,,,,,,,,,,,,,,,,,,0,0,0,0,0
0.9525,1783187480.2717,1,1,1.0000,0.0000,1.44682,0.23296,-2.77756,0.97377,1.57080,0.00000,-0.14512,-0.38003,0.04644,,,,,,,,,,,,,,,,,,,,,,,,,,0,0,0,0,0
0.9749,1783187480.2941,1,1,1.0000,0.0000,1.44682,0.23280,-2.77760,0.97397,1.57080,0.00000,-0.14512,-0.38003,0.04640,,,,,,,,,,,,,,,,,,,,,,,,,,0,0,0,0,0
0.9783,1783187480.2975,1,1,1.0000,0.0000,1.44682,0.23280,-2.77760,0.97397,1.57080,0.00000,-0.14512,-0.38003,0.04640,,,,,,,,,,,,,,,,,,,,,,,,,,0,0,0,0,0
0.9793,1783187480.2986,1,1,1.0000,0.0000,1.44682,0.23280,-2.77760,0.97397,1.57080,0.00000,-0.14512,-0.38003,0.04640,,,,,,,,,,,,,,,,,,,,,,,,,,0,0,0,0,0
0.9800,1783187480.2993,1,1,1.0000,0.0000,1.44682,0.23280,-2.77760,0.97397,1.57080,0.00000,-0.14512,-0.38003,0.04640,,,,,,,,,,,,,,,,,,,,,,,,,,0,0,0,0,0
0.9881,1783187480.3073,1,1,1.0000,0.0000,1.44682,0.23276,-2.77761,0.97402,1.57080,0.00000,-0.14512,-0.38003,0.04639,,,,,,,,,,,,,,,,,,,,,,,,,,0,0,0,0,0
0.9889,1783187480.3081,1,1,1.0000,0.0000,1.44682,0.23276,-2.77761,0.97402,1.57080,0.00000,-0.14512,-0.38003,0.04639,,,,,,,,,,,,,,,,,,,,,,,,,,0,0,0,0,0
0.9892,1783187480.3084,1,1,1.0000,0.0000,1.44682,0.23276,-2.77761,0.97402,1.57080,0.00000,-0.14512,-0.38003,0.04639,,,,,,,,,,,,,,,,,,,,,,,,,,0,0,0,0,0
0.9895,1783187480.3087,1,1,1.0000,0.0000,1.44682,0.23276,-2.77761,0.97402,1.57080,0.00000,-0.14512,-0.38003,0.04639,,,,,,,,,,,,,,,,,,,,,,,,,,0,0,0,0,0
0.9938,1783187480.3130,1,1,1.0000,0.0000,1.44682,0.23273,-2.77762,0.97406,1.57080,0.00000,-0.14512,-0.38003,0.04638,,,,,,,,,,,,,,,,,,,,,,,,,,0,0,0,0,0
1.0023,1783187480.3215,1,1,1.0000,0.0000,1.44682,0.23263,-2.77764,0.97419,1.57080,0.00000,-0.14512,-0.38003,0.04636,,,,,,,,,,,,,,,,,,,,,,,,,,0,0,0,0,0
1.0133,1783187480.3326,1,1,1.0000,0.0000,1.44682,0.23252,-2.77767,0.97432,1.57080,0.00000,-0.14512,-0.38003,0.04633,,,,,,,,,,,,,,,,,,,,,,,,,,0,0,0,0,0
1.0238,1783187480.3431,1,1,1.0000,0.0000,1.44682,0.23247,-2.77768,0.97438,1.57080,0.00000,-0.14512,-0.38003,0.04632,,,,,,,,,,,,,,,,,,,,,,,,,,0,0,0,0,0
1.0355,1783187480.3547,1,1,1.0000,0.0000,1.44682,0.23235,-2.77772,0.97453,1.57080,0.00000,-0.14512,-0.38003,0.04629,,,,,,,,,,,,,,,,,,,,,,,,,,0,0,0,0,0
1.0445,1783187480.3637,1,1,1.0000,0.0000,1.44682,0.23234,-2.77772,0.97454,1.57080,0.00000,-0.14512,-0.38003,0.04628,,,,,,,,,,,,,,,,,,,,,,,,,,0,0,0,0,0
1.0519,1783187480.3711,1,1,1.0000,0.0000,1.44682,0.23228,-2.77773,0.97462,1.57080,0.00000,-0.14512,-0.38003,0.04627,,,,,,,,,,,,,,,,,,,,,,,,,,0,0,0,0,0
1.0664,1783187480.3857,1,1,1.0000,0.0000,1.44682,0.23213,-2.77777,0.97481,1.57080,0.00000,-0.14512,-0.38003,0.04623,,,,,,,,,,,,,,,,,,,,,,,,,,0,0,0,0,0
1.0721,1783187480.3914,1,1,1.0000,0.0000,1.44682,0.23208,-2.77779,0.97488,1.57080,0.00000,-0.14512,-0.38003,0.04621,,,,,,,,,,,,,,,,,,,,,,,,,,0,0,0,0,0
1.0939,1783187480.4131,1,1,1.0000,0.0000,1.44682,0.23195,-2.77782,0.97504,1.57080,0.00000,-0.14512,-0.38003,0.04618,,,,,,,,,,,,,,,,,,,,,,,,,,0,0,0,0,0
1.0941,1783187480.4134,1,1,1.0000,0.0000,1.44682,0.23195,-2.77782,0.97504,1.57080,0.00000,-0.14512,-0.38003,0.04618,,,,,,,,,,,,,,,,,,,,,,,,,,0,0,0,0,0
1.0958,1783187480.4150,1,1,1.0000,0.0000,1.44682,0.23191,-2.77783,0.97509,1.57080,0.00000,-0.14512,-0.38003,0.04617,,,,,,,,,,,,,,,,,,,,,,,,,,0,0,0,0,0
1.1023,1783187480.4216,1,1,1.0000,0.0000,1.44682,0.23191,-2.77783,0.97509,1.57080,0.00000,-0.14512,-0.38003,0.04617,,,,,,,,,,,,,,,,,,,,,,,,,,0,0,0,0,0
1.1029,1783187480.4221,1,1,1.0000,0.0000,1.44682,0.23190,-2.77783,0.97510,1.57080,0.00000,-0.14512,-0.38003,0.04617,,,,,,,,,,,,,,,,,,,,,,,,,,0,0,0,0,0
1.1122,1783187480.4315,1,1,1.0000,0.0000,1.44682,0.23184,-2.77785,0.97518,1.57080,0.00000,-0.14512,-0.38003,0.04615,,,,,,,,,,,,,,,,,,,,,,,,,,0,0,0,0,0
1.1125,1783187480.4318,1,1,1.0000,0.0000,1.44682,0.23184,-2.77785,0.97518,1.57080,0.00000,-0.14512,-0.38003,0.04615,,,,,,,,,,,,,,,,,,,,,,,,,,0,0,0,0,0
1.1221,1783187480.4414,1,1,1.0000,0.0000,1.44682,0.23174,-2.77787,0.97531,1.57080,0.00000,-0.14512,-0.38003,0.04612,,,,,,,,,,,,,,,,,,,,,,,,,,0,0,0,0,0
1.1387,1783187480.4580,1,1,1.0000,0.0000,1.44682,0.23160,-2.77791,0.97548,1.57080,0.00000,-0.14512,-0.38003,0.04609,,,,,,,,,,,,,,,,,,,,,,,,,,0,0,0,0,0
1.1432,1783187480.4624,1,1,1.0000,0.0000,1.44682,0.23156,-2.77792,0.97553,1.57080,0.00000,-0.14512,-0.38003,0.04608,,,,,,,,,,,,,,,,,,,,,,,,,,0,0,0,0,0
1.1549,1783187480.4741,1,1,1.0000,0.0000,1.44682,0.23141,-2.77796,0.97571,1.57080,0.00000,-0.14512,-0.38003,0.04604,,,,,,,,,,,,,,,,,,,,,,,,,,0,0,0,0,0
1.1553,1783187480.4745,1,1,1.0000,0.0000,1.44682,0.23141,-2.77796,0.97571,1.57080,0.00000,-0.14512,-0.38003,0.04604,,,,,,,,,,,,,,,,,,,,,,,,,,0,0,0,0,0
1.1686,1783187480.4879,1,1,1.0000,0.0000,1.44682,0.23138,-2.77797,0.97575,1.57080,0.00000,-0.14512,-0.38003,0.04603,,,,,,,,,,,,,,,,,,,,,,,,,,0,0,0,0,0
1.1691,1783187480.4883,1,1,1.0000,0.0000,1.44682,0.23138,-2.77797,0.97575,1.57080,0.00000,-0.14512,-0.38003,0.04603,,,,,,,,,,,,,,,,,,,,,,,,,,0,0,0,0,0
1.1719,1783187480.4912,1,1,1.0000,0.0000,1.44682,0.23135,-2.77797,0.97580,1.57080,0.00000,-0.14512,-0.38003,0.04602,,,,,,,,,,,,,,,,,,,,,,,,,,0,0,0,0,0
1.1723,1783187480.4915,1,1,1.0000,0.0000,1.44682,0.23135,-2.77797,0.97580,1.57080,0.00000,-0.14512,-0.38003,0.04602,,,,,,,,,,,,,,,,,,,,,,,,,,0,0,0,0,0
1.1831,1783187480.5023,1,1,1.0000,0.0000,1.44682,0.23120,-2.77801,0.97598,1.57080,0.00000,-0.14512,-0.38003,0.04598,,,,,,,,,,,,,,,,,,,,,,,,,,0,0,0,0,0
1.1943,1783187480.5135,1,1,1.0000,0.0000,1.44682,0.23115,-2.77803,0.97605,1.57080,0.00000,-0.14512,-0.38003,0.04597,,,,,,,,,,,,,,,,,,,,,,,,,,0,0,0,0,0
1.2047,1783187480.5240,1,1,1.0000,0.0000,1.44682,0.23108,-2.77804,0.97614,1.57080,0.00000,-0.14512,-0.38003,0.04595,,,,,,,,,,,,,,,,,,,,,,,,,,0,0,0,0,0
1.2050,1783187480.5243,1,1,1.0000,0.0000,1.44682,0.23108,-2.77804,0.97614,1.57080,0.00000,-0.14512,-0.38003,0.04595,,,,,,,,,,,,,,,,,,,,,,,,,,0,0,0,0,0
1.2147,1783187480.5340,1,1,1.0000,0.0000,1.44682,0.23098,-2.77807,0.97626,1.57080,0.00000,-0.14512,-0.38003,0.04593,,,,,,,,,,,,,,,,,,,,,,,,,,0,0,0,0,0
1.2153,1783187480.5346,1,1,1.0000,0.0000,1.44682,0.23093,-2.77808,0.97632,1.57080,0.00000,-0.14512,-0.38003,0.04591,,,,,,,,,,,,,,,,,,,,,,,,,,0,0,0,0,0
1.2222,1783187480.5415,1,1,1.0000,0.0000,1.44682,0.23093,-2.77808,0.97632,1.57080,0.00000,-0.14512,-0.38003,0.04591,,,,,,,,,,,,,,,,,,,,,,,,,,0,0,0,0,0
1.2324,1783187480.5516,1,1,1.0000,0.0000,1.44682,0.23086,-2.77810,0.97641,1.57080,0.00000,-0.14512,-0.38003,0.04590,,,,,,,,,,,,,,,,,,,,,,,,,,0,0,0,0,0
1.2445,1783187480.5637,1,1,1.0000,0.0000,1.44682,0.23071,-2.77814,0.97660,1.57080,0.00000,-0.14512,-0.38003,0.04586,,,,,,,,,,,,,,,,,,,,,,,,,,0,0,0,0,0
1.2522,1783187480.5715,1,1,1.0000,0.0000,1.44682,0.23066,-2.77815,0.97666,1.57080,0.00000,-0.14512,-0.38003,0.04584,,,,,,,,,,,,,,,,,,,,,,,,,,0,0,0,0,0
1.2669,1783187480.5861,1,1,1.0000,0.0000,1.44682,0.23055,-2.77818,0.97680,1.57080,0.00000,-0.14512,-0.38003,0.04581,,,,,,,,,,,,,,,,,,,,,,,,,,0,0,0,0,0
1.2718,1783187480.5910,1,1,1.0000,0.0000,1.44682,0.23049,-2.77819,0.97687,1.57080,0.00000,-0.14512,-0.38003,0.04580,,,,,,,,,,,,,,,,,,,,,,,,,,0,0,0,0,0
1.2821,1783187480.6014,1,1,1.0000,0.0000,1.44682,0.23044,-2.77821,0.97693,1.57080,0.00000,-0.14512,-0.38003,0.04579,,,,,,,,,,,,,,,,,,,,,,,,,,0,0,0,0,0
1.2971,1783187480.6164,1,1,1.0000,0.0000,1.44682,0.23033,-2.77824,0.97708,1.57080,0.00000,-0.14512,-0.38003,0.04576,,,,,,,,,,,,,,,,,,,,,,,,,,0,0,0,0,0
1.3035,1783187480.6227,1,1,1.0000,0.0000,1.44682,0.23023,-2.77826,0.97721,1.57080,0.00000,-0.14512,-0.38003,0.04573,,,,,,,,,,,,,,,,,,,,,,,,,,0,0,0,0,0
1.3133,1783187480.6326,1,1,1.0000,0.0000,1.44682,0.23017,-2.77828,0.97727,1.57080,0.00000,-0.14512,-0.38003,0.04572,,,,,,,,,,,,,,,,,,,,,,,,,,0,0,0,0,0
1.3255,1783187480.6447,1,1,1.0000,0.0000,1.44682,0.23010,-2.77829,0.97736,1.57080,0.00000,-0.14512,-0.38003,0.04570,,,,,,,,,,,,,,,,,,,,,,,,,,0,0,0,0,0
1.3391,1783187480.6583,1,1,1.0000,0.0000,1.44682,0.22990,-2.77834,0.97761,1.57080,0.00000,-0.14512,-0.38003,0.04565,,,,,,,,,,,,,,,,,,,,,,,,,,0,0,0,0,0
1.3432,1783187480.6624,1,1,1.0000,0.0000,1.44682,0.22990,-2.77834,0.97761,1.57080,0.00000,-0.14512,-0.38003,0.04565,,,,,,,,,,,,,,,,,,,,,,,,,,0,0,0,0,0
1.3534,1783187480.6726,1,1,1.0000,0.0000,1.44682,0.22988,-2.77835,0.97764,1.57080,0.00000,-0.14512,-0.38003,0.04564,,,,,,,,,,,,,,,,,,,,,,,,,,0,0,0,0,0
1.3676,1783187480.6868,1,1,1.0000,0.0000,1.44682,0.22973,-2.77839,0.97782,1.57080,0.00000,-0.14512,-0.38003,0.04560,,,,,,,,,,,,,,,,,,,,,,,,,,0,0,0,0,0
1.3738,1783187480.6930,1,1,1.0000,0.0000,1.44682,0.22973,-2.77839,0.97782,1.57080,0.00000,-0.14512,-0.38003,0.04560,,,,,,,,,,,,,,,,,,,,,,,,,,0,0,0,0,0
1.3741,1783187480.6933,1,1,1.0000,0.0000,1.44682,0.22973,-2.77839,0.97782,1.57080,0.00000,-0.14512,-0.38003,0.04560,,,,,,,,,,,,,,,,,,,,,,,,,,0,0,0,0,0
1.3823,1783187480.7016,1,1,1.0000,0.0000,1.44682,0.22970,-2.77840,0.97787,1.57080,0.00000,-0.14512,-0.38003,0.04559,,,,,,,,,,,,,,,,,,,,,,,,,,0,0,0,0,0
1.3980,1783187480.7173,1,1,1.0000,0.0000,1.44682,0.22951,-2.77845,0.97811,1.57080,0.00000,-0.14512,-0.38003,0.04554,,,,,,,,,,,,,,,,,,,,,,,,,,0,0,0,0,0
1.4019,1783187480.7211,1,1,1.0000,0.0000,1.44682,0.22946,-2.77846,0.97817,1.57080,0.00000,-0.14512,-0.38003,0.04553,,,,,,,,,,,,,,,,,,,,,,,,,,0,0,0,0,0
1.4022,1783187480.7214,1,1,1.0000,0.0000,1.44682,0.22946,-2.77846,0.97817,1.57080,0.00000,-0.14512,-0.38003,0.04553,,,,,,,,,,,,,,,,,,,,,,,,,,0,0,0,0,0
1.4122,1783187480.7314,1,1,1.0000,0.0000,1.44682,0.22943,-2.77847,0.97820,1.57080,0.00000,-0.14512,-0.38003,0.04552,,,,,,,,,,,,,,,,,,,,,,,,,,0,0,0,0,0
1.4219,1783187480.7411,1,1,1.0000,0.0000,1.44682,0.22937,-2.77848,0.97828,1.57080,0.00000,-0.14512,-0.38003,0.04551,,,,,,,,,,,,,,,,,,,,,,,,,,0,0,0,0,0
1.4222,1783187480.7414,1,1,1.0000,0.0000,1.44682,0.22937,-2.77848,0.97828,1.57080,0.00000,-0.14512,-0.38003,0.04551,,,,,,,,,,,,,,,,,,,,,,,,,,0,0,0,0,0
1.4330,1783187480.7522,1,1,1.0000,0.0000,1.44682,0.22929,-2.77850,0.97839,1.57080,0.00000,-0.14512,-0.38003,0.04549,,,,,,,,,,,,,,,,,,,,,,,,,,0,0,0,0,0
1.4444,1783187480.7636,1,1,1.0000,0.0000,1.44682,0.22921,-2.77852,0.97848,1.57080,0.00000,-0.14512,-0.38003,0.04547,,,,,,,,,,,,,,,,,,,,,,,,,,0,0,0,0,0
1.4542,1783187480.7735,1,1,1.0000,0.0000,1.44682,0.22912,-2.77855,0.97860,1.57080,0.00000,-0.14512,-0.38003,0.04544,,,,,,,,,,,,,,,,,,,,,,,,,,0,0,0,0,0
1.4631,1783187480.7824,1,1,1.0000,0.0000,1.44682,0.22901,-2.77857,0.97873,1.57080,0.00000,-0.14512,-0.38003,0.04541,,,,,,,,,,,,,,,,,,,,,,,,,,0,0,0,0,0
1.4757,1783187480.7949,1,1,1.0000,0.0000,1.44682,0.22896,-2.77859,0.97880,1.57080,0.00000,-0.14512,-0.38003,0.04540,,,,,,,,,,,,,,,,,,,,,,,,,,0,0,0,0,0
1.4817,1783187480.8009,1,1,1.0000,0.0000,1.44682,0.22892,-2.77860,0.97884,1.57080,0.00000,-0.14512,-0.38003,0.04539,,,,,,,,,,,,,,,,,,,,,,,,,,0,0,0,0,0
1.4820,1783187480.8013,1,1,1.0000,0.0000,1.44682,0.22892,-2.77860,0.97884,1.57080,0.00000,-0.14512,-0.38003,0.04539,,,,,,,,,,,,,,,,,,,,,,,,,,0,0,0,0,0
1.5002,1783187480.8194,1,1,1.0000,0.0000,1.44682,0.22880,-2.77863,0.97899,1.57080,0.00000,-0.14512,-0.38003,0.04536,,,,,,,,,,,,,,,,,,,,,,,,,,0,0,0,0,0
1.5030,1783187480.8222,1,1,1.0000,0.0000,1.44682,0.22877,-2.77864,0.97904,1.57080,0.00000,-0.14512,-0.38003,0.04535,,,,,,,,,,,,,,,,,,,,,,,,,,0,0,0,0,0
1.5128,1783187480.8320,1,1,1.0000,0.0000,1.44682,0.22867,-2.77866,0.97916,1.57080,0.00000,-0.14512,-0.38003,0.04533,,,,,,,,,,,,,,,,,,,,,,,,,,0,0,0,0,0
1.5218,1783187480.8411,1,1,1.0000,0.0000,1.44682,0.22856,-2.77869,0.97929,1.57080,0.00000,-0.14512,-0.38003,0.04530,,,,,,,,,,,,,,,,,,,,,,,,,,0,0,0,0,0
1.5222,1783187480.8414,1,1,1.0000,0.0000,1.44682,0.22856,-2.77869,0.97929,1.57080,0.00000,-0.14512,-0.38003,0.04530,,,,,,,,,,,,,,,,,,,,,,,,,,0,0,0,0,0
1.5396,1783187480.8588,1,1,1.0000,0.0000,1.44682,0.22848,-2.77871,0.97940,1.57080,0.00000,-0.14512,-0.38003,0.04528,,,,,,,,,,,,,,,,,,,,,,,,,,0,0,0,0,0
1.5401,1783187480.8593,1,1,1.0000,0.0000,1.44682,0.22848,-2.77871,0.97940,1.57080,0.00000,-0.14512,-0.38003,0.04528,,,,,,,,,,,,,,,,,,,,,,,,,,0,0,0,0,0
1.5497,1783187480.8689,1,1,1.0000,0.0000,1.44682,0.22839,-2.77873,0.97951,1.57080,0.00000,-0.14512,-0.38003,0.04525,,,,,,,,,,,,,,,,,,,,,,,,,,0,0,0,0,0
1.5526,1783187480.8718,1,1,1.0000,0.0000,1.44682,0.22839,-2.77873,0.97951,1.57080,0.00000,-0.14512,-0.38003,0.04525,,,,,,,,,,,,,,,,,,,,,,,,,,0,0,0,0,0
1.5530,1783187480.8722,1,1,1.0000,0.0000,1.44682,0.22839,-2.77873,0.97951,1.57080,0.00000,-0.14512,-0.38003,0.04525,,,,,,,,,,,,,,,,,,,,,,,,,,0,0,0,0,0
1.5647,1783187480.8839,1,1,1.0000,0.0000,1.44682,0.22832,-2.77875,0.97960,1.57080,0.00000,-0.14512,-0.38003,0.04523,,,,,,,,,,,,,,,,,,,,,,,,,,0,0,0,0,0
1.5748,1783187480.8941,1,1,1.0000,0.0000,1.44682,0.22817,-2.77879,0.97979,1.57080,0.00000,-0.14512,-0.38003,0.04519,,,,,,,,,,,,,,,,,,,,,,,,,,0,0,0,0,0
1.5929,1783187480.9122,1,1,1.0000,0.0000,1.44682,0.22809,-2.77881,0.97989,1.57080,0.00000,-0.14512,-0.38003,0.04518,,,,,,,,,,,,,,,,,,,,,,,,,,0,0,0,0,0
1.5935,1783187480.9127,1,1,1.0000,0.0000,1.44682,0.22809,-2.77881,0.97989,1.57080,0.00000,-0.14512,-0.38003,0.04518,,,,,,,,,,,,,,,,,,,,,,,,,,0,0,0,0,0
1.6029,1783187480.9221,1,1,1.0000,0.0000,1.44682,0.22803,-2.77882,0.97996,1.57080,0.00000,-0.14512,-0.38003,0.04516,,,,,,,,,,,,,,,,,,,,,,,,,,0,0,0,0,0
1.6193,1783187480.9385,1,1,1.0000,0.0000,1.44682,0.22790,-2.77886,0.98013,1.57080,0.00000,-0.14512,-0.38003,0.04513,,,,,,,,,,,,,,,,,,,,,,,,,,0,0,0,0,0
1.6278,1783187480.9470,1,1,1.0000,0.0000,1.44682,0.22787,-2.77886,0.98016,1.57080,0.00000,-0.14512,-0.38003,0.04512,,,,,,,,,,,,,,,,,,,,,,,,,,0,0,0,0,0
1.6326,1783187480.9518,1,1,1.0000,0.0000,1.44682,0.22780,-2.77888,0.98025,1.57080,0.00000,-0.14512,-0.38003,0.04510,,,,,,,,,,,,,,,,,,,,,,,,,,0,0,0,0,0
1.6477,1783187480.9670,1,1,1.0000,0.0000,1.44682,0.22771,-2.77891,0.98037,1.57080,0.00000,-0.14512,-0.38003,0.04508,,,,,,,,,,,,,,,,,,,,,,,,,,0,0,0,0,0
1.6533,1783187480.9725,1,1,1.0000,0.0000,1.44682,0.22769,-2.77891,0.98039,1.57080,0.00000,-0.14512,-0.38003,0.04507,,,,,,,,,,,,,,,,,,,,,,,,,,0,0,0,0,0
1.6669,1783187480.9861,1,1,1.0000,0.0000,1.44682,0.22758,-2.77894,0.98053,1.57080,0.00000,-0.14512,-0.38003,0.04504,,,,,,,,,,,,,,,,,,,,,,,,,,0,0,0,0,0
1.6760,1783187480.9953,1,1,1.0000,0.0000,1.44682,0.22752,-2.77895,0.98060,1.57080,0.00000,-0.14512,-0.38003,0.04503,,,,,,,,,,,,,,,,,,,,,,,,,,0,0,0,0,0
1.6839,1783187481.0031,1,1,1.0000,0.0000,1.44682,0.22746,-2.77897,0.98068,1.57080,0.00000,-0.14512,-0.38003,0.04501,,,,,,,,,,,,,,,,,,,,,,,,,,0,0,0,0,0
1.6920,1783187481.0112,1,1,1.0000,0.0000,1.44682,0.22736,-2.77899,0.98080,1.57080,0.00000,-0.14512,-0.38003,0.04499,,,,,,,,,,,,,,,,,,,,,,,,,,0,0,0,0,0
1.7060,1783187481.0252,1,1,1.0000,0.0000,1.44682,0.22725,-2.77902,0.98093,1.57080,0.00000,-0.14512,-0.38003,0.04496,,,,,,,,,,,,,,,,,,,,,,,,,,0,0,0,0,0
1.7175,1783187481.0367,1,1,1.0000,0.0000,1.44682,0.22720,-2.77903,0.98100,1.57080,0.00000,-0.14512,-0.38003,0.04494,,,,,,,,,,,,,,,,,,,,,,,,,,0,0,0,0,0
1.7263,1783187481.0456,1,1,1.0000,0.0000,1.44682,0.22713,-2.77905,0.98109,1.57080,0.00000,-0.14512,-0.38003,0.04492,,,,,,,,,,,,,,,,,,,,,,,,,,0,0,0,0,0
1.7336,1783187481.0528,1,1,1.0000,0.0000,1.44682,0.22708,-2.77906,0.98115,1.57080,0.00001,-0.14512,-0.38003,0.04491,,,,,,,,,,,,,,,,,,,,,,,,,,0,0,0,0,0
1.7419,1783187481.0612,1,1,1.0000,0.0000,1.44682,0.22705,-2.77907,0.98119,1.57080,0.00001,-0.14512,-0.38003,0.04490,,,,,,,,,,,,,,,,,,,,,,,,,,0,0,0,0,0
1.7546,1783187481.0738,1,1,1.0000,0.0000,1.44682,0.22691,-2.77911,0.98136,1.57080,0.00001,-0.14512,-0.38003,0.04487,,,,,,,,,,,,,,,,,,,,,,,,,,0,0,0,0,0
1.7684,1783187481.0877,1,1,1.0000,0.0000,1.44682,0.22680,-2.77914,0.98150,1.57080,0.00001,-0.14512,-0.38003,0.04484,,,,,,,,,,,,,,,,,,,,,,,,,,0,0,0,0,0
1.7718,1783187481.0910,1,1,1.0000,0.0000,1.44682,0.22678,-2.77914,0.98153,1.57080,0.00001,-0.14512,-0.38003,0.04484,,,,,,,,,,,,,,,,,,,,,,,,,,0,0,0,0,0
1.7722,1783187481.0914,1,1,1.0000,0.0000,1.44682,0.22678,-2.77914,0.98153,1.57080,0.00001,-0.14512,-0.38003,0.04484,,,,,,,,,,,,,,,,,,,,,,,,,,0,0,0,0,0
1.7834,1783187481.1027,1,1,1.0000,0.0000,1.44682,0.22668,-2.77917,0.98166,1.57080,0.00001,-0.14512,-0.38003,0.04481,,,,,,,,,,,,,,,,,,,,,,,,,,0,0,0,0,0
1.7919,1783187481.1111,1,1,1.0000,0.0000,1.44682,0.22663,-2.77918,0.98171,1.57080,0.00001,-0.14512,-0.38003,0.04480,,,,,,,,,,,,,,,,,,,,,,,,,,0,0,0,0,0
1.7922,1783187481.1115,1,1,1.0000,0.0000,1.44682,0.22663,-2.77918,0.98171,1.57080,0.00001,-0.14512,-0.38003,0.04480,,,,,,,,,,,,,,,,,,,,,,,,,,0,0,0,0,0
1.8062,1783187481.1255,1,1,1.0000,0.0000,1.44682,0.22656,-2.77920,0.98180,1.57080,0.00001,-0.14512,-0.38003,0.04478,,,,,,,,,,,,,,,,,,,,,,,,,,0,0,0,0,0
1.8126,1783187481.1318,1,1,1.0000,0.0000,1.44682,0.22646,-2.77922,0.98193,1.57080,0.00001,-0.14512,-0.38003,0.04475,,,,,,,,,,,,,,,,,,,,,,,,,,0,0,0,0,0
1.8235,1783187481.1427,1,1,1.0000,0.0000,1.44682,0.22636,-2.77925,0.98206,1.57080,0.00001,-0.14512,-0.38003,0.04473,,,,,,,,,,,,,,,,,,,,,,,,,,0,0,0,0,0
1.8319,1783187481.1512,1,1,1.0000,0.0000,1.44682,0.22633,-2.77925,0.98209,1.57080,0.00001,-0.14512,-0.38003,0.04472,,,,,,,,,,,,,,,,,,,,,,,,,,0,0,0,0,0
1.8436,1783187481.1628,1,1,1.0000,0.0000,1.44682,0.22623,-2.77928,0.98222,1.57080,0.00001,-0.14512,-0.38003,0.04469,,,,,,,,,,,,,,,,,,,,,,,,,,0,0,0,0,0
1.8570,1783187481.1763,1,1,1.0000,0.0000,1.44682,0.22618,-2.77929,0.98229,1.57080,0.00001,-0.14512,-0.38003,0.04468,,,,,,,,,,,,,,,,,,,,,,,,,,0,0,0,0,0
1.8573,1783187481.1766,1,1,1.0000,0.0000,1.44682,0.22618,-2.77929,0.98229,1.57080,0.00001,-0.14512,-0.38003,0.04468,,,,,,,,,,,,,,,,,,,,,,,,,,0,0,0,0,0
1.8666,1783187481.1859,1,1,1.0000,0.0000,1.44682,0.22611,-2.77931,0.98237,1.57080,0.00001,-0.14512,-0.38003,0.04466,,,,,,,,,,,,,,,,,,,,,,,,,,0,0,0,0,0
1.8721,1783187481.1914,1,1,1.0000,0.0000,1.44682,0.22601,-2.77933,0.98249,1.57080,0.00001,-0.14512,-0.38003,0.04464,,,,,,,,,,,,,,,,,,,,,,,,,,0,0,0,0,0
1.8726,1783187481.1918,1,1,1.0000,0.0000,1.44682,0.22601,-2.77933,0.98249,1.57080,0.00001,-0.14512,-0.38003,0.04464,,,,,,,,,,,,,,,,,,,,,,,,,,0,0,0,0,0
1.8856,1783187481.2048,1,1,1.0000,0.0000,1.44682,0.22591,-2.77936,0.98262,1.57080,0.00001,-0.14512,-0.38003,0.04461,,,,,,,,,,,,,,,,,,,,,,,,,,0,0,0,0,0
1.8940,1783187481.2132,1,1,1.0000,0.0000,1.44682,0.22588,-2.77937,0.98265,1.57080,0.00001,-0.14512,-0.38003,0.04460,,,,,,,,,,,,,,,,,,,,,,,,,,0,0,0,0,0
1.9126,1783187481.2318,1,1,1.0000,0.0000,1.44682,0.22574,-2.77940,0.98284,1.57080,0.00001,-0.14512,-0.38003,0.04456,,,,,,,,,,,,,,,,,,,,,,,,,,0,0,0,0,0
1.9129,1783187481.2322,1,1,1.0000,0.0000,1.44682,0.22574,-2.77940,0.98284,1.57080,0.00001,-0.14512,-0.38003,0.04456,,,,,,,,,,,,,,,,,,,,,,,,,,0,0,0,0,0
1.9228,1783187481.2420,1,1,1.0000,0.0000,1.44682,0.22570,-2.77941,0.98288,1.57080,0.00001,-0.14512,-0.38003,0.04456,,,,,,,,,,,,,,,,,,,,,,,,,,0,0,0,0,0
1.9319,1783187481.2511,1,1,1.0000,0.0000,1.44682,0.22556,-2.77945,0.98305,1.57080,0.00001,-0.14512,-0.38003,0.04452,,,,,,,,,,,,,,,,,,,,,,,,,,0,0,0,0,0
1.9332,1783187481.2524,1,1,1.0000,0.0000,1.44682,0.22556,-2.77945,0.98305,1.57080,0.00001,-0.14512,-0.38003,0.04452,,,,,,,,,,,,,,,,,,,,,,,,,,0,0,0,0,0
1.9421,1783187481.2614,1,1,1.0000,0.0000,1.44682,0.22546,-2.77948,0.98318,1.57080,0.00001,-0.14512,-0.38003,0.04449,,,,,,,,,,,,,,,,,,,,,,,,,,0,0,0,0,0
1.9541,1783187481.2733,1,1,1.0000,0.0000,1.44682,0.22543,-2.77948,0.98322,1.57080,0.00001,-0.14512,-0.38003,0.04449,,,,,,,,,,,,,,,,,,,,,,,,,,0,0,0,0,0
1.9544,1783187481.2737,1,1,1.0000,0.0000,1.44682,0.22543,-2.77948,0.98322,1.57080,0.00001,-0.14512,-0.38003,0.04449,,,,,,,,,,,,,,,,,,,,,,,,,,0,0,0,0,0
1.9632,1783187481.2824,1,1,1.0000,0.0000,1.44682,0.22537,-2.77950,0.98329,1.57080,0.00001,-0.14512,-0.38003,0.04447,,,,,,,,,,,,,,,,,,,,,,,,,,0,0,0,0,0
1.9729,1783187481.2922,1,1,1.0000,0.0000,1.44682,0.22529,-2.77952,0.98340,1.57080,0.00001,-0.14512,-0.38003,0.04445,,,,,,,,,,,,,,,,,,,,,,,,,,0,0,0,0,0
1.9879,1783187481.3071,1,1,1.0000,0.0000,1.44682,0.22517,-2.77955,0.98355,1.57080,0.00001,-0.14512,-0.38002,0.04442,,,,,,,,,,,,,,,,,,,,,,,,,,0,0,0,0,0
1.9882,1783187481.3074,1,1,1.0000,0.0000,1.44682,0.22517,-2.77955,0.98355,1.57080,0.00001,-0.14512,-0.38002,0.04442,,,,,,,,,,,,,,,,,,,,,,,,,,0,0,0,0,0
1.9918,1783187481.3111,1,1,1.0000,0.0000,1.44682,0.22511,-2.77956,0.98362,1.57080,0.00001,-0.14512,-0.38002,0.04440,,,,,,,,,,,,,,,,,,,,,,,,,,0,0,0,0,0
1.9923,1783187481.3115,1,1,1.0000,0.0000,1.44682,0.22511,-2.77956,0.98362,1.57080,0.00001,-0.14512,-0.38002,0.04440,,,,,,,,,,,,,,,,,,,,,,,,,,0,0,0,0,0
2.0020,1783187481.3212,1,1,1.0000,0.0000,1.44682,0.22501,-2.77959,0.98375,1.57080,0.00001,-0.14512,-0.38002,0.04438,,,,,,,,,,,,,,,,,,,,,,,,,,0,0,0,0,0
2.0147,1783187481.3339,1,1,1.0000,0.0000,1.44682,0.22498,-2.77959,0.98378,1.57080,0.00001,-0.14512,-0.38002,0.04437,,,,,,,,,,,,,,,,,,,,,,,,,,0,0,0,0,0
2.0231,1783187481.3423,1,1,1.0000,0.0000,1.44682,0.22492,-2.77961,0.98386,1.57080,0.00001,-0.14512,-0.38002,0.04435,,,,,,,,,,,,,,,,,,,,,,,,,,0,0,0,0,0
2.0339,1783187481.3531,1,1,1.0000,0.0000,1.44682,0.22484,-2.77963,0.98396,1.57080,0.00001,-0.14512,-0.38002,0.04433,,,,,,,,,,,,,,,,,,,,,,,,,,0,0,0,0,0
2.0341,1783187481.3534,1,1,1.0000,0.0000,1.44682,0.22484,-2.77963,0.98396,1.57080,0.00001,-0.14512,-0.38002,0.04433,,,,,,,,,,,,,,,,,,,,,,,,,,0,0,0,0,0
2.0438,1783187481.3631,1,1,1.0000,0.0000,1.44682,0.22476,-2.77965,0.98405,1.57080,0.00001,-0.14512,-0.38002,0.04431,,,,,,,,,,,,,,,,,,,,,,,,,,0,0,0,0,0
2.0442,1783187481.3635,1,1,1.0000,0.0000,1.44682,0.22476,-2.77965,0.98405,1.57080,0.00001,-0.14512,-0.38002,0.04431,,,,,,,,,,,,,,,,,,,,,,,,,,0,0,0,0,0
2.0571,1783187481.3764,1,1,1.0000,0.0000,1.44682,0.22461,-2.77969,0.98425,1.57080,0.00001,-0.14512,-0.38002,0.04427,,,,,,,,,,,,,,,,,,,,,,,,,,0,0,0,0,0
2.0628,1783187481.3820,1,1,1.0000,0.0000,1.44682,0.22456,-2.77970,0.98431,1.57080,0.00001,-0.14512,-0.38002,0.04426,,,,,,,,,,,,,,,,,,,,,,,,,,0,0,0,0,0
2.0752,1783187481.3944,1,1,1.0000,0.0000,1.44682,0.22453,-2.77971,0.98435,1.57080,0.00001,-0.14512,-0.38002,0.04425,,,,,,,,,,,,,,,,,,,,,,,,,,0,0,0,0,0
2.0838,1783187481.4031,1,1,1.0000,0.0000,1.44682,0.22439,-2.77974,0.98452,1.57080,0.00001,-0.14512,-0.38002,0.04422,,,,,,,,,,,,,,,,,,,,,,,,,,0,0,0,0,0
2.0840,1783187481.4033,1,1,1.0000,0.0000,1.44682,0.22439,-2.77974,0.98452,1.57080,0.00001,-0.14512,-0.38002,0.04422,,,,,,,,,,,,,,,,,,,,,,,,,,0,0,0,0,0
2.0938,1783187481.4130,1,1,1.0000,0.0000,1.44682,0.22434,-2.77976,0.98459,1.57080,0.00001,-0.14512,-0.38002,0.04420,,,,,,,,,,,,,,,,,,,,,,,,,,0,0,0,0,0
2.1043,1783187481.4235,1,1,1.0000,0.0000,1.44682,0.22427,-2.77978,0.98467,1.57080,0.00001,-0.14512,-0.38002,0.04419,,,,,,,,,,,,,,,,,,,,,,,,,,0,0,0,0,0
2.1046,1783187481.4238,1,1,1.0000,0.0000,1.44682,0.22427,-2.77978,0.98467,1.57080,0.00001,-0.14512,-0.38002,0.04419,,,,,,,,,,,,,,,,,,,,,,,,,,0,0,0,0,0
2.1149,1783187481.4342,1,1,1.0000,0.0000,1.44682,0.22417,-2.77980,0.98479,1.57080,0.00001,-0.14512,-0.38002,0.04416,,,,,,,,,,,,,,,,,,,,,,,,,,0,0,0,0,0
2.1153,1783187481.4345,1,1,1.0000,0.0000,1.44682,0.22417,-2.77980,0.98479,1.57080,0.00001,-0.14512,-0.38002,0.04416,,,,,,,,,,,,,,,,,,,,,,,,,,0,0,0,0,0
2.1220,1783187481.4413,1,1,1.0000,0.0000,1.44682,0.22407,-2.77983,0.98492,1.57080,0.00001,-0.14512,-0.38002,0.04413,,,,,,,,,,,,,,,,,,,,,,,,,,0,0,0,0,0
2.1330,1783187481.4522,1,1,1.0000,0.0000,1.44682,0.22403,-2.77983,0.98497,1.57080,0.00001,-0.14512,-0.38002,0.04412,,,,,,,,,,,,,,,,,,,,,,,,,,0,0,0,0,0
2.1430,1783187481.4623,1,1,1.0000,0.0000,1.44682,0.22395,-2.77985,0.98507,1.57080,0.00001,-0.14512,-0.38002,0.04410,,,,,,,,,,,,,,,,,,,,,,,,,,0,0,0,0,0
2.1540,1783187481.4732,1,1,1.0000,0.0000,1.44682,0.22385,-2.77988,0.98520,1.57080,0.00001,-0.14512,-0.38002,0.04408,,,,,,,,,,,,,,,,,,,,,,,,,,0,0,0,0,0
2.1641,1783187481.4833,1,1,1.0000,0.0000,1.44682,0.22378,-2.77990,0.98529,1.57080,0.00001,-0.14512,-0.38002,0.04406,,,,,,,,,,,,,,,,,,,,,,,,,,0,0,0,0,0
2.1644,1783187481.4837,1,1,1.0000,0.0000,1.44682,0.22378,-2.77990,0.98529,1.57080,0.00001,-0.14512,-0.38002,0.04406,,,,,,,,,,,,,,,,,,,,,,,,,,0,0,0,0,0
2.1734,1783187481.4927,1,1,1.0000,0.0000,1.44682,0.22368,-2.77992,0.98541,1.57080,0.00001,-0.14512,-0.38002,0.04403,,,,,,,,,,,,,,,,,,,,,,,,,,0,0,0,0,0
2.1737,1783187481.4930,1,1,1.0000,0.0000,1.44682,0.22368,-2.77992,0.98541,1.57080,0.00001,-0.14512,-0.38002,0.04403,,,,,,,,,,,,,,,,,,,,,,,,,,0,0,0,0,0
2.1827,1783187481.5019,1,1,1.0000,0.0000,1.44682,0.22358,-2.77995,0.98554,1.57080,0.00001,-0.14512,-0.38002,0.04401,,,,,,,,,,,,,,,,,,,,,,,,,,0,0,0,0,0
2.1926,1783187481.5118,1,1,1.0000,0.0000,1.44682,0.22354,-2.77996,0.98558,1.57080,0.00001,-0.14512,-0.38002,0.04400,,,,,,,,,,,,,,,,,,,,,,,,,,0,0,0,0,0
2.1929,1783187481.5121,1,1,1.0000,0.0000,1.44682,0.22354,-2.77996,0.98558,1.57080,0.00001,-0.14512,-0.38002,0.04400,,,,,,,,,,,,,,,,,,,,,,,,,,0,0,0,0,0
2.2020,1783187481.5212,1,1,1.0000,0.0000,1.44682,0.22346,-2.77998,0.98569,1.57080,0.00001,-0.14512,-0.38002,0.04398,,,,,,,,,,,,,,,,,,,,,,,,,,0,0,0,0,0
2.2161,1783187481.5353,1,1,1.0000,0.0000,1.44682,0.22335,-2.78001,0.98583,1.57080,0.00001,-0.14512,-0.38002,0.04395,,,,,,,,,,,,,,,,,,,,,,,,,,0,0,0,0,0
2.2164,1783187481.5356,1,1,1.0000,0.0000,1.44682,0.22335,-2.78001,0.98583,1.57080,0.00001,-0.14512,-0.38002,0.04395,,,,,,,,,,,,,,,,,,,,,,,,,,0,0,0,0,0
2.2238,1783187481.5430,1,1,1.0000,0.0000,1.44682,0.22329,-2.78002,0.98590,1.57080,0.00001,-0.14512,-0.38002,0.04393,,,,,,,,,,,,,,,,,,,,,,,,,,0,0,0,0,0
2.2320,1783187481.5513,1,1,1.0000,0.0000,1.44682,0.22319,-2.78005,0.98602,1.57080,0.00001,-0.14512,-0.38002,0.04391,,,,,,,,,,,,,,,,,,,,,,,,,,0,0,0,0,0
2.2457,1783187481.5649,1,1,1.0000,0.0000,1.44682,0.22309,-2.78007,0.98615,1.57080,0.00001,-0.14512,-0.38002,0.04388,,,,,,,,,,,,,,,,,,,,,,,,,,0,0,0,0,0
2.2519,1783187481.5711,1,1,1.0000,0.0000,1.44682,0.22305,-2.78008,0.98620,1.57080,0.00001,-0.14512,-0.38002,0.04387,,,,,,,,,,,,,,,,,,,,,,,,,,0,0,0,0,0
2.2521,1783187481.5714,1,1,1.0000,0.0000,1.44682,0.22305,-2.78008,0.98620,1.57080,0.00001,-0.14512,-0.38002,0.04387,,,,,,,,,,,,,,,,,,,,,,,,,,0,0,0,0,0
2.2665,1783187481.5857,1,1,1.0000,0.0000,1.44682,0.22292,-2.78011,0.98636,1.57080,0.00001,-0.14512,-0.38002,0.04384,,,,,,,,,,,,,,,,,,,,,,,,,,0,0,0,0,0
2.2668,1783187481.5860,1,1,1.0000,0.0000,1.44682,0.22292,-2.78011,0.98636,1.57080,0.00001,-0.14512,-0.38002,0.04384,,,,,,,,,,,,,,,,,,,,,,,,,,0,0,0,0,0
2.2729,1783187481.5921,1,1,1.0000,0.0000,1.44682,0.22286,-2.78013,0.98643,1.57080,0.00001,-0.14512,-0.38002,0.04382,,,,,,,,,,,,,,,,,,,,,,,,,,0,0,0,0,0
2.2733,1783187481.5926,1,1,1.0000,0.0000,1.44682,0.22286,-2.78013,0.98643,1.57080,0.00001,-0.14512,-0.38002,0.04382,,,,,,,,,,,,,,,,,,,,,,,,,,0,0,0,0,0
2.2831,1783187481.6023,1,1,1.0000,0.0000,1.44682,0.22283,-2.78014,0.98647,1.57080,0.00001,-0.14512,-0.38002,0.04381,,,,,,,,,,,,,,,,,,,,,,,,,,0,0,0,0,0
2.2963,1783187481.6155,1,1,1.0000,0.0000,1.44681,0.22264,-2.78018,0.98671,1.57080,0.00001,-0.14512,-0.38002,0.04377,,,,,,,,,,,,,,,,,,,,,,,,,,0,0,0,0,0
2.3040,1783187481.6232,1,1,1.0000,0.0000,1.44681,0.22259,-2.78020,0.98677,1.57080,0.00001,-0.14512,-0.38002,0.04375,,,,,,,,,,,,,,,,,,,,,,,,,,0,0,0,0,0
2.3044,1783187481.6236,1,1,1.0000,0.0000,1.44681,0.22259,-2.78020,0.98677,1.57080,0.00001,-0.14512,-0.38002,0.04375,,,,,,,,,,,,,,,,,,,,,,,,,,0,0,0,0,0
2.3197,1783187481.6389,1,1,1.0000,0.0000,1.44681,0.22248,-2.78022,0.98692,1.57080,0.00001,-0.14512,-0.38002,0.04372,,,,,,,,,,,,,,,,,,,,,,,,,,0,0,0,0,0
2.3239,1783187481.6431,1,1,1.0000,0.0000,1.44681,0.22243,-2.78024,0.98698,1.57080,0.00001,-0.14512,-0.38002,0.04371,,,,,,,,,,,,,,,,,,,,,,,,,,0,0,0,0,0
2.3338,1783187481.6530,1,1,1.0000,0.0000,1.44681,0.22237,-2.78025,0.98705,1.57080,0.00001,-0.14512,-0.38002,0.04370,,,,,,,,,,,,,,,,,,,,,,,,,,0,0,0,0,0
2.3342,1783187481.6534,1,1,1.0000,0.0000,1.44681,0.22237,-2.78025,0.98705,1.57080,0.00001,-0.14512,-0.38002,0.04370,,,,,,,,,,,,,,,,,,,,,,,,,,0,0,0,0,0
2.3427,1783187481.6619,1,1,1.0000,0.0000,1.44681,0.22234,-2.78026,0.98709,1.57080,0.00001,-0.14512,-0.38002,0.04369,,,,,,,,,,,,,,,,,,,,,,,,,,0,0,0,0,0
2.3518,1783187481.6711,1,1,1.0000,0.0000,1.44681,0.22221,-2.78029,0.98726,1.57080,0.00001,-0.14512,-0.38002,0.04365,,,,,,,,,,,,,,,,,,,,,,,,,,0,0,0,0,0
2.3521,1783187481.6713,1,1,1.0000,0.0000,1.44681,0.22221,-2.78029,0.98726,1.57080,0.00001,-0.14512,-0.38002,0.04365,,,,,,,,,,,,,,,,,,,,,,,,,,0,0,0,0,0
2.3640,1783187481.6833,1,1,1.0000,0.0000,1.44681,0.22210,-2.78032,0.98739,1.57080,0.00001,-0.14512,-0.38002,0.04363,,,,,,,,,,,,,,,,,,,,,,,,,,0,0,0,0,0
2.3759,1783187481.6951,1,1,1.0000,0.0000,1.44681,0.22203,-2.78034,0.98747,1.57080,0.00001,-0.14512,-0.38002,0.04361,,,,,,,,,,,,,,,,,,,,,,,,,,0,0,0,0,0
2.3822,1783187481.7014,1,1,1.0000,0.0000,1.44681,0.22198,-2.78035,0.98753,1.57080,0.00001,-0.14512,-0.38002,0.04360,,,,,,,,,,,,,,,,,,,,,,,,,,0,0,0,0,0
2.3827,1783187481.7019,1,1,1.0000,0.0000,1.44681,0.22198,-2.78035,0.98753,1.57080,0.00001,-0.14512,-0.38002,0.04360,,,,,,,,,,,,,,,,,,,,,,,,,,0,0,0,0,0
2.3969,1783187481.7162,1,1,1.0000,0.0000,1.44681,0.22187,-2.78038,0.98767,1.57080,0.00001,-0.14512,-0.38002,0.04357,,,,,,,,,,,,,,,,,,,,,,,,,,0,0,0,0,0
2.4016,1783187481.7208,1,1,1.0000,0.0000,1.44681,0.22185,-2.78038,0.98770,1.57080,0.00001,-0.14512,-0.38002,0.04356,,,,,,,,,,,,,,,,,,,,,,,,,,0,0,0,0,0
2.4019,1783187481.7212,1,1,1.0000,0.0000,1.44681,0.22185,-2.78038,0.98770,1.57080,0.00001,-0.14512,-0.38002,0.04356,,,,,,,,,,,,,,,,,,,,,,,,,,0,0,0,0,0
2.4223,1783187481.7416,1,1,1.0000,0.0000,1.44681,0.22161,-2.78044,0.98800,1.57080,0.00001,-0.14512,-0.38002,0.04350,,,,,,,,,,,,,,,,,,,,,,,,,,0,0,0,0,0
2.4243,1783187481.7435,1,1,1.0000,0.0000,1.44681,0.22161,-2.78044,0.98800,1.57080,0.00001,-0.14512,-0.38002,0.04350,,,,,,,,,,,,,,,,,,,,,,,,,,0,0,0,0,0
2.4246,1783187481.7438,1,1,1.0000,0.0000,1.44681,0.22161,-2.78044,0.98800,1.57080,0.00001,-0.14512,-0.38002,0.04350,,,,,,,,,,,,,,,,,,,,,,,,,,0,0,0,0,0
2.4341,1783187481.7533,1,1,1.0000,0.0000,1.44681,0.22157,-2.78045,0.98804,1.57080,0.00001,-0.14512,-0.38002,0.04349,,,,,,,,,,,,,,,,,,,,,,,,,,0,0,0,0,0
2.4420,1783187481.7613,1,1,1.0000,0.0000,1.44681,0.22149,-2.78047,0.98815,1.57080,0.00001,-0.14512,-0.38002,0.04347,,,,,,,,,,,,,,,,,,,,,,,,,,0,0,0,0,0
2.4522,1783187481.7714,1,1,1.0000,0.0000,1.44681,0.22139,-2.78050,0.98828,1.57080,0.00001,-0.14512,-0.38002,0.04344,,,,,,,,,,,,,,,,,,,,,,,,,,0,0,0,0,0
2.4525,1783187481.7717,1,1,1.0000,0.0000,1.44681,0.22139,-2.78050,0.98828,1.57080,0.00001,-0.14512,-0.38002,0.04344,,,,,,,,,,,,,,,,,,,,,,,,,,0,0,0,0,0
2.4693,1783187481.7885,1,1,1.0000,0.0000,1.44681,0.22127,-2.78053,0.98842,1.57080,0.00001,-0.14512,-0.38002,0.04341,,,,,,,,,,,,,,,,,,,,,,,,,,0,0,0,0,0
2.4727,1783187481.7920,1,1,1.0000,0.0000,1.44681,0.22122,-2.78054,0.98849,1.57080,0.00001,-0.14512,-0.38002,0.04340,,,,,,,,,,,,,,,,,,,,,,,,,,0,0,0,0,0
2.4730,1783187481.7922,1,1,1.0000,0.0000,1.44681,0.22122,-2.78054,0.98849,1.57080,0.00001,-0.14512,-0.38002,0.04340,,,,,,,,,,,,,,,,,,,,,,,,,,0,0,0,0,0
2.4848,1783187481.8040,1,1,1.0000,0.0000,1.44681,0.22112,-2.78056,0.98862,1.57080,0.00001,-0.14512,-0.38002,0.04337,,,,,,,,,,,,,,,,,,,,,,,,,,0,0,0,0,0
2.4928,1783187481.8120,1,1,1.0000,0.0000,1.44681,0.22108,-2.78057,0.98866,1.57080,0.00001,-0.14512,-0.38002,0.04336,,,,,,,,,,,,,,,,,,,,,,,,,,0,0,0,0,0
2.5022,1783187481.8214,1,1,1.0000,0.0000,1.44681,0.22100,-2.78059,0.98876,1.57080,0.00001,-0.14512,-0.38002,0.04334,,,,,,,,,,,,,,,,,,,,,,,,,,0,0,0,0,0
2.5139,1783187481.8331,1,1,1.0000,0.0000,1.44681,0.22089,-2.78062,0.98889,1.57080,0.00001,-0.14512,-0.38002,0.04332,,,,,,,,,,,,,,,,,,,,,,,,,,0,0,0,0,0
2.5225,1783187481.8418,1,1,1.0000,0.0000,1.44681,0.22086,-2.78063,0.98894,1.57080,0.00001,-0.14512,-0.38002,0.04331,,,,,,,,,,,,,,,,,,,,,,,,,,0,0,0,0,0
2.5326,1783187481.8518,1,1,1.0000,0.0000,1.44681,0.22073,-2.78066,0.98910,1.57080,0.00001,-0.14512,-0.38002,0.04327,,,,,,,,,,,,,,,,,,,,,,,,,,0,0,0,0,0
2.5327,1783187481.8520,1,1,1.0000,0.0000,1.44681,0.22073,-2.78066,0.98910,1.57080,0.00001,-0.14512,-0.38002,0.04327,,,,,,,,,,,,,,,,,,,,,,,,,,0,0,0,0,0
2.5429,1783187481.8622,1,1,1.0000,0.0000,1.44681,0.22062,-2.78069,0.98923,1.57080,0.00001,-0.14512,-0.38002,0.04325,,,,,,,,,,,,,,,,,,,,,,,,,,0,0,0,0,0
2.5518,1783187481.8711,1,1,1.0000,0.0000,1.44681,0.22059,-2.78070,0.98928,1.57080,0.00001,-0.14512,-0.38002,0.04324,,,,,,,,,,,,,,,,,,,,,,,,,,0,0,0,0,0
2.5643,1783187481.8835,1,1,1.0000,0.0000,1.44681,0.22045,-2.78073,0.98944,1.57080,0.00001,-0.14512,-0.38002,0.04320,,,,,,,,,,,,,,,,,,,,,,,,,,0,0,0,0,0
2.5746,1783187481.8938,1,1,1.0000,0.0000,1.44681,0.22035,-2.78076,0.98957,1.57080,0.00001,-0.14512,-0.38002,0.04318,,,,,,,,,,,,,,,,,,,,,,,,,,0,0,0,0,0
2.5749,1783187481.8941,1,1,1.0000,0.0000,1.44681,0.22035,-2.78076,0.98957,1.57080,0.00001,-0.14512,-0.38002,0.04318,,,,,,,,,,,,,,,,,,,,,,,,,,0,0,0,0,0
2.5872,1783187481.9065,1,1,1.0000,0.0000,1.44681,0.22032,-2.78076,0.98961,1.57080,0.00001,-0.14512,-0.38002,0.04317,,,,,,,,,,,,,,,,,,,,,,,,,,0,0,0,0,0
2.5878,1783187481.9070,1,1,1.0000,0.0000,1.44681,0.22030,-2.78077,0.98964,1.57080,0.00001,-0.14512,-0.38002,0.04316,,,,,,,,,,,,,,,,,,,,,,,,,,0,0,0,0,0
2.5918,1783187481.9110,1,1,1.0000,0.0000,1.44681,0.22026,-2.78078,0.98968,1.57080,0.00001,-0.14512,-0.38002,0.04315,,,,,,,,,,,,,,,,,,,,,,,,,,0,0,0,0,0
2.5921,1783187481.9113,1,1,1.0000,0.0000,1.44681,0.22026,-2.78078,0.98968,1.57080,0.00001,-0.14512,-0.38002,0.04315,,,,,,,,,,,,,,,,,,,,,,,,,,0,0,0,0,0
2.6060,1783187481.9252,1,1,1.0000,0.0000,1.44681,0.22017,-2.78080,0.98979,1.57080,0.00001,-0.14512,-0.38002,0.04313,,,,,,,,,,,,,,,,,,,,,,,,,,0,0,0,0,0
2.6063,1783187481.9255,1,1,1.0000,0.0000,1.44681,0.22017,-2.78080,0.98979,1.57080,0.00001,-0.14512,-0.38002,0.04313,,,,,,,,,,,,,,,,,,,,,,,,,,0,0,0,0,0
2.6163,1783187481.9355,1,1,1.0000,0.0000,1.44681,0.22010,-2.78082,0.98988,1.57080,0.00001,-0.14512,-0.38002,0.04311,,,,,,,,,,,,,,,,,,,,,,,,,,0,0,0,0,0
2.6167,1783187481.9359,1,1,1.0000,0.0000,1.44681,0.22010,-2.78082,0.98988,1.57080,0.00001,-0.14512,-0.38002,0.04311,,,,,,,,,,,,,,,,,,,,,,,,,,0,0,0,0,0
2.6286,1783187481.9478,1,1,1.0000,0.0000,1.44681,0.21995,-2.78086,0.99008,1.57080,0.00001,-0.14512,-0.38002,0.04307,,,,,,,,,,,,,,,,,,,,,,,,,,0,0,0,0,0
2.6319,1783187481.9512,1,1,1.0000,0.0000,1.44681,0.21989,-2.78087,0.99014,1.57080,0.00001,-0.14512,-0.38002,0.04306,,,,,,,,,,,,,,,,,,,,,,,,,,0,0,0,0,0
2.6322,1783187481.9515,1,1,1.0000,0.0000,1.44681,0.21989,-2.78087,0.99014,1.57080,0.00001,-0.14512,-0.38002,0.04306,,,,,,,,,,,,,,,,,,,,,,,,,,0,0,0,0,0
2.6327,1783187481.9519,1,1,1.0000,0.0000,1.44681,0.21989,-2.78087,0.99014,1.57080,0.00001,-0.14512,-0.38002,0.04306,,,,,,,,,,,,,,,,,,,,,,,,,,0,0,0,0,0
2.6420,1783187481.9613,1,1,1.0000,0.0000,1.44681,0.21989,-2.78087,0.99015,1.57080,0.00001,-0.14512,-0.38002,0.04306,,,,,,,,,,,,,,,,,,,,,,,,,,0,0,0,0,0
2.6603,1783187481.9796,1,1,1.0000,0.0000,1.44681,0.21972,-2.78091,0.99036,1.57080,0.00001,-0.14512,-0.38002,0.04301,,,,,,,,,,,,,,,,,,,,,,,,,,0,0,0,0,0
2.6668,1783187481.9860,1,1,1.0000,0.0000,1.44681,0.21972,-2.78091,0.99036,1.57080,0.00001,-0.14512,-0.38002,0.04301,,,,,,,,,,,,,,,,,,,,,,,,,,0,0,0,0,0
2.6735,1783187481.9927,1,1,1.0000,0.0000,1.44681,0.21969,-2.78092,0.99040,1.57080,0.00001,-0.14512,-0.38002,0.04301,,,,,,,,,,,,,,,,,,,,,,,,,,0,0,0,0,0
2.6827,1783187482.0019,1,1,1.0000,0.0000,1.44681,0.21960,-2.78094,0.99051,1.57080,0.00001,-0.14512,-0.38002,0.04298,,,,,,,,,,,,,,,,,,,,,,,,,,0,0,0,0,0
2.6963,1783187482.0155,1,1,1.0000,0.0000,1.44681,0.21944,-2.78098,0.99071,1.57080,0.00001,-0.14512,-0.38002,0.04294,,,,,,,,,,,,,,,,,,,,,,,,,,0,0,0,0,0
2.7039,1783187482.0231,1,1,1.0000,0.0000,1.44681,0.21942,-2.78099,0.99074,1.57080,0.00001,-0.14512,-0.38002,0.04294,,,,,,,,,,,,,,,,,,,,,,,,,,0,0,0,0,0
2.7136,1783187482.0329,1,1,1.0000,0.0000,1.44681,0.21935,-2.78100,0.99082,1.57080,0.00001,-0.14512,-0.38002,0.04292,,,,,,,,,,,,,,,,,,,,,,,,,,0,0,0,0,0
2.7359,1783187482.0552,1,1,1.0000,0.0000,1.44681,0.21919,-2.78104,0.99102,1.57080,0.00001,-0.14512,-0.38002,0.04288,,,,,,,,,,,,,,,,,,,,,,,,,,0,0,0,0,0
2.7362,1783187482.0554,1,1,1.0000,0.0000,1.44681,0.21919,-2.78104,0.99102,1.57080,0.00001,-0.14512,-0.38002,0.04288,,,,,,,,,,,,,,,,,,,,,,,,,,0,0,0,0,0
2.7460,1783187482.0653,1,1,1.0000,0.0000,1.44681,0.21909,-2.78107,0.99114,1.57080,0.00001,-0.14512,-0.38002,0.04285,,,,,,,,,,,,,,,,,,,,,,,,,,0,0,0,0,0
2.7539,1783187482.0732,1,1,1.0000,0.0000,1.44681,0.21899,-2.78109,0.99127,1.57080,0.00001,-0.14512,-0.38002,0.04283,,,,,,,,,,,,,,,,,,,,,,,,,,0,0,0,0,0
2.7543,1783187482.0735,1,1,1.0000,0.0000,1.44681,0.21899,-2.78109,0.99127,1.57080,0.00001,-0.14512,-0.38002,0.04283,,,,,,,,,,,,,,,,,,,,,,,,,,0,0,0,0,0
2.7619,1783187482.0811,1,1,1.0000,0.0000,1.44681,0.21898,-2.78110,0.99128,1.57080,0.00001,-0.14512,-0.38002,0.04282,,,,,,,,,,,,,,,,,,,,,,,,,,0,0,0,0,0
2.7761,1783187482.0954,1,1,1.0000,0.0000,1.44681,0.21886,-2.78113,0.99143,1.57080,0.00001,-0.14512,-0.38002,0.04279,,,,,,,,,,,,,,,,,,,,,,,,,,0,0,0,0,0
2.7858,1783187482.1051,1,1,1.0000,0.0000,1.44681,0.21881,-2.78114,0.99149,1.57080,0.00001,-0.14512,-0.38002,0.04278,,,,,,,,,,,,,,,,,,,,,,,,,,0,0,0,0,0
2.7963,1783187482.1155,1,1,1.0000,0.0000,1.44681,0.21874,-2.78116,0.99158,1.57080,0.00001,-0.14512,-0.38002,0.04276,,,,,,,,,,,,,,,,,,,,,,,,,,0,0,0,0,0
2.7967,1783187482.1159,1,1,1.0000,0.0000,1.44681,0.21874,-2.78116,0.99158,1.57080,0.00001,-0.14512,-0.38002,0.04276,,,,,,,,,,,,,,,,,,,,,,,,,,0,0,0,0,0
2.8059,1783187482.1251,1,1,1.0000,0.0000,1.44681,0.21864,-2.78118,0.99171,1.57080,0.00001,-0.14512,-0.38002,0.04274,,,,,,,,,,,,,,,,,,,,,,,,,,0,0,0,0,0
2.8210,1783187482.1402,1,1,1.0000,0.0000,1.44681,0.21853,-2.78121,0.99185,1.57080,0.00001,-0.14512,-0.38002,0.04271,,,,,,,,,,,,,,,,,,,,,,,,,,0,0,0,0,0
2.8214,1783187482.1407,1,1,1.0000,0.0000,1.44681,0.21853,-2.78121,0.99185,1.57080,0.00001,-0.14512,-0.38002,0.04271,,,,,,,,,,,,,,,,,,,,,,,,,,0,0,0,0,0
2.8336,1783187482.1529,1,1,1.0000,0.0000,1.44681,0.21845,-2.78123,0.99195,1.57080,0.00001,-0.14512,-0.38002,0.04269,,,,,,,,,,,,,,,,,,,,,,,,,,0,0,0,0,0
2.8375,1783187482.1567,1,1,1.0000,0.0000,1.44681,0.21840,-2.78124,0.99200,1.57080,0.00001,-0.14512,-0.38002,0.04268,,,,,,,,,,,,,,,,,,,,,,,,,,0,0,0,0,0
2.8472,1783187482.1664,1,1,1.0000,0.0000,1.44681,0.21836,-2.78125,0.99206,1.57080,0.00001,-0.14512,-0.38002,0.04267,,,,,,,,,,,,,,,,,,,,,,,,,,0,0,0,0,0
2.8479,1783187482.1671,1,1,1.0000,0.0000,1.44681,0.21835,-2.78125,0.99207,1.57080,0.00001,-0.14512,-0.38002,0.04266,,,,,,,,,,,,,,,,,,,,,,,,,,0,0,0,0,0
2.8566,1783187482.1758,1,1,1.0000,0.0000,1.44681,0.21829,-2.78127,0.99215,1.57080,0.00001,-0.14512,-0.38002,0.04265,,,,,,,,,,,,,,,,,,,,,,,,,,0,0,0,0,0
2.8810,1783187482.2003,1,1,1.0000,0.0000,1.44681,0.21807,-2.78132,0.99241,1.57080,0.00001,-0.14512,-0.38002,0.04259,,,,,,,,,,,,,,,,,,,,,,,,,,0,0,0,0,0
2.9081,1783187482.2273,1,1,1.0000,0.0000,1.44681,0.21790,-2.78136,0.99263,1.57080,0.00001,-0.14512,-0.38002,0.04255,,,,,,,,,,,,,,,,,,,,,,,,,,0,0,0,0,0
2.9084,1783187482.2276,1,1,1.0000,0.0000,1.44681,0.21790,-2.78136,0.99263,1.57080,0.00001,-0.14512,-0.38002,0.04255,,,,,,,,,,,,,,,,,,,,,,,,,,0,0,0,0,0
2.9087,1783187482.2279,1,1,1.0000,0.0000,1.44681,0.21790,-2.78136,0.99263,1.57080,0.00001,-0.14512,-0.38002,0.04255,,,,,,,,,,,,,,,,,,,,,,,,,,0,0,0,0,0
3.0279,1783187482.3471,1,1,1.0000,0.0000,1.44681,0.21694,-2.78160,0.99382,1.57080,0.00001,-0.14512,-0.38002,0.04230,,,,,,,,,,,,,,,,,,,,,,,,,,0,0,0,0,0
3.0281,1783187482.3473,1,1,1.0000,0.0000,1.44681,0.21694,-2.78160,0.99382,1.57080,0.00001,-0.14512,-0.38002,0.04230,,,,,,,,,,,,,,,,,,,,,,,,,,0,0,0,0,0
3.0285,1783187482.3477,1,1,1.0000,0.0000,1.44681,0.21694,-2.78160,0.99382,1.57080,0.00001,-0.14512,-0.38002,0.04230,,,,,,,,,,,,,,,,,,,,,,,,,,0,0,0,0,0
3.0287,1783187482.3480,1,1,1.0000,0.0000,1.44681,0.21694,-2.78160,0.99382,1.57080,0.00001,-0.14512,-0.38002,0.04230,,,,,,,,,,,,,,,,,,,,,,,,,,0,0,0,0,0
3.0291,1783187482.3483,1,1,1.0000,0.0000,1.44681,0.21694,-2.78160,0.99382,1.57080,0.00001,-0.14512,-0.38002,0.04230,,,,,,,,,,,,,,,,,,,,,,,,,,0,0,0,0,0
3.0294,1783187482.3486,1,1,1.0000,0.0000,1.44681,0.21694,-2.78160,0.99382,1.57080,0.00001,-0.14512,-0.38002,0.04230,,,,,,,,,,,,,,,,,,,,,,,,,,0,0,0,0,0
3.0297,1783187482.3489,1,1,1.0000,0.0000,1.44681,0.21694,-2.78160,0.99382,1.57080,0.00001,-0.14512,-0.38002,0.04230,,,,,,,,,,,,,,,,,,,,,,,,,,0,0,0,0,0
3.0300,1783187482.3492,1,1,1.0000,0.0000,1.44681,0.21694,-2.78160,0.99382,1.57080,0.00001,-0.14512,-0.38002,0.04230,,,,,,,,,,,,,,,,,,,,,,,,,,0,0,0,0,0
3.0303,1783187482.3496,1,1,1.0000,0.0000,1.44681,0.21694,-2.78160,0.99382,1.57080,0.00001,-0.14512,-0.38002,0.04230,,,,,,,,,,,,,,,,,,,,,,,,,,0,0,0,0,0
3.0306,1783187482.3499,1,1,1.0000,0.0000,1.44681,0.21694,-2.78160,0.99382,1.57080,0.00001,-0.14512,-0.38002,0.04230,,,,,,,,,,,,,,,,,,,,,,,,,,0,0,0,0,0
3.0309,1783187482.3502,1,1,1.0000,0.0000,1.44681,0.21694,-2.78160,0.99382,1.57080,0.00001,-0.14512,-0.38002,0.04230,,,,,,,,,,,,,,,,,,,,,,,,,,0,0,0,0,0
3.0313,1783187482.3505,1,1,1.0000,0.0000,1.44681,0.21694,-2.78160,0.99382,1.57080,0.00001,-0.14512,-0.38002,0.04230,,,,,,,,,,,,,,,,,,,,,,,,,,0,0,0,0,0
3.0317,1783187482.3510,1,1,1.0000,0.0000,1.44681,0.21692,-2.78160,0.99385,1.57080,0.00001,-0.14512,-0.38002,0.04230,,,,,,,,,,,,,,,,,,,,,,,,,,0,0,0,0,0
3.0373,1783187482.3565,1,1,1.0000,0.0000,1.44681,0.21688,-2.78161,0.99390,1.57080,0.00001,-0.14512,-0.38002,0.04229,,,,,,,,,,,,,,,,,,,,,,,,,,0,0,0,0,0
3.0377,1783187482.3569,1,1,1.0000,0.0000,1.44681,0.21688,-2.78161,0.99390,1.57080,0.00001,-0.14512,-0.38002,0.04229,,,,,,,,,,,,,,,,,,,,,,,,,,0,0,0,0,0
3.0565,1783187482.3757,1,1,1.0000,0.0000,1.44681,0.21667,-2.78167,0.99416,1.57080,0.00001,-0.14512,-0.38002,0.04223,,,,,,,,,,,,,,,,,,,,,,,,,,0,0,0,0,0
3.0570,1783187482.3762,1,1,1.0000,0.0000,1.44681,0.21667,-2.78167,0.99416,1.57080,0.00001,-0.14512,-0.38002,0.04223,,,,,,,,,,,,,,,,,,,,,,,,,,0,0,0,0,0
3.0573,1783187482.3765,1,1,1.0000,0.0000,1.44681,0.21667,-2.78167,0.99416,1.57080,0.00001,-0.14512,-0.38002,0.04223,,,,,,,,,,,,,,,,,,,,,,,,,,0,0,0,0,0
3.0669,1783187482.3862,1,1,1.0000,0.0000,1.44681,0.21664,-2.78167,0.99420,1.57080,0.00001,-0.14512,-0.38002,0.04223,,,,,,,,,,,,,,,,,,,,,,,,,,0,0,0,0,0
3.1153,1783187482.4346,1,1,1.0000,0.0000,1.44681,0.21618,-2.78179,0.99478,1.57080,0.00001,-0.14512,-0.38002,0.04211,,,,,,,,,,,,,,,,,,,,,,,,,,0,0,0,0,0
3.1194,1783187482.4386,1,1,1.0000,0.0000,1.44681,0.21618,-2.78179,0.99478,1.57080,0.00001,-0.14512,-0.38002,0.04211,,,,,,,,,,,,,,,,,,,,,,,,,,0,0,0,0,0
3.1202,1783187482.4395,1,1,1.0000,0.0000,1.44681,0.21617,-2.78179,0.99479,1.57080,0.00001,-0.14512,-0.38002,0.04211,,,,,,,,,,,,,,,,,,,,,,,,,,0,0,0,0,0
3.1204,1783187482.4397,1,1,1.0000,0.0000,1.44681,0.21617,-2.78179,0.99479,1.57080,0.00001,-0.14512,-0.38002,0.04211,,,,,,,,,,,,,,,,,,,,,,,,,,0,0,0,0,0
3.1207,1783187482.4399,1,1,1.0000,0.0000,1.44681,0.21617,-2.78179,0.99479,1.57080,0.00001,-0.14512,-0.38002,0.04211,,,,,,,,,,,,,,,,,,,,,,,,,,0,0,0,0,0
3.1566,1783187482.4759,1,1,1.0000,0.0000,1.44681,0.21588,-2.78186,0.99515,1.57080,0.00001,-0.14512,-0.38002,0.04203,,,,,,,,,,,,,,,,,,,,,,,,,,0,0,0,0,0
3.1568,1783187482.4761,1,1,1.0000,0.0000,1.44681,0.21588,-2.78186,0.99515,1.57080,0.00001,-0.14512,-0.38002,0.04203,,,,,,,,,,,,,,,,,,,,,,,,,,0,0,0,0,0
3.1630,1783187482.4823,1,1,1.0000,0.0000,1.44681,0.21585,-2.78187,0.99519,1.57080,0.00001,-0.14512,-0.38002,0.04202,,,,,,,,,,,,,,,,,,,,,,,,,,0,0,0,0,0
3.1634,1783187482.4827,1,1,1.0000,0.0000,1.44681,0.21585,-2.78187,0.99519,1.57080,0.00001,-0.14512,-0.38002,0.04202,,,,,,,,,,,,,,,,,,,,,,,,,,0,0,0,0,0
3.1900,1783187482.5092,1,1,1.0000,0.0000,1.44681,0.21565,-2.78192,0.99543,1.57080,0.00001,-0.14512,-0.38002,0.04197,,,,,,,,,,,,,,,,,,,,,,,,,,0,0,0,0,0
3.1903,1783187482.5095,1,1,1.0000,0.0000,1.44681,0.21565,-2.78192,0.99543,1.57080,0.00001,-0.14512,-0.38002,0.04197,,,,,,,,,,,,,,,,,,,,,,,,,,0,0,0,0,0
3.1969,1783187482.5161,1,1,1.0000,0.0000,1.44681,0.21555,-2.78194,0.99556,1.57080,0.00001,-0.14512,-0.38002,0.04195,,,,,,,,,,,,,,,,,,,,,,,,,,0,0,0,0,0
3.1972,1783187482.5164,1,1,1.0000,0.0000,1.44681,0.21555,-2.78194,0.99556,1.57080,0.00001,-0.14512,-0.38002,0.04195,,,,,,,,,,,,,,,,,,,,,,,,,,0,0,0,0,0
3.2078,1783187482.5270,1,1,1.0000,0.0000,1.44681,0.21544,-2.78197,0.99569,1.57080,0.00001,-0.14512,-0.38002,0.04192,,,,,,,,,,,,,,,,,,,,,,,,,,0,0,0,0,0
3.2219,1783187482.5411,1,1,1.0000,0.0000,1.44681,0.21539,-2.78198,0.99576,1.57080,0.00001,-0.14512,-0.38002,0.04191,,,,,,,,,,,,,,,,,,,,,,,,,,0,0,0,0,0
3.2264,1783187482.5456,1,1,1.0000,0.0000,1.44681,0.21536,-2.78199,0.99580,1.57080,0.00001,-0.14512,-0.38002,0.04190,,,,,,,,,,,,,,,,,,,,,,,,,,0,0,0,0,0
3.2420,1783187482.5612,1,1,1.0000,0.0000,1.44681,0.21526,-2.78201,0.99592,1.57080,0.00001,-0.14512,-0.38002,0.04187,,,,,,,,,,,,,,,,,,,,,,,,,,0,0,0,0,0
3.2458,1783187482.5650,1,1,1.0000,0.0000,1.44681,0.21523,-2.78202,0.99595,1.57080,0.00001,-0.14512,-0.38002,0.04187,,,,,,,,,,,,,,,,,,,,,,,,,,0,0,0,0,0
3.2559,1783187482.5751,1,1,1.0000,0.0000,1.44681,0.21509,-2.78205,0.99612,1.57080,0.00001,-0.14512,-0.38002,0.04183,,,,,,,,,,,,,,,,,,,,,,,,,,0,0,0,0,0
3.2562,1783187482.5754,1,1,1.0000,0.0000,1.44681,0.21509,-2.78205,0.99612,1.57080,0.00001,-0.14512,-0.38002,0.04183,,,,,,,,,,,,,,,,,,,,,,,,,,0,0,0,0,0
3.2675,1783187482.5867,1,1,1.0000,0.0000,1.44681,0.21499,-2.78208,0.99626,1.57080,0.00001,-0.14512,-0.38002,0.04180,,,,,,,,,,,,,,,,,,,,,,,,,,0,0,0,0,0
3.3205,1783187482.6397,1,1,1.0000,0.0000,1.44681,0.21458,-2.78218,0.99676,1.57080,0.00001,-0.14512,-0.38002,0.04170,,,,,,,,,,,,,,,,,,,,,,,,,,0,0,0,0,0
3.3269,1783187482.6461,1,1,1.0000,0.0000,1.44681,0.21453,-2.78219,0.99683,1.57080,0.00001,-0.14512,-0.38002,0.04169,,,,,,,,,,,,,,,,,,,,,,,,,,0,0,0,0,0
3.3272,1783187482.6464,1,1,1.0000,0.0000,1.44681,0.21453,-2.78219,0.99683,1.57080,0.00001,-0.14512,-0.38002,0.04169,,,,,,,,,,,,,,,,,,,,,,,,,,0,0,0,0,0
3.3348,1783187482.6540,1,1,1.0000,0.0000,1.44681,0.21452,-2.78219,0.99683,1.57080,0.00001,-0.14512,-0.38002,0.04169,,,,,,,,,,,,,,,,,,,,,,,,,,0,0,0,0,0
3.3352,1783187482.6544,1,1,1.0000,0.0000,1.44681,0.21452,-2.78219,0.99683,1.57080,0.00001,-0.14512,-0.38002,0.04169,,,,,,,,,,,,,,,,,,,,,,,,,,0,0,0,0,0
3.3358,1783187482.6551,1,1,1.0000,0.0000,1.44681,0.21451,-2.78220,0.99686,1.57080,0.00002,-0.14512,-0.38002,0.04168,,,,,,,,,,,,,,,,,,,,,,,,,,0,0,0,0,0
3.3414,1783187482.6607,1,1,1.0000,0.0000,1.44681,0.21448,-2.78220,0.99689,1.57080,0.00002,-0.14512,-0.38002,0.04167,,,,,,,,,,,,,,,,,,,,,,,,,,0,0,0,0,0
3.3417,1783187482.6609,1,1,1.0000,0.0000,1.44681,0.21448,-2.78220,0.99689,1.57080,0.00002,-0.14512,-0.38002,0.04167,,,,,,,,,,,,,,,,,,,,,,,,,,0,0,0,0,0
3.3501,1783187482.6693,1,1,1.0000,0.0000,1.44681,0.21440,-2.78222,0.99699,1.57080,0.00002,-0.14512,-0.38002,0.04166,,,,,,,,,,,,,,,,,,,,,,,,,,0,0,0,0,0
3.3571,1783187482.6763,1,1,1.0000,0.0000,1.44681,0.21436,-2.78223,0.99704,1.57080,0.00002,-0.14512,-0.38002,0.04164,,,,,,,,,,,,,,,,,,,,,,,,,,0,0,0,0,0
3.3701,1783187482.6893,1,1,1.0000,0.0000,1.44681,0.21428,-2.78225,0.99714,1.57080,0.00002,-0.14512,-0.38002,0.04162,,,,,,,,,,,,,,,,,,,,,,,,,,0,0,0,0,0
3.3785,1783187482.6977,1,1,1.0000,0.0000,1.44681,0.21418,-2.78228,0.99726,1.57080,0.00002,-0.14512,-0.38002,0.04160,,,,,,,,,,,,,,,,,,,,,,,,,,0,0,0,0,0
3.3880,1783187482.7072,1,1,1.0000,0.0000,1.44681,0.21407,-2.78230,0.99739,1.57080,0.00002,-0.14512,-0.38002,0.04157,,,,,,,,,,,,,,,,,,,,,,,,,,0,0,0,0,0
3.3883,1783187482.7075,1,1,1.0000,0.0000,1.44681,0.21407,-2.78230,0.99739,1.57080,0.00002,-0.14512,-0.38002,0.04157,,,,,,,,,,,,,,,,,,,,,,,,,,0,0,0,0,0
3.3998,1783187482.7190,1,1,1.0000,0.0000,1.44681,0.21402,-2.78231,0.99746,1.57080,0.00002,-0.14512,-0.38002,0.04156,,,,,,,,,,,,,,,,,,,,,,,,,,0,0,0,0,0
3.4085,1783187482.7277,1,1,1.0000,0.0000,1.44681,0.21394,-2.78233,0.99756,1.57080,0.00002,-0.14512,-0.38002,0.04154,,,,,,,,,,,,,,,,,,,,,,,,,,0,0,0,0,0
3.4207,1783187482.7400,1,1,1.0000,0.0000,1.44681,0.21389,-2.78235,0.99762,1.57080,0.00002,-0.14512,-0.38002,0.04152,,,,,,,,,,,,,,,,,,,,,,,,,,0,0,0,0,0
3.4265,1783187482.7457,1,1,1.0000,0.0000,1.44681,0.21386,-2.78235,0.99766,1.57080,0.00002,-0.14512,-0.38002,0.04152,,,,,,,,,,,,,,,,,,,,,,,,,,0,0,0,0,0
3.4367,1783187482.7559,1,1,1.0000,0.0000,1.44681,0.21372,-2.78239,0.99783,1.57080,0.00002,-0.14512,-0.38002,0.04148,,,,,,,,,,,,,,,,,,,,,,,,,,0,0,0,0,0
3.4462,1783187482.7655,1,1,1.0000,0.0000,1.44681,0.21362,-2.78241,0.99796,1.57080,0.00002,-0.14512,-0.38002,0.04146,,,,,,,,,,,,,,,,,,,,,,,,,,0,0,0,0,0
3.4560,1783187482.7753,1,1,1.0000,0.0000,1.44681,0.21359,-2.78242,0.99799,1.57080,0.00002,-0.14512,-0.38002,0.04145,,,,,,,,,,,,,,,,,,,,,,,,,,0,0,0,0,0
3.4564,1783187482.7757,1,1,1.0000,0.0000,1.44681,0.21359,-2.78242,0.99799,1.57080,0.00002,-0.14512,-0.38002,0.04145,,,,,,,,,,,,,,,,,,,,,,,,,,0,0,0,0,0
3.4667,1783187482.7859,1,1,1.0000,0.0000,1.44681,0.21353,-2.78244,0.99807,1.57080,0.00002,-0.14512,-0.38002,0.04143,,,,,,,,,,,,,,,,,,,,,,,,,,0,0,0,0,0
3.4839,1783187482.8031,1,1,1.0000,0.0000,1.44681,0.21341,-2.78246,0.99822,1.57080,0.00002,-0.14512,-0.38002,0.04140,,,,,,,,,,,,,,,,,,,,,,,,,,0,0,0,0,0
3.4920,1783187482.8113,1,1,1.0000,0.0000,1.44681,0.21332,-2.78249,0.99833,1.57080,0.00002,-0.14512,-0.38002,0.04138,,,,,,,,,,,,,,,,,,,,,,,,,,0,0,0,0,0
3.4923,1783187482.8116,1,1,1.0000,0.0000,1.44681,0.21332,-2.78249,0.99833,1.57080,0.00002,-0.14512,-0.38002,0.04138,,,,,,,,,,,,,,,,,,,,,,,,,,0,0,0,0,0
3.5030,1783187482.8222,1,1,1.0000,0.0000,1.44681,0.21321,-2.78251,0.99847,1.57080,0.00002,-0.14512,-0.38002,0.04135,,,,,,,,,,,,,,,,,,,,,,,,,,0,0,0,0,0
3.5096,1783187482.8288,1,1,1.0000,0.0000,1.44681,0.21316,-2.78253,0.99853,1.57080,0.00002,-0.14512,-0.38002,0.04134,,,,,,,,,,,,,,,,,,,,,,,,,,0,0,0,0,0
3.5158,1783187482.8351,1,1,1.0000,0.0000,1.44681,0.21312,-2.78253,0.99857,1.57080,0.00002,-0.14512,-0.38002,0.04133,,,,,,,,,,,,,,,,,,,,,,,,,,0,0,0,0,0
3.5161,1783187482.8353,1,1,1.0000,0.0000,1.44681,0.21312,-2.78253,0.99857,1.57080,0.00002,-0.14512,-0.38002,0.04133,,,,,,,,,,,,,,,,,,,,,,,,,,0,0,0,0,0
3.5271,1783187482.8464,1,1,1.0000,0.0000,1.44681,0.21304,-2.78255,0.99868,1.57080,0.00002,-0.14512,-0.38002,0.04131,,,,,,,,,,,,,,,,,,,,,,,,,,0,0,0,0,0
3.5392,1783187482.8584,1,1,1.0000,0.0000,1.44681,0.21293,-2.78258,0.99881,1.57080,0.00002,-0.14512,-0.38002,0.04128,,,,,,,,,,,,,,,,,,,,,,,,,,0,0,0,0,0
3.5487,1783187482.8679,1,1,1.0000,0.0000,1.44681,0.21286,-2.78260,0.99890,1.57080,0.00002,-0.14512,-0.38002,0.04126,,,,,,,,,,,,,,,,,,,,,,,,,,0,0,0,0,0
3.5589,1783187482.8781,1,1,1.0000,0.0000,1.44681,0.21277,-2.78262,0.99902,1.57080,0.00002,-0.14512,-0.38002,0.04124,,,,,,,,,,,,,,,,,,,,,,,,,,0,0,0,0,0
3.5710,1783187482.8902,1,1,1.0000,0.0000,1.44681,0.21266,-2.78265,0.99915,1.57080,0.00002,-0.14512,-0.38002,0.04121,,,,,,,,,,,,,,,,,,,,,,,,,,0,0,0,0,0
3.5826,1783187482.9019,1,1,1.0000,0.0000,1.44681,0.21259,-2.78266,0.99924,1.57080,0.00002,-0.14512,-0.38002,0.04119,,,,,,,,,,,,,,,,,,,,,,,,,,0,0,0,0,0
3.5868,1783187482.9061,1,1,1.0000,0.0000,1.44681,0.21254,-2.78268,0.99930,1.57080,0.00002,-0.14512,-0.38002,0.04118,,,,,,,,,,,,,,,,,,,,,,,,,,0,0,0,0,0
3.5999,1783187482.9192,1,1,1.0000,0.0000,1.44681,0.21243,-2.78270,0.99944,1.57080,0.00002,-0.14512,-0.38002,0.04115,,,,,,,,,,,,,,,,,,,,,,,,,,0,0,0,0,0
3.6164,1783187482.9357,1,1,1.0000,0.0000,1.44681,0.21227,-2.78274,0.99964,1.57080,0.00002,-0.14512,-0.38002,0.04111,,,,,,,,,,,,,,,,,,,,,,,,,,0,0,0,0,0
3.6202,1783187482.9395,1,1,1.0000,0.0000,1.44681,0.21221,-2.78276,0.99971,1.57080,0.00002,-0.14512,-0.38002,0.04110,,,,,,,,,,,,,,,,,,,,,,,,,,0,0,0,0,0
3.6206,1783187482.9398,1,1,1.0000,0.0000,1.44681,0.21221,-2.78276,0.99971,1.57080,0.00002,-0.14512,-0.38002,0.04110,,,,,,,,,,,,,,,,,,,,,,,,,,0,0,0,0,0
3.6303,1783187482.9495,1,1,1.0000,0.0000,1.44681,0.21216,-2.78277,0.99977,1.57080,0.00002,-0.14512,-0.38002,0.04109,,,,,,,,,,,,,,,,,,,,,,,,,,0,0,0,0,0
3.6306,1783187482.9498,1,1,1.0000,0.0000,1.44681,0.21216,-2.78277,0.99977,1.57080,0.00002,-0.14512,-0.38002,0.04109,,,,,,,,,,,,,,,,,,,,,,,,,,0,0,0,0,0
3.6367,1783187482.9559,1,1,1.0000,0.0000,1.44681,0.21213,-2.78278,0.99982,1.57080,0.00002,-0.14512,-0.38002,0.04108,,,,,,,,,,,,,,,,,,,,,,,,,,0,0,0,0,0
3.6500,1783187482.9693,1,1,1.0000,0.0000,1.44681,0.21199,-2.78281,0.99999,1.57080,0.00002,-0.14512,-0.38002,0.04104,,,,,,,,,,,,,,,,,,,,,,,,,,0,0,0,0,0
3.6599,1783187482.9791,1,1,1.0000,0.0000,1.44681,0.21188,-2.78284,1.00012,1.57080,0.00002,-0.14512,-0.38002,0.04102,,,,,,,,,,,,,,,,,,,,,,,,,,0,0,0,0,0
3.6703,1783187482.9895,1,1,1.0000,0.0000,1.44681,0.21186,-2.78284,1.00015,1.57080,0.00002,-0.14512,-0.38002,0.04101,,,,,,,,,,,,,,,,,,,,,,,,,,0,0,0,0,0
3.6819,1783187483.0012,1,1,1.0000,0.0000,1.44681,0.21175,-2.78287,1.00028,1.57080,0.00002,-0.14512,-0.38002,0.04098,,,,,,,,,,,,,,,,,,,,,,,,,,0,0,0,0,0
3.6866,1783187483.0059,1,1,1.0000,0.0000,1.44681,0.21171,-2.78288,1.00034,1.57080,0.00002,-0.14512,-0.38002,0.04097,,,,,,,,,,,,,,,,,,,,,,,,,,0,0,0,0,0
3.7002,1783187483.0194,1,1,1.0000,0.0000,1.44681,0.21163,-2.78290,1.00043,1.57080,0.00002,-0.14512,-0.38002,0.04095,,,,,,,,,,,,,,,,,,,,,,,,,,0,0,0,0,0
3.7005,1783187483.0197,1,1,1.0000,0.0000,1.44681,0.21163,-2.78290,1.00043,1.57080,0.00002,-0.14512,-0.38002,0.04095,,,,,,,,,,,,,,,,,,,,,,,,,,0,0,0,0,0
3.7078,1783187483.0270,1,1,1.0000,0.0000,1.44681,0.21153,-2.78292,1.00055,1.57080,0.00002,-0.14512,-0.38002,0.04093,,,,,,,,,,,,,,,,,,,,,,,,,,0,0,0,0,0
3.7082,1783187483.0275,1,1,1.0000,0.0000,1.44681,0.21153,-2.78292,1.00055,1.57080,0.00002,-0.14512,-0.38002,0.04093,,,,,,,,,,,,,,,,,,,,,,,,,,0,0,0,0,0
3.7199,1783187483.0392,1,1,1.0000,0.0000,1.44681,0.21142,-2.78295,1.00069,1.57080,0.00002,-0.14512,-0.38002,0.04090,,,,,,,,,,,,,,,,,,,,,,,,,,0,0,0,0,0
3.7287,1783187483.0479,1,1,1.0000,0.0000,1.44681,0.21140,-2.78295,1.00072,1.57080,0.00002,-0.14512,-0.38002,0.04089,,,,,,,,,,,,,,,,,,,,,,,,,,0,0,0,0,0
3.7412,1783187483.0605,1,1,1.0000,0.0000,1.44681,0.21129,-2.78298,1.00085,1.57080,0.00002,-0.14512,-0.38002,0.04087,,,,,,,,,,,,,,,,,,,,,,,,,,0,0,0,0,0
3.7544,1783187483.0736,1,1,1.0000,0.0000,1.44681,0.21124,-2.78299,1.00092,1.57080,0.00002,-0.14512,-0.38002,0.04085,,,,,,,,,,,,,,,,,,,,,,,,,,0,0,0,0,0
3.7568,1783187483.0760,1,1,1.0000,0.0000,1.44681,0.21121,-2.78300,1.00095,1.57080,0.00002,-0.14512,-0.38002,0.04085,,,,,,,,,,,,,,,,,,,,,,,,,,0,0,0,0,0
3.7722,1783187483.0914,1,1,1.0000,0.0000,1.44681,0.21102,-2.78304,1.00119,1.57080,0.00002,-0.14512,-0.38002,0.04080,,,,,,,,,,,,,,,,,,,,,,,,,,0,0,0,0,0
3.7817,1783187483.1009,1,1,1.0000,0.0000,1.44681,0.21096,-2.78306,1.00126,1.57080,0.00002,-0.14512,-0.38002,0.04078,,,,,,,,,,,,,,,,,,,,,,,,,,0,0,0,0,0
3.7868,1783187483.1060,1,1,1.0000,0.0000,1.44681,0.21096,-2.78306,1.00127,1.57080,0.00002,-0.14512,-0.38002,0.04078,,,,,,,,,,,,,,,,,,,,,,,,,,0,0,0,0,0
3.8032,1783187483.1224,1,1,1.0000,0.0000,1.44681,0.21083,-2.78309,1.00142,1.57080,0.00002,-0.14512,-0.38002,0.04075,,,,,,,,,,,,,,,,,,,,,,,,,,0,0,0,0,0
3.8162,1783187483.1354,1,1,1.0000,0.0000,1.44681,0.21075,-2.78311,1.00152,1.57080,0.00002,-0.14512,-0.38002,0.04073,,,,,,,,,,,,,,,,,,,,,,,,,,0,0,0,0,0
3.8308,1783187483.1501,1,1,1.0000,0.0000,1.44681,0.21061,-2.78314,1.00169,1.57080,0.00002,-0.14512,-0.38002,0.04069,,,,,,,,,,,,,,,,,,,,,,,,,,0,0,0,0,0
3.8318,1783187483.1510,1,1,1.0000,0.0000,1.44681,0.21056,-2.78316,1.00176,1.57080,0.00002,-0.14512,-0.38002,0.04068,,,,,,,,,,,,,,,,,,,,,,,,,,0,0,0,0,0
3.8370,1783187483.1562,1,1,1.0000,0.0000,1.44681,0.21050,-2.78317,1.00183,1.57080,0.00002,-0.14512,-0.38002,0.04067,,,,,,,,,,,,,,,,,,,,,,,,,,0,0,0,0,0
3.8478,1783187483.1671,1,1,1.0000,0.0000,1.44681,0.21048,-2.78317,1.00186,1.57080,0.00002,-0.14512,-0.38002,0.04066,,,,,,,,,,,,,,,,,,,,,,,,,,0,0,0,0,0
3.8567,1783187483.1760,1,1,1.0000,0.0000,1.44681,0.21042,-2.78319,1.00194,1.57080,0.00002,-0.14512,-0.38002,0.04064,,,,,,,,,,,,,,,,,,,,,,,,,,0,0,0,0,0
3.8690,1783187483.1882,1,1,1.0000,0.0000,1.44681,0.21033,-2.78321,1.00205,1.57080,0.00002,-0.14512,-0.38002,0.04062,,,,,,,,,,,,,,,,,,,,,,,,,,0,0,0,0,0
3.8771,1783187483.1964,1,1,1.0000,0.0000,1.44681,0.21029,-2.78322,1.00209,1.57080,0.00002,-0.14512,-0.38002,0.04061,,,,,,,,,,,,,,,,,,,,,,,,,,0,0,0,0,0
3.8888,1783187483.2080,1,1,1.0000,0.0000,1.44681,0.21015,-2.78325,1.00227,1.57080,0.00002,-0.14512,-0.38002,0.04058,,,,,,,,,,,,,,,,,,,,,,,,,,0,0,0,0,0
3.8999,1783187483.2191,1,1,1.0000,0.0000,1.44681,0.21005,-2.78328,1.00240,1.57080,0.00002,-0.14512,-0.38002,0.04055,,,,,,,,,,,,,,,,,,,,,,,,,,0,0,0,0,0
3.9002,1783187483.2195,1,1,1.0000,0.0000,1.44681,0.21005,-2.78328,1.00240,1.57080,0.00002,-0.14512,-0.38002,0.04055,,,,,,,,,,,,,,,,,,,,,,,,,,0,0,0,0,0
3.9143,1783187483.2335,1,1,1.0000,0.0000,1.44681,0.20999,-2.78329,1.00246,1.57080,0.00002,-0.14512,-0.38002,0.04054,,,,,,,,,,,,,,,,,,,,,,,,,,0,0,0,0,0
3.9459,1783187483.2652,1,1,1.0000,0.0000,1.44680,0.20975,-2.78335,1.00277,1.57080,0.00002,-0.14512,-0.38002,0.04047,,,,,,,,,,,,,,,,,,,,,,,,,,0,0,0,0,0
3.9469,1783187483.2662,1,1,1.0000,0.0000,1.44680,0.20975,-2.78335,1.00277,1.57080,0.00002,-0.14512,-0.38002,0.04047,,,,,,,,,,,,,,,,,,,,,,,,,,0,0,0,0,0
3.9474,1783187483.2666,1,1,1.0000,0.0000,1.44680,0.20975,-2.78335,1.00277,1.57080,0.00002,-0.14512,-0.38002,0.04047,,,,,,,,,,,,,,,,,,,,,,,,,,0,0,0,0,0
3.9479,1783187483.2671,1,1,1.0000,0.0000,1.44680,0.20969,-2.78336,1.00284,1.57080,0.00002,-0.14512,-0.38002,0.04046,,,,,,,,,,,,,,,,,,,,,,,,,,0,0,0,0,0
3.9481,1783187483.2673,1,1,1.0000,0.0000,1.44680,0.20969,-2.78336,1.00284,1.57080,0.00002,-0.14512,-0.38002,0.04046,,,,,,,,,,,,,,,,,,,,,,,,,,0,0,0,0,0
3.9600,1783187483.2793,1,1,1.0000,0.0000,1.44680,0.20959,-2.78339,1.00297,1.57079,0.00002,-0.14512,-0.38002,0.04043,,,,,,,,,,,,,,,,,,,,,,,,,,0,0,0,0,0
3.9604,1783187483.2796,1,1,1.0000,0.0000,1.44680,0.20959,-2.78339,1.00297,1.57079,0.00002,-0.14512,-0.38002,0.04043,,,,,,,,,,,,,,,,,,,,,,,,,,0,0,0,0,0
3.9703,1783187483.2895,1,1,1.0000,0.0000,1.44680,0.20955,-2.78340,1.00301,1.57079,0.00002,-0.14512,-0.38002,0.04042,,,,,,,,,,,,,,,,,,,,,,,,,,0,0,0,0,0
3.9705,1783187483.2898,1,1,1.0000,0.0000,1.44680,0.20955,-2.78340,1.00301,1.57079,0.00002,-0.14512,-0.38002,0.04042,,,,,,,,,,,,,,,,,,,,,,,,,,0,0,0,0,0
3.9766,1783187483.2958,1,1,1.0000,0.0000,1.44680,0.20947,-2.78342,1.00312,1.57079,0.00002,-0.14512,-0.38002,0.04040,,,,,,,,,,,,,,,,,,,,,,,,,,0,0,0,0,0
3.9768,1783187483.2961,1,1,1.0000,0.0000,1.44680,0.20947,-2.78342,1.00312,1.57079,0.00002,-0.14512,-0.38002,0.04040,,,,,,,,,,,,,,,,,,,,,,,,,,0,0,0,0,0
3.9882,1783187483.3074,1,1,1.0000,0.0000,1.44680,0.20936,-2.78344,1.00325,1.57079,0.00002,-0.14512,-0.38002,0.04038,,,,,,,,,,,,,,,,,,,,,,,,,,0,0,0,0,0
4.0023,1783187483.3216,1,1,1.0000,0.0000,1.44680,0.20929,-2.78346,1.00334,1.57079,0.00002,-0.14512,-0.38002,0.04036,,,,,,,,,,,,,,,,,,,,,,,,,,0,0,0,0,0
4.0078,1783187483.3270,1,1,1.0000,0.0000,1.44680,0.20919,-2.78349,1.00346,1.57079,0.00002,-0.14512,-0.38002,0.04033,,,,,,,,,,,,,,,,,,,,,,,,,,0,0,0,0,0
4.0160,1783187483.3352,1,1,1.0000,0.0000,1.44680,0.20908,-2.78351,1.00359,1.57079,0.00002,-0.14512,-0.38002,0.04031,,,,,,,,,,,,,,,,,,,,,,,,,,0,0,0,0,0
4.0163,1783187483.3355,1,1,1.0000,0.0000,1.44680,0.20908,-2.78351,1.00359,1.57079,0.00002,-0.14512,-0.38002,0.04031,,,,,,,,,,,,,,,,,,,,,,,,,,0,0,0,0,0
4.0271,1783187483.3463,1,1,1.0000,0.0000,1.44680,0.20908,-2.78351,1.00360,1.57079,0.00002,-0.14512,-0.38002,0.04030,,,,,,,,,,,,,,,,,,,,,,,,,,0,0,0,0,0
4.0274,1783187483.3466,1,1,1.0000,0.0000,1.44680,0.20908,-2.78351,1.00360,1.57079,0.00002,-0.14512,-0.38002,0.04030,,,,,,,,,,,,,,,,,,,,,,,,,,0,0,0,0,0
4.0361,1783187483.3554,1,1,1.0000,0.0000,1.44680,0.20896,-2.78354,1.00374,1.57079,0.00002,-0.14512,-0.38002,0.04028,,,,,,,,,,,,,,,,,,,,,,,,,,0,0,0,0,0
4.0500,1783187483.3692,1,1,1.0000,0.0000,1.44680,0.20886,-2.78357,1.00387,1.57079,0.00002,-0.14512,-0.38002,0.04025,,,,,,,,,,,,,,,,,,,,,,,,,,0,0,0,0,0
4.0604,1783187483.3797,1,1,1.0000,0.0000,1.44680,0.20879,-2.78358,1.00396,1.57079,0.00002,-0.14512,-0.38002,0.04023,,,,,,,,,,,,,,,,,,,,,,,,,,0,0,0,0,0
4.0609,1783187483.3801,1,1,1.0000,0.0000,1.44680,0.20879,-2.78358,1.00396,1.57079,0.00002,-0.14512,-0.38002,0.04023,,,,,,,,,,,,,,,,,,,,,,,,,,0,0,0,0,0
4.0685,1783187483.3877,1,1,1.0000,0.0000,1.44680,0.20869,-2.78361,1.00408,1.57079,0.00002,-0.14512,-0.38002,0.04021,,,,,,,,,,,,,,,,,,,,,,,,,,0,0,0,0,0
4.0769,1783187483.3962,1,1,1.0000,0.0000,1.44680,0.20858,-2.78363,1.00421,1.57079,0.00002,-0.14512,-0.38002,0.04018,,,,,,,,,,,,,,,,,,,,,,,,,,0,0,0,0,0
4.0893,1783187483.4085,1,1,1.0000,0.0000,1.44680,0.20855,-2.78364,1.00426,1.57079,0.00002,-0.14512,-0.38002,0.04017,,,,,,,,,,,,,,,,,,,,,,,,,,0,0,0,0,0
4.0961,1783187483.4153,1,1,1.0000,0.0000,1.44680,0.20846,-2.78366,1.00436,1.57079,0.00002,-0.14512,-0.38002,0.04015,,,,,,,,,,,,,,,,,,,,,,,,,,0,0,0,0,0
4.0964,1783187483.4157,1,1,1.0000,0.0000,1.44680,0.20846,-2.78366,1.00436,1.57079,0.00002,-0.14512,-0.38002,0.04015,,,,,,,,,,,,,,,,,,,,,,,,,,0,0,0,0,0
4.1069,1783187483.4262,1,1,1.0000,0.0000,1.44680,0.20836,-2.78369,1.00449,1.57079,0.00002,-0.14512,-0.38002,0.04012,,,,,,,,,,,,,,,,,,,,,,,,,,0,0,0,0,0
4.1163,1783187483.4355,1,1,1.0000,0.0000,1.44680,0.20832,-2.78369,1.00454,1.57079,0.00002,-0.14512,-0.38002,0.04011,,,,,,,,,,,,,,,,,,,,,,,,,,0,0,0,0,0
4.1294,1783187483.4486,1,1,1.0000,0.0000,1.44680,0.20819,-2.78373,1.00471,1.57079,0.00002,-0.14512,-0.38002,0.04008,,,,,,,,,,,,,,,,,,,,,,,,,,0,0,0,0,0
4.1392,1783187483.4584,1,1,1.0000,0.0000,1.44680,0.20808,-2.78375,1.00484,1.57079,0.00002,-0.14512,-0.38002,0.04005,,,,,,,,,,,,,,,,,,,,,,,,,,0,0,0,0,0
4.1461,1783187483.4653,1,1,1.0000,0.0000,1.44680,0.20807,-2.78375,1.00485,1.57079,0.00002,-0.14512,-0.38002,0.04005,,,,,,,,,,,,,,,,,,,,,,,,,,0,0,0,0,0
4.1618,1783187483.4810,1,1,1.0000,0.0000,1.44680,0.20791,-2.78379,1.00505,1.57079,0.00002,-0.14512,-0.38002,0.04001,,,,,,,,,,,,,,,,,,,,,,,,,,0,0,0,0,0
4.1705,1783187483.4897,1,1,1.0000,0.0000,1.44680,0.20785,-2.78381,1.00512,1.57079,0.00002,-0.14512,-0.38002,0.04000,,,,,,,,,,,,,,,,,,,,,,,,,,0,0,0,0,0
4.1785,1783187483.4977,1,1,1.0000,0.0000,1.44680,0.20782,-2.78381,1.00516,1.57079,0.00002,-0.14512,-0.38002,0.03999,,,,,,,,,,,,,,,,,,,,,,,,,,0,0,0,0,0
4.1863,1783187483.5055,1,1,1.0000,0.0000,1.44680,0.20774,-2.78383,1.00526,1.57079,0.00002,-0.14512,-0.38002,0.03997,,,,,,,,,,,,,,,,,,,,,,,,,,0,0,0,0,0
4.1967,1783187483.5159,1,1,1.0000,0.0000,1.44680,0.20758,-2.78387,1.00546,1.57079,0.00002,-0.14512,-0.38002,0.03993,,,,,,,,,,,,,,,,,,,,,,,,,,0,0,0,0,0
4.2120,1783187483.5312,1,1,1.0000,0.0000,1.44680,0.20750,-2.78389,1.00555,1.57079,0.00002,-0.14512,-0.38002,0.03991,,,,,,,,,,,,,,,,,,,,,,,,,,0,0,0,0,0
4.2218,1783187483.5410,1,1,1.0000,0.0000,1.44680,0.20740,-2.78391,1.00567,1.57079,0.00002,-0.14512,-0.38002,0.03988,,,,,,,,,,,,,,,,,,,,,,,,,,0,0,0,0,0
4.2319,1783187483.5512,1,1,1.0000,0.0000,1.44680,0.20734,-2.78393,1.00575,1.57079,0.00002,-0.14512,-0.38002,0.03987,,,,,,,,,,,,,,,,,,,,,,,,,,0,0,0,0,0
4.2409,1783187483.5602,1,1,1.0000,0.0000,1.44680,0.20728,-2.78394,1.00583,1.57079,0.00002,-0.14512,-0.38002,0.03985,,,,,,,,,,,,,,,,,,,,,,,,,,0,0,0,0,0
4.2884,1783187483.6076,1,1,1.0000,0.0000,1.44680,0.20679,-2.78406,1.00643,1.57079,0.00002,-0.14512,-0.38002,0.03973,,,,,,,,,,,,,,,,,,,,,,,,,,0,0,0,0,0
4.2888,1783187483.6081,1,1,1.0000,0.0000,1.44680,0.20679,-2.78406,1.00643,1.57079,0.00002,-0.14512,-0.38002,0.03973,,,,,,,,,,,,,,,,,,,,,,,,,,0,0,0,0,0
4.3282,1783187483.6475,1,1,1.0000,0.0000,1.44680,0.20658,-2.78411,1.00669,1.57079,0.00002,-0.14512,-0.38002,0.03968,,,,,,,,,,,,,,,,,,,,,,,,,,0,0,0,0,0
4.3564,1783187483.6756,1,1,1.0000,0.0000,1.44680,0.20632,-2.78417,1.00701,1.57079,0.00002,-0.14512,-0.38002,0.03961,,,,,,,,,,,,,,,,,,,,,,,,,,0,0,0,0,0
4.3571,1783187483.6763,1,1,1.0000,0.0000,1.44680,0.20632,-2.78417,1.00701,1.57079,0.00002,-0.14512,-0.38002,0.03961,,,,,,,,,,,,,,,,,,,,,,,,,,0,0,0,0,0
4.3574,1783187483.6767,1,1,1.0000,0.0000,1.44680,0.20632,-2.78417,1.00701,1.57079,0.00002,-0.14512,-0.38002,0.03961,,,,,,,,,,,,,,,,,,,,,,,,,,0,0,0,0,0
4.3577,1783187483.6770,1,1,1.0000,0.0000,1.44680,0.20632,-2.78417,1.00701,1.57079,0.00002,-0.14512,-0.38002,0.03961,,,,,,,,,,,,,,,,,,,,,,,,,,0,0,0,0,0
4.3580,1783187483.6772,1,1,1.0000,0.0000,1.44680,0.20632,-2.78417,1.00701,1.57079,0.00002,-0.14512,-0.38002,0.03961,,,,,,,,,,,,,,,,,,,,,,,,,,0,0,0,0,0
4.3687,1783187483.6879,1,1,1.0000,0.0000,1.44680,0.20624,-2.78419,1.00711,1.57079,0.00002,-0.14512,-0.38002,0.03959,,,,,,,,,,,,,,,,,,,,,,,,,,0,0,0,0,0
4.3705,1783187483.6898,1,1,1.0000,0.0000,1.44680,0.20624,-2.78419,1.00711,1.57079,0.00002,-0.14512,-0.38002,0.03959,,,,,,,,,,,,,,,,,,,,,,,,,,0,0,0,0,0
4.3709,1783187483.6901,1,1,1.0000,0.0000,1.44680,0.20624,-2.78419,1.00711,1.57079,0.00002,-0.14512,-0.38002,0.03959,,,,,,,,,,,,,,,,,,,,,,,,,,0,0,0,0,0
4.3729,1783187483.6921,1,1,1.0000,0.0000,1.44680,0.20620,-2.78420,1.00717,1.57079,0.00002,-0.14512,-0.38002,0.03958,,,,,,,,,,,,,,,,,,,,,,,,,,0,0,0,0,0
4.3733,1783187483.6925,1,1,1.0000,0.0000,1.44680,0.20620,-2.78420,1.00717,1.57079,0.00002,-0.14512,-0.38002,0.03958,,,,,,,,,,,,,,,,,,,,,,,,,,0,0,0,0,0
4.3735,1783187483.6928,1,1,1.0000,0.0000,1.44680,0.20620,-2.78420,1.00717,1.57079,0.00002,-0.14512,-0.38002,0.03958,,,,,,,,,,,,,,,,,,,,,,,,,,0,0,0,0,0
4.3832,1783187483.7024,1,1,1.0000,0.0000,1.44680,0.20615,-2.78421,1.00722,1.57079,0.00002,-0.14512,-0.38002,0.03957,,,,,,,,,,,,,,,,,,,,,,,,,,0,0,0,0,0
4.3836,1783187483.7028,1,1,1.0000,0.0000,1.44680,0.20615,-2.78421,1.00722,1.57079,0.00002,-0.14512,-0.38002,0.03957,,,,,,,,,,,,,,,,,,,,,,,,,,0,0,0,0,0
4.3916,1783187483.7108,1,1,1.0000,0.0000,1.44680,0.20612,-2.78422,1.00727,1.57079,0.00002,-0.14512,-0.38002,0.03956,,,,,,,,,,,,,,,,,,,,,,,,,,0,0,0,0,0
4.4139,1783187483.7331,1,1,1.0000,0.0000,1.44680,0.20587,-2.78428,1.00758,1.57079,0.00002,-0.14512,-0.38002,0.03950,,,,,,,,,,,,,,,,,,,,,,,,,,0,0,0,0,0
4.4171,1783187483.7363,1,1,1.0000,0.0000,1.44680,0.20586,-2.78428,1.00758,1.57079,0.00002,-0.14512,-0.38002,0.03949,,,,,,,,,,,,,,,,,,,,,,,,,,0,0,0,0,0
4.4247,1783187483.7439,1,1,1.0000,0.0000,1.44680,0.20582,-2.78429,1.00764,1.57079,0.00002,-0.14512,-0.38002,0.03948,,,,,,,,,,,,,,,,,,,,,,,,,,0,0,0,0,0
4.4308,1783187483.7500,1,1,1.0000,0.0000,1.44680,0.20578,-2.78430,1.00769,1.57079,0.00002,-0.14512,-0.38002,0.03947,,,,,,,,,,,,,,,,,,,,,,,,,,0,0,0,0,0
4.4311,1783187483.7503,1,1,1.0000,0.0000,1.44680,0.20578,-2.78430,1.00769,1.57079,0.00002,-0.14512,-0.38002,0.03947,,,,,,,,,,,,,,,,,,,,,,,,,,0,0,0,0,0
4.4405,1783187483.7598,1,1,1.0000,0.0000,1.44680,0.20569,-2.78432,1.00779,1.57079,0.00002,-0.14512,-0.38002,0.03945,,,,,,,,,,,,,,,,,,,,,,,,,,0,0,0,0,0
4.4409,1783187483.7601,1,1,1.0000,0.0000,1.44680,0.20569,-2.78432,1.00779,1.57079,0.00002,-0.14512,-0.38002,0.03945,,,,,,,,,,,,,,,,,,,,,,,,,,0,0,0,0,0
4.4509,1783187483.7702,1,1,1.0000,0.0000,1.44680,0.20566,-2.78433,1.00784,1.57079,0.00002,-0.14512,-0.38002,0.03944,,,,,,,,,,,,,,,,,,,,,,,,,,0,0,0,0,0
4.4710,1783187483.7902,1,1,1.0000,0.0000,1.44680,0.20541,-2.78439,1.00815,1.57079,0.00002,-0.14512,-0.38002,0.03938,,,,,,,,,,,,,,,,,,,,,,,,,,0,0,0,0,0
4.4714,1783187483.7906,1,1,1.0000,0.0000,1.44680,0.20541,-2.78439,1.00815,1.57079,0.00002,-0.14512,-0.38002,0.03938,,,,,,,,,,,,,,,,,,,,,,,,,,0,0,0,0,0
4.4851,1783187483.8043,1,1,1.0000,0.0000,1.44680,0.20535,-2.78440,1.00821,1.57079,0.00002,-0.14512,-0.38002,0.03937,,,,,,,,,,,,,,,,,,,,,,,,,,0,0,0,0,0
4.4908,1783187483.8100,1,1,1.0000,0.0000,1.44680,0.20532,-2.78441,1.00826,1.57079,0.00002,-0.14512,-0.38002,0.03936,,,,,,,,,,,,,,,,,,,,,,,,,,0,0,0,0,0
4.5051,1783187483.8243,1,1,1.0000,0.0000,1.44680,0.20522,-2.78443,1.00838,1.57079,0.00002,-0.14512,-0.38002,0.03933,,,,,,,,,,,,,,,,,,,,,,,,,,0,0,0,0,0
4.5054,1783187483.8247,1,1,1.0000,0.0000,1.44680,0.20522,-2.78443,1.00838,1.57079,0.00002,-0.14512,-0.38002,0.03933,,,,,,,,,,,,,,,,,,,,,,,,,,0,0,0,0,0
4.5144,1783187483.8336,1,1,1.0000,0.0000,1.44680,0.20515,-2.78445,1.00846,1.57079,0.00002,-0.14512,-0.38002,0.03932,,,,,,,,,,,,,,,,,,,,,,,,,,0,0,0,0,0
4.5149,1783187483.8341,1,1,1.0000,0.0000,1.44680,0.20515,-2.78445,1.00846,1.57079,0.00002,-0.14512,-0.38002,0.03932,,,,,,,,,,,,,,,,,,,,,,,,,,0,0,0,0,0
4.5221,1783187483.8414,1,1,1.0000,0.0000,1.44680,0.20505,-2.78447,1.00859,1.57079,0.00002,-0.14512,-0.38002,0.03929,,,,,,,,,,,,,,,,,,,,,,,,,,0,0,0,0,0
4.5226,1783187483.8418,1,1,1.0000,0.0000,1.44680,0.20505,-2.78447,1.00859,1.57079,0.00002,-0.14512,-0.38002,0.03929,,,,,,,,,,,,,,,,,,,,,,,,,,0,0,0,0,0
4.5346,1783187483.8538,1,1,1.0000,0.0000,1.44680,0.20494,-2.78450,1.00872,1.57079,0.00002,-0.14512,-0.38002,0.03926,,,,,,,,,,,,,,,,,,,,,,,,,,0,0,0,0,0
4.5448,1783187483.8641,1,1,1.0000,0.0000,1.44680,0.20489,-2.78451,1.00879,1.57079,0.00002,-0.14512,-0.38002,0.03925,,,,,,,,,,,,,,,,,,,,,,,,,,0,0,0,0,0
4.5452,1783187483.8645,1,1,1.0000,0.0000,1.44680,0.20489,-2.78451,1.00879,1.57079,0.00002,-0.14512,-0.38002,0.03925,,,,,,,,,,,,,,,,,,,,,,,,,,0,0,0,0,0
4.5655,1783187483.8847,1,1,1.0000,0.0000,1.44680,0.20476,-2.78454,1.00895,1.57079,0.00002,-0.14512,-0.38002,0.03922,,,,,,,,,,,,,,,,,,,,,,,,,,0,0,0,0,0
4.5658,1783187483.8851,1,1,1.0000,0.0000,1.44680,0.20476,-2.78454,1.00895,1.57079,0.00002,-0.14512,-0.38002,0.03922,,,,,,,,,,,,,,,,,,,,,,,,,,0,0,0,0,0
4.5785,1783187483.8978,1,1,1.0000,0.0000,1.44680,0.20464,-2.78457,1.00909,1.57079,0.00002,-0.14512,-0.38002,0.03919,,,,,,,,,,,,,,,,,,,,,,,,,,0,0,0,0,0
4.5788,1783187483.8980,1,1,1.0000,0.0000,1.44680,0.20464,-2.78457,1.00909,1.57079,0.00002,-0.14512,-0.38002,0.03919,,,,,,,,,,,,,,,,,,,,,,,,,,0,0,0,0,0
4.5793,1783187483.8985,1,1,1.0000,0.0000,1.44680,0.20464,-2.78457,1.00909,1.57079,0.00002,-0.14512,-0.38002,0.03919,,,,,,,,,,,,,,,,,,,,,,,,,,0,0,0,0,0
4.5843,1783187483.9035,1,1,1.0000,0.0000,1.44680,0.20453,-2.78460,1.00923,1.57079,0.00002,-0.14512,-0.38002,0.03916,,,,,,,,,,,,,,,,,,,,,,,,,,0,0,0,0,0
4.5924,1783187483.9116,1,1,1.0000,0.0000,1.44680,0.20448,-2.78461,1.00929,1.57079,0.00002,-0.14512,-0.38002,0.03915,,,,,,,,,,,,,,,,,,,,,,,,,,0,0,0,0,0
4.5928,1783187483.9120,1,1,1.0000,0.0000,1.44680,0.20448,-2.78461,1.00929,1.57079,0.00002,-0.14512,-0.38002,0.03915,,,,,,,,,,,,,,,,,,,,,,,,,,0,0,0,0,0
4.6018,1783187483.9211,1,1,1.0000,0.0000,1.44680,0.20445,-2.78462,1.00933,1.57079,0.00002,-0.14512,-0.38002,0.03914,,,,,,,,,,,,,,,,,,,,,,,,,,0,0,0,0,0
4.6175,1783187483.9367,1,1,1.0000,0.0000,1.44680,0.20430,-2.78465,1.00951,1.57079,0.00002,-0.14512,-0.38002,0.03910,,,,,,,,,,,,,,,,,,,,,,,,,,0,0,0,0,0
4.6248,1783187483.9441,1,1,1.0000,0.0000,1.44680,0.20429,-2.78465,1.00952,1.57079,0.00002,-0.14512,-0.38002,0.03910,,,,,,,,,,,,,,,,,,,,,,,,,,0,0,0,0,0
4.6307,1783187483.9500,1,1,1.0000,0.0000,1.44680,0.20427,-2.78466,1.00956,1.57079,0.00002,-0.14512,-0.38002,0.03909,,,,,,,,,,,,,,,,,,,,,,,,,,0,0,0,0,0
4.6426,1783187483.9618,1,1,1.0000,0.0000,1.44680,0.20413,-2.78469,1.00973,1.57079,0.00002,-0.14512,-0.38002,0.03906,,,,,,,,,,,,,,,,,,,,,,,,,,0,0,0,0,0
4.6522,1783187483.9715,1,1,1.0000,0.0000,1.44680,0.20402,-2.78472,1.00987,1.57079,0.00002,-0.14512,-0.38002,0.03903,,,,,,,,,,,,,,,,,,,,,,,,,,0,0,0,0,0
4.6617,1783187483.9809,1,1,1.0000,0.0000,1.44680,0.20398,-2.78473,1.00991,1.57079,0.00002,-0.14512,-0.38002,0.03902,,,,,,,,,,,,,,,,,,,,,,,,,,0,0,0,0,0
4.6783,1783187483.9975,1,1,1.0000,0.0000,1.44680,0.20379,-2.78477,1.01015,1.57079,0.00002,-0.14512,-0.38002,0.03897,,,,,,,,,,,,,,,,,,,,,,,,,,0,0,0,0,0
4.6809,1783187484.0001,1,1,1.0000,0.0000,1.44680,0.20379,-2.78477,1.01015,1.57079,0.00002,-0.14512,-0.38002,0.03897,,,,,,,,,,,,,,,,,,,,,,,,,,0,0,0,0,0
4.6906,1783187484.0098,1,1,1.0000,0.0000,1.44680,0.20376,-2.78478,1.01019,1.57079,0.00002,-0.14512,-0.38002,0.03897,,,,,,,,,,,,,,,,,,,,,,,,,,0,0,0,0,0
4.6910,1783187484.0102,1,1,1.0000,0.0000,1.44680,0.20376,-2.78478,1.01019,1.57079,0.00002,-0.14512,-0.38002,0.03897,,,,,,,,,,,,,,,,,,,,,,,,,,0,0,0,0,0
4.7036,1783187484.0228,1,1,1.0000,0.0000,1.44680,0.20362,-2.78481,1.01036,1.57079,0.00002,-0.14512,-0.38002,0.03893,,,,,,,,,,,,,,,,,,,,,,,,,,0,0,0,0,0
4.7106,1783187484.0298,1,1,1.0000,0.0000,1.44680,0.20351,-2.78484,1.01049,1.57079,0.00002,-0.14512,-0.38002,0.03890,,,,,,,,,,,,,,,,,,,,,,,,,,0,0,0,0,0
4.7243,1783187484.0436,1,1,1.0000,0.0000,1.44680,0.20344,-2.78486,1.01058,1.57079,0.00002,-0.14512,-0.38002,0.03889,,,,,,,,,,,,,,,,,,,,,,,,,,0,0,0,0,0
4.7309,1783187484.0502,1,1,1.0000,0.0000,1.44680,0.20339,-2.78487,1.01064,1.57079,0.00002,-0.14512,-0.38002,0.03887,,,,,,,,,,,,,,,,,,,,,,,,,,0,0,0,0,0
4.7433,1783187484.0625,1,1,1.0000,0.0000,1.44680,0.20328,-2.78489,1.01077,1.57079,0.00002,-0.14512,-0.38002,0.03885,,,,,,,,,,,,,,,,,,,,,,,,,,0,0,0,0,0
4.7524,1783187484.0717,1,1,1.0000,0.0000,1.44680,0.20321,-2.78491,1.01086,1.57079,0.00002,-0.14512,-0.38002,0.03883,,,,,,,,,,,,,,,,,,,,,,,,,,0,0,0,0,0
4.7528,1783187484.0720,1,1,1.0000,0.0000,1.44680,0.20321,-2.78491,1.01086,1.57079,0.00002,-0.14512,-0.38002,0.03883,,,,,,,,,,,,,,,,,,,,,,,,,,0,0,0,0,0
4.7652,1783187484.0844,1,1,1.0000,0.0000,1.44680,0.20306,-2.78495,1.01105,1.57079,0.00002,-0.14512,-0.38002,0.03879,,,,,,,,,,,,,,,,,,,,,,,,,,0,0,0,0,0
4.7799,1783187484.0991,1,1,1.0000,0.0000,1.44680,0.20300,-2.78496,1.01113,1.57079,0.00002,-0.14512,-0.38002,0.03878,,,,,,,,,,,,,,,,,,,,,,,,,,0,0,0,0,0
4.7825,1783187484.1018,1,1,1.0000,0.0000,1.44680,0.20297,-2.78497,1.01116,1.57079,0.00002,-0.14512,-0.38002,0.03877,,,,,,,,,,,,,,,,,,,,,,,,,,0,0,0,0,0
4.7828,1783187484.1021,1,1,1.0000,0.0000,1.44680,0.20297,-2.78497,1.01116,1.57079,0.00002,-0.14512,-0.38002,0.03877,,,,,,,,,,,,,,,,,,,,,,,,,,0,0,0,0,0
4.7909,1783187484.1101,1,1,1.0000,0.0000,1.44680,0.20288,-2.78499,1.01127,1.57079,0.00002,-0.14512,-0.38002,0.03875,,,,,,,,,,,,,,,,,,,,,,,,,,0,0,0,0,0
4.8007,1783187484.1199,1,1,1.0000,0.0000,1.44680,0.20278,-2.78501,1.01140,1.57079,0.00002,-0.14512,-0.38002,0.03872,,,,,,,,,,,,,,,,,,,,,,,,,,0,0,0,0,0
4.8012,1783187484.1204,1,1,1.0000,0.0000,1.44680,0.20278,-2.78501,1.01140,1.57079,0.00002,-0.14512,-0.38002,0.03872,,,,,,,,,,,,,,,,,,,,,,,,,,0,0,0,0,0
4.8118,1783187484.1311,1,1,1.0000,0.0000,1.44680,0.20274,-2.78502,1.01144,1.57079,0.00002,-0.14512,-0.38002,0.03871,,,,,,,,,,,,,,,,,,,,,,,,,,0,0,0,0,0
4.8269,1783187484.1461,1,1,1.0000,0.0000,1.44680,0.20255,-2.78507,1.01168,1.57079,0.00002,-0.14512,-0.38002,0.03866,,,,,,,,,,,,,,,,,,,,,,,,,,0,0,0,0,0
4.8366,1783187484.1558,1,1,1.0000,0.0000,1.44680,0.20249,-2.78508,1.01176,1.57079,0.00002,-0.14512,-0.38002,0.03865,,,,,,,,,,,,,,,,,,,,,,,,,,0,0,0,0,0
4.8407,1783187484.1600,1,1,1.0000,0.0000,1.44680,0.20246,-2.78509,1.01179,1.57079,0.00002,-0.14512,-0.38002,0.03864,,,,,,,,,,,,,,,,,,,,,,,,,,0,0,0,0,0
4.8410,1783187484.1603,1,1,1.0000,0.0000,1.44680,0.20246,-2.78509,1.01179,1.57079,0.00002,-0.14512,-0.38002,0.03864,,,,,,,,,,,,,,,,,,,,,,,,,,0,0,0,0,0
4.8563,1783187484.1756,1,1,1.0000,0.0000,1.44680,0.20227,-2.78513,1.01203,1.57079,0.00002,-0.14512,-0.38002,0.03859,,,,,,,,,,,,,,,,,,,,,,,,,,0,0,0,0,0
4.8665,1783187484.1857,1,1,1.0000,0.0000,1.44680,0.20226,-2.78514,1.01204,1.57079,0.00002,-0.14512,-0.38002,0.03859,,,,,,,,,,,,,,,,,,,,,,,,,,0,0,0,0,0
4.8708,1783187484.1901,1,1,1.0000,0.0000,1.44680,0.20224,-2.78514,1.01207,1.57079,0.00002,-0.14512,-0.38002,0.03859,,,,,,,,,,,,,,,,,,,,,,,,,,0,0,0,0,0
4.8826,1783187484.2018,1,1,1.0000,0.0000,1.44680,0.20210,-2.78517,1.01224,1.57079,0.00002,-0.14512,-0.38002,0.03855,,,,,,,,,,,,,,,,,,,,,,,,,,0,0,0,0,0
4.8908,1783187484.2100,1,1,1.0000,0.0000,1.44680,0.20199,-2.78520,1.01237,1.57079,0.00002,-0.14512,-0.38002,0.03852,,,,,,,,,,,,,,,,,,,,,,,,,,0,0,0,0,0
4.9052,1783187484.2244,1,1,1.0000,0.0000,1.44680,0.20192,-2.78522,1.01246,1.57079,0.00002,-0.14512,-0.38002,0.03851,,,,,,,,,,,,,,,,,,,,,,,,,,0,0,0,0,0
4.9106,1783187484.2298,1,1,1.0000,0.0000,1.44680,0.20187,-2.78523,1.01252,1.57079,0.00002,-0.14512,-0.38001,0.03849,,,,,,,,,,,,,,,,,,,,,,,,,,0,0,0,0,0
4.9110,1783187484.2302,1,1,1.0000,0.0000,1.44680,0.20187,-2.78523,1.01252,1.57079,0.00002,-0.14512,-0.38001,0.03849,,,,,,,,,,,,,,,,,,,,,,,,,,0,0,0,0,0
4.9244,1783187484.2436,1,1,1.0000,0.0000,1.44680,0.20171,-2.78526,1.01272,1.57079,0.00002,-0.14512,-0.38001,0.03845,,,,,,,,,,,,,,,,,,,,,,,,,,0,0,0,0,0
4.9357,1783187484.2550,1,1,1.0000,0.0000,1.44680,0.20169,-2.78527,1.01275,1.57079,0.00002,-0.14512,-0.38001,0.03845,,,,,,,,,,,,,,,,,,,,,,,,,,0,0,0,0,0
4.9444,1783187484.2637,1,1,1.0000,0.0000,1.44680,0.20158,-2.78530,1.01288,1.57079,0.00002,-0.14512,-0.38001,0.03842,,,,,,,,,,,,,,,,,,,,,,,,,,0,0,0,0,0
4.9505,1783187484.2698,1,1,1.0000,0.0000,1.44680,0.20153,-2.78531,1.01294,1.57079,0.00003,-0.14512,-0.38001,0.03841,,,,,,,,,,,,,,,,,,,,,,,,,,0,0,0,0,0
4.9509,1783187484.2701,1,1,1.0000,0.0000,1.44680,0.20153,-2.78531,1.01294,1.57079,0.00003,-0.14512,-0.38001,0.03841,,,,,,,,,,,,,,,,,,,,,,,,,,0,0,0,0,0
4.9607,1783187484.2799,1,1,1.0000,0.0000,1.44680,0.20150,-2.78532,1.01298,1.57079,0.00003,-0.14512,-0.38001,0.03840,,,,,,,,,,,,,,,,,,,,,,,,,,0,0,0,0,0
4.9611,1783187484.2803,1,1,1.0000,0.0000,1.44680,0.20150,-2.78532,1.01298,1.57079,0.00003,-0.14512,-0.38001,0.03840,,,,,,,,,,,,,,,,,,,,,,,,,,0,0,0,0,0
4.9731,1783187484.2923,1,1,1.0000,0.0000,1.44680,0.20135,-2.78535,1.01316,1.57079,0.00003,-0.14512,-0.38001,0.03836,,,,,,,,,,,,,,,,,,,,,,,,,,0,0,0,0,0
4.9823,1783187484.3016,1,1,1.0000,0.0000,1.44680,0.20130,-2.78536,1.01323,1.57079,0.00003,-0.14512,-0.38001,0.03835,,,,,,,,,,,,,,,,,,,,,,,,,,0,0,0,0,0
4.9914,1783187484.3106,1,1,1.0000,0.0000,1.44680,0.20126,-2.78537,1.01327,1.57079,0.00003,-0.14512,-0.38001,0.03834,,,,,,,,,,,,,,,,,,,,,,,,,,0,0,0,0,0
4.9917,1783187484.3110,1,1,1.0000,0.0000,1.44680,0.20126,-2.78537,1.01327,1.57079,0.00003,-0.14512,-0.38001,0.03834,,,,,,,,,,,,,,,,,,,,,,,,,,0,0,0,0,0
5.0037,1783187484.3230,1,1,1.0000,0.0000,1.44680,0.20113,-2.78540,1.01344,1.57079,0.00003,-0.14512,-0.38001,0.03831,,,,,,,,,,,,,,,,,,,,,,,,,,0,0,0,0,0
5.0124,1783187484.3317,1,1,1.0000,0.0000,1.44680,0.20102,-2.78543,1.01357,1.57079,0.00003,-0.14512,-0.38001,0.03828,,,,,,,,,,,,,,,,,,,,,,,,,,0,0,0,0,0
5.0210,1783187484.3402,1,1,1.0000,0.0000,1.44680,0.20098,-2.78544,1.01361,1.57079,0.00003,-0.14512,-0.38001,0.03827,,,,,,,,,,,,,,,,,,,,,,,,,,0,0,0,0,0
5.0327,1783187484.3520,1,1,1.0000,0.0000,1.44680,0.20085,-2.78547,1.01379,1.57079,0.00003,-0.14512,-0.38001,0.03824,,,,,,,,,,,,,,,,,,,,,,,,,,0,0,0,0,0
5.0407,1783187484.3599,1,1,1.0000,0.0000,1.44680,0.20074,-2.78549,1.01392,1.57079,0.00003,-0.14512,-0.38001,0.03821,,,,,,,,,,,,,,,,,,,,,,,,,,0,0,0,0,0
5.0410,1783187484.3602,1,1,1.0000,0.0000,1.44680,0.20074,-2.78549,1.01392,1.57079,0.00003,-0.14512,-0.38001,0.03821,,,,,,,,,,,,,,,,,,,,,,,,,,0,0,0,0,0
5.0529,1783187484.3722,1,1,1.0000,0.0000,1.44680,0.20071,-2.78550,1.01395,1.57079,0.00003,-0.14512,-0.38001,0.03820,,,,,,,,,,,,,,,,,,,,,,,,,,0,0,0,0,0
5.0663,1783187484.3855,1,1,1.0000,0.0000,1.44680,0.20060,-2.78552,1.01408,1.57079,0.00003,-0.14512,-0.38001,0.03818,,,,,,,,,,,,,,,,,,,,,,,,,,0,0,0,0,0
5.0667,1783187484.3859,1,1,1.0000,0.0000,1.44680,0.20060,-2.78552,1.01408,1.57079,0.00003,-0.14512,-0.38001,0.03818,,,,,,,,,,,,,,,,,,,,,,,,,,0,0,0,0,0
5.0760,1783187484.3952,1,1,1.0000,0.0000,1.44680,0.20056,-2.78554,1.01414,1.57079,0.00003,-0.14512,-0.38001,0.03817,,,,,,,,,,,,,,,,,,,,,,,,,,0,0,0,0,0
5.0865,1783187484.4057,1,1,1.0000,0.0000,1.44680,0.20048,-2.78555,1.01423,1.57079,0.00003,-0.14512,-0.38001,0.03815,,,,,,,,,,,,,,,,,,,,,,,,,,0,0,0,0,0
5.0927,1783187484.4119,1,1,1.0000,0.0000,1.44680,0.20038,-2.78558,1.01436,1.57079,0.00003,-0.14512,-0.38001,0.03812,,,,,,,,,,,,,,,,,,,,,,,,,,0,0,0,0,0
5.0930,1783187484.4122,1,1,1.0000,0.0000,1.44680,0.20038,-2.78558,1.01436,1.57079,0.00003,-0.14512,-0.38001,0.03812,,,,,,,,,,,,,,,,,,,,,,,,,,0,0,0,0,0
5.1012,1783187484.4204,1,1,1.0000,0.0000,1.44680,0.20027,-2.78560,1.01449,1.57079,0.00003,-0.14512,-0.38001,0.03809,,,,,,,,,,,,,,,,,,,,,,,,,,0,0,0,0,0
5.1132,1783187484.4325,1,1,1.0000,0.0000,1.44680,0.20025,-2.78561,1.01453,1.57079,0.00003,-0.14512,-0.38001,0.03809,,,,,,,,,,,,,,,,,,,,,,,,,,0,0,0,0,0
5.1235,1783187484.4427,1,1,1.0000,0.0000,1.44680,0.20018,-2.78562,1.01461,1.57079,0.00003,-0.14512,-0.38001,0.03807,,,,,,,,,,,,,,,,,,,,,,,,,,0,0,0,0,0
5.1330,1783187484.4522,1,1,1.0000,0.0000,1.44680,0.20009,-2.78564,1.01471,1.57079,0.00003,-0.14512,-0.38001,0.03805,,,,,,,,,,,,,,,,,,,,,,,,,,0,0,0,0,0
5.1472,1783187484.4665,1,1,1.0000,0.0000,1.44680,0.20002,-2.78566,1.01481,1.57079,0.00003,-0.14512,-0.38001,0.03803,,,,,,,,,,,,,,,,,,,,,,,,,,0,0,0,0,0
5.1507,1783187484.4699,1,1,1.0000,0.0000,1.44680,0.19997,-2.78567,1.01487,1.57079,0.00003,-0.14512,-0.38001,0.03802,,,,,,,,,,,,,,,,,,,,,,,,,,0,0,0,0,0
5.1624,1783187484.4816,1,1,1.0000,0.0000,1.44680,0.19980,-2.78571,1.01507,1.57079,0.00003,-0.14512,-0.38001,0.03798,,,,,,,,,,,,,,,,,,,,,,,,,,0,0,0,0,0
5.1708,1783187484.4901,1,1,1.0000,0.0000,1.44680,0.19980,-2.78571,1.01508,1.57079,0.00003,-0.14512,-0.38001,0.03798,,,,,,,,,,,,,,,,,,,,,,,,,,0,0,0,0,0
5.1712,1783187484.4905,1,1,1.0000,0.0000,1.44680,0.19980,-2.78571,1.01508,1.57079,0.00003,-0.14512,-0.38001,0.03798,,,,,,,,,,,,,,,,,,,,,,,,,,0,0,0,0,0
5.1877,1783187484.5070,1,1,1.0000,0.0000,1.44680,0.19967,-2.78574,1.01523,1.57079,0.00003,-0.14512,-0.38001,0.03795,,,,,,,,,,,,,,,,,,,,,,,,,,0,0,0,0,0
5.1881,1783187484.5073,1,1,1.0000,0.0000,1.44680,0.19967,-2.78574,1.01523,1.57079,0.00003,-0.14512,-0.38001,0.03795,,,,,,,,,,,,,,,,,,,,,,,,,,0,0,0,0,0
5.1912,1783187484.5104,1,1,1.0000,0.0000,1.44680,0.19963,-2.78575,1.01529,1.57079,0.00003,-0.14512,-0.38001,0.03793,,,,,,,,,,,,,,,,,,,,,,,,,,0,0,0,0,0
5.1916,1783187484.5108,1,1,1.0000,0.0000,1.44680,0.19963,-2.78575,1.01529,1.57079,0.00003,-0.14512,-0.38001,0.03793,,,,,,,,,,,,,,,,,,,,,,,,,,0,0,0,0,0
5.2008,1783187484.5200,1,1,1.0000,0.0000,1.44680,0.19959,-2.78576,1.01533,1.57079,0.00003,-0.14512,-0.38001,0.03792,,,,,,,,,,,,,,,,,,,,,,,,,,0,0,0,0,0
5.2125,1783187484.5317,1,1,1.0000,0.0000,1.44680,0.19945,-2.78580,1.01551,1.57079,0.00003,-0.14512,-0.38001,0.03789,,,,,,,,,,,,,,,,,,,,,,,,,,0,0,0,0,0
5.2209,1783187484.5401,1,1,1.0000,0.0000,1.44680,0.19934,-2.78582,1.01565,1.57079,0.00003,-0.14512,-0.38001,0.03786,,,,,,,,,,,,,,,,,,,,,,,,,,0,0,0,0,0
5.2213,1783187484.5406,1,1,1.0000,0.0000,1.44680,0.19934,-2.78582,1.01565,1.57079,0.00003,-0.14512,-0.38001,0.03786,,,,,,,,,,,,,,,,,,,,,,,,,,0,0,0,0,0
5.2381,1783187484.5574,1,1,1.0000,0.0000,1.44680,0.19928,-2.78583,1.01571,1.57079,0.00003,-0.14512,-0.38001,0.03785,,,,,,,,,,,,,,,,,,,,,,,,,,0,0,0,0,0
5.2424,1783187484.5616,1,1,1.0000,0.0000,1.44680,0.19925,-2.78584,1.01576,1.57079,0.00003,-0.14512,-0.38001,0.03784,,,,,,,,,,,,,,,,,,,,,,,,,,0,0,0,0,0
5.2426,1783187484.5619,1,1,1.0000,0.0000,1.44680,0.19925,-2.78584,1.01576,1.57079,0.00003,-0.14512,-0.38001,0.03784,,,,,,,,,,,,,,,,,,,,,,,,,,0,0,0,0,0
5.2510,1783187484.5703,1,1,1.0000,0.0000,1.44680,0.19916,-2.78586,1.01587,1.57079,0.00003,-0.14512,-0.38001,0.03782,,,,,,,,,,,,,,,,,,,,,,,,,,0,0,0,0,0
5.2666,1783187484.5858,1,1,1.0000,0.0000,1.44680,0.19908,-2.78588,1.01596,1.57079,0.00003,-0.14512,-0.38001,0.03780,,,,,,,,,,,,,,,,,,,,,,,,,,0,0,0,0,0
5.2669,1783187484.5862,1,1,1.0000,0.0000,1.44680,0.19908,-2.78588,1.01596,1.57079,0.00003,-0.14512,-0.38001,0.03780,,,,,,,,,,,,,,,,,,,,,,,,,,0,0,0,0,0
5.2769,1783187484.5961,1,1,1.0000,0.0000,1.44680,0.19892,-2.78592,1.01616,1.57079,0.00003,-0.14512,-0.38001,0.03776,,,,,,,,,,,,,,,,,,,,,,,,,,0,0,0,0,0
5.2808,1783187484.6000,1,1,1.0000,0.0000,1.44680,0.19887,-2.78593,1.01622,1.57079,0.00003,-0.14512,-0.38001,0.03775,,,,,,,,,,,,,,,,,,,,,,,,,,0,0,0,0,0
5.2811,1783187484.6003,1,1,1.0000,0.0000,1.44680,0.19887,-2.78593,1.01622,1.57079,0.00003,-0.14512,-0.38001,0.03775,,,,,,,,,,,,,,,,,,,,,,,,,,0,0,0,0,0
5.2920,1783187484.6113,1,1,1.0000,0.0000,1.44680,0.19886,-2.78593,1.01623,1.57079,0.00003,-0.14512,-0.38001,0.03774,,,,,,,,,,,,,,,,,,,,,,,,,,0,0,0,0,0
5.3032,1783187484.6224,1,1,1.0000,0.0000,1.44680,0.19878,-2.78595,1.01633,1.57079,0.00003,-0.14512,-0.38001,0.03772,,,,,,,,,,,,,,,,,,,,,,,,,,0,0,0,0,0
5.3106,1783187484.6298,1,1,1.0000,0.0000,1.44680,0.19869,-2.78597,1.01644,1.57079,0.00003,-0.14512,-0.38001,0.03770,,,,,,,,,,,,,,,,,,,,,,,,,,0,0,0,0,0
5.3208,1783187484.6400,1,1,1.0000,0.0000,1.44680,0.19866,-2.78598,1.01649,1.57079,0.00003,-0.14512,-0.38001,0.03769,,,,,,,,,,,,,,,,,,,,,,,,,,0,0,0,0,0
5.3329,1783187484.6522,1,1,1.0000,0.0000,1.44680,0.19851,-2.78601,1.01666,1.57079,0.00003,-0.14512,-0.38001,0.03766,,,,,,,,,,,,,,,,,,,,,,,,,,0,0,0,0,0
5.3466,1783187484.6659,1,1,1.0000,0.0000,1.44680,0.19840,-2.78604,1.01680,1.57079,0.00003,-0.14512,-0.38001,0.03763,,,,,,,,,,,,,,,,,,,,,,,,,,0,0,0,0,0
5.3516,1783187484.6708,1,1,1.0000,0.0000,1.44680,0.19840,-2.78604,1.01681,1.57079,0.00003,-0.14512,-0.38001,0.03763,,,,,,,,,,,,,,,,,,,,,,,,,,0,0,0,0,0
