Martins-Lucaas/twinforge/sensors/Data/20260704_141202__samples.csv
t_rel_s,t_unix,cycle,phase,setpoint_n,force_net_n,q1,q2,q3,q4,q5,q6,tcp_x,tcp_y,tcp_z,taxel_0,taxel_1,taxel_2,taxel_3,taxel_4,taxel_5,taxel_6,taxel_7,taxel_8,taxel_9,taxel_10,taxel_11,taxel_12,taxel_13,taxel_14,taxel_15,taxel_16,taxel_17,taxel_18,taxel_19,taxel_20,taxel_21,taxel_22,taxel_23,taxel_24,n_RA,n_SA,cn_mm,cn_ra,cn_sa
0.0011,1783185122.1337,0,-1,1.0000,-0.0000,1.44682,0.23328,-2.77748,0.97337,1.57080,0.00000,-0.14512,-0.38003,0.04653,,,,,,,,,,,,,,,,,,,,,,,,,,0,0,0,0,0
0.0106,1783185122.1432,1,0,1.0000,-0.0000,1.44682,0.23328,-2.77748,0.97337,1.57080,0.00000,-0.14512,-0.38003,0.04653,,,,,,,,,,,,,,,,,,,,,,,,,,0,0,0,0,0
0.0256,1783185122.1582,1,0,1.0000,-0.0000,1.44682,0.23328,-2.77748,0.97337,1.57080,0.00000,-0.14512,-0.38003,0.04653,,,,,,,,,,,,,,,,,,,,,,,,,,0,0,0,0,0
0.0338,1783185122.1664,1,0,1.0000,-0.0000,1.44682,0.23328,-2.77748,0.97337,1.57080,0.00000,-0.14512,-0.38003,0.04653,,,,,,,,,,,,,,,,,,,,,,,,,,0,0,0,0,0
0.0411,1783185122.1737,1,0,1.0000,-0.0000,1.44682,0.23328,-2.77748,0.97337,1.57080,0.00000,-0.14512,-0.38003,0.04653,,,,,,,,,,,,,,,,,,,,,,,,,,0,0,0,0,0
0.0516,1783185122.1842,1,0,1.0000,-0.0000,1.44682,0.23328,-2.77748,0.97337,1.57080,0.00000,-0.14512,-0.38003,0.04653,,,,,,,,,,,,,,,,,,,,,,,,,,0,0,0,0,0
0.0521,1783185122.1847,1,0,1.0000,-0.0000,1.44682,0.23328,-2.77748,0.97337,1.57080,0.00000,-0.14512,-0.38003,0.04653,,,,,,,,,,,,,,,,,,,,,,,,,,0,0,0,0,0
0.0608,1783185122.1934,1,0,1.0000,-0.0000,1.44682,0.23328,-2.77748,0.97337,1.57080,0.00000,-0.14512,-0.38003,0.04653,,,,,,,,,,,,,,,,,,,,,,,,,,0,0,0,0,0
0.0706,1783185122.2032,1,0,1.0000,-0.0000,1.44682,0.23328,-2.77748,0.97337,1.57080,0.00000,-0.14512,-0.38003,0.04653,,,,,,,,,,,,,,,,,,,,,,,,,,0,0,0,0,0
0.0807,1783185122.2133,1,0,1.0000,-0.0000,1.44682,0.23328,-2.77748,0.97337,1.57080,0.00000,-0.14512,-0.38003,0.04653,,,,,,,,,,,,,,,,,,,,,,,,,,0,0,0,0,0
0.0905,1783185122.2231,1,0,1.0000,-0.0000,1.44682,0.23328,-2.77748,0.97337,1.57080,0.00000,-0.14512,-0.38003,0.04653,,,,,,,,,,,,,,,,,,,,,,,,,,0,0,0,0,0
0.0908,1783185122.2234,1,0,1.0000,-0.0000,1.44682,0.23328,-2.77748,0.97337,1.57080,0.00000,-0.14512,-0.38003,0.04653,,,,,,,,,,,,,,,,,,,,,,,,,,0,0,0,0,0
0.1022,1783185122.2348,1,0,1.0000,-0.0000,1.44682,0.23328,-2.77748,0.97337,1.57080,0.00000,-0.14512,-0.38003,0.04653,,,,,,,,,,,,,,,,,,,,,,,,,,0,0,0,0,0
0.1106,1783185122.2432,1,0,1.0000,-0.0000,1.44682,0.23328,-2.77748,0.97337,1.57080,0.00000,-0.14512,-0.38003,0.04653,,,,,,,,,,,,,,,,,,,,,,,,,,0,0,0,0,0
0.1216,1783185122.2542,1,0,1.0000,-0.0000,1.44682,0.23328,-2.77748,0.97337,1.57080,0.00000,-0.14512,-0.38003,0.04653,,,,,,,,,,,,,,,,,,,,,,,,,,0,0,0,0,0
0.1351,1783185122.2677,1,0,1.0000,-0.0000,1.44682,0.23328,-2.77748,0.97337,1.57080,0.00000,-0.14512,-0.38003,0.04653,,,,,,,,,,,,,,,,,,,,,,,,,,0,0,0,0,0
0.1424,1783185122.2750,1,0,1.0000,-0.0000,1.44682,0.23328,-2.77748,0.97337,1.57080,-0.00000,-0.14512,-0.38003,0.04653,,,,,,,,,,,,,,,,,,,,,,,,,,0,0,0,0,0
0.1522,1783185122.2848,1,0,1.0000,-0.0000,1.44682,0.23328,-2.77748,0.97337,1.57080,0.00000,-0.14512,-0.38003,0.04653,,,,,,,,,,,,,,,,,,,,,,,,,,0,0,0,0,0
0.1606,1783185122.2932,1,0,1.0000,-0.0000,1.44682,0.23328,-2.77748,0.97337,1.57080,0.00000,-0.14512,-0.38003,0.04653,,,,,,,,,,,,,,,,,,,,,,,,,,0,0,0,0,0
0.1704,1783185122.3030,1,0,1.0000,-0.0000,1.44682,0.23328,-2.77748,0.97337,1.57080,0.00000,-0.14512,-0.38003,0.04653,,,,,,,,,,,,,,,,,,,,,,,,,,0,0,0,0,0
0.1815,1783185122.3141,1,0,1.0000,-0.0000,1.44682,0.23328,-2.77748,0.97337,1.57080,0.00000,-0.14512,-0.38003,0.04653,,,,,,,,,,,,,,,,,,,,,,,,,,0,0,0,0,0
0.1904,1783185122.3230,1,0,1.0000,-0.0000,1.44682,0.23328,-2.77748,0.97337,1.57080,0.00000,-0.14512,-0.38003,0.04653,,,,,,,,,,,,,,,,,,,,,,,,,,0,0,0,0,0
0.2005,1783185122.3330,1,0,1.0000,-0.0000,1.44682,0.23328,-2.77748,0.97337,1.57080,0.00000,-0.14512,-0.38003,0.04653,,,,,,,,,,,,,,,,,,,,,,,,,,0,0,0,0,0
0.2106,1783185122.3432,1,0,1.0000,-0.0000,1.44682,0.23328,-2.77748,0.97337,1.57080,0.00000,-0.14512,-0.38003,0.04653,,,,,,,,,,,,,,,,,,,,,,,,,,0,0,0,0,0
0.2208,1783185122.3534,1,0,1.0000,-0.0000,1.44682,0.23328,-2.77748,0.97337,1.57080,0.00000,-0.14512,-0.38003,0.04653,,,,,,,,,,,,,,,,,,,,,,,,,,0,0,0,0,0
0.2308,1783185122.3634,1,0,1.0000,-0.0000,1.44682,0.23328,-2.77748,0.97337,1.57080,0.00000,-0.14512,-0.38003,0.04653,,,,,,,,,,,,,,,,,,,,,,,,,,0,0,0,0,0
0.2417,1783185122.3743,1,0,1.0000,-0.0000,1.44682,0.23328,-2.77748,0.97337,1.57080,0.00000,-0.14512,-0.38003,0.04653,,,,,,,,,,,,,,,,,,,,,,,,,,0,0,0,0,0
0.2510,1783185122.3836,1,0,1.0000,-0.0000,1.44682,0.23328,-2.77748,0.97337,1.57080,0.00000,-0.14512,-0.38003,0.04653,,,,,,,,,,,,,,,,,,,,,,,,,,0,0,0,0,0
0.2628,1783185122.3954,1,0,1.0000,-0.0000,1.44682,0.23328,-2.77748,0.97337,1.57080,0.00000,-0.14512,-0.38003,0.04653,,,,,,,,,,,,,,,,,,,,,,,,,,0,0,0,0,0
0.2720,1783185122.4046,1,0,1.0000,-0.0000,1.44682,0.23328,-2.77748,0.97337,1.57080,0.00000,-0.14512,-0.38003,0.04653,,,,,,,,,,,,,,,,,,,,,,,,,,0,0,0,0,0
0.2831,1783185122.4157,1,0,1.0000,-0.0000,1.44682,0.23328,-2.77748,0.97337,1.57080,0.00000,-0.14512,-0.38003,0.04653,,,,,,,,,,,,,,,,,,,,,,,,,,0,0,0,0,0
0.2926,1783185122.4252,1,0,1.0000,-0.0000,1.44682,0.23328,-2.77748,0.97337,1.57080,0.00000,-0.14512,-0.38003,0.04653,,,,,,,,,,,,,,,,,,,,,,,,,,0,0,0,0,0
0.3005,1783185122.4330,1,0,1.0000,-0.0000,1.44682,0.23328,-2.77748,0.97337,1.57080,0.00000,-0.14512,-0.38003,0.04653,,,,,,,,,,,,,,,,,,,,,,,,,,0,0,0,0,0
0.3010,1783185122.4336,1,0,1.0000,-0.0000,1.44682,0.23328,-2.77748,0.97337,1.57080,0.00000,-0.14512,-0.38003,0.04653,,,,,,,,,,,,,,,,,,,,,,,,,,0,0,0,0,0
0.3116,1783185122.4442,1,0,1.0000,-0.0000,1.44682,0.23328,-2.77748,0.97337,1.57080,0.00000,-0.14512,-0.38003,0.04653,,,,,,,,,,,,,,,,,,,,,,,,,,0,0,0,0,0
0.3257,1783185122.4583,1,0,1.0000,-0.0000,1.44682,0.23328,-2.77748,0.97337,1.57080,0.00000,-0.14512,-0.38003,0.04653,,,,,,,,,,,,,,,,,,,,,,,,,,0,0,0,0,0
0.3344,1783185122.4670,1,0,1.0000,-0.0000,1.44682,0.23328,-2.77748,0.97337,1.57080,0.00000,-0.14512,-0.38003,0.04653,,,,,,,,,,,,,,,,,,,,,,,,,,0,0,0,0,0
0.3349,1783185122.4675,1,0,1.0000,-0.0000,1.44682,0.23328,-2.77748,0.97337,1.57080,0.00000,-0.14512,-0.38003,0.04653,,,,,,,,,,,,,,,,,,,,,,,,,,0,0,0,0,0
0.3420,1783185122.4746,1,0,1.0000,-0.0000,1.44682,0.23328,-2.77748,0.97337,1.57080,0.00000,-0.14512,-0.38003,0.04653,,,,,,,,,,,,,,,,,,,,,,,,,,0,0,0,0,0
0.3425,1783185122.4751,1,0,1.0000,-0.0000,1.44682,0.23328,-2.77748,0.97337,1.57080,0.00000,-0.14512,-0.38003,0.04653,,,,,,,,,,,,,,,,,,,,,,,,,,0,0,0,0,0
0.3521,1783185122.4847,1,0,1.0000,-0.0000,1.44682,0.23328,-2.77748,0.97337,1.57080,0.00000,-0.14512,-0.38003,0.04653,,,,,,,,,,,,,,,,,,,,,,,,,,0,0,0,0,0
0.3683,1783185122.5008,1,0,1.0000,-0.0000,1.44682,0.23328,-2.77748,0.97337,1.57080,0.00000,-0.14512,-0.38003,0.04653,,,,,,,,,,,,,,,,,,,,,,,,,,0,0,0,0,0
0.3715,1783185122.5041,1,0,1.0000,-0.0000,1.44682,0.23328,-2.77748,0.97337,1.57080,0.00000,-0.14512,-0.38003,0.04653,,,,,,,,,,,,,,,,,,,,,,,,,,0,0,0,0,0
0.3835,1783185122.5161,1,0,1.0000,-0.0000,1.44682,0.23328,-2.77748,0.97337,1.57080,0.00000,-0.14512,-0.38003,0.04653,,,,,,,,,,,,,,,,,,,,,,,,,,0,0,0,0,0
0.3904,1783185122.5230,1,0,1.0000,-0.0000,1.44682,0.23328,-2.77748,0.97337,1.57080,0.00000,-0.14512,-0.38003,0.04653,,,,,,,,,,,,,,,,,,,,,,,,,,0,0,0,0,0
0.4017,1783185122.5343,1,0,1.0000,-0.0000,1.44682,0.23328,-2.77748,0.97337,1.57080,0.00000,-0.14512,-0.38003,0.04653,,,,,,,,,,,,,,,,,,,,,,,,,,0,0,0,0,0
0.4113,1783185122.5439,1,0,1.0000,-0.0000,1.44682,0.23328,-2.77748,0.97337,1.57080,0.00000,-0.14512,-0.38003,0.04653,,,,,,,,,,,,,,,,,,,,,,,,,,0,0,0,0,0
0.4208,1783185122.5534,1,0,1.0000,-0.0000,1.44682,0.23328,-2.77748,0.97337,1.57080,0.00000,-0.14512,-0.38003,0.04653,,,,,,,,,,,,,,,,,,,,,,,,,,0,0,0,0,0
0.4212,1783185122.5538,1,0,1.0000,-0.0000,1.44682,0.23328,-2.77748,0.97337,1.57080,0.00000,-0.14512,-0.38003,0.04653,,,,,,,,,,,,,,,,,,,,,,,,,,0,0,0,0,0
0.4346,1783185122.5672,1,0,1.0000,-0.0000,1.44682,0.23328,-2.77748,0.97337,1.57080,0.00000,-0.14512,-0.38003,0.04653,,,,,,,,,,,,,,,,,,,,,,,,,,0,0,0,0,0
0.4439,1783185122.5765,1,0,1.0000,-0.0000,1.44682,0.23328,-2.77748,0.97337,1.57080,0.00000,-0.14512,-0.38003,0.04653,,,,,,,,,,,,,,,,,,,,,,,,,,0,0,0,0,0
0.4443,1783185122.5769,1,0,1.0000,-0.0000,1.44682,0.23328,-2.77748,0.97337,1.57080,0.00000,-0.14512,-0.38003,0.04653,,,,,,,,,,,,,,,,,,,,,,,,,,0,0,0,0,0
0.4510,1783185122.5836,1,0,1.0000,-0.0000,1.44682,0.23328,-2.77748,0.97337,1.57080,0.00000,-0.14512,-0.38003,0.04653,,,,,,,,,,,,,,,,,,,,,,,,,,0,0,0,0,0
0.4676,1783185122.6002,1,0,1.0000,-0.0000,1.44682,0.23328,-2.77748,0.97337,1.57080,0.00000,-0.14512,-0.38003,0.04653,,,,,,,,,,,,,,,,,,,,,,,,,,0,0,0,0,0
0.4707,1783185122.6033,1,0,1.0000,-0.0000,1.44682,0.23328,-2.77748,0.97337,1.57080,0.00000,-0.14512,-0.38003,0.04653,,,,,,,,,,,,,,,,,,,,,,,,,,0,0,0,0,0
0.4806,1783185122.6132,1,0,1.0000,-0.0000,1.44682,0.23328,-2.77748,0.97337,1.57080,0.00000,-0.14512,-0.38003,0.04653,,,,,,,,,,,,,,,,,,,,,,,,,,0,0,0,0,0
0.4916,1783185122.6242,1,0,1.0000,-0.0000,1.44682,0.23328,-2.77748,0.97337,1.57080,0.00000,-0.14512,-0.38003,0.04653,,,,,,,,,,,,,,,,,,,,,,,,,,0,0,0,0,0
0.5042,1783185122.6368,1,0,1.0000,-0.0000,1.44682,0.23328,-2.77748,0.97337,1.57080,0.00000,-0.14512,-0.38003,0.04653,,,,,,,,,,,,,,,,,,,,,,,,,,0,0,0,0,0
0.5114,1783185122.6440,1,0,1.0000,-0.0000,1.44682,0.23328,-2.77748,0.97337,1.57080,0.00000,-0.14512,-0.38003,0.04653,,,,,,,,,,,,,,,,,,,,,,,,,,0,0,0,0,0
0.5206,1783185122.6531,1,0,1.0000,-0.0000,1.44682,0.23328,-2.77748,0.97337,1.57080,0.00000,-0.14512,-0.38003,0.04653,,,,,,,,,,,,,,,,,,,,,,,,,,0,0,0,0,0
0.5328,1783185122.6654,1,0,1.0000,-0.0000,1.44682,0.23328,-2.77748,0.97337,1.57080,0.00000,-0.14512,-0.38003,0.04653,,,,,,,,,,,,,,,,,,,,,,,,,,0,0,0,0,0
0.5332,1783185122.6658,1,0,1.0000,-0.0000,1.44682,0.23328,-2.77748,0.97337,1.57080,0.00000,-0.14512,-0.38003,0.04653,,,,,,,,,,,,,,,,,,,,,,,,,,0,0,0,0,0
0.5441,1783185122.6767,1,0,1.0000,-0.0000,1.44682,0.23328,-2.77748,0.97337,1.57080,0.00000,-0.14512,-0.38003,0.04653,,,,,,,,,,,,,,,,,,,,,,,,,,0,0,0,0,0
0.5445,1783185122.6771,1,0,1.0000,-0.0000,1.44682,0.23328,-2.77748,0.97337,1.57080,0.00000,-0.14512,-0.38003,0.04653,,,,,,,,,,,,,,,,,,,,,,,,,,0,0,0,0,0
0.5523,1783185122.6849,1,0,1.0000,-0.0000,1.44682,0.23328,-2.77748,0.97337,1.57080,0.00000,-0.14512,-0.38003,0.04653,,,,,,,,,,,,,,,,,,,,,,,,,,0,0,0,0,0
0.5639,1783185122.6965,1,0,1.0000,-0.0000,1.44682,0.23328,-2.77748,0.97337,1.57080,0.00000,-0.14512,-0.38003,0.04653,,,,,,,,,,,,,,,,,,,,,,,,,,0,0,0,0,0
0.5705,1783185122.7031,1,0,1.0000,-0.0000,1.44682,0.23328,-2.77748,0.97337,1.57080,0.00000,-0.14512,-0.38003,0.04653,,,,,,,,,,,,,,,,,,,,,,,,,,0,0,0,0,0
0.5871,1783185122.7197,1,0,1.0000,-0.0000,1.44682,0.23328,-2.77748,0.97337,1.57080,0.00000,-0.14512,-0.38003,0.04653,,,,,,,,,,,,,,,,,,,,,,,,,,0,0,0,0,0
0.5942,1783185122.7268,1,0,1.0000,-0.0000,1.44682,0.23328,-2.77748,0.97337,1.57080,0.00000,-0.14512,-0.38003,0.04653,,,,,,,,,,,,,,,,,,,,,,,,,,0,0,0,0,0
0.5946,1783185122.7271,1,0,1.0000,-0.0000,1.44682,0.23328,-2.77748,0.97337,1.57080,0.00000,-0.14512,-0.38003,0.04653,,,,,,,,,,,,,,,,,,,,,,,,,,0,0,0,0,0
0.6061,1783185122.7387,1,0,1.0000,-0.0000,1.44682,0.23328,-2.77748,0.97337,1.57080,0.00000,-0.14512,-0.38003,0.04653,,,,,,,,,,,,,,,,,,,,,,,,,,0,0,0,0,0
0.6106,1783185122.7432,1,0,1.0000,-0.0000,1.44682,0.23328,-2.77748,0.97337,1.57080,0.00000,-0.14512,-0.38003,0.04653,,,,,,,,,,,,,,,,,,,,,,,,,,0,0,0,0,0
0.6109,1783185122.7435,1,0,1.0000,-0.0000,1.44682,0.23328,-2.77748,0.97337,1.57080,0.00000,-0.14512,-0.38003,0.04653,,,,,,,,,,,,,,,,,,,,,,,,,,0,0,0,0,0
0.6221,1783185122.7547,1,0,1.0000,-0.0000,1.44682,0.23328,-2.77748,0.97337,1.57080,0.00000,-0.14512,-0.38003,0.04653,,,,,,,,,,,,,,,,,,,,,,,,,,0,0,0,0,0
0.6225,1783185122.7551,1,0,1.0000,-0.0000,1.44682,0.23328,-2.77748,0.97337,1.57080,0.00000,-0.14512,-0.38003,0.04653,,,,,,,,,,,,,,,,,,,,,,,,,,0,0,0,0,0
0.6321,1783185122.7647,1,0,1.0000,-0.0000,1.44682,0.23328,-2.77748,0.97337,1.57080,0.00000,-0.14512,-0.38003,0.04653,,,,,,,,,,,,,,,,,,,,,,,,,,0,0,0,0,0
0.6412,1783185122.7738,1,0,1.0000,-0.0000,1.44682,0.23328,-2.77748,0.97337,1.57080,0.00000,-0.14512,-0.38003,0.04653,,,,,,,,,,,,,,,,,,,,,,,,,,0,0,0,0,0
0.6521,1783185122.7847,1,0,1.0000,-0.0000,1.44682,0.23328,-2.77748,0.97337,1.57080,0.00000,-0.14512,-0.38003,0.04653,,,,,,,,,,,,,,,,,,,,,,,,,,0,0,0,0,0
0.6605,1783185122.7931,1,0,1.0000,-0.0000,1.44682,0.23328,-2.77748,0.97337,1.57080,0.00000,-0.14512,-0.38003,0.04653,,,,,,,,,,,,,,,,,,,,,,,,,,0,0,0,0,0
0.6725,1783185122.8051,1,0,1.0000,-0.0000,1.44682,0.23328,-2.77748,0.97337,1.57080,0.00000,-0.14512,-0.38003,0.04653,,,,,,,,,,,,,,,,,,,,,,,,,,0,0,0,0,0
0.6806,1783185122.8131,1,0,1.0000,-0.0000,1.44682,0.23328,-2.77748,0.97337,1.57080,0.00000,-0.14512,-0.38003,0.04653,,,,,,,,,,,,,,,,,,,,,,,,,,0,0,0,0,0
0.6905,1783185122.8231,1,0,1.0000,-0.0000,1.44682,0.23328,-2.77748,0.97337,1.57080,0.00000,-0.14512,-0.38003,0.04653,,,,,,,,,,,,,,,,,,,,,,,,,,0,0,0,0,0
0.7114,1783185122.8440,1,0,1.0000,-0.0000,1.44682,0.23328,-2.77748,0.97337,1.57080,0.00000,-0.14512,-0.38003,0.04653,,,,,,,,,,,,,,,,,,,,,,,,,,0,0,0,0,0
0.7121,1783185122.8447,1,0,1.0000,-0.0000,1.44682,0.23328,-2.77748,0.97337,1.57080,0.00000,-0.14512,-0.38003,0.04653,,,,,,,,,,,,,,,,,,,,,,,,,,0,0,0,0,0
0.7207,1783185122.8532,1,0,1.0000,-0.0000,1.44682,0.23328,-2.77748,0.97337,1.57080,0.00000,-0.14512,-0.38003,0.04653,,,,,,,,,,,,,,,,,,,,,,,,,,0,0,0,0,0
0.7211,1783185122.8537,1,0,1.0000,-0.0000,1.44682,0.23328,-2.77748,0.97337,1.57080,0.00000,-0.14512,-0.38003,0.04653,,,,,,,,,,,,,,,,,,,,,,,,,,0,0,0,0,0
0.7303,1783185122.8629,1,0,1.0000,-0.0000,1.44682,0.23328,-2.77748,0.97337,1.57080,0.00000,-0.14512,-0.38003,0.04653,,,,,,,,,,,,,,,,,,,,,,,,,,0,0,0,0,0
0.7307,1783185122.8633,1,0,1.0000,-0.0000,1.44682,0.23328,-2.77748,0.97337,1.57080,0.00000,-0.14512,-0.38003,0.04653,,,,,,,,,,,,,,,,,,,,,,,,,,0,0,0,0,0
0.7436,1783185122.8762,1,1,1.0000,-0.0000,1.44682,0.23328,-2.77748,0.97337,1.57080,0.00000,-0.14512,-0.38003,0.04653,,,,,,,,,,,,,,,,,,,,,,,,,,0,0,0,0,0
0.7518,1783185122.8843,1,1,1.0000,-0.0000,1.44682,0.23328,-2.77748,0.97337,1.57080,0.00000,-0.14512,-0.38003,0.04653,,,,,,,,,,,,,,,,,,,,,,,,,,0,0,0,0,0
0.7602,1783185122.8928,1,1,1.0000,-0.0000,1.44682,0.23328,-2.77748,0.97337,1.57080,0.00000,-0.14512,-0.38003,0.04653,,,,,,,,,,,,,,,,,,,,,,,,,,0,0,0,0,0
0.7606,1783185122.8932,1,1,1.0000,-0.0000,1.44682,0.23328,-2.77748,0.97337,1.57080,0.00000,-0.14512,-0.38003,0.04653,,,,,,,,,,,,,,,,,,,,,,,,,,0,0,0,0,0
0.7748,1783185122.9074,1,1,1.0000,-0.0000,1.44682,0.23328,-2.77748,0.97337,1.57080,0.00000,-0.14512,-0.38003,0.04653,,,,,,,,,,,,,,,,,,,,,,,,,,0,0,0,0,0
0.7803,1783185122.9129,1,1,1.0000,-0.0000,1.44682,0.23328,-2.77748,0.97337,1.57080,0.00000,-0.14512,-0.38003,0.04653,,,,,,,,,,,,,,,,,,,,,,,,,,0,0,0,0,0
0.7807,1783185122.9133,1,1,1.0000,-0.0000,1.44682,0.23328,-2.77748,0.97337,1.57080,0.00000,-0.14512,-0.38003,0.04653,,,,,,,,,,,,,,,,,,,,,,,,,,0,0,0,0,0
0.7922,1783185122.9248,1,1,1.0000,-0.0000,1.44682,0.23328,-2.77748,0.97337,1.57080,0.00000,-0.14512,-0.38003,0.04653,,,,,,,,,,,,,,,,,,,,,,,,,,0,0,0,0,0
0.8006,1783185122.9332,1,1,1.0000,-0.0000,1.44682,0.23328,-2.77748,0.97337,1.57080,0.00000,-0.14512,-0.38003,0.04653,,,,,,,,,,,,,,,,,,,,,,,,,,0,0,0,0,0
0.8140,1783185122.9466,1,1,1.0000,-0.0000,1.44682,0.23328,-2.77748,0.97337,1.57080,0.00000,-0.14512,-0.38003,0.04653,,,,,,,,,,,,,,,,,,,,,,,,,,0,0,0,0,0
0.8211,1783185122.9537,1,1,1.0000,-0.0000,1.44682,0.23328,-2.77748,0.97337,1.57080,0.00000,-0.14512,-0.38003,0.04653,,,,,,,,,,,,,,,,,,,,,,,,,,0,0,0,0,0
0.8306,1783185122.9632,1,1,1.0000,-0.0000,1.44682,0.23328,-2.77748,0.97337,1.57080,0.00000,-0.14512,-0.38003,0.04653,,,,,,,,,,,,,,,,,,,,,,,,,,0,0,0,0,0
0.8405,1783185122.9731,1,1,1.0000,-0.0000,1.44682,0.23328,-2.77748,0.97337,1.57080,0.00000,-0.14512,-0.38003,0.04653,,,,,,,,,,,,,,,,,,,,,,,,,,0,0,0,0,0
0.8407,1783185122.9733,1,1,1.0000,-0.0000,1.44682,0.23328,-2.77748,0.97337,1.57080,0.00000,-0.14512,-0.38003,0.04653,,,,,,,,,,,,,,,,,,,,,,,,,,0,0,0,0,0
0.8522,1783185122.9848,1,1,1.0000,-0.0000,1.44682,0.23328,-2.77748,0.97337,1.57080,0.00000,-0.14512,-0.38003,0.04653,,,,,,,,,,,,,,,,,,,,,,,,,,0,0,0,0,0
0.8526,1783185122.9852,1,1,1.0000,-0.0000,1.44682,0.23328,-2.77748,0.97337,1.57080,0.00000,-0.14512,-0.38003,0.04653,,,,,,,,,,,,,,,,,,,,,,,,,,0,0,0,0,0
0.8624,1783185122.9950,1,1,1.0000,-0.0000,1.44682,0.23328,-2.77748,0.97337,1.57080,0.00000,-0.14512,-0.38003,0.04653,,,,,,,,,,,,,,,,,,,,,,,,,,0,0,0,0,0
0.8628,1783185122.9954,1,1,1.0000,-0.0000,1.44682,0.23328,-2.77748,0.97337,1.57080,0.00000,-0.14512,-0.38003,0.04653,,,,,,,,,,,,,,,,,,,,,,,,,,0,0,0,0,0
0.8708,1783185123.0034,1,1,1.0000,-0.0000,1.44682,0.23328,-2.77748,0.97337,1.57080,0.00000,-0.14512,-0.38003,0.04653,,,,,,,,,,,,,,,,,,,,,,,,,,0,0,0,0,0
0.8805,1783185123.0131,1,1,1.0000,-0.0000,1.44682,0.23328,-2.77748,0.97337,1.57080,0.00000,-0.14512,-0.38003,0.04653,,,,,,,,,,,,,,,,,,,,,,,,,,0,0,0,0,0
0.8811,1783185123.0137,1,1,1.0000,-0.0000,1.44682,0.23328,-2.77748,0.97337,1.57080,0.00000,-0.14512,-0.38003,0.04653,,,,,,,,,,,,,,,,,,,,,,,,,,0,0,0,0,0
0.8942,1783185123.0268,1,1,1.0000,-0.0000,1.44682,0.23328,-2.77748,0.97337,1.57080,0.00000,-0.14512,-0.38003,0.04653,,,,,,,,,,,,,,,,,,,,,,,,,,0,0,0,0,0
0.8945,1783185123.0271,1,1,1.0000,-0.0000,1.44682,0.23328,-2.77748,0.97337,1.57080,0.00000,-0.14512,-0.38003,0.04653,,,,,,,,,,,,,,,,,,,,,,,,,,0,0,0,0,0
0.9034,1783185123.0360,1,1,1.0000,-0.0000,1.44682,0.23328,-2.77748,0.97337,1.57080,0.00000,-0.14512,-0.38003,0.04653,,,,,,,,,,,,,,,,,,,,,,,,,,0,0,0,0,0
0.9157,1783185123.0483,1,1,1.0000,-0.0000,1.44682,0.23328,-2.77748,0.97337,1.57080,0.00000,-0.14512,-0.38003,0.04653,,,,,,,,,,,,,,,,,,,,,,,,,,0,0,0,0,0
0.9262,1783185123.0588,1,1,1.0000,-0.0000,1.44682,0.23328,-2.77748,0.97337,1.57080,0.00000,-0.14512,-0.38003,0.04653,,,,,,,,,,,,,,,,,,,,,,,,,,0,0,0,0,0
0.9265,1783185123.0591,1,1,1.0000,-0.0000,1.44682,0.23328,-2.77748,0.97337,1.57080,0.00000,-0.14512,-0.38003,0.04653,,,,,,,,,,,,,,,,,,,,,,,,,,0,0,0,0,0
0.9313,1783185123.0639,1,1,1.0000,-0.0000,1.44682,0.23328,-2.77748,0.97337,1.57080,0.00000,-0.14512,-0.38003,0.04653,,,,,,,,,,,,,,,,,,,,,,,,,,0,0,0,0,0
0.9414,1783185123.0740,1,1,1.0000,-0.0000,1.44682,0.23327,-2.77748,0.97338,1.57080,0.00000,-0.14512,-0.38003,0.04653,,,,,,,,,,,,,,,,,,,,,,,,,,0,0,0,0,0
0.9420,1783185123.0746,1,1,1.0000,-0.0000,1.44682,0.23326,-2.77748,0.97340,1.57080,0.00000,-0.14512,-0.38003,0.04652,,,,,,,,,,,,,,,,,,,,,,,,,,0,0,0,0,0
0.9534,1783185123.0859,1,1,1.0000,-0.0000,1.44682,0.23321,-2.77750,0.97346,1.57080,0.00000,-0.14512,-0.38003,0.04651,,,,,,,,,,,,,,,,,,,,,,,,,,0,0,0,0,0
0.9627,1783185123.0952,1,1,1.0000,-0.0000,1.44682,0.23319,-2.77750,0.97348,1.57080,0.00000,-0.14512,-0.38003,0.04650,,,,,,,,,,,,,,,,,,,,,,,,,,0,0,0,0,0
0.9631,1783185123.0957,1,1,1.0000,-0.0000,1.44682,0.23319,-2.77750,0.97348,1.57080,0.00000,-0.14512,-0.38003,0.04650,,,,,,,,,,,,,,,,,,,,,,,,,,0,0,0,0,0
0.9728,1783185123.1054,1,1,1.0000,-0.0000,1.44682,0.23315,-2.77751,0.97353,1.57080,0.00000,-0.14512,-0.38003,0.04649,,,,,,,,,,,,,,,,,,,,,,,,,,0,0,0,0,0
1.0251,1783185123.1577,1,1,1.0000,-0.0000,1.44682,0.23295,-2.77756,0.97378,1.57080,0.00000,-0.14512,-0.38003,0.04644,,,,,,,,,,,,,,,,,,,,,,,,,,0,0,0,0,0
1.0255,1783185123.1581,1,1,1.0000,-0.0000,1.44682,0.23295,-2.77756,0.97378,1.57080,0.00000,-0.14512,-0.38003,0.04644,,,,,,,,,,,,,,,,,,,,,,,,,,0,0,0,0,0
1.0261,1783185123.1587,1,1,1.0000,-0.0000,1.44682,0.23293,-2.77757,0.97381,1.57080,0.00000,-0.14512,-0.38003,0.04644,,,,,,,,,,,,,,,,,,,,,,,,,,0,0,0,0,0
1.0263,1783185123.1589,1,1,1.0000,-0.0000,1.44682,0.23293,-2.77757,0.97381,1.57080,0.00000,-0.14512,-0.38003,0.04644,,,,,,,,,,,,,,,,,,,,,,,,,,0,0,0,0,0
1.0302,1783185123.1628,1,1,1.0000,-0.0000,1.44682,0.23291,-2.77757,0.97384,1.57080,0.00000,-0.14512,-0.38003,0.04643,,,,,,,,,,,,,,,,,,,,,,,,,,0,0,0,0,0
1.0403,1783185123.1729,1,1,1.0000,-0.0000,1.44682,0.23286,-2.77759,0.97390,1.57080,0.00000,-0.14512,-0.38003,0.04642,,,,,,,,,,,,,,,,,,,,,,,,,,0,0,0,0,0
1.0511,1783185123.1837,1,1,1.0000,-0.0000,1.44682,0.23284,-2.77759,0.97392,1.57080,0.00000,-0.14512,-0.38003,0.04641,,,,,,,,,,,,,,,,,,,,,,,,,,0,0,0,0,0
1.0661,1783185123.1987,1,1,1.0000,-0.0000,1.44682,0.23275,-2.77761,0.97404,1.57080,0.00000,-0.14512,-0.38003,0.04639,,,,,,,,,,,,,,,,,,,,,,,,,,0,0,0,0,0
1.0733,1783185123.2059,1,1,1.0000,-0.0000,1.44682,0.23272,-2.77762,0.97407,1.57080,0.00000,-0.14512,-0.38003,0.04638,,,,,,,,,,,,,,,,,,,,,,,,,,0,0,0,0,0
1.0815,1783185123.2141,1,1,1.0000,-0.0000,1.44682,0.23272,-2.77762,0.97407,1.57080,0.00000,-0.14512,-0.38003,0.04638,,,,,,,,,,,,,,,,,,,,,,,,,,0,0,0,0,0
1.0820,1783185123.2146,1,1,1.0000,-0.0000,1.44682,0.23271,-2.77762,0.97409,1.57080,0.00000,-0.14512,-0.38003,0.04638,,,,,,,,,,,,,,,,,,,,,,,,,,0,0,0,0,0
1.0935,1783185123.2261,1,1,1.0000,-0.0000,1.44682,0.23266,-2.77763,0.97414,1.57080,0.00000,-0.14512,-0.38003,0.04637,,,,,,,,,,,,,,,,,,,,,,,,,,0,0,0,0,0
1.1004,1783185123.2330,1,1,1.0000,-0.0000,1.44682,0.23261,-2.77765,0.97420,1.57080,0.00000,-0.14512,-0.38003,0.04635,,,,,,,,,,,,,,,,,,,,,,,,,,0,0,0,0,0
1.1107,1783185123.2433,1,1,1.0000,-0.0000,1.44682,0.23258,-2.77766,0.97424,1.57080,0.00000,-0.14512,-0.38003,0.04635,,,,,,,,,,,,,,,,,,,,,,,,,,0,0,0,0,0
1.1205,1783185123.2530,1,1,1.0000,-0.0000,1.44682,0.23256,-2.77766,0.97427,1.57080,0.00000,-0.14512,-0.38003,0.04634,,,,,,,,,,,,,,,,,,,,,,,,,,0,0,0,0,0
1.1301,1783185123.2627,1,1,1.0000,-0.0000,1.44682,0.23250,-2.77768,0.97434,1.57080,0.00000,-0.14512,-0.38003,0.04633,,,,,,,,,,,,,,,,,,,,,,,,,,0,0,0,0,0
1.1305,1783185123.2631,1,1,1.0000,-0.0000,1.44682,0.23250,-2.77768,0.97434,1.57080,0.00000,-0.14512,-0.38003,0.04633,,,,,,,,,,,,,,,,,,,,,,,,,,0,0,0,0,0
1.1461,1783185123.2787,1,1,1.0000,-0.0000,1.44682,0.23247,-2.77769,0.97439,1.57080,0.00000,-0.14512,-0.38003,0.04632,,,,,,,,,,,,,,,,,,,,,,,,,,0,0,0,0,0
1.1506,1783185123.2832,1,1,1.0000,-0.0000,1.44682,0.23244,-2.77769,0.97442,1.57080,0.00000,-0.14512,-0.38003,0.04631,,,,,,,,,,,,,,,,,,,,,,,,,,0,0,0,0,0
1.1510,1783185123.2836,1,1,1.0000,-0.0000,1.44682,0.23244,-2.77769,0.97442,1.57080,0.00000,-0.14512,-0.38003,0.04631,,,,,,,,,,,,,,,,,,,,,,,,,,0,0,0,0,0
1.1611,1783185123.2937,1,1,1.0000,-0.0000,1.44682,0.23239,-2.77771,0.97448,1.57080,0.00000,-0.14512,-0.38003,0.04630,,,,,,,,,,,,,,,,,,,,,,,,,,0,0,0,0,0
1.1743,1783185123.3069,1,1,1.0000,-0.0000,1.44682,0.23235,-2.77772,0.97453,1.57080,0.00000,-0.14512,-0.38003,0.04629,,,,,,,,,,,,,,,,,,,,,,,,,,0,0,0,0,0
1.1854,1783185123.3180,1,1,1.0000,-0.0000,1.44682,0.23232,-2.77772,0.97457,1.57080,0.00000,-0.14512,-0.38003,0.04628,,,,,,,,,,,,,,,,,,,,,,,,,,0,0,0,0,0
1.1905,1783185123.3231,1,1,1.0000,-0.0000,1.44682,0.23228,-2.77773,0.97462,1.57080,0.00000,-0.14512,-0.38003,0.04627,,,,,,,,,,,,,,,,,,,,,,,,,,0,0,0,0,0
1.1909,1783185123.3234,1,1,1.0000,-0.0000,1.44682,0.23228,-2.77773,0.97462,1.57080,0.00000,-0.14512,-0.38003,0.04627,,,,,,,,,,,,,,,,,,,,,,,,,,0,0,0,0,0
1.2015,1783185123.3341,1,1,1.0000,-0.0000,1.44682,0.23228,-2.77774,0.97463,1.57080,0.00000,-0.14512,-0.38003,0.04627,,,,,,,,,,,,,,,,,,,,,,,,,,0,0,0,0,0
1.2126,1783185123.3452,1,1,1.0000,-0.0000,1.44682,0.23222,-2.77775,0.97470,1.57080,0.00000,-0.14512,-0.38003,0.04625,,,,,,,,,,,,,,,,,,,,,,,,,,0,0,0,0,0
1.2129,1783185123.3455,1,1,1.0000,-0.0000,1.44682,0.23222,-2.77775,0.97470,1.57080,0.00000,-0.14512,-0.38003,0.04625,,,,,,,,,,,,,,,,,,,,,,,,,,0,0,0,0,0
1.2226,1783185123.3552,1,1,1.0000,-0.0000,1.44682,0.23214,-2.77777,0.97480,1.57080,0.00000,-0.14512,-0.38003,0.04623,,,,,,,,,,,,,,,,,,,,,,,,,,0,0,0,0,0
1.2304,1783185123.3630,1,1,1.0000,-0.0000,1.44682,0.23214,-2.77777,0.97480,1.57080,0.00000,-0.14512,-0.38003,0.04623,,,,,,,,,,,,,,,,,,,,,,,,,,0,0,0,0,0
1.2403,1783185123.3729,1,1,1.0000,-0.0000,1.44682,0.23212,-2.77778,0.97483,1.57080,0.00000,-0.14512,-0.38003,0.04622,,,,,,,,,,,,,,,,,,,,,,,,,,0,0,0,0,0
1.2532,1783185123.3858,1,1,1.0000,-0.0000,1.44682,0.23206,-2.77779,0.97490,1.57080,0.00000,-0.14512,-0.38003,0.04621,,,,,,,,,,,,,,,,,,,,,,,,,,0,0,0,0,0
1.2623,1783185123.3949,1,1,1.0000,-0.0000,1.44682,0.23204,-2.77780,0.97493,1.57080,0.00000,-0.14512,-0.38003,0.04620,,,,,,,,,,,,,,,,,,,,,,,,,,0,0,0,0,0
1.2628,1783185123.3953,1,1,1.0000,-0.0000,1.44682,0.23204,-2.77780,0.97493,1.57080,0.00000,-0.14512,-0.38003,0.04620,,,,,,,,,,,,,,,,,,,,,,,,,,0,0,0,0,0
1.3343,1783185123.4669,1,1,1.0000,-0.0000,1.44682,0.23175,-2.77787,0.97529,1.57080,0.00000,-0.14512,-0.38003,0.04613,,,,,,,,,,,,,,,,,,,,,,,,,,0,0,0,0,0
1.3347,1783185123.4673,1,1,1.0000,-0.0000,1.44682,0.23175,-2.77787,0.97529,1.57080,0.00000,-0.14512,-0.38003,0.04613,,,,,,,,,,,,,,,,,,,,,,,,,,0,0,0,0,0
1.3420,1783185123.4746,1,1,1.0000,-0.0000,1.44682,0.23170,-2.77788,0.97536,1.57080,0.00000,-0.14512,-0.38003,0.04611,,,,,,,,,,,,,,,,,,,,,,,,,,0,0,0,0,0
1.3423,1783185123.4749,1,1,1.0000,-0.0000,1.44682,0.23170,-2.77788,0.97536,1.57080,0.00000,-0.14512,-0.38003,0.04611,,,,,,,,,,,,,,,,,,,,,,,,,,0,0,0,0,0
1.3425,1783185123.4751,1,1,1.0000,-0.0000,1.44682,0.23170,-2.77788,0.97536,1.57080,0.00000,-0.14512,-0.38003,0.04611,,,,,,,,,,,,,,,,,,,,,,,,,,0,0,0,0,0
1.3428,1783185123.4754,1,1,1.0000,-0.0000,1.44682,0.23170,-2.77788,0.97536,1.57080,0.00000,-0.14512,-0.38003,0.04611,,,,,,,,,,,,,,,,,,,,,,,,,,0,0,0,0,0
1.3432,1783185123.4758,1,1,1.0000,-0.0000,1.44682,0.23170,-2.77788,0.97536,1.57080,0.00000,-0.14512,-0.38003,0.04611,,,,,,,,,,,,,,,,,,,,,,,,,,0,0,0,0,0
1.3435,1783185123.4761,1,1,1.0000,-0.0000,1.44682,0.23170,-2.77788,0.97536,1.57080,0.00000,-0.14512,-0.38003,0.04611,,,,,,,,,,,,,,,,,,,,,,,,,,0,0,0,0,0
1.3551,1783185123.4877,1,1,1.0000,-0.0000,1.44682,0.23169,-2.77789,0.97537,1.57080,0.00000,-0.14512,-0.38003,0.04611,,,,,,,,,,,,,,,,,,,,,,,,,,0,0,0,0,0
1.3554,1783185123.4880,1,1,1.0000,-0.0000,1.44682,0.23169,-2.77789,0.97537,1.57080,0.00000,-0.14512,-0.38003,0.04611,,,,,,,,,,,,,,,,,,,,,,,,,,0,0,0,0,0
1.3636,1783185123.4962,1,1,1.0000,-0.0000,1.44682,0.23165,-2.77790,0.97541,1.57080,0.00000,-0.14512,-0.38003,0.04610,,,,,,,,,,,,,,,,,,,,,,,,,,0,0,0,0,0
1.3640,1783185123.4965,1,1,1.0000,-0.0000,1.44682,0.23165,-2.77790,0.97541,1.57080,0.00000,-0.14512,-0.38003,0.04610,,,,,,,,,,,,,,,,,,,,,,,,,,0,0,0,0,0
1.3710,1783185123.5036,1,1,1.0000,-0.0000,1.44682,0.23161,-2.77791,0.97546,1.57080,0.00000,-0.14512,-0.38003,0.04609,,,,,,,,,,,,,,,,,,,,,,,,,,0,0,0,0,0
1.3821,1783185123.5147,1,1,1.0000,-0.0000,1.44682,0.23160,-2.77791,0.97548,1.57080,0.00000,-0.14512,-0.38003,0.04609,,,,,,,,,,,,,,,,,,,,,,,,,,0,0,0,0,0
1.3941,1783185123.5267,1,1,1.0000,-0.0000,1.44682,0.23153,-2.77793,0.97557,1.57080,0.00000,-0.14512,-0.38003,0.04607,,,,,,,,,,,,,,,,,,,,,,,,,,0,0,0,0,0
1.3943,1783185123.5269,1,1,1.0000,-0.0000,1.44682,0.23153,-2.77793,0.97557,1.57080,0.00000,-0.14512,-0.38003,0.04607,,,,,,,,,,,,,,,,,,,,,,,,,,0,0,0,0,0
1.4005,1783185123.5331,1,1,1.0000,-0.0000,1.44682,0.23150,-2.77793,0.97560,1.57080,0.00000,-0.14512,-0.38003,0.04606,,,,,,,,,,,,,,,,,,,,,,,,,,0,0,0,0,0
1.4009,1783185123.5335,1,1,1.0000,-0.0000,1.44682,0.23150,-2.77793,0.97560,1.57080,0.00000,-0.14512,-0.38003,0.04606,,,,,,,,,,,,,,,,,,,,,,,,,,0,0,0,0,0
1.4278,1783185123.5604,1,1,1.0000,-0.0000,1.44682,0.23141,-2.77796,0.97572,1.57080,0.00000,-0.14512,-0.38003,0.04604,,,,,,,,,,,,,,,,,,,,,,,,,,0,0,0,0,0
1.4283,1783185123.5609,1,1,1.0000,-0.0000,1.44682,0.23141,-2.77796,0.97572,1.57080,0.00000,-0.14512,-0.38003,0.04604,,,,,,,,,,,,,,,,,,,,,,,,,,0,0,0,0,0
1.4381,1783185123.5707,1,1,1.0000,-0.0000,1.44682,0.23139,-2.77796,0.97575,1.57080,0.00000,-0.14512,-0.38003,0.04603,,,,,,,,,,,,,,,,,,,,,,,,,,0,0,0,0,0
1.4463,1783185123.5789,1,1,1.0000,-0.0000,1.44682,0.23135,-2.77797,0.97579,1.57080,0.00000,-0.14512,-0.38003,0.04602,,,,,,,,,,,,,,,,,,,,,,,,,,0,0,0,0,0
1.4466,1783185123.5792,1,1,1.0000,-0.0000,1.44682,0.23135,-2.77797,0.97579,1.57080,0.00000,-0.14512,-0.38003,0.04602,,,,,,,,,,,,,,,,,,,,,,,,,,0,0,0,0,0
1.4523,1783185123.5849,1,1,1.0000,-0.0000,1.44682,0.23133,-2.77798,0.97582,1.57080,0.00000,-0.14512,-0.38003,0.04602,,,,,,,,,,,,,,,,,,,,,,,,,,0,0,0,0,0
1.4744,1783185123.6070,1,1,1.0000,-0.0000,1.44682,0.23124,-2.77800,0.97593,1.57080,0.00000,-0.14512,-0.38003,0.04600,,,,,,,,,,,,,,,,,,,,,,,,,,0,0,0,0,0
1.4747,1783185123.6073,1,1,1.0000,-0.0000,1.44682,0.23124,-2.77800,0.97593,1.57080,0.00000,-0.14512,-0.38003,0.04600,,,,,,,,,,,,,,,,,,,,,,,,,,0,0,0,0,0
1.4852,1783185123.6178,1,1,1.0000,-0.0000,1.44682,0.23121,-2.77801,0.97597,1.57080,0.00000,-0.14512,-0.38003,0.04599,,,,,,,,,,,,,,,,,,,,,,,,,,0,0,0,0,0
1.4911,1783185123.6237,1,1,1.0000,-0.0000,1.44682,0.23117,-2.77802,0.97602,1.57080,0.00000,-0.14512,-0.38003,0.04598,,,,,,,,,,,,,,,,,,,,,,,,,,0,0,0,0,0
1.5182,1783185123.6508,1,1,1.0000,-0.0000,1.44682,0.23105,-2.77805,0.97616,1.57080,0.00000,-0.14512,-0.38003,0.04595,,,,,,,,,,,,,,,,,,,,,,,,,,0,0,0,0,0
1.5185,1783185123.6511,1,1,1.0000,-0.0000,1.44682,0.23105,-2.77805,0.97616,1.57080,0.00000,-0.14512,-0.38003,0.04595,,,,,,,,,,,,,,,,,,,,,,,,,,0,0,0,0,0
1.5225,1783185123.6551,1,1,1.0000,-0.0000,1.44682,0.23103,-2.77806,0.97620,1.57080,0.00000,-0.14512,-0.38003,0.04594,,,,,,,,,,,,,,,,,,,,,,,,,,0,0,0,0,0
1.5233,1783185123.6559,1,1,1.0000,-0.0000,1.44682,0.23103,-2.77806,0.97620,1.57080,0.00000,-0.14512,-0.38003,0.04594,,,,,,,,,,,,,,,,,,,,,,,,,,0,0,0,0,0
1.5343,1783185123.6669,1,1,1.0000,-0.0000,1.44682,0.23101,-2.77806,0.97622,1.57080,0.00000,-0.14512,-0.38003,0.04594,,,,,,,,,,,,,,,,,,,,,,,,,,0,0,0,0,0
1.5345,1783185123.6671,1,1,1.0000,-0.0000,1.44682,0.23101,-2.77806,0.97622,1.57080,0.00000,-0.14512,-0.38003,0.04594,,,,,,,,,,,,,,,,,,,,,,,,,,0,0,0,0,0
1.5436,1783185123.6762,1,1,1.0000,-0.0000,1.44682,0.23097,-2.77807,0.97627,1.57080,0.00000,-0.14512,-0.38003,0.04593,,,,,,,,,,,,,,,,,,,,,,,,,,0,0,0,0,0
1.5777,1783185123.7103,1,1,1.0000,-0.0000,1.44682,0.23084,-2.77811,0.97644,1.57080,0.00000,-0.14512,-0.38003,0.04589,,,,,,,,,,,,,,,,,,,,,,,,,,0,0,0,0,0
1.5782,1783185123.7107,1,1,1.0000,-0.0000,1.44682,0.23081,-2.77811,0.97647,1.57080,0.00000,-0.14512,-0.38003,0.04588,,,,,,,,,,,,,,,,,,,,,,,,,,0,0,0,0,0
1.5978,1783185123.7304,1,1,1.0000,-0.0000,1.44682,0.23077,-2.77812,0.97652,1.57080,0.00000,-0.14512,-0.38003,0.04587,,,,,,,,,,,,,,,,,,,,,,,,,,0,0,0,0,0
1.6047,1783185123.7373,1,1,1.0000,-0.0000,1.44682,0.23073,-2.77813,0.97657,1.57080,0.00000,-0.14512,-0.38003,0.04586,,,,,,,,,,,,,,,,,,,,,,,,,,0,0,0,0,0
1.6155,1783185123.7481,1,1,1.0000,-0.0000,1.44682,0.23068,-2.77815,0.97664,1.57080,0.00000,-0.14512,-0.38003,0.04585,,,,,,,,,,,,,,,,,,,,,,,,,,0,0,0,0,0
1.6236,1783185123.7561,1,1,1.0000,-0.0000,1.44682,0.23066,-2.77815,0.97666,1.57080,0.00000,-0.14512,-0.38003,0.04584,,,,,,,,,,,,,,,,,,,,,,,,,,0,0,0,0,0
1.6342,1783185123.7668,1,1,1.0000,-0.0000,1.44682,0.23059,-2.77817,0.97674,1.57080,0.00000,-0.14512,-0.38003,0.04583,,,,,,,,,,,,,,,,,,,,,,,,,,0,0,0,0,0
1.6345,1783185123.7671,1,1,1.0000,-0.0000,1.44682,0.23059,-2.77817,0.97674,1.57080,0.00000,-0.14512,-0.38003,0.04583,,,,,,,,,,,,,,,,,,,,,,,,,,0,0,0,0,0
1.6480,1783185123.7805,1,1,1.0000,-0.0000,1.44682,0.23054,-2.77818,0.97681,1.57080,0.00000,-0.14512,-0.38003,0.04581,,,,,,,,,,,,,,,,,,,,,,,,,,0,0,0,0,0
1.6581,1783185123.7907,1,1,1.0000,-0.0000,1.44682,0.23051,-2.77819,0.97685,1.57080,0.00000,-0.14512,-0.38003,0.04580,,,,,,,,,,,,,,,,,,,,,,,,,,0,0,0,0,0
1.6747,1783185123.8073,1,1,1.0000,-0.0000,1.44682,0.23043,-2.77821,0.97694,1.57080,0.00000,-0.14512,-0.38003,0.04578,,,,,,,,,,,,,,,,,,,,,,,,,,0,0,0,0,0
1.6753,1783185123.8079,1,1,1.0000,-0.0000,1.44682,0.23043,-2.77821,0.97694,1.57080,0.00000,-0.14512,-0.38003,0.04578,,,,,,,,,,,,,,,,,,,,,,,,,,0,0,0,0,0
1.6756,1783185123.8082,1,1,1.0000,-0.0000,1.44682,0.23043,-2.77821,0.97694,1.57080,0.00000,-0.14512,-0.38003,0.04578,,,,,,,,,,,,,,,,,,,,,,,,,,0,0,0,0,0
1.6856,1783185123.8182,1,1,1.0000,-0.0000,1.44682,0.23042,-2.77821,0.97697,1.57080,0.00000,-0.14512,-0.38003,0.04578,,,,,,,,,,,,,,,,,,,,,,,,,,0,0,0,0,0
1.6962,1783185123.8288,1,1,1.0000,-0.0000,1.44682,0.23035,-2.77823,0.97705,1.57080,0.00000,-0.14512,-0.38003,0.04576,,,,,,,,,,,,,,,,,,,,,,,,,,0,0,0,0,0
1.7056,1783185123.8382,1,1,1.0000,-0.0000,1.44682,0.23030,-2.77824,0.97711,1.57080,0.00000,-0.14512,-0.38003,0.04575,,,,,,,,,,,,,,,,,,,,,,,,,,0,0,0,0,0
1.7137,1783185123.8463,1,1,1.0000,-0.0000,1.44682,0.23030,-2.77824,0.97712,1.57080,0.00000,-0.14512,-0.38003,0.04575,,,,,,,,,,,,,,,,,,,,,,,,,,0,0,0,0,0
1.7261,1783185123.8587,1,1,1.0000,-0.0000,1.44682,0.23022,-2.77826,0.97722,1.57080,0.00000,-0.14512,-0.38003,0.04573,,,,,,,,,,,,,,,,,,,,,,,,,,0,0,0,0,0
1.7348,1783185123.8674,1,1,1.0000,-0.0000,1.44682,0.23017,-2.77828,0.97728,1.57080,0.00000,-0.14512,-0.38003,0.04571,,,,,,,,,,,,,,,,,,,,,,,,,,0,0,0,0,0
1.7352,1783185123.8678,1,1,1.0000,-0.0000,1.44682,0.23017,-2.77828,0.97728,1.57080,0.00000,-0.14512,-0.38003,0.04571,,,,,,,,,,,,,,,,,,,,,,,,,,0,0,0,0,0
1.7439,1783185123.8765,1,1,1.0000,-0.0000,1.44682,0.23016,-2.77828,0.97729,1.57080,0.00000,-0.14512,-0.38003,0.04571,,,,,,,,,,,,,,,,,,,,,,,,,,0,0,0,0,0
1.7586,1783185123.8912,1,1,1.0000,-0.0000,1.44682,0.23010,-2.77829,0.97736,1.57080,0.00000,-0.14512,-0.38003,0.04570,,,,,,,,,,,,,,,,,,,,,,,,,,0,0,0,0,0
1.7782,1783185123.9107,1,1,1.0000,-0.0000,1.44682,0.23004,-2.77831,0.97744,1.57080,0.00000,-0.14512,-0.38003,0.04568,,,,,,,,,,,,,,,,,,,,,,,,,,0,0,0,0,0
1.7784,1783185123.9110,1,1,1.0000,-0.0000,1.44682,0.23004,-2.77831,0.97744,1.57080,0.00000,-0.14512,-0.38003,0.04568,,,,,,,,,,,,,,,,,,,,,,,,,,0,0,0,0,0
1.7836,1783185123.9162,1,1,1.0000,-0.0000,1.44682,0.23002,-2.77831,0.97746,1.57080,0.00000,-0.14512,-0.38003,0.04568,,,,,,,,,,,,,,,,,,,,,,,,,,0,0,0,0,0
1.7982,1783185123.9308,1,1,1.0000,-0.0000,1.44682,0.22994,-2.77833,0.97756,1.57080,0.00000,-0.14512,-0.38003,0.04566,,,,,,,,,,,,,,,,,,,,,,,,,,0,0,0,0,0
1.7986,1783185123.9312,1,1,1.0000,-0.0000,1.44682,0.22994,-2.77833,0.97756,1.57080,0.00000,-0.14512,-0.38003,0.04566,,,,,,,,,,,,,,,,,,,,,,,,,,0,0,0,0,0
1.8036,1783185123.9362,1,1,1.0000,-0.0000,1.44682,0.22994,-2.77834,0.97757,1.57080,0.00000,-0.14512,-0.38003,0.04566,,,,,,,,,,,,,,,,,,,,,,,,,,0,0,0,0,0
1.8151,1783185123.9477,1,1,1.0000,-0.0000,1.44682,0.22990,-2.77835,0.97762,1.57080,0.00000,-0.14512,-0.38003,0.04565,,,,,,,,,,,,,,,,,,,,,,,,,,0,0,0,0,0
1.8154,1783185123.9480,1,1,1.0000,-0.0000,1.44682,0.22990,-2.77835,0.97762,1.57080,0.00000,-0.14512,-0.38003,0.04565,,,,,,,,,,,,,,,,,,,,,,,,,,0,0,0,0,0
1.8235,1783185123.9561,1,1,1.0000,-0.0000,1.44682,0.22986,-2.77836,0.97767,1.57080,0.00000,-0.14512,-0.38003,0.04563,,,,,,,,,,,,,,,,,,,,,,,,,,0,0,0,0,0
1.8382,1783185123.9708,1,1,1.0000,-0.0000,1.44682,0.22982,-2.77837,0.97772,1.57080,0.00000,-0.14512,-0.38003,0.04562,,,,,,,,,,,,,,,,,,,,,,,,,,0,0,0,0,0
1.8449,1783185123.9775,1,1,1.0000,-0.0000,1.44682,0.22980,-2.77837,0.97774,1.57080,0.00000,-0.14512,-0.38003,0.04562,,,,,,,,,,,,,,,,,,,,,,,,,,0,0,0,0,0
1.8537,1783185123.9863,1,1,1.0000,-0.0000,1.44682,0.22974,-2.77839,0.97781,1.57080,0.00000,-0.14512,-0.38003,0.04561,,,,,,,,,,,,,,,,,,,,,,,,,,0,0,0,0,0
1.8542,1783185123.9868,1,1,1.0000,-0.0000,1.44682,0.22972,-2.77839,0.97784,1.57080,0.00000,-0.14512,-0.38003,0.04560,,,,,,,,,,,,,,,,,,,,,,,,,,0,0,0,0,0
1.8634,1783185123.9960,1,1,1.0000,-0.0000,1.44682,0.22971,-2.77839,0.97785,1.57080,0.00000,-0.14512,-0.38003,0.04560,,,,,,,,,,,,,,,,,,,,,,,,,,0,0,0,0,0
1.8637,1783185123.9962,1,1,1.0000,-0.0000,1.44682,0.22971,-2.77839,0.97785,1.57080,0.00000,-0.14512,-0.38003,0.04560,,,,,,,,,,,,,,,,,,,,,,,,,,0,0,0,0,0
1.8756,1783185124.0081,1,1,1.0000,-0.0000,1.44682,0.22968,-2.77840,0.97790,1.57080,0.00000,-0.14512,-0.38003,0.04559,,,,,,,,,,,,,,,,,,,,,,,,,,0,0,0,0,0
1.8858,1783185124.0184,1,1,1.0000,-0.0000,1.44682,0.22963,-2.77841,0.97795,1.57080,0.00000,-0.14512,-0.38003,0.04558,,,,,,,,,,,,,,,,,,,,,,,,,,0,0,0,0,0
1.8864,1783185124.0190,1,1,1.0000,-0.0000,1.44682,0.22963,-2.77841,0.97795,1.57080,0.00000,-0.14512,-0.38003,0.04558,,,,,,,,,,,,,,,,,,,,,,,,,,0,0,0,0,0
1.8945,1783185124.0271,1,1,1.0000,-0.0000,1.44682,0.22962,-2.77842,0.97797,1.57080,0.00000,-0.14512,-0.38003,0.04557,,,,,,,,,,,,,,,,,,,,,,,,,,0,0,0,0,0
1.9062,1783185124.0388,1,1,1.0000,-0.0000,1.44682,0.22955,-2.77844,0.97806,1.57080,0.00000,-0.14512,-0.38003,0.04555,,,,,,,,,,,,,,,,,,,,,,,,,,0,0,0,0,0
1.9137,1783185124.0463,1,1,1.0000,-0.0000,1.44682,0.22952,-2.77844,0.97809,1.57080,0.00000,-0.14512,-0.38003,0.04555,,,,,,,,,,,,,,,,,,,,,,,,,,0,0,0,0,0
1.9143,1783185124.0469,1,1,1.0000,-0.0000,1.44682,0.22949,-2.77845,0.97812,1.57080,0.00000,-0.14512,-0.38003,0.04554,,,,,,,,,,,,,,,,,,,,,,,,,,0,0,0,0,0
1.9295,1783185124.0621,1,1,1.0000,-0.0000,1.44682,0.22948,-2.77845,0.97814,1.57080,0.00000,-0.14512,-0.38003,0.04554,,,,,,,,,,,,,,,,,,,,,,,,,,0,0,0,0,0
1.9303,1783185124.0629,1,1,1.0000,-0.0000,1.44682,0.22947,-2.77846,0.97816,1.57080,0.00000,-0.14512,-0.38003,0.04553,,,,,,,,,,,,,,,,,,,,,,,,,,0,0,0,0,0
1.9398,1783185124.0724,1,1,1.0000,-0.0000,1.44682,0.22943,-2.77847,0.97820,1.57080,0.00000,-0.14512,-0.38003,0.04552,,,,,,,,,,,,,,,,,,,,,,,,,,0,0,0,0,0
1.9509,1783185124.0835,1,1,1.0000,-0.0000,1.44682,0.22940,-2.77847,0.97824,1.57080,0.00000,-0.14512,-0.38003,0.04552,,,,,,,,,,,,,,,,,,,,,,,,,,0,0,0,0,0
1.9541,1783185124.0867,1,1,1.0000,-0.0000,1.44682,0.22939,-2.77848,0.97825,1.57080,0.00000,-0.14512,-0.38003,0.04551,,,,,,,,,,,,,,,,,,,,,,,,,,0,0,0,0,0
1.9636,1783185124.0962,1,1,1.0000,-0.0000,1.44682,0.22935,-2.77849,0.97831,1.57080,0.00000,-0.14512,-0.38003,0.04550,,,,,,,,,,,,,,,,,,,,,,,,,,0,0,0,0,0
1.9786,1783185124.1112,1,1,1.0000,-0.0000,1.44682,0.22927,-2.77851,0.97840,1.57080,0.00000,-0.14512,-0.38003,0.04548,,,,,,,,,,,,,,,,,,,,,,,,,,0,0,0,0,0
1.9855,1783185124.1181,1,1,1.0000,-0.0000,1.44682,0.22927,-2.77851,0.97841,1.57080,0.00000,-0.14512,-0.38003,0.04548,,,,,,,,,,,,,,,,,,,,,,,,,,0,0,0,0,0
1.9861,1783185124.1187,1,1,1.0000,-0.0000,1.44682,0.22926,-2.77851,0.97842,1.57080,0.00000,-0.14512,-0.38003,0.04548,,,,,,,,,,,,,,,,,,,,,,,,,,0,0,0,0,0
1.9943,1783185124.1269,1,1,1.0000,-0.0000,1.44682,0.22923,-2.77852,0.97846,1.57080,0.00000,-0.14512,-0.38003,0.04547,,,,,,,,,,,,,,,,,,,,,,,,,,0,0,0,0,0
1.9945,1783185124.1271,1,1,1.0000,-0.0000,1.44682,0.22923,-2.77852,0.97846,1.57080,0.00000,-0.14512,-0.38003,0.04547,,,,,,,,,,,,,,,,,,,,,,,,,,0,0,0,0,0
2.0048,1783185124.1374,1,1,1.0000,-0.0000,1.44682,0.22919,-2.77853,0.97851,1.57080,0.00000,-0.14512,-0.38003,0.04546,,,,,,,,,,,,,,,,,,,,,,,,,,0,0,0,0,0
2.0140,1783185124.1466,1,1,1.0000,-0.0000,1.44682,0.22918,-2.77853,0.97852,1.57080,0.00000,-0.14512,-0.38003,0.04546,,,,,,,,,,,,,,,,,,,,,,,,,,0,0,0,0,0
2.0234,1783185124.1560,1,1,1.0000,-0.0000,1.44682,0.22913,-2.77854,0.97859,1.57080,0.00000,-0.14512,-0.38003,0.04544,,,,,,,,,,,,,,,,,,,,,,,,,,0,0,0,0,0
2.0237,1783185124.1563,1,1,1.0000,-0.0000,1.44682,0.22913,-2.77854,0.97859,1.57080,0.00000,-0.14512,-0.38003,0.04544,,,,,,,,,,,,,,,,,,,,,,,,,,0,0,0,0,0
2.0398,1783185124.1724,1,1,1.0000,-0.0000,1.44682,0.22905,-2.77856,0.97868,1.57080,0.00000,-0.14512,-0.38003,0.04542,,,,,,,,,,,,,,,,,,,,,,,,,,0,0,0,0,0
2.0469,1783185124.1795,1,1,1.0000,-0.0000,1.44682,0.22904,-2.77857,0.97870,1.57080,0.00000,-0.14512,-0.38003,0.04542,,,,,,,,,,,,,,,,,,,,,,,,,,0,0,0,0,0
2.0568,1783185124.1894,1,1,1.0000,-0.0000,1.44682,0.22900,-2.77857,0.97874,1.57080,0.00000,-0.14512,-0.38003,0.04541,,,,,,,,,,,,,,,,,,,,,,,,,,0,0,0,0,0
2.0657,1783185124.1983,1,1,1.0000,-0.0000,1.44682,0.22896,-2.77859,0.97879,1.57080,0.00000,-0.14512,-0.38003,0.04540,,,,,,,,,,,,,,,,,,,,,,,,,,0,0,0,0,0
2.0742,1783185124.2068,1,1,1.0000,-0.0000,1.44682,0.22895,-2.77859,0.97881,1.57080,0.00000,-0.14512,-0.38003,0.04540,,,,,,,,,,,,,,,,,,,,,,,,,,0,0,0,0,0
2.0876,1783185124.2202,1,1,1.0000,-0.0000,1.44682,0.22888,-2.77861,0.97890,1.57080,0.00000,-0.14512,-0.38003,0.04538,,,,,,,,,,,,,,,,,,,,,,,,,,0,0,0,0,0
2.0993,1783185124.2319,1,1,1.0000,-0.0000,1.44682,0.22882,-2.77862,0.97897,1.57080,0.00000,-0.14512,-0.38003,0.04537,,,,,,,,,,,,,,,,,,,,,,,,,,0,0,0,0,0
2.1073,1783185124.2399,1,1,1.0000,-0.0000,1.44682,0.22881,-2.77862,0.97899,1.57080,0.00000,-0.14512,-0.38003,0.04536,,,,,,,,,,,,,,,,,,,,,,,,,,0,0,0,0,0
2.1151,1783185124.2477,1,1,1.0000,-0.0000,1.44682,0.22877,-2.77864,0.97904,1.57080,0.00000,-0.14512,-0.38003,0.04535,,,,,,,,,,,,,,,,,,,,,,,,,,0,0,0,0,0
2.1279,1783185124.2605,1,1,1.0000,-0.0000,1.44682,0.22871,-2.77865,0.97910,1.57080,0.00000,-0.14512,-0.38003,0.04534,,,,,,,,,,,,,,,,,,,,,,,,,,0,0,0,0,0
2.1343,1783185124.2669,1,1,1.0000,-0.0000,1.44682,0.22870,-2.77865,0.97912,1.57080,0.00000,-0.14512,-0.38003,0.04533,,,,,,,,,,,,,,,,,,,,,,,,,,0,0,0,0,0
2.1436,1783185124.2762,1,1,1.0000,-0.0000,1.44682,0.22866,-2.77866,0.97917,1.57080,0.00000,-0.14512,-0.38003,0.04532,,,,,,,,,,,,,,,,,,,,,,,,,,0,0,0,0,0
2.1572,1783185124.2898,1,1,1.0000,-0.0000,1.44682,0.22858,-2.77868,0.97927,1.57080,0.00000,-0.14512,-0.38003,0.04530,,,,,,,,,,,,,,,,,,,,,,,,,,0,0,0,0,0
2.1577,1783185124.2903,1,1,1.0000,-0.0000,1.44682,0.22858,-2.77868,0.97927,1.57080,0.00000,-0.14512,-0.38003,0.04530,,,,,,,,,,,,,,,,,,,,,,,,,,0,0,0,0,0
2.1633,1783185124.2959,1,1,1.0000,-0.0000,1.44682,0.22858,-2.77868,0.97928,1.57080,0.00000,-0.14512,-0.38003,0.04530,,,,,,,,,,,,,,,,,,,,,,,,,,0,0,0,0,0
2.1637,1783185124.2963,1,1,1.0000,-0.0000,1.44682,0.22858,-2.77868,0.97928,1.57080,0.00000,-0.14512,-0.38003,0.04530,,,,,,,,,,,,,,,,,,,,,,,,,,0,0,0,0,0
2.1758,1783185124.3084,1,1,1.0000,-0.0000,1.44682,0.22852,-2.77870,0.97934,1.57080,0.00000,-0.14512,-0.38003,0.04529,,,,,,,,,,,,,,,,,,,,,,,,,,0,0,0,0,0
2.1850,1783185124.3176,1,1,1.0000,-0.0000,1.44682,0.22847,-2.77871,0.97941,1.57080,0.00000,-0.14512,-0.38003,0.04527,,,,,,,,,,,,,,,,,,,,,,,,,,0,0,0,0,0
2.1943,1783185124.3269,1,1,1.0000,-0.0000,1.44682,0.22845,-2.77871,0.97943,1.57080,0.00000,-0.14512,-0.38003,0.04527,,,,,,,,,,,,,,,,,,,,,,,,,,0,0,0,0,0
2.2081,1783185124.3407,1,1,1.0000,-0.0000,1.44682,0.22839,-2.77873,0.97951,1.57080,0.00000,-0.14512,-0.38003,0.04525,,,,,,,,,,,,,,,,,,,,,,,,,,0,0,0,0,0
2.2151,1783185124.3477,1,1,1.0000,-0.0000,1.44682,0.22834,-2.77874,0.97958,1.57080,0.00000,-0.14512,-0.38003,0.04524,,,,,,,,,,,,,,,,,,,,,,,,,,0,0,0,0,0
2.2154,1783185124.3479,1,1,1.0000,-0.0000,1.44682,0.22834,-2.77874,0.97958,1.57080,0.00000,-0.14512,-0.38003,0.04524,,,,,,,,,,,,,,,,,,,,,,,,,,0,0,0,0,0
2.2262,1783185124.3588,1,1,1.0000,-0.0000,1.44682,0.22832,-2.77875,0.97960,1.57080,0.00000,-0.14512,-0.38003,0.04523,,,,,,,,,,,,,,,,,,,,,,,,,,0,0,0,0,0
2.2344,1783185124.3670,1,1,1.0000,-0.0000,1.44682,0.22828,-2.77876,0.97965,1.57080,0.00000,-0.14512,-0.38003,0.04522,,,,,,,,,,,,,,,,,,,,,,,,,,0,0,0,0,0
2.2346,1783185124.3672,1,1,1.0000,-0.0000,1.44682,0.22828,-2.77876,0.97965,1.57080,0.00000,-0.14512,-0.38003,0.04522,,,,,,,,,,,,,,,,,,,,,,,,,,0,0,0,0,0
2.2453,1783185124.3779,1,1,1.0000,-0.0000,1.44682,0.22823,-2.77877,0.97971,1.57080,0.00000,-0.14512,-0.38003,0.04521,,,,,,,,,,,,,,,,,,,,,,,,,,0,0,0,0,0
2.2535,1783185124.3861,1,1,1.0000,-0.0000,1.44682,0.22822,-2.77877,0.97972,1.57080,0.00000,-0.14512,-0.38003,0.04521,,,,,,,,,,,,,,,,,,,,,,,,,,0,0,0,0,0
2.2538,1783185124.3864,1,1,1.0000,-0.0000,1.44682,0.22822,-2.77877,0.97972,1.57080,0.00000,-0.14512,-0.38003,0.04521,,,,,,,,,,,,,,,,,,,,,,,,,,0,0,0,0,0
2.2634,1783185124.3960,1,1,1.0000,-0.0000,1.44682,0.22817,-2.77879,0.97979,1.57080,0.00000,-0.14512,-0.38003,0.04520,,,,,,,,,,,,,,,,,,,,,,,,,,0,0,0,0,0
2.2638,1783185124.3964,1,1,1.0000,-0.0000,1.44682,0.22817,-2.77879,0.97979,1.57080,0.00000,-0.14512,-0.38003,0.04520,,,,,,,,,,,,,,,,,,,,,,,,,,0,0,0,0,0
2.2735,1783185124.4060,1,1,1.0000,-0.0000,1.44682,0.22812,-2.77880,0.97985,1.57080,0.00000,-0.14512,-0.38003,0.04518,,,,,,,,,,,,,,,,,,,,,,,,,,0,0,0,0,0
2.2851,1783185124.4177,1,1,1.0000,-0.0000,1.44682,0.22809,-2.77881,0.97989,1.57080,0.00000,-0.14512,-0.38003,0.04517,,,,,,,,,,,,,,,,,,,,,,,,,,0,0,0,0,0
2.2856,1783185124.4182,1,1,1.0000,-0.0000,1.44682,0.22809,-2.77881,0.97989,1.57080,0.00000,-0.14512,-0.38003,0.04517,,,,,,,,,,,,,,,,,,,,,,,,,,0,0,0,0,0
2.2949,1783185124.4275,1,1,1.0000,-0.0000,1.44682,0.22803,-2.77882,0.97996,1.57080,0.00000,-0.14512,-0.38003,0.04516,,,,,,,,,,,,,,,,,,,,,,,,,,0,0,0,0,0
2.2952,1783185124.4277,1,1,1.0000,-0.0000,1.44682,0.22803,-2.77882,0.97996,1.57080,0.00000,-0.14512,-0.38003,0.04516,,,,,,,,,,,,,,,,,,,,,,,,,,0,0,0,0,0
2.3044,1783185124.4370,1,1,1.0000,-0.0000,1.44682,0.22798,-2.77883,0.98002,1.57080,0.00000,-0.14512,-0.38003,0.04515,,,,,,,,,,,,,,,,,,,,,,,,,,0,0,0,0,0
2.3174,1783185124.4500,1,1,1.0000,-0.0000,1.44682,0.22795,-2.77884,0.98006,1.57080,0.00000,-0.14512,-0.38003,0.04514,,,,,,,,,,,,,,,,,,,,,,,,,,0,0,0,0,0
2.3235,1783185124.4561,1,1,1.0000,-0.0000,1.44682,0.22793,-2.77885,0.98009,1.57080,0.00000,-0.14512,-0.38003,0.04513,,,,,,,,,,,,,,,,,,,,,,,,,,0,0,0,0,0
2.3344,1783185124.4670,1,1,1.0000,-0.0000,1.44682,0.22787,-2.77886,0.98016,1.57080,0.00000,-0.14512,-0.38003,0.04512,,,,,,,,,,,,,,,,,,,,,,,,,,0,0,0,0,0
2.3466,1783185124.4792,1,1,1.0000,-0.0000,1.44682,0.22785,-2.77887,0.98018,1.57080,0.00000,-0.14512,-0.38003,0.04511,,,,,,,,,,,,,,,,,,,,,,,,,,0,0,0,0,0
2.3471,1783185124.4797,1,1,1.0000,-0.0000,1.44682,0.22785,-2.77887,0.98018,1.57080,0.00000,-0.14512,-0.38003,0.04511,,,,,,,,,,,,,,,,,,,,,,,,,,0,0,0,0,0
2.3586,1783185124.4912,1,1,1.0000,-0.0000,1.44682,0.22779,-2.77888,0.98027,1.57080,0.00000,-0.14512,-0.38003,0.04510,,,,,,,,,,,,,,,,,,,,,,,,,,0,0,0,0,0
2.3676,1783185124.5002,1,1,1.0000,-0.0000,1.44682,0.22776,-2.77889,0.98030,1.57080,0.00000,-0.14512,-0.38003,0.04509,,,,,,,,,,,,,,,,,,,,,,,,,,0,0,0,0,0
2.3804,1783185124.5130,1,1,1.0000,-0.0000,1.44682,0.22772,-2.77890,0.98035,1.57080,0.00000,-0.14512,-0.38003,0.04508,,,,,,,,,,,,,,,,,,,,,,,,,,0,0,0,0,0
2.3879,1783185124.5205,1,1,1.0000,-0.0000,1.44682,0.22768,-2.77891,0.98041,1.57080,0.00000,-0.14512,-0.38003,0.04507,,,,,,,,,,,,,,,,,,,,,,,,,,0,0,0,0,0
2.3944,1783185124.5270,1,1,1.0000,-0.0000,1.44682,0.22762,-2.77893,0.98047,1.57080,0.00000,-0.14512,-0.38003,0.04505,,,,,,,,,,,,,,,,,,,,,,,,,,0,0,0,0,0
2.4037,1783185124.5363,1,1,1.0000,-0.0000,1.44682,0.22762,-2.77893,0.98048,1.57080,0.00000,-0.14512,-0.38003,0.04505,,,,,,,,,,,,,,,,,,,,,,,,,,0,0,0,0,0
2.4137,1783185124.5463,1,1,1.0000,-0.0000,1.44682,0.22759,-2.77893,0.98051,1.57080,0.00000,-0.14512,-0.38003,0.04504,,,,,,,,,,,,,,,,,,,,,,,,,,0,0,0,0,0
2.4250,1783185124.5576,1,1,1.0000,-0.0000,1.44682,0.22751,-2.77895,0.98061,1.57080,0.00000,-0.14512,-0.38003,0.04503,,,,,,,,,,,,,,,,,,,,,,,,,,0,0,0,0,0
2.4254,1783185124.5579,1,1,1.0000,-0.0000,1.44682,0.22751,-2.77895,0.98061,1.57080,0.00000,-0.14512,-0.38003,0.04503,,,,,,,,,,,,,,,,,,,,,,,,,,0,0,0,0,0
2.4377,1783185124.5702,1,1,1.0000,-0.0000,1.44682,0.22749,-2.77896,0.98064,1.57080,0.00000,-0.14512,-0.38003,0.04502,,,,,,,,,,,,,,,,,,,,,,,,,,0,0,0,0,0
2.4384,1783185124.5710,1,1,1.0000,-0.0000,1.44682,0.22748,-2.77896,0.98066,1.57080,0.00000,-0.14512,-0.38003,0.04502,,,,,,,,,,,,,,,,,,,,,,,,,,0,0,0,0,0
2.4505,1783185124.5831,1,1,1.0000,-0.0000,1.44682,0.22743,-2.77898,0.98072,1.57080,0.00000,-0.14512,-0.38003,0.04500,,,,,,,,,,,,,,,,,,,,,,,,,,0,0,0,0,0
2.4537,1783185124.5862,1,1,1.0000,-0.0000,1.44682,0.22743,-2.77898,0.98072,1.57080,0.00000,-0.14512,-0.38003,0.04500,,,,,,,,,,,,,,,,,,,,,,,,,,0,0,0,0,0
2.4542,1783185124.5868,1,1,1.0000,-0.0000,1.44682,0.22740,-2.77898,0.98075,1.57080,0.00000,-0.14512,-0.38003,0.04500,,,,,,,,,,,,,,,,,,,,,,,,,,0,0,0,0,0
2.4641,1783185124.5967,1,1,1.0000,-0.0000,1.44682,0.22740,-2.77898,0.98075,1.57080,0.00000,-0.14512,-0.38003,0.04500,,,,,,,,,,,,,,,,,,,,,,,,,,0,0,0,0,0
2.4754,1783185124.6079,1,1,1.0000,-0.0000,1.44682,0.22734,-2.77900,0.98082,1.57080,0.00000,-0.14512,-0.38003,0.04498,,,,,,,,,,,,,,,,,,,,,,,,,,0,0,0,0,0
2.4894,1783185124.6220,1,1,1.0000,-0.0000,1.44682,0.22726,-2.77902,0.98092,1.57080,0.00000,-0.14512,-0.38003,0.04496,,,,,,,,,,,,,,,,,,,,,,,,,,0,0,0,0,0
2.4977,1783185124.6303,1,1,1.0000,-0.0000,1.44682,0.22726,-2.77902,0.98093,1.57080,0.00000,-0.14512,-0.38003,0.04496,,,,,,,,,,,,,,,,,,,,,,,,,,0,0,0,0,0
2.5091,1783185124.6417,1,1,1.0000,-0.0000,1.44682,0.22722,-2.77903,0.98098,1.57080,0.00000,-0.14512,-0.38003,0.04495,,,,,,,,,,,,,,,,,,,,,,,,,,0,0,0,0,0
2.5171,1783185124.6497,1,1,1.0000,-0.0000,1.44682,0.22718,-2.77904,0.98103,1.57080,0.00000,-0.14512,-0.38003,0.04494,,,,,,,,,,,,,,,,,,,,,,,,,,0,0,0,0,0
2.5245,1783185124.6570,1,1,1.0000,-0.0000,1.44682,0.22717,-2.77904,0.98103,1.57080,0.00000,-0.14512,-0.38003,0.04494,,,,,,,,,,,,,,,,,,,,,,,,,,0,0,0,0,0
2.5249,1783185124.6575,1,1,1.0000,-0.0000,1.44682,0.22717,-2.77904,0.98103,1.57080,0.00000,-0.14512,-0.38003,0.04494,,,,,,,,,,,,,,,,,,,,,,,,,,0,0,0,0,0
2.5337,1783185124.6663,1,1,1.0000,-0.0000,1.44682,0.22714,-2.77905,0.98107,1.57080,0.00000,-0.14512,-0.38003,0.04493,,,,,,,,,,,,,,,,,,,,,,,,,,0,0,0,0,0
2.5539,1783185124.6865,1,1,1.0000,-0.0000,1.44682,0.22704,-2.77907,0.98120,1.57080,0.00001,-0.14512,-0.38003,0.04490,,,,,,,,,,,,,,,,,,,,,,,,,,0,0,0,0,0
2.5545,1783185124.6871,1,1,1.0000,-0.0000,1.44682,0.22704,-2.77908,0.98121,1.57080,0.00001,-0.14512,-0.38003,0.04490,,,,,,,,,,,,,,,,,,,,,,,,,,0,0,0,0,0
2.5548,1783185124.6874,1,1,1.0000,-0.0000,1.44682,0.22704,-2.77908,0.98121,1.57080,0.00001,-0.14512,-0.38003,0.04490,,,,,,,,,,,,,,,,,,,,,,,,,,0,0,0,0,0
2.5649,1783185124.6975,1,1,1.0000,-0.0000,1.44682,0.22701,-2.77908,0.98124,1.57080,0.00001,-0.14512,-0.38003,0.04490,,,,,,,,,,,,,,,,,,,,,,,,,,0,0,0,0,0
2.5751,1783185124.7077,1,1,1.0000,-0.0000,1.44682,0.22695,-2.77910,0.98131,1.57080,0.00001,-0.14512,-0.38003,0.04488,,,,,,,,,,,,,,,,,,,,,,,,,,0,0,0,0,0
2.5853,1783185124.7179,1,1,1.0000,-0.0000,1.44682,0.22695,-2.77910,0.98132,1.57080,0.00001,-0.14512,-0.38003,0.04488,,,,,,,,,,,,,,,,,,,,,,,,,,0,0,0,0,0
2.5947,1783185124.7273,1,1,1.0000,-0.0000,1.44682,0.22689,-2.77911,0.98139,1.57080,0.00001,-0.14512,-0.38003,0.04486,,,,,,,,,,,,,,,,,,,,,,,,,,0,0,0,0,0
2.5951,1783185124.7277,1,1,1.0000,-0.0000,1.44682,0.22689,-2.77911,0.98139,1.57080,0.00001,-0.14512,-0.38003,0.04486,,,,,,,,,,,,,,,,,,,,,,,,,,0,0,0,0,0
2.6040,1783185124.7365,1,1,1.0000,-0.0000,1.44682,0.22684,-2.77912,0.98145,1.57080,0.00001,-0.14512,-0.38003,0.04485,,,,,,,,,,,,,,,,,,,,,,,,,,0,0,0,0,0
2.6178,1783185124.7504,1,1,1.0000,-0.0000,1.44682,0.22681,-2.77913,0.98149,1.57080,0.00001,-0.14512,-0.38003,0.04484,,,,,,,,,,,,,,,,,,,,,,,,,,0,0,0,0,0
2.6237,1783185124.7563,1,1,1.0000,-0.0000,1.44682,0.22679,-2.77914,0.98152,1.57080,0.00001,-0.14512,-0.38003,0.04484,,,,,,,,,,,,,,,,,,,,,,,,,,0,0,0,0,0
2.6344,1783185124.7669,1,1,1.0000,-0.0000,1.44682,0.22673,-2.77915,0.98159,1.57080,0.00001,-0.14512,-0.38003,0.04482,,,,,,,,,,,,,,,,,,,,,,,,,,0,0,0,0,0
2.6345,1783185124.7671,1,1,1.0000,-0.0000,1.44682,0.22673,-2.77915,0.98159,1.57080,0.00001,-0.14512,-0.38003,0.04482,,,,,,,,,,,,,,,,,,,,,,,,,,0,0,0,0,0
2.6434,1783185124.7760,1,1,1.0000,-0.0000,1.44682,0.22673,-2.77915,0.98160,1.57080,0.00001,-0.14512,-0.38003,0.04482,,,,,,,,,,,,,,,,,,,,,,,,,,0,0,0,0,0
2.6551,1783185124.7877,1,1,1.0000,-0.0000,1.44682,0.22667,-2.77917,0.98167,1.57080,0.00001,-0.14512,-0.38003,0.04481,,,,,,,,,,,,,,,,,,,,,,,,,,0,0,0,0,0
2.6646,1783185124.7972,1,1,1.0000,-0.0000,1.44682,0.22662,-2.77918,0.98173,1.57080,0.00001,-0.14512,-0.38003,0.04479,,,,,,,,,,,,,,,,,,,,,,,,,,0,0,0,0,0
2.6649,1783185124.7975,1,1,1.0000,-0.0000,1.44682,0.22662,-2.77918,0.98173,1.57080,0.00001,-0.14512,-0.38003,0.04479,,,,,,,,,,,,,,,,,,,,,,,,,,0,0,0,0,0
2.6778,1783185124.8104,1,1,1.0000,-0.0000,1.44682,0.22659,-2.77919,0.98177,1.57080,0.00001,-0.14512,-0.38003,0.04479,,,,,,,,,,,,,,,,,,,,,,,,,,0,0,0,0,0
2.6878,1783185124.8204,1,1,1.0000,-0.0000,1.44682,0.22655,-2.77920,0.98182,1.57080,0.00001,-0.14512,-0.38003,0.04477,,,,,,,,,,,,,,,,,,,,,,,,,,0,0,0,0,0
2.6961,1783185124.8287,1,1,1.0000,-0.0000,1.44682,0.22651,-2.77921,0.98187,1.57080,0.00001,-0.14512,-0.38003,0.04476,,,,,,,,,,,,,,,,,,,,,,,,,,0,0,0,0,0
2.7050,1783185124.8376,1,1,1.0000,-0.0000,1.44682,0.22650,-2.77921,0.98188,1.57080,0.00001,-0.14512,-0.38003,0.04476,,,,,,,,,,,,,,,,,,,,,,,,,,0,0,0,0,0
2.7203,1783185124.8529,1,1,1.0000,-0.0000,1.44682,0.22642,-2.77923,0.98198,1.57080,0.00001,-0.14512,-0.38003,0.04474,,,,,,,,,,,,,,,,,,,,,,,,,,0,0,0,0,0
2.7248,1783185124.8574,1,1,1.0000,-0.0000,1.44682,0.22639,-2.77924,0.98201,1.57080,0.00001,-0.14512,-0.38003,0.04473,,,,,,,,,,,,,,,,,,,,,,,,,,0,0,0,0,0
2.7253,1783185124.8579,1,1,1.0000,-0.0000,1.44682,0.22639,-2.77924,0.98201,1.57080,0.00001,-0.14512,-0.38003,0.04473,,,,,,,,,,,,,,,,,,,,,,,,,,0,0,0,0,0
2.7337,1783185124.8663,1,1,1.0000,-0.0000,1.44682,0.22637,-2.77924,0.98205,1.57080,0.00001,-0.14512,-0.38003,0.04473,,,,,,,,,,,,,,,,,,,,,,,,,,0,0,0,0,0
2.7344,1783185124.8670,1,1,1.0000,-0.0000,1.44682,0.22636,-2.77925,0.98205,1.57080,0.00001,-0.14512,-0.38003,0.04473,,,,,,,,,,,,,,,,,,,,,,,,,,0,0,0,0,0
2.7443,1783185124.8769,1,1,1.0000,-0.0000,1.44682,0.22633,-2.77925,0.98209,1.57080,0.00001,-0.14512,-0.38003,0.04472,,,,,,,,,,,,,,,,,,,,,,,,,,0,0,0,0,0
2.7569,1783185124.8895,1,1,1.0000,-0.0000,1.44682,0.22626,-2.77927,0.98218,1.57080,0.00001,-0.14512,-0.38003,0.04470,,,,,,,,,,,,,,,,,,,,,,,,,,0,0,0,0,0
2.7646,1783185124.8972,1,1,1.0000,-0.0000,1.44682,0.22625,-2.77927,0.98219,1.57080,0.00001,-0.14512,-0.38003,0.04470,,,,,,,,,,,,,,,,,,,,,,,,,,0,0,0,0,0
2.7650,1783185124.8976,1,1,1.0000,-0.0000,1.44682,0.22625,-2.77927,0.98219,1.57080,0.00001,-0.14512,-0.38003,0.04470,,,,,,,,,,,,,,,,,,,,,,,,,,0,0,0,0,0
2.7782,1783185124.9108,1,1,1.0000,-0.0000,1.44682,0.22617,-2.77929,0.98229,1.57080,0.00001,-0.14512,-0.38003,0.04468,,,,,,,,,,,,,,,,,,,,,,,,,,0,0,0,0,0
2.7835,1783185124.9161,1,1,1.0000,-0.0000,1.44682,0.22615,-2.77930,0.98232,1.57080,0.00001,-0.14512,-0.38003,0.04467,,,,,,,,,,,,,,,,,,,,,,,,,,0,0,0,0,0
2.7837,1783185124.9163,1,1,1.0000,-0.0000,1.44682,0.22615,-2.77930,0.98232,1.57080,0.00001,-0.14512,-0.38003,0.04467,,,,,,,,,,,,,,,,,,,,,,,,,,0,0,0,0,0
2.7962,1783185124.9288,1,1,1.0000,-0.0000,1.44682,0.22612,-2.77931,0.98236,1.57080,0.00001,-0.14512,-0.38003,0.04466,,,,,,,,,,,,,,,,,,,,,,,,,,0,0,0,0,0
2.7965,1783185124.9291,1,1,1.0000,-0.0000,1.44682,0.22612,-2.77931,0.98236,1.57080,0.00001,-0.14512,-0.38003,0.04466,,,,,,,,,,,,,,,,,,,,,,,,,,0,0,0,0,0
2.8065,1783185124.9391,1,1,1.0000,-0.0000,1.44682,0.22606,-2.77932,0.98243,1.57080,0.00001,-0.14512,-0.38003,0.04465,,,,,,,,,,,,,,,,,,,,,,,,,,0,0,0,0,0
2.8162,1783185124.9488,1,1,1.0000,-0.0000,1.44682,0.22601,-2.77933,0.98249,1.57080,0.00001,-0.14512,-0.38003,0.04464,,,,,,,,,,,,,,,,,,,,,,,,,,0,0,0,0,0
2.8247,1783185124.9573,1,1,1.0000,-0.0000,1.44682,0.22601,-2.77934,0.98250,1.57080,0.00001,-0.14512,-0.38003,0.04463,,,,,,,,,,,,,,,,,,,,,,,,,,0,0,0,0,0
2.8250,1783185124.9576,1,1,1.0000,-0.0000,1.44682,0.22601,-2.77934,0.98250,1.57080,0.00001,-0.14512,-0.38003,0.04463,,,,,,,,,,,,,,,,,,,,,,,,,,0,0,0,0,0
2.8339,1783185124.9665,1,1,1.0000,-0.0000,1.44682,0.22598,-2.77934,0.98253,1.57080,0.00001,-0.14512,-0.38003,0.04463,,,,,,,,,,,,,,,,,,,,,,,,,,0,0,0,0,0
2.8435,1783185124.9761,1,1,1.0000,-0.0000,1.44682,0.22590,-2.77936,0.98263,1.57080,0.00001,-0.14512,-0.38003,0.04461,,,,,,,,,,,,,,,,,,,,,,,,,,0,0,0,0,0
2.8547,1783185124.9873,1,1,1.0000,-0.0000,1.44682,0.22587,-2.77937,0.98267,1.57080,0.00001,-0.14512,-0.38003,0.04460,,,,,,,,,,,,,,,,,,,,,,,,,,0,0,0,0,0
2.8550,1783185124.9875,1,1,1.0000,-0.0000,1.44682,0.22587,-2.77937,0.98267,1.57080,0.00001,-0.14512,-0.38003,0.04460,,,,,,,,,,,,,,,,,,,,,,,,,,0,0,0,0,0
2.8670,1783185124.9996,1,1,1.0000,-0.0000,1.44682,0.22582,-2.77938,0.98273,1.57080,0.00001,-0.14512,-0.38003,0.04459,,,,,,,,,,,,,,,,,,,,,,,,,,0,0,0,0,0
2.8753,1783185125.0079,1,1,1.0000,-0.0000,1.44682,0.22577,-2.77940,0.98280,1.57080,0.00001,-0.14512,-0.38003,0.04457,,,,,,,,,,,,,,,,,,,,,,,,,,0,0,0,0,0
2.8850,1783185125.0176,1,1,1.0000,-0.0000,1.44682,0.22576,-2.77940,0.98280,1.57080,0.00001,-0.14512,-0.38003,0.04457,,,,,,,,,,,,,,,,,,,,,,,,,,0,0,0,0,0
2.8945,1783185125.0271,1,1,1.0000,-0.0000,1.44682,0.22571,-2.77941,0.98287,1.57080,0.00001,-0.14512,-0.38003,0.04456,,,,,,,,,,,,,,,,,,,,,,,,,,0,0,0,0,0
2.8947,1783185125.0272,1,1,1.0000,-0.0000,1.44682,0.22571,-2.77941,0.98287,1.57080,0.00001,-0.14512,-0.38003,0.04456,,,,,,,,,,,,,,,,,,,,,,,,,,0,0,0,0,0
2.9077,1783185125.0403,1,1,1.0000,-0.0000,1.44682,0.22563,-2.77943,0.98297,1.57080,0.00001,-0.14512,-0.38003,0.04454,,,,,,,,,,,,,,,,,,,,,,,,,,0,0,0,0,0
2.9155,1783185125.0481,1,1,1.0000,-0.0000,1.44682,0.22563,-2.77943,0.98297,1.57080,0.00001,-0.14512,-0.38003,0.04454,,,,,,,,,,,,,,,,,,,,,,,,,,0,0,0,0,0
2.9247,1783185125.0573,1,1,1.0000,-0.0000,1.44682,0.22560,-2.77944,0.98301,1.57080,0.00001,-0.14512,-0.38003,0.04453,,,,,,,,,,,,,,,,,,,,,,,,,,0,0,0,0,0
2.9252,1783185125.0578,1,1,1.0000,-0.0000,1.44682,0.22560,-2.77944,0.98301,1.57080,0.00001,-0.14512,-0.38003,0.04453,,,,,,,,,,,,,,,,,,,,,,,,,,0,0,0,0,0
2.9363,1783185125.0689,1,1,1.0000,-0.0000,1.44682,0.22552,-2.77946,0.98310,1.57080,0.00001,-0.14512,-0.38003,0.04451,,,,,,,,,,,,,,,,,,,,,,,,,,0,0,0,0,0
2.9436,1783185125.0762,1,1,1.0000,-0.0000,1.44682,0.22552,-2.77946,0.98311,1.57080,0.00001,-0.14512,-0.38003,0.04451,,,,,,,,,,,,,,,,,,,,,,,,,,0,0,0,0,0
2.9537,1783185125.0863,1,1,1.0000,-0.0000,1.44682,0.22549,-2.77947,0.98315,1.57080,0.00001,-0.14512,-0.38003,0.04450,,,,,,,,,,,,,,,,,,,,,,,,,,0,0,0,0,0
2.9634,1783185125.0960,1,1,1.0000,-0.0000,1.44682,0.22541,-2.77949,0.98324,1.57080,0.00001,-0.14512,-0.38003,0.04448,,,,,,,,,,,,,,,,,,,,,,,,,,0,0,0,0,0
2.9638,1783185125.0964,1,1,1.0000,-0.0000,1.44682,0.22541,-2.77949,0.98324,1.57080,0.00001,-0.14512,-0.38003,0.04448,,,,,,,,,,,,,,,,,,,,,,,,,,0,0,0,0,0
2.9737,1783185125.1063,1,1,1.0000,-0.0000,1.44682,0.22539,-2.77949,0.98327,1.57080,0.00001,-0.14512,-0.38003,0.04447,,,,,,,,,,,,,,,,,,,,,,,,,,0,0,0,0,0
2.9744,1783185125.1070,1,1,1.0000,-0.0000,1.44682,0.22538,-2.77949,0.98328,1.57080,0.00001,-0.14512,-0.38003,0.04447,,,,,,,,,,,,,,,,,,,,,,,,,,0,0,0,0,0
2.9836,1783185125.1162,1,1,1.0000,-0.0000,1.44682,0.22535,-2.77950,0.98332,1.57080,0.00001,-0.14512,-0.38003,0.04447,,,,,,,,,,,,,,,,,,,,,,,,,,0,0,0,0,0
2.9946,1783185125.1272,1,1,1.0000,-0.0000,1.44682,0.22528,-2.77952,0.98341,1.57080,0.00001,-0.14512,-0.38003,0.04445,,,,,,,,,,,,,,,,,,,,,,,,,,0,0,0,0,0
2.9949,1783185125.1275,1,1,1.0000,-0.0000,1.44682,0.22528,-2.77952,0.98341,1.57080,0.00001,-0.14512,-0.38003,0.04445,,,,,,,,,,,,,,,,,,,,,,,,,,0,0,0,0,0
3.0047,1783185125.1373,1,1,1.0000,-0.0000,1.44682,0.22527,-2.77952,0.98342,1.57080,0.00001,-0.14512,-0.38003,0.04444,,,,,,,,,,,,,,,,,,,,,,,,,,0,0,0,0,0
3.0138,1783185125.1464,1,1,1.0000,-0.0000,1.44682,0.22524,-2.77953,0.98346,1.57080,0.00001,-0.14512,-0.38003,0.04444,,,,,,,,,,,,,,,,,,,,,,,,,,0,0,0,0,0
3.0146,1783185125.1472,1,1,1.0000,-0.0000,1.44682,0.22522,-2.77953,0.98348,1.57080,0.00001,-0.14512,-0.38003,0.04443,,,,,,,,,,,,,,,,,,,,,,,,,,0,0,0,0,0
3.0272,1783185125.1598,1,1,1.0000,-0.0000,1.44682,0.22514,-2.77955,0.98358,1.57080,0.00001,-0.14512,-0.38003,0.04441,,,,,,,,,,,,,,,,,,,,,,,,,,0,0,0,0,0
3.0334,1783185125.1660,1,1,1.0000,-0.0000,1.44682,0.22514,-2.77955,0.98358,1.57080,0.00001,-0.14512,-0.38003,0.04441,,,,,,,,,,,,,,,,,,,,,,,,,,0,0,0,0,0
3.0337,1783185125.1663,1,1,1.0000,-0.0000,1.44682,0.22514,-2.77955,0.98358,1.57080,0.00001,-0.14512,-0.38003,0.04441,,,,,,,,,,,,,,,,,,,,,,,,,,0,0,0,0,0
3.0442,1783185125.1768,1,1,1.0000,-0.0000,1.44682,0.22511,-2.77956,0.98362,1.57080,0.00001,-0.14512,-0.38003,0.04440,,,,,,,,,,,,,,,,,,,,,,,,,,0,0,0,0,0
3.0562,1783185125.1888,1,1,1.0000,-0.0000,1.44682,0.22503,-2.77958,0.98372,1.57080,0.00001,-0.14512,-0.38003,0.04438,,,,,,,,,,,,,,,,,,,,,,,,,,0,0,0,0,0
3.0660,1783185125.1986,1,1,1.0000,-0.0000,1.44682,0.22503,-2.77958,0.98372,1.57080,0.00001,-0.14512,-0.38003,0.04438,,,,,,,,,,,,,,,,,,,,,,,,,,0,0,0,0,0
3.0666,1783185125.1992,1,1,1.0000,-0.0000,1.44682,0.22502,-2.77959,0.98374,1.57080,0.00001,-0.14512,-0.38003,0.04438,,,,,,,,,,,,,,,,,,,,,,,,,,0,0,0,0,0
3.0747,1783185125.2073,1,1,1.0000,-0.0000,1.44682,0.22497,-2.77960,0.98379,1.57080,0.00001,-0.14512,-0.38003,0.04437,,,,,,,,,,,,,,,,,,,,,,,,,,0,0,0,0,0
3.0903,1783185125.2229,1,1,1.0000,-0.0000,1.44682,0.22490,-2.77962,0.98389,1.57080,0.00001,-0.14512,-0.38003,0.04435,,,,,,,,,,,,,,,,,,,,,,,,,,0,0,0,0,0
3.0971,1783185125.2296,1,1,1.0000,-0.0000,1.44682,0.22489,-2.77962,0.98389,1.57080,0.00001,-0.14512,-0.38003,0.04435,,,,,,,,,,,,,,,,,,,,,,,,,,0,0,0,0,0
3.0975,1783185125.2301,1,1,1.0000,-0.0000,1.44682,0.22489,-2.77962,0.98389,1.57080,0.00001,-0.14512,-0.38003,0.04435,,,,,,,,,,,,,,,,,,,,,,,,,,0,0,0,0,0
3.1067,1783185125.2393,1,1,1.0000,-0.0000,1.44682,0.22484,-2.77963,0.98396,1.57080,0.00001,-0.14512,-0.38003,0.04433,,,,,,,,,,,,,,,,,,,,,,,,,,0,0,0,0,0
3.1139,1783185125.2465,1,1,1.0000,-0.0000,1.44682,0.22481,-2.77964,0.98399,1.57080,0.00001,-0.14512,-0.38003,0.04433,,,,,,,,,,,,,,,,,,,,,,,,,,0,0,0,0,0
3.1315,1783185125.2640,1,1,1.0000,-0.0000,1.44682,0.22475,-2.77965,0.98407,1.57080,0.00001,-0.14512,-0.38002,0.04431,,,,,,,,,,,,,,,,,,,,,,,,,,0,0,0,0,0
3.1337,1783185125.2663,1,1,1.0000,-0.0000,1.44682,0.22475,-2.77965,0.98407,1.57080,0.00001,-0.14512,-0.38002,0.04431,,,,,,,,,,,,,,,,,,,,,,,,,,0,0,0,0,0
3.1341,1783185125.2667,1,1,1.0000,-0.0000,1.44682,0.22475,-2.77965,0.98407,1.57080,0.00001,-0.14512,-0.38002,0.04431,,,,,,,,,,,,,,,,,,,,,,,,,,0,0,0,0,0
3.1435,1783185125.2761,1,1,1.0000,-0.0000,1.44682,0.22468,-2.77967,0.98416,1.57080,0.00001,-0.14512,-0.38002,0.04429,,,,,,,,,,,,,,,,,,,,,,,,,,0,0,0,0,0
3.1535,1783185125.2861,1,1,1.0000,-0.0000,1.44682,0.22465,-2.77968,0.98419,1.57080,0.00001,-0.14512,-0.38002,0.04428,,,,,,,,,,,,,,,,,,,,,,,,,,0,0,0,0,0
3.1540,1783185125.2866,1,1,1.0000,-0.0000,1.44682,0.22465,-2.77968,0.98419,1.57080,0.00001,-0.14512,-0.38002,0.04428,,,,,,,,,,,,,,,,,,,,,,,,,,0,0,0,0,0
3.1712,1783185125.3038,1,1,1.0000,-0.0000,1.44682,0.22457,-2.77970,0.98430,1.57080,0.00001,-0.14512,-0.38002,0.04426,,,,,,,,,,,,,,,,,,,,,,,,,,0,0,0,0,0
3.1746,1783185125.3072,1,1,1.0000,-0.0000,1.44682,0.22454,-2.77971,0.98433,1.57080,0.00001,-0.14512,-0.38002,0.04426,,,,,,,,,,,,,,,,,,,,,,,,,,0,0,0,0,0
3.1841,1783185125.3167,1,1,1.0000,-0.0000,1.44682,0.22454,-2.77971,0.98434,1.57080,0.00001,-0.14512,-0.38002,0.04425,,,,,,,,,,,,,,,,,,,,,,,,,,0,0,0,0,0
3.1936,1783185125.3262,1,1,1.0000,-0.0000,1.44682,0.22451,-2.77971,0.98438,1.57080,0.00001,-0.14512,-0.38002,0.04425,,,,,,,,,,,,,,,,,,,,,,,,,,0,0,0,0,0
3.2065,1783185125.3391,1,1,1.0000,-0.0000,1.44682,0.22441,-2.77974,0.98450,1.57080,0.00001,-0.14512,-0.38002,0.04422,,,,,,,,,,,,,,,,,,,,,,,,,,0,0,0,0,0
3.2068,1783185125.3394,1,1,1.0000,-0.0000,1.44682,0.22441,-2.77974,0.98450,1.57080,0.00001,-0.14512,-0.38002,0.04422,,,,,,,,,,,,,,,,,,,,,,,,,,0,0,0,0,0
3.2162,1783185125.3488,1,1,1.0000,-0.0000,1.44682,0.22440,-2.77974,0.98451,1.57080,0.00001,-0.14512,-0.38002,0.04422,,,,,,,,,,,,,,,,,,,,,,,,,,0,0,0,0,0
3.2166,1783185125.3492,1,1,1.0000,-0.0000,1.44682,0.22440,-2.77974,0.98451,1.57080,0.00001,-0.14512,-0.38002,0.04422,,,,,,,,,,,,,,,,,,,,,,,,,,0,0,0,0,0
3.2259,1783185125.3585,1,1,1.0000,-0.0000,1.44682,0.22437,-2.77975,0.98455,1.57080,0.00001,-0.14512,-0.38002,0.04421,,,,,,,,,,,,,,,,,,,,,,,,,,0,0,0,0,0
3.2384,1783185125.3710,1,1,1.0000,-0.0000,1.44682,0.22427,-2.77977,0.98467,1.57080,0.00001,-0.14512,-0.38002,0.04419,,,,,,,,,,,,,,,,,,,,,,,,,,0,0,0,0,0
3.2612,1783185125.3938,1,1,1.0000,-0.0000,1.44682,0.22423,-2.77979,0.98473,1.57080,0.00001,-0.14512,-0.38002,0.04417,,,,,,,,,,,,,,,,,,,,,,,,,,0,0,0,0,0
3.2616,1783185125.3942,1,1,1.0000,-0.0000,1.44682,0.22423,-2.77979,0.98473,1.57080,0.00001,-0.14512,-0.38002,0.04417,,,,,,,,,,,,,,,,,,,,,,,,,,0,0,0,0,0
3.2625,1783185125.3951,1,1,1.0000,-0.0000,1.44682,0.22421,-2.77979,0.98475,1.57080,0.00001,-0.14512,-0.38002,0.04417,,,,,,,,,,,,,,,,,,,,,,,,,,0,0,0,0,0
3.2787,1783185125.4112,1,1,1.0000,-0.0000,1.44682,0.22417,-2.77980,0.98480,1.57080,0.00001,-0.14512,-0.38002,0.04416,,,,,,,,,,,,,,,,,,,,,,,,,,0,0,0,0,0
3.2789,1783185125.4115,1,1,1.0000,-0.0000,1.44682,0.22417,-2.77980,0.98480,1.57080,0.00001,-0.14512,-0.38002,0.04416,,,,,,,,,,,,,,,,,,,,,,,,,,0,0,0,0,0
3.2837,1783185125.4163,1,1,1.0000,-0.0000,1.44682,0.22415,-2.77981,0.98483,1.57080,0.00001,-0.14512,-0.38002,0.04415,,,,,,,,,,,,,,,,,,,,,,,,,,0,0,0,0,0
3.2839,1783185125.4165,1,1,1.0000,-0.0000,1.44682,0.22415,-2.77981,0.98483,1.57080,0.00001,-0.14512,-0.38002,0.04415,,,,,,,,,,,,,,,,,,,,,,,,,,0,0,0,0,0
3.2948,1783185125.4274,1,1,1.0000,-0.0000,1.44682,0.22407,-2.77982,0.98492,1.57080,0.00001,-0.14512,-0.38002,0.04413,,,,,,,,,,,,,,,,,,,,,,,,,,0,0,0,0,0
3.3037,1783185125.4363,1,1,1.0000,-0.0000,1.44682,0.22404,-2.77983,0.98495,1.57080,0.00001,-0.14512,-0.38002,0.04413,,,,,,,,,,,,,,,,,,,,,,,,,,0,0,0,0,0
3.3179,1783185125.4505,1,1,1.0000,-0.0000,1.44682,0.22402,-2.77984,0.98499,1.57080,0.00001,-0.14512,-0.38002,0.04412,,,,,,,,,,,,,,,,,,,,,,,,,,0,0,0,0,0
3.3238,1783185125.4564,1,1,1.0000,-0.0000,1.44682,0.22398,-2.77985,0.98503,1.57080,0.00001,-0.14512,-0.38002,0.04411,,,,,,,,,,,,,,,,,,,,,,,,,,0,0,0,0,0
3.3346,1783185125.4672,1,1,1.0000,-0.0000,1.44682,0.22395,-2.77985,0.98507,1.57080,0.00001,-0.14512,-0.38002,0.04410,,,,,,,,,,,,,,,,,,,,,,,,,,0,0,0,0,0
3.3590,1783185125.4916,1,1,1.0000,-0.0000,1.44682,0.22382,-2.77989,0.98524,1.57080,0.00001,-0.14512,-0.38002,0.04407,,,,,,,,,,,,,,,,,,,,,,,,,,0,0,0,0,0
3.3595,1783185125.4921,1,1,1.0000,-0.0000,1.44682,0.22382,-2.77989,0.98524,1.57080,0.00001,-0.14512,-0.38002,0.04407,,,,,,,,,,,,,,,,,,,,,,,,,,0,0,0,0,0
3.3598,1783185125.4924,1,1,1.0000,-0.0000,1.44682,0.22382,-2.77989,0.98524,1.57080,0.00001,-0.14512,-0.38002,0.04407,,,,,,,,,,,,,,,,,,,,,,,,,,0,0,0,0,0
3.3745,1783185125.5070,1,1,1.0000,-0.0000,1.44682,0.22379,-2.77989,0.98527,1.57080,0.00001,-0.14512,-0.38002,0.04406,,,,,,,,,,,,,,,,,,,,,,,,,,0,0,0,0,0
3.3849,1783185125.5175,1,1,1.0000,-0.0000,1.44682,0.22376,-2.77990,0.98532,1.57080,0.00001,-0.14512,-0.38002,0.04405,,,,,,,,,,,,,,,,,,,,,,,,,,0,0,0,0,0
3.3852,1783185125.5178,1,1,1.0000,-0.0000,1.44682,0.22376,-2.77990,0.98532,1.57080,0.00001,-0.14512,-0.38002,0.04405,,,,,,,,,,,,,,,,,,,,,,,,,,0,0,0,0,0
3.3994,1783185125.5320,1,1,1.0000,-0.0000,1.44682,0.22372,-2.77991,0.98537,1.57080,0.00001,-0.14512,-0.38002,0.04404,,,,,,,,,,,,,,,,,,,,,,,,,,0,0,0,0,0
3.4036,1783185125.5362,1,1,1.0000,-0.0000,1.44682,0.22370,-2.77992,0.98539,1.57080,0.00001,-0.14512,-0.38002,0.04404,,,,,,,,,,,,,,,,,,,,,,,,,,0,0,0,0,0
3.4268,1783185125.5593,1,1,1.0000,-0.0000,1.44682,0.22359,-2.77994,0.98552,1.57080,0.00001,-0.14512,-0.38002,0.04401,,,,,,,,,,,,,,,,,,,,,,,,,,0,0,0,0,0
3.4272,1783185125.5598,1,1,1.0000,-0.0000,1.44682,0.22359,-2.77994,0.98552,1.57080,0.00001,-0.14512,-0.38002,0.04401,,,,,,,,,,,,,,,,,,,,,,,,,,0,0,0,0,0
3.4545,1783185125.5871,1,1,1.0000,-0.0000,1.44682,0.22350,-2.77997,0.98563,1.57080,0.00001,-0.14512,-0.38002,0.04399,,,,,,,,,,,,,,,,,,,,,,,,,,0,0,0,0,0
3.4547,1783185125.5873,1,1,1.0000,-0.0000,1.44682,0.22350,-2.77997,0.98563,1.57080,0.00001,-0.14512,-0.38002,0.04399,,,,,,,,,,,,,,,,,,,,,,,,,,0,0,0,0,0
3.5002,1783185125.6328,1,1,1.0000,-0.0000,1.44682,0.22333,-2.78001,0.98585,1.57080,0.00001,-0.14512,-0.38002,0.04394,,,,,,,,,,,,,,,,,,,,,,,,,,0,0,0,0,0
3.5176,1783185125.6502,1,1,1.0000,-0.0000,1.44682,0.22328,-2.78002,0.98591,1.57080,0.00001,-0.14512,-0.38002,0.04393,,,,,,,,,,,,,,,,,,,,,,,,,,0,0,0,0,0
3.5180,1783185125.6506,1,1,1.0000,-0.0000,1.44682,0.22328,-2.78002,0.98591,1.57080,0.00001,-0.14512,-0.38002,0.04393,,,,,,,,,,,,,,,,,,,,,,,,,,0,0,0,0,0
3.5186,1783185125.6512,1,1,1.0000,-0.0000,1.44682,0.22327,-2.78003,0.98593,1.57080,0.00001,-0.14512,-0.38002,0.04393,,,,,,,,,,,,,,,,,,,,,,,,,,0,0,0,0,0
3.5188,1783185125.6514,1,1,1.0000,-0.0000,1.44682,0.22327,-2.78003,0.98593,1.57080,0.00001,-0.14512,-0.38002,0.04393,,,,,,,,,,,,,,,,,,,,,,,,,,0,0,0,0,0
3.5290,1783185125.6616,1,1,1.0000,-0.0000,1.44682,0.22322,-2.78004,0.98598,1.57080,0.00001,-0.14512,-0.38002,0.04392,,,,,,,,,,,,,,,,,,,,,,,,,,0,0,0,0,0
3.5293,1783185125.6619,1,1,1.0000,-0.0000,1.44682,0.22322,-2.78004,0.98598,1.57080,0.00001,-0.14512,-0.38002,0.04392,,,,,,,,,,,,,,,,,,,,,,,,,,0,0,0,0,0
3.5392,1783185125.6718,1,1,1.0000,-0.0000,1.44682,0.22314,-2.78006,0.98608,1.57080,0.00001,-0.14512,-0.38002,0.04389,,,,,,,,,,,,,,,,,,,,,,,,,,0,0,0,0,0
3.5435,1783185125.6761,1,1,1.0000,-0.0000,1.44682,0.22314,-2.78006,0.98608,1.57080,0.00001,-0.14512,-0.38002,0.04389,,,,,,,,,,,,,,,,,,,,,,,,,,0,0,0,0,0
3.5437,1783185125.6763,1,1,1.0000,-0.0000,1.44682,0.22314,-2.78006,0.98608,1.57080,0.00001,-0.14512,-0.38002,0.04389,,,,,,,,,,,,,,,,,,,,,,,,,,0,0,0,0,0
3.5564,1783185125.6890,1,1,1.0000,-0.0000,1.44682,0.22311,-2.78007,0.98613,1.57080,0.00001,-0.14512,-0.38002,0.04389,,,,,,,,,,,,,,,,,,,,,,,,,,0,0,0,0,0
3.5651,1783185125.6977,1,1,1.0000,-0.0000,1.44682,0.22306,-2.78008,0.98619,1.57080,0.00001,-0.14512,-0.38002,0.04387,,,,,,,,,,,,,,,,,,,,,,,,,,0,0,0,0,0
3.5656,1783185125.6982,1,1,1.0000,-0.0000,1.44682,0.22306,-2.78008,0.98619,1.57080,0.00001,-0.14512,-0.38002,0.04387,,,,,,,,,,,,,,,,,,,,,,,,,,0,0,0,0,0
3.5753,1783185125.7079,1,1,1.0000,-0.0000,1.44682,0.22303,-2.78009,0.98623,1.57080,0.00001,-0.14512,-0.38002,0.04387,,,,,,,,,,,,,,,,,,,,,,,,,,0,0,0,0,0
3.5857,1783185125.7183,1,1,1.0000,-0.0000,1.44682,0.22300,-2.78009,0.98626,1.57080,0.00001,-0.14512,-0.38002,0.04386,,,,,,,,,,,,,,,,,,,,,,,,,,0,0,0,0,0
3.5984,1783185125.7310,1,1,1.0000,-0.0000,1.44682,0.22290,-2.78012,0.98639,1.57080,0.00001,-0.14512,-0.38002,0.04383,,,,,,,,,,,,,,,,,,,,,,,,,,0,0,0,0,0
3.5986,1783185125.7312,1,1,1.0000,-0.0000,1.44682,0.22290,-2.78012,0.98639,1.57080,0.00001,-0.14512,-0.38002,0.04383,,,,,,,,,,,,,,,,,,,,,,,,,,0,0,0,0,0
3.6118,1783185125.7444,1,1,1.0000,-0.0000,1.44682,0.22288,-2.78012,0.98641,1.57080,0.00001,-0.14512,-0.38002,0.04383,,,,,,,,,,,,,,,,,,,,,,,,,,0,0,0,0,0
3.6199,1783185125.7525,1,1,1.0000,-0.0000,1.44682,0.22284,-2.78013,0.98646,1.57080,0.00001,-0.14512,-0.38002,0.04382,,,,,,,,,,,,,,,,,,,,,,,,,,0,0,0,0,0
3.6277,1783185125.7603,1,1,1.0000,-0.0000,1.44682,0.22279,-2.78015,0.98653,1.57080,0.00001,-0.14512,-0.38002,0.04380,,,,,,,,,,,,,,,,,,,,,,,,,,0,0,0,0,0
3.6384,1783185125.7710,1,1,1.0000,-0.0000,1.44682,0.22277,-2.78015,0.98655,1.57080,0.00001,-0.14512,-0.38002,0.04380,,,,,,,,,,,,,,,,,,,,,,,,,,0,0,0,0,0
3.6474,1783185125.7799,1,1,1.0000,-0.0000,1.44681,0.22273,-2.78016,0.98660,1.57080,0.00001,-0.14512,-0.38002,0.04379,,,,,,,,,,,,,,,,,,,,,,,,,,0,0,0,0,0
3.6552,1783185125.7878,1,1,1.0000,-0.0000,1.44681,0.22268,-2.78017,0.98666,1.57080,0.00001,-0.14512,-0.38002,0.04377,,,,,,,,,,,,,,,,,,,,,,,,,,0,0,0,0,0
3.6637,1783185125.7963,1,1,1.0000,-0.0000,1.44681,0.22265,-2.78018,0.98670,1.57080,0.00001,-0.14512,-0.38002,0.04377,,,,,,,,,,,,,,,,,,,,,,,,,,0,0,0,0,0
3.6784,1783185125.8110,1,1,1.0000,-0.0000,1.44681,0.22259,-2.78020,0.98677,1.57080,0.00001,-0.14512,-0.38002,0.04375,,,,,,,,,,,,,,,,,,,,,,,,,,0,0,0,0,0
3.6857,1783185125.8183,1,1,1.0000,-0.0000,1.44681,0.22257,-2.78020,0.98680,1.57080,0.00001,-0.14512,-0.38002,0.04375,,,,,,,,,,,,,,,,,,,,,,,,,,0,0,0,0,0
3.6959,1783185125.8285,1,1,1.0000,-0.0000,1.44681,0.22254,-2.78021,0.98684,1.57080,0.00001,-0.14512,-0.38002,0.04374,,,,,,,,,,,,,,,,,,,,,,,,,,0,0,0,0,0
3.7054,1783185125.8380,1,1,1.0000,-0.0000,1.44681,0.22251,-2.78022,0.98688,1.57080,0.00001,-0.14512,-0.38002,0.04373,,,,,,,,,,,,,,,,,,,,,,,,,,0,0,0,0,0
3.7283,1783185125.8609,1,1,1.0000,-0.0000,1.44681,0.22240,-2.78024,0.98701,1.57080,0.00001,-0.14512,-0.38002,0.04370,,,,,,,,,,,,,,,,,,,,,,,,,,0,0,0,0,0
3.7287,1783185125.8612,1,1,1.0000,-0.0000,1.44681,0.22240,-2.78024,0.98701,1.57080,0.00001,-0.14512,-0.38002,0.04370,,,,,,,,,,,,,,,,,,,,,,,,,,0,0,0,0,0
3.7352,1783185125.8678,1,1,1.0000,-0.0000,1.44681,0.22237,-2.78025,0.98705,1.57080,0.00001,-0.14512,-0.38002,0.04370,,,,,,,,,,,,,,,,,,,,,,,,,,0,0,0,0,0
3.7460,1783185125.8786,1,1,1.0000,-0.0000,1.44681,0.22232,-2.78026,0.98711,1.57080,0.00001,-0.14512,-0.38002,0.04368,,,,,,,,,,,,,,,,,,,,,,,,,,0,0,0,0,0
3.7610,1783185125.8936,1,1,1.0000,-0.0000,1.44681,0.22227,-2.78028,0.98718,1.57080,0.00001,-0.14512,-0.38002,0.04367,,,,,,,,,,,,,,,,,,,,,,,,,,0,0,0,0,0
3.7680,1783185125.9006,1,1,1.0000,-0.0000,1.44681,0.22224,-2.78028,0.98721,1.57080,0.00001,-0.14512,-0.38002,0.04366,,,,,,,,,,,,,,,,,,,,,,,,,,0,0,0,0,0
3.7688,1783185125.9014,1,1,1.0000,-0.0000,1.44681,0.22224,-2.78028,0.98721,1.57080,0.00001,-0.14512,-0.38002,0.04366,,,,,,,,,,,,,,,,,,,,,,,,,,0,0,0,0,0
3.7733,1783185125.9059,1,1,1.0000,-0.0000,1.44681,0.22222,-2.78029,0.98723,1.57080,0.00001,-0.14512,-0.38002,0.04366,,,,,,,,,,,,,,,,,,,,,,,,,,0,0,0,0,0
3.7738,1783185125.9064,1,1,1.0000,-0.0000,1.44681,0.22222,-2.78029,0.98723,1.57080,0.00001,-0.14512,-0.38002,0.04366,,,,,,,,,,,,,,,,,,,,,,,,,,0,0,0,0,0
3.7866,1783185125.9192,1,1,1.0000,-0.0000,1.44681,0.22218,-2.78030,0.98729,1.57080,0.00001,-0.14512,-0.38002,0.04365,,,,,,,,,,,,,,,,,,,,,,,,,,0,0,0,0,0
3.7984,1783185125.9310,1,1,1.0000,-0.0000,1.44681,0.22212,-2.78031,0.98736,1.57080,0.00001,-0.14512,-0.38002,0.04363,,,,,,,,,,,,,,,,,,,,,,,,,,0,0,0,0,0
3.7988,1783185125.9314,1,1,1.0000,-0.0000,1.44681,0.22212,-2.78031,0.98736,1.57080,0.00001,-0.14512,-0.38002,0.04363,,,,,,,,,,,,,,,,,,,,,,,,,,0,0,0,0,0
3.8069,1783185125.9395,1,1,1.0000,-0.0000,1.44681,0.22207,-2.78033,0.98743,1.57080,0.00001,-0.14512,-0.38002,0.04362,,,,,,,,,,,,,,,,,,,,,,,,,,0,0,0,0,0
3.8146,1783185125.9472,1,1,1.0000,-0.0000,1.44681,0.22206,-2.78033,0.98743,1.57080,0.00001,-0.14512,-0.38002,0.04362,,,,,,,,,,,,,,,,,,,,,,,,,,0,0,0,0,0
3.8267,1783185125.9592,1,1,1.0000,-0.0000,1.44681,0.22201,-2.78034,0.98750,1.57080,0.00001,-0.14512,-0.38002,0.04360,,,,,,,,,,,,,,,,,,,,,,,,,,0,0,0,0,0
3.8385,1783185125.9711,1,1,1.0000,-0.0000,1.44681,0.22193,-2.78036,0.98759,1.57080,0.00001,-0.14512,-0.38002,0.04358,,,,,,,,,,,,,,,,,,,,,,,,,,0,0,0,0,0
3.8500,1783185125.9826,1,1,1.0000,-0.0000,1.44681,0.22193,-2.78036,0.98760,1.57080,0.00001,-0.14512,-0.38002,0.04358,,,,,,,,,,,,,,,,,,,,,,,,,,0,0,0,0,0
3.8535,1783185125.9861,1,1,1.0000,-0.0000,1.44681,0.22192,-2.78036,0.98762,1.57080,0.00001,-0.14512,-0.38002,0.04358,,,,,,,,,,,,,,,,,,,,,,,,,,0,0,0,0,0
3.8540,1783185125.9866,1,1,1.0000,-0.0000,1.44681,0.22192,-2.78036,0.98762,1.57080,0.00001,-0.14512,-0.38002,0.04358,,,,,,,,,,,,,,,,,,,,,,,,,,0,0,0,0,0
3.8636,1783185125.9962,1,1,1.0000,-0.0000,1.44681,0.22185,-2.78038,0.98770,1.57080,0.00001,-0.14512,-0.38002,0.04356,,,,,,,,,,,,,,,,,,,,,,,,,,0,0,0,0,0
3.8754,1783185126.0080,1,1,1.0000,-0.0000,1.44681,0.22182,-2.78039,0.98774,1.57080,0.00001,-0.14512,-0.38002,0.04355,,,,,,,,,,,,,,,,,,,,,,,,,,0,0,0,0,0
3.8846,1783185126.0172,1,1,1.0000,-0.0000,1.44681,0.22179,-2.78040,0.98778,1.57080,0.00001,-0.14512,-0.38002,0.04355,,,,,,,,,,,,,,,,,,,,,,,,,,0,0,0,0,0
3.8850,1783185126.0176,1,1,1.0000,-0.0000,1.44681,0.22179,-2.78040,0.98778,1.57080,0.00001,-0.14512,-0.38002,0.04355,,,,,,,,,,,,,,,,,,,,,,,,,,0,0,0,0,0
3.8936,1783185126.0262,1,1,1.0000,-0.0000,1.44681,0.22174,-2.78041,0.98784,1.57080,0.00001,-0.14512,-0.38002,0.04353,,,,,,,,,,,,,,,,,,,,,,,,,,0,0,0,0,0
3.9049,1783185126.0375,1,1,1.0000,-0.0000,1.44681,0.22169,-2.78042,0.98790,1.57080,0.00001,-0.14512,-0.38002,0.04352,,,,,,,,,,,,,,,,,,,,,,,,,,0,0,0,0,0
3.9165,1783185126.0491,1,1,1.0000,-0.0000,1.44681,0.22165,-2.78043,0.98795,1.57080,0.00001,-0.14512,-0.38002,0.04351,,,,,,,,,,,,,,,,,,,,,,,,,,0,0,0,0,0
3.9251,1783185126.0577,1,1,1.0000,-0.0000,1.44681,0.22160,-2.78044,0.98801,1.57080,0.00001,-0.14512,-0.38002,0.04350,,,,,,,,,,,,,,,,,,,,,,,,,,0,0,0,0,0
3.9384,1783185126.0710,1,1,1.0000,-0.0000,1.44681,0.22155,-2.78046,0.98808,1.57080,0.00001,-0.14512,-0.38002,0.04348,,,,,,,,,,,,,,,,,,,,,,,,,,0,0,0,0,0
3.9488,1783185126.0814,1,1,1.0000,-0.0000,1.44681,0.22152,-2.78046,0.98811,1.57080,0.00001,-0.14512,-0.38002,0.04348,,,,,,,,,,,,,,,,,,,,,,,,,,0,0,0,0,0
3.9553,1783185126.0879,1,1,1.0000,-0.0000,1.44681,0.22149,-2.78047,0.98815,1.57080,0.00001,-0.14512,-0.38002,0.04347,,,,,,,,,,,,,,,,,,,,,,,,,,0,0,0,0,0
3.9660,1783185126.0986,1,1,1.0000,-0.0000,1.44681,0.22146,-2.78048,0.98818,1.57080,0.00001,-0.14512,-0.38002,0.04346,,,,,,,,,,,,,,,,,,,,,,,,,,0,0,0,0,0
3.9665,1783185126.0991,1,1,1.0000,-0.0000,1.44681,0.22146,-2.78048,0.98819,1.57080,0.00001,-0.14512,-0.38002,0.04346,,,,,,,,,,,,,,,,,,,,,,,,,,0,0,0,0,0
3.9778,1783185126.1104,1,1,1.0000,-0.0000,1.44681,0.22143,-2.78049,0.98823,1.57080,0.00001,-0.14512,-0.38002,0.04345,,,,,,,,,,,,,,,,,,,,,,,,,,0,0,0,0,0
3.9784,1783185126.1110,1,1,1.0000,-0.0000,1.44681,0.22140,-2.78049,0.98826,1.57080,0.00001,-0.14512,-0.38002,0.04345,,,,,,,,,,,,,,,,,,,,,,,,,,0,0,0,0,0
3.9856,1783185126.1182,1,1,1.0000,-0.0000,1.44681,0.22138,-2.78050,0.98829,1.57080,0.00001,-0.14512,-0.38002,0.04344,,,,,,,,,,,,,,,,,,,,,,,,,,0,0,0,0,0
3.9860,1783185126.1186,1,1,1.0000,-0.0000,1.44681,0.22138,-2.78050,0.98829,1.57080,0.00001,-0.14512,-0.38002,0.04344,,,,,,,,,,,,,,,,,,,,,,,,,,0,0,0,0,0
3.9939,1783185126.1265,1,1,1.0000,-0.0000,1.44681,0.22132,-2.78051,0.98836,1.57080,0.00001,-0.14512,-0.38002,0.04343,,,,,,,,,,,,,,,,,,,,,,,,,,0,0,0,0,0
4.0037,1783185126.1363,1,1,1.0000,-0.0000,1.44681,0.22131,-2.78052,0.98837,1.57080,0.00001,-0.14512,-0.38002,0.04342,,,,,,,,,,,,,,,,,,,,,,,,,,0,0,0,0,0
4.0139,1783185126.1465,1,1,1.0000,-0.0000,1.44681,0.22128,-2.78052,0.98841,1.57080,0.00001,-0.14512,-0.38002,0.04342,,,,,,,,,,,,,,,,,,,,,,,,,,0,0,0,0,0
4.0145,1783185126.1471,1,1,1.0000,-0.0000,1.44681,0.22126,-2.78053,0.98844,1.57080,0.00001,-0.14512,-0.38002,0.04341,,,,,,,,,,,,,,,,,,,,,,,,,,0,0,0,0,0
4.0272,1783185126.1598,1,1,1.0000,-0.0000,1.44681,0.22123,-2.78054,0.98847,1.57080,0.00001,-0.14512,-0.38002,0.04340,,,,,,,,,,,,,,,,,,,,,,,,,,0,0,0,0,0
4.0345,1783185126.1671,1,1,1.0000,-0.0000,1.44681,0.22120,-2.78054,0.98851,1.57080,0.00001,-0.14512,-0.38002,0.04339,,,,,,,,,,,,,,,,,,,,,,,,,,0,0,0,0,0
4.0453,1783185126.1779,1,1,1.0000,-0.0000,1.44681,0.22115,-2.78056,0.98857,1.57080,0.00001,-0.14512,-0.38002,0.04338,,,,,,,,,,,,,,,,,,,,,,,,,,0,0,0,0,0
4.0545,1783185126.1871,1,1,1.0000,-0.0000,1.44681,0.22110,-2.78057,0.98864,1.57080,0.00001,-0.14512,-0.38002,0.04337,,,,,,,,,,,,,,,,,,,,,,,,,,0,0,0,0,0
4.0637,1783185126.1963,1,1,1.0000,-0.0000,1.44681,0.22109,-2.78057,0.98865,1.57080,0.00001,-0.14512,-0.38002,0.04336,,,,,,,,,,,,,,,,,,,,,,,,,,0,0,0,0,0
4.0736,1783185126.2062,1,1,1.0000,-0.0000,1.44681,0.22105,-2.78058,0.98869,1.57080,0.00001,-0.14512,-0.38002,0.04336,,,,,,,,,,,,,,,,,,,,,,,,,,0,0,0,0,0
4.0883,1783185126.2209,1,1,1.0000,-0.0000,1.44681,0.22101,-2.78059,0.98875,1.57080,0.00001,-0.14512,-0.38002,0.04334,,,,,,,,,,,,,,,,,,,,,,,,,,0,0,0,0,0
4.0961,1783185126.2287,1,1,1.0000,-0.0000,1.44681,0.22097,-2.78060,0.98879,1.57080,0.00001,-0.14512,-0.38002,0.04334,,,,,,,,,,,,,,,,,,,,,,,,,,0,0,0,0,0
4.1036,1783185126.2362,1,1,1.0000,-0.0000,1.44681,0.22092,-2.78061,0.98886,1.57080,0.00001,-0.14512,-0.38002,0.04332,,,,,,,,,,,,,,,,,,,,,,,,,,0,0,0,0,0
4.1039,1783185126.2365,1,1,1.0000,-0.0000,1.44681,0.22092,-2.78061,0.98886,1.57080,0.00001,-0.14512,-0.38002,0.04332,,,,,,,,,,,,,,,,,,,,,,,,,,0,0,0,0,0
4.1147,1783185126.2473,1,1,1.0000,-0.0000,1.44681,0.22087,-2.78063,0.98892,1.57080,0.00001,-0.14512,-0.38002,0.04331,,,,,,,,,,,,,,,,,,,,,,,,,,0,0,0,0,0
4.1290,1783185126.2616,1,1,1.0000,-0.0000,1.44681,0.22084,-2.78063,0.98897,1.57080,0.00001,-0.14512,-0.38002,0.04330,,,,,,,,,,,,,,,,,,,,,,,,,,0,0,0,0,0
4.1393,1783185126.2719,1,1,1.0000,-0.0000,1.44681,0.22076,-2.78065,0.98906,1.57080,0.00001,-0.14512,-0.38002,0.04328,,,,,,,,,,,,,,,,,,,,,,,,,,0,0,0,0,0
4.1443,1783185126.2769,1,1,1.0000,-0.0000,1.44681,0.22076,-2.78065,0.98906,1.57080,0.00001,-0.14512,-0.38002,0.04328,,,,,,,,,,,,,,,,,,,,,,,,,,0,0,0,0,0
4.1603,1783185126.2929,1,1,1.0000,-0.0000,1.44681,0.22070,-2.78067,0.98913,1.57080,0.00001,-0.14512,-0.38002,0.04327,,,,,,,,,,,,,,,,,,,,,,,,,,0,0,0,0,0
4.1638,1783185126.2964,1,1,1.0000,-0.0000,1.44681,0.22068,-2.78067,0.98916,1.57080,0.00001,-0.14512,-0.38002,0.04326,,,,,,,,,,,,,,,,,,,,,,,,,,0,0,0,0,0
4.1784,1783185126.3110,1,1,1.0000,-0.0000,1.44681,0.22062,-2.78069,0.98923,1.57080,0.00001,-0.14512,-0.38002,0.04325,,,,,,,,,,,,,,,,,,,,,,,,,,0,0,0,0,0
4.1787,1783185126.3113,1,1,1.0000,-0.0000,1.44681,0.22062,-2.78069,0.98923,1.57080,0.00001,-0.14512,-0.38002,0.04325,,,,,,,,,,,,,,,,,,,,,,,,,,0,0,0,0,0
4.1906,1783185126.3232,1,1,1.0000,-0.0000,1.44681,0.22057,-2.78070,0.98930,1.57080,0.00001,-0.14512,-0.38002,0.04323,,,,,,,,,,,,,,,,,,,,,,,,,,0,0,0,0,0
4.1971,1783185126.3297,1,1,1.0000,-0.0000,1.44681,0.22054,-2.78071,0.98933,1.57080,0.00001,-0.14512,-0.38002,0.04322,,,,,,,,,,,,,,,,,,,,,,,,,,0,0,0,0,0
4.1976,1783185126.3302,1,1,1.0000,-0.0000,1.44681,0.22054,-2.78071,0.98933,1.57080,0.00001,-0.14512,-0.38002,0.04322,,,,,,,,,,,,,,,,,,,,,,,,,,0,0,0,0,0
4.2082,1783185126.3408,1,1,1.0000,-0.0000,1.44681,0.22051,-2.78072,0.98937,1.57080,0.00001,-0.14512,-0.38002,0.04322,,,,,,,,,,,,,,,,,,,,,,,,,,0,0,0,0,0
4.2161,1783185126.3487,1,1,1.0000,-0.0000,1.44681,0.22048,-2.78072,0.98941,1.57080,0.00001,-0.14512,-0.38002,0.04321,,,,,,,,,,,,,,,,,,,,,,,,,,0,0,0,0,0
4.2260,1783185126.3586,1,1,1.0000,-0.0000,1.44681,0.22043,-2.78074,0.98947,1.57080,0.00001,-0.14512,-0.38002,0.04320,,,,,,,,,,,,,,,,,,,,,,,,,,0,0,0,0,0
4.2380,1783185126.3706,1,1,1.0000,-0.0000,1.44681,0.22038,-2.78075,0.98954,1.57080,0.00001,-0.14512,-0.38002,0.04318,,,,,,,,,,,,,,,,,,,,,,,,,,0,0,0,0,0
4.2450,1783185126.3776,1,1,1.0000,-0.0000,1.44681,0.22036,-2.78075,0.98956,1.57080,0.00001,-0.14512,-0.38002,0.04318,,,,,,,,,,,,,,,,,,,,,,,,,,0,0,0,0,0
4.2453,1783185126.3779,1,1,1.0000,-0.0000,1.44681,0.22036,-2.78075,0.98956,1.57080,0.00001,-0.14512,-0.38002,0.04318,,,,,,,,,,,,,,,,,,,,,,,,,,0,0,0,0,0
4.2560,1783185126.3886,1,1,1.0000,-0.0000,1.44681,0.22029,-2.78077,0.98964,1.57080,0.00001,-0.14512,-0.38002,0.04316,,,,,,,,,,,,,,,,,,,,,,,,,,0,0,0,0,0
4.2636,1783185126.3962,1,1,1.0000,-0.0000,1.44681,0.22027,-2.78078,0.98968,1.57080,0.00001,-0.14512,-0.38002,0.04315,,,,,,,,,,,,,,,,,,,,,,,,,,0,0,0,0,0
4.2639,1783185126.3965,1,1,1.0000,-0.0000,1.44681,0.22027,-2.78078,0.98968,1.57080,0.00001,-0.14512,-0.38002,0.04315,,,,,,,,,,,,,,,,,,,,,,,,,,0,0,0,0,0
4.2753,1783185126.4079,1,1,1.0000,-0.0000,1.44681,0.22023,-2.78078,0.98972,1.57080,0.00001,-0.14512,-0.38002,0.04315,,,,,,,,,,,,,,,,,,,,,,,,,,0,0,0,0,0
4.2756,1783185126.4082,1,1,1.0000,-0.0000,1.44681,0.22023,-2.78078,0.98972,1.57080,0.00001,-0.14512,-0.38002,0.04315,,,,,,,,,,,,,,,,,,,,,,,,,,0,0,0,0,0
4.2858,1783185126.4184,1,1,1.0000,-0.0000,1.44681,0.22018,-2.78080,0.98978,1.57080,0.00001,-0.14512,-0.38002,0.04313,,,,,,,,,,,,,,,,,,,,,,,,,,0,0,0,0,0
4.2864,1783185126.4190,1,1,1.0000,-0.0000,1.44681,0.22016,-2.78080,0.98981,1.57080,0.00001,-0.14512,-0.38002,0.04313,,,,,,,,,,,,,,,,,,,,,,,,,,0,0,0,0,0
4.2939,1783185126.4265,1,1,1.0000,-0.0000,1.44681,0.22013,-2.78081,0.98985,1.57080,0.00001,-0.14512,-0.38002,0.04312,,,,,,,,,,,,,,,,,,,,,,,,,,0,0,0,0,0
4.2946,1783185126.4272,1,1,1.0000,-0.0000,1.44681,0.22013,-2.78081,0.98985,1.57080,0.00001,-0.14512,-0.38002,0.04312,,,,,,,,,,,,,,,,,,,,,,,,,,0,0,0,0,0
4.3057,1783185126.4383,1,1,1.0000,-0.0000,1.44681,0.22011,-2.78081,0.98987,1.57080,0.00001,-0.14512,-0.38002,0.04312,,,,,,,,,,,,,,,,,,,,,,,,,,0,0,0,0,0
4.3064,1783185126.4390,1,1,1.0000,-0.0000,1.44681,0.22010,-2.78082,0.98989,1.57080,0.00001,-0.14512,-0.38002,0.04311,,,,,,,,,,,,,,,,,,,,,,,,,,0,0,0,0,0
4.3138,1783185126.4464,1,1,1.0000,-0.0000,1.44681,0.22007,-2.78082,0.98992,1.57080,0.00001,-0.14512,-0.38002,0.04310,,,,,,,,,,,,,,,,,,,,,,,,,,0,0,0,0,0
4.3146,1783185126.4472,1,1,1.0000,-0.0000,1.44681,0.22005,-2.78083,0.98995,1.57080,0.00001,-0.14512,-0.38002,0.04310,,,,,,,,,,,,,,,,,,,,,,,,,,0,0,0,0,0
4.3264,1783185126.4590,1,1,1.0000,-0.0000,1.44681,0.22002,-2.78084,0.98999,1.57080,0.00001,-0.14512,-0.38002,0.04309,,,,,,,,,,,,,,,,,,,,,,,,,,0,0,0,0,0
4.3354,1783185126.4680,1,1,1.0000,-0.0000,1.44681,0.21998,-2.78085,0.99003,1.57080,0.00001,-0.14512,-0.38002,0.04308,,,,,,,,,,,,,,,,,,,,,,,,,,0,0,0,0,0
4.3466,1783185126.4792,1,1,1.0000,-0.0000,1.44681,0.21991,-2.78086,0.99012,1.57080,0.00001,-0.14512,-0.38002,0.04306,,,,,,,,,,,,,,,,,,,,,,,,,,0,0,0,0,0
4.3585,1783185126.4911,1,1,1.0000,-0.0000,1.44681,0.21988,-2.78087,0.99016,1.57080,0.00001,-0.14512,-0.38002,0.04306,,,,,,,,,,,,,,,,,,,,,,,,,,0,0,0,0,0
4.3649,1783185126.4975,1,1,1.0000,-0.0000,1.44681,0.21987,-2.78088,0.99018,1.57080,0.00001,-0.14512,-0.38002,0.04305,,,,,,,,,,,,,,,,,,,,,,,,,,0,0,0,0,0
4.3654,1783185126.4980,1,1,1.0000,-0.0000,1.44681,0.21987,-2.78088,0.99018,1.57080,0.00001,-0.14512,-0.38002,0.04305,,,,,,,,,,,,,,,,,,,,,,,,,,0,0,0,0,0
4.3770,1783185126.5096,1,1,1.0000,-0.0000,1.44681,0.21980,-2.78089,0.99026,1.57080,0.00001,-0.14512,-0.38002,0.04303,,,,,,,,,,,,,,,,,,,,,,,,,,0,0,0,0,0
4.3774,1783185126.5100,1,1,1.0000,-0.0000,1.44681,0.21980,-2.78089,0.99026,1.57080,0.00001,-0.14512,-0.38002,0.04303,,,,,,,,,,,,,,,,,,,,,,,,,,0,0,0,0,0
4.3839,1783185126.5165,1,1,1.0000,-0.0000,1.44681,0.21975,-2.78090,0.99033,1.57080,0.00001,-0.14512,-0.38002,0.04302,,,,,,,,,,,,,,,,,,,,,,,,,,0,0,0,0,0
4.3957,1783185126.5283,1,1,1.0000,-0.0000,1.44681,0.21973,-2.78091,0.99034,1.57080,0.00001,-0.14512,-0.38002,0.04302,,,,,,,,,,,,,,,,,,,,,,,,,,0,0,0,0,0
4.4038,1783185126.5364,1,1,1.0000,-0.0000,1.44681,0.21970,-2.78092,0.99038,1.57080,0.00001,-0.14512,-0.38002,0.04301,,,,,,,,,,,,,,,,,,,,,,,,,,0,0,0,0,0
4.4147,1783185126.5473,1,1,1.0000,-0.0000,1.44681,0.21966,-2.78093,0.99043,1.57080,0.00001,-0.14512,-0.38002,0.04300,,,,,,,,,,,,,,,,,,,,,,,,,,0,0,0,0,0
4.4152,1783185126.5478,1,1,1.0000,-0.0000,1.44681,0.21966,-2.78093,0.99043,1.57080,0.00001,-0.14512,-0.38002,0.04300,,,,,,,,,,,,,,,,,,,,,,,,,,0,0,0,0,0
4.4286,1783185126.5612,1,1,1.0000,-0.0000,1.44681,0.21962,-2.78094,0.99048,1.57080,0.00001,-0.14512,-0.38002,0.04299,,,,,,,,,,,,,,,,,,,,,,,,,,0,0,0,0,0
4.4385,1783185126.5711,1,1,1.0000,-0.0000,1.44681,0.21955,-2.78095,0.99058,1.57080,0.00001,-0.14512,-0.38002,0.04297,,,,,,,,,,,,,,,,,,,,,,,,,,0,0,0,0,0
4.4444,1783185126.5770,1,1,1.0000,-0.0000,1.44681,0.21952,-2.78096,0.99061,1.57080,0.00001,-0.14512,-0.38002,0.04296,,,,,,,,,,,,,,,,,,,,,,,,,,0,0,0,0,0
4.4610,1783185126.5936,1,1,1.0000,-0.0000,1.44681,0.21949,-2.78097,0.99064,1.57080,0.00001,-0.14512,-0.38002,0.04296,,,,,,,,,,,,,,,,,,,,,,,,,,0,0,0,0,0
4.4649,1783185126.5975,1,1,1.0000,-0.0000,1.44681,0.21948,-2.78097,0.99066,1.57080,0.00001,-0.14512,-0.38002,0.04295,,,,,,,,,,,,,,,,,,,,,,,,,,0,0,0,0,0
4.4736,1783185126.6061,1,1,1.0000,-0.0000,1.44681,0.21943,-2.78098,0.99072,1.57080,0.00001,-0.14512,-0.38002,0.04294,,,,,,,,,,,,,,,,,,,,,,,,,,0,0,0,0,0
4.4739,1783185126.6065,1,1,1.0000,-0.0000,1.44681,0.21943,-2.78098,0.99072,1.57080,0.00001,-0.14512,-0.38002,0.04294,,,,,,,,,,,,,,,,,,,,,,,,,,0,0,0,0,0
4.4855,1783185126.6181,1,1,1.0000,-0.0000,1.44681,0.21942,-2.78099,0.99074,1.57080,0.00001,-0.14512,-0.38002,0.04294,,,,,,,,,,,,,,,,,,,,,,,,,,0,0,0,0,0
4.4992,1783185126.6318,1,1,1.0000,-0.0000,1.44681,0.21932,-2.78101,0.99086,1.57080,0.00001,-0.14512,-0.38002,0.04291,,,,,,,,,,,,,,,,,,,,,,,,,,0,0,0,0,0
4.4995,1783185126.6321,1,1,1.0000,-0.0000,1.44681,0.21932,-2.78101,0.99086,1.57080,0.00001,-0.14512,-0.38002,0.04291,,,,,,,,,,,,,,,,,,,,,,,,,,0,0,0,0,0
4.5066,1783185126.6392,1,1,1.0000,-0.0000,1.44681,0.21929,-2.78102,0.99089,1.57080,0.00001,-0.14512,-0.38002,0.04290,,,,,,,,,,,,,,,,,,,,,,,,,,0,0,0,0,0
4.5071,1783185126.6397,1,1,1.0000,-0.0000,1.44681,0.21929,-2.78102,0.99089,1.57080,0.00001,-0.14512,-0.38002,0.04290,,,,,,,,,,,,,,,,,,,,,,,,,,0,0,0,0,0
4.5138,1783185126.6464,1,1,1.0000,-0.0000,1.44681,0.21929,-2.78102,0.99090,1.57080,0.00001,-0.14512,-0.38002,0.04290,,,,,,,,,,,,,,,,,,,,,,,,,,0,0,0,0,0
4.5251,1783185126.6577,1,1,1.0000,-0.0000,1.44681,0.21925,-2.78103,0.99095,1.57080,0.00001,-0.14512,-0.38002,0.04289,,,,,,,,,,,,,,,,,,,,,,,,,,0,0,0,0,0
4.5256,1783185126.6581,1,1,1.0000,-0.0000,1.44681,0.21925,-2.78103,0.99095,1.57080,0.00001,-0.14512,-0.38002,0.04289,,,,,,,,,,,,,,,,,,,,,,,,,,0,0,0,0,0
4.5375,1783185126.6701,1,1,1.0000,-0.0000,1.44681,0.21921,-2.78104,0.99100,1.57080,0.00001,-0.14512,-0.38002,0.04288,,,,,,,,,,,,,,,,,,,,,,,,,,0,0,0,0,0
4.5536,1783185126.6862,1,1,1.0000,-0.0000,1.44681,0.21915,-2.78105,0.99108,1.57080,0.00001,-0.14512,-0.38002,0.04287,,,,,,,,,,,,,,,,,,,,,,,,,,0,0,0,0,0
4.5543,1783185126.6869,1,1,1.0000,-0.0000,1.44681,0.21912,-2.78106,0.99111,1.57080,0.00001,-0.14512,-0.38002,0.04286,,,,,,,,,,,,,,,,,,,,,,,,,,0,0,0,0,0
4.5546,1783185126.6872,1,1,1.0000,-0.0000,1.44681,0.21912,-2.78106,0.99111,1.57080,0.00001,-0.14512,-0.38002,0.04286,,,,,,,,,,,,,,,,,,,,,,,,,,0,0,0,0,0
4.5646,1783185126.6972,1,1,1.0000,-0.0000,1.44681,0.21907,-2.78107,0.99117,1.57080,0.00001,-0.14512,-0.38002,0.04285,,,,,,,,,,,,,,,,,,,,,,,,,,0,0,0,0,0
4.5734,1783185126.7060,1,1,1.0000,-0.0000,1.44681,0.21906,-2.78107,0.99118,1.57080,0.00001,-0.14512,-0.38002,0.04285,,,,,,,,,,,,,,,,,,,,,,,,,,0,0,0,0,0
4.5738,1783185126.7064,1,1,1.0000,-0.0000,1.44681,0.21906,-2.78107,0.99118,1.57080,0.00001,-0.14512,-0.38002,0.04285,,,,,,,,,,,,,,,,,,,,,,,,,,0,0,0,0,0
4.5847,1783185126.7173,1,1,1.0000,-0.0000,1.44681,0.21902,-2.78108,0.99123,1.57080,0.00001,-0.14512,-0.38002,0.04284,,,,,,,,,,,,,,,,,,,,,,,,,,0,0,0,0,0
4.5851,1783185126.7177,1,1,1.0000,-0.0000,1.44681,0.21902,-2.78108,0.99123,1.57080,0.00001,-0.14512,-0.38002,0.04284,,,,,,,,,,,,,,,,,,,,,,,,,,0,0,0,0,0
4.6013,1783185126.7339,1,1,1.0000,-0.0000,1.44681,0.21897,-2.78110,0.99129,1.57080,0.00001,-0.14512,-0.38002,0.04282,,,,,,,,,,,,,,,,,,,,,,,,,,0,0,0,0,0
4.6057,1783185126.7383,1,1,1.0000,-0.0000,1.44681,0.21896,-2.78110,0.99130,1.57080,0.00001,-0.14512,-0.38002,0.04282,,,,,,,,,,,,,,,,,,,,,,,,,,0,0,0,0,0
4.6060,1783185126.7386,1,1,1.0000,-0.0000,1.44681,0.21896,-2.78110,0.99130,1.57080,0.00001,-0.14512,-0.38002,0.04282,,,,,,,,,,,,,,,,,,,,,,,,,,0,0,0,0,0
4.6153,1783185126.7479,1,1,1.0000,-0.0000,1.44681,0.21889,-2.78112,0.99139,1.57080,0.00001,-0.14512,-0.38002,0.04280,,,,,,,,,,,,,,,,,,,,,,,,,,0,0,0,0,0
4.6157,1783185126.7483,1,1,1.0000,-0.0000,1.44681,0.21889,-2.78112,0.99139,1.57080,0.00001,-0.14512,-0.38002,0.04280,,,,,,,,,,,,,,,,,,,,,,,,,,0,0,0,0,0
4.6257,1783185126.7583,1,1,1.0000,-0.0000,1.44681,0.21884,-2.78113,0.99146,1.57080,0.00001,-0.14512,-0.38002,0.04279,,,,,,,,,,,,,,,,,,,,,,,,,,0,0,0,0,0
4.6379,1783185126.7705,1,1,1.0000,-0.0000,1.44681,0.21883,-2.78113,0.99147,1.57080,0.00001,-0.14512,-0.38002,0.04279,,,,,,,,,,,,,,,,,,,,,,,,,,0,0,0,0,0
4.6458,1783185126.7784,1,1,1.0000,-0.0000,1.44681,0.21880,-2.78114,0.99151,1.57080,0.00001,-0.14512,-0.38002,0.04278,,,,,,,,,,,,,,,,,,,,,,,,,,0,0,0,0,0
4.6577,1783185126.7903,1,1,1.0000,-0.0000,1.44681,0.21875,-2.78115,0.99157,1.57080,0.00001,-0.14512,-0.38002,0.04277,,,,,,,,,,,,,,,,,,,,,,,,,,0,0,0,0,0
4.6739,1783185126.8065,1,1,1.0000,-0.0000,1.44681,0.21869,-2.78117,0.99164,1.57080,0.00001,-0.14512,-0.38002,0.04275,,,,,,,,,,,,,,,,,,,,,,,,,,0,0,0,0,0
4.6791,1783185126.8117,1,1,1.0000,-0.0000,1.44681,0.21864,-2.78118,0.99171,1.57080,0.00001,-0.14512,-0.38002,0.04274,,,,,,,,,,,,,,,,,,,,,,,,,,0,0,0,0,0
4.6842,1783185126.8168,1,1,1.0000,-0.0000,1.44681,0.21861,-2.78119,0.99174,1.57080,0.00001,-0.14512,-0.38002,0.04273,,,,,,,,,,,,,,,,,,,,,,,,,,0,0,0,0,0
4.7044,1783185126.8370,1,1,1.0000,-0.0000,1.44681,0.21855,-2.78120,0.99181,1.57080,0.00001,-0.14512,-0.38002,0.04272,,,,,,,,,,,,,,,,,,,,,,,,,,0,0,0,0,0
4.7154,1783185126.8480,1,1,1.0000,-0.0000,1.44681,0.21850,-2.78121,0.99188,1.57080,0.00001,-0.14512,-0.38002,0.04270,,,,,,,,,,,,,,,,,,,,,,,,,,0,0,0,0,0
4.7157,1783185126.8483,1,1,1.0000,-0.0000,1.44681,0.21850,-2.78121,0.99188,1.57080,0.00001,-0.14512,-0.38002,0.04270,,,,,,,,,,,,,,,,,,,,,,,,,,0,0,0,0,0
4.7259,1783185126.8585,1,1,1.0000,-0.0000,1.44681,0.21848,-2.78122,0.99190,1.57080,0.00001,-0.14512,-0.38002,0.04270,,,,,,,,,,,,,,,,,,,,,,,,,,0,0,0,0,0
4.7466,1783185126.8792,1,1,1.0000,-0.0000,1.44681,0.21836,-2.78125,0.99205,1.57080,0.00001,-0.14512,-0.38002,0.04267,,,,,,,,,,,,,,,,,,,,,,,,,,0,0,0,0,0
4.7469,1783185126.8795,1,1,1.0000,-0.0000,1.44681,0.21836,-2.78125,0.99205,1.57080,0.00001,-0.14512,-0.38002,0.04267,,,,,,,,,,,,,,,,,,,,,,,,,,0,0,0,0,0
4.7500,1783185126.8825,1,1,1.0000,-0.0000,1.44681,0.21836,-2.78125,0.99205,1.57080,0.00001,-0.14512,-0.38002,0.04267,,,,,,,,,,,,,,,,,,,,,,,,,,0,0,0,0,0
4.7506,1783185126.8832,1,1,1.0000,-0.0000,1.44681,0.21836,-2.78125,0.99206,1.57080,0.00001,-0.14512,-0.38002,0.04267,,,,,,,,,,,,,,,,,,,,,,,,,,0,0,0,0,0
4.7579,1783185126.8905,1,1,1.0000,-0.0000,1.44681,0.21835,-2.78125,0.99207,1.57080,0.00001,-0.14512,-0.38002,0.04266,,,,,,,,,,,,,,,,,,,,,,,,,,0,0,0,0,0
4.7681,1783185126.9007,1,1,1.0000,-0.0000,1.44681,0.21828,-2.78127,0.99216,1.57080,0.00001,-0.14512,-0.38002,0.04265,,,,,,,,,,,,,,,,,,,,,,,,,,0,0,0,0,0
4.7766,1783185126.9092,1,1,1.0000,-0.0000,1.44681,0.21825,-2.78127,0.99219,1.57080,0.00001,-0.14512,-0.38002,0.04264,,,,,,,,,,,,,,,,,,,,,,,,,,0,0,0,0,0
4.7890,1783185126.9216,1,1,1.0000,-0.0000,1.44681,0.21822,-2.78128,0.99223,1.57080,0.00001,-0.14512,-0.38002,0.04263,,,,,,,,,,,,,,,,,,,,,,,,,,0,0,0,0,0
4.8286,1783185126.9612,1,1,1.0000,-0.0000,1.44681,0.21803,-2.78133,0.99246,1.57080,0.00001,-0.14512,-0.38002,0.04258,,,,,,,,,,,,,,,,,,,,,,,,,,0,0,0,0,0
4.8291,1783185126.9617,1,1,1.0000,-0.0000,1.44681,0.21803,-2.78133,0.99246,1.57080,0.00001,-0.14512,-0.38002,0.04258,,,,,,,,,,,,,,,,,,,,,,,,,,0,0,0,0,0
4.8296,1783185126.9622,1,1,1.0000,-0.0000,1.44681,0.21803,-2.78133,0.99246,1.57080,0.00001,-0.14512,-0.38002,0.04258,,,,,,,,,,,,,,,,,,,,,,,,,,0,0,0,0,0
4.8299,1783185126.9625,1,1,1.0000,-0.0000,1.44681,0.21803,-2.78133,0.99246,1.57080,0.00001,-0.14512,-0.38002,0.04258,,,,,,,,,,,,,,,,,,,,,,,,,,0,0,0,0,0
4.8383,1783185126.9708,1,1,1.0000,-0.0000,1.44681,0.21798,-2.78134,0.99253,1.57080,0.00001,-0.14512,-0.38002,0.04257,,,,,,,,,,,,,,,,,,,,,,,,,,0,0,0,0,0
4.8388,1783185126.9714,1,1,1.0000,-0.0000,1.44681,0.21798,-2.78134,0.99253,1.57080,0.00001,-0.14512,-0.38002,0.04257,,,,,,,,,,,,,,,,,,,,,,,,,,0,0,0,0,0
4.8515,1783185126.9841,1,1,1.0000,-0.0000,1.44681,0.21795,-2.78135,0.99256,1.57080,0.00001,-0.14512,-0.38002,0.04256,,,,,,,,,,,,,,,,,,,,,,,,,,0,0,0,0,0
4.8519,1783185126.9845,1,1,1.0000,-0.0000,1.44681,0.21795,-2.78135,0.99256,1.57080,0.00001,-0.14512,-0.38002,0.04256,,,,,,,,,,,,,,,,,,,,,,,,,,0,0,0,0,0
4.8557,1783185126.9883,1,1,1.0000,-0.0000,1.44681,0.21794,-2.78135,0.99258,1.57080,0.00001,-0.14512,-0.38002,0.04256,,,,,,,,,,,,,,,,,,,,,,,,,,0,0,0,0,0
4.8562,1783185126.9887,1,1,1.0000,-0.0000,1.44681,0.21794,-2.78135,0.99258,1.57080,0.00001,-0.14512,-0.38002,0.04256,,,,,,,,,,,,,,,,,,,,,,,,,,0,0,0,0,0
4.8642,1783185126.9968,1,1,1.0000,-0.0000,1.44681,0.21789,-2.78136,0.99264,1.57080,0.00001,-0.14512,-0.38002,0.04255,,,,,,,,,,,,,,,,,,,,,,,,,,0,0,0,0,0
4.8736,1783185127.0062,1,1,1.0000,-0.0000,1.44681,0.21789,-2.78137,0.99264,1.57080,0.00001,-0.14512,-0.38002,0.04254,,,,,,,,,,,,,,,,,,,,,,,,,,0,0,0,0,0
4.8874,1783185127.0200,1,1,1.0000,-0.0000,1.44681,0.21780,-2.78139,0.99275,1.57080,0.00001,-0.14512,-0.38002,0.04252,,,,,,,,,,,,,,,,,,,,,,,,,,0,0,0,0,0
4.8950,1783185127.0276,1,1,1.0000,-0.0000,1.44681,0.21775,-2.78140,0.99281,1.57080,0.00001,-0.14512,-0.38002,0.04251,,,,,,,,,,,,,,,,,,,,,,,,,,0,0,0,0,0
4.9063,1783185127.0389,1,1,1.0000,-0.0000,1.44681,0.21775,-2.78140,0.99282,1.57080,0.00001,-0.14512,-0.38002,0.04251,,,,,,,,,,,,,,,,,,,,,,,,,,0,0,0,0,0
4.9068,1783185127.0394,1,1,1.0000,-0.0000,1.44681,0.21774,-2.78140,0.99283,1.57080,0.00001,-0.14512,-0.38002,0.04251,,,,,,,,,,,,,,,,,,,,,,,,,,0,0,0,0,0
4.9164,1783185127.0490,1,1,1.0000,-0.0000,1.44681,0.21771,-2.78141,0.99287,1.57080,0.00001,-0.14512,-0.38002,0.04250,,,,,,,,,,,,,,,,,,,,,,,,,,0,0,0,0,0
4.9256,1783185127.0582,1,1,1.0000,-0.0000,1.44681,0.21766,-2.78142,0.99292,1.57080,0.00001,-0.14512,-0.38002,0.04249,,,,,,,,,,,,,,,,,,,,,,,,,,0,0,0,0,0
4.9405,1783185127.0731,1,1,1.0000,-0.0000,1.44681,0.21763,-2.78143,0.99297,1.57080,0.00001,-0.14512,-0.38002,0.04248,,,,,,,,,,,,,,,,,,,,,,,,,,0,0,0,0,0
4.9468,1783185127.0794,1,1,1.0000,-0.0000,1.44681,0.21758,-2.78144,0.99303,1.57080,0.00001,-0.14512,-0.38002,0.04247,,,,,,,,,,,,,,,,,,,,,,,,,,0,0,0,0,0
4.9472,1783185127.0798,1,1,1.0000,-0.0000,1.44681,0.21758,-2.78144,0.99303,1.57080,0.00001,-0.14512,-0.38002,0.04247,,,,,,,,,,,,,,,,,,,,,,,,,,0,0,0,0,0
4.9547,1783185127.0873,1,1,1.0000,-0.0000,1.44681,0.21752,-2.78145,0.99310,1.57080,0.00001,-0.14512,-0.38002,0.04245,,,,,,,,,,,,,,,,,,,,,,,,,,0,0,0,0,0
4.9640,1783185127.0966,1,1,1.0000,-0.0000,1.44681,0.21752,-2.78146,0.99310,1.57080,0.00001,-0.14512,-0.38002,0.04245,,,,,,,,,,,,,,,,,,,,,,,,,,0,0,0,0,0
4.9753,1783185127.1079,1,1,1.0000,-0.0000,1.44681,0.21748,-2.78147,0.99315,1.57080,0.00001,-0.14512,-0.38002,0.04244,,,,,,,,,,,,,,,,,,,,,,,,,,0,0,0,0,0
4.9843,1783185127.1168,1,1,1.0000,-0.0000,1.44681,0.21744,-2.78148,0.99321,1.57080,0.00001,-0.14512,-0.38002,0.04243,,,,,,,,,,,,,,,,,,,,,,,,,,0,0,0,0,0
4.9937,1783185127.1263,1,1,1.0000,-0.0000,1.44681,0.21743,-2.78148,0.99321,1.57080,0.00001,-0.14512,-0.38002,0.04243,,,,,,,,,,,,,,,,,,,,,,,,,,0,0,0,0,0
5.0092,1783185127.1418,1,1,1.0000,-0.0000,1.44681,0.21735,-2.78150,0.99331,1.57080,0.00001,-0.14512,-0.38002,0.04241,,,,,,,,,,,,,,,,,,,,,,,,,,0,0,0,0,0
5.0095,1783185127.1421,1,1,1.0000,-0.0000,1.44681,0.21735,-2.78150,0.99331,1.57080,0.00001,-0.14512,-0.38002,0.04241,,,,,,,,,,,,,,,,,,,,,,,,,,0,0,0,0,0
5.0149,1783185127.1474,1,1,1.0000,-0.0000,1.44681,0.21730,-2.78151,0.99338,1.57080,0.00001,-0.14512,-0.38002,0.04239,,,,,,,,,,,,,,,,,,,,,,,,,,0,0,0,0,0
5.0252,1783185127.1578,1,1,1.0000,-0.0000,1.44681,0.21729,-2.78151,0.99338,1.57080,0.00001,-0.14512,-0.38002,0.04239,,,,,,,,,,,,,,,,,,,,,,,,,,0,0,0,0,0
5.0390,1783185127.1716,1,1,1.0000,-0.0000,1.44681,0.21723,-2.78153,0.99346,1.57080,0.00001,-0.14512,-0.38002,0.04238,,,,,,,,,,,,,,,,,,,,,,,,,,0,0,0,0,0
5.0454,1783185127.1780,1,1,1.0000,-0.0000,1.44681,0.21721,-2.78153,0.99349,1.57080,0.00001,-0.14512,-0.38002,0.04237,,,,,,,,,,,,,,,,,,,,,,,,,,0,0,0,0,0
5.0589,1783185127.1915,1,1,1.0000,-0.0000,1.44681,0.21717,-2.78154,0.99353,1.57080,0.00001,-0.14512,-0.38002,0.04236,,,,,,,,,,,,,,,,,,,,,,,,,,0,0,0,0,0
5.0642,1783185127.1967,1,1,1.0000,-0.0000,1.44681,0.21715,-2.78155,0.99356,1.57080,0.00001,-0.14512,-0.38002,0.04236,,,,,,,,,,,,,,,,,,,,,,,,,,0,0,0,0,0
5.0817,1783185127.2143,1,1,1.0000,-0.0000,1.44681,0.21707,-2.78157,0.99366,1.57080,0.00001,-0.14512,-0.38002,0.04234,,,,,,,,,,,,,,,,,,,,,,,,,,0,0,0,0,0
5.0838,1783185127.2164,1,1,1.0000,-0.0000,1.44681,0.21707,-2.78157,0.99367,1.57080,0.00001,-0.14512,-0.38002,0.04233,,,,,,,,,,,,,,,,,,,,,,,,,,0,0,0,0,0
5.0937,1783185127.2263,1,1,1.0000,-0.0000,1.44681,0.21704,-2.78157,0.99370,1.57080,0.00001,-0.14512,-0.38002,0.04233,,,,,,,,,,,,,,,,,,,,,,,,,,0,0,0,0,0
5.1044,1783185127.2370,1,1,1.0000,-0.0000,1.44681,0.21698,-2.78159,0.99377,1.57080,0.00001,-0.14512,-0.38002,0.04231,,,,,,,,,,,,,,,,,,,,,,,,,,0,0,0,0,0
5.1142,1783185127.2468,1,1,1.0000,-0.0000,1.44681,0.21698,-2.78159,0.99378,1.57080,0.00001,-0.14512,-0.38002,0.04231,,,,,,,,,,,,,,,,,,,,,,,,,,0,0,0,0,0
5.1149,1783185127.2475,1,1,1.0000,-0.0000,1.44681,0.21696,-2.78159,0.99379,1.57080,0.00001,-0.14512,-0.38002,0.04231,,,,,,,,,,,,,,,,,,,,,,,,,,0,0,0,0,0
5.1274,1783185127.2600,1,1,1.0000,-0.0000,1.44681,0.21689,-2.78161,0.99388,1.57080,0.00001,-0.14512,-0.38002,0.04229,,,,,,,,,,,,,,,,,,,,,,,,,,0,0,0,0,0
5.1338,1783185127.2664,1,1,1.0000,-0.0000,1.44681,0.21687,-2.78162,0.99392,1.57080,0.00001,-0.14512,-0.38002,0.04228,,,,,,,,,,,,,,,,,,,,,,,,,,0,0,0,0,0
5.1342,1783185127.2668,1,1,1.0000,-0.0000,1.44681,0.21687,-2.78162,0.99392,1.57080,0.00001,-0.14512,-0.38002,0.04228,,,,,,,,,,,,,,,,,,,,,,,,,,0,0,0,0,0
5.1454,1783185127.2780,1,1,1.0000,-0.0000,1.44681,0.21684,-2.78162,0.99395,1.57080,0.00001,-0.14512,-0.38002,0.04228,,,,,,,,,,,,,,,,,,,,,,,,,,0,0,0,0,0
5.1547,1783185127.2873,1,1,1.0000,-0.0000,1.44681,0.21680,-2.78163,0.99400,1.57080,0.00001,-0.14512,-0.38002,0.04227,,,,,,,,,,,,,,,,,,,,,,,,,,0,0,0,0,0
5.1644,1783185127.2970,1,1,1.0000,-0.0000,1.44681,0.21675,-2.78164,0.99406,1.57080,0.00001,-0.14512,-0.38002,0.04226,,,,,,,,,,,,,,,,,,,,,,,,,,0,0,0,0,0
5.1777,1783185127.3103,1,1,1.0000,-0.0000,1.44681,0.21674,-2.78165,0.99408,1.57080,0.00001,-0.14512,-0.38002,0.04225,,,,,,,,,,,,,,,,,,,,,,,,,,0,0,0,0,0
5.1780,1783185127.3106,1,1,1.0000,-0.0000,1.44681,0.21674,-2.78165,0.99408,1.57080,0.00001,-0.14512,-0.38002,0.04225,,,,,,,,,,,,,,,,,,,,,,,,,,0,0,0,0,0
5.1857,1783185127.3183,1,1,1.0000,-0.0000,1.44681,0.21669,-2.78166,0.99413,1.57080,0.00001,-0.14512,-0.38002,0.04224,,,,,,,,,,,,,,,,,,,,,,,,,,0,0,0,0,0
5.1952,1783185127.3278,1,1,1.0000,-0.0000,1.44681,0.21661,-2.78168,0.99423,1.57080,0.00001,-0.14512,-0.38002,0.04222,,,,,,,,,,,,,,,,,,,,,,,,,,0,0,0,0,0
5.2167,1783185127.3493,1,1,1.0000,-0.0000,1.44681,0.21657,-2.78169,0.99429,1.57080,0.00001,-0.14512,-0.38002,0.04221,,,,,,,,,,,,,,,,,,,,,,,,,,0,0,0,0,0
5.2171,1783185127.3497,1,1,1.0000,-0.0000,1.44681,0.21657,-2.78169,0.99429,1.57080,0.00001,-0.14512,-0.38002,0.04221,,,,,,,,,,,,,,,,,,,,,,,,,,0,0,0,0,0
5.2236,1783185127.3561,1,1,1.0000,-0.0000,1.44681,0.21653,-2.78170,0.99434,1.57080,0.00001,-0.14512,-0.38002,0.04220,,,,,,,,,,,,,,,,,,,,,,,,,,0,0,0,0,0
5.2239,1783185127.3565,1,1,1.0000,-0.0000,1.44681,0.21653,-2.78170,0.99434,1.57080,0.00001,-0.14512,-0.38002,0.04220,,,,,,,,,,,,,,,,,,,,,,,,,,0,0,0,0,0
