Martins-Lucaas/twinforge/sensors/Data/20260704_141252__samples.csv
t_rel_s,t_unix,cycle,phase,setpoint_n,force_net_n,q1,q2,q3,q4,q5,q6,tcp_x,tcp_y,tcp_z,taxel_0,taxel_1,taxel_2,taxel_3,taxel_4,taxel_5,taxel_6,taxel_7,taxel_8,taxel_9,taxel_10,taxel_11,taxel_12,taxel_13,taxel_14,taxel_15,taxel_16,taxel_17,taxel_18,taxel_19,taxel_20,taxel_21,taxel_22,taxel_23,taxel_24,n_RA,n_SA,cn_mm,cn_ra,cn_sa
0.0037,1783185172.1633,1,0,1.0000,-0.0000,1.44682,0.23328,-2.77748,0.97337,1.57080,0.00000,-0.14512,-0.38003,0.04653,,,,,,,,,,,,,,,,,,,,,,,,,,0,0,0,0,0
0.0153,1783185172.1749,1,0,1.0000,-0.0000,1.44682,0.23328,-2.77748,0.97337,1.57080,-0.00000,-0.14512,-0.38003,0.04653,,,,,,,,,,,,,,,,,,,,,,,,,,0,0,0,0,0
0.0258,1783185172.1854,1,0,1.0000,-0.0000,1.44682,0.23328,-2.77748,0.97337,1.57080,0.00000,-0.14512,-0.38003,0.04653,,,,,,,,,,,,,,,,,,,,,,,,,,0,0,0,0,0
0.0388,1783185172.1983,1,0,1.0000,-0.0000,1.44682,0.23328,-2.77748,0.97337,1.57080,0.00000,-0.14512,-0.38003,0.04653,,,,,,,,,,,,,,,,,,,,,,,,,,0,0,0,0,0
0.0436,1783185172.2032,1,0,1.0000,-0.0000,1.44682,0.23328,-2.77748,0.97337,1.57080,0.00000,-0.14512,-0.38003,0.04653,,,,,,,,,,,,,,,,,,,,,,,,,,0,0,0,0,0
0.0439,1783185172.2035,1,0,1.0000,-0.0000,1.44682,0.23328,-2.77748,0.97337,1.57080,0.00000,-0.14512,-0.38003,0.04653,,,,,,,,,,,,,,,,,,,,,,,,,,0,0,0,0,0
0.0541,1783185172.2136,1,0,1.0000,-0.0000,1.44682,0.23328,-2.77748,0.97337,1.57080,0.00000,-0.14512,-0.38003,0.04653,,,,,,,,,,,,,,,,,,,,,,,,,,0,0,0,0,0
0.0647,1783185172.2242,1,0,1.0000,-0.0000,1.44682,0.23328,-2.77748,0.97337,1.57080,0.00000,-0.14512,-0.38003,0.04653,,,,,,,,,,,,,,,,,,,,,,,,,,0,0,0,0,0
0.0655,1783185172.2251,1,0,1.0000,-0.0000,1.44682,0.23328,-2.77748,0.97337,1.57080,0.00000,-0.14512,-0.38003,0.04653,,,,,,,,,,,,,,,,,,,,,,,,,,0,0,0,0,0
0.0818,1783185172.2413,1,0,1.0000,-0.0000,1.44682,0.23328,-2.77748,0.97337,1.57080,0.00000,-0.14512,-0.38003,0.04653,,,,,,,,,,,,,,,,,,,,,,,,,,0,0,0,0,0
0.0821,1783185172.2417,1,0,1.0000,-0.0000,1.44682,0.23328,-2.77748,0.97337,1.57080,0.00000,-0.14512,-0.38003,0.04653,,,,,,,,,,,,,,,,,,,,,,,,,,0,0,0,0,0
0.0859,1783185172.2455,1,0,1.0000,-0.0000,1.44682,0.23328,-2.77748,0.97337,1.57080,0.00000,-0.14512,-0.38003,0.04653,,,,,,,,,,,,,,,,,,,,,,,,,,0,0,0,0,0
0.0937,1783185172.2533,1,0,1.0000,-0.0000,1.44682,0.23328,-2.77748,0.97337,1.57080,0.00000,-0.14512,-0.38003,0.04653,,,,,,,,,,,,,,,,,,,,,,,,,,0,0,0,0,0
0.1048,1783185172.2643,1,0,1.0000,-0.0000,1.44682,0.23328,-2.77748,0.97337,1.57080,-0.00000,-0.14512,-0.38003,0.04653,,,,,,,,,,,,,,,,,,,,,,,,,,0,0,0,0,0
0.1154,1783185172.2749,1,0,1.0000,-0.0000,1.44682,0.23328,-2.77748,0.97337,1.57080,-0.00000,-0.14512,-0.38003,0.04653,,,,,,,,,,,,,,,,,,,,,,,,,,0,0,0,0,0
0.1236,1783185172.2832,1,0,1.0000,-0.0000,1.44682,0.23328,-2.77748,0.97337,1.57080,-0.00000,-0.14512,-0.38003,0.04653,,,,,,,,,,,,,,,,,,,,,,,,,,0,0,0,0,0
0.1344,1783185172.2940,1,0,1.0000,-0.0000,1.44682,0.23328,-2.77748,0.97337,1.57080,0.00000,-0.14512,-0.38003,0.04653,,,,,,,,,,,,,,,,,,,,,,,,,,0,0,0,0,0
0.1439,1783185172.3035,1,0,1.0000,-0.0000,1.44682,0.23328,-2.77748,0.97337,1.57080,0.00000,-0.14512,-0.38003,0.04653,,,,,,,,,,,,,,,,,,,,,,,,,,0,0,0,0,0
0.1444,1783185172.3040,1,0,1.0000,-0.0000,1.44682,0.23328,-2.77748,0.97337,1.57080,0.00000,-0.14512,-0.38003,0.04653,,,,,,,,,,,,,,,,,,,,,,,,,,0,0,0,0,0
0.1536,1783185172.3132,1,0,1.0000,-0.0000,1.44682,0.23328,-2.77748,0.97337,1.57080,0.00000,-0.14512,-0.38003,0.04653,,,,,,,,,,,,,,,,,,,,,,,,,,0,0,0,0,0
0.1674,1783185172.3270,1,0,1.0000,-0.0000,1.44682,0.23328,-2.77748,0.97337,1.57080,0.00000,-0.14512,-0.38003,0.04653,,,,,,,,,,,,,,,,,,,,,,,,,,0,0,0,0,0
0.1749,1783185172.3345,1,0,1.0000,-0.0000,1.44682,0.23328,-2.77748,0.97337,1.57080,0.00000,-0.14512,-0.38003,0.04653,,,,,,,,,,,,,,,,,,,,,,,,,,0,0,0,0,0
0.1871,1783185172.3467,1,0,1.0000,-0.0000,1.44682,0.23328,-2.77748,0.97337,1.57080,0.00000,-0.14512,-0.38003,0.04653,,,,,,,,,,,,,,,,,,,,,,,,,,0,0,0,0,0
0.1980,1783185172.3576,1,0,1.0000,-0.0000,1.44682,0.23328,-2.77748,0.97337,1.57080,0.00000,-0.14512,-0.38003,0.04653,,,,,,,,,,,,,,,,,,,,,,,,,,0,0,0,0,0
0.1987,1783185172.3583,1,0,1.0000,-0.0000,1.44682,0.23328,-2.77748,0.97337,1.57080,0.00000,-0.14512,-0.38003,0.04653,,,,,,,,,,,,,,,,,,,,,,,,,,0,0,0,0,0
0.2071,1783185172.3666,1,0,1.0000,-0.0000,1.44682,0.23328,-2.77748,0.97337,1.57080,0.00000,-0.14512,-0.38003,0.04653,,,,,,,,,,,,,,,,,,,,,,,,,,0,0,0,0,0
0.2140,1783185172.3736,1,0,1.0000,-0.0000,1.44682,0.23328,-2.77748,0.97337,1.57080,0.00000,-0.14512,-0.38003,0.04653,,,,,,,,,,,,,,,,,,,,,,,,,,0,0,0,0,0
0.2243,1783185172.3839,1,0,1.0000,-0.0000,1.44682,0.23328,-2.77748,0.97337,1.57080,0.00000,-0.14512,-0.38003,0.04653,,,,,,,,,,,,,,,,,,,,,,,,,,0,0,0,0,0
0.2338,1783185172.3934,1,0,1.0000,-0.0000,1.44682,0.23328,-2.77748,0.97337,1.57080,0.00000,-0.14512,-0.38003,0.04653,,,,,,,,,,,,,,,,,,,,,,,,,,0,0,0,0,0
0.2450,1783185172.4046,1,0,1.0000,-0.0000,1.44682,0.23328,-2.77748,0.97337,1.57080,0.00000,-0.14512,-0.38003,0.04653,,,,,,,,,,,,,,,,,,,,,,,,,,0,0,0,0,0
0.2458,1783185172.4053,1,0,1.0000,-0.0000,1.44682,0.23328,-2.77748,0.97337,1.57080,0.00000,-0.14512,-0.38003,0.04653,,,,,,,,,,,,,,,,,,,,,,,,,,0,0,0,0,0
0.2542,1783185172.4138,1,0,1.0000,-0.0000,1.44682,0.23328,-2.77748,0.97337,1.57080,0.00000,-0.14512,-0.38003,0.04653,,,,,,,,,,,,,,,,,,,,,,,,,,0,0,0,0,0
0.2635,1783185172.4231,1,0,1.0000,-0.0000,1.44682,0.23328,-2.77748,0.97337,1.57080,0.00000,-0.14512,-0.38003,0.04653,,,,,,,,,,,,,,,,,,,,,,,,,,0,0,0,0,0
0.2638,1783185172.4234,1,0,1.0000,-0.0000,1.44682,0.23328,-2.77748,0.97337,1.57080,0.00000,-0.14512,-0.38003,0.04653,,,,,,,,,,,,,,,,,,,,,,,,,,0,0,0,0,0
0.2783,1783185172.4379,1,0,1.0000,-0.0000,1.44682,0.23328,-2.77748,0.97337,1.57080,0.00000,-0.14512,-0.38003,0.04653,,,,,,,,,,,,,,,,,,,,,,,,,,0,0,0,0,0
0.2856,1783185172.4452,1,0,1.0000,-0.0000,1.44682,0.23328,-2.77748,0.97337,1.57080,0.00000,-0.14512,-0.38003,0.04653,,,,,,,,,,,,,,,,,,,,,,,,,,0,0,0,0,0
0.2860,1783185172.4456,1,0,1.0000,-0.0000,1.44682,0.23328,-2.77748,0.97337,1.57080,0.00000,-0.14512,-0.38003,0.04653,,,,,,,,,,,,,,,,,,,,,,,,,,0,0,0,0,0
0.2947,1783185172.4543,1,0,1.0000,-0.0000,1.44682,0.23328,-2.77748,0.97337,1.57080,0.00000,-0.14512,-0.38003,0.04653,,,,,,,,,,,,,,,,,,,,,,,,,,0,0,0,0,0
0.3075,1783185172.4671,1,0,1.0000,-0.0000,1.44682,0.23328,-2.77748,0.97337,1.57080,0.00000,-0.14512,-0.38003,0.04653,,,,,,,,,,,,,,,,,,,,,,,,,,0,0,0,0,0
0.3078,1783185172.4674,1,0,1.0000,-0.0000,1.44682,0.23328,-2.77748,0.97337,1.57080,0.00000,-0.14512,-0.38003,0.04653,,,,,,,,,,,,,,,,,,,,,,,,,,0,0,0,0,0
0.3178,1783185172.4774,1,0,1.0000,-0.0000,1.44682,0.23328,-2.77748,0.97337,1.57080,0.00000,-0.14512,-0.38003,0.04653,,,,,,,,,,,,,,,,,,,,,,,,,,0,0,0,0,0
0.3236,1783185172.4832,1,0,1.0000,-0.0000,1.44682,0.23328,-2.77748,0.97337,1.57080,0.00000,-0.14512,-0.38003,0.04653,,,,,,,,,,,,,,,,,,,,,,,,,,0,0,0,0,0
0.3342,1783185172.4938,1,0,1.0000,-0.0000,1.44682,0.23328,-2.77748,0.97337,1.57080,0.00000,-0.14512,-0.38003,0.04653,,,,,,,,,,,,,,,,,,,,,,,,,,0,0,0,0,0
0.3347,1783185172.4943,1,0,1.0000,-0.0000,1.44682,0.23328,-2.77748,0.97337,1.57080,0.00000,-0.14512,-0.38003,0.04653,,,,,,,,,,,,,,,,,,,,,,,,,,0,0,0,0,0
0.3562,1783185172.5158,1,0,1.0000,-0.0000,1.44682,0.23328,-2.77748,0.97337,1.57080,0.00000,-0.14512,-0.38003,0.04653,,,,,,,,,,,,,,,,,,,,,,,,,,0,0,0,0,0
0.3567,1783185172.5163,1,0,1.0000,-0.0000,1.44682,0.23328,-2.77748,0.97337,1.57080,0.00000,-0.14512,-0.38003,0.04653,,,,,,,,,,,,,,,,,,,,,,,,,,0,0,0,0,0
0.3642,1783185172.5238,1,0,1.0000,-0.0000,1.44682,0.23328,-2.77748,0.97337,1.57080,0.00000,-0.14512,-0.38003,0.04653,,,,,,,,,,,,,,,,,,,,,,,,,,0,0,0,0,0
0.3645,1783185172.5241,1,0,1.0000,-0.0000,1.44682,0.23328,-2.77748,0.97337,1.57080,0.00000,-0.14512,-0.38003,0.04653,,,,,,,,,,,,,,,,,,,,,,,,,,0,0,0,0,0
0.3818,1783185172.5414,1,0,1.0000,-0.0000,1.44682,0.23328,-2.77748,0.97337,1.57080,0.00000,-0.14512,-0.38003,0.04653,,,,,,,,,,,,,,,,,,,,,,,,,,0,0,0,0,0
0.3895,1783185172.5491,1,0,1.0000,-0.0000,1.44682,0.23328,-2.77748,0.97337,1.57080,0.00000,-0.14512,-0.38003,0.04653,,,,,,,,,,,,,,,,,,,,,,,,,,0,0,0,0,0
0.3944,1783185172.5540,1,0,1.0000,-0.0000,1.44682,0.23328,-2.77748,0.97337,1.57080,0.00000,-0.14512,-0.38003,0.04653,,,,,,,,,,,,,,,,,,,,,,,,,,0,0,0,0,0
0.4072,1783185172.5668,1,0,1.0000,-0.0000,1.44682,0.23328,-2.77748,0.97337,1.57080,0.00000,-0.14512,-0.38003,0.04653,,,,,,,,,,,,,,,,,,,,,,,,,,0,0,0,0,0
0.4147,1783185172.5743,1,0,1.0000,-0.0000,1.44682,0.23328,-2.77748,0.97337,1.57080,0.00000,-0.14512,-0.38003,0.04653,,,,,,,,,,,,,,,,,,,,,,,,,,0,0,0,0,0
0.4243,1783185172.5839,1,0,1.0000,-0.0000,1.44682,0.23328,-2.77748,0.97337,1.57080,0.00000,-0.14512,-0.38003,0.04653,,,,,,,,,,,,,,,,,,,,,,,,,,0,0,0,0,0
0.4355,1783185172.5950,1,0,1.0000,-0.0000,1.44682,0.23328,-2.77748,0.97337,1.57080,0.00000,-0.14512,-0.38003,0.04653,,,,,,,,,,,,,,,,,,,,,,,,,,0,0,0,0,0
0.4512,1783185172.6108,1,0,1.0000,-0.0000,1.44682,0.23328,-2.77748,0.97337,1.57080,0.00000,-0.14512,-0.38003,0.04653,,,,,,,,,,,,,,,,,,,,,,,,,,0,0,0,0,0
0.4516,1783185172.6112,1,0,1.0000,-0.0000,1.44682,0.23328,-2.77748,0.97337,1.57080,0.00000,-0.14512,-0.38003,0.04653,,,,,,,,,,,,,,,,,,,,,,,,,,0,0,0,0,0
0.4554,1783185172.6149,1,0,1.0000,-0.0000,1.44682,0.23328,-2.77748,0.97337,1.57080,0.00000,-0.14512,-0.38003,0.04653,,,,,,,,,,,,,,,,,,,,,,,,,,0,0,0,0,0
0.4643,1783185172.6239,1,0,1.0000,-0.0000,1.44682,0.23328,-2.77748,0.97337,1.57080,0.00000,-0.14512,-0.38003,0.04653,,,,,,,,,,,,,,,,,,,,,,,,,,0,0,0,0,0
0.4748,1783185172.6344,1,0,1.0000,-0.0000,1.44682,0.23328,-2.77748,0.97337,1.57080,0.00000,-0.14512,-0.38003,0.04653,,,,,,,,,,,,,,,,,,,,,,,,,,0,0,0,0,0
0.4752,1783185172.6347,1,0,1.0000,-0.0000,1.44682,0.23328,-2.77748,0.97337,1.57080,0.00000,-0.14512,-0.38003,0.04653,,,,,,,,,,,,,,,,,,,,,,,,,,0,0,0,0,0
0.4884,1783185172.6480,1,0,1.0000,-0.0000,1.44682,0.23328,-2.77748,0.97337,1.57080,0.00000,-0.14512,-0.38003,0.04653,,,,,,,,,,,,,,,,,,,,,,,,,,0,0,0,0,0
0.4981,1783185172.6577,1,0,1.0000,-0.0000,1.44682,0.23328,-2.77748,0.97337,1.57080,0.00000,-0.14512,-0.38003,0.04653,,,,,,,,,,,,,,,,,,,,,,,,,,0,0,0,0,0
0.5080,1783185172.6676,1,0,1.0000,-0.0000,1.44682,0.23328,-2.77748,0.97337,1.57080,0.00000,-0.14512,-0.38003,0.04653,,,,,,,,,,,,,,,,,,,,,,,,,,0,0,0,0,0
0.5147,1783185172.6743,1,0,1.0000,-0.0000,1.44682,0.23328,-2.77748,0.97337,1.57080,0.00000,-0.14512,-0.38003,0.04653,,,,,,,,,,,,,,,,,,,,,,,,,,0,0,0,0,0
0.5261,1783185172.6857,1,0,1.0000,-0.0000,1.44682,0.23328,-2.77748,0.97337,1.57080,0.00000,-0.14512,-0.38003,0.04653,,,,,,,,,,,,,,,,,,,,,,,,,,0,0,0,0,0
0.5354,1783185172.6949,1,0,1.0000,-0.0000,1.44682,0.23328,-2.77748,0.97337,1.57080,0.00000,-0.14512,-0.38003,0.04653,,,,,,,,,,,,,,,,,,,,,,,,,,0,0,0,0,0
0.5434,1783185172.7030,1,0,1.0000,-0.0000,1.44682,0.23328,-2.77748,0.97337,1.57080,0.00000,-0.14512,-0.38003,0.04653,,,,,,,,,,,,,,,,,,,,,,,,,,0,0,0,0,0
0.5535,1783185172.7131,1,0,1.0000,-0.0000,1.44682,0.23328,-2.77748,0.97337,1.57080,0.00000,-0.14512,-0.38003,0.04653,,,,,,,,,,,,,,,,,,,,,,,,,,0,0,0,0,0
0.5540,1783185172.7136,1,0,1.0000,-0.0000,1.44682,0.23328,-2.77748,0.97337,1.57080,0.00000,-0.14512,-0.38003,0.04653,,,,,,,,,,,,,,,,,,,,,,,,,,0,0,0,0,0
0.5636,1783185172.7232,1,0,1.0000,-0.0000,1.44682,0.23328,-2.77748,0.97337,1.57080,0.00000,-0.14512,-0.38003,0.04653,,,,,,,,,,,,,,,,,,,,,,,,,,0,0,0,0,0
0.5640,1783185172.7235,1,0,1.0000,-0.0000,1.44682,0.23328,-2.77748,0.97337,1.57080,0.00000,-0.14512,-0.38003,0.04653,,,,,,,,,,,,,,,,,,,,,,,,,,0,0,0,0,0
0.5744,1783185172.7340,1,0,1.0000,-0.0000,1.44682,0.23328,-2.77748,0.97337,1.57080,0.00000,-0.14512,-0.38003,0.04653,,,,,,,,,,,,,,,,,,,,,,,,,,0,0,0,0,0
0.5845,1783185172.7441,1,0,1.0000,-0.0000,1.44682,0.23328,-2.77748,0.97337,1.57080,-0.00000,-0.14512,-0.38003,0.04653,,,,,,,,,,,,,,,,,,,,,,,,,,0,0,0,0,0
0.5951,1783185172.7546,1,0,1.0000,-0.0000,1.44682,0.23328,-2.77748,0.97337,1.57080,-0.00000,-0.14512,-0.38003,0.04653,,,,,,,,,,,,,,,,,,,,,,,,,,0,0,0,0,0
0.5955,1783185172.7551,1,0,1.0000,-0.0000,1.44682,0.23328,-2.77748,0.97337,1.57080,-0.00000,-0.14512,-0.38003,0.04653,,,,,,,,,,,,,,,,,,,,,,,,,,0,0,0,0,0
0.6032,1783185172.7627,1,0,1.0000,-0.0000,1.44682,0.23328,-2.77748,0.97337,1.57080,-0.00000,-0.14512,-0.38003,0.04653,,,,,,,,,,,,,,,,,,,,,,,,,,0,0,0,0,0
0.6036,1783185172.7631,1,0,1.0000,-0.0000,1.44682,0.23328,-2.77748,0.97337,1.57080,-0.00000,-0.14512,-0.38003,0.04653,,,,,,,,,,,,,,,,,,,,,,,,,,0,0,0,0,0
0.6169,1783185172.7765,1,0,1.0000,-0.0000,1.44682,0.23328,-2.77748,0.97337,1.57080,-0.00000,-0.14512,-0.38003,0.04653,,,,,,,,,,,,,,,,,,,,,,,,,,0,0,0,0,0
0.6232,1783185172.7828,1,0,1.0000,-0.0000,1.44682,0.23328,-2.77748,0.97337,1.57080,-0.00000,-0.14512,-0.38003,0.04653,,,,,,,,,,,,,,,,,,,,,,,,,,0,0,0,0,0
0.6236,1783185172.7832,1,0,1.0000,-0.0000,1.44682,0.23328,-2.77748,0.97337,1.57080,-0.00000,-0.14512,-0.38003,0.04653,,,,,,,,,,,,,,,,,,,,,,,,,,0,0,0,0,0
0.6382,1783185172.7978,1,0,1.0000,-0.0000,1.44682,0.23328,-2.77748,0.97337,1.57080,-0.00000,-0.14512,-0.38003,0.04653,,,,,,,,,,,,,,,,,,,,,,,,,,0,0,0,0,0
0.6385,1783185172.7980,1,0,1.0000,-0.0000,1.44682,0.23328,-2.77748,0.97337,1.57080,-0.00000,-0.14512,-0.38003,0.04653,,,,,,,,,,,,,,,,,,,,,,,,,,0,0,0,0,0
0.6457,1783185172.8053,1,0,1.0000,-0.0000,1.44682,0.23328,-2.77748,0.97337,1.57080,-0.00000,-0.14512,-0.38003,0.04653,,,,,,,,,,,,,,,,,,,,,,,,,,0,0,0,0,0
0.6535,1783185172.8130,1,0,1.0000,-0.0000,1.44682,0.23328,-2.77748,0.97337,1.57080,0.00000,-0.14512,-0.38003,0.04653,,,,,,,,,,,,,,,,,,,,,,,,,,0,0,0,0,0
0.6538,1783185172.8134,1,0,1.0000,-0.0000,1.44682,0.23328,-2.77748,0.97337,1.57080,0.00000,-0.14512,-0.38003,0.04653,,,,,,,,,,,,,,,,,,,,,,,,,,0,0,0,0,0
0.6642,1783185172.8237,1,0,1.0000,-0.0000,1.44682,0.23328,-2.77748,0.97337,1.57080,-0.00000,-0.14512,-0.38003,0.04653,,,,,,,,,,,,,,,,,,,,,,,,,,0,0,0,0,0
0.6741,1783185172.8336,1,0,1.0000,-0.0000,1.44682,0.23328,-2.77748,0.97337,1.57080,-0.00000,-0.14512,-0.38003,0.04653,,,,,,,,,,,,,,,,,,,,,,,,,,0,0,0,0,0
0.6869,1783185172.8465,1,0,1.0000,-0.0000,1.44682,0.23328,-2.77748,0.97337,1.57080,-0.00000,-0.14512,-0.38003,0.04653,,,,,,,,,,,,,,,,,,,,,,,,,,0,0,0,0,0
0.6957,1783185172.8553,1,0,1.0000,-0.0000,1.44682,0.23328,-2.77748,0.97337,1.57080,-0.00000,-0.14512,-0.38003,0.04653,,,,,,,,,,,,,,,,,,,,,,,,,,0,0,0,0,0
0.7038,1783185172.8634,1,0,1.0000,-0.0000,1.44682,0.23328,-2.77748,0.97337,1.57080,-0.00000,-0.14512,-0.38003,0.04653,,,,,,,,,,,,,,,,,,,,,,,,,,0,0,0,0,0
0.7042,1783185172.8638,1,0,1.0000,-0.0000,1.44682,0.23328,-2.77748,0.97337,1.57080,-0.00000,-0.14512,-0.38003,0.04653,,,,,,,,,,,,,,,,,,,,,,,,,,0,0,0,0,0
0.7193,1783185172.8789,1,0,1.0000,-0.0000,1.44682,0.23328,-2.77748,0.97337,1.57080,-0.00000,-0.14512,-0.38003,0.04653,,,,,,,,,,,,,,,,,,,,,,,,,,0,0,0,0,0
0.7255,1783185172.8851,1,0,1.0000,-0.0000,1.44682,0.23328,-2.77748,0.97337,1.57080,-0.00000,-0.14512,-0.38003,0.04653,,,,,,,,,,,,,,,,,,,,,,,,,,0,0,0,0,0
0.7337,1783185172.8932,1,1,1.0000,-0.0000,1.44682,0.23328,-2.77748,0.97337,1.57080,-0.00000,-0.14512,-0.38003,0.04653,,,,,,,,,,,,,,,,,,,,,,,,,,0,0,0,0,0
0.7432,1783185172.9028,1,1,1.0000,-0.0000,1.44682,0.23328,-2.77748,0.97337,1.57080,-0.00000,-0.14512,-0.38003,0.04653,,,,,,,,,,,,,,,,,,,,,,,,,,0,0,0,0,0
0.7435,1783185172.9031,1,1,1.0000,-0.0000,1.44682,0.23328,-2.77748,0.97337,1.57080,-0.00000,-0.14512,-0.38003,0.04653,,,,,,,,,,,,,,,,,,,,,,,,,,0,0,0,0,0
0.7563,1783185172.9159,1,1,1.0000,-0.0000,1.44682,0.23328,-2.77748,0.97337,1.57080,-0.00000,-0.14512,-0.38003,0.04653,,,,,,,,,,,,,,,,,,,,,,,,,,0,0,0,0,0
0.7682,1783185172.9278,1,1,1.0000,-0.0000,1.44682,0.23328,-2.77748,0.97337,1.57080,0.00000,-0.14512,-0.38003,0.04653,,,,,,,,,,,,,,,,,,,,,,,,,,0,0,0,0,0
0.7746,1783185172.9342,1,1,1.0000,-0.0000,1.44682,0.23328,-2.77748,0.97337,1.57080,0.00000,-0.14512,-0.38003,0.04653,,,,,,,,,,,,,,,,,,,,,,,,,,0,0,0,0,0
0.7898,1783185172.9494,1,1,1.0000,-0.0000,1.44682,0.23328,-2.77748,0.97337,1.57080,0.00000,-0.14512,-0.38003,0.04653,,,,,,,,,,,,,,,,,,,,,,,,,,0,0,0,0,0
0.7959,1783185172.9555,1,1,1.0000,-0.0000,1.44682,0.23328,-2.77748,0.97337,1.57080,0.00000,-0.14512,-0.38003,0.04653,,,,,,,,,,,,,,,,,,,,,,,,,,0,0,0,0,0
0.7962,1783185172.9558,1,1,1.0000,-0.0000,1.44682,0.23328,-2.77748,0.97337,1.57080,0.00000,-0.14512,-0.38003,0.04653,,,,,,,,,,,,,,,,,,,,,,,,,,0,0,0,0,0
0.8112,1783185172.9707,1,1,1.0000,-0.0000,1.44682,0.23328,-2.77748,0.97337,1.57080,0.00000,-0.14512,-0.38003,0.04653,,,,,,,,,,,,,,,,,,,,,,,,,,0,0,0,0,0
0.8115,1783185172.9711,1,1,1.0000,-0.0000,1.44682,0.23328,-2.77748,0.97337,1.57080,0.00000,-0.14512,-0.38003,0.04653,,,,,,,,,,,,,,,,,,,,,,,,,,0,0,0,0,0
0.8161,1783185172.9757,1,1,1.0000,-0.0000,1.44682,0.23328,-2.77748,0.97337,1.57080,0.00000,-0.14512,-0.38003,0.04653,,,,,,,,,,,,,,,,,,,,,,,,,,0,0,0,0,0
0.8164,1783185172.9760,1,1,1.0000,-0.0000,1.44682,0.23328,-2.77748,0.97337,1.57080,0.00000,-0.14512,-0.38003,0.04653,,,,,,,,,,,,,,,,,,,,,,,,,,0,0,0,0,0
0.8255,1783185172.9851,1,1,1.0000,-0.0000,1.44682,0.23328,-2.77748,0.97337,1.57080,0.00000,-0.14512,-0.38003,0.04653,,,,,,,,,,,,,,,,,,,,,,,,,,0,0,0,0,0
0.8346,1783185172.9942,1,1,1.0000,-0.0000,1.44682,0.23328,-2.77748,0.97337,1.57080,0.00000,-0.14512,-0.38003,0.04653,,,,,,,,,,,,,,,,,,,,,,,,,,0,0,0,0,0
0.8350,1783185172.9946,1,1,1.0000,-0.0000,1.44682,0.23328,-2.77748,0.97337,1.57080,0.00000,-0.14512,-0.38003,0.04653,,,,,,,,,,,,,,,,,,,,,,,,,,0,0,0,0,0
0.8468,1783185173.0063,1,1,1.0000,-0.0000,1.44682,0.23328,-2.77748,0.97337,1.57080,0.00000,-0.14512,-0.38003,0.04653,,,,,,,,,,,,,,,,,,,,,,,,,,0,0,0,0,0
0.8597,1783185173.0192,1,1,1.0000,-0.0000,1.44682,0.23328,-2.77748,0.97337,1.57080,0.00000,-0.14512,-0.38003,0.04653,,,,,,,,,,,,,,,,,,,,,,,,,,0,0,0,0,0
0.8636,1783185173.0232,1,1,1.0000,-0.0000,1.44682,0.23328,-2.77748,0.97337,1.57080,0.00000,-0.14512,-0.38003,0.04653,,,,,,,,,,,,,,,,,,,,,,,,,,0,0,0,0,0
0.8641,1783185173.0236,1,1,1.0000,-0.0000,1.44682,0.23328,-2.77748,0.97337,1.57080,0.00000,-0.14512,-0.38003,0.04653,,,,,,,,,,,,,,,,,,,,,,,,,,0,0,0,0,0
0.8768,1783185173.0364,1,1,1.0000,-0.0000,1.44682,0.23328,-2.77748,0.97337,1.57080,0.00000,-0.14512,-0.38003,0.04653,,,,,,,,,,,,,,,,,,,,,,,,,,0,0,0,0,0
0.8917,1783185173.0512,1,1,1.0000,-0.0000,1.44682,0.23328,-2.77748,0.97337,1.57080,0.00000,-0.14512,-0.38003,0.04653,,,,,,,,,,,,,,,,,,,,,,,,,,0,0,0,0,0
0.8978,1783185173.0573,1,1,1.0000,-0.0000,1.44682,0.23328,-2.77748,0.97337,1.57080,0.00000,-0.14512,-0.38003,0.04653,,,,,,,,,,,,,,,,,,,,,,,,,,0,0,0,0,0
0.8981,1783185173.0577,1,1,1.0000,-0.0000,1.44682,0.23328,-2.77748,0.97337,1.57080,0.00000,-0.14512,-0.38003,0.04653,,,,,,,,,,,,,,,,,,,,,,,,,,0,0,0,0,0
0.9075,1783185173.0670,1,1,1.0000,-0.0000,1.44682,0.23328,-2.77748,0.97337,1.57080,0.00000,-0.14512,-0.38003,0.04653,,,,,,,,,,,,,,,,,,,,,,,,,,0,0,0,0,0
0.9139,1783185173.0735,1,1,1.0000,-0.0000,1.44682,0.23328,-2.77748,0.97337,1.57080,0.00000,-0.14512,-0.38003,0.04653,,,,,,,,,,,,,,,,,,,,,,,,,,0,0,0,0,0
0.9239,1783185173.0835,1,1,1.0000,-0.0000,1.44682,0.23327,-2.77748,0.97338,1.57080,0.00000,-0.14512,-0.38003,0.04652,,,,,,,,,,,,,,,,,,,,,,,,,,0,0,0,0,0
0.9340,1783185173.0936,1,1,1.0000,-0.0000,1.44682,0.23313,-2.77751,0.97355,1.57080,0.00000,-0.14512,-0.38003,0.04649,,,,,,,,,,,,,,,,,,,,,,,,,,0,0,0,0,0
0.9432,1783185173.1028,1,1,1.0000,-0.0000,1.44682,0.23301,-2.77754,0.97370,1.57080,0.00000,-0.14512,-0.38003,0.04646,,,,,,,,,,,,,,,,,,,,,,,,,,0,0,0,0,0
0.9436,1783185173.1031,1,1,1.0000,-0.0000,1.44682,0.23301,-2.77754,0.97370,1.57080,0.00000,-0.14512,-0.38003,0.04646,,,,,,,,,,,,,,,,,,,,,,,,,,0,0,0,0,0
0.9699,1783185173.1295,1,1,1.0000,-0.0000,1.44682,0.23280,-2.77760,0.97397,1.57080,0.00000,-0.14512,-0.38003,0.04640,,,,,,,,,,,,,,,,,,,,,,,,,,0,0,0,0,0
0.9802,1783185173.1398,1,1,1.0000,-0.0000,1.44682,0.23274,-2.77761,0.97404,1.57080,0.00000,-0.14512,-0.38003,0.04639,,,,,,,,,,,,,,,,,,,,,,,,,,0,0,0,0,0
0.9834,1783185173.1429,1,1,1.0000,-0.0000,1.44682,0.23274,-2.77762,0.97405,1.57080,0.00000,-0.14512,-0.38003,0.04639,,,,,,,,,,,,,,,,,,,,,,,,,,0,0,0,0,0
0.9838,1783185173.1434,1,1,1.0000,-0.0000,1.44682,0.23274,-2.77762,0.97405,1.57080,0.00000,-0.14512,-0.38003,0.04639,,,,,,,,,,,,,,,,,,,,,,,,,,0,0,0,0,0
0.9950,1783185173.1546,1,1,1.0000,-0.0000,1.44682,0.23263,-2.77764,0.97418,1.57080,0.00000,-0.14512,-0.38003,0.04636,,,,,,,,,,,,,,,,,,,,,,,,,,0,0,0,0,0
1.0043,1783185173.1639,1,1,1.0000,-0.0000,1.44682,0.23253,-2.77767,0.97431,1.57080,0.00000,-0.14512,-0.38003,0.04633,,,,,,,,,,,,,,,,,,,,,,,,,,0,0,0,0,0
1.0177,1783185173.1773,1,1,1.0000,-0.0000,1.44682,0.23244,-2.77769,0.97442,1.57080,0.00000,-0.14512,-0.38003,0.04631,,,,,,,,,,,,,,,,,,,,,,,,,,0,0,0,0,0
1.0181,1783185173.1777,1,1,1.0000,-0.0000,1.44682,0.23244,-2.77769,0.97442,1.57080,0.00000,-0.14512,-0.38003,0.04631,,,,,,,,,,,,,,,,,,,,,,,,,,0,0,0,0,0
1.0244,1783185173.1840,1,1,1.0000,-0.0000,1.44682,0.23241,-2.77770,0.97446,1.57080,0.00000,-0.14512,-0.38003,0.04630,,,,,,,,,,,,,,,,,,,,,,,,,,0,0,0,0,0
1.0345,1783185173.1941,1,1,1.0000,-0.0000,1.44682,0.23226,-2.77774,0.97465,1.57080,0.00000,-0.14512,-0.38003,0.04626,,,,,,,,,,,,,,,,,,,,,,,,,,0,0,0,0,0
1.0448,1783185173.2043,1,1,1.0000,-0.0000,1.44682,0.23221,-2.77775,0.97471,1.57080,0.00000,-0.14512,-0.38003,0.04625,,,,,,,,,,,,,,,,,,,,,,,,,,0,0,0,0,0
1.0662,1783185173.2257,1,1,1.0000,-0.0000,1.44682,0.23204,-2.77780,0.97493,1.57080,0.00000,-0.14512,-0.38003,0.04620,,,,,,,,,,,,,,,,,,,,,,,,,,0,0,0,0,0
1.0665,1783185173.2261,1,1,1.0000,-0.0000,1.44682,0.23204,-2.77780,0.97493,1.57080,0.00000,-0.14512,-0.38003,0.04620,,,,,,,,,,,,,,,,,,,,,,,,,,0,0,0,0,0
1.0760,1783185173.2355,1,1,1.0000,-0.0000,1.44682,0.23203,-2.77780,0.97494,1.57080,0.00000,-0.14512,-0.38003,0.04620,,,,,,,,,,,,,,,,,,,,,,,,,,0,0,0,0,0
1.0838,1783185173.2434,1,1,1.0000,-0.0000,1.44682,0.23197,-2.77782,0.97502,1.57080,0.00000,-0.14512,-0.38003,0.04618,,,,,,,,,,,,,,,,,,,,,,,,,,0,0,0,0,0
1.0952,1783185173.2548,1,1,1.0000,-0.0000,1.44682,0.23181,-2.77785,0.97521,1.57080,0.00000,-0.14512,-0.38003,0.04614,,,,,,,,,,,,,,,,,,,,,,,,,,0,0,0,0,0
1.1058,1783185173.2654,1,1,1.0000,-0.0000,1.44682,0.23176,-2.77787,0.97528,1.57080,0.00000,-0.14512,-0.38003,0.04613,,,,,,,,,,,,,,,,,,,,,,,,,,0,0,0,0,0
1.1062,1783185173.2658,1,1,1.0000,-0.0000,1.44682,0.23176,-2.77787,0.97528,1.57080,0.00000,-0.14512,-0.38003,0.04613,,,,,,,,,,,,,,,,,,,,,,,,,,0,0,0,0,0
1.1138,1783185173.2733,1,1,1.0000,-0.0000,1.44682,0.23171,-2.77788,0.97534,1.57080,0.00000,-0.14512,-0.38003,0.04612,,,,,,,,,,,,,,,,,,,,,,,,,,0,0,0,0,0
1.1267,1783185173.2862,1,1,1.0000,-0.0000,1.44682,0.23159,-2.77791,0.97549,1.57080,0.00000,-0.14512,-0.38003,0.04609,,,,,,,,,,,,,,,,,,,,,,,,,,0,0,0,0,0
1.1335,1783185173.2931,1,1,1.0000,-0.0000,1.44682,0.23158,-2.77791,0.97550,1.57080,0.00000,-0.14512,-0.38003,0.04608,,,,,,,,,,,,,,,,,,,,,,,,,,0,0,0,0,0
1.1456,1783185173.3052,1,1,1.0000,-0.0000,1.44682,0.23147,-2.77794,0.97564,1.57080,0.00000,-0.14512,-0.38003,0.04606,,,,,,,,,,,,,,,,,,,,,,,,,,0,0,0,0,0
1.1460,1783185173.3055,1,1,1.0000,-0.0000,1.44682,0.23147,-2.77794,0.97564,1.57080,0.00000,-0.14512,-0.38003,0.04606,,,,,,,,,,,,,,,,,,,,,,,,,,0,0,0,0,0
1.1549,1783185173.3145,1,1,1.0000,-0.0000,1.44682,0.23137,-2.77797,0.97577,1.57080,0.00000,-0.14512,-0.38003,0.04603,,,,,,,,,,,,,,,,,,,,,,,,,,0,0,0,0,0
1.1553,1783185173.3149,1,1,1.0000,-0.0000,1.44682,0.23137,-2.77797,0.97577,1.57080,0.00000,-0.14512,-0.38003,0.04603,,,,,,,,,,,,,,,,,,,,,,,,,,0,0,0,0,0
1.1658,1783185173.3254,1,1,1.0000,-0.0000,1.44682,0.23131,-2.77798,0.97584,1.57080,0.00000,-0.14512,-0.38003,0.04601,,,,,,,,,,,,,,,,,,,,,,,,,,0,0,0,0,0
1.1663,1783185173.3258,1,1,1.0000,-0.0000,1.44682,0.23131,-2.77798,0.97584,1.57080,0.00000,-0.14512,-0.38003,0.04601,,,,,,,,,,,,,,,,,,,,,,,,,,0,0,0,0,0
1.1774,1783185173.3370,1,1,1.0000,-0.0000,1.44682,0.23123,-2.77800,0.97594,1.57080,0.00000,-0.14512,-0.38003,0.04599,,,,,,,,,,,,,,,,,,,,,,,,,,0,0,0,0,0
1.1839,1783185173.3435,1,1,1.0000,-0.0000,1.44682,0.23119,-2.77801,0.97599,1.57080,0.00000,-0.14512,-0.38003,0.04598,,,,,,,,,,,,,,,,,,,,,,,,,,0,0,0,0,0
1.1937,1783185173.3533,1,1,1.0000,-0.0000,1.44682,0.23114,-2.77803,0.97606,1.57080,0.00000,-0.14512,-0.38003,0.04597,,,,,,,,,,,,,,,,,,,,,,,,,,0,0,0,0,0
1.2067,1783185173.3663,1,1,1.0000,-0.0000,1.44682,0.23103,-2.77806,0.97620,1.57080,0.00000,-0.14512,-0.38003,0.04594,,,,,,,,,,,,,,,,,,,,,,,,,,0,0,0,0,0
1.2142,1783185173.3737,1,1,1.0000,-0.0000,1.44682,0.23092,-2.77808,0.97633,1.57080,0.00000,-0.14512,-0.38003,0.04591,,,,,,,,,,,,,,,,,,,,,,,,,,0,0,0,0,0
1.2311,1783185173.3907,1,1,1.0000,-0.0000,1.44682,0.23085,-2.77810,0.97643,1.57080,0.00000,-0.14512,-0.38003,0.04589,,,,,,,,,,,,,,,,,,,,,,,,,,0,0,0,0,0
1.2348,1783185173.3944,1,1,1.0000,-0.0000,1.44682,0.23082,-2.77811,0.97646,1.57080,0.00000,-0.14512,-0.38003,0.04589,,,,,,,,,,,,,,,,,,,,,,,,,,0,0,0,0,0
1.2433,1783185173.4028,1,1,1.0000,-0.0000,1.44682,0.23075,-2.77813,0.97655,1.57080,0.00000,-0.14512,-0.38003,0.04587,,,,,,,,,,,,,,,,,,,,,,,,,,0,0,0,0,0
1.2437,1783185173.4033,1,1,1.0000,-0.0000,1.44682,0.23075,-2.77813,0.97655,1.57080,0.00000,-0.14512,-0.38003,0.04587,,,,,,,,,,,,,,,,,,,,,,,,,,0,0,0,0,0
1.2535,1783185173.4131,1,1,1.0000,-0.0000,1.44682,0.23069,-2.77814,0.97662,1.57080,0.00000,-0.14512,-0.38003,0.04585,,,,,,,,,,,,,,,,,,,,,,,,,,0,0,0,0,0
1.2665,1783185173.4261,1,1,1.0000,-0.0000,1.44682,0.23058,-2.77817,0.97676,1.57080,0.00000,-0.14512,-0.38003,0.04582,,,,,,,,,,,,,,,,,,,,,,,,,,0,0,0,0,0
1.2670,1783185173.4265,1,1,1.0000,-0.0000,1.44682,0.23058,-2.77817,0.97676,1.57080,0.00000,-0.14512,-0.38003,0.04582,,,,,,,,,,,,,,,,,,,,,,,,,,0,0,0,0,0
1.2761,1783185173.4357,1,1,1.0000,-0.0000,1.44682,0.23048,-2.77820,0.97689,1.57080,0.00000,-0.14512,-0.38003,0.04580,,,,,,,,,,,,,,,,,,,,,,,,,,0,0,0,0,0
1.2839,1783185173.4435,1,1,1.0000,-0.0000,1.44682,0.23043,-2.77821,0.97696,1.57080,0.00000,-0.14512,-0.38003,0.04578,,,,,,,,,,,,,,,,,,,,,,,,,,0,0,0,0,0
1.2958,1783185173.4554,1,1,1.0000,-0.0000,1.44682,0.23037,-2.77822,0.97702,1.57080,0.00000,-0.14512,-0.38003,0.04577,,,,,,,,,,,,,,,,,,,,,,,,,,0,0,0,0,0
1.3183,1783185173.4779,1,1,1.0000,-0.0000,1.44682,0.23022,-2.77826,0.97721,1.57080,0.00000,-0.14512,-0.38003,0.04573,,,,,,,,,,,,,,,,,,,,,,,,,,0,0,0,0,0
1.3248,1783185173.4844,1,1,1.0000,-0.0000,1.44682,0.23018,-2.77827,0.97726,1.57080,0.00000,-0.14512,-0.38003,0.04572,,,,,,,,,,,,,,,,,,,,,,,,,,0,0,0,0,0
1.3268,1783185173.4864,1,1,1.0000,-0.0000,1.44682,0.23014,-2.77829,0.97732,1.57080,0.00000,-0.14512,-0.38003,0.04571,,,,,,,,,,,,,,,,,,,,,,,,,,0,0,0,0,0
1.3271,1783185173.4867,1,1,1.0000,-0.0000,1.44682,0.23014,-2.77829,0.97732,1.57080,0.00000,-0.14512,-0.38003,0.04571,,,,,,,,,,,,,,,,,,,,,,,,,,0,0,0,0,0
1.3359,1783185173.4955,1,1,1.0000,-0.0000,1.44682,0.23003,-2.77831,0.97745,1.57080,0.00000,-0.14512,-0.38003,0.04568,,,,,,,,,,,,,,,,,,,,,,,,,,0,0,0,0,0
1.3433,1783185173.5029,1,1,1.0000,-0.0000,1.44682,0.22998,-2.77833,0.97752,1.57080,0.00000,-0.14512,-0.38003,0.04567,,,,,,,,,,,,,,,,,,,,,,,,,,0,0,0,0,0
1.3544,1783185173.5140,1,1,1.0000,-0.0000,1.44682,0.22993,-2.77834,0.97758,1.57080,0.00000,-0.14512,-0.38003,0.04565,,,,,,,,,,,,,,,,,,,,,,,,,,0,0,0,0,0
1.3634,1783185173.5229,1,1,1.0000,-0.0000,1.44682,0.22985,-2.77836,0.97767,1.57080,0.00000,-0.14512,-0.38003,0.04563,,,,,,,,,,,,,,,,,,,,,,,,,,0,0,0,0,0
1.3639,1783185173.5235,1,1,1.0000,-0.0000,1.44682,0.22985,-2.77836,0.97767,1.57080,0.00000,-0.14512,-0.38003,0.04563,,,,,,,,,,,,,,,,,,,,,,,,,,0,0,0,0,0
1.3779,1783185173.5375,1,1,1.0000,-0.0000,1.44682,0.22977,-2.77838,0.97777,1.57080,0.00000,-0.14512,-0.38003,0.04561,,,,,,,,,,,,,,,,,,,,,,,,,,0,0,0,0,0
1.3783,1783185173.5379,1,1,1.0000,-0.0000,1.44682,0.22977,-2.77838,0.97777,1.57080,0.00000,-0.14512,-0.38003,0.04561,,,,,,,,,,,,,,,,,,,,,,,,,,0,0,0,0,0
1.3837,1783185173.5433,1,1,1.0000,-0.0000,1.44682,0.22974,-2.77839,0.97782,1.57080,0.00000,-0.14512,-0.38003,0.04560,,,,,,,,,,,,,,,,,,,,,,,,,,0,0,0,0,0
1.3979,1783185173.5575,1,1,1.0000,-0.0000,1.44682,0.22953,-2.77844,0.97808,1.57080,0.00000,-0.14512,-0.38003,0.04555,,,,,,,,,,,,,,,,,,,,,,,,,,0,0,0,0,0
1.4039,1783185173.5635,1,1,1.0000,-0.0000,1.44682,0.22953,-2.77844,0.97808,1.57080,0.00000,-0.14512,-0.38003,0.04555,,,,,,,,,,,,,,,,,,,,,,,,,,0,0,0,0,0
1.4143,1783185173.5739,1,1,1.0000,-0.0000,1.44682,0.22946,-2.77846,0.97816,1.57080,0.00000,-0.14512,-0.38003,0.04553,,,,,,,,,,,,,,,,,,,,,,,,,,0,0,0,0,0
1.4235,1783185173.5831,1,1,1.0000,-0.0000,1.44682,0.22937,-2.77848,0.97828,1.57080,0.00000,-0.14512,-0.38003,0.04551,,,,,,,,,,,,,,,,,,,,,,,,,,0,0,0,0,0
1.4360,1783185173.5956,1,1,1.0000,-0.0000,1.44682,0.22931,-2.77850,0.97836,1.57080,0.00000,-0.14512,-0.38003,0.04549,,,,,,,,,,,,,,,,,,,,,,,,,,0,0,0,0,0
1.4435,1783185173.6030,1,1,1.0000,-0.0000,1.44682,0.22924,-2.77851,0.97844,1.57080,0.00000,-0.14512,-0.38003,0.04547,,,,,,,,,,,,,,,,,,,,,,,,,,0,0,0,0,0
1.4552,1783185173.6148,1,1,1.0000,-0.0000,1.44682,0.22910,-2.77855,0.97862,1.57080,0.00000,-0.14512,-0.38003,0.04544,,,,,,,,,,,,,,,,,,,,,,,,,,0,0,0,0,0
1.4754,1783185173.6350,1,1,1.0000,-0.0000,1.44682,0.22898,-2.77858,0.97878,1.57080,0.00000,-0.14512,-0.38003,0.04540,,,,,,,,,,,,,,,,,,,,,,,,,,0,0,0,0,0
1.4757,1783185173.6352,1,1,1.0000,-0.0000,1.44682,0.22898,-2.77858,0.97878,1.57080,0.00000,-0.14512,-0.38003,0.04540,,,,,,,,,,,,,,,,,,,,,,,,,,0,0,0,0,0
1.4845,1783185173.6441,1,1,1.0000,-0.0000,1.44682,0.22888,-2.77861,0.97890,1.57080,0.00000,-0.14512,-0.38003,0.04538,,,,,,,,,,,,,,,,,,,,,,,,,,0,0,0,0,0
1.4936,1783185173.6532,1,1,1.0000,-0.0000,1.44682,0.22882,-2.77862,0.97897,1.57080,0.00000,-0.14512,-0.38003,0.04536,,,,,,,,,,,,,,,,,,,,,,,,,,0,0,0,0,0
1.4940,1783185173.6535,1,1,1.0000,-0.0000,1.44682,0.22882,-2.77862,0.97897,1.57080,0.00000,-0.14512,-0.38003,0.04536,,,,,,,,,,,,,,,,,,,,,,,,,,0,0,0,0,0
1.5060,1783185173.6656,1,1,1.0000,-0.0000,1.44682,0.22871,-2.77865,0.97911,1.57080,0.00000,-0.14512,-0.38003,0.04534,,,,,,,,,,,,,,,,,,,,,,,,,,0,0,0,0,0
1.5153,1783185173.6749,1,1,1.0000,-0.0000,1.44682,0.22861,-2.77868,0.97924,1.57080,0.00000,-0.14512,-0.38003,0.04531,,,,,,,,,,,,,,,,,,,,,,,,,,0,0,0,0,0
1.5277,1783185173.6873,1,1,1.0000,-0.0000,1.44682,0.22855,-2.77869,0.97931,1.57080,0.00000,-0.14512,-0.38003,0.04529,,,,,,,,,,,,,,,,,,,,,,,,,,0,0,0,0,0
1.5383,1783185173.6979,1,1,1.0000,-0.0000,1.44682,0.22844,-2.77872,0.97945,1.57080,0.00000,-0.14512,-0.38003,0.04527,,,,,,,,,,,,,,,,,,,,,,,,,,0,0,0,0,0
1.5386,1783185173.6982,1,1,1.0000,-0.0000,1.44682,0.22844,-2.77872,0.97945,1.57080,0.00000,-0.14512,-0.38003,0.04527,,,,,,,,,,,,,,,,,,,,,,,,,,0,0,0,0,0
1.5462,1783185173.7058,1,1,1.0000,-0.0000,1.44682,0.22834,-2.77874,0.97957,1.57080,0.00000,-0.14512,-0.38003,0.04524,,,,,,,,,,,,,,,,,,,,,,,,,,0,0,0,0,0
1.5564,1783185173.7159,1,1,1.0000,-0.0000,1.44682,0.22833,-2.77875,0.97959,1.57080,0.00000,-0.14512,-0.38003,0.04524,,,,,,,,,,,,,,,,,,,,,,,,,,0,0,0,0,0
1.5632,1783185173.7228,1,1,1.0000,-0.0000,1.44682,0.22827,-2.77876,0.97966,1.57080,0.00000,-0.14512,-0.38003,0.04522,,,,,,,,,,,,,,,,,,,,,,,,,,0,0,0,0,0
1.5636,1783185173.7231,1,1,1.0000,-0.0000,1.44682,0.22827,-2.77876,0.97966,1.57080,0.00000,-0.14512,-0.38003,0.04522,,,,,,,,,,,,,,,,,,,,,,,,,,0,0,0,0,0
1.5754,1783185173.7350,1,1,1.0000,-0.0000,1.44682,0.22812,-2.77880,0.97985,1.57080,0.00000,-0.14512,-0.38003,0.04518,,,,,,,,,,,,,,,,,,,,,,,,,,0,0,0,0,0
1.5834,1783185173.7430,1,1,1.0000,-0.0000,1.44682,0.22807,-2.77881,0.97991,1.57080,0.00000,-0.14512,-0.38003,0.04517,,,,,,,,,,,,,,,,,,,,,,,,,,0,0,0,0,0
1.5839,1783185173.7435,1,1,1.0000,-0.0000,1.44682,0.22807,-2.77881,0.97991,1.57080,0.00000,-0.14512,-0.38003,0.04517,,,,,,,,,,,,,,,,,,,,,,,,,,0,0,0,0,0
1.5938,1783185173.7534,1,1,1.0000,-0.0000,1.44682,0.22800,-2.77883,0.98000,1.57080,0.00000,-0.14512,-0.38003,0.04515,,,,,,,,,,,,,,,,,,,,,,,,,,0,0,0,0,0
1.6039,1783185173.7635,1,1,1.0000,-0.0000,1.44682,0.22790,-2.77886,0.98012,1.57080,0.00000,-0.14512,-0.38003,0.04513,,,,,,,,,,,,,,,,,,,,,,,,,,0,0,0,0,0
1.6196,1783185173.7792,1,1,1.0000,-0.0000,1.44682,0.22782,-2.77888,0.98023,1.57080,0.00000,-0.14512,-0.38003,0.04510,,,,,,,,,,,,,,,,,,,,,,,,,,0,0,0,0,0
1.6199,1783185173.7795,1,1,1.0000,-0.0000,1.44682,0.22782,-2.77888,0.98023,1.57080,0.00000,-0.14512,-0.38003,0.04510,,,,,,,,,,,,,,,,,,,,,,,,,,0,0,0,0,0
1.6271,1783185173.7866,1,1,1.0000,-0.0000,1.44682,0.22774,-2.77890,0.98033,1.57080,0.00000,-0.14512,-0.38003,0.04508,,,,,,,,,,,,,,,,,,,,,,,,,,0,0,0,0,0
1.6274,1783185173.7870,1,1,1.0000,-0.0000,1.44682,0.22774,-2.77890,0.98033,1.57080,0.00000,-0.14512,-0.38003,0.04508,,,,,,,,,,,,,,,,,,,,,,,,,,0,0,0,0,0
1.6344,1783185173.7940,1,1,1.0000,-0.0000,1.44682,0.22763,-2.77892,0.98046,1.57080,0.00000,-0.14512,-0.38003,0.04506,,,,,,,,,,,,,,,,,,,,,,,,,,0,0,0,0,0
1.6440,1783185173.8036,1,1,1.0000,-0.0000,1.44682,0.22758,-2.77894,0.98052,1.57080,0.00000,-0.14512,-0.38003,0.04504,,,,,,,,,,,,,,,,,,,,,,,,,,0,0,0,0,0
1.6545,1783185173.8140,1,1,1.0000,-0.0000,1.44682,0.22751,-2.77895,0.98061,1.57080,0.00000,-0.14512,-0.38003,0.04502,,,,,,,,,,,,,,,,,,,,,,,,,,0,0,0,0,0
1.6698,1783185173.8293,1,1,1.0000,-0.0000,1.44682,0.22736,-2.77899,0.98080,1.57080,0.00000,-0.14512,-0.38003,0.04499,,,,,,,,,,,,,,,,,,,,,,,,,,0,0,0,0,0
1.6700,1783185173.8296,1,1,1.0000,-0.0000,1.44682,0.22736,-2.77899,0.98080,1.57080,0.00000,-0.14512,-0.38003,0.04499,,,,,,,,,,,,,,,,,,,,,,,,,,0,0,0,0,0
1.6788,1783185173.8383,1,1,1.0000,-0.0000,1.44682,0.22733,-2.77900,0.98084,1.57080,0.00000,-0.14512,-0.38003,0.04498,,,,,,,,,,,,,,,,,,,,,,,,,,0,0,0,0,0
1.6860,1783185173.8455,1,1,1.0000,-0.0000,1.44682,0.22725,-2.77902,0.98094,1.57080,0.00000,-0.14512,-0.38003,0.04496,,,,,,,,,,,,,,,,,,,,,,,,,,0,0,0,0,0
1.6937,1783185173.8533,1,1,1.0000,-0.0000,1.44682,0.22714,-2.77905,0.98107,1.57080,0.00000,-0.14512,-0.38003,0.04493,,,,,,,,,,,,,,,,,,,,,,,,,,0,0,0,0,0
1.6940,1783185173.8536,1,1,1.0000,-0.0000,1.44682,0.22714,-2.77905,0.98107,1.57080,0.00000,-0.14512,-0.38003,0.04493,,,,,,,,,,,,,,,,,,,,,,,,,,0,0,0,0,0
1.7037,1783185173.8633,1,1,1.0000,-0.0000,1.44682,0.22709,-2.77906,0.98114,1.57080,0.00001,-0.14512,-0.38003,0.04492,,,,,,,,,,,,,,,,,,,,,,,,,,0,0,0,0,0
1.7176,1783185173.8772,1,1,1.0000,-0.0000,1.44682,0.22698,-2.77909,0.98128,1.57080,0.00001,-0.14512,-0.38003,0.04489,,,,,,,,,,,,,,,,,,,,,,,,,,0,0,0,0,0
1.7279,1783185173.8875,1,1,1.0000,-0.0000,1.44682,0.22687,-2.77912,0.98141,1.57080,0.00001,-0.14512,-0.38003,0.04486,,,,,,,,,,,,,,,,,,,,,,,,,,0,0,0,0,0
1.7336,1783185173.8932,1,1,1.0000,-0.0000,1.44682,0.22686,-2.77912,0.98142,1.57080,0.00001,-0.14512,-0.38003,0.04486,,,,,,,,,,,,,,,,,,,,,,,,,,0,0,0,0,0
1.7340,1783185173.8936,1,1,1.0000,-0.0000,1.44682,0.22686,-2.77912,0.98142,1.57080,0.00001,-0.14512,-0.38003,0.04486,,,,,,,,,,,,,,,,,,,,,,,,,,0,0,0,0,0
1.7433,1783185173.9029,1,1,1.0000,-0.0000,1.44682,0.22680,-2.77913,0.98150,1.57080,0.00001,-0.14512,-0.38003,0.04484,,,,,,,,,,,,,,,,,,,,,,,,,,0,0,0,0,0
1.7438,1783185173.9034,1,1,1.0000,-0.0000,1.44682,0.22680,-2.77913,0.98150,1.57080,0.00001,-0.14512,-0.38003,0.04484,,,,,,,,,,,,,,,,,,,,,,,,,,0,0,0,0,0
1.7539,1783185173.9135,1,1,1.0000,-0.0000,1.44682,0.22665,-2.77917,0.98169,1.57080,0.00001,-0.14512,-0.38003,0.04480,,,,,,,,,,,,,,,,,,,,,,,,,,0,0,0,0,0
1.7684,1783185173.9280,1,1,1.0000,-0.0000,1.44682,0.22659,-2.77919,0.98176,1.57080,0.00001,-0.14512,-0.38003,0.04479,,,,,,,,,,,,,,,,,,,,,,,,,,0,0,0,0,0
1.7796,1783185173.9391,1,1,1.0000,-0.0000,1.44682,0.22649,-2.77921,0.98190,1.57080,0.00001,-0.14512,-0.38003,0.04476,,,,,,,,,,,,,,,,,,,,,,,,,,0,0,0,0,0
1.7836,1783185173.9432,1,1,1.0000,-0.0000,1.44682,0.22644,-2.77923,0.98196,1.57080,0.00001,-0.14512,-0.38003,0.04475,,,,,,,,,,,,,,,,,,,,,,,,,,0,0,0,0,0
1.7993,1783185173.9589,1,1,1.0000,-0.0000,1.44682,0.22633,-2.77926,0.98210,1.57080,0.00001,-0.14512,-0.38003,0.04472,,,,,,,,,,,,,,,,,,,,,,,,,,0,0,0,0,0
1.7996,1783185173.9591,1,1,1.0000,-0.0000,1.44682,0.22633,-2.77926,0.98210,1.57080,0.00001,-0.14512,-0.38003,0.04472,,,,,,,,,,,,,,,,,,,,,,,,,,0,0,0,0,0
1.8057,1783185173.9653,1,1,1.0000,-0.0000,1.44682,0.22628,-2.77927,0.98215,1.57080,0.00001,-0.14512,-0.38003,0.04471,,,,,,,,,,,,,,,,,,,,,,,,,,0,0,0,0,0
1.8061,1783185173.9656,1,1,1.0000,-0.0000,1.44682,0.22628,-2.77927,0.98215,1.57080,0.00001,-0.14512,-0.38003,0.04471,,,,,,,,,,,,,,,,,,,,,,,,,,0,0,0,0,0
1.8155,1783185173.9750,1,1,1.0000,-0.0000,1.44682,0.22620,-2.77929,0.98225,1.57080,0.00001,-0.14512,-0.38003,0.04469,,,,,,,,,,,,,,,,,,,,,,,,,,0,0,0,0,0
1.8243,1783185173.9839,1,1,1.0000,-0.0000,1.44682,0.22616,-2.77930,0.98231,1.57080,0.00001,-0.14512,-0.38003,0.04467,,,,,,,,,,,,,,,,,,,,,,,,,,0,0,0,0,0
1.8248,1783185173.9844,1,1,1.0000,-0.0000,1.44682,0.22616,-2.77930,0.98231,1.57080,0.00001,-0.14512,-0.38003,0.04467,,,,,,,,,,,,,,,,,,,,,,,,,,0,0,0,0,0
1.8349,1783185173.9945,1,1,1.0000,-0.0000,1.44682,0.22609,-2.77932,0.98240,1.57080,0.00001,-0.14512,-0.38003,0.04466,,,,,,,,,,,,,,,,,,,,,,,,,,0,0,0,0,0
1.8353,1783185173.9948,1,1,1.0000,-0.0000,1.44682,0.22609,-2.77932,0.98240,1.57080,0.00001,-0.14512,-0.38003,0.04466,,,,,,,,,,,,,,,,,,,,,,,,,,0,0,0,0,0
1.8474,1783185174.0070,1,1,1.0000,-0.0000,1.44682,0.22593,-2.77935,0.98259,1.57080,0.00001,-0.14512,-0.38003,0.04462,,,,,,,,,,,,,,,,,,,,,,,,,,0,0,0,0,0
1.8477,1783185174.0073,1,1,1.0000,-0.0000,1.44682,0.22593,-2.77935,0.98259,1.57080,0.00001,-0.14512,-0.38003,0.04462,,,,,,,,,,,,,,,,,,,,,,,,,,0,0,0,0,0
1.8538,1783185174.0133,1,1,1.0000,-0.0000,1.44682,0.22588,-2.77937,0.98265,1.57080,0.00001,-0.14512,-0.38003,0.04460,,,,,,,,,,,,,,,,,,,,,,,,,,0,0,0,0,0
1.8543,1783185174.0138,1,1,1.0000,-0.0000,1.44682,0.22588,-2.77937,0.98265,1.57080,0.00001,-0.14512,-0.38003,0.04460,,,,,,,,,,,,,,,,,,,,,,,,,,0,0,0,0,0
1.8635,1783185174.0230,1,1,1.0000,-0.0000,1.44682,0.22586,-2.77937,0.98268,1.57080,0.00001,-0.14512,-0.38003,0.04460,,,,,,,,,,,,,,,,,,,,,,,,,,0,0,0,0,0
1.8638,1783185174.0234,1,1,1.0000,-0.0000,1.44682,0.22586,-2.77937,0.98268,1.57080,0.00001,-0.14512,-0.38003,0.04460,,,,,,,,,,,,,,,,,,,,,,,,,,0,0,0,0,0
1.8743,1783185174.0339,1,1,1.0000,-0.0000,1.44682,0.22576,-2.77940,0.98281,1.57080,0.00001,-0.14512,-0.38003,0.04457,,,,,,,,,,,,,,,,,,,,,,,,,,0,0,0,0,0
1.8746,1783185174.0341,1,1,1.0000,-0.0000,1.44682,0.22576,-2.77940,0.98281,1.57080,0.00001,-0.14512,-0.38003,0.04457,,,,,,,,,,,,,,,,,,,,,,,,,,0,0,0,0,0
1.8897,1783185174.0493,1,1,1.0000,-0.0000,1.44682,0.22568,-2.77942,0.98291,1.57080,0.00001,-0.14512,-0.38003,0.04455,,,,,,,,,,,,,,,,,,,,,,,,,,0,0,0,0,0
1.8955,1783185174.0551,1,1,1.0000,-0.0000,1.44682,0.22564,-2.77943,0.98296,1.57080,0.00001,-0.14512,-0.38003,0.04454,,,,,,,,,,,,,,,,,,,,,,,,,,0,0,0,0,0
1.9042,1783185174.0638,1,1,1.0000,-0.0000,1.44682,0.22554,-2.77945,0.98308,1.57080,0.00001,-0.14512,-0.38003,0.04451,,,,,,,,,,,,,,,,,,,,,,,,,,0,0,0,0,0
1.9046,1783185174.0642,1,1,1.0000,-0.0000,1.44682,0.22554,-2.77945,0.98308,1.57080,0.00001,-0.14512,-0.38003,0.04451,,,,,,,,,,,,,,,,,,,,,,,,,,0,0,0,0,0
1.9170,1783185174.0766,1,1,1.0000,-0.0000,1.44682,0.22543,-2.77948,0.98322,1.57080,0.00001,-0.14512,-0.38003,0.04449,,,,,,,,,,,,,,,,,,,,,,,,,,0,0,0,0,0
1.9242,1783185174.0838,1,1,1.0000,-0.0000,1.44682,0.22541,-2.77949,0.98325,1.57080,0.00001,-0.14512,-0.38003,0.04448,,,,,,,,,,,,,,,,,,,,,,,,,,0,0,0,0,0
1.9247,1783185174.0843,1,1,1.0000,-0.0000,1.44682,0.22541,-2.77949,0.98325,1.57080,0.00001,-0.14512,-0.38003,0.04448,,,,,,,,,,,,,,,,,,,,,,,,,,0,0,0,0,0
1.9380,1783185174.0975,1,1,1.0000,-0.0000,1.44682,0.22526,-2.77952,0.98343,1.57080,0.00001,-0.14512,-0.38003,0.04444,,,,,,,,,,,,,,,,,,,,,,,,,,0,0,0,0,0
1.9384,1783185174.0979,1,1,1.0000,-0.0000,1.44682,0.22526,-2.77952,0.98343,1.57080,0.00001,-0.14512,-0.38003,0.04444,,,,,,,,,,,,,,,,,,,,,,,,,,0,0,0,0,0
1.9480,1783185174.1076,1,1,1.0000,-0.0000,1.44682,0.22525,-2.77953,0.98344,1.57080,0.00001,-0.14512,-0.38003,0.04444,,,,,,,,,,,,,,,,,,,,,,,,,,0,0,0,0,0
1.9547,1783185174.1143,1,1,1.0000,-0.0000,1.44682,0.22519,-2.77954,0.98352,1.57080,0.00001,-0.14512,-0.38002,0.04442,,,,,,,,,,,,,,,,,,,,,,,,,,0,0,0,0,0
1.9552,1783185174.1148,1,1,1.0000,-0.0000,1.44682,0.22519,-2.77954,0.98352,1.57080,0.00001,-0.14512,-0.38002,0.04442,,,,,,,,,,,,,,,,,,,,,,,,,,0,0,0,0,0
1.9652,1783185174.1248,1,1,1.0000,-0.0000,1.44682,0.22509,-2.77957,0.98365,1.57080,0.00001,-0.14512,-0.38002,0.04440,,,,,,,,,,,,,,,,,,,,,,,,,,0,0,0,0,0
1.9745,1783185174.1341,1,1,1.0000,-0.0000,1.44682,0.22498,-2.77959,0.98378,1.57080,0.00001,-0.14512,-0.38002,0.04437,,,,,,,,,,,,,,,,,,,,,,,,,,0,0,0,0,0
1.9847,1783185174.1443,1,1,1.0000,-0.0000,1.44682,0.22496,-2.77960,0.98381,1.57080,0.00001,-0.14512,-0.38002,0.04436,,,,,,,,,,,,,,,,,,,,,,,,,,0,0,0,0,0
1.9960,1783185174.1556,1,1,1.0000,-0.0000,1.44682,0.22486,-2.77963,0.98394,1.57080,0.00001,-0.14512,-0.38002,0.04434,,,,,,,,,,,,,,,,,,,,,,,,,,0,0,0,0,0
2.0039,1783185174.1634,1,1,1.0000,-0.0000,1.44682,0.22481,-2.77964,0.98399,1.57080,0.00001,-0.14512,-0.38002,0.04433,,,,,,,,,,,,,,,,,,,,,,,,,,0,0,0,0,0
2.0137,1783185174.1733,1,1,1.0000,-0.0000,1.44682,0.22474,-2.77966,0.98409,1.57080,0.00001,-0.14512,-0.38002,0.04431,,,,,,,,,,,,,,,,,,,,,,,,,,0,0,0,0,0
2.0260,1783185174.1855,1,1,1.0000,-0.0000,1.44682,0.22459,-2.77970,0.98428,1.57080,0.00001,-0.14512,-0.38002,0.04427,,,,,,,,,,,,,,,,,,,,,,,,,,0,0,0,0,0
2.0264,1783185174.1860,1,1,1.0000,-0.0000,1.44682,0.22459,-2.77970,0.98428,1.57080,0.00001,-0.14512,-0.38002,0.04427,,,,,,,,,,,,,,,,,,,,,,,,,,0,0,0,0,0
2.0349,1783185174.1945,1,1,1.0000,-0.0000,1.44682,0.22453,-2.77971,0.98434,1.57080,0.00001,-0.14512,-0.38002,0.04425,,,,,,,,,,,,,,,,,,,,,,,,,,0,0,0,0,0
2.0353,1783185174.1949,1,1,1.0000,-0.0000,1.44682,0.22453,-2.77971,0.98434,1.57080,0.00001,-0.14512,-0.38002,0.04425,,,,,,,,,,,,,,,,,,,,,,,,,,0,0,0,0,0
2.0514,1783185174.2110,1,1,1.0000,-0.0000,1.44682,0.22445,-2.77973,0.98445,1.57080,0.00001,-0.14512,-0.38002,0.04423,,,,,,,,,,,,,,,,,,,,,,,,,,0,0,0,0,0
2.0537,1783185174.2133,1,1,1.0000,-0.0000,1.44682,0.22441,-2.77974,0.98450,1.57080,0.00001,-0.14512,-0.38002,0.04422,,,,,,,,,,,,,,,,,,,,,,,,,,0,0,0,0,0
2.0737,1783185174.2333,1,1,1.0000,-0.0000,1.44682,0.22429,-2.77977,0.98465,1.57080,0.00001,-0.14512,-0.38002,0.04419,,,,,,,,,,,,,,,,,,,,,,,,,,0,0,0,0,0
2.0748,1783185174.2344,1,1,1.0000,-0.0000,1.44682,0.22429,-2.77977,0.98465,1.57080,0.00001,-0.14512,-0.38002,0.04419,,,,,,,,,,,,,,,,,,,,,,,,,,0,0,0,0,0
2.0751,1783185174.2347,1,1,1.0000,-0.0000,1.44682,0.22429,-2.77977,0.98465,1.57080,0.00001,-0.14512,-0.38002,0.04419,,,,,,,,,,,,,,,,,,,,,,,,,,0,0,0,0,0
2.0861,1783185174.2457,1,1,1.0000,-0.0000,1.44682,0.22414,-2.77981,0.98484,1.57080,0.00001,-0.14512,-0.38002,0.04415,,,,,,,,,,,,,,,,,,,,,,,,,,0,0,0,0,0
2.0864,1783185174.2460,1,1,1.0000,-0.0000,1.44682,0.22414,-2.77981,0.98484,1.57080,0.00001,-0.14512,-0.38002,0.04415,,,,,,,,,,,,,,,,,,,,,,,,,,0,0,0,0,0
2.0953,1783185174.2549,1,1,1.0000,-0.0000,1.44682,0.22408,-2.77982,0.98491,1.57080,0.00001,-0.14512,-0.38002,0.04414,,,,,,,,,,,,,,,,,,,,,,,,,,0,0,0,0,0
2.1081,1783185174.2677,1,1,1.0000,-0.0000,1.44682,0.22403,-2.77983,0.98497,1.57080,0.00001,-0.14512,-0.38002,0.04412,,,,,,,,,,,,,,,,,,,,,,,,,,0,0,0,0,0
2.1138,1783185174.2733,1,1,1.0000,-0.0000,1.44682,0.22396,-2.77985,0.98507,1.57080,0.00001,-0.14512,-0.38002,0.04410,,,,,,,,,,,,,,,,,,,,,,,,,,0,0,0,0,0
2.1289,1783185174.2885,1,1,1.0000,-0.0000,1.44682,0.22390,-2.77987,0.98513,1.57080,0.00001,-0.14512,-0.38002,0.04409,,,,,,,,,,,,,,,,,,,,,,,,,,0,0,0,0,0
2.1371,1783185174.2967,1,1,1.0000,-0.0000,1.44682,0.22384,-2.77988,0.98521,1.57080,0.00001,-0.14512,-0.38002,0.04407,,,,,,,,,,,,,,,,,,,,,,,,,,0,0,0,0,0
2.1529,1783185174.3125,1,1,1.0000,-0.0000,1.44682,0.22363,-2.77993,0.98547,1.57080,0.00001,-0.14512,-0.38002,0.04402,,,,,,,,,,,,,,,,,,,,,,,,,,0,0,0,0,0
2.1534,1783185174.3130,1,1,1.0000,-0.0000,1.44682,0.22363,-2.77993,0.98547,1.57080,0.00001,-0.14512,-0.38002,0.04402,,,,,,,,,,,,,,,,,,,,,,,,,,0,0,0,0,0
2.1586,1783185174.3182,1,1,1.0000,-0.0000,1.44682,0.22362,-2.77994,0.98548,1.57080,0.00001,-0.14512,-0.38002,0.04402,,,,,,,,,,,,,,,,,,,,,,,,,,0,0,0,0,0
2.1590,1783185174.3185,1,1,1.0000,-0.0000,1.44682,0.22362,-2.77994,0.98548,1.57080,0.00001,-0.14512,-0.38002,0.04402,,,,,,,,,,,,,,,,,,,,,,,,,,0,0,0,0,0
2.1666,1783185174.3261,1,1,1.0000,-0.0000,1.44682,0.22356,-2.77995,0.98556,1.57080,0.00001,-0.14512,-0.38002,0.04400,,,,,,,,,,,,,,,,,,,,,,,,,,0,0,0,0,0
2.1670,1783185174.3266,1,1,1.0000,-0.0000,1.44682,0.22356,-2.77995,0.98556,1.57080,0.00001,-0.14512,-0.38002,0.04400,,,,,,,,,,,,,,,,,,,,,,,,,,0,0,0,0,0
2.1742,1783185174.3338,1,1,1.0000,-0.0000,1.44682,0.22347,-2.77998,0.98568,1.57080,0.00001,-0.14512,-0.38002,0.04398,,,,,,,,,,,,,,,,,,,,,,,,,,0,0,0,0,0
2.1746,1783185174.3342,1,1,1.0000,-0.0000,1.44682,0.22347,-2.77998,0.98568,1.57080,0.00001,-0.14512,-0.38002,0.04398,,,,,,,,,,,,,,,,,,,,,,,,,,0,0,0,0,0
2.1849,1783185174.3445,1,1,1.0000,-0.0000,1.44682,0.22341,-2.77999,0.98575,1.57080,0.00001,-0.14512,-0.38002,0.04396,,,,,,,,,,,,,,,,,,,,,,,,,,0,0,0,0,0
2.1966,1783185174.3562,1,1,1.0000,-0.0000,1.44682,0.22334,-2.78001,0.98583,1.57080,0.00001,-0.14512,-0.38002,0.04395,,,,,,,,,,,,,,,,,,,,,,,,,,0,0,0,0,0
2.2036,1783185174.3631,1,1,1.0000,-0.0000,1.44682,0.22325,-2.78003,0.98595,1.57080,0.00001,-0.14512,-0.38002,0.04392,,,,,,,,,,,,,,,,,,,,,,,,,,0,0,0,0,0
2.2039,1783185174.3635,1,1,1.0000,-0.0000,1.44682,0.22325,-2.78003,0.98595,1.57080,0.00001,-0.14512,-0.38002,0.04392,,,,,,,,,,,,,,,,,,,,,,,,,,0,0,0,0,0
2.2154,1783185174.3750,1,1,1.0000,-0.0000,1.44682,0.22314,-2.78006,0.98608,1.57080,0.00001,-0.14512,-0.38002,0.04389,,,,,,,,,,,,,,,,,,,,,,,,,,0,0,0,0,0
2.2242,1783185174.3837,1,1,1.0000,-0.0000,1.44682,0.22311,-2.78007,0.98613,1.57080,0.00001,-0.14512,-0.38002,0.04389,,,,,,,,,,,,,,,,,,,,,,,,,,0,0,0,0,0
2.2246,1783185174.3842,1,1,1.0000,-0.0000,1.44682,0.22311,-2.78007,0.98613,1.57080,0.00001,-0.14512,-0.38002,0.04389,,,,,,,,,,,,,,,,,,,,,,,,,,0,0,0,0,0
2.2414,1783185174.4010,1,1,1.0000,-0.0000,1.44682,0.22292,-2.78011,0.98636,1.57080,0.00001,-0.14512,-0.38002,0.04384,,,,,,,,,,,,,,,,,,,,,,,,,,0,0,0,0,0
2.2460,1783185174.4056,1,1,1.0000,-0.0000,1.44682,0.22291,-2.78012,0.98637,1.57080,0.00001,-0.14512,-0.38002,0.04383,,,,,,,,,,,,,,,,,,,,,,,,,,0,0,0,0,0
2.2463,1783185174.4058,1,1,1.0000,-0.0000,1.44682,0.22291,-2.78012,0.98637,1.57080,0.00001,-0.14512,-0.38002,0.04383,,,,,,,,,,,,,,,,,,,,,,,,,,0,0,0,0,0
2.2567,1783185174.4162,1,1,1.0000,-0.0000,1.44682,0.22285,-2.78013,0.98645,1.57080,0.00001,-0.14512,-0.38002,0.04382,,,,,,,,,,,,,,,,,,,,,,,,,,0,0,0,0,0
2.2570,1783185174.4166,1,1,1.0000,-0.0000,1.44682,0.22285,-2.78013,0.98645,1.57080,0.00001,-0.14512,-0.38002,0.04382,,,,,,,,,,,,,,,,,,,,,,,,,,0,0,0,0,0
2.2645,1783185174.4241,1,1,1.0000,-0.0000,1.44682,0.22275,-2.78016,0.98657,1.57080,0.00001,-0.14512,-0.38002,0.04379,,,,,,,,,,,,,,,,,,,,,,,,,,0,0,0,0,0
2.2649,1783185174.4245,1,1,1.0000,-0.0000,1.44682,0.22275,-2.78016,0.98657,1.57080,0.00001,-0.14512,-0.38002,0.04379,,,,,,,,,,,,,,,,,,,,,,,,,,0,0,0,0,0
2.2744,1783185174.4340,1,1,1.0000,-0.0000,1.44681,0.22265,-2.78018,0.98670,1.57080,0.00001,-0.14512,-0.38002,0.04377,,,,,,,,,,,,,,,,,,,,,,,,,,0,0,0,0,0
2.2837,1783185174.4433,1,1,1.0000,-0.0000,1.44681,0.22262,-2.78019,0.98674,1.57080,0.00001,-0.14512,-0.38002,0.04376,,,,,,,,,,,,,,,,,,,,,,,,,,0,0,0,0,0
2.2944,1783185174.4540,1,1,1.0000,-0.0000,1.44681,0.22248,-2.78022,0.98691,1.57080,0.00001,-0.14512,-0.38002,0.04372,,,,,,,,,,,,,,,,,,,,,,,,,,0,0,0,0,0
2.3049,1783185174.4645,1,1,1.0000,-0.0000,1.44681,0.22243,-2.78024,0.98698,1.57080,0.00001,-0.14512,-0.38002,0.04371,,,,,,,,,,,,,,,,,,,,,,,,,,0,0,0,0,0
2.3150,1783185174.4746,1,1,1.0000,-0.0000,1.44681,0.22236,-2.78025,0.98706,1.57080,0.00001,-0.14512,-0.38002,0.04369,,,,,,,,,,,,,,,,,,,,,,,,,,0,0,0,0,0
2.3254,1783185174.4850,1,1,1.0000,-0.0000,1.44681,0.22226,-2.78028,0.98719,1.57080,0.00001,-0.14512,-0.38002,0.04367,,,,,,,,,,,,,,,,,,,,,,,,,,0,0,0,0,0
2.3354,1783185174.4950,1,1,1.0000,-0.0000,1.44681,0.22216,-2.78030,0.98732,1.57080,0.00001,-0.14512,-0.38002,0.04364,,,,,,,,,,,,,,,,,,,,,,,,,,0,0,0,0,0
2.3460,1783185174.5056,1,1,1.0000,-0.0000,1.44681,0.22209,-2.78032,0.98740,1.57080,0.00001,-0.14512,-0.38002,0.04362,,,,,,,,,,,,,,,,,,,,,,,,,,0,0,0,0,0
2.3463,1783185174.5059,1,1,1.0000,-0.0000,1.44681,0.22209,-2.78032,0.98740,1.57080,0.00001,-0.14512,-0.38002,0.04362,,,,,,,,,,,,,,,,,,,,,,,,,,0,0,0,0,0
2.3581,1783185174.5176,1,1,1.0000,-0.0000,1.44681,0.22194,-2.78036,0.98759,1.57080,0.00001,-0.14512,-0.38002,0.04358,,,,,,,,,,,,,,,,,,,,,,,,,,0,0,0,0,0
2.3636,1783185174.5232,1,1,1.0000,-0.0000,1.44681,0.22194,-2.78036,0.98759,1.57080,0.00001,-0.14512,-0.38002,0.04358,,,,,,,,,,,,,,,,,,,,,,,,,,0,0,0,0,0
2.3639,1783185174.5235,1,1,1.0000,-0.0000,1.44681,0.22194,-2.78036,0.98759,1.57080,0.00001,-0.14512,-0.38002,0.04358,,,,,,,,,,,,,,,,,,,,,,,,,,0,0,0,0,0
2.3746,1783185174.5342,1,1,1.0000,-0.0000,1.44681,0.22187,-2.78038,0.98768,1.57080,0.00001,-0.14512,-0.38002,0.04357,,,,,,,,,,,,,,,,,,,,,,,,,,0,0,0,0,0
2.3861,1783185174.5457,1,1,1.0000,-0.0000,1.44681,0.22172,-2.78042,0.98787,1.57080,0.00001,-0.14512,-0.38002,0.04353,,,,,,,,,,,,,,,,,,,,,,,,,,0,0,0,0,0
2.3865,1783185174.5461,1,1,1.0000,-0.0000,1.44681,0.22172,-2.78042,0.98787,1.57080,0.00001,-0.14512,-0.38002,0.04353,,,,,,,,,,,,,,,,,,,,,,,,,,0,0,0,0,0
2.4015,1783185174.5611,1,1,1.0000,-0.0000,1.44681,0.22166,-2.78043,0.98794,1.57080,0.00001,-0.14512,-0.38002,0.04351,,,,,,,,,,,,,,,,,,,,,,,,,,0,0,0,0,0
2.4042,1783185174.5638,1,1,1.0000,-0.0000,1.44681,0.22163,-2.78044,0.98797,1.57080,0.00001,-0.14512,-0.38002,0.04351,,,,,,,,,,,,,,,,,,,,,,,,,,0,0,0,0,0
2.4143,1783185174.5739,1,1,1.0000,-0.0000,1.44681,0.22150,-2.78047,0.98814,1.57080,0.00001,-0.14512,-0.38002,0.04347,,,,,,,,,,,,,,,,,,,,,,,,,,0,0,0,0,0
2.4280,1783185174.5876,1,1,1.0000,-0.0000,1.44681,0.22139,-2.78050,0.98827,1.57080,0.00001,-0.14512,-0.38002,0.04344,,,,,,,,,,,,,,,,,,,,,,,,,,0,0,0,0,0
2.4283,1783185174.5879,1,1,1.0000,-0.0000,1.44681,0.22139,-2.78050,0.98827,1.57080,0.00001,-0.14512,-0.38002,0.04344,,,,,,,,,,,,,,,,,,,,,,,,,,0,0,0,0,0
2.4403,1783185174.5999,1,1,1.0000,-0.0000,1.44681,0.22134,-2.78051,0.98834,1.57080,0.00001,-0.14512,-0.38002,0.04343,,,,,,,,,,,,,,,,,,,,,,,,,,0,0,0,0,0
2.4465,1783185174.6061,1,1,1.0000,-0.0000,1.44681,0.22126,-2.78053,0.98843,1.57080,0.00001,-0.14512,-0.38002,0.04341,,,,,,,,,,,,,,,,,,,,,,,,,,0,0,0,0,0
2.4468,1783185174.6064,1,1,1.0000,-0.0000,1.44681,0.22126,-2.78053,0.98843,1.57080,0.00001,-0.14512,-0.38002,0.04341,,,,,,,,,,,,,,,,,,,,,,,,,,0,0,0,0,0
2.4582,1783185174.6178,1,1,1.0000,-0.0000,1.44681,0.22121,-2.78054,0.98850,1.57080,0.00001,-0.14512,-0.38002,0.04340,,,,,,,,,,,,,,,,,,,,,,,,,,0,0,0,0,0
2.4677,1783185174.6272,1,1,1.0000,-0.0000,1.44681,0.22114,-2.78056,0.98858,1.57080,0.00001,-0.14512,-0.38002,0.04338,,,,,,,,,,,,,,,,,,,,,,,,,,0,0,0,0,0
2.4773,1783185174.6368,1,1,1.0000,-0.0000,1.44681,0.22104,-2.78058,0.98871,1.57080,0.00001,-0.14512,-0.38002,0.04335,,,,,,,,,,,,,,,,,,,,,,,,,,0,0,0,0,0
2.4885,1783185174.6481,1,1,1.0000,-0.0000,1.44681,0.22094,-2.78061,0.98884,1.57080,0.00001,-0.14512,-0.38002,0.04333,,,,,,,,,,,,,,,,,,,,,,,,,,0,0,0,0,0
2.4966,1783185174.6562,1,1,1.0000,-0.0000,1.44681,0.22091,-2.78062,0.98887,1.57080,0.00001,-0.14512,-0.38002,0.04332,,,,,,,,,,,,,,,,,,,,,,,,,,0,0,0,0,0
2.5069,1783185174.6664,1,1,1.0000,-0.0000,1.44681,0.22081,-2.78064,0.98900,1.57080,0.00001,-0.14512,-0.38002,0.04329,,,,,,,,,,,,,,,,,,,,,,,,,,0,0,0,0,0
2.5184,1783185174.6779,1,1,1.0000,-0.0000,1.44681,0.22076,-2.78065,0.98907,1.57080,0.00001,-0.14512,-0.38002,0.04328,,,,,,,,,,,,,,,,,,,,,,,,,,0,0,0,0,0
2.5394,1783185174.6990,1,1,1.0000,-0.0000,1.44681,0.22054,-2.78071,0.98934,1.57080,0.00001,-0.14512,-0.38002,0.04322,,,,,,,,,,,,,,,,,,,,,,,,,,0,0,0,0,0
2.5406,1783185174.7002,1,1,1.0000,-0.0000,1.44681,0.22054,-2.78071,0.98934,1.57080,0.00001,-0.14512,-0.38002,0.04322,,,,,,,,,,,,,,,,,,,,,,,,,,0,0,0,0,0
2.5482,1783185174.7078,1,1,1.0000,-0.0000,1.44681,0.22049,-2.78072,0.98940,1.57080,0.00001,-0.14512,-0.38002,0.04321,,,,,,,,,,,,,,,,,,,,,,,,,,0,0,0,0,0
2.5564,1783185174.7160,1,1,1.0000,-0.0000,1.44681,0.22046,-2.78073,0.98943,1.57080,0.00001,-0.14512,-0.38002,0.04320,,,,,,,,,,,,,,,,,,,,,,,,,,0,0,0,0,0
2.5700,1783185174.7296,1,1,1.0000,-0.0000,1.44681,0.22031,-2.78076,0.98962,1.57080,0.00001,-0.14512,-0.38002,0.04317,,,,,,,,,,,,,,,,,,,,,,,,,,0,0,0,0,0
2.5766,1783185174.7362,1,1,1.0000,-0.0000,1.44681,0.22031,-2.78076,0.98962,1.57080,0.00001,-0.14512,-0.38002,0.04317,,,,,,,,,,,,,,,,,,,,,,,,,,0,0,0,0,0
2.5922,1783185174.7518,1,1,1.0000,-0.0000,1.44681,0.22019,-2.78080,0.98977,1.57080,0.00001,-0.14512,-0.38002,0.04314,,,,,,,,,,,,,,,,,,,,,,,,,,0,0,0,0,0
2.5978,1783185174.7574,1,1,1.0000,-0.0000,1.44681,0.22014,-2.78081,0.98984,1.57080,0.00001,-0.14512,-0.38002,0.04312,,,,,,,,,,,,,,,,,,,,,,,,,,0,0,0,0,0
2.5984,1783185174.7580,1,1,1.0000,-0.0000,1.44681,0.22008,-2.78082,0.98990,1.57080,0.00001,-0.14512,-0.38002,0.04311,,,,,,,,,,,,,,,,,,,,,,,,,,0,0,0,0,0
2.6067,1783185174.7663,1,1,1.0000,-0.0000,1.44681,0.22003,-2.78083,0.98997,1.57080,0.00001,-0.14512,-0.38002,0.04309,,,,,,,,,,,,,,,,,,,,,,,,,,0,0,0,0,0
2.6180,1783185174.7776,1,1,1.0000,-0.0000,1.44681,0.21998,-2.78085,0.99003,1.57080,0.00001,-0.14512,-0.38002,0.04308,,,,,,,,,,,,,,,,,,,,,,,,,,0,0,0,0,0
2.6267,1783185174.7863,1,1,1.0000,-0.0000,1.44681,0.21990,-2.78087,0.99013,1.57080,0.00001,-0.14512,-0.38002,0.04306,,,,,,,,,,,,,,,,,,,,,,,,,,0,0,0,0,0
2.6422,1783185174.8018,1,1,1.0000,-0.0000,1.44681,0.21982,-2.78089,0.99023,1.57080,0.00001,-0.14512,-0.38002,0.04304,,,,,,,,,,,,,,,,,,,,,,,,,,0,0,0,0,0
2.6518,1783185174.8113,1,1,1.0000,-0.0000,1.44681,0.21974,-2.78091,0.99034,1.57080,0.00001,-0.14512,-0.38002,0.04302,,,,,,,,,,,,,,,,,,,,,,,,,,0,0,0,0,0
2.6593,1783185174.8188,1,1,1.0000,-0.0000,1.44681,0.21963,-2.78093,0.99047,1.57080,0.00001,-0.14512,-0.38002,0.04299,,,,,,,,,,,,,,,,,,,,,,,,,,0,0,0,0,0
2.6595,1783185174.8191,1,1,1.0000,-0.0000,1.44681,0.21963,-2.78093,0.99047,1.57080,0.00001,-0.14512,-0.38002,0.04299,,,,,,,,,,,,,,,,,,,,,,,,,,0,0,0,0,0
2.6679,1783185174.8275,1,1,1.0000,-0.0000,1.44681,0.21958,-2.78095,0.99054,1.57080,0.00001,-0.14512,-0.38002,0.04298,,,,,,,,,,,,,,,,,,,,,,,,,,0,0,0,0,0
2.6879,1783185174.8474,1,1,1.0000,-0.0000,1.44681,0.21945,-2.78098,0.99070,1.57080,0.00001,-0.14512,-0.38002,0.04295,,,,,,,,,,,,,,,,,,,,,,,,,,0,0,0,0,0
2.6881,1783185174.8477,1,1,1.0000,-0.0000,1.44681,0.21945,-2.78098,0.99070,1.57080,0.00001,-0.14512,-0.38002,0.04295,,,,,,,,,,,,,,,,,,,,,,,,,,0,0,0,0,0
2.7010,1783185174.8606,1,1,1.0000,-0.0000,1.44681,0.21940,-2.78099,0.99076,1.57080,0.00001,-0.14512,-0.38002,0.04293,,,,,,,,,,,,,,,,,,,,,,,,,,0,0,0,0,0
2.7013,1783185174.8609,1,1,1.0000,-0.0000,1.44681,0.21940,-2.78099,0.99076,1.57080,0.00001,-0.14512,-0.38002,0.04293,,,,,,,,,,,,,,,,,,,,,,,,,,0,0,0,0,0
2.7090,1783185174.8685,1,1,1.0000,-0.0000,1.44681,0.21933,-2.78101,0.99084,1.57080,0.00001,-0.14512,-0.38002,0.04291,,,,,,,,,,,,,,,,,,,,,,,,,,0,0,0,0,0
2.7093,1783185174.8689,1,1,1.0000,-0.0000,1.44681,0.21933,-2.78101,0.99084,1.57080,0.00001,-0.14512,-0.38002,0.04291,,,,,,,,,,,,,,,,,,,,,,,,,,0,0,0,0,0
2.7198,1783185174.8793,1,1,1.0000,-0.0000,1.44681,0.21918,-2.78105,0.99104,1.57080,0.00001,-0.14512,-0.38002,0.04288,,,,,,,,,,,,,,,,,,,,,,,,,,0,0,0,0,0
2.7290,1783185174.8886,1,1,1.0000,-0.0000,1.44681,0.21913,-2.78106,0.99110,1.57080,0.00001,-0.14512,-0.38002,0.04286,,,,,,,,,,,,,,,,,,,,,,,,,,0,0,0,0,0
2.7293,1783185174.8889,1,1,1.0000,-0.0000,1.44681,0.21913,-2.78106,0.99110,1.57080,0.00001,-0.14512,-0.38002,0.04286,,,,,,,,,,,,,,,,,,,,,,,,,,0,0,0,0,0
2.7368,1783185174.8964,1,1,1.0000,-0.0000,1.44681,0.21909,-2.78107,0.99114,1.57080,0.00001,-0.14512,-0.38002,0.04285,,,,,,,,,,,,,,,,,,,,,,,,,,0,0,0,0,0
2.7371,1783185174.8967,1,1,1.0000,-0.0000,1.44681,0.21909,-2.78107,0.99114,1.57080,0.00001,-0.14512,-0.38002,0.04285,,,,,,,,,,,,,,,,,,,,,,,,,,0,0,0,0,0
2.7493,1783185174.9089,1,1,1.0000,-0.0000,1.44681,0.21896,-2.78110,0.99131,1.57080,0.00001,-0.14512,-0.38002,0.04282,,,,,,,,,,,,,,,,,,,,,,,,,,0,0,0,0,0
2.7586,1783185174.9181,1,1,1.0000,-0.0000,1.44681,0.21889,-2.78112,0.99139,1.57080,0.00001,-0.14512,-0.38002,0.04280,,,,,,,,,,,,,,,,,,,,,,,,,,0,0,0,0,0
2.7663,1783185174.9259,1,1,1.0000,-0.0000,1.44681,0.21883,-2.78113,0.99147,1.57080,0.00001,-0.14512,-0.38002,0.04279,,,,,,,,,,,,,,,,,,,,,,,,,,0,0,0,0,0
2.7665,1783185174.9261,1,1,1.0000,-0.0000,1.44681,0.21883,-2.78113,0.99147,1.57080,0.00001,-0.14512,-0.38002,0.04279,,,,,,,,,,,,,,,,,,,,,,,,,,0,0,0,0,0
2.7766,1783185174.9361,1,1,1.0000,-0.0000,1.44681,0.21874,-2.78116,0.99159,1.57080,0.00001,-0.14512,-0.38002,0.04276,,,,,,,,,,,,,,,,,,,,,,,,,,0,0,0,0,0
2.7868,1783185174.9463,1,1,1.0000,-0.0000,1.44681,0.21863,-2.78118,0.99172,1.57080,0.00001,-0.14512,-0.38002,0.04274,,,,,,,,,,,,,,,,,,,,,,,,,,0,0,0,0,0
2.7872,1783185174.9467,1,1,1.0000,-0.0000,1.44681,0.21863,-2.78118,0.99172,1.57080,0.00001,-0.14512,-0.38002,0.04274,,,,,,,,,,,,,,,,,,,,,,,,,,0,0,0,0,0
2.8048,1783185174.9644,1,1,1.0000,-0.0000,1.44681,0.21851,-2.78121,0.99186,1.57080,0.00001,-0.14512,-0.38002,0.04270,,,,,,,,,,,,,,,,,,,,,,,,,,0,0,0,0,0
2.8067,1783185174.9663,1,1,1.0000,-0.0000,1.44681,0.21846,-2.78122,0.99193,1.57080,0.00001,-0.14512,-0.38002,0.04269,,,,,,,,,,,,,,,,,,,,,,,,,,0,0,0,0,0
2.8215,1783185174.9811,1,1,1.0000,-0.0000,1.44681,0.21840,-2.78124,0.99201,1.57080,0.00001,-0.14512,-0.38002,0.04268,,,,,,,,,,,,,,,,,,,,,,,,,,0,0,0,0,0
2.8310,1783185174.9906,1,1,1.0000,-0.0000,1.44681,0.21829,-2.78127,0.99214,1.57080,0.00001,-0.14512,-0.38002,0.04265,,,,,,,,,,,,,,,,,,,,,,,,,,0,0,0,0,0
2.8449,1783185175.0045,1,1,1.0000,-0.0000,1.44681,0.21814,-2.78130,0.99234,1.57080,0.00001,-0.14512,-0.38002,0.04261,,,,,,,,,,,,,,,,,,,,,,,,,,0,0,0,0,0
2.8583,1783185175.0178,1,1,1.0000,-0.0000,1.44681,0.21806,-2.78132,0.99242,1.57080,0.00001,-0.14512,-0.38002,0.04259,,,,,,,,,,,,,,,,,,,,,,,,,,0,0,0,0,0
2.8585,1783185175.0181,1,1,1.0000,-0.0000,1.44681,0.21806,-2.78132,0.99242,1.57080,0.00001,-0.14512,-0.38002,0.04259,,,,,,,,,,,,,,,,,,,,,,,,,,0,0,0,0,0
2.8629,1783185175.0224,1,1,1.0000,-0.0000,1.44681,0.21802,-2.78133,0.99248,1.57080,0.00001,-0.14512,-0.38002,0.04258,,,,,,,,,,,,,,,,,,,,,,,,,,0,0,0,0,0
2.8631,1783185175.0227,1,1,1.0000,-0.0000,1.44681,0.21802,-2.78133,0.99248,1.57080,0.00001,-0.14512,-0.38002,0.04258,,,,,,,,,,,,,,,,,,,,,,,,,,0,0,0,0,0
2.8729,1783185175.0325,1,1,1.0000,-0.0000,1.44681,0.21791,-2.78136,0.99261,1.57080,0.00001,-0.14512,-0.38002,0.04255,,,,,,,,,,,,,,,,,,,,,,,,,,0,0,0,0,0
2.8787,1783185175.0382,1,1,1.0000,-0.0000,1.44681,0.21790,-2.78136,0.99262,1.57080,0.00001,-0.14512,-0.38002,0.04255,,,,,,,,,,,,,,,,,,,,,,,,,,0,0,0,0,0
2.9133,1783185175.0729,1,1,1.0000,-0.0000,1.44681,0.21763,-2.78143,0.99296,1.57080,0.00001,-0.14512,-0.38002,0.04248,,,,,,,,,,,,,,,,,,,,,,,,,,0,0,0,0,0
2.9137,1783185175.0733,1,1,1.0000,-0.0000,1.44681,0.21763,-2.78143,0.99296,1.57080,0.00001,-0.14512,-0.38002,0.04248,,,,,,,,,,,,,,,,,,,,,,,,,,0,0,0,0,0
2.9142,1783185175.0737,1,1,1.0000,-0.0000,1.44681,0.21761,-2.78144,0.99300,1.57080,0.00001,-0.14512,-0.38002,0.04247,,,,,,,,,,,,,,,,,,,,,,,,,,0,0,0,0,0
2.9230,1783185175.0826,1,1,1.0000,-0.0000,1.44681,0.21752,-2.78146,0.99310,1.57080,0.00001,-0.14512,-0.38002,0.04245,,,,,,,,,,,,,,,,,,,,,,,,,,0,0,0,0,0
2.9266,1783185175.0862,1,1,1.0000,-0.0000,1.44681,0.21747,-2.78147,0.99316,1.57080,0.00001,-0.14512,-0.38002,0.04244,,,,,,,,,,,,,,,,,,,,,,,,,,0,0,0,0,0
2.9400,1783185175.0995,1,1,1.0000,-0.0000,1.44681,0.21741,-2.78148,0.99324,1.57080,0.00001,-0.14512,-0.38002,0.04242,,,,,,,,,,,,,,,,,,,,,,,,,,0,0,0,0,0
2.9478,1783185175.1074,1,1,1.0000,-0.0000,1.44681,0.21735,-2.78150,0.99332,1.57080,0.00001,-0.14512,-0.38002,0.04241,,,,,,,,,,,,,,,,,,,,,,,,,,0,0,0,0,0
2.9481,1783185175.1077,1,1,1.0000,-0.0000,1.44681,0.21735,-2.78150,0.99332,1.57080,0.00001,-0.14512,-0.38002,0.04241,,,,,,,,,,,,,,,,,,,,,,,,,,0,0,0,0,0
2.9581,1783185175.1177,1,1,1.0000,-0.0000,1.44681,0.21720,-2.78154,0.99351,1.57080,0.00001,-0.14512,-0.38002,0.04237,,,,,,,,,,,,,,,,,,,,,,,,,,0,0,0,0,0
2.9720,1783185175.1316,1,1,1.0000,-0.0000,1.44681,0.21713,-2.78155,0.99358,1.57080,0.00001,-0.14512,-0.38002,0.04235,,,,,,,,,,,,,,,,,,,,,,,,,,0,0,0,0,0
2.9761,1783185175.1357,1,1,1.0000,-0.0000,1.44681,0.21711,-2.78156,0.99361,1.57080,0.00001,-0.14512,-0.38002,0.04235,,,,,,,,,,,,,,,,,,,,,,,,,,0,0,0,0,0
2.9764,1783185175.1360,1,1,1.0000,-0.0000,1.44681,0.21711,-2.78156,0.99361,1.57080,0.00001,-0.14512,-0.38002,0.04235,,,,,,,,,,,,,,,,,,,,,,,,,,0,0,0,0,0
2.9891,1783185175.1487,1,1,1.0000,-0.0000,1.44681,0.21697,-2.78159,0.99378,1.57080,0.00001,-0.14512,-0.38002,0.04231,,,,,,,,,,,,,,,,,,,,,,,,,,0,0,0,0,0
2.9966,1783185175.1562,1,1,1.0000,-0.0000,1.44681,0.21692,-2.78160,0.99385,1.57080,0.00001,-0.14512,-0.38002,0.04230,,,,,,,,,,,,,,,,,,,,,,,,,,0,0,0,0,0
3.0118,1783185175.1714,1,1,1.0000,-0.0000,1.44681,0.21680,-2.78163,0.99400,1.57080,0.00001,-0.14512,-0.38002,0.04227,,,,,,,,,,,,,,,,,,,,,,,,,,0,0,0,0,0
3.0170,1783185175.1766,1,1,1.0000,-0.0000,1.44681,0.21675,-2.78165,0.99406,1.57080,0.00001,-0.14512,-0.38002,0.04225,,,,,,,,,,,,,,,,,,,,,,,,,,0,0,0,0,0
3.0174,1783185175.1770,1,1,1.0000,-0.0000,1.44681,0.21675,-2.78165,0.99406,1.57080,0.00001,-0.14512,-0.38002,0.04225,,,,,,,,,,,,,,,,,,,,,,,,,,0,0,0,0,0
3.0267,1783185175.1862,1,1,1.0000,-0.0000,1.44681,0.21665,-2.78167,0.99419,1.57080,0.00001,-0.14512,-0.38002,0.04223,,,,,,,,,,,,,,,,,,,,,,,,,,0,0,0,0,0
3.0271,1783185175.1867,1,1,1.0000,-0.0000,1.44681,0.21665,-2.78167,0.99419,1.57080,0.00001,-0.14512,-0.38002,0.04223,,,,,,,,,,,,,,,,,,,,,,,,,,0,0,0,0,0
3.0440,1783185175.2036,1,1,1.0000,-0.0000,1.44681,0.21653,-2.78170,0.99434,1.57080,0.00001,-0.14512,-0.38002,0.04220,,,,,,,,,,,,,,,,,,,,,,,,,,0,0,0,0,0
3.0484,1783185175.2080,1,1,1.0000,-0.0000,1.44681,0.21648,-2.78171,0.99440,1.57080,0.00001,-0.14512,-0.38002,0.04218,,,,,,,,,,,,,,,,,,,,,,,,,,0,0,0,0,0
3.0571,1783185175.2166,1,1,1.0000,-0.0000,1.44681,0.21642,-2.78173,0.99447,1.57080,0.00001,-0.14512,-0.38002,0.04217,,,,,,,,,,,,,,,,,,,,,,,,,,0,0,0,0,0
3.0574,1783185175.2170,1,1,1.0000,-0.0000,1.44681,0.21642,-2.78173,0.99447,1.57080,0.00001,-0.14512,-0.38002,0.04217,,,,,,,,,,,,,,,,,,,,,,,,,,0,0,0,0,0
3.0581,1783185175.2176,1,1,1.0000,-0.0000,1.44681,0.21642,-2.78173,0.99448,1.57080,0.00001,-0.14512,-0.38002,0.04217,,,,,,,,,,,,,,,,,,,,,,,,,,0,0,0,0,0
3.0742,1783185175.2338,1,1,1.0000,-0.0000,1.44681,0.21626,-2.78177,0.99468,1.57080,0.00001,-0.14512,-0.38002,0.04213,,,,,,,,,,,,,,,,,,,,,,,,,,0,0,0,0,0
3.0765,1783185175.2360,1,1,1.0000,-0.0000,1.44681,0.21626,-2.78177,0.99468,1.57080,0.00001,-0.14512,-0.38002,0.04213,,,,,,,,,,,,,,,,,,,,,,,,,,0,0,0,0,0
3.0865,1783185175.2461,1,1,1.0000,-0.0000,1.44681,0.21615,-2.78179,0.99481,1.57080,0.00001,-0.14512,-0.38002,0.04210,,,,,,,,,,,,,,,,,,,,,,,,,,0,0,0,0,0
3.0869,1783185175.2465,1,1,1.0000,-0.0000,1.44681,0.21615,-2.78179,0.99481,1.57080,0.00001,-0.14512,-0.38002,0.04210,,,,,,,,,,,,,,,,,,,,,,,,,,0,0,0,0,0
3.0963,1783185175.2559,1,1,1.0000,-0.0000,1.44681,0.21612,-2.78180,0.99485,1.57080,0.00001,-0.14512,-0.38002,0.04209,,,,,,,,,,,,,,,,,,,,,,,,,,0,0,0,0,0
3.0966,1783185175.2562,1,1,1.0000,-0.0000,1.44681,0.21612,-2.78180,0.99485,1.57080,0.00001,-0.14512,-0.38002,0.04209,,,,,,,,,,,,,,,,,,,,,,,,,,0,0,0,0,0
3.1113,1783185175.2709,1,1,1.0000,-0.0000,1.44681,0.21593,-2.78185,0.99509,1.57080,0.00001,-0.14512,-0.38002,0.04204,,,,,,,,,,,,,,,,,,,,,,,,,,0,0,0,0,0
3.1209,1783185175.2804,1,1,1.0000,-0.0000,1.44681,0.21588,-2.78186,0.99515,1.57080,0.00001,-0.14512,-0.38002,0.04203,,,,,,,,,,,,,,,,,,,,,,,,,,0,0,0,0,0
3.1264,1783185175.2860,1,1,1.0000,-0.0000,1.44681,0.21585,-2.78187,0.99518,1.57080,0.00001,-0.14512,-0.38002,0.04202,,,,,,,,,,,,,,,,,,,,,,,,,,0,0,0,0,0
3.1267,1783185175.2863,1,1,1.0000,-0.0000,1.44681,0.21585,-2.78187,0.99518,1.57080,0.00001,-0.14512,-0.38002,0.04202,,,,,,,,,,,,,,,,,,,,,,,,,,0,0,0,0,0
3.1434,1783185175.3030,1,1,1.0000,-0.0000,1.44681,0.21570,-2.78190,0.99537,1.57080,0.00001,-0.14512,-0.38002,0.04199,,,,,,,,,,,,,,,,,,,,,,,,,,0,0,0,0,0
3.1468,1783185175.3064,1,1,1.0000,-0.0000,1.44681,0.21570,-2.78190,0.99537,1.57080,0.00001,-0.14512,-0.38002,0.04199,,,,,,,,,,,,,,,,,,,,,,,,,,0,0,0,0,0
3.1472,1783185175.3068,1,1,1.0000,-0.0000,1.44681,0.21570,-2.78190,0.99537,1.57080,0.00001,-0.14512,-0.38002,0.04199,,,,,,,,,,,,,,,,,,,,,,,,,,0,0,0,0,0
3.1582,1783185175.3178,1,1,1.0000,-0.0000,1.44681,0.21563,-2.78192,0.99546,1.57080,0.00001,-0.14512,-0.38002,0.04197,,,,,,,,,,,,,,,,,,,,,,,,,,0,0,0,0,0
3.1666,1783185175.3261,1,1,1.0000,-0.0000,1.44681,0.21553,-2.78195,0.99559,1.57080,0.00001,-0.14512,-0.38002,0.04194,,,,,,,,,,,,,,,,,,,,,,,,,,0,0,0,0,0
3.1668,1783185175.3264,1,1,1.0000,-0.0000,1.44681,0.21553,-2.78195,0.99559,1.57080,0.00001,-0.14512,-0.38002,0.04194,,,,,,,,,,,,,,,,,,,,,,,,,,0,0,0,0,0
3.1769,1783185175.3364,1,1,1.0000,-0.0000,1.44681,0.21542,-2.78197,0.99572,1.57080,0.00001,-0.14512,-0.38002,0.04191,,,,,,,,,,,,,,,,,,,,,,,,,,0,0,0,0,0
3.1984,1783185175.3580,1,1,1.0000,-0.0000,1.44681,0.21529,-2.78200,0.99588,1.57080,0.00001,-0.14512,-0.38002,0.04188,,,,,,,,,,,,,,,,,,,,,,,,,,0,0,0,0,0
3.1986,1783185175.3582,1,1,1.0000,-0.0000,1.44681,0.21529,-2.78200,0.99588,1.57080,0.00001,-0.14512,-0.38002,0.04188,,,,,,,,,,,,,,,,,,,,,,,,,,0,0,0,0,0
3.2067,1783185175.3663,1,1,1.0000,-0.0000,1.44681,0.21524,-2.78202,0.99594,1.57080,0.00001,-0.14512,-0.38002,0.04187,,,,,,,,,,,,,,,,,,,,,,,,,,0,0,0,0,0
3.2070,1783185175.3666,1,1,1.0000,-0.0000,1.44681,0.21524,-2.78202,0.99594,1.57080,0.00001,-0.14512,-0.38002,0.04187,,,,,,,,,,,,,,,,,,,,,,,,,,0,0,0,0,0
3.2195,1783185175.3791,1,1,1.0000,-0.0000,1.44681,0.21517,-2.78203,0.99603,1.57080,0.00001,-0.14512,-0.38002,0.04185,,,,,,,,,,,,,,,,,,,,,,,,,,0,0,0,0,0
3.2266,1783185175.3861,1,1,1.0000,-0.0000,1.44681,0.21507,-2.78206,0.99616,1.57080,0.00001,-0.14512,-0.38002,0.04183,,,,,,,,,,,,,,,,,,,,,,,,,,0,0,0,0,0
3.2394,1783185175.3990,1,1,1.0000,-0.0000,1.44681,0.21496,-2.78208,0.99629,1.57080,0.00001,-0.14512,-0.38002,0.04180,,,,,,,,,,,,,,,,,,,,,,,,,,0,0,0,0,0
3.2467,1783185175.4063,1,1,1.0000,-0.0000,1.44681,0.21494,-2.78209,0.99632,1.57080,0.00001,-0.14512,-0.38002,0.04179,,,,,,,,,,,,,,,,,,,,,,,,,,0,0,0,0,0
3.2471,1783185175.4067,1,1,1.0000,-0.0000,1.44681,0.21494,-2.78209,0.99632,1.57080,0.00001,-0.14512,-0.38002,0.04179,,,,,,,,,,,,,,,,,,,,,,,,,,0,0,0,0,0
3.2571,1783185175.4166,1,1,1.0000,-0.0000,1.44681,0.21487,-2.78211,0.99640,1.57080,0.00001,-0.14512,-0.38002,0.04178,,,,,,,,,,,,,,,,,,,,,,,,,,0,0,0,0,0
3.2574,1783185175.4169,1,1,1.0000,-0.0000,1.44681,0.21487,-2.78211,0.99640,1.57080,0.00001,-0.14512,-0.38002,0.04178,,,,,,,,,,,,,,,,,,,,,,,,,,0,0,0,0,0
3.2726,1783185175.4322,1,1,1.0000,-0.0000,1.44681,0.21478,-2.78213,0.99652,1.57080,0.00001,-0.14512,-0.38002,0.04175,,,,,,,,,,,,,,,,,,,,,,,,,,0,0,0,0,0
3.2729,1783185175.4325,1,1,1.0000,-0.0000,1.44681,0.21478,-2.78213,0.99652,1.57080,0.00001,-0.14512,-0.38002,0.04175,,,,,,,,,,,,,,,,,,,,,,,,,,0,0,0,0,0
3.2788,1783185175.4383,1,1,1.0000,-0.0000,1.44681,0.21471,-2.78215,0.99660,1.57080,0.00001,-0.14512,-0.38002,0.04173,,,,,,,,,,,,,,,,,,,,,,,,,,0,0,0,0,0
3.2791,1783185175.4386,1,1,1.0000,-0.0000,1.44681,0.21471,-2.78215,0.99660,1.57080,0.00001,-0.14512,-0.38002,0.04173,,,,,,,,,,,,,,,,,,,,,,,,,,0,0,0,0,0
3.2884,1783185175.4480,1,1,1.0000,-0.0000,1.44681,0.21461,-2.78217,0.99672,1.57080,0.00001,-0.14512,-0.38002,0.04171,,,,,,,,,,,,,,,,,,,,,,,,,,0,0,0,0,0
3.2991,1783185175.4586,1,1,1.0000,-0.0000,1.44681,0.21451,-2.78220,0.99686,1.57080,0.00002,-0.14512,-0.38002,0.04168,,,,,,,,,,,,,,,,,,,,,,,,,,0,0,0,0,0
3.3090,1783185175.4686,1,1,1.0000,-0.0000,1.44681,0.21448,-2.78220,0.99689,1.57080,0.00002,-0.14512,-0.38002,0.04168,,,,,,,,,,,,,,,,,,,,,,,,,,0,0,0,0,0
3.3169,1783185175.4765,1,1,1.0000,-0.0000,1.44681,0.21442,-2.78222,0.99697,1.57080,0.00002,-0.14512,-0.38002,0.04166,,,,,,,,,,,,,,,,,,,,,,,,,,0,0,0,0,0
3.3337,1783185175.4933,1,1,1.0000,-0.0000,1.44681,0.21432,-2.78224,0.99709,1.57080,0.00002,-0.14512,-0.38002,0.04163,,,,,,,,,,,,,,,,,,,,,,,,,,0,0,0,0,0
3.3645,1783185175.5241,1,1,1.0000,-0.0000,1.44681,0.21404,-2.78231,0.99743,1.57080,0.00002,-0.14512,-0.38002,0.04156,,,,,,,,,,,,,,,,,,,,,,,,,,0,0,0,0,0
3.3693,1783185175.5289,1,1,1.0000,-0.0000,1.44681,0.21402,-2.78231,0.99746,1.57080,0.00002,-0.14512,-0.38002,0.04156,,,,,,,,,,,,,,,,,,,,,,,,,,0,0,0,0,0
3.3697,1783185175.5292,1,1,1.0000,-0.0000,1.44681,0.21402,-2.78231,0.99746,1.57080,0.00002,-0.14512,-0.38002,0.04156,,,,,,,,,,,,,,,,,,,,,,,,,,0,0,0,0,0
3.3814,1783185175.5409,1,1,1.0000,-0.0000,1.44681,0.21392,-2.78234,0.99759,1.57080,0.00002,-0.14512,-0.38002,0.04153,,,,,,,,,,,,,,,,,,,,,,,,,,0,0,0,0,0
3.3836,1783185175.5432,1,1,1.0000,-0.0000,1.44681,0.21387,-2.78235,0.99764,1.57080,0.00002,-0.14512,-0.38002,0.04152,,,,,,,,,,,,,,,,,,,,,,,,,,0,0,0,0,0
3.3841,1783185175.5436,1,1,1.0000,-0.0000,1.44681,0.21387,-2.78235,0.99764,1.57080,0.00002,-0.14512,-0.38002,0.04152,,,,,,,,,,,,,,,,,,,,,,,,,,0,0,0,0,0
3.3882,1783185175.5478,1,1,1.0000,-0.0000,1.44681,0.21387,-2.78235,0.99764,1.57080,0.00002,-0.14512,-0.38002,0.04152,,,,,,,,,,,,,,,,,,,,,,,,,,0,0,0,0,0
3.3886,1783185175.5482,1,1,1.0000,-0.0000,1.44681,0.21387,-2.78235,0.99764,1.57080,0.00002,-0.14512,-0.38002,0.04152,,,,,,,,,,,,,,,,,,,,,,,,,,0,0,0,0,0
3.4264,1783185175.5860,1,1,1.0000,-0.0000,1.44681,0.21357,-2.78243,0.99803,1.57080,0.00002,-0.14512,-0.38002,0.04144,,,,,,,,,,,,,,,,,,,,,,,,,,0,0,0,0,0
3.4269,1783185175.5864,1,1,1.0000,-0.0000,1.44681,0.21357,-2.78243,0.99803,1.57080,0.00002,-0.14512,-0.38002,0.04144,,,,,,,,,,,,,,,,,,,,,,,,,,0,0,0,0,0
3.4273,1783185175.5868,1,1,1.0000,-0.0000,1.44681,0.21357,-2.78243,0.99803,1.57080,0.00002,-0.14512,-0.38002,0.04144,,,,,,,,,,,,,,,,,,,,,,,,,,0,0,0,0,0
3.4276,1783185175.5872,1,1,1.0000,-0.0000,1.44681,0.21357,-2.78243,0.99803,1.57080,0.00002,-0.14512,-0.38002,0.04144,,,,,,,,,,,,,,,,,,,,,,,,,,0,0,0,0,0
3.4375,1783185175.5971,1,1,1.0000,-0.0000,1.44681,0.21350,-2.78244,0.99810,1.57080,0.00002,-0.14512,-0.38002,0.04143,,,,,,,,,,,,,,,,,,,,,,,,,,0,0,0,0,0
3.4379,1783185175.5974,1,1,1.0000,-0.0000,1.44681,0.21350,-2.78244,0.99810,1.57080,0.00002,-0.14512,-0.38002,0.04143,,,,,,,,,,,,,,,,,,,,,,,,,,0,0,0,0,0
3.4522,1783185175.6118,1,1,1.0000,-0.0000,1.44681,0.21341,-2.78246,0.99822,1.57080,0.00002,-0.14512,-0.38002,0.04140,,,,,,,,,,,,,,,,,,,,,,,,,,0,0,0,0,0
3.4525,1783185175.6121,1,1,1.0000,-0.0000,1.44681,0.21341,-2.78246,0.99822,1.57080,0.00002,-0.14512,-0.38002,0.04140,,,,,,,,,,,,,,,,,,,,,,,,,,0,0,0,0,0
3.4583,1783185175.6179,1,1,1.0000,-0.0000,1.44681,0.21334,-2.78248,0.99830,1.57080,0.00002,-0.14512,-0.38002,0.04139,,,,,,,,,,,,,,,,,,,,,,,,,,0,0,0,0,0
3.4710,1783185175.6306,1,1,1.0000,-0.0000,1.44681,0.21319,-2.78252,0.99850,1.57080,0.00002,-0.14512,-0.38002,0.04135,,,,,,,,,,,,,,,,,,,,,,,,,,0,0,0,0,0
3.4715,1783185175.6310,1,1,1.0000,-0.0000,1.44681,0.21319,-2.78252,0.99850,1.57080,0.00002,-0.14512,-0.38002,0.04135,,,,,,,,,,,,,,,,,,,,,,,,,,0,0,0,0,0
3.4840,1783185175.6436,1,1,1.0000,-0.0000,1.44681,0.21312,-2.78253,0.99857,1.57080,0.00002,-0.14512,-0.38002,0.04133,,,,,,,,,,,,,,,,,,,,,,,,,,0,0,0,0,0
3.4888,1783185175.6484,1,1,1.0000,-0.0000,1.44681,0.21310,-2.78254,0.99861,1.57080,0.00002,-0.14512,-0.38002,0.04132,,,,,,,,,,,,,,,,,,,,,,,,,,0,0,0,0,0
3.4965,1783185175.6561,1,1,1.0000,-0.0000,1.44681,0.21302,-2.78256,0.99871,1.57080,0.00002,-0.14512,-0.38002,0.04130,,,,,,,,,,,,,,,,,,,,,,,,,,0,0,0,0,0
3.4970,1783185175.6566,1,1,1.0000,-0.0000,1.44681,0.21302,-2.78256,0.99871,1.57080,0.00002,-0.14512,-0.38002,0.04130,,,,,,,,,,,,,,,,,,,,,,,,,,0,0,0,0,0
3.5082,1783185175.6678,1,1,1.0000,-0.0000,1.44681,0.21291,-2.78259,0.99884,1.57080,0.00002,-0.14512,-0.38002,0.04128,,,,,,,,,,,,,,,,,,,,,,,,,,0,0,0,0,0
3.5195,1783185175.6791,1,1,1.0000,-0.0000,1.44681,0.21284,-2.78260,0.99893,1.57080,0.00002,-0.14512,-0.38002,0.04126,,,,,,,,,,,,,,,,,,,,,,,,,,0,0,0,0,0
3.5276,1783185175.6872,1,1,1.0000,-0.0000,1.44681,0.21274,-2.78263,0.99905,1.57080,0.00002,-0.14512,-0.38002,0.04123,,,,,,,,,,,,,,,,,,,,,,,,,,0,0,0,0,0
3.5368,1783185175.6964,1,1,1.0000,-0.0000,1.44681,0.21263,-2.78265,0.99918,1.57080,0.00002,-0.14512,-0.38002,0.04121,,,,,,,,,,,,,,,,,,,,,,,,,,0,0,0,0,0
3.5646,1783185175.7242,1,1,1.0000,-0.0000,1.44681,0.21241,-2.78271,0.99946,1.57080,0.00002,-0.14512,-0.38002,0.04115,,,,,,,,,,,,,,,,,,,,,,,,,,0,0,0,0,0
3.5649,1783185175.7245,1,1,1.0000,-0.0000,1.44681,0.21241,-2.78271,0.99946,1.57080,0.00002,-0.14512,-0.38002,0.04115,,,,,,,,,,,,,,,,,,,,,,,,,,0,0,0,0,0
3.5652,1783185175.7248,1,1,1.0000,-0.0000,1.44681,0.21241,-2.78271,0.99946,1.57080,0.00002,-0.14512,-0.38002,0.04115,,,,,,,,,,,,,,,,,,,,,,,,,,0,0,0,0,0
3.5693,1783185175.7289,1,1,1.0000,-0.0000,1.44681,0.21241,-2.78271,0.99946,1.57080,0.00002,-0.14512,-0.38002,0.04115,,,,,,,,,,,,,,,,,,,,,,,,,,0,0,0,0,0
3.5773,1783185175.7369,1,1,1.0000,-0.0000,1.44681,0.21238,-2.78272,0.99950,1.57080,0.00002,-0.14512,-0.38002,0.04114,,,,,,,,,,,,,,,,,,,,,,,,,,0,0,0,0,0
3.5777,1783185175.7372,1,1,1.0000,-0.0000,1.44681,0.21238,-2.78272,0.99950,1.57080,0.00002,-0.14512,-0.38002,0.04114,,,,,,,,,,,,,,,,,,,,,,,,,,0,0,0,0,0
3.6075,1783185175.7671,1,1,1.0000,-0.0000,1.44681,0.21210,-2.78278,0.99985,1.57080,0.00002,-0.14512,-0.38002,0.04107,,,,,,,,,,,,,,,,,,,,,,,,,,0,0,0,0,0
3.6080,1783185175.7676,1,1,1.0000,-0.0000,1.44681,0.21210,-2.78278,0.99985,1.57080,0.00002,-0.14512,-0.38002,0.04107,,,,,,,,,,,,,,,,,,,,,,,,,,0,0,0,0,0
3.6085,1783185175.7681,1,1,1.0000,-0.0000,1.44681,0.21210,-2.78278,0.99985,1.57080,0.00002,-0.14512,-0.38002,0.04107,,,,,,,,,,,,,,,,,,,,,,,,,,0,0,0,0,0
3.6162,1783185175.7758,1,1,1.0000,-0.0000,1.44681,0.21202,-2.78280,0.99995,1.57080,0.00002,-0.14512,-0.38002,0.04105,,,,,,,,,,,,,,,,,,,,,,,,,,0,0,0,0,0
3.6165,1783185175.7761,1,1,1.0000,-0.0000,1.44681,0.21202,-2.78280,0.99995,1.57080,0.00002,-0.14512,-0.38002,0.04105,,,,,,,,,,,,,,,,,,,,,,,,,,0,0,0,0,0
3.6571,1783185175.8167,1,1,1.0000,-0.0000,1.44681,0.21164,-2.78290,1.00043,1.57080,0.00002,-0.14512,-0.38002,0.04095,,,,,,,,,,,,,,,,,,,,,,,,,,0,0,0,0,0
3.6575,1783185175.8170,1,1,1.0000,-0.0000,1.44681,0.21164,-2.78290,1.00043,1.57080,0.00002,-0.14512,-0.38002,0.04095,,,,,,,,,,,,,,,,,,,,,,,,,,0,0,0,0,0
3.6583,1783185175.8179,1,1,1.0000,-0.0000,1.44681,0.21164,-2.78290,1.00043,1.57080,0.00002,-0.14512,-0.38002,0.04095,,,,,,,,,,,,,,,,,,,,,,,,,,0,0,0,0,0
3.6585,1783185175.8181,1,1,1.0000,-0.0000,1.44681,0.21164,-2.78290,1.00043,1.57080,0.00002,-0.14512,-0.38002,0.04095,,,,,,,,,,,,,,,,,,,,,,,,,,0,0,0,0,0
3.6683,1783185175.8279,1,1,1.0000,-0.0000,1.44681,0.21160,-2.78290,1.00047,1.57080,0.00002,-0.14512,-0.38002,0.04094,,,,,,,,,,,,,,,,,,,,,,,,,,0,0,0,0,0
3.6775,1783185175.8371,1,1,1.0000,-0.0000,1.44681,0.21152,-2.78292,1.00057,1.57080,0.00002,-0.14512,-0.38002,0.04092,,,,,,,,,,,,,,,,,,,,,,,,,,0,0,0,0,0
3.6779,1783185175.8375,1,1,1.0000,-0.0000,1.44681,0.21152,-2.78292,1.00057,1.57080,0.00002,-0.14512,-0.38002,0.04092,,,,,,,,,,,,,,,,,,,,,,,,,,0,0,0,0,0
3.6887,1783185175.8483,1,1,1.0000,-0.0000,1.44681,0.21141,-2.78295,1.00070,1.57080,0.00002,-0.14512,-0.38002,0.04090,,,,,,,,,,,,,,,,,,,,,,,,,,0,0,0,0,0
3.6972,1783185175.8567,1,1,1.0000,-0.0000,1.44681,0.21138,-2.78296,1.00075,1.57080,0.00002,-0.14512,-0.38002,0.04089,,,,,,,,,,,,,,,,,,,,,,,,,,0,0,0,0,0
3.7105,1783185175.8701,1,1,1.0000,-0.0000,1.44681,0.21119,-2.78300,1.00098,1.57080,0.00002,-0.14512,-0.38002,0.04084,,,,,,,,,,,,,,,,,,,,,,,,,,0,0,0,0,0
3.7210,1783185175.8805,1,1,1.0000,-0.0000,1.44681,0.21113,-2.78302,1.00105,1.57080,0.00002,-0.14512,-0.38002,0.04083,,,,,,,,,,,,,,,,,,,,,,,,,,0,0,0,0,0
3.7345,1783185175.8941,1,1,1.0000,-0.0000,1.44681,0.21102,-2.78305,1.00119,1.57080,0.00002,-0.14512,-0.38002,0.04080,,,,,,,,,,,,,,,,,,,,,,,,,,0,0,0,0,0
3.7401,1783185175.8997,1,1,1.0000,-0.0000,1.44681,0.21096,-2.78306,1.00126,1.57080,0.00002,-0.14512,-0.38002,0.04078,,,,,,,,,,,,,,,,,,,,,,,,,,0,0,0,0,0
3.7465,1783185175.9061,1,1,1.0000,-0.0000,1.44681,0.21091,-2.78307,1.00133,1.57080,0.00002,-0.14512,-0.38002,0.04077,,,,,,,,,,,,,,,,,,,,,,,,,,0,0,0,0,0
3.7469,1783185175.9064,1,1,1.0000,-0.0000,1.44681,0.21091,-2.78307,1.00133,1.57080,0.00002,-0.14512,-0.38002,0.04077,,,,,,,,,,,,,,,,,,,,,,,,,,0,0,0,0,0
3.7588,1783185175.9184,1,1,1.0000,-0.0000,1.44681,0.21084,-2.78309,1.00141,1.57080,0.00002,-0.14512,-0.38002,0.04075,,,,,,,,,,,,,,,,,,,,,,,,,,0,0,0,0,0
3.7695,1783185175.9291,1,1,1.0000,-0.0000,1.44681,0.21074,-2.78311,1.00154,1.57080,0.00002,-0.14512,-0.38002,0.04073,,,,,,,,,,,,,,,,,,,,,,,,,,0,0,0,0,0
3.7699,1783185175.9295,1,1,1.0000,-0.0000,1.44681,0.21074,-2.78311,1.00154,1.57080,0.00002,-0.14512,-0.38002,0.04073,,,,,,,,,,,,,,,,,,,,,,,,,,0,0,0,0,0
3.7783,1783185175.9379,1,1,1.0000,-0.0000,1.44681,0.21063,-2.78314,1.00167,1.57080,0.00002,-0.14512,-0.38002,0.04070,,,,,,,,,,,,,,,,,,,,,,,,,,0,0,0,0,0
3.7883,1783185175.9479,1,1,1.0000,-0.0000,1.44681,0.21060,-2.78315,1.00171,1.57080,0.00002,-0.14512,-0.38002,0.04069,,,,,,,,,,,,,,,,,,,,,,,,,,0,0,0,0,0
3.7887,1783185175.9482,1,1,1.0000,-0.0000,1.44681,0.21060,-2.78315,1.00171,1.57080,0.00002,-0.14512,-0.38002,0.04069,,,,,,,,,,,,,,,,,,,,,,,,,,0,0,0,0,0
3.7965,1783185175.9561,1,1,1.0000,-0.0000,1.44681,0.21052,-2.78317,1.00182,1.57080,0.00002,-0.14512,-0.38002,0.04067,,,,,,,,,,,,,,,,,,,,,,,,,,0,0,0,0,0
3.7968,1783185175.9564,1,1,1.0000,-0.0000,1.44681,0.21052,-2.78317,1.00182,1.57080,0.00002,-0.14512,-0.38002,0.04067,,,,,,,,,,,,,,,,,,,,,,,,,,0,0,0,0,0
3.8116,1783185175.9712,1,1,1.0000,-0.0000,1.44681,0.21036,-2.78320,1.00201,1.57080,0.00002,-0.14512,-0.38002,0.04063,,,,,,,,,,,,,,,,,,,,,,,,,,0,0,0,0,0
3.8165,1783185175.9761,1,1,1.0000,-0.0000,1.44681,0.21035,-2.78321,1.00202,1.57080,0.00002,-0.14512,-0.38002,0.04063,,,,,,,,,,,,,,,,,,,,,,,,,,0,0,0,0,0
3.8282,1783185175.9878,1,1,1.0000,-0.0000,1.44681,0.21027,-2.78323,1.00212,1.57080,0.00002,-0.14512,-0.38002,0.04061,,,,,,,,,,,,,,,,,,,,,,,,,,0,0,0,0,0
3.8383,1783185175.9979,1,1,1.0000,-0.0000,1.44681,0.21018,-2.78325,1.00223,1.57080,0.00002,-0.14512,-0.38002,0.04058,,,,,,,,,,,,,,,,,,,,,,,,,,0,0,0,0,0
3.8487,1783185176.0083,1,1,1.0000,-0.0000,1.44681,0.21014,-2.78326,1.00228,1.57080,0.00002,-0.14512,-0.38002,0.04057,,,,,,,,,,,,,,,,,,,,,,,,,,0,0,0,0,0
3.8570,1783185176.0165,1,1,1.0000,-0.0000,1.44681,0.21006,-2.78328,1.00238,1.57080,0.00002,-0.14512,-0.38002,0.04055,,,,,,,,,,,,,,,,,,,,,,,,,,0,0,0,0,0
3.8573,1783185176.0169,1,1,1.0000,-0.0000,1.44681,0.21006,-2.78328,1.00238,1.57080,0.00002,-0.14512,-0.38002,0.04055,,,,,,,,,,,,,,,,,,,,,,,,,,0,0,0,0,0
3.8685,1783185176.0280,1,1,1.0000,-0.0000,1.44681,0.20990,-2.78332,1.00258,1.57080,0.00002,-0.14512,-0.38002,0.04051,,,,,,,,,,,,,,,,,,,,,,,,,,0,0,0,0,0
3.8814,1783185176.0410,1,1,1.0000,-0.0000,1.44681,0.20987,-2.78332,1.00262,1.57080,0.00002,-0.14512,-0.38002,0.04051,,,,,,,,,,,,,,,,,,,,,,,,,,0,0,0,0,0
3.8967,1783185176.0563,1,1,1.0000,-0.0000,1.44680,0.20972,-2.78336,1.00280,1.57080,0.00002,-0.14512,-0.38002,0.04047,,,,,,,,,,,,,,,,,,,,,,,,,,0,0,0,0,0
3.8971,1783185176.0567,1,1,1.0000,-0.0000,1.44680,0.20972,-2.78336,1.00280,1.57080,0.00002,-0.14512,-0.38002,0.04047,,,,,,,,,,,,,,,,,,,,,,,,,,0,0,0,0,0
3.9015,1783185176.0611,1,1,1.0000,-0.0000,1.44680,0.20972,-2.78336,1.00280,1.57080,0.00002,-0.14512,-0.38002,0.04047,,,,,,,,,,,,,,,,,,,,,,,,,,0,0,0,0,0
3.9019,1783185176.0614,1,1,1.0000,-0.0000,1.44680,0.20972,-2.78336,1.00280,1.57080,0.00002,-0.14512,-0.38002,0.04047,,,,,,,,,,,,,,,,,,,,,,,,,,0,0,0,0,0
3.9144,1783185176.0740,1,1,1.0000,-0.0000,1.44680,0.20960,-2.78339,1.00295,1.57080,0.00002,-0.14512,-0.38002,0.04044,,,,,,,,,,,,,,,,,,,,,,,,,,0,0,0,0,0
3.9296,1783185176.0892,1,1,1.0000,-0.0000,1.44680,0.20944,-2.78343,1.00316,1.57079,0.00002,-0.14512,-0.38002,0.04040,,,,,,,,,,,,,,,,,,,,,,,,,,0,0,0,0,0
3.9300,1783185176.0896,1,1,1.0000,-0.0000,1.44680,0.20944,-2.78343,1.00316,1.57079,0.00002,-0.14512,-0.38002,0.04040,,,,,,,,,,,,,,,,,,,,,,,,,,0,0,0,0,0
3.9387,1783185176.0983,1,1,1.0000,-0.0000,1.44680,0.20941,-2.78343,1.00319,1.57079,0.00002,-0.14512,-0.38002,0.04039,,,,,,,,,,,,,,,,,,,,,,,,,,0,0,0,0,0
3.9392,1783185176.0988,1,1,1.0000,-0.0000,1.44680,0.20941,-2.78343,1.00319,1.57079,0.00002,-0.14512,-0.38002,0.04039,,,,,,,,,,,,,,,,,,,,,,,,,,0,0,0,0,0
3.9467,1783185176.1062,1,1,1.0000,-0.0000,1.44680,0.20935,-2.78345,1.00327,1.57079,0.00002,-0.14512,-0.38002,0.04037,,,,,,,,,,,,,,,,,,,,,,,,,,0,0,0,0,0
3.9470,1783185176.1065,1,1,1.0000,-0.0000,1.44680,0.20935,-2.78345,1.00327,1.57079,0.00002,-0.14512,-0.38002,0.04037,,,,,,,,,,,,,,,,,,,,,,,,,,0,0,0,0,0
3.9574,1783185176.1170,1,1,1.0000,-0.0000,1.44680,0.20926,-2.78347,1.00337,1.57079,0.00002,-0.14512,-0.38002,0.04035,,,,,,,,,,,,,,,,,,,,,,,,,,0,0,0,0,0
3.9705,1783185176.1301,1,1,1.0000,-0.0000,1.44680,0.20919,-2.78349,1.00347,1.57079,0.00002,-0.14512,-0.38002,0.04033,,,,,,,,,,,,,,,,,,,,,,,,,,0,0,0,0,0
3.9773,1783185176.1369,1,1,1.0000,-0.0000,1.44680,0.20914,-2.78350,1.00353,1.57079,0.00002,-0.14512,-0.38002,0.04032,,,,,,,,,,,,,,,,,,,,,,,,,,0,0,0,0,0
3.9899,1783185176.1495,1,1,1.0000,-0.0000,1.44680,0.20898,-2.78354,1.00373,1.57079,0.00002,-0.14512,-0.38002,0.04028,,,,,,,,,,,,,,,,,,,,,,,,,,0,0,0,0,0
3.9968,1783185176.1564,1,1,1.0000,-0.0000,1.44680,0.20897,-2.78354,1.00373,1.57079,0.00002,-0.14512,-0.38002,0.04028,,,,,,,,,,,,,,,,,,,,,,,,,,0,0,0,0,0
4.0115,1783185176.1711,1,1,1.0000,-0.0000,1.44680,0.20885,-2.78357,1.00389,1.57079,0.00002,-0.14512,-0.38002,0.04025,,,,,,,,,,,,,,,,,,,,,,,,,,0,0,0,0,0
4.0167,1783185176.1763,1,1,1.0000,-0.0000,1.44680,0.20880,-2.78358,1.00394,1.57079,0.00002,-0.14512,-0.38002,0.04024,,,,,,,,,,,,,,,,,,,,,,,,,,0,0,0,0,0
4.0325,1783185176.1921,1,1,1.0000,-0.0000,1.44680,0.20874,-2.78359,1.00402,1.57079,0.00002,-0.14512,-0.38002,0.04022,,,,,,,,,,,,,,,,,,,,,,,,,,0,0,0,0,0
4.0369,1783185176.1965,1,1,1.0000,-0.0000,1.44680,0.20870,-2.78360,1.00407,1.57079,0.00002,-0.14512,-0.38002,0.04021,,,,,,,,,,,,,,,,,,,,,,,,,,0,0,0,0,0
4.0472,1783185176.2068,1,1,1.0000,-0.0000,1.44680,0.20856,-2.78364,1.00425,1.57079,0.00002,-0.14512,-0.38002,0.04017,,,,,,,,,,,,,,,,,,,,,,,,,,0,0,0,0,0
4.0602,1783185176.2198,1,1,1.0000,-0.0000,1.44680,0.20853,-2.78364,1.00428,1.57079,0.00002,-0.14512,-0.38002,0.04017,,,,,,,,,,,,,,,,,,,,,,,,,,0,0,0,0,0
4.0678,1783185176.2274,1,1,1.0000,-0.0000,1.44680,0.20846,-2.78366,1.00436,1.57079,0.00002,-0.14512,-0.38002,0.04015,,,,,,,,,,,,,,,,,,,,,,,,,,0,0,0,0,0
4.0814,1783185176.2410,1,1,1.0000,-0.0000,1.44680,0.20837,-2.78368,1.00448,1.57079,0.00002,-0.14512,-0.38002,0.04013,,,,,,,,,,,,,,,,,,,,,,,,,,0,0,0,0,0
4.0883,1783185176.2479,1,1,1.0000,-0.0000,1.44680,0.20834,-2.78369,1.00452,1.57079,0.00002,-0.14512,-0.38002,0.04012,,,,,,,,,,,,,,,,,,,,,,,,,,0,0,0,0,0
4.0986,1783185176.2582,1,1,1.0000,-0.0000,1.44680,0.20820,-2.78372,1.00469,1.57079,0.00002,-0.14512,-0.38002,0.04008,,,,,,,,,,,,,,,,,,,,,,,,,,0,0,0,0,0
4.1073,1783185176.2669,1,1,1.0000,-0.0000,1.44680,0.20809,-2.78375,1.00483,1.57079,0.00002,-0.14512,-0.38002,0.04006,,,,,,,,,,,,,,,,,,,,,,,,,,0,0,0,0,0
4.1167,1783185176.2763,1,1,1.0000,-0.0000,1.44680,0.20808,-2.78375,1.00484,1.57079,0.00002,-0.14512,-0.38002,0.04005,,,,,,,,,,,,,,,,,,,,,,,,,,0,0,0,0,0
4.1285,1783185176.2881,1,1,1.0000,-0.0000,1.44680,0.20800,-2.78377,1.00494,1.57079,0.00002,-0.14512,-0.38002,0.04003,,,,,,,,,,,,,,,,,,,,,,,,,,0,0,0,0,0
4.1366,1783185176.2962,1,1,1.0000,-0.0000,1.44680,0.20791,-2.78379,1.00505,1.57079,0.00002,-0.14512,-0.38002,0.04001,,,,,,,,,,,,,,,,,,,,,,,,,,0,0,0,0,0
4.1481,1783185176.3077,1,1,1.0000,-0.0000,1.44680,0.20788,-2.78380,1.00509,1.57079,0.00002,-0.14512,-0.38002,0.04000,,,,,,,,,,,,,,,,,,,,,,,,,,0,0,0,0,0
4.1607,1783185176.3203,1,1,1.0000,-0.0000,1.44680,0.20773,-2.78383,1.00527,1.57079,0.00002,-0.14512,-0.38002,0.03997,,,,,,,,,,,,,,,,,,,,,,,,,,0,0,0,0,0
4.1610,1783185176.3206,1,1,1.0000,-0.0000,1.44680,0.20773,-2.78383,1.00527,1.57079,0.00002,-0.14512,-0.38002,0.03997,,,,,,,,,,,,,,,,,,,,,,,,,,0,0,0,0,0
4.1672,1783185176.3268,1,1,1.0000,-0.0000,1.44680,0.20763,-2.78386,1.00540,1.57079,0.00002,-0.14512,-0.38002,0.03994,,,,,,,,,,,,,,,,,,,,,,,,,,0,0,0,0,0
4.1676,1783185176.3272,1,1,1.0000,-0.0000,1.44680,0.20763,-2.78386,1.00540,1.57079,0.00002,-0.14512,-0.38002,0.03994,,,,,,,,,,,,,,,,,,,,,,,,,,0,0,0,0,0
4.1792,1783185176.3388,1,1,1.0000,-0.0000,1.44680,0.20760,-2.78387,1.00543,1.57079,0.00002,-0.14512,-0.38002,0.03993,,,,,,,,,,,,,,,,,,,,,,,,,,0,0,0,0,0
4.1913,1783185176.3509,1,1,1.0000,-0.0000,1.44680,0.20750,-2.78389,1.00556,1.57079,0.00002,-0.14512,-0.38002,0.03991,,,,,,,,,,,,,,,,,,,,,,,,,,0,0,0,0,0
4.2006,1783185176.3602,1,1,1.0000,-0.0000,1.44680,0.20745,-2.78390,1.00562,1.57079,0.00002,-0.14512,-0.38002,0.03989,,,,,,,,,,,,,,,,,,,,,,,,,,0,0,0,0,0
4.2111,1783185176.3707,1,1,1.0000,-0.0000,1.44680,0.20737,-2.78392,1.00571,1.57079,0.00002,-0.14512,-0.38002,0.03988,,,,,,,,,,,,,,,,,,,,,,,,,,0,0,0,0,0
4.2114,1783185176.3710,1,1,1.0000,-0.0000,1.44680,0.20737,-2.78392,1.00571,1.57079,0.00002,-0.14512,-0.38002,0.03988,,,,,,,,,,,,,,,,,,,,,,,,,,0,0,0,0,0
4.2179,1783185176.3775,1,1,1.0000,-0.0000,1.44680,0.20733,-2.78393,1.00577,1.57079,0.00002,-0.14512,-0.38002,0.03986,,,,,,,,,,,,,,,,,,,,,,,,,,0,0,0,0,0
4.2268,1783185176.3863,1,1,1.0000,-0.0000,1.44680,0.20716,-2.78397,1.00597,1.57079,0.00002,-0.14512,-0.38002,0.03982,,,,,,,,,,,,,,,,,,,,,,,,,,0,0,0,0,0
4.2426,1783185176.4022,1,1,1.0000,-0.0000,1.44680,0.20709,-2.78399,1.00606,1.57079,0.00002,-0.14512,-0.38002,0.03980,,,,,,,,,,,,,,,,,,,,,,,,,,0,0,0,0,0
4.2467,1783185176.4063,1,1,1.0000,-0.0000,1.44680,0.20705,-2.78400,1.00612,1.57079,0.00002,-0.14512,-0.38002,0.03979,,,,,,,,,,,,,,,,,,,,,,,,,,0,0,0,0,0
4.2564,1783185176.4160,1,1,1.0000,-0.0000,1.44680,0.20694,-2.78403,1.00625,1.57079,0.00002,-0.14512,-0.38002,0.03977,,,,,,,,,,,,,,,,,,,,,,,,,,0,0,0,0,0
4.2568,1783185176.4164,1,1,1.0000,-0.0000,1.44680,0.20694,-2.78403,1.00625,1.57079,0.00002,-0.14512,-0.38002,0.03977,,,,,,,,,,,,,,,,,,,,,,,,,,0,0,0,0,0
4.2664,1783185176.4260,1,1,1.0000,-0.0000,1.44680,0.20690,-2.78403,1.00629,1.57079,0.00002,-0.14512,-0.38002,0.03976,,,,,,,,,,,,,,,,,,,,,,,,,,0,0,0,0,0
4.2818,1783185176.4414,1,1,1.0000,-0.0000,1.44680,0.20677,-2.78407,1.00646,1.57079,0.00002,-0.14512,-0.38002,0.03972,,,,,,,,,,,,,,,,,,,,,,,,,,0,0,0,0,0
4.2920,1783185176.4515,1,1,1.0000,-0.0000,1.44680,0.20666,-2.78409,1.00659,1.57079,0.00002,-0.14512,-0.38002,0.03970,,,,,,,,,,,,,,,,,,,,,,,,,,0,0,0,0,0
4.2967,1783185176.4562,1,1,1.0000,-0.0000,1.44680,0.20665,-2.78409,1.00660,1.57079,0.00002,-0.14512,-0.38002,0.03969,,,,,,,,,,,,,,,,,,,,,,,,,,0,0,0,0,0
4.2972,1783185176.4568,1,1,1.0000,-0.0000,1.44680,0.20665,-2.78409,1.00660,1.57079,0.00002,-0.14512,-0.38002,0.03969,,,,,,,,,,,,,,,,,,,,,,,,,,0,0,0,0,0
4.3074,1783185176.4670,1,1,1.0000,-0.0000,1.44680,0.20661,-2.78410,1.00666,1.57079,0.00002,-0.14512,-0.38002,0.03968,,,,,,,,,,,,,,,,,,,,,,,,,,0,0,0,0,0
4.3209,1783185176.4805,1,1,1.0000,-0.0000,1.44680,0.20648,-2.78413,1.00681,1.57079,0.00002,-0.14512,-0.38002,0.03965,,,,,,,,,,,,,,,,,,,,,,,,,,0,0,0,0,0
4.3281,1783185176.4876,1,1,1.0000,-0.0000,1.44680,0.20645,-2.78414,1.00686,1.57079,0.00002,-0.14512,-0.38002,0.03964,,,,,,,,,,,,,,,,,,,,,,,,,,0,0,0,0,0
4.3403,1783185176.4999,1,1,1.0000,-0.0000,1.44680,0.20631,-2.78418,1.00703,1.57079,0.00002,-0.14512,-0.38002,0.03961,,,,,,,,,,,,,,,,,,,,,,,,,,0,0,0,0,0
4.3466,1783185176.5061,1,1,1.0000,-0.0000,1.44680,0.20620,-2.78420,1.00717,1.57079,0.00002,-0.14512,-0.38002,0.03958,,,,,,,,,,,,,,,,,,,,,,,,,,0,0,0,0,0
4.3469,1783185176.5065,1,1,1.0000,-0.0000,1.44680,0.20620,-2.78420,1.00717,1.57079,0.00002,-0.14512,-0.38002,0.03958,,,,,,,,,,,,,,,,,,,,,,,,,,0,0,0,0,0
4.3591,1783185176.5187,1,1,1.0000,-0.0000,1.44680,0.20616,-2.78421,1.00721,1.57079,0.00002,-0.14512,-0.38002,0.03957,,,,,,,,,,,,,,,,,,,,,,,,,,0,0,0,0,0
4.3766,1783185176.5362,1,1,1.0000,-0.0000,1.44680,0.20597,-2.78426,1.00745,1.57079,0.00002,-0.14512,-0.38002,0.03952,,,,,,,,,,,,,,,,,,,,,,,,,,0,0,0,0,0
4.3813,1783185176.5409,1,1,1.0000,-0.0000,1.44680,0.20597,-2.78426,1.00745,1.57079,0.00002,-0.14512,-0.38002,0.03952,,,,,,,,,,,,,,,,,,,,,,,,,,0,0,0,0,0
4.3945,1783185176.5541,1,1,1.0000,-0.0000,1.44680,0.20585,-2.78428,1.00760,1.57079,0.00002,-0.14512,-0.38002,0.03949,,,,,,,,,,,,,,,,,,,,,,,,,,0,0,0,0,0
4.4116,1783185176.5712,1,1,1.0000,-0.0000,1.44680,0.20569,-2.78432,1.00779,1.57079,0.00002,-0.14512,-0.38002,0.03945,,,,,,,,,,,,,,,,,,,,,,,,,,0,0,0,0,0
4.4171,1783185176.5767,1,1,1.0000,-0.0000,1.44680,0.20568,-2.78432,1.00780,1.57079,0.00002,-0.14512,-0.38002,0.03945,,,,,,,,,,,,,,,,,,,,,,,,,,0,0,0,0,0
4.4221,1783185176.5817,1,1,1.0000,-0.0000,1.44680,0.20566,-2.78433,1.00784,1.57079,0.00002,-0.14512,-0.38002,0.03944,,,,,,,,,,,,,,,,,,,,,,,,,,0,0,0,0,0
4.4308,1783185176.5904,1,1,1.0000,-0.0000,1.44680,0.20552,-2.78436,1.00801,1.57079,0.00002,-0.14512,-0.38002,0.03941,,,,,,,,,,,,,,,,,,,,,,,,,,0,0,0,0,0
4.4311,1783185176.5907,1,1,1.0000,-0.0000,1.44680,0.20552,-2.78436,1.00801,1.57079,0.00002,-0.14512,-0.38002,0.03941,,,,,,,,,,,,,,,,,,,,,,,,,,0,0,0,0,0
4.4708,1783185176.6303,1,1,1.0000,-0.0000,1.44680,0.20519,-2.78444,1.00842,1.57079,0.00002,-0.14512,-0.38002,0.03933,,,,,,,,,,,,,,,,,,,,,,,,,,0,0,0,0,0
4.4712,1783185176.6308,1,1,1.0000,-0.0000,1.44680,0.20519,-2.78444,1.00842,1.57079,0.00002,-0.14512,-0.38002,0.03933,,,,,,,,,,,,,,,,,,,,,,,,,,0,0,0,0,0
4.4778,1783185176.6374,1,1,1.0000,-0.0000,1.44680,0.20518,-2.78444,1.00843,1.57079,0.00002,-0.14512,-0.38002,0.03932,,,,,,,,,,,,,,,,,,,,,,,,,,0,0,0,0,0
4.4784,1783185176.6380,1,1,1.0000,-0.0000,1.44680,0.20515,-2.78445,1.00846,1.57079,0.00002,-0.14512,-0.38002,0.03932,,,,,,,,,,,,,,,,,,,,,,,,,,0,0,0,0,0
4.4884,1783185176.6479,1,1,1.0000,-0.0000,1.44680,0.20507,-2.78447,1.00857,1.57079,0.00002,-0.14512,-0.38002,0.03930,,,,,,,,,,,,,,,,,,,,,,,,,,0,0,0,0,0
4.4895,1783185176.6491,1,1,1.0000,-0.0000,1.44680,0.20507,-2.78447,1.00857,1.57079,0.00002,-0.14512,-0.38002,0.03930,,,,,,,,,,,,,,,,,,,,,,,,,,0,0,0,0,0
4.5067,1783185176.6663,1,1,1.0000,-0.0000,1.44680,0.20493,-2.78450,1.00874,1.57079,0.00002,-0.14512,-0.38002,0.03926,,,,,,,,,,,,,,,,,,,,,,,,,,0,0,0,0,0
4.5204,1783185176.6800,1,1,1.0000,-0.0000,1.44680,0.20479,-2.78454,1.00891,1.57079,0.00002,-0.14512,-0.38002,0.03923,,,,,,,,,,,,,,,,,,,,,,,,,,0,0,0,0,0
4.5207,1783185176.6803,1,1,1.0000,-0.0000,1.44680,0.20479,-2.78454,1.00891,1.57079,0.00002,-0.14512,-0.38002,0.03923,,,,,,,,,,,,,,,,,,,,,,,,,,0,0,0,0,0
4.5269,1783185176.6865,1,1,1.0000,-0.0000,1.44680,0.20468,-2.78456,1.00904,1.57079,0.00002,-0.14512,-0.38002,0.03920,,,,,,,,,,,,,,,,,,,,,,,,,,0,0,0,0,0
4.5273,1783185176.6869,1,1,1.0000,-0.0000,1.44680,0.20468,-2.78456,1.00904,1.57079,0.00002,-0.14512,-0.38002,0.03920,,,,,,,,,,,,,,,,,,,,,,,,,,0,0,0,0,0
4.5366,1783185176.6962,1,1,1.0000,-0.0000,1.44680,0.20468,-2.78456,1.00905,1.57079,0.00002,-0.14512,-0.38002,0.03920,,,,,,,,,,,,,,,,,,,,,,,,,,0,0,0,0,0
4.5467,1783185176.7063,1,1,1.0000,-0.0000,1.44680,0.20456,-2.78459,1.00919,1.57079,0.00002,-0.14512,-0.38002,0.03917,,,,,,,,,,,,,,,,,,,,,,,,,,0,0,0,0,0
4.5565,1783185176.7160,1,1,1.0000,-0.0000,1.44680,0.20446,-2.78462,1.00932,1.57079,0.00002,-0.14512,-0.38002,0.03914,,,,,,,,,,,,,,,,,,,,,,,,,,0,0,0,0,0
4.5706,1783185176.7302,1,1,1.0000,-0.0000,1.44680,0.20438,-2.78463,1.00942,1.57079,0.00002,-0.14512,-0.38002,0.03912,,,,,,,,,,,,,,,,,,,,,,,,,,0,0,0,0,0
4.5778,1783185176.7374,1,1,1.0000,-0.0000,1.44680,0.20435,-2.78464,1.00945,1.57079,0.00002,-0.14512,-0.38002,0.03912,,,,,,,,,,,,,,,,,,,,,,,,,,0,0,0,0,0
4.5785,1783185176.7381,1,1,1.0000,-0.0000,1.44680,0.20431,-2.78465,1.00950,1.57079,0.00002,-0.14512,-0.38002,0.03911,,,,,,,,,,,,,,,,,,,,,,,,,,0,0,0,0,0
4.5891,1783185176.7487,1,1,1.0000,-0.0000,1.44680,0.20423,-2.78467,1.00961,1.57079,0.00002,-0.14512,-0.38002,0.03908,,,,,,,,,,,,,,,,,,,,,,,,,,0,0,0,0,0
4.5894,1783185176.7490,1,1,1.0000,-0.0000,1.44680,0.20423,-2.78467,1.00961,1.57079,0.00002,-0.14512,-0.38002,0.03908,,,,,,,,,,,,,,,,,,,,,,,,,,0,0,0,0,0
4.5968,1783185176.7564,1,1,1.0000,-0.0000,1.44680,0.20422,-2.78467,1.00962,1.57079,0.00002,-0.14512,-0.38002,0.03908,,,,,,,,,,,,,,,,,,,,,,,,,,0,0,0,0,0
4.5973,1783185176.7569,1,1,1.0000,-0.0000,1.44680,0.20422,-2.78467,1.00962,1.57079,0.00002,-0.14512,-0.38002,0.03908,,,,,,,,,,,,,,,,,,,,,,,,,,0,0,0,0,0
4.6120,1783185176.7715,1,1,1.0000,-0.0000,1.44680,0.20405,-2.78471,1.00983,1.57079,0.00002,-0.14512,-0.38002,0.03904,,,,,,,,,,,,,,,,,,,,,,,,,,0,0,0,0,0
4.6175,1783185176.7771,1,1,1.0000,-0.0000,1.44680,0.20399,-2.78473,1.00990,1.57079,0.00002,-0.14512,-0.38002,0.03903,,,,,,,,,,,,,,,,,,,,,,,,,,0,0,0,0,0
4.6295,1783185176.7891,1,1,1.0000,-0.0000,1.44680,0.20393,-2.78474,1.00997,1.57079,0.00002,-0.14512,-0.38002,0.03901,,,,,,,,,,,,,,,,,,,,,,,,,,0,0,0,0,0
4.6362,1783185176.7958,1,1,1.0000,-0.0000,1.44680,0.20389,-2.78475,1.01003,1.57079,0.00002,-0.14512,-0.38002,0.03900,,,,,,,,,,,,,,,,,,,,,,,,,,0,0,0,0,0
4.6366,1783185176.7961,1,1,1.0000,-0.0000,1.44680,0.20389,-2.78475,1.01003,1.57079,0.00002,-0.14512,-0.38002,0.03900,,,,,,,,,,,,,,,,,,,,,,,,,,0,0,0,0,0
4.6492,1783185176.8087,1,1,1.0000,-0.0000,1.44680,0.20376,-2.78478,1.01018,1.57079,0.00002,-0.14512,-0.38002,0.03897,,,,,,,,,,,,,,,,,,,,,,,,,,0,0,0,0,0
4.6495,1783185176.8091,1,1,1.0000,-0.0000,1.44680,0.20376,-2.78478,1.01018,1.57079,0.00002,-0.14512,-0.38002,0.03897,,,,,,,,,,,,,,,,,,,,,,,,,,0,0,0,0,0
4.6608,1783185176.8204,1,1,1.0000,-0.0000,1.44680,0.20373,-2.78479,1.01023,1.57079,0.00002,-0.14512,-0.38002,0.03896,,,,,,,,,,,,,,,,,,,,,,,,,,0,0,0,0,0
4.6669,1783185176.8265,1,1,1.0000,-0.0000,1.44680,0.20364,-2.78481,1.01033,1.57079,0.00002,-0.14512,-0.38002,0.03894,,,,,,,,,,,,,,,,,,,,,,,,,,0,0,0,0,0
4.6671,1783185176.8267,1,1,1.0000,-0.0000,1.44680,0.20364,-2.78481,1.01033,1.57079,0.00002,-0.14512,-0.38002,0.03894,,,,,,,,,,,,,,,,,,,,,,,,,,0,0,0,0,0
4.6804,1783185176.8400,1,1,1.0000,-0.0000,1.44680,0.20348,-2.78485,1.01054,1.57079,0.00002,-0.14512,-0.38002,0.03890,,,,,,,,,,,,,,,,,,,,,,,,,,0,0,0,0,0
4.6908,1783185176.8504,1,1,1.0000,-0.0000,1.44680,0.20345,-2.78485,1.01057,1.57079,0.00002,-0.14512,-0.38002,0.03889,,,,,,,,,,,,,,,,,,,,,,,,,,0,0,0,0,0
4.7018,1783185176.8614,1,1,1.0000,-0.0000,1.44680,0.20339,-2.78487,1.01065,1.57079,0.00002,-0.14512,-0.38002,0.03887,,,,,,,,,,,,,,,,,,,,,,,,,,0,0,0,0,0
4.7129,1783185176.8724,1,1,1.0000,-0.0000,1.44680,0.20330,-2.78489,1.01075,1.57079,0.00002,-0.14512,-0.38002,0.03885,,,,,,,,,,,,,,,,,,,,,,,,,,0,0,0,0,0
4.7133,1783185176.8729,1,1,1.0000,-0.0000,1.44680,0.20330,-2.78489,1.01075,1.57079,0.00002,-0.14512,-0.38002,0.03885,,,,,,,,,,,,,,,,,,,,,,,,,,0,0,0,0,0
4.7226,1783185176.8822,1,1,1.0000,-0.0000,1.44680,0.20322,-2.78491,1.01085,1.57079,0.00002,-0.14512,-0.38002,0.03883,,,,,,,,,,,,,,,,,,,,,,,,,,0,0,0,0,0
4.7300,1783185176.8895,1,1,1.0000,-0.0000,1.44680,0.20317,-2.78492,1.01091,1.57079,0.00002,-0.14512,-0.38002,0.03882,,,,,,,,,,,,,,,,,,,,,,,,,,0,0,0,0,0
4.7417,1783185176.9013,1,1,1.0000,-0.0000,1.44680,0.20301,-2.78496,1.01111,1.57079,0.00002,-0.14512,-0.38002,0.03878,,,,,,,,,,,,,,,,,,,,,,,,,,0,0,0,0,0
4.7494,1783185176.9089,1,1,1.0000,-0.0000,1.44680,0.20300,-2.78496,1.01112,1.57079,0.00002,-0.14512,-0.38002,0.03878,,,,,,,,,,,,,,,,,,,,,,,,,,0,0,0,0,0
4.7496,1783185176.9092,1,1,1.0000,-0.0000,1.44680,0.20300,-2.78496,1.01112,1.57079,0.00002,-0.14512,-0.38002,0.03878,,,,,,,,,,,,,,,,,,,,,,,,,,0,0,0,0,0
4.7608,1783185176.9204,1,1,1.0000,-0.0000,1.44680,0.20292,-2.78498,1.01122,1.57079,0.00002,-0.14512,-0.38002,0.03876,,,,,,,,,,,,,,,,,,,,,,,,,,0,0,0,0,0
4.7722,1783185176.9318,1,1,1.0000,-0.0000,1.44680,0.20283,-2.78500,1.01133,1.57079,0.00002,-0.14512,-0.38002,0.03874,,,,,,,,,,,,,,,,,,,,,,,,,,0,0,0,0,0
4.7930,1783185176.9526,1,1,1.0000,-0.0000,1.44680,0.20266,-2.78504,1.01155,1.57079,0.00002,-0.14512,-0.38002,0.03869,,,,,,,,,,,,,,,,,,,,,,,,,,0,0,0,0,0
4.7934,1783185176.9530,1,1,1.0000,-0.0000,1.44680,0.20266,-2.78504,1.01155,1.57079,0.00002,-0.14512,-0.38002,0.03869,,,,,,,,,,,,,,,,,,,,,,,,,,0,0,0,0,0
4.8058,1783185176.9654,1,1,1.0000,-0.0000,1.44680,0.20255,-2.78507,1.01168,1.57079,0.00002,-0.14512,-0.38002,0.03866,,,,,,,,,,,,,,,,,,,,,,,,,,0,0,0,0,0
4.8168,1783185176.9764,1,1,1.0000,-0.0000,1.44680,0.20249,-2.78508,1.01175,1.57079,0.00002,-0.14512,-0.38002,0.03865,,,,,,,,,,,,,,,,,,,,,,,,,,0,0,0,0,0
4.8200,1783185176.9795,1,1,1.0000,-0.0000,1.44680,0.20246,-2.78509,1.01179,1.57079,0.00002,-0.14512,-0.38002,0.03864,,,,,,,,,,,,,,,,,,,,,,,,,,0,0,0,0,0
4.8324,1783185176.9920,1,1,1.0000,-0.0000,1.44680,0.20237,-2.78511,1.01190,1.57079,0.00002,-0.14512,-0.38002,0.03862,,,,,,,,,,,,,,,,,,,,,,,,,,0,0,0,0,0
4.8396,1783185176.9991,1,1,1.0000,-0.0000,1.44680,0.20233,-2.78512,1.01195,1.57079,0.00002,-0.14512,-0.38002,0.03861,,,,,,,,,,,,,,,,,,,,,,,,,,0,0,0,0,0
4.8398,1783185176.9994,1,1,1.0000,-0.0000,1.44680,0.20233,-2.78512,1.01195,1.57079,0.00002,-0.14512,-0.38002,0.03861,,,,,,,,,,,,,,,,,,,,,,,,,,0,0,0,0,0
4.8509,1783185177.0105,1,1,1.0000,-0.0000,1.44680,0.20219,-2.78515,1.01212,1.57079,0.00002,-0.14512,-0.38002,0.03857,,,,,,,,,,,,,,,,,,,,,,,,,,0,0,0,0,0
4.8512,1783185177.0108,1,1,1.0000,-0.0000,1.44680,0.20219,-2.78515,1.01212,1.57079,0.00002,-0.14512,-0.38002,0.03857,,,,,,,,,,,,,,,,,,,,,,,,,,0,0,0,0,0
4.8661,1783185177.0256,1,1,1.0000,-0.0000,1.44680,0.20208,-2.78518,1.01226,1.57079,0.00002,-0.14512,-0.38002,0.03855,,,,,,,,,,,,,,,,,,,,,,,,,,0,0,0,0,0
4.8666,1783185177.0262,1,1,1.0000,-0.0000,1.44680,0.20208,-2.78518,1.01227,1.57079,0.00002,-0.14512,-0.38002,0.03855,,,,,,,,,,,,,,,,,,,,,,,,,,0,0,0,0,0
4.8696,1783185177.0292,1,1,1.0000,-0.0000,1.44680,0.20208,-2.78518,1.01227,1.57079,0.00002,-0.14512,-0.38002,0.03855,,,,,,,,,,,,,,,,,,,,,,,,,,0,0,0,0,0
4.8802,1783185177.0398,1,1,1.0000,-0.0000,1.44680,0.20199,-2.78520,1.01237,1.57079,0.00002,-0.14512,-0.38002,0.03852,,,,,,,,,,,,,,,,,,,,,,,,,,0,0,0,0,0
4.8806,1783185177.0401,1,1,1.0000,-0.0000,1.44680,0.20199,-2.78520,1.01237,1.57079,0.00002,-0.14512,-0.38002,0.03852,,,,,,,,,,,,,,,,,,,,,,,,,,0,0,0,0,0
4.8917,1783185177.0513,1,1,1.0000,-0.0000,1.44680,0.20190,-2.78522,1.01248,1.57079,0.00002,-0.14512,-0.38001,0.03850,,,,,,,,,,,,,,,,,,,,,,,,,,0,0,0,0,0
4.9004,1783185177.0599,1,1,1.0000,-0.0000,1.44680,0.20187,-2.78523,1.01252,1.57079,0.00002,-0.14512,-0.38001,0.03849,,,,,,,,,,,,,,,,,,,,,,,,,,0,0,0,0,0
4.9112,1783185177.0707,1,1,1.0000,-0.0000,1.44680,0.20173,-2.78526,1.01270,1.57079,0.00002,-0.14512,-0.38001,0.03846,,,,,,,,,,,,,,,,,,,,,,,,,,0,0,0,0,0
4.9115,1783185177.0710,1,1,1.0000,-0.0000,1.44680,0.20173,-2.78526,1.01270,1.57079,0.00002,-0.14512,-0.38001,0.03846,,,,,,,,,,,,,,,,,,,,,,,,,,0,0,0,0,0
4.9239,1783185177.0835,1,1,1.0000,-0.0000,1.44680,0.20162,-2.78529,1.01283,1.57079,0.00002,-0.14512,-0.38001,0.03843,,,,,,,,,,,,,,,,,,,,,,,,,,0,0,0,0,0
4.9296,1783185177.0892,1,1,1.0000,-0.0000,1.44680,0.20161,-2.78529,1.01284,1.57079,0.00002,-0.14512,-0.38001,0.03843,,,,,,,,,,,,,,,,,,,,,,,,,,0,0,0,0,0
4.9299,1783185177.0895,1,1,1.0000,-0.0000,1.44680,0.20161,-2.78529,1.01284,1.57079,0.00002,-0.14512,-0.38001,0.03843,,,,,,,,,,,,,,,,,,,,,,,,,,0,0,0,0,0
4.9413,1783185177.1009,1,1,1.0000,-0.0000,1.44680,0.20150,-2.78531,1.01298,1.57079,0.00003,-0.14512,-0.38001,0.03840,,,,,,,,,,,,,,,,,,,,,,,,,,0,0,0,0,0
4.9544,1783185177.1140,1,1,1.0000,-0.0000,1.44680,0.20138,-2.78534,1.01313,1.57079,0.00003,-0.14512,-0.38001,0.03837,,,,,,,,,,,,,,,,,,,,,,,,,,0,0,0,0,0
4.9629,1783185177.1225,1,1,1.0000,-0.0000,1.44680,0.20132,-2.78536,1.01320,1.57079,0.00003,-0.14512,-0.38001,0.03836,,,,,,,,,,,,,,,,,,,,,,,,,,0,0,0,0,0
4.9700,1783185177.1296,1,1,1.0000,-0.0000,1.44680,0.20127,-2.78537,1.01326,1.57079,0.00003,-0.14512,-0.38001,0.03834,,,,,,,,,,,,,,,,,,,,,,,,,,0,0,0,0,0
4.9705,1783185177.1301,1,1,1.0000,-0.0000,1.44680,0.20122,-2.78538,1.01333,1.57079,0.00003,-0.14512,-0.38001,0.03833,,,,,,,,,,,,,,,,,,,,,,,,,,0,0,0,0,0
4.9835,1783185177.1431,1,1,1.0000,-0.0000,1.44680,0.20111,-2.78541,1.01346,1.57079,0.00003,-0.14512,-0.38001,0.03830,,,,,,,,,,,,,,,,,,,,,,,,,,0,0,0,0,0
4.9901,1783185177.1496,1,1,1.0000,-0.0000,1.44680,0.20110,-2.78541,1.01347,1.57079,0.00003,-0.14512,-0.38001,0.03830,,,,,,,,,,,,,,,,,,,,,,,,,,0,0,0,0,0
4.9906,1783185177.1502,1,1,1.0000,-0.0000,1.44680,0.20108,-2.78541,1.01350,1.57079,0.00003,-0.14512,-0.38001,0.03830,,,,,,,,,,,,,,,,,,,,,,,,,,0,0,0,0,0
5.0052,1783185177.1648,1,1,1.0000,-0.0000,1.44680,0.20094,-2.78545,1.01367,1.57079,0.00003,-0.14512,-0.38001,0.03826,,,,,,,,,,,,,,,,,,,,,,,,,,0,0,0,0,0
5.0150,1783185177.1745,1,1,1.0000,-0.0000,1.44680,0.20087,-2.78546,1.01375,1.57079,0.00003,-0.14512,-0.38001,0.03824,,,,,,,,,,,,,,,,,,,,,,,,,,0,0,0,0,0
5.0207,1783185177.1803,1,1,1.0000,-0.0000,1.44680,0.20085,-2.78547,1.01378,1.57079,0.00003,-0.14512,-0.38001,0.03824,,,,,,,,,,,,,,,,,,,,,,,,,,0,0,0,0,0
5.0210,1783185177.1806,1,1,1.0000,-0.0000,1.44680,0.20085,-2.78547,1.01378,1.57079,0.00003,-0.14512,-0.38001,0.03824,,,,,,,,,,,,,,,,,,,,,,,,,,0,0,0,0,0
5.0306,1783185177.1902,1,1,1.0000,-0.0000,1.44680,0.20071,-2.78550,1.01395,1.57079,0.00003,-0.14512,-0.38001,0.03820,,,,,,,,,,,,,,,,,,,,,,,,,,0,0,0,0,0
5.0397,1783185177.1992,1,1,1.0000,-0.0000,1.44680,0.20060,-2.78553,1.01409,1.57079,0.00003,-0.14512,-0.38001,0.03818,,,,,,,,,,,,,,,,,,,,,,,,,,0,0,0,0,0
5.0495,1783185177.2091,1,1,1.0000,-0.0000,1.44680,0.20059,-2.78553,1.01410,1.57079,0.00003,-0.14512,-0.38001,0.03818,,,,,,,,,,,,,,,,,,,,,,,,,,0,0,0,0,0
5.0645,1783185177.2241,1,1,1.0000,-0.0000,1.44680,0.20043,-2.78557,1.01430,1.57079,0.00003,-0.14512,-0.38001,0.03813,,,,,,,,,,,,,,,,,,,,,,,,,,0,0,0,0,0
