Martins-Lucaas/twinforge/sensors/Data/20260704_154307__samples.csv
t_rel_s,t_unix,cycle,phase,setpoint_n,force_net_n,q1,q2,q3,q4,q5,q6,tcp_x,tcp_y,tcp_z,taxel_0,taxel_1,taxel_2,taxel_3,taxel_4,taxel_5,taxel_6,taxel_7,taxel_8,taxel_9,taxel_10,taxel_11,taxel_12,taxel_13,taxel_14,taxel_15,taxel_16,taxel_17,taxel_18,taxel_19,taxel_20,taxel_21,taxel_22,taxel_23,taxel_24,n_RA,n_SA,cn_mm,cn_ra,cn_sa
0.0083,1783190587.0997,1,0,3.0000,0.0000,1.44682,0.23328,-2.77748,0.97337,1.57080,-0.00000,-0.14512,-0.38003,0.04653,,,,,,,,,,,,,,,,,,,,,,,,,,0,0,0,0,0
0.0148,1783190587.1062,1,0,3.0000,0.0000,1.44682,0.23328,-2.77748,0.97337,1.57080,0.00000,-0.14512,-0.38003,0.04653,,,,,,,,,,,,,,,,,,,,,,,,,,0,0,0,0,0
0.0151,1783190587.1066,1,0,3.0000,0.0000,1.44682,0.23328,-2.77748,0.97337,1.57080,0.00000,-0.14512,-0.38003,0.04653,,,,,,,,,,,,,,,,,,,,,,,,,,0,0,0,0,0
0.0233,1783190587.1147,1,0,3.0000,0.0000,1.44682,0.23328,-2.77748,0.97337,1.57080,0.00000,-0.14512,-0.38003,0.04653,,,,,,,,,,,,,,,,,,,,,,,,,,0,0,0,0,0
0.0370,1783190587.1284,1,0,3.0000,0.0000,1.44682,0.23328,-2.77748,0.97337,1.57080,0.00000,-0.14512,-0.38003,0.04653,,,,,,,,,,,,,,,,,,,,,,,,,,0,0,0,0,0
0.0610,1783190587.1525,1,0,3.0000,0.0000,1.44682,0.23328,-2.77748,0.97337,1.57080,0.00000,-0.14512,-0.38003,0.04653,,,,,,,,,,,,,,,,,,,,,,,,,,0,0,0,0,0
0.0615,1783190587.1529,1,0,3.0000,0.0000,1.44682,0.23328,-2.77748,0.97337,1.57080,0.00000,-0.14512,-0.38003,0.04653,,,,,,,,,,,,,,,,,,,,,,,,,,0,0,0,0,0
0.0619,1783190587.1533,1,0,3.0000,0.0000,1.44682,0.23328,-2.77748,0.97337,1.57080,0.00000,-0.14512,-0.38003,0.04653,,,,,,,,,,,,,,,,,,,,,,,,,,0,0,0,0,0
0.0698,1783190587.1612,1,0,3.0000,0.0000,1.44682,0.23328,-2.77748,0.97337,1.57080,0.00000,-0.14512,-0.38003,0.04653,,,,,,,,,,,,,,,,,,,,,,,,,,0,0,0,0,0
0.0754,1783190587.1668,1,0,3.0000,0.0000,1.44682,0.23328,-2.77748,0.97337,1.57080,0.00000,-0.14512,-0.38003,0.04653,,,,,,,,,,,,,,,,,,,,,,,,,,0,0,0,0,0
0.0887,1783190587.1801,1,0,3.0000,0.0000,1.44682,0.23328,-2.77748,0.97337,1.57080,0.00000,-0.14512,-0.38003,0.04653,,,,,,,,,,,,,,,,,,,,,,,,,,0,0,0,0,0
0.1179,1783190587.2094,1,0,3.0000,0.0000,1.44682,0.23328,-2.77748,0.97337,1.57080,0.00000,-0.14512,-0.38003,0.04653,,,,,,,,,,,,,,,,,,,,,,,,,,0,0,0,0,0
0.1187,1783190587.2101,1,0,3.0000,0.0000,1.44682,0.23328,-2.77748,0.97337,1.57080,0.00000,-0.14512,-0.38003,0.04653,,,,,,,,,,,,,,,,,,,,,,,,,,0,0,0,0,0
0.1349,1783190587.2263,1,0,3.0000,0.0000,1.44682,0.23328,-2.77748,0.97337,1.57080,0.00000,-0.14512,-0.38003,0.04653,,,,,,,,,,,,,,,,,,,,,,,,,,0,0,0,0,0
0.1353,1783190587.2267,1,0,3.0000,0.0000,1.44682,0.23328,-2.77748,0.97337,1.57080,0.00000,-0.14512,-0.38003,0.04653,,,,,,,,,,,,,,,,,,,,,,,,,,0,0,0,0,0
0.1565,1783190587.2479,1,0,3.0000,0.0000,1.44682,0.23328,-2.77748,0.97337,1.57080,0.00000,-0.14512,-0.38003,0.04653,,,,,,,,,,,,,,,,,,,,,,,,,,0,0,0,0,0
0.1569,1783190587.2484,1,0,3.0000,0.0000,1.44682,0.23328,-2.77748,0.97337,1.57080,0.00000,-0.14512,-0.38003,0.04653,,,,,,,,,,,,,,,,,,,,,,,,,,0,0,0,0,0
0.1768,1783190587.2682,1,0,3.0000,0.0000,1.44682,0.23328,-2.77748,0.97337,1.57080,0.00000,-0.14512,-0.38003,0.04653,,,,,,,,,,,,,,,,,,,,,,,,,,0,0,0,0,0
0.1773,1783190587.2687,1,0,3.0000,0.0000,1.44682,0.23328,-2.77748,0.97337,1.57080,0.00000,-0.14512,-0.38003,0.04653,,,,,,,,,,,,,,,,,,,,,,,,,,0,0,0,0,0
0.1910,1783190587.2825,1,0,3.0000,0.0000,1.44682,0.23328,-2.77748,0.97337,1.57080,0.00000,-0.14512,-0.38003,0.04653,,,,,,,,,,,,,,,,,,,,,,,,,,0,0,0,0,0
0.2079,1783190587.2993,1,0,3.0000,0.0000,1.44682,0.23328,-2.77748,0.97337,1.57080,0.00000,-0.14512,-0.38003,0.04653,,,,,,,,,,,,,,,,,,,,,,,,,,0,0,0,0,0
0.2082,1783190587.2996,1,0,3.0000,0.0000,1.44682,0.23328,-2.77748,0.97337,1.57080,0.00000,-0.14512,-0.38003,0.04653,,,,,,,,,,,,,,,,,,,,,,,,,,0,0,0,0,0
0.2135,1783190587.3050,1,0,3.0000,0.0000,1.44682,0.23328,-2.77748,0.97337,1.57080,0.00000,-0.14512,-0.38003,0.04653,,,,,,,,,,,,,,,,,,,,,,,,,,0,0,0,0,0
0.2140,1783190587.3054,1,0,3.0000,0.0000,1.44682,0.23328,-2.77748,0.97337,1.57080,0.00000,-0.14512,-0.38003,0.04653,,,,,,,,,,,,,,,,,,,,,,,,,,0,0,0,0,0
0.2232,1783190587.3146,1,0,3.0000,0.0000,1.44682,0.23328,-2.77748,0.97337,1.57080,0.00000,-0.14512,-0.38003,0.04653,,,,,,,,,,,,,,,,,,,,,,,,,,0,0,0,0,0
0.2236,1783190587.3151,1,0,3.0000,0.0000,1.44682,0.23328,-2.77748,0.97337,1.57080,0.00000,-0.14512,-0.38003,0.04653,,,,,,,,,,,,,,,,,,,,,,,,,,0,0,0,0,0
0.2372,1783190587.3286,1,0,3.0000,0.0000,1.44682,0.23328,-2.77748,0.97337,1.57080,0.00000,-0.14512,-0.38003,0.04653,,,,,,,,,,,,,,,,,,,,,,,,,,0,0,0,0,0
0.2446,1783190587.3360,1,0,3.0000,0.0000,1.44682,0.23328,-2.77748,0.97337,1.57080,0.00000,-0.14512,-0.38003,0.04653,,,,,,,,,,,,,,,,,,,,,,,,,,0,0,0,0,0
0.2636,1783190587.3550,1,0,3.0000,0.0000,1.44682,0.23328,-2.77748,0.97337,1.57080,0.00000,-0.14512,-0.38003,0.04653,,,,,,,,,,,,,,,,,,,,,,,,,,0,0,0,0,0
0.2765,1783190587.3679,1,0,3.0000,0.0000,1.44682,0.23328,-2.77748,0.97337,1.57080,0.00000,-0.14512,-0.38003,0.04653,,,,,,,,,,,,,,,,,,,,,,,,,,0,0,0,0,0
0.2768,1783190587.3682,1,0,3.0000,0.0000,1.44682,0.23328,-2.77748,0.97337,1.57080,0.00000,-0.14512,-0.38003,0.04653,,,,,,,,,,,,,,,,,,,,,,,,,,0,0,0,0,0
0.2771,1783190587.3685,1,0,3.0000,0.0000,1.44682,0.23328,-2.77748,0.97337,1.57080,0.00000,-0.14512,-0.38003,0.04653,,,,,,,,,,,,,,,,,,,,,,,,,,0,0,0,0,0
0.2839,1783190587.3754,1,0,3.0000,0.0000,1.44682,0.23328,-2.77748,0.97337,1.57080,0.00000,-0.14512,-0.38003,0.04653,,,,,,,,,,,,,,,,,,,,,,,,,,0,0,0,0,0
0.2938,1783190587.3852,1,0,3.0000,0.0000,1.44682,0.23328,-2.77748,0.97337,1.57080,0.00000,-0.14512,-0.38003,0.04653,,,,,,,,,,,,,,,,,,,,,,,,,,0,0,0,0,0
0.3275,1783190587.4189,1,0,3.0000,0.0000,1.44682,0.23328,-2.77748,0.97337,1.57080,0.00000,-0.14512,-0.38003,0.04653,,,,,,,,,,,,,,,,,,,,,,,,,,0,0,0,0,0
0.3278,1783190587.4192,1,0,3.0000,0.0000,1.44682,0.23328,-2.77748,0.97337,1.57080,0.00000,-0.14512,-0.38003,0.04653,,,,,,,,,,,,,,,,,,,,,,,,,,0,0,0,0,0
0.3281,1783190587.4195,1,0,3.0000,0.0000,1.44682,0.23328,-2.77748,0.97337,1.57080,0.00000,-0.14512,-0.38003,0.04653,,,,,,,,,,,,,,,,,,,,,,,,,,0,0,0,0,0
0.3364,1783190587.4279,1,0,3.0000,0.0000,1.44682,0.23328,-2.77748,0.97337,1.57080,0.00000,-0.14512,-0.38003,0.04653,,,,,,,,,,,,,,,,,,,,,,,,,,0,0,0,0,0
0.3435,1783190587.4349,1,0,3.0000,0.0000,1.44682,0.23328,-2.77748,0.97337,1.57080,0.00000,-0.14512,-0.38003,0.04653,,,,,,,,,,,,,,,,,,,,,,,,,,0,0,0,0,0
0.3438,1783190587.4352,1,0,3.0000,0.0000,1.44682,0.23328,-2.77748,0.97337,1.57080,0.00000,-0.14512,-0.38003,0.04653,,,,,,,,,,,,,,,,,,,,,,,,,,0,0,0,0,0
0.3564,1783190587.4478,1,0,3.0000,0.0000,1.44682,0.23328,-2.77748,0.97337,1.57080,0.00000,-0.14512,-0.38003,0.04653,,,,,,,,,,,,,,,,,,,,,,,,,,0,0,0,0,0
0.3632,1783190587.4546,1,0,3.0000,0.0000,1.44682,0.23328,-2.77748,0.97337,1.57080,0.00000,-0.14512,-0.38003,0.04653,,,,,,,,,,,,,,,,,,,,,,,,,,0,0,0,0,0
0.3748,1783190587.4662,1,0,3.0000,0.0000,1.44682,0.23328,-2.77748,0.97337,1.57080,0.00000,-0.14512,-0.38003,0.04653,,,,,,,,,,,,,,,,,,,,,,,,,,0,0,0,0,0
0.3962,1783190587.4876,1,0,3.0000,0.0000,1.44682,0.23328,-2.77748,0.97337,1.57080,0.00000,-0.14512,-0.38003,0.04653,,,,,,,,,,,,,,,,,,,,,,,,,,0,0,0,0,0
0.3966,1783190587.4880,1,0,3.0000,0.0000,1.44682,0.23328,-2.77748,0.97337,1.57080,0.00000,-0.14512,-0.38003,0.04653,,,,,,,,,,,,,,,,,,,,,,,,,,0,0,0,0,0
0.4069,1783190587.4983,1,0,3.0000,0.0000,1.44682,0.23328,-2.77748,0.97337,1.57080,0.00000,-0.14512,-0.38003,0.04653,,,,,,,,,,,,,,,,,,,,,,,,,,0,0,0,0,0
0.4140,1783190587.5054,1,0,3.0000,0.0000,1.44682,0.23328,-2.77748,0.97337,1.57080,0.00000,-0.14512,-0.38003,0.04653,,,,,,,,,,,,,,,,,,,,,,,,,,0,0,0,0,0
0.4231,1783190587.5145,1,0,3.0000,0.0000,1.44682,0.23328,-2.77748,0.97337,1.57080,0.00000,-0.14512,-0.38003,0.04653,,,,,,,,,,,,,,,,,,,,,,,,,,0,0,0,0,0
0.4330,1783190587.5244,1,0,3.0000,0.0000,1.44682,0.23328,-2.77748,0.97337,1.57080,0.00000,-0.14512,-0.38003,0.04653,,,,,,,,,,,,,,,,,,,,,,,,,,0,0,0,0,0
0.4437,1783190587.5351,1,0,3.0000,0.0000,1.44682,0.23328,-2.77748,0.97337,1.57080,0.00000,-0.14512,-0.38003,0.04653,,,,,,,,,,,,,,,,,,,,,,,,,,0,0,0,0,0
0.4530,1783190587.5445,1,0,3.0000,0.0000,1.44682,0.23328,-2.77748,0.97337,1.57080,0.00000,-0.14512,-0.38003,0.04653,,,,,,,,,,,,,,,,,,,,,,,,,,0,0,0,0,0
0.4634,1783190587.5548,1,0,3.0000,0.0000,1.44682,0.23328,-2.77748,0.97337,1.57080,0.00000,-0.14512,-0.38003,0.04653,,,,,,,,,,,,,,,,,,,,,,,,,,0,0,0,0,0
0.4736,1783190587.5650,1,0,3.0000,0.0000,1.44682,0.23328,-2.77748,0.97337,1.57080,0.00000,-0.14512,-0.38003,0.04653,,,,,,,,,,,,,,,,,,,,,,,,,,0,0,0,0,0
0.4830,1783190587.5744,1,0,3.0000,0.0000,1.44682,0.23328,-2.77748,0.97337,1.57080,0.00000,-0.14512,-0.38003,0.04653,,,,,,,,,,,,,,,,,,,,,,,,,,0,0,0,0,0
0.4952,1783190587.5866,1,0,3.0000,0.0000,1.44682,0.23328,-2.77748,0.97337,1.57080,0.00000,-0.14512,-0.38003,0.04653,,,,,,,,,,,,,,,,,,,,,,,,,,0,0,0,0,0
0.5151,1783190587.6065,1,0,3.0000,0.0000,1.44682,0.23328,-2.77748,0.97337,1.57080,0.00000,-0.14512,-0.38003,0.04653,,,,,,,,,,,,,,,,,,,,,,,,,,0,0,0,0,0
0.5154,1783190587.6069,1,0,3.0000,0.0000,1.44682,0.23328,-2.77748,0.97337,1.57080,0.00000,-0.14512,-0.38003,0.04653,,,,,,,,,,,,,,,,,,,,,,,,,,0,0,0,0,0
0.5159,1783190587.6073,1,0,3.0000,0.0000,1.44682,0.23328,-2.77748,0.97337,1.57080,0.00000,-0.14512,-0.38003,0.04653,,,,,,,,,,,,,,,,,,,,,,,,,,0,0,0,0,0
0.5253,1783190587.6167,1,0,3.0000,0.0000,1.44682,0.23328,-2.77748,0.97337,1.57080,0.00000,-0.14512,-0.38003,0.04653,,,,,,,,,,,,,,,,,,,,,,,,,,0,0,0,0,0
0.5258,1783190587.6172,1,0,3.0000,0.0000,1.44682,0.23328,-2.77748,0.97337,1.57080,0.00000,-0.14512,-0.38003,0.04653,,,,,,,,,,,,,,,,,,,,,,,,,,0,0,0,0,0
0.5330,1783190587.6245,1,0,3.0000,0.0000,1.44682,0.23328,-2.77748,0.97337,1.57080,0.00000,-0.14512,-0.38003,0.04653,,,,,,,,,,,,,,,,,,,,,,,,,,0,0,0,0,0
0.5452,1783190587.6367,1,0,3.0000,0.0000,1.44682,0.23328,-2.77748,0.97337,1.57080,0.00000,-0.14512,-0.38003,0.04653,,,,,,,,,,,,,,,,,,,,,,,,,,0,0,0,0,0
0.5533,1783190587.6448,1,0,3.0000,0.0000,1.44682,0.23328,-2.77748,0.97337,1.57080,0.00000,-0.14512,-0.38003,0.04653,,,,,,,,,,,,,,,,,,,,,,,,,,0,0,0,0,0
0.5696,1783190587.6610,1,0,3.0000,0.0000,1.44682,0.23328,-2.77748,0.97337,1.57080,0.00000,-0.14512,-0.38003,0.04653,,,,,,,,,,,,,,,,,,,,,,,,,,0,0,0,0,0
0.5751,1783190587.6665,1,0,3.0000,0.0000,1.44682,0.23328,-2.77748,0.97337,1.57080,0.00000,-0.14512,-0.38003,0.04653,,,,,,,,,,,,,,,,,,,,,,,,,,0,0,0,0,0
0.5839,1783190587.6753,1,0,3.0000,0.0000,1.44682,0.23328,-2.77748,0.97337,1.57080,0.00000,-0.14512,-0.38003,0.04653,,,,,,,,,,,,,,,,,,,,,,,,,,0,0,0,0,0
0.6016,1783190587.6930,1,0,3.0000,0.0000,1.44682,0.23328,-2.77748,0.97337,1.57080,0.00000,-0.14512,-0.38003,0.04653,,,,,,,,,,,,,,,,,,,,,,,,,,0,0,0,0,0
0.6167,1783190587.7081,1,0,3.0000,0.0000,1.44682,0.23328,-2.77748,0.97337,1.57080,0.00000,-0.14512,-0.38003,0.04653,,,,,,,,,,,,,,,,,,,,,,,,,,0,0,0,0,0
0.6170,1783190587.7084,1,0,3.0000,0.0000,1.44682,0.23328,-2.77748,0.97337,1.57080,0.00000,-0.14512,-0.38003,0.04653,,,,,,,,,,,,,,,,,,,,,,,,,,0,0,0,0,0
0.6246,1783190587.7160,1,0,3.0000,0.0000,1.44682,0.23328,-2.77748,0.97337,1.57080,0.00000,-0.14512,-0.38003,0.04653,,,,,,,,,,,,,,,,,,,,,,,,,,0,0,0,0,0
0.6369,1783190587.7283,1,0,3.0000,0.0000,1.44682,0.23328,-2.77748,0.97337,1.57080,0.00000,-0.14512,-0.38003,0.04653,,,,,,,,,,,,,,,,,,,,,,,,,,0,0,0,0,0
0.6453,1783190587.7367,1,0,3.0000,0.0000,1.44682,0.23328,-2.77748,0.97337,1.57080,0.00000,-0.14512,-0.38003,0.04653,,,,,,,,,,,,,,,,,,,,,,,,,,0,0,0,0,0
0.6666,1783190587.7580,1,0,3.0000,0.0000,1.44682,0.23328,-2.77748,0.97337,1.57080,0.00000,-0.14512,-0.38003,0.04653,,,,,,,,,,,,,,,,,,,,,,,,,,0,0,0,0,0
0.6690,1783190587.7604,1,0,3.0000,0.0000,1.44682,0.23328,-2.77748,0.97337,1.57080,0.00000,-0.14512,-0.38003,0.04653,,,,,,,,,,,,,,,,,,,,,,,,,,0,0,0,0,0
0.6789,1783190587.7703,1,0,3.0000,0.0000,1.44682,0.23328,-2.77748,0.97337,1.57080,0.00000,-0.14512,-0.38003,0.04653,,,,,,,,,,,,,,,,,,,,,,,,,,0,0,0,0,0
0.6860,1783190587.7774,1,0,3.0000,0.0000,1.44682,0.23328,-2.77748,0.97337,1.57080,0.00000,-0.14512,-0.38003,0.04653,,,,,,,,,,,,,,,,,,,,,,,,,,0,0,0,0,0
0.6990,1783190587.7904,1,0,3.0000,0.0000,1.44682,0.23328,-2.77748,0.97337,1.57080,0.00000,-0.14512,-0.38003,0.04653,,,,,,,,,,,,,,,,,,,,,,,,,,0,0,0,0,0
0.6994,1783190587.7908,1,0,3.0000,0.0000,1.44682,0.23328,-2.77748,0.97337,1.57080,0.00000,-0.14512,-0.38003,0.04653,,,,,,,,,,,,,,,,,,,,,,,,,,0,0,0,0,0
0.7186,1783190587.8101,1,0,3.0000,0.0000,1.44682,0.23328,-2.77748,0.97337,1.57080,0.00000,-0.14512,-0.38003,0.04653,,,,,,,,,,,,,,,,,,,,,,,,,,0,0,0,0,0
0.7188,1783190587.8102,1,0,3.0000,0.0000,1.44682,0.23328,-2.77748,0.97337,1.57080,0.00000,-0.14512,-0.38003,0.04653,,,,,,,,,,,,,,,,,,,,,,,,,,0,0,0,0,0
0.7290,1783190587.8204,1,0,3.0000,0.0000,1.44682,0.23328,-2.77748,0.97337,1.57080,0.00000,-0.14512,-0.38003,0.04653,,,,,,,,,,,,,,,,,,,,,,,,,,0,0,0,0,0
0.7298,1783190587.8212,1,1,3.0000,0.0000,1.44682,0.23328,-2.77748,0.97337,1.57080,0.00000,-0.14512,-0.38003,0.04653,,,,,,,,,,,,,,,,,,,,,,,,,,0,0,0,0,0
0.7427,1783190587.8341,1,1,3.0000,0.0000,1.44682,0.23328,-2.77748,0.97337,1.57080,0.00000,-0.14512,-0.38003,0.04653,,,,,,,,,,,,,,,,,,,,,,,,,,0,0,0,0,0
0.7430,1783190587.8344,1,1,3.0000,0.0000,1.44682,0.23328,-2.77748,0.97337,1.57080,0.00000,-0.14512,-0.38003,0.04653,,,,,,,,,,,,,,,,,,,,,,,,,,0,0,0,0,0
0.7518,1783190587.8432,1,1,3.0000,0.0000,1.44682,0.23328,-2.77748,0.97337,1.57080,0.00000,-0.14512,-0.38003,0.04653,,,,,,,,,,,,,,,,,,,,,,,,,,0,0,0,0,0
0.7520,1783190587.8435,1,1,3.0000,0.0000,1.44682,0.23328,-2.77748,0.97337,1.57080,0.00000,-0.14512,-0.38003,0.04653,,,,,,,,,,,,,,,,,,,,,,,,,,0,0,0,0,0
0.7586,1783190587.8500,1,1,3.0000,0.0000,1.44682,0.23328,-2.77748,0.97337,1.57080,0.00000,-0.14512,-0.38003,0.04653,,,,,,,,,,,,,,,,,,,,,,,,,,0,0,0,0,0
0.7709,1783190587.8623,1,1,3.0000,0.0000,1.44682,0.23328,-2.77748,0.97337,1.57080,0.00000,-0.14512,-0.38003,0.04653,,,,,,,,,,,,,,,,,,,,,,,,,,0,0,0,0,0
0.7787,1783190587.8702,1,1,3.0000,0.0000,1.44682,0.23328,-2.77748,0.97337,1.57080,0.00000,-0.14512,-0.38003,0.04653,,,,,,,,,,,,,,,,,,,,,,,,,,0,0,0,0,0
0.7867,1783190587.8781,1,1,3.0000,0.0000,1.44682,0.23328,-2.77748,0.97337,1.57080,0.00000,-0.14512,-0.38003,0.04653,,,,,,,,,,,,,,,,,,,,,,,,,,0,0,0,0,0
0.7990,1783190587.8904,1,1,3.0000,0.0000,1.44682,0.23328,-2.77748,0.97337,1.57080,0.00000,-0.14512,-0.38003,0.04653,,,,,,,,,,,,,,,,,,,,,,,,,,0,0,0,0,0
0.8079,1783190587.8994,1,1,3.0000,0.0000,1.44682,0.23328,-2.77748,0.97337,1.57080,-0.00000,-0.14512,-0.38003,0.04653,,,,,,,,,,,,,,,,,,,,,,,,,,0,0,0,0,0
0.8187,1783190587.9101,1,1,3.0000,0.0000,1.44682,0.23328,-2.77748,0.97337,1.57080,0.00000,-0.14512,-0.38003,0.04653,,,,,,,,,,,,,,,,,,,,,,,,,,0,0,0,0,0
0.8190,1783190587.9105,1,1,3.0000,0.0000,1.44682,0.23328,-2.77748,0.97337,1.57080,0.00000,-0.14512,-0.38003,0.04653,,,,,,,,,,,,,,,,,,,,,,,,,,0,0,0,0,0
0.8293,1783190587.9207,1,1,3.0000,0.0000,1.44682,0.23328,-2.77748,0.97337,1.57080,0.00000,-0.14512,-0.38003,0.04653,,,,,,,,,,,,,,,,,,,,,,,,,,0,0,0,0,0
0.8296,1783190587.9210,1,1,3.0000,0.0000,1.44682,0.23328,-2.77748,0.97337,1.57080,0.00000,-0.14512,-0.38003,0.04653,,,,,,,,,,,,,,,,,,,,,,,,,,0,0,0,0,0
0.8367,1783190587.9281,1,1,3.0000,0.0000,1.44682,0.23328,-2.77748,0.97337,1.57080,0.00000,-0.14512,-0.38003,0.04653,,,,,,,,,,,,,,,,,,,,,,,,,,0,0,0,0,0
0.8371,1783190587.9285,1,1,3.0000,0.0000,1.44682,0.23328,-2.77748,0.97337,1.57080,0.00000,-0.14512,-0.38003,0.04653,,,,,,,,,,,,,,,,,,,,,,,,,,0,0,0,0,0
0.8513,1783190587.9427,1,1,3.0000,0.0000,1.44682,0.23328,-2.77748,0.97337,1.57080,0.00000,-0.14512,-0.38003,0.04653,,,,,,,,,,,,,,,,,,,,,,,,,,0,0,0,0,0
0.8516,1783190587.9430,1,1,3.0000,0.0000,1.44682,0.23328,-2.77748,0.97337,1.57080,0.00000,-0.14512,-0.38003,0.04653,,,,,,,,,,,,,,,,,,,,,,,,,,0,0,0,0,0
0.8586,1783190587.9500,1,1,3.0000,0.0000,1.44682,0.23328,-2.77748,0.97337,1.57080,0.00000,-0.14512,-0.38003,0.04653,,,,,,,,,,,,,,,,,,,,,,,,,,0,0,0,0,0
0.8709,1783190587.9623,1,1,3.0000,0.0000,1.44682,0.23328,-2.77748,0.97337,1.57080,0.00000,-0.14512,-0.38003,0.04653,,,,,,,,,,,,,,,,,,,,,,,,,,0,0,0,0,0
0.8713,1783190587.9627,1,1,3.0000,0.0000,1.44682,0.23328,-2.77748,0.97337,1.57080,0.00000,-0.14512,-0.38003,0.04653,,,,,,,,,,,,,,,,,,,,,,,,,,0,0,0,0,0
0.8775,1783190587.9689,1,1,3.0000,0.0000,1.44682,0.23328,-2.77748,0.97337,1.57080,0.00000,-0.14512,-0.38003,0.04653,,,,,,,,,,,,,,,,,,,,,,,,,,0,0,0,0,0
0.8890,1783190587.9804,1,1,3.0000,0.0000,1.44682,0.23328,-2.77748,0.97337,1.57080,0.00000,-0.14512,-0.38003,0.04653,,,,,,,,,,,,,,,,,,,,,,,,,,0,0,0,0,0
0.9008,1783190587.9922,1,1,3.0000,0.0000,1.44682,0.23328,-2.77748,0.97337,1.57080,0.00000,-0.14512,-0.38003,0.04653,,,,,,,,,,,,,,,,,,,,,,,,,,0,0,0,0,0
0.9068,1783190587.9982,1,1,3.0000,0.0000,1.44682,0.23328,-2.77748,0.97337,1.57080,0.00000,-0.14512,-0.38003,0.04653,,,,,,,,,,,,,,,,,,,,,,,,,,0,0,0,0,0
0.9212,1783190588.0126,1,1,3.0000,0.0000,1.44682,0.23328,-2.77748,0.97337,1.57080,0.00000,-0.14512,-0.38003,0.04653,,,,,,,,,,,,,,,,,,,,,,,,,,0,0,0,0,0
0.9316,1783190588.0230,1,1,3.0000,0.0000,1.44682,0.23316,-2.77751,0.97352,1.57080,0.00000,-0.14512,-0.38003,0.04650,,,,,,,,,,,,,,,,,,,,,,,,,,0,0,0,0,0
0.9319,1783190588.0234,1,1,3.0000,0.0000,1.44682,0.23316,-2.77751,0.97352,1.57080,0.00000,-0.14512,-0.38003,0.04650,,,,,,,,,,,,,,,,,,,,,,,,,,0,0,0,0,0
0.9365,1783190588.0279,1,1,3.0000,0.0000,1.44682,0.23309,-2.77753,0.97361,1.57080,0.00000,-0.14512,-0.38003,0.04648,,,,,,,,,,,,,,,,,,,,,,,,,,0,0,0,0,0
0.9368,1783190588.0282,1,1,3.0000,0.0000,1.44682,0.23309,-2.77753,0.97361,1.57080,0.00000,-0.14512,-0.38003,0.04648,,,,,,,,,,,,,,,,,,,,,,,,,,0,0,0,0,0
0.9466,1783190588.0380,1,1,3.0000,0.0000,1.44682,0.23285,-2.77759,0.97390,1.57080,0.00000,-0.14512,-0.38003,0.04642,,,,,,,,,,,,,,,,,,,,,,,,,,0,0,0,0,0
0.9470,1783190588.0384,1,1,3.0000,0.0000,1.44682,0.23285,-2.77759,0.97390,1.57080,0.00000,-0.14512,-0.38003,0.04642,,,,,,,,,,,,,,,,,,,,,,,,,,0,0,0,0,0
0.9600,1783190588.0514,1,1,3.0000,0.0000,1.44682,0.23282,-2.77759,0.97394,1.57080,0.00000,-0.14512,-0.38003,0.04641,,,,,,,,,,,,,,,,,,,,,,,,,,0,0,0,0,0
0.9902,1783190588.0816,1,1,3.0000,0.0000,1.44682,0.23259,-2.77765,0.97423,1.57080,0.00000,-0.14512,-0.38003,0.04635,,,,,,,,,,,,,,,,,,,,,,,,,,0,0,0,0,0
0.9910,1783190588.0824,1,1,3.0000,0.0000,1.44682,0.23254,-2.77767,0.97429,1.57080,0.00000,-0.14512,-0.38003,0.04634,,,,,,,,,,,,,,,,,,,,,,,,,,0,0,0,0,0
0.9925,1783190588.0839,1,1,3.0000,0.0000,1.44682,0.23254,-2.77767,0.97429,1.57080,0.00000,-0.14512,-0.38003,0.04634,,,,,,,,,,,,,,,,,,,,,,,,,,0,0,0,0,0
0.9928,1783190588.0842,1,1,3.0000,0.0000,1.44682,0.23254,-2.77767,0.97429,1.57080,0.00000,-0.14512,-0.38003,0.04634,,,,,,,,,,,,,,,,,,,,,,,,,,0,0,0,0,0
1.0043,1783190588.0957,1,1,3.0000,0.0000,1.44682,0.23234,-2.77772,0.97455,1.57080,0.00000,-0.14512,-0.38003,0.04628,,,,,,,,,,,,,,,,,,,,,,,,,,0,0,0,0,0
1.0047,1783190588.0961,1,1,3.0000,0.0000,1.44682,0.23234,-2.77772,0.97455,1.57080,0.00000,-0.14512,-0.38003,0.04628,,,,,,,,,,,,,,,,,,,,,,,,,,0,0,0,0,0
1.0072,1783190588.0986,1,1,3.0000,0.0000,1.44682,0.23227,-2.77774,0.97464,1.57080,0.00000,-0.14512,-0.38003,0.04626,,,,,,,,,,,,,,,,,,,,,,,,,,0,0,0,0,0
1.0234,1783190588.1148,1,1,3.0000,0.0000,1.44682,0.23220,-2.77775,0.97472,1.57080,0.00000,-0.14512,-0.38003,0.04625,,,,,,,,,,,,,,,,,,,,,,,,,,0,0,0,0,0
1.0293,1783190588.1208,1,1,3.0000,0.0000,1.44682,0.23216,-2.77777,0.97478,1.57080,0.00000,-0.14512,-0.38003,0.04623,,,,,,,,,,,,,,,,,,,,,,,,,,0,0,0,0,0
1.0297,1783190588.1211,1,1,3.0000,0.0000,1.44682,0.23216,-2.77777,0.97478,1.57080,0.00000,-0.14512,-0.38003,0.04623,,,,,,,,,,,,,,,,,,,,,,,,,,0,0,0,0,0
1.0396,1783190588.1310,1,1,3.0000,0.0000,1.44682,0.23204,-2.77779,0.97492,1.57080,0.00000,-0.14512,-0.38003,0.04621,,,,,,,,,,,,,,,,,,,,,,,,,,0,0,0,0,0
1.0476,1783190588.1390,1,1,3.0000,0.0000,1.44682,0.23200,-2.77781,0.97498,1.57080,0.00000,-0.14512,-0.38003,0.04619,,,,,,,,,,,,,,,,,,,,,,,,,,0,0,0,0,0
1.0597,1783190588.1511,1,1,3.0000,0.0000,1.44682,0.23182,-2.77785,0.97521,1.57080,0.00000,-0.14512,-0.38003,0.04615,,,,,,,,,,,,,,,,,,,,,,,,,,0,0,0,0,0
1.0672,1783190588.1586,1,1,3.0000,0.0000,1.44682,0.23168,-2.77789,0.97538,1.57080,0.00000,-0.14512,-0.38003,0.04611,,,,,,,,,,,,,,,,,,,,,,,,,,0,0,0,0,0
1.0674,1783190588.1588,1,1,3.0000,0.0000,1.44682,0.23168,-2.77789,0.97538,1.57080,0.00000,-0.14512,-0.38003,0.04611,,,,,,,,,,,,,,,,,,,,,,,,,,0,0,0,0,0
1.0808,1783190588.1722,1,1,3.0000,0.0000,1.44682,0.23165,-2.77790,0.97542,1.57080,0.00000,-0.14512,-0.38003,0.04610,,,,,,,,,,,,,,,,,,,,,,,,,,0,0,0,0,0
1.0811,1783190588.1725,1,1,3.0000,0.0000,1.44682,0.23165,-2.77790,0.97542,1.57080,0.00000,-0.14512,-0.38003,0.04610,,,,,,,,,,,,,,,,,,,,,,,,,,0,0,0,0,0
1.0923,1783190588.1837,1,1,3.0000,0.0000,1.44682,0.23151,-2.77793,0.97559,1.57080,0.00000,-0.14512,-0.38003,0.04607,,,,,,,,,,,,,,,,,,,,,,,,,,0,0,0,0,0
1.1086,1783190588.2000,1,1,3.0000,0.0000,1.44682,0.23140,-2.77796,0.97572,1.57080,0.00000,-0.14512,-0.38003,0.04604,,,,,,,,,,,,,,,,,,,,,,,,,,0,0,0,0,0
1.1090,1783190588.2004,1,1,3.0000,0.0000,1.44682,0.23140,-2.77796,0.97572,1.57080,0.00000,-0.14512,-0.38003,0.04604,,,,,,,,,,,,,,,,,,,,,,,,,,0,0,0,0,0
1.1208,1783190588.2122,1,1,3.0000,0.0000,1.44682,0.23122,-2.77801,0.97595,1.57080,0.00000,-0.14512,-0.38003,0.04599,,,,,,,,,,,,,,,,,,,,,,,,,,0,0,0,0,0
1.1308,1783190588.2222,1,1,3.0000,0.0000,1.44682,0.23108,-2.77804,0.97613,1.57080,0.00000,-0.14512,-0.38003,0.04595,,,,,,,,,,,,,,,,,,,,,,,,,,0,0,0,0,0
1.1312,1783190588.2226,1,1,3.0000,0.0000,1.44682,0.23108,-2.77804,0.97613,1.57080,0.00000,-0.14512,-0.38003,0.04595,,,,,,,,,,,,,,,,,,,,,,,,,,0,0,0,0,0
1.1439,1783190588.2353,1,1,3.0000,0.0000,1.44682,0.23102,-2.77806,0.97621,1.57080,0.00000,-0.14512,-0.38003,0.04594,,,,,,,,,,,,,,,,,,,,,,,,,,0,0,0,0,0
1.1509,1783190588.2423,1,1,3.0000,0.0000,1.44682,0.23092,-2.77809,0.97634,1.57080,0.00000,-0.14512,-0.38003,0.04591,,,,,,,,,,,,,,,,,,,,,,,,,,0,0,0,0,0
1.1512,1783190588.2426,1,1,3.0000,0.0000,1.44682,0.23092,-2.77809,0.97634,1.57080,0.00000,-0.14512,-0.38003,0.04591,,,,,,,,,,,,,,,,,,,,,,,,,,0,0,0,0,0
1.1629,1783190588.2543,1,1,3.0000,0.0000,1.44682,0.23084,-2.77810,0.97643,1.57080,0.00000,-0.14512,-0.38003,0.04589,,,,,,,,,,,,,,,,,,,,,,,,,,0,0,0,0,0
1.1633,1783190588.2547,1,1,3.0000,0.0000,1.44682,0.23084,-2.77810,0.97643,1.57080,0.00000,-0.14512,-0.38003,0.04589,,,,,,,,,,,,,,,,,,,,,,,,,,0,0,0,0,0
1.1694,1783190588.2608,1,1,3.0000,0.0000,1.44682,0.23081,-2.77811,0.97647,1.57080,0.00000,-0.14512,-0.38003,0.04588,,,,,,,,,,,,,,,,,,,,,,,,,,0,0,0,0,0
1.1790,1783190588.2704,1,1,3.0000,0.0000,1.44682,0.23063,-2.77816,0.97670,1.57080,0.00000,-0.14512,-0.38003,0.04584,,,,,,,,,,,,,,,,,,,,,,,,,,0,0,0,0,0
1.1867,1783190588.2781,1,1,3.0000,0.0000,1.44682,0.23049,-2.77819,0.97688,1.57080,0.00000,-0.14512,-0.38003,0.04580,,,,,,,,,,,,,,,,,,,,,,,,,,0,0,0,0,0
1.1870,1783190588.2784,1,1,3.0000,0.0000,1.44682,0.23049,-2.77819,0.97688,1.57080,0.00000,-0.14512,-0.38003,0.04580,,,,,,,,,,,,,,,,,,,,,,,,,,0,0,0,0,0
1.1969,1783190588.2883,1,1,3.0000,0.0000,1.44682,0.23048,-2.77820,0.97689,1.57080,0.00000,-0.14512,-0.38003,0.04580,,,,,,,,,,,,,,,,,,,,,,,,,,0,0,0,0,0
1.1974,1783190588.2888,1,1,3.0000,0.0000,1.44682,0.23048,-2.77820,0.97689,1.57080,0.00000,-0.14512,-0.38003,0.04580,,,,,,,,,,,,,,,,,,,,,,,,,,0,0,0,0,0
1.2087,1783190588.3001,1,1,3.0000,0.0000,1.44682,0.23037,-2.77822,0.97702,1.57080,0.00000,-0.14512,-0.38003,0.04577,,,,,,,,,,,,,,,,,,,,,,,,,,0,0,0,0,0
1.2311,1783190588.3225,1,1,3.0000,0.0000,1.44682,0.23017,-2.77828,0.97728,1.57080,0.00000,-0.14512,-0.38003,0.04571,,,,,,,,,,,,,,,,,,,,,,,,,,0,0,0,0,0
1.2314,1783190588.3228,1,1,3.0000,0.0000,1.44682,0.23017,-2.77828,0.97728,1.57080,0.00000,-0.14512,-0.38003,0.04571,,,,,,,,,,,,,,,,,,,,,,,,,,0,0,0,0,0
1.2412,1783190588.3326,1,1,3.0000,0.0000,1.44682,0.23003,-2.77831,0.97745,1.57080,0.00000,-0.14512,-0.38003,0.04568,,,,,,,,,,,,,,,,,,,,,,,,,,0,0,0,0,0
1.2416,1783190588.3330,1,1,3.0000,0.0000,1.44682,0.23003,-2.77831,0.97745,1.57080,0.00000,-0.14512,-0.38003,0.04568,,,,,,,,,,,,,,,,,,,,,,,,,,0,0,0,0,0
1.2506,1783190588.3420,1,1,3.0000,0.0000,1.44682,0.22989,-2.77835,0.97762,1.57080,0.00000,-0.14512,-0.38003,0.04564,,,,,,,,,,,,,,,,,,,,,,,,,,0,0,0,0,0
1.2618,1783190588.3532,1,1,3.0000,0.0000,1.44682,0.22986,-2.77836,0.97766,1.57080,0.00000,-0.14512,-0.38003,0.04564,,,,,,,,,,,,,,,,,,,,,,,,,,0,0,0,0,0
1.2627,1783190588.3541,1,1,3.0000,0.0000,1.44682,0.22983,-2.77836,0.97771,1.57080,0.00000,-0.14512,-0.38003,0.04563,,,,,,,,,,,,,,,,,,,,,,,,,,0,0,0,0,0
1.2701,1783190588.3615,1,1,3.0000,0.0000,1.44682,0.22978,-2.77838,0.97777,1.57080,0.00000,-0.14512,-0.38003,0.04561,,,,,,,,,,,,,,,,,,,,,,,,,,0,0,0,0,0
1.2828,1783190588.3742,1,1,3.0000,0.0000,1.44682,0.22965,-2.77841,0.97792,1.57080,0.00000,-0.14512,-0.38003,0.04558,,,,,,,,,,,,,,,,,,,,,,,,,,0,0,0,0,0
1.2832,1783190588.3747,1,1,3.0000,0.0000,1.44682,0.22965,-2.77841,0.97792,1.57080,0.00000,-0.14512,-0.38003,0.04558,,,,,,,,,,,,,,,,,,,,,,,,,,0,0,0,0,0
1.2902,1783190588.3816,1,1,3.0000,0.0000,1.44682,0.22962,-2.77842,0.97797,1.57080,0.00000,-0.14512,-0.38003,0.04557,,,,,,,,,,,,,,,,,,,,,,,,,,0,0,0,0,0
1.3003,1783190588.3917,1,1,3.0000,0.0000,1.44682,0.22944,-2.77846,0.97819,1.57080,0.00000,-0.14512,-0.38003,0.04553,,,,,,,,,,,,,,,,,,,,,,,,,,0,0,0,0,0
1.3006,1783190588.3920,1,1,3.0000,0.0000,1.44682,0.22944,-2.77846,0.97819,1.57080,0.00000,-0.14512,-0.38003,0.04553,,,,,,,,,,,,,,,,,,,,,,,,,,0,0,0,0,0
1.3111,1783190588.4025,1,1,3.0000,0.0000,1.44682,0.22930,-2.77850,0.97837,1.57080,0.00000,-0.14512,-0.38003,0.04549,,,,,,,,,,,,,,,,,,,,,,,,,,0,0,0,0,0
1.3116,1783190588.4030,1,1,3.0000,0.0000,1.44682,0.22930,-2.77850,0.97837,1.57080,0.00000,-0.14512,-0.38003,0.04549,,,,,,,,,,,,,,,,,,,,,,,,,,0,0,0,0,0
1.3284,1783190588.4198,1,1,3.0000,0.0000,1.44682,0.22914,-2.77854,0.97856,1.57080,0.00000,-0.14512,-0.38003,0.04545,,,,,,,,,,,,,,,,,,,,,,,,,,0,0,0,0,0
1.3355,1783190588.4270,1,1,3.0000,0.0000,1.44682,0.22901,-2.77857,0.97874,1.57080,0.00000,-0.14512,-0.38003,0.04541,,,,,,,,,,,,,,,,,,,,,,,,,,0,0,0,0,0
1.3415,1783190588.4329,1,1,3.0000,0.0000,1.44682,0.22901,-2.77857,0.97874,1.57080,0.00000,-0.14512,-0.38003,0.04541,,,,,,,,,,,,,,,,,,,,,,,,,,0,0,0,0,0
1.3531,1783190588.4445,1,1,3.0000,0.0000,1.44682,0.22891,-2.77860,0.97885,1.57080,0.00000,-0.14512,-0.38003,0.04539,,,,,,,,,,,,,,,,,,,,,,,,,,0,0,0,0,0
1.3638,1783190588.4552,1,1,3.0000,0.0000,1.44682,0.22872,-2.77865,0.97910,1.57080,0.00000,-0.14512,-0.38003,0.04534,,,,,,,,,,,,,,,,,,,,,,,,,,0,0,0,0,0
1.3641,1783190588.4555,1,1,3.0000,0.0000,1.44682,0.22872,-2.77865,0.97910,1.57080,0.00000,-0.14512,-0.38003,0.04534,,,,,,,,,,,,,,,,,,,,,,,,,,0,0,0,0,0
1.3724,1783190588.4638,1,1,3.0000,0.0000,1.44682,0.22865,-2.77867,0.97919,1.57080,0.00000,-0.14512,-0.38003,0.04532,,,,,,,,,,,,,,,,,,,,,,,,,,0,0,0,0,0
1.3858,1783190588.4772,1,1,3.0000,0.0000,1.44682,0.22856,-2.77869,0.97930,1.57080,0.00000,-0.14512,-0.38003,0.04530,,,,,,,,,,,,,,,,,,,,,,,,,,0,0,0,0,0
1.3919,1783190588.4833,1,1,3.0000,0.0000,1.44682,0.22843,-2.77872,0.97946,1.57080,0.00000,-0.14512,-0.38003,0.04526,,,,,,,,,,,,,,,,,,,,,,,,,,0,0,0,0,0
1.4025,1783190588.4940,1,1,3.0000,0.0000,1.44682,0.22834,-2.77874,0.97957,1.57080,0.00000,-0.14512,-0.38003,0.04524,,,,,,,,,,,,,,,,,,,,,,,,,,0,0,0,0,0
1.4167,1783190588.5081,1,1,3.0000,0.0000,1.44682,0.22820,-2.77878,0.97974,1.57080,0.00000,-0.14512,-0.38003,0.04520,,,,,,,,,,,,,,,,,,,,,,,,,,0,0,0,0,0
1.4220,1783190588.5134,1,1,3.0000,0.0000,1.44682,0.22814,-2.77880,0.97983,1.57080,0.00000,-0.14512,-0.38003,0.04519,,,,,,,,,,,,,,,,,,,,,,,,,,0,0,0,0,0
1.4324,1783190588.5238,1,1,3.0000,0.0000,1.44682,0.22800,-2.77883,0.98000,1.57080,0.00000,-0.14512,-0.38003,0.04515,,,,,,,,,,,,,,,,,,,,,,,,,,0,0,0,0,0
1.4404,1783190588.5318,1,1,3.0000,0.0000,1.44682,0.22795,-2.77884,0.98006,1.57080,0.00000,-0.14512,-0.38003,0.04514,,,,,,,,,,,,,,,,,,,,,,,,,,0,0,0,0,0
1.4514,1783190588.5428,1,1,3.0000,0.0000,1.44682,0.22778,-2.77889,0.98028,1.57080,0.00000,-0.14512,-0.38003,0.04509,,,,,,,,,,,,,,,,,,,,,,,,,,0,0,0,0,0
1.4628,1783190588.5543,1,1,3.0000,0.0000,1.44682,0.22769,-2.77891,0.98038,1.57080,0.00000,-0.14512,-0.38003,0.04507,,,,,,,,,,,,,,,,,,,,,,,,,,0,0,0,0,0
1.4631,1783190588.5545,1,1,3.0000,0.0000,1.44682,0.22769,-2.77891,0.98038,1.57080,0.00000,-0.14512,-0.38003,0.04507,,,,,,,,,,,,,,,,,,,,,,,,,,0,0,0,0,0
1.4719,1783190588.5633,1,1,3.0000,0.0000,1.44682,0.22761,-2.77893,0.98049,1.57080,0.00000,-0.14512,-0.38003,0.04505,,,,,,,,,,,,,,,,,,,,,,,,,,0,0,0,0,0
1.4960,1783190588.5874,1,1,3.0000,0.0000,1.44682,0.22734,-2.77900,0.98083,1.57080,0.00000,-0.14512,-0.38003,0.04498,,,,,,,,,,,,,,,,,,,,,,,,,,0,0,0,0,0
1.4963,1783190588.5877,1,1,3.0000,0.0000,1.44682,0.22734,-2.77900,0.98083,1.57080,0.00000,-0.14512,-0.38003,0.04498,,,,,,,,,,,,,,,,,,,,,,,,,,0,0,0,0,0
1.5068,1783190588.5982,1,1,3.0000,0.0000,1.44682,0.22719,-2.77904,0.98101,1.57080,0.00000,-0.14512,-0.38003,0.04494,,,,,,,,,,,,,,,,,,,,,,,,,,0,0,0,0,0
1.5100,1783190588.6014,1,1,3.0000,0.0000,1.44682,0.22719,-2.77904,0.98101,1.57080,0.00000,-0.14512,-0.38003,0.04494,,,,,,,,,,,,,,,,,,,,,,,,,,0,0,0,0,0
1.5106,1783190588.6020,1,1,3.0000,0.0000,1.44682,0.22712,-2.77905,0.98110,1.57080,0.00000,-0.14512,-0.38003,0.04492,,,,,,,,,,,,,,,,,,,,,,,,,,0,0,0,0,0
1.5204,1783190588.6118,1,1,3.0000,0.0000,1.44682,0.22705,-2.77907,0.98119,1.57080,0.00001,-0.14512,-0.38003,0.04491,,,,,,,,,,,,,,,,,,,,,,,,,,0,0,0,0,0
1.5374,1783190588.6288,1,1,3.0000,0.0000,1.44682,0.22690,-2.77911,0.98138,1.57080,0.00001,-0.14512,-0.38003,0.04487,,,,,,,,,,,,,,,,,,,,,,,,,,0,0,0,0,0
1.5466,1783190588.6380,1,1,3.0000,0.0000,1.44682,0.22670,-2.77916,0.98164,1.57080,0.00001,-0.14512,-0.38003,0.04481,,,,,,,,,,,,,,,,,,,,,,,,,,0,0,0,0,0
1.5542,1783190588.6456,1,1,3.0000,0.0000,1.44682,0.22670,-2.77916,0.98164,1.57080,0.00001,-0.14512,-0.38003,0.04481,,,,,,,,,,,,,,,,,,,,,,,,,,0,0,0,0,0
1.5549,1783190588.6463,1,1,3.0000,0.0000,1.44682,0.22668,-2.77917,0.98165,1.57080,0.00001,-0.14512,-0.38003,0.04481,,,,,,,,,,,,,,,,,,,,,,,,,,0,0,0,0,0
1.5622,1783190588.6536,1,1,3.0000,0.0000,1.44682,0.22665,-2.77917,0.98169,1.57080,0.00001,-0.14512,-0.38003,0.04480,,,,,,,,,,,,,,,,,,,,,,,,,,0,0,0,0,0
1.5628,1783190588.6542,1,1,3.0000,0.0000,1.44682,0.22660,-2.77919,0.98175,1.57080,0.00001,-0.14512,-0.38003,0.04479,,,,,,,,,,,,,,,,,,,,,,,,,,0,0,0,0,0
1.5707,1783190588.6621,1,1,3.0000,0.0000,1.44682,0.22647,-2.77922,0.98192,1.57080,0.00001,-0.14512,-0.38003,0.04476,,,,,,,,,,,,,,,,,,,,,,,,,,0,0,0,0,0
1.5969,1783190588.6884,1,1,3.0000,0.0000,1.44682,0.22625,-2.77928,0.98220,1.57080,0.00001,-0.14512,-0.38003,0.04470,,,,,,,,,,,,,,,,,,,,,,,,,,0,0,0,0,0
1.5974,1783190588.6888,1,1,3.0000,0.0000,1.44682,0.22625,-2.77928,0.98220,1.57080,0.00001,-0.14512,-0.38003,0.04470,,,,,,,,,,,,,,,,,,,,,,,,,,0,0,0,0,0
1.6010,1783190588.6924,1,1,3.0000,0.0000,1.44682,0.22618,-2.77929,0.98228,1.57080,0.00001,-0.14512,-0.38003,0.04468,,,,,,,,,,,,,,,,,,,,,,,,,,0,0,0,0,0
1.6017,1783190588.6931,1,1,3.0000,0.0000,1.44682,0.22618,-2.77929,0.98228,1.57080,0.00001,-0.14512,-0.38003,0.04468,,,,,,,,,,,,,,,,,,,,,,,,,,0,0,0,0,0
1.6110,1783190588.7024,1,1,3.0000,0.0000,1.44682,0.22604,-2.77933,0.98245,1.57080,0.00001,-0.14512,-0.38003,0.04464,,,,,,,,,,,,,,,,,,,,,,,,,,0,0,0,0,0
1.6114,1783190588.7028,1,1,3.0000,0.0000,1.44682,0.22604,-2.77933,0.98245,1.57080,0.00001,-0.14512,-0.38003,0.04464,,,,,,,,,,,,,,,,,,,,,,,,,,0,0,0,0,0
1.6216,1783190588.7130,1,1,3.0000,0.0000,1.44682,0.22600,-2.77934,0.98251,1.57080,0.00001,-0.14512,-0.38003,0.04463,,,,,,,,,,,,,,,,,,,,,,,,,,0,0,0,0,0
1.6358,1783190588.7272,1,1,3.0000,0.0000,1.44682,0.22575,-2.77940,0.98282,1.57080,0.00001,-0.14512,-0.38003,0.04457,,,,,,,,,,,,,,,,,,,,,,,,,,0,0,0,0,0
1.6409,1783190588.7323,1,1,3.0000,0.0000,1.44682,0.22568,-2.77942,0.98291,1.57080,0.00001,-0.14512,-0.38003,0.04455,,,,,,,,,,,,,,,,,,,,,,,,,,0,0,0,0,0
1.6413,1783190588.7327,1,1,3.0000,0.0000,1.44682,0.22568,-2.77942,0.98291,1.57080,0.00001,-0.14512,-0.38003,0.04455,,,,,,,,,,,,,,,,,,,,,,,,,,0,0,0,0,0
1.6508,1783190588.7422,1,1,3.0000,0.0000,1.44682,0.22565,-2.77943,0.98295,1.57080,0.00001,-0.14512,-0.38003,0.04454,,,,,,,,,,,,,,,,,,,,,,,,,,0,0,0,0,0
1.6601,1783190588.7515,1,1,3.0000,0.0000,1.44682,0.22556,-2.77945,0.98305,1.57080,0.00001,-0.14512,-0.38003,0.04452,,,,,,,,,,,,,,,,,,,,,,,,,,0,0,0,0,0
1.6882,1783190588.7796,1,1,3.0000,0.0000,1.44682,0.22529,-2.77952,0.98340,1.57080,0.00001,-0.14512,-0.38002,0.04445,,,,,,,,,,,,,,,,,,,,,,,,,,0,0,0,0,0
1.6961,1783190588.7875,1,1,3.0000,0.0000,1.44682,0.22515,-2.77955,0.98357,1.57080,0.00001,-0.14512,-0.38002,0.04441,,,,,,,,,,,,,,,,,,,,,,,,,,0,0,0,0,0
1.6963,1783190588.7878,1,1,3.0000,0.0000,1.44682,0.22515,-2.77955,0.98357,1.57080,0.00001,-0.14512,-0.38002,0.04441,,,,,,,,,,,,,,,,,,,,,,,,,,0,0,0,0,0
1.7019,1783190588.7933,1,1,3.0000,0.0000,1.44682,0.22508,-2.77957,0.98366,1.57080,0.00001,-0.14512,-0.38002,0.04439,,,,,,,,,,,,,,,,,,,,,,,,,,0,0,0,0,0
1.7154,1783190588.8068,1,1,3.0000,0.0000,1.44682,0.22501,-2.77959,0.98375,1.57080,0.00001,-0.14512,-0.38002,0.04438,,,,,,,,,,,,,,,,,,,,,,,,,,0,0,0,0,0
1.7231,1783190588.8145,1,1,3.0000,0.0000,1.44682,0.22491,-2.77961,0.98387,1.57080,0.00001,-0.14512,-0.38002,0.04435,,,,,,,,,,,,,,,,,,,,,,,,,,0,0,0,0,0
1.7309,1783190588.8224,1,1,3.0000,0.0000,1.44682,0.22485,-2.77963,0.98395,1.57080,0.00001,-0.14512,-0.38002,0.04434,,,,,,,,,,,,,,,,,,,,,,,,,,0,0,0,0,0
1.7413,1783190588.8327,1,1,3.0000,0.0000,1.44682,0.22480,-2.77964,0.98400,1.57080,0.00001,-0.14512,-0.38002,0.04432,,,,,,,,,,,,,,,,,,,,,,,,,,0,0,0,0,0
1.7417,1783190588.8331,1,1,3.0000,0.0000,1.44682,0.22480,-2.77964,0.98400,1.57080,0.00001,-0.14512,-0.38002,0.04432,,,,,,,,,,,,,,,,,,,,,,,,,,0,0,0,0,0
1.7510,1783190588.8424,1,1,3.0000,0.0000,1.44682,0.22462,-2.77969,0.98423,1.57080,0.00001,-0.14512,-0.38002,0.04428,,,,,,,,,,,,,,,,,,,,,,,,,,0,0,0,0,0
1.7514,1783190588.8429,1,1,3.0000,0.0000,1.44682,0.22462,-2.77969,0.98423,1.57080,0.00001,-0.14512,-0.38002,0.04428,,,,,,,,,,,,,,,,,,,,,,,,,,0,0,0,0,0
1.7606,1783190588.8520,1,1,3.0000,0.0000,1.44682,0.22448,-2.77972,0.98441,1.57080,0.00001,-0.14512,-0.38002,0.04424,,,,,,,,,,,,,,,,,,,,,,,,,,0,0,0,0,0
1.7746,1783190588.8660,1,1,3.0000,0.0000,1.44682,0.22441,-2.77974,0.98450,1.57080,0.00001,-0.14512,-0.38002,0.04422,,,,,,,,,,,,,,,,,,,,,,,,,,0,0,0,0,0
1.7813,1783190588.8727,1,1,3.0000,0.0000,1.44682,0.22436,-2.77975,0.98455,1.57080,0.00001,-0.14512,-0.38002,0.04421,,,,,,,,,,,,,,,,,,,,,,,,,,0,0,0,0,0
1.7956,1783190588.8870,1,1,3.0000,0.0000,1.44682,0.22424,-2.77978,0.98471,1.57080,0.00001,-0.14512,-0.38002,0.04418,,,,,,,,,,,,,,,,,,,,,,,,,,0,0,0,0,0
1.8011,1783190588.8925,1,1,3.0000,0.0000,1.44682,0.22420,-2.77979,0.98476,1.57080,0.00001,-0.14512,-0.38002,0.04417,,,,,,,,,,,,,,,,,,,,,,,,,,0,0,0,0,0
1.8131,1783190588.9045,1,1,3.0000,0.0000,1.44682,0.22402,-2.77984,0.98499,1.57080,0.00001,-0.14512,-0.38002,0.04412,,,,,,,,,,,,,,,,,,,,,,,,,,0,0,0,0,0
1.8228,1783190588.9143,1,1,3.0000,0.0000,1.44682,0.22388,-2.77987,0.98516,1.57080,0.00001,-0.14512,-0.38002,0.04408,,,,,,,,,,,,,,,,,,,,,,,,,,0,0,0,0,0
1.8313,1783190588.9227,1,1,3.0000,0.0000,1.44682,0.22385,-2.77988,0.98520,1.57080,0.00001,-0.14512,-0.38002,0.04408,,,,,,,,,,,,,,,,,,,,,,,,,,0,0,0,0,0
1.8426,1783190588.9340,1,1,3.0000,0.0000,1.44682,0.22371,-2.77992,0.98537,1.57080,0.00001,-0.14512,-0.38002,0.04404,,,,,,,,,,,,,,,,,,,,,,,,,,0,0,0,0,0
1.8561,1783190588.9475,1,1,3.0000,0.0000,1.44682,0.22364,-2.77993,0.98546,1.57080,0.00001,-0.14512,-0.38002,0.04402,,,,,,,,,,,,,,,,,,,,,,,,,,0,0,0,0,0
1.8709,1783190588.9623,1,1,3.0000,0.0000,1.44682,0.22342,-2.77999,0.98574,1.57080,0.00001,-0.14512,-0.38002,0.04397,,,,,,,,,,,,,,,,,,,,,,,,,,0,0,0,0,0
1.8739,1783190588.9653,1,1,3.0000,0.0000,1.44682,0.22342,-2.77999,0.98574,1.57080,0.00001,-0.14512,-0.38002,0.04397,,,,,,,,,,,,,,,,,,,,,,,,,,0,0,0,0,0
1.8746,1783190588.9660,1,1,3.0000,0.0000,1.44682,0.22335,-2.78001,0.98583,1.57080,0.00001,-0.14512,-0.38002,0.04395,,,,,,,,,,,,,,,,,,,,,,,,,,0,0,0,0,0
1.8822,1783190588.9736,1,1,3.0000,0.0000,1.44682,0.22328,-2.78002,0.98591,1.57080,0.00001,-0.14512,-0.38002,0.04393,,,,,,,,,,,,,,,,,,,,,,,,,,0,0,0,0,0
1.8963,1783190588.9877,1,1,3.0000,0.0000,1.44682,0.22321,-2.78004,0.98600,1.57080,0.00001,-0.14512,-0.38002,0.04391,,,,,,,,,,,,,,,,,,,,,,,,,,0,0,0,0,0
1.9017,1783190588.9931,1,1,3.0000,0.0000,1.44682,0.22316,-2.78005,0.98606,1.57080,0.00001,-0.14512,-0.38002,0.04390,,,,,,,,,,,,,,,,,,,,,,,,,,0,0,0,0,0
1.9154,1783190589.0068,1,1,3.0000,0.0000,1.44682,0.22304,-2.78008,0.98622,1.57080,0.00001,-0.14512,-0.38002,0.04387,,,,,,,,,,,,,,,,,,,,,,,,,,0,0,0,0,0
1.9245,1783190589.0159,1,1,3.0000,0.0000,1.44682,0.22295,-2.78011,0.98632,1.57080,0.00001,-0.14512,-0.38002,0.04385,,,,,,,,,,,,,,,,,,,,,,,,,,0,0,0,0,0
1.9301,1783190589.0215,1,1,3.0000,0.0000,1.44682,0.22289,-2.78012,0.98640,1.57080,0.00001,-0.14512,-0.38002,0.04383,,,,,,,,,,,,,,,,,,,,,,,,,,0,0,0,0,0
1.9309,1783190589.0223,1,1,3.0000,0.0000,1.44682,0.22282,-2.78014,0.98649,1.57080,0.00001,-0.14512,-0.38002,0.04381,,,,,,,,,,,,,,,,,,,,,,,,,,0,0,0,0,0
1.9427,1783190589.0341,1,1,3.0000,0.0000,1.44681,0.22268,-2.78018,0.98667,1.57080,0.00001,-0.14512,-0.38002,0.04377,,,,,,,,,,,,,,,,,,,,,,,,,,0,0,0,0,0
1.9512,1783190589.0426,1,1,3.0000,0.0000,1.44681,0.22263,-2.78019,0.98672,1.57080,0.00001,-0.14512,-0.38002,0.04376,,,,,,,,,,,,,,,,,,,,,,,,,,0,0,0,0,0
1.9601,1783190589.0516,1,1,3.0000,0.0000,1.44681,0.22252,-2.78021,0.98686,1.57080,0.00001,-0.14512,-0.38002,0.04373,,,,,,,,,,,,,,,,,,,,,,,,,,0,0,0,0,0
1.9706,1783190589.0620,1,1,3.0000,0.0000,1.44681,0.22238,-2.78025,0.98703,1.57080,0.00001,-0.14512,-0.38002,0.04370,,,,,,,,,,,,,,,,,,,,,,,,,,0,0,0,0,0
1.9801,1783190589.0715,1,1,3.0000,0.0000,1.44681,0.22234,-2.78026,0.98709,1.57080,0.00001,-0.14512,-0.38002,0.04369,,,,,,,,,,,,,,,,,,,,,,,,,,0,0,0,0,0
2.0010,1783190589.0924,1,1,3.0000,0.0000,1.44681,0.22202,-2.78034,0.98749,1.57080,0.00001,-0.14512,-0.38002,0.04361,,,,,,,,,,,,,,,,,,,,,,,,,,0,0,0,0,0
2.0028,1783190589.0942,1,1,3.0000,0.0000,1.44681,0.22202,-2.78034,0.98749,1.57080,0.00001,-0.14512,-0.38002,0.04361,,,,,,,,,,,,,,,,,,,,,,,,,,0,0,0,0,0
2.0106,1783190589.1021,1,1,3.0000,0.0000,1.44681,0.22198,-2.78035,0.98754,1.57080,0.00001,-0.14512,-0.38002,0.04359,,,,,,,,,,,,,,,,,,,,,,,,,,0,0,0,0,0
2.0215,1783190589.1129,1,1,3.0000,0.0000,1.44681,0.22187,-2.78038,0.98768,1.57080,0.00001,-0.14512,-0.38002,0.04357,,,,,,,,,,,,,,,,,,,,,,,,,,0,0,0,0,0
2.0316,1783190589.1231,1,1,3.0000,0.0000,1.44681,0.22173,-2.78041,0.98785,1.57080,0.00001,-0.14512,-0.38002,0.04353,,,,,,,,,,,,,,,,,,,,,,,,,,0,0,0,0,0
2.0461,1783190589.1375,1,1,3.0000,0.0000,1.44681,0.22163,-2.78044,0.98797,1.57080,0.00001,-0.14512,-0.38002,0.04351,,,,,,,,,,,,,,,,,,,,,,,,,,0,0,0,0,0
2.0507,1783190589.1421,1,1,3.0000,0.0000,1.44681,0.22150,-2.78047,0.98813,1.57080,0.00001,-0.14512,-0.38002,0.04347,,,,,,,,,,,,,,,,,,,,,,,,,,0,0,0,0,0
2.0510,1783190589.1425,1,1,3.0000,0.0000,1.44681,0.22150,-2.78047,0.98813,1.57080,0.00001,-0.14512,-0.38002,0.04347,,,,,,,,,,,,,,,,,,,,,,,,,,0,0,0,0,0
2.0606,1783190589.1520,1,1,3.0000,0.0000,1.44681,0.22136,-2.78050,0.98831,1.57080,0.00001,-0.14512,-0.38002,0.04344,,,,,,,,,,,,,,,,,,,,,,,,,,0,0,0,0,0
2.0718,1783190589.1632,1,1,3.0000,0.0000,1.44681,0.22132,-2.78051,0.98836,1.57080,0.00001,-0.14512,-0.38002,0.04342,,,,,,,,,,,,,,,,,,,,,,,,,,0,0,0,0,0
2.0833,1783190589.1747,1,1,3.0000,0.0000,1.44681,0.22114,-2.78056,0.98859,1.57080,0.00001,-0.14512,-0.38002,0.04338,,,,,,,,,,,,,,,,,,,,,,,,,,0,0,0,0,0
2.0908,1783190589.1822,1,1,3.0000,0.0000,1.44681,0.22107,-2.78058,0.98868,1.57080,0.00001,-0.14512,-0.38002,0.04336,,,,,,,,,,,,,,,,,,,,,,,,,,0,0,0,0,0
2.1066,1783190589.1981,1,1,3.0000,0.0000,1.44681,0.22091,-2.78062,0.98887,1.57080,0.00001,-0.14512,-0.38002,0.04332,,,,,,,,,,,,,,,,,,,,,,,,,,0,0,0,0,0
2.1151,1783190589.2065,1,1,3.0000,0.0000,1.44681,0.22078,-2.78065,0.98904,1.57080,0.00001,-0.14512,-0.38002,0.04328,,,,,,,,,,,,,,,,,,,,,,,,,,0,0,0,0,0
2.1154,1783190589.2068,1,1,3.0000,0.0000,1.44681,0.22078,-2.78065,0.98904,1.57080,0.00001,-0.14512,-0.38002,0.04328,,,,,,,,,,,,,,,,,,,,,,,,,,0,0,0,0,0
2.1204,1783190589.2118,1,1,3.0000,0.0000,1.44681,0.22071,-2.78067,0.98913,1.57080,0.00001,-0.14512,-0.38002,0.04327,,,,,,,,,,,,,,,,,,,,,,,,,,0,0,0,0,0
2.1317,1783190589.2231,1,1,3.0000,0.0000,1.44681,0.22066,-2.78068,0.98918,1.57080,0.00001,-0.14512,-0.38002,0.04326,,,,,,,,,,,,,,,,,,,,,,,,,,0,0,0,0,0
2.1533,1783190589.2447,1,1,3.0000,0.0000,1.44681,0.22041,-2.78074,0.98950,1.57080,0.00001,-0.14512,-0.38002,0.04319,,,,,,,,,,,,,,,,,,,,,,,,,,0,0,0,0,0
2.1542,1783190589.2456,1,1,3.0000,0.0000,1.44681,0.22041,-2.78074,0.98950,1.57080,0.00001,-0.14512,-0.38002,0.04319,,,,,,,,,,,,,,,,,,,,,,,,,,0,0,0,0,0
2.1545,1783190589.2460,1,1,3.0000,0.0000,1.44681,0.22040,-2.78074,0.98951,1.57080,0.00001,-0.14512,-0.38002,0.04319,,,,,,,,,,,,,,,,,,,,,,,,,,0,0,0,0,0
2.1605,1783190589.2519,1,1,3.0000,0.0000,1.44681,0.22037,-2.78075,0.98955,1.57080,0.00001,-0.14512,-0.38002,0.04318,,,,,,,,,,,,,,,,,,,,,,,,,,0,0,0,0,0
2.1608,1783190589.2522,1,1,3.0000,0.0000,1.44681,0.22037,-2.78075,0.98955,1.57080,0.00001,-0.14512,-0.38002,0.04318,,,,,,,,,,,,,,,,,,,,,,,,,,0,0,0,0,0
2.1746,1783190589.2660,1,1,3.0000,0.0000,1.44681,0.22012,-2.78081,0.98986,1.57080,0.00001,-0.14512,-0.38002,0.04312,,,,,,,,,,,,,,,,,,,,,,,,,,0,0,0,0,0
2.1859,1783190589.2773,1,1,3.0000,0.0000,1.44681,0.22005,-2.78083,0.98995,1.57080,0.00001,-0.14512,-0.38002,0.04310,,,,,,,,,,,,,,,,,,,,,,,,,,0,0,0,0,0
2.1912,1783190589.2826,1,1,3.0000,0.0000,1.44681,0.22000,-2.78084,0.99001,1.57080,0.00001,-0.14512,-0.38002,0.04309,,,,,,,,,,,,,,,,,,,,,,,,,,0,0,0,0,0
2.2026,1783190589.2940,1,1,3.0000,0.0000,1.44681,0.21982,-2.78089,0.99023,1.57080,0.00001,-0.14512,-0.38002,0.04304,,,,,,,,,,,,,,,,,,,,,,,,,,0,0,0,0,0
2.2100,1783190589.3014,1,1,3.0000,0.0000,1.44681,0.21975,-2.78090,0.99032,1.57080,0.00001,-0.14512,-0.38002,0.04302,,,,,,,,,,,,,,,,,,,,,,,,,,0,0,0,0,0
2.2222,1783190589.3136,1,1,3.0000,0.0000,1.44681,0.21971,-2.78092,0.99038,1.57080,0.00001,-0.14512,-0.38002,0.04301,,,,,,,,,,,,,,,,,,,,,,,,,,0,0,0,0,0
2.2317,1783190589.3231,1,1,3.0000,0.0000,1.44681,0.21953,-2.78096,0.99060,1.57080,0.00001,-0.14512,-0.38002,0.04296,,,,,,,,,,,,,,,,,,,,,,,,,,0,0,0,0,0
2.2426,1783190589.3340,1,1,3.0000,0.0000,1.44681,0.21939,-2.78099,0.99077,1.57080,0.00001,-0.14512,-0.38002,0.04293,,,,,,,,,,,,,,,,,,,,,,,,,,0,0,0,0,0
2.2537,1783190589.3451,1,1,3.0000,0.0000,1.44681,0.21934,-2.78101,0.99083,1.57080,0.00001,-0.14512,-0.38002,0.04292,,,,,,,,,,,,,,,,,,,,,,,,,,0,0,0,0,0
2.2540,1783190589.3454,1,1,3.0000,0.0000,1.44681,0.21934,-2.78101,0.99083,1.57080,0.00001,-0.14512,-0.38002,0.04292,,,,,,,,,,,,,,,,,,,,,,,,,,0,0,0,0,0
2.2675,1783190589.3589,1,1,3.0000,0.0000,1.44681,0.21909,-2.78107,0.99114,1.57080,0.00001,-0.14512,-0.38002,0.04285,,,,,,,,,,,,,,,,,,,,,,,,,,0,0,0,0,0
2.2678,1783190589.3592,1,1,3.0000,0.0000,1.44681,0.21909,-2.78107,0.99114,1.57080,0.00001,-0.14512,-0.38002,0.04285,,,,,,,,,,,,,,,,,,,,,,,,,,0,0,0,0,0
2.2771,1783190589.3685,1,1,3.0000,0.0000,1.44681,0.21908,-2.78107,0.99116,1.57080,0.00001,-0.14512,-0.38002,0.04285,,,,,,,,,,,,,,,,,,,,,,,,,,0,0,0,0,0
2.2775,1783190589.3689,1,1,3.0000,0.0000,1.44681,0.21908,-2.78107,0.99116,1.57080,0.00001,-0.14512,-0.38002,0.04285,,,,,,,,,,,,,,,,,,,,,,,,,,0,0,0,0,0
2.2876,1783190589.3791,1,1,3.0000,0.0000,1.44681,0.21894,-2.78111,0.99134,1.57080,0.00001,-0.14512,-0.38002,0.04281,,,,,,,,,,,,,,,,,,,,,,,,,,0,0,0,0,0
2.2954,1783190589.3868,1,1,3.0000,0.0000,1.44681,0.21880,-2.78114,0.99151,1.57080,0.00001,-0.14512,-0.38002,0.04278,,,,,,,,,,,,,,,,,,,,,,,,,,0,0,0,0,0
2.3075,1783190589.3990,1,1,3.0000,0.0000,1.44681,0.21872,-2.78116,0.99161,1.57080,0.00001,-0.14512,-0.38002,0.04276,,,,,,,,,,,,,,,,,,,,,,,,,,0,0,0,0,0
2.3153,1783190589.4067,1,1,3.0000,0.0000,1.44681,0.21863,-2.78118,0.99171,1.57080,0.00001,-0.14512,-0.38002,0.04274,,,,,,,,,,,,,,,,,,,,,,,,,,0,0,0,0,0
2.3156,1783190589.4070,1,1,3.0000,0.0000,1.44681,0.21863,-2.78118,0.99171,1.57080,0.00001,-0.14512,-0.38002,0.04274,,,,,,,,,,,,,,,,,,,,,,,,,,0,0,0,0,0
2.3273,1783190589.4187,1,1,3.0000,0.0000,1.44681,0.21843,-2.78123,0.99197,1.57080,0.00001,-0.14512,-0.38002,0.04268,,,,,,,,,,,,,,,,,,,,,,,,,,0,0,0,0,0
2.3277,1783190589.4191,1,1,3.0000,0.0000,1.44681,0.21843,-2.78123,0.99197,1.57080,0.00001,-0.14512,-0.38002,0.04268,,,,,,,,,,,,,,,,,,,,,,,,,,0,0,0,0,0
2.3356,1783190589.4270,1,1,3.0000,0.0000,1.44681,0.21836,-2.78125,0.99205,1.57080,0.00001,-0.14512,-0.38002,0.04267,,,,,,,,,,,,,,,,,,,,,,,,,,0,0,0,0,0
2.3549,1783190589.4463,1,1,3.0000,0.0000,1.44681,0.21819,-2.78129,0.99227,1.57080,0.00001,-0.14512,-0.38002,0.04262,,,,,,,,,,,,,,,,,,,,,,,,,,0,0,0,0,0
2.3552,1783190589.4466,1,1,3.0000,0.0000,1.44681,0.21819,-2.78129,0.99227,1.57080,0.00001,-0.14512,-0.38002,0.04262,,,,,,,,,,,,,,,,,,,,,,,,,,0,0,0,0,0
2.3892,1783190589.4806,1,1,3.0000,0.0000,1.44681,0.21783,-2.78138,0.99272,1.57080,0.00001,-0.14512,-0.38002,0.04253,,,,,,,,,,,,,,,,,,,,,,,,,,0,0,0,0,0
2.3896,1783190589.4810,1,1,3.0000,0.0000,1.44681,0.21783,-2.78138,0.99272,1.57080,0.00001,-0.14512,-0.38002,0.04253,,,,,,,,,,,,,,,,,,,,,,,,,,0,0,0,0,0
2.3972,1783190589.4886,1,1,3.0000,0.0000,1.44681,0.21776,-2.78140,0.99281,1.57080,0.00001,-0.14512,-0.38002,0.04251,,,,,,,,,,,,,,,,,,,,,,,,,,0,0,0,0,0
2.3990,1783190589.4904,1,1,3.0000,0.0000,1.44681,0.21775,-2.78140,0.99282,1.57080,0.00001,-0.14512,-0.38002,0.04251,,,,,,,,,,,,,,,,,,,,,,,,,,0,0,0,0,0
2.4267,1783190589.5181,1,1,3.0000,0.0000,1.44681,0.21751,-2.78146,0.99311,1.57080,0.00001,-0.14512,-0.38002,0.04245,,,,,,,,,,,,,,,,,,,,,,,,,,0,0,0,0,0
2.4316,1783190589.5231,1,1,3.0000,0.0000,1.44681,0.21748,-2.78147,0.99316,1.57080,0.00001,-0.14512,-0.38002,0.04244,,,,,,,,,,,,,,,,,,,,,,,,,,0,0,0,0,0
2.4319,1783190589.5233,1,1,3.0000,0.0000,1.44681,0.21748,-2.78147,0.99316,1.57080,0.00001,-0.14512,-0.38002,0.04244,,,,,,,,,,,,,,,,,,,,,,,,,,0,0,0,0,0
2.4364,1783190589.5278,1,1,3.0000,0.0000,1.44681,0.21743,-2.78148,0.99322,1.57080,0.00001,-0.14512,-0.38002,0.04243,,,,,,,,,,,,,,,,,,,,,,,,,,0,0,0,0,0
2.4367,1783190589.5281,1,1,3.0000,0.0000,1.44681,0.21743,-2.78148,0.99322,1.57080,0.00001,-0.14512,-0.38002,0.04243,,,,,,,,,,,,,,,,,,,,,,,,,,0,0,0,0,0
2.4452,1783190589.5366,1,1,3.0000,0.0000,1.44681,0.21729,-2.78151,0.99339,1.57080,0.00001,-0.14512,-0.38002,0.04239,,,,,,,,,,,,,,,,,,,,,,,,,,0,0,0,0,0
2.4458,1783190589.5372,1,1,3.0000,0.0000,1.44681,0.21729,-2.78151,0.99339,1.57080,0.00001,-0.14512,-0.38002,0.04239,,,,,,,,,,,,,,,,,,,,,,,,,,0,0,0,0,0
2.4568,1783190589.5482,1,1,3.0000,0.0000,1.44681,0.21715,-2.78155,0.99357,1.57080,0.00001,-0.14512,-0.38002,0.04236,,,,,,,,,,,,,,,,,,,,,,,,,,0,0,0,0,0
2.4678,1783190589.5592,1,1,3.0000,0.0000,1.44681,0.21708,-2.78157,0.99365,1.57080,0.00001,-0.14512,-0.38002,0.04234,,,,,,,,,,,,,,,,,,,,,,,,,,0,0,0,0,0
2.4775,1783190589.5689,1,1,3.0000,0.0000,1.44681,0.21698,-2.78159,0.99378,1.57080,0.00001,-0.14512,-0.38002,0.04231,,,,,,,,,,,,,,,,,,,,,,,,,,0,0,0,0,0
2.4867,1783190589.5781,1,1,3.0000,0.0000,1.44681,0.21691,-2.78161,0.99387,1.57080,0.00001,-0.14512,-0.38002,0.04229,,,,,,,,,,,,,,,,,,,,,,,,,,0,0,0,0,0
2.4964,1783190589.5879,1,1,3.0000,0.0000,1.44681,0.21682,-2.78163,0.99398,1.57080,0.00001,-0.14512,-0.38002,0.04227,,,,,,,,,,,,,,,,,,,,,,,,,,0,0,0,0,0
2.5117,1783190589.6032,1,1,3.0000,0.0000,1.44681,0.21654,-2.78170,0.99432,1.57080,0.00001,-0.14512,-0.38002,0.04220,,,,,,,,,,,,,,,,,,,,,,,,,,0,0,0,0,0
2.5156,1783190589.6070,1,1,3.0000,0.0000,1.44681,0.21654,-2.78170,0.99432,1.57080,0.00001,-0.14512,-0.38002,0.04220,,,,,,,,,,,,,,,,,,,,,,,,,,0,0,0,0,0
2.5299,1783190589.6213,1,1,3.0000,0.0000,1.44681,0.21645,-2.78172,0.99444,1.57080,0.00001,-0.14512,-0.38002,0.04218,,,,,,,,,,,,,,,,,,,,,,,,,,0,0,0,0,0
2.5404,1783190589.6318,1,1,3.0000,0.0000,1.44681,0.21625,-2.78177,0.99469,1.57080,0.00001,-0.14512,-0.38002,0.04213,,,,,,,,,,,,,,,,,,,,,,,,,,0,0,0,0,0
2.5407,1783190589.6322,1,1,3.0000,0.0000,1.44681,0.21625,-2.78177,0.99469,1.57080,0.00001,-0.14512,-0.38002,0.04213,,,,,,,,,,,,,,,,,,,,,,,,,,0,0,0,0,0
2.5477,1783190589.6391,1,1,3.0000,0.0000,1.44681,0.21623,-2.78177,0.99471,1.57080,0.00001,-0.14512,-0.38002,0.04212,,,,,,,,,,,,,,,,,,,,,,,,,,0,0,0,0,0
2.5617,1783190589.6531,1,1,3.0000,0.0000,1.44681,0.21609,-2.78181,0.99489,1.57080,0.00001,-0.14512,-0.38002,0.04209,,,,,,,,,,,,,,,,,,,,,,,,,,0,0,0,0,0
2.5727,1783190589.6641,1,1,3.0000,0.0000,1.44681,0.21588,-2.78186,0.99515,1.57080,0.00001,-0.14512,-0.38002,0.04203,,,,,,,,,,,,,,,,,,,,,,,,,,0,0,0,0,0
2.5729,1783190589.6643,1,1,3.0000,0.0000,1.44681,0.21588,-2.78186,0.99515,1.57080,0.00001,-0.14512,-0.38002,0.04203,,,,,,,,,,,,,,,,,,,,,,,,,,0,0,0,0,0
2.5772,1783190589.6686,1,1,3.0000,0.0000,1.44681,0.21588,-2.78186,0.99515,1.57080,0.00001,-0.14512,-0.38002,0.04203,,,,,,,,,,,,,,,,,,,,,,,,,,0,0,0,0,0
2.5775,1783190589.6689,1,1,3.0000,0.0000,1.44681,0.21588,-2.78186,0.99515,1.57080,0.00001,-0.14512,-0.38002,0.04203,,,,,,,,,,,,,,,,,,,,,,,,,,0,0,0,0,0
2.5914,1783190589.6828,1,1,3.0000,0.0000,1.44681,0.21572,-2.78190,0.99534,1.57080,0.00001,-0.14512,-0.38002,0.04199,,,,,,,,,,,,,,,,,,,,,,,,,,0,0,0,0,0
2.6014,1783190589.6928,1,1,3.0000,0.0000,1.44681,0.21558,-2.78193,0.99552,1.57080,0.00001,-0.14512,-0.38002,0.04196,,,,,,,,,,,,,,,,,,,,,,,,,,0,0,0,0,0
2.6017,1783190589.6931,1,1,3.0000,0.0000,1.44681,0.21558,-2.78193,0.99552,1.57080,0.00001,-0.14512,-0.38002,0.04196,,,,,,,,,,,,,,,,,,,,,,,,,,0,0,0,0,0
2.6118,1783190589.7032,1,1,3.0000,0.0000,1.44681,0.21554,-2.78194,0.99557,1.57080,0.00001,-0.14512,-0.38002,0.04194,,,,,,,,,,,,,,,,,,,,,,,,,,0,0,0,0,0
2.6121,1783190589.7036,1,1,3.0000,0.0000,1.44681,0.21554,-2.78194,0.99557,1.57080,0.00001,-0.14512,-0.38002,0.04194,,,,,,,,,,,,,,,,,,,,,,,,,,0,0,0,0,0
2.6154,1783190589.7068,1,1,3.0000,0.0000,1.44681,0.21549,-2.78196,0.99563,1.57080,0.00001,-0.14512,-0.38002,0.04193,,,,,,,,,,,,,,,,,,,,,,,,,,0,0,0,0,0
2.6157,1783190589.7071,1,1,3.0000,0.0000,1.44681,0.21549,-2.78196,0.99563,1.57080,0.00001,-0.14512,-0.38002,0.04193,,,,,,,,,,,,,,,,,,,,,,,,,,0,0,0,0,0
2.6252,1783190589.7166,1,1,3.0000,0.0000,1.44681,0.21536,-2.78199,0.99580,1.57080,0.00001,-0.14512,-0.38002,0.04190,,,,,,,,,,,,,,,,,,,,,,,,,,0,0,0,0,0
2.6256,1783190589.7170,1,1,3.0000,0.0000,1.44681,0.21536,-2.78199,0.99580,1.57080,0.00001,-0.14512,-0.38002,0.04190,,,,,,,,,,,,,,,,,,,,,,,,,,0,0,0,0,0
2.6372,1783190589.7286,1,1,3.0000,0.0000,1.44681,0.21522,-2.78202,0.99597,1.57080,0.00001,-0.14512,-0.38002,0.04186,,,,,,,,,,,,,,,,,,,,,,,,,,0,0,0,0,0
2.6453,1783190589.7368,1,1,3.0000,0.0000,1.44681,0.21517,-2.78203,0.99603,1.57080,0.00001,-0.14512,-0.38002,0.04185,,,,,,,,,,,,,,,,,,,,,,,,,,0,0,0,0,0
2.6457,1783190589.7371,1,1,3.0000,0.0000,1.44681,0.21517,-2.78203,0.99603,1.57080,0.00001,-0.14512,-0.38002,0.04185,,,,,,,,,,,,,,,,,,,,,,,,,,0,0,0,0,0
2.6614,1783190589.7528,1,1,3.0000,0.0000,1.44681,0.21492,-2.78210,0.99634,1.57080,0.00001,-0.14512,-0.38002,0.04179,,,,,,,,,,,,,,,,,,,,,,,,,,0,0,0,0,0
2.6746,1783190589.7660,1,1,3.0000,0.0000,1.44681,0.21482,-2.78212,0.99646,1.57080,0.00001,-0.14512,-0.38002,0.04176,,,,,,,,,,,,,,,,,,,,,,,,,,0,0,0,0,0
2.6748,1783190589.7663,1,1,3.0000,0.0000,1.44681,0.21482,-2.78212,0.99646,1.57080,0.00001,-0.14512,-0.38002,0.04176,,,,,,,,,,,,,,,,,,,,,,,,,,0,0,0,0,0
2.6771,1783190589.7685,1,1,3.0000,0.0000,1.44681,0.21482,-2.78212,0.99646,1.57080,0.00001,-0.14512,-0.38002,0.04176,,,,,,,,,,,,,,,,,,,,,,,,,,0,0,0,0,0
2.6774,1783190589.7689,1,1,3.0000,0.0000,1.44681,0.21482,-2.78212,0.99646,1.57080,0.00001,-0.14512,-0.38002,0.04176,,,,,,,,,,,,,,,,,,,,,,,,,,0,0,0,0,0
2.6859,1783190589.7773,1,1,3.0000,0.0000,1.44681,0.21469,-2.78215,0.99662,1.57080,0.00001,-0.14512,-0.38002,0.04173,,,,,,,,,,,,,,,,,,,,,,,,,,0,0,0,0,0
2.7027,1783190589.7941,1,1,3.0000,0.0000,1.44681,0.21452,-2.78219,0.99684,1.57080,0.00002,-0.14512,-0.38002,0.04169,,,,,,,,,,,,,,,,,,,,,,,,,,0,0,0,0,0
2.7207,1783190589.8122,1,1,3.0000,0.0000,1.44681,0.21432,-2.78224,0.99709,1.57080,0.00002,-0.14512,-0.38002,0.04163,,,,,,,,,,,,,,,,,,,,,,,,,,0,0,0,0,0
2.7211,1783190589.8125,1,1,3.0000,0.0000,1.44681,0.21432,-2.78224,0.99709,1.57080,0.00002,-0.14512,-0.38002,0.04163,,,,,,,,,,,,,,,,,,,,,,,,,,0,0,0,0,0
2.7252,1783190589.8167,1,1,3.0000,0.0000,1.44681,0.21432,-2.78224,0.99709,1.57080,0.00002,-0.14512,-0.38002,0.04163,,,,,,,,,,,,,,,,,,,,,,,,,,0,0,0,0,0
2.7256,1783190589.8170,1,1,3.0000,0.0000,1.44681,0.21432,-2.78224,0.99709,1.57080,0.00002,-0.14512,-0.38002,0.04163,,,,,,,,,,,,,,,,,,,,,,,,,,0,0,0,0,0
2.7368,1783190589.8282,1,1,3.0000,0.0000,1.44681,0.21422,-2.78227,0.99721,1.57080,0.00002,-0.14512,-0.38002,0.04161,,,,,,,,,,,,,,,,,,,,,,,,,,0,0,0,0,0
2.7455,1783190589.8369,1,1,3.0000,0.0000,1.44681,0.21409,-2.78230,0.99738,1.57080,0.00002,-0.14512,-0.38002,0.04157,,,,,,,,,,,,,,,,,,,,,,,,,,0,0,0,0,0
2.7670,1783190589.8584,1,1,3.0000,0.0000,1.44681,0.21385,-2.78236,0.99768,1.57080,0.00002,-0.14512,-0.38002,0.04151,,,,,,,,,,,,,,,,,,,,,,,,,,0,0,0,0,0
2.7677,1783190589.8591,1,1,3.0000,0.0000,1.44681,0.21385,-2.78236,0.99768,1.57080,0.00002,-0.14512,-0.38002,0.04151,,,,,,,,,,,,,,,,,,,,,,,,,,0,0,0,0,0
2.7771,1783190589.8685,1,1,3.0000,0.0000,1.44681,0.21372,-2.78239,0.99784,1.57080,0.00002,-0.14512,-0.38002,0.04148,,,,,,,,,,,,,,,,,,,,,,,,,,0,0,0,0,0
2.7774,1783190589.8688,1,1,3.0000,0.0000,1.44681,0.21372,-2.78239,0.99784,1.57080,0.00002,-0.14512,-0.38002,0.04148,,,,,,,,,,,,,,,,,,,,,,,,,,0,0,0,0,0
2.7855,1783190589.8769,1,1,3.0000,0.0000,1.44681,0.21365,-2.78241,0.99793,1.57080,0.00002,-0.14512,-0.38002,0.04146,,,,,,,,,,,,,,,,,,,,,,,,,,0,0,0,0,0
2.7963,1783190589.8877,1,1,3.0000,0.0000,1.44681,0.21355,-2.78243,0.99805,1.57080,0.00002,-0.14512,-0.38002,0.04144,,,,,,,,,,,,,,,,,,,,,,,,,,0,0,0,0,0
2.8068,1783190589.8982,1,1,3.0000,0.0000,1.44681,0.21335,-2.78248,0.99830,1.57080,0.00002,-0.14512,-0.38002,0.04139,,,,,,,,,,,,,,,,,,,,,,,,,,0,0,0,0,0
2.8206,1783190589.9120,1,1,3.0000,0.0000,1.44681,0.21327,-2.78250,0.99840,1.57080,0.00002,-0.14512,-0.38002,0.04137,,,,,,,,,,,,,,,,,,,,,,,,,,0,0,0,0,0
2.8320,1783190589.9234,1,1,3.0000,0.0000,1.44681,0.21312,-2.78254,0.99858,1.57080,0.00002,-0.14512,-0.38002,0.04133,,,,,,,,,,,,,,,,,,,,,,,,,,0,0,0,0,0
2.8386,1783190589.9300,1,1,3.0000,0.0000,1.44681,0.21298,-2.78257,0.99876,1.57080,0.00002,-0.14512,-0.38002,0.04129,,,,,,,,,,,,,,,,,,,,,,,,,,0,0,0,0,0
2.8483,1783190589.9397,1,1,3.0000,0.0000,1.44681,0.21291,-2.78259,0.99884,1.57080,0.00002,-0.14512,-0.38002,0.04128,,,,,,,,,,,,,,,,,,,,,,,,,,0,0,0,0,0
2.8688,1783190589.9602,1,1,3.0000,0.0000,1.44681,0.21274,-2.78263,0.99906,1.57080,0.00002,-0.14512,-0.38002,0.04123,,,,,,,,,,,,,,,,,,,,,,,,,,0,0,0,0,0
2.8691,1783190589.9605,1,1,3.0000,0.0000,1.44681,0.21274,-2.78263,0.99906,1.57080,0.00002,-0.14512,-0.38002,0.04123,,,,,,,,,,,,,,,,,,,,,,,,,,0,0,0,0,0
2.8734,1783190589.9648,1,1,3.0000,0.0000,1.44681,0.21268,-2.78264,0.99913,1.57080,0.00002,-0.14512,-0.38002,0.04122,,,,,,,,,,,,,,,,,,,,,,,,,,0,0,0,0,0
2.8819,1783190589.9733,1,1,3.0000,0.0000,1.44681,0.21266,-2.78265,0.99915,1.57080,0.00002,-0.14512,-0.38002,0.04121,,,,,,,,,,,,,,,,,,,,,,,,,,0,0,0,0,0
2.8897,1783190589.9812,1,1,3.0000,0.0000,1.44681,0.21258,-2.78267,0.99926,1.57080,0.00002,-0.14512,-0.38002,0.04119,,,,,,,,,,,,,,,,,,,,,,,,,,0,0,0,0,0
2.8969,1783190589.9884,1,1,3.0000,0.0000,1.44681,0.21244,-2.78270,0.99942,1.57080,0.00002,-0.14512,-0.38002,0.04116,,,,,,,,,,,,,,,,,,,,,,,,,,0,0,0,0,0
2.9068,1783190589.9982,1,1,3.0000,0.0000,1.44681,0.21230,-2.78274,0.99960,1.57080,0.00002,-0.14512,-0.38002,0.04112,,,,,,,,,,,,,,,,,,,,,,,,,,0,0,0,0,0
2.9204,1783190590.0118,1,1,3.0000,0.0000,1.44681,0.21223,-2.78275,0.99969,1.57080,0.00002,-0.14512,-0.38002,0.04110,,,,,,,,,,,,,,,,,,,,,,,,,,0,0,0,0,0
2.9296,1783190590.0210,1,1,3.0000,0.0000,1.44681,0.21213,-2.78278,0.99982,1.57080,0.00002,-0.14512,-0.38002,0.04108,,,,,,,,,,,,,,,,,,,,,,,,,,0,0,0,0,0
2.9379,1783190590.0293,1,1,3.0000,0.0000,1.44681,0.21206,-2.78279,0.99989,1.57080,0.00002,-0.14512,-0.38002,0.04106,,,,,,,,,,,,,,,,,,,,,,,,,,0,0,0,0,0
2.9457,1783190590.0371,1,1,3.0000,0.0000,1.44681,0.21202,-2.78280,0.99995,1.57080,0.00002,-0.14512,-0.38002,0.04105,,,,,,,,,,,,,,,,,,,,,,,,,,0,0,0,0,0
2.9597,1783190590.0511,1,1,3.0000,0.0000,1.44681,0.21176,-2.78287,1.00027,1.57080,0.00002,-0.14512,-0.38002,0.04098,,,,,,,,,,,,,,,,,,,,,,,,,,0,0,0,0,0
2.9673,1783190590.0587,1,1,3.0000,0.0000,1.44681,0.21169,-2.78288,1.00036,1.57080,0.00002,-0.14512,-0.38002,0.04097,,,,,,,,,,,,,,,,,,,,,,,,,,0,0,0,0,0
2.9820,1783190590.0734,1,1,3.0000,0.0000,1.44681,0.21162,-2.78290,1.00045,1.57080,0.00002,-0.14512,-0.38002,0.04095,,,,,,,,,,,,,,,,,,,,,,,,,,0,0,0,0,0
2.9855,1783190590.0769,1,1,3.0000,0.0000,1.44681,0.21157,-2.78291,1.00051,1.57080,0.00002,-0.14512,-0.38002,0.04094,,,,,,,,,,,,,,,,,,,,,,,,,,0,0,0,0,0
2.9954,1783190590.0868,1,1,3.0000,0.0000,1.44681,0.21145,-2.78294,1.00065,1.57080,0.00002,-0.14512,-0.38002,0.04091,,,,,,,,,,,,,,,,,,,,,,,,,,0,0,0,0,0
3.0099,1783190590.1013,1,1,3.0000,0.0000,1.44681,0.21135,-2.78296,1.00078,1.57080,0.00002,-0.14512,-0.38002,0.04088,,,,,,,,,,,,,,,,,,,,,,,,,,0,0,0,0,0
3.0232,1783190590.1146,1,1,3.0000,0.0000,1.44681,0.21107,-2.78303,1.00112,1.57080,0.00002,-0.14512,-0.38002,0.04081,,,,,,,,,,,,,,,,,,,,,,,,,,0,0,0,0,0
3.0266,1783190590.1180,1,1,3.0000,0.0000,1.44681,0.21107,-2.78303,1.00112,1.57080,0.00002,-0.14512,-0.38002,0.04081,,,,,,,,,,,,,,,,,,,,,,,,,,0,0,0,0,0
3.0269,1783190590.1183,1,1,3.0000,0.0000,1.44681,0.21107,-2.78303,1.00112,1.57080,0.00002,-0.14512,-0.38002,0.04081,,,,,,,,,,,,,,,,,,,,,,,,,,0,0,0,0,0
3.0368,1783190590.1282,1,1,3.0000,0.0000,1.44681,0.21104,-2.78304,1.00116,1.57080,0.00002,-0.14512,-0.38002,0.04080,,,,,,,,,,,,,,,,,,,,,,,,,,0,0,0,0,0
3.0372,1783190590.1286,1,1,3.0000,0.0000,1.44681,0.21104,-2.78304,1.00116,1.57080,0.00002,-0.14512,-0.38002,0.04080,,,,,,,,,,,,,,,,,,,,,,,,,,0,0,0,0,0
3.0461,1783190590.1375,1,1,3.0000,0.0000,1.44681,0.21096,-2.78306,1.00127,1.57080,0.00002,-0.14512,-0.38002,0.04078,,,,,,,,,,,,,,,,,,,,,,,,,,0,0,0,0,0
3.0574,1783190590.1489,1,1,3.0000,0.0000,1.44681,0.21084,-2.78309,1.00141,1.57080,0.00002,-0.14512,-0.38002,0.04075,,,,,,,,,,,,,,,,,,,,,,,,,,0,0,0,0,0
3.0711,1783190590.1625,1,1,3.0000,0.0000,1.44681,0.21068,-2.78313,1.00162,1.57080,0.00002,-0.14512,-0.38002,0.04071,,,,,,,,,,,,,,,,,,,,,,,,,,0,0,0,0,0
3.0765,1783190590.1679,1,1,3.0000,0.0000,1.44681,0.21061,-2.78314,1.00170,1.57080,0.00002,-0.14512,-0.38002,0.04069,,,,,,,,,,,,,,,,,,,,,,,,,,0,0,0,0,0
3.0858,1783190590.1772,1,1,3.0000,0.0000,1.44681,0.21046,-2.78318,1.00188,1.57080,0.00002,-0.14512,-0.38002,0.04066,,,,,,,,,,,,,,,,,,,,,,,,,,0,0,0,0,0
3.0966,1783190590.1880,1,1,3.0000,0.0000,1.44681,0.21043,-2.78319,1.00192,1.57080,0.00002,-0.14512,-0.38002,0.04065,,,,,,,,,,,,,,,,,,,,,,,,,,0,0,0,0,0
3.1070,1783190590.1984,1,1,3.0000,0.0000,1.44681,0.21029,-2.78322,1.00210,1.57080,0.00002,-0.14512,-0.38002,0.04061,,,,,,,,,,,,,,,,,,,,,,,,,,0,0,0,0,0
3.1291,1783190590.2205,1,1,3.0000,0.0000,1.44681,0.21013,-2.78326,1.00230,1.57080,0.00002,-0.14512,-0.38002,0.04057,,,,,,,,,,,,,,,,,,,,,,,,,,0,0,0,0,0
3.1296,1783190590.2210,1,1,3.0000,0.0000,1.44681,0.21013,-2.78326,1.00230,1.57080,0.00002,-0.14512,-0.38002,0.04057,,,,,,,,,,,,,,,,,,,,,,,,,,0,0,0,0,0
3.1418,1783190590.2332,1,1,3.0000,0.0000,1.44681,0.20992,-2.78331,1.00256,1.57080,0.00002,-0.14512,-0.38002,0.04052,,,,,,,,,,,,,,,,,,,,,,,,,,0,0,0,0,0
3.1473,1783190590.2387,1,1,3.0000,0.0000,1.44681,0.20985,-2.78333,1.00264,1.57080,0.00002,-0.14512,-0.38002,0.04050,,,,,,,,,,,,,,,,,,,,,,,,,,0,0,0,0,0
3.1576,1783190590.2490,1,1,3.0000,0.0000,1.44681,0.20982,-2.78334,1.00268,1.57080,0.00002,-0.14512,-0.38002,0.04049,,,,,,,,,,,,,,,,,,,,,,,,,,0,0,0,0,0
3.1781,1783190590.2695,1,1,3.0000,0.0000,1.44680,0.20962,-2.78338,1.00293,1.57080,0.00002,-0.14512,-0.38002,0.04044,,,,,,,,,,,,,,,,,,,,,,,,,,0,0,0,0,0
3.1804,1783190590.2719,1,1,3.0000,0.0000,1.44680,0.20960,-2.78339,1.00295,1.57080,0.00002,-0.14512,-0.38002,0.04044,,,,,,,,,,,,,,,,,,,,,,,,,,0,0,0,0,0
3.1868,1783190590.2782,1,1,3.0000,0.0000,1.44680,0.20952,-2.78341,1.00306,1.57079,0.00002,-0.14512,-0.38002,0.04042,,,,,,,,,,,,,,,,,,,,,,,,,,0,0,0,0,0
3.1871,1783190590.2785,1,1,3.0000,0.0000,1.44680,0.20952,-2.78341,1.00306,1.57079,0.00002,-0.14512,-0.38002,0.04042,,,,,,,,,,,,,,,,,,,,,,,,,,0,0,0,0,0
3.1955,1783190590.2869,1,1,3.0000,0.0000,1.44680,0.20938,-2.78344,1.00323,1.57079,0.00002,-0.14512,-0.38002,0.04038,,,,,,,,,,,,,,,,,,,,,,,,,,0,0,0,0,0
3.2131,1783190590.3045,1,1,3.0000,0.0000,1.44680,0.20922,-2.78348,1.00342,1.57079,0.00002,-0.14512,-0.38002,0.04034,,,,,,,,,,,,,,,,,,,,,,,,,,0,0,0,0,0
3.2317,1783190590.3231,1,1,3.0000,0.0000,1.44680,0.20894,-2.78355,1.00378,1.57079,0.00002,-0.14512,-0.38002,0.04027,,,,,,,,,,,,,,,,,,,,,,,,,,0,0,0,0,0
3.2319,1783190590.3233,1,1,3.0000,0.0000,1.44680,0.20894,-2.78355,1.00378,1.57079,0.00002,-0.14512,-0.38002,0.04027,,,,,,,,,,,,,,,,,,,,,,,,,,0,0,0,0,0
3.2351,1783190590.3266,1,1,3.0000,0.0000,1.44680,0.20894,-2.78355,1.00378,1.57079,0.00002,-0.14512,-0.38002,0.04027,,,,,,,,,,,,,,,,,,,,,,,,,,0,0,0,0,0
3.2354,1783190590.3268,1,1,3.0000,0.0000,1.44680,0.20894,-2.78355,1.00378,1.57079,0.00002,-0.14512,-0.38002,0.04027,,,,,,,,,,,,,,,,,,,,,,,,,,0,0,0,0,0
3.2468,1783190590.3382,1,1,3.0000,0.0000,1.44680,0.20884,-2.78357,1.00389,1.57079,0.00002,-0.14512,-0.38002,0.04025,,,,,,,,,,,,,,,,,,,,,,,,,,0,0,0,0,0
3.2472,1783190590.3386,1,1,3.0000,0.0000,1.44680,0.20884,-2.78357,1.00389,1.57079,0.00002,-0.14512,-0.38002,0.04025,,,,,,,,,,,,,,,,,,,,,,,,,,0,0,0,0,0
3.2555,1783190590.3469,1,1,3.0000,0.0000,1.44680,0.20871,-2.78360,1.00406,1.57079,0.00002,-0.14512,-0.38002,0.04021,,,,,,,,,,,,,,,,,,,,,,,,,,0,0,0,0,0
3.2557,1783190590.3471,1,1,3.0000,0.0000,1.44680,0.20871,-2.78360,1.00406,1.57079,0.00002,-0.14512,-0.38002,0.04021,,,,,,,,,,,,,,,,,,,,,,,,,,0,0,0,0,0
3.2757,1783190590.3672,1,1,3.0000,0.0000,1.44680,0.20852,-2.78365,1.00429,1.57079,0.00002,-0.14512,-0.38002,0.04016,,,,,,,,,,,,,,,,,,,,,,,,,,0,0,0,0,0
3.2814,1783190590.3728,1,1,3.0000,0.0000,1.44680,0.20847,-2.78366,1.00435,1.57079,0.00002,-0.14512,-0.38002,0.04015,,,,,,,,,,,,,,,,,,,,,,,,,,0,0,0,0,0
3.2869,1783190590.3784,1,1,3.0000,0.0000,1.44680,0.20834,-2.78369,1.00452,1.57079,0.00002,-0.14512,-0.38002,0.04012,,,,,,,,,,,,,,,,,,,,,,,,,,0,0,0,0,0
3.2873,1783190590.3788,1,1,3.0000,0.0000,1.44680,0.20834,-2.78369,1.00452,1.57079,0.00002,-0.14512,-0.38002,0.04012,,,,,,,,,,,,,,,,,,,,,,,,,,0,0,0,0,0
3.2975,1783190590.3889,1,1,3.0000,0.0000,1.44680,0.20827,-2.78371,1.00461,1.57079,0.00002,-0.14512,-0.38002,0.04010,,,,,,,,,,,,,,,,,,,,,,,,,,0,0,0,0,0
3.3161,1783190590.4076,1,1,3.0000,0.0000,1.44680,0.20804,-2.78376,1.00489,1.57079,0.00002,-0.14512,-0.38002,0.04004,,,,,,,,,,,,,,,,,,,,,,,,,,0,0,0,0,0
3.3191,1783190590.4105,1,1,3.0000,0.0000,1.44680,0.20797,-2.78378,1.00498,1.57079,0.00002,-0.14512,-0.38002,0.04002,,,,,,,,,,,,,,,,,,,,,,,,,,0,0,0,0,0
3.3317,1783190590.4231,1,1,3.0000,0.0000,1.44680,0.20789,-2.78380,1.00508,1.57079,0.00002,-0.14512,-0.38002,0.04000,,,,,,,,,,,,,,,,,,,,,,,,,,0,0,0,0,0
3.3356,1783190590.4270,1,1,3.0000,0.0000,1.44680,0.20785,-2.78381,1.00512,1.57079,0.00002,-0.14512,-0.38002,0.04000,,,,,,,,,,,,,,,,,,,,,,,,,,0,0,0,0,0
3.3466,1783190590.4381,1,1,3.0000,0.0000,1.44680,0.20767,-2.78385,1.00535,1.57079,0.00002,-0.14512,-0.38002,0.03995,,,,,,,,,,,,,,,,,,,,,,,,,,0,0,0,0,0
3.3589,1783190590.4503,1,1,3.0000,0.0000,1.44680,0.20758,-2.78387,1.00545,1.57079,0.00002,-0.14512,-0.38002,0.03993,,,,,,,,,,,,,,,,,,,,,,,,,,0,0,0,0,0
3.3661,1783190590.4575,1,1,3.0000,0.0000,1.44680,0.20755,-2.78388,1.00549,1.57079,0.00002,-0.14512,-0.38002,0.03992,,,,,,,,,,,,,,,,,,,,,,,,,,0,0,0,0,0
3.3772,1783190590.4686,1,1,3.0000,0.0000,1.44680,0.20737,-2.78392,1.00572,1.57079,0.00002,-0.14512,-0.38002,0.03987,,,,,,,,,,,,,,,,,,,,,,,,,,0,0,0,0,0
3.3775,1783190590.4689,1,1,3.0000,0.0000,1.44680,0.20737,-2.78392,1.00572,1.57079,0.00002,-0.14512,-0.38002,0.03987,,,,,,,,,,,,,,,,,,,,,,,,,,0,0,0,0,0
3.3898,1783190590.4812,1,1,3.0000,0.0000,1.44680,0.20723,-2.78396,1.00590,1.57079,0.00002,-0.14512,-0.38002,0.03984,,,,,,,,,,,,,,,,,,,,,,,,,,0,0,0,0,0
3.3988,1783190590.4902,1,1,3.0000,0.0000,1.44680,0.20713,-2.78398,1.00602,1.57079,0.00002,-0.14512,-0.38002,0.03981,,,,,,,,,,,,,,,,,,,,,,,,,,0,0,0,0,0
3.3990,1783190590.4904,1,1,3.0000,0.0000,1.44680,0.20713,-2.78398,1.00602,1.57079,0.00002,-0.14512,-0.38002,0.03981,,,,,,,,,,,,,,,,,,,,,,,,,,0,0,0,0,0
3.4097,1783190590.5011,1,1,3.0000,0.0000,1.44680,0.20700,-2.78401,1.00618,1.57079,0.00002,-0.14512,-0.38002,0.03978,,,,,,,,,,,,,,,,,,,,,,,,,,0,0,0,0,0
3.4168,1783190590.5082,1,1,3.0000,0.0000,1.44680,0.20692,-2.78403,1.00627,1.57079,0.00002,-0.14512,-0.38002,0.03976,,,,,,,,,,,,,,,,,,,,,,,,,,0,0,0,0,0
3.4283,1783190590.5197,1,1,3.0000,0.0000,1.44680,0.20683,-2.78405,1.00639,1.57079,0.00002,-0.14512,-0.38002,0.03974,,,,,,,,,,,,,,,,,,,,,,,,,,0,0,0,0,0
3.4416,1783190590.5330,1,1,3.0000,0.0000,1.44680,0.20663,-2.78410,1.00664,1.57079,0.00002,-0.14512,-0.38002,0.03969,,,,,,,,,,,,,,,,,,,,,,,,,,0,0,0,0,0
3.4488,1783190590.5402,1,1,3.0000,0.0000,1.44680,0.20656,-2.78412,1.00673,1.57079,0.00002,-0.14512,-0.38002,0.03967,,,,,,,,,,,,,,,,,,,,,,,,,,0,0,0,0,0
3.4555,1783190590.5470,1,1,3.0000,0.0000,1.44680,0.20651,-2.78413,1.00678,1.57079,0.00002,-0.14512,-0.38002,0.03966,,,,,,,,,,,,,,,,,,,,,,,,,,0,0,0,0,0
3.4673,1783190590.5587,1,1,3.0000,0.0000,1.44680,0.20633,-2.78417,1.00701,1.57079,0.00002,-0.14512,-0.38002,0.03961,,,,,,,,,,,,,,,,,,,,,,,,,,0,0,0,0,0
3.4790,1783190590.5704,1,1,3.0000,0.0000,1.44680,0.20618,-2.78421,1.00719,1.57079,0.00002,-0.14512,-0.38002,0.03958,,,,,,,,,,,,,,,,,,,,,,,,,,0,0,0,0,0
3.4869,1783190590.5783,1,1,3.0000,0.0000,1.44680,0.20615,-2.78421,1.00723,1.57079,0.00002,-0.14512,-0.38002,0.03957,,,,,,,,,,,,,,,,,,,,,,,,,,0,0,0,0,0
3.4965,1783190590.5879,1,1,3.0000,0.0000,1.44680,0.20606,-2.78424,1.00734,1.57079,0.00002,-0.14512,-0.38002,0.03955,,,,,,,,,,,,,,,,,,,,,,,,,,0,0,0,0,0
3.4967,1783190590.5882,1,1,3.0000,0.0000,1.44680,0.20606,-2.78424,1.00734,1.57079,0.00002,-0.14512,-0.38002,0.03955,,,,,,,,,,,,,,,,,,,,,,,,,,0,0,0,0,0
3.5057,1783190590.5971,1,1,3.0000,0.0000,1.44680,0.20595,-2.78426,1.00748,1.57079,0.00002,-0.14512,-0.38002,0.03952,,,,,,,,,,,,,,,,,,,,,,,,,,0,0,0,0,0
3.5165,1783190590.6079,1,1,3.0000,0.0000,1.44680,0.20590,-2.78427,1.00754,1.57079,0.00002,-0.14512,-0.38002,0.03950,,,,,,,,,,,,,,,,,,,,,,,,,,0,0,0,0,0
3.5358,1783190590.6272,1,1,3.0000,0.0000,1.44680,0.20556,-2.78435,1.00795,1.57079,0.00002,-0.14512,-0.38002,0.03942,,,,,,,,,,,,,,,,,,,,,,,,,,0,0,0,0,0
3.5362,1783190590.6276,1,1,3.0000,0.0000,1.44680,0.20556,-2.78435,1.00795,1.57079,0.00002,-0.14512,-0.38002,0.03942,,,,,,,,,,,,,,,,,,,,,,,,,,0,0,0,0,0
3.5468,1783190590.6382,1,1,3.0000,0.0000,1.44680,0.20553,-2.78436,1.00799,1.57079,0.00002,-0.14512,-0.38002,0.03941,,,,,,,,,,,,,,,,,,,,,,,,,,0,0,0,0,0
3.5472,1783190590.6387,1,1,3.0000,0.0000,1.44680,0.20553,-2.78436,1.00799,1.57079,0.00002,-0.14512,-0.38002,0.03941,,,,,,,,,,,,,,,,,,,,,,,,,,0,0,0,0,0
3.5555,1783190590.6469,1,1,3.0000,0.0000,1.44680,0.20545,-2.78438,1.00810,1.57079,0.00002,-0.14512,-0.38002,0.03939,,,,,,,,,,,,,,,,,,,,,,,,,,0,0,0,0,0
3.5674,1783190590.6588,1,1,3.0000,0.0000,1.44680,0.20533,-2.78441,1.00824,1.57079,0.00002,-0.14512,-0.38002,0.03936,,,,,,,,,,,,,,,,,,,,,,,,,,0,0,0,0,0
3.5823,1783190590.6737,1,1,3.0000,0.0000,1.44680,0.20523,-2.78443,1.00837,1.57079,0.00002,-0.14512,-0.38002,0.03934,,,,,,,,,,,,,,,,,,,,,,,,,,0,0,0,0,0
3.5906,1783190590.6820,1,1,3.0000,0.0000,1.44680,0.20502,-2.78448,1.00863,1.57079,0.00002,-0.14512,-0.38002,0.03928,,,,,,,,,,,,,,,,,,,,,,,,,,0,0,0,0,0
3.5969,1783190590.6884,1,1,3.0000,0.0000,1.44680,0.20495,-2.78450,1.00872,1.57079,0.00002,-0.14512,-0.38002,0.03926,,,,,,,,,,,,,,,,,,,,,,,,,,0,0,0,0,0
3.5973,1783190590.6887,1,1,3.0000,0.0000,1.44680,0.20495,-2.78450,1.00872,1.57079,0.00002,-0.14512,-0.38002,0.03926,,,,,,,,,,,,,,,,,,,,,,,,,,0,0,0,0,0
3.6054,1783190590.6968,1,1,3.0000,0.0000,1.44680,0.20494,-2.78450,1.00873,1.57079,0.00002,-0.14512,-0.38002,0.03926,,,,,,,,,,,,,,,,,,,,,,,,,,0,0,0,0,0
3.6058,1783190590.6972,1,1,3.0000,0.0000,1.44680,0.20494,-2.78450,1.00873,1.57079,0.00002,-0.14512,-0.38002,0.03926,,,,,,,,,,,,,,,,,,,,,,,,,,0,0,0,0,0
3.6171,1783190590.7086,1,1,3.0000,0.0000,1.44680,0.20483,-2.78453,1.00886,1.57079,0.00002,-0.14512,-0.38002,0.03923,,,,,,,,,,,,,,,,,,,,,,,,,,0,0,0,0,0
3.6255,1783190590.7170,1,1,3.0000,0.0000,1.44680,0.20471,-2.78456,1.00901,1.57079,0.00002,-0.14512,-0.38002,0.03921,,,,,,,,,,,,,,,,,,,,,,,,,,0,0,0,0,0
3.6396,1783190590.7310,1,1,3.0000,0.0000,1.44680,0.20461,-2.78458,1.00913,1.57079,0.00002,-0.14512,-0.38002,0.03918,,,,,,,,,,,,,,,,,,,,,,,,,,0,0,0,0,0
3.6483,1783190590.7397,1,1,3.0000,0.0000,1.44680,0.20448,-2.78461,1.00930,1.57079,0.00002,-0.14512,-0.38002,0.03915,,,,,,,,,,,,,,,,,,,,,,,,,,0,0,0,0,0
3.6486,1783190590.7401,1,1,3.0000,0.0000,1.44680,0.20448,-2.78461,1.00930,1.57079,0.00002,-0.14512,-0.38002,0.03915,,,,,,,,,,,,,,,,,,,,,,,,,,0,0,0,0,0
3.6574,1783190590.7488,1,1,3.0000,0.0000,1.44680,0.20433,-2.78465,1.00948,1.57079,0.00002,-0.14512,-0.38002,0.03911,,,,,,,,,,,,,,,,,,,,,,,,,,0,0,0,0,0
3.6698,1783190590.7612,1,1,3.0000,0.0000,1.44680,0.20430,-2.78466,1.00952,1.57079,0.00002,-0.14512,-0.38002,0.03910,,,,,,,,,,,,,,,,,,,,,,,,,,0,0,0,0,0
3.6752,1783190590.7666,1,1,3.0000,0.0000,1.44680,0.20421,-2.78468,1.00963,1.57079,0.00002,-0.14512,-0.38002,0.03908,,,,,,,,,,,,,,,,,,,,,,,,,,0,0,0,0,0
3.6755,1783190590.7669,1,1,3.0000,0.0000,1.44680,0.20421,-2.78468,1.00963,1.57079,0.00002,-0.14512,-0.38002,0.03908,,,,,,,,,,,,,,,,,,,,,,,,,,0,0,0,0,0
3.6910,1783190590.7824,1,1,3.0000,0.0000,1.44680,0.20408,-2.78471,1.00979,1.57079,0.00002,-0.14512,-0.38002,0.03905,,,,,,,,,,,,,,,,,,,,,,,,,,0,0,0,0,0
3.6967,1783190590.7881,1,1,3.0000,0.0000,1.44680,0.20405,-2.78471,1.00983,1.57079,0.00002,-0.14512,-0.38002,0.03904,,,,,,,,,,,,,,,,,,,,,,,,,,0,0,0,0,0
3.7103,1783190590.8017,1,1,3.0000,0.0000,1.44680,0.20386,-2.78476,1.01007,1.57079,0.00002,-0.14512,-0.38002,0.03899,,,,,,,,,,,,,,,,,,,,,,,,,,0,0,0,0,0
3.7178,1783190590.8092,1,1,3.0000,0.0000,1.44680,0.20371,-2.78479,1.01025,1.57079,0.00002,-0.14512,-0.38002,0.03895,,,,,,,,,,,,,,,,,,,,,,,,,,0,0,0,0,0
3.7259,1783190590.8173,1,1,3.0000,0.0000,1.44680,0.20370,-2.78480,1.01026,1.57079,0.00002,-0.14512,-0.38002,0.03895,,,,,,,,,,,,,,,,,,,,,,,,,,0,0,0,0,0
3.7400,1783190590.8314,1,1,3.0000,0.0000,1.44680,0.20354,-2.78483,1.01046,1.57079,0.00002,-0.14512,-0.38002,0.03891,,,,,,,,,,,,,,,,,,,,,,,,,,0,0,0,0,0
3.7474,1783190590.8388,1,1,3.0000,0.0000,1.44680,0.20348,-2.78485,1.01054,1.57079,0.00002,-0.14512,-0.38002,0.03890,,,,,,,,,,,,,,,,,,,,,,,,,,0,0,0,0,0
3.7565,1783190590.8479,1,1,3.0000,0.0000,1.44680,0.20343,-2.78486,1.01060,1.57079,0.00002,-0.14512,-0.38002,0.03888,,,,,,,,,,,,,,,,,,,,,,,,,,0,0,0,0,0
3.7659,1783190590.8574,1,1,3.0000,0.0000,1.44680,0.20331,-2.78489,1.01074,1.57079,0.00002,-0.14512,-0.38002,0.03885,,,,,,,,,,,,,,,,,,,,,,,,,,0,0,0,0,0
3.7791,1783190590.8705,1,1,3.0000,0.0000,1.44680,0.20309,-2.78494,1.01101,1.57079,0.00002,-0.14512,-0.38002,0.03880,,,,,,,,,,,,,,,,,,,,,,,,,,0,0,0,0,0
3.7887,1783190590.8801,1,1,3.0000,0.0000,1.44680,0.20306,-2.78495,1.01105,1.57079,0.00002,-0.14512,-0.38002,0.03879,,,,,,,,,,,,,,,,,,,,,,,,,,0,0,0,0,0
3.7990,1783190590.8904,1,1,3.0000,0.0000,1.44680,0.20292,-2.78498,1.01123,1.57079,0.00002,-0.14512,-0.38001,0.03876,,,,,,,,,,,,,,,,,,,,,,,,,,0,0,0,0,0
3.8076,1783190590.8990,1,1,3.0000,0.0000,1.44680,0.20286,-2.78500,1.01130,1.57079,0.00002,-0.14512,-0.38001,0.03874,,,,,,,,,,,,,,,,,,,,,,,,,,0,0,0,0,0
3.8080,1783190590.8995,1,1,3.0000,0.0000,1.44680,0.20286,-2.78500,1.01130,1.57079,0.00002,-0.14512,-0.38001,0.03874,,,,,,,,,,,,,,,,,,,,,,,,,,0,0,0,0,0
3.8194,1783190590.9108,1,1,3.0000,0.0000,1.44680,0.20276,-2.78502,1.01143,1.57079,0.00002,-0.14512,-0.38001,0.03872,,,,,,,,,,,,,,,,,,,,,,,,,,0,0,0,0,0
3.8264,1783190590.9178,1,1,3.0000,0.0000,1.44680,0.20269,-2.78503,1.01151,1.57079,0.00002,-0.14512,-0.38001,0.03870,,,,,,,,,,,,,,,,,,,,,,,,,,0,0,0,0,0
3.8427,1783190590.9341,1,1,3.0000,0.0000,1.44680,0.20247,-2.78509,1.01178,1.57079,0.00002,-0.14512,-0.38001,0.03864,,,,,,,,,,,,,,,,,,,,,,,,,,0,0,0,0,0
3.8471,1783190590.9385,1,1,3.0000,0.0000,1.44680,0.20244,-2.78509,1.01182,1.57079,0.00002,-0.14512,-0.38001,0.03864,,,,,,,,,,,,,,,,,,,,,,,,,,0,0,0,0,0
3.8617,1783190590.9532,1,1,3.0000,0.0000,1.44680,0.20230,-2.78513,1.01199,1.57079,0.00002,-0.14512,-0.38001,0.03860,,,,,,,,,,,,,,,,,,,,,,,,,,0,0,0,0,0
3.8663,1783190590.9577,1,1,3.0000,0.0000,1.44680,0.20224,-2.78514,1.01207,1.57079,0.00002,-0.14512,-0.38001,0.03859,,,,,,,,,,,,,,,,,,,,,,,,,,0,0,0,0,0
3.8770,1783190590.9685,1,1,3.0000,0.0000,1.44680,0.20219,-2.78515,1.01213,1.57079,0.00002,-0.14512,-0.38001,0.03857,,,,,,,,,,,,,,,,,,,,,,,,,,0,0,0,0,0
3.8894,1783190590.9808,1,1,3.0000,0.0000,1.44680,0.20200,-2.78520,1.01236,1.57079,0.00002,-0.14512,-0.38001,0.03853,,,,,,,,,,,,,,,,,,,,,,,,,,0,0,0,0,0
3.9016,1783190590.9931,1,1,3.0000,0.0000,1.44680,0.20185,-2.78523,1.01254,1.57079,0.00002,-0.14512,-0.38001,0.03849,,,,,,,,,,,,,,,,,,,,,,,,,,0,0,0,0,0
3.9067,1783190590.9981,1,1,3.0000,0.0000,1.44680,0.20184,-2.78523,1.01255,1.57079,0.00002,-0.14512,-0.38001,0.03849,,,,,,,,,,,,,,,,,,,,,,,,,,0,0,0,0,0
3.9075,1783190590.9989,1,1,3.0000,0.0000,1.44680,0.20182,-2.78524,1.01258,1.57079,0.00002,-0.14512,-0.38001,0.03848,,,,,,,,,,,,,,,,,,,,,,,,,,0,0,0,0,0
3.9216,1783190591.0130,1,1,3.0000,0.0000,1.44680,0.20168,-2.78527,1.01276,1.57079,0.00002,-0.14512,-0.38001,0.03845,,,,,,,,,,,,,,,,,,,,,,,,,,0,0,0,0,0
3.9254,1783190591.0168,1,1,3.0000,0.0000,1.44680,0.20162,-2.78529,1.01283,1.57079,0.00002,-0.14512,-0.38001,0.03843,,,,,,,,,,,,,,,,,,,,,,,,,,0,0,0,0,0
3.9258,1783190591.0172,1,1,3.0000,0.0000,1.44680,0.20162,-2.78529,1.01283,1.57079,0.00002,-0.14512,-0.38001,0.03843,,,,,,,,,,,,,,,,,,,,,,,,,,0,0,0,0,0
3.9462,1783190591.0376,1,1,3.0000,0.0000,1.44680,0.20145,-2.78533,1.01304,1.57079,0.00003,-0.14512,-0.38001,0.03839,,,,,,,,,,,,,,,,,,,,,,,,,,0,0,0,0,0
3.9465,1783190591.0379,1,1,3.0000,0.0000,1.44680,0.20145,-2.78533,1.01304,1.57079,0.00003,-0.14512,-0.38001,0.03839,,,,,,,,,,,,,,,,,,,,,,,,,,0,0,0,0,0
3.9557,1783190591.0471,1,1,3.0000,0.0000,1.44680,0.20123,-2.78538,1.01331,1.57079,0.00003,-0.14512,-0.38001,0.03833,,,,,,,,,,,,,,,,,,,,,,,,,,0,0,0,0,0
3.9560,1783190591.0474,1,1,3.0000,0.0000,1.44680,0.20123,-2.78538,1.01331,1.57079,0.00003,-0.14512,-0.38001,0.03833,,,,,,,,,,,,,,,,,,,,,,,,,,0,0,0,0,0
3.9654,1783190591.0568,1,1,3.0000,0.0000,1.44680,0.20122,-2.78538,1.01332,1.57079,0.00003,-0.14512,-0.38001,0.03833,,,,,,,,,,,,,,,,,,,,,,,,,,0,0,0,0,0
3.9800,1783190591.0714,1,1,3.0000,0.0000,1.44680,0.20106,-2.78542,1.01352,1.57079,0.00003,-0.14512,-0.38001,0.03829,,,,,,,,,,,,,,,,,,,,,,,,,,0,0,0,0,0
3.9804,1783190591.0718,1,1,3.0000,0.0000,1.44680,0.20106,-2.78542,1.01352,1.57079,0.00003,-0.14512,-0.38001,0.03829,,,,,,,,,,,,,,,,,,,,,,,,,,0,0,0,0,0
3.9937,1783190591.0851,1,1,3.0000,0.0000,1.44680,0.20098,-2.78544,1.01362,1.57079,0.00003,-0.14512,-0.38001,0.03827,,,,,,,,,,,,,,,,,,,,,,,,,,0,0,0,0,0
3.9944,1783190591.0858,1,1,3.0000,0.0000,1.44680,0.20098,-2.78544,1.01362,1.57079,0.00003,-0.14512,-0.38001,0.03827,,,,,,,,,,,,,,,,,,,,,,,,,,0,0,0,0,0
3.9972,1783190591.0886,1,1,3.0000,0.0000,1.44680,0.20095,-2.78544,1.01366,1.57079,0.00003,-0.14512,-0.38001,0.03826,,,,,,,,,,,,,,,,,,,,,,,,,,0,0,0,0,0
3.9977,1783190591.0891,1,1,3.0000,0.0000,1.44680,0.20095,-2.78544,1.01366,1.57079,0.00003,-0.14512,-0.38001,0.03826,,,,,,,,,,,,,,,,,,,,,,,,,,0,0,0,0,0
4.0072,1783190591.0987,1,1,3.0000,0.0000,1.44680,0.20076,-2.78549,1.01389,1.57079,0.00003,-0.14512,-0.38001,0.03822,,,,,,,,,,,,,,,,,,,,,,,,,,0,0,0,0,0
4.0204,1783190591.1118,1,1,3.0000,0.0000,1.44680,0.20061,-2.78552,1.01407,1.57079,0.00003,-0.14512,-0.38001,0.03818,,,,,,,,,,,,,,,,,,,,,,,,,,0,0,0,0,0
4.0294,1783190591.1208,1,1,3.0000,0.0000,1.44680,0.20058,-2.78553,1.01412,1.57079,0.00003,-0.14512,-0.38001,0.03817,,,,,,,,,,,,,,,,,,,,,,,,,,0,0,0,0,0
4.0477,1783190591.1392,1,1,3.0000,0.0000,1.44680,0.20038,-2.78558,1.01437,1.57079,0.00003,-0.14512,-0.38001,0.03812,,,,,,,,,,,,,,,,,,,,,,,,,,0,0,0,0,0
4.0482,1783190591.1396,1,1,3.0000,0.0000,1.44680,0.20038,-2.78558,1.01437,1.57079,0.00003,-0.14512,-0.38001,0.03812,,,,,,,,,,,,,,,,,,,,,,,,,,0,0,0,0,0
4.0587,1783190591.1501,1,1,3.0000,0.0000,1.44680,0.20033,-2.78559,1.01443,1.57079,0.00003,-0.14512,-0.38001,0.03811,,,,,,,,,,,,,,,,,,,,,,,,,,0,0,0,0,0
4.0591,1783190591.1505,1,1,3.0000,0.0000,1.44680,0.20033,-2.78559,1.01443,1.57079,0.00003,-0.14512,-0.38001,0.03811,,,,,,,,,,,,,,,,,,,,,,,,,,0,0,0,0,0
4.0667,1783190591.1581,1,1,3.0000,0.0000,1.44680,0.20021,-2.78562,1.01457,1.57079,0.00003,-0.14512,-0.38001,0.03808,,,,,,,,,,,,,,,,,,,,,,,,,,0,0,0,0,0
4.0674,1783190591.1589,1,1,3.0000,0.0000,1.44680,0.20014,-2.78564,1.01466,1.57079,0.00003,-0.14512,-0.38001,0.03806,,,,,,,,,,,,,,,,,,,,,,,,,,0,0,0,0,0
4.0796,1783190591.1710,1,1,3.0000,0.0000,1.44680,0.19999,-2.78567,1.01484,1.57079,0.00003,-0.14512,-0.38001,0.03802,,,,,,,,,,,,,,,,,,,,,,,,,,0,0,0,0,0
4.0964,1783190591.1878,1,1,3.0000,0.0000,1.44680,0.19983,-2.78571,1.01504,1.57079,0.00003,-0.14512,-0.38001,0.03798,,,,,,,,,,,,,,,,,,,,,,,,,,0,0,0,0,0
4.1024,1783190591.1938,1,1,3.0000,0.0000,1.44680,0.19976,-2.78572,1.01513,1.57079,0.00003,-0.14512,-0.38001,0.03797,,,,,,,,,,,,,,,,,,,,,,,,,,0,0,0,0,0
4.1062,1783190591.1976,1,1,3.0000,0.0000,1.44680,0.19969,-2.78574,1.01522,1.57079,0.00003,-0.14512,-0.38001,0.03795,,,,,,,,,,,,,,,,,,,,,,,,,,0,0,0,0,0
4.1157,1783190591.2072,1,1,3.0000,0.0000,1.44680,0.19964,-2.78575,1.01527,1.57079,0.00003,-0.14512,-0.38001,0.03794,,,,,,,,,,,,,,,,,,,,,,,,,,0,0,0,0,0
4.1276,1783190591.2190,1,1,3.0000,0.0000,1.44680,0.19946,-2.78579,1.01550,1.57079,0.00003,-0.14512,-0.38001,0.03789,,,,,,,,,,,,,,,,,,,,,,,,,,0,0,0,0,0
4.1354,1783190591.2268,1,1,3.0000,0.0000,1.44680,0.19931,-2.78583,1.01568,1.57079,0.00003,-0.14512,-0.38001,0.03786,,,,,,,,,,,,,,,,,,,,,,,,,,0,0,0,0,0
4.1476,1783190591.2390,1,1,3.0000,0.0000,1.44680,0.19927,-2.78584,1.01573,1.57079,0.00003,-0.14512,-0.38001,0.03784,,,,,,,,,,,,,,,,,,,,,,,,,,0,0,0,0,0
4.1481,1783190591.2395,1,1,3.0000,0.0000,1.44680,0.19927,-2.78584,1.01573,1.57079,0.00003,-0.14512,-0.38001,0.03784,,,,,,,,,,,,,,,,,,,,,,,,,,0,0,0,0,0
4.1554,1783190591.2468,1,1,3.0000,0.0000,1.44680,0.19915,-2.78587,1.01588,1.57079,0.00003,-0.14512,-0.38001,0.03782,,,,,,,,,,,,,,,,,,,,,,,,,,0,0,0,0,0
4.1557,1783190591.2472,1,1,3.0000,0.0000,1.44680,0.19915,-2.78587,1.01588,1.57079,0.00003,-0.14512,-0.38001,0.03782,,,,,,,,,,,,,,,,,,,,,,,,,,0,0,0,0,0
4.1675,1783190591.2590,1,1,3.0000,0.0000,1.44680,0.19901,-2.78590,1.01605,1.57079,0.00003,-0.14512,-0.38001,0.03778,,,,,,,,,,,,,,,,,,,,,,,,,,0,0,0,0,0
4.1798,1783190591.2712,1,1,3.0000,0.0000,1.44680,0.19891,-2.78592,1.01617,1.57079,0.00003,-0.14512,-0.38001,0.03776,,,,,,,,,,,,,,,,,,,,,,,,,,0,0,0,0,0
4.1855,1783190591.2769,1,1,3.0000,0.0000,1.44680,0.19885,-2.78594,1.01625,1.57079,0.00003,-0.14512,-0.38001,0.03774,,,,,,,,,,,,,,,,,,,,,,,,,,0,0,0,0,0
4.1858,1783190591.2772,1,1,3.0000,0.0000,1.44680,0.19885,-2.78594,1.01625,1.57079,0.00003,-0.14512,-0.38001,0.03774,,,,,,,,,,,,,,,,,,,,,,,,,,0,0,0,0,0
4.1996,1783190591.2910,1,1,3.0000,0.0000,1.44680,0.19863,-2.78599,1.01651,1.57079,0.00003,-0.14512,-0.38001,0.03769,,,,,,,,,,,,,,,,,,,,,,,,,,0,0,0,0,0
4.2117,1783190591.3031,1,1,3.0000,0.0000,1.44680,0.19854,-2.78601,1.01664,1.57079,0.00003,-0.14512,-0.38001,0.03766,,,,,,,,,,,,,,,,,,,,,,,,,,0,0,0,0,0
4.2209,1783190591.3123,1,1,3.0000,0.0000,1.44680,0.19840,-2.78604,1.01680,1.57079,0.00003,-0.14512,-0.38001,0.03763,,,,,,,,,,,,,,,,,,,,,,,,,,0,0,0,0,0
4.2215,1783190591.3130,1,1,3.0000,0.0000,1.44680,0.19840,-2.78604,1.01680,1.57079,0.00003,-0.14512,-0.38001,0.03763,,,,,,,,,,,,,,,,,,,,,,,,,,0,0,0,0,0
4.2524,1783190591.3438,1,1,3.0000,0.0000,1.44680,0.19803,-2.78613,1.01726,1.57079,0.00003,-0.14512,-0.38001,0.03754,,,,,,,,,,,,,,,,,,,,,,,,,,0,0,0,0,0
4.2528,1783190591.3443,1,1,3.0000,0.0000,1.44680,0.19803,-2.78613,1.01726,1.57079,0.00003,-0.14512,-0.38001,0.03754,,,,,,,,,,,,,,,,,,,,,,,,,,0,0,0,0,0
4.2534,1783190591.3448,1,1,3.0000,0.0000,1.44680,0.19803,-2.78613,1.01726,1.57079,0.00003,-0.14512,-0.38001,0.03754,,,,,,,,,,,,,,,,,,,,,,,,,,0,0,0,0,0
4.2630,1783190591.3544,1,1,3.0000,0.0000,1.44680,0.19795,-2.78614,1.01735,1.57079,0.00003,-0.14512,-0.38001,0.03752,,,,,,,,,,,,,,,,,,,,,,,,,,0,0,0,0,0
4.2717,1783190591.3631,1,1,3.0000,0.0000,1.44680,0.19786,-2.78617,1.01747,1.57079,0.00003,-0.14512,-0.38001,0.03749,,,,,,,,,,,,,,,,,,,,,,,,,,0,0,0,0,0
4.2845,1783190591.3759,1,1,3.0000,0.0000,1.44680,0.19765,-2.78622,1.01773,1.57079,0.00003,-0.14512,-0.38001,0.03744,,,,,,,,,,,,,,,,,,,,,,,,,,0,0,0,0,0
4.2979,1783190591.3894,1,1,3.0000,0.0000,1.44680,0.19760,-2.78623,1.01779,1.57079,0.00003,-0.14512,-0.38001,0.03743,,,,,,,,,,,,,,,,,,,,,,,,,,0,0,0,0,0
4.3025,1783190591.3939,1,1,3.0000,0.0000,1.44680,0.19755,-2.78624,1.01785,1.57079,0.00003,-0.14512,-0.38001,0.03742,,,,,,,,,,,,,,,,,,,,,,,,,,0,0,0,0,0
4.3029,1783190591.3943,1,1,3.0000,0.0000,1.44680,0.19755,-2.78624,1.01785,1.57079,0.00003,-0.14512,-0.38001,0.03742,,,,,,,,,,,,,,,,,,,,,,,,,,0,0,0,0,0
4.3109,1783190591.4024,1,1,3.0000,0.0000,1.44680,0.19742,-2.78627,1.01801,1.57079,0.00003,-0.14512,-0.38001,0.03738,,,,,,,,,,,,,,,,,,,,,,,,,,0,0,0,0,0
4.3118,1783190591.4032,1,1,3.0000,0.0000,1.44680,0.19735,-2.78629,1.01810,1.57079,0.00003,-0.14512,-0.38001,0.03737,,,,,,,,,,,,,,,,,,,,,,,,,,0,0,0,0,0
4.3225,1783190591.4139,1,1,3.0000,0.0000,1.44680,0.19727,-2.78630,1.01819,1.57079,0.00003,-0.14512,-0.38001,0.03735,,,,,,,,,,,,,,,,,,,,,,,,,,0,0,0,0,0
4.3228,1783190591.4142,1,1,3.0000,0.0000,1.44680,0.19727,-2.78630,1.01819,1.57079,0.00003,-0.14512,-0.38001,0.03735,,,,,,,,,,,,,,,,,,,,,,,,,,0,0,0,0,0
4.3342,1783190591.4256,1,1,3.0000,0.0000,1.44680,0.19718,-2.78633,1.01831,1.57079,0.00003,-0.14512,-0.38001,0.03732,,,,,,,,,,,,,,,,,,,,,,,,,,0,0,0,0,0
4.3409,1783190591.4323,1,1,3.0000,0.0000,1.44680,0.19704,-2.78636,1.01848,1.57079,0.00003,-0.14512,-0.38001,0.03729,,,,,,,,,,,,,,,,,,,,,,,,,,0,0,0,0,0
4.3412,1783190591.4327,1,1,3.0000,0.0000,1.44680,0.19704,-2.78636,1.01848,1.57079,0.00003,-0.14512,-0.38001,0.03729,,,,,,,,,,,,,,,,,,,,,,,,,,0,0,0,0,0
4.3547,1783190591.4461,1,1,3.0000,0.0000,1.44680,0.19696,-2.78638,1.01858,1.57079,0.00003,-0.14512,-0.38001,0.03727,,,,,,,,,,,,,,,,,,,,,,,,,,0,0,0,0,0
4.3551,1783190591.4465,1,1,3.0000,0.0000,1.44680,0.19696,-2.78638,1.01858,1.57079,0.00003,-0.14512,-0.38001,0.03727,,,,,,,,,,,,,,,,,,,,,,,,,,0,0,0,0,0
4.3624,1783190591.4538,1,1,3.0000,0.0000,1.44680,0.19687,-2.78640,1.01869,1.57079,0.00003,-0.14512,-0.38001,0.03725,,,,,,,,,,,,,,,,,,,,,,,,,,0,0,0,0,0
4.3626,1783190591.4541,1,1,3.0000,0.0000,1.44680,0.19687,-2.78640,1.01869,1.57079,0.00003,-0.14512,-0.38001,0.03725,,,,,,,,,,,,,,,,,,,,,,,,,,0,0,0,0,0
4.3725,1783190591.4639,1,1,3.0000,0.0000,1.44680,0.19666,-2.78644,1.01894,1.57079,0.00003,-0.14512,-0.38001,0.03720,,,,,,,,,,,,,,,,,,,,,,,,,,0,0,0,0,0
4.3727,1783190591.4641,1,1,3.0000,0.0000,1.44680,0.19666,-2.78644,1.01894,1.57079,0.00003,-0.14512,-0.38001,0.03720,,,,,,,,,,,,,,,,,,,,,,,,,,0,0,0,0,0
4.3825,1783190591.4739,1,1,3.0000,0.0000,1.44680,0.19659,-2.78646,1.01903,1.57079,0.00003,-0.14512,-0.38001,0.03718,,,,,,,,,,,,,,,,,,,,,,,,,,0,0,0,0,0
4.3828,1783190591.4742,1,1,3.0000,0.0000,1.44680,0.19659,-2.78646,1.01903,1.57079,0.00003,-0.14512,-0.38001,0.03718,,,,,,,,,,,,,,,,,,,,,,,,,,0,0,0,0,0
4.3911,1783190591.4825,1,1,3.0000,0.0000,1.44680,0.19655,-2.78647,1.01909,1.57079,0.00003,-0.14512,-0.38001,0.03717,,,,,,,,,,,,,,,,,,,,,,,,,,0,0,0,0,0
4.4218,1783190591.5132,1,1,3.0000,0.0000,1.44679,0.19618,-2.78656,1.01953,1.57079,0.00003,-0.14511,-0.38001,0.03708,,,,,,,,,,,,,,,,,,,,,,,,,,0,0,0,0,0
4.4222,1783190591.5136,1,1,3.0000,0.0000,1.44679,0.19618,-2.78656,1.01953,1.57079,0.00003,-0.14511,-0.38001,0.03708,,,,,,,,,,,,,,,,,,,,,,,,,,0,0,0,0,0
4.4225,1783190591.5139,1,1,3.0000,0.0000,1.44679,0.19618,-2.78656,1.01953,1.57079,0.00003,-0.14511,-0.38001,0.03708,,,,,,,,,,,,,,,,,,,,,,,,,,0,0,0,0,0
4.4373,1783190591.5288,1,1,3.0000,0.0000,1.44679,0.19598,-2.78660,1.01979,1.57079,0.00003,-0.14511,-0.38001,0.03703,,,,,,,,,,,,,,,,,,,,,,,,,,0,0,0,0,0
4.4410,1783190591.5324,1,1,3.0000,0.0000,1.44679,0.19598,-2.78660,1.01979,1.57079,0.00003,-0.14511,-0.38001,0.03703,,,,,,,,,,,,,,,,,,,,,,,,,,0,0,0,0,0
4.4412,1783190591.5326,1,1,3.0000,0.0000,1.44679,0.19598,-2.78660,1.01979,1.57079,0.00003,-0.14511,-0.38001,0.03703,,,,,,,,,,,,,,,,,,,,,,,,,,0,0,0,0,0
4.5199,1783190591.6113,1,1,3.0000,0.0000,1.44679,0.19511,-2.78680,1.02085,1.57079,0.00003,-0.14511,-0.38001,0.03681,,,,,,,,,,,,,,,,,,,,,,,,,,0,0,0,0,0
4.5203,1783190591.6117,1,1,3.0000,0.0000,1.44679,0.19511,-2.78680,1.02085,1.57079,0.00003,-0.14511,-0.38001,0.03681,,,,,,,,,,,,,,,,,,,,,,,,,,0,0,0,0,0
4.5206,1783190591.6121,1,1,3.0000,0.0000,1.44679,0.19511,-2.78680,1.02085,1.57079,0.00003,-0.14511,-0.38001,0.03681,,,,,,,,,,,,,,,,,,,,,,,,,,0,0,0,0,0
4.5208,1783190591.6123,1,1,3.0000,0.0000,1.44679,0.19511,-2.78680,1.02085,1.57079,0.00003,-0.14511,-0.38001,0.03681,,,,,,,,,,,,,,,,,,,,,,,,,,0,0,0,0,0
4.5212,1783190591.6126,1,1,3.0000,0.0000,1.44679,0.19511,-2.78680,1.02085,1.57079,0.00003,-0.14511,-0.38001,0.03681,,,,,,,,,,,,,,,,,,,,,,,,,,0,0,0,0,0
4.5230,1783190591.6144,1,1,3.0000,0.0000,1.44679,0.19511,-2.78680,1.02085,1.57079,0.00003,-0.14511,-0.38001,0.03681,,,,,,,,,,,,,,,,,,,,,,,,,,0,0,0,0,0
4.5236,1783190591.6150,1,1,3.0000,0.0000,1.44679,0.19504,-2.78682,1.02095,1.57079,0.00003,-0.14511,-0.38001,0.03679,,,,,,,,,,,,,,,,,,,,,,,,,,0,0,0,0,0
4.5345,1783190591.6259,1,1,3.0000,0.0000,1.44679,0.19496,-2.78684,1.02104,1.57079,0.00003,-0.14511,-0.38001,0.03678,,,,,,,,,,,,,,,,,,,,,,,,,,0,0,0,0,0
4.5413,1783190591.6327,1,1,3.0000,0.0000,1.44679,0.19493,-2.78684,1.02108,1.57079,0.00003,-0.14511,-0.38001,0.03677,,,,,,,,,,,,,,,,,,,,,,,,,,0,0,0,0,0
4.5575,1783190591.6489,1,1,3.0000,0.0000,1.44679,0.19472,-2.78689,1.02133,1.57079,0.00003,-0.14511,-0.38001,0.03672,,,,,,,,,,,,,,,,,,,,,,,,,,0,0,0,0,0
4.5578,1783190591.6493,1,1,3.0000,0.0000,1.44679,0.19472,-2.78689,1.02133,1.57079,0.00003,-0.14511,-0.38001,0.03672,,,,,,,,,,,,,,,,,,,,,,,,,,0,0,0,0,0
4.5638,1783190591.6553,1,1,3.0000,0.0000,1.44679,0.19471,-2.78690,1.02134,1.57079,0.00003,-0.14511,-0.38001,0.03671,,,,,,,,,,,,,,,,,,,,,,,,,,0,0,0,0,0
4.5641,1783190591.6555,1,1,3.0000,0.0000,1.44679,0.19471,-2.78690,1.02134,1.57079,0.00003,-0.14511,-0.38001,0.03671,,,,,,,,,,,,,,,,,,,,,,,,,,0,0,0,0,0
4.5711,1783190591.6625,1,1,3.0000,0.0000,1.44679,0.19468,-2.78690,1.02139,1.57079,0.00003,-0.14511,-0.38001,0.03670,,,,,,,,,,,,,,,,,,,,,,,,,,0,0,0,0,0
4.5717,1783190591.6632,1,1,3.0000,0.0000,1.44679,0.19462,-2.78692,1.02145,1.57079,0.00003,-0.14511,-0.38001,0.03669,,,,,,,,,,,,,,,,,,,,,,,,,,0,0,0,0,0
4.5869,1783190591.6784,1,1,3.0000,0.0000,1.44679,0.19441,-2.78696,1.02172,1.57079,0.00003,-0.14511,-0.38001,0.03664,,,,,,,,,,,,,,,,,,,,,,,,,,0,0,0,0,0
4.5876,1783190591.6790,1,1,3.0000,0.0000,1.44679,0.19434,-2.78698,1.02181,1.57079,0.00003,-0.14511,-0.38001,0.03662,,,,,,,,,,,,,,,,,,,,,,,,,,0,0,0,0,0
4.5912,1783190591.6826,1,1,3.0000,0.0000,1.44679,0.19434,-2.78698,1.02181,1.57079,0.00003,-0.14511,-0.38001,0.03662,,,,,,,,,,,,,,,,,,,,,,,,,,0,0,0,0,0
4.5920,1783190591.6834,1,1,3.0000,0.0000,1.44679,0.19434,-2.78698,1.02181,1.57079,0.00003,-0.14511,-0.38001,0.03662,,,,,,,,,,,,,,,,,,,,,,,,,,0,0,0,0,0
4.6078,1783190591.6992,1,1,3.0000,0.0000,1.44679,0.19422,-2.78701,1.02195,1.57079,0.00003,-0.14511,-0.38001,0.03659,,,,,,,,,,,,,,,,,,,,,,,,,,0,0,0,0,0
4.6134,1783190591.7048,1,1,3.0000,0.0000,1.44679,0.19416,-2.78702,1.02202,1.57079,0.00003,-0.14511,-0.38001,0.03658,,,,,,,,,,,,,,,,,,,,,,,,,,0,0,0,0,0
4.6137,1783190591.7051,1,1,3.0000,0.0000,1.44679,0.19416,-2.78702,1.02202,1.57079,0.00003,-0.14511,-0.38001,0.03658,,,,,,,,,,,,,,,,,,,,,,,,,,0,0,0,0,0
4.6217,1783190591.7132,1,1,3.0000,0.0000,1.44679,0.19410,-2.78704,1.02210,1.57079,0.00003,-0.14511,-0.38001,0.03656,,,,,,,,,,,,,,,,,,,,,,,,,,0,0,0,0,0
4.6340,1783190591.7254,1,1,3.0000,0.0000,1.44679,0.19400,-2.78706,1.02222,1.57079,0.00003,-0.14511,-0.38001,0.03654,,,,,,,,,,,,,,,,,,,,,,,,,,0,0,0,0,0
4.6429,1783190591.7343,1,1,3.0000,0.0000,1.44679,0.19386,-2.78709,1.02240,1.57079,0.00003,-0.14511,-0.38001,0.03650,,,,,,,,,,,,,,,,,,,,,,,,,,0,0,0,0,0
4.6642,1783190591.7556,1,1,3.0000,0.0000,1.44679,0.19364,-2.78714,1.02266,1.57079,0.00003,-0.14511,-0.38001,0.03645,,,,,,,,,,,,,,,,,,,,,,,,,,0,0,0,0,0
4.6645,1783190591.7559,1,1,3.0000,0.0000,1.44679,0.19364,-2.78714,1.02266,1.57079,0.00003,-0.14511,-0.38001,0.03645,,,,,,,,,,,,,,,,,,,,,,,,,,0,0,0,0,0
4.6729,1783190591.7643,1,1,3.0000,0.0000,1.44679,0.19353,-2.78717,1.02279,1.57079,0.00003,-0.14511,-0.38001,0.03642,,,,,,,,,,,,,,,,,,,,,,,,,,0,0,0,0,0
4.6808,1783190591.7722,1,1,3.0000,0.0000,1.44679,0.19347,-2.78718,1.02287,1.57079,0.00003,-0.14511,-0.38001,0.03641,,,,,,,,,,,,,,,,,,,,,,,,,,0,0,0,0,0
4.6911,1783190591.7826,1,1,3.0000,0.0000,1.44679,0.19342,-2.78719,1.02293,1.57079,0.00003,-0.14511,-0.38001,0.03639,,,,,,,,,,,,,,,,,,,,,,,,,,0,0,0,0,0
4.7078,1783190591.7992,1,1,3.0000,0.0000,1.44679,0.19308,-2.78727,1.02335,1.57079,0.00003,-0.14511,-0.38001,0.03631,,,,,,,,,,,,,,,,,,,,,,,,,,0,0,0,0,0
4.7082,1783190591.7996,1,1,3.0000,0.0000,1.44679,0.19308,-2.78727,1.02335,1.57079,0.00003,-0.14511,-0.38001,0.03631,,,,,,,,,,,,,,,,,,,,,,,,,,0,0,0,0,0
4.7156,1783190591.8070,1,1,3.0000,0.0000,1.44679,0.19307,-2.78727,1.02336,1.57079,0.00003,-0.14511,-0.38001,0.03631,,,,,,,,,,,,,,,,,,,,,,,,,,0,0,0,0,0
4.7239,1783190591.8153,1,1,3.0000,0.0000,1.44679,0.19298,-2.78729,1.02347,1.57079,0.00003,-0.14511,-0.38001,0.03629,,,,,,,,,,,,,,,,,,,,,,,,,,0,0,0,0,0
4.7326,1783190591.8240,1,1,3.0000,0.0000,1.44679,0.19285,-2.78732,1.02363,1.57079,0.00003,-0.14511,-0.38001,0.03625,,,,,,,,,,,,,,,,,,,,,,,,,,0,0,0,0,0
4.7477,1783190591.8391,1,1,3.0000,0.0000,1.44679,0.19273,-2.78735,1.02378,1.57079,0.00003,-0.14511,-0.38001,0.03622,,,,,,,,,,,,,,,,,,,,,,,,,,0,0,0,0,0
4.7527,1783190591.8441,1,1,3.0000,0.0000,1.44679,0.19268,-2.78736,1.02385,1.57079,0.00003,-0.14511,-0.38001,0.03621,,,,,,,,,,,,,,,,,,,,,,,,,,0,0,0,0,0
4.7530,1783190591.8444,1,1,3.0000,0.0000,1.44679,0.19268,-2.78736,1.02385,1.57079,0.00003,-0.14511,-0.38001,0.03621,,,,,,,,,,,,,,,,,,,,,,,,,,0,0,0,0,0
4.7686,1783190591.8600,1,1,3.0000,0.0000,1.44679,0.19240,-2.78743,1.02419,1.57079,0.00003,-0.14511,-0.38001,0.03614,,,,,,,,,,,,,,,,,,,,,,,,,,0,0,0,0,0
4.7689,1783190591.8603,1,1,3.0000,0.0000,1.44679,0.19240,-2.78743,1.02419,1.57079,0.00003,-0.14511,-0.38001,0.03614,,,,,,,,,,,,,,,,,,,,,,,,,,0,0,0,0,0
4.7711,1783190591.8625,1,1,3.0000,0.0000,1.44679,0.19240,-2.78743,1.02419,1.57079,0.00003,-0.14511,-0.38001,0.03614,,,,,,,,,,,,,,,,,,,,,,,,,,0,0,0,0,0
4.7718,1783190591.8632,1,1,3.0000,0.0000,1.44679,0.19240,-2.78743,1.02419,1.57079,0.00003,-0.14511,-0.38001,0.03614,,,,,,,,,,,,,,,,,,,,,,,,,,0,0,0,0,0
4.7810,1783190591.8724,1,1,3.0000,0.0000,1.44679,0.19235,-2.78744,1.02425,1.57079,0.00003,-0.14511,-0.38001,0.03613,,,,,,,,,,,,,,,,,,,,,,,,,,0,0,0,0,0
4.7970,1783190591.8884,1,1,3.0000,0.0000,1.44679,0.19209,-2.78750,1.02457,1.57079,0.00003,-0.14511,-0.38001,0.03607,,,,,,,,,,,,,,,,,,,,,,,,,,0,0,0,0,0
4.8032,1783190591.8946,1,1,3.0000,0.0000,1.44679,0.19209,-2.78750,1.02457,1.57079,0.00003,-0.14511,-0.38001,0.03607,,,,,,,,,,,,,,,,,,,,,,,,,,0,0,0,0,0
4.8278,1783190591.9192,1,1,3.0000,0.0000,1.44679,0.19171,-2.78758,1.02503,1.57079,0.00003,-0.14511,-0.38001,0.03597,,,,,,,,,,,,,,,,,,,,,,,,,,0,0,0,0,0
4.8332,1783190591.9246,1,1,3.0000,0.0000,1.44679,0.19171,-2.78758,1.02503,1.57079,0.00003,-0.14511,-0.38001,0.03597,,,,,,,,,,,,,,,,,,,,,,,,,,0,0,0,0,0
4.8447,1783190591.9361,1,1,3.0000,0.0000,1.44679,0.19161,-2.78761,1.02515,1.57079,0.00003,-0.14511,-0.38001,0.03595,,,,,,,,,,,,,,,,,,,,,,,,,,0,0,0,0,0
4.8551,1783190591.9465,1,1,3.0000,0.0000,1.44679,0.19148,-2.78764,1.02532,1.57079,0.00003,-0.14511,-0.38001,0.03591,,,,,,,,,,,,,,,,,,,,,,,,,,0,0,0,0,0
4.8660,1783190591.9574,1,1,3.0000,0.0000,1.44679,0.19139,-2.78766,1.02542,1.57079,0.00003,-0.14511,-0.38001,0.03589,,,,,,,,,,,,,,,,,,,,,,,,,,0,0,0,0,0
4.8738,1783190591.9652,1,1,3.0000,0.0000,1.44679,0.19131,-2.78768,1.02553,1.57079,0.00003,-0.14511,-0.38001,0.03587,,,,,,,,,,,,,,,,,,,,,,,,,,0,0,0,0,0
4.8867,1783190591.9781,1,1,3.0000,0.0000,1.44679,0.19110,-2.78772,1.02578,1.57079,0.00003,-0.14511,-0.38001,0.03582,,,,,,,,,,,,,,,,,,,,,,,,,,0,0,0,0,0
4.8943,1783190591.9857,1,1,3.0000,0.0000,1.44679,0.19103,-2.78774,1.02587,1.57079,0.00003,-0.14511,-0.38001,0.03580,,,,,,,,,,,,,,,,,,,,,,,,,,0,0,0,0,0
4.9008,1783190591.9922,1,1,3.0000,0.0000,1.44679,0.19098,-2.78775,1.02593,1.57079,0.00003,-0.14511,-0.38001,0.03579,,,,,,,,,,,,,,,,,,,,,,,,,,0,0,0,0,0
4.9011,1783190591.9925,1,1,3.0000,0.0000,1.44679,0.19098,-2.78775,1.02593,1.57079,0.00003,-0.14511,-0.38001,0.03579,,,,,,,,,,,,,,,,,,,,,,,,,,0,0,0,0,0
4.9155,1783190592.0069,1,1,3.0000,0.0000,1.44679,0.19072,-2.78781,1.02625,1.57079,0.00003,-0.14511,-0.38001,0.03573,,,,,,,,,,,,,,,,,,,,,,,,,,0,0,0,0,0
4.9257,1783190592.0171,1,1,3.0000,0.0000,1.44679,0.19071,-2.78781,1.02627,1.57079,0.00003,-0.14511,-0.38001,0.03572,,,,,,,,,,,,,,,,,,,,,,,,,,0,0,0,0,0
4.9344,1783190592.0258,1,1,3.0000,0.0000,1.44679,0.19062,-2.78783,1.02637,1.57079,0.00003,-0.14511,-0.38001,0.03570,,,,,,,,,,,,,,,,,,,,,,,,,,0,0,0,0,0
4.9417,1783190592.0331,1,1,3.0000,0.0000,1.44679,0.19049,-2.78786,1.02654,1.57079,0.00003,-0.14511,-0.38001,0.03567,,,,,,,,,,,,,,,,,,,,,,,,,,0,0,0,0,0
4.9517,1783190592.0431,1,1,3.0000,0.0000,1.44679,0.19034,-2.78790,1.02672,1.57079,0.00003,-0.14511,-0.38001,0.03563,,,,,,,,,,,,,,,,,,,,,,,,,,0,0,0,0,0
4.9637,1783190592.0551,1,1,3.0000,0.0000,1.44679,0.19024,-2.78792,1.02684,1.57079,0.00003,-0.14511,-0.38001,0.03561,,,,,,,,,,,,,,,,,,,,,,,,,,0,0,0,0,0
4.9732,1783190592.0646,1,1,3.0000,0.0000,1.44679,0.19011,-2.78795,1.02700,1.57079,0.00003,-0.14511,-0.38001,0.03558,,,,,,,,,,,,,,,,,,,,,,,,,,0,0,0,0,0
4.9735,1783190592.0649,1,1,3.0000,0.0000,1.44679,0.19011,-2.78795,1.02700,1.57079,0.00003,-0.14511,-0.38001,0.03558,,,,,,,,,,,,,,,,,,,,,,,,,,0,0,0,0,0
4.9807,1783190592.0722,1,1,3.0000,0.0000,1.44679,0.18996,-2.78798,1.02718,1.57079,0.00003,-0.14511,-0.38001,0.03554,,,,,,,,,,,,,,,,,,,,,,,,,,0,0,0,0,0
4.9810,1783190592.0724,1,1,3.0000,0.0000,1.44679,0.18996,-2.78798,1.02718,1.57079,0.00003,-0.14511,-0.38001,0.03554,,,,,,,,,,,,,,,,,,,,,,,,,,0,0,0,0,0
4.9910,1783190592.0824,1,1,3.0000,0.0000,1.44679,0.18995,-2.78798,1.02719,1.57079,0.00003,-0.14511,-0.38001,0.03554,,,,,,,,,,,,,,,,,,,,,,,,,,0,0,0,0,0
5.0028,1783190592.0942,1,1,3.0000,0.0000,1.44679,0.18984,-2.78801,1.02733,1.57079,0.00003,-0.14511,-0.38001,0.03551,,,,,,,,,,,,,,,,,,,,,,,,,,0,0,0,0,0
5.0147,1783190592.1061,1,1,3.0000,0.0000,1.44679,0.18972,-2.78804,1.02748,1.57079,0.00003,-0.14511,-0.38001,0.03548,,,,,,,,,,,,,,,,,,,,,,,,,,0,0,0,0,0
5.0220,1783190592.1135,1,1,3.0000,0.0000,1.44679,0.18967,-2.78805,1.02754,1.57079,0.00003,-0.14511,-0.38001,0.03547,,,,,,,,,,,,,,,,,,,,,,,,,,0,0,0,0,0
5.0317,1783190592.1231,1,1,3.0000,0.0000,1.44679,0.18948,-2.78809,1.02778,1.57079,0.00003,-0.14511,-0.38001,0.03542,,,,,,,,,,,,,,,,,,,,,,,,,,0,0,0,0,0
5.0412,1783190592.1326,1,1,3.0000,0.0000,1.44679,0.18933,-2.78813,1.02796,1.57079,0.00003,-0.14511,-0.38001,0.03539,,,,,,,,,,,,,,,,,,,,,,,,,,0,0,0,0,0
5.0511,1783190592.1425,1,1,3.0000,0.0000,1.44679,0.18932,-2.78813,1.02797,1.57079,0.00003,-0.14511,-0.38001,0.03538,,,,,,,,,,,,,,,,,,,,,,,,,,0,0,0,0,0
5.0666,1783190592.1580,1,1,3.0000,0.0000,1.44679,0.18915,-2.78817,1.02818,1.57079,0.00003,-0.14511,-0.38001,0.03534,,,,,,,,,,,,,,,,,,,,,,,,,,0,0,0,0,0
5.0756,1783190592.1670,1,1,3.0000,0.0000,1.44679,0.18907,-2.78818,1.02827,1.57079,0.00003,-0.14511,-0.38001,0.03532,,,,,,,,,,,,,,,,,,,,,,,,,,0,0,0,0,0
5.0821,1783190592.1735,1,1,3.0000,0.0000,1.44679,0.18904,-2.78819,1.02831,1.57079,0.00003,-0.14511,-0.38001,0.03531,,,,,,,,,,,,,,,,,,,,,,,,,,0,0,0,0,0
5.0918,1783190592.1832,1,1,3.0000,0.0000,1.44679,0.18885,-2.78824,1.02855,1.57079,0.00003,-0.14511,-0.38001,0.03527,,,,,,,,,,,,,,,,,,,,,,,,,,0,0,0,0,0
5.0921,1783190592.1835,1,1,3.0000,0.0000,1.44679,0.18885,-2.78824,1.02855,1.57079,0.00003,-0.14511,-0.38001,0.03527,,,,,,,,,,,,,,,,,,,,,,,,,,0,0,0,0,0
5.1038,1783190592.1952,1,1,3.0000,0.0000,1.44679,0.18870,-2.78827,1.02873,1.57079,0.00003,-0.14511,-0.38001,0.03523,,,,,,,,,,,,,,,,,,,,,,,,,,0,0,0,0,0
5.1192,1783190592.2106,1,1,3.0000,0.0000,1.44679,0.18862,-2.78829,1.02882,1.57079,0.00003,-0.14511,-0.38001,0.03521,,,,,,,,,,,,,,,,,,,,,,,,,,0,0,0,0,0
5.1268,1783190592.2183,1,1,3.0000,0.0000,1.44679,0.18852,-2.78831,1.02895,1.57079,0.00003,-0.14511,-0.38001,0.03519,,,,,,,,,,,,,,,,,,,,,,,,,,0,0,0,0,0
5.1334,1783190592.2248,1,1,3.0000,0.0000,1.44679,0.18846,-2.78832,1.02903,1.57079,0.00003,-0.14511,-0.38001,0.03517,,,,,,,,,,,,,,,,,,,,,,,,,,0,0,0,0,0
5.1337,1783190592.2251,1,1,3.0000,0.0000,1.44679,0.18846,-2.78832,1.02903,1.57079,0.00003,-0.14511,-0.38001,0.03517,,,,,,,,,,,,,,,,,,,,,,,,,,0,0,0,0,0
5.1416,1783190592.2331,1,1,3.0000,0.0000,1.44679,0.18841,-2.78833,1.02909,1.57079,0.00003,-0.14511,-0.38001,0.03516,,,,,,,,,,,,,,,,,,,,,,,,,,0,0,0,0,0
5.1548,1783190592.2462,1,1,3.0000,0.0000,1.44679,0.18821,-2.78838,1.02932,1.57079,0.00003,-0.14511,-0.38001,0.03511,,,,,,,,,,,,,,,,,,,,,,,,,,0,0,0,0,0
5.1625,1783190592.2539,1,1,3.0000,0.0000,1.44679,0.18807,-2.78841,1.02951,1.57079,0.00004,-0.14511,-0.38001,0.03508,,,,,,,,,,,,,,,,,,,,,,,,,,0,0,0,0,0
5.1747,1783190592.2661,1,1,3.0000,0.0000,1.44679,0.18803,-2.78842,1.02955,1.57079,0.00004,-0.14511,-0.38001,0.03507,,,,,,,,,,,,,,,,,,,,,,,,,,0,0,0,0,0
5.1811,1783190592.2726,1,1,3.0000,0.0000,1.44679,0.18794,-2.78844,1.02966,1.57079,0.00004,-0.14511,-0.38001,0.03505,,,,,,,,,,,,,,,,,,,,,,,,,,0,0,0,0,0
5.1814,1783190592.2729,1,1,3.0000,0.0000,1.44679,0.18794,-2.78844,1.02966,1.57079,0.00004,-0.14511,-0.38001,0.03505,,,,,,,,,,,,,,,,,,,,,,,,,,0,0,0,0,0
5.1910,1783190592.2824,1,1,3.0000,0.0000,1.44679,0.18782,-2.78847,1.02980,1.57079,0.00004,-0.14511,-0.38001,0.03502,,,,,,,,,,,,,,,,,,,,,,,,,,0,0,0,0,0
5.2024,1783190592.2938,1,1,3.0000,0.0000,1.44679,0.18778,-2.78848,1.02986,1.57079,0.00004,-0.14511,-0.38001,0.03500,,,,,,,,,,,,,,,,,,,,,,,,,,0,0,0,0,0
5.2237,1783190592.3151,1,1,3.0000,0.0000,1.44679,0.18743,-2.78855,1.03028,1.57079,0.00004,-0.14511,-0.38001,0.03492,,,,,,,,,,,,,,,,,,,,,,,,,,0,0,0,0,0
5.2245,1783190592.3160,1,1,3.0000,0.0000,1.44679,0.18743,-2.78855,1.03028,1.57079,0.00004,-0.14511,-0.38001,0.03492,,,,,,,,,,,,,,,,,,,,,,,,,,0,0,0,0,0
5.2248,1783190592.3162,1,1,3.0000,0.0000,1.44679,0.18743,-2.78855,1.03028,1.57079,0.00004,-0.14511,-0.38001,0.03492,,,,,,,,,,,,,,,,,,,,,,,,,,0,0,0,0,0
5.2327,1783190592.3241,1,1,3.0000,0.0000,1.44679,0.18740,-2.78856,1.03032,1.57079,0.00004,-0.14511,-0.38001,0.03491,,,,,,,,,,,,,,,,,,,,,,,,,,0,0,0,0,0
5.2409,1783190592.3324,1,1,3.0000,0.0000,1.44679,0.18731,-2.78858,1.03043,1.57079,0.00004,-0.14511,-0.38001,0.03489,,,,,,,,,,,,,,,,,,,,,,,,,,0,0,0,0,0
5.2556,1783190592.3470,1,1,3.0000,0.0000,1.44679,0.18718,-2.78861,1.03059,1.57079,0.00004,-0.14511,-0.38001,0.03486,,,,,,,,,,,,,,,,,,,,,,,,,,0,0,0,0,0
5.2559,1783190592.3473,1,1,3.0000,0.0000,1.44679,0.18718,-2.78861,1.03059,1.57079,0.00004,-0.14511,-0.38001,0.03486,,,,,,,,,,,,,,,,,,,,,,,,,,0,0,0,0,0
5.2617,1783190592.3531,1,1,3.0000,0.0000,1.44679,0.18714,-2.78862,1.03064,1.57079,0.00004,-0.14511,-0.38001,0.03485,,,,,,,,,,,,,,,,,,,,,,,,,,0,0,0,0,0
5.2768,1783190592.3682,1,1,3.0000,0.0000,1.44679,0.18687,-2.78868,1.03097,1.57079,0.00004,-0.14511,-0.38001,0.03478,,,,,,,,,,,,,,,,,,,,,,,,,,0,0,0,0,0
5.2771,1783190592.3685,1,1,3.0000,0.0000,1.44679,0.18687,-2.78868,1.03097,1.57079,0.00004,-0.14511,-0.38001,0.03478,,,,,,,,,,,,,,,,,,,,,,,,,,0,0,0,0,0
5.2828,1783190592.3742,1,1,3.0000,0.0000,1.44679,0.18680,-2.78870,1.03106,1.57079,0.00004,-0.14511,-0.38001,0.03477,,,,,,,,,,,,,,,,,,,,,,,,,,0,0,0,0,0
5.2936,1783190592.3851,1,1,3.0000,0.0000,1.44679,0.18677,-2.78870,1.03110,1.57079,0.00004,-0.14511,-0.38001,0.03476,,,,,,,,,,,,,,,,,,,,,,,,,,0,0,0,0,0
5.2939,1783190592.3854,1,1,3.0000,0.0000,1.44679,0.18677,-2.78870,1.03110,1.57079,0.00004,-0.14511,-0.38001,0.03476,,,,,,,,,,,,,,,,,,,,,,,,,,0,0,0,0,0
5.3013,1783190592.3927,1,1,3.0000,0.0000,1.44679,0.18668,-2.78872,1.03121,1.57079,0.00004,-0.14511,-0.38001,0.03474,,,,,,,,,,,,,,,,,,,,,,,,,,0,0,0,0,0
5.3156,1783190592.4070,1,1,3.0000,0.0000,1.44679,0.18655,-2.78875,1.03137,1.57079,0.00004,-0.14511,-0.38001,0.03470,,,,,,,,,,,,,,,,,,,,,,,,,,0,0,0,0,0
5.3247,1783190592.4162,1,1,3.0000,0.0000,1.44679,0.18646,-2.78877,1.03148,1.57079,0.00004,-0.14511,-0.38001,0.03468,,,,,,,,,,,,,,,,,,,,,,,,,,0,0,0,0,0
5.3250,1783190592.4165,1,1,3.0000,0.0000,1.44679,0.18646,-2.78877,1.03148,1.57079,0.00004,-0.14511,-0.38001,0.03468,,,,,,,,,,,,,,,,,,,,,,,,,,0,0,0,0,0
5.3352,1783190592.4266,1,1,3.0000,0.0000,1.44679,0.18632,-2.78881,1.03165,1.57079,0.00004,-0.14511,-0.38001,0.03465,,,,,,,,,,,,,,,,,,,,,,,,,,0,0,0,0,0
5.3413,1783190592.4327,1,1,3.0000,0.0000,1.44679,0.18617,-2.78884,1.03183,1.57079,0.00004,-0.14511,-0.38001,0.03461,,,,,,,,,,,,,,,,,,,,,,,,,,0,0,0,0,0
5.3563,1783190592.4478,1,1,3.0000,0.0000,1.44679,0.18607,-2.78886,1.03195,1.57079,0.00004,-0.14511,-0.38001,0.03459,,,,,,,,,,,,,,,,,,,,,,,,,,0,0,0,0,0
