Martins-Lucaas/twinforge/sensors/Data/20260704_153927__samples.csv
t_rel_s,t_unix,cycle,phase,setpoint_n,force_net_n,q1,q2,q3,q4,q5,q6,tcp_x,tcp_y,tcp_z,taxel_0,taxel_1,taxel_2,taxel_3,taxel_4,taxel_5,taxel_6,taxel_7,taxel_8,taxel_9,taxel_10,taxel_11,taxel_12,taxel_13,taxel_14,taxel_15,taxel_16,taxel_17,taxel_18,taxel_19,taxel_20,taxel_21,taxel_22,taxel_23,taxel_24,n_RA,n_SA,cn_mm,cn_ra,cn_sa
0.0086,1783190367.6595,1,0,1.0000,0.0000,1.44682,0.23328,-2.77748,0.97337,1.57080,0.00000,-0.14512,-0.38003,0.04653,,,,,,,,,,,,,,,,,,,,,,,,,,0,0,0,0,0
0.0090,1783190367.6599,1,0,1.0000,0.0000,1.44682,0.23328,-2.77748,0.97337,1.57080,0.00000,-0.14512,-0.38003,0.04653,,,,,,,,,,,,,,,,,,,,,,,,,,0,0,0,0,0
0.0268,1783190367.6777,1,0,1.0000,0.0000,1.44682,0.23328,-2.77748,0.97337,1.57080,-0.00000,-0.14512,-0.38003,0.04653,,,,,,,,,,,,,,,,,,,,,,,,,,0,0,0,0,0
0.0271,1783190367.6781,1,0,1.0000,0.0000,1.44682,0.23328,-2.77748,0.97337,1.57080,-0.00000,-0.14512,-0.38003,0.04653,,,,,,,,,,,,,,,,,,,,,,,,,,0,0,0,0,0
0.1031,1783190367.7540,1,0,1.0000,0.0000,1.44682,0.23328,-2.77748,0.97337,1.57080,0.00000,-0.14512,-0.38003,0.04653,,,,,,,,,,,,,,,,,,,,,,,,,,0,0,0,0,0
0.1032,1783190367.7542,1,0,1.0000,0.0000,1.44682,0.23328,-2.77748,0.97337,1.57080,0.00000,-0.14512,-0.38003,0.04653,,,,,,,,,,,,,,,,,,,,,,,,,,0,0,0,0,0
0.1035,1783190367.7544,1,0,1.0000,0.0000,1.44682,0.23328,-2.77748,0.97337,1.57080,0.00000,-0.14512,-0.38003,0.04653,,,,,,,,,,,,,,,,,,,,,,,,,,0,0,0,0,0
0.1037,1783190367.7547,1,0,1.0000,0.0000,1.44682,0.23328,-2.77748,0.97337,1.57080,0.00000,-0.14512,-0.38003,0.04653,,,,,,,,,,,,,,,,,,,,,,,,,,0,0,0,0,0
0.1041,1783190367.7550,1,0,1.0000,0.0000,1.44682,0.23328,-2.77748,0.97337,1.57080,0.00000,-0.14512,-0.38003,0.04653,,,,,,,,,,,,,,,,,,,,,,,,,,0,0,0,0,0
0.1043,1783190367.7553,1,0,1.0000,0.0000,1.44682,0.23328,-2.77748,0.97337,1.57080,0.00000,-0.14512,-0.38003,0.04653,,,,,,,,,,,,,,,,,,,,,,,,,,0,0,0,0,0
0.1046,1783190367.7556,1,0,1.0000,0.0000,1.44682,0.23328,-2.77748,0.97337,1.57080,0.00000,-0.14512,-0.38003,0.04653,,,,,,,,,,,,,,,,,,,,,,,,,,0,0,0,0,0
0.1152,1783190367.7662,1,0,1.0000,0.0000,1.44682,0.23328,-2.77748,0.97337,1.57080,0.00000,-0.14512,-0.38003,0.04653,,,,,,,,,,,,,,,,,,,,,,,,,,0,0,0,0,0
0.1207,1783190367.7717,1,0,1.0000,0.0000,1.44682,0.23328,-2.77748,0.97337,1.57080,0.00000,-0.14512,-0.38003,0.04653,,,,,,,,,,,,,,,,,,,,,,,,,,0,0,0,0,0
0.1549,1783190367.8058,1,0,1.0000,0.0000,1.44682,0.23328,-2.77748,0.97337,1.57080,0.00000,-0.14512,-0.38003,0.04653,,,,,,,,,,,,,,,,,,,,,,,,,,0,0,0,0,0
0.1556,1783190367.8065,1,0,1.0000,0.0000,1.44682,0.23328,-2.77748,0.97337,1.57080,0.00000,-0.14512,-0.38003,0.04653,,,,,,,,,,,,,,,,,,,,,,,,,,0,0,0,0,0
0.1560,1783190367.8069,1,0,1.0000,0.0000,1.44682,0.23328,-2.77748,0.97337,1.57080,0.00000,-0.14512,-0.38003,0.04653,,,,,,,,,,,,,,,,,,,,,,,,,,0,0,0,0,0
0.1603,1783190367.8112,1,0,1.0000,0.0000,1.44682,0.23328,-2.77748,0.97337,1.57080,0.00000,-0.14512,-0.38003,0.04653,,,,,,,,,,,,,,,,,,,,,,,,,,0,0,0,0,0
0.1686,1783190367.8196,1,0,1.0000,0.0000,1.44682,0.23328,-2.77748,0.97337,1.57080,0.00000,-0.14512,-0.38003,0.04653,,,,,,,,,,,,,,,,,,,,,,,,,,0,0,0,0,0
0.1796,1783190367.8305,1,0,1.0000,0.0000,1.44682,0.23328,-2.77748,0.97337,1.57080,0.00000,-0.14512,-0.38003,0.04653,,,,,,,,,,,,,,,,,,,,,,,,,,0,0,0,0,0
0.1883,1783190367.8393,1,0,1.0000,0.0000,1.44682,0.23328,-2.77748,0.97337,1.57080,0.00000,-0.14512,-0.38003,0.04653,,,,,,,,,,,,,,,,,,,,,,,,,,0,0,0,0,0
0.2030,1783190367.8539,1,0,1.0000,0.0000,1.44682,0.23328,-2.77748,0.97337,1.57080,0.00000,-0.14512,-0.38003,0.04653,,,,,,,,,,,,,,,,,,,,,,,,,,0,0,0,0,0
0.2038,1783190367.8547,1,0,1.0000,0.0000,1.44682,0.23328,-2.77748,0.97337,1.57080,0.00000,-0.14512,-0.38003,0.04653,,,,,,,,,,,,,,,,,,,,,,,,,,0,0,0,0,0
0.2147,1783190367.8656,1,0,1.0000,0.0000,1.44682,0.23328,-2.77748,0.97337,1.57080,0.00000,-0.14512,-0.38003,0.04653,,,,,,,,,,,,,,,,,,,,,,,,,,0,0,0,0,0
0.2239,1783190367.8749,1,0,1.0000,0.0000,1.44682,0.23328,-2.77748,0.97337,1.57080,0.00000,-0.14512,-0.38003,0.04653,,,,,,,,,,,,,,,,,,,,,,,,,,0,0,0,0,0
0.2395,1783190367.8905,1,0,1.0000,0.0000,1.44682,0.23328,-2.77748,0.97337,1.57080,0.00000,-0.14512,-0.38003,0.04653,,,,,,,,,,,,,,,,,,,,,,,,,,0,0,0,0,0
0.2552,1783190367.9062,1,0,1.0000,0.0000,1.44682,0.23328,-2.77748,0.97337,1.57080,0.00000,-0.14512,-0.38003,0.04653,,,,,,,,,,,,,,,,,,,,,,,,,,0,0,0,0,0
0.2589,1783190367.9099,1,0,1.0000,0.0000,1.44682,0.23328,-2.77748,0.97337,1.57080,0.00000,-0.14512,-0.38003,0.04653,,,,,,,,,,,,,,,,,,,,,,,,,,0,0,0,0,0
0.2630,1783190367.9139,1,0,1.0000,0.0000,1.44682,0.23328,-2.77748,0.97337,1.57080,0.00000,-0.14512,-0.38003,0.04653,,,,,,,,,,,,,,,,,,,,,,,,,,0,0,0,0,0
0.2721,1783190367.9230,1,0,1.0000,0.0000,1.44682,0.23328,-2.77748,0.97337,1.57080,0.00000,-0.14512,-0.38003,0.04653,,,,,,,,,,,,,,,,,,,,,,,,,,0,0,0,0,0
0.2822,1783190367.9331,1,0,1.0000,0.0000,1.44682,0.23328,-2.77748,0.97337,1.57080,0.00000,-0.14512,-0.38003,0.04653,,,,,,,,,,,,,,,,,,,,,,,,,,0,0,0,0,0
0.2924,1783190367.9434,1,0,1.0000,0.0000,1.44682,0.23328,-2.77748,0.97337,1.57080,0.00000,-0.14512,-0.38003,0.04653,,,,,,,,,,,,,,,,,,,,,,,,,,0,0,0,0,0
0.3055,1783190367.9565,1,0,1.0000,0.0000,1.44682,0.23328,-2.77748,0.97337,1.57080,0.00000,-0.14512,-0.38003,0.04653,,,,,,,,,,,,,,,,,,,,,,,,,,0,0,0,0,0
0.3137,1783190367.9647,1,0,1.0000,0.0000,1.44682,0.23328,-2.77748,0.97337,1.57080,0.00000,-0.14512,-0.38003,0.04653,,,,,,,,,,,,,,,,,,,,,,,,,,0,0,0,0,0
0.3221,1783190367.9731,1,0,1.0000,0.0000,1.44682,0.23328,-2.77748,0.97337,1.57080,0.00000,-0.14512,-0.38003,0.04653,,,,,,,,,,,,,,,,,,,,,,,,,,0,0,0,0,0
0.3229,1783190367.9739,1,0,1.0000,0.0000,1.44682,0.23328,-2.77748,0.97337,1.57080,0.00000,-0.14512,-0.38003,0.04653,,,,,,,,,,,,,,,,,,,,,,,,,,0,0,0,0,0
0.3366,1783190367.9876,1,0,1.0000,0.0000,1.44682,0.23328,-2.77748,0.97337,1.57080,0.00000,-0.14512,-0.38003,0.04653,,,,,,,,,,,,,,,,,,,,,,,,,,0,0,0,0,0
0.3463,1783190367.9973,1,0,1.0000,0.0000,1.44682,0.23328,-2.77748,0.97337,1.57080,0.00000,-0.14512,-0.38003,0.04653,,,,,,,,,,,,,,,,,,,,,,,,,,0,0,0,0,0
0.3579,1783190368.0089,1,0,1.0000,0.0000,1.44682,0.23328,-2.77748,0.97337,1.57080,0.00000,-0.14512,-0.38003,0.04653,,,,,,,,,,,,,,,,,,,,,,,,,,0,0,0,0,0
0.3631,1783190368.0141,1,0,1.0000,0.0000,1.44682,0.23328,-2.77748,0.97337,1.57080,0.00000,-0.14512,-0.38003,0.04653,,,,,,,,,,,,,,,,,,,,,,,,,,0,0,0,0,0
0.3635,1783190368.0145,1,0,1.0000,0.0000,1.44682,0.23328,-2.77748,0.97337,1.57080,0.00000,-0.14512,-0.38003,0.04653,,,,,,,,,,,,,,,,,,,,,,,,,,0,0,0,0,0
0.3739,1783190368.0249,1,0,1.0000,0.0000,1.44682,0.23328,-2.77748,0.97337,1.57080,0.00000,-0.14512,-0.38003,0.04653,,,,,,,,,,,,,,,,,,,,,,,,,,0,0,0,0,0
0.3845,1783190368.0355,1,0,1.0000,0.0000,1.44682,0.23328,-2.77748,0.97337,1.57080,0.00000,-0.14512,-0.38003,0.04653,,,,,,,,,,,,,,,,,,,,,,,,,,0,0,0,0,0
0.3935,1783190368.0444,1,0,1.0000,0.0000,1.44682,0.23328,-2.77748,0.97337,1.57080,0.00000,-0.14512,-0.38003,0.04653,,,,,,,,,,,,,,,,,,,,,,,,,,0,0,0,0,0
0.4054,1783190368.0564,1,0,1.0000,0.0000,1.44682,0.23328,-2.77748,0.97337,1.57080,0.00000,-0.14512,-0.38003,0.04653,,,,,,,,,,,,,,,,,,,,,,,,,,0,0,0,0,0
0.4160,1783190368.0670,1,0,1.0000,0.0000,1.44682,0.23328,-2.77748,0.97337,1.57080,0.00000,-0.14512,-0.38003,0.04653,,,,,,,,,,,,,,,,,,,,,,,,,,0,0,0,0,0
0.4230,1783190368.0739,1,0,1.0000,0.0000,1.44682,0.23328,-2.77748,0.97337,1.57080,0.00000,-0.14512,-0.38003,0.04653,,,,,,,,,,,,,,,,,,,,,,,,,,0,0,0,0,0
0.4388,1783190368.0898,1,0,1.0000,0.0000,1.44682,0.23328,-2.77748,0.97337,1.57080,0.00000,-0.14512,-0.38003,0.04653,,,,,,,,,,,,,,,,,,,,,,,,,,0,0,0,0,0
0.4420,1783190368.0930,1,0,1.0000,0.0000,1.44682,0.23328,-2.77748,0.97337,1.57080,0.00000,-0.14512,-0.38003,0.04653,,,,,,,,,,,,,,,,,,,,,,,,,,0,0,0,0,0
0.4424,1783190368.0934,1,0,1.0000,0.0000,1.44682,0.23328,-2.77748,0.97337,1.57080,0.00000,-0.14512,-0.38003,0.04653,,,,,,,,,,,,,,,,,,,,,,,,,,0,0,0,0,0
0.4604,1783190368.1113,1,0,1.0000,0.0000,1.44682,0.23328,-2.77748,0.97337,1.57080,0.00000,-0.14512,-0.38003,0.04653,,,,,,,,,,,,,,,,,,,,,,,,,,0,0,0,0,0
0.4631,1783190368.1141,1,0,1.0000,0.0000,1.44682,0.23328,-2.77748,0.97337,1.57080,0.00000,-0.14512,-0.38003,0.04653,,,,,,,,,,,,,,,,,,,,,,,,,,0,0,0,0,0
0.4634,1783190368.1143,1,0,1.0000,0.0000,1.44682,0.23328,-2.77748,0.97337,1.57080,0.00000,-0.14512,-0.38003,0.04653,,,,,,,,,,,,,,,,,,,,,,,,,,0,0,0,0,0
0.4759,1783190368.1269,1,0,1.0000,0.0000,1.44682,0.23328,-2.77748,0.97337,1.57080,0.00000,-0.14512,-0.38003,0.04653,,,,,,,,,,,,,,,,,,,,,,,,,,0,0,0,0,0
0.4949,1783190368.1459,1,0,1.0000,0.0000,1.44682,0.23328,-2.77748,0.97337,1.57080,0.00000,-0.14512,-0.38003,0.04653,,,,,,,,,,,,,,,,,,,,,,,,,,0,0,0,0,0
0.5185,1783190368.1695,1,0,1.0000,0.0000,1.44682,0.23328,-2.77748,0.97337,1.57080,0.00000,-0.14512,-0.38003,0.04653,,,,,,,,,,,,,,,,,,,,,,,,,,0,0,0,0,0
0.5191,1783190368.1700,1,0,1.0000,0.0000,1.44682,0.23328,-2.77748,0.97337,1.57080,0.00000,-0.14512,-0.38003,0.04653,,,,,,,,,,,,,,,,,,,,,,,,,,0,0,0,0,0
0.5299,1783190368.1809,1,0,1.0000,0.0000,1.44682,0.23328,-2.77748,0.97337,1.57080,0.00000,-0.14512,-0.38003,0.04653,,,,,,,,,,,,,,,,,,,,,,,,,,0,0,0,0,0
0.5391,1783190368.1900,1,0,1.0000,0.0000,1.44682,0.23328,-2.77748,0.97337,1.57080,0.00000,-0.14512,-0.38003,0.04653,,,,,,,,,,,,,,,,,,,,,,,,,,0,0,0,0,0
0.5472,1783190368.1981,1,0,1.0000,0.0000,1.44682,0.23328,-2.77748,0.97337,1.57080,0.00000,-0.14512,-0.38003,0.04653,,,,,,,,,,,,,,,,,,,,,,,,,,0,0,0,0,0
0.5617,1783190368.2126,1,0,1.0000,0.0000,1.44682,0.23328,-2.77748,0.97337,1.57080,0.00000,-0.14512,-0.38003,0.04653,,,,,,,,,,,,,,,,,,,,,,,,,,0,0,0,0,0
0.5620,1783190368.2129,1,0,1.0000,0.0000,1.44682,0.23328,-2.77748,0.97337,1.57080,0.00000,-0.14512,-0.38003,0.04653,,,,,,,,,,,,,,,,,,,,,,,,,,0,0,0,0,0
0.5622,1783190368.2131,1,0,1.0000,0.0000,1.44682,0.23328,-2.77748,0.97337,1.57080,0.00000,-0.14512,-0.38003,0.04653,,,,,,,,,,,,,,,,,,,,,,,,,,0,0,0,0,0
0.5625,1783190368.2134,1,0,1.0000,0.0000,1.44682,0.23328,-2.77748,0.97337,1.57080,0.00000,-0.14512,-0.38003,0.04653,,,,,,,,,,,,,,,,,,,,,,,,,,0,0,0,0,0
0.5786,1783190368.2295,1,0,1.0000,0.0000,1.44682,0.23328,-2.77748,0.97337,1.57080,0.00000,-0.14512,-0.38003,0.04653,,,,,,,,,,,,,,,,,,,,,,,,,,0,0,0,0,0
0.5822,1783190368.2331,1,0,1.0000,0.0000,1.44682,0.23328,-2.77748,0.97337,1.57080,0.00000,-0.14512,-0.38003,0.04653,,,,,,,,,,,,,,,,,,,,,,,,,,0,0,0,0,0
0.5825,1783190368.2334,1,0,1.0000,0.0000,1.44682,0.23328,-2.77748,0.97337,1.57080,0.00000,-0.14512,-0.38003,0.04653,,,,,,,,,,,,,,,,,,,,,,,,,,0,0,0,0,0
0.5938,1783190368.2448,1,0,1.0000,0.0000,1.44682,0.23328,-2.77748,0.97337,1.57080,0.00000,-0.14512,-0.38003,0.04653,,,,,,,,,,,,,,,,,,,,,,,,,,0,0,0,0,0
0.6250,1783190368.2759,1,0,1.0000,0.0000,1.44682,0.23328,-2.77748,0.97337,1.57080,0.00000,-0.14512,-0.38003,0.04653,,,,,,,,,,,,,,,,,,,,,,,,,,0,0,0,0,0
0.6254,1783190368.2763,1,0,1.0000,0.0000,1.44682,0.23328,-2.77748,0.97337,1.57080,0.00000,-0.14512,-0.38003,0.04653,,,,,,,,,,,,,,,,,,,,,,,,,,0,0,0,0,0
0.6257,1783190368.2767,1,0,1.0000,0.0000,1.44682,0.23328,-2.77748,0.97337,1.57080,0.00000,-0.14512,-0.38003,0.04653,,,,,,,,,,,,,,,,,,,,,,,,,,0,0,0,0,0
0.6322,1783190368.2832,1,0,1.0000,0.0000,1.44682,0.23328,-2.77748,0.97337,1.57080,0.00000,-0.14512,-0.38003,0.04653,,,,,,,,,,,,,,,,,,,,,,,,,,0,0,0,0,0
0.6439,1783190368.2949,1,0,1.0000,0.0000,1.44682,0.23328,-2.77748,0.97337,1.57080,0.00000,-0.14512,-0.38003,0.04653,,,,,,,,,,,,,,,,,,,,,,,,,,0,0,0,0,0
0.6530,1783190368.3039,1,0,1.0000,0.0000,1.44682,0.23328,-2.77748,0.97337,1.57080,0.00000,-0.14512,-0.38003,0.04653,,,,,,,,,,,,,,,,,,,,,,,,,,0,0,0,0,0
0.6641,1783190368.3150,1,0,1.0000,0.0000,1.44682,0.23328,-2.77748,0.97337,1.57080,0.00000,-0.14512,-0.38003,0.04653,,,,,,,,,,,,,,,,,,,,,,,,,,0,0,0,0,0
0.6721,1783190368.3231,1,0,1.0000,0.0000,1.44682,0.23328,-2.77748,0.97337,1.57080,0.00000,-0.14512,-0.38003,0.04653,,,,,,,,,,,,,,,,,,,,,,,,,,0,0,0,0,0
0.6724,1783190368.3234,1,0,1.0000,0.0000,1.44682,0.23328,-2.77748,0.97337,1.57080,0.00000,-0.14512,-0.38003,0.04653,,,,,,,,,,,,,,,,,,,,,,,,,,0,0,0,0,0
0.6821,1783190368.3331,1,0,1.0000,0.0000,1.44682,0.23328,-2.77748,0.97337,1.57080,0.00000,-0.14512,-0.38003,0.04653,,,,,,,,,,,,,,,,,,,,,,,,,,0,0,0,0,0
0.6824,1783190368.3334,1,0,1.0000,0.0000,1.44682,0.23328,-2.77748,0.97337,1.57080,0.00000,-0.14512,-0.38003,0.04653,,,,,,,,,,,,,,,,,,,,,,,,,,0,0,0,0,0
0.6943,1783190368.3453,1,0,1.0000,0.0000,1.44682,0.23328,-2.77748,0.97337,1.57080,0.00000,-0.14512,-0.38003,0.04653,,,,,,,,,,,,,,,,,,,,,,,,,,0,0,0,0,0
0.6947,1783190368.3457,1,0,1.0000,0.0000,1.44682,0.23328,-2.77748,0.97337,1.57080,0.00000,-0.14512,-0.38003,0.04653,,,,,,,,,,,,,,,,,,,,,,,,,,0,0,0,0,0
0.7147,1783190368.3656,1,0,1.0000,0.0000,1.44682,0.23328,-2.77748,0.97337,1.57080,0.00000,-0.14512,-0.38003,0.04653,,,,,,,,,,,,,,,,,,,,,,,,,,0,0,0,0,0
0.7254,1783190368.3764,1,0,1.0000,0.0000,1.44682,0.23328,-2.77748,0.97337,1.57080,0.00000,-0.14512,-0.38003,0.04653,,,,,,,,,,,,,,,,,,,,,,,,,,0,0,0,0,0
0.7261,1783190368.3770,1,0,1.0000,0.0000,1.44682,0.23328,-2.77748,0.97337,1.57080,0.00000,-0.14512,-0.38003,0.04653,,,,,,,,,,,,,,,,,,,,,,,,,,0,0,0,0,0
0.7326,1783190368.3835,1,1,1.0000,0.0000,1.44682,0.23328,-2.77748,0.97337,1.57080,0.00000,-0.14512,-0.38003,0.04653,,,,,,,,,,,,,,,,,,,,,,,,,,0,0,0,0,0
0.7451,1783190368.3961,1,1,1.0000,0.0000,1.44682,0.23328,-2.77748,0.97337,1.57080,0.00000,-0.14512,-0.38003,0.04653,,,,,,,,,,,,,,,,,,,,,,,,,,0,0,0,0,0
0.7551,1783190368.4061,1,1,1.0000,0.0000,1.44682,0.23328,-2.77748,0.97337,1.57080,0.00000,-0.14512,-0.38003,0.04653,,,,,,,,,,,,,,,,,,,,,,,,,,0,0,0,0,0
0.7554,1783190368.4063,1,1,1.0000,0.0000,1.44682,0.23328,-2.77748,0.97337,1.57080,0.00000,-0.14512,-0.38003,0.04653,,,,,,,,,,,,,,,,,,,,,,,,,,0,0,0,0,0
0.7665,1783190368.4175,1,1,1.0000,0.0000,1.44682,0.23328,-2.77748,0.97337,1.57080,0.00000,-0.14512,-0.38003,0.04653,,,,,,,,,,,,,,,,,,,,,,,,,,0,0,0,0,0
0.7733,1783190368.4242,1,1,1.0000,0.0000,1.44682,0.23328,-2.77748,0.97337,1.57080,0.00000,-0.14512,-0.38003,0.04653,,,,,,,,,,,,,,,,,,,,,,,,,,0,0,0,0,0
0.7736,1783190368.4245,1,1,1.0000,0.0000,1.44682,0.23328,-2.77748,0.97337,1.57080,0.00000,-0.14512,-0.38003,0.04653,,,,,,,,,,,,,,,,,,,,,,,,,,0,0,0,0,0
0.7834,1783190368.4344,1,1,1.0000,0.0000,1.44682,0.23328,-2.77748,0.97337,1.57080,0.00000,-0.14512,-0.38003,0.04653,,,,,,,,,,,,,,,,,,,,,,,,,,0,0,0,0,0
0.7838,1783190368.4347,1,1,1.0000,0.0000,1.44682,0.23328,-2.77748,0.97337,1.57080,0.00000,-0.14512,-0.38003,0.04653,,,,,,,,,,,,,,,,,,,,,,,,,,0,0,0,0,0
0.7939,1783190368.4449,1,1,1.0000,0.0000,1.44682,0.23328,-2.77748,0.97337,1.57080,0.00000,-0.14512,-0.38003,0.04653,,,,,,,,,,,,,,,,,,,,,,,,,,0,0,0,0,0
0.7943,1783190368.4452,1,1,1.0000,0.0000,1.44682,0.23328,-2.77748,0.97337,1.57080,0.00000,-0.14512,-0.38003,0.04653,,,,,,,,,,,,,,,,,,,,,,,,,,0,0,0,0,0
0.8174,1783190368.4683,1,1,1.0000,0.0000,1.44682,0.23328,-2.77748,0.97337,1.57080,0.00000,-0.14512,-0.38003,0.04653,,,,,,,,,,,,,,,,,,,,,,,,,,0,0,0,0,0
0.8177,1783190368.4686,1,1,1.0000,0.0000,1.44682,0.23328,-2.77748,0.97337,1.57080,0.00000,-0.14512,-0.38003,0.04653,,,,,,,,,,,,,,,,,,,,,,,,,,0,0,0,0,0
0.8253,1783190368.4762,1,1,1.0000,0.0000,1.44682,0.23328,-2.77748,0.97337,1.57080,0.00000,-0.14512,-0.38003,0.04653,,,,,,,,,,,,,,,,,,,,,,,,,,0,0,0,0,0
0.8257,1783190368.4767,1,1,1.0000,0.0000,1.44682,0.23328,-2.77748,0.97337,1.57080,0.00000,-0.14512,-0.38003,0.04653,,,,,,,,,,,,,,,,,,,,,,,,,,0,0,0,0,0
0.8333,1783190368.4842,1,1,1.0000,0.0000,1.44682,0.23328,-2.77748,0.97337,1.57080,0.00000,-0.14512,-0.38003,0.04653,,,,,,,,,,,,,,,,,,,,,,,,,,0,0,0,0,0
0.8421,1783190368.4931,1,1,1.0000,0.0000,1.44682,0.23328,-2.77748,0.97337,1.57080,0.00000,-0.14512,-0.38003,0.04653,,,,,,,,,,,,,,,,,,,,,,,,,,0,0,0,0,0
0.8517,1783190368.5027,1,1,1.0000,0.0000,1.44682,0.23328,-2.77748,0.97337,1.57080,0.00000,-0.14512,-0.38003,0.04653,,,,,,,,,,,,,,,,,,,,,,,,,,0,0,0,0,0
0.8520,1783190368.5030,1,1,1.0000,0.0000,1.44682,0.23328,-2.77748,0.97337,1.57080,0.00000,-0.14512,-0.38003,0.04653,,,,,,,,,,,,,,,,,,,,,,,,,,0,0,0,0,0
0.8703,1783190368.5213,1,1,1.0000,0.0000,1.44682,0.23328,-2.77748,0.97337,1.57080,0.00000,-0.14512,-0.38003,0.04653,,,,,,,,,,,,,,,,,,,,,,,,,,0,0,0,0,0
0.8722,1783190368.5231,1,1,1.0000,0.0000,1.44682,0.23328,-2.77748,0.97337,1.57080,0.00000,-0.14512,-0.38003,0.04653,,,,,,,,,,,,,,,,,,,,,,,,,,0,0,0,0,0
0.8924,1783190368.5433,1,1,1.0000,0.0000,1.44682,0.23328,-2.77748,0.97337,1.57080,0.00000,-0.14512,-0.38003,0.04653,,,,,,,,,,,,,,,,,,,,,,,,,,0,0,0,0,0
0.8963,1783190368.5472,1,1,1.0000,0.0000,1.44682,0.23328,-2.77748,0.97337,1.57080,0.00000,-0.14512,-0.38003,0.04653,,,,,,,,,,,,,,,,,,,,,,,,,,0,0,0,0,0
0.9019,1783190368.5529,1,1,1.0000,0.0000,1.44682,0.23328,-2.77748,0.97337,1.57080,0.00000,-0.14512,-0.38003,0.04653,,,,,,,,,,,,,,,,,,,,,,,,,,0,0,0,0,0
0.9022,1783190368.5532,1,1,1.0000,0.0000,1.44682,0.23328,-2.77748,0.97337,1.57080,0.00000,-0.14512,-0.38003,0.04653,,,,,,,,,,,,,,,,,,,,,,,,,,0,0,0,0,0
0.9156,1783190368.5666,1,1,1.0000,0.0000,1.44682,0.23328,-2.77748,0.97337,1.57080,0.00000,-0.14512,-0.38003,0.04653,,,,,,,,,,,,,,,,,,,,,,,,,,0,0,0,0,0
0.9280,1783190368.5789,1,1,1.0000,0.0000,1.44682,0.23322,-2.77749,0.97344,1.57080,0.00000,-0.14512,-0.38003,0.04651,,,,,,,,,,,,,,,,,,,,,,,,,,0,0,0,0,0
0.9340,1783190368.5849,1,1,1.0000,0.0000,1.44682,0.23316,-2.77751,0.97352,1.57080,0.00000,-0.14512,-0.38003,0.04650,,,,,,,,,,,,,,,,,,,,,,,,,,0,0,0,0,0
0.9498,1783190368.6008,1,1,1.0000,0.0000,1.44682,0.23285,-2.77759,0.97390,1.57080,0.00000,-0.14512,-0.38003,0.04642,,,,,,,,,,,,,,,,,,,,,,,,,,0,0,0,0,0
0.9565,1783190368.6075,1,1,1.0000,0.0000,1.44682,0.23284,-2.77759,0.97391,1.57080,0.00000,-0.14512,-0.38003,0.04641,,,,,,,,,,,,,,,,,,,,,,,,,,0,0,0,0,0
0.9719,1783190368.6229,1,1,1.0000,0.0000,1.44682,0.23270,-2.77763,0.97410,1.57080,0.00000,-0.14512,-0.38003,0.04638,,,,,,,,,,,,,,,,,,,,,,,,,,0,0,0,0,0
0.9746,1783190368.6255,1,1,1.0000,0.0000,1.44682,0.23270,-2.77763,0.97410,1.57080,0.00000,-0.14512,-0.38003,0.04638,,,,,,,,,,,,,,,,,,,,,,,,,,0,0,0,0,0
0.9751,1783190368.6260,1,1,1.0000,0.0000,1.44682,0.23264,-2.77764,0.97417,1.57080,0.00000,-0.14512,-0.38003,0.04636,,,,,,,,,,,,,,,,,,,,,,,,,,0,0,0,0,0
0.9880,1783190368.6390,1,1,1.0000,0.0000,1.44682,0.23259,-2.77765,0.97423,1.57080,0.00000,-0.14512,-0.38003,0.04635,,,,,,,,,,,,,,,,,,,,,,,,,,0,0,0,0,0
0.9884,1783190368.6394,1,1,1.0000,0.0000,1.44682,0.23259,-2.77765,0.97423,1.57080,0.00000,-0.14512,-0.38003,0.04635,,,,,,,,,,,,,,,,,,,,,,,,,,0,0,0,0,0
0.9934,1783190368.6444,1,1,1.0000,0.0000,1.44682,0.23254,-2.77767,0.97429,1.57080,0.00000,-0.14512,-0.38003,0.04634,,,,,,,,,,,,,,,,,,,,,,,,,,0,0,0,0,0
0.9939,1783190368.6448,1,1,1.0000,0.0000,1.44682,0.23254,-2.77767,0.97429,1.57080,0.00000,-0.14512,-0.38003,0.04634,,,,,,,,,,,,,,,,,,,,,,,,,,0,0,0,0,0
1.0032,1783190368.6542,1,1,1.0000,0.0000,1.44682,0.23234,-2.77772,0.97455,1.57080,0.00000,-0.14512,-0.38003,0.04628,,,,,,,,,,,,,,,,,,,,,,,,,,0,0,0,0,0
1.0226,1783190368.6736,1,1,1.0000,0.0000,1.44682,0.23224,-2.77774,0.97468,1.57080,0.00000,-0.14512,-0.38003,0.04626,,,,,,,,,,,,,,,,,,,,,,,,,,0,0,0,0,0
1.0250,1783190368.6760,1,1,1.0000,0.0000,1.44682,0.23220,-2.77775,0.97472,1.57080,0.00000,-0.14512,-0.38003,0.04625,,,,,,,,,,,,,,,,,,,,,,,,,,0,0,0,0,0
1.0254,1783190368.6763,1,1,1.0000,0.0000,1.44682,0.23220,-2.77775,0.97472,1.57080,0.00000,-0.14512,-0.38003,0.04625,,,,,,,,,,,,,,,,,,,,,,,,,,0,0,0,0,0
1.0321,1783190368.6830,1,1,1.0000,0.0000,1.44682,0.23210,-2.77778,0.97485,1.57080,0.00000,-0.14512,-0.38003,0.04622,,,,,,,,,,,,,,,,,,,,,,,,,,0,0,0,0,0
1.0324,1783190368.6833,1,1,1.0000,0.0000,1.44682,0.23210,-2.77778,0.97485,1.57080,0.00000,-0.14512,-0.38003,0.04622,,,,,,,,,,,,,,,,,,,,,,,,,,0,0,0,0,0
1.1492,1783190368.8002,1,1,1.0000,0.0000,1.44682,0.23093,-2.77808,0.97632,1.57080,0.00000,-0.14512,-0.38003,0.04591,,,,,,,,,,,,,,,,,,,,,,,,,,0,0,0,0,0
1.1496,1783190368.8005,1,1,1.0000,0.0000,1.44682,0.23093,-2.77808,0.97632,1.57080,0.00000,-0.14512,-0.38003,0.04591,,,,,,,,,,,,,,,,,,,,,,,,,,0,0,0,0,0
1.1500,1783190368.8010,1,1,1.0000,0.0000,1.44682,0.23093,-2.77808,0.97632,1.57080,0.00000,-0.14512,-0.38003,0.04591,,,,,,,,,,,,,,,,,,,,,,,,,,0,0,0,0,0
1.1503,1783190368.8013,1,1,1.0000,0.0000,1.44682,0.23093,-2.77808,0.97632,1.57080,0.00000,-0.14512,-0.38003,0.04591,,,,,,,,,,,,,,,,,,,,,,,,,,0,0,0,0,0
1.1507,1783190368.8016,1,1,1.0000,0.0000,1.44682,0.23093,-2.77808,0.97632,1.57080,0.00000,-0.14512,-0.38003,0.04591,,,,,,,,,,,,,,,,,,,,,,,,,,0,0,0,0,0
1.1512,1783190368.8021,1,1,1.0000,0.0000,1.44682,0.23086,-2.77810,0.97641,1.57080,0.00000,-0.14512,-0.38003,0.04590,,,,,,,,,,,,,,,,,,,,,,,,,,0,0,0,0,0
1.1516,1783190368.8025,1,1,1.0000,0.0000,1.44682,0.23086,-2.77810,0.97641,1.57080,0.00000,-0.14512,-0.38003,0.04590,,,,,,,,,,,,,,,,,,,,,,,,,,0,0,0,0,0
1.1518,1783190368.8028,1,1,1.0000,0.0000,1.44682,0.23086,-2.77810,0.97641,1.57080,0.00000,-0.14512,-0.38003,0.04590,,,,,,,,,,,,,,,,,,,,,,,,,,0,0,0,0,0
1.1521,1783190368.8031,1,1,1.0000,0.0000,1.44682,0.23086,-2.77810,0.97641,1.57080,0.00000,-0.14512,-0.38003,0.04590,,,,,,,,,,,,,,,,,,,,,,,,,,0,0,0,0,0
1.1523,1783190368.8033,1,1,1.0000,0.0000,1.44682,0.23086,-2.77810,0.97641,1.57080,0.00000,-0.14512,-0.38003,0.04590,,,,,,,,,,,,,,,,,,,,,,,,,,0,0,0,0,0
1.1832,1783190368.8342,1,1,1.0000,0.0000,1.44682,0.23050,-2.77819,0.97686,1.57080,0.00000,-0.14512,-0.38003,0.04580,,,,,,,,,,,,,,,,,,,,,,,,,,0,0,0,0,0
1.1880,1783190368.8389,1,1,1.0000,0.0000,1.44682,0.23044,-2.77821,0.97694,1.57080,0.00000,-0.14512,-0.38003,0.04579,,,,,,,,,,,,,,,,,,,,,,,,,,0,0,0,0,0
1.2037,1783190368.8546,1,1,1.0000,0.0000,1.44682,0.23034,-2.77823,0.97706,1.57080,0.00000,-0.14512,-0.38003,0.04576,,,,,,,,,,,,,,,,,,,,,,,,,,0,0,0,0,0
1.2039,1783190368.8549,1,1,1.0000,0.0000,1.44682,0.23034,-2.77823,0.97706,1.57080,0.00000,-0.14512,-0.38003,0.04576,,,,,,,,,,,,,,,,,,,,,,,,,,0,0,0,0,0
1.2042,1783190368.8552,1,1,1.0000,0.0000,1.44682,0.23034,-2.77823,0.97706,1.57080,0.00000,-0.14512,-0.38003,0.04576,,,,,,,,,,,,,,,,,,,,,,,,,,0,0,0,0,0
1.2056,1783190368.8566,1,1,1.0000,0.0000,1.44682,0.23034,-2.77823,0.97706,1.57080,0.00000,-0.14512,-0.38003,0.04576,,,,,,,,,,,,,,,,,,,,,,,,,,0,0,0,0,0
1.2230,1783190368.8739,1,1,1.0000,0.0000,1.44682,0.23013,-2.77829,0.97732,1.57080,0.00000,-0.14512,-0.38003,0.04571,,,,,,,,,,,,,,,,,,,,,,,,,,0,0,0,0,0
1.2286,1783190368.8795,1,1,1.0000,0.0000,1.44682,0.23010,-2.77829,0.97736,1.57080,0.00000,-0.14512,-0.38003,0.04570,,,,,,,,,,,,,,,,,,,,,,,,,,0,0,0,0,0
1.2290,1783190368.8799,1,1,1.0000,0.0000,1.44682,0.23010,-2.77829,0.97736,1.57080,0.00000,-0.14512,-0.38003,0.04570,,,,,,,,,,,,,,,,,,,,,,,,,,0,0,0,0,0
1.2371,1783190368.8881,1,1,1.0000,0.0000,1.44682,0.22999,-2.77832,0.97750,1.57080,0.00000,-0.14512,-0.38003,0.04567,,,,,,,,,,,,,,,,,,,,,,,,,,0,0,0,0,0
1.2374,1783190368.8884,1,1,1.0000,0.0000,1.44682,0.22999,-2.77832,0.97750,1.57080,0.00000,-0.14512,-0.38003,0.04567,,,,,,,,,,,,,,,,,,,,,,,,,,0,0,0,0,0
1.2475,1783190368.8985,1,1,1.0000,0.0000,1.44682,0.22979,-2.77837,0.97776,1.57080,0.00000,-0.14512,-0.38003,0.04562,,,,,,,,,,,,,,,,,,,,,,,,,,0,0,0,0,0
1.2583,1783190368.9092,1,1,1.0000,0.0000,1.44682,0.22978,-2.77838,0.97777,1.57080,0.00000,-0.14512,-0.38003,0.04561,,,,,,,,,,,,,,,,,,,,,,,,,,0,0,0,0,0
1.2676,1783190368.9186,1,1,1.0000,0.0000,1.44682,0.22963,-2.77841,0.97795,1.57080,0.00000,-0.14512,-0.38003,0.04558,,,,,,,,,,,,,,,,,,,,,,,,,,0,0,0,0,0
1.2809,1783190368.9319,1,1,1.0000,0.0000,1.44682,0.22950,-2.77845,0.97812,1.57080,0.00000,-0.14512,-0.38003,0.04554,,,,,,,,,,,,,,,,,,,,,,,,,,0,0,0,0,0
1.2862,1783190368.9371,1,1,1.0000,0.0000,1.44682,0.22948,-2.77845,0.97814,1.57080,0.00000,-0.14512,-0.38003,0.04554,,,,,,,,,,,,,,,,,,,,,,,,,,0,0,0,0,0
1.2865,1783190368.9374,1,1,1.0000,0.0000,1.44682,0.22948,-2.77845,0.97814,1.57080,0.00000,-0.14512,-0.38003,0.04554,,,,,,,,,,,,,,,,,,,,,,,,,,0,0,0,0,0
1.2974,1783190368.9483,1,1,1.0000,0.0000,1.44682,0.22934,-2.77849,0.97832,1.57080,0.00000,-0.14512,-0.38003,0.04550,,,,,,,,,,,,,,,,,,,,,,,,,,0,0,0,0,0
1.3070,1783190368.9580,1,1,1.0000,0.0000,1.44682,0.22914,-2.77854,0.97857,1.57080,0.00000,-0.14512,-0.38003,0.04545,,,,,,,,,,,,,,,,,,,,,,,,,,0,0,0,0,0
1.3158,1783190368.9668,1,1,1.0000,0.0000,1.44682,0.22913,-2.77854,0.97859,1.57080,0.00000,-0.14512,-0.38003,0.04544,,,,,,,,,,,,,,,,,,,,,,,,,,0,0,0,0,0
1.3273,1783190368.9783,1,1,1.0000,0.0000,1.44682,0.22898,-2.77858,0.97877,1.57080,0.00000,-0.14512,-0.38003,0.04541,,,,,,,,,,,,,,,,,,,,,,,,,,0,0,0,0,0
1.3277,1783190368.9786,1,1,1.0000,0.0000,1.44682,0.22898,-2.77858,0.97877,1.57080,0.00000,-0.14512,-0.38003,0.04541,,,,,,,,,,,,,,,,,,,,,,,,,,0,0,0,0,0
1.3374,1783190368.9884,1,1,1.0000,0.0000,1.44682,0.22885,-2.77862,0.97894,1.57080,0.00000,-0.14512,-0.38003,0.04537,,,,,,,,,,,,,,,,,,,,,,,,,,0,0,0,0,0
1.3379,1783190368.9888,1,1,1.0000,0.0000,1.44682,0.22885,-2.77862,0.97894,1.57080,0.00000,-0.14512,-0.38003,0.04537,,,,,,,,,,,,,,,,,,,,,,,,,,0,0,0,0,0
1.3453,1783190368.9963,1,1,1.0000,0.0000,1.44682,0.22883,-2.77862,0.97895,1.57080,0.00000,-0.14512,-0.38003,0.04537,,,,,,,,,,,,,,,,,,,,,,,,,,0,0,0,0,0
1.3600,1783190369.0109,1,1,1.0000,0.0000,1.44682,0.22862,-2.77867,0.97922,1.57080,0.00000,-0.14512,-0.38003,0.04531,,,,,,,,,,,,,,,,,,,,,,,,,,0,0,0,0,0
1.3675,1783190369.0184,1,1,1.0000,0.0000,1.44682,0.22849,-2.77871,0.97939,1.57080,0.00000,-0.14512,-0.38003,0.04528,,,,,,,,,,,,,,,,,,,,,,,,,,0,0,0,0,0
1.3680,1783190369.0189,1,1,1.0000,0.0000,1.44682,0.22849,-2.77871,0.97939,1.57080,0.00000,-0.14512,-0.38003,0.04528,,,,,,,,,,,,,,,,,,,,,,,,,,0,0,0,0,0
1.3804,1783190369.0313,1,1,1.0000,0.0000,1.44682,0.22844,-2.77872,0.97944,1.57080,0.00000,-0.14512,-0.38003,0.04527,,,,,,,,,,,,,,,,,,,,,,,,,,0,0,0,0,0
1.3808,1783190369.0318,1,1,1.0000,0.0000,1.44682,0.22844,-2.77872,0.97944,1.57080,0.00000,-0.14512,-0.38003,0.04527,,,,,,,,,,,,,,,,,,,,,,,,,,0,0,0,0,0
1.3889,1783190369.0399,1,1,1.0000,0.0000,1.44682,0.22833,-2.77875,0.97958,1.57080,0.00000,-0.14512,-0.38003,0.04524,,,,,,,,,,,,,,,,,,,,,,,,,,0,0,0,0,0
1.3894,1783190369.0404,1,1,1.0000,0.0000,1.44682,0.22833,-2.77875,0.97958,1.57080,0.00000,-0.14512,-0.38003,0.04524,,,,,,,,,,,,,,,,,,,,,,,,,,0,0,0,0,0
1.3977,1783190369.0486,1,1,1.0000,0.0000,1.44682,0.22819,-2.77878,0.97976,1.57080,0.00000,-0.14512,-0.38003,0.04520,,,,,,,,,,,,,,,,,,,,,,,,,,0,0,0,0,0
1.3981,1783190369.0490,1,1,1.0000,0.0000,1.44682,0.22819,-2.77878,0.97976,1.57080,0.00000,-0.14512,-0.38003,0.04520,,,,,,,,,,,,,,,,,,,,,,,,,,0,0,0,0,0
1.4073,1783190369.0583,1,1,1.0000,0.0000,1.44682,0.22812,-2.77880,0.97985,1.57080,0.00000,-0.14512,-0.38003,0.04518,,,,,,,,,,,,,,,,,,,,,,,,,,0,0,0,0,0
1.4162,1783190369.0672,1,1,1.0000,0.0000,1.44682,0.22806,-2.77882,0.97993,1.57080,0.00000,-0.14512,-0.38003,0.04517,,,,,,,,,,,,,,,,,,,,,,,,,,0,0,0,0,0
1.4307,1783190369.0817,1,1,1.0000,0.0000,1.44682,0.22790,-2.77886,0.98013,1.57080,0.00000,-0.14512,-0.38003,0.04512,,,,,,,,,,,,,,,,,,,,,,,,,,0,0,0,0,0
1.4419,1783190369.0929,1,1,1.0000,0.0000,1.44682,0.22785,-2.77887,0.98019,1.57080,0.00000,-0.14512,-0.38003,0.04511,,,,,,,,,,,,,,,,,,,,,,,,,,0,0,0,0,0
1.4466,1783190369.0976,1,1,1.0000,0.0000,1.44682,0.22780,-2.77888,0.98025,1.57080,0.00000,-0.14512,-0.38003,0.04510,,,,,,,,,,,,,,,,,,,,,,,,,,0,0,0,0,0
1.4472,1783190369.0982,1,1,1.0000,0.0000,1.44682,0.22774,-2.77890,0.98033,1.57080,0.00000,-0.14512,-0.38003,0.04508,,,,,,,,,,,,,,,,,,,,,,,,,,0,0,0,0,0
1.4573,1783190369.1083,1,1,1.0000,0.0000,1.44682,0.22760,-2.77893,0.98051,1.57080,0.00000,-0.14512,-0.38003,0.04505,,,,,,,,,,,,,,,,,,,,,,,,,,0,0,0,0,0
1.4654,1783190369.1163,1,1,1.0000,0.0000,1.44682,0.22753,-2.77895,0.98059,1.57080,0.00000,-0.14512,-0.38003,0.04503,,,,,,,,,,,,,,,,,,,,,,,,,,0,0,0,0,0
1.4884,1783190369.1394,1,1,1.0000,0.0000,1.44682,0.22730,-2.77901,0.98088,1.57080,0.00000,-0.14512,-0.38003,0.04497,,,,,,,,,,,,,,,,,,,,,,,,,,0,0,0,0,0
1.4889,1783190369.1398,1,1,1.0000,0.0000,1.44682,0.22730,-2.77901,0.98088,1.57080,0.00000,-0.14512,-0.38003,0.04497,,,,,,,,,,,,,,,,,,,,,,,,,,0,0,0,0,0
1.4891,1783190369.1401,1,1,1.0000,0.0000,1.44682,0.22730,-2.77901,0.98088,1.57080,0.00000,-0.14512,-0.38003,0.04497,,,,,,,,,,,,,,,,,,,,,,,,,,0,0,0,0,0
1.5009,1783190369.1518,1,1,1.0000,0.0000,1.44682,0.22725,-2.77902,0.98094,1.57080,0.00000,-0.14512,-0.38003,0.04496,,,,,,,,,,,,,,,,,,,,,,,,,,0,0,0,0,0
1.5111,1783190369.1621,1,1,1.0000,0.0000,1.44682,0.22707,-2.77907,0.98116,1.57080,0.00001,-0.14512,-0.38003,0.04491,,,,,,,,,,,,,,,,,,,,,,,,,,0,0,0,0,0
1.5114,1783190369.1624,1,1,1.0000,0.0000,1.44682,0.22707,-2.77907,0.98116,1.57080,0.00001,-0.14512,-0.38003,0.04491,,,,,,,,,,,,,,,,,,,,,,,,,,0,0,0,0,0
1.5154,1783190369.1663,1,1,1.0000,0.0000,1.44682,0.22700,-2.77909,0.98125,1.57080,0.00001,-0.14512,-0.38003,0.04489,,,,,,,,,,,,,,,,,,,,,,,,,,0,0,0,0,0
1.5308,1783190369.1817,1,1,1.0000,0.0000,1.44682,0.22692,-2.77910,0.98135,1.57080,0.00001,-0.14512,-0.38003,0.04487,,,,,,,,,,,,,,,,,,,,,,,,,,0,0,0,0,0
1.5364,1783190369.1873,1,1,1.0000,0.0000,1.44682,0.22686,-2.77912,0.98143,1.57080,0.00001,-0.14512,-0.38003,0.04486,,,,,,,,,,,,,,,,,,,,,,,,,,0,0,0,0,0
1.5490,1783190369.1999,1,1,1.0000,0.0000,1.44682,0.22670,-2.77916,0.98163,1.57080,0.00001,-0.14512,-0.38003,0.04481,,,,,,,,,,,,,,,,,,,,,,,,,,0,0,0,0,0
1.5554,1783190369.2063,1,1,1.0000,0.0000,1.44682,0.22669,-2.77916,0.98164,1.57080,0.00001,-0.14512,-0.38003,0.04481,,,,,,,,,,,,,,,,,,,,,,,,,,0,0,0,0,0
1.5558,1783190369.2067,1,1,1.0000,0.0000,1.44682,0.22669,-2.77916,0.98164,1.57080,0.00001,-0.14512,-0.38003,0.04481,,,,,,,,,,,,,,,,,,,,,,,,,,0,0,0,0,0
1.5678,1783190369.2187,1,1,1.0000,0.0000,1.44682,0.22654,-2.77920,0.98183,1.57080,0.00001,-0.14512,-0.38003,0.04477,,,,,,,,,,,,,,,,,,,,,,,,,,0,0,0,0,0
1.5914,1783190369.2424,1,1,1.0000,0.0000,1.44682,0.22630,-2.77926,0.98213,1.57080,0.00001,-0.14512,-0.38003,0.04471,,,,,,,,,,,,,,,,,,,,,,,,,,0,0,0,0,0
1.5919,1783190369.2428,1,1,1.0000,0.0000,1.44682,0.22630,-2.77926,0.98213,1.57080,0.00001,-0.14512,-0.38003,0.04471,,,,,,,,,,,,,,,,,,,,,,,,,,0,0,0,0,0
1.5954,1783190369.2464,1,1,1.0000,0.0000,1.44682,0.22626,-2.77927,0.98218,1.57080,0.00001,-0.14512,-0.38003,0.04470,,,,,,,,,,,,,,,,,,,,,,,,,,0,0,0,0,0
1.5957,1783190369.2466,1,1,1.0000,0.0000,1.44682,0.22626,-2.77927,0.98218,1.57080,0.00001,-0.14512,-0.38003,0.04470,,,,,,,,,,,,,,,,,,,,,,,,,,0,0,0,0,0
1.6104,1783190369.2613,1,1,1.0000,0.0000,1.44682,0.22610,-2.77931,0.98238,1.57080,0.00001,-0.14512,-0.38003,0.04466,,,,,,,,,,,,,,,,,,,,,,,,,,0,0,0,0,0
1.6233,1783190369.2742,1,1,1.0000,0.0000,1.44682,0.22601,-2.77934,0.98250,1.57080,0.00001,-0.14512,-0.38003,0.04463,,,,,,,,,,,,,,,,,,,,,,,,,,0,0,0,0,0
1.6360,1783190369.2870,1,1,1.0000,0.0000,1.44682,0.22580,-2.77939,0.98275,1.57080,0.00001,-0.14512,-0.38003,0.04458,,,,,,,,,,,,,,,,,,,,,,,,,,0,0,0,0,0
1.6374,1783190369.2884,1,1,1.0000,0.0000,1.44682,0.22580,-2.77939,0.98275,1.57080,0.00001,-0.14512,-0.38003,0.04458,,,,,,,,,,,,,,,,,,,,,,,,,,0,0,0,0,0
1.6377,1783190369.2886,1,1,1.0000,0.0000,1.44682,0.22580,-2.77939,0.98275,1.57080,0.00001,-0.14512,-0.38003,0.04458,,,,,,,,,,,,,,,,,,,,,,,,,,0,0,0,0,0
1.6503,1783190369.3013,1,1,1.0000,0.0000,1.44682,0.22572,-2.77941,0.98285,1.57080,0.00001,-0.14512,-0.38003,0.04456,,,,,,,,,,,,,,,,,,,,,,,,,,0,0,0,0,0
1.6564,1783190369.3074,1,1,1.0000,0.0000,1.44682,0.22566,-2.77942,0.98293,1.57080,0.00001,-0.14512,-0.38003,0.04455,,,,,,,,,,,,,,,,,,,,,,,,,,0,0,0,0,0
1.6678,1783190369.3187,1,1,1.0000,0.0000,1.44682,0.22550,-2.77946,0.98313,1.57080,0.00001,-0.14512,-0.38003,0.04450,,,,,,,,,,,,,,,,,,,,,,,,,,0,0,0,0,0
1.6788,1783190369.3297,1,1,1.0000,0.0000,1.44682,0.22549,-2.77947,0.98314,1.57080,0.00001,-0.14512,-0.38003,0.04450,,,,,,,,,,,,,,,,,,,,,,,,,,0,0,0,0,0
1.6913,1783190369.3422,1,1,1.0000,0.0000,1.44682,0.22527,-2.77952,0.98342,1.57080,0.00001,-0.14512,-0.38002,0.04445,,,,,,,,,,,,,,,,,,,,,,,,,,0,0,0,0,0
1.6995,1783190369.3505,1,1,1.0000,0.0000,1.44682,0.22513,-2.77956,0.98359,1.57080,0.00001,-0.14512,-0.38002,0.04441,,,,,,,,,,,,,,,,,,,,,,,,,,0,0,0,0,0
1.7066,1783190369.3576,1,1,1.0000,0.0000,1.44682,0.22513,-2.77956,0.98359,1.57080,0.00001,-0.14512,-0.38002,0.04441,,,,,,,,,,,,,,,,,,,,,,,,,,0,0,0,0,0
1.7073,1783190369.3582,1,1,1.0000,0.0000,1.44682,0.22513,-2.77956,0.98360,1.57080,0.00001,-0.14512,-0.38002,0.04441,,,,,,,,,,,,,,,,,,,,,,,,,,0,0,0,0,0
1.7175,1783190369.3684,1,1,1.0000,0.0000,1.44682,0.22507,-2.77957,0.98368,1.57080,0.00001,-0.14512,-0.38002,0.04439,,,,,,,,,,,,,,,,,,,,,,,,,,0,0,0,0,0
1.7260,1783190369.3770,1,1,1.0000,0.0000,1.44682,0.22496,-2.77960,0.98380,1.57080,0.00001,-0.14512,-0.38002,0.04436,,,,,,,,,,,,,,,,,,,,,,,,,,0,0,0,0,0
1.7263,1783190369.3773,1,1,1.0000,0.0000,1.44682,0.22496,-2.77960,0.98380,1.57080,0.00001,-0.14512,-0.38002,0.04436,,,,,,,,,,,,,,,,,,,,,,,,,,0,0,0,0,0
1.7415,1783190369.3925,1,1,1.0000,0.0000,1.44682,0.22486,-2.77963,0.98394,1.57080,0.00001,-0.14512,-0.38002,0.04434,,,,,,,,,,,,,,,,,,,,,,,,,,0,0,0,0,0
1.7419,1783190369.3928,1,1,1.0000,0.0000,1.44682,0.22486,-2.77963,0.98394,1.57080,0.00001,-0.14512,-0.38002,0.04434,,,,,,,,,,,,,,,,,,,,,,,,,,0,0,0,0,0
1.7507,1783190369.4017,1,1,1.0000,0.0000,1.44682,0.22475,-2.77966,0.98408,1.57080,0.00001,-0.14512,-0.38002,0.04431,,,,,,,,,,,,,,,,,,,,,,,,,,0,0,0,0,0
1.7583,1783190369.4093,1,1,1.0000,0.0000,1.44682,0.22460,-2.77969,0.98426,1.57080,0.00001,-0.14512,-0.38002,0.04427,,,,,,,,,,,,,,,,,,,,,,,,,,0,0,0,0,0
1.7586,1783190369.4095,1,1,1.0000,0.0000,1.44682,0.22460,-2.77969,0.98426,1.57080,0.00001,-0.14512,-0.38002,0.04427,,,,,,,,,,,,,,,,,,,,,,,,,,0,0,0,0,0
1.7697,1783190369.4207,1,1,1.0000,0.0000,1.44682,0.22453,-2.77971,0.98435,1.57080,0.00001,-0.14512,-0.38002,0.04425,,,,,,,,,,,,,,,,,,,,,,,,,,0,0,0,0,0
1.7757,1783190369.4266,1,1,1.0000,0.0000,1.44682,0.22447,-2.77973,0.98443,1.57080,0.00001,-0.14512,-0.38002,0.04424,,,,,,,,,,,,,,,,,,,,,,,,,,0,0,0,0,0
1.7955,1783190369.4464,1,1,1.0000,0.0000,1.44682,0.22429,-2.77977,0.98464,1.57080,0.00001,-0.14512,-0.38002,0.04419,,,,,,,,,,,,,,,,,,,,,,,,,,0,0,0,0,0
1.7958,1783190369.4467,1,1,1.0000,0.0000,1.44682,0.22429,-2.77977,0.98464,1.57080,0.00001,-0.14512,-0.38002,0.04419,,,,,,,,,,,,,,,,,,,,,,,,,,0,0,0,0,0
1.7962,1783190369.4472,1,1,1.0000,0.0000,1.44682,0.22429,-2.77977,0.98464,1.57080,0.00001,-0.14512,-0.38002,0.04419,,,,,,,,,,,,,,,,,,,,,,,,,,0,0,0,0,0
1.8100,1783190369.4610,1,1,1.0000,0.0000,1.44682,0.22414,-2.77981,0.98483,1.57080,0.00001,-0.14512,-0.38002,0.04415,,,,,,,,,,,,,,,,,,,,,,,,,,0,0,0,0,0
1.8178,1783190369.4687,1,1,1.0000,0.0000,1.44682,0.22400,-2.77984,0.98501,1.57080,0.00001,-0.14512,-0.38002,0.04412,,,,,,,,,,,,,,,,,,,,,,,,,,0,0,0,0,0
1.8181,1783190369.4690,1,1,1.0000,0.0000,1.44682,0.22400,-2.77984,0.98501,1.57080,0.00001,-0.14512,-0.38002,0.04412,,,,,,,,,,,,,,,,,,,,,,,,,,0,0,0,0,0
1.8256,1783190369.4765,1,1,1.0000,0.0000,1.44682,0.22393,-2.77986,0.98509,1.57080,0.00001,-0.14512,-0.38002,0.04410,,,,,,,,,,,,,,,,,,,,,,,,,,0,0,0,0,0
1.8371,1783190369.4880,1,1,1.0000,0.0000,1.44682,0.22386,-2.77988,0.98518,1.57080,0.00001,-0.14512,-0.38002,0.04408,,,,,,,,,,,,,,,,,,,,,,,,,,0,0,0,0,0
1.8375,1783190369.4885,1,1,1.0000,0.0000,1.44682,0.22386,-2.77988,0.98518,1.57080,0.00001,-0.14512,-0.38002,0.04408,,,,,,,,,,,,,,,,,,,,,,,,,,0,0,0,0,0
1.8495,1783190369.5005,1,1,1.0000,0.0000,1.44682,0.22370,-2.77992,0.98538,1.57080,0.00001,-0.14512,-0.38002,0.04404,,,,,,,,,,,,,,,,,,,,,,,,,,0,0,0,0,0
1.8558,1783190369.5067,1,1,1.0000,0.0000,1.44682,0.22369,-2.77992,0.98540,1.57080,0.00001,-0.14512,-0.38002,0.04404,,,,,,,,,,,,,,,,,,,,,,,,,,0,0,0,0,0
1.8561,1783190369.5071,1,1,1.0000,0.0000,1.44682,0.22369,-2.77992,0.98540,1.57080,0.00001,-0.14512,-0.38002,0.04404,,,,,,,,,,,,,,,,,,,,,,,,,,0,0,0,0,0
1.8656,1783190369.5165,1,1,1.0000,0.0000,1.44682,0.22361,-2.77994,0.98550,1.57080,0.00001,-0.14512,-0.38002,0.04401,,,,,,,,,,,,,,,,,,,,,,,,,,0,0,0,0,0
1.8755,1783190369.5264,1,1,1.0000,0.0000,1.44682,0.22340,-2.77999,0.98576,1.57080,0.00001,-0.14512,-0.38002,0.04396,,,,,,,,,,,,,,,,,,,,,,,,,,0,0,0,0,0
1.8978,1783190369.5487,1,1,1.0000,0.0000,1.44682,0.22324,-2.78003,0.98596,1.57080,0.00001,-0.14512,-0.38002,0.04392,,,,,,,,,,,,,,,,,,,,,,,,,,0,0,0,0,0
1.8981,1783190369.5491,1,1,1.0000,0.0000,1.44682,0.22324,-2.78003,0.98596,1.57080,0.00001,-0.14512,-0.38002,0.04392,,,,,,,,,,,,,,,,,,,,,,,,,,0,0,0,0,0
1.9096,1783190369.5606,1,1,1.0000,0.0000,1.44682,0.22304,-2.78008,0.98621,1.57080,0.00001,-0.14512,-0.38002,0.04387,,,,,,,,,,,,,,,,,,,,,,,,,,0,0,0,0,0
1.9165,1783190369.5675,1,1,1.0000,0.0000,1.44682,0.22303,-2.78009,0.98623,1.57080,0.00001,-0.14512,-0.38002,0.04386,,,,,,,,,,,,,,,,,,,,,,,,,,0,0,0,0,0
1.9169,1783190369.5678,1,1,1.0000,0.0000,1.44682,0.22303,-2.78009,0.98623,1.57080,0.00001,-0.14512,-0.38002,0.04386,,,,,,,,,,,,,,,,,,,,,,,,,,0,0,0,0,0
1.9251,1783190369.5761,1,1,1.0000,0.0000,1.44682,0.22295,-2.78011,0.98633,1.57080,0.00001,-0.14512,-0.38002,0.04384,,,,,,,,,,,,,,,,,,,,,,,,,,0,0,0,0,0
1.9255,1783190369.5765,1,1,1.0000,0.0000,1.44682,0.22295,-2.78011,0.98633,1.57080,0.00001,-0.14512,-0.38002,0.04384,,,,,,,,,,,,,,,,,,,,,,,,,,0,0,0,0,0
1.9415,1783190369.5925,1,1,1.0000,0.0000,1.44681,0.22268,-2.78017,0.98666,1.57080,0.00001,-0.14512,-0.38002,0.04377,,,,,,,,,,,,,,,,,,,,,,,,,,0,0,0,0,0
1.9475,1783190369.5985,1,1,1.0000,0.0000,1.44681,0.22267,-2.78018,0.98668,1.57080,0.00001,-0.14512,-0.38002,0.04377,,,,,,,,,,,,,,,,,,,,,,,,,,0,0,0,0,0
1.9596,1783190369.6106,1,1,1.0000,0.0000,1.44681,0.22252,-2.78021,0.98686,1.57080,0.00001,-0.14512,-0.38002,0.04373,,,,,,,,,,,,,,,,,,,,,,,,,,0,0,0,0,0
1.9671,1783190369.6180,1,1,1.0000,0.0000,1.44681,0.22245,-2.78023,0.98695,1.57080,0.00001,-0.14512,-0.38002,0.04372,,,,,,,,,,,,,,,,,,,,,,,,,,0,0,0,0,0
1.9756,1783190369.6266,1,1,1.0000,0.0000,1.44681,0.22237,-2.78025,0.98705,1.57080,0.00001,-0.14512,-0.38002,0.04370,,,,,,,,,,,,,,,,,,,,,,,,,,0,0,0,0,0
1.9999,1783190369.6509,1,1,1.0000,0.0000,1.44681,0.22202,-2.78034,0.98749,1.57080,0.00001,-0.14512,-0.38002,0.04361,,,,,,,,,,,,,,,,,,,,,,,,,,0,0,0,0,0
2.0002,1783190369.6512,1,1,1.0000,0.0000,1.44681,0.22202,-2.78034,0.98749,1.57080,0.00001,-0.14512,-0.38002,0.04361,,,,,,,,,,,,,,,,,,,,,,,,,,0,0,0,0,0
2.0058,1783190369.6568,1,1,1.0000,0.0000,1.44681,0.22202,-2.78034,0.98749,1.57080,0.00001,-0.14512,-0.38002,0.04361,,,,,,,,,,,,,,,,,,,,,,,,,,0,0,0,0,0
2.0154,1783190369.6664,1,1,1.0000,0.0000,1.44681,0.22193,-2.78036,0.98760,1.57080,0.00001,-0.14512,-0.38002,0.04358,,,,,,,,,,,,,,,,,,,,,,,,,,0,0,0,0,0
2.0158,1783190369.6667,1,1,1.0000,0.0000,1.44681,0.22193,-2.78036,0.98760,1.57080,0.00001,-0.14512,-0.38002,0.04358,,,,,,,,,,,,,,,,,,,,,,,,,,0,0,0,0,0
2.0293,1783190369.6803,1,1,1.0000,0.0000,1.44681,0.22173,-2.78041,0.98785,1.57080,0.00001,-0.14512,-0.38002,0.04353,,,,,,,,,,,,,,,,,,,,,,,,,,0,0,0,0,0
2.0419,1783190369.6929,1,1,1.0000,0.0000,1.44681,0.22168,-2.78042,0.98791,1.57080,0.00001,-0.14512,-0.38002,0.04352,,,,,,,,,,,,,,,,,,,,,,,,,,0,0,0,0,0
2.0461,1783190369.6971,1,1,1.0000,0.0000,1.44681,0.22163,-2.78044,0.98797,1.57080,0.00001,-0.14512,-0.38002,0.04351,,,,,,,,,,,,,,,,,,,,,,,,,,0,0,0,0,0
2.0467,1783190369.6976,1,1,1.0000,0.0000,1.44681,0.22163,-2.78044,0.98797,1.57080,0.00001,-0.14512,-0.38002,0.04351,,,,,,,,,,,,,,,,,,,,,,,,,,0,0,0,0,0
2.0576,1783190369.7086,1,1,1.0000,0.0000,1.44681,0.22143,-2.78049,0.98822,1.57080,0.00001,-0.14512,-0.38002,0.04345,,,,,,,,,,,,,,,,,,,,,,,,,,0,0,0,0,0
2.0579,1783190369.7088,1,1,1.0000,0.0000,1.44681,0.22143,-2.78049,0.98822,1.57080,0.00001,-0.14512,-0.38002,0.04345,,,,,,,,,,,,,,,,,,,,,,,,,,0,0,0,0,0
2.0679,1783190369.7189,1,1,1.0000,0.0000,1.44681,0.22135,-2.78051,0.98832,1.57080,0.00001,-0.14512,-0.38002,0.04343,,,,,,,,,,,,,,,,,,,,,,,,,,0,0,0,0,0
2.0819,1783190369.7328,1,1,1.0000,0.0000,1.44681,0.22121,-2.78054,0.98850,1.57080,0.00001,-0.14512,-0.38002,0.04340,,,,,,,,,,,,,,,,,,,,,,,,,,0,0,0,0,0
2.0875,1783190369.7385,1,1,1.0000,0.0000,1.44681,0.22107,-2.78058,0.98868,1.57080,0.00001,-0.14512,-0.38002,0.04336,,,,,,,,,,,,,,,,,,,,,,,,,,0,0,0,0,0
2.1030,1783190369.7540,1,1,1.0000,0.0000,1.44681,0.22102,-2.78059,0.98873,1.57080,0.00001,-0.14512,-0.38002,0.04335,,,,,,,,,,,,,,,,,,,,,,,,,,0,0,0,0,0
2.1069,1783190369.7579,1,1,1.0000,0.0000,1.44681,0.22097,-2.78060,0.98879,1.57080,0.00001,-0.14512,-0.38002,0.04334,,,,,,,,,,,,,,,,,,,,,,,,,,0,0,0,0,0
2.1075,1783190369.7584,1,1,1.0000,0.0000,1.44681,0.22091,-2.78062,0.98887,1.57080,0.00001,-0.14512,-0.38002,0.04332,,,,,,,,,,,,,,,,,,,,,,,,,,0,0,0,0,0
2.1203,1783190369.7712,1,1,1.0000,0.0000,1.44681,0.22071,-2.78067,0.98913,1.57080,0.00001,-0.14512,-0.38002,0.04327,,,,,,,,,,,,,,,,,,,,,,,,,,0,0,0,0,0
2.1306,1783190369.7815,1,1,1.0000,0.0000,1.44681,0.22069,-2.78067,0.98914,1.57080,0.00001,-0.14512,-0.38002,0.04326,,,,,,,,,,,,,,,,,,,,,,,,,,0,0,0,0,0
2.1371,1783190369.7880,1,1,1.0000,0.0000,1.44681,0.22061,-2.78069,0.98925,1.57080,0.00001,-0.14512,-0.38002,0.04324,,,,,,,,,,,,,,,,,,,,,,,,,,0,0,0,0,0
2.1488,1783190369.7998,1,1,1.0000,0.0000,1.44681,0.22041,-2.78074,0.98950,1.57080,0.00001,-0.14512,-0.38002,0.04319,,,,,,,,,,,,,,,,,,,,,,,,,,0,0,0,0,0
2.1590,1783190369.8100,1,1,1.0000,0.0000,1.44681,0.22040,-2.78074,0.98951,1.57080,0.00001,-0.14512,-0.38002,0.04319,,,,,,,,,,,,,,,,,,,,,,,,,,0,0,0,0,0
2.1664,1783190369.8174,1,1,1.0000,0.0000,1.44681,0.22032,-2.78076,0.98962,1.57080,0.00001,-0.14512,-0.38002,0.04317,,,,,,,,,,,,,,,,,,,,,,,,,,0,0,0,0,0
2.1668,1783190369.8177,1,1,1.0000,0.0000,1.44681,0.22032,-2.78076,0.98962,1.57080,0.00001,-0.14512,-0.38002,0.04317,,,,,,,,,,,,,,,,,,,,,,,,,,0,0,0,0,0
2.1821,1783190369.8331,1,1,1.0000,0.0000,1.44681,0.22005,-2.78083,0.98995,1.57080,0.00001,-0.14512,-0.38002,0.04310,,,,,,,,,,,,,,,,,,,,,,,,,,0,0,0,0,0
2.1853,1783190369.8362,1,1,1.0000,0.0000,1.44681,0.22005,-2.78083,0.98995,1.57080,0.00001,-0.14512,-0.38002,0.04310,,,,,,,,,,,,,,,,,,,,,,,,,,0,0,0,0,0
2.1856,1783190369.8365,1,1,1.0000,0.0000,1.44681,0.22005,-2.78083,0.98995,1.57080,0.00001,-0.14512,-0.38002,0.04310,,,,,,,,,,,,,,,,,,,,,,,,,,0,0,0,0,0
2.2031,1783190369.8540,1,1,1.0000,0.0000,1.44681,0.21989,-2.78087,0.99015,1.57080,0.00001,-0.14512,-0.38002,0.04306,,,,,,,,,,,,,,,,,,,,,,,,,,0,0,0,0,0
2.2168,1783190369.8677,1,1,1.0000,0.0000,1.44681,0.21974,-2.78091,0.99033,1.57080,0.00001,-0.14512,-0.38002,0.04302,,,,,,,,,,,,,,,,,,,,,,,,,,0,0,0,0,0
2.2198,1783190369.8707,1,1,1.0000,0.0000,1.44681,0.21971,-2.78092,0.99038,1.57080,0.00001,-0.14512,-0.38002,0.04301,,,,,,,,,,,,,,,,,,,,,,,,,,0,0,0,0,0
2.2304,1783190369.8813,1,1,1.0000,0.0000,1.44681,0.21960,-2.78094,0.99051,1.57080,0.00001,-0.14512,-0.38002,0.04298,,,,,,,,,,,,,,,,,,,,,,,,,,0,0,0,0,0
2.2307,1783190369.8817,1,1,1.0000,0.0000,1.44681,0.21960,-2.78094,0.99051,1.57080,0.00001,-0.14512,-0.38002,0.04298,,,,,,,,,,,,,,,,,,,,,,,,,,0,0,0,0,0
2.2500,1783190369.9010,1,1,1.0000,0.0000,1.44681,0.21938,-2.78100,0.99079,1.57080,0.00001,-0.14512,-0.38002,0.04293,,,,,,,,,,,,,,,,,,,,,,,,,,0,0,0,0,0
2.2503,1783190369.9013,1,1,1.0000,0.0000,1.44681,0.21938,-2.78100,0.99079,1.57080,0.00001,-0.14512,-0.38002,0.04293,,,,,,,,,,,,,,,,,,,,,,,,,,0,0,0,0,0
2.2706,1783190369.9216,1,1,1.0000,0.0000,1.44681,0.21909,-2.78107,0.99114,1.57080,0.00001,-0.14512,-0.38002,0.04285,,,,,,,,,,,,,,,,,,,,,,,,,,0,0,0,0,0
2.2714,1783190369.9224,1,1,1.0000,0.0000,1.44681,0.21909,-2.78107,0.99114,1.57080,0.00001,-0.14512,-0.38002,0.04285,,,,,,,,,,,,,,,,,,,,,,,,,,0,0,0,0,0
2.2789,1783190369.9298,1,1,1.0000,0.0000,1.44681,0.21908,-2.78107,0.99116,1.57080,0.00001,-0.14512,-0.38002,0.04285,,,,,,,,,,,,,,,,,,,,,,,,,,0,0,0,0,0
2.2795,1783190369.9305,1,1,1.0000,0.0000,1.44681,0.21905,-2.78108,0.99120,1.57080,0.00001,-0.14512,-0.38002,0.04284,,,,,,,,,,,,,,,,,,,,,,,,,,0,0,0,0,0
2.2897,1783190369.9407,1,1,1.0000,0.0000,1.44681,0.21894,-2.78111,0.99134,1.57080,0.00001,-0.14512,-0.38002,0.04281,,,,,,,,,,,,,,,,,,,,,,,,,,0,0,0,0,0
2.3051,1783190369.9561,1,1,1.0000,0.0000,1.44681,0.21873,-2.78116,0.99160,1.57080,0.00001,-0.14512,-0.38002,0.04276,,,,,,,,,,,,,,,,,,,,,,,,,,0,0,0,0,0
2.3090,1783190369.9599,1,1,1.0000,0.0000,1.44681,0.21872,-2.78116,0.99161,1.57080,0.00001,-0.14512,-0.38002,0.04276,,,,,,,,,,,,,,,,,,,,,,,,,,0,0,0,0,0
2.3092,1783190369.9602,1,1,1.0000,0.0000,1.44681,0.21872,-2.78116,0.99161,1.57080,0.00001,-0.14512,-0.38002,0.04276,,,,,,,,,,,,,,,,,,,,,,,,,,0,0,0,0,0
2.3196,1783190369.9705,1,1,1.0000,0.0000,1.44681,0.21857,-2.78120,0.99179,1.57080,0.00001,-0.14512,-0.38002,0.04272,,,,,,,,,,,,,,,,,,,,,,,,,,0,0,0,0,0
2.3329,1783190369.9838,1,1,1.0000,0.0000,1.44681,0.21836,-2.78125,0.99205,1.57080,0.00001,-0.14512,-0.38002,0.04267,,,,,,,,,,,,,,,,,,,,,,,,,,0,0,0,0,0
2.3362,1783190369.9872,1,1,1.0000,0.0000,1.44681,0.21836,-2.78125,0.99205,1.57080,0.00001,-0.14512,-0.38002,0.04267,,,,,,,,,,,,,,,,,,,,,,,,,,0,0,0,0,0
2.3365,1783190369.9875,1,1,1.0000,0.0000,1.44681,0.21836,-2.78125,0.99205,1.57080,0.00001,-0.14512,-0.38002,0.04267,,,,,,,,,,,,,,,,,,,,,,,,,,0,0,0,0,0
2.3544,1783190370.0054,1,1,1.0000,0.0000,1.44681,0.21825,-2.78128,0.99220,1.57080,0.00001,-0.14512,-0.38002,0.04264,,,,,,,,,,,,,,,,,,,,,,,,,,0,0,0,0,0
2.3576,1783190370.0086,1,1,1.0000,0.0000,1.44681,0.21819,-2.78129,0.99227,1.57080,0.00001,-0.14512,-0.38002,0.04262,,,,,,,,,,,,,,,,,,,,,,,,,,0,0,0,0,0
2.3651,1783190370.0161,1,1,1.0000,0.0000,1.44681,0.21813,-2.78131,0.99234,1.57080,0.00001,-0.14512,-0.38002,0.04261,,,,,,,,,,,,,,,,,,,,,,,,,,0,0,0,0,0
2.3655,1783190370.0165,1,1,1.0000,0.0000,1.44681,0.21813,-2.78131,0.99234,1.57080,0.00001,-0.14512,-0.38002,0.04261,,,,,,,,,,,,,,,,,,,,,,,,,,0,0,0,0,0
2.3784,1783190370.0294,1,1,1.0000,0.0000,1.44681,0.21803,-2.78133,0.99246,1.57080,0.00001,-0.14512,-0.38002,0.04258,,,,,,,,,,,,,,,,,,,,,,,,,,0,0,0,0,0
2.3911,1783190370.0420,1,1,1.0000,0.0000,1.44681,0.21783,-2.78138,0.99272,1.57080,0.00001,-0.14512,-0.38002,0.04253,,,,,,,,,,,,,,,,,,,,,,,,,,0,0,0,0,0
2.4083,1783190370.0593,1,1,1.0000,0.0000,1.44681,0.21769,-2.78142,0.99290,1.57080,0.00001,-0.14512,-0.38002,0.04249,,,,,,,,,,,,,,,,,,,,,,,,,,0,0,0,0,0
2.4086,1783190370.0595,1,1,1.0000,0.0000,1.44681,0.21769,-2.78142,0.99290,1.57080,0.00001,-0.14512,-0.38002,0.04249,,,,,,,,,,,,,,,,,,,,,,,,,,0,0,0,0,0
2.4088,1783190370.0598,1,1,1.0000,0.0000,1.44681,0.21769,-2.78142,0.99290,1.57080,0.00001,-0.14512,-0.38002,0.04249,,,,,,,,,,,,,,,,,,,,,,,,,,0,0,0,0,0
2.4216,1783190370.0726,1,1,1.0000,0.0000,1.44681,0.21753,-2.78146,0.99310,1.57080,0.00001,-0.14512,-0.38002,0.04245,,,,,,,,,,,,,,,,,,,,,,,,,,0,0,0,0,0
2.4219,1783190370.0728,1,1,1.0000,0.0000,1.44681,0.21753,-2.78146,0.99310,1.57080,0.00001,-0.14512,-0.38002,0.04245,,,,,,,,,,,,,,,,,,,,,,,,,,0,0,0,0,0
2.4300,1783190370.0809,1,1,1.0000,0.0000,1.44681,0.21751,-2.78146,0.99311,1.57080,0.00001,-0.14512,-0.38002,0.04245,,,,,,,,,,,,,,,,,,,,,,,,,,0,0,0,0,0
2.4381,1783190370.0891,1,1,1.0000,0.0000,1.44681,0.21743,-2.78148,0.99322,1.57080,0.00001,-0.14512,-0.38002,0.04243,,,,,,,,,,,,,,,,,,,,,,,,,,0,0,0,0,0
2.4385,1783190370.0895,1,1,1.0000,0.0000,1.44681,0.21743,-2.78148,0.99322,1.57080,0.00001,-0.14512,-0.38002,0.04243,,,,,,,,,,,,,,,,,,,,,,,,,,0,0,0,0,0
2.4532,1783190370.1042,1,1,1.0000,0.0000,1.44681,0.21715,-2.78155,0.99357,1.57080,0.00001,-0.14512,-0.38002,0.04236,,,,,,,,,,,,,,,,,,,,,,,,,,0,0,0,0,0
2.4536,1783190370.1046,1,1,1.0000,0.0000,1.44681,0.21715,-2.78155,0.99357,1.57080,0.00001,-0.14512,-0.38002,0.04236,,,,,,,,,,,,,,,,,,,,,,,,,,0,0,0,0,0
2.4582,1783190370.1092,1,1,1.0000,0.0000,1.44681,0.21715,-2.78155,0.99357,1.57080,0.00001,-0.14512,-0.38002,0.04236,,,,,,,,,,,,,,,,,,,,,,,,,,0,0,0,0,0
2.4586,1783190370.1096,1,1,1.0000,0.0000,1.44681,0.21715,-2.78155,0.99357,1.57080,0.00001,-0.14512,-0.38002,0.04236,,,,,,,,,,,,,,,,,,,,,,,,,,0,0,0,0,0
2.4676,1783190370.1186,1,1,1.0000,0.0000,1.44681,0.21708,-2.78157,0.99365,1.57080,0.00001,-0.14512,-0.38002,0.04234,,,,,,,,,,,,,,,,,,,,,,,,,,0,0,0,0,0
2.4750,1783190370.1259,1,1,1.0000,0.0000,1.44681,0.21703,-2.78158,0.99371,1.57080,0.00001,-0.14512,-0.38002,0.04233,,,,,,,,,,,,,,,,,,,,,,,,,,0,0,0,0,0
2.4756,1783190370.1265,1,1,1.0000,0.0000,1.44681,0.21698,-2.78159,0.99378,1.57080,0.00001,-0.14512,-0.38002,0.04231,,,,,,,,,,,,,,,,,,,,,,,,,,0,0,0,0,0
2.4854,1783190370.1364,1,1,1.0000,0.0000,1.44681,0.21692,-2.78161,0.99385,1.57080,0.00001,-0.14512,-0.38002,0.04230,,,,,,,,,,,,,,,,,,,,,,,,,,0,0,0,0,0
2.4958,1783190370.1468,1,1,1.0000,0.0000,1.44681,0.21682,-2.78163,0.99398,1.57080,0.00001,-0.14512,-0.38002,0.04227,,,,,,,,,,,,,,,,,,,,,,,,,,0,0,0,0,0
2.4961,1783190370.1471,1,1,1.0000,0.0000,1.44681,0.21682,-2.78163,0.99398,1.57080,0.00001,-0.14512,-0.38002,0.04227,,,,,,,,,,,,,,,,,,,,,,,,,,0,0,0,0,0
2.5122,1783190370.1632,1,1,1.0000,0.0000,1.44681,0.21654,-2.78170,0.99432,1.57080,0.00001,-0.14512,-0.38002,0.04220,,,,,,,,,,,,,,,,,,,,,,,,,,0,0,0,0,0
2.5124,1783190370.1634,1,1,1.0000,0.0000,1.44681,0.21654,-2.78170,0.99432,1.57080,0.00001,-0.14512,-0.38002,0.04220,,,,,,,,,,,,,,,,,,,,,,,,,,0,0,0,0,0
2.5195,1783190370.1705,1,1,1.0000,0.0000,1.44681,0.21653,-2.78170,0.99433,1.57080,0.00001,-0.14512,-0.38002,0.04220,,,,,,,,,,,,,,,,,,,,,,,,,,0,0,0,0,0
2.5198,1783190370.1708,1,1,1.0000,0.0000,1.44681,0.21653,-2.78170,0.99433,1.57080,0.00001,-0.14512,-0.38002,0.04220,,,,,,,,,,,,,,,,,,,,,,,,,,0,0,0,0,0
2.5251,1783190370.1760,1,1,1.0000,0.0000,1.44681,0.21651,-2.78171,0.99436,1.57080,0.00001,-0.14512,-0.38002,0.04219,,,,,,,,,,,,,,,,,,,,,,,,,,0,0,0,0,0
2.5254,1783190370.1764,1,1,1.0000,0.0000,1.44681,0.21651,-2.78171,0.99436,1.57080,0.00001,-0.14512,-0.38002,0.04219,,,,,,,,,,,,,,,,,,,,,,,,,,0,0,0,0,0
2.5356,1783190370.1866,1,1,1.0000,0.0000,1.44681,0.21637,-2.78174,0.99454,1.57080,0.00001,-0.14512,-0.38002,0.04216,,,,,,,,,,,,,,,,,,,,,,,,,,0,0,0,0,0
2.5565,1783190370.2075,1,1,1.0000,0.0000,1.44681,0.21621,-2.78178,0.99473,1.57080,0.00001,-0.14512,-0.38002,0.04212,,,,,,,,,,,,,,,,,,,,,,,,,,0,0,0,0,0
2.5588,1783190370.2098,1,1,1.0000,0.0000,1.44681,0.21621,-2.78178,0.99473,1.57080,0.00001,-0.14512,-0.38002,0.04212,,,,,,,,,,,,,,,,,,,,,,,,,,0,0,0,0,0
2.5591,1783190370.2101,1,1,1.0000,0.0000,1.44681,0.21621,-2.78178,0.99473,1.57080,0.00001,-0.14512,-0.38002,0.04212,,,,,,,,,,,,,,,,,,,,,,,,,,0,0,0,0,0
2.5685,1783190370.2195,1,1,1.0000,0.0000,1.44681,0.21601,-2.78183,0.99499,1.57080,0.00001,-0.14512,-0.38002,0.04206,,,,,,,,,,,,,,,,,,,,,,,,,,0,0,0,0,0
2.5688,1783190370.2198,1,1,1.0000,0.0000,1.44681,0.21601,-2.78183,0.99499,1.57080,0.00001,-0.14512,-0.38002,0.04206,,,,,,,,,,,,,,,,,,,,,,,,,,0,0,0,0,0
2.5796,1783190370.2306,1,1,1.0000,0.0000,1.44681,0.21593,-2.78185,0.99509,1.57080,0.00001,-0.14512,-0.38002,0.04204,,,,,,,,,,,,,,,,,,,,,,,,,,0,0,0,0,0
2.5904,1783190370.2414,1,1,1.0000,0.0000,1.44681,0.21587,-2.78186,0.99516,1.57080,0.00001,-0.14512,-0.38002,0.04203,,,,,,,,,,,,,,,,,,,,,,,,,,0,0,0,0,0
2.5958,1783190370.2468,1,1,1.0000,0.0000,1.44681,0.21576,-2.78189,0.99529,1.57080,0.00001,-0.14512,-0.38002,0.04200,,,,,,,,,,,,,,,,,,,,,,,,,,0,0,0,0,0
2.6127,1783190370.2637,1,1,1.0000,0.0000,1.44681,0.21566,-2.78192,0.99543,1.57080,0.00001,-0.14512,-0.38002,0.04197,,,,,,,,,,,,,,,,,,,,,,,,,,0,0,0,0,0
2.6177,1783190370.2686,1,1,1.0000,0.0000,1.44681,0.21560,-2.78193,0.99549,1.57080,0.00001,-0.14512,-0.38002,0.04196,,,,,,,,,,,,,,,,,,,,,,,,,,0,0,0,0,0
2.6265,1783190370.2775,1,1,1.0000,0.0000,1.44681,0.21547,-2.78196,0.99566,1.57080,0.00001,-0.14512,-0.38002,0.04193,,,,,,,,,,,,,,,,,,,,,,,,,,0,0,0,0,0
2.6372,1783190370.2882,1,1,1.0000,0.0000,1.44681,0.21533,-2.78200,0.99584,1.57080,0.00001,-0.14512,-0.38002,0.04189,,,,,,,,,,,,,,,,,,,,,,,,,,0,0,0,0,0
2.6453,1783190370.2963,1,1,1.0000,0.0000,1.44681,0.21529,-2.78200,0.99588,1.57080,0.00001,-0.14512,-0.38002,0.04188,,,,,,,,,,,,,,,,,,,,,,,,,,0,0,0,0,0
2.6602,1783190370.3111,1,1,1.0000,0.0000,1.44681,0.21510,-2.78205,0.99612,1.57080,0.00001,-0.14512,-0.38002,0.04183,,,,,,,,,,,,,,,,,,,,,,,,,,0,0,0,0,0
2.6717,1783190370.3226,1,1,1.0000,0.0000,1.44681,0.21505,-2.78206,0.99618,1.57080,0.00001,-0.14512,-0.38002,0.04182,,,,,,,,,,,,,,,,,,,,,,,,,,0,0,0,0,0
2.6824,1783190370.3333,1,1,1.0000,0.0000,1.44681,0.21493,-2.78209,0.99633,1.57080,0.00001,-0.14512,-0.38002,0.04179,,,,,,,,,,,,,,,,,,,,,,,,,,0,0,0,0,0
2.6828,1783190370.3337,1,1,1.0000,0.0000,1.44681,0.21493,-2.78209,0.99633,1.57080,0.00001,-0.14512,-0.38002,0.04179,,,,,,,,,,,,,,,,,,,,,,,,,,0,0,0,0,0
2.6917,1783190370.3427,1,1,1.0000,0.0000,1.44681,0.21472,-2.78215,0.99659,1.57080,0.00001,-0.14512,-0.38002,0.04174,,,,,,,,,,,,,,,,,,,,,,,,,,0,0,0,0,0
2.6999,1783190370.3509,1,1,1.0000,0.0000,1.44681,0.21471,-2.78215,0.99660,1.57080,0.00001,-0.14512,-0.38002,0.04173,,,,,,,,,,,,,,,,,,,,,,,,,,0,0,0,0,0
2.7158,1783190370.3667,1,1,1.0000,0.0000,1.44681,0.21455,-2.78219,0.99681,1.57080,0.00001,-0.14512,-0.38002,0.04169,,,,,,,,,,,,,,,,,,,,,,,,,,0,0,0,0,0
2.7192,1783190370.3701,1,1,1.0000,0.0000,1.44681,0.21455,-2.78219,0.99681,1.57080,0.00001,-0.14512,-0.38002,0.04169,,,,,,,,,,,,,,,,,,,,,,,,,,0,0,0,0,0
2.7293,1783190370.3803,1,1,1.0000,0.0000,1.44681,0.21447,-2.78221,0.99690,1.57080,0.00002,-0.14512,-0.38002,0.04167,,,,,,,,,,,,,,,,,,,,,,,,,,0,0,0,0,0
2.7425,1783190370.3935,1,1,1.0000,0.0000,1.44681,0.21432,-2.78224,0.99708,1.57080,0.00002,-0.14512,-0.38002,0.04164,,,,,,,,,,,,,,,,,,,,,,,,,,0,0,0,0,0
2.7544,1783190370.4054,1,1,1.0000,0.0000,1.44681,0.21411,-2.78229,0.99735,1.57080,0.00002,-0.14512,-0.38002,0.04158,,,,,,,,,,,,,,,,,,,,,,,,,,0,0,0,0,0
2.7619,1783190370.4128,1,1,1.0000,0.0000,1.44681,0.21410,-2.78230,0.99737,1.57080,0.00002,-0.14512,-0.38002,0.04158,,,,,,,,,,,,,,,,,,,,,,,,,,0,0,0,0,0
2.7687,1783190370.4197,1,1,1.0000,0.0000,1.44681,0.21401,-2.78232,0.99747,1.57080,0.00002,-0.14512,-0.38002,0.04156,,,,,,,,,,,,,,,,,,,,,,,,,,0,0,0,0,0
2.7690,1783190370.4199,1,1,1.0000,0.0000,1.44681,0.21401,-2.78232,0.99747,1.57080,0.00002,-0.14512,-0.38002,0.04156,,,,,,,,,,,,,,,,,,,,,,,,,,0,0,0,0,0
2.7789,1783190370.4298,1,1,1.0000,0.0000,1.44681,0.21388,-2.78235,0.99763,1.57080,0.00002,-0.14512,-0.38002,0.04152,,,,,,,,,,,,,,,,,,,,,,,,,,0,0,0,0,0
2.8037,1783190370.4546,1,1,1.0000,0.0000,1.44681,0.21359,-2.78242,0.99800,1.57080,0.00002,-0.14512,-0.38002,0.04145,,,,,,,,,,,,,,,,,,,,,,,,,,0,0,0,0,0
2.8277,1783190370.4786,1,1,1.0000,0.0000,1.44681,0.21335,-2.78248,0.99830,1.57080,0.00002,-0.14512,-0.38002,0.04139,,,,,,,,,,,,,,,,,,,,,,,,,,0,0,0,0,0
2.8279,1783190370.4789,1,1,1.0000,0.0000,1.44681,0.21335,-2.78248,0.99830,1.57080,0.00002,-0.14512,-0.38002,0.04139,,,,,,,,,,,,,,,,,,,,,,,,,,0,0,0,0,0
2.8340,1783190370.4850,1,1,1.0000,0.0000,1.44681,0.21329,-2.78249,0.99837,1.57080,0.00002,-0.14512,-0.38002,0.04137,,,,,,,,,,,,,,,,,,,,,,,,,,0,0,0,0,0
2.8418,1783190370.4928,1,1,1.0000,0.0000,1.44681,0.21315,-2.78253,0.99855,1.57080,0.00002,-0.14512,-0.38002,0.04134,,,,,,,,,,,,,,,,,,,,,,,,,,0,0,0,0,0
2.8422,1783190370.4932,1,1,1.0000,0.0000,1.44681,0.21315,-2.78253,0.99855,1.57080,0.00002,-0.14512,-0.38002,0.04134,,,,,,,,,,,,,,,,,,,,,,,,,,0,0,0,0,0
2.8490,1783190370.4999,1,1,1.0000,0.0000,1.44681,0.21313,-2.78253,0.99856,1.57080,0.00002,-0.14512,-0.38002,0.04133,,,,,,,,,,,,,,,,,,,,,,,,,,0,0,0,0,0
2.8656,1783190370.5166,1,1,1.0000,0.0000,1.44681,0.21292,-2.78258,0.99883,1.57080,0.00002,-0.14512,-0.38002,0.04128,,,,,,,,,,,,,,,,,,,,,,,,,,0,0,0,0,0
2.8758,1783190370.5267,1,1,1.0000,0.0000,1.44681,0.21278,-2.78262,0.99900,1.57080,0.00002,-0.14512,-0.38002,0.04124,,,,,,,,,,,,,,,,,,,,,,,,,,0,0,0,0,0
2.8826,1783190370.5336,1,1,1.0000,0.0000,1.44681,0.21277,-2.78262,0.99902,1.57080,0.00002,-0.14512,-0.38002,0.04124,,,,,,,,,,,,,,,,,,,,,,,,,,0,0,0,0,0
2.8904,1783190370.5414,1,1,1.0000,0.0000,1.44681,0.21268,-2.78264,0.99912,1.57080,0.00002,-0.14512,-0.38002,0.04122,,,,,,,,,,,,,,,,,,,,,,,,,,0,0,0,0,0
2.8990,1783190370.5499,1,1,1.0000,0.0000,1.44681,0.21255,-2.78267,0.99929,1.57080,0.00002,-0.14512,-0.38002,0.04118,,,,,,,,,,,,,,,,,,,,,,,,,,0,0,0,0,0
2.9166,1783190370.5676,1,1,1.0000,0.0000,1.44681,0.21239,-2.78271,0.99949,1.57080,0.00002,-0.14512,-0.38002,0.04114,,,,,,,,,,,,,,,,,,,,,,,,,,0,0,0,0,0
2.9206,1783190370.5715,1,1,1.0000,0.0000,1.44681,0.21232,-2.78273,0.99957,1.57080,0.00002,-0.14512,-0.38002,0.04113,,,,,,,,,,,,,,,,,,,,,,,,,,0,0,0,0,0
2.9208,1783190370.5718,1,1,1.0000,0.0000,1.44681,0.21232,-2.78273,0.99957,1.57080,0.00002,-0.14512,-0.38002,0.04113,,,,,,,,,,,,,,,,,,,,,,,,,,0,0,0,0,0
2.9336,1783190370.5846,1,1,1.0000,0.0000,1.44681,0.21211,-2.78278,0.99983,1.57080,0.00002,-0.14512,-0.38002,0.04107,,,,,,,,,,,,,,,,,,,,,,,,,,0,0,0,0,0
2.9388,1783190370.5898,1,1,1.0000,0.0000,1.44681,0.21211,-2.78278,0.99983,1.57080,0.00002,-0.14512,-0.38002,0.04107,,,,,,,,,,,,,,,,,,,,,,,,,,0,0,0,0,0
2.9503,1783190370.6013,1,1,1.0000,0.0000,1.44681,0.21202,-2.78280,0.99995,1.57080,0.00002,-0.14512,-0.38002,0.04105,,,,,,,,,,,,,,,,,,,,,,,,,,0,0,0,0,0
2.9639,1783190370.6148,1,1,1.0000,0.0000,1.44681,0.21174,-2.78287,1.00029,1.57080,0.00002,-0.14512,-0.38002,0.04098,,,,,,,,,,,,,,,,,,,,,,,,,,0,0,0,0,0
2.9695,1783190370.6205,1,1,1.0000,0.0000,1.44681,0.21174,-2.78287,1.00029,1.57080,0.00002,-0.14512,-0.38002,0.04098,,,,,,,,,,,,,,,,,,,,,,,,,,0,0,0,0,0
2.9807,1783190370.6317,1,1,1.0000,0.0000,1.44681,0.21167,-2.78289,1.00038,1.57080,0.00002,-0.14512,-0.38002,0.04096,,,,,,,,,,,,,,,,,,,,,,,,,,0,0,0,0,0
2.9912,1783190370.6421,1,1,1.0000,0.0000,1.44681,0.21157,-2.78291,1.00051,1.57080,0.00002,-0.14512,-0.38002,0.04094,,,,,,,,,,,,,,,,,,,,,,,,,,0,0,0,0,0
2.9985,1783190370.6495,1,1,1.0000,0.0000,1.44681,0.21151,-2.78293,1.00058,1.57080,0.00002,-0.14512,-0.38002,0.04092,,,,,,,,,,,,,,,,,,,,,,,,,,0,0,0,0,0
2.9989,1783190370.6499,1,1,1.0000,0.0000,1.44681,0.21151,-2.78293,1.00058,1.57080,0.00002,-0.14512,-0.38002,0.04092,,,,,,,,,,,,,,,,,,,,,,,,,,0,0,0,0,0
3.0088,1783190370.6598,1,1,1.0000,0.0000,1.44681,0.21141,-2.78295,1.00071,1.57080,0.00002,-0.14512,-0.38002,0.04090,,,,,,,,,,,,,,,,,,,,,,,,,,0,0,0,0,0
3.0205,1783190370.6715,1,1,1.0000,0.0000,1.44681,0.21120,-2.78300,1.00096,1.57080,0.00002,-0.14512,-0.38002,0.04084,,,,,,,,,,,,,,,,,,,,,,,,,,0,0,0,0,0
3.0209,1783190370.6719,1,1,1.0000,0.0000,1.44681,0.21120,-2.78300,1.00096,1.57080,0.00002,-0.14512,-0.38002,0.04084,,,,,,,,,,,,,,,,,,,,,,,,,,0,0,0,0,0
3.0289,1783190370.6798,1,1,1.0000,0.0000,1.44681,0.21113,-2.78302,1.00105,1.57080,0.00002,-0.14512,-0.38002,0.04082,,,,,,,,,,,,,,,,,,,,,,,,,,0,0,0,0,0
3.0397,1783190370.6906,1,1,1.0000,0.0000,1.44681,0.21106,-2.78303,1.00114,1.57080,0.00002,-0.14512,-0.38002,0.04081,,,,,,,,,,,,,,,,,,,,,,,,,,0,0,0,0,0
3.0487,1783190370.6996,1,1,1.0000,0.0000,1.44681,0.21096,-2.78306,1.00127,1.57080,0.00002,-0.14512,-0.38002,0.04078,,,,,,,,,,,,,,,,,,,,,,,,,,0,0,0,0,0
3.0658,1783190370.7168,1,1,1.0000,0.0000,1.44681,0.21085,-2.78309,1.00140,1.57080,0.00002,-0.14512,-0.38002,0.04075,,,,,,,,,,,,,,,,,,,,,,,,,,0,0,0,0,0
3.0699,1783190370.7208,1,1,1.0000,0.0000,1.44681,0.21080,-2.78310,1.00147,1.57080,0.00002,-0.14512,-0.38002,0.04074,,,,,,,,,,,,,,,,,,,,,,,,,,0,0,0,0,0
3.0802,1783190370.7311,1,1,1.0000,0.0000,1.44681,0.21059,-2.78315,1.00172,1.57080,0.00002,-0.14512,-0.38002,0.04069,,,,,,,,,,,,,,,,,,,,,,,,,,0,0,0,0,0
3.0806,1783190370.7316,1,1,1.0000,0.0000,1.44681,0.21059,-2.78315,1.00172,1.57080,0.00002,-0.14512,-0.38002,0.04069,,,,,,,,,,,,,,,,,,,,,,,,,,0,0,0,0,0
3.0899,1783190370.7408,1,1,1.0000,0.0000,1.44681,0.21052,-2.78317,1.00181,1.57080,0.00002,-0.14512,-0.38002,0.04067,,,,,,,,,,,,,,,,,,,,,,,,,,0,0,0,0,0
3.0989,1783190370.7499,1,1,1.0000,0.0000,1.44681,0.21049,-2.78317,1.00185,1.57080,0.00002,-0.14512,-0.38002,0.04066,,,,,,,,,,,,,,,,,,,,,,,,,,0,0,0,0,0
3.1089,1783190370.7599,1,1,1.0000,0.0000,1.44681,0.21035,-2.78321,1.00203,1.57080,0.00002,-0.14512,-0.38002,0.04063,,,,,,,,,,,,,,,,,,,,,,,,,,0,0,0,0,0
3.1291,1783190370.7801,1,1,1.0000,0.0000,1.44681,0.21019,-2.78325,1.00223,1.57080,0.00002,-0.14512,-0.38002,0.04059,,,,,,,,,,,,,,,,,,,,,,,,,,0,0,0,0,0
3.1295,1783190370.7805,1,1,1.0000,0.0000,1.44681,0.21019,-2.78325,1.00223,1.57080,0.00002,-0.14512,-0.38002,0.04059,,,,,,,,,,,,,,,,,,,,,,,,,,0,0,0,0,0
3.1300,1783190370.7810,1,1,1.0000,0.0000,1.44681,0.21019,-2.78325,1.00223,1.57080,0.00002,-0.14512,-0.38002,0.04059,,,,,,,,,,,,,,,,,,,,,,,,,,0,0,0,0,0
3.1401,1783190370.7911,1,1,1.0000,0.0000,1.44681,0.20998,-2.78330,1.00248,1.57080,0.00002,-0.14512,-0.38002,0.04053,,,,,,,,,,,,,,,,,,,,,,,,,,0,0,0,0,0
3.1508,1783190370.8018,1,1,1.0000,0.0000,1.44681,0.20991,-2.78331,1.00257,1.57080,0.00002,-0.14512,-0.38002,0.04051,,,,,,,,,,,,,,,,,,,,,,,,,,0,0,0,0,0
3.1587,1783190370.8096,1,1,1.0000,0.0000,1.44681,0.20987,-2.78332,1.00261,1.57080,0.00002,-0.14512,-0.38002,0.04051,,,,,,,,,,,,,,,,,,,,,,,,,,0,0,0,0,0
3.1589,1783190370.8099,1,1,1.0000,0.0000,1.44681,0.20987,-2.78332,1.00261,1.57080,0.00002,-0.14512,-0.38002,0.04051,,,,,,,,,,,,,,,,,,,,,,,,,,0,0,0,0,0
3.1719,1783190370.8228,1,1,1.0000,0.0000,1.44680,0.20967,-2.78337,1.00286,1.57080,0.00002,-0.14512,-0.38002,0.04046,,,,,,,,,,,,,,,,,,,,,,,,,,0,0,0,0,0
3.1832,1783190370.8341,1,1,1.0000,0.0000,1.44680,0.20966,-2.78337,1.00288,1.57080,0.00002,-0.14512,-0.38002,0.04045,,,,,,,,,,,,,,,,,,,,,,,,,,0,0,0,0,0
3.1930,1783190370.8440,1,1,1.0000,0.0000,1.44680,0.20951,-2.78341,1.00307,1.57079,0.00002,-0.14512,-0.38002,0.04041,,,,,,,,,,,,,,,,,,,,,,,,,,0,0,0,0,0
3.2045,1783190370.8555,1,1,1.0000,0.0000,1.44680,0.20929,-2.78346,1.00333,1.57079,0.00002,-0.14512,-0.38002,0.04036,,,,,,,,,,,,,,,,,,,,,,,,,,0,0,0,0,0
3.2294,1783190370.8804,1,1,1.0000,0.0000,1.44680,0.20912,-2.78350,1.00355,1.57079,0.00002,-0.14512,-0.38002,0.04032,,,,,,,,,,,,,,,,,,,,,,,,,,0,0,0,0,0
3.2300,1783190370.8810,1,1,1.0000,0.0000,1.44680,0.20912,-2.78350,1.00355,1.57079,0.00002,-0.14512,-0.38002,0.04032,,,,,,,,,,,,,,,,,,,,,,,,,,0,0,0,0,0
3.2333,1783190370.8842,1,1,1.0000,0.0000,1.44680,0.20906,-2.78352,1.00362,1.57079,0.00002,-0.14512,-0.38002,0.04030,,,,,,,,,,,,,,,,,,,,,,,,,,0,0,0,0,0
3.2438,1783190370.8947,1,1,1.0000,0.0000,1.44680,0.20901,-2.78353,1.00368,1.57079,0.00002,-0.14512,-0.38002,0.04029,,,,,,,,,,,,,,,,,,,,,,,,,,0,0,0,0,0
3.2441,1783190370.8951,1,1,1.0000,0.0000,1.44680,0.20901,-2.78353,1.00368,1.57079,0.00002,-0.14512,-0.38002,0.04029,,,,,,,,,,,,,,,,,,,,,,,,,,0,0,0,0,0
3.2571,1783190370.9080,1,1,1.0000,0.0000,1.44680,0.20882,-2.78357,1.00392,1.57079,0.00002,-0.14512,-0.38002,0.04024,,,,,,,,,,,,,,,,,,,,,,,,,,0,0,0,0,0
3.2626,1783190370.9136,1,1,1.0000,0.0000,1.44680,0.20875,-2.78359,1.00401,1.57079,0.00002,-0.14512,-0.38002,0.04022,,,,,,,,,,,,,,,,,,,,,,,,,,0,0,0,0,0
3.2732,1783190370.9241,1,1,1.0000,0.0000,1.44680,0.20867,-2.78361,1.00411,1.57079,0.00002,-0.14512,-0.38002,0.04020,,,,,,,,,,,,,,,,,,,,,,,,,,0,0,0,0,0
3.2833,1783190370.9342,1,1,1.0000,0.0000,1.44680,0.20861,-2.78363,1.00418,1.57079,0.00002,-0.14512,-0.38002,0.04019,,,,,,,,,,,,,,,,,,,,,,,,,,0,0,0,0,0
3.2965,1783190370.9475,1,1,1.0000,0.0000,1.44680,0.20844,-2.78367,1.00439,1.57079,0.00002,-0.14512,-0.38002,0.04015,,,,,,,,,,,,,,,,,,,,,,,,,,0,0,0,0,0
3.3068,1783190370.9577,1,1,1.0000,0.0000,1.44680,0.20840,-2.78368,1.00444,1.57079,0.00002,-0.14512,-0.38002,0.04013,,,,,,,,,,,,,,,,,,,,,,,,,,0,0,0,0,0
3.3153,1783190370.9663,1,1,1.0000,0.0000,1.44680,0.20828,-2.78370,1.00459,1.57079,0.00002,-0.14512,-0.38002,0.04010,,,,,,,,,,,,,,,,,,,,,,,,,,0,0,0,0,0
3.3158,1783190370.9667,1,1,1.0000,0.0000,1.44680,0.20821,-2.78372,1.00468,1.57079,0.00002,-0.14512,-0.38002,0.04009,,,,,,,,,,,,,,,,,,,,,,,,,,0,0,0,0,0
3.3399,1783190370.9909,1,1,1.0000,0.0000,1.44680,0.20799,-2.78377,1.00494,1.57079,0.00002,-0.14512,-0.38002,0.04003,,,,,,,,,,,,,,,,,,,,,,,,,,0,0,0,0,0
3.3402,1783190370.9911,1,1,1.0000,0.0000,1.44680,0.20799,-2.78377,1.00494,1.57079,0.00002,-0.14512,-0.38002,0.04003,,,,,,,,,,,,,,,,,,,,,,,,,,0,0,0,0,0
3.3406,1783190370.9916,1,1,1.0000,0.0000,1.44680,0.20799,-2.78377,1.00494,1.57079,0.00002,-0.14512,-0.38002,0.04003,,,,,,,,,,,,,,,,,,,,,,,,,,0,0,0,0,0
3.3473,1783190370.9982,1,1,1.0000,0.0000,1.44680,0.20795,-2.78378,1.00500,1.57079,0.00002,-0.14512,-0.38002,0.04002,,,,,,,,,,,,,,,,,,,,,,,,,,0,0,0,0,0
3.4448,1783190371.0958,1,1,1.0000,0.0000,1.44680,0.20678,-2.78406,1.00645,1.57079,0.00002,-0.14512,-0.38002,0.03973,,,,,,,,,,,,,,,,,,,,,,,,,,0,0,0,0,0
3.4453,1783190371.0963,1,1,1.0000,0.0000,1.44680,0.20678,-2.78406,1.00645,1.57079,0.00002,-0.14512,-0.38002,0.03973,,,,,,,,,,,,,,,,,,,,,,,,,,0,0,0,0,0
3.4458,1783190371.0968,1,1,1.0000,0.0000,1.44680,0.20678,-2.78406,1.00645,1.57079,0.00002,-0.14512,-0.38002,0.03973,,,,,,,,,,,,,,,,,,,,,,,,,,0,0,0,0,0
3.4463,1783190371.0972,1,1,1.0000,0.0000,1.44680,0.20678,-2.78406,1.00645,1.57079,0.00002,-0.14512,-0.38002,0.03973,,,,,,,,,,,,,,,,,,,,,,,,,,0,0,0,0,0
3.4468,1783190371.0978,1,1,1.0000,0.0000,1.44680,0.20678,-2.78406,1.00645,1.57079,0.00002,-0.14512,-0.38002,0.03973,,,,,,,,,,,,,,,,,,,,,,,,,,0,0,0,0,0
3.4472,1783190371.0981,1,1,1.0000,0.0000,1.44680,0.20678,-2.78406,1.00645,1.57079,0.00002,-0.14512,-0.38002,0.03973,,,,,,,,,,,,,,,,,,,,,,,,,,0,0,0,0,0
3.4534,1783190371.1044,1,1,1.0000,0.0000,1.44680,0.20677,-2.78407,1.00646,1.57079,0.00002,-0.14512,-0.38002,0.03972,,,,,,,,,,,,,,,,,,,,,,,,,,0,0,0,0,0
3.4539,1783190371.1048,1,1,1.0000,0.0000,1.44680,0.20677,-2.78407,1.00646,1.57079,0.00002,-0.14512,-0.38002,0.03972,,,,,,,,,,,,,,,,,,,,,,,,,,0,0,0,0,0
3.4542,1783190371.1051,1,1,1.0000,0.0000,1.44680,0.20677,-2.78407,1.00646,1.57079,0.00002,-0.14512,-0.38002,0.03972,,,,,,,,,,,,,,,,,,,,,,,,,,0,0,0,0,0
3.4563,1783190371.1072,1,1,1.0000,0.0000,1.44680,0.20673,-2.78408,1.00651,1.57079,0.00002,-0.14512,-0.38002,0.03971,,,,,,,,,,,,,,,,,,,,,,,,,,0,0,0,0,0
3.4687,1783190371.1196,1,1,1.0000,0.0000,1.44680,0.20655,-2.78412,1.00673,1.57079,0.00002,-0.14512,-0.38002,0.03967,,,,,,,,,,,,,,,,,,,,,,,,,,0,0,0,0,0
3.4758,1783190371.1268,1,1,1.0000,0.0000,1.44680,0.20648,-2.78414,1.00682,1.57079,0.00002,-0.14512,-0.38002,0.03965,,,,,,,,,,,,,,,,,,,,,,,,,,0,0,0,0,0
3.4761,1783190371.1271,1,1,1.0000,0.0000,1.44680,0.20648,-2.78414,1.00682,1.57079,0.00002,-0.14512,-0.38002,0.03965,,,,,,,,,,,,,,,,,,,,,,,,,,0,0,0,0,0
3.4882,1783190371.1392,1,1,1.0000,0.0000,1.44680,0.20638,-2.78416,1.00694,1.57079,0.00002,-0.14512,-0.38002,0.03963,,,,,,,,,,,,,,,,,,,,,,,,,,0,0,0,0,0
3.4941,1783190371.1451,1,1,1.0000,0.0000,1.44680,0.20632,-2.78417,1.00702,1.57079,0.00002,-0.14512,-0.38002,0.03961,,,,,,,,,,,,,,,,,,,,,,,,,,0,0,0,0,0
3.5021,1783190371.1530,1,1,1.0000,0.0000,1.44680,0.20618,-2.78421,1.00719,1.57079,0.00002,-0.14512,-0.38002,0.03957,,,,,,,,,,,,,,,,,,,,,,,,,,0,0,0,0,0
3.5123,1783190371.1633,1,1,1.0000,0.0000,1.44680,0.20609,-2.78423,1.00730,1.57079,0.00002,-0.14512,-0.38002,0.03955,,,,,,,,,,,,,,,,,,,,,,,,,,0,0,0,0,0
3.5334,1783190371.1843,1,1,1.0000,0.0000,1.44680,0.20581,-2.78430,1.00766,1.57079,0.00002,-0.14512,-0.38002,0.03948,,,,,,,,,,,,,,,,,,,,,,,,,,0,0,0,0,0
3.5338,1783190371.1847,1,1,1.0000,0.0000,1.44680,0.20581,-2.78430,1.00766,1.57079,0.00002,-0.14512,-0.38002,0.03948,,,,,,,,,,,,,,,,,,,,,,,,,,0,0,0,0,0
3.5479,1783190371.1988,1,1,1.0000,0.0000,1.44680,0.20571,-2.78432,1.00777,1.57079,0.00002,-0.14512,-0.38002,0.03946,,,,,,,,,,,,,,,,,,,,,,,,,,0,0,0,0,0
3.5481,1783190371.1991,1,1,1.0000,0.0000,1.44680,0.20571,-2.78432,1.00777,1.57079,0.00002,-0.14512,-0.38002,0.03946,,,,,,,,,,,,,,,,,,,,,,,,,,0,0,0,0,0
3.5549,1783190371.2058,1,1,1.0000,0.0000,1.44680,0.20565,-2.78433,1.00785,1.57079,0.00002,-0.14512,-0.38002,0.03944,,,,,,,,,,,,,,,,,,,,,,,,,,0,0,0,0,0
3.5617,1783190371.2127,1,1,1.0000,0.0000,1.44680,0.20550,-2.78437,1.00803,1.57079,0.00002,-0.14512,-0.38002,0.03940,,,,,,,,,,,,,,,,,,,,,,,,,,0,0,0,0,0
3.5620,1783190371.2129,1,1,1.0000,0.0000,1.44680,0.20550,-2.78437,1.00803,1.57079,0.00002,-0.14512,-0.38002,0.03940,,,,,,,,,,,,,,,,,,,,,,,,,,0,0,0,0,0
3.5861,1783190371.2370,1,1,1.0000,0.0000,1.44680,0.20528,-2.78442,1.00831,1.57079,0.00002,-0.14512,-0.38002,0.03935,,,,,,,,,,,,,,,,,,,,,,,,,,0,0,0,0,0
3.5865,1783190371.2375,1,1,1.0000,0.0000,1.44680,0.20528,-2.78442,1.00831,1.57079,0.00002,-0.14512,-0.38002,0.03935,,,,,,,,,,,,,,,,,,,,,,,,,,0,0,0,0,0
3.5969,1783190371.2478,1,1,1.0000,0.0000,1.44680,0.20513,-2.78446,1.00849,1.57079,0.00002,-0.14512,-0.38002,0.03931,,,,,,,,,,,,,,,,,,,,,,,,,,0,0,0,0,0
3.6057,1783190371.2566,1,1,1.0000,0.0000,1.44680,0.20509,-2.78447,1.00854,1.57079,0.00002,-0.14512,-0.38002,0.03930,,,,,,,,,,,,,,,,,,,,,,,,,,0,0,0,0,0
3.6135,1783190371.2645,1,1,1.0000,0.0000,1.44680,0.20497,-2.78449,1.00868,1.57079,0.00002,-0.14512,-0.38002,0.03927,,,,,,,,,,,,,,,,,,,,,,,,,,0,0,0,0,0
3.6233,1783190371.2742,1,1,1.0000,0.0000,1.44680,0.20483,-2.78453,1.00886,1.57079,0.00002,-0.14512,-0.38002,0.03924,,,,,,,,,,,,,,,,,,,,,,,,,,0,0,0,0,0
3.6438,1783190371.2948,1,1,1.0000,0.0000,1.44680,0.20460,-2.78458,1.00914,1.57079,0.00002,-0.14512,-0.38002,0.03918,,,,,,,,,,,,,,,,,,,,,,,,,,0,0,0,0,0
3.6444,1783190371.2953,1,1,1.0000,0.0000,1.44680,0.20460,-2.78458,1.00914,1.57079,0.00002,-0.14512,-0.38002,0.03918,,,,,,,,,,,,,,,,,,,,,,,,,,0,0,0,0,0
3.6448,1783190371.2957,1,1,1.0000,0.0000,1.44680,0.20460,-2.78458,1.00914,1.57079,0.00002,-0.14512,-0.38002,0.03918,,,,,,,,,,,,,,,,,,,,,,,,,,0,0,0,0,0
3.6565,1783190371.3074,1,1,1.0000,0.0000,1.44680,0.20446,-2.78462,1.00932,1.57079,0.00002,-0.14512,-0.38002,0.03914,,,,,,,,,,,,,,,,,,,,,,,,,,0,0,0,0,0
3.6639,1783190371.3149,1,1,1.0000,0.0000,1.44680,0.20441,-2.78463,1.00938,1.57079,0.00002,-0.14512,-0.38002,0.03913,,,,,,,,,,,,,,,,,,,,,,,,,,0,0,0,0,0
3.6729,1783190371.3239,1,1,1.0000,0.0000,1.44680,0.20430,-2.78465,1.00952,1.57079,0.00002,-0.14512,-0.38002,0.03910,,,,,,,,,,,,,,,,,,,,,,,,,,0,0,0,0,0
3.6732,1783190371.3241,1,1,1.0000,0.0000,1.44680,0.20430,-2.78465,1.00952,1.57079,0.00002,-0.14512,-0.38002,0.03910,,,,,,,,,,,,,,,,,,,,,,,,,,0,0,0,0,0
3.6853,1783190371.3363,1,1,1.0000,0.0000,1.44680,0.20409,-2.78470,1.00978,1.57079,0.00002,-0.14512,-0.38002,0.03905,,,,,,,,,,,,,,,,,,,,,,,,,,0,0,0,0,0
3.6962,1783190371.3472,1,1,1.0000,0.0000,1.44680,0.20404,-2.78472,1.00984,1.57079,0.00002,-0.14512,-0.38002,0.03904,,,,,,,,,,,,,,,,,,,,,,,,,,0,0,0,0,0
3.7054,1783190371.3564,1,1,1.0000,0.0000,1.44680,0.20393,-2.78474,1.00998,1.57079,0.00002,-0.14512,-0.38002,0.03901,,,,,,,,,,,,,,,,,,,,,,,,,,0,0,0,0,0
3.7173,1783190371.3683,1,1,1.0000,0.0000,1.44680,0.20379,-2.78478,1.01015,1.57079,0.00002,-0.14512,-0.38002,0.03897,,,,,,,,,,,,,,,,,,,,,,,,,,0,0,0,0,0
3.7252,1783190371.3762,1,1,1.0000,0.0000,1.44680,0.20374,-2.78479,1.01021,1.57079,0.00002,-0.14512,-0.38002,0.03896,,,,,,,,,,,,,,,,,,,,,,,,,,0,0,0,0,0
3.7256,1783190371.3766,1,1,1.0000,0.0000,1.44680,0.20374,-2.78479,1.01021,1.57079,0.00002,-0.14512,-0.38002,0.03896,,,,,,,,,,,,,,,,,,,,,,,,,,0,0,0,0,0
3.7430,1783190371.3939,1,1,1.0000,0.0000,1.44680,0.20348,-2.78485,1.01053,1.57079,0.00002,-0.14512,-0.38002,0.03890,,,,,,,,,,,,,,,,,,,,,,,,,,0,0,0,0,0
3.7453,1783190371.3963,1,1,1.0000,0.0000,1.44680,0.20341,-2.78486,1.01061,1.57079,0.00002,-0.14512,-0.38002,0.03888,,,,,,,,,,,,,,,,,,,,,,,,,,0,0,0,0,0
3.7457,1783190371.3966,1,1,1.0000,0.0000,1.44680,0.20341,-2.78486,1.01061,1.57079,0.00002,-0.14512,-0.38002,0.03888,,,,,,,,,,,,,,,,,,,,,,,,,,0,0,0,0,0
3.7564,1783190371.4073,1,1,1.0000,0.0000,1.44680,0.20337,-2.78488,1.01067,1.57079,0.00002,-0.14512,-0.38002,0.03887,,,,,,,,,,,,,,,,,,,,,,,,,,0,0,0,0,0
3.7568,1783190371.4077,1,1,1.0000,0.0000,1.44680,0.20337,-2.78488,1.01067,1.57079,0.00002,-0.14512,-0.38002,0.03887,,,,,,,,,,,,,,,,,,,,,,,,,,0,0,0,0,0
3.7706,1783190371.4216,1,1,1.0000,0.0000,1.44680,0.20318,-2.78492,1.01090,1.57079,0.00002,-0.14512,-0.38002,0.03882,,,,,,,,,,,,,,,,,,,,,,,,,,0,0,0,0,0
3.7711,1783190371.4220,1,1,1.0000,0.0000,1.44680,0.20318,-2.78492,1.01090,1.57079,0.00002,-0.14512,-0.38002,0.03882,,,,,,,,,,,,,,,,,,,,,,,,,,0,0,0,0,0
3.7896,1783190371.4405,1,1,1.0000,0.0000,1.44680,0.20301,-2.78496,1.01112,1.57079,0.00002,-0.14512,-0.38001,0.03878,,,,,,,,,,,,,,,,,,,,,,,,,,0,0,0,0,0
3.7900,1783190371.4410,1,1,1.0000,0.0000,1.44680,0.20301,-2.78496,1.01112,1.57079,0.00002,-0.14512,-0.38001,0.03878,,,,,,,,,,,,,,,,,,,,,,,,,,0,0,0,0,0
3.8001,1783190371.4510,1,1,1.0000,0.0000,1.44680,0.20286,-2.78499,1.01129,1.57079,0.00002,-0.14512,-0.38001,0.03874,,,,,,,,,,,,,,,,,,,,,,,,,,0,0,0,0,0
3.8004,1783190371.4513,1,1,1.0000,0.0000,1.44680,0.20286,-2.78499,1.01129,1.57079,0.00002,-0.14512,-0.38001,0.03874,,,,,,,,,,,,,,,,,,,,,,,,,,0,0,0,0,0
3.8051,1783190371.4560,1,1,1.0000,0.0000,1.44680,0.20280,-2.78501,1.01137,1.57079,0.00002,-0.14512,-0.38001,0.03873,,,,,,,,,,,,,,,,,,,,,,,,,,0,0,0,0,0
3.8055,1783190371.4565,1,1,1.0000,0.0000,1.44680,0.20280,-2.78501,1.01137,1.57079,0.00002,-0.14512,-0.38001,0.03873,,,,,,,,,,,,,,,,,,,,,,,,,,0,0,0,0,0
3.8230,1783190371.4740,1,1,1.0000,0.0000,1.44680,0.20270,-2.78503,1.01149,1.57079,0.00002,-0.14512,-0.38001,0.03870,,,,,,,,,,,,,,,,,,,,,,,,,,0,0,0,0,0
3.8253,1783190371.4762,1,1,1.0000,0.0000,1.44680,0.20264,-2.78505,1.01157,1.57079,0.00002,-0.14512,-0.38001,0.03869,,,,,,,,,,,,,,,,,,,,,,,,,,0,0,0,0,0
3.8256,1783190371.4765,1,1,1.0000,0.0000,1.44680,0.20264,-2.78505,1.01157,1.57079,0.00002,-0.14512,-0.38001,0.03869,,,,,,,,,,,,,,,,,,,,,,,,,,0,0,0,0,0
3.8404,1783190371.4913,1,1,1.0000,0.0000,1.44680,0.20242,-2.78510,1.01184,1.57079,0.00002,-0.14512,-0.38001,0.03863,,,,,,,,,,,,,,,,,,,,,,,,,,0,0,0,0,0
3.8407,1783190371.4917,1,1,1.0000,0.0000,1.44680,0.20242,-2.78510,1.01184,1.57079,0.00002,-0.14512,-0.38001,0.03863,,,,,,,,,,,,,,,,,,,,,,,,,,0,0,0,0,0
3.8584,1783190371.5094,1,1,1.0000,0.0000,1.44680,0.20230,-2.78513,1.01199,1.57079,0.00002,-0.14512,-0.38001,0.03860,,,,,,,,,,,,,,,,,,,,,,,,,,0,0,0,0,0
3.8614,1783190371.5123,1,1,1.0000,0.0000,1.44680,0.20224,-2.78514,1.01206,1.57079,0.00002,-0.14512,-0.38001,0.03859,,,,,,,,,,,,,,,,,,,,,,,,,,0,0,0,0,0
3.8619,1783190371.5129,1,1,1.0000,0.0000,1.44680,0.20224,-2.78514,1.01206,1.57079,0.00002,-0.14512,-0.38001,0.03859,,,,,,,,,,,,,,,,,,,,,,,,,,0,0,0,0,0
3.8670,1783190371.5180,1,1,1.0000,0.0000,1.44680,0.20218,-2.78515,1.01214,1.57079,0.00002,-0.14512,-0.38001,0.03857,,,,,,,,,,,,,,,,,,,,,,,,,,0,0,0,0,0
3.8751,1783190371.5260,1,1,1.0000,0.0000,1.44680,0.20217,-2.78516,1.01215,1.57079,0.00002,-0.14512,-0.38001,0.03857,,,,,,,,,,,,,,,,,,,,,,,,,,0,0,0,0,0
3.8754,1783190371.5264,1,1,1.0000,0.0000,1.44680,0.20217,-2.78516,1.01215,1.57079,0.00002,-0.14512,-0.38001,0.03857,,,,,,,,,,,,,,,,,,,,,,,,,,0,0,0,0,0
3.8887,1783190371.5397,1,1,1.0000,0.0000,1.44680,0.20194,-2.78521,1.01243,1.57079,0.00002,-0.14512,-0.38001,0.03851,,,,,,,,,,,,,,,,,,,,,,,,,,0,0,0,0,0
3.8890,1783190371.5399,1,1,1.0000,0.0000,1.44680,0.20194,-2.78521,1.01243,1.57079,0.00002,-0.14512,-0.38001,0.03851,,,,,,,,,,,,,,,,,,,,,,,,,,0,0,0,0,0
3.8975,1783190371.5485,1,1,1.0000,0.0000,1.44680,0.20180,-2.78524,1.01261,1.57079,0.00002,-0.14512,-0.38001,0.03848,,,,,,,,,,,,,,,,,,,,,,,,,,0,0,0,0,0
3.8978,1783190371.5487,1,1,1.0000,0.0000,1.44680,0.20180,-2.78524,1.01261,1.57079,0.00002,-0.14512,-0.38001,0.03848,,,,,,,,,,,,,,,,,,,,,,,,,,0,0,0,0,0
3.9085,1783190371.5595,1,1,1.0000,0.0000,1.44680,0.20177,-2.78525,1.01265,1.57079,0.00002,-0.14512,-0.38001,0.03847,,,,,,,,,,,,,,,,,,,,,,,,,,0,0,0,0,0
3.9159,1783190371.5669,1,1,1.0000,0.0000,1.44680,0.20168,-2.78527,1.01276,1.57079,0.00002,-0.14512,-0.38001,0.03845,,,,,,,,,,,,,,,,,,,,,,,,,,0,0,0,0,0
3.9163,1783190371.5672,1,1,1.0000,0.0000,1.44680,0.20168,-2.78527,1.01276,1.57079,0.00002,-0.14512,-0.38001,0.03845,,,,,,,,,,,,,,,,,,,,,,,,,,0,0,0,0,0
3.9254,1783190371.5763,1,1,1.0000,0.0000,1.44680,0.20156,-2.78530,1.01290,1.57079,0.00002,-0.14512,-0.38001,0.03842,,,,,,,,,,,,,,,,,,,,,,,,,,0,0,0,0,0
3.9411,1783190371.5921,1,1,1.0000,0.0000,1.44680,0.20146,-2.78532,1.01303,1.57079,0.00003,-0.14512,-0.38001,0.03839,,,,,,,,,,,,,,,,,,,,,,,,,,0,0,0,0,0
3.9414,1783190371.5923,1,1,1.0000,0.0000,1.44680,0.20146,-2.78532,1.01303,1.57079,0.00003,-0.14512,-0.38001,0.03839,,,,,,,,,,,,,,,,,,,,,,,,,,0,0,0,0,0
3.9488,1783190371.5997,1,1,1.0000,0.0000,1.44680,0.20132,-2.78536,1.01320,1.57079,0.00003,-0.14512,-0.38001,0.03836,,,,,,,,,,,,,,,,,,,,,,,,,,0,0,0,0,0
3.9490,1783190371.6000,1,1,1.0000,0.0000,1.44680,0.20132,-2.78536,1.01320,1.57079,0.00003,-0.14512,-0.38001,0.03836,,,,,,,,,,,,,,,,,,,,,,,,,,0,0,0,0,0
3.9590,1783190371.6099,1,1,1.0000,0.0000,1.44680,0.20118,-2.78539,1.01338,1.57079,0.00003,-0.14512,-0.38001,0.03832,,,,,,,,,,,,,,,,,,,,,,,,,,0,0,0,0,0
3.9715,1783190371.6224,1,1,1.0000,0.0000,1.44680,0.20115,-2.78540,1.01342,1.57079,0.00003,-0.14512,-0.38001,0.03831,,,,,,,,,,,,,,,,,,,,,,,,,,0,0,0,0,0
3.9789,1783190371.6299,1,1,1.0000,0.0000,1.44680,0.20106,-2.78542,1.01352,1.57079,0.00003,-0.14512,-0.38001,0.03829,,,,,,,,,,,,,,,,,,,,,,,,,,0,0,0,0,0
3.9885,1783190371.6395,1,1,1.0000,0.0000,1.44680,0.20094,-2.78545,1.01367,1.57079,0.00003,-0.14512,-0.38001,0.03826,,,,,,,,,,,,,,,,,,,,,,,,,,0,0,0,0,0
3.9960,1783190371.6470,1,1,1.0000,0.0000,1.44680,0.20089,-2.78546,1.01373,1.57079,0.00003,-0.14512,-0.38001,0.03825,,,,,,,,,,,,,,,,,,,,,,,,,,0,0,0,0,0
3.9963,1783190371.6473,1,1,1.0000,0.0000,1.44680,0.20089,-2.78546,1.01373,1.57079,0.00003,-0.14512,-0.38001,0.03825,,,,,,,,,,,,,,,,,,,,,,,,,,0,0,0,0,0
4.0065,1783190371.6575,1,1,1.0000,0.0000,1.44680,0.20078,-2.78549,1.01387,1.57079,0.00003,-0.14512,-0.38001,0.03822,,,,,,,,,,,,,,,,,,,,,,,,,,0,0,0,0,0
4.0157,1783190371.6666,1,1,1.0000,0.0000,1.44680,0.20063,-2.78552,1.01405,1.57079,0.00003,-0.14512,-0.38001,0.03818,,,,,,,,,,,,,,,,,,,,,,,,,,0,0,0,0,0
4.0258,1783190371.6767,1,1,1.0000,0.0000,1.44680,0.20055,-2.78554,1.01415,1.57079,0.00003,-0.14512,-0.38001,0.03816,,,,,,,,,,,,,,,,,,,,,,,,,,0,0,0,0,0
4.0482,1783190371.6992,1,1,1.0000,0.0000,1.44680,0.20032,-2.78559,1.01443,1.57079,0.00003,-0.14512,-0.38001,0.03811,,,,,,,,,,,,,,,,,,,,,,,,,,0,0,0,0,0
4.0484,1783190371.6993,1,1,1.0000,0.0000,1.44680,0.20032,-2.78559,1.01443,1.57079,0.00003,-0.14512,-0.38001,0.03811,,,,,,,,,,,,,,,,,,,,,,,,,,0,0,0,0,0
4.0554,1783190371.7063,1,1,1.0000,0.0000,1.44680,0.20031,-2.78560,1.01445,1.57079,0.00003,-0.14512,-0.38001,0.03810,,,,,,,,,,,,,,,,,,,,,,,,,,0,0,0,0,0
4.0559,1783190371.7069,1,1,1.0000,0.0000,1.44680,0.20027,-2.78560,1.01449,1.57079,0.00003,-0.14512,-0.38001,0.03809,,,,,,,,,,,,,,,,,,,,,,,,,,0,0,0,0,0
4.0682,1783190371.7191,1,1,1.0000,0.0000,1.44680,0.20008,-2.78565,1.01473,1.57079,0.00003,-0.14512,-0.38001,0.03805,,,,,,,,,,,,,,,,,,,,,,,,,,0,0,0,0,0
4.0802,1783190371.7312,1,1,1.0000,0.0000,1.44680,0.19994,-2.78568,1.01491,1.57079,0.00003,-0.14512,-0.38001,0.03801,,,,,,,,,,,,,,,,,,,,,,,,,,0,0,0,0,0
4.0879,1783190371.7389,1,1,1.0000,0.0000,1.44680,0.19990,-2.78569,1.01495,1.57079,0.00003,-0.14512,-0.38001,0.03800,,,,,,,,,,,,,,,,,,,,,,,,,,0,0,0,0,0
4.0880,1783190371.7390,1,1,1.0000,0.0000,1.44680,0.19990,-2.78569,1.01495,1.57079,0.00003,-0.14512,-0.38001,0.03800,,,,,,,,,,,,,,,,,,,,,,,,,,0,0,0,0,0
4.0974,1783190371.7483,1,1,1.0000,0.0000,1.44680,0.19982,-2.78571,1.01506,1.57079,0.00003,-0.14512,-0.38001,0.03798,,,,,,,,,,,,,,,,,,,,,,,,,,0,0,0,0,0
4.0977,1783190371.7486,1,1,1.0000,0.0000,1.44680,0.19982,-2.78571,1.01506,1.57079,0.00003,-0.14512,-0.38001,0.03798,,,,,,,,,,,,,,,,,,,,,,,,,,0,0,0,0,0
4.1055,1783190371.7564,1,1,1.0000,0.0000,1.44680,0.19970,-2.78574,1.01520,1.57079,0.00003,-0.14512,-0.38001,0.03795,,,,,,,,,,,,,,,,,,,,,,,,,,0,0,0,0,0
4.1167,1783190371.7676,1,1,1.0000,0.0000,1.44680,0.19965,-2.78575,1.01526,1.57079,0.00003,-0.14512,-0.38001,0.03794,,,,,,,,,,,,,,,,,,,,,,,,,,0,0,0,0,0
4.1282,1783190371.7792,1,1,1.0000,0.0000,1.44680,0.19946,-2.78579,1.01550,1.57079,0.00003,-0.14512,-0.38001,0.03789,,,,,,,,,,,,,,,,,,,,,,,,,,0,0,0,0,0
4.1354,1783190371.7863,1,1,1.0000,0.0000,1.44680,0.19939,-2.78581,1.01559,1.57079,0.00003,-0.14512,-0.38001,0.03787,,,,,,,,,,,,,,,,,,,,,,,,,,0,0,0,0,0
4.1473,1783190371.7983,1,1,1.0000,0.0000,1.44680,0.19931,-2.78583,1.01569,1.57079,0.00003,-0.14512,-0.38001,0.03785,,,,,,,,,,,,,,,,,,,,,,,,,,0,0,0,0,0
4.1555,1783190371.8064,1,1,1.0000,0.0000,1.44680,0.19924,-2.78584,1.01576,1.57079,0.00003,-0.14512,-0.38001,0.03784,,,,,,,,,,,,,,,,,,,,,,,,,,0,0,0,0,0
4.1655,1783190371.8164,1,1,1.0000,0.0000,1.44680,0.19908,-2.78588,1.01597,1.57079,0.00003,-0.14512,-0.38001,0.03780,,,,,,,,,,,,,,,,,,,,,,,,,,0,0,0,0,0
4.1756,1783190371.8266,1,1,1.0000,0.0000,1.44680,0.19906,-2.78589,1.01598,1.57079,0.00003,-0.14512,-0.38001,0.03779,,,,,,,,,,,,,,,,,,,,,,,,,,0,0,0,0,0
4.1932,1783190371.8442,1,1,1.0000,0.0000,1.44680,0.19876,-2.78596,1.01636,1.57079,0.00003,-0.14512,-0.38001,0.03772,,,,,,,,,,,,,,,,,,,,,,,,,,0,0,0,0,0
4.1970,1783190371.8480,1,1,1.0000,0.0000,1.44680,0.19869,-2.78597,1.01644,1.57079,0.00003,-0.14512,-0.38001,0.03770,,,,,,,,,,,,,,,,,,,,,,,,,,0,0,0,0,0
4.2071,1783190371.8580,1,1,1.0000,0.0000,1.44680,0.19868,-2.78598,1.01646,1.57079,0.00003,-0.14512,-0.38001,0.03770,,,,,,,,,,,,,,,,,,,,,,,,,,0,0,0,0,0
4.2165,1783190371.8674,1,1,1.0000,0.0000,1.44680,0.19853,-2.78601,1.01664,1.57079,0.00003,-0.14512,-0.38001,0.03766,,,,,,,,,,,,,,,,,,,,,,,,,,0,0,0,0,0
4.2342,1783190371.8852,1,1,1.0000,0.0000,1.44680,0.19837,-2.78605,1.01683,1.57079,0.00003,-0.14512,-0.38001,0.03762,,,,,,,,,,,,,,,,,,,,,,,,,,0,0,0,0,0
4.2526,1783190371.9035,1,1,1.0000,0.0000,1.44680,0.19808,-2.78611,1.01719,1.57079,0.00003,-0.14512,-0.38001,0.03755,,,,,,,,,,,,,,,,,,,,,,,,,,0,0,0,0,0
4.2529,1783190371.9038,1,1,1.0000,0.0000,1.44680,0.19808,-2.78611,1.01719,1.57079,0.00003,-0.14512,-0.38001,0.03755,,,,,,,,,,,,,,,,,,,,,,,,,,0,0,0,0,0
4.2603,1783190371.9113,1,1,1.0000,0.0000,1.44680,0.19801,-2.78613,1.01728,1.57079,0.00003,-0.14512,-0.38001,0.03753,,,,,,,,,,,,,,,,,,,,,,,,,,0,0,0,0,0
4.2606,1783190371.9115,1,1,1.0000,0.0000,1.44680,0.19801,-2.78613,1.01728,1.57079,0.00003,-0.14512,-0.38001,0.03753,,,,,,,,,,,,,,,,,,,,,,,,,,0,0,0,0,0
4.2668,1783190371.9177,1,1,1.0000,0.0000,1.44680,0.19800,-2.78613,1.01730,1.57079,0.00003,-0.14512,-0.38001,0.03753,,,,,,,,,,,,,,,,,,,,,,,,,,0,0,0,0,0
4.2766,1783190371.9275,1,1,1.0000,0.0000,1.44680,0.19785,-2.78617,1.01748,1.57079,0.00003,-0.14512,-0.38001,0.03749,,,,,,,,,,,,,,,,,,,,,,,,,,0,0,0,0,0
4.2863,1783190371.9373,1,1,1.0000,0.0000,1.44680,0.19771,-2.78620,1.01766,1.57079,0.00003,-0.14512,-0.38001,0.03746,,,,,,,,,,,,,,,,,,,,,,,,,,0,0,0,0,0
4.3016,1783190371.9525,1,1,1.0000,0.0000,1.44680,0.19761,-2.78622,1.01778,1.57079,0.00003,-0.14512,-0.38001,0.03743,,,,,,,,,,,,,,,,,,,,,,,,,,0,0,0,0,0
4.3019,1783190371.9529,1,1,1.0000,0.0000,1.44680,0.19761,-2.78622,1.01778,1.57079,0.00003,-0.14512,-0.38001,0.03743,,,,,,,,,,,,,,,,,,,,,,,,,,0,0,0,0,0
4.3093,1783190371.9603,1,1,1.0000,0.0000,1.44680,0.19748,-2.78626,1.01794,1.57079,0.00003,-0.14512,-0.38001,0.03740,,,,,,,,,,,,,,,,,,,,,,,,,,0,0,0,0,0
4.3097,1783190371.9607,1,1,1.0000,0.0000,1.44680,0.19748,-2.78626,1.01794,1.57079,0.00003,-0.14512,-0.38001,0.03740,,,,,,,,,,,,,,,,,,,,,,,,,,0,0,0,0,0
4.3156,1783190371.9666,1,1,1.0000,0.0000,1.44680,0.19740,-2.78627,1.01803,1.57079,0.00003,-0.14512,-0.38001,0.03738,,,,,,,,,,,,,,,,,,,,,,,,,,0,0,0,0,0
4.3162,1783190371.9671,1,1,1.0000,0.0000,1.44680,0.19733,-2.78629,1.01812,1.57079,0.00003,-0.14512,-0.38001,0.03736,,,,,,,,,,,,,,,,,,,,,,,,,,0,0,0,0,0
4.3255,1783190371.9765,1,1,1.0000,0.0000,1.44680,0.19732,-2.78629,1.01813,1.57079,0.00003,-0.14512,-0.38001,0.03736,,,,,,,,,,,,,,,,,,,,,,,,,,0,0,0,0,0
4.3361,1783190371.9870,1,1,1.0000,0.0000,1.44680,0.19717,-2.78633,1.01832,1.57079,0.00003,-0.14512,-0.38001,0.03732,,,,,,,,,,,,,,,,,,,,,,,,,,0,0,0,0,0
4.3561,1783190372.0071,1,1,1.0000,0.0000,1.44680,0.19698,-2.78637,1.01855,1.57079,0.00003,-0.14512,-0.38001,0.03728,,,,,,,,,,,,,,,,,,,,,,,,,,0,0,0,0,0
4.3587,1783190372.0097,1,1,1.0000,0.0000,1.44680,0.19698,-2.78637,1.01855,1.57079,0.00003,-0.14512,-0.38001,0.03728,,,,,,,,,,,,,,,,,,,,,,,,,,0,0,0,0,0
4.3592,1783190372.0102,1,1,1.0000,0.0000,1.44680,0.19698,-2.78637,1.01855,1.57079,0.00003,-0.14512,-0.38001,0.03728,,,,,,,,,,,,,,,,,,,,,,,,,,0,0,0,0,0
4.3673,1783190372.0182,1,1,1.0000,0.0000,1.44680,0.19687,-2.78640,1.01869,1.57079,0.00003,-0.14512,-0.38001,0.03725,,,,,,,,,,,,,,,,,,,,,,,,,,0,0,0,0,0
4.3751,1783190372.0261,1,1,1.0000,0.0000,1.44680,0.19672,-2.78643,1.01887,1.57079,0.00003,-0.14512,-0.38001,0.03721,,,,,,,,,,,,,,,,,,,,,,,,,,0,0,0,0,0
4.3755,1783190372.0265,1,1,1.0000,0.0000,1.44680,0.19672,-2.78643,1.01887,1.57079,0.00003,-0.14512,-0.38001,0.03721,,,,,,,,,,,,,,,,,,,,,,,,,,0,0,0,0,0
4.3853,1783190372.0363,1,1,1.0000,0.0000,1.44680,0.19664,-2.78645,1.01897,1.57079,0.00003,-0.14512,-0.38001,0.03719,,,,,,,,,,,,,,,,,,,,,,,,,,0,0,0,0,0
4.3987,1783190372.0496,1,1,1.0000,0.0000,1.44680,0.19649,-2.78648,1.01916,1.57079,0.00003,-0.14511,-0.38001,0.03715,,,,,,,,,,,,,,,,,,,,,,,,,,0,0,0,0,0
4.4094,1783190372.0604,1,1,1.0000,0.0000,1.44679,0.19635,-2.78652,1.01933,1.57079,0.00003,-0.14511,-0.38001,0.03712,,,,,,,,,,,,,,,,,,,,,,,,,,0,0,0,0,0
4.4167,1783190372.0676,1,1,1.0000,0.0000,1.44679,0.19630,-2.78653,1.01939,1.57079,0.00003,-0.14511,-0.38001,0.03711,,,,,,,,,,,,,,,,,,,,,,,,,,0,0,0,0,0
4.4170,1783190372.0680,1,1,1.0000,0.0000,1.44679,0.19630,-2.78653,1.01939,1.57079,0.00003,-0.14511,-0.38001,0.03711,,,,,,,,,,,,,,,,,,,,,,,,,,0,0,0,0,0
4.4280,1783190372.0790,1,1,1.0000,0.0000,1.44679,0.19611,-2.78657,1.01962,1.57079,0.00003,-0.14511,-0.38001,0.03706,,,,,,,,,,,,,,,,,,,,,,,,,,0,0,0,0,0
4.4356,1783190372.0865,1,1,1.0000,0.0000,1.44679,0.19604,-2.78659,1.01971,1.57079,0.00003,-0.14511,-0.38001,0.03704,,,,,,,,,,,,,,,,,,,,,,,,,,0,0,0,0,0
4.4626,1783190372.1135,1,1,1.0000,0.0000,1.44679,0.19574,-2.78666,1.02008,1.57079,0.00003,-0.14511,-0.38001,0.03697,,,,,,,,,,,,,,,,,,,,,,,,,,0,0,0,0,0
4.4629,1783190372.1138,1,1,1.0000,0.0000,1.44679,0.19574,-2.78666,1.02008,1.57079,0.00003,-0.14511,-0.38001,0.03697,,,,,,,,,,,,,,,,,,,,,,,,,,0,0,0,0,0
4.4655,1783190372.1164,1,1,1.0000,0.0000,1.44679,0.19566,-2.78668,1.02017,1.57079,0.00003,-0.14511,-0.38001,0.03695,,,,,,,,,,,,,,,,,,,,,,,,,,0,0,0,0,0
4.4803,1783190372.1313,1,1,1.0000,0.0000,1.44679,0.19556,-2.78670,1.02030,1.57079,0.00003,-0.14511,-0.38001,0.03692,,,,,,,,,,,,,,,,,,,,,,,,,,0,0,0,0,0
4.4862,1783190372.1371,1,1,1.0000,0.0000,1.44679,0.19552,-2.78671,1.02035,1.57079,0.00003,-0.14511,-0.38001,0.03691,,,,,,,,,,,,,,,,,,,,,,,,,,0,0,0,0,0
4.5002,1783190372.1511,1,1,1.0000,0.0000,1.44679,0.19535,-2.78675,1.02056,1.57079,0.00003,-0.14511,-0.38001,0.03687,,,,,,,,,,,,,,,,,,,,,,,,,,0,0,0,0,0
4.5006,1783190372.1515,1,1,1.0000,0.0000,1.44679,0.19535,-2.78675,1.02056,1.57079,0.00003,-0.14511,-0.38001,0.03687,,,,,,,,,,,,,,,,,,,,,,,,,,0,0,0,0,0
4.5066,1783190372.1576,1,1,1.0000,0.0000,1.44679,0.19534,-2.78675,1.02057,1.57079,0.00003,-0.14511,-0.38001,0.03687,,,,,,,,,,,,,,,,,,,,,,,,,,0,0,0,0,0
4.5166,1783190372.1676,1,1,1.0000,0.0000,1.44679,0.19518,-2.78679,1.02076,1.57079,0.00003,-0.14511,-0.38001,0.03683,,,,,,,,,,,,,,,,,,,,,,,,,,0,0,0,0,0
4.5273,1783190372.1783,1,1,1.0000,0.0000,1.44679,0.19504,-2.78682,1.02094,1.57079,0.00003,-0.14511,-0.38001,0.03679,,,,,,,,,,,,,,,,,,,,,,,,,,0,0,0,0,0
4.5352,1783190372.1861,1,1,1.0000,0.0000,1.44679,0.19497,-2.78684,1.02103,1.57079,0.00003,-0.14511,-0.38001,0.03678,,,,,,,,,,,,,,,,,,,,,,,,,,0,0,0,0,0
4.5355,1783190372.1864,1,1,1.0000,0.0000,1.44679,0.19497,-2.78684,1.02103,1.57079,0.00003,-0.14511,-0.38001,0.03678,,,,,,,,,,,,,,,,,,,,,,,,,,0,0,0,0,0
4.5453,1783190372.1962,1,1,1.0000,0.0000,1.44679,0.19489,-2.78685,1.02112,1.57079,0.00003,-0.14511,-0.38001,0.03676,,,,,,,,,,,,,,,,,,,,,,,,,,0,0,0,0,0
4.5588,1783190372.2098,1,1,1.0000,0.0000,1.44679,0.19473,-2.78689,1.02133,1.57079,0.00003,-0.14511,-0.38001,0.03672,,,,,,,,,,,,,,,,,,,,,,,,,,0,0,0,0,0
4.5675,1783190372.2185,1,1,1.0000,0.0000,1.44679,0.19471,-2.78689,1.02134,1.57079,0.00003,-0.14511,-0.38001,0.03671,,,,,,,,,,,,,,,,,,,,,,,,,,0,0,0,0,0
4.5763,1783190372.2272,1,1,1.0000,0.0000,1.44679,0.19456,-2.78693,1.02153,1.57079,0.00003,-0.14511,-0.38001,0.03668,,,,,,,,,,,,,,,,,,,,,,,,,,0,0,0,0,0
4.5866,1783190372.2376,1,1,1.0000,0.0000,1.44679,0.19441,-2.78696,1.02172,1.57079,0.00003,-0.14511,-0.38001,0.03664,,,,,,,,,,,,,,,,,,,,,,,,,,0,0,0,0,0
4.6070,1783190372.2580,1,1,1.0000,0.0000,1.44679,0.19427,-2.78700,1.02189,1.57079,0.00003,-0.14511,-0.38001,0.03660,,,,,,,,,,,,,,,,,,,,,,,,,,0,0,0,0,0
4.6100,1783190372.2609,1,1,1.0000,0.0000,1.44679,0.19422,-2.78701,1.02195,1.57079,0.00003,-0.14511,-0.38001,0.03659,,,,,,,,,,,,,,,,,,,,,,,,,,0,0,0,0,0
4.6104,1783190372.2613,1,1,1.0000,0.0000,1.44679,0.19422,-2.78701,1.02195,1.57079,0.00003,-0.14511,-0.38001,0.03659,,,,,,,,,,,,,,,,,,,,,,,,,,0,0,0,0,0
4.6205,1783190372.2714,1,1,1.0000,0.0000,1.44679,0.19410,-2.78704,1.02210,1.57079,0.00003,-0.14511,-0.38001,0.03656,,,,,,,,,,,,,,,,,,,,,,,,,,0,0,0,0,0
4.6208,1783190372.2718,1,1,1.0000,0.0000,1.44679,0.19410,-2.78704,1.02210,1.57079,0.00003,-0.14511,-0.38001,0.03656,,,,,,,,,,,,,,,,,,,,,,,,,,0,0,0,0,0
4.6269,1783190372.2779,1,1,1.0000,0.0000,1.44679,0.19409,-2.78704,1.02211,1.57079,0.00003,-0.14511,-0.38001,0.03656,,,,,,,,,,,,,,,,,,,,,,,,,,0,0,0,0,0
4.6390,1783190372.2900,1,1,1.0000,0.0000,1.44679,0.19393,-2.78707,1.02230,1.57079,0.00003,-0.14511,-0.38001,0.03652,,,,,,,,,,,,,,,,,,,,,,,,,,0,0,0,0,0
4.6463,1783190372.2972,1,1,1.0000,0.0000,1.44679,0.19378,-2.78711,1.02249,1.57079,0.00003,-0.14511,-0.38001,0.03648,,,,,,,,,,,,,,,,,,,,,,,,,,0,0,0,0,0
4.6616,1783190372.3126,1,1,1.0000,0.0000,1.44679,0.19368,-2.78713,1.02262,1.57079,0.00003,-0.14511,-0.38001,0.03646,,,,,,,,,,,,,,,,,,,,,,,,,,0,0,0,0,0
4.6652,1783190372.3162,1,1,1.0000,0.0000,1.44679,0.19364,-2.78714,1.02266,1.57079,0.00003,-0.14511,-0.38001,0.03645,,,,,,,,,,,,,,,,,,,,,,,,,,0,0,0,0,0
4.6655,1783190372.3164,1,1,1.0000,0.0000,1.44679,0.19364,-2.78714,1.02266,1.57079,0.00003,-0.14511,-0.38001,0.03645,,,,,,,,,,,,,,,,,,,,,,,,,,0,0,0,0,0
4.6766,1783190372.3276,1,1,1.0000,0.0000,1.44679,0.19347,-2.78718,1.02287,1.57079,0.00003,-0.14511,-0.38001,0.03641,,,,,,,,,,,,,,,,,,,,,,,,,,0,0,0,0,0
4.6771,1783190372.3280,1,1,1.0000,0.0000,1.44679,0.19347,-2.78718,1.02287,1.57079,0.00003,-0.14511,-0.38001,0.03641,,,,,,,,,,,,,,,,,,,,,,,,,,0,0,0,0,0
4.6874,1783190372.3383,1,1,1.0000,0.0000,1.44679,0.19346,-2.78718,1.02288,1.57079,0.00003,-0.14511,-0.38001,0.03640,,,,,,,,,,,,,,,,,,,,,,,,,,0,0,0,0,0
4.6962,1783190372.3472,1,1,1.0000,0.0000,1.44679,0.19330,-2.78722,1.02307,1.57079,0.00003,-0.14511,-0.38001,0.03637,,,,,,,,,,,,,,,,,,,,,,,,,,0,0,0,0,0
4.6966,1783190372.3475,1,1,1.0000,0.0000,1.44679,0.19330,-2.78722,1.02307,1.57079,0.00003,-0.14511,-0.38001,0.03637,,,,,,,,,,,,,,,,,,,,,,,,,,0,0,0,0,0
4.7064,1783190372.3573,1,1,1.0000,0.0000,1.44679,0.19316,-2.78725,1.02326,1.57079,0.00003,-0.14511,-0.38001,0.03633,,,,,,,,,,,,,,,,,,,,,,,,,,0,0,0,0,0
4.7195,1783190372.3704,1,1,1.0000,0.0000,1.44679,0.19308,-2.78727,1.02336,1.57079,0.00003,-0.14511,-0.38001,0.03631,,,,,,,,,,,,,,,,,,,,,,,,,,0,0,0,0,0
4.7251,1783190372.3761,1,1,1.0000,0.0000,1.44679,0.19301,-2.78729,1.02343,1.57079,0.00003,-0.14511,-0.38001,0.03629,,,,,,,,,,,,,,,,,,,,,,,,,,0,0,0,0,0
4.7254,1783190372.3763,1,1,1.0000,0.0000,1.44679,0.19301,-2.78729,1.02343,1.57079,0.00003,-0.14511,-0.38001,0.03629,,,,,,,,,,,,,,,,,,,,,,,,,,0,0,0,0,0
4.7394,1783190372.3903,1,1,1.0000,0.0000,1.44679,0.19285,-2.78732,1.02364,1.57079,0.00003,-0.14511,-0.38001,0.03625,,,,,,,,,,,,,,,,,,,,,,,,,,0,0,0,0,0
4.7456,1783190372.3966,1,1,1.0000,0.0000,1.44679,0.19283,-2.78733,1.02366,1.57079,0.00003,-0.14511,-0.38001,0.03625,,,,,,,,,,,,,,,,,,,,,,,,,,0,0,0,0,0
4.7616,1783190372.4126,1,1,1.0000,0.0000,1.44679,0.19260,-2.78738,1.02394,1.57079,0.00003,-0.14511,-0.38001,0.03619,,,,,,,,,,,,,,,,,,,,,,,,,,0,0,0,0,0
4.7677,1783190372.4186,1,1,1.0000,0.0000,1.44679,0.19253,-2.78740,1.02403,1.57079,0.00003,-0.14511,-0.38001,0.03617,,,,,,,,,,,,,,,,,,,,,,,,,,0,0,0,0,0
4.7767,1783190372.4276,1,1,1.0000,0.0000,1.44679,0.19245,-2.78742,1.02413,1.57079,0.00003,-0.14511,-0.38001,0.03615,,,,,,,,,,,,,,,,,,,,,,,,,,0,0,0,0,0
4.7852,1783190372.4362,1,1,1.0000,0.0000,1.44679,0.19238,-2.78743,1.02421,1.57079,0.00003,-0.14511,-0.38001,0.03614,,,,,,,,,,,,,,,,,,,,,,,,,,0,0,0,0,0
4.7854,1783190372.4364,1,1,1.0000,0.0000,1.44679,0.19238,-2.78743,1.02421,1.57079,0.00003,-0.14511,-0.38001,0.03614,,,,,,,,,,,,,,,,,,,,,,,,,,0,0,0,0,0
4.7954,1783190372.4463,1,1,1.0000,0.0000,1.44679,0.19228,-2.78745,1.02434,1.57079,0.00003,-0.14511,-0.38001,0.03611,,,,,,,,,,,,,,,,,,,,,,,,,,0,0,0,0,0
4.7959,1783190372.4469,1,1,1.0000,0.0000,1.44679,0.19222,-2.78747,1.02441,1.57079,0.00003,-0.14511,-0.38001,0.03610,,,,,,,,,,,,,,,,,,,,,,,,,,0,0,0,0,0
4.8110,1783190372.4620,1,1,1.0000,0.0000,1.44679,0.19217,-2.78748,1.02447,1.57079,0.00003,-0.14511,-0.38001,0.03608,,,,,,,,,,,,,,,,,,,,,,,,,,0,0,0,0,0
4.8220,1783190372.4729,1,1,1.0000,0.0000,1.44679,0.19198,-2.78752,1.02471,1.57079,0.00003,-0.14511,-0.38001,0.03604,,,,,,,,,,,,,,,,,,,,,,,,,,0,0,0,0,0
4.8272,1783190372.4781,1,1,1.0000,0.0000,1.44679,0.19190,-2.78754,1.02480,1.57079,0.00003,-0.14511,-0.38001,0.03602,,,,,,,,,,,,,,,,,,,,,,,,,,0,0,0,0,0
4.8275,1783190372.4785,1,1,1.0000,0.0000,1.44679,0.19190,-2.78754,1.02480,1.57079,0.00003,-0.14511,-0.38001,0.03602,,,,,,,,,,,,,,,,,,,,,,,,,,0,0,0,0,0
4.8401,1783190372.4910,1,1,1.0000,0.0000,1.44679,0.19179,-2.78756,1.02493,1.57079,0.00003,-0.14511,-0.38001,0.03599,,,,,,,,,,,,,,,,,,,,,,,,,,0,0,0,0,0
4.8462,1783190372.4972,1,1,1.0000,0.0000,1.44679,0.19176,-2.78757,1.02498,1.57079,0.00003,-0.14511,-0.38001,0.03598,,,,,,,,,,,,,,,,,,,,,,,,,,0,0,0,0,0
4.8467,1783190372.4976,1,1,1.0000,0.0000,1.44679,0.19176,-2.78757,1.02498,1.57079,0.00003,-0.14511,-0.38001,0.03598,,,,,,,,,,,,,,,,,,,,,,,,,,0,0,0,0,0
4.8687,1783190372.5197,1,1,1.0000,0.0000,1.44679,0.19154,-2.78762,1.02524,1.57079,0.00003,-0.14511,-0.38001,0.03593,,,,,,,,,,,,,,,,,,,,,,,,,,0,0,0,0,0
4.8690,1783190372.5199,1,1,1.0000,0.0000,1.44679,0.19154,-2.78762,1.02524,1.57079,0.00003,-0.14511,-0.38001,0.03593,,,,,,,,,,,,,,,,,,,,,,,,,,0,0,0,0,0
4.8754,1783190372.5264,1,1,1.0000,0.0000,1.44679,0.19149,-2.78763,1.02531,1.57079,0.00003,-0.14511,-0.38001,0.03592,,,,,,,,,,,,,,,,,,,,,,,,,,0,0,0,0,0
4.8760,1783190372.5270,1,1,1.0000,0.0000,1.44679,0.19142,-2.78765,1.02539,1.57079,0.00003,-0.14511,-0.38001,0.03590,,,,,,,,,,,,,,,,,,,,,,,,,,0,0,0,0,0
4.8854,1783190372.5363,1,1,1.0000,0.0000,1.44679,0.19127,-2.78768,1.02557,1.57079,0.00003,-0.14511,-0.38001,0.03586,,,,,,,,,,,,,,,,,,,,,,,,,,0,0,0,0,0
4.8857,1783190372.5366,1,1,1.0000,0.0000,1.44679,0.19127,-2.78768,1.02557,1.57079,0.00003,-0.14511,-0.38001,0.03586,,,,,,,,,,,,,,,,,,,,,,,,,,0,0,0,0,0
4.8962,1783190372.5472,1,1,1.0000,0.0000,1.44679,0.19119,-2.78770,1.02568,1.57079,0.00003,-0.14511,-0.38001,0.03584,,,,,,,,,,,,,,,,,,,,,,,,,,0,0,0,0,0
4.8966,1783190372.5476,1,1,1.0000,0.0000,1.44679,0.19119,-2.78770,1.02568,1.57079,0.00003,-0.14511,-0.38001,0.03584,,,,,,,,,,,,,,,,,,,,,,,,,,0,0,0,0,0
4.9173,1783190372.5682,1,1,1.0000,0.0000,1.44679,0.19089,-2.78777,1.02604,1.57079,0.00003,-0.14511,-0.38001,0.03577,,,,,,,,,,,,,,,,,,,,,,,,,,0,0,0,0,0
4.9284,1783190372.5794,1,1,1.0000,0.0000,1.44679,0.19084,-2.78778,1.02610,1.57079,0.00003,-0.14511,-0.38001,0.03576,,,,,,,,,,,,,,,,,,,,,,,,,,0,0,0,0,0
4.9288,1783190372.5798,1,1,1.0000,0.0000,1.44679,0.19084,-2.78778,1.02610,1.57079,0.00003,-0.14511,-0.38001,0.03576,,,,,,,,,,,,,,,,,,,,,,,,,,0,0,0,0,0
4.9413,1783190372.5923,1,1,1.0000,0.0000,1.44679,0.19066,-2.78782,1.02633,1.57079,0.00003,-0.14511,-0.38001,0.03571,,,,,,,,,,,,,,,,,,,,,,,,,,0,0,0,0,0
4.9463,1783190372.5973,1,1,1.0000,0.0000,1.44679,0.19058,-2.78784,1.02642,1.57079,0.00003,-0.14511,-0.38001,0.03569,,,,,,,,,,,,,,,,,,,,,,,,,,0,0,0,0,0
4.9691,1783190372.6200,1,1,1.0000,0.0000,1.44679,0.19035,-2.78789,1.02670,1.57079,0.00003,-0.14511,-0.38001,0.03564,,,,,,,,,,,,,,,,,,,,,,,,,,0,0,0,0,0
4.9695,1783190372.6204,1,1,1.0000,0.0000,1.44679,0.19035,-2.78789,1.02670,1.57079,0.00003,-0.14511,-0.38001,0.03564,,,,,,,,,,,,,,,,,,,,,,,,,,0,0,0,0,0
4.9827,1783190372.6336,1,1,1.0000,0.0000,1.44679,0.19020,-2.78793,1.02688,1.57079,0.00003,-0.14511,-0.38001,0.03560,,,,,,,,,,,,,,,,,,,,,,,,,,0,0,0,0,0
4.9830,1783190372.6339,1,1,1.0000,0.0000,1.44679,0.19020,-2.78793,1.02688,1.57079,0.00003,-0.14511,-0.38001,0.03560,,,,,,,,,,,,,,,,,,,,,,,,,,0,0,0,0,0
4.9874,1783190372.6384,1,1,1.0000,0.0000,1.44679,0.19019,-2.78793,1.02690,1.57079,0.00003,-0.14511,-0.38001,0.03560,,,,,,,,,,,,,,,,,,,,,,,,,,0,0,0,0,0
4.9881,1783190372.6390,1,1,1.0000,0.0000,1.44679,0.19016,-2.78794,1.02694,1.57079,0.00003,-0.14511,-0.38001,0.03559,,,,,,,,,,,,,,,,,,,,,,,,,,0,0,0,0,0
4.9996,1783190372.6505,1,1,1.0000,0.0000,1.44679,0.19004,-2.78796,1.02708,1.57079,0.00003,-0.14511,-0.38001,0.03556,,,,,,,,,,,,,,,,,,,,,,,,,,0,0,0,0,0
5.0001,1783190372.6510,1,1,1.0000,0.0000,1.44679,0.18997,-2.78798,1.02717,1.57079,0.00003,-0.14511,-0.38001,0.03554,,,,,,,,,,,,,,,,,,,,,,,,,,0,0,0,0,0
5.0114,1783190372.6624,1,1,1.0000,0.0000,1.44679,0.18983,-2.78801,1.02735,1.57079,0.00003,-0.14511,-0.38001,0.03551,,,,,,,,,,,,,,,,,,,,,,,,,,0,0,0,0,0
5.0172,1783190372.6682,1,1,1.0000,0.0000,1.44679,0.18981,-2.78802,1.02736,1.57079,0.00003,-0.14511,-0.38001,0.03550,,,,,,,,,,,,,,,,,,,,,,,,,,0,0,0,0,0
5.0259,1783190372.6768,1,1,1.0000,0.0000,1.44679,0.18973,-2.78804,1.02747,1.57079,0.00003,-0.14511,-0.38001,0.03548,,,,,,,,,,,,,,,,,,,,,,,,,,0,0,0,0,0
5.0262,1783190372.6772,1,1,1.0000,0.0000,1.44679,0.18973,-2.78804,1.02747,1.57079,0.00003,-0.14511,-0.38001,0.03548,,,,,,,,,,,,,,,,,,,,,,,,,,0,0,0,0,0
5.0362,1783190372.6872,1,1,1.0000,0.0000,1.44679,0.18952,-2.78808,1.02773,1.57079,0.00003,-0.14511,-0.38001,0.03543,,,,,,,,,,,,,,,,,,,,,,,,,,0,0,0,0,0
5.0366,1783190372.6875,1,1,1.0000,0.0000,1.44679,0.18952,-2.78808,1.02773,1.57079,0.00003,-0.14511,-0.38001,0.03543,,,,,,,,,,,,,,,,,,,,,,,,,,0,0,0,0,0
5.0496,1783190372.7005,1,1,1.0000,0.0000,1.44679,0.18947,-2.78809,1.02778,1.57079,0.00003,-0.14511,-0.38001,0.03542,,,,,,,,,,,,,,,,,,,,,,,,,,0,0,0,0,0
5.0553,1783190372.7063,1,1,1.0000,0.0000,1.44679,0.18942,-2.78811,1.02785,1.57079,0.00003,-0.14511,-0.38001,0.03541,,,,,,,,,,,,,,,,,,,,,,,,,,0,0,0,0,0
5.0557,1783190372.7067,1,1,1.0000,0.0000,1.44679,0.18942,-2.78811,1.02785,1.57079,0.00003,-0.14511,-0.38001,0.03541,,,,,,,,,,,,,,,,,,,,,,,,,,0,0,0,0,0
5.0689,1783190372.7198,1,1,1.0000,0.0000,1.44679,0.18914,-2.78817,1.02819,1.57079,0.00003,-0.14511,-0.38001,0.03534,,,,,,,,,,,,,,,,,,,,,,,,,,0,0,0,0,0
5.0797,1783190372.7307,1,1,1.0000,0.0000,1.44679,0.18913,-2.78817,1.02821,1.57079,0.00003,-0.14511,-0.38001,0.03534,,,,,,,,,,,,,,,,,,,,,,,,,,0,0,0,0,0
5.0802,1783190372.7311,1,1,1.0000,0.0000,1.44679,0.18909,-2.78818,1.02825,1.57079,0.00003,-0.14511,-0.38001,0.03533,,,,,,,,,,,,,,,,,,,,,,,,,,0,0,0,0,0
5.0882,1783190372.7391,1,1,1.0000,0.0000,1.44679,0.18897,-2.78821,1.02839,1.57079,0.00003,-0.14511,-0.38001,0.03530,,,,,,,,,,,,,,,,,,,,,,,,,,0,0,0,0,0
5.0976,1783190372.7486,1,1,1.0000,0.0000,1.44679,0.18883,-2.78824,1.02857,1.57079,0.00003,-0.14511,-0.38001,0.03526,,,,,,,,,,,,,,,,,,,,,,,,,,0,0,0,0,0
5.0979,1783190372.7488,1,1,1.0000,0.0000,1.44679,0.18883,-2.78824,1.02857,1.57079,0.00003,-0.14511,-0.38001,0.03526,,,,,,,,,,,,,,,,,,,,,,,,,,0,0,0,0,0
5.1067,1783190372.7577,1,1,1.0000,0.0000,1.44679,0.18882,-2.78824,1.02859,1.57079,0.00003,-0.14511,-0.38001,0.03526,,,,,,,,,,,,,,,,,,,,,,,,,,0,0,0,0,0
5.1075,1783190372.7585,1,1,1.0000,0.0000,1.44679,0.18882,-2.78824,1.02859,1.57079,0.00003,-0.14511,-0.38001,0.03526,,,,,,,,,,,,,,,,,,,,,,,,,,0,0,0,0,0
5.1191,1783190372.7700,1,1,1.0000,0.0000,1.44679,0.18867,-2.78828,1.02877,1.57079,0.00003,-0.14511,-0.38001,0.03522,,,,,,,,,,,,,,,,,,,,,,,,,,0,0,0,0,0
5.1262,1783190372.7771,1,1,1.0000,0.0000,1.44679,0.18852,-2.78831,1.02895,1.57079,0.00003,-0.14511,-0.38001,0.03519,,,,,,,,,,,,,,,,,,,,,,,,,,0,0,0,0,0
5.1374,1783190372.7884,1,1,1.0000,0.0000,1.44679,0.18844,-2.78833,1.02905,1.57079,0.00003,-0.14511,-0.38001,0.03517,,,,,,,,,,,,,,,,,,,,,,,,,,0,0,0,0,0
5.1472,1783190372.7982,1,1,1.0000,0.0000,1.44679,0.18835,-2.78835,1.02916,1.57079,0.00003,-0.14511,-0.38001,0.03515,,,,,,,,,,,,,,,,,,,,,,,,,,0,0,0,0,0
5.1476,1783190372.7986,1,1,1.0000,0.0000,1.44679,0.18835,-2.78835,1.02916,1.57079,0.00003,-0.14511,-0.38001,0.03515,,,,,,,,,,,,,,,,,,,,,,,,,,0,0,0,0,0
5.1561,1783190372.8071,1,1,1.0000,0.0000,1.44679,0.18814,-2.78839,1.02941,1.57079,0.00003,-0.14511,-0.38001,0.03509,,,,,,,,,,,,,,,,,,,,,,,,,,0,0,0,0,0
5.1693,1783190372.8203,1,1,1.0000,0.0000,1.44679,0.18809,-2.78841,1.02947,1.57079,0.00004,-0.14511,-0.38001,0.03508,,,,,,,,,,,,,,,,,,,,,,,,,,0,0,0,0,0
5.1760,1783190372.8269,1,1,1.0000,0.0000,1.44679,0.18798,-2.78843,1.02961,1.57079,0.00004,-0.14511,-0.38001,0.03505,,,,,,,,,,,,,,,,,,,,,,,,,,0,0,0,0,0
5.1763,1783190372.8272,1,1,1.0000,0.0000,1.44679,0.18798,-2.78843,1.02961,1.57079,0.00004,-0.14511,-0.38001,0.03505,,,,,,,,,,,,,,,,,,,,,,,,,,0,0,0,0,0
5.1864,1783190372.8373,1,1,1.0000,0.0000,1.44679,0.18783,-2.78846,1.02979,1.57079,0.00004,-0.14511,-0.38001,0.03502,,,,,,,,,,,,,,,,,,,,,,,,,,0,0,0,0,0
5.1976,1783190372.8485,1,1,1.0000,0.0000,1.44679,0.18775,-2.78848,1.02989,1.57079,0.00004,-0.14511,-0.38001,0.03500,,,,,,,,,,,,,,,,,,,,,,,,,,0,0,0,0,0
5.1983,1783190372.8493,1,1,1.0000,0.0000,1.44679,0.18775,-2.78848,1.02989,1.57079,0.00004,-0.14511,-0.38001,0.03500,,,,,,,,,,,,,,,,,,,,,,,,,,0,0,0,0,0
5.2054,1783190372.8563,1,1,1.0000,0.0000,1.44679,0.18766,-2.78850,1.03000,1.57079,0.00004,-0.14511,-0.38001,0.03498,,,,,,,,,,,,,,,,,,,,,,,,,,0,0,0,0,0
5.2186,1783190372.8696,1,1,1.0000,0.0000,1.44679,0.18745,-2.78855,1.03026,1.57079,0.00004,-0.14511,-0.38001,0.03492,,,,,,,,,,,,,,,,,,,,,,,,,,0,0,0,0,0
5.2287,1783190372.8797,1,1,1.0000,0.0000,1.44679,0.18737,-2.78857,1.03036,1.57079,0.00004,-0.14511,-0.38001,0.03490,,,,,,,,,,,,,,,,,,,,,,,,,,0,0,0,0,0
5.2360,1783190372.8869,1,1,1.0000,0.0000,1.44679,0.18731,-2.78858,1.03044,1.57079,0.00004,-0.14511,-0.38001,0.03489,,,,,,,,,,,,,,,,,,,,,,,,,,0,0,0,0,0
