Martins-Lucaas/twinforge/sensors/Data/20260713_125309__samples.csv
t_rel_s,t_unix,cycle,phase,setpoint_n,force_net_n,q1,q2,q3,q4,q5,q6,tcp_x,tcp_y,tcp_z,taxel_0,taxel_1,taxel_2,taxel_3,taxel_4,taxel_5,taxel_6,taxel_7,taxel_8,taxel_9,taxel_10,taxel_11,taxel_12,taxel_13,taxel_14,taxel_15,taxel_16,taxel_17,taxel_18,taxel_19,taxel_20,taxel_21,taxel_22,taxel_23,taxel_24,n_RA,n_SA,cn_mm,cn_ra,cn_sa
0.0041,1783957989.0371,1,0,6.0000,0.0000,1.42244,0.00072,-2.63059,1.05903,1.57082,0.11673,-0.12763,-0.48147,0.03735,,,,,,,,,,,,,,,,,,,,,,,,,,0,0,0,0,0
0.0108,1783957989.0438,1,0,6.0000,0.0000,1.42244,0.00072,-2.63059,1.05903,1.57082,0.11673,-0.12763,-0.48147,0.03735,,,,,,,,,,,,,,,,,,,,,,,,,,0,0,0,0,0
0.0179,1783957989.0509,1,0,6.0000,0.0000,1.42244,0.00072,-2.63059,1.05903,1.57082,0.11673,-0.12763,-0.48147,0.03735,,,,,,,,,,,,,,,,,,,,,,,,,,0,0,0,0,0
0.0278,1783957989.0608,1,0,6.0000,0.0000,1.42244,0.00072,-2.63059,1.05903,1.57082,0.11673,-0.12763,-0.48147,0.03735,,,,,,,,,,,,,,,,,,,,,,,,,,0,0,0,0,0
0.0499,1783957989.0829,1,0,6.0000,0.0000,1.42244,0.00072,-2.63058,1.05904,1.57082,0.11673,-0.12763,-0.48148,0.03735,,,,,,,,,,,,,,,,,,,,,,,,,,0,0,0,0,0
0.0502,1783957989.0833,1,0,6.0000,0.0000,1.42244,0.00072,-2.63058,1.05904,1.57082,0.11673,-0.12763,-0.48148,0.03735,,,,,,,,,,,,,,,,,,,,,,,,,,0,0,0,0,0
0.0596,1783957989.0927,1,0,6.0000,0.0000,1.42244,0.00072,-2.63057,1.05904,1.57082,0.11674,-0.12763,-0.48149,0.03736,,,,,,,,,,,,,,,,,,,,,,,,,,0,0,0,0,0
0.0697,1783957989.1027,1,0,6.0000,0.0000,1.42244,0.00071,-2.63056,1.05905,1.57081,0.11674,-0.12763,-0.48150,0.03737,,,,,,,,,,,,,,,,,,,,,,,,,,0,0,0,0,0
0.0805,1783957989.1136,1,0,6.0000,0.0000,1.42244,0.00071,-2.63055,1.05906,1.57080,0.11675,-0.12763,-0.48151,0.03737,,,,,,,,,,,,,,,,,,,,,,,,,,0,0,0,0,0
0.0936,1783957989.1266,1,0,6.0000,0.0000,1.42244,0.00071,-2.63053,1.05906,1.57080,0.11675,-0.12763,-0.48152,0.03738,,,,,,,,,,,,,,,,,,,,,,,,,,0,0,0,0,0
0.1000,1783957989.1330,1,0,6.0000,0.0000,1.42244,0.00071,-2.63053,1.05907,1.57080,0.11675,-0.12763,-0.48152,0.03738,,,,,,,,,,,,,,,,,,,,,,,,,,0,0,0,0,0
0.1101,1783957989.1431,1,0,6.0000,0.0000,1.42244,0.00071,-2.63053,1.05907,1.57080,0.11675,-0.12763,-0.48152,0.03738,,,,,,,,,,,,,,,,,,,,,,,,,,0,0,0,0,0
0.1232,1783957989.1562,1,0,6.0000,0.0000,1.42244,0.00071,-2.63053,1.05907,1.57080,0.11675,-0.12763,-0.48152,0.03738,,,,,,,,,,,,,,,,,,,,,,,,,,0,0,0,0,0
0.1281,1783957989.1611,1,0,6.0000,0.0000,1.42244,0.00071,-2.63053,1.05907,1.57080,0.11675,-0.12763,-0.48152,0.03738,,,,,,,,,,,,,,,,,,,,,,,,,,0,0,0,0,0
0.1284,1783957989.1614,1,0,6.0000,0.0000,1.42244,0.00071,-2.63053,1.05907,1.57080,0.11675,-0.12763,-0.48152,0.03738,,,,,,,,,,,,,,,,,,,,,,,,,,0,0,0,0,0
0.1389,1783957989.1719,1,0,6.0000,0.0000,1.42244,0.00071,-2.63053,1.05907,1.57080,0.11675,-0.12763,-0.48152,0.03738,,,,,,,,,,,,,,,,,,,,,,,,,,0,0,0,0,0
0.1393,1783957989.1723,1,0,6.0000,0.0000,1.42244,0.00071,-2.63053,1.05907,1.57080,0.11675,-0.12763,-0.48152,0.03738,,,,,,,,,,,,,,,,,,,,,,,,,,0,0,0,0,0
0.1531,1783957989.1861,1,0,6.0000,0.0000,1.42244,0.00071,-2.63053,1.05907,1.57080,0.11675,-0.12763,-0.48152,0.03738,,,,,,,,,,,,,,,,,,,,,,,,,,0,0,0,0,0
0.1576,1783957989.1906,1,0,6.0000,0.0000,1.42244,0.00071,-2.63053,1.05907,1.57080,0.11675,-0.12763,-0.48152,0.03738,,,,,,,,,,,,,,,,,,,,,,,,,,0,0,0,0,0
0.1582,1783957989.1912,1,0,6.0000,0.0000,1.42244,0.00071,-2.63053,1.05907,1.57080,0.11675,-0.12763,-0.48152,0.03738,,,,,,,,,,,,,,,,,,,,,,,,,,0,0,0,0,0
0.1687,1783957989.2017,1,0,6.0000,0.0000,1.42244,0.00071,-2.63053,1.05907,1.57080,0.11675,-0.12763,-0.48152,0.03738,,,,,,,,,,,,,,,,,,,,,,,,,,0,0,0,0,0
0.1691,1783957989.2022,1,0,6.0000,0.0000,1.42244,0.00071,-2.63053,1.05907,1.57080,0.11675,-0.12763,-0.48152,0.03738,,,,,,,,,,,,,,,,,,,,,,,,,,0,0,0,0,0
0.1779,1783957989.2109,1,0,6.0000,0.0000,1.42244,0.00071,-2.63053,1.05907,1.57080,0.11675,-0.12763,-0.48152,0.03738,,,,,,,,,,,,,,,,,,,,,,,,,,0,0,0,0,0
0.1878,1783957989.2208,1,0,6.0000,0.0000,1.42244,0.00071,-2.63053,1.05907,1.57080,0.11675,-0.12763,-0.48152,0.03738,,,,,,,,,,,,,,,,,,,,,,,,,,0,0,0,0,0
0.1978,1783957989.2308,1,0,6.0000,0.0000,1.42244,0.00071,-2.63053,1.05907,1.57080,0.11675,-0.12763,-0.48152,0.03738,,,,,,,,,,,,,,,,,,,,,,,,,,0,0,0,0,0
0.2128,1783957989.2458,1,0,6.0000,0.0000,1.42244,0.00071,-2.63053,1.05907,1.57080,0.11675,-0.12763,-0.48152,0.03738,,,,,,,,,,,,,,,,,,,,,,,,,,0,0,0,0,0
0.2189,1783957989.2519,1,0,6.0000,0.0000,1.42244,0.00071,-2.63053,1.05907,1.57080,0.11675,-0.12763,-0.48152,0.03738,,,,,,,,,,,,,,,,,,,,,,,,,,0,0,0,0,0
0.2194,1783957989.2524,1,0,6.0000,0.0000,1.42244,0.00071,-2.63053,1.05907,1.57080,0.11675,-0.12763,-0.48152,0.03738,,,,,,,,,,,,,,,,,,,,,,,,,,0,0,0,0,0
0.2280,1783957989.2610,1,0,6.0000,0.0000,1.42244,0.00071,-2.63053,1.05907,1.57080,0.11675,-0.12763,-0.48152,0.03738,,,,,,,,,,,,,,,,,,,,,,,,,,0,0,0,0,0
0.2547,1783957989.2877,1,0,6.0000,0.0000,1.42244,0.00071,-2.63053,1.05907,1.57080,0.11675,-0.12763,-0.48152,0.03738,,,,,,,,,,,,,,,,,,,,,,,,,,0,0,0,0,0
0.2550,1783957989.2880,1,0,6.0000,0.0000,1.42244,0.00071,-2.63053,1.05907,1.57080,0.11675,-0.12763,-0.48152,0.03738,,,,,,,,,,,,,,,,,,,,,,,,,,0,0,0,0,0
0.2596,1783957989.2926,1,0,6.0000,0.0000,1.42244,0.00071,-2.63053,1.05907,1.57080,0.11675,-0.12763,-0.48152,0.03738,,,,,,,,,,,,,,,,,,,,,,,,,,0,0,0,0,0
0.2753,1783957989.3083,1,0,6.0000,0.0000,1.42244,0.00071,-2.63053,1.05907,1.57080,0.11675,-0.12763,-0.48152,0.03738,,,,,,,,,,,,,,,,,,,,,,,,,,0,0,0,0,0
0.2818,1783957989.3148,1,0,6.0000,0.0000,1.42244,0.00071,-2.63053,1.05907,1.57080,0.11675,-0.12763,-0.48152,0.03738,,,,,,,,,,,,,,,,,,,,,,,,,,0,0,0,0,0
0.3028,1783957989.3358,1,0,6.0000,0.0000,1.42244,0.00071,-2.63053,1.05907,1.57080,0.11675,-0.12763,-0.48152,0.03738,,,,,,,,,,,,,,,,,,,,,,,,,,0,0,0,0,0
0.3031,1783957989.3361,1,0,6.0000,0.0000,1.42244,0.00071,-2.63053,1.05907,1.57080,0.11675,-0.12763,-0.48152,0.03738,,,,,,,,,,,,,,,,,,,,,,,,,,0,0,0,0,0
0.3576,1783957989.3906,1,0,6.0000,0.0000,1.42244,0.00071,-2.63053,1.05907,1.57080,0.11675,-0.12763,-0.48152,0.03738,,,,,,,,,,,,,,,,,,,,,,,,,,0,0,0,0,0
0.3585,1783957989.3915,1,0,6.0000,0.0000,1.42244,0.00071,-2.63053,1.05907,1.57080,0.11675,-0.12763,-0.48152,0.03738,,,,,,,,,,,,,,,,,,,,,,,,,,0,0,0,0,0
0.3589,1783957989.3919,1,0,6.0000,0.0000,1.42244,0.00071,-2.63053,1.05907,1.57080,0.11675,-0.12763,-0.48152,0.03738,,,,,,,,,,,,,,,,,,,,,,,,,,0,0,0,0,0
0.3593,1783957989.3923,1,0,6.0000,0.0000,1.42244,0.00071,-2.63053,1.05907,1.57080,0.11675,-0.12763,-0.48152,0.03738,,,,,,,,,,,,,,,,,,,,,,,,,,0,0,0,0,0
0.3600,1783957989.3931,1,0,6.0000,0.0000,1.42244,0.00071,-2.63053,1.05907,1.57080,0.11675,-0.12763,-0.48152,0.03738,,,,,,,,,,,,,,,,,,,,,,,,,,0,0,0,0,0
0.3690,1783957989.4020,1,0,6.0000,0.0000,1.42244,0.00071,-2.63053,1.05907,1.57080,0.11675,-0.12763,-0.48152,0.03738,,,,,,,,,,,,,,,,,,,,,,,,,,0,0,0,0,0
0.3882,1783957989.4213,1,0,6.0000,0.0000,1.42244,0.00071,-2.63053,1.05907,1.57080,0.11675,-0.12763,-0.48152,0.03738,,,,,,,,,,,,,,,,,,,,,,,,,,0,0,0,0,0
0.3894,1783957989.4224,1,0,6.0000,0.0000,1.42244,0.00071,-2.63053,1.05907,1.57080,0.11675,-0.12763,-0.48152,0.03738,,,,,,,,,,,,,,,,,,,,,,,,,,0,0,0,0,0
0.3898,1783957989.4229,1,0,6.0000,0.0000,1.42244,0.00071,-2.63053,1.05907,1.57080,0.11675,-0.12763,-0.48152,0.03738,,,,,,,,,,,,,,,,,,,,,,,,,,0,0,0,0,0
0.4085,1783957989.4415,1,0,6.0000,0.0000,1.42244,0.00071,-2.63053,1.05907,1.57080,0.11675,-0.12763,-0.48152,0.03738,,,,,,,,,,,,,,,,,,,,,,,,,,0,0,0,0,0
0.4203,1783957989.4533,1,0,6.0000,0.0000,1.42244,0.00071,-2.63053,1.05907,1.57080,0.11675,-0.12763,-0.48152,0.03738,,,,,,,,,,,,,,,,,,,,,,,,,,0,0,0,0,0
0.4217,1783957989.4548,1,0,6.0000,0.0000,1.42244,0.00071,-2.63053,1.05907,1.57080,0.11675,-0.12763,-0.48152,0.03738,,,,,,,,,,,,,,,,,,,,,,,,,,0,0,0,0,0
0.4306,1783957989.4636,1,0,6.0000,0.0000,1.42244,0.00071,-2.63053,1.05907,1.57080,0.11675,-0.12763,-0.48152,0.03738,,,,,,,,,,,,,,,,,,,,,,,,,,0,0,0,0,0
0.4375,1783957989.4706,1,0,6.0000,0.0000,1.42244,0.00071,-2.63053,1.05907,1.57080,0.11675,-0.12763,-0.48152,0.03738,,,,,,,,,,,,,,,,,,,,,,,,,,0,0,0,0,0
0.4379,1783957989.4709,1,0,6.0000,0.0000,1.42244,0.00071,-2.63053,1.05907,1.57080,0.11675,-0.12763,-0.48152,0.03738,,,,,,,,,,,,,,,,,,,,,,,,,,0,0,0,0,0
0.4506,1783957989.4836,1,0,6.0000,0.0000,1.42244,0.00071,-2.63053,1.05907,1.57080,0.11675,-0.12763,-0.48152,0.03738,,,,,,,,,,,,,,,,,,,,,,,,,,0,0,0,0,0
0.4614,1783957989.4944,1,0,6.0000,0.0000,1.42244,0.00071,-2.63053,1.05907,1.57080,0.11675,-0.12763,-0.48152,0.03738,,,,,,,,,,,,,,,,,,,,,,,,,,0,0,0,0,0
0.4618,1783957989.4948,1,0,6.0000,0.0000,1.42244,0.00071,-2.63053,1.05907,1.57080,0.11675,-0.12763,-0.48152,0.03738,,,,,,,,,,,,,,,,,,,,,,,,,,0,0,0,0,0
0.4691,1783957989.5021,1,0,6.0000,0.0000,1.42244,0.00071,-2.63053,1.05907,1.57080,0.11675,-0.12763,-0.48152,0.03738,,,,,,,,,,,,,,,,,,,,,,,,,,0,0,0,0,0
0.4794,1783957989.5124,1,0,6.0000,0.0000,1.42244,0.00071,-2.63053,1.05907,1.57080,0.11675,-0.12763,-0.48152,0.03738,,,,,,,,,,,,,,,,,,,,,,,,,,0,0,0,0,0
0.4896,1783957989.5227,1,0,6.0000,0.0000,1.42244,0.00071,-2.63053,1.05907,1.57080,0.11675,-0.12763,-0.48152,0.03738,,,,,,,,,,,,,,,,,,,,,,,,,,0,0,0,0,0
0.4900,1783957989.5230,1,0,6.0000,0.0000,1.42244,0.00071,-2.63053,1.05907,1.57080,0.11675,-0.12763,-0.48152,0.03738,,,,,,,,,,,,,,,,,,,,,,,,,,0,0,0,0,0
0.5017,1783957989.5347,1,0,6.0000,0.0000,1.42244,0.00071,-2.63053,1.05907,1.57080,0.11675,-0.12763,-0.48152,0.03738,,,,,,,,,,,,,,,,,,,,,,,,,,0,0,0,0,0
0.5078,1783957989.5408,1,0,6.0000,0.0000,1.42244,0.00071,-2.63053,1.05907,1.57080,0.11675,-0.12763,-0.48152,0.03738,,,,,,,,,,,,,,,,,,,,,,,,,,0,0,0,0,0
0.5215,1783957989.5545,1,0,6.0000,0.0000,1.42244,0.00071,-2.63053,1.05907,1.57080,0.11675,-0.12763,-0.48152,0.03738,,,,,,,,,,,,,,,,,,,,,,,,,,0,0,0,0,0
0.5347,1783957989.5677,1,0,6.0000,0.0000,1.42244,0.00071,-2.63053,1.05907,1.57080,0.11675,-0.12763,-0.48152,0.03738,,,,,,,,,,,,,,,,,,,,,,,,,,0,0,0,0,0
0.5351,1783957989.5681,1,0,6.0000,0.0000,1.42244,0.00071,-2.63053,1.05907,1.57080,0.11675,-0.12763,-0.48152,0.03738,,,,,,,,,,,,,,,,,,,,,,,,,,0,0,0,0,0
0.5489,1783957989.5819,1,0,6.0000,0.0000,1.42244,0.00071,-2.63053,1.05907,1.57080,0.11675,-0.12763,-0.48152,0.03738,,,,,,,,,,,,,,,,,,,,,,,,,,0,0,0,0,0
0.5495,1783957989.5825,1,0,6.0000,0.0000,1.42244,0.00071,-2.63053,1.05907,1.57080,0.11675,-0.12763,-0.48152,0.03738,,,,,,,,,,,,,,,,,,,,,,,,,,0,0,0,0,0
0.5587,1783957989.5917,1,0,6.0000,0.0000,1.42244,0.00071,-2.63053,1.05907,1.57080,0.11675,-0.12763,-0.48152,0.03738,,,,,,,,,,,,,,,,,,,,,,,,,,0,0,0,0,0
0.5589,1783957989.5919,1,0,6.0000,0.0000,1.42244,0.00071,-2.63053,1.05907,1.57080,0.11675,-0.12763,-0.48152,0.03738,,,,,,,,,,,,,,,,,,,,,,,,,,0,0,0,0,0
0.5853,1783957989.6183,1,0,6.0000,0.0000,1.42244,0.00071,-2.63053,1.05907,1.57080,0.11675,-0.12763,-0.48152,0.03738,,,,,,,,,,,,,,,,,,,,,,,,,,0,0,0,0,0
0.5855,1783957989.6186,1,0,6.0000,0.0000,1.42244,0.00071,-2.63053,1.05907,1.57080,0.11675,-0.12763,-0.48152,0.03738,,,,,,,,,,,,,,,,,,,,,,,,,,0,0,0,0,0
0.5885,1783957989.6215,1,0,6.0000,0.0000,1.42244,0.00071,-2.63053,1.05907,1.57080,0.11675,-0.12763,-0.48152,0.03738,,,,,,,,,,,,,,,,,,,,,,,,,,0,0,0,0,0
0.6087,1783957989.6417,1,0,6.0000,0.0000,1.42244,0.00071,-2.63053,1.05907,1.57080,0.11675,-0.12763,-0.48152,0.03738,,,,,,,,,,,,,,,,,,,,,,,,,,0,0,0,0,0
0.6090,1783957989.6420,1,0,6.0000,0.0000,1.42244,0.00071,-2.63053,1.05907,1.57080,0.11675,-0.12763,-0.48152,0.03738,,,,,,,,,,,,,,,,,,,,,,,,,,0,0,0,0,0
0.6225,1783957989.6555,1,0,6.0000,0.0000,1.42244,0.00071,-2.63053,1.05907,1.57080,0.11675,-0.12763,-0.48152,0.03738,,,,,,,,,,,,,,,,,,,,,,,,,,0,0,0,0,0
0.6281,1783957989.6611,1,0,6.0000,0.0000,1.42244,0.00071,-2.63053,1.05907,1.57080,0.11675,-0.12763,-0.48152,0.03738,,,,,,,,,,,,,,,,,,,,,,,,,,0,0,0,0,0
0.6388,1783957989.6718,1,0,6.0000,0.0000,1.42244,0.00071,-2.63053,1.05907,1.57080,0.11675,-0.12763,-0.48152,0.03738,,,,,,,,,,,,,,,,,,,,,,,,,,0,0,0,0,0
0.6522,1783957989.6852,1,0,6.0000,0.0000,1.42244,0.00071,-2.63053,1.05907,1.57080,0.11675,-0.12763,-0.48152,0.03738,,,,,,,,,,,,,,,,,,,,,,,,,,0,0,0,0,0
0.6526,1783957989.6856,1,0,6.0000,0.0000,1.42244,0.00071,-2.63053,1.05907,1.57080,0.11675,-0.12763,-0.48152,0.03738,,,,,,,,,,,,,,,,,,,,,,,,,,0,0,0,0,0
0.6721,1783957989.7051,1,0,6.0000,0.0000,1.42244,0.00071,-2.63053,1.05907,1.57080,0.11675,-0.12763,-0.48152,0.03738,,,,,,,,,,,,,,,,,,,,,,,,,,0,0,0,0,0
0.6725,1783957989.7055,1,0,6.0000,0.0000,1.42244,0.00071,-2.63053,1.05907,1.57080,0.11675,-0.12763,-0.48152,0.03738,,,,,,,,,,,,,,,,,,,,,,,,,,0,0,0,0,0
0.6776,1783957989.7106,1,0,6.0000,0.0000,1.42244,0.00071,-2.63053,1.05907,1.57080,0.11675,-0.12763,-0.48152,0.03738,,,,,,,,,,,,,,,,,,,,,,,,,,0,0,0,0,0
0.6785,1783957989.7115,1,0,6.0000,0.0000,1.42244,0.00071,-2.63053,1.05907,1.57080,0.11675,-0.12763,-0.48152,0.03738,,,,,,,,,,,,,,,,,,,,,,,,,,0,0,0,0,0
0.6947,1783957989.7277,1,0,6.0000,0.0000,1.42244,0.00071,-2.63053,1.05907,1.57080,0.11675,-0.12763,-0.48152,0.03738,,,,,,,,,,,,,,,,,,,,,,,,,,0,0,0,0,0
0.6951,1783957989.7281,1,0,6.0000,0.0000,1.42244,0.00071,-2.63053,1.05907,1.57080,0.11675,-0.12763,-0.48152,0.03738,,,,,,,,,,,,,,,,,,,,,,,,,,0,0,0,0,0
0.7141,1783957989.7472,1,0,6.0000,0.0000,1.42244,0.00071,-2.63053,1.05907,1.57080,0.11675,-0.12763,-0.48152,0.03738,,,,,,,,,,,,,,,,,,,,,,,,,,0,0,0,0,0
0.7148,1783957989.7479,1,0,6.0000,0.0000,1.42244,0.00071,-2.63053,1.05907,1.57080,0.11675,-0.12763,-0.48152,0.03738,,,,,,,,,,,,,,,,,,,,,,,,,,0,0,0,0,0
0.7215,1783957989.7545,1,0,6.0000,0.0000,1.42244,0.00071,-2.63053,1.05907,1.57080,0.11675,-0.12763,-0.48152,0.03738,,,,,,,,,,,,,,,,,,,,,,,,,,0,0,0,0,0
0.7307,1783957989.7637,1,1,6.0000,0.0000,1.42244,0.00071,-2.63053,1.05907,1.57080,0.11675,-0.12763,-0.48152,0.03738,,,,,,,,,,,,,,,,,,,,,,,,,,0,0,0,0,0
0.7378,1783957989.7709,1,1,6.0000,0.0000,1.42244,0.00071,-2.63053,1.05907,1.57080,0.11675,-0.12763,-0.48152,0.03738,,,,,,,,,,,,,,,,,,,,,,,,,,0,0,0,0,0
0.7892,1783957989.8222,1,1,6.0000,0.0000,1.42244,0.00071,-2.63053,1.05907,1.57080,0.11675,-0.12763,-0.48152,0.03738,,,,,,,,,,,,,,,,,,,,,,,,,,0,0,0,0,0
0.7895,1783957989.8225,1,1,6.0000,0.0000,1.42244,0.00071,-2.63053,1.05907,1.57080,0.11675,-0.12763,-0.48152,0.03738,,,,,,,,,,,,,,,,,,,,,,,,,,0,0,0,0,0
0.7898,1783957989.8228,1,1,6.0000,0.0000,1.42244,0.00071,-2.63053,1.05907,1.57080,0.11675,-0.12763,-0.48152,0.03738,,,,,,,,,,,,,,,,,,,,,,,,,,0,0,0,0,0
0.7905,1783957989.8236,1,1,6.0000,0.0000,1.42244,0.00071,-2.63053,1.05907,1.57080,0.11675,-0.12763,-0.48152,0.03738,,,,,,,,,,,,,,,,,,,,,,,,,,0,0,0,0,0
0.7990,1783957989.8320,1,1,6.0000,0.0000,1.42244,0.00071,-2.63053,1.05907,1.57080,0.11675,-0.12763,-0.48152,0.03738,,,,,,,,,,,,,,,,,,,,,,,,,,0,0,0,0,0
0.8114,1783957989.8444,1,1,6.0000,0.0000,1.42244,0.00071,-2.63053,1.05907,1.57080,0.11675,-0.12763,-0.48152,0.03738,,,,,,,,,,,,,,,,,,,,,,,,,,0,0,0,0,0
0.8310,1783957989.8640,1,1,6.0000,0.0000,1.42244,0.00071,-2.63053,1.05907,1.57080,0.11675,-0.12763,-0.48152,0.03738,,,,,,,,,,,,,,,,,,,,,,,,,,0,0,0,0,0
0.8315,1783957989.8645,1,1,6.0000,0.0000,1.42244,0.00071,-2.63053,1.05907,1.57080,0.11675,-0.12763,-0.48152,0.03738,,,,,,,,,,,,,,,,,,,,,,,,,,0,0,0,0,0
0.8428,1783957989.8758,1,1,6.0000,0.0000,1.42244,0.00071,-2.63053,1.05907,1.57080,0.11675,-0.12763,-0.48152,0.03738,,,,,,,,,,,,,,,,,,,,,,,,,,0,0,0,0,0
0.8462,1783957989.8792,1,1,6.0000,0.0000,1.42244,0.00071,-2.63053,1.05907,1.57080,0.11675,-0.12763,-0.48152,0.03738,,,,,,,,,,,,,,,,,,,,,,,,,,0,0,0,0,0
0.8960,1783957989.9290,1,1,6.0000,0.0000,1.42244,0.00071,-2.63053,1.05907,1.57080,0.11675,-0.12763,-0.48152,0.03738,,,,,,,,,,,,,,,,,,,,,,,,,,0,0,0,0,0
0.8963,1783957989.9293,1,1,6.0000,0.0000,1.42244,0.00071,-2.63053,1.05907,1.57080,0.11675,-0.12763,-0.48152,0.03738,,,,,,,,,,,,,,,,,,,,,,,,,,0,0,0,0,0
0.8966,1783957989.9296,1,1,6.0000,0.0000,1.42244,0.00071,-2.63053,1.05907,1.57080,0.11675,-0.12763,-0.48152,0.03738,,,,,,,,,,,,,,,,,,,,,,,,,,0,0,0,0,0
0.8992,1783957989.9322,1,1,6.0000,0.0000,1.42244,0.00071,-2.63053,1.05907,1.57080,0.11675,-0.12763,-0.48152,0.03738,,,,,,,,,,,,,,,,,,,,,,,,,,0,0,0,0,0
0.8995,1783957989.9325,1,1,6.0000,0.0000,1.42244,0.00071,-2.63053,1.05907,1.57080,0.11675,-0.12763,-0.48152,0.03738,,,,,,,,,,,,,,,,,,,,,,,,,,0,0,0,0,0
0.9115,1783957989.9445,1,1,6.0000,0.0000,1.42244,0.00071,-2.63053,1.05907,1.57080,0.11675,-0.12763,-0.48152,0.03738,,,,,,,,,,,,,,,,,,,,,,,,,,0,0,0,0,0
0.9118,1783957989.9448,1,1,6.0000,0.0000,1.42244,0.00071,-2.63053,1.05907,1.57080,0.11675,-0.12763,-0.48152,0.03738,,,,,,,,,,,,,,,,,,,,,,,,,,0,0,0,0,0
0.9267,1783957989.9597,1,1,6.0000,0.0000,1.42244,0.00071,-2.63053,1.05907,1.57080,0.11675,-0.12763,-0.48152,0.03738,,,,,,,,,,,,,,,,,,,,,,,,,,0,0,0,0,0
0.9324,1783957989.9654,1,1,6.0000,0.0000,1.42244,0.00071,-2.63053,1.05907,1.57080,0.11675,-0.12763,-0.48152,0.03738,,,,,,,,,,,,,,,,,,,,,,,,,,0,0,0,0,0
0.9328,1783957989.9658,1,1,6.0000,0.0000,1.42244,0.00071,-2.63053,1.05907,1.57080,0.11675,-0.12763,-0.48152,0.03738,,,,,,,,,,,,,,,,,,,,,,,,,,0,0,0,0,0
0.9375,1783957989.9706,1,1,6.0000,0.0000,1.42244,0.00071,-2.63053,1.05907,1.57080,0.11675,-0.12763,-0.48152,0.03738,,,,,,,,,,,,,,,,,,,,,,,,,,0,0,0,0,0
0.9379,1783957989.9709,1,1,6.0000,0.0000,1.42244,0.00071,-2.63053,1.05907,1.57080,0.11675,-0.12763,-0.48152,0.03738,,,,,,,,,,,,,,,,,,,,,,,,,,0,0,0,0,0
0.9516,1783957989.9846,1,1,6.0000,0.0000,1.42244,0.00071,-2.63053,1.05907,1.57080,0.11675,-0.12763,-0.48152,0.03738,,,,,,,,,,,,,,,,,,,,,,,,,,0,0,0,0,0
0.9580,1783957989.9910,1,1,6.0000,0.0000,1.42244,0.00071,-2.63053,1.05907,1.57080,0.11675,-0.12763,-0.48152,0.03738,,,,,,,,,,,,,,,,,,,,,,,,,,0,0,0,0,0
0.9588,1783957989.9918,1,1,6.0000,0.0000,1.42244,0.00071,-2.63053,1.05907,1.57080,0.11675,-0.12763,-0.48152,0.03738,,,,,,,,,,,,,,,,,,,,,,,,,,0,0,0,0,0
0.9708,1783957990.0038,1,1,6.0000,0.0000,1.42244,0.00071,-2.63053,1.05907,1.57080,0.11675,-0.12763,-0.48152,0.03738,,,,,,,,,,,,,,,,,,,,,,,,,,0,0,0,0,0
0.9711,1783957990.0041,1,1,6.0000,0.0000,1.42244,0.00071,-2.63053,1.05907,1.57080,0.11675,-0.12763,-0.48152,0.03738,,,,,,,,,,,,,,,,,,,,,,,,,,0,0,0,0,0
0.9789,1783957990.0119,1,1,6.0000,0.0000,1.42244,0.00071,-2.63053,1.05907,1.57080,0.11675,-0.12763,-0.48152,0.03738,,,,,,,,,,,,,,,,,,,,,,,,,,0,0,0,0,0
0.9947,1783957990.0277,1,1,6.0000,0.0000,1.42244,0.00071,-2.63053,1.05907,1.57080,0.11675,-0.12763,-0.48152,0.03738,,,,,,,,,,,,,,,,,,,,,,,,,,0,0,0,0,0
0.9986,1783957990.0316,1,1,6.0000,0.0000,1.42244,0.00071,-2.63053,1.05907,1.57080,0.11675,-0.12763,-0.48152,0.03738,,,,,,,,,,,,,,,,,,,,,,,,,,0,0,0,0,0
0.9989,1783957990.0319,1,1,6.0000,0.0000,1.42244,0.00071,-2.63053,1.05907,1.57080,0.11675,-0.12763,-0.48152,0.03738,,,,,,,,,,,,,,,,,,,,,,,,,,0,0,0,0,0
1.0147,1783957990.0477,1,1,6.0000,0.0000,1.42244,0.00071,-2.63054,1.05907,1.57080,0.11675,-0.12763,-0.48152,0.03738,,,,,,,,,,,,,,,,,,,,,,,,,,0,0,0,0,0
1.0177,1783957990.0508,1,1,6.0000,0.0000,1.42244,0.00071,-2.63054,1.05907,1.57080,0.11675,-0.12763,-0.48152,0.03738,,,,,,,,,,,,,,,,,,,,,,,,,,0,0,0,0,0
1.0181,1783957990.0511,1,1,6.0000,0.0000,1.42244,0.00071,-2.63054,1.05907,1.57080,0.11675,-0.12763,-0.48152,0.03738,,,,,,,,,,,,,,,,,,,,,,,,,,0,0,0,0,0
1.0306,1783957990.0636,1,1,6.0000,0.0000,1.42244,0.00071,-2.63054,1.05907,1.57080,0.11675,-0.12763,-0.48152,0.03737,,,,,,,,,,,,,,,,,,,,,,,,,,0,0,0,0,0
1.0426,1783957990.0756,1,1,6.0000,0.0000,1.42244,0.00069,-2.63055,1.05908,1.57080,0.11675,-0.12764,-0.48151,0.03737,,,,,,,,,,,,,,,,,,,,,,,,,,0,0,0,0,0
1.0477,1783957990.0807,1,1,6.0000,0.0000,1.42244,0.00069,-2.63056,1.05908,1.57080,0.11675,-0.12764,-0.48150,0.03736,,,,,,,,,,,,,,,,,,,,,,,,,,0,0,0,0,0
1.0480,1783957990.0810,1,1,6.0000,0.0000,1.42244,0.00069,-2.63056,1.05908,1.57080,0.11675,-0.12764,-0.48150,0.03736,,,,,,,,,,,,,,,,,,,,,,,,,,0,0,0,0,0
1.0649,1783957990.0979,1,1,6.0000,0.0000,1.42244,0.00067,-2.63058,1.05910,1.57080,0.11675,-0.12764,-0.48149,0.03734,,,,,,,,,,,,,,,,,,,,,,,,,,0,0,0,0,0
1.0715,1783957990.1045,1,1,6.0000,0.0000,1.42244,0.00065,-2.63059,1.05912,1.57080,0.11675,-0.12764,-0.48148,0.03733,,,,,,,,,,,,,,,,,,,,,,,,,,0,0,0,0,0
1.0806,1783957990.1136,1,1,6.0000,0.0000,1.42244,0.00061,-2.63061,1.05915,1.57080,0.11675,-0.12764,-0.48147,0.03731,,,,,,,,,,,,,,,,,,,,,,,,,,0,0,0,0,0
1.0887,1783957990.1217,1,1,6.0000,0.0000,1.42244,0.00061,-2.63061,1.05915,1.57080,0.11675,-0.12764,-0.48147,0.03731,,,,,,,,,,,,,,,,,,,,,,,,,,0,0,0,0,0
1.0891,1783957990.1221,1,1,6.0000,0.0000,1.42244,0.00061,-2.63061,1.05915,1.57080,0.11675,-0.12764,-0.48147,0.03731,,,,,,,,,,,,,,,,,,,,,,,,,,0,0,0,0,0
1.0987,1783957990.1317,1,1,6.0000,0.0000,1.42244,0.00056,-2.63063,1.05920,1.57080,0.11675,-0.12764,-0.48146,0.03729,,,,,,,,,,,,,,,,,,,,,,,,,,0,0,0,0,0
1.1088,1783957990.1418,1,1,6.0000,0.0000,1.42244,0.00050,-2.63065,1.05927,1.57080,0.11675,-0.12764,-0.48145,0.03726,,,,,,,,,,,,,,,,,,,,,,,,,,0,0,0,0,0
1.1190,1783957990.1521,1,1,6.0000,0.0000,1.42244,0.00046,-2.63067,1.05931,1.57080,0.11675,-0.12764,-0.48145,0.03725,,,,,,,,,,,,,,,,,,,,,,,,,,0,0,0,0,0
1.1194,1783957990.1524,1,1,6.0000,0.0000,1.42244,0.00046,-2.63067,1.05931,1.57080,0.11675,-0.12764,-0.48145,0.03725,,,,,,,,,,,,,,,,,,,,,,,,,,0,0,0,0,0
1.1295,1783957990.1625,1,1,6.0000,0.0000,1.42244,0.00042,-2.63067,1.05935,1.57080,0.11675,-0.12764,-0.48145,0.03724,,,,,,,,,,,,,,,,,,,,,,,,,,0,0,0,0,0
1.1298,1783957990.1628,1,1,6.0000,0.0000,1.42244,0.00042,-2.63067,1.05935,1.57080,0.11675,-0.12764,-0.48145,0.03724,,,,,,,,,,,,,,,,,,,,,,,,,,0,0,0,0,0
1.1417,1783957990.1747,1,1,6.0000,0.0000,1.42244,0.00031,-2.63070,1.05948,1.57080,0.11675,-0.12764,-0.48145,0.03720,,,,,,,,,,,,,,,,,,,,,,,,,,0,0,0,0,0
1.1479,1783957990.1809,1,1,6.0000,0.0000,1.42244,0.00026,-2.63071,1.05954,1.57080,0.11675,-0.12764,-0.48145,0.03718,,,,,,,,,,,,,,,,,,,,,,,,,,0,0,0,0,0
1.1579,1783957990.1909,1,1,6.0000,0.0000,1.42244,0.00024,-2.63071,1.05957,1.57080,0.11675,-0.12764,-0.48145,0.03717,,,,,,,,,,,,,,,,,,,,,,,,,,0,0,0,0,0
1.1763,1783957990.2093,1,1,6.0000,0.0000,1.42244,0.00008,-2.63074,1.05975,1.57080,0.11675,-0.12764,-0.48145,0.03712,,,,,,,,,,,,,,,,,,,,,,,,,,0,0,0,0,0
1.1778,1783957990.2109,1,1,6.0000,0.0000,1.42244,0.00008,-2.63074,1.05975,1.57080,0.11675,-0.12764,-0.48145,0.03712,,,,,,,,,,,,,,,,,,,,,,,,,,0,0,0,0,0
1.1786,1783957990.2116,1,1,6.0000,0.0000,1.42244,0.00008,-2.63074,1.05976,1.57080,0.11675,-0.12764,-0.48145,0.03712,,,,,,,,,,,,,,,,,,,,,,,,,,0,0,0,0,0
1.1898,1783957990.2228,1,1,6.0000,0.0000,1.42244,0.00004,-2.63075,1.05981,1.57080,0.11675,-0.12764,-0.48145,0.03710,,,,,,,,,,,,,,,,,,,,,,,,,,0,0,0,0,0
1.2027,1783957990.2357,1,1,6.0000,0.0000,1.42244,-0.00013,-2.63078,1.06002,1.57080,0.11675,-0.12764,-0.48146,0.03705,,,,,,,,,,,,,,,,,,,,,,,,,,0,0,0,0,0
1.2031,1783957990.2361,1,1,6.0000,0.0000,1.42244,-0.00013,-2.63078,1.06002,1.57080,0.11675,-0.12764,-0.48146,0.03705,,,,,,,,,,,,,,,,,,,,,,,,,,0,0,0,0,0
1.2258,1783957990.2588,1,1,6.0000,0.0000,1.42244,-0.00036,-2.63082,1.06031,1.57080,0.11675,-0.12764,-0.48147,0.03698,,,,,,,,,,,,,,,,,,,,,,,,,,0,0,0,0,0
1.2264,1783957990.2595,1,1,6.0000,0.0000,1.42244,-0.00040,-2.63082,1.06036,1.57080,0.11675,-0.12764,-0.48148,0.03697,,,,,,,,,,,,,,,,,,,,,,,,,,0,0,0,0,0
1.2327,1783957990.2657,1,1,6.0000,0.0000,1.42244,-0.00043,-2.63082,1.06039,1.57080,0.11675,-0.12764,-0.48148,0.03697,,,,,,,,,,,,,,,,,,,,,,,,,,0,0,0,0,0
1.2387,1783957990.2718,1,1,6.0000,0.0000,1.42244,-0.00045,-2.63082,1.06042,1.57080,0.11675,-0.12764,-0.48148,0.03696,,,,,,,,,,,,,,,,,,,,,,,,,,0,0,0,0,0
1.2499,1783957990.2830,1,1,6.0000,0.0000,1.42244,-0.00045,-2.63082,1.06043,1.57080,0.11675,-0.12764,-0.48149,0.03696,,,,,,,,,,,,,,,,,,,,,,,,,,0,0,0,0,0
1.2690,1783957990.3020,1,1,6.0000,0.0000,1.42244,-0.00048,-2.63082,1.06046,1.57080,0.11675,-0.12764,-0.48149,0.03696,,,,,,,,,,,,,,,,,,,,,,,,,,0,0,0,0,0
1.2887,1783957990.3217,1,1,6.0000,0.0000,1.42244,-0.00056,-2.63084,1.06057,1.57080,0.11675,-0.12764,-0.48149,0.03693,,,,,,,,,,,,,,,,,,,,,,,,,,0,0,0,0,0
1.2907,1783957990.3237,1,1,6.0000,0.0000,1.42244,-0.00059,-2.63085,1.06061,1.57080,0.11675,-0.12764,-0.48149,0.03692,,,,,,,,,,,,,,,,,,,,,,,,,,0,0,0,0,0
1.2990,1783957990.3320,1,1,6.0000,0.0000,1.42244,-0.00059,-2.63085,1.06061,1.57080,0.11675,-0.12764,-0.48149,0.03692,,,,,,,,,,,,,,,,,,,,,,,,,,0,0,0,0,0
1.3083,1783957990.3414,1,1,6.0000,0.0000,1.42244,-0.00062,-2.63085,1.06065,1.57080,0.11675,-0.12764,-0.48149,0.03691,,,,,,,,,,,,,,,,,,,,,,,,,,0,0,0,0,0
1.3087,1783957990.3417,1,1,6.0000,0.0000,1.42244,-0.00062,-2.63085,1.06065,1.57080,0.11675,-0.12764,-0.48149,0.03691,,,,,,,,,,,,,,,,,,,,,,,,,,0,0,0,0,0
1.3397,1783957990.3727,1,1,6.0000,0.0000,1.42243,-0.00078,-2.63089,1.06085,1.57080,0.11675,-0.12764,-0.48149,0.03685,,,,,,,,,,,,,,,,,,,,,,,,,,0,0,0,0,0
1.3417,1783957990.3747,1,1,6.0000,0.0000,1.42243,-0.00078,-2.63089,1.06085,1.57080,0.11675,-0.12764,-0.48149,0.03685,,,,,,,,,,,,,,,,,,,,,,,,,,0,0,0,0,0
1.3420,1783957990.3750,1,1,6.0000,0.0000,1.42243,-0.00078,-2.63089,1.06085,1.57080,0.11675,-0.12764,-0.48149,0.03685,,,,,,,,,,,,,,,,,,,,,,,,,,0,0,0,0,0
1.3525,1783957990.3855,1,1,6.0000,0.0000,1.42243,-0.00089,-2.63092,1.06099,1.57080,0.11675,-0.12764,-0.48150,0.03682,,,,,,,,,,,,,,,,,,,,,,,,,,0,0,0,0,0
1.3528,1783957990.3858,1,1,6.0000,0.0000,1.42243,-0.00089,-2.63092,1.06099,1.57080,0.11675,-0.12764,-0.48150,0.03682,,,,,,,,,,,,,,,,,,,,,,,,,,0,0,0,0,0
1.3676,1783957990.4006,1,1,6.0000,0.0000,1.42243,-0.00095,-2.63093,1.06106,1.57080,0.11675,-0.12764,-0.48150,0.03680,,,,,,,,,,,,,,,,,,,,,,,,,,0,0,0,0,0
1.3706,1783957990.4036,1,1,6.0000,0.0000,1.42243,-0.00099,-2.63094,1.06111,1.57080,0.11675,-0.12763,-0.48150,0.03679,,,,,,,,,,,,,,,,,,,,,,,,,,0,0,0,0,0
1.3797,1783957990.4127,1,1,6.0000,0.0000,1.42243,-0.00108,-2.63096,1.06122,1.57080,0.11675,-0.12763,-0.48150,0.03675,,,,,,,,,,,,,,,,,,,,,,,,,,0,0,0,0,0
1.3801,1783957990.4131,1,1,6.0000,0.0000,1.42243,-0.00108,-2.63096,1.06122,1.57080,0.11675,-0.12763,-0.48150,0.03675,,,,,,,,,,,,,,,,,,,,,,,,,,0,0,0,0,0
1.3878,1783957990.4208,1,1,6.0000,0.0000,1.42243,-0.00113,-2.63097,1.06129,1.57080,0.11675,-0.12763,-0.48150,0.03674,,,,,,,,,,,,,,,,,,,,,,,,,,0,0,0,0,0
1.3985,1783957990.4316,1,1,6.0000,0.0000,1.42243,-0.00117,-2.63098,1.06134,1.57080,0.11675,-0.12763,-0.48150,0.03672,,,,,,,,,,,,,,,,,,,,,,,,,,0,0,0,0,0
1.4079,1783957990.4409,1,1,6.0000,0.0000,1.42243,-0.00124,-2.63099,1.06142,1.57080,0.11675,-0.12763,-0.48150,0.03670,,,,,,,,,,,,,,,,,,,,,,,,,,0,0,0,0,0
1.4175,1783957990.4505,1,1,6.0000,0.0000,1.42243,-0.00132,-2.63101,1.06152,1.57080,0.11675,-0.12763,-0.48150,0.03667,,,,,,,,,,,,,,,,,,,,,,,,,,0,0,0,0,0
1.4178,1783957990.4509,1,1,6.0000,0.0000,1.42243,-0.00132,-2.63101,1.06152,1.57080,0.11675,-0.12763,-0.48150,0.03667,,,,,,,,,,,,,,,,,,,,,,,,,,0,0,0,0,0
1.4307,1783957990.4637,1,1,6.0000,0.0000,1.42243,-0.00135,-2.63101,1.06156,1.57080,0.11675,-0.12763,-0.48150,0.03667,,,,,,,,,,,,,,,,,,,,,,,,,,0,0,0,0,0
1.4311,1783957990.4641,1,1,6.0000,0.0000,1.42243,-0.00135,-2.63101,1.06156,1.57080,0.11675,-0.12763,-0.48150,0.03667,,,,,,,,,,,,,,,,,,,,,,,,,,0,0,0,0,0
1.4395,1783957990.4725,1,1,6.0000,0.0000,1.42243,-0.00140,-2.63101,1.06163,1.57080,0.11675,-0.12763,-0.48151,0.03665,,,,,,,,,,,,,,,,,,,,,,,,,,0,0,0,0,0
1.4477,1783957990.4807,1,1,6.0000,0.0000,1.42243,-0.00141,-2.63101,1.06163,1.57080,0.11675,-0.12763,-0.48151,0.03665,,,,,,,,,,,,,,,,,,,,,,,,,,0,0,0,0,0
1.4480,1783957990.4810,1,1,6.0000,0.0000,1.42243,-0.00141,-2.63101,1.06163,1.57080,0.11675,-0.12763,-0.48151,0.03665,,,,,,,,,,,,,,,,,,,,,,,,,,0,0,0,0,0
1.4600,1783957990.4930,1,1,6.0000,0.0000,1.42243,-0.00146,-2.63102,1.06169,1.57080,0.11675,-0.12763,-0.48152,0.03664,,,,,,,,,,,,,,,,,,,,,,,,,,0,0,0,0,0
1.4701,1783957990.5031,1,1,6.0000,0.0000,1.42243,-0.00151,-2.63102,1.06177,1.57080,0.11675,-0.12763,-0.48153,0.03663,,,,,,,,,,,,,,,,,,,,,,,,,,0,0,0,0,0
1.4708,1783957990.5038,1,1,6.0000,0.0000,1.42243,-0.00154,-2.63102,1.06181,1.57080,0.11675,-0.12763,-0.48153,0.03662,,,,,,,,,,,,,,,,,,,,,,,,,,0,0,0,0,0
1.4830,1783957990.5161,1,1,6.0000,0.0000,1.42243,-0.00156,-2.63103,1.06183,1.57080,0.11675,-0.12763,-0.48153,0.03661,,,,,,,,,,,,,,,,,,,,,,,,,,0,0,0,0,0
1.4906,1783957990.5236,1,1,6.0000,0.0000,1.42243,-0.00160,-2.63104,1.06188,1.57080,0.11675,-0.12763,-0.48153,0.03660,,,,,,,,,,,,,,,,,,,,,,,,,,0,0,0,0,0
1.4908,1783957990.5238,1,1,6.0000,0.0000,1.42243,-0.00160,-2.63104,1.06188,1.57080,0.11675,-0.12763,-0.48153,0.03660,,,,,,,,,,,,,,,,,,,,,,,,,,0,0,0,0,0
1.4994,1783957990.5324,1,1,6.0000,0.0000,1.42243,-0.00166,-2.63106,1.06195,1.57080,0.11675,-0.12763,-0.48152,0.03657,,,,,,,,,,,,,,,,,,,,,,,,,,0,0,0,0,0
1.5076,1783957990.5406,1,1,6.0000,0.0000,1.42243,-0.00169,-2.63107,1.06199,1.57080,0.11675,-0.12763,-0.48152,0.03656,,,,,,,,,,,,,,,,,,,,,,,,,,0,0,0,0,0
1.5079,1783957990.5409,1,1,6.0000,0.0000,1.42243,-0.00169,-2.63107,1.06199,1.57080,0.11675,-0.12763,-0.48152,0.03656,,,,,,,,,,,,,,,,,,,,,,,,,,0,0,0,0,0
1.5181,1783957990.5512,1,1,6.0000,0.0000,1.42243,-0.00171,-2.63108,1.06202,1.57080,0.11675,-0.12763,-0.48152,0.03655,,,,,,,,,,,,,,,,,,,,,,,,,,0,0,0,0,0
1.5309,1783957990.5639,1,1,6.0000,0.0000,1.42243,-0.00178,-2.63110,1.06211,1.57080,0.11675,-0.12763,-0.48152,0.03653,,,,,,,,,,,,,,,,,,,,,,,,,,0,0,0,0,0
1.5312,1783957990.5642,1,1,6.0000,0.0000,1.42243,-0.00178,-2.63110,1.06211,1.57080,0.11675,-0.12763,-0.48152,0.03653,,,,,,,,,,,,,,,,,,,,,,,,,,0,0,0,0,0
1.5396,1783957990.5726,1,1,6.0000,0.0000,1.42243,-0.00181,-2.63111,1.06214,1.57080,0.11675,-0.12763,-0.48152,0.03652,,,,,,,,,,,,,,,,,,,,,,,,,,0,0,0,0,0
1.5486,1783957990.5816,1,1,6.0000,0.0000,1.42243,-0.00187,-2.63112,1.06222,1.57080,0.11675,-0.12763,-0.48151,0.03650,,,,,,,,,,,,,,,,,,,,,,,,,,0,0,0,0,0
1.5724,1783957990.6054,1,1,6.0000,0.0000,1.42243,-0.00208,-2.63117,1.06248,1.57080,0.11675,-0.12763,-0.48151,0.03642,,,,,,,,,,,,,,,,,,,,,,,,,,0,0,0,0,0
1.6325,1783957990.6655,1,1,6.0000,0.0000,1.42243,-0.00253,-2.63127,1.06303,1.57080,0.11675,-0.12763,-0.48151,0.03627,,,,,,,,,,,,,,,,,,,,,,,,,,0,0,0,0,0
1.6329,1783957990.6659,1,1,6.0000,0.0000,1.42243,-0.00253,-2.63127,1.06303,1.57080,0.11675,-0.12763,-0.48151,0.03627,,,,,,,,,,,,,,,,,,,,,,,,,,0,0,0,0,0
1.6332,1783957990.6663,1,1,6.0000,0.0000,1.42243,-0.00253,-2.63127,1.06303,1.57080,0.11675,-0.12763,-0.48151,0.03627,,,,,,,,,,,,,,,,,,,,,,,,,,0,0,0,0,0
1.6400,1783957990.6730,1,1,6.0000,0.0000,1.42243,-0.00263,-2.63129,1.06315,1.57080,0.11675,-0.12763,-0.48151,0.03624,,,,,,,,,,,,,,,,,,,,,,,,,,0,0,0,0,0
1.6403,1783957990.6733,1,1,6.0000,0.0000,1.42243,-0.00263,-2.63129,1.06315,1.57080,0.11675,-0.12763,-0.48151,0.03624,,,,,,,,,,,,,,,,,,,,,,,,,,0,0,0,0,0
1.6609,1783957990.6939,1,1,6.0000,0.0000,1.42243,-0.00275,-2.63132,1.06331,1.57080,0.11675,-0.12763,-0.48152,0.03620,,,,,,,,,,,,,,,,,,,,,,,,,,0,0,0,0,0
1.6795,1783957990.7125,1,1,6.0000,0.0000,1.42243,-0.00280,-2.63131,1.06337,1.57080,0.11675,-0.12763,-0.48153,0.03619,,,,,,,,,,,,,,,,,,,,,,,,,,0,0,0,0,0
1.6800,1783957990.7130,1,1,6.0000,0.0000,1.42243,-0.00280,-2.63131,1.06337,1.57080,0.11675,-0.12763,-0.48153,0.03619,,,,,,,,,,,,,,,,,,,,,,,,,,0,0,0,0,0
1.6803,1783957990.7133,1,1,6.0000,0.0000,1.42243,-0.00280,-2.63131,1.06337,1.57080,0.11675,-0.12763,-0.48153,0.03619,,,,,,,,,,,,,,,,,,,,,,,,,,0,0,0,0,0
1.6806,1783957990.7136,1,1,6.0000,0.0000,1.42243,-0.00280,-2.63131,1.06337,1.57080,0.11675,-0.12763,-0.48153,0.03619,,,,,,,,,,,,,,,,,,,,,,,,,,0,0,0,0,0
1.7122,1783957990.7452,1,1,6.0000,0.0000,1.42243,-0.00289,-2.63134,1.06349,1.57080,0.11675,-0.12763,-0.48153,0.03616,,,,,,,,,,,,,,,,,,,,,,,,,,0,0,0,0,0
1.7126,1783957990.7456,1,1,6.0000,0.0000,1.42243,-0.00289,-2.63134,1.06349,1.57080,0.11675,-0.12763,-0.48153,0.03616,,,,,,,,,,,,,,,,,,,,,,,,,,0,0,0,0,0
1.7129,1783957990.7459,1,1,6.0000,0.0000,1.42243,-0.00289,-2.63134,1.06349,1.57080,0.11675,-0.12763,-0.48153,0.03616,,,,,,,,,,,,,,,,,,,,,,,,,,0,0,0,0,0
1.7589,1783957990.7919,1,1,6.0000,0.0000,1.42243,-0.00309,-2.63139,1.06373,1.57080,0.11675,-0.12763,-0.48152,0.03609,,,,,,,,,,,,,,,,,,,,,,,,,,0,0,0,0,0
1.8109,1783957990.8439,1,1,6.0000,0.0000,1.42242,-0.00350,-2.63149,1.06423,1.57080,0.11675,-0.12763,-0.48152,0.03594,,,,,,,,,,,,,,,,,,,,,,,,,,0,0,0,0,0
1.8111,1783957990.8441,1,1,6.0000,0.0000,1.42242,-0.00350,-2.63149,1.06423,1.57080,0.11675,-0.12763,-0.48152,0.03594,,,,,,,,,,,,,,,,,,,,,,,,,,0,0,0,0,0
1.8114,1783957990.8444,1,1,6.0000,0.0000,1.42242,-0.00350,-2.63149,1.06423,1.57080,0.11675,-0.12763,-0.48152,0.03594,,,,,,,,,,,,,,,,,,,,,,,,,,0,0,0,0,0
1.8116,1783957990.8446,1,1,6.0000,0.0000,1.42242,-0.00350,-2.63149,1.06423,1.57080,0.11675,-0.12763,-0.48152,0.03594,,,,,,,,,,,,,,,,,,,,,,,,,,0,0,0,0,0
1.8119,1783957990.8449,1,1,6.0000,0.0000,1.42242,-0.00350,-2.63149,1.06423,1.57080,0.11675,-0.12763,-0.48152,0.03594,,,,,,,,,,,,,,,,,,,,,,,,,,0,0,0,0,0
1.8122,1783957990.8452,1,1,6.0000,0.0000,1.42242,-0.00350,-2.63149,1.06423,1.57080,0.11675,-0.12763,-0.48152,0.03594,,,,,,,,,,,,,,,,,,,,,,,,,,0,0,0,0,0
1.8125,1783957990.8455,1,1,6.0000,0.0000,1.42242,-0.00350,-2.63149,1.06423,1.57080,0.11675,-0.12763,-0.48152,0.03594,,,,,,,,,,,,,,,,,,,,,,,,,,0,0,0,0,0
1.8127,1783957990.8457,1,1,6.0000,0.0000,1.42242,-0.00350,-2.63149,1.06423,1.57080,0.11675,-0.12763,-0.48152,0.03594,,,,,,,,,,,,,,,,,,,,,,,,,,0,0,0,0,0
1.8130,1783957990.8460,1,1,6.0000,0.0000,1.42242,-0.00350,-2.63149,1.06423,1.57080,0.11675,-0.12763,-0.48152,0.03594,,,,,,,,,,,,,,,,,,,,,,,,,,0,0,0,0,0
1.8155,1783957990.8486,1,1,6.0000,0.0000,1.42242,-0.00351,-2.63149,1.06423,1.57080,0.11675,-0.12763,-0.48152,0.03594,,,,,,,,,,,,,,,,,,,,,,,,,,0,0,0,0,0
1.8158,1783957990.8488,1,1,6.0000,0.0000,1.42242,-0.00351,-2.63149,1.06423,1.57080,0.11675,-0.12763,-0.48152,0.03594,,,,,,,,,,,,,,,,,,,,,,,,,,0,0,0,0,0
1.8792,1783957990.9122,1,1,6.0000,0.0000,1.42242,-0.00395,-2.63158,1.06476,1.57080,0.11675,-0.12763,-0.48152,0.03580,,,,,,,,,,,,,,,,,,,,,,,,,,0,0,0,0,0
1.8795,1783957990.9125,1,1,6.0000,0.0000,1.42242,-0.00395,-2.63158,1.06476,1.57080,0.11675,-0.12763,-0.48152,0.03580,,,,,,,,,,,,,,,,,,,,,,,,,,0,0,0,0,0
1.8798,1783957990.9128,1,1,6.0000,0.0000,1.42242,-0.00395,-2.63158,1.06476,1.57080,0.11675,-0.12763,-0.48152,0.03580,,,,,,,,,,,,,,,,,,,,,,,,,,0,0,0,0,0
1.8802,1783957990.9132,1,1,6.0000,0.0000,1.42242,-0.00395,-2.63158,1.06476,1.57080,0.11675,-0.12763,-0.48152,0.03580,,,,,,,,,,,,,,,,,,,,,,,,,,0,0,0,0,0
1.8923,1783957990.9253,1,1,6.0000,0.0000,1.42242,-0.00399,-2.63158,1.06482,1.57080,0.11675,-0.12762,-0.48153,0.03579,,,,,,,,,,,,,,,,,,,,,,,,,,0,0,0,0,0
2.0125,1783957991.0455,1,1,6.0000,0.0000,1.42242,-0.00460,-2.63173,1.06556,1.57080,0.11675,-0.12763,-0.48151,0.03557,,,,,,,,,,,,,,,,,,,,,,,,,,0,0,0,0,0
2.0127,1783957991.0458,1,1,6.0000,0.0000,1.42242,-0.00460,-2.63173,1.06556,1.57080,0.11675,-0.12763,-0.48151,0.03557,,,,,,,,,,,,,,,,,,,,,,,,,,0,0,0,0,0
2.0131,1783957991.0461,1,1,6.0000,0.0000,1.42242,-0.00460,-2.63173,1.06556,1.57080,0.11675,-0.12763,-0.48151,0.03557,,,,,,,,,,,,,,,,,,,,,,,,,,0,0,0,0,0
2.0134,1783957991.0465,1,1,6.0000,0.0000,1.42242,-0.00460,-2.63173,1.06556,1.57080,0.11675,-0.12763,-0.48151,0.03557,,,,,,,,,,,,,,,,,,,,,,,,,,0,0,0,0,0
2.0137,1783957991.0467,1,1,6.0000,0.0000,1.42242,-0.00460,-2.63173,1.06556,1.57080,0.11675,-0.12763,-0.48151,0.03557,,,,,,,,,,,,,,,,,,,,,,,,,,0,0,0,0,0
2.0140,1783957991.0470,1,1,6.0000,0.0000,1.42242,-0.00460,-2.63173,1.06556,1.57080,0.11675,-0.12763,-0.48151,0.03557,,,,,,,,,,,,,,,,,,,,,,,,,,0,0,0,0,0
2.0144,1783957991.0474,1,1,6.0000,0.0000,1.42242,-0.00460,-2.63173,1.06556,1.57080,0.11675,-0.12763,-0.48151,0.03557,,,,,,,,,,,,,,,,,,,,,,,,,,0,0,0,0,0
2.0147,1783957991.0477,1,1,6.0000,0.0000,1.42242,-0.00460,-2.63173,1.06556,1.57080,0.11675,-0.12763,-0.48151,0.03557,,,,,,,,,,,,,,,,,,,,,,,,,,0,0,0,0,0
2.2314,1783957991.2644,1,1,6.0000,0.0000,1.42242,-0.00585,-2.63201,1.06709,1.57080,0.11675,-0.12762,-0.48151,0.03515,,,,,,,,,,,,,,,,,,,,,,,,,,0,0,0,0,0
2.2319,1783957991.2649,1,1,6.0000,0.0000,1.42242,-0.00585,-2.63201,1.06709,1.57080,0.11675,-0.12762,-0.48151,0.03515,,,,,,,,,,,,,,,,,,,,,,,,,,0,0,0,0,0
2.2351,1783957991.2682,1,1,6.0000,0.0000,1.42242,-0.00586,-2.63202,1.06710,1.57080,0.11675,-0.12762,-0.48151,0.03514,,,,,,,,,,,,,,,,,,,,,,,,,,0,0,0,0,0
2.2355,1783957991.2685,1,1,6.0000,0.0000,1.42242,-0.00586,-2.63202,1.06710,1.57080,0.11675,-0.12762,-0.48151,0.03514,,,,,,,,,,,,,,,,,,,,,,,,,,0,0,0,0,0
2.2357,1783957991.2687,1,1,6.0000,0.0000,1.42242,-0.00586,-2.63202,1.06710,1.57080,0.11675,-0.12762,-0.48151,0.03514,,,,,,,,,,,,,,,,,,,,,,,,,,0,0,0,0,0
2.2360,1783957991.2691,1,1,6.0000,0.0000,1.42242,-0.00586,-2.63202,1.06710,1.57080,0.11675,-0.12762,-0.48151,0.03514,,,,,,,,,,,,,,,,,,,,,,,,,,0,0,0,0,0
2.2363,1783957991.2693,1,1,6.0000,0.0000,1.42242,-0.00586,-2.63202,1.06710,1.57080,0.11675,-0.12762,-0.48151,0.03514,,,,,,,,,,,,,,,,,,,,,,,,,,0,0,0,0,0
2.2367,1783957991.2697,1,1,6.0000,0.0000,1.42242,-0.00586,-2.63202,1.06710,1.57080,0.11675,-0.12762,-0.48151,0.03514,,,,,,,,,,,,,,,,,,,,,,,,,,0,0,0,0,0
2.2370,1783957991.2700,1,1,6.0000,0.0000,1.42242,-0.00586,-2.63202,1.06710,1.57080,0.11675,-0.12762,-0.48151,0.03514,,,,,,,,,,,,,,,,,,,,,,,,,,0,0,0,0,0
2.2373,1783957991.2703,1,1,6.0000,0.0000,1.42242,-0.00586,-2.63202,1.06710,1.57080,0.11675,-0.12762,-0.48151,0.03514,,,,,,,,,,,,,,,,,,,,,,,,,,0,0,0,0,0
2.2376,1783957991.2706,1,1,6.0000,0.0000,1.42242,-0.00586,-2.63202,1.06710,1.57080,0.11675,-0.12762,-0.48151,0.03514,,,,,,,,,,,,,,,,,,,,,,,,,,0,0,0,0,0
2.2379,1783957991.2709,1,1,6.0000,0.0000,1.42242,-0.00586,-2.63202,1.06710,1.57080,0.11675,-0.12762,-0.48151,0.03514,,,,,,,,,,,,,,,,,,,,,,,,,,0,0,0,0,0
2.2383,1783957991.2713,1,1,6.0000,0.0000,1.42242,-0.00586,-2.63202,1.06710,1.57080,0.11675,-0.12762,-0.48151,0.03514,,,,,,,,,,,,,,,,,,,,,,,,,,0,0,0,0,0
2.2386,1783957991.2716,1,1,6.0000,0.0000,1.42242,-0.00586,-2.63202,1.06710,1.57080,0.11675,-0.12762,-0.48151,0.03514,,,,,,,,,,,,,,,,,,,,,,,,,,0,0,0,0,0
2.2391,1783957991.2721,1,1,6.0000,0.0000,1.42242,-0.00587,-2.63202,1.06712,1.57080,0.11675,-0.12762,-0.48151,0.03514,,,,,,,,,,,,,,,,,,,,,,,,,,0,0,0,0,0
2.2392,1783957991.2722,1,1,6.0000,0.0000,1.42242,-0.00587,-2.63202,1.06712,1.57080,0.11675,-0.12762,-0.48151,0.03514,,,,,,,,,,,,,,,,,,,,,,,,,,0,0,0,0,0
2.2397,1783957991.2727,1,1,6.0000,0.0000,1.42242,-0.00587,-2.63202,1.06712,1.57080,0.11675,-0.12762,-0.48151,0.03514,,,,,,,,,,,,,,,,,,,,,,,,,,0,0,0,0,0
2.2449,1783957991.2779,1,1,6.0000,0.0000,1.42242,-0.00589,-2.63202,1.06714,1.57080,0.11675,-0.12762,-0.48151,0.03513,,,,,,,,,,,,,,,,,,,,,,,,,,0,0,0,0,0
2.2453,1783957991.2783,1,1,6.0000,0.0000,1.42242,-0.00589,-2.63202,1.06714,1.57080,0.11675,-0.12762,-0.48151,0.03513,,,,,,,,,,,,,,,,,,,,,,,,,,0,0,0,0,0
2.2476,1783957991.2806,1,1,6.0000,0.0000,1.42242,-0.00592,-2.63203,1.06718,1.57080,0.11675,-0.12762,-0.48151,0.03512,,,,,,,,,,,,,,,,,,,,,,,,,,0,0,0,0,0
2.2479,1783957991.2809,1,1,6.0000,0.0000,1.42242,-0.00592,-2.63203,1.06718,1.57080,0.11675,-0.12762,-0.48151,0.03512,,,,,,,,,,,,,,,,,,,,,,,,,,0,0,0,0,0
2.2842,1783957991.3172,1,1,6.0000,0.0000,1.42241,-0.00628,-2.63211,1.06762,1.57080,0.11675,-0.12762,-0.48151,0.03500,,,,,,,,,,,,,,,,,,,,,,,,,,0,0,0,0,0
2.2846,1783957991.3176,1,1,6.0000,0.0000,1.42241,-0.00628,-2.63211,1.06762,1.57080,0.11675,-0.12762,-0.48151,0.03500,,,,,,,,,,,,,,,,,,,,,,,,,,0,0,0,0,0
2.2908,1783957991.3238,1,1,6.0000,0.0000,1.42241,-0.00628,-2.63211,1.06762,1.57080,0.11675,-0.12762,-0.48151,0.03500,,,,,,,,,,,,,,,,,,,,,,,,,,0,0,0,0,0
2.2915,1783957991.3245,1,1,6.0000,0.0000,1.42241,-0.00628,-2.63211,1.06762,1.57080,0.11675,-0.12762,-0.48151,0.03500,,,,,,,,,,,,,,,,,,,,,,,,,,0,0,0,0,0
2.3100,1783957991.3430,1,1,6.0000,0.0000,1.42241,-0.00632,-2.63210,1.06767,1.57080,0.11675,-0.12762,-0.48152,0.03499,,,,,,,,,,,,,,,,,,,,,,,,,,0,0,0,0,0
2.3151,1783957991.3481,1,1,6.0000,0.0000,1.42241,-0.00635,-2.63210,1.06771,1.57080,0.11675,-0.12762,-0.48153,0.03499,,,,,,,,,,,,,,,,,,,,,,,,,,0,0,0,0,0
2.3192,1783957991.3522,1,1,6.0000,0.0000,1.42241,-0.00635,-2.63210,1.06771,1.57080,0.11675,-0.12762,-0.48153,0.03499,,,,,,,,,,,,,,,,,,,,,,,,,,0,0,0,0,0
2.3294,1783957991.3624,1,1,6.0000,0.0000,1.42241,-0.00636,-2.63210,1.06772,1.57080,0.11675,-0.12762,-0.48153,0.03498,,,,,,,,,,,,,,,,,,,,,,,,,,0,0,0,0,0
2.3299,1783957991.3630,1,1,6.0000,0.0000,1.42241,-0.00636,-2.63210,1.06772,1.57080,0.11675,-0.12762,-0.48153,0.03498,,,,,,,,,,,,,,,,,,,,,,,,,,0,0,0,0,0
2.3501,1783957991.3831,1,1,6.0000,0.0000,1.42241,-0.00641,-2.63212,1.06779,1.57080,0.11675,-0.12762,-0.48153,0.03496,,,,,,,,,,,,,,,,,,,,,,,,,,0,0,0,0,0
2.3507,1783957991.3837,1,1,6.0000,0.0000,1.42241,-0.00641,-2.63212,1.06779,1.57080,0.11675,-0.12762,-0.48153,0.03496,,,,,,,,,,,,,,,,,,,,,,,,,,0,0,0,0,0
2.3602,1783957991.3932,1,1,6.0000,0.0000,1.42241,-0.00646,-2.63214,1.06785,1.57080,0.11675,-0.12762,-0.48152,0.03495,,,,,,,,,,,,,,,,,,,,,,,,,,0,0,0,0,0
2.3694,1783957991.4024,1,1,6.0000,0.0000,1.42241,-0.00652,-2.63216,1.06792,1.57080,0.11675,-0.12762,-0.48152,0.03492,,,,,,,,,,,,,,,,,,,,,,,,,,0,0,0,0,0
2.3779,1783957991.4110,1,1,6.0000,0.0000,1.42241,-0.00655,-2.63216,1.06796,1.57080,0.11675,-0.12762,-0.48152,0.03491,,,,,,,,,,,,,,,,,,,,,,,,,,0,0,0,0,0
2.3934,1783957991.4264,1,1,6.0000,0.0000,1.42241,-0.00662,-2.63218,1.06804,1.57080,0.11675,-0.12762,-0.48152,0.03489,,,,,,,,,,,,,,,,,,,,,,,,,,0,0,0,0,0
2.4005,1783957991.4335,1,1,6.0000,0.0000,1.42241,-0.00669,-2.63220,1.06812,1.57080,0.11675,-0.12762,-0.48151,0.03486,,,,,,,,,,,,,,,,,,,,,,,,,,0,0,0,0,0
2.4087,1783957991.4418,1,1,6.0000,0.0000,1.42241,-0.00673,-2.63221,1.06818,1.57080,0.11675,-0.12762,-0.48151,0.03485,,,,,,,,,,,,,,,,,,,,,,,,,,0,0,0,0,0
2.4091,1783957991.4421,1,1,6.0000,0.0000,1.42241,-0.00673,-2.63221,1.06818,1.57080,0.11675,-0.12762,-0.48151,0.03485,,,,,,,,,,,,,,,,,,,,,,,,,,0,0,0,0,0
2.4200,1783957991.4530,1,1,6.0000,0.0000,1.42241,-0.00678,-2.63222,1.06824,1.57080,0.11675,-0.12762,-0.48151,0.03483,,,,,,,,,,,,,,,,,,,,,,,,,,0,0,0,0,0
2.4483,1783957991.4813,1,1,6.0000,0.0000,1.42241,-0.00696,-2.63226,1.06846,1.57080,0.11675,-0.12762,-0.48151,0.03477,,,,,,,,,,,,,,,,,,,,,,,,,,0,0,0,0,0
2.4506,1783957991.4836,1,1,6.0000,0.0000,1.42241,-0.00696,-2.63226,1.06846,1.57080,0.11675,-0.12762,-0.48151,0.03477,,,,,,,,,,,,,,,,,,,,,,,,,,0,0,0,0,0
2.4513,1783957991.4843,1,1,6.0000,0.0000,1.42241,-0.00700,-2.63227,1.06850,1.57080,0.11675,-0.12762,-0.48151,0.03476,,,,,,,,,,,,,,,,,,,,,,,,,,0,0,0,0,0
2.4619,1783957991.4949,1,1,6.0000,0.0000,1.42241,-0.00709,-2.63229,1.06861,1.57080,0.11675,-0.12762,-0.48151,0.03473,,,,,,,,,,,,,,,,,,,,,,,,,,0,0,0,0,0
2.4685,1783957991.5016,1,1,6.0000,0.0000,1.42241,-0.00720,-2.63231,1.06874,1.57080,0.11675,-0.12762,-0.48151,0.03469,,,,,,,,,,,,,,,,,,,,,,,,,,0,0,0,0,0
2.4793,1783957991.5123,1,1,6.0000,0.0000,1.42241,-0.00735,-2.63234,1.06893,1.57080,0.11675,-0.12762,-0.48151,0.03464,,,,,,,,,,,,,,,,,,,,,,,,,,0,0,0,0,0
2.4938,1783957991.5268,1,1,6.0000,0.0000,1.42241,-0.00747,-2.63237,1.06907,1.57080,0.11675,-0.12762,-0.48151,0.03460,,,,,,,,,,,,,,,,,,,,,,,,,,0,0,0,0,0
2.4983,1783957991.5313,1,1,6.0000,0.0000,1.42241,-0.00749,-2.63238,1.06910,1.57080,0.11675,-0.12762,-0.48151,0.03459,,,,,,,,,,,,,,,,,,,,,,,,,,0,0,0,0,0
2.5079,1783957991.5409,1,1,6.0000,0.0000,1.42241,-0.00750,-2.63237,1.06911,1.57080,0.11675,-0.12762,-0.48152,0.03459,,,,,,,,,,,,,,,,,,,,,,,,,,0,0,0,0,0
2.5193,1783957991.5523,1,1,6.0000,0.0000,1.42241,-0.00752,-2.63236,1.06914,1.57080,0.11675,-0.12762,-0.48153,0.03459,,,,,,,,,,,,,,,,,,,,,,,,,,0,0,0,0,0
2.5336,1783957991.5666,1,1,6.0000,0.0000,1.42241,-0.00753,-2.63237,1.06915,1.57080,0.11675,-0.12762,-0.48153,0.03459,,,,,,,,,,,,,,,,,,,,,,,,,,0,0,0,0,0
2.5379,1783957991.5709,1,1,6.0000,0.0000,1.42241,-0.00754,-2.63237,1.06917,1.57080,0.11675,-0.12762,-0.48153,0.03458,,,,,,,,,,,,,,,,,,,,,,,,,,0,0,0,0,0
2.5511,1783957991.5841,1,1,6.0000,0.0000,1.42241,-0.00762,-2.63239,1.06927,1.57080,0.11675,-0.12762,-0.48152,0.03456,,,,,,,,,,,,,,,,,,,,,,,,,,0,0,0,0,0
2.5715,1783957991.6045,1,1,6.0000,0.0000,1.42241,-0.00767,-2.63241,1.06932,1.57080,0.11675,-0.12762,-0.48152,0.03454,,,,,,,,,,,,,,,,,,,,,,,,,,0,0,0,0,0
2.5719,1783957991.6049,1,1,6.0000,0.0000,1.42241,-0.00767,-2.63241,1.06932,1.57080,0.11675,-0.12762,-0.48152,0.03454,,,,,,,,,,,,,,,,,,,,,,,,,,0,0,0,0,0
2.5806,1783957991.6136,1,1,6.0000,0.0000,1.42241,-0.00772,-2.63242,1.06939,1.57080,0.11675,-0.12762,-0.48152,0.03452,,,,,,,,,,,,,,,,,,,,,,,,,,0,0,0,0,0
2.5882,1783957991.6212,1,1,6.0000,0.0000,1.42241,-0.00775,-2.63243,1.06942,1.57080,0.11675,-0.12762,-0.48152,0.03451,,,,,,,,,,,,,,,,,,,,,,,,,,0,0,0,0,0
2.6006,1783957991.6336,1,1,6.0000,0.0000,1.42241,-0.00779,-2.63244,1.06947,1.57080,0.11675,-0.12762,-0.48152,0.03449,,,,,,,,,,,,,,,,,,,,,,,,,,0,0,0,0,0
2.6091,1783957991.6421,1,1,6.0000,0.0000,1.42241,-0.00785,-2.63245,1.06955,1.57080,0.11675,-0.12762,-0.48152,0.03447,,,,,,,,,,,,,,,,,,,,,,,,,,0,0,0,0,0
2.6181,1783957991.6511,1,1,6.0000,0.0000,1.42241,-0.00790,-2.63246,1.06960,1.57080,0.11675,-0.12762,-0.48152,0.03446,,,,,,,,,,,,,,,,,,,,,,,,,,0,0,0,0,0
2.6279,1783957991.6609,1,1,6.0000,0.0000,1.42241,-0.00795,-2.63247,1.06967,1.57080,0.11675,-0.12762,-0.48152,0.03444,,,,,,,,,,,,,,,,,,,,,,,,,,0,0,0,0,0
2.6813,1783957991.7143,1,1,6.0000,0.0000,1.42241,-0.00839,-2.63257,1.07020,1.57080,0.11675,-0.12762,-0.48152,0.03429,,,,,,,,,,,,,,,,,,,,,,,,,,0,0,0,0,0
2.6817,1783957991.7147,1,1,6.0000,0.0000,1.42241,-0.00839,-2.63257,1.07020,1.57080,0.11675,-0.12762,-0.48152,0.03429,,,,,,,,,,,,,,,,,,,,,,,,,,0,0,0,0,0
2.6822,1783957991.7152,1,1,6.0000,0.0000,1.42241,-0.00839,-2.63257,1.07020,1.57080,0.11675,-0.12762,-0.48152,0.03429,,,,,,,,,,,,,,,,,,,,,,,,,,0,0,0,0,0
2.6846,1783957991.7177,1,1,6.0000,0.0000,1.42241,-0.00844,-2.63258,1.07026,1.57080,0.11675,-0.12762,-0.48152,0.03427,,,,,,,,,,,,,,,,,,,,,,,,,,0,0,0,0,0
2.6895,1783957991.7225,1,1,6.0000,0.0000,1.42241,-0.00849,-2.63259,1.07031,1.57080,0.11675,-0.12762,-0.48152,0.03426,,,,,,,,,,,,,,,,,,,,,,,,,,0,0,0,0,0
2.6899,1783957991.7229,1,1,6.0000,0.0000,1.42241,-0.00849,-2.63259,1.07031,1.57080,0.11675,-0.12762,-0.48152,0.03426,,,,,,,,,,,,,,,,,,,,,,,,,,0,0,0,0,0
2.7033,1783957991.7363,1,1,6.0000,0.0000,1.42241,-0.00865,-2.63263,1.07051,1.57080,0.11675,-0.12762,-0.48151,0.03420,,,,,,,,,,,,,,,,,,,,,,,,,,0,0,0,0,0
2.7037,1783957991.7367,1,1,6.0000,0.0000,1.42241,-0.00865,-2.63263,1.07051,1.57080,0.11675,-0.12762,-0.48151,0.03420,,,,,,,,,,,,,,,,,,,,,,,,,,0,0,0,0,0
2.7135,1783957991.7465,1,1,6.0000,0.0000,1.42241,-0.00868,-2.63263,1.07054,1.57080,0.11675,-0.12762,-0.48151,0.03419,,,,,,,,,,,,,,,,,,,,,,,,,,0,0,0,0,0
2.7201,1783957991.7532,1,1,6.0000,0.0000,1.42241,-0.00868,-2.63263,1.07054,1.57080,0.11675,-0.12762,-0.48151,0.03419,,,,,,,,,,,,,,,,,,,,,,,,,,0,0,0,0,0
2.9522,1783957991.9852,1,1,6.0000,0.0000,1.42240,-0.00989,-2.63287,1.07201,1.57080,0.11675,-0.12761,-0.48153,0.03379,,,,,,,,,,,,,,,,,,,,,,,,,,0,0,0,0,0
2.9526,1783957991.9856,1,1,6.0000,0.0000,1.42240,-0.00989,-2.63287,1.07201,1.57080,0.11675,-0.12761,-0.48153,0.03379,,,,,,,,,,,,,,,,,,,,,,,,,,0,0,0,0,0
2.9531,1783957991.9861,1,1,6.0000,0.0000,1.42240,-0.00989,-2.63287,1.07201,1.57080,0.11675,-0.12761,-0.48153,0.03379,,,,,,,,,,,,,,,,,,,,,,,,,,0,0,0,0,0
3.0115,1783957992.0445,1,1,6.0000,0.0000,1.42240,-0.01020,-2.63298,1.07239,1.57080,0.11675,-0.12762,-0.48150,0.03367,,,,,,,,,,,,,,,,,,,,,,,,,,0,0,0,0,0
3.0118,1783957992.0448,1,1,6.0000,0.0000,1.42240,-0.01020,-2.63298,1.07239,1.57080,0.11675,-0.12762,-0.48150,0.03367,,,,,,,,,,,,,,,,,,,,,,,,,,0,0,0,0,0
3.0121,1783957992.0451,1,1,6.0000,0.0000,1.42240,-0.01020,-2.63298,1.07239,1.57080,0.11675,-0.12762,-0.48150,0.03367,,,,,,,,,,,,,,,,,,,,,,,,,,0,0,0,0,0
3.0124,1783957992.0454,1,1,6.0000,0.0000,1.42240,-0.01020,-2.63298,1.07239,1.57080,0.11675,-0.12762,-0.48150,0.03367,,,,,,,,,,,,,,,,,,,,,,,,,,0,0,0,0,0
3.0127,1783957992.0457,1,1,6.0000,0.0000,1.42240,-0.01020,-2.63298,1.07239,1.57080,0.11675,-0.12762,-0.48150,0.03367,,,,,,,,,,,,,,,,,,,,,,,,,,0,0,0,0,0
3.0130,1783957992.0460,1,1,6.0000,0.0000,1.42240,-0.01020,-2.63298,1.07239,1.57080,0.11675,-0.12762,-0.48150,0.03367,,,,,,,,,,,,,,,,,,,,,,,,,,0,0,0,0,0
3.0134,1783957992.0464,1,1,6.0000,0.0000,1.42240,-0.01020,-2.63298,1.07239,1.57080,0.11675,-0.12762,-0.48150,0.03367,,,,,,,,,,,,,,,,,,,,,,,,,,0,0,0,0,0
3.0136,1783957992.0466,1,1,6.0000,0.0000,1.42240,-0.01020,-2.63298,1.07239,1.57080,0.11675,-0.12762,-0.48150,0.03367,,,,,,,,,,,,,,,,,,,,,,,,,,0,0,0,0,0
3.0139,1783957992.0469,1,1,6.0000,0.0000,1.42240,-0.01020,-2.63298,1.07239,1.57080,0.11675,-0.12762,-0.48150,0.03367,,,,,,,,,,,,,,,,,,,,,,,,,,0,0,0,0,0
3.0141,1783957992.0471,1,1,6.0000,0.0000,1.42240,-0.01020,-2.63298,1.07239,1.57080,0.11675,-0.12762,-0.48150,0.03367,,,,,,,,,,,,,,,,,,,,,,,,,,0,0,0,0,0
3.0144,1783957992.0474,1,1,6.0000,0.0000,1.42240,-0.01020,-2.63298,1.07239,1.57080,0.11675,-0.12762,-0.48150,0.03367,,,,,,,,,,,,,,,,,,,,,,,,,,0,0,0,0,0
3.0146,1783957992.0476,1,1,6.0000,0.0000,1.42240,-0.01020,-2.63298,1.07239,1.57080,0.11675,-0.12762,-0.48150,0.03367,,,,,,,,,,,,,,,,,,,,,,,,,,0,0,0,0,0
3.0150,1783957992.0480,1,1,6.0000,0.0000,1.42240,-0.01020,-2.63298,1.07239,1.57080,0.11675,-0.12762,-0.48150,0.03367,,,,,,,,,,,,,,,,,,,,,,,,,,0,0,0,0,0
3.0154,1783957992.0484,1,1,6.0000,0.0000,1.42240,-0.01021,-2.63298,1.07240,1.57080,0.11675,-0.12762,-0.48150,0.03367,,,,,,,,,,,,,,,,,,,,,,,,,,0,0,0,0,0
3.0203,1783957992.0533,1,1,6.0000,0.0000,1.42240,-0.01022,-2.63298,1.07242,1.57080,0.11675,-0.12762,-0.48150,0.03366,,,,,,,,,,,,,,,,,,,,,,,,,,0,0,0,0,0
3.0205,1783957992.0535,1,1,6.0000,0.0000,1.42240,-0.01022,-2.63298,1.07242,1.57080,0.11675,-0.12762,-0.48150,0.03366,,,,,,,,,,,,,,,,,,,,,,,,,,0,0,0,0,0
3.0208,1783957992.0539,1,1,6.0000,0.0000,1.42240,-0.01022,-2.63298,1.07242,1.57080,0.11675,-0.12762,-0.48150,0.03366,,,,,,,,,,,,,,,,,,,,,,,,,,0,0,0,0,0
3.0211,1783957992.0542,1,1,6.0000,0.0000,1.42240,-0.01022,-2.63298,1.07242,1.57080,0.11675,-0.12762,-0.48150,0.03366,,,,,,,,,,,,,,,,,,,,,,,,,,0,0,0,0,0
3.0215,1783957992.0545,1,1,6.0000,0.0000,1.42240,-0.01022,-2.63298,1.07242,1.57080,0.11675,-0.12762,-0.48150,0.03366,,,,,,,,,,,,,,,,,,,,,,,,,,0,0,0,0,0
3.0235,1783957992.0566,1,1,6.0000,0.0000,1.42240,-0.01024,-2.63299,1.07244,1.57080,0.11675,-0.12762,-0.48150,0.03366,,,,,,,,,,,,,,,,,,,,,,,,,,0,0,0,0,0
3.0238,1783957992.0568,1,1,6.0000,0.0000,1.42240,-0.01024,-2.63299,1.07244,1.57080,0.11675,-0.12762,-0.48150,0.03366,,,,,,,,,,,,,,,,,,,,,,,,,,0,0,0,0,0
3.0241,1783957992.0571,1,1,6.0000,0.0000,1.42240,-0.01024,-2.63299,1.07244,1.57080,0.11675,-0.12762,-0.48150,0.03366,,,,,,,,,,,,,,,,,,,,,,,,,,0,0,0,0,0
3.0244,1783957992.0574,1,1,6.0000,0.0000,1.42240,-0.01024,-2.63299,1.07244,1.57080,0.11675,-0.12762,-0.48150,0.03366,,,,,,,,,,,,,,,,,,,,,,,,,,0,0,0,0,0
3.0332,1783957992.0662,1,1,6.0000,0.0000,1.42240,-0.01030,-2.63300,1.07251,1.57080,0.11675,-0.12762,-0.48150,0.03364,,,,,,,,,,,,,,,,,,,,,,,,,,0,0,0,0,0
3.0443,1783957992.0773,1,1,6.0000,0.0000,1.42240,-0.01034,-2.63300,1.07255,1.57080,0.11675,-0.12762,-0.48150,0.03363,,,,,,,,,,,,,,,,,,,,,,,,,,0,0,0,0,0
3.0500,1783957992.0830,1,1,6.0000,0.0000,1.42240,-0.01035,-2.63301,1.07257,1.57080,0.11675,-0.12762,-0.48150,0.03362,,,,,,,,,,,,,,,,,,,,,,,,,,0,0,0,0,0
3.0649,1783957992.0979,1,1,6.0000,0.0000,1.42240,-0.01045,-2.63303,1.07269,1.57080,0.11675,-0.12762,-0.48151,0.03359,,,,,,,,,,,,,,,,,,,,,,,,,,0,0,0,0,0
3.0736,1783957992.1066,1,1,6.0000,0.0000,1.42240,-0.01047,-2.63303,1.07272,1.57080,0.11675,-0.12762,-0.48151,0.03358,,,,,,,,,,,,,,,,,,,,,,,,,,0,0,0,0,0
3.0786,1783957992.1116,1,1,6.0000,0.0000,1.42240,-0.01050,-2.63304,1.07275,1.57080,0.11675,-0.12762,-0.48151,0.03357,,,,,,,,,,,,,,,,,,,,,,,,,,0,0,0,0,0
3.0928,1783957992.1258,1,1,6.0000,0.0000,1.42240,-0.01068,-2.63308,1.07297,1.57080,0.11675,-0.12762,-0.48150,0.03351,,,,,,,,,,,,,,,,,,,,,,,,,,0,0,0,0,0
3.0974,1783957992.1305,1,1,6.0000,0.0000,1.42240,-0.01068,-2.63308,1.07297,1.57080,0.11675,-0.12762,-0.48150,0.03351,,,,,,,,,,,,,,,,,,,,,,,,,,0,0,0,0,0
3.0979,1783957992.1309,1,1,6.0000,0.0000,1.42240,-0.01068,-2.63308,1.07297,1.57080,0.11675,-0.12762,-0.48150,0.03351,,,,,,,,,,,,,,,,,,,,,,,,,,0,0,0,0,0
3.1107,1783957992.1438,1,1,6.0000,0.0000,1.42240,-0.01072,-2.63308,1.07302,1.57080,0.11675,-0.12761,-0.48151,0.03350,,,,,,,,,,,,,,,,,,,,,,,,,,0,0,0,0,0
3.1926,1783957992.2256,1,1,6.0000,0.0000,1.42240,-0.01111,-2.63315,1.07350,1.57081,0.11675,-0.12761,-0.48152,0.03338,,,,,,,,,,,,,,,,,,,,,,,,,,0,0,0,0,0
3.1930,1783957992.2260,1,1,6.0000,0.0000,1.42240,-0.01111,-2.63315,1.07350,1.57081,0.11675,-0.12761,-0.48152,0.03338,,,,,,,,,,,,,,,,,,,,,,,,,,0,0,0,0,0
3.1935,1783957992.2265,1,1,6.0000,0.0000,1.42240,-0.01111,-2.63315,1.07350,1.57081,0.11675,-0.12761,-0.48152,0.03338,,,,,,,,,,,,,,,,,,,,,,,,,,0,0,0,0,0
3.1938,1783957992.2268,1,1,6.0000,0.0000,1.42240,-0.01111,-2.63315,1.07350,1.57081,0.11675,-0.12761,-0.48152,0.03338,,,,,,,,,,,,,,,,,,,,,,,,,,0,0,0,0,0
3.1977,1783957992.2307,1,1,6.0000,0.0000,1.42240,-0.01112,-2.63315,1.07351,1.57081,0.11675,-0.12761,-0.48152,0.03337,,,,,,,,,,,,,,,,,,,,,,,,,,0,0,0,0,0
3.1981,1783957992.2311,1,1,6.0000,0.0000,1.42240,-0.01112,-2.63315,1.07351,1.57081,0.11675,-0.12761,-0.48152,0.03337,,,,,,,,,,,,,,,,,,,,,,,,,,0,0,0,0,0
3.2128,1783957992.2458,1,1,6.0000,0.0000,1.42240,-0.01122,-2.63318,1.07363,1.57081,0.11675,-0.12761,-0.48152,0.03334,,,,,,,,,,,,,,,,,,,,,,,,,,0,0,0,0,0
3.2134,1783957992.2464,1,1,6.0000,0.0000,1.42240,-0.01122,-2.63318,1.07363,1.57081,0.11675,-0.12761,-0.48152,0.03334,,,,,,,,,,,,,,,,,,,,,,,,,,0,0,0,0,0
3.2223,1783957992.2553,1,1,6.0000,0.0000,1.42240,-0.01125,-2.63319,1.07367,1.57081,0.11675,-0.12761,-0.48151,0.03333,,,,,,,,,,,,,,,,,,,,,,,,,,0,0,0,0,0
3.2403,1783957992.2733,1,1,6.0000,0.0000,1.42240,-0.01135,-2.63321,1.07379,1.57081,0.11675,-0.12761,-0.48151,0.03329,,,,,,,,,,,,,,,,,,,,,,,,,,0,0,0,0,0
3.2405,1783957992.2735,1,1,6.0000,0.0000,1.42240,-0.01135,-2.63321,1.07379,1.57081,0.11675,-0.12761,-0.48151,0.03329,,,,,,,,,,,,,,,,,,,,,,,,,,0,0,0,0,0
3.2935,1783957992.3266,1,1,6.0000,0.0000,1.42240,-0.01171,-2.63329,1.07422,1.57081,0.11675,-0.12761,-0.48151,0.03317,,,,,,,,,,,,,,,,,,,,,,,,,,0,0,0,0,0
3.3251,1783957992.3581,1,1,6.0000,0.0000,1.42239,-0.01192,-2.63333,1.07448,1.57081,0.11675,-0.12761,-0.48151,0.03310,,,,,,,,,,,,,,,,,,,,,,,,,,0,0,0,0,0
3.3255,1783957992.3585,1,1,6.0000,0.0000,1.42239,-0.01192,-2.63333,1.07448,1.57081,0.11675,-0.12761,-0.48151,0.03310,,,,,,,,,,,,,,,,,,,,,,,,,,0,0,0,0,0
3.3260,1783957992.3590,1,1,6.0000,0.0000,1.42239,-0.01192,-2.63333,1.07448,1.57081,0.11675,-0.12761,-0.48151,0.03310,,,,,,,,,,,,,,,,,,,,,,,,,,0,0,0,0,0
3.3263,1783957992.3593,1,1,6.0000,0.0000,1.42239,-0.01192,-2.63333,1.07448,1.57081,0.11675,-0.12761,-0.48151,0.03310,,,,,,,,,,,,,,,,,,,,,,,,,,0,0,0,0,0
3.3328,1783957992.3658,1,1,6.0000,0.0000,1.42239,-0.01200,-2.63334,1.07457,1.57081,0.11675,-0.12761,-0.48152,0.03308,,,,,,,,,,,,,,,,,,,,,,,,,,0,0,0,0,0
3.3531,1783957992.3861,1,1,6.0000,0.0000,1.42239,-0.01221,-2.63336,1.07483,1.57081,0.11675,-0.12761,-0.48154,0.03302,,,,,,,,,,,,,,,,,,,,,,,,,,0,0,0,0,0
3.3611,1783957992.3941,1,1,6.0000,0.0000,1.42239,-0.01227,-2.63335,1.07491,1.57081,0.11675,-0.12760,-0.48156,0.03301,,,,,,,,,,,,,,,,,,,,,,,,,,0,0,0,0,0
3.3714,1783957992.4045,1,1,6.0000,0.0000,1.42239,-0.01230,-2.63335,1.07495,1.57081,0.11675,-0.12760,-0.48156,0.03301,,,,,,,,,,,,,,,,,,,,,,,,,,0,0,0,0,0
3.3718,1783957992.4048,1,1,6.0000,0.0000,1.42239,-0.01230,-2.63335,1.07495,1.57081,0.11675,-0.12760,-0.48156,0.03301,,,,,,,,,,,,,,,,,,,,,,,,,,0,0,0,0,0
3.3944,1783957992.4274,1,1,6.0000,0.0000,1.42239,-0.01235,-2.63337,1.07501,1.57081,0.11675,-0.12760,-0.48156,0.03298,,,,,,,,,,,,,,,,,,,,,,,,,,0,0,0,0,0
3.3947,1783957992.4278,1,1,6.0000,0.0000,1.42239,-0.01235,-2.63337,1.07501,1.57081,0.11675,-0.12760,-0.48156,0.03298,,,,,,,,,,,,,,,,,,,,,,,,,,0,0,0,0,0
3.4014,1783957992.4344,1,1,6.0000,0.0000,1.42239,-0.01236,-2.63338,1.07503,1.57081,0.11675,-0.12760,-0.48155,0.03298,,,,,,,,,,,,,,,,,,,,,,,,,,0,0,0,0,0
3.4019,1783957992.4349,1,1,6.0000,0.0000,1.42239,-0.01236,-2.63338,1.07503,1.57081,0.11675,-0.12760,-0.48155,0.03298,,,,,,,,,,,,,,,,,,,,,,,,,,0,0,0,0,0
3.4090,1783957992.4420,1,1,6.0000,0.0000,1.42239,-0.01238,-2.63339,1.07505,1.57081,0.11675,-0.12760,-0.48155,0.03297,,,,,,,,,,,,,,,,,,,,,,,,,,0,0,0,0,0
3.4093,1783957992.4424,1,1,6.0000,0.0000,1.42239,-0.01238,-2.63339,1.07505,1.57081,0.11675,-0.12760,-0.48155,0.03297,,,,,,,,,,,,,,,,,,,,,,,,,,0,0,0,0,0
3.4207,1783957992.4537,1,1,6.0000,0.0000,1.42239,-0.01243,-2.63341,1.07512,1.57081,0.11675,-0.12761,-0.48154,0.03295,,,,,,,,,,,,,,,,,,,,,,,,,,0,0,0,0,0
3.4209,1783957992.4539,1,1,6.0000,0.0000,1.42239,-0.01243,-2.63341,1.07512,1.57081,0.11675,-0.12761,-0.48154,0.03295,,,,,,,,,,,,,,,,,,,,,,,,,,0,0,0,0,0
3.4461,1783957992.4791,1,1,6.0000,0.0000,1.42239,-0.01253,-2.63344,1.07524,1.57081,0.11675,-0.12761,-0.48153,0.03291,,,,,,,,,,,,,,,,,,,,,,,,,,0,0,0,0,0
3.4465,1783957992.4795,1,1,6.0000,0.0000,1.42239,-0.01253,-2.63344,1.07524,1.57081,0.11675,-0.12761,-0.48153,0.03291,,,,,,,,,,,,,,,,,,,,,,,,,,0,0,0,0,0
3.4539,1783957992.4869,1,1,6.0000,0.0000,1.42239,-0.01262,-2.63347,1.07534,1.57081,0.11675,-0.12761,-0.48153,0.03287,,,,,,,,,,,,,,,,,,,,,,,,,,0,0,0,0,0
3.4728,1783957992.5058,1,1,6.0000,0.0000,1.42239,-0.01270,-2.63349,1.07545,1.57081,0.11675,-0.12761,-0.48153,0.03284,,,,,,,,,,,,,,,,,,,,,,,,,,0,0,0,0,0
3.4731,1783957992.5061,1,1,6.0000,0.0000,1.42239,-0.01270,-2.63349,1.07545,1.57081,0.11675,-0.12761,-0.48153,0.03284,,,,,,,,,,,,,,,,,,,,,,,,,,0,0,0,0,0
3.4925,1783957992.5255,1,1,6.0000,0.0000,1.42239,-0.01285,-2.63353,1.07562,1.57081,0.11675,-0.12761,-0.48152,0.03279,,,,,,,,,,,,,,,,,,,,,,,,,,0,0,0,0,0
3.4928,1783957992.5258,1,1,6.0000,0.0000,1.42239,-0.01285,-2.63353,1.07562,1.57081,0.11675,-0.12761,-0.48152,0.03279,,,,,,,,,,,,,,,,,,,,,,,,,,0,0,0,0,0
3.4979,1783957992.5309,1,1,6.0000,0.0000,1.42239,-0.01287,-2.63353,1.07564,1.57081,0.11675,-0.12761,-0.48152,0.03279,,,,,,,,,,,,,,,,,,,,,,,,,,0,0,0,0,0
3.5082,1783957992.5412,1,1,6.0000,0.0000,1.42239,-0.01297,-2.63356,1.07577,1.57081,0.11675,-0.12761,-0.48152,0.03275,,,,,,,,,,,,,,,,,,,,,,,,,,0,0,0,0,0
3.5085,1783957992.5415,1,1,6.0000,0.0000,1.42239,-0.01297,-2.63356,1.07577,1.57081,0.11675,-0.12761,-0.48152,0.03275,,,,,,,,,,,,,,,,,,,,,,,,,,0,0,0,0,0
3.5198,1783957992.5528,1,1,6.0000,0.0000,1.42239,-0.01302,-2.63357,1.07583,1.57081,0.11675,-0.12761,-0.48152,0.03273,,,,,,,,,,,,,,,,,,,,,,,,,,0,0,0,0,0
3.5329,1783957992.5659,1,1,6.0000,0.0000,1.42239,-0.01309,-2.63358,1.07592,1.57081,0.11675,-0.12761,-0.48152,0.03271,,,,,,,,,,,,,,,,,,,,,,,,,,0,0,0,0,0
3.5423,1783957992.5753,1,1,6.0000,0.0000,1.42239,-0.01317,-2.63360,1.07601,1.57081,0.11675,-0.12761,-0.48152,0.03269,,,,,,,,,,,,,,,,,,,,,,,,,,0,0,0,0,0
3.5519,1783957992.5849,1,1,6.0000,0.0000,1.42239,-0.01330,-2.63362,1.07618,1.57081,0.11675,-0.12761,-0.48153,0.03264,,,,,,,,,,,,,,,,,,,,,,,,,,0,0,0,0,0
3.5582,1783957992.5913,1,1,6.0000,0.0000,1.42239,-0.01335,-2.63363,1.07623,1.57081,0.11675,-0.12761,-0.48153,0.03263,,,,,,,,,,,,,,,,,,,,,,,,,,0,0,0,0,0
3.5756,1783957992.6086,1,1,6.0000,0.0000,1.42239,-0.01350,-2.63364,1.07642,1.57081,0.11675,-0.12760,-0.48155,0.03259,,,,,,,,,,,,,,,,,,,,,,,,,,0,0,0,0,0
3.5811,1783957992.6141,1,1,6.0000,0.0000,1.42239,-0.01350,-2.63364,1.07642,1.57081,0.11675,-0.12760,-0.48155,0.03259,,,,,,,,,,,,,,,,,,,,,,,,,,0,0,0,0,0
3.5918,1783957992.6248,1,1,6.0000,0.0000,1.42239,-0.01351,-2.63364,1.07644,1.57081,0.11675,-0.12760,-0.48155,0.03259,,,,,,,,,,,,,,,,,,,,,,,,,,0,0,0,0,0
3.5998,1783957992.6328,1,1,6.0000,0.0000,1.42239,-0.01354,-2.63365,1.07647,1.57081,0.11675,-0.12760,-0.48155,0.03258,,,,,,,,,,,,,,,,,,,,,,,,,,0,0,0,0,0
3.6076,1783957992.6406,1,1,6.0000,0.0000,1.42239,-0.01357,-2.63366,1.07651,1.57081,0.11675,-0.12760,-0.48154,0.03256,,,,,,,,,,,,,,,,,,,,,,,,,,0,0,0,0,0
3.6080,1783957992.6410,1,1,6.0000,0.0000,1.42239,-0.01357,-2.63366,1.07651,1.57081,0.11675,-0.12760,-0.48154,0.03256,,,,,,,,,,,,,,,,,,,,,,,,,,0,0,0,0,0
3.6648,1783957992.6978,1,1,6.0000,0.0000,1.42239,-0.01385,-2.63375,1.07686,1.57081,0.11675,-0.12761,-0.48152,0.03246,,,,,,,,,,,,,,,,,,,,,,,,,,0,0,0,0,0
3.6655,1783957992.6985,1,1,6.0000,0.0000,1.42239,-0.01385,-2.63375,1.07686,1.57081,0.11675,-0.12761,-0.48152,0.03246,,,,,,,,,,,,,,,,,,,,,,,,,,0,0,0,0,0
3.6702,1783957992.7032,1,1,6.0000,0.0000,1.42239,-0.01389,-2.63376,1.07690,1.57081,0.11675,-0.12761,-0.48152,0.03244,,,,,,,,,,,,,,,,,,,,,,,,,,0,0,0,0,0
3.6911,1783957992.7241,1,1,6.0000,0.0000,1.42239,-0.01396,-2.63377,1.07698,1.57081,0.11675,-0.12761,-0.48152,0.03242,,,,,,,,,,,,,,,,,,,,,,,,,,0,0,0,0,0
3.6997,1783957992.7327,1,1,6.0000,0.0000,1.42239,-0.01400,-2.63378,1.07704,1.57081,0.11675,-0.12761,-0.48152,0.03241,,,,,,,,,,,,,,,,,,,,,,,,,,0,0,0,0,0
3.7038,1783957992.7368,1,1,6.0000,0.0000,1.42239,-0.01402,-2.63379,1.07706,1.57081,0.11675,-0.12761,-0.48152,0.03240,,,,,,,,,,,,,,,,,,,,,,,,,,0,0,0,0,0
3.7093,1783957992.7423,1,1,6.0000,0.0000,1.42239,-0.01405,-2.63379,1.07709,1.57081,0.11675,-0.12761,-0.48152,0.03239,,,,,,,,,,,,,,,,,,,,,,,,,,0,0,0,0,0
3.7225,1783957992.7555,1,1,6.0000,0.0000,1.42239,-0.01417,-2.63382,1.07724,1.57081,0.11675,-0.12761,-0.48152,0.03235,,,,,,,,,,,,,,,,,,,,,,,,,,0,0,0,0,0
3.7339,1783957992.7669,1,1,6.0000,0.0000,1.42239,-0.01423,-2.63383,1.07731,1.57081,0.11675,-0.12761,-0.48152,0.03233,,,,,,,,,,,,,,,,,,,,,,,,,,0,0,0,0,0
3.7379,1783957992.7709,1,1,6.0000,0.0000,1.42239,-0.01424,-2.63384,1.07732,1.57081,0.11675,-0.12761,-0.48152,0.03232,,,,,,,,,,,,,,,,,,,,,,,,,,0,0,0,0,0
3.7602,1783957992.7932,1,1,6.0000,0.0000,1.42239,-0.01445,-2.63387,1.07757,1.57081,0.11675,-0.12760,-0.48152,0.03226,,,,,,,,,,,,,,,,,,,,,,,,,,0,0,0,0,0
3.7606,1783957992.7936,1,1,6.0000,0.0000,1.42239,-0.01445,-2.63387,1.07757,1.57081,0.11675,-0.12760,-0.48152,0.03226,,,,,,,,,,,,,,,,,,,,,,,,,,0,0,0,0,0
3.7694,1783957992.8024,1,1,6.0000,0.0000,1.42239,-0.01453,-2.63388,1.07767,1.57081,0.11675,-0.12760,-0.48153,0.03223,,,,,,,,,,,,,,,,,,,,,,,,,,0,0,0,0,0
3.7698,1783957992.8028,1,1,6.0000,0.0000,1.42239,-0.01453,-2.63388,1.07767,1.57081,0.11675,-0.12760,-0.48153,0.03223,,,,,,,,,,,,,,,,,,,,,,,,,,0,0,0,0,0
3.7856,1783957992.8186,1,1,6.0000,0.0000,1.42238,-0.01464,-2.63389,1.07781,1.57081,0.11675,-0.12760,-0.48154,0.03220,,,,,,,,,,,,,,,,,,,,,,,,,,0,0,0,0,0
3.8113,1783957992.8443,1,1,6.0000,0.0000,1.42238,-0.01471,-2.63391,1.07789,1.57081,0.11675,-0.12760,-0.48154,0.03218,,,,,,,,,,,,,,,,,,,,,,,,,,0,0,0,0,0
3.8117,1783957992.8447,1,1,6.0000,0.0000,1.42238,-0.01473,-2.63391,1.07792,1.57081,0.11675,-0.12760,-0.48154,0.03217,,,,,,,,,,,,,,,,,,,,,,,,,,0,0,0,0,0
3.8296,1783957992.8627,1,1,6.0000,0.0000,1.42238,-0.01475,-2.63392,1.07795,1.57081,0.11675,-0.12760,-0.48154,0.03216,,,,,,,,,,,,,,,,,,,,,,,,,,0,0,0,0,0
3.8341,1783957992.8671,1,1,6.0000,0.0000,1.42238,-0.01477,-2.63393,1.07797,1.57081,0.11675,-0.12760,-0.48153,0.03216,,,,,,,,,,,,,,,,,,,,,,,,,,0,0,0,0,0
3.8344,1783957992.8674,1,1,6.0000,0.0000,1.42238,-0.01477,-2.63393,1.07797,1.57081,0.11675,-0.12760,-0.48153,0.03216,,,,,,,,,,,,,,,,,,,,,,,,,,0,0,0,0,0
3.8382,1783957992.8712,1,1,6.0000,0.0000,1.42238,-0.01479,-2.63394,1.07799,1.57081,0.11675,-0.12760,-0.48153,0.03215,,,,,,,,,,,,,,,,,,,,,,,,,,0,0,0,0,0
3.8386,1783957992.8716,1,1,6.0000,0.0000,1.42238,-0.01479,-2.63394,1.07799,1.57081,0.11675,-0.12760,-0.48153,0.03215,,,,,,,,,,,,,,,,,,,,,,,,,,0,0,0,0,0
3.8477,1783957992.8807,1,1,6.0000,0.0000,1.42238,-0.01487,-2.63396,1.07809,1.57081,0.11674,-0.12760,-0.48153,0.03212,,,,,,,,,,,,,,,,,,,,,,,,,,0,0,0,0,0
3.8480,1783957992.8810,1,1,6.0000,0.0000,1.42238,-0.01487,-2.63396,1.07809,1.57081,0.11674,-0.12760,-0.48153,0.03212,,,,,,,,,,,,,,,,,,,,,,,,,,0,0,0,0,0
3.8582,1783957992.8912,1,1,6.0000,0.0000,1.42238,-0.01487,-2.63396,1.07809,1.57081,0.11674,-0.12760,-0.48153,0.03212,,,,,,,,,,,,,,,,,,,,,,,,,,0,0,0,0,0
3.8693,1783957992.9023,1,1,6.0000,0.0000,1.42238,-0.01493,-2.63397,1.07816,1.57081,0.11674,-0.12760,-0.48152,0.03210,,,,,,,,,,,,,,,,,,,,,,,,,,0,0,0,0,0
3.8884,1783957992.9215,1,1,6.0000,0.0000,1.42238,-0.01501,-2.63399,1.07826,1.57081,0.11674,-0.12760,-0.48152,0.03207,,,,,,,,,,,,,,,,,,,,,,,,,,0,0,0,0,0
3.8979,1783957992.9310,1,1,6.0000,0.0000,1.42238,-0.01509,-2.63401,1.07835,1.57081,0.11674,-0.12760,-0.48152,0.03204,,,,,,,,,,,,,,,,,,,,,,,,,,0,0,0,0,0
3.8984,1783957992.9315,1,1,6.0000,0.0002,1.42238,-0.01509,-2.63401,1.07835,1.57081,0.11674,-0.12760,-0.48152,0.03204,,,,,,,,,,,,,,,,,,,,,,,,,,0,0,0,0,0
3.9008,1783957992.9338,1,1,6.0000,0.0003,1.42238,-0.01514,-2.63402,1.07842,1.57081,0.11674,-0.12760,-0.48152,0.03202,,,,,,,,,,,,,,,,,,,,,,,,,,0,0,0,0,0
3.9089,1783957992.9419,1,1,6.0000,0.0002,1.42238,-0.01519,-2.63404,1.07848,1.57081,0.11674,-0.12760,-0.48152,0.03201,,,,,,,,,,,,,,,,,,,,,,,,,,0,0,0,0,0
3.9199,1783957992.9529,1,1,6.0000,0.0002,1.42238,-0.01524,-2.63405,1.07854,1.57081,0.11674,-0.12760,-0.48152,0.03199,,,,,,,,,,,,,,,,,,,,,,,,,,0,0,0,0,0
3.9203,1783957992.9534,1,1,6.0000,0.0002,1.42238,-0.01524,-2.63405,1.07854,1.57081,0.11674,-0.12760,-0.48152,0.03199,,,,,,,,,,,,,,,,,,,,,,,,,,0,0,0,0,0
3.9324,1783957992.9654,1,1,6.0000,0.0001,1.42238,-0.01537,-2.63407,1.07869,1.57081,0.11674,-0.12760,-0.48152,0.03195,,,,,,,,,,,,,,,,,,,,,,,,,,0,0,0,0,0
3.9328,1783957992.9658,1,1,6.0000,0.0001,1.42238,-0.01537,-2.63407,1.07869,1.57081,0.11674,-0.12760,-0.48152,0.03195,,,,,,,,,,,,,,,,,,,,,,,,,,0,0,0,0,0
3.9406,1783957992.9736,1,1,6.0000,0.0001,1.42238,-0.01542,-2.63409,1.07875,1.57081,0.11674,-0.12760,-0.48152,0.03193,,,,,,,,,,,,,,,,,,,,,,,,,,0,0,0,0,0
3.9481,1783957992.9811,1,1,6.0000,0.0001,1.42238,-0.01543,-2.63409,1.07877,1.57081,0.11674,-0.12760,-0.48152,0.03192,,,,,,,,,,,,,,,,,,,,,,,,,,0,0,0,0,0
3.9579,1783957992.9909,1,1,6.0000,0.0001,1.42238,-0.01548,-2.63410,1.07883,1.57081,0.11674,-0.12760,-0.48152,0.03191,,,,,,,,,,,,,,,,,,,,,,,,,,0,0,0,0,0
3.9716,1783957993.0046,1,1,6.0000,0.0000,1.42238,-0.01564,-2.63412,1.07902,1.57081,0.11674,-0.12760,-0.48153,0.03186,,,,,,,,,,,,,,,,,,,,,,,,,,0,0,0,0,0
3.9719,1783957993.0049,1,1,6.0000,0.0000,1.42238,-0.01564,-2.63412,1.07902,1.57081,0.11674,-0.12760,-0.48153,0.03186,,,,,,,,,,,,,,,,,,,,,,,,,,0,0,0,0,0
3.9876,1783957993.0206,1,1,6.0000,0.0000,1.42238,-0.01580,-2.63415,1.07922,1.57081,0.11674,-0.12760,-0.48154,0.03181,,,,,,,,,,,,,,,,,,,,,,,,,,0,0,0,0,0
3.9879,1783957993.0209,1,1,6.0000,0.0000,1.42238,-0.01580,-2.63415,1.07922,1.57081,0.11674,-0.12760,-0.48154,0.03181,,,,,,,,,,,,,,,,,,,,,,,,,,0,0,0,0,0
3.9885,1783957993.0215,1,1,6.0000,0.0000,1.42238,-0.01580,-2.63415,1.07922,1.57081,0.11674,-0.12760,-0.48154,0.03181,,,,,,,,,,,,,,,,,,,,,,,,,,0,0,0,0,0
3.9996,1783957993.0326,1,1,6.0000,0.0000,1.42238,-0.01584,-2.63415,1.07926,1.57081,0.11674,-0.12760,-0.48154,0.03180,,,,,,,,,,,,,,,,,,,,,,,,,,0,0,0,0,0
4.0089,1783957993.0419,1,1,6.0000,0.1610,1.42238,-0.01585,-2.63415,1.07928,1.57081,0.11674,-0.12760,-0.48154,0.03180,,,,,,,,,,,,,,,,,,,,,,,,,,0,0,0,0,0
4.0197,1783957993.0527,1,1,6.0000,0.9641,1.42238,-0.01589,-2.63415,1.07933,1.57082,0.11674,-0.12760,-0.48155,0.03179,,,,,,,,,,,,,,,,,,,,,,,,,,0,0,0,0,0
4.1267,1783957993.1597,1,1,6.0000,3.3902,1.42238,-0.01638,-2.63428,1.07992,1.57082,0.11674,-0.12760,-0.48152,0.03161,,,,,,,,,,,,,,,,,,,,,,,,,,0,0,0,0,0
4.1340,1783957993.1670,1,1,6.0000,3.0053,1.42238,-0.01642,-2.63429,1.07997,1.57082,0.11674,-0.12760,-0.48152,0.03160,,,,,,,,,,,,,,,,,,,,,,,,,,0,0,0,0,0
4.1535,1783957993.1865,1,1,6.0000,2.8247,1.42238,-0.01652,-2.63432,1.08009,1.57082,0.11674,-0.12760,-0.48152,0.03156,,,,,,,,,,,,,,,,,,,,,,,,,,0,0,0,0,0
4.1539,1783957993.1869,1,1,6.0000,2.8484,1.42238,-0.01652,-2.63432,1.08009,1.57082,0.11674,-0.12760,-0.48152,0.03156,,,,,,,,,,,,,,,,,,,,,,,,,,0,0,0,0,0
4.1542,1783957993.1872,1,1,6.0000,2.8601,1.42238,-0.01652,-2.63432,1.08009,1.57082,0.11674,-0.12760,-0.48152,0.03156,,,,,,,,,,,,,,,,,,,,,,,,,,0,0,0,0,0
4.1586,1783957993.1916,1,1,6.0000,2.9651,1.42238,-0.01655,-2.63432,1.08012,1.57082,0.11674,-0.12760,-0.48152,0.03155,,,,,,,,,,,,,,,,,,,,,,,,,,0,0,0,0,0
4.1589,1783957993.1920,1,1,6.0000,3.0469,1.42238,-0.01655,-2.63432,1.08012,1.57082,0.11674,-0.12760,-0.48152,0.03155,,,,,,,,,,,,,,,,,,,,,,,,,,0,0,0,0,0
4.1710,1783957993.2040,1,1,6.0000,3.3910,1.42238,-0.01668,-2.63435,1.08028,1.57082,0.11674,-0.12760,-0.48152,0.03151,,,,,,,,,,,,,,,,,,,,,,,,,,0,0,0,0,0
4.1797,1783957993.2128,1,1,6.0000,3.3971,1.42238,-0.01674,-2.63436,1.08034,1.57082,0.11674,-0.12760,-0.48152,0.03149,,,,,,,,,,,,,,,,,,,,,,,,,,0,0,0,0,0
4.1918,1783957993.2248,1,1,6.0000,3.1314,1.42238,-0.01679,-2.63436,1.08041,1.57082,0.11674,-0.12760,-0.48153,0.03148,,,,,,,,,,,,,,,,,,,,,,,,,,0,0,0,0,0
4.2039,1783957993.2369,1,1,6.0000,2.3691,1.42238,-0.01689,-2.63436,1.08053,1.57082,0.11674,-0.12759,-0.48155,0.03145,,,,,,,,,,,,,,,,,,,,,,,,,,0,0,0,0,0
4.2086,1783957993.2416,1,1,6.0000,2.1776,1.42238,-0.01693,-2.63436,1.08058,1.57082,0.11674,-0.12759,-0.48155,0.03145,,,,,,,,,,,,,,,,,,,,,,,,,,0,0,0,0,0
4.2088,1783957993.2418,1,1,6.0000,2.1795,1.42238,-0.01693,-2.63436,1.08058,1.57082,0.11674,-0.12759,-0.48155,0.03145,,,,,,,,,,,,,,,,,,,,,,,,,,0,0,0,0,0
4.2180,1783957993.2510,1,1,6.0000,2.2776,1.42238,-0.01699,-2.63435,1.08066,1.57082,0.11674,-0.12759,-0.48157,0.03143,,,,,,,,,,,,,,,,,,,,,,,,,,0,0,0,0,0
4.2278,1783957993.2608,1,1,6.0000,2.3722,1.42238,-0.01707,-2.63433,1.08075,1.57082,0.11674,-0.12759,-0.48160,0.03142,,,,,,,,,,,,,,,,,,,,,,,,,,0,0,0,0,0
4.2281,1783957993.2612,1,1,6.0000,2.5509,1.42238,-0.01707,-2.63433,1.08075,1.57082,0.11674,-0.12759,-0.48160,0.03142,,,,,,,,,,,,,,,,,,,,,,,,,,0,0,0,0,0
4.2387,1783957993.2717,1,1,6.0000,3.1036,1.42238,-0.01709,-2.63430,1.08078,1.57082,0.11674,-0.12758,-0.48162,0.03143,,,,,,,,,,,,,,,,,,,,,,,,,,0,0,0,0,0
4.2488,1783957993.2818,1,1,6.0000,3.2937,1.42238,-0.01709,-2.63430,1.08078,1.57082,0.11674,-0.12758,-0.48162,0.03143,,,,,,,,,,,,,,,,,,,,,,,,,,0,0,0,0,0
4.2578,1783957993.2908,1,1,6.0000,3.1506,1.42238,-0.01709,-2.63430,1.08078,1.57082,0.11674,-0.12758,-0.48162,0.03143,,,,,,,,,,,,,,,,,,,,,,,,,,0,0,0,0,0
4.2679,1783957993.3009,1,1,6.0000,3.0460,1.42238,-0.01709,-2.63430,1.08078,1.57082,0.11674,-0.12758,-0.48162,0.03143,,,,,,,,,,,,,,,,,,,,,,,,,,0,0,0,0,0
4.2682,1783957993.3012,1,1,6.0000,2.8685,1.42238,-0.01709,-2.63430,1.08078,1.57082,0.11674,-0.12758,-0.48162,0.03143,,,,,,,,,,,,,,,,,,,,,,,,,,0,0,0,0,0
4.2789,1783957993.3119,1,1,6.0000,2.2234,1.42238,-0.01709,-2.63430,1.08078,1.57082,0.11674,-0.12758,-0.48162,0.03143,,,,,,,,,,,,,,,,,,,,,,,,,,0,0,0,0,0
4.2936,1783957993.3266,1,1,6.0000,2.2109,1.42238,-0.01709,-2.63430,1.08078,1.57082,0.11674,-0.12758,-0.48162,0.03143,,,,,,,,,,,,,,,,,,,,,,,,,,0,0,0,0,0
4.2985,1783957993.3315,1,1,6.0000,2.3843,1.42238,-0.01709,-2.63430,1.08078,1.57082,0.11674,-0.12758,-0.48162,0.03143,,,,,,,,,,,,,,,,,,,,,,,,,,0,0,0,0,0
4.3095,1783957993.3425,1,1,6.0000,2.6898,1.42238,-0.01709,-2.63430,1.08078,1.57082,0.11674,-0.12758,-0.48162,0.03143,,,,,,,,,,,,,,,,,,,,,,,,,,0,0,0,0,0
4.3176,1783957993.3507,1,1,6.0000,2.9099,1.42238,-0.01709,-2.63430,1.08078,1.57082,0.11674,-0.12758,-0.48162,0.03143,,,,,,,,,,,,,,,,,,,,,,,,,,0,0,0,0,0
4.3180,1783957993.3510,1,1,6.0000,3.0808,1.42238,-0.01709,-2.63430,1.08078,1.57082,0.11674,-0.12758,-0.48162,0.03143,,,,,,,,,,,,,,,,,,,,,,,,,,0,0,0,0,0
4.3612,1783957993.3942,1,1,6.0000,3.1359,1.42238,-0.01709,-2.63430,1.08078,1.57082,0.11674,-0.12758,-0.48162,0.03143,,,,,,,,,,,,,,,,,,,,,,,,,,0,0,0,0,0
4.3642,1783957993.3973,1,1,6.0000,2.7954,1.42238,-0.01709,-2.63430,1.08078,1.57082,0.11674,-0.12758,-0.48162,0.03143,,,,,,,,,,,,,,,,,,,,,,,,,,0,0,0,0,0
4.3646,1783957993.3976,1,1,6.0000,2.6695,1.42238,-0.01709,-2.63430,1.08078,1.57082,0.11674,-0.12758,-0.48162,0.03143,,,,,,,,,,,,,,,,,,,,,,,,,,0,0,0,0,0
4.3651,1783957993.3981,1,1,6.0000,2.4059,1.42238,-0.01709,-2.63430,1.08078,1.57082,0.11674,-0.12758,-0.48162,0.03143,,,,,,,,,,,,,,,,,,,,,,,,,,0,0,0,0,0
4.3686,1783957993.4016,1,1,6.0000,2.4179,1.42238,-0.01709,-2.63430,1.08078,1.57082,0.11674,-0.12758,-0.48162,0.03143,,,,,,,,,,,,,,,,,,,,,,,,,,0,0,0,0,0
4.3779,1783957993.4109,1,1,6.0000,2.5684,1.42238,-0.01709,-2.63430,1.08078,1.57082,0.11674,-0.12758,-0.48162,0.03143,,,,,,,,,,,,,,,,,,,,,,,,,,0,0,0,0,0
4.3901,1783957993.4231,1,1,6.0000,2.9150,1.42238,-0.01709,-2.63430,1.08078,1.57082,0.11674,-0.12758,-0.48162,0.03143,,,,,,,,,,,,,,,,,,,,,,,,,,0,0,0,0,0
4.3980,1783957993.4310,1,1,6.0000,3.1441,1.42238,-0.01709,-2.63430,1.08078,1.57082,0.11674,-0.12758,-0.48162,0.03143,,,,,,,,,,,,,,,,,,,,,,,,,,0,0,0,0,0
4.4087,1783957993.4417,1,1,6.0000,3.0844,1.42238,-0.01709,-2.63430,1.08078,1.57082,0.11674,-0.12758,-0.48162,0.03143,,,,,,,,,,,,,,,,,,,,,,,,,,0,0,0,0,0
4.4091,1783957993.4421,1,1,6.0000,3.0453,1.42238,-0.01709,-2.63430,1.08078,1.57082,0.11674,-0.12758,-0.48162,0.03143,,,,,,,,,,,,,,,,,,,,,,,,,,0,0,0,0,0
4.4196,1783957993.4527,1,1,6.0000,3.0004,1.42238,-0.01709,-2.63430,1.08078,1.57082,0.11674,-0.12758,-0.48162,0.03143,,,,,,,,,,,,,,,,,,,,,,,,,,0,0,0,0,0
4.4200,1783957993.4530,1,1,6.0000,2.8786,1.42238,-0.01709,-2.63430,1.08078,1.57082,0.11674,-0.12758,-0.48162,0.03143,,,,,,,,,,,,,,,,,,,,,,,,,,0,0,0,0,0
4.4529,1783957993.4859,1,1,6.0000,2.6877,1.42238,-0.01709,-2.63430,1.08078,1.57082,0.11674,-0.12758,-0.48162,0.03143,,,,,,,,,,,,,,,,,,,,,,,,,,0,0,0,0,0
4.4532,1783957993.4862,1,1,6.0000,2.4595,1.42238,-0.01709,-2.63430,1.08078,1.57082,0.11674,-0.12758,-0.48162,0.03143,,,,,,,,,,,,,,,,,,,,,,,,,,0,0,0,0,0
4.4536,1783957993.4866,1,1,6.0000,2.5247,1.42238,-0.01709,-2.63430,1.08078,1.57082,0.11674,-0.12758,-0.48162,0.03143,,,,,,,,,,,,,,,,,,,,,,,,,,0,0,0,0,0
4.4539,1783957993.4869,1,1,6.0000,2.5400,1.42238,-0.01709,-2.63430,1.08078,1.57082,0.11674,-0.12758,-0.48162,0.03143,,,,,,,,,,,,,,,,,,,,,,,,,,0,0,0,0,0
4.4762,1783957993.5092,1,1,6.0000,2.7004,1.42238,-0.01709,-2.63430,1.08078,1.57082,0.11674,-0.12758,-0.48162,0.03143,,,,,,,,,,,,,,,,,,,,,,,,,,0,0,0,0,0
4.4766,1783957993.5097,1,1,6.0000,2.8768,1.42238,-0.01709,-2.63430,1.08078,1.57082,0.11674,-0.12758,-0.48162,0.03143,,,,,,,,,,,,,,,,,,,,,,,,,,0,0,0,0,0
4.5198,1783957993.5528,1,1,6.0000,2.9367,1.42238,-0.01709,-2.63430,1.08078,1.57082,0.11674,-0.12758,-0.48162,0.03143,,,,,,,,,,,,,,,,,,,,,,,,,,0,0,0,0,0
4.5201,1783957993.5531,1,1,6.0000,2.9044,1.42238,-0.01709,-2.63430,1.08078,1.57082,0.11674,-0.12758,-0.48162,0.03143,,,,,,,,,,,,,,,,,,,,,,,,,,0,0,0,0,0
4.5205,1783957993.5535,1,1,6.0000,2.7020,1.42238,-0.01709,-2.63430,1.08078,1.57082,0.11674,-0.12758,-0.48162,0.03143,,,,,,,,,,,,,,,,,,,,,,,,,,0,0,0,0,0
4.5208,1783957993.5538,1,1,6.0000,2.4925,1.42238,-0.01709,-2.63430,1.08078,1.57082,0.11674,-0.12758,-0.48162,0.03143,,,,,,,,,,,,,,,,,,,,,,,,,,0,0,0,0,0
4.5300,1783957993.5630,1,1,6.0000,2.5389,1.42238,-0.01709,-2.63430,1.08078,1.57082,0.11674,-0.12758,-0.48162,0.03143,,,,,,,,,,,,,,,,,,,,,,,,,,0,0,0,0,0
4.5303,1783957993.5633,1,1,6.0000,2.5925,1.42238,-0.01709,-2.63430,1.08078,1.57082,0.11674,-0.12758,-0.48162,0.03143,,,,,,,,,,,,,,,,,,,,,,,,,,0,0,0,0,0
4.5532,1783957993.5863,1,1,6.0000,2.7809,1.42238,-0.01709,-2.63430,1.08078,1.57082,0.11674,-0.12758,-0.48162,0.03143,,,,,,,,,,,,,,,,,,,,,,,,,,0,0,0,0,0
4.5591,1783957993.5921,1,1,6.0000,2.9250,1.42238,-0.01709,-2.63430,1.08078,1.57082,0.11674,-0.12758,-0.48162,0.03143,,,,,,,,,,,,,,,,,,,,,,,,,,0,0,0,0,0
4.5706,1783957993.6036,1,1,6.0000,2.8553,1.42238,-0.01709,-2.63430,1.08078,1.57082,0.11674,-0.12758,-0.48162,0.03143,,,,,,,,,,,,,,,,,,,,,,,,,,0,0,0,0,0
4.5709,1783957993.6039,1,1,6.0000,2.7410,1.42238,-0.01709,-2.63430,1.08078,1.57082,0.11674,-0.12758,-0.48162,0.03143,,,,,,,,,,,,,,,,,,,,,,,,,,0,0,0,0,0
4.5796,1783957993.6127,1,1,6.0000,2.5405,1.42238,-0.01709,-2.63430,1.08078,1.57082,0.11674,-0.12758,-0.48162,0.03143,,,,,,,,,,,,,,,,,,,,,,,,,,0,0,0,0,0
4.5883,1783957993.6213,1,1,6.0000,2.4676,1.42238,-0.01709,-2.63430,1.08078,1.57082,0.11674,-0.12758,-0.48162,0.03143,,,,,,,,,,,,,,,,,,,,,,,,,,0,0,0,0,0
4.5886,1783957993.6216,1,1,6.0000,2.4474,1.42238,-0.01709,-2.63430,1.08078,1.57082,0.11674,-0.12758,-0.48162,0.03143,,,,,,,,,,,,,,,,,,,,,,,,,,0,0,0,0,0
4.5978,1783957993.6308,1,1,6.0000,2.5118,1.42238,-0.01709,-2.63430,1.08078,1.57082,0.11674,-0.12758,-0.48162,0.03143,,,,,,,,,,,,,,,,,,,,,,,,,,0,0,0,0,0
4.6147,1783957993.6477,1,1,6.0000,2.6182,1.42238,-0.01709,-2.63430,1.08078,1.57082,0.11674,-0.12758,-0.48162,0.03143,,,,,,,,,,,,,,,,,,,,,,,,,,0,0,0,0,0
4.6238,1783957993.6568,1,1,6.0000,2.7892,1.42238,-0.01709,-2.63430,1.08078,1.57082,0.11674,-0.12758,-0.48162,0.03143,,,,,,,,,,,,,,,,,,,,,,,,,,0,0,0,0,0
4.6285,1783957993.6615,1,1,6.0000,2.8359,1.42238,-0.01709,-2.63430,1.08078,1.57082,0.11674,-0.12758,-0.48162,0.03143,,,,,,,,,,,,,,,,,,,,,,,,,,0,0,0,0,0
4.6608,1783957993.6939,1,1,6.0000,2.7497,1.42238,-0.01709,-2.63430,1.08078,1.57082,0.11674,-0.12758,-0.48162,0.03143,,,,,,,,,,,,,,,,,,,,,,,,,,0,0,0,0,0
4.6611,1783957993.6941,1,1,6.0000,2.5071,1.42238,-0.01709,-2.63430,1.08078,1.57082,0.11674,-0.12758,-0.48162,0.03143,,,,,,,,,,,,,,,,,,,,,,,,,,0,0,0,0,0
4.6678,1783957993.7008,1,1,6.0000,2.4325,1.42238,-0.01709,-2.63431,1.08078,1.57082,0.11674,-0.12758,-0.48162,0.03143,,,,,,,,,,,,,,,,,,,,,,,,,,0,0,0,0,0
4.6682,1783957993.7012,1,1,6.0000,2.4476,1.42238,-0.01709,-2.63431,1.08078,1.57082,0.11674,-0.12758,-0.48162,0.03143,,,,,,,,,,,,,,,,,,,,,,,,,,0,0,0,0,0
4.6775,1783957993.7105,1,1,6.0000,2.5186,1.42238,-0.01709,-2.63433,1.08078,1.57082,0.11674,-0.12759,-0.48160,0.03142,,,,,,,,,,,,,,,,,,,,,,,,,,0,0,0,0,0
4.6780,1783957993.7110,1,1,6.0000,2.5432,1.42238,-0.01709,-2.63433,1.08078,1.57082,0.11674,-0.12759,-0.48160,0.03142,,,,,,,,,,,,,,,,,,,,,,,,,,0,0,0,0,0
4.6921,1783957993.7251,1,1,6.0000,2.6071,1.42238,-0.01709,-2.63437,1.08078,1.57082,0.11674,-0.12759,-0.48157,0.03140,,,,,,,,,,,,,,,,,,,,,,,,,,0,0,0,0,0
4.6924,1783957993.7255,1,1,6.0000,2.6613,1.42238,-0.01709,-2.63437,1.08078,1.57082,0.11674,-0.12759,-0.48157,0.03140,,,,,,,,,,,,,,,,,,,,,,,,,,0,0,0,0,0
4.7011,1783957993.7341,1,1,6.0000,2.7449,1.42238,-0.01709,-2.63439,1.08078,1.57082,0.11674,-0.12759,-0.48155,0.03139,,,,,,,,,,,,,,,,,,,,,,,,,,0,0,0,0,0
4.7014,1783957993.7344,1,1,6.0000,2.7856,1.42238,-0.01709,-2.63439,1.08078,1.57082,0.11674,-0.12759,-0.48155,0.03139,,,,,,,,,,,,,,,,,,,,,,,,,,0,0,0,0,0
4.7199,1783957993.7529,1,1,6.0000,2.7495,1.42238,-0.01708,-2.63443,1.08078,1.57082,0.11674,-0.12760,-0.48153,0.03138,,,,,,,,,,,,,,,,,,,,,,,,,,0,0,0,0,0
4.7222,1783957993.7552,1,1,6.0000,2.7153,1.42238,-0.01708,-2.63443,1.08078,1.57082,0.11674,-0.12760,-0.48153,0.03138,,,,,,,,,,,,,,,,,,,,,,,,,,0,0,0,0,0
4.7298,1783957993.7628,1,1,6.0000,2.6092,1.42238,-0.01708,-2.63443,1.08078,1.57082,0.11674,-0.12760,-0.48153,0.03138,,,,,,,,,,,,,,,,,,,,,,,,,,0,0,0,0,0
4.7637,1783957993.7967,1,1,6.0000,2.4964,1.42238,-0.01708,-2.63443,1.08078,1.57082,0.11674,-0.12760,-0.48153,0.03138,,,,,,,,,,,,,,,,,,,,,,,,,,0,0,0,0,0
4.7640,1783957993.7970,1,1,6.0000,2.5111,1.42238,-0.01708,-2.63443,1.08078,1.57082,0.11674,-0.12760,-0.48153,0.03138,,,,,,,,,,,,,,,,,,,,,,,,,,0,0,0,0,0
4.7642,1783957993.7973,1,1,6.0000,2.6044,1.42238,-0.01708,-2.63443,1.08078,1.57082,0.11674,-0.12760,-0.48153,0.03138,,,,,,,,,,,,,,,,,,,,,,,,,,0,0,0,0,0
4.7690,1783957993.8020,1,1,6.0000,2.7156,1.42238,-0.01708,-2.63443,1.08078,1.57082,0.11674,-0.12760,-0.48153,0.03138,,,,,,,,,,,,,,,,,,,,,,,,,,0,0,0,0,0
4.7777,1783957993.8108,1,1,6.0000,2.7485,1.42238,-0.01708,-2.63443,1.08078,1.57082,0.11674,-0.12760,-0.48153,0.03138,,,,,,,,,,,,,,,,,,,,,,,,,,0,0,0,0,0
4.8223,1783957993.8553,1,1,6.0000,2.7175,1.42238,-0.01708,-2.63443,1.08078,1.57082,0.11674,-0.12760,-0.48153,0.03138,,,,,,,,,,,,,,,,,,,,,,,,,,0,0,0,0,0
4.8226,1783957993.8556,1,1,6.0000,2.5644,1.42238,-0.01708,-2.63443,1.08078,1.57082,0.11674,-0.12760,-0.48153,0.03138,,,,,,,,,,,,,,,,,,,,,,,,,,0,0,0,0,0
4.8230,1783957993.8560,1,1,6.0000,2.5012,1.42238,-0.01708,-2.63443,1.08078,1.57082,0.11674,-0.12760,-0.48153,0.03138,,,,,,,,,,,,,,,,,,,,,,,,,,0,0,0,0,0
4.8319,1783957993.8649,1,1,6.0000,2.4707,1.42238,-0.01708,-2.63443,1.08078,1.57082,0.11674,-0.12760,-0.48153,0.03138,,,,,,,,,,,,,,,,,,,,,,,,,,0,0,0,0,0
4.8322,1783957993.8652,1,1,6.0000,2.5327,1.42238,-0.01708,-2.63443,1.08078,1.57082,0.11674,-0.12760,-0.48153,0.03138,,,,,,,,,,,,,,,,,,,,,,,,,,0,0,0,0,0
4.8692,1783957993.9022,1,1,6.0000,2.6318,1.42238,-0.01708,-2.63443,1.08078,1.57082,0.11674,-0.12760,-0.48153,0.03138,,,,,,,,,,,,,,,,,,,,,,,,,,0,0,0,0,0
4.8695,1783957993.9025,1,1,6.0000,2.7244,1.42238,-0.01708,-2.63443,1.08078,1.57082,0.11674,-0.12760,-0.48153,0.03138,,,,,,,,,,,,,,,,,,,,,,,,,,0,0,0,0,0
4.8698,1783957993.9028,1,1,6.0000,2.6826,1.42238,-0.01708,-2.63443,1.08078,1.57082,0.11674,-0.12760,-0.48153,0.03138,,,,,,,,,,,,,,,,,,,,,,,,,,0,0,0,0,0
4.8940,1783957993.9270,1,1,6.0000,2.5683,1.42238,-0.01708,-2.63443,1.08078,1.57082,0.11674,-0.12760,-0.48153,0.03138,,,,,,,,,,,,,,,,,,,,,,,,,,0,0,0,0,0
4.8942,1783957993.9272,1,1,6.0000,2.5186,1.42238,-0.01708,-2.63443,1.08078,1.57082,0.11674,-0.12760,-0.48153,0.03138,,,,,,,,,,,,,,,,,,,,,,,,,,0,0,0,0,0
4.9120,1783957993.9450,1,1,6.0000,2.4923,1.42238,-0.01708,-2.63443,1.08078,1.57082,0.11674,-0.12760,-0.48153,0.03138,,,,,,,,,,,,,,,,,,,,,,,,,,0,0,0,0,0
4.9122,1783957993.9452,1,1,6.0000,2.5239,1.42238,-0.01708,-2.63443,1.08078,1.57082,0.11674,-0.12760,-0.48153,0.03138,,,,,,,,,,,,,,,,,,,,,,,,,,0,0,0,0,0
4.9125,1783957993.9456,1,1,6.0000,2.5413,1.42238,-0.01708,-2.63443,1.08078,1.57082,0.11674,-0.12760,-0.48153,0.03138,,,,,,,,,,,,,,,,,,,,,,,,,,0,0,0,0,0
4.9217,1783957993.9547,1,1,6.0000,2.5476,1.42238,-0.01708,-2.63443,1.08078,1.57082,0.11674,-0.12760,-0.48153,0.03138,,,,,,,,,,,,,,,,,,,,,,,,,,0,0,0,0,0
4.9220,1783957993.9550,1,1,6.0000,2.5922,1.42238,-0.01708,-2.63443,1.08078,1.57082,0.11674,-0.12760,-0.48153,0.03138,,,,,,,,,,,,,,,,,,,,,,,,,,0,0,0,0,0
4.9298,1783957993.9628,1,1,6.0000,2.6766,1.42238,-0.01708,-2.63443,1.08078,1.57082,0.11674,-0.12760,-0.48153,0.03138,,,,,,,,,,,,,,,,,,,,,,,,,,0,0,0,0,0
4.9526,1783957993.9856,1,1,6.0000,2.6374,1.42238,-0.01708,-2.63443,1.08078,1.57082,0.11674,-0.12760,-0.48153,0.03138,,,,,,,,,,,,,,,,,,,,,,,,,,0,0,0,0,0
4.9651,1783957993.9981,1,1,6.0000,2.5703,1.42238,-0.01708,-2.63443,1.08078,1.57082,0.11674,-0.12760,-0.48153,0.03138,,,,,,,,,,,,,,,,,,,,,,,,,,0,0,0,0,0
4.9654,1783957993.9984,1,1,6.0000,2.5533,1.42238,-0.01708,-2.63443,1.08078,1.57082,0.11674,-0.12760,-0.48153,0.03138,,,,,,,,,,,,,,,,,,,,,,,,,,0,0,0,0,0
4.9727,1783957994.0057,1,1,6.0000,2.5141,1.42238,-0.01708,-2.63443,1.08078,1.57082,0.11674,-0.12760,-0.48153,0.03138,,,,,,,,,,,,,,,,,,,,,,,,,,0,0,0,0,0
4.9798,1783957994.0128,1,1,6.0000,2.5441,1.42238,-0.01708,-2.63443,1.08078,1.57082,0.11674,-0.12760,-0.48153,0.03138,,,,,,,,,,,,,,,,,,,,,,,,,,0,0,0,0,0
4.9927,1783957994.0257,1,1,6.0000,2.5848,1.42238,-0.01708,-2.63443,1.08078,1.57082,0.11674,-0.12760,-0.48153,0.03138,,,,,,,,,,,,,,,,,,,,,,,,,,0,0,0,0,0
4.9976,1783957994.0306,1,1,6.0000,2.6228,1.42238,-0.01708,-2.63443,1.08078,1.57082,0.11674,-0.12760,-0.48153,0.03138,,,,,,,,,,,,,,,,,,,,,,,,,,0,0,0,0,0
4.9980,1783957994.0311,1,1,6.0000,2.6460,1.42238,-0.01708,-2.63443,1.08078,1.57082,0.11674,-0.12760,-0.48153,0.03138,,,,,,,,,,,,,,,,,,,,,,,,,,0,0,0,0,0
5.0079,1783957994.0409,1,1,6.0000,2.6558,1.42238,-0.01708,-2.63443,1.08078,1.57082,0.11674,-0.12760,-0.48153,0.03138,,,,,,,,,,,,,,,,,,,,,,,,,,0,0,0,0,0
5.0221,1783957994.0551,1,1,6.0000,2.6360,1.42238,-0.01708,-2.63443,1.08078,1.57082,0.11674,-0.12760,-0.48153,0.03138,,,,,,,,,,,,,,,,,,,,,,,,,,0,0,0,0,0
5.0226,1783957994.0556,1,1,6.0000,2.6145,1.42238,-0.01708,-2.63443,1.08078,1.57082,0.11674,-0.12760,-0.48153,0.03138,,,,,,,,,,,,,,,,,,,,,,,,,,0,0,0,0,0
5.0304,1783957994.0634,1,1,6.0000,2.5428,1.42238,-0.01708,-2.63443,1.08078,1.57082,0.11674,-0.12760,-0.48153,0.03138,,,,,,,,,,,,,,,,,,,,,,,,,,0,0,0,0,0
5.0403,1783957994.0733,1,1,6.0000,2.5003,1.42238,-0.01708,-2.63443,1.08078,1.57082,0.11674,-0.12760,-0.48153,0.03138,,,,,,,,,,,,,,,,,,,,,,,,,,0,0,0,0,0
5.0504,1783957994.0834,1,1,6.0000,2.5176,1.42238,-0.01708,-2.63443,1.08078,1.57082,0.11674,-0.12760,-0.48153,0.03138,,,,,,,,,,,,,,,,,,,,,,,,,,0,0,0,0,0
5.0583,1783957994.0913,1,1,6.0000,2.5258,1.42238,-0.01708,-2.63443,1.08078,1.57082,0.11674,-0.12760,-0.48153,0.03138,,,,,,,,,,,,,,,,,,,,,,,,,,0,0,0,0,0
5.0589,1783957994.0919,1,1,6.0000,2.5351,1.42238,-0.01708,-2.63443,1.08078,1.57082,0.11674,-0.12760,-0.48153,0.03138,,,,,,,,,,,,,,,,,,,,,,,,,,0,0,0,0,0
5.0709,1783957994.1039,1,1,6.0000,2.5834,1.42238,-0.01708,-2.63443,1.08078,1.57082,0.11674,-0.12760,-0.48153,0.03138,,,,,,,,,,,,,,,,,,,,,,,,,,0,0,0,0,0
5.0786,1783957994.1116,1,1,6.0000,2.5854,1.42238,-0.01708,-2.63443,1.08078,1.57082,0.11674,-0.12760,-0.48153,0.03138,,,,,,,,,,,,,,,,,,,,,,,,,,0,0,0,0,0
5.0879,1783957994.1209,1,1,6.0000,2.5858,1.42238,-0.01708,-2.63443,1.08078,1.57082,0.11674,-0.12760,-0.48153,0.03138,,,,,,,,,,,,,,,,,,,,,,,,,,0,0,0,0,0
5.0883,1783957994.1213,1,1,6.0000,2.5779,1.42238,-0.01708,-2.63443,1.08078,1.57082,0.11674,-0.12760,-0.48153,0.03138,,,,,,,,,,,,,,,,,,,,,,,,,,0,0,0,0,0
5.0979,1783957994.1309,1,1,6.0000,2.5566,1.42238,-0.01708,-2.63443,1.08078,1.57082,0.11674,-0.12760,-0.48153,0.03138,,,,,,,,,,,,,,,,,,,,,,,,,,0,0,0,0,0
5.1112,1783957994.1442,1,1,6.0000,2.5241,1.42238,-0.01708,-2.63443,1.08078,1.57082,0.11674,-0.12760,-0.48153,0.03138,,,,,,,,,,,,,,,,,,,,,,,,,,0,0,0,0,0
5.1186,1783957994.1516,1,1,6.0000,2.4973,1.42238,-0.01708,-2.63443,1.08078,1.57082,0.11674,-0.12760,-0.48153,0.03138,,,,,,,,,,,,,,,,,,,,,,,,,,0,0,0,0,0
5.1383,1783957994.1713,1,1,6.0000,2.5357,1.42238,-0.01708,-2.63443,1.08078,1.57082,0.11674,-0.12760,-0.48153,0.03138,,,,,,,,,,,,,,,,,,,,,,,,,,0,0,0,0,0
5.1387,1783957994.1717,1,1,6.0000,2.5590,1.42238,-0.01708,-2.63443,1.08078,1.57082,0.11674,-0.12760,-0.48153,0.03138,,,,,,,,,,,,,,,,,,,,,,,,,,0,0,0,0,0
5.1394,1783957994.1724,1,1,6.0000,2.5797,1.42238,-0.01708,-2.63443,1.08078,1.57082,0.11674,-0.12760,-0.48153,0.03138,,,,,,,,,,,,,,,,,,,,,,,,,,0,0,0,0,0
5.1509,1783957994.1839,1,1,6.0000,2.5967,1.42238,-0.01709,-2.63443,1.08078,1.57082,0.11674,-0.12760,-0.48153,0.03138,,,,,,,,,,,,,,,,,,,,,,,,,,0,0,0,0,0
5.1759,1783957994.2089,1,1,6.0000,2.5598,1.42238,-0.01710,-2.63443,1.08078,1.57082,0.11674,-0.12760,-0.48153,0.03137,,,,,,,,,,,,,,,,,,,,,,,,,,0,0,0,0,0
5.1797,1783957994.2127,1,1,6.0000,2.5088,1.42238,-0.01710,-2.63443,1.08078,1.57082,0.11674,-0.12760,-0.48152,0.03137,,,,,,,,,,,,,,,,,,,,,,,,,,0,0,0,0,0
5.1942,1783957994.2272,1,1,6.0000,2.5011,1.42238,-0.01710,-2.63444,1.08078,1.57082,0.11674,-0.12760,-0.48152,0.03137,,,,,,,,,,,,,,,,,,,,,,,,,,0,0,0,0,0
5.2028,1783957994.2358,1,1,6.0000,2.5092,1.42238,-0.01710,-2.63444,1.08078,1.57082,0.11674,-0.12760,-0.48152,0.03137,,,,,,,,,,,,,,,,,,,,,,,,,,0,0,0,0,0
5.2133,1783957994.2463,1,1,6.0000,2.5342,1.42238,-0.01710,-2.63444,1.08078,1.57082,0.11674,-0.12760,-0.48152,0.03137,,,,,,,,,,,,,,,,,,,,,,,,,,0,0,0,0,0
5.2257,1783957994.2587,1,1,6.0000,2.5514,1.42238,-0.01710,-2.63444,1.08078,1.57082,0.11674,-0.12760,-0.48152,0.03137,,,,,,,,,,,,,,,,,,,,,,,,,,0,0,0,0,0
5.2286,1783957994.2616,1,1,6.0000,2.5402,1.42238,-0.01710,-2.63444,1.08078,1.57082,0.11674,-0.12760,-0.48152,0.03137,,,,,,,,,,,,,,,,,,,,,,,,,,0,0,0,0,0
5.2375,1783957994.2706,1,1,6.0000,2.5190,1.42238,-0.01710,-2.63444,1.08078,1.57082,0.11674,-0.12760,-0.48152,0.03137,,,,,,,,,,,,,,,,,,,,,,,,,,0,0,0,0,0
5.2378,1783957994.2708,1,1,6.0000,2.5219,1.42238,-0.01710,-2.63444,1.08078,1.57082,0.11674,-0.12760,-0.48152,0.03137,,,,,,,,,,,,,,,,,,,,,,,,,,0,0,0,0,0
5.2484,1783957994.2814,1,1,6.0000,2.4744,1.42238,-0.01710,-2.63444,1.08078,1.57082,0.11674,-0.12760,-0.48152,0.03137,,,,,,,,,,,,,,,,,,,,,,,,,,0,0,0,0,0
5.2616,1783957994.2946,1,1,6.0000,2.4705,1.42238,-0.01710,-2.63444,1.08078,1.57082,0.11674,-0.12760,-0.48152,0.03137,,,,,,,,,,,,,,,,,,,,,,,,,,0,0,0,0,0
5.2677,1783957994.3007,1,1,6.0000,2.4816,1.42238,-0.01710,-2.63444,1.08078,1.57082,0.11674,-0.12760,-0.48152,0.03137,,,,,,,,,,,,,,,,,,,,,,,,,,0,0,0,0,0
5.2821,1783957994.3151,1,1,6.0000,2.4687,1.42238,-0.01710,-2.63444,1.08078,1.57082,0.11674,-0.12760,-0.48152,0.03137,,,,,,,,,,,,,,,,,,,,,,,,,,0,0,0,0,0
5.2888,1783957994.3218,1,1,6.0000,2.4646,1.42238,-0.01710,-2.63444,1.08078,1.57082,0.11674,-0.12760,-0.48152,0.03137,,,,,,,,,,,,,,,,,,,,,,,,,,0,0,0,0,0
5.2891,1783957994.3221,1,1,6.0000,2.4763,1.42238,-0.01710,-2.63444,1.08078,1.57082,0.11674,-0.12760,-0.48152,0.03137,,,,,,,,,,,,,,,,,,,,,,,,,,0,0,0,0,0
5.2997,1783957994.3327,1,1,6.0000,2.4890,1.42238,-0.01710,-2.63444,1.08078,1.57082,0.11674,-0.12760,-0.48152,0.03137,,,,,,,,,,,,,,,,,,,,,,,,,,0,0,0,0,0
5.3001,1783957994.3331,1,1,6.0000,2.5020,1.42238,-0.01710,-2.63444,1.08078,1.57082,0.11674,-0.12760,-0.48152,0.03137,,,,,,,,,,,,,,,,,,,,,,,,,,0,0,0,0,0
5.3155,1783957994.3485,1,1,6.0000,2.5285,1.42238,-0.01710,-2.63444,1.08078,1.57082,0.11674,-0.12760,-0.48152,0.03137,,,,,,,,,,,,,,,,,,,,,,,,,,0,0,0,0,0
5.3178,1783957994.3508,1,1,6.0000,2.5351,1.42238,-0.01710,-2.63444,1.08078,1.57082,0.11674,-0.12760,-0.48152,0.03137,,,,,,,,,,,,,,,,,,,,,,,,,,0,0,0,0,0
5.3180,1783957994.3510,1,1,6.0000,2.5130,1.42238,-0.01710,-2.63444,1.08078,1.57082,0.11674,-0.12760,-0.48152,0.03137,,,,,,,,,,,,,,,,,,,,,,,,,,0,0,0,0,0
5.3317,1783957994.3648,1,1,6.0000,2.4718,1.42238,-0.01710,-2.63444,1.08078,1.57082,0.11674,-0.12760,-0.48152,0.03137,,,,,,,,,,,,,,,,,,,,,,,,,,0,0,0,0,0
5.3385,1783957994.3715,1,1,6.0000,2.4605,1.42238,-0.01710,-2.63444,1.08078,1.57082,0.11674,-0.12760,-0.48152,0.03137,,,,,,,,,,,,,,,,,,,,,,,,,,0,0,0,0,0
5.3477,1783957994.3807,1,1,6.0000,2.4621,1.42238,-0.01710,-2.63444,1.08078,1.57082,0.11674,-0.12760,-0.48152,0.03137,,,,,,,,,,,,,,,,,,,,,,,,,,0,0,0,0,0
5.3480,1783957994.3810,1,1,6.0000,2.4737,1.42238,-0.01710,-2.63444,1.08078,1.57082,0.11674,-0.12760,-0.48152,0.03137,,,,,,,,,,,,,,,,,,,,,,,,,,0,0,0,0,0
5.3655,1783957994.3985,1,1,6.0000,2.4952,1.42238,-0.01710,-2.63444,1.08078,1.57082,0.11674,-0.12760,-0.48152,0.03137,,,,,,,,,,,,,,,,,,,,,,,,,,0,0,0,0,0
5.3761,1783957994.4091,1,1,6.0000,2.4999,1.42238,-0.01710,-2.63444,1.08078,1.57082,0.11674,-0.12760,-0.48152,0.03137,,,,,,,,,,,,,,,,,,,,,,,,,,0,0,0,0,0
5.3848,1783957994.4178,1,1,6.0000,2.4917,1.42238,-0.01710,-2.63444,1.08078,1.57082,0.11674,-0.12760,-0.48152,0.03137,,,,,,,,,,,,,,,,,,,,,,,,,,0,0,0,0,0
5.3876,1783957994.4206,1,1,6.0000,2.4703,1.42238,-0.01710,-2.63444,1.08078,1.57082,0.11674,-0.12760,-0.48152,0.03137,,,,,,,,,,,,,,,,,,,,,,,,,,0,0,0,0,0
5.3979,1783957994.4309,1,1,6.0000,2.4653,1.42238,-0.01710,-2.63444,1.08078,1.57082,0.11674,-0.12760,-0.48152,0.03137,,,,,,,,,,,,,,,,,,,,,,,,,,0,0,0,0,0
5.4103,1783957994.4433,1,1,6.0000,2.4653,1.42238,-0.01710,-2.63444,1.08078,1.57082,0.11674,-0.12760,-0.48152,0.03137,,,,,,,,,,,,,,,,,,,,,,,,,,0,0,0,0,0
5.4175,1783957994.4505,1,1,6.0000,2.4647,1.42238,-0.01710,-2.63444,1.08078,1.57082,0.11674,-0.12760,-0.48152,0.03137,,,,,,,,,,,,,,,,,,,,,,,,,,0,0,0,0,0
5.4178,1783957994.4508,1,1,6.0000,2.4695,1.42238,-0.01710,-2.63444,1.08078,1.57082,0.11674,-0.12760,-0.48152,0.03137,,,,,,,,,,,,,,,,,,,,,,,,,,0,0,0,0,0
5.4317,1783957994.4647,1,1,6.0000,2.4935,1.42238,-0.01710,-2.63444,1.08078,1.57082,0.11674,-0.12760,-0.48152,0.03137,,,,,,,,,,,,,,,,,,,,,,,,,,0,0,0,0,0
5.4385,1783957994.4715,1,1,6.0000,2.4816,1.42238,-0.01710,-2.63444,1.08078,1.57082,0.11674,-0.12760,-0.48152,0.03137,,,,,,,,,,,,,,,,,,,,,,,,,,0,0,0,0,0
5.4388,1783957994.4718,1,1,6.0000,2.4938,1.42238,-0.01710,-2.63444,1.08078,1.57082,0.11674,-0.12760,-0.48152,0.03137,,,,,,,,,,,,,,,,,,,,,,,,,,0,0,0,0,0
5.4496,1783957994.4826,1,1,6.0000,2.5084,1.42238,-0.01710,-2.63444,1.08078,1.57082,0.11674,-0.12760,-0.48152,0.03137,,,,,,,,,,,,,,,,,,,,,,,,,,0,0,0,0,0
5.4580,1783957994.4910,1,1,6.0000,2.5109,1.42238,-0.01710,-2.63444,1.08078,1.57082,0.11674,-0.12760,-0.48152,0.03137,,,,,,,,,,,,,,,,,,,,,,,,,,0,0,0,0,0
5.4705,1783957994.5035,1,1,6.0000,2.4996,1.42238,-0.01710,-2.63444,1.08078,1.57082,0.11674,-0.12760,-0.48152,0.03137,,,,,,,,,,,,,,,,,,,,,,,,,,0,0,0,0,0
5.4798,1783957994.5128,1,1,6.0000,2.4926,1.42238,-0.01710,-2.63444,1.08078,1.57082,0.11674,-0.12760,-0.48152,0.03137,,,,,,,,,,,,,,,,,,,,,,,,,,0,0,0,0,0
5.4880,1783957994.5210,1,1,6.0000,2.4862,1.42238,-0.01710,-2.63444,1.08078,1.57082,0.11674,-0.12760,-0.48152,0.03137,,,,,,,,,,,,,,,,,,,,,,,,,,0,0,0,0,0
5.4884,1783957994.5214,1,1,6.0000,2.4864,1.42238,-0.01710,-2.63444,1.08078,1.57082,0.11674,-0.12760,-0.48152,0.03137,,,,,,,,,,,,,,,,,,,,,,,,,,0,0,0,0,0
5.4976,1783957994.5306,1,1,6.0000,2.4864,1.42238,-0.01710,-2.63444,1.08078,1.57082,0.11674,-0.12760,-0.48152,0.03137,,,,,,,,,,,,,,,,,,,,,,,,,,0,0,0,0,0
5.4981,1783957994.5311,1,1,6.0000,2.4930,1.42238,-0.01710,-2.63444,1.08078,1.57082,0.11674,-0.12760,-0.48152,0.03137,,,,,,,,,,,,,,,,,,,,,,,,,,0,0,0,0,0
5.5079,1783957994.5409,1,1,6.0000,2.4988,1.42238,-0.01710,-2.63444,1.08078,1.57082,0.11674,-0.12760,-0.48152,0.03137,,,,,,,,,,,,,,,,,,,,,,,,,,0,0,0,0,0
5.5084,1783957994.5414,1,1,6.0000,2.5069,1.42238,-0.01710,-2.63444,1.08078,1.57082,0.11674,-0.12760,-0.48152,0.03137,,,,,,,,,,,,,,,,,,,,,,,,,,0,0,0,0,0
5.5259,1783957994.5589,1,1,6.0000,2.5084,1.42238,-0.01710,-2.63444,1.08078,1.57082,0.11674,-0.12760,-0.48152,0.03137,,,,,,,,,,,,,,,,,,,,,,,,,,0,0,0,0,0
5.5340,1783957994.5670,1,1,6.0000,2.4817,1.42238,-0.01710,-2.63444,1.08078,1.57082,0.11674,-0.12760,-0.48152,0.03137,,,,,,,,,,,,,,,,,,,,,,,,,,0,0,0,0,0
5.5388,1783957994.5718,1,1,6.0000,2.4388,1.42238,-0.01710,-2.63444,1.08078,1.57082,0.11674,-0.12760,-0.48152,0.03137,,,,,,,,,,,,,,,,,,,,,,,,,,0,0,0,0,0
5.5391,1783957994.5721,1,1,6.0000,2.4188,1.42238,-0.01710,-2.63444,1.08078,1.57082,0.11674,-0.12760,-0.48152,0.03137,,,,,,,,,,,,,,,,,,,,,,,,,,0,0,0,0,0
5.5481,1783957994.5811,1,1,6.0000,2.4339,1.42238,-0.01710,-2.63444,1.08078,1.57082,0.11674,-0.12760,-0.48152,0.03137,,,,,,,,,,,,,,,,,,,,,,,,,,0,0,0,0,0
5.5591,1783957994.5921,1,1,6.0000,2.4340,1.42238,-0.01710,-2.63444,1.08078,1.57082,0.11674,-0.12760,-0.48152,0.03137,,,,,,,,,,,,,,,,,,,,,,,,,,0,0,0,0,0
5.5696,1783957994.6026,1,1,6.0000,2.4316,1.42238,-0.01710,-2.63444,1.08078,1.57082,0.11674,-0.12760,-0.48152,0.03137,,,,,,,,,,,,,,,,,,,,,,,,,,0,0,0,0,0
5.5701,1783957994.6031,1,1,6.0000,2.4323,1.42238,-0.01710,-2.63444,1.08078,1.57082,0.11674,-0.12760,-0.48152,0.03137,,,,,,,,,,,,,,,,,,,,,,,,,,0,0,0,0,0
5.5781,1783957994.6111,1,1,6.0000,2.4494,1.42238,-0.01710,-2.63444,1.08078,1.57082,0.11674,-0.12760,-0.48152,0.03137,,,,,,,,,,,,,,,,,,,,,,,,,,0,0,0,0,0
5.5896,1783957994.6226,1,1,6.0000,2.4614,1.42238,-0.01710,-2.63444,1.08078,1.57082,0.11674,-0.12760,-0.48152,0.03137,,,,,,,,,,,,,,,,,,,,,,,,,,0,0,0,0,0
5.5997,1783957994.6327,1,1,6.0000,2.4735,1.42238,-0.01710,-2.63444,1.08078,1.57082,0.11674,-0.12760,-0.48152,0.03137,,,,,,,,,,,,,,,,,,,,,,,,,,0,0,0,0,0
5.6134,1783957994.6464,1,1,6.0000,2.4843,1.42238,-0.01710,-2.63444,1.08078,1.57082,0.11674,-0.12760,-0.48152,0.03137,,,,,,,,,,,,,,,,,,,,,,,,,,0,0,0,0,0
5.6225,1783957994.6555,1,1,6.0000,2.4619,1.42238,-0.01710,-2.63444,1.08078,1.57082,0.11674,-0.12760,-0.48152,0.03137,,,,,,,,,,,,,,,,,,,,,,,,,,0,0,0,0,0
5.6278,1783957994.6608,1,1,6.0000,2.4132,1.42238,-0.01710,-2.63444,1.08078,1.57082,0.11674,-0.12760,-0.48152,0.03137,,,,,,,,,,,,,,,,,,,,,,,,,,0,0,0,0,0
5.6405,1783957994.6735,1,1,6.0000,2.4073,1.42238,-0.01710,-2.63444,1.08078,1.57082,0.11674,-0.12760,-0.48152,0.03137,,,,,,,,,,,,,,,,,,,,,,,,,,0,0,0,0,0
5.6479,1783957994.6809,1,1,6.0000,2.4172,1.42238,-0.01711,-2.63444,1.08078,1.57082,0.11674,-0.12760,-0.48152,0.03137,,,,,,,,,,,,,,,,,,,,,,,,,,0,0,0,0,0
5.6607,1783957994.6937,1,1,6.0000,2.4364,1.42238,-0.01711,-2.63444,1.08078,1.57082,0.11674,-0.12760,-0.48152,0.03136,,,,,,,,,,,,,,,,,,,,,,,,,,0,0,0,0,0
5.6726,1783957994.7056,1,1,6.0000,2.4441,1.42238,-0.01711,-2.63443,1.08078,1.57082,0.11674,-0.12760,-0.48152,0.03136,,,,,,,,,,,,,,,,,,,,,,,,,,0,0,0,0,0
5.6729,1783957994.7059,1,1,6.0000,2.4428,1.42238,-0.01711,-2.63443,1.08078,1.57082,0.11674,-0.12760,-0.48152,0.03136,,,,,,,,,,,,,,,,,,,,,,,,,,0,0,0,0,0
5.6859,1783957994.7189,1,1,6.0000,2.4563,1.42238,-0.01711,-2.63443,1.08078,1.57082,0.11674,-0.12760,-0.48152,0.03136,,,,,,,,,,,,,,,,,,,,,,,,,,0,0,0,0,0
5.6877,1783957994.7207,1,1,6.0000,2.4512,1.42238,-0.01711,-2.63443,1.08078,1.57082,0.11674,-0.12760,-0.48152,0.03136,,,,,,,,,,,,,,,,,,,,,,,,,,0,0,0,0,0
5.6880,1783957994.7210,1,1,6.0000,2.4524,1.42238,-0.01711,-2.63443,1.08078,1.57082,0.11674,-0.12760,-0.48152,0.03136,,,,,,,,,,,,,,,,,,,,,,,,,,0,0,0,0,0
5.6981,1783957994.7311,1,1,6.0000,2.4483,1.42238,-0.01711,-2.63443,1.08078,1.57082,0.11674,-0.12760,-0.48152,0.03136,,,,,,,,,,,,,,,,,,,,,,,,,,0,0,0,0,0
5.7083,1783957994.7413,1,1,6.0000,2.4653,1.42238,-0.01711,-2.63443,1.08078,1.57082,0.11674,-0.12760,-0.48152,0.03136,,,,,,,,,,,,,,,,,,,,,,,,,,0,0,0,0,0
5.7258,1783957994.7588,1,1,6.0000,2.4414,1.42238,-0.01711,-2.63443,1.08078,1.57082,0.11674,-0.12760,-0.48152,0.03136,,,,,,,,,,,,,,,,,,,,,,,,,,0,0,0,0,0
5.7296,1783957994.7627,1,1,6.0000,2.4559,1.42238,-0.01711,-2.63443,1.08078,1.57082,0.11674,-0.12760,-0.48152,0.03136,,,,,,,,,,,,,,,,,,,,,,,,,,0,0,0,0,0
5.7416,1783957994.7746,1,1,6.0000,2.4428,1.42238,-0.01711,-2.63443,1.08078,1.57082,0.11674,-0.12760,-0.48152,0.03136,,,,,,,,,,,,,,,,,,,,,,,,,,0,0,0,0,0
5.7496,1783957994.7826,1,1,6.0000,2.4530,1.42238,-0.01711,-2.63443,1.08078,1.57082,0.11674,-0.12760,-0.48152,0.03136,,,,,,,,,,,,,,,,,,,,,,,,,,0,0,0,0,0
5.7501,1783957994.7831,1,1,6.0000,2.4502,1.42238,-0.01711,-2.63443,1.08078,1.57082,0.11674,-0.12760,-0.48152,0.03136,,,,,,,,,,,,,,,,,,,,,,,,,,0,0,0,0,0
5.7585,1783957994.7915,1,1,6.0000,2.4345,1.42238,-0.01711,-2.63443,1.08078,1.57082,0.11674,-0.12760,-0.48152,0.03136,,,,,,,,,,,,,,,,,,,,,,,,,,0,0,0,0,0
5.7590,1783957994.7920,1,1,6.0000,2.4353,1.42238,-0.01711,-2.63443,1.08078,1.57082,0.11674,-0.12760,-0.48152,0.03136,,,,,,,,,,,,,,,,,,,,,,,,,,0,0,0,0,0
5.7703,1783957994.8033,1,1,6.0000,2.4382,1.42238,-0.01711,-2.63443,1.08078,1.57082,0.11674,-0.12760,-0.48152,0.03136,,,,,,,,,,,,,,,,,,,,,,,,,,0,0,0,0,0
5.7711,1783957994.8041,1,1,6.0000,2.4479,1.42238,-0.01711,-2.63443,1.08078,1.57082,0.11674,-0.12760,-0.48152,0.03136,,,,,,,,,,,,,,,,,,,,,,,,,,0,0,0,0,0
5.7911,1783957994.8241,1,1,6.0000,2.4602,1.42238,-0.01711,-2.63443,1.08078,1.57082,0.11674,-0.12760,-0.48152,0.03136,,,,,,,,,,,,,,,,,,,,,,,,,,0,0,0,0,0
5.7978,1783957994.8309,1,1,6.0000,2.4561,1.42238,-0.01711,-2.63443,1.08078,1.57082,0.11674,-0.12760,-0.48152,0.03136,,,,,,,,,,,,,,,,,,,,,,,,,,0,0,0,0,0
5.8089,1783957994.8419,1,1,6.0000,2.4774,1.42238,-0.01711,-2.63443,1.08078,1.57082,0.11674,-0.12760,-0.48152,0.03136,,,,,,,,,,,,,,,,,,,,,,,,,,0,0,0,0,0
5.8187,1783957994.8517,1,1,6.0000,2.4840,1.42238,-0.01711,-2.63443,1.08078,1.57082,0.11674,-0.12760,-0.48152,0.03136,,,,,,,,,,,,,,,,,,,,,,,,,,0,0,0,0,0
5.8315,1783957994.8645,1,1,6.0000,2.4981,1.42238,-0.01711,-2.63443,1.08078,1.57082,0.11674,-0.12760,-0.48152,0.03136,,,,,,,,,,,,,,,,,,,,,,,,,,0,0,0,0,0
5.8423,1783957994.8753,1,1,6.0000,2.4926,1.42238,-0.01711,-2.63443,1.08078,1.57082,0.11674,-0.12760,-0.48152,0.03136,,,,,,,,,,,,,,,,,,,,,,,,,,0,0,0,0,0
5.8427,1783957994.8757,1,1,6.0000,2.4785,1.42238,-0.01711,-2.63443,1.08078,1.57082,0.11674,-0.12760,-0.48152,0.03136,,,,,,,,,,,,,,,,,,,,,,,,,,0,0,0,0,0
5.8496,1783957994.8826,1,1,6.0000,2.4812,1.42238,-0.01711,-2.63443,1.08078,1.57082,0.11674,-0.12760,-0.48152,0.03136,,,,,,,,,,,,,,,,,,,,,,,,,,0,0,0,0,0
5.8598,1783957994.8928,1,1,6.0000,2.4965,1.42238,-0.01711,-2.63443,1.08078,1.57082,0.11674,-0.12760,-0.48152,0.03136,,,,,,,,,,,,,,,,,,,,,,,,,,0,0,0,0,0
5.8861,1783957994.9191,1,1,6.0000,2.5143,1.42238,-0.01711,-2.63443,1.08078,1.57082,0.11674,-0.12760,-0.48152,0.03136,,,,,,,,,,,,,,,,,,,,,,,,,,0,0,0,0,0
5.8864,1783957994.9195,1,1,6.0000,2.5083,1.42238,-0.01711,-2.63443,1.08078,1.57082,0.11674,-0.12760,-0.48152,0.03136,,,,,,,,,,,,,,,,,,,,,,,,,,0,0,0,0,0
5.8877,1783957994.9207,1,1,6.0000,2.4931,1.42238,-0.01711,-2.63443,1.08078,1.57082,0.11674,-0.12760,-0.48152,0.03136,,,,,,,,,,,,,,,,,,,,,,,,,,0,0,0,0,0
5.8990,1783957994.9320,1,1,6.0000,2.4901,1.42238,-0.01711,-2.63443,1.08078,1.57082,0.11674,-0.12760,-0.48152,0.03136,,,,,,,,,,,,,,,,,,,,,,,,,,0,0,0,0,0
5.9116,1783957994.9446,1,1,6.0000,2.4807,1.42238,-0.01711,-2.63443,1.08078,1.57082,0.11674,-0.12760,-0.48152,0.03136,,,,,,,,,,,,,,,,,,,,,,,,,,0,0,0,0,0
5.9177,1783957994.9507,1,1,6.0000,2.4836,1.42238,-0.01711,-2.63443,1.08078,1.57082,0.11674,-0.12760,-0.48152,0.03136,,,,,,,,,,,,,,,,,,,,,,,,,,0,0,0,0,0
5.9181,1783957994.9511,1,1,6.0000,2.4809,1.42238,-0.01711,-2.63443,1.08078,1.57082,0.11674,-0.12760,-0.48152,0.03136,,,,,,,,,,,,,,,,,,,,,,,,,,0,0,0,0,0
5.9294,1783957994.9624,1,1,6.0000,2.4737,1.42238,-0.01711,-2.63443,1.08078,1.57082,0.11674,-0.12760,-0.48152,0.03136,,,,,,,,,,,,,,,,,,,,,,,,,,0,0,0,0,0
5.9298,1783957994.9628,1,1,6.0000,2.4777,1.42238,-0.01711,-2.63443,1.08078,1.57082,0.11674,-0.12760,-0.48152,0.03136,,,,,,,,,,,,,,,,,,,,,,,,,,0,0,0,0,0
5.9431,1783957994.9762,1,1,6.0000,2.4211,1.42238,-0.01711,-2.63443,1.08078,1.57082,0.11674,-0.12760,-0.48152,0.03136,,,,,,,,,,,,,,,,,,,,,,,,,,0,0,0,0,0
