Martins-Lucaas/twinforge/sensors/Data/20260710_185936__samples.csv
t_rel_s,t_unix,cycle,phase,setpoint_n,force_net_n,q1,q2,q3,q4,q5,q6,tcp_x,tcp_y,tcp_z,taxel_0,taxel_1,taxel_2,taxel_3,taxel_4,taxel_5,taxel_6,taxel_7,taxel_8,taxel_9,taxel_10,taxel_11,taxel_12,taxel_13,taxel_14,taxel_15,taxel_16,taxel_17,taxel_18,taxel_19,taxel_20,taxel_21,taxel_22,taxel_23,taxel_24,n_RA,n_SA,cn_mm,cn_ra,cn_sa
0.0010,1783720776.5242,0,-1,1.0000,0.0000,1.42052,0.14185,-2.66687,0.95417,1.57080,0.11681,-0.13197,-0.44703,0.06308,,,,,,,,,,,,,,,,,,,,,,,,,,0,0,0,0,0
0.0031,1783720776.5262,1,0,1.0000,0.0000,1.42052,0.14185,-2.66687,0.95417,1.57080,0.11681,-0.13197,-0.44703,0.06308,,,,,,,,,,,,,,,,,,,,,,,,,,0,0,0,0,0
0.0034,1783720776.5265,1,0,1.0000,0.0000,1.42052,0.14185,-2.66687,0.95417,1.57080,0.11681,-0.13197,-0.44703,0.06308,,,,,,,,,,,,,,,,,,,,,,,,,,0,0,0,0,0
0.0133,1783720776.5364,1,0,1.0000,0.0000,1.42052,0.14185,-2.66687,0.95417,1.57080,0.11681,-0.13197,-0.44703,0.06308,,,,,,,,,,,,,,,,,,,,,,,,,,0,0,0,0,0
0.0136,1783720776.5368,1,0,1.0000,0.0000,1.42052,0.14185,-2.66687,0.95417,1.57080,0.11681,-0.13197,-0.44703,0.06308,,,,,,,,,,,,,,,,,,,,,,,,,,0,0,0,0,0
0.0386,1783720776.5618,1,0,1.0000,0.0000,1.42052,0.14185,-2.66687,0.95417,1.57080,0.11681,-0.13197,-0.44703,0.06308,,,,,,,,,,,,,,,,,,,,,,,,,,0,0,0,0,0
0.0391,1783720776.5622,1,0,1.0000,0.0000,1.42052,0.14185,-2.66687,0.95417,1.57080,0.11681,-0.13197,-0.44703,0.06308,,,,,,,,,,,,,,,,,,,,,,,,,,0,0,0,0,0
0.0434,1783720776.5665,1,0,1.0000,0.0000,1.42052,0.14185,-2.66687,0.95417,1.57080,0.11681,-0.13197,-0.44703,0.06308,,,,,,,,,,,,,,,,,,,,,,,,,,0,0,0,0,0
0.0437,1783720776.5669,1,0,1.0000,0.0000,1.42052,0.14185,-2.66687,0.95417,1.57080,0.11681,-0.13197,-0.44703,0.06308,,,,,,,,,,,,,,,,,,,,,,,,,,0,0,0,0,0
0.0532,1783720776.5764,1,0,1.0000,0.0000,1.42052,0.14185,-2.66687,0.95417,1.57080,0.11681,-0.13197,-0.44703,0.06308,,,,,,,,,,,,,,,,,,,,,,,,,,0,0,0,0,0
0.0621,1783720776.5852,1,0,1.0000,0.0000,1.42052,0.14185,-2.66687,0.95417,1.57080,0.11681,-0.13197,-0.44703,0.06308,,,,,,,,,,,,,,,,,,,,,,,,,,0,0,0,0,0
0.0625,1783720776.5857,1,0,1.0000,0.0000,1.42052,0.14185,-2.66687,0.95417,1.57080,0.11681,-0.13197,-0.44703,0.06308,,,,,,,,,,,,,,,,,,,,,,,,,,0,0,0,0,0
0.0724,1783720776.5956,1,0,1.0000,0.0000,1.42052,0.14185,-2.66687,0.95417,1.57080,0.11681,-0.13197,-0.44703,0.06308,,,,,,,,,,,,,,,,,,,,,,,,,,0,0,0,0,0
0.0826,1783720776.6057,1,0,1.0000,0.0000,1.42052,0.14185,-2.66687,0.95417,1.57080,0.11681,-0.13197,-0.44703,0.06308,,,,,,,,,,,,,,,,,,,,,,,,,,0,0,0,0,0
0.0924,1783720776.6156,1,0,1.0000,0.0000,1.42052,0.14185,-2.66687,0.95417,1.57080,0.11681,-0.13197,-0.44703,0.06308,,,,,,,,,,,,,,,,,,,,,,,,,,0,0,0,0,0
0.1047,1783720776.6279,1,0,1.0000,0.0000,1.42052,0.14185,-2.66687,0.95417,1.57080,0.11681,-0.13197,-0.44703,0.06308,,,,,,,,,,,,,,,,,,,,,,,,,,0,0,0,0,0
0.1137,1783720776.6369,1,0,1.0000,0.0000,1.42052,0.14185,-2.66687,0.95417,1.57080,0.11681,-0.13197,-0.44703,0.06308,,,,,,,,,,,,,,,,,,,,,,,,,,0,0,0,0,0
0.1270,1783720776.6502,1,0,1.0000,0.0000,1.42052,0.14185,-2.66687,0.95417,1.57080,0.11681,-0.13197,-0.44703,0.06308,,,,,,,,,,,,,,,,,,,,,,,,,,0,0,0,0,0
0.1276,1783720776.6507,1,0,1.0000,0.0000,1.42052,0.14185,-2.66687,0.95417,1.57080,0.11681,-0.13197,-0.44703,0.06308,,,,,,,,,,,,,,,,,,,,,,,,,,0,0,0,0,0
0.1401,1783720776.6633,1,0,1.0000,0.0000,1.42052,0.14185,-2.66687,0.95417,1.57080,0.11681,-0.13197,-0.44703,0.06308,,,,,,,,,,,,,,,,,,,,,,,,,,0,0,0,0,0
0.1433,1783720776.6665,1,0,1.0000,0.0000,1.42052,0.14185,-2.66687,0.95417,1.57080,0.11681,-0.13197,-0.44703,0.06308,,,,,,,,,,,,,,,,,,,,,,,,,,0,0,0,0,0
0.1514,1783720776.6745,1,0,1.0000,0.0000,1.42052,0.14185,-2.66687,0.95417,1.57080,0.11681,-0.13197,-0.44703,0.06308,,,,,,,,,,,,,,,,,,,,,,,,,,0,0,0,0,0
0.1627,1783720776.6858,1,0,1.0000,0.0000,1.42052,0.14185,-2.66687,0.95417,1.57080,0.11681,-0.13197,-0.44703,0.06308,,,,,,,,,,,,,,,,,,,,,,,,,,0,0,0,0,0
0.1720,1783720776.6952,1,0,1.0000,0.0000,1.42052,0.14185,-2.66687,0.95417,1.57080,0.11681,-0.13197,-0.44703,0.06308,,,,,,,,,,,,,,,,,,,,,,,,,,0,0,0,0,0
0.1820,1783720776.7052,1,0,1.0000,0.0000,1.42052,0.14185,-2.66687,0.95417,1.57080,0.11681,-0.13197,-0.44703,0.06308,,,,,,,,,,,,,,,,,,,,,,,,,,0,0,0,0,0
0.1922,1783720776.7153,1,0,1.0000,0.0000,1.42052,0.14185,-2.66687,0.95417,1.57080,0.11681,-0.13197,-0.44703,0.06308,,,,,,,,,,,,,,,,,,,,,,,,,,0,0,0,0,0
0.2051,1783720776.7282,1,0,1.0000,0.0000,1.42052,0.14185,-2.66687,0.95417,1.57080,0.11681,-0.13197,-0.44703,0.06308,,,,,,,,,,,,,,,,,,,,,,,,,,0,0,0,0,0
0.2056,1783720776.7287,1,0,1.0000,0.0000,1.42052,0.14185,-2.66687,0.95417,1.57080,0.11681,-0.13197,-0.44703,0.06308,,,,,,,,,,,,,,,,,,,,,,,,,,0,0,0,0,0
0.2134,1783720776.7365,1,0,1.0000,0.0000,1.42052,0.14185,-2.66687,0.95417,1.57080,0.11681,-0.13197,-0.44703,0.06308,,,,,,,,,,,,,,,,,,,,,,,,,,0,0,0,0,0
0.2139,1783720776.7370,1,0,1.0000,0.0000,1.42052,0.14185,-2.66687,0.95417,1.57080,0.11681,-0.13197,-0.44703,0.06308,,,,,,,,,,,,,,,,,,,,,,,,,,0,0,0,0,0
0.2220,1783720776.7452,1,0,1.0000,0.0000,1.42052,0.14185,-2.66687,0.95417,1.57080,0.11681,-0.13197,-0.44703,0.06308,,,,,,,,,,,,,,,,,,,,,,,,,,0,0,0,0,0
0.2226,1783720776.7458,1,0,1.0000,0.0000,1.42052,0.14185,-2.66687,0.95417,1.57080,0.11681,-0.13197,-0.44703,0.06308,,,,,,,,,,,,,,,,,,,,,,,,,,0,0,0,0,0
0.2403,1783720776.7634,1,0,1.0000,0.0000,1.42052,0.14185,-2.66687,0.95417,1.57080,0.11681,-0.13197,-0.44703,0.06308,,,,,,,,,,,,,,,,,,,,,,,,,,0,0,0,0,0
0.2467,1783720776.7698,1,0,1.0000,0.0000,1.42052,0.14185,-2.66687,0.95417,1.57080,0.11681,-0.13197,-0.44703,0.06308,,,,,,,,,,,,,,,,,,,,,,,,,,0,0,0,0,0
0.2610,1783720776.7842,1,0,1.0000,0.0000,1.42052,0.14185,-2.66687,0.95417,1.57080,0.11681,-0.13197,-0.44703,0.06308,,,,,,,,,,,,,,,,,,,,,,,,,,0,0,0,0,0
0.2710,1783720776.7941,1,0,1.0000,0.0000,1.42052,0.14185,-2.66687,0.95417,1.57080,0.11681,-0.13197,-0.44703,0.06308,,,,,,,,,,,,,,,,,,,,,,,,,,0,0,0,0,0
0.2755,1783720776.7986,1,0,1.0000,0.0000,1.42052,0.14185,-2.66687,0.95417,1.57080,0.11681,-0.13197,-0.44703,0.06308,,,,,,,,,,,,,,,,,,,,,,,,,,0,0,0,0,0
0.2876,1783720776.8107,1,0,1.0000,0.0000,1.42052,0.14185,-2.66687,0.95417,1.57080,0.11681,-0.13197,-0.44703,0.06308,,,,,,,,,,,,,,,,,,,,,,,,,,0,0,0,0,0
0.3012,1783720776.8244,1,0,1.0000,0.0000,1.42052,0.14185,-2.66687,0.95417,1.57080,0.11681,-0.13197,-0.44703,0.06308,,,,,,,,,,,,,,,,,,,,,,,,,,0,0,0,0,0
0.3075,1783720776.8306,1,0,1.0000,0.0000,1.42052,0.14185,-2.66687,0.95417,1.57080,0.11681,-0.13197,-0.44703,0.06308,,,,,,,,,,,,,,,,,,,,,,,,,,0,0,0,0,0
0.3159,1783720776.8391,1,0,1.0000,0.0000,1.42052,0.14185,-2.66687,0.95417,1.57080,0.11681,-0.13197,-0.44703,0.06308,,,,,,,,,,,,,,,,,,,,,,,,,,0,0,0,0,0
0.3576,1783720776.8808,1,0,1.0000,0.0000,1.42052,0.14185,-2.66687,0.95417,1.57080,0.11681,-0.13197,-0.44703,0.06308,,,,,,,,,,,,,,,,,,,,,,,,,,0,0,0,0,0
0.3635,1783720776.8866,1,0,1.0000,0.0000,1.42052,0.14185,-2.66687,0.95417,1.57080,0.11681,-0.13197,-0.44703,0.06308,,,,,,,,,,,,,,,,,,,,,,,,,,0,0,0,0,0
0.3640,1783720776.8871,1,0,1.0000,0.0000,1.42052,0.14185,-2.66687,0.95417,1.57080,0.11681,-0.13197,-0.44703,0.06308,,,,,,,,,,,,,,,,,,,,,,,,,,0,0,0,0,0
0.3644,1783720776.8876,1,0,1.0000,0.0000,1.42052,0.14185,-2.66687,0.95417,1.57080,0.11681,-0.13197,-0.44703,0.06308,,,,,,,,,,,,,,,,,,,,,,,,,,0,0,0,0,0
0.3677,1783720776.8908,1,0,1.0000,0.0000,1.42052,0.14185,-2.66687,0.95417,1.57080,0.11681,-0.13197,-0.44703,0.06308,,,,,,,,,,,,,,,,,,,,,,,,,,0,0,0,0,0
0.3681,1783720776.8912,1,0,1.0000,0.0000,1.42052,0.14185,-2.66687,0.95417,1.57080,0.11681,-0.13197,-0.44703,0.06308,,,,,,,,,,,,,,,,,,,,,,,,,,0,0,0,0,0
0.3768,1783720776.8999,1,0,1.0000,0.0000,1.42052,0.14185,-2.66687,0.95417,1.57080,0.11681,-0.13197,-0.44703,0.06308,,,,,,,,,,,,,,,,,,,,,,,,,,0,0,0,0,0
0.3882,1783720776.9114,1,0,1.0000,0.0000,1.42052,0.14185,-2.66687,0.95417,1.57080,0.11681,-0.13197,-0.44703,0.06308,,,,,,,,,,,,,,,,,,,,,,,,,,0,0,0,0,0
0.4011,1783720776.9243,1,0,1.0000,0.0000,1.42052,0.14185,-2.66687,0.95417,1.57080,0.11681,-0.13197,-0.44703,0.06308,,,,,,,,,,,,,,,,,,,,,,,,,,0,0,0,0,0
0.4103,1783720776.9335,1,0,1.0000,0.0000,1.42052,0.14185,-2.66687,0.95417,1.57080,0.11681,-0.13197,-0.44703,0.06308,,,,,,,,,,,,,,,,,,,,,,,,,,0,0,0,0,0
0.4160,1783720776.9392,1,0,1.0000,0.0000,1.42052,0.14185,-2.66687,0.95417,1.57080,0.11681,-0.13197,-0.44703,0.06308,,,,,,,,,,,,,,,,,,,,,,,,,,0,0,0,0,0
0.4273,1783720776.9505,1,0,1.0000,0.0000,1.42052,0.14185,-2.66687,0.95417,1.57080,0.11681,-0.13197,-0.44703,0.06308,,,,,,,,,,,,,,,,,,,,,,,,,,0,0,0,0,0
0.4276,1783720776.9508,1,0,1.0000,0.0000,1.42052,0.14185,-2.66687,0.95417,1.57080,0.11681,-0.13197,-0.44703,0.06308,,,,,,,,,,,,,,,,,,,,,,,,,,0,0,0,0,0
0.4434,1783720776.9666,1,0,1.0000,0.0000,1.42052,0.14185,-2.66687,0.95417,1.57080,0.11681,-0.13197,-0.44703,0.06308,,,,,,,,,,,,,,,,,,,,,,,,,,0,0,0,0,0
0.4437,1783720776.9668,1,0,1.0000,0.0000,1.42052,0.14185,-2.66687,0.95417,1.57080,0.11681,-0.13197,-0.44703,0.06308,,,,,,,,,,,,,,,,,,,,,,,,,,0,0,0,0,0
0.4473,1783720776.9705,1,0,1.0000,0.0000,1.42052,0.14185,-2.66687,0.95417,1.57080,0.11681,-0.13197,-0.44703,0.06308,,,,,,,,,,,,,,,,,,,,,,,,,,0,0,0,0,0
0.4575,1783720776.9807,1,0,1.0000,0.0000,1.42052,0.14185,-2.66687,0.95417,1.57080,0.11681,-0.13197,-0.44703,0.06308,,,,,,,,,,,,,,,,,,,,,,,,,,0,0,0,0,0
0.4703,1783720776.9934,1,0,1.0000,0.0000,1.42052,0.14185,-2.66687,0.95417,1.57080,0.11681,-0.13197,-0.44703,0.06308,,,,,,,,,,,,,,,,,,,,,,,,,,0,0,0,0,0
0.4755,1783720776.9986,1,0,1.0000,0.0000,1.42052,0.14185,-2.66687,0.95417,1.57080,0.11681,-0.13197,-0.44703,0.06308,,,,,,,,,,,,,,,,,,,,,,,,,,0,0,0,0,0
0.4759,1783720776.9991,1,0,1.0000,0.0000,1.42052,0.14185,-2.66687,0.95417,1.57080,0.11681,-0.13197,-0.44703,0.06308,,,,,,,,,,,,,,,,,,,,,,,,,,0,0,0,0,0
0.4893,1783720777.0124,1,0,1.0000,0.0000,1.42052,0.14185,-2.66687,0.95417,1.57080,0.11681,-0.13197,-0.44703,0.06308,,,,,,,,,,,,,,,,,,,,,,,,,,0,0,0,0,0
0.4966,1783720777.0197,1,0,1.0000,0.0000,1.42052,0.14185,-2.66687,0.95417,1.57080,0.11681,-0.13197,-0.44703,0.06308,,,,,,,,,,,,,,,,,,,,,,,,,,0,0,0,0,0
0.5076,1783720777.0308,1,0,1.0000,0.0000,1.42052,0.14185,-2.66687,0.95417,1.57080,0.11681,-0.13197,-0.44703,0.06308,,,,,,,,,,,,,,,,,,,,,,,,,,0,0,0,0,0
0.5160,1783720777.0391,1,0,1.0000,0.0000,1.42052,0.14185,-2.66687,0.95417,1.57080,0.11681,-0.13197,-0.44703,0.06308,,,,,,,,,,,,,,,,,,,,,,,,,,0,0,0,0,0
0.5256,1783720777.0487,1,0,1.0000,0.0000,1.42052,0.14185,-2.66687,0.95417,1.57080,0.11681,-0.13197,-0.44703,0.06308,,,,,,,,,,,,,,,,,,,,,,,,,,0,0,0,0,0
0.5260,1783720777.0491,1,0,1.0000,0.0000,1.42052,0.14185,-2.66687,0.95417,1.57080,0.11681,-0.13197,-0.44703,0.06308,,,,,,,,,,,,,,,,,,,,,,,,,,0,0,0,0,0
0.5409,1783720777.0640,1,0,1.0000,0.0000,1.42052,0.14185,-2.66687,0.95417,1.57080,0.11681,-0.13197,-0.44703,0.06308,,,,,,,,,,,,,,,,,,,,,,,,,,0,0,0,0,0
0.5489,1783720777.0721,1,0,1.0000,0.0000,1.42052,0.14185,-2.66687,0.95417,1.57080,0.11681,-0.13197,-0.44703,0.06308,,,,,,,,,,,,,,,,,,,,,,,,,,0,0,0,0,0
0.5576,1783720777.0807,1,0,1.0000,0.0000,1.42052,0.14185,-2.66687,0.95417,1.57080,0.11681,-0.13197,-0.44703,0.06308,,,,,,,,,,,,,,,,,,,,,,,,,,0,0,0,0,0
0.5672,1783720777.0903,1,0,1.0000,0.0000,1.42052,0.14185,-2.66687,0.95417,1.57080,0.11681,-0.13197,-0.44703,0.06308,,,,,,,,,,,,,,,,,,,,,,,,,,0,0,0,0,0
0.5792,1783720777.1023,1,0,1.0000,0.0000,1.42052,0.14185,-2.66687,0.95417,1.57080,0.11681,-0.13197,-0.44703,0.06308,,,,,,,,,,,,,,,,,,,,,,,,,,0,0,0,0,0
0.5874,1783720777.1106,1,0,1.0000,0.0000,1.42052,0.14185,-2.66687,0.95417,1.57080,0.11681,-0.13197,-0.44703,0.06308,,,,,,,,,,,,,,,,,,,,,,,,,,0,0,0,0,0
0.5959,1783720777.1190,1,0,1.0000,0.0000,1.42052,0.14185,-2.66687,0.95417,1.57080,0.11681,-0.13197,-0.44703,0.06308,,,,,,,,,,,,,,,,,,,,,,,,,,0,0,0,0,0
0.5962,1783720777.1194,1,0,1.0000,0.0000,1.42052,0.14185,-2.66687,0.95417,1.57080,0.11681,-0.13197,-0.44703,0.06308,,,,,,,,,,,,,,,,,,,,,,,,,,0,0,0,0,0
0.6060,1783720777.1292,1,0,1.0000,0.0000,1.42052,0.14185,-2.66687,0.95417,1.57080,0.11681,-0.13197,-0.44703,0.06308,,,,,,,,,,,,,,,,,,,,,,,,,,0,0,0,0,0
0.6066,1783720777.1297,1,0,1.0000,0.0000,1.42052,0.14185,-2.66687,0.95417,1.57080,0.11681,-0.13197,-0.44703,0.06308,,,,,,,,,,,,,,,,,,,,,,,,,,0,0,0,0,0
0.6162,1783720777.1394,1,0,1.0000,0.0000,1.42052,0.14185,-2.66687,0.95417,1.57080,0.11681,-0.13197,-0.44703,0.06308,,,,,,,,,,,,,,,,,,,,,,,,,,0,0,0,0,0
0.6275,1783720777.1506,1,0,1.0000,0.0000,1.42052,0.14185,-2.66687,0.95417,1.57080,0.11681,-0.13197,-0.44703,0.06308,,,,,,,,,,,,,,,,,,,,,,,,,,0,0,0,0,0
0.6362,1783720777.1593,1,0,1.0000,0.0000,1.42052,0.14185,-2.66687,0.95417,1.57080,0.11681,-0.13197,-0.44703,0.06308,,,,,,,,,,,,,,,,,,,,,,,,,,0,0,0,0,0
0.6602,1783720777.1834,1,0,1.0000,0.0000,1.42051,0.14185,-2.66688,0.95417,1.57080,0.11682,-0.13197,-0.44703,0.06308,,,,,,,,,,,,,,,,,,,,,,,,,,0,0,0,0,0
0.6610,1783720777.1842,1,0,1.0000,0.0000,1.42051,0.14185,-2.66688,0.95417,1.57080,0.11682,-0.13197,-0.44703,0.06308,,,,,,,,,,,,,,,,,,,,,,,,,,0,0,0,0,0
0.6690,1783720777.1921,1,0,1.0000,0.0000,1.42049,0.14186,-2.66690,0.95417,1.57080,0.11683,-0.13196,-0.44702,0.06307,,,,,,,,,,,,,,,,,,,,,,,,,,0,0,0,0,0
0.6763,1783720777.1994,1,0,1.0000,0.0000,1.42046,0.14186,-2.66692,0.95417,1.57080,0.11686,-0.13195,-0.44701,0.06306,,,,,,,,,,,,,,,,,,,,,,,,,,0,0,0,0,0
0.7008,1783720777.2240,1,0,1.0000,0.0000,1.42032,0.14190,-2.66697,0.95417,1.57080,0.11699,-0.13190,-0.44699,0.06305,,,,,,,,,,,,,,,,,,,,,,,,,,0,0,0,0,0
0.7013,1783720777.2244,1,0,1.0000,0.0000,1.42032,0.14190,-2.66697,0.95417,1.57080,0.11699,-0.13190,-0.44699,0.06305,,,,,,,,,,,,,,,,,,,,,,,,,,0,0,0,0,0
0.7081,1783720777.2312,1,0,1.0000,0.0000,1.42020,0.14194,-2.66702,0.95416,1.57080,0.11711,-0.13186,-0.44698,0.06304,,,,,,,,,,,,,,,,,,,,,,,,,,0,0,0,0,0
0.7084,1783720777.2316,1,0,1.0000,0.0000,1.42020,0.14194,-2.66702,0.95416,1.57080,0.11711,-0.13186,-0.44698,0.06304,,,,,,,,,,,,,,,,,,,,,,,,,,0,0,0,0,0
0.7186,1783720777.2418,1,0,1.0000,0.0000,1.42019,0.14194,-2.66702,0.95416,1.57080,0.11712,-0.13185,-0.44698,0.06304,,,,,,,,,,,,,,,,,,,,,,,,,,0,0,0,0,0
0.7281,1783720777.2512,1,0,1.0000,0.0000,1.41998,0.14200,-2.66707,0.95416,1.57080,0.11733,-0.13178,-0.44698,0.06304,,,,,,,,,,,,,,,,,,,,,,,,,,0,0,0,0,0
0.7451,1783720777.2683,1,0,1.0000,0.0000,1.41975,0.14206,-2.66711,0.95415,1.57080,0.11755,-0.13169,-0.44698,0.06304,,,,,,,,,,,,,,,,,,,,,,,,,,0,0,0,0,0
0.7516,1783720777.2747,1,0,1.0000,0.0000,1.41945,0.14214,-2.66717,0.95413,1.57080,0.11785,-0.13158,-0.44699,0.06304,,,,,,,,,,,,,,,,,,,,,,,,,,0,0,0,0,0
0.7583,1783720777.2815,1,0,1.0000,0.0000,1.41924,0.14220,-2.66721,0.95412,1.57080,0.11805,-0.13150,-0.44699,0.06305,,,,,,,,,,,,,,,,,,,,,,,,,,0,0,0,0,0
0.7661,1783720777.2893,1,0,1.0000,0.0000,1.41875,0.14233,-2.66731,0.95410,1.57080,0.11855,-0.13132,-0.44700,0.06305,,,,,,,,,,,,,,,,,,,,,,,,,,0,0,0,0,0
0.7664,1783720777.2896,1,0,1.0000,0.0000,1.41875,0.14233,-2.66731,0.95410,1.57080,0.11855,-0.13132,-0.44700,0.06305,,,,,,,,,,,,,,,,,,,,,,,,,,0,0,0,0,0
0.7757,1783720777.2989,1,0,1.0000,0.0000,1.41859,0.14237,-2.66734,0.95409,1.57080,0.11871,-0.13126,-0.44700,0.06305,,,,,,,,,,,,,,,,,,,,,,,,,,0,0,0,0,0
0.7892,1783720777.3123,1,0,1.0000,0.0000,1.41784,0.14258,-2.66749,0.95405,1.57080,0.11945,-0.13098,-0.44701,0.06305,,,,,,,,,,,,,,,,,,,,,,,,,,0,0,0,0,0
0.7963,1783720777.3194,1,0,1.0000,0.0000,1.41710,0.14278,-2.66763,0.95401,1.57080,0.12019,-0.13070,-0.44702,0.06306,,,,,,,,,,,,,,,,,,,,,,,,,,0,0,0,0,0
0.8060,1783720777.3292,1,0,1.0000,0.0000,1.41705,0.14279,-2.66764,0.95401,1.57080,0.12025,-0.13068,-0.44702,0.06306,,,,,,,,,,,,,,,,,,,,,,,,,,0,0,0,0,0
0.8192,1783720777.3424,1,0,1.0000,0.0000,1.41589,0.14311,-2.66786,0.95394,1.57080,0.12141,-0.13025,-0.44703,0.06307,,,,,,,,,,,,,,,,,,,,,,,,,,0,0,0,0,0
0.8196,1783720777.3428,1,0,1.0000,0.0000,1.41589,0.14311,-2.66786,0.95394,1.57080,0.12141,-0.13025,-0.44703,0.06307,,,,,,,,,,,,,,,,,,,,,,,,,,0,0,0,0,0
0.8298,1783720777.3530,1,0,1.0000,0.0000,1.41582,0.14312,-2.66788,0.95393,1.57080,0.12148,-0.13022,-0.44703,0.06307,,,,,,,,,,,,,,,,,,,,,,,,,,0,0,0,0,0
0.8381,1783720777.3613,1,0,1.0000,0.0000,1.41530,0.14326,-2.66798,0.95390,1.57080,0.12199,-0.13003,-0.44704,0.06307,,,,,,,,,,,,,,,,,,,,,,,,,,0,0,0,0,0
0.8533,1783720777.3765,1,0,1.0000,0.0000,1.41327,0.14381,-2.66837,0.95377,1.57080,0.12402,-0.12927,-0.44706,0.06308,,,,,,,,,,,,,,,,,,,,,,,,,,0,0,0,0,0
0.8600,1783720777.3831,1,0,1.0000,0.0000,1.41266,0.14397,-2.66848,0.95373,1.57080,0.12463,-0.12904,-0.44706,0.06308,,,,,,,,,,,,,,,,,,,,,,,,,,0,0,0,0,0
0.8703,1783720777.3934,1,0,1.0000,0.0000,1.41247,0.14402,-2.66852,0.95372,1.57080,0.12483,-0.12897,-0.44707,0.06308,,,,,,,,,,,,,,,,,,,,,,,,,,0,0,0,0,0
0.8925,1783720777.4156,1,0,1.0000,0.0000,1.41080,0.14447,-2.66885,0.95360,1.57080,0.12650,-0.12835,-0.44708,0.06308,,,,,,,,,,,,,,,,,,,,,,,,,,0,0,0,0,0
0.8927,1783720777.4159,1,0,1.0000,0.0000,1.41080,0.14447,-2.66885,0.95360,1.57080,0.12650,-0.12835,-0.44708,0.06308,,,,,,,,,,,,,,,,,,,,,,,,,,0,0,0,0,0
0.9006,1783720777.4238,1,0,1.0000,0.0000,1.41064,0.14451,-2.66888,0.95359,1.57080,0.12665,-0.12829,-0.44708,0.06308,,,,,,,,,,,,,,,,,,,,,,,,,,0,0,0,0,0
0.9011,1783720777.4242,1,0,1.0000,0.0000,1.41064,0.14451,-2.66888,0.95359,1.57080,0.12665,-0.12829,-0.44708,0.06308,,,,,,,,,,,,,,,,,,,,,,,,,,0,0,0,0,0
0.9133,1783720777.4364,1,0,1.0000,0.0000,1.40995,0.14470,-2.66901,0.95355,1.57080,0.12735,-0.12803,-0.44708,0.06308,,,,,,,,,,,,,,,,,,,,,,,,,,0,0,0,0,0
0.9136,1783720777.4367,1,0,1.0000,0.0000,1.40995,0.14470,-2.66901,0.95355,1.57080,0.12735,-0.12803,-0.44708,0.06308,,,,,,,,,,,,,,,,,,,,,,,,,,0,0,0,0,0
0.9164,1783720777.4396,1,0,1.0000,0.0000,1.40995,0.14470,-2.66901,0.95355,1.57080,0.12735,-0.12803,-0.44708,0.06308,,,,,,,,,,,,,,,,,,,,,,,,,,0,0,0,0,0
0.9167,1783720777.4399,1,0,1.0000,0.0000,1.40995,0.14470,-2.66901,0.95355,1.57080,0.12735,-0.12803,-0.44708,0.06308,,,,,,,,,,,,,,,,,,,,,,,,,,0,0,0,0,0
0.9435,1783720777.4666,1,0,1.0000,0.0000,1.40865,0.14504,-2.66926,0.95345,1.57080,0.12864,-0.12755,-0.44709,0.06308,,,,,,,,,,,,,,,,,,,,,,,,,,0,0,0,0,0
0.9494,1783720777.4726,1,0,1.0000,0.0000,1.40865,0.14504,-2.66926,0.95345,1.57080,0.12864,-0.12755,-0.44709,0.06308,,,,,,,,,,,,,,,,,,,,,,,,,,0,0,0,0,0
0.9498,1783720777.4729,1,0,1.0000,0.0000,1.40865,0.14504,-2.66926,0.95345,1.57080,0.12864,-0.12755,-0.44709,0.06308,,,,,,,,,,,,,,,,,,,,,,,,,,0,0,0,0,0
0.9658,1783720777.4890,1,0,1.0000,0.0000,1.40836,0.14512,-2.66931,0.95343,1.57080,0.12893,-0.12744,-0.44710,0.06309,,,,,,,,,,,,,,,,,,,,,,,,,,0,0,0,0,0
0.9662,1783720777.4893,1,0,1.0000,0.0000,1.40836,0.14512,-2.66931,0.95343,1.57080,0.12893,-0.12744,-0.44710,0.06309,,,,,,,,,,,,,,,,,,,,,,,,,,0,0,0,0,0
0.9666,1783720777.4897,1,0,1.0000,0.0000,1.40836,0.14512,-2.66931,0.95343,1.57080,0.12893,-0.12744,-0.44710,0.06309,,,,,,,,,,,,,,,,,,,,,,,,,,0,0,0,0,0
0.9671,1783720777.4903,1,0,1.0000,0.0000,1.40822,0.14516,-2.66933,0.95342,1.57080,0.12907,-0.12739,-0.44710,0.06309,,,,,,,,,,,,,,,,,,,,,,,,,,0,0,0,0,0
0.9785,1783720777.5017,1,0,1.0000,0.0000,1.40791,0.14524,-2.66938,0.95339,1.57080,0.12939,-0.12727,-0.44711,0.06310,,,,,,,,,,,,,,,,,,,,,,,,,,0,0,0,0,0
0.9791,1783720777.5022,1,0,1.0000,0.0000,1.40774,0.14528,-2.66940,0.95338,1.57080,0.12955,-0.12721,-0.44712,0.06310,,,,,,,,,,,,,,,,,,,,,,,,,,0,0,0,0,0
0.9875,1783720777.5107,1,0,1.0000,0.0000,1.40743,0.14537,-2.66944,0.95335,1.57080,0.12987,-0.12709,-0.44713,0.06311,,,,,,,,,,,,,,,,,,,,,,,,,,0,0,0,0,0
0.9992,1783720777.5224,1,0,1.0000,0.0000,1.40708,0.14546,-2.66947,0.95332,1.57080,0.13022,-0.12696,-0.44716,0.06313,,,,,,,,,,,,,,,,,,,,,,,,,,0,0,0,0,0
1.0066,1783720777.5298,1,0,1.0000,0.0000,1.40702,0.14548,-2.66947,0.95332,1.57080,0.13028,-0.12693,-0.44717,0.06314,,,,,,,,,,,,,,,,,,,,,,,,,,0,0,0,0,0
1.0072,1783720777.5304,1,0,1.0000,0.0000,1.40700,0.14548,-2.66946,0.95332,1.57080,0.13031,-0.12692,-0.44718,0.06314,,,,,,,,,,,,,,,,,,,,,,,,,,0,0,0,0,0
1.0181,1783720777.5412,1,0,1.0000,0.0000,1.40700,0.14548,-2.66946,0.95332,1.57080,0.13031,-0.12692,-0.44718,0.06314,,,,,,,,,,,,,,,,,,,,,,,,,,0,0,0,0,0
1.0281,1783720777.5513,1,1,1.0000,0.0000,1.40700,0.14548,-2.66946,0.95332,1.57080,0.13031,-0.12692,-0.44718,0.06314,,,,,,,,,,,,,,,,,,,,,,,,,,0,0,0,0,0
1.0603,1783720777.5835,1,1,1.0000,0.0000,1.40700,0.14548,-2.66946,0.95332,1.57080,0.13031,-0.12692,-0.44718,0.06314,,,,,,,,,,,,,,,,,,,,,,,,,,0,0,0,0,0
1.0607,1783720777.5839,1,1,1.0000,0.0000,1.40700,0.14548,-2.66946,0.95332,1.57080,0.13031,-0.12692,-0.44718,0.06314,,,,,,,,,,,,,,,,,,,,,,,,,,0,0,0,0,0
1.0610,1783720777.5841,1,1,1.0000,0.0000,1.40700,0.14548,-2.66946,0.95332,1.57080,0.13031,-0.12692,-0.44718,0.06314,,,,,,,,,,,,,,,,,,,,,,,,,,0,0,0,0,0
1.0662,1783720777.5894,1,1,1.0000,0.0000,1.40700,0.14548,-2.66946,0.95332,1.57080,0.13031,-0.12692,-0.44718,0.06314,,,,,,,,,,,,,,,,,,,,,,,,,,0,0,0,0,0
1.0761,1783720777.5993,1,1,1.0000,0.0000,1.40700,0.14548,-2.66946,0.95332,1.57080,0.13031,-0.12692,-0.44718,0.06314,,,,,,,,,,,,,,,,,,,,,,,,,,0,0,0,0,0
1.0905,1783720777.6137,1,1,1.0000,0.0000,1.40700,0.14548,-2.66946,0.95332,1.57080,0.13031,-0.12692,-0.44718,0.06314,,,,,,,,,,,,,,,,,,,,,,,,,,0,0,0,0,0
1.1012,1783720777.6244,1,1,1.0000,0.0000,1.40700,0.14548,-2.66946,0.95332,1.57080,0.13031,-0.12692,-0.44718,0.06314,,,,,,,,,,,,,,,,,,,,,,,,,,0,0,0,0,0
1.1077,1783720777.6309,1,1,1.0000,0.0000,1.40700,0.14548,-2.66946,0.95332,1.57080,0.13031,-0.12692,-0.44718,0.06314,,,,,,,,,,,,,,,,,,,,,,,,,,0,0,0,0,0
1.1182,1783720777.6414,1,1,1.0000,0.0000,1.40700,0.14548,-2.66946,0.95332,1.57080,0.13031,-0.12692,-0.44718,0.06314,,,,,,,,,,,,,,,,,,,,,,,,,,0,0,0,0,0
1.1274,1783720777.6505,1,1,1.0000,0.0000,1.40700,0.14548,-2.66946,0.95332,1.57080,0.13031,-0.12692,-0.44718,0.06314,,,,,,,,,,,,,,,,,,,,,,,,,,0,0,0,0,0
1.1390,1783720777.6621,1,1,1.0000,0.0000,1.40700,0.14548,-2.66946,0.95332,1.57080,0.13031,-0.12692,-0.44718,0.06314,,,,,,,,,,,,,,,,,,,,,,,,,,0,0,0,0,0
1.1474,1783720777.6705,1,1,1.0000,0.0000,1.40700,0.14548,-2.66946,0.95332,1.57080,0.13031,-0.12692,-0.44718,0.06314,,,,,,,,,,,,,,,,,,,,,,,,,,0,0,0,0,0
1.1637,1783720777.6868,1,1,1.0000,0.0000,1.40700,0.14548,-2.66946,0.95332,1.57080,0.13031,-0.12692,-0.44718,0.06314,,,,,,,,,,,,,,,,,,,,,,,,,,0,0,0,0,0
1.1641,1783720777.6872,1,1,1.0000,0.0000,1.40700,0.14548,-2.66946,0.95332,1.57080,0.13031,-0.12692,-0.44718,0.06314,,,,,,,,,,,,,,,,,,,,,,,,,,0,0,0,0,0
1.1712,1783720777.6943,1,1,1.0000,0.0000,1.40700,0.14548,-2.66946,0.95332,1.57080,0.13031,-0.12692,-0.44718,0.06314,,,,,,,,,,,,,,,,,,,,,,,,,,0,0,0,0,0
1.1770,1783720777.7001,1,1,1.0000,0.0000,1.40700,0.14548,-2.66946,0.95332,1.57080,0.13031,-0.12692,-0.44718,0.06314,,,,,,,,,,,,,,,,,,,,,,,,,,0,0,0,0,0
1.1861,1783720777.7092,1,1,1.0000,0.0000,1.40700,0.14548,-2.66946,0.95332,1.57080,0.13031,-0.12692,-0.44718,0.06314,,,,,,,,,,,,,,,,,,,,,,,,,,0,0,0,0,0
1.1984,1783720777.7216,1,1,1.0000,0.0000,1.40700,0.14548,-2.66946,0.95332,1.57080,0.13031,-0.12692,-0.44718,0.06314,,,,,,,,,,,,,,,,,,,,,,,,,,0,0,0,0,0
1.2077,1783720777.7309,1,1,1.0000,0.0000,1.40700,0.14548,-2.66946,0.95332,1.57080,0.13031,-0.12692,-0.44718,0.06314,,,,,,,,,,,,,,,,,,,,,,,,,,0,0,0,0,0
1.2202,1783720777.7433,1,1,1.0000,0.0000,1.40700,0.14548,-2.66946,0.95332,1.57080,0.13031,-0.12692,-0.44718,0.06314,,,,,,,,,,,,,,,,,,,,,,,,,,0,0,0,0,0
1.2393,1783720777.7625,1,1,1.0000,0.0000,1.40700,0.14548,-2.66946,0.95332,1.57080,0.13031,-0.12692,-0.44718,0.06314,,,,,,,,,,,,,,,,,,,,,,,,,,0,0,0,0,0
1.2396,1783720777.7627,1,1,1.0000,0.0000,1.40700,0.14548,-2.66946,0.95332,1.57080,0.13031,-0.12692,-0.44718,0.06314,,,,,,,,,,,,,,,,,,,,,,,,,,0,0,0,0,0
1.2432,1783720777.7664,1,1,1.0000,0.0000,1.40700,0.14548,-2.66946,0.95332,1.57080,0.13031,-0.12692,-0.44718,0.06314,,,,,,,,,,,,,,,,,,,,,,,,,,0,0,0,0,0
1.2460,1783720777.7692,1,1,1.0000,0.0000,1.40700,0.14548,-2.66946,0.95332,1.57080,0.13031,-0.12692,-0.44718,0.06314,,,,,,,,,,,,,,,,,,,,,,,,,,0,0,0,0,0
1.2463,1783720777.7695,1,1,1.0000,0.0000,1.40700,0.14548,-2.66946,0.95332,1.57080,0.13031,-0.12692,-0.44718,0.06314,,,,,,,,,,,,,,,,,,,,,,,,,,0,0,0,0,0
1.2698,1783720777.7929,1,1,1.0000,0.0000,1.40700,0.14548,-2.66946,0.95332,1.57080,0.13031,-0.12692,-0.44718,0.06314,,,,,,,,,,,,,,,,,,,,,,,,,,0,0,0,0,0
1.2702,1783720777.7933,1,1,1.0000,0.0000,1.40700,0.14548,-2.66946,0.95332,1.57080,0.13031,-0.12692,-0.44718,0.06314,,,,,,,,,,,,,,,,,,,,,,,,,,0,0,0,0,0
1.2711,1783720777.7942,1,1,1.0000,0.0000,1.40700,0.14548,-2.66946,0.95332,1.57080,0.13031,-0.12692,-0.44718,0.06314,,,,,,,,,,,,,,,,,,,,,,,,,,0,0,0,0,0
1.2758,1783720777.7989,1,1,1.0000,0.0000,1.40700,0.14548,-2.66946,0.95332,1.57080,0.13031,-0.12692,-0.44718,0.06314,,,,,,,,,,,,,,,,,,,,,,,,,,0,0,0,0,0
1.2956,1783720777.8187,1,1,1.0000,0.0000,1.40700,0.14548,-2.66946,0.95332,1.57080,0.13031,-0.12692,-0.44718,0.06314,,,,,,,,,,,,,,,,,,,,,,,,,,0,0,0,0,0
1.2959,1783720777.8191,1,1,1.0000,0.0000,1.40700,0.14548,-2.66946,0.95332,1.57080,0.13031,-0.12692,-0.44718,0.06314,,,,,,,,,,,,,,,,,,,,,,,,,,0,0,0,0,0
1.2964,1783720777.8196,1,1,1.0000,0.0000,1.40700,0.14548,-2.66946,0.95332,1.57080,0.13031,-0.12692,-0.44718,0.06314,,,,,,,,,,,,,,,,,,,,,,,,,,0,0,0,0,0
1.3071,1783720777.8303,1,1,1.0000,0.0000,1.40700,0.14548,-2.66946,0.95332,1.57080,0.13031,-0.12692,-0.44718,0.06314,,,,,,,,,,,,,,,,,,,,,,,,,,0,0,0,0,0
1.3162,1783720777.8393,1,1,1.0000,0.0000,1.40700,0.14548,-2.66946,0.95332,1.57080,0.13031,-0.12692,-0.44718,0.06314,,,,,,,,,,,,,,,,,,,,,,,,,,0,0,0,0,0
1.3271,1783720777.8502,1,1,1.0000,0.0000,1.40700,0.14548,-2.66946,0.95332,1.57080,0.13031,-0.12692,-0.44718,0.06314,,,,,,,,,,,,,,,,,,,,,,,,,,0,0,0,0,0
1.3392,1783720777.8624,1,1,1.0000,0.0000,1.40700,0.14548,-2.66946,0.95332,1.57080,0.13031,-0.12692,-0.44718,0.06314,,,,,,,,,,,,,,,,,,,,,,,,,,0,0,0,0,0
1.3395,1783720777.8627,1,1,1.0000,0.0000,1.40700,0.14548,-2.66946,0.95332,1.57080,0.13031,-0.12692,-0.44718,0.06314,,,,,,,,,,,,,,,,,,,,,,,,,,0,0,0,0,0
1.3474,1783720777.8706,1,1,1.0000,0.0000,1.40700,0.14548,-2.66946,0.95332,1.57080,0.13031,-0.12692,-0.44718,0.06314,,,,,,,,,,,,,,,,,,,,,,,,,,0,0,0,0,0
1.3478,1783720777.8709,1,1,1.0000,0.0000,1.40700,0.14548,-2.66946,0.95332,1.57080,0.13031,-0.12692,-0.44718,0.06314,,,,,,,,,,,,,,,,,,,,,,,,,,0,0,0,0,0
1.3675,1783720777.8906,1,1,1.0000,0.0000,1.40700,0.14548,-2.66946,0.95332,1.57080,0.13031,-0.12692,-0.44718,0.06314,,,,,,,,,,,,,,,,,,,,,,,,,,0,0,0,0,0
1.3678,1783720777.8910,1,1,1.0000,0.0000,1.40700,0.14548,-2.66946,0.95332,1.57080,0.13031,-0.12692,-0.44718,0.06314,,,,,,,,,,,,,,,,,,,,,,,,,,0,0,0,0,0
1.3784,1783720777.9015,1,1,1.0000,0.0000,1.40700,0.14548,-2.66946,0.95331,1.57080,0.13031,-0.12693,-0.44718,0.06314,,,,,,,,,,,,,,,,,,,,,,,,,,0,0,0,0,0
1.3865,1783720777.9096,1,1,1.0000,0.0000,1.40701,0.14548,-2.66947,0.95331,1.57080,0.13031,-0.12693,-0.44717,0.06314,,,,,,,,,,,,,,,,,,,,,,,,,,0,0,0,0,0
1.3972,1783720777.9204,1,1,1.0000,0.0000,1.40703,0.14548,-2.66948,0.95331,1.57081,0.13031,-0.12694,-0.44716,0.06313,,,,,,,,,,,,,,,,,,,,,,,,,,0,0,0,0,0
1.3976,1783720777.9208,1,1,1.0000,0.0000,1.40703,0.14548,-2.66948,0.95331,1.57081,0.13031,-0.12694,-0.44716,0.06313,,,,,,,,,,,,,,,,,,,,,,,,,,0,0,0,0,0
1.4074,1783720777.9305,1,1,1.0000,0.0000,1.40704,0.14547,-2.66948,0.95330,1.57081,0.13030,-0.12695,-0.44716,0.06313,,,,,,,,,,,,,,,,,,,,,,,,,,0,0,0,0,0
1.4241,1783720777.9472,1,1,1.0000,0.0000,1.40716,0.14544,-2.66945,0.95330,1.57081,0.13022,-0.12699,-0.44716,0.06313,,,,,,,,,,,,,,,,,,,,,,,,,,0,0,0,0,0
1.4280,1783720777.9512,1,1,1.0000,0.0000,1.40720,0.14543,-2.66944,0.95330,1.57081,0.13019,-0.12701,-0.44716,0.06313,,,,,,,,,,,,,,,,,,,,,,,,,,0,0,0,0,0
1.4363,1783720777.9595,1,1,1.0000,0.0000,1.40721,0.14543,-2.66943,0.95330,1.57081,0.13018,-0.12701,-0.44716,0.06313,,,,,,,,,,,,,,,,,,,,,,,,,,0,0,0,0,0
1.4460,1783720777.9692,1,1,1.0000,0.0000,1.40730,0.14541,-2.66941,0.95330,1.57081,0.13010,-0.12704,-0.44716,0.06313,,,,,,,,,,,,,,,,,,,,,,,,,,0,0,0,0,0
1.4717,1783720777.9949,1,1,1.0000,0.0000,1.40785,0.14526,-2.66931,0.95332,1.57081,0.12959,-0.12725,-0.44715,0.06313,,,,,,,,,,,,,,,,,,,,,,,,,,0,0,0,0,0
1.4720,1783720777.9952,1,1,1.0000,0.0000,1.40785,0.14526,-2.66931,0.95332,1.57081,0.12959,-0.12725,-0.44715,0.06313,,,,,,,,,,,,,,,,,,,,,,,,,,0,0,0,0,0
1.4760,1783720777.9991,1,1,1.0000,0.0000,1.40805,0.14521,-2.66927,0.95333,1.57081,0.12940,-0.12732,-0.44715,0.06313,,,,,,,,,,,,,,,,,,,,,,,,,,0,0,0,0,0
1.4862,1783720778.0093,1,1,1.0000,0.0000,1.40851,0.14509,-2.66919,0.95334,1.57081,0.12896,-0.12750,-0.44714,0.06312,,,,,,,,,,,,,,,,,,,,,,,,,,0,0,0,0,0
1.5009,1783720778.0240,1,1,1.0000,0.0000,1.40885,0.14500,-2.66912,0.95336,1.57081,0.12863,-0.12762,-0.44713,0.06312,,,,,,,,,,,,,,,,,,,,,,,,,,0,0,0,0,0
1.5073,1783720778.0305,1,1,1.0000,0.0000,1.40937,0.14486,-2.66903,0.95339,1.57081,0.12811,-0.12782,-0.44712,0.06311,,,,,,,,,,,,,,,,,,,,,,,,,,0,0,0,0,0
1.5178,1783720778.0409,1,1,1.0000,0.0000,1.41007,0.14467,-2.66890,0.95342,1.57081,0.12743,-0.12808,-0.44711,0.06311,,,,,,,,,,,,,,,,,,,,,,,,,,0,0,0,0,0
1.5262,1783720778.0493,1,1,1.0000,0.0000,1.41012,0.14466,-2.66889,0.95343,1.57081,0.12737,-0.12810,-0.44711,0.06311,,,,,,,,,,,,,,,,,,,,,,,,,,0,0,0,0,0
1.5267,1783720778.0499,1,1,1.0000,0.0000,1.41012,0.14466,-2.66889,0.95343,1.57081,0.12737,-0.12810,-0.44711,0.06311,,,,,,,,,,,,,,,,,,,,,,,,,,0,0,0,0,0
1.5364,1783720778.0596,1,1,1.0000,0.0000,1.41083,0.14447,-2.66875,0.95347,1.57081,0.12666,-0.12837,-0.44710,0.06310,,,,,,,,,,,,,,,,,,,,,,,,,,0,0,0,0,0
1.5460,1783720778.0691,1,1,1.0000,0.0000,1.41121,0.14436,-2.66868,0.95349,1.57081,0.12628,-0.12851,-0.44710,0.06310,,,,,,,,,,,,,,,,,,,,,,,,,,0,0,0,0,0
1.5465,1783720778.0696,1,1,1.0000,0.0000,1.41121,0.14436,-2.66868,0.95349,1.57081,0.12628,-0.12851,-0.44710,0.06310,,,,,,,,,,,,,,,,,,,,,,,,,,0,0,0,0,0
1.5582,1783720778.0813,1,1,1.0000,0.0000,1.41178,0.14421,-2.66857,0.95352,1.57081,0.12571,-0.12872,-0.44709,0.06310,,,,,,,,,,,,,,,,,,,,,,,,,,0,0,0,0,0
1.5707,1783720778.0939,1,1,1.0000,0.0000,1.41319,0.14383,-2.66831,0.95361,1.57081,0.12431,-0.12925,-0.44708,0.06309,,,,,,,,,,,,,,,,,,,,,,,,,,0,0,0,0,0
1.5781,1783720778.1013,1,1,1.0000,0.0000,1.41436,0.14352,-2.66808,0.95368,1.57081,0.12313,-0.12968,-0.44706,0.06308,,,,,,,,,,,,,,,,,,,,,,,,,,0,0,0,0,0
1.5859,1783720778.1091,1,1,1.0000,0.0000,1.41441,0.14350,-2.66807,0.95369,1.57081,0.12308,-0.12970,-0.44706,0.06308,,,,,,,,,,,,,,,,,,,,,,,,,,0,0,0,0,0
1.5863,1783720778.1094,1,1,1.0000,0.0000,1.41441,0.14350,-2.66807,0.95369,1.57081,0.12308,-0.12970,-0.44706,0.06308,,,,,,,,,,,,,,,,,,,,,,,,,,0,0,0,0,0
1.5979,1783720778.1211,1,1,1.0000,0.0000,1.41509,0.14332,-2.66794,0.95373,1.57081,0.12241,-0.12995,-0.44705,0.06308,,,,,,,,,,,,,,,,,,,,,,,,,,0,0,0,0,0
1.6131,1783720778.1362,1,1,1.0000,0.0000,1.41628,0.14300,-2.66771,0.95381,1.57081,0.12121,-0.13040,-0.44704,0.06307,,,,,,,,,,,,,,,,,,,,,,,,,,0,0,0,0,0
1.6167,1783720778.1398,1,1,1.0000,0.0000,1.41632,0.14298,-2.66770,0.95381,1.57081,0.12117,-0.13042,-0.44704,0.06307,,,,,,,,,,,,,,,,,,,,,,,,,,0,0,0,0,0
1.6285,1783720778.1516,1,1,1.0000,0.0000,1.41690,0.14283,-2.66759,0.95385,1.57081,0.12059,-0.13063,-0.44704,0.06307,,,,,,,,,,,,,,,,,,,,,,,,,,0,0,0,0,0
1.6386,1783720778.1618,1,1,1.0000,0.0000,1.41720,0.14275,-2.66753,0.95387,1.57081,0.12028,-0.13074,-0.44704,0.06307,,,,,,,,,,,,,,,,,,,,,,,,,,0,0,0,0,0
1.6455,1783720778.1686,1,1,1.0000,0.0000,1.41736,0.14270,-2.66750,0.95388,1.57081,0.12013,-0.13080,-0.44704,0.06307,,,,,,,,,,,,,,,,,,,,,,,,,,0,0,0,0,0
1.6459,1783720778.1690,1,1,1.0000,0.0000,1.41736,0.14270,-2.66750,0.95388,1.57081,0.12013,-0.13080,-0.44704,0.06307,,,,,,,,,,,,,,,,,,,,,,,,,,0,0,0,0,0
1.6571,1783720778.1802,1,1,1.0000,0.0000,1.41803,0.14252,-2.66736,0.95393,1.57081,0.11945,-0.13105,-0.44703,0.06307,,,,,,,,,,,,,,,,,,,,,,,,,,0,0,0,0,0
1.6665,1783720778.1897,1,1,1.0000,0.0000,1.41865,0.14236,-2.66724,0.95397,1.57081,0.11883,-0.13128,-0.44703,0.06307,,,,,,,,,,,,,,,,,,,,,,,,,,0,0,0,0,0
1.6759,1783720778.1991,1,1,1.0000,0.0000,1.41874,0.14233,-2.66723,0.95398,1.57081,0.11874,-0.13131,-0.44703,0.06307,,,,,,,,,,,,,,,,,,,,,,,,,,0,0,0,0,0
1.6871,1783720778.2103,1,1,1.0000,0.0000,1.41913,0.14222,-2.66716,0.95401,1.57081,0.11834,-0.13146,-0.44702,0.06306,,,,,,,,,,,,,,,,,,,,,,,,,,0,0,0,0,0
1.7007,1783720778.2238,1,1,1.0000,0.0000,1.41968,0.14208,-2.66707,0.95405,1.57081,0.11778,-0.13167,-0.44700,0.06306,,,,,,,,,,,,,,,,,,,,,,,,,,0,0,0,0,0
1.7073,1783720778.2304,1,1,1.0000,0.0000,1.42004,0.14198,-2.66702,0.95408,1.57081,0.11742,-0.13180,-0.44699,0.06305,,,,,,,,,,,,,,,,,,,,,,,,,,0,0,0,0,0
1.7166,1783720778.2398,1,1,1.0000,0.0000,1.42033,0.14190,-2.66698,0.95411,1.57081,0.11712,-0.13191,-0.44697,0.06304,,,,,,,,,,,,,,,,,,,,,,,,,,0,0,0,0,0
1.7272,1783720778.2503,1,1,1.0000,0.0000,1.42054,0.14184,-2.66698,0.95413,1.57081,0.11690,-0.13199,-0.44695,0.06302,,,,,,,,,,,,,,,,,,,,,,,,,,0,0,0,0,0
1.7360,1783720778.2591,1,1,1.0000,0.0000,1.42054,0.14184,-2.66698,0.95413,1.57081,0.11690,-0.13199,-0.44695,0.06302,,,,,,,,,,,,,,,,,,,,,,,,,,0,0,0,0,0
1.7473,1783720778.2704,1,1,1.0000,0.0000,1.42054,0.14184,-2.66698,0.95413,1.57081,0.11690,-0.13199,-0.44695,0.06302,,,,,,,,,,,,,,,,,,,,,,,,,,0,0,0,0,0
1.7582,1783720778.2814,1,1,1.0000,0.0000,1.42054,0.14184,-2.66698,0.95413,1.57081,0.11690,-0.13199,-0.44695,0.06302,,,,,,,,,,,,,,,,,,,,,,,,,,0,0,0,0,0
1.7695,1783720778.2926,1,1,1.0000,0.0000,1.42054,0.14184,-2.66698,0.95413,1.57081,0.11690,-0.13199,-0.44695,0.06302,,,,,,,,,,,,,,,,,,,,,,,,,,0,0,0,0,0
1.7698,1783720778.2930,1,1,1.0000,0.0000,1.42054,0.14184,-2.66698,0.95413,1.57081,0.11690,-0.13199,-0.44695,0.06302,,,,,,,,,,,,,,,,,,,,,,,,,,0,0,0,0,0
1.7777,1783720778.3008,1,1,1.0000,0.0000,1.42054,0.14184,-2.66698,0.95413,1.57081,0.11690,-0.13199,-0.44695,0.06302,,,,,,,,,,,,,,,,,,,,,,,,,,0,0,0,0,0
1.7781,1783720778.3012,1,1,1.0000,0.0000,1.42054,0.14184,-2.66698,0.95413,1.57081,0.11690,-0.13199,-0.44695,0.06302,,,,,,,,,,,,,,,,,,,,,,,,,,0,0,0,0,0
1.7913,1783720778.3145,1,1,1.0000,0.0000,1.42054,0.14184,-2.66698,0.95413,1.57081,0.11690,-0.13199,-0.44695,0.06302,,,,,,,,,,,,,,,,,,,,,,,,,,0,0,0,0,0
1.7963,1783720778.3195,1,1,1.0000,0.0000,1.42054,0.14184,-2.66698,0.95413,1.57081,0.11690,-0.13199,-0.44695,0.06302,,,,,,,,,,,,,,,,,,,,,,,,,,0,0,0,0,0
1.8072,1783720778.3303,1,1,1.0000,0.0000,1.42054,0.14184,-2.66698,0.95413,1.57081,0.11690,-0.13199,-0.44695,0.06302,,,,,,,,,,,,,,,,,,,,,,,,,,0,0,0,0,0
1.8074,1783720778.3305,1,1,1.0000,0.0000,1.42054,0.14184,-2.66698,0.95413,1.57081,0.11690,-0.13199,-0.44695,0.06302,,,,,,,,,,,,,,,,,,,,,,,,,,0,0,0,0,0
1.8192,1783720778.3424,1,1,1.0000,0.0000,1.42054,0.14184,-2.66698,0.95413,1.57081,0.11690,-0.13199,-0.44695,0.06302,,,,,,,,,,,,,,,,,,,,,,,,,,0,0,0,0,0
1.8274,1783720778.3506,1,1,1.0000,0.0000,1.42054,0.14184,-2.66698,0.95413,1.57081,0.11690,-0.13199,-0.44695,0.06302,,,,,,,,,,,,,,,,,,,,,,,,,,0,0,0,0,0
1.8384,1783720778.3615,1,1,1.0000,0.0000,1.42054,0.14184,-2.66698,0.95413,1.57081,0.11690,-0.13199,-0.44695,0.06302,,,,,,,,,,,,,,,,,,,,,,,,,,0,0,0,0,0
1.8471,1783720778.3702,1,1,1.0000,0.0000,1.42054,0.14184,-2.66698,0.95413,1.57081,0.11690,-0.13199,-0.44695,0.06302,,,,,,,,,,,,,,,,,,,,,,,,,,0,0,0,0,0
1.8474,1783720778.3705,1,1,1.0000,0.0000,1.42054,0.14184,-2.66698,0.95413,1.57081,0.11690,-0.13199,-0.44695,0.06302,,,,,,,,,,,,,,,,,,,,,,,,,,0,0,0,0,0
1.8592,1783720778.3824,1,1,1.0000,0.0000,1.42054,0.14184,-2.66698,0.95413,1.57081,0.11690,-0.13199,-0.44695,0.06302,,,,,,,,,,,,,,,,,,,,,,,,,,0,0,0,0,0
1.8882,1783720778.4113,1,1,1.0000,0.0000,1.42054,0.14184,-2.66698,0.95413,1.57081,0.11690,-0.13199,-0.44695,0.06302,,,,,,,,,,,,,,,,,,,,,,,,,,0,0,0,0,0
1.8885,1783720778.4117,1,1,1.0000,0.0000,1.42054,0.14184,-2.66698,0.95413,1.57081,0.11690,-0.13199,-0.44695,0.06302,,,,,,,,,,,,,,,,,,,,,,,,,,0,0,0,0,0
1.8889,1783720778.4120,1,1,1.0000,0.0000,1.42054,0.14184,-2.66698,0.95413,1.57081,0.11690,-0.13199,-0.44695,0.06302,,,,,,,,,,,,,,,,,,,,,,,,,,0,0,0,0,0
1.9007,1783720778.4238,1,1,1.0000,0.0000,1.42054,0.14184,-2.66698,0.95413,1.57081,0.11690,-0.13199,-0.44695,0.06302,,,,,,,,,,,,,,,,,,,,,,,,,,0,0,0,0,0
1.9010,1783720778.4242,1,1,1.0000,0.0000,1.42054,0.14184,-2.66698,0.95413,1.57081,0.11690,-0.13199,-0.44695,0.06302,,,,,,,,,,,,,,,,,,,,,,,,,,0,0,0,0,0
1.9142,1783720778.4373,1,1,1.0000,0.0000,1.42054,0.14184,-2.66698,0.95413,1.57081,0.11690,-0.13199,-0.44695,0.06302,,,,,,,,,,,,,,,,,,,,,,,,,,0,0,0,0,0
1.9225,1783720778.4456,1,1,1.0000,0.0000,1.42054,0.14184,-2.66698,0.95413,1.57081,0.11690,-0.13199,-0.44695,0.06302,,,,,,,,,,,,,,,,,,,,,,,,,,0,0,0,0,0
1.9287,1783720778.4518,1,1,1.0000,0.0000,1.42054,0.14184,-2.66698,0.95413,1.57081,0.11690,-0.13199,-0.44695,0.06302,,,,,,,,,,,,,,,,,,,,,,,,,,0,0,0,0,0
1.9391,1783720778.4622,1,1,1.0000,0.0000,1.42054,0.14184,-2.66698,0.95413,1.57081,0.11690,-0.13199,-0.44695,0.06302,,,,,,,,,,,,,,,,,,,,,,,,,,0,0,0,0,0
1.9464,1783720778.4696,1,1,1.0000,0.0000,1.42054,0.14184,-2.66698,0.95413,1.57081,0.11690,-0.13199,-0.44695,0.06302,,,,,,,,,,,,,,,,,,,,,,,,,,0,0,0,0,0
1.9471,1783720778.4703,1,1,1.0000,0.0000,1.42054,0.14184,-2.66698,0.95413,1.57081,0.11690,-0.13199,-0.44695,0.06302,,,,,,,,,,,,,,,,,,,,,,,,,,0,0,0,0,0
1.9593,1783720778.4825,1,1,1.0000,0.0000,1.42054,0.14184,-2.66698,0.95413,1.57081,0.11690,-0.13199,-0.44695,0.06302,,,,,,,,,,,,,,,,,,,,,,,,,,0,0,0,0,0
1.9598,1783720778.4830,1,1,1.0000,0.0000,1.42054,0.14184,-2.66698,0.95413,1.57081,0.11690,-0.13199,-0.44695,0.06302,,,,,,,,,,,,,,,,,,,,,,,,,,0,0,0,0,0
1.9723,1783720778.4954,1,1,1.0000,0.0000,1.42054,0.14184,-2.66698,0.95413,1.57081,0.11690,-0.13199,-0.44695,0.06302,,,,,,,,,,,,,,,,,,,,,,,,,,0,0,0,0,0
1.9803,1783720778.5034,1,1,1.0000,0.0000,1.42054,0.14184,-2.66698,0.95413,1.57081,0.11690,-0.13199,-0.44695,0.06302,,,,,,,,,,,,,,,,,,,,,,,,,,0,0,0,0,0
1.9875,1783720778.5106,1,1,1.0000,0.0000,1.42054,0.14184,-2.66698,0.95413,1.57081,0.11690,-0.13199,-0.44695,0.06302,,,,,,,,,,,,,,,,,,,,,,,,,,0,0,0,0,0
1.9959,1783720778.5191,1,1,1.0000,0.0000,1.42054,0.14184,-2.66698,0.95413,1.57081,0.11690,-0.13199,-0.44695,0.06302,,,,,,,,,,,,,,,,,,,,,,,,,,0,0,0,0,0
1.9962,1783720778.5193,1,1,1.0000,0.0000,1.42054,0.14184,-2.66698,0.95413,1.57081,0.11690,-0.13199,-0.44695,0.06302,,,,,,,,,,,,,,,,,,,,,,,,,,0,0,0,0,0
2.0076,1783720778.5307,1,1,1.0000,0.0000,1.42054,0.14184,-2.66698,0.95413,1.57081,0.11690,-0.13199,-0.44695,0.06302,,,,,,,,,,,,,,,,,,,,,,,,,,0,0,0,0,0
2.0220,1783720778.5452,1,1,1.0000,0.0000,1.42054,0.14184,-2.66698,0.95413,1.57081,0.11690,-0.13199,-0.44695,0.06302,,,,,,,,,,,,,,,,,,,,,,,,,,0,0,0,0,0
2.0306,1783720778.5538,1,1,1.0000,0.0000,1.42054,0.14184,-2.66698,0.95413,1.57081,0.11690,-0.13199,-0.44695,0.06302,,,,,,,,,,,,,,,,,,,,,,,,,,0,0,0,0,0
2.0380,1783720778.5612,1,1,1.0000,0.0000,1.42054,0.14184,-2.66698,0.95413,1.57081,0.11690,-0.13199,-0.44695,0.06302,,,,,,,,,,,,,,,,,,,,,,,,,,0,0,0,0,0
2.0383,1783720778.5615,1,1,1.0000,0.0000,1.42054,0.14184,-2.66698,0.95413,1.57081,0.11690,-0.13199,-0.44695,0.06302,,,,,,,,,,,,,,,,,,,,,,,,,,0,0,0,0,0
2.0501,1783720778.5732,1,1,1.0000,0.0000,1.42054,0.14184,-2.66698,0.95413,1.57081,0.11690,-0.13199,-0.44695,0.06302,,,,,,,,,,,,,,,,,,,,,,,,,,0,0,0,0,0
2.0504,1783720778.5736,1,1,1.0000,0.0000,1.42054,0.14184,-2.66698,0.95413,1.57081,0.11690,-0.13199,-0.44695,0.06302,,,,,,,,,,,,,,,,,,,,,,,,,,0,0,0,0,0
2.0557,1783720778.5788,1,1,1.0000,0.0000,1.42054,0.14184,-2.66698,0.95413,1.57081,0.11690,-0.13199,-0.44695,0.06302,,,,,,,,,,,,,,,,,,,,,,,,,,0,0,0,0,0
2.0560,1783720778.5792,1,1,1.0000,0.0000,1.42054,0.14184,-2.66698,0.95413,1.57081,0.11690,-0.13199,-0.44695,0.06302,,,,,,,,,,,,,,,,,,,,,,,,,,0,0,0,0,0
2.0679,1783720778.5911,1,1,1.0000,0.0000,1.42054,0.14184,-2.66698,0.95413,1.57081,0.11690,-0.13199,-0.44695,0.06302,,,,,,,,,,,,,,,,,,,,,,,,,,0,0,0,0,0
2.0762,1783720778.5993,1,1,1.0000,0.0000,1.42054,0.14184,-2.66698,0.95413,1.57081,0.11690,-0.13199,-0.44695,0.06302,,,,,,,,,,,,,,,,,,,,,,,,,,0,0,0,0,0
2.0863,1783720778.6094,1,1,1.0000,0.0000,1.42054,0.14184,-2.66698,0.95413,1.57081,0.11690,-0.13199,-0.44695,0.06302,,,,,,,,,,,,,,,,,,,,,,,,,,0,0,0,0,0
2.1031,1783720778.6263,1,1,1.0000,0.0000,1.42054,0.14184,-2.66698,0.95413,1.57081,0.11690,-0.13199,-0.44695,0.06302,,,,,,,,,,,,,,,,,,,,,,,,,,0,0,0,0,0
2.1056,1783720778.6288,1,1,1.0000,0.0000,1.42054,0.14184,-2.66698,0.95413,1.57081,0.11690,-0.13199,-0.44695,0.06302,,,,,,,,,,,,,,,,,,,,,,,,,,0,0,0,0,0
2.1060,1783720778.6292,1,1,1.0000,0.0000,1.42054,0.14184,-2.66698,0.95413,1.57081,0.11690,-0.13199,-0.44695,0.06302,,,,,,,,,,,,,,,,,,,,,,,,,,0,0,0,0,0
2.1160,1783720778.6391,1,1,1.0000,0.0000,1.42054,0.14184,-2.66698,0.95413,1.57081,0.11690,-0.13199,-0.44695,0.06302,,,,,,,,,,,,,,,,,,,,,,,,,,0,0,0,0,0
2.1296,1783720778.6528,1,1,1.0000,0.0000,1.42054,0.14184,-2.66698,0.95413,1.57081,0.11690,-0.13199,-0.44695,0.06302,,,,,,,,,,,,,,,,,,,,,,,,,,0,0,0,0,0
2.1405,1783720778.6636,1,1,1.0000,0.0000,1.42054,0.14184,-2.66698,0.95413,1.57081,0.11690,-0.13199,-0.44695,0.06302,,,,,,,,,,,,,,,,,,,,,,,,,,0,0,0,0,0
2.1460,1783720778.6692,1,1,1.0000,0.0000,1.42054,0.14184,-2.66698,0.95413,1.57081,0.11690,-0.13199,-0.44695,0.06302,,,,,,,,,,,,,,,,,,,,,,,,,,0,0,0,0,0
2.1579,1783720778.6810,1,1,1.0000,0.0000,1.42053,0.14185,-2.66699,0.95413,1.57081,0.11690,-0.13199,-0.44694,0.06302,,,,,,,,,,,,,,,,,,,,,,,,,,0,0,0,0,0
2.1680,1783720778.6912,1,1,1.0000,0.0000,1.42053,0.14187,-2.66700,0.95414,1.57081,0.11689,-0.13199,-0.44694,0.06302,,,,,,,,,,,,,,,,,,,,,,,,,,0,0,0,0,0
2.1778,1783720778.7010,1,1,1.0000,0.0000,1.42052,0.14188,-2.66701,0.95415,1.57081,0.11688,-0.13199,-0.44693,0.06302,,,,,,,,,,,,,,,,,,,,,,,,,,0,0,0,0,0
2.1881,1783720778.7113,1,1,1.0000,0.0000,1.42052,0.14190,-2.66703,0.95415,1.57081,0.11688,-0.13199,-0.44692,0.06302,,,,,,,,,,,,,,,,,,,,,,,,,,0,0,0,0,0
2.1956,1783720778.7187,1,1,1.0000,0.0000,1.42051,0.14195,-2.66706,0.95414,1.57081,0.11687,-0.13199,-0.44691,0.06302,,,,,,,,,,,,,,,,,,,,,,,,,,0,0,0,0,0
2.1961,1783720778.7193,1,1,1.0000,0.0000,1.42051,0.14195,-2.66706,0.95414,1.57081,0.11687,-0.13199,-0.44691,0.06302,,,,,,,,,,,,,,,,,,,,,,,,,,0,0,0,0,0
2.2081,1783720778.7313,1,1,1.0000,0.0000,1.42049,0.14201,-2.66710,0.95414,1.57081,0.11687,-0.13198,-0.44688,0.06302,,,,,,,,,,,,,,,,,,,,,,,,,,0,0,0,0,0
2.2164,1783720778.7396,1,1,1.0000,0.0000,1.42049,0.14205,-2.66713,0.95413,1.57081,0.11687,-0.13198,-0.44687,0.06303,,,,,,,,,,,,,,,,,,,,,,,,,,0,0,0,0,0
2.2260,1783720778.7492,1,1,1.0000,0.0000,1.42047,0.14215,-2.66721,0.95412,1.57081,0.11688,-0.13198,-0.44682,0.06303,,,,,,,,,,,,,,,,,,,,,,,,,,0,0,0,0,0
2.2364,1783720778.7596,1,1,1.0000,0.0000,1.42041,0.14241,-2.66739,0.95407,1.57081,0.11690,-0.13198,-0.44672,0.06304,,,,,,,,,,,,,,,,,,,,,,,,,,0,0,0,0,0
2.2893,1783720778.8124,1,1,1.0000,0.0000,1.42015,0.14376,-2.66835,0.95375,1.57081,0.11710,-0.13196,-0.44615,0.06306,,,,,,,,,,,,,,,,,,,,,,,,,,0,0,0,0,0
2.2897,1783720778.8128,1,1,1.0000,0.0000,1.42015,0.14376,-2.66835,0.95375,1.57081,0.11710,-0.13196,-0.44615,0.06306,,,,,,,,,,,,,,,,,,,,,,,,,,0,0,0,0,0
2.2900,1783720778.8132,1,1,1.0000,0.0000,1.42015,0.14376,-2.66835,0.95375,1.57081,0.11710,-0.13196,-0.44615,0.06306,,,,,,,,,,,,,,,,,,,,,,,,,,0,0,0,0,0
2.3012,1783720778.8244,1,1,1.0000,0.0000,1.42004,0.14433,-2.66877,0.95361,1.57081,0.11720,-0.13196,-0.44590,0.06307,,,,,,,,,,,,,,,,,,,,,,,,,,0,0,0,0,0
2.3062,1783720778.8294,1,1,1.0000,0.0000,1.42004,0.14438,-2.66880,0.95360,1.57081,0.11721,-0.13196,-0.44588,0.06307,,,,,,,,,,,,,,,,,,,,,,,,,,0,0,0,0,0
2.3205,1783720778.8437,1,1,1.0000,0.0000,1.41987,0.14524,-2.66942,0.95338,1.57081,0.11737,-0.13195,-0.44550,0.06307,,,,,,,,,,,,,,,,,,,,,,,,,,0,0,0,0,0
2.3272,1783720778.8503,1,1,1.0000,0.0000,1.41973,0.14598,-2.66995,0.95319,1.57081,0.11750,-0.13195,-0.44518,0.06308,,,,,,,,,,,,,,,,,,,,,,,,,,0,0,0,0,0
2.3361,1783720778.8592,1,1,1.0000,0.0000,1.41972,0.14603,-2.66999,0.95318,1.57081,0.11751,-0.13195,-0.44516,0.06308,,,,,,,,,,,,,,,,,,,,,,,,,,0,0,0,0,0
2.3481,1783720778.8712,1,1,1.0000,0.0000,1.41959,0.14670,-2.67047,0.95300,1.57081,0.11763,-0.13195,-0.44487,0.06308,,,,,,,,,,,,,,,,,,,,,,,,,,0,0,0,0,0
2.3568,1783720778.8799,1,1,1.0000,0.0000,1.41952,0.14705,-2.67073,0.95291,1.57081,0.11770,-0.13195,-0.44471,0.06308,,,,,,,,,,,,,,,,,,,,,,,,,,0,0,0,0,0
2.3661,1783720778.8893,1,1,1.0000,0.0000,1.41948,0.14727,-2.67089,0.95285,1.57081,0.11774,-0.13195,-0.44461,0.06308,,,,,,,,,,,,,,,,,,,,,,,,,,0,0,0,0,0
2.3816,1783720778.9047,1,1,1.0000,0.0000,1.41921,0.14867,-2.67191,0.95247,1.57081,0.11801,-0.13194,-0.44399,0.06308,,,,,,,,,,,,,,,,,,,,,,,,,,0,0,0,0,0
2.3911,1783720778.9142,1,1,1.0000,0.0000,1.41912,0.14918,-2.67228,0.95233,1.57081,0.11810,-0.13194,-0.44377,0.06308,,,,,,,,,,,,,,,,,,,,,,,,,,0,0,0,0,0
2.3985,1783720778.9216,1,1,1.0000,0.0000,1.41909,0.14930,-2.67236,0.95230,1.57081,0.11813,-0.13194,-0.44372,0.06308,,,,,,,,,,,,,,,,,,,,,,,,,,0,0,0,0,0
2.4072,1783720778.9303,1,1,1.0000,0.0000,1.41896,0.15000,-2.67287,0.95210,1.57081,0.11826,-0.13193,-0.44341,0.06308,,,,,,,,,,,,,,,,,,,,,,,,,,0,0,0,0,0
2.4182,1783720778.9414,1,1,1.0000,0.0000,1.41883,0.15065,-2.67334,0.95192,1.57082,0.11839,-0.13193,-0.44312,0.06308,,,,,,,,,,,,,,,,,,,,,,,,,,0,0,0,0,0
2.4259,1783720778.9491,1,1,1.0000,0.0000,1.41883,0.15068,-2.67337,0.95191,1.57082,0.11839,-0.13193,-0.44311,0.06308,,,,,,,,,,,,,,,,,,,,,,,,,,0,0,0,0,0
2.4362,1783720778.9593,1,1,1.0000,0.0000,1.41875,0.15105,-2.67363,0.95180,1.57082,0.11847,-0.13193,-0.44294,0.06308,,,,,,,,,,,,,,,,,,,,,,,,,,0,0,0,0,0
2.4491,1783720778.9722,1,1,1.0000,0.0000,1.41863,0.15169,-2.67409,0.95162,1.57082,0.11859,-0.13193,-0.44266,0.06308,,,,,,,,,,,,,,,,,,,,,,,,,,0,0,0,0,0
2.4580,1783720778.9811,1,1,1.0000,0.0000,1.41854,0.15215,-2.67443,0.95148,1.57082,0.11868,-0.13193,-0.44245,0.06308,,,,,,,,,,,,,,,,,,,,,,,,,,0,0,0,0,0
2.4584,1783720778.9815,1,1,1.0000,0.0000,1.41854,0.15215,-2.67443,0.95148,1.57082,0.11868,-0.13193,-0.44245,0.06308,,,,,,,,,,,,,,,,,,,,,,,,,,0,0,0,0,0
2.4665,1783720778.9896,1,1,1.0000,0.0000,1.41846,0.15258,-2.67474,0.95135,1.57082,0.11877,-0.13193,-0.44226,0.06308,,,,,,,,,,,,,,,,,,,,,,,,,,0,0,0,0,0
2.4842,1783720779.0074,1,1,1.0000,0.0000,1.41836,0.15307,-2.67509,0.95120,1.57082,0.11887,-0.13192,-0.44204,0.06307,,,,,,,,,,,,,,,,,,,,,,,,,,0,0,0,0,0
2.4932,1783720779.0164,1,1,1.0000,0.0000,1.41836,0.15307,-2.67509,0.95120,1.57082,0.11887,-0.13192,-0.44204,0.06307,,,,,,,,,,,,,,,,,,,,,,,,,,0,0,0,0,0
2.5008,1783720779.0239,1,1,1.0000,0.0000,1.41836,0.15307,-2.67509,0.95120,1.57082,0.11887,-0.13192,-0.44204,0.06307,,,,,,,,,,,,,,,,,,,,,,,,,,0,0,0,0,0
2.5105,1783720779.0336,1,1,1.0000,0.0000,1.41836,0.15307,-2.67509,0.95120,1.57082,0.11887,-0.13192,-0.44204,0.06307,,,,,,,,,,,,,,,,,,,,,,,,,,0,0,0,0,0
2.5169,1783720779.0400,1,1,1.0000,0.0000,1.41836,0.15307,-2.67509,0.95120,1.57082,0.11887,-0.13192,-0.44204,0.06307,,,,,,,,,,,,,,,,,,,,,,,,,,0,0,0,0,0
2.5301,1783720779.0532,1,1,1.0000,0.0000,1.41836,0.15307,-2.67509,0.95120,1.57082,0.11887,-0.13192,-0.44204,0.06307,,,,,,,,,,,,,,,,,,,,,,,,,,0,0,0,0,0
2.5370,1783720779.0602,1,1,1.0000,0.0000,1.41836,0.15307,-2.67509,0.95120,1.57082,0.11887,-0.13192,-0.44204,0.06307,,,,,,,,,,,,,,,,,,,,,,,,,,0,0,0,0,0
2.5514,1783720779.0745,1,1,1.0000,0.0000,1.41836,0.15307,-2.67509,0.95120,1.57082,0.11887,-0.13192,-0.44204,0.06307,,,,,,,,,,,,,,,,,,,,,,,,,,0,0,0,0,0
2.5517,1783720779.0749,1,1,1.0000,0.0000,1.41836,0.15307,-2.67509,0.95120,1.57082,0.11887,-0.13192,-0.44204,0.06307,,,,,,,,,,,,,,,,,,,,,,,,,,0,0,0,0,0
2.5600,1783720779.0832,1,1,1.0000,0.0000,1.41836,0.15307,-2.67509,0.95120,1.57082,0.11887,-0.13192,-0.44204,0.06307,,,,,,,,,,,,,,,,,,,,,,,,,,0,0,0,0,0
2.5604,1783720779.0835,1,1,1.0000,0.0000,1.41836,0.15307,-2.67509,0.95120,1.57082,0.11887,-0.13192,-0.44204,0.06307,,,,,,,,,,,,,,,,,,,,,,,,,,0,0,0,0,0
2.5701,1783720779.0932,1,1,1.0000,0.0000,1.41836,0.15307,-2.67509,0.95120,1.57082,0.11887,-0.13192,-0.44204,0.06307,,,,,,,,,,,,,,,,,,,,,,,,,,0,0,0,0,0
2.5774,1783720779.1005,1,1,1.0000,0.0000,1.41836,0.15307,-2.67509,0.95120,1.57082,0.11887,-0.13192,-0.44204,0.06307,,,,,,,,,,,,,,,,,,,,,,,,,,0,0,0,0,0
2.5877,1783720779.1108,1,1,1.0000,0.0000,1.41836,0.15307,-2.67509,0.95120,1.57082,0.11887,-0.13192,-0.44204,0.06307,,,,,,,,,,,,,,,,,,,,,,,,,,0,0,0,0,0
2.6099,1783720779.1331,1,1,1.0000,0.0000,1.41836,0.15307,-2.67509,0.95120,1.57082,0.11887,-0.13192,-0.44204,0.06307,,,,,,,,,,,,,,,,,,,,,,,,,,0,0,0,0,0
2.6111,1783720779.1343,1,1,1.0000,0.0000,1.41836,0.15307,-2.67509,0.95120,1.57082,0.11887,-0.13192,-0.44204,0.06307,,,,,,,,,,,,,,,,,,,,,,,,,,0,0,0,0,0
2.6163,1783720779.1395,1,1,1.0000,0.0000,1.41836,0.15307,-2.67509,0.95120,1.57082,0.11887,-0.13192,-0.44204,0.06307,,,,,,,,,,,,,,,,,,,,,,,,,,0,0,0,0,0
2.6166,1783720779.1397,1,1,1.0000,0.0000,1.41836,0.15307,-2.67509,0.95120,1.57082,0.11887,-0.13192,-0.44204,0.06307,,,,,,,,,,,,,,,,,,,,,,,,,,0,0,0,0,0
2.6299,1783720779.1531,1,1,1.0000,0.0000,1.41836,0.15307,-2.67509,0.95120,1.57082,0.11887,-0.13192,-0.44204,0.06307,,,,,,,,,,,,,,,,,,,,,,,,,,0,0,0,0,0
2.6474,1783720779.1705,1,1,1.0000,0.0000,1.41836,0.15307,-2.67509,0.95120,1.57082,0.11887,-0.13192,-0.44204,0.06307,,,,,,,,,,,,,,,,,,,,,,,,,,0,0,0,0,0
2.6524,1783720779.1756,1,1,1.0000,0.0000,1.41836,0.15307,-2.67509,0.95120,1.57082,0.11887,-0.13192,-0.44204,0.06307,,,,,,,,,,,,,,,,,,,,,,,,,,0,0,0,0,0
2.6578,1783720779.1809,1,1,1.0000,0.0000,1.41836,0.15307,-2.67509,0.95120,1.57082,0.11887,-0.13192,-0.44204,0.06307,,,,,,,,,,,,,,,,,,,,,,,,,,0,0,0,0,0
2.6771,1783720779.2002,1,1,1.0000,0.0000,1.41836,0.15307,-2.67509,0.95120,1.57082,0.11887,-0.13192,-0.44204,0.06307,,,,,,,,,,,,,,,,,,,,,,,,,,0,0,0,0,0
2.6773,1783720779.2005,1,1,1.0000,0.0000,1.41836,0.15307,-2.67509,0.95120,1.57082,0.11887,-0.13192,-0.44204,0.06307,,,,,,,,,,,,,,,,,,,,,,,,,,0,0,0,0,0
2.6902,1783720779.2133,1,1,1.0000,0.0000,1.41836,0.15307,-2.67509,0.95120,1.57082,0.11887,-0.13192,-0.44204,0.06307,,,,,,,,,,,,,,,,,,,,,,,,,,0,0,0,0,0
2.7560,1783720779.2791,1,1,1.0000,0.0000,1.41836,0.15307,-2.67509,0.95120,1.57082,0.11887,-0.13192,-0.44204,0.06307,,,,,,,,,,,,,,,,,,,,,,,,,,0,0,0,0,0
2.7563,1783720779.2794,1,1,1.0000,0.0000,1.41836,0.15307,-2.67509,0.95120,1.57082,0.11887,-0.13192,-0.44204,0.06307,,,,,,,,,,,,,,,,,,,,,,,,,,0,0,0,0,0
2.7567,1783720779.2798,1,1,1.0000,0.0000,1.41836,0.15307,-2.67509,0.95120,1.57082,0.11887,-0.13192,-0.44204,0.06307,,,,,,,,,,,,,,,,,,,,,,,,,,0,0,0,0,0
2.7569,1783720779.2800,1,1,1.0000,0.0000,1.41836,0.15307,-2.67509,0.95120,1.57082,0.11887,-0.13192,-0.44204,0.06307,,,,,,,,,,,,,,,,,,,,,,,,,,0,0,0,0,0
2.7571,1783720779.2803,1,1,1.0000,0.0000,1.41836,0.15307,-2.67509,0.95120,1.57082,0.11887,-0.13192,-0.44204,0.06307,,,,,,,,,,,,,,,,,,,,,,,,,,0,0,0,0,0
2.7575,1783720779.2806,1,1,1.0000,0.0000,1.41836,0.15307,-2.67509,0.95120,1.57082,0.11887,-0.13192,-0.44204,0.06307,,,,,,,,,,,,,,,,,,,,,,,,,,0,0,0,0,0
2.7577,1783720779.2808,1,1,1.0000,0.0000,1.41836,0.15307,-2.67509,0.95120,1.57082,0.11887,-0.13192,-0.44204,0.06307,,,,,,,,,,,,,,,,,,,,,,,,,,0,0,0,0,0
2.7590,1783720779.2822,1,1,1.0000,0.0000,1.41836,0.15307,-2.67509,0.95120,1.57082,0.11887,-0.13192,-0.44204,0.06307,,,,,,,,,,,,,,,,,,,,,,,,,,0,0,0,0,0
2.7674,1783720779.2906,1,1,1.0000,0.0000,1.41836,0.15307,-2.67509,0.95120,1.57082,0.11887,-0.13192,-0.44204,0.06307,,,,,,,,,,,,,,,,,,,,,,,,,,0,0,0,0,0
2.7678,1783720779.2910,1,1,1.0000,0.0000,1.41836,0.15307,-2.67509,0.95120,1.57082,0.11887,-0.13192,-0.44204,0.06307,,,,,,,,,,,,,,,,,,,,,,,,,,0,0,0,0,0
2.7774,1783720779.3006,1,1,1.0000,0.0000,1.41836,0.15307,-2.67509,0.95120,1.57082,0.11887,-0.13192,-0.44204,0.06307,,,,,,,,,,,,,,,,,,,,,,,,,,0,0,0,0,0
2.7928,1783720779.3160,1,1,1.0000,0.0000,1.41836,0.15307,-2.67509,0.95120,1.57082,0.11887,-0.13192,-0.44204,0.06307,,,,,,,,,,,,,,,,,,,,,,,,,,0,0,0,0,0
2.8020,1783720779.3251,1,1,1.0000,0.0000,1.41836,0.15307,-2.67509,0.95120,1.57082,0.11887,-0.13192,-0.44204,0.06307,,,,,,,,,,,,,,,,,,,,,,,,,,0,0,0,0,0
2.8063,1783720779.3294,1,1,1.0000,0.0000,1.41836,0.15307,-2.67509,0.95120,1.57082,0.11887,-0.13192,-0.44204,0.06307,,,,,,,,,,,,,,,,,,,,,,,,,,0,0,0,0,0
2.8169,1783720779.3401,1,1,1.0000,0.0000,1.41836,0.15307,-2.67509,0.95120,1.57082,0.11887,-0.13192,-0.44204,0.06307,,,,,,,,,,,,,,,,,,,,,,,,,,0,0,0,0,0
2.8318,1783720779.3550,1,1,1.0000,0.0000,1.41836,0.15307,-2.67509,0.95120,1.57082,0.11887,-0.13192,-0.44204,0.06307,,,,,,,,,,,,,,,,,,,,,,,,,,0,0,0,0,0
2.8368,1783720779.3599,1,1,1.0000,0.0000,1.41836,0.15307,-2.67509,0.95120,1.57082,0.11887,-0.13192,-0.44204,0.06307,,,,,,,,,,,,,,,,,,,,,,,,,,0,0,0,0,0
2.8478,1783720779.3709,1,1,1.0000,0.0000,1.41836,0.15307,-2.67509,0.95120,1.57082,0.11887,-0.13192,-0.44204,0.06307,,,,,,,,,,,,,,,,,,,,,,,,,,0,0,0,0,0
2.8573,1783720779.3805,1,1,1.0000,0.0000,1.41836,0.15307,-2.67509,0.95120,1.57082,0.11887,-0.13192,-0.44204,0.06307,,,,,,,,,,,,,,,,,,,,,,,,,,0,0,0,0,0
2.8686,1783720779.3918,1,1,1.0000,0.0000,1.41836,0.15307,-2.67509,0.95120,1.57082,0.11887,-0.13192,-0.44204,0.06307,,,,,,,,,,,,,,,,,,,,,,,,,,0,0,0,0,0
2.8689,1783720779.3921,1,1,1.0000,0.0000,1.41836,0.15307,-2.67509,0.95120,1.57082,0.11887,-0.13192,-0.44204,0.06307,,,,,,,,,,,,,,,,,,,,,,,,,,0,0,0,0,0
2.8787,1783720779.4018,1,1,1.0000,0.0000,1.41836,0.15307,-2.67509,0.95120,1.57082,0.11887,-0.13192,-0.44204,0.06307,,,,,,,,,,,,,,,,,,,,,,,,,,0,0,0,0,0
2.8878,1783720779.4109,1,1,1.0000,0.0000,1.41836,0.15307,-2.67509,0.95120,1.57082,0.11887,-0.13192,-0.44204,0.06307,,,,,,,,,,,,,,,,,,,,,,,,,,0,0,0,0,0
2.9016,1783720779.4248,1,1,1.0000,0.0000,1.41836,0.15307,-2.67509,0.95120,1.57082,0.11887,-0.13192,-0.44204,0.06307,,,,,,,,,,,,,,,,,,,,,,,,,,0,0,0,0,0
2.9021,1783720779.4253,1,1,1.0000,0.0000,1.41836,0.15307,-2.67509,0.95120,1.57082,0.11887,-0.13192,-0.44204,0.06307,,,,,,,,,,,,,,,,,,,,,,,,,,0,0,0,0,0
2.9080,1783720779.4311,1,1,1.0000,0.0000,1.41836,0.15306,-2.67509,0.95120,1.57082,0.11888,-0.13192,-0.44204,0.06307,,,,,,,,,,,,,,,,,,,,,,,,,,0,0,0,0,0
2.9177,1783720779.4409,1,1,1.0000,0.0000,1.41836,0.15306,-2.67509,0.95119,1.57083,0.11889,-0.13193,-0.44204,0.06307,,,,,,,,,,,,,,,,,,,,,,,,,,0,0,0,0,0
2.9286,1783720779.4517,1,1,1.0000,0.0000,1.41837,0.15306,-2.67508,0.95119,1.57083,0.11890,-0.13193,-0.44204,0.06307,,,,,,,,,,,,,,,,,,,,,,,,,,0,0,0,0,0
2.9371,1783720779.4603,1,1,1.0000,0.0000,1.41837,0.15306,-2.67508,0.95118,1.57083,0.11890,-0.13193,-0.44205,0.06307,,,,,,,,,,,,,,,,,,,,,,,,,,0,0,0,0,0
2.9374,1783720779.4606,1,1,1.0000,0.0000,1.41837,0.15306,-2.67508,0.95118,1.57083,0.11890,-0.13193,-0.44205,0.06307,,,,,,,,,,,,,,,,,,,,,,,,,,0,0,0,0,0
2.9501,1783720779.4733,1,1,1.0000,0.0000,1.41837,0.15305,-2.67506,0.95118,1.57083,0.11891,-0.13192,-0.44206,0.06308,,,,,,,,,,,,,,,,,,,,,,,,,,0,0,0,0,0
2.9597,1783720779.4828,1,1,1.0000,0.0000,1.41837,0.15304,-2.67504,0.95118,1.57083,0.11891,-0.13192,-0.44207,0.06308,,,,,,,,,,,,,,,,,,,,,,,,,,0,0,0,0,0
2.9672,1783720779.4903,1,1,1.0000,0.0000,1.41837,0.15303,-2.67503,0.95118,1.57083,0.11891,-0.13192,-0.44208,0.06309,,,,,,,,,,,,,,,,,,,,,,,,,,0,0,0,0,0
2.9675,1783720779.4907,1,1,1.0000,0.0000,1.41837,0.15303,-2.67503,0.95118,1.57083,0.11891,-0.13192,-0.44208,0.06309,,,,,,,,,,,,,,,,,,,,,,,,,,0,0,0,0,0
2.9783,1783720779.5014,1,1,1.0000,0.0000,1.41838,0.15299,-2.67499,0.95119,1.57083,0.11892,-0.13192,-0.44210,0.06309,,,,,,,,,,,,,,,,,,,,,,,,,,0,0,0,0,0
2.9872,1783720779.5104,1,1,1.0000,0.0000,1.41839,0.15294,-2.67494,0.95119,1.57083,0.11892,-0.13192,-0.44213,0.06310,,,,,,,,,,,,,,,,,,,,,,,,,,0,0,0,0,0
2.9875,1783720779.5107,1,1,1.0000,0.0000,1.41839,0.15294,-2.67494,0.95119,1.57083,0.11892,-0.13192,-0.44213,0.06310,,,,,,,,,,,,,,,,,,,,,,,,,,0,0,0,0,0
2.9976,1783720779.5207,1,1,1.0000,0.0000,1.41840,0.15290,-2.67491,0.95120,1.57084,0.11892,-0.13192,-0.44215,0.06310,,,,,,,,,,,,,,,,,,,,,,,,,,0,0,0,0,0
3.0074,1783720779.5305,1,1,1.0000,0.0000,1.41843,0.15274,-2.67479,0.95123,1.57084,0.11891,-0.13192,-0.44222,0.06310,,,,,,,,,,,,,,,,,,,,,,,,,,0,0,0,0,0
3.0078,1783720779.5309,1,1,1.0000,0.0000,1.41843,0.15274,-2.67479,0.95123,1.57084,0.11891,-0.13192,-0.44222,0.06310,,,,,,,,,,,,,,,,,,,,,,,,,,0,0,0,0,0
3.0160,1783720779.5392,1,1,1.0000,0.0000,1.41846,0.15258,-2.67466,0.95126,1.57084,0.11890,-0.13192,-0.44229,0.06310,,,,,,,,,,,,,,,,,,,,,,,,,,0,0,0,0,0
3.0259,1783720779.5491,1,1,1.0000,0.0000,1.41846,0.15256,-2.67465,0.95127,1.57084,0.11890,-0.13192,-0.44230,0.06310,,,,,,,,,,,,,,,,,,,,,,,,,,0,0,0,0,0
3.0357,1783720779.5588,1,1,1.0000,0.0000,1.41851,0.15231,-2.67447,0.95133,1.57084,0.11886,-0.13193,-0.44241,0.06309,,,,,,,,,,,,,,,,,,,,,,,,,,0,0,0,0,0
3.0361,1783720779.5592,1,1,1.0000,0.0000,1.41851,0.15231,-2.67447,0.95133,1.57084,0.11886,-0.13193,-0.44241,0.06309,,,,,,,,,,,,,,,,,,,,,,,,,,0,0,0,0,0
3.0473,1783720779.5704,1,1,1.0000,0.0000,1.41860,0.15182,-2.67412,0.95144,1.57084,0.11880,-0.13193,-0.44261,0.06309,,,,,,,,,,,,,,,,,,,,,,,,,,0,0,0,0,0
3.0621,1783720779.5853,1,1,1.0000,0.0000,1.41863,0.15169,-2.67403,0.95148,1.57084,0.11878,-0.13193,-0.44267,0.06309,,,,,,,,,,,,,,,,,,,,,,,,,,0,0,0,0,0
3.0678,1783720779.5909,1,1,1.0000,0.0000,1.41870,0.15134,-2.67378,0.95157,1.57084,0.11872,-0.13193,-0.44282,0.06309,,,,,,,,,,,,,,,,,,,,,,,,,,0,0,0,0,0
3.0681,1783720779.5913,1,1,1.0000,0.0000,1.41870,0.15134,-2.67378,0.95157,1.57084,0.11872,-0.13193,-0.44282,0.06309,,,,,,,,,,,,,,,,,,,,,,,,,,0,0,0,0,0
3.0801,1783720779.6033,1,1,1.0000,0.0000,1.41875,0.15105,-2.67357,0.95164,1.57084,0.11867,-0.13193,-0.44295,0.06309,,,,,,,,,,,,,,,,,,,,,,,,,,0,0,0,0,0
3.0874,1783720779.6106,1,1,1.0000,0.0000,1.41882,0.15069,-2.67331,0.95174,1.57084,0.11860,-0.13194,-0.44310,0.06309,,,,,,,,,,,,,,,,,,,,,,,,,,0,0,0,0,0
3.0877,1783720779.6109,1,1,1.0000,0.0000,1.41882,0.15069,-2.67331,0.95174,1.57084,0.11860,-0.13194,-0.44310,0.06309,,,,,,,,,,,,,,,,,,,,,,,,,,0,0,0,0,0
3.1007,1783720779.6239,1,1,1.0000,0.0000,1.41902,0.14967,-2.67257,0.95200,1.57084,0.11842,-0.13194,-0.44355,0.06308,,,,,,,,,,,,,,,,,,,,,,,,,,0,0,0,0,0
3.1011,1783720779.6242,1,1,1.0000,0.0000,1.41902,0.14967,-2.67257,0.95200,1.57084,0.11842,-0.13194,-0.44355,0.06308,,,,,,,,,,,,,,,,,,,,,,,,,,0,0,0,0,0
3.1081,1783720779.6313,1,1,1.0000,0.0000,1.41910,0.14925,-2.67227,0.95212,1.57084,0.11834,-0.13194,-0.44373,0.06308,,,,,,,,,,,,,,,,,,,,,,,,,,0,0,0,0,0
3.1156,1783720779.6388,1,1,1.0000,0.0000,1.41913,0.14906,-2.67213,0.95217,1.57084,0.11831,-0.13194,-0.44382,0.06308,,,,,,,,,,,,,,,,,,,,,,,,,,0,0,0,0,0
3.1161,1783720779.6392,1,1,1.0000,0.0000,1.41913,0.14906,-2.67213,0.95217,1.57084,0.11831,-0.13194,-0.44382,0.06308,,,,,,,,,,,,,,,,,,,,,,,,,,0,0,0,0,0
3.1262,1783720779.6494,1,1,1.0000,0.0000,1.41923,0.14855,-2.67176,0.95230,1.57084,0.11821,-0.13195,-0.44404,0.06308,,,,,,,,,,,,,,,,,,,,,,,,,,0,0,0,0,0
3.1382,1783720779.6613,1,1,1.0000,0.0000,1.41945,0.14739,-2.67092,0.95261,1.57084,0.11800,-0.13195,-0.44455,0.06308,,,,,,,,,,,,,,,,,,,,,,,,,,0,0,0,0,0
3.1512,1783720779.6743,1,1,1.0000,0.0000,1.41953,0.14699,-2.67063,0.95271,1.57084,0.11792,-0.13195,-0.44473,0.06308,,,,,,,,,,,,,,,,,,,,,,,,,,0,0,0,0,0
3.1581,1783720779.6813,1,1,1.0000,0.0000,1.41958,0.14671,-2.67042,0.95279,1.57084,0.11787,-0.13195,-0.44485,0.06308,,,,,,,,,,,,,,,,,,,,,,,,,,0,0,0,0,0
3.1678,1783720779.6910,1,1,1.0000,0.0000,1.41972,0.14600,-2.66990,0.95298,1.57083,0.11773,-0.13195,-0.44517,0.06308,,,,,,,,,,,,,,,,,,,,,,,,,,0,0,0,0,0
3.1778,1783720779.7009,1,1,1.0000,0.0000,1.41975,0.14583,-2.66978,0.95302,1.57083,0.11770,-0.13196,-0.44524,0.06307,,,,,,,,,,,,,,,,,,,,,,,,,,0,0,0,0,0
3.1859,1783720779.7090,1,1,1.0000,0.0000,1.41984,0.14538,-2.66945,0.95314,1.57083,0.11761,-0.13196,-0.44544,0.06307,,,,,,,,,,,,,,,,,,,,,,,,,,0,0,0,0,0
3.2023,1783720779.7255,1,1,1.0000,0.0000,1.42003,0.14439,-2.66873,0.95341,1.57083,0.11742,-0.13196,-0.44588,0.06307,,,,,,,,,,,,,,,,,,,,,,,,,,0,0,0,0,0
3.2117,1783720779.7348,1,1,1.0000,0.0000,1.42008,0.14414,-2.66855,0.95348,1.57083,0.11737,-0.13196,-0.44599,0.06307,,,,,,,,,,,,,,,,,,,,,,,,,,0,0,0,0,0
3.2177,1783720779.7408,1,1,1.0000,0.0000,1.42011,0.14397,-2.66842,0.95352,1.57083,0.11734,-0.13196,-0.44607,0.06307,,,,,,,,,,,,,,,,,,,,,,,,,,0,0,0,0,0
3.2182,1783720779.7414,1,1,1.0000,0.0000,1.42011,0.14397,-2.66842,0.95352,1.57083,0.11734,-0.13196,-0.44607,0.06307,,,,,,,,,,,,,,,,,,,,,,,,,,0,0,0,0,0
3.2257,1783720779.7489,1,1,1.0000,0.0000,1.42019,0.14355,-2.66811,0.95364,1.57083,0.11726,-0.13196,-0.44626,0.06307,,,,,,,,,,,,,,,,,,,,,,,,,,0,0,0,0,0
3.2262,1783720779.7493,1,1,1.0000,0.0000,1.42019,0.14355,-2.66811,0.95364,1.57083,0.11726,-0.13196,-0.44626,0.06307,,,,,,,,,,,,,,,,,,,,,,,,,,0,0,0,0,0
3.2404,1783720779.7635,1,1,1.0000,0.0000,1.42038,0.14259,-2.66741,0.95391,1.57083,0.11707,-0.13197,-0.44669,0.06307,,,,,,,,,,,,,,,,,,,,,,,,,,0,0,0,0,0
3.2460,1783720779.7692,1,1,1.0000,0.0000,1.42042,0.14237,-2.66725,0.95397,1.57083,0.11703,-0.13197,-0.44679,0.06307,,,,,,,,,,,,,,,,,,,,,,,,,,0,0,0,0,0
3.2560,1783720779.7791,1,1,1.0000,0.0000,1.42051,0.14192,-2.66692,0.95410,1.57083,0.11694,-0.13197,-0.44699,0.06307,,,,,,,,,,,,,,,,,,,,,,,,,,0,0,0,0,0
3.2671,1783720779.7902,1,1,1.0000,0.0000,1.42052,0.14185,-2.66687,0.95412,1.57083,0.11692,-0.13197,-0.44702,0.06307,,,,,,,,,,,,,,,,,,,,,,,,,,0,0,0,0,0
3.2781,1783720779.8013,1,1,1.0000,0.0000,1.42052,0.14185,-2.66687,0.95412,1.57083,0.11692,-0.13197,-0.44702,0.06307,,,,,,,,,,,,,,,,,,,,,,,,,,0,0,0,0,0
3.2902,1783720779.8133,1,1,1.0000,0.0000,1.42052,0.14185,-2.66687,0.95412,1.57083,0.11692,-0.13197,-0.44702,0.06307,,,,,,,,,,,,,,,,,,,,,,,,,,0,0,0,0,0
3.2967,1783720779.8198,1,1,1.0000,0.0000,1.42052,0.14185,-2.66687,0.95412,1.57083,0.11692,-0.13197,-0.44702,0.06307,,,,,,,,,,,,,,,,,,,,,,,,,,0,0,0,0,0
3.3201,1783720779.8432,1,1,1.0000,0.0000,1.42052,0.14185,-2.66687,0.95412,1.57083,0.11692,-0.13197,-0.44702,0.06307,,,,,,,,,,,,,,,,,,,,,,,,,,0,0,0,0,0
3.3205,1783720779.8436,1,1,1.0000,0.0000,1.42052,0.14185,-2.66687,0.95412,1.57083,0.11692,-0.13197,-0.44702,0.06307,,,,,,,,,,,,,,,,,,,,,,,,,,0,0,0,0,0
3.3209,1783720779.8440,1,1,1.0000,0.0000,1.42052,0.14185,-2.66687,0.95412,1.57083,0.11692,-0.13197,-0.44702,0.06307,,,,,,,,,,,,,,,,,,,,,,,,,,0,0,0,0,0
3.3213,1783720779.8445,1,1,1.0000,0.0000,1.42052,0.14185,-2.66687,0.95412,1.57083,0.11692,-0.13197,-0.44702,0.06307,,,,,,,,,,,,,,,,,,,,,,,,,,0,0,0,0,0
3.3258,1783720779.8489,1,1,1.0000,0.0000,1.42052,0.14185,-2.66687,0.95412,1.57083,0.11692,-0.13197,-0.44702,0.06307,,,,,,,,,,,,,,,,,,,,,,,,,,0,0,0,0,0
3.3260,1783720779.8492,1,1,1.0000,0.0000,1.42052,0.14185,-2.66687,0.95412,1.57083,0.11692,-0.13197,-0.44702,0.06307,,,,,,,,,,,,,,,,,,,,,,,,,,0,0,0,0,0
3.3360,1783720779.8591,1,1,1.0000,0.0000,1.42052,0.14185,-2.66687,0.95412,1.57083,0.11692,-0.13197,-0.44702,0.06307,,,,,,,,,,,,,,,,,,,,,,,,,,0,0,0,0,0
3.3461,1783720779.8693,1,1,1.0000,0.0000,1.42052,0.14185,-2.66687,0.95412,1.57083,0.11692,-0.13197,-0.44702,0.06307,,,,,,,,,,,,,,,,,,,,,,,,,,0,0,0,0,0
3.3570,1783720779.8802,1,1,1.0000,0.0000,1.42052,0.14185,-2.66687,0.95412,1.57083,0.11692,-0.13197,-0.44702,0.06307,,,,,,,,,,,,,,,,,,,,,,,,,,0,0,0,0,0
3.3799,1783720779.9031,1,1,1.0000,0.0000,1.42052,0.14185,-2.66687,0.95412,1.57083,0.11692,-0.13197,-0.44702,0.06307,,,,,,,,,,,,,,,,,,,,,,,,,,0,0,0,0,0
3.3804,1783720779.9035,1,1,1.0000,0.0000,1.42052,0.14185,-2.66687,0.95412,1.57083,0.11692,-0.13197,-0.44702,0.06307,,,,,,,,,,,,,,,,,,,,,,,,,,0,0,0,0,0
3.3878,1783720779.9109,1,1,1.0000,0.0000,1.42052,0.14185,-2.66687,0.95412,1.57083,0.11692,-0.13197,-0.44702,0.06307,,,,,,,,,,,,,,,,,,,,,,,,,,0,0,0,0,0
3.3880,1783720779.9112,1,1,1.0000,0.0000,1.42052,0.14185,-2.66687,0.95412,1.57083,0.11692,-0.13197,-0.44702,0.06307,,,,,,,,,,,,,,,,,,,,,,,,,,0,0,0,0,0
3.3968,1783720779.9199,1,1,1.0000,0.0000,1.42052,0.14185,-2.66687,0.95412,1.57083,0.11692,-0.13197,-0.44702,0.06307,,,,,,,,,,,,,,,,,,,,,,,,,,0,0,0,0,0
3.3971,1783720779.9202,1,1,1.0000,0.0000,1.42052,0.14185,-2.66687,0.95412,1.57083,0.11692,-0.13197,-0.44702,0.06307,,,,,,,,,,,,,,,,,,,,,,,,,,0,0,0,0,0
3.4077,1783720779.9308,1,1,1.0000,0.0000,1.42052,0.14185,-2.66687,0.95412,1.57083,0.11692,-0.13197,-0.44702,0.06307,,,,,,,,,,,,,,,,,,,,,,,,,,0,0,0,0,0
3.4258,1783720779.9490,1,1,1.0000,0.0000,1.42052,0.14185,-2.66687,0.95412,1.57083,0.11692,-0.13197,-0.44702,0.06307,,,,,,,,,,,,,,,,,,,,,,,,,,0,0,0,0,0
3.4299,1783720779.9531,1,1,1.0000,0.0000,1.42052,0.14185,-2.66687,0.95412,1.57083,0.11692,-0.13197,-0.44702,0.06307,,,,,,,,,,,,,,,,,,,,,,,,,,0,0,0,0,0
3.4303,1783720779.9534,1,1,1.0000,0.0000,1.42052,0.14185,-2.66687,0.95412,1.57083,0.11692,-0.13197,-0.44702,0.06307,,,,,,,,,,,,,,,,,,,,,,,,,,0,0,0,0,0
3.4672,1783720779.9903,1,1,1.0000,0.0000,1.42052,0.14185,-2.66687,0.95412,1.57083,0.11692,-0.13197,-0.44702,0.06307,,,,,,,,,,,,,,,,,,,,,,,,,,0,0,0,0,0
3.5322,1783720780.0554,1,1,1.0000,0.0000,1.42052,0.14185,-2.66687,0.95412,1.57083,0.11692,-0.13197,-0.44702,0.06307,,,,,,,,,,,,,,,,,,,,,,,,,,0,0,0,0,0
3.5325,1783720780.0556,1,1,1.0000,0.0000,1.42052,0.14185,-2.66687,0.95412,1.57083,0.11692,-0.13197,-0.44702,0.06307,,,,,,,,,,,,,,,,,,,,,,,,,,0,0,0,0,0
3.5370,1783720780.0601,1,1,1.0000,0.0000,1.42052,0.14185,-2.66687,0.95412,1.57083,0.11692,-0.13197,-0.44702,0.06307,,,,,,,,,,,,,,,,,,,,,,,,,,0,0,0,0,0
3.5374,1783720780.0605,1,1,1.0000,0.0000,1.42052,0.14185,-2.66687,0.95412,1.57083,0.11692,-0.13197,-0.44702,0.06307,,,,,,,,,,,,,,,,,,,,,,,,,,0,0,0,0,0
3.5379,1783720780.0610,1,1,1.0000,0.0000,1.42052,0.14185,-2.66687,0.95412,1.57083,0.11692,-0.13197,-0.44702,0.06307,,,,,,,,,,,,,,,,,,,,,,,,,,0,0,0,0,0
3.5384,1783720780.0615,1,1,1.0000,0.0000,1.42052,0.14185,-2.66687,0.95412,1.57083,0.11692,-0.13197,-0.44702,0.06307,,,,,,,,,,,,,,,,,,,,,,,,,,0,0,0,0,0
3.5399,1783720780.0630,1,1,1.0000,0.0000,1.42052,0.14185,-2.66687,0.95412,1.57083,0.11692,-0.13197,-0.44702,0.06307,,,,,,,,,,,,,,,,,,,,,,,,,,0,0,0,0,0
3.5403,1783720780.0635,1,1,1.0000,0.0000,1.42052,0.14185,-2.66687,0.95412,1.57083,0.11692,-0.13197,-0.44702,0.06307,,,,,,,,,,,,,,,,,,,,,,,,,,0,0,0,0,0
3.5700,1783720780.0932,1,1,1.0000,0.0000,1.42052,0.14185,-2.66687,0.95412,1.57083,0.11692,-0.13197,-0.44702,0.06307,,,,,,,,,,,,,,,,,,,,,,,,,,0,0,0,0,0
3.5704,1783720780.0935,1,1,1.0000,0.0000,1.42052,0.14185,-2.66687,0.95412,1.57083,0.11692,-0.13197,-0.44702,0.06307,,,,,,,,,,,,,,,,,,,,,,,,,,0,0,0,0,0
3.5771,1783720780.1002,1,1,1.0000,0.0000,1.42052,0.14185,-2.66687,0.95412,1.57083,0.11692,-0.13197,-0.44702,0.06307,,,,,,,,,,,,,,,,,,,,,,,,,,0,0,0,0,0
3.5928,1783720780.1160,1,1,1.0000,0.0000,1.42052,0.14185,-2.66687,0.95412,1.57083,0.11692,-0.13197,-0.44702,0.06307,,,,,,,,,,,,,,,,,,,,,,,,,,0,0,0,0,0
3.5995,1783720780.1227,1,1,1.0000,0.0000,1.42052,0.14185,-2.66687,0.95412,1.57083,0.11692,-0.13197,-0.44702,0.06307,,,,,,,,,,,,,,,,,,,,,,,,,,0,0,0,0,0
3.6000,1783720780.1231,1,1,1.0000,0.0000,1.42052,0.14185,-2.66687,0.95412,1.57083,0.11692,-0.13197,-0.44702,0.06307,,,,,,,,,,,,,,,,,,,,,,,,,,0,0,0,0,0
3.6130,1783720780.1361,1,1,1.0000,0.0000,1.42052,0.14185,-2.66687,0.95412,1.57083,0.11692,-0.13197,-0.44702,0.06307,,,,,,,,,,,,,,,,,,,,,,,,,,0,0,0,0,0
3.6200,1783720780.1432,1,1,1.0000,0.0000,1.42052,0.14185,-2.66687,0.95412,1.57083,0.11692,-0.13197,-0.44702,0.06307,,,,,,,,,,,,,,,,,,,,,,,,,,0,0,0,0,0
3.6274,1783720780.1506,1,1,1.0000,0.0000,1.42052,0.14185,-2.66687,0.95412,1.57083,0.11692,-0.13197,-0.44702,0.06307,,,,,,,,,,,,,,,,,,,,,,,,,,0,0,0,0,0
3.6376,1783720780.1607,1,1,1.0000,0.0000,1.42052,0.14185,-2.66687,0.95412,1.57083,0.11692,-0.13197,-0.44702,0.06307,,,,,,,,,,,,,,,,,,,,,,,,,,0,0,0,0,0
3.6513,1783720780.1745,1,1,1.0000,0.0000,1.42052,0.14185,-2.66687,0.95412,1.57083,0.11692,-0.13197,-0.44702,0.06307,,,,,,,,,,,,,,,,,,,,,,,,,,0,0,0,0,0
3.6632,1783720780.1863,1,1,1.0000,0.0000,1.42052,0.14185,-2.66687,0.95412,1.57083,0.11692,-0.13197,-0.44702,0.06307,,,,,,,,,,,,,,,,,,,,,,,,,,0,0,0,0,0
3.6634,1783720780.1866,1,1,1.0000,0.0000,1.42052,0.14185,-2.66687,0.95412,1.57083,0.11692,-0.13197,-0.44702,0.06307,,,,,,,,,,,,,,,,,,,,,,,,,,0,0,0,0,0
3.6698,1783720780.1929,1,1,1.0000,0.0000,1.42052,0.14185,-2.66687,0.95412,1.57083,0.11692,-0.13197,-0.44702,0.06307,,,,,,,,,,,,,,,,,,,,,,,,,,0,0,0,0,0
3.6762,1783720780.1993,1,1,1.0000,0.0000,1.42052,0.14185,-2.66687,0.95412,1.57083,0.11692,-0.13197,-0.44702,0.06307,,,,,,,,,,,,,,,,,,,,,,,,,,0,0,0,0,0
3.6764,1783720780.1996,1,1,1.0000,0.0000,1.42052,0.14185,-2.66687,0.95412,1.57083,0.11692,-0.13197,-0.44702,0.06307,,,,,,,,,,,,,,,,,,,,,,,,,,0,0,0,0,0
3.6903,1783720780.2134,1,1,1.0000,0.0000,1.42052,0.14185,-2.66687,0.95412,1.57083,0.11691,-0.13197,-0.44702,0.06307,,,,,,,,,,,,,,,,,,,,,,,,,,0,0,0,0,0
3.6906,1783720780.2137,1,1,1.0000,0.0000,1.42052,0.14185,-2.66687,0.95412,1.57083,0.11691,-0.13197,-0.44702,0.06307,,,,,,,,,,,,,,,,,,,,,,,,,,0,0,0,0,0
3.6958,1783720780.2189,1,1,1.0000,0.0000,1.42052,0.14185,-2.66687,0.95413,1.57083,0.11690,-0.13197,-0.44702,0.06307,,,,,,,,,,,,,,,,,,,,,,,,,,0,0,0,0,0
3.6961,1783720780.2192,1,1,1.0000,0.0000,1.42052,0.14185,-2.66687,0.95413,1.57083,0.11690,-0.13197,-0.44702,0.06307,,,,,,,,,,,,,,,,,,,,,,,,,,0,0,0,0,0
3.7074,1783720780.2305,1,1,1.0000,0.0000,1.42052,0.14185,-2.66688,0.95415,1.57082,0.11688,-0.13197,-0.44702,0.06308,,,,,,,,,,,,,,,,,,,,,,,,,,0,0,0,0,0
3.7214,1783720780.2445,1,1,1.0000,0.0000,1.42052,0.14185,-2.66688,0.95417,1.57082,0.11686,-0.13197,-0.44703,0.06308,,,,,,,,,,,,,,,,,,,,,,,,,,0,0,0,0,0
3.7323,1783720780.2554,1,1,1.0000,0.0000,1.42052,0.14185,-2.66688,0.95417,1.57082,0.11685,-0.13197,-0.44703,0.06308,,,,,,,,,,,,,,,,,,,,,,,,,,0,0,0,0,0
3.7363,1783720780.2594,1,1,1.0000,0.0000,1.42052,0.14185,-2.66688,0.95418,1.57082,0.11685,-0.13197,-0.44703,0.06308,,,,,,,,,,,,,,,,,,,,,,,,,,0,0,0,0,0
3.7524,1783720780.2755,1,1,1.0000,0.0000,1.42052,0.14185,-2.66688,0.95418,1.57082,0.11685,-0.13197,-0.44703,0.06308,,,,,,,,,,,,,,,,,,,,,,,,,,0,0,0,0,0
3.7527,1783720780.2759,1,1,1.0000,0.0000,1.42052,0.14185,-2.66688,0.95418,1.57082,0.11685,-0.13197,-0.44703,0.06308,,,,,,,,,,,,,,,,,,,,,,,,,,0,0,0,0,0
3.7562,1783720780.2793,1,1,1.0000,0.0000,1.42052,0.14185,-2.66688,0.95418,1.57082,0.11685,-0.13197,-0.44703,0.06308,,,,,,,,,,,,,,,,,,,,,,,,,,0,0,0,0,0
3.7565,1783720780.2796,1,1,1.0000,0.0000,1.42052,0.14185,-2.66688,0.95418,1.57082,0.11685,-0.13197,-0.44703,0.06308,,,,,,,,,,,,,,,,,,,,,,,,,,0,0,0,0,0
3.7680,1783720780.2911,1,1,1.0000,0.0000,1.42052,0.14185,-2.66688,0.95418,1.57082,0.11685,-0.13197,-0.44703,0.06308,,,,,,,,,,,,,,,,,,,,,,,,,,0,0,0,0,0
3.7683,1783720780.2914,1,1,1.0000,0.0000,1.42052,0.14185,-2.66688,0.95418,1.57082,0.11685,-0.13197,-0.44703,0.06308,,,,,,,,,,,,,,,,,,,,,,,,,,0,0,0,0,0
3.7792,1783720780.3023,1,1,1.0000,0.0000,1.42052,0.14185,-2.66688,0.95418,1.57082,0.11685,-0.13197,-0.44703,0.06308,,,,,,,,,,,,,,,,,,,,,,,,,,0,0,0,0,0
3.7902,1783720780.3133,1,1,1.0000,0.0000,1.42052,0.14185,-2.66688,0.95418,1.57082,0.11685,-0.13197,-0.44703,0.06308,,,,,,,,,,,,,,,,,,,,,,,,,,0,0,0,0,0
3.7907,1783720780.3138,1,1,1.0000,0.0000,1.42052,0.14185,-2.66688,0.95418,1.57082,0.11685,-0.13197,-0.44703,0.06308,,,,,,,,,,,,,,,,,,,,,,,,,,0,0,0,0,0
3.8002,1783720780.3233,1,1,1.0000,0.0000,1.42052,0.14185,-2.66688,0.95418,1.57082,0.11685,-0.13197,-0.44703,0.06308,,,,,,,,,,,,,,,,,,,,,,,,,,0,0,0,0,0
3.8070,1783720780.3302,1,1,1.0000,0.0000,1.42052,0.14185,-2.66688,0.95418,1.57082,0.11685,-0.13197,-0.44703,0.06308,,,,,,,,,,,,,,,,,,,,,,,,,,0,0,0,0,0
3.8077,1783720780.3308,1,1,1.0000,0.0000,1.42052,0.14185,-2.66688,0.95418,1.57082,0.11685,-0.13197,-0.44703,0.06308,,,,,,,,,,,,,,,,,,,,,,,,,,0,0,0,0,0
3.8175,1783720780.3406,1,1,1.0000,0.0000,1.42052,0.14185,-2.66688,0.95418,1.57082,0.11685,-0.13197,-0.44703,0.06308,,,,,,,,,,,,,,,,,,,,,,,,,,0,0,0,0,0
3.8366,1783720780.3598,1,1,1.0000,0.0000,1.42052,0.14185,-2.66688,0.95418,1.57082,0.11685,-0.13197,-0.44703,0.06308,,,,,,,,,,,,,,,,,,,,,,,,,,0,0,0,0,0
3.8370,1783720780.3602,1,1,1.0000,0.0000,1.42052,0.14185,-2.66688,0.95418,1.57082,0.11685,-0.13197,-0.44703,0.06308,,,,,,,,,,,,,,,,,,,,,,,,,,0,0,0,0,0
3.8376,1783720780.3607,1,1,1.0000,0.0000,1.42052,0.14185,-2.66688,0.95418,1.57082,0.11685,-0.13197,-0.44703,0.06308,,,,,,,,,,,,,,,,,,,,,,,,,,0,0,0,0,0
3.8379,1783720780.3610,1,1,1.0000,0.0000,1.42052,0.14185,-2.66688,0.95418,1.57082,0.11685,-0.13197,-0.44703,0.06308,,,,,,,,,,,,,,,,,,,,,,,,,,0,0,0,0,0
3.8463,1783720780.3695,1,1,1.0000,0.0000,1.42052,0.14185,-2.66688,0.95418,1.57082,0.11685,-0.13197,-0.44703,0.06308,,,,,,,,,,,,,,,,,,,,,,,,,,0,0,0,0,0
3.8565,1783720780.3797,1,1,1.0000,0.0000,1.42052,0.14185,-2.66688,0.95418,1.57082,0.11685,-0.13197,-0.44703,0.06308,,,,,,,,,,,,,,,,,,,,,,,,,,0,0,0,0,0
3.8692,1783720780.3923,1,1,1.0000,0.0000,1.42052,0.14185,-2.66688,0.95418,1.57082,0.11685,-0.13197,-0.44703,0.06308,,,,,,,,,,,,,,,,,,,,,,,,,,0,0,0,0,0
3.8695,1783720780.3926,1,1,1.0000,0.0000,1.42052,0.14185,-2.66688,0.95418,1.57082,0.11685,-0.13197,-0.44703,0.06308,,,,,,,,,,,,,,,,,,,,,,,,,,0,0,0,0,0
3.8821,1783720780.4053,1,1,1.0000,0.0000,1.42052,0.14185,-2.66688,0.95418,1.57082,0.11685,-0.13197,-0.44703,0.06308,,,,,,,,,,,,,,,,,,,,,,,,,,0,0,0,0,0
3.8864,1783720780.4096,1,1,1.0000,0.0000,1.42052,0.14185,-2.66688,0.95418,1.57082,0.11685,-0.13197,-0.44703,0.06308,,,,,,,,,,,,,,,,,,,,,,,,,,0,0,0,0,0
3.9014,1783720780.4245,1,1,1.0000,0.0000,1.42052,0.14185,-2.66688,0.95418,1.57082,0.11685,-0.13197,-0.44703,0.06308,,,,,,,,,,,,,,,,,,,,,,,,,,0,0,0,0,0
3.9083,1783720780.4314,1,1,1.0000,0.0000,1.42052,0.14185,-2.66688,0.95418,1.57082,0.11685,-0.13197,-0.44703,0.06308,,,,,,,,,,,,,,,,,,,,,,,,,,0,0,0,0,0
3.9322,1783720780.4554,1,1,1.0000,0.0000,1.42052,0.14185,-2.66688,0.95418,1.57082,0.11685,-0.13197,-0.44703,0.06308,,,,,,,,,,,,,,,,,,,,,,,,,,0,0,0,0,0
3.9326,1783720780.4557,1,1,1.0000,0.0000,1.42052,0.14185,-2.66688,0.95418,1.57082,0.11685,-0.13197,-0.44703,0.06308,,,,,,,,,,,,,,,,,,,,,,,,,,0,0,0,0,0
3.9401,1783720780.4632,1,1,1.0000,0.0000,1.42052,0.14185,-2.66688,0.95418,1.57082,0.11685,-0.13197,-0.44703,0.06308,,,,,,,,,,,,,,,,,,,,,,,,,,0,0,0,0,0
3.9470,1783720780.4701,1,1,1.0000,0.0000,1.42052,0.14185,-2.66688,0.95418,1.57082,0.11685,-0.13197,-0.44703,0.06308,,,,,,,,,,,,,,,,,,,,,,,,,,0,0,0,0,0
3.9476,1783720780.4707,1,1,1.0000,0.0000,1.42052,0.14185,-2.66688,0.95418,1.57082,0.11685,-0.13197,-0.44703,0.06308,,,,,,,,,,,,,,,,,,,,,,,,,,0,0,0,0,0
3.9585,1783720780.4817,1,1,1.0000,0.0000,1.42052,0.14185,-2.66688,0.95418,1.57082,0.11685,-0.13197,-0.44703,0.06308,,,,,,,,,,,,,,,,,,,,,,,,,,0,0,0,0,0
3.9697,1783720780.4928,1,1,1.0000,0.0000,1.42052,0.14185,-2.66688,0.95418,1.57082,0.11685,-0.13197,-0.44703,0.06308,,,,,,,,,,,,,,,,,,,,,,,,,,0,0,0,0,0
3.9762,1783720780.4994,1,1,1.0000,0.0000,1.42052,0.14185,-2.66688,0.95418,1.57082,0.11685,-0.13197,-0.44703,0.06308,,,,,,,,,,,,,,,,,,,,,,,,,,0,0,0,0,0
3.9765,1783720780.4997,1,1,1.0000,0.0000,1.42052,0.14185,-2.66688,0.95418,1.57082,0.11685,-0.13197,-0.44703,0.06308,,,,,,,,,,,,,,,,,,,,,,,,,,0,0,0,0,0
3.9876,1783720780.5108,1,1,1.0000,0.0000,1.42052,0.14185,-2.66688,0.95418,1.57082,0.11685,-0.13197,-0.44703,0.06308,,,,,,,,,,,,,,,,,,,,,,,,,,0,0,0,0,0
4.0429,1783720780.5660,1,1,1.0000,0.0000,1.42052,0.14185,-2.66688,0.95418,1.57082,0.11685,-0.13197,-0.44703,0.06308,,,,,,,,,,,,,,,,,,,,,,,,,,0,0,0,0,0
4.0437,1783720780.5668,1,1,1.0000,0.0000,1.42052,0.14185,-2.66688,0.95418,1.57082,0.11685,-0.13197,-0.44703,0.06308,,,,,,,,,,,,,,,,,,,,,,,,,,0,0,0,0,0
4.0441,1783720780.5673,1,1,1.0000,0.0000,1.42052,0.14185,-2.66688,0.95418,1.57082,0.11685,-0.13197,-0.44703,0.06308,,,,,,,,,,,,,,,,,,,,,,,,,,0,0,0,0,0
4.0459,1783720780.5691,1,1,1.0000,0.0000,1.42052,0.14185,-2.66688,0.95418,1.57082,0.11685,-0.13197,-0.44703,0.06308,,,,,,,,,,,,,,,,,,,,,,,,,,0,0,0,0,0
4.0558,1783720780.5789,1,1,1.0000,0.0000,1.42052,0.14185,-2.66688,0.95418,1.57082,0.11685,-0.13197,-0.44703,0.06308,,,,,,,,,,,,,,,,,,,,,,,,,,0,0,0,0,0
4.0561,1783720780.5793,1,1,1.0000,0.0000,1.42052,0.14185,-2.66688,0.95418,1.57082,0.11685,-0.13197,-0.44703,0.06308,,,,,,,,,,,,,,,,,,,,,,,,,,0,0,0,0,0
4.0724,1783720780.5956,1,1,1.0000,0.0000,1.42052,0.14185,-2.66688,0.95418,1.57082,0.11685,-0.13197,-0.44703,0.06308,,,,,,,,,,,,,,,,,,,,,,,,,,0,0,0,0,0
4.0775,1783720780.6007,1,1,1.0000,0.0000,1.42052,0.14185,-2.66688,0.95418,1.57082,0.11685,-0.13197,-0.44703,0.06308,,,,,,,,,,,,,,,,,,,,,,,,,,0,0,0,0,0
4.0860,1783720780.6091,1,1,1.0000,0.0000,1.42052,0.14185,-2.66688,0.95418,1.57082,0.11685,-0.13197,-0.44703,0.06308,,,,,,,,,,,,,,,,,,,,,,,,,,0,0,0,0,0
4.0963,1783720780.6195,1,1,1.0000,0.0000,1.42052,0.14185,-2.66688,0.95418,1.57082,0.11685,-0.13197,-0.44703,0.06308,,,,,,,,,,,,,,,,,,,,,,,,,,0,0,0,0,0
4.1058,1783720780.6289,1,1,1.0000,0.0000,1.42052,0.14185,-2.66688,0.95418,1.57082,0.11685,-0.13197,-0.44703,0.06308,,,,,,,,,,,,,,,,,,,,,,,,,,0,0,0,0,0
4.1062,1783720780.6293,1,1,1.0000,0.0000,1.42052,0.14185,-2.66688,0.95418,1.57082,0.11685,-0.13197,-0.44703,0.06308,,,,,,,,,,,,,,,,,,,,,,,,,,0,0,0,0,0
4.1175,1783720780.6407,1,1,1.0000,0.0000,1.42052,0.14185,-2.66688,0.95418,1.57082,0.11685,-0.13197,-0.44703,0.06308,,,,,,,,,,,,,,,,,,,,,,,,,,0,0,0,0,0
4.1331,1783720780.6562,1,1,1.0000,0.0000,1.42052,0.14185,-2.66688,0.95418,1.57082,0.11685,-0.13197,-0.44703,0.06308,,,,,,,,,,,,,,,,,,,,,,,,,,0,0,0,0,0
4.1686,1783720780.6917,1,1,1.0000,0.0000,1.42052,0.14183,-2.66689,0.95420,1.57082,0.11685,-0.13197,-0.44703,0.06307,,,,,,,,,,,,,,,,,,,,,,,,,,0,0,0,0,0
4.1688,1783720780.6920,1,1,1.0000,0.0000,1.42052,0.14183,-2.66689,0.95420,1.57082,0.11685,-0.13197,-0.44703,0.06307,,,,,,,,,,,,,,,,,,,,,,,,,,0,0,0,0,0
4.1691,1783720780.6923,1,1,1.0000,0.0000,1.42052,0.14183,-2.66689,0.95420,1.57082,0.11685,-0.13197,-0.44703,0.06307,,,,,,,,,,,,,,,,,,,,,,,,,,0,0,0,0,0
4.1770,1783720780.7002,1,1,1.0000,0.0000,1.42052,0.14177,-2.66690,0.95427,1.57082,0.11685,-0.13197,-0.44703,0.06305,,,,,,,,,,,,,,,,,,,,,,,,,,0,0,0,0,0
4.1821,1783720780.7052,1,1,1.0000,0.0000,1.42052,0.14174,-2.66691,0.95432,1.57082,0.11684,-0.13197,-0.44703,0.06304,,,,,,,,,,,,,,,,,,,,,,,,,,0,0,0,0,0
4.1960,1783720780.7192,1,1,1.0000,0.0000,1.42052,0.14157,-2.66695,0.95453,1.57081,0.11684,-0.13197,-0.44703,0.06299,,,,,,,,,,,,,,,,,,,,,,,,,,0,0,0,0,0
4.1964,1783720780.7196,1,1,1.0000,0.0000,1.42052,0.14157,-2.66695,0.95453,1.57081,0.11684,-0.13197,-0.44703,0.06299,,,,,,,,,,,,,,,,,,,,,,,,,,0,0,0,0,0
4.2089,1783720780.7320,1,1,1.0000,0.0000,1.42052,0.14147,-2.66698,0.95467,1.57081,0.11683,-0.13197,-0.44704,0.06295,,,,,,,,,,,,,,,,,,,,,,,,,,0,0,0,0,0
4.2119,1783720780.7350,1,1,1.0000,0.0000,1.42052,0.14144,-2.66699,0.95470,1.57081,0.11683,-0.13197,-0.44704,0.06295,,,,,,,,,,,,,,,,,,,,,,,,,,0,0,0,0,0
4.2568,1783720780.7800,1,1,1.0000,0.0000,1.42052,0.14142,-2.66699,0.95473,1.57081,0.11683,-0.13197,-0.44704,0.06294,,,,,,,,,,,,,,,,,,,,,,,,,,0,0,0,0,0
4.2573,1783720780.7804,1,1,1.0000,0.0000,1.42052,0.14142,-2.66699,0.95473,1.57081,0.11683,-0.13197,-0.44704,0.06294,,,,,,,,,,,,,,,,,,,,,,,,,,0,0,0,0,0
4.2596,1783720780.7828,1,1,1.0000,0.0000,1.42052,0.14142,-2.66699,0.95473,1.57081,0.11683,-0.13197,-0.44704,0.06294,,,,,,,,,,,,,,,,,,,,,,,,,,0,0,0,0,0
4.2600,1783720780.7831,1,1,1.0000,0.0000,1.42052,0.14142,-2.66699,0.95473,1.57081,0.11683,-0.13197,-0.44704,0.06294,,,,,,,,,,,,,,,,,,,,,,,,,,0,0,0,0,0
4.3451,1783720780.8682,1,1,1.0000,0.0000,1.42051,0.14131,-2.66710,0.95487,1.57081,0.11683,-0.13197,-0.44699,0.06287,,,,,,,,,,,,,,,,,,,,,,,,,,0,0,0,0,0
4.3455,1783720780.8687,1,1,1.0000,0.0000,1.42051,0.14131,-2.66710,0.95487,1.57081,0.11683,-0.13197,-0.44699,0.06287,,,,,,,,,,,,,,,,,,,,,,,,,,0,0,0,0,0
4.3460,1783720780.8692,1,1,1.0000,0.0000,1.42051,0.14131,-2.66710,0.95487,1.57081,0.11683,-0.13197,-0.44699,0.06287,,,,,,,,,,,,,,,,,,,,,,,,,,0,0,0,0,0
4.3465,1783720780.8696,1,1,1.0000,0.0000,1.42051,0.14131,-2.66710,0.95487,1.57081,0.11683,-0.13197,-0.44699,0.06287,,,,,,,,,,,,,,,,,,,,,,,,,,0,0,0,0,0
4.3898,1783720780.9130,1,1,1.0000,0.0000,1.42051,0.14131,-2.66710,0.95487,1.57081,0.11683,-0.13197,-0.44699,0.06287,,,,,,,,,,,,,,,,,,,,,,,,,,0,0,0,0,0
4.3903,1783720780.9134,1,1,1.0000,0.0000,1.42051,0.14131,-2.66710,0.95487,1.57081,0.11683,-0.13197,-0.44699,0.06287,,,,,,,,,,,,,,,,,,,,,,,,,,0,0,0,0,0
4.3907,1783720780.9138,1,1,1.0000,0.0000,1.42051,0.14131,-2.66710,0.95487,1.57081,0.11683,-0.13197,-0.44699,0.06287,,,,,,,,,,,,,,,,,,,,,,,,,,0,0,0,0,0
4.3910,1783720780.9142,1,1,1.0000,0.0000,1.42051,0.14131,-2.66710,0.95487,1.57081,0.11683,-0.13197,-0.44699,0.06287,,,,,,,,,,,,,,,,,,,,,,,,,,0,0,0,0,0
4.4169,1783720780.9401,1,1,1.0000,0.0000,1.42051,0.14131,-2.66710,0.95487,1.57081,0.11683,-0.13197,-0.44699,0.06287,,,,,,,,,,,,,,,,,,,,,,,,,,0,0,0,0,0
4.4173,1783720780.9404,1,1,1.0000,0.0000,1.42051,0.14131,-2.66710,0.95487,1.57081,0.11683,-0.13197,-0.44699,0.06287,,,,,,,,,,,,,,,,,,,,,,,,,,0,0,0,0,0
4.4302,1783720780.9534,1,1,1.0000,0.0000,1.42051,0.14131,-2.66710,0.95487,1.57081,0.11683,-0.13197,-0.44699,0.06287,,,,,,,,,,,,,,,,,,,,,,,,,,0,0,0,0,0
4.4384,1783720780.9615,1,1,1.0000,0.0000,1.42051,0.14131,-2.66710,0.95487,1.57081,0.11683,-0.13197,-0.44699,0.06287,,,,,,,,,,,,,,,,,,,,,,,,,,0,0,0,0,0
4.4502,1783720780.9733,1,1,1.0000,0.0000,1.42051,0.14131,-2.66710,0.95487,1.57081,0.11683,-0.13197,-0.44699,0.06287,,,,,,,,,,,,,,,,,,,,,,,,,,0,0,0,0,0
4.4558,1783720780.9790,1,1,1.0000,0.0000,1.42051,0.14131,-2.66710,0.95487,1.57081,0.11683,-0.13197,-0.44699,0.06287,,,,,,,,,,,,,,,,,,,,,,,,,,0,0,0,0,0
4.4561,1783720780.9793,1,1,1.0000,0.0000,1.42051,0.14131,-2.66710,0.95487,1.57081,0.11683,-0.13197,-0.44699,0.06287,,,,,,,,,,,,,,,,,,,,,,,,,,0,0,0,0,0
4.4759,1783720780.9991,1,1,1.0000,0.0000,1.42051,0.14131,-2.66710,0.95487,1.57081,0.11683,-0.13197,-0.44699,0.06287,,,,,,,,,,,,,,,,,,,,,,,,,,0,0,0,0,0
4.4792,1783720781.0023,1,1,1.0000,0.0000,1.42051,0.14131,-2.66710,0.95487,1.57081,0.11683,-0.13197,-0.44699,0.06287,,,,,,,,,,,,,,,,,,,,,,,,,,0,0,0,0,0
4.4880,1783720781.0111,1,1,1.0000,0.0000,1.42051,0.14131,-2.66710,0.95487,1.57081,0.11683,-0.13197,-0.44699,0.06287,,,,,,,,,,,,,,,,,,,,,,,,,,0,0,0,0,0
4.4882,1783720781.0114,1,1,1.0000,0.0000,1.42051,0.14131,-2.66710,0.95487,1.57081,0.11683,-0.13197,-0.44699,0.06287,,,,,,,,,,,,,,,,,,,,,,,,,,0,0,0,0,0
4.5007,1783720781.0238,1,1,1.0000,0.0000,1.42051,0.14131,-2.66710,0.95487,1.57081,0.11683,-0.13197,-0.44699,0.06287,,,,,,,,,,,,,,,,,,,,,,,,,,0,0,0,0,0
4.5078,1783720781.0309,1,1,1.0000,0.0000,1.42051,0.14131,-2.66710,0.95487,1.57081,0.11683,-0.13197,-0.44699,0.06287,,,,,,,,,,,,,,,,,,,,,,,,,,0,0,0,0,0
4.5079,1783720781.0311,1,1,1.0000,0.0000,1.42051,0.14131,-2.66710,0.95487,1.57081,0.11683,-0.13197,-0.44699,0.06287,,,,,,,,,,,,,,,,,,,,,,,,,,0,0,0,0,0
4.5185,1783720781.0416,1,1,1.0000,0.0000,1.42051,0.14131,-2.66710,0.95487,1.57081,0.11683,-0.13197,-0.44699,0.06287,,,,,,,,,,,,,,,,,,,,,,,,,,0,0,0,0,0
4.5335,1783720781.0566,1,1,1.0000,0.0000,1.42051,0.14131,-2.66710,0.95487,1.57081,0.11683,-0.13197,-0.44699,0.06287,,,,,,,,,,,,,,,,,,,,,,,,,,0,0,0,0,0
4.5458,1783720781.0690,1,1,1.0000,0.0000,1.42051,0.14131,-2.66710,0.95487,1.57081,0.11683,-0.13197,-0.44699,0.06287,,,,,,,,,,,,,,,,,,,,,,,,,,0,0,0,0,0
4.5571,1783720781.0803,1,1,1.0000,0.0000,1.42051,0.14131,-2.66710,0.95487,1.57081,0.11683,-0.13197,-0.44699,0.06287,,,,,,,,,,,,,,,,,,,,,,,,,,0,0,0,0,0
4.5672,1783720781.0903,1,1,1.0000,0.0000,1.42051,0.14131,-2.66710,0.95487,1.57081,0.11683,-0.13197,-0.44699,0.06287,,,,,,,,,,,,,,,,,,,,,,,,,,0,0,0,0,0
4.5678,1783720781.0909,1,1,1.0000,0.0000,1.42051,0.14131,-2.66710,0.95487,1.57081,0.11683,-0.13197,-0.44699,0.06287,,,,,,,,,,,,,,,,,,,,,,,,,,0,0,0,0,0
4.5760,1783720781.0992,1,1,1.0000,0.0000,1.42051,0.14131,-2.66710,0.95487,1.57081,0.11683,-0.13197,-0.44699,0.06287,,,,,,,,,,,,,,,,,,,,,,,,,,0,0,0,0,0
4.5861,1783720781.1092,1,1,1.0000,0.0000,1.42051,0.14131,-2.66710,0.95487,1.57081,0.11683,-0.13197,-0.44699,0.06287,,,,,,,,,,,,,,,,,,,,,,,,,,0,0,0,0,0
4.5981,1783720781.1212,1,1,1.0000,0.0000,1.42051,0.14131,-2.66710,0.95487,1.57081,0.11683,-0.13197,-0.44699,0.06287,,,,,,,,,,,,,,,,,,,,,,,,,,0,0,0,0,0
4.6070,1783720781.1301,1,1,1.0000,0.0000,1.42051,0.14131,-2.66710,0.95487,1.57081,0.11683,-0.13197,-0.44699,0.06287,,,,,,,,,,,,,,,,,,,,,,,,,,0,0,0,0,0
4.6079,1783720781.1310,1,1,1.0000,0.0000,1.42051,0.14131,-2.66710,0.95487,1.57081,0.11683,-0.13197,-0.44699,0.06287,,,,,,,,,,,,,,,,,,,,,,,,,,0,0,0,0,0
4.6180,1783720781.1412,1,1,1.0000,0.0000,1.42051,0.14131,-2.66710,0.95487,1.57081,0.11683,-0.13197,-0.44699,0.06287,,,,,,,,,,,,,,,,,,,,,,,,,,0,0,0,0,0
4.6261,1783720781.1493,1,1,1.0000,0.0000,1.42051,0.14131,-2.66710,0.95487,1.57081,0.11683,-0.13197,-0.44699,0.06287,,,,,,,,,,,,,,,,,,,,,,,,,,0,0,0,0,0
4.6424,1783720781.1655,1,1,1.0000,0.0000,1.42051,0.14131,-2.66710,0.95487,1.57081,0.11683,-0.13197,-0.44699,0.06287,,,,,,,,,,,,,,,,,,,,,,,,,,0,0,0,0,0
4.6460,1783720781.1692,1,1,1.0000,0.0000,1.42051,0.14131,-2.66710,0.95487,1.57081,0.11683,-0.13197,-0.44699,0.06287,,,,,,,,,,,,,,,,,,,,,,,,,,0,0,0,0,0
4.6464,1783720781.1696,1,1,1.0000,0.0000,1.42051,0.14131,-2.66710,0.95487,1.57081,0.11683,-0.13197,-0.44699,0.06287,,,,,,,,,,,,,,,,,,,,,,,,,,0,0,0,0,0
4.6560,1783720781.1791,1,1,1.0000,0.0000,1.42051,0.14131,-2.66710,0.95487,1.57081,0.11683,-0.13197,-0.44699,0.06287,,,,,,,,,,,,,,,,,,,,,,,,,,0,0,0,0,0
4.6742,1783720781.1974,1,1,1.0000,0.0000,1.42051,0.14131,-2.66710,0.95487,1.57081,0.11683,-0.13197,-0.44699,0.06287,,,,,,,,,,,,,,,,,,,,,,,,,,0,0,0,0,0
4.6781,1783720781.2012,1,1,1.0000,0.0000,1.42051,0.14131,-2.66710,0.95487,1.57081,0.11683,-0.13197,-0.44699,0.06287,,,,,,,,,,,,,,,,,,,,,,,,,,0,0,0,0,0
4.6784,1783720781.2015,1,1,1.0000,0.0000,1.42051,0.14131,-2.66710,0.95487,1.57081,0.11683,-0.13197,-0.44699,0.06287,,,,,,,,,,,,,,,,,,,,,,,,,,0,0,0,0,0
4.6885,1783720781.2117,1,1,1.0000,0.0000,1.42051,0.14131,-2.66710,0.95487,1.57081,0.11683,-0.13197,-0.44699,0.06287,,,,,,,,,,,,,,,,,,,,,,,,,,0,0,0,0,0
4.7006,1783720781.2238,1,1,1.0000,0.0000,1.42051,0.14131,-2.66710,0.95487,1.57081,0.11683,-0.13197,-0.44699,0.06287,,,,,,,,,,,,,,,,,,,,,,,,,,0,0,0,0,0
4.7070,1783720781.2302,1,1,1.0000,0.0000,1.42051,0.14131,-2.66710,0.95487,1.57081,0.11683,-0.13197,-0.44699,0.06287,,,,,,,,,,,,,,,,,,,,,,,,,,0,0,0,0,0
4.7225,1783720781.2457,1,1,1.0000,0.0000,1.42051,0.14131,-2.66710,0.95487,1.57081,0.11683,-0.13197,-0.44699,0.06287,,,,,,,,,,,,,,,,,,,,,,,,,,0,0,0,0,0
4.7403,1783720781.2635,1,1,1.0000,0.0000,1.42051,0.14131,-2.66710,0.95487,1.57081,0.11683,-0.13197,-0.44699,0.06287,,,,,,,,,,,,,,,,,,,,,,,,,,0,0,0,0,0
4.7600,1783720781.2832,1,1,1.0000,0.0000,1.42051,0.14131,-2.66710,0.95487,1.57081,0.11683,-0.13197,-0.44699,0.06287,,,,,,,,,,,,,,,,,,,,,,,,,,0,0,0,0,0
4.7734,1783720781.2965,1,1,1.0000,0.0000,1.42051,0.14127,-2.66710,0.95492,1.57081,0.11682,-0.13197,-0.44699,0.06286,,,,,,,,,,,,,,,,,,,,,,,,,,0,0,0,0,0
4.7960,1783720781.3192,1,1,1.0000,0.0000,1.42051,0.14118,-2.66711,0.95505,1.57081,0.11682,-0.13197,-0.44701,0.06283,,,,,,,,,,,,,,,,,,,,,,,,,,0,0,0,0,0
4.7990,1783720781.3221,1,1,1.0000,0.0000,1.42051,0.14118,-2.66711,0.95505,1.57081,0.11682,-0.13197,-0.44701,0.06283,,,,,,,,,,,,,,,,,,,,,,,,,,0,0,0,0,0
4.7993,1783720781.3224,1,1,1.0000,0.0000,1.42051,0.14118,-2.66711,0.95505,1.57081,0.11682,-0.13197,-0.44701,0.06283,,,,,,,,,,,,,,,,,,,,,,,,,,0,0,0,0,0
4.8080,1783720781.3311,1,1,1.0000,0.0000,1.42051,0.14110,-2.66713,0.95515,1.57081,0.11682,-0.13197,-0.44701,0.06281,,,,,,,,,,,,,,,,,,,,,,,,,,0,0,0,0,0
4.8204,1783720781.3436,1,1,1.0000,0.0000,1.42051,0.14106,-2.66714,0.95519,1.57081,0.11682,-0.13197,-0.44701,0.06280,,,,,,,,,,,,,,,,,,,,,,,,,,0,0,0,0,0
4.8259,1783720781.3491,1,1,1.0000,0.0000,1.42051,0.14105,-2.66714,0.95520,1.57081,0.11682,-0.13197,-0.44701,0.06279,,,,,,,,,,,,,,,,,,,,,,,,,,0,0,0,0,0
4.8488,1783720781.3719,1,1,1.0000,0.0000,1.42051,0.14095,-2.66717,0.95534,1.57081,0.11682,-0.13197,-0.44701,0.06276,,,,,,,,,,,,,,,,,,,,,,,,,,0,0,0,0,0
4.8560,1783720781.3791,1,1,1.0000,0.0000,1.42051,0.14091,-2.66717,0.95540,1.57081,0.11682,-0.13197,-0.44702,0.06275,,,,,,,,,,,,,,,,,,,,,,,,,,0,0,0,0,0
4.8564,1783720781.3795,1,1,1.0000,0.0000,1.42051,0.14091,-2.66717,0.95540,1.57081,0.11682,-0.13197,-0.44702,0.06275,,,,,,,,,,,,,,,,,,,,,,,,,,0,0,0,0,0
4.8681,1783720781.3912,1,1,1.0000,0.0000,1.42051,0.14086,-2.66716,0.95546,1.57080,0.11682,-0.13197,-0.44704,0.06275,,,,,,,,,,,,,,,,,,,,,,,,,,0,0,0,0,0
4.8689,1783720781.3921,1,1,1.0000,0.0000,1.42051,0.14086,-2.66716,0.95546,1.57080,0.11682,-0.13197,-0.44704,0.06275,,,,,,,,,,,,,,,,,,,,,,,,,,0,0,0,0,0
4.8800,1783720781.4031,1,1,1.0000,0.0000,1.42051,0.14085,-2.66714,0.95547,1.57080,0.11682,-0.13196,-0.44706,0.06276,,,,,,,,,,,,,,,,,,,,,,,,,,0,0,0,0,0
4.8904,1783720781.4135,1,1,1.0000,0.0000,1.42051,0.14085,-2.66714,0.95547,1.57080,0.11682,-0.13196,-0.44706,0.06276,,,,,,,,,,,,,,,,,,,,,,,,,,0,0,0,0,0
4.9009,1783720781.4241,1,1,1.0000,0.0000,1.42051,0.14085,-2.66714,0.95547,1.57080,0.11682,-0.13196,-0.44706,0.06276,,,,,,,,,,,,,,,,,,,,,,,,,,0,0,0,0,0
4.9059,1783720781.4290,1,1,1.0000,0.0000,1.42051,0.14085,-2.66714,0.95547,1.57080,0.11682,-0.13196,-0.44706,0.06276,,,,,,,,,,,,,,,,,,,,,,,,,,0,0,0,0,0
4.9174,1783720781.4405,1,1,1.0000,0.0000,1.42051,0.14085,-2.66714,0.95547,1.57080,0.11682,-0.13196,-0.44706,0.06276,,,,,,,,,,,,,,,,,,,,,,,,,,0,0,0,0,0
4.9280,1783720781.4511,1,1,1.0000,0.0000,1.42051,0.14085,-2.66714,0.95547,1.57080,0.11682,-0.13196,-0.44706,0.06276,,,,,,,,,,,,,,,,,,,,,,,,,,0,0,0,0,0
4.9360,1783720781.4591,1,1,1.0000,0.0000,1.42051,0.14085,-2.66714,0.95547,1.57080,0.11682,-0.13196,-0.44706,0.06276,,,,,,,,,,,,,,,,,,,,,,,,,,0,0,0,0,0
4.9363,1783720781.4594,1,1,1.0000,0.0000,1.42051,0.14085,-2.66714,0.95547,1.57080,0.11682,-0.13196,-0.44706,0.06276,,,,,,,,,,,,,,,,,,,,,,,,,,0,0,0,0,0
4.9500,1783720781.4731,1,1,1.0000,0.0000,1.42051,0.14085,-2.66714,0.95547,1.57080,0.11682,-0.13196,-0.44706,0.06276,,,,,,,,,,,,,,,,,,,,,,,,,,0,0,0,0,0
4.9562,1783720781.4793,1,1,1.0000,0.0000,1.42051,0.14085,-2.66714,0.95547,1.57080,0.11682,-0.13196,-0.44706,0.06276,,,,,,,,,,,,,,,,,,,,,,,,,,0,0,0,0,0
4.9671,1783720781.4902,1,1,1.0000,0.0000,1.42051,0.14085,-2.66714,0.95547,1.57080,0.11682,-0.13196,-0.44706,0.06276,,,,,,,,,,,,,,,,,,,,,,,,,,0,0,0,0,0
4.9782,1783720781.5013,1,1,1.0000,0.0000,1.42051,0.14085,-2.66714,0.95547,1.57080,0.11682,-0.13196,-0.44706,0.06276,,,,,,,,,,,,,,,,,,,,,,,,,,0,0,0,0,0
4.9855,1783720781.5087,1,1,1.0000,0.0000,1.42051,0.14085,-2.66714,0.95547,1.57080,0.11682,-0.13196,-0.44706,0.06276,,,,,,,,,,,,,,,,,,,,,,,,,,0,0,0,0,0
4.9859,1783720781.5090,1,1,1.0000,0.0000,1.42051,0.14085,-2.66714,0.95547,1.57080,0.11682,-0.13196,-0.44706,0.06276,,,,,,,,,,,,,,,,,,,,,,,,,,0,0,0,0,0
4.9962,1783720781.5194,1,1,1.0000,0.0000,1.42051,0.14085,-2.66714,0.95547,1.57080,0.11682,-0.13196,-0.44706,0.06276,,,,,,,,,,,,,,,,,,,,,,,,,,0,0,0,0,0
5.0081,1783720781.5313,1,1,1.0000,0.0000,1.42051,0.14085,-2.66714,0.95547,1.57080,0.11682,-0.13196,-0.44706,0.06276,,,,,,,,,,,,,,,,,,,,,,,,,,0,0,0,0,0
5.0199,1783720781.5431,1,1,1.0000,0.0000,1.42051,0.14085,-2.66714,0.95547,1.57080,0.11682,-0.13196,-0.44706,0.06276,,,,,,,,,,,,,,,,,,,,,,,,,,0,0,0,0,0
5.0281,1783720781.5513,1,1,1.0000,0.0000,1.42051,0.14085,-2.66714,0.95547,1.57080,0.11682,-0.13196,-0.44706,0.06276,,,,,,,,,,,,,,,,,,,,,,,,,,0,0,0,0,0
5.0285,1783720781.5516,1,1,1.0000,0.0000,1.42051,0.14085,-2.66714,0.95547,1.57080,0.11682,-0.13196,-0.44706,0.06276,,,,,,,,,,,,,,,,,,,,,,,,,,0,0,0,0,0
5.0383,1783720781.5614,1,1,1.0000,0.0000,1.42051,0.14085,-2.66714,0.95547,1.57080,0.11682,-0.13196,-0.44706,0.06276,,,,,,,,,,,,,,,,,,,,,,,,,,0,0,0,0,0
5.0387,1783720781.5619,1,1,1.0000,0.0000,1.42051,0.14085,-2.66714,0.95547,1.57080,0.11682,-0.13196,-0.44706,0.06276,,,,,,,,,,,,,,,,,,,,,,,,,,0,0,0,0,0
5.0566,1783720781.5798,1,1,1.0000,0.0000,1.42051,0.14085,-2.66714,0.95547,1.57080,0.11682,-0.13196,-0.44706,0.06276,,,,,,,,,,,,,,,,,,,,,,,,,,0,0,0,0,0
5.0569,1783720781.5801,1,1,1.0000,0.0000,1.42051,0.14085,-2.66714,0.95547,1.57080,0.11682,-0.13196,-0.44706,0.06276,,,,,,,,,,,,,,,,,,,,,,,,,,0,0,0,0,0
5.0572,1783720781.5803,1,1,1.0000,0.0000,1.42051,0.14085,-2.66714,0.95547,1.57080,0.11682,-0.13196,-0.44706,0.06276,,,,,,,,,,,,,,,,,,,,,,,,,,0,0,0,0,0
5.0682,1783720781.5914,1,1,1.0000,0.0000,1.42051,0.14085,-2.66714,0.95547,1.57080,0.11682,-0.13196,-0.44706,0.06276,,,,,,,,,,,,,,,,,,,,,,,,,,0,0,0,0,0
5.0761,1783720781.5993,1,1,1.0000,0.0000,1.42051,0.14085,-2.66714,0.95547,1.57080,0.11682,-0.13196,-0.44706,0.06276,,,,,,,,,,,,,,,,,,,,,,,,,,0,0,0,0,0
5.0874,1783720781.6105,1,1,1.0000,0.0000,1.42051,0.14085,-2.66714,0.95547,1.57080,0.11682,-0.13196,-0.44706,0.06276,,,,,,,,,,,,,,,,,,,,,,,,,,0,0,0,0,0
5.1007,1783720781.6239,1,1,1.0000,0.0000,1.42051,0.14085,-2.66714,0.95547,1.57080,0.11682,-0.13196,-0.44706,0.06276,,,,,,,,,,,,,,,,,,,,,,,,,,0,0,0,0,0
5.1069,1783720781.6301,1,1,1.0000,0.0000,1.42051,0.14085,-2.66714,0.95547,1.57080,0.11682,-0.13196,-0.44706,0.06276,,,,,,,,,,,,,,,,,,,,,,,,,,0,0,0,0,0
5.1167,1783720781.6399,1,1,1.0000,0.0000,1.42051,0.14085,-2.66714,0.95547,1.57080,0.11682,-0.13196,-0.44706,0.06276,,,,,,,,,,,,,,,,,,,,,,,,,,0,0,0,0,0
5.1283,1783720781.6515,1,1,1.0000,0.0000,1.42051,0.14083,-2.66714,0.95549,1.57080,0.11682,-0.13196,-0.44705,0.06275,,,,,,,,,,,,,,,,,,,,,,,,,,0,0,0,0,0
5.1665,1783720781.6897,1,1,1.0000,0.0000,1.42051,0.14063,-2.66726,0.95575,1.57080,0.11682,-0.13197,-0.44701,0.06265,,,,,,,,,,,,,,,,,,,,,,,,,,0,0,0,0,0
5.1671,1783720781.6903,1,1,1.0000,0.0000,1.42051,0.14063,-2.66726,0.95575,1.57080,0.11682,-0.13197,-0.44701,0.06265,,,,,,,,,,,,,,,,,,,,,,,,,,0,0,0,0,0
5.1681,1783720781.6912,1,1,1.0000,0.0000,1.42051,0.14061,-2.66728,0.95578,1.57080,0.11682,-0.13197,-0.44701,0.06264,,,,,,,,,,,,,,,,,,,,,,,,,,0,0,0,0,0
5.1789,1783720781.7020,1,1,1.0000,0.0000,1.42051,0.14057,-2.66732,0.95582,1.57080,0.11682,-0.13197,-0.44699,0.06261,,,,,,,,,,,,,,,,,,,,,,,,,,0,0,0,0,0
5.1862,1783720781.7093,1,1,1.0000,0.0000,1.42051,0.14056,-2.66734,0.95584,1.57080,0.11682,-0.13198,-0.44697,0.06260,,,,,,,,,,,,,,,,,,,,,,,,,,0,0,0,0,0
5.1973,1783720781.7205,1,1,1.0000,0.0000,1.42051,0.14056,-2.66734,0.95584,1.57080,0.11682,-0.13198,-0.44697,0.06260,,,,,,,,,,,,,,,,,,,,,,,,,,0,0,0,0,0
5.2123,1783720781.7354,1,1,1.0000,0.0000,1.42051,0.14056,-2.66734,0.95584,1.57080,0.11682,-0.13198,-0.44697,0.06260,,,,,,,,,,,,,,,,,,,,,,,,,,0,0,0,0,0
5.2126,1783720781.7357,1,1,1.0000,0.0000,1.42051,0.14056,-2.66734,0.95584,1.57080,0.11682,-0.13198,-0.44697,0.06260,,,,,,,,,,,,,,,,,,,,,,,,,,0,0,0,0,0
5.2171,1783720781.7402,1,1,1.0000,0.0000,1.42051,0.14056,-2.66734,0.95584,1.57080,0.11682,-0.13198,-0.44697,0.06260,,,,,,,,,,,,,,,,,,,,,,,,,,0,0,0,0,0
5.2257,1783720781.7489,1,1,1.0000,0.0000,1.42051,0.14056,-2.66734,0.95584,1.57080,0.11682,-0.13198,-0.44697,0.06260,,,,,,,,,,,,,,,,,,,,,,,,,,0,0,0,0,0
5.2369,1783720781.7600,1,1,1.0000,0.0000,1.42051,0.14056,-2.66734,0.95584,1.57080,0.11682,-0.13198,-0.44697,0.06260,,,,,,,,,,,,,,,,,,,,,,,,,,0,0,0,0,0
5.2373,1783720781.7604,1,1,1.0000,0.0000,1.42051,0.14056,-2.66734,0.95584,1.57080,0.11682,-0.13198,-0.44697,0.06260,,,,,,,,,,,,,,,,,,,,,,,,,,0,0,0,0,0
5.2501,1783720781.7733,1,1,1.0000,0.0000,1.42051,0.14056,-2.66734,0.95584,1.57080,0.11682,-0.13198,-0.44697,0.06260,,,,,,,,,,,,,,,,,,,,,,,,,,0,0,0,0,0
5.2563,1783720781.7794,1,1,1.0000,0.0000,1.42051,0.14056,-2.66734,0.95584,1.57080,0.11682,-0.13198,-0.44697,0.06260,,,,,,,,,,,,,,,,,,,,,,,,,,0,0,0,0,0
5.2673,1783720781.7905,1,1,1.0000,0.0000,1.42051,0.14056,-2.66734,0.95584,1.57080,0.11682,-0.13198,-0.44697,0.06260,,,,,,,,,,,,,,,,,,,,,,,,,,0,0,0,0,0
5.2764,1783720781.7996,1,1,1.0000,0.0000,1.42051,0.14056,-2.66734,0.95584,1.57080,0.11682,-0.13198,-0.44697,0.06260,,,,,,,,,,,,,,,,,,,,,,,,,,0,0,0,0,0
5.2769,1783720781.8001,1,1,1.0000,0.0000,1.42051,0.14056,-2.66734,0.95584,1.57080,0.11682,-0.13198,-0.44697,0.06260,,,,,,,,,,,,,,,,,,,,,,,,,,0,0,0,0,0
5.2884,1783720781.8116,1,1,1.0000,0.0000,1.42051,0.14056,-2.66734,0.95584,1.57080,0.11682,-0.13198,-0.44697,0.06260,,,,,,,,,,,,,,,,,,,,,,,,,,0,0,0,0,0
5.3012,1783720781.8243,1,1,1.0000,0.0000,1.42051,0.14056,-2.66734,0.95584,1.57080,0.11682,-0.13198,-0.44697,0.06260,,,,,,,,,,,,,,,,,,,,,,,,,,0,0,0,0,0
5.3064,1783720781.8295,1,1,1.0000,0.0000,1.42051,0.14056,-2.66734,0.95584,1.57080,0.11682,-0.13198,-0.44697,0.06260,,,,,,,,,,,,,,,,,,,,,,,,,,0,0,0,0,0
5.3068,1783720781.8299,1,1,1.0000,0.0000,1.42051,0.14056,-2.66734,0.95584,1.57080,0.11682,-0.13198,-0.44697,0.06260,,,,,,,,,,,,,,,,,,,,,,,,,,0,0,0,0,0
5.3202,1783720781.8433,1,1,1.0000,0.0000,1.42051,0.14056,-2.66734,0.95584,1.57080,0.11682,-0.13198,-0.44697,0.06260,,,,,,,,,,,,,,,,,,,,,,,,,,0,0,0,0,0
5.3364,1783720781.8595,1,1,1.0000,0.0000,1.42051,0.14056,-2.66734,0.95584,1.57080,0.11682,-0.13198,-0.44697,0.06260,,,,,,,,,,,,,,,,,,,,,,,,,,0,0,0,0,0
5.3366,1783720781.8598,1,1,1.0000,0.0000,1.42051,0.14056,-2.66734,0.95584,1.57080,0.11682,-0.13198,-0.44697,0.06260,,,,,,,,,,,,,,,,,,,,,,,,,,0,0,0,0,0
5.3663,1783720781.8895,1,1,1.0000,0.0000,1.42051,0.14056,-2.66734,0.95584,1.57080,0.11682,-0.13198,-0.44697,0.06260,,,,,,,,,,,,,,,,,,,,,,,,,,0,0,0,0,0
5.3667,1783720781.8898,1,1,1.0000,0.0000,1.42051,0.14056,-2.66734,0.95584,1.57080,0.11682,-0.13198,-0.44697,0.06260,,,,,,,,,,,,,,,,,,,,,,,,,,0,0,0,0,0
5.3728,1783720781.8959,1,1,1.0000,0.0000,1.42051,0.14056,-2.66734,0.95584,1.57080,0.11682,-0.13198,-0.44697,0.06260,,,,,,,,,,,,,,,,,,,,,,,,,,0,0,0,0,0
5.3796,1783720781.9027,1,1,1.0000,0.0000,1.42051,0.14056,-2.66734,0.95584,1.57080,0.11682,-0.13198,-0.44697,0.06260,,,,,,,,,,,,,,,,,,,,,,,,,,0,0,0,0,0
5.4007,1783720781.9239,1,1,1.0000,0.0000,1.42051,0.14056,-2.66734,0.95584,1.57080,0.11682,-0.13198,-0.44697,0.06260,,,,,,,,,,,,,,,,,,,,,,,,,,0,0,0,0,0
5.4034,1783720781.9265,1,1,1.0000,0.0000,1.42051,0.14056,-2.66734,0.95584,1.57080,0.11682,-0.13198,-0.44697,0.06260,,,,,,,,,,,,,,,,,,,,,,,,,,0,0,0,0,0
5.4040,1783720781.9272,1,1,1.0000,0.0000,1.42051,0.14056,-2.66734,0.95584,1.57080,0.11682,-0.13198,-0.44697,0.06260,,,,,,,,,,,,,,,,,,,,,,,,,,0,0,0,0,0
5.4059,1783720781.9291,1,1,1.0000,0.0000,1.42051,0.14056,-2.66734,0.95584,1.57080,0.11682,-0.13198,-0.44697,0.06260,,,,,,,,,,,,,,,,,,,,,,,,,,0,0,0,0,0
5.4064,1783720781.9295,1,1,1.0000,0.0000,1.42051,0.14056,-2.66734,0.95584,1.57080,0.11682,-0.13198,-0.44697,0.06260,,,,,,,,,,,,,,,,,,,,,,,,,,0,0,0,0,0
5.4175,1783720781.9406,1,1,1.0000,0.0000,1.42051,0.14056,-2.66734,0.95584,1.57080,0.11682,-0.13198,-0.44697,0.06260,,,,,,,,,,,,,,,,,,,,,,,,,,0,0,0,0,0
5.4277,1783720781.9508,1,1,1.0000,0.0000,1.42051,0.14056,-2.66734,0.95584,1.57080,0.11682,-0.13198,-0.44697,0.06260,,,,,,,,,,,,,,,,,,,,,,,,,,0,0,0,0,0
5.4361,1783720781.9592,1,1,1.0000,0.0000,1.42051,0.14056,-2.66734,0.95584,1.57080,0.11682,-0.13198,-0.44697,0.06260,,,,,,,,,,,,,,,,,,,,,,,,,,0,0,0,0,0
5.4626,1783720781.9858,1,1,1.0000,0.0000,1.42051,0.14053,-2.66734,0.95587,1.57080,0.11682,-0.13197,-0.44698,0.06260,,,,,,,,,,,,,,,,,,,,,,,,,,0,0,0,0,0
5.4630,1783720781.9861,1,1,1.0000,0.0000,1.42051,0.14053,-2.66734,0.95587,1.57080,0.11682,-0.13197,-0.44698,0.06260,,,,,,,,,,,,,,,,,,,,,,,,,,0,0,0,0,0
5.4683,1783720781.9915,1,1,1.0000,0.0000,1.42051,0.14050,-2.66734,0.95592,1.57080,0.11681,-0.13197,-0.44699,0.06259,,,,,,,,,,,,,,,,,,,,,,,,,,0,0,0,0,0
5.4763,1783720781.9994,1,1,1.0000,0.0000,1.42051,0.14045,-2.66734,0.95599,1.57080,0.11681,-0.13197,-0.44700,0.06258,,,,,,,,,,,,,,,,,,,,,,,,,,0,0,0,0,0
5.4943,1783720782.0174,1,1,1.0000,0.0000,1.42051,0.14035,-2.66736,0.95612,1.57080,0.11681,-0.13197,-0.44701,0.06255,,,,,,,,,,,,,,,,,,,,,,,,,,0,0,0,0,0
5.4966,1783720782.0198,1,1,1.0000,0.0000,1.42051,0.14032,-2.66737,0.95615,1.57080,0.11681,-0.13197,-0.44700,0.06254,,,,,,,,,,,,,,,,,,,,,,,,,,0,0,0,0,0
5.4969,1783720782.0201,1,1,1.0000,0.0000,1.42051,0.14032,-2.66737,0.95615,1.57080,0.11681,-0.13197,-0.44700,0.06254,,,,,,,,,,,,,,,,,,,,,,,,,,0,0,0,0,0
5.5065,1783720782.0296,1,1,1.0000,0.0000,1.42051,0.14029,-2.66739,0.95619,1.57080,0.11681,-0.13197,-0.44699,0.06252,,,,,,,,,,,,,,,,,,,,,,,,,,0,0,0,0,0
5.5202,1783720782.0434,1,1,1.0000,0.0000,1.42051,0.14028,-2.66741,0.95621,1.57080,0.11681,-0.13197,-0.44699,0.06251,,,,,,,,,,,,,,,,,,,,,,,,,,0,0,0,0,0
5.5204,1783720782.0436,1,1,1.0000,0.0000,1.42051,0.14028,-2.66741,0.95621,1.57080,0.11681,-0.13197,-0.44699,0.06251,,,,,,,,,,,,,,,,,,,,,,,,,,0,0,0,0,0
5.5298,1783720782.0530,1,1,1.0000,0.0000,1.42051,0.14028,-2.66741,0.95621,1.57080,0.11681,-0.13197,-0.44699,0.06251,,,,,,,,,,,,,,,,,,,,,,,,,,0,0,0,0,0
5.5301,1783720782.0533,1,1,1.0000,0.0000,1.42051,0.14028,-2.66741,0.95621,1.57080,0.11681,-0.13197,-0.44699,0.06251,,,,,,,,,,,,,,,,,,,,,,,,,,0,0,0,0,0
5.5380,1783720782.0612,1,1,1.0000,0.0000,1.42051,0.14028,-2.66741,0.95621,1.57080,0.11681,-0.13197,-0.44699,0.06251,,,,,,,,,,,,,,,,,,,,,,,,,,0,0,0,0,0
5.5474,1783720782.0706,1,1,1.0000,0.0000,1.42051,0.14028,-2.66741,0.95621,1.57080,0.11681,-0.13197,-0.44699,0.06251,,,,,,,,,,,,,,,,,,,,,,,,,,0,0,0,0,0
5.5481,1783720782.0713,1,1,1.0000,0.0000,1.42051,0.14028,-2.66741,0.95621,1.57080,0.11681,-0.13197,-0.44699,0.06251,,,,,,,,,,,,,,,,,,,,,,,,,,0,0,0,0,0
5.5581,1783720782.0812,1,1,1.0000,0.0000,1.42051,0.14028,-2.66741,0.95621,1.57080,0.11681,-0.13197,-0.44699,0.06251,,,,,,,,,,,,,,,,,,,,,,,,,,0,0,0,0,0
