Martins-Lucaas/twinforge/sensors/Data/20260713_152850__samples.csv
t_rel_s,t_unix,cycle,phase,setpoint_n,force_net_n,q1,q2,q3,q4,q5,q6,tcp_x,tcp_y,tcp_z,taxel_0,taxel_1,taxel_2,taxel_3,taxel_4,taxel_5,taxel_6,taxel_7,taxel_8,taxel_9,taxel_10,taxel_11,taxel_12,taxel_13,taxel_14,taxel_15,taxel_16,taxel_17,taxel_18,taxel_19,taxel_20,taxel_21,taxel_22,taxel_23,taxel_24,n_RA,n_SA,cn_mm,cn_ra,cn_sa
0.0046,1783967330.0593,1,0,1.0000,-0.0000,1.42244,0.00072,-2.63045,1.05903,1.57084,0.11671,-0.12761,-0.48157,0.03742,,,,,,,,,,,,,,,,,,,,,,,,,,0,0,0,0,0
0.0179,1783967330.0727,1,0,1.0000,-0.0000,1.42244,0.00072,-2.63045,1.05903,1.57084,0.11671,-0.12761,-0.48157,0.03742,,,,,,,,,,,,,,,,,,,,,,,,,,0,0,0,0,0
0.0212,1783967330.0759,1,0,1.0000,-0.0000,1.42244,0.00072,-2.63045,1.05903,1.57084,0.11671,-0.12761,-0.48157,0.03742,,,,,,,,,,,,,,,,,,,,,,,,,,0,0,0,0,0
0.0352,1783967330.0899,1,0,1.0000,-0.0000,1.42244,0.00072,-2.63045,1.05903,1.57084,0.11671,-0.12761,-0.48157,0.03742,,,,,,,,,,,,,,,,,,,,,,,,,,0,0,0,0,0
0.0420,1783967330.0968,1,0,1.0000,-0.0000,1.42244,0.00072,-2.63045,1.05903,1.57084,0.11671,-0.12761,-0.48157,0.03742,,,,,,,,,,,,,,,,,,,,,,,,,,0,0,0,0,0
0.0528,1783967330.1076,1,0,1.0000,-0.0000,1.42244,0.00072,-2.63045,1.05903,1.57084,0.11672,-0.12762,-0.48157,0.03741,,,,,,,,,,,,,,,,,,,,,,,,,,0,0,0,0,0
0.0613,1783967330.1161,1,0,1.0000,-0.0000,1.42244,0.00072,-2.63046,1.05903,1.57083,0.11672,-0.12762,-0.48156,0.03741,,,,,,,,,,,,,,,,,,,,,,,,,,0,0,0,0,0
0.0715,1783967330.1263,1,0,1.0000,-0.0000,1.42244,0.00072,-2.63048,1.05904,1.57082,0.11673,-0.12762,-0.48156,0.03740,,,,,,,,,,,,,,,,,,,,,,,,,,0,0,0,0,0
0.0809,1783967330.1357,1,0,1.0000,-0.0000,1.42244,0.00071,-2.63050,1.05905,1.57081,0.11674,-0.12763,-0.48154,0.03739,,,,,,,,,,,,,,,,,,,,,,,,,,0,0,0,0,0
0.0813,1783967330.1361,1,0,1.0000,-0.0000,1.42244,0.00071,-2.63050,1.05905,1.57081,0.11674,-0.12763,-0.48154,0.03739,,,,,,,,,,,,,,,,,,,,,,,,,,0,0,0,0,0
0.0939,1783967330.1487,1,0,1.0000,-0.0000,1.42244,0.00071,-2.63052,1.05906,1.57080,0.11675,-0.12763,-0.48153,0.03738,,,,,,,,,,,,,,,,,,,,,,,,,,0,0,0,0,0
0.1039,1783967330.1587,1,0,1.0000,-0.0000,1.42244,0.00071,-2.63053,1.05907,1.57080,0.11675,-0.12764,-0.48152,0.03738,,,,,,,,,,,,,,,,,,,,,,,,,,0,0,0,0,0
0.1223,1783967330.1771,1,0,1.0000,-0.0000,1.42244,0.00071,-2.63053,1.05907,1.57080,0.11675,-0.12764,-0.48152,0.03738,,,,,,,,,,,,,,,,,,,,,,,,,,0,0,0,0,0
0.1244,1783967330.1792,1,0,1.0000,-0.0000,1.42244,0.00071,-2.63053,1.05907,1.57080,0.11675,-0.12764,-0.48152,0.03738,,,,,,,,,,,,,,,,,,,,,,,,,,0,0,0,0,0
0.1314,1783967330.1862,1,0,1.0000,-0.0000,1.42244,0.00071,-2.63053,1.05907,1.57080,0.11675,-0.12764,-0.48152,0.03738,,,,,,,,,,,,,,,,,,,,,,,,,,0,0,0,0,0
0.1423,1783967330.1970,1,0,1.0000,-0.0000,1.42244,0.00071,-2.63053,1.05907,1.57080,0.11675,-0.12764,-0.48152,0.03738,,,,,,,,,,,,,,,,,,,,,,,,,,0,0,0,0,0
0.1627,1783967330.2175,1,0,1.0000,-0.0000,1.42244,0.00071,-2.63053,1.05907,1.57080,0.11675,-0.12764,-0.48152,0.03738,,,,,,,,,,,,,,,,,,,,,,,,,,0,0,0,0,0
0.1668,1783967330.2216,1,0,1.0000,-0.0000,1.42244,0.00071,-2.63053,1.05907,1.57080,0.11675,-0.12764,-0.48152,0.03738,,,,,,,,,,,,,,,,,,,,,,,,,,0,0,0,0,0
0.1745,1783967330.2293,1,0,1.0000,-0.0000,1.42244,0.00071,-2.63053,1.05907,1.57080,0.11675,-0.12764,-0.48152,0.03738,,,,,,,,,,,,,,,,,,,,,,,,,,0,0,0,0,0
0.1872,1783967330.2420,1,0,1.0000,-0.0000,1.42244,0.00071,-2.63053,1.05907,1.57080,0.11675,-0.12764,-0.48152,0.03738,,,,,,,,,,,,,,,,,,,,,,,,,,0,0,0,0,0
0.1967,1783967330.2514,1,0,1.0000,-0.0000,1.42244,0.00071,-2.63053,1.05907,1.57080,0.11675,-0.12764,-0.48152,0.03738,,,,,,,,,,,,,,,,,,,,,,,,,,0,0,0,0,0
0.2088,1783967330.2636,1,0,1.0000,-0.0000,1.42244,0.00071,-2.63053,1.05907,1.57080,0.11675,-0.12764,-0.48152,0.03738,,,,,,,,,,,,,,,,,,,,,,,,,,0,0,0,0,0
0.2127,1783967330.2675,1,0,1.0000,-0.0000,1.42244,0.00071,-2.63053,1.05907,1.57080,0.11675,-0.12764,-0.48152,0.03738,,,,,,,,,,,,,,,,,,,,,,,,,,0,0,0,0,0
0.2130,1783967330.2677,1,0,1.0000,-0.0000,1.42244,0.00071,-2.63053,1.05907,1.57080,0.11675,-0.12764,-0.48152,0.03738,,,,,,,,,,,,,,,,,,,,,,,,,,0,0,0,0,0
0.2216,1783967330.2764,1,0,1.0000,-0.0000,1.42244,0.00071,-2.63053,1.05907,1.57080,0.11675,-0.12764,-0.48152,0.03738,,,,,,,,,,,,,,,,,,,,,,,,,,0,0,0,0,0
0.2219,1783967330.2766,1,0,1.0000,-0.0000,1.42244,0.00071,-2.63053,1.05907,1.57080,0.11675,-0.12764,-0.48152,0.03738,,,,,,,,,,,,,,,,,,,,,,,,,,0,0,0,0,0
0.2346,1783967330.2894,1,0,1.0000,-0.0000,1.42244,0.00071,-2.63053,1.05907,1.57080,0.11675,-0.12764,-0.48152,0.03738,,,,,,,,,,,,,,,,,,,,,,,,,,0,0,0,0,0
0.2487,1783967330.3034,1,0,1.0000,-0.0000,1.42244,0.00071,-2.63053,1.05907,1.57080,0.11675,-0.12764,-0.48152,0.03738,,,,,,,,,,,,,,,,,,,,,,,,,,0,0,0,0,0
0.2539,1783967330.3086,1,0,1.0000,-0.0000,1.42244,0.00071,-2.63053,1.05907,1.57080,0.11675,-0.12764,-0.48152,0.03738,,,,,,,,,,,,,,,,,,,,,,,,,,0,0,0,0,0
0.2657,1783967330.3204,1,0,1.0000,-0.0000,1.42244,0.00071,-2.63053,1.05907,1.57080,0.11675,-0.12764,-0.48152,0.03738,,,,,,,,,,,,,,,,,,,,,,,,,,0,0,0,0,0
0.2712,1783967330.3259,1,0,1.0000,-0.0000,1.42244,0.00071,-2.63053,1.05907,1.57080,0.11675,-0.12764,-0.48152,0.03738,,,,,,,,,,,,,,,,,,,,,,,,,,0,0,0,0,0
0.2845,1783967330.3393,1,0,1.0000,-0.0000,1.42244,0.00071,-2.63053,1.05907,1.57080,0.11675,-0.12764,-0.48152,0.03738,,,,,,,,,,,,,,,,,,,,,,,,,,0,0,0,0,0
0.2916,1783967330.3464,1,0,1.0000,-0.0000,1.42244,0.00071,-2.63053,1.05907,1.57080,0.11675,-0.12764,-0.48152,0.03738,,,,,,,,,,,,,,,,,,,,,,,,,,0,0,0,0,0
0.3026,1783967330.3574,1,0,1.0000,-0.0000,1.42244,0.00071,-2.63053,1.05907,1.57080,0.11675,-0.12764,-0.48152,0.03738,,,,,,,,,,,,,,,,,,,,,,,,,,0,0,0,0,0
0.3031,1783967330.3578,1,0,1.0000,-0.0000,1.42244,0.00071,-2.63053,1.05907,1.57080,0.11675,-0.12764,-0.48152,0.03738,,,,,,,,,,,,,,,,,,,,,,,,,,0,0,0,0,0
0.3146,1783967330.3694,1,0,1.0000,-0.0000,1.42244,0.00071,-2.63053,1.05907,1.57080,0.11675,-0.12764,-0.48152,0.03738,,,,,,,,,,,,,,,,,,,,,,,,,,0,0,0,0,0
0.3276,1783967330.3823,1,0,1.0000,-0.0000,1.42244,0.00071,-2.63053,1.05907,1.57080,0.11675,-0.12764,-0.48152,0.03738,,,,,,,,,,,,,,,,,,,,,,,,,,0,0,0,0,0
0.3372,1783967330.3920,1,0,1.0000,-0.0000,1.42244,0.00071,-2.63053,1.05907,1.57080,0.11675,-0.12764,-0.48152,0.03738,,,,,,,,,,,,,,,,,,,,,,,,,,0,0,0,0,0
0.3514,1783967330.4061,1,0,1.0000,-0.0000,1.42244,0.00071,-2.63053,1.05907,1.57080,0.11675,-0.12764,-0.48152,0.03738,,,,,,,,,,,,,,,,,,,,,,,,,,0,0,0,0,0
0.3527,1783967330.4074,1,0,1.0000,-0.0000,1.42244,0.00071,-2.63053,1.05907,1.57080,0.11675,-0.12764,-0.48152,0.03738,,,,,,,,,,,,,,,,,,,,,,,,,,0,0,0,0,0
0.3530,1783967330.4077,1,0,1.0000,-0.0000,1.42244,0.00071,-2.63053,1.05907,1.57080,0.11675,-0.12764,-0.48152,0.03738,,,,,,,,,,,,,,,,,,,,,,,,,,0,0,0,0,0
0.3689,1783967330.4236,1,0,1.0000,-0.0000,1.42244,0.00071,-2.63053,1.05907,1.57080,0.11675,-0.12764,-0.48152,0.03738,,,,,,,,,,,,,,,,,,,,,,,,,,0,0,0,0,0
0.3719,1783967330.4267,1,0,1.0000,-0.0000,1.42244,0.00071,-2.63053,1.05907,1.57080,0.11675,-0.12764,-0.48152,0.03738,,,,,,,,,,,,,,,,,,,,,,,,,,0,0,0,0,0
0.3824,1783967330.4371,1,0,1.0000,-0.0000,1.42244,0.00071,-2.63053,1.05907,1.57080,0.11675,-0.12764,-0.48152,0.03738,,,,,,,,,,,,,,,,,,,,,,,,,,0,0,0,0,0
0.3938,1783967330.4486,1,0,1.0000,-0.0000,1.42244,0.00071,-2.63053,1.05907,1.57080,0.11675,-0.12764,-0.48152,0.03738,,,,,,,,,,,,,,,,,,,,,,,,,,0,0,0,0,0
0.4054,1783967330.4601,1,0,1.0000,-0.0000,1.42244,0.00071,-2.63053,1.05907,1.57080,0.11675,-0.12764,-0.48152,0.03738,,,,,,,,,,,,,,,,,,,,,,,,,,0,0,0,0,0
0.4109,1783967330.4656,1,0,1.0000,-0.0000,1.42244,0.00071,-2.63053,1.05907,1.57080,0.11675,-0.12764,-0.48152,0.03738,,,,,,,,,,,,,,,,,,,,,,,,,,0,0,0,0,0
0.4113,1783967330.4660,1,0,1.0000,-0.0000,1.42244,0.00071,-2.63053,1.05907,1.57080,0.11675,-0.12764,-0.48152,0.03738,,,,,,,,,,,,,,,,,,,,,,,,,,0,0,0,0,0
0.4250,1783967330.4798,1,0,1.0000,-0.0000,1.42244,0.00071,-2.63053,1.05907,1.57080,0.11675,-0.12764,-0.48152,0.03738,,,,,,,,,,,,,,,,,,,,,,,,,,0,0,0,0,0
0.4254,1783967330.4801,1,0,1.0000,-0.0000,1.42244,0.00071,-2.63053,1.05907,1.57080,0.11675,-0.12764,-0.48152,0.03738,,,,,,,,,,,,,,,,,,,,,,,,,,0,0,0,0,0
0.4328,1783967330.4875,1,0,1.0000,-0.0000,1.42244,0.00071,-2.63053,1.05907,1.57080,0.11675,-0.12764,-0.48152,0.03738,,,,,,,,,,,,,,,,,,,,,,,,,,0,0,0,0,0
0.4489,1783967330.5037,1,0,1.0000,-0.0000,1.42244,0.00071,-2.63053,1.05907,1.57080,0.11675,-0.12764,-0.48152,0.03738,,,,,,,,,,,,,,,,,,,,,,,,,,0,0,0,0,0
0.4493,1783967330.5040,1,0,1.0000,-0.0000,1.42244,0.00071,-2.63053,1.05907,1.57080,0.11675,-0.12764,-0.48152,0.03738,,,,,,,,,,,,,,,,,,,,,,,,,,0,0,0,0,0
0.4508,1783967330.5055,1,0,1.0000,-0.0000,1.42244,0.00071,-2.63053,1.05907,1.57080,0.11675,-0.12764,-0.48152,0.03738,,,,,,,,,,,,,,,,,,,,,,,,,,0,0,0,0,0
0.4511,1783967330.5058,1,0,1.0000,-0.0000,1.42244,0.00071,-2.63053,1.05907,1.57080,0.11675,-0.12764,-0.48152,0.03738,,,,,,,,,,,,,,,,,,,,,,,,,,0,0,0,0,0
0.4609,1783967330.5156,1,0,1.0000,-0.0000,1.42244,0.00071,-2.63053,1.05907,1.57080,0.11675,-0.12764,-0.48152,0.03738,,,,,,,,,,,,,,,,,,,,,,,,,,0,0,0,0,0
0.4612,1783967330.5159,1,0,1.0000,-0.0000,1.42244,0.00071,-2.63053,1.05907,1.57080,0.11675,-0.12764,-0.48152,0.03738,,,,,,,,,,,,,,,,,,,,,,,,,,0,0,0,0,0
0.4782,1783967330.5330,1,0,1.0000,-0.0000,1.42244,0.00071,-2.63053,1.05907,1.57080,0.11675,-0.12764,-0.48152,0.03738,,,,,,,,,,,,,,,,,,,,,,,,,,0,0,0,0,0
0.4786,1783967330.5334,1,0,1.0000,-0.0000,1.42244,0.00071,-2.63053,1.05907,1.57080,0.11675,-0.12764,-0.48152,0.03738,,,,,,,,,,,,,,,,,,,,,,,,,,0,0,0,0,0
0.4824,1783967330.5371,1,0,1.0000,-0.0000,1.42244,0.00071,-2.63053,1.05907,1.57080,0.11675,-0.12764,-0.48152,0.03738,,,,,,,,,,,,,,,,,,,,,,,,,,0,0,0,0,0
0.4936,1783967330.5483,1,0,1.0000,-0.0000,1.42244,0.00071,-2.63053,1.05907,1.57080,0.11675,-0.12764,-0.48152,0.03738,,,,,,,,,,,,,,,,,,,,,,,,,,0,0,0,0,0
0.5036,1783967330.5584,1,0,1.0000,-0.0000,1.42244,0.00071,-2.63053,1.05907,1.57080,0.11675,-0.12764,-0.48152,0.03738,,,,,,,,,,,,,,,,,,,,,,,,,,0,0,0,0,0
0.5040,1783967330.5588,1,0,1.0000,-0.0000,1.42244,0.00071,-2.63053,1.05907,1.57080,0.11675,-0.12764,-0.48152,0.03738,,,,,,,,,,,,,,,,,,,,,,,,,,0,0,0,0,0
0.5108,1783967330.5655,1,0,1.0000,-0.0000,1.42244,0.00071,-2.63053,1.05907,1.57080,0.11675,-0.12764,-0.48152,0.03738,,,,,,,,,,,,,,,,,,,,,,,,,,0,0,0,0,0
0.5113,1783967330.5661,1,0,1.0000,-0.0000,1.42244,0.00071,-2.63053,1.05907,1.57080,0.11675,-0.12764,-0.48152,0.03738,,,,,,,,,,,,,,,,,,,,,,,,,,0,0,0,0,0
0.5317,1783967330.5865,1,0,1.0000,-0.0000,1.42244,0.00071,-2.63053,1.05907,1.57080,0.11675,-0.12764,-0.48152,0.03738,,,,,,,,,,,,,,,,,,,,,,,,,,0,0,0,0,0
0.5327,1783967330.5874,1,0,1.0000,-0.0000,1.42244,0.00071,-2.63053,1.05907,1.57080,0.11675,-0.12764,-0.48152,0.03738,,,,,,,,,,,,,,,,,,,,,,,,,,0,0,0,0,0
0.5465,1783967330.6012,1,0,1.0000,-0.0000,1.42244,0.00071,-2.63053,1.05907,1.57080,0.11675,-0.12764,-0.48152,0.03738,,,,,,,,,,,,,,,,,,,,,,,,,,0,0,0,0,0
0.5528,1783967330.6075,1,0,1.0000,-0.0000,1.42244,0.00071,-2.63053,1.05907,1.57080,0.11675,-0.12764,-0.48152,0.03738,,,,,,,,,,,,,,,,,,,,,,,,,,0,0,0,0,0
0.5637,1783967330.6184,1,0,1.0000,-0.0000,1.42244,0.00071,-2.63053,1.05907,1.57080,0.11675,-0.12764,-0.48152,0.03738,,,,,,,,,,,,,,,,,,,,,,,,,,0,0,0,0,0
0.5721,1783967330.6269,1,0,1.0000,-0.0000,1.42244,0.00071,-2.63053,1.05907,1.57080,0.11675,-0.12764,-0.48152,0.03738,,,,,,,,,,,,,,,,,,,,,,,,,,0,0,0,0,0
0.5825,1783967330.6372,1,0,1.0000,-0.0000,1.42244,0.00071,-2.63053,1.05907,1.57080,0.11675,-0.12764,-0.48152,0.03738,,,,,,,,,,,,,,,,,,,,,,,,,,0,0,0,0,0
0.5957,1783967330.6505,1,0,1.0000,-0.0000,1.42244,0.00071,-2.63053,1.05907,1.57080,0.11675,-0.12764,-0.48152,0.03738,,,,,,,,,,,,,,,,,,,,,,,,,,0,0,0,0,0
0.6057,1783967330.6604,1,0,1.0000,-0.0000,1.42244,0.00071,-2.63053,1.05907,1.57080,0.11675,-0.12764,-0.48152,0.03738,,,,,,,,,,,,,,,,,,,,,,,,,,0,0,0,0,0
0.6213,1783967330.6761,1,0,1.0000,-0.0000,1.42244,0.00071,-2.63053,1.05907,1.57080,0.11675,-0.12764,-0.48152,0.03738,,,,,,,,,,,,,,,,,,,,,,,,,,0,0,0,0,0
0.6219,1783967330.6767,1,0,1.0000,-0.0000,1.42244,0.00071,-2.63053,1.05907,1.57080,0.11675,-0.12764,-0.48152,0.03738,,,,,,,,,,,,,,,,,,,,,,,,,,0,0,0,0,0
0.6312,1783967330.6860,1,0,1.0000,-0.0000,1.42244,0.00071,-2.63053,1.05907,1.57080,0.11675,-0.12764,-0.48152,0.03738,,,,,,,,,,,,,,,,,,,,,,,,,,0,0,0,0,0
0.6447,1783967330.6995,1,0,1.0000,-0.0000,1.42244,0.00071,-2.63053,1.05907,1.57080,0.11675,-0.12764,-0.48152,0.03738,,,,,,,,,,,,,,,,,,,,,,,,,,0,0,0,0,0
0.6541,1783967330.7089,1,0,1.0000,-0.0000,1.42244,0.00071,-2.63053,1.05907,1.57080,0.11675,-0.12764,-0.48152,0.03738,,,,,,,,,,,,,,,,,,,,,,,,,,0,0,0,0,0
0.6545,1783967330.7092,1,0,1.0000,-0.0000,1.42244,0.00071,-2.63053,1.05907,1.57080,0.11675,-0.12764,-0.48152,0.03738,,,,,,,,,,,,,,,,,,,,,,,,,,0,0,0,0,0
0.6630,1783967330.7177,1,0,1.0000,-0.0000,1.42244,0.00071,-2.63053,1.05907,1.57080,0.11675,-0.12764,-0.48152,0.03738,,,,,,,,,,,,,,,,,,,,,,,,,,0,0,0,0,0
0.6729,1783967330.7277,1,0,1.0000,-0.0000,1.42244,0.00071,-2.63053,1.05907,1.57080,0.11675,-0.12764,-0.48152,0.03738,,,,,,,,,,,,,,,,,,,,,,,,,,0,0,0,0,0
0.6732,1783967330.7279,1,0,1.0000,-0.0000,1.42244,0.00071,-2.63053,1.05907,1.57080,0.11675,-0.12764,-0.48152,0.03738,,,,,,,,,,,,,,,,,,,,,,,,,,0,0,0,0,0
0.6826,1783967330.7374,1,0,1.0000,-0.0000,1.42244,0.00071,-2.63053,1.05907,1.57080,0.11675,-0.12764,-0.48152,0.03738,,,,,,,,,,,,,,,,,,,,,,,,,,0,0,0,0,0
0.6930,1783967330.7478,1,0,1.0000,-0.0000,1.42244,0.00071,-2.63053,1.05907,1.57080,0.11675,-0.12764,-0.48152,0.03738,,,,,,,,,,,,,,,,,,,,,,,,,,0,0,0,0,0
0.7012,1783967330.7559,1,0,1.0000,-0.0000,1.42244,0.00071,-2.63053,1.05907,1.57080,0.11675,-0.12764,-0.48152,0.03738,,,,,,,,,,,,,,,,,,,,,,,,,,0,0,0,0,0
0.7016,1783967330.7563,1,0,1.0000,-0.0000,1.42244,0.00071,-2.63053,1.05907,1.57080,0.11675,-0.12764,-0.48152,0.03738,,,,,,,,,,,,,,,,,,,,,,,,,,0,0,0,0,0
0.7127,1783967330.7675,1,0,1.0000,-0.0000,1.42244,0.00071,-2.63053,1.05907,1.57080,0.11675,-0.12764,-0.48152,0.03738,,,,,,,,,,,,,,,,,,,,,,,,,,0,0,0,0,0
0.7130,1783967330.7677,1,0,1.0000,-0.0000,1.42244,0.00071,-2.63053,1.05907,1.57080,0.11675,-0.12764,-0.48152,0.03738,,,,,,,,,,,,,,,,,,,,,,,,,,0,0,0,0,0
0.7225,1783967330.7772,1,0,1.0000,-0.0000,1.42244,0.00071,-2.63053,1.05907,1.57080,0.11675,-0.12764,-0.48152,0.03738,,,,,,,,,,,,,,,,,,,,,,,,,,0,0,0,0,0
0.7338,1783967330.7886,1,1,1.0000,-0.0000,1.42244,0.00071,-2.63053,1.05907,1.57080,0.11675,-0.12764,-0.48152,0.03738,,,,,,,,,,,,,,,,,,,,,,,,,,0,0,0,0,0
0.7416,1783967330.7964,1,1,1.0000,-0.0000,1.42244,0.00071,-2.63053,1.05907,1.57080,0.11675,-0.12764,-0.48152,0.03738,,,,,,,,,,,,,,,,,,,,,,,,,,0,0,0,0,0
0.7571,1783967330.8118,1,1,1.0000,-0.0000,1.42244,0.00071,-2.63053,1.05907,1.57080,0.11675,-0.12764,-0.48152,0.03738,,,,,,,,,,,,,,,,,,,,,,,,,,0,0,0,0,0
0.7660,1783967330.8207,1,1,1.0000,-0.0000,1.42244,0.00071,-2.63053,1.05907,1.57080,0.11675,-0.12764,-0.48152,0.03738,,,,,,,,,,,,,,,,,,,,,,,,,,0,0,0,0,0
0.7753,1783967330.8300,1,1,1.0000,-0.0000,1.42244,0.00071,-2.63053,1.05907,1.57080,0.11675,-0.12764,-0.48152,0.03738,,,,,,,,,,,,,,,,,,,,,,,,,,0,0,0,0,0
0.7852,1783967330.8399,1,1,1.0000,-0.0000,1.42244,0.00071,-2.63053,1.05907,1.57080,0.11675,-0.12764,-0.48152,0.03738,,,,,,,,,,,,,,,,,,,,,,,,,,0,0,0,0,0
0.7854,1783967330.8402,1,1,1.0000,-0.0000,1.42244,0.00071,-2.63053,1.05907,1.57080,0.11675,-0.12764,-0.48152,0.03738,,,,,,,,,,,,,,,,,,,,,,,,,,0,0,0,0,0
0.7931,1783967330.8479,1,1,1.0000,-0.0000,1.42244,0.00071,-2.63053,1.05907,1.57080,0.11675,-0.12764,-0.48152,0.03738,,,,,,,,,,,,,,,,,,,,,,,,,,0,0,0,0,0
0.8148,1783967330.8696,1,1,1.0000,-0.0000,1.42244,0.00071,-2.63053,1.05907,1.57080,0.11675,-0.12764,-0.48152,0.03738,,,,,,,,,,,,,,,,,,,,,,,,,,0,0,0,0,0
0.8152,1783967330.8700,1,1,1.0000,-0.0000,1.42244,0.00071,-2.63053,1.05907,1.57080,0.11675,-0.12764,-0.48152,0.03738,,,,,,,,,,,,,,,,,,,,,,,,,,0,0,0,0,0
0.8281,1783967330.8829,1,1,1.0000,-0.0000,1.42244,0.00071,-2.63053,1.05907,1.57080,0.11675,-0.12764,-0.48152,0.03738,,,,,,,,,,,,,,,,,,,,,,,,,,0,0,0,0,0
0.8287,1783967330.8835,1,1,1.0000,-0.0000,1.42244,0.00071,-2.63053,1.05907,1.57080,0.11675,-0.12764,-0.48152,0.03738,,,,,,,,,,,,,,,,,,,,,,,,,,0,0,0,0,0
0.8348,1783967330.8895,1,1,1.0000,-0.0000,1.42244,0.00071,-2.63053,1.05907,1.57080,0.11675,-0.12764,-0.48152,0.03738,,,,,,,,,,,,,,,,,,,,,,,,,,0,0,0,0,0
0.8352,1783967330.8900,1,1,1.0000,-0.0000,1.42244,0.00071,-2.63053,1.05907,1.57080,0.11675,-0.12764,-0.48152,0.03738,,,,,,,,,,,,,,,,,,,,,,,,,,0,0,0,0,0
0.8366,1783967330.8914,1,1,1.0000,-0.0000,1.42244,0.00071,-2.63053,1.05907,1.57080,0.11675,-0.12764,-0.48152,0.03738,,,,,,,,,,,,,,,,,,,,,,,,,,0,0,0,0,0
0.8369,1783967330.8917,1,1,1.0000,-0.0000,1.42244,0.00071,-2.63053,1.05907,1.57080,0.11675,-0.12764,-0.48152,0.03738,,,,,,,,,,,,,,,,,,,,,,,,,,0,0,0,0,0
0.8496,1783967330.9043,1,1,1.0000,-0.0000,1.42244,0.00071,-2.63053,1.05907,1.57080,0.11675,-0.12764,-0.48152,0.03738,,,,,,,,,,,,,,,,,,,,,,,,,,0,0,0,0,0
0.8519,1783967330.9067,1,1,1.0000,-0.0000,1.42244,0.00071,-2.63053,1.05907,1.57080,0.11675,-0.12764,-0.48152,0.03738,,,,,,,,,,,,,,,,,,,,,,,,,,0,0,0,0,0
0.8641,1783967330.9189,1,1,1.0000,-0.0000,1.42244,0.00071,-2.63053,1.05907,1.57080,0.11675,-0.12764,-0.48152,0.03738,,,,,,,,,,,,,,,,,,,,,,,,,,0,0,0,0,0
0.8649,1783967330.9197,1,1,1.0000,-0.0000,1.42244,0.00071,-2.63053,1.05907,1.57080,0.11675,-0.12764,-0.48152,0.03738,,,,,,,,,,,,,,,,,,,,,,,,,,0,0,0,0,0
0.8726,1783967330.9274,1,1,1.0000,-0.0000,1.42244,0.00071,-2.63053,1.05907,1.57080,0.11675,-0.12764,-0.48152,0.03738,,,,,,,,,,,,,,,,,,,,,,,,,,0,0,0,0,0
0.8827,1783967330.9374,1,1,1.0000,-0.0000,1.42244,0.00071,-2.63053,1.05907,1.57080,0.11675,-0.12764,-0.48152,0.03738,,,,,,,,,,,,,,,,,,,,,,,,,,0,0,0,0,0
0.8910,1783967330.9457,1,1,1.0000,-0.0000,1.42244,0.00071,-2.63053,1.05907,1.57080,0.11675,-0.12764,-0.48152,0.03738,,,,,,,,,,,,,,,,,,,,,,,,,,0,0,0,0,0
0.8914,1783967330.9461,1,1,1.0000,-0.0000,1.42244,0.00071,-2.63053,1.05907,1.57080,0.11675,-0.12764,-0.48152,0.03738,,,,,,,,,,,,,,,,,,,,,,,,,,0,0,0,0,0
0.9017,1783967330.9564,1,1,1.0000,-0.0000,1.42244,0.00071,-2.63053,1.05907,1.57080,0.11675,-0.12764,-0.48152,0.03738,,,,,,,,,,,,,,,,,,,,,,,,,,0,0,0,0,0
0.9131,1783967330.9679,1,1,1.0000,-0.0000,1.42244,0.00071,-2.63053,1.05907,1.57080,0.11675,-0.12764,-0.48152,0.03738,,,,,,,,,,,,,,,,,,,,,,,,,,0,0,0,0,0
0.9236,1783967330.9784,1,1,1.0000,-0.0000,1.42244,0.00071,-2.63053,1.05907,1.57080,0.11675,-0.12764,-0.48152,0.03738,,,,,,,,,,,,,,,,,,,,,,,,,,0,0,0,0,0
0.9240,1783967330.9788,1,1,1.0000,-0.0000,1.42244,0.00071,-2.63053,1.05907,1.57080,0.11675,-0.12764,-0.48152,0.03738,,,,,,,,,,,,,,,,,,,,,,,,,,0,0,0,0,0
0.9311,1783967330.9858,1,1,1.0000,-0.0000,1.42244,0.00071,-2.63053,1.05907,1.57080,0.11675,-0.12764,-0.48152,0.03738,,,,,,,,,,,,,,,,,,,,,,,,,,0,0,0,0,0
0.9463,1783967331.0010,1,1,1.0000,-0.0000,1.42244,0.00071,-2.63053,1.05907,1.57080,0.11675,-0.12764,-0.48152,0.03738,,,,,,,,,,,,,,,,,,,,,,,,,,0,0,0,0,0
0.9517,1783967331.0065,1,1,1.0000,-0.0000,1.42244,0.00071,-2.63053,1.05907,1.57080,0.11675,-0.12764,-0.48152,0.03738,,,,,,,,,,,,,,,,,,,,,,,,,,0,0,0,0,0
0.9610,1783967331.0157,1,1,1.0000,-0.0000,1.42244,0.00071,-2.63053,1.05907,1.57080,0.11675,-0.12764,-0.48152,0.03738,,,,,,,,,,,,,,,,,,,,,,,,,,0,0,0,0,0
0.9614,1783967331.0162,1,1,1.0000,-0.0000,1.42244,0.00071,-2.63053,1.05907,1.57080,0.11675,-0.12764,-0.48152,0.03738,,,,,,,,,,,,,,,,,,,,,,,,,,0,0,0,0,0
0.9718,1783967331.0265,1,1,1.0000,-0.0000,1.42244,0.00071,-2.63053,1.05907,1.57080,0.11675,-0.12764,-0.48152,0.03738,,,,,,,,,,,,,,,,,,,,,,,,,,0,0,0,0,0
0.9809,1783967331.0357,1,1,1.0000,-0.0000,1.42244,0.00071,-2.63053,1.05907,1.57080,0.11675,-0.12764,-0.48152,0.03738,,,,,,,,,,,,,,,,,,,,,,,,,,0,0,0,0,0
0.9812,1783967331.0360,1,1,1.0000,-0.0000,1.42244,0.00071,-2.63053,1.05907,1.57080,0.11675,-0.12764,-0.48152,0.03738,,,,,,,,,,,,,,,,,,,,,,,,,,0,0,0,0,0
0.9913,1783967331.0460,1,1,1.0000,-0.0000,1.42244,0.00071,-2.63053,1.05907,1.57080,0.11675,-0.12764,-0.48152,0.03738,,,,,,,,,,,,,,,,,,,,,,,,,,0,0,0,0,0
1.0056,1783967331.0603,1,1,1.0000,-0.0000,1.42244,0.00071,-2.63053,1.05907,1.57080,0.11675,-0.12764,-0.48152,0.03738,,,,,,,,,,,,,,,,,,,,,,,,,,0,0,0,0,0
1.0194,1783967331.0741,1,1,1.0000,-0.0000,1.42244,0.00070,-2.63055,1.05907,1.57080,0.11675,-0.12764,-0.48151,0.03737,,,,,,,,,,,,,,,,,,,,,,,,,,0,0,0,0,0
1.0238,1783967331.0785,1,1,1.0000,-0.0000,1.42244,0.00070,-2.63055,1.05907,1.57080,0.11675,-0.12764,-0.48150,0.03736,,,,,,,,,,,,,,,,,,,,,,,,,,0,0,0,0,0
1.0242,1783967331.0790,1,1,1.0000,-0.0000,1.42244,0.00070,-2.63055,1.05907,1.57080,0.11675,-0.12764,-0.48150,0.03736,,,,,,,,,,,,,,,,,,,,,,,,,,0,0,0,0,0
1.0430,1783967331.0977,1,1,1.0000,-0.0000,1.42244,0.00068,-2.63059,1.05907,1.57080,0.11675,-0.12764,-0.48147,0.03734,,,,,,,,,,,,,,,,,,,,,,,,,,0,0,0,0,0
1.0450,1783967331.0997,1,1,1.0000,-0.0000,1.42244,0.00067,-2.63060,1.05907,1.57080,0.11675,-0.12764,-0.48147,0.03733,,,,,,,,,,,,,,,,,,,,,,,,,,0,0,0,0,0
1.0454,1783967331.1002,1,1,1.0000,-0.0000,1.42244,0.00067,-2.63060,1.05907,1.57080,0.11675,-0.12764,-0.48147,0.03733,,,,,,,,,,,,,,,,,,,,,,,,,,0,0,0,0,0
1.0528,1783967331.1076,1,1,1.0000,-0.0000,1.42244,0.00066,-2.63061,1.05907,1.57080,0.11675,-0.12764,-0.48146,0.03732,,,,,,,,,,,,,,,,,,,,,,,,,,0,0,0,0,0
1.0629,1783967331.1176,1,1,1.0000,-0.0000,1.42244,0.00063,-2.63063,1.05909,1.57080,0.11675,-0.12765,-0.48144,0.03730,,,,,,,,,,,,,,,,,,,,,,,,,,0,0,0,0,0
1.0722,1783967331.1270,1,1,1.0000,-0.0000,1.42244,0.00060,-2.63066,1.05910,1.57080,0.11675,-0.12765,-0.48142,0.03727,,,,,,,,,,,,,,,,,,,,,,,,,,0,0,0,0,0
1.0810,1783967331.1357,1,1,1.0000,-0.0000,1.42244,0.00053,-2.63071,1.05913,1.57080,0.11675,-0.12766,-0.48138,0.03723,,,,,,,,,,,,,,,,,,,,,,,,,,0,0,0,0,0
1.1070,1783967331.1617,1,1,1.0000,-0.0000,1.42244,0.00045,-2.63075,1.05919,1.57080,0.11675,-0.12766,-0.48136,0.03718,,,,,,,,,,,,,,,,,,,,,,,,,,0,0,0,0,0
1.1074,1783967331.1621,1,1,1.0000,-0.0000,1.42244,0.00045,-2.63075,1.05919,1.57080,0.11675,-0.12766,-0.48136,0.03718,,,,,,,,,,,,,,,,,,,,,,,,,,0,0,0,0,0
1.1265,1783967331.1812,1,1,1.0000,-0.0000,1.42244,0.00033,-2.63076,1.05932,1.57080,0.11675,-0.12766,-0.48137,0.03715,,,,,,,,,,,,,,,,,,,,,,,,,,0,0,0,0,0
1.1280,1783967331.1827,1,1,1.0000,-0.0000,1.42244,0.00033,-2.63076,1.05932,1.57080,0.11675,-0.12766,-0.48137,0.03715,,,,,,,,,,,,,,,,,,,,,,,,,,0,0,0,0,0
1.1282,1783967331.1830,1,1,1.0000,-0.0000,1.42244,0.00033,-2.63076,1.05932,1.57080,0.11675,-0.12766,-0.48137,0.03715,,,,,,,,,,,,,,,,,,,,,,,,,,0,0,0,0,0
1.1288,1783967331.1836,1,1,1.0000,-0.0000,1.42244,0.00032,-2.63076,1.05933,1.57080,0.11675,-0.12766,-0.48137,0.03715,,,,,,,,,,,,,,,,,,,,,,,,,,0,0,0,0,0
1.1330,1783967331.1877,1,1,1.0000,-0.0000,1.42244,0.00031,-2.63076,1.05935,1.57080,0.11675,-0.12766,-0.48137,0.03714,,,,,,,,,,,,,,,,,,,,,,,,,,0,0,0,0,0
1.1333,1783967331.1880,1,1,1.0000,-0.0000,1.42244,0.00031,-2.63076,1.05935,1.57080,0.11675,-0.12766,-0.48137,0.03714,,,,,,,,,,,,,,,,,,,,,,,,,,0,0,0,0,0
1.1435,1783967331.1982,1,1,1.0000,-0.0000,1.42244,0.00025,-2.63077,1.05943,1.57080,0.11675,-0.12766,-0.48137,0.03713,,,,,,,,,,,,,,,,,,,,,,,,,,0,0,0,0,0
1.1558,1783967331.2105,1,1,1.0000,-0.0000,1.42244,0.00020,-2.63077,1.05949,1.57080,0.11675,-0.12766,-0.48138,0.03711,,,,,,,,,,,,,,,,,,,,,,,,,,0,0,0,0,0
1.1651,1783967331.2198,1,1,1.0000,-0.0000,1.42244,0.00012,-2.63078,1.05959,1.57080,0.11675,-0.12766,-0.48139,0.03709,,,,,,,,,,,,,,,,,,,,,,,,,,0,0,0,0,0
1.1711,1783967331.2258,1,1,1.0000,-0.0000,1.42244,0.00007,-2.63079,1.05965,1.57080,0.11675,-0.12765,-0.48139,0.03708,,,,,,,,,,,,,,,,,,,,,,,,,,0,0,0,0,0
1.1833,1783967331.2381,1,1,1.0000,-0.0000,1.42244,-0.00008,-2.63081,1.05985,1.57080,0.11675,-0.12765,-0.48140,0.03703,,,,,,,,,,,,,,,,,,,,,,,,,,0,0,0,0,0
1.1838,1783967331.2386,1,1,1.0000,-0.0000,1.42244,-0.00008,-2.63081,1.05985,1.57080,0.11675,-0.12765,-0.48140,0.03703,,,,,,,,,,,,,,,,,,,,,,,,,,0,0,0,0,0
1.1910,1783967331.2458,1,1,1.0000,-0.0000,1.42244,-0.00009,-2.63081,1.05985,1.57080,0.11675,-0.12765,-0.48140,0.03703,,,,,,,,,,,,,,,,,,,,,,,,,,0,0,0,0,0
1.2070,1783967331.2618,1,1,1.0000,-0.0000,1.42244,-0.00017,-2.63081,1.05997,1.57080,0.11675,-0.12765,-0.48142,0.03701,,,,,,,,,,,,,,,,,,,,,,,,,,0,0,0,0,0
1.2131,1783967331.2678,1,1,1.0000,-0.0000,1.42244,-0.00024,-2.63081,1.06006,1.57080,0.11675,-0.12765,-0.48143,0.03700,,,,,,,,,,,,,,,,,,,,,,,,,,0,0,0,0,0
1.2134,1783967331.2682,1,1,1.0000,-0.0000,1.42244,-0.00024,-2.63081,1.06006,1.57080,0.11675,-0.12765,-0.48143,0.03700,,,,,,,,,,,,,,,,,,,,,,,,,,0,0,0,0,0
1.2234,1783967331.2781,1,1,1.0000,-0.0000,1.42244,-0.00031,-2.63080,1.06015,1.57080,0.11675,-0.12764,-0.48145,0.03699,,,,,,,,,,,,,,,,,,,,,,,,,,0,0,0,0,0
1.2309,1783967331.2856,1,1,1.0000,-0.0000,1.42244,-0.00038,-2.63080,1.06025,1.57080,0.11675,-0.12764,-0.48147,0.03697,,,,,,,,,,,,,,,,,,,,,,,,,,0,0,0,0,0
1.2312,1783967331.2860,1,1,1.0000,-0.0000,1.42244,-0.00038,-2.63080,1.06025,1.57080,0.11675,-0.12764,-0.48147,0.03697,,,,,,,,,,,,,,,,,,,,,,,,,,0,0,0,0,0
1.2439,1783967331.2987,1,1,1.0000,-0.0000,1.42244,-0.00045,-2.63078,1.06036,1.57080,0.11675,-0.12764,-0.48150,0.03697,,,,,,,,,,,,,,,,,,,,,,,,,,0,0,0,0,0
1.2444,1783967331.2991,1,1,1.0000,-0.0000,1.42244,-0.00045,-2.63078,1.06036,1.57080,0.11675,-0.12764,-0.48150,0.03697,,,,,,,,,,,,,,,,,,,,,,,,,,0,0,0,0,0
1.2582,1783967331.3129,1,1,1.0000,-0.0000,1.42244,-0.00047,-2.63077,1.06038,1.57080,0.11675,-0.12764,-0.48151,0.03697,,,,,,,,,,,,,,,,,,,,,,,,,,0,0,0,0,0
1.2697,1783967331.3244,1,1,1.0000,-0.0000,1.42244,-0.00047,-2.63077,1.06038,1.57080,0.11675,-0.12764,-0.48151,0.03697,,,,,,,,,,,,,,,,,,,,,,,,,,0,0,0,0,0
1.2740,1783967331.3288,1,1,1.0000,-0.0000,1.42244,-0.00047,-2.63077,1.06038,1.57080,0.11675,-0.12764,-0.48151,0.03697,,,,,,,,,,,,,,,,,,,,,,,,,,0,0,0,0,0
1.2812,1783967331.3359,1,1,1.0000,-0.0000,1.42244,-0.00047,-2.63077,1.06038,1.57080,0.11675,-0.12764,-0.48151,0.03697,,,,,,,,,,,,,,,,,,,,,,,,,,0,0,0,0,0
1.2817,1783967331.3364,1,1,1.0000,-0.0000,1.42244,-0.00047,-2.63077,1.06038,1.57080,0.11675,-0.12764,-0.48151,0.03697,,,,,,,,,,,,,,,,,,,,,,,,,,0,0,0,0,0
1.2909,1783967331.3456,1,1,1.0000,-0.0000,1.42244,-0.00047,-2.63077,1.06038,1.57080,0.11675,-0.12764,-0.48151,0.03697,,,,,,,,,,,,,,,,,,,,,,,,,,0,0,0,0,0
1.2913,1783967331.3460,1,1,1.0000,-0.0000,1.42244,-0.00047,-2.63077,1.06038,1.57080,0.11675,-0.12764,-0.48151,0.03697,,,,,,,,,,,,,,,,,,,,,,,,,,0,0,0,0,0
1.3473,1783967331.4021,1,1,1.0000,-0.0000,1.42244,-0.00047,-2.63077,1.06038,1.57080,0.11675,-0.12764,-0.48151,0.03697,,,,,,,,,,,,,,,,,,,,,,,,,,0,0,0,0,0
1.3477,1783967331.4024,1,1,1.0000,-0.0000,1.42244,-0.00047,-2.63077,1.06038,1.57080,0.11675,-0.12764,-0.48151,0.03697,,,,,,,,,,,,,,,,,,,,,,,,,,0,0,0,0,0
1.4032,1783967331.4579,1,1,1.0000,-0.0000,1.42244,-0.00047,-2.63077,1.06038,1.57080,0.11675,-0.12764,-0.48151,0.03697,,,,,,,,,,,,,,,,,,,,,,,,,,0,0,0,0,0
1.4036,1783967331.4584,1,1,1.0000,-0.0000,1.42244,-0.00047,-2.63077,1.06038,1.57080,0.11675,-0.12764,-0.48151,0.03697,,,,,,,,,,,,,,,,,,,,,,,,,,0,0,0,0,0
1.4117,1783967331.4664,1,1,1.0000,-0.0000,1.42244,-0.00047,-2.63077,1.06038,1.57080,0.11675,-0.12764,-0.48151,0.03697,,,,,,,,,,,,,,,,,,,,,,,,,,0,0,0,0,0
1.4129,1783967331.4677,1,1,1.0000,-0.0000,1.42244,-0.00047,-2.63077,1.06038,1.57080,0.11675,-0.12764,-0.48151,0.03697,,,,,,,,,,,,,,,,,,,,,,,,,,0,0,0,0,0
1.4132,1783967331.4679,1,1,1.0000,-0.0000,1.42244,-0.00047,-2.63077,1.06038,1.57080,0.11675,-0.12764,-0.48151,0.03697,,,,,,,,,,,,,,,,,,,,,,,,,,0,0,0,0,0
1.4161,1783967331.4708,1,1,1.0000,-0.0000,1.42244,-0.00047,-2.63077,1.06038,1.57080,0.11675,-0.12764,-0.48151,0.03697,,,,,,,,,,,,,,,,,,,,,,,,,,0,0,0,0,0
1.4171,1783967331.4719,1,1,1.0000,-0.0000,1.42244,-0.00047,-2.63077,1.06038,1.57080,0.11675,-0.12764,-0.48151,0.03697,,,,,,,,,,,,,,,,,,,,,,,,,,0,0,0,0,0
1.4179,1783967331.4726,1,1,1.0000,-0.0000,1.42244,-0.00047,-2.63077,1.06038,1.57080,0.11675,-0.12764,-0.48151,0.03697,,,,,,,,,,,,,,,,,,,,,,,,,,0,0,0,0,0
1.4183,1783967331.4731,1,1,1.0000,-0.0000,1.42244,-0.00047,-2.63077,1.06038,1.57080,0.11675,-0.12764,-0.48151,0.03697,,,,,,,,,,,,,,,,,,,,,,,,,,0,0,0,0,0
1.4188,1783967331.4736,1,1,1.0000,-0.0000,1.42244,-0.00047,-2.63077,1.06038,1.57080,0.11675,-0.12764,-0.48151,0.03697,,,,,,,,,,,,,,,,,,,,,,,,,,0,0,0,0,0
1.4323,1783967331.4870,1,1,1.0000,-0.0000,1.42244,-0.00047,-2.63077,1.06039,1.57080,0.11675,-0.12764,-0.48151,0.03697,,,,,,,,,,,,,,,,,,,,,,,,,,0,0,0,0,0
1.4447,1783967331.4995,1,1,1.0000,-0.0000,1.42244,-0.00048,-2.63079,1.06044,1.57080,0.11675,-0.12764,-0.48151,0.03696,,,,,,,,,,,,,,,,,,,,,,,,,,0,0,0,0,0
1.4521,1783967331.5069,1,1,1.0000,-0.0000,1.42244,-0.00049,-2.63080,1.06046,1.57080,0.11675,-0.12764,-0.48150,0.03696,,,,,,,,,,,,,,,,,,,,,,,,,,0,0,0,0,0
1.4537,1783967331.5084,1,1,1.0000,-0.0000,1.42244,-0.00049,-2.63080,1.06046,1.57080,0.11675,-0.12764,-0.48150,0.03696,,,,,,,,,,,,,,,,,,,,,,,,,,0,0,0,0,0
1.4541,1783967331.5089,1,1,1.0000,-0.0000,1.42244,-0.00049,-2.63080,1.06046,1.57080,0.11675,-0.12764,-0.48150,0.03696,,,,,,,,,,,,,,,,,,,,,,,,,,0,0,0,0,0
1.4557,1783967331.5104,1,1,1.0000,-0.0000,1.42244,-0.00049,-2.63080,1.06046,1.57080,0.11675,-0.12764,-0.48150,0.03696,,,,,,,,,,,,,,,,,,,,,,,,,,0,0,0,0,0
1.4628,1783967331.5176,1,1,1.0000,-0.0000,1.42244,-0.00049,-2.63081,1.06047,1.57080,0.11675,-0.12764,-0.48150,0.03695,,,,,,,,,,,,,,,,,,,,,,,,,,0,0,0,0,0
1.4648,1783967331.5196,1,1,1.0000,-0.0000,1.42244,-0.00050,-2.63082,1.06048,1.57080,0.11675,-0.12764,-0.48150,0.03695,,,,,,,,,,,,,,,,,,,,,,,,,,0,0,0,0,0
1.4651,1783967331.5199,1,1,1.0000,-0.0000,1.42244,-0.00050,-2.63082,1.06048,1.57080,0.11675,-0.12764,-0.48150,0.03695,,,,,,,,,,,,,,,,,,,,,,,,,,0,0,0,0,0
1.4659,1783967331.5207,1,1,1.0000,-0.0000,1.42244,-0.00050,-2.63082,1.06048,1.57080,0.11675,-0.12764,-0.48150,0.03695,,,,,,,,,,,,,,,,,,,,,,,,,,0,0,0,0,0
1.4733,1783967331.5280,1,1,1.0000,-0.0000,1.42244,-0.00053,-2.63084,1.06052,1.57080,0.11675,-0.12764,-0.48148,0.03693,,,,,,,,,,,,,,,,,,,,,,,,,,0,0,0,0,0
1.4918,1783967331.5465,1,1,1.0000,-0.0000,1.42244,-0.00057,-2.63088,1.06058,1.57080,0.11675,-0.12764,-0.48146,0.03691,,,,,,,,,,,,,,,,,,,,,,,,,,0,0,0,0,0
1.4996,1783967331.5544,1,1,1.0000,-0.0000,1.42244,-0.00060,-2.63090,1.06061,1.57080,0.11675,-0.12764,-0.48146,0.03689,,,,,,,,,,,,,,,,,,,,,,,,,,0,0,0,0,0
1.5121,1783967331.5668,1,1,1.0000,-0.0000,1.42244,-0.00064,-2.63092,1.06067,1.57080,0.11675,-0.12764,-0.48145,0.03687,,,,,,,,,,,,,,,,,,,,,,,,,,0,0,0,0,0
1.5169,1783967331.5716,1,1,1.0000,-0.0000,1.42244,-0.00066,-2.63092,1.06070,1.57080,0.11675,-0.12764,-0.48145,0.03687,,,,,,,,,,,,,,,,,,,,,,,,,,0,0,0,0,0
1.5175,1783967331.5722,1,1,1.0000,-0.0000,1.42244,-0.00066,-2.63092,1.06070,1.57080,0.11675,-0.12764,-0.48145,0.03687,,,,,,,,,,,,,,,,,,,,,,,,,,0,0,0,0,0
1.5321,1783967331.5868,1,1,1.0000,-0.0000,1.42244,-0.00075,-2.63095,1.06082,1.57080,0.11675,-0.12764,-0.48145,0.03684,,,,,,,,,,,,,,,,,,,,,,,,,,0,0,0,0,0
1.5461,1783967331.6008,1,1,1.0000,-0.0000,1.42244,-0.00089,-2.63098,1.06099,1.57080,0.11675,-0.12764,-0.48145,0.03679,,,,,,,,,,,,,,,,,,,,,,,,,,0,0,0,0,0
1.5540,1783967331.6087,1,1,1.0000,-0.0000,1.42244,-0.00091,-2.63099,1.06102,1.57080,0.11675,-0.12764,-0.48145,0.03678,,,,,,,,,,,,,,,,,,,,,,,,,,0,0,0,0,0
1.5571,1783967331.6119,1,1,1.0000,-0.0000,1.42244,-0.00093,-2.63099,1.06105,1.57080,0.11675,-0.12764,-0.48145,0.03677,,,,,,,,,,,,,,,,,,,,,,,,,,0,0,0,0,0
1.5577,1783967331.6124,1,1,1.0000,-0.0000,1.42244,-0.00093,-2.63099,1.06105,1.57080,0.11675,-0.12764,-0.48145,0.03677,,,,,,,,,,,,,,,,,,,,,,,,,,0,0,0,0,0
1.5672,1783967331.6219,1,1,1.0000,-0.0000,1.42244,-0.00100,-2.63101,1.06114,1.57080,0.11675,-0.12764,-0.48145,0.03675,,,,,,,,,,,,,,,,,,,,,,,,,,0,0,0,0,0
1.5784,1783967331.6332,1,1,1.0000,-0.0000,1.42244,-0.00109,-2.63102,1.06125,1.57080,0.11675,-0.12764,-0.48145,0.03672,,,,,,,,,,,,,,,,,,,,,,,,,,0,0,0,0,0
1.5835,1783967331.6383,1,1,1.0000,-0.0000,1.42244,-0.00110,-2.63102,1.06125,1.57080,0.11675,-0.12764,-0.48145,0.03672,,,,,,,,,,,,,,,,,,,,,,,,,,0,0,0,0,0
1.5937,1783967331.6485,1,1,1.0000,-0.0000,1.42244,-0.00117,-2.63104,1.06134,1.57080,0.11675,-0.12764,-0.48146,0.03670,,,,,,,,,,,,,,,,,,,,,,,,,,0,0,0,0,0
1.6076,1783967331.6623,1,1,1.0000,-0.0000,1.42244,-0.00129,-2.63105,1.06149,1.57080,0.11675,-0.12764,-0.48146,0.03666,,,,,,,,,,,,,,,,,,,,,,,,,,0,0,0,0,0
1.6154,1783967331.6701,1,1,1.0000,-0.0000,1.42244,-0.00138,-2.63107,1.06161,1.57080,0.11675,-0.12764,-0.48147,0.03663,,,,,,,,,,,,,,,,,,,,,,,,,,0,0,0,0,0
1.6158,1783967331.6705,1,1,1.0000,-0.0000,1.42244,-0.00138,-2.63107,1.06161,1.57080,0.11675,-0.12764,-0.48147,0.03663,,,,,,,,,,,,,,,,,,,,,,,,,,0,0,0,0,0
1.6302,1783967331.6850,1,1,1.0000,-0.0000,1.42244,-0.00156,-2.63109,1.06183,1.57080,0.11675,-0.12764,-0.48148,0.03658,,,,,,,,,,,,,,,,,,,,,,,,,,0,0,0,0,0
1.6398,1783967331.6946,1,1,1.0000,-0.0000,1.42244,-0.00161,-2.63110,1.06190,1.57080,0.11675,-0.12764,-0.48149,0.03657,,,,,,,,,,,,,,,,,,,,,,,,,,0,0,0,0,0
1.6412,1783967331.6959,1,1,1.0000,-0.0000,1.42244,-0.00161,-2.63110,1.06190,1.57080,0.11675,-0.12764,-0.48149,0.03657,,,,,,,,,,,,,,,,,,,,,,,,,,0,0,0,0,0
1.6569,1783967331.7117,1,1,1.0000,-0.0000,1.42244,-0.00161,-2.63110,1.06190,1.57080,0.11675,-0.12764,-0.48149,0.03657,,,,,,,,,,,,,,,,,,,,,,,,,,0,0,0,0,0
1.6621,1783967331.7168,1,1,1.0000,-0.0000,1.42244,-0.00161,-2.63110,1.06190,1.57080,0.11675,-0.12764,-0.48149,0.03657,,,,,,,,,,,,,,,,,,,,,,,,,,0,0,0,0,0
1.6719,1783967331.7266,1,1,1.0000,-0.0000,1.42244,-0.00161,-2.63110,1.06190,1.57080,0.11675,-0.12764,-0.48149,0.03657,,,,,,,,,,,,,,,,,,,,,,,,,,0,0,0,0,0
1.6810,1783967331.7357,1,1,1.0000,-0.0000,1.42244,-0.00161,-2.63110,1.06190,1.57080,0.11675,-0.12764,-0.48149,0.03657,,,,,,,,,,,,,,,,,,,,,,,,,,0,0,0,0,0
1.6910,1783967331.7457,1,1,1.0000,-0.0000,1.42244,-0.00161,-2.63110,1.06190,1.57080,0.11675,-0.12764,-0.48149,0.03657,,,,,,,,,,,,,,,,,,,,,,,,,,0,0,0,0,0
1.7024,1783967331.7572,1,1,1.0000,-0.0000,1.42244,-0.00161,-2.63110,1.06190,1.57080,0.11675,-0.12764,-0.48149,0.03657,,,,,,,,,,,,,,,,,,,,,,,,,,0,0,0,0,0
1.7172,1783967331.7720,1,1,1.0000,-0.0000,1.42244,-0.00161,-2.63110,1.06190,1.57080,0.11675,-0.12764,-0.48149,0.03657,,,,,,,,,,,,,,,,,,,,,,,,,,0,0,0,0,0
1.7240,1783967331.7787,1,1,1.0000,-0.0000,1.42244,-0.00161,-2.63110,1.06190,1.57080,0.11675,-0.12764,-0.48149,0.03657,,,,,,,,,,,,,,,,,,,,,,,,,,0,0,0,0,0
1.7382,1783967331.7930,1,1,1.0000,-0.0000,1.42244,-0.00161,-2.63110,1.06190,1.57080,0.11675,-0.12764,-0.48149,0.03657,,,,,,,,,,,,,,,,,,,,,,,,,,0,0,0,0,0
1.7573,1783967331.8121,1,1,1.0000,-0.0000,1.42244,-0.00161,-2.63110,1.06190,1.57080,0.11675,-0.12764,-0.48149,0.03657,,,,,,,,,,,,,,,,,,,,,,,,,,0,0,0,0,0
1.7577,1783967331.8125,1,1,1.0000,-0.0000,1.42244,-0.00161,-2.63110,1.06190,1.57080,0.11675,-0.12764,-0.48149,0.03657,,,,,,,,,,,,,,,,,,,,,,,,,,0,0,0,0,0
1.7650,1783967331.8198,1,1,1.0000,-0.0000,1.42244,-0.00161,-2.63110,1.06190,1.57080,0.11675,-0.12764,-0.48149,0.03657,,,,,,,,,,,,,,,,,,,,,,,,,,0,0,0,0,0
1.7721,1783967331.8269,1,1,1.0000,-0.0000,1.42244,-0.00161,-2.63110,1.06190,1.57080,0.11675,-0.12764,-0.48149,0.03657,,,,,,,,,,,,,,,,,,,,,,,,,,0,0,0,0,0
1.7822,1783967331.8369,1,1,1.0000,-0.0000,1.42244,-0.00161,-2.63110,1.06190,1.57080,0.11675,-0.12764,-0.48149,0.03657,,,,,,,,,,,,,,,,,,,,,,,,,,0,0,0,0,0
1.7912,1783967331.8460,1,1,1.0000,-0.0000,1.42244,-0.00161,-2.63110,1.06190,1.57080,0.11675,-0.12764,-0.48149,0.03657,,,,,,,,,,,,,,,,,,,,,,,,,,0,0,0,0,0
1.8022,1783967331.8570,1,1,1.0000,-0.0000,1.42244,-0.00161,-2.63110,1.06190,1.57080,0.11675,-0.12764,-0.48149,0.03657,,,,,,,,,,,,,,,,,,,,,,,,,,0,0,0,0,0
1.8223,1783967331.8770,1,1,1.0000,-0.0000,1.42244,-0.00161,-2.63110,1.06190,1.57080,0.11675,-0.12764,-0.48149,0.03657,,,,,,,,,,,,,,,,,,,,,,,,,,0,0,0,0,0
1.8236,1783967331.8784,1,1,1.0000,-0.0000,1.42244,-0.00161,-2.63110,1.06190,1.57080,0.11675,-0.12764,-0.48149,0.03657,,,,,,,,,,,,,,,,,,,,,,,,,,0,0,0,0,0
1.8241,1783967331.8788,1,1,1.0000,-0.0000,1.42244,-0.00161,-2.63110,1.06190,1.57080,0.11675,-0.12764,-0.48149,0.03657,,,,,,,,,,,,,,,,,,,,,,,,,,0,0,0,0,0
1.8400,1783967331.8948,1,1,1.0000,-0.0000,1.42244,-0.00161,-2.63110,1.06190,1.57080,0.11675,-0.12764,-0.48149,0.03657,,,,,,,,,,,,,,,,,,,,,,,,,,0,0,0,0,0
1.8458,1783967331.9006,1,1,1.0000,-0.0000,1.42244,-0.00161,-2.63110,1.06191,1.57080,0.11675,-0.12764,-0.48149,0.03657,,,,,,,,,,,,,,,,,,,,,,,,,,0,0,0,0,0
1.8588,1783967331.9136,1,1,1.0000,-0.0000,1.42244,-0.00162,-2.63109,1.06192,1.57080,0.11675,-0.12764,-0.48149,0.03657,,,,,,,,,,,,,,,,,,,,,,,,,,0,0,0,0,0
1.8650,1783967331.9197,1,1,1.0000,-0.0000,1.42244,-0.00163,-2.63109,1.06194,1.57080,0.11675,-0.12763,-0.48150,0.03657,,,,,,,,,,,,,,,,,,,,,,,,,,0,0,0,0,0
1.8652,1783967331.9200,1,1,1.0000,-0.0000,1.42244,-0.00163,-2.63109,1.06194,1.57080,0.11675,-0.12763,-0.48150,0.03657,,,,,,,,,,,,,,,,,,,,,,,,,,0,0,0,0,0
1.8724,1783967331.9271,1,1,1.0000,-0.0000,1.42243,-0.00164,-2.63109,1.06195,1.57080,0.11675,-0.12763,-0.48150,0.03657,,,,,,,,,,,,,,,,,,,,,,,,,,0,0,0,0,0
1.8819,1783967331.9366,1,1,1.0000,-0.0000,1.42243,-0.00165,-2.63110,1.06196,1.57080,0.11675,-0.12764,-0.48150,0.03656,,,,,,,,,,,,,,,,,,,,,,,,,,0,0,0,0,0
1.8823,1783967331.9370,1,1,1.0000,-0.0000,1.42243,-0.00165,-2.63110,1.06196,1.57080,0.11675,-0.12764,-0.48150,0.03656,,,,,,,,,,,,,,,,,,,,,,,,,,0,0,0,0,0
1.8943,1783967331.9490,1,1,1.0000,-0.0000,1.42243,-0.00168,-2.63113,1.06200,1.57080,0.11675,-0.12764,-0.48148,0.03654,,,,,,,,,,,,,,,,,,,,,,,,,,0,0,0,0,0
1.8947,1783967331.9494,1,1,1.0000,-0.0000,1.42243,-0.00168,-2.63113,1.06200,1.57080,0.11675,-0.12764,-0.48148,0.03654,,,,,,,,,,,,,,,,,,,,,,,,,,0,0,0,0,0
1.9010,1783967331.9557,1,1,1.0000,-0.0000,1.42243,-0.00172,-2.63115,1.06205,1.57080,0.11675,-0.12764,-0.48147,0.03652,,,,,,,,,,,,,,,,,,,,,,,,,,0,0,0,0,0
1.9110,1783967331.9657,1,1,1.0000,-0.0000,1.42243,-0.00172,-2.63116,1.06205,1.57080,0.11675,-0.12764,-0.48147,0.03652,,,,,,,,,,,,,,,,,,,,,,,,,,0,0,0,0,0
1.9280,1783967331.9827,1,1,1.0000,-0.0000,1.42243,-0.00179,-2.63119,1.06212,1.57080,0.11675,-0.12764,-0.48145,0.03649,,,,,,,,,,,,,,,,,,,,,,,,,,0,0,0,0,0
1.9440,1783967331.9988,1,1,1.0000,-0.0000,1.42243,-0.00183,-2.63120,1.06217,1.57080,0.11675,-0.12764,-0.48145,0.03647,,,,,,,,,,,,,,,,,,,,,,,,,,0,0,0,0,0
1.9450,1783967331.9998,1,1,1.0000,-0.0000,1.42243,-0.00185,-2.63120,1.06220,1.57080,0.11675,-0.12764,-0.48145,0.03646,,,,,,,,,,,,,,,,,,,,,,,,,,0,0,0,0,0
1.9516,1783967332.0064,1,1,1.0000,-0.0000,1.42243,-0.00188,-2.63121,1.06224,1.57080,0.11675,-0.12764,-0.48145,0.03645,,,,,,,,,,,,,,,,,,,,,,,,,,0,0,0,0,0
1.9615,1783967332.0162,1,1,1.0000,-0.0000,1.42243,-0.00196,-2.63123,1.06233,1.57080,0.11675,-0.12764,-0.48145,0.03643,,,,,,,,,,,,,,,,,,,,,,,,,,0,0,0,0,0
1.9747,1783967332.0294,1,1,1.0000,-0.0000,1.42243,-0.00201,-2.63124,1.06239,1.57080,0.11675,-0.12764,-0.48145,0.03641,,,,,,,,,,,,,,,,,,,,,,,,,,0,0,0,0,0
1.9840,1783967332.0388,1,1,1.0000,-0.0000,1.42243,-0.00208,-2.63126,1.06248,1.57080,0.11675,-0.12764,-0.48145,0.03639,,,,,,,,,,,,,,,,,,,,,,,,,,0,0,0,0,0
1.9934,1783967332.0482,1,1,1.0000,-0.0000,1.42243,-0.00218,-2.63127,1.06260,1.57080,0.11675,-0.12764,-0.48145,0.03635,,,,,,,,,,,,,,,,,,,,,,,,,,0,0,0,0,0
1.9937,1783967332.0485,1,1,1.0000,-0.0000,1.42243,-0.00218,-2.63127,1.06260,1.57080,0.11675,-0.12764,-0.48145,0.03635,,,,,,,,,,,,,,,,,,,,,,,,,,0,0,0,0,0
2.0040,1783967332.0587,1,1,1.0000,-0.0000,1.42243,-0.00221,-2.63128,1.06263,1.57080,0.11675,-0.12764,-0.48145,0.03635,,,,,,,,,,,,,,,,,,,,,,,,,,0,0,0,0,0
2.0155,1783967332.0702,1,1,1.0000,-0.0000,1.42243,-0.00231,-2.63129,1.06275,1.57080,0.11675,-0.12764,-0.48146,0.03631,,,,,,,,,,,,,,,,,,,,,,,,,,0,0,0,0,0
2.0259,1783967332.0806,1,1,1.0000,-0.0000,1.42243,-0.00246,-2.63131,1.06293,1.57080,0.11675,-0.12764,-0.48147,0.03627,,,,,,,,,,,,,,,,,,,,,,,,,,0,0,0,0,0
2.0318,1783967332.0865,1,1,1.0000,-0.0000,1.42243,-0.00251,-2.63132,1.06300,1.57080,0.11675,-0.12764,-0.48147,0.03625,,,,,,,,,,,,,,,,,,,,,,,,,,0,0,0,0,0
2.0323,1783967332.0871,1,1,1.0000,-0.0000,1.42243,-0.00251,-2.63132,1.06300,1.57080,0.11675,-0.12764,-0.48147,0.03625,,,,,,,,,,,,,,,,,,,,,,,,,,0,0,0,0,0
2.0434,1783967332.0981,1,1,1.0000,-0.0000,1.42243,-0.00266,-2.63134,1.06318,1.57080,0.11675,-0.12764,-0.48148,0.03621,,,,,,,,,,,,,,,,,,,,,,,,,,0,0,0,0,0
2.0560,1783967332.1108,1,1,1.0000,-0.0000,1.42243,-0.00276,-2.63135,1.06331,1.57080,0.11675,-0.12763,-0.48149,0.03618,,,,,,,,,,,,,,,,,,,,,,,,,,0,0,0,0,0
2.0651,1783967332.1198,1,1,1.0000,-0.0000,1.42243,-0.00276,-2.63135,1.06331,1.57080,0.11675,-0.12763,-0.48149,0.03618,,,,,,,,,,,,,,,,,,,,,,,,,,0,0,0,0,0
2.0731,1783967332.1279,1,1,1.0000,-0.0000,1.42243,-0.00276,-2.63135,1.06331,1.57080,0.11675,-0.12763,-0.48149,0.03618,,,,,,,,,,,,,,,,,,,,,,,,,,0,0,0,0,0
2.0736,1783967332.1283,1,1,1.0000,-0.0000,1.42243,-0.00276,-2.63135,1.06331,1.57080,0.11675,-0.12763,-0.48149,0.03618,,,,,,,,,,,,,,,,,,,,,,,,,,0,0,0,0,0
2.0811,1783967332.1359,1,1,1.0000,-0.0000,1.42243,-0.00276,-2.63135,1.06331,1.57080,0.11675,-0.12763,-0.48149,0.03618,,,,,,,,,,,,,,,,,,,,,,,,,,0,0,0,0,0
2.0955,1783967332.1503,1,1,1.0000,-0.0000,1.42243,-0.00276,-2.63135,1.06331,1.57080,0.11675,-0.12763,-0.48149,0.03618,,,,,,,,,,,,,,,,,,,,,,,,,,0,0,0,0,0
2.1077,1783967332.1625,1,1,1.0000,-0.0000,1.42243,-0.00276,-2.63135,1.06331,1.57080,0.11675,-0.12763,-0.48149,0.03618,,,,,,,,,,,,,,,,,,,,,,,,,,0,0,0,0,0
2.1142,1783967332.1689,1,1,1.0000,-0.0000,1.42243,-0.00276,-2.63135,1.06331,1.57080,0.11675,-0.12763,-0.48149,0.03618,,,,,,,,,,,,,,,,,,,,,,,,,,0,0,0,0,0
2.1210,1783967332.1758,1,1,1.0000,-0.0000,1.42243,-0.00276,-2.63135,1.06331,1.57080,0.11675,-0.12763,-0.48149,0.03618,,,,,,,,,,,,,,,,,,,,,,,,,,0,0,0,0,0
2.1460,1783967332.2007,1,1,1.0000,-0.0000,1.42243,-0.00276,-2.63135,1.06331,1.57080,0.11675,-0.12763,-0.48149,0.03618,,,,,,,,,,,,,,,,,,,,,,,,,,0,0,0,0,0
2.1466,1783967332.2014,1,1,1.0000,-0.0000,1.42243,-0.00276,-2.63135,1.06331,1.57080,0.11675,-0.12763,-0.48149,0.03618,,,,,,,,,,,,,,,,,,,,,,,,,,0,0,0,0,0
2.1468,1783967332.2016,1,1,1.0000,-0.0000,1.42243,-0.00276,-2.63135,1.06331,1.57080,0.11675,-0.12763,-0.48149,0.03618,,,,,,,,,,,,,,,,,,,,,,,,,,0,0,0,0,0
2.1528,1783967332.2076,1,1,1.0000,-0.0000,1.42243,-0.00276,-2.63135,1.06331,1.57080,0.11675,-0.12763,-0.48149,0.03618,,,,,,,,,,,,,,,,,,,,,,,,,,0,0,0,0,0
2.1660,1783967332.2207,1,1,1.0000,-0.0000,1.42243,-0.00276,-2.63135,1.06331,1.57080,0.11675,-0.12763,-0.48149,0.03618,,,,,,,,,,,,,,,,,,,,,,,,,,0,0,0,0,0
2.1752,1783967332.2300,1,1,1.0000,-0.0000,1.42243,-0.00276,-2.63135,1.06331,1.57080,0.11675,-0.12763,-0.48149,0.03618,,,,,,,,,,,,,,,,,,,,,,,,,,0,0,0,0,0
2.1829,1783967332.2377,1,1,1.0000,-0.0000,1.42243,-0.00276,-2.63135,1.06331,1.57080,0.11675,-0.12763,-0.48149,0.03618,,,,,,,,,,,,,,,,,,,,,,,,,,0,0,0,0,0
2.1910,1783967332.2458,1,1,1.0000,-0.0000,1.42243,-0.00276,-2.63135,1.06331,1.57080,0.11675,-0.12763,-0.48149,0.03618,,,,,,,,,,,,,,,,,,,,,,,,,,0,0,0,0,0
2.2010,1783967332.2557,1,1,1.0000,-0.0000,1.42243,-0.00276,-2.63135,1.06331,1.57080,0.11675,-0.12763,-0.48149,0.03618,,,,,,,,,,,,,,,,,,,,,,,,,,0,0,0,0,0
2.2134,1783967332.2681,1,1,1.0000,-0.0000,1.42243,-0.00276,-2.63135,1.06331,1.57080,0.11675,-0.12763,-0.48149,0.03618,,,,,,,,,,,,,,,,,,,,,,,,,,0,0,0,0,0
2.2216,1783967332.2763,1,1,1.0000,-0.0000,1.42243,-0.00276,-2.63135,1.06331,1.57080,0.11675,-0.12763,-0.48149,0.03618,,,,,,,,,,,,,,,,,,,,,,,,,,0,0,0,0,0
2.2329,1783967332.2876,1,1,1.0000,-0.0000,1.42243,-0.00276,-2.63135,1.06331,1.57080,0.11675,-0.12763,-0.48149,0.03618,,,,,,,,,,,,,,,,,,,,,,,,,,0,0,0,0,0
2.2504,1783967332.3051,1,1,1.0000,-0.0000,1.42243,-0.00276,-2.63135,1.06331,1.57080,0.11675,-0.12763,-0.48149,0.03618,,,,,,,,,,,,,,,,,,,,,,,,,,0,0,0,0,0
2.2592,1783967332.3139,1,1,1.0000,-0.0000,1.42243,-0.00276,-2.63135,1.06331,1.57080,0.11675,-0.12763,-0.48149,0.03618,,,,,,,,,,,,,,,,,,,,,,,,,,0,0,0,0,0
2.2703,1783967332.3250,1,1,1.0000,-0.0000,1.42243,-0.00276,-2.63135,1.06331,1.57080,0.11675,-0.12763,-0.48149,0.03618,,,,,,,,,,,,,,,,,,,,,,,,,,0,0,0,0,0
2.2929,1783967332.3477,1,1,1.0000,-0.0000,1.42243,-0.00279,-2.63135,1.06335,1.57080,0.11675,-0.12763,-0.48150,0.03618,,,,,,,,,,,,,,,,,,,,,,,,,,0,0,0,0,0
2.2970,1783967332.3518,1,1,1.0000,-0.0000,1.42243,-0.00279,-2.63136,1.06336,1.57080,0.11675,-0.12763,-0.48150,0.03617,,,,,,,,,,,,,,,,,,,,,,,,,,0,0,0,0,0
2.2975,1783967332.3523,1,1,1.0000,-0.0000,1.42243,-0.00279,-2.63136,1.06336,1.57080,0.11675,-0.12763,-0.48150,0.03617,,,,,,,,,,,,,,,,,,,,,,,,,,0,0,0,0,0
2.2977,1783967332.3525,1,1,1.0000,-0.0000,1.42243,-0.00279,-2.63136,1.06336,1.57080,0.11675,-0.12763,-0.48150,0.03617,,,,,,,,,,,,,,,,,,,,,,,,,,0,0,0,0,0
2.3042,1783967332.3589,1,1,1.0000,-0.0000,1.42243,-0.00280,-2.63136,1.06337,1.57080,0.11675,-0.12763,-0.48149,0.03617,,,,,,,,,,,,,,,,,,,,,,,,,,0,0,0,0,0
2.3167,1783967332.3714,1,1,1.0000,-0.0000,1.42243,-0.00287,-2.63141,1.06346,1.57080,0.11675,-0.12764,-0.48147,0.03613,,,,,,,,,,,,,,,,,,,,,,,,,,0,0,0,0,0
2.3170,1783967332.3717,1,1,1.0000,-0.0000,1.42243,-0.00287,-2.63141,1.06346,1.57080,0.11675,-0.12764,-0.48147,0.03613,,,,,,,,,,,,,,,,,,,,,,,,,,0,0,0,0,0
2.3249,1783967332.3797,1,1,1.0000,-0.0000,1.42243,-0.00287,-2.63141,1.06346,1.57080,0.11675,-0.12764,-0.48147,0.03613,,,,,,,,,,,,,,,,,,,,,,,,,,0,0,0,0,0
2.3359,1783967332.3906,1,1,1.0000,-0.0000,1.42243,-0.00290,-2.63142,1.06349,1.57080,0.11675,-0.12764,-0.48146,0.03612,,,,,,,,,,,,,,,,,,,,,,,,,,0,0,0,0,0
2.3364,1783967332.3912,1,1,1.0000,-0.0000,1.42243,-0.00290,-2.63142,1.06349,1.57080,0.11675,-0.12764,-0.48146,0.03612,,,,,,,,,,,,,,,,,,,,,,,,,,0,0,0,0,0
2.3469,1783967332.4017,1,1,1.0000,-0.0000,1.42243,-0.00296,-2.63145,1.06356,1.57080,0.11675,-0.12764,-0.48145,0.03609,,,,,,,,,,,,,,,,,,,,,,,,,,0,0,0,0,0
2.3714,1783967332.4262,1,1,1.0000,-0.0000,1.42243,-0.00305,-2.63148,1.06366,1.57080,0.11675,-0.12764,-0.48144,0.03605,,,,,,,,,,,,,,,,,,,,,,,,,,0,0,0,0,0
2.3717,1783967332.4265,1,1,1.0000,-0.0000,1.42243,-0.00305,-2.63148,1.06366,1.57080,0.11675,-0.12764,-0.48144,0.03605,,,,,,,,,,,,,,,,,,,,,,,,,,0,0,0,0,0
2.3741,1783967332.4288,1,1,1.0000,-0.0000,1.42243,-0.00307,-2.63149,1.06370,1.57080,0.11675,-0.12764,-0.48144,0.03604,,,,,,,,,,,,,,,,,,,,,,,,,,0,0,0,0,0
2.3844,1783967332.4392,1,1,1.0000,-0.0000,1.42243,-0.00311,-2.63149,1.06373,1.57080,0.11675,-0.12764,-0.48144,0.03603,,,,,,,,,,,,,,,,,,,,,,,,,,0,0,0,0,0
2.3851,1783967332.4398,1,1,1.0000,-0.0000,1.42243,-0.00311,-2.63149,1.06374,1.57080,0.11675,-0.12764,-0.48144,0.03603,,,,,,,,,,,,,,,,,,,,,,,,,,0,0,0,0,0
2.3941,1783967332.4488,1,1,1.0000,-0.0000,1.42243,-0.00316,-2.63150,1.06380,1.57080,0.11675,-0.12764,-0.48145,0.03602,,,,,,,,,,,,,,,,,,,,,,,,,,0,0,0,0,0
2.4050,1783967332.4597,1,1,1.0000,-0.0000,1.42243,-0.00331,-2.63153,1.06397,1.57080,0.11675,-0.12764,-0.48145,0.03597,,,,,,,,,,,,,,,,,,,,,,,,,,0,0,0,0,0
2.4053,1783967332.4601,1,1,1.0000,-0.0000,1.42243,-0.00331,-2.63153,1.06397,1.57080,0.11675,-0.12764,-0.48145,0.03597,,,,,,,,,,,,,,,,,,,,,,,,,,0,0,0,0,0
2.4145,1783967332.4692,1,1,1.0000,-0.0000,1.42243,-0.00336,-2.63154,1.06404,1.57080,0.11675,-0.12764,-0.48145,0.03595,,,,,,,,,,,,,,,,,,,,,,,,,,0,0,0,0,0
2.4248,1783967332.4795,1,1,1.0000,-0.0000,1.42243,-0.00341,-2.63154,1.06410,1.57080,0.11675,-0.12764,-0.48145,0.03594,,,,,,,,,,,,,,,,,,,,,,,,,,0,0,0,0,0
2.4353,1783967332.4900,1,1,1.0000,-0.0000,1.42243,-0.00349,-2.63156,1.06419,1.57080,0.11675,-0.12764,-0.48146,0.03591,,,,,,,,,,,,,,,,,,,,,,,,,,0,0,0,0,0
2.4488,1783967332.5036,1,1,1.0000,-0.0000,1.42243,-0.00358,-2.63157,1.06431,1.57080,0.11675,-0.12764,-0.48146,0.03588,,,,,,,,,,,,,,,,,,,,,,,,,,0,0,0,0,0
2.4493,1783967332.5040,1,1,1.0000,-0.0000,1.42243,-0.00358,-2.63157,1.06431,1.57080,0.11675,-0.12764,-0.48146,0.03588,,,,,,,,,,,,,,,,,,,,,,,,,,0,0,0,0,0
2.4568,1783967332.5115,1,1,1.0000,-0.0000,1.42243,-0.00362,-2.63157,1.06435,1.57080,0.11675,-0.12764,-0.48147,0.03588,,,,,,,,,,,,,,,,,,,,,,,,,,0,0,0,0,0
2.4572,1783967332.5120,1,1,1.0000,-0.0000,1.42243,-0.00362,-2.63157,1.06435,1.57080,0.11675,-0.12764,-0.48147,0.03588,,,,,,,,,,,,,,,,,,,,,,,,,,0,0,0,0,0
2.4651,1783967332.5199,1,1,1.0000,-0.0000,1.42243,-0.00368,-2.63157,1.06442,1.57080,0.11675,-0.12763,-0.48148,0.03586,,,,,,,,,,,,,,,,,,,,,,,,,,0,0,0,0,0
2.4761,1783967332.5308,1,1,1.0000,-0.0000,1.42243,-0.00375,-2.63158,1.06451,1.57080,0.11675,-0.12763,-0.48149,0.03584,,,,,,,,,,,,,,,,,,,,,,,,,,0,0,0,0,0
2.4867,1783967332.5415,1,1,1.0000,-0.0000,1.42243,-0.00387,-2.63158,1.06466,1.57080,0.11675,-0.12763,-0.48151,0.03581,,,,,,,,,,,,,,,,,,,,,,,,,,0,0,0,0,0
2.4990,1783967332.5537,1,1,1.0000,-0.0000,1.42243,-0.00397,-2.63157,1.06478,1.57080,0.11675,-0.12763,-0.48153,0.03580,,,,,,,,,,,,,,,,,,,,,,,,,,0,0,0,0,0
2.5088,1783967332.5635,1,1,1.0000,-0.0000,1.42243,-0.00401,-2.63155,1.06483,1.57080,0.11675,-0.12762,-0.48155,0.03579,,,,,,,,,,,,,,,,,,,,,,,,,,0,0,0,0,0
2.5160,1783967332.5707,1,1,1.0000,-0.0000,1.42243,-0.00401,-2.63155,1.06483,1.57080,0.11675,-0.12762,-0.48155,0.03579,,,,,,,,,,,,,,,,,,,,,,,,,,0,0,0,0,0
2.5163,1783967332.5711,1,1,1.0000,-0.0000,1.42243,-0.00401,-2.63155,1.06483,1.57080,0.11675,-0.12762,-0.48155,0.03579,,,,,,,,,,,,,,,,,,,,,,,,,,0,0,0,0,0
2.5248,1783967332.5795,1,1,1.0000,-0.0000,1.42243,-0.00401,-2.63155,1.06483,1.57080,0.11675,-0.12762,-0.48155,0.03579,,,,,,,,,,,,,,,,,,,,,,,,,,0,0,0,0,0
2.5249,1783967332.5797,1,1,1.0000,-0.0000,1.42243,-0.00401,-2.63155,1.06483,1.57080,0.11675,-0.12762,-0.48155,0.03579,,,,,,,,,,,,,,,,,,,,,,,,,,0,0,0,0,0
2.5357,1783967332.5904,1,1,1.0000,-0.0000,1.42243,-0.00401,-2.63155,1.06483,1.57080,0.11675,-0.12762,-0.48155,0.03579,,,,,,,,,,,,,,,,,,,,,,,,,,0,0,0,0,0
2.5360,1783967332.5908,1,1,1.0000,-0.0000,1.42243,-0.00401,-2.63155,1.06483,1.57080,0.11675,-0.12762,-0.48155,0.03579,,,,,,,,,,,,,,,,,,,,,,,,,,0,0,0,0,0
2.5568,1783967332.6115,1,1,1.0000,-0.0000,1.42243,-0.00401,-2.63155,1.06483,1.57080,0.11675,-0.12762,-0.48155,0.03579,,,,,,,,,,,,,,,,,,,,,,,,,,0,0,0,0,0
2.5571,1783967332.6119,1,1,1.0000,-0.0000,1.42243,-0.00401,-2.63155,1.06483,1.57080,0.11675,-0.12762,-0.48155,0.03579,,,,,,,,,,,,,,,,,,,,,,,,,,0,0,0,0,0
2.5647,1783967332.6195,1,1,1.0000,-0.0000,1.42243,-0.00401,-2.63155,1.06483,1.57080,0.11675,-0.12762,-0.48155,0.03579,,,,,,,,,,,,,,,,,,,,,,,,,,0,0,0,0,0
2.5775,1783967332.6323,1,1,1.0000,-0.0000,1.42243,-0.00401,-2.63155,1.06483,1.57080,0.11675,-0.12762,-0.48155,0.03579,,,,,,,,,,,,,,,,,,,,,,,,,,0,0,0,0,0
2.5889,1783967332.6437,1,1,1.0000,-0.0000,1.42243,-0.00401,-2.63155,1.06483,1.57080,0.11675,-0.12762,-0.48155,0.03579,,,,,,,,,,,,,,,,,,,,,,,,,,0,0,0,0,0
2.5941,1783967332.6489,1,1,1.0000,-0.0000,1.42243,-0.00401,-2.63155,1.06483,1.57080,0.11675,-0.12762,-0.48155,0.03579,,,,,,,,,,,,,,,,,,,,,,,,,,0,0,0,0,0
2.6050,1783967332.6598,1,1,1.0000,-0.0000,1.42243,-0.00401,-2.63155,1.06483,1.57080,0.11675,-0.12762,-0.48155,0.03579,,,,,,,,,,,,,,,,,,,,,,,,,,0,0,0,0,0
2.6172,1783967332.6720,1,1,1.0000,-0.0000,1.42243,-0.00401,-2.63155,1.06483,1.57080,0.11675,-0.12762,-0.48155,0.03579,,,,,,,,,,,,,,,,,,,,,,,,,,0,0,0,0,0
2.6250,1783967332.6798,1,1,1.0000,-0.0000,1.42243,-0.00401,-2.63155,1.06483,1.57080,0.11675,-0.12762,-0.48155,0.03579,,,,,,,,,,,,,,,,,,,,,,,,,,0,0,0,0,0
2.6254,1783967332.6802,1,1,1.0000,-0.0000,1.42243,-0.00401,-2.63155,1.06483,1.57080,0.11675,-0.12762,-0.48155,0.03579,,,,,,,,,,,,,,,,,,,,,,,,,,0,0,0,0,0
2.6403,1783967332.6950,1,1,1.0000,-0.0000,1.42243,-0.00401,-2.63155,1.06483,1.57080,0.11675,-0.12762,-0.48155,0.03579,,,,,,,,,,,,,,,,,,,,,,,,,,0,0,0,0,0
2.6463,1783967332.7010,1,1,1.0000,-0.0000,1.42243,-0.00401,-2.63155,1.06483,1.57080,0.11675,-0.12762,-0.48155,0.03579,,,,,,,,,,,,,,,,,,,,,,,,,,0,0,0,0,0
2.6590,1783967332.7137,1,1,1.0000,-0.0000,1.42243,-0.00401,-2.63155,1.06483,1.57080,0.11675,-0.12762,-0.48155,0.03579,,,,,,,,,,,,,,,,,,,,,,,,,,0,0,0,0,0
2.6714,1783967332.7261,1,1,1.0000,-0.0000,1.42243,-0.00401,-2.63155,1.06483,1.57080,0.11675,-0.12762,-0.48155,0.03579,,,,,,,,,,,,,,,,,,,,,,,,,,0,0,0,0,0
2.6794,1783967332.7341,1,1,1.0000,-0.0000,1.42243,-0.00401,-2.63155,1.06483,1.57080,0.11675,-0.12762,-0.48155,0.03579,,,,,,,,,,,,,,,,,,,,,,,,,,0,0,0,0,0
2.6838,1783967332.7385,1,1,1.0000,-0.0000,1.42243,-0.00401,-2.63155,1.06483,1.57080,0.11675,-0.12762,-0.48155,0.03579,,,,,,,,,,,,,,,,,,,,,,,,,,0,0,0,0,0
2.6841,1783967332.7388,1,1,1.0000,-0.0000,1.42243,-0.00401,-2.63155,1.06483,1.57080,0.11675,-0.12762,-0.48155,0.03579,,,,,,,,,,,,,,,,,,,,,,,,,,0,0,0,0,0
2.6969,1783967332.7516,1,1,1.0000,-0.0000,1.42243,-0.00401,-2.63155,1.06483,1.57080,0.11675,-0.12762,-0.48155,0.03579,,,,,,,,,,,,,,,,,,,,,,,,,,0,0,0,0,0
2.7050,1783967332.7597,1,1,1.0000,-0.0000,1.42243,-0.00401,-2.63155,1.06483,1.57080,0.11675,-0.12762,-0.48155,0.03579,,,,,,,,,,,,,,,,,,,,,,,,,,0,0,0,0,0
2.7197,1783967332.7744,1,1,1.0000,-0.0000,1.42243,-0.00401,-2.63155,1.06483,1.57080,0.11675,-0.12762,-0.48155,0.03579,,,,,,,,,,,,,,,,,,,,,,,,,,0,0,0,0,0
2.7277,1783967332.7824,1,1,1.0000,-0.0000,1.42243,-0.00401,-2.63156,1.06484,1.57080,0.11675,-0.12762,-0.48154,0.03579,,,,,,,,,,,,,,,,,,,,,,,,,,0,0,0,0,0
2.7358,1783967332.7905,1,1,1.0000,-0.0000,1.42243,-0.00403,-2.63158,1.06486,1.57080,0.11675,-0.12763,-0.48153,0.03578,,,,,,,,,,,,,,,,,,,,,,,,,,0,0,0,0,0
2.7513,1783967332.8060,1,1,1.0000,-0.0000,1.42243,-0.00405,-2.63160,1.06489,1.57080,0.11675,-0.12763,-0.48152,0.03576,,,,,,,,,,,,,,,,,,,,,,,,,,0,0,0,0,0
2.7564,1783967332.8111,1,1,1.0000,-0.0000,1.42243,-0.00406,-2.63161,1.06490,1.57080,0.11675,-0.12763,-0.48151,0.03575,,,,,,,,,,,,,,,,,,,,,,,,,,0,0,0,0,0
2.7668,1783967332.8215,1,1,1.0000,-0.0000,1.42243,-0.00413,-2.63166,1.06498,1.57080,0.11675,-0.12763,-0.48149,0.03571,,,,,,,,,,,,,,,,,,,,,,,,,,0,0,0,0,0
2.7852,1783967332.8400,1,1,1.0000,-0.0000,1.42243,-0.00419,-2.63170,1.06505,1.57080,0.11675,-0.12763,-0.48147,0.03568,,,,,,,,,,,,,,,,,,,,,,,,,,0,0,0,0,0
2.7869,1783967332.8416,1,1,1.0000,-0.0000,1.42243,-0.00419,-2.63170,1.06505,1.57080,0.11675,-0.12763,-0.48147,0.03568,,,,,,,,,,,,,,,,,,,,,,,,,,0,0,0,0,0
2.7873,1783967332.8421,1,1,1.0000,-0.0000,1.42243,-0.00419,-2.63170,1.06505,1.57080,0.11675,-0.12763,-0.48147,0.03568,,,,,,,,,,,,,,,,,,,,,,,,,,0,0,0,0,0
2.7942,1783967332.8489,1,1,1.0000,-0.0000,1.42243,-0.00424,-2.63171,1.06512,1.57080,0.11675,-0.12764,-0.48147,0.03566,,,,,,,,,,,,,,,,,,,,,,,,,,0,0,0,0,0
2.7946,1783967332.8494,1,1,1.0000,-0.0000,1.42243,-0.00424,-2.63171,1.06512,1.57080,0.11675,-0.12764,-0.48147,0.03566,,,,,,,,,,,,,,,,,,,,,,,,,,0,0,0,0,0
2.8054,1783967332.8602,1,1,1.0000,-0.0000,1.42243,-0.00432,-2.63174,1.06521,1.57080,0.11675,-0.12764,-0.48146,0.03563,,,,,,,,,,,,,,,,,,,,,,,,,,0,0,0,0,0
2.8057,1783967332.8604,1,1,1.0000,-0.0000,1.42243,-0.00432,-2.63174,1.06521,1.57080,0.11675,-0.12764,-0.48146,0.03563,,,,,,,,,,,,,,,,,,,,,,,,,,0,0,0,0,0
2.8180,1783967332.8728,1,1,1.0000,-0.0000,1.42243,-0.00436,-2.63175,1.06526,1.57080,0.11675,-0.12764,-0.48146,0.03562,,,,,,,,,,,,,,,,,,,,,,,,,,0,0,0,0,0
2.8290,1783967332.8837,1,1,1.0000,-0.0000,1.42243,-0.00444,-2.63177,1.06535,1.57080,0.11675,-0.12764,-0.48146,0.03559,,,,,,,,,,,,,,,,,,,,,,,,,,0,0,0,0,0
2.8296,1783967332.8843,1,1,1.0000,-0.0000,1.42243,-0.00444,-2.63177,1.06535,1.57080,0.11675,-0.12764,-0.48146,0.03559,,,,,,,,,,,,,,,,,,,,,,,,,,0,0,0,0,0
2.8448,1783967332.8996,1,1,1.0000,-0.0000,1.42242,-0.00454,-2.63179,1.06547,1.57080,0.11675,-0.12764,-0.48146,0.03556,,,,,,,,,,,,,,,,,,,,,,,,,,0,0,0,0,0
2.8452,1783967332.9000,1,1,1.0000,-0.0000,1.42242,-0.00454,-2.63179,1.06547,1.57080,0.11675,-0.12764,-0.48146,0.03556,,,,,,,,,,,,,,,,,,,,,,,,,,0,0,0,0,0
2.8457,1783967332.9005,1,1,1.0000,-0.0000,1.42242,-0.00454,-2.63179,1.06547,1.57080,0.11675,-0.12764,-0.48146,0.03556,,,,,,,,,,,,,,,,,,,,,,,,,,0,0,0,0,0
2.8626,1783967332.9174,1,1,1.0000,-0.0000,1.42242,-0.00469,-2.63182,1.06566,1.57080,0.11675,-0.12763,-0.48146,0.03551,,,,,,,,,,,,,,,,,,,,,,,,,,0,0,0,0,0
2.8712,1783967332.9259,1,1,1.0000,-0.0000,1.42242,-0.00471,-2.63182,1.06568,1.57080,0.11675,-0.12763,-0.48146,0.03550,,,,,,,,,,,,,,,,,,,,,,,,,,0,0,0,0,0
2.8741,1783967332.9288,1,1,1.0000,-0.0000,1.42242,-0.00474,-2.63182,1.06571,1.57080,0.11675,-0.12763,-0.48147,0.03549,,,,,,,,,,,,,,,,,,,,,,,,,,0,0,0,0,0
2.8745,1783967332.9293,1,1,1.0000,-0.0000,1.42242,-0.00474,-2.63182,1.06571,1.57080,0.11675,-0.12763,-0.48147,0.03549,,,,,,,,,,,,,,,,,,,,,,,,,,0,0,0,0,0
2.8844,1783967332.9392,1,1,1.0000,-0.0000,1.42242,-0.00480,-2.63183,1.06579,1.57080,0.11675,-0.12763,-0.48147,0.03548,,,,,,,,,,,,,,,,,,,,,,,,,,0,0,0,0,0
2.8995,1783967332.9542,1,1,1.0000,-0.0000,1.42242,-0.00497,-2.63185,1.06601,1.57080,0.11675,-0.12763,-0.48149,0.03543,,,,,,,,,,,,,,,,,,,,,,,,,,0,0,0,0,0
2.9065,1783967332.9613,1,1,1.0000,-0.0000,1.42242,-0.00506,-2.63186,1.06612,1.57080,0.11675,-0.12763,-0.48150,0.03540,,,,,,,,,,,,,,,,,,,,,,,,,,0,0,0,0,0
2.9181,1783967332.9729,1,1,1.0000,-0.0000,1.42242,-0.00516,-2.63186,1.06624,1.57080,0.11675,-0.12763,-0.48151,0.03538,,,,,,,,,,,,,,,,,,,,,,,,,,0,0,0,0,0
2.9273,1783967332.9821,1,1,1.0000,-0.0000,1.42242,-0.00518,-2.63185,1.06627,1.57080,0.11675,-0.12763,-0.48152,0.03538,,,,,,,,,,,,,,,,,,,,,,,,,,0,0,0,0,0
2.9277,1783967332.9824,1,1,1.0000,-0.0000,1.42242,-0.00518,-2.63185,1.06627,1.57080,0.11675,-0.12763,-0.48152,0.03538,,,,,,,,,,,,,,,,,,,,,,,,,,0,0,0,0,0
2.9343,1783967332.9890,1,1,1.0000,-0.0000,1.42242,-0.00518,-2.63185,1.06627,1.57080,0.11675,-0.12763,-0.48152,0.03538,,,,,,,,,,,,,,,,,,,,,,,,,,0,0,0,0,0
2.9346,1783967332.9893,1,1,1.0000,-0.0000,1.42242,-0.00518,-2.63185,1.06627,1.57080,0.11675,-0.12763,-0.48152,0.03538,,,,,,,,,,,,,,,,,,,,,,,,,,0,0,0,0,0
2.9460,1783967333.0008,1,1,1.0000,-0.0000,1.42242,-0.00518,-2.63185,1.06627,1.57080,0.11675,-0.12763,-0.48152,0.03538,,,,,,,,,,,,,,,,,,,,,,,,,,0,0,0,0,0
2.9463,1783967333.0011,1,1,1.0000,-0.0000,1.42242,-0.00518,-2.63185,1.06627,1.57080,0.11675,-0.12763,-0.48152,0.03538,,,,,,,,,,,,,,,,,,,,,,,,,,0,0,0,0,0
2.9595,1783967333.0142,1,1,1.0000,-0.0000,1.42242,-0.00518,-2.63185,1.06627,1.57080,0.11675,-0.12763,-0.48152,0.03538,,,,,,,,,,,,,,,,,,,,,,,,,,0,0,0,0,0
2.9600,1783967333.0147,1,1,1.0000,-0.0000,1.42242,-0.00518,-2.63185,1.06627,1.57080,0.11675,-0.12763,-0.48152,0.03538,,,,,,,,,,,,,,,,,,,,,,,,,,0,0,0,0,0
2.9665,1783967333.0213,1,1,1.0000,-0.0000,1.42242,-0.00518,-2.63185,1.06627,1.57080,0.11675,-0.12763,-0.48152,0.03538,,,,,,,,,,,,,,,,,,,,,,,,,,0,0,0,0,0
2.9669,1783967333.0217,1,1,1.0000,-0.0000,1.42242,-0.00518,-2.63185,1.06627,1.57080,0.11675,-0.12763,-0.48152,0.03538,,,,,,,,,,,,,,,,,,,,,,,,,,0,0,0,0,0
2.9872,1783967333.0419,1,1,1.0000,-0.0000,1.42242,-0.00518,-2.63185,1.06627,1.57080,0.11675,-0.12763,-0.48152,0.03538,,,,,,,,,,,,,,,,,,,,,,,,,,0,0,0,0,0
2.9877,1783967333.0425,1,1,1.0000,-0.0000,1.42242,-0.00518,-2.63185,1.06627,1.57080,0.11675,-0.12763,-0.48152,0.03538,,,,,,,,,,,,,,,,,,,,,,,,,,0,0,0,0,0
2.9881,1783967333.0428,1,1,1.0000,-0.0000,1.42242,-0.00518,-2.63185,1.06627,1.57080,0.11675,-0.12763,-0.48152,0.03538,,,,,,,,,,,,,,,,,,,,,,,,,,0,0,0,0,0
2.9951,1783967333.0498,1,1,1.0000,-0.0000,1.42242,-0.00518,-2.63185,1.06627,1.57080,0.11675,-0.12763,-0.48152,0.03538,,,,,,,,,,,,,,,,,,,,,,,,,,0,0,0,0,0
3.0042,1783967333.0589,1,1,1.0000,-0.0000,1.42242,-0.00518,-2.63185,1.06627,1.57080,0.11675,-0.12763,-0.48152,0.03538,,,,,,,,,,,,,,,,,,,,,,,,,,0,0,0,0,0
3.0191,1783967333.0738,1,1,1.0000,-0.0000,1.42242,-0.00518,-2.63185,1.06627,1.57080,0.11675,-0.12763,-0.48152,0.03538,,,,,,,,,,,,,,,,,,,,,,,,,,0,0,0,0,0
3.0290,1783967333.0838,1,1,1.0000,-0.0000,1.42242,-0.00518,-2.63185,1.06627,1.57080,0.11675,-0.12763,-0.48152,0.03538,,,,,,,,,,,,,,,,,,,,,,,,,,0,0,0,0,0
3.0295,1783967333.0842,1,1,1.0000,-0.0000,1.42242,-0.00518,-2.63185,1.06627,1.57080,0.11675,-0.12763,-0.48152,0.03538,,,,,,,,,,,,,,,,,,,,,,,,,,0,0,0,0,0
3.0356,1783967333.0904,1,1,1.0000,-0.0000,1.42242,-0.00518,-2.63185,1.06627,1.57080,0.11675,-0.12763,-0.48152,0.03538,,,,,,,,,,,,,,,,,,,,,,,,,,0,0,0,0,0
3.0481,1783967333.1028,1,1,1.0000,-0.0000,1.42242,-0.00518,-2.63185,1.06627,1.57080,0.11675,-0.12763,-0.48152,0.03538,,,,,,,,,,,,,,,,,,,,,,,,,,0,0,0,0,0
3.0548,1783967333.1096,1,1,1.0000,-0.0000,1.42242,-0.00518,-2.63185,1.06627,1.57080,0.11675,-0.12763,-0.48152,0.03538,,,,,,,,,,,,,,,,,,,,,,,,,,0,0,0,0,0
3.0675,1783967333.1222,1,1,1.0000,-0.0000,1.42242,-0.00518,-2.63185,1.06627,1.57080,0.11675,-0.12763,-0.48152,0.03538,,,,,,,,,,,,,,,,,,,,,,,,,,0,0,0,0,0
3.0754,1783967333.1301,1,1,1.0000,-0.0000,1.42242,-0.00518,-2.63185,1.06627,1.57080,0.11675,-0.12763,-0.48152,0.03538,,,,,,,,,,,,,,,,,,,,,,,,,,0,0,0,0,0
3.0878,1783967333.1426,1,1,1.0000,-0.0000,1.42242,-0.00518,-2.63185,1.06627,1.57080,0.11675,-0.12763,-0.48152,0.03538,,,,,,,,,,,,,,,,,,,,,,,,,,0,0,0,0,0
3.1013,1783967333.1561,1,1,1.0000,-0.0000,1.42242,-0.00518,-2.63185,1.06627,1.57080,0.11675,-0.12763,-0.48152,0.03538,,,,,,,,,,,,,,,,,,,,,,,,,,0,0,0,0,0
3.1128,1783967333.1676,1,1,1.0000,-0.0000,1.42242,-0.00518,-2.63185,1.06627,1.57080,0.11675,-0.12763,-0.48152,0.03538,,,,,,,,,,,,,,,,,,,,,,,,,,0,0,0,0,0
3.1132,1783967333.1679,1,1,1.0000,-0.0000,1.42242,-0.00518,-2.63185,1.06627,1.57080,0.11675,-0.12763,-0.48152,0.03538,,,,,,,,,,,,,,,,,,,,,,,,,,0,0,0,0,0
3.1225,1783967333.1772,1,1,1.0000,-0.0000,1.42242,-0.00518,-2.63185,1.06627,1.57080,0.11675,-0.12763,-0.48152,0.03538,,,,,,,,,,,,,,,,,,,,,,,,,,0,0,0,0,0
3.1294,1783967333.1842,1,1,1.0000,-0.0000,1.42242,-0.00518,-2.63185,1.06627,1.57080,0.11675,-0.12763,-0.48152,0.03538,,,,,,,,,,,,,,,,,,,,,,,,,,0,0,0,0,0
3.1298,1783967333.1846,1,1,1.0000,-0.0000,1.42242,-0.00518,-2.63185,1.06627,1.57080,0.11675,-0.12763,-0.48152,0.03538,,,,,,,,,,,,,,,,,,,,,,,,,,0,0,0,0,0
3.1354,1783967333.1901,1,1,1.0000,-0.0000,1.42242,-0.00518,-2.63185,1.06627,1.57080,0.11675,-0.12763,-0.48152,0.03538,,,,,,,,,,,,,,,,,,,,,,,,,,0,0,0,0,0
3.1516,1783967333.2064,1,1,1.0000,-0.0000,1.42242,-0.00520,-2.63187,1.06630,1.57080,0.11675,-0.12763,-0.48151,0.03537,,,,,,,,,,,,,,,,,,,,,,,,,,0,0,0,0,0
3.1586,1783967333.2133,1,1,1.0000,-0.0000,1.42242,-0.00522,-2.63189,1.06632,1.57080,0.11675,-0.12763,-0.48150,0.03535,,,,,,,,,,,,,,,,,,,,,,,,,,0,0,0,0,0
3.1697,1783967333.2245,1,1,1.0000,-0.0000,1.42242,-0.00524,-2.63190,1.06634,1.57080,0.11675,-0.12763,-0.48149,0.03534,,,,,,,,,,,,,,,,,,,,,,,,,,0,0,0,0,0
3.1763,1783967333.2311,1,1,1.0000,-0.0000,1.42242,-0.00524,-2.63191,1.06635,1.57080,0.11675,-0.12763,-0.48149,0.03534,,,,,,,,,,,,,,,,,,,,,,,,,,0,0,0,0,0
3.1769,1783967333.2317,1,1,1.0000,-0.0000,1.42242,-0.00526,-2.63192,1.06637,1.57080,0.11675,-0.12763,-0.48149,0.03533,,,,,,,,,,,,,,,,,,,,,,,,,,0,0,0,0,0
3.1900,1783967333.2447,1,1,1.0000,-0.0000,1.42242,-0.00531,-2.63196,1.06644,1.57080,0.11675,-0.12763,-0.48147,0.03530,,,,,,,,,,,,,,,,,,,,,,,,,,0,0,0,0,0
3.1996,1783967333.2543,1,1,1.0000,-0.0000,1.42242,-0.00532,-2.63196,1.06644,1.57080,0.11675,-0.12763,-0.48147,0.03530,,,,,,,,,,,,,,,,,,,,,,,,,,0,0,0,0,0
3.2088,1783967333.2636,1,1,1.0000,-0.0000,1.42242,-0.00537,-2.63198,1.06651,1.57080,0.11675,-0.12763,-0.48146,0.03528,,,,,,,,,,,,,,,,,,,,,,,,,,0,0,0,0,0
3.2156,1783967333.2703,1,1,1.0000,-0.0000,1.42242,-0.00540,-2.63199,1.06654,1.57080,0.11675,-0.12763,-0.48146,0.03526,,,,,,,,,,,,,,,,,,,,,,,,,,0,0,0,0,0
3.2162,1783967333.2709,1,1,1.0000,-0.0000,1.42242,-0.00540,-2.63199,1.06654,1.57080,0.11675,-0.12763,-0.48146,0.03526,,,,,,,,,,,,,,,,,,,,,,,,,,0,0,0,0,0
3.2271,1783967333.2819,1,1,1.0000,-0.0000,1.42242,-0.00547,-2.63201,1.06663,1.57080,0.11675,-0.12763,-0.48145,0.03524,,,,,,,,,,,,,,,,,,,,,,,,,,0,0,0,0,0
3.2342,1783967333.2889,1,1,1.0000,-0.0000,1.42242,-0.00549,-2.63201,1.06665,1.57080,0.11675,-0.12763,-0.48145,0.03523,,,,,,,,,,,,,,,,,,,,,,,,,,0,0,0,0,0
3.2448,1783967333.2996,1,1,1.0000,-0.0000,1.42242,-0.00559,-2.63203,1.06677,1.57080,0.11675,-0.12763,-0.48145,0.03520,,,,,,,,,,,,,,,,,,,,,,,,,,0,0,0,0,0
3.2552,1783967333.3099,1,1,1.0000,-0.0000,1.42242,-0.00569,-2.63205,1.06689,1.57080,0.11675,-0.12763,-0.48145,0.03517,,,,,,,,,,,,,,,,,,,,,,,,,,0,0,0,0,0
3.2556,1783967333.3104,1,1,1.0000,-0.0000,1.42242,-0.00569,-2.63205,1.06689,1.57080,0.11675,-0.12763,-0.48145,0.03517,,,,,,,,,,,,,,,,,,,,,,,,,,0,0,0,0,0
3.2679,1783967333.3226,1,1,1.0000,-0.0000,1.42242,-0.00571,-2.63206,1.06691,1.57080,0.11675,-0.12763,-0.48145,0.03516,,,,,,,,,,,,,,,,,,,,,,,,,,0,0,0,0,0
3.2945,1783967333.3492,1,1,1.0000,-0.0000,1.42242,-0.00586,-2.63208,1.06709,1.57080,0.11675,-0.12763,-0.48146,0.03511,,,,,,,,,,,,,,,,,,,,,,,,,,0,0,0,0,0
3.2964,1783967333.3511,1,1,1.0000,-0.0000,1.42242,-0.00586,-2.63208,1.06709,1.57080,0.11675,-0.12763,-0.48146,0.03511,,,,,,,,,,,,,,,,,,,,,,,,,,0,0,0,0,0
3.2971,1783967333.3518,1,1,1.0000,-0.0000,1.42242,-0.00589,-2.63209,1.06713,1.57080,0.11675,-0.12763,-0.48146,0.03510,,,,,,,,,,,,,,,,,,,,,,,,,,0,0,0,0,0
3.3062,1783967333.3610,1,1,1.0000,-0.0000,1.42242,-0.00598,-2.63210,1.06724,1.57080,0.11675,-0.12763,-0.48147,0.03507,,,,,,,,,,,,,,,,,,,,,,,,,,0,0,0,0,0
3.3201,1783967333.3748,1,1,1.0000,-0.0000,1.42242,-0.00603,-2.63211,1.06731,1.57080,0.11675,-0.12763,-0.48147,0.03506,,,,,,,,,,,,,,,,,,,,,,,,,,0,0,0,0,0
3.3267,1783967333.3815,1,1,1.0000,-0.0000,1.42242,-0.00606,-2.63210,1.06734,1.57080,0.11675,-0.12763,-0.48148,0.03505,,,,,,,,,,,,,,,,,,,,,,,,,,0,0,0,0,0
3.3381,1783967333.3928,1,1,1.0000,-0.0000,1.42242,-0.00615,-2.63210,1.06745,1.57080,0.11675,-0.12763,-0.48150,0.03504,,,,,,,,,,,,,,,,,,,,,,,,,,0,0,0,0,0
3.3569,1783967333.4116,1,1,1.0000,-0.0000,1.42242,-0.00631,-2.63207,1.06765,1.57080,0.11675,-0.12762,-0.48154,0.03501,,,,,,,,,,,,,,,,,,,,,,,,,,0,0,0,0,0
3.3615,1783967333.4162,1,1,1.0000,-0.0000,1.42242,-0.00633,-2.63206,1.06768,1.57080,0.11675,-0.12762,-0.48155,0.03501,,,,,,,,,,,,,,,,,,,,,,,,,,0,0,0,0,0
3.3756,1783967333.4304,1,1,1.0000,-0.0000,1.42242,-0.00637,-2.63203,1.06773,1.57080,0.11675,-0.12761,-0.48159,0.03501,,,,,,,,,,,,,,,,,,,,,,,,,,0,0,0,0,0
3.3759,1783967333.4307,1,1,1.0000,-0.0000,1.42242,-0.00637,-2.63203,1.06773,1.57080,0.11675,-0.12761,-0.48159,0.03501,,,,,,,,,,,,,,,,,,,,,,,,,,0,0,0,0,0
3.3781,1783967333.4329,1,1,1.0000,-0.0000,1.42242,-0.00637,-2.63203,1.06773,1.57080,0.11675,-0.12761,-0.48159,0.03501,,,,,,,,,,,,,,,,,,,,,,,,,,0,0,0,0,0
3.3971,1783967333.4518,1,1,1.0000,-0.0000,1.42242,-0.00637,-2.63203,1.06773,1.57080,0.11675,-0.12761,-0.48159,0.03501,,,,,,,,,,,,,,,,,,,,,,,,,,0,0,0,0,0
3.3974,1783967333.4521,1,1,1.0000,-0.0000,1.42242,-0.00637,-2.63203,1.06773,1.57080,0.11675,-0.12761,-0.48159,0.03501,,,,,,,,,,,,,,,,,,,,,,,,,,0,0,0,0,0
3.3978,1783967333.4525,1,1,1.0000,-0.0000,1.42242,-0.00637,-2.63203,1.06773,1.57080,0.11675,-0.12761,-0.48159,0.03501,,,,,,,,,,,,,,,,,,,,,,,,,,0,0,0,0,0
3.4088,1783967333.4636,1,1,1.0000,-0.0000,1.42242,-0.00637,-2.63203,1.06773,1.57080,0.11675,-0.12761,-0.48159,0.03501,,,,,,,,,,,,,,,,,,,,,,,,,,0,0,0,0,0
3.4197,1783967333.4745,1,1,1.0000,-0.0000,1.42242,-0.00637,-2.63203,1.06773,1.57080,0.11675,-0.12761,-0.48159,0.03501,,,,,,,,,,,,,,,,,,,,,,,,,,0,0,0,0,0
3.4390,1783967333.4938,1,1,1.0000,-0.0000,1.42242,-0.00637,-2.63203,1.06773,1.57080,0.11675,-0.12761,-0.48159,0.03501,,,,,,,,,,,,,,,,,,,,,,,,,,0,0,0,0,0
3.4401,1783967333.4948,1,1,1.0000,-0.0000,1.42242,-0.00637,-2.63203,1.06773,1.57080,0.11675,-0.12761,-0.48159,0.03501,,,,,,,,,,,,,,,,,,,,,,,,,,0,0,0,0,0
3.4409,1783967333.4956,1,1,1.0000,-0.0000,1.42242,-0.00637,-2.63203,1.06773,1.57080,0.11675,-0.12761,-0.48159,0.03501,,,,,,,,,,,,,,,,,,,,,,,,,,0,0,0,0,0
3.4472,1783967333.5019,1,1,1.0000,-0.0000,1.42242,-0.00637,-2.63203,1.06773,1.57080,0.11675,-0.12761,-0.48159,0.03501,,,,,,,,,,,,,,,,,,,,,,,,,,0,0,0,0,0
3.4563,1783967333.5111,1,1,1.0000,-0.0000,1.42242,-0.00637,-2.63203,1.06773,1.57080,0.11675,-0.12761,-0.48159,0.03501,,,,,,,,,,,,,,,,,,,,,,,,,,0,0,0,0,0
3.4659,1783967333.5206,1,1,1.0000,-0.0000,1.42242,-0.00637,-2.63203,1.06773,1.57080,0.11675,-0.12761,-0.48159,0.03501,,,,,,,,,,,,,,,,,,,,,,,,,,0,0,0,0,0
3.4770,1783967333.5317,1,1,1.0000,-0.0000,1.42242,-0.00637,-2.63203,1.06773,1.57080,0.11675,-0.12761,-0.48159,0.03501,,,,,,,,,,,,,,,,,,,,,,,,,,0,0,0,0,0
3.4861,1783967333.5408,1,1,1.0000,-0.0000,1.42242,-0.00637,-2.63203,1.06773,1.57080,0.11675,-0.12761,-0.48159,0.03501,,,,,,,,,,,,,,,,,,,,,,,,,,0,0,0,0,0
3.4971,1783967333.5518,1,1,1.0000,-0.0000,1.42242,-0.00637,-2.63203,1.06773,1.57080,0.11675,-0.12761,-0.48159,0.03501,,,,,,,,,,,,,,,,,,,,,,,,,,0,0,0,0,0
3.5117,1783967333.5664,1,1,1.0000,-0.0000,1.42242,-0.00637,-2.63203,1.06773,1.57080,0.11675,-0.12761,-0.48159,0.03501,,,,,,,,,,,,,,,,,,,,,,,,,,0,0,0,0,0
3.5148,1783967333.5695,1,1,1.0000,-0.0000,1.42242,-0.00637,-2.63203,1.06773,1.57080,0.11675,-0.12761,-0.48159,0.03501,,,,,,,,,,,,,,,,,,,,,,,,,,0,0,0,0,0
3.5151,1783967333.5698,1,1,1.0000,-0.0000,1.42242,-0.00637,-2.63203,1.06773,1.57080,0.11675,-0.12761,-0.48159,0.03501,,,,,,,,,,,,,,,,,,,,,,,,,,0,0,0,0,0
3.5267,1783967333.5815,1,1,1.0000,-0.0000,1.42242,-0.00637,-2.63203,1.06773,1.57080,0.11675,-0.12761,-0.48159,0.03501,,,,,,,,,,,,,,,,,,,,,,,,,,0,0,0,0,0
3.5411,1783967333.5959,1,1,1.0000,-0.0000,1.42242,-0.00637,-2.63203,1.06773,1.57080,0.11675,-0.12761,-0.48159,0.03501,,,,,,,,,,,,,,,,,,,,,,,,,,0,0,0,0,0
3.5516,1783967333.6063,1,1,1.0000,-0.0000,1.42242,-0.00637,-2.63203,1.06773,1.57080,0.11675,-0.12761,-0.48159,0.03501,,,,,,,,,,,,,,,,,,,,,,,,,,0,0,0,0,0
3.5609,1783967333.6156,1,1,1.0000,-0.0000,1.42242,-0.00638,-2.63204,1.06774,1.57080,0.11675,-0.12761,-0.48158,0.03501,,,,,,,,,,,,,,,,,,,,,,,,,,0,0,0,0,0
3.5651,1783967333.6199,1,1,1.0000,-0.0000,1.42242,-0.00638,-2.63205,1.06774,1.57080,0.11675,-0.12761,-0.48157,0.03501,,,,,,,,,,,,,,,,,,,,,,,,,,0,0,0,0,0
3.5655,1783967333.6202,1,1,1.0000,-0.0000,1.42242,-0.00638,-2.63205,1.06774,1.57080,0.11675,-0.12761,-0.48157,0.03501,,,,,,,,,,,,,,,,,,,,,,,,,,0,0,0,0,0
3.5753,1783967333.6300,1,1,1.0000,-0.0000,1.42242,-0.00639,-2.63207,1.06776,1.57080,0.11675,-0.12762,-0.48156,0.03499,,,,,,,,,,,,,,,,,,,,,,,,,,0,0,0,0,0
3.5997,1783967333.6545,1,1,1.0000,-0.0000,1.42242,-0.00643,-2.63213,1.06780,1.57080,0.11675,-0.12762,-0.48152,0.03496,,,,,,,,,,,,,,,,,,,,,,,,,,0,0,0,0,0
3.6001,1783967333.6549,1,1,1.0000,-0.0000,1.42242,-0.00643,-2.63213,1.06780,1.57080,0.11675,-0.12762,-0.48152,0.03496,,,,,,,,,,,,,,,,,,,,,,,,,,0,0,0,0,0
3.6009,1783967333.6557,1,1,1.0000,-0.0000,1.42242,-0.00644,-2.63214,1.06782,1.57080,0.11675,-0.12762,-0.48152,0.03495,,,,,,,,,,,,,,,,,,,,,,,,,,0,0,0,0,0
3.6049,1783967333.6596,1,1,1.0000,-0.0000,1.42242,-0.00646,-2.63216,1.06784,1.57080,0.11675,-0.12762,-0.48151,0.03494,,,,,,,,,,,,,,,,,,,,,,,,,,0,0,0,0,0
3.6144,1783967333.6691,1,1,1.0000,-0.0000,1.42242,-0.00650,-2.63219,1.06789,1.57080,0.11675,-0.12763,-0.48148,0.03491,,,,,,,,,,,,,,,,,,,,,,,,,,0,0,0,0,0
3.6260,1783967333.6808,1,1,1.0000,-0.0000,1.42242,-0.00652,-2.63220,1.06791,1.57080,0.11675,-0.12763,-0.48148,0.03490,,,,,,,,,,,,,,,,,,,,,,,,,,0,0,0,0,0
3.6371,1783967333.6918,1,1,1.0000,-0.0000,1.42242,-0.00659,-2.63223,1.06799,1.57080,0.11675,-0.12763,-0.48147,0.03487,,,,,,,,,,,,,,,,,,,,,,,,,,0,0,0,0,0
3.6475,1783967333.7022,1,1,1.0000,-0.0000,1.42242,-0.00659,-2.63223,1.06800,1.57080,0.11675,-0.12763,-0.48147,0.03487,,,,,,,,,,,,,,,,,,,,,,,,,,0,0,0,0,0
3.6616,1783967333.7164,1,1,1.0000,-0.0000,1.42242,-0.00672,-2.63226,1.06815,1.57080,0.11675,-0.12763,-0.48147,0.03482,,,,,,,,,,,,,,,,,,,,,,,,,,0,0,0,0,0
3.6653,1783967333.7200,1,1,1.0000,-0.0000,1.42242,-0.00677,-2.63228,1.06821,1.57080,0.11675,-0.12763,-0.48147,0.03481,,,,,,,,,,,,,,,,,,,,,,,,,,0,0,0,0,0
3.6656,1783967333.7203,1,1,1.0000,-0.0000,1.42242,-0.00677,-2.63228,1.06821,1.57080,0.11675,-0.12763,-0.48147,0.03481,,,,,,,,,,,,,,,,,,,,,,,,,,0,0,0,0,0
3.6814,1783967333.7361,1,1,1.0000,-0.0000,1.42242,-0.00685,-2.63230,1.06831,1.57080,0.11675,-0.12763,-0.48146,0.03478,,,,,,,,,,,,,,,,,,,,,,,,,,0,0,0,0,0
3.6817,1783967333.7364,1,1,1.0000,-0.0000,1.42242,-0.00685,-2.63230,1.06831,1.57080,0.11675,-0.12763,-0.48146,0.03478,,,,,,,,,,,,,,,,,,,,,,,,,,0,0,0,0,0
3.6893,1783967333.7440,1,1,1.0000,-0.0000,1.42242,-0.00691,-2.63231,1.06838,1.57080,0.11675,-0.12763,-0.48146,0.03476,,,,,,,,,,,,,,,,,,,,,,,,,,0,0,0,0,0
3.6896,1783967333.7443,1,1,1.0000,-0.0000,1.42242,-0.00691,-2.63231,1.06838,1.57080,0.11675,-0.12763,-0.48146,0.03476,,,,,,,,,,,,,,,,,,,,,,,,,,0,0,0,0,0
3.6976,1783967333.7523,1,1,1.0000,-0.0000,1.42242,-0.00700,-2.63233,1.06849,1.57080,0.11675,-0.12763,-0.48146,0.03473,,,,,,,,,,,,,,,,,,,,,,,,,,0,0,0,0,0
3.7111,1783967333.7658,1,1,1.0000,-0.0000,1.42242,-0.00706,-2.63234,1.06855,1.57080,0.11675,-0.12763,-0.48147,0.03471,,,,,,,,,,,,,,,,,,,,,,,,,,0,0,0,0,0
3.7115,1783967333.7662,1,1,1.0000,-0.0000,1.42242,-0.00706,-2.63234,1.06855,1.57080,0.11675,-0.12763,-0.48147,0.03471,,,,,,,,,,,,,,,,,,,,,,,,,,0,0,0,0,0
3.7169,1783967333.7716,1,1,1.0000,-0.0000,1.42242,-0.00709,-2.63234,1.06860,1.57080,0.11675,-0.12763,-0.48147,0.03470,,,,,,,,,,,,,,,,,,,,,,,,,,0,0,0,0,0
3.7267,1783967333.7815,1,1,1.0000,-0.0000,1.42242,-0.00716,-2.63235,1.06868,1.57080,0.11675,-0.12763,-0.48147,0.03468,,,,,,,,,,,,,,,,,,,,,,,,,,0,0,0,0,0
3.7353,1783967333.7901,1,1,1.0000,-0.0000,1.42241,-0.00724,-2.63236,1.06878,1.57080,0.11675,-0.12763,-0.48148,0.03465,,,,,,,,,,,,,,,,,,,,,,,,,,0,0,0,0,0
3.7464,1783967333.8011,1,1,1.0000,-0.0000,1.42241,-0.00737,-2.63238,1.06895,1.57080,0.11675,-0.12763,-0.48149,0.03462,,,,,,,,,,,,,,,,,,,,,,,,,,0,0,0,0,0
3.7467,1783967333.8014,1,1,1.0000,-0.0000,1.42241,-0.00737,-2.63238,1.06895,1.57080,0.11675,-0.12763,-0.48149,0.03462,,,,,,,,,,,,,,,,,,,,,,,,,,0,0,0,0,0
3.7569,1783967333.8116,1,1,1.0000,-0.0000,1.42241,-0.00749,-2.63239,1.06910,1.57080,0.11675,-0.12762,-0.48150,0.03458,,,,,,,,,,,,,,,,,,,,,,,,,,0,0,0,0,0
3.7573,1783967333.8121,1,1,1.0000,-0.0000,1.42241,-0.00749,-2.63239,1.06910,1.57080,0.11675,-0.12762,-0.48150,0.03458,,,,,,,,,,,,,,,,,,,,,,,,,,0,0,0,0,0
3.7656,1783967333.8203,1,1,1.0000,-0.0000,1.42241,-0.00754,-2.63239,1.06916,1.57080,0.11675,-0.12762,-0.48151,0.03457,,,,,,,,,,,,,,,,,,,,,,,,,,0,0,0,0,0
3.7854,1783967333.8401,1,1,1.0000,-0.0000,1.42241,-0.00754,-2.63239,1.06916,1.57080,0.11675,-0.12762,-0.48151,0.03457,,,,,,,,,,,,,,,,,,,,,,,,,,0,0,0,0,0
3.7858,1783967333.8405,1,1,1.0000,-0.0000,1.42241,-0.00754,-2.63239,1.06916,1.57080,0.11675,-0.12762,-0.48151,0.03457,,,,,,,,,,,,,,,,,,,,,,,,,,0,0,0,0,0
3.7905,1783967333.8453,1,1,1.0000,-0.0000,1.42241,-0.00754,-2.63239,1.06916,1.57080,0.11675,-0.12762,-0.48151,0.03457,,,,,,,,,,,,,,,,,,,,,,,,,,0,0,0,0,0
3.7959,1783967333.8506,1,1,1.0000,-0.0000,1.42241,-0.00754,-2.63239,1.06916,1.57080,0.11675,-0.12762,-0.48151,0.03457,,,,,,,,,,,,,,,,,,,,,,,,,,0,0,0,0,0
3.8058,1783967333.8606,1,1,1.0000,-0.0000,1.42241,-0.00754,-2.63239,1.06916,1.57080,0.11675,-0.12762,-0.48151,0.03457,,,,,,,,,,,,,,,,,,,,,,,,,,0,0,0,0,0
3.8065,1783967333.8612,1,1,1.0000,-0.0000,1.42241,-0.00754,-2.63239,1.06916,1.57080,0.11675,-0.12762,-0.48151,0.03457,,,,,,,,,,,,,,,,,,,,,,,,,,0,0,0,0,0
3.8179,1783967333.8726,1,1,1.0000,-0.0000,1.42241,-0.00754,-2.63239,1.06916,1.57080,0.11675,-0.12762,-0.48151,0.03457,,,,,,,,,,,,,,,,,,,,,,,,,,0,0,0,0,0
3.8295,1783967333.8842,1,1,1.0000,-0.0000,1.42241,-0.00754,-2.63239,1.06916,1.57080,0.11675,-0.12762,-0.48151,0.03457,,,,,,,,,,,,,,,,,,,,,,,,,,0,0,0,0,0
3.8356,1783967333.8903,1,1,1.0000,-0.0000,1.42241,-0.00754,-2.63239,1.06916,1.57080,0.11675,-0.12762,-0.48151,0.03457,,,,,,,,,,,,,,,,,,,,,,,,,,0,0,0,0,0
3.8458,1783967333.9006,1,1,1.0000,-0.0000,1.42241,-0.00754,-2.63239,1.06916,1.57080,0.11675,-0.12762,-0.48151,0.03457,,,,,,,,,,,,,,,,,,,,,,,,,,0,0,0,0,0
3.8543,1783967333.9090,1,1,1.0000,-0.0000,1.42241,-0.00754,-2.63239,1.06916,1.57080,0.11675,-0.12762,-0.48151,0.03457,,,,,,,,,,,,,,,,,,,,,,,,,,0,0,0,0,0
3.8664,1783967333.9211,1,1,1.0000,-0.0000,1.42241,-0.00754,-2.63239,1.06916,1.57080,0.11675,-0.12762,-0.48151,0.03457,,,,,,,,,,,,,,,,,,,,,,,,,,0,0,0,0,0
3.8873,1783967333.9421,1,1,1.0000,-0.0000,1.42241,-0.00754,-2.63239,1.06916,1.57080,0.11675,-0.12762,-0.48151,0.03457,,,,,,,,,,,,,,,,,,,,,,,,,,0,0,0,0,0
3.8903,1783967333.9450,1,1,1.0000,-0.0000,1.42241,-0.00754,-2.63239,1.06916,1.57080,0.11675,-0.12762,-0.48151,0.03457,,,,,,,,,,,,,,,,,,,,,,,,,,0,0,0,0,0
3.8956,1783967333.9504,1,1,1.0000,-0.0000,1.42241,-0.00754,-2.63239,1.06916,1.57080,0.11675,-0.12762,-0.48151,0.03457,,,,,,,,,,,,,,,,,,,,,,,,,,0,0,0,0,0
3.9174,1783967333.9721,1,1,1.0000,-0.0000,1.42241,-0.00754,-2.63239,1.06916,1.57080,0.11675,-0.12762,-0.48151,0.03457,,,,,,,,,,,,,,,,,,,,,,,,,,0,0,0,0,0
3.9178,1783967333.9725,1,1,1.0000,-0.0000,1.42241,-0.00754,-2.63239,1.06916,1.57080,0.11675,-0.12762,-0.48151,0.03457,,,,,,,,,,,,,,,,,,,,,,,,,,0,0,0,0,0
3.9243,1783967333.9791,1,1,1.0000,-0.0000,1.42241,-0.00754,-2.63239,1.06916,1.57080,0.11675,-0.12762,-0.48151,0.03457,,,,,,,,,,,,,,,,,,,,,,,,,,0,0,0,0,0
3.9254,1783967333.9801,1,1,1.0000,-0.0000,1.42241,-0.00754,-2.63239,1.06916,1.57080,0.11675,-0.12762,-0.48151,0.03457,,,,,,,,,,,,,,,,,,,,,,,,,,0,0,0,0,0
3.9256,1783967333.9804,1,1,1.0000,-0.0000,1.42241,-0.00754,-2.63239,1.06916,1.57080,0.11675,-0.12762,-0.48151,0.03457,,,,,,,,,,,,,,,,,,,,,,,,,,0,0,0,0,0
3.9371,1783967333.9918,1,1,1.0000,-0.0000,1.42241,-0.00754,-2.63239,1.06916,1.57080,0.11675,-0.12762,-0.48151,0.03457,,,,,,,,,,,,,,,,,,,,,,,,,,0,0,0,0,0
3.9517,1783967334.0065,1,1,1.0000,-0.0000,1.42241,-0.00754,-2.63239,1.06916,1.57080,0.11675,-0.12762,-0.48151,0.03457,,,,,,,,,,,,,,,,,,,,,,,,,,0,0,0,0,0
4.0396,1783967334.0943,1,1,1.0000,-0.0000,1.42241,-0.00767,-2.63248,1.06931,1.57080,0.11675,-0.12763,-0.48146,0.03450,,,,,,,,,,,,,,,,,,,,,,,,,,0,0,0,0,0
4.0408,1783967334.0955,1,1,1.0000,-0.0000,1.42241,-0.00768,-2.63248,1.06932,1.57080,0.11675,-0.12763,-0.48146,0.03450,,,,,,,,,,,,,,,,,,,,,,,,,,0,0,0,0,0
4.0424,1783967334.0972,1,1,1.0000,-0.0000,1.42241,-0.00768,-2.63248,1.06932,1.57080,0.11675,-0.12763,-0.48146,0.03450,,,,,,,,,,,,,,,,,,,,,,,,,,0,0,0,0,0
4.0427,1783967334.0974,1,1,1.0000,-0.0000,1.42241,-0.00768,-2.63248,1.06932,1.57080,0.11675,-0.12763,-0.48146,0.03450,,,,,,,,,,,,,,,,,,,,,,,,,,0,0,0,0,0
4.0461,1783967334.1009,1,1,1.0000,-0.0000,1.42241,-0.00769,-2.63249,1.06934,1.57080,0.11675,-0.12763,-0.48146,0.03449,,,,,,,,,,,,,,,,,,,,,,,,,,0,0,0,0,0
4.0466,1783967334.1013,1,1,1.0000,-0.0000,1.42241,-0.00769,-2.63249,1.06934,1.57080,0.11675,-0.12763,-0.48146,0.03449,,,,,,,,,,,,,,,,,,,,,,,,,,0,0,0,0,0
4.0557,1783967334.1105,1,1,1.0000,-0.0000,1.42241,-0.00773,-2.63251,1.06939,1.57080,0.11675,-0.12763,-0.48145,0.03447,,,,,,,,,,,,,,,,,,,,,,,,,,0,0,0,0,0
4.0577,1783967334.1124,1,1,1.0000,-0.0000,1.42241,-0.00776,-2.63252,1.06942,1.57080,0.11675,-0.12763,-0.48145,0.03446,,,,,,,,,,,,,,,,,,,,,,,,,,0,0,0,0,0
4.0581,1783967334.1129,1,1,1.0000,-0.0000,1.42241,-0.00776,-2.63252,1.06942,1.57080,0.11675,-0.12763,-0.48145,0.03446,,,,,,,,,,,,,,,,,,,,,,,,,,0,0,0,0,0
4.0586,1783967334.1133,1,1,1.0000,-0.0000,1.42241,-0.00776,-2.63252,1.06942,1.57080,0.11675,-0.12763,-0.48145,0.03446,,,,,,,,,,,,,,,,,,,,,,,,,,0,0,0,0,0
4.0655,1783967334.1202,1,1,1.0000,-0.0000,1.42241,-0.00779,-2.63253,1.06946,1.57080,0.11675,-0.12763,-0.48145,0.03445,,,,,,,,,,,,,,,,,,,,,,,,,,0,0,0,0,0
4.0663,1783967334.1210,1,1,1.0000,-0.0000,1.42241,-0.00779,-2.63253,1.06946,1.57080,0.11675,-0.12763,-0.48145,0.03445,,,,,,,,,,,,,,,,,,,,,,,,,,0,0,0,0,0
4.0741,1783967334.1289,1,1,1.0000,-0.0000,1.42241,-0.00781,-2.63253,1.06948,1.57080,0.11675,-0.12763,-0.48145,0.03444,,,,,,,,,,,,,,,,,,,,,,,,,,0,0,0,0,0
4.1643,1783967334.2191,1,1,1.0000,-0.0000,1.42241,-0.00841,-2.63263,1.07020,1.57080,0.11675,-0.12763,-0.48147,0.03425,,,,,,,,,,,,,,,,,,,,,,,,,,0,0,0,0,0
4.1810,1783967334.2357,1,1,1.0000,-0.0000,1.42241,-0.00852,-2.63262,1.07034,1.57080,0.11675,-0.12762,-0.48149,0.03423,,,,,,,,,,,,,,,,,,,,,,,,,,0,0,0,0,0
4.1897,1783967334.2444,1,1,1.0000,-0.0000,1.42241,-0.00858,-2.63262,1.07042,1.57080,0.11675,-0.12762,-0.48151,0.03422,,,,,,,,,,,,,,,,,,,,,,,,,,0,0,0,0,0
4.1899,1783967334.2447,1,1,1.0000,-0.0000,1.42241,-0.00858,-2.63262,1.07042,1.57080,0.11675,-0.12762,-0.48151,0.03422,,,,,,,,,,,,,,,,,,,,,,,,,,0,0,0,0,0
4.1975,1783967334.2523,1,1,1.0000,-0.0000,1.42241,-0.00865,-2.63261,1.07050,1.57080,0.11675,-0.12762,-0.48152,0.03421,,,,,,,,,,,,,,,,,,,,,,,,,,0,0,0,0,0
4.1998,1783967334.2546,1,1,1.0000,-0.0000,1.42241,-0.00865,-2.63261,1.07050,1.57080,0.11675,-0.12762,-0.48152,0.03421,,,,,,,,,,,,,,,,,,,,,,,,,,0,0,0,0,0
4.2094,1783967334.2642,1,1,1.0000,-0.0000,1.42241,-0.00872,-2.63258,1.07059,1.57080,0.11675,-0.12761,-0.48156,0.03420,,,,,,,,,,,,,,,,,,,,,,,,,,0,0,0,0,0
4.2097,1783967334.2644,1,1,1.0000,-0.0000,1.42241,-0.00872,-2.63258,1.07059,1.57080,0.11675,-0.12761,-0.48156,0.03420,,,,,,,,,,,,,,,,,,,,,,,,,,0,0,0,0,0
4.2137,1783967334.2685,1,1,1.0000,-0.0000,1.42241,-0.00874,-2.63257,1.07061,1.57080,0.11675,-0.12761,-0.48157,0.03420,,,,,,,,,,,,,,,,,,,,,,,,,,0,0,0,0,0
4.2140,1783967334.2687,1,1,1.0000,-0.0000,1.42241,-0.00874,-2.63257,1.07061,1.57080,0.11675,-0.12761,-0.48157,0.03420,,,,,,,,,,,,,,,,,,,,,,,,,,0,0,0,0,0
4.2200,1783967334.2747,1,1,1.0000,-0.0000,1.42241,-0.00875,-2.63256,1.07062,1.57080,0.11675,-0.12761,-0.48158,0.03421,,,,,,,,,,,,,,,,,,,,,,,,,,0,0,0,0,0
4.2205,1783967334.2752,1,1,1.0000,-0.0000,1.42241,-0.00875,-2.63256,1.07062,1.57080,0.11675,-0.12761,-0.48158,0.03421,,,,,,,,,,,,,,,,,,,,,,,,,,0,0,0,0,0
4.2291,1783967334.2838,1,1,1.0000,-0.0000,1.42241,-0.00875,-2.63256,1.07062,1.57080,0.11675,-0.12761,-0.48158,0.03421,,,,,,,,,,,,,,,,,,,,,,,,,,0,0,0,0,0
4.2323,1783967334.2871,1,1,1.0000,-0.0000,1.42241,-0.00875,-2.63256,1.07062,1.57080,0.11675,-0.12761,-0.48158,0.03421,,,,,,,,,,,,,,,,,,,,,,,,,,0,0,0,0,0
4.2328,1783967334.2875,1,1,1.0000,-0.0000,1.42241,-0.00875,-2.63256,1.07062,1.57080,0.11675,-0.12761,-0.48158,0.03421,,,,,,,,,,,,,,,,,,,,,,,,,,0,0,0,0,0
4.2333,1783967334.2881,1,1,1.0000,-0.0000,1.42241,-0.00875,-2.63256,1.07062,1.57080,0.11675,-0.12761,-0.48158,0.03421,,,,,,,,,,,,,,,,,,,,,,,,,,0,0,0,0,0
4.2384,1783967334.2931,1,1,1.0000,-0.0000,1.42241,-0.00875,-2.63256,1.07062,1.57080,0.11675,-0.12761,-0.48158,0.03421,,,,,,,,,,,,,,,,,,,,,,,,,,0,0,0,0,0
4.2404,1783967334.2952,1,1,1.0000,-0.0000,1.42241,-0.00875,-2.63256,1.07062,1.57080,0.11675,-0.12761,-0.48158,0.03421,,,,,,,,,,,,,,,,,,,,,,,,,,0,0,0,0,0
4.2408,1783967334.2955,1,1,1.0000,-0.0000,1.42241,-0.00875,-2.63256,1.07062,1.57080,0.11675,-0.12761,-0.48158,0.03421,,,,,,,,,,,,,,,,,,,,,,,,,,0,0,0,0,0
4.2573,1783967334.3121,1,1,1.0000,-0.0000,1.42241,-0.00875,-2.63256,1.07062,1.57080,0.11675,-0.12761,-0.48158,0.03421,,,,,,,,,,,,,,,,,,,,,,,,,,0,0,0,0,0
4.2580,1783967334.3127,1,1,1.0000,-0.0000,1.42241,-0.00875,-2.63256,1.07062,1.57080,0.11675,-0.12761,-0.48158,0.03421,,,,,,,,,,,,,,,,,,,,,,,,,,0,0,0,0,0
4.2583,1783967334.3130,1,1,1.0000,-0.0000,1.42241,-0.00875,-2.63256,1.07062,1.57080,0.11675,-0.12761,-0.48158,0.03421,,,,,,,,,,,,,,,,,,,,,,,,,,0,0,0,0,0
4.2586,1783967334.3133,1,1,1.0000,-0.0000,1.42241,-0.00875,-2.63256,1.07062,1.57080,0.11675,-0.12761,-0.48158,0.03421,,,,,,,,,,,,,,,,,,,,,,,,,,0,0,0,0,0
4.2691,1783967334.3238,1,1,1.0000,-0.0000,1.42241,-0.00875,-2.63256,1.07062,1.57080,0.11675,-0.12761,-0.48158,0.03421,,,,,,,,,,,,,,,,,,,,,,,,,,0,0,0,0,0
4.2693,1783967334.3240,1,1,1.0000,-0.0000,1.42241,-0.00875,-2.63256,1.07062,1.57080,0.11675,-0.12761,-0.48158,0.03421,,,,,,,,,,,,,,,,,,,,,,,,,,0,0,0,0,0
4.2772,1783967334.3319,1,1,1.0000,-0.0000,1.42241,-0.00875,-2.63256,1.07062,1.57080,0.11675,-0.12761,-0.48158,0.03421,,,,,,,,,,,,,,,,,,,,,,,,,,0,0,0,0,0
4.2973,1783967334.3521,1,1,1.0000,-0.0000,1.42241,-0.00875,-2.63256,1.07062,1.57080,0.11675,-0.12761,-0.48158,0.03421,,,,,,,,,,,,,,,,,,,,,,,,,,0,0,0,0,0
4.3065,1783967334.3612,1,1,1.0000,-0.0000,1.42241,-0.00875,-2.63256,1.07062,1.57080,0.11675,-0.12761,-0.48158,0.03421,,,,,,,,,,,,,,,,,,,,,,,,,,0,0,0,0,0
4.3217,1783967334.3765,1,1,1.0000,-0.0000,1.42241,-0.00875,-2.63256,1.07062,1.57080,0.11675,-0.12761,-0.48158,0.03421,,,,,,,,,,,,,,,,,,,,,,,,,,0,0,0,0,0
4.3222,1783967334.3769,1,1,1.0000,-0.0000,1.42241,-0.00875,-2.63256,1.07062,1.57080,0.11675,-0.12761,-0.48158,0.03421,,,,,,,,,,,,,,,,,,,,,,,,,,0,0,0,0,0
4.3296,1783967334.3844,1,1,1.0000,-0.0000,1.42241,-0.00875,-2.63256,1.07062,1.57080,0.11675,-0.12761,-0.48158,0.03421,,,,,,,,,,,,,,,,,,,,,,,,,,0,0,0,0,0
4.3300,1783967334.3848,1,1,1.0000,-0.0000,1.42241,-0.00875,-2.63256,1.07062,1.57080,0.11675,-0.12761,-0.48158,0.03421,,,,,,,,,,,,,,,,,,,,,,,,,,0,0,0,0,0
4.3346,1783967334.3893,1,1,1.0000,-0.0000,1.42241,-0.00875,-2.63256,1.07062,1.57080,0.11675,-0.12761,-0.48158,0.03421,,,,,,,,,,,,,,,,,,,,,,,,,,0,0,0,0,0
4.3350,1783967334.3897,1,1,1.0000,-0.0000,1.42241,-0.00875,-2.63256,1.07062,1.57080,0.11675,-0.12761,-0.48158,0.03421,,,,,,,,,,,,,,,,,,,,,,,,,,0,0,0,0,0
4.3463,1783967334.4010,1,1,1.0000,-0.0000,1.42241,-0.00875,-2.63256,1.07062,1.57080,0.11675,-0.12761,-0.48158,0.03421,,,,,,,,,,,,,,,,,,,,,,,,,,0,0,0,0,0
4.3542,1783967334.4090,1,1,1.0000,-0.0000,1.42241,-0.00875,-2.63256,1.07062,1.57080,0.11675,-0.12761,-0.48158,0.03421,,,,,,,,,,,,,,,,,,,,,,,,,,0,0,0,0,0
4.3673,1783967334.4220,1,1,1.0000,-0.0000,1.42241,-0.00875,-2.63256,1.07062,1.57080,0.11675,-0.12761,-0.48158,0.03421,,,,,,,,,,,,,,,,,,,,,,,,,,0,0,0,0,0
4.3675,1783967334.4223,1,1,1.0000,-0.0000,1.42241,-0.00875,-2.63256,1.07062,1.57080,0.11675,-0.12761,-0.48158,0.03421,,,,,,,,,,,,,,,,,,,,,,,,,,0,0,0,0,0
4.3759,1783967334.4307,1,1,1.0000,-0.0000,1.42241,-0.00875,-2.63256,1.07062,1.57080,0.11675,-0.12761,-0.48158,0.03421,,,,,,,,,,,,,,,,,,,,,,,,,,0,0,0,0,0
4.3763,1783967334.4310,1,1,1.0000,-0.0000,1.42241,-0.00875,-2.63256,1.07062,1.57080,0.11675,-0.12761,-0.48158,0.03421,,,,,,,,,,,,,,,,,,,,,,,,,,0,0,0,0,0
4.3860,1783967334.4408,1,1,1.0000,-0.0000,1.42241,-0.00875,-2.63256,1.07062,1.57080,0.11675,-0.12761,-0.48158,0.03421,,,,,,,,,,,,,,,,,,,,,,,,,,0,0,0,0,0
4.4366,1783967334.4913,1,1,1.0000,-0.0000,1.42241,-0.00878,-2.63263,1.07067,1.57081,0.11675,-0.12762,-0.48154,0.03417,,,,,,,,,,,,,,,,,,,,,,,,,,0,0,0,0,0
4.4447,1783967334.4994,1,1,1.0000,-0.0000,1.42241,-0.00880,-2.63265,1.07070,1.57081,0.11675,-0.12762,-0.48152,0.03416,,,,,,,,,,,,,,,,,,,,,,,,,,0,0,0,0,0
4.4457,1783967334.5004,1,1,1.0000,-0.0000,1.42241,-0.00882,-2.63267,1.07071,1.57081,0.11675,-0.12762,-0.48151,0.03414,,,,,,,,,,,,,,,,,,,,,,,,,,0,0,0,0,0
4.4460,1783967334.5007,1,1,1.0000,-0.0000,1.42241,-0.00882,-2.63267,1.07071,1.57081,0.11675,-0.12762,-0.48151,0.03414,,,,,,,,,,,,,,,,,,,,,,,,,,0,0,0,0,0
4.4478,1783967334.5025,1,1,1.0000,-0.0000,1.42241,-0.00882,-2.63267,1.07071,1.57081,0.11675,-0.12762,-0.48151,0.03414,,,,,,,,,,,,,,,,,,,,,,,,,,0,0,0,0,0
4.4482,1783967334.5029,1,1,1.0000,-0.0000,1.42241,-0.00882,-2.63267,1.07071,1.57081,0.11675,-0.12762,-0.48151,0.03414,,,,,,,,,,,,,,,,,,,,,,,,,,0,0,0,0,0
4.4550,1783967334.5097,1,1,1.0000,-0.0000,1.42241,-0.00882,-2.63267,1.07072,1.57081,0.11675,-0.12762,-0.48151,0.03414,,,,,,,,,,,,,,,,,,,,,,,,,,0,0,0,0,0
4.4563,1783967334.5111,1,1,1.0000,-0.0000,1.42241,-0.00882,-2.63267,1.07072,1.57081,0.11675,-0.12762,-0.48151,0.03414,,,,,,,,,,,,,,,,,,,,,,,,,,0,0,0,0,0
4.4566,1783967334.5114,1,1,1.0000,-0.0000,1.42241,-0.00882,-2.63267,1.07072,1.57081,0.11675,-0.12762,-0.48151,0.03414,,,,,,,,,,,,,,,,,,,,,,,,,,0,0,0,0,0
4.4614,1783967334.5161,1,1,1.0000,-0.0000,1.42241,-0.00885,-2.63269,1.07075,1.57081,0.11675,-0.12762,-0.48150,0.03413,,,,,,,,,,,,,,,,,,,,,,,,,,0,0,0,0,0
4.4617,1783967334.5164,1,1,1.0000,-0.0000,1.42241,-0.00885,-2.63269,1.07075,1.57081,0.11675,-0.12762,-0.48150,0.03413,,,,,,,,,,,,,,,,,,,,,,,,,,0,0,0,0,0
4.4640,1783967334.5188,1,1,1.0000,-0.0000,1.42241,-0.00885,-2.63269,1.07075,1.57081,0.11675,-0.12762,-0.48150,0.03413,,,,,,,,,,,,,,,,,,,,,,,,,,0,0,0,0,0
4.4644,1783967334.5191,1,1,1.0000,-0.0000,1.42241,-0.00885,-2.63269,1.07075,1.57081,0.11675,-0.12762,-0.48150,0.03413,,,,,,,,,,,,,,,,,,,,,,,,,,0,0,0,0,0
4.4761,1783967334.5308,1,1,1.0000,-0.0000,1.42241,-0.00893,-2.63274,1.07084,1.57081,0.11675,-0.12762,-0.48148,0.03409,,,,,,,,,,,,,,,,,,,,,,,,,,0,0,0,0,0
4.4867,1783967334.5415,1,1,1.0000,-0.0000,1.42241,-0.00900,-2.63277,1.07092,1.57081,0.11675,-0.12763,-0.48146,0.03405,,,,,,,,,,,,,,,,,,,,,,,,,,0,0,0,0,0
4.4969,1783967334.5517,1,1,1.0000,-0.0000,1.42241,-0.00901,-2.63278,1.07094,1.57081,0.11675,-0.12763,-0.48146,0.03405,,,,,,,,,,,,,,,,,,,,,,,,,,0,0,0,0,0
4.5226,1783967334.5774,1,1,1.0000,-0.0000,1.42241,-0.00918,-2.63282,1.07115,1.57081,0.11675,-0.12763,-0.48145,0.03398,,,,,,,,,,,,,,,,,,,,,,,,,,0,0,0,0,0
4.5239,1783967334.5786,1,1,1.0000,-0.0000,1.42241,-0.00918,-2.63282,1.07115,1.57081,0.11675,-0.12763,-0.48145,0.03398,,,,,,,,,,,,,,,,,,,,,,,,,,0,0,0,0,0
4.5241,1783967334.5789,1,1,1.0000,-0.0000,1.42241,-0.00918,-2.63282,1.07115,1.57081,0.11675,-0.12763,-0.48145,0.03398,,,,,,,,,,,,,,,,,,,,,,,,,,0,0,0,0,0
4.5247,1783967334.5794,1,1,1.0000,-0.0000,1.42241,-0.00918,-2.63282,1.07115,1.57081,0.11675,-0.12763,-0.48145,0.03398,,,,,,,,,,,,,,,,,,,,,,,,,,0,0,0,0,0
4.5250,1783967334.5798,1,1,1.0000,-0.0000,1.42241,-0.00918,-2.63282,1.07115,1.57081,0.11675,-0.12763,-0.48145,0.03398,,,,,,,,,,,,,,,,,,,,,,,,,,0,0,0,0,0
4.5358,1783967334.5905,1,1,1.0000,-0.0000,1.42241,-0.00926,-2.63283,1.07124,1.57081,0.11675,-0.12763,-0.48145,0.03396,,,,,,,,,,,,,,,,,,,,,,,,,,0,0,0,0,0
4.5462,1783967334.6009,1,1,1.0000,-0.0000,1.42241,-0.00931,-2.63284,1.07130,1.57081,0.11675,-0.12763,-0.48146,0.03394,,,,,,,,,,,,,,,,,,,,,,,,,,0,0,0,0,0
4.5568,1783967334.6116,1,1,1.0000,-0.0000,1.42241,-0.00936,-2.63285,1.07135,1.57081,0.11675,-0.12763,-0.48146,0.03393,,,,,,,,,,,,,,,,,,,,,,,,,,0,0,0,0,0
4.5574,1783967334.6122,1,1,1.0000,-0.0000,1.42241,-0.00939,-2.63286,1.07140,1.57081,0.11675,-0.12763,-0.48146,0.03392,,,,,,,,,,,,,,,,,,,,,,,,,,0,0,0,0,0
4.5661,1783967334.6209,1,1,1.0000,-0.0000,1.42241,-0.00948,-2.63287,1.07151,1.57081,0.11675,-0.12762,-0.48146,0.03389,,,,,,,,,,,,,,,,,,,,,,,,,,0,0,0,0,0
4.5754,1783967334.6301,1,1,1.0000,-0.0000,1.42241,-0.00959,-2.63289,1.07163,1.57081,0.11675,-0.12762,-0.48147,0.03386,,,,,,,,,,,,,,,,,,,,,,,,,,0,0,0,0,0
4.5915,1783967334.6462,1,1,1.0000,-0.0000,1.42241,-0.00979,-2.63292,1.07188,1.57081,0.11675,-0.12762,-0.48148,0.03380,,,,,,,,,,,,,,,,,,,,,,,,,,0,0,0,0,0
4.5920,1783967334.6467,1,1,1.0000,-0.0000,1.42241,-0.00979,-2.63292,1.07188,1.57081,0.11675,-0.12762,-0.48148,0.03380,,,,,,,,,,,,,,,,,,,,,,,,,,0,0,0,0,0
4.6124,1783967334.6671,1,1,1.0000,-0.0000,1.42241,-0.00988,-2.63293,1.07199,1.57081,0.11675,-0.12762,-0.48149,0.03377,,,,,,,,,,,,,,,,,,,,,,,,,,0,0,0,0,0
4.6156,1783967334.6703,1,1,1.0000,-0.0000,1.42241,-0.00988,-2.63293,1.07199,1.57081,0.11675,-0.12762,-0.48149,0.03377,,,,,,,,,,,,,,,,,,,,,,,,,,0,0,0,0,0
4.6257,1783967334.6805,1,1,1.0000,-0.0000,1.42241,-0.00988,-2.63293,1.07199,1.57081,0.11675,-0.12762,-0.48149,0.03377,,,,,,,,,,,,,,,,,,,,,,,,,,0,0,0,0,0
4.6261,1783967334.6808,1,1,1.0000,-0.0000,1.42241,-0.00988,-2.63293,1.07199,1.57081,0.11675,-0.12762,-0.48149,0.03377,,,,,,,,,,,,,,,,,,,,,,,,,,0,0,0,0,0
4.6369,1783967334.6917,1,1,1.0000,-0.0000,1.42241,-0.00988,-2.63293,1.07199,1.57081,0.11675,-0.12762,-0.48149,0.03377,,,,,,,,,,,,,,,,,,,,,,,,,,0,0,0,0,0
4.6372,1783967334.6919,1,1,1.0000,-0.0000,1.42241,-0.00988,-2.63293,1.07199,1.57081,0.11675,-0.12762,-0.48149,0.03377,,,,,,,,,,,,,,,,,,,,,,,,,,0,0,0,0,0
4.6484,1783967334.7032,1,1,1.0000,-0.0000,1.42241,-0.00988,-2.63293,1.07199,1.57081,0.11675,-0.12762,-0.48149,0.03377,,,,,,,,,,,,,,,,,,,,,,,,,,0,0,0,0,0
4.6558,1783967334.7106,1,1,1.0000,-0.0000,1.42241,-0.00988,-2.63293,1.07199,1.57081,0.11675,-0.12762,-0.48149,0.03377,,,,,,,,,,,,,,,,,,,,,,,,,,0,0,0,0,0
4.6658,1783967334.7206,1,1,1.0000,-0.0000,1.42241,-0.00988,-2.63293,1.07199,1.57081,0.11675,-0.12762,-0.48149,0.03377,,,,,,,,,,,,,,,,,,,,,,,,,,0,0,0,0,0
4.6738,1783967334.7285,1,1,1.0000,-0.0000,1.42241,-0.00988,-2.63293,1.07199,1.57081,0.11675,-0.12762,-0.48149,0.03377,,,,,,,,,,,,,,,,,,,,,,,,,,0,0,0,0,0
4.6743,1783967334.7290,1,1,1.0000,-0.0000,1.42241,-0.00988,-2.63293,1.07199,1.57081,0.11675,-0.12762,-0.48149,0.03377,,,,,,,,,,,,,,,,,,,,,,,,,,0,0,0,0,0
4.6881,1783967334.7428,1,1,1.0000,-0.0000,1.42241,-0.00988,-2.63293,1.07199,1.57081,0.11675,-0.12762,-0.48149,0.03377,,,,,,,,,,,,,,,,,,,,,,,,,,0,0,0,0,0
4.7059,1783967334.7607,1,1,1.0000,-0.0000,1.42241,-0.00988,-2.63293,1.07199,1.57081,0.11675,-0.12762,-0.48149,0.03377,,,,,,,,,,,,,,,,,,,,,,,,,,0,0,0,0,0
4.7065,1783967334.7612,1,1,1.0000,-0.0000,1.42241,-0.00988,-2.63293,1.07199,1.57081,0.11675,-0.12762,-0.48149,0.03377,,,,,,,,,,,,,,,,,,,,,,,,,,0,0,0,0,0
4.7141,1783967334.7688,1,1,1.0000,-0.0000,1.42241,-0.00988,-2.63293,1.07199,1.57081,0.11675,-0.12762,-0.48149,0.03377,,,,,,,,,,,,,,,,,,,,,,,,,,0,0,0,0,0
4.7144,1783967334.7691,1,1,1.0000,-0.0000,1.42241,-0.00988,-2.63293,1.07199,1.57081,0.11675,-0.12762,-0.48149,0.03377,,,,,,,,,,,,,,,,,,,,,,,,,,0,0,0,0,0
4.7298,1783967334.7845,1,1,1.0000,-0.0000,1.42241,-0.00988,-2.63293,1.07199,1.57081,0.11675,-0.12762,-0.48149,0.03377,,,,,,,,,,,,,,,,,,,,,,,,,,0,0,0,0,0
4.7301,1783967334.7848,1,1,1.0000,-0.0000,1.42241,-0.00988,-2.63293,1.07199,1.57081,0.11675,-0.12762,-0.48149,0.03377,,,,,,,,,,,,,,,,,,,,,,,,,,0,0,0,0,0
4.7349,1783967334.7897,1,1,1.0000,-0.0000,1.42241,-0.00988,-2.63293,1.07199,1.57081,0.11675,-0.12762,-0.48149,0.03377,,,,,,,,,,,,,,,,,,,,,,,,,,0,0,0,0,0
4.7352,1783967334.7900,1,1,1.0000,-0.0000,1.42241,-0.00988,-2.63293,1.07199,1.57081,0.11675,-0.12762,-0.48149,0.03377,,,,,,,,,,,,,,,,,,,,,,,,,,0,0,0,0,0
4.7441,1783967334.7988,1,1,1.0000,-0.0000,1.42241,-0.00988,-2.63293,1.07199,1.57081,0.11675,-0.12762,-0.48149,0.03377,,,,,,,,,,,,,,,,,,,,,,,,,,0,0,0,0,0
4.7554,1783967334.8101,1,1,1.0000,-0.0000,1.42241,-0.00988,-2.63293,1.07199,1.57081,0.11675,-0.12762,-0.48149,0.03377,,,,,,,,,,,,,,,,,,,,,,,,,,0,0,0,0,0
4.7702,1783967334.8250,1,1,1.0000,-0.0000,1.42241,-0.00988,-2.63293,1.07199,1.57081,0.11675,-0.12762,-0.48149,0.03377,,,,,,,,,,,,,,,,,,,,,,,,,,0,0,0,0,0
4.7751,1783967334.8299,1,1,1.0000,-0.0000,1.42241,-0.00988,-2.63293,1.07199,1.57081,0.11675,-0.12762,-0.48149,0.03377,,,,,,,,,,,,,,,,,,,,,,,,,,0,0,0,0,0
4.7920,1783967334.8467,1,1,1.0000,-0.0000,1.42241,-0.00988,-2.63293,1.07199,1.57081,0.11675,-0.12762,-0.48149,0.03377,,,,,,,,,,,,,,,,,,,,,,,,,,0,0,0,0,0
4.7977,1783967334.8525,1,1,1.0000,-0.0000,1.42241,-0.00988,-2.63293,1.07199,1.57081,0.11675,-0.12762,-0.48149,0.03377,,,,,,,,,,,,,,,,,,,,,,,,,,0,0,0,0,0
4.8155,1783967334.8702,1,1,1.0000,-0.0000,1.42241,-0.00988,-2.63293,1.07199,1.57081,0.11675,-0.12762,-0.48149,0.03377,,,,,,,,,,,,,,,,,,,,,,,,,,0,0,0,0,0
4.8160,1783967334.8708,1,1,1.0000,-0.0000,1.42241,-0.00988,-2.63293,1.07199,1.57081,0.11675,-0.12762,-0.48149,0.03377,,,,,,,,,,,,,,,,,,,,,,,,,,0,0,0,0,0
4.8297,1783967334.8844,1,1,1.0000,-0.0000,1.42241,-0.00990,-2.63292,1.07202,1.57081,0.11675,-0.12762,-0.48149,0.03377,,,,,,,,,,,,,,,,,,,,,,,,,,0,0,0,0,0
4.8341,1783967334.8888,1,1,1.0000,-0.0000,1.42241,-0.00991,-2.63292,1.07204,1.57081,0.11675,-0.12762,-0.48150,0.03377,,,,,,,,,,,,,,,,,,,,,,,,,,0,0,0,0,0
4.8626,1783967334.9173,1,1,1.0000,-0.0000,1.42241,-0.00995,-2.63295,1.07210,1.57081,0.11675,-0.12762,-0.48149,0.03375,,,,,,,,,,,,,,,,,,,,,,,,,,0,0,0,0,0
4.8660,1783967334.9207,1,1,1.0000,-0.0000,1.42241,-0.00997,-2.63296,1.07212,1.57081,0.11675,-0.12762,-0.48148,0.03374,,,,,,,,,,,,,,,,,,,,,,,,,,0,0,0,0,0
4.8697,1783967334.9245,1,1,1.0000,-0.0000,1.42241,-0.00999,-2.63297,1.07214,1.57081,0.11675,-0.12762,-0.48147,0.03373,,,,,,,,,,,,,,,,,,,,,,,,,,0,0,0,0,0
4.8700,1783967334.9248,1,1,1.0000,-0.0000,1.42241,-0.00999,-2.63297,1.07214,1.57081,0.11675,-0.12762,-0.48147,0.03373,,,,,,,,,,,,,,,,,,,,,,,,,,0,0,0,0,0
4.8770,1783967334.9317,1,1,1.0000,-0.0000,1.42240,-0.01001,-2.63299,1.07216,1.57081,0.11675,-0.12762,-0.48146,0.03371,,,,,,,,,,,,,,,,,,,,,,,,,,0,0,0,0,0
4.9108,1783967334.9656,1,1,1.0000,-0.0000,1.42240,-0.01010,-2.63303,1.07227,1.57081,0.11675,-0.12763,-0.48145,0.03367,,,,,,,,,,,,,,,,,,,,,,,,,,0,0,0,0,0
4.9176,1783967334.9724,1,1,1.0000,-0.0000,1.42240,-0.01016,-2.63304,1.07234,1.57081,0.11675,-0.12763,-0.48145,0.03365,,,,,,,,,,,,,,,,,,,,,,,,,,0,0,0,0,0
4.9183,1783967334.9730,1,1,1.0000,-0.0000,1.42240,-0.01016,-2.63304,1.07234,1.57081,0.11675,-0.12763,-0.48145,0.03365,,,,,,,,,,,,,,,,,,,,,,,,,,0,0,0,0,0
4.9186,1783967334.9733,1,1,1.0000,-0.0000,1.42240,-0.01016,-2.63304,1.07234,1.57081,0.11675,-0.12763,-0.48145,0.03365,,,,,,,,,,,,,,,,,,,,,,,,,,0,0,0,0,0
4.9197,1783967334.9744,1,1,1.0000,-0.0000,1.42240,-0.01016,-2.63304,1.07234,1.57081,0.11675,-0.12763,-0.48145,0.03365,,,,,,,,,,,,,,,,,,,,,,,,,,0,0,0,0,0
4.9199,1783967334.9747,1,1,1.0000,-0.0000,1.42240,-0.01016,-2.63304,1.07234,1.57081,0.11675,-0.12763,-0.48145,0.03365,,,,,,,,,,,,,,,,,,,,,,,,,,0,0,0,0,0
4.9362,1783967334.9910,1,1,1.0000,-0.0000,1.42240,-0.01029,-2.63307,1.07250,1.57081,0.11675,-0.12763,-0.48144,0.03361,,,,,,,,,,,,,,,,,,,,,,,,,,0,0,0,0,0
4.9390,1783967334.9937,1,1,1.0000,-0.0000,1.42240,-0.01030,-2.63307,1.07250,1.57081,0.11675,-0.12763,-0.48144,0.03360,,,,,,,,,,,,,,,,,,,,,,,,,,0,0,0,0,0
4.9445,1783967334.9992,1,1,1.0000,-0.0000,1.42240,-0.01032,-2.63308,1.07252,1.57081,0.11675,-0.12763,-0.48145,0.03360,,,,,,,,,,,,,,,,,,,,,,,,,,0,0,0,0,0
4.9564,1783967335.0111,1,1,1.0000,-0.0000,1.42240,-0.01042,-2.63310,1.07265,1.57081,0.11675,-0.12762,-0.48145,0.03356,,,,,,,,,,,,,,,,,,,,,,,,,,0,0,0,0,0
4.9659,1783967335.0206,1,1,1.0000,-0.0000,1.42240,-0.01052,-2.63311,1.07277,1.57081,0.11675,-0.12762,-0.48145,0.03353,,,,,,,,,,,,,,,,,,,,,,,,,,0,0,0,0,0
4.9661,1783967335.0209,1,1,1.0000,-0.0000,1.42240,-0.01052,-2.63311,1.07277,1.57081,0.11675,-0.12762,-0.48145,0.03353,,,,,,,,,,,,,,,,,,,,,,,,,,0,0,0,0,0
4.9752,1783967335.0299,1,1,1.0000,-0.0000,1.42240,-0.01054,-2.63312,1.07279,1.57081,0.11675,-0.12762,-0.48145,0.03353,,,,,,,,,,,,,,,,,,,,,,,,,,0,0,0,0,0
4.9875,1783967335.0422,1,1,1.0000,-0.0000,1.42240,-0.01064,-2.63313,1.07291,1.57081,0.11675,-0.12762,-0.48146,0.03350,,,,,,,,,,,,,,,,,,,,,,,,,,0,0,0,0,0
5.0027,1783967335.0575,1,1,1.0000,-0.0000,1.42240,-0.01083,-2.63316,1.07313,1.57081,0.11675,-0.12762,-0.48147,0.03344,,,,,,,,,,,,,,,,,,,,,,,,,,0,0,0,0,0
5.0032,1783967335.0579,1,1,1.0000,-0.0000,1.42240,-0.01083,-2.63316,1.07313,1.57081,0.11675,-0.12762,-0.48147,0.03344,,,,,,,,,,,,,,,,,,,,,,,,,,0,0,0,0,0
5.0094,1783967335.0641,1,1,1.0000,-0.0000,1.42240,-0.01088,-2.63316,1.07319,1.57081,0.11675,-0.12762,-0.48147,0.03342,,,,,,,,,,,,,,,,,,,,,,,,,,0,0,0,0,0
5.0102,1783967335.0649,1,1,1.0000,-0.0000,1.42240,-0.01093,-2.63317,1.07325,1.57081,0.11675,-0.12762,-0.48147,0.03341,,,,,,,,,,,,,,,,,,,,,,,,,,0,0,0,0,0
5.0220,1783967335.0767,1,1,1.0000,-0.0000,1.42240,-0.01104,-2.63318,1.07340,1.57081,0.11675,-0.12762,-0.48148,0.03337,,,,,,,,,,,,,,,,,,,,,,,,,,0,0,0,0,0
5.0224,1783967335.0771,1,1,1.0000,-0.0000,1.42240,-0.01104,-2.63318,1.07340,1.57081,0.11675,-0.12762,-0.48148,0.03337,,,,,,,,,,,,,,,,,,,,,,,,,,0,0,0,0,0
5.0261,1783967335.0808,1,1,1.0000,-0.0000,1.42240,-0.01107,-2.63319,1.07343,1.57081,0.11675,-0.12762,-0.48148,0.03337,,,,,,,,,,,,,,,,,,,,,,,,,,0,0,0,0,0
5.0382,1783967335.0929,1,1,1.0000,-0.0000,1.42240,-0.01107,-2.63319,1.07343,1.57081,0.11675,-0.12762,-0.48148,0.03337,,,,,,,,,,,,,,,,,,,,,,,,,,0,0,0,0,0
5.0386,1783967335.0933,1,1,1.0000,-0.0000,1.42240,-0.01107,-2.63319,1.07343,1.57081,0.11675,-0.12762,-0.48148,0.03337,,,,,,,,,,,,,,,,,,,,,,,,,,0,0,0,0,0
5.0444,1783967335.0991,1,1,1.0000,-0.0000,1.42240,-0.01107,-2.63319,1.07343,1.57081,0.11675,-0.12762,-0.48148,0.03337,,,,,,,,,,,,,,,,,,,,,,,,,,0,0,0,0,0
5.0572,1783967335.1119,1,1,1.0000,-0.0000,1.42240,-0.01107,-2.63319,1.07343,1.57081,0.11675,-0.12762,-0.48148,0.03337,,,,,,,,,,,,,,,,,,,,,,,,,,0,0,0,0,0
5.0675,1783967335.1223,1,1,1.0000,-0.0000,1.42240,-0.01107,-2.63319,1.07343,1.57081,0.11675,-0.12762,-0.48148,0.03337,,,,,,,,,,,,,,,,,,,,,,,,,,0,0,0,0,0
5.0767,1783967335.1314,1,1,1.0000,-0.0000,1.42240,-0.01107,-2.63319,1.07343,1.57081,0.11675,-0.12762,-0.48148,0.03337,,,,,,,,,,,,,,,,,,,,,,,,,,0,0,0,0,0
5.0851,1783967335.1399,1,1,1.0000,-0.0000,1.42240,-0.01107,-2.63319,1.07343,1.57081,0.11675,-0.12762,-0.48148,0.03337,,,,,,,,,,,,,,,,,,,,,,,,,,0,0,0,0,0
5.0859,1783967335.1406,1,1,1.0000,-0.0000,1.42240,-0.01107,-2.63319,1.07343,1.57081,0.11675,-0.12762,-0.48148,0.03337,,,,,,,,,,,,,,,,,,,,,,,,,,0,0,0,0,0
5.1013,1783967335.1561,1,1,1.0000,-0.0000,1.42240,-0.01107,-2.63319,1.07343,1.57081,0.11675,-0.12762,-0.48148,0.03337,,,,,,,,,,,,,,,,,,,,,,,,,,0,0,0,0,0
5.1192,1783967335.1739,1,1,1.0000,-0.0000,1.42240,-0.01107,-2.63319,1.07343,1.57081,0.11675,-0.12762,-0.48148,0.03337,,,,,,,,,,,,,,,,,,,,,,,,,,0,0,0,0,0
5.1197,1783967335.1744,1,1,1.0000,-0.0000,1.42240,-0.01107,-2.63319,1.07343,1.57081,0.11675,-0.12762,-0.48148,0.03337,,,,,,,,,,,,,,,,,,,,,,,,,,0,0,0,0,0
5.1207,1783967335.1754,1,1,1.0000,-0.0000,1.42240,-0.01107,-2.63319,1.07343,1.57081,0.11675,-0.12762,-0.48148,0.03337,,,,,,,,,,,,,,,,,,,,,,,,,,0,0,0,0,0
5.1209,1783967335.1756,1,1,1.0000,-0.0000,1.42240,-0.01107,-2.63319,1.07343,1.57081,0.11675,-0.12762,-0.48148,0.03337,,,,,,,,,,,,,,,,,,,,,,,,,,0,0,0,0,0
5.1392,1783967335.1940,1,1,1.0000,-0.0000,1.42240,-0.01107,-2.63319,1.07343,1.57081,0.11675,-0.12762,-0.48148,0.03337,,,,,,,,,,,,,,,,,,,,,,,,,,0,0,0,0,0
