Martins-Lucaas/twinforge/sensors/Data/20260704_153454__samples.csv
t_rel_s,t_unix,cycle,phase,setpoint_n,force_net_n,q1,q2,q3,q4,q5,q6,tcp_x,tcp_y,tcp_z,taxel_0,taxel_1,taxel_2,taxel_3,taxel_4,taxel_5,taxel_6,taxel_7,taxel_8,taxel_9,taxel_10,taxel_11,taxel_12,taxel_13,taxel_14,taxel_15,taxel_16,taxel_17,taxel_18,taxel_19,taxel_20,taxel_21,taxel_22,taxel_23,taxel_24,n_RA,n_SA,cn_mm,cn_ra,cn_sa
0.0013,1783190094.3423,0,-1,3.0000,0.0000,1.44682,0.23328,-2.77748,0.97337,1.57080,0.00000,-0.14512,-0.38003,0.04653,,,,,,,,,,,,,,,,,,,,,,,,,,0,0,0,0,0
0.0113,1783190094.3522,1,0,3.0000,0.0000,1.44682,0.23328,-2.77748,0.97337,1.57080,0.00000,-0.14512,-0.38003,0.04653,,,,,,,,,,,,,,,,,,,,,,,,,,0,0,0,0,0
0.0188,1783190094.3597,1,0,3.0000,0.0000,1.44682,0.23328,-2.77748,0.97337,1.57080,0.00000,-0.14512,-0.38003,0.04653,,,,,,,,,,,,,,,,,,,,,,,,,,0,0,0,0,0
0.0321,1783190094.3731,1,0,3.0000,0.0000,1.44682,0.23328,-2.77748,0.97337,1.57080,0.00000,-0.14512,-0.38003,0.04653,,,,,,,,,,,,,,,,,,,,,,,,,,0,0,0,0,0
0.0407,1783190094.3817,1,0,3.0000,0.0000,1.44682,0.23328,-2.77748,0.97337,1.57080,0.00000,-0.14512,-0.38003,0.04653,,,,,,,,,,,,,,,,,,,,,,,,,,0,0,0,0,0
0.0411,1783190094.3821,1,0,3.0000,0.0000,1.44682,0.23328,-2.77748,0.97337,1.57080,0.00000,-0.14512,-0.38003,0.04653,,,,,,,,,,,,,,,,,,,,,,,,,,0,0,0,0,0
0.0520,1783190094.3930,1,0,3.0000,0.0000,1.44682,0.23328,-2.77748,0.97337,1.57080,0.00000,-0.14512,-0.38003,0.04653,,,,,,,,,,,,,,,,,,,,,,,,,,0,0,0,0,0
0.0591,1783190094.4001,1,0,3.0000,0.0000,1.44682,0.23328,-2.77748,0.97337,1.57080,0.00000,-0.14512,-0.38003,0.04653,,,,,,,,,,,,,,,,,,,,,,,,,,0,0,0,0,0
0.0688,1783190094.4098,1,0,3.0000,0.0000,1.44682,0.23328,-2.77748,0.97337,1.57080,0.00000,-0.14512,-0.38003,0.04653,,,,,,,,,,,,,,,,,,,,,,,,,,0,0,0,0,0
0.0810,1783190094.4220,1,0,3.0000,0.0000,1.44682,0.23328,-2.77748,0.97337,1.57080,0.00000,-0.14512,-0.38003,0.04653,,,,,,,,,,,,,,,,,,,,,,,,,,0,0,0,0,0
0.0890,1783190094.4300,1,0,3.0000,0.0000,1.44682,0.23328,-2.77748,0.97337,1.57080,0.00000,-0.14512,-0.38003,0.04653,,,,,,,,,,,,,,,,,,,,,,,,,,0,0,0,0,0
0.1003,1783190094.4413,1,0,3.0000,0.0000,1.44682,0.23328,-2.77748,0.97337,1.57080,0.00000,-0.14512,-0.38003,0.04653,,,,,,,,,,,,,,,,,,,,,,,,,,0,0,0,0,0
0.1007,1783190094.4416,1,0,3.0000,0.0000,1.44682,0.23328,-2.77748,0.97337,1.57080,0.00000,-0.14512,-0.38003,0.04653,,,,,,,,,,,,,,,,,,,,,,,,,,0,0,0,0,0
0.1135,1783190094.4544,1,0,3.0000,0.0000,1.44682,0.23328,-2.77748,0.97337,1.57080,0.00000,-0.14512,-0.38003,0.04653,,,,,,,,,,,,,,,,,,,,,,,,,,0,0,0,0,0
0.1202,1783190094.4611,1,0,3.0000,0.0000,1.44682,0.23328,-2.77748,0.97337,1.57080,0.00000,-0.14512,-0.38003,0.04653,,,,,,,,,,,,,,,,,,,,,,,,,,0,0,0,0,0
0.1331,1783190094.4741,1,0,3.0000,0.0000,1.44682,0.23328,-2.77748,0.97337,1.57080,0.00000,-0.14512,-0.38003,0.04653,,,,,,,,,,,,,,,,,,,,,,,,,,0,0,0,0,0
0.1389,1783190094.4798,1,0,3.0000,0.0000,1.44682,0.23328,-2.77748,0.97337,1.57080,0.00000,-0.14512,-0.38003,0.04653,,,,,,,,,,,,,,,,,,,,,,,,,,0,0,0,0,0
0.1393,1783190094.4803,1,0,3.0000,0.0000,1.44682,0.23328,-2.77748,0.97337,1.57080,0.00000,-0.14512,-0.38003,0.04653,,,,,,,,,,,,,,,,,,,,,,,,,,0,0,0,0,0
0.1541,1783190094.4951,1,0,3.0000,0.0000,1.44682,0.23328,-2.77748,0.97337,1.57080,0.00000,-0.14512,-0.38003,0.04653,,,,,,,,,,,,,,,,,,,,,,,,,,0,0,0,0,0
0.1607,1783190094.5017,1,0,3.0000,0.0000,1.44682,0.23328,-2.77748,0.97337,1.57080,0.00000,-0.14512,-0.38003,0.04653,,,,,,,,,,,,,,,,,,,,,,,,,,0,0,0,0,0
0.1711,1783190094.5121,1,0,3.0000,0.0000,1.44682,0.23328,-2.77748,0.97337,1.57080,0.00000,-0.14512,-0.38003,0.04653,,,,,,,,,,,,,,,,,,,,,,,,,,0,0,0,0,0
0.1714,1783190094.5124,1,0,3.0000,0.0000,1.44682,0.23328,-2.77748,0.97337,1.57080,0.00000,-0.14512,-0.38003,0.04653,,,,,,,,,,,,,,,,,,,,,,,,,,0,0,0,0,0
0.1801,1783190094.5211,1,0,3.0000,0.0000,1.44682,0.23328,-2.77748,0.97337,1.57080,0.00000,-0.14512,-0.38003,0.04653,,,,,,,,,,,,,,,,,,,,,,,,,,0,0,0,0,0
0.1911,1783190094.5321,1,0,3.0000,0.0000,1.44682,0.23328,-2.77748,0.97337,1.57080,0.00000,-0.14512,-0.38003,0.04653,,,,,,,,,,,,,,,,,,,,,,,,,,0,0,0,0,0
0.2040,1783190094.5450,1,0,3.0000,0.0000,1.44682,0.23328,-2.77748,0.97337,1.57080,0.00000,-0.14512,-0.38003,0.04653,,,,,,,,,,,,,,,,,,,,,,,,,,0,0,0,0,0
0.2162,1783190094.5572,1,0,3.0000,0.0000,1.44682,0.23328,-2.77748,0.97337,1.57080,0.00000,-0.14512,-0.38003,0.04653,,,,,,,,,,,,,,,,,,,,,,,,,,0,0,0,0,0
0.2208,1783190094.5617,1,0,3.0000,0.0000,1.44682,0.23328,-2.77748,0.97337,1.57080,0.00000,-0.14512,-0.38003,0.04653,,,,,,,,,,,,,,,,,,,,,,,,,,0,0,0,0,0
0.2364,1783190094.5773,1,0,3.0000,0.0000,1.44682,0.23328,-2.77748,0.97337,1.57080,0.00000,-0.14512,-0.38003,0.04653,,,,,,,,,,,,,,,,,,,,,,,,,,0,0,0,0,0
0.2367,1783190094.5777,1,0,3.0000,0.0000,1.44682,0.23328,-2.77748,0.97337,1.57080,0.00000,-0.14512,-0.38003,0.04653,,,,,,,,,,,,,,,,,,,,,,,,,,0,0,0,0,0
0.2392,1783190094.5801,1,0,3.0000,0.0000,1.44682,0.23328,-2.77748,0.97337,1.57080,0.00000,-0.14512,-0.38003,0.04653,,,,,,,,,,,,,,,,,,,,,,,,,,0,0,0,0,0
0.2565,1783190094.5975,1,0,3.0000,0.0000,1.44682,0.23328,-2.77748,0.97337,1.57080,0.00000,-0.14512,-0.38003,0.04653,,,,,,,,,,,,,,,,,,,,,,,,,,0,0,0,0,0
0.2626,1783190094.6036,1,0,3.0000,0.0000,1.44682,0.23328,-2.77748,0.97337,1.57080,0.00000,-0.14512,-0.38003,0.04653,,,,,,,,,,,,,,,,,,,,,,,,,,0,0,0,0,0
0.2745,1783190094.6155,1,0,3.0000,0.0000,1.44682,0.23328,-2.77748,0.97337,1.57080,0.00000,-0.14512,-0.38003,0.04653,,,,,,,,,,,,,,,,,,,,,,,,,,0,0,0,0,0
0.2788,1783190094.6197,1,0,3.0000,0.0000,1.44682,0.23328,-2.77748,0.97337,1.57080,0.00000,-0.14512,-0.38003,0.04653,,,,,,,,,,,,,,,,,,,,,,,,,,0,0,0,0,0
0.2790,1783190094.6200,1,0,3.0000,0.0000,1.44682,0.23328,-2.77748,0.97337,1.57080,0.00000,-0.14512,-0.38003,0.04653,,,,,,,,,,,,,,,,,,,,,,,,,,0,0,0,0,0
0.2890,1783190094.6299,1,0,3.0000,0.0000,1.44682,0.23328,-2.77748,0.97337,1.57080,0.00000,-0.14512,-0.38003,0.04653,,,,,,,,,,,,,,,,,,,,,,,,,,0,0,0,0,0
0.3024,1783190094.6434,1,0,3.0000,0.0000,1.44682,0.23328,-2.77748,0.97337,1.57080,0.00000,-0.14512,-0.38003,0.04653,,,,,,,,,,,,,,,,,,,,,,,,,,0,0,0,0,0
0.3098,1783190094.6508,1,0,3.0000,0.0000,1.44682,0.23328,-2.77748,0.97337,1.57080,0.00000,-0.14512,-0.38003,0.04653,,,,,,,,,,,,,,,,,,,,,,,,,,0,0,0,0,0
0.3214,1783190094.6623,1,0,3.0000,0.0000,1.44682,0.23328,-2.77748,0.97337,1.57080,0.00000,-0.14512,-0.38003,0.04653,,,,,,,,,,,,,,,,,,,,,,,,,,0,0,0,0,0
0.3335,1783190094.6745,1,0,3.0000,0.0000,1.44682,0.23328,-2.77748,0.97337,1.57080,0.00000,-0.14512,-0.38003,0.04653,,,,,,,,,,,,,,,,,,,,,,,,,,0,0,0,0,0
0.3393,1783190094.6803,1,0,3.0000,0.0000,1.44682,0.23328,-2.77748,0.97337,1.57080,0.00000,-0.14512,-0.38003,0.04653,,,,,,,,,,,,,,,,,,,,,,,,,,0,0,0,0,0
0.3496,1783190094.6905,1,0,3.0000,0.0000,1.44682,0.23328,-2.77748,0.97337,1.57080,0.00000,-0.14512,-0.38003,0.04653,,,,,,,,,,,,,,,,,,,,,,,,,,0,0,0,0,0
0.3630,1783190094.7040,1,0,3.0000,0.0000,1.44682,0.23328,-2.77748,0.97337,1.57080,0.00000,-0.14512,-0.38003,0.04653,,,,,,,,,,,,,,,,,,,,,,,,,,0,0,0,0,0
0.3633,1783190094.7043,1,0,3.0000,0.0000,1.44682,0.23328,-2.77748,0.97337,1.57080,0.00000,-0.14512,-0.38003,0.04653,,,,,,,,,,,,,,,,,,,,,,,,,,0,0,0,0,0
0.3923,1783190094.7332,1,0,3.0000,0.0000,1.44682,0.23328,-2.77748,0.97337,1.57080,0.00000,-0.14512,-0.38003,0.04653,,,,,,,,,,,,,,,,,,,,,,,,,,0,0,0,0,0
0.4134,1783190094.7544,1,0,3.0000,0.0000,1.44682,0.23328,-2.77748,0.97337,1.57080,0.00000,-0.14512,-0.38003,0.04653,,,,,,,,,,,,,,,,,,,,,,,,,,0,0,0,0,0
0.4137,1783190094.7547,1,0,3.0000,0.0000,1.44682,0.23328,-2.77748,0.97337,1.57080,0.00000,-0.14512,-0.38003,0.04653,,,,,,,,,,,,,,,,,,,,,,,,,,0,0,0,0,0
0.4329,1783190094.7739,1,0,3.0000,0.0000,1.44682,0.23328,-2.77748,0.97337,1.57080,0.00000,-0.14512,-0.38003,0.04653,,,,,,,,,,,,,,,,,,,,,,,,,,0,0,0,0,0
0.4333,1783190094.7743,1,0,3.0000,0.0000,1.44682,0.23328,-2.77748,0.97337,1.57080,0.00000,-0.14512,-0.38003,0.04653,,,,,,,,,,,,,,,,,,,,,,,,,,0,0,0,0,0
0.4368,1783190094.7778,1,0,3.0000,0.0000,1.44682,0.23328,-2.77748,0.97337,1.57080,0.00000,-0.14512,-0.38003,0.04653,,,,,,,,,,,,,,,,,,,,,,,,,,0,0,0,0,0
0.4438,1783190094.7848,1,0,3.0000,0.0000,1.44682,0.23328,-2.77748,0.97337,1.57080,0.00000,-0.14512,-0.38003,0.04653,,,,,,,,,,,,,,,,,,,,,,,,,,0,0,0,0,0
0.4510,1783190094.7920,1,0,3.0000,0.0000,1.44682,0.23328,-2.77748,0.97337,1.57080,0.00000,-0.14512,-0.38003,0.04653,,,,,,,,,,,,,,,,,,,,,,,,,,0,0,0,0,0
0.4735,1783190094.8144,1,0,3.0000,0.0000,1.44682,0.23328,-2.77748,0.97337,1.57080,0.00000,-0.14512,-0.38003,0.04653,,,,,,,,,,,,,,,,,,,,,,,,,,0,0,0,0,0
0.4738,1783190094.8147,1,0,3.0000,0.0000,1.44682,0.23328,-2.77748,0.97337,1.57080,0.00000,-0.14512,-0.38003,0.04653,,,,,,,,,,,,,,,,,,,,,,,,,,0,0,0,0,0
0.4841,1783190094.8251,1,0,3.0000,0.0000,1.44682,0.23328,-2.77748,0.97337,1.57080,0.00000,-0.14512,-0.38003,0.04653,,,,,,,,,,,,,,,,,,,,,,,,,,0,0,0,0,0
0.4945,1783190094.8355,1,0,3.0000,0.0000,1.44682,0.23328,-2.77748,0.97337,1.57080,0.00000,-0.14512,-0.38003,0.04653,,,,,,,,,,,,,,,,,,,,,,,,,,0,0,0,0,0
0.5417,1783190094.8826,1,0,3.0000,0.0000,1.44682,0.23328,-2.77748,0.97337,1.57080,0.00000,-0.14512,-0.38003,0.04653,,,,,,,,,,,,,,,,,,,,,,,,,,0,0,0,0,0
0.5420,1783190094.8829,1,0,3.0000,0.0000,1.44682,0.23328,-2.77748,0.97337,1.57080,0.00000,-0.14512,-0.38003,0.04653,,,,,,,,,,,,,,,,,,,,,,,,,,0,0,0,0,0
0.5423,1783190094.8833,1,0,3.0000,0.0000,1.44682,0.23328,-2.77748,0.97337,1.57080,0.00000,-0.14512,-0.38003,0.04653,,,,,,,,,,,,,,,,,,,,,,,,,,0,0,0,0,0
0.5531,1783190094.8940,1,0,3.0000,0.0000,1.44682,0.23328,-2.77748,0.97337,1.57080,0.00000,-0.14512,-0.38003,0.04653,,,,,,,,,,,,,,,,,,,,,,,,,,0,0,0,0,0
0.5534,1783190094.8944,1,0,3.0000,0.0000,1.44682,0.23328,-2.77748,0.97337,1.57080,0.00000,-0.14512,-0.38003,0.04653,,,,,,,,,,,,,,,,,,,,,,,,,,0,0,0,0,0
0.5831,1783190094.9241,1,0,3.0000,0.0000,1.44682,0.23328,-2.77748,0.97337,1.57080,0.00000,-0.14512,-0.38003,0.04653,,,,,,,,,,,,,,,,,,,,,,,,,,0,0,0,0,0
0.5834,1783190094.9244,1,0,3.0000,0.0000,1.44682,0.23328,-2.77748,0.97337,1.57080,0.00000,-0.14512,-0.38003,0.04653,,,,,,,,,,,,,,,,,,,,,,,,,,0,0,0,0,0
0.5855,1783190094.9265,1,0,3.0000,0.0000,1.44682,0.23328,-2.77748,0.97337,1.57080,0.00000,-0.14512,-0.38003,0.04653,,,,,,,,,,,,,,,,,,,,,,,,,,0,0,0,0,0
0.5907,1783190094.9317,1,0,3.0000,0.0000,1.44682,0.23328,-2.77748,0.97337,1.57080,0.00000,-0.14512,-0.38003,0.04653,,,,,,,,,,,,,,,,,,,,,,,,,,0,0,0,0,0
0.5994,1783190094.9404,1,0,3.0000,0.0000,1.44682,0.23328,-2.77748,0.97337,1.57080,0.00000,-0.14512,-0.38003,0.04653,,,,,,,,,,,,,,,,,,,,,,,,,,0,0,0,0,0
0.6122,1783190094.9532,1,0,3.0000,0.0000,1.44682,0.23328,-2.77748,0.97337,1.57080,0.00000,-0.14512,-0.38003,0.04653,,,,,,,,,,,,,,,,,,,,,,,,,,0,0,0,0,0
0.6125,1783190094.9535,1,0,3.0000,0.0000,1.44682,0.23328,-2.77748,0.97337,1.57080,0.00000,-0.14512,-0.38003,0.04653,,,,,,,,,,,,,,,,,,,,,,,,,,0,0,0,0,0
0.6190,1783190094.9600,1,0,3.0000,0.0000,1.44682,0.23328,-2.77748,0.97337,1.57080,0.00000,-0.14512,-0.38003,0.04653,,,,,,,,,,,,,,,,,,,,,,,,,,0,0,0,0,0
0.6194,1783190094.9604,1,0,3.0000,0.0000,1.44682,0.23328,-2.77748,0.97337,1.57080,0.00000,-0.14512,-0.38003,0.04653,,,,,,,,,,,,,,,,,,,,,,,,,,0,0,0,0,0
0.6297,1783190094.9707,1,0,3.0000,0.0000,1.44682,0.23328,-2.77748,0.97337,1.57080,0.00000,-0.14512,-0.38003,0.04653,,,,,,,,,,,,,,,,,,,,,,,,,,0,0,0,0,0
0.6413,1783190094.9823,1,0,3.0000,0.0000,1.44682,0.23328,-2.77748,0.97337,1.57080,0.00000,-0.14512,-0.38003,0.04653,,,,,,,,,,,,,,,,,,,,,,,,,,0,0,0,0,0
0.6526,1783190094.9936,1,0,3.0000,0.0000,1.44682,0.23328,-2.77748,0.97337,1.57080,0.00000,-0.14512,-0.38003,0.04653,,,,,,,,,,,,,,,,,,,,,,,,,,0,0,0,0,0
0.6532,1783190094.9941,1,0,3.0000,0.0000,1.44682,0.23328,-2.77748,0.97337,1.57080,0.00000,-0.14512,-0.38003,0.04653,,,,,,,,,,,,,,,,,,,,,,,,,,0,0,0,0,0
0.6727,1783190095.0136,1,0,3.0000,0.0000,1.44682,0.23328,-2.77748,0.97337,1.57080,0.00000,-0.14512,-0.38003,0.04653,,,,,,,,,,,,,,,,,,,,,,,,,,0,0,0,0,0
0.6729,1783190095.0139,1,0,3.0000,0.0000,1.44682,0.23328,-2.77748,0.97337,1.57080,0.00000,-0.14512,-0.38003,0.04653,,,,,,,,,,,,,,,,,,,,,,,,,,0,0,0,0,0
0.6733,1783190095.0142,1,0,3.0000,0.0000,1.44682,0.23328,-2.77748,0.97337,1.57080,0.00000,-0.14512,-0.38003,0.04653,,,,,,,,,,,,,,,,,,,,,,,,,,0,0,0,0,0
0.6793,1783190095.0203,1,0,3.0000,0.0000,1.44682,0.23328,-2.77748,0.97337,1.57080,0.00000,-0.14512,-0.38003,0.04653,,,,,,,,,,,,,,,,,,,,,,,,,,0,0,0,0,0
0.6810,1783190095.0220,1,0,3.0000,0.0000,1.44682,0.23328,-2.77748,0.97337,1.57080,0.00000,-0.14512,-0.38003,0.04653,,,,,,,,,,,,,,,,,,,,,,,,,,0,0,0,0,0
0.6889,1783190095.0299,1,0,3.0000,0.0000,1.44682,0.23328,-2.77748,0.97337,1.57080,0.00000,-0.14512,-0.38003,0.04653,,,,,,,,,,,,,,,,,,,,,,,,,,0,0,0,0,0
0.6893,1783190095.0303,1,0,3.0000,0.0000,1.44682,0.23328,-2.77748,0.97337,1.57080,0.00000,-0.14512,-0.38003,0.04653,,,,,,,,,,,,,,,,,,,,,,,,,,0,0,0,0,0
0.7004,1783190095.0413,1,0,3.0000,0.0000,1.44682,0.23328,-2.77748,0.97337,1.57080,0.00000,-0.14512,-0.38003,0.04653,,,,,,,,,,,,,,,,,,,,,,,,,,0,0,0,0,0
0.7125,1783190095.0535,1,0,3.0000,0.0000,1.44682,0.23328,-2.77748,0.97337,1.57080,0.00000,-0.14512,-0.38003,0.04653,,,,,,,,,,,,,,,,,,,,,,,,,,0,0,0,0,0
0.7221,1783190095.0631,1,0,3.0000,0.0000,1.44682,0.23328,-2.77748,0.97337,1.57080,0.00000,-0.14512,-0.38003,0.04653,,,,,,,,,,,,,,,,,,,,,,,,,,0,0,0,0,0
0.7369,1783190095.0779,1,1,3.0000,0.0000,1.44682,0.23328,-2.77748,0.97337,1.57080,0.00000,-0.14512,-0.38003,0.04653,,,,,,,,,,,,,,,,,,,,,,,,,,0,0,0,0,0
0.7373,1783190095.0783,1,1,3.0000,0.0000,1.44682,0.23328,-2.77748,0.97337,1.57080,0.00000,-0.14512,-0.38003,0.04653,,,,,,,,,,,,,,,,,,,,,,,,,,0,0,0,0,0
0.7420,1783190095.0830,1,1,3.0000,0.0000,1.44682,0.23328,-2.77748,0.97337,1.57080,0.00000,-0.14512,-0.38003,0.04653,,,,,,,,,,,,,,,,,,,,,,,,,,0,0,0,0,0
0.7425,1783190095.0835,1,1,3.0000,0.0000,1.44682,0.23328,-2.77748,0.97337,1.57080,0.00000,-0.14512,-0.38003,0.04653,,,,,,,,,,,,,,,,,,,,,,,,,,0,0,0,0,0
0.7502,1783190095.0911,1,1,3.0000,0.0000,1.44682,0.23328,-2.77748,0.97337,1.57080,0.00000,-0.14512,-0.38003,0.04653,,,,,,,,,,,,,,,,,,,,,,,,,,0,0,0,0,0
0.7688,1783190095.1098,1,1,3.0000,0.0000,1.44682,0.23328,-2.77748,0.97337,1.57080,0.00000,-0.14512,-0.38003,0.04653,,,,,,,,,,,,,,,,,,,,,,,,,,0,0,0,0,0
0.7743,1783190095.1153,1,1,3.0000,0.0000,1.44682,0.23328,-2.77748,0.97337,1.57080,0.00000,-0.14512,-0.38003,0.04653,,,,,,,,,,,,,,,,,,,,,,,,,,0,0,0,0,0
0.7746,1783190095.1156,1,1,3.0000,0.0000,1.44682,0.23328,-2.77748,0.97337,1.57080,0.00000,-0.14512,-0.38003,0.04653,,,,,,,,,,,,,,,,,,,,,,,,,,0,0,0,0,0
0.7804,1783190095.1214,1,1,3.0000,0.0000,1.44682,0.23328,-2.77748,0.97337,1.57080,0.00000,-0.14512,-0.38003,0.04653,,,,,,,,,,,,,,,,,,,,,,,,,,0,0,0,0,0
0.7889,1783190095.1298,1,1,3.0000,0.0000,1.44682,0.23328,-2.77748,0.97337,1.57080,0.00000,-0.14512,-0.38003,0.04653,,,,,,,,,,,,,,,,,,,,,,,,,,0,0,0,0,0
0.8005,1783190095.1415,1,1,3.0000,0.0000,1.44682,0.23328,-2.77748,0.97337,1.57080,0.00000,-0.14512,-0.38003,0.04653,,,,,,,,,,,,,,,,,,,,,,,,,,0,0,0,0,0
0.8091,1783190095.1500,1,1,3.0000,0.0000,1.44682,0.23328,-2.77748,0.97337,1.57080,0.00000,-0.14512,-0.38003,0.04653,,,,,,,,,,,,,,,,,,,,,,,,,,0,0,0,0,0
0.8206,1783190095.1616,1,1,3.0000,0.0000,1.44682,0.23328,-2.77748,0.97337,1.57080,0.00000,-0.14512,-0.38003,0.04653,,,,,,,,,,,,,,,,,,,,,,,,,,0,0,0,0,0
0.8209,1783190095.1619,1,1,3.0000,0.0000,1.44682,0.23328,-2.77748,0.97337,1.57080,0.00000,-0.14512,-0.38003,0.04653,,,,,,,,,,,,,,,,,,,,,,,,,,0,0,0,0,0
0.8326,1783190095.1736,1,1,3.0000,0.0000,1.44682,0.23328,-2.77748,0.97337,1.57080,0.00000,-0.14512,-0.38003,0.04653,,,,,,,,,,,,,,,,,,,,,,,,,,0,0,0,0,0
0.8403,1783190095.1813,1,1,3.0000,0.0000,1.44682,0.23328,-2.77748,0.97337,1.57080,0.00000,-0.14512,-0.38003,0.04653,,,,,,,,,,,,,,,,,,,,,,,,,,0,0,0,0,0
0.8510,1783190095.1919,1,1,3.0000,0.0000,1.44682,0.23328,-2.77748,0.97337,1.57080,0.00000,-0.14512,-0.38003,0.04653,,,,,,,,,,,,,,,,,,,,,,,,,,0,0,0,0,0
0.8628,1783190095.2038,1,1,3.0000,0.0000,1.44682,0.23328,-2.77748,0.97337,1.57080,0.00000,-0.14512,-0.38003,0.04653,,,,,,,,,,,,,,,,,,,,,,,,,,0,0,0,0,0
0.8744,1783190095.2154,1,1,3.0000,0.0000,1.44682,0.23328,-2.77748,0.97337,1.57080,0.00000,-0.14512,-0.38003,0.04653,,,,,,,,,,,,,,,,,,,,,,,,,,0,0,0,0,0
0.8753,1783190095.2163,1,1,3.0000,0.0000,1.44682,0.23328,-2.77748,0.97337,1.57080,0.00000,-0.14512,-0.38003,0.04653,,,,,,,,,,,,,,,,,,,,,,,,,,0,0,0,0,0
0.8794,1783190095.2203,1,1,3.0000,0.0000,1.44682,0.23328,-2.77748,0.97337,1.57080,0.00000,-0.14512,-0.38003,0.04653,,,,,,,,,,,,,,,,,,,,,,,,,,0,0,0,0,0
0.8935,1783190095.2345,1,1,3.0000,0.0000,1.44682,0.23328,-2.77748,0.97337,1.57080,0.00000,-0.14512,-0.38003,0.04653,,,,,,,,,,,,,,,,,,,,,,,,,,0,0,0,0,0
0.9007,1783190095.2417,1,1,3.0000,0.0000,1.44682,0.23328,-2.77748,0.97337,1.57080,0.00000,-0.14512,-0.38003,0.04653,,,,,,,,,,,,,,,,,,,,,,,,,,0,0,0,0,0
0.9110,1783190095.2520,1,1,3.0000,0.0000,1.44682,0.23328,-2.77748,0.97337,1.57080,0.00000,-0.14512,-0.38003,0.04653,,,,,,,,,,,,,,,,,,,,,,,,,,0,0,0,0,0
0.9222,1783190095.2631,1,1,3.0000,0.0000,1.44682,0.23328,-2.77748,0.97337,1.57080,0.00000,-0.14512,-0.38003,0.04653,,,,,,,,,,,,,,,,,,,,,,,,,,0,0,0,0,0
0.9328,1783190095.2737,1,1,3.0000,0.0000,1.44682,0.23316,-2.77751,0.97352,1.57080,0.00000,-0.14512,-0.38003,0.04650,,,,,,,,,,,,,,,,,,,,,,,,,,0,0,0,0,0
0.9331,1783190095.2741,1,1,3.0000,0.0000,1.44682,0.23316,-2.77751,0.97352,1.57080,0.00000,-0.14512,-0.38003,0.04650,,,,,,,,,,,,,,,,,,,,,,,,,,0,0,0,0,0
0.9429,1783190095.2839,1,1,3.0000,0.0000,1.44682,0.23301,-2.77755,0.97371,1.57080,0.00000,-0.14512,-0.38003,0.04646,,,,,,,,,,,,,,,,,,,,,,,,,,0,0,0,0,0
0.9538,1783190095.2948,1,1,3.0000,0.0000,1.44682,0.23285,-2.77759,0.97390,1.57080,0.00000,-0.14512,-0.38003,0.04642,,,,,,,,,,,,,,,,,,,,,,,,,,0,0,0,0,0
0.9542,1783190095.2952,1,1,3.0000,0.0000,1.44682,0.23285,-2.77759,0.97390,1.57080,0.00000,-0.14512,-0.38003,0.04642,,,,,,,,,,,,,,,,,,,,,,,,,,0,0,0,0,0
0.9623,1783190095.3033,1,1,3.0000,0.0000,1.44682,0.23282,-2.77759,0.97394,1.57080,0.00000,-0.14512,-0.38003,0.04641,,,,,,,,,,,,,,,,,,,,,,,,,,0,0,0,0,0
0.9626,1783190095.3036,1,1,3.0000,0.0000,1.44682,0.23282,-2.77759,0.97394,1.57080,0.00000,-0.14512,-0.38003,0.04641,,,,,,,,,,,,,,,,,,,,,,,,,,0,0,0,0,0
0.9733,1783190095.3143,1,1,3.0000,0.0000,1.44682,0.23270,-2.77763,0.97410,1.57080,0.00000,-0.14512,-0.38003,0.04638,,,,,,,,,,,,,,,,,,,,,,,,,,0,0,0,0,0
0.9839,1783190095.3249,1,1,3.0000,0.0000,1.44682,0.23264,-2.77764,0.97417,1.57080,0.00000,-0.14512,-0.38003,0.04636,,,,,,,,,,,,,,,,,,,,,,,,,,0,0,0,0,0
0.9932,1783190095.3342,1,1,3.0000,0.0000,1.44682,0.23254,-2.77767,0.97429,1.57080,0.00000,-0.14512,-0.38003,0.04634,,,,,,,,,,,,,,,,,,,,,,,,,,0,0,0,0,0
1.0280,1783190095.3689,1,1,3.0000,0.0000,1.44682,0.23220,-2.77775,0.97472,1.57080,0.00000,-0.14512,-0.38003,0.04625,,,,,,,,,,,,,,,,,,,,,,,,,,0,0,0,0,0
1.0332,1783190095.3742,1,1,3.0000,0.0000,1.44682,0.23210,-2.77778,0.97485,1.57080,0.00000,-0.14512,-0.38003,0.04622,,,,,,,,,,,,,,,,,,,,,,,,,,0,0,0,0,0
1.0379,1783190095.3789,1,1,3.0000,0.0000,1.44682,0.23204,-2.77779,0.97492,1.57080,0.00000,-0.14512,-0.38003,0.04621,,,,,,,,,,,,,,,,,,,,,,,,,,0,0,0,0,0
1.0423,1783190095.3833,1,1,3.0000,0.0000,1.44682,0.23204,-2.77779,0.97492,1.57080,0.00000,-0.14512,-0.38003,0.04621,,,,,,,,,,,,,,,,,,,,,,,,,,0,0,0,0,0
1.0552,1783190095.3961,1,1,3.0000,0.0000,1.44682,0.23195,-2.77782,0.97504,1.57080,0.00000,-0.14512,-0.38003,0.04618,,,,,,,,,,,,,,,,,,,,,,,,,,0,0,0,0,0
1.0555,1783190095.3965,1,1,3.0000,0.0000,1.44682,0.23195,-2.77782,0.97504,1.57080,0.00000,-0.14512,-0.38003,0.04618,,,,,,,,,,,,,,,,,,,,,,,,,,0,0,0,0,0
1.0659,1783190095.4068,1,1,3.0000,0.0000,1.44682,0.23175,-2.77787,0.97530,1.57080,0.00000,-0.14512,-0.38003,0.04613,,,,,,,,,,,,,,,,,,,,,,,,,,0,0,0,0,0
1.0662,1783190095.4072,1,1,3.0000,0.0000,1.44682,0.23175,-2.77787,0.97530,1.57080,0.00000,-0.14512,-0.38003,0.04613,,,,,,,,,,,,,,,,,,,,,,,,,,0,0,0,0,0
1.0757,1783190095.4167,1,1,3.0000,0.0000,1.44682,0.23168,-2.77789,0.97538,1.57080,0.00000,-0.14512,-0.38003,0.04611,,,,,,,,,,,,,,,,,,,,,,,,,,0,0,0,0,0
1.0861,1783190095.4271,1,1,3.0000,0.0000,1.44682,0.23158,-2.77791,0.97550,1.57080,0.00000,-0.14512,-0.38003,0.04608,,,,,,,,,,,,,,,,,,,,,,,,,,0,0,0,0,0
1.0921,1783190095.4331,1,1,3.0000,0.0000,1.44682,0.23152,-2.77793,0.97557,1.57080,0.00000,-0.14512,-0.38003,0.04607,,,,,,,,,,,,,,,,,,,,,,,,,,0,0,0,0,0
1.0926,1783190095.4336,1,1,3.0000,0.0000,1.44682,0.23146,-2.77795,0.97566,1.57080,0.00000,-0.14512,-0.38003,0.04605,,,,,,,,,,,,,,,,,,,,,,,,,,0,0,0,0,0
1.1028,1783190095.4438,1,1,3.0000,0.0000,1.44682,0.23139,-2.77796,0.97575,1.57080,0.00000,-0.14512,-0.38003,0.04603,,,,,,,,,,,,,,,,,,,,,,,,,,0,0,0,0,0
1.1123,1783190095.4532,1,1,3.0000,0.0000,1.44682,0.23134,-2.77798,0.97580,1.57080,0.00000,-0.14512,-0.38003,0.04602,,,,,,,,,,,,,,,,,,,,,,,,,,0,0,0,0,0
1.1129,1783190095.4539,1,1,3.0000,0.0000,1.44682,0.23134,-2.77798,0.97580,1.57080,0.00000,-0.14512,-0.38003,0.04602,,,,,,,,,,,,,,,,,,,,,,,,,,0,0,0,0,0
1.1237,1783190095.4647,1,1,3.0000,0.0000,1.44682,0.23117,-2.77802,0.97602,1.57080,0.00000,-0.14512,-0.38003,0.04598,,,,,,,,,,,,,,,,,,,,,,,,,,0,0,0,0,0
1.1375,1783190095.4785,1,1,3.0000,0.0000,1.44682,0.23102,-2.77806,0.97621,1.57080,0.00000,-0.14512,-0.38003,0.04594,,,,,,,,,,,,,,,,,,,,,,,,,,0,0,0,0,0
1.1420,1783190095.4830,1,1,3.0000,0.0000,1.44682,0.23099,-2.77807,0.97625,1.57080,0.00000,-0.14512,-0.38003,0.04593,,,,,,,,,,,,,,,,,,,,,,,,,,0,0,0,0,0
1.1423,1783190095.4833,1,1,3.0000,0.0000,1.44682,0.23099,-2.77807,0.97625,1.57080,0.00000,-0.14512,-0.38003,0.04593,,,,,,,,,,,,,,,,,,,,,,,,,,0,0,0,0,0
1.1919,1783190095.5329,1,1,3.0000,0.0000,1.44682,0.23038,-2.77822,0.97701,1.57080,0.00000,-0.14512,-0.38003,0.04577,,,,,,,,,,,,,,,,,,,,,,,,,,0,0,0,0,0
1.1927,1783190095.5336,1,1,3.0000,0.0000,1.44682,0.23038,-2.77822,0.97701,1.57080,0.00000,-0.14512,-0.38003,0.04577,,,,,,,,,,,,,,,,,,,,,,,,,,0,0,0,0,0
1.1930,1783190095.5339,1,1,3.0000,0.0000,1.44682,0.23038,-2.77822,0.97701,1.57080,0.00000,-0.14512,-0.38003,0.04577,,,,,,,,,,,,,,,,,,,,,,,,,,0,0,0,0,0
1.1932,1783190095.5342,1,1,3.0000,0.0000,1.44682,0.23038,-2.77822,0.97701,1.57080,0.00000,-0.14512,-0.38003,0.04577,,,,,,,,,,,,,,,,,,,,,,,,,,0,0,0,0,0
1.1935,1783190095.5345,1,1,3.0000,0.0000,1.44682,0.23038,-2.77822,0.97701,1.57080,0.00000,-0.14512,-0.38003,0.04577,,,,,,,,,,,,,,,,,,,,,,,,,,0,0,0,0,0
1.1938,1783190095.5348,1,1,3.0000,0.0000,1.44682,0.23038,-2.77822,0.97701,1.57080,0.00000,-0.14512,-0.38003,0.04577,,,,,,,,,,,,,,,,,,,,,,,,,,0,0,0,0,0
1.2026,1783190095.5435,1,1,3.0000,0.0000,1.44682,0.23034,-2.77823,0.97707,1.57080,0.00000,-0.14512,-0.38003,0.04576,,,,,,,,,,,,,,,,,,,,,,,,,,0,0,0,0,0
1.2132,1783190095.5542,1,1,3.0000,0.0000,1.44682,0.23016,-2.77828,0.97729,1.57080,0.00000,-0.14512,-0.38003,0.04571,,,,,,,,,,,,,,,,,,,,,,,,,,0,0,0,0,0
1.2137,1783190095.5546,1,1,3.0000,0.0000,1.44682,0.23016,-2.77828,0.97729,1.57080,0.00000,-0.14512,-0.38003,0.04571,,,,,,,,,,,,,,,,,,,,,,,,,,0,0,0,0,0
1.2247,1783190095.5657,1,1,3.0000,0.0000,1.44682,0.23008,-2.77830,0.97739,1.57080,0.00000,-0.14512,-0.38003,0.04569,,,,,,,,,,,,,,,,,,,,,,,,,,0,0,0,0,0
1.2393,1783190095.5803,1,1,3.0000,0.0000,1.44682,0.22994,-2.77834,0.97757,1.57080,0.00000,-0.14512,-0.38003,0.04566,,,,,,,,,,,,,,,,,,,,,,,,,,0,0,0,0,0
1.2476,1783190095.5885,1,1,3.0000,0.0000,1.44682,0.22980,-2.77837,0.97774,1.57080,0.00000,-0.14512,-0.38003,0.04562,,,,,,,,,,,,,,,,,,,,,,,,,,0,0,0,0,0
1.2541,1783190095.5951,1,1,3.0000,0.0000,1.44682,0.22973,-2.77839,0.97782,1.57080,0.00000,-0.14512,-0.38003,0.04560,,,,,,,,,,,,,,,,,,,,,,,,,,0,0,0,0,0
1.2626,1783190095.6036,1,1,3.0000,0.0000,1.44682,0.22969,-2.77840,0.97788,1.57080,0.00000,-0.14512,-0.38003,0.04559,,,,,,,,,,,,,,,,,,,,,,,,,,0,0,0,0,0
1.2872,1783190095.6282,1,1,3.0000,0.0000,1.44682,0.22943,-2.77847,0.97821,1.57080,0.00000,-0.14512,-0.38003,0.04552,,,,,,,,,,,,,,,,,,,,,,,,,,0,0,0,0,0
1.2875,1783190095.6285,1,1,3.0000,0.0000,1.44682,0.22943,-2.77847,0.97821,1.57080,0.00000,-0.14512,-0.38003,0.04552,,,,,,,,,,,,,,,,,,,,,,,,,,0,0,0,0,0
1.2938,1783190095.6348,1,1,3.0000,0.0000,1.44682,0.22935,-2.77849,0.97831,1.57080,0.00000,-0.14512,-0.38003,0.04550,,,,,,,,,,,,,,,,,,,,,,,,,,0,0,0,0,0
1.3023,1783190095.6432,1,1,3.0000,0.0000,1.44682,0.22922,-2.77852,0.97847,1.57080,0.00000,-0.14512,-0.38003,0.04547,,,,,,,,,,,,,,,,,,,,,,,,,,0,0,0,0,0
1.3026,1783190095.6435,1,1,3.0000,0.0000,1.44682,0.22922,-2.77852,0.97847,1.57080,0.00000,-0.14512,-0.38003,0.04547,,,,,,,,,,,,,,,,,,,,,,,,,,0,0,0,0,0
1.3130,1783190095.6539,1,1,3.0000,0.0000,1.44682,0.22908,-2.77855,0.97864,1.57080,0.00000,-0.14512,-0.38003,0.04543,,,,,,,,,,,,,,,,,,,,,,,,,,0,0,0,0,0
1.3133,1783190095.6543,1,1,3.0000,0.0000,1.44682,0.22908,-2.77855,0.97864,1.57080,0.00000,-0.14512,-0.38003,0.04543,,,,,,,,,,,,,,,,,,,,,,,,,,0,0,0,0,0
1.3265,1783190095.6675,1,1,3.0000,0.0000,1.44682,0.22899,-2.77858,0.97876,1.57080,0.00000,-0.14512,-0.38003,0.04541,,,,,,,,,,,,,,,,,,,,,,,,,,0,0,0,0,0
1.3354,1783190095.6764,1,1,3.0000,0.0000,1.44682,0.22886,-2.77861,0.97892,1.57080,0.00000,-0.14512,-0.38003,0.04538,,,,,,,,,,,,,,,,,,,,,,,,,,0,0,0,0,0
1.3432,1783190095.6842,1,1,3.0000,0.0000,1.44682,0.22872,-2.77865,0.97909,1.57080,0.00000,-0.14512,-0.38003,0.04534,,,,,,,,,,,,,,,,,,,,,,,,,,0,0,0,0,0
1.3436,1783190095.6845,1,1,3.0000,0.0000,1.44682,0.22872,-2.77865,0.97909,1.57080,0.00000,-0.14512,-0.38003,0.04534,,,,,,,,,,,,,,,,,,,,,,,,,,0,0,0,0,0
1.3532,1783190095.6942,1,1,3.0000,0.0000,1.44682,0.22869,-2.77865,0.97913,1.57080,0.00000,-0.14512,-0.38003,0.04533,,,,,,,,,,,,,,,,,,,,,,,,,,0,0,0,0,0
1.3647,1783190095.7056,1,1,3.0000,0.0000,1.44682,0.22855,-2.77869,0.97931,1.57080,0.00000,-0.14512,-0.38003,0.04530,,,,,,,,,,,,,,,,,,,,,,,,,,0,0,0,0,0
1.3727,1783190095.7137,1,1,3.0000,0.0000,1.44682,0.22849,-2.77870,0.97938,1.57080,0.00000,-0.14512,-0.38003,0.04528,,,,,,,,,,,,,,,,,,,,,,,,,,0,0,0,0,0
1.3845,1783190095.7255,1,1,3.0000,0.0000,1.44682,0.22845,-2.77872,0.97944,1.57080,0.00000,-0.14512,-0.38003,0.04527,,,,,,,,,,,,,,,,,,,,,,,,,,0,0,0,0,0
1.3851,1783190095.7261,1,1,3.0000,0.0000,1.44682,0.22840,-2.77873,0.97950,1.57080,0.00000,-0.14512,-0.38003,0.04525,,,,,,,,,,,,,,,,,,,,,,,,,,0,0,0,0,0
1.3928,1783190095.7338,1,1,3.0000,0.0000,1.44682,0.22827,-2.77876,0.97967,1.57080,0.00000,-0.14512,-0.38003,0.04522,,,,,,,,,,,,,,,,,,,,,,,,,,0,0,0,0,0
1.4029,1783190095.7439,1,1,3.0000,0.0000,1.44682,0.22813,-2.77880,0.97984,1.57080,0.00000,-0.14512,-0.38003,0.04518,,,,,,,,,,,,,,,,,,,,,,,,,,0,0,0,0,0
1.4127,1783190095.7537,1,1,3.0000,0.0000,1.44682,0.22809,-2.77881,0.97988,1.57080,0.00000,-0.14512,-0.38003,0.04518,,,,,,,,,,,,,,,,,,,,,,,,,,0,0,0,0,0
1.4237,1783190095.7647,1,1,3.0000,0.0000,1.44682,0.22801,-2.77883,0.97999,1.57080,0.00000,-0.14512,-0.38003,0.04515,,,,,,,,,,,,,,,,,,,,,,,,,,0,0,0,0,0
1.4346,1783190095.7756,1,1,3.0000,0.0000,1.44682,0.22790,-2.77886,0.98013,1.57080,0.00000,-0.14512,-0.38003,0.04512,,,,,,,,,,,,,,,,,,,,,,,,,,0,0,0,0,0
1.4455,1783190095.7865,1,1,3.0000,0.0000,1.44682,0.22780,-2.77888,0.98025,1.57080,0.00000,-0.14512,-0.38003,0.04510,,,,,,,,,,,,,,,,,,,,,,,,,,0,0,0,0,0
1.4536,1783190095.7946,1,1,3.0000,0.0000,1.44682,0.22767,-2.77892,0.98042,1.57080,0.00000,-0.14512,-0.38003,0.04507,,,,,,,,,,,,,,,,,,,,,,,,,,0,0,0,0,0
1.4665,1783190095.8074,1,1,3.0000,0.0000,1.44682,0.22753,-2.77895,0.98059,1.57080,0.00000,-0.14512,-0.38003,0.04503,,,,,,,,,,,,,,,,,,,,,,,,,,0,0,0,0,0
1.4747,1783190095.8157,1,1,3.0000,0.0000,1.44682,0.22750,-2.77896,0.98063,1.57080,0.00000,-0.14512,-0.38003,0.04502,,,,,,,,,,,,,,,,,,,,,,,,,,0,0,0,0,0
1.4870,1783190095.8280,1,1,3.0000,0.0000,1.44682,0.22736,-2.77899,0.98080,1.57080,0.00000,-0.14512,-0.38003,0.04499,,,,,,,,,,,,,,,,,,,,,,,,,,0,0,0,0,0
1.4929,1783190095.8339,1,1,3.0000,0.0000,1.44682,0.22730,-2.77901,0.98088,1.57080,0.00000,-0.14512,-0.38003,0.04497,,,,,,,,,,,,,,,,,,,,,,,,,,0,0,0,0,0
1.4932,1783190095.8342,1,1,3.0000,0.0000,1.44682,0.22730,-2.77901,0.98088,1.57080,0.00000,-0.14512,-0.38003,0.04497,,,,,,,,,,,,,,,,,,,,,,,,,,0,0,0,0,0
1.5042,1783190095.8452,1,1,3.0000,0.0000,1.44682,0.22725,-2.77902,0.98094,1.57080,0.00000,-0.14512,-0.38003,0.04496,,,,,,,,,,,,,,,,,,,,,,,,,,0,0,0,0,0
1.5122,1783190095.8532,1,1,3.0000,0.0000,1.44682,0.22714,-2.77905,0.98108,1.57080,0.00000,-0.14512,-0.38003,0.04493,,,,,,,,,,,,,,,,,,,,,,,,,,0,0,0,0,0
1.5130,1783190095.8540,1,1,3.0000,0.0000,1.44682,0.22707,-2.77907,0.98116,1.57080,0.00001,-0.14512,-0.38003,0.04491,,,,,,,,,,,,,,,,,,,,,,,,,,0,0,0,0,0
1.5222,1783190095.8632,1,1,3.0000,0.0000,1.44682,0.22693,-2.77910,0.98134,1.57080,0.00001,-0.14512,-0.38003,0.04487,,,,,,,,,,,,,,,,,,,,,,,,,,0,0,0,0,0
1.5339,1783190095.8749,1,1,3.0000,0.0000,1.44682,0.22689,-2.77911,0.98140,1.57080,0.00001,-0.14512,-0.38003,0.04486,,,,,,,,,,,,,,,,,,,,,,,,,,0,0,0,0,0
1.5475,1783190095.8884,1,1,3.0000,0.0000,1.44682,0.22671,-2.77916,0.98162,1.57080,0.00001,-0.14512,-0.38003,0.04482,,,,,,,,,,,,,,,,,,,,,,,,,,0,0,0,0,0
1.5541,1783190095.8951,1,1,3.0000,0.0000,1.44682,0.22664,-2.77918,0.98171,1.57080,0.00001,-0.14512,-0.38003,0.04480,,,,,,,,,,,,,,,,,,,,,,,,,,0,0,0,0,0
1.5621,1783190095.9031,1,1,3.0000,0.0000,1.44682,0.22659,-2.77919,0.98176,1.57080,0.00001,-0.14512,-0.38003,0.04479,,,,,,,,,,,,,,,,,,,,,,,,,,0,0,0,0,0
1.5731,1783190095.9141,1,1,3.0000,0.0000,1.44682,0.22642,-2.77923,0.98198,1.57080,0.00001,-0.14512,-0.38003,0.04474,,,,,,,,,,,,,,,,,,,,,,,,,,0,0,0,0,0
1.5733,1783190095.9143,1,1,3.0000,0.0000,1.44682,0.22642,-2.77923,0.98198,1.57080,0.00001,-0.14512,-0.38003,0.04474,,,,,,,,,,,,,,,,,,,,,,,,,,0,0,0,0,0
1.5880,1783190095.9289,1,1,3.0000,0.0000,1.44682,0.22628,-2.77927,0.98216,1.57080,0.00001,-0.14512,-0.38003,0.04470,,,,,,,,,,,,,,,,,,,,,,,,,,0,0,0,0,0
1.6003,1783190095.9412,1,1,3.0000,0.0000,1.44682,0.22618,-2.77929,0.98228,1.57080,0.00001,-0.14512,-0.38003,0.04468,,,,,,,,,,,,,,,,,,,,,,,,,,0,0,0,0,0
1.6039,1783190095.9449,1,1,3.0000,0.0000,1.44682,0.22612,-2.77931,0.98235,1.57080,0.00001,-0.14512,-0.38003,0.04466,,,,,,,,,,,,,,,,,,,,,,,,,,0,0,0,0,0
1.6042,1783190095.9451,1,1,3.0000,0.0000,1.44682,0.22612,-2.77931,0.98235,1.57080,0.00001,-0.14512,-0.38003,0.04466,,,,,,,,,,,,,,,,,,,,,,,,,,0,0,0,0,0
1.6137,1783190095.9547,1,1,3.0000,0.0000,1.44682,0.22599,-2.77934,0.98253,1.57080,0.00001,-0.14512,-0.38003,0.04463,,,,,,,,,,,,,,,,,,,,,,,,,,0,0,0,0,0
1.6222,1783190095.9632,1,1,3.0000,0.0000,1.44682,0.22594,-2.77935,0.98258,1.57080,0.00001,-0.14512,-0.38003,0.04462,,,,,,,,,,,,,,,,,,,,,,,,,,0,0,0,0,0
1.6361,1783190095.9771,1,1,3.0000,0.0000,1.44682,0.22576,-2.77940,0.98280,1.57080,0.00001,-0.14512,-0.38003,0.04457,,,,,,,,,,,,,,,,,,,,,,,,,,0,0,0,0,0
1.6476,1783190095.9885,1,1,3.0000,0.0000,1.44682,0.22563,-2.77943,0.98298,1.57080,0.00001,-0.14512,-0.38003,0.04454,,,,,,,,,,,,,,,,,,,,,,,,,,0,0,0,0,0
1.6479,1783190095.9889,1,1,3.0000,0.0000,1.44682,0.22563,-2.77943,0.98298,1.57080,0.00001,-0.14512,-0.38003,0.04454,,,,,,,,,,,,,,,,,,,,,,,,,,0,0,0,0,0
1.6572,1783190095.9981,1,1,3.0000,0.0000,1.44682,0.22553,-2.77946,0.98309,1.57080,0.00001,-0.14512,-0.38003,0.04451,,,,,,,,,,,,,,,,,,,,,,,,,,0,0,0,0,0
1.6574,1783190095.9984,1,1,3.0000,0.0000,1.44682,0.22553,-2.77946,0.98309,1.57080,0.00001,-0.14512,-0.38003,0.04451,,,,,,,,,,,,,,,,,,,,,,,,,,0,0,0,0,0
1.6690,1783190096.0100,1,1,3.0000,0.0000,1.44682,0.22533,-2.77951,0.98334,1.57080,0.00001,-0.14512,-0.38002,0.04446,,,,,,,,,,,,,,,,,,,,,,,,,,0,0,0,0,0
1.6761,1783190096.0171,1,1,3.0000,0.0000,1.44682,0.22533,-2.77951,0.98334,1.57080,0.00001,-0.14512,-0.38002,0.04446,,,,,,,,,,,,,,,,,,,,,,,,,,0,0,0,0,0
1.6961,1783190096.0371,1,1,3.0000,0.0000,1.44682,0.22511,-2.77956,0.98362,1.57080,0.00001,-0.14512,-0.38002,0.04440,,,,,,,,,,,,,,,,,,,,,,,,,,0,0,0,0,0
1.6965,1783190096.0375,1,1,3.0000,0.0000,1.44682,0.22511,-2.77956,0.98362,1.57080,0.00001,-0.14512,-0.38002,0.04440,,,,,,,,,,,,,,,,,,,,,,,,,,0,0,0,0,0
1.6972,1783190096.0382,1,1,3.0000,0.0000,1.44682,0.22504,-2.77958,0.98371,1.57080,0.00001,-0.14512,-0.38002,0.04438,,,,,,,,,,,,,,,,,,,,,,,,,,0,0,0,0,0
1.7070,1783190096.0480,1,1,3.0000,0.0000,1.44682,0.22497,-2.77960,0.98379,1.57080,0.00001,-0.14512,-0.38002,0.04437,,,,,,,,,,,,,,,,,,,,,,,,,,0,0,0,0,0
1.7073,1783190096.0482,1,1,3.0000,0.0000,1.44682,0.22497,-2.77960,0.98379,1.57080,0.00001,-0.14512,-0.38002,0.04437,,,,,,,,,,,,,,,,,,,,,,,,,,0,0,0,0,0
1.7153,1783190096.0563,1,1,3.0000,0.0000,1.44682,0.22493,-2.77961,0.98385,1.57080,0.00001,-0.14512,-0.38002,0.04436,,,,,,,,,,,,,,,,,,,,,,,,,,0,0,0,0,0
1.7254,1783190096.0663,1,1,3.0000,0.0000,1.44682,0.22475,-2.77965,0.98407,1.57080,0.00001,-0.14512,-0.38002,0.04431,,,,,,,,,,,,,,,,,,,,,,,,,,0,0,0,0,0
1.7424,1783190096.0834,1,1,3.0000,0.0000,1.44682,0.22460,-2.77969,0.98426,1.57080,0.00001,-0.14512,-0.38002,0.04427,,,,,,,,,,,,,,,,,,,,,,,,,,0,0,0,0,0
1.7460,1783190096.0870,1,1,3.0000,0.0000,1.44682,0.22458,-2.77970,0.98429,1.57080,0.00001,-0.14512,-0.38002,0.04426,,,,,,,,,,,,,,,,,,,,,,,,,,0,0,0,0,0
1.7464,1783190096.0874,1,1,3.0000,0.0000,1.44682,0.22458,-2.77970,0.98429,1.57080,0.00001,-0.14512,-0.38002,0.04426,,,,,,,,,,,,,,,,,,,,,,,,,,0,0,0,0,0
1.7618,1783190096.1027,1,1,3.0000,0.0000,1.44682,0.22438,-2.77975,0.98454,1.57080,0.00001,-0.14512,-0.38002,0.04421,,,,,,,,,,,,,,,,,,,,,,,,,,0,0,0,0,0
1.7713,1783190096.1123,1,1,3.0000,0.0000,1.44682,0.22437,-2.77975,0.98455,1.57080,0.00001,-0.14512,-0.38002,0.04421,,,,,,,,,,,,,,,,,,,,,,,,,,0,0,0,0,0
1.7828,1783190096.1238,1,1,3.0000,0.0000,1.44682,0.22428,-2.77977,0.98466,1.57080,0.00001,-0.14512,-0.38002,0.04419,,,,,,,,,,,,,,,,,,,,,,,,,,0,0,0,0,0
1.7946,1783190096.1356,1,1,3.0000,0.0000,1.44682,0.22408,-2.77982,0.98491,1.57080,0.00001,-0.14512,-0.38002,0.04414,,,,,,,,,,,,,,,,,,,,,,,,,,0,0,0,0,0
1.8001,1783190096.1411,1,1,3.0000,0.0000,1.44682,0.22401,-2.77984,0.98500,1.57080,0.00001,-0.14512,-0.38002,0.04412,,,,,,,,,,,,,,,,,,,,,,,,,,0,0,0,0,0
1.8066,1783190096.1476,1,1,3.0000,0.0000,1.44682,0.22399,-2.77985,0.98503,1.57080,0.00001,-0.14512,-0.38002,0.04411,,,,,,,,,,,,,,,,,,,,,,,,,,0,0,0,0,0
1.8184,1783190096.1594,1,1,3.0000,0.0000,1.44682,0.22393,-2.77986,0.98510,1.57080,0.00001,-0.14512,-0.38002,0.04410,,,,,,,,,,,,,,,,,,,,,,,,,,0,0,0,0,0
1.8193,1783190096.1603,1,1,3.0000,0.0000,1.44682,0.22389,-2.77987,0.98515,1.57080,0.00001,-0.14512,-0.38002,0.04409,,,,,,,,,,,,,,,,,,,,,,,,,,0,0,0,0,0
1.8262,1783190096.1671,1,1,3.0000,0.0000,1.44682,0.22379,-2.77990,0.98528,1.57080,0.00001,-0.14512,-0.38002,0.04406,,,,,,,,,,,,,,,,,,,,,,,,,,0,0,0,0,0
1.8397,1783190096.1807,1,1,3.0000,0.0000,1.44682,0.22375,-2.77991,0.98533,1.57080,0.00001,-0.14512,-0.38002,0.04405,,,,,,,,,,,,,,,,,,,,,,,,,,0,0,0,0,0
1.8468,1783190096.1878,1,1,3.0000,0.0000,1.44682,0.22365,-2.77993,0.98545,1.57080,0.00001,-0.14512,-0.38002,0.04403,,,,,,,,,,,,,,,,,,,,,,,,,,0,0,0,0,0
1.8472,1783190096.1882,1,1,3.0000,0.0000,1.44682,0.22365,-2.77993,0.98545,1.57080,0.00001,-0.14512,-0.38002,0.04403,,,,,,,,,,,,,,,,,,,,,,,,,,0,0,0,0,0
1.8558,1783190096.1968,1,1,3.0000,0.0000,1.44682,0.22352,-2.77996,0.98561,1.57080,0.00001,-0.14512,-0.38002,0.04399,,,,,,,,,,,,,,,,,,,,,,,,,,0,0,0,0,0
1.8691,1783190096.2100,1,1,3.0000,0.0000,1.44682,0.22348,-2.77997,0.98566,1.57080,0.00001,-0.14512,-0.38002,0.04398,,,,,,,,,,,,,,,,,,,,,,,,,,0,0,0,0,0
1.8767,1783190096.2177,1,1,3.0000,0.0000,1.44682,0.22337,-2.78000,0.98580,1.57080,0.00001,-0.14512,-0.38002,0.04395,,,,,,,,,,,,,,,,,,,,,,,,,,0,0,0,0,0
1.8863,1783190096.2273,1,1,3.0000,0.0000,1.44682,0.22316,-2.78005,0.98607,1.57080,0.00001,-0.14512,-0.38002,0.04390,,,,,,,,,,,,,,,,,,,,,,,,,,0,0,0,0,0
1.8953,1783190096.2363,1,1,3.0000,0.0000,1.44682,0.22315,-2.78006,0.98608,1.57080,0.00001,-0.14512,-0.38002,0.04390,,,,,,,,,,,,,,,,,,,,,,,,,,0,0,0,0,0
1.9060,1783190096.2470,1,1,3.0000,0.0000,1.44682,0.22304,-2.78008,0.98621,1.57080,0.00001,-0.14512,-0.38002,0.04387,,,,,,,,,,,,,,,,,,,,,,,,,,0,0,0,0,0
1.9181,1783190096.2591,1,1,3.0000,0.0000,1.44682,0.22293,-2.78011,0.98635,1.57080,0.00001,-0.14512,-0.38002,0.04384,,,,,,,,,,,,,,,,,,,,,,,,,,0,0,0,0,0
1.9258,1783190096.2668,1,1,3.0000,0.0000,1.44682,0.22288,-2.78012,0.98641,1.57080,0.00001,-0.14512,-0.38002,0.04383,,,,,,,,,,,,,,,,,,,,,,,,,,0,0,0,0,0
1.9407,1783190096.2817,1,1,3.0000,0.0000,1.44681,0.22270,-2.78017,0.98664,1.57080,0.00001,-0.14512,-0.38002,0.04378,,,,,,,,,,,,,,,,,,,,,,,,,,0,0,0,0,0
1.9478,1783190096.2888,1,1,3.0000,0.0000,1.44681,0.22255,-2.78021,0.98682,1.57080,0.00001,-0.14512,-0.38002,0.04374,,,,,,,,,,,,,,,,,,,,,,,,,,0,0,0,0,0
1.9580,1783190096.2989,1,1,3.0000,0.0000,1.44681,0.22252,-2.78021,0.98686,1.57080,0.00001,-0.14512,-0.38002,0.04373,,,,,,,,,,,,,,,,,,,,,,,,,,0,0,0,0,0
1.9674,1783190096.3084,1,1,3.0000,0.0000,1.44681,0.22244,-2.78023,0.98696,1.57080,0.00001,-0.14512,-0.38002,0.04371,,,,,,,,,,,,,,,,,,,,,,,,,,0,0,0,0,0
1.9761,1783190096.3171,1,1,3.0000,0.0000,1.44681,0.22232,-2.78026,0.98711,1.57080,0.00001,-0.14512,-0.38002,0.04368,,,,,,,,,,,,,,,,,,,,,,,,,,0,0,0,0,0
1.9765,1783190096.3174,1,1,3.0000,0.0000,1.44681,0.22232,-2.78026,0.98711,1.57080,0.00001,-0.14512,-0.38002,0.04368,,,,,,,,,,,,,,,,,,,,,,,,,,0,0,0,0,0
1.9860,1783190096.3270,1,1,3.0000,0.0000,1.44681,0.22228,-2.78027,0.98716,1.57080,0.00001,-0.14512,-0.38002,0.04367,,,,,,,,,,,,,,,,,,,,,,,,,,0,0,0,0,0
1.9990,1783190096.3400,1,1,3.0000,0.0000,1.44681,0.22209,-2.78032,0.98739,1.57080,0.00001,-0.14512,-0.38002,0.04362,,,,,,,,,,,,,,,,,,,,,,,,,,0,0,0,0,0
2.0059,1783190096.3469,1,1,3.0000,0.0000,1.44681,0.22195,-2.78036,0.98757,1.57080,0.00001,-0.14512,-0.38002,0.04359,,,,,,,,,,,,,,,,,,,,,,,,,,0,0,0,0,0
2.0162,1783190096.3572,1,1,3.0000,0.0000,1.44681,0.22194,-2.78036,0.98758,1.57080,0.00001,-0.14512,-0.38002,0.04359,,,,,,,,,,,,,,,,,,,,,,,,,,0,0,0,0,0
2.0284,1783190096.3694,1,1,3.0000,0.0000,1.44681,0.22184,-2.78039,0.98772,1.57080,0.00001,-0.14512,-0.38002,0.04356,,,,,,,,,,,,,,,,,,,,,,,,,,0,0,0,0,0
2.0433,1783190096.3843,1,1,3.0000,0.0000,1.44681,0.22171,-2.78042,0.98787,1.57080,0.00001,-0.14512,-0.38002,0.04353,,,,,,,,,,,,,,,,,,,,,,,,,,0,0,0,0,0
2.0469,1783190096.3878,1,1,3.0000,0.0000,1.44681,0.22168,-2.78043,0.98792,1.57080,0.00001,-0.14512,-0.38002,0.04352,,,,,,,,,,,,,,,,,,,,,,,,,,0,0,0,0,0
2.0572,1783190096.3982,1,1,3.0000,0.0000,1.44681,0.22156,-2.78045,0.98806,1.57080,0.00001,-0.14512,-0.38002,0.04349,,,,,,,,,,,,,,,,,,,,,,,,,,0,0,0,0,0
2.0666,1783190096.4076,1,1,3.0000,0.0000,1.44681,0.22135,-2.78051,0.98832,1.57080,0.00001,-0.14512,-0.38002,0.04343,,,,,,,,,,,,,,,,,,,,,,,,,,0,0,0,0,0
2.0788,1783190096.4198,1,1,3.0000,0.0000,1.44681,0.22130,-2.78052,0.98838,1.57080,0.00001,-0.14512,-0.38002,0.04342,,,,,,,,,,,,,,,,,,,,,,,,,,0,0,0,0,0
2.0858,1783190096.4267,1,1,3.0000,0.0000,1.44681,0.22119,-2.78055,0.98852,1.57080,0.00001,-0.14512,-0.38002,0.04339,,,,,,,,,,,,,,,,,,,,,,,,,,0,0,0,0,0
2.1178,1783190096.4588,1,1,3.0000,0.0000,1.44681,0.22083,-2.78064,0.98897,1.57080,0.00001,-0.14512,-0.38002,0.04330,,,,,,,,,,,,,,,,,,,,,,,,,,0,0,0,0,0
2.1182,1783190096.4591,1,1,3.0000,0.0000,1.44681,0.22083,-2.78064,0.98897,1.57080,0.00001,-0.14512,-0.38002,0.04330,,,,,,,,,,,,,,,,,,,,,,,,,,0,0,0,0,0
2.1184,1783190096.4594,1,1,3.0000,0.0000,1.44681,0.22083,-2.78064,0.98897,1.57080,0.00001,-0.14512,-0.38002,0.04330,,,,,,,,,,,,,,,,,,,,,,,,,,0,0,0,0,0
2.1278,1783190096.4688,1,1,3.0000,0.0000,1.44681,0.22069,-2.78067,0.98915,1.57080,0.00001,-0.14512,-0.38002,0.04326,,,,,,,,,,,,,,,,,,,,,,,,,,0,0,0,0,0
2.1390,1783190096.4800,1,1,3.0000,0.0000,1.44681,0.22065,-2.78068,0.98920,1.57080,0.00001,-0.14512,-0.38002,0.04325,,,,,,,,,,,,,,,,,,,,,,,,,,0,0,0,0,0
2.1501,1783190096.4911,1,1,3.0000,0.0000,1.44681,0.22047,-2.78073,0.98943,1.57080,0.00001,-0.14512,-0.38002,0.04321,,,,,,,,,,,,,,,,,,,,,,,,,,0,0,0,0,0
2.1616,1783190096.5026,1,1,3.0000,0.0000,1.44681,0.22038,-2.78075,0.98953,1.57080,0.00001,-0.14512,-0.38002,0.04318,,,,,,,,,,,,,,,,,,,,,,,,,,0,0,0,0,0
2.1620,1783190096.5030,1,1,3.0000,0.0000,1.44681,0.22038,-2.78075,0.98953,1.57080,0.00001,-0.14512,-0.38002,0.04318,,,,,,,,,,,,,,,,,,,,,,,,,,0,0,0,0,0
2.1669,1783190096.5079,1,1,3.0000,0.0000,1.44681,0.22035,-2.78076,0.98957,1.57080,0.00001,-0.14512,-0.38002,0.04318,,,,,,,,,,,,,,,,,,,,,,,,,,0,0,0,0,0
2.1819,1783190096.5228,1,1,3.0000,0.0000,1.44681,0.22010,-2.78082,0.98988,1.57080,0.00001,-0.14512,-0.38002,0.04311,,,,,,,,,,,,,,,,,,,,,,,,,,0,0,0,0,0
2.1821,1783190096.5230,1,1,3.0000,0.0000,1.44681,0.22010,-2.78082,0.98988,1.57080,0.00001,-0.14512,-0.38002,0.04311,,,,,,,,,,,,,,,,,,,,,,,,,,0,0,0,0,0
2.1873,1783190096.5282,1,1,3.0000,0.0000,1.44681,0.22003,-2.78083,0.98997,1.57080,0.00001,-0.14512,-0.38002,0.04309,,,,,,,,,,,,,,,,,,,,,,,,,,0,0,0,0,0
2.1876,1783190096.5286,1,1,3.0000,0.0000,1.44681,0.22003,-2.78083,0.98997,1.57080,0.00001,-0.14512,-0.38002,0.04309,,,,,,,,,,,,,,,,,,,,,,,,,,0,0,0,0,0
2.2078,1783190096.5488,1,1,3.0000,0.0000,1.44681,0.21988,-2.78087,0.99016,1.57080,0.00001,-0.14512,-0.38002,0.04305,,,,,,,,,,,,,,,,,,,,,,,,,,0,0,0,0,0
2.2083,1783190096.5493,1,1,3.0000,0.0000,1.44681,0.21988,-2.78087,0.99016,1.57080,0.00001,-0.14512,-0.38002,0.04305,,,,,,,,,,,,,,,,,,,,,,,,,,0,0,0,0,0
2.2086,1783190096.5496,1,1,3.0000,0.0000,1.44681,0.21988,-2.78087,0.99016,1.57080,0.00001,-0.14512,-0.38002,0.04305,,,,,,,,,,,,,,,,,,,,,,,,,,0,0,0,0,0
2.2162,1783190096.5571,1,1,3.0000,0.0000,1.44681,0.21974,-2.78091,0.99034,1.57080,0.00001,-0.14512,-0.38002,0.04302,,,,,,,,,,,,,,,,,,,,,,,,,,0,0,0,0,0
2.2511,1783190096.5921,1,1,3.0000,0.0000,1.44681,0.21944,-2.78098,0.99071,1.57080,0.00001,-0.14512,-0.38002,0.04294,,,,,,,,,,,,,,,,,,,,,,,,,,0,0,0,0,0
2.2670,1783190096.6080,1,1,3.0000,0.0000,1.44681,0.21928,-2.78102,0.99091,1.57080,0.00001,-0.14512,-0.38002,0.04290,,,,,,,,,,,,,,,,,,,,,,,,,,0,0,0,0,0
2.2675,1783190096.6085,1,1,3.0000,0.0000,1.44681,0.21928,-2.78102,0.99091,1.57080,0.00001,-0.14512,-0.38002,0.04290,,,,,,,,,,,,,,,,,,,,,,,,,,0,0,0,0,0
2.2679,1783190096.6089,1,1,3.0000,0.0000,1.44681,0.21928,-2.78102,0.99091,1.57080,0.00001,-0.14512,-0.38002,0.04290,,,,,,,,,,,,,,,,,,,,,,,,,,0,0,0,0,0
2.2901,1783190096.6311,1,1,3.0000,0.0000,1.44681,0.21903,-2.78108,0.99122,1.57080,0.00001,-0.14512,-0.38002,0.04284,,,,,,,,,,,,,,,,,,,,,,,,,,0,0,0,0,0
2.2903,1783190096.6313,1,1,3.0000,0.0000,1.44681,0.21903,-2.78108,0.99122,1.57080,0.00001,-0.14512,-0.38002,0.04284,,,,,,,,,,,,,,,,,,,,,,,,,,0,0,0,0,0
2.3116,1783190096.6526,1,1,3.0000,0.0000,1.44681,0.21883,-2.78113,0.99147,1.57080,0.00001,-0.14512,-0.38002,0.04279,,,,,,,,,,,,,,,,,,,,,,,,,,0,0,0,0,0
2.3119,1783190096.6529,1,1,3.0000,0.0000,1.44681,0.21883,-2.78113,0.99147,1.57080,0.00001,-0.14512,-0.38002,0.04279,,,,,,,,,,,,,,,,,,,,,,,,,,0,0,0,0,0
2.3122,1783190096.6531,1,1,3.0000,0.0000,1.44681,0.21883,-2.78113,0.99147,1.57080,0.00001,-0.14512,-0.38002,0.04279,,,,,,,,,,,,,,,,,,,,,,,,,,0,0,0,0,0
2.3340,1783190096.6750,1,1,3.0000,0.0000,1.44681,0.21853,-2.78121,0.99185,1.57080,0.00001,-0.14512,-0.38002,0.04271,,,,,,,,,,,,,,,,,,,,,,,,,,0,0,0,0,0
2.3355,1783190096.6765,1,1,3.0000,0.0000,1.44681,0.21853,-2.78121,0.99185,1.57080,0.00001,-0.14512,-0.38002,0.04271,,,,,,,,,,,,,,,,,,,,,,,,,,0,0,0,0,0
2.3360,1783190096.6769,1,1,3.0000,0.0000,1.44681,0.21853,-2.78121,0.99185,1.57080,0.00001,-0.14512,-0.38002,0.04271,,,,,,,,,,,,,,,,,,,,,,,,,,0,0,0,0,0
2.3737,1783190096.7146,1,1,3.0000,0.0000,1.44681,0.21821,-2.78129,0.99224,1.57080,0.00001,-0.14512,-0.38002,0.04263,,,,,,,,,,,,,,,,,,,,,,,,,,0,0,0,0,0
2.3741,1783190096.7150,1,1,3.0000,0.0000,1.44681,0.21821,-2.78129,0.99224,1.57080,0.00001,-0.14512,-0.38002,0.04263,,,,,,,,,,,,,,,,,,,,,,,,,,0,0,0,0,0
2.3778,1783190096.7188,1,1,3.0000,0.0000,1.44681,0.21818,-2.78129,0.99228,1.57080,0.00001,-0.14512,-0.38002,0.04262,,,,,,,,,,,,,,,,,,,,,,,,,,0,0,0,0,0
2.3782,1783190096.7192,1,1,3.0000,0.0000,1.44681,0.21818,-2.78129,0.99228,1.57080,0.00001,-0.14512,-0.38002,0.04262,,,,,,,,,,,,,,,,,,,,,,,,,,0,0,0,0,0
2.3862,1783190096.7271,1,1,3.0000,0.0000,1.44681,0.21806,-2.78132,0.99242,1.57080,0.00001,-0.14512,-0.38002,0.04259,,,,,,,,,,,,,,,,,,,,,,,,,,0,0,0,0,0
2.4093,1783190096.7503,1,1,3.0000,0.0000,1.44681,0.21782,-2.78138,0.99273,1.57080,0.00001,-0.14512,-0.38002,0.04253,,,,,,,,,,,,,,,,,,,,,,,,,,0,0,0,0,0
2.4163,1783190096.7573,1,1,3.0000,0.0000,1.44681,0.21778,-2.78139,0.99278,1.57080,0.00001,-0.14512,-0.38002,0.04252,,,,,,,,,,,,,,,,,,,,,,,,,,0,0,0,0,0
2.4304,1783190096.7714,1,1,3.0000,0.0000,1.44681,0.21762,-2.78143,0.99298,1.57080,0.00001,-0.14512,-0.38002,0.04248,,,,,,,,,,,,,,,,,,,,,,,,,,0,0,0,0,0
2.4375,1783190096.7784,1,1,3.0000,0.0000,1.44681,0.21757,-2.78144,0.99304,1.57080,0.00001,-0.14512,-0.38002,0.04246,,,,,,,,,,,,,,,,,,,,,,,,,,0,0,0,0,0
2.4563,1783190096.7973,1,1,3.0000,0.0000,1.44681,0.21732,-2.78151,0.99336,1.57080,0.00001,-0.14512,-0.38002,0.04240,,,,,,,,,,,,,,,,,,,,,,,,,,0,0,0,0,0
2.4629,1783190096.8039,1,1,3.0000,0.0000,1.44681,0.21725,-2.78152,0.99345,1.57080,0.00001,-0.14512,-0.38002,0.04238,,,,,,,,,,,,,,,,,,,,,,,,,,0,0,0,0,0
2.4689,1783190096.8099,1,1,3.0000,0.0000,1.44681,0.21724,-2.78153,0.99346,1.57080,0.00001,-0.14512,-0.38002,0.04238,,,,,,,,,,,,,,,,,,,,,,,,,,0,0,0,0,0
2.4754,1783190096.8163,1,1,3.0000,0.0000,1.44681,0.21718,-2.78154,0.99353,1.57080,0.00001,-0.14512,-0.38002,0.04236,,,,,,,,,,,,,,,,,,,,,,,,,,0,0,0,0,0
2.4883,1783190096.8293,1,1,3.0000,0.0000,1.44681,0.21701,-2.78158,0.99373,1.57080,0.00001,-0.14512,-0.38002,0.04232,,,,,,,,,,,,,,,,,,,,,,,,,,0,0,0,0,0
2.4955,1783190096.8365,1,1,3.0000,0.0000,1.44681,0.21700,-2.78158,0.99375,1.57080,0.00001,-0.14512,-0.38002,0.04232,,,,,,,,,,,,,,,,,,,,,,,,,,0,0,0,0,0
2.5103,1783190096.8513,1,1,3.0000,0.0000,1.44681,0.21678,-2.78164,0.99402,1.57080,0.00001,-0.14512,-0.38002,0.04226,,,,,,,,,,,,,,,,,,,,,,,,,,0,0,0,0,0
2.5153,1783190096.8563,1,1,3.0000,0.0000,1.44681,0.21671,-2.78166,0.99412,1.57080,0.00001,-0.14512,-0.38002,0.04224,,,,,,,,,,,,,,,,,,,,,,,,,,0,0,0,0,0
2.5256,1783190096.8665,1,1,3.0000,0.0000,1.44681,0.21664,-2.78167,0.99420,1.57080,0.00001,-0.14512,-0.38002,0.04223,,,,,,,,,,,,,,,,,,,,,,,,,,0,0,0,0,0
2.5359,1783190096.8768,1,1,3.0000,0.0000,1.44681,0.21657,-2.78169,0.99429,1.57080,0.00001,-0.14512,-0.38002,0.04221,,,,,,,,,,,,,,,,,,,,,,,,,,0,0,0,0,0
2.5468,1783190096.8878,1,1,3.0000,0.0000,1.44681,0.21641,-2.78173,0.99449,1.57080,0.00001,-0.14512,-0.38002,0.04217,,,,,,,,,,,,,,,,,,,,,,,,,,0,0,0,0,0
2.5565,1783190096.8975,1,1,3.0000,0.0000,1.44681,0.21639,-2.78173,0.99451,1.57080,0.00001,-0.14512,-0.38002,0.04216,,,,,,,,,,,,,,,,,,,,,,,,,,0,0,0,0,0
2.5568,1783190096.8977,1,1,3.0000,0.0000,1.44681,0.21639,-2.78173,0.99451,1.57080,0.00001,-0.14512,-0.38002,0.04216,,,,,,,,,,,,,,,,,,,,,,,,,,0,0,0,0,0
2.5658,1783190096.9068,1,1,3.0000,0.0000,1.44681,0.21624,-2.78177,0.99469,1.57080,0.00001,-0.14512,-0.38002,0.04212,,,,,,,,,,,,,,,,,,,,,,,,,,0,0,0,0,0
2.5758,1783190096.9168,1,1,3.0000,0.0000,1.44681,0.21610,-2.78181,0.99487,1.57080,0.00001,-0.14512,-0.38002,0.04209,,,,,,,,,,,,,,,,,,,,,,,,,,0,0,0,0,0
2.5861,1783190096.9270,1,1,3.0000,0.0000,1.44681,0.21602,-2.78183,0.99497,1.57080,0.00001,-0.14512,-0.38002,0.04207,,,,,,,,,,,,,,,,,,,,,,,,,,0,0,0,0,0
2.5967,1783190096.9376,1,1,3.0000,0.0000,1.44681,0.21596,-2.78184,0.99505,1.57080,0.00001,-0.14512,-0.38002,0.04205,,,,,,,,,,,,,,,,,,,,,,,,,,0,0,0,0,0
2.6153,1783190096.9563,1,1,3.0000,0.0000,1.44681,0.21579,-2.78188,0.99526,1.57080,0.00001,-0.14512,-0.38002,0.04201,,,,,,,,,,,,,,,,,,,,,,,,,,0,0,0,0,0
2.6207,1783190096.9617,1,1,3.0000,0.0000,1.44681,0.21575,-2.78189,0.99531,1.57080,0.00001,-0.14512,-0.38002,0.04200,,,,,,,,,,,,,,,,,,,,,,,,,,0,0,0,0,0
2.6214,1783190096.9624,1,1,3.0000,0.0000,1.44681,0.21570,-2.78190,0.99537,1.57080,0.00001,-0.14512,-0.38002,0.04199,,,,,,,,,,,,,,,,,,,,,,,,,,0,0,0,0,0
2.6271,1783190096.9681,1,1,3.0000,0.0000,1.44681,0.21564,-2.78192,0.99545,1.57080,0.00001,-0.14512,-0.38002,0.04197,,,,,,,,,,,,,,,,,,,,,,,,,,0,0,0,0,0
2.6274,1783190096.9683,1,1,3.0000,0.0000,1.44681,0.21564,-2.78192,0.99545,1.57080,0.00001,-0.14512,-0.38002,0.04197,,,,,,,,,,,,,,,,,,,,,,,,,,0,0,0,0,0
2.6353,1783190096.9762,1,1,3.0000,0.0000,1.44681,0.21549,-2.78196,0.99563,1.57080,0.00001,-0.14512,-0.38002,0.04193,,,,,,,,,,,,,,,,,,,,,,,,,,0,0,0,0,0
2.6356,1783190096.9766,1,1,3.0000,0.0000,1.44681,0.21549,-2.78196,0.99563,1.57080,0.00001,-0.14512,-0.38002,0.04193,,,,,,,,,,,,,,,,,,,,,,,,,,0,0,0,0,0
2.6476,1783190096.9885,1,1,3.0000,0.0000,1.44681,0.21541,-2.78198,0.99573,1.57080,0.00001,-0.14512,-0.38002,0.04191,,,,,,,,,,,,,,,,,,,,,,,,,,0,0,0,0,0
2.6579,1783190096.9989,1,1,3.0000,0.0000,1.44681,0.21527,-2.78201,0.99591,1.57080,0.00001,-0.14512,-0.38002,0.04188,,,,,,,,,,,,,,,,,,,,,,,,,,0,0,0,0,0
2.6583,1783190096.9993,1,1,3.0000,0.0000,1.44681,0.21527,-2.78201,0.99591,1.57080,0.00001,-0.14512,-0.38002,0.04188,,,,,,,,,,,,,,,,,,,,,,,,,,0,0,0,0,0
2.6676,1783190097.0086,1,1,3.0000,0.0000,1.44681,0.21513,-2.78205,0.99609,1.57080,0.00001,-0.14512,-0.38002,0.04184,,,,,,,,,,,,,,,,,,,,,,,,,,0,0,0,0,0
2.6769,1783190097.0179,1,1,3.0000,0.0000,1.44681,0.21506,-2.78206,0.99617,1.57080,0.00001,-0.14512,-0.38002,0.04182,,,,,,,,,,,,,,,,,,,,,,,,,,0,0,0,0,0
2.6887,1783190097.0297,1,1,3.0000,0.0000,1.44681,0.21499,-2.78208,0.99626,1.57080,0.00001,-0.14512,-0.38002,0.04180,,,,,,,,,,,,,,,,,,,,,,,,,,0,0,0,0,0
2.6895,1783190097.0305,1,1,3.0000,0.0000,1.44681,0.21494,-2.78209,0.99632,1.57080,0.00001,-0.14512,-0.38002,0.04179,,,,,,,,,,,,,,,,,,,,,,,,,,0,0,0,0,0
2.7257,1783190097.0667,1,1,3.0000,0.0000,1.44681,0.21452,-2.78219,0.99684,1.57080,0.00002,-0.14512,-0.38002,0.04168,,,,,,,,,,,,,,,,,,,,,,,,,,0,0,0,0,0
2.7289,1783190097.0699,1,1,3.0000,0.0000,1.44681,0.21452,-2.78219,0.99684,1.57080,0.00002,-0.14512,-0.38002,0.04168,,,,,,,,,,,,,,,,,,,,,,,,,,0,0,0,0,0
2.7296,1783190097.0706,1,1,3.0000,0.0000,1.44681,0.21445,-2.78221,0.99693,1.57080,0.00002,-0.14512,-0.38002,0.04167,,,,,,,,,,,,,,,,,,,,,,,,,,0,0,0,0,0
2.7910,1783190097.1320,1,1,3.0000,0.0000,1.44681,0.21384,-2.78236,0.99769,1.57080,0.00002,-0.14512,-0.38002,0.04151,,,,,,,,,,,,,,,,,,,,,,,,,,0,0,0,0,0
2.7914,1783190097.1324,1,1,3.0000,0.0000,1.44681,0.21384,-2.78236,0.99769,1.57080,0.00002,-0.14512,-0.38002,0.04151,,,,,,,,,,,,,,,,,,,,,,,,,,0,0,0,0,0
2.7955,1783190097.1365,1,1,3.0000,0.0000,1.44681,0.21384,-2.78236,0.99769,1.57080,0.00002,-0.14512,-0.38002,0.04151,,,,,,,,,,,,,,,,,,,,,,,,,,0,0,0,0,0
2.7959,1783190097.1369,1,1,3.0000,0.0000,1.44681,0.21384,-2.78236,0.99769,1.57080,0.00002,-0.14512,-0.38002,0.04151,,,,,,,,,,,,,,,,,,,,,,,,,,0,0,0,0,0
2.7964,1783190097.1374,1,1,3.0000,0.0000,1.44681,0.21384,-2.78236,0.99769,1.57080,0.00002,-0.14512,-0.38002,0.04151,,,,,,,,,,,,,,,,,,,,,,,,,,0,0,0,0,0
2.7968,1783190097.1377,1,1,3.0000,0.0000,1.44681,0.21384,-2.78236,0.99769,1.57080,0.00002,-0.14512,-0.38002,0.04151,,,,,,,,,,,,,,,,,,,,,,,,,,0,0,0,0,0
2.8069,1783190097.1479,1,1,3.0000,0.0000,1.44681,0.21377,-2.78238,0.99778,1.57080,0.00002,-0.14512,-0.38002,0.04149,,,,,,,,,,,,,,,,,,,,,,,,,,0,0,0,0,0
2.8169,1783190097.1578,1,1,3.0000,0.0000,1.44681,0.21366,-2.78240,0.99790,1.57080,0.00002,-0.14512,-0.38002,0.04147,,,,,,,,,,,,,,,,,,,,,,,,,,0,0,0,0,0
2.8261,1783190097.1671,1,1,3.0000,0.0000,1.44681,0.21359,-2.78242,0.99799,1.57080,0.00002,-0.14512,-0.38002,0.04145,,,,,,,,,,,,,,,,,,,,,,,,,,0,0,0,0,0
2.8430,1783190097.1839,1,1,3.0000,0.0000,1.44681,0.21337,-2.78247,0.99827,1.57080,0.00002,-0.14512,-0.38002,0.04139,,,,,,,,,,,,,,,,,,,,,,,,,,0,0,0,0,0
2.8461,1783190097.1871,1,1,3.0000,0.0000,1.44681,0.21330,-2.78249,0.99836,1.57080,0.00002,-0.14512,-0.38002,0.04137,,,,,,,,,,,,,,,,,,,,,,,,,,0,0,0,0,0
2.8464,1783190097.1873,1,1,3.0000,0.0000,1.44681,0.21330,-2.78249,0.99836,1.57080,0.00002,-0.14512,-0.38002,0.04137,,,,,,,,,,,,,,,,,,,,,,,,,,0,0,0,0,0
2.8573,1783190097.1983,1,1,3.0000,0.0000,1.44681,0.21322,-2.78251,0.99846,1.57080,0.00002,-0.14512,-0.38002,0.04135,,,,,,,,,,,,,,,,,,,,,,,,,,0,0,0,0,0
2.8709,1783190097.2119,1,1,3.0000,0.0000,1.44681,0.21311,-2.78254,0.99859,1.57080,0.00002,-0.14512,-0.38002,0.04133,,,,,,,,,,,,,,,,,,,,,,,,,,0,0,0,0,0
2.8843,1783190097.2253,1,1,3.0000,0.0000,1.44681,0.21299,-2.78257,0.99874,1.57080,0.00002,-0.14512,-0.38002,0.04130,,,,,,,,,,,,,,,,,,,,,,,,,,0,0,0,0,0
2.8889,1783190097.2299,1,1,3.0000,0.0000,1.44681,0.21298,-2.78257,0.99875,1.57080,0.00002,-0.14512,-0.38002,0.04129,,,,,,,,,,,,,,,,,,,,,,,,,,0,0,0,0,0
2.9016,1783190097.2425,1,1,3.0000,0.0000,1.44681,0.21276,-2.78262,0.99903,1.57080,0.00002,-0.14512,-0.38002,0.04124,,,,,,,,,,,,,,,,,,,,,,,,,,0,0,0,0,0
2.9193,1783190097.2602,1,1,3.0000,0.0000,1.44681,0.21261,-2.78266,0.99922,1.57080,0.00002,-0.14512,-0.38002,0.04120,,,,,,,,,,,,,,,,,,,,,,,,,,0,0,0,0,0
2.9240,1783190097.2650,1,1,3.0000,0.0000,1.44681,0.21258,-2.78267,0.99925,1.57080,0.00002,-0.14512,-0.38002,0.04119,,,,,,,,,,,,,,,,,,,,,,,,,,0,0,0,0,0
2.9244,1783190097.2654,1,1,3.0000,0.0000,1.44681,0.21258,-2.78267,0.99925,1.57080,0.00002,-0.14512,-0.38002,0.04119,,,,,,,,,,,,,,,,,,,,,,,,,,0,0,0,0,0
2.9423,1783190097.2833,1,1,3.0000,0.0000,1.44681,0.21238,-2.78271,0.99950,1.57080,0.00002,-0.14512,-0.38002,0.04114,,,,,,,,,,,,,,,,,,,,,,,,,,0,0,0,0,0
2.9427,1783190097.2837,1,1,3.0000,0.0000,1.44681,0.21238,-2.78271,0.99950,1.57080,0.00002,-0.14512,-0.38002,0.04114,,,,,,,,,,,,,,,,,,,,,,,,,,0,0,0,0,0
2.9488,1783190097.2897,1,1,3.0000,0.0000,1.44681,0.21237,-2.78272,0.99951,1.57080,0.00002,-0.14512,-0.38002,0.04114,,,,,,,,,,,,,,,,,,,,,,,,,,0,0,0,0,0
2.9648,1783190097.3057,1,1,3.0000,0.0000,1.44681,0.21215,-2.78277,0.99979,1.57080,0.00002,-0.14512,-0.38002,0.04108,,,,,,,,,,,,,,,,,,,,,,,,,,0,0,0,0,0
2.9654,1783190097.3064,1,1,3.0000,0.0000,1.44681,0.21208,-2.78279,0.99988,1.57080,0.00002,-0.14512,-0.38002,0.04106,,,,,,,,,,,,,,,,,,,,,,,,,,0,0,0,0,0
2.9760,1783190097.3170,1,1,3.0000,0.0000,1.44681,0.21201,-2.78281,0.99997,1.57080,0.00002,-0.14512,-0.38002,0.04105,,,,,,,,,,,,,,,,,,,,,,,,,,0,0,0,0,0
2.9842,1783190097.3252,1,1,3.0000,0.0000,1.44681,0.21197,-2.78281,1.00001,1.57080,0.00002,-0.14512,-0.38002,0.04104,,,,,,,,,,,,,,,,,,,,,,,,,,0,0,0,0,0
2.9889,1783190097.3298,1,1,3.0000,0.0000,1.44681,0.21194,-2.78282,1.00005,1.57080,0.00002,-0.14512,-0.38002,0.04103,,,,,,,,,,,,,,,,,,,,,,,,,,0,0,0,0,0
2.9897,1783190097.3307,1,1,3.0000,0.0000,1.44681,0.21189,-2.78283,1.00011,1.57080,0.00002,-0.14512,-0.38002,0.04102,,,,,,,,,,,,,,,,,,,,,,,,,,0,0,0,0,0
3.0016,1783190097.3425,1,1,3.0000,0.0000,1.44681,0.21177,-2.78286,1.00026,1.57080,0.00002,-0.14512,-0.38002,0.04099,,,,,,,,,,,,,,,,,,,,,,,,,,0,0,0,0,0
3.0019,1783190097.3429,1,1,3.0000,0.0000,1.44681,0.21177,-2.78286,1.00026,1.57080,0.00002,-0.14512,-0.38002,0.04099,,,,,,,,,,,,,,,,,,,,,,,,,,0,0,0,0,0
3.0123,1783190097.3533,1,1,3.0000,0.0000,1.44681,0.21172,-2.78287,1.00032,1.57080,0.00002,-0.14512,-0.38002,0.04097,,,,,,,,,,,,,,,,,,,,,,,,,,0,0,0,0,0
3.0233,1783190097.3642,1,1,3.0000,0.0000,1.44681,0.21154,-2.78292,1.00055,1.57080,0.00002,-0.14512,-0.38002,0.04093,,,,,,,,,,,,,,,,,,,,,,,,,,0,0,0,0,0
3.0287,1783190097.3697,1,1,3.0000,0.0000,1.44681,0.21146,-2.78294,1.00064,1.57080,0.00002,-0.14512,-0.38002,0.04091,,,,,,,,,,,,,,,,,,,,,,,,,,0,0,0,0,0
3.0391,1783190097.3801,1,1,3.0000,0.0000,1.44681,0.21138,-2.78296,1.00074,1.57080,0.00002,-0.14512,-0.38002,0.04089,,,,,,,,,,,,,,,,,,,,,,,,,,0,0,0,0,0
3.0519,1783190097.3929,1,1,3.0000,0.0000,1.44681,0.21128,-2.78298,1.00087,1.57080,0.00002,-0.14512,-0.38002,0.04086,,,,,,,,,,,,,,,,,,,,,,,,,,0,0,0,0,0
3.0522,1783190097.3932,1,1,3.0000,0.0000,1.44681,0.21128,-2.78298,1.00087,1.57080,0.00002,-0.14512,-0.38002,0.04086,,,,,,,,,,,,,,,,,,,,,,,,,,0,0,0,0,0
3.0584,1783190097.3994,1,1,3.0000,0.0000,1.44681,0.21116,-2.78301,1.00102,1.57080,0.00002,-0.14512,-0.38002,0.04083,,,,,,,,,,,,,,,,,,,,,,,,,,0,0,0,0,0
3.0710,1783190097.4119,1,1,3.0000,0.0000,1.44681,0.21111,-2.78302,1.00107,1.57080,0.00002,-0.14512,-0.38002,0.04082,,,,,,,,,,,,,,,,,,,,,,,,,,0,0,0,0,0
3.0829,1783190097.4239,1,1,3.0000,0.0000,1.44681,0.21093,-2.78307,1.00131,1.57080,0.00002,-0.14512,-0.38002,0.04077,,,,,,,,,,,,,,,,,,,,,,,,,,0,0,0,0,0
3.0834,1783190097.4244,1,1,3.0000,0.0000,1.44681,0.21093,-2.78307,1.00131,1.57080,0.00002,-0.14512,-0.38002,0.04077,,,,,,,,,,,,,,,,,,,,,,,,,,0,0,0,0,0
3.0934,1783190097.4344,1,1,3.0000,0.0000,1.44681,0.21078,-2.78310,1.00149,1.57080,0.00002,-0.14512,-0.38002,0.04074,,,,,,,,,,,,,,,,,,,,,,,,,,0,0,0,0,0
3.0993,1783190097.4403,1,1,3.0000,0.0000,1.44681,0.21077,-2.78311,1.00150,1.57080,0.00002,-0.14512,-0.38002,0.04073,,,,,,,,,,,,,,,,,,,,,,,,,,0,0,0,0,0
3.0997,1783190097.4407,1,1,3.0000,0.0000,1.44681,0.21077,-2.78311,1.00150,1.57080,0.00002,-0.14512,-0.38002,0.04073,,,,,,,,,,,,,,,,,,,,,,,,,,0,0,0,0,0
3.1119,1783190097.4529,1,1,3.0000,0.0000,1.44681,0.21062,-2.78314,1.00168,1.57080,0.00002,-0.14512,-0.38002,0.04070,,,,,,,,,,,,,,,,,,,,,,,,,,0,0,0,0,0
3.1122,1783190097.4532,1,1,3.0000,0.0000,1.44681,0.21062,-2.78314,1.00168,1.57080,0.00002,-0.14512,-0.38002,0.04070,,,,,,,,,,,,,,,,,,,,,,,,,,0,0,0,0,0
3.1300,1783190097.4709,1,1,3.0000,0.0000,1.44681,0.21044,-2.78319,1.00191,1.57080,0.00002,-0.14512,-0.38002,0.04065,,,,,,,,,,,,,,,,,,,,,,,,,,0,0,0,0,0
3.1302,1783190097.4712,1,1,3.0000,0.0000,1.44681,0.21044,-2.78319,1.00191,1.57080,0.00002,-0.14512,-0.38002,0.04065,,,,,,,,,,,,,,,,,,,,,,,,,,0,0,0,0,0
3.1327,1783190097.4737,1,1,3.0000,0.0000,1.44681,0.21044,-2.78319,1.00191,1.57080,0.00002,-0.14512,-0.38002,0.04065,,,,,,,,,,,,,,,,,,,,,,,,,,0,0,0,0,0
3.1334,1783190097.4743,1,1,3.0000,0.0000,1.44681,0.21039,-2.78320,1.00198,1.57080,0.00002,-0.14512,-0.38002,0.04064,,,,,,,,,,,,,,,,,,,,,,,,,,0,0,0,0,0
3.1400,1783190097.4810,1,1,3.0000,0.0000,1.44681,0.21032,-2.78321,1.00205,1.57080,0.00002,-0.14512,-0.38002,0.04062,,,,,,,,,,,,,,,,,,,,,,,,,,0,0,0,0,0
3.1403,1783190097.4813,1,1,3.0000,0.0000,1.44681,0.21032,-2.78321,1.00205,1.57080,0.00002,-0.14512,-0.38002,0.04062,,,,,,,,,,,,,,,,,,,,,,,,,,0,0,0,0,0
3.1487,1783190097.4896,1,1,3.0000,0.0000,1.44681,0.21018,-2.78325,1.00223,1.57080,0.00002,-0.14512,-0.38002,0.04058,,,,,,,,,,,,,,,,,,,,,,,,,,0,0,0,0,0
3.1587,1783190097.4997,1,1,3.0000,0.0000,1.44681,0.21010,-2.78327,1.00233,1.57080,0.00002,-0.14512,-0.38002,0.04056,,,,,,,,,,,,,,,,,,,,,,,,,,0,0,0,0,0
3.1591,1783190097.5001,1,1,3.0000,0.0000,1.44681,0.21010,-2.78327,1.00233,1.57080,0.00002,-0.14512,-0.38002,0.04056,,,,,,,,,,,,,,,,,,,,,,,,,,0,0,0,0,0
3.1710,1783190097.5119,1,1,3.0000,0.0000,1.44681,0.20996,-2.78330,1.00251,1.57080,0.00002,-0.14512,-0.38002,0.04053,,,,,,,,,,,,,,,,,,,,,,,,,,0,0,0,0,0
3.1787,1783190097.5197,1,1,3.0000,0.0000,1.44681,0.20981,-2.78334,1.00269,1.57080,0.00002,-0.14512,-0.38002,0.04049,,,,,,,,,,,,,,,,,,,,,,,,,,0,0,0,0,0
3.1901,1783190097.5311,1,1,3.0000,0.0000,1.44680,0.20977,-2.78335,1.00274,1.57080,0.00002,-0.14512,-0.38002,0.04048,,,,,,,,,,,,,,,,,,,,,,,,,,0,0,0,0,0
3.2001,1783190097.5411,1,1,3.0000,0.0000,1.44680,0.20966,-2.78337,1.00288,1.57080,0.00002,-0.14512,-0.38002,0.04045,,,,,,,,,,,,,,,,,,,,,,,,,,0,0,0,0,0
3.2007,1783190097.5416,1,1,3.0000,0.0000,1.44680,0.20966,-2.78337,1.00288,1.57080,0.00002,-0.14512,-0.38002,0.04045,,,,,,,,,,,,,,,,,,,,,,,,,,0,0,0,0,0
3.2087,1783190097.5497,1,1,3.0000,0.0000,1.44680,0.20952,-2.78341,1.00306,1.57079,0.00002,-0.14512,-0.38002,0.04042,,,,,,,,,,,,,,,,,,,,,,,,,,0,0,0,0,0
3.2304,1783190097.5714,1,1,3.0000,0.0000,1.44680,0.20929,-2.78346,1.00334,1.57079,0.00002,-0.14512,-0.38002,0.04036,,,,,,,,,,,,,,,,,,,,,,,,,,0,0,0,0,0
3.2308,1783190097.5718,1,1,3.0000,0.0000,1.44680,0.20929,-2.78346,1.00334,1.57079,0.00002,-0.14512,-0.38002,0.04036,,,,,,,,,,,,,,,,,,,,,,,,,,0,0,0,0,0
3.2398,1783190097.5808,1,1,3.0000,0.0000,1.44680,0.20914,-2.78350,1.00352,1.57079,0.00002,-0.14512,-0.38002,0.04032,,,,,,,,,,,,,,,,,,,,,,,,,,0,0,0,0,0
3.2495,1783190097.5905,1,1,3.0000,0.0000,1.44680,0.20910,-2.78351,1.00357,1.57079,0.00002,-0.14512,-0.38002,0.04031,,,,,,,,,,,,,,,,,,,,,,,,,,0,0,0,0,0
3.2589,1783190097.5999,1,1,3.0000,0.0000,1.44680,0.20899,-2.78354,1.00371,1.57079,0.00002,-0.14512,-0.38002,0.04028,,,,,,,,,,,,,,,,,,,,,,,,,,0,0,0,0,0
3.2594,1783190097.6004,1,1,3.0000,0.0000,1.44680,0.20899,-2.78354,1.00371,1.57079,0.00002,-0.14512,-0.38002,0.04028,,,,,,,,,,,,,,,,,,,,,,,,,,0,0,0,0,0
3.2722,1783190097.6132,1,1,3.0000,0.0000,1.44680,0.20878,-2.78359,1.00397,1.57079,0.00002,-0.14512,-0.38002,0.04023,,,,,,,,,,,,,,,,,,,,,,,,,,0,0,0,0,0
3.2799,1783190097.6209,1,1,3.0000,0.0000,1.44680,0.20876,-2.78359,1.00399,1.57079,0.00002,-0.14512,-0.38002,0.04023,,,,,,,,,,,,,,,,,,,,,,,,,,0,0,0,0,0
3.2887,1783190097.6296,1,1,3.0000,0.0000,1.44680,0.20868,-2.78361,1.00409,1.57079,0.00002,-0.14512,-0.38002,0.04020,,,,,,,,,,,,,,,,,,,,,,,,,,0,0,0,0,0
3.2987,1783190097.6396,1,1,3.0000,0.0000,1.44680,0.20848,-2.78366,1.00435,1.57079,0.00002,-0.14512,-0.38002,0.04015,,,,,,,,,,,,,,,,,,,,,,,,,,0,0,0,0,0
3.3099,1783190097.6509,1,1,3.0000,0.0000,1.44680,0.20843,-2.78367,1.00440,1.57079,0.00002,-0.14512,-0.38002,0.04014,,,,,,,,,,,,,,,,,,,,,,,,,,0,0,0,0,0
3.3285,1783190097.6695,1,1,3.0000,0.0000,1.44680,0.20818,-2.78373,1.00472,1.57079,0.00002,-0.14512,-0.38002,0.04008,,,,,,,,,,,,,,,,,,,,,,,,,,0,0,0,0,0
3.3289,1783190097.6699,1,1,3.0000,0.0000,1.44680,0.20818,-2.78373,1.00472,1.57079,0.00002,-0.14512,-0.38002,0.04008,,,,,,,,,,,,,,,,,,,,,,,,,,0,0,0,0,0
3.3323,1783190097.6733,1,1,3.0000,0.0000,1.44680,0.20811,-2.78375,1.00480,1.57079,0.00002,-0.14512,-0.38002,0.04006,,,,,,,,,,,,,,,,,,,,,,,,,,0,0,0,0,0
3.3390,1783190097.6799,1,1,3.0000,0.0000,1.44680,0.20809,-2.78375,1.00482,1.57079,0.00002,-0.14512,-0.38002,0.04006,,,,,,,,,,,,,,,,,,,,,,,,,,0,0,0,0,0
3.3538,1783190097.6948,1,1,3.0000,0.0000,1.44680,0.20788,-2.78380,1.00509,1.57079,0.00002,-0.14512,-0.38002,0.04000,,,,,,,,,,,,,,,,,,,,,,,,,,0,0,0,0,0
3.3586,1783190097.6996,1,1,3.0000,0.0000,1.44680,0.20781,-2.78382,1.00518,1.57079,0.00002,-0.14512,-0.38002,0.03998,,,,,,,,,,,,,,,,,,,,,,,,,,0,0,0,0,0
3.3749,1783190097.7159,1,1,3.0000,0.0000,1.44680,0.20770,-2.78384,1.00531,1.57079,0.00002,-0.14512,-0.38002,0.03996,,,,,,,,,,,,,,,,,,,,,,,,,,0,0,0,0,0
3.3802,1783190097.7212,1,1,3.0000,0.0000,1.44680,0.20766,-2.78385,1.00535,1.57079,0.00002,-0.14512,-0.38002,0.03995,,,,,,,,,,,,,,,,,,,,,,,,,,0,0,0,0,0
3.3905,1783190097.7315,1,1,3.0000,0.0000,1.44680,0.20750,-2.78389,1.00556,1.57079,0.00002,-0.14512,-0.38002,0.03991,,,,,,,,,,,,,,,,,,,,,,,,,,0,0,0,0,0
3.4040,1783190097.7450,1,1,3.0000,0.0000,1.44680,0.20745,-2.78390,1.00562,1.57079,0.00002,-0.14512,-0.38002,0.03989,,,,,,,,,,,,,,,,,,,,,,,,,,0,0,0,0,0
3.4097,1783190097.7506,1,1,3.0000,0.0000,1.44680,0.20733,-2.78393,1.00576,1.57079,0.00002,-0.14512,-0.38002,0.03987,,,,,,,,,,,,,,,,,,,,,,,,,,0,0,0,0,0
3.4099,1783190097.7509,1,1,3.0000,0.0000,1.44680,0.20733,-2.78393,1.00576,1.57079,0.00002,-0.14512,-0.38002,0.03987,,,,,,,,,,,,,,,,,,,,,,,,,,0,0,0,0,0
3.4186,1783190097.7595,1,1,3.0000,0.0000,1.44680,0.20719,-2.78397,1.00594,1.57079,0.00002,-0.14512,-0.38002,0.03983,,,,,,,,,,,,,,,,,,,,,,,,,,0,0,0,0,0
3.4309,1783190097.7719,1,1,3.0000,0.0000,1.44680,0.20714,-2.78398,1.00600,1.57079,0.00002,-0.14512,-0.38002,0.03982,,,,,,,,,,,,,,,,,,,,,,,,,,0,0,0,0,0
3.4394,1783190097.7804,1,1,3.0000,0.0000,1.44680,0.20703,-2.78400,1.00614,1.57079,0.00002,-0.14512,-0.38002,0.03979,,,,,,,,,,,,,,,,,,,,,,,,,,0,0,0,0,0
3.4487,1783190097.7897,1,1,3.0000,0.0000,1.44680,0.20689,-2.78404,1.00631,1.57079,0.00002,-0.14512,-0.38002,0.03975,,,,,,,,,,,,,,,,,,,,,,,,,,0,0,0,0,0
3.4627,1783190097.8036,1,1,3.0000,0.0000,1.44680,0.20677,-2.78407,1.00645,1.57079,0.00002,-0.14512,-0.38002,0.03972,,,,,,,,,,,,,,,,,,,,,,,,,,0,0,0,0,0
3.4696,1783190097.8106,1,1,3.0000,0.0000,1.44680,0.20666,-2.78409,1.00660,1.57079,0.00002,-0.14512,-0.38002,0.03970,,,,,,,,,,,,,,,,,,,,,,,,,,0,0,0,0,0
3.4700,1783190097.8110,1,1,3.0000,0.0000,1.44680,0.20666,-2.78409,1.00660,1.57079,0.00002,-0.14512,-0.38002,0.03970,,,,,,,,,,,,,,,,,,,,,,,,,,0,0,0,0,0
3.4808,1783190097.8218,1,1,3.0000,0.0000,1.44680,0.20652,-2.78413,1.00677,1.57079,0.00002,-0.14512,-0.38002,0.03966,,,,,,,,,,,,,,,,,,,,,,,,,,0,0,0,0,0
3.4928,1783190097.8337,1,1,3.0000,0.0000,1.44680,0.20644,-2.78415,1.00687,1.57079,0.00002,-0.14512,-0.38002,0.03964,,,,,,,,,,,,,,,,,,,,,,,,,,0,0,0,0,0
3.4986,1783190097.8396,1,1,3.0000,0.0000,1.44680,0.20638,-2.78416,1.00695,1.57079,0.00002,-0.14512,-0.38002,0.03962,,,,,,,,,,,,,,,,,,,,,,,,,,0,0,0,0,0
3.4990,1783190097.8400,1,1,3.0000,0.0000,1.44680,0.20638,-2.78416,1.00695,1.57079,0.00002,-0.14512,-0.38002,0.03962,,,,,,,,,,,,,,,,,,,,,,,,,,0,0,0,0,0
3.5087,1783190097.8496,1,1,3.0000,0.0000,1.44680,0.20627,-2.78419,1.00708,1.57079,0.00002,-0.14512,-0.38002,0.03960,,,,,,,,,,,,,,,,,,,,,,,,,,0,0,0,0,0
3.5188,1783190097.8598,1,1,3.0000,0.0000,1.44680,0.20620,-2.78420,1.00717,1.57079,0.00002,-0.14512,-0.38002,0.03958,,,,,,,,,,,,,,,,,,,,,,,,,,0,0,0,0,0
3.5305,1783190097.8715,1,1,3.0000,0.0000,1.44680,0.20605,-2.78424,1.00736,1.57079,0.00002,-0.14512,-0.38002,0.03954,,,,,,,,,,,,,,,,,,,,,,,,,,0,0,0,0,0
3.5308,1783190097.8718,1,1,3.0000,0.0000,1.44680,0.20605,-2.78424,1.00736,1.57079,0.00002,-0.14512,-0.38002,0.03954,,,,,,,,,,,,,,,,,,,,,,,,,,0,0,0,0,0
3.5386,1783190097.8796,1,1,3.0000,0.0000,1.44680,0.20590,-2.78427,1.00754,1.57079,0.00002,-0.14512,-0.38002,0.03950,,,,,,,,,,,,,,,,,,,,,,,,,,0,0,0,0,0
3.5389,1783190097.8799,1,1,3.0000,0.0000,1.44680,0.20590,-2.78427,1.00754,1.57079,0.00002,-0.14512,-0.38002,0.03950,,,,,,,,,,,,,,,,,,,,,,,,,,0,0,0,0,0
3.5485,1783190097.8895,1,1,3.0000,0.0000,1.44680,0.20583,-2.78429,1.00762,1.57079,0.00002,-0.14512,-0.38002,0.03949,,,,,,,,,,,,,,,,,,,,,,,,,,0,0,0,0,0
3.5599,1783190097.9009,1,1,3.0000,0.0000,1.44680,0.20576,-2.78431,1.00771,1.57079,0.00002,-0.14512,-0.38002,0.03947,,,,,,,,,,,,,,,,,,,,,,,,,,0,0,0,0,0
3.5602,1783190097.9012,1,1,3.0000,0.0000,1.44680,0.20576,-2.78431,1.00771,1.57079,0.00002,-0.14512,-0.38002,0.03947,,,,,,,,,,,,,,,,,,,,,,,,,,0,0,0,0,0
3.5686,1783190097.9096,1,1,3.0000,0.0000,1.44680,0.20566,-2.78433,1.00784,1.57079,0.00002,-0.14512,-0.38002,0.03944,,,,,,,,,,,,,,,,,,,,,,,,,,0,0,0,0,0
3.5690,1783190097.9100,1,1,3.0000,0.0000,1.44680,0.20566,-2.78433,1.00784,1.57079,0.00002,-0.14512,-0.38002,0.03944,,,,,,,,,,,,,,,,,,,,,,,,,,0,0,0,0,0
3.5821,1783190097.9231,1,1,3.0000,0.0000,1.44680,0.20555,-2.78436,1.00797,1.57079,0.00002,-0.14512,-0.38002,0.03942,,,,,,,,,,,,,,,,,,,,,,,,,,0,0,0,0,0
3.5886,1783190097.9296,1,1,3.0000,0.0000,1.44680,0.20550,-2.78437,1.00804,1.57079,0.00002,-0.14512,-0.38002,0.03940,,,,,,,,,,,,,,,,,,,,,,,,,,0,0,0,0,0
3.5890,1783190097.9299,1,1,3.0000,0.0000,1.44680,0.20550,-2.78437,1.00804,1.57079,0.00002,-0.14512,-0.38002,0.03940,,,,,,,,,,,,,,,,,,,,,,,,,,0,0,0,0,0
3.6005,1783190097.9414,1,1,3.0000,0.0000,1.44680,0.20528,-2.78442,1.00830,1.57079,0.00002,-0.14512,-0.38002,0.03935,,,,,,,,,,,,,,,,,,,,,,,,,,0,0,0,0,0
3.6096,1783190097.9505,1,1,3.0000,0.0000,1.44680,0.20521,-2.78444,1.00840,1.57079,0.00002,-0.14512,-0.38002,0.03933,,,,,,,,,,,,,,,,,,,,,,,,,,0,0,0,0,0
3.6197,1783190097.9607,1,1,3.0000,0.0000,1.44680,0.20514,-2.78445,1.00847,1.57079,0.00002,-0.14512,-0.38002,0.03931,,,,,,,,,,,,,,,,,,,,,,,,,,0,0,0,0,0
3.6358,1783190097.9768,1,1,3.0000,0.0000,1.44680,0.20498,-2.78449,1.00868,1.57079,0.00002,-0.14512,-0.38002,0.03927,,,,,,,,,,,,,,,,,,,,,,,,,,0,0,0,0,0
3.6417,1783190097.9827,1,1,3.0000,0.0000,1.44680,0.20493,-2.78450,1.00874,1.57079,0.00002,-0.14512,-0.38002,0.03926,,,,,,,,,,,,,,,,,,,,,,,,,,0,0,0,0,0
3.6494,1783190097.9904,1,1,3.0000,0.0000,1.44680,0.20481,-2.78453,1.00888,1.57079,0.00002,-0.14512,-0.38002,0.03923,,,,,,,,,,,,,,,,,,,,,,,,,,0,0,0,0,0
3.6629,1783190098.0038,1,1,3.0000,0.0000,1.44680,0.20460,-2.78458,1.00915,1.57079,0.00002,-0.14512,-0.38002,0.03918,,,,,,,,,,,,,,,,,,,,,,,,,,0,0,0,0,0
3.6708,1783190098.0118,1,1,3.0000,0.0000,1.44680,0.20459,-2.78459,1.00916,1.57079,0.00002,-0.14512,-0.38002,0.03917,,,,,,,,,,,,,,,,,,,,,,,,,,0,0,0,0,0
3.6819,1783190098.0229,1,1,3.0000,0.0000,1.44680,0.20448,-2.78461,1.00930,1.57079,0.00002,-0.14512,-0.38002,0.03915,,,,,,,,,,,,,,,,,,,,,,,,,,0,0,0,0,0
3.6823,1783190098.0233,1,1,3.0000,0.0000,1.44680,0.20448,-2.78461,1.00930,1.57079,0.00002,-0.14512,-0.38002,0.03915,,,,,,,,,,,,,,,,,,,,,,,,,,0,0,0,0,0
3.6896,1783190098.0306,1,1,3.0000,0.0000,1.44680,0.20436,-2.78464,1.00944,1.57079,0.00002,-0.14512,-0.38002,0.03912,,,,,,,,,,,,,,,,,,,,,,,,,,0,0,0,0,0
3.6992,1783190098.0402,1,1,3.0000,0.0000,1.44680,0.20435,-2.78464,1.00946,1.57079,0.00002,-0.14512,-0.38002,0.03911,,,,,,,,,,,,,,,,,,,,,,,,,,0,0,0,0,0
3.7188,1783190098.0598,1,1,3.0000,0.0000,1.44680,0.20405,-2.78471,1.00983,1.57079,0.00002,-0.14512,-0.38002,0.03904,,,,,,,,,,,,,,,,,,,,,,,,,,0,0,0,0,0
3.7191,1783190098.0601,1,1,3.0000,0.0000,1.44680,0.20405,-2.78471,1.00983,1.57079,0.00002,-0.14512,-0.38002,0.03904,,,,,,,,,,,,,,,,,,,,,,,,,,0,0,0,0,0
3.7193,1783190098.0603,1,1,3.0000,0.0000,1.44680,0.20405,-2.78471,1.00983,1.57079,0.00002,-0.14512,-0.38002,0.03904,,,,,,,,,,,,,,,,,,,,,,,,,,0,0,0,0,0
3.7295,1783190098.0705,1,1,3.0000,0.0000,1.44680,0.20397,-2.78473,1.00993,1.57079,0.00002,-0.14512,-0.38002,0.03902,,,,,,,,,,,,,,,,,,,,,,,,,,0,0,0,0,0
3.7297,1783190098.0707,1,1,3.0000,0.0000,1.44680,0.20397,-2.78473,1.00993,1.57079,0.00002,-0.14512,-0.38002,0.03902,,,,,,,,,,,,,,,,,,,,,,,,,,0,0,0,0,0
3.7440,1783190098.0849,1,1,3.0000,0.0000,1.44680,0.20386,-2.78476,1.01006,1.57079,0.00002,-0.14512,-0.38002,0.03899,,,,,,,,,,,,,,,,,,,,,,,,,,0,0,0,0,0
3.7503,1783190098.0913,1,1,3.0000,0.0000,1.44680,0.20374,-2.78479,1.01021,1.57079,0.00002,-0.14512,-0.38002,0.03896,,,,,,,,,,,,,,,,,,,,,,,,,,0,0,0,0,0
3.7586,1783190098.0996,1,1,3.0000,0.0000,1.44680,0.20373,-2.78479,1.01022,1.57079,0.00002,-0.14512,-0.38002,0.03896,,,,,,,,,,,,,,,,,,,,,,,,,,0,0,0,0,0
3.7704,1783190098.1114,1,1,3.0000,0.0000,1.44680,0.20358,-2.78483,1.01041,1.57079,0.00002,-0.14512,-0.38002,0.03892,,,,,,,,,,,,,,,,,,,,,,,,,,0,0,0,0,0
3.7851,1783190098.1261,1,1,3.0000,0.0000,1.44680,0.20336,-2.78488,1.01068,1.57079,0.00002,-0.14512,-0.38002,0.03887,,,,,,,,,,,,,,,,,,,,,,,,,,0,0,0,0,0
3.7905,1783190098.1314,1,1,3.0000,0.0000,1.44680,0.20335,-2.78488,1.01069,1.57079,0.00002,-0.14512,-0.38002,0.03886,,,,,,,,,,,,,,,,,,,,,,,,,,0,0,0,0,0
3.7907,1783190098.1317,1,1,3.0000,0.0000,1.44680,0.20335,-2.78488,1.01069,1.57079,0.00002,-0.14512,-0.38002,0.03886,,,,,,,,,,,,,,,,,,,,,,,,,,0,0,0,0,0
3.8028,1783190098.1437,1,1,3.0000,0.0000,1.44680,0.20324,-2.78490,1.01083,1.57079,0.00002,-0.14512,-0.38002,0.03884,,,,,,,,,,,,,,,,,,,,,,,,,,0,0,0,0,0
3.8088,1783190098.1498,1,1,3.0000,0.0000,1.44680,0.20318,-2.78492,1.01090,1.57079,0.00002,-0.14512,-0.38002,0.03882,,,,,,,,,,,,,,,,,,,,,,,,,,0,0,0,0,0
3.8222,1783190098.1632,1,1,3.0000,0.0000,1.44680,0.20308,-2.78494,1.01103,1.57079,0.00002,-0.14512,-0.38002,0.03880,,,,,,,,,,,,,,,,,,,,,,,,,,0,0,0,0,0
3.8287,1783190098.1696,1,1,3.0000,0.0000,1.44680,0.20302,-2.78496,1.01110,1.57079,0.00002,-0.14512,-0.38002,0.03878,,,,,,,,,,,,,,,,,,,,,,,,,,0,0,0,0,0
3.8410,1783190098.1820,1,1,3.0000,0.0000,1.44680,0.20281,-2.78501,1.01136,1.57079,0.00002,-0.14512,-0.38001,0.03873,,,,,,,,,,,,,,,,,,,,,,,,,,0,0,0,0,0
3.8501,1783190098.1911,1,1,3.0000,0.0000,1.44680,0.20273,-2.78503,1.01146,1.57079,0.00002,-0.14512,-0.38001,0.03871,,,,,,,,,,,,,,,,,,,,,,,,,,0,0,0,0,0
3.8626,1783190098.2035,1,1,3.0000,0.0000,1.44680,0.20262,-2.78505,1.01159,1.57079,0.00002,-0.14512,-0.38001,0.03868,,,,,,,,,,,,,,,,,,,,,,,,,,0,0,0,0,0
3.8692,1783190098.2102,1,1,3.0000,0.0000,1.44680,0.20257,-2.78506,1.01166,1.57079,0.00002,-0.14512,-0.38001,0.03867,,,,,,,,,,,,,,,,,,,,,,,,,,0,0,0,0,0
3.8790,1783190098.2200,1,1,3.0000,0.0000,1.44680,0.20249,-2.78508,1.01175,1.57079,0.00002,-0.14512,-0.38001,0.03865,,,,,,,,,,,,,,,,,,,,,,,,,,0,0,0,0,0
3.8930,1783190098.2340,1,1,3.0000,0.0000,1.44680,0.20234,-2.78512,1.01194,1.57079,0.00002,-0.14512,-0.38001,0.03861,,,,,,,,,,,,,,,,,,,,,,,,,,0,0,0,0,0
3.9039,1783190098.2449,1,1,3.0000,0.0000,1.44680,0.20212,-2.78517,1.01221,1.57079,0.00002,-0.14512,-0.38001,0.03856,,,,,,,,,,,,,,,,,,,,,,,,,,0,0,0,0,0
3.9170,1783190098.2580,1,1,3.0000,0.0000,1.44680,0.20209,-2.78518,1.01225,1.57079,0.00002,-0.14512,-0.38001,0.03855,,,,,,,,,,,,,,,,,,,,,,,,,,0,0,0,0,0
3.9217,1783190098.2627,1,1,3.0000,0.0000,1.44680,0.20200,-2.78520,1.01236,1.57079,0.00002,-0.14512,-0.38001,0.03853,,,,,,,,,,,,,,,,,,,,,,,,,,0,0,0,0,0
3.9220,1783190098.2630,1,1,3.0000,0.0000,1.44680,0.20200,-2.78520,1.01236,1.57079,0.00002,-0.14512,-0.38001,0.03853,,,,,,,,,,,,,,,,,,,,,,,,,,0,0,0,0,0
3.9320,1783190098.2730,1,1,3.0000,0.0000,1.44680,0.20188,-2.78522,1.01250,1.57079,0.00002,-0.14512,-0.38001,0.03850,,,,,,,,,,,,,,,,,,,,,,,,,,0,0,0,0,0
3.9429,1783190098.2838,1,1,3.0000,0.0000,1.44680,0.20184,-2.78524,1.01256,1.57079,0.00002,-0.14512,-0.38001,0.03849,,,,,,,,,,,,,,,,,,,,,,,,,,0,0,0,0,0
3.9564,1783190098.2974,1,1,3.0000,0.0000,1.44680,0.20165,-2.78528,1.01280,1.57079,0.00002,-0.14512,-0.38001,0.03844,,,,,,,,,,,,,,,,,,,,,,,,,,0,0,0,0,0
3.9638,1783190098.3047,1,1,3.0000,0.0000,1.44680,0.20150,-2.78532,1.01298,1.57079,0.00003,-0.14512,-0.38001,0.03840,,,,,,,,,,,,,,,,,,,,,,,,,,0,0,0,0,0
3.9740,1783190098.3150,1,1,3.0000,0.0000,1.44680,0.20145,-2.78533,1.01303,1.57079,0.00003,-0.14512,-0.38001,0.03839,,,,,,,,,,,,,,,,,,,,,,,,,,0,0,0,0,0
3.9744,1783190098.3154,1,1,3.0000,0.0000,1.44680,0.20145,-2.78533,1.01303,1.57079,0.00003,-0.14512,-0.38001,0.03839,,,,,,,,,,,,,,,,,,,,,,,,,,0,0,0,0,0
3.9832,1783190098.3242,1,1,3.0000,0.0000,1.44680,0.20134,-2.78535,1.01318,1.57079,0.00003,-0.14512,-0.38001,0.03836,,,,,,,,,,,,,,,,,,,,,,,,,,0,0,0,0,0
3.9927,1783190098.3337,1,1,3.0000,0.0000,1.44680,0.20120,-2.78539,1.01335,1.57079,0.00003,-0.14512,-0.38001,0.03833,,,,,,,,,,,,,,,,,,,,,,,,,,0,0,0,0,0
4.0070,1783190098.3480,1,1,3.0000,0.0000,1.44680,0.20110,-2.78541,1.01347,1.57079,0.00003,-0.14512,-0.38001,0.03830,,,,,,,,,,,,,,,,,,,,,,,,,,0,0,0,0,0
4.0133,1783190098.3543,1,1,3.0000,0.0000,1.44680,0.20104,-2.78542,1.01355,1.57079,0.00003,-0.14512,-0.38001,0.03829,,,,,,,,,,,,,,,,,,,,,,,,,,0,0,0,0,0
4.0261,1783190098.3671,1,1,3.0000,0.0000,1.44680,0.20082,-2.78547,1.01381,1.57079,0.00003,-0.14512,-0.38001,0.03823,,,,,,,,,,,,,,,,,,,,,,,,,,0,0,0,0,0
4.0264,1783190098.3674,1,1,3.0000,0.0000,1.44680,0.20082,-2.78547,1.01381,1.57079,0.00003,-0.14512,-0.38001,0.03823,,,,,,,,,,,,,,,,,,,,,,,,,,0,0,0,0,0
4.0328,1783190098.3738,1,1,3.0000,0.0000,1.44680,0.20081,-2.78548,1.01383,1.57079,0.00003,-0.14512,-0.38001,0.03823,,,,,,,,,,,,,,,,,,,,,,,,,,0,0,0,0,0
4.0459,1783190098.3869,1,1,3.0000,0.0000,1.44680,0.20059,-2.78553,1.01410,1.57079,0.00003,-0.14512,-0.38001,0.03817,,,,,,,,,,,,,,,,,,,,,,,,,,0,0,0,0,0
4.0520,1783190098.3930,1,1,3.0000,0.0000,1.44680,0.20052,-2.78555,1.01419,1.57079,0.00003,-0.14512,-0.38001,0.03816,,,,,,,,,,,,,,,,,,,,,,,,,,0,0,0,0,0
4.0523,1783190098.3933,1,1,3.0000,0.0000,1.44680,0.20052,-2.78555,1.01419,1.57079,0.00003,-0.14512,-0.38001,0.03816,,,,,,,,,,,,,,,,,,,,,,,,,,0,0,0,0,0
4.0626,1783190098.4036,1,1,3.0000,0.0000,1.44680,0.20047,-2.78556,1.01424,1.57079,0.00003,-0.14512,-0.38001,0.03815,,,,,,,,,,,,,,,,,,,,,,,,,,0,0,0,0,0
4.0630,1783190098.4040,1,1,3.0000,0.0000,1.44680,0.20047,-2.78556,1.01424,1.57079,0.00003,-0.14512,-0.38001,0.03815,,,,,,,,,,,,,,,,,,,,,,,,,,0,0,0,0,0
4.0745,1783190098.4154,1,1,3.0000,0.0000,1.44680,0.20029,-2.78560,1.01447,1.57079,0.00003,-0.14512,-0.38001,0.03810,,,,,,,,,,,,,,,,,,,,,,,,,,0,0,0,0,0
4.0748,1783190098.4157,1,1,3.0000,0.0000,1.44680,0.20029,-2.78560,1.01447,1.57079,0.00003,-0.14512,-0.38001,0.03810,,,,,,,,,,,,,,,,,,,,,,,,,,0,0,0,0,0
4.0834,1783190098.4243,1,1,3.0000,0.0000,1.44680,0.20015,-2.78563,1.01465,1.57079,0.00003,-0.14512,-0.38001,0.03806,,,,,,,,,,,,,,,,,,,,,,,,,,0,0,0,0,0
4.0986,1783190098.4395,1,1,3.0000,0.0000,1.44680,0.20005,-2.78566,1.01477,1.57079,0.00003,-0.14512,-0.38001,0.03804,,,,,,,,,,,,,,,,,,,,,,,,,,0,0,0,0,0
4.1053,1783190098.4462,1,1,3.0000,0.0000,1.44680,0.19999,-2.78567,1.01485,1.57079,0.00003,-0.14512,-0.38001,0.03802,,,,,,,,,,,,,,,,,,,,,,,,,,0,0,0,0,0
4.2677,1783190098.6087,1,1,3.0000,0.0000,1.44680,0.19811,-2.78611,1.01716,1.57079,0.00003,-0.14512,-0.38001,0.03756,,,,,,,,,,,,,,,,,,,,,,,,,,0,0,0,0,0
4.2681,1783190098.6091,1,1,3.0000,0.0000,1.44680,0.19811,-2.78611,1.01716,1.57079,0.00003,-0.14512,-0.38001,0.03756,,,,,,,,,,,,,,,,,,,,,,,,,,0,0,0,0,0
4.2685,1783190098.6095,1,1,3.0000,0.0000,1.44680,0.19811,-2.78611,1.01716,1.57079,0.00003,-0.14512,-0.38001,0.03756,,,,,,,,,,,,,,,,,,,,,,,,,,0,0,0,0,0
4.2689,1783190098.6098,1,1,3.0000,0.0000,1.44680,0.19811,-2.78611,1.01716,1.57079,0.00003,-0.14512,-0.38001,0.03756,,,,,,,,,,,,,,,,,,,,,,,,,,0,0,0,0,0
4.2691,1783190098.6101,1,1,3.0000,0.0000,1.44680,0.19811,-2.78611,1.01716,1.57079,0.00003,-0.14512,-0.38001,0.03756,,,,,,,,,,,,,,,,,,,,,,,,,,0,0,0,0,0
4.2693,1783190098.6103,1,1,3.0000,0.0000,1.44680,0.19811,-2.78611,1.01716,1.57079,0.00003,-0.14512,-0.38001,0.03756,,,,,,,,,,,,,,,,,,,,,,,,,,0,0,0,0,0
4.2699,1783190098.6109,1,1,3.0000,0.0000,1.44680,0.19810,-2.78611,1.01717,1.57079,0.00003,-0.14512,-0.38001,0.03755,,,,,,,,,,,,,,,,,,,,,,,,,,0,0,0,0,0
4.2700,1783190098.6110,1,1,3.0000,0.0000,1.44680,0.19810,-2.78611,1.01717,1.57079,0.00003,-0.14512,-0.38001,0.03755,,,,,,,,,,,,,,,,,,,,,,,,,,0,0,0,0,0
4.2703,1783190098.6113,1,1,3.0000,0.0000,1.44680,0.19810,-2.78611,1.01717,1.57079,0.00003,-0.14512,-0.38001,0.03755,,,,,,,,,,,,,,,,,,,,,,,,,,0,0,0,0,0
4.2707,1783190098.6116,1,1,3.0000,0.0000,1.44680,0.19810,-2.78611,1.01717,1.57079,0.00003,-0.14512,-0.38001,0.03755,,,,,,,,,,,,,,,,,,,,,,,,,,0,0,0,0,0
4.2712,1783190098.6121,1,1,3.0000,0.0000,1.44680,0.19810,-2.78611,1.01717,1.57079,0.00003,-0.14512,-0.38001,0.03755,,,,,,,,,,,,,,,,,,,,,,,,,,0,0,0,0,0
4.2715,1783190098.6125,1,1,3.0000,0.0000,1.44680,0.19810,-2.78611,1.01717,1.57079,0.00003,-0.14512,-0.38001,0.03755,,,,,,,,,,,,,,,,,,,,,,,,,,0,0,0,0,0
4.2739,1783190098.6149,1,1,3.0000,0.0000,1.44680,0.19806,-2.78612,1.01722,1.57079,0.00003,-0.14512,-0.38001,0.03754,,,,,,,,,,,,,,,,,,,,,,,,,,0,0,0,0,0
4.2828,1783190098.6238,1,1,3.0000,0.0000,1.44680,0.19795,-2.78615,1.01736,1.57079,0.00003,-0.14512,-0.38001,0.03752,,,,,,,,,,,,,,,,,,,,,,,,,,0,0,0,0,0
4.2961,1783190098.6371,1,1,3.0000,0.0000,1.44680,0.19773,-2.78620,1.01762,1.57079,0.00003,-0.14512,-0.38001,0.03746,,,,,,,,,,,,,,,,,,,,,,,,,,0,0,0,0,0
4.3027,1783190098.6437,1,1,3.0000,0.0000,1.44680,0.19773,-2.78620,1.01763,1.57079,0.00003,-0.14512,-0.38001,0.03746,,,,,,,,,,,,,,,,,,,,,,,,,,0,0,0,0,0
4.3133,1783190098.6543,1,1,3.0000,0.0000,1.44680,0.19766,-2.78621,1.01771,1.57079,0.00003,-0.14512,-0.38001,0.03744,,,,,,,,,,,,,,,,,,,,,,,,,,0,0,0,0,0
4.3227,1783190098.6637,1,1,3.0000,0.0000,1.44680,0.19749,-2.78625,1.01792,1.57079,0.00003,-0.14512,-0.38001,0.03740,,,,,,,,,,,,,,,,,,,,,,,,,,0,0,0,0,0
4.3231,1783190098.6641,1,1,3.0000,0.0000,1.44680,0.19749,-2.78625,1.01792,1.57079,0.00003,-0.14512,-0.38001,0.03740,,,,,,,,,,,,,,,,,,,,,,,,,,0,0,0,0,0
4.3333,1783190098.6742,1,1,3.0000,0.0000,1.44680,0.19748,-2.78625,1.01793,1.57079,0.00003,-0.14512,-0.38001,0.03740,,,,,,,,,,,,,,,,,,,,,,,,,,0,0,0,0,0
4.3339,1783190098.6749,1,1,3.0000,0.0000,1.44680,0.19745,-2.78626,1.01798,1.57079,0.00003,-0.14512,-0.38001,0.03739,,,,,,,,,,,,,,,,,,,,,,,,,,0,0,0,0,0
4.3422,1783190098.6832,1,1,3.0000,0.0000,1.44680,0.19733,-2.78629,1.01812,1.57079,0.00003,-0.14512,-0.38001,0.03736,,,,,,,,,,,,,,,,,,,,,,,,,,0,0,0,0,0
4.3425,1783190098.6835,1,1,3.0000,0.0000,1.44680,0.19733,-2.78629,1.01812,1.57079,0.00003,-0.14512,-0.38001,0.03736,,,,,,,,,,,,,,,,,,,,,,,,,,0,0,0,0,0
4.3531,1783190098.6941,1,1,3.0000,0.0000,1.44680,0.19718,-2.78632,1.01831,1.57079,0.00003,-0.14512,-0.38001,0.03733,,,,,,,,,,,,,,,,,,,,,,,,,,0,0,0,0,0
4.3535,1783190098.6945,1,1,3.0000,0.0000,1.44680,0.19718,-2.78632,1.01831,1.57079,0.00003,-0.14512,-0.38001,0.03733,,,,,,,,,,,,,,,,,,,,,,,,,,0,0,0,0,0
4.3662,1783190098.7072,1,1,3.0000,0.0000,1.44680,0.19708,-2.78635,1.01844,1.57079,0.00003,-0.14512,-0.38001,0.03730,,,,,,,,,,,,,,,,,,,,,,,,,,0,0,0,0,0
4.3666,1783190098.7076,1,1,3.0000,0.0000,1.44680,0.19708,-2.78635,1.01844,1.57079,0.00003,-0.14512,-0.38001,0.03730,,,,,,,,,,,,,,,,,,,,,,,,,,0,0,0,0,0
4.3750,1783190098.7160,1,1,3.0000,0.0000,1.44680,0.19699,-2.78637,1.01854,1.57079,0.00003,-0.14512,-0.38001,0.03728,,,,,,,,,,,,,,,,,,,,,,,,,,0,0,0,0,0
4.3754,1783190098.7164,1,1,3.0000,0.0000,1.44680,0.19699,-2.78637,1.01854,1.57079,0.00003,-0.14512,-0.38001,0.03728,,,,,,,,,,,,,,,,,,,,,,,,,,0,0,0,0,0
4.3847,1783190098.7257,1,1,3.0000,0.0000,1.44680,0.19687,-2.78640,1.01869,1.57079,0.00003,-0.14512,-0.38001,0.03725,,,,,,,,,,,,,,,,,,,,,,,,,,0,0,0,0,0
4.3932,1783190098.7342,1,1,3.0000,0.0000,1.44680,0.19686,-2.78640,1.01870,1.57079,0.00003,-0.14512,-0.38001,0.03724,,,,,,,,,,,,,,,,,,,,,,,,,,0,0,0,0,0
4.4026,1783190098.7436,1,1,3.0000,0.0000,1.44680,0.19670,-2.78643,1.01889,1.57079,0.00003,-0.14512,-0.38001,0.03721,,,,,,,,,,,,,,,,,,,,,,,,,,0,0,0,0,0
4.4121,1783190098.7531,1,1,3.0000,0.0000,1.44680,0.19656,-2.78647,1.01907,1.57079,0.00003,-0.14512,-0.38001,0.03717,,,,,,,,,,,,,,,,,,,,,,,,,,0,0,0,0,0
4.4285,1783190098.7695,1,1,3.0000,0.0000,1.44679,0.19645,-2.78649,1.01920,1.57079,0.00003,-0.14511,-0.38001,0.03714,,,,,,,,,,,,,,,,,,,,,,,,,,0,0,0,0,0
4.4354,1783190098.7764,1,1,3.0000,0.0000,1.44679,0.19636,-2.78651,1.01931,1.57079,0.00003,-0.14511,-0.38001,0.03712,,,,,,,,,,,,,,,,,,,,,,,,,,0,0,0,0,0
4.4422,1783190098.7831,1,1,3.0000,0.0000,1.44679,0.19625,-2.78654,1.01946,1.57079,0.00003,-0.14511,-0.38001,0.03709,,,,,,,,,,,,,,,,,,,,,,,,,,0,0,0,0,0
4.4424,1783190098.7834,1,1,3.0000,0.0000,1.44679,0.19625,-2.78654,1.01946,1.57079,0.00003,-0.14511,-0.38001,0.03709,,,,,,,,,,,,,,,,,,,,,,,,,,0,0,0,0,0
4.4628,1783190098.8038,1,1,3.0000,0.0000,1.44679,0.19608,-2.78658,1.01966,1.57079,0.00003,-0.14511,-0.38001,0.03705,,,,,,,,,,,,,,,,,,,,,,,,,,0,0,0,0,0
4.4642,1783190098.8051,1,1,3.0000,0.0000,1.44679,0.19608,-2.78658,1.01966,1.57079,0.00003,-0.14511,-0.38001,0.03705,,,,,,,,,,,,,,,,,,,,,,,,,,0,0,0,0,0
4.4645,1783190098.8055,1,1,3.0000,0.0000,1.44679,0.19608,-2.78658,1.01966,1.57079,0.00003,-0.14511,-0.38001,0.03705,,,,,,,,,,,,,,,,,,,,,,,,,,0,0,0,0,0
4.4724,1783190098.8134,1,1,3.0000,0.0000,1.44679,0.19593,-2.78661,1.01984,1.57079,0.00003,-0.14511,-0.38001,0.03702,,,,,,,,,,,,,,,,,,,,,,,,,,0,0,0,0,0
4.4820,1783190098.8230,1,1,3.0000,0.0000,1.44679,0.19585,-2.78663,1.01994,1.57079,0.00003,-0.14511,-0.38001,0.03700,,,,,,,,,,,,,,,,,,,,,,,,,,0,0,0,0,0
4.4918,1783190098.8328,1,1,3.0000,0.0000,1.44679,0.19579,-2.78665,1.02002,1.57079,0.00003,-0.14511,-0.38001,0.03698,,,,,,,,,,,,,,,,,,,,,,,,,,0,0,0,0,0
4.5035,1783190098.8445,1,1,3.0000,0.0000,1.44679,0.19562,-2.78669,1.02023,1.57079,0.00003,-0.14511,-0.38001,0.03694,,,,,,,,,,,,,,,,,,,,,,,,,,0,0,0,0,0
4.5039,1783190098.8448,1,1,3.0000,0.0000,1.44679,0.19562,-2.78669,1.02023,1.57079,0.00003,-0.14511,-0.38001,0.03694,,,,,,,,,,,,,,,,,,,,,,,,,,0,0,0,0,0
4.5169,1783190098.8579,1,1,3.0000,0.0000,1.44679,0.19557,-2.78670,1.02029,1.57079,0.00003,-0.14511,-0.38001,0.03693,,,,,,,,,,,,,,,,,,,,,,,,,,0,0,0,0,0
4.5231,1783190098.8641,1,1,3.0000,0.0000,1.44679,0.19545,-2.78672,1.02043,1.57079,0.00003,-0.14511,-0.38001,0.03690,,,,,,,,,,,,,,,,,,,,,,,,,,0,0,0,0,0
4.5235,1783190098.8645,1,1,3.0000,0.0000,1.44679,0.19545,-2.78672,1.02043,1.57079,0.00003,-0.14511,-0.38001,0.03690,,,,,,,,,,,,,,,,,,,,,,,,,,0,0,0,0,0
4.5367,1783190098.8777,1,1,3.0000,0.0000,1.44679,0.19523,-2.78677,1.02070,1.57079,0.00003,-0.14511,-0.38001,0.03684,,,,,,,,,,,,,,,,,,,,,,,,,,0,0,0,0,0
4.5423,1783190098.8833,1,1,3.0000,0.0000,1.44679,0.19522,-2.78678,1.02071,1.57079,0.00003,-0.14511,-0.38001,0.03684,,,,,,,,,,,,,,,,,,,,,,,,,,0,0,0,0,0
4.5427,1783190098.8837,1,1,3.0000,0.0000,1.44679,0.19522,-2.78678,1.02071,1.57079,0.00003,-0.14511,-0.38001,0.03684,,,,,,,,,,,,,,,,,,,,,,,,,,0,0,0,0,0
4.5628,1783190098.9038,1,1,3.0000,0.0000,1.44679,0.19500,-2.78683,1.02100,1.57079,0.00003,-0.14511,-0.38001,0.03678,,,,,,,,,,,,,,,,,,,,,,,,,,0,0,0,0,0
4.5632,1783190098.9042,1,1,3.0000,0.0000,1.44679,0.19500,-2.78683,1.02100,1.57079,0.00003,-0.14511,-0.38001,0.03678,,,,,,,,,,,,,,,,,,,,,,,,,,0,0,0,0,0
4.5677,1783190098.9087,1,1,3.0000,0.0000,1.44679,0.19500,-2.78683,1.02100,1.57079,0.00003,-0.14511,-0.38001,0.03678,,,,,,,,,,,,,,,,,,,,,,,,,,0,0,0,0,0
4.5683,1783190098.9092,1,1,3.0000,0.0000,1.44679,0.19500,-2.78683,1.02100,1.57079,0.00003,-0.14511,-0.38001,0.03678,,,,,,,,,,,,,,,,,,,,,,,,,,0,0,0,0,0
4.5717,1783190098.9127,1,1,3.0000,0.0000,1.44679,0.19498,-2.78683,1.02101,1.57079,0.00003,-0.14511,-0.38001,0.03678,,,,,,,,,,,,,,,,,,,,,,,,,,0,0,0,0,0
4.5720,1783190098.9130,1,1,3.0000,0.0000,1.44679,0.19498,-2.78683,1.02101,1.57079,0.00003,-0.14511,-0.38001,0.03678,,,,,,,,,,,,,,,,,,,,,,,,,,0,0,0,0,0
4.5839,1783190098.9249,1,1,3.0000,0.0000,1.44679,0.19483,-2.78687,1.02120,1.57079,0.00003,-0.14511,-0.38001,0.03674,,,,,,,,,,,,,,,,,,,,,,,,,,0,0,0,0,0
4.5844,1783190098.9254,1,1,3.0000,0.0000,1.44679,0.19483,-2.78687,1.02120,1.57079,0.00003,-0.14511,-0.38001,0.03674,,,,,,,,,,,,,,,,,,,,,,,,,,0,0,0,0,0
4.5923,1783190098.9332,1,1,3.0000,0.0000,1.44679,0.19468,-2.78690,1.02138,1.57079,0.00003,-0.14511,-0.38001,0.03671,,,,,,,,,,,,,,,,,,,,,,,,,,0,0,0,0,0
4.6043,1783190098.9452,1,1,3.0000,0.0000,1.44679,0.19460,-2.78692,1.02148,1.57079,0.00003,-0.14511,-0.38001,0.03669,,,,,,,,,,,,,,,,,,,,,,,,,,0,0,0,0,0
4.6133,1783190098.9543,1,1,3.0000,0.0000,1.44679,0.19454,-2.78694,1.02156,1.57079,0.00003,-0.14511,-0.38001,0.03667,,,,,,,,,,,,,,,,,,,,,,,,,,0,0,0,0,0
4.6229,1783190098.9639,1,1,3.0000,0.0000,1.44679,0.19437,-2.78697,1.02177,1.57079,0.00003,-0.14511,-0.38001,0.03663,,,,,,,,,,,,,,,,,,,,,,,,,,0,0,0,0,0
4.6352,1783190098.9761,1,1,3.0000,0.0000,1.44679,0.19432,-2.78699,1.02183,1.57079,0.00003,-0.14511,-0.38001,0.03662,,,,,,,,,,,,,,,,,,,,,,,,,,0,0,0,0,0
4.6432,1783190098.9842,1,1,3.0000,0.0000,1.44679,0.19420,-2.78701,1.02197,1.57079,0.00003,-0.14511,-0.38001,0.03659,,,,,,,,,,,,,,,,,,,,,,,,,,0,0,0,0,0
4.6434,1783190098.9844,1,1,3.0000,0.0000,1.44679,0.19420,-2.78701,1.02197,1.57079,0.00003,-0.14511,-0.38001,0.03659,,,,,,,,,,,,,,,,,,,,,,,,,,0,0,0,0,0
4.6627,1783190099.0037,1,1,3.0000,0.0000,1.44679,0.19397,-2.78707,1.02225,1.57079,0.00003,-0.14511,-0.38001,0.03653,,,,,,,,,,,,,,,,,,,,,,,,,,0,0,0,0,0
4.6671,1783190099.0081,1,1,3.0000,0.0000,1.44679,0.19395,-2.78707,1.02229,1.57079,0.00003,-0.14511,-0.38001,0.03652,,,,,,,,,,,,,,,,,,,,,,,,,,0,0,0,0,0
4.6673,1783190099.0083,1,1,3.0000,0.0000,1.44679,0.19395,-2.78707,1.02229,1.57079,0.00003,-0.14511,-0.38001,0.03652,,,,,,,,,,,,,,,,,,,,,,,,,,0,0,0,0,0
4.6740,1783190099.0150,1,1,3.0000,0.0000,1.44679,0.19386,-2.78709,1.02239,1.57079,0.00003,-0.14511,-0.38001,0.03650,,,,,,,,,,,,,,,,,,,,,,,,,,0,0,0,0,0
4.6890,1783190099.0300,1,1,3.0000,0.0000,1.44679,0.19374,-2.78712,1.02254,1.57079,0.00003,-0.14511,-0.38001,0.03647,,,,,,,,,,,,,,,,,,,,,,,,,,0,0,0,0,0
4.6967,1783190099.0377,1,1,3.0000,0.0000,1.44679,0.19369,-2.78713,1.02260,1.57079,0.00003,-0.14511,-0.38001,0.03646,,,,,,,,,,,,,,,,,,,,,,,,,,0,0,0,0,0
4.7081,1783190099.0491,1,1,3.0000,0.0000,1.44679,0.19350,-2.78717,1.02283,1.57079,0.00003,-0.14511,-0.38001,0.03641,,,,,,,,,,,,,,,,,,,,,,,,,,0,0,0,0,0
4.7168,1783190099.0578,1,1,3.0000,0.0000,1.44679,0.19335,-2.78721,1.02301,1.57079,0.00003,-0.14511,-0.38001,0.03638,,,,,,,,,,,,,,,,,,,,,,,,,,0,0,0,0,0
4.7277,1783190099.0687,1,1,3.0000,0.0000,1.44679,0.19332,-2.78722,1.02306,1.57079,0.00003,-0.14511,-0.38001,0.03637,,,,,,,,,,,,,,,,,,,,,,,,,,0,0,0,0,0
4.7382,1783190099.0791,1,1,3.0000,0.0000,1.44679,0.19318,-2.78725,1.02323,1.57079,0.00003,-0.14511,-0.38001,0.03633,,,,,,,,,,,,,,,,,,,,,,,,,,0,0,0,0,0
4.7384,1783190099.0794,1,1,3.0000,0.0000,1.44679,0.19318,-2.78725,1.02323,1.57079,0.00003,-0.14511,-0.38001,0.03633,,,,,,,,,,,,,,,,,,,,,,,,,,0,0,0,0,0
4.7490,1783190099.0899,1,1,3.0000,0.0000,1.44679,0.19311,-2.78726,1.02331,1.57079,0.00003,-0.14511,-0.38001,0.03632,,,,,,,,,,,,,,,,,,,,,,,,,,0,0,0,0,0
4.7543,1783190099.0953,1,1,3.0000,0.0000,1.44679,0.19307,-2.78727,1.02337,1.57079,0.00003,-0.14511,-0.38001,0.03631,,,,,,,,,,,,,,,,,,,,,,,,,,0,0,0,0,0
4.7686,1783190099.1096,1,1,3.0000,0.0000,1.44679,0.19287,-2.78732,1.02361,1.57079,0.00003,-0.14511,-0.38001,0.03626,,,,,,,,,,,,,,,,,,,,,,,,,,0,0,0,0,0
4.7797,1783190099.1207,1,1,3.0000,0.0000,1.44679,0.19273,-2.78735,1.02379,1.57079,0.00003,-0.14511,-0.38001,0.03622,,,,,,,,,,,,,,,,,,,,,,,,,,0,0,0,0,0
4.7801,1783190099.1211,1,1,3.0000,0.0000,1.44679,0.19273,-2.78735,1.02379,1.57079,0.00003,-0.14511,-0.38001,0.03622,,,,,,,,,,,,,,,,,,,,,,,,,,0,0,0,0,0
4.7865,1783190099.1275,1,1,3.0000,0.0000,1.44679,0.19268,-2.78736,1.02384,1.57079,0.00003,-0.14511,-0.38001,0.03621,,,,,,,,,,,,,,,,,,,,,,,,,,0,0,0,0,0
4.7870,1783190099.1279,1,1,3.0000,0.0000,1.44679,0.19268,-2.78736,1.02384,1.57079,0.00003,-0.14511,-0.38001,0.03621,,,,,,,,,,,,,,,,,,,,,,,,,,0,0,0,0,0
4.7975,1783190099.1385,1,1,3.0000,0.0000,1.44679,0.19256,-2.78739,1.02399,1.57079,0.00003,-0.14511,-0.38001,0.03618,,,,,,,,,,,,,,,,,,,,,,,,,,0,0,0,0,0
4.8128,1783190099.1538,1,1,3.0000,0.0000,1.44679,0.19241,-2.78742,1.02418,1.57079,0.00003,-0.14511,-0.38001,0.03614,,,,,,,,,,,,,,,,,,,,,,,,,,0,0,0,0,0
4.8182,1783190099.1591,1,1,3.0000,0.0000,1.44679,0.19232,-2.78744,1.02428,1.57079,0.00003,-0.14511,-0.38001,0.03612,,,,,,,,,,,,,,,,,,,,,,,,,,0,0,0,0,0
4.8224,1783190099.1634,1,1,3.0000,0.0000,1.44679,0.19226,-2.78746,1.02436,1.57079,0.00003,-0.14511,-0.38001,0.03611,,,,,,,,,,,,,,,,,,,,,,,,,,0,0,0,0,0
4.8327,1783190099.1737,1,1,3.0000,0.0000,1.44679,0.19211,-2.78749,1.02454,1.57079,0.00003,-0.14511,-0.38001,0.03607,,,,,,,,,,,,,,,,,,,,,,,,,,0,0,0,0,0
4.8441,1783190099.1851,1,1,3.0000,0.0000,1.44679,0.19203,-2.78751,1.02464,1.57079,0.00003,-0.14511,-0.38001,0.03605,,,,,,,,,,,,,,,,,,,,,,,,,,0,0,0,0,0
4.8519,1783190099.1929,1,1,3.0000,0.0000,1.44679,0.19194,-2.78753,1.02475,1.57079,0.00003,-0.14511,-0.38001,0.03603,,,,,,,,,,,,,,,,,,,,,,,,,,0,0,0,0,0
4.8659,1783190099.2069,1,1,3.0000,0.0000,1.44679,0.19173,-2.78758,1.02501,1.57079,0.00003,-0.14511,-0.38001,0.03598,,,,,,,,,,,,,,,,,,,,,,,,,,0,0,0,0,0
4.8715,1783190099.2125,1,1,3.0000,0.0000,1.44679,0.19172,-2.78758,1.02502,1.57079,0.00003,-0.14511,-0.38001,0.03597,,,,,,,,,,,,,,,,,,,,,,,,,,0,0,0,0,0
4.8828,1783190099.2238,1,1,3.0000,0.0000,1.44679,0.19157,-2.78762,1.02520,1.57079,0.00003,-0.14511,-0.38001,0.03594,,,,,,,,,,,,,,,,,,,,,,,,,,0,0,0,0,0
4.8918,1783190099.2328,1,1,3.0000,0.0000,1.44679,0.19143,-2.78765,1.02538,1.57079,0.00003,-0.14511,-0.38001,0.03590,,,,,,,,,,,,,,,,,,,,,,,,,,0,0,0,0,0
4.9021,1783190099.2431,1,1,3.0000,0.0000,1.44679,0.19134,-2.78767,1.02548,1.57079,0.00003,-0.14511,-0.38001,0.03588,,,,,,,,,,,,,,,,,,,,,,,,,,0,0,0,0,0
4.9126,1783190099.2536,1,1,3.0000,0.0000,1.44679,0.19126,-2.78769,1.02559,1.57079,0.00003,-0.14511,-0.38001,0.03586,,,,,,,,,,,,,,,,,,,,,,,,,,0,0,0,0,0
4.9266,1783190099.2676,1,1,3.0000,0.0000,1.44679,0.19105,-2.78773,1.02585,1.57079,0.00003,-0.14511,-0.38001,0.03581,,,,,,,,,,,,,,,,,,,,,,,,,,0,0,0,0,0
4.9268,1783190099.2678,1,1,3.0000,0.0000,1.44679,0.19105,-2.78773,1.02585,1.57079,0.00003,-0.14511,-0.38001,0.03581,,,,,,,,,,,,,,,,,,,,,,,,,,0,0,0,0,0
4.9318,1783190099.2728,1,1,3.0000,0.0000,1.44679,0.19104,-2.78774,1.02586,1.57079,0.00003,-0.14511,-0.38001,0.03581,,,,,,,,,,,,,,,,,,,,,,,,,,0,0,0,0,0
4.9465,1783190099.2875,1,1,3.0000,0.0000,1.44679,0.19081,-2.78779,1.02613,1.57079,0.00003,-0.14511,-0.38001,0.03575,,,,,,,,,,,,,,,,,,,,,,,,,,0,0,0,0,0
4.9515,1783190099.2925,1,1,3.0000,0.0000,1.44679,0.19074,-2.78780,1.02622,1.57079,0.00003,-0.14511,-0.38001,0.03573,,,,,,,,,,,,,,,,,,,,,,,,,,0,0,0,0,0
4.9519,1783190099.2929,1,1,3.0000,0.0000,1.44679,0.19074,-2.78780,1.02622,1.57079,0.00003,-0.14511,-0.38001,0.03573,,,,,,,,,,,,,,,,,,,,,,,,,,0,0,0,0,0
4.9674,1783190099.3083,1,1,3.0000,0.0000,1.44679,0.19062,-2.78783,1.02637,1.57079,0.00003,-0.14511,-0.38001,0.03570,,,,,,,,,,,,,,,,,,,,,,,,,,0,0,0,0,0
4.9730,1783190099.3139,1,1,3.0000,0.0000,1.44679,0.19057,-2.78784,1.02643,1.57079,0.00003,-0.14511,-0.38001,0.03569,,,,,,,,,,,,,,,,,,,,,,,,,,0,0,0,0,0
4.9734,1783190099.3144,1,1,3.0000,0.0000,1.44679,0.19057,-2.78784,1.02643,1.57079,0.00003,-0.14511,-0.38001,0.03569,,,,,,,,,,,,,,,,,,,,,,,,,,0,0,0,0,0
4.9819,1783190099.3229,1,1,3.0000,0.0000,1.44679,0.19036,-2.78789,1.02669,1.57079,0.00003,-0.14511,-0.38001,0.03564,,,,,,,,,,,,,,,,,,,,,,,,,,0,0,0,0,0
4.9822,1783190099.3232,1,1,3.0000,0.0000,1.44679,0.19036,-2.78789,1.02669,1.57079,0.00003,-0.14511,-0.38001,0.03564,,,,,,,,,,,,,,,,,,,,,,,,,,0,0,0,0,0
4.9917,1783190099.3327,1,1,3.0000,0.0000,1.44679,0.19035,-2.78789,1.02671,1.57079,0.00003,-0.14511,-0.38001,0.03564,,,,,,,,,,,,,,,,,,,,,,,,,,0,0,0,0,0
5.0021,1783190099.3430,1,1,3.0000,0.0000,1.44679,0.19020,-2.78793,1.02689,1.57079,0.00003,-0.14511,-0.38001,0.03560,,,,,,,,,,,,,,,,,,,,,,,,,,0,0,0,0,0
5.0144,1783190099.3554,1,1,3.0000,0.0000,1.44679,0.18998,-2.78798,1.02715,1.57079,0.00003,-0.14511,-0.38001,0.03555,,,,,,,,,,,,,,,,,,,,,,,,,,0,0,0,0,0
5.0147,1783190099.3557,1,1,3.0000,0.0000,1.44679,0.18998,-2.78798,1.02715,1.57079,0.00003,-0.14511,-0.38001,0.03555,,,,,,,,,,,,,,,,,,,,,,,,,,0,0,0,0,0
5.0225,1783190099.3635,1,1,3.0000,0.0000,1.44679,0.18997,-2.78798,1.02717,1.57079,0.00003,-0.14511,-0.38001,0.03554,,,,,,,,,,,,,,,,,,,,,,,,,,0,0,0,0,0
5.0228,1783190099.3638,1,1,3.0000,0.0000,1.44679,0.18997,-2.78798,1.02717,1.57079,0.00003,-0.14511,-0.38001,0.03554,,,,,,,,,,,,,,,,,,,,,,,,,,0,0,0,0,0
5.0343,1783190099.3752,1,1,3.0000,0.0000,1.44679,0.18982,-2.78801,1.02736,1.57079,0.00003,-0.14511,-0.38001,0.03551,,,,,,,,,,,,,,,,,,,,,,,,,,0,0,0,0,0
5.0427,1783190099.3837,1,1,3.0000,0.0000,1.44679,0.18967,-2.78805,1.02753,1.57079,0.00003,-0.14511,-0.38001,0.03547,,,,,,,,,,,,,,,,,,,,,,,,,,0,0,0,0,0
5.0549,1783190099.3959,1,1,3.0000,0.0000,1.44679,0.18963,-2.78806,1.02759,1.57079,0.00003,-0.14511,-0.38001,0.03546,,,,,,,,,,,,,,,,,,,,,,,,,,0,0,0,0,0
5.0734,1783190099.4144,1,1,3.0000,0.0000,1.44679,0.18937,-2.78812,1.02791,1.57079,0.00003,-0.14511,-0.38001,0.03539,,,,,,,,,,,,,,,,,,,,,,,,,,0,0,0,0,0
5.0760,1783190099.4170,1,1,3.0000,0.0000,1.44679,0.18930,-2.78813,1.02800,1.57079,0.00003,-0.14511,-0.38001,0.03538,,,,,,,,,,,,,,,,,,,,,,,,,,0,0,0,0,0
5.0815,1783190099.4225,1,1,3.0000,0.0000,1.44679,0.18930,-2.78813,1.02800,1.57079,0.00003,-0.14511,-0.38001,0.03538,,,,,,,,,,,,,,,,,,,,,,,,,,0,0,0,0,0
5.0823,1783190099.4233,1,1,3.0000,0.0000,1.44679,0.18928,-2.78814,1.02801,1.57079,0.00003,-0.14511,-0.38001,0.03537,,,,,,,,,,,,,,,,,,,,,,,,,,0,0,0,0,0
5.0916,1783190099.4326,1,1,3.0000,0.0000,1.44679,0.18920,-2.78816,1.02812,1.57079,0.00003,-0.14511,-0.38001,0.03535,,,,,,,,,,,,,,,,,,,,,,,,,,0,0,0,0,0
5.0921,1783190099.4331,1,1,3.0000,0.0000,1.44679,0.18920,-2.78816,1.02812,1.57079,0.00003,-0.14511,-0.38001,0.03535,,,,,,,,,,,,,,,,,,,,,,,,,,0,0,0,0,0
5.1038,1783190099.4448,1,1,3.0000,0.0000,1.44679,0.18899,-2.78820,1.02838,1.57079,0.00003,-0.14511,-0.38001,0.03530,,,,,,,,,,,,,,,,,,,,,,,,,,0,0,0,0,0
5.1178,1783190099.4588,1,1,3.0000,0.0000,1.44679,0.18890,-2.78822,1.02848,1.57079,0.00003,-0.14511,-0.38001,0.03528,,,,,,,,,,,,,,,,,,,,,,,,,,0,0,0,0,0
5.1231,1783190099.4640,1,1,3.0000,0.0000,1.44679,0.18884,-2.78824,1.02856,1.57079,0.00003,-0.14511,-0.38001,0.03527,,,,,,,,,,,,,,,,,,,,,,,,,,0,0,0,0,0
5.1328,1783190099.4738,1,1,3.0000,0.0000,1.44679,0.18873,-2.78826,1.02869,1.57079,0.00003,-0.14511,-0.38001,0.03524,,,,,,,,,,,,,,,,,,,,,,,,,,0,0,0,0,0
5.1451,1783190099.4861,1,1,3.0000,0.0000,1.44679,0.18866,-2.78828,1.02878,1.57079,0.00003,-0.14511,-0.38001,0.03522,,,,,,,,,,,,,,,,,,,,,,,,,,0,0,0,0,0
5.1518,1783190099.4927,1,1,3.0000,0.0000,1.44679,0.18857,-2.78830,1.02889,1.57079,0.00003,-0.14511,-0.38001,0.03520,,,,,,,,,,,,,,,,,,,,,,,,,,0,0,0,0,0
5.1754,1783190099.5164,1,1,3.0000,0.0000,1.44679,0.18831,-2.78836,1.02921,1.57079,0.00003,-0.14511,-0.38001,0.03513,,,,,,,,,,,,,,,,,,,,,,,,,,0,0,0,0,0
5.1757,1783190099.5167,1,1,3.0000,0.0000,1.44679,0.18831,-2.78836,1.02921,1.57079,0.00003,-0.14511,-0.38001,0.03513,,,,,,,,,,,,,,,,,,,,,,,,,,0,0,0,0,0
5.1821,1783190099.5231,1,1,3.0000,0.0000,1.44679,0.18819,-2.78838,1.02935,1.57079,0.00003,-0.14511,-0.38001,0.03511,,,,,,,,,,,,,,,,,,,,,,,,,,0,0,0,0,0
5.1825,1783190099.5235,1,1,3.0000,0.0000,1.44679,0.18819,-2.78838,1.02935,1.57079,0.00003,-0.14511,-0.38001,0.03511,,,,,,,,,,,,,,,,,,,,,,,,,,0,0,0,0,0
5.1918,1783190099.5328,1,1,3.0000,0.0000,1.44679,0.18805,-2.78842,1.02953,1.57079,0.00004,-0.14511,-0.38001,0.03507,,,,,,,,,,,,,,,,,,,,,,,,,,0,0,0,0,0
5.2024,1783190099.5433,1,1,3.0000,0.0000,1.44679,0.18796,-2.78843,1.02963,1.57079,0.00004,-0.14511,-0.38001,0.03505,,,,,,,,,,,,,,,,,,,,,,,,,,0,0,0,0,0
5.2181,1783190099.5591,1,1,3.0000,0.0000,1.44679,0.18774,-2.78848,1.02990,1.57079,0.00004,-0.14511,-0.38001,0.03500,,,,,,,,,,,,,,,,,,,,,,,,,,0,0,0,0,0
5.2235,1783190099.5645,1,1,3.0000,0.0000,1.44679,0.18767,-2.78850,1.03000,1.57079,0.00004,-0.14511,-0.38001,0.03498,,,,,,,,,,,,,,,,,,,,,,,,,,0,0,0,0,0
5.2340,1783190099.5750,1,1,3.0000,0.0000,1.44679,0.18758,-2.78852,1.03010,1.57079,0.00004,-0.14511,-0.38001,0.03496,,,,,,,,,,,,,,,,,,,,,,,,,,0,0,0,0,0
5.2478,1783190099.5888,1,1,3.0000,0.0000,1.44679,0.18747,-2.78855,1.03023,1.57079,0.00004,-0.14511,-0.38001,0.03493,,,,,,,,,,,,,,,,,,,,,,,,,,0,0,0,0,0
5.2537,1783190099.5947,1,1,3.0000,0.0000,1.44679,0.18741,-2.78856,1.03031,1.57079,0.00004,-0.14511,-0.38001,0.03492,,,,,,,,,,,,,,,,,,,,,,,,,,0,0,0,0,0
5.2755,1783190099.6165,1,1,3.0000,0.0000,1.44679,0.18718,-2.78861,1.03059,1.57079,0.00004,-0.14511,-0.38001,0.03486,,,,,,,,,,,,,,,,,,,,,,,,,,0,0,0,0,0
5.2761,1783190099.6171,1,1,3.0000,0.0000,1.44679,0.18718,-2.78861,1.03059,1.57079,0.00004,-0.14511,-0.38001,0.03486,,,,,,,,,,,,,,,,,,,,,,,,,,0,0,0,0,0
5.2814,1783190099.6224,1,1,3.0000,0.0000,1.44679,0.18711,-2.78863,1.03068,1.57079,0.00004,-0.14511,-0.38001,0.03484,,,,,,,,,,,,,,,,,,,,,,,,,,0,0,0,0,0
5.2822,1783190099.6232,1,1,3.0000,0.0000,1.44679,0.18703,-2.78864,1.03077,1.57079,0.00004,-0.14511,-0.38001,0.03482,,,,,,,,,,,,,,,,,,,,,,,,,,0,0,0,0,0
5.2916,1783190099.6326,1,1,3.0000,0.0000,1.44679,0.18696,-2.78866,1.03086,1.57079,0.00004,-0.14511,-0.38001,0.03480,,,,,,,,,,,,,,,,,,,,,,,,,,0,0,0,0,0
5.3041,1783190099.6450,1,1,3.0000,0.0000,1.44679,0.18689,-2.78868,1.03095,1.57079,0.00004,-0.14511,-0.38001,0.03479,,,,,,,,,,,,,,,,,,,,,,,,,,0,0,0,0,0
5.3116,1783190099.6526,1,1,3.0000,0.0000,1.44679,0.18678,-2.78870,1.03108,1.57079,0.00004,-0.14511,-0.38001,0.03476,,,,,,,,,,,,,,,,,,,,,,,,,,0,0,0,0,0
5.3233,1783190099.6643,1,1,3.0000,0.0000,1.44679,0.18670,-2.78872,1.03117,1.57079,0.00004,-0.14511,-0.38001,0.03474,,,,,,,,,,,,,,,,,,,,,,,,,,0,0,0,0,0
5.3359,1783190099.6769,1,1,3.0000,0.0000,1.44679,0.18655,-2.78875,1.03136,1.57079,0.00004,-0.14511,-0.38001,0.03470,,,,,,,,,,,,,,,,,,,,,,,,,,0,0,0,0,0
5.3422,1783190099.6832,1,1,3.0000,0.0000,1.44679,0.18640,-2.78879,1.03155,1.57079,0.00004,-0.14511,-0.38001,0.03467,,,,,,,,,,,,,,,,,,,,,,,,,,0,0,0,0,0
5.3516,1783190099.6925,1,1,3.0000,0.0000,1.44679,0.18633,-2.78880,1.03164,1.57079,0.00004,-0.14511,-0.38001,0.03465,,,,,,,,,,,,,,,,,,,,,,,,,,0,0,0,0,0
5.3520,1783190099.6930,1,1,3.0000,0.0000,1.44679,0.18633,-2.78880,1.03164,1.57079,0.00004,-0.14511,-0.38001,0.03465,,,,,,,,,,,,,,,,,,,,,,,,,,0,0,0,0,0
5.3629,1783190099.7039,1,1,3.0000,0.0000,1.44679,0.18625,-2.78882,1.03173,1.57079,0.00004,-0.14511,-0.38001,0.03463,,,,,,,,,,,,,,,,,,,,,,,,,,0,0,0,0,0
5.3773,1783190099.7182,1,1,3.0000,0.0000,1.44679,0.18608,-2.78886,1.03193,1.57079,0.00004,-0.14511,-0.38001,0.03459,,,,,,,,,,,,,,,,,,,,,,,,,,0,0,0,0,0
5.3864,1783190099.7273,1,1,3.0000,0.0000,1.44679,0.18604,-2.78887,1.03199,1.57079,0.00004,-0.14511,-0.38001,0.03458,,,,,,,,,,,,,,,,,,,,,,,,,,0,0,0,0,0
5.3867,1783190099.7276,1,1,3.0000,0.0000,1.44679,0.18604,-2.78887,1.03199,1.57079,0.00004,-0.14511,-0.38001,0.03458,,,,,,,,,,,,,,,,,,,,,,,,,,0,0,0,0,0
5.3936,1783190099.7346,1,1,3.0000,0.0000,1.44679,0.18598,-2.78888,1.03206,1.57079,0.00004,-0.14511,-0.38001,0.03456,,,,,,,,,,,,,,,,,,,,,,,,,,0,0,0,0,0
5.4037,1783190099.7447,1,1,3.0000,0.0000,1.44679,0.18577,-2.78893,1.03232,1.57079,0.00004,-0.14511,-0.38001,0.03451,,,,,,,,,,,,,,,,,,,,,,,,,,0,0,0,0,0
5.4041,1783190099.7450,1,1,3.0000,0.0000,1.44679,0.18577,-2.78893,1.03232,1.57079,0.00004,-0.14511,-0.38001,0.03451,,,,,,,,,,,,,,,,,,,,,,,,,,0,0,0,0,0
5.4134,1783190099.7544,1,1,3.0000,0.0000,1.44679,0.18569,-2.78895,1.03241,1.57079,0.00004,-0.14511,-0.38001,0.03449,,,,,,,,,,,,,,,,,,,,,,,,,,0,0,0,0,0
5.4261,1783190099.7671,1,1,3.0000,0.0000,1.44679,0.18557,-2.78897,1.03256,1.57079,0.00004,-0.14511,-0.38001,0.03446,,,,,,,,,,,,,,,,,,,,,,,,,,0,0,0,0,0
5.4264,1783190099.7674,1,1,3.0000,0.0000,1.44679,0.18557,-2.78897,1.03256,1.57079,0.00004,-0.14511,-0.38001,0.03446,,,,,,,,,,,,,,,,,,,,,,,,,,0,0,0,0,0
5.4384,1783190099.7794,1,1,3.0000,0.0000,1.44679,0.18545,-2.78900,1.03271,1.57079,0.00004,-0.14511,-0.38001,0.03443,,,,,,,,,,,,,,,,,,,,,,,,,,0,0,0,0,0
5.4387,1783190099.7797,1,1,3.0000,0.0000,1.44679,0.18545,-2.78900,1.03271,1.57079,0.00004,-0.14511,-0.38001,0.03443,,,,,,,,,,,,,,,,,,,,,,,,,,0,0,0,0,0
5.4455,1783190099.7865,1,1,3.0000,0.0000,1.44679,0.18544,-2.78900,1.03272,1.57079,0.00004,-0.14511,-0.38001,0.03443,,,,,,,,,,,,,,,,,,,,,,,,,,0,0,0,0,0
5.4461,1783190099.7871,1,1,3.0000,0.0000,1.44679,0.18540,-2.78901,1.03277,1.57079,0.00004,-0.14511,-0.38001,0.03442,,,,,,,,,,,,,,,,,,,,,,,,,,0,0,0,0,0
5.4626,1783190099.8036,1,1,3.0000,0.0000,1.44679,0.18513,-2.78907,1.03310,1.57079,0.00004,-0.14511,-0.38001,0.03436,,,,,,,,,,,,,,,,,,,,,,,,,,0,0,0,0,0
5.4631,1783190099.8041,1,1,3.0000,0.0000,1.44679,0.18513,-2.78907,1.03310,1.57079,0.00004,-0.14511,-0.38001,0.03436,,,,,,,,,,,,,,,,,,,,,,,,,,0,0,0,0,0
