Martins-Lucaas/twinforge/sensors/Data/20260704_155211__samples.csv
t_rel_s,t_unix,cycle,phase,setpoint_n,force_net_n,q1,q2,q3,q4,q5,q6,tcp_x,tcp_y,tcp_z,taxel_0,taxel_1,taxel_2,taxel_3,taxel_4,taxel_5,taxel_6,taxel_7,taxel_8,taxel_9,taxel_10,taxel_11,taxel_12,taxel_13,taxel_14,taxel_15,taxel_16,taxel_17,taxel_18,taxel_19,taxel_20,taxel_21,taxel_22,taxel_23,taxel_24,n_RA,n_SA,cn_mm,cn_ra,cn_sa
0.0084,1783191131.6431,1,0,2.0000,0.0000,1.44682,0.23328,-2.77748,0.97337,1.57080,0.00000,-0.14512,-0.38003,0.04653,,,,,,,,,,,,,,,,,,,,,,,,,,0,0,0,0,0
0.0087,1783191131.6435,1,0,2.0000,0.0000,1.44682,0.23328,-2.77748,0.97337,1.57080,0.00000,-0.14512,-0.38003,0.04653,,,,,,,,,,,,,,,,,,,,,,,,,,0,0,0,0,0
0.0208,1783191131.6556,1,0,2.0000,0.0000,1.44682,0.23328,-2.77748,0.97337,1.57080,0.00000,-0.14512,-0.38003,0.04653,,,,,,,,,,,,,,,,,,,,,,,,,,0,0,0,0,0
0.0340,1783191131.6688,1,0,2.0000,0.0000,1.44682,0.23328,-2.77748,0.97337,1.57080,0.00000,-0.14512,-0.38003,0.04653,,,,,,,,,,,,,,,,,,,,,,,,,,0,0,0,0,0
0.0413,1783191131.6761,1,0,2.0000,0.0000,1.44682,0.23328,-2.77748,0.97337,1.57080,0.00000,-0.14512,-0.38003,0.04653,,,,,,,,,,,,,,,,,,,,,,,,,,0,0,0,0,0
0.0520,1783191131.6867,1,0,2.0000,0.0000,1.44682,0.23328,-2.77748,0.97337,1.57080,0.00000,-0.14512,-0.38003,0.04653,,,,,,,,,,,,,,,,,,,,,,,,,,0,0,0,0,0
0.0612,1783191131.6960,1,0,2.0000,0.0000,1.44682,0.23328,-2.77748,0.97337,1.57080,0.00000,-0.14512,-0.38003,0.04653,,,,,,,,,,,,,,,,,,,,,,,,,,0,0,0,0,0
0.0826,1783191131.7173,1,0,2.0000,0.0000,1.44682,0.23328,-2.77748,0.97337,1.57080,0.00000,-0.14512,-0.38003,0.04653,,,,,,,,,,,,,,,,,,,,,,,,,,0,0,0,0,0
0.0832,1783191131.7180,1,0,2.0000,0.0000,1.44682,0.23328,-2.77748,0.97337,1.57080,0.00000,-0.14512,-0.38003,0.04653,,,,,,,,,,,,,,,,,,,,,,,,,,0,0,0,0,0
0.0836,1783191131.7184,1,0,2.0000,0.0000,1.44682,0.23328,-2.77748,0.97337,1.57080,0.00000,-0.14512,-0.38003,0.04653,,,,,,,,,,,,,,,,,,,,,,,,,,0,0,0,0,0
0.0954,1783191131.7302,1,0,2.0000,0.0000,1.44682,0.23328,-2.77748,0.97337,1.57080,0.00000,-0.14512,-0.38003,0.04653,,,,,,,,,,,,,,,,,,,,,,,,,,0,0,0,0,0
0.1012,1783191131.7360,1,0,2.0000,0.0000,1.44682,0.23328,-2.77748,0.97337,1.57080,0.00000,-0.14512,-0.38003,0.04653,,,,,,,,,,,,,,,,,,,,,,,,,,0,0,0,0,0
0.1021,1783191131.7369,1,0,2.0000,0.0000,1.44682,0.23328,-2.77748,0.97337,1.57080,0.00000,-0.14512,-0.38003,0.04653,,,,,,,,,,,,,,,,,,,,,,,,,,0,0,0,0,0
0.1132,1783191131.7480,1,0,2.0000,0.0000,1.44682,0.23328,-2.77748,0.97337,1.57080,0.00000,-0.14512,-0.38003,0.04653,,,,,,,,,,,,,,,,,,,,,,,,,,0,0,0,0,0
0.1234,1783191131.7582,1,0,2.0000,0.0000,1.44682,0.23328,-2.77748,0.97337,1.57080,0.00000,-0.14512,-0.38003,0.04653,,,,,,,,,,,,,,,,,,,,,,,,,,0,0,0,0,0
0.1237,1783191131.7585,1,0,2.0000,0.0000,1.44682,0.23328,-2.77748,0.97337,1.57080,0.00000,-0.14512,-0.38003,0.04653,,,,,,,,,,,,,,,,,,,,,,,,,,0,0,0,0,0
0.1323,1783191131.7671,1,0,2.0000,0.0000,1.44682,0.23328,-2.77748,0.97337,1.57080,0.00000,-0.14512,-0.38003,0.04653,,,,,,,,,,,,,,,,,,,,,,,,,,0,0,0,0,0
0.1461,1783191131.7808,1,0,2.0000,0.0000,1.44682,0.23328,-2.77748,0.97337,1.57080,0.00000,-0.14512,-0.38003,0.04653,,,,,,,,,,,,,,,,,,,,,,,,,,0,0,0,0,0
0.1465,1783191131.7813,1,0,2.0000,0.0000,1.44682,0.23328,-2.77748,0.97337,1.57080,0.00000,-0.14512,-0.38003,0.04653,,,,,,,,,,,,,,,,,,,,,,,,,,0,0,0,0,0
0.1535,1783191131.7883,1,0,2.0000,0.0000,1.44682,0.23328,-2.77748,0.97337,1.57080,0.00000,-0.14512,-0.38003,0.04653,,,,,,,,,,,,,,,,,,,,,,,,,,0,0,0,0,0
0.1612,1783191131.7960,1,0,2.0000,0.0000,1.44682,0.23328,-2.77748,0.97337,1.57080,0.00000,-0.14512,-0.38003,0.04653,,,,,,,,,,,,,,,,,,,,,,,,,,0,0,0,0,0
0.1761,1783191131.8108,1,0,2.0000,0.0000,1.44682,0.23328,-2.77748,0.97337,1.57080,0.00000,-0.14512,-0.38003,0.04653,,,,,,,,,,,,,,,,,,,,,,,,,,0,0,0,0,0
0.1766,1783191131.8113,1,0,2.0000,0.0000,1.44682,0.23328,-2.77748,0.97337,1.57080,0.00000,-0.14512,-0.38003,0.04653,,,,,,,,,,,,,,,,,,,,,,,,,,0,0,0,0,0
0.1830,1783191131.8178,1,0,2.0000,0.0000,1.44682,0.23328,-2.77748,0.97337,1.57080,0.00000,-0.14512,-0.38003,0.04653,,,,,,,,,,,,,,,,,,,,,,,,,,0,0,0,0,0
0.1955,1783191131.8303,1,0,2.0000,0.0000,1.44682,0.23328,-2.77748,0.97337,1.57080,0.00000,-0.14512,-0.38003,0.04653,,,,,,,,,,,,,,,,,,,,,,,,,,0,0,0,0,0
0.2061,1783191131.8409,1,0,2.0000,0.0000,1.44682,0.23328,-2.77748,0.97337,1.57080,0.00000,-0.14512,-0.38003,0.04653,,,,,,,,,,,,,,,,,,,,,,,,,,0,0,0,0,0
0.2063,1783191131.8411,1,0,2.0000,0.0000,1.44682,0.23328,-2.77748,0.97337,1.57080,0.00000,-0.14512,-0.38003,0.04653,,,,,,,,,,,,,,,,,,,,,,,,,,0,0,0,0,0
0.2113,1783191131.8460,1,0,2.0000,0.0000,1.44682,0.23328,-2.77748,0.97337,1.57080,0.00000,-0.14512,-0.38003,0.04653,,,,,,,,,,,,,,,,,,,,,,,,,,0,0,0,0,0
0.2115,1783191131.8463,1,0,2.0000,0.0000,1.44682,0.23328,-2.77748,0.97337,1.57080,0.00000,-0.14512,-0.38003,0.04653,,,,,,,,,,,,,,,,,,,,,,,,,,0,0,0,0,0
0.2321,1783191131.8669,1,0,2.0000,0.0000,1.44682,0.23328,-2.77748,0.97337,1.57080,0.00000,-0.14512,-0.38003,0.04653,,,,,,,,,,,,,,,,,,,,,,,,,,0,0,0,0,0
0.2385,1783191131.8732,1,0,2.0000,0.0000,1.44682,0.23328,-2.77748,0.97337,1.57080,0.00000,-0.14512,-0.38003,0.04653,,,,,,,,,,,,,,,,,,,,,,,,,,0,0,0,0,0
0.2389,1783191131.8737,1,0,2.0000,0.0000,1.44682,0.23328,-2.77748,0.97337,1.57080,0.00000,-0.14512,-0.38003,0.04653,,,,,,,,,,,,,,,,,,,,,,,,,,0,0,0,0,0
0.2421,1783191131.8769,1,0,2.0000,0.0000,1.44682,0.23328,-2.77748,0.97337,1.57080,0.00000,-0.14512,-0.38003,0.04653,,,,,,,,,,,,,,,,,,,,,,,,,,0,0,0,0,0
0.2530,1783191131.8877,1,0,2.0000,0.0000,1.44682,0.23328,-2.77748,0.97337,1.57080,0.00000,-0.14512,-0.38003,0.04653,,,,,,,,,,,,,,,,,,,,,,,,,,0,0,0,0,0
0.2660,1783191131.9007,1,0,2.0000,0.0000,1.44682,0.23328,-2.77748,0.97337,1.57080,0.00000,-0.14512,-0.38003,0.04653,,,,,,,,,,,,,,,,,,,,,,,,,,0,0,0,0,0
0.2731,1783191131.9079,1,0,2.0000,0.0000,1.44682,0.23328,-2.77748,0.97337,1.57080,0.00000,-0.14512,-0.38003,0.04653,,,,,,,,,,,,,,,,,,,,,,,,,,0,0,0,0,0
0.2846,1783191131.9194,1,0,2.0000,0.0000,1.44682,0.23328,-2.77748,0.97337,1.57080,0.00000,-0.14512,-0.38003,0.04653,,,,,,,,,,,,,,,,,,,,,,,,,,0,0,0,0,0
0.2917,1783191131.9265,1,0,2.0000,0.0000,1.44682,0.23328,-2.77748,0.97337,1.57080,0.00000,-0.14512,-0.38003,0.04653,,,,,,,,,,,,,,,,,,,,,,,,,,0,0,0,0,0
0.2920,1783191131.9267,1,0,2.0000,0.0000,1.44682,0.23328,-2.77748,0.97337,1.57080,0.00000,-0.14512,-0.38003,0.04653,,,,,,,,,,,,,,,,,,,,,,,,,,0,0,0,0,0
0.3032,1783191131.9379,1,0,2.0000,0.0000,1.44682,0.23328,-2.77748,0.97337,1.57080,0.00000,-0.14512,-0.38003,0.04653,,,,,,,,,,,,,,,,,,,,,,,,,,0,0,0,0,0
0.3035,1783191131.9383,1,0,2.0000,0.0000,1.44682,0.23328,-2.77748,0.97337,1.57080,0.00000,-0.14512,-0.38003,0.04653,,,,,,,,,,,,,,,,,,,,,,,,,,0,0,0,0,0
0.3158,1783191131.9506,1,0,2.0000,0.0000,1.44682,0.23328,-2.77748,0.97337,1.57080,0.00000,-0.14512,-0.38003,0.04653,,,,,,,,,,,,,,,,,,,,,,,,,,0,0,0,0,0
0.3354,1783191131.9701,1,0,2.0000,0.0000,1.44682,0.23328,-2.77748,0.97337,1.57080,0.00000,-0.14512,-0.38003,0.04653,,,,,,,,,,,,,,,,,,,,,,,,,,0,0,0,0,0
0.3357,1783191131.9705,1,0,2.0000,0.0000,1.44682,0.23328,-2.77748,0.97337,1.57080,0.00000,-0.14512,-0.38003,0.04653,,,,,,,,,,,,,,,,,,,,,,,,,,0,0,0,0,0
0.3461,1783191131.9809,1,0,2.0000,0.0000,1.44682,0.23328,-2.77748,0.97337,1.57080,0.00000,-0.14512,-0.38003,0.04653,,,,,,,,,,,,,,,,,,,,,,,,,,0,0,0,0,0
0.3524,1783191131.9872,1,0,2.0000,0.0000,1.44682,0.23328,-2.77748,0.97337,1.57080,0.00000,-0.14512,-0.38003,0.04653,,,,,,,,,,,,,,,,,,,,,,,,,,0,0,0,0,0
0.3632,1783191131.9980,1,0,2.0000,0.0000,1.44682,0.23328,-2.77748,0.97337,1.57080,0.00000,-0.14512,-0.38003,0.04653,,,,,,,,,,,,,,,,,,,,,,,,,,0,0,0,0,0
0.3757,1783191132.0105,1,0,2.0000,0.0000,1.44682,0.23328,-2.77748,0.97337,1.57080,0.00000,-0.14512,-0.38003,0.04653,,,,,,,,,,,,,,,,,,,,,,,,,,0,0,0,0,0
0.3851,1783191132.0198,1,0,2.0000,0.0000,1.44682,0.23328,-2.77748,0.97337,1.57080,0.00000,-0.14512,-0.38003,0.04653,,,,,,,,,,,,,,,,,,,,,,,,,,0,0,0,0,0
0.3913,1783191132.0261,1,0,2.0000,0.0000,1.44682,0.23328,-2.77748,0.97337,1.57080,0.00000,-0.14512,-0.38003,0.04653,,,,,,,,,,,,,,,,,,,,,,,,,,0,0,0,0,0
0.4024,1783191132.0372,1,0,2.0000,0.0000,1.44682,0.23328,-2.77748,0.97337,1.57080,0.00000,-0.14512,-0.38003,0.04653,,,,,,,,,,,,,,,,,,,,,,,,,,0,0,0,0,0
0.4027,1783191132.0375,1,0,2.0000,0.0000,1.44682,0.23328,-2.77748,0.97337,1.57080,0.00000,-0.14512,-0.38003,0.04653,,,,,,,,,,,,,,,,,,,,,,,,,,0,0,0,0,0
0.4147,1783191132.0495,1,0,2.0000,0.0000,1.44682,0.23328,-2.77748,0.97337,1.57080,0.00000,-0.14512,-0.38003,0.04653,,,,,,,,,,,,,,,,,,,,,,,,,,0,0,0,0,0
0.4248,1783191132.0595,1,0,2.0000,0.0000,1.44682,0.23328,-2.77748,0.97337,1.57080,0.00000,-0.14512,-0.38003,0.04653,,,,,,,,,,,,,,,,,,,,,,,,,,0,0,0,0,0
0.4332,1783191132.0679,1,0,2.0000,0.0000,1.44682,0.23328,-2.77748,0.97337,1.57080,0.00000,-0.14512,-0.38003,0.04653,,,,,,,,,,,,,,,,,,,,,,,,,,0,0,0,0,0
0.4335,1783191132.0683,1,0,2.0000,0.0000,1.44682,0.23328,-2.77748,0.97337,1.57080,0.00000,-0.14512,-0.38003,0.04653,,,,,,,,,,,,,,,,,,,,,,,,,,0,0,0,0,0
0.4472,1783191132.0819,1,0,2.0000,0.0000,1.44682,0.23328,-2.77748,0.97337,1.57080,0.00000,-0.14512,-0.38003,0.04653,,,,,,,,,,,,,,,,,,,,,,,,,,0,0,0,0,0
0.4474,1783191132.0822,1,0,2.0000,0.0000,1.44682,0.23328,-2.77748,0.97337,1.57080,0.00000,-0.14512,-0.38003,0.04653,,,,,,,,,,,,,,,,,,,,,,,,,,0,0,0,0,0
0.4513,1783191132.0860,1,0,2.0000,0.0000,1.44682,0.23328,-2.77748,0.97337,1.57080,0.00000,-0.14512,-0.38003,0.04653,,,,,,,,,,,,,,,,,,,,,,,,,,0,0,0,0,0
0.4678,1783191132.1025,1,0,2.0000,0.0000,1.44682,0.23328,-2.77748,0.97337,1.57080,0.00000,-0.14512,-0.38003,0.04653,,,,,,,,,,,,,,,,,,,,,,,,,,0,0,0,0,0
0.4728,1783191132.1076,1,0,2.0000,0.0000,1.44682,0.23328,-2.77748,0.97337,1.57080,0.00000,-0.14512,-0.38003,0.04653,,,,,,,,,,,,,,,,,,,,,,,,,,0,0,0,0,0
0.4732,1783191132.1080,1,0,2.0000,0.0000,1.44682,0.23328,-2.77748,0.97337,1.57080,0.00000,-0.14512,-0.38003,0.04653,,,,,,,,,,,,,,,,,,,,,,,,,,0,0,0,0,0
0.4886,1783191132.1234,1,0,2.0000,0.0000,1.44682,0.23328,-2.77748,0.97337,1.57080,0.00000,-0.14512,-0.38003,0.04653,,,,,,,,,,,,,,,,,,,,,,,,,,0,0,0,0,0
0.4890,1783191132.1238,1,0,2.0000,0.0000,1.44682,0.23328,-2.77748,0.97337,1.57080,0.00000,-0.14512,-0.38003,0.04653,,,,,,,,,,,,,,,,,,,,,,,,,,0,0,0,0,0
0.4910,1783191132.1258,1,0,2.0000,0.0000,1.44682,0.23328,-2.77748,0.97337,1.57080,0.00000,-0.14512,-0.38003,0.04653,,,,,,,,,,,,,,,,,,,,,,,,,,0,0,0,0,0
0.4913,1783191132.1261,1,0,2.0000,0.0000,1.44682,0.23328,-2.77748,0.97337,1.57080,0.00000,-0.14512,-0.38003,0.04653,,,,,,,,,,,,,,,,,,,,,,,,,,0,0,0,0,0
0.5023,1783191132.1371,1,0,2.0000,0.0000,1.44682,0.23328,-2.77748,0.97337,1.57080,0.00000,-0.14512,-0.38003,0.04653,,,,,,,,,,,,,,,,,,,,,,,,,,0,0,0,0,0
0.5182,1783191132.1530,1,0,2.0000,0.0000,1.44682,0.23328,-2.77748,0.97337,1.57080,0.00000,-0.14512,-0.38003,0.04653,,,,,,,,,,,,,,,,,,,,,,,,,,0,0,0,0,0
0.5213,1783191132.1560,1,0,2.0000,0.0000,1.44682,0.23328,-2.77748,0.97337,1.57080,0.00000,-0.14512,-0.38003,0.04653,,,,,,,,,,,,,,,,,,,,,,,,,,0,0,0,0,0
0.5217,1783191132.1565,1,0,2.0000,0.0000,1.44682,0.23328,-2.77748,0.97337,1.57080,0.00000,-0.14512,-0.38003,0.04653,,,,,,,,,,,,,,,,,,,,,,,,,,0,0,0,0,0
0.5353,1783191132.1701,1,0,2.0000,0.0000,1.44682,0.23328,-2.77748,0.97337,1.57080,0.00000,-0.14512,-0.38003,0.04653,,,,,,,,,,,,,,,,,,,,,,,,,,0,0,0,0,0
0.5421,1783191132.1769,1,0,2.0000,0.0000,1.44682,0.23328,-2.77748,0.97337,1.57080,0.00000,-0.14512,-0.38003,0.04653,,,,,,,,,,,,,,,,,,,,,,,,,,0,0,0,0,0
0.5530,1783191132.1878,1,0,2.0000,0.0000,1.44682,0.23328,-2.77748,0.97337,1.57080,0.00000,-0.14512,-0.38003,0.04653,,,,,,,,,,,,,,,,,,,,,,,,,,0,0,0,0,0
0.5630,1783191132.1978,1,0,2.0000,0.0000,1.44682,0.23328,-2.77748,0.97337,1.57080,0.00000,-0.14512,-0.38003,0.04653,,,,,,,,,,,,,,,,,,,,,,,,,,0,0,0,0,0
0.5714,1783191132.2062,1,0,2.0000,0.0000,1.44682,0.23328,-2.77748,0.97337,1.57080,0.00000,-0.14512,-0.38003,0.04653,,,,,,,,,,,,,,,,,,,,,,,,,,0,0,0,0,0
0.5853,1783191132.2200,1,0,2.0000,0.0000,1.44682,0.23328,-2.77748,0.97337,1.57080,0.00000,-0.14512,-0.38003,0.04653,,,,,,,,,,,,,,,,,,,,,,,,,,0,0,0,0,0
0.5959,1783191132.2307,1,0,2.0000,0.0000,1.44682,0.23328,-2.77748,0.97337,1.57080,0.00000,-0.14512,-0.38003,0.04653,,,,,,,,,,,,,,,,,,,,,,,,,,0,0,0,0,0
0.6052,1783191132.2400,1,0,2.0000,0.0000,1.44682,0.23328,-2.77748,0.97337,1.57080,0.00000,-0.14512,-0.38003,0.04653,,,,,,,,,,,,,,,,,,,,,,,,,,0,0,0,0,0
0.6155,1783191132.2503,1,0,2.0000,0.0000,1.44682,0.23328,-2.77748,0.97337,1.57080,0.00000,-0.14512,-0.38003,0.04653,,,,,,,,,,,,,,,,,,,,,,,,,,0,0,0,0,0
0.6249,1783191132.2596,1,0,2.0000,0.0000,1.44682,0.23328,-2.77748,0.97337,1.57080,0.00000,-0.14512,-0.38003,0.04653,,,,,,,,,,,,,,,,,,,,,,,,,,0,0,0,0,0
0.6360,1783191132.2708,1,0,2.0000,0.0000,1.44682,0.23328,-2.77748,0.97337,1.57080,0.00000,-0.14512,-0.38003,0.04653,,,,,,,,,,,,,,,,,,,,,,,,,,0,0,0,0,0
0.6485,1783191132.2832,1,0,2.0000,0.0000,1.44682,0.23328,-2.77748,0.97337,1.57080,0.00000,-0.14512,-0.38003,0.04653,,,,,,,,,,,,,,,,,,,,,,,,,,0,0,0,0,0
0.6515,1783191132.2863,1,0,2.0000,0.0000,1.44682,0.23328,-2.77748,0.97337,1.57080,0.00000,-0.14512,-0.38003,0.04653,,,,,,,,,,,,,,,,,,,,,,,,,,0,0,0,0,0
0.6630,1783191132.2978,1,0,2.0000,0.0000,1.44682,0.23328,-2.77748,0.97337,1.57080,0.00000,-0.14512,-0.38003,0.04653,,,,,,,,,,,,,,,,,,,,,,,,,,0,0,0,0,0
0.6714,1783191132.3062,1,0,2.0000,0.0000,1.44682,0.23328,-2.77748,0.97337,1.57080,0.00000,-0.14512,-0.38003,0.04653,,,,,,,,,,,,,,,,,,,,,,,,,,0,0,0,0,0
0.6813,1783191132.3161,1,0,2.0000,0.0000,1.44682,0.23328,-2.77748,0.97337,1.57080,0.00000,-0.14512,-0.38003,0.04653,,,,,,,,,,,,,,,,,,,,,,,,,,0,0,0,0,0
0.6816,1783191132.3164,1,0,2.0000,0.0000,1.44682,0.23328,-2.77748,0.97337,1.57080,0.00000,-0.14512,-0.38003,0.04653,,,,,,,,,,,,,,,,,,,,,,,,,,0,0,0,0,0
0.6917,1783191132.3264,1,0,2.0000,0.0000,1.44682,0.23328,-2.77748,0.97337,1.57080,0.00000,-0.14512,-0.38003,0.04653,,,,,,,,,,,,,,,,,,,,,,,,,,0,0,0,0,0
0.7012,1783191132.3360,1,0,2.0000,0.0000,1.44682,0.23328,-2.77748,0.97337,1.57080,0.00000,-0.14512,-0.38003,0.04653,,,,,,,,,,,,,,,,,,,,,,,,,,0,0,0,0,0
0.7114,1783191132.3461,1,0,2.0000,0.0000,1.44682,0.23328,-2.77748,0.97337,1.57080,0.00000,-0.14512,-0.38003,0.04653,,,,,,,,,,,,,,,,,,,,,,,,,,0,0,0,0,0
0.7118,1783191132.3466,1,0,2.0000,0.0000,1.44682,0.23328,-2.77748,0.97337,1.57080,0.00000,-0.14512,-0.38003,0.04653,,,,,,,,,,,,,,,,,,,,,,,,,,0,0,0,0,0
0.7228,1783191132.3576,1,0,2.0000,0.0000,1.44682,0.23328,-2.77748,0.97337,1.57080,0.00000,-0.14512,-0.38003,0.04653,,,,,,,,,,,,,,,,,,,,,,,,,,0,0,0,0,0
0.7323,1783191132.3671,1,1,2.0000,0.0000,1.44682,0.23328,-2.77748,0.97337,1.57080,0.00000,-0.14512,-0.38003,0.04653,,,,,,,,,,,,,,,,,,,,,,,,,,0,0,0,0,0
0.7422,1783191132.3770,1,1,2.0000,0.0000,1.44682,0.23328,-2.77748,0.97337,1.57080,0.00000,-0.14512,-0.38003,0.04653,,,,,,,,,,,,,,,,,,,,,,,,,,0,0,0,0,0
0.7426,1783191132.3773,1,1,2.0000,0.0000,1.44682,0.23328,-2.77748,0.97337,1.57080,0.00000,-0.14512,-0.38003,0.04653,,,,,,,,,,,,,,,,,,,,,,,,,,0,0,0,0,0
0.7563,1783191132.3911,1,1,2.0000,0.0000,1.44682,0.23328,-2.77748,0.97337,1.57080,0.00000,-0.14512,-0.38003,0.04653,,,,,,,,,,,,,,,,,,,,,,,,,,0,0,0,0,0
0.7623,1783191132.3971,1,1,2.0000,0.0000,1.44682,0.23328,-2.77748,0.97337,1.57080,0.00000,-0.14512,-0.38003,0.04653,,,,,,,,,,,,,,,,,,,,,,,,,,0,0,0,0,0
0.7626,1783191132.3974,1,1,2.0000,0.0000,1.44682,0.23328,-2.77748,0.97337,1.57080,0.00000,-0.14512,-0.38003,0.04653,,,,,,,,,,,,,,,,,,,,,,,,,,0,0,0,0,0
0.7756,1783191132.4104,1,1,2.0000,0.0000,1.44682,0.23328,-2.77748,0.97337,1.57080,0.00000,-0.14512,-0.38003,0.04653,,,,,,,,,,,,,,,,,,,,,,,,,,0,0,0,0,0
0.7759,1783191132.4107,1,1,2.0000,0.0000,1.44682,0.23328,-2.77748,0.97337,1.57080,0.00000,-0.14512,-0.38003,0.04653,,,,,,,,,,,,,,,,,,,,,,,,,,0,0,0,0,0
0.7811,1783191132.4159,1,1,2.0000,0.0000,1.44682,0.23328,-2.77748,0.97337,1.57080,0.00000,-0.14512,-0.38003,0.04653,,,,,,,,,,,,,,,,,,,,,,,,,,0,0,0,0,0
0.7814,1783191132.4162,1,1,2.0000,0.0000,1.44682,0.23328,-2.77748,0.97337,1.57080,0.00000,-0.14512,-0.38003,0.04653,,,,,,,,,,,,,,,,,,,,,,,,,,0,0,0,0,0
0.7942,1783191132.4290,1,1,2.0000,0.0000,1.44682,0.23328,-2.77748,0.97337,1.57080,0.00000,-0.14512,-0.38003,0.04653,,,,,,,,,,,,,,,,,,,,,,,,,,0,0,0,0,0
0.8022,1783191132.4369,1,1,2.0000,0.0000,1.44682,0.23328,-2.77748,0.97337,1.57080,0.00000,-0.14512,-0.38003,0.04653,,,,,,,,,,,,,,,,,,,,,,,,,,0,0,0,0,0
0.8027,1783191132.4375,1,1,2.0000,0.0000,1.44682,0.23328,-2.77748,0.97337,1.57080,0.00000,-0.14512,-0.38003,0.04653,,,,,,,,,,,,,,,,,,,,,,,,,,0,0,0,0,0
0.8155,1783191132.4503,1,1,2.0000,0.0000,1.44682,0.23328,-2.77748,0.97337,1.57080,0.00000,-0.14512,-0.38003,0.04653,,,,,,,,,,,,,,,,,,,,,,,,,,0,0,0,0,0
0.8213,1783191132.4561,1,1,2.0000,0.0000,1.44682,0.23328,-2.77748,0.97337,1.57080,0.00000,-0.14512,-0.38003,0.04653,,,,,,,,,,,,,,,,,,,,,,,,,,0,0,0,0,0
0.8312,1783191132.4660,1,1,2.0000,0.0000,1.44682,0.23328,-2.77748,0.97337,1.57080,0.00000,-0.14512,-0.38003,0.04653,,,,,,,,,,,,,,,,,,,,,,,,,,0,0,0,0,0
0.8426,1783191132.4774,1,1,2.0000,0.0000,1.44682,0.23328,-2.77748,0.97337,1.57080,0.00000,-0.14512,-0.38003,0.04653,,,,,,,,,,,,,,,,,,,,,,,,,,0,0,0,0,0
0.8524,1783191132.4872,1,1,2.0000,0.0000,1.44682,0.23328,-2.77748,0.97337,1.57080,0.00000,-0.14512,-0.38003,0.04653,,,,,,,,,,,,,,,,,,,,,,,,,,0,0,0,0,0
0.8529,1783191132.4877,1,1,2.0000,0.0000,1.44682,0.23328,-2.77748,0.97337,1.57080,0.00000,-0.14512,-0.38003,0.04653,,,,,,,,,,,,,,,,,,,,,,,,,,0,0,0,0,0
0.8612,1783191132.4960,1,1,2.0000,0.0000,1.44682,0.23328,-2.77748,0.97337,1.57080,0.00000,-0.14512,-0.38003,0.04653,,,,,,,,,,,,,,,,,,,,,,,,,,0,0,0,0,0
0.8712,1783191132.5060,1,1,2.0000,0.0000,1.44682,0.23328,-2.77748,0.97337,1.57080,0.00000,-0.14512,-0.38003,0.04653,,,,,,,,,,,,,,,,,,,,,,,,,,0,0,0,0,0
0.8715,1783191132.5063,1,1,2.0000,0.0000,1.44682,0.23328,-2.77748,0.97337,1.57080,0.00000,-0.14512,-0.38003,0.04653,,,,,,,,,,,,,,,,,,,,,,,,,,0,0,0,0,0
0.8851,1783191132.5198,1,1,2.0000,0.0000,1.44682,0.23328,-2.77748,0.97337,1.57080,0.00000,-0.14512,-0.38003,0.04653,,,,,,,,,,,,,,,,,,,,,,,,,,0,0,0,0,0
0.8984,1783191132.5332,1,1,2.0000,0.0000,1.44682,0.23328,-2.77748,0.97337,1.57080,0.00000,-0.14512,-0.38003,0.04653,,,,,,,,,,,,,,,,,,,,,,,,,,0,0,0,0,0
0.8989,1783191132.5337,1,1,2.0000,0.0000,1.44682,0.23328,-2.77748,0.97337,1.57080,0.00000,-0.14512,-0.38003,0.04653,,,,,,,,,,,,,,,,,,,,,,,,,,0,0,0,0,0
0.9037,1783191132.5384,1,1,2.0000,0.0000,1.44682,0.23328,-2.77748,0.97337,1.57080,0.00000,-0.14512,-0.38003,0.04653,,,,,,,,,,,,,,,,,,,,,,,,,,0,0,0,0,0
0.9119,1783191132.5467,1,1,2.0000,0.0000,1.44682,0.23328,-2.77748,0.97337,1.57080,0.00000,-0.14512,-0.38003,0.04653,,,,,,,,,,,,,,,,,,,,,,,,,,0,0,0,0,0
0.9123,1783191132.5471,1,1,2.0000,0.0000,1.44682,0.23328,-2.77748,0.97337,1.57080,0.00000,-0.14512,-0.38003,0.04653,,,,,,,,,,,,,,,,,,,,,,,,,,0,0,0,0,0
0.9241,1783191132.5588,1,1,2.0000,0.0000,1.44682,0.23326,-2.77748,0.97339,1.57080,0.00000,-0.14512,-0.38003,0.04652,,,,,,,,,,,,,,,,,,,,,,,,,,0,0,0,0,0
0.9316,1783191132.5664,1,1,2.0000,0.0000,1.44682,0.23316,-2.77751,0.97352,1.57080,0.00000,-0.14512,-0.38003,0.04650,,,,,,,,,,,,,,,,,,,,,,,,,,0,0,0,0,0
0.9437,1783191132.5784,1,1,2.0000,0.0000,1.44682,0.23293,-2.77757,0.97381,1.57080,0.00000,-0.14512,-0.38003,0.04644,,,,,,,,,,,,,,,,,,,,,,,,,,0,0,0,0,0
0.9441,1783191132.5789,1,1,2.0000,0.0000,1.44682,0.23293,-2.77757,0.97381,1.57080,0.00000,-0.14512,-0.38003,0.04644,,,,,,,,,,,,,,,,,,,,,,,,,,0,0,0,0,0
0.9551,1783191132.5899,1,1,2.0000,0.0000,1.44682,0.23285,-2.77759,0.97391,1.57080,0.00000,-0.14512,-0.38003,0.04642,,,,,,,,,,,,,,,,,,,,,,,,,,0,0,0,0,0
0.9610,1783191132.5957,1,1,2.0000,0.0000,1.44682,0.23277,-2.77761,0.97401,1.57080,0.00000,-0.14512,-0.38003,0.04640,,,,,,,,,,,,,,,,,,,,,,,,,,0,0,0,0,0
0.9613,1783191132.5961,1,1,2.0000,0.0000,1.44682,0.23277,-2.77761,0.97401,1.57080,0.00000,-0.14512,-0.38003,0.04640,,,,,,,,,,,,,,,,,,,,,,,,,,0,0,0,0,0
0.9713,1783191132.6061,1,1,2.0000,0.0000,1.44682,0.23248,-2.77768,0.97437,1.57080,0.00000,-0.14512,-0.38003,0.04632,,,,,,,,,,,,,,,,,,,,,,,,,,0,0,0,0,0
0.9815,1783191132.6163,1,1,2.0000,0.0000,1.44682,0.23240,-2.77770,0.97448,1.57080,0.00000,-0.14512,-0.38003,0.04630,,,,,,,,,,,,,,,,,,,,,,,,,,0,0,0,0,0
0.9945,1783191132.6293,1,1,2.0000,0.0000,1.44682,0.23219,-2.77776,0.97474,1.57080,0.00000,-0.14512,-0.38003,0.04624,,,,,,,,,,,,,,,,,,,,,,,,,,0,0,0,0,0
0.9950,1783191132.6298,1,1,2.0000,0.0000,1.44682,0.23219,-2.77776,0.97474,1.57080,0.00000,-0.14512,-0.38003,0.04624,,,,,,,,,,,,,,,,,,,,,,,,,,0,0,0,0,0
1.0015,1783191132.6362,1,1,2.0000,0.0000,1.44682,0.23210,-2.77778,0.97485,1.57080,0.00000,-0.14512,-0.38003,0.04622,,,,,,,,,,,,,,,,,,,,,,,,,,0,0,0,0,0
1.0018,1783191132.6366,1,1,2.0000,0.0000,1.44682,0.23210,-2.77778,0.97485,1.57080,0.00000,-0.14512,-0.38003,0.04622,,,,,,,,,,,,,,,,,,,,,,,,,,0,0,0,0,0
1.0134,1783191132.6481,1,1,2.0000,0.0000,1.44682,0.23194,-2.77782,0.97505,1.57080,0.00000,-0.14512,-0.38003,0.04618,,,,,,,,,,,,,,,,,,,,,,,,,,0,0,0,0,0
1.0215,1783191132.6563,1,1,2.0000,0.0000,1.44682,0.23188,-2.77784,0.97513,1.57080,0.00000,-0.14512,-0.38003,0.04616,,,,,,,,,,,,,,,,,,,,,,,,,,0,0,0,0,0
1.0333,1783191132.6681,1,1,2.0000,0.0000,1.44682,0.23164,-2.77790,0.97542,1.57080,0.00000,-0.14512,-0.38003,0.04610,,,,,,,,,,,,,,,,,,,,,,,,,,0,0,0,0,0
1.0455,1783191132.6803,1,1,2.0000,0.0000,1.44682,0.23154,-2.77793,0.97556,1.57080,0.00000,-0.14512,-0.38003,0.04607,,,,,,,,,,,,,,,,,,,,,,,,,,0,0,0,0,0
1.0519,1783191132.6867,1,1,2.0000,0.0000,1.44682,0.23140,-2.77796,0.97573,1.57080,0.00000,-0.14512,-0.38003,0.04604,,,,,,,,,,,,,,,,,,,,,,,,,,0,0,0,0,0
1.0612,1783191132.6959,1,1,2.0000,0.0000,1.44682,0.23121,-2.77801,0.97597,1.57080,0.00000,-0.14512,-0.38003,0.04599,,,,,,,,,,,,,,,,,,,,,,,,,,0,0,0,0,0
1.0614,1783191132.6962,1,1,2.0000,0.0000,1.44682,0.23121,-2.77801,0.97597,1.57080,0.00000,-0.14512,-0.38003,0.04599,,,,,,,,,,,,,,,,,,,,,,,,,,0,0,0,0,0
1.0714,1783191132.7062,1,1,2.0000,0.0000,1.44682,0.23102,-2.77806,0.97620,1.57080,0.00000,-0.14512,-0.38003,0.04594,,,,,,,,,,,,,,,,,,,,,,,,,,0,0,0,0,0
1.0880,1783191132.7228,1,1,2.0000,0.0000,1.44682,0.23081,-2.77811,0.97647,1.57080,0.00000,-0.14512,-0.38003,0.04588,,,,,,,,,,,,,,,,,,,,,,,,,,0,0,0,0,0
1.1066,1783191132.7414,1,1,2.0000,0.0000,1.44682,0.23057,-2.77817,0.97678,1.57080,0.00000,-0.14512,-0.38003,0.04582,,,,,,,,,,,,,,,,,,,,,,,,,,0,0,0,0,0
1.1068,1783191132.7416,1,1,2.0000,0.0000,1.44682,0.23057,-2.77817,0.97678,1.57080,0.00000,-0.14512,-0.38003,0.04582,,,,,,,,,,,,,,,,,,,,,,,,,,0,0,0,0,0
1.1071,1783191132.7419,1,1,2.0000,0.0000,1.44682,0.23057,-2.77817,0.97678,1.57080,0.00000,-0.14512,-0.38003,0.04582,,,,,,,,,,,,,,,,,,,,,,,,,,0,0,0,0,0
1.1111,1783191132.7459,1,1,2.0000,0.0000,1.44682,0.23049,-2.77820,0.97688,1.57080,0.00000,-0.14512,-0.38003,0.04580,,,,,,,,,,,,,,,,,,,,,,,,,,0,0,0,0,0
1.1113,1783191132.7461,1,1,2.0000,0.0000,1.44682,0.23049,-2.77820,0.97688,1.57080,0.00000,-0.14512,-0.38003,0.04580,,,,,,,,,,,,,,,,,,,,,,,,,,0,0,0,0,0
1.1216,1783191132.7564,1,1,2.0000,0.0000,1.44682,0.23029,-2.77825,0.97713,1.57080,0.00000,-0.14512,-0.38003,0.04575,,,,,,,,,,,,,,,,,,,,,,,,,,0,0,0,0,0
1.1354,1783191132.7702,1,1,2.0000,0.0000,1.44682,0.23009,-2.77830,0.97738,1.57080,0.00000,-0.14512,-0.38003,0.04570,,,,,,,,,,,,,,,,,,,,,,,,,,0,0,0,0,0
1.1422,1783191132.7770,1,1,2.0000,0.0000,1.44682,0.22998,-2.77833,0.97752,1.57080,0.00000,-0.14512,-0.38003,0.04567,,,,,,,,,,,,,,,,,,,,,,,,,,0,0,0,0,0
1.1531,1783191132.7879,1,1,2.0000,0.0000,1.44682,0.22981,-2.77837,0.97773,1.57080,0.00000,-0.14512,-0.38003,0.04562,,,,,,,,,,,,,,,,,,,,,,,,,,0,0,0,0,0
1.1536,1783191132.7884,1,1,2.0000,0.0000,1.44682,0.22981,-2.77837,0.97773,1.57080,0.00000,-0.14512,-0.38003,0.04562,,,,,,,,,,,,,,,,,,,,,,,,,,0,0,0,0,0
1.1633,1783191132.7980,1,1,2.0000,0.0000,1.44682,0.22970,-2.77840,0.97786,1.57080,0.00000,-0.14512,-0.38003,0.04559,,,,,,,,,,,,,,,,,,,,,,,,,,0,0,0,0,0
1.1754,1783191132.8102,1,1,2.0000,0.0000,1.44682,0.22947,-2.77846,0.97815,1.57080,0.00000,-0.14512,-0.38003,0.04553,,,,,,,,,,,,,,,,,,,,,,,,,,0,0,0,0,0
1.1848,1783191132.8195,1,1,2.0000,0.0000,1.44682,0.22927,-2.77851,0.97840,1.57080,0.00000,-0.14512,-0.38003,0.04548,,,,,,,,,,,,,,,,,,,,,,,,,,0,0,0,0,0
1.2190,1783191132.8538,1,1,2.0000,0.0000,1.44682,0.22881,-2.77863,0.97899,1.57080,0.00000,-0.14512,-0.38003,0.04536,,,,,,,,,,,,,,,,,,,,,,,,,,0,0,0,0,0
1.2195,1783191132.8543,1,1,2.0000,0.0000,1.44682,0.22881,-2.77863,0.97899,1.57080,0.00000,-0.14512,-0.38003,0.04536,,,,,,,,,,,,,,,,,,,,,,,,,,0,0,0,0,0
1.2213,1783191132.8560,1,1,2.0000,0.0000,1.44682,0.22881,-2.77863,0.97899,1.57080,0.00000,-0.14512,-0.38003,0.04536,,,,,,,,,,,,,,,,,,,,,,,,,,0,0,0,0,0
1.2216,1783191132.8563,1,1,2.0000,0.0000,1.44682,0.22881,-2.77863,0.97899,1.57080,0.00000,-0.14512,-0.38003,0.04536,,,,,,,,,,,,,,,,,,,,,,,,,,0,0,0,0,0
1.2350,1783191132.8698,1,1,2.0000,0.0000,1.44682,0.22855,-2.77869,0.97930,1.57080,0.00000,-0.14512,-0.38003,0.04530,,,,,,,,,,,,,,,,,,,,,,,,,,0,0,0,0,0
1.2441,1783191132.8789,1,1,2.0000,0.0000,1.44682,0.22835,-2.77874,0.97955,1.57080,0.00000,-0.14512,-0.38003,0.04524,,,,,,,,,,,,,,,,,,,,,,,,,,0,0,0,0,0
1.2528,1783191132.8876,1,1,2.0000,0.0000,1.44682,0.22827,-2.77876,0.97966,1.57080,0.00000,-0.14512,-0.38003,0.04522,,,,,,,,,,,,,,,,,,,,,,,,,,0,0,0,0,0
1.2531,1783191132.8879,1,1,2.0000,0.0000,1.44682,0.22827,-2.77876,0.97966,1.57080,0.00000,-0.14512,-0.38003,0.04522,,,,,,,,,,,,,,,,,,,,,,,,,,0,0,0,0,0
1.2625,1783191132.8973,1,1,2.0000,0.0000,1.44682,0.22814,-2.77880,0.97982,1.57080,0.00000,-0.14512,-0.38003,0.04519,,,,,,,,,,,,,,,,,,,,,,,,,,0,0,0,0,0
1.2711,1783191132.9059,1,1,2.0000,0.0000,1.44682,0.22797,-2.77884,0.98003,1.57080,0.00000,-0.14512,-0.38003,0.04514,,,,,,,,,,,,,,,,,,,,,,,,,,0,0,0,0,0
1.2715,1783191132.9063,1,1,2.0000,0.0000,1.44682,0.22797,-2.77884,0.98003,1.57080,0.00000,-0.14512,-0.38003,0.04514,,,,,,,,,,,,,,,,,,,,,,,,,,0,0,0,0,0
1.2813,1783191132.9161,1,1,2.0000,0.0000,1.44682,0.22789,-2.77886,0.98014,1.57080,0.00000,-0.14512,-0.38003,0.04512,,,,,,,,,,,,,,,,,,,,,,,,,,0,0,0,0,0
1.2915,1783191132.9263,1,1,2.0000,0.0000,1.44682,0.22773,-2.77890,0.98034,1.57080,0.00000,-0.14512,-0.38003,0.04508,,,,,,,,,,,,,,,,,,,,,,,,,,0,0,0,0,0
1.3016,1783191132.9364,1,1,2.0000,0.0000,1.44682,0.22753,-2.77895,0.98059,1.57080,0.00000,-0.14512,-0.38003,0.04503,,,,,,,,,,,,,,,,,,,,,,,,,,0,0,0,0,0
1.3022,1783191132.9370,1,1,2.0000,0.0000,1.44682,0.22743,-2.77897,0.98071,1.57080,0.00000,-0.14512,-0.38003,0.04500,,,,,,,,,,,,,,,,,,,,,,,,,,0,0,0,0,0
1.3125,1783191132.9473,1,1,2.0000,0.0000,1.44682,0.22735,-2.77900,0.98081,1.57080,0.00000,-0.14512,-0.38003,0.04498,,,,,,,,,,,,,,,,,,,,,,,,,,0,0,0,0,0
1.3257,1783191132.9604,1,1,2.0000,0.0000,1.44682,0.22722,-2.77903,0.98098,1.57080,0.00000,-0.14512,-0.38003,0.04495,,,,,,,,,,,,,,,,,,,,,,,,,,0,0,0,0,0
1.3317,1783191132.9665,1,1,2.0000,0.0000,1.44682,0.22705,-2.77907,0.98119,1.57080,0.00001,-0.14512,-0.38003,0.04491,,,,,,,,,,,,,,,,,,,,,,,,,,0,0,0,0,0
1.3417,1783191132.9764,1,1,2.0000,0.0000,1.44682,0.22697,-2.77909,0.98130,1.57080,0.00001,-0.14512,-0.38003,0.04488,,,,,,,,,,,,,,,,,,,,,,,,,,0,0,0,0,0
1.3562,1783191132.9910,1,1,2.0000,0.0000,1.44682,0.22671,-2.77916,0.98161,1.57080,0.00001,-0.14512,-0.38003,0.04482,,,,,,,,,,,,,,,,,,,,,,,,,,0,0,0,0,0
1.3647,1783191132.9995,1,1,2.0000,0.0000,1.44682,0.22651,-2.77921,0.98186,1.57080,0.00001,-0.14512,-0.38003,0.04477,,,,,,,,,,,,,,,,,,,,,,,,,,0,0,0,0,0
1.3762,1783191133.0110,1,1,2.0000,0.0000,1.44682,0.22641,-2.77923,0.98199,1.57080,0.00001,-0.14512,-0.38003,0.04474,,,,,,,,,,,,,,,,,,,,,,,,,,0,0,0,0,0
1.3817,1783191133.0165,1,1,2.0000,0.0000,1.44682,0.22637,-2.77925,0.98205,1.57080,0.00001,-0.14512,-0.38003,0.04473,,,,,,,,,,,,,,,,,,,,,,,,,,0,0,0,0,0
1.3918,1783191133.0266,1,1,2.0000,0.0000,1.44682,0.22613,-2.77931,0.98234,1.57080,0.00001,-0.14512,-0.38003,0.04467,,,,,,,,,,,,,,,,,,,,,,,,,,0,0,0,0,0
1.4087,1783191133.0434,1,1,2.0000,0.0000,1.44682,0.22597,-2.77935,0.98255,1.57080,0.00001,-0.14512,-0.38003,0.04462,,,,,,,,,,,,,,,,,,,,,,,,,,0,0,0,0,0
1.4132,1783191133.0479,1,1,2.0000,0.0000,1.44682,0.22589,-2.77937,0.98265,1.57080,0.00001,-0.14512,-0.38003,0.04460,,,,,,,,,,,,,,,,,,,,,,,,,,0,0,0,0,0
1.4231,1783191133.0579,1,1,2.0000,0.0000,1.44682,0.22559,-2.77944,0.98302,1.57080,0.00001,-0.14512,-0.38002,0.04453,,,,,,,,,,,,,,,,,,,,,,,,,,0,0,0,0,0
1.4315,1783191133.0662,1,1,2.0000,0.0000,1.44682,0.22551,-2.77946,0.98313,1.57080,0.00001,-0.14512,-0.38002,0.04450,,,,,,,,,,,,,,,,,,,,,,,,,,0,0,0,0,0
1.4415,1783191133.0763,1,1,2.0000,0.0000,1.44682,0.22544,-2.77948,0.98321,1.57080,0.00001,-0.14512,-0.38002,0.04449,,,,,,,,,,,,,,,,,,,,,,,,,,0,0,0,0,0
1.4551,1783191133.0899,1,1,2.0000,0.0000,1.44682,0.22512,-2.77956,0.98361,1.57080,0.00001,-0.14512,-0.38002,0.04440,,,,,,,,,,,,,,,,,,,,,,,,,,0,0,0,0,0
1.4622,1783191133.0970,1,1,2.0000,0.0000,1.44682,0.22504,-2.77958,0.98371,1.57080,0.00001,-0.14512,-0.38002,0.04438,,,,,,,,,,,,,,,,,,,,,,,,,,0,0,0,0,0
1.4624,1783191133.0972,1,1,2.0000,0.0000,1.44682,0.22504,-2.77958,0.98371,1.57080,0.00001,-0.14512,-0.38002,0.04438,,,,,,,,,,,,,,,,,,,,,,,,,,0,0,0,0,0
1.4714,1783191133.1061,1,1,2.0000,0.0000,1.44682,0.22498,-2.77960,0.98379,1.57080,0.00001,-0.14512,-0.38002,0.04437,,,,,,,,,,,,,,,,,,,,,,,,,,0,0,0,0,0
1.4816,1783191133.1164,1,1,2.0000,0.0000,1.44682,0.22483,-2.77963,0.98397,1.57080,0.00001,-0.14512,-0.38002,0.04433,,,,,,,,,,,,,,,,,,,,,,,,,,0,0,0,0,0
1.4914,1783191133.1262,1,1,2.0000,0.0000,1.44682,0.22466,-2.77968,0.98419,1.57080,0.00001,-0.14512,-0.38002,0.04429,,,,,,,,,,,,,,,,,,,,,,,,,,0,0,0,0,0
1.5110,1783191133.1458,1,1,2.0000,0.0000,1.44682,0.22430,-2.77977,0.98463,1.57080,0.00001,-0.14512,-0.38002,0.04419,,,,,,,,,,,,,,,,,,,,,,,,,,0,0,0,0,0
1.5114,1783191133.1462,1,1,2.0000,0.0000,1.44682,0.22430,-2.77977,0.98463,1.57080,0.00001,-0.14512,-0.38002,0.04419,,,,,,,,,,,,,,,,,,,,,,,,,,0,0,0,0,0
1.5245,1783191133.1592,1,1,2.0000,0.0000,1.44682,0.22412,-2.77981,0.98486,1.57080,0.00001,-0.14512,-0.38002,0.04415,,,,,,,,,,,,,,,,,,,,,,,,,,0,0,0,0,0
1.5315,1783191133.1663,1,1,2.0000,0.0000,1.44682,0.22406,-2.77983,0.98494,1.57080,0.00001,-0.14512,-0.38002,0.04413,,,,,,,,,,,,,,,,,,,,,,,,,,0,0,0,0,0
1.5426,1783191133.1774,1,1,2.0000,0.0000,1.44682,0.22382,-2.77989,0.98524,1.57080,0.00001,-0.14512,-0.38002,0.04407,,,,,,,,,,,,,,,,,,,,,,,,,,0,0,0,0,0
1.5431,1783191133.1778,1,1,2.0000,0.0000,1.44682,0.22382,-2.77989,0.98524,1.57080,0.00001,-0.14512,-0.38002,0.04407,,,,,,,,,,,,,,,,,,,,,,,,,,0,0,0,0,0
1.5514,1783191133.1862,1,1,2.0000,0.0000,1.44682,0.22373,-2.77991,0.98535,1.57080,0.00001,-0.14512,-0.38002,0.04405,,,,,,,,,,,,,,,,,,,,,,,,,,0,0,0,0,0
1.5625,1783191133.1973,1,1,2.0000,0.0000,1.44682,0.22357,-2.77995,0.98554,1.57080,0.00001,-0.14512,-0.38002,0.04401,,,,,,,,,,,,,,,,,,,,,,,,,,0,0,0,0,0
1.5759,1783191133.2106,1,1,2.0000,0.0000,1.44682,0.22328,-2.78002,0.98592,1.57080,0.00001,-0.14512,-0.38002,0.04393,,,,,,,,,,,,,,,,,,,,,,,,,,0,0,0,0,0
1.5861,1783191133.2209,1,1,2.0000,0.0000,1.44682,0.22318,-2.78005,0.98604,1.57080,0.00001,-0.14512,-0.38002,0.04390,,,,,,,,,,,,,,,,,,,,,,,,,,0,0,0,0,0
1.5936,1783191133.2283,1,1,2.0000,0.0000,1.44682,0.22313,-2.78006,0.98610,1.57080,0.00001,-0.14512,-0.38002,0.04389,,,,,,,,,,,,,,,,,,,,,,,,,,0,0,0,0,0
1.6176,1783191133.2524,1,1,2.0000,0.0000,1.44682,0.22278,-2.78015,0.98653,1.57080,0.00001,-0.14512,-0.38002,0.04380,,,,,,,,,,,,,,,,,,,,,,,,,,0,0,0,0,0
1.6183,1783191133.2531,1,1,2.0000,0.0000,1.44681,0.22273,-2.78016,0.98660,1.57080,0.00001,-0.14512,-0.38002,0.04379,,,,,,,,,,,,,,,,,,,,,,,,,,0,0,0,0,0
1.6184,1783191133.2532,1,1,2.0000,0.0000,1.44681,0.22273,-2.78016,0.98660,1.57080,0.00001,-0.14512,-0.38002,0.04379,,,,,,,,,,,,,,,,,,,,,,,,,,0,0,0,0,0
1.6231,1783191133.2579,1,1,2.0000,0.0000,1.44681,0.22265,-2.78018,0.98670,1.57080,0.00001,-0.14512,-0.38002,0.04377,,,,,,,,,,,,,,,,,,,,,,,,,,0,0,0,0,0
1.6237,1783191133.2585,1,1,2.0000,0.0000,1.44681,0.22265,-2.78018,0.98670,1.57080,0.00001,-0.14512,-0.38002,0.04377,,,,,,,,,,,,,,,,,,,,,,,,,,0,0,0,0,0
1.6320,1783191133.2667,1,1,2.0000,0.0000,1.44681,0.22245,-2.78023,0.98695,1.57080,0.00001,-0.14512,-0.38002,0.04372,,,,,,,,,,,,,,,,,,,,,,,,,,0,0,0,0,0
1.6428,1783191133.2775,1,1,2.0000,0.0000,1.44681,0.22226,-2.78028,0.98718,1.57080,0.00001,-0.14512,-0.38002,0.04367,,,,,,,,,,,,,,,,,,,,,,,,,,0,0,0,0,0
1.6684,1783191133.3032,1,1,2.0000,0.0000,1.44681,0.22188,-2.78038,0.98767,1.57080,0.00001,-0.14512,-0.38002,0.04357,,,,,,,,,,,,,,,,,,,,,,,,,,0,0,0,0,0
1.6688,1783191133.3036,1,1,2.0000,0.0000,1.44681,0.22188,-2.78038,0.98767,1.57080,0.00001,-0.14512,-0.38002,0.04357,,,,,,,,,,,,,,,,,,,,,,,,,,0,0,0,0,0
1.6720,1783191133.3068,1,1,2.0000,0.0000,1.44681,0.22188,-2.78038,0.98767,1.57080,0.00001,-0.14512,-0.38002,0.04357,,,,,,,,,,,,,,,,,,,,,,,,,,0,0,0,0,0
1.6823,1783191133.3170,1,1,2.0000,0.0000,1.44681,0.22172,-2.78042,0.98786,1.57080,0.00001,-0.14512,-0.38002,0.04353,,,,,,,,,,,,,,,,,,,,,,,,,,0,0,0,0,0
1.6986,1783191133.3333,1,1,2.0000,0.0000,1.44681,0.22134,-2.78051,0.98834,1.57080,0.00001,-0.14512,-0.38002,0.04343,,,,,,,,,,,,,,,,,,,,,,,,,,0,0,0,0,0
1.6989,1783191133.3337,1,1,2.0000,0.0000,1.44681,0.22134,-2.78051,0.98834,1.57080,0.00001,-0.14512,-0.38002,0.04343,,,,,,,,,,,,,,,,,,,,,,,,,,0,0,0,0,0
1.7016,1783191133.3364,1,1,2.0000,0.0000,1.44681,0.22134,-2.78051,0.98834,1.57080,0.00001,-0.14512,-0.38002,0.04343,,,,,,,,,,,,,,,,,,,,,,,,,,0,0,0,0,0
1.7227,1783191133.3575,1,1,2.0000,0.0000,1.44681,0.22104,-2.78059,0.98872,1.57080,0.00001,-0.14512,-0.38002,0.04335,,,,,,,,,,,,,,,,,,,,,,,,,,0,0,0,0,0
1.7229,1783191133.3577,1,1,2.0000,0.0000,1.44681,0.22104,-2.78059,0.98872,1.57080,0.00001,-0.14512,-0.38002,0.04335,,,,,,,,,,,,,,,,,,,,,,,,,,0,0,0,0,0
1.7312,1783191133.3660,1,1,2.0000,0.0000,1.44681,0.22095,-2.78061,0.98883,1.57080,0.00001,-0.14512,-0.38002,0.04333,,,,,,,,,,,,,,,,,,,,,,,,,,0,0,0,0,0
1.7448,1783191133.3796,1,1,2.0000,0.0000,1.44681,0.22079,-2.78065,0.98902,1.57080,0.00001,-0.14512,-0.38002,0.04329,,,,,,,,,,,,,,,,,,,,,,,,,,0,0,0,0,0
1.7512,1783191133.3860,1,1,2.0000,0.0000,1.44681,0.22059,-2.78070,0.98927,1.57080,0.00001,-0.14512,-0.38002,0.04324,,,,,,,,,,,,,,,,,,,,,,,,,,0,0,0,0,0
1.7643,1783191133.3991,1,1,2.0000,0.0000,1.44681,0.22041,-2.78074,0.98950,1.57080,0.00001,-0.14512,-0.38002,0.04319,,,,,,,,,,,,,,,,,,,,,,,,,,0,0,0,0,0
1.7759,1783191133.4107,1,1,2.0000,0.0000,1.44681,0.22027,-2.78078,0.98967,1.57080,0.00001,-0.14512,-0.38002,0.04316,,,,,,,,,,,,,,,,,,,,,,,,,,0,0,0,0,0
1.7850,1783191133.4197,1,1,2.0000,0.0000,1.44681,0.22010,-2.78082,0.98988,1.57080,0.00001,-0.14512,-0.38002,0.04311,,,,,,,,,,,,,,,,,,,,,,,,,,0,0,0,0,0
1.7950,1783191133.4297,1,1,2.0000,0.0000,1.44681,0.22000,-2.78084,0.99001,1.57080,0.00001,-0.14512,-0.38002,0.04308,,,,,,,,,,,,,,,,,,,,,,,,,,0,0,0,0,0
1.8050,1783191133.4398,1,1,2.0000,0.0000,1.44681,0.21986,-2.78088,0.99019,1.57080,0.00001,-0.14512,-0.38002,0.04305,,,,,,,,,,,,,,,,,,,,,,,,,,0,0,0,0,0
1.8200,1783191133.4548,1,1,2.0000,0.0000,1.44681,0.21947,-2.78097,0.99067,1.57080,0.00001,-0.14512,-0.38002,0.04295,,,,,,,,,,,,,,,,,,,,,,,,,,0,0,0,0,0
1.8247,1783191133.4595,1,1,2.0000,0.0000,1.44681,0.21947,-2.78097,0.99067,1.57080,0.00001,-0.14512,-0.38002,0.04295,,,,,,,,,,,,,,,,,,,,,,,,,,0,0,0,0,0
1.8252,1783191133.4600,1,1,2.0000,0.0000,1.44681,0.21947,-2.78097,0.99067,1.57080,0.00001,-0.14512,-0.38002,0.04295,,,,,,,,,,,,,,,,,,,,,,,,,,0,0,0,0,0
1.8359,1783191133.4706,1,1,2.0000,0.0000,1.44681,0.21934,-2.78101,0.99083,1.57080,0.00001,-0.14512,-0.38002,0.04292,,,,,,,,,,,,,,,,,,,,,,,,,,0,0,0,0,0
1.8462,1783191133.4809,1,1,2.0000,0.0000,1.44681,0.21909,-2.78107,0.99115,1.57080,0.00001,-0.14512,-0.38002,0.04285,,,,,,,,,,,,,,,,,,,,,,,,,,0,0,0,0,0
1.8543,1783191133.4891,1,1,2.0000,0.0000,1.44681,0.21907,-2.78108,0.99118,1.57080,0.00001,-0.14512,-0.38002,0.04285,,,,,,,,,,,,,,,,,,,,,,,,,,0,0,0,0,0
1.8547,1783191133.4895,1,1,2.0000,0.0000,1.44681,0.21907,-2.78108,0.99118,1.57080,0.00001,-0.14512,-0.38002,0.04285,,,,,,,,,,,,,,,,,,,,,,,,,,0,0,0,0,0
1.8679,1783191133.5026,1,1,2.0000,0.0000,1.44681,0.21883,-2.78113,0.99147,1.57080,0.00001,-0.14512,-0.38002,0.04279,,,,,,,,,,,,,,,,,,,,,,,,,,0,0,0,0,0
1.8765,1783191133.5113,1,1,2.0000,0.0000,1.44681,0.21863,-2.78118,0.99172,1.57080,0.00001,-0.14512,-0.38002,0.04273,,,,,,,,,,,,,,,,,,,,,,,,,,0,0,0,0,0
1.8845,1783191133.5193,1,1,2.0000,0.0000,1.44681,0.21854,-2.78121,0.99183,1.57080,0.00001,-0.14512,-0.38002,0.04271,,,,,,,,,,,,,,,,,,,,,,,,,,0,0,0,0,0
1.8950,1783191133.5297,1,1,2.0000,0.0000,1.44681,0.21841,-2.78124,0.99199,1.57080,0.00001,-0.14512,-0.38002,0.04268,,,,,,,,,,,,,,,,,,,,,,,,,,0,0,0,0,0
1.9106,1783191133.5453,1,1,2.0000,0.0000,1.44681,0.21815,-2.78130,0.99232,1.57080,0.00001,-0.14512,-0.38002,0.04261,,,,,,,,,,,,,,,,,,,,,,,,,,0,0,0,0,0
1.9215,1783191133.5563,1,1,2.0000,0.0000,1.44681,0.21808,-2.78132,0.99241,1.57080,0.00001,-0.14512,-0.38002,0.04259,,,,,,,,,,,,,,,,,,,,,,,,,,0,0,0,0,0
1.9251,1783191133.5599,1,1,2.0000,0.0000,1.44681,0.21799,-2.78134,0.99251,1.57080,0.00001,-0.14512,-0.38002,0.04257,,,,,,,,,,,,,,,,,,,,,,,,,,0,0,0,0,0
1.9256,1783191133.5604,1,1,2.0000,0.0000,1.44681,0.21799,-2.78134,0.99251,1.57080,0.00001,-0.14512,-0.38002,0.04257,,,,,,,,,,,,,,,,,,,,,,,,,,0,0,0,0,0
1.9347,1783191133.5695,1,1,2.0000,0.0000,1.44681,0.21769,-2.78141,0.99289,1.57080,0.00001,-0.14512,-0.38002,0.04249,,,,,,,,,,,,,,,,,,,,,,,,,,0,0,0,0,0
1.9465,1783191133.5812,1,1,2.0000,0.0000,1.44681,0.21759,-2.78144,0.99302,1.57080,0.00001,-0.14512,-0.38002,0.04247,,,,,,,,,,,,,,,,,,,,,,,,,,0,0,0,0,0
1.9606,1783191133.5954,1,1,2.0000,0.0000,1.44681,0.21739,-2.78149,0.99326,1.57080,0.00001,-0.14512,-0.38002,0.04242,,,,,,,,,,,,,,,,,,,,,,,,,,0,0,0,0,0
1.9663,1783191133.6011,1,1,2.0000,0.0000,1.44681,0.21722,-2.78153,0.99348,1.57080,0.00001,-0.14512,-0.38002,0.04237,,,,,,,,,,,,,,,,,,,,,,,,,,0,0,0,0,0
1.9665,1783191133.6013,1,1,2.0000,0.0000,1.44681,0.21722,-2.78153,0.99348,1.57080,0.00001,-0.14512,-0.38002,0.04237,,,,,,,,,,,,,,,,,,,,,,,,,,0,0,0,0,0
1.9754,1783191133.6102,1,1,2.0000,0.0000,1.44681,0.21720,-2.78154,0.99351,1.57080,0.00001,-0.14512,-0.38002,0.04237,,,,,,,,,,,,,,,,,,,,,,,,,,0,0,0,0,0
1.9848,1783191133.6196,1,1,2.0000,0.0000,1.44681,0.21706,-2.78157,0.99368,1.57080,0.00001,-0.14512,-0.38002,0.04233,,,,,,,,,,,,,,,,,,,,,,,,,,0,0,0,0,0
2.0068,1783191133.6416,1,1,2.0000,0.0000,1.44681,0.21666,-2.78167,0.99418,1.57080,0.00001,-0.14512,-0.38002,0.04223,,,,,,,,,,,,,,,,,,,,,,,,,,0,0,0,0,0
2.0072,1783191133.6420,1,1,2.0000,0.0000,1.44681,0.21666,-2.78167,0.99418,1.57080,0.00001,-0.14512,-0.38002,0.04223,,,,,,,,,,,,,,,,,,,,,,,,,,0,0,0,0,0
2.0277,1783191133.6625,1,1,2.0000,0.0000,1.44681,0.21628,-2.78176,0.99465,1.57080,0.00001,-0.14512,-0.38002,0.04213,,,,,,,,,,,,,,,,,,,,,,,,,,0,0,0,0,0
2.0279,1783191133.6627,1,1,2.0000,0.0000,1.44681,0.21628,-2.78176,0.99465,1.57080,0.00001,-0.14512,-0.38002,0.04213,,,,,,,,,,,,,,,,,,,,,,,,,,0,0,0,0,0
2.0423,1783191133.6771,1,1,2.0000,0.0000,1.44681,0.21612,-2.78180,0.99484,1.57080,0.00001,-0.14512,-0.38002,0.04209,,,,,,,,,,,,,,,,,,,,,,,,,,0,0,0,0,0
2.0474,1783191133.6822,1,1,2.0000,0.0000,1.44681,0.21603,-2.78183,0.99497,1.57080,0.00001,-0.14512,-0.38002,0.04207,,,,,,,,,,,,,,,,,,,,,,,,,,0,0,0,0,0
2.0479,1783191133.6827,1,1,2.0000,0.0000,1.44681,0.21603,-2.78183,0.99497,1.57080,0.00001,-0.14512,-0.38002,0.04207,,,,,,,,,,,,,,,,,,,,,,,,,,0,0,0,0,0
2.0547,1783191133.6895,1,1,2.0000,0.0000,1.44681,0.21582,-2.78188,0.99522,1.57080,0.00001,-0.14512,-0.38002,0.04202,,,,,,,,,,,,,,,,,,,,,,,,,,0,0,0,0,0
2.0551,1783191133.6899,1,1,2.0000,0.0000,1.44681,0.21582,-2.78188,0.99522,1.57080,0.00001,-0.14512,-0.38002,0.04202,,,,,,,,,,,,,,,,,,,,,,,,,,0,0,0,0,0
2.0683,1783191133.7030,1,1,2.0000,0.0000,1.44681,0.21572,-2.78190,0.99535,1.57080,0.00001,-0.14512,-0.38002,0.04199,,,,,,,,,,,,,,,,,,,,,,,,,,0,0,0,0,0
2.0756,1783191133.7104,1,1,2.0000,0.0000,1.44681,0.21560,-2.78193,0.99549,1.57080,0.00001,-0.14512,-0.38002,0.04196,,,,,,,,,,,,,,,,,,,,,,,,,,0,0,0,0,0
2.0863,1783191133.7211,1,1,2.0000,0.0000,1.44681,0.21535,-2.78199,0.99581,1.57080,0.00001,-0.14512,-0.38002,0.04190,,,,,,,,,,,,,,,,,,,,,,,,,,0,0,0,0,0
2.0950,1783191133.7297,1,1,2.0000,0.0000,1.44681,0.21527,-2.78201,0.99591,1.57080,0.00001,-0.14512,-0.38002,0.04188,,,,,,,,,,,,,,,,,,,,,,,,,,0,0,0,0,0
2.0952,1783191133.7300,1,1,2.0000,0.0000,1.44681,0.21527,-2.78201,0.99591,1.57080,0.00001,-0.14512,-0.38002,0.04188,,,,,,,,,,,,,,,,,,,,,,,,,,0,0,0,0,0
2.1072,1783191133.7420,1,1,2.0000,0.0000,1.44681,0.21514,-2.78204,0.99607,1.57080,0.00001,-0.14512,-0.38002,0.04184,,,,,,,,,,,,,,,,,,,,,,,,,,0,0,0,0,0
2.1075,1783191133.7423,1,1,2.0000,0.0000,1.44681,0.21514,-2.78204,0.99607,1.57080,0.00001,-0.14512,-0.38002,0.04184,,,,,,,,,,,,,,,,,,,,,,,,,,0,0,0,0,0
2.1318,1783191133.7666,1,1,2.0000,0.0000,1.44681,0.21480,-2.78213,0.99649,1.57080,0.00001,-0.14512,-0.38002,0.04176,,,,,,,,,,,,,,,,,,,,,,,,,,0,0,0,0,0
2.1321,1783191133.7669,1,1,2.0000,0.0000,1.44681,0.21480,-2.78213,0.99649,1.57080,0.00001,-0.14512,-0.38002,0.04176,,,,,,,,,,,,,,,,,,,,,,,,,,0,0,0,0,0
2.1323,1783191133.7671,1,1,2.0000,0.0000,1.44681,0.21480,-2.78213,0.99649,1.57080,0.00001,-0.14512,-0.38002,0.04176,,,,,,,,,,,,,,,,,,,,,,,,,,0,0,0,0,0
2.1427,1783191133.7775,1,1,2.0000,0.0000,1.44681,0.21452,-2.78220,0.99685,1.57080,0.00002,-0.14512,-0.38002,0.04168,,,,,,,,,,,,,,,,,,,,,,,,,,0,0,0,0,0
2.1457,1783191133.7805,1,1,2.0000,0.0000,1.44681,0.21452,-2.78220,0.99685,1.57080,0.00002,-0.14512,-0.38002,0.04168,,,,,,,,,,,,,,,,,,,,,,,,,,0,0,0,0,0
2.1465,1783191133.7813,1,1,2.0000,0.0000,1.44681,0.21442,-2.78222,0.99697,1.57080,0.00002,-0.14512,-0.38002,0.04166,,,,,,,,,,,,,,,,,,,,,,,,,,0,0,0,0,0
2.1566,1783191133.7913,1,1,2.0000,0.0000,1.44681,0.21433,-2.78224,0.99708,1.57080,0.00002,-0.14512,-0.38002,0.04164,,,,,,,,,,,,,,,,,,,,,,,,,,0,0,0,0,0
2.1761,1783191133.8109,1,1,2.0000,0.0000,1.44681,0.21403,-2.78232,0.99746,1.57080,0.00002,-0.14512,-0.38002,0.04156,,,,,,,,,,,,,,,,,,,,,,,,,,0,0,0,0,0
2.1773,1783191133.8121,1,1,2.0000,0.0000,1.44681,0.21403,-2.78232,0.99746,1.57080,0.00002,-0.14512,-0.38002,0.04156,,,,,,,,,,,,,,,,,,,,,,,,,,0,0,0,0,0
2.1872,1783191133.8220,1,1,2.0000,0.0000,1.44681,0.21392,-2.78234,0.99759,1.57080,0.00002,-0.14512,-0.38002,0.04153,,,,,,,,,,,,,,,,,,,,,,,,,,0,0,0,0,0
2.1992,1783191133.8340,1,1,2.0000,0.0000,1.44681,0.21368,-2.78240,0.99789,1.57080,0.00002,-0.14512,-0.38002,0.04147,,,,,,,,,,,,,,,,,,,,,,,,,,0,0,0,0,0
2.2156,1783191133.8504,1,1,2.0000,0.0000,1.44681,0.21339,-2.78247,0.99825,1.57080,0.00002,-0.14512,-0.38002,0.04140,,,,,,,,,,,,,,,,,,,,,,,,,,0,0,0,0,0
2.2306,1783191133.8653,1,1,2.0000,0.0000,1.44681,0.21317,-2.78252,0.99851,1.57080,0.00002,-0.14512,-0.38002,0.04134,,,,,,,,,,,,,,,,,,,,,,,,,,0,0,0,0,0
2.2309,1783191133.8657,1,1,2.0000,0.0000,1.44681,0.21317,-2.78252,0.99851,1.57080,0.00002,-0.14512,-0.38002,0.04134,,,,,,,,,,,,,,,,,,,,,,,,,,0,0,0,0,0
2.2348,1783191133.8695,1,1,2.0000,0.0000,1.44681,0.21309,-2.78254,0.99862,1.57080,0.00002,-0.14512,-0.38002,0.04132,,,,,,,,,,,,,,,,,,,,,,,,,,0,0,0,0,0
2.2458,1783191133.8806,1,1,2.0000,0.0000,1.44681,0.21300,-2.78257,0.99873,1.57080,0.00002,-0.14512,-0.38002,0.04130,,,,,,,,,,,,,,,,,,,,,,,,,,0,0,0,0,0
2.2556,1783191133.8903,1,1,2.0000,0.0000,1.44681,0.21284,-2.78260,0.99893,1.57080,0.00002,-0.14512,-0.38002,0.04126,,,,,,,,,,,,,,,,,,,,,,,,,,0,0,0,0,0
2.2679,1783191133.9026,1,1,2.0000,0.0000,1.44681,0.21254,-2.78268,0.99931,1.57080,0.00002,-0.14512,-0.38002,0.04118,,,,,,,,,,,,,,,,,,,,,,,,,,0,0,0,0,0
2.2803,1783191133.9151,1,1,2.0000,0.0000,1.44681,0.21243,-2.78270,0.99944,1.57080,0.00002,-0.14512,-0.38002,0.04115,,,,,,,,,,,,,,,,,,,,,,,,,,0,0,0,0,0
2.2865,1783191133.9213,1,1,2.0000,0.0000,1.44681,0.21232,-2.78273,0.99958,1.57080,0.00002,-0.14512,-0.38002,0.04112,,,,,,,,,,,,,,,,,,,,,,,,,,0,0,0,0,0
2.2995,1783191133.9342,1,1,2.0000,0.0000,1.44681,0.21206,-2.78279,0.99990,1.57080,0.00002,-0.14512,-0.38002,0.04106,,,,,,,,,,,,,,,,,,,,,,,,,,0,0,0,0,0
2.2997,1783191133.9345,1,1,2.0000,0.0000,1.44681,0.21206,-2.78279,0.99990,1.57080,0.00002,-0.14512,-0.38002,0.04106,,,,,,,,,,,,,,,,,,,,,,,,,,0,0,0,0,0
2.3048,1783191133.9396,1,1,2.0000,0.0000,1.44681,0.21206,-2.78279,0.99990,1.57080,0.00002,-0.14512,-0.38002,0.04106,,,,,,,,,,,,,,,,,,,,,,,,,,0,0,0,0,0
2.3051,1783191133.9399,1,1,2.0000,0.0000,1.44681,0.21206,-2.78279,0.99990,1.57080,0.00002,-0.14512,-0.38002,0.04106,,,,,,,,,,,,,,,,,,,,,,,,,,0,0,0,0,0
2.3155,1783191133.9503,1,1,2.0000,0.0000,1.44681,0.21190,-2.78283,1.00010,1.57080,0.00002,-0.14512,-0.38002,0.04102,,,,,,,,,,,,,,,,,,,,,,,,,,0,0,0,0,0
2.3158,1783191133.9506,1,1,2.0000,0.0000,1.44681,0.21190,-2.78283,1.00010,1.57080,0.00002,-0.14512,-0.38002,0.04102,,,,,,,,,,,,,,,,,,,,,,,,,,0,0,0,0,0
2.3262,1783191133.9610,1,1,2.0000,0.0000,1.44681,0.21159,-2.78291,1.00048,1.57080,0.00002,-0.14512,-0.38002,0.04094,,,,,,,,,,,,,,,,,,,,,,,,,,0,0,0,0,0
2.3359,1783191133.9707,1,1,2.0000,0.0000,1.44681,0.21151,-2.78293,1.00059,1.57080,0.00002,-0.14512,-0.38002,0.04092,,,,,,,,,,,,,,,,,,,,,,,,,,0,0,0,0,0
2.3458,1783191133.9806,1,1,2.0000,0.0000,1.44681,0.21144,-2.78294,1.00067,1.57080,0.00002,-0.14512,-0.38002,0.04090,,,,,,,,,,,,,,,,,,,,,,,,,,0,0,0,0,0
2.3547,1783191133.9895,1,1,2.0000,0.0000,1.44681,0.21120,-2.78300,1.00097,1.57080,0.00002,-0.14512,-0.38002,0.04084,,,,,,,,,,,,,,,,,,,,,,,,,,0,0,0,0,0
2.3649,1783191133.9997,1,1,2.0000,0.0000,1.44681,0.21111,-2.78302,1.00107,1.57080,0.00002,-0.14512,-0.38002,0.04082,,,,,,,,,,,,,,,,,,,,,,,,,,0,0,0,0,0
2.3768,1783191134.0115,1,1,2.0000,0.0000,1.44681,0.21095,-2.78306,1.00127,1.57080,0.00002,-0.14512,-0.38002,0.04078,,,,,,,,,,,,,,,,,,,,,,,,,,0,0,0,0,0
2.3887,1783191134.0235,1,1,2.0000,0.0000,1.44681,0.21065,-2.78314,1.00165,1.57080,0.00002,-0.14512,-0.38002,0.04070,,,,,,,,,,,,,,,,,,,,,,,,,,0,0,0,0,0
2.3986,1783191134.0333,1,1,2.0000,0.0000,1.44681,0.21055,-2.78316,1.00178,1.57080,0.00002,-0.14512,-0.38002,0.04068,,,,,,,,,,,,,,,,,,,,,,,,,,0,0,0,0,0
2.3989,1783191134.0336,1,1,2.0000,0.0000,1.44681,0.21055,-2.78316,1.00178,1.57080,0.00002,-0.14512,-0.38002,0.04068,,,,,,,,,,,,,,,,,,,,,,,,,,0,0,0,0,0
2.4061,1783191134.0409,1,1,2.0000,0.0000,1.44681,0.21043,-2.78319,1.00192,1.57080,0.00002,-0.14512,-0.38002,0.04065,,,,,,,,,,,,,,,,,,,,,,,,,,0,0,0,0,0
2.4063,1783191134.0410,1,1,2.0000,0.0000,1.44681,0.21043,-2.78319,1.00192,1.57080,0.00002,-0.14512,-0.38002,0.04065,,,,,,,,,,,,,,,,,,,,,,,,,,0,0,0,0,0
2.4160,1783191134.0508,1,1,2.0000,0.0000,1.44681,0.21026,-2.78323,1.00214,1.57080,0.00002,-0.14512,-0.38002,0.04060,,,,,,,,,,,,,,,,,,,,,,,,,,0,0,0,0,0
2.4360,1783191134.0708,1,1,2.0000,0.0000,1.44681,0.21001,-2.78329,1.00245,1.57080,0.00002,-0.14512,-0.38002,0.04054,,,,,,,,,,,,,,,,,,,,,,,,,,0,0,0,0,0
2.4363,1783191134.0711,1,1,2.0000,0.0000,1.44681,0.21001,-2.78329,1.00245,1.57080,0.00002,-0.14512,-0.38002,0.04054,,,,,,,,,,,,,,,,,,,,,,,,,,0,0,0,0,0
2.4467,1783191134.0814,1,1,2.0000,0.0000,1.44680,0.20971,-2.78336,1.00282,1.57080,0.00002,-0.14512,-0.38002,0.04046,,,,,,,,,,,,,,,,,,,,,,,,,,0,0,0,0,0
2.4470,1783191134.0818,1,1,2.0000,0.0000,1.44680,0.20971,-2.78336,1.00282,1.57080,0.00002,-0.14512,-0.38002,0.04046,,,,,,,,,,,,,,,,,,,,,,,,,,0,0,0,0,0
2.4548,1783191134.0896,1,1,2.0000,0.0000,1.44680,0.20962,-2.78338,1.00293,1.57080,0.00002,-0.14512,-0.38002,0.04044,,,,,,,,,,,,,,,,,,,,,,,,,,0,0,0,0,0
2.4655,1783191134.1003,1,1,2.0000,0.0000,1.44680,0.20955,-2.78340,1.00301,1.57079,0.00002,-0.14512,-0.38002,0.04043,,,,,,,,,,,,,,,,,,,,,,,,,,0,0,0,0,0
2.4791,1783191134.1139,1,1,2.0000,0.0000,1.44680,0.20922,-2.78348,1.00342,1.57079,0.00002,-0.14512,-0.38002,0.04034,,,,,,,,,,,,,,,,,,,,,,,,,,0,0,0,0,0
2.4863,1783191134.1211,1,1,2.0000,0.0000,1.44680,0.20920,-2.78348,1.00345,1.57079,0.00002,-0.14512,-0.38002,0.04034,,,,,,,,,,,,,,,,,,,,,,,,,,0,0,0,0,0
2.4960,1783191134.1308,1,1,2.0000,0.0000,1.44680,0.20906,-2.78352,1.00362,1.57079,0.00002,-0.14512,-0.38002,0.04030,,,,,,,,,,,,,,,,,,,,,,,,,,0,0,0,0,0
2.5049,1783191134.1397,1,1,2.0000,0.0000,1.44680,0.20886,-2.78357,1.00387,1.57079,0.00002,-0.14512,-0.38002,0.04025,,,,,,,,,,,,,,,,,,,,,,,,,,0,0,0,0,0
2.5189,1783191134.1537,1,1,2.0000,0.0000,1.44680,0.20866,-2.78362,1.00413,1.57079,0.00002,-0.14512,-0.38002,0.04020,,,,,,,,,,,,,,,,,,,,,,,,,,0,0,0,0,0
2.5349,1783191134.1697,1,1,2.0000,0.0000,1.44680,0.20837,-2.78369,1.00448,1.57079,0.00002,-0.14512,-0.38002,0.04013,,,,,,,,,,,,,,,,,,,,,,,,,,0,0,0,0,0
2.5356,1783191134.1704,1,1,2.0000,0.0000,1.44680,0.20837,-2.78369,1.00448,1.57079,0.00002,-0.14512,-0.38002,0.04013,,,,,,,,,,,,,,,,,,,,,,,,,,0,0,0,0,0
2.5485,1783191134.1832,1,1,2.0000,0.0000,1.44680,0.20820,-2.78373,1.00469,1.57079,0.00002,-0.14512,-0.38002,0.04008,,,,,,,,,,,,,,,,,,,,,,,,,,0,0,0,0,0
2.5567,1783191134.1915,1,1,2.0000,0.0000,1.44680,0.20813,-2.78374,1.00477,1.57079,0.00002,-0.14512,-0.38002,0.04007,,,,,,,,,,,,,,,,,,,,,,,,,,0,0,0,0,0
2.5664,1783191134.2011,1,1,2.0000,0.0000,1.44680,0.20789,-2.78380,1.00507,1.57079,0.00002,-0.14512,-0.38002,0.04001,,,,,,,,,,,,,,,,,,,,,,,,,,0,0,0,0,0
2.5667,1783191134.2015,1,1,2.0000,0.0000,1.44680,0.20789,-2.78380,1.00507,1.57079,0.00002,-0.14512,-0.38002,0.04001,,,,,,,,,,,,,,,,,,,,,,,,,,0,0,0,0,0
2.5811,1783191134.2159,1,1,2.0000,0.0000,1.44680,0.20778,-2.78383,1.00521,1.57079,0.00002,-0.14512,-0.38002,0.03998,,,,,,,,,,,,,,,,,,,,,,,,,,0,0,0,0,0
2.5903,1783191134.2251,1,1,2.0000,0.0000,1.44680,0.20754,-2.78388,1.00550,1.57079,0.00002,-0.14512,-0.38002,0.03992,,,,,,,,,,,,,,,,,,,,,,,,,,0,0,0,0,0
2.5964,1783191134.2311,1,1,2.0000,0.0000,1.44680,0.20744,-2.78391,1.00563,1.57079,0.00002,-0.14512,-0.38002,0.03989,,,,,,,,,,,,,,,,,,,,,,,,,,0,0,0,0,0
2.5965,1783191134.2313,1,1,2.0000,0.0000,1.44680,0.20744,-2.78391,1.00563,1.57079,0.00002,-0.14512,-0.38002,0.03989,,,,,,,,,,,,,,,,,,,,,,,,,,0,0,0,0,0
2.6089,1783191134.2437,1,1,2.0000,0.0000,1.44680,0.20725,-2.78395,1.00587,1.57079,0.00002,-0.14512,-0.38002,0.03984,,,,,,,,,,,,,,,,,,,,,,,,,,0,0,0,0,0
2.6093,1783191134.2441,1,1,2.0000,0.0000,1.44680,0.20725,-2.78395,1.00587,1.57079,0.00002,-0.14512,-0.38002,0.03984,,,,,,,,,,,,,,,,,,,,,,,,,,0,0,0,0,0
2.6164,1783191134.2511,1,1,2.0000,0.0000,1.44680,0.20719,-2.78397,1.00595,1.57079,0.00002,-0.14512,-0.38002,0.03983,,,,,,,,,,,,,,,,,,,,,,,,,,0,0,0,0,0
2.6166,1783191134.2514,1,1,2.0000,0.0000,1.44680,0.20719,-2.78397,1.00595,1.57079,0.00002,-0.14512,-0.38002,0.03983,,,,,,,,,,,,,,,,,,,,,,,,,,0,0,0,0,0
2.6250,1783191134.2598,1,1,2.0000,0.0000,1.44680,0.20703,-2.78400,1.00613,1.57079,0.00002,-0.14512,-0.38002,0.03979,,,,,,,,,,,,,,,,,,,,,,,,,,0,0,0,0,0
2.6254,1783191134.2601,1,1,2.0000,0.0000,1.44680,0.20703,-2.78400,1.00613,1.57079,0.00002,-0.14512,-0.38002,0.03979,,,,,,,,,,,,,,,,,,,,,,,,,,0,0,0,0,0
2.6382,1783191134.2730,1,1,2.0000,0.0000,1.44680,0.20683,-2.78405,1.00638,1.57079,0.00002,-0.14512,-0.38002,0.03974,,,,,,,,,,,,,,,,,,,,,,,,,,0,0,0,0,0
2.6446,1783191134.2793,1,1,2.0000,0.0000,1.44680,0.20678,-2.78407,1.00645,1.57079,0.00002,-0.14512,-0.38002,0.03972,,,,,,,,,,,,,,,,,,,,,,,,,,0,0,0,0,0
2.6449,1783191134.2797,1,1,2.0000,0.0000,1.44680,0.20678,-2.78407,1.00645,1.57079,0.00002,-0.14512,-0.38002,0.03972,,,,,,,,,,,,,,,,,,,,,,,,,,0,0,0,0,0
2.6560,1783191134.2908,1,1,2.0000,0.0000,1.44680,0.20649,-2.78413,1.00681,1.57079,0.00002,-0.14512,-0.38002,0.03965,,,,,,,,,,,,,,,,,,,,,,,,,,0,0,0,0,0
2.6685,1783191134.3032,1,1,2.0000,0.0000,1.44680,0.20630,-2.78418,1.00704,1.57079,0.00002,-0.14512,-0.38002,0.03960,,,,,,,,,,,,,,,,,,,,,,,,,,0,0,0,0,0
2.6774,1783191134.3122,1,1,2.0000,0.0000,1.44680,0.20624,-2.78419,1.00712,1.57079,0.00002,-0.14512,-0.38002,0.03959,,,,,,,,,,,,,,,,,,,,,,,,,,0,0,0,0,0
2.6875,1783191134.3223,1,1,2.0000,0.0000,1.44680,0.20599,-2.78425,1.00742,1.57079,0.00002,-0.14512,-0.38002,0.03953,,,,,,,,,,,,,,,,,,,,,,,,,,0,0,0,0,0
2.6958,1783191134.3306,1,1,2.0000,0.0000,1.44680,0.20591,-2.78427,1.00753,1.57079,0.00002,-0.14512,-0.38002,0.03951,,,,,,,,,,,,,,,,,,,,,,,,,,0,0,0,0,0
2.6961,1783191134.3309,1,1,2.0000,0.0000,1.44680,0.20591,-2.78427,1.00753,1.57079,0.00002,-0.14512,-0.38002,0.03951,,,,,,,,,,,,,,,,,,,,,,,,,,0,0,0,0,0
2.7062,1783191134.3410,1,1,2.0000,0.0000,1.44680,0.20574,-2.78431,1.00773,1.57079,0.00002,-0.14512,-0.38002,0.03946,,,,,,,,,,,,,,,,,,,,,,,,,,0,0,0,0,0
2.7191,1783191134.3539,1,1,2.0000,0.0000,1.44680,0.20544,-2.78438,1.00811,1.57079,0.00002,-0.14512,-0.38002,0.03939,,,,,,,,,,,,,,,,,,,,,,,,,,0,0,0,0,0
2.7257,1783191134.3604,1,1,2.0000,0.0000,1.44680,0.20535,-2.78441,1.00822,1.57079,0.00002,-0.14512,-0.38002,0.03937,,,,,,,,,,,,,,,,,,,,,,,,,,0,0,0,0,0
2.7263,1783191134.3611,1,1,2.0000,0.0000,1.44680,0.20535,-2.78441,1.00822,1.57079,0.00002,-0.14512,-0.38002,0.03937,,,,,,,,,,,,,,,,,,,,,,,,,,0,0,0,0,0
2.7417,1783191134.3765,1,1,2.0000,0.0000,1.44680,0.20522,-2.78444,1.00838,1.57079,0.00002,-0.14512,-0.38002,0.03933,,,,,,,,,,,,,,,,,,,,,,,,,,0,0,0,0,0
2.7464,1783191134.3812,1,1,2.0000,0.0000,1.44680,0.20504,-2.78448,1.00860,1.57079,0.00002,-0.14512,-0.38002,0.03929,,,,,,,,,,,,,,,,,,,,,,,,,,0,0,0,0,0
2.7467,1783191134.3815,1,1,2.0000,0.0000,1.44680,0.20504,-2.78448,1.00860,1.57079,0.00002,-0.14512,-0.38002,0.03929,,,,,,,,,,,,,,,,,,,,,,,,,,0,0,0,0,0
2.7559,1783191134.3907,1,1,2.0000,0.0000,1.44680,0.20495,-2.78450,1.00871,1.57079,0.00002,-0.14512,-0.38002,0.03927,,,,,,,,,,,,,,,,,,,,,,,,,,0,0,0,0,0
2.7648,1783191134.3996,1,1,2.0000,0.0000,1.44680,0.20488,-2.78452,1.00881,1.57079,0.00002,-0.14512,-0.38002,0.03925,,,,,,,,,,,,,,,,,,,,,,,,,,0,0,0,0,0
2.7797,1783191134.4145,1,1,2.0000,0.0000,1.44680,0.20449,-2.78461,1.00929,1.57079,0.00002,-0.14512,-0.38002,0.03915,,,,,,,,,,,,,,,,,,,,,,,,,,0,0,0,0,0
2.7800,1783191134.4147,1,1,2.0000,0.0000,1.44680,0.20449,-2.78461,1.00929,1.57079,0.00002,-0.14512,-0.38002,0.03915,,,,,,,,,,,,,,,,,,,,,,,,,,0,0,0,0,0
2.7897,1783191134.4245,1,1,2.0000,0.0000,1.44680,0.20440,-2.78463,1.00940,1.57079,0.00002,-0.14512,-0.38002,0.03913,,,,,,,,,,,,,,,,,,,,,,,,,,0,0,0,0,0
2.8023,1783191134.4371,1,1,2.0000,0.0000,1.44680,0.20418,-2.78468,1.00967,1.57079,0.00002,-0.14512,-0.38001,0.03907,,,,,,,,,,,,,,,,,,,,,,,,,,0,0,0,0,0
2.8095,1783191134.4443,1,1,2.0000,0.0000,1.44680,0.20409,-2.78470,1.00978,1.57079,0.00002,-0.14512,-0.38001,0.03905,,,,,,,,,,,,,,,,,,,,,,,,,,0,0,0,0,0
2.8261,1783191134.4609,1,1,2.0000,0.0000,1.44680,0.20392,-2.78474,1.00998,1.57079,0.00002,-0.14512,-0.38001,0.03901,,,,,,,,,,,,,,,,,,,,,,,,,,0,0,0,0,0
2.8294,1783191134.4642,1,1,2.0000,0.0000,1.44680,0.20384,-2.78476,1.01009,1.57079,0.00002,-0.14512,-0.38001,0.03899,,,,,,,,,,,,,,,,,,,,,,,,,,0,0,0,0,0
2.8452,1783191134.4799,1,1,2.0000,0.0000,1.44680,0.20345,-2.78486,1.01057,1.57079,0.00002,-0.14512,-0.38001,0.03889,,,,,,,,,,,,,,,,,,,,,,,,,,0,0,0,0,0
2.8495,1783191134.4843,1,1,2.0000,0.0000,1.44680,0.20345,-2.78486,1.01057,1.57079,0.00002,-0.14512,-0.38001,0.03889,,,,,,,,,,,,,,,,,,,,,,,,,,0,0,0,0,0
2.8590,1783191134.4938,1,1,2.0000,0.0000,1.44680,0.20331,-2.78489,1.01074,1.57079,0.00002,-0.14512,-0.38001,0.03885,,,,,,,,,,,,,,,,,,,,,,,,,,0,0,0,0,0
2.8593,1783191134.4941,1,1,2.0000,0.0000,1.44680,0.20331,-2.78489,1.01074,1.57079,0.00002,-0.14512,-0.38001,0.03885,,,,,,,,,,,,,,,,,,,,,,,,,,0,0,0,0,0
2.8748,1783191134.5096,1,1,2.0000,0.0000,1.44680,0.20305,-2.78495,1.01107,1.57079,0.00002,-0.14512,-0.38001,0.03879,,,,,,,,,,,,,,,,,,,,,,,,,,0,0,0,0,0
2.8751,1783191134.5098,1,1,2.0000,0.0000,1.44680,0.20305,-2.78495,1.01107,1.57079,0.00002,-0.14512,-0.38001,0.03879,,,,,,,,,,,,,,,,,,,,,,,,,,0,0,0,0,0
2.8826,1783191134.5174,1,1,2.0000,0.0000,1.44680,0.20297,-2.78497,1.01116,1.57079,0.00002,-0.14512,-0.38001,0.03877,,,,,,,,,,,,,,,,,,,,,,,,,,0,0,0,0,0
2.8897,1783191134.5245,1,1,2.0000,0.0000,1.44680,0.20289,-2.78499,1.01127,1.57079,0.00002,-0.14512,-0.38001,0.03875,,,,,,,,,,,,,,,,,,,,,,,,,,0,0,0,0,0
2.8906,1783191134.5254,1,1,2.0000,0.0000,1.44680,0.20279,-2.78501,1.01139,1.57079,0.00002,-0.14512,-0.38001,0.03872,,,,,,,,,,,,,,,,,,,,,,,,,,0,0,0,0,0
2.9006,1783191134.5354,1,1,2.0000,0.0000,1.44680,0.20258,-2.78506,1.01165,1.57079,0.00002,-0.14512,-0.38001,0.03867,,,,,,,,,,,,,,,,,,,,,,,,,,0,0,0,0,0
2.9126,1783191134.5474,1,1,2.0000,0.0000,1.44680,0.20247,-2.78509,1.01178,1.57079,0.00002,-0.14512,-0.38001,0.03864,,,,,,,,,,,,,,,,,,,,,,,,,,0,0,0,0,0
2.9226,1783191134.5574,1,1,2.0000,0.0000,1.44680,0.20227,-2.78513,1.01202,1.57079,0.00002,-0.14512,-0.38001,0.03859,,,,,,,,,,,,,,,,,,,,,,,,,,0,0,0,0,0
2.9325,1783191134.5673,1,1,2.0000,0.0000,1.44680,0.20209,-2.78518,1.01225,1.57079,0.00002,-0.14512,-0.38001,0.03855,,,,,,,,,,,,,,,,,,,,,,,,,,0,0,0,0,0
2.9445,1783191134.5793,1,1,2.0000,0.0000,1.44680,0.20201,-2.78520,1.01234,1.57079,0.00002,-0.14512,-0.38001,0.03853,,,,,,,,,,,,,,,,,,,,,,,,,,0,0,0,0,0
2.9490,1783191134.5838,1,1,2.0000,0.0000,1.44680,0.20193,-2.78522,1.01245,1.57079,0.00002,-0.14512,-0.38001,0.03851,,,,,,,,,,,,,,,,,,,,,,,,,,0,0,0,0,0
2.9610,1783191134.5958,1,1,2.0000,0.0000,1.44680,0.20162,-2.78529,1.01283,1.57079,0.00002,-0.14512,-0.38001,0.03843,,,,,,,,,,,,,,,,,,,,,,,,,,0,0,0,0,0
2.9709,1783191134.6057,1,1,2.0000,0.0000,1.44680,0.20152,-2.78531,1.01296,1.57079,0.00003,-0.14512,-0.38001,0.03841,,,,,,,,,,,,,,,,,,,,,,,,,,0,0,0,0,0
2.9800,1783191134.6147,1,1,2.0000,0.0000,1.44680,0.20140,-2.78534,1.01310,1.57079,0.00003,-0.14512,-0.38001,0.03838,,,,,,,,,,,,,,,,,,,,,,,,,,0,0,0,0,0
2.9802,1783191134.6150,1,1,2.0000,0.0000,1.44680,0.20140,-2.78534,1.01310,1.57079,0.00003,-0.14512,-0.38001,0.03838,,,,,,,,,,,,,,,,,,,,,,,,,,0,0,0,0,0
2.9909,1783191134.6257,1,1,2.0000,0.0000,1.44680,0.20114,-2.78540,1.01343,1.57079,0.00003,-0.14512,-0.38001,0.03831,,,,,,,,,,,,,,,,,,,,,,,,,,0,0,0,0,0
2.9912,1783191134.6260,1,1,2.0000,0.0000,1.44680,0.20114,-2.78540,1.01343,1.57079,0.00003,-0.14512,-0.38001,0.03831,,,,,,,,,,,,,,,,,,,,,,,,,,0,0,0,0,0
3.0031,1783191134.6379,1,1,2.0000,0.0000,1.44680,0.20106,-2.78542,1.01352,1.57079,0.00003,-0.14512,-0.38001,0.03829,,,,,,,,,,,,,,,,,,,,,,,,,,0,0,0,0,0
3.0034,1783191134.6382,1,1,2.0000,0.0000,1.44680,0.20106,-2.78542,1.01352,1.57079,0.00003,-0.14512,-0.38001,0.03829,,,,,,,,,,,,,,,,,,,,,,,,,,0,0,0,0,0
3.0094,1783191134.6442,1,1,2.0000,0.0000,1.44680,0.20097,-2.78544,1.01363,1.57079,0.00003,-0.14512,-0.38001,0.03827,,,,,,,,,,,,,,,,,,,,,,,,,,0,0,0,0,0
3.0099,1783191134.6447,1,1,2.0000,0.0000,1.44680,0.20097,-2.78544,1.01363,1.57079,0.00003,-0.14512,-0.38001,0.03827,,,,,,,,,,,,,,,,,,,,,,,,,,0,0,0,0,0
3.0190,1783191134.6537,1,1,2.0000,0.0000,1.44680,0.20067,-2.78551,1.01401,1.57079,0.00003,-0.14512,-0.38001,0.03819,,,,,,,,,,,,,,,,,,,,,,,,,,0,0,0,0,0
3.0194,1783191134.6542,1,1,2.0000,0.0000,1.44680,0.20067,-2.78551,1.01401,1.57079,0.00003,-0.14512,-0.38001,0.03819,,,,,,,,,,,,,,,,,,,,,,,,,,0,0,0,0,0
3.0337,1783191134.6685,1,1,2.0000,0.0000,1.44680,0.20056,-2.78554,1.01414,1.57079,0.00003,-0.14512,-0.38001,0.03817,,,,,,,,,,,,,,,,,,,,,,,,,,0,0,0,0,0
3.0341,1783191134.6688,1,1,2.0000,0.0000,1.44680,0.20056,-2.78554,1.01414,1.57079,0.00003,-0.14512,-0.38001,0.03817,,,,,,,,,,,,,,,,,,,,,,,,,,0,0,0,0,0
3.0487,1783191134.6835,1,1,2.0000,0.0000,1.44680,0.20027,-2.78561,1.01450,1.57079,0.00003,-0.14512,-0.38001,0.03809,,,,,,,,,,,,,,,,,,,,,,,,,,0,0,0,0,0
3.0492,1783191134.6839,1,1,2.0000,0.0000,1.44680,0.20027,-2.78561,1.01450,1.57079,0.00003,-0.14512,-0.38001,0.03809,,,,,,,,,,,,,,,,,,,,,,,,,,0,0,0,0,0
3.0494,1783191134.6842,1,1,2.0000,0.0000,1.44680,0.20027,-2.78561,1.01450,1.57079,0.00003,-0.14512,-0.38001,0.03809,,,,,,,,,,,,,,,,,,,,,,,,,,0,0,0,0,0
3.0621,1783191134.6969,1,1,2.0000,0.0000,1.44680,0.20016,-2.78563,1.01464,1.57079,0.00003,-0.14512,-0.38001,0.03807,,,,,,,,,,,,,,,,,,,,,,,,,,0,0,0,0,0
3.0732,1783191134.7080,1,1,2.0000,0.0000,1.44680,0.19992,-2.78569,1.01493,1.57079,0.00003,-0.14512,-0.38001,0.03801,,,,,,,,,,,,,,,,,,,,,,,,,,0,0,0,0,0
3.0799,1783191134.7147,1,1,2.0000,0.0000,1.44680,0.19971,-2.78574,1.01519,1.57079,0.00003,-0.14512,-0.38001,0.03795,,,,,,,,,,,,,,,,,,,,,,,,,,0,0,0,0,0
3.0804,1783191134.7151,1,1,2.0000,0.0000,1.44680,0.19971,-2.78574,1.01519,1.57079,0.00003,-0.14512,-0.38001,0.03795,,,,,,,,,,,,,,,,,,,,,,,,,,0,0,0,0,0
3.0996,1783191134.7344,1,1,2.0000,0.0000,1.44680,0.19949,-2.78579,1.01546,1.57079,0.00003,-0.14512,-0.38001,0.03790,,,,,,,,,,,,,,,,,,,,,,,,,,0,0,0,0,0
3.1009,1783191134.7357,1,1,2.0000,0.0000,1.44680,0.19949,-2.78579,1.01546,1.57079,0.00003,-0.14512,-0.38001,0.03790,,,,,,,,,,,,,,,,,,,,,,,,,,0,0,0,0,0
3.1012,1783191134.7360,1,1,2.0000,0.0000,1.44680,0.19949,-2.78579,1.01546,1.57079,0.00003,-0.14512,-0.38001,0.03790,,,,,,,,,,,,,,,,,,,,,,,,,,0,0,0,0,0
3.1108,1783191134.7456,1,1,2.0000,0.0000,1.44680,0.19922,-2.78585,1.01579,1.57079,0.00003,-0.14512,-0.38001,0.03783,,,,,,,,,,,,,,,,,,,,,,,,,,0,0,0,0,0
3.1111,1783191134.7458,1,1,2.0000,0.0000,1.44680,0.19922,-2.78585,1.01579,1.57079,0.00003,-0.14512,-0.38001,0.03783,,,,,,,,,,,,,,,,,,,,,,,,,,0,0,0,0,0
3.1191,1783191134.7538,1,1,2.0000,0.0000,1.44680,0.19920,-2.78586,1.01582,1.57079,0.00003,-0.14512,-0.38001,0.03783,,,,,,,,,,,,,,,,,,,,,,,,,,0,0,0,0,0
3.1195,1783191134.7543,1,1,2.0000,0.0000,1.44680,0.19920,-2.78586,1.01582,1.57079,0.00003,-0.14512,-0.38001,0.03783,,,,,,,,,,,,,,,,,,,,,,,,,,0,0,0,0,0
3.1308,1783191134.7656,1,1,2.0000,0.0000,1.44680,0.19896,-2.78591,1.01612,1.57079,0.00003,-0.14512,-0.38001,0.03777,,,,,,,,,,,,,,,,,,,,,,,,,,0,0,0,0,0
3.1312,1783191134.7660,1,1,2.0000,0.0000,1.44680,0.19896,-2.78591,1.01612,1.57079,0.00003,-0.14512,-0.38001,0.03777,,,,,,,,,,,,,,,,,,,,,,,,,,0,0,0,0,0
3.1395,1783191134.7742,1,1,2.0000,0.0000,1.44680,0.19875,-2.78596,1.01637,1.57079,0.00003,-0.14512,-0.38001,0.03771,,,,,,,,,,,,,,,,,,,,,,,,,,0,0,0,0,0
3.1493,1783191134.7841,1,1,2.0000,0.0000,1.44680,0.19866,-2.78598,1.01648,1.57079,0.00003,-0.14512,-0.38001,0.03769,,,,,,,,,,,,,,,,,,,,,,,,,,0,0,0,0,0
3.1590,1783191134.7938,1,1,2.0000,0.0000,1.44680,0.19853,-2.78601,1.01665,1.57079,0.00003,-0.14512,-0.38001,0.03766,,,,,,,,,,,,,,,,,,,,,,,,,,0,0,0,0,0
3.1594,1783191134.7942,1,1,2.0000,0.0000,1.44680,0.19853,-2.78601,1.01665,1.57079,0.00003,-0.14512,-0.38001,0.03766,,,,,,,,,,,,,,,,,,,,,,,,,,0,0,0,0,0
3.1692,1783191134.8040,1,1,2.0000,0.0000,1.44680,0.19835,-2.78605,1.01686,1.57079,0.00003,-0.14512,-0.38001,0.03762,,,,,,,,,,,,,,,,,,,,,,,,,,0,0,0,0,0
3.1811,1783191134.8159,1,1,2.0000,0.0000,1.44680,0.19824,-2.78608,1.01700,1.57079,0.00003,-0.14512,-0.38001,0.03759,,,,,,,,,,,,,,,,,,,,,,,,,,0,0,0,0,0
3.1898,1783191134.8246,1,1,2.0000,0.0000,1.44680,0.19810,-2.78611,1.01718,1.57079,0.00003,-0.14512,-0.38001,0.03755,,,,,,,,,,,,,,,,,,,,,,,,,,0,0,0,0,0
3.2046,1783191134.8394,1,1,2.0000,0.0000,1.44680,0.19770,-2.78620,1.01767,1.57079,0.00003,-0.14512,-0.38001,0.03745,,,,,,,,,,,,,,,,,,,,,,,,,,0,0,0,0,0
3.2110,1783191134.8458,1,1,2.0000,0.0000,1.44680,0.19768,-2.78621,1.01769,1.57079,0.00003,-0.14512,-0.38001,0.03745,,,,,,,,,,,,,,,,,,,,,,,,,,0,0,0,0,0
3.2188,1783191134.8536,1,1,2.0000,0.0000,1.44680,0.19757,-2.78624,1.01783,1.57079,0.00003,-0.14512,-0.38001,0.03742,,,,,,,,,,,,,,,,,,,,,,,,,,0,0,0,0,0
3.2191,1783191134.8539,1,1,2.0000,0.0000,1.44680,0.19757,-2.78624,1.01783,1.57079,0.00003,-0.14512,-0.38001,0.03742,,,,,,,,,,,,,,,,,,,,,,,,,,0,0,0,0,0
3.2322,1783191134.8670,1,1,2.0000,0.0000,1.44680,0.19730,-2.78630,1.01816,1.57079,0.00003,-0.14512,-0.38001,0.03735,,,,,,,,,,,,,,,,,,,,,,,,,,0,0,0,0,0
3.2400,1783191134.8748,1,1,2.0000,0.0000,1.44680,0.19728,-2.78630,1.01819,1.57079,0.00003,-0.14512,-0.38001,0.03735,,,,,,,,,,,,,,,,,,,,,,,,,,0,0,0,0,0
3.2403,1783191134.8751,1,1,2.0000,0.0000,1.44680,0.19728,-2.78630,1.01819,1.57079,0.00003,-0.14512,-0.38001,0.03735,,,,,,,,,,,,,,,,,,,,,,,,,,0,0,0,0,0
3.2533,1783191134.8880,1,1,2.0000,0.0000,1.44680,0.19704,-2.78636,1.01849,1.57079,0.00003,-0.14512,-0.38001,0.03729,,,,,,,,,,,,,,,,,,,,,,,,,,0,0,0,0,0
3.2607,1783191134.8954,1,1,2.0000,0.0000,1.44680,0.19683,-2.78641,1.01874,1.57079,0.00003,-0.14512,-0.38001,0.03724,,,,,,,,,,,,,,,,,,,,,,,,,,0,0,0,0,0
3.2610,1783191134.8958,1,1,2.0000,0.0000,1.44680,0.19683,-2.78641,1.01874,1.57079,0.00003,-0.14512,-0.38001,0.03724,,,,,,,,,,,,,,,,,,,,,,,,,,0,0,0,0,0
3.2693,1783191134.9040,1,1,2.0000,0.0000,1.44680,0.19674,-2.78643,1.01885,1.57079,0.00003,-0.14512,-0.38001,0.03722,,,,,,,,,,,,,,,,,,,,,,,,,,0,0,0,0,0
3.2797,1783191134.9145,1,1,2.0000,0.0000,1.44680,0.19660,-2.78646,1.01902,1.57079,0.00003,-0.14512,-0.38001,0.03718,,,,,,,,,,,,,,,,,,,,,,,,,,0,0,0,0,0
3.3007,1783191134.9354,1,1,2.0000,0.0000,1.44679,0.19632,-2.78653,1.01937,1.57079,0.00003,-0.14512,-0.38001,0.03711,,,,,,,,,,,,,,,,,,,,,,,,,,0,0,0,0,0
3.3030,1783191134.9377,1,1,2.0000,0.0000,1.44679,0.19626,-2.78654,1.01944,1.57079,0.00003,-0.14512,-0.38001,0.03710,,,,,,,,,,,,,,,,,,,,,,,,,,0,0,0,0,0
3.3034,1783191134.9382,1,1,2.0000,0.0000,1.44679,0.19626,-2.78654,1.01944,1.57079,0.00003,-0.14512,-0.38001,0.03710,,,,,,,,,,,,,,,,,,,,,,,,,,0,0,0,0,0
3.3103,1783191134.9450,1,1,2.0000,0.0000,1.44679,0.19617,-2.78656,1.01955,1.57079,0.00003,-0.14512,-0.38001,0.03707,,,,,,,,,,,,,,,,,,,,,,,,,,0,0,0,0,0
3.3108,1783191134.9456,1,1,2.0000,0.0000,1.44679,0.19607,-2.78658,1.01967,1.57079,0.00003,-0.14512,-0.38001,0.03705,,,,,,,,,,,,,,,,,,,,,,,,,,0,0,0,0,0
3.3233,1783191134.9581,1,1,2.0000,0.0000,1.44679,0.19578,-2.78665,1.02004,1.57079,0.00003,-0.14511,-0.38001,0.03698,,,,,,,,,,,,,,,,,,,,,,,,,,0,0,0,0,0
3.3339,1783191134.9687,1,1,2.0000,0.0000,1.44679,0.19576,-2.78666,1.02006,1.57079,0.00003,-0.14511,-0.38001,0.03697,,,,,,,,,,,,,,,,,,,,,,,,,,0,0,0,0,0
3.3399,1783191134.9746,1,1,2.0000,0.0000,1.44679,0.19564,-2.78668,1.02020,1.57079,0.00003,-0.14511,-0.38001,0.03694,,,,,,,,,,,,,,,,,,,,,,,,,,0,0,0,0,0
3.3544,1783191134.9892,1,1,2.0000,0.0000,1.44679,0.19537,-2.78674,1.02053,1.57079,0.00003,-0.14511,-0.38001,0.03688,,,,,,,,,,,,,,,,,,,,,,,,,,0,0,0,0,0
3.3594,1783191134.9941,1,1,2.0000,0.0000,1.44679,0.19535,-2.78675,1.02056,1.57079,0.00003,-0.14511,-0.38001,0.03687,,,,,,,,,,,,,,,,,,,,,,,,,,0,0,0,0,0
3.3597,1783191134.9945,1,1,2.0000,0.0000,1.44679,0.19535,-2.78675,1.02056,1.57079,0.00003,-0.14511,-0.38001,0.03687,,,,,,,,,,,,,,,,,,,,,,,,,,0,0,0,0,0
3.3694,1783191135.0042,1,1,2.0000,0.0000,1.44679,0.19521,-2.78678,1.02073,1.57079,0.00003,-0.14511,-0.38001,0.03684,,,,,,,,,,,,,,,,,,,,,,,,,,0,0,0,0,0
3.3826,1783191135.0173,1,1,2.0000,0.0000,1.44679,0.19490,-2.78685,1.02112,1.57079,0.00003,-0.14511,-0.38001,0.03676,,,,,,,,,,,,,,,,,,,,,,,,,,0,0,0,0,0
3.3948,1783191135.0295,1,1,2.0000,0.0000,1.44679,0.19475,-2.78689,1.02130,1.57079,0.00003,-0.14511,-0.38001,0.03672,,,,,,,,,,,,,,,,,,,,,,,,,,0,0,0,0,0
3.4016,1783191135.0364,1,1,2.0000,0.0000,1.44679,0.19468,-2.78691,1.02139,1.57079,0.00003,-0.14511,-0.38001,0.03670,,,,,,,,,,,,,,,,,,,,,,,,,,0,0,0,0,0
3.4236,1783191135.0584,1,1,2.0000,0.0000,1.44679,0.19433,-2.78698,1.02182,1.57079,0.00003,-0.14511,-0.38001,0.03662,,,,,,,,,,,,,,,,,,,,,,,,,,0,0,0,0,0
3.4242,1783191135.0589,1,1,2.0000,0.0000,1.44679,0.19433,-2.78698,1.02182,1.57079,0.00003,-0.14511,-0.38001,0.03662,,,,,,,,,,,,,,,,,,,,,,,,,,0,0,0,0,0
3.4246,1783191135.0594,1,1,2.0000,0.0000,1.44679,0.19433,-2.78698,1.02182,1.57079,0.00003,-0.14511,-0.38001,0.03662,,,,,,,,,,,,,,,,,,,,,,,,,,0,0,0,0,0
3.4362,1783191135.0710,1,1,2.0000,0.0000,1.44679,0.19404,-2.78705,1.02218,1.57079,0.00003,-0.14511,-0.38001,0.03655,,,,,,,,,,,,,,,,,,,,,,,,,,0,0,0,0,0
3.4434,1783191135.0782,1,1,2.0000,0.0000,1.44679,0.19385,-2.78710,1.02241,1.57079,0.00003,-0.14511,-0.38001,0.03650,,,,,,,,,,,,,,,,,,,,,,,,,,0,0,0,0,0
3.4523,1783191135.0870,1,1,2.0000,0.0000,1.44679,0.19383,-2.78710,1.02243,1.57079,0.00003,-0.14511,-0.38001,0.03649,,,,,,,,,,,,,,,,,,,,,,,,,,0,0,0,0,0
3.4630,1783191135.0978,1,1,2.0000,0.0000,1.44679,0.19362,-2.78715,1.02268,1.57079,0.00003,-0.14511,-0.38001,0.03644,,,,,,,,,,,,,,,,,,,,,,,,,,0,0,0,0,0
3.4722,1783191135.1070,1,1,2.0000,0.0000,1.44679,0.19344,-2.78719,1.02291,1.57079,0.00003,-0.14511,-0.38001,0.03640,,,,,,,,,,,,,,,,,,,,,,,,,,0,0,0,0,0
3.4822,1783191135.1169,1,1,2.0000,0.0000,1.44679,0.19336,-2.78721,1.02301,1.57079,0.00003,-0.14511,-0.38001,0.03638,,,,,,,,,,,,,,,,,,,,,,,,,,0,0,0,0,0
3.4966,1783191135.1314,1,1,2.0000,0.0000,1.44679,0.19314,-2.78726,1.02328,1.57079,0.00003,-0.14511,-0.38001,0.03632,,,,,,,,,,,,,,,,,,,,,,,,,,0,0,0,0,0
3.4969,1783191135.1317,1,1,2.0000,0.0000,1.44679,0.19314,-2.78726,1.02328,1.57079,0.00003,-0.14511,-0.38001,0.03632,,,,,,,,,,,,,,,,,,,,,,,,,,0,0,0,0,0
3.5055,1783191135.1403,1,1,2.0000,0.0000,1.44679,0.19296,-2.78730,1.02350,1.57079,0.00003,-0.14511,-0.38001,0.03628,,,,,,,,,,,,,,,,,,,,,,,,,,0,0,0,0,0
3.5151,1783191135.1498,1,1,2.0000,0.0000,1.44679,0.19288,-2.78732,1.02360,1.57079,0.00003,-0.14511,-0.38001,0.03626,,,,,,,,,,,,,,,,,,,,,,,,,,0,0,0,0,0
3.5155,1783191135.1502,1,1,2.0000,0.0000,1.44679,0.19288,-2.78732,1.02360,1.57079,0.00003,-0.14511,-0.38001,0.03626,,,,,,,,,,,,,,,,,,,,,,,,,,0,0,0,0,0
3.5221,1783191135.1568,1,1,2.0000,0.0000,1.44679,0.19279,-2.78734,1.02370,1.57079,0.00003,-0.14511,-0.38001,0.03624,,,,,,,,,,,,,,,,,,,,,,,,,,0,0,0,0,0
3.5224,1783191135.1572,1,1,2.0000,0.0000,1.44679,0.19279,-2.78734,1.02370,1.57079,0.00003,-0.14511,-0.38001,0.03624,,,,,,,,,,,,,,,,,,,,,,,,,,0,0,0,0,0
3.5321,1783191135.1669,1,1,2.0000,0.0000,1.44679,0.19248,-2.78741,1.02409,1.57079,0.00003,-0.14511,-0.38001,0.03616,,,,,,,,,,,,,,,,,,,,,,,,,,0,0,0,0,0
3.5421,1783191135.1769,1,1,2.0000,0.0000,1.44679,0.19239,-2.78743,1.02420,1.57079,0.00003,-0.14511,-0.38001,0.03614,,,,,,,,,,,,,,,,,,,,,,,,,,0,0,0,0,0
3.5590,1783191135.1938,1,1,2.0000,0.0000,1.44679,0.19208,-2.78750,1.02458,1.57079,0.00003,-0.14511,-0.38001,0.03606,,,,,,,,,,,,,,,,,,,,,,,,,,0,0,0,0,0
3.5632,1783191135.1980,1,1,2.0000,0.0000,1.44679,0.19199,-2.78752,1.02469,1.57079,0.00003,-0.14511,-0.38001,0.03604,,,,,,,,,,,,,,,,,,,,,,,,,,0,0,0,0,0
3.5635,1783191135.1983,1,1,2.0000,0.0000,1.44679,0.19199,-2.78752,1.02469,1.57079,0.00003,-0.14511,-0.38001,0.03604,,,,,,,,,,,,,,,,,,,,,,,,,,0,0,0,0,0
3.5759,1783191135.2107,1,1,2.0000,0.0000,1.44679,0.19191,-2.78754,1.02479,1.57079,0.00003,-0.14511,-0.38001,0.03602,,,,,,,,,,,,,,,,,,,,,,,,,,0,0,0,0,0
3.5831,1783191135.2178,1,1,2.0000,0.0000,1.44679,0.19172,-2.78758,1.02502,1.57079,0.00003,-0.14511,-0.38001,0.03597,,,,,,,,,,,,,,,,,,,,,,,,,,0,0,0,0,0
3.5833,1783191135.2181,1,1,2.0000,0.0000,1.44679,0.19172,-2.78758,1.02502,1.57079,0.00003,-0.14511,-0.38001,0.03597,,,,,,,,,,,,,,,,,,,,,,,,,,0,0,0,0,0
3.5961,1783191135.2309,1,1,2.0000,0.0000,1.44679,0.19143,-2.78765,1.02539,1.57079,0.00003,-0.14511,-0.38001,0.03590,,,,,,,,,,,,,,,,,,,,,,,,,,0,0,0,0,0
3.6059,1783191135.2407,1,1,2.0000,0.0000,1.44679,0.19141,-2.78765,1.02541,1.57079,0.00003,-0.14511,-0.38001,0.03590,,,,,,,,,,,,,,,,,,,,,,,,,,0,0,0,0,0
3.6129,1783191135.2477,1,1,2.0000,0.0000,1.44679,0.19129,-2.78768,1.02555,1.57079,0.00003,-0.14511,-0.38001,0.03587,,,,,,,,,,,,,,,,,,,,,,,,,,0,0,0,0,0
3.6222,1783191135.2570,1,1,2.0000,0.0000,1.44679,0.19111,-2.78772,1.02577,1.57079,0.00003,-0.14511,-0.38001,0.03582,,,,,,,,,,,,,,,,,,,,,,,,,,0,0,0,0,0
3.6337,1783191135.2685,1,1,2.0000,0.0000,1.44679,0.19100,-2.78775,1.02591,1.57079,0.00003,-0.14511,-0.38001,0.03580,,,,,,,,,,,,,,,,,,,,,,,,,,0,0,0,0,0
3.6470,1783191135.2818,1,1,2.0000,0.0000,1.44679,0.19065,-2.78783,1.02634,1.57079,0.00003,-0.14511,-0.38001,0.03571,,,,,,,,,,,,,,,,,,,,,,,,,,0,0,0,0,0
3.6571,1783191135.2919,1,1,2.0000,0.0000,1.44679,0.19046,-2.78787,1.02658,1.57079,0.00003,-0.14511,-0.38001,0.03566,,,,,,,,,,,,,,,,,,,,,,,,,,0,0,0,0,0
3.6619,1783191135.2967,1,1,2.0000,0.0000,1.44679,0.19046,-2.78787,1.02658,1.57079,0.00003,-0.14511,-0.38001,0.03566,,,,,,,,,,,,,,,,,,,,,,,,,,0,0,0,0,0
3.6624,1783191135.2972,1,1,2.0000,0.0000,1.44679,0.19046,-2.78787,1.02658,1.57079,0.00003,-0.14511,-0.38001,0.03566,,,,,,,,,,,,,,,,,,,,,,,,,,0,0,0,0,0
3.6721,1783191135.3069,1,1,2.0000,0.0000,1.44679,0.19032,-2.78790,1.02675,1.57079,0.00003,-0.14511,-0.38001,0.03563,,,,,,,,,,,,,,,,,,,,,,,,,,0,0,0,0,0
3.6829,1783191135.3177,1,1,2.0000,0.0000,1.44679,0.19005,-2.78796,1.02707,1.57079,0.00003,-0.14511,-0.38001,0.03556,,,,,,,,,,,,,,,,,,,,,,,,,,0,0,0,0,0
3.6939,1783191135.3287,1,1,2.0000,0.0000,1.44679,0.19003,-2.78797,1.02710,1.57079,0.00003,-0.14511,-0.38001,0.03556,,,,,,,,,,,,,,,,,,,,,,,,,,0,0,0,0,0
3.7022,1783191135.3369,1,1,2.0000,0.0000,1.44679,0.18988,-2.78800,1.02728,1.57079,0.00003,-0.14511,-0.38001,0.03552,,,,,,,,,,,,,,,,,,,,,,,,,,0,0,0,0,0
3.7025,1783191135.3373,1,1,2.0000,0.0000,1.44679,0.18988,-2.78800,1.02728,1.57079,0.00003,-0.14511,-0.38001,0.03552,,,,,,,,,,,,,,,,,,,,,,,,,,0,0,0,0,0
3.7144,1783191135.3491,1,1,2.0000,0.0000,1.44679,0.18957,-2.78807,1.02766,1.57079,0.00003,-0.14511,-0.38001,0.03544,,,,,,,,,,,,,,,,,,,,,,,,,,0,0,0,0,0
3.7261,1783191135.3608,1,1,2.0000,0.0000,1.44679,0.18947,-2.78810,1.02779,1.57079,0.00003,-0.14511,-0.38001,0.03542,,,,,,,,,,,,,,,,,,,,,,,,,,0,0,0,0,0
3.7345,1783191135.3693,1,1,2.0000,0.0000,1.44679,0.18935,-2.78812,1.02794,1.57079,0.00003,-0.14511,-0.38001,0.03539,,,,,,,,,,,,,,,,,,,,,,,,,,0,0,0,0,0
3.7460,1783191135.3808,1,1,2.0000,0.0000,1.44679,0.18908,-2.78818,1.02827,1.57079,0.00003,-0.14511,-0.38001,0.03532,,,,,,,,,,,,,,,,,,,,,,,,,,0,0,0,0,0
3.7594,1783191135.3942,1,1,2.0000,0.0000,1.44679,0.18891,-2.78822,1.02847,1.57079,0.00003,-0.14511,-0.38001,0.03528,,,,,,,,,,,,,,,,,,,,,,,,,,0,0,0,0,0
3.7644,1783191135.3992,1,1,2.0000,0.0000,1.44679,0.18881,-2.78824,1.02859,1.57079,0.00003,-0.14511,-0.38001,0.03526,,,,,,,,,,,,,,,,,,,,,,,,,,0,0,0,0,0
3.7758,1783191135.4106,1,1,2.0000,0.0000,1.44679,0.18851,-2.78831,1.02896,1.57079,0.00003,-0.14511,-0.38001,0.03518,,,,,,,,,,,,,,,,,,,,,,,,,,0,0,0,0,0
3.7833,1783191135.4181,1,1,2.0000,0.0000,1.44679,0.18849,-2.78832,1.02898,1.57079,0.00003,-0.14511,-0.38001,0.03518,,,,,,,,,,,,,,,,,,,,,,,,,,0,0,0,0,0
3.7930,1783191135.4278,1,1,2.0000,0.0000,1.44679,0.18837,-2.78834,1.02913,1.57079,0.00003,-0.14511,-0.38001,0.03515,,,,,,,,,,,,,,,,,,,,,,,,,,0,0,0,0,0
3.8039,1783191135.4387,1,1,2.0000,0.0000,1.44679,0.18810,-2.78840,1.02946,1.57079,0.00004,-0.14511,-0.38001,0.03508,,,,,,,,,,,,,,,,,,,,,,,,,,0,0,0,0,0
3.8146,1783191135.4493,1,1,2.0000,0.0000,1.44679,0.18808,-2.78841,1.02949,1.57079,0.00004,-0.14511,-0.38001,0.03508,,,,,,,,,,,,,,,,,,,,,,,,,,0,0,0,0,0
3.8260,1783191135.4608,1,1,2.0000,0.0000,1.44679,0.18784,-2.78846,1.02979,1.57079,0.00004,-0.14511,-0.38001,0.03502,,,,,,,,,,,,,,,,,,,,,,,,,,0,0,0,0,0
3.8342,1783191135.4689,1,1,2.0000,0.0000,1.44679,0.18763,-2.78851,1.03005,1.57079,0.00004,-0.14511,-0.38001,0.03497,,,,,,,,,,,,,,,,,,,,,,,,,,0,0,0,0,0
3.8475,1783191135.4823,1,1,2.0000,0.0000,1.44679,0.18747,-2.78855,1.03024,1.57079,0.00004,-0.14511,-0.38001,0.03493,,,,,,,,,,,,,,,,,,,,,,,,,,0,0,0,0,0
3.9158,1783191135.5506,1,1,2.0000,0.0000,1.44679,0.18634,-2.78880,1.03162,1.57079,0.00004,-0.14511,-0.38001,0.03465,,,,,,,,,,,,,,,,,,,,,,,,,,0,0,0,0,0
3.9161,1783191135.5509,1,1,2.0000,0.0000,1.44679,0.18634,-2.78880,1.03162,1.57079,0.00004,-0.14511,-0.38001,0.03465,,,,,,,,,,,,,,,,,,,,,,,,,,0,0,0,0,0
3.9164,1783191135.5511,1,1,2.0000,0.0000,1.44679,0.18634,-2.78880,1.03162,1.57079,0.00004,-0.14511,-0.38001,0.03465,,,,,,,,,,,,,,,,,,,,,,,,,,0,0,0,0,0
3.9166,1783191135.5514,1,1,2.0000,0.0000,1.44679,0.18634,-2.78880,1.03162,1.57079,0.00004,-0.14511,-0.38001,0.03465,,,,,,,,,,,,,,,,,,,,,,,,,,0,0,0,0,0
3.9170,1783191135.5518,1,1,2.0000,0.0000,1.44679,0.18634,-2.78880,1.03162,1.57079,0.00004,-0.14511,-0.38001,0.03465,,,,,,,,,,,,,,,,,,,,,,,,,,0,0,0,0,0
3.9173,1783191135.5521,1,1,2.0000,0.0000,1.44679,0.18634,-2.78880,1.03162,1.57079,0.00004,-0.14511,-0.38001,0.03465,,,,,,,,,,,,,,,,,,,,,,,,,,0,0,0,0,0
3.9246,1783191135.5593,1,1,2.0000,0.0000,1.44679,0.18615,-2.78884,1.03185,1.57079,0.00004,-0.14511,-0.38001,0.03461,,,,,,,,,,,,,,,,,,,,,,,,,,0,0,0,0,0
3.9318,1783191135.5666,1,1,2.0000,0.0000,1.44679,0.18613,-2.78885,1.03188,1.57079,0.00004,-0.14511,-0.38001,0.03460,,,,,,,,,,,,,,,,,,,,,,,,,,0,0,0,0,0
3.9321,1783191135.5669,1,1,2.0000,0.0000,1.44679,0.18613,-2.78885,1.03188,1.57079,0.00004,-0.14511,-0.38001,0.03460,,,,,,,,,,,,,,,,,,,,,,,,,,0,0,0,0,0
3.9499,1783191135.5847,1,1,2.0000,0.0000,1.44679,0.18578,-2.78893,1.03231,1.57079,0.00004,-0.14511,-0.38001,0.03451,,,,,,,,,,,,,,,,,,,,,,,,,,0,0,0,0,0
3.9521,1783191135.5869,1,1,2.0000,0.0000,1.44679,0.18567,-2.78895,1.03244,1.57079,0.00004,-0.14511,-0.38001,0.03449,,,,,,,,,,,,,,,,,,,,,,,,,,0,0,0,0,0
3.9524,1783191135.5872,1,1,2.0000,0.0000,1.44679,0.18567,-2.78895,1.03244,1.57079,0.00004,-0.14511,-0.38001,0.03449,,,,,,,,,,,,,,,,,,,,,,,,,,0,0,0,0,0
3.9757,1783191135.6105,1,1,2.0000,0.0000,1.44679,0.18536,-2.78902,1.03282,1.57079,0.00004,-0.14511,-0.38001,0.03441,,,,,,,,,,,,,,,,,,,,,,,,,,0,0,0,0,0
3.9845,1783191135.6193,1,1,2.0000,0.0000,1.44679,0.18518,-2.78906,1.03305,1.57079,0.00004,-0.14511,-0.38001,0.03437,,,,,,,,,,,,,,,,,,,,,,,,,,0,0,0,0,0
3.9920,1783191135.6268,1,1,2.0000,0.0000,1.44679,0.18515,-2.78907,1.03307,1.57079,0.00004,-0.14511,-0.38001,0.03436,,,,,,,,,,,,,,,,,,,,,,,,,,0,0,0,0,0
4.0085,1783191135.6433,1,1,2.0000,0.0000,1.44679,0.18480,-2.78915,1.03351,1.57079,0.00004,-0.14511,-0.38001,0.03428,,,,,,,,,,,,,,,,,,,,,,,,,,0,0,0,0,0
4.0143,1783191135.6491,1,1,2.0000,0.0000,1.44679,0.18470,-2.78917,1.03363,1.57079,0.00004,-0.14511,-0.38001,0.03425,,,,,,,,,,,,,,,,,,,,,,,,,,0,0,0,0,0
4.0150,1783191135.6498,1,1,2.0000,0.0000,1.44679,0.18461,-2.78919,1.03374,1.57079,0.00004,-0.14511,-0.38001,0.03423,,,,,,,,,,,,,,,,,,,,,,,,,,0,0,0,0,0
4.0235,1783191135.6583,1,1,2.0000,0.0000,1.44679,0.18459,-2.78919,1.03377,1.57079,0.00004,-0.14511,-0.38001,0.03422,,,,,,,,,,,,,,,,,,,,,,,,,,0,0,0,0,0
4.0336,1783191135.6684,1,1,2.0000,0.0000,1.44679,0.18447,-2.78922,1.03391,1.57079,0.00004,-0.14511,-0.38001,0.03419,,,,,,,,,,,,,,,,,,,,,,,,,,0,0,0,0,0
4.0425,1783191135.6773,1,1,2.0000,0.0000,1.44679,0.18429,-2.78926,1.03413,1.57079,0.00004,-0.14511,-0.38001,0.03415,,,,,,,,,,,,,,,,,,,,,,,,,,0,0,0,0,0
4.0521,1783191135.6868,1,1,2.0000,0.0000,1.44679,0.18418,-2.78929,1.03427,1.57079,0.00004,-0.14511,-0.38001,0.03412,,,,,,,,,,,,,,,,,,,,,,,,,,0,0,0,0,0
4.0523,1783191135.6871,1,1,2.0000,0.0000,1.44679,0.18418,-2.78929,1.03427,1.57079,0.00004,-0.14511,-0.38001,0.03412,,,,,,,,,,,,,,,,,,,,,,,,,,0,0,0,0,0
4.0670,1783191135.7018,1,1,2.0000,0.0000,1.44679,0.18382,-2.78937,1.03470,1.57079,0.00004,-0.14511,-0.38001,0.03404,,,,,,,,,,,,,,,,,,,,,,,,,,0,0,0,0,0
4.0671,1783191135.7019,1,1,2.0000,0.0000,1.44679,0.18382,-2.78937,1.03470,1.57079,0.00004,-0.14511,-0.38001,0.03404,,,,,,,,,,,,,,,,,,,,,,,,,,0,0,0,0,0
4.0739,1783191135.7087,1,1,2.0000,0.0000,1.44679,0.18372,-2.78939,1.03483,1.57079,0.00004,-0.14511,-0.38001,0.03401,,,,,,,,,,,,,,,,,,,,,,,,,,0,0,0,0,0
4.0822,1783191135.7169,1,1,2.0000,0.0000,1.44679,0.18363,-2.78941,1.03494,1.57079,0.00004,-0.14511,-0.38001,0.03399,,,,,,,,,,,,,,,,,,,,,,,,,,0,0,0,0,0
4.0825,1783191135.7173,1,1,2.0000,0.0000,1.44679,0.18363,-2.78941,1.03494,1.57079,0.00004,-0.14511,-0.38001,0.03399,,,,,,,,,,,,,,,,,,,,,,,,,,0,0,0,0,0
4.0941,1783191135.7289,1,1,2.0000,0.0000,1.44679,0.18349,-2.78944,1.03511,1.57079,0.00004,-0.14511,-0.38001,0.03396,,,,,,,,,,,,,,,,,,,,,,,,,,0,0,0,0,0
4.1024,1783191135.7372,1,1,2.0000,0.0000,1.44679,0.18331,-2.78948,1.03533,1.57079,0.00004,-0.14511,-0.38001,0.03391,,,,,,,,,,,,,,,,,,,,,,,,,,0,0,0,0,0
4.1184,1783191135.7532,1,1,2.0000,0.0000,1.44679,0.18314,-2.78952,1.03554,1.57079,0.00004,-0.14511,-0.38001,0.03387,,,,,,,,,,,,,,,,,,,,,,,,,,0,0,0,0,0
4.1245,1783191135.7593,1,1,2.0000,0.0000,1.44679,0.18295,-2.78956,1.03577,1.57079,0.00004,-0.14511,-0.38001,0.03382,,,,,,,,,,,,,,,,,,,,,,,,,,0,0,0,0,0
4.1339,1783191135.7687,1,1,2.0000,0.0000,1.44679,0.18274,-2.78961,1.03603,1.57079,0.00004,-0.14511,-0.38001,0.03377,,,,,,,,,,,,,,,,,,,,,,,,,,0,0,0,0,0
4.1433,1783191135.7781,1,1,2.0000,0.0000,1.44678,0.18263,-2.78963,1.03616,1.57079,0.00004,-0.14511,-0.38001,0.03375,,,,,,,,,,,,,,,,,,,,,,,,,,0,0,0,0,0
4.1569,1783191135.7917,1,1,2.0000,0.0000,1.44678,0.18242,-2.78968,1.03641,1.57079,0.00004,-0.14511,-0.38001,0.03370,,,,,,,,,,,,,,,,,,,,,,,,,,0,0,0,0,0
4.1892,1783191135.8239,1,1,2.0000,0.0000,1.44678,0.18186,-2.78980,1.03710,1.57079,0.00004,-0.14511,-0.38001,0.03356,,,,,,,,,,,,,,,,,,,,,,,,,,0,0,0,0,0
4.1894,1783191135.8242,1,1,2.0000,0.0000,1.44678,0.18186,-2.78980,1.03710,1.57079,0.00004,-0.14511,-0.38001,0.03356,,,,,,,,,,,,,,,,,,,,,,,,,,0,0,0,0,0
4.1899,1783191135.8247,1,1,2.0000,0.0000,1.44678,0.18186,-2.78980,1.03710,1.57079,0.00004,-0.14511,-0.38001,0.03356,,,,,,,,,,,,,,,,,,,,,,,,,,0,0,0,0,0
4.1952,1783191135.8300,1,1,2.0000,0.0000,1.44678,0.18166,-2.78985,1.03734,1.57079,0.00004,-0.14511,-0.38000,0.03351,,,,,,,,,,,,,,,,,,,,,,,,,,0,0,0,0,0
4.2043,1783191135.8390,1,1,2.0000,0.0000,1.44678,0.18165,-2.78985,1.03736,1.57079,0.00004,-0.14511,-0.38000,0.03351,,,,,,,,,,,,,,,,,,,,,,,,,,0,0,0,0,0
4.2137,1783191135.8484,1,1,2.0000,0.0000,1.44678,0.18153,-2.78988,1.03751,1.57079,0.00004,-0.14511,-0.38000,0.03348,,,,,,,,,,,,,,,,,,,,,,,,,,0,0,0,0,0
4.2379,1783191135.8727,1,1,2.0000,0.0000,1.44678,0.18117,-2.78995,1.03794,1.57079,0.00004,-0.14511,-0.38000,0.03339,,,,,,,,,,,,,,,,,,,,,,,,,,0,0,0,0,0
4.2425,1783191135.8773,1,1,2.0000,0.0000,1.44678,0.18109,-2.78997,1.03804,1.57079,0.00004,-0.14511,-0.38000,0.03337,,,,,,,,,,,,,,,,,,,,,,,,,,0,0,0,0,0
4.2434,1783191135.8782,1,1,2.0000,0.0000,1.44678,0.18098,-2.79000,1.03817,1.57079,0.00004,-0.14511,-0.38000,0.03335,,,,,,,,,,,,,,,,,,,,,,,,,,0,0,0,0,0
4.2555,1783191135.8903,1,1,2.0000,0.0000,1.44678,0.18068,-2.79006,1.03854,1.57079,0.00004,-0.14511,-0.38000,0.03327,,,,,,,,,,,,,,,,,,,,,,,,,,0,0,0,0,0
4.2623,1783191135.8971,1,1,2.0000,0.0000,1.44678,0.18068,-2.79006,1.03854,1.57079,0.00004,-0.14511,-0.38000,0.03327,,,,,,,,,,,,,,,,,,,,,,,,,,0,0,0,0,0
4.2777,1783191135.9124,1,1,2.0000,0.0000,1.44678,0.18046,-2.79011,1.03882,1.57079,0.00004,-0.14511,-0.38000,0.03322,,,,,,,,,,,,,,,,,,,,,,,,,,0,0,0,0,0
4.2821,1783191135.9169,1,1,2.0000,0.0000,1.44678,0.18036,-2.79013,1.03893,1.57079,0.00004,-0.14511,-0.38000,0.03320,,,,,,,,,,,,,,,,,,,,,,,,,,0,0,0,0,0
4.2825,1783191135.9172,1,1,2.0000,0.0000,1.44678,0.18036,-2.79013,1.03893,1.57079,0.00004,-0.14511,-0.38000,0.03320,,,,,,,,,,,,,,,,,,,,,,,,,,0,0,0,0,0
4.2944,1783191135.9291,1,1,2.0000,0.0000,1.44678,0.18019,-2.79017,1.03914,1.57079,0.00004,-0.14511,-0.38000,0.03315,,,,,,,,,,,,,,,,,,,,,,,,,,0,0,0,0,0
4.3040,1783191135.9388,1,1,2.0000,0.0000,1.44678,0.18005,-2.79020,1.03931,1.57079,0.00004,-0.14511,-0.38000,0.03312,,,,,,,,,,,,,,,,,,,,,,,,,,0,0,0,0,0
4.3042,1783191135.9390,1,1,2.0000,0.0000,1.44678,0.18005,-2.79020,1.03931,1.57079,0.00004,-0.14511,-0.38000,0.03312,,,,,,,,,,,,,,,,,,,,,,,,,,0,0,0,0,0
4.3121,1783191135.9468,1,1,2.0000,0.0000,1.44678,0.17987,-2.79024,1.03953,1.57079,0.00004,-0.14511,-0.38000,0.03308,,,,,,,,,,,,,,,,,,,,,,,,,,0,0,0,0,0
4.3234,1783191135.9581,1,1,2.0000,0.0000,1.44678,0.17976,-2.79027,1.03967,1.57079,0.00004,-0.14511,-0.38000,0.03305,,,,,,,,,,,,,,,,,,,,,,,,,,0,0,0,0,0
4.3239,1783191135.9587,1,1,2.0000,0.0000,1.44678,0.17976,-2.79027,1.03967,1.57079,0.00004,-0.14511,-0.38000,0.03305,,,,,,,,,,,,,,,,,,,,,,,,,,0,0,0,0,0
4.3342,1783191135.9690,1,1,2.0000,0.0000,1.44678,0.17961,-2.79030,1.03985,1.57079,0.00004,-0.14511,-0.38000,0.03301,,,,,,,,,,,,,,,,,,,,,,,,,,0,0,0,0,0
4.3443,1783191135.9790,1,1,2.0000,0.0000,1.44678,0.17929,-2.79037,1.04023,1.57079,0.00004,-0.14511,-0.38000,0.03294,,,,,,,,,,,,,,,,,,,,,,,,,,0,0,0,0,0
4.3524,1783191135.9871,1,1,2.0000,0.0000,1.44678,0.17927,-2.79037,1.04026,1.57079,0.00004,-0.14511,-0.38000,0.03293,,,,,,,,,,,,,,,,,,,,,,,,,,0,0,0,0,0
4.3631,1783191135.9979,1,1,2.0000,0.0000,1.44678,0.17902,-2.79043,1.04057,1.57079,0.00004,-0.14511,-0.38000,0.03287,,,,,,,,,,,,,,,,,,,,,,,,,,0,0,0,0,0
4.3800,1783191136.0148,1,1,2.0000,0.0000,1.44678,0.17871,-2.79050,1.04094,1.57079,0.00004,-0.14511,-0.38000,0.03279,,,,,,,,,,,,,,,,,,,,,,,,,,0,0,0,0,0
4.3826,1783191136.0174,1,1,2.0000,0.0000,1.44678,0.17871,-2.79050,1.04094,1.57079,0.00004,-0.14511,-0.38000,0.03279,,,,,,,,,,,,,,,,,,,,,,,,,,0,0,0,0,0
4.3942,1783191136.0290,1,1,2.0000,0.0000,1.44678,0.17857,-2.79053,1.04111,1.57079,0.00004,-0.14511,-0.38000,0.03276,,,,,,,,,,,,,,,,,,,,,,,,,,0,0,0,0,0
4.4135,1783191136.0483,1,1,2.0000,0.0000,1.44678,0.17822,-2.79061,1.04155,1.57079,0.00004,-0.14511,-0.38000,0.03267,,,,,,,,,,,,,,,,,,,,,,,,,,0,0,0,0,0
4.4184,1783191136.0532,1,1,2.0000,0.0000,1.44678,0.17820,-2.79061,1.04157,1.57079,0.00004,-0.14511,-0.38000,0.03267,,,,,,,,,,,,,,,,,,,,,,,,,,0,0,0,0,0
4.4241,1783191136.0589,1,1,2.0000,0.0000,1.44678,0.17808,-2.79064,1.04172,1.57079,0.00004,-0.14511,-0.38000,0.03264,,,,,,,,,,,,,,,,,,,,,,,,,,0,0,0,0,0
4.4326,1783191136.0674,1,1,2.0000,0.0000,1.44678,0.17790,-2.79068,1.04194,1.57079,0.00004,-0.14511,-0.38000,0.03260,,,,,,,,,,,,,,,,,,,,,,,,,,0,0,0,0,0
4.4331,1783191136.0679,1,1,2.0000,0.0000,1.44678,0.17790,-2.79068,1.04194,1.57079,0.00004,-0.14511,-0.38000,0.03260,,,,,,,,,,,,,,,,,,,,,,,,,,0,0,0,0,0
4.4427,1783191136.0774,1,1,2.0000,0.0000,1.44678,0.17781,-2.79070,1.04205,1.57079,0.00004,-0.14511,-0.38000,0.03258,,,,,,,,,,,,,,,,,,,,,,,,,,0,0,0,0,0
4.4521,1783191136.0869,1,1,2.0000,0.0000,1.44678,0.17764,-2.79073,1.04225,1.57079,0.00004,-0.14511,-0.38000,0.03253,,,,,,,,,,,,,,,,,,,,,,,,,,0,0,0,0,0
4.4637,1783191136.0985,1,1,2.0000,0.0000,1.44678,0.17732,-2.79080,1.04264,1.57079,0.00004,-0.14511,-0.38000,0.03246,,,,,,,,,,,,,,,,,,,,,,,,,,0,0,0,0,0
4.4846,1783191136.1194,1,1,2.0000,0.0000,1.44678,0.17709,-2.79085,1.04292,1.57079,0.00004,-0.14511,-0.38000,0.03240,,,,,,,,,,,,,,,,,,,,,,,,,,0,0,0,0,0
4.4850,1783191136.1197,1,1,2.0000,0.0000,1.44678,0.17709,-2.79085,1.04292,1.57079,0.00004,-0.14511,-0.38000,0.03240,,,,,,,,,,,,,,,,,,,,,,,,,,0,0,0,0,0
4.4964,1783191136.1312,1,1,2.0000,0.0000,1.44678,0.17682,-2.79091,1.04325,1.57079,0.00004,-0.14511,-0.38000,0.03234,,,,,,,,,,,,,,,,,,,,,,,,,,0,0,0,0,0
4.5024,1783191136.1372,1,1,2.0000,0.0000,1.44678,0.17682,-2.79091,1.04325,1.57079,0.00004,-0.14511,-0.38000,0.03234,,,,,,,,,,,,,,,,,,,,,,,,,,0,0,0,0,0
4.5129,1783191136.1477,1,1,2.0000,0.0000,1.44678,0.17665,-2.79095,1.04346,1.57079,0.00004,-0.14511,-0.38000,0.03230,,,,,,,,,,,,,,,,,,,,,,,,,,0,0,0,0,0
4.5258,1783191136.1606,1,1,2.0000,0.0000,1.44678,0.17633,-2.79102,1.04384,1.57079,0.00004,-0.14511,-0.38000,0.03222,,,,,,,,,,,,,,,,,,,,,,,,,,0,0,0,0,0
4.5327,1783191136.1675,1,1,2.0000,0.0000,1.44678,0.17624,-2.79104,1.04395,1.57079,0.00004,-0.14511,-0.38000,0.03220,,,,,,,,,,,,,,,,,,,,,,,,,,0,0,0,0,0
4.5423,1783191136.1770,1,1,2.0000,0.0000,1.44678,0.17617,-2.79105,1.04404,1.57079,0.00004,-0.14511,-0.38000,0.03218,,,,,,,,,,,,,,,,,,,,,,,,,,0,0,0,0,0
4.5519,1783191136.1866,1,1,2.0000,0.0000,1.44678,0.17592,-2.79111,1.04434,1.57079,0.00004,-0.14511,-0.38000,0.03212,,,,,,,,,,,,,,,,,,,,,,,,,,0,0,0,0,0
4.5521,1783191136.1869,1,1,2.0000,0.0000,1.44678,0.17592,-2.79111,1.04434,1.57079,0.00004,-0.14511,-0.38000,0.03212,,,,,,,,,,,,,,,,,,,,,,,,,,0,0,0,0,0
4.5671,1783191136.2019,1,1,2.0000,0.0000,1.44678,0.17575,-2.79115,1.04456,1.57079,0.00004,-0.14511,-0.38000,0.03208,,,,,,,,,,,,,,,,,,,,,,,,,,0,0,0,0,0
4.5792,1783191136.2140,1,1,2.0000,0.0000,1.44678,0.17545,-2.79121,1.04492,1.57079,0.00004,-0.14511,-0.38000,0.03201,,,,,,,,,,,,,,,,,,,,,,,,,,0,0,0,0,0
4.5846,1783191136.2194,1,1,2.0000,0.0000,1.44678,0.17534,-2.79123,1.04505,1.57079,0.00004,-0.14511,-0.38000,0.03198,,,,,,,,,,,,,,,,,,,,,,,,,,0,0,0,0,0
4.5921,1783191136.2269,1,1,2.0000,0.0000,1.44678,0.17525,-2.79125,1.04516,1.57079,0.00004,-0.14511,-0.38000,0.03196,,,,,,,,,,,,,,,,,,,,,,,,,,0,0,0,0,0
4.6037,1783191136.2385,1,1,2.0000,0.0000,1.44678,0.17511,-2.79128,1.04533,1.57079,0.00004,-0.14511,-0.38000,0.03192,,,,,,,,,,,,,,,,,,,,,,,,,,0,0,0,0,0
4.6042,1783191136.2390,1,1,2.0000,0.0000,1.44678,0.17511,-2.79128,1.04533,1.57079,0.00004,-0.14511,-0.38000,0.03192,,,,,,,,,,,,,,,,,,,,,,,,,,0,0,0,0,0
4.6143,1783191136.2491,1,1,2.0000,0.0000,1.44678,0.17493,-2.79132,1.04555,1.57079,0.00004,-0.14511,-0.38000,0.03188,,,,,,,,,,,,,,,,,,,,,,,,,,0,0,0,0,0
4.6232,1783191136.2580,1,1,2.0000,0.0000,1.44678,0.17482,-2.79135,1.04569,1.57079,0.00004,-0.14511,-0.38000,0.03185,,,,,,,,,,,,,,,,,,,,,,,,,,0,0,0,0,0
4.6472,1783191136.2820,1,1,2.0000,0.0000,1.44678,0.17426,-2.79147,1.04637,1.57079,0.00004,-0.14511,-0.38000,0.03172,,,,,,,,,,,,,,,,,,,,,,,,,,0,0,0,0,0
4.6475,1783191136.2822,1,1,2.0000,0.0000,1.44678,0.17426,-2.79147,1.04637,1.57079,0.00004,-0.14511,-0.38000,0.03172,,,,,,,,,,,,,,,,,,,,,,,,,,0,0,0,0,0
4.6521,1783191136.2868,1,1,2.0000,0.0000,1.44678,0.17426,-2.79147,1.04637,1.57079,0.00004,-0.14511,-0.38000,0.03172,,,,,,,,,,,,,,,,,,,,,,,,,,0,0,0,0,0
4.6523,1783191136.2871,1,1,2.0000,0.0000,1.44678,0.17426,-2.79147,1.04637,1.57079,0.00004,-0.14511,-0.38000,0.03172,,,,,,,,,,,,,,,,,,,,,,,,,,0,0,0,0,0
4.6665,1783191136.3013,1,1,2.0000,0.0000,1.44678,0.17412,-2.79150,1.04654,1.57079,0.00005,-0.14511,-0.38000,0.03169,,,,,,,,,,,,,,,,,,,,,,,,,,0,0,0,0,0
4.6719,1783191136.3066,1,1,2.0000,0.0000,1.44678,0.17394,-2.79154,1.04676,1.57079,0.00005,-0.14511,-0.38000,0.03164,,,,,,,,,,,,,,,,,,,,,,,,,,0,0,0,0,0
4.6722,1783191136.3070,1,1,2.0000,0.0000,1.44678,0.17394,-2.79154,1.04676,1.57079,0.00005,-0.14511,-0.38000,0.03164,,,,,,,,,,,,,,,,,,,,,,,,,,0,0,0,0,0
4.6852,1783191136.3200,1,1,2.0000,0.0000,1.44678,0.17382,-2.79156,1.04690,1.57079,0.00005,-0.14511,-0.38000,0.03161,,,,,,,,,,,,,,,,,,,,,,,,,,0,0,0,0,0
4.6921,1783191136.3269,1,1,2.0000,0.0000,1.44678,0.17368,-2.79160,1.04707,1.57079,0.00005,-0.14511,-0.38000,0.03158,,,,,,,,,,,,,,,,,,,,,,,,,,0,0,0,0,0
4.7035,1783191136.3382,1,1,2.0000,0.0000,1.44678,0.17336,-2.79166,1.04746,1.57079,0.00005,-0.14511,-0.38000,0.03150,,,,,,,,,,,,,,,,,,,,,,,,,,0,0,0,0,0
4.7038,1783191136.3386,1,1,2.0000,0.0000,1.44678,0.17336,-2.79166,1.04746,1.57079,0.00005,-0.14511,-0.38000,0.03150,,,,,,,,,,,,,,,,,,,,,,,,,,0,0,0,0,0
4.7164,1783191136.3511,1,1,2.0000,0.0000,1.44678,0.17325,-2.79169,1.04760,1.57079,0.00005,-0.14511,-0.38000,0.03148,,,,,,,,,,,,,,,,,,,,,,,,,,0,0,0,0,0
4.7225,1783191136.3573,1,1,2.0000,0.0000,1.44678,0.17320,-2.79170,1.04766,1.57079,0.00005,-0.14511,-0.38000,0.03146,,,,,,,,,,,,,,,,,,,,,,,,,,0,0,0,0,0
4.7338,1783191136.3686,1,1,2.0000,0.0000,1.44678,0.17295,-2.79175,1.04796,1.57079,0.00005,-0.14511,-0.38000,0.03140,,,,,,,,,,,,,,,,,,,,,,,,,,0,0,0,0,0
4.7438,1783191136.3786,1,1,2.0000,0.0000,1.44678,0.17283,-2.79178,1.04810,1.57079,0.00005,-0.14511,-0.38000,0.03138,,,,,,,,,,,,,,,,,,,,,,,,,,0,0,0,0,0
4.7520,1783191136.3868,1,1,2.0000,0.0000,1.44678,0.17268,-2.79181,1.04828,1.57079,0.00005,-0.14511,-0.38000,0.03134,,,,,,,,,,,,,,,,,,,,,,,,,,0,0,0,0,0
4.7657,1783191136.4005,1,1,2.0000,0.0000,1.44678,0.17236,-2.79188,1.04867,1.57079,0.00005,-0.14511,-0.38000,0.03126,,,,,,,,,,,,,,,,,,,,,,,,,,0,0,0,0,0
4.7759,1783191136.4107,1,1,2.0000,0.0000,1.44678,0.17226,-2.79190,1.04880,1.57079,0.00005,-0.14511,-0.38000,0.03124,,,,,,,,,,,,,,,,,,,,,,,,,,0,0,0,0,0
4.7896,1783191136.4244,1,1,2.0000,0.0000,1.44678,0.17205,-2.79195,1.04906,1.57079,0.00005,-0.14511,-0.38000,0.03119,,,,,,,,,,,,,,,,,,,,,,,,,,0,0,0,0,0
4.7901,1783191136.4249,1,1,2.0000,0.0000,1.44678,0.17205,-2.79195,1.04906,1.57079,0.00005,-0.14511,-0.38000,0.03119,,,,,,,,,,,,,,,,,,,,,,,,,,0,0,0,0,0
4.7923,1783191136.4271,1,1,2.0000,0.0000,1.44678,0.17195,-2.79197,1.04917,1.57079,0.00005,-0.14511,-0.38000,0.03116,,,,,,,,,,,,,,,,,,,,,,,,,,0,0,0,0,0
4.7927,1783191136.4275,1,1,2.0000,0.0000,1.44678,0.17195,-2.79197,1.04917,1.57079,0.00005,-0.14511,-0.38000,0.03116,,,,,,,,,,,,,,,,,,,,,,,,,,0,0,0,0,0
4.8077,1783191136.4425,1,1,2.0000,0.0000,1.44678,0.17178,-2.79201,1.04939,1.57079,0.00005,-0.14511,-0.38000,0.03112,,,,,,,,,,,,,,,,,,,,,,,,,,0,0,0,0,0
4.8082,1783191136.4430,1,1,2.0000,0.0000,1.44678,0.17178,-2.79201,1.04939,1.57079,0.00005,-0.14511,-0.38000,0.03112,,,,,,,,,,,,,,,,,,,,,,,,,,0,0,0,0,0
4.8138,1783191136.4485,1,1,2.0000,0.0000,1.44678,0.17169,-2.79202,1.04949,1.57079,0.00005,-0.14511,-0.38000,0.03110,,,,,,,,,,,,,,,,,,,,,,,,,,0,0,0,0,0
4.8221,1783191136.4568,1,1,2.0000,0.0000,1.44678,0.17148,-2.79207,1.04975,1.57079,0.00005,-0.14511,-0.38000,0.03105,,,,,,,,,,,,,,,,,,,,,,,,,,0,0,0,0,0
4.8357,1783191136.4705,1,1,2.0000,0.0000,1.44678,0.17126,-2.79212,1.05001,1.57079,0.00005,-0.14511,-0.38000,0.03100,,,,,,,,,,,,,,,,,,,,,,,,,,0,0,0,0,0
4.8925,1783191136.5273,1,1,2.0000,0.0000,1.44678,0.17028,-2.79233,1.05120,1.57079,0.00005,-0.14511,-0.38000,0.03076,,,,,,,,,,,,,,,,,,,,,,,,,,0,0,0,0,0
4.8929,1783191136.5277,1,1,2.0000,0.0000,1.44678,0.17028,-2.79233,1.05120,1.57079,0.00005,-0.14511,-0.38000,0.03076,,,,,,,,,,,,,,,,,,,,,,,,,,0,0,0,0,0
4.8932,1783191136.5280,1,1,2.0000,0.0000,1.44678,0.17028,-2.79233,1.05120,1.57079,0.00005,-0.14511,-0.38000,0.03076,,,,,,,,,,,,,,,,,,,,,,,,,,0,0,0,0,0
4.9056,1783191136.5404,1,1,2.0000,0.0000,1.44678,0.17014,-2.79236,1.05137,1.57079,0.00005,-0.14511,-0.38000,0.03073,,,,,,,,,,,,,,,,,,,,,,,,,,0,0,0,0,0
4.9132,1783191136.5480,1,1,2.0000,0.0000,1.44678,0.16996,-2.79240,1.05159,1.57079,0.00005,-0.14511,-0.38000,0.03069,,,,,,,,,,,,,,,,,,,,,,,,,,0,0,0,0,0
4.9136,1783191136.5483,1,1,2.0000,0.0000,1.44678,0.16996,-2.79240,1.05159,1.57079,0.00005,-0.14511,-0.38000,0.03069,,,,,,,,,,,,,,,,,,,,,,,,,,0,0,0,0,0
4.9233,1783191136.5581,1,1,2.0000,0.0000,1.44678,0.16984,-2.79242,1.05173,1.57079,0.00005,-0.14511,-0.38000,0.03066,,,,,,,,,,,,,,,,,,,,,,,,,,0,0,0,0,0
4.9397,1783191136.5745,1,1,2.0000,0.0000,1.44678,0.16948,-2.79250,1.05217,1.57079,0.00005,-0.14511,-0.38000,0.03057,,,,,,,,,,,,,,,,,,,,,,,,,,0,0,0,0,0
4.9401,1783191136.5749,1,1,2.0000,0.0000,1.44678,0.16948,-2.79250,1.05217,1.57079,0.00005,-0.14511,-0.38000,0.03057,,,,,,,,,,,,,,,,,,,,,,,,,,0,0,0,0,0
4.9426,1783191136.5774,1,1,2.0000,0.0000,1.44678,0.16948,-2.79250,1.05217,1.57079,0.00005,-0.14511,-0.38000,0.03057,,,,,,,,,,,,,,,,,,,,,,,,,,0,0,0,0,0
4.9429,1783191136.5777,1,1,2.0000,0.0000,1.44678,0.16948,-2.79250,1.05217,1.57079,0.00005,-0.14511,-0.38000,0.03057,,,,,,,,,,,,,,,,,,,,,,,,,,0,0,0,0,0
4.9558,1783191136.5905,1,1,2.0000,0.0000,1.44678,0.16927,-2.79254,1.05243,1.57079,0.00005,-0.14511,-0.38000,0.03052,,,,,,,,,,,,,,,,,,,,,,,,,,0,0,0,0,0
4.9626,1783191136.5974,1,1,2.0000,0.0000,1.44678,0.16922,-2.79255,1.05249,1.57079,0.00005,-0.14511,-0.38000,0.03051,,,,,,,,,,,,,,,,,,,,,,,,,,0,0,0,0,0
4.9756,1783191136.6104,1,1,2.0000,0.0000,1.44678,0.16887,-2.79263,1.05292,1.57079,0.00005,-0.14511,-0.38000,0.03043,,,,,,,,,,,,,,,,,,,,,,,,,,0,0,0,0,0
4.9759,1783191136.6107,1,1,2.0000,0.0000,1.44678,0.16887,-2.79263,1.05292,1.57079,0.00005,-0.14511,-0.38000,0.03043,,,,,,,,,,,,,,,,,,,,,,,,,,0,0,0,0,0
4.9825,1783191136.6173,1,1,2.0000,0.0000,1.44678,0.16887,-2.79263,1.05292,1.57079,0.00005,-0.14511,-0.38000,0.03043,,,,,,,,,,,,,,,,,,,,,,,,,,0,0,0,0,0
4.9925,1783191136.6273,1,1,2.0000,0.0000,1.44678,0.16870,-2.79267,1.05312,1.57079,0.00005,-0.14511,-0.38000,0.03038,,,,,,,,,,,,,,,,,,,,,,,,,,0,0,0,0,0
4.9928,1783191136.6276,1,1,2.0000,0.0000,1.44678,0.16870,-2.79267,1.05312,1.57079,0.00005,-0.14511,-0.38000,0.03038,,,,,,,,,,,,,,,,,,,,,,,,,,0,0,0,0,0
5.0024,1783191136.6372,1,1,2.0000,0.0000,1.44678,0.16848,-2.79271,1.05338,1.57079,0.00005,-0.14511,-0.38000,0.03033,,,,,,,,,,,,,,,,,,,,,,,,,,0,0,0,0,0
5.0027,1783191136.6375,1,1,2.0000,0.0000,1.44678,0.16848,-2.79271,1.05338,1.57079,0.00005,-0.14511,-0.38000,0.03033,,,,,,,,,,,,,,,,,,,,,,,,,,0,0,0,0,0
5.0143,1783191136.6490,1,1,2.0000,0.0000,1.44677,0.16829,-2.79275,1.05362,1.57079,0.00005,-0.14511,-0.38000,0.03029,,,,,,,,,,,,,,,,,,,,,,,,,,0,0,0,0,0
5.0147,1783191136.6495,1,1,2.0000,0.0000,1.44677,0.16829,-2.79275,1.05362,1.57079,0.00005,-0.14511,-0.38000,0.03029,,,,,,,,,,,,,,,,,,,,,,,,,,0,0,0,0,0
5.0265,1783191136.6613,1,1,2.0000,0.0000,1.44677,0.16814,-2.79278,1.05379,1.57079,0.00005,-0.14511,-0.38000,0.03025,,,,,,,,,,,,,,,,,,,,,,,,,,0,0,0,0,0
5.0272,1783191136.6620,1,1,2.0000,0.0000,1.44677,0.16806,-2.79280,1.05390,1.57079,0.00005,-0.14511,-0.38000,0.03023,,,,,,,,,,,,,,,,,,,,,,,,,,0,0,0,0,0
5.0328,1783191136.6676,1,1,2.0000,0.0000,1.44677,0.16796,-2.79282,1.05402,1.57079,0.00005,-0.14511,-0.38000,0.03021,,,,,,,,,,,,,,,,,,,,,,,,,,0,0,0,0,0
5.0331,1783191136.6679,1,1,2.0000,0.0000,1.44677,0.16796,-2.79282,1.05402,1.57079,0.00005,-0.14511,-0.38000,0.03021,,,,,,,,,,,,,,,,,,,,,,,,,,0,0,0,0,0
5.0456,1783191136.6803,1,1,2.0000,0.0000,1.44677,0.16778,-2.79286,1.05423,1.57079,0.00005,-0.14511,-0.38000,0.03017,,,,,,,,,,,,,,,,,,,,,,,,,,0,0,0,0,0
5.0461,1783191136.6808,1,1,2.0000,0.0000,1.44677,0.16778,-2.79286,1.05423,1.57079,0.00005,-0.14511,-0.38000,0.03017,,,,,,,,,,,,,,,,,,,,,,,,,,0,0,0,0,0
5.0552,1783191136.6899,1,1,2.0000,0.0000,1.44677,0.16764,-2.79289,1.05440,1.57079,0.00005,-0.14511,-0.38000,0.03013,,,,,,,,,,,,,,,,,,,,,,,,,,0,0,0,0,0
5.0837,1783191136.7185,1,1,2.0000,0.0000,1.44677,0.16720,-2.79298,1.05494,1.57079,0.00005,-0.14511,-0.38000,0.03003,,,,,,,,,,,,,,,,,,,,,,,,,,0,0,0,0,0
5.0844,1783191136.7192,1,1,2.0000,0.0000,1.44677,0.16720,-2.79298,1.05494,1.57079,0.00005,-0.14511,-0.38000,0.03003,,,,,,,,,,,,,,,,,,,,,,,,,,0,0,0,0,0
5.1000,1783191136.7348,1,1,2.0000,0.0000,1.44677,0.16678,-2.79307,1.05544,1.57079,0.00005,-0.14511,-0.38000,0.02993,,,,,,,,,,,,,,,,,,,,,,,,,,0,0,0,0,0
5.1164,1783191136.7512,1,1,2.0000,0.0000,1.44677,0.16664,-2.79310,1.05561,1.57079,0.00005,-0.14511,-0.38000,0.02989,,,,,,,,,,,,,,,,,,,,,,,,,,0,0,0,0,0
5.1233,1783191136.7581,1,1,2.0000,0.0000,1.44677,0.16646,-2.79314,1.05584,1.57079,0.00005,-0.14511,-0.38000,0.02985,,,,,,,,,,,,,,,,,,,,,,,,,,0,0,0,0,0
5.1274,1783191136.7622,1,1,2.0000,0.0000,1.44677,0.16637,-2.79316,1.05595,1.57079,0.00005,-0.14511,-0.38000,0.02983,,,,,,,,,,,,,,,,,,,,,,,,,,0,0,0,0,0
5.1485,1783191136.7833,1,1,2.0000,0.0000,1.44677,0.16609,-2.79322,1.05628,1.57079,0.00005,-0.14511,-0.38000,0.02976,,,,,,,,,,,,,,,,,,,,,,,,,,0,0,0,0,0
5.1489,1783191136.7837,1,1,2.0000,0.0000,1.44677,0.16609,-2.79322,1.05628,1.57079,0.00005,-0.14511,-0.38000,0.02976,,,,,,,,,,,,,,,,,,,,,,,,,,0,0,0,0,0
5.1493,1783191136.7841,1,1,2.0000,0.0000,1.44677,0.16609,-2.79322,1.05628,1.57079,0.00005,-0.14511,-0.38000,0.02976,,,,,,,,,,,,,,,,,,,,,,,,,,0,0,0,0,0
5.1575,1783191136.7923,1,1,2.0000,0.0000,1.44677,0.16587,-2.79326,1.05655,1.57079,0.00005,-0.14511,-0.38000,0.02971,,,,,,,,,,,,,,,,,,,,,,,,,,0,0,0,0,0
5.1580,1783191136.7927,1,1,2.0000,0.0000,1.44677,0.16587,-2.79326,1.05655,1.57079,0.00005,-0.14511,-0.38000,0.02971,,,,,,,,,,,,,,,,,,,,,,,,,,0,0,0,0,0
5.1704,1783191136.8052,1,1,2.0000,0.0000,1.44677,0.16576,-2.79329,1.05668,1.57079,0.00005,-0.14511,-0.38000,0.02968,,,,,,,,,,,,,,,,,,,,,,,,,,0,0,0,0,0
5.1758,1783191136.8106,1,1,2.0000,0.0000,1.44677,0.16564,-2.79331,1.05683,1.57079,0.00005,-0.14511,-0.38000,0.02965,,,,,,,,,,,,,,,,,,,,,,,,,,0,0,0,0,0
5.1836,1783191136.8184,1,1,2.0000,0.0000,1.44677,0.16546,-2.79335,1.05705,1.57079,0.00005,-0.14511,-0.38000,0.02961,,,,,,,,,,,,,,,,,,,,,,,,,,0,0,0,0,0
5.1841,1783191136.8188,1,1,2.0000,0.0000,1.44677,0.16546,-2.79335,1.05705,1.57079,0.00005,-0.14511,-0.38000,0.02961,,,,,,,,,,,,,,,,,,,,,,,,,,0,0,0,0,0
5.1930,1783191136.8278,1,1,2.0000,0.0000,1.44677,0.16536,-2.79337,1.05716,1.57079,0.00005,-0.14511,-0.38000,0.02959,,,,,,,,,,,,,,,,,,,,,,,,,,0,0,0,0,0
5.2035,1783191136.8382,1,1,2.0000,0.0000,1.44677,0.16519,-2.79341,1.05737,1.57079,0.00005,-0.14511,-0.38000,0.02955,,,,,,,,,,,,,,,,,,,,,,,,,,0,0,0,0,0
5.2142,1783191136.8490,1,1,2.0000,0.0000,1.44677,0.16498,-2.79345,1.05763,1.57079,0.00005,-0.14511,-0.38000,0.02950,,,,,,,,,,,,,,,,,,,,,,,,,,0,0,0,0,0
5.2226,1783191136.8574,1,1,2.0000,0.0000,1.44677,0.16478,-2.79350,1.05787,1.57079,0.00005,-0.14511,-0.38000,0.02945,,,,,,,,,,,,,,,,,,,,,,,,,,0,0,0,0,0
5.2230,1783191136.8577,1,1,2.0000,0.0000,1.44677,0.16478,-2.79350,1.05787,1.57079,0.00005,-0.14511,-0.38000,0.02945,,,,,,,,,,,,,,,,,,,,,,,,,,0,0,0,0,0
5.2331,1783191136.8679,1,1,2.0000,0.0000,1.44677,0.16471,-2.79351,1.05795,1.57079,0.00005,-0.14511,-0.38000,0.02943,,,,,,,,,,,,,,,,,,,,,,,,,,0,0,0,0,0
5.2451,1783191136.8798,1,1,2.0000,0.0000,1.44677,0.16445,-2.79356,1.05827,1.57079,0.00005,-0.14511,-0.38000,0.02937,,,,,,,,,,,,,,,,,,,,,,,,,,0,0,0,0,0
5.2558,1783191136.8906,1,1,2.0000,0.0000,1.44677,0.16434,-2.79359,1.05841,1.57079,0.00005,-0.14511,-0.38000,0.02934,,,,,,,,,,,,,,,,,,,,,,,,,,0,0,0,0,0
5.2651,1783191136.8999,1,1,2.0000,0.0000,1.44677,0.16419,-2.79362,1.05859,1.57079,0.00005,-0.14511,-0.38000,0.02931,,,,,,,,,,,,,,,,,,,,,,,,,,0,0,0,0,0
5.2798,1783191136.9146,1,1,2.0000,0.0000,1.44677,0.16377,-2.79371,1.05909,1.57079,0.00005,-0.14511,-0.38000,0.02921,,,,,,,,,,,,,,,,,,,,,,,,,,0,0,0,0,0
5.2800,1783191136.9148,1,1,2.0000,0.0000,1.44677,0.16377,-2.79371,1.05909,1.57079,0.00005,-0.14511,-0.38000,0.02921,,,,,,,,,,,,,,,,,,,,,,,,,,0,0,0,0,0
5.2855,1783191136.9203,1,1,2.0000,0.0000,1.44677,0.16377,-2.79371,1.05909,1.57079,0.00005,-0.14511,-0.38000,0.02921,,,,,,,,,,,,,,,,,,,,,,,,,,0,0,0,0,0
5.2976,1783191136.9324,1,1,2.0000,0.0000,1.44677,0.16363,-2.79374,1.05926,1.57079,0.00005,-0.14511,-0.38000,0.02918,,,,,,,,,,,,,,,,,,,,,,,,,,0,0,0,0,0
5.3050,1783191136.9398,1,1,2.0000,0.0000,1.44677,0.16345,-2.79378,1.05948,1.57079,0.00005,-0.14511,-0.38000,0.02913,,,,,,,,,,,,,,,,,,,,,,,,,,0,0,0,0,0
5.3052,1783191136.9400,1,1,2.0000,0.0000,1.44677,0.16345,-2.79378,1.05948,1.57079,0.00005,-0.14511,-0.38000,0.02913,,,,,,,,,,,,,,,,,,,,,,,,,,0,0,0,0,0
5.3154,1783191136.9502,1,1,2.0000,0.0000,1.44677,0.16333,-2.79380,1.05962,1.57079,0.00005,-0.14511,-0.38000,0.02911,,,,,,,,,,,,,,,,,,,,,,,,,,0,0,0,0,0
5.3252,1783191136.9600,1,1,2.0000,0.0000,1.44677,0.16318,-2.79383,1.05980,1.57079,0.00005,-0.14511,-0.38000,0.02907,,,,,,,,,,,,,,,,,,,,,,,,,,0,0,0,0,0
