Martins-Lucaas/twinforge/sensors/Data/20260704_145621__samples.csv
t_rel_s,t_unix,cycle,phase,setpoint_n,force_net_n,q1,q2,q3,q4,q5,q6,tcp_x,tcp_y,tcp_z,taxel_0,taxel_1,taxel_2,taxel_3,taxel_4,taxel_5,taxel_6,taxel_7,taxel_8,taxel_9,taxel_10,taxel_11,taxel_12,taxel_13,taxel_14,taxel_15,taxel_16,taxel_17,taxel_18,taxel_19,taxel_20,taxel_21,taxel_22,taxel_23,taxel_24,n_RA,n_SA,cn_mm,cn_ra,cn_sa
0.0015,1783187781.9217,0,-1,1.0000,0.0000,1.44682,0.23328,-2.77748,0.97337,1.57080,-0.00000,-0.14512,-0.38003,0.04653,,,,,,,,,,,,,,,,,,,,,,,,,,0,0,0,0,0
0.0082,1783187781.9285,1,0,1.0000,0.0000,1.44682,0.23328,-2.77748,0.97337,1.57080,-0.00000,-0.14512,-0.38003,0.04653,,,,,,,,,,,,,,,,,,,,,,,,,,0,0,0,0,0
0.0215,1783187781.9418,1,0,1.0000,0.0000,1.44682,0.23328,-2.77748,0.97337,1.57080,-0.00000,-0.14512,-0.38003,0.04653,,,,,,,,,,,,,,,,,,,,,,,,,,0,0,0,0,0
0.0253,1783187781.9456,1,0,1.0000,0.0000,1.44682,0.23328,-2.77748,0.97337,1.57080,-0.00000,-0.14512,-0.38003,0.04653,,,,,,,,,,,,,,,,,,,,,,,,,,0,0,0,0,0
0.0354,1783187781.9557,1,0,1.0000,0.0000,1.44682,0.23328,-2.77748,0.97337,1.57080,-0.00000,-0.14512,-0.38003,0.04653,,,,,,,,,,,,,,,,,,,,,,,,,,0,0,0,0,0
0.0358,1783187781.9561,1,0,1.0000,0.0000,1.44682,0.23328,-2.77748,0.97337,1.57080,-0.00000,-0.14512,-0.38003,0.04653,,,,,,,,,,,,,,,,,,,,,,,,,,0,0,0,0,0
0.0467,1783187781.9670,1,0,1.0000,0.0000,1.44682,0.23328,-2.77748,0.97337,1.57080,-0.00000,-0.14512,-0.38003,0.04653,,,,,,,,,,,,,,,,,,,,,,,,,,0,0,0,0,0
0.0622,1783187781.9825,1,0,1.0000,0.0000,1.44682,0.23328,-2.77748,0.97337,1.57080,-0.00000,-0.14512,-0.38003,0.04653,,,,,,,,,,,,,,,,,,,,,,,,,,0,0,0,0,0
0.0724,1783187781.9927,1,0,1.0000,0.0000,1.44682,0.23328,-2.77748,0.97337,1.57080,-0.00000,-0.14512,-0.38003,0.04653,,,,,,,,,,,,,,,,,,,,,,,,,,0,0,0,0,0
0.0728,1783187781.9931,1,0,1.0000,0.0000,1.44682,0.23328,-2.77748,0.97337,1.57080,-0.00000,-0.14512,-0.38003,0.04653,,,,,,,,,,,,,,,,,,,,,,,,,,0,0,0,0,0
0.0899,1783187782.0102,1,0,1.0000,0.0000,1.44682,0.23328,-2.77748,0.97337,1.57080,-0.00000,-0.14512,-0.38003,0.04653,,,,,,,,,,,,,,,,,,,,,,,,,,0,0,0,0,0
0.0902,1783187782.0105,1,0,1.0000,0.0000,1.44682,0.23328,-2.77748,0.97337,1.57080,-0.00000,-0.14512,-0.38003,0.04653,,,,,,,,,,,,,,,,,,,,,,,,,,0,0,0,0,0
0.1338,1783187782.0541,1,0,1.0000,0.0000,1.44682,0.23328,-2.77748,0.97337,1.57080,0.00000,-0.14512,-0.38003,0.04653,,,,,,,,,,,,,,,,,,,,,,,,,,0,0,0,0,0
0.1343,1783187782.0546,1,0,1.0000,0.0000,1.44682,0.23328,-2.77748,0.97337,1.57080,0.00000,-0.14512,-0.38003,0.04653,,,,,,,,,,,,,,,,,,,,,,,,,,0,0,0,0,0
0.1346,1783187782.0549,1,0,1.0000,0.0000,1.44682,0.23328,-2.77748,0.97337,1.57080,0.00000,-0.14512,-0.38003,0.04653,,,,,,,,,,,,,,,,,,,,,,,,,,0,0,0,0,0
0.1378,1783187782.0581,1,0,1.0000,0.0000,1.44682,0.23328,-2.77748,0.97337,1.57080,0.00000,-0.14512,-0.38003,0.04653,,,,,,,,,,,,,,,,,,,,,,,,,,0,0,0,0,0
0.1382,1783187782.0585,1,0,1.0000,0.0000,1.44682,0.23328,-2.77748,0.97337,1.57080,0.00000,-0.14512,-0.38003,0.04653,,,,,,,,,,,,,,,,,,,,,,,,,,0,0,0,0,0
0.2005,1783187782.1208,1,0,1.0000,0.0000,1.44682,0.23328,-2.77748,0.97337,1.57080,0.00000,-0.14512,-0.38003,0.04653,,,,,,,,,,,,,,,,,,,,,,,,,,0,0,0,0,0
0.2008,1783187782.1211,1,0,1.0000,0.0000,1.44682,0.23328,-2.77748,0.97337,1.57080,0.00000,-0.14512,-0.38003,0.04653,,,,,,,,,,,,,,,,,,,,,,,,,,0,0,0,0,0
0.2011,1783187782.1214,1,0,1.0000,0.0000,1.44682,0.23328,-2.77748,0.97337,1.57080,0.00000,-0.14512,-0.38003,0.04653,,,,,,,,,,,,,,,,,,,,,,,,,,0,0,0,0,0
0.2015,1783187782.1218,1,0,1.0000,0.0000,1.44682,0.23328,-2.77748,0.97337,1.57080,0.00000,-0.14512,-0.38003,0.04653,,,,,,,,,,,,,,,,,,,,,,,,,,0,0,0,0,0
0.2018,1783187782.1221,1,0,1.0000,0.0000,1.44682,0.23328,-2.77748,0.97337,1.57080,0.00000,-0.14512,-0.38003,0.04653,,,,,,,,,,,,,,,,,,,,,,,,,,0,0,0,0,0
0.2021,1783187782.1224,1,0,1.0000,0.0000,1.44682,0.23328,-2.77748,0.97337,1.57080,0.00000,-0.14512,-0.38003,0.04653,,,,,,,,,,,,,,,,,,,,,,,,,,0,0,0,0,0
0.2024,1783187782.1227,1,0,1.0000,0.0000,1.44682,0.23328,-2.77748,0.97337,1.57080,0.00000,-0.14512,-0.38003,0.04653,,,,,,,,,,,,,,,,,,,,,,,,,,0,0,0,0,0
0.2205,1783187782.1408,1,0,1.0000,0.0000,1.44682,0.23328,-2.77748,0.97337,1.57080,0.00000,-0.14512,-0.38003,0.04653,,,,,,,,,,,,,,,,,,,,,,,,,,0,0,0,0,0
0.2207,1783187782.1410,1,0,1.0000,0.0000,1.44682,0.23328,-2.77748,0.97337,1.57080,0.00000,-0.14512,-0.38003,0.04653,,,,,,,,,,,,,,,,,,,,,,,,,,0,0,0,0,0
0.2303,1783187782.1506,1,0,1.0000,0.0000,1.44682,0.23328,-2.77748,0.97337,1.57080,0.00000,-0.14512,-0.38003,0.04653,,,,,,,,,,,,,,,,,,,,,,,,,,0,0,0,0,0
0.2417,1783187782.1620,1,0,1.0000,0.0000,1.44682,0.23328,-2.77748,0.97337,1.57080,0.00000,-0.14512,-0.38003,0.04653,,,,,,,,,,,,,,,,,,,,,,,,,,0,0,0,0,0
0.2509,1783187782.1711,1,0,1.0000,0.0000,1.44682,0.23328,-2.77748,0.97337,1.57080,0.00000,-0.14512,-0.38003,0.04653,,,,,,,,,,,,,,,,,,,,,,,,,,0,0,0,0,0
0.2630,1783187782.1833,1,0,1.0000,0.0000,1.44682,0.23328,-2.77748,0.97337,1.57080,0.00000,-0.14512,-0.38003,0.04653,,,,,,,,,,,,,,,,,,,,,,,,,,0,0,0,0,0
0.2712,1783187782.1915,1,0,1.0000,0.0000,1.44682,0.23328,-2.77748,0.97337,1.57080,0.00000,-0.14512,-0.38003,0.04653,,,,,,,,,,,,,,,,,,,,,,,,,,0,0,0,0,0
0.2813,1783187782.2016,1,0,1.0000,0.0000,1.44682,0.23328,-2.77748,0.97337,1.57080,0.00000,-0.14512,-0.38003,0.04653,,,,,,,,,,,,,,,,,,,,,,,,,,0,0,0,0,0
0.3022,1783187782.2225,1,0,1.0000,0.0000,1.44682,0.23328,-2.77748,0.97337,1.57080,0.00000,-0.14512,-0.38003,0.04653,,,,,,,,,,,,,,,,,,,,,,,,,,0,0,0,0,0
0.3028,1783187782.2231,1,0,1.0000,0.0000,1.44682,0.23328,-2.77748,0.97337,1.57080,0.00000,-0.14512,-0.38003,0.04653,,,,,,,,,,,,,,,,,,,,,,,,,,0,0,0,0,0
0.3031,1783187782.2234,1,0,1.0000,0.0000,1.44682,0.23328,-2.77748,0.97337,1.57080,0.00000,-0.14512,-0.38003,0.04653,,,,,,,,,,,,,,,,,,,,,,,,,,0,0,0,0,0
0.3098,1783187782.2301,1,0,1.0000,0.0000,1.44682,0.23328,-2.77748,0.97337,1.57080,0.00000,-0.14512,-0.38003,0.04653,,,,,,,,,,,,,,,,,,,,,,,,,,0,0,0,0,0
0.3101,1783187782.2304,1,0,1.0000,0.0000,1.44682,0.23328,-2.77748,0.97337,1.57080,0.00000,-0.14512,-0.38003,0.04653,,,,,,,,,,,,,,,,,,,,,,,,,,0,0,0,0,0
0.3192,1783187782.2395,1,0,1.0000,0.0000,1.44682,0.23328,-2.77748,0.97337,1.57080,0.00000,-0.14512,-0.38003,0.04653,,,,,,,,,,,,,,,,,,,,,,,,,,0,0,0,0,0
0.3315,1783187782.2518,1,0,1.0000,0.0000,1.44682,0.23328,-2.77748,0.97337,1.57080,0.00000,-0.14512,-0.38003,0.04653,,,,,,,,,,,,,,,,,,,,,,,,,,0,0,0,0,0
0.3421,1783187782.2624,1,0,1.0000,0.0000,1.44682,0.23328,-2.77748,0.97337,1.57080,0.00000,-0.14512,-0.38003,0.04653,,,,,,,,,,,,,,,,,,,,,,,,,,0,0,0,0,0
0.3571,1783187782.2774,1,0,1.0000,0.0000,1.44682,0.23328,-2.77748,0.97337,1.57080,0.00000,-0.14512,-0.38003,0.04653,,,,,,,,,,,,,,,,,,,,,,,,,,0,0,0,0,0
0.3575,1783187782.2778,1,0,1.0000,0.0000,1.44682,0.23328,-2.77748,0.97337,1.57080,0.00000,-0.14512,-0.38003,0.04653,,,,,,,,,,,,,,,,,,,,,,,,,,0,0,0,0,0
0.3686,1783187782.2889,1,0,1.0000,0.0000,1.44682,0.23328,-2.77748,0.97337,1.57080,0.00000,-0.14512,-0.38003,0.04653,,,,,,,,,,,,,,,,,,,,,,,,,,0,0,0,0,0
0.3691,1783187782.2894,1,0,1.0000,0.0000,1.44682,0.23328,-2.77748,0.97337,1.57080,0.00000,-0.14512,-0.38003,0.04653,,,,,,,,,,,,,,,,,,,,,,,,,,0,0,0,0,0
0.3693,1783187782.2896,1,0,1.0000,0.0000,1.44682,0.23328,-2.77748,0.97337,1.57080,0.00000,-0.14512,-0.38003,0.04653,,,,,,,,,,,,,,,,,,,,,,,,,,0,0,0,0,0
0.3697,1783187782.2900,1,0,1.0000,0.0000,1.44682,0.23328,-2.77748,0.97337,1.57080,0.00000,-0.14512,-0.38003,0.04653,,,,,,,,,,,,,,,,,,,,,,,,,,0,0,0,0,0
0.4406,1783187782.3609,1,0,1.0000,0.0000,1.44682,0.23328,-2.77748,0.97337,1.57080,0.00000,-0.14512,-0.38003,0.04653,,,,,,,,,,,,,,,,,,,,,,,,,,0,0,0,0,0
0.4410,1783187782.3613,1,0,1.0000,0.0000,1.44682,0.23328,-2.77748,0.97337,1.57080,0.00000,-0.14512,-0.38003,0.04653,,,,,,,,,,,,,,,,,,,,,,,,,,0,0,0,0,0
0.4502,1783187782.3705,1,0,1.0000,0.0000,1.44682,0.23328,-2.77748,0.97337,1.57080,0.00000,-0.14512,-0.38003,0.04653,,,,,,,,,,,,,,,,,,,,,,,,,,0,0,0,0,0
0.4506,1783187782.3709,1,0,1.0000,0.0000,1.44682,0.23328,-2.77748,0.97337,1.57080,0.00000,-0.14512,-0.38003,0.04653,,,,,,,,,,,,,,,,,,,,,,,,,,0,0,0,0,0
0.4510,1783187782.3713,1,0,1.0000,0.0000,1.44682,0.23328,-2.77748,0.97337,1.57080,0.00000,-0.14512,-0.38003,0.04653,,,,,,,,,,,,,,,,,,,,,,,,,,0,0,0,0,0
0.4514,1783187782.3717,1,0,1.0000,0.0000,1.44682,0.23328,-2.77748,0.97337,1.57080,0.00000,-0.14512,-0.38003,0.04653,,,,,,,,,,,,,,,,,,,,,,,,,,0,0,0,0,0
0.4523,1783187782.3726,1,0,1.0000,0.0000,1.44682,0.23328,-2.77748,0.97337,1.57080,0.00000,-0.14512,-0.38003,0.04653,,,,,,,,,,,,,,,,,,,,,,,,,,0,0,0,0,0
0.4525,1783187782.3728,1,0,1.0000,0.0000,1.44682,0.23328,-2.77748,0.97337,1.57080,0.00000,-0.14512,-0.38003,0.04653,,,,,,,,,,,,,,,,,,,,,,,,,,0,0,0,0,0
0.4606,1783187782.3809,1,0,1.0000,0.0000,1.44682,0.23328,-2.77748,0.97337,1.57080,0.00000,-0.14512,-0.38003,0.04653,,,,,,,,,,,,,,,,,,,,,,,,,,0,0,0,0,0
0.4608,1783187782.3811,1,0,1.0000,0.0000,1.44682,0.23328,-2.77748,0.97337,1.57080,0.00000,-0.14512,-0.38003,0.04653,,,,,,,,,,,,,,,,,,,,,,,,,,0,0,0,0,0
0.4756,1783187782.3959,1,0,1.0000,0.0000,1.44682,0.23328,-2.77748,0.97337,1.57080,0.00000,-0.14512,-0.38003,0.04653,,,,,,,,,,,,,,,,,,,,,,,,,,0,0,0,0,0
0.4794,1783187782.3997,1,0,1.0000,0.0000,1.44682,0.23328,-2.77748,0.97337,1.57080,0.00000,-0.14512,-0.38003,0.04653,,,,,,,,,,,,,,,,,,,,,,,,,,0,0,0,0,0
0.4889,1783187782.4092,1,0,1.0000,0.0000,1.44682,0.23328,-2.77748,0.97337,1.57080,0.00000,-0.14512,-0.38003,0.04653,,,,,,,,,,,,,,,,,,,,,,,,,,0,0,0,0,0
0.4891,1783187782.4094,1,0,1.0000,0.0000,1.44682,0.23328,-2.77748,0.97337,1.57080,0.00000,-0.14512,-0.38003,0.04653,,,,,,,,,,,,,,,,,,,,,,,,,,0,0,0,0,0
0.4989,1783187782.4192,1,0,1.0000,0.0000,1.44682,0.23328,-2.77748,0.97337,1.57080,0.00000,-0.14512,-0.38003,0.04653,,,,,,,,,,,,,,,,,,,,,,,,,,0,0,0,0,0
0.4993,1783187782.4195,1,0,1.0000,0.0000,1.44682,0.23328,-2.77748,0.97337,1.57080,0.00000,-0.14512,-0.38003,0.04653,,,,,,,,,,,,,,,,,,,,,,,,,,0,0,0,0,0
0.5133,1783187782.4336,1,0,1.0000,0.0000,1.44682,0.23328,-2.77748,0.97337,1.57080,0.00000,-0.14512,-0.38003,0.04653,,,,,,,,,,,,,,,,,,,,,,,,,,0,0,0,0,0
0.5207,1783187782.4410,1,0,1.0000,0.0000,1.44682,0.23328,-2.77748,0.97337,1.57080,0.00000,-0.14512,-0.38003,0.04653,,,,,,,,,,,,,,,,,,,,,,,,,,0,0,0,0,0
0.5335,1783187782.4538,1,0,1.0000,0.0000,1.44682,0.23328,-2.77748,0.97337,1.57080,0.00000,-0.14512,-0.38003,0.04653,,,,,,,,,,,,,,,,,,,,,,,,,,0,0,0,0,0
0.5400,1783187782.4603,1,0,1.0000,0.0000,1.44682,0.23328,-2.77748,0.97337,1.57080,0.00000,-0.14512,-0.38003,0.04653,,,,,,,,,,,,,,,,,,,,,,,,,,0,0,0,0,0
0.5486,1783187782.4689,1,0,1.0000,0.0000,1.44682,0.23328,-2.77748,0.97337,1.57080,0.00000,-0.14512,-0.38003,0.04653,,,,,,,,,,,,,,,,,,,,,,,,,,0,0,0,0,0
0.5490,1783187782.4693,1,0,1.0000,0.0000,1.44682,0.23328,-2.77748,0.97337,1.57080,0.00000,-0.14512,-0.38003,0.04653,,,,,,,,,,,,,,,,,,,,,,,,,,0,0,0,0,0
0.5590,1783187782.4793,1,0,1.0000,0.0000,1.44682,0.23328,-2.77748,0.97337,1.57080,0.00000,-0.14512,-0.38003,0.04653,,,,,,,,,,,,,,,,,,,,,,,,,,0,0,0,0,0
0.5752,1783187782.4955,1,0,1.0000,0.0000,1.44682,0.23328,-2.77748,0.97337,1.57080,0.00000,-0.14512,-0.38003,0.04653,,,,,,,,,,,,,,,,,,,,,,,,,,0,0,0,0,0
0.5794,1783187782.4997,1,0,1.0000,0.0000,1.44682,0.23328,-2.77748,0.97337,1.57080,0.00000,-0.14512,-0.38003,0.04653,,,,,,,,,,,,,,,,,,,,,,,,,,0,0,0,0,0
0.5936,1783187782.5139,1,0,1.0000,0.0000,1.44682,0.23328,-2.77748,0.97337,1.57080,0.00000,-0.14512,-0.38003,0.04653,,,,,,,,,,,,,,,,,,,,,,,,,,0,0,0,0,0
0.6007,1783187782.5210,1,0,1.0000,0.0000,1.44682,0.23328,-2.77748,0.97337,1.57080,0.00000,-0.14512,-0.38003,0.04653,,,,,,,,,,,,,,,,,,,,,,,,,,0,0,0,0,0
0.6102,1783187782.5305,1,0,1.0000,0.0000,1.44682,0.23328,-2.77748,0.97337,1.57080,0.00000,-0.14512,-0.38003,0.04653,,,,,,,,,,,,,,,,,,,,,,,,,,0,0,0,0,0
0.6260,1783187782.5463,1,0,1.0000,0.0000,1.44682,0.23328,-2.77748,0.97337,1.57080,0.00000,-0.14512,-0.38003,0.04653,,,,,,,,,,,,,,,,,,,,,,,,,,0,0,0,0,0
0.6298,1783187782.5501,1,0,1.0000,0.0000,1.44682,0.23328,-2.77748,0.97337,1.57080,0.00000,-0.14512,-0.38003,0.04653,,,,,,,,,,,,,,,,,,,,,,,,,,0,0,0,0,0
0.6390,1783187782.5593,1,0,1.0000,0.0000,1.44682,0.23328,-2.77748,0.97337,1.57080,0.00000,-0.14512,-0.38003,0.04653,,,,,,,,,,,,,,,,,,,,,,,,,,0,0,0,0,0
0.6395,1783187782.5597,1,0,1.0000,0.0000,1.44682,0.23328,-2.77748,0.97337,1.57080,0.00000,-0.14512,-0.38003,0.04653,,,,,,,,,,,,,,,,,,,,,,,,,,0,0,0,0,0
0.6497,1783187782.5700,1,0,1.0000,0.0000,1.44682,0.23328,-2.77748,0.97337,1.57080,0.00000,-0.14512,-0.38003,0.04653,,,,,,,,,,,,,,,,,,,,,,,,,,0,0,0,0,0
0.6709,1783187782.5912,1,0,1.0000,0.0000,1.44682,0.23328,-2.77748,0.97337,1.57080,0.00000,-0.14512,-0.38003,0.04653,,,,,,,,,,,,,,,,,,,,,,,,,,0,0,0,0,0
0.6712,1783187782.5915,1,0,1.0000,0.0000,1.44682,0.23328,-2.77748,0.97337,1.57080,0.00000,-0.14512,-0.38003,0.04653,,,,,,,,,,,,,,,,,,,,,,,,,,0,0,0,0,0
0.7425,1783187782.6628,1,1,1.0000,0.0000,1.44682,0.23328,-2.77748,0.97337,1.57080,0.00000,-0.14512,-0.38003,0.04653,,,,,,,,,,,,,,,,,,,,,,,,,,0,0,0,0,0
0.7429,1783187782.6632,1,1,1.0000,0.0000,1.44682,0.23328,-2.77748,0.97337,1.57080,0.00000,-0.14512,-0.38003,0.04653,,,,,,,,,,,,,,,,,,,,,,,,,,0,0,0,0,0
0.7431,1783187782.6634,1,1,1.0000,0.0000,1.44682,0.23328,-2.77748,0.97337,1.57080,0.00000,-0.14512,-0.38003,0.04653,,,,,,,,,,,,,,,,,,,,,,,,,,0,0,0,0,0
0.7435,1783187782.6638,1,1,1.0000,0.0000,1.44682,0.23328,-2.77748,0.97337,1.57080,0.00000,-0.14512,-0.38003,0.04653,,,,,,,,,,,,,,,,,,,,,,,,,,0,0,0,0,0
0.7518,1783187782.6721,1,1,1.0000,0.0000,1.44682,0.23328,-2.77748,0.97337,1.57080,0.00000,-0.14512,-0.38003,0.04653,,,,,,,,,,,,,,,,,,,,,,,,,,0,0,0,0,0
0.7527,1783187782.6730,1,1,1.0000,0.0000,1.44682,0.23328,-2.77748,0.97337,1.57080,0.00000,-0.14512,-0.38003,0.04653,,,,,,,,,,,,,,,,,,,,,,,,,,0,0,0,0,0
0.7600,1783187782.6802,1,1,1.0000,0.0000,1.44682,0.23328,-2.77748,0.97337,1.57080,0.00000,-0.14512,-0.38003,0.04653,,,,,,,,,,,,,,,,,,,,,,,,,,0,0,0,0,0
0.7607,1783187782.6809,1,1,1.0000,0.0000,1.44682,0.23328,-2.77748,0.97337,1.57080,0.00000,-0.14512,-0.38003,0.04653,,,,,,,,,,,,,,,,,,,,,,,,,,0,0,0,0,0
0.7738,1783187782.6941,1,1,1.0000,0.0000,1.44682,0.23328,-2.77748,0.97337,1.57080,0.00000,-0.14512,-0.38003,0.04653,,,,,,,,,,,,,,,,,,,,,,,,,,0,0,0,0,0
0.7793,1783187782.6996,1,1,1.0000,0.0000,1.44682,0.23328,-2.77748,0.97337,1.57080,0.00000,-0.14512,-0.38003,0.04653,,,,,,,,,,,,,,,,,,,,,,,,,,0,0,0,0,0
0.7796,1783187782.6999,1,1,1.0000,0.0000,1.44682,0.23328,-2.77748,0.97337,1.57080,0.00000,-0.14512,-0.38003,0.04653,,,,,,,,,,,,,,,,,,,,,,,,,,0,0,0,0,0
0.7908,1783187782.7111,1,1,1.0000,0.0000,1.44682,0.23328,-2.77748,0.97337,1.57080,0.00000,-0.14512,-0.38003,0.04653,,,,,,,,,,,,,,,,,,,,,,,,,,0,0,0,0,0
0.7911,1783187782.7114,1,1,1.0000,0.0000,1.44682,0.23328,-2.77748,0.97337,1.57080,0.00000,-0.14512,-0.38003,0.04653,,,,,,,,,,,,,,,,,,,,,,,,,,0,0,0,0,0
0.7999,1783187782.7202,1,1,1.0000,0.0000,1.44682,0.23328,-2.77748,0.97337,1.57080,0.00000,-0.14512,-0.38003,0.04653,,,,,,,,,,,,,,,,,,,,,,,,,,0,0,0,0,0
0.8104,1783187782.7306,1,1,1.0000,0.0000,1.44682,0.23328,-2.77748,0.97337,1.57080,0.00000,-0.14512,-0.38003,0.04653,,,,,,,,,,,,,,,,,,,,,,,,,,0,0,0,0,0
0.8208,1783187782.7411,1,1,1.0000,0.0000,1.44682,0.23328,-2.77748,0.97337,1.57080,0.00000,-0.14512,-0.38003,0.04653,,,,,,,,,,,,,,,,,,,,,,,,,,0,0,0,0,0
0.8212,1783187782.7415,1,1,1.0000,0.0000,1.44682,0.23328,-2.77748,0.97337,1.57080,0.00000,-0.14512,-0.38003,0.04653,,,,,,,,,,,,,,,,,,,,,,,,,,0,0,0,0,0
0.8318,1783187782.7520,1,1,1.0000,0.0000,1.44682,0.23328,-2.77748,0.97337,1.57080,0.00000,-0.14512,-0.38003,0.04653,,,,,,,,,,,,,,,,,,,,,,,,,,0,0,0,0,0
0.8322,1783187782.7525,1,1,1.0000,0.0000,1.44682,0.23328,-2.77748,0.97337,1.57080,0.00000,-0.14512,-0.38003,0.04653,,,,,,,,,,,,,,,,,,,,,,,,,,0,0,0,0,0
0.8424,1783187782.7627,1,1,1.0000,0.0000,1.44682,0.23328,-2.77748,0.97337,1.57080,0.00000,-0.14512,-0.38003,0.04653,,,,,,,,,,,,,,,,,,,,,,,,,,0,0,0,0,0
0.8539,1783187782.7742,1,1,1.0000,0.0000,1.44682,0.23328,-2.77748,0.97337,1.57080,0.00000,-0.14512,-0.38003,0.04653,,,,,,,,,,,,,,,,,,,,,,,,,,0,0,0,0,0
0.8590,1783187782.7793,1,1,1.0000,0.0000,1.44682,0.23328,-2.77748,0.97337,1.57080,0.00000,-0.14512,-0.38003,0.04653,,,,,,,,,,,,,,,,,,,,,,,,,,0,0,0,0,0
0.8693,1783187782.7896,1,1,1.0000,0.0000,1.44682,0.23328,-2.77748,0.97337,1.57080,0.00000,-0.14512,-0.38003,0.04653,,,,,,,,,,,,,,,,,,,,,,,,,,0,0,0,0,0
0.8798,1783187782.8001,1,1,1.0000,0.0000,1.44682,0.23328,-2.77748,0.97337,1.57080,0.00000,-0.14512,-0.38003,0.04653,,,,,,,,,,,,,,,,,,,,,,,,,,0,0,0,0,0
0.8892,1783187782.8095,1,1,1.0000,0.0000,1.44682,0.23328,-2.77748,0.97337,1.57080,0.00000,-0.14512,-0.38003,0.04653,,,,,,,,,,,,,,,,,,,,,,,,,,0,0,0,0,0
0.8896,1783187782.8099,1,1,1.0000,0.0000,1.44682,0.23328,-2.77748,0.97337,1.57080,0.00000,-0.14512,-0.38003,0.04653,,,,,,,,,,,,,,,,,,,,,,,,,,0,0,0,0,0
0.8989,1783187782.8192,1,1,1.0000,0.0000,1.44682,0.23328,-2.77748,0.97337,1.57080,0.00000,-0.14512,-0.38003,0.04653,,,,,,,,,,,,,,,,,,,,,,,,,,0,0,0,0,0
0.9090,1783187782.8293,1,1,1.0000,0.0000,1.44682,0.23328,-2.77748,0.97337,1.57080,0.00000,-0.14512,-0.38003,0.04653,,,,,,,,,,,,,,,,,,,,,,,,,,0,0,0,0,0
0.9250,1783187782.8452,1,1,1.0000,0.0000,1.44682,0.23326,-2.77748,0.97339,1.57080,0.00000,-0.14512,-0.38003,0.04652,,,,,,,,,,,,,,,,,,,,,,,,,,0,0,0,0,0
0.9346,1783187782.8549,1,1,1.0000,0.0000,1.44682,0.23316,-2.77751,0.97352,1.57080,0.00000,-0.14512,-0.38003,0.04650,,,,,,,,,,,,,,,,,,,,,,,,,,0,0,0,0,0
0.9431,1783187782.8634,1,1,1.0000,0.0000,1.44682,0.23301,-2.77755,0.97371,1.57080,0.00000,-0.14512,-0.38003,0.04646,,,,,,,,,,,,,,,,,,,,,,,,,,0,0,0,0,0
0.9529,1783187782.8732,1,1,1.0000,0.0000,1.44682,0.23291,-2.77757,0.97383,1.57080,0.00000,-0.14512,-0.38003,0.04643,,,,,,,,,,,,,,,,,,,,,,,,,,0,0,0,0,0
0.9601,1783187782.8804,1,1,1.0000,0.0000,1.44682,0.23288,-2.77758,0.97386,1.57080,0.00000,-0.14512,-0.38003,0.04642,,,,,,,,,,,,,,,,,,,,,,,,,,0,0,0,0,0
0.9720,1783187782.8922,1,1,1.0000,0.0000,1.44682,0.23271,-2.77762,0.97408,1.57080,0.00000,-0.14512,-0.38003,0.04638,,,,,,,,,,,,,,,,,,,,,,,,,,0,0,0,0,0
0.9836,1783187782.9038,1,1,1.0000,0.0000,1.44682,0.23258,-2.77766,0.97425,1.57080,0.00000,-0.14512,-0.38003,0.04635,,,,,,,,,,,,,,,,,,,,,,,,,,0,0,0,0,0
0.9914,1783187782.9117,1,1,1.0000,0.0000,1.44682,0.23255,-2.77767,0.97429,1.57080,0.00000,-0.14512,-0.38003,0.04634,,,,,,,,,,,,,,,,,,,,,,,,,,0,0,0,0,0
0.9990,1783187782.9192,1,1,1.0000,0.0000,1.44682,0.23246,-2.77769,0.97439,1.57080,0.00000,-0.14512,-0.38003,0.04631,,,,,,,,,,,,,,,,,,,,,,,,,,0,0,0,0,0
1.0093,1783187782.9296,1,1,1.0000,0.0000,1.44682,0.23235,-2.77772,0.97454,1.57080,0.00000,-0.14512,-0.38003,0.04629,,,,,,,,,,,,,,,,,,,,,,,,,,0,0,0,0,0
1.0200,1783187782.9403,1,1,1.0000,0.0000,1.44682,0.23230,-2.77773,0.97459,1.57080,0.00000,-0.14512,-0.38003,0.04627,,,,,,,,,,,,,,,,,,,,,,,,,,0,0,0,0,0
1.0317,1783187782.9519,1,1,1.0000,0.0000,1.44682,0.23212,-2.77777,0.97482,1.57080,0.00000,-0.14512,-0.38003,0.04623,,,,,,,,,,,,,,,,,,,,,,,,,,0,0,0,0,0
1.0390,1783187782.9593,1,1,1.0000,0.0000,1.44682,0.23198,-2.77781,0.97500,1.57080,0.00000,-0.14512,-0.38003,0.04619,,,,,,,,,,,,,,,,,,,,,,,,,,0,0,0,0,0
1.0489,1783187782.9692,1,1,1.0000,0.0000,1.44682,0.23195,-2.77782,0.97504,1.57080,0.00000,-0.14512,-0.38003,0.04618,,,,,,,,,,,,,,,,,,,,,,,,,,0,0,0,0,0
1.0493,1783187782.9696,1,1,1.0000,0.0000,1.44682,0.23195,-2.77782,0.97504,1.57080,0.00000,-0.14512,-0.38003,0.04618,,,,,,,,,,,,,,,,,,,,,,,,,,0,0,0,0,0
1.0595,1783187782.9798,1,1,1.0000,0.0000,1.44682,0.23187,-2.77784,0.97514,1.57080,0.00000,-0.14512,-0.38003,0.04616,,,,,,,,,,,,,,,,,,,,,,,,,,0,0,0,0,0
1.0696,1783187782.9899,1,1,1.0000,0.0000,1.44682,0.23176,-2.77787,0.97528,1.57080,0.00000,-0.14512,-0.38003,0.04613,,,,,,,,,,,,,,,,,,,,,,,,,,0,0,0,0,0
1.0792,1783187782.9995,1,1,1.0000,0.0000,1.44682,0.23171,-2.77788,0.97534,1.57080,0.00000,-0.14512,-0.38003,0.04612,,,,,,,,,,,,,,,,,,,,,,,,,,0,0,0,0,0
1.0795,1783187782.9998,1,1,1.0000,0.0000,1.44682,0.23171,-2.77788,0.97534,1.57080,0.00000,-0.14512,-0.38003,0.04612,,,,,,,,,,,,,,,,,,,,,,,,,,0,0,0,0,0
1.0899,1783187783.0102,1,1,1.0000,0.0000,1.44682,0.23153,-2.77793,0.97557,1.57080,0.00000,-0.14512,-0.38003,0.04607,,,,,,,,,,,,,,,,,,,,,,,,,,0,0,0,0,0
1.0902,1783187783.0105,1,1,1.0000,0.0000,1.44682,0.23153,-2.77793,0.97557,1.57080,0.00000,-0.14512,-0.38003,0.04607,,,,,,,,,,,,,,,,,,,,,,,,,,0,0,0,0,0
1.0993,1783187783.0196,1,1,1.0000,0.0000,1.44682,0.23139,-2.77796,0.97574,1.57080,0.00000,-0.14512,-0.38003,0.04603,,,,,,,,,,,,,,,,,,,,,,,,,,0,0,0,0,0
1.0996,1783187783.0199,1,1,1.0000,0.0000,1.44682,0.23139,-2.77796,0.97574,1.57080,0.00000,-0.14512,-0.38003,0.04603,,,,,,,,,,,,,,,,,,,,,,,,,,0,0,0,0,0
1.1117,1783187783.0320,1,1,1.0000,0.0000,1.44682,0.23135,-2.77797,0.97580,1.57080,0.00000,-0.14512,-0.38003,0.04602,,,,,,,,,,,,,,,,,,,,,,,,,,0,0,0,0,0
1.1300,1783187783.0503,1,1,1.0000,0.0000,1.44682,0.23110,-2.77804,0.97611,1.57080,0.00000,-0.14512,-0.38003,0.04596,,,,,,,,,,,,,,,,,,,,,,,,,,0,0,0,0,0
1.1303,1783187783.0506,1,1,1.0000,0.0000,1.44682,0.23110,-2.77804,0.97611,1.57080,0.00000,-0.14512,-0.38003,0.04596,,,,,,,,,,,,,,,,,,,,,,,,,,0,0,0,0,0
1.1315,1783187783.0518,1,1,1.0000,0.0000,1.44682,0.23110,-2.77804,0.97611,1.57080,0.00000,-0.14512,-0.38003,0.04596,,,,,,,,,,,,,,,,,,,,,,,,,,0,0,0,0,0
1.1389,1783187783.0592,1,1,1.0000,0.0000,1.44682,0.23106,-2.77805,0.97616,1.57080,0.00000,-0.14512,-0.38003,0.04595,,,,,,,,,,,,,,,,,,,,,,,,,,0,0,0,0,0
1.1508,1783187783.0711,1,1,1.0000,0.0000,1.44682,0.23088,-2.77809,0.97638,1.57080,0.00000,-0.14512,-0.38003,0.04590,,,,,,,,,,,,,,,,,,,,,,,,,,0,0,0,0,0
1.1612,1783187783.0815,1,1,1.0000,0.0000,1.44682,0.23074,-2.77813,0.97656,1.57080,0.00000,-0.14512,-0.38003,0.04587,,,,,,,,,,,,,,,,,,,,,,,,,,0,0,0,0,0
1.1615,1783187783.0818,1,1,1.0000,0.0000,1.44682,0.23074,-2.77813,0.97656,1.57080,0.00000,-0.14512,-0.38003,0.04587,,,,,,,,,,,,,,,,,,,,,,,,,,0,0,0,0,0
1.1693,1783187783.0895,1,1,1.0000,0.0000,1.44682,0.23070,-2.77814,0.97661,1.57080,0.00000,-0.14512,-0.38003,0.04585,,,,,,,,,,,,,,,,,,,,,,,,,,0,0,0,0,0
1.1827,1783187783.1030,1,1,1.0000,0.0000,1.44682,0.23052,-2.77819,0.97684,1.57080,0.00000,-0.14512,-0.38003,0.04581,,,,,,,,,,,,,,,,,,,,,,,,,,0,0,0,0,0
1.1831,1783187783.1034,1,1,1.0000,0.0000,1.44682,0.23052,-2.77819,0.97684,1.57080,0.00000,-0.14512,-0.38003,0.04581,,,,,,,,,,,,,,,,,,,,,,,,,,0,0,0,0,0
1.1902,1783187783.1105,1,1,1.0000,0.0000,1.44682,0.23038,-2.77822,0.97701,1.57080,0.00000,-0.14512,-0.38003,0.04577,,,,,,,,,,,,,,,,,,,,,,,,,,0,0,0,0,0
1.1993,1783187783.1196,1,1,1.0000,0.0000,1.44682,0.23037,-2.77822,0.97702,1.57080,0.00000,-0.14512,-0.38003,0.04577,,,,,,,,,,,,,,,,,,,,,,,,,,0,0,0,0,0
1.2096,1783187783.1299,1,1,1.0000,0.0000,1.44682,0.23027,-2.77825,0.97715,1.57080,0.00000,-0.14512,-0.38003,0.04574,,,,,,,,,,,,,,,,,,,,,,,,,,0,0,0,0,0
1.2102,1783187783.1305,1,1,1.0000,0.0000,1.44682,0.23027,-2.77825,0.97715,1.57080,0.00000,-0.14512,-0.38003,0.04574,,,,,,,,,,,,,,,,,,,,,,,,,,0,0,0,0,0
1.2349,1783187783.1552,1,1,1.0000,0.0000,1.44682,0.23006,-2.77831,0.97742,1.57080,0.00000,-0.14512,-0.38003,0.04569,,,,,,,,,,,,,,,,,,,,,,,,,,0,0,0,0,0
1.2409,1783187783.1612,1,1,1.0000,0.0000,1.44682,0.22993,-2.77834,0.97758,1.57080,0.00000,-0.14512,-0.38003,0.04565,,,,,,,,,,,,,,,,,,,,,,,,,,0,0,0,0,0
1.2431,1783187783.1634,1,1,1.0000,0.0000,1.44682,0.22993,-2.77834,0.97758,1.57080,0.00000,-0.14512,-0.38003,0.04565,,,,,,,,,,,,,,,,,,,,,,,,,,0,0,0,0,0
1.2434,1783187783.1636,1,1,1.0000,0.0000,1.44682,0.22993,-2.77834,0.97758,1.57080,0.00000,-0.14512,-0.38003,0.04565,,,,,,,,,,,,,,,,,,,,,,,,,,0,0,0,0,0
1.2532,1783187783.1735,1,1,1.0000,0.0000,1.44682,0.22979,-2.77837,0.97776,1.57080,0.00000,-0.14512,-0.38003,0.04562,,,,,,,,,,,,,,,,,,,,,,,,,,0,0,0,0,0
1.2636,1783187783.1838,1,1,1.0000,0.0000,1.44682,0.22975,-2.77838,0.97780,1.57080,0.00000,-0.14512,-0.38003,0.04561,,,,,,,,,,,,,,,,,,,,,,,,,,0,0,0,0,0
1.2640,1783187783.1842,1,1,1.0000,0.0000,1.44682,0.22975,-2.77838,0.97780,1.57080,0.00000,-0.14512,-0.38003,0.04561,,,,,,,,,,,,,,,,,,,,,,,,,,0,0,0,0,0
1.2696,1783187783.1899,1,1,1.0000,0.0000,1.44682,0.22967,-2.77840,0.97790,1.57080,0.00000,-0.14512,-0.38003,0.04559,,,,,,,,,,,,,,,,,,,,,,,,,,0,0,0,0,0
1.2698,1783187783.1901,1,1,1.0000,0.0000,1.44682,0.22967,-2.77840,0.97790,1.57080,0.00000,-0.14512,-0.38003,0.04559,,,,,,,,,,,,,,,,,,,,,,,,,,0,0,0,0,0
1.2840,1783187783.2043,1,1,1.0000,0.0000,1.44682,0.22956,-2.77843,0.97804,1.57080,0.00000,-0.14512,-0.38003,0.04556,,,,,,,,,,,,,,,,,,,,,,,,,,0,0,0,0,0
1.2847,1783187783.2050,1,1,1.0000,0.0000,1.44682,0.22955,-2.77844,0.97806,1.57080,0.00000,-0.14512,-0.38003,0.04555,,,,,,,,,,,,,,,,,,,,,,,,,,0,0,0,0,0
1.2912,1783187783.2115,1,1,1.0000,0.0000,1.44682,0.22951,-2.77844,0.97810,1.57080,0.00000,-0.14512,-0.38003,0.04554,,,,,,,,,,,,,,,,,,,,,,,,,,0,0,0,0,0
1.3003,1783187783.2205,1,1,1.0000,0.0000,1.44682,0.22940,-2.77847,0.97824,1.57080,0.00000,-0.14512,-0.38003,0.04552,,,,,,,,,,,,,,,,,,,,,,,,,,0,0,0,0,0
1.3012,1783187783.2215,1,1,1.0000,0.0000,1.44682,0.22933,-2.77849,0.97833,1.57080,0.00000,-0.14512,-0.38003,0.04550,,,,,,,,,,,,,,,,,,,,,,,,,,0,0,0,0,0
1.3095,1783187783.2298,1,1,1.0000,0.0000,1.44682,0.22919,-2.77853,0.97851,1.57080,0.00000,-0.14512,-0.38003,0.04546,,,,,,,,,,,,,,,,,,,,,,,,,,0,0,0,0,0
1.3189,1783187783.2392,1,1,1.0000,0.0000,1.44682,0.22918,-2.77853,0.97852,1.57080,0.00000,-0.14512,-0.38003,0.04546,,,,,,,,,,,,,,,,,,,,,,,,,,0,0,0,0,0
1.3367,1783187783.2570,1,1,1.0000,0.0000,1.44682,0.22896,-2.77859,0.97879,1.57080,0.00000,-0.14512,-0.38003,0.04540,,,,,,,,,,,,,,,,,,,,,,,,,,0,0,0,0,0
1.3430,1783187783.2633,1,1,1.0000,0.0000,1.44682,0.22896,-2.77859,0.97879,1.57080,0.00000,-0.14512,-0.38003,0.04540,,,,,,,,,,,,,,,,,,,,,,,,,,0,0,0,0,0
1.3528,1783187783.2731,1,1,1.0000,0.0000,1.44682,0.22887,-2.77861,0.97891,1.57080,0.00000,-0.14512,-0.38003,0.04538,,,,,,,,,,,,,,,,,,,,,,,,,,0,0,0,0,0
1.3530,1783187783.2733,1,1,1.0000,0.0000,1.44682,0.22887,-2.77861,0.97891,1.57080,0.00000,-0.14512,-0.38003,0.04538,,,,,,,,,,,,,,,,,,,,,,,,,,0,0,0,0,0
1.3662,1783187783.2865,1,1,1.0000,0.0000,1.44682,0.22866,-2.77866,0.97917,1.57080,0.00000,-0.14512,-0.38003,0.04532,,,,,,,,,,,,,,,,,,,,,,,,,,0,0,0,0,0
1.3696,1783187783.2899,1,1,1.0000,0.0000,1.44682,0.22859,-2.77868,0.97925,1.57080,0.00000,-0.14512,-0.38003,0.04531,,,,,,,,,,,,,,,,,,,,,,,,,,0,0,0,0,0
1.3700,1783187783.2903,1,1,1.0000,0.0000,1.44682,0.22859,-2.77868,0.97925,1.57080,0.00000,-0.14512,-0.38003,0.04531,,,,,,,,,,,,,,,,,,,,,,,,,,0,0,0,0,0
1.3830,1783187783.3033,1,1,1.0000,0.0000,1.44682,0.22856,-2.77869,0.97929,1.57080,0.00000,-0.14512,-0.38003,0.04530,,,,,,,,,,,,,,,,,,,,,,,,,,0,0,0,0,0
1.4047,1783187783.3250,1,1,1.0000,0.0000,1.44682,0.22837,-2.77874,0.97954,1.57080,0.00000,-0.14512,-0.38003,0.04525,,,,,,,,,,,,,,,,,,,,,,,,,,0,0,0,0,0
1.4149,1783187783.3352,1,1,1.0000,0.0000,1.44682,0.22827,-2.77876,0.97966,1.57080,0.00000,-0.14512,-0.38003,0.04522,,,,,,,,,,,,,,,,,,,,,,,,,,0,0,0,0,0
1.4236,1783187783.3439,1,1,1.0000,0.0000,1.44682,0.22814,-2.77880,0.97983,1.57080,0.00000,-0.14512,-0.38003,0.04519,,,,,,,,,,,,,,,,,,,,,,,,,,0,0,0,0,0
1.4319,1783187783.3522,1,1,1.0000,0.0000,1.44682,0.22800,-2.77883,0.98000,1.57080,0.00000,-0.14512,-0.38003,0.04515,,,,,,,,,,,,,,,,,,,,,,,,,,0,0,0,0,0
1.4487,1783187783.3689,1,1,1.0000,0.0000,1.44682,0.22793,-2.77885,0.98009,1.57080,0.00000,-0.14512,-0.38003,0.04513,,,,,,,,,,,,,,,,,,,,,,,,,,0,0,0,0,0
1.4567,1783187783.3770,1,1,1.0000,0.0000,1.44682,0.22783,-2.77887,0.98021,1.57080,0.00000,-0.14512,-0.38003,0.04511,,,,,,,,,,,,,,,,,,,,,,,,,,0,0,0,0,0
1.4631,1783187783.3834,1,1,1.0000,0.0000,1.44682,0.22777,-2.77889,0.98029,1.57080,0.00000,-0.14512,-0.38003,0.04509,,,,,,,,,,,,,,,,,,,,,,,,,,0,0,0,0,0
1.4633,1783187783.3836,1,1,1.0000,0.0000,1.44682,0.22777,-2.77889,0.98029,1.57080,0.00000,-0.14512,-0.38003,0.04509,,,,,,,,,,,,,,,,,,,,,,,,,,0,0,0,0,0
1.4690,1783187783.3893,1,1,1.0000,0.0000,1.44682,0.22776,-2.77889,0.98030,1.57080,0.00000,-0.14512,-0.38003,0.04509,,,,,,,,,,,,,,,,,,,,,,,,,,0,0,0,0,0
1.4797,1783187783.4000,1,1,1.0000,0.0000,1.44682,0.22761,-2.77893,0.98049,1.57080,0.00000,-0.14512,-0.38003,0.04505,,,,,,,,,,,,,,,,,,,,,,,,,,0,0,0,0,0
1.4904,1783187783.4107,1,1,1.0000,0.0000,1.44682,0.22740,-2.77898,0.98075,1.57080,0.00000,-0.14512,-0.38003,0.04500,,,,,,,,,,,,,,,,,,,,,,,,,,0,0,0,0,0
1.5024,1783187783.4227,1,1,1.0000,0.0000,1.44682,0.22737,-2.77899,0.98079,1.57080,0.00000,-0.14512,-0.38003,0.04499,,,,,,,,,,,,,,,,,,,,,,,,,,0,0,0,0,0
1.5107,1783187783.4310,1,1,1.0000,0.0000,1.44682,0.22729,-2.77901,0.98090,1.57080,0.00000,-0.14512,-0.38003,0.04497,,,,,,,,,,,,,,,,,,,,,,,,,,0,0,0,0,0
1.5192,1783187783.4394,1,1,1.0000,0.0000,1.44682,0.22717,-2.77904,0.98104,1.57080,0.00000,-0.14512,-0.38003,0.04494,,,,,,,,,,,,,,,,,,,,,,,,,,0,0,0,0,0
1.5397,1783187783.4600,1,1,1.0000,0.0000,1.44682,0.22701,-2.77908,0.98124,1.57080,0.00001,-0.14512,-0.38003,0.04490,,,,,,,,,,,,,,,,,,,,,,,,,,0,0,0,0,0
1.5427,1783187783.4630,1,1,1.0000,0.0000,1.44682,0.22694,-2.77910,0.98132,1.57080,0.00001,-0.14512,-0.38003,0.04488,,,,,,,,,,,,,,,,,,,,,,,,,,0,0,0,0,0
1.5490,1783187783.4693,1,1,1.0000,0.0000,1.44682,0.22687,-2.77912,0.98141,1.57080,0.00001,-0.14512,-0.38003,0.04486,,,,,,,,,,,,,,,,,,,,,,,,,,0,0,0,0,0
1.5630,1783187783.4833,1,1,1.0000,0.0000,1.44682,0.22677,-2.77914,0.98154,1.57080,0.00001,-0.14512,-0.38003,0.04483,,,,,,,,,,,,,,,,,,,,,,,,,,0,0,0,0,0
1.5709,1783187783.4912,1,1,1.0000,0.0000,1.44682,0.22669,-2.77916,0.98164,1.57080,0.00001,-0.14512,-0.38003,0.04481,,,,,,,,,,,,,,,,,,,,,,,,,,0,0,0,0,0
1.5818,1783187783.5021,1,1,1.0000,0.0000,1.44682,0.22657,-2.77919,0.98179,1.57080,0.00001,-0.14512,-0.38003,0.04478,,,,,,,,,,,,,,,,,,,,,,,,,,0,0,0,0,0
1.6016,1783187783.5219,1,1,1.0000,0.0000,1.44682,0.22635,-2.77925,0.98207,1.57080,0.00001,-0.14512,-0.38003,0.04472,,,,,,,,,,,,,,,,,,,,,,,,,,0,0,0,0,0
1.6018,1783187783.5221,1,1,1.0000,0.0000,1.44682,0.22635,-2.77925,0.98207,1.57080,0.00001,-0.14512,-0.38003,0.04472,,,,,,,,,,,,,,,,,,,,,,,,,,0,0,0,0,0
1.6106,1783187783.5309,1,1,1.0000,0.0000,1.44682,0.22620,-2.77929,0.98225,1.57080,0.00001,-0.14512,-0.38003,0.04469,,,,,,,,,,,,,,,,,,,,,,,,,,0,0,0,0,0
1.6199,1783187783.5402,1,1,1.0000,0.0000,1.44682,0.22620,-2.77929,0.98226,1.57080,0.00001,-0.14512,-0.38003,0.04468,,,,,,,,,,,,,,,,,,,,,,,,,,0,0,0,0,0
1.6348,1783187783.5551,1,1,1.0000,0.0000,1.44682,0.22604,-2.77933,0.98246,1.57080,0.00001,-0.14512,-0.38003,0.04464,,,,,,,,,,,,,,,,,,,,,,,,,,0,0,0,0,0
1.6441,1783187783.5644,1,1,1.0000,0.0000,1.44682,0.22598,-2.77934,0.98254,1.57080,0.00001,-0.14512,-0.38003,0.04463,,,,,,,,,,,,,,,,,,,,,,,,,,0,0,0,0,0
1.6601,1783187783.5804,1,1,1.0000,0.0000,1.44682,0.22582,-2.77938,0.98274,1.57080,0.00001,-0.14512,-0.38003,0.04459,,,,,,,,,,,,,,,,,,,,,,,,,,0,0,0,0,0
1.7215,1783187783.6418,1,1,1.0000,0.0000,1.44682,0.22515,-2.77955,0.98358,1.57080,0.00001,-0.14512,-0.38002,0.04441,,,,,,,,,,,,,,,,,,,,,,,,,,0,0,0,0,0
1.7218,1783187783.6420,1,1,1.0000,0.0000,1.44682,0.22515,-2.77955,0.98358,1.57080,0.00001,-0.14512,-0.38002,0.04441,,,,,,,,,,,,,,,,,,,,,,,,,,0,0,0,0,0
1.7221,1783187783.6424,1,1,1.0000,0.0000,1.44682,0.22515,-2.77955,0.98358,1.57080,0.00001,-0.14512,-0.38002,0.04441,,,,,,,,,,,,,,,,,,,,,,,,,,0,0,0,0,0
1.7224,1783187783.6427,1,1,1.0000,0.0000,1.44682,0.22515,-2.77955,0.98358,1.57080,0.00001,-0.14512,-0.38002,0.04441,,,,,,,,,,,,,,,,,,,,,,,,,,0,0,0,0,0
1.7227,1783187783.6430,1,1,1.0000,0.0000,1.44682,0.22515,-2.77955,0.98358,1.57080,0.00001,-0.14512,-0.38002,0.04441,,,,,,,,,,,,,,,,,,,,,,,,,,0,0,0,0,0
1.7230,1783187783.6433,1,1,1.0000,0.0000,1.44682,0.22515,-2.77955,0.98358,1.57080,0.00001,-0.14512,-0.38002,0.04441,,,,,,,,,,,,,,,,,,,,,,,,,,0,0,0,0,0
1.7233,1783187783.6436,1,1,1.0000,0.0000,1.44682,0.22515,-2.77955,0.98358,1.57080,0.00001,-0.14512,-0.38002,0.04441,,,,,,,,,,,,,,,,,,,,,,,,,,0,0,0,0,0
1.7257,1783187783.6460,1,1,1.0000,0.0000,1.44682,0.22508,-2.77957,0.98367,1.57080,0.00001,-0.14512,-0.38002,0.04439,,,,,,,,,,,,,,,,,,,,,,,,,,0,0,0,0,0
1.7259,1783187783.6462,1,1,1.0000,0.0000,1.44682,0.22508,-2.77957,0.98367,1.57080,0.00001,-0.14512,-0.38002,0.04439,,,,,,,,,,,,,,,,,,,,,,,,,,0,0,0,0,0
1.7417,1783187783.6620,1,1,1.0000,0.0000,1.44682,0.22496,-2.77960,0.98381,1.57080,0.00001,-0.14512,-0.38002,0.04436,,,,,,,,,,,,,,,,,,,,,,,,,,0,0,0,0,0
1.7421,1783187783.6624,1,1,1.0000,0.0000,1.44682,0.22496,-2.77960,0.98381,1.57080,0.00001,-0.14512,-0.38002,0.04436,,,,,,,,,,,,,,,,,,,,,,,,,,0,0,0,0,0
1.7466,1783187783.6669,1,1,1.0000,0.0000,1.44682,0.22491,-2.77961,0.98387,1.57080,0.00001,-0.14512,-0.38002,0.04435,,,,,,,,,,,,,,,,,,,,,,,,,,0,0,0,0,0
1.7622,1783187783.6825,1,1,1.0000,0.0000,1.44682,0.22471,-2.77966,0.98412,1.57080,0.00001,-0.14512,-0.38002,0.04430,,,,,,,,,,,,,,,,,,,,,,,,,,0,0,0,0,0
1.7625,1783187783.6828,1,1,1.0000,0.0000,1.44682,0.22471,-2.77966,0.98412,1.57080,0.00001,-0.14512,-0.38002,0.04430,,,,,,,,,,,,,,,,,,,,,,,,,,0,0,0,0,0
1.7639,1783187783.6842,1,1,1.0000,0.0000,1.44682,0.22471,-2.77966,0.98412,1.57080,0.00001,-0.14512,-0.38002,0.04430,,,,,,,,,,,,,,,,,,,,,,,,,,0,0,0,0,0
1.7643,1783187783.6846,1,1,1.0000,0.0000,1.44682,0.22471,-2.77966,0.98412,1.57080,0.00001,-0.14512,-0.38002,0.04430,,,,,,,,,,,,,,,,,,,,,,,,,,0,0,0,0,0
1.7756,1783187783.6959,1,1,1.0000,0.0000,1.44682,0.22462,-2.77969,0.98424,1.57080,0.00001,-0.14512,-0.38002,0.04428,,,,,,,,,,,,,,,,,,,,,,,,,,0,0,0,0,0
1.7843,1783187783.7046,1,1,1.0000,0.0000,1.44682,0.22449,-2.77972,0.98440,1.57080,0.00001,-0.14512,-0.38002,0.04424,,,,,,,,,,,,,,,,,,,,,,,,,,0,0,0,0,0
1.8022,1783187783.7225,1,1,1.0000,0.0000,1.44682,0.22431,-2.77977,0.98463,1.57080,0.00001,-0.14512,-0.38002,0.04420,,,,,,,,,,,,,,,,,,,,,,,,,,0,0,0,0,0
1.8063,1783187783.7266,1,1,1.0000,0.0000,1.44682,0.22426,-2.77978,0.98469,1.57080,0.00001,-0.14512,-0.38002,0.04418,,,,,,,,,,,,,,,,,,,,,,,,,,0,0,0,0,0
1.8143,1783187783.7346,1,1,1.0000,0.0000,1.44682,0.22413,-2.77981,0.98485,1.57080,0.00001,-0.14512,-0.38002,0.04415,,,,,,,,,,,,,,,,,,,,,,,,,,0,0,0,0,0
1.8286,1783187783.7489,1,1,1.0000,0.0000,1.44682,0.22405,-2.77983,0.98495,1.57080,0.00001,-0.14512,-0.38002,0.04413,,,,,,,,,,,,,,,,,,,,,,,,,,0,0,0,0,0
1.8343,1783187783.7546,1,1,1.0000,0.0000,1.44682,0.22396,-2.77985,0.98506,1.57080,0.00001,-0.14512,-0.38002,0.04411,,,,,,,,,,,,,,,,,,,,,,,,,,0,0,0,0,0
1.8472,1783187783.7675,1,1,1.0000,0.0000,1.44682,0.22377,-2.77990,0.98530,1.57080,0.00001,-0.14512,-0.38002,0.04406,,,,,,,,,,,,,,,,,,,,,,,,,,0,0,0,0,0
1.8475,1783187783.7678,1,1,1.0000,0.0000,1.44682,0.22377,-2.77990,0.98530,1.57080,0.00001,-0.14512,-0.38002,0.04406,,,,,,,,,,,,,,,,,,,,,,,,,,0,0,0,0,0
1.8582,1783187783.7785,1,1,1.0000,0.0000,1.44682,0.22369,-2.77992,0.98540,1.57080,0.00001,-0.14512,-0.38002,0.04403,,,,,,,,,,,,,,,,,,,,,,,,,,0,0,0,0,0
1.8674,1783187783.7877,1,1,1.0000,0.0000,1.44682,0.22360,-2.77994,0.98551,1.57080,0.00001,-0.14512,-0.38002,0.04401,,,,,,,,,,,,,,,,,,,,,,,,,,0,0,0,0,0
1.8800,1783187783.8003,1,1,1.0000,0.0000,1.44682,0.22340,-2.77999,0.98576,1.57080,0.00001,-0.14512,-0.38002,0.04396,,,,,,,,,,,,,,,,,,,,,,,,,,0,0,0,0,0
1.8843,1783187783.8046,1,1,1.0000,0.0000,1.44682,0.22340,-2.77999,0.98576,1.57080,0.00001,-0.14512,-0.38002,0.04396,,,,,,,,,,,,,,,,,,,,,,,,,,0,0,0,0,0
1.9001,1783187783.8204,1,1,1.0000,0.0000,1.44682,0.22325,-2.78003,0.98595,1.57080,0.00001,-0.14512,-0.38002,0.04392,,,,,,,,,,,,,,,,,,,,,,,,,,0,0,0,0,0
1.9083,1783187783.8286,1,1,1.0000,0.0000,1.44682,0.22311,-2.78007,0.98612,1.57080,0.00001,-0.14512,-0.38002,0.04389,,,,,,,,,,,,,,,,,,,,,,,,,,0,0,0,0,0
1.9160,1783187783.8363,1,1,1.0000,0.0000,1.44682,0.22304,-2.78008,0.98621,1.57080,0.00001,-0.14512,-0.38002,0.04387,,,,,,,,,,,,,,,,,,,,,,,,,,0,0,0,0,0
1.9258,1783187783.8461,1,1,1.0000,0.0000,1.44682,0.22295,-2.78011,0.98633,1.57080,0.00001,-0.14512,-0.38002,0.04384,,,,,,,,,,,,,,,,,,,,,,,,,,0,0,0,0,0
1.9261,1783187783.8464,1,1,1.0000,0.0000,1.44682,0.22295,-2.78011,0.98633,1.57080,0.00001,-0.14512,-0.38002,0.04384,,,,,,,,,,,,,,,,,,,,,,,,,,0,0,0,0,0
1.9345,1783187783.8548,1,1,1.0000,0.0000,1.44682,0.22282,-2.78014,0.98649,1.57080,0.00001,-0.14512,-0.38002,0.04381,,,,,,,,,,,,,,,,,,,,,,,,,,0,0,0,0,0
1.9349,1783187783.8552,1,1,1.0000,0.0000,1.44682,0.22282,-2.78014,0.98649,1.57080,0.00001,-0.14512,-0.38002,0.04381,,,,,,,,,,,,,,,,,,,,,,,,,,0,0,0,0,0
1.9464,1783187783.8667,1,1,1.0000,0.0000,1.44682,0.22274,-2.78016,0.98659,1.57080,0.00001,-0.14512,-0.38002,0.04379,,,,,,,,,,,,,,,,,,,,,,,,,,0,0,0,0,0
1.9574,1783187783.8777,1,1,1.0000,0.0000,1.44681,0.22259,-2.78020,0.98677,1.57080,0.00001,-0.14512,-0.38002,0.04375,,,,,,,,,,,,,,,,,,,,,,,,,,0,0,0,0,0
1.9683,1783187783.8886,1,1,1.0000,0.0000,1.44681,0.22245,-2.78023,0.98694,1.57080,0.00001,-0.14512,-0.38002,0.04372,,,,,,,,,,,,,,,,,,,,,,,,,,0,0,0,0,0
1.9759,1783187783.8962,1,1,1.0000,0.0000,1.44681,0.22239,-2.78025,0.98703,1.57080,0.00001,-0.14512,-0.38002,0.04370,,,,,,,,,,,,,,,,,,,,,,,,,,0,0,0,0,0
1.9856,1783187783.9059,1,1,1.0000,0.0000,1.44681,0.22229,-2.78027,0.98715,1.57080,0.00001,-0.14512,-0.38002,0.04368,,,,,,,,,,,,,,,,,,,,,,,,,,0,0,0,0,0
1.9858,1783187783.9061,1,1,1.0000,0.0000,1.44681,0.22229,-2.78027,0.98715,1.57080,0.00001,-0.14512,-0.38002,0.04368,,,,,,,,,,,,,,,,,,,,,,,,,,0,0,0,0,0
1.9967,1783187783.9170,1,1,1.0000,0.0000,1.44681,0.22216,-2.78030,0.98731,1.57080,0.00001,-0.14512,-0.38002,0.04364,,,,,,,,,,,,,,,,,,,,,,,,,,0,0,0,0,0
2.0084,1783187783.9287,1,1,1.0000,0.0000,1.44681,0.22202,-2.78034,0.98748,1.57080,0.00001,-0.14512,-0.38002,0.04361,,,,,,,,,,,,,,,,,,,,,,,,,,0,0,0,0,0
2.0160,1783187783.9363,1,1,1.0000,0.0000,1.44681,0.22199,-2.78035,0.98752,1.57080,0.00001,-0.14512,-0.38002,0.04360,,,,,,,,,,,,,,,,,,,,,,,,,,0,0,0,0,0
2.0244,1783187783.9447,1,1,1.0000,0.0000,1.44681,0.22191,-2.78037,0.98763,1.57080,0.00001,-0.14512,-0.38002,0.04358,,,,,,,,,,,,,,,,,,,,,,,,,,0,0,0,0,0
2.0343,1783187783.9546,1,1,1.0000,0.0000,1.44681,0.22179,-2.78040,0.98777,1.57080,0.00001,-0.14512,-0.38002,0.04355,,,,,,,,,,,,,,,,,,,,,,,,,,0,0,0,0,0
2.0454,1783187783.9657,1,1,1.0000,0.0000,1.44681,0.22169,-2.78042,0.98790,1.57080,0.00001,-0.14512,-0.38002,0.04352,,,,,,,,,,,,,,,,,,,,,,,,,,0,0,0,0,0
2.0550,1783187783.9753,1,1,1.0000,0.0000,1.44681,0.22156,-2.78045,0.98806,1.57080,0.00001,-0.14512,-0.38002,0.04349,,,,,,,,,,,,,,,,,,,,,,,,,,0,0,0,0,0
2.0678,1783187783.9881,1,1,1.0000,0.0000,1.44681,0.22142,-2.78049,0.98824,1.57080,0.00001,-0.14512,-0.38002,0.04345,,,,,,,,,,,,,,,,,,,,,,,,,,0,0,0,0,0
2.0755,1783187783.9958,1,1,1.0000,0.0000,1.44681,0.22139,-2.78050,0.98828,1.57080,0.00001,-0.14512,-0.38002,0.04344,,,,,,,,,,,,,,,,,,,,,,,,,,0,0,0,0,0
2.0856,1783187784.0058,1,1,1.0000,0.0000,1.44681,0.22125,-2.78053,0.98845,1.57080,0.00001,-0.14512,-0.38002,0.04341,,,,,,,,,,,,,,,,,,,,,,,,,,0,0,0,0,0
2.0860,1783187784.0063,1,1,1.0000,0.0000,1.44681,0.22125,-2.78053,0.98845,1.57080,0.00001,-0.14512,-0.38002,0.04341,,,,,,,,,,,,,,,,,,,,,,,,,,0,0,0,0,0
2.0951,1783187784.0154,1,1,1.0000,0.0000,1.44681,0.22119,-2.78055,0.98853,1.57080,0.00001,-0.14512,-0.38002,0.04339,,,,,,,,,,,,,,,,,,,,,,,,,,0,0,0,0,0
2.0956,1783187784.0159,1,1,1.0000,0.0000,1.44681,0.22119,-2.78055,0.98853,1.57080,0.00001,-0.14512,-0.38002,0.04339,,,,,,,,,,,,,,,,,,,,,,,,,,0,0,0,0,0
2.1061,1783187784.0264,1,1,1.0000,0.0000,1.44681,0.22109,-2.78057,0.98865,1.57080,0.00001,-0.14512,-0.38002,0.04337,,,,,,,,,,,,,,,,,,,,,,,,,,0,0,0,0,0
2.1143,1783187784.0346,1,1,1.0000,0.0000,1.44681,0.22096,-2.78060,0.98882,1.57080,0.00001,-0.14512,-0.38002,0.04333,,,,,,,,,,,,,,,,,,,,,,,,,,0,0,0,0,0
2.1257,1783187784.0460,1,1,1.0000,0.0000,1.44681,0.22082,-2.78064,0.98899,1.57080,0.00001,-0.14512,-0.38002,0.04330,,,,,,,,,,,,,,,,,,,,,,,,,,0,0,0,0,0
2.1367,1783187784.0570,1,1,1.0000,0.0000,1.44681,0.22078,-2.78065,0.98903,1.57080,0.00001,-0.14512,-0.38002,0.04329,,,,,,,,,,,,,,,,,,,,,,,,,,0,0,0,0,0
2.1468,1783187784.0670,1,1,1.0000,0.0000,1.44681,0.22064,-2.78068,0.98921,1.57080,0.00001,-0.14512,-0.38002,0.04325,,,,,,,,,,,,,,,,,,,,,,,,,,0,0,0,0,0
2.1554,1783187784.0757,1,1,1.0000,0.0000,1.44681,0.22058,-2.78070,0.98928,1.57080,0.00001,-0.14512,-0.38002,0.04324,,,,,,,,,,,,,,,,,,,,,,,,,,0,0,0,0,0
2.1645,1783187784.0847,1,1,1.0000,0.0000,1.44681,0.22054,-2.78071,0.98934,1.57080,0.00001,-0.14512,-0.38002,0.04322,,,,,,,,,,,,,,,,,,,,,,,,,,0,0,0,0,0
2.1745,1783187784.0948,1,1,1.0000,0.0000,1.44681,0.22035,-2.78076,0.98957,1.57080,0.00001,-0.14512,-0.38002,0.04318,,,,,,,,,,,,,,,,,,,,,,,,,,0,0,0,0,0
2.1864,1783187784.1067,1,1,1.0000,0.0000,1.44681,0.22021,-2.78079,0.98975,1.57080,0.00001,-0.14512,-0.38002,0.04314,,,,,,,,,,,,,,,,,,,,,,,,,,0,0,0,0,0
2.1945,1783187784.1148,1,1,1.0000,0.0000,1.44681,0.22018,-2.78080,0.98979,1.57080,0.00001,-0.14512,-0.38002,0.04313,,,,,,,,,,,,,,,,,,,,,,,,,,0,0,0,0,0
2.1948,1783187784.1151,1,1,1.0000,0.0000,1.44681,0.22018,-2.78080,0.98979,1.57080,0.00001,-0.14512,-0.38002,0.04313,,,,,,,,,,,,,,,,,,,,,,,,,,0,0,0,0,0
2.2111,1783187784.1313,1,1,1.0000,0.0000,1.44681,0.21998,-2.78085,0.99003,1.57080,0.00001,-0.14512,-0.38002,0.04308,,,,,,,,,,,,,,,,,,,,,,,,,,0,0,0,0,0
2.2147,1783187784.1350,1,1,1.0000,0.0000,1.44681,0.21998,-2.78085,0.99003,1.57080,0.00001,-0.14512,-0.38002,0.04308,,,,,,,,,,,,,,,,,,,,,,,,,,0,0,0,0,0
2.2286,1783187784.1489,1,1,1.0000,0.0000,1.44681,0.21988,-2.78087,0.99016,1.57080,0.00001,-0.14512,-0.38002,0.04306,,,,,,,,,,,,,,,,,,,,,,,,,,0,0,0,0,0
2.2381,1783187784.1584,1,1,1.0000,0.0000,1.44681,0.21968,-2.78092,0.99041,1.57080,0.00001,-0.14512,-0.38002,0.04300,,,,,,,,,,,,,,,,,,,,,,,,,,0,0,0,0,0
2.2440,1783187784.1643,1,1,1.0000,0.0000,1.44681,0.21961,-2.78094,0.99050,1.57080,0.00001,-0.14512,-0.38002,0.04299,,,,,,,,,,,,,,,,,,,,,,,,,,0,0,0,0,0
2.2444,1783187784.1646,1,1,1.0000,0.0000,1.44681,0.21961,-2.78094,0.99050,1.57080,0.00001,-0.14512,-0.38002,0.04299,,,,,,,,,,,,,,,,,,,,,,,,,,0,0,0,0,0
2.2559,1783187784.1762,1,1,1.0000,0.0000,1.44681,0.21957,-2.78095,0.99054,1.57080,0.00001,-0.14512,-0.38002,0.04298,,,,,,,,,,,,,,,,,,,,,,,,,,0,0,0,0,0
2.2681,1783187784.1883,1,1,1.0000,0.0000,1.44681,0.21944,-2.78098,0.99071,1.57080,0.00001,-0.14512,-0.38002,0.04294,,,,,,,,,,,,,,,,,,,,,,,,,,0,0,0,0,0
2.2745,1783187784.1948,1,1,1.0000,0.0000,1.44681,0.21938,-2.78100,0.99079,1.57080,0.00001,-0.14512,-0.38002,0.04293,,,,,,,,,,,,,,,,,,,,,,,,,,0,0,0,0,0
2.2877,1783187784.2080,1,1,1.0000,0.0000,1.44681,0.21928,-2.78102,0.99091,1.57080,0.00001,-0.14512,-0.38002,0.04290,,,,,,,,,,,,,,,,,,,,,,,,,,0,0,0,0,0
2.2980,1783187784.2183,1,1,1.0000,0.0000,1.44681,0.21907,-2.78107,0.99117,1.57080,0.00001,-0.14512,-0.38002,0.04285,,,,,,,,,,,,,,,,,,,,,,,,,,0,0,0,0,0
2.3086,1783187784.2289,1,1,1.0000,0.0000,1.44681,0.21900,-2.78109,0.99126,1.57080,0.00001,-0.14512,-0.38002,0.04283,,,,,,,,,,,,,,,,,,,,,,,,,,0,0,0,0,0
2.3089,1783187784.2292,1,1,1.0000,0.0000,1.44681,0.21900,-2.78109,0.99126,1.57080,0.00001,-0.14512,-0.38002,0.04283,,,,,,,,,,,,,,,,,,,,,,,,,,0,0,0,0,0
2.3175,1783187784.2378,1,1,1.0000,0.0000,1.44681,0.21893,-2.78111,0.99134,1.57080,0.00001,-0.14512,-0.38002,0.04281,,,,,,,,,,,,,,,,,,,,,,,,,,0,0,0,0,0
2.3274,1783187784.2477,1,1,1.0000,0.0000,1.44681,0.21883,-2.78113,0.99147,1.57080,0.00001,-0.14512,-0.38002,0.04279,,,,,,,,,,,,,,,,,,,,,,,,,,0,0,0,0,0
2.3353,1783187784.2556,1,1,1.0000,0.0000,1.44681,0.21877,-2.78115,0.99154,1.57080,0.00001,-0.14512,-0.38002,0.04277,,,,,,,,,,,,,,,,,,,,,,,,,,0,0,0,0,0
2.3443,1783187784.2646,1,1,1.0000,0.0000,1.44681,0.21872,-2.78116,0.99160,1.57080,0.00001,-0.14512,-0.38002,0.04276,,,,,,,,,,,,,,,,,,,,,,,,,,0,0,0,0,0
2.3561,1783187784.2763,1,1,1.0000,0.0000,1.44681,0.21854,-2.78121,0.99183,1.57080,0.00001,-0.14512,-0.38002,0.04271,,,,,,,,,,,,,,,,,,,,,,,,,,0,0,0,0,0
2.3669,1783187784.2872,1,1,1.0000,0.0000,1.44681,0.21840,-2.78124,0.99201,1.57080,0.00001,-0.14512,-0.38002,0.04267,,,,,,,,,,,,,,,,,,,,,,,,,,0,0,0,0,0
2.3765,1783187784.2968,1,1,1.0000,0.0000,1.44681,0.21835,-2.78125,0.99207,1.57080,0.00001,-0.14512,-0.38002,0.04266,,,,,,,,,,,,,,,,,,,,,,,,,,0,0,0,0,0
2.3771,1783187784.2974,1,1,1.0000,0.0000,1.44681,0.21830,-2.78126,0.99213,1.57080,0.00001,-0.14512,-0.38002,0.04265,,,,,,,,,,,,,,,,,,,,,,,,,,0,0,0,0,0
2.3863,1783187784.3066,1,1,1.0000,0.0000,1.44681,0.21817,-2.78130,0.99229,1.57080,0.00001,-0.14512,-0.38002,0.04262,,,,,,,,,,,,,,,,,,,,,,,,,,0,0,0,0,0
2.3977,1783187784.3180,1,1,1.0000,0.0000,1.44681,0.21809,-2.78132,0.99239,1.57080,0.00001,-0.14512,-0.38002,0.04260,,,,,,,,,,,,,,,,,,,,,,,,,,0,0,0,0,0
2.4058,1783187784.3261,1,1,1.0000,0.0000,1.44681,0.21801,-2.78134,0.99250,1.57080,0.00001,-0.14512,-0.38002,0.04257,,,,,,,,,,,,,,,,,,,,,,,,,,0,0,0,0,0
2.4180,1783187784.3383,1,1,1.0000,0.0000,1.44681,0.21781,-2.78139,0.99275,1.57080,0.00001,-0.14512,-0.38002,0.04252,,,,,,,,,,,,,,,,,,,,,,,,,,0,0,0,0,0
2.4246,1783187784.3449,1,1,1.0000,0.0000,1.44681,0.21774,-2.78140,0.99283,1.57080,0.00001,-0.14512,-0.38002,0.04251,,,,,,,,,,,,,,,,,,,,,,,,,,0,0,0,0,0
2.4378,1783187784.3581,1,1,1.0000,0.0000,1.44681,0.21764,-2.78143,0.99295,1.57080,0.00001,-0.14512,-0.38002,0.04248,,,,,,,,,,,,,,,,,,,,,,,,,,0,0,0,0,0
2.4381,1783187784.3584,1,1,1.0000,0.0000,1.44681,0.21764,-2.78143,0.99295,1.57080,0.00001,-0.14512,-0.38002,0.04248,,,,,,,,,,,,,,,,,,,,,,,,,,0,0,0,0,0
2.4471,1783187784.3674,1,1,1.0000,0.0000,1.44681,0.21751,-2.78146,0.99311,1.57080,0.00001,-0.14512,-0.38002,0.04245,,,,,,,,,,,,,,,,,,,,,,,,,,0,0,0,0,0
2.4614,1783187784.3817,1,1,1.0000,0.0000,1.44681,0.21739,-2.78149,0.99326,1.57080,0.00001,-0.14512,-0.38002,0.04242,,,,,,,,,,,,,,,,,,,,,,,,,,0,0,0,0,0
2.4807,1783187784.4010,1,1,1.0000,0.0000,1.44681,0.21714,-2.78155,0.99357,1.57080,0.00001,-0.14512,-0.38002,0.04235,,,,,,,,,,,,,,,,,,,,,,,,,,0,0,0,0,0
2.4813,1783187784.4016,1,1,1.0000,0.0000,1.44681,0.21708,-2.78157,0.99366,1.57080,0.00001,-0.14512,-0.38002,0.04234,,,,,,,,,,,,,,,,,,,,,,,,,,0,0,0,0,0
2.4881,1783187784.4084,1,1,1.0000,0.0000,1.44681,0.21708,-2.78157,0.99366,1.57080,0.00001,-0.14512,-0.38002,0.04234,,,,,,,,,,,,,,,,,,,,,,,,,,0,0,0,0,0
2.4943,1783187784.4146,1,1,1.0000,0.0000,1.44681,0.21703,-2.78158,0.99371,1.57080,0.00001,-0.14512,-0.38002,0.04233,,,,,,,,,,,,,,,,,,,,,,,,,,0,0,0,0,0
2.5044,1783187784.4247,1,1,1.0000,0.0000,1.44681,0.21692,-2.78161,0.99385,1.57080,0.00001,-0.14512,-0.38002,0.04230,,,,,,,,,,,,,,,,,,,,,,,,,,0,0,0,0,0
2.5254,1783187784.4457,1,1,1.0000,0.0000,1.44681,0.21668,-2.78166,0.99415,1.57080,0.00001,-0.14512,-0.38002,0.04224,,,,,,,,,,,,,,,,,,,,,,,,,,0,0,0,0,0
2.5343,1783187784.4546,1,1,1.0000,0.0000,1.44681,0.21655,-2.78169,0.99431,1.57080,0.00001,-0.14512,-0.38002,0.04220,,,,,,,,,,,,,,,,,,,,,,,,,,0,0,0,0,0
2.5347,1783187784.4550,1,1,1.0000,0.0000,1.44681,0.21655,-2.78169,0.99431,1.57080,0.00001,-0.14512,-0.38002,0.04220,,,,,,,,,,,,,,,,,,,,,,,,,,0,0,0,0,0
2.5470,1783187784.4673,1,1,1.0000,0.0000,1.44681,0.21641,-2.78173,0.99448,1.57080,0.00001,-0.14512,-0.38002,0.04217,,,,,,,,,,,,,,,,,,,,,,,,,,0,0,0,0,0
2.5559,1783187784.4762,1,1,1.0000,0.0000,1.44681,0.21637,-2.78174,0.99454,1.57080,0.00001,-0.14512,-0.38002,0.04216,,,,,,,,,,,,,,,,,,,,,,,,,,0,0,0,0,0
2.5679,1783187784.4882,1,1,1.0000,0.0000,1.44681,0.21619,-2.78179,0.99476,1.57080,0.00001,-0.14512,-0.38002,0.04211,,,,,,,,,,,,,,,,,,,,,,,,,,0,0,0,0,0
2.5855,1783187784.5058,1,1,1.0000,0.0000,1.44681,0.21602,-2.78183,0.99497,1.57080,0.00001,-0.14512,-0.38002,0.04207,,,,,,,,,,,,,,,,,,,,,,,,,,0,0,0,0,0
2.5859,1783187784.5062,1,1,1.0000,0.0000,1.44681,0.21602,-2.78183,0.99497,1.57080,0.00001,-0.14512,-0.38002,0.04207,,,,,,,,,,,,,,,,,,,,,,,,,,0,0,0,0,0
2.5863,1783187784.5066,1,1,1.0000,0.0000,1.44681,0.21602,-2.78183,0.99497,1.57080,0.00001,-0.14512,-0.38002,0.04207,,,,,,,,,,,,,,,,,,,,,,,,,,0,0,0,0,0
2.5866,1783187784.5069,1,1,1.0000,0.0000,1.44681,0.21602,-2.78183,0.99497,1.57080,0.00001,-0.14512,-0.38002,0.04207,,,,,,,,,,,,,,,,,,,,,,,,,,0,0,0,0,0
2.5948,1783187784.5151,1,1,1.0000,0.0000,1.44681,0.21589,-2.78186,0.99513,1.57080,0.00001,-0.14512,-0.38002,0.04203,,,,,,,,,,,,,,,,,,,,,,,,,,0,0,0,0,0
2.6044,1783187784.5247,1,1,1.0000,0.0000,1.44681,0.21575,-2.78189,0.99531,1.57080,0.00001,-0.14512,-0.38002,0.04200,,,,,,,,,,,,,,,,,,,,,,,,,,0,0,0,0,0
2.6153,1783187784.5356,1,1,1.0000,0.0000,1.44681,0.21571,-2.78190,0.99536,1.57080,0.00001,-0.14512,-0.38002,0.04199,,,,,,,,,,,,,,,,,,,,,,,,,,0,0,0,0,0
2.6267,1783187784.5470,1,1,1.0000,0.0000,1.44681,0.21552,-2.78195,0.99559,1.57080,0.00001,-0.14512,-0.38002,0.04194,,,,,,,,,,,,,,,,,,,,,,,,,,0,0,0,0,0
2.6271,1783187784.5474,1,1,1.0000,0.0000,1.44681,0.21552,-2.78195,0.99559,1.57080,0.00001,-0.14512,-0.38002,0.04194,,,,,,,,,,,,,,,,,,,,,,,,,,0,0,0,0,0
2.6359,1783187784.5562,1,1,1.0000,0.0000,1.44681,0.21545,-2.78197,0.99568,1.57080,0.00001,-0.14512,-0.38002,0.04192,,,,,,,,,,,,,,,,,,,,,,,,,,0,0,0,0,0
2.6478,1783187784.5681,1,1,1.0000,0.0000,1.44681,0.21536,-2.78199,0.99580,1.57080,0.00001,-0.14512,-0.38002,0.04190,,,,,,,,,,,,,,,,,,,,,,,,,,0,0,0,0,0
2.6560,1783187784.5763,1,1,1.0000,0.0000,1.44681,0.21523,-2.78202,0.99596,1.57080,0.00001,-0.14512,-0.38002,0.04187,,,,,,,,,,,,,,,,,,,,,,,,,,0,0,0,0,0
2.6683,1783187784.5886,1,1,1.0000,0.0000,1.44681,0.21509,-2.78205,0.99613,1.57080,0.00001,-0.14512,-0.38002,0.04183,,,,,,,,,,,,,,,,,,,,,,,,,,0,0,0,0,0
2.6775,1783187784.5977,1,1,1.0000,0.0000,1.44681,0.21499,-2.78208,0.99625,1.57080,0.00001,-0.14512,-0.38002,0.04181,,,,,,,,,,,,,,,,,,,,,,,,,,0,0,0,0,0
2.6886,1783187784.6089,1,1,1.0000,0.0000,1.44681,0.21486,-2.78211,0.99641,1.57080,0.00001,-0.14512,-0.38002,0.04177,,,,,,,,,,,,,,,,,,,,,,,,,,0,0,0,0,0
2.6975,1783187784.6177,1,1,1.0000,0.0000,1.44681,0.21478,-2.78213,0.99652,1.57080,0.00001,-0.14512,-0.38002,0.04175,,,,,,,,,,,,,,,,,,,,,,,,,,0,0,0,0,0
2.7078,1783187784.6281,1,1,1.0000,0.0000,1.44681,0.21469,-2.78215,0.99662,1.57080,0.00001,-0.14512,-0.38002,0.04173,,,,,,,,,,,,,,,,,,,,,,,,,,0,0,0,0,0
2.7193,1783187784.6396,1,1,1.0000,0.0000,1.44681,0.21449,-2.78220,0.99687,1.57080,0.00002,-0.14512,-0.38002,0.04168,,,,,,,,,,,,,,,,,,,,,,,,,,0,0,0,0,0
2.7260,1783187784.6463,1,1,1.0000,0.0000,1.44681,0.21442,-2.78222,0.99696,1.57080,0.00002,-0.14512,-0.38002,0.04166,,,,,,,,,,,,,,,,,,,,,,,,,,0,0,0,0,0
2.7391,1783187784.6594,1,1,1.0000,0.0000,1.44681,0.21433,-2.78224,0.99708,1.57080,0.00002,-0.14512,-0.38002,0.04164,,,,,,,,,,,,,,,,,,,,,,,,,,0,0,0,0,0
2.7461,1783187784.6664,1,1,1.0000,0.0000,1.44681,0.21420,-2.78227,0.99724,1.57080,0.00002,-0.14512,-0.38002,0.04160,,,,,,,,,,,,,,,,,,,,,,,,,,0,0,0,0,0
2.7544,1783187784.6746,1,1,1.0000,0.0000,1.44681,0.21406,-2.78231,0.99742,1.57080,0.00002,-0.14512,-0.38002,0.04157,,,,,,,,,,,,,,,,,,,,,,,,,,0,0,0,0,0
2.7677,1783187784.6880,1,1,1.0000,0.0000,1.44681,0.21402,-2.78232,0.99746,1.57080,0.00002,-0.14512,-0.38002,0.04156,,,,,,,,,,,,,,,,,,,,,,,,,,0,0,0,0,0
2.7762,1783187784.6964,1,1,1.0000,0.0000,1.44681,0.21394,-2.78234,0.99756,1.57080,0.00002,-0.14512,-0.38002,0.04154,,,,,,,,,,,,,,,,,,,,,,,,,,0,0,0,0,0
2.7765,1783187784.6968,1,1,1.0000,0.0000,1.44681,0.21394,-2.78234,0.99756,1.57080,0.00002,-0.14512,-0.38002,0.04154,,,,,,,,,,,,,,,,,,,,,,,,,,0,0,0,0,0
2.7864,1783187784.7066,1,1,1.0000,0.0000,1.44681,0.21382,-2.78236,0.99771,1.57080,0.00002,-0.14512,-0.38002,0.04151,,,,,,,,,,,,,,,,,,,,,,,,,,0,0,0,0,0
2.7955,1783187784.7158,1,1,1.0000,0.0000,1.44681,0.21377,-2.78238,0.99777,1.57080,0.00002,-0.14512,-0.38002,0.04150,,,,,,,,,,,,,,,,,,,,,,,,,,0,0,0,0,0
2.8040,1783187784.7243,1,1,1.0000,0.0000,1.44681,0.21366,-2.78240,0.99791,1.57080,0.00002,-0.14512,-0.38002,0.04147,,,,,,,,,,,,,,,,,,,,,,,,,,0,0,0,0,0
2.8043,1783187784.7246,1,1,1.0000,0.0000,1.44681,0.21366,-2.78240,0.99791,1.57080,0.00002,-0.14512,-0.38002,0.04147,,,,,,,,,,,,,,,,,,,,,,,,,,0,0,0,0,0
2.8148,1783187784.7350,1,1,1.0000,0.0000,1.44681,0.21345,-2.78246,0.99818,1.57080,0.00002,-0.14512,-0.38002,0.04141,,,,,,,,,,,,,,,,,,,,,,,,,,0,0,0,0,0
2.8151,1783187784.7353,1,1,1.0000,0.0000,1.44681,0.21345,-2.78246,0.99818,1.57080,0.00002,-0.14512,-0.38002,0.04141,,,,,,,,,,,,,,,,,,,,,,,,,,0,0,0,0,0
2.8273,1783187784.7475,1,1,1.0000,0.0000,1.44681,0.21341,-2.78246,0.99822,1.57080,0.00002,-0.14512,-0.38002,0.04140,,,,,,,,,,,,,,,,,,,,,,,,,,0,0,0,0,0
2.8389,1783187784.7592,1,1,1.0000,0.0000,1.44681,0.21327,-2.78250,0.99839,1.57080,0.00002,-0.14512,-0.38002,0.04137,,,,,,,,,,,,,,,,,,,,,,,,,,0,0,0,0,0
2.8392,1783187784.7595,1,1,1.0000,0.0000,1.44681,0.21327,-2.78250,0.99839,1.57080,0.00002,-0.14512,-0.38002,0.04137,,,,,,,,,,,,,,,,,,,,,,,,,,0,0,0,0,0
2.8467,1783187784.7669,1,1,1.0000,0.0000,1.44681,0.21321,-2.78251,0.99847,1.57080,0.00002,-0.14512,-0.38002,0.04135,,,,,,,,,,,,,,,,,,,,,,,,,,0,0,0,0,0
2.8604,1783187784.7807,1,1,1.0000,0.0000,1.44681,0.21311,-2.78254,0.99859,1.57080,0.00002,-0.14512,-0.38002,0.04133,,,,,,,,,,,,,,,,,,,,,,,,,,0,0,0,0,0
2.8608,1783187784.7811,1,1,1.0000,0.0000,1.44681,0.21311,-2.78254,0.99859,1.57080,0.00002,-0.14512,-0.38002,0.04133,,,,,,,,,,,,,,,,,,,,,,,,,,0,0,0,0,0
2.8696,1783187784.7899,1,1,1.0000,0.0000,1.44681,0.21291,-2.78259,0.99885,1.57080,0.00002,-0.14512,-0.38002,0.04127,,,,,,,,,,,,,,,,,,,,,,,,,,0,0,0,0,0
2.8760,1783187784.7963,1,1,1.0000,0.0000,1.44681,0.21283,-2.78260,0.99894,1.57080,0.00002,-0.14512,-0.38002,0.04126,,,,,,,,,,,,,,,,,,,,,,,,,,0,0,0,0,0
2.8888,1783187784.8091,1,1,1.0000,0.0000,1.44681,0.21280,-2.78261,0.99898,1.57080,0.00002,-0.14512,-0.38002,0.04125,,,,,,,,,,,,,,,,,,,,,,,,,,0,0,0,0,0
2.8952,1783187784.8155,1,1,1.0000,0.0000,1.44681,0.21272,-2.78263,0.99908,1.57080,0.00002,-0.14512,-0.38002,0.04123,,,,,,,,,,,,,,,,,,,,,,,,,,0,0,0,0,0
2.9064,1783187784.8267,1,1,1.0000,0.0000,1.44681,0.21260,-2.78266,0.99922,1.57080,0.00002,-0.14512,-0.38002,0.04120,,,,,,,,,,,,,,,,,,,,,,,,,,0,0,0,0,0
2.9142,1783187784.8344,1,1,1.0000,0.0000,1.44681,0.21255,-2.78267,0.99928,1.57080,0.00002,-0.14512,-0.38002,0.04119,,,,,,,,,,,,,,,,,,,,,,,,,,0,0,0,0,0
2.9310,1783187784.8513,1,1,1.0000,0.0000,1.44681,0.21229,-2.78274,0.99961,1.57080,0.00002,-0.14512,-0.38002,0.04112,,,,,,,,,,,,,,,,,,,,,,,,,,0,0,0,0,0
2.9344,1783187784.8547,1,1,1.0000,0.0000,1.44681,0.21222,-2.78275,0.99969,1.57080,0.00002,-0.14512,-0.38002,0.04110,,,,,,,,,,,,,,,,,,,,,,,,,,0,0,0,0,0
2.9495,1783187784.8698,1,1,1.0000,0.0000,1.44681,0.21215,-2.78277,0.99978,1.57080,0.00002,-0.14512,-0.38002,0.04108,,,,,,,,,,,,,,,,,,,,,,,,,,0,0,0,0,0
2.9560,1783187784.8763,1,1,1.0000,0.0000,1.44681,0.21211,-2.78278,0.99984,1.57080,0.00002,-0.14512,-0.38002,0.04107,,,,,,,,,,,,,,,,,,,,,,,,,,0,0,0,0,0
2.9563,1783187784.8766,1,1,1.0000,0.0000,1.44681,0.21211,-2.78278,0.99984,1.57080,0.00002,-0.14512,-0.38002,0.04107,,,,,,,,,,,,,,,,,,,,,,,,,,0,0,0,0,0
2.9652,1783187784.8855,1,1,1.0000,0.0000,1.44681,0.21199,-2.78281,0.99998,1.57080,0.00002,-0.14512,-0.38002,0.04104,,,,,,,,,,,,,,,,,,,,,,,,,,0,0,0,0,0
2.9750,1783187784.8953,1,1,1.0000,0.0000,1.44681,0.21194,-2.78282,1.00004,1.57080,0.00002,-0.14512,-0.38002,0.04103,,,,,,,,,,,,,,,,,,,,,,,,,,0,0,0,0,0
2.9855,1783187784.9058,1,1,1.0000,0.0000,1.44681,0.21176,-2.78287,1.00028,1.57080,0.00002,-0.14512,-0.38002,0.04098,,,,,,,,,,,,,,,,,,,,,,,,,,0,0,0,0,0
2.9857,1783187784.9060,1,1,1.0000,0.0000,1.44681,0.21176,-2.78287,1.00028,1.57080,0.00002,-0.14512,-0.38002,0.04098,,,,,,,,,,,,,,,,,,,,,,,,,,0,0,0,0,0
2.9943,1783187784.9145,1,1,1.0000,0.0000,1.44681,0.21161,-2.78290,1.00045,1.57080,0.00002,-0.14512,-0.38002,0.04095,,,,,,,,,,,,,,,,,,,,,,,,,,0,0,0,0,0
3.0056,1783187784.9259,1,1,1.0000,0.0000,1.44681,0.21158,-2.78291,1.00049,1.57080,0.00002,-0.14512,-0.38002,0.04094,,,,,,,,,,,,,,,,,,,,,,,,,,0,0,0,0,0
3.0059,1783187784.9261,1,1,1.0000,0.0000,1.44681,0.21158,-2.78291,1.00049,1.57080,0.00002,-0.14512,-0.38002,0.04094,,,,,,,,,,,,,,,,,,,,,,,,,,0,0,0,0,0
3.0154,1783187784.9357,1,1,1.0000,0.0000,1.44681,0.21150,-2.78293,1.00060,1.57080,0.00002,-0.14512,-0.38002,0.04092,,,,,,,,,,,,,,,,,,,,,,,,,,0,0,0,0,0
3.0314,1783187784.9517,1,1,1.0000,0.0000,1.44681,0.21137,-2.78296,1.00076,1.57080,0.00002,-0.14512,-0.38002,0.04088,,,,,,,,,,,,,,,,,,,,,,,,,,0,0,0,0,0
3.0416,1783187784.9619,1,1,1.0000,0.0000,1.44681,0.21122,-2.78300,1.00095,1.57080,0.00002,-0.14512,-0.38002,0.04085,,,,,,,,,,,,,,,,,,,,,,,,,,0,0,0,0,0
3.0419,1783187784.9622,1,1,1.0000,0.0000,1.44681,0.21122,-2.78300,1.00095,1.57080,0.00002,-0.14512,-0.38002,0.04085,,,,,,,,,,,,,,,,,,,,,,,,,,0,0,0,0,0
3.0486,1783187784.9689,1,1,1.0000,0.0000,1.44681,0.21114,-2.78301,1.00104,1.57080,0.00002,-0.14512,-0.38002,0.04083,,,,,,,,,,,,,,,,,,,,,,,,,,0,0,0,0,0
3.0606,1783187784.9809,1,1,1.0000,0.0000,1.44681,0.21100,-2.78305,1.00121,1.57080,0.00002,-0.14512,-0.38002,0.04079,,,,,,,,,,,,,,,,,,,,,,,,,,0,0,0,0,0
3.0680,1783187784.9883,1,1,1.0000,0.0000,1.44681,0.21097,-2.78306,1.00125,1.57080,0.00002,-0.14512,-0.38002,0.04078,,,,,,,,,,,,,,,,,,,,,,,,,,0,0,0,0,0
3.0775,1783187784.9978,1,1,1.0000,0.0000,1.44681,0.21083,-2.78309,1.00143,1.57080,0.00002,-0.14512,-0.38002,0.04075,,,,,,,,,,,,,,,,,,,,,,,,,,0,0,0,0,0
3.0951,1783187785.0154,1,1,1.0000,0.0000,1.44681,0.21072,-2.78312,1.00156,1.57080,0.00002,-0.14512,-0.38002,0.04072,,,,,,,,,,,,,,,,,,,,,,,,,,0,0,0,0,0
3.0965,1783187785.0167,1,1,1.0000,0.0000,1.44681,0.21072,-2.78312,1.00156,1.57080,0.00002,-0.14512,-0.38002,0.04072,,,,,,,,,,,,,,,,,,,,,,,,,,0,0,0,0,0
3.0968,1783187785.0171,1,1,1.0000,0.0000,1.44681,0.21072,-2.78312,1.00156,1.57080,0.00002,-0.14512,-0.38002,0.04072,,,,,,,,,,,,,,,,,,,,,,,,,,0,0,0,0,0
3.1081,1783187785.0284,1,1,1.0000,0.0000,1.44681,0.21053,-2.78316,1.00180,1.57080,0.00002,-0.14512,-0.38002,0.04067,,,,,,,,,,,,,,,,,,,,,,,,,,0,0,0,0,0
3.1155,1783187785.0358,1,1,1.0000,0.0000,1.44681,0.21039,-2.78320,1.00197,1.57080,0.00002,-0.14512,-0.38002,0.04064,,,,,,,,,,,,,,,,,,,,,,,,,,0,0,0,0,0
3.1295,1783187785.0498,1,1,1.0000,0.0000,1.44681,0.21032,-2.78321,1.00206,1.57080,0.00002,-0.14512,-0.38002,0.04062,,,,,,,,,,,,,,,,,,,,,,,,,,0,0,0,0,0
3.1297,1783187785.0500,1,1,1.0000,0.0000,1.44681,0.21032,-2.78321,1.00206,1.57080,0.00002,-0.14512,-0.38002,0.04062,,,,,,,,,,,,,,,,,,,,,,,,,,0,0,0,0,0
3.1374,1783187785.0577,1,1,1.0000,0.0000,1.44681,0.21022,-2.78324,1.00219,1.57080,0.00002,-0.14512,-0.38002,0.04059,,,,,,,,,,,,,,,,,,,,,,,,,,0,0,0,0,0
3.1440,1783187785.0642,1,1,1.0000,0.0000,1.44681,0.21015,-2.78325,1.00226,1.57080,0.00002,-0.14512,-0.38002,0.04058,,,,,,,,,,,,,,,,,,,,,,,,,,0,0,0,0,0
3.1443,1783187785.0646,1,1,1.0000,0.0000,1.44681,0.21015,-2.78325,1.00226,1.57080,0.00002,-0.14512,-0.38002,0.04058,,,,,,,,,,,,,,,,,,,,,,,,,,0,0,0,0,0
3.1543,1783187785.0745,1,1,1.0000,0.0000,1.44681,0.21011,-2.78327,1.00232,1.57080,0.00002,-0.14512,-0.38002,0.04057,,,,,,,,,,,,,,,,,,,,,,,,,,0,0,0,0,0
3.1655,1783187785.0858,1,1,1.0000,0.0000,1.44681,0.20992,-2.78331,1.00256,1.57080,0.00002,-0.14512,-0.38002,0.04052,,,,,,,,,,,,,,,,,,,,,,,,,,0,0,0,0,0
3.1762,1783187785.0965,1,1,1.0000,0.0000,1.44680,0.20978,-2.78335,1.00273,1.57080,0.00002,-0.14512,-0.38002,0.04048,,,,,,,,,,,,,,,,,,,,,,,,,,0,0,0,0,0
3.1963,1783187785.1165,1,1,1.0000,0.0000,1.44680,0.20962,-2.78338,1.00293,1.57080,0.00002,-0.14512,-0.38002,0.04044,,,,,,,,,,,,,,,,,,,,,,,,,,0,0,0,0,0
3.2025,1783187785.1228,1,1,1.0000,0.0000,1.44680,0.20948,-2.78342,1.00311,1.57079,0.00002,-0.14512,-0.38002,0.04041,,,,,,,,,,,,,,,,,,,,,,,,,,0,0,0,0,0
3.2100,1783187785.1303,1,1,1.0000,0.0000,1.44680,0.20946,-2.78342,1.00312,1.57079,0.00002,-0.14512,-0.38002,0.04040,,,,,,,,,,,,,,,,,,,,,,,,,,0,0,0,0,0
3.2104,1783187785.1307,1,1,1.0000,0.0000,1.44680,0.20946,-2.78342,1.00312,1.57079,0.00002,-0.14512,-0.38002,0.04040,,,,,,,,,,,,,,,,,,,,,,,,,,0,0,0,0,0
3.2247,1783187785.1450,1,1,1.0000,0.0000,1.44680,0.20932,-2.78346,1.00330,1.57079,0.00002,-0.14512,-0.38002,0.04037,,,,,,,,,,,,,,,,,,,,,,,,,,0,0,0,0,0
3.2309,1783187785.1512,1,1,1.0000,0.0000,1.44680,0.20918,-2.78349,1.00348,1.57079,0.00002,-0.14512,-0.38002,0.04033,,,,,,,,,,,,,,,,,,,,,,,,,,0,0,0,0,0
3.2312,1783187785.1515,1,1,1.0000,0.0000,1.44680,0.20918,-2.78349,1.00348,1.57079,0.00002,-0.14512,-0.38002,0.04033,,,,,,,,,,,,,,,,,,,,,,,,,,0,0,0,0,0
3.2415,1783187785.1618,1,1,1.0000,0.0000,1.44680,0.20909,-2.78351,1.00358,1.57079,0.00002,-0.14512,-0.38002,0.04031,,,,,,,,,,,,,,,,,,,,,,,,,,0,0,0,0,0
3.2483,1783187785.1686,1,1,1.0000,0.0000,1.44680,0.20906,-2.78352,1.00362,1.57079,0.00002,-0.14512,-0.38002,0.04030,,,,,,,,,,,,,,,,,,,,,,,,,,0,0,0,0,0
3.2622,1783187785.1825,1,1,1.0000,0.0000,1.44680,0.20881,-2.78358,1.00394,1.57079,0.00002,-0.14512,-0.38002,0.04024,,,,,,,,,,,,,,,,,,,,,,,,,,0,0,0,0,0
3.2684,1783187785.1887,1,1,1.0000,0.0000,1.44680,0.20881,-2.78358,1.00394,1.57079,0.00002,-0.14512,-0.38002,0.04024,,,,,,,,,,,,,,,,,,,,,,,,,,0,0,0,0,0
3.2810,1783187785.2013,1,1,1.0000,0.0000,1.44680,0.20871,-2.78360,1.00406,1.57079,0.00002,-0.14512,-0.38002,0.04021,,,,,,,,,,,,,,,,,,,,,,,,,,0,0,0,0,0
3.2886,1783187785.2089,1,1,1.0000,0.0000,1.44680,0.20858,-2.78363,1.00422,1.57079,0.00002,-0.14512,-0.38002,0.04018,,,,,,,,,,,,,,,,,,,,,,,,,,0,0,0,0,0
3.2985,1783187785.2188,1,1,1.0000,0.0000,1.44680,0.20844,-2.78367,1.00439,1.57079,0.00002,-0.14512,-0.38002,0.04014,,,,,,,,,,,,,,,,,,,,,,,,,,0,0,0,0,0
3.3118,1783187785.2321,1,1,1.0000,0.0000,1.44680,0.20834,-2.78369,1.00451,1.57079,0.00002,-0.14512,-0.38002,0.04012,,,,,,,,,,,,,,,,,,,,,,,,,,0,0,0,0,0
3.3400,1783187785.2603,1,1,1.0000,0.0000,1.44680,0.20804,-2.78376,1.00489,1.57079,0.00002,-0.14512,-0.38002,0.04004,,,,,,,,,,,,,,,,,,,,,,,,,,0,0,0,0,0
3.3404,1783187785.2607,1,1,1.0000,0.0000,1.44680,0.20804,-2.78376,1.00489,1.57079,0.00002,-0.14512,-0.38002,0.04004,,,,,,,,,,,,,,,,,,,,,,,,,,0,0,0,0,0
3.3497,1783187785.2700,1,1,1.0000,0.0000,1.44680,0.20784,-2.78381,1.00514,1.57079,0.00002,-0.14512,-0.38002,0.03999,,,,,,,,,,,,,,,,,,,,,,,,,,0,0,0,0,0
3.3500,1783187785.2703,1,1,1.0000,0.0000,1.44680,0.20784,-2.78381,1.00514,1.57079,0.00002,-0.14512,-0.38002,0.03999,,,,,,,,,,,,,,,,,,,,,,,,,,0,0,0,0,0
3.3706,1783187785.2909,1,1,1.0000,0.0000,1.44680,0.20767,-2.78385,1.00534,1.57079,0.00002,-0.14512,-0.38002,0.03995,,,,,,,,,,,,,,,,,,,,,,,,,,0,0,0,0,0
3.3709,1783187785.2912,1,1,1.0000,0.0000,1.44680,0.20767,-2.78385,1.00534,1.57079,0.00002,-0.14512,-0.38002,0.03995,,,,,,,,,,,,,,,,,,,,,,,,,,0,0,0,0,0
3.3850,1783187785.3052,1,1,1.0000,0.0000,1.44680,0.20747,-2.78390,1.00560,1.57079,0.00002,-0.14512,-0.38002,0.03990,,,,,,,,,,,,,,,,,,,,,,,,,,0,0,0,0,0
3.3929,1783187785.3131,1,1,1.0000,0.0000,1.44680,0.20740,-2.78392,1.00569,1.57079,0.00002,-0.14512,-0.38002,0.03988,,,,,,,,,,,,,,,,,,,,,,,,,,0,0,0,0,0
3.4010,1783187785.3213,1,1,1.0000,0.0000,1.44680,0.20736,-2.78392,1.00573,1.57079,0.00002,-0.14512,-0.38002,0.03987,,,,,,,,,,,,,,,,,,,,,,,,,,0,0,0,0,0
3.4102,1783187785.3305,1,1,1.0000,0.0000,1.44680,0.20722,-2.78396,1.00590,1.57079,0.00002,-0.14512,-0.38002,0.03984,,,,,,,,,,,,,,,,,,,,,,,,,,0,0,0,0,0
3.4367,1783187785.3570,1,1,1.0000,0.0000,1.44680,0.20699,-2.78401,1.00618,1.57079,0.00002,-0.14512,-0.38002,0.03978,,,,,,,,,,,,,,,,,,,,,,,,,,0,0,0,0,0
3.4483,1783187785.3686,1,1,1.0000,0.0000,1.44680,0.20678,-2.78406,1.00645,1.57079,0.00002,-0.14512,-0.38002,0.03973,,,,,,,,,,,,,,,,,,,,,,,,,,0,0,0,0,0
3.4489,1783187785.3691,1,1,1.0000,0.0000,1.44680,0.20678,-2.78406,1.00645,1.57079,0.00002,-0.14512,-0.38002,0.03973,,,,,,,,,,,,,,,,,,,,,,,,,,0,0,0,0,0
3.4495,1783187785.3698,1,1,1.0000,0.0000,1.44680,0.20678,-2.78406,1.00645,1.57079,0.00002,-0.14512,-0.38002,0.03973,,,,,,,,,,,,,,,,,,,,,,,,,,0,0,0,0,0
3.4593,1783187785.3796,1,1,1.0000,0.0000,1.44680,0.20675,-2.78407,1.00649,1.57079,0.00002,-0.14512,-0.38002,0.03972,,,,,,,,,,,,,,,,,,,,,,,,,,0,0,0,0,0
3.5224,1783187785.4427,1,1,1.0000,0.0000,1.44680,0.20609,-2.78423,1.00730,1.57079,0.00002,-0.14512,-0.38002,0.03955,,,,,,,,,,,,,,,,,,,,,,,,,,0,0,0,0,0
3.5527,1783187785.4730,1,1,1.0000,0.0000,1.44680,0.20583,-2.78429,1.00763,1.57079,0.00002,-0.14512,-0.38002,0.03949,,,,,,,,,,,,,,,,,,,,,,,,,,0,0,0,0,0
3.5532,1783187785.4735,1,1,1.0000,0.0000,1.44680,0.20583,-2.78429,1.00763,1.57079,0.00002,-0.14512,-0.38002,0.03949,,,,,,,,,,,,,,,,,,,,,,,,,,0,0,0,0,0
3.5537,1783187785.4740,1,1,1.0000,0.0000,1.44680,0.20576,-2.78431,1.00771,1.57079,0.00002,-0.14512,-0.38002,0.03947,,,,,,,,,,,,,,,,,,,,,,,,,,0,0,0,0,0
3.5540,1783187785.4743,1,1,1.0000,0.0000,1.44680,0.20576,-2.78431,1.00771,1.57079,0.00002,-0.14512,-0.38002,0.03947,,,,,,,,,,,,,,,,,,,,,,,,,,0,0,0,0,0
3.5543,1783187785.4746,1,1,1.0000,0.0000,1.44680,0.20576,-2.78431,1.00771,1.57079,0.00002,-0.14512,-0.38002,0.03947,,,,,,,,,,,,,,,,,,,,,,,,,,0,0,0,0,0
3.5546,1783187785.4749,1,1,1.0000,0.0000,1.44680,0.20576,-2.78431,1.00771,1.57079,0.00002,-0.14512,-0.38002,0.03947,,,,,,,,,,,,,,,,,,,,,,,,,,0,0,0,0,0
3.5579,1783187785.4782,1,1,1.0000,0.0000,1.44680,0.20569,-2.78432,1.00780,1.57079,0.00002,-0.14512,-0.38002,0.03945,,,,,,,,,,,,,,,,,,,,,,,,,,0,0,0,0,0
3.5582,1783187785.4785,1,1,1.0000,0.0000,1.44680,0.20569,-2.78432,1.00780,1.57079,0.00002,-0.14512,-0.38002,0.03945,,,,,,,,,,,,,,,,,,,,,,,,,,0,0,0,0,0
3.5686,1783187785.4889,1,1,1.0000,0.0000,1.44680,0.20555,-2.78436,1.00798,1.57079,0.00002,-0.14512,-0.38002,0.03942,,,,,,,,,,,,,,,,,,,,,,,,,,0,0,0,0,0
3.5898,1783187785.5101,1,1,1.0000,0.0000,1.44680,0.20537,-2.78440,1.00819,1.57079,0.00002,-0.14512,-0.38002,0.03937,,,,,,,,,,,,,,,,,,,,,,,,,,0,0,0,0,0
3.5901,1783187785.5104,1,1,1.0000,0.0000,1.44680,0.20537,-2.78440,1.00819,1.57079,0.00002,-0.14512,-0.38002,0.03937,,,,,,,,,,,,,,,,,,,,,,,,,,0,0,0,0,0
3.5910,1783187785.5113,1,1,1.0000,0.0000,1.44680,0.20537,-2.78440,1.00819,1.57079,0.00002,-0.14512,-0.38002,0.03937,,,,,,,,,,,,,,,,,,,,,,,,,,0,0,0,0,0
3.5982,1783187785.5185,1,1,1.0000,0.0000,1.44680,0.20531,-2.78441,1.00827,1.57079,0.00002,-0.14512,-0.38002,0.03936,,,,,,,,,,,,,,,,,,,,,,,,,,0,0,0,0,0
3.5985,1783187785.5188,1,1,1.0000,0.0000,1.44680,0.20531,-2.78441,1.00827,1.57079,0.00002,-0.14512,-0.38002,0.03936,,,,,,,,,,,,,,,,,,,,,,,,,,0,0,0,0,0
3.6092,1783187785.5295,1,1,1.0000,0.0000,1.44680,0.20526,-2.78443,1.00833,1.57079,0.00002,-0.14512,-0.38002,0.03934,,,,,,,,,,,,,,,,,,,,,,,,,,0,0,0,0,0
3.6188,1783187785.5391,1,1,1.0000,0.0000,1.44680,0.20507,-2.78447,1.00856,1.57079,0.00002,-0.14512,-0.38002,0.03930,,,,,,,,,,,,,,,,,,,,,,,,,,0,0,0,0,0
3.6287,1783187785.5489,1,1,1.0000,0.0000,1.44680,0.20493,-2.78451,1.00874,1.57079,0.00002,-0.14512,-0.38002,0.03926,,,,,,,,,,,,,,,,,,,,,,,,,,0,0,0,0,0
3.6399,1783187785.5602,1,1,1.0000,0.0000,1.44680,0.20488,-2.78452,1.00880,1.57079,0.00002,-0.14512,-0.38002,0.03925,,,,,,,,,,,,,,,,,,,,,,,,,,0,0,0,0,0
3.6532,1783187785.5734,1,1,1.0000,0.0000,1.44680,0.20470,-2.78456,1.00902,1.57079,0.00002,-0.14512,-0.38002,0.03920,,,,,,,,,,,,,,,,,,,,,,,,,,0,0,0,0,0
3.6601,1783187785.5804,1,1,1.0000,0.0000,1.44680,0.20463,-2.78458,1.00911,1.57079,0.00002,-0.14512,-0.38002,0.03918,,,,,,,,,,,,,,,,,,,,,,,,,,0,0,0,0,0
3.6682,1783187785.5884,1,1,1.0000,0.0000,1.44680,0.20458,-2.78459,1.00917,1.57079,0.00002,-0.14512,-0.38002,0.03917,,,,,,,,,,,,,,,,,,,,,,,,,,0,0,0,0,0
3.6789,1783187785.5992,1,1,1.0000,0.0000,1.44680,0.20440,-2.78463,1.00940,1.57079,0.00002,-0.14512,-0.38002,0.03913,,,,,,,,,,,,,,,,,,,,,,,,,,0,0,0,0,0
3.6939,1783187785.6142,1,1,1.0000,0.0000,1.44680,0.20424,-2.78467,1.00959,1.57079,0.00002,-0.14512,-0.38002,0.03909,,,,,,,,,,,,,,,,,,,,,,,,,,0,0,0,0,0
3.6984,1783187785.6187,1,1,1.0000,0.0000,1.44680,0.20421,-2.78468,1.00963,1.57079,0.00002,-0.14512,-0.38002,0.03908,,,,,,,,,,,,,,,,,,,,,,,,,,0,0,0,0,0
3.7131,1783187785.6334,1,1,1.0000,0.0000,1.44680,0.20403,-2.78472,1.00986,1.57079,0.00002,-0.14512,-0.38002,0.03903,,,,,,,,,,,,,,,,,,,,,,,,,,0,0,0,0,0
3.7138,1783187785.6341,1,1,1.0000,0.0000,1.44680,0.20395,-2.78474,1.00995,1.57079,0.00002,-0.14512,-0.38002,0.03902,,,,,,,,,,,,,,,,,,,,,,,,,,0,0,0,0,0
3.7217,1783187785.6420,1,1,1.0000,0.0000,1.44680,0.20394,-2.78474,1.00996,1.57079,0.00002,-0.14512,-0.38002,0.03901,,,,,,,,,,,,,,,,,,,,,,,,,,0,0,0,0,0
3.7285,1783187785.6488,1,1,1.0000,0.0000,1.44680,0.20391,-2.78475,1.01000,1.57079,0.00002,-0.14512,-0.38002,0.03900,,,,,,,,,,,,,,,,,,,,,,,,,,0,0,0,0,0
3.7419,1783187785.6622,1,1,1.0000,0.0000,1.44680,0.20365,-2.78481,1.01032,1.57079,0.00002,-0.14512,-0.38002,0.03894,,,,,,,,,,,,,,,,,,,,,,,,,,0,0,0,0,0
3.7422,1783187785.6625,1,1,1.0000,0.0000,1.44680,0.20365,-2.78481,1.01032,1.57079,0.00002,-0.14512,-0.38002,0.03894,,,,,,,,,,,,,,,,,,,,,,,,,,0,0,0,0,0
3.7497,1783187785.6700,1,1,1.0000,0.0000,1.44680,0.20358,-2.78482,1.01041,1.57079,0.00002,-0.14512,-0.38002,0.03892,,,,,,,,,,,,,,,,,,,,,,,,,,0,0,0,0,0
3.7582,1783187785.6785,1,1,1.0000,0.0000,1.44680,0.20354,-2.78484,1.01046,1.57079,0.00002,-0.14512,-0.38002,0.03891,,,,,,,,,,,,,,,,,,,,,,,,,,0,0,0,0,0
3.7693,1783187785.6896,1,1,1.0000,0.0000,1.44680,0.20342,-2.78486,1.01060,1.57079,0.00002,-0.14512,-0.38002,0.03888,,,,,,,,,,,,,,,,,,,,,,,,,,0,0,0,0,0
3.7789,1783187785.6992,1,1,1.0000,0.0000,1.44680,0.20328,-2.78490,1.01078,1.57079,0.00002,-0.14512,-0.38002,0.03885,,,,,,,,,,,,,,,,,,,,,,,,,,0,0,0,0,0
3.7903,1783187785.7106,1,1,1.0000,0.0000,1.44680,0.20318,-2.78492,1.01090,1.57079,0.00002,-0.14512,-0.38002,0.03882,,,,,,,,,,,,,,,,,,,,,,,,,,0,0,0,0,0
3.8001,1783187785.7204,1,1,1.0000,0.0000,1.44680,0.20305,-2.78495,1.01106,1.57079,0.00002,-0.14512,-0.38002,0.03879,,,,,,,,,,,,,,,,,,,,,,,,,,0,0,0,0,0
3.8005,1783187785.7208,1,1,1.0000,0.0000,1.44680,0.20305,-2.78495,1.01106,1.57079,0.00002,-0.14512,-0.38002,0.03879,,,,,,,,,,,,,,,,,,,,,,,,,,0,0,0,0,0
3.8100,1783187785.7303,1,1,1.0000,0.0000,1.44680,0.20291,-2.78498,1.01124,1.57079,0.00002,-0.14512,-0.38001,0.03875,,,,,,,,,,,,,,,,,,,,,,,,,,0,0,0,0,0
3.8239,1783187785.7442,1,1,1.0000,0.0000,1.44680,0.20281,-2.78501,1.01136,1.57079,0.00002,-0.14512,-0.38001,0.03873,,,,,,,,,,,,,,,,,,,,,,,,,,0,0,0,0,0
3.8302,1783187785.7505,1,1,1.0000,0.0000,1.44680,0.20268,-2.78504,1.01153,1.57079,0.00002,-0.14512,-0.38001,0.03870,,,,,,,,,,,,,,,,,,,,,,,,,,0,0,0,0,0
3.8306,1783187785.7509,1,1,1.0000,0.0000,1.44680,0.20268,-2.78504,1.01153,1.57079,0.00002,-0.14512,-0.38001,0.03870,,,,,,,,,,,,,,,,,,,,,,,,,,0,0,0,0,0
3.8513,1783187785.7715,1,1,1.0000,0.0000,1.44680,0.20251,-2.78508,1.01173,1.57079,0.00002,-0.14512,-0.38001,0.03865,,,,,,,,,,,,,,,,,,,,,,,,,,0,0,0,0,0
3.8515,1783187785.7718,1,1,1.0000,0.0000,1.44680,0.20251,-2.78508,1.01173,1.57079,0.00002,-0.14512,-0.38001,0.03865,,,,,,,,,,,,,,,,,,,,,,,,,,0,0,0,0,0
3.8583,1783187785.7786,1,1,1.0000,0.0000,1.44680,0.20237,-2.78511,1.01190,1.57079,0.00002,-0.14512,-0.38001,0.03862,,,,,,,,,,,,,,,,,,,,,,,,,,0,0,0,0,0
3.8699,1783187785.7901,1,1,1.0000,0.0000,1.44680,0.20223,-2.78514,1.01207,1.57079,0.00002,-0.14512,-0.38001,0.03858,,,,,,,,,,,,,,,,,,,,,,,,,,0,0,0,0,0
3.8780,1783187785.7983,1,1,1.0000,0.0000,1.44680,0.20218,-2.78515,1.01213,1.57079,0.00002,-0.14512,-0.38001,0.03857,,,,,,,,,,,,,,,,,,,,,,,,,,0,0,0,0,0
3.8783,1783187785.7986,1,1,1.0000,0.0000,1.44680,0.20218,-2.78515,1.01213,1.57079,0.00002,-0.14512,-0.38001,0.03857,,,,,,,,,,,,,,,,,,,,,,,,,,0,0,0,0,0
3.8919,1783187785.8122,1,1,1.0000,0.0000,1.44680,0.20200,-2.78520,1.01236,1.57079,0.00002,-0.14512,-0.38001,0.03853,,,,,,,,,,,,,,,,,,,,,,,,,,0,0,0,0,0
3.9029,1783187785.8232,1,1,1.0000,0.0000,1.44680,0.20192,-2.78522,1.01247,1.57079,0.00002,-0.14512,-0.38001,0.03851,,,,,,,,,,,,,,,,,,,,,,,,,,0,0,0,0,0
3.9143,1783187785.8346,1,1,1.0000,0.0000,1.44680,0.20177,-2.78525,1.01265,1.57079,0.00002,-0.14512,-0.38001,0.03847,,,,,,,,,,,,,,,,,,,,,,,,,,0,0,0,0,0
3.9207,1783187785.8410,1,1,1.0000,0.0000,1.44680,0.20170,-2.78527,1.01273,1.57079,0.00002,-0.14512,-0.38001,0.03845,,,,,,,,,,,,,,,,,,,,,,,,,,0,0,0,0,0
3.9287,1783187785.8490,1,1,1.0000,0.0000,1.44680,0.20156,-2.78530,1.01291,1.57079,0.00002,-0.14512,-0.38001,0.03842,,,,,,,,,,,,,,,,,,,,,,,,,,0,0,0,0,0
3.9290,1783187785.8493,1,1,1.0000,0.0000,1.44680,0.20156,-2.78530,1.01291,1.57079,0.00002,-0.14512,-0.38001,0.03842,,,,,,,,,,,,,,,,,,,,,,,,,,0,0,0,0,0
3.9412,1783187785.8615,1,1,1.0000,0.0000,1.44680,0.20151,-2.78531,1.01297,1.57079,0.00003,-0.14512,-0.38001,0.03840,,,,,,,,,,,,,,,,,,,,,,,,,,0,0,0,0,0
3.9546,1783187785.8749,1,1,1.0000,0.0000,1.44680,0.20125,-2.78537,1.01329,1.57079,0.00003,-0.14512,-0.38001,0.03834,,,,,,,,,,,,,,,,,,,,,,,,,,0,0,0,0,0
3.9549,1783187785.8752,1,1,1.0000,0.0000,1.44680,0.20125,-2.78537,1.01329,1.57079,0.00003,-0.14512,-0.38001,0.03834,,,,,,,,,,,,,,,,,,,,,,,,,,0,0,0,0,0
3.9582,1783187785.8785,1,1,1.0000,0.0000,1.44680,0.20118,-2.78539,1.01337,1.57079,0.00003,-0.14512,-0.38001,0.03832,,,,,,,,,,,,,,,,,,,,,,,,,,0,0,0,0,0
3.9585,1783187785.8788,1,1,1.0000,0.0000,1.44680,0.20118,-2.78539,1.01337,1.57079,0.00003,-0.14512,-0.38001,0.03832,,,,,,,,,,,,,,,,,,,,,,,,,,0,0,0,0,0
3.9685,1783187785.8888,1,1,1.0000,0.0000,1.44680,0.20117,-2.78539,1.01338,1.57079,0.00003,-0.14512,-0.38001,0.03832,,,,,,,,,,,,,,,,,,,,,,,,,,0,0,0,0,0
3.9688,1783187785.8891,1,1,1.0000,0.0000,1.44680,0.20117,-2.78539,1.01338,1.57079,0.00003,-0.14512,-0.38001,0.03832,,,,,,,,,,,,,,,,,,,,,,,,,,0,0,0,0,0
3.9790,1783187785.8993,1,1,1.0000,0.0000,1.44680,0.20106,-2.78542,1.01352,1.57079,0.00003,-0.14512,-0.38001,0.03829,,,,,,,,,,,,,,,,,,,,,,,,,,0,0,0,0,0
3.9896,1783187785.9099,1,1,1.0000,0.0000,1.44680,0.20094,-2.78545,1.01367,1.57079,0.00003,-0.14512,-0.38001,0.03826,,,,,,,,,,,,,,,,,,,,,,,,,,0,0,0,0,0
3.9991,1783187785.9194,1,1,1.0000,0.0000,1.44680,0.20089,-2.78546,1.01373,1.57079,0.00003,-0.14512,-0.38001,0.03825,,,,,,,,,,,,,,,,,,,,,,,,,,0,0,0,0,0
4.0091,1783187785.9294,1,1,1.0000,0.0000,1.44680,0.20078,-2.78549,1.01387,1.57079,0.00003,-0.14512,-0.38001,0.03822,,,,,,,,,,,,,,,,,,,,,,,,,,0,0,0,0,0
4.0183,1783187785.9386,1,1,1.0000,0.0000,1.44680,0.20056,-2.78554,1.01414,1.57079,0.00003,-0.14512,-0.38001,0.03817,,,,,,,,,,,,,,,,,,,,,,,,,,0,0,0,0,0
4.0300,1783187785.9503,1,1,1.0000,0.0000,1.44680,0.20052,-2.78554,1.01418,1.57079,0.00003,-0.14512,-0.38001,0.03816,,,,,,,,,,,,,,,,,,,,,,,,,,0,0,0,0,0
4.0304,1783187785.9507,1,1,1.0000,0.0000,1.44680,0.20052,-2.78554,1.01418,1.57079,0.00003,-0.14512,-0.38001,0.03816,,,,,,,,,,,,,,,,,,,,,,,,,,0,0,0,0,0
4.0399,1783187785.9602,1,1,1.0000,0.0000,1.44680,0.20044,-2.78556,1.01429,1.57079,0.00003,-0.14512,-0.38001,0.03814,,,,,,,,,,,,,,,,,,,,,,,,,,0,0,0,0,0
4.0404,1783187785.9607,1,1,1.0000,0.0000,1.44680,0.20044,-2.78556,1.01429,1.57079,0.00003,-0.14512,-0.38001,0.03814,,,,,,,,,,,,,,,,,,,,,,,,,,0,0,0,0,0
4.0597,1783187785.9800,1,1,1.0000,0.0000,1.44680,0.20027,-2.78560,1.01449,1.57079,0.00003,-0.14512,-0.38001,0.03809,,,,,,,,,,,,,,,,,,,,,,,,,,0,0,0,0,0
4.0677,1783187785.9879,1,1,1.0000,0.0000,1.44680,0.20015,-2.78563,1.01464,1.57079,0.00003,-0.14512,-0.38001,0.03807,,,,,,,,,,,,,,,,,,,,,,,,,,0,0,0,0,0
4.0682,1783187785.9885,1,1,1.0000,0.0000,1.44680,0.20015,-2.78563,1.01464,1.57079,0.00003,-0.14512,-0.38001,0.03807,,,,,,,,,,,,,,,,,,,,,,,,,,0,0,0,0,0
4.0685,1783187785.9888,1,1,1.0000,0.0000,1.44680,0.20015,-2.78563,1.01464,1.57079,0.00003,-0.14512,-0.38001,0.03807,,,,,,,,,,,,,,,,,,,,,,,,,,0,0,0,0,0
4.0819,1783187786.0022,1,1,1.0000,0.0000,1.44680,0.19994,-2.78568,1.01491,1.57079,0.00003,-0.14512,-0.38001,0.03801,,,,,,,,,,,,,,,,,,,,,,,,,,0,0,0,0,0
4.0884,1783187786.0087,1,1,1.0000,0.0000,1.44680,0.19993,-2.78568,1.01492,1.57079,0.00003,-0.14512,-0.38001,0.03801,,,,,,,,,,,,,,,,,,,,,,,,,,0,0,0,0,0
4.1034,1783187786.0237,1,1,1.0000,0.0000,1.44680,0.19976,-2.78572,1.01513,1.57079,0.00003,-0.14512,-0.38001,0.03797,,,,,,,,,,,,,,,,,,,,,,,,,,0,0,0,0,0
4.1191,1783187786.0394,1,1,1.0000,0.0000,1.44680,0.19965,-2.78575,1.01526,1.57079,0.00003,-0.14512,-0.38001,0.03794,,,,,,,,,,,,,,,,,,,,,,,,,,0,0,0,0,0
4.1263,1783187786.0466,1,1,1.0000,0.0000,1.44680,0.19953,-2.78578,1.01541,1.57079,0.00003,-0.14512,-0.38001,0.03791,,,,,,,,,,,,,,,,,,,,,,,,,,0,0,0,0,0
4.1334,1783187786.0537,1,1,1.0000,0.0000,1.44680,0.19946,-2.78579,1.01550,1.57079,0.00003,-0.14512,-0.38001,0.03789,,,,,,,,,,,,,,,,,,,,,,,,,,0,0,0,0,0
4.1459,1783187786.0662,1,1,1.0000,0.0000,1.44680,0.19931,-2.78583,1.01569,1.57079,0.00003,-0.14512,-0.38001,0.03785,,,,,,,,,,,,,,,,,,,,,,,,,,0,0,0,0,0
4.1463,1783187786.0666,1,1,1.0000,0.0000,1.44680,0.19931,-2.78583,1.01569,1.57079,0.00003,-0.14512,-0.38001,0.03785,,,,,,,,,,,,,,,,,,,,,,,,,,0,0,0,0,0
4.1582,1783187786.0785,1,1,1.0000,0.0000,1.44680,0.19919,-2.78586,1.01582,1.57079,0.00003,-0.14512,-0.38001,0.03783,,,,,,,,,,,,,,,,,,,,,,,,,,0,0,0,0,0
4.1619,1783187786.0822,1,1,1.0000,0.0000,1.44680,0.19914,-2.78587,1.01589,1.57079,0.00003,-0.14512,-0.38001,0.03781,,,,,,,,,,,,,,,,,,,,,,,,,,0,0,0,0,0
4.1622,1783187786.0825,1,1,1.0000,0.0000,1.44680,0.19914,-2.78587,1.01589,1.57079,0.00003,-0.14512,-0.38001,0.03781,,,,,,,,,,,,,,,,,,,,,,,,,,0,0,0,0,0
4.1730,1783187786.0933,1,1,1.0000,0.0000,1.44680,0.19908,-2.78588,1.01597,1.57079,0.00003,-0.14512,-0.38001,0.03780,,,,,,,,,,,,,,,,,,,,,,,,,,0,0,0,0,0
4.1837,1783187786.1040,1,1,1.0000,0.0000,1.44680,0.19898,-2.78591,1.01609,1.57079,0.00003,-0.14512,-0.38001,0.03777,,,,,,,,,,,,,,,,,,,,,,,,,,0,0,0,0,0
4.1914,1783187786.1116,1,1,1.0000,0.0000,1.44680,0.19884,-2.78594,1.01626,1.57079,0.00003,-0.14512,-0.38001,0.03774,,,,,,,,,,,,,,,,,,,,,,,,,,0,0,0,0,0
4.2021,1783187786.1224,1,1,1.0000,0.0000,1.44680,0.19869,-2.78597,1.01644,1.57079,0.00003,-0.14512,-0.38001,0.03770,,,,,,,,,,,,,,,,,,,,,,,,,,0,0,0,0,0
4.2025,1783187786.1228,1,1,1.0000,0.0000,1.44680,0.19869,-2.78597,1.01644,1.57079,0.00003,-0.14512,-0.38001,0.03770,,,,,,,,,,,,,,,,,,,,,,,,,,0,0,0,0,0
4.2128,1783187786.1331,1,1,1.0000,0.0000,1.44680,0.19866,-2.78598,1.01648,1.57079,0.00003,-0.14512,-0.38001,0.03769,,,,,,,,,,,,,,,,,,,,,,,,,,0,0,0,0,0
4.2221,1783187786.1424,1,1,1.0000,0.0000,1.44680,0.19852,-2.78601,1.01666,1.57079,0.00003,-0.14512,-0.38001,0.03766,,,,,,,,,,,,,,,,,,,,,,,,,,0,0,0,0,0
4.2224,1783187786.1427,1,1,1.0000,0.0000,1.44680,0.19852,-2.78601,1.01666,1.57079,0.00003,-0.14512,-0.38001,0.03766,,,,,,,,,,,,,,,,,,,,,,,,,,0,0,0,0,0
4.2333,1783187786.1536,1,1,1.0000,0.0000,1.44680,0.19845,-2.78603,1.01674,1.57079,0.00003,-0.14512,-0.38001,0.03764,,,,,,,,,,,,,,,,,,,,,,,,,,0,0,0,0,0
4.2433,1783187786.1636,1,1,1.0000,0.0000,1.44680,0.19835,-2.78605,1.01686,1.57079,0.00003,-0.14512,-0.38001,0.03762,,,,,,,,,,,,,,,,,,,,,,,,,,0,0,0,0,0
4.2623,1783187786.1826,1,1,1.0000,0.0000,1.44680,0.19807,-2.78612,1.01721,1.57079,0.00003,-0.14512,-0.38001,0.03755,,,,,,,,,,,,,,,,,,,,,,,,,,0,0,0,0,0
4.2673,1783187786.1876,1,1,1.0000,0.0000,1.44680,0.19806,-2.78612,1.01722,1.57079,0.00003,-0.14512,-0.38001,0.03754,,,,,,,,,,,,,,,,,,,,,,,,,,0,0,0,0,0
4.2727,1783187786.1930,1,1,1.0000,0.0000,1.44680,0.19803,-2.78613,1.01725,1.57079,0.00003,-0.14512,-0.38001,0.03754,,,,,,,,,,,,,,,,,,,,,,,,,,0,0,0,0,0
4.2731,1783187786.1934,1,1,1.0000,0.0000,1.44680,0.19803,-2.78613,1.01725,1.57079,0.00003,-0.14512,-0.38001,0.03754,,,,,,,,,,,,,,,,,,,,,,,,,,0,0,0,0,0
4.2861,1783187786.2064,1,1,1.0000,0.0000,1.44680,0.19783,-2.78617,1.01750,1.57079,0.00003,-0.14512,-0.38001,0.03749,,,,,,,,,,,,,,,,,,,,,,,,,,0,0,0,0,0
4.2864,1783187786.2067,1,1,1.0000,0.0000,1.44680,0.19783,-2.78617,1.01750,1.57079,0.00003,-0.14512,-0.38001,0.03749,,,,,,,,,,,,,,,,,,,,,,,,,,0,0,0,0,0
4.2930,1783187786.2133,1,1,1.0000,0.0000,1.44680,0.19783,-2.78617,1.01750,1.57079,0.00003,-0.14512,-0.38001,0.03749,,,,,,,,,,,,,,,,,,,,,,,,,,0,0,0,0,0
4.3041,1783187786.2244,1,1,1.0000,0.0000,1.44680,0.19773,-2.78620,1.01763,1.57079,0.00003,-0.14512,-0.38001,0.03746,,,,,,,,,,,,,,,,,,,,,,,,,,0,0,0,0,0
4.3124,1783187786.2327,1,1,1.0000,0.0000,1.44680,0.19759,-2.78623,1.01780,1.57079,0.00003,-0.14512,-0.38001,0.03743,,,,,,,,,,,,,,,,,,,,,,,,,,0,0,0,0,0
4.3227,1783187786.2430,1,1,1.0000,0.0000,1.44680,0.19744,-2.78626,1.01798,1.57079,0.00003,-0.14512,-0.38001,0.03739,,,,,,,,,,,,,,,,,,,,,,,,,,0,0,0,0,0
4.3230,1783187786.2433,1,1,1.0000,0.0000,1.44680,0.19744,-2.78626,1.01798,1.57079,0.00003,-0.14512,-0.38001,0.03739,,,,,,,,,,,,,,,,,,,,,,,,,,0,0,0,0,0
4.3313,1783187786.2516,1,1,1.0000,0.0000,1.44680,0.19740,-2.78627,1.01804,1.57079,0.00003,-0.14512,-0.38001,0.03738,,,,,,,,,,,,,,,,,,,,,,,,,,0,0,0,0,0
4.3316,1783187786.2519,1,1,1.0000,0.0000,1.44680,0.19740,-2.78627,1.01804,1.57079,0.00003,-0.14512,-0.38001,0.03738,,,,,,,,,,,,,,,,,,,,,,,,,,0,0,0,0,0
4.3416,1783187786.2619,1,1,1.0000,0.0000,1.44680,0.19721,-2.78632,1.01827,1.57079,0.00003,-0.14512,-0.38001,0.03733,,,,,,,,,,,,,,,,,,,,,,,,,,0,0,0,0,0
4.3562,1783187786.2765,1,1,1.0000,0.0000,1.44680,0.19713,-2.78634,1.01837,1.57079,0.00003,-0.14512,-0.38001,0.03731,,,,,,,,,,,,,,,,,,,,,,,,,,0,0,0,0,0
4.3617,1783187786.2820,1,1,1.0000,0.0000,1.44680,0.19704,-2.78636,1.01848,1.57079,0.00003,-0.14512,-0.38001,0.03729,,,,,,,,,,,,,,,,,,,,,,,,,,0,0,0,0,0
4.3721,1783187786.2924,1,1,1.0000,0.0000,1.44680,0.19691,-2.78639,1.01864,1.57079,0.00003,-0.14512,-0.38001,0.03726,,,,,,,,,,,,,,,,,,,,,,,,,,0,0,0,0,0
4.3823,1783187786.3026,1,1,1.0000,0.0000,1.44680,0.19676,-2.78642,1.01882,1.57079,0.00003,-0.14512,-0.38001,0.03722,,,,,,,,,,,,,,,,,,,,,,,,,,0,0,0,0,0
4.3916,1783187786.3118,1,1,1.0000,0.0000,1.44680,0.19672,-2.78643,1.01888,1.57079,0.00003,-0.14512,-0.38001,0.03721,,,,,,,,,,,,,,,,,,,,,,,,,,0,0,0,0,0
4.4050,1783187786.3253,1,1,1.0000,0.0000,1.44680,0.19653,-2.78647,1.01910,1.57079,0.00003,-0.14511,-0.38001,0.03716,,,,,,,,,,,,,,,,,,,,,,,,,,0,0,0,0,0
4.4146,1783187786.3349,1,1,1.0000,0.0000,1.44679,0.19645,-2.78649,1.01921,1.57079,0.00003,-0.14511,-0.38001,0.03714,,,,,,,,,,,,,,,,,,,,,,,,,,0,0,0,0,0
4.4149,1783187786.3352,1,1,1.0000,0.0000,1.44679,0.19645,-2.78649,1.01921,1.57079,0.00003,-0.14511,-0.38001,0.03714,,,,,,,,,,,,,,,,,,,,,,,,,,0,0,0,0,0
4.4248,1783187786.3451,1,1,1.0000,0.0000,1.44679,0.19636,-2.78651,1.01931,1.57079,0.00003,-0.14511,-0.38001,0.03712,,,,,,,,,,,,,,,,,,,,,,,,,,0,0,0,0,0
4.4335,1783187786.3538,1,1,1.0000,0.0000,1.44679,0.19623,-2.78655,1.01948,1.57079,0.00003,-0.14511,-0.38001,0.03709,,,,,,,,,,,,,,,,,,,,,,,,,,0,0,0,0,0
4.4346,1783187786.3549,1,1,1.0000,0.0000,1.44679,0.19615,-2.78656,1.01957,1.57079,0.00003,-0.14511,-0.38001,0.03707,,,,,,,,,,,,,,,,,,,,,,,,,,0,0,0,0,0
4.4421,1783187786.3624,1,1,1.0000,0.0000,1.44679,0.19608,-2.78658,1.01966,1.57079,0.00003,-0.14511,-0.38001,0.03705,,,,,,,,,,,,,,,,,,,,,,,,,,0,0,0,0,0
4.4533,1783187786.3736,1,1,1.0000,0.0000,1.44679,0.19605,-2.78659,1.01970,1.57079,0.00003,-0.14511,-0.38001,0.03704,,,,,,,,,,,,,,,,,,,,,,,,,,0,0,0,0,0
4.4684,1783187786.3887,1,1,1.0000,0.0000,1.44679,0.19584,-2.78663,1.01995,1.57079,0.00003,-0.14511,-0.38001,0.03699,,,,,,,,,,,,,,,,,,,,,,,,,,0,0,0,0,0
4.4749,1783187786.3952,1,1,1.0000,0.0000,1.44679,0.19583,-2.78664,1.01997,1.57079,0.00003,-0.14511,-0.38001,0.03699,,,,,,,,,,,,,,,,,,,,,,,,,,0,0,0,0,0
4.4858,1783187786.4061,1,1,1.0000,0.0000,1.44679,0.19568,-2.78667,1.02016,1.57079,0.00003,-0.14511,-0.38001,0.03695,,,,,,,,,,,,,,,,,,,,,,,,,,0,0,0,0,0
4.4939,1783187786.4142,1,1,1.0000,0.0000,1.44679,0.19553,-2.78671,1.02034,1.57079,0.00003,-0.14511,-0.38001,0.03692,,,,,,,,,,,,,,,,,,,,,,,,,,0,0,0,0,0
4.4941,1783187786.4144,1,1,1.0000,0.0000,1.44679,0.19553,-2.78671,1.02034,1.57079,0.00003,-0.14511,-0.38001,0.03692,,,,,,,,,,,,,,,,,,,,,,,,,,0,0,0,0,0
4.5019,1783187786.4222,1,1,1.0000,0.0000,1.44679,0.19546,-2.78672,1.02043,1.57079,0.00003,-0.14511,-0.38001,0.03690,,,,,,,,,,,,,,,,,,,,,,,,,,0,0,0,0,0
4.5141,1783187786.4344,1,1,1.0000,0.0000,1.44679,0.19536,-2.78675,1.02055,1.57079,0.00003,-0.14511,-0.38001,0.03687,,,,,,,,,,,,,,,,,,,,,,,,,,0,0,0,0,0
4.5288,1783187786.4491,1,1,1.0000,0.0000,1.44679,0.19515,-2.78679,1.02081,1.57079,0.00003,-0.14511,-0.38001,0.03682,,,,,,,,,,,,,,,,,,,,,,,,,,0,0,0,0,0
4.5344,1783187786.4547,1,1,1.0000,0.0000,1.44679,0.19508,-2.78681,1.02089,1.57079,0.00003,-0.14511,-0.38001,0.03680,,,,,,,,,,,,,,,,,,,,,,,,,,0,0,0,0,0
4.5418,1783187786.4621,1,1,1.0000,0.0000,1.44679,0.19504,-2.78682,1.02094,1.57079,0.00003,-0.14511,-0.38001,0.03680,,,,,,,,,,,,,,,,,,,,,,,,,,0,0,0,0,0
4.5515,1783187786.4717,1,1,1.0000,0.0000,1.44679,0.19496,-2.78684,1.02104,1.57079,0.00003,-0.14511,-0.38001,0.03677,,,,,,,,,,,,,,,,,,,,,,,,,,0,0,0,0,0
4.5633,1783187786.4836,1,1,1.0000,0.0000,1.44679,0.19484,-2.78687,1.02119,1.57079,0.00003,-0.14511,-0.38001,0.03674,,,,,,,,,,,,,,,,,,,,,,,,,,0,0,0,0,0
4.5718,1783187786.4921,1,1,1.0000,0.0000,1.44679,0.19479,-2.78688,1.02125,1.57079,0.00003,-0.14511,-0.38001,0.03673,,,,,,,,,,,,,,,,,,,,,,,,,,0,0,0,0,0
4.5829,1783187786.5032,1,1,1.0000,0.0000,1.44679,0.19460,-2.78692,1.02148,1.57079,0.00003,-0.14511,-0.38001,0.03668,,,,,,,,,,,,,,,,,,,,,,,,,,0,0,0,0,0
4.5940,1783187786.5143,1,1,1.0000,0.0000,1.44679,0.19445,-2.78696,1.02167,1.57079,0.00003,-0.14511,-0.38001,0.03665,,,,,,,,,,,,,,,,,,,,,,,,,,0,0,0,0,0
4.5943,1783187786.5146,1,1,1.0000,0.0000,1.44679,0.19445,-2.78696,1.02167,1.57079,0.00003,-0.14511,-0.38001,0.03665,,,,,,,,,,,,,,,,,,,,,,,,,,0,0,0,0,0
4.6021,1783187786.5224,1,1,1.0000,0.0000,1.44679,0.19442,-2.78696,1.02171,1.57079,0.00003,-0.14511,-0.38001,0.03664,,,,,,,,,,,,,,,,,,,,,,,,,,0,0,0,0,0
4.6146,1783187786.5349,1,1,1.0000,0.0000,1.44679,0.19427,-2.78700,1.02188,1.57079,0.00003,-0.14511,-0.38001,0.03660,,,,,,,,,,,,,,,,,,,,,,,,,,0,0,0,0,0
4.6300,1783187786.5503,1,1,1.0000,0.0000,1.44679,0.19416,-2.78702,1.02202,1.57079,0.00003,-0.14511,-0.38001,0.03658,,,,,,,,,,,,,,,,,,,,,,,,,,0,0,0,0,0
4.6358,1783187786.5561,1,1,1.0000,0.0000,1.44679,0.19411,-2.78703,1.02209,1.57079,0.00003,-0.14511,-0.38001,0.03656,,,,,,,,,,,,,,,,,,,,,,,,,,0,0,0,0,0
4.6428,1783187786.5631,1,1,1.0000,0.0000,1.44679,0.19397,-2.78707,1.02226,1.57079,0.00003,-0.14511,-0.38001,0.03653,,,,,,,,,,,,,,,,,,,,,,,,,,0,0,0,0,0
4.6533,1783187786.5736,1,1,1.0000,0.0000,1.44679,0.19382,-2.78710,1.02244,1.57079,0.00003,-0.14511,-0.38001,0.03649,,,,,,,,,,,,,,,,,,,,,,,,,,0,0,0,0,0
4.6785,1783187786.5988,1,1,1.0000,0.0000,1.44679,0.19358,-2.78715,1.02273,1.57079,0.00003,-0.14511,-0.38001,0.03643,,,,,,,,,,,,,,,,,,,,,,,,,,0,0,0,0,0
4.6789,1783187786.5991,1,1,1.0000,0.0000,1.44679,0.19358,-2.78715,1.02273,1.57079,0.00003,-0.14511,-0.38001,0.03643,,,,,,,,,,,,,,,,,,,,,,,,,,0,0,0,0,0
4.6832,1783187786.6035,1,1,1.0000,0.0000,1.44679,0.19358,-2.78715,1.02273,1.57079,0.00003,-0.14511,-0.38001,0.03643,,,,,,,,,,,,,,,,,,,,,,,,,,0,0,0,0,0
4.6911,1783187786.6114,1,1,1.0000,0.0000,1.44679,0.19354,-2.78717,1.02279,1.57079,0.00003,-0.14511,-0.38001,0.03642,,,,,,,,,,,,,,,,,,,,,,,,,,0,0,0,0,0
4.6914,1783187786.6116,1,1,1.0000,0.0000,1.44679,0.19354,-2.78717,1.02279,1.57079,0.00003,-0.14511,-0.38001,0.03642,,,,,,,,,,,,,,,,,,,,,,,,,,0,0,0,0,0
4.7011,1783187786.6213,1,1,1.0000,0.0000,1.44679,0.19342,-2.78719,1.02294,1.57079,0.00003,-0.14511,-0.38001,0.03639,,,,,,,,,,,,,,,,,,,,,,,,,,0,0,0,0,0
4.7018,1783187786.6220,1,1,1.0000,0.0000,1.44679,0.19334,-2.78721,1.02303,1.57079,0.00003,-0.14511,-0.38001,0.03637,,,,,,,,,,,,,,,,,,,,,,,,,,0,0,0,0,0
4.7148,1783187786.6350,1,1,1.0000,0.0000,1.44679,0.19320,-2.78724,1.02321,1.57079,0.00003,-0.14511,-0.38001,0.03634,,,,,,,,,,,,,,,,,,,,,,,,,,0,0,0,0,0
4.7314,1783187786.6517,1,1,1.0000,0.0000,1.44679,0.19308,-2.78727,1.02336,1.57079,0.00003,-0.14511,-0.38001,0.03631,,,,,,,,,,,,,,,,,,,,,,,,,,0,0,0,0,0
4.7368,1783187786.6571,1,1,1.0000,0.0000,1.44679,0.19302,-2.78728,1.02343,1.57079,0.00003,-0.14511,-0.38001,0.03629,,,,,,,,,,,,,,,,,,,,,,,,,,0,0,0,0,0
4.7457,1783187786.6660,1,1,1.0000,0.0000,1.44679,0.19294,-2.78730,1.02352,1.57079,0.00003,-0.14511,-0.38001,0.03628,,,,,,,,,,,,,,,,,,,,,,,,,,0,0,0,0,0
4.7606,1783187786.6809,1,1,1.0000,0.0000,1.44679,0.19279,-2.78734,1.02371,1.57079,0.00003,-0.14511,-0.38001,0.03624,,,,,,,,,,,,,,,,,,,,,,,,,,0,0,0,0,0
4.7730,1783187786.6933,1,1,1.0000,0.0000,1.44679,0.19257,-2.78739,1.02398,1.57079,0.00003,-0.14511,-0.38001,0.03618,,,,,,,,,,,,,,,,,,,,,,,,,,0,0,0,0,0
4.7779,1783187786.6982,1,1,1.0000,0.0000,1.44679,0.19256,-2.78739,1.02399,1.57079,0.00003,-0.14511,-0.38001,0.03618,,,,,,,,,,,,,,,,,,,,,,,,,,0,0,0,0,0
4.7783,1783187786.6986,1,1,1.0000,0.0000,1.44679,0.19256,-2.78739,1.02399,1.57079,0.00003,-0.14511,-0.38001,0.03618,,,,,,,,,,,,,,,,,,,,,,,,,,0,0,0,0,0
4.7848,1783187786.7051,1,1,1.0000,0.0000,1.44679,0.19254,-2.78740,1.02402,1.57079,0.00003,-0.14511,-0.38001,0.03617,,,,,,,,,,,,,,,,,,,,,,,,,,0,0,0,0,0
4.7980,1783187786.7183,1,1,1.0000,0.0000,1.44679,0.19233,-2.78744,1.02427,1.57079,0.00003,-0.14511,-0.38001,0.03612,,,,,,,,,,,,,,,,,,,,,,,,,,0,0,0,0,0
4.7982,1783187786.7185,1,1,1.0000,0.0000,1.44679,0.19233,-2.78744,1.02427,1.57079,0.00003,-0.14511,-0.38001,0.03612,,,,,,,,,,,,,,,,,,,,,,,,,,0,0,0,0,0
4.8046,1783187786.7249,1,1,1.0000,0.0000,1.44679,0.19233,-2.78744,1.02427,1.57079,0.00003,-0.14511,-0.38001,0.03612,,,,,,,,,,,,,,,,,,,,,,,,,,0,0,0,0,0
4.8160,1783187786.7363,1,1,1.0000,0.0000,1.44679,0.19223,-2.78747,1.02440,1.57079,0.00003,-0.14511,-0.38001,0.03610,,,,,,,,,,,,,,,,,,,,,,,,,,0,0,0,0,0
4.8280,1783187786.7483,1,1,1.0000,0.0000,1.44679,0.19201,-2.78751,1.02466,1.57079,0.00003,-0.14511,-0.38001,0.03605,,,,,,,,,,,,,,,,,,,,,,,,,,0,0,0,0,0
4.8388,1783187786.7591,1,1,1.0000,0.0000,1.44679,0.19193,-2.78753,1.02476,1.57079,0.00003,-0.14511,-0.38001,0.03603,,,,,,,,,,,,,,,,,,,,,,,,,,0,0,0,0,0
4.8478,1783187786.7681,1,1,1.0000,0.0000,1.44679,0.19187,-2.78755,1.02484,1.57079,0.00003,-0.14511,-0.38001,0.03601,,,,,,,,,,,,,,,,,,,,,,,,,,0,0,0,0,0
4.8552,1783187786.7755,1,1,1.0000,0.0000,1.44679,0.19176,-2.78757,1.02497,1.57079,0.00003,-0.14511,-0.38001,0.03598,,,,,,,,,,,,,,,,,,,,,,,,,,0,0,0,0,0
4.8764,1783187786.7967,1,1,1.0000,0.0000,1.44679,0.19160,-2.78761,1.02517,1.57079,0.00003,-0.14511,-0.38001,0.03594,,,,,,,,,,,,,,,,,,,,,,,,,,0,0,0,0,0
4.8768,1783187786.7971,1,1,1.0000,0.0000,1.44679,0.19160,-2.78761,1.02517,1.57079,0.00003,-0.14511,-0.38001,0.03594,,,,,,,,,,,,,,,,,,,,,,,,,,0,0,0,0,0
4.8888,1783187786.8090,1,1,1.0000,0.0000,1.44679,0.19138,-2.78766,1.02543,1.57079,0.00003,-0.14511,-0.38001,0.03589,,,,,,,,,,,,,,,,,,,,,,,,,,0,0,0,0,0
4.8970,1783187786.8173,1,1,1.0000,0.0000,1.44679,0.19131,-2.78767,1.02552,1.57079,0.00003,-0.14511,-0.38001,0.03587,,,,,,,,,,,,,,,,,,,,,,,,,,0,0,0,0,0
4.9046,1783187786.8249,1,1,1.0000,0.0000,1.44679,0.19126,-2.78769,1.02558,1.57079,0.00003,-0.14511,-0.38001,0.03586,,,,,,,,,,,,,,,,,,,,,,,,,,0,0,0,0,0
4.9169,1783187786.8371,1,1,1.0000,0.0000,1.44679,0.19108,-2.78773,1.02581,1.57079,0.00003,-0.14511,-0.38001,0.03582,,,,,,,,,,,,,,,,,,,,,,,,,,0,0,0,0,0
4.9269,1783187786.8472,1,1,1.0000,0.0000,1.44679,0.19099,-2.78775,1.02592,1.57079,0.00003,-0.14511,-0.38001,0.03579,,,,,,,,,,,,,,,,,,,,,,,,,,0,0,0,0,0
4.9366,1783187786.8569,1,1,1.0000,0.0000,1.44679,0.19091,-2.78777,1.02602,1.57079,0.00003,-0.14511,-0.38001,0.03577,,,,,,,,,,,,,,,,,,,,,,,,,,0,0,0,0,0
4.9448,1783187786.8651,1,1,1.0000,0.0000,1.44679,0.19077,-2.78780,1.02619,1.57079,0.00003,-0.14511,-0.38001,0.03574,,,,,,,,,,,,,,,,,,,,,,,,,,0,0,0,0,0
4.9624,1783187786.8827,1,1,1.0000,0.0000,1.44679,0.19058,-2.78784,1.02642,1.57079,0.00003,-0.14511,-0.38001,0.03569,,,,,,,,,,,,,,,,,,,,,,,,,,0,0,0,0,0
4.9709,1783187786.8912,1,1,1.0000,0.0000,1.44679,0.19046,-2.78787,1.02657,1.57079,0.00003,-0.14511,-0.38001,0.03566,,,,,,,,,,,,,,,,,,,,,,,,,,0,0,0,0,0
4.9863,1783187786.9066,1,1,1.0000,0.0000,1.44679,0.19030,-2.78790,1.02676,1.57079,0.00003,-0.14511,-0.38001,0.03563,,,,,,,,,,,,,,,,,,,,,,,,,,0,0,0,0,0
4.9866,1783187786.9069,1,1,1.0000,0.0000,1.44679,0.19030,-2.78790,1.02676,1.57079,0.00003,-0.14511,-0.38001,0.03563,,,,,,,,,,,,,,,,,,,,,,,,,,0,0,0,0,0
4.9952,1783187786.9155,1,1,1.0000,0.0000,1.44679,0.19022,-2.78792,1.02687,1.57079,0.00003,-0.14511,-0.38001,0.03560,,,,,,,,,,,,,,,,,,,,,,,,,,0,0,0,0,0
5.0048,1783187786.9251,1,1,1.0000,0.0000,1.44679,0.19008,-2.78795,1.02703,1.57079,0.00003,-0.14511,-0.38001,0.03557,,,,,,,,,,,,,,,,,,,,,,,,,,0,0,0,0,0
5.0183,1783187786.9386,1,1,1.0000,0.0000,1.44679,0.18993,-2.78799,1.02722,1.57079,0.00003,-0.14511,-0.38001,0.03553,,,,,,,,,,,,,,,,,,,,,,,,,,0,0,0,0,0
5.0186,1783187786.9389,1,1,1.0000,0.0000,1.44679,0.18993,-2.78799,1.02722,1.57079,0.00003,-0.14511,-0.38001,0.03553,,,,,,,,,,,,,,,,,,,,,,,,,,0,0,0,0,0
5.0298,1783187786.9501,1,1,1.0000,0.0000,1.44679,0.18978,-2.78802,1.02741,1.57079,0.00003,-0.14511,-0.38001,0.03550,,,,,,,,,,,,,,,,,,,,,,,,,,0,0,0,0,0
5.0392,1783187786.9595,1,1,1.0000,0.0000,1.44679,0.18963,-2.78806,1.02759,1.57079,0.00003,-0.14511,-0.38001,0.03546,,,,,,,,,,,,,,,,,,,,,,,,,,0,0,0,0,0
5.0459,1783187786.9662,1,1,1.0000,0.0000,1.44679,0.18956,-2.78807,1.02768,1.57079,0.00003,-0.14511,-0.38001,0.03544,,,,,,,,,,,,,,,,,,,,,,,,,,0,0,0,0,0
5.0547,1783187786.9750,1,1,1.0000,0.0000,1.44679,0.18952,-2.78808,1.02772,1.57079,0.00003,-0.14511,-0.38001,0.03543,,,,,,,,,,,,,,,,,,,,,,,,,,0,0,0,0,0
5.0679,1783187786.9882,1,1,1.0000,0.0000,1.44679,0.18938,-2.78811,1.02790,1.57079,0.00003,-0.14511,-0.38001,0.03540,,,,,,,,,,,,,,,,,,,,,,,,,,0,0,0,0,0
5.0860,1783187787.0063,1,1,1.0000,0.0000,1.44679,0.18921,-2.78815,1.02810,1.57079,0.00003,-0.14511,-0.38001,0.03536,,,,,,,,,,,,,,,,,,,,,,,,,,0,0,0,0,0
5.0908,1783187787.0111,1,1,1.0000,0.0000,1.44679,0.18915,-2.78817,1.02818,1.57079,0.00003,-0.14511,-0.38001,0.03534,,,,,,,,,,,,,,,,,,,,,,,,,,0,0,0,0,0
5.0960,1783187787.0163,1,1,1.0000,0.0000,1.44679,0.18907,-2.78818,1.02827,1.57079,0.00003,-0.14511,-0.38001,0.03532,,,,,,,,,,,,,,,,,,,,,,,,,,0,0,0,0,0
5.0965,1783187787.0168,1,1,1.0000,0.0000,1.44679,0.18907,-2.78818,1.02827,1.57079,0.00003,-0.14511,-0.38001,0.03532,,,,,,,,,,,,,,,,,,,,,,,,,,0,0,0,0,0
5.1053,1783187787.0255,1,1,1.0000,0.0000,1.44679,0.18893,-2.78822,1.02845,1.57079,0.00003,-0.14511,-0.38001,0.03529,,,,,,,,,,,,,,,,,,,,,,,,,,0,0,0,0,0
5.1164,1783187787.0367,1,1,1.0000,0.0000,1.44679,0.18889,-2.78822,1.02849,1.57079,0.00003,-0.14511,-0.38001,0.03528,,,,,,,,,,,,,,,,,,,,,,,,,,0,0,0,0,0
5.1273,1783187787.0476,1,1,1.0000,0.0000,1.44679,0.18875,-2.78826,1.02867,1.57079,0.00003,-0.14511,-0.38001,0.03524,,,,,,,,,,,,,,,,,,,,,,,,,,0,0,0,0,0
5.1348,1783187787.0551,1,1,1.0000,0.0000,1.44679,0.18868,-2.78827,1.02875,1.57079,0.00003,-0.14511,-0.38001,0.03523,,,,,,,,,,,,,,,,,,,,,,,,,,0,0,0,0,0
5.1461,1783187787.0664,1,1,1.0000,0.0000,1.44679,0.18858,-2.78829,1.02887,1.57079,0.00003,-0.14511,-0.38001,0.03520,,,,,,,,,,,,,,,,,,,,,,,,,,0,0,0,0,0
5.1548,1783187787.0750,1,1,1.0000,0.0000,1.44679,0.18844,-2.78833,1.02904,1.57079,0.00003,-0.14511,-0.38001,0.03517,,,,,,,,,,,,,,,,,,,,,,,,,,0,0,0,0,0
5.1648,1783187787.0851,1,1,1.0000,0.0000,1.44679,0.18829,-2.78836,1.02923,1.57079,0.00003,-0.14511,-0.38001,0.03513,,,,,,,,,,,,,,,,,,,,,,,,,,0,0,0,0,0
5.1863,1783187787.1066,1,1,1.0000,0.0000,1.44679,0.18812,-2.78840,1.02945,1.57079,0.00004,-0.14511,-0.38001,0.03509,,,,,,,,,,,,,,,,,,,,,,,,,,0,0,0,0,0
5.1887,1783187787.1090,1,1,1.0000,0.0000,1.44679,0.18812,-2.78840,1.02945,1.57079,0.00004,-0.14511,-0.38001,0.03509,,,,,,,,,,,,,,,,,,,,,,,,,,0,0,0,0,0
5.1988,1783187787.1191,1,1,1.0000,0.0000,1.44679,0.18804,-2.78842,1.02954,1.57079,0.00004,-0.14511,-0.38001,0.03507,,,,,,,,,,,,,,,,,,,,,,,,,,0,0,0,0,0
5.2077,1783187787.1280,1,1,1.0000,0.0000,1.44679,0.18795,-2.78844,1.02965,1.57079,0.00004,-0.14511,-0.38001,0.03505,,,,,,,,,,,,,,,,,,,,,,,,,,0,0,0,0,0
5.2159,1783187787.1362,1,1,1.0000,0.0000,1.44679,0.18781,-2.78847,1.02982,1.57079,0.00004,-0.14511,-0.38001,0.03501,,,,,,,,,,,,,,,,,,,,,,,,,,0,0,0,0,0
5.2260,1783187787.1463,1,1,1.0000,0.0000,1.44679,0.18766,-2.78850,1.03000,1.57079,0.00004,-0.14511,-0.38001,0.03498,,,,,,,,,,,,,,,,,,,,,,,,,,0,0,0,0,0
5.2365,1783187787.1567,1,1,1.0000,0.0000,1.44679,0.18763,-2.78851,1.03004,1.57079,0.00004,-0.14511,-0.38001,0.03497,,,,,,,,,,,,,,,,,,,,,,,,,,0,0,0,0,0
5.2458,1783187787.1661,1,1,1.0000,0.0000,1.44679,0.18748,-2.78854,1.03022,1.57079,0.00004,-0.14511,-0.38001,0.03493,,,,,,,,,,,,,,,,,,,,,,,,,,0,0,0,0,0
5.2572,1783187787.1775,1,1,1.0000,0.0000,1.44679,0.18742,-2.78856,1.03030,1.57079,0.00004,-0.14511,-0.38001,0.03492,,,,,,,,,,,,,,,,,,,,,,,,,,0,0,0,0,0
5.2677,1783187787.1880,1,1,1.0000,0.0000,1.44679,0.18732,-2.78858,1.03042,1.57079,0.00004,-0.14511,-0.38001,0.03489,,,,,,,,,,,,,,,,,,,,,,,,,,0,0,0,0,0
5.2869,1783187787.2072,1,1,1.0000,0.0000,1.44679,0.18703,-2.78865,1.03078,1.57079,0.00004,-0.14511,-0.38001,0.03482,,,,,,,,,,,,,,,,,,,,,,,,,,0,0,0,0,0
5.2957,1783187787.2160,1,1,1.0000,0.0000,1.44679,0.18700,-2.78865,1.03082,1.57079,0.00004,-0.14511,-0.38001,0.03481,,,,,,,,,,,,,,,,,,,,,,,,,,0,0,0,0,0
5.3062,1783187787.2265,1,1,1.0000,0.0000,1.44679,0.18685,-2.78869,1.03099,1.57079,0.00004,-0.14511,-0.38001,0.03478,,,,,,,,,,,,,,,,,,,,,,,,,,0,0,0,0,0
5.3160,1783187787.2363,1,1,1.0000,0.0000,1.44679,0.18679,-2.78870,1.03107,1.57079,0.00004,-0.14511,-0.38001,0.03476,,,,,,,,,,,,,,,,,,,,,,,,,,0,0,0,0,0
5.3164,1783187787.2367,1,1,1.0000,0.0000,1.44679,0.18679,-2.78870,1.03107,1.57079,0.00004,-0.14511,-0.38001,0.03476,,,,,,,,,,,,,,,,,,,,,,,,,,0,0,0,0,0
5.3313,1783187787.2516,1,1,1.0000,0.0000,1.44679,0.18662,-2.78874,1.03128,1.57079,0.00004,-0.14511,-0.38001,0.03472,,,,,,,,,,,,,,,,,,,,,,,,,,0,0,0,0,0
5.3363,1783187787.2566,1,1,1.0000,0.0000,1.44679,0.18654,-2.78875,1.03137,1.57079,0.00004,-0.14511,-0.38001,0.03470,,,,,,,,,,,,,,,,,,,,,,,,,,0,0,0,0,0
5.3367,1783187787.2570,1,1,1.0000,0.0000,1.44679,0.18654,-2.78875,1.03137,1.57079,0.00004,-0.14511,-0.38001,0.03470,,,,,,,,,,,,,,,,,,,,,,,,,,0,0,0,0,0
5.3472,1783187787.2675,1,1,1.0000,0.0000,1.44679,0.18640,-2.78879,1.03155,1.57079,0.00004,-0.14511,-0.38001,0.03467,,,,,,,,,,,,,,,,,,,,,,,,,,0,0,0,0,0
5.3551,1783187787.2754,1,1,1.0000,0.0000,1.44679,0.18636,-2.78880,1.03159,1.57079,0.00004,-0.14511,-0.38001,0.03466,,,,,,,,,,,,,,,,,,,,,,,,,,0,0,0,0,0
5.3652,1783187787.2855,1,1,1.0000,0.0000,1.44679,0.18627,-2.78881,1.03170,1.57079,0.00004,-0.14511,-0.38001,0.03464,,,,,,,,,,,,,,,,,,,,,,,,,,0,0,0,0,0
5.3892,1783187787.3095,1,1,1.0000,0.0000,1.44679,0.18605,-2.78887,1.03197,1.57079,0.00004,-0.14511,-0.38001,0.03458,,,,,,,,,,,,,,,,,,,,,,,,,,0,0,0,0,0
5.3955,1783187787.3158,1,1,1.0000,0.0000,1.44679,0.18591,-2.78890,1.03214,1.57079,0.00004,-0.14511,-0.38001,0.03455,,,,,,,,,,,,,,,,,,,,,,,,,,0,0,0,0,0
5.4058,1783187787.3261,1,1,1.0000,0.0000,1.44679,0.18576,-2.78893,1.03233,1.57079,0.00004,-0.14511,-0.38001,0.03451,,,,,,,,,,,,,,,,,,,,,,,,,,0,0,0,0,0
5.4484,1783187787.3686,1,1,1.0000,0.0000,1.44679,0.18535,-2.78902,1.03283,1.57079,0.00004,-0.14511,-0.38001,0.03441,,,,,,,,,,,,,,,,,,,,,,,,,,0,0,0,0,0
5.4487,1783187787.3690,1,1,1.0000,0.0000,1.44679,0.18535,-2.78902,1.03283,1.57079,0.00004,-0.14511,-0.38001,0.03441,,,,,,,,,,,,,,,,,,,,,,,,,,0,0,0,0,0
5.4499,1783187787.3702,1,1,1.0000,0.0000,1.44679,0.18529,-2.78904,1.03291,1.57079,0.00004,-0.14511,-0.38001,0.03440,,,,,,,,,,,,,,,,,,,,,,,,,,0,0,0,0,0
5.4502,1783187787.3705,1,1,1.0000,0.0000,1.44679,0.18529,-2.78904,1.03291,1.57079,0.00004,-0.14511,-0.38001,0.03440,,,,,,,,,,,,,,,,,,,,,,,,,,0,0,0,0,0
5.4573,1783187787.3776,1,1,1.0000,0.0000,1.44679,0.18522,-2.78905,1.03299,1.57079,0.00004,-0.14511,-0.38001,0.03438,,,,,,,,,,,,,,,,,,,,,,,,,,0,0,0,0,0
5.4689,1783187787.3892,1,1,1.0000,0.0000,1.44679,0.18507,-2.78908,1.03317,1.57079,0.00004,-0.14511,-0.38001,0.03434,,,,,,,,,,,,,,,,,,,,,,,,,,0,0,0,0,0
5.4759,1783187787.3962,1,1,1.0000,0.0000,1.44679,0.18502,-2.78910,1.03323,1.57079,0.00004,-0.14511,-0.38001,0.03433,,,,,,,,,,,,,,,,,,,,,,,,,,0,0,0,0,0
5.4865,1783187787.4068,1,1,1.0000,0.0000,1.44679,0.18484,-2.78914,1.03346,1.57079,0.00004,-0.14511,-0.38001,0.03428,,,,,,,,,,,,,,,,,,,,,,,,,,0,0,0,0,0
5.5050,1783187787.4253,1,1,1.0000,0.0000,1.44679,0.18471,-2.78916,1.03361,1.57079,0.00004,-0.14511,-0.38001,0.03425,,,,,,,,,,,,,,,,,,,,,,,,,,0,0,0,0,0
5.5071,1783187787.4274,1,1,1.0000,0.0000,1.44679,0.18466,-2.78918,1.03367,1.57079,0.00004,-0.14511,-0.38001,0.03424,,,,,,,,,,,,,,,,,,,,,,,,,,0,0,0,0,0
5.5075,1783187787.4278,1,1,1.0000,0.0000,1.44679,0.18466,-2.78918,1.03367,1.57079,0.00004,-0.14511,-0.38001,0.03424,,,,,,,,,,,,,,,,,,,,,,,,,,0,0,0,0,0
5.5152,1783187787.4355,1,1,1.0000,0.0000,1.44679,0.18453,-2.78921,1.03384,1.57079,0.00004,-0.14511,-0.38001,0.03421,,,,,,,,,,,,,,,,,,,,,,,,,,0,0,0,0,0
5.5366,1783187787.4569,1,1,1.0000,0.0000,1.44679,0.18433,-2.78925,1.03408,1.57079,0.00004,-0.14511,-0.38001,0.03416,,,,,,,,,,,,,,,,,,,,,,,,,,0,0,0,0,0
5.5380,1783187787.4583,1,1,1.0000,0.0000,1.44679,0.18428,-2.78926,1.03414,1.57079,0.00004,-0.14511,-0.38001,0.03415,,,,,,,,,,,,,,,,,,,,,,,,,,0,0,0,0,0
5.5542,1783187787.4745,1,1,1.0000,0.0000,1.44679,0.18407,-2.78931,1.03440,1.57079,0.00004,-0.14511,-0.38001,0.03410,,,,,,,,,,,,,,,,,,,,,,,,,,0,0,0,0,0
5.5544,1783187787.4747,1,1,1.0000,0.0000,1.44679,0.18407,-2.78931,1.03440,1.57079,0.00004,-0.14511,-0.38001,0.03410,,,,,,,,,,,,,,,,,,,,,,,,,,0,0,0,0,0
5.5689,1783187787.4892,1,1,1.0000,0.0000,1.44679,0.18397,-2.78933,1.03452,1.57079,0.00004,-0.14511,-0.38001,0.03407,,,,,,,,,,,,,,,,,,,,,,,,,,0,0,0,0,0
5.5698,1783187787.4900,1,1,1.0000,0.0000,1.44679,0.18390,-2.78935,1.03460,1.57079,0.00004,-0.14511,-0.38001,0.03406,,,,,,,,,,,,,,,,,,,,,,,,,,0,0,0,0,0
5.5796,1783187787.4999,1,1,1.0000,0.0000,1.44679,0.18376,-2.78938,1.03478,1.57079,0.00004,-0.14511,-0.38001,0.03402,,,,,,,,,,,,,,,,,,,,,,,,,,0,0,0,0,0
5.5799,1783187787.5002,1,1,1.0000,0.0000,1.44679,0.18376,-2.78938,1.03478,1.57079,0.00004,-0.14511,-0.38001,0.03402,,,,,,,,,,,,,,,,,,,,,,,,,,0,0,0,0,0
5.5850,1783187787.5053,1,1,1.0000,0.0000,1.44679,0.18369,-2.78939,1.03487,1.57079,0.00004,-0.14511,-0.38001,0.03400,,,,,,,,,,,,,,,,,,,,,,,,,,0,0,0,0,0
5.5855,1783187787.5058,1,1,1.0000,0.0000,1.44679,0.18369,-2.78939,1.03487,1.57079,0.00004,-0.14511,-0.38001,0.03400,,,,,,,,,,,,,,,,,,,,,,,,,,0,0,0,0,0
5.6130,1783187787.5333,1,1,1.0000,0.0000,1.44679,0.18337,-2.78946,1.03525,1.57079,0.00004,-0.14511,-0.38001,0.03393,,,,,,,,,,,,,,,,,,,,,,,,,,0,0,0,0,0
