Martins-Lucaas/twinforge/sensors/Data/20260704_145814__samples.csv
t_rel_s,t_unix,cycle,phase,setpoint_n,force_net_n,q1,q2,q3,q4,q5,q6,tcp_x,tcp_y,tcp_z,taxel_0,taxel_1,taxel_2,taxel_3,taxel_4,taxel_5,taxel_6,taxel_7,taxel_8,taxel_9,taxel_10,taxel_11,taxel_12,taxel_13,taxel_14,taxel_15,taxel_16,taxel_17,taxel_18,taxel_19,taxel_20,taxel_21,taxel_22,taxel_23,taxel_24,n_RA,n_SA,cn_mm,cn_ra,cn_sa
0.0088,1783187894.7701,1,0,1.0000,0.0000,1.44682,0.23328,-2.77748,0.97337,1.57080,0.00000,-0.14512,-0.38003,0.04653,,,,,,,,,,,,,,,,,,,,,,,,,,0,0,0,0,0
0.0158,1783187894.7771,1,0,1.0000,0.0000,1.44682,0.23328,-2.77748,0.97337,1.57080,0.00000,-0.14512,-0.38003,0.04653,,,,,,,,,,,,,,,,,,,,,,,,,,0,0,0,0,0
0.0270,1783187894.7884,1,0,1.0000,0.0000,1.44682,0.23328,-2.77748,0.97337,1.57080,0.00000,-0.14512,-0.38003,0.04653,,,,,,,,,,,,,,,,,,,,,,,,,,0,0,0,0,0
0.0275,1783187894.7889,1,0,1.0000,0.0000,1.44682,0.23328,-2.77748,0.97337,1.57080,0.00000,-0.14512,-0.38003,0.04653,,,,,,,,,,,,,,,,,,,,,,,,,,0,0,0,0,0
0.0336,1783187894.7949,1,0,1.0000,0.0000,1.44682,0.23328,-2.77748,0.97337,1.57080,0.00000,-0.14512,-0.38003,0.04653,,,,,,,,,,,,,,,,,,,,,,,,,,0,0,0,0,0
0.0338,1783187894.7951,1,0,1.0000,0.0000,1.44682,0.23328,-2.77748,0.97337,1.57080,0.00000,-0.14512,-0.38003,0.04653,,,,,,,,,,,,,,,,,,,,,,,,,,0,0,0,0,0
0.0428,1783187894.8041,1,0,1.0000,0.0000,1.44682,0.23328,-2.77748,0.97337,1.57080,0.00000,-0.14512,-0.38003,0.04653,,,,,,,,,,,,,,,,,,,,,,,,,,0,0,0,0,0
0.0430,1783187894.8043,1,0,1.0000,0.0000,1.44682,0.23328,-2.77748,0.97337,1.57080,0.00000,-0.14512,-0.38003,0.04653,,,,,,,,,,,,,,,,,,,,,,,,,,0,0,0,0,0
0.0670,1783187894.8283,1,0,1.0000,0.0000,1.44682,0.23328,-2.77748,0.97337,1.57080,-0.00000,-0.14512,-0.38003,0.04653,,,,,,,,,,,,,,,,,,,,,,,,,,0,0,0,0,0
0.0674,1783187894.8287,1,0,1.0000,0.0000,1.44682,0.23328,-2.77748,0.97337,1.57080,-0.00000,-0.14512,-0.38003,0.04653,,,,,,,,,,,,,,,,,,,,,,,,,,0,0,0,0,0
0.0678,1783187894.8292,1,0,1.0000,0.0000,1.44682,0.23328,-2.77748,0.97337,1.57080,-0.00000,-0.14512,-0.38003,0.04653,,,,,,,,,,,,,,,,,,,,,,,,,,0,0,0,0,0
0.0722,1783187894.8336,1,0,1.0000,0.0000,1.44682,0.23328,-2.77748,0.97337,1.57080,-0.00000,-0.14512,-0.38003,0.04653,,,,,,,,,,,,,,,,,,,,,,,,,,0,0,0,0,0
0.0725,1783187894.8338,1,0,1.0000,0.0000,1.44682,0.23328,-2.77748,0.97337,1.57080,-0.00000,-0.14512,-0.38003,0.04653,,,,,,,,,,,,,,,,,,,,,,,,,,0,0,0,0,0
0.0829,1783187894.8442,1,0,1.0000,0.0000,1.44682,0.23328,-2.77748,0.97337,1.57080,-0.00000,-0.14512,-0.38003,0.04653,,,,,,,,,,,,,,,,,,,,,,,,,,0,0,0,0,0
0.0934,1783187894.8547,1,0,1.0000,0.0000,1.44682,0.23328,-2.77748,0.97337,1.57080,-0.00000,-0.14512,-0.38003,0.04653,,,,,,,,,,,,,,,,,,,,,,,,,,0,0,0,0,0
0.0937,1783187894.8550,1,0,1.0000,0.0000,1.44682,0.23328,-2.77748,0.97337,1.57080,-0.00000,-0.14512,-0.38003,0.04653,,,,,,,,,,,,,,,,,,,,,,,,,,0,0,0,0,0
0.1027,1783187894.8640,1,0,1.0000,0.0000,1.44682,0.23328,-2.77748,0.97337,1.57080,-0.00000,-0.14512,-0.38003,0.04653,,,,,,,,,,,,,,,,,,,,,,,,,,0,0,0,0,0
0.1030,1783187894.8643,1,0,1.0000,0.0000,1.44682,0.23328,-2.77748,0.97337,1.57080,-0.00000,-0.14512,-0.38003,0.04653,,,,,,,,,,,,,,,,,,,,,,,,,,0,0,0,0,0
0.1143,1783187894.8756,1,0,1.0000,0.0000,1.44682,0.23328,-2.77748,0.97337,1.57080,-0.00000,-0.14512,-0.38003,0.04653,,,,,,,,,,,,,,,,,,,,,,,,,,0,0,0,0,0
0.1149,1783187894.8762,1,0,1.0000,0.0000,1.44682,0.23328,-2.77748,0.97337,1.57080,-0.00000,-0.14512,-0.38003,0.04653,,,,,,,,,,,,,,,,,,,,,,,,,,0,0,0,0,0
0.1220,1783187894.8833,1,0,1.0000,0.0000,1.44682,0.23328,-2.77748,0.97337,1.57080,-0.00000,-0.14512,-0.38003,0.04653,,,,,,,,,,,,,,,,,,,,,,,,,,0,0,0,0,0
0.1226,1783187894.8840,1,0,1.0000,0.0000,1.44682,0.23328,-2.77748,0.97337,1.57080,-0.00000,-0.14512,-0.38003,0.04653,,,,,,,,,,,,,,,,,,,,,,,,,,0,0,0,0,0
0.1379,1783187894.8993,1,0,1.0000,0.0000,1.44682,0.23328,-2.77748,0.97337,1.57080,-0.00000,-0.14512,-0.38003,0.04653,,,,,,,,,,,,,,,,,,,,,,,,,,0,0,0,0,0
0.1384,1783187894.8997,1,0,1.0000,0.0000,1.44682,0.23328,-2.77748,0.97337,1.57080,-0.00000,-0.14512,-0.38003,0.04653,,,,,,,,,,,,,,,,,,,,,,,,,,0,0,0,0,0
0.1446,1783187894.9060,1,0,1.0000,0.0000,1.44682,0.23328,-2.77748,0.97337,1.57080,-0.00000,-0.14512,-0.38003,0.04653,,,,,,,,,,,,,,,,,,,,,,,,,,0,0,0,0,0
0.1449,1783187894.9063,1,0,1.0000,0.0000,1.44682,0.23328,-2.77748,0.97337,1.57080,-0.00000,-0.14512,-0.38003,0.04653,,,,,,,,,,,,,,,,,,,,,,,,,,0,0,0,0,0
0.1669,1783187894.9282,1,0,1.0000,0.0000,1.44682,0.23328,-2.77748,0.97337,1.57080,-0.00000,-0.14512,-0.38003,0.04653,,,,,,,,,,,,,,,,,,,,,,,,,,0,0,0,0,0
0.1672,1783187894.9285,1,0,1.0000,0.0000,1.44682,0.23328,-2.77748,0.97337,1.57080,-0.00000,-0.14512,-0.38003,0.04653,,,,,,,,,,,,,,,,,,,,,,,,,,0,0,0,0,0
0.1675,1783187894.9289,1,0,1.0000,0.0000,1.44682,0.23328,-2.77748,0.97337,1.57080,-0.00000,-0.14512,-0.38003,0.04653,,,,,,,,,,,,,,,,,,,,,,,,,,0,0,0,0,0
0.1724,1783187894.9338,1,0,1.0000,0.0000,1.44682,0.23328,-2.77748,0.97337,1.57080,-0.00000,-0.14512,-0.38003,0.04653,,,,,,,,,,,,,,,,,,,,,,,,,,0,0,0,0,0
0.1727,1783187894.9340,1,0,1.0000,0.0000,1.44682,0.23328,-2.77748,0.97337,1.57080,-0.00000,-0.14512,-0.38003,0.04653,,,,,,,,,,,,,,,,,,,,,,,,,,0,0,0,0,0
0.1831,1783187894.9445,1,0,1.0000,0.0000,1.44682,0.23328,-2.77748,0.97337,1.57080,-0.00000,-0.14512,-0.38003,0.04653,,,,,,,,,,,,,,,,,,,,,,,,,,0,0,0,0,0
0.1949,1783187894.9563,1,0,1.0000,0.0000,1.44682,0.23328,-2.77748,0.97337,1.57080,-0.00000,-0.14512,-0.38003,0.04653,,,,,,,,,,,,,,,,,,,,,,,,,,0,0,0,0,0
0.2139,1783187894.9752,1,0,1.0000,0.0000,1.44682,0.23328,-2.77748,0.97337,1.57080,-0.00000,-0.14512,-0.38003,0.04653,,,,,,,,,,,,,,,,,,,,,,,,,,0,0,0,0,0
0.2146,1783187894.9759,1,0,1.0000,0.0000,1.44682,0.23328,-2.77748,0.97337,1.57080,-0.00000,-0.14512,-0.38003,0.04653,,,,,,,,,,,,,,,,,,,,,,,,,,0,0,0,0,0
0.2275,1783187894.9889,1,0,1.0000,0.0000,1.44682,0.23328,-2.77748,0.97337,1.57080,-0.00000,-0.14512,-0.38003,0.04653,,,,,,,,,,,,,,,,,,,,,,,,,,0,0,0,0,0
0.2278,1783187894.9891,1,0,1.0000,0.0000,1.44682,0.23328,-2.77748,0.97337,1.57080,-0.00000,-0.14512,-0.38003,0.04653,,,,,,,,,,,,,,,,,,,,,,,,,,0,0,0,0,0
0.2368,1783187894.9982,1,0,1.0000,0.0000,1.44682,0.23328,-2.77748,0.97337,1.57080,-0.00000,-0.14512,-0.38003,0.04653,,,,,,,,,,,,,,,,,,,,,,,,,,0,0,0,0,0
0.2461,1783187895.0074,1,0,1.0000,0.0000,1.44682,0.23328,-2.77748,0.97337,1.57080,-0.00000,-0.14512,-0.38003,0.04653,,,,,,,,,,,,,,,,,,,,,,,,,,0,0,0,0,0
0.2555,1783187895.0169,1,0,1.0000,0.0000,1.44682,0.23328,-2.77748,0.97337,1.57080,-0.00000,-0.14512,-0.38003,0.04653,,,,,,,,,,,,,,,,,,,,,,,,,,0,0,0,0,0
0.2662,1783187895.0275,1,0,1.0000,0.0000,1.44682,0.23328,-2.77748,0.97337,1.57080,-0.00000,-0.14512,-0.38003,0.04653,,,,,,,,,,,,,,,,,,,,,,,,,,0,0,0,0,0
0.2757,1783187895.0371,1,0,1.0000,0.0000,1.44682,0.23328,-2.77748,0.97337,1.57080,-0.00000,-0.14512,-0.38003,0.04653,,,,,,,,,,,,,,,,,,,,,,,,,,0,0,0,0,0
0.2761,1783187895.0375,1,0,1.0000,0.0000,1.44682,0.23328,-2.77748,0.97337,1.57080,-0.00000,-0.14512,-0.38003,0.04653,,,,,,,,,,,,,,,,,,,,,,,,,,0,0,0,0,0
0.2831,1783187895.0445,1,0,1.0000,0.0000,1.44682,0.23328,-2.77748,0.97337,1.57080,-0.00000,-0.14512,-0.38003,0.04653,,,,,,,,,,,,,,,,,,,,,,,,,,0,0,0,0,0
0.2925,1783187895.0538,1,0,1.0000,0.0000,1.44682,0.23328,-2.77748,0.97337,1.57080,-0.00000,-0.14512,-0.38003,0.04653,,,,,,,,,,,,,,,,,,,,,,,,,,0,0,0,0,0
0.3036,1783187895.0650,1,0,1.0000,0.0000,1.44682,0.23328,-2.77748,0.97337,1.57080,-0.00000,-0.14512,-0.38003,0.04653,,,,,,,,,,,,,,,,,,,,,,,,,,0,0,0,0,0
0.3151,1783187895.0765,1,0,1.0000,0.0000,1.44682,0.23328,-2.77748,0.97337,1.57080,-0.00000,-0.14512,-0.38003,0.04653,,,,,,,,,,,,,,,,,,,,,,,,,,0,0,0,0,0
0.3228,1783187895.0842,1,0,1.0000,0.0000,1.44682,0.23328,-2.77748,0.97337,1.57080,-0.00000,-0.14512,-0.38003,0.04653,,,,,,,,,,,,,,,,,,,,,,,,,,0,0,0,0,0
0.3231,1783187895.0845,1,0,1.0000,0.0000,1.44682,0.23328,-2.77748,0.97337,1.57080,-0.00000,-0.14512,-0.38003,0.04653,,,,,,,,,,,,,,,,,,,,,,,,,,0,0,0,0,0
0.3350,1783187895.0964,1,0,1.0000,0.0000,1.44682,0.23328,-2.77748,0.97337,1.57080,-0.00000,-0.14512,-0.38003,0.04653,,,,,,,,,,,,,,,,,,,,,,,,,,0,0,0,0,0
0.3423,1783187895.1036,1,0,1.0000,0.0000,1.44682,0.23328,-2.77748,0.97337,1.57080,0.00000,-0.14512,-0.38003,0.04653,,,,,,,,,,,,,,,,,,,,,,,,,,0,0,0,0,0
0.3427,1783187895.1040,1,0,1.0000,0.0000,1.44682,0.23328,-2.77748,0.97337,1.57080,0.00000,-0.14512,-0.38003,0.04653,,,,,,,,,,,,,,,,,,,,,,,,,,0,0,0,0,0
0.3572,1783187895.1186,1,0,1.0000,0.0000,1.44682,0.23328,-2.77748,0.97337,1.57080,0.00000,-0.14512,-0.38003,0.04653,,,,,,,,,,,,,,,,,,,,,,,,,,0,0,0,0,0
0.3629,1783187895.1243,1,0,1.0000,0.0000,1.44682,0.23328,-2.77748,0.97337,1.57080,0.00000,-0.14512,-0.38003,0.04653,,,,,,,,,,,,,,,,,,,,,,,,,,0,0,0,0,0
0.3746,1783187895.1359,1,0,1.0000,0.0000,1.44682,0.23328,-2.77748,0.97337,1.57080,0.00000,-0.14512,-0.38003,0.04653,,,,,,,,,,,,,,,,,,,,,,,,,,0,0,0,0,0
0.3846,1783187895.1460,1,0,1.0000,0.0000,1.44682,0.23328,-2.77748,0.97337,1.57080,0.00000,-0.14512,-0.38003,0.04653,,,,,,,,,,,,,,,,,,,,,,,,,,0,0,0,0,0
0.3933,1783187895.1546,1,0,1.0000,0.0000,1.44682,0.23328,-2.77748,0.97337,1.57080,0.00000,-0.14512,-0.38003,0.04653,,,,,,,,,,,,,,,,,,,,,,,,,,0,0,0,0,0
0.3937,1783187895.1550,1,0,1.0000,0.0000,1.44682,0.23328,-2.77748,0.97337,1.57080,0.00000,-0.14512,-0.38003,0.04653,,,,,,,,,,,,,,,,,,,,,,,,,,0,0,0,0,0
0.4029,1783187895.1643,1,0,1.0000,0.0000,1.44682,0.23328,-2.77748,0.97337,1.57080,0.00000,-0.14512,-0.38003,0.04653,,,,,,,,,,,,,,,,,,,,,,,,,,0,0,0,0,0
0.4034,1783187895.1648,1,0,1.0000,0.0000,1.44682,0.23328,-2.77748,0.97337,1.57080,0.00000,-0.14512,-0.38003,0.04653,,,,,,,,,,,,,,,,,,,,,,,,,,0,0,0,0,0
0.4277,1783187895.1890,1,0,1.0000,0.0000,1.44682,0.23328,-2.77748,0.97337,1.57080,0.00000,-0.14512,-0.38003,0.04653,,,,,,,,,,,,,,,,,,,,,,,,,,0,0,0,0,0
0.4354,1783187895.1968,1,0,1.0000,0.0000,1.44682,0.23328,-2.77748,0.97337,1.57080,0.00000,-0.14512,-0.38003,0.04653,,,,,,,,,,,,,,,,,,,,,,,,,,0,0,0,0,0
0.4422,1783187895.2036,1,0,1.0000,0.0000,1.44682,0.23328,-2.77748,0.97337,1.57080,0.00000,-0.14512,-0.38003,0.04653,,,,,,,,,,,,,,,,,,,,,,,,,,0,0,0,0,0
0.4427,1783187895.2041,1,0,1.0000,0.0000,1.44682,0.23328,-2.77748,0.97337,1.57080,0.00000,-0.14512,-0.38003,0.04653,,,,,,,,,,,,,,,,,,,,,,,,,,0,0,0,0,0
0.4572,1783187895.2185,1,0,1.0000,0.0000,1.44682,0.23328,-2.77748,0.97337,1.57080,0.00000,-0.14512,-0.38003,0.04653,,,,,,,,,,,,,,,,,,,,,,,,,,0,0,0,0,0
0.4646,1783187895.2260,1,0,1.0000,0.0000,1.44682,0.23328,-2.77748,0.97337,1.57080,0.00000,-0.14512,-0.38003,0.04653,,,,,,,,,,,,,,,,,,,,,,,,,,0,0,0,0,0
0.4757,1783187895.2371,1,0,1.0000,0.0000,1.44682,0.23328,-2.77748,0.97337,1.57080,0.00000,-0.14512,-0.38003,0.04653,,,,,,,,,,,,,,,,,,,,,,,,,,0,0,0,0,0
0.4849,1783187895.2463,1,0,1.0000,0.0000,1.44682,0.23328,-2.77748,0.97337,1.57080,0.00000,-0.14512,-0.38003,0.04653,,,,,,,,,,,,,,,,,,,,,,,,,,0,0,0,0,0
0.4853,1783187895.2466,1,0,1.0000,0.0000,1.44682,0.23328,-2.77748,0.97337,1.57080,0.00000,-0.14512,-0.38003,0.04653,,,,,,,,,,,,,,,,,,,,,,,,,,0,0,0,0,0
0.4923,1783187895.2537,1,0,1.0000,0.0000,1.44682,0.23328,-2.77748,0.97337,1.57080,0.00000,-0.14512,-0.38003,0.04653,,,,,,,,,,,,,,,,,,,,,,,,,,0,0,0,0,0
0.5027,1783187895.2640,1,0,1.0000,0.0000,1.44682,0.23328,-2.77748,0.97337,1.57080,0.00000,-0.14512,-0.38003,0.04653,,,,,,,,,,,,,,,,,,,,,,,,,,0,0,0,0,0
0.5131,1783187895.2745,1,0,1.0000,0.0000,1.44682,0.23328,-2.77748,0.97337,1.57080,0.00000,-0.14512,-0.38003,0.04653,,,,,,,,,,,,,,,,,,,,,,,,,,0,0,0,0,0
0.5134,1783187895.2748,1,0,1.0000,0.0000,1.44682,0.23328,-2.77748,0.97337,1.57080,0.00000,-0.14512,-0.38003,0.04653,,,,,,,,,,,,,,,,,,,,,,,,,,0,0,0,0,0
0.5248,1783187895.2862,1,0,1.0000,0.0000,1.44682,0.23328,-2.77748,0.97337,1.57080,0.00000,-0.14512,-0.38003,0.04653,,,,,,,,,,,,,,,,,,,,,,,,,,0,0,0,0,0
0.5323,1783187895.2937,1,0,1.0000,0.0000,1.44682,0.23328,-2.77748,0.97337,1.57080,0.00000,-0.14512,-0.38003,0.04653,,,,,,,,,,,,,,,,,,,,,,,,,,0,0,0,0,0
0.5433,1783187895.3046,1,0,1.0000,0.0000,1.44682,0.23328,-2.77748,0.97337,1.57080,0.00000,-0.14512,-0.38003,0.04653,,,,,,,,,,,,,,,,,,,,,,,,,,0,0,0,0,0
0.5436,1783187895.3050,1,0,1.0000,0.0000,1.44682,0.23328,-2.77748,0.97337,1.57080,0.00000,-0.14512,-0.38003,0.04653,,,,,,,,,,,,,,,,,,,,,,,,,,0,0,0,0,0
0.5548,1783187895.3162,1,0,1.0000,0.0000,1.44682,0.23328,-2.77748,0.97337,1.57080,0.00000,-0.14512,-0.38003,0.04653,,,,,,,,,,,,,,,,,,,,,,,,,,0,0,0,0,0
0.5671,1783187895.3284,1,0,1.0000,0.0000,1.44682,0.23328,-2.77748,0.97337,1.57080,0.00000,-0.14512,-0.38003,0.04653,,,,,,,,,,,,,,,,,,,,,,,,,,0,0,0,0,0
0.5674,1783187895.3288,1,0,1.0000,0.0000,1.44682,0.23328,-2.77748,0.97337,1.57080,0.00000,-0.14512,-0.38003,0.04653,,,,,,,,,,,,,,,,,,,,,,,,,,0,0,0,0,0
0.5761,1783187895.3374,1,0,1.0000,0.0000,1.44682,0.23328,-2.77748,0.97337,1.57080,0.00000,-0.14512,-0.38003,0.04653,,,,,,,,,,,,,,,,,,,,,,,,,,0,0,0,0,0
0.5868,1783187895.3481,1,0,1.0000,0.0000,1.44682,0.23328,-2.77748,0.97337,1.57080,0.00000,-0.14512,-0.38003,0.04653,,,,,,,,,,,,,,,,,,,,,,,,,,0,0,0,0,0
0.5926,1783187895.3540,1,0,1.0000,0.0000,1.44682,0.23328,-2.77748,0.97337,1.57080,0.00000,-0.14512,-0.38003,0.04653,,,,,,,,,,,,,,,,,,,,,,,,,,0,0,0,0,0
0.6042,1783187895.3656,1,0,1.0000,0.0000,1.44682,0.23328,-2.77748,0.97337,1.57080,0.00000,-0.14512,-0.38003,0.04653,,,,,,,,,,,,,,,,,,,,,,,,,,0,0,0,0,0
0.6154,1783187895.3767,1,0,1.0000,0.0000,1.44682,0.23328,-2.77748,0.97337,1.57080,0.00000,-0.14512,-0.38003,0.04653,,,,,,,,,,,,,,,,,,,,,,,,,,0,0,0,0,0
0.6275,1783187895.3888,1,0,1.0000,0.0000,1.44682,0.23328,-2.77748,0.97337,1.57080,0.00000,-0.14512,-0.38003,0.04653,,,,,,,,,,,,,,,,,,,,,,,,,,0,0,0,0,0
0.6278,1783187895.3891,1,0,1.0000,0.0000,1.44682,0.23328,-2.77748,0.97337,1.57080,0.00000,-0.14512,-0.38003,0.04653,,,,,,,,,,,,,,,,,,,,,,,,,,0,0,0,0,0
0.6347,1783187895.3960,1,0,1.0000,0.0000,1.44682,0.23328,-2.77748,0.97337,1.57080,0.00000,-0.14512,-0.38003,0.04653,,,,,,,,,,,,,,,,,,,,,,,,,,0,0,0,0,0
0.6349,1783187895.3963,1,0,1.0000,0.0000,1.44682,0.23328,-2.77748,0.97337,1.57080,0.00000,-0.14512,-0.38003,0.04653,,,,,,,,,,,,,,,,,,,,,,,,,,0,0,0,0,0
0.6458,1783187895.4071,1,0,1.0000,0.0000,1.44682,0.23328,-2.77748,0.97337,1.57080,0.00000,-0.14512,-0.38003,0.04653,,,,,,,,,,,,,,,,,,,,,,,,,,0,0,0,0,0
0.6540,1783187895.4153,1,0,1.0000,0.0000,1.44682,0.23328,-2.77748,0.97337,1.57080,0.00000,-0.14512,-0.38003,0.04653,,,,,,,,,,,,,,,,,,,,,,,,,,0,0,0,0,0
0.6629,1783187895.4242,1,0,1.0000,0.0000,1.44682,0.23328,-2.77748,0.97337,1.57080,0.00000,-0.14512,-0.38003,0.04653,,,,,,,,,,,,,,,,,,,,,,,,,,0,0,0,0,0
0.6631,1783187895.4245,1,0,1.0000,0.0000,1.44682,0.23328,-2.77748,0.97337,1.57080,0.00000,-0.14512,-0.38003,0.04653,,,,,,,,,,,,,,,,,,,,,,,,,,0,0,0,0,0
0.6760,1783187895.4373,1,0,1.0000,0.0000,1.44682,0.23328,-2.77748,0.97337,1.57080,0.00000,-0.14512,-0.38003,0.04653,,,,,,,,,,,,,,,,,,,,,,,,,,0,0,0,0,0
0.6829,1783187895.4442,1,0,1.0000,0.0000,1.44682,0.23328,-2.77748,0.97337,1.57080,0.00000,-0.14512,-0.38003,0.04653,,,,,,,,,,,,,,,,,,,,,,,,,,0,0,0,0,0
0.6831,1783187895.4445,1,0,1.0000,0.0000,1.44682,0.23328,-2.77748,0.97337,1.57080,0.00000,-0.14512,-0.38003,0.04653,,,,,,,,,,,,,,,,,,,,,,,,,,0,0,0,0,0
0.6927,1783187895.4540,1,0,1.0000,0.0000,1.44682,0.23328,-2.77748,0.97337,1.57080,0.00000,-0.14512,-0.38003,0.04653,,,,,,,,,,,,,,,,,,,,,,,,,,0,0,0,0,0
0.7028,1783187895.4642,1,0,1.0000,0.0000,1.44682,0.23328,-2.77748,0.97337,1.57080,0.00000,-0.14512,-0.38003,0.04653,,,,,,,,,,,,,,,,,,,,,,,,,,0,0,0,0,0
0.7125,1783187895.4739,1,0,1.0000,0.0000,1.44682,0.23328,-2.77748,0.97337,1.57080,0.00000,-0.14512,-0.38003,0.04653,,,,,,,,,,,,,,,,,,,,,,,,,,0,0,0,0,0
0.7297,1783187895.4910,1,1,1.0000,0.0000,1.44682,0.23328,-2.77748,0.97337,1.57080,0.00000,-0.14512,-0.38003,0.04653,,,,,,,,,,,,,,,,,,,,,,,,,,0,0,0,0,0
0.7367,1783187895.4981,1,1,1.0000,0.0000,1.44682,0.23328,-2.77748,0.97337,1.57080,0.00000,-0.14512,-0.38003,0.04653,,,,,,,,,,,,,,,,,,,,,,,,,,0,0,0,0,0
0.7454,1783187895.5068,1,1,1.0000,0.0000,1.44682,0.23328,-2.77748,0.97337,1.57080,0.00000,-0.14512,-0.38003,0.04653,,,,,,,,,,,,,,,,,,,,,,,,,,0,0,0,0,0
0.7459,1783187895.5073,1,1,1.0000,0.0000,1.44682,0.23328,-2.77748,0.97337,1.57080,0.00000,-0.14512,-0.38003,0.04653,,,,,,,,,,,,,,,,,,,,,,,,,,0,0,0,0,0
0.7566,1783187895.5180,1,1,1.0000,0.0000,1.44682,0.23328,-2.77748,0.97337,1.57080,0.00000,-0.14512,-0.38003,0.04653,,,,,,,,,,,,,,,,,,,,,,,,,,0,0,0,0,0
0.7669,1783187895.5283,1,1,1.0000,0.0000,1.44682,0.23328,-2.77748,0.97337,1.57080,0.00000,-0.14512,-0.38003,0.04653,,,,,,,,,,,,,,,,,,,,,,,,,,0,0,0,0,0
0.7808,1783187895.5421,1,1,1.0000,0.0000,1.44682,0.23328,-2.77748,0.97337,1.57080,0.00000,-0.14512,-0.38003,0.04653,,,,,,,,,,,,,,,,,,,,,,,,,,0,0,0,0,0
0.7860,1783187895.5474,1,1,1.0000,0.0000,1.44682,0.23328,-2.77748,0.97337,1.57080,0.00000,-0.14512,-0.38003,0.04653,,,,,,,,,,,,,,,,,,,,,,,,,,0,0,0,0,0
0.7961,1783187895.5575,1,1,1.0000,0.0000,1.44682,0.23328,-2.77748,0.97337,1.57080,0.00000,-0.14512,-0.38003,0.04653,,,,,,,,,,,,,,,,,,,,,,,,,,0,0,0,0,0
0.8058,1783187895.5671,1,1,1.0000,0.0000,1.44682,0.23328,-2.77748,0.97337,1.57080,0.00000,-0.14512,-0.38003,0.04653,,,,,,,,,,,,,,,,,,,,,,,,,,0,0,0,0,0
0.8189,1783187895.5803,1,1,1.0000,0.0000,1.44682,0.23328,-2.77748,0.97337,1.57080,0.00000,-0.14512,-0.38003,0.04653,,,,,,,,,,,,,,,,,,,,,,,,,,0,0,0,0,0
0.8281,1783187895.5894,1,1,1.0000,0.0000,1.44682,0.23328,-2.77748,0.97337,1.57080,0.00000,-0.14512,-0.38003,0.04653,,,,,,,,,,,,,,,,,,,,,,,,,,0,0,0,0,0
0.8283,1783187895.5897,1,1,1.0000,0.0000,1.44682,0.23328,-2.77748,0.97337,1.57080,0.00000,-0.14512,-0.38003,0.04653,,,,,,,,,,,,,,,,,,,,,,,,,,0,0,0,0,0
0.8559,1783187895.6173,1,1,1.0000,0.0000,1.44682,0.23328,-2.77748,0.97337,1.57080,0.00000,-0.14512,-0.38003,0.04653,,,,,,,,,,,,,,,,,,,,,,,,,,0,0,0,0,0
0.8562,1783187895.6176,1,1,1.0000,0.0000,1.44682,0.23328,-2.77748,0.97337,1.57080,0.00000,-0.14512,-0.38003,0.04653,,,,,,,,,,,,,,,,,,,,,,,,,,0,0,0,0,0
0.8617,1783187895.6231,1,1,1.0000,0.0000,1.44682,0.23328,-2.77748,0.97337,1.57080,0.00000,-0.14512,-0.38003,0.04653,,,,,,,,,,,,,,,,,,,,,,,,,,0,0,0,0,0
0.8810,1783187895.6423,1,1,1.0000,0.0000,1.44682,0.23328,-2.77748,0.97337,1.57080,0.00000,-0.14512,-0.38003,0.04653,,,,,,,,,,,,,,,,,,,,,,,,,,0,0,0,0,0
0.8918,1783187895.6532,1,1,1.0000,0.0000,1.44682,0.23328,-2.77748,0.97337,1.57080,0.00000,-0.14512,-0.38003,0.04653,,,,,,,,,,,,,,,,,,,,,,,,,,0,0,0,0,0
0.8921,1783187895.6535,1,1,1.0000,0.0000,1.44682,0.23328,-2.77748,0.97337,1.57080,0.00000,-0.14512,-0.38003,0.04653,,,,,,,,,,,,,,,,,,,,,,,,,,0,0,0,0,0
0.9067,1783187895.6681,1,1,1.0000,0.0000,1.44682,0.23328,-2.77748,0.97337,1.57080,0.00000,-0.14512,-0.38003,0.04653,,,,,,,,,,,,,,,,,,,,,,,,,,0,0,0,0,0
0.9150,1783187895.6764,1,1,1.0000,0.0000,1.44682,0.23328,-2.77748,0.97337,1.57080,0.00000,-0.14512,-0.38003,0.04653,,,,,,,,,,,,,,,,,,,,,,,,,,0,0,0,0,0
0.9283,1783187895.6896,1,1,1.0000,0.0000,1.44682,0.23322,-2.77749,0.97344,1.57080,0.00000,-0.14512,-0.38003,0.04651,,,,,,,,,,,,,,,,,,,,,,,,,,0,0,0,0,0
0.9357,1783187895.6970,1,1,1.0000,0.0000,1.44682,0.23309,-2.77753,0.97361,1.57080,0.00000,-0.14512,-0.38003,0.04648,,,,,,,,,,,,,,,,,,,,,,,,,,0,0,0,0,0
0.9482,1783187895.7095,1,1,1.0000,0.0000,1.44682,0.23285,-2.77759,0.97390,1.57080,0.00000,-0.14512,-0.38003,0.04642,,,,,,,,,,,,,,,,,,,,,,,,,,0,0,0,0,0
0.9524,1783187895.7137,1,1,1.0000,0.0000,1.44682,0.23285,-2.77759,0.97390,1.57080,0.00000,-0.14512,-0.38003,0.04642,,,,,,,,,,,,,,,,,,,,,,,,,,0,0,0,0,0
0.9613,1783187895.7226,1,1,1.0000,0.0000,1.44682,0.23282,-2.77759,0.97394,1.57080,0.00000,-0.14512,-0.38003,0.04641,,,,,,,,,,,,,,,,,,,,,,,,,,0,0,0,0,0
0.9710,1783187895.7323,1,1,1.0000,0.0000,1.44682,0.23270,-2.77763,0.97410,1.57080,0.00000,-0.14512,-0.38003,0.04638,,,,,,,,,,,,,,,,,,,,,,,,,,0,0,0,0,0
0.9820,1783187895.7434,1,1,1.0000,0.0000,1.44682,0.23264,-2.77764,0.97417,1.57080,0.00000,-0.14512,-0.38003,0.04636,,,,,,,,,,,,,,,,,,,,,,,,,,0,0,0,0,0
0.9949,1783187895.7562,1,1,1.0000,0.0000,1.44682,0.23248,-2.77768,0.97437,1.57080,0.00000,-0.14512,-0.38003,0.04632,,,,,,,,,,,,,,,,,,,,,,,,,,0,0,0,0,0
1.0041,1783187895.7655,1,1,1.0000,0.0000,1.44682,0.23234,-2.77772,0.97455,1.57080,0.00000,-0.14512,-0.38003,0.04628,,,,,,,,,,,,,,,,,,,,,,,,,,0,0,0,0,0
1.0044,1783187895.7658,1,1,1.0000,0.0000,1.44682,0.23234,-2.77772,0.97455,1.57080,0.00000,-0.14512,-0.38003,0.04628,,,,,,,,,,,,,,,,,,,,,,,,,,0,0,0,0,0
1.0138,1783187895.7751,1,1,1.0000,0.0000,1.44682,0.23227,-2.77774,0.97464,1.57080,0.00000,-0.14512,-0.38003,0.04626,,,,,,,,,,,,,,,,,,,,,,,,,,0,0,0,0,0
1.0141,1783187895.7754,1,1,1.0000,0.0000,1.44682,0.23227,-2.77774,0.97464,1.57080,0.00000,-0.14512,-0.38003,0.04626,,,,,,,,,,,,,,,,,,,,,,,,,,0,0,0,0,0
1.0209,1783187895.7822,1,1,1.0000,0.0000,1.44682,0.23224,-2.77774,0.97468,1.57080,0.00000,-0.14512,-0.38003,0.04626,,,,,,,,,,,,,,,,,,,,,,,,,,0,0,0,0,0
1.0212,1783187895.7826,1,1,1.0000,0.0000,1.44682,0.23224,-2.77774,0.97468,1.57080,0.00000,-0.14512,-0.38003,0.04626,,,,,,,,,,,,,,,,,,,,,,,,,,0,0,0,0,0
1.0336,1783187895.7949,1,1,1.0000,0.0000,1.44682,0.23210,-2.77778,0.97485,1.57080,0.00000,-0.14512,-0.38003,0.04622,,,,,,,,,,,,,,,,,,,,,,,,,,0,0,0,0,0
1.0402,1783187895.8016,1,1,1.0000,0.0000,1.44682,0.23204,-2.77779,0.97492,1.57080,0.00000,-0.14512,-0.38003,0.04621,,,,,,,,,,,,,,,,,,,,,,,,,,0,0,0,0,0
1.0406,1783187895.8020,1,1,1.0000,0.0000,1.44682,0.23204,-2.77779,0.97492,1.57080,0.00000,-0.14512,-0.38003,0.04621,,,,,,,,,,,,,,,,,,,,,,,,,,0,0,0,0,0
1.0558,1783187895.8171,1,1,1.0000,0.0000,1.44682,0.23189,-2.77784,0.97512,1.57080,0.00000,-0.14512,-0.38003,0.04616,,,,,,,,,,,,,,,,,,,,,,,,,,0,0,0,0,0
1.0561,1783187895.8175,1,1,1.0000,0.0000,1.44682,0.23189,-2.77784,0.97512,1.57080,0.00000,-0.14512,-0.38003,0.04616,,,,,,,,,,,,,,,,,,,,,,,,,,0,0,0,0,0
1.0651,1783187895.8264,1,1,1.0000,0.0000,1.44682,0.23175,-2.77787,0.97530,1.57080,0.00000,-0.14512,-0.38003,0.04613,,,,,,,,,,,,,,,,,,,,,,,,,,0,0,0,0,0
1.0655,1783187895.8268,1,1,1.0000,0.0000,1.44682,0.23175,-2.77787,0.97530,1.57080,0.00000,-0.14512,-0.38003,0.04613,,,,,,,,,,,,,,,,,,,,,,,,,,0,0,0,0,0
1.0708,1783187895.8321,1,1,1.0000,0.0000,1.44682,0.23168,-2.77789,0.97538,1.57080,0.00000,-0.14512,-0.38003,0.04611,,,,,,,,,,,,,,,,,,,,,,,,,,0,0,0,0,0
1.0711,1783187895.8324,1,1,1.0000,0.0000,1.44682,0.23168,-2.77789,0.97538,1.57080,0.00000,-0.14512,-0.38003,0.04611,,,,,,,,,,,,,,,,,,,,,,,,,,0,0,0,0,0
1.0859,1783187895.8472,1,1,1.0000,0.0000,1.44682,0.23161,-2.77791,0.97547,1.57080,0.00000,-0.14512,-0.38003,0.04609,,,,,,,,,,,,,,,,,,,,,,,,,,0,0,0,0,0
1.0917,1783187895.8531,1,1,1.0000,0.0000,1.44682,0.23151,-2.77793,0.97559,1.57080,0.00000,-0.14512,-0.38003,0.04607,,,,,,,,,,,,,,,,,,,,,,,,,,0,0,0,0,0
1.1012,1783187895.8626,1,1,1.0000,0.0000,1.44682,0.23145,-2.77795,0.97567,1.57080,0.00000,-0.14512,-0.38003,0.04605,,,,,,,,,,,,,,,,,,,,,,,,,,0,0,0,0,0
1.1103,1783187895.8716,1,1,1.0000,0.0000,1.44682,0.23140,-2.77796,0.97572,1.57080,0.00000,-0.14512,-0.38003,0.04604,,,,,,,,,,,,,,,,,,,,,,,,,,0,0,0,0,0
1.1202,1783187895.8815,1,1,1.0000,0.0000,1.44682,0.23122,-2.77801,0.97595,1.57080,0.00000,-0.14512,-0.38003,0.04599,,,,,,,,,,,,,,,,,,,,,,,,,,0,0,0,0,0
1.1206,1783187895.8820,1,1,1.0000,0.0000,1.44682,0.23122,-2.77801,0.97595,1.57080,0.00000,-0.14512,-0.38003,0.04599,,,,,,,,,,,,,,,,,,,,,,,,,,0,0,0,0,0
1.1364,1783187895.8978,1,1,1.0000,0.0000,1.44682,0.23107,-2.77804,0.97614,1.57080,0.00000,-0.14512,-0.38003,0.04595,,,,,,,,,,,,,,,,,,,,,,,,,,0,0,0,0,0
1.1421,1783187895.9035,1,1,1.0000,0.0000,1.44682,0.23105,-2.77805,0.97617,1.57080,0.00000,-0.14512,-0.38003,0.04595,,,,,,,,,,,,,,,,,,,,,,,,,,0,0,0,0,0
1.1526,1783187895.9139,1,1,1.0000,0.0000,1.44682,0.23092,-2.77809,0.97634,1.57080,0.00000,-0.14512,-0.38003,0.04591,,,,,,,,,,,,,,,,,,,,,,,,,,0,0,0,0,0
1.1660,1783187895.9274,1,1,1.0000,0.0000,1.44682,0.23084,-2.77810,0.97643,1.57080,0.00000,-0.14512,-0.38003,0.04589,,,,,,,,,,,,,,,,,,,,,,,,,,0,0,0,0,0
1.1749,1783187895.9363,1,1,1.0000,0.0000,1.44682,0.23070,-2.77814,0.97661,1.57080,0.00000,-0.14512,-0.38003,0.04585,,,,,,,,,,,,,,,,,,,,,,,,,,0,0,0,0,0
1.1819,1783187895.9432,1,1,1.0000,0.0000,1.44682,0.23063,-2.77816,0.97670,1.57080,0.00000,-0.14512,-0.38003,0.04584,,,,,,,,,,,,,,,,,,,,,,,,,,0,0,0,0,0
1.1826,1783187895.9439,1,1,1.0000,0.0000,1.44682,0.23056,-2.77818,0.97679,1.57080,0.00000,-0.14512,-0.38003,0.04582,,,,,,,,,,,,,,,,,,,,,,,,,,0,0,0,0,0
1.1948,1783187895.9561,1,1,1.0000,0.0000,1.44682,0.23048,-2.77820,0.97689,1.57080,0.00000,-0.14512,-0.38003,0.04580,,,,,,,,,,,,,,,,,,,,,,,,,,0,0,0,0,0
1.1949,1783187895.9563,1,1,1.0000,0.0000,1.44682,0.23048,-2.77820,0.97689,1.57080,0.00000,-0.14512,-0.38003,0.04580,,,,,,,,,,,,,,,,,,,,,,,,,,0,0,0,0,0
1.2004,1783187895.9618,1,1,1.0000,0.0000,1.44682,0.23046,-2.77820,0.97692,1.57080,0.00000,-0.14512,-0.38003,0.04579,,,,,,,,,,,,,,,,,,,,,,,,,,0,0,0,0,0
1.2137,1783187895.9751,1,1,1.0000,0.0000,1.44682,0.23032,-2.77824,0.97709,1.57080,0.00000,-0.14512,-0.38003,0.04576,,,,,,,,,,,,,,,,,,,,,,,,,,0,0,0,0,0
1.2141,1783187895.9754,1,1,1.0000,0.0000,1.44682,0.23032,-2.77824,0.97709,1.57080,0.00000,-0.14512,-0.38003,0.04576,,,,,,,,,,,,,,,,,,,,,,,,,,0,0,0,0,0
1.2215,1783187895.9829,1,1,1.0000,0.0000,1.44682,0.23026,-2.77825,0.97716,1.57080,0.00000,-0.14512,-0.38003,0.04574,,,,,,,,,,,,,,,,,,,,,,,,,,0,0,0,0,0
1.2344,1783187895.9957,1,1,1.0000,0.0000,1.44682,0.23017,-2.77828,0.97728,1.57080,0.00000,-0.14512,-0.38003,0.04571,,,,,,,,,,,,,,,,,,,,,,,,,,0,0,0,0,0
1.2352,1783187895.9965,1,1,1.0000,0.0000,1.44682,0.23010,-2.77829,0.97736,1.57080,0.00000,-0.14512,-0.38003,0.04570,,,,,,,,,,,,,,,,,,,,,,,,,,0,0,0,0,0
1.2409,1783187896.0022,1,1,1.0000,0.0000,1.44682,0.23003,-2.77831,0.97745,1.57080,0.00000,-0.14512,-0.38003,0.04568,,,,,,,,,,,,,,,,,,,,,,,,,,0,0,0,0,0
1.2550,1783187896.0164,1,1,1.0000,0.0000,1.44682,0.22988,-2.77835,0.97764,1.57080,0.00000,-0.14512,-0.38003,0.04564,,,,,,,,,,,,,,,,,,,,,,,,,,0,0,0,0,0
1.2649,1783187896.0263,1,1,1.0000,0.0000,1.44682,0.22980,-2.77837,0.97774,1.57080,0.00000,-0.14512,-0.38003,0.04562,,,,,,,,,,,,,,,,,,,,,,,,,,0,0,0,0,0
1.2722,1783187896.0335,1,1,1.0000,0.0000,1.44682,0.22967,-2.77840,0.97790,1.57080,0.00000,-0.14512,-0.38003,0.04559,,,,,,,,,,,,,,,,,,,,,,,,,,0,0,0,0,0
1.2839,1783187896.0453,1,1,1.0000,0.0000,1.44682,0.22959,-2.77842,0.97800,1.57080,0.00000,-0.14512,-0.38003,0.04557,,,,,,,,,,,,,,,,,,,,,,,,,,0,0,0,0,0
1.2936,1783187896.0549,1,1,1.0000,0.0000,1.44682,0.22951,-2.77845,0.97810,1.57080,0.00000,-0.14512,-0.38003,0.04554,,,,,,,,,,,,,,,,,,,,,,,,,,0,0,0,0,0
1.3012,1783187896.0625,1,1,1.0000,0.0000,1.44682,0.22938,-2.77848,0.97826,1.57080,0.00000,-0.14512,-0.38003,0.04551,,,,,,,,,,,,,,,,,,,,,,,,,,0,0,0,0,0
1.3107,1783187896.0720,1,1,1.0000,0.0000,1.44682,0.22925,-2.77851,0.97844,1.57080,0.00000,-0.14512,-0.38003,0.04548,,,,,,,,,,,,,,,,,,,,,,,,,,0,0,0,0,0
1.3221,1783187896.0834,1,1,1.0000,0.0000,1.44682,0.22920,-2.77852,0.97849,1.57080,0.00000,-0.14512,-0.38003,0.04546,,,,,,,,,,,,,,,,,,,,,,,,,,0,0,0,0,0
1.3319,1783187896.0932,1,1,1.0000,0.0000,1.44682,0.22902,-2.77857,0.97872,1.57080,0.00000,-0.14512,-0.38003,0.04542,,,,,,,,,,,,,,,,,,,,,,,,,,0,0,0,0,0
1.3429,1783187896.1043,1,1,1.0000,0.0000,1.44682,0.22894,-2.77859,0.97882,1.57080,0.00000,-0.14512,-0.38003,0.04540,,,,,,,,,,,,,,,,,,,,,,,,,,0,0,0,0,0
1.3507,1783187896.1121,1,1,1.0000,0.0000,1.44682,0.22886,-2.77861,0.97892,1.57080,0.00000,-0.14512,-0.38003,0.04537,,,,,,,,,,,,,,,,,,,,,,,,,,0,0,0,0,0
1.3614,1783187896.1228,1,1,1.0000,0.0000,1.44682,0.22873,-2.77864,0.97908,1.57080,0.00000,-0.14512,-0.38003,0.04534,,,,,,,,,,,,,,,,,,,,,,,,,,0,0,0,0,0
1.3712,1783187896.1325,1,1,1.0000,0.0000,1.44682,0.22860,-2.77868,0.97925,1.57080,0.00000,-0.14512,-0.38003,0.04531,,,,,,,,,,,,,,,,,,,,,,,,,,0,0,0,0,0
1.3812,1783187896.1425,1,1,1.0000,0.0000,1.44682,0.22855,-2.77869,0.97931,1.57080,0.00000,-0.14512,-0.38003,0.04529,,,,,,,,,,,,,,,,,,,,,,,,,,0,0,0,0,0
1.4014,1783187896.1628,1,1,1.0000,0.0000,1.44682,0.22830,-2.77875,0.97962,1.57080,0.00000,-0.14512,-0.38003,0.04523,,,,,,,,,,,,,,,,,,,,,,,,,,0,0,0,0,0
1.4018,1783187896.1631,1,1,1.0000,0.0000,1.44682,0.22830,-2.77875,0.97962,1.57080,0.00000,-0.14512,-0.38003,0.04523,,,,,,,,,,,,,,,,,,,,,,,,,,0,0,0,0,0
1.4110,1783187896.1724,1,1,1.0000,0.0000,1.44682,0.22821,-2.77878,0.97974,1.57080,0.00000,-0.14512,-0.38003,0.04521,,,,,,,,,,,,,,,,,,,,,,,,,,0,0,0,0,0
1.4237,1783187896.1851,1,1,1.0000,0.0000,1.44682,0.22801,-2.77883,0.97998,1.57080,0.00000,-0.14512,-0.38003,0.04515,,,,,,,,,,,,,,,,,,,,,,,,,,0,0,0,0,0
1.4308,1783187896.1922,1,1,1.0000,0.0000,1.44682,0.22794,-2.77884,0.98007,1.57080,0.00000,-0.14512,-0.38003,0.04514,,,,,,,,,,,,,,,,,,,,,,,,,,0,0,0,0,0
1.4432,1783187896.2045,1,1,1.0000,0.0000,1.44682,0.22785,-2.77887,0.98019,1.57080,0.00000,-0.14512,-0.38003,0.04511,,,,,,,,,,,,,,,,,,,,,,,,,,0,0,0,0,0
1.4520,1783187896.2133,1,1,1.0000,0.0000,1.44682,0.22772,-2.77890,0.98035,1.57080,0.00000,-0.14512,-0.38003,0.04508,,,,,,,,,,,,,,,,,,,,,,,,,,0,0,0,0,0
1.4627,1783187896.2240,1,1,1.0000,0.0000,1.44682,0.22764,-2.77892,0.98045,1.57080,0.00000,-0.14512,-0.38003,0.04506,,,,,,,,,,,,,,,,,,,,,,,,,,0,0,0,0,0
1.4733,1783187896.2346,1,1,1.0000,0.0000,1.44682,0.22756,-2.77894,0.98055,1.57080,0.00000,-0.14512,-0.38003,0.04504,,,,,,,,,,,,,,,,,,,,,,,,,,0,0,0,0,0
1.4815,1783187896.2428,1,1,1.0000,0.0000,1.44682,0.22743,-2.77898,0.98071,1.57080,0.00000,-0.14512,-0.38003,0.04500,,,,,,,,,,,,,,,,,,,,,,,,,,0,0,0,0,0
1.4937,1783187896.2551,1,1,1.0000,0.0000,1.44682,0.22729,-2.77901,0.98089,1.57080,0.00000,-0.14512,-0.38003,0.04497,,,,,,,,,,,,,,,,,,,,,,,,,,0,0,0,0,0
1.5019,1783187896.2632,1,1,1.0000,0.0000,1.44682,0.22725,-2.77902,0.98094,1.57080,0.00000,-0.14512,-0.38003,0.04496,,,,,,,,,,,,,,,,,,,,,,,,,,0,0,0,0,0
1.5102,1783187896.2715,1,1,1.0000,0.0000,1.44682,0.22714,-2.77905,0.98108,1.57080,0.00000,-0.14512,-0.38003,0.04493,,,,,,,,,,,,,,,,,,,,,,,,,,0,0,0,0,0
1.5202,1783187896.2815,1,1,1.0000,0.0000,1.44682,0.22700,-2.77908,0.98125,1.57080,0.00001,-0.14512,-0.38003,0.04489,,,,,,,,,,,,,,,,,,,,,,,,,,0,0,0,0,0
1.5316,1783187896.2929,1,1,1.0000,0.0000,1.44682,0.22691,-2.77911,0.98137,1.57080,0.00001,-0.14512,-0.38003,0.04487,,,,,,,,,,,,,,,,,,,,,,,,,,0,0,0,0,0
1.5433,1783187896.3047,1,1,1.0000,0.0000,1.44682,0.22671,-2.77916,0.98162,1.57080,0.00001,-0.14512,-0.38003,0.04482,,,,,,,,,,,,,,,,,,,,,,,,,,0,0,0,0,0
1.5518,1783187896.3132,1,1,1.0000,0.0000,1.44682,0.22664,-2.77918,0.98170,1.57080,0.00001,-0.14512,-0.38003,0.04480,,,,,,,,,,,,,,,,,,,,,,,,,,0,0,0,0,0
1.5629,1783187896.3243,1,1,1.0000,0.0000,1.44682,0.22655,-2.77920,0.98182,1.57080,0.00001,-0.14512,-0.38003,0.04477,,,,,,,,,,,,,,,,,,,,,,,,,,0,0,0,0,0
1.5714,1783187896.3327,1,1,1.0000,0.0000,1.44682,0.22642,-2.77923,0.98198,1.57080,0.00001,-0.14512,-0.38003,0.04474,,,,,,,,,,,,,,,,,,,,,,,,,,0,0,0,0,0
1.5807,1783187896.3421,1,1,1.0000,0.0000,1.44682,0.22628,-2.77927,0.98216,1.57080,0.00001,-0.14512,-0.38003,0.04471,,,,,,,,,,,,,,,,,,,,,,,,,,0,0,0,0,0
1.5915,1783187896.3529,1,1,1.0000,0.0000,1.44682,0.22625,-2.77928,0.98220,1.57080,0.00001,-0.14512,-0.38003,0.04470,,,,,,,,,,,,,,,,,,,,,,,,,,0,0,0,0,0
1.6060,1783187896.3674,1,1,1.0000,0.0000,1.44682,0.22611,-2.77931,0.98237,1.57080,0.00001,-0.14512,-0.38003,0.04466,,,,,,,,,,,,,,,,,,,,,,,,,,0,0,0,0,0
1.6115,1783187896.3729,1,1,1.0000,0.0000,1.44682,0.22605,-2.77933,0.98244,1.57080,0.00001,-0.14512,-0.38003,0.04465,,,,,,,,,,,,,,,,,,,,,,,,,,0,0,0,0,0
1.6236,1783187896.3849,1,1,1.0000,0.0000,1.44682,0.22595,-2.77935,0.98257,1.57080,0.00001,-0.14512,-0.38003,0.04462,,,,,,,,,,,,,,,,,,,,,,,,,,0,0,0,0,0
1.6322,1783187896.3936,1,1,1.0000,0.0000,1.44682,0.22582,-2.77938,0.98273,1.57080,0.00001,-0.14512,-0.38003,0.04459,,,,,,,,,,,,,,,,,,,,,,,,,,0,0,0,0,0
1.7006,1783187896.4620,1,1,1.0000,0.0000,1.44682,0.22508,-2.77957,0.98366,1.57080,0.00001,-0.14512,-0.38002,0.04439,,,,,,,,,,,,,,,,,,,,,,,,,,0,0,0,0,0
1.7010,1783187896.4624,1,1,1.0000,0.0000,1.44682,0.22508,-2.77957,0.98366,1.57080,0.00001,-0.14512,-0.38002,0.04439,,,,,,,,,,,,,,,,,,,,,,,,,,0,0,0,0,0
1.7014,1783187896.4627,1,1,1.0000,0.0000,1.44682,0.22508,-2.77957,0.98366,1.57080,0.00001,-0.14512,-0.38002,0.04439,,,,,,,,,,,,,,,,,,,,,,,,,,0,0,0,0,0
1.7017,1783187896.4631,1,1,1.0000,0.0000,1.44682,0.22508,-2.77957,0.98366,1.57080,0.00001,-0.14512,-0.38002,0.04439,,,,,,,,,,,,,,,,,,,,,,,,,,0,0,0,0,0
1.7021,1783187896.4634,1,1,1.0000,0.0000,1.44682,0.22508,-2.77957,0.98366,1.57080,0.00001,-0.14512,-0.38002,0.04439,,,,,,,,,,,,,,,,,,,,,,,,,,0,0,0,0,0
1.7023,1783187896.4636,1,1,1.0000,0.0000,1.44682,0.22508,-2.77957,0.98366,1.57080,0.00001,-0.14512,-0.38002,0.04439,,,,,,,,,,,,,,,,,,,,,,,,,,0,0,0,0,0
1.7081,1783187896.4694,1,1,1.0000,0.0000,1.44682,0.22507,-2.77957,0.98367,1.57080,0.00001,-0.14512,-0.38002,0.04439,,,,,,,,,,,,,,,,,,,,,,,,,,0,0,0,0,0
1.7084,1783187896.4697,1,1,1.0000,0.0000,1.44682,0.22507,-2.77957,0.98367,1.57080,0.00001,-0.14512,-0.38002,0.04439,,,,,,,,,,,,,,,,,,,,,,,,,,0,0,0,0,0
1.7123,1783187896.4737,1,1,1.0000,0.0000,1.44682,0.22505,-2.77958,0.98370,1.57080,0.00001,-0.14512,-0.38002,0.04439,,,,,,,,,,,,,,,,,,,,,,,,,,0,0,0,0,0
1.7126,1783187896.4740,1,1,1.0000,0.0000,1.44682,0.22505,-2.77958,0.98370,1.57080,0.00001,-0.14512,-0.38002,0.04439,,,,,,,,,,,,,,,,,,,,,,,,,,0,0,0,0,0
1.7216,1783187896.4830,1,1,1.0000,0.0000,1.44682,0.22496,-2.77960,0.98380,1.57080,0.00001,-0.14512,-0.38002,0.04436,,,,,,,,,,,,,,,,,,,,,,,,,,0,0,0,0,0
1.7321,1783187896.4935,1,1,1.0000,0.0000,1.44682,0.22485,-2.77963,0.98395,1.57080,0.00001,-0.14512,-0.38002,0.04434,,,,,,,,,,,,,,,,,,,,,,,,,,0,0,0,0,0
1.7324,1783187896.4938,1,1,1.0000,0.0000,1.44682,0.22485,-2.77963,0.98395,1.57080,0.00001,-0.14512,-0.38002,0.04434,,,,,,,,,,,,,,,,,,,,,,,,,,0,0,0,0,0
1.7404,1783187896.5017,1,1,1.0000,0.0000,1.44682,0.22480,-2.77964,0.98400,1.57080,0.00001,-0.14512,-0.38002,0.04432,,,,,,,,,,,,,,,,,,,,,,,,,,0,0,0,0,0
1.7406,1783187896.5020,1,1,1.0000,0.0000,1.44682,0.22480,-2.77964,0.98400,1.57080,0.00001,-0.14512,-0.38002,0.04432,,,,,,,,,,,,,,,,,,,,,,,,,,0,0,0,0,0
1.7532,1783187896.5145,1,1,1.0000,0.0000,1.44682,0.22462,-2.77969,0.98423,1.57080,0.00001,-0.14512,-0.38002,0.04428,,,,,,,,,,,,,,,,,,,,,,,,,,0,0,0,0,0
1.7610,1783187896.5223,1,1,1.0000,0.0000,1.44682,0.22448,-2.77972,0.98441,1.57080,0.00001,-0.14512,-0.38002,0.04424,,,,,,,,,,,,,,,,,,,,,,,,,,0,0,0,0,0
1.7613,1783187896.5227,1,1,1.0000,0.0000,1.44682,0.22448,-2.77972,0.98441,1.57080,0.00001,-0.14512,-0.38002,0.04424,,,,,,,,,,,,,,,,,,,,,,,,,,0,0,0,0,0
1.7726,1783187896.5339,1,1,1.0000,0.0000,1.44682,0.22445,-2.77973,0.98445,1.57080,0.00001,-0.14512,-0.38002,0.04423,,,,,,,,,,,,,,,,,,,,,,,,,,0,0,0,0,0
1.7808,1783187896.5421,1,1,1.0000,0.0000,1.44682,0.22436,-2.77975,0.98455,1.57080,0.00001,-0.14512,-0.38002,0.04421,,,,,,,,,,,,,,,,,,,,,,,,,,0,0,0,0,0
1.7915,1783187896.5528,1,1,1.0000,0.0000,1.44682,0.22425,-2.77978,0.98470,1.57080,0.00001,-0.14512,-0.38002,0.04418,,,,,,,,,,,,,,,,,,,,,,,,,,0,0,0,0,0
1.7920,1783187896.5534,1,1,1.0000,0.0000,1.44682,0.22425,-2.77978,0.98470,1.57080,0.00001,-0.14512,-0.38002,0.04418,,,,,,,,,,,,,,,,,,,,,,,,,,0,0,0,0,0
1.8057,1783187896.5670,1,1,1.0000,0.0000,1.44682,0.22415,-2.77980,0.98482,1.57080,0.00001,-0.14512,-0.38002,0.04416,,,,,,,,,,,,,,,,,,,,,,,,,,0,0,0,0,0
1.8138,1783187896.5751,1,1,1.0000,0.0000,1.44682,0.22402,-2.77984,0.98499,1.57080,0.00001,-0.14512,-0.38002,0.04412,,,,,,,,,,,,,,,,,,,,,,,,,,0,0,0,0,0
1.8272,1783187896.5886,1,1,1.0000,0.0000,1.44682,0.22387,-2.77988,0.98518,1.57080,0.00001,-0.14512,-0.38002,0.04408,,,,,,,,,,,,,,,,,,,,,,,,,,0,0,0,0,0
1.8276,1783187896.5890,1,1,1.0000,0.0000,1.44682,0.22387,-2.77988,0.98518,1.57080,0.00001,-0.14512,-0.38002,0.04408,,,,,,,,,,,,,,,,,,,,,,,,,,0,0,0,0,0
1.8329,1783187896.5943,1,1,1.0000,0.0000,1.44682,0.22383,-2.77988,0.98522,1.57080,0.00001,-0.14512,-0.38002,0.04407,,,,,,,,,,,,,,,,,,,,,,,,,,0,0,0,0,0
1.8333,1783187896.5946,1,1,1.0000,0.0000,1.44682,0.22383,-2.77988,0.98522,1.57080,0.00001,-0.14512,-0.38002,0.04407,,,,,,,,,,,,,,,,,,,,,,,,,,0,0,0,0,0
1.8402,1783187896.6015,1,1,1.0000,0.0000,1.44682,0.22372,-2.77991,0.98536,1.57080,0.00001,-0.14512,-0.38002,0.04404,,,,,,,,,,,,,,,,,,,,,,,,,,0,0,0,0,0
1.8511,1783187896.6124,1,1,1.0000,0.0000,1.44682,0.22359,-2.77995,0.98553,1.57080,0.00001,-0.14512,-0.38002,0.04401,,,,,,,,,,,,,,,,,,,,,,,,,,0,0,0,0,0
1.8621,1783187896.6235,1,1,1.0000,0.0000,1.44682,0.22354,-2.77996,0.98559,1.57080,0.00001,-0.14512,-0.38002,0.04400,,,,,,,,,,,,,,,,,,,,,,,,,,0,0,0,0,0
1.8722,1783187896.6336,1,1,1.0000,0.0000,1.44682,0.22336,-2.78000,0.98581,1.57080,0.00001,-0.14512,-0.38002,0.04395,,,,,,,,,,,,,,,,,,,,,,,,,,0,0,0,0,0
1.8828,1783187896.6441,1,1,1.0000,0.0000,1.44682,0.22323,-2.78004,0.98598,1.57080,0.00001,-0.14512,-0.38002,0.04392,,,,,,,,,,,,,,,,,,,,,,,,,,0,0,0,0,0
1.8983,1783187896.6596,1,1,1.0000,0.0000,1.44682,0.22313,-2.78006,0.98610,1.57080,0.00001,-0.14512,-0.38002,0.04389,,,,,,,,,,,,,,,,,,,,,,,,,,0,0,0,0,0
1.9070,1783187896.6683,1,1,1.0000,0.0000,1.44682,0.22293,-2.78011,0.98635,1.57080,0.00001,-0.14512,-0.38002,0.04384,,,,,,,,,,,,,,,,,,,,,,,,,,0,0,0,0,0
1.9114,1783187896.6727,1,1,1.0000,0.0000,1.44682,0.22293,-2.78011,0.98635,1.57080,0.00001,-0.14512,-0.38002,0.04384,,,,,,,,,,,,,,,,,,,,,,,,,,0,0,0,0,0
1.9204,1783187896.6817,1,1,1.0000,0.0000,1.44682,0.22289,-2.78012,0.98641,1.57080,0.00001,-0.14512,-0.38002,0.04383,,,,,,,,,,,,,,,,,,,,,,,,,,0,0,0,0,0
1.9208,1783187896.6822,1,1,1.0000,0.0000,1.44682,0.22289,-2.78012,0.98641,1.57080,0.00001,-0.14512,-0.38002,0.04383,,,,,,,,,,,,,,,,,,,,,,,,,,0,0,0,0,0
1.9355,1783187896.6968,1,1,1.0000,0.0000,1.44681,0.22264,-2.78018,0.98672,1.57080,0.00001,-0.14512,-0.38002,0.04376,,,,,,,,,,,,,,,,,,,,,,,,,,0,0,0,0,0
1.9406,1783187896.7020,1,1,1.0000,0.0000,1.44681,0.22257,-2.78020,0.98680,1.57080,0.00001,-0.14512,-0.38002,0.04375,,,,,,,,,,,,,,,,,,,,,,,,,,0,0,0,0,0
1.9409,1783187896.7023,1,1,1.0000,0.0000,1.44681,0.22257,-2.78020,0.98680,1.57080,0.00001,-0.14512,-0.38002,0.04375,,,,,,,,,,,,,,,,,,,,,,,,,,0,0,0,0,0
1.9519,1783187896.7133,1,1,1.0000,0.0000,1.44681,0.22252,-2.78021,0.98686,1.57080,0.00001,-0.14512,-0.38002,0.04373,,,,,,,,,,,,,,,,,,,,,,,,,,0,0,0,0,0
1.9522,1783187896.7135,1,1,1.0000,0.0000,1.44681,0.22252,-2.78021,0.98686,1.57080,0.00001,-0.14512,-0.38002,0.04373,,,,,,,,,,,,,,,,,,,,,,,,,,0,0,0,0,0
1.9613,1783187896.7227,1,1,1.0000,0.0000,1.44681,0.22241,-2.78024,0.98700,1.57080,0.00001,-0.14512,-0.38002,0.04371,,,,,,,,,,,,,,,,,,,,,,,,,,0,0,0,0,0
1.9616,1783187896.7230,1,1,1.0000,0.0000,1.44681,0.22241,-2.78024,0.98700,1.57080,0.00001,-0.14512,-0.38002,0.04371,,,,,,,,,,,,,,,,,,,,,,,,,,0,0,0,0,0
1.9735,1783187896.7349,1,1,1.0000,0.0000,1.44681,0.22227,-2.78028,0.98717,1.57080,0.00001,-0.14512,-0.38002,0.04367,,,,,,,,,,,,,,,,,,,,,,,,,,0,0,0,0,0
1.9803,1783187896.7417,1,1,1.0000,0.0000,1.44681,0.22223,-2.78029,0.98723,1.57080,0.00001,-0.14512,-0.38002,0.04366,,,,,,,,,,,,,,,,,,,,,,,,,,0,0,0,0,0
1.9919,1783187896.7532,1,1,1.0000,0.0000,1.44681,0.22205,-2.78033,0.98745,1.57080,0.00001,-0.14512,-0.38002,0.04361,,,,,,,,,,,,,,,,,,,,,,,,,,0,0,0,0,0
2.0004,1783187896.7618,1,1,1.0000,0.0000,1.44681,0.22191,-2.78037,0.98762,1.57080,0.00001,-0.14512,-0.38002,0.04358,,,,,,,,,,,,,,,,,,,,,,,,,,0,0,0,0,0
2.0158,1783187896.7772,1,1,1.0000,0.0000,1.44681,0.22182,-2.78039,0.98774,1.57080,0.00001,-0.14512,-0.38002,0.04355,,,,,,,,,,,,,,,,,,,,,,,,,,0,0,0,0,0
2.0271,1783187896.7884,1,1,1.0000,0.0000,1.44681,0.22162,-2.78044,0.98799,1.57080,0.00001,-0.14512,-0.38002,0.04350,,,,,,,,,,,,,,,,,,,,,,,,,,0,0,0,0,0
2.0306,1783187896.7920,1,1,1.0000,0.0000,1.44681,0.22162,-2.78044,0.98799,1.57080,0.00001,-0.14512,-0.38002,0.04350,,,,,,,,,,,,,,,,,,,,,,,,,,0,0,0,0,0
2.0309,1783187896.7923,1,1,1.0000,0.0000,1.44681,0.22162,-2.78044,0.98799,1.57080,0.00001,-0.14512,-0.38002,0.04350,,,,,,,,,,,,,,,,,,,,,,,,,,0,0,0,0,0
2.0408,1783187896.8022,1,1,1.0000,0.0000,1.44681,0.22157,-2.78045,0.98805,1.57080,0.00001,-0.14512,-0.38002,0.04349,,,,,,,,,,,,,,,,,,,,,,,,,,0,0,0,0,0
2.0536,1783187896.8150,1,1,1.0000,0.0000,1.44681,0.22139,-2.78050,0.98827,1.57080,0.00001,-0.14512,-0.38002,0.04344,,,,,,,,,,,,,,,,,,,,,,,,,,0,0,0,0,0
2.0669,1783187896.8283,1,1,1.0000,0.0000,1.44681,0.22124,-2.78053,0.98846,1.57080,0.00001,-0.14512,-0.38002,0.04341,,,,,,,,,,,,,,,,,,,,,,,,,,0,0,0,0,0
2.0758,1783187896.8372,1,1,1.0000,0.0000,1.44681,0.22116,-2.78055,0.98856,1.57080,0.00001,-0.14512,-0.38002,0.04338,,,,,,,,,,,,,,,,,,,,,,,,,,0,0,0,0,0
2.0815,1783187896.8428,1,1,1.0000,0.0000,1.44681,0.22110,-2.78057,0.98864,1.57080,0.00001,-0.14512,-0.38002,0.04337,,,,,,,,,,,,,,,,,,,,,,,,,,0,0,0,0,0
2.0943,1783187896.8556,1,1,1.0000,0.0000,1.44681,0.22096,-2.78060,0.98881,1.57080,0.00001,-0.14512,-0.38002,0.04333,,,,,,,,,,,,,,,,,,,,,,,,,,0,0,0,0,0
2.1002,1783187896.8615,1,1,1.0000,0.0000,1.44681,0.22091,-2.78062,0.98887,1.57080,0.00001,-0.14512,-0.38002,0.04332,,,,,,,,,,,,,,,,,,,,,,,,,,0,0,0,0,0
2.1149,1783187896.8763,1,1,1.0000,0.0000,1.44681,0.22067,-2.78068,0.98918,1.57080,0.00001,-0.14512,-0.38002,0.04326,,,,,,,,,,,,,,,,,,,,,,,,,,0,0,0,0,0
2.1153,1783187896.8766,1,1,1.0000,0.0000,1.44681,0.22067,-2.78068,0.98918,1.57080,0.00001,-0.14512,-0.38002,0.04326,,,,,,,,,,,,,,,,,,,,,,,,,,0,0,0,0,0
2.1155,1783187896.8769,1,1,1.0000,0.0000,1.44681,0.22067,-2.78068,0.98918,1.57080,0.00001,-0.14512,-0.38002,0.04326,,,,,,,,,,,,,,,,,,,,,,,,,,0,0,0,0,0
2.1214,1783187896.8828,1,1,1.0000,0.0000,1.44681,0.22060,-2.78069,0.98926,1.57080,0.00001,-0.14512,-0.38002,0.04324,,,,,,,,,,,,,,,,,,,,,,,,,,0,0,0,0,0
2.1219,1783187896.8832,1,1,1.0000,0.0000,1.44681,0.22060,-2.78069,0.98926,1.57080,0.00001,-0.14512,-0.38002,0.04324,,,,,,,,,,,,,,,,,,,,,,,,,,0,0,0,0,0
2.1308,1783187896.8921,1,1,1.0000,0.0000,1.44681,0.22055,-2.78071,0.98932,1.57080,0.00001,-0.14512,-0.38002,0.04323,,,,,,,,,,,,,,,,,,,,,,,,,,0,0,0,0,0
2.1420,1783187896.9033,1,1,1.0000,0.0000,1.44681,0.22044,-2.78073,0.98946,1.57080,0.00001,-0.14512,-0.38002,0.04320,,,,,,,,,,,,,,,,,,,,,,,,,,0,0,0,0,0
2.1426,1783187896.9040,1,1,1.0000,0.0000,1.44681,0.22037,-2.78075,0.98955,1.57080,0.00001,-0.14512,-0.38002,0.04318,,,,,,,,,,,,,,,,,,,,,,,,,,0,0,0,0,0
2.1518,1783187896.9131,1,1,1.0000,0.0000,1.44681,0.22023,-2.78079,0.98972,1.57080,0.00001,-0.14512,-0.38002,0.04315,,,,,,,,,,,,,,,,,,,,,,,,,,0,0,0,0,0
2.1662,1783187896.9275,1,1,1.0000,0.0000,1.44681,0.22020,-2.78079,0.98976,1.57080,0.00001,-0.14512,-0.38002,0.04314,,,,,,,,,,,,,,,,,,,,,,,,,,0,0,0,0,0
2.1819,1783187896.9432,1,1,1.0000,0.0000,1.44681,0.22000,-2.78084,0.99001,1.57080,0.00001,-0.14512,-0.38002,0.04309,,,,,,,,,,,,,,,,,,,,,,,,,,0,0,0,0,0
2.1840,1783187896.9454,1,1,1.0000,0.0000,1.44681,0.22000,-2.78084,0.99001,1.57080,0.00001,-0.14512,-0.38002,0.04309,,,,,,,,,,,,,,,,,,,,,,,,,,0,0,0,0,0
2.1909,1783187896.9522,1,1,1.0000,0.0000,1.44681,0.21995,-2.78085,0.99007,1.57080,0.00001,-0.14512,-0.38002,0.04307,,,,,,,,,,,,,,,,,,,,,,,,,,0,0,0,0,0
2.2006,1783187896.9619,1,1,1.0000,0.0000,1.44681,0.21984,-2.78088,0.99021,1.57080,0.00001,-0.14512,-0.38002,0.04304,,,,,,,,,,,,,,,,,,,,,,,,,,0,0,0,0,0
2.2138,1783187896.9752,1,1,1.0000,0.0000,1.44681,0.21963,-2.78094,0.99048,1.57080,0.00001,-0.14512,-0.38002,0.04299,,,,,,,,,,,,,,,,,,,,,,,,,,0,0,0,0,0
2.2238,1783187896.9851,1,1,1.0000,0.0000,1.44681,0.21959,-2.78094,0.99052,1.57080,0.00001,-0.14512,-0.38002,0.04298,,,,,,,,,,,,,,,,,,,,,,,,,,0,0,0,0,0
2.2308,1783187896.9922,1,1,1.0000,0.0000,1.44681,0.21951,-2.78096,0.99062,1.57080,0.00001,-0.14512,-0.38002,0.04296,,,,,,,,,,,,,,,,,,,,,,,,,,0,0,0,0,0
2.2402,1783187897.0015,1,1,1.0000,0.0000,1.44681,0.21940,-2.78099,0.99076,1.57080,0.00001,-0.14512,-0.38002,0.04293,,,,,,,,,,,,,,,,,,,,,,,,,,0,0,0,0,0
2.2514,1783187897.0127,1,1,1.0000,0.0000,1.44681,0.21935,-2.78100,0.99082,1.57080,0.00001,-0.14512,-0.38002,0.04292,,,,,,,,,,,,,,,,,,,,,,,,,,0,0,0,0,0
2.2628,1783187897.0242,1,1,1.0000,0.0000,1.44681,0.21916,-2.78105,0.99105,1.57080,0.00001,-0.14512,-0.38002,0.04287,,,,,,,,,,,,,,,,,,,,,,,,,,0,0,0,0,0
2.2713,1783187897.0326,1,1,1.0000,0.0000,1.44681,0.21902,-2.78109,0.99123,1.57080,0.00001,-0.14512,-0.38002,0.04284,,,,,,,,,,,,,,,,,,,,,,,,,,0,0,0,0,0
2.2716,1783187897.0330,1,1,1.0000,0.0000,1.44681,0.21902,-2.78109,0.99123,1.57080,0.00001,-0.14512,-0.38002,0.04284,,,,,,,,,,,,,,,,,,,,,,,,,,0,0,0,0,0
2.2809,1783187897.0423,1,1,1.0000,0.0000,1.44681,0.21901,-2.78109,0.99124,1.57080,0.00001,-0.14512,-0.38002,0.04283,,,,,,,,,,,,,,,,,,,,,,,,,,0,0,0,0,0
2.2925,1783187897.0539,1,1,1.0000,0.0000,1.44681,0.21891,-2.78111,0.99138,1.57080,0.00001,-0.14512,-0.38002,0.04281,,,,,,,,,,,,,,,,,,,,,,,,,,0,0,0,0,0
2.3000,1783187897.0613,1,1,1.0000,0.0000,1.44681,0.21879,-2.78114,0.99152,1.57080,0.00001,-0.14512,-0.38002,0.04278,,,,,,,,,,,,,,,,,,,,,,,,,,0,0,0,0,0
2.3155,1783187897.0769,1,1,1.0000,0.0000,1.44681,0.21869,-2.78117,0.99164,1.57080,0.00001,-0.14512,-0.38002,0.04275,,,,,,,,,,,,,,,,,,,,,,,,,,0,0,0,0,0
2.3210,1783187897.0823,1,1,1.0000,0.0000,1.44681,0.21863,-2.78118,0.99172,1.57080,0.00001,-0.14512,-0.38002,0.04273,,,,,,,,,,,,,,,,,,,,,,,,,,0,0,0,0,0
2.3320,1783187897.0933,1,1,1.0000,0.0000,1.44681,0.21842,-2.78124,0.99199,1.57080,0.00001,-0.14512,-0.38002,0.04268,,,,,,,,,,,,,,,,,,,,,,,,,,0,0,0,0,0
2.3411,1783187897.1025,1,1,1.0000,0.0000,1.44681,0.21841,-2.78124,0.99200,1.57080,0.00001,-0.14512,-0.38002,0.04268,,,,,,,,,,,,,,,,,,,,,,,,,,0,0,0,0,0
2.3502,1783187897.1116,1,1,1.0000,0.0000,1.44681,0.21835,-2.78125,0.99207,1.57080,0.00001,-0.14512,-0.38002,0.04266,,,,,,,,,,,,,,,,,,,,,,,,,,0,0,0,0,0
2.3657,1783187897.1270,1,1,1.0000,0.0000,1.44681,0.21819,-2.78129,0.99227,1.57080,0.00001,-0.14512,-0.38002,0.04262,,,,,,,,,,,,,,,,,,,,,,,,,,0,0,0,0,0
2.3708,1783187897.1322,1,1,1.0000,0.0000,1.44681,0.21814,-2.78130,0.99233,1.57080,0.00001,-0.14512,-0.38002,0.04261,,,,,,,,,,,,,,,,,,,,,,,,,,0,0,0,0,0
2.3711,1783187897.1325,1,1,1.0000,0.0000,1.44681,0.21814,-2.78130,0.99233,1.57080,0.00001,-0.14512,-0.38002,0.04261,,,,,,,,,,,,,,,,,,,,,,,,,,0,0,0,0,0
2.3830,1783187897.1443,1,1,1.0000,0.0000,1.44681,0.21795,-2.78135,0.99256,1.57080,0.00001,-0.14512,-0.38002,0.04256,,,,,,,,,,,,,,,,,,,,,,,,,,0,0,0,0,0
2.3832,1783187897.1446,1,1,1.0000,0.0000,1.44681,0.21795,-2.78135,0.99256,1.57080,0.00001,-0.14512,-0.38002,0.04256,,,,,,,,,,,,,,,,,,,,,,,,,,0,0,0,0,0
2.3947,1783187897.1561,1,1,1.0000,0.0000,1.44681,0.21781,-2.78139,0.99274,1.57080,0.00001,-0.14512,-0.38002,0.04252,,,,,,,,,,,,,,,,,,,,,,,,,,0,0,0,0,0
2.3950,1783187897.1564,1,1,1.0000,0.0000,1.44681,0.21781,-2.78139,0.99274,1.57080,0.00001,-0.14512,-0.38002,0.04252,,,,,,,,,,,,,,,,,,,,,,,,,,0,0,0,0,0
2.4002,1783187897.1615,1,1,1.0000,0.0000,1.44681,0.21780,-2.78139,0.99275,1.57080,0.00001,-0.14512,-0.38002,0.04252,,,,,,,,,,,,,,,,,,,,,,,,,,0,0,0,0,0
2.4005,1783187897.1619,1,1,1.0000,0.0000,1.44681,0.21780,-2.78139,0.99275,1.57080,0.00001,-0.14512,-0.38002,0.04252,,,,,,,,,,,,,,,,,,,,,,,,,,0,0,0,0,0
2.4101,1783187897.1714,1,1,1.0000,0.0000,1.44681,0.21774,-2.78140,0.99283,1.57080,0.00001,-0.14512,-0.38002,0.04251,,,,,,,,,,,,,,,,,,,,,,,,,,0,0,0,0,0
2.4108,1783187897.1721,1,1,1.0000,0.0000,1.44681,0.21769,-2.78141,0.99289,1.57080,0.00001,-0.14512,-0.38002,0.04250,,,,,,,,,,,,,,,,,,,,,,,,,,0,0,0,0,0
2.4274,1783187897.1887,1,1,1.0000,0.0000,1.44681,0.21757,-2.78145,0.99304,1.57080,0.00001,-0.14512,-0.38002,0.04246,,,,,,,,,,,,,,,,,,,,,,,,,,0,0,0,0,0
2.4277,1783187897.1891,1,1,1.0000,0.0000,1.44681,0.21757,-2.78145,0.99304,1.57080,0.00001,-0.14512,-0.38002,0.04246,,,,,,,,,,,,,,,,,,,,,,,,,,0,0,0,0,0
2.4351,1783187897.1965,1,1,1.0000,0.0000,1.44681,0.21748,-2.78147,0.99315,1.57080,0.00001,-0.14512,-0.38002,0.04244,,,,,,,,,,,,,,,,,,,,,,,,,,0,0,0,0,0
2.4399,1783187897.2012,1,1,1.0000,0.0000,1.44681,0.21742,-2.78148,0.99323,1.57080,0.00001,-0.14512,-0.38002,0.04242,,,,,,,,,,,,,,,,,,,,,,,,,,0,0,0,0,0
2.4403,1783187897.2016,1,1,1.0000,0.0000,1.44681,0.21742,-2.78148,0.99323,1.57080,0.00001,-0.14512,-0.38002,0.04242,,,,,,,,,,,,,,,,,,,,,,,,,,0,0,0,0,0
2.4525,1783187897.2139,1,1,1.0000,0.0000,1.44681,0.21720,-2.78153,0.99350,1.57080,0.00001,-0.14512,-0.38002,0.04237,,,,,,,,,,,,,,,,,,,,,,,,,,0,0,0,0,0
2.4670,1783187897.2284,1,1,1.0000,0.0000,1.44681,0.21711,-2.78156,0.99362,1.57080,0.00001,-0.14512,-0.38002,0.04235,,,,,,,,,,,,,,,,,,,,,,,,,,0,0,0,0,0
2.4737,1783187897.2350,1,1,1.0000,0.0000,1.44681,0.21705,-2.78157,0.99369,1.57080,0.00001,-0.14512,-0.38002,0.04233,,,,,,,,,,,,,,,,,,,,,,,,,,0,0,0,0,0
2.4868,1783187897.2482,1,1,1.0000,0.0000,1.44681,0.21690,-2.78161,0.99388,1.57080,0.00001,-0.14512,-0.38002,0.04229,,,,,,,,,,,,,,,,,,,,,,,,,,0,0,0,0,0
2.4913,1783187897.2526,1,1,1.0000,0.0000,1.44681,0.21686,-2.78162,0.99392,1.57080,0.00001,-0.14512,-0.38002,0.04228,,,,,,,,,,,,,,,,,,,,,,,,,,0,0,0,0,0
2.4917,1783187897.2530,1,1,1.0000,0.0000,1.44681,0.21686,-2.78162,0.99392,1.57080,0.00001,-0.14512,-0.38002,0.04228,,,,,,,,,,,,,,,,,,,,,,,,,,0,0,0,0,0
2.5015,1783187897.2628,1,1,1.0000,0.0000,1.44681,0.21675,-2.78165,0.99406,1.57080,0.00001,-0.14512,-0.38002,0.04225,,,,,,,,,,,,,,,,,,,,,,,,,,0,0,0,0,0
2.5019,1783187897.2633,1,1,1.0000,0.0000,1.44681,0.21675,-2.78165,0.99406,1.57080,0.00001,-0.14512,-0.38002,0.04225,,,,,,,,,,,,,,,,,,,,,,,,,,0,0,0,0,0
2.5125,1783187897.2738,1,1,1.0000,0.0000,1.44681,0.21654,-2.78170,0.99432,1.57080,0.00001,-0.14512,-0.38002,0.04220,,,,,,,,,,,,,,,,,,,,,,,,,,0,0,0,0,0
2.5278,1783187897.2892,1,1,1.0000,0.0000,1.44681,0.21645,-2.78172,0.99444,1.57080,0.00001,-0.14512,-0.38002,0.04218,,,,,,,,,,,,,,,,,,,,,,,,,,0,0,0,0,0
2.5282,1783187897.2895,1,1,1.0000,0.0000,1.44681,0.21645,-2.78172,0.99444,1.57080,0.00001,-0.14512,-0.38002,0.04218,,,,,,,,,,,,,,,,,,,,,,,,,,0,0,0,0,0
2.5325,1783187897.2938,1,1,1.0000,0.0000,1.44681,0.21639,-2.78174,0.99452,1.57080,0.00001,-0.14512,-0.38002,0.04216,,,,,,,,,,,,,,,,,,,,,,,,,,0,0,0,0,0
2.5417,1783187897.3030,1,1,1.0000,0.0000,1.44681,0.21625,-2.78177,0.99469,1.57080,0.00001,-0.14512,-0.38002,0.04213,,,,,,,,,,,,,,,,,,,,,,,,,,0,0,0,0,0
2.5421,1783187897.3035,1,1,1.0000,0.0000,1.44681,0.21625,-2.78177,0.99469,1.57080,0.00001,-0.14512,-0.38002,0.04213,,,,,,,,,,,,,,,,,,,,,,,,,,0,0,0,0,0
2.5509,1783187897.3122,1,1,1.0000,0.0000,1.44681,0.21620,-2.78178,0.99475,1.57080,0.00001,-0.14512,-0.38002,0.04211,,,,,,,,,,,,,,,,,,,,,,,,,,0,0,0,0,0
2.5606,1783187897.3219,1,1,1.0000,0.0000,1.44681,0.21609,-2.78181,0.99489,1.57080,0.00001,-0.14512,-0.38002,0.04209,,,,,,,,,,,,,,,,,,,,,,,,,,0,0,0,0,0
2.5720,1783187897.3334,1,1,1.0000,0.0000,1.44681,0.21588,-2.78186,0.99515,1.57080,0.00001,-0.14512,-0.38002,0.04203,,,,,,,,,,,,,,,,,,,,,,,,,,0,0,0,0,0
2.5879,1783187897.3492,1,1,1.0000,0.0000,1.44681,0.21579,-2.78188,0.99526,1.57080,0.00001,-0.14512,-0.38002,0.04201,,,,,,,,,,,,,,,,,,,,,,,,,,0,0,0,0,0
2.5926,1783187897.3539,1,1,1.0000,0.0000,1.44681,0.21572,-2.78190,0.99534,1.57080,0.00001,-0.14512,-0.38002,0.04199,,,,,,,,,,,,,,,,,,,,,,,,,,0,0,0,0,0
2.6001,1783187897.3614,1,1,1.0000,0.0000,1.44681,0.21558,-2.78193,0.99552,1.57080,0.00001,-0.14512,-0.38002,0.04196,,,,,,,,,,,,,,,,,,,,,,,,,,0,0,0,0,0
2.6109,1783187897.3722,1,1,1.0000,0.0000,1.44681,0.21554,-2.78194,0.99557,1.57080,0.00001,-0.14512,-0.38002,0.04194,,,,,,,,,,,,,,,,,,,,,,,,,,0,0,0,0,0
2.6238,1783187897.3851,1,1,1.0000,0.0000,1.44681,0.21536,-2.78199,0.99580,1.57080,0.00001,-0.14512,-0.38002,0.04190,,,,,,,,,,,,,,,,,,,,,,,,,,0,0,0,0,0
2.6319,1783187897.3932,1,1,1.0000,0.0000,1.44681,0.21522,-2.78202,0.99597,1.57080,0.00001,-0.14512,-0.38002,0.04186,,,,,,,,,,,,,,,,,,,,,,,,,,0,0,0,0,0
2.6323,1783187897.3936,1,1,1.0000,0.0000,1.44681,0.21522,-2.78202,0.99597,1.57080,0.00001,-0.14512,-0.38002,0.04186,,,,,,,,,,,,,,,,,,,,,,,,,,0,0,0,0,0
2.6404,1783187897.4018,1,1,1.0000,0.0000,1.44681,0.21521,-2.78203,0.99599,1.57080,0.00001,-0.14512,-0.38002,0.04186,,,,,,,,,,,,,,,,,,,,,,,,,,0,0,0,0,0
2.6522,1783187897.4136,1,1,1.0000,0.0000,1.44681,0.21506,-2.78206,0.99617,1.57080,0.00001,-0.14512,-0.38002,0.04182,,,,,,,,,,,,,,,,,,,,,,,,,,0,0,0,0,0
2.6605,1783187897.4218,1,1,1.0000,0.0000,1.44681,0.21492,-2.78210,0.99634,1.57080,0.00001,-0.14512,-0.38002,0.04179,,,,,,,,,,,,,,,,,,,,,,,,,,0,0,0,0,0
2.6709,1783187897.4322,1,1,1.0000,0.0000,1.44681,0.21484,-2.78212,0.99644,1.57080,0.00001,-0.14512,-0.38002,0.04177,,,,,,,,,,,,,,,,,,,,,,,,,,0,0,0,0,0
2.6712,1783187897.4326,1,1,1.0000,0.0000,1.44681,0.21484,-2.78212,0.99644,1.57080,0.00001,-0.14512,-0.38002,0.04177,,,,,,,,,,,,,,,,,,,,,,,,,,0,0,0,0,0
2.6954,1783187897.4568,1,1,1.0000,0.0000,1.44681,0.21462,-2.78217,0.99672,1.57080,0.00001,-0.14512,-0.38002,0.04171,,,,,,,,,,,,,,,,,,,,,,,,,,0,0,0,0,0
2.7118,1783187897.4731,1,1,1.0000,0.0000,1.44681,0.21445,-2.78221,0.99692,1.57080,0.00002,-0.14512,-0.38002,0.04167,,,,,,,,,,,,,,,,,,,,,,,,,,0,0,0,0,0
2.7121,1783187897.4734,1,1,1.0000,0.0000,1.44681,0.21445,-2.78221,0.99692,1.57080,0.00002,-0.14512,-0.38002,0.04167,,,,,,,,,,,,,,,,,,,,,,,,,,0,0,0,0,0
2.7124,1783187897.4738,1,1,1.0000,0.0000,1.44681,0.21445,-2.78221,0.99692,1.57080,0.00002,-0.14512,-0.38002,0.04167,,,,,,,,,,,,,,,,,,,,,,,,,,0,0,0,0,0
2.7239,1783187897.4852,1,1,1.0000,0.0000,1.44681,0.21424,-2.78226,0.99719,1.57080,0.00002,-0.14512,-0.38002,0.04161,,,,,,,,,,,,,,,,,,,,,,,,,,0,0,0,0,0
2.7308,1783187897.4922,1,1,1.0000,0.0000,1.44681,0.21423,-2.78226,0.99720,1.57080,0.00002,-0.14512,-0.38002,0.04161,,,,,,,,,,,,,,,,,,,,,,,,,,0,0,0,0,0
2.7313,1783187897.4926,1,1,1.0000,0.0000,1.44681,0.21423,-2.78226,0.99720,1.57080,0.00002,-0.14512,-0.38002,0.04161,,,,,,,,,,,,,,,,,,,,,,,,,,0,0,0,0,0
2.7414,1783187897.5028,1,1,1.0000,0.0000,1.44681,0.21417,-2.78228,0.99728,1.57080,0.00002,-0.14512,-0.38002,0.04160,,,,,,,,,,,,,,,,,,,,,,,,,,0,0,0,0,0
2.7509,1783187897.5122,1,1,1.0000,0.0000,1.44681,0.21401,-2.78232,0.99748,1.57080,0.00002,-0.14512,-0.38002,0.04155,,,,,,,,,,,,,,,,,,,,,,,,,,0,0,0,0,0
2.7512,1783187897.5125,1,1,1.0000,0.0000,1.44681,0.21401,-2.78232,0.99748,1.57080,0.00002,-0.14512,-0.38002,0.04155,,,,,,,,,,,,,,,,,,,,,,,,,,0,0,0,0,0
2.7648,1783187897.5261,1,1,1.0000,0.0000,1.44681,0.21396,-2.78233,0.99754,1.57080,0.00002,-0.14512,-0.38002,0.04154,,,,,,,,,,,,,,,,,,,,,,,,,,0,0,0,0,0
2.7772,1783187897.5385,1,1,1.0000,0.0000,1.44681,0.21377,-2.78238,0.99777,1.57080,0.00002,-0.14512,-0.38002,0.04150,,,,,,,,,,,,,,,,,,,,,,,,,,0,0,0,0,0
2.7811,1783187897.5425,1,1,1.0000,0.0000,1.44681,0.21370,-2.78239,0.99786,1.57080,0.00002,-0.14512,-0.38002,0.04148,,,,,,,,,,,,,,,,,,,,,,,,,,0,0,0,0,0
2.7940,1783187897.5553,1,1,1.0000,0.0000,1.44681,0.21362,-2.78241,0.99796,1.57080,0.00002,-0.14512,-0.38002,0.04146,,,,,,,,,,,,,,,,,,,,,,,,,,0,0,0,0,0
2.8044,1783187897.5658,1,1,1.0000,0.0000,1.44681,0.21351,-2.78244,0.99809,1.57080,0.00002,-0.14512,-0.38002,0.04143,,,,,,,,,,,,,,,,,,,,,,,,,,0,0,0,0,0
2.8129,1783187897.5742,1,1,1.0000,0.0000,1.44681,0.21340,-2.78247,0.99824,1.57080,0.00002,-0.14512,-0.38002,0.04140,,,,,,,,,,,,,,,,,,,,,,,,,,0,0,0,0,0
2.8208,1783187897.5822,1,1,1.0000,0.0000,1.44681,0.21338,-2.78247,0.99825,1.57080,0.00002,-0.14512,-0.38002,0.04140,,,,,,,,,,,,,,,,,,,,,,,,,,0,0,0,0,0
2.8350,1783187897.5964,1,1,1.0000,0.0000,1.44681,0.21316,-2.78252,0.99853,1.57080,0.00002,-0.14512,-0.38002,0.04134,,,,,,,,,,,,,,,,,,,,,,,,,,0,0,0,0,0
2.8354,1783187897.5967,1,1,1.0000,0.0000,1.44681,0.21316,-2.78252,0.99853,1.57080,0.00002,-0.14512,-0.38002,0.04134,,,,,,,,,,,,,,,,,,,,,,,,,,0,0,0,0,0
2.8446,1783187897.6059,1,1,1.0000,0.0000,1.44681,0.21302,-2.78256,0.99871,1.57080,0.00002,-0.14512,-0.38002,0.04130,,,,,,,,,,,,,,,,,,,,,,,,,,0,0,0,0,0
2.8512,1783187897.6125,1,1,1.0000,0.0000,1.44681,0.21301,-2.78256,0.99872,1.57080,0.00002,-0.14512,-0.38002,0.04130,,,,,,,,,,,,,,,,,,,,,,,,,,0,0,0,0,0
2.8603,1783187897.6217,1,1,1.0000,0.0000,1.44681,0.21295,-2.78258,0.99879,1.57080,0.00002,-0.14512,-0.38002,0.04129,,,,,,,,,,,,,,,,,,,,,,,,,,0,0,0,0,0
2.8834,1783187897.6448,1,1,1.0000,0.0000,1.44681,0.21274,-2.78263,0.99905,1.57080,0.00002,-0.14512,-0.38002,0.04123,,,,,,,,,,,,,,,,,,,,,,,,,,0,0,0,0,0
2.8861,1783187897.6474,1,1,1.0000,0.0000,1.44681,0.21274,-2.78263,0.99905,1.57080,0.00002,-0.14512,-0.38002,0.04123,,,,,,,,,,,,,,,,,,,,,,,,,,0,0,0,0,0
2.8911,1783187897.6524,1,1,1.0000,0.0000,1.44681,0.21262,-2.78266,0.99920,1.57080,0.00002,-0.14512,-0.38002,0.04120,,,,,,,,,,,,,,,,,,,,,,,,,,0,0,0,0,0
2.8914,1783187897.6528,1,1,1.0000,0.0000,1.44681,0.21262,-2.78266,0.99920,1.57080,0.00002,-0.14512,-0.38002,0.04120,,,,,,,,,,,,,,,,,,,,,,,,,,0,0,0,0,0
2.9009,1783187897.6623,1,1,1.0000,0.0000,1.44681,0.21248,-2.78269,0.99938,1.57080,0.00002,-0.14512,-0.38002,0.04117,,,,,,,,,,,,,,,,,,,,,,,,,,0,0,0,0,0
2.9482,1783187897.7096,1,1,1.0000,0.0000,1.44681,0.21208,-2.78279,0.99988,1.57080,0.00002,-0.14512,-0.38002,0.04106,,,,,,,,,,,,,,,,,,,,,,,,,,0,0,0,0,0
2.9485,1783187897.7099,1,1,1.0000,0.0000,1.44681,0.21208,-2.78279,0.99988,1.57080,0.00002,-0.14512,-0.38002,0.04106,,,,,,,,,,,,,,,,,,,,,,,,,,0,0,0,0,0
2.9488,1783187897.7101,1,1,1.0000,0.0000,1.44681,0.21208,-2.78279,0.99988,1.57080,0.00002,-0.14512,-0.38002,0.04106,,,,,,,,,,,,,,,,,,,,,,,,,,0,0,0,0,0
2.9808,1783187897.7422,1,1,1.0000,0.0000,1.44681,0.21173,-2.78287,1.00031,1.57080,0.00002,-0.14512,-0.38002,0.04098,,,,,,,,,,,,,,,,,,,,,,,,,,0,0,0,0,0
2.9813,1783187897.7426,1,1,1.0000,0.0000,1.44681,0.21173,-2.78287,1.00031,1.57080,0.00002,-0.14512,-0.38002,0.04098,,,,,,,,,,,,,,,,,,,,,,,,,,0,0,0,0,0
2.9871,1783187897.7484,1,1,1.0000,0.0000,1.44681,0.21163,-2.78290,1.00044,1.57080,0.00002,-0.14512,-0.38002,0.04095,,,,,,,,,,,,,,,,,,,,,,,,,,0,0,0,0,0
2.9915,1783187897.7529,1,1,1.0000,0.0000,1.44681,0.21157,-2.78291,1.00051,1.57080,0.00002,-0.14512,-0.38002,0.04093,,,,,,,,,,,,,,,,,,,,,,,,,,0,0,0,0,0
3.0054,1783187897.7667,1,1,1.0000,0.0000,1.44681,0.21152,-2.78292,1.00057,1.57080,0.00002,-0.14512,-0.38002,0.04092,,,,,,,,,,,,,,,,,,,,,,,,,,0,0,0,0,0
3.0170,1783187897.7784,1,1,1.0000,0.0000,1.44681,0.21133,-2.78297,1.00080,1.57080,0.00002,-0.14512,-0.38002,0.04087,,,,,,,,,,,,,,,,,,,,,,,,,,0,0,0,0,0
3.0211,1783187897.7824,1,1,1.0000,0.0000,1.44681,0.21126,-2.78299,1.00090,1.57080,0.00002,-0.14512,-0.38002,0.04086,,,,,,,,,,,,,,,,,,,,,,,,,,0,0,0,0,0
3.0482,1783187897.8095,1,1,1.0000,0.0000,1.44681,0.21101,-2.78305,1.00120,1.57080,0.00002,-0.14512,-0.38002,0.04079,,,,,,,,,,,,,,,,,,,,,,,,,,0,0,0,0,0
3.0485,1783187897.8098,1,1,1.0000,0.0000,1.44681,0.21101,-2.78305,1.00120,1.57080,0.00002,-0.14512,-0.38002,0.04079,,,,,,,,,,,,,,,,,,,,,,,,,,0,0,0,0,0
3.0513,1783187897.8126,1,1,1.0000,0.0000,1.44681,0.21095,-2.78306,1.00127,1.57080,0.00002,-0.14512,-0.38002,0.04078,,,,,,,,,,,,,,,,,,,,,,,,,,0,0,0,0,0
3.0515,1783187897.8129,1,1,1.0000,0.0000,1.44681,0.21095,-2.78306,1.00127,1.57080,0.00002,-0.14512,-0.38002,0.04078,,,,,,,,,,,,,,,,,,,,,,,,,,0,0,0,0,0
3.0639,1783187897.8252,1,1,1.0000,0.0000,1.44681,0.21091,-2.78307,1.00133,1.57080,0.00002,-0.14512,-0.38002,0.04077,,,,,,,,,,,,,,,,,,,,,,,,,,0,0,0,0,0
3.0699,1783187897.8313,1,1,1.0000,0.0000,1.44681,0.21085,-2.78309,1.00140,1.57080,0.00002,-0.14512,-0.38002,0.04075,,,,,,,,,,,,,,,,,,,,,,,,,,0,0,0,0,0
3.0703,1783187897.8316,1,1,1.0000,0.0000,1.44681,0.21085,-2.78309,1.00140,1.57080,0.00002,-0.14512,-0.38002,0.04075,,,,,,,,,,,,,,,,,,,,,,,,,,0,0,0,0,0
3.0809,1783187897.8422,1,1,1.0000,0.0000,1.44681,0.21064,-2.78314,1.00166,1.57080,0.00002,-0.14512,-0.38002,0.04070,,,,,,,,,,,,,,,,,,,,,,,,,,0,0,0,0,0
3.0906,1783187897.8520,1,1,1.0000,0.0000,1.44681,0.21057,-2.78315,1.00174,1.57080,0.00002,-0.14512,-0.38002,0.04068,,,,,,,,,,,,,,,,,,,,,,,,,,0,0,0,0,0
3.1044,1783187897.8658,1,1,1.0000,0.0000,1.44681,0.21046,-2.78318,1.00189,1.57080,0.00002,-0.14512,-0.38002,0.04065,,,,,,,,,,,,,,,,,,,,,,,,,,0,0,0,0,0
3.1113,1783187897.8727,1,1,1.0000,0.0000,1.44681,0.21034,-2.78321,1.00203,1.57080,0.00002,-0.14512,-0.38002,0.04062,,,,,,,,,,,,,,,,,,,,,,,,,,0,0,0,0,0
3.1116,1783187897.8729,1,1,1.0000,0.0000,1.44681,0.21034,-2.78321,1.00203,1.57080,0.00002,-0.14512,-0.38002,0.04062,,,,,,,,,,,,,,,,,,,,,,,,,,0,0,0,0,0
3.1208,1783187897.8822,1,1,1.0000,0.0000,1.44681,0.21033,-2.78321,1.00205,1.57080,0.00002,-0.14512,-0.38002,0.04062,,,,,,,,,,,,,,,,,,,,,,,,,,0,0,0,0,0
3.1401,1783187897.9015,1,1,1.0000,0.0000,1.44681,0.21003,-2.78328,1.00242,1.57080,0.00002,-0.14512,-0.38002,0.04055,,,,,,,,,,,,,,,,,,,,,,,,,,0,0,0,0,0
3.1450,1783187897.9064,1,1,1.0000,0.0000,1.44681,0.20996,-2.78330,1.00250,1.57080,0.00002,-0.14512,-0.38002,0.04053,,,,,,,,,,,,,,,,,,,,,,,,,,0,0,0,0,0
3.1674,1783187897.9287,1,1,1.0000,0.0000,1.44680,0.20979,-2.78334,1.00272,1.57080,0.00002,-0.14512,-0.38002,0.04048,,,,,,,,,,,,,,,,,,,,,,,,,,0,0,0,0,0
3.1921,1783187897.9535,1,1,1.0000,0.0000,1.44680,0.20956,-2.78340,1.00300,1.57079,0.00002,-0.14512,-0.38002,0.04043,,,,,,,,,,,,,,,,,,,,,,,,,,0,0,0,0,0
3.1924,1783187897.9537,1,1,1.0000,0.0000,1.44680,0.20956,-2.78340,1.00300,1.57079,0.00002,-0.14512,-0.38002,0.04043,,,,,,,,,,,,,,,,,,,,,,,,,,0,0,0,0,0
3.1927,1783187897.9540,1,1,1.0000,0.0000,1.44680,0.20956,-2.78340,1.00300,1.57079,0.00002,-0.14512,-0.38002,0.04043,,,,,,,,,,,,,,,,,,,,,,,,,,0,0,0,0,0
3.2144,1783187897.9758,1,1,1.0000,0.0000,1.44680,0.20934,-2.78345,1.00328,1.57079,0.00002,-0.14512,-0.38002,0.04037,,,,,,,,,,,,,,,,,,,,,,,,,,0,0,0,0,0
3.2147,1783187897.9760,1,1,1.0000,0.0000,1.44680,0.20934,-2.78345,1.00328,1.57079,0.00002,-0.14512,-0.38002,0.04037,,,,,,,,,,,,,,,,,,,,,,,,,,0,0,0,0,0
3.2202,1783187897.9816,1,1,1.0000,0.0000,1.44680,0.20928,-2.78347,1.00335,1.57079,0.00002,-0.14512,-0.38002,0.04036,,,,,,,,,,,,,,,,,,,,,,,,,,0,0,0,0,0
3.2387,1783187898.0000,1,1,1.0000,0.0000,1.44680,0.20911,-2.78350,1.00356,1.57079,0.00002,-0.14512,-0.38002,0.04031,,,,,,,,,,,,,,,,,,,,,,,,,,0,0,0,0,0
3.2480,1783187898.0093,1,1,1.0000,0.0000,1.44680,0.20901,-2.78353,1.00368,1.57079,0.00002,-0.14512,-0.38002,0.04029,,,,,,,,,,,,,,,,,,,,,,,,,,0,0,0,0,0
3.2499,1783187898.0112,1,1,1.0000,0.0000,1.44680,0.20901,-2.78353,1.00368,1.57079,0.00002,-0.14512,-0.38002,0.04029,,,,,,,,,,,,,,,,,,,,,,,,,,0,0,0,0,0
3.2502,1783187898.0116,1,1,1.0000,0.0000,1.44680,0.20901,-2.78353,1.00368,1.57079,0.00002,-0.14512,-0.38002,0.04029,,,,,,,,,,,,,,,,,,,,,,,,,,0,0,0,0,0
3.2640,1783187898.0254,1,1,1.0000,0.0000,1.44680,0.20873,-2.78360,1.00403,1.57079,0.00002,-0.14512,-0.38002,0.04022,,,,,,,,,,,,,,,,,,,,,,,,,,0,0,0,0,0
3.2645,1783187898.0259,1,1,1.0000,0.0000,1.44680,0.20873,-2.78360,1.00403,1.57079,0.00002,-0.14512,-0.38002,0.04022,,,,,,,,,,,,,,,,,,,,,,,,,,0,0,0,0,0
3.2701,1783187898.0314,1,1,1.0000,0.0000,1.44680,0.20873,-2.78360,1.00403,1.57079,0.00002,-0.14512,-0.38002,0.04022,,,,,,,,,,,,,,,,,,,,,,,,,,0,0,0,0,0
3.2845,1783187898.0459,1,1,1.0000,0.0000,1.44680,0.20862,-2.78362,1.00417,1.57079,0.00002,-0.14512,-0.38002,0.04019,,,,,,,,,,,,,,,,,,,,,,,,,,0,0,0,0,0
3.2936,1783187898.0549,1,1,1.0000,0.0000,1.44680,0.20850,-2.78365,1.00432,1.57079,0.00002,-0.14512,-0.38002,0.04016,,,,,,,,,,,,,,,,,,,,,,,,,,0,0,0,0,0
3.3033,1783187898.0647,1,1,1.0000,0.0000,1.44680,0.20845,-2.78366,1.00438,1.57079,0.00002,-0.14512,-0.38002,0.04015,,,,,,,,,,,,,,,,,,,,,,,,,,0,0,0,0,0
3.3115,1783187898.0728,1,1,1.0000,0.0000,1.44680,0.20834,-2.78369,1.00452,1.57079,0.00002,-0.14512,-0.38002,0.04012,,,,,,,,,,,,,,,,,,,,,,,,,,0,0,0,0,0
3.3120,1783187898.0733,1,1,1.0000,0.0000,1.44680,0.20834,-2.78369,1.00452,1.57079,0.00002,-0.14512,-0.38002,0.04012,,,,,,,,,,,,,,,,,,,,,,,,,,0,0,0,0,0
3.3204,1783187898.0818,1,1,1.0000,0.0000,1.44680,0.20819,-2.78373,1.00470,1.57079,0.00002,-0.14512,-0.38002,0.04008,,,,,,,,,,,,,,,,,,,,,,,,,,0,0,0,0,0
3.3317,1783187898.0930,1,1,1.0000,0.0000,1.44680,0.20811,-2.78375,1.00480,1.57079,0.00002,-0.14512,-0.38002,0.04006,,,,,,,,,,,,,,,,,,,,,,,,,,0,0,0,0,0
3.3320,1783187898.0933,1,1,1.0000,0.0000,1.44680,0.20811,-2.78375,1.00480,1.57079,0.00002,-0.14512,-0.38002,0.04006,,,,,,,,,,,,,,,,,,,,,,,,,,0,0,0,0,0
3.3411,1783187898.1024,1,1,1.0000,0.0000,1.44680,0.20802,-2.78377,1.00491,1.57079,0.00002,-0.14512,-0.38002,0.04004,,,,,,,,,,,,,,,,,,,,,,,,,,0,0,0,0,0
3.3414,1783187898.1027,1,1,1.0000,0.0000,1.44680,0.20802,-2.78377,1.00491,1.57079,0.00002,-0.14512,-0.38002,0.04004,,,,,,,,,,,,,,,,,,,,,,,,,,0,0,0,0,0
3.3505,1783187898.1118,1,1,1.0000,0.0000,1.44680,0.20789,-2.78380,1.00507,1.57079,0.00002,-0.14512,-0.38002,0.04001,,,,,,,,,,,,,,,,,,,,,,,,,,0,0,0,0,0
3.3513,1783187898.1126,1,1,1.0000,0.0000,1.44680,0.20782,-2.78382,1.00516,1.57079,0.00002,-0.14512,-0.38002,0.03999,,,,,,,,,,,,,,,,,,,,,,,,,,0,0,0,0,0
3.3641,1783187898.1254,1,1,1.0000,0.0000,1.44680,0.20777,-2.78383,1.00522,1.57079,0.00002,-0.14512,-0.38002,0.03998,,,,,,,,,,,,,,,,,,,,,,,,,,0,0,0,0,0
3.3700,1783187898.1313,1,1,1.0000,0.0000,1.44680,0.20772,-2.78384,1.00528,1.57079,0.00002,-0.14512,-0.38002,0.03996,,,,,,,,,,,,,,,,,,,,,,,,,,0,0,0,0,0
3.3703,1783187898.1316,1,1,1.0000,0.0000,1.44680,0.20772,-2.78384,1.00528,1.57079,0.00002,-0.14512,-0.38002,0.03996,,,,,,,,,,,,,,,,,,,,,,,,,,0,0,0,0,0
3.3876,1783187898.1490,1,1,1.0000,0.0000,1.44680,0.20745,-2.78390,1.00562,1.57079,0.00002,-0.14512,-0.38002,0.03989,,,,,,,,,,,,,,,,,,,,,,,,,,0,0,0,0,0
3.3880,1783187898.1493,1,1,1.0000,0.0000,1.44680,0.20745,-2.78390,1.00562,1.57079,0.00002,-0.14512,-0.38002,0.03989,,,,,,,,,,,,,,,,,,,,,,,,,,0,0,0,0,0
3.3917,1783187898.1531,1,1,1.0000,0.0000,1.44680,0.20744,-2.78391,1.00563,1.57079,0.00002,-0.14512,-0.38002,0.03989,,,,,,,,,,,,,,,,,,,,,,,,,,0,0,0,0,0
3.4041,1783187898.1655,1,1,1.0000,0.0000,1.44680,0.20729,-2.78394,1.00582,1.57079,0.00002,-0.14512,-0.38002,0.03985,,,,,,,,,,,,,,,,,,,,,,,,,,0,0,0,0,0
3.4102,1783187898.1715,1,1,1.0000,0.0000,1.44680,0.20722,-2.78396,1.00590,1.57079,0.00002,-0.14512,-0.38002,0.03984,,,,,,,,,,,,,,,,,,,,,,,,,,0,0,0,0,0
3.4202,1783187898.1815,1,1,1.0000,0.0000,1.44680,0.20714,-2.78398,1.00601,1.57079,0.00002,-0.14512,-0.38002,0.03982,,,,,,,,,,,,,,,,,,,,,,,,,,0,0,0,0,0
3.4319,1783187898.1933,1,1,1.0000,0.0000,1.44680,0.20699,-2.78401,1.00619,1.57079,0.00002,-0.14512,-0.38002,0.03978,,,,,,,,,,,,,,,,,,,,,,,,,,0,0,0,0,0
3.4324,1783187898.1938,1,1,1.0000,0.0000,1.44680,0.20699,-2.78401,1.00619,1.57079,0.00002,-0.14512,-0.38002,0.03978,,,,,,,,,,,,,,,,,,,,,,,,,,0,0,0,0,0
3.4442,1783187898.2056,1,1,1.0000,0.0000,1.44680,0.20678,-2.78406,1.00645,1.57079,0.00002,-0.14512,-0.38002,0.03973,,,,,,,,,,,,,,,,,,,,,,,,,,0,0,0,0,0
3.4517,1783187898.2130,1,1,1.0000,0.0000,1.44680,0.20677,-2.78407,1.00646,1.57079,0.00002,-0.14512,-0.38002,0.03972,,,,,,,,,,,,,,,,,,,,,,,,,,0,0,0,0,0
3.4977,1783187898.2590,1,1,1.0000,0.0000,1.44680,0.20625,-2.78419,1.00711,1.57079,0.00002,-0.14512,-0.38002,0.03959,,,,,,,,,,,,,,,,,,,,,,,,,,0,0,0,0,0
3.4980,1783187898.2594,1,1,1.0000,0.0000,1.44680,0.20625,-2.78419,1.00711,1.57079,0.00002,-0.14512,-0.38002,0.03959,,,,,,,,,,,,,,,,,,,,,,,,,,0,0,0,0,0
3.5156,1783187898.2769,1,1,1.0000,0.0000,1.44680,0.20606,-2.78424,1.00734,1.57079,0.00002,-0.14512,-0.38002,0.03954,,,,,,,,,,,,,,,,,,,,,,,,,,0,0,0,0,0
3.5159,1783187898.2773,1,1,1.0000,0.0000,1.44680,0.20606,-2.78424,1.00734,1.57079,0.00002,-0.14512,-0.38002,0.03954,,,,,,,,,,,,,,,,,,,,,,,,,,0,0,0,0,0
3.5163,1783187898.2776,1,1,1.0000,0.0000,1.44680,0.20606,-2.78424,1.00734,1.57079,0.00002,-0.14512,-0.38002,0.03954,,,,,,,,,,,,,,,,,,,,,,,,,,0,0,0,0,0
3.5165,1783187898.2779,1,1,1.0000,0.0000,1.44680,0.20606,-2.78424,1.00734,1.57079,0.00002,-0.14512,-0.38002,0.03954,,,,,,,,,,,,,,,,,,,,,,,,,,0,0,0,0,0
3.5212,1783187898.2825,1,1,1.0000,0.0000,1.44680,0.20601,-2.78425,1.00740,1.57079,0.00002,-0.14512,-0.38002,0.03953,,,,,,,,,,,,,,,,,,,,,,,,,,0,0,0,0,0
3.5321,1783187898.2934,1,1,1.0000,0.0000,1.44680,0.20581,-2.78430,1.00766,1.57079,0.00002,-0.14512,-0.38002,0.03948,,,,,,,,,,,,,,,,,,,,,,,,,,0,0,0,0,0
3.5324,1783187898.2937,1,1,1.0000,0.0000,1.44680,0.20581,-2.78430,1.00766,1.57079,0.00002,-0.14512,-0.38002,0.03948,,,,,,,,,,,,,,,,,,,,,,,,,,0,0,0,0,0
3.5436,1783187898.3049,1,1,1.0000,0.0000,1.44680,0.20576,-2.78431,1.00771,1.57079,0.00002,-0.14512,-0.38002,0.03947,,,,,,,,,,,,,,,,,,,,,,,,,,0,0,0,0,0
3.5517,1783187898.3131,1,1,1.0000,0.0000,1.44680,0.20565,-2.78433,1.00785,1.57079,0.00002,-0.14512,-0.38002,0.03944,,,,,,,,,,,,,,,,,,,,,,,,,,0,0,0,0,0
3.5604,1783187898.3217,1,1,1.0000,0.0000,1.44680,0.20550,-2.78437,1.00803,1.57079,0.00002,-0.14512,-0.38002,0.03940,,,,,,,,,,,,,,,,,,,,,,,,,,0,0,0,0,0
3.5733,1783187898.3347,1,1,1.0000,0.0000,1.44680,0.20542,-2.78439,1.00813,1.57079,0.00002,-0.14512,-0.38002,0.03938,,,,,,,,,,,,,,,,,,,,,,,,,,0,0,0,0,0
3.5964,1783187898.3578,1,1,1.0000,0.0000,1.44680,0.20513,-2.78446,1.00849,1.57079,0.00002,-0.14512,-0.38002,0.03931,,,,,,,,,,,,,,,,,,,,,,,,,,0,0,0,0,0
3.6056,1783187898.3670,1,1,1.0000,0.0000,1.44680,0.20509,-2.78447,1.00854,1.57079,0.00002,-0.14512,-0.38002,0.03930,,,,,,,,,,,,,,,,,,,,,,,,,,0,0,0,0,0
3.6130,1783187898.3744,1,1,1.0000,0.0000,1.44680,0.20497,-2.78449,1.00868,1.57079,0.00002,-0.14512,-0.38002,0.03927,,,,,,,,,,,,,,,,,,,,,,,,,,0,0,0,0,0
3.6238,1783187898.3851,1,1,1.0000,0.0000,1.44680,0.20476,-2.78454,1.00895,1.57079,0.00002,-0.14512,-0.38002,0.03922,,,,,,,,,,,,,,,,,,,,,,,,,,0,0,0,0,0
3.6366,1783187898.3979,1,1,1.0000,0.0000,1.44680,0.20472,-2.78456,1.00900,1.57079,0.00002,-0.14512,-0.38002,0.03921,,,,,,,,,,,,,,,,,,,,,,,,,,0,0,0,0,0
3.6639,1783187898.4253,1,1,1.0000,0.0000,1.44680,0.20438,-2.78464,1.00942,1.57079,0.00002,-0.14512,-0.38002,0.03912,,,,,,,,,,,,,,,,,,,,,,,,,,0,0,0,0,0
3.6644,1783187898.4258,1,1,1.0000,0.0000,1.44680,0.20438,-2.78464,1.00942,1.57079,0.00002,-0.14512,-0.38002,0.03912,,,,,,,,,,,,,,,,,,,,,,,,,,0,0,0,0,0
3.6650,1783187898.4263,1,1,1.0000,0.0000,1.44680,0.20438,-2.78464,1.00942,1.57079,0.00002,-0.14512,-0.38002,0.03912,,,,,,,,,,,,,,,,,,,,,,,,,,0,0,0,0,0
3.6700,1783187898.4314,1,1,1.0000,0.0000,1.44680,0.20436,-2.78464,1.00945,1.57079,0.00002,-0.14512,-0.38002,0.03912,,,,,,,,,,,,,,,,,,,,,,,,,,0,0,0,0,0
3.6703,1783187898.4317,1,1,1.0000,0.0000,1.44680,0.20436,-2.78464,1.00945,1.57079,0.00002,-0.14512,-0.38002,0.03912,,,,,,,,,,,,,,,,,,,,,,,,,,0,0,0,0,0
3.6825,1783187898.4439,1,1,1.0000,0.0000,1.44680,0.20421,-2.78467,1.00963,1.57079,0.00002,-0.14512,-0.38002,0.03908,,,,,,,,,,,,,,,,,,,,,,,,,,0,0,0,0,0
3.6995,1783187898.4608,1,1,1.0000,0.0000,1.44680,0.20410,-2.78470,1.00976,1.57079,0.00002,-0.14512,-0.38002,0.03905,,,,,,,,,,,,,,,,,,,,,,,,,,0,0,0,0,0
3.7049,1783187898.4663,1,1,1.0000,0.0000,1.44680,0.20399,-2.78473,1.00991,1.57079,0.00002,-0.14512,-0.38002,0.03902,,,,,,,,,,,,,,,,,,,,,,,,,,0,0,0,0,0
3.7147,1783187898.4760,1,1,1.0000,0.0000,1.44680,0.20384,-2.78476,1.01009,1.57079,0.00002,-0.14512,-0.38002,0.03899,,,,,,,,,,,,,,,,,,,,,,,,,,0,0,0,0,0
3.7286,1783187898.4899,1,1,1.0000,0.0000,1.44680,0.20374,-2.78479,1.01021,1.57079,0.00002,-0.14512,-0.38002,0.03896,,,,,,,,,,,,,,,,,,,,,,,,,,0,0,0,0,0
3.7288,1783187898.4902,1,1,1.0000,0.0000,1.44680,0.20374,-2.78479,1.01021,1.57079,0.00002,-0.14512,-0.38002,0.03896,,,,,,,,,,,,,,,,,,,,,,,,,,0,0,0,0,0
3.7382,1783187898.4995,1,1,1.0000,0.0000,1.44680,0.20361,-2.78482,1.01037,1.57079,0.00002,-0.14512,-0.38002,0.03893,,,,,,,,,,,,,,,,,,,,,,,,,,0,0,0,0,0
3.7517,1783187898.5131,1,1,1.0000,0.0000,1.44680,0.20346,-2.78485,1.01056,1.57079,0.00002,-0.14512,-0.38002,0.03889,,,,,,,,,,,,,,,,,,,,,,,,,,0,0,0,0,0
3.7532,1783187898.5146,1,1,1.0000,0.0000,1.44680,0.20346,-2.78485,1.01056,1.57079,0.00002,-0.14512,-0.38002,0.03889,,,,,,,,,,,,,,,,,,,,,,,,,,0,0,0,0,0
3.7535,1783187898.5149,1,1,1.0000,0.0000,1.44680,0.20346,-2.78485,1.01056,1.57079,0.00002,-0.14512,-0.38002,0.03889,,,,,,,,,,,,,,,,,,,,,,,,,,0,0,0,0,0
3.7637,1783187898.5251,1,1,1.0000,0.0000,1.44680,0.20331,-2.78489,1.01074,1.57079,0.00002,-0.14512,-0.38002,0.03885,,,,,,,,,,,,,,,,,,,,,,,,,,0,0,0,0,0
3.7730,1783187898.5344,1,1,1.0000,0.0000,1.44680,0.20317,-2.78492,1.01092,1.57079,0.00002,-0.14512,-0.38002,0.03882,,,,,,,,,,,,,,,,,,,,,,,,,,0,0,0,0,0
3.7838,1783187898.5452,1,1,1.0000,0.0000,1.44680,0.20309,-2.78494,1.01102,1.57079,0.00002,-0.14512,-0.38002,0.03880,,,,,,,,,,,,,,,,,,,,,,,,,,0,0,0,0,0
3.7984,1783187898.5598,1,1,1.0000,0.0000,1.44680,0.20298,-2.78497,1.01115,1.57079,0.00002,-0.14512,-0.38001,0.03877,,,,,,,,,,,,,,,,,,,,,,,,,,0,0,0,0,0
3.8149,1783187898.5763,1,1,1.0000,0.0000,1.44680,0.20285,-2.78500,1.01132,1.57079,0.00002,-0.14512,-0.38001,0.03874,,,,,,,,,,,,,,,,,,,,,,,,,,0,0,0,0,0
3.8186,1783187898.5799,1,1,1.0000,0.0000,1.44680,0.20281,-2.78501,1.01136,1.57079,0.00002,-0.14512,-0.38001,0.03873,,,,,,,,,,,,,,,,,,,,,,,,,,0,0,0,0,0
3.8189,1783187898.5803,1,1,1.0000,0.0000,1.44680,0.20281,-2.78501,1.01136,1.57079,0.00002,-0.14512,-0.38001,0.03873,,,,,,,,,,,,,,,,,,,,,,,,,,0,0,0,0,0
3.8286,1783187898.5900,1,1,1.0000,0.0000,1.44680,0.20262,-2.78505,1.01159,1.57079,0.00002,-0.14512,-0.38001,0.03868,,,,,,,,,,,,,,,,,,,,,,,,,,0,0,0,0,0
3.8386,1783187898.6000,1,1,1.0000,0.0000,1.44680,0.20248,-2.78509,1.01177,1.57079,0.00002,-0.14512,-0.38001,0.03865,,,,,,,,,,,,,,,,,,,,,,,,,,0,0,0,0,0
3.8603,1783187898.6216,1,1,1.0000,0.0000,1.44680,0.20230,-2.78513,1.01199,1.57079,0.00002,-0.14512,-0.38001,0.03860,,,,,,,,,,,,,,,,,,,,,,,,,,0,0,0,0,0
3.8607,1783187898.6220,1,1,1.0000,0.0000,1.44680,0.20230,-2.78513,1.01199,1.57079,0.00002,-0.14512,-0.38001,0.03860,,,,,,,,,,,,,,,,,,,,,,,,,,0,0,0,0,0
3.8670,1783187898.6284,1,1,1.0000,0.0000,1.44680,0.20224,-2.78514,1.01207,1.57079,0.00002,-0.14512,-0.38001,0.03859,,,,,,,,,,,,,,,,,,,,,,,,,,0,0,0,0,0
3.8777,1783187898.6390,1,1,1.0000,0.0000,1.44680,0.20219,-2.78515,1.01213,1.57079,0.00002,-0.14512,-0.38001,0.03857,,,,,,,,,,,,,,,,,,,,,,,,,,0,0,0,0,0
3.8780,1783187898.6394,1,1,1.0000,0.0000,1.44680,0.20219,-2.78515,1.01213,1.57079,0.00002,-0.14512,-0.38001,0.03857,,,,,,,,,,,,,,,,,,,,,,,,,,0,0,0,0,0
3.8870,1783187898.6484,1,1,1.0000,0.0000,1.44680,0.20207,-2.78518,1.01227,1.57079,0.00002,-0.14512,-0.38001,0.03854,,,,,,,,,,,,,,,,,,,,,,,,,,0,0,0,0,0
3.8878,1783187898.6491,1,1,1.0000,0.0000,1.44680,0.20200,-2.78520,1.01236,1.57079,0.00002,-0.14512,-0.38001,0.03853,,,,,,,,,,,,,,,,,,,,,,,,,,0,0,0,0,0
3.9012,1783187898.6625,1,1,1.0000,0.0000,1.44680,0.20186,-2.78523,1.01254,1.57079,0.00002,-0.14512,-0.38001,0.03849,,,,,,,,,,,,,,,,,,,,,,,,,,0,0,0,0,0
3.9074,1783187898.6688,1,1,1.0000,0.0000,1.44680,0.20185,-2.78523,1.01255,1.57079,0.00002,-0.14512,-0.38001,0.03849,,,,,,,,,,,,,,,,,,,,,,,,,,0,0,0,0,0
3.9200,1783187898.6814,1,1,1.0000,0.0000,1.44680,0.20168,-2.78527,1.01276,1.57079,0.00002,-0.14512,-0.38001,0.03845,,,,,,,,,,,,,,,,,,,,,,,,,,0,0,0,0,0
3.9309,1783187898.6923,1,1,1.0000,0.0000,1.44680,0.20162,-2.78529,1.01283,1.57079,0.00002,-0.14512,-0.38001,0.03843,,,,,,,,,,,,,,,,,,,,,,,,,,0,0,0,0,0
3.9375,1783187898.6989,1,1,1.0000,0.0000,1.44680,0.20157,-2.78530,1.01289,1.57079,0.00002,-0.14512,-0.38001,0.03842,,,,,,,,,,,,,,,,,,,,,,,,,,0,0,0,0,0
3.9468,1783187898.7082,1,1,1.0000,0.0000,1.44680,0.20145,-2.78533,1.01304,1.57079,0.00003,-0.14512,-0.38001,0.03839,,,,,,,,,,,,,,,,,,,,,,,,,,0,0,0,0,0
3.9472,1783187898.7085,1,1,1.0000,0.0000,1.44680,0.20145,-2.78533,1.01304,1.57079,0.00003,-0.14512,-0.38001,0.03839,,,,,,,,,,,,,,,,,,,,,,,,,,0,0,0,0,0
3.9569,1783187898.7183,1,1,1.0000,0.0000,1.44680,0.20123,-2.78538,1.01331,1.57079,0.00003,-0.14512,-0.38001,0.03833,,,,,,,,,,,,,,,,,,,,,,,,,,0,0,0,0,0
3.9683,1783187898.7296,1,1,1.0000,0.0000,1.44680,0.20120,-2.78539,1.01335,1.57079,0.00003,-0.14512,-0.38001,0.03833,,,,,,,,,,,,,,,,,,,,,,,,,,0,0,0,0,0
3.9687,1783187898.7300,1,1,1.0000,0.0000,1.44680,0.20120,-2.78539,1.01335,1.57079,0.00003,-0.14512,-0.38001,0.03833,,,,,,,,,,,,,,,,,,,,,,,,,,0,0,0,0,0
3.9768,1783187898.7382,1,1,1.0000,0.0000,1.44680,0.20112,-2.78541,1.01345,1.57079,0.00003,-0.14512,-0.38001,0.03831,,,,,,,,,,,,,,,,,,,,,,,,,,0,0,0,0,0
3.9871,1783187898.7485,1,1,1.0000,0.0000,1.44680,0.20100,-2.78543,1.01360,1.57079,0.00003,-0.14512,-0.38001,0.03828,,,,,,,,,,,,,,,,,,,,,,,,,,0,0,0,0,0
3.9993,1783187898.7607,1,1,1.0000,0.0000,1.44680,0.20095,-2.78544,1.01366,1.57079,0.00003,-0.14512,-0.38001,0.03826,,,,,,,,,,,,,,,,,,,,,,,,,,0,0,0,0,0
4.0093,1783187898.7707,1,1,1.0000,0.0000,1.44680,0.20076,-2.78549,1.01389,1.57079,0.00003,-0.14512,-0.38001,0.03822,,,,,,,,,,,,,,,,,,,,,,,,,,0,0,0,0,0
4.0198,1783187898.7812,1,1,1.0000,0.0000,1.44680,0.20061,-2.78552,1.01407,1.57079,0.00003,-0.14512,-0.38001,0.03818,,,,,,,,,,,,,,,,,,,,,,,,,,0,0,0,0,0
4.0286,1783187898.7900,1,1,1.0000,0.0000,1.44680,0.20057,-2.78553,1.01413,1.57079,0.00003,-0.14512,-0.38001,0.03817,,,,,,,,,,,,,,,,,,,,,,,,,,0,0,0,0,0
4.0375,1783187898.7989,1,1,1.0000,0.0000,1.44680,0.20045,-2.78556,1.01427,1.57079,0.00003,-0.14512,-0.38001,0.03814,,,,,,,,,,,,,,,,,,,,,,,,,,0,0,0,0,0
4.0486,1783187898.8099,1,1,1.0000,0.0000,1.44680,0.20031,-2.78559,1.01445,1.57079,0.00003,-0.14512,-0.38001,0.03810,,,,,,,,,,,,,,,,,,,,,,,,,,0,0,0,0,0
4.0493,1783187898.8106,1,1,1.0000,0.0000,1.44680,0.20031,-2.78559,1.01445,1.57079,0.00003,-0.14512,-0.38001,0.03810,,,,,,,,,,,,,,,,,,,,,,,,,,0,0,0,0,0
4.0591,1783187898.8204,1,1,1.0000,0.0000,1.44680,0.20026,-2.78561,1.01450,1.57079,0.00003,-0.14512,-0.38001,0.03809,,,,,,,,,,,,,,,,,,,,,,,,,,0,0,0,0,0
4.0596,1783187898.8210,1,1,1.0000,0.0000,1.44680,0.20021,-2.78562,1.01457,1.57079,0.00003,-0.14512,-0.38001,0.03808,,,,,,,,,,,,,,,,,,,,,,,,,,0,0,0,0,0
4.0680,1783187898.8294,1,1,1.0000,0.0000,1.44680,0.20008,-2.78565,1.01473,1.57079,0.00003,-0.14512,-0.38001,0.03805,,,,,,,,,,,,,,,,,,,,,,,,,,0,0,0,0,0
4.0781,1783187898.8395,1,1,1.0000,0.0000,1.44680,0.19994,-2.78568,1.01491,1.57079,0.00003,-0.14512,-0.38001,0.03801,,,,,,,,,,,,,,,,,,,,,,,,,,0,0,0,0,0
4.0917,1783187898.8530,1,1,1.0000,0.0000,1.44680,0.19984,-2.78570,1.01503,1.57079,0.00003,-0.14512,-0.38001,0.03799,,,,,,,,,,,,,,,,,,,,,,,,,,0,0,0,0,0
4.0973,1783187898.8587,1,1,1.0000,0.0000,1.44680,0.19978,-2.78572,1.01511,1.57079,0.00003,-0.14512,-0.38001,0.03797,,,,,,,,,,,,,,,,,,,,,,,,,,0,0,0,0,0
4.1080,1783187898.8693,1,1,1.0000,0.0000,1.44680,0.19963,-2.78575,1.01528,1.57079,0.00003,-0.14512,-0.38001,0.03794,,,,,,,,,,,,,,,,,,,,,,,,,,0,0,0,0,0
4.1083,1783187898.8697,1,1,1.0000,0.0000,1.44680,0.19963,-2.78575,1.01528,1.57079,0.00003,-0.14512,-0.38001,0.03794,,,,,,,,,,,,,,,,,,,,,,,,,,0,0,0,0,0
4.1220,1783187898.8833,1,1,1.0000,0.0000,1.44680,0.19954,-2.78578,1.01540,1.57079,0.00003,-0.14512,-0.38001,0.03791,,,,,,,,,,,,,,,,,,,,,,,,,,0,0,0,0,0
4.1321,1783187898.8934,1,1,1.0000,0.0000,1.44680,0.19933,-2.78582,1.01566,1.57079,0.00003,-0.14512,-0.38001,0.03786,,,,,,,,,,,,,,,,,,,,,,,,,,0,0,0,0,0
4.1401,1783187898.9014,1,1,1.0000,0.0000,1.44680,0.19926,-2.78584,1.01574,1.57079,0.00003,-0.14512,-0.38001,0.03784,,,,,,,,,,,,,,,,,,,,,,,,,,0,0,0,0,0
4.1404,1783187898.9018,1,1,1.0000,0.0000,1.44680,0.19926,-2.78584,1.01574,1.57079,0.00003,-0.14512,-0.38001,0.03784,,,,,,,,,,,,,,,,,,,,,,,,,,0,0,0,0,0
4.1513,1783187898.9126,1,1,1.0000,0.0000,1.44680,0.19921,-2.78585,1.01580,1.57079,0.00003,-0.14512,-0.38001,0.03783,,,,,,,,,,,,,,,,,,,,,,,,,,0,0,0,0,0
4.1611,1783187898.9225,1,1,1.0000,0.0000,1.44680,0.19903,-2.78589,1.01603,1.57079,0.00003,-0.14512,-0.38001,0.03778,,,,,,,,,,,,,,,,,,,,,,,,,,0,0,0,0,0
4.1678,1783187898.9292,1,1,1.0000,0.0000,1.44680,0.19895,-2.78591,1.01612,1.57079,0.00003,-0.14512,-0.38001,0.03777,,,,,,,,,,,,,,,,,,,,,,,,,,0,0,0,0,0
4.1779,1783187898.9393,1,1,1.0000,0.0000,1.44680,0.19891,-2.78592,1.01618,1.57079,0.00003,-0.14512,-0.38001,0.03775,,,,,,,,,,,,,,,,,,,,,,,,,,0,0,0,0,0
4.1880,1783187898.9493,1,1,1.0000,0.0000,1.44680,0.19872,-2.78597,1.01640,1.57079,0.00003,-0.14512,-0.38001,0.03771,,,,,,,,,,,,,,,,,,,,,,,,,,0,0,0,0,0
4.1883,1783187898.9497,1,1,1.0000,0.0000,1.44680,0.19872,-2.78597,1.01640,1.57079,0.00003,-0.14512,-0.38001,0.03771,,,,,,,,,,,,,,,,,,,,,,,,,,0,0,0,0,0
4.2043,1783187898.9656,1,1,1.0000,0.0000,1.44680,0.19857,-2.78600,1.01660,1.57079,0.00003,-0.14512,-0.38001,0.03767,,,,,,,,,,,,,,,,,,,,,,,,,,0,0,0,0,0
4.2141,1783187898.9755,1,1,1.0000,0.0000,1.44680,0.19848,-2.78602,1.01670,1.57079,0.00003,-0.14512,-0.38001,0.03765,,,,,,,,,,,,,,,,,,,,,,,,,,0,0,0,0,0
4.2168,1783187898.9781,1,1,1.0000,0.0000,1.44680,0.19842,-2.78604,1.01678,1.57079,0.00003,-0.14512,-0.38001,0.03763,,,,,,,,,,,,,,,,,,,,,,,,,,0,0,0,0,0
4.2298,1783187898.9911,1,1,1.0000,0.0000,1.44680,0.19827,-2.78607,1.01696,1.57079,0.00003,-0.14512,-0.38001,0.03760,,,,,,,,,,,,,,,,,,,,,,,,,,0,0,0,0,0
4.2300,1783187898.9914,1,1,1.0000,0.0000,1.44680,0.19827,-2.78607,1.01696,1.57079,0.00003,-0.14512,-0.38001,0.03760,,,,,,,,,,,,,,,,,,,,,,,,,,0,0,0,0,0
4.2380,1783187898.9994,1,1,1.0000,0.0000,1.44680,0.19823,-2.78608,1.01702,1.57079,0.00003,-0.14512,-0.38001,0.03759,,,,,,,,,,,,,,,,,,,,,,,,,,0,0,0,0,0
4.2534,1783187899.0148,1,1,1.0000,0.0000,1.44680,0.19797,-2.78614,1.01733,1.57079,0.00003,-0.14512,-0.38001,0.03752,,,,,,,,,,,,,,,,,,,,,,,,,,0,0,0,0,0
4.2602,1783187899.0216,1,1,1.0000,0.0000,1.44680,0.19790,-2.78616,1.01742,1.57079,0.00003,-0.14512,-0.38001,0.03750,,,,,,,,,,,,,,,,,,,,,,,,,,0,0,0,0,0
4.2690,1783187899.0303,1,1,1.0000,0.0000,1.44680,0.19785,-2.78617,1.01748,1.57079,0.00003,-0.14512,-0.38001,0.03749,,,,,,,,,,,,,,,,,,,,,,,,,,0,0,0,0,0
4.2799,1783187899.0413,1,1,1.0000,0.0000,1.44680,0.19767,-2.78621,1.01771,1.57079,0.00003,-0.14512,-0.38001,0.03745,,,,,,,,,,,,,,,,,,,,,,,,,,0,0,0,0,0
4.2803,1783187899.0417,1,1,1.0000,0.0000,1.44680,0.19767,-2.78621,1.01771,1.57079,0.00003,-0.14512,-0.38001,0.03745,,,,,,,,,,,,,,,,,,,,,,,,,,0,0,0,0,0
4.2881,1783187899.0494,1,1,1.0000,0.0000,1.44680,0.19759,-2.78623,1.01780,1.57079,0.00003,-0.14512,-0.38001,0.03743,,,,,,,,,,,,,,,,,,,,,,,,,,0,0,0,0,0
4.2885,1783187899.0499,1,1,1.0000,0.0000,1.44680,0.19759,-2.78623,1.01780,1.57079,0.00003,-0.14512,-0.38001,0.03743,,,,,,,,,,,,,,,,,,,,,,,,,,0,0,0,0,0
4.2968,1783187899.0582,1,1,1.0000,0.0000,1.44680,0.19755,-2.78624,1.01785,1.57079,0.00003,-0.14512,-0.38001,0.03742,,,,,,,,,,,,,,,,,,,,,,,,,,0,0,0,0,0
4.3278,1783187899.0892,1,1,1.0000,0.0000,1.44680,0.19717,-2.78633,1.01831,1.57079,0.00003,-0.14512,-0.38001,0.03732,,,,,,,,,,,,,,,,,,,,,,,,,,0,0,0,0,0
4.3280,1783187899.0894,1,1,1.0000,0.0000,1.44680,0.19717,-2.78633,1.01831,1.57079,0.00003,-0.14512,-0.38001,0.03732,,,,,,,,,,,,,,,,,,,,,,,,,,0,0,0,0,0
4.3359,1783187899.0973,1,1,1.0000,0.0000,1.44680,0.19706,-2.78635,1.01846,1.57079,0.00003,-0.14512,-0.38001,0.03729,,,,,,,,,,,,,,,,,,,,,,,,,,0,0,0,0,0
4.3364,1783187899.0978,1,1,1.0000,0.0000,1.44680,0.19706,-2.78635,1.01846,1.57079,0.00003,-0.14512,-0.38001,0.03729,,,,,,,,,,,,,,,,,,,,,,,,,,0,0,0,0,0
4.3406,1783187899.1020,1,1,1.0000,0.0000,1.44680,0.19699,-2.78637,1.01854,1.57079,0.00003,-0.14512,-0.38001,0.03728,,,,,,,,,,,,,,,,,,,,,,,,,,0,0,0,0,0
4.3519,1783187899.1133,1,1,1.0000,0.0000,1.44680,0.19684,-2.78640,1.01872,1.57079,0.00003,-0.14512,-0.38001,0.03724,,,,,,,,,,,,,,,,,,,,,,,,,,0,0,0,0,0
4.3645,1783187899.1258,1,1,1.0000,0.0000,1.44680,0.19677,-2.78642,1.01881,1.57079,0.00003,-0.14512,-0.38001,0.03722,,,,,,,,,,,,,,,,,,,,,,,,,,0,0,0,0,0
4.3707,1783187899.1320,1,1,1.0000,0.0000,1.44680,0.19672,-2.78643,1.01887,1.57079,0.00003,-0.14512,-0.38001,0.03721,,,,,,,,,,,,,,,,,,,,,,,,,,0,0,0,0,0
4.3820,1783187899.1433,1,1,1.0000,0.0000,1.44680,0.19660,-2.78646,1.01902,1.57079,0.00003,-0.14512,-0.38001,0.03718,,,,,,,,,,,,,,,,,,,,,,,,,,0,0,0,0,0
4.3823,1783187899.1437,1,1,1.0000,0.0000,1.44680,0.19660,-2.78646,1.01902,1.57079,0.00003,-0.14512,-0.38001,0.03718,,,,,,,,,,,,,,,,,,,,,,,,,,0,0,0,0,0
4.3935,1783187899.1548,1,1,1.0000,0.0000,1.44680,0.19650,-2.78648,1.01914,1.57079,0.00003,-0.14511,-0.38001,0.03716,,,,,,,,,,,,,,,,,,,,,,,,,,0,0,0,0,0
4.3938,1783187899.1551,1,1,1.0000,0.0000,1.44680,0.19650,-2.78648,1.01914,1.57079,0.00003,-0.14511,-0.38001,0.03716,,,,,,,,,,,,,,,,,,,,,,,,,,0,0,0,0,0
4.4001,1783187899.1615,1,1,1.0000,0.0000,1.44679,0.19636,-2.78651,1.01931,1.57079,0.00003,-0.14511,-0.38001,0.03712,,,,,,,,,,,,,,,,,,,,,,,,,,0,0,0,0,0
4.4111,1783187899.1725,1,1,1.0000,0.0000,1.44679,0.19622,-2.78655,1.01949,1.57079,0.00003,-0.14511,-0.38001,0.03709,,,,,,,,,,,,,,,,,,,,,,,,,,0,0,0,0,0
4.4323,1783187899.1936,1,1,1.0000,0.0000,1.44679,0.19604,-2.78659,1.01971,1.57079,0.00003,-0.14511,-0.38001,0.03704,,,,,,,,,,,,,,,,,,,,,,,,,,0,0,0,0,0
4.4326,1783187899.1939,1,1,1.0000,0.0000,1.44679,0.19604,-2.78659,1.01971,1.57079,0.00003,-0.14511,-0.38001,0.03704,,,,,,,,,,,,,,,,,,,,,,,,,,0,0,0,0,0
4.4437,1783187899.2050,1,1,1.0000,0.0000,1.44679,0.19597,-2.78661,1.01980,1.57079,0.00003,-0.14511,-0.38001,0.03702,,,,,,,,,,,,,,,,,,,,,,,,,,0,0,0,0,0
4.4440,1783187899.2054,1,1,1.0000,0.0000,1.44679,0.19597,-2.78661,1.01980,1.57079,0.00003,-0.14511,-0.38001,0.03702,,,,,,,,,,,,,,,,,,,,,,,,,,0,0,0,0,0
4.4503,1783187899.2116,1,1,1.0000,0.0000,1.44679,0.19593,-2.78661,1.01985,1.57079,0.00003,-0.14511,-0.38001,0.03701,,,,,,,,,,,,,,,,,,,,,,,,,,0,0,0,0,0
4.4647,1783187899.2260,1,1,1.0000,0.0000,1.44679,0.19566,-2.78668,1.02017,1.57079,0.00003,-0.14511,-0.38001,0.03695,,,,,,,,,,,,,,,,,,,,,,,,,,0,0,0,0,0
4.4651,1783187899.2264,1,1,1.0000,0.0000,1.44679,0.19566,-2.78668,1.02017,1.57079,0.00003,-0.14511,-0.38001,0.03695,,,,,,,,,,,,,,,,,,,,,,,,,,0,0,0,0,0
4.4702,1783187899.2315,1,1,1.0000,0.0000,1.44679,0.19559,-2.78669,1.02026,1.57079,0.00003,-0.14511,-0.38001,0.03693,,,,,,,,,,,,,,,,,,,,,,,,,,0,0,0,0,0
4.4706,1783187899.2320,1,1,1.0000,0.0000,1.44679,0.19559,-2.78669,1.02026,1.57079,0.00003,-0.14511,-0.38001,0.03693,,,,,,,,,,,,,,,,,,,,,,,,,,0,0,0,0,0
4.4815,1783187899.2428,1,1,1.0000,0.0000,1.44679,0.19556,-2.78670,1.02030,1.57079,0.00003,-0.14511,-0.38001,0.03692,,,,,,,,,,,,,,,,,,,,,,,,,,0,0,0,0,0
4.4902,1783187899.2515,1,1,1.0000,0.0000,1.44679,0.19547,-2.78672,1.02041,1.57079,0.00003,-0.14511,-0.38001,0.03690,,,,,,,,,,,,,,,,,,,,,,,,,,0,0,0,0,0
4.5000,1783187899.2613,1,1,1.0000,0.0000,1.44679,0.19535,-2.78675,1.02056,1.57079,0.00003,-0.14511,-0.38001,0.03687,,,,,,,,,,,,,,,,,,,,,,,,,,0,0,0,0,0
4.5003,1783187899.2616,1,1,1.0000,0.0000,1.44679,0.19535,-2.78675,1.02056,1.57079,0.00003,-0.14511,-0.38001,0.03687,,,,,,,,,,,,,,,,,,,,,,,,,,0,0,0,0,0
4.5120,1783187899.2734,1,1,1.0000,0.0000,1.44679,0.19525,-2.78677,1.02068,1.57079,0.00003,-0.14511,-0.38001,0.03685,,,,,,,,,,,,,,,,,,,,,,,,,,0,0,0,0,0
4.5216,1783187899.2829,1,1,1.0000,0.0000,1.44679,0.19511,-2.78680,1.02085,1.57079,0.00003,-0.14511,-0.38001,0.03681,,,,,,,,,,,,,,,,,,,,,,,,,,0,0,0,0,0
4.5338,1783187899.2952,1,1,1.0000,0.0000,1.44679,0.19497,-2.78684,1.02103,1.57079,0.00003,-0.14511,-0.38001,0.03678,,,,,,,,,,,,,,,,,,,,,,,,,,0,0,0,0,0
4.5413,1783187899.3026,1,1,1.0000,0.0000,1.44679,0.19493,-2.78684,1.02107,1.57079,0.00003,-0.14511,-0.38001,0.03677,,,,,,,,,,,,,,,,,,,,,,,,,,0,0,0,0,0
4.5502,1783187899.3116,1,1,1.0000,0.0000,1.44679,0.19485,-2.78686,1.02118,1.57079,0.00003,-0.14511,-0.38001,0.03675,,,,,,,,,,,,,,,,,,,,,,,,,,0,0,0,0,0
4.5607,1783187899.3220,1,1,1.0000,0.0000,1.44679,0.19473,-2.78689,1.02133,1.57079,0.00003,-0.14511,-0.38001,0.03672,,,,,,,,,,,,,,,,,,,,,,,,,,0,0,0,0,0
4.5738,1783187899.3352,1,1,1.0000,0.0000,1.44679,0.19462,-2.78692,1.02145,1.57079,0.00003,-0.14511,-0.38001,0.03669,,,,,,,,,,,,,,,,,,,,,,,,,,0,0,0,0,0
4.5820,1783187899.3433,1,1,1.0000,0.0000,1.44679,0.19449,-2.78695,1.02162,1.57079,0.00003,-0.14511,-0.38001,0.03666,,,,,,,,,,,,,,,,,,,,,,,,,,0,0,0,0,0
4.5918,1783187899.3531,1,1,1.0000,0.0000,1.44679,0.19434,-2.78698,1.02180,1.57079,0.00003,-0.14511,-0.38001,0.03662,,,,,,,,,,,,,,,,,,,,,,,,,,0,0,0,0,0
4.5921,1783187899.3535,1,1,1.0000,0.0000,1.44679,0.19434,-2.78698,1.02180,1.57079,0.00003,-0.14511,-0.38001,0.03662,,,,,,,,,,,,,,,,,,,,,,,,,,0,0,0,0,0
4.6002,1783187899.3615,1,1,1.0000,0.0000,1.44679,0.19431,-2.78699,1.02184,1.57079,0.00003,-0.14511,-0.38001,0.03661,,,,,,,,,,,,,,,,,,,,,,,,,,0,0,0,0,0
4.6006,1783187899.3619,1,1,1.0000,0.0000,1.44679,0.19431,-2.78699,1.02184,1.57079,0.00003,-0.14511,-0.38001,0.03661,,,,,,,,,,,,,,,,,,,,,,,,,,0,0,0,0,0
4.6140,1783187899.3753,1,1,1.0000,0.0000,1.44679,0.19416,-2.78702,1.02202,1.57079,0.00003,-0.14511,-0.38001,0.03658,,,,,,,,,,,,,,,,,,,,,,,,,,0,0,0,0,0
4.6237,1783187899.3851,1,1,1.0000,0.0000,1.44679,0.19404,-2.78705,1.02218,1.57079,0.00003,-0.14511,-0.38001,0.03655,,,,,,,,,,,,,,,,,,,,,,,,,,0,0,0,0,0
4.6358,1783187899.3971,1,1,1.0000,0.0000,1.44679,0.19396,-2.78707,1.02227,1.57079,0.00003,-0.14511,-0.38001,0.03653,,,,,,,,,,,,,,,,,,,,,,,,,,0,0,0,0,0
4.6361,1783187899.3974,1,1,1.0000,0.0000,1.44679,0.19396,-2.78707,1.02227,1.57079,0.00003,-0.14511,-0.38001,0.03653,,,,,,,,,,,,,,,,,,,,,,,,,,0,0,0,0,0
4.6417,1783187899.4031,1,1,1.0000,0.0000,1.44679,0.19390,-2.78708,1.02234,1.57079,0.00003,-0.14511,-0.38001,0.03651,,,,,,,,,,,,,,,,,,,,,,,,,,0,0,0,0,0
4.6512,1783187899.4125,1,1,1.0000,0.0000,1.44679,0.19378,-2.78711,1.02249,1.57079,0.00003,-0.14511,-0.38001,0.03648,,,,,,,,,,,,,,,,,,,,,,,,,,0,0,0,0,0
4.6632,1783187899.4245,1,1,1.0000,0.0000,1.44679,0.19373,-2.78712,1.02255,1.57079,0.00003,-0.14511,-0.38001,0.03647,,,,,,,,,,,,,,,,,,,,,,,,,,0,0,0,0,0
4.6716,1783187899.4329,1,1,1.0000,0.0000,1.44679,0.19354,-2.78716,1.02279,1.57079,0.00003,-0.14511,-0.38001,0.03642,,,,,,,,,,,,,,,,,,,,,,,,,,0,0,0,0,0
4.6836,1783187899.4450,1,1,1.0000,0.0000,1.44679,0.19339,-2.78720,1.02297,1.57079,0.00003,-0.14511,-0.38001,0.03639,,,,,,,,,,,,,,,,,,,,,,,,,,0,0,0,0,0
4.6839,1783187899.4452,1,1,1.0000,0.0000,1.44679,0.19339,-2.78720,1.02297,1.57079,0.00003,-0.14511,-0.38001,0.03639,,,,,,,,,,,,,,,,,,,,,,,,,,0,0,0,0,0
4.6958,1783187899.4572,1,1,1.0000,0.0000,1.44679,0.19332,-2.78722,1.02306,1.57079,0.00003,-0.14511,-0.38001,0.03637,,,,,,,,,,,,,,,,,,,,,,,,,,0,0,0,0,0
4.7031,1783187899.4644,1,1,1.0000,0.0000,1.44679,0.19327,-2.78723,1.02312,1.57079,0.00003,-0.14511,-0.38001,0.03636,,,,,,,,,,,,,,,,,,,,,,,,,,0,0,0,0,0
4.7037,1783187899.4650,1,1,1.0000,0.0000,1.44679,0.19321,-2.78724,1.02319,1.57079,0.00003,-0.14511,-0.38001,0.03634,,,,,,,,,,,,,,,,,,,,,,,,,,0,0,0,0,0
4.7193,1783187899.4807,1,1,1.0000,0.0000,1.44679,0.19314,-2.78726,1.02328,1.57079,0.00003,-0.14511,-0.38001,0.03632,,,,,,,,,,,,,,,,,,,,,,,,,,0,0,0,0,0
4.7237,1783187899.4850,1,1,1.0000,0.0000,1.44679,0.19305,-2.78728,1.02339,1.57079,0.00003,-0.14511,-0.38001,0.03630,,,,,,,,,,,,,,,,,,,,,,,,,,0,0,0,0,0
4.7307,1783187899.4920,1,1,1.0000,0.0000,1.44679,0.19299,-2.78729,1.02347,1.57079,0.00003,-0.14511,-0.38001,0.03629,,,,,,,,,,,,,,,,,,,,,,,,,,0,0,0,0,0
4.7400,1783187899.5013,1,1,1.0000,0.0000,1.44679,0.19276,-2.78734,1.02374,1.57079,0.00003,-0.14511,-0.38001,0.03623,,,,,,,,,,,,,,,,,,,,,,,,,,0,0,0,0,0
4.7403,1783187899.5017,1,1,1.0000,0.0000,1.44679,0.19276,-2.78734,1.02374,1.57079,0.00003,-0.14511,-0.38001,0.03623,,,,,,,,,,,,,,,,,,,,,,,,,,0,0,0,0,0
4.7502,1783187899.5116,1,1,1.0000,0.0000,1.44679,0.19276,-2.78734,1.02375,1.57079,0.00003,-0.14511,-0.38001,0.03623,,,,,,,,,,,,,,,,,,,,,,,,,,0,0,0,0,0
4.7651,1783187899.5265,1,1,1.0000,0.0000,1.44679,0.19259,-2.78738,1.02396,1.57079,0.00003,-0.14511,-0.38001,0.03619,,,,,,,,,,,,,,,,,,,,,,,,,,0,0,0,0,0
4.7759,1783187899.5373,1,1,1.0000,0.0000,1.44679,0.19251,-2.78740,1.02405,1.57079,0.00003,-0.14511,-0.38001,0.03617,,,,,,,,,,,,,,,,,,,,,,,,,,0,0,0,0,0
4.7764,1783187899.5377,1,1,1.0000,0.0000,1.44679,0.19251,-2.78740,1.02405,1.57079,0.00003,-0.14511,-0.38001,0.03617,,,,,,,,,,,,,,,,,,,,,,,,,,0,0,0,0,0
4.7812,1783187899.5425,1,1,1.0000,0.0000,1.44679,0.19248,-2.78741,1.02409,1.57079,0.00003,-0.14511,-0.38001,0.03616,,,,,,,,,,,,,,,,,,,,,,,,,,0,0,0,0,0
4.7903,1783187899.5517,1,1,1.0000,0.0000,1.44679,0.19236,-2.78744,1.02424,1.57079,0.00003,-0.14511,-0.38001,0.03613,,,,,,,,,,,,,,,,,,,,,,,,,,0,0,0,0,0
4.8001,1783187899.5614,1,1,1.0000,0.0000,1.44679,0.19214,-2.78749,1.02451,1.57079,0.00003,-0.14511,-0.38001,0.03608,,,,,,,,,,,,,,,,,,,,,,,,,,0,0,0,0,0
4.8005,1783187899.5618,1,1,1.0000,0.0000,1.44679,0.19214,-2.78749,1.02451,1.57079,0.00003,-0.14511,-0.38001,0.03608,,,,,,,,,,,,,,,,,,,,,,,,,,0,0,0,0,0
4.8104,1783187899.5717,1,1,1.0000,0.0000,1.44679,0.19213,-2.78749,1.02452,1.57079,0.00003,-0.14511,-0.38001,0.03607,,,,,,,,,,,,,,,,,,,,,,,,,,0,0,0,0,0
4.8237,1783187899.5851,1,1,1.0000,0.0000,1.44679,0.19196,-2.78753,1.02473,1.57079,0.00003,-0.14511,-0.38001,0.03603,,,,,,,,,,,,,,,,,,,,,,,,,,0,0,0,0,0
4.8406,1783187899.6019,1,1,1.0000,0.0000,1.44679,0.19185,-2.78755,1.02487,1.57079,0.00003,-0.14511,-0.38001,0.03601,,,,,,,,,,,,,,,,,,,,,,,,,,0,0,0,0,0
4.8408,1783187899.6022,1,1,1.0000,0.0000,1.44679,0.19185,-2.78755,1.02487,1.57079,0.00003,-0.14511,-0.38001,0.03601,,,,,,,,,,,,,,,,,,,,,,,,,,0,0,0,0,0
4.8442,1783187899.6055,1,1,1.0000,0.0000,1.44679,0.19179,-2.78756,1.02493,1.57079,0.00003,-0.14511,-0.38001,0.03599,,,,,,,,,,,,,,,,,,,,,,,,,,0,0,0,0,0
4.8444,1783187899.6058,1,1,1.0000,0.0000,1.44679,0.19179,-2.78756,1.02493,1.57079,0.00003,-0.14511,-0.38001,0.03599,,,,,,,,,,,,,,,,,,,,,,,,,,0,0,0,0,0
4.8556,1783187899.6169,1,1,1.0000,0.0000,1.44679,0.19158,-2.78761,1.02519,1.57079,0.00003,-0.14511,-0.38001,0.03594,,,,,,,,,,,,,,,,,,,,,,,,,,0,0,0,0,0
4.8639,1783187899.6252,1,1,1.0000,0.0000,1.44679,0.19151,-2.78763,1.02528,1.57079,0.00003,-0.14511,-0.38001,0.03592,,,,,,,,,,,,,,,,,,,,,,,,,,0,0,0,0,0
4.8643,1783187899.6257,1,1,1.0000,0.0000,1.44679,0.19151,-2.78763,1.02528,1.57079,0.00003,-0.14511,-0.38001,0.03592,,,,,,,,,,,,,,,,,,,,,,,,,,0,0,0,0,0
4.8748,1783187899.6361,1,1,1.0000,0.0000,1.44679,0.19147,-2.78764,1.02532,1.57079,0.00003,-0.14511,-0.38001,0.03591,,,,,,,,,,,,,,,,,,,,,,,,,,0,0,0,0,0
4.8751,1783187899.6364,1,1,1.0000,0.0000,1.44679,0.19147,-2.78764,1.02532,1.57079,0.00003,-0.14511,-0.38001,0.03591,,,,,,,,,,,,,,,,,,,,,,,,,,0,0,0,0,0
4.8839,1783187899.6452,1,1,1.0000,0.0000,1.44679,0.19133,-2.78767,1.02550,1.57079,0.00003,-0.14511,-0.38001,0.03588,,,,,,,,,,,,,,,,,,,,,,,,,,0,0,0,0,0
4.8929,1783187899.6543,1,1,1.0000,0.0000,1.44679,0.19127,-2.78768,1.02558,1.57079,0.00003,-0.14511,-0.38001,0.03586,,,,,,,,,,,,,,,,,,,,,,,,,,0,0,0,0,0
4.8933,1783187899.6547,1,1,1.0000,0.0000,1.44679,0.19127,-2.78768,1.02558,1.57079,0.00003,-0.14511,-0.38001,0.03586,,,,,,,,,,,,,,,,,,,,,,,,,,0,0,0,0,0
4.9051,1783187899.6665,1,1,1.0000,0.0000,1.44679,0.19117,-2.78771,1.02570,1.57079,0.00003,-0.14511,-0.38001,0.03584,,,,,,,,,,,,,,,,,,,,,,,,,,0,0,0,0,0
4.9136,1783187899.6749,1,1,1.0000,0.0000,1.44679,0.19103,-2.78774,1.02587,1.57079,0.00003,-0.14511,-0.38001,0.03580,,,,,,,,,,,,,,,,,,,,,,,,,,0,0,0,0,0
4.9315,1783187899.6929,1,1,1.0000,0.0000,1.44679,0.19087,-2.78778,1.02607,1.57079,0.00003,-0.14511,-0.38001,0.03576,,,,,,,,,,,,,,,,,,,,,,,,,,0,0,0,0,0
4.9352,1783187899.6965,1,1,1.0000,0.0000,1.44679,0.19084,-2.78778,1.02610,1.57079,0.00003,-0.14511,-0.38001,0.03576,,,,,,,,,,,,,,,,,,,,,,,,,,0,0,0,0,0
4.9438,1783187899.7051,1,1,1.0000,0.0000,1.44679,0.19070,-2.78781,1.02627,1.57079,0.00003,-0.14511,-0.38001,0.03572,,,,,,,,,,,,,,,,,,,,,,,,,,0,0,0,0,0
4.9552,1783187899.7165,1,1,1.0000,0.0000,1.44679,0.19064,-2.78783,1.02635,1.57079,0.00003,-0.14511,-0.38001,0.03571,,,,,,,,,,,,,,,,,,,,,,,,,,0,0,0,0,0
4.9637,1783187899.7251,1,1,1.0000,0.0000,1.44679,0.19054,-2.78785,1.02648,1.57079,0.00003,-0.14511,-0.38001,0.03568,,,,,,,,,,,,,,,,,,,,,,,,,,0,0,0,0,0
4.9766,1783187899.7379,1,1,1.0000,0.0000,1.44679,0.19032,-2.78790,1.02674,1.57079,0.00003,-0.14511,-0.38001,0.03563,,,,,,,,,,,,,,,,,,,,,,,,,,0,0,0,0,0
4.9770,1783187899.7383,1,1,1.0000,0.0000,1.44679,0.19032,-2.78790,1.02674,1.57079,0.00003,-0.14511,-0.38001,0.03563,,,,,,,,,,,,,,,,,,,,,,,,,,0,0,0,0,0
4.9837,1783187899.7451,1,1,1.0000,0.0000,1.44679,0.19025,-2.78792,1.02683,1.57079,0.00003,-0.14511,-0.38001,0.03561,,,,,,,,,,,,,,,,,,,,,,,,,,0,0,0,0,0
4.9839,1783187899.7452,1,1,1.0000,0.0000,1.44679,0.19025,-2.78792,1.02683,1.57079,0.00003,-0.14511,-0.38001,0.03561,,,,,,,,,,,,,,,,,,,,,,,,,,0,0,0,0,0
4.9936,1783187899.7550,1,1,1.0000,0.0000,1.44679,0.19021,-2.78792,1.02687,1.57079,0.00003,-0.14511,-0.38001,0.03560,,,,,,,,,,,,,,,,,,,,,,,,,,0,0,0,0,0
5.0037,1783187899.7651,1,1,1.0000,0.0000,1.44679,0.19007,-2.78796,1.02705,1.57079,0.00003,-0.14511,-0.38001,0.03557,,,,,,,,,,,,,,,,,,,,,,,,,,0,0,0,0,0
5.0137,1783187899.7751,1,1,1.0000,0.0000,1.44679,0.19001,-2.78797,1.02712,1.57079,0.00003,-0.14511,-0.38001,0.03555,,,,,,,,,,,,,,,,,,,,,,,,,,0,0,0,0,0
5.0278,1783187899.7892,1,1,1.0000,0.0000,1.44679,0.18991,-2.78799,1.02725,1.57079,0.00003,-0.14511,-0.38001,0.03553,,,,,,,,,,,,,,,,,,,,,,,,,,0,0,0,0,0
5.0382,1783187899.7996,1,1,1.0000,0.0000,1.44679,0.18969,-2.78804,1.02751,1.57079,0.00003,-0.14511,-0.38001,0.03547,,,,,,,,,,,,,,,,,,,,,,,,,,0,0,0,0,0
5.0481,1783187899.8094,1,1,1.0000,0.0000,1.44679,0.18961,-2.78806,1.02762,1.57079,0.00003,-0.14511,-0.38001,0.03545,,,,,,,,,,,,,,,,,,,,,,,,,,0,0,0,0,0
5.0581,1783187899.8195,1,1,1.0000,0.0000,1.44679,0.18952,-2.78808,1.02772,1.57079,0.00003,-0.14511,-0.38001,0.03543,,,,,,,,,,,,,,,,,,,,,,,,,,0,0,0,0,0
5.0678,1783187899.8291,1,1,1.0000,0.0000,1.44679,0.18931,-2.78813,1.02798,1.57079,0.00003,-0.14511,-0.38001,0.03538,,,,,,,,,,,,,,,,,,,,,,,,,,0,0,0,0,0
5.0779,1783187899.8393,1,1,1.0000,0.0000,1.44679,0.18930,-2.78813,1.02800,1.57079,0.00003,-0.14511,-0.38001,0.03538,,,,,,,,,,,,,,,,,,,,,,,,,,0,0,0,0,0
5.0896,1783187899.8510,1,1,1.0000,0.0000,1.44679,0.18915,-2.78817,1.02818,1.57079,0.00003,-0.14511,-0.38001,0.03534,,,,,,,,,,,,,,,,,,,,,,,,,,0,0,0,0,0
5.1007,1783187899.8620,1,1,1.0000,0.0000,1.44679,0.18893,-2.78822,1.02845,1.57079,0.00003,-0.14511,-0.38001,0.03529,,,,,,,,,,,,,,,,,,,,,,,,,,0,0,0,0,0
5.1104,1783187899.8717,1,1,1.0000,0.0000,1.44679,0.18892,-2.78822,1.02846,1.57079,0.00003,-0.14511,-0.38001,0.03528,,,,,,,,,,,,,,,,,,,,,,,,,,0,0,0,0,0
5.1107,1783187899.8720,1,1,1.0000,0.0000,1.44679,0.18892,-2.78822,1.02846,1.57079,0.00003,-0.14511,-0.38001,0.03528,,,,,,,,,,,,,,,,,,,,,,,,,,0,0,0,0,0
5.1203,1783187899.8817,1,1,1.0000,0.0000,1.44679,0.18877,-2.78825,1.02865,1.57079,0.00003,-0.14511,-0.38001,0.03525,,,,,,,,,,,,,,,,,,,,,,,,,,0,0,0,0,0
5.1359,1783187899.8973,1,1,1.0000,0.0000,1.44679,0.18861,-2.78829,1.02884,1.57079,0.00003,-0.14511,-0.38001,0.03521,,,,,,,,,,,,,,,,,,,,,,,,,,0,0,0,0,0
5.1379,1783187899.8992,1,1,1.0000,0.0000,1.44679,0.18861,-2.78829,1.02884,1.57079,0.00003,-0.14511,-0.38001,0.03521,,,,,,,,,,,,,,,,,,,,,,,,,,0,0,0,0,0
5.1385,1783187899.8999,1,1,1.0000,0.0000,1.44679,0.18861,-2.78829,1.02884,1.57079,0.00003,-0.14511,-0.38001,0.03521,,,,,,,,,,,,,,,,,,,,,,,,,,0,0,0,0,0
5.1561,1783187899.9175,1,1,1.0000,0.0000,1.44679,0.18831,-2.78836,1.02920,1.57079,0.00003,-0.14511,-0.38001,0.03514,,,,,,,,,,,,,,,,,,,,,,,,,,0,0,0,0,0
5.1683,1783187899.9296,1,1,1.0000,0.0000,1.44679,0.18823,-2.78837,1.02930,1.57079,0.00003,-0.14511,-0.38001,0.03512,,,,,,,,,,,,,,,,,,,,,,,,,,0,0,0,0,0
5.1687,1783187899.9301,1,1,1.0000,0.0000,1.44679,0.18823,-2.78837,1.02930,1.57079,0.00003,-0.14511,-0.38001,0.03512,,,,,,,,,,,,,,,,,,,,,,,,,,0,0,0,0,0
5.1839,1783187899.9452,1,1,1.0000,0.0000,1.44679,0.18801,-2.78842,1.02958,1.57079,0.00004,-0.14511,-0.38001,0.03506,,,,,,,,,,,,,,,,,,,,,,,,,,0,0,0,0,0
5.1959,1783187899.9573,1,1,1.0000,0.0000,1.44679,0.18792,-2.78844,1.02968,1.57079,0.00004,-0.14511,-0.38001,0.03504,,,,,,,,,,,,,,,,,,,,,,,,,,0,0,0,0,0
5.1965,1783187899.9578,1,1,1.0000,0.0000,1.44679,0.18792,-2.78844,1.02968,1.57079,0.00004,-0.14511,-0.38001,0.03504,,,,,,,,,,,,,,,,,,,,,,,,,,0,0,0,0,0
5.1977,1783187899.9591,1,1,1.0000,0.0000,1.44679,0.18792,-2.78844,1.02968,1.57079,0.00004,-0.14511,-0.38001,0.03504,,,,,,,,,,,,,,,,,,,,,,,,,,0,0,0,0,0
5.1984,1783187899.9598,1,1,1.0000,0.0000,1.44679,0.18792,-2.78844,1.02968,1.57079,0.00004,-0.14511,-0.38001,0.03504,,,,,,,,,,,,,,,,,,,,,,,,,,0,0,0,0,0
5.2141,1783187899.9755,1,1,1.0000,0.0000,1.44679,0.18770,-2.78849,1.02996,1.57079,0.00004,-0.14511,-0.38001,0.03499,,,,,,,,,,,,,,,,,,,,,,,,,,0,0,0,0,0
5.2239,1783187899.9853,1,1,1.0000,0.0000,1.44679,0.18755,-2.78853,1.03013,1.57079,0.00004,-0.14511,-0.38001,0.03495,,,,,,,,,,,,,,,,,,,,,,,,,,0,0,0,0,0
5.2397,1783187900.0011,1,1,1.0000,0.0000,1.44679,0.18739,-2.78856,1.03033,1.57079,0.00004,-0.14511,-0.38001,0.03491,,,,,,,,,,,,,,,,,,,,,,,,,,0,0,0,0,0
5.2402,1783187900.0015,1,1,1.0000,0.0000,1.44679,0.18739,-2.78856,1.03033,1.57079,0.00004,-0.14511,-0.38001,0.03491,,,,,,,,,,,,,,,,,,,,,,,,,,0,0,0,0,0
5.2406,1783187900.0020,1,1,1.0000,0.0000,1.44679,0.18739,-2.78856,1.03033,1.57079,0.00004,-0.14511,-0.38001,0.03491,,,,,,,,,,,,,,,,,,,,,,,,,,0,0,0,0,0
5.2492,1783187900.0106,1,1,1.0000,0.0000,1.44679,0.18724,-2.78860,1.03051,1.57079,0.00004,-0.14511,-0.38001,0.03487,,,,,,,,,,,,,,,,,,,,,,,,,,0,0,0,0,0
5.2621,1783187900.0235,1,1,1.0000,0.0000,1.44679,0.18720,-2.78861,1.03057,1.57079,0.00004,-0.14511,-0.38001,0.03486,,,,,,,,,,,,,,,,,,,,,,,,,,0,0,0,0,0
5.2680,1783187900.0294,1,1,1.0000,0.0000,1.44679,0.18708,-2.78863,1.03071,1.57079,0.00004,-0.14511,-0.38001,0.03483,,,,,,,,,,,,,,,,,,,,,,,,,,0,0,0,0,0
5.2777,1783187900.0390,1,1,1.0000,0.0000,1.44679,0.18694,-2.78867,1.03089,1.57079,0.00004,-0.14511,-0.38001,0.03480,,,,,,,,,,,,,,,,,,,,,,,,,,0,0,0,0,0
5.2780,1783187900.0394,1,1,1.0000,0.0000,1.44679,0.18694,-2.78867,1.03089,1.57079,0.00004,-0.14511,-0.38001,0.03480,,,,,,,,,,,,,,,,,,,,,,,,,,0,0,0,0,0
5.2879,1783187900.0492,1,1,1.0000,0.0000,1.44679,0.18685,-2.78869,1.03099,1.57079,0.00004,-0.14511,-0.38001,0.03478,,,,,,,,,,,,,,,,,,,,,,,,,,0,0,0,0,0
5.2882,1783187900.0496,1,1,1.0000,0.0000,1.44679,0.18685,-2.78869,1.03099,1.57079,0.00004,-0.14511,-0.38001,0.03478,,,,,,,,,,,,,,,,,,,,,,,,,,0,0,0,0,0
5.2986,1783187900.0600,1,1,1.0000,0.0000,1.44679,0.18676,-2.78870,1.03110,1.57079,0.00004,-0.14511,-0.38001,0.03476,,,,,,,,,,,,,,,,,,,,,,,,,,0,0,0,0,0
5.3151,1783187900.0765,1,1,1.0000,0.0000,1.44679,0.18648,-2.78877,1.03145,1.57079,0.00004,-0.14511,-0.38001,0.03469,,,,,,,,,,,,,,,,,,,,,,,,,,0,0,0,0,0
