Martins-Lucaas/twinforge/sensors/Data/20260707_131519__samples.csv
t_rel_s,t_unix,cycle,phase,setpoint_n,force_net_n,q1,q2,q3,q4,q5,q6,tcp_x,tcp_y,tcp_z,taxel_0,taxel_1,taxel_2,taxel_3,taxel_4,taxel_5,taxel_6,taxel_7,taxel_8,taxel_9,taxel_10,taxel_11,taxel_12,taxel_13,taxel_14,taxel_15,taxel_16,taxel_17,taxel_18,taxel_19,taxel_20,taxel_21,taxel_22,taxel_23,taxel_24,n_RA,n_SA,cn_mm,cn_ra,cn_sa
0.0011,1783440919.3399,0,-1,1.0000,0.0000,1.42052,0.14185,-2.66689,1.00255,1.56182,0.11680,-0.13241,-0.45914,0.07212,,,,,,,,,,,,,,,,,,,,,,,,,,0,0,0,0,0
0.0074,1783440919.3462,1,0,1.0000,0.0000,1.42052,0.14185,-2.66689,1.00255,1.56182,0.11680,-0.13241,-0.45914,0.07212,,,,,,,,,,,,,,,,,,,,,,,,,,0,0,0,0,0
0.0078,1783440919.3466,1,0,1.0000,0.0000,1.42052,0.14185,-2.66689,1.00255,1.56182,0.11680,-0.13241,-0.45914,0.07212,,,,,,,,,,,,,,,,,,,,,,,,,,0,0,0,0,0
0.0158,1783440919.3546,1,0,1.0000,0.0000,1.42052,0.14185,-2.66689,1.00255,1.56182,0.11680,-0.13241,-0.45914,0.07212,,,,,,,,,,,,,,,,,,,,,,,,,,0,0,0,0,0
0.0253,1783440919.3641,1,0,1.0000,0.0000,1.42052,0.14185,-2.66689,1.00255,1.56182,0.11680,-0.13241,-0.45914,0.07212,,,,,,,,,,,,,,,,,,,,,,,,,,0,0,0,0,0
0.0410,1783440919.3798,1,0,1.0000,0.0000,1.42052,0.14185,-2.66689,1.00251,1.56182,0.11681,-0.13241,-0.45914,0.07211,,,,,,,,,,,,,,,,,,,,,,,,,,0,0,0,0,0
0.0414,1783440919.3802,1,0,1.0000,0.0000,1.42052,0.14185,-2.66689,1.00251,1.56182,0.11681,-0.13241,-0.45914,0.07211,,,,,,,,,,,,,,,,,,,,,,,,,,0,0,0,0,0
0.0517,1783440919.3905,1,0,1.0000,0.0000,1.42052,0.14185,-2.66688,1.00245,1.56182,0.11681,-0.13242,-0.45913,0.07210,,,,,,,,,,,,,,,,,,,,,,,,,,0,0,0,0,0
0.0521,1783440919.3909,1,0,1.0000,0.0000,1.42052,0.14185,-2.66688,1.00245,1.56182,0.11681,-0.13242,-0.45913,0.07210,,,,,,,,,,,,,,,,,,,,,,,,,,0,0,0,0,0
0.0573,1783440919.3961,1,0,1.0000,0.0000,1.42052,0.14185,-2.66688,1.00243,1.56182,0.11681,-0.13242,-0.45912,0.07210,,,,,,,,,,,,,,,,,,,,,,,,,,0,0,0,0,0
0.0663,1783440919.4051,1,0,1.0000,0.0000,1.42052,0.14185,-2.66688,1.00237,1.56182,0.11681,-0.13242,-0.45911,0.07209,,,,,,,,,,,,,,,,,,,,,,,,,,0,0,0,0,0
0.0667,1783440919.4055,1,0,1.0000,0.0000,1.42052,0.14185,-2.66688,1.00237,1.56182,0.11681,-0.13242,-0.45911,0.07209,,,,,,,,,,,,,,,,,,,,,,,,,,0,0,0,0,0
0.0750,1783440919.4138,1,0,1.0000,0.0000,1.42052,0.14185,-2.66687,1.00235,1.56182,0.11682,-0.13242,-0.45911,0.07209,,,,,,,,,,,,,,,,,,,,,,,,,,0,0,0,0,0
0.0853,1783440919.4241,1,0,1.0000,0.0000,1.42052,0.14185,-2.66687,1.00234,1.56182,0.11682,-0.13242,-0.45910,0.07209,,,,,,,,,,,,,,,,,,,,,,,,,,0,0,0,0,0
0.0957,1783440919.4344,1,0,1.0000,0.0000,1.42052,0.14185,-2.66687,1.00234,1.56182,0.11682,-0.13242,-0.45910,0.07209,,,,,,,,,,,,,,,,,,,,,,,,,,0,0,0,0,0
0.1095,1783440919.4483,1,0,1.0000,0.0000,1.42052,0.14185,-2.66687,1.00234,1.56182,0.11682,-0.13242,-0.45910,0.07209,,,,,,,,,,,,,,,,,,,,,,,,,,0,0,0,0,0
0.1166,1783440919.4554,1,0,1.0000,0.0000,1.42052,0.14185,-2.66687,1.00234,1.56182,0.11682,-0.13242,-0.45910,0.07209,,,,,,,,,,,,,,,,,,,,,,,,,,0,0,0,0,0
0.2124,1783440919.5512,1,0,1.0000,0.0000,1.42052,0.14185,-2.66687,1.00234,1.56182,0.11682,-0.13242,-0.45910,0.07209,,,,,,,,,,,,,,,,,,,,,,,,,,0,0,0,0,0
0.2281,1783440919.5669,1,0,1.0000,0.0000,1.42052,0.14185,-2.66687,1.00234,1.56182,0.11682,-0.13242,-0.45910,0.07209,,,,,,,,,,,,,,,,,,,,,,,,,,0,0,0,0,0
0.2286,1783440919.5674,1,0,1.0000,0.0000,1.42052,0.14185,-2.66687,1.00234,1.56182,0.11682,-0.13242,-0.45910,0.07209,,,,,,,,,,,,,,,,,,,,,,,,,,0,0,0,0,0
0.2292,1783440919.5680,1,0,1.0000,0.0000,1.42052,0.14185,-2.66687,1.00234,1.56182,0.11682,-0.13242,-0.45910,0.07209,,,,,,,,,,,,,,,,,,,,,,,,,,0,0,0,0,0
0.2297,1783440919.5685,1,0,1.0000,0.0000,1.42052,0.14185,-2.66687,1.00234,1.56182,0.11682,-0.13242,-0.45910,0.07209,,,,,,,,,,,,,,,,,,,,,,,,,,0,0,0,0,0
0.2304,1783440919.5692,1,0,1.0000,0.0000,1.42052,0.14185,-2.66687,1.00234,1.56182,0.11682,-0.13242,-0.45910,0.07209,,,,,,,,,,,,,,,,,,,,,,,,,,0,0,0,0,0
0.2307,1783440919.5695,1,0,1.0000,0.0000,1.42052,0.14185,-2.66687,1.00234,1.56182,0.11682,-0.13242,-0.45910,0.07209,,,,,,,,,,,,,,,,,,,,,,,,,,0,0,0,0,0
0.2312,1783440919.5700,1,0,1.0000,0.0000,1.42052,0.14185,-2.66687,1.00234,1.56182,0.11682,-0.13242,-0.45910,0.07209,,,,,,,,,,,,,,,,,,,,,,,,,,0,0,0,0,0
0.2977,1783440919.6365,1,0,1.0000,0.0000,1.42052,0.14185,-2.66687,1.00234,1.56182,0.11682,-0.13242,-0.45910,0.07209,,,,,,,,,,,,,,,,,,,,,,,,,,0,0,0,0,0
0.3063,1783440919.6451,1,0,1.0000,0.0000,1.42052,0.14185,-2.66687,1.00234,1.56182,0.11682,-0.13242,-0.45910,0.07209,,,,,,,,,,,,,,,,,,,,,,,,,,0,0,0,0,0
0.3067,1783440919.6455,1,0,1.0000,0.0000,1.42052,0.14185,-2.66687,1.00234,1.56182,0.11682,-0.13242,-0.45910,0.07209,,,,,,,,,,,,,,,,,,,,,,,,,,0,0,0,0,0
0.3071,1783440919.6459,1,0,1.0000,0.0000,1.42052,0.14185,-2.66687,1.00234,1.56182,0.11682,-0.13242,-0.45910,0.07209,,,,,,,,,,,,,,,,,,,,,,,,,,0,0,0,0,0
0.3075,1783440919.6463,1,0,1.0000,0.0000,1.42052,0.14185,-2.66687,1.00234,1.56182,0.11682,-0.13242,-0.45910,0.07209,,,,,,,,,,,,,,,,,,,,,,,,,,0,0,0,0,0
0.3079,1783440919.6466,1,0,1.0000,0.0000,1.42052,0.14185,-2.66687,1.00234,1.56182,0.11682,-0.13242,-0.45910,0.07209,,,,,,,,,,,,,,,,,,,,,,,,,,0,0,0,0,0
0.3311,1783440919.6699,1,0,1.0000,0.0000,1.42052,0.14185,-2.66687,1.00234,1.56182,0.11682,-0.13242,-0.45910,0.07209,,,,,,,,,,,,,,,,,,,,,,,,,,0,0,0,0,0
0.3314,1783440919.6702,1,0,1.0000,0.0000,1.42052,0.14185,-2.66687,1.00234,1.56182,0.11682,-0.13242,-0.45910,0.07209,,,,,,,,,,,,,,,,,,,,,,,,,,0,0,0,0,0
0.3691,1783440919.7079,1,0,1.0000,0.0000,1.42052,0.14185,-2.66687,1.00234,1.56182,0.11682,-0.13242,-0.45910,0.07209,,,,,,,,,,,,,,,,,,,,,,,,,,0,0,0,0,0
0.3695,1783440919.7082,1,0,1.0000,0.0000,1.42052,0.14185,-2.66687,1.00234,1.56182,0.11682,-0.13242,-0.45910,0.07209,,,,,,,,,,,,,,,,,,,,,,,,,,0,0,0,0,0
0.3701,1783440919.7089,1,0,1.0000,0.0000,1.42052,0.14185,-2.66687,1.00234,1.56182,0.11682,-0.13242,-0.45910,0.07209,,,,,,,,,,,,,,,,,,,,,,,,,,0,0,0,0,0
0.4991,1783440919.8378,1,0,1.0000,0.0000,1.42052,0.14185,-2.66687,1.00234,1.56182,0.11682,-0.13242,-0.45910,0.07209,,,,,,,,,,,,,,,,,,,,,,,,,,0,0,0,0,0
0.4996,1783440919.8383,1,0,1.0000,0.0000,1.42052,0.14185,-2.66687,1.00234,1.56182,0.11682,-0.13242,-0.45910,0.07209,,,,,,,,,,,,,,,,,,,,,,,,,,0,0,0,0,0
0.5000,1783440919.8388,1,0,1.0000,0.0000,1.42052,0.14185,-2.66687,1.00234,1.56182,0.11682,-0.13242,-0.45910,0.07209,,,,,,,,,,,,,,,,,,,,,,,,,,0,0,0,0,0
0.5006,1783440919.8394,1,0,1.0000,0.0000,1.42052,0.14185,-2.66687,1.00234,1.56182,0.11682,-0.13242,-0.45910,0.07209,,,,,,,,,,,,,,,,,,,,,,,,,,0,0,0,0,0
0.5010,1783440919.8398,1,0,1.0000,0.0000,1.42052,0.14185,-2.66687,1.00234,1.56182,0.11682,-0.13242,-0.45910,0.07209,,,,,,,,,,,,,,,,,,,,,,,,,,0,0,0,0,0
0.5016,1783440919.8404,1,0,1.0000,0.0000,1.42052,0.14185,-2.66687,1.00234,1.56182,0.11682,-0.13242,-0.45910,0.07209,,,,,,,,,,,,,,,,,,,,,,,,,,0,0,0,0,0
0.5025,1783440919.8413,1,0,1.0000,0.0000,1.42052,0.14185,-2.66687,1.00234,1.56182,0.11682,-0.13242,-0.45910,0.07209,,,,,,,,,,,,,,,,,,,,,,,,,,0,0,0,0,0
0.5031,1783440919.8419,1,0,1.0000,0.0000,1.42052,0.14185,-2.66687,1.00234,1.56182,0.11682,-0.13242,-0.45910,0.07209,,,,,,,,,,,,,,,,,,,,,,,,,,0,0,0,0,0
0.5036,1783440919.8423,1,0,1.0000,0.0000,1.42052,0.14185,-2.66687,1.00234,1.56182,0.11682,-0.13242,-0.45910,0.07209,,,,,,,,,,,,,,,,,,,,,,,,,,0,0,0,0,0
0.5040,1783440919.8427,1,0,1.0000,0.0000,1.42052,0.14185,-2.66687,1.00234,1.56182,0.11682,-0.13242,-0.45910,0.07209,,,,,,,,,,,,,,,,,,,,,,,,,,0,0,0,0,0
0.5054,1783440919.8442,1,0,1.0000,0.0000,1.42052,0.14185,-2.66687,1.00234,1.56182,0.11682,-0.13242,-0.45910,0.07209,,,,,,,,,,,,,,,,,,,,,,,,,,0,0,0,0,0
0.5059,1783440919.8447,1,0,1.0000,0.0000,1.42052,0.14185,-2.66687,1.00234,1.56182,0.11682,-0.13242,-0.45910,0.07209,,,,,,,,,,,,,,,,,,,,,,,,,,0,0,0,0,0
0.5158,1783440919.8546,1,0,1.0000,0.0000,1.42052,0.14185,-2.66687,1.00234,1.56182,0.11682,-0.13242,-0.45910,0.07209,,,,,,,,,,,,,,,,,,,,,,,,,,0,0,0,0,0
0.5257,1783440919.8644,1,0,1.0000,0.0000,1.42052,0.14185,-2.66687,1.00234,1.56182,0.11682,-0.13242,-0.45910,0.07209,,,,,,,,,,,,,,,,,,,,,,,,,,0,0,0,0,0
0.5371,1783440919.8759,1,0,1.0000,0.0000,1.42052,0.14185,-2.66687,1.00234,1.56182,0.11682,-0.13242,-0.45910,0.07209,,,,,,,,,,,,,,,,,,,,,,,,,,0,0,0,0,0
0.5454,1783440919.8842,1,0,1.0000,0.0000,1.42052,0.14185,-2.66687,1.00234,1.56182,0.11682,-0.13242,-0.45910,0.07209,,,,,,,,,,,,,,,,,,,,,,,,,,0,0,0,0,0
0.5599,1783440919.8987,1,0,1.0000,0.0000,1.42052,0.14185,-2.66687,1.00234,1.56182,0.11682,-0.13242,-0.45910,0.07209,,,,,,,,,,,,,,,,,,,,,,,,,,0,0,0,0,0
0.5673,1783440919.9061,1,0,1.0000,0.0000,1.42052,0.14185,-2.66687,1.00234,1.56182,0.11682,-0.13242,-0.45910,0.07209,,,,,,,,,,,,,,,,,,,,,,,,,,0,0,0,0,0
0.5750,1783440919.9138,1,0,1.0000,0.0000,1.42052,0.14185,-2.66687,1.00234,1.56182,0.11682,-0.13242,-0.45910,0.07209,,,,,,,,,,,,,,,,,,,,,,,,,,0,0,0,0,0
0.5853,1783440919.9241,1,0,1.0000,0.0000,1.42052,0.14185,-2.66687,1.00234,1.56182,0.11682,-0.13242,-0.45910,0.07209,,,,,,,,,,,,,,,,,,,,,,,,,,0,0,0,0,0
0.5975,1783440919.9362,1,0,1.0000,0.0000,1.42052,0.14185,-2.66687,1.00234,1.56182,0.11682,-0.13242,-0.45910,0.07209,,,,,,,,,,,,,,,,,,,,,,,,,,0,0,0,0,0
0.6071,1783440919.9459,1,0,1.0000,0.0000,1.42052,0.14185,-2.66687,1.00234,1.56182,0.11682,-0.13242,-0.45910,0.07209,,,,,,,,,,,,,,,,,,,,,,,,,,0,0,0,0,0
0.6160,1783440919.9548,1,0,1.0000,0.0000,1.42052,0.14185,-2.66687,1.00234,1.56182,0.11682,-0.13242,-0.45910,0.07209,,,,,,,,,,,,,,,,,,,,,,,,,,0,0,0,0,0
0.6275,1783440919.9663,1,0,1.0000,0.0000,1.42052,0.14185,-2.66687,1.00234,1.56182,0.11682,-0.13242,-0.45910,0.07209,,,,,,,,,,,,,,,,,,,,,,,,,,0,0,0,0,0
0.6351,1783440919.9739,1,0,1.0000,0.0000,1.42052,0.14185,-2.66687,1.00234,1.56182,0.11682,-0.13242,-0.45910,0.07209,,,,,,,,,,,,,,,,,,,,,,,,,,0,0,0,0,0
0.6474,1783440919.9862,1,0,1.0000,0.0000,1.42052,0.14185,-2.66687,1.00234,1.56182,0.11682,-0.13242,-0.45910,0.07209,,,,,,,,,,,,,,,,,,,,,,,,,,0,0,0,0,0
0.6581,1783440919.9969,1,0,1.0000,0.0000,1.42051,0.14185,-2.66688,1.00234,1.56182,0.11682,-0.13242,-0.45910,0.07209,,,,,,,,,,,,,,,,,,,,,,,,,,0,0,0,0,0
0.6652,1783440920.0040,1,0,1.0000,0.0000,1.42051,0.14185,-2.66688,1.00234,1.56182,0.11682,-0.13242,-0.45910,0.07208,,,,,,,,,,,,,,,,,,,,,,,,,,0,0,0,0,0
0.6775,1783440920.0163,1,0,1.0000,0.0000,1.42048,0.14186,-2.66691,1.00234,1.56182,0.11685,-0.13241,-0.45909,0.07207,,,,,,,,,,,,,,,,,,,,,,,,,,0,0,0,0,0
0.6853,1783440920.0241,1,0,1.0000,0.0000,1.42045,0.14187,-2.66693,1.00234,1.56182,0.11687,-0.13240,-0.45908,0.07206,,,,,,,,,,,,,,,,,,,,,,,,,,0,0,0,0,0
0.6959,1783440920.0347,1,0,1.0000,0.0000,1.42041,0.14188,-2.66696,1.00234,1.56182,0.11690,-0.13238,-0.45906,0.07205,,,,,,,,,,,,,,,,,,,,,,,,,,0,0,0,0,0
0.7064,1783440920.0452,1,0,1.0000,0.0000,1.42035,0.14189,-2.66698,1.00233,1.56182,0.11696,-0.13236,-0.45905,0.07205,,,,,,,,,,,,,,,,,,,,,,,,,,0,0,0,0,0
0.7189,1783440920.0577,1,0,1.0000,0.0000,1.42028,0.14192,-2.66700,1.00233,1.56182,0.11703,-0.13233,-0.45905,0.07205,,,,,,,,,,,,,,,,,,,,,,,,,,0,0,0,0,0
0.7192,1783440920.0580,1,0,1.0000,0.0000,1.42028,0.14192,-2.66700,1.00233,1.56182,0.11703,-0.13233,-0.45905,0.07205,,,,,,,,,,,,,,,,,,,,,,,,,,0,0,0,0,0
0.7306,1783440920.0694,1,0,1.0000,0.0000,1.41995,0.14201,-2.66708,1.00231,1.56181,0.11734,-0.13221,-0.45905,0.07204,,,,,,,,,,,,,,,,,,,,,,,,,,0,0,0,0,0
0.7311,1783440920.0699,1,0,1.0000,0.0000,1.41995,0.14201,-2.66708,1.00231,1.56181,0.11734,-0.13221,-0.45905,0.07204,,,,,,,,,,,,,,,,,,,,,,,,,,0,0,0,0,0
0.7363,1783440920.0751,1,0,1.0000,0.0000,1.41980,0.14205,-2.66711,1.00230,1.56181,0.11749,-0.13215,-0.45905,0.07204,,,,,,,,,,,,,,,,,,,,,,,,,,0,0,0,0,0
0.7464,1783440920.0852,1,0,1.0000,0.0000,1.41930,0.14219,-2.66722,1.00227,1.56180,0.11798,-0.13196,-0.45904,0.07204,,,,,,,,,,,,,,,,,,,,,,,,,,0,0,0,0,0
0.7610,1783440920.0998,1,0,1.0000,0.0000,1.41920,0.14221,-2.66724,1.00226,1.56180,0.11808,-0.13192,-0.45904,0.07204,,,,,,,,,,,,,,,,,,,,,,,,,,0,0,0,0,0
0.7676,1783440920.1064,1,0,1.0000,0.0000,1.41891,0.14229,-2.66730,1.00224,1.56179,0.11836,-0.13182,-0.45905,0.07204,,,,,,,,,,,,,,,,,,,,,,,,,,0,0,0,0,0
0.7749,1783440920.1137,1,0,1.0000,0.0000,1.41871,0.14235,-2.66734,1.00223,1.56179,0.11856,-0.13174,-0.45905,0.07204,,,,,,,,,,,,,,,,,,,,,,,,,,0,0,0,0,0
0.7754,1783440920.1142,1,0,1.0000,0.0000,1.41871,0.14235,-2.66734,1.00223,1.56179,0.11856,-0.13174,-0.45905,0.07204,,,,,,,,,,,,,,,,,,,,,,,,,,0,0,0,0,0
0.7891,1783440920.1279,1,0,1.0000,0.0000,1.41827,0.14247,-2.66742,1.00219,1.56177,0.11900,-0.13157,-0.45906,0.07204,,,,,,,,,,,,,,,,,,,,,,,,,,0,0,0,0,0
0.7957,1783440920.1345,1,0,1.0000,0.0000,1.41758,0.14266,-2.66755,1.00214,1.56174,0.11968,-0.13132,-0.45906,0.07205,,,,,,,,,,,,,,,,,,,,,,,,,,0,0,0,0,0
0.8063,1783440920.1451,1,0,1.0000,0.0000,1.41671,0.14290,-2.66772,1.00208,1.56171,0.12056,-0.13099,-0.45907,0.07205,,,,,,,,,,,,,,,,,,,,,,,,,,0,0,0,0,0
0.8186,1783440920.1574,1,0,1.0000,0.0000,1.41624,0.14303,-2.66781,1.00204,1.56169,0.12103,-0.13081,-0.45908,0.07206,,,,,,,,,,,,,,,,,,,,,,,,,,0,0,0,0,0
0.8256,1783440920.1644,1,0,1.0000,0.0000,1.41591,0.14312,-2.66788,1.00202,1.56167,0.12136,-0.13069,-0.45908,0.07206,,,,,,,,,,,,,,,,,,,,,,,,,,0,0,0,0,0
0.8268,1783440920.1656,1,0,1.0000,0.0000,1.41551,0.14323,-2.66795,1.00199,1.56166,0.12176,-0.13054,-0.45909,0.07206,,,,,,,,,,,,,,,,,,,,,,,,,,0,0,0,0,0
0.8387,1783440920.1775,1,0,1.0000,0.0000,1.41524,0.14330,-2.66800,1.00197,1.56165,0.12203,-0.13044,-0.45909,0.07206,,,,,,,,,,,,,,,,,,,,,,,,,,0,0,0,0,0
0.8391,1783440920.1779,1,0,1.0000,0.0000,1.41524,0.14330,-2.66800,1.00197,1.56165,0.12203,-0.13044,-0.45909,0.07206,,,,,,,,,,,,,,,,,,,,,,,,,,0,0,0,0,0
0.8451,1783440920.1839,1,0,1.0000,0.0000,1.41493,0.14338,-2.66806,1.00194,1.56163,0.12234,-0.13032,-0.45909,0.07206,,,,,,,,,,,,,,,,,,,,,,,,,,0,0,0,0,0
0.8455,1783440920.1843,1,0,1.0000,0.0000,1.41493,0.14338,-2.66806,1.00194,1.56163,0.12234,-0.13032,-0.45909,0.07206,,,,,,,,,,,,,,,,,,,,,,,,,,0,0,0,0,0
0.8597,1783440920.1985,1,0,1.0000,0.0000,1.41294,0.14393,-2.66844,1.00179,1.56155,0.12433,-0.12958,-0.45911,0.07207,,,,,,,,,,,,,,,,,,,,,,,,,,0,0,0,0,0
0.8688,1783440920.2076,1,0,1.0000,0.0000,1.41234,0.14409,-2.66856,1.00174,1.56152,0.12493,-0.12936,-0.45912,0.07207,,,,,,,,,,,,,,,,,,,,,,,,,,0,0,0,0,0
0.8785,1783440920.2173,1,0,1.0000,0.0000,1.41194,0.14420,-2.66864,1.00171,1.56150,0.12534,-0.12921,-0.45912,0.07207,,,,,,,,,,,,,,,,,,,,,,,,,,0,0,0,0,0
0.8789,1783440920.2177,1,0,1.0000,0.0000,1.41194,0.14420,-2.66864,1.00171,1.56150,0.12534,-0.12921,-0.45912,0.07207,,,,,,,,,,,,,,,,,,,,,,,,,,0,0,0,0,0
0.8871,1783440920.2258,1,0,1.0000,0.0000,1.41132,0.14437,-2.66875,1.00166,1.56147,0.12595,-0.12898,-0.45912,0.07207,,,,,,,,,,,,,,,,,,,,,,,,,,0,0,0,0,0
0.9014,1783440920.2401,1,0,1.0000,0.0000,1.41114,0.14442,-2.66879,1.00165,1.56146,0.12614,-0.12891,-0.45913,0.07208,,,,,,,,,,,,,,,,,,,,,,,,,,0,0,0,0,0
0.9080,1783440920.2468,1,0,1.0000,0.0000,1.41065,0.14455,-2.66888,1.00161,1.56144,0.12662,-0.12873,-0.45913,0.07208,,,,,,,,,,,,,,,,,,,,,,,,,,0,0,0,0,0
0.9150,1783440920.2537,1,0,1.0000,0.0000,1.40997,0.14473,-2.66901,1.00155,1.56141,0.12731,-0.12847,-0.45913,0.07208,,,,,,,,,,,,,,,,,,,,,,,,,,0,0,0,0,0
0.9354,1783440920.2742,1,0,1.0000,0.0000,1.40933,0.14490,-2.66914,1.00150,1.56138,0.12795,-0.12823,-0.45914,0.07208,,,,,,,,,,,,,,,,,,,,,,,,,,0,0,0,0,0
0.9401,1783440920.2789,1,0,1.0000,0.0000,1.40915,0.14495,-2.66917,1.00148,1.56137,0.12812,-0.12817,-0.45914,0.07208,,,,,,,,,,,,,,,,,,,,,,,,,,0,0,0,0,0
0.9406,1783440920.2794,1,0,1.0000,0.0000,1.40915,0.14495,-2.66917,1.00148,1.56137,0.12812,-0.12817,-0.45914,0.07208,,,,,,,,,,,,,,,,,,,,,,,,,,0,0,0,0,0
0.9506,1783440920.2894,1,0,1.0000,0.0000,1.40847,0.14514,-2.66929,1.00142,1.56134,0.12881,-0.12791,-0.45915,0.07208,,,,,,,,,,,,,,,,,,,,,,,,,,0,0,0,0,0
0.9510,1783440920.2898,1,0,1.0000,0.0000,1.40847,0.14514,-2.66929,1.00142,1.56134,0.12881,-0.12791,-0.45915,0.07208,,,,,,,,,,,,,,,,,,,,,,,,,,0,0,0,0,0
0.9551,1783440920.2938,1,0,1.0000,0.0000,1.40847,0.14514,-2.66929,1.00142,1.56134,0.12881,-0.12791,-0.45915,0.07208,,,,,,,,,,,,,,,,,,,,,,,,,,0,0,0,0,0
0.9707,1783440920.3095,1,0,1.0000,0.0000,1.40821,0.14521,-2.66933,1.00140,1.56132,0.12907,-0.12782,-0.45916,0.07209,,,,,,,,,,,,,,,,,,,,,,,,,,0,0,0,0,0
0.9947,1783440920.3335,1,0,1.0000,0.0000,1.40738,0.14543,-2.66944,1.00132,1.56128,0.12991,-0.12750,-0.45920,0.07212,,,,,,,,,,,,,,,,,,,,,,,,,,0,0,0,0,0
1.0033,1783440920.3421,1,0,1.0000,0.0000,1.40715,0.14549,-2.66946,1.00130,1.56126,0.13015,-0.12742,-0.45922,0.07213,,,,,,,,,,,,,,,,,,,,,,,,,,0,0,0,0,0
1.0037,1783440920.3425,1,0,1.0000,0.0000,1.40715,0.14549,-2.66946,1.00130,1.56126,0.13015,-0.12742,-0.45922,0.07213,,,,,,,,,,,,,,,,,,,,,,,,,,0,0,0,0,0
1.0066,1783440920.3454,1,0,1.0000,0.0000,1.40707,0.14552,-2.66946,1.00129,1.56126,0.13023,-0.12739,-0.45922,0.07214,,,,,,,,,,,,,,,,,,,,,,,,,,0,0,0,0,0
1.0070,1783440920.3458,1,0,1.0000,0.0000,1.40707,0.14552,-2.66946,1.00129,1.56126,0.13023,-0.12739,-0.45922,0.07214,,,,,,,,,,,,,,,,,,,,,,,,,,0,0,0,0,0
1.0226,1783440920.3613,1,0,1.0000,0.0000,1.40699,0.14554,-2.66945,1.00128,1.56125,0.13030,-0.12736,-0.45924,0.07215,,,,,,,,,,,,,,,,,,,,,,,,,,0,0,0,0,0
1.0254,1783440920.3642,1,0,1.0000,0.0000,1.40699,0.14554,-2.66945,1.00128,1.56125,0.13030,-0.12736,-0.45924,0.07215,,,,,,,,,,,,,,,,,,,,,,,,,,0,0,0,0,0
1.0258,1783440920.3646,1,0,1.0000,0.0000,1.40699,0.14554,-2.66945,1.00128,1.56125,0.13030,-0.12736,-0.45924,0.07215,,,,,,,,,,,,,,,,,,,,,,,,,,0,0,0,0,0
1.0371,1783440920.3759,1,1,1.0000,0.0000,1.40699,0.14554,-2.66945,1.00128,1.56125,0.13030,-0.12736,-0.45924,0.07215,,,,,,,,,,,,,,,,,,,,,,,,,,0,0,0,0,0
1.0468,1783440920.3856,1,1,1.0000,0.0000,1.40699,0.14554,-2.66945,1.00128,1.56125,0.13030,-0.12736,-0.45924,0.07215,,,,,,,,,,,,,,,,,,,,,,,,,,0,0,0,0,0
1.0550,1783440920.3938,1,1,1.0000,0.0000,1.40699,0.14554,-2.66945,1.00128,1.56125,0.13030,-0.12736,-0.45924,0.07215,,,,,,,,,,,,,,,,,,,,,,,,,,0,0,0,0,0
1.0557,1783440920.3945,1,1,1.0000,0.0000,1.40699,0.14554,-2.66945,1.00128,1.56125,0.13030,-0.12736,-0.45924,0.07215,,,,,,,,,,,,,,,,,,,,,,,,,,0,0,0,0,0
1.0687,1783440920.4075,1,1,1.0000,0.0000,1.40699,0.14554,-2.66945,1.00128,1.56125,0.13030,-0.12736,-0.45924,0.07215,,,,,,,,,,,,,,,,,,,,,,,,,,0,0,0,0,0
1.0767,1783440920.4155,1,1,1.0000,0.0000,1.40699,0.14554,-2.66945,1.00128,1.56125,0.13030,-0.12736,-0.45924,0.07215,,,,,,,,,,,,,,,,,,,,,,,,,,0,0,0,0,0
1.0872,1783440920.4260,1,1,1.0000,0.0000,1.40699,0.14554,-2.66945,1.00128,1.56125,0.13030,-0.12736,-0.45924,0.07215,,,,,,,,,,,,,,,,,,,,,,,,,,0,0,0,0,0
1.0958,1783440920.4346,1,1,1.0000,0.0000,1.40699,0.14554,-2.66945,1.00128,1.56125,0.13030,-0.12736,-0.45924,0.07215,,,,,,,,,,,,,,,,,,,,,,,,,,0,0,0,0,0
1.1068,1783440920.4456,1,1,1.0000,0.0000,1.40699,0.14554,-2.66945,1.00128,1.56125,0.13030,-0.12736,-0.45924,0.07215,,,,,,,,,,,,,,,,,,,,,,,,,,0,0,0,0,0
1.1155,1783440920.4543,1,1,1.0000,0.0000,1.40699,0.14554,-2.66945,1.00128,1.56125,0.13030,-0.12736,-0.45924,0.07215,,,,,,,,,,,,,,,,,,,,,,,,,,0,0,0,0,0
1.1285,1783440920.4673,1,1,1.0000,0.0000,1.40699,0.14554,-2.66945,1.00128,1.56125,0.13030,-0.12736,-0.45924,0.07215,,,,,,,,,,,,,,,,,,,,,,,,,,0,0,0,0,0
1.1399,1783440920.4786,1,1,1.0000,0.0000,1.40699,0.14554,-2.66945,1.00128,1.56125,0.13030,-0.12736,-0.45924,0.07215,,,,,,,,,,,,,,,,,,,,,,,,,,0,0,0,0,0
1.1460,1783440920.4848,1,1,1.0000,0.0000,1.40699,0.14554,-2.66945,1.00128,1.56125,0.13030,-0.12736,-0.45924,0.07215,,,,,,,,,,,,,,,,,,,,,,,,,,0,0,0,0,0
1.1551,1783440920.4939,1,1,1.0000,0.0000,1.40699,0.14554,-2.66945,1.00128,1.56125,0.13030,-0.12736,-0.45924,0.07215,,,,,,,,,,,,,,,,,,,,,,,,,,0,0,0,0,0
1.1553,1783440920.4941,1,1,1.0000,0.0000,1.40699,0.14554,-2.66945,1.00128,1.56125,0.13030,-0.12736,-0.45924,0.07215,,,,,,,,,,,,,,,,,,,,,,,,,,0,0,0,0,0
1.1669,1783440920.5056,1,1,1.0000,0.0000,1.40699,0.14554,-2.66945,1.00128,1.56125,0.13030,-0.12736,-0.45924,0.07215,,,,,,,,,,,,,,,,,,,,,,,,,,0,0,0,0,0
1.1779,1783440920.5167,1,1,1.0000,0.0000,1.40699,0.14554,-2.66945,1.00128,1.56125,0.13030,-0.12736,-0.45924,0.07215,,,,,,,,,,,,,,,,,,,,,,,,,,0,0,0,0,0
1.1847,1783440920.5235,1,1,1.0000,0.0000,1.40699,0.14554,-2.66945,1.00128,1.56125,0.13030,-0.12736,-0.45924,0.07215,,,,,,,,,,,,,,,,,,,,,,,,,,0,0,0,0,0
1.1852,1783440920.5240,1,1,1.0000,0.0000,1.40699,0.14554,-2.66945,1.00128,1.56125,0.13030,-0.12736,-0.45924,0.07215,,,,,,,,,,,,,,,,,,,,,,,,,,0,0,0,0,0
1.1977,1783440920.5365,1,1,1.0000,0.0000,1.40699,0.14554,-2.66945,1.00128,1.56125,0.13030,-0.12736,-0.45924,0.07215,,,,,,,,,,,,,,,,,,,,,,,,,,0,0,0,0,0
1.2073,1783440920.5461,1,1,1.0000,0.0000,1.40699,0.14554,-2.66945,1.00128,1.56125,0.13030,-0.12736,-0.45924,0.07215,,,,,,,,,,,,,,,,,,,,,,,,,,0,0,0,0,0
1.2191,1783440920.5579,1,1,1.0000,0.0000,1.40699,0.14554,-2.66945,1.00128,1.56125,0.13030,-0.12736,-0.45924,0.07215,,,,,,,,,,,,,,,,,,,,,,,,,,0,0,0,0,0
1.2195,1783440920.5583,1,1,1.0000,0.0000,1.40699,0.14554,-2.66945,1.00128,1.56125,0.13030,-0.12736,-0.45924,0.07215,,,,,,,,,,,,,,,,,,,,,,,,,,0,0,0,0,0
1.2419,1783440920.5807,1,1,1.0000,0.0000,1.40699,0.14554,-2.66945,1.00128,1.56125,0.13030,-0.12736,-0.45924,0.07215,,,,,,,,,,,,,,,,,,,,,,,,,,0,0,0,0,0
1.2423,1783440920.5811,1,1,1.0000,0.0000,1.40699,0.14554,-2.66945,1.00128,1.56125,0.13030,-0.12736,-0.45924,0.07215,,,,,,,,,,,,,,,,,,,,,,,,,,0,0,0,0,0
1.2554,1783440920.5942,1,1,1.0000,0.0000,1.40699,0.14554,-2.66945,1.00128,1.56125,0.13030,-0.12736,-0.45924,0.07215,,,,,,,,,,,,,,,,,,,,,,,,,,0,0,0,0,0
1.2601,1783440920.5988,1,1,1.0000,0.0000,1.40699,0.14554,-2.66945,1.00128,1.56125,0.13030,-0.12736,-0.45924,0.07215,,,,,,,,,,,,,,,,,,,,,,,,,,0,0,0,0,0
1.2605,1783440920.5993,1,1,1.0000,0.0000,1.40699,0.14554,-2.66945,1.00128,1.56125,0.13030,-0.12736,-0.45924,0.07215,,,,,,,,,,,,,,,,,,,,,,,,,,0,0,0,0,0
1.2814,1783440920.6202,1,1,1.0000,0.0000,1.40699,0.14554,-2.66945,1.00128,1.56125,0.13030,-0.12736,-0.45924,0.07215,,,,,,,,,,,,,,,,,,,,,,,,,,0,0,0,0,0
1.2818,1783440920.6206,1,1,1.0000,0.0000,1.40699,0.14554,-2.66945,1.00128,1.56125,0.13030,-0.12736,-0.45924,0.07215,,,,,,,,,,,,,,,,,,,,,,,,,,0,0,0,0,0
1.2856,1783440920.6244,1,1,1.0000,0.0000,1.40699,0.14554,-2.66945,1.00128,1.56125,0.13030,-0.12736,-0.45924,0.07215,,,,,,,,,,,,,,,,,,,,,,,,,,0,0,0,0,0
1.2951,1783440920.6339,1,1,1.0000,0.0000,1.40699,0.14554,-2.66945,1.00128,1.56125,0.13030,-0.12736,-0.45924,0.07215,,,,,,,,,,,,,,,,,,,,,,,,,,0,0,0,0,0
1.3068,1783440920.6456,1,1,1.0000,0.0000,1.40699,0.14554,-2.66945,1.00128,1.56125,0.13030,-0.12736,-0.45924,0.07215,,,,,,,,,,,,,,,,,,,,,,,,,,0,0,0,0,0
1.3148,1783440920.6536,1,1,1.0000,0.0000,1.40699,0.14554,-2.66945,1.00128,1.56125,0.13030,-0.12736,-0.45924,0.07215,,,,,,,,,,,,,,,,,,,,,,,,,,0,0,0,0,0
1.3152,1783440920.6540,1,1,1.0000,0.0000,1.40699,0.14554,-2.66945,1.00128,1.56125,0.13030,-0.12736,-0.45924,0.07215,,,,,,,,,,,,,,,,,,,,,,,,,,0,0,0,0,0
1.3357,1783440920.6745,1,1,1.0000,0.0000,1.40699,0.14554,-2.66945,1.00128,1.56125,0.13030,-0.12736,-0.45924,0.07215,,,,,,,,,,,,,,,,,,,,,,,,,,0,0,0,0,0
1.3373,1783440920.6761,1,1,1.0000,0.0000,1.40699,0.14554,-2.66945,1.00128,1.56125,0.13030,-0.12736,-0.45924,0.07215,,,,,,,,,,,,,,,,,,,,,,,,,,0,0,0,0,0
1.3450,1783440920.6838,1,1,1.0000,0.0000,1.40699,0.14554,-2.66945,1.00128,1.56125,0.13030,-0.12736,-0.45924,0.07215,,,,,,,,,,,,,,,,,,,,,,,,,,0,0,0,0,0
1.3550,1783440920.6938,1,1,1.0000,0.0000,1.40699,0.14554,-2.66945,1.00128,1.56125,0.13030,-0.12736,-0.45924,0.07215,,,,,,,,,,,,,,,,,,,,,,,,,,0,0,0,0,0
1.3555,1783440920.6943,1,1,1.0000,0.0000,1.40699,0.14554,-2.66945,1.00128,1.56125,0.13030,-0.12736,-0.45924,0.07215,,,,,,,,,,,,,,,,,,,,,,,,,,0,0,0,0,0
1.3670,1783440920.7058,1,1,1.0000,0.0000,1.40699,0.14554,-2.66945,1.00128,1.56125,0.13030,-0.12736,-0.45924,0.07215,,,,,,,,,,,,,,,,,,,,,,,,,,0,0,0,0,0
1.3788,1783440920.7176,1,1,1.0000,0.0000,1.40699,0.14554,-2.66945,1.00128,1.56125,0.13030,-0.12736,-0.45924,0.07215,,,,,,,,,,,,,,,,,,,,,,,,,,0,0,0,0,0
1.3874,1783440920.7262,1,1,1.0000,0.0000,1.40699,0.14554,-2.66945,1.00128,1.56125,0.13030,-0.12736,-0.45924,0.07215,,,,,,,,,,,,,,,,,,,,,,,,,,0,0,0,0,0
1.3966,1783440920.7353,1,1,1.0000,0.0000,1.40699,0.14554,-2.66945,1.00128,1.56125,0.13030,-0.12736,-0.45924,0.07215,,,,,,,,,,,,,,,,,,,,,,,,,,0,0,0,0,0
1.4050,1783440920.7438,1,1,1.0000,0.0000,1.40699,0.14554,-2.66945,1.00128,1.56125,0.13030,-0.12736,-0.45924,0.07215,,,,,,,,,,,,,,,,,,,,,,,,,,0,0,0,0,0
1.4055,1783440920.7443,1,1,1.0000,0.0000,1.40699,0.14554,-2.66945,1.00128,1.56125,0.13030,-0.12736,-0.45924,0.07215,,,,,,,,,,,,,,,,,,,,,,,,,,0,0,0,0,0
1.4151,1783440920.7539,1,1,1.0000,0.0000,1.40699,0.14554,-2.66945,1.00128,1.56125,0.13030,-0.12736,-0.45924,0.07215,,,,,,,,,,,,,,,,,,,,,,,,,,0,0,0,0,0
1.4155,1783440920.7543,1,1,1.0000,0.0000,1.40699,0.14554,-2.66945,1.00128,1.56125,0.13030,-0.12736,-0.45924,0.07215,,,,,,,,,,,,,,,,,,,,,,,,,,0,0,0,0,0
1.4319,1783440920.7707,1,1,1.0000,0.0000,1.40699,0.14554,-2.66945,1.00128,1.56125,0.13030,-0.12736,-0.45924,0.07215,,,,,,,,,,,,,,,,,,,,,,,,,,0,0,0,0,0
1.4388,1783440920.7776,1,1,1.0000,0.0000,1.40701,0.14553,-2.66945,1.00128,1.56125,0.13030,-0.12736,-0.45924,0.07215,,,,,,,,,,,,,,,,,,,,,,,,,,0,0,0,0,0
1.4391,1783440920.7779,1,1,1.0000,0.0000,1.40701,0.14553,-2.66945,1.00128,1.56125,0.13030,-0.12736,-0.45924,0.07215,,,,,,,,,,,,,,,,,,,,,,,,,,0,0,0,0,0
1.4469,1783440920.7857,1,1,1.0000,0.0000,1.40704,0.14552,-2.66944,1.00128,1.56125,0.13029,-0.12738,-0.45924,0.07215,,,,,,,,,,,,,,,,,,,,,,,,,,0,0,0,0,0
1.4472,1783440920.7860,1,1,1.0000,0.0000,1.40704,0.14552,-2.66944,1.00128,1.56125,0.13029,-0.12738,-0.45924,0.07215,,,,,,,,,,,,,,,,,,,,,,,,,,0,0,0,0,0
1.4553,1783440920.7941,1,1,1.0000,0.0000,1.40709,0.14551,-2.66943,1.00128,1.56124,0.13027,-0.12740,-0.45924,0.07215,,,,,,,,,,,,,,,,,,,,,,,,,,0,0,0,0,0
1.4557,1783440920.7945,1,1,1.0000,0.0000,1.40709,0.14551,-2.66943,1.00128,1.56124,0.13027,-0.12740,-0.45924,0.07215,,,,,,,,,,,,,,,,,,,,,,,,,,0,0,0,0,0
1.4652,1783440920.8040,1,1,1.0000,0.0000,1.40711,0.14551,-2.66942,1.00128,1.56124,0.13026,-0.12741,-0.45924,0.07215,,,,,,,,,,,,,,,,,,,,,,,,,,0,0,0,0,0
1.4789,1783440920.8177,1,1,1.0000,0.0000,1.40721,0.14548,-2.66940,1.00128,1.56124,0.13019,-0.12745,-0.45924,0.07215,,,,,,,,,,,,,,,,,,,,,,,,,,0,0,0,0,0
1.4873,1783440920.8261,1,1,1.0000,0.0000,1.40726,0.14547,-2.66939,1.00128,1.56124,0.13014,-0.12747,-0.45924,0.07215,,,,,,,,,,,,,,,,,,,,,,,,,,0,0,0,0,0
1.4968,1783440920.8356,1,1,1.0000,0.0000,1.40739,0.14543,-2.66937,1.00128,1.56123,0.13003,-0.12752,-0.45924,0.07215,,,,,,,,,,,,,,,,,,,,,,,,,,0,0,0,0,0
1.5051,1783440920.8439,1,1,1.0000,0.0000,1.40746,0.14541,-2.66936,1.00128,1.56123,0.12997,-0.12755,-0.45924,0.07215,,,,,,,,,,,,,,,,,,,,,,,,,,0,0,0,0,0
1.5164,1783440920.8552,1,1,1.0000,0.0000,1.40779,0.14533,-2.66930,1.00130,1.56124,0.12966,-0.12768,-0.45923,0.07214,,,,,,,,,,,,,,,,,,,,,,,,,,0,0,0,0,0
1.5249,1783440920.8637,1,1,1.0000,0.0000,1.40782,0.14532,-2.66929,1.00130,1.56124,0.12962,-0.12769,-0.45923,0.07214,,,,,,,,,,,,,,,,,,,,,,,,,,0,0,0,0,0
1.5511,1783440920.8899,1,1,1.0000,0.0000,1.40911,0.14497,-2.66906,1.00137,1.56127,0.12837,-0.12818,-0.45920,0.07212,,,,,,,,,,,,,,,,,,,,,,,,,,0,0,0,0,0
1.5515,1783440920.8903,1,1,1.0000,0.0000,1.40911,0.14497,-2.66906,1.00137,1.56127,0.12837,-0.12818,-0.45920,0.07212,,,,,,,,,,,,,,,,,,,,,,,,,,0,0,0,0,0
1.5552,1783440920.8940,1,1,1.0000,0.0000,1.40915,0.14496,-2.66905,1.00137,1.56127,0.12833,-0.12819,-0.45920,0.07212,,,,,,,,,,,,,,,,,,,,,,,,,,0,0,0,0,0
1.5556,1783440920.8944,1,1,1.0000,0.0000,1.40915,0.14496,-2.66905,1.00137,1.56127,0.12833,-0.12819,-0.45920,0.07212,,,,,,,,,,,,,,,,,,,,,,,,,,0,0,0,0,0
1.5658,1783440920.9046,1,1,1.0000,0.0000,1.40948,0.14487,-2.66899,1.00140,1.56128,0.12801,-0.12832,-0.45920,0.07212,,,,,,,,,,,,,,,,,,,,,,,,,,0,0,0,0,0
1.5770,1783440920.9158,1,1,1.0000,0.0000,1.41043,0.14461,-2.66882,1.00146,1.56131,0.12706,-0.12868,-0.45918,0.07211,,,,,,,,,,,,,,,,,,,,,,,,,,0,0,0,0,0
1.5850,1783440920.9238,1,1,1.0000,0.0000,1.41126,0.14438,-2.66866,1.00152,1.56134,0.12623,-0.12899,-0.45917,0.07210,,,,,,,,,,,,,,,,,,,,,,,,,,0,0,0,0,0
1.5855,1783440920.9243,1,1,1.0000,0.0000,1.41126,0.14438,-2.66866,1.00152,1.56134,0.12623,-0.12899,-0.45917,0.07210,,,,,,,,,,,,,,,,,,,,,,,,,,0,0,0,0,0
1.5950,1783440920.9337,1,1,1.0000,0.0000,1.41146,0.14433,-2.66863,1.00153,1.56135,0.12604,-0.12907,-0.45917,0.07210,,,,,,,,,,,,,,,,,,,,,,,,,,0,0,0,0,0
1.5954,1783440920.9342,1,1,1.0000,0.0000,1.41146,0.14433,-2.66863,1.00153,1.56135,0.12604,-0.12907,-0.45917,0.07210,,,,,,,,,,,,,,,,,,,,,,,,,,0,0,0,0,0
1.6071,1783440920.9458,1,1,1.0000,0.0000,1.41235,0.14409,-2.66846,1.00160,1.56138,0.12515,-0.12940,-0.45916,0.07210,,,,,,,,,,,,,,,,,,,,,,,,,,0,0,0,0,0
1.6076,1783440920.9464,1,1,1.0000,0.0000,1.41235,0.14409,-2.66846,1.00160,1.56138,0.12515,-0.12940,-0.45916,0.07210,,,,,,,,,,,,,,,,,,,,,,,,,,0,0,0,0,0
1.6191,1783440920.9579,1,1,1.0000,0.0000,1.41261,0.14402,-2.66841,1.00162,1.56139,0.12489,-0.12950,-0.45915,0.07210,,,,,,,,,,,,,,,,,,,,,,,,,,0,0,0,0,0
1.6259,1783440920.9647,1,1,1.0000,0.0000,1.41290,0.14394,-2.66835,1.00164,1.56140,0.12459,-0.12961,-0.45915,0.07209,,,,,,,,,,,,,,,,,,,,,,,,,,0,0,0,0,0
1.6379,1783440920.9767,1,1,1.0000,0.0000,1.41426,0.14357,-2.66809,1.00175,1.56146,0.12323,-0.13012,-0.45914,0.07209,,,,,,,,,,,,,,,,,,,,,,,,,,0,0,0,0,0
1.6527,1783440920.9914,1,1,1.0000,0.0000,1.41503,0.14335,-2.66794,1.00181,1.56149,0.12246,-0.13040,-0.45913,0.07208,,,,,,,,,,,,,,,,,,,,,,,,,,0,0,0,0,0
1.6627,1783440921.0015,1,1,1.0000,0.0000,1.41598,0.14310,-2.66776,1.00188,1.56154,0.12151,-0.13076,-0.45912,0.07208,,,,,,,,,,,,,,,,,,,,,,,,,,0,0,0,0,0
1.6674,1783440921.0062,1,1,1.0000,0.0000,1.41640,0.14298,-2.66768,1.00191,1.56155,0.12108,-0.13092,-0.45912,0.07208,,,,,,,,,,,,,,,,,,,,,,,,,,0,0,0,0,0
1.6680,1783440921.0068,1,1,1.0000,0.0000,1.41640,0.14298,-2.66768,1.00191,1.56155,0.12108,-0.13092,-0.45912,0.07208,,,,,,,,,,,,,,,,,,,,,,,,,,0,0,0,0,0
1.6750,1783440921.0138,1,1,1.0000,0.0000,1.41686,0.14285,-2.66759,1.00195,1.56157,0.12063,-0.13109,-0.45912,0.07208,,,,,,,,,,,,,,,,,,,,,,,,,,0,0,0,0,0
1.6910,1783440921.0297,1,1,1.0000,0.0000,1.41744,0.14269,-2.66747,1.00200,1.56160,0.12005,-0.13130,-0.45911,0.07208,,,,,,,,,,,,,,,,,,,,,,,,,,0,0,0,0,0
1.6953,1783440921.0340,1,1,1.0000,0.0000,1.41772,0.14262,-2.66742,1.00202,1.56161,0.11977,-0.13141,-0.45911,0.07208,,,,,,,,,,,,,,,,,,,,,,,,,,0,0,0,0,0
1.6957,1783440921.0344,1,1,1.0000,0.0000,1.41772,0.14262,-2.66742,1.00202,1.56161,0.11977,-0.13141,-0.45911,0.07208,,,,,,,,,,,,,,,,,,,,,,,,,,0,0,0,0,0
1.7070,1783440921.0458,1,1,1.0000,0.0000,1.41785,0.14258,-2.66739,1.00203,1.56162,0.11963,-0.13146,-0.45911,0.07208,,,,,,,,,,,,,,,,,,,,,,,,,,0,0,0,0,0
1.7469,1783440921.0857,1,1,1.0000,0.0000,1.41924,0.14220,-2.66713,1.00216,1.56169,0.11822,-0.13197,-0.45909,0.07207,,,,,,,,,,,,,,,,,,,,,,,,,,0,0,0,0,0
1.7474,1783440921.0861,1,1,1.0000,0.0000,1.41924,0.14220,-2.66713,1.00216,1.56169,0.11822,-0.13197,-0.45909,0.07207,,,,,,,,,,,,,,,,,,,,,,,,,,0,0,0,0,0
1.7478,1783440921.0866,1,1,1.0000,0.0000,1.41924,0.14220,-2.66713,1.00216,1.56169,0.11822,-0.13197,-0.45909,0.07207,,,,,,,,,,,,,,,,,,,,,,,,,,0,0,0,0,0
1.7552,1783440921.0940,1,1,1.0000,0.0000,1.41952,0.14212,-2.66709,1.00218,1.56171,0.11794,-0.13208,-0.45908,0.07206,,,,,,,,,,,,,,,,,,,,,,,,,,0,0,0,0,0
1.8191,1783440921.1578,1,1,1.0000,0.0000,1.42054,0.14184,-2.66699,1.00229,1.56176,0.11689,-0.13246,-0.45901,0.07201,,,,,,,,,,,,,,,,,,,,,,,,,,0,0,0,0,0
1.8194,1783440921.1582,1,1,1.0000,0.0000,1.42054,0.14184,-2.66699,1.00229,1.56176,0.11689,-0.13246,-0.45901,0.07201,,,,,,,,,,,,,,,,,,,,,,,,,,0,0,0,0,0
1.8199,1783440921.1586,1,1,1.0000,0.0000,1.42054,0.14184,-2.66699,1.00229,1.56176,0.11689,-0.13246,-0.45901,0.07201,,,,,,,,,,,,,,,,,,,,,,,,,,0,0,0,0,0
1.8254,1783440921.1642,1,1,1.0000,0.0000,1.42054,0.14184,-2.66699,1.00229,1.56176,0.11689,-0.13246,-0.45901,0.07201,,,,,,,,,,,,,,,,,,,,,,,,,,0,0,0,0,0
1.8259,1783440921.1647,1,1,1.0000,0.0000,1.42054,0.14184,-2.66699,1.00229,1.56176,0.11689,-0.13246,-0.45901,0.07201,,,,,,,,,,,,,,,,,,,,,,,,,,0,0,0,0,0
1.8373,1783440921.1761,1,1,1.0000,0.0000,1.42054,0.14184,-2.66699,1.00229,1.56176,0.11689,-0.13246,-0.45901,0.07201,,,,,,,,,,,,,,,,,,,,,,,,,,0,0,0,0,0
1.8459,1783440921.1847,1,1,1.0000,0.0000,1.42054,0.14184,-2.66699,1.00229,1.56176,0.11689,-0.13246,-0.45901,0.07201,,,,,,,,,,,,,,,,,,,,,,,,,,0,0,0,0,0
1.9003,1783440921.2390,1,1,1.0000,0.0000,1.42054,0.14184,-2.66699,1.00229,1.56176,0.11689,-0.13246,-0.45901,0.07201,,,,,,,,,,,,,,,,,,,,,,,,,,0,0,0,0,0
1.9007,1783440921.2395,1,1,1.0000,0.0000,1.42054,0.14184,-2.66699,1.00229,1.56176,0.11689,-0.13246,-0.45901,0.07201,,,,,,,,,,,,,,,,,,,,,,,,,,0,0,0,0,0
1.9012,1783440921.2400,1,1,1.0000,0.0000,1.42054,0.14184,-2.66699,1.00229,1.56176,0.11689,-0.13246,-0.45901,0.07201,,,,,,,,,,,,,,,,,,,,,,,,,,0,0,0,0,0
1.9016,1783440921.2404,1,1,1.0000,0.0000,1.42054,0.14184,-2.66699,1.00229,1.56176,0.11689,-0.13246,-0.45901,0.07201,,,,,,,,,,,,,,,,,,,,,,,,,,0,0,0,0,0
1.9189,1783440921.2577,1,1,1.0000,0.0000,1.42054,0.14184,-2.66699,1.00229,1.56176,0.11689,-0.13246,-0.45901,0.07201,,,,,,,,,,,,,,,,,,,,,,,,,,0,0,0,0,0
1.9191,1783440921.2578,1,1,1.0000,0.0000,1.42054,0.14184,-2.66699,1.00229,1.56176,0.11689,-0.13246,-0.45901,0.07201,,,,,,,,,,,,,,,,,,,,,,,,,,0,0,0,0,0
1.9309,1783440921.2697,1,1,1.0000,0.0000,1.42054,0.14184,-2.66699,1.00229,1.56176,0.11689,-0.13246,-0.45901,0.07201,,,,,,,,,,,,,,,,,,,,,,,,,,0,0,0,0,0
1.9471,1783440921.2859,1,1,1.0000,0.0000,1.42054,0.14184,-2.66699,1.00229,1.56176,0.11689,-0.13246,-0.45901,0.07201,,,,,,,,,,,,,,,,,,,,,,,,,,0,0,0,0,0
1.9512,1783440921.2900,1,1,1.0000,0.0000,1.42054,0.14184,-2.66699,1.00229,1.56176,0.11689,-0.13246,-0.45901,0.07201,,,,,,,,,,,,,,,,,,,,,,,,,,0,0,0,0,0
1.9518,1783440921.2906,1,1,1.0000,0.0000,1.42054,0.14184,-2.66699,1.00229,1.56176,0.11689,-0.13246,-0.45901,0.07201,,,,,,,,,,,,,,,,,,,,,,,,,,0,0,0,0,0
1.9566,1783440921.2954,1,1,1.0000,0.0000,1.42054,0.14184,-2.66699,1.00229,1.56176,0.11689,-0.13246,-0.45901,0.07201,,,,,,,,,,,,,,,,,,,,,,,,,,0,0,0,0,0
1.9571,1783440921.2959,1,1,1.0000,0.0000,1.42054,0.14184,-2.66699,1.00229,1.56176,0.11689,-0.13246,-0.45901,0.07201,,,,,,,,,,,,,,,,,,,,,,,,,,0,0,0,0,0
1.9664,1783440921.3052,1,1,1.0000,0.0000,1.42054,0.14184,-2.66699,1.00229,1.56176,0.11689,-0.13246,-0.45901,0.07201,,,,,,,,,,,,,,,,,,,,,,,,,,0,0,0,0,0
1.9775,1783440921.3163,1,1,1.0000,0.0000,1.42054,0.14184,-2.66699,1.00229,1.56176,0.11689,-0.13246,-0.45901,0.07201,,,,,,,,,,,,,,,,,,,,,,,,,,0,0,0,0,0
1.9892,1783440921.3280,1,1,1.0000,0.0000,1.42054,0.14184,-2.66699,1.00229,1.56176,0.11689,-0.13246,-0.45901,0.07201,,,,,,,,,,,,,,,,,,,,,,,,,,0,0,0,0,0
1.9998,1783440921.3386,1,1,1.0000,0.0000,1.42054,0.14184,-2.66699,1.00229,1.56176,0.11689,-0.13246,-0.45901,0.07201,,,,,,,,,,,,,,,,,,,,,,,,,,0,0,0,0,0
2.0124,1783440921.3512,1,1,1.0000,0.0000,1.42054,0.14184,-2.66699,1.00229,1.56176,0.11689,-0.13246,-0.45901,0.07201,,,,,,,,,,,,,,,,,,,,,,,,,,0,0,0,0,0
2.0181,1783440921.3569,1,1,1.0000,0.0000,1.42054,0.14184,-2.66699,1.00229,1.56176,0.11689,-0.13246,-0.45901,0.07201,,,,,,,,,,,,,,,,,,,,,,,,,,0,0,0,0,0
2.0186,1783440921.3574,1,1,1.0000,0.0000,1.42054,0.14184,-2.66699,1.00229,1.56176,0.11689,-0.13246,-0.45901,0.07201,,,,,,,,,,,,,,,,,,,,,,,,,,0,0,0,0,0
2.0270,1783440921.3658,1,1,1.0000,0.0000,1.42054,0.14184,-2.66699,1.00229,1.56176,0.11689,-0.13246,-0.45901,0.07201,,,,,,,,,,,,,,,,,,,,,,,,,,0,0,0,0,0
2.0383,1783440921.3771,1,1,1.0000,0.0000,1.42054,0.14184,-2.66699,1.00229,1.56176,0.11689,-0.13246,-0.45901,0.07201,,,,,,,,,,,,,,,,,,,,,,,,,,0,0,0,0,0
2.0475,1783440921.3863,1,1,1.0000,0.0000,1.42054,0.14184,-2.66699,1.00229,1.56176,0.11689,-0.13246,-0.45901,0.07201,,,,,,,,,,,,,,,,,,,,,,,,,,0,0,0,0,0
2.0482,1783440921.3870,1,1,1.0000,0.0000,1.42054,0.14184,-2.66699,1.00229,1.56176,0.11689,-0.13246,-0.45901,0.07201,,,,,,,,,,,,,,,,,,,,,,,,,,0,0,0,0,0
2.0726,1783440921.4114,1,1,1.0000,0.0000,1.42054,0.14184,-2.66699,1.00229,1.56176,0.11689,-0.13246,-0.45901,0.07201,,,,,,,,,,,,,,,,,,,,,,,,,,0,0,0,0,0
2.0729,1783440921.4117,1,1,1.0000,0.0000,1.42054,0.14184,-2.66699,1.00229,1.56176,0.11689,-0.13246,-0.45901,0.07201,,,,,,,,,,,,,,,,,,,,,,,,,,0,0,0,0,0
2.0757,1783440921.4145,1,1,1.0000,0.0000,1.42054,0.14184,-2.66699,1.00229,1.56176,0.11689,-0.13246,-0.45901,0.07201,,,,,,,,,,,,,,,,,,,,,,,,,,0,0,0,0,0
2.0958,1783440921.4346,1,1,1.0000,0.0000,1.42054,0.14184,-2.66699,1.00229,1.56176,0.11689,-0.13246,-0.45901,0.07201,,,,,,,,,,,,,,,,,,,,,,,,,,0,0,0,0,0
2.0962,1783440921.4350,1,1,1.0000,0.0000,1.42054,0.14184,-2.66699,1.00229,1.56176,0.11689,-0.13246,-0.45901,0.07201,,,,,,,,,,,,,,,,,,,,,,,,,,0,0,0,0,0
2.0982,1783440921.4370,1,1,1.0000,0.0000,1.42054,0.14184,-2.66699,1.00229,1.56176,0.11689,-0.13246,-0.45901,0.07201,,,,,,,,,,,,,,,,,,,,,,,,,,0,0,0,0,0
2.1119,1783440921.4507,1,1,1.0000,0.0000,1.42054,0.14184,-2.66699,1.00229,1.56176,0.11689,-0.13246,-0.45901,0.07201,,,,,,,,,,,,,,,,,,,,,,,,,,0,0,0,0,0
2.1218,1783440921.4606,1,1,1.0000,0.0000,1.42054,0.14184,-2.66699,1.00229,1.56176,0.11689,-0.13246,-0.45901,0.07201,,,,,,,,,,,,,,,,,,,,,,,,,,0,0,0,0,0
2.1312,1783440921.4700,1,1,1.0000,0.0000,1.42054,0.14184,-2.66699,1.00229,1.56176,0.11689,-0.13246,-0.45901,0.07201,,,,,,,,,,,,,,,,,,,,,,,,,,0,0,0,0,0
2.1318,1783440921.4706,1,1,1.0000,0.0000,1.42054,0.14184,-2.66699,1.00229,1.56176,0.11689,-0.13246,-0.45901,0.07201,,,,,,,,,,,,,,,,,,,,,,,,,,0,0,0,0,0
2.1415,1783440921.4803,1,1,1.0000,0.0000,1.42054,0.14184,-2.66699,1.00229,1.56176,0.11689,-0.13246,-0.45901,0.07201,,,,,,,,,,,,,,,,,,,,,,,,,,0,0,0,0,0
2.3010,1783440921.6398,1,1,1.0000,0.0000,1.42026,0.14323,-2.66798,1.00205,1.56179,0.11702,-0.13242,-0.45845,0.07206,,,,,,,,,,,,,,,,,,,,,,,,,,0,0,0,0,0
2.3014,1783440921.6402,1,1,1.0000,0.0000,1.42026,0.14323,-2.66798,1.00205,1.56179,0.11702,-0.13242,-0.45845,0.07206,,,,,,,,,,,,,,,,,,,,,,,,,,0,0,0,0,0
2.3019,1783440921.6407,1,1,1.0000,0.0000,1.42026,0.14323,-2.66798,1.00205,1.56179,0.11702,-0.13242,-0.45845,0.07206,,,,,,,,,,,,,,,,,,,,,,,,,,0,0,0,0,0
2.3024,1783440921.6411,1,1,1.0000,0.0000,1.42026,0.14323,-2.66798,1.00205,1.56179,0.11702,-0.13242,-0.45845,0.07206,,,,,,,,,,,,,,,,,,,,,,,,,,0,0,0,0,0
2.3033,1783440921.6421,1,1,1.0000,0.0000,1.42025,0.14327,-2.66801,1.00204,1.56179,0.11703,-0.13242,-0.45843,0.07206,,,,,,,,,,,,,,,,,,,,,,,,,,0,0,0,0,0
2.3036,1783440921.6424,1,1,1.0000,0.0000,1.42025,0.14327,-2.66801,1.00204,1.56179,0.11703,-0.13242,-0.45843,0.07206,,,,,,,,,,,,,,,,,,,,,,,,,,0,0,0,0,0
2.3041,1783440921.6428,1,1,1.0000,0.0000,1.42025,0.14327,-2.66801,1.00204,1.56179,0.11703,-0.13242,-0.45843,0.07206,,,,,,,,,,,,,,,,,,,,,,,,,,0,0,0,0,0
2.3045,1783440921.6433,1,1,1.0000,0.0000,1.42025,0.14327,-2.66801,1.00204,1.56179,0.11703,-0.13242,-0.45843,0.07206,,,,,,,,,,,,,,,,,,,,,,,,,,0,0,0,0,0
2.3050,1783440921.6437,1,1,1.0000,0.0000,1.42025,0.14327,-2.66801,1.00204,1.56179,0.11703,-0.13242,-0.45843,0.07206,,,,,,,,,,,,,,,,,,,,,,,,,,0,0,0,0,0
2.3054,1783440921.6442,1,1,1.0000,0.0000,1.42025,0.14327,-2.66801,1.00204,1.56179,0.11703,-0.13242,-0.45843,0.07206,,,,,,,,,,,,,,,,,,,,,,,,,,0,0,0,0,0
2.3059,1783440921.6447,1,1,1.0000,0.0000,1.42025,0.14327,-2.66801,1.00204,1.56179,0.11703,-0.13242,-0.45843,0.07206,,,,,,,,,,,,,,,,,,,,,,,,,,0,0,0,0,0
2.3072,1783440921.6460,1,1,1.0000,0.0000,1.42023,0.14339,-2.66809,1.00201,1.56179,0.11705,-0.13242,-0.45838,0.07206,,,,,,,,,,,,,,,,,,,,,,,,,,0,0,0,0,0
2.3077,1783440921.6465,1,1,1.0000,0.0000,1.42023,0.14339,-2.66809,1.00201,1.56179,0.11705,-0.13242,-0.45838,0.07206,,,,,,,,,,,,,,,,,,,,,,,,,,0,0,0,0,0
2.3193,1783440921.6581,1,1,1.0000,0.0000,1.42009,0.14412,-2.66862,1.00183,1.56179,0.11717,-0.13242,-0.45806,0.07207,,,,,,,,,,,,,,,,,,,,,,,,,,0,0,0,0,0
2.3197,1783440921.6585,1,1,1.0000,0.0000,1.42009,0.14412,-2.66862,1.00183,1.56179,0.11717,-0.13242,-0.45806,0.07207,,,,,,,,,,,,,,,,,,,,,,,,,,0,0,0,0,0
2.3305,1783440921.6693,1,1,1.0000,0.0000,1.41995,0.14481,-2.66912,1.00166,1.56179,0.11729,-0.13241,-0.45776,0.07207,,,,,,,,,,,,,,,,,,,,,,,,,,0,0,0,0,0
2.3384,1783440921.6772,1,1,1.0000,0.0000,1.41995,0.14486,-2.66915,1.00165,1.56179,0.11730,-0.13241,-0.45774,0.07207,,,,,,,,,,,,,,,,,,,,,,,,,,0,0,0,0,0
2.3452,1783440921.6840,1,1,1.0000,0.0000,1.41988,0.14519,-2.66939,1.00157,1.56179,0.11736,-0.13241,-0.45759,0.07208,,,,,,,,,,,,,,,,,,,,,,,,,,0,0,0,0,0
2.3591,1783440921.6979,1,1,1.0000,0.0000,1.41962,0.14655,-2.67037,1.00122,1.56179,0.11761,-0.13240,-0.45700,0.07209,,,,,,,,,,,,,,,,,,,,,,,,,,0,0,0,0,0
2.3720,1783440921.7107,1,1,1.0000,0.0000,1.41958,0.14675,-2.67051,1.00116,1.56179,0.11765,-0.13240,-0.45692,0.07209,,,,,,,,,,,,,,,,,,,,,,,,,,0,0,0,0,0
2.3817,1783440921.7205,1,1,1.0000,0.0000,1.41948,0.14727,-2.67089,1.00103,1.56179,0.11775,-0.13239,-0.45669,0.07209,,,,,,,,,,,,,,,,,,,,,,,,,,0,0,0,0,0
2.3865,1783440921.7252,1,1,1.0000,0.0000,1.41942,0.14762,-2.67114,1.00093,1.56179,0.11781,-0.13239,-0.45654,0.07209,,,,,,,,,,,,,,,,,,,,,,,,,,0,0,0,0,0
2.3874,1783440921.7262,1,1,1.0000,0.0000,1.41934,0.14802,-2.67143,1.00082,1.56179,0.11789,-0.13239,-0.45636,0.07209,,,,,,,,,,,,,,,,,,,,,,,,,,0,0,0,0,0
2.3876,1783440921.7264,1,1,1.0000,0.0000,1.41934,0.14802,-2.67143,1.00082,1.56179,0.11789,-0.13239,-0.45636,0.07209,,,,,,,,,,,,,,,,,,,,,,,,,,0,0,0,0,0
2.3992,1783440921.7379,1,1,1.0000,0.0000,1.41930,0.14821,-2.67157,1.00077,1.56179,0.11793,-0.13239,-0.45627,0.07209,,,,,,,,,,,,,,,,,,,,,,,,,,0,0,0,0,0
2.4123,1783440921.7511,1,1,1.0000,0.0000,1.41914,0.14907,-2.67220,1.00054,1.56179,0.11809,-0.13238,-0.45590,0.07210,,,,,,,,,,,,,,,,,,,,,,,,,,0,0,0,0,0
2.4128,1783440921.7515,1,1,1.0000,0.0000,1.41914,0.14907,-2.67220,1.00054,1.56179,0.11809,-0.13238,-0.45590,0.07210,,,,,,,,,,,,,,,,,,,,,,,,,,0,0,0,0,0
2.4183,1783440921.7571,1,1,1.0000,0.0000,1.41906,0.14946,-2.67247,1.00043,1.56179,0.11816,-0.13238,-0.45573,0.07210,,,,,,,,,,,,,,,,,,,,,,,,,,0,0,0,0,0
2.4192,1783440921.7580,1,1,1.0000,0.0000,1.41898,0.14987,-2.67277,1.00032,1.56179,0.11824,-0.13238,-0.45555,0.07210,,,,,,,,,,,,,,,,,,,,,,,,,,0,0,0,0,0
2.4325,1783440921.7713,1,1,1.0000,0.0000,1.41896,0.15000,-2.67287,1.00028,1.56179,0.11827,-0.13238,-0.45549,0.07210,,,,,,,,,,,,,,,,,,,,,,,,,,0,0,0,0,0
2.4330,1783440921.7717,1,1,1.0000,0.0000,1.41896,0.15000,-2.67287,1.00028,1.56179,0.11827,-0.13238,-0.45549,0.07210,,,,,,,,,,,,,,,,,,,,,,,,,,0,0,0,0,0
2.4361,1783440921.7749,1,1,1.0000,0.0000,1.41893,0.15016,-2.67298,1.00024,1.56179,0.11830,-0.13238,-0.45542,0.07210,,,,,,,,,,,,,,,,,,,,,,,,,,0,0,0,0,0
2.4365,1783440921.7753,1,1,1.0000,0.0000,1.41893,0.15016,-2.67298,1.00024,1.56179,0.11830,-0.13238,-0.45542,0.07210,,,,,,,,,,,,,,,,,,,,,,,,,,0,0,0,0,0
2.4457,1783440921.7845,1,1,1.0000,0.0000,1.41884,0.15060,-2.67330,1.00011,1.56179,0.11838,-0.13237,-0.45522,0.07210,,,,,,,,,,,,,,,,,,,,,,,,,,0,0,0,0,0
2.4570,1783440921.7958,1,1,1.0000,0.0000,1.41868,0.15145,-2.67392,0.99987,1.56179,0.11855,-0.13237,-0.45484,0.07209,,,,,,,,,,,,,,,,,,,,,,,,,,0,0,0,0,0
2.4718,1783440921.8106,1,1,1.0000,0.0000,1.41861,0.15181,-2.67417,0.99977,1.56179,0.11862,-0.13237,-0.45469,0.07209,,,,,,,,,,,,,,,,,,,,,,,,,,0,0,0,0,0
2.4772,1783440921.8160,1,1,1.0000,0.0000,1.41860,0.15188,-2.67422,0.99975,1.56179,0.11863,-0.13237,-0.45466,0.07209,,,,,,,,,,,,,,,,,,,,,,,,,,0,0,0,0,0
2.4852,1783440921.8240,1,1,1.0000,0.0000,1.41856,0.15208,-2.67436,0.99969,1.56179,0.11867,-0.13236,-0.45457,0.07209,,,,,,,,,,,,,,,,,,,,,,,,,,0,0,0,0,0
2.4854,1783440921.8242,1,1,1.0000,0.0000,1.41856,0.15208,-2.67436,0.99969,1.56179,0.11867,-0.13236,-0.45457,0.07209,,,,,,,,,,,,,,,,,,,,,,,,,,0,0,0,0,0
2.5036,1783440921.8424,1,1,1.0000,0.0000,1.41844,0.15270,-2.67480,0.99949,1.56179,0.11880,-0.13236,-0.45430,0.07210,,,,,,,,,,,,,,,,,,,,,,,,,,0,0,0,0,0
2.5084,1783440921.8472,1,1,1.0000,0.0000,1.41841,0.15282,-2.67487,0.99945,1.56179,0.11882,-0.13236,-0.45426,0.07210,,,,,,,,,,,,,,,,,,,,,,,,,,0,0,0,0,0
2.5088,1783440921.8476,1,1,1.0000,0.0000,1.41841,0.15282,-2.67487,0.99945,1.56179,0.11882,-0.13236,-0.45426,0.07210,,,,,,,,,,,,,,,,,,,,,,,,,,0,0,0,0,0
2.5164,1783440921.8552,1,1,1.0000,0.0000,1.41838,0.15299,-2.67499,0.99939,1.56179,0.11886,-0.13236,-0.45418,0.07211,,,,,,,,,,,,,,,,,,,,,,,,,,0,0,0,0,0
2.5168,1783440921.8556,1,1,1.0000,0.0000,1.41838,0.15299,-2.67499,0.99939,1.56179,0.11886,-0.13236,-0.45418,0.07211,,,,,,,,,,,,,,,,,,,,,,,,,,0,0,0,0,0
2.5250,1783440921.8638,1,1,1.0000,0.0000,1.41836,0.15308,-2.67504,0.99936,1.56179,0.11888,-0.13236,-0.45415,0.07211,,,,,,,,,,,,,,,,,,,,,,,,,,0,0,0,0,0
2.5360,1783440921.8747,1,1,1.0000,0.0000,1.41836,0.15308,-2.67504,0.99936,1.56179,0.11888,-0.13236,-0.45415,0.07211,,,,,,,,,,,,,,,,,,,,,,,,,,0,0,0,0,0
2.5608,1783440921.8996,1,1,1.0000,0.0000,1.41836,0.15308,-2.67504,0.99936,1.56179,0.11888,-0.13236,-0.45415,0.07211,,,,,,,,,,,,,,,,,,,,,,,,,,0,0,0,0,0
2.5613,1783440921.9001,1,1,1.0000,0.0000,1.41836,0.15308,-2.67504,0.99936,1.56179,0.11888,-0.13236,-0.45415,0.07211,,,,,,,,,,,,,,,,,,,,,,,,,,0,0,0,0,0
2.5686,1783440921.9074,1,1,1.0000,0.0000,1.41836,0.15308,-2.67504,0.99936,1.56179,0.11888,-0.13236,-0.45415,0.07211,,,,,,,,,,,,,,,,,,,,,,,,,,0,0,0,0,0
2.5690,1783440921.9078,1,1,1.0000,0.0000,1.41836,0.15308,-2.67504,0.99936,1.56179,0.11888,-0.13236,-0.45415,0.07211,,,,,,,,,,,,,,,,,,,,,,,,,,0,0,0,0,0
2.5797,1783440921.9185,1,1,1.0000,0.0000,1.41836,0.15308,-2.67504,0.99936,1.56179,0.11888,-0.13236,-0.45415,0.07211,,,,,,,,,,,,,,,,,,,,,,,,,,0,0,0,0,0
2.5887,1783440921.9275,1,1,1.0000,0.0000,1.41836,0.15308,-2.67504,0.99936,1.56179,0.11888,-0.13236,-0.45415,0.07211,,,,,,,,,,,,,,,,,,,,,,,,,,0,0,0,0,0
2.5892,1783440921.9280,1,1,1.0000,0.0000,1.41836,0.15308,-2.67504,0.99936,1.56179,0.11888,-0.13236,-0.45415,0.07211,,,,,,,,,,,,,,,,,,,,,,,,,,0,0,0,0,0
2.6123,1783440921.9511,1,1,1.0000,0.0000,1.41836,0.15308,-2.67504,0.99936,1.56179,0.11888,-0.13236,-0.45415,0.07211,,,,,,,,,,,,,,,,,,,,,,,,,,0,0,0,0,0
2.6134,1783440921.9522,1,1,1.0000,0.0000,1.41836,0.15308,-2.67504,0.99936,1.56179,0.11888,-0.13236,-0.45415,0.07211,,,,,,,,,,,,,,,,,,,,,,,,,,0,0,0,0,0
2.6138,1783440921.9525,1,1,1.0000,0.0000,1.41836,0.15308,-2.67504,0.99936,1.56179,0.11888,-0.13236,-0.45415,0.07211,,,,,,,,,,,,,,,,,,,,,,,,,,0,0,0,0,0
2.6249,1783440921.9636,1,1,1.0000,0.0000,1.41836,0.15308,-2.67504,0.99936,1.56179,0.11888,-0.13236,-0.45415,0.07211,,,,,,,,,,,,,,,,,,,,,,,,,,0,0,0,0,0
2.6329,1783440921.9716,1,1,1.0000,0.0000,1.41836,0.15308,-2.67504,0.99936,1.56179,0.11888,-0.13236,-0.45415,0.07211,,,,,,,,,,,,,,,,,,,,,,,,,,0,0,0,0,0
2.6425,1783440921.9813,1,1,1.0000,0.0000,1.41836,0.15308,-2.67504,0.99936,1.56179,0.11888,-0.13236,-0.45415,0.07211,,,,,,,,,,,,,,,,,,,,,,,,,,0,0,0,0,0
2.6450,1783440921.9838,1,1,1.0000,0.0000,1.41836,0.15308,-2.67504,0.99936,1.56179,0.11888,-0.13236,-0.45415,0.07211,,,,,,,,,,,,,,,,,,,,,,,,,,0,0,0,0,0
2.6454,1783440921.9841,1,1,1.0000,0.0000,1.41836,0.15308,-2.67504,0.99936,1.56179,0.11888,-0.13236,-0.45415,0.07211,,,,,,,,,,,,,,,,,,,,,,,,,,0,0,0,0,0
2.6606,1783440921.9994,1,1,1.0000,0.0000,1.41836,0.15308,-2.67504,0.99936,1.56179,0.11888,-0.13236,-0.45415,0.07211,,,,,,,,,,,,,,,,,,,,,,,,,,0,0,0,0,0
2.6663,1783440922.0050,1,1,1.0000,0.0000,1.41836,0.15308,-2.67504,0.99936,1.56179,0.11888,-0.13236,-0.45415,0.07211,,,,,,,,,,,,,,,,,,,,,,,,,,0,0,0,0,0
2.6667,1783440922.0054,1,1,1.0000,0.0000,1.41836,0.15308,-2.67504,0.99936,1.56179,0.11888,-0.13236,-0.45415,0.07211,,,,,,,,,,,,,,,,,,,,,,,,,,0,0,0,0,0
2.6805,1783440922.0193,1,1,1.0000,0.0000,1.41836,0.15308,-2.67504,0.99936,1.56179,0.11888,-0.13236,-0.45415,0.07211,,,,,,,,,,,,,,,,,,,,,,,,,,0,0,0,0,0
2.6858,1783440922.0246,1,1,1.0000,0.0000,1.41836,0.15308,-2.67504,0.99936,1.56179,0.11888,-0.13236,-0.45415,0.07211,,,,,,,,,,,,,,,,,,,,,,,,,,0,0,0,0,0
2.6863,1783440922.0251,1,1,1.0000,0.0000,1.41836,0.15308,-2.67504,0.99936,1.56179,0.11888,-0.13236,-0.45415,0.07211,,,,,,,,,,,,,,,,,,,,,,,,,,0,0,0,0,0
2.6956,1783440922.0344,1,1,1.0000,0.0000,1.41836,0.15308,-2.67504,0.99936,1.56179,0.11888,-0.13236,-0.45415,0.07211,,,,,,,,,,,,,,,,,,,,,,,,,,0,0,0,0,0
2.6960,1783440922.0348,1,1,1.0000,0.0000,1.41836,0.15308,-2.67504,0.99936,1.56179,0.11888,-0.13236,-0.45415,0.07211,,,,,,,,,,,,,,,,,,,,,,,,,,0,0,0,0,0
2.7110,1783440922.0498,1,1,1.0000,0.0000,1.41836,0.15308,-2.67504,0.99936,1.56179,0.11888,-0.13236,-0.45415,0.07211,,,,,,,,,,,,,,,,,,,,,,,,,,0,0,0,0,0
2.7183,1783440922.0570,1,1,1.0000,0.0000,1.41836,0.15308,-2.67504,0.99936,1.56179,0.11888,-0.13236,-0.45415,0.07211,,,,,,,,,,,,,,,,,,,,,,,,,,0,0,0,0,0
2.7253,1783440922.0641,1,1,1.0000,0.0000,1.41836,0.15308,-2.67504,0.99936,1.56179,0.11888,-0.13236,-0.45415,0.07211,,,,,,,,,,,,,,,,,,,,,,,,,,0,0,0,0,0
2.7258,1783440922.0646,1,1,1.0000,0.0000,1.41836,0.15308,-2.67504,0.99936,1.56179,0.11888,-0.13236,-0.45415,0.07211,,,,,,,,,,,,,,,,,,,,,,,,,,0,0,0,0,0
2.7367,1783440922.0755,1,1,1.0000,0.0000,1.41836,0.15308,-2.67504,0.99936,1.56179,0.11888,-0.13236,-0.45415,0.07211,,,,,,,,,,,,,,,,,,,,,,,,,,0,0,0,0,0
2.7371,1783440922.0759,1,1,1.0000,0.0000,1.41836,0.15308,-2.67504,0.99936,1.56179,0.11888,-0.13236,-0.45415,0.07211,,,,,,,,,,,,,,,,,,,,,,,,,,0,0,0,0,0
2.7450,1783440922.0838,1,1,1.0000,0.0000,1.41836,0.15308,-2.67504,0.99936,1.56179,0.11888,-0.13236,-0.45415,0.07211,,,,,,,,,,,,,,,,,,,,,,,,,,0,0,0,0,0
2.7553,1783440922.0941,1,1,1.0000,0.0000,1.41836,0.15308,-2.67504,0.99936,1.56179,0.11888,-0.13236,-0.45415,0.07211,,,,,,,,,,,,,,,,,,,,,,,,,,0,0,0,0,0
2.7675,1783440922.1063,1,1,1.0000,0.0000,1.41836,0.15308,-2.67504,0.99936,1.56179,0.11888,-0.13236,-0.45415,0.07211,,,,,,,,,,,,,,,,,,,,,,,,,,0,0,0,0,0
2.7758,1783440922.1146,1,1,1.0000,0.0000,1.41836,0.15308,-2.67504,0.99936,1.56179,0.11888,-0.13236,-0.45415,0.07211,,,,,,,,,,,,,,,,,,,,,,,,,,0,0,0,0,0
2.7849,1783440922.1237,1,1,1.0000,0.0000,1.41836,0.15308,-2.67504,0.99936,1.56179,0.11888,-0.13236,-0.45415,0.07211,,,,,,,,,,,,,,,,,,,,,,,,,,0,0,0,0,0
2.8123,1783440922.1511,1,1,1.0000,0.0000,1.41836,0.15308,-2.67504,0.99936,1.56179,0.11888,-0.13236,-0.45415,0.07211,,,,,,,,,,,,,,,,,,,,,,,,,,0,0,0,0,0
2.8127,1783440922.1515,1,1,1.0000,0.0000,1.41836,0.15308,-2.67504,0.99936,1.56179,0.11888,-0.13236,-0.45415,0.07211,,,,,,,,,,,,,,,,,,,,,,,,,,0,0,0,0,0
2.8151,1783440922.1539,1,1,1.0000,0.0000,1.41836,0.15308,-2.67504,0.99936,1.56179,0.11888,-0.13236,-0.45415,0.07211,,,,,,,,,,,,,,,,,,,,,,,,,,0,0,0,0,0
2.8279,1783440922.1666,1,1,1.0000,0.0000,1.41836,0.15308,-2.67504,0.99936,1.56179,0.11888,-0.13236,-0.45415,0.07211,,,,,,,,,,,,,,,,,,,,,,,,,,0,0,0,0,0
2.8354,1783440922.1742,1,1,1.0000,0.0000,1.41836,0.15308,-2.67504,0.99936,1.56179,0.11888,-0.13236,-0.45415,0.07211,,,,,,,,,,,,,,,,,,,,,,,,,,0,0,0,0,0
2.8455,1783440922.1843,1,1,1.0000,0.0000,1.41836,0.15308,-2.67504,0.99936,1.56179,0.11888,-0.13236,-0.45415,0.07211,,,,,,,,,,,,,,,,,,,,,,,,,,0,0,0,0,0
2.8459,1783440922.1847,1,1,1.0000,0.0000,1.41836,0.15308,-2.67504,0.99936,1.56179,0.11888,-0.13236,-0.45415,0.07211,,,,,,,,,,,,,,,,,,,,,,,,,,0,0,0,0,0
2.8592,1783440922.1980,1,1,1.0000,0.0000,1.41836,0.15308,-2.67504,0.99936,1.56179,0.11888,-0.13236,-0.45415,0.07211,,,,,,,,,,,,,,,,,,,,,,,,,,0,0,0,0,0
2.8676,1783440922.2064,1,1,1.0000,0.0000,1.41836,0.15308,-2.67504,0.99936,1.56179,0.11888,-0.13236,-0.45415,0.07211,,,,,,,,,,,,,,,,,,,,,,,,,,0,0,0,0,0
2.8805,1783440922.2192,1,1,1.0000,0.0000,1.41836,0.15308,-2.67504,0.99936,1.56179,0.11888,-0.13236,-0.45415,0.07211,,,,,,,,,,,,,,,,,,,,,,,,,,0,0,0,0,0
2.8879,1783440922.2267,1,1,1.0000,0.0000,1.41836,0.15308,-2.67504,0.99936,1.56179,0.11888,-0.13236,-0.45415,0.07211,,,,,,,,,,,,,,,,,,,,,,,,,,0,0,0,0,0
2.8968,1783440922.2356,1,1,1.0000,0.0000,1.41836,0.15308,-2.67504,0.99936,1.56179,0.11888,-0.13236,-0.45415,0.07211,,,,,,,,,,,,,,,,,,,,,,,,,,0,0,0,0,0
2.9074,1783440922.2462,1,1,1.0000,0.0000,1.41836,0.15308,-2.67504,0.99936,1.56179,0.11888,-0.13236,-0.45415,0.07211,,,,,,,,,,,,,,,,,,,,,,,,,,0,0,0,0,0
2.9153,1783440922.2541,1,1,1.0000,0.0000,1.41836,0.15308,-2.67504,0.99936,1.56179,0.11888,-0.13236,-0.45415,0.07211,,,,,,,,,,,,,,,,,,,,,,,,,,0,0,0,0,0
2.9156,1783440922.2544,1,1,1.0000,0.0000,1.41836,0.15308,-2.67504,0.99936,1.56179,0.11888,-0.13236,-0.45415,0.07211,,,,,,,,,,,,,,,,,,,,,,,,,,0,0,0,0,0
2.9305,1783440922.2692,1,1,1.0000,0.0000,1.41836,0.15308,-2.67504,0.99936,1.56179,0.11888,-0.13236,-0.45415,0.07211,,,,,,,,,,,,,,,,,,,,,,,,,,0,0,0,0,0
2.9360,1783440922.2748,1,1,1.0000,0.0000,1.41836,0.15308,-2.67504,0.99936,1.56179,0.11888,-0.13236,-0.45415,0.07211,,,,,,,,,,,,,,,,,,,,,,,,,,0,0,0,0,0
2.9474,1783440922.2862,1,1,1.0000,0.0000,1.41836,0.15308,-2.67504,0.99935,1.56179,0.11889,-0.13236,-0.45415,0.07211,,,,,,,,,,,,,,,,,,,,,,,,,,0,0,0,0,0
2.9478,1783440922.2866,1,1,1.0000,0.0000,1.41836,0.15308,-2.67504,0.99935,1.56179,0.11889,-0.13236,-0.45415,0.07211,,,,,,,,,,,,,,,,,,,,,,,,,,0,0,0,0,0
2.9551,1783440922.2939,1,1,1.0000,0.0000,1.41836,0.15307,-2.67504,0.99934,1.56179,0.11890,-0.13236,-0.45415,0.07210,,,,,,,,,,,,,,,,,,,,,,,,,,0,0,0,0,0
2.9728,1783440922.3116,1,1,1.0000,0.0000,1.41837,0.15307,-2.67504,0.99934,1.56179,0.11891,-0.13236,-0.45415,0.07210,,,,,,,,,,,,,,,,,,,,,,,,,,0,0,0,0,0
2.9827,1783440922.3215,1,1,1.0000,0.0000,1.41837,0.15305,-2.67502,0.99934,1.56179,0.11891,-0.13236,-0.45416,0.07210,,,,,,,,,,,,,,,,,,,,,,,,,,0,0,0,0,0
2.9902,1783440922.3290,1,1,1.0000,0.0000,1.41837,0.15304,-2.67500,0.99933,1.56179,0.11892,-0.13236,-0.45417,0.07211,,,,,,,,,,,,,,,,,,,,,,,,,,0,0,0,0,0
2.9955,1783440922.3343,1,1,1.0000,0.0000,1.41837,0.15302,-2.67499,0.99933,1.56179,0.11892,-0.13236,-0.45417,0.07211,,,,,,,,,,,,,,,,,,,,,,,,,,0,0,0,0,0
2.9958,1783440922.3346,1,1,1.0000,0.0000,1.41837,0.15302,-2.67499,0.99933,1.56179,0.11892,-0.13236,-0.45417,0.07211,,,,,,,,,,,,,,,,,,,,,,,,,,0,0,0,0,0
3.0124,1783440922.3512,1,1,1.0000,0.0000,1.41839,0.15294,-2.67492,0.99934,1.56179,0.11892,-0.13236,-0.45422,0.07211,,,,,,,,,,,,,,,,,,,,,,,,,,0,0,0,0,0
3.0175,1783440922.3562,1,1,1.0000,0.0000,1.41840,0.15289,-2.67488,0.99935,1.56179,0.11892,-0.13236,-0.45424,0.07211,,,,,,,,,,,,,,,,,,,,,,,,,,0,0,0,0,0
3.0249,1783440922.3637,1,1,1.0000,0.0000,1.41840,0.15288,-2.67487,0.99935,1.56179,0.11891,-0.13236,-0.45424,0.07211,,,,,,,,,,,,,,,,,,,,,,,,,,0,0,0,0,0
3.0353,1783440922.3741,1,1,1.0000,0.0000,1.41844,0.15267,-2.67472,0.99939,1.56179,0.11890,-0.13237,-0.45433,0.07211,,,,,,,,,,,,,,,,,,,,,,,,,,0,0,0,0,0
3.0474,1783440922.3861,1,1,1.0000,0.0000,1.41851,0.15230,-2.67446,0.99947,1.56179,0.11886,-0.13237,-0.45448,0.07210,,,,,,,,,,,,,,,,,,,,,,,,,,0,0,0,0,0
3.0553,1783440922.3941,1,1,1.0000,0.0000,1.41852,0.15228,-2.67444,0.99948,1.56179,0.11886,-0.13237,-0.45449,0.07210,,,,,,,,,,,,,,,,,,,,,,,,,,0,0,0,0,0
3.0557,1783440922.3944,1,1,1.0000,0.0000,1.41852,0.15228,-2.67444,0.99948,1.56179,0.11886,-0.13237,-0.45449,0.07210,,,,,,,,,,,,,,,,,,,,,,,,,,0,0,0,0,0
3.0714,1783440922.4102,1,1,1.0000,0.0000,1.41861,0.15178,-2.67409,0.99960,1.56179,0.11878,-0.13238,-0.45471,0.07210,,,,,,,,,,,,,,,,,,,,,,,,,,0,0,0,0,0
3.0784,1783440922.4171,1,1,1.0000,0.0000,1.41865,0.15158,-2.67394,0.99965,1.56179,0.11875,-0.13238,-0.45479,0.07209,,,,,,,,,,,,,,,,,,,,,,,,,,0,0,0,0,0
3.0994,1783440922.4382,1,1,1.0000,0.0000,1.41880,0.15081,-2.67339,0.99984,1.56179,0.11862,-0.13238,-0.45512,0.07209,,,,,,,,,,,,,,,,,,,,,,,,,,0,0,0,0,0
3.0998,1783440922.4386,1,1,1.0000,0.0000,1.41880,0.15081,-2.67339,0.99984,1.56179,0.11862,-0.13238,-0.45512,0.07209,,,,,,,,,,,,,,,,,,,,,,,,,,0,0,0,0,0
3.1062,1783440922.4450,1,1,1.0000,0.0000,1.41884,0.15061,-2.67325,0.99989,1.56179,0.11859,-0.13239,-0.45521,0.07209,,,,,,,,,,,,,,,,,,,,,,,,,,0,0,0,0,0
3.1067,1783440922.4454,1,1,1.0000,0.0000,1.41884,0.15061,-2.67325,0.99989,1.56179,0.11859,-0.13239,-0.45521,0.07209,,,,,,,,,,,,,,,,,,,,,,,,,,0,0,0,0,0
3.1197,1783440922.4585,1,1,1.0000,0.0000,1.41892,0.15016,-2.67293,1.00001,1.56179,0.11851,-0.13239,-0.45540,0.07208,,,,,,,,,,,,,,,,,,,,,,,,,,0,0,0,0,0
3.1276,1783440922.4664,1,1,1.0000,0.0000,1.41902,0.14964,-2.67255,1.00014,1.56179,0.11841,-0.13239,-0.45563,0.07208,,,,,,,,,,,,,,,,,,,,,,,,,,0,0,0,0,0
3.1367,1783440922.4755,1,1,1.0000,0.0000,1.41917,0.14890,-2.67201,1.00034,1.56179,0.11827,-0.13240,-0.45596,0.07208,,,,,,,,,,,,,,,,,,,,,,,,,,0,0,0,0,0
3.1459,1783440922.4846,1,1,1.0000,0.0000,1.41925,0.14847,-2.67170,1.00045,1.56179,0.11819,-0.13240,-0.45614,0.07208,,,,,,,,,,,,,,,,,,,,,,,,,,0,0,0,0,0
3.1554,1783440922.4941,1,1,1.0000,0.0000,1.41933,0.14806,-2.67140,1.00056,1.56179,0.11812,-0.13240,-0.45632,0.07208,,,,,,,,,,,,,,,,,,,,,,,,,,0,0,0,0,0
3.1663,1783440922.5051,1,1,1.0000,0.0000,1.41945,0.14742,-2.67094,1.00073,1.56179,0.11800,-0.13241,-0.45661,0.07207,,,,,,,,,,,,,,,,,,,,,,,,,,0,0,0,0,0
3.1771,1783440922.5159,1,1,1.0000,0.0000,1.41961,0.14660,-2.67034,1.00094,1.56179,0.11784,-0.13241,-0.45697,0.07207,,,,,,,,,,,,,,,,,,,,,,,,,,0,0,0,0,0
3.1940,1783440922.5328,1,1,1.0000,0.0000,1.41973,0.14595,-2.66987,1.00112,1.56179,0.11772,-0.13241,-0.45726,0.07207,,,,,,,,,,,,,,,,,,,,,,,,,,0,0,0,0,0
3.1944,1783440922.5332,1,1,1.0000,0.0000,1.41973,0.14595,-2.66987,1.00112,1.56179,0.11772,-0.13241,-0.45726,0.07207,,,,,,,,,,,,,,,,,,,,,,,,,,0,0,0,0,0
3.2013,1783440922.5401,1,1,1.0000,0.0000,1.41979,0.14563,-2.66963,1.00120,1.56179,0.11766,-0.13241,-0.45740,0.07207,,,,,,,,,,,,,,,,,,,,,,,,,,0,0,0,0,0
3.2192,1783440922.5580,1,1,1.0000,0.0000,1.41996,0.14473,-2.66898,1.00145,1.56179,0.11749,-0.13242,-0.45780,0.07207,,,,,,,,,,,,,,,,,,,,,,,,,,0,0,0,0,0
3.2199,1783440922.5587,1,1,1.0000,0.0000,1.41996,0.14473,-2.66898,1.00145,1.56179,0.11749,-0.13242,-0.45780,0.07207,,,,,,,,,,,,,,,,,,,,,,,,,,0,0,0,0,0
3.2299,1783440922.5687,1,1,1.0000,0.0000,1.42009,0.14406,-2.66849,1.00163,1.56179,0.11736,-0.13242,-0.45810,0.07207,,,,,,,,,,,,,,,,,,,,,,,,,,0,0,0,0,0
3.2390,1783440922.5777,1,1,1.0000,0.0000,1.42010,0.14404,-2.66847,1.00164,1.56179,0.11735,-0.13242,-0.45811,0.07207,,,,,,,,,,,,,,,,,,,,,,,,,,0,0,0,0,0
3.2486,1783440922.5874,1,1,1.0000,0.0000,1.42016,0.14369,-2.66821,1.00173,1.56179,0.11728,-0.13243,-0.45826,0.07207,,,,,,,,,,,,,,,,,,,,,,,,,,0,0,0,0,0
3.2490,1783440922.5878,1,1,1.0000,0.0000,1.42016,0.14369,-2.66821,1.00173,1.56179,0.11728,-0.13243,-0.45826,0.07207,,,,,,,,,,,,,,,,,,,,,,,,,,0,0,0,0,0
3.2585,1783440922.5973,1,1,1.0000,0.0000,1.42024,0.14330,-2.66793,1.00184,1.56179,0.11721,-0.13243,-0.45844,0.07207,,,,,,,,,,,,,,,,,,,,,,,,,,0,0,0,0,0
3.2694,1783440922.6082,1,1,1.0000,0.0000,1.42032,0.14287,-2.66762,1.00196,1.56179,0.11712,-0.13243,-0.45863,0.07207,,,,,,,,,,,,,,,,,,,,,,,,,,0,0,0,0,0
3.2795,1783440922.6182,1,1,1.0000,0.0000,1.42034,0.14277,-2.66754,1.00200,1.56179,0.11710,-0.13243,-0.45867,0.07207,,,,,,,,,,,,,,,,,,,,,,,,,,0,0,0,0,0
3.2898,1783440922.6285,1,1,1.0000,0.0000,1.42037,0.14260,-2.66744,1.00205,1.56179,0.11706,-0.13243,-0.45874,0.07207,,,,,,,,,,,,,,,,,,,,,,,,,,0,0,0,0,0
3.2985,1783440922.6373,1,1,1.0000,0.0000,1.42041,0.14241,-2.66730,1.00211,1.56179,0.11702,-0.13243,-0.45882,0.07206,,,,,,,,,,,,,,,,,,,,,,,,,,0,0,0,0,0
3.3086,1783440922.6474,1,1,1.0000,0.0000,1.42047,0.14210,-2.66711,1.00220,1.56180,0.11696,-0.13244,-0.45894,0.07205,,,,,,,,,,,,,,,,,,,,,,,,,,0,0,0,0,0
3.3223,1783440922.6611,1,1,1.0000,0.0000,1.42051,0.14189,-2.66699,1.00227,1.56180,0.11691,-0.13244,-0.45901,0.07203,,,,,,,,,,,,,,,,,,,,,,,,,,0,0,0,0,0
3.3284,1783440922.6672,1,1,1.0000,0.0000,1.42052,0.14184,-2.66699,1.00229,1.56180,0.11690,-0.13245,-0.45901,0.07201,,,,,,,,,,,,,,,,,,,,,,,,,,0,0,0,0,0
3.3398,1783440922.6786,1,1,1.0000,0.0000,1.42052,0.14184,-2.66699,1.00229,1.56180,0.11690,-0.13245,-0.45901,0.07201,,,,,,,,,,,,,,,,,,,,,,,,,,0,0,0,0,0
3.3486,1783440922.6874,1,1,1.0000,0.0000,1.42052,0.14184,-2.66699,1.00229,1.56180,0.11690,-0.13245,-0.45901,0.07201,,,,,,,,,,,,,,,,,,,,,,,,,,0,0,0,0,0
3.3609,1783440922.6997,1,1,1.0000,0.0000,1.42052,0.14184,-2.66699,1.00229,1.56180,0.11690,-0.13245,-0.45901,0.07201,,,,,,,,,,,,,,,,,,,,,,,,,,0,0,0,0,0
3.3711,1783440922.7099,1,1,1.0000,0.0000,1.42052,0.14184,-2.66699,1.00229,1.56180,0.11690,-0.13245,-0.45901,0.07201,,,,,,,,,,,,,,,,,,,,,,,,,,0,0,0,0,0
3.3820,1783440922.7208,1,1,1.0000,0.0000,1.42052,0.14184,-2.66699,1.00229,1.56180,0.11690,-0.13245,-0.45901,0.07201,,,,,,,,,,,,,,,,,,,,,,,,,,0,0,0,0,0
3.3825,1783440922.7213,1,1,1.0000,0.0000,1.42052,0.14184,-2.66699,1.00229,1.56180,0.11690,-0.13245,-0.45901,0.07201,,,,,,,,,,,,,,,,,,,,,,,,,,0,0,0,0,0
3.3828,1783440922.7216,1,1,1.0000,0.0000,1.42052,0.14184,-2.66699,1.00229,1.56180,0.11690,-0.13245,-0.45901,0.07201,,,,,,,,,,,,,,,,,,,,,,,,,,0,0,0,0,0
3.3922,1783440922.7310,1,1,1.0000,0.0000,1.42052,0.14184,-2.66699,1.00229,1.56180,0.11690,-0.13245,-0.45901,0.07201,,,,,,,,,,,,,,,,,,,,,,,,,,0,0,0,0,0
3.4025,1783440922.7413,1,1,1.0000,0.0000,1.42052,0.14184,-2.66699,1.00229,1.56180,0.11690,-0.13245,-0.45901,0.07201,,,,,,,,,,,,,,,,,,,,,,,,,,0,0,0,0,0
3.4084,1783440922.7472,1,1,1.0000,0.0000,1.42052,0.14184,-2.66699,1.00229,1.56180,0.11690,-0.13245,-0.45901,0.07201,,,,,,,,,,,,,,,,,,,,,,,,,,0,0,0,0,0
3.4282,1783440922.7670,1,1,1.0000,0.0000,1.42052,0.14184,-2.66699,1.00229,1.56180,0.11690,-0.13245,-0.45901,0.07201,,,,,,,,,,,,,,,,,,,,,,,,,,0,0,0,0,0
3.4291,1783440922.7679,1,1,1.0000,0.0000,1.42052,0.14184,-2.66699,1.00229,1.56180,0.11690,-0.13245,-0.45901,0.07201,,,,,,,,,,,,,,,,,,,,,,,,,,0,0,0,0,0
3.4391,1783440922.7779,1,1,1.0000,0.0000,1.42052,0.14184,-2.66699,1.00229,1.56180,0.11690,-0.13245,-0.45901,0.07201,,,,,,,,,,,,,,,,,,,,,,,,,,0,0,0,0,0
3.4504,1783440922.7892,1,1,1.0000,0.0000,1.42052,0.14184,-2.66699,1.00229,1.56180,0.11690,-0.13245,-0.45901,0.07201,,,,,,,,,,,,,,,,,,,,,,,,,,0,0,0,0,0
3.4623,1783440922.8011,1,1,1.0000,0.0000,1.42052,0.14184,-2.66699,1.00229,1.56180,0.11690,-0.13245,-0.45901,0.07201,,,,,,,,,,,,,,,,,,,,,,,,,,0,0,0,0,0
3.4683,1783440922.8071,1,1,1.0000,0.0000,1.42052,0.14184,-2.66699,1.00229,1.56180,0.11690,-0.13245,-0.45901,0.07201,,,,,,,,,,,,,,,,,,,,,,,,,,0,0,0,0,0
3.4803,1783440922.8191,1,1,1.0000,0.0000,1.42052,0.14184,-2.66699,1.00229,1.56180,0.11690,-0.13245,-0.45901,0.07201,,,,,,,,,,,,,,,,,,,,,,,,,,0,0,0,0,0
3.4947,1783440922.8335,1,1,1.0000,0.0000,1.42052,0.14184,-2.66699,1.00229,1.56180,0.11690,-0.13245,-0.45901,0.07201,,,,,,,,,,,,,,,,,,,,,,,,,,0,0,0,0,0
3.4955,1783440922.8343,1,1,1.0000,0.0000,1.42052,0.14184,-2.66699,1.00229,1.56180,0.11690,-0.13245,-0.45901,0.07201,,,,,,,,,,,,,,,,,,,,,,,,,,0,0,0,0,0
3.5035,1783440922.8423,1,1,1.0000,0.0000,1.42052,0.14184,-2.66699,1.00229,1.56180,0.11690,-0.13245,-0.45901,0.07201,,,,,,,,,,,,,,,,,,,,,,,,,,0,0,0,0,0
3.5125,1783440922.8513,1,1,1.0000,0.0000,1.42052,0.14184,-2.66699,1.00229,1.56180,0.11690,-0.13245,-0.45901,0.07201,,,,,,,,,,,,,,,,,,,,,,,,,,0,0,0,0,0
3.5479,1783440922.8867,1,1,1.0000,0.0000,1.42052,0.14184,-2.66699,1.00229,1.56180,0.11690,-0.13245,-0.45901,0.07201,,,,,,,,,,,,,,,,,,,,,,,,,,0,0,0,0,0
3.5546,1783440922.8933,1,1,1.0000,0.0000,1.42052,0.14184,-2.66699,1.00229,1.56180,0.11690,-0.13245,-0.45901,0.07201,,,,,,,,,,,,,,,,,,,,,,,,,,0,0,0,0,0
3.5554,1783440922.8942,1,1,1.0000,0.0000,1.42052,0.14184,-2.66699,1.00229,1.56180,0.11690,-0.13245,-0.45901,0.07201,,,,,,,,,,,,,,,,,,,,,,,,,,0,0,0,0,0
3.5558,1783440922.8946,1,1,1.0000,0.0000,1.42052,0.14184,-2.66699,1.00229,1.56180,0.11690,-0.13245,-0.45901,0.07201,,,,,,,,,,,,,,,,,,,,,,,,,,0,0,0,0,0
3.5664,1783440922.9052,1,1,1.0000,0.0000,1.42052,0.14184,-2.66699,1.00229,1.56180,0.11690,-0.13245,-0.45901,0.07201,,,,,,,,,,,,,,,,,,,,,,,,,,0,0,0,0,0
3.5669,1783440922.9056,1,1,1.0000,0.0000,1.42052,0.14184,-2.66699,1.00229,1.56180,0.11690,-0.13245,-0.45901,0.07201,,,,,,,,,,,,,,,,,,,,,,,,,,0,0,0,0,0
3.5723,1783440922.9111,1,1,1.0000,0.0000,1.42052,0.14184,-2.66699,1.00229,1.56180,0.11690,-0.13245,-0.45901,0.07201,,,,,,,,,,,,,,,,,,,,,,,,,,0,0,0,0,0
3.5847,1783440922.9234,1,1,1.0000,0.0000,1.42052,0.14184,-2.66699,1.00229,1.56180,0.11690,-0.13245,-0.45901,0.07201,,,,,,,,,,,,,,,,,,,,,,,,,,0,0,0,0,0
3.5974,1783440922.9362,1,1,1.0000,0.0000,1.42052,0.14184,-2.66699,1.00229,1.56180,0.11690,-0.13245,-0.45901,0.07201,,,,,,,,,,,,,,,,,,,,,,,,,,0,0,0,0,0
3.6033,1783440922.9421,1,1,1.0000,0.0000,1.42052,0.14184,-2.66699,1.00229,1.56180,0.11690,-0.13245,-0.45901,0.07201,,,,,,,,,,,,,,,,,,,,,,,,,,0,0,0,0,0
3.6038,1783440922.9426,1,1,1.0000,0.0000,1.42052,0.14184,-2.66699,1.00229,1.56180,0.11690,-0.13245,-0.45901,0.07201,,,,,,,,,,,,,,,,,,,,,,,,,,0,0,0,0,0
3.6122,1783440922.9510,1,1,1.0000,0.0000,1.42052,0.14184,-2.66699,1.00229,1.56180,0.11690,-0.13245,-0.45901,0.07201,,,,,,,,,,,,,,,,,,,,,,,,,,0,0,0,0,0
3.6238,1783440922.9626,1,1,1.0000,0.0000,1.42052,0.14184,-2.66699,1.00229,1.56180,0.11690,-0.13245,-0.45901,0.07201,,,,,,,,,,,,,,,,,,,,,,,,,,0,0,0,0,0
3.6244,1783440922.9632,1,1,1.0000,0.0000,1.42052,0.14184,-2.66699,1.00229,1.56180,0.11690,-0.13245,-0.45901,0.07201,,,,,,,,,,,,,,,,,,,,,,,,,,0,0,0,0,0
3.6324,1783440922.9711,1,1,1.0000,0.0000,1.42052,0.14184,-2.66699,1.00229,1.56180,0.11690,-0.13245,-0.45901,0.07201,,,,,,,,,,,,,,,,,,,,,,,,,,0,0,0,0,0
3.6473,1783440922.9861,1,1,1.0000,0.0000,1.42052,0.14184,-2.66699,1.00229,1.56180,0.11690,-0.13245,-0.45901,0.07201,,,,,,,,,,,,,,,,,,,,,,,,,,0,0,0,0,0
3.6547,1783440922.9935,1,1,1.0000,0.0000,1.42052,0.14184,-2.66699,1.00229,1.56180,0.11690,-0.13245,-0.45901,0.07201,,,,,,,,,,,,,,,,,,,,,,,,,,0,0,0,0,0
3.6623,1783440923.0011,1,1,1.0000,0.0000,1.42052,0.14184,-2.66699,1.00229,1.56180,0.11690,-0.13245,-0.45901,0.07201,,,,,,,,,,,,,,,,,,,,,,,,,,0,0,0,0,0
3.6733,1783440923.0121,1,1,1.0000,0.0000,1.42052,0.14184,-2.66699,1.00229,1.56180,0.11690,-0.13245,-0.45901,0.07201,,,,,,,,,,,,,,,,,,,,,,,,,,0,0,0,0,0
3.6738,1783440923.0126,1,1,1.0000,0.0000,1.42052,0.14184,-2.66699,1.00229,1.56180,0.11690,-0.13245,-0.45901,0.07201,,,,,,,,,,,,,,,,,,,,,,,,,,0,0,0,0,0
3.6844,1783440923.0232,1,1,1.0000,0.0000,1.42052,0.14184,-2.66699,1.00229,1.56180,0.11690,-0.13245,-0.45901,0.07201,,,,,,,,,,,,,,,,,,,,,,,,,,0,0,0,0,0
3.6858,1783440923.0246,1,1,1.0000,0.0000,1.42052,0.14184,-2.66699,1.00229,1.56180,0.11690,-0.13245,-0.45901,0.07201,,,,,,,,,,,,,,,,,,,,,,,,,,0,0,0,0,0
3.6933,1783440923.0321,1,1,1.0000,0.0000,1.42052,0.14184,-2.66699,1.00229,1.56180,0.11690,-0.13245,-0.45901,0.07201,,,,,,,,,,,,,,,,,,,,,,,,,,0,0,0,0,0
3.7060,1783440923.0448,1,1,1.0000,0.0000,1.42052,0.14184,-2.66699,1.00229,1.56180,0.11690,-0.13245,-0.45901,0.07201,,,,,,,,,,,,,,,,,,,,,,,,,,0,0,0,0,0
3.7145,1783440923.0532,1,1,1.0000,0.0000,1.42052,0.14184,-2.66699,1.00229,1.56180,0.11690,-0.13245,-0.45901,0.07201,,,,,,,,,,,,,,,,,,,,,,,,,,0,0,0,0,0
3.7338,1783440923.0726,1,1,1.0000,0.0000,1.42052,0.14184,-2.66699,1.00229,1.56180,0.11690,-0.13245,-0.45901,0.07201,,,,,,,,,,,,,,,,,,,,,,,,,,0,0,0,0,0
3.7342,1783440923.0730,1,1,1.0000,0.0000,1.42052,0.14184,-2.66699,1.00229,1.56180,0.11690,-0.13245,-0.45901,0.07201,,,,,,,,,,,,,,,,,,,,,,,,,,0,0,0,0,0
3.7347,1783440923.0735,1,1,1.0000,0.0000,1.42052,0.14184,-2.66699,1.00229,1.56180,0.11690,-0.13245,-0.45901,0.07201,,,,,,,,,,,,,,,,,,,,,,,,,,0,0,0,0,0
3.7366,1783440923.0753,1,1,1.0000,0.0000,1.42052,0.14184,-2.66699,1.00229,1.56180,0.11690,-0.13245,-0.45901,0.07201,,,,,,,,,,,,,,,,,,,,,,,,,,0,0,0,0,0
3.7454,1783440923.0842,1,1,1.0000,0.0000,1.42052,0.14183,-2.66699,1.00229,1.56180,0.11690,-0.13245,-0.45901,0.07201,,,,,,,,,,,,,,,,,,,,,,,,,,0,0,0,0,0
3.7526,1783440923.0914,1,1,1.0000,0.0000,1.42052,0.14183,-2.66699,1.00231,1.56180,0.11689,-0.13245,-0.45901,0.07201,,,,,,,,,,,,,,,,,,,,,,,,,,0,0,0,0,0
3.7642,1783440923.1030,1,1,1.0000,0.0000,1.42052,0.14182,-2.66699,1.00234,1.56180,0.11688,-0.13244,-0.45902,0.07201,,,,,,,,,,,,,,,,,,,,,,,,,,0,0,0,0,0
3.7646,1783440923.1034,1,1,1.0000,0.0000,1.42052,0.14182,-2.66699,1.00234,1.56180,0.11688,-0.13244,-0.45902,0.07201,,,,,,,,,,,,,,,,,,,,,,,,,,0,0,0,0,0
3.7744,1783440923.1132,1,1,1.0000,0.0000,1.42052,0.14181,-2.66699,1.00236,1.56180,0.11687,-0.13244,-0.45902,0.07201,,,,,,,,,,,,,,,,,,,,,,,,,,0,0,0,0,0
3.7827,1783440923.1215,1,1,1.0000,0.0000,1.42052,0.14180,-2.66699,1.00237,1.56180,0.11687,-0.13244,-0.45903,0.07201,,,,,,,,,,,,,,,,,,,,,,,,,,0,0,0,0,0
3.7985,1783440923.1373,1,1,1.0000,0.0000,1.42052,0.14172,-2.66702,1.00248,1.56180,0.11686,-0.13244,-0.45903,0.07198,,,,,,,,,,,,,,,,,,,,,,,,,,0,0,0,0,0
3.8025,1783440923.1413,1,1,1.0000,0.0000,1.42052,0.14168,-2.66702,1.00253,1.56180,0.11686,-0.13244,-0.45903,0.07197,,,,,,,,,,,,,,,,,,,,,,,,,,0,0,0,0,0
3.8123,1783440923.1511,1,1,1.0000,0.0000,1.42052,0.14164,-2.66704,1.00259,1.56180,0.11686,-0.13244,-0.45903,0.07196,,,,,,,,,,,,,,,,,,,,,,,,,,0,0,0,0,0
3.8556,1783440923.1944,1,1,1.0000,0.0000,1.42052,0.14094,-2.66721,1.00345,1.56180,0.11685,-0.13244,-0.45904,0.07173,,,,,,,,,,,,,,,,,,,,,,,,,,0,0,0,0,0
3.8565,1783440923.1952,1,1,1.0000,0.0000,1.42052,0.14094,-2.66721,1.00345,1.56180,0.11685,-0.13244,-0.45904,0.07173,,,,,,,,,,,,,,,,,,,,,,,,,,0,0,0,0,0
3.8727,1783440923.2114,1,1,1.0000,0.0000,1.42052,0.14069,-2.66727,1.00376,1.56181,0.11684,-0.13243,-0.45905,0.07165,,,,,,,,,,,,,,,,,,,,,,,,,,0,0,0,0,0
3.9160,1783440923.2548,1,1,1.0000,0.0000,1.42052,0.13927,-2.66760,1.00553,1.56181,0.11683,-0.13243,-0.45909,0.07120,,,,,,,,,,,,,,,,,,,,,,,,,,0,0,0,0,0
3.9164,1783440923.2552,1,1,1.0000,0.0000,1.42052,0.13927,-2.66760,1.00553,1.56181,0.11683,-0.13243,-0.45909,0.07120,,,,,,,,,,,,,,,,,,,,,,,,,,0,0,0,0,0
3.9168,1783440923.2556,1,1,1.0000,0.0000,1.42052,0.13927,-2.66760,1.00553,1.56181,0.11683,-0.13243,-0.45909,0.07120,,,,,,,,,,,,,,,,,,,,,,,,,,0,0,0,0,0
3.9171,1783440923.2559,1,1,1.0000,0.0000,1.42052,0.13927,-2.66760,1.00553,1.56181,0.11683,-0.13243,-0.45909,0.07120,,,,,,,,,,,,,,,,,,,,,,,,,,0,0,0,0,0
3.9179,1783440923.2567,1,1,1.0000,0.0000,1.42052,0.13927,-2.66760,1.00553,1.56181,0.11683,-0.13243,-0.45909,0.07120,,,,,,,,,,,,,,,,,,,,,,,,,,0,0,0,0,0
3.9221,1783440923.2609,1,1,1.0000,0.0000,1.42052,0.13927,-2.66760,1.00553,1.56181,0.11683,-0.13243,-0.45909,0.07120,,,,,,,,,,,,,,,,,,,,,,,,,,0,0,0,0,0
3.9226,1783440923.2614,1,1,1.0000,0.0000,1.42052,0.13927,-2.66760,1.00553,1.56181,0.11683,-0.13243,-0.45909,0.07120,,,,,,,,,,,,,,,,,,,,,,,,,,0,0,0,0,0
3.9363,1783440923.2751,1,1,1.0000,0.0000,1.42053,0.13879,-2.66772,1.00612,1.56181,0.11682,-0.13243,-0.45910,0.07105,,,,,,,,,,,,,,,,,,,,,,,,,,0,0,0,0,0
3.9434,1783440923.2822,1,1,1.0000,0.0000,1.42053,0.13831,-2.66784,1.00672,1.56181,0.11682,-0.13243,-0.45911,0.07089,,,,,,,,,,,,,,,,,,,,,,,,,,0,0,0,0,0
3.9437,1783440923.2825,1,1,1.0000,0.0000,1.42053,0.13831,-2.66784,1.00672,1.56181,0.11682,-0.13243,-0.45911,0.07089,,,,,,,,,,,,,,,,,,,,,,,,,,0,0,0,0,0
3.9543,1783440923.2931,1,1,1.0000,0.0000,1.42053,0.13803,-2.66790,1.00707,1.56181,0.11682,-0.13243,-0.45912,0.07080,,,,,,,,,,,,,,,,,,,,,,,,,,0,0,0,0,0
3.9620,1783440923.3008,1,1,1.0000,0.0000,1.42053,0.13794,-2.66792,1.00718,1.56181,0.11682,-0.13242,-0.45912,0.07077,,,,,,,,,,,,,,,,,,,,,,,,,,0,0,0,0,0
3.9628,1783440923.3015,1,1,1.0000,0.0000,1.42053,0.13794,-2.66792,1.00718,1.56181,0.11682,-0.13242,-0.45912,0.07077,,,,,,,,,,,,,,,,,,,,,,,,,,0,0,0,0,0
3.9754,1783440923.3142,1,1,1.0000,0.0000,1.42053,0.13733,-2.66807,1.00795,1.56181,0.11681,-0.13242,-0.45914,0.07058,,,,,,,,,,,,,,,,,,,,,,,,,,0,0,0,0,0
3.9759,1783440923.3147,1,1,1.0000,0.0000,1.42053,0.13733,-2.66807,1.00795,1.56181,0.11681,-0.13242,-0.45914,0.07058,,,,,,,,,,,,,,,,,,,,,,,,,,0,0,0,0,0
3.9834,1783440923.3222,1,1,1.0000,0.0000,1.42053,0.13692,-2.66817,1.00846,1.56181,0.11681,-0.13242,-0.45915,0.07045,,,,,,,,,,,,,,,,,,,,,,,,,,0,0,0,0,0
3.9840,1783440923.3227,1,1,1.0000,0.0000,1.42053,0.13692,-2.66817,1.00846,1.56181,0.11681,-0.13242,-0.45915,0.07045,,,,,,,,,,,,,,,,,,,,,,,,,,0,0,0,0,0
3.9953,1783440923.3341,1,1,1.0000,0.0000,1.42053,0.13687,-2.66818,1.00854,1.56181,0.11680,-0.13242,-0.45915,0.07043,,,,,,,,,,,,,,,,,,,,,,,,,,0,0,0,0,0
4.0077,1783440923.3465,1,1,1.0000,0.0000,1.42053,0.13662,-2.66823,1.00885,1.56181,0.11680,-0.13242,-0.45917,0.07036,,,,,,,,,,,,,,,,,,,,,,,,,,0,0,0,0,0
4.0144,1783440923.3532,1,1,1.0000,0.0000,1.42053,0.13652,-2.66826,1.00899,1.56181,0.11680,-0.13242,-0.45917,0.07033,,,,,,,,,,,,,,,,,,,,,,,,,,0,0,0,0,0
4.0233,1783440923.3621,1,1,1.0000,0.0000,1.42053,0.13617,-2.66832,1.00945,1.56181,0.11680,-0.13242,-0.45920,0.07023,,,,,,,,,,,,,,,,,,,,,,,,,,0,0,0,0,0
4.0236,1783440923.3624,1,1,1.0000,0.0000,1.42053,0.13617,-2.66832,1.00945,1.56181,0.11680,-0.13242,-0.45920,0.07023,,,,,,,,,,,,,,,,,,,,,,,,,,0,0,0,0,0
4.0530,1783440923.3918,1,1,1.0000,0.0000,1.42054,0.13578,-2.66839,1.00996,1.56181,0.11679,-0.13241,-0.45924,0.07013,,,,,,,,,,,,,,,,,,,,,,,,,,0,0,0,0,0
4.0568,1783440923.3956,1,1,1.0000,0.0000,1.42054,0.13576,-2.66839,1.00998,1.56181,0.11679,-0.13241,-0.45923,0.07012,,,,,,,,,,,,,,,,,,,,,,,,,,0,0,0,0,0
4.0572,1783440923.3960,1,1,1.0000,0.0000,1.42054,0.13576,-2.66839,1.00998,1.56181,0.11679,-0.13241,-0.45923,0.07012,,,,,,,,,,,,,,,,,,,,,,,,,,0,0,0,0,0
4.0864,1783440923.4252,1,1,1.0000,0.0000,1.42054,0.13561,-2.66845,1.01019,1.56181,0.11679,-0.13241,-0.45923,0.07006,,,,,,,,,,,,,,,,,,,,,,,,,,0,0,0,0,0
4.0894,1783440923.4282,1,1,1.0000,0.0000,1.42054,0.13557,-2.66847,1.01024,1.56181,0.11679,-0.13241,-0.45923,0.07005,,,,,,,,,,,,,,,,,,,,,,,,,,0,0,0,0,0
4.0899,1783440923.4287,1,1,1.0000,0.0000,1.42054,0.13557,-2.66847,1.01024,1.56181,0.11679,-0.13241,-0.45923,0.07005,,,,,,,,,,,,,,,,,,,,,,,,,,0,0,0,0,0
4.0953,1783440923.4341,1,1,1.0000,0.0000,1.42054,0.13545,-2.66850,1.01038,1.56181,0.11679,-0.13241,-0.45922,0.07001,,,,,,,,,,,,,,,,,,,,,,,,,,0,0,0,0,0
4.0960,1783440923.4347,1,1,1.0000,0.0000,1.42054,0.13545,-2.66850,1.01038,1.56181,0.11679,-0.13241,-0.45922,0.07001,,,,,,,,,,,,,,,,,,,,,,,,,,0,0,0,0,0
4.1034,1783440923.4422,1,1,1.0000,0.0000,1.42054,0.13544,-2.66851,1.01040,1.56181,0.11679,-0.13241,-0.45922,0.07000,,,,,,,,,,,,,,,,,,,,,,,,,,0,0,0,0,0
4.1041,1783440923.4428,1,1,1.0000,0.0000,1.42054,0.13544,-2.66851,1.01040,1.56181,0.11679,-0.13241,-0.45922,0.07000,,,,,,,,,,,,,,,,,,,,,,,,,,0,0,0,0,0
4.1123,1783440923.4511,1,1,1.0000,0.0000,1.42054,0.13533,-2.66854,1.01054,1.56181,0.11679,-0.13241,-0.45922,0.06996,,,,,,,,,,,,,,,,,,,,,,,,,,0,0,0,0,0
4.1225,1783440923.4613,1,1,1.0000,0.0000,1.42054,0.13513,-2.66860,1.01079,1.56181,0.11678,-0.13241,-0.45922,0.06990,,,,,,,,,,,,,,,,,,,,,,,,,,0,0,0,0,0
4.1367,1783440923.4755,1,1,1.0000,0.0000,1.42054,0.13485,-2.66867,1.01113,1.56181,0.11678,-0.13241,-0.45922,0.06980,,,,,,,,,,,,,,,,,,,,,,,,,,0,0,0,0,0
4.1456,1783440923.4844,1,1,1.0000,0.0000,1.42054,0.13470,-2.66871,1.01132,1.56181,0.11678,-0.13241,-0.45922,0.06975,,,,,,,,,,,,,,,,,,,,,,,,,,0,0,0,0,0
4.1526,1783440923.4914,1,1,1.0000,0.0000,1.42054,0.13442,-2.66879,1.01167,1.56181,0.11678,-0.13241,-0.45922,0.06966,,,,,,,,,,,,,,,,,,,,,,,,,,0,0,0,0,0
4.1620,1783440923.5008,1,1,1.0000,0.0000,1.42054,0.13405,-2.66888,1.01213,1.56181,0.11678,-0.13241,-0.45923,0.06954,,,,,,,,,,,,,,,,,,,,,,,,,,0,0,0,0,0
4.1626,1783440923.5014,1,1,1.0000,0.0000,1.42054,0.13405,-2.66888,1.01213,1.56181,0.11678,-0.13241,-0.45923,0.06954,,,,,,,,,,,,,,,,,,,,,,,,,,0,0,0,0,0
4.1633,1783440923.5021,1,1,1.0000,0.0000,1.42054,0.13384,-2.66893,1.01240,1.56181,0.11677,-0.13241,-0.45923,0.06947,,,,,,,,,,,,,,,,,,,,,,,,,,0,0,0,0,0
4.1733,1783440923.5121,1,1,1.0000,0.0000,1.42054,0.13381,-2.66894,1.01243,1.56181,0.11677,-0.13241,-0.45923,0.06946,,,,,,,,,,,,,,,,,,,,,,,,,,0,0,0,0,0
4.1885,1783440923.5273,1,1,1.0000,0.0000,1.42054,0.13326,-2.66908,1.01311,1.56181,0.11677,-0.13241,-0.45924,0.06928,,,,,,,,,,,,,,,,,,,,,,,,,,0,0,0,0,0
4.1890,1783440923.5278,1,1,1.0000,0.0000,1.42054,0.13326,-2.66908,1.01311,1.56181,0.11677,-0.13241,-0.45924,0.06928,,,,,,,,,,,,,,,,,,,,,,,,,,0,0,0,0,0
4.1999,1783440923.5387,1,1,1.0000,0.0000,1.42054,0.13313,-2.66911,1.01327,1.56181,0.11677,-0.13241,-0.45924,0.06923,,,,,,,,,,,,,,,,,,,,,,,,,,0,0,0,0,0
4.2058,1783440923.5446,1,1,1.0000,0.0000,1.42054,0.13298,-2.66915,1.01346,1.56181,0.11677,-0.13241,-0.45924,0.06919,,,,,,,,,,,,,,,,,,,,,,,,,,0,0,0,0,0
4.2127,1783440923.5515,1,1,1.0000,0.0000,1.42055,0.13255,-2.66926,1.01399,1.56181,0.11676,-0.13241,-0.45924,0.06904,,,,,,,,,,,,,,,,,,,,,,,,,,0,0,0,0,0
4.2223,1783440923.5611,1,1,1.0000,0.0000,1.42055,0.13201,-2.66940,1.01466,1.56182,0.11676,-0.13241,-0.45925,0.06887,,,,,,,,,,,,,,,,,,,,,,,,,,0,0,0,0,0
4.2326,1783440923.5714,1,1,1.0000,0.0000,1.42055,0.13170,-2.66948,1.01504,1.56182,0.11676,-0.13241,-0.45925,0.06877,,,,,,,,,,,,,,,,,,,,,,,,,,0,0,0,0,0
4.2420,1783440923.5808,1,1,1.0000,0.0000,1.42055,0.13154,-2.66952,1.01524,1.56182,0.11675,-0.13241,-0.45926,0.06871,,,,,,,,,,,,,,,,,,,,,,,,,,0,0,0,0,0
4.2538,1783440923.5926,1,1,1.0000,0.0000,1.42055,0.13126,-2.66958,1.01559,1.56182,0.11675,-0.13241,-0.45926,0.06863,,,,,,,,,,,,,,,,,,,,,,,,,,0,0,0,0,0
4.2626,1783440923.6014,1,1,1.0000,0.0000,1.42055,0.13118,-2.66960,1.01569,1.56182,0.11675,-0.13241,-0.45927,0.06860,,,,,,,,,,,,,,,,,,,,,,,,,,0,0,0,0,0
4.2738,1783440923.6126,1,1,1.0000,0.0000,1.42055,0.13083,-2.66969,1.01613,1.56182,0.11675,-0.13241,-0.45927,0.06849,,,,,,,,,,,,,,,,,,,,,,,,,,0,0,0,0,0
4.3398,1783440923.6786,1,1,1.0000,0.0000,1.42056,0.12950,-2.67000,1.01785,1.56182,0.11673,-0.13240,-0.45932,0.06808,,,,,,,,,,,,,,,,,,,,,,,,,,0,0,0,0,0
4.3402,1783440923.6790,1,1,1.0000,0.0000,1.42056,0.12950,-2.67000,1.01785,1.56182,0.11673,-0.13240,-0.45932,0.06808,,,,,,,,,,,,,,,,,,,,,,,,,,0,0,0,0,0
4.3406,1783440923.6794,1,1,1.0000,0.0000,1.42056,0.12950,-2.67000,1.01785,1.56182,0.11673,-0.13240,-0.45932,0.06808,,,,,,,,,,,,,,,,,,,,,,,,,,0,0,0,0,0
4.3411,1783440923.6798,1,1,1.0000,0.0000,1.42056,0.12950,-2.67000,1.01785,1.56182,0.11673,-0.13240,-0.45932,0.06808,,,,,,,,,,,,,,,,,,,,,,,,,,0,0,0,0,0
4.3578,1783440923.6965,1,1,1.0000,0.0000,1.42056,0.12940,-2.67004,1.01799,1.56182,0.11673,-0.13240,-0.45932,0.06804,,,,,,,,,,,,,,,,,,,,,,,,,,0,0,0,0,0
4.3582,1783440923.6970,1,1,1.0000,0.0000,1.42056,0.12940,-2.67004,1.01799,1.56182,0.11673,-0.13240,-0.45932,0.06804,,,,,,,,,,,,,,,,,,,,,,,,,,0,0,0,0,0
4.3590,1783440923.6978,1,1,1.0000,0.0000,1.42056,0.12934,-2.67005,1.01806,1.56182,0.11673,-0.13240,-0.45932,0.06802,,,,,,,,,,,,,,,,,,,,,,,,,,0,0,0,0,0
4.3686,1783440923.7073,1,1,1.0000,0.0000,1.42056,0.12921,-2.67009,1.01822,1.56182,0.11673,-0.13240,-0.45931,0.06798,,,,,,,,,,,,,,,,,,,,,,,,,,0,0,0,0,0
4.3689,1783440923.7077,1,1,1.0000,0.0000,1.42056,0.12921,-2.67009,1.01822,1.56182,0.11673,-0.13240,-0.45931,0.06798,,,,,,,,,,,,,,,,,,,,,,,,,,0,0,0,0,0
4.5795,1783440923.9183,1,1,1.0000,0.0000,1.42057,0.12346,-2.67151,1.02536,1.56183,0.11668,-0.13239,-0.45940,0.06612,,,,,,,,,,,,,,,,,,,,,,,,,,0,0,0,0,0
4.5800,1783440923.9188,1,1,1.0000,0.0000,1.42057,0.12346,-2.67151,1.02536,1.56183,0.11668,-0.13239,-0.45940,0.06612,,,,,,,,,,,,,,,,,,,,,,,,,,0,0,0,0,0
4.5806,1783440923.9194,1,1,1.0000,0.0000,1.42057,0.12346,-2.67151,1.02536,1.56183,0.11668,-0.13239,-0.45940,0.06612,,,,,,,,,,,,,,,,,,,,,,,,,,0,0,0,0,0
4.5809,1783440923.9197,1,1,1.0000,0.0000,1.42057,0.12346,-2.67151,1.02536,1.56183,0.11668,-0.13239,-0.45940,0.06612,,,,,,,,,,,,,,,,,,,,,,,,,,0,0,0,0,0
4.5813,1783440923.9201,1,1,1.0000,0.0000,1.42057,0.12346,-2.67151,1.02536,1.56183,0.11668,-0.13239,-0.45940,0.06612,,,,,,,,,,,,,,,,,,,,,,,,,,0,0,0,0,0
4.5816,1783440923.9204,1,1,1.0000,0.0000,1.42057,0.12346,-2.67151,1.02536,1.56183,0.11668,-0.13239,-0.45940,0.06612,,,,,,,,,,,,,,,,,,,,,,,,,,0,0,0,0,0
4.6121,1783440923.9509,1,1,1.0000,0.0000,1.42058,0.12337,-2.67151,1.02550,1.56183,0.11667,-0.13239,-0.45942,0.06611,,,,,,,,,,,,,,,,,,,,,,,,,,0,0,0,0,0
4.6126,1783440923.9514,1,1,1.0000,0.0000,1.42058,0.12337,-2.67151,1.02550,1.56183,0.11667,-0.13239,-0.45942,0.06611,,,,,,,,,,,,,,,,,,,,,,,,,,0,0,0,0,0
4.6131,1783440923.9519,1,1,1.0000,0.0000,1.42058,0.12337,-2.67151,1.02550,1.56183,0.11667,-0.13239,-0.45942,0.06611,,,,,,,,,,,,,,,,,,,,,,,,,,0,0,0,0,0
4.6136,1783440923.9524,1,1,1.0000,0.0000,1.42058,0.12337,-2.67151,1.02550,1.56183,0.11667,-0.13239,-0.45942,0.06611,,,,,,,,,,,,,,,,,,,,,,,,,,0,0,0,0,0
4.6801,1783440924.0189,1,1,1.0000,0.0000,1.42058,0.12271,-2.67169,1.02632,1.56183,0.11667,-0.13239,-0.45942,0.06589,,,,,,,,,,,,,,,,,,,,,,,,,,0,0,0,0,0
4.6806,1783440924.0194,1,1,1.0000,0.0000,1.42058,0.12271,-2.67169,1.02632,1.56183,0.11667,-0.13239,-0.45942,0.06589,,,,,,,,,,,,,,,,,,,,,,,,,,0,0,0,0,0
4.6817,1783440924.0205,1,1,1.0000,0.0000,1.42058,0.12271,-2.67169,1.02632,1.56183,0.11667,-0.13239,-0.45942,0.06589,,,,,,,,,,,,,,,,,,,,,,,,,,0,0,0,0,0
4.6819,1783440924.0207,1,1,1.0000,0.0000,1.42058,0.12271,-2.67169,1.02632,1.56183,0.11667,-0.13239,-0.45942,0.06589,,,,,,,,,,,,,,,,,,,,,,,,,,0,0,0,0,0
4.6822,1783440924.0210,1,1,1.0000,0.0000,1.42058,0.12271,-2.67169,1.02632,1.56183,0.11667,-0.13239,-0.45942,0.06589,,,,,,,,,,,,,,,,,,,,,,,,,,0,0,0,0,0
4.6831,1783440924.0218,1,1,1.0000,0.0000,1.42058,0.12259,-2.67172,1.02647,1.56183,0.11667,-0.13239,-0.45942,0.06585,,,,,,,,,,,,,,,,,,,,,,,,,,0,0,0,0,0
4.6833,1783440924.0221,1,1,1.0000,0.0000,1.42058,0.12259,-2.67172,1.02647,1.56183,0.11667,-0.13239,-0.45942,0.06585,,,,,,,,,,,,,,,,,,,,,,,,,,0,0,0,0,0
4.6837,1783440924.0225,1,1,1.0000,0.0000,1.42058,0.12259,-2.67172,1.02647,1.56183,0.11667,-0.13239,-0.45942,0.06585,,,,,,,,,,,,,,,,,,,,,,,,,,0,0,0,0,0
4.8025,1783440924.1413,1,1,1.0000,0.0000,1.42059,0.11916,-2.67256,1.03068,1.56185,0.11664,-0.13238,-0.45946,0.06474,,,,,,,,,,,,,,,,,,,,,,,,,,0,0,0,0,0
4.8033,1783440924.1421,1,1,1.0000,0.0000,1.42059,0.11905,-2.67258,1.03082,1.56185,0.11664,-0.13238,-0.45946,0.06471,,,,,,,,,,,,,,,,,,,,,,,,,,0,0,0,0,0
4.8036,1783440924.1423,1,1,1.0000,0.0000,1.42059,0.11905,-2.67258,1.03082,1.56185,0.11664,-0.13238,-0.45946,0.06471,,,,,,,,,,,,,,,,,,,,,,,,,,0,0,0,0,0
4.8040,1783440924.1428,1,1,1.0000,0.0000,1.42059,0.11905,-2.67258,1.03082,1.56185,0.11664,-0.13238,-0.45946,0.06471,,,,,,,,,,,,,,,,,,,,,,,,,,0,0,0,0,0
4.8043,1783440924.1431,1,1,1.0000,0.0000,1.42059,0.11905,-2.67258,1.03082,1.56185,0.11664,-0.13238,-0.45946,0.06471,,,,,,,,,,,,,,,,,,,,,,,,,,0,0,0,0,0
4.8047,1783440924.1435,1,1,1.0000,0.0000,1.42059,0.11905,-2.67258,1.03082,1.56185,0.11664,-0.13238,-0.45946,0.06471,,,,,,,,,,,,,,,,,,,,,,,,,,0,0,0,0,0
4.8050,1783440924.1438,1,1,1.0000,0.0000,1.42059,0.11905,-2.67258,1.03082,1.56185,0.11664,-0.13238,-0.45946,0.06471,,,,,,,,,,,,,,,,,,,,,,,,,,0,0,0,0,0
4.8054,1783440924.1442,1,1,1.0000,0.0000,1.42059,0.11905,-2.67258,1.03082,1.56185,0.11664,-0.13238,-0.45946,0.06471,,,,,,,,,,,,,,,,,,,,,,,,,,0,0,0,0,0
4.8062,1783440924.1450,1,1,1.0000,0.0000,1.42059,0.11905,-2.67258,1.03082,1.56185,0.11664,-0.13238,-0.45946,0.06471,,,,,,,,,,,,,,,,,,,,,,,,,,0,0,0,0,0
4.9488,1783440924.2876,1,1,1.0000,0.0000,1.42060,0.11643,-2.67322,1.03412,1.56188,0.11661,-0.13237,-0.45951,0.06388,,,,,,,,,,,,,,,,,,,,,,,,,,0,0,0,0,0
4.9492,1783440924.2880,1,1,1.0000,0.0000,1.42060,0.11643,-2.67322,1.03412,1.56188,0.11661,-0.13237,-0.45951,0.06388,,,,,,,,,,,,,,,,,,,,,,,,,,0,0,0,0,0
5.0288,1783440924.3676,1,1,1.0000,0.0000,1.42060,0.11413,-2.67376,1.03693,1.56189,0.11660,-0.13236,-0.45954,0.06314,,,,,,,,,,,,,,,,,,,,,,,,,,0,0,0,0,0
5.0502,1783440924.3890,1,1,1.0000,0.0000,1.42061,0.11362,-2.67388,1.03755,1.56189,0.11659,-0.13236,-0.45954,0.06298,,,,,,,,,,,,,,,,,,,,,,,,,,0,0,0,0,0
5.0735,1783440924.4123,1,1,1.0000,0.0000,1.42061,0.11301,-2.67402,1.03830,1.56189,0.11659,-0.13236,-0.45955,0.06279,,,,,,,,,,,,,,,,,,,,,,,,,,0,0,0,0,0
5.0757,1783440924.4145,1,1,1.0000,0.0000,1.42061,0.11285,-2.67406,1.03850,1.56189,0.11658,-0.13236,-0.45956,0.06274,,,,,,,,,,,,,,,,,,,,,,,,,,0,0,0,0,0
5.0838,1783440924.4226,1,1,1.0000,0.0000,1.42061,0.11244,-2.67416,1.03900,1.56189,0.11658,-0.13236,-0.45956,0.06261,,,,,,,,,,,,,,,,,,,,,,,,,,0,0,0,0,0
5.0843,1783440924.4231,1,1,1.0000,0.0000,1.42061,0.11244,-2.67416,1.03900,1.56189,0.11658,-0.13236,-0.45956,0.06261,,,,,,,,,,,,,,,,,,,,,,,,,,0,0,0,0,0
5.0852,1783440924.4240,1,1,1.0000,0.0000,1.42061,0.11244,-2.67416,1.03900,1.56189,0.11658,-0.13236,-0.45956,0.06261,,,,,,,,,,,,,,,,,,,,,,,,,,0,0,0,0,0
5.0856,1783440924.4244,1,1,1.0000,0.0000,1.42061,0.11244,-2.67416,1.03900,1.56189,0.11658,-0.13236,-0.45956,0.06261,,,,,,,,,,,,,,,,,,,,,,,,,,0,0,0,0,0
5.0896,1783440924.4283,1,1,1.0000,0.0000,1.42061,0.11221,-2.67421,1.03928,1.56189,0.11658,-0.13236,-0.45957,0.06254,,,,,,,,,,,,,,,,,,,,,,,,,,0,0,0,0,0
5.0905,1783440924.4293,1,1,1.0000,0.0000,1.42061,0.11221,-2.67421,1.03928,1.56189,0.11658,-0.13236,-0.45957,0.06254,,,,,,,,,,,,,,,,,,,,,,,,,,0,0,0,0,0
5.0919,1783440924.4306,1,1,1.0000,0.0000,1.42061,0.11221,-2.67421,1.03928,1.56189,0.11658,-0.13236,-0.45957,0.06254,,,,,,,,,,,,,,,,,,,,,,,,,,0,0,0,0,0
5.0946,1783440924.4334,1,1,1.0000,0.0000,1.42061,0.11221,-2.67421,1.03928,1.56189,0.11658,-0.13236,-0.45957,0.06254,,,,,,,,,,,,,,,,,,,,,,,,,,0,0,0,0,0
5.0954,1783440924.4342,1,1,1.0000,0.0000,1.42061,0.11220,-2.67421,1.03930,1.56189,0.11658,-0.13236,-0.45957,0.06253,,,,,,,,,,,,,,,,,,,,,,,,,,0,0,0,0,0
5.0996,1783440924.4384,1,1,1.0000,0.0000,1.42061,0.11220,-2.67421,1.03930,1.56189,0.11658,-0.13236,-0.45957,0.06253,,,,,,,,,,,,,,,,,,,,,,,,,,0,0,0,0,0
5.1000,1783440924.4388,1,1,1.0000,0.0000,1.42061,0.11215,-2.67423,1.03937,1.56189,0.11658,-0.13236,-0.45957,0.06252,,,,,,,,,,,,,,,,,,,,,,,,,,0,0,0,0,0
5.1067,1783440924.4455,1,1,1.0000,0.0000,1.42061,0.11207,-2.67424,1.03947,1.56189,0.11658,-0.13236,-0.45957,0.06249,,,,,,,,,,,,,,,,,,,,,,,,,,0,0,0,0,0
5.1073,1783440924.4461,1,1,1.0000,0.0000,1.42061,0.11207,-2.67424,1.03947,1.56189,0.11658,-0.13236,-0.45957,0.06249,,,,,,,,,,,,,,,,,,,,,,,,,,0,0,0,0,0
5.1078,1783440924.4466,1,1,1.0000,0.0000,1.42061,0.11196,-2.67426,1.03959,1.56189,0.11658,-0.13236,-0.45958,0.06246,,,,,,,,,,,,,,,,,,,,,,,,,,0,0,0,0,0
5.1080,1783440924.4468,1,1,1.0000,0.0000,1.42061,0.11196,-2.67426,1.03959,1.56189,0.11658,-0.13236,-0.45958,0.06246,,,,,,,,,,,,,,,,,,,,,,,,,,0,0,0,0,0
5.1091,1783440924.4479,1,1,1.0000,0.0000,1.42061,0.11196,-2.67426,1.03959,1.56189,0.11658,-0.13236,-0.45958,0.06246,,,,,,,,,,,,,,,,,,,,,,,,,,0,0,0,0,0
5.1096,1783440924.4483,1,1,1.0000,0.0000,1.42061,0.11196,-2.67426,1.03959,1.56189,0.11658,-0.13236,-0.45958,0.06246,,,,,,,,,,,,,,,,,,,,,,,,,,0,0,0,0,0
5.1099,1783440924.4487,1,1,1.0000,0.0000,1.42061,0.11196,-2.67426,1.03959,1.56189,0.11658,-0.13236,-0.45958,0.06246,,,,,,,,,,,,,,,,,,,,,,,,,,0,0,0,0,0
5.1106,1783440924.4494,1,1,1.0000,0.0000,1.42061,0.11196,-2.67426,1.03959,1.56189,0.11658,-0.13236,-0.45958,0.06246,,,,,,,,,,,,,,,,,,,,,,,,,,0,0,0,0,0
5.1110,1783440924.4498,1,1,1.0000,0.0000,1.42061,0.11196,-2.67426,1.03959,1.56189,0.11658,-0.13236,-0.45958,0.06246,,,,,,,,,,,,,,,,,,,,,,,,,,0,0,0,0,0
5.1135,1783440924.4523,1,1,1.0000,0.0000,1.42061,0.11184,-2.67429,1.03974,1.56189,0.11658,-0.13236,-0.45958,0.06242,,,,,,,,,,,,,,,,,,,,,,,,,,0,0,0,0,0
5.1140,1783440924.4527,1,1,1.0000,0.0000,1.42061,0.11184,-2.67429,1.03974,1.56189,0.11658,-0.13236,-0.45958,0.06242,,,,,,,,,,,,,,,,,,,,,,,,,,0,0,0,0,0
5.1278,1783440924.4666,1,1,1.0000,0.0000,1.42061,0.11142,-2.67437,1.04027,1.56189,0.11657,-0.13236,-0.45960,0.06230,,,,,,,,,,,,,,,,,,,,,,,,,,0,0,0,0,0
5.1283,1783440924.4671,1,1,1.0000,0.0000,1.42061,0.11142,-2.67437,1.04027,1.56189,0.11657,-0.13236,-0.45960,0.06230,,,,,,,,,,,,,,,,,,,,,,,,,,0,0,0,0,0
5.1338,1783440924.4726,1,1,1.0000,0.0000,1.42061,0.11141,-2.67438,1.04028,1.56189,0.11657,-0.13236,-0.45960,0.06230,,,,,,,,,,,,,,,,,,,,,,,,,,0,0,0,0,0
5.1342,1783440924.4730,1,1,1.0000,0.0000,1.42061,0.11141,-2.67438,1.04028,1.56189,0.11657,-0.13236,-0.45960,0.06230,,,,,,,,,,,,,,,,,,,,,,,,,,0,0,0,0,0
5.1354,1783440924.4742,1,1,1.0000,0.0000,1.42061,0.11141,-2.67438,1.04028,1.56189,0.11657,-0.13236,-0.45960,0.06230,,,,,,,,,,,,,,,,,,,,,,,,,,0,0,0,0,0
5.1359,1783440924.4747,1,1,1.0000,0.0000,1.42061,0.11139,-2.67438,1.04031,1.56189,0.11657,-0.13235,-0.45960,0.06229,,,,,,,,,,,,,,,,,,,,,,,,,,0,0,0,0,0
5.1361,1783440924.4749,1,1,1.0000,0.0000,1.42061,0.11139,-2.67438,1.04031,1.56189,0.11657,-0.13235,-0.45960,0.06229,,,,,,,,,,,,,,,,,,,,,,,,,,0,0,0,0,0
5.1363,1783440924.4751,1,1,1.0000,0.0000,1.42061,0.11139,-2.67438,1.04031,1.56189,0.11657,-0.13235,-0.45960,0.06229,,,,,,,,,,,,,,,,,,,,,,,,,,0,0,0,0,0
5.1369,1783440924.4757,1,1,1.0000,0.0000,1.42061,0.11139,-2.67438,1.04031,1.56189,0.11657,-0.13235,-0.45960,0.06229,,,,,,,,,,,,,,,,,,,,,,,,,,0,0,0,0,0
5.1376,1783440924.4764,1,1,1.0000,0.0000,1.42061,0.11139,-2.67438,1.04031,1.56189,0.11657,-0.13235,-0.45960,0.06229,,,,,,,,,,,,,,,,,,,,,,,,,,0,0,0,0,0
5.1380,1783440924.4768,1,1,1.0000,0.0000,1.42061,0.11139,-2.67438,1.04031,1.56189,0.11657,-0.13235,-0.45960,0.06229,,,,,,,,,,,,,,,,,,,,,,,,,,0,0,0,0,0
5.1384,1783440924.4772,1,1,1.0000,0.0000,1.42061,0.11139,-2.67438,1.04031,1.56189,0.11657,-0.13235,-0.45960,0.06229,,,,,,,,,,,,,,,,,,,,,,,,,,0,0,0,0,0
5.1400,1783440924.4788,1,1,1.0000,0.0000,1.42061,0.11135,-2.67439,1.04037,1.56189,0.11657,-0.13235,-0.45960,0.06228,,,,,,,,,,,,,,,,,,,,,,,,,,0,0,0,0,0
5.1405,1783440924.4793,1,1,1.0000,0.0000,1.42061,0.11135,-2.67439,1.04037,1.56189,0.11657,-0.13235,-0.45960,0.06228,,,,,,,,,,,,,,,,,,,,,,,,,,0,0,0,0,0
5.1442,1783440924.4830,1,1,1.0000,0.0000,1.42061,0.11130,-2.67440,1.04043,1.56190,0.11657,-0.13235,-0.45960,0.06226,,,,,,,,,,,,,,,,,,,,,,,,,,0,0,0,0,0
5.1529,1783440924.4917,1,1,1.0000,0.0000,1.42061,0.11124,-2.67441,1.04051,1.56190,0.11657,-0.13235,-0.45961,0.06225,,,,,,,,,,,,,,,,,,,,,,,,,,0,0,0,0,0
5.1642,1783440924.5030,1,1,1.0000,0.0000,1.42061,0.11116,-2.67443,1.04061,1.56190,0.11657,-0.13235,-0.45961,0.06222,,,,,,,,,,,,,,,,,,,,,,,,,,0,0,0,0,0
5.1761,1783440924.5149,1,1,1.0000,0.0000,1.42061,0.11096,-2.67449,1.04087,1.56190,0.11657,-0.13235,-0.45961,0.06216,,,,,,,,,,,,,,,,,,,,,,,,,,0,0,0,0,0
5.1854,1783440924.5242,1,1,1.0000,0.0000,1.42062,0.11088,-2.67451,1.04097,1.56190,0.11657,-0.13235,-0.45961,0.06213,,,,,,,,,,,,,,,,,,,,,,,,,,0,0,0,0,0
5.1925,1783440924.5313,1,1,1.0000,0.0000,1.42062,0.11084,-2.67452,1.04103,1.56190,0.11657,-0.13235,-0.45961,0.06212,,,,,,,,,,,,,,,,,,,,,,,,,,0,0,0,0,0
5.2028,1783440924.5415,1,1,1.0000,0.0000,1.42062,0.11071,-2.67456,1.04118,1.56190,0.11656,-0.13235,-0.45961,0.06207,,,,,,,,,,,,,,,,,,,,,,,,,,0,0,0,0,0
5.2167,1783440924.5555,1,1,1.0000,0.0000,1.42062,0.11055,-2.67460,1.04138,1.56190,0.11656,-0.13235,-0.45961,0.06202,,,,,,,,,,,,,,,,,,,,,,,,,,0,0,0,0,0
5.2271,1783440924.5659,1,1,1.0000,0.0000,1.42062,0.11034,-2.67465,1.04163,1.56190,0.11656,-0.13235,-0.45961,0.06195,,,,,,,,,,,,,,,,,,,,,,,,,,0,0,0,0,0
5.2366,1783440924.5754,1,1,1.0000,0.0000,1.42062,0.10986,-2.67476,1.04222,1.56190,0.11656,-0.13235,-0.45961,0.06180,,,,,,,,,,,,,,,,,,,,,,,,,,0,0,0,0,0
5.2499,1783440924.5887,1,1,1.0000,0.0000,1.42062,0.10965,-2.67482,1.04247,1.56190,0.11656,-0.13235,-0.45961,0.06173,,,,,,,,,,,,,,,,,,,,,,,,,,0,0,0,0,0
5.2504,1783440924.5892,1,1,1.0000,0.0000,1.42062,0.10965,-2.67482,1.04247,1.56190,0.11656,-0.13235,-0.45961,0.06173,,,,,,,,,,,,,,,,,,,,,,,,,,0,0,0,0,0
5.2562,1783440924.5950,1,1,1.0000,0.0000,1.42062,0.10949,-2.67485,1.04267,1.56190,0.11656,-0.13235,-0.45961,0.06168,,,,,,,,,,,,,,,,,,,,,,,,,,0,0,0,0,0
5.2783,1783440924.6171,1,1,1.0000,0.0000,1.42062,0.10880,-2.67501,1.04352,1.56190,0.11655,-0.13235,-0.45962,0.06146,,,,,,,,,,,,,,,,,,,,,,,,,,0,0,0,0,0
5.2787,1783440924.6175,1,1,1.0000,0.0000,1.42062,0.10880,-2.67501,1.04352,1.56190,0.11655,-0.13235,-0.45962,0.06146,,,,,,,,,,,,,,,,,,,,,,,,,,0,0,0,0,0
5.2790,1783440924.6178,1,1,1.0000,0.0000,1.42062,0.10880,-2.67501,1.04352,1.56190,0.11655,-0.13235,-0.45962,0.06146,,,,,,,,,,,,,,,,,,,,,,,,,,0,0,0,0,0
5.2865,1783440924.6253,1,1,1.0000,0.0000,1.42062,0.10868,-2.67504,1.04365,1.56190,0.11655,-0.13235,-0.45962,0.06142,,,,,,,,,,,,,,,,,,,,,,,,,,0,0,0,0,0
5.2958,1783440924.6346,1,1,1.0000,0.0000,1.42062,0.10817,-2.67516,1.04427,1.56190,0.11655,-0.13235,-0.45963,0.06126,,,,,,,,,,,,,,,,,,,,,,,,,,0,0,0,0,0
5.2962,1783440924.6350,1,1,1.0000,0.0000,1.42062,0.10817,-2.67516,1.04427,1.56190,0.11655,-0.13235,-0.45963,0.06126,,,,,,,,,,,,,,,,,,,,,,,,,,0,0,0,0,0
5.3124,1783440924.6512,1,1,1.0000,0.0000,1.42062,0.10787,-2.67523,1.04464,1.56190,0.11654,-0.13235,-0.45963,0.06117,,,,,,,,,,,,,,,,,,,,,,,,,,0,0,0,0,0
5.3129,1783440924.6517,1,1,1.0000,0.0000,1.42062,0.10787,-2.67523,1.04464,1.56190,0.11654,-0.13235,-0.45963,0.06117,,,,,,,,,,,,,,,,,,,,,,,,,,0,0,0,0,0
5.3463,1783440924.6851,1,1,1.0000,0.0000,1.42063,0.10663,-2.67551,1.04614,1.56190,0.11653,-0.13235,-0.45965,0.06077,,,,,,,,,,,,,,,,,,,,,,,,,,0,0,0,0,0
5.3478,1783440924.6866,1,1,1.0000,0.0000,1.42063,0.10648,-2.67555,1.04633,1.56190,0.11653,-0.13235,-0.45965,0.06073,,,,,,,,,,,,,,,,,,,,,,,,,,0,0,0,0,0
5.3482,1783440924.6870,1,1,1.0000,0.0000,1.42063,0.10648,-2.67555,1.04633,1.56190,0.11653,-0.13235,-0.45965,0.06073,,,,,,,,,,,,,,,,,,,,,,,,,,0,0,0,0,0
5.3490,1783440924.6878,1,1,1.0000,0.0000,1.42063,0.10648,-2.67555,1.04633,1.56190,0.11653,-0.13235,-0.45965,0.06073,,,,,,,,,,,,,,,,,,,,,,,,,,0,0,0,0,0
5.3599,1783440924.6987,1,1,1.0000,0.0000,1.42063,0.10589,-2.67568,1.04706,1.56190,0.11653,-0.13235,-0.45966,0.06054,,,,,,,,,,,,,,,,,,,,,,,,,,0,0,0,0,0
5.3705,1783440924.7093,1,1,1.0000,0.0000,1.42063,0.10587,-2.67569,1.04708,1.56190,0.11653,-0.13235,-0.45966,0.06053,,,,,,,,,,,,,,,,,,,,,,,,,,0,0,0,0,0
5.3807,1783440924.7195,1,1,1.0000,0.0000,1.42063,0.10564,-2.67573,1.04738,1.56190,0.11653,-0.13235,-0.45967,0.06046,,,,,,,,,,,,,,,,,,,,,,,,,,0,0,0,0,0
5.3881,1783440924.7269,1,1,1.0000,0.0000,1.42063,0.10538,-2.67579,1.04770,1.56190,0.11652,-0.13235,-0.45968,0.06039,,,,,,,,,,,,,,,,,,,,,,,,,,0,0,0,0,0
5.3961,1783440924.7349,1,1,1.0000,0.0000,1.42063,0.10509,-2.67584,1.04806,1.56190,0.11652,-0.13234,-0.45969,0.06030,,,,,,,,,,,,,,,,,,,,,,,,,,0,0,0,0,0
5.3966,1783440924.7354,1,1,1.0000,0.0000,1.42063,0.10509,-2.67584,1.04806,1.56190,0.11652,-0.13234,-0.45969,0.06030,,,,,,,,,,,,,,,,,,,,,,,,,,0,0,0,0,0
5.4072,1783440924.7460,1,1,1.0000,0.0000,1.42063,0.10480,-2.67589,1.04842,1.56190,0.11652,-0.13234,-0.45971,0.06022,,,,,,,,,,,,,,,,,,,,,,,,,,0,0,0,0,0
5.4166,1783440924.7554,1,1,1.0000,0.0000,1.42064,0.10448,-2.67594,1.04884,1.56190,0.11651,-0.13234,-0.45974,0.06014,,,,,,,,,,,,,,,,,,,,,,,,,,0,0,0,0,0
5.4280,1783440924.7668,1,1,1.0000,0.0000,1.42064,0.10441,-2.67595,1.04892,1.56190,0.11651,-0.13234,-0.45974,0.06012,,,,,,,,,,,,,,,,,,,,,,,,,,0,0,0,0,0
5.4283,1783440924.7671,1,1,1.0000,0.0000,1.42064,0.10441,-2.67595,1.04892,1.56190,0.11651,-0.13234,-0.45974,0.06012,,,,,,,,,,,,,,,,,,,,,,,,,,0,0,0,0,0
5.4409,1783440924.7797,1,1,1.0000,0.0000,1.42064,0.10437,-2.67597,1.04898,1.56190,0.11651,-0.13234,-0.45974,0.06010,,,,,,,,,,,,,,,,,,,,,,,,,,0,0,0,0,0
5.4473,1783440924.7861,1,1,1.0000,0.0000,1.42064,0.10434,-2.67598,1.04902,1.56190,0.11651,-0.13234,-0.45974,0.06010,,,,,,,,,,,,,,,,,,,,,,,,,,0,0,0,0,0
5.4477,1783440924.7865,1,1,1.0000,0.0000,1.42064,0.10434,-2.67598,1.04902,1.56190,0.11651,-0.13234,-0.45974,0.06010,,,,,,,,,,,,,,,,,,,,,,,,,,0,0,0,0,0
5.4562,1783440924.7950,1,1,1.0000,0.0000,1.42064,0.10428,-2.67600,1.04910,1.56190,0.11651,-0.13234,-0.45973,0.06007,,,,,,,,,,,,,,,,,,,,,,,,,,0,0,0,0,0
5.4567,1783440924.7955,1,1,1.0000,0.0000,1.42064,0.10428,-2.67600,1.04910,1.56190,0.11651,-0.13234,-0.45973,0.06007,,,,,,,,,,,,,,,,,,,,,,,,,,0,0,0,0,0
5.4683,1783440924.8071,1,1,1.0000,0.0000,1.42064,0.10421,-2.67603,1.04919,1.56190,0.11651,-0.13234,-0.45973,0.06004,,,,,,,,,,,,,,,,,,,,,,,,,,0,0,0,0,0
5.4767,1783440924.8155,1,1,1.0000,0.0000,1.42064,0.10408,-2.67606,1.04934,1.56190,0.11651,-0.13234,-0.45973,0.06000,,,,,,,,,,,,,,,,,,,,,,,,,,0,0,0,0,0
5.4771,1783440924.8159,1,1,1.0000,0.0000,1.42064,0.10408,-2.67606,1.04934,1.56190,0.11651,-0.13234,-0.45973,0.06000,,,,,,,,,,,,,,,,,,,,,,,,,,0,0,0,0,0
5.4857,1783440924.8245,1,1,1.0000,0.0000,1.42064,0.10407,-2.67607,1.04936,1.56190,0.11651,-0.13234,-0.45973,0.06000,,,,,,,,,,,,,,,,,,,,,,,,,,0,0,0,0,0
5.4989,1783440924.8377,1,1,1.0000,0.0000,1.42064,0.10384,-2.67613,1.04964,1.56190,0.11651,-0.13234,-0.45972,0.05992,,,,,,,,,,,,,,,,,,,,,,,,,,0,0,0,0,0
5.5082,1783440924.8469,1,1,1.0000,0.0000,1.42064,0.10343,-2.67623,1.05014,1.56190,0.11651,-0.13234,-0.45972,0.05979,,,,,,,,,,,,,,,,,,,,,,,,,,0,0,0,0,0
5.5160,1783440924.8548,1,1,1.0000,0.0000,1.42064,0.10341,-2.67624,1.05016,1.56190,0.11651,-0.13234,-0.45972,0.05978,,,,,,,,,,,,,,,,,,,,,,,,,,0,0,0,0,0
5.5311,1783440924.8699,1,1,1.0000,0.0000,1.42064,0.10312,-2.67631,1.05052,1.56190,0.11650,-0.13234,-0.45972,0.05969,,,,,,,,,,,,,,,,,,,,,,,,,,0,0,0,0,0
5.5371,1783440924.8759,1,1,1.0000,0.0000,1.42064,0.10277,-2.67639,1.05094,1.56190,0.11650,-0.13234,-0.45972,0.05958,,,,,,,,,,,,,,,,,,,,,,,,,,0,0,0,0,0
5.5460,1783440924.8848,1,1,1.0000,0.0000,1.42064,0.10257,-2.67643,1.05118,1.56190,0.11650,-0.13234,-0.45973,0.05951,,,,,,,,,,,,,,,,,,,,,,,,,,0,0,0,0,0
5.5561,1783440924.8949,1,1,1.0000,0.0000,1.42064,0.10233,-2.67649,1.05147,1.56190,0.11650,-0.13234,-0.45973,0.05944,,,,,,,,,,,,,,,,,,,,,,,,,,0,0,0,0,0
5.5658,1783440924.9045,1,1,1.0000,0.0000,1.42064,0.10196,-2.67658,1.05193,1.56190,0.11649,-0.13234,-0.45973,0.05932,,,,,,,,,,,,,,,,,,,,,,,,,,0,0,0,0,0
5.5777,1783440924.9164,1,1,1.0000,0.0000,1.42064,0.10182,-2.67661,1.05209,1.56190,0.11649,-0.13234,-0.45973,0.05927,,,,,,,,,,,,,,,,,,,,,,,,,,0,0,0,0,0
5.6014,1783440924.9402,1,1,1.0000,0.0000,1.42065,0.10035,-2.67694,1.05386,1.56191,0.11648,-0.13234,-0.45975,0.05881,,,,,,,,,,,,,,,,,,,,,,,,,,0,0,0,0,0
5.6026,1783440924.9414,1,1,1.0000,0.0000,1.42065,0.10035,-2.67694,1.05386,1.56191,0.11648,-0.13234,-0.45975,0.05881,,,,,,,,,,,,,,,,,,,,,,,,,,0,0,0,0,0
5.6075,1783440924.9463,1,1,1.0000,0.0000,1.42065,0.10035,-2.67694,1.05386,1.56191,0.11648,-0.13234,-0.45975,0.05881,,,,,,,,,,,,,,,,,,,,,,,,,,0,0,0,0,0
5.6566,1783440924.9954,1,1,1.0000,0.0000,1.42065,0.09913,-2.67721,1.05537,1.56191,0.11647,-0.13234,-0.45977,0.05843,,,,,,,,,,,,,,,,,,,,,,,,,,0,0,0,0,0
5.6570,1783440924.9958,1,1,1.0000,0.0000,1.42065,0.09913,-2.67721,1.05537,1.56191,0.11647,-0.13234,-0.45977,0.05843,,,,,,,,,,,,,,,,,,,,,,,,,,0,0,0,0,0
5.6592,1783440924.9979,1,1,1.0000,0.0000,1.42065,0.09913,-2.67721,1.05537,1.56191,0.11647,-0.13234,-0.45977,0.05843,,,,,,,,,,,,,,,,,,,,,,,,,,0,0,0,0,0
5.6595,1783440924.9982,1,1,1.0000,0.0000,1.42065,0.09913,-2.67721,1.05537,1.56191,0.11647,-0.13234,-0.45977,0.05843,,,,,,,,,,,,,,,,,,,,,,,,,,0,0,0,0,0
5.6601,1783440924.9989,1,1,1.0000,0.0000,1.42065,0.09899,-2.67724,1.05554,1.56191,0.11647,-0.13234,-0.45978,0.05839,,,,,,,,,,,,,,,,,,,,,,,,,,0,0,0,0,0
5.6604,1783440924.9992,1,1,1.0000,0.0000,1.42065,0.09899,-2.67724,1.05554,1.56191,0.11647,-0.13234,-0.45978,0.05839,,,,,,,,,,,,,,,,,,,,,,,,,,0,0,0,0,0
5.6614,1783440925.0002,1,1,1.0000,0.0000,1.42065,0.09899,-2.67724,1.05554,1.56191,0.11647,-0.13234,-0.45978,0.05839,,,,,,,,,,,,,,,,,,,,,,,,,,0,0,0,0,0
5.6618,1783440925.0006,1,1,1.0000,0.0000,1.42065,0.09899,-2.67724,1.05554,1.56191,0.11647,-0.13234,-0.45978,0.05839,,,,,,,,,,,,,,,,,,,,,,,,,,0,0,0,0,0
5.6654,1783440925.0042,1,1,1.0000,0.0000,1.42065,0.09885,-2.67727,1.05571,1.56191,0.11647,-0.13234,-0.45978,0.05835,,,,,,,,,,,,,,,,,,,,,,,,,,0,0,0,0,0
5.6658,1783440925.0046,1,1,1.0000,0.0000,1.42065,0.09885,-2.67727,1.05571,1.56191,0.11647,-0.13234,-0.45978,0.05835,,,,,,,,,,,,,,,,,,,,,,,,,,0,0,0,0,0
5.6774,1783440925.0162,1,1,1.0000,0.0000,1.42065,0.09843,-2.67735,1.05624,1.56191,0.11647,-0.13233,-0.45980,0.05822,,,,,,,,,,,,,,,,,,,,,,,,,,0,0,0,0,0
5.6888,1783440925.0276,1,1,1.0000,0.0000,1.42066,0.09809,-2.67742,1.05666,1.56191,0.11646,-0.13233,-0.45981,0.05813,,,,,,,,,,,,,,,,,,,,,,,,,,0,0,0,0,0
5.6954,1783440925.0342,1,1,1.0000,0.0000,1.42066,0.09809,-2.67742,1.05666,1.56191,0.11646,-0.13233,-0.45981,0.05813,,,,,,,,,,,,,,,,,,,,,,,,,,0,0,0,0,0
5.6960,1783440925.0348,1,1,1.0000,0.0000,1.42066,0.09809,-2.67742,1.05667,1.56191,0.11646,-0.13233,-0.45981,0.05812,,,,,,,,,,,,,,,,,,,,,,,,,,0,0,0,0,0
5.7058,1783440925.0445,1,1,1.0000,0.0000,1.42066,0.09806,-2.67742,1.05670,1.56191,0.11646,-0.13233,-0.45982,0.05812,,,,,,,,,,,,,,,,,,,,,,,,,,0,0,0,0,0
5.7164,1783440925.0552,1,1,1.0000,0.0000,1.42066,0.09799,-2.67743,1.05680,1.56191,0.11646,-0.13233,-0.45982,0.05810,,,,,,,,,,,,,,,,,,,,,,,,,,0,0,0,0,0
5.7257,1783440925.0645,1,1,1.0000,0.0000,1.42066,0.09796,-2.67744,1.05684,1.56191,0.11646,-0.13233,-0.45982,0.05809,,,,,,,,,,,,,,,,,,,,,,,,,,0,0,0,0,0
5.7367,1783440925.0755,1,1,1.0000,0.0000,1.42066,0.09790,-2.67746,1.05692,1.56191,0.11646,-0.13233,-0.45982,0.05807,,,,,,,,,,,,,,,,,,,,,,,,,,0,0,0,0,0
5.7372,1783440925.0760,1,1,1.0000,0.0000,1.42066,0.09790,-2.67746,1.05692,1.56191,0.11646,-0.13233,-0.45982,0.05807,,,,,,,,,,,,,,,,,,,,,,,,,,0,0,0,0,0
5.7494,1783440925.0882,1,1,1.0000,0.0000,1.42066,0.09779,-2.67749,1.05706,1.56191,0.11646,-0.13233,-0.45982,0.05803,,,,,,,,,,,,,,,,,,,,,,,,,,0,0,0,0,0
5.7570,1783440925.0958,1,1,1.0000,0.0000,1.42066,0.09773,-2.67751,1.05713,1.56191,0.11646,-0.13233,-0.45982,0.05801,,,,,,,,,,,,,,,,,,,,,,,,,,0,0,0,0,0
5.7659,1783440925.1047,1,1,1.0000,0.0000,1.42066,0.09757,-2.67755,1.05732,1.56191,0.11646,-0.13233,-0.45981,0.05796,,,,,,,,,,,,,,,,,,,,,,,,,,0,0,0,0,0
5.7767,1783440925.1155,1,1,1.0000,0.0000,1.42066,0.09721,-2.67765,1.05776,1.56191,0.11645,-0.13233,-0.45981,0.05784,,,,,,,,,,,,,,,,,,,,,,,,,,0,0,0,0,0
5.7857,1783440925.1245,1,1,1.0000,0.0000,1.42066,0.09706,-2.67768,1.05794,1.56191,0.11645,-0.13233,-0.45981,0.05779,,,,,,,,,,,,,,,,,,,,,,,,,,0,0,0,0,0
5.7978,1783440925.1366,1,1,1.0000,0.0000,1.42066,0.09691,-2.67772,1.05812,1.56191,0.11645,-0.13233,-0.45981,0.05774,,,,,,,,,,,,,,,,,,,,,,,,,,0,0,0,0,0
5.8285,1783440925.1673,1,1,1.0000,0.0000,1.42066,0.09610,-2.67790,1.05909,1.56191,0.11645,-0.13233,-0.45982,0.05749,,,,,,,,,,,,,,,,,,,,,,,,,,0,0,0,0,0
5.8293,1783440925.1681,1,1,1.0000,0.0000,1.42066,0.09610,-2.67790,1.05909,1.56191,0.11645,-0.13233,-0.45982,0.05749,,,,,,,,,,,,,,,,,,,,,,,,,,0,0,0,0,0
5.8296,1783440925.1684,1,1,1.0000,0.0000,1.42066,0.09610,-2.67790,1.05909,1.56191,0.11645,-0.13233,-0.45982,0.05749,,,,,,,,,,,,,,,,,,,,,,,,,,0,0,0,0,0
