Martins-Lucaas/twinforge/sensors/Data/20260704_145522__samples.csv
t_rel_s,t_unix,cycle,phase,setpoint_n,force_net_n,q1,q2,q3,q4,q5,q6,tcp_x,tcp_y,tcp_z,taxel_0,taxel_1,taxel_2,taxel_3,taxel_4,taxel_5,taxel_6,taxel_7,taxel_8,taxel_9,taxel_10,taxel_11,taxel_12,taxel_13,taxel_14,taxel_15,taxel_16,taxel_17,taxel_18,taxel_19,taxel_20,taxel_21,taxel_22,taxel_23,taxel_24,n_RA,n_SA,cn_mm,cn_ra,cn_sa
0.0304,1783187722.5992,1,0,1.0000,0.0000,1.44682,0.23328,-2.77748,0.97337,1.57080,0.00000,-0.14512,-0.38003,0.04653,,,,,,,,,,,,,,,,,,,,,,,,,,0,0,0,0,0
0.0308,1783187722.5997,1,0,1.0000,0.0000,1.44682,0.23328,-2.77748,0.97337,1.57080,0.00000,-0.14512,-0.38003,0.04653,,,,,,,,,,,,,,,,,,,,,,,,,,0,0,0,0,0
0.0375,1783187722.6064,1,0,1.0000,0.0000,1.44682,0.23328,-2.77748,0.97337,1.57080,0.00000,-0.14512,-0.38003,0.04653,,,,,,,,,,,,,,,,,,,,,,,,,,0,0,0,0,0
0.0384,1783187722.6072,1,0,1.0000,0.0000,1.44682,0.23328,-2.77748,0.97337,1.57080,0.00000,-0.14512,-0.38003,0.04653,,,,,,,,,,,,,,,,,,,,,,,,,,0,0,0,0,0
0.0434,1783187722.6122,1,0,1.0000,0.0000,1.44682,0.23328,-2.77748,0.97337,1.57080,0.00000,-0.14512,-0.38003,0.04653,,,,,,,,,,,,,,,,,,,,,,,,,,0,0,0,0,0
0.0583,1783187722.6271,1,0,1.0000,0.0000,1.44682,0.23328,-2.77748,0.97337,1.57080,0.00000,-0.14512,-0.38003,0.04653,,,,,,,,,,,,,,,,,,,,,,,,,,0,0,0,0,0
0.0677,1783187722.6365,1,0,1.0000,0.0000,1.44682,0.23328,-2.77748,0.97337,1.57080,0.00000,-0.14512,-0.38003,0.04653,,,,,,,,,,,,,,,,,,,,,,,,,,0,0,0,0,0
0.0680,1783187722.6368,1,0,1.0000,0.0000,1.44682,0.23328,-2.77748,0.97337,1.57080,0.00000,-0.14512,-0.38003,0.04653,,,,,,,,,,,,,,,,,,,,,,,,,,0,0,0,0,0
0.0736,1783187722.6425,1,0,1.0000,0.0000,1.44682,0.23328,-2.77748,0.97337,1.57080,0.00000,-0.14512,-0.38003,0.04653,,,,,,,,,,,,,,,,,,,,,,,,,,0,0,0,0,0
0.0843,1783187722.6532,1,0,1.0000,0.0000,1.44682,0.23328,-2.77748,0.97337,1.57080,0.00000,-0.14512,-0.38003,0.04653,,,,,,,,,,,,,,,,,,,,,,,,,,0,0,0,0,0
0.0987,1783187722.6676,1,0,1.0000,0.0000,1.44682,0.23328,-2.77748,0.97337,1.57080,0.00000,-0.14512,-0.38003,0.04653,,,,,,,,,,,,,,,,,,,,,,,,,,0,0,0,0,0
0.1039,1783187722.6728,1,0,1.0000,0.0000,1.44682,0.23328,-2.77748,0.97337,1.57080,0.00000,-0.14512,-0.38003,0.04653,,,,,,,,,,,,,,,,,,,,,,,,,,0,0,0,0,0
0.1043,1783187722.6732,1,0,1.0000,0.0000,1.44682,0.23328,-2.77748,0.97337,1.57080,0.00000,-0.14512,-0.38003,0.04653,,,,,,,,,,,,,,,,,,,,,,,,,,0,0,0,0,0
0.1291,1783187722.6980,1,0,1.0000,0.0000,1.44682,0.23328,-2.77748,0.97337,1.57080,0.00000,-0.14512,-0.38003,0.04653,,,,,,,,,,,,,,,,,,,,,,,,,,0,0,0,0,0
0.1294,1783187722.6983,1,0,1.0000,0.0000,1.44682,0.23328,-2.77748,0.97337,1.57080,0.00000,-0.14512,-0.38003,0.04653,,,,,,,,,,,,,,,,,,,,,,,,,,0,0,0,0,0
0.1331,1783187722.7020,1,0,1.0000,0.0000,1.44682,0.23328,-2.77748,0.97337,1.57080,0.00000,-0.14512,-0.38003,0.04653,,,,,,,,,,,,,,,,,,,,,,,,,,0,0,0,0,0
0.1335,1783187722.7023,1,0,1.0000,0.0000,1.44682,0.23328,-2.77748,0.97337,1.57080,0.00000,-0.14512,-0.38003,0.04653,,,,,,,,,,,,,,,,,,,,,,,,,,0,0,0,0,0
0.1432,1783187722.7121,1,0,1.0000,0.0000,1.44682,0.23328,-2.77748,0.97337,1.57080,0.00000,-0.14512,-0.38003,0.04653,,,,,,,,,,,,,,,,,,,,,,,,,,0,0,0,0,0
0.1437,1783187722.7126,1,0,1.0000,0.0000,1.44682,0.23328,-2.77748,0.97337,1.57080,0.00000,-0.14512,-0.38003,0.04653,,,,,,,,,,,,,,,,,,,,,,,,,,0,0,0,0,0
0.1559,1783187722.7248,1,0,1.0000,0.0000,1.44682,0.23328,-2.77748,0.97337,1.57080,0.00000,-0.14512,-0.38003,0.04653,,,,,,,,,,,,,,,,,,,,,,,,,,0,0,0,0,0
0.1659,1783187722.7348,1,0,1.0000,0.0000,1.44682,0.23328,-2.77748,0.97337,1.57080,0.00000,-0.14512,-0.38003,0.04653,,,,,,,,,,,,,,,,,,,,,,,,,,0,0,0,0,0
0.1666,1783187722.7355,1,0,1.0000,0.0000,1.44682,0.23328,-2.77748,0.97337,1.57080,0.00000,-0.14512,-0.38003,0.04653,,,,,,,,,,,,,,,,,,,,,,,,,,0,0,0,0,0
0.1757,1783187722.7445,1,0,1.0000,0.0000,1.44682,0.23328,-2.77748,0.97337,1.57080,0.00000,-0.14512,-0.38003,0.04653,,,,,,,,,,,,,,,,,,,,,,,,,,0,0,0,0,0
0.1854,1783187722.7543,1,0,1.0000,0.0000,1.44682,0.23328,-2.77748,0.97337,1.57080,0.00000,-0.14512,-0.38003,0.04653,,,,,,,,,,,,,,,,,,,,,,,,,,0,0,0,0,0
0.1858,1783187722.7547,1,0,1.0000,0.0000,1.44682,0.23328,-2.77748,0.97337,1.57080,0.00000,-0.14512,-0.38003,0.04653,,,,,,,,,,,,,,,,,,,,,,,,,,0,0,0,0,0
0.1944,1783187722.7633,1,0,1.0000,0.0000,1.44682,0.23328,-2.77748,0.97337,1.57080,0.00000,-0.14512,-0.38003,0.04653,,,,,,,,,,,,,,,,,,,,,,,,,,0,0,0,0,0
0.1947,1783187722.7636,1,0,1.0000,0.0000,1.44682,0.23328,-2.77748,0.97337,1.57080,0.00000,-0.14512,-0.38003,0.04653,,,,,,,,,,,,,,,,,,,,,,,,,,0,0,0,0,0
0.2052,1783187722.7740,1,0,1.0000,0.0000,1.44682,0.23328,-2.77748,0.97337,1.57080,0.00000,-0.14512,-0.38003,0.04653,,,,,,,,,,,,,,,,,,,,,,,,,,0,0,0,0,0
0.2136,1783187722.7825,1,0,1.0000,0.0000,1.44682,0.23328,-2.77748,0.97337,1.57080,0.00000,-0.14512,-0.38003,0.04653,,,,,,,,,,,,,,,,,,,,,,,,,,0,0,0,0,0
0.2244,1783187722.7932,1,0,1.0000,0.0000,1.44682,0.23328,-2.77748,0.97337,1.57080,0.00000,-0.14512,-0.38003,0.04653,,,,,,,,,,,,,,,,,,,,,,,,,,0,0,0,0,0
0.2344,1783187722.8033,1,0,1.0000,0.0000,1.44682,0.23328,-2.77748,0.97337,1.57080,0.00000,-0.14512,-0.38003,0.04653,,,,,,,,,,,,,,,,,,,,,,,,,,0,0,0,0,0
0.2348,1783187722.8036,1,0,1.0000,0.0000,1.44682,0.23328,-2.77748,0.97337,1.57080,0.00000,-0.14512,-0.38003,0.04653,,,,,,,,,,,,,,,,,,,,,,,,,,0,0,0,0,0
0.2441,1783187722.8129,1,0,1.0000,0.0000,1.44682,0.23328,-2.77748,0.97337,1.57080,0.00000,-0.14512,-0.38003,0.04653,,,,,,,,,,,,,,,,,,,,,,,,,,0,0,0,0,0
0.2545,1783187722.8233,1,0,1.0000,0.0000,1.44682,0.23328,-2.77748,0.97337,1.57080,0.00000,-0.14512,-0.38003,0.04653,,,,,,,,,,,,,,,,,,,,,,,,,,0,0,0,0,0
0.2692,1783187722.8381,1,0,1.0000,0.0000,1.44682,0.23328,-2.77748,0.97337,1.57080,0.00000,-0.14512,-0.38003,0.04653,,,,,,,,,,,,,,,,,,,,,,,,,,0,0,0,0,0
0.2784,1783187722.8472,1,0,1.0000,0.0000,1.44682,0.23328,-2.77748,0.97337,1.57080,0.00000,-0.14512,-0.38003,0.04653,,,,,,,,,,,,,,,,,,,,,,,,,,0,0,0,0,0
0.2877,1783187722.8566,1,0,1.0000,0.0000,1.44682,0.23328,-2.77748,0.97337,1.57080,0.00000,-0.14512,-0.38003,0.04653,,,,,,,,,,,,,,,,,,,,,,,,,,0,0,0,0,0
0.2962,1783187722.8651,1,0,1.0000,0.0000,1.44682,0.23328,-2.77748,0.97337,1.57080,0.00000,-0.14512,-0.38003,0.04653,,,,,,,,,,,,,,,,,,,,,,,,,,0,0,0,0,0
0.3034,1783187722.8723,1,0,1.0000,0.0000,1.44682,0.23328,-2.77748,0.97337,1.57080,0.00000,-0.14512,-0.38003,0.04653,,,,,,,,,,,,,,,,,,,,,,,,,,0,0,0,0,0
0.3158,1783187722.8847,1,0,1.0000,0.0000,1.44682,0.23328,-2.77748,0.97337,1.57080,0.00000,-0.14512,-0.38003,0.04653,,,,,,,,,,,,,,,,,,,,,,,,,,0,0,0,0,0
0.3273,1783187722.8961,1,0,1.0000,0.0000,1.44682,0.23328,-2.77748,0.97337,1.57080,0.00000,-0.14512,-0.38003,0.04653,,,,,,,,,,,,,,,,,,,,,,,,,,0,0,0,0,0
0.3335,1783187722.9023,1,0,1.0000,0.0000,1.44682,0.23328,-2.77748,0.97337,1.57080,0.00000,-0.14512,-0.38003,0.04653,,,,,,,,,,,,,,,,,,,,,,,,,,0,0,0,0,0
0.3451,1783187722.9139,1,0,1.0000,0.0000,1.44682,0.23328,-2.77748,0.97337,1.57080,0.00000,-0.14512,-0.38003,0.04653,,,,,,,,,,,,,,,,,,,,,,,,,,0,0,0,0,0
0.3550,1783187722.9239,1,0,1.0000,0.0000,1.44682,0.23328,-2.77748,0.97337,1.57080,0.00000,-0.14512,-0.38003,0.04653,,,,,,,,,,,,,,,,,,,,,,,,,,0,0,0,0,0
0.3554,1783187722.9243,1,0,1.0000,0.0000,1.44682,0.23328,-2.77748,0.97337,1.57080,0.00000,-0.14512,-0.38003,0.04653,,,,,,,,,,,,,,,,,,,,,,,,,,0,0,0,0,0
0.3641,1783187722.9330,1,0,1.0000,0.0000,1.44682,0.23328,-2.77748,0.97337,1.57080,0.00000,-0.14512,-0.38003,0.04653,,,,,,,,,,,,,,,,,,,,,,,,,,0,0,0,0,0
0.3744,1783187722.9433,1,0,1.0000,0.0000,1.44682,0.23328,-2.77748,0.97337,1.57080,0.00000,-0.14512,-0.38003,0.04653,,,,,,,,,,,,,,,,,,,,,,,,,,0,0,0,0,0
0.3844,1783187722.9533,1,0,1.0000,0.0000,1.44682,0.23328,-2.77748,0.97337,1.57080,0.00000,-0.14512,-0.38003,0.04653,,,,,,,,,,,,,,,,,,,,,,,,,,0,0,0,0,0
0.3848,1783187722.9536,1,0,1.0000,0.0000,1.44682,0.23328,-2.77748,0.97337,1.57080,0.00000,-0.14512,-0.38003,0.04653,,,,,,,,,,,,,,,,,,,,,,,,,,0,0,0,0,0
0.3934,1783187722.9622,1,0,1.0000,0.0000,1.44682,0.23328,-2.77748,0.97337,1.57080,0.00000,-0.14512,-0.38003,0.04653,,,,,,,,,,,,,,,,,,,,,,,,,,0,0,0,0,0
0.4054,1783187722.9742,1,0,1.0000,0.0000,1.44682,0.23328,-2.77748,0.97337,1.57080,0.00000,-0.14512,-0.38003,0.04653,,,,,,,,,,,,,,,,,,,,,,,,,,0,0,0,0,0
0.4189,1783187722.9877,1,0,1.0000,0.0000,1.44682,0.23328,-2.77748,0.97337,1.57080,0.00000,-0.14512,-0.38003,0.04653,,,,,,,,,,,,,,,,,,,,,,,,,,0,0,0,0,0
0.4191,1783187722.9880,1,0,1.0000,0.0000,1.44682,0.23328,-2.77748,0.97337,1.57080,0.00000,-0.14512,-0.38003,0.04653,,,,,,,,,,,,,,,,,,,,,,,,,,0,0,0,0,0
0.4314,1783187723.0002,1,0,1.0000,0.0000,1.44682,0.23328,-2.77748,0.97337,1.57080,0.00000,-0.14512,-0.38003,0.04653,,,,,,,,,,,,,,,,,,,,,,,,,,0,0,0,0,0
0.4316,1783187723.0005,1,0,1.0000,0.0000,1.44682,0.23328,-2.77748,0.97337,1.57080,0.00000,-0.14512,-0.38003,0.04653,,,,,,,,,,,,,,,,,,,,,,,,,,0,0,0,0,0
0.4353,1783187723.0042,1,0,1.0000,0.0000,1.44682,0.23328,-2.77748,0.97337,1.57080,0.00000,-0.14512,-0.38003,0.04653,,,,,,,,,,,,,,,,,,,,,,,,,,0,0,0,0,0
0.4355,1783187723.0044,1,0,1.0000,0.0000,1.44682,0.23328,-2.77748,0.97337,1.57080,0.00000,-0.14512,-0.38003,0.04653,,,,,,,,,,,,,,,,,,,,,,,,,,0,0,0,0,0
0.4436,1783187723.0125,1,0,1.0000,0.0000,1.44682,0.23328,-2.77748,0.97337,1.57080,0.00000,-0.14512,-0.38003,0.04653,,,,,,,,,,,,,,,,,,,,,,,,,,0,0,0,0,0
0.4439,1783187723.0127,1,0,1.0000,0.0000,1.44682,0.23328,-2.77748,0.97337,1.57080,0.00000,-0.14512,-0.38003,0.04653,,,,,,,,,,,,,,,,,,,,,,,,,,0,0,0,0,0
0.4535,1783187723.0224,1,0,1.0000,0.0000,1.44682,0.23328,-2.77748,0.97337,1.57080,0.00000,-0.14512,-0.38003,0.04653,,,,,,,,,,,,,,,,,,,,,,,,,,0,0,0,0,0
0.4545,1783187723.0233,1,0,1.0000,0.0000,1.44682,0.23328,-2.77748,0.97337,1.57080,0.00000,-0.14512,-0.38003,0.04653,,,,,,,,,,,,,,,,,,,,,,,,,,0,0,0,0,0
0.4647,1783187723.0335,1,0,1.0000,0.0000,1.44682,0.23328,-2.77748,0.97337,1.57080,0.00000,-0.14512,-0.38003,0.04653,,,,,,,,,,,,,,,,,,,,,,,,,,0,0,0,0,0
0.4848,1783187723.0537,1,0,1.0000,0.0000,1.44682,0.23328,-2.77748,0.97337,1.57080,0.00000,-0.14512,-0.38003,0.04653,,,,,,,,,,,,,,,,,,,,,,,,,,0,0,0,0,0
0.4853,1783187723.0542,1,0,1.0000,0.0000,1.44682,0.23328,-2.77748,0.97337,1.57080,0.00000,-0.14512,-0.38003,0.04653,,,,,,,,,,,,,,,,,,,,,,,,,,0,0,0,0,0
0.4946,1783187723.0635,1,0,1.0000,0.0000,1.44682,0.23328,-2.77748,0.97337,1.57080,0.00000,-0.14512,-0.38003,0.04653,,,,,,,,,,,,,,,,,,,,,,,,,,0,0,0,0,0
0.4971,1783187723.0659,1,0,1.0000,0.0000,1.44682,0.23328,-2.77748,0.97337,1.57080,0.00000,-0.14512,-0.38003,0.04653,,,,,,,,,,,,,,,,,,,,,,,,,,0,0,0,0,0
0.5272,1783187723.0961,1,0,1.0000,0.0000,1.44682,0.23328,-2.77748,0.97337,1.57080,0.00000,-0.14512,-0.38003,0.04653,,,,,,,,,,,,,,,,,,,,,,,,,,0,0,0,0,0
0.5275,1783187723.0964,1,0,1.0000,0.0000,1.44682,0.23328,-2.77748,0.97337,1.57080,0.00000,-0.14512,-0.38003,0.04653,,,,,,,,,,,,,,,,,,,,,,,,,,0,0,0,0,0
0.6027,1783187723.1715,1,0,1.0000,0.0000,1.44682,0.23328,-2.77748,0.97337,1.57080,0.00000,-0.14512,-0.38003,0.04653,,,,,,,,,,,,,,,,,,,,,,,,,,0,0,0,0,0
0.6029,1783187723.1718,1,0,1.0000,0.0000,1.44682,0.23328,-2.77748,0.97337,1.57080,0.00000,-0.14512,-0.38003,0.04653,,,,,,,,,,,,,,,,,,,,,,,,,,0,0,0,0,0
0.6031,1783187723.1720,1,0,1.0000,0.0000,1.44682,0.23328,-2.77748,0.97337,1.57080,0.00000,-0.14512,-0.38003,0.04653,,,,,,,,,,,,,,,,,,,,,,,,,,0,0,0,0,0
0.6034,1783187723.1723,1,0,1.0000,0.0000,1.44682,0.23328,-2.77748,0.97337,1.57080,0.00000,-0.14512,-0.38003,0.04653,,,,,,,,,,,,,,,,,,,,,,,,,,0,0,0,0,0
0.6113,1783187723.1801,1,0,1.0000,0.0000,1.44682,0.23328,-2.77748,0.97337,1.57080,0.00000,-0.14512,-0.38003,0.04653,,,,,,,,,,,,,,,,,,,,,,,,,,0,0,0,0,0
0.6188,1783187723.1876,1,0,1.0000,0.0000,1.44682,0.23328,-2.77748,0.97337,1.57080,0.00000,-0.14512,-0.38003,0.04653,,,,,,,,,,,,,,,,,,,,,,,,,,0,0,0,0,0
0.6346,1783187723.2035,1,0,1.0000,0.0000,1.44682,0.23328,-2.77748,0.97337,1.57080,0.00000,-0.14512,-0.38003,0.04653,,,,,,,,,,,,,,,,,,,,,,,,,,0,0,0,0,0
0.6349,1783187723.2038,1,0,1.0000,0.0000,1.44682,0.23328,-2.77748,0.97337,1.57080,0.00000,-0.14512,-0.38003,0.04653,,,,,,,,,,,,,,,,,,,,,,,,,,0,0,0,0,0
0.6352,1783187723.2041,1,0,1.0000,0.0000,1.44682,0.23328,-2.77748,0.97337,1.57080,0.00000,-0.14512,-0.38003,0.04653,,,,,,,,,,,,,,,,,,,,,,,,,,0,0,0,0,0
0.6355,1783187723.2044,1,0,1.0000,0.0000,1.44682,0.23328,-2.77748,0.97337,1.57080,0.00000,-0.14512,-0.38003,0.04653,,,,,,,,,,,,,,,,,,,,,,,,,,0,0,0,0,0
0.6459,1783187723.2147,1,0,1.0000,0.0000,1.44682,0.23328,-2.77748,0.97337,1.57080,0.00000,-0.14512,-0.38003,0.04653,,,,,,,,,,,,,,,,,,,,,,,,,,0,0,0,0,0
0.6535,1783187723.2224,1,0,1.0000,0.0000,1.44682,0.23328,-2.77748,0.97337,1.57080,0.00000,-0.14512,-0.38003,0.04653,,,,,,,,,,,,,,,,,,,,,,,,,,0,0,0,0,0
0.6635,1783187723.2324,1,0,1.0000,0.0000,1.44682,0.23328,-2.77748,0.97337,1.57080,0.00000,-0.14512,-0.38003,0.04653,,,,,,,,,,,,,,,,,,,,,,,,,,0,0,0,0,0
0.6778,1783187723.2467,1,0,1.0000,0.0000,1.44682,0.23328,-2.77748,0.97337,1.57080,0.00000,-0.14512,-0.38003,0.04653,,,,,,,,,,,,,,,,,,,,,,,,,,0,0,0,0,0
0.6877,1783187723.2565,1,0,1.0000,0.0000,1.44682,0.23328,-2.77748,0.97337,1.57080,0.00000,-0.14512,-0.38003,0.04653,,,,,,,,,,,,,,,,,,,,,,,,,,0,0,0,0,0
0.7004,1783187723.2693,1,0,1.0000,0.0000,1.44682,0.23328,-2.77748,0.97337,1.57080,0.00000,-0.14512,-0.38003,0.04653,,,,,,,,,,,,,,,,,,,,,,,,,,0,0,0,0,0
0.7037,1783187723.2726,1,0,1.0000,0.0000,1.44682,0.23328,-2.77748,0.97337,1.57080,0.00000,-0.14512,-0.38003,0.04653,,,,,,,,,,,,,,,,,,,,,,,,,,0,0,0,0,0
0.7042,1783187723.2730,1,0,1.0000,0.0000,1.44682,0.23328,-2.77748,0.97337,1.57080,0.00000,-0.14512,-0.38003,0.04653,,,,,,,,,,,,,,,,,,,,,,,,,,0,0,0,0,0
0.7269,1783187723.2958,1,0,1.0000,0.0000,1.44682,0.23328,-2.77748,0.97337,1.57080,0.00000,-0.14512,-0.38003,0.04653,,,,,,,,,,,,,,,,,,,,,,,,,,0,0,0,0,0
0.7272,1783187723.2961,1,0,1.0000,0.0000,1.44682,0.23328,-2.77748,0.97337,1.57080,0.00000,-0.14512,-0.38003,0.04653,,,,,,,,,,,,,,,,,,,,,,,,,,0,0,0,0,0
0.7276,1783187723.2964,1,0,1.0000,0.0000,1.44682,0.23328,-2.77748,0.97337,1.57080,0.00000,-0.14512,-0.38003,0.04653,,,,,,,,,,,,,,,,,,,,,,,,,,0,0,0,0,0
0.7364,1783187723.3053,1,1,1.0000,0.0000,1.44682,0.23328,-2.77748,0.97337,1.57080,0.00000,-0.14512,-0.38003,0.04653,,,,,,,,,,,,,,,,,,,,,,,,,,0,0,0,0,0
0.7669,1783187723.3358,1,1,1.0000,0.0000,1.44682,0.23328,-2.77748,0.97337,1.57080,0.00000,-0.14512,-0.38003,0.04653,,,,,,,,,,,,,,,,,,,,,,,,,,0,0,0,0,0
0.7725,1783187723.3414,1,1,1.0000,0.0000,1.44682,0.23328,-2.77748,0.97337,1.57080,0.00000,-0.14512,-0.38003,0.04653,,,,,,,,,,,,,,,,,,,,,,,,,,0,0,0,0,0
0.7872,1783187723.3560,1,1,1.0000,0.0000,1.44682,0.23328,-2.77748,0.97337,1.57080,0.00000,-0.14512,-0.38003,0.04653,,,,,,,,,,,,,,,,,,,,,,,,,,0,0,0,0,0
0.8015,1783187723.3703,1,1,1.0000,0.0000,1.44682,0.23328,-2.77748,0.97337,1.57080,0.00000,-0.14512,-0.38003,0.04653,,,,,,,,,,,,,,,,,,,,,,,,,,0,0,0,0,0
0.8082,1783187723.3771,1,1,1.0000,0.0000,1.44682,0.23328,-2.77748,0.97337,1.57080,0.00000,-0.14512,-0.38003,0.04653,,,,,,,,,,,,,,,,,,,,,,,,,,0,0,0,0,0
0.8150,1783187723.3838,1,1,1.0000,0.0000,1.44682,0.23328,-2.77748,0.97337,1.57080,0.00000,-0.14512,-0.38003,0.04653,,,,,,,,,,,,,,,,,,,,,,,,,,0,0,0,0,0
0.8153,1783187723.3842,1,1,1.0000,0.0000,1.44682,0.23328,-2.77748,0.97337,1.57080,0.00000,-0.14512,-0.38003,0.04653,,,,,,,,,,,,,,,,,,,,,,,,,,0,0,0,0,0
0.8198,1783187723.3887,1,1,1.0000,0.0000,1.44682,0.23328,-2.77748,0.97337,1.57080,0.00000,-0.14512,-0.38003,0.04653,,,,,,,,,,,,,,,,,,,,,,,,,,0,0,0,0,0
0.8204,1783187723.3892,1,1,1.0000,0.0000,1.44682,0.23328,-2.77748,0.97337,1.57080,0.00000,-0.14512,-0.38003,0.04653,,,,,,,,,,,,,,,,,,,,,,,,,,0,0,0,0,0
0.8277,1783187723.3966,1,1,1.0000,0.0000,1.44682,0.23328,-2.77748,0.97337,1.57080,0.00000,-0.14512,-0.38003,0.04653,,,,,,,,,,,,,,,,,,,,,,,,,,0,0,0,0,0
0.8355,1783187723.4043,1,1,1.0000,0.0000,1.44682,0.23328,-2.77748,0.97337,1.57080,0.00000,-0.14512,-0.38003,0.04653,,,,,,,,,,,,,,,,,,,,,,,,,,0,0,0,0,0
0.8438,1783187723.4127,1,1,1.0000,0.0000,1.44682,0.23328,-2.77748,0.97337,1.57080,0.00000,-0.14512,-0.38003,0.04653,,,,,,,,,,,,,,,,,,,,,,,,,,0,0,0,0,0
0.8581,1783187723.4269,1,1,1.0000,0.0000,1.44682,0.23328,-2.77748,0.97337,1.57080,0.00000,-0.14512,-0.38003,0.04653,,,,,,,,,,,,,,,,,,,,,,,,,,0,0,0,0,0
0.8640,1783187723.4329,1,1,1.0000,0.0000,1.44682,0.23328,-2.77748,0.97337,1.57080,0.00000,-0.14512,-0.38003,0.04653,,,,,,,,,,,,,,,,,,,,,,,,,,0,0,0,0,0
0.8738,1783187723.4427,1,1,1.0000,0.0000,1.44682,0.23328,-2.77748,0.97337,1.57080,0.00000,-0.14512,-0.38003,0.04653,,,,,,,,,,,,,,,,,,,,,,,,,,0,0,0,0,0
0.8892,1783187723.4581,1,1,1.0000,0.0000,1.44682,0.23328,-2.77748,0.97337,1.57080,0.00000,-0.14512,-0.38003,0.04653,,,,,,,,,,,,,,,,,,,,,,,,,,0,0,0,0,0
0.8943,1783187723.4632,1,1,1.0000,0.0000,1.44682,0.23328,-2.77748,0.97337,1.57080,0.00000,-0.14512,-0.38003,0.04653,,,,,,,,,,,,,,,,,,,,,,,,,,0,0,0,0,0
0.8949,1783187723.4637,1,1,1.0000,0.0000,1.44682,0.23328,-2.77748,0.97337,1.57080,0.00000,-0.14512,-0.38003,0.04653,,,,,,,,,,,,,,,,,,,,,,,,,,0,0,0,0,0
0.9068,1783187723.4757,1,1,1.0000,0.0000,1.44682,0.23328,-2.77748,0.97337,1.57080,0.00000,-0.14512,-0.38003,0.04653,,,,,,,,,,,,,,,,,,,,,,,,,,0,0,0,0,0
0.9156,1783187723.4845,1,1,1.0000,0.0000,1.44682,0.23328,-2.77748,0.97337,1.57080,0.00000,-0.14512,-0.38003,0.04653,,,,,,,,,,,,,,,,,,,,,,,,,,0,0,0,0,0
0.9256,1783187723.4944,1,1,1.0000,0.0000,1.44682,0.23327,-2.77748,0.97338,1.57080,0.00000,-0.14512,-0.38003,0.04652,,,,,,,,,,,,,,,,,,,,,,,,,,0,0,0,0,0
0.9420,1783187723.5108,1,1,1.0000,0.0000,1.44682,0.23307,-2.77753,0.97363,1.57080,0.00000,-0.14512,-0.38003,0.04647,,,,,,,,,,,,,,,,,,,,,,,,,,0,0,0,0,0
0.9471,1783187723.5160,1,1,1.0000,0.0000,1.44682,0.23301,-2.77754,0.97370,1.57080,0.00000,-0.14512,-0.38003,0.04646,,,,,,,,,,,,,,,,,,,,,,,,,,0,0,0,0,0
0.9475,1783187723.5164,1,1,1.0000,0.0000,1.44682,0.23301,-2.77754,0.97370,1.57080,0.00000,-0.14512,-0.38003,0.04646,,,,,,,,,,,,,,,,,,,,,,,,,,0,0,0,0,0
0.9559,1783187723.5247,1,1,1.0000,0.0000,1.44682,0.23298,-2.77755,0.97374,1.57080,0.00000,-0.14512,-0.38003,0.04645,,,,,,,,,,,,,,,,,,,,,,,,,,0,0,0,0,0
0.9562,1783187723.5250,1,1,1.0000,0.0000,1.44682,0.23298,-2.77755,0.97374,1.57080,0.00000,-0.14512,-0.38003,0.04645,,,,,,,,,,,,,,,,,,,,,,,,,,0,0,0,0,0
0.9646,1783187723.5335,1,1,1.0000,0.0000,1.44682,0.23290,-2.77757,0.97384,1.57080,0.00000,-0.14512,-0.38003,0.04643,,,,,,,,,,,,,,,,,,,,,,,,,,0,0,0,0,0
0.9743,1783187723.5432,1,1,1.0000,0.0000,1.44682,0.23280,-2.77760,0.97396,1.57080,0.00000,-0.14512,-0.38003,0.04640,,,,,,,,,,,,,,,,,,,,,,,,,,0,0,0,0,0
0.9886,1783187723.5575,1,1,1.0000,0.0000,1.44682,0.23272,-2.77762,0.97407,1.57080,0.00000,-0.14512,-0.38003,0.04638,,,,,,,,,,,,,,,,,,,,,,,,,,0,0,0,0,0
0.9994,1783187723.5683,1,1,1.0000,0.0000,1.44682,0.23259,-2.77765,0.97424,1.57080,0.00000,-0.14512,-0.38003,0.04635,,,,,,,,,,,,,,,,,,,,,,,,,,0,0,0,0,0
1.0108,1783187723.5796,1,1,1.0000,0.0000,1.44682,0.23253,-2.77767,0.97431,1.57080,0.00000,-0.14512,-0.38003,0.04633,,,,,,,,,,,,,,,,,,,,,,,,,,0,0,0,0,0
1.0190,1783187723.5879,1,1,1.0000,0.0000,1.44682,0.23247,-2.77769,0.97439,1.57080,0.00000,-0.14512,-0.38003,0.04632,,,,,,,,,,,,,,,,,,,,,,,,,,0,0,0,0,0
1.0194,1783187723.5882,1,1,1.0000,0.0000,1.44682,0.23247,-2.77769,0.97439,1.57080,0.00000,-0.14512,-0.38003,0.04632,,,,,,,,,,,,,,,,,,,,,,,,,,0,0,0,0,0
1.0289,1783187723.5978,1,1,1.0000,0.0000,1.44682,0.23237,-2.77771,0.97451,1.57080,0.00000,-0.14512,-0.38003,0.04629,,,,,,,,,,,,,,,,,,,,,,,,,,0,0,0,0,0
1.0431,1783187723.6120,1,1,1.0000,0.0000,1.44682,0.23226,-2.77774,0.97465,1.57080,0.00000,-0.14512,-0.38003,0.04626,,,,,,,,,,,,,,,,,,,,,,,,,,0,0,0,0,0
1.0487,1783187723.6176,1,1,1.0000,0.0000,1.44682,0.23224,-2.77775,0.97468,1.57080,0.00000,-0.14512,-0.38003,0.04626,,,,,,,,,,,,,,,,,,,,,,,,,,0,0,0,0,0
1.0492,1783187723.6180,1,1,1.0000,0.0000,1.44682,0.23224,-2.77775,0.97468,1.57080,0.00000,-0.14512,-0.38003,0.04626,,,,,,,,,,,,,,,,,,,,,,,,,,0,0,0,0,0
1.0594,1783187723.6283,1,1,1.0000,0.0000,1.44682,0.23210,-2.77778,0.97485,1.57080,0.00000,-0.14512,-0.38003,0.04622,,,,,,,,,,,,,,,,,,,,,,,,,,0,0,0,0,0
1.0749,1783187723.6438,1,1,1.0000,0.0000,1.44682,0.23199,-2.77781,0.97498,1.57080,0.00000,-0.14512,-0.38003,0.04619,,,,,,,,,,,,,,,,,,,,,,,,,,0,0,0,0,0
1.0752,1783187723.6441,1,1,1.0000,0.0000,1.44682,0.23199,-2.77781,0.97498,1.57080,0.00000,-0.14512,-0.38003,0.04619,,,,,,,,,,,,,,,,,,,,,,,,,,0,0,0,0,0
1.0831,1783187723.6520,1,1,1.0000,0.0000,1.44682,0.23195,-2.77782,0.97504,1.57080,0.00000,-0.14512,-0.38003,0.04618,,,,,,,,,,,,,,,,,,,,,,,,,,0,0,0,0,0
1.0836,1783187723.6524,1,1,1.0000,0.0000,1.44682,0.23195,-2.77782,0.97504,1.57080,0.00000,-0.14512,-0.38003,0.04618,,,,,,,,,,,,,,,,,,,,,,,,,,0,0,0,0,0
1.0921,1783187723.6609,1,1,1.0000,0.0000,1.44682,0.23187,-2.77784,0.97514,1.57080,0.00000,-0.14512,-0.38003,0.04616,,,,,,,,,,,,,,,,,,,,,,,,,,0,0,0,0,0
1.1111,1783187723.6799,1,1,1.0000,0.0000,1.44682,0.23176,-2.77787,0.97528,1.57080,0.00000,-0.14512,-0.38003,0.04613,,,,,,,,,,,,,,,,,,,,,,,,,,0,0,0,0,0
1.1115,1783187723.6803,1,1,1.0000,0.0000,1.44682,0.23176,-2.77787,0.97528,1.57080,0.00000,-0.14512,-0.38003,0.04613,,,,,,,,,,,,,,,,,,,,,,,,,,0,0,0,0,0
1.1126,1783187723.6815,1,1,1.0000,0.0000,1.44682,0.23176,-2.77787,0.97528,1.57080,0.00000,-0.14512,-0.38003,0.04613,,,,,,,,,,,,,,,,,,,,,,,,,,0,0,0,0,0
1.1129,1783187723.6817,1,1,1.0000,0.0000,1.44682,0.23176,-2.77787,0.97528,1.57080,0.00000,-0.14512,-0.38003,0.04613,,,,,,,,,,,,,,,,,,,,,,,,,,0,0,0,0,0
1.1204,1783187723.6893,1,1,1.0000,0.0000,1.44682,0.23166,-2.77789,0.97541,1.57080,0.00000,-0.14512,-0.38003,0.04610,,,,,,,,,,,,,,,,,,,,,,,,,,0,0,0,0,0
1.1208,1783187723.6896,1,1,1.0000,0.0000,1.44682,0.23166,-2.77789,0.97541,1.57080,0.00000,-0.14512,-0.38003,0.04610,,,,,,,,,,,,,,,,,,,,,,,,,,0,0,0,0,0
1.1286,1783187723.6975,1,1,1.0000,0.0000,1.44682,0.23155,-2.77792,0.97554,1.57080,0.00000,-0.14512,-0.38003,0.04608,,,,,,,,,,,,,,,,,,,,,,,,,,0,0,0,0,0
1.1514,1783187723.7202,1,1,1.0000,0.0000,1.44682,0.23143,-2.77795,0.97570,1.57080,0.00000,-0.14512,-0.38003,0.04604,,,,,,,,,,,,,,,,,,,,,,,,,,0,0,0,0,0
1.1518,1783187723.7207,1,1,1.0000,0.0000,1.44682,0.23143,-2.77795,0.97570,1.57080,0.00000,-0.14512,-0.38003,0.04604,,,,,,,,,,,,,,,,,,,,,,,,,,0,0,0,0,0
1.1523,1783187723.7211,1,1,1.0000,0.0000,1.44682,0.23143,-2.77795,0.97570,1.57080,0.00000,-0.14512,-0.38003,0.04604,,,,,,,,,,,,,,,,,,,,,,,,,,0,0,0,0,0
1.1591,1783187723.7279,1,1,1.0000,0.0000,1.44682,0.23138,-2.77796,0.97575,1.57080,0.00000,-0.14512,-0.38003,0.04603,,,,,,,,,,,,,,,,,,,,,,,,,,0,0,0,0,0
1.1689,1783187723.7378,1,1,1.0000,0.0000,1.44682,0.23135,-2.77797,0.97579,1.57080,0.00000,-0.14512,-0.38003,0.04602,,,,,,,,,,,,,,,,,,,,,,,,,,0,0,0,0,0
1.1791,1783187723.7479,1,1,1.0000,0.0000,1.44682,0.23121,-2.77801,0.97597,1.57080,0.00000,-0.14512,-0.38003,0.04599,,,,,,,,,,,,,,,,,,,,,,,,,,0,0,0,0,0
1.1951,1783187723.7640,1,1,1.0000,0.0000,1.44682,0.23110,-2.77804,0.97610,1.57080,0.00000,-0.14512,-0.38003,0.04596,,,,,,,,,,,,,,,,,,,,,,,,,,0,0,0,0,0
1.1955,1783187723.7643,1,1,1.0000,0.0000,1.44682,0.23110,-2.77804,0.97610,1.57080,0.00000,-0.14512,-0.38003,0.04596,,,,,,,,,,,,,,,,,,,,,,,,,,0,0,0,0,0
1.1999,1783187723.7688,1,1,1.0000,0.0000,1.44682,0.23108,-2.77804,0.97613,1.57080,0.00000,-0.14512,-0.38003,0.04595,,,,,,,,,,,,,,,,,,,,,,,,,,0,0,0,0,0
1.2003,1783187723.7692,1,1,1.0000,0.0000,1.44682,0.23108,-2.77804,0.97613,1.57080,0.00000,-0.14512,-0.38003,0.04595,,,,,,,,,,,,,,,,,,,,,,,,,,0,0,0,0,0
1.2133,1783187723.7822,1,1,1.0000,0.0000,1.44682,0.23098,-2.77807,0.97626,1.57080,0.00000,-0.14512,-0.38003,0.04593,,,,,,,,,,,,,,,,,,,,,,,,,,0,0,0,0,0
1.2190,1783187723.7879,1,1,1.0000,0.0000,1.44682,0.23094,-2.77808,0.97631,1.57080,0.00000,-0.14512,-0.38003,0.04592,,,,,,,,,,,,,,,,,,,,,,,,,,0,0,0,0,0
1.2289,1783187723.7978,1,1,1.0000,0.0000,1.44682,0.23090,-2.77809,0.97635,1.57080,0.00000,-0.14512,-0.38003,0.04591,,,,,,,,,,,,,,,,,,,,,,,,,,0,0,0,0,0
1.2438,1783187723.8127,1,1,1.0000,0.0000,1.44682,0.23071,-2.77814,0.97659,1.57080,0.00000,-0.14512,-0.38003,0.04586,,,,,,,,,,,,,,,,,,,,,,,,,,0,0,0,0,0
1.2441,1783187723.8130,1,1,1.0000,0.0000,1.44682,0.23071,-2.77814,0.97659,1.57080,0.00000,-0.14512,-0.38003,0.04586,,,,,,,,,,,,,,,,,,,,,,,,,,0,0,0,0,0
1.2490,1783187723.8178,1,1,1.0000,0.0000,1.44682,0.23066,-2.77815,0.97666,1.57080,0.00000,-0.14512,-0.38003,0.04584,,,,,,,,,,,,,,,,,,,,,,,,,,0,0,0,0,0
1.2597,1783187723.8286,1,1,1.0000,0.0000,1.44682,0.23064,-2.77816,0.97669,1.57080,0.00000,-0.14512,-0.38003,0.04584,,,,,,,,,,,,,,,,,,,,,,,,,,0,0,0,0,0
1.2731,1783187723.8420,1,1,1.0000,0.0000,1.44682,0.23054,-2.77818,0.97682,1.57080,0.00000,-0.14512,-0.38003,0.04581,,,,,,,,,,,,,,,,,,,,,,,,,,0,0,0,0,0
1.2738,1783187723.8427,1,1,1.0000,0.0000,1.44682,0.23054,-2.77818,0.97682,1.57080,0.00000,-0.14512,-0.38003,0.04581,,,,,,,,,,,,,,,,,,,,,,,,,,0,0,0,0,0
1.2791,1783187723.8480,1,1,1.0000,0.0000,1.44682,0.23049,-2.77819,0.97687,1.57080,0.00000,-0.14512,-0.38003,0.04580,,,,,,,,,,,,,,,,,,,,,,,,,,0,0,0,0,0
1.2910,1783187723.8598,1,1,1.0000,0.0000,1.44682,0.23042,-2.77821,0.97696,1.57080,0.00000,-0.14512,-0.38003,0.04578,,,,,,,,,,,,,,,,,,,,,,,,,,0,0,0,0,0
1.2913,1783187723.8602,1,1,1.0000,0.0000,1.44682,0.23042,-2.77821,0.97696,1.57080,0.00000,-0.14512,-0.38003,0.04578,,,,,,,,,,,,,,,,,,,,,,,,,,0,0,0,0,0
1.3033,1783187723.8721,1,1,1.0000,0.0000,1.44682,0.23027,-2.77825,0.97715,1.57080,0.00000,-0.14512,-0.38003,0.04574,,,,,,,,,,,,,,,,,,,,,,,,,,0,0,0,0,0
1.3039,1783187723.8728,1,1,1.0000,0.0000,1.44682,0.23027,-2.77825,0.97715,1.57080,0.00000,-0.14512,-0.38003,0.04574,,,,,,,,,,,,,,,,,,,,,,,,,,0,0,0,0,0
1.3100,1783187723.8789,1,1,1.0000,0.0000,1.44682,0.23022,-2.77826,0.97722,1.57080,0.00000,-0.14512,-0.38003,0.04573,,,,,,,,,,,,,,,,,,,,,,,,,,0,0,0,0,0
1.3254,1783187723.8942,1,1,1.0000,0.0000,1.44682,0.23017,-2.77828,0.97728,1.57080,0.00000,-0.14512,-0.38003,0.04571,,,,,,,,,,,,,,,,,,,,,,,,,,0,0,0,0,0
1.3285,1783187723.8974,1,1,1.0000,0.0000,1.44682,0.23013,-2.77829,0.97733,1.57080,0.00000,-0.14512,-0.38003,0.04571,,,,,,,,,,,,,,,,,,,,,,,,,,0,0,0,0,0
1.3289,1783187723.8978,1,1,1.0000,0.0000,1.44682,0.23013,-2.77829,0.97733,1.57080,0.00000,-0.14512,-0.38003,0.04571,,,,,,,,,,,,,,,,,,,,,,,,,,0,0,0,0,0
1.3410,1783187723.9098,1,1,1.0000,0.0000,1.44682,0.23005,-2.77831,0.97743,1.57080,0.00000,-0.14512,-0.38003,0.04568,,,,,,,,,,,,,,,,,,,,,,,,,,0,0,0,0,0
1.3516,1783187723.9205,1,1,1.0000,0.0000,1.44682,0.22997,-2.77833,0.97752,1.57080,0.00000,-0.14512,-0.38003,0.04566,,,,,,,,,,,,,,,,,,,,,,,,,,0,0,0,0,0
1.3585,1783187723.9273,1,1,1.0000,0.0000,1.44682,0.22993,-2.77834,0.97758,1.57080,0.00000,-0.14512,-0.38003,0.04565,,,,,,,,,,,,,,,,,,,,,,,,,,0,0,0,0,0
1.3590,1783187723.9279,1,1,1.0000,0.0000,1.44682,0.22988,-2.77835,0.97765,1.57080,0.00000,-0.14512,-0.38003,0.04564,,,,,,,,,,,,,,,,,,,,,,,,,,0,0,0,0,0
1.3723,1783187723.9412,1,1,1.0000,0.0000,1.44682,0.22977,-2.77838,0.97778,1.57080,0.00000,-0.14512,-0.38003,0.04561,,,,,,,,,,,,,,,,,,,,,,,,,,0,0,0,0,0
1.3833,1783187723.9522,1,1,1.0000,0.0000,1.44682,0.22970,-2.77840,0.97787,1.57080,0.00000,-0.14512,-0.38003,0.04559,,,,,,,,,,,,,,,,,,,,,,,,,,0,0,0,0,0
1.3951,1783187723.9640,1,1,1.0000,0.0000,1.44682,0.22955,-2.77843,0.97805,1.57080,0.00000,-0.14512,-0.38003,0.04556,,,,,,,,,,,,,,,,,,,,,,,,,,0,0,0,0,0
1.4054,1783187723.9743,1,1,1.0000,0.0000,1.44682,0.22954,-2.77844,0.97806,1.57080,0.00000,-0.14512,-0.38003,0.04555,,,,,,,,,,,,,,,,,,,,,,,,,,0,0,0,0,0
1.4149,1783187723.9838,1,1,1.0000,0.0000,1.44682,0.22944,-2.77846,0.97820,1.57080,0.00000,-0.14512,-0.38003,0.04553,,,,,,,,,,,,,,,,,,,,,,,,,,0,0,0,0,0
1.4184,1783187723.9873,1,1,1.0000,0.0000,1.44682,0.22944,-2.77846,0.97820,1.57080,0.00000,-0.14512,-0.38003,0.04553,,,,,,,,,,,,,,,,,,,,,,,,,,0,0,0,0,0
1.4190,1783187723.9879,1,1,1.0000,0.0000,1.44682,0.22939,-2.77848,0.97826,1.57080,0.00000,-0.14512,-0.38003,0.04551,,,,,,,,,,,,,,,,,,,,,,,,,,0,0,0,0,0
1.4302,1783187723.9990,1,1,1.0000,0.0000,1.44682,0.22928,-2.77850,0.97839,1.57080,0.00000,-0.14512,-0.38003,0.04549,,,,,,,,,,,,,,,,,,,,,,,,,,0,0,0,0,0
1.4433,1783187724.0122,1,1,1.0000,0.0000,1.44682,0.22921,-2.77852,0.97848,1.57080,0.00000,-0.14512,-0.38003,0.04547,,,,,,,,,,,,,,,,,,,,,,,,,,0,0,0,0,0
1.4559,1783187724.0248,1,1,1.0000,0.0000,1.44682,0.22906,-2.77856,0.97866,1.57080,0.00000,-0.14512,-0.38003,0.04543,,,,,,,,,,,,,,,,,,,,,,,,,,0,0,0,0,0
1.4605,1783187724.0294,1,1,1.0000,0.0000,1.44682,0.22906,-2.77856,0.97866,1.57080,0.00000,-0.14512,-0.38003,0.04543,,,,,,,,,,,,,,,,,,,,,,,,,,0,0,0,0,0
1.4714,1783187724.0402,1,1,1.0000,0.0000,1.44682,0.22899,-2.77858,0.97875,1.57080,0.00000,-0.14512,-0.38003,0.04541,,,,,,,,,,,,,,,,,,,,,,,,,,0,0,0,0,0
1.4807,1783187724.0495,1,1,1.0000,0.0000,1.44682,0.22890,-2.77860,0.97887,1.57080,0.00000,-0.14512,-0.38003,0.04539,,,,,,,,,,,,,,,,,,,,,,,,,,0,0,0,0,0
1.4899,1783187724.0587,1,1,1.0000,0.0000,1.44682,0.22880,-2.77863,0.97900,1.57080,0.00000,-0.14512,-0.38003,0.04536,,,,,,,,,,,,,,,,,,,,,,,,,,0,0,0,0,0
1.4901,1783187724.0590,1,1,1.0000,0.0000,1.44682,0.22880,-2.77863,0.97900,1.57080,0.00000,-0.14512,-0.38003,0.04536,,,,,,,,,,,,,,,,,,,,,,,,,,0,0,0,0,0
1.5020,1783187724.0709,1,1,1.0000,0.0000,1.44682,0.22876,-2.77864,0.97904,1.57080,0.00000,-0.14512,-0.38003,0.04535,,,,,,,,,,,,,,,,,,,,,,,,,,0,0,0,0,0
1.5150,1783187724.0838,1,1,1.0000,0.0000,1.44682,0.22858,-2.77868,0.97928,1.57080,0.00000,-0.14512,-0.38003,0.04530,,,,,,,,,,,,,,,,,,,,,,,,,,0,0,0,0,0
1.5152,1783187724.0841,1,1,1.0000,0.0000,1.44682,0.22858,-2.77868,0.97928,1.57080,0.00000,-0.14512,-0.38003,0.04530,,,,,,,,,,,,,,,,,,,,,,,,,,0,0,0,0,0
1.5235,1783187724.0924,1,1,1.0000,0.0000,1.44682,0.22857,-2.77869,0.97929,1.57080,0.00000,-0.14512,-0.38003,0.04530,,,,,,,,,,,,,,,,,,,,,,,,,,0,0,0,0,0
1.5299,1783187724.0988,1,1,1.0000,0.0000,1.44682,0.22854,-2.77869,0.97932,1.57080,0.00000,-0.14512,-0.38003,0.04529,,,,,,,,,,,,,,,,,,,,,,,,,,0,0,0,0,0
1.5305,1783187724.0993,1,1,1.0000,0.0000,1.44682,0.22854,-2.77869,0.97932,1.57080,0.00000,-0.14512,-0.38003,0.04529,,,,,,,,,,,,,,,,,,,,,,,,,,0,0,0,0,0
1.5394,1783187724.1083,1,1,1.0000,0.0000,1.44682,0.22841,-2.77873,0.97948,1.57080,0.00000,-0.14512,-0.38003,0.04526,,,,,,,,,,,,,,,,,,,,,,,,,,0,0,0,0,0
1.5401,1783187724.1089,1,1,1.0000,0.0000,1.44682,0.22841,-2.77873,0.97948,1.57080,0.00000,-0.14512,-0.38003,0.04526,,,,,,,,,,,,,,,,,,,,,,,,,,0,0,0,0,0
1.5524,1783187724.1212,1,1,1.0000,0.0000,1.44682,0.22831,-2.77875,0.97961,1.57080,0.00000,-0.14512,-0.38003,0.04523,,,,,,,,,,,,,,,,,,,,,,,,,,0,0,0,0,0
1.5591,1783187724.1280,1,1,1.0000,0.0000,1.44682,0.22827,-2.77876,0.97966,1.57080,0.00000,-0.14512,-0.38003,0.04522,,,,,,,,,,,,,,,,,,,,,,,,,,0,0,0,0,0
1.5710,1783187724.1399,1,1,1.0000,0.0000,1.44682,0.22814,-2.77879,0.97982,1.57080,0.00000,-0.14512,-0.38003,0.04519,,,,,,,,,,,,,,,,,,,,,,,,,,0,0,0,0,0
1.5792,1783187724.1481,1,1,1.0000,0.0000,1.44682,0.22809,-2.77881,0.97989,1.57080,0.00000,-0.14512,-0.38003,0.04517,,,,,,,,,,,,,,,,,,,,,,,,,,0,0,0,0,0
1.5904,1783187724.1593,1,1,1.0000,0.0000,1.44682,0.22806,-2.77882,0.97993,1.57080,0.00000,-0.14512,-0.38003,0.04517,,,,,,,,,,,,,,,,,,,,,,,,,,0,0,0,0,0
1.6007,1783187724.1695,1,1,1.0000,0.0000,1.44682,0.22792,-2.77885,0.98010,1.57080,0.00000,-0.14512,-0.38003,0.04513,,,,,,,,,,,,,,,,,,,,,,,,,,0,0,0,0,0
1.6097,1783187724.1786,1,1,1.0000,0.0000,1.44682,0.22782,-2.77888,0.98023,1.57080,0.00000,-0.14512,-0.38003,0.04510,,,,,,,,,,,,,,,,,,,,,,,,,,0,0,0,0,0
1.6193,1783187724.1882,1,1,1.0000,0.0000,1.44682,0.22779,-2.77888,0.98027,1.57080,0.00000,-0.14512,-0.38003,0.04510,,,,,,,,,,,,,,,,,,,,,,,,,,0,0,0,0,0
1.6335,1783187724.2024,1,1,1.0000,0.0000,1.44682,0.22765,-2.77892,0.98043,1.57080,0.00000,-0.14512,-0.38003,0.04506,,,,,,,,,,,,,,,,,,,,,,,,,,0,0,0,0,0
1.6408,1783187724.2097,1,1,1.0000,0.0000,1.44682,0.22755,-2.77895,0.98056,1.57080,0.00000,-0.14512,-0.38003,0.04503,,,,,,,,,,,,,,,,,,,,,,,,,,0,0,0,0,0
1.6592,1783187724.2281,1,1,1.0000,0.0000,1.44682,0.22746,-2.77897,0.98067,1.57080,0.00000,-0.14512,-0.38003,0.04501,,,,,,,,,,,,,,,,,,,,,,,,,,0,0,0,0,0
1.6597,1783187724.2286,1,1,1.0000,0.0000,1.44682,0.22746,-2.77897,0.98067,1.57080,0.00000,-0.14512,-0.38003,0.04501,,,,,,,,,,,,,,,,,,,,,,,,,,0,0,0,0,0
1.6739,1783187724.2428,1,1,1.0000,0.0000,1.44682,0.22738,-2.77899,0.98078,1.57080,0.00000,-0.14512,-0.38003,0.04499,,,,,,,,,,,,,,,,,,,,,,,,,,0,0,0,0,0
1.7305,1783187724.2994,1,1,1.0000,0.0000,1.44682,0.22688,-2.77911,0.98140,1.57080,0.00001,-0.14512,-0.38003,0.04486,,,,,,,,,,,,,,,,,,,,,,,,,,0,0,0,0,0
1.7312,1783187724.3001,1,1,1.0000,0.0000,1.44682,0.22688,-2.77911,0.98140,1.57080,0.00001,-0.14512,-0.38003,0.04486,,,,,,,,,,,,,,,,,,,,,,,,,,0,0,0,0,0
1.7359,1783187724.3048,1,1,1.0000,0.0000,1.44682,0.22687,-2.77912,0.98141,1.57080,0.00001,-0.14512,-0.38003,0.04486,,,,,,,,,,,,,,,,,,,,,,,,,,0,0,0,0,0
1.7363,1783187724.3052,1,1,1.0000,0.0000,1.44682,0.22687,-2.77912,0.98141,1.57080,0.00001,-0.14512,-0.38003,0.04486,,,,,,,,,,,,,,,,,,,,,,,,,,0,0,0,0,0
1.7367,1783187724.3055,1,1,1.0000,0.0000,1.44682,0.22687,-2.77912,0.98141,1.57080,0.00001,-0.14512,-0.38003,0.04486,,,,,,,,,,,,,,,,,,,,,,,,,,0,0,0,0,0
1.7432,1783187724.3121,1,1,1.0000,0.0000,1.44682,0.22681,-2.77913,0.98149,1.57080,0.00001,-0.14512,-0.38003,0.04484,,,,,,,,,,,,,,,,,,,,,,,,,,0,0,0,0,0
1.7510,1783187724.3199,1,1,1.0000,0.0000,1.44682,0.22672,-2.77916,0.98161,1.57080,0.00001,-0.14512,-0.38003,0.04482,,,,,,,,,,,,,,,,,,,,,,,,,,0,0,0,0,0
1.7614,1783187724.3303,1,1,1.0000,0.0000,1.44682,0.22661,-2.77918,0.98174,1.57080,0.00001,-0.14512,-0.38003,0.04479,,,,,,,,,,,,,,,,,,,,,,,,,,0,0,0,0,0
1.7713,1783187724.3401,1,1,1.0000,0.0000,1.44682,0.22659,-2.77919,0.98177,1.57080,0.00001,-0.14512,-0.38003,0.04479,,,,,,,,,,,,,,,,,,,,,,,,,,0,0,0,0,0
1.7715,1783187724.3404,1,1,1.0000,0.0000,1.44682,0.22659,-2.77919,0.98177,1.57080,0.00001,-0.14512,-0.38003,0.04479,,,,,,,,,,,,,,,,,,,,,,,,,,0,0,0,0,0
1.7840,1783187724.3528,1,1,1.0000,0.0000,1.44682,0.22648,-2.77922,0.98190,1.57080,0.00001,-0.14512,-0.38003,0.04476,,,,,,,,,,,,,,,,,,,,,,,,,,0,0,0,0,0
1.7888,1783187724.3577,1,1,1.0000,0.0000,1.44682,0.22644,-2.77923,0.98196,1.57080,0.00001,-0.14512,-0.38003,0.04475,,,,,,,,,,,,,,,,,,,,,,,,,,0,0,0,0,0
1.8035,1783187724.3724,1,1,1.0000,0.0000,1.44682,0.22637,-2.77925,0.98205,1.57080,0.00001,-0.14512,-0.38003,0.04473,,,,,,,,,,,,,,,,,,,,,,,,,,0,0,0,0,0
1.8147,1783187724.3836,1,1,1.0000,0.0000,1.44682,0.22627,-2.77927,0.98217,1.57080,0.00001,-0.14512,-0.38003,0.04470,,,,,,,,,,,,,,,,,,,,,,,,,,0,0,0,0,0
1.8192,1783187724.3880,1,1,1.0000,0.0000,1.44682,0.22616,-2.77930,0.98230,1.57080,0.00001,-0.14512,-0.38003,0.04467,,,,,,,,,,,,,,,,,,,,,,,,,,0,0,0,0,0
1.8306,1783187724.3994,1,1,1.0000,0.0000,1.44682,0.22616,-2.77930,0.98231,1.57080,0.00001,-0.14512,-0.38003,0.04467,,,,,,,,,,,,,,,,,,,,,,,,,,0,0,0,0,0
1.8392,1783187724.4080,1,1,1.0000,0.0000,1.44682,0.22608,-2.77932,0.98241,1.57080,0.00001,-0.14512,-0.38003,0.04465,,,,,,,,,,,,,,,,,,,,,,,,,,0,0,0,0,0
1.8526,1783187724.4215,1,1,1.0000,0.0000,1.44682,0.22599,-2.77934,0.98252,1.57080,0.00001,-0.14512,-0.38003,0.04463,,,,,,,,,,,,,,,,,,,,,,,,,,0,0,0,0,0
1.8636,1783187724.4325,1,1,1.0000,0.0000,1.44682,0.22592,-2.77936,0.98261,1.57080,0.00001,-0.14512,-0.38003,0.04461,,,,,,,,,,,,,,,,,,,,,,,,,,0,0,0,0,0
1.8641,1783187724.4329,1,1,1.0000,0.0000,1.44682,0.22592,-2.77936,0.98261,1.57080,0.00001,-0.14512,-0.38003,0.04461,,,,,,,,,,,,,,,,,,,,,,,,,,0,0,0,0,0
1.8687,1783187724.4376,1,1,1.0000,0.0000,1.44682,0.22587,-2.77937,0.98267,1.57080,0.00001,-0.14512,-0.38003,0.04460,,,,,,,,,,,,,,,,,,,,,,,,,,0,0,0,0,0
1.8791,1783187724.4479,1,1,1.0000,0.0000,1.44682,0.22571,-2.77941,0.98287,1.57080,0.00001,-0.14512,-0.38003,0.04456,,,,,,,,,,,,,,,,,,,,,,,,,,0,0,0,0,0
1.8937,1783187724.4626,1,1,1.0000,0.0000,1.44682,0.22569,-2.77942,0.98290,1.57080,0.00001,-0.14512,-0.38003,0.04455,,,,,,,,,,,,,,,,,,,,,,,,,,0,0,0,0,0
1.9111,1783187724.4800,1,1,1.0000,0.0000,1.44682,0.22554,-2.77945,0.98308,1.57080,0.00001,-0.14512,-0.38003,0.04451,,,,,,,,,,,,,,,,,,,,,,,,,,0,0,0,0,0
1.9116,1783187724.4805,1,1,1.0000,0.0000,1.44682,0.22554,-2.77945,0.98308,1.57080,0.00001,-0.14512,-0.38003,0.04451,,,,,,,,,,,,,,,,,,,,,,,,,,0,0,0,0,0
1.9119,1783187724.4807,1,1,1.0000,0.0000,1.44682,0.22554,-2.77945,0.98308,1.57080,0.00001,-0.14512,-0.38003,0.04451,,,,,,,,,,,,,,,,,,,,,,,,,,0,0,0,0,0
1.9197,1783187724.4886,1,1,1.0000,0.0000,1.44682,0.22551,-2.77946,0.98312,1.57080,0.00001,-0.14512,-0.38003,0.04451,,,,,,,,,,,,,,,,,,,,,,,,,,0,0,0,0,0
1.9286,1783187724.4975,1,1,1.0000,0.0000,1.44682,0.22542,-2.77948,0.98323,1.57080,0.00001,-0.14512,-0.38003,0.04448,,,,,,,,,,,,,,,,,,,,,,,,,,0,0,0,0,0
1.9398,1783187724.5087,1,1,1.0000,0.0000,1.44682,0.22526,-2.77952,0.98343,1.57080,0.00001,-0.14512,-0.38003,0.04444,,,,,,,,,,,,,,,,,,,,,,,,,,0,0,0,0,0
1.9552,1783187724.5241,1,1,1.0000,0.0000,1.44682,0.22521,-2.77954,0.98349,1.57080,0.00001,-0.14512,-0.38003,0.04443,,,,,,,,,,,,,,,,,,,,,,,,,,0,0,0,0,0
1.9660,1783187724.5349,1,1,1.0000,0.0000,1.44682,0.22514,-2.77956,0.98359,1.57080,0.00001,-0.14512,-0.38002,0.04441,,,,,,,,,,,,,,,,,,,,,,,,,,0,0,0,0,0
1.9735,1783187724.5424,1,1,1.0000,0.0000,1.44682,0.22509,-2.77957,0.98364,1.57080,0.00001,-0.14512,-0.38002,0.04440,,,,,,,,,,,,,,,,,,,,,,,,,,0,0,0,0,0
1.9809,1783187724.5498,1,1,1.0000,0.0000,1.44682,0.22506,-2.77958,0.98369,1.57080,0.00001,-0.14512,-0.38002,0.04439,,,,,,,,,,,,,,,,,,,,,,,,,,0,0,0,0,0
1.9813,1783187724.5501,1,1,1.0000,0.0000,1.44682,0.22506,-2.77958,0.98369,1.57080,0.00001,-0.14512,-0.38002,0.04439,,,,,,,,,,,,,,,,,,,,,,,,,,0,0,0,0,0
1.9928,1783187724.5616,1,1,1.0000,0.0000,1.44682,0.22492,-2.77961,0.98386,1.57080,0.00001,-0.14512,-0.38002,0.04435,,,,,,,,,,,,,,,,,,,,,,,,,,0,0,0,0,0
2.0001,1783187724.5689,1,1,1.0000,0.0000,1.44682,0.22481,-2.77964,0.98399,1.57080,0.00001,-0.14512,-0.38002,0.04433,,,,,,,,,,,,,,,,,,,,,,,,,,0,0,0,0,0
2.0117,1783187724.5805,1,1,1.0000,0.0000,1.44682,0.22479,-2.77964,0.98402,1.57080,0.00001,-0.14512,-0.38002,0.04432,,,,,,,,,,,,,,,,,,,,,,,,,,0,0,0,0,0
2.0194,1783187724.5882,1,1,1.0000,0.0000,1.44682,0.22473,-2.77966,0.98410,1.57080,0.00001,-0.14512,-0.38002,0.04430,,,,,,,,,,,,,,,,,,,,,,,,,,0,0,0,0,0
2.0301,1783187724.5989,1,1,1.0000,0.0000,1.44682,0.22464,-2.77968,0.98421,1.57080,0.00001,-0.14512,-0.38002,0.04428,,,,,,,,,,,,,,,,,,,,,,,,,,0,0,0,0,0
2.0305,1783187724.5994,1,1,1.0000,0.0000,1.44682,0.22464,-2.77968,0.98421,1.57080,0.00001,-0.14512,-0.38002,0.04428,,,,,,,,,,,,,,,,,,,,,,,,,,0,0,0,0,0
2.0395,1783187724.6084,1,1,1.0000,0.0000,1.44682,0.22461,-2.77969,0.98425,1.57080,0.00001,-0.14512,-0.38002,0.04427,,,,,,,,,,,,,,,,,,,,,,,,,,0,0,0,0,0
2.0484,1783187724.6172,1,1,1.0000,0.0000,1.44682,0.22452,-2.77971,0.98436,1.57080,0.00001,-0.14512,-0.38002,0.04425,,,,,,,,,,,,,,,,,,,,,,,,,,0,0,0,0,0
2.0488,1783187724.6177,1,1,1.0000,0.0000,1.44682,0.22452,-2.77971,0.98436,1.57080,0.00001,-0.14512,-0.38002,0.04425,,,,,,,,,,,,,,,,,,,,,,,,,,0,0,0,0,0
2.0587,1783187724.6276,1,1,1.0000,0.0000,1.44682,0.22442,-2.77974,0.98449,1.57080,0.00001,-0.14512,-0.38002,0.04422,,,,,,,,,,,,,,,,,,,,,,,,,,0,0,0,0,0
2.0699,1783187724.6388,1,1,1.0000,0.0000,1.44682,0.22436,-2.77975,0.98456,1.57080,0.00001,-0.14512,-0.38002,0.04421,,,,,,,,,,,,,,,,,,,,,,,,,,0,0,0,0,0
2.0834,1783187724.6523,1,1,1.0000,0.0000,1.44682,0.22424,-2.77978,0.98471,1.57080,0.00001,-0.14512,-0.38002,0.04418,,,,,,,,,,,,,,,,,,,,,,,,,,0,0,0,0,0
2.0918,1783187724.6607,1,1,1.0000,0.0000,1.44682,0.22419,-2.77979,0.98477,1.57080,0.00001,-0.14512,-0.38002,0.04417,,,,,,,,,,,,,,,,,,,,,,,,,,0,0,0,0,0
2.0994,1783187724.6682,1,1,1.0000,0.0000,1.44682,0.22416,-2.77980,0.98481,1.57080,0.00001,-0.14512,-0.38002,0.04416,,,,,,,,,,,,,,,,,,,,,,,,,,0,0,0,0,0
2.1119,1783187724.6808,1,1,1.0000,0.0000,1.44682,0.22402,-2.77984,0.98499,1.57080,0.00001,-0.14512,-0.38002,0.04412,,,,,,,,,,,,,,,,,,,,,,,,,,0,0,0,0,0
2.1123,1783187724.6811,1,1,1.0000,0.0000,1.44682,0.22402,-2.77984,0.98499,1.57080,0.00001,-0.14512,-0.38002,0.04412,,,,,,,,,,,,,,,,,,,,,,,,,,0,0,0,0,0
2.1319,1783187724.7007,1,1,1.0000,0.0000,1.44682,0.22388,-2.77987,0.98516,1.57080,0.00001,-0.14512,-0.38002,0.04408,,,,,,,,,,,,,,,,,,,,,,,,,,0,0,0,0,0
2.1343,1783187724.7031,1,1,1.0000,0.0000,1.44682,0.22388,-2.77987,0.98516,1.57080,0.00001,-0.14512,-0.38002,0.04408,,,,,,,,,,,,,,,,,,,,,,,,,,0,0,0,0,0
2.1346,1783187724.7034,1,1,1.0000,0.0000,1.44682,0.22388,-2.77987,0.98516,1.57080,0.00001,-0.14512,-0.38002,0.04408,,,,,,,,,,,,,,,,,,,,,,,,,,0,0,0,0,0
2.1387,1783187724.7075,1,1,1.0000,0.0000,1.44682,0.22384,-2.77988,0.98521,1.57080,0.00001,-0.14512,-0.38002,0.04408,,,,,,,,,,,,,,,,,,,,,,,,,,0,0,0,0,0
2.1502,1783187724.7191,1,1,1.0000,0.0000,1.44682,0.22369,-2.77992,0.98539,1.57080,0.00001,-0.14512,-0.38002,0.04404,,,,,,,,,,,,,,,,,,,,,,,,,,0,0,0,0,0
2.1605,1783187724.7294,1,1,1.0000,0.0000,1.44682,0.22366,-2.77993,0.98544,1.57080,0.00001,-0.14512,-0.38002,0.04403,,,,,,,,,,,,,,,,,,,,,,,,,,0,0,0,0,0
2.1707,1783187724.7396,1,1,1.0000,0.0000,1.44682,0.22358,-2.77995,0.98554,1.57080,0.00001,-0.14512,-0.38002,0.04401,,,,,,,,,,,,,,,,,,,,,,,,,,0,0,0,0,0
2.1715,1783187724.7403,1,1,1.0000,0.0000,1.44682,0.22353,-2.77996,0.98560,1.57080,0.00001,-0.14512,-0.38002,0.04399,,,,,,,,,,,,,,,,,,,,,,,,,,0,0,0,0,0
2.1834,1783187724.7522,1,1,1.0000,0.0000,1.44682,0.22342,-2.77999,0.98573,1.57080,0.00001,-0.14512,-0.38002,0.04397,,,,,,,,,,,,,,,,,,,,,,,,,,0,0,0,0,0
2.1907,1783187724.7595,1,1,1.0000,0.0000,1.44682,0.22341,-2.77999,0.98574,1.57080,0.00001,-0.14512,-0.38002,0.04396,,,,,,,,,,,,,,,,,,,,,,,,,,0,0,0,0,0
2.1985,1783187724.7673,1,1,1.0000,0.0000,1.44682,0.22335,-2.78001,0.98582,1.57080,0.00001,-0.14512,-0.38002,0.04395,,,,,,,,,,,,,,,,,,,,,,,,,,0,0,0,0,0
2.2090,1783187724.7779,1,1,1.0000,0.0000,1.44682,0.22320,-2.78004,0.98601,1.57080,0.00001,-0.14512,-0.38002,0.04391,,,,,,,,,,,,,,,,,,,,,,,,,,0,0,0,0,0
2.2242,1783187724.7931,1,1,1.0000,0.0000,1.44682,0.22313,-2.78006,0.98610,1.57080,0.00001,-0.14512,-0.38002,0.04389,,,,,,,,,,,,,,,,,,,,,,,,,,0,0,0,0,0
2.2339,1783187724.8028,1,1,1.0000,0.0000,1.44682,0.22303,-2.78009,0.98622,1.57080,0.00001,-0.14512,-0.38002,0.04387,,,,,,,,,,,,,,,,,,,,,,,,,,0,0,0,0,0
2.2342,1783187724.8031,1,1,1.0000,0.0000,1.44682,0.22303,-2.78009,0.98622,1.57080,0.00001,-0.14512,-0.38002,0.04387,,,,,,,,,,,,,,,,,,,,,,,,,,0,0,0,0,0
2.2387,1783187724.8076,1,1,1.0000,0.0000,1.44682,0.22298,-2.78010,0.98628,1.57080,0.00001,-0.14512,-0.38002,0.04385,,,,,,,,,,,,,,,,,,,,,,,,,,0,0,0,0,0
2.2392,1783187724.8081,1,1,1.0000,0.0000,1.44682,0.22293,-2.78011,0.98635,1.57080,0.00001,-0.14512,-0.38002,0.04384,,,,,,,,,,,,,,,,,,,,,,,,,,0,0,0,0,0
2.2527,1783187724.8215,1,1,1.0000,0.0000,1.44682,0.22290,-2.78012,0.98639,1.57080,0.00001,-0.14512,-0.38002,0.04383,,,,,,,,,,,,,,,,,,,,,,,,,,0,0,0,0,0
2.2593,1783187724.8282,1,1,1.0000,0.0000,1.44682,0.22281,-2.78014,0.98649,1.57080,0.00001,-0.14512,-0.38002,0.04381,,,,,,,,,,,,,,,,,,,,,,,,,,0,0,0,0,0
2.2731,1783187724.8419,1,1,1.0000,0.0000,1.44681,0.22271,-2.78017,0.98662,1.57080,0.00001,-0.14512,-0.38002,0.04378,,,,,,,,,,,,,,,,,,,,,,,,,,0,0,0,0,0
2.2734,1783187724.8422,1,1,1.0000,0.0000,1.44681,0.22271,-2.78017,0.98662,1.57080,0.00001,-0.14512,-0.38002,0.04378,,,,,,,,,,,,,,,,,,,,,,,,,,0,0,0,0,0
2.2791,1783187724.8480,1,1,1.0000,0.0000,1.44681,0.22268,-2.78017,0.98667,1.57080,0.00001,-0.14512,-0.38002,0.04377,,,,,,,,,,,,,,,,,,,,,,,,,,0,0,0,0,0
2.2903,1783187724.8592,1,1,1.0000,0.0000,1.44681,0.22259,-2.78020,0.98677,1.57080,0.00001,-0.14512,-0.38002,0.04375,,,,,,,,,,,,,,,,,,,,,,,,,,0,0,0,0,0
2.3000,1783187724.8688,1,1,1.0000,0.0000,1.44681,0.22244,-2.78023,0.98696,1.57080,0.00001,-0.14512,-0.38002,0.04371,,,,,,,,,,,,,,,,,,,,,,,,,,0,0,0,0,0
2.3002,1783187724.8691,1,1,1.0000,0.0000,1.44681,0.22244,-2.78023,0.98696,1.57080,0.00001,-0.14512,-0.38002,0.04371,,,,,,,,,,,,,,,,,,,,,,,,,,0,0,0,0,0
2.3090,1783187724.8779,1,1,1.0000,0.0000,1.44681,0.22243,-2.78024,0.98697,1.57080,0.00001,-0.14512,-0.38002,0.04371,,,,,,,,,,,,,,,,,,,,,,,,,,0,0,0,0,0
2.3093,1783187724.8782,1,1,1.0000,0.0000,1.44681,0.22243,-2.78024,0.98697,1.57080,0.00001,-0.14512,-0.38002,0.04371,,,,,,,,,,,,,,,,,,,,,,,,,,0,0,0,0,0
2.3267,1783187724.8956,1,1,1.0000,0.0000,1.44681,0.22227,-2.78028,0.98717,1.57080,0.00001,-0.14512,-0.38002,0.04367,,,,,,,,,,,,,,,,,,,,,,,,,,0,0,0,0,0
2.3347,1783187724.9036,1,1,1.0000,0.0000,1.44681,0.22222,-2.78029,0.98724,1.57080,0.00001,-0.14512,-0.38002,0.04366,,,,,,,,,,,,,,,,,,,,,,,,,,0,0,0,0,0
2.3388,1783187724.9076,1,1,1.0000,0.0000,1.44681,0.22221,-2.78029,0.98725,1.57080,0.00001,-0.14512,-0.38002,0.04365,,,,,,,,,,,,,,,,,,,,,,,,,,0,0,0,0,0
2.3394,1783187724.9083,1,1,1.0000,0.0000,1.44681,0.22218,-2.78030,0.98728,1.57080,0.00001,-0.14512,-0.38002,0.04365,,,,,,,,,,,,,,,,,,,,,,,,,,0,0,0,0,0
2.3491,1783187724.9180,1,1,1.0000,0.0000,1.44681,0.22210,-2.78032,0.98739,1.57080,0.00001,-0.14512,-0.38002,0.04363,,,,,,,,,,,,,,,,,,,,,,,,,,0,0,0,0,0
2.3496,1783187724.9184,1,1,1.0000,0.0000,1.44681,0.22210,-2.78032,0.98739,1.57080,0.00001,-0.14512,-0.38002,0.04363,,,,,,,,,,,,,,,,,,,,,,,,,,0,0,0,0,0
2.3611,1783187724.9299,1,1,1.0000,0.0000,1.44681,0.22195,-2.78036,0.98758,1.57080,0.00001,-0.14512,-0.38002,0.04359,,,,,,,,,,,,,,,,,,,,,,,,,,0,0,0,0,0
2.3744,1783187724.9432,1,1,1.0000,0.0000,1.44681,0.22191,-2.78037,0.98762,1.57080,0.00001,-0.14512,-0.38002,0.04358,,,,,,,,,,,,,,,,,,,,,,,,,,0,0,0,0,0
2.3822,1783187724.9511,1,1,1.0000,0.0000,1.44681,0.22183,-2.78039,0.98773,1.57080,0.00001,-0.14512,-0.38002,0.04356,,,,,,,,,,,,,,,,,,,,,,,,,,0,0,0,0,0
2.3827,1783187724.9515,1,1,1.0000,0.0000,1.44681,0.22183,-2.78039,0.98773,1.57080,0.00001,-0.14512,-0.38002,0.04356,,,,,,,,,,,,,,,,,,,,,,,,,,0,0,0,0,0
2.3905,1783187724.9594,1,1,1.0000,0.0000,1.44681,0.22172,-2.78041,0.98786,1.57080,0.00001,-0.14512,-0.38002,0.04353,,,,,,,,,,,,,,,,,,,,,,,,,,0,0,0,0,0
2.3993,1783187724.9682,1,1,1.0000,0.0000,1.44681,0.22167,-2.78043,0.98793,1.57080,0.00001,-0.14512,-0.38002,0.04351,,,,,,,,,,,,,,,,,,,,,,,,,,0,0,0,0,0
2.4090,1783187724.9779,1,1,1.0000,0.0000,1.44681,0.22162,-2.78044,0.98799,1.57080,0.00001,-0.14512,-0.38002,0.04350,,,,,,,,,,,,,,,,,,,,,,,,,,0,0,0,0,0
2.4213,1783187724.9902,1,1,1.0000,0.0000,1.44681,0.22150,-2.78047,0.98814,1.57080,0.00001,-0.14512,-0.38002,0.04347,,,,,,,,,,,,,,,,,,,,,,,,,,0,0,0,0,0
2.4289,1783187724.9977,1,1,1.0000,0.0000,1.44681,0.22149,-2.78047,0.98815,1.57080,0.00001,-0.14512,-0.38002,0.04347,,,,,,,,,,,,,,,,,,,,,,,,,,0,0,0,0,0
2.4415,1783187725.0104,1,1,1.0000,0.0000,1.44681,0.22138,-2.78050,0.98829,1.57080,0.00001,-0.14512,-0.38002,0.04344,,,,,,,,,,,,,,,,,,,,,,,,,,0,0,0,0,0
2.4520,1783187725.0208,1,1,1.0000,0.0000,1.44681,0.22122,-2.78054,0.98849,1.57080,0.00001,-0.14512,-0.38002,0.04340,,,,,,,,,,,,,,,,,,,,,,,,,,0,0,0,0,0
2.4618,1783187725.0307,1,1,1.0000,0.0000,1.44681,0.22121,-2.78054,0.98849,1.57080,0.00001,-0.14512,-0.38002,0.04340,,,,,,,,,,,,,,,,,,,,,,,,,,0,0,0,0,0
2.4737,1783187725.0425,1,1,1.0000,0.0000,1.44681,0.22113,-2.78056,0.98860,1.57080,0.00001,-0.14512,-0.38002,0.04338,,,,,,,,,,,,,,,,,,,,,,,,,,0,0,0,0,0
2.4792,1783187725.0480,1,1,1.0000,0.0000,1.44681,0.22105,-2.78058,0.98870,1.57080,0.00001,-0.14512,-0.38002,0.04335,,,,,,,,,,,,,,,,,,,,,,,,,,0,0,0,0,0
2.4899,1783187725.0587,1,1,1.0000,0.0000,1.44681,0.22104,-2.78058,0.98871,1.57080,0.00001,-0.14512,-0.38002,0.04335,,,,,,,,,,,,,,,,,,,,,,,,,,0,0,0,0,0
2.5002,1783187725.0691,1,1,1.0000,0.0000,1.44681,0.22093,-2.78061,0.98885,1.57080,0.00001,-0.14512,-0.38002,0.04332,,,,,,,,,,,,,,,,,,,,,,,,,,0,0,0,0,0
2.5087,1783187725.0775,1,1,1.0000,0.0000,1.44681,0.22082,-2.78064,0.98899,1.57080,0.00001,-0.14512,-0.38002,0.04330,,,,,,,,,,,,,,,,,,,,,,,,,,0,0,0,0,0
2.5221,1783187725.0910,1,1,1.0000,0.0000,1.44681,0.22076,-2.78065,0.98906,1.57080,0.00001,-0.14512,-0.38002,0.04328,,,,,,,,,,,,,,,,,,,,,,,,,,0,0,0,0,0
2.5422,1783187725.1111,1,1,1.0000,0.0000,1.44681,0.22059,-2.78069,0.98927,1.57080,0.00001,-0.14512,-0.38002,0.04324,,,,,,,,,,,,,,,,,,,,,,,,,,0,0,0,0,0
2.5426,1783187725.1115,1,1,1.0000,0.0000,1.44681,0.22059,-2.78069,0.98927,1.57080,0.00001,-0.14512,-0.38002,0.04324,,,,,,,,,,,,,,,,,,,,,,,,,,0,0,0,0,0
2.5433,1783187725.1121,1,1,1.0000,0.0000,1.44681,0.22059,-2.78069,0.98927,1.57080,0.00001,-0.14512,-0.38002,0.04324,,,,,,,,,,,,,,,,,,,,,,,,,,0,0,0,0,0
2.5552,1783187725.1241,1,1,1.0000,0.0000,1.44681,0.22052,-2.78071,0.98936,1.57080,0.00001,-0.14512,-0.38002,0.04322,,,,,,,,,,,,,,,,,,,,,,,,,,0,0,0,0,0
2.5556,1783187725.1245,1,1,1.0000,0.0000,1.44681,0.22052,-2.78071,0.98936,1.57080,0.00001,-0.14512,-0.38002,0.04322,,,,,,,,,,,,,,,,,,,,,,,,,,0,0,0,0,0
2.5622,1783187725.1311,1,1,1.0000,0.0000,1.44681,0.22047,-2.78072,0.98942,1.57080,0.00001,-0.14512,-0.38002,0.04321,,,,,,,,,,,,,,,,,,,,,,,,,,0,0,0,0,0
2.5763,1783187725.1452,1,1,1.0000,0.0000,1.44681,0.22031,-2.78076,0.98962,1.57080,0.00001,-0.14512,-0.38002,0.04317,,,,,,,,,,,,,,,,,,,,,,,,,,0,0,0,0,0
2.5864,1783187725.1553,1,1,1.0000,0.0000,1.44681,0.22029,-2.78077,0.98965,1.57080,0.00001,-0.14512,-0.38002,0.04316,,,,,,,,,,,,,,,,,,,,,,,,,,0,0,0,0,0
2.5939,1783187725.1628,1,1,1.0000,0.0000,1.44681,0.22023,-2.78079,0.98973,1.57080,0.00001,-0.14512,-0.38002,0.04314,,,,,,,,,,,,,,,,,,,,,,,,,,0,0,0,0,0
2.5944,1783187725.1633,1,1,1.0000,0.0000,1.44681,0.22023,-2.78079,0.98973,1.57080,0.00001,-0.14512,-0.38002,0.04314,,,,,,,,,,,,,,,,,,,,,,,,,,0,0,0,0,0
2.6034,1783187725.1722,1,1,1.0000,0.0000,1.44681,0.22014,-2.78081,0.98983,1.57080,0.00001,-0.14512,-0.38002,0.04312,,,,,,,,,,,,,,,,,,,,,,,,,,0,0,0,0,0
2.6036,1783187725.1725,1,1,1.0000,0.0000,1.44681,0.22014,-2.78081,0.98983,1.57080,0.00001,-0.14512,-0.38002,0.04312,,,,,,,,,,,,,,,,,,,,,,,,,,0,0,0,0,0
2.6144,1783187725.1832,1,1,1.0000,0.0000,1.44681,0.22011,-2.78082,0.98988,1.57080,0.00001,-0.14512,-0.38002,0.04311,,,,,,,,,,,,,,,,,,,,,,,,,,0,0,0,0,0
2.6246,1783187725.1934,1,1,1.0000,0.0000,1.44681,0.21997,-2.78085,0.99005,1.57080,0.00001,-0.14512,-0.38002,0.04308,,,,,,,,,,,,,,,,,,,,,,,,,,0,0,0,0,0
2.6340,1783187725.2028,1,1,1.0000,0.0000,1.44681,0.21986,-2.78088,0.99018,1.57080,0.00001,-0.14512,-0.38002,0.04305,,,,,,,,,,,,,,,,,,,,,,,,,,0,0,0,0,0
2.6438,1783187725.2127,1,1,1.0000,0.0000,1.44681,0.21984,-2.78088,0.99021,1.57080,0.00001,-0.14512,-0.38002,0.04304,,,,,,,,,,,,,,,,,,,,,,,,,,0,0,0,0,0
2.6565,1783187725.2253,1,1,1.0000,0.0000,1.44681,0.21973,-2.78091,0.99034,1.57080,0.00001,-0.14512,-0.38002,0.04302,,,,,,,,,,,,,,,,,,,,,,,,,,0,0,0,0,0
2.6623,1783187725.2312,1,1,1.0000,0.0000,1.44681,0.21969,-2.78092,0.99040,1.57080,0.00001,-0.14512,-0.38002,0.04301,,,,,,,,,,,,,,,,,,,,,,,,,,0,0,0,0,0
2.6773,1783187725.2461,1,1,1.0000,0.0000,1.44681,0.21961,-2.78094,0.99049,1.57080,0.00001,-0.14512,-0.38002,0.04299,,,,,,,,,,,,,,,,,,,,,,,,,,0,0,0,0,0
2.6824,1783187725.2513,1,1,1.0000,0.0000,1.44681,0.21957,-2.78095,0.99055,1.57080,0.00001,-0.14512,-0.38002,0.04297,,,,,,,,,,,,,,,,,,,,,,,,,,0,0,0,0,0
2.6835,1783187725.2523,1,1,1.0000,0.0000,1.44681,0.21951,-2.78096,0.99062,1.57080,0.00001,-0.14512,-0.38002,0.04296,,,,,,,,,,,,,,,,,,,,,,,,,,0,0,0,0,0
2.6922,1783187725.2611,1,1,1.0000,0.0000,1.44681,0.21941,-2.78099,0.99075,1.57080,0.00001,-0.14512,-0.38002,0.04293,,,,,,,,,,,,,,,,,,,,,,,,,,0,0,0,0,0
2.7028,1783187725.2716,1,1,1.0000,0.0000,1.44681,0.21940,-2.78099,0.99076,1.57080,0.00001,-0.14512,-0.38002,0.04293,,,,,,,,,,,,,,,,,,,,,,,,,,0,0,0,0,0
2.7123,1783187725.2811,1,1,1.0000,0.0000,1.44681,0.21929,-2.78102,0.99089,1.57080,0.00001,-0.14512,-0.38002,0.04290,,,,,,,,,,,,,,,,,,,,,,,,,,0,0,0,0,0
2.7268,1783187725.2957,1,1,1.0000,0.0000,1.44681,0.21919,-2.78104,0.99103,1.57080,0.00001,-0.14512,-0.38002,0.04288,,,,,,,,,,,,,,,,,,,,,,,,,,0,0,0,0,0
2.7330,1783187725.3019,1,1,1.0000,0.0000,1.44681,0.21915,-2.78105,0.99107,1.57080,0.00001,-0.14512,-0.38002,0.04287,,,,,,,,,,,,,,,,,,,,,,,,,,0,0,0,0,0
2.7891,1783187725.3580,1,1,1.0000,0.0000,1.44681,0.21868,-2.78117,0.99165,1.57080,0.00001,-0.14512,-0.38002,0.04275,,,,,,,,,,,,,,,,,,,,,,,,,,0,0,0,0,0
2.8073,1783187725.3761,1,1,1.0000,0.0000,1.44681,0.21847,-2.78122,0.99192,1.57080,0.00001,-0.14512,-0.38002,0.04269,,,,,,,,,,,,,,,,,,,,,,,,,,0,0,0,0,0
2.8103,1783187725.3792,1,1,1.0000,0.0000,1.44681,0.21847,-2.78122,0.99192,1.57080,0.00001,-0.14512,-0.38002,0.04269,,,,,,,,,,,,,,,,,,,,,,,,,,0,0,0,0,0
2.8107,1783187725.3796,1,1,1.0000,0.0000,1.44681,0.21847,-2.78122,0.99192,1.57080,0.00001,-0.14512,-0.38002,0.04269,,,,,,,,,,,,,,,,,,,,,,,,,,0,0,0,0,0
2.8112,1783187725.3801,1,1,1.0000,0.0000,1.44681,0.21842,-2.78123,0.99198,1.57080,0.00001,-0.14512,-0.38002,0.04268,,,,,,,,,,,,,,,,,,,,,,,,,,0,0,0,0,0
2.8181,1783187725.3870,1,1,1.0000,0.0000,1.44681,0.21842,-2.78123,0.99198,1.57080,0.00001,-0.14512,-0.38002,0.04268,,,,,,,,,,,,,,,,,,,,,,,,,,0,0,0,0,0
2.8184,1783187725.3873,1,1,1.0000,0.0000,1.44681,0.21842,-2.78123,0.99198,1.57080,0.00001,-0.14512,-0.38002,0.04268,,,,,,,,,,,,,,,,,,,,,,,,,,0,0,0,0,0
2.8272,1783187725.3960,1,1,1.0000,0.0000,1.44681,0.21835,-2.78125,0.99207,1.57080,0.00001,-0.14512,-0.38002,0.04266,,,,,,,,,,,,,,,,,,,,,,,,,,0,0,0,0,0
2.8329,1783187725.4018,1,1,1.0000,0.0000,1.44681,0.21830,-2.78126,0.99213,1.57080,0.00001,-0.14512,-0.38002,0.04265,,,,,,,,,,,,,,,,,,,,,,,,,,0,0,0,0,0
2.8336,1783187725.4024,1,1,1.0000,0.0000,1.44681,0.21830,-2.78126,0.99213,1.57080,0.00001,-0.14512,-0.38002,0.04265,,,,,,,,,,,,,,,,,,,,,,,,,,0,0,0,0,0
2.8481,1783187725.4170,1,1,1.0000,0.0000,1.44681,0.21819,-2.78129,0.99227,1.57080,0.00001,-0.14512,-0.38002,0.04262,,,,,,,,,,,,,,,,,,,,,,,,,,0,0,0,0,0
2.8531,1783187725.4220,1,1,1.0000,0.0000,1.44681,0.21816,-2.78130,0.99230,1.57080,0.00001,-0.14512,-0.38002,0.04262,,,,,,,,,,,,,,,,,,,,,,,,,,0,0,0,0,0
2.8535,1783187725.4223,1,1,1.0000,0.0000,1.44681,0.21816,-2.78130,0.99230,1.57080,0.00001,-0.14512,-0.38002,0.04262,,,,,,,,,,,,,,,,,,,,,,,,,,0,0,0,0,0
2.8658,1783187725.4346,1,1,1.0000,0.0000,1.44681,0.21803,-2.78133,0.99247,1.57080,0.00001,-0.14512,-0.38002,0.04258,,,,,,,,,,,,,,,,,,,,,,,,,,0,0,0,0,0
2.8721,1783187725.4410,1,1,1.0000,0.0000,1.44681,0.21792,-2.78136,0.99260,1.57080,0.00001,-0.14512,-0.38002,0.04255,,,,,,,,,,,,,,,,,,,,,,,,,,0,0,0,0,0
2.8918,1783187725.4606,1,1,1.0000,0.0000,1.44681,0.21781,-2.78139,0.99275,1.57080,0.00001,-0.14512,-0.38002,0.04252,,,,,,,,,,,,,,,,,,,,,,,,,,0,0,0,0,0
2.8926,1783187725.4614,1,1,1.0000,0.0000,1.44681,0.21781,-2.78139,0.99275,1.57080,0.00001,-0.14512,-0.38002,0.04252,,,,,,,,,,,,,,,,,,,,,,,,,,0,0,0,0,0
2.9037,1783187725.4725,1,1,1.0000,0.0000,1.44681,0.21765,-2.78142,0.99294,1.57080,0.00001,-0.14512,-0.38002,0.04248,,,,,,,,,,,,,,,,,,,,,,,,,,0,0,0,0,0
2.9160,1783187725.4849,1,1,1.0000,0.0000,1.44681,0.21762,-2.78143,0.99297,1.57080,0.00001,-0.14512,-0.38002,0.04248,,,,,,,,,,,,,,,,,,,,,,,,,,0,0,0,0,0
2.9163,1783187725.4851,1,1,1.0000,0.0000,1.44681,0.21762,-2.78143,0.99297,1.57080,0.00001,-0.14512,-0.38002,0.04248,,,,,,,,,,,,,,,,,,,,,,,,,,0,0,0,0,0
2.9222,1783187725.4910,1,1,1.0000,0.0000,1.44681,0.21760,-2.78144,0.99301,1.57080,0.00001,-0.14512,-0.38002,0.04247,,,,,,,,,,,,,,,,,,,,,,,,,,0,0,0,0,0
2.9225,1783187725.4913,1,1,1.0000,0.0000,1.44681,0.21760,-2.78144,0.99301,1.57080,0.00001,-0.14512,-0.38002,0.04247,,,,,,,,,,,,,,,,,,,,,,,,,,0,0,0,0,0
2.9340,1783187725.5029,1,1,1.0000,0.0000,1.44681,0.21747,-2.78147,0.99316,1.57080,0.00001,-0.14512,-0.38002,0.04244,,,,,,,,,,,,,,,,,,,,,,,,,,0,0,0,0,0
2.9344,1783187725.5032,1,1,1.0000,0.0000,1.44681,0.21747,-2.78147,0.99316,1.57080,0.00001,-0.14512,-0.38002,0.04244,,,,,,,,,,,,,,,,,,,,,,,,,,0,0,0,0,0
2.9502,1783187725.5191,1,1,1.0000,0.0000,1.44681,0.21740,-2.78149,0.99325,1.57080,0.00001,-0.14512,-0.38002,0.04242,,,,,,,,,,,,,,,,,,,,,,,,,,0,0,0,0,0
2.9584,1783187725.5272,1,1,1.0000,0.0000,1.44681,0.21730,-2.78151,0.99338,1.57080,0.00001,-0.14512,-0.38002,0.04239,,,,,,,,,,,,,,,,,,,,,,,,,,0,0,0,0,0
2.9587,1783187725.5276,1,1,1.0000,0.0000,1.44681,0.21730,-2.78151,0.99338,1.57080,0.00001,-0.14512,-0.38002,0.04239,,,,,,,,,,,,,,,,,,,,,,,,,,0,0,0,0,0
2.9663,1783187725.5352,1,1,1.0000,0.0000,1.44681,0.21719,-2.78154,0.99351,1.57080,0.00001,-0.14512,-0.38002,0.04237,,,,,,,,,,,,,,,,,,,,,,,,,,0,0,0,0,0
2.9799,1783187725.5488,1,1,1.0000,0.0000,1.44681,0.21714,-2.78155,0.99358,1.57080,0.00001,-0.14512,-0.38002,0.04235,,,,,,,,,,,,,,,,,,,,,,,,,,0,0,0,0,0
2.9938,1783187725.5626,1,1,1.0000,0.0000,1.44681,0.21702,-2.78158,0.99373,1.57080,0.00001,-0.14512,-0.38002,0.04232,,,,,,,,,,,,,,,,,,,,,,,,,,0,0,0,0,0
2.9971,1783187725.5660,1,1,1.0000,0.0000,1.44681,0.21702,-2.78158,0.99373,1.57080,0.00001,-0.14512,-0.38002,0.04232,,,,,,,,,,,,,,,,,,,,,,,,,,0,0,0,0,0
2.9975,1783187725.5664,1,1,1.0000,0.0000,1.44681,0.21702,-2.78158,0.99373,1.57080,0.00001,-0.14512,-0.38002,0.04232,,,,,,,,,,,,,,,,,,,,,,,,,,0,0,0,0,0
3.0121,1783187725.5810,1,1,1.0000,0.0000,1.44681,0.21690,-2.78161,0.99388,1.57080,0.00001,-0.14512,-0.38002,0.04229,,,,,,,,,,,,,,,,,,,,,,,,,,0,0,0,0,0
3.0180,1783187725.5869,1,1,1.0000,0.0000,1.44681,0.21684,-2.78162,0.99395,1.57080,0.00001,-0.14512,-0.38002,0.04228,,,,,,,,,,,,,,,,,,,,,,,,,,0,0,0,0,0
3.0184,1783187725.5873,1,1,1.0000,0.0000,1.44681,0.21684,-2.78162,0.99395,1.57080,0.00001,-0.14512,-0.38002,0.04228,,,,,,,,,,,,,,,,,,,,,,,,,,0,0,0,0,0
3.0261,1783187725.5950,1,1,1.0000,0.0000,1.44681,0.21674,-2.78165,0.99408,1.57080,0.00001,-0.14512,-0.38002,0.04225,,,,,,,,,,,,,,,,,,,,,,,,,,0,0,0,0,0
3.0264,1783187725.5953,1,1,1.0000,0.0000,1.44681,0.21674,-2.78165,0.99408,1.57080,0.00001,-0.14512,-0.38002,0.04225,,,,,,,,,,,,,,,,,,,,,,,,,,0,0,0,0,0
3.0391,1783187725.6079,1,1,1.0000,0.0000,1.44681,0.21669,-2.78166,0.99414,1.57080,0.00001,-0.14512,-0.38002,0.04224,,,,,,,,,,,,,,,,,,,,,,,,,,0,0,0,0,0
3.0475,1783187725.6164,1,1,1.0000,0.0000,1.44681,0.21661,-2.78168,0.99424,1.57080,0.00001,-0.14512,-0.38002,0.04222,,,,,,,,,,,,,,,,,,,,,,,,,,0,0,0,0,0
3.0555,1783187725.6243,1,1,1.0000,0.0000,1.44681,0.21656,-2.78169,0.99429,1.57080,0.00001,-0.14512,-0.38002,0.04221,,,,,,,,,,,,,,,,,,,,,,,,,,0,0,0,0,0
3.0657,1783187725.6345,1,1,1.0000,0.0000,1.44681,0.21653,-2.78170,0.99434,1.57080,0.00001,-0.14512,-0.38002,0.04220,,,,,,,,,,,,,,,,,,,,,,,,,,0,0,0,0,0
3.0660,1783187725.6348,1,1,1.0000,0.0000,1.44681,0.21653,-2.78170,0.99434,1.57080,0.00001,-0.14512,-0.38002,0.04220,,,,,,,,,,,,,,,,,,,,,,,,,,0,0,0,0,0
3.0754,1783187725.6442,1,1,1.0000,0.0000,1.44681,0.21639,-2.78173,0.99451,1.57080,0.00001,-0.14512,-0.38002,0.04216,,,,,,,,,,,,,,,,,,,,,,,,,,0,0,0,0,0
3.0757,1783187725.6446,1,1,1.0000,0.0000,1.44681,0.21639,-2.78173,0.99451,1.57080,0.00001,-0.14512,-0.38002,0.04216,,,,,,,,,,,,,,,,,,,,,,,,,,0,0,0,0,0
3.0978,1783187725.6667,1,1,1.0000,0.0000,1.44681,0.21626,-2.78177,0.99468,1.57080,0.00001,-0.14512,-0.38002,0.04213,,,,,,,,,,,,,,,,,,,,,,,,,,0,0,0,0,0
3.0982,1783187725.6670,1,1,1.0000,0.0000,1.44681,0.21626,-2.78177,0.99468,1.57080,0.00001,-0.14512,-0.38002,0.04213,,,,,,,,,,,,,,,,,,,,,,,,,,0,0,0,0,0
3.1004,1783187725.6693,1,1,1.0000,0.0000,1.44681,0.21623,-2.78177,0.99471,1.57080,0.00001,-0.14512,-0.38002,0.04212,,,,,,,,,,,,,,,,,,,,,,,,,,0,0,0,0,0
3.1092,1783187725.6781,1,1,1.0000,0.0000,1.44681,0.21615,-2.78179,0.99481,1.57080,0.00001,-0.14512,-0.38002,0.04210,,,,,,,,,,,,,,,,,,,,,,,,,,0,0,0,0,0
3.1152,1783187725.6840,1,1,1.0000,0.0000,1.44681,0.21611,-2.78180,0.99486,1.57080,0.00001,-0.14512,-0.38002,0.04209,,,,,,,,,,,,,,,,,,,,,,,,,,0,0,0,0,0
3.1371,1783187725.7059,1,1,1.0000,0.0000,1.44681,0.21593,-2.78185,0.99508,1.57080,0.00001,-0.14512,-0.38002,0.04205,,,,,,,,,,,,,,,,,,,,,,,,,,0,0,0,0,0
3.1379,1783187725.7068,1,1,1.0000,0.0000,1.44681,0.21593,-2.78185,0.99508,1.57080,0.00001,-0.14512,-0.38002,0.04205,,,,,,,,,,,,,,,,,,,,,,,,,,0,0,0,0,0
3.1382,1783187725.7071,1,1,1.0000,0.0000,1.44681,0.21593,-2.78185,0.99508,1.57080,0.00001,-0.14512,-0.38002,0.04205,,,,,,,,,,,,,,,,,,,,,,,,,,0,0,0,0,0
3.1477,1783187725.7165,1,1,1.0000,0.0000,1.44681,0.21583,-2.78187,0.99521,1.57080,0.00001,-0.14512,-0.38002,0.04202,,,,,,,,,,,,,,,,,,,,,,,,,,0,0,0,0,0
3.1557,1783187725.7246,1,1,1.0000,0.0000,1.44681,0.21580,-2.78188,0.99524,1.57080,0.00001,-0.14512,-0.38002,0.04201,,,,,,,,,,,,,,,,,,,,,,,,,,0,0,0,0,0
3.1561,1783187725.7250,1,1,1.0000,0.0000,1.44681,0.21580,-2.78188,0.99524,1.57080,0.00001,-0.14512,-0.38002,0.04201,,,,,,,,,,,,,,,,,,,,,,,,,,0,0,0,0,0
3.1701,1783187725.7390,1,1,1.0000,0.0000,1.44681,0.21570,-2.78190,0.99537,1.57080,0.00001,-0.14512,-0.38002,0.04199,,,,,,,,,,,,,,,,,,,,,,,,,,0,0,0,0,0
3.1755,1783187725.7443,1,1,1.0000,0.0000,1.44681,0.21565,-2.78192,0.99543,1.57080,0.00001,-0.14512,-0.38002,0.04197,,,,,,,,,,,,,,,,,,,,,,,,,,0,0,0,0,0
3.1758,1783187725.7447,1,1,1.0000,0.0000,1.44681,0.21565,-2.78192,0.99543,1.57080,0.00001,-0.14512,-0.38002,0.04197,,,,,,,,,,,,,,,,,,,,,,,,,,0,0,0,0,0
3.1983,1783187725.7672,1,1,1.0000,0.0000,1.44681,0.21548,-2.78196,0.99565,1.57080,0.00001,-0.14512,-0.38002,0.04193,,,,,,,,,,,,,,,,,,,,,,,,,,0,0,0,0,0
3.1986,1783187725.7675,1,1,1.0000,0.0000,1.44681,0.21548,-2.78196,0.99565,1.57080,0.00001,-0.14512,-0.38002,0.04193,,,,,,,,,,,,,,,,,,,,,,,,,,0,0,0,0,0
3.2075,1783187725.7763,1,1,1.0000,0.0000,1.44681,0.21537,-2.78199,0.99578,1.57080,0.00001,-0.14512,-0.38002,0.04190,,,,,,,,,,,,,,,,,,,,,,,,,,0,0,0,0,0
3.2603,1783187725.8291,1,1,1.0000,0.0000,1.44681,0.21492,-2.78209,0.99634,1.57080,0.00001,-0.14512,-0.38002,0.04179,,,,,,,,,,,,,,,,,,,,,,,,,,0,0,0,0,0
3.2608,1783187725.8297,1,1,1.0000,0.0000,1.44681,0.21492,-2.78209,0.99634,1.57080,0.00001,-0.14512,-0.38002,0.04179,,,,,,,,,,,,,,,,,,,,,,,,,,0,0,0,0,0
3.2611,1783187725.8300,1,1,1.0000,0.0000,1.44681,0.21492,-2.78209,0.99634,1.57080,0.00001,-0.14512,-0.38002,0.04179,,,,,,,,,,,,,,,,,,,,,,,,,,0,0,0,0,0
3.2978,1783187725.8667,1,1,1.0000,0.0000,1.44681,0.21465,-2.78216,0.99668,1.57080,0.00001,-0.14512,-0.38002,0.04172,,,,,,,,,,,,,,,,,,,,,,,,,,0,0,0,0,0
3.2981,1783187725.8670,1,1,1.0000,0.0000,1.44681,0.21465,-2.78216,0.99668,1.57080,0.00001,-0.14512,-0.38002,0.04172,,,,,,,,,,,,,,,,,,,,,,,,,,0,0,0,0,0
3.2984,1783187725.8673,1,1,1.0000,0.0000,1.44681,0.21465,-2.78216,0.99668,1.57080,0.00001,-0.14512,-0.38002,0.04172,,,,,,,,,,,,,,,,,,,,,,,,,,0,0,0,0,0
3.2991,1783187725.8680,1,1,1.0000,0.0000,1.44681,0.21464,-2.78216,0.99669,1.57080,0.00001,-0.14512,-0.38002,0.04172,,,,,,,,,,,,,,,,,,,,,,,,,,0,0,0,0,0
3.2995,1783187725.8683,1,1,1.0000,0.0000,1.44681,0.21464,-2.78216,0.99669,1.57080,0.00001,-0.14512,-0.38002,0.04172,,,,,,,,,,,,,,,,,,,,,,,,,,0,0,0,0,0
3.3073,1783187725.8762,1,1,1.0000,0.0000,1.44681,0.21458,-2.78218,0.99677,1.57080,0.00001,-0.14512,-0.38002,0.04170,,,,,,,,,,,,,,,,,,,,,,,,,,0,0,0,0,0
3.3172,1783187725.8861,1,1,1.0000,0.0000,1.44681,0.21448,-2.78220,0.99689,1.57080,0.00002,-0.14512,-0.38002,0.04168,,,,,,,,,,,,,,,,,,,,,,,,,,0,0,0,0,0
3.3268,1783187725.8956,1,1,1.0000,0.0000,1.44681,0.21437,-2.78223,0.99702,1.57080,0.00002,-0.14512,-0.38002,0.04165,,,,,,,,,,,,,,,,,,,,,,,,,,0,0,0,0,0
3.3400,1783187725.9089,1,1,1.0000,0.0000,1.44681,0.21430,-2.78225,0.99711,1.57080,0.00002,-0.14512,-0.38002,0.04163,,,,,,,,,,,,,,,,,,,,,,,,,,0,0,0,0,0
3.3475,1783187725.9164,1,1,1.0000,0.0000,1.44681,0.21420,-2.78227,0.99723,1.57080,0.00002,-0.14512,-0.38002,0.04161,,,,,,,,,,,,,,,,,,,,,,,,,,0,0,0,0,0
3.3605,1783187725.9294,1,1,1.0000,0.0000,1.44681,0.21414,-2.78229,0.99731,1.57080,0.00002,-0.14512,-0.38002,0.04159,,,,,,,,,,,,,,,,,,,,,,,,,,0,0,0,0,0
3.3688,1783187725.9377,1,1,1.0000,0.0000,1.44681,0.21408,-2.78230,0.99739,1.57080,0.00002,-0.14512,-0.38002,0.04157,,,,,,,,,,,,,,,,,,,,,,,,,,0,0,0,0,0
3.3692,1783187725.9381,1,1,1.0000,0.0000,1.44681,0.21408,-2.78230,0.99739,1.57080,0.00002,-0.14512,-0.38002,0.04157,,,,,,,,,,,,,,,,,,,,,,,,,,0,0,0,0,0
3.3769,1783187725.9457,1,1,1.0000,0.0000,1.44681,0.21398,-2.78232,0.99751,1.57080,0.00002,-0.14512,-0.38002,0.04155,,,,,,,,,,,,,,,,,,,,,,,,,,0,0,0,0,0
3.3886,1783187725.9574,1,1,1.0000,0.0000,1.44681,0.21388,-2.78235,0.99764,1.57080,0.00002,-0.14512,-0.38002,0.04152,,,,,,,,,,,,,,,,,,,,,,,,,,0,0,0,0,0
3.4001,1783187725.9690,1,1,1.0000,0.0000,1.44681,0.21380,-2.78237,0.99773,1.57080,0.00002,-0.14512,-0.38002,0.04150,,,,,,,,,,,,,,,,,,,,,,,,,,0,0,0,0,0
3.4106,1783187725.9794,1,1,1.0000,0.0000,1.44681,0.21371,-2.78239,0.99785,1.57080,0.00002,-0.14512,-0.38002,0.04148,,,,,,,,,,,,,,,,,,,,,,,,,,0,0,0,0,0
3.4187,1783187725.9876,1,1,1.0000,0.0000,1.44681,0.21360,-2.78242,0.99798,1.57080,0.00002,-0.14512,-0.38002,0.04145,,,,,,,,,,,,,,,,,,,,,,,,,,0,0,0,0,0
3.4282,1783187725.9971,1,1,1.0000,0.0000,1.44681,0.21358,-2.78242,0.99801,1.57080,0.00002,-0.14512,-0.38002,0.04144,,,,,,,,,,,,,,,,,,,,,,,,,,0,0,0,0,0
3.4285,1783187725.9973,1,1,1.0000,0.0000,1.44681,0.21358,-2.78242,0.99801,1.57080,0.00002,-0.14512,-0.38002,0.04144,,,,,,,,,,,,,,,,,,,,,,,,,,0,0,0,0,0
3.4357,1783187726.0046,1,1,1.0000,0.0000,1.44681,0.21351,-2.78244,0.99809,1.57080,0.00002,-0.14512,-0.38002,0.04143,,,,,,,,,,,,,,,,,,,,,,,,,,0,0,0,0,0
3.4361,1783187726.0050,1,1,1.0000,0.0000,1.44681,0.21351,-2.78244,0.99809,1.57080,0.00002,-0.14512,-0.38002,0.04143,,,,,,,,,,,,,,,,,,,,,,,,,,0,0,0,0,0
3.4476,1783187726.0165,1,1,1.0000,0.0000,1.44681,0.21342,-2.78246,0.99820,1.57080,0.00002,-0.14512,-0.38002,0.04141,,,,,,,,,,,,,,,,,,,,,,,,,,0,0,0,0,0
3.4565,1783187726.0254,1,1,1.0000,0.0000,1.44681,0.21339,-2.78247,0.99825,1.57080,0.00002,-0.14512,-0.38002,0.04140,,,,,,,,,,,,,,,,,,,,,,,,,,0,0,0,0,0
3.4677,1783187726.0365,1,1,1.0000,0.0000,1.44681,0.21325,-2.78250,0.99842,1.57080,0.00002,-0.14512,-0.38002,0.04136,,,,,,,,,,,,,,,,,,,,,,,,,,0,0,0,0,0
3.4767,1783187726.0456,1,1,1.0000,0.0000,1.44681,0.21314,-2.78253,0.99855,1.57080,0.00002,-0.14512,-0.38002,0.04133,,,,,,,,,,,,,,,,,,,,,,,,,,0,0,0,0,0
3.4853,1783187726.0542,1,1,1.0000,0.0000,1.44681,0.21314,-2.78253,0.99856,1.57080,0.00002,-0.14512,-0.38002,0.04133,,,,,,,,,,,,,,,,,,,,,,,,,,0,0,0,0,0
3.5019,1783187726.0708,1,1,1.0000,0.0000,1.44681,0.21301,-2.78256,0.99871,1.57080,0.00002,-0.14512,-0.38002,0.04130,,,,,,,,,,,,,,,,,,,,,,,,,,0,0,0,0,0
3.5077,1783187726.0765,1,1,1.0000,0.0000,1.44681,0.21297,-2.78257,0.99877,1.57080,0.00002,-0.14512,-0.38002,0.04129,,,,,,,,,,,,,,,,,,,,,,,,,,0,0,0,0,0
3.5162,1783187726.0851,1,1,1.0000,0.0000,1.44681,0.21293,-2.78258,0.99881,1.57080,0.00002,-0.14512,-0.38002,0.04128,,,,,,,,,,,,,,,,,,,,,,,,,,0,0,0,0,0
3.5256,1783187726.0945,1,1,1.0000,0.0000,1.44681,0.21284,-2.78260,0.99892,1.57080,0.00002,-0.14512,-0.38002,0.04126,,,,,,,,,,,,,,,,,,,,,,,,,,0,0,0,0,0
3.5366,1783187726.1054,1,1,1.0000,0.0000,1.44681,0.21268,-2.78264,0.99912,1.57080,0.00002,-0.14512,-0.38002,0.04122,,,,,,,,,,,,,,,,,,,,,,,,,,0,0,0,0,0
3.5463,1783187726.1152,1,1,1.0000,0.0000,1.44681,0.21268,-2.78264,0.99913,1.57080,0.00002,-0.14512,-0.38002,0.04122,,,,,,,,,,,,,,,,,,,,,,,,,,0,0,0,0,0
3.5467,1783187726.1155,1,1,1.0000,0.0000,1.44681,0.21268,-2.78264,0.99913,1.57080,0.00002,-0.14512,-0.38002,0.04122,,,,,,,,,,,,,,,,,,,,,,,,,,0,0,0,0,0
3.5558,1783187726.1247,1,1,1.0000,0.0000,1.44681,0.21260,-2.78266,0.99923,1.57080,0.00002,-0.14512,-0.38002,0.04120,,,,,,,,,,,,,,,,,,,,,,,,,,0,0,0,0,0
3.5662,1783187726.1351,1,1,1.0000,0.0000,1.44681,0.21251,-2.78268,0.99934,1.57080,0.00002,-0.14512,-0.38002,0.04117,,,,,,,,,,,,,,,,,,,,,,,,,,0,0,0,0,0
3.5781,1783187726.1470,1,1,1.0000,0.0000,1.44681,0.21247,-2.78269,0.99938,1.57080,0.00002,-0.14512,-0.38002,0.04117,,,,,,,,,,,,,,,,,,,,,,,,,,0,0,0,0,0
3.5900,1783187726.1588,1,1,1.0000,0.0000,1.44681,0.21233,-2.78273,0.99956,1.57080,0.00002,-0.14512,-0.38002,0.04113,,,,,,,,,,,,,,,,,,,,,,,,,,0,0,0,0,0
3.6096,1783187726.1784,1,1,1.0000,0.0000,1.44681,0.21220,-2.78276,0.99972,1.57080,0.00002,-0.14512,-0.38002,0.04110,,,,,,,,,,,,,,,,,,,,,,,,,,0,0,0,0,0
3.6100,1783187726.1789,1,1,1.0000,0.0000,1.44681,0.21220,-2.78276,0.99972,1.57080,0.00002,-0.14512,-0.38002,0.04110,,,,,,,,,,,,,,,,,,,,,,,,,,0,0,0,0,0
3.6195,1783187726.1884,1,1,1.0000,0.0000,1.44681,0.21210,-2.78278,0.99985,1.57080,0.00002,-0.14512,-0.38002,0.04107,,,,,,,,,,,,,,,,,,,,,,,,,,0,0,0,0,0
3.6272,1783187726.1960,1,1,1.0000,0.0000,1.44681,0.21205,-2.78279,0.99991,1.57080,0.00002,-0.14512,-0.38002,0.04106,,,,,,,,,,,,,,,,,,,,,,,,,,0,0,0,0,0
3.6278,1783187726.1967,1,1,1.0000,0.0000,1.44681,0.21205,-2.78279,0.99991,1.57080,0.00002,-0.14512,-0.38002,0.04106,,,,,,,,,,,,,,,,,,,,,,,,,,0,0,0,0,0
3.6421,1783187726.2109,1,1,1.0000,0.0000,1.44681,0.21198,-2.78281,1.00000,1.57080,0.00002,-0.14512,-0.38002,0.04104,,,,,,,,,,,,,,,,,,,,,,,,,,0,0,0,0,0
3.6487,1783187726.2175,1,1,1.0000,0.0000,1.44681,0.21187,-2.78284,1.00013,1.57080,0.00002,-0.14512,-0.38002,0.04101,,,,,,,,,,,,,,,,,,,,,,,,,,0,0,0,0,0
3.6575,1783187726.2263,1,1,1.0000,0.0000,1.44681,0.21177,-2.78286,1.00026,1.57080,0.00002,-0.14512,-0.38002,0.04099,,,,,,,,,,,,,,,,,,,,,,,,,,0,0,0,0,0
3.6579,1783187726.2267,1,1,1.0000,0.0000,1.44681,0.21177,-2.78286,1.00026,1.57080,0.00002,-0.14512,-0.38002,0.04099,,,,,,,,,,,,,,,,,,,,,,,,,,0,0,0,0,0
3.6680,1783187726.2369,1,1,1.0000,0.0000,1.44681,0.21174,-2.78287,1.00029,1.57080,0.00002,-0.14512,-0.38002,0.04098,,,,,,,,,,,,,,,,,,,,,,,,,,0,0,0,0,0
3.6683,1783187726.2372,1,1,1.0000,0.0000,1.44681,0.21174,-2.78287,1.00029,1.57080,0.00002,-0.14512,-0.38002,0.04098,,,,,,,,,,,,,,,,,,,,,,,,,,0,0,0,0,0
3.6806,1783187726.2495,1,1,1.0000,0.0000,1.44681,0.21164,-2.78289,1.00042,1.57080,0.00002,-0.14512,-0.38002,0.04095,,,,,,,,,,,,,,,,,,,,,,,,,,0,0,0,0,0
3.6864,1783187726.2553,1,1,1.0000,0.0000,1.44681,0.21159,-2.78291,1.00048,1.57080,0.00002,-0.14512,-0.38002,0.04094,,,,,,,,,,,,,,,,,,,,,,,,,,0,0,0,0,0
3.6868,1783187726.2557,1,1,1.0000,0.0000,1.44681,0.21159,-2.78291,1.00048,1.57080,0.00002,-0.14512,-0.38002,0.04094,,,,,,,,,,,,,,,,,,,,,,,,,,0,0,0,0,0
3.6972,1783187726.2661,1,1,1.0000,0.0000,1.44681,0.21156,-2.78291,1.00052,1.57080,0.00002,-0.14512,-0.38002,0.04093,,,,,,,,,,,,,,,,,,,,,,,,,,0,0,0,0,0
3.6975,1783187726.2664,1,1,1.0000,0.0000,1.44681,0.21156,-2.78291,1.00052,1.57080,0.00002,-0.14512,-0.38002,0.04093,,,,,,,,,,,,,,,,,,,,,,,,,,0,0,0,0,0
3.7063,1783187726.2752,1,1,1.0000,0.0000,1.44681,0.21147,-2.78294,1.00063,1.57080,0.00002,-0.14512,-0.38002,0.04091,,,,,,,,,,,,,,,,,,,,,,,,,,0,0,0,0,0
3.7067,1783187726.2755,1,1,1.0000,0.0000,1.44681,0.21147,-2.78294,1.00063,1.57080,0.00002,-0.14512,-0.38002,0.04091,,,,,,,,,,,,,,,,,,,,,,,,,,0,0,0,0,0
3.7167,1783187726.2855,1,1,1.0000,0.0000,1.44681,0.21131,-2.78297,1.00083,1.57080,0.00002,-0.14512,-0.38002,0.04087,,,,,,,,,,,,,,,,,,,,,,,,,,0,0,0,0,0
3.7257,1783187726.2945,1,1,1.0000,0.0000,1.44681,0.21130,-2.78298,1.00084,1.57080,0.00002,-0.14512,-0.38002,0.04087,,,,,,,,,,,,,,,,,,,,,,,,,,0,0,0,0,0
3.7261,1783187726.2949,1,1,1.0000,0.0000,1.44681,0.21130,-2.78298,1.00084,1.57080,0.00002,-0.14512,-0.38002,0.04087,,,,,,,,,,,,,,,,,,,,,,,,,,0,0,0,0,0
3.7402,1783187726.3091,1,1,1.0000,0.0000,1.44681,0.21118,-2.78301,1.00099,1.57080,0.00002,-0.14512,-0.38002,0.04084,,,,,,,,,,,,,,,,,,,,,,,,,,0,0,0,0,0
3.7500,1783187726.3188,1,1,1.0000,0.0000,1.44681,0.21113,-2.78302,1.00105,1.57080,0.00002,-0.14512,-0.38002,0.04083,,,,,,,,,,,,,,,,,,,,,,,,,,0,0,0,0,0
3.7505,1783187726.3194,1,1,1.0000,0.0000,1.44681,0.21113,-2.78302,1.00105,1.57080,0.00002,-0.14512,-0.38002,0.04083,,,,,,,,,,,,,,,,,,,,,,,,,,0,0,0,0,0
3.7562,1783187726.3251,1,1,1.0000,0.0000,1.44681,0.21110,-2.78303,1.00109,1.57080,0.00002,-0.14512,-0.38002,0.04082,,,,,,,,,,,,,,,,,,,,,,,,,,0,0,0,0,0
3.7565,1783187726.3254,1,1,1.0000,0.0000,1.44681,0.21110,-2.78303,1.00109,1.57080,0.00002,-0.14512,-0.38002,0.04082,,,,,,,,,,,,,,,,,,,,,,,,,,0,0,0,0,0
3.7700,1783187726.3388,1,1,1.0000,0.0000,1.44681,0.21096,-2.78306,1.00127,1.57080,0.00002,-0.14512,-0.38002,0.04078,,,,,,,,,,,,,,,,,,,,,,,,,,0,0,0,0,0
3.7755,1783187726.3444,1,1,1.0000,0.0000,1.44681,0.21085,-2.78309,1.00140,1.57080,0.00002,-0.14512,-0.38002,0.04075,,,,,,,,,,,,,,,,,,,,,,,,,,0,0,0,0,0
3.7882,1783187726.3570,1,1,1.0000,0.0000,1.44681,0.21082,-2.78309,1.00143,1.57080,0.00002,-0.14512,-0.38002,0.04075,,,,,,,,,,,,,,,,,,,,,,,,,,0,0,0,0,0
3.7981,1783187726.3669,1,1,1.0000,0.0000,1.44681,0.21076,-2.78311,1.00151,1.57080,0.00002,-0.14512,-0.38002,0.04073,,,,,,,,,,,,,,,,,,,,,,,,,,0,0,0,0,0
3.8128,1783187726.3816,1,1,1.0000,0.0000,1.44681,0.21066,-2.78313,1.00163,1.57080,0.00002,-0.14512,-0.38002,0.04071,,,,,,,,,,,,,,,,,,,,,,,,,,0,0,0,0,0
3.8184,1783187726.3873,1,1,1.0000,0.0000,1.44681,0.21064,-2.78314,1.00166,1.57080,0.00002,-0.14512,-0.38002,0.04070,,,,,,,,,,,,,,,,,,,,,,,,,,0,0,0,0,0
3.8311,1783187726.3999,1,1,1.0000,0.0000,1.44681,0.21050,-2.78317,1.00184,1.57080,0.00002,-0.14512,-0.38002,0.04066,,,,,,,,,,,,,,,,,,,,,,,,,,0,0,0,0,0
3.8398,1783187726.4087,1,1,1.0000,0.0000,1.44681,0.21039,-2.78320,1.00197,1.57080,0.00002,-0.14512,-0.38002,0.04064,,,,,,,,,,,,,,,,,,,,,,,,,,0,0,0,0,0
3.8579,1783187726.4267,1,1,1.0000,0.0000,1.44681,0.21030,-2.78322,1.00208,1.57080,0.00002,-0.14512,-0.38002,0.04061,,,,,,,,,,,,,,,,,,,,,,,,,,0,0,0,0,0
3.8726,1783187726.4415,1,1,1.0000,0.0000,1.44681,0.21020,-2.78324,1.00220,1.57080,0.00002,-0.14512,-0.38002,0.04059,,,,,,,,,,,,,,,,,,,,,,,,,,0,0,0,0,0
3.8772,1783187726.4460,1,1,1.0000,0.0000,1.44681,0.21018,-2.78325,1.00223,1.57080,0.00002,-0.14512,-0.38002,0.04058,,,,,,,,,,,,,,,,,,,,,,,,,,0,0,0,0,0
3.8775,1783187726.4463,1,1,1.0000,0.0000,1.44681,0.21018,-2.78325,1.00223,1.57080,0.00002,-0.14512,-0.38002,0.04058,,,,,,,,,,,,,,,,,,,,,,,,,,0,0,0,0,0
3.8791,1783187726.4479,1,1,1.0000,0.0000,1.44681,0.21018,-2.78325,1.00223,1.57080,0.00002,-0.14512,-0.38002,0.04058,,,,,,,,,,,,,,,,,,,,,,,,,,0,0,0,0,0
3.8912,1783187726.4601,1,1,1.0000,0.0000,1.44681,0.21004,-2.78328,1.00241,1.57080,0.00002,-0.14512,-0.38002,0.04055,,,,,,,,,,,,,,,,,,,,,,,,,,0,0,0,0,0
3.8963,1783187726.4651,1,1,1.0000,0.0000,1.44681,0.20993,-2.78331,1.00254,1.57080,0.00002,-0.14512,-0.38002,0.04052,,,,,,,,,,,,,,,,,,,,,,,,,,0,0,0,0,0
3.9069,1783187726.4758,1,1,1.0000,0.0000,1.44681,0.20992,-2.78331,1.00255,1.57080,0.00002,-0.14512,-0.38002,0.04052,,,,,,,,,,,,,,,,,,,,,,,,,,0,0,0,0,0
3.9160,1783187726.4849,1,1,1.0000,0.0000,1.44681,0.20981,-2.78334,1.00269,1.57080,0.00002,-0.14512,-0.38002,0.04049,,,,,,,,,,,,,,,,,,,,,,,,,,0,0,0,0,0
3.9277,1783187726.4966,1,1,1.0000,0.0000,1.44680,0.20971,-2.78336,1.00282,1.57080,0.00002,-0.14512,-0.38002,0.04046,,,,,,,,,,,,,,,,,,,,,,,,,,0,0,0,0,0
3.9357,1783187726.5046,1,1,1.0000,0.0000,1.44680,0.20967,-2.78337,1.00286,1.57080,0.00002,-0.14512,-0.38002,0.04046,,,,,,,,,,,,,,,,,,,,,,,,,,0,0,0,0,0
3.9361,1783187726.5050,1,1,1.0000,0.0000,1.44680,0.20967,-2.78337,1.00286,1.57080,0.00002,-0.14512,-0.38002,0.04046,,,,,,,,,,,,,,,,,,,,,,,,,,0,0,0,0,0
3.9499,1783187726.5188,1,1,1.0000,0.0000,1.44680,0.20954,-2.78340,1.00303,1.57079,0.00002,-0.14512,-0.38002,0.04042,,,,,,,,,,,,,,,,,,,,,,,,,,0,0,0,0,0
3.9587,1783187726.5275,1,1,1.0000,0.0000,1.44680,0.20943,-2.78343,1.00316,1.57079,0.00002,-0.14512,-0.38002,0.04039,,,,,,,,,,,,,,,,,,,,,,,,,,0,0,0,0,0
3.9690,1783187726.5379,1,1,1.0000,0.0000,1.44680,0.20939,-2.78344,1.00321,1.57079,0.00002,-0.14512,-0.38002,0.04039,,,,,,,,,,,,,,,,,,,,,,,,,,0,0,0,0,0
3.9814,1783187726.5503,1,1,1.0000,0.0000,1.44680,0.20926,-2.78347,1.00338,1.57079,0.00002,-0.14512,-0.38002,0.04035,,,,,,,,,,,,,,,,,,,,,,,,,,0,0,0,0,0
3.9889,1783187726.5578,1,1,1.0000,0.0000,1.44680,0.20920,-2.78348,1.00344,1.57079,0.00002,-0.14512,-0.38002,0.04034,,,,,,,,,,,,,,,,,,,,,,,,,,0,0,0,0,0
4.0032,1783187726.5720,1,1,1.0000,0.0000,1.44680,0.20913,-2.78350,1.00353,1.57079,0.00002,-0.14512,-0.38002,0.04032,,,,,,,,,,,,,,,,,,,,,,,,,,0,0,0,0,0
4.0140,1783187726.5828,1,1,1.0000,0.0000,1.44680,0.20898,-2.78354,1.00372,1.57079,0.00002,-0.14512,-0.38002,0.04028,,,,,,,,,,,,,,,,,,,,,,,,,,0,0,0,0,0
4.0201,1783187726.5889,1,1,1.0000,0.0000,1.44680,0.20893,-2.78355,1.00379,1.57079,0.00002,-0.14512,-0.38002,0.04027,,,,,,,,,,,,,,,,,,,,,,,,,,0,0,0,0,0
4.0206,1783187726.5894,1,1,1.0000,0.0000,1.44680,0.20893,-2.78355,1.00379,1.57079,0.00002,-0.14512,-0.38002,0.04027,,,,,,,,,,,,,,,,,,,,,,,,,,0,0,0,0,0
4.0294,1783187726.5983,1,1,1.0000,0.0000,1.44680,0.20889,-2.78356,1.00383,1.57079,0.00002,-0.14512,-0.38002,0.04026,,,,,,,,,,,,,,,,,,,,,,,,,,0,0,0,0,0
4.0411,1783187726.6099,1,1,1.0000,0.0000,1.44680,0.20876,-2.78359,1.00400,1.57079,0.00002,-0.14512,-0.38002,0.04022,,,,,,,,,,,,,,,,,,,,,,,,,,0,0,0,0,0
4.0492,1783187726.6181,1,1,1.0000,0.0000,1.44680,0.20870,-2.78360,1.00407,1.57079,0.00002,-0.14512,-0.38002,0.04021,,,,,,,,,,,,,,,,,,,,,,,,,,0,0,0,0,0
4.0495,1783187726.6184,1,1,1.0000,0.0000,1.44680,0.20870,-2.78360,1.00407,1.57079,0.00002,-0.14512,-0.38002,0.04021,,,,,,,,,,,,,,,,,,,,,,,,,,0,0,0,0,0
4.0610,1783187726.6298,1,1,1.0000,0.0000,1.44680,0.20863,-2.78362,1.00416,1.57079,0.00002,-0.14512,-0.38002,0.04019,,,,,,,,,,,,,,,,,,,,,,,,,,0,0,0,0,0
4.0825,1783187726.6513,1,1,1.0000,0.0000,1.44680,0.20842,-2.78367,1.00441,1.57079,0.00002,-0.14512,-0.38002,0.04014,,,,,,,,,,,,,,,,,,,,,,,,,,0,0,0,0,0
4.0837,1783187726.6526,1,1,1.0000,0.0000,1.44680,0.20842,-2.78367,1.00442,1.57079,0.00002,-0.14512,-0.38002,0.04014,,,,,,,,,,,,,,,,,,,,,,,,,,0,0,0,0,0
4.0917,1783187726.6606,1,1,1.0000,0.0000,1.44680,0.20835,-2.78369,1.00450,1.57079,0.00002,-0.14512,-0.38002,0.04012,,,,,,,,,,,,,,,,,,,,,,,,,,0,0,0,0,0
4.0988,1783187726.6677,1,1,1.0000,0.0000,1.44680,0.20831,-2.78370,1.00456,1.57079,0.00002,-0.14512,-0.38002,0.04011,,,,,,,,,,,,,,,,,,,,,,,,,,0,0,0,0,0
4.1111,1783187726.6800,1,1,1.0000,0.0000,1.44680,0.20820,-2.78372,1.00469,1.57079,0.00002,-0.14512,-0.38002,0.04008,,,,,,,,,,,,,,,,,,,,,,,,,,0,0,0,0,0
4.1200,1783187726.6888,1,1,1.0000,0.0000,1.44680,0.20813,-2.78374,1.00478,1.57079,0.00002,-0.14512,-0.38002,0.04007,,,,,,,,,,,,,,,,,,,,,,,,,,0,0,0,0,0
4.1296,1783187726.6985,1,1,1.0000,0.0000,1.44680,0.20803,-2.78376,1.00490,1.57079,0.00002,-0.14512,-0.38002,0.04004,,,,,,,,,,,,,,,,,,,,,,,,,,0,0,0,0,0
4.1396,1783187726.7085,1,1,1.0000,0.0000,1.44680,0.20792,-2.78379,1.00503,1.57079,0.00002,-0.14512,-0.38002,0.04001,,,,,,,,,,,,,,,,,,,,,,,,,,0,0,0,0,0
4.1530,1783187726.7219,1,1,1.0000,0.0000,1.44680,0.20785,-2.78381,1.00512,1.57079,0.00002,-0.14512,-0.38002,0.04000,,,,,,,,,,,,,,,,,,,,,,,,,,0,0,0,0,0
4.1660,1783187726.7349,1,1,1.0000,0.0000,1.44680,0.20770,-2.78384,1.00531,1.57079,0.00002,-0.14512,-0.38002,0.03996,,,,,,,,,,,,,,,,,,,,,,,,,,0,0,0,0,0
4.1729,1783187726.7417,1,1,1.0000,0.0000,1.44680,0.20764,-2.78386,1.00538,1.57079,0.00002,-0.14512,-0.38002,0.03994,,,,,,,,,,,,,,,,,,,,,,,,,,0,0,0,0,0
4.1814,1783187726.7503,1,1,1.0000,0.0000,1.44680,0.20762,-2.78386,1.00541,1.57079,0.00002,-0.14512,-0.38002,0.03994,,,,,,,,,,,,,,,,,,,,,,,,,,0,0,0,0,0
4.1946,1783187726.7635,1,1,1.0000,0.0000,1.44680,0.20751,-2.78389,1.00554,1.57079,0.00002,-0.14512,-0.38002,0.03991,,,,,,,,,,,,,,,,,,,,,,,,,,0,0,0,0,0
4.2033,1783187726.7722,1,1,1.0000,0.0000,1.44680,0.20747,-2.78390,1.00560,1.57079,0.00002,-0.14512,-0.38002,0.03990,,,,,,,,,,,,,,,,,,,,,,,,,,0,0,0,0,0
4.2087,1783187726.7776,1,1,1.0000,0.0000,1.44680,0.20743,-2.78391,1.00564,1.57079,0.00002,-0.14512,-0.38002,0.03989,,,,,,,,,,,,,,,,,,,,,,,,,,0,0,0,0,0
4.2186,1783187726.7875,1,1,1.0000,0.0000,1.44680,0.20734,-2.78393,1.00575,1.57079,0.00002,-0.14512,-0.38002,0.03987,,,,,,,,,,,,,,,,,,,,,,,,,,0,0,0,0,0
4.2191,1783187726.7879,1,1,1.0000,0.0000,1.44680,0.20734,-2.78393,1.00575,1.57079,0.00002,-0.14512,-0.38002,0.03987,,,,,,,,,,,,,,,,,,,,,,,,,,0,0,0,0,0
4.2289,1783187726.7978,1,1,1.0000,0.0000,1.44680,0.20718,-2.78397,1.00595,1.57079,0.00002,-0.14512,-0.38002,0.03983,,,,,,,,,,,,,,,,,,,,,,,,,,0,0,0,0,0
4.2388,1783187726.8076,1,1,1.0000,0.0000,1.44680,0.20717,-2.78397,1.00596,1.57079,0.00002,-0.14512,-0.38002,0.03983,,,,,,,,,,,,,,,,,,,,,,,,,,0,0,0,0,0
4.2511,1783187726.8200,1,1,1.0000,0.0000,1.44680,0.20709,-2.78399,1.00606,1.57079,0.00002,-0.14512,-0.38002,0.03980,,,,,,,,,,,,,,,,,,,,,,,,,,0,0,0,0,0
4.2621,1783187726.8310,1,1,1.0000,0.0000,1.44680,0.20700,-2.78401,1.00617,1.57079,0.00002,-0.14512,-0.38002,0.03978,,,,,,,,,,,,,,,,,,,,,,,,,,0,0,0,0,0
4.2815,1783187726.8503,1,1,1.0000,0.0000,1.44680,0.20683,-2.78405,1.00639,1.57079,0.00002,-0.14512,-0.38002,0.03974,,,,,,,,,,,,,,,,,,,,,,,,,,0,0,0,0,0
4.2847,1783187726.8536,1,1,1.0000,0.0000,1.44680,0.20677,-2.78407,1.00646,1.57079,0.00002,-0.14512,-0.38002,0.03972,,,,,,,,,,,,,,,,,,,,,,,,,,0,0,0,0,0
4.2851,1783187726.8539,1,1,1.0000,0.0000,1.44680,0.20677,-2.78407,1.00646,1.57079,0.00002,-0.14512,-0.38002,0.03972,,,,,,,,,,,,,,,,,,,,,,,,,,0,0,0,0,0
4.2900,1783187726.8588,1,1,1.0000,0.0000,1.44680,0.20672,-2.78408,1.00652,1.57079,0.00002,-0.14512,-0.38002,0.03971,,,,,,,,,,,,,,,,,,,,,,,,,,0,0,0,0,0
4.2905,1783187726.8593,1,1,1.0000,0.0000,1.44680,0.20672,-2.78408,1.00652,1.57079,0.00002,-0.14512,-0.38002,0.03971,,,,,,,,,,,,,,,,,,,,,,,,,,0,0,0,0,0
4.3015,1783187726.8704,1,1,1.0000,0.0000,1.44680,0.20669,-2.78408,1.00655,1.57079,0.00002,-0.14512,-0.38002,0.03970,,,,,,,,,,,,,,,,,,,,,,,,,,0,0,0,0,0
4.3019,1783187726.8707,1,1,1.0000,0.0000,1.44680,0.20669,-2.78408,1.00655,1.57079,0.00002,-0.14512,-0.38002,0.03970,,,,,,,,,,,,,,,,,,,,,,,,,,0,0,0,0,0
4.3108,1783187726.8796,1,1,1.0000,0.0000,1.44680,0.20663,-2.78410,1.00663,1.57079,0.00002,-0.14512,-0.38002,0.03969,,,,,,,,,,,,,,,,,,,,,,,,,,0,0,0,0,0
4.3239,1783187726.8928,1,1,1.0000,0.0000,1.44680,0.20653,-2.78412,1.00675,1.57079,0.00002,-0.14512,-0.38002,0.03966,,,,,,,,,,,,,,,,,,,,,,,,,,0,0,0,0,0
4.3339,1783187726.9027,1,1,1.0000,0.0000,1.44680,0.20647,-2.78414,1.00683,1.57079,0.00002,-0.14512,-0.38002,0.03965,,,,,,,,,,,,,,,,,,,,,,,,,,0,0,0,0,0
4.3424,1783187726.9112,1,1,1.0000,0.0000,1.44680,0.20637,-2.78416,1.00696,1.57079,0.00002,-0.14512,-0.38002,0.03962,,,,,,,,,,,,,,,,,,,,,,,,,,0,0,0,0,0
4.3500,1783187726.9188,1,1,1.0000,0.0000,1.44680,0.20626,-2.78419,1.00710,1.57079,0.00002,-0.14512,-0.38002,0.03959,,,,,,,,,,,,,,,,,,,,,,,,,,0,0,0,0,0
4.3504,1783187726.9193,1,1,1.0000,0.0000,1.44680,0.20626,-2.78419,1.00710,1.57079,0.00002,-0.14512,-0.38002,0.03959,,,,,,,,,,,,,,,,,,,,,,,,,,0,0,0,0,0
4.3645,1783187726.9334,1,1,1.0000,0.0000,1.44680,0.20620,-2.78420,1.00716,1.57079,0.00002,-0.14512,-0.38002,0.03958,,,,,,,,,,,,,,,,,,,,,,,,,,0,0,0,0,0
4.3702,1783187726.9391,1,1,1.0000,0.0000,1.44680,0.20617,-2.78421,1.00721,1.57079,0.00002,-0.14512,-0.38002,0.03957,,,,,,,,,,,,,,,,,,,,,,,,,,0,0,0,0,0
4.3790,1783187726.9479,1,1,1.0000,0.0000,1.44680,0.20608,-2.78423,1.00731,1.57079,0.00002,-0.14512,-0.38002,0.03955,,,,,,,,,,,,,,,,,,,,,,,,,,0,0,0,0,0
4.3907,1783187726.9595,1,1,1.0000,0.0000,1.44680,0.20604,-2.78424,1.00736,1.57079,0.00002,-0.14512,-0.38002,0.03954,,,,,,,,,,,,,,,,,,,,,,,,,,0,0,0,0,0
4.4001,1783187726.9690,1,1,1.0000,0.0000,1.44680,0.20590,-2.78427,1.00753,1.57079,0.00002,-0.14512,-0.38002,0.03951,,,,,,,,,,,,,,,,,,,,,,,,,,0,0,0,0,0
4.4089,1783187726.9778,1,1,1.0000,0.0000,1.44680,0.20579,-2.78430,1.00767,1.57079,0.00002,-0.14512,-0.38002,0.03948,,,,,,,,,,,,,,,,,,,,,,,,,,0,0,0,0,0
4.4240,1783187726.9929,1,1,1.0000,0.0000,1.44680,0.20574,-2.78431,1.00773,1.57079,0.00002,-0.14512,-0.38002,0.03946,,,,,,,,,,,,,,,,,,,,,,,,,,0,0,0,0,0
4.4299,1783187726.9987,1,1,1.0000,0.0000,1.44680,0.20571,-2.78432,1.00778,1.57079,0.00002,-0.14512,-0.38002,0.03946,,,,,,,,,,,,,,,,,,,,,,,,,,0,0,0,0,0
4.4301,1783187726.9990,1,1,1.0000,0.0000,1.44680,0.20571,-2.78432,1.00778,1.57079,0.00002,-0.14512,-0.38002,0.03946,,,,,,,,,,,,,,,,,,,,,,,,,,0,0,0,0,0
4.4386,1783187727.0074,1,1,1.0000,0.0000,1.44680,0.20562,-2.78434,1.00789,1.57079,0.00002,-0.14512,-0.38002,0.03943,,,,,,,,,,,,,,,,,,,,,,,,,,0,0,0,0,0
4.4389,1783187727.0078,1,1,1.0000,0.0000,1.44680,0.20562,-2.78434,1.00789,1.57079,0.00002,-0.14512,-0.38002,0.03943,,,,,,,,,,,,,,,,,,,,,,,,,,0,0,0,0,0
4.4511,1783187727.0199,1,1,1.0000,0.0000,1.44680,0.20558,-2.78435,1.00793,1.57079,0.00002,-0.14512,-0.38002,0.03942,,,,,,,,,,,,,,,,,,,,,,,,,,0,0,0,0,0
4.4598,1783187727.0286,1,1,1.0000,0.0000,1.44680,0.20544,-2.78438,1.00811,1.57079,0.00002,-0.14512,-0.38002,0.03939,,,,,,,,,,,,,,,,,,,,,,,,,,0,0,0,0,0
4.4699,1783187727.0388,1,1,1.0000,0.0000,1.44680,0.20533,-2.78441,1.00824,1.57079,0.00002,-0.14512,-0.38002,0.03936,,,,,,,,,,,,,,,,,,,,,,,,,,0,0,0,0,0
4.4788,1783187727.0476,1,1,1.0000,0.0000,1.44680,0.20533,-2.78441,1.00825,1.57079,0.00002,-0.14512,-0.38002,0.03936,,,,,,,,,,,,,,,,,,,,,,,,,,0,0,0,0,0
4.4930,1783187727.0619,1,1,1.0000,0.0000,1.44680,0.20520,-2.78444,1.00840,1.57079,0.00002,-0.14512,-0.38002,0.03933,,,,,,,,,,,,,,,,,,,,,,,,,,0,0,0,0,0
4.5001,1783187727.0689,1,1,1.0000,0.0000,1.44680,0.20516,-2.78445,1.00846,1.57079,0.00002,-0.14512,-0.38002,0.03932,,,,,,,,,,,,,,,,,,,,,,,,,,0,0,0,0,0
4.5151,1783187727.0840,1,1,1.0000,0.0000,1.44680,0.20508,-2.78447,1.00855,1.57079,0.00002,-0.14512,-0.38002,0.03930,,,,,,,,,,,,,,,,,,,,,,,,,,0,0,0,0,0
4.5304,1783187727.0993,1,1,1.0000,0.0000,1.44680,0.20487,-2.78452,1.00881,1.57079,0.00002,-0.14512,-0.38002,0.03925,,,,,,,,,,,,,,,,,,,,,,,,,,0,0,0,0,0
4.5322,1783187727.1011,1,1,1.0000,0.0000,1.44680,0.20487,-2.78452,1.00881,1.57079,0.00002,-0.14512,-0.38002,0.03925,,,,,,,,,,,,,,,,,,,,,,,,,,0,0,0,0,0
4.5388,1783187727.1077,1,1,1.0000,0.0000,1.44680,0.20486,-2.78452,1.00882,1.57079,0.00002,-0.14512,-0.38002,0.03924,,,,,,,,,,,,,,,,,,,,,,,,,,0,0,0,0,0
4.5488,1783187727.1176,1,1,1.0000,0.0000,1.44680,0.20475,-2.78455,1.00896,1.57079,0.00002,-0.14512,-0.38002,0.03922,,,,,,,,,,,,,,,,,,,,,,,,,,0,0,0,0,0
4.5603,1783187727.1291,1,1,1.0000,0.0000,1.44680,0.20464,-2.78457,1.00909,1.57079,0.00002,-0.14512,-0.38002,0.03919,,,,,,,,,,,,,,,,,,,,,,,,,,0,0,0,0,0
4.5720,1783187727.1408,1,1,1.0000,0.0000,1.44680,0.20457,-2.78459,1.00918,1.57079,0.00002,-0.14512,-0.38002,0.03917,,,,,,,,,,,,,,,,,,,,,,,,,,0,0,0,0,0
4.5792,1783187727.1480,1,1,1.0000,0.0000,1.44680,0.20452,-2.78460,1.00924,1.57079,0.00002,-0.14512,-0.38002,0.03916,,,,,,,,,,,,,,,,,,,,,,,,,,0,0,0,0,0
4.5795,1783187727.1483,1,1,1.0000,0.0000,1.44680,0.20452,-2.78460,1.00924,1.57079,0.00002,-0.14512,-0.38002,0.03916,,,,,,,,,,,,,,,,,,,,,,,,,,0,0,0,0,0
4.5919,1783187727.1607,1,1,1.0000,0.0000,1.44680,0.20436,-2.78464,1.00944,1.57079,0.00002,-0.14512,-0.38002,0.03912,,,,,,,,,,,,,,,,,,,,,,,,,,0,0,0,0,0
4.6031,1783187727.1719,1,1,1.0000,0.0000,1.44680,0.20433,-2.78465,1.00948,1.57079,0.00002,-0.14512,-0.38002,0.03911,,,,,,,,,,,,,,,,,,,,,,,,,,0,0,0,0,0
4.6106,1783187727.1795,1,1,1.0000,0.0000,1.44680,0.20424,-2.78467,1.00959,1.57079,0.00002,-0.14512,-0.38002,0.03909,,,,,,,,,,,,,,,,,,,,,,,,,,0,0,0,0,0
4.6311,1783187727.1999,1,1,1.0000,0.0000,1.44680,0.20410,-2.78470,1.00976,1.57079,0.00002,-0.14512,-0.38002,0.03905,,,,,,,,,,,,,,,,,,,,,,,,,,0,0,0,0,0
4.6315,1783187727.2004,1,1,1.0000,0.0000,1.44680,0.20410,-2.78470,1.00976,1.57079,0.00002,-0.14512,-0.38002,0.03905,,,,,,,,,,,,,,,,,,,,,,,,,,0,0,0,0,0
4.6327,1783187727.2016,1,1,1.0000,0.0000,1.44680,0.20406,-2.78471,1.00981,1.57079,0.00002,-0.14512,-0.38002,0.03904,,,,,,,,,,,,,,,,,,,,,,,,,,0,0,0,0,0
4.6409,1783187727.2098,1,1,1.0000,0.0000,1.44680,0.20397,-2.78473,1.00993,1.57079,0.00002,-0.14512,-0.38002,0.03902,,,,,,,,,,,,,,,,,,,,,,,,,,0,0,0,0,0
4.6497,1783187727.2186,1,1,1.0000,0.0000,1.44680,0.20386,-2.78476,1.01006,1.57079,0.00002,-0.14512,-0.38002,0.03899,,,,,,,,,,,,,,,,,,,,,,,,,,0,0,0,0,0
4.6585,1783187727.2273,1,1,1.0000,0.0000,1.44680,0.20385,-2.78476,1.01007,1.57079,0.00002,-0.14512,-0.38002,0.03899,,,,,,,,,,,,,,,,,,,,,,,,,,0,0,0,0,0
4.6728,1783187727.2416,1,1,1.0000,0.0000,1.44680,0.20369,-2.78480,1.01028,1.57079,0.00002,-0.14512,-0.38002,0.03895,,,,,,,,,,,,,,,,,,,,,,,,,,0,0,0,0,0
4.6842,1783187727.2531,1,1,1.0000,0.0000,1.44680,0.20362,-2.78481,1.01036,1.57079,0.00002,-0.14512,-0.38002,0.03893,,,,,,,,,,,,,,,,,,,,,,,,,,0,0,0,0,0
4.6947,1783187727.2636,1,1,1.0000,0.0000,1.44680,0.20356,-2.78483,1.01043,1.57079,0.00002,-0.14512,-0.38002,0.03892,,,,,,,,,,,,,,,,,,,,,,,,,,0,0,0,0,0
4.6990,1783187727.2679,1,1,1.0000,0.0000,1.44680,0.20351,-2.78484,1.01049,1.57079,0.00002,-0.14512,-0.38002,0.03891,,,,,,,,,,,,,,,,,,,,,,,,,,0,0,0,0,0
4.7088,1783187727.2776,1,1,1.0000,0.0000,1.44680,0.20335,-2.78488,1.01069,1.57079,0.00002,-0.14512,-0.38002,0.03887,,,,,,,,,,,,,,,,,,,,,,,,,,0,0,0,0,0
4.7090,1783187727.2779,1,1,1.0000,0.0000,1.44680,0.20335,-2.78488,1.01069,1.57079,0.00002,-0.14512,-0.38002,0.03887,,,,,,,,,,,,,,,,,,,,,,,,,,0,0,0,0,0
4.7498,1783187727.3187,1,1,1.0000,0.0000,1.44680,0.20314,-2.78493,1.01095,1.57079,0.00002,-0.14512,-0.38002,0.03881,,,,,,,,,,,,,,,,,,,,,,,,,,0,0,0,0,0
4.7501,1783187727.3189,1,1,1.0000,0.0000,1.44680,0.20314,-2.78493,1.01095,1.57079,0.00002,-0.14512,-0.38002,0.03881,,,,,,,,,,,,,,,,,,,,,,,,,,0,0,0,0,0
4.7511,1783187727.3199,1,1,1.0000,0.0000,1.44680,0.20314,-2.78493,1.01095,1.57079,0.00002,-0.14512,-0.38002,0.03881,,,,,,,,,,,,,,,,,,,,,,,,,,0,0,0,0,0
4.7513,1783187727.3202,1,1,1.0000,0.0000,1.44680,0.20314,-2.78493,1.01095,1.57079,0.00002,-0.14512,-0.38002,0.03881,,,,,,,,,,,,,,,,,,,,,,,,,,0,0,0,0,0
4.7519,1783187727.3207,1,1,1.0000,0.0000,1.44680,0.20310,-2.78494,1.01100,1.57079,0.00002,-0.14512,-0.38002,0.03880,,,,,,,,,,,,,,,,,,,,,,,,,,0,0,0,0,0
4.7585,1783187727.3273,1,1,1.0000,0.0000,1.44680,0.20305,-2.78495,1.01106,1.57079,0.00002,-0.14512,-0.38002,0.03879,,,,,,,,,,,,,,,,,,,,,,,,,,0,0,0,0,0
4.7588,1783187727.3276,1,1,1.0000,0.0000,1.44680,0.20305,-2.78495,1.01106,1.57079,0.00002,-0.14512,-0.38002,0.03879,,,,,,,,,,,,,,,,,,,,,,,,,,0,0,0,0,0
4.8011,1783187727.3699,1,1,1.0000,0.0000,1.44680,0.20266,-2.78504,1.01154,1.57079,0.00002,-0.14512,-0.38002,0.03869,,,,,,,,,,,,,,,,,,,,,,,,,,0,0,0,0,0
4.8015,1783187727.3704,1,1,1.0000,0.0000,1.44680,0.20266,-2.78504,1.01154,1.57079,0.00002,-0.14512,-0.38002,0.03869,,,,,,,,,,,,,,,,,,,,,,,,,,0,0,0,0,0
4.8018,1783187727.3706,1,1,1.0000,0.0000,1.44680,0.20266,-2.78504,1.01154,1.57079,0.00002,-0.14512,-0.38002,0.03869,,,,,,,,,,,,,,,,,,,,,,,,,,0,0,0,0,0
4.8184,1783187727.3872,1,1,1.0000,0.0000,1.44680,0.20254,-2.78507,1.01169,1.57079,0.00002,-0.14512,-0.38002,0.03866,,,,,,,,,,,,,,,,,,,,,,,,,,0,0,0,0,0
4.8641,1783187727.4329,1,1,1.0000,0.0000,1.44680,0.20214,-2.78516,1.01218,1.57079,0.00002,-0.14512,-0.38002,0.03856,,,,,,,,,,,,,,,,,,,,,,,,,,0,0,0,0,0
4.8645,1783187727.4333,1,1,1.0000,0.0000,1.44680,0.20214,-2.78516,1.01218,1.57079,0.00002,-0.14512,-0.38002,0.03856,,,,,,,,,,,,,,,,,,,,,,,,,,0,0,0,0,0
4.8670,1783187727.4359,1,1,1.0000,0.0000,1.44680,0.20214,-2.78516,1.01218,1.57079,0.00002,-0.14512,-0.38002,0.03856,,,,,,,,,,,,,,,,,,,,,,,,,,0,0,0,0,0
4.8675,1783187727.4363,1,1,1.0000,0.0000,1.44680,0.20214,-2.78516,1.01218,1.57079,0.00002,-0.14512,-0.38002,0.03856,,,,,,,,,,,,,,,,,,,,,,,,,,0,0,0,0,0
4.8683,1783187727.4371,1,1,1.0000,0.0000,1.44680,0.20212,-2.78517,1.01221,1.57079,0.00002,-0.14512,-0.38002,0.03856,,,,,,,,,,,,,,,,,,,,,,,,,,0,0,0,0,0
4.9025,1783187727.4714,1,1,1.0000,0.0000,1.44680,0.20184,-2.78523,1.01256,1.57079,0.00002,-0.14512,-0.38001,0.03849,,,,,,,,,,,,,,,,,,,,,,,,,,0,0,0,0,0
4.9123,1783187727.4812,1,1,1.0000,0.0000,1.44680,0.20170,-2.78527,1.01273,1.57079,0.00002,-0.14512,-0.38001,0.03845,,,,,,,,,,,,,,,,,,,,,,,,,,0,0,0,0,0
4.9129,1783187727.4817,1,1,1.0000,0.0000,1.44680,0.20170,-2.78527,1.01273,1.57079,0.00002,-0.14512,-0.38001,0.03845,,,,,,,,,,,,,,,,,,,,,,,,,,0,0,0,0,0
4.9133,1783187727.4822,1,1,1.0000,0.0000,1.44680,0.20170,-2.78527,1.01273,1.57079,0.00002,-0.14512,-0.38001,0.03845,,,,,,,,,,,,,,,,,,,,,,,,,,0,0,0,0,0
4.9293,1783187727.4982,1,1,1.0000,0.0000,1.44680,0.20159,-2.78529,1.01287,1.57079,0.00002,-0.14512,-0.38001,0.03842,,,,,,,,,,,,,,,,,,,,,,,,,,0,0,0,0,0
4.9325,1783187727.5014,1,1,1.0000,0.0000,1.44680,0.20157,-2.78530,1.01289,1.57079,0.00002,-0.14512,-0.38001,0.03842,,,,,,,,,,,,,,,,,,,,,,,,,,0,0,0,0,0
4.9330,1783187727.5019,1,1,1.0000,0.0000,1.44680,0.20157,-2.78530,1.01289,1.57079,0.00002,-0.14512,-0.38001,0.03842,,,,,,,,,,,,,,,,,,,,,,,,,,0,0,0,0,0
4.9446,1783187727.5135,1,1,1.0000,0.0000,1.44680,0.20146,-2.78532,1.01303,1.57079,0.00003,-0.14512,-0.38001,0.03839,,,,,,,,,,,,,,,,,,,,,,,,,,0,0,0,0,0
4.9451,1783187727.5140,1,1,1.0000,0.0000,1.44680,0.20146,-2.78532,1.01303,1.57079,0.00003,-0.14512,-0.38001,0.03839,,,,,,,,,,,,,,,,,,,,,,,,,,0,0,0,0,0
4.9467,1783187727.5156,1,1,1.0000,0.0000,1.44680,0.20146,-2.78532,1.01303,1.57079,0.00003,-0.14512,-0.38001,0.03839,,,,,,,,,,,,,,,,,,,,,,,,,,0,0,0,0,0
4.9472,1783187727.5160,1,1,1.0000,0.0000,1.44680,0.20146,-2.78532,1.01303,1.57079,0.00003,-0.14512,-0.38001,0.03839,,,,,,,,,,,,,,,,,,,,,,,,,,0,0,0,0,0
4.9549,1783187727.5238,1,1,1.0000,0.0000,1.44680,0.20141,-2.78533,1.01308,1.57079,0.00003,-0.14512,-0.38001,0.03838,,,,,,,,,,,,,,,,,,,,,,,,,,0,0,0,0,0
4.9555,1783187727.5243,1,1,1.0000,0.0000,1.44680,0.20141,-2.78533,1.01308,1.57079,0.00003,-0.14512,-0.38001,0.03838,,,,,,,,,,,,,,,,,,,,,,,,,,0,0,0,0,0
4.9624,1783187727.5312,1,1,1.0000,0.0000,1.44680,0.20138,-2.78534,1.01313,1.57079,0.00003,-0.14512,-0.38001,0.03837,,,,,,,,,,,,,,,,,,,,,,,,,,0,0,0,0,0
5.0246,1783187727.5935,1,1,1.0000,0.0000,1.44680,0.20087,-2.78546,1.01375,1.57079,0.00003,-0.14512,-0.38001,0.03824,,,,,,,,,,,,,,,,,,,,,,,,,,0,0,0,0,0
5.0402,1783187727.6090,1,1,1.0000,0.0000,1.44680,0.20066,-2.78551,1.01401,1.57079,0.00003,-0.14512,-0.38001,0.03819,,,,,,,,,,,,,,,,,,,,,,,,,,0,0,0,0,0
5.0419,1783187727.6107,1,1,1.0000,0.0000,1.44680,0.20066,-2.78551,1.01401,1.57079,0.00003,-0.14512,-0.38001,0.03819,,,,,,,,,,,,,,,,,,,,,,,,,,0,0,0,0,0
5.0422,1783187727.6110,1,1,1.0000,0.0000,1.44680,0.20066,-2.78551,1.01401,1.57079,0.00003,-0.14512,-0.38001,0.03819,,,,,,,,,,,,,,,,,,,,,,,,,,0,0,0,0,0
5.0425,1783187727.6114,1,1,1.0000,0.0000,1.44680,0.20066,-2.78551,1.01401,1.57079,0.00003,-0.14512,-0.38001,0.03819,,,,,,,,,,,,,,,,,,,,,,,,,,0,0,0,0,0
5.0433,1783187727.6121,1,1,1.0000,0.0000,1.44680,0.20066,-2.78551,1.01401,1.57079,0.00003,-0.14512,-0.38001,0.03819,,,,,,,,,,,,,,,,,,,,,,,,,,0,0,0,0,0
5.0436,1783187727.6125,1,1,1.0000,0.0000,1.44680,0.20066,-2.78551,1.01401,1.57079,0.00003,-0.14512,-0.38001,0.03819,,,,,,,,,,,,,,,,,,,,,,,,,,0,0,0,0,0
5.0443,1783187727.6131,1,1,1.0000,0.0000,1.44680,0.20066,-2.78551,1.01401,1.57079,0.00003,-0.14512,-0.38001,0.03819,,,,,,,,,,,,,,,,,,,,,,,,,,0,0,0,0,0
5.0447,1783187727.6135,1,1,1.0000,0.0000,1.44680,0.20066,-2.78551,1.01401,1.57079,0.00003,-0.14512,-0.38001,0.03819,,,,,,,,,,,,,,,,,,,,,,,,,,0,0,0,0,0
5.0534,1783187727.6223,1,1,1.0000,0.0000,1.44680,0.20064,-2.78552,1.01404,1.57079,0.00003,-0.14512,-0.38001,0.03819,,,,,,,,,,,,,,,,,,,,,,,,,,0,0,0,0,0
5.0601,1783187727.6290,1,1,1.0000,0.0000,1.44680,0.20057,-2.78553,1.01412,1.57079,0.00003,-0.14512,-0.38001,0.03817,,,,,,,,,,,,,,,,,,,,,,,,,,0,0,0,0,0
5.1032,1783187727.6721,1,1,1.0000,0.0000,1.44680,0.20019,-2.78562,1.01459,1.57079,0.00003,-0.14512,-0.38001,0.03808,,,,,,,,,,,,,,,,,,,,,,,,,,0,0,0,0,0
5.1413,1783187727.7102,1,1,1.0000,0.0000,1.44680,0.19998,-2.78567,1.01485,1.57079,0.00003,-0.14512,-0.38001,0.03802,,,,,,,,,,,,,,,,,,,,,,,,,,0,0,0,0,0
5.1417,1783187727.7106,1,1,1.0000,0.0000,1.44680,0.19998,-2.78567,1.01485,1.57079,0.00003,-0.14512,-0.38001,0.03802,,,,,,,,,,,,,,,,,,,,,,,,,,0,0,0,0,0
5.1525,1783187727.7213,1,1,1.0000,0.0000,1.44680,0.19984,-2.78570,1.01503,1.57079,0.00003,-0.14512,-0.38001,0.03799,,,,,,,,,,,,,,,,,,,,,,,,,,0,0,0,0,0
5.1528,1783187727.7217,1,1,1.0000,0.0000,1.44680,0.19984,-2.78570,1.01503,1.57079,0.00003,-0.14512,-0.38001,0.03799,,,,,,,,,,,,,,,,,,,,,,,,,,0,0,0,0,0
5.1591,1783187727.7280,1,1,1.0000,0.0000,1.44680,0.19978,-2.78572,1.01510,1.57079,0.00003,-0.14512,-0.38001,0.03797,,,,,,,,,,,,,,,,,,,,,,,,,,0,0,0,0,0
5.1630,1783187727.7318,1,1,1.0000,0.0000,1.44680,0.19973,-2.78573,1.01516,1.57079,0.00003,-0.14512,-0.38001,0.03796,,,,,,,,,,,,,,,,,,,,,,,,,,0,0,0,0,0
5.1696,1783187727.7384,1,1,1.0000,0.0000,1.44680,0.19972,-2.78573,1.01517,1.57079,0.00003,-0.14512,-0.38001,0.03796,,,,,,,,,,,,,,,,,,,,,,,,,,0,0,0,0,0
5.1711,1783187727.7400,1,1,1.0000,0.0000,1.44680,0.19972,-2.78573,1.01517,1.57079,0.00003,-0.14512,-0.38001,0.03796,,,,,,,,,,,,,,,,,,,,,,,,,,0,0,0,0,0
5.1714,1783187727.7403,1,1,1.0000,0.0000,1.44680,0.19972,-2.78573,1.01517,1.57079,0.00003,-0.14512,-0.38001,0.03796,,,,,,,,,,,,,,,,,,,,,,,,,,0,0,0,0,0
5.1804,1783187727.7493,1,1,1.0000,0.0000,1.44680,0.19964,-2.78575,1.01528,1.57079,0.00003,-0.14512,-0.38001,0.03794,,,,,,,,,,,,,,,,,,,,,,,,,,0,0,0,0,0
5.1846,1783187727.7535,1,1,1.0000,0.0000,1.44680,0.19960,-2.78576,1.01533,1.57079,0.00003,-0.14512,-0.38001,0.03793,,,,,,,,,,,,,,,,,,,,,,,,,,0,0,0,0,0
5.1909,1783187727.7597,1,1,1.0000,0.0000,1.44680,0.19955,-2.78577,1.01538,1.57079,0.00003,-0.14512,-0.38001,0.03791,,,,,,,,,,,,,,,,,,,,,,,,,,0,0,0,0,0
5.1996,1783187727.7685,1,1,1.0000,0.0000,1.44680,0.19954,-2.78577,1.01540,1.57079,0.00003,-0.14512,-0.38001,0.03791,,,,,,,,,,,,,,,,,,,,,,,,,,0,0,0,0,0
5.2001,1783187727.7689,1,1,1.0000,0.0000,1.44680,0.19951,-2.78578,1.01543,1.57079,0.00003,-0.14512,-0.38001,0.03791,,,,,,,,,,,,,,,,,,,,,,,,,,0,0,0,0,0
5.2035,1783187727.7724,1,1,1.0000,0.0000,1.44680,0.19951,-2.78578,1.01543,1.57079,0.00003,-0.14512,-0.38001,0.03791,,,,,,,,,,,,,,,,,,,,,,,,,,0,0,0,0,0
5.2043,1783187727.7731,1,1,1.0000,0.0000,1.44680,0.19947,-2.78579,1.01548,1.57079,0.00003,-0.14512,-0.38001,0.03790,,,,,,,,,,,,,,,,,,,,,,,,,,0,0,0,0,0
5.2051,1783187727.7740,1,1,1.0000,0.0000,1.44680,0.19947,-2.78579,1.01548,1.57079,0.00003,-0.14512,-0.38001,0.03790,,,,,,,,,,,,,,,,,,,,,,,,,,0,0,0,0,0
5.2054,1783187727.7742,1,1,1.0000,0.0000,1.44680,0.19947,-2.78579,1.01548,1.57079,0.00003,-0.14512,-0.38001,0.03790,,,,,,,,,,,,,,,,,,,,,,,,,,0,0,0,0,0
5.2207,1783187727.7895,1,1,1.0000,0.0000,1.44680,0.19926,-2.78584,1.01574,1.57079,0.00003,-0.14512,-0.38001,0.03784,,,,,,,,,,,,,,,,,,,,,,,,,,0,0,0,0,0
5.2264,1783187727.7953,1,1,1.0000,0.0000,1.44680,0.19926,-2.78584,1.01574,1.57079,0.00003,-0.14512,-0.38001,0.03784,,,,,,,,,,,,,,,,,,,,,,,,,,0,0,0,0,0
5.2268,1783187727.7956,1,1,1.0000,0.0000,1.44680,0.19926,-2.78584,1.01574,1.57079,0.00003,-0.14512,-0.38001,0.03784,,,,,,,,,,,,,,,,,,,,,,,,,,0,0,0,0,0
5.2358,1783187727.8046,1,1,1.0000,0.0000,1.44680,0.19924,-2.78584,1.01577,1.57079,0.00003,-0.14512,-0.38001,0.03784,,,,,,,,,,,,,,,,,,,,,,,,,,0,0,0,0,0
5.2441,1783187727.8130,1,1,1.0000,0.0000,1.44680,0.19913,-2.78587,1.01590,1.57079,0.00003,-0.14512,-0.38001,0.03781,,,,,,,,,,,,,,,,,,,,,,,,,,0,0,0,0,0
5.2536,1783187727.8224,1,1,1.0000,0.0000,1.44680,0.19908,-2.78588,1.01596,1.57079,0.00003,-0.14512,-0.38001,0.03780,,,,,,,,,,,,,,,,,,,,,,,,,,0,0,0,0,0
5.2643,1783187727.8331,1,1,1.0000,0.0000,1.44680,0.19901,-2.78590,1.01605,1.57079,0.00003,-0.14512,-0.38001,0.03778,,,,,,,,,,,,,,,,,,,,,,,,,,0,0,0,0,0
5.2729,1783187727.8418,1,1,1.0000,0.0000,1.44680,0.19890,-2.78592,1.01618,1.57079,0.00003,-0.14512,-0.38001,0.03775,,,,,,,,,,,,,,,,,,,,,,,,,,0,0,0,0,0
5.2733,1783187727.8422,1,1,1.0000,0.0000,1.44680,0.19890,-2.78592,1.01618,1.57079,0.00003,-0.14512,-0.38001,0.03775,,,,,,,,,,,,,,,,,,,,,,,,,,0,0,0,0,0
5.2809,1783187727.8498,1,1,1.0000,0.0000,1.44680,0.19879,-2.78595,1.01632,1.57079,0.00003,-0.14512,-0.38001,0.03773,,,,,,,,,,,,,,,,,,,,,,,,,,0,0,0,0,0
5.2812,1783187727.8500,1,1,1.0000,0.0000,1.44680,0.19879,-2.78595,1.01632,1.57079,0.00003,-0.14512,-0.38001,0.03773,,,,,,,,,,,,,,,,,,,,,,,,,,0,0,0,0,0
5.2898,1783187727.8587,1,1,1.0000,0.0000,1.44680,0.19879,-2.78595,1.01633,1.57079,0.00003,-0.14512,-0.38001,0.03772,,,,,,,,,,,,,,,,,,,,,,,,,,0,0,0,0,0
5.2901,1783187727.8590,1,1,1.0000,0.0000,1.44680,0.19879,-2.78595,1.01633,1.57079,0.00003,-0.14512,-0.38001,0.03772,,,,,,,,,,,,,,,,,,,,,,,,,,0,0,0,0,0
5.2996,1783187727.8684,1,1,1.0000,0.0000,1.44680,0.19872,-2.78596,1.01641,1.57079,0.00003,-0.14512,-0.38001,0.03771,,,,,,,,,,,,,,,,,,,,,,,,,,0,0,0,0,0
5.3112,1783187727.8801,1,1,1.0000,0.0000,1.44680,0.19857,-2.78600,1.01660,1.57079,0.00003,-0.14512,-0.38001,0.03767,,,,,,,,,,,,,,,,,,,,,,,,,,0,0,0,0,0
5.3185,1783187727.8873,1,1,1.0000,0.0000,1.44680,0.19856,-2.78600,1.01661,1.57079,0.00003,-0.14512,-0.38001,0.03767,,,,,,,,,,,,,,,,,,,,,,,,,,0,0,0,0,0
5.3188,1783187727.8877,1,1,1.0000,0.0000,1.44680,0.19856,-2.78600,1.01661,1.57079,0.00003,-0.14512,-0.38001,0.03767,,,,,,,,,,,,,,,,,,,,,,,,,,0,0,0,0,0
5.3282,1783187727.8971,1,1,1.0000,0.0000,1.44680,0.19845,-2.78603,1.01675,1.57079,0.00003,-0.14512,-0.38001,0.03764,,,,,,,,,,,,,,,,,,,,,,,,,,0,0,0,0,0
5.3285,1783187727.8974,1,1,1.0000,0.0000,1.44680,0.19845,-2.78603,1.01675,1.57079,0.00003,-0.14512,-0.38001,0.03764,,,,,,,,,,,,,,,,,,,,,,,,,,0,0,0,0,0
5.3468,1783187727.9157,1,1,1.0000,0.0000,1.44680,0.19829,-2.78607,1.01694,1.57079,0.00003,-0.14512,-0.38001,0.03760,,,,,,,,,,,,,,,,,,,,,,,,,,0,0,0,0,0
5.3526,1783187727.9214,1,1,1.0000,0.0000,1.44680,0.19825,-2.78607,1.01699,1.57079,0.00003,-0.14512,-0.38001,0.03759,,,,,,,,,,,,,,,,,,,,,,,,,,0,0,0,0,0
5.3529,1783187727.9218,1,1,1.0000,0.0000,1.44680,0.19825,-2.78607,1.01699,1.57079,0.00003,-0.14512,-0.38001,0.03759,,,,,,,,,,,,,,,,,,,,,,,,,,0,0,0,0,0
5.3586,1783187727.9274,1,1,1.0000,0.0000,1.44680,0.19821,-2.78608,1.01703,1.57079,0.00003,-0.14512,-0.38001,0.03758,,,,,,,,,,,,,,,,,,,,,,,,,,0,0,0,0,0
5.3685,1783187727.9374,1,1,1.0000,0.0000,1.44680,0.19806,-2.78612,1.01723,1.57079,0.00003,-0.14512,-0.38001,0.03754,,,,,,,,,,,,,,,,,,,,,,,,,,0,0,0,0,0
5.3689,1783187727.9377,1,1,1.0000,0.0000,1.44680,0.19806,-2.78612,1.01723,1.57079,0.00003,-0.14512,-0.38001,0.03754,,,,,,,,,,,,,,,,,,,,,,,,,,0,0,0,0,0
5.3902,1783187727.9591,1,1,1.0000,0.0000,1.44680,0.19794,-2.78615,1.01737,1.57079,0.00003,-0.14512,-0.38001,0.03751,,,,,,,,,,,,,,,,,,,,,,,,,,0,0,0,0,0
5.3990,1783187727.9679,1,1,1.0000,0.0000,1.44680,0.19783,-2.78617,1.01751,1.57079,0.00003,-0.14512,-0.38001,0.03749,,,,,,,,,,,,,,,,,,,,,,,,,,0,0,0,0,0
5.4000,1783187727.9689,1,1,1.0000,0.0000,1.44680,0.19778,-2.78618,1.01757,1.57079,0.00003,-0.14512,-0.38001,0.03747,,,,,,,,,,,,,,,,,,,,,,,,,,0,0,0,0,0
