Martins-Lucaas/twinforge/sensors/Data/20260710_190017__samples.csv
t_rel_s,t_unix,cycle,phase,setpoint_n,force_net_n,q1,q2,q3,q4,q5,q6,tcp_x,tcp_y,tcp_z,taxel_0,taxel_1,taxel_2,taxel_3,taxel_4,taxel_5,taxel_6,taxel_7,taxel_8,taxel_9,taxel_10,taxel_11,taxel_12,taxel_13,taxel_14,taxel_15,taxel_16,taxel_17,taxel_18,taxel_19,taxel_20,taxel_21,taxel_22,taxel_23,taxel_24,n_RA,n_SA,cn_mm,cn_ra,cn_sa
0.0008,1783720817.7700,0,-1,1.0000,0.0000,1.42052,0.14185,-2.66690,0.95423,1.57080,0.11682,-0.13197,-0.44703,0.06308,,,,,,,,,,,,,,,,,,,,,,,,,,0,0,0,0,0
0.0222,1783720817.7914,1,0,1.0000,0.0000,1.42052,0.14185,-2.66690,0.95423,1.57080,0.11682,-0.13197,-0.44703,0.06308,,,,,,,,,,,,,,,,,,,,,,,,,,0,0,0,0,0
0.0225,1783720817.7917,1,0,1.0000,0.0000,1.42052,0.14185,-2.66690,0.95423,1.57080,0.11682,-0.13197,-0.44703,0.06308,,,,,,,,,,,,,,,,,,,,,,,,,,0,0,0,0,0
0.0253,1783720817.7945,1,0,1.0000,0.0000,1.42052,0.14185,-2.66690,0.95423,1.57080,0.11682,-0.13197,-0.44703,0.06308,,,,,,,,,,,,,,,,,,,,,,,,,,0,0,0,0,0
0.0360,1783720817.8052,1,0,1.0000,0.0000,1.42052,0.14185,-2.66690,0.95423,1.57080,0.11682,-0.13197,-0.44703,0.06308,,,,,,,,,,,,,,,,,,,,,,,,,,0,0,0,0,0
0.0363,1783720817.8055,1,0,1.0000,0.0000,1.42052,0.14185,-2.66690,0.95423,1.57080,0.11682,-0.13197,-0.44703,0.06308,,,,,,,,,,,,,,,,,,,,,,,,,,0,0,0,0,0
0.0422,1783720817.8114,1,0,1.0000,0.0000,1.42052,0.14185,-2.66690,0.95423,1.57080,0.11682,-0.13197,-0.44703,0.06308,,,,,,,,,,,,,,,,,,,,,,,,,,0,0,0,0,0
0.0492,1783720817.8184,1,0,1.0000,0.0000,1.42052,0.14185,-2.66690,0.95423,1.57080,0.11682,-0.13197,-0.44703,0.06308,,,,,,,,,,,,,,,,,,,,,,,,,,0,0,0,0,0
0.0496,1783720817.8188,1,0,1.0000,0.0000,1.42052,0.14185,-2.66690,0.95423,1.57080,0.11682,-0.13197,-0.44703,0.06308,,,,,,,,,,,,,,,,,,,,,,,,,,0,0,0,0,0
0.0583,1783720817.8275,1,0,1.0000,0.0000,1.42052,0.14185,-2.66689,0.95422,1.57080,0.11682,-0.13197,-0.44703,0.06308,,,,,,,,,,,,,,,,,,,,,,,,,,0,0,0,0,0
0.0764,1783720817.8456,1,0,1.0000,0.0000,1.42052,0.14185,-2.66688,0.95420,1.57080,0.11682,-0.13197,-0.44703,0.06308,,,,,,,,,,,,,,,,,,,,,,,,,,0,0,0,0,0
0.0826,1783720817.8518,1,0,1.0000,0.0000,1.42052,0.14185,-2.66688,0.95419,1.57080,0.11682,-0.13197,-0.44703,0.06308,,,,,,,,,,,,,,,,,,,,,,,,,,0,0,0,0,0
0.0882,1783720817.8574,1,0,1.0000,0.0000,1.42052,0.14185,-2.66688,0.95418,1.57080,0.11682,-0.13197,-0.44703,0.06308,,,,,,,,,,,,,,,,,,,,,,,,,,0,0,0,0,0
0.0996,1783720817.8688,1,0,1.0000,0.0000,1.42052,0.14185,-2.66687,0.95417,1.57080,0.11682,-0.13197,-0.44703,0.06308,,,,,,,,,,,,,,,,,,,,,,,,,,0,0,0,0,0
0.0999,1783720817.8691,1,0,1.0000,0.0000,1.42052,0.14185,-2.66687,0.95417,1.57080,0.11682,-0.13197,-0.44703,0.06308,,,,,,,,,,,,,,,,,,,,,,,,,,0,0,0,0,0
0.1084,1783720817.8776,1,0,1.0000,0.0000,1.42052,0.14185,-2.66687,0.95417,1.57080,0.11682,-0.13197,-0.44703,0.06308,,,,,,,,,,,,,,,,,,,,,,,,,,0,0,0,0,0
0.1199,1783720817.8891,1,0,1.0000,0.0000,1.42052,0.14185,-2.66687,0.95417,1.57080,0.11682,-0.13197,-0.44703,0.06308,,,,,,,,,,,,,,,,,,,,,,,,,,0,0,0,0,0
0.1337,1783720817.9029,1,0,1.0000,0.0000,1.42052,0.14185,-2.66687,0.95417,1.57080,0.11682,-0.13197,-0.44703,0.06308,,,,,,,,,,,,,,,,,,,,,,,,,,0,0,0,0,0
0.1390,1783720817.9082,1,0,1.0000,0.0000,1.42052,0.14185,-2.66687,0.95417,1.57080,0.11682,-0.13197,-0.44703,0.06308,,,,,,,,,,,,,,,,,,,,,,,,,,0,0,0,0,0
0.1517,1783720817.9209,1,0,1.0000,0.0000,1.42052,0.14185,-2.66687,0.95417,1.57080,0.11682,-0.13197,-0.44703,0.06308,,,,,,,,,,,,,,,,,,,,,,,,,,0,0,0,0,0
0.1595,1783720817.9287,1,0,1.0000,0.0000,1.42052,0.14185,-2.66687,0.95417,1.57080,0.11682,-0.13197,-0.44703,0.06308,,,,,,,,,,,,,,,,,,,,,,,,,,0,0,0,0,0
0.1685,1783720817.9377,1,0,1.0000,0.0000,1.42052,0.14185,-2.66687,0.95417,1.57080,0.11682,-0.13197,-0.44703,0.06308,,,,,,,,,,,,,,,,,,,,,,,,,,0,0,0,0,0
0.1786,1783720817.9478,1,0,1.0000,0.0000,1.42052,0.14185,-2.66687,0.95417,1.57080,0.11682,-0.13197,-0.44703,0.06308,,,,,,,,,,,,,,,,,,,,,,,,,,0,0,0,0,0
0.1896,1783720817.9588,1,0,1.0000,0.0000,1.42052,0.14185,-2.66687,0.95417,1.57080,0.11682,-0.13197,-0.44703,0.06308,,,,,,,,,,,,,,,,,,,,,,,,,,0,0,0,0,0
0.1899,1783720817.9591,1,0,1.0000,0.0000,1.42052,0.14185,-2.66687,0.95417,1.57080,0.11682,-0.13197,-0.44703,0.06308,,,,,,,,,,,,,,,,,,,,,,,,,,0,0,0,0,0
0.2012,1783720817.9704,1,0,1.0000,0.0000,1.42052,0.14185,-2.66687,0.95417,1.57080,0.11682,-0.13197,-0.44703,0.06308,,,,,,,,,,,,,,,,,,,,,,,,,,0,0,0,0,0
0.2081,1783720817.9773,1,0,1.0000,0.0000,1.42052,0.14185,-2.66687,0.95417,1.57080,0.11682,-0.13197,-0.44703,0.06308,,,,,,,,,,,,,,,,,,,,,,,,,,0,0,0,0,0
0.2182,1783720817.9874,1,0,1.0000,0.0000,1.42052,0.14185,-2.66687,0.95417,1.57080,0.11682,-0.13197,-0.44703,0.06308,,,,,,,,,,,,,,,,,,,,,,,,,,0,0,0,0,0
0.2186,1783720817.9878,1,0,1.0000,0.0000,1.42052,0.14185,-2.66687,0.95417,1.57080,0.11682,-0.13197,-0.44703,0.06308,,,,,,,,,,,,,,,,,,,,,,,,,,0,0,0,0,0
0.2302,1783720817.9994,1,0,1.0000,0.0000,1.42052,0.14185,-2.66687,0.95417,1.57080,0.11682,-0.13197,-0.44703,0.06308,,,,,,,,,,,,,,,,,,,,,,,,,,0,0,0,0,0
0.2382,1783720818.0074,1,0,1.0000,0.0000,1.42052,0.14185,-2.66687,0.95417,1.57080,0.11682,-0.13197,-0.44703,0.06308,,,,,,,,,,,,,,,,,,,,,,,,,,0,0,0,0,0
0.2548,1783720818.0240,1,0,1.0000,0.0000,1.42052,0.14185,-2.66687,0.95417,1.57080,0.11682,-0.13197,-0.44703,0.06308,,,,,,,,,,,,,,,,,,,,,,,,,,0,0,0,0,0
0.2731,1783720818.0423,1,0,1.0000,0.0000,1.42052,0.14185,-2.66687,0.95417,1.57080,0.11682,-0.13197,-0.44703,0.06308,,,,,,,,,,,,,,,,,,,,,,,,,,0,0,0,0,0
0.2739,1783720818.0431,1,0,1.0000,0.0000,1.42052,0.14185,-2.66687,0.95417,1.57080,0.11682,-0.13197,-0.44703,0.06308,,,,,,,,,,,,,,,,,,,,,,,,,,0,0,0,0,0
0.2821,1783720818.0513,1,0,1.0000,0.0000,1.42052,0.14185,-2.66687,0.95417,1.57080,0.11682,-0.13197,-0.44703,0.06308,,,,,,,,,,,,,,,,,,,,,,,,,,0,0,0,0,0
0.2926,1783720818.0618,1,0,1.0000,0.0000,1.42052,0.14185,-2.66687,0.95417,1.57080,0.11682,-0.13197,-0.44703,0.06308,,,,,,,,,,,,,,,,,,,,,,,,,,0,0,0,0,0
0.3002,1783720818.0694,1,0,1.0000,0.0000,1.42052,0.14185,-2.66687,0.95417,1.57080,0.11682,-0.13197,-0.44703,0.06308,,,,,,,,,,,,,,,,,,,,,,,,,,0,0,0,0,0
0.3086,1783720818.0778,1,0,1.0000,0.0000,1.42052,0.14185,-2.66687,0.95417,1.57080,0.11682,-0.13197,-0.44703,0.06308,,,,,,,,,,,,,,,,,,,,,,,,,,0,0,0,0,0
0.3211,1783720818.0903,1,0,1.0000,0.0000,1.42052,0.14185,-2.66687,0.95417,1.57080,0.11682,-0.13197,-0.44703,0.06308,,,,,,,,,,,,,,,,,,,,,,,,,,0,0,0,0,0
0.3294,1783720818.0986,1,0,1.0000,0.0000,1.42052,0.14185,-2.66687,0.95417,1.57080,0.11682,-0.13197,-0.44703,0.06308,,,,,,,,,,,,,,,,,,,,,,,,,,0,0,0,0,0
0.3417,1783720818.1109,1,0,1.0000,0.0000,1.42052,0.14185,-2.66687,0.95417,1.57080,0.11682,-0.13197,-0.44703,0.06308,,,,,,,,,,,,,,,,,,,,,,,,,,0,0,0,0,0
0.3504,1783720818.1196,1,0,1.0000,0.0000,1.42052,0.14185,-2.66687,0.95417,1.57080,0.11682,-0.13197,-0.44703,0.06308,,,,,,,,,,,,,,,,,,,,,,,,,,0,0,0,0,0
0.3645,1783720818.1337,1,0,1.0000,0.0000,1.42052,0.14185,-2.66687,0.95417,1.57080,0.11682,-0.13197,-0.44703,0.06308,,,,,,,,,,,,,,,,,,,,,,,,,,0,0,0,0,0
0.3713,1783720818.1405,1,0,1.0000,0.0000,1.42052,0.14185,-2.66687,0.95417,1.57080,0.11682,-0.13197,-0.44703,0.06308,,,,,,,,,,,,,,,,,,,,,,,,,,0,0,0,0,0
0.3801,1783720818.1493,1,0,1.0000,0.0000,1.42052,0.14185,-2.66687,0.95417,1.57080,0.11682,-0.13197,-0.44703,0.06308,,,,,,,,,,,,,,,,,,,,,,,,,,0,0,0,0,0
0.3914,1783720818.1606,1,0,1.0000,0.0000,1.42052,0.14185,-2.66687,0.95417,1.57080,0.11682,-0.13197,-0.44703,0.06308,,,,,,,,,,,,,,,,,,,,,,,,,,0,0,0,0,0
0.3990,1783720818.1682,1,0,1.0000,0.0000,1.42052,0.14185,-2.66687,0.95417,1.57080,0.11682,-0.13197,-0.44703,0.06308,,,,,,,,,,,,,,,,,,,,,,,,,,0,0,0,0,0
0.4097,1783720818.1789,1,0,1.0000,0.0000,1.42052,0.14185,-2.66687,0.95417,1.57080,0.11682,-0.13197,-0.44703,0.06308,,,,,,,,,,,,,,,,,,,,,,,,,,0,0,0,0,0
0.4227,1783720818.1919,1,0,1.0000,0.0000,1.42052,0.14185,-2.66687,0.95417,1.57080,0.11682,-0.13197,-0.44703,0.06308,,,,,,,,,,,,,,,,,,,,,,,,,,0,0,0,0,0
0.4312,1783720818.2004,1,0,1.0000,0.0000,1.42052,0.14185,-2.66687,0.95417,1.57080,0.11682,-0.13197,-0.44703,0.06308,,,,,,,,,,,,,,,,,,,,,,,,,,0,0,0,0,0
0.4603,1783720818.2295,1,0,1.0000,0.0000,1.42052,0.14185,-2.66687,0.95417,1.57080,0.11682,-0.13197,-0.44703,0.06308,,,,,,,,,,,,,,,,,,,,,,,,,,0,0,0,0,0
0.4686,1783720818.2378,1,0,1.0000,0.0000,1.42052,0.14185,-2.66687,0.95417,1.57080,0.11682,-0.13197,-0.44703,0.06308,,,,,,,,,,,,,,,,,,,,,,,,,,0,0,0,0,0
0.4693,1783720818.2385,1,0,1.0000,0.0000,1.42052,0.14185,-2.66687,0.95417,1.57080,0.11682,-0.13197,-0.44703,0.06308,,,,,,,,,,,,,,,,,,,,,,,,,,0,0,0,0,0
0.4698,1783720818.2390,1,0,1.0000,0.0000,1.42052,0.14185,-2.66687,0.95417,1.57080,0.11682,-0.13197,-0.44703,0.06308,,,,,,,,,,,,,,,,,,,,,,,,,,0,0,0,0,0
0.4792,1783720818.2484,1,0,1.0000,0.0000,1.42052,0.14185,-2.66687,0.95417,1.57080,0.11682,-0.13197,-0.44703,0.06308,,,,,,,,,,,,,,,,,,,,,,,,,,0,0,0,0,0
0.4879,1783720818.2571,1,0,1.0000,0.0000,1.42052,0.14185,-2.66687,0.95417,1.57080,0.11682,-0.13197,-0.44703,0.06308,,,,,,,,,,,,,,,,,,,,,,,,,,0,0,0,0,0
0.4883,1783720818.2575,1,0,1.0000,0.0000,1.42052,0.14185,-2.66687,0.95417,1.57080,0.11682,-0.13197,-0.44703,0.06308,,,,,,,,,,,,,,,,,,,,,,,,,,0,0,0,0,0
0.4979,1783720818.2671,1,0,1.0000,0.0000,1.42052,0.14185,-2.66687,0.95417,1.57080,0.11682,-0.13197,-0.44703,0.06308,,,,,,,,,,,,,,,,,,,,,,,,,,0,0,0,0,0
0.5094,1783720818.2786,1,0,1.0000,0.0000,1.42052,0.14185,-2.66687,0.95417,1.57080,0.11682,-0.13197,-0.44703,0.06308,,,,,,,,,,,,,,,,,,,,,,,,,,0,0,0,0,0
0.5189,1783720818.2881,1,0,1.0000,0.0000,1.42052,0.14185,-2.66687,0.95417,1.57080,0.11682,-0.13197,-0.44703,0.06308,,,,,,,,,,,,,,,,,,,,,,,,,,0,0,0,0,0
0.5193,1783720818.2885,1,0,1.0000,0.0000,1.42052,0.14185,-2.66687,0.95417,1.57080,0.11682,-0.13197,-0.44703,0.06308,,,,,,,,,,,,,,,,,,,,,,,,,,0,0,0,0,0
0.5335,1783720818.3027,1,0,1.0000,0.0000,1.42052,0.14185,-2.66687,0.95417,1.57080,0.11682,-0.13197,-0.44703,0.06308,,,,,,,,,,,,,,,,,,,,,,,,,,0,0,0,0,0
0.5339,1783720818.3031,1,0,1.0000,0.0000,1.42052,0.14185,-2.66687,0.95417,1.57080,0.11682,-0.13197,-0.44703,0.06308,,,,,,,,,,,,,,,,,,,,,,,,,,0,0,0,0,0
0.5419,1783720818.3111,1,0,1.0000,0.0000,1.42052,0.14185,-2.66687,0.95417,1.57080,0.11682,-0.13197,-0.44703,0.06308,,,,,,,,,,,,,,,,,,,,,,,,,,0,0,0,0,0
0.5487,1783720818.3179,1,0,1.0000,0.0000,1.42052,0.14185,-2.66687,0.95417,1.57080,0.11682,-0.13197,-0.44703,0.06308,,,,,,,,,,,,,,,,,,,,,,,,,,0,0,0,0,0
0.5496,1783720818.3188,1,0,1.0000,0.0000,1.42052,0.14185,-2.66687,0.95417,1.57080,0.11682,-0.13197,-0.44703,0.06308,,,,,,,,,,,,,,,,,,,,,,,,,,0,0,0,0,0
0.5614,1783720818.3306,1,0,1.0000,0.0000,1.42052,0.14185,-2.66687,0.95417,1.57080,0.11682,-0.13197,-0.44703,0.06308,,,,,,,,,,,,,,,,,,,,,,,,,,0,0,0,0,0
0.5847,1783720818.3539,1,0,1.0000,0.0000,1.42052,0.14185,-2.66687,0.95417,1.57080,0.11682,-0.13197,-0.44703,0.06308,,,,,,,,,,,,,,,,,,,,,,,,,,0,0,0,0,0
0.5856,1783720818.3548,1,0,1.0000,0.0000,1.42052,0.14185,-2.66687,0.95417,1.57080,0.11682,-0.13197,-0.44703,0.06308,,,,,,,,,,,,,,,,,,,,,,,,,,0,0,0,0,0
0.5860,1783720818.3552,1,0,1.0000,0.0000,1.42052,0.14185,-2.66687,0.95417,1.57080,0.11682,-0.13197,-0.44703,0.06308,,,,,,,,,,,,,,,,,,,,,,,,,,0,0,0,0,0
0.5938,1783720818.3630,1,0,1.0000,0.0000,1.42052,0.14185,-2.66687,0.95417,1.57080,0.11682,-0.13197,-0.44703,0.06308,,,,,,,,,,,,,,,,,,,,,,,,,,0,0,0,0,0
0.6042,1783720818.3734,1,0,1.0000,0.0000,1.42052,0.14185,-2.66687,0.95417,1.57080,0.11682,-0.13197,-0.44703,0.06308,,,,,,,,,,,,,,,,,,,,,,,,,,0,0,0,0,0
0.6211,1783720818.3903,1,0,1.0000,0.0000,1.42052,0.14185,-2.66687,0.95417,1.57080,0.11682,-0.13197,-0.44703,0.06308,,,,,,,,,,,,,,,,,,,,,,,,,,0,0,0,0,0
0.6240,1783720818.3932,1,0,1.0000,0.0000,1.42052,0.14185,-2.66687,0.95417,1.57080,0.11682,-0.13197,-0.44703,0.06308,,,,,,,,,,,,,,,,,,,,,,,,,,0,0,0,0,0
0.6323,1783720818.4015,1,0,1.0000,0.0000,1.42052,0.14185,-2.66687,0.95417,1.57080,0.11682,-0.13197,-0.44703,0.06308,,,,,,,,,,,,,,,,,,,,,,,,,,0,0,0,0,0
0.6464,1783720818.4156,1,0,1.0000,0.0000,1.42052,0.14185,-2.66687,0.95417,1.57080,0.11682,-0.13197,-0.44703,0.06308,,,,,,,,,,,,,,,,,,,,,,,,,,0,0,0,0,0
0.6551,1783720818.4243,1,0,1.0000,0.0000,1.42051,0.14185,-2.66688,0.95417,1.57080,0.11682,-0.13197,-0.44703,0.06308,,,,,,,,,,,,,,,,,,,,,,,,,,0,0,0,0,0
0.6643,1783720818.4335,1,0,1.0000,0.0000,1.42051,0.14185,-2.66689,0.95417,1.57080,0.11682,-0.13197,-0.44702,0.06307,,,,,,,,,,,,,,,,,,,,,,,,,,0,0,0,0,0
0.6785,1783720818.4477,1,0,1.0000,0.0000,1.42049,0.14185,-2.66690,0.95417,1.57080,0.11682,-0.13196,-0.44702,0.06307,,,,,,,,,,,,,,,,,,,,,,,,,,0,0,0,0,0
0.6817,1783720818.4509,1,0,1.0000,0.0000,1.42048,0.14186,-2.66691,0.95417,1.57080,0.11683,-0.13196,-0.44701,0.06307,,,,,,,,,,,,,,,,,,,,,,,,,,0,0,0,0,0
0.6820,1783720818.4512,1,0,1.0000,0.0000,1.42048,0.14186,-2.66691,0.95417,1.57080,0.11683,-0.13196,-0.44701,0.06307,,,,,,,,,,,,,,,,,,,,,,,,,,0,0,0,0,0
0.6938,1783720818.4630,1,0,1.0000,0.0000,1.42041,0.14188,-2.66694,0.95417,1.57080,0.11688,-0.13193,-0.44700,0.06306,,,,,,,,,,,,,,,,,,,,,,,,,,0,0,0,0,0
0.7021,1783720818.4713,1,0,1.0000,0.0000,1.42034,0.14190,-2.66698,0.95417,1.57080,0.11694,-0.13191,-0.44699,0.06305,,,,,,,,,,,,,,,,,,,,,,,,,,0,0,0,0,0
0.7149,1783720818.4841,1,0,1.0000,0.0000,1.42029,0.14191,-2.66699,0.95417,1.57080,0.11699,-0.13189,-0.44699,0.06305,,,,,,,,,,,,,,,,,,,,,,,,,,0,0,0,0,0
0.7220,1783720818.4912,1,0,1.0000,0.0000,1.42015,0.14195,-2.66702,0.95416,1.57080,0.11711,-0.13184,-0.44698,0.06304,,,,,,,,,,,,,,,,,,,,,,,,,,0,0,0,0,0
0.7225,1783720818.4917,1,0,1.0000,0.0000,1.42015,0.14195,-2.66702,0.95416,1.57080,0.11711,-0.13184,-0.44698,0.06304,,,,,,,,,,,,,,,,,,,,,,,,,,0,0,0,0,0
0.7335,1783720818.5027,1,0,1.0000,0.0000,1.42002,0.14198,-2.66705,0.95415,1.57080,0.11723,-0.13179,-0.44698,0.06304,,,,,,,,,,,,,,,,,,,,,,,,,,0,0,0,0,0
0.7430,1783720818.5122,1,0,1.0000,0.0000,1.41981,0.14204,-2.66710,0.95414,1.57080,0.11743,-0.13171,-0.44698,0.06304,,,,,,,,,,,,,,,,,,,,,,,,,,0,0,0,0,0
0.7541,1783720818.5233,1,0,1.0000,0.0000,1.41922,0.14220,-2.66722,0.95411,1.57080,0.11800,-0.13149,-0.44699,0.06305,,,,,,,,,,,,,,,,,,,,,,,,,,0,0,0,0,0
0.7828,1783720818.5520,1,0,1.0000,0.0000,1.41812,0.14250,-2.66743,0.95404,1.57080,0.11907,-0.13108,-0.44700,0.06305,,,,,,,,,,,,,,,,,,,,,,,,,,0,0,0,0,0
0.7832,1783720818.5524,1,0,1.0000,0.0000,1.41812,0.14250,-2.66743,0.95404,1.57080,0.11907,-0.13108,-0.44700,0.06305,,,,,,,,,,,,,,,,,,,,,,,,,,0,0,0,0,0
0.7834,1783720818.5526,1,0,1.0000,0.0000,1.41812,0.14250,-2.66743,0.95404,1.57080,0.11907,-0.13108,-0.44700,0.06305,,,,,,,,,,,,,,,,,,,,,,,,,,0,0,0,0,0
0.7857,1783720818.5549,1,0,1.0000,0.0000,1.41780,0.14259,-2.66749,0.95402,1.57080,0.11939,-0.13096,-0.44701,0.06305,,,,,,,,,,,,,,,,,,,,,,,,,,0,0,0,0,0
0.7859,1783720818.5551,1,0,1.0000,0.0000,1.41780,0.14259,-2.66749,0.95402,1.57080,0.11939,-0.13096,-0.44701,0.06305,,,,,,,,,,,,,,,,,,,,,,,,,,0,0,0,0,0
0.7930,1783720818.5622,1,0,1.0000,0.0000,1.41744,0.14269,-2.66756,0.95400,1.57080,0.11975,-0.13082,-0.44701,0.06305,,,,,,,,,,,,,,,,,,,,,,,,,,0,0,0,0,0
0.7937,1783720818.5629,1,0,1.0000,0.0000,1.41744,0.14269,-2.66756,0.95400,1.57080,0.11975,-0.13082,-0.44701,0.06305,,,,,,,,,,,,,,,,,,,,,,,,,,0,0,0,0,0
0.8100,1783720818.5792,1,0,1.0000,0.0000,1.41669,0.14289,-2.66770,0.95396,1.57080,0.12050,-0.13054,-0.44702,0.06306,,,,,,,,,,,,,,,,,,,,,,,,,,0,0,0,0,0
0.8103,1783720818.5795,1,0,1.0000,0.0000,1.41669,0.14289,-2.66770,0.95396,1.57080,0.12050,-0.13054,-0.44702,0.06306,,,,,,,,,,,,,,,,,,,,,,,,,,0,0,0,0,0
0.8175,1783720818.5867,1,0,1.0000,0.0000,1.41631,0.14299,-2.66778,0.95393,1.57080,0.12088,-0.13040,-0.44702,0.06306,,,,,,,,,,,,,,,,,,,,,,,,,,0,0,0,0,0
0.8240,1783720818.5932,1,0,1.0000,0.0000,1.41624,0.14301,-2.66779,0.95393,1.57080,0.12095,-0.13037,-0.44702,0.06306,,,,,,,,,,,,,,,,,,,,,,,,,,0,0,0,0,0
0.8324,1783720818.6016,1,0,1.0000,0.0000,1.41574,0.14314,-2.66789,0.95389,1.57080,0.12145,-0.13019,-0.44703,0.06306,,,,,,,,,,,,,,,,,,,,,,,,,,0,0,0,0,0
0.8488,1783720818.6180,1,0,1.0000,0.0000,1.41376,0.14368,-2.66827,0.95377,1.57080,0.12342,-0.12945,-0.44705,0.06307,,,,,,,,,,,,,,,,,,,,,,,,,,0,0,0,0,0
0.8545,1783720818.6237,1,0,1.0000,0.0000,1.41317,0.14384,-2.66838,0.95373,1.57080,0.12402,-0.12923,-0.44705,0.06307,,,,,,,,,,,,,,,,,,,,,,,,,,0,0,0,0,0
0.8548,1783720818.6240,1,0,1.0000,0.0000,1.41317,0.14384,-2.66838,0.95373,1.57080,0.12402,-0.12923,-0.44705,0.06307,,,,,,,,,,,,,,,,,,,,,,,,,,0,0,0,0,0
0.8672,1783720818.6364,1,0,1.0000,0.0000,1.41274,0.14395,-2.66846,0.95370,1.57080,0.12445,-0.12907,-0.44706,0.06307,,,,,,,,,,,,,,,,,,,,,,,,,,0,0,0,0,0
0.8759,1783720818.6451,1,0,1.0000,0.0000,1.41207,0.14413,-2.66859,0.95366,1.57080,0.12512,-0.12882,-0.44706,0.06308,,,,,,,,,,,,,,,,,,,,,,,,,,0,0,0,0,0
0.8763,1783720818.6455,1,0,1.0000,0.0000,1.41207,0.14413,-2.66859,0.95366,1.57080,0.12512,-0.12882,-0.44706,0.06308,,,,,,,,,,,,,,,,,,,,,,,,,,0,0,0,0,0
0.8840,1783720818.6532,1,0,1.0000,0.0000,1.41122,0.14436,-2.66876,0.95360,1.57080,0.12597,-0.12850,-0.44707,0.06308,,,,,,,,,,,,,,,,,,,,,,,,,,0,0,0,0,0
0.8921,1783720818.6613,1,0,1.0000,0.0000,1.41118,0.14437,-2.66877,0.95360,1.57080,0.12601,-0.12849,-0.44707,0.06308,,,,,,,,,,,,,,,,,,,,,,,,,,0,0,0,0,0
0.9119,1783720818.6811,1,0,1.0000,0.0000,1.41029,0.14461,-2.66894,0.95354,1.57080,0.12690,-0.12816,-0.44707,0.06308,,,,,,,,,,,,,,,,,,,,,,,,,,0,0,0,0,0
0.9155,1783720818.6847,1,0,1.0000,0.0000,1.41025,0.14462,-2.66895,0.95354,1.57080,0.12694,-0.12814,-0.44708,0.06308,,,,,,,,,,,,,,,,,,,,,,,,,,0,0,0,0,0
0.9234,1783720818.6926,1,0,1.0000,0.0000,1.40996,0.14469,-2.66901,0.95352,1.57080,0.12723,-0.12804,-0.44708,0.06308,,,,,,,,,,,,,,,,,,,,,,,,,,0,0,0,0,0
0.9349,1783720818.7041,1,0,1.0000,0.0000,1.40918,0.14490,-2.66916,0.95346,1.57080,0.12802,-0.12774,-0.44708,0.06308,,,,,,,,,,,,,,,,,,,,,,,,,,0,0,0,0,0
0.9430,1783720818.7122,1,0,1.0000,0.0000,1.40886,0.14498,-2.66922,0.95344,1.57080,0.12833,-0.12763,-0.44708,0.06308,,,,,,,,,,,,,,,,,,,,,,,,,,0,0,0,0,0
0.9433,1783720818.7125,1,0,1.0000,0.0000,1.40886,0.14498,-2.66922,0.95344,1.57080,0.12833,-0.12763,-0.44708,0.06308,,,,,,,,,,,,,,,,,,,,,,,,,,0,0,0,0,0
0.9519,1783720818.7211,1,0,1.0000,0.0000,1.40877,0.14501,-2.66924,0.95343,1.57080,0.12842,-0.12759,-0.44708,0.06308,,,,,,,,,,,,,,,,,,,,,,,,,,0,0,0,0,0
0.9700,1783720818.7392,1,0,1.0000,0.0000,1.40803,0.14521,-2.66936,0.95338,1.57080,0.12917,-0.12731,-0.44710,0.06309,,,,,,,,,,,,,,,,,,,,,,,,,,0,0,0,0,0
0.9801,1783720818.7493,1,0,1.0000,0.0000,1.40766,0.14531,-2.66942,0.95335,1.57080,0.12955,-0.12718,-0.44711,0.06310,,,,,,,,,,,,,,,,,,,,,,,,,,0,0,0,0,0
0.9964,1783720818.7656,1,0,1.0000,0.0000,1.40709,0.14546,-2.66948,0.95331,1.57080,0.13013,-0.12696,-0.44714,0.06312,,,,,,,,,,,,,,,,,,,,,,,,,,0,0,0,0,0
0.9986,1783720818.7678,1,0,1.0000,0.0000,1.40703,0.14548,-2.66948,0.95330,1.57080,0.13020,-0.12693,-0.44715,0.06313,,,,,,,,,,,,,,,,,,,,,,,,,,0,0,0,0,0
1.0039,1783720818.7731,1,0,1.0000,0.0000,1.40700,0.14548,-2.66947,0.95330,1.57080,0.13023,-0.12692,-0.44716,0.06313,,,,,,,,,,,,,,,,,,,,,,,,,,0,0,0,0,0
1.0043,1783720818.7735,1,0,1.0000,0.0000,1.40700,0.14548,-2.66947,0.95330,1.57080,0.13023,-0.12692,-0.44716,0.06313,,,,,,,,,,,,,,,,,,,,,,,,,,0,0,0,0,0
1.0131,1783720818.7823,1,0,1.0000,0.0000,1.40700,0.14548,-2.66947,0.95330,1.57080,0.13023,-0.12692,-0.44716,0.06313,,,,,,,,,,,,,,,,,,,,,,,,,,0,0,0,0,0
1.0220,1783720818.7912,1,0,1.0000,0.0000,1.40700,0.14548,-2.66947,0.95330,1.57080,0.13023,-0.12692,-0.44716,0.06313,,,,,,,,,,,,,,,,,,,,,,,,,,0,0,0,0,0
1.0318,1783720818.8010,1,1,1.0000,0.0000,1.40700,0.14548,-2.66947,0.95330,1.57080,0.13023,-0.12692,-0.44716,0.06313,,,,,,,,,,,,,,,,,,,,,,,,,,0,0,0,0,0
1.0455,1783720818.8147,1,1,1.0000,0.0000,1.40700,0.14548,-2.66947,0.95330,1.57080,0.13023,-0.12692,-0.44716,0.06313,,,,,,,,,,,,,,,,,,,,,,,,,,0,0,0,0,0
1.0591,1783720818.8283,1,1,1.0000,0.0000,1.40700,0.14548,-2.66947,0.95330,1.57080,0.13023,-0.12692,-0.44716,0.06313,,,,,,,,,,,,,,,,,,,,,,,,,,0,0,0,0,0
1.0624,1783720818.8316,1,1,1.0000,0.0000,1.40700,0.14548,-2.66947,0.95330,1.57080,0.13023,-0.12692,-0.44716,0.06313,,,,,,,,,,,,,,,,,,,,,,,,,,0,0,0,0,0
1.0740,1783720818.8432,1,1,1.0000,0.0000,1.40700,0.14548,-2.66947,0.95330,1.57080,0.13023,-0.12692,-0.44716,0.06313,,,,,,,,,,,,,,,,,,,,,,,,,,0,0,0,0,0
1.0822,1783720818.8514,1,1,1.0000,0.0000,1.40700,0.14548,-2.66947,0.95330,1.57080,0.13023,-0.12692,-0.44716,0.06313,,,,,,,,,,,,,,,,,,,,,,,,,,0,0,0,0,0
1.0930,1783720818.8622,1,1,1.0000,0.0000,1.40700,0.14548,-2.66947,0.95330,1.57080,0.13023,-0.12692,-0.44716,0.06313,,,,,,,,,,,,,,,,,,,,,,,,,,0,0,0,0,0
1.1021,1783720818.8713,1,1,1.0000,0.0000,1.40700,0.14548,-2.66947,0.95330,1.57080,0.13023,-0.12692,-0.44716,0.06313,,,,,,,,,,,,,,,,,,,,,,,,,,0,0,0,0,0
1.1118,1783720818.8810,1,1,1.0000,0.0000,1.40700,0.14548,-2.66947,0.95330,1.57080,0.13023,-0.12692,-0.44716,0.06313,,,,,,,,,,,,,,,,,,,,,,,,,,0,0,0,0,0
1.1257,1783720818.8949,1,1,1.0000,0.0000,1.40700,0.14548,-2.66947,0.95330,1.57080,0.13023,-0.12692,-0.44716,0.06313,,,,,,,,,,,,,,,,,,,,,,,,,,0,0,0,0,0
1.1402,1783720818.9094,1,1,1.0000,0.0000,1.40700,0.14548,-2.66947,0.95330,1.57080,0.13023,-0.12692,-0.44716,0.06313,,,,,,,,,,,,,,,,,,,,,,,,,,0,0,0,0,0
1.1433,1783720818.9125,1,1,1.0000,0.0000,1.40700,0.14548,-2.66947,0.95330,1.57080,0.13023,-0.12692,-0.44716,0.06313,,,,,,,,,,,,,,,,,,,,,,,,,,0,0,0,0,0
1.1580,1783720818.9272,1,1,1.0000,0.0000,1.40700,0.14548,-2.66947,0.95330,1.57080,0.13023,-0.12692,-0.44716,0.06313,,,,,,,,,,,,,,,,,,,,,,,,,,0,0,0,0,0
1.1628,1783720818.9320,1,1,1.0000,0.0000,1.40700,0.14548,-2.66947,0.95330,1.57080,0.13023,-0.12692,-0.44716,0.06313,,,,,,,,,,,,,,,,,,,,,,,,,,0,0,0,0,0
1.1745,1783720818.9437,1,1,1.0000,0.0000,1.40700,0.14548,-2.66947,0.95330,1.57080,0.13023,-0.12692,-0.44716,0.06313,,,,,,,,,,,,,,,,,,,,,,,,,,0,0,0,0,0
1.1844,1783720818.9536,1,1,1.0000,0.0000,1.40700,0.14548,-2.66947,0.95330,1.57080,0.13023,-0.12692,-0.44716,0.06313,,,,,,,,,,,,,,,,,,,,,,,,,,0,0,0,0,0
1.1920,1783720818.9612,1,1,1.0000,0.0000,1.40700,0.14548,-2.66947,0.95330,1.57080,0.13023,-0.12692,-0.44716,0.06313,,,,,,,,,,,,,,,,,,,,,,,,,,0,0,0,0,0
1.2020,1783720818.9712,1,1,1.0000,0.0000,1.40700,0.14548,-2.66947,0.95330,1.57080,0.13023,-0.12692,-0.44716,0.06313,,,,,,,,,,,,,,,,,,,,,,,,,,0,0,0,0,0
1.2141,1783720818.9833,1,1,1.0000,0.0000,1.40700,0.14548,-2.66947,0.95330,1.57080,0.13023,-0.12692,-0.44716,0.06313,,,,,,,,,,,,,,,,,,,,,,,,,,0,0,0,0,0
1.2239,1783720818.9931,1,1,1.0000,0.0000,1.40700,0.14548,-2.66947,0.95330,1.57080,0.13023,-0.12692,-0.44716,0.06313,,,,,,,,,,,,,,,,,,,,,,,,,,0,0,0,0,0
1.2373,1783720819.0065,1,1,1.0000,0.0000,1.40700,0.14548,-2.66947,0.95330,1.57080,0.13023,-0.12692,-0.44716,0.06313,,,,,,,,,,,,,,,,,,,,,,,,,,0,0,0,0,0
1.2424,1783720819.0116,1,1,1.0000,0.0000,1.40700,0.14548,-2.66947,0.95330,1.57080,0.13023,-0.12692,-0.44716,0.06313,,,,,,,,,,,,,,,,,,,,,,,,,,0,0,0,0,0
1.2548,1783720819.0240,1,1,1.0000,0.0000,1.40700,0.14548,-2.66947,0.95330,1.57080,0.13023,-0.12692,-0.44716,0.06313,,,,,,,,,,,,,,,,,,,,,,,,,,0,0,0,0,0
1.2551,1783720819.0243,1,1,1.0000,0.0000,1.40700,0.14548,-2.66947,0.95330,1.57080,0.13023,-0.12692,-0.44716,0.06313,,,,,,,,,,,,,,,,,,,,,,,,,,0,0,0,0,0
1.2640,1783720819.0332,1,1,1.0000,0.0000,1.40700,0.14548,-2.66947,0.95330,1.57080,0.13023,-0.12692,-0.44716,0.06313,,,,,,,,,,,,,,,,,,,,,,,,,,0,0,0,0,0
1.2644,1783720819.0336,1,1,1.0000,0.0000,1.40700,0.14548,-2.66947,0.95330,1.57080,0.13023,-0.12692,-0.44716,0.06313,,,,,,,,,,,,,,,,,,,,,,,,,,0,0,0,0,0
1.2782,1783720819.0474,1,1,1.0000,0.0000,1.40700,0.14548,-2.66947,0.95330,1.57080,0.13023,-0.12692,-0.44716,0.06313,,,,,,,,,,,,,,,,,,,,,,,,,,0,0,0,0,0
1.2849,1783720819.0541,1,1,1.0000,0.0000,1.40700,0.14548,-2.66947,0.95330,1.57080,0.13023,-0.12692,-0.44716,0.06313,,,,,,,,,,,,,,,,,,,,,,,,,,0,0,0,0,0
1.2853,1783720819.0545,1,1,1.0000,0.0000,1.40700,0.14548,-2.66947,0.95330,1.57080,0.13023,-0.12692,-0.44716,0.06313,,,,,,,,,,,,,,,,,,,,,,,,,,0,0,0,0,0
1.2922,1783720819.0614,1,1,1.0000,0.0000,1.40700,0.14548,-2.66947,0.95330,1.57080,0.13023,-0.12692,-0.44716,0.06313,,,,,,,,,,,,,,,,,,,,,,,,,,0,0,0,0,0
1.3035,1783720819.0727,1,1,1.0000,0.0000,1.40700,0.14548,-2.66947,0.95330,1.57080,0.13023,-0.12692,-0.44716,0.06313,,,,,,,,,,,,,,,,,,,,,,,,,,0,0,0,0,0
1.3039,1783720819.0731,1,1,1.0000,0.0000,1.40700,0.14548,-2.66947,0.95330,1.57080,0.13023,-0.12692,-0.44716,0.06313,,,,,,,,,,,,,,,,,,,,,,,,,,0,0,0,0,0
1.3165,1783720819.0857,1,1,1.0000,0.0000,1.40700,0.14548,-2.66947,0.95330,1.57080,0.13023,-0.12692,-0.44716,0.06313,,,,,,,,,,,,,,,,,,,,,,,,,,0,0,0,0,0
1.3265,1783720819.0957,1,1,1.0000,0.0000,1.40700,0.14548,-2.66947,0.95330,1.57080,0.13023,-0.12692,-0.44716,0.06313,,,,,,,,,,,,,,,,,,,,,,,,,,0,0,0,0,0
1.3333,1783720819.1025,1,1,1.0000,0.0000,1.40700,0.14548,-2.66947,0.95330,1.57080,0.13023,-0.12692,-0.44716,0.06313,,,,,,,,,,,,,,,,,,,,,,,,,,0,0,0,0,0
1.3446,1783720819.1138,1,1,1.0000,0.0000,1.40700,0.14548,-2.66947,0.95330,1.57080,0.13023,-0.12692,-0.44716,0.06313,,,,,,,,,,,,,,,,,,,,,,,,,,0,0,0,0,0
1.3534,1783720819.1226,1,1,1.0000,0.0000,1.40700,0.14548,-2.66947,0.95330,1.57080,0.13023,-0.12692,-0.44716,0.06313,,,,,,,,,,,,,,,,,,,,,,,,,,0,0,0,0,0
1.3623,1783720819.1315,1,1,1.0000,0.0000,1.40700,0.14548,-2.66947,0.95330,1.57080,0.13023,-0.12692,-0.44716,0.06313,,,,,,,,,,,,,,,,,,,,,,,,,,0,0,0,0,0
1.3627,1783720819.1319,1,1,1.0000,0.0000,1.40700,0.14548,-2.66947,0.95330,1.57080,0.13023,-0.12692,-0.44716,0.06313,,,,,,,,,,,,,,,,,,,,,,,,,,0,0,0,0,0
1.3724,1783720819.1416,1,1,1.0000,0.0000,1.40700,0.14548,-2.66947,0.95330,1.57080,0.13023,-0.12692,-0.44716,0.06313,,,,,,,,,,,,,,,,,,,,,,,,,,0,0,0,0,0
1.3880,1783720819.1572,1,1,1.0000,0.0000,1.40700,0.14548,-2.66947,0.95330,1.57080,0.13023,-0.12692,-0.44716,0.06313,,,,,,,,,,,,,,,,,,,,,,,,,,0,0,0,0,0
1.3995,1783720819.1687,1,1,1.0000,0.0000,1.40700,0.14548,-2.66947,0.95330,1.57080,0.13023,-0.12692,-0.44716,0.06313,,,,,,,,,,,,,,,,,,,,,,,,,,0,0,0,0,0
1.4044,1783720819.1736,1,1,1.0000,0.0000,1.40700,0.14548,-2.66947,0.95330,1.57080,0.13023,-0.12692,-0.44716,0.06313,,,,,,,,,,,,,,,,,,,,,,,,,,0,0,0,0,0
1.4142,1783720819.1834,1,1,1.0000,0.0000,1.40700,0.14548,-2.66947,0.95330,1.57080,0.13023,-0.12692,-0.44716,0.06313,,,,,,,,,,,,,,,,,,,,,,,,,,0,0,0,0,0
1.4265,1783720819.1957,1,1,1.0000,0.0000,1.40700,0.14548,-2.66947,0.95330,1.57080,0.13023,-0.12692,-0.44716,0.06313,,,,,,,,,,,,,,,,,,,,,,,,,,0,0,0,0,0
1.4317,1783720819.2009,1,1,1.0000,0.0000,1.40700,0.14548,-2.66948,0.95330,1.57080,0.13023,-0.12692,-0.44716,0.06313,,,,,,,,,,,,,,,,,,,,,,,,,,0,0,0,0,0
1.4428,1783720819.2120,1,1,1.0000,0.0000,1.40701,0.14548,-2.66949,0.95329,1.57080,0.13024,-0.12693,-0.44715,0.06312,,,,,,,,,,,,,,,,,,,,,,,,,,0,0,0,0,0
1.4551,1783720819.2243,1,1,1.0000,0.0000,1.40701,0.14548,-2.66950,0.95329,1.57080,0.13025,-0.12693,-0.44714,0.06312,,,,,,,,,,,,,,,,,,,,,,,,,,0,0,0,0,0
1.4632,1783720819.2324,1,1,1.0000,0.0000,1.40702,0.14548,-2.66950,0.95329,1.57080,0.13025,-0.12694,-0.44714,0.06312,,,,,,,,,,,,,,,,,,,,,,,,,,0,0,0,0,0
1.4635,1783720819.2327,1,1,1.0000,0.0000,1.40702,0.14548,-2.66950,0.95329,1.57080,0.13025,-0.12694,-0.44714,0.06312,,,,,,,,,,,,,,,,,,,,,,,,,,0,0,0,0,0
1.4754,1783720819.2446,1,1,1.0000,0.0000,1.40705,0.14547,-2.66950,0.95329,1.57081,0.13025,-0.12695,-0.44714,0.06312,,,,,,,,,,,,,,,,,,,,,,,,,,0,0,0,0,0
1.4896,1783720819.2588,1,1,1.0000,0.0000,1.40706,0.14547,-2.66949,0.95329,1.57081,0.13025,-0.12695,-0.44714,0.06312,,,,,,,,,,,,,,,,,,,,,,,,,,0,0,0,0,0
1.4920,1783720819.2612,1,1,1.0000,0.0000,1.40708,0.14546,-2.66949,0.95329,1.57081,0.13024,-0.12696,-0.44714,0.06312,,,,,,,,,,,,,,,,,,,,,,,,,,0,0,0,0,0
1.5080,1783720819.2772,1,1,1.0000,0.0000,1.40723,0.14542,-2.66944,0.95329,1.57081,0.13013,-0.12702,-0.44715,0.06312,,,,,,,,,,,,,,,,,,,,,,,,,,0,0,0,0,0
1.5166,1783720819.2858,1,1,1.0000,0.0000,1.40729,0.14541,-2.66943,0.95329,1.57081,0.13009,-0.12704,-0.44715,0.06313,,,,,,,,,,,,,,,,,,,,,,,,,,0,0,0,0,0
1.5243,1783720819.2935,1,1,1.0000,0.0000,1.40735,0.14539,-2.66941,0.95330,1.57081,0.13004,-0.12706,-0.44715,0.06313,,,,,,,,,,,,,,,,,,,,,,,,,,0,0,0,0,0
1.5343,1783720819.3035,1,1,1.0000,0.0000,1.40762,0.14532,-2.66936,0.95330,1.57081,0.12979,-0.12716,-0.44715,0.06313,,,,,,,,,,,,,,,,,,,,,,,,,,0,0,0,0,0
1.5441,1783720819.3133,1,1,1.0000,0.0000,1.40765,0.14532,-2.66935,0.95331,1.57081,0.12976,-0.12717,-0.44715,0.06312,,,,,,,,,,,,,,,,,,,,,,,,,,0,0,0,0,0
1.5576,1783720819.3268,1,1,1.0000,0.0000,1.40804,0.14521,-2.66928,0.95332,1.57081,0.12938,-0.12732,-0.44714,0.06312,,,,,,,,,,,,,,,,,,,,,,,,,,0,0,0,0,0
1.5663,1783720819.3355,1,1,1.0000,0.0000,1.40876,0.14502,-2.66915,0.95335,1.57081,0.12869,-0.12759,-0.44713,0.06311,,,,,,,,,,,,,,,,,,,,,,,,,,0,0,0,0,0
1.5725,1783720819.3417,1,1,1.0000,0.0000,1.40876,0.14502,-2.66915,0.95335,1.57081,0.12869,-0.12759,-0.44713,0.06311,,,,,,,,,,,,,,,,,,,,,,,,,,0,0,0,0,0
1.5838,1783720819.3530,1,1,1.0000,0.0000,1.40911,0.14493,-2.66908,0.95337,1.57081,0.12834,-0.12772,-0.44712,0.06311,,,,,,,,,,,,,,,,,,,,,,,,,,0,0,0,0,0
1.5943,1783720819.3635,1,1,1.0000,0.0000,1.41003,0.14468,-2.66891,0.95342,1.57081,0.12744,-0.12807,-0.44711,0.06311,,,,,,,,,,,,,,,,,,,,,,,,,,0,0,0,0,0
1.5946,1783720819.3638,1,1,1.0000,0.0000,1.41003,0.14468,-2.66891,0.95342,1.57081,0.12744,-0.12807,-0.44711,0.06311,,,,,,,,,,,,,,,,,,,,,,,,,,0,0,0,0,0
1.6044,1783720819.3736,1,1,1.0000,0.0000,1.41042,0.14458,-2.66883,0.95344,1.57081,0.12705,-0.12821,-0.44711,0.06310,,,,,,,,,,,,,,,,,,,,,,,,,,0,0,0,0,0
1.6048,1783720819.3740,1,1,1.0000,0.0000,1.41042,0.14458,-2.66883,0.95344,1.57081,0.12705,-0.12821,-0.44711,0.06310,,,,,,,,,,,,,,,,,,,,,,,,,,0,0,0,0,0
1.6122,1783720819.3814,1,1,1.0000,0.0000,1.41064,0.14452,-2.66879,0.95345,1.57081,0.12683,-0.12830,-0.44710,0.06310,,,,,,,,,,,,,,,,,,,,,,,,,,0,0,0,0,0
1.6233,1783720819.3925,1,1,1.0000,0.0000,1.41164,0.14425,-2.66860,0.95351,1.57081,0.12583,-0.12867,-0.44709,0.06310,,,,,,,,,,,,,,,,,,,,,,,,,,0,0,0,0,0
1.6343,1783720819.4035,1,1,1.0000,0.0000,1.41217,0.14411,-2.66850,0.95355,1.57081,0.12531,-0.12887,-0.44709,0.06309,,,,,,,,,,,,,,,,,,,,,,,,,,0,0,0,0,0
1.6346,1783720819.4038,1,1,1.0000,0.0000,1.41217,0.14411,-2.66850,0.95355,1.57081,0.12531,-0.12887,-0.44709,0.06309,,,,,,,,,,,,,,,,,,,,,,,,,,0,0,0,0,0
1.6484,1783720819.4176,1,1,1.0000,0.0000,1.41302,0.14388,-2.66834,0.95360,1.57081,0.12446,-0.12918,-0.44708,0.06309,,,,,,,,,,,,,,,,,,,,,,,,,,0,0,0,0,0
1.6547,1783720819.4239,1,1,1.0000,0.0000,1.41397,0.14362,-2.66816,0.95366,1.57081,0.12350,-0.12954,-0.44707,0.06308,,,,,,,,,,,,,,,,,,,,,,,,,,0,0,0,0,0
1.6726,1783720819.4418,1,1,1.0000,0.0000,1.41473,0.14342,-2.66801,0.95371,1.57081,0.12275,-0.12982,-0.44706,0.06308,,,,,,,,,,,,,,,,,,,,,,,,,,0,0,0,0,0
1.6731,1783720819.4423,1,1,1.0000,0.0000,1.41473,0.14342,-2.66801,0.95371,1.57081,0.12275,-0.12982,-0.44706,0.06308,,,,,,,,,,,,,,,,,,,,,,,,,,0,0,0,0,0
1.6734,1783720819.4426,1,1,1.0000,0.0000,1.41473,0.14342,-2.66801,0.95371,1.57081,0.12275,-0.12982,-0.44706,0.06308,,,,,,,,,,,,,,,,,,,,,,,,,,0,0,0,0,0
1.6872,1783720819.4564,1,1,1.0000,0.0000,1.41609,0.14305,-2.66775,0.95380,1.57081,0.12139,-0.13033,-0.44705,0.06308,,,,,,,,,,,,,,,,,,,,,,,,,,0,0,0,0,0
1.6957,1783720819.4649,1,1,1.0000,0.0000,1.41654,0.14293,-2.66766,0.95383,1.57081,0.12093,-0.13050,-0.44704,0.06307,,,,,,,,,,,,,,,,,,,,,,,,,,0,0,0,0,0
1.7031,1783720819.4723,1,1,1.0000,0.0000,1.41671,0.14288,-2.66763,0.95384,1.57081,0.12076,-0.13056,-0.44704,0.06307,,,,,,,,,,,,,,,,,,,,,,,,,,0,0,0,0,0
1.7147,1783720819.4839,1,1,1.0000,0.0000,1.41744,0.14268,-2.66748,0.95389,1.57081,0.12003,-0.13083,-0.44704,0.06307,,,,,,,,,,,,,,,,,,,,,,,,,,0,0,0,0,0
1.7151,1783720819.4843,1,1,1.0000,0.0000,1.41744,0.14268,-2.66748,0.95389,1.57081,0.12003,-0.13083,-0.44704,0.06307,,,,,,,,,,,,,,,,,,,,,,,,,,0,0,0,0,0
1.7262,1783720819.4954,1,1,1.0000,0.0000,1.41759,0.14264,-2.66745,0.95390,1.57081,0.11988,-0.13089,-0.44704,0.06307,,,,,,,,,,,,,,,,,,,,,,,,,,0,0,0,0,0
1.7322,1783720819.5014,1,1,1.0000,0.0000,1.41775,0.14260,-2.66742,0.95391,1.57081,0.11972,-0.13095,-0.44703,0.06307,,,,,,,,,,,,,,,,,,,,,,,,,,0,0,0,0,0
1.7464,1783720819.5156,1,1,1.0000,0.0000,1.41880,0.14232,-2.66721,0.95399,1.57081,0.11867,-0.13134,-0.44703,0.06307,,,,,,,,,,,,,,,,,,,,,,,,,,0,0,0,0,0
1.7540,1783720819.5232,1,1,1.0000,0.0000,1.41882,0.14231,-2.66721,0.95399,1.57081,0.11865,-0.13134,-0.44703,0.06307,,,,,,,,,,,,,,,,,,,,,,,,,,0,0,0,0,0
1.7663,1783720819.5355,1,1,1.0000,0.0000,1.41910,0.14223,-2.66716,0.95401,1.57081,0.11836,-0.13145,-0.44702,0.06307,,,,,,,,,,,,,,,,,,,,,,,,,,0,0,0,0,0
1.7743,1783720819.5435,1,1,1.0000,0.0000,1.41941,0.14215,-2.66711,0.95404,1.57081,0.11805,-0.13156,-0.44701,0.06306,,,,,,,,,,,,,,,,,,,,,,,,,,0,0,0,0,0
1.7747,1783720819.5439,1,1,1.0000,0.0000,1.41941,0.14215,-2.66711,0.95404,1.57081,0.11805,-0.13156,-0.44701,0.06306,,,,,,,,,,,,,,,,,,,,,,,,,,0,0,0,0,0
1.7854,1783720819.5546,1,1,1.0000,0.0000,1.41975,0.14206,-2.66706,0.95407,1.57081,0.11770,-0.13169,-0.44700,0.06305,,,,,,,,,,,,,,,,,,,,,,,,,,0,0,0,0,0
1.7966,1783720819.5658,1,1,1.0000,0.0000,1.42023,0.14193,-2.66700,0.95411,1.57081,0.11721,-0.13188,-0.44698,0.06304,,,,,,,,,,,,,,,,,,,,,,,,,,0,0,0,0,0
1.8035,1783720819.5727,1,1,1.0000,0.0000,1.42045,0.14187,-2.66698,0.95413,1.57081,0.11698,-0.13196,-0.44696,0.06303,,,,,,,,,,,,,,,,,,,,,,,,,,0,0,0,0,0
1.8189,1783720819.5881,1,1,1.0000,0.0000,1.42054,0.14184,-2.66699,0.95413,1.57081,0.11689,-0.13199,-0.44694,0.06301,,,,,,,,,,,,,,,,,,,,,,,,,,0,0,0,0,0
1.8245,1783720819.5937,1,1,1.0000,0.0000,1.42054,0.14184,-2.66699,0.95413,1.57081,0.11689,-0.13199,-0.44694,0.06301,,,,,,,,,,,,,,,,,,,,,,,,,,0,0,0,0,0
1.8317,1783720819.6009,1,1,1.0000,0.0000,1.42054,0.14184,-2.66699,0.95413,1.57081,0.11689,-0.13199,-0.44694,0.06301,,,,,,,,,,,,,,,,,,,,,,,,,,0,0,0,0,0
1.8433,1783720819.6125,1,1,1.0000,0.0000,1.42054,0.14184,-2.66699,0.95413,1.57081,0.11689,-0.13199,-0.44694,0.06301,,,,,,,,,,,,,,,,,,,,,,,,,,0,0,0,0,0
1.8439,1783720819.6131,1,1,1.0000,0.0000,1.42054,0.14184,-2.66699,0.95413,1.57081,0.11689,-0.13199,-0.44694,0.06301,,,,,,,,,,,,,,,,,,,,,,,,,,0,0,0,0,0
1.8549,1783720819.6241,1,1,1.0000,0.0000,1.42054,0.14184,-2.66699,0.95413,1.57081,0.11689,-0.13199,-0.44694,0.06301,,,,,,,,,,,,,,,,,,,,,,,,,,0,0,0,0,0
1.8651,1783720819.6343,1,1,1.0000,0.0000,1.42054,0.14184,-2.66699,0.95413,1.57081,0.11689,-0.13199,-0.44694,0.06301,,,,,,,,,,,,,,,,,,,,,,,,,,0,0,0,0,0
1.8729,1783720819.6421,1,1,1.0000,0.0000,1.42054,0.14184,-2.66699,0.95413,1.57081,0.11689,-0.13199,-0.44694,0.06301,,,,,,,,,,,,,,,,,,,,,,,,,,0,0,0,0,0
1.8863,1783720819.6555,1,1,1.0000,0.0000,1.42054,0.14184,-2.66699,0.95413,1.57081,0.11689,-0.13199,-0.44694,0.06301,,,,,,,,,,,,,,,,,,,,,,,,,,0,0,0,0,0
1.8990,1783720819.6682,1,1,1.0000,0.0000,1.42054,0.14184,-2.66699,0.95413,1.57081,0.11689,-0.13199,-0.44694,0.06301,,,,,,,,,,,,,,,,,,,,,,,,,,0,0,0,0,0
1.9793,1783720819.7485,1,1,1.0000,0.0000,1.42054,0.14184,-2.66699,0.95413,1.57081,0.11689,-0.13199,-0.44694,0.06301,,,,,,,,,,,,,,,,,,,,,,,,,,0,0,0,0,0
1.9796,1783720819.7488,1,1,1.0000,0.0000,1.42054,0.14184,-2.66699,0.95413,1.57081,0.11689,-0.13199,-0.44694,0.06301,,,,,,,,,,,,,,,,,,,,,,,,,,0,0,0,0,0
1.9800,1783720819.7492,1,1,1.0000,0.0000,1.42054,0.14184,-2.66699,0.95413,1.57081,0.11689,-0.13199,-0.44694,0.06301,,,,,,,,,,,,,,,,,,,,,,,,,,0,0,0,0,0
1.9802,1783720819.7494,1,1,1.0000,0.0000,1.42054,0.14184,-2.66699,0.95413,1.57081,0.11689,-0.13199,-0.44694,0.06301,,,,,,,,,,,,,,,,,,,,,,,,,,0,0,0,0,0
1.9805,1783720819.7497,1,1,1.0000,0.0000,1.42054,0.14184,-2.66699,0.95413,1.57081,0.11689,-0.13199,-0.44694,0.06301,,,,,,,,,,,,,,,,,,,,,,,,,,0,0,0,0,0
1.9808,1783720819.7500,1,1,1.0000,0.0000,1.42054,0.14184,-2.66699,0.95413,1.57081,0.11689,-0.13199,-0.44694,0.06301,,,,,,,,,,,,,,,,,,,,,,,,,,0,0,0,0,0
1.9811,1783720819.7503,1,1,1.0000,0.0000,1.42054,0.14184,-2.66699,0.95413,1.57081,0.11689,-0.13199,-0.44694,0.06301,,,,,,,,,,,,,,,,,,,,,,,,,,0,0,0,0,0
1.9814,1783720819.7506,1,1,1.0000,0.0000,1.42054,0.14184,-2.66699,0.95413,1.57081,0.11689,-0.13199,-0.44694,0.06301,,,,,,,,,,,,,,,,,,,,,,,,,,0,0,0,0,0
1.9819,1783720819.7511,1,1,1.0000,0.0000,1.42054,0.14184,-2.66699,0.95413,1.57081,0.11689,-0.13199,-0.44694,0.06301,,,,,,,,,,,,,,,,,,,,,,,,,,0,0,0,0,0
1.9828,1783720819.7520,1,1,1.0000,0.0000,1.42054,0.14184,-2.66699,0.95413,1.57081,0.11689,-0.13199,-0.44694,0.06301,,,,,,,,,,,,,,,,,,,,,,,,,,0,0,0,0,0
1.9831,1783720819.7523,1,1,1.0000,0.0000,1.42054,0.14184,-2.66699,0.95413,1.57081,0.11689,-0.13199,-0.44694,0.06301,,,,,,,,,,,,,,,,,,,,,,,,,,0,0,0,0,0
1.9953,1783720819.7645,1,1,1.0000,0.0000,1.42054,0.14184,-2.66699,0.95413,1.57081,0.11689,-0.13199,-0.44694,0.06301,,,,,,,,,,,,,,,,,,,,,,,,,,0,0,0,0,0
2.0097,1783720819.7789,1,1,1.0000,0.0000,1.42054,0.14184,-2.66699,0.95413,1.57081,0.11689,-0.13199,-0.44694,0.06301,,,,,,,,,,,,,,,,,,,,,,,,,,0,0,0,0,0
2.0119,1783720819.7811,1,1,1.0000,0.0000,1.42054,0.14184,-2.66699,0.95413,1.57081,0.11689,-0.13199,-0.44694,0.06301,,,,,,,,,,,,,,,,,,,,,,,,,,0,0,0,0,0
2.0233,1783720819.7925,1,1,1.0000,0.0000,1.42054,0.14184,-2.66699,0.95413,1.57081,0.11689,-0.13199,-0.44694,0.06301,,,,,,,,,,,,,,,,,,,,,,,,,,0,0,0,0,0
2.0341,1783720819.8033,1,1,1.0000,0.0000,1.42054,0.14184,-2.66699,0.95413,1.57081,0.11689,-0.13199,-0.44694,0.06301,,,,,,,,,,,,,,,,,,,,,,,,,,0,0,0,0,0
2.0450,1783720819.8142,1,1,1.0000,0.0000,1.42054,0.14184,-2.66699,0.95413,1.57081,0.11689,-0.13199,-0.44694,0.06301,,,,,,,,,,,,,,,,,,,,,,,,,,0,0,0,0,0
2.0943,1783720819.8635,1,1,1.0000,0.0000,1.42054,0.14184,-2.66699,0.95413,1.57081,0.11689,-0.13199,-0.44694,0.06301,,,,,,,,,,,,,,,,,,,,,,,,,,0,0,0,0,0
2.3995,1783720820.1687,1,1,1.0000,0.0000,1.41946,0.14741,-2.67099,0.95282,1.57081,0.11776,-0.13194,-0.44455,0.06308,,,,,,,,,,,,,,,,,,,,,,,,,,0,0,0,0,0
2.6679,1783720820.4371,1,1,1.0000,0.0000,1.41836,0.15307,-2.67496,0.95118,1.57082,0.11888,-0.13191,-0.44213,0.06314,,,,,,,,,,,,,,,,,,,,,,,,,,0,0,0,0,0
2.6683,1783720820.4375,1,1,1.0000,0.0000,1.41836,0.15307,-2.67496,0.95118,1.57082,0.11888,-0.13191,-0.44213,0.06314,,,,,,,,,,,,,,,,,,,,,,,,,,0,0,0,0,0
2.6688,1783720820.4380,1,1,1.0000,0.0000,1.41836,0.15307,-2.67496,0.95118,1.57082,0.11888,-0.13191,-0.44213,0.06314,,,,,,,,,,,,,,,,,,,,,,,,,,0,0,0,0,0
2.6745,1783720820.4437,1,1,1.0000,0.0000,1.41836,0.15307,-2.67496,0.95118,1.57082,0.11888,-0.13191,-0.44213,0.06314,,,,,,,,,,,,,,,,,,,,,,,,,,0,0,0,0,0
2.6750,1783720820.4442,1,1,1.0000,0.0000,1.41836,0.15307,-2.67496,0.95118,1.57082,0.11888,-0.13191,-0.44213,0.06314,,,,,,,,,,,,,,,,,,,,,,,,,,0,0,0,0,0
2.6753,1783720820.4445,1,1,1.0000,0.0000,1.41836,0.15307,-2.67496,0.95118,1.57082,0.11888,-0.13191,-0.44213,0.06314,,,,,,,,,,,,,,,,,,,,,,,,,,0,0,0,0,0
2.6758,1783720820.4450,1,1,1.0000,0.0000,1.41836,0.15307,-2.67496,0.95118,1.57082,0.11888,-0.13191,-0.44213,0.06314,,,,,,,,,,,,,,,,,,,,,,,,,,0,0,0,0,0
2.6763,1783720820.4455,1,1,1.0000,0.0000,1.41836,0.15307,-2.67496,0.95118,1.57082,0.11888,-0.13191,-0.44213,0.06314,,,,,,,,,,,,,,,,,,,,,,,,,,0,0,0,0,0
2.6769,1783720820.4461,1,1,1.0000,0.0000,1.41836,0.15307,-2.67496,0.95118,1.57082,0.11888,-0.13191,-0.44213,0.06314,,,,,,,,,,,,,,,,,,,,,,,,,,0,0,0,0,0
2.6774,1783720820.4466,1,1,1.0000,0.0000,1.41836,0.15307,-2.67496,0.95118,1.57082,0.11888,-0.13191,-0.44213,0.06314,,,,,,,,,,,,,,,,,,,,,,,,,,0,0,0,0,0
2.6783,1783720820.4475,1,1,1.0000,0.0000,1.41836,0.15307,-2.67496,0.95118,1.57082,0.11888,-0.13191,-0.44213,0.06314,,,,,,,,,,,,,,,,,,,,,,,,,,0,0,0,0,0
2.6787,1783720820.4479,1,1,1.0000,0.0000,1.41836,0.15307,-2.67496,0.95118,1.57082,0.11888,-0.13191,-0.44213,0.06314,,,,,,,,,,,,,,,,,,,,,,,,,,0,0,0,0,0
2.6791,1783720820.4483,1,1,1.0000,0.0000,1.41836,0.15307,-2.67496,0.95118,1.57082,0.11888,-0.13191,-0.44213,0.06314,,,,,,,,,,,,,,,,,,,,,,,,,,0,0,0,0,0
2.6795,1783720820.4487,1,1,1.0000,0.0000,1.41836,0.15307,-2.67496,0.95118,1.57082,0.11888,-0.13191,-0.44213,0.06314,,,,,,,,,,,,,,,,,,,,,,,,,,0,0,0,0,0
2.6800,1783720820.4492,1,1,1.0000,0.0000,1.41836,0.15307,-2.67496,0.95118,1.57082,0.11888,-0.13191,-0.44213,0.06314,,,,,,,,,,,,,,,,,,,,,,,,,,0,0,0,0,0
2.6805,1783720820.4497,1,1,1.0000,0.0000,1.41836,0.15307,-2.67496,0.95118,1.57082,0.11888,-0.13191,-0.44213,0.06314,,,,,,,,,,,,,,,,,,,,,,,,,,0,0,0,0,0
2.6809,1783720820.4501,1,1,1.0000,0.0000,1.41836,0.15307,-2.67496,0.95118,1.57082,0.11888,-0.13191,-0.44213,0.06314,,,,,,,,,,,,,,,,,,,,,,,,,,0,0,0,0,0
2.6814,1783720820.4506,1,1,1.0000,0.0000,1.41836,0.15307,-2.67496,0.95118,1.57082,0.11888,-0.13191,-0.44213,0.06314,,,,,,,,,,,,,,,,,,,,,,,,,,0,0,0,0,0
2.6822,1783720820.4514,1,1,1.0000,0.0000,1.41836,0.15307,-2.67496,0.95118,1.57082,0.11888,-0.13191,-0.44213,0.06314,,,,,,,,,,,,,,,,,,,,,,,,,,0,0,0,0,0
2.6826,1783720820.4518,1,1,1.0000,0.0000,1.41836,0.15307,-2.67496,0.95118,1.57082,0.11888,-0.13191,-0.44213,0.06314,,,,,,,,,,,,,,,,,,,,,,,,,,0,0,0,0,0
2.6830,1783720820.4522,1,1,1.0000,0.0000,1.41836,0.15307,-2.67496,0.95118,1.57082,0.11888,-0.13191,-0.44213,0.06314,,,,,,,,,,,,,,,,,,,,,,,,,,0,0,0,0,0
2.6835,1783720820.4527,1,1,1.0000,0.0000,1.41836,0.15307,-2.67496,0.95118,1.57082,0.11888,-0.13191,-0.44213,0.06314,,,,,,,,,,,,,,,,,,,,,,,,,,0,0,0,0,0
2.6840,1783720820.4532,1,1,1.0000,0.0000,1.41836,0.15307,-2.67496,0.95118,1.57082,0.11888,-0.13191,-0.44213,0.06314,,,,,,,,,,,,,,,,,,,,,,,,,,0,0,0,0,0
2.6845,1783720820.4537,1,1,1.0000,0.0000,1.41836,0.15307,-2.67496,0.95118,1.57082,0.11888,-0.13191,-0.44213,0.06314,,,,,,,,,,,,,,,,,,,,,,,,,,0,0,0,0,0
2.6851,1783720820.4543,1,1,1.0000,0.0000,1.41836,0.15307,-2.67496,0.95118,1.57082,0.11888,-0.13191,-0.44213,0.06314,,,,,,,,,,,,,,,,,,,,,,,,,,0,0,0,0,0
2.6856,1783720820.4548,1,1,1.0000,0.0000,1.41836,0.15307,-2.67496,0.95118,1.57082,0.11888,-0.13191,-0.44213,0.06314,,,,,,,,,,,,,,,,,,,,,,,,,,0,0,0,0,0
2.6863,1783720820.4555,1,1,1.0000,0.0000,1.41836,0.15307,-2.67496,0.95118,1.57082,0.11888,-0.13191,-0.44213,0.06314,,,,,,,,,,,,,,,,,,,,,,,,,,0,0,0,0,0
2.6867,1783720820.4559,1,1,1.0000,0.0000,1.41836,0.15307,-2.67496,0.95118,1.57082,0.11888,-0.13191,-0.44213,0.06314,,,,,,,,,,,,,,,,,,,,,,,,,,0,0,0,0,0
2.6872,1783720820.4564,1,1,1.0000,0.0000,1.41836,0.15307,-2.67496,0.95118,1.57082,0.11888,-0.13191,-0.44213,0.06314,,,,,,,,,,,,,,,,,,,,,,,,,,0,0,0,0,0
2.6876,1783720820.4568,1,1,1.0000,0.0000,1.41836,0.15307,-2.67496,0.95118,1.57082,0.11888,-0.13191,-0.44213,0.06314,,,,,,,,,,,,,,,,,,,,,,,,,,0,0,0,0,0
2.6881,1783720820.4573,1,1,1.0000,0.0000,1.41836,0.15307,-2.67496,0.95118,1.57082,0.11888,-0.13191,-0.44213,0.06314,,,,,,,,,,,,,,,,,,,,,,,,,,0,0,0,0,0
2.6886,1783720820.4578,1,1,1.0000,0.0000,1.41836,0.15307,-2.67496,0.95118,1.57082,0.11888,-0.13191,-0.44213,0.06314,,,,,,,,,,,,,,,,,,,,,,,,,,0,0,0,0,0
2.6890,1783720820.4582,1,1,1.0000,0.0000,1.41836,0.15307,-2.67496,0.95118,1.57082,0.11888,-0.13191,-0.44213,0.06314,,,,,,,,,,,,,,,,,,,,,,,,,,0,0,0,0,0
2.6980,1783720820.4672,1,1,1.0000,0.0000,1.41836,0.15307,-2.67496,0.95118,1.57082,0.11888,-0.13191,-0.44213,0.06314,,,,,,,,,,,,,,,,,,,,,,,,,,0,0,0,0,0
2.7042,1783720820.4734,1,1,1.0000,0.0000,1.41836,0.15307,-2.67496,0.95118,1.57082,0.11888,-0.13191,-0.44213,0.06314,,,,,,,,,,,,,,,,,,,,,,,,,,0,0,0,0,0
2.7195,1783720820.4887,1,1,1.0000,0.0000,1.41836,0.15307,-2.67496,0.95118,1.57082,0.11888,-0.13191,-0.44213,0.06314,,,,,,,,,,,,,,,,,,,,,,,,,,0,0,0,0,0
2.7267,1783720820.4959,1,1,1.0000,0.0000,1.41836,0.15307,-2.67496,0.95118,1.57082,0.11888,-0.13191,-0.44213,0.06314,,,,,,,,,,,,,,,,,,,,,,,,,,0,0,0,0,0
2.7344,1783720820.5036,1,1,1.0000,0.0000,1.41836,0.15307,-2.67496,0.95118,1.57082,0.11888,-0.13191,-0.44213,0.06314,,,,,,,,,,,,,,,,,,,,,,,,,,0,0,0,0,0
2.7508,1783720820.5200,1,1,1.0000,0.0000,1.41836,0.15307,-2.67496,0.95118,1.57082,0.11888,-0.13191,-0.44213,0.06314,,,,,,,,,,,,,,,,,,,,,,,,,,0,0,0,0,0
2.7556,1783720820.5248,1,1,1.0000,0.0000,1.41836,0.15307,-2.67496,0.95118,1.57082,0.11888,-0.13191,-0.44213,0.06314,,,,,,,,,,,,,,,,,,,,,,,,,,0,0,0,0,0
2.7639,1783720820.5331,1,1,1.0000,0.0000,1.41836,0.15307,-2.67496,0.95118,1.57082,0.11888,-0.13191,-0.44213,0.06314,,,,,,,,,,,,,,,,,,,,,,,,,,0,0,0,0,0
2.7767,1783720820.5459,1,1,1.0000,0.0000,1.41836,0.15307,-2.67496,0.95118,1.57082,0.11888,-0.13191,-0.44213,0.06314,,,,,,,,,,,,,,,,,,,,,,,,,,0,0,0,0,0
2.7880,1783720820.5572,1,1,1.0000,0.0000,1.41836,0.15307,-2.67496,0.95118,1.57082,0.11888,-0.13191,-0.44213,0.06314,,,,,,,,,,,,,,,,,,,,,,,,,,0,0,0,0,0
2.7943,1783720820.5635,1,1,1.0000,0.0000,1.41836,0.15307,-2.67496,0.95118,1.57082,0.11888,-0.13191,-0.44213,0.06314,,,,,,,,,,,,,,,,,,,,,,,,,,0,0,0,0,0
2.8070,1783720820.5762,1,1,1.0000,0.0000,1.41836,0.15307,-2.67496,0.95118,1.57082,0.11888,-0.13191,-0.44213,0.06314,,,,,,,,,,,,,,,,,,,,,,,,,,0,0,0,0,0
2.8155,1783720820.5847,1,1,1.0000,0.0000,1.41836,0.15307,-2.67496,0.95118,1.57082,0.11888,-0.13191,-0.44213,0.06314,,,,,,,,,,,,,,,,,,,,,,,,,,0,0,0,0,0
2.8253,1783720820.5945,1,1,1.0000,0.0000,1.41836,0.15307,-2.67496,0.95118,1.57082,0.11888,-0.13191,-0.44213,0.06314,,,,,,,,,,,,,,,,,,,,,,,,,,0,0,0,0,0
2.8346,1783720820.6038,1,1,1.0000,0.0000,1.41836,0.15307,-2.67496,0.95118,1.57082,0.11888,-0.13191,-0.44213,0.06314,,,,,,,,,,,,,,,,,,,,,,,,,,0,0,0,0,0
2.8439,1783720820.6131,1,1,1.0000,0.0000,1.41836,0.15307,-2.67496,0.95118,1.57082,0.11888,-0.13191,-0.44213,0.06314,,,,,,,,,,,,,,,,,,,,,,,,,,0,0,0,0,0
2.8550,1783720820.6242,1,1,1.0000,0.0000,1.41836,0.15307,-2.67496,0.95118,1.57082,0.11888,-0.13191,-0.44213,0.06314,,,,,,,,,,,,,,,,,,,,,,,,,,0,0,0,0,0
2.8553,1783720820.6245,1,1,1.0000,0.0000,1.41836,0.15307,-2.67496,0.95118,1.57082,0.11888,-0.13191,-0.44213,0.06314,,,,,,,,,,,,,,,,,,,,,,,,,,0,0,0,0,0
2.8650,1783720820.6342,1,1,1.0000,0.0000,1.41836,0.15307,-2.67496,0.95118,1.57082,0.11888,-0.13191,-0.44213,0.06314,,,,,,,,,,,,,,,,,,,,,,,,,,0,0,0,0,0
2.8756,1783720820.6448,1,1,1.0000,0.0000,1.41836,0.15307,-2.67496,0.95118,1.57082,0.11888,-0.13191,-0.44213,0.06314,,,,,,,,,,,,,,,,,,,,,,,,,,0,0,0,0,0
2.8872,1783720820.6564,1,1,1.0000,0.0000,1.41836,0.15307,-2.67496,0.95118,1.57082,0.11888,-0.13191,-0.44213,0.06314,,,,,,,,,,,,,,,,,,,,,,,,,,0,0,0,0,0
2.8983,1783720820.6675,1,1,1.0000,0.0000,1.41836,0.15307,-2.67496,0.95118,1.57082,0.11888,-0.13191,-0.44213,0.06314,,,,,,,,,,,,,,,,,,,,,,,,,,0,0,0,0,0
2.8986,1783720820.6678,1,1,1.0000,0.0000,1.41836,0.15307,-2.67496,0.95118,1.57082,0.11888,-0.13191,-0.44213,0.06314,,,,,,,,,,,,,,,,,,,,,,,,,,0,0,0,0,0
2.9038,1783720820.6730,1,1,1.0000,0.0000,1.41836,0.15307,-2.67496,0.95118,1.57082,0.11888,-0.13191,-0.44213,0.06314,,,,,,,,,,,,,,,,,,,,,,,,,,0,0,0,0,0
2.9168,1783720820.6860,1,1,1.0000,0.0000,1.41836,0.15307,-2.67496,0.95118,1.57082,0.11888,-0.13191,-0.44213,0.06314,,,,,,,,,,,,,,,,,,,,,,,,,,0,0,0,0,0
2.9268,1783720820.6960,1,1,1.0000,0.0000,1.41836,0.15307,-2.67496,0.95118,1.57082,0.11888,-0.13191,-0.44213,0.06314,,,,,,,,,,,,,,,,,,,,,,,,,,0,0,0,0,0
2.9271,1783720820.6963,1,1,1.0000,0.0000,1.41836,0.15307,-2.67496,0.95118,1.57082,0.11888,-0.13191,-0.44213,0.06314,,,,,,,,,,,,,,,,,,,,,,,,,,0,0,0,0,0
2.9357,1783720820.7049,1,1,1.0000,0.0000,1.41836,0.15307,-2.67496,0.95118,1.57082,0.11888,-0.13191,-0.44213,0.06314,,,,,,,,,,,,,,,,,,,,,,,,,,0,0,0,0,0
2.9439,1783720820.7131,1,1,1.0000,0.0000,1.41836,0.15307,-2.67496,0.95118,1.57082,0.11888,-0.13191,-0.44213,0.06314,,,,,,,,,,,,,,,,,,,,,,,,,,0,0,0,0,0
2.9551,1783720820.7243,1,1,1.0000,0.0000,1.41836,0.15307,-2.67496,0.95118,1.57082,0.11888,-0.13191,-0.44213,0.06314,,,,,,,,,,,,,,,,,,,,,,,,,,0,0,0,0,0
2.9635,1783720820.7327,1,1,1.0000,0.0000,1.41836,0.15307,-2.67497,0.95118,1.57082,0.11888,-0.13191,-0.44213,0.06313,,,,,,,,,,,,,,,,,,,,,,,,,,0,0,0,0,0
2.9760,1783720820.7452,1,1,1.0000,0.0000,1.41837,0.15305,-2.67497,0.95118,1.57083,0.11889,-0.13191,-0.44212,0.06313,,,,,,,,,,,,,,,,,,,,,,,,,,0,0,0,0,0
2.9837,1783720820.7529,1,1,1.0000,0.0000,1.41837,0.15305,-2.67497,0.95118,1.57083,0.11889,-0.13191,-0.44212,0.06313,,,,,,,,,,,,,,,,,,,,,,,,,,0,0,0,0,0
2.9960,1783720820.7652,1,1,1.0000,0.0000,1.41838,0.15301,-2.67493,0.95119,1.57083,0.11890,-0.13191,-0.44214,0.06313,,,,,,,,,,,,,,,,,,,,,,,,,,0,0,0,0,0
3.0041,1783720820.7733,1,1,1.0000,0.0000,1.41839,0.15296,-2.67489,0.95119,1.57083,0.11890,-0.13191,-0.44216,0.06312,,,,,,,,,,,,,,,,,,,,,,,,,,0,0,0,0,0
3.0248,1783720820.7940,1,1,1.0000,0.0000,1.41841,0.15285,-2.67482,0.95121,1.57083,0.11890,-0.13192,-0.44221,0.06312,,,,,,,,,,,,,,,,,,,,,,,,,,0,0,0,0,0
3.0286,1783720820.7978,1,1,1.0000,0.0000,1.41842,0.15279,-2.67478,0.95122,1.57083,0.11890,-0.13192,-0.44223,0.06312,,,,,,,,,,,,,,,,,,,,,,,,,,0,0,0,0,0
3.0363,1783720820.8055,1,1,1.0000,0.0000,1.41844,0.15265,-2.67468,0.95125,1.57083,0.11889,-0.13192,-0.44229,0.06312,,,,,,,,,,,,,,,,,,,,,,,,,,0,0,0,0,0
3.0444,1783720820.8136,1,1,1.0000,0.0000,1.41846,0.15256,-2.67462,0.95127,1.57083,0.11889,-0.13192,-0.44232,0.06311,,,,,,,,,,,,,,,,,,,,,,,,,,0,0,0,0,0
3.0583,1783720820.8275,1,1,1.0000,0.0000,1.41852,0.15226,-2.67441,0.95134,1.57083,0.11885,-0.13192,-0.44245,0.06311,,,,,,,,,,,,,,,,,,,,,,,,,,0,0,0,0,0
3.0636,1783720820.8328,1,1,1.0000,0.0000,1.41855,0.15210,-2.67430,0.95137,1.57084,0.11883,-0.13193,-0.44251,0.06310,,,,,,,,,,,,,,,,,,,,,,,,,,0,0,0,0,0
3.0638,1783720820.8330,1,1,1.0000,0.0000,1.41855,0.15210,-2.67430,0.95137,1.57084,0.11883,-0.13193,-0.44251,0.06310,,,,,,,,,,,,,,,,,,,,,,,,,,0,0,0,0,0
3.0757,1783720820.8449,1,1,1.0000,0.0000,1.41858,0.15196,-2.67420,0.95141,1.57084,0.11880,-0.13193,-0.44257,0.06310,,,,,,,,,,,,,,,,,,,,,,,,,,0,0,0,0,0
3.0837,1783720820.8529,1,1,1.0000,0.0000,1.41865,0.15157,-2.67392,0.95151,1.57084,0.11874,-0.13193,-0.44274,0.06310,,,,,,,,,,,,,,,,,,,,,,,,,,0,0,0,0,0
3.0959,1783720820.8651,1,1,1.0000,0.0000,1.41882,0.15067,-2.67328,0.95174,1.57084,0.11859,-0.13193,-0.44312,0.06309,,,,,,,,,,,,,,,,,,,,,,,,,,0,0,0,0,0
3.1056,1783720820.8748,1,1,1.0000,0.0000,1.41889,0.15033,-2.67304,0.95183,1.57084,0.11853,-0.13194,-0.44327,0.06309,,,,,,,,,,,,,,,,,,,,,,,,,,0,0,0,0,0
3.1058,1783720820.8750,1,1,1.0000,0.0000,1.41889,0.15033,-2.67304,0.95183,1.57084,0.11853,-0.13194,-0.44327,0.06309,,,,,,,,,,,,,,,,,,,,,,,,,,0,0,0,0,0
3.1175,1783720820.8867,1,1,1.0000,0.0000,1.41895,0.15000,-2.67280,0.95191,1.57084,0.11847,-0.13194,-0.44341,0.06309,,,,,,,,,,,,,,,,,,,,,,,,,,0,0,0,0,0
3.1292,1783720820.8984,1,1,1.0000,0.0000,1.41911,0.14918,-2.67221,0.95213,1.57084,0.11833,-0.13194,-0.44377,0.06308,,,,,,,,,,,,,,,,,,,,,,,,,,0,0,0,0,0
3.1472,1783720820.9164,1,1,1.0000,0.0000,1.41925,0.14844,-2.67167,0.95233,1.57084,0.11819,-0.13195,-0.44409,0.06308,,,,,,,,,,,,,,,,,,,,,,,,,,0,0,0,0,0
3.1486,1783720820.9178,1,1,1.0000,0.0000,1.41925,0.14844,-2.67167,0.95233,1.57084,0.11819,-0.13195,-0.44409,0.06308,,,,,,,,,,,,,,,,,,,,,,,,,,0,0,0,0,0
3.1490,1783720820.9182,1,1,1.0000,0.0000,1.41925,0.14844,-2.67167,0.95233,1.57084,0.11819,-0.13195,-0.44409,0.06308,,,,,,,,,,,,,,,,,,,,,,,,,,0,0,0,0,0
3.1568,1783720820.9260,1,1,1.0000,0.0000,1.41937,0.14783,-2.67124,0.95249,1.57084,0.11808,-0.13195,-0.44436,0.06308,,,,,,,,,,,,,,,,,,,,,,,,,,0,0,0,0,0
3.1658,1783720820.9350,1,1,1.0000,0.0000,1.41938,0.14778,-2.67120,0.95250,1.57084,0.11807,-0.13195,-0.44438,0.06308,,,,,,,,,,,,,,,,,,,,,,,,,,0,0,0,0,0
3.1752,1783720820.9444,1,1,1.0000,0.0000,1.41952,0.14706,-2.67067,0.95269,1.57083,0.11793,-0.13195,-0.44470,0.06308,,,,,,,,,,,,,,,,,,,,,,,,,,0,0,0,0,0
3.1756,1783720820.9448,1,1,1.0000,0.0000,1.41952,0.14706,-2.67067,0.95269,1.57083,0.11793,-0.13195,-0.44470,0.06308,,,,,,,,,,,,,,,,,,,,,,,,,,0,0,0,0,0
3.1866,1783720820.9558,1,1,1.0000,0.0000,1.41976,0.14582,-2.66976,0.95302,1.57083,0.11770,-0.13195,-0.44525,0.06308,,,,,,,,,,,,,,,,,,,,,,,,,,0,0,0,0,0
3.1983,1783720820.9675,1,1,1.0000,0.0000,1.41979,0.14566,-2.66965,0.95307,1.57083,0.11767,-0.13196,-0.44532,0.06308,,,,,,,,,,,,,,,,,,,,,,,,,,0,0,0,0,0
3.2038,1783720820.9730,1,1,1.0000,0.0000,1.41982,0.14547,-2.66951,0.95312,1.57083,0.11763,-0.13196,-0.44541,0.06308,,,,,,,,,,,,,,,,,,,,,,,,,,0,0,0,0,0
3.2154,1783720820.9846,1,1,1.0000,0.0000,1.41998,0.14464,-2.66891,0.95334,1.57083,0.11747,-0.13196,-0.44577,0.06307,,,,,,,,,,,,,,,,,,,,,,,,,,0,0,0,0,0
3.2256,1783720820.9948,1,1,1.0000,0.0000,1.42011,0.14395,-2.66841,0.95353,1.57083,0.11734,-0.13196,-0.44608,0.06307,,,,,,,,,,,,,,,,,,,,,,,,,,0,0,0,0,0
3.2349,1783720821.0041,1,1,1.0000,0.0000,1.42018,0.14358,-2.66814,0.95363,1.57083,0.11727,-0.13196,-0.44624,0.06307,,,,,,,,,,,,,,,,,,,,,,,,,,0,0,0,0,0
3.2457,1783720821.0149,1,1,1.0000,0.0000,1.42021,0.14343,-2.66803,0.95367,1.57083,0.11724,-0.13196,-0.44631,0.06307,,,,,,,,,,,,,,,,,,,,,,,,,,0,0,0,0,0
3.2553,1783720821.0245,1,1,1.0000,0.0000,1.42029,0.14302,-2.66773,0.95378,1.57083,0.11716,-0.13197,-0.44649,0.06307,,,,,,,,,,,,,,,,,,,,,,,,,,0,0,0,0,0
3.2637,1783720821.0329,1,1,1.0000,0.0000,1.42036,0.14269,-2.66748,0.95388,1.57083,0.11709,-0.13197,-0.44664,0.06307,,,,,,,,,,,,,,,,,,,,,,,,,,0,0,0,0,0
3.4347,1783720821.2039,1,1,1.0000,0.0000,1.42052,0.14184,-2.66686,0.95413,1.57083,0.11692,-0.13197,-0.44703,0.06308,,,,,,,,,,,,,,,,,,,,,,,,,,0,0,0,0,0
3.4356,1783720821.2048,1,1,1.0000,0.0000,1.42052,0.14184,-2.66686,0.95413,1.57083,0.11692,-0.13197,-0.44703,0.06308,,,,,,,,,,,,,,,,,,,,,,,,,,0,0,0,0,0
3.4360,1783720821.2052,1,1,1.0000,0.0000,1.42052,0.14184,-2.66686,0.95413,1.57083,0.11692,-0.13197,-0.44703,0.06308,,,,,,,,,,,,,,,,,,,,,,,,,,0,0,0,0,0
3.4366,1783720821.2058,1,1,1.0000,0.0000,1.42052,0.14184,-2.66686,0.95413,1.57083,0.11692,-0.13197,-0.44703,0.06308,,,,,,,,,,,,,,,,,,,,,,,,,,0,0,0,0,0
3.4369,1783720821.2061,1,1,1.0000,0.0000,1.42052,0.14184,-2.66686,0.95413,1.57083,0.11692,-0.13197,-0.44703,0.06308,,,,,,,,,,,,,,,,,,,,,,,,,,0,0,0,0,0
3.4372,1783720821.2064,1,1,1.0000,0.0000,1.42052,0.14184,-2.66686,0.95413,1.57083,0.11692,-0.13197,-0.44703,0.06308,,,,,,,,,,,,,,,,,,,,,,,,,,0,0,0,0,0
3.4446,1783720821.2138,1,1,1.0000,0.0000,1.42052,0.14184,-2.66686,0.95413,1.57083,0.11692,-0.13197,-0.44703,0.06308,,,,,,,,,,,,,,,,,,,,,,,,,,0,0,0,0,0
3.4568,1783720821.2260,1,1,1.0000,0.0000,1.42052,0.14184,-2.66686,0.95413,1.57083,0.11692,-0.13197,-0.44703,0.06308,,,,,,,,,,,,,,,,,,,,,,,,,,0,0,0,0,0
3.4672,1783720821.2364,1,1,1.0000,0.0000,1.42052,0.14184,-2.66686,0.95413,1.57083,0.11692,-0.13197,-0.44703,0.06308,,,,,,,,,,,,,,,,,,,,,,,,,,0,0,0,0,0
3.4767,1783720821.2459,1,1,1.0000,0.0000,1.42052,0.14184,-2.66686,0.95413,1.57083,0.11692,-0.13197,-0.44703,0.06308,,,,,,,,,,,,,,,,,,,,,,,,,,0,0,0,0,0
3.4863,1783720821.2555,1,1,1.0000,0.0000,1.42052,0.14184,-2.66686,0.95413,1.57083,0.11692,-0.13197,-0.44703,0.06308,,,,,,,,,,,,,,,,,,,,,,,,,,0,0,0,0,0
3.4946,1783720821.2638,1,1,1.0000,0.0000,1.42052,0.14184,-2.66686,0.95413,1.57083,0.11692,-0.13197,-0.44703,0.06308,,,,,,,,,,,,,,,,,,,,,,,,,,0,0,0,0,0
3.4949,1783720821.2641,1,1,1.0000,0.0000,1.42052,0.14184,-2.66686,0.95413,1.57083,0.11692,-0.13197,-0.44703,0.06308,,,,,,,,,,,,,,,,,,,,,,,,,,0,0,0,0,0
3.5048,1783720821.2740,1,1,1.0000,0.0000,1.42052,0.14184,-2.66686,0.95413,1.57083,0.11692,-0.13197,-0.44703,0.06308,,,,,,,,,,,,,,,,,,,,,,,,,,0,0,0,0,0
3.5145,1783720821.2837,1,1,1.0000,0.0000,1.42052,0.14184,-2.66686,0.95413,1.57083,0.11692,-0.13197,-0.44703,0.06308,,,,,,,,,,,,,,,,,,,,,,,,,,0,0,0,0,0
3.5317,1783720821.3009,1,1,1.0000,0.0000,1.42052,0.14184,-2.66686,0.95413,1.57083,0.11692,-0.13197,-0.44703,0.06308,,,,,,,,,,,,,,,,,,,,,,,,,,0,0,0,0,0
3.5709,1783720821.3401,1,1,1.0000,0.0000,1.42052,0.14184,-2.66686,0.95413,1.57083,0.11692,-0.13197,-0.44703,0.06308,,,,,,,,,,,,,,,,,,,,,,,,,,0,0,0,0,0
3.5716,1783720821.3408,1,1,1.0000,0.0000,1.42052,0.14184,-2.66686,0.95413,1.57083,0.11692,-0.13197,-0.44703,0.06308,,,,,,,,,,,,,,,,,,,,,,,,,,0,0,0,0,0
3.5783,1783720821.3475,1,1,1.0000,0.0000,1.42052,0.14184,-2.66686,0.95413,1.57083,0.11692,-0.13197,-0.44703,0.06308,,,,,,,,,,,,,,,,,,,,,,,,,,0,0,0,0,0
3.5792,1783720821.3484,1,1,1.0000,0.0000,1.42052,0.14184,-2.66686,0.95413,1.57083,0.11692,-0.13197,-0.44703,0.06308,,,,,,,,,,,,,,,,,,,,,,,,,,0,0,0,0,0
3.5796,1783720821.3488,1,1,1.0000,0.0000,1.42052,0.14184,-2.66686,0.95413,1.57083,0.11692,-0.13197,-0.44703,0.06308,,,,,,,,,,,,,,,,,,,,,,,,,,0,0,0,0,0
3.5836,1783720821.3528,1,1,1.0000,0.0000,1.42052,0.14184,-2.66686,0.95413,1.57083,0.11692,-0.13197,-0.44703,0.06308,,,,,,,,,,,,,,,,,,,,,,,,,,0,0,0,0,0
3.5838,1783720821.3530,1,1,1.0000,0.0000,1.42052,0.14184,-2.66686,0.95413,1.57083,0.11692,-0.13197,-0.44703,0.06308,,,,,,,,,,,,,,,,,,,,,,,,,,0,0,0,0,0
3.5968,1783720821.3660,1,1,1.0000,0.0000,1.42052,0.14184,-2.66686,0.95413,1.57083,0.11692,-0.13197,-0.44703,0.06308,,,,,,,,,,,,,,,,,,,,,,,,,,0,0,0,0,0
3.6081,1783720821.3773,1,1,1.0000,0.0000,1.42052,0.14184,-2.66686,0.95413,1.57083,0.11692,-0.13197,-0.44703,0.06308,,,,,,,,,,,,,,,,,,,,,,,,,,0,0,0,0,0
3.6143,1783720821.3835,1,1,1.0000,0.0000,1.42052,0.14184,-2.66686,0.95413,1.57083,0.11692,-0.13197,-0.44703,0.06308,,,,,,,,,,,,,,,,,,,,,,,,,,0,0,0,0,0
3.6148,1783720821.3840,1,1,1.0000,0.0000,1.42052,0.14184,-2.66686,0.95413,1.57083,0.11692,-0.13197,-0.44703,0.06308,,,,,,,,,,,,,,,,,,,,,,,,,,0,0,0,0,0
3.6259,1783720821.3951,1,1,1.0000,0.0000,1.42052,0.14184,-2.66686,0.95413,1.57083,0.11692,-0.13197,-0.44703,0.06308,,,,,,,,,,,,,,,,,,,,,,,,,,0,0,0,0,0
3.6351,1783720821.4043,1,1,1.0000,0.0000,1.42052,0.14184,-2.66686,0.95413,1.57083,0.11692,-0.13197,-0.44703,0.06308,,,,,,,,,,,,,,,,,,,,,,,,,,0,0,0,0,0
3.6443,1783720821.4135,1,1,1.0000,0.0000,1.42052,0.14184,-2.66686,0.95413,1.57083,0.11692,-0.13197,-0.44703,0.06308,,,,,,,,,,,,,,,,,,,,,,,,,,0,0,0,0,0
3.6564,1783720821.4256,1,1,1.0000,0.0000,1.42052,0.14184,-2.66686,0.95413,1.57083,0.11692,-0.13197,-0.44703,0.06308,,,,,,,,,,,,,,,,,,,,,,,,,,0,0,0,0,0
3.6568,1783720821.4260,1,1,1.0000,0.0000,1.42052,0.14184,-2.66686,0.95413,1.57083,0.11692,-0.13197,-0.44703,0.06308,,,,,,,,,,,,,,,,,,,,,,,,,,0,0,0,0,0
3.6641,1783720821.4333,1,1,1.0000,0.0000,1.42052,0.14184,-2.66686,0.95413,1.57083,0.11692,-0.13197,-0.44703,0.06308,,,,,,,,,,,,,,,,,,,,,,,,,,0,0,0,0,0
3.6644,1783720821.4336,1,1,1.0000,0.0000,1.42052,0.14184,-2.66686,0.95413,1.57083,0.11692,-0.13197,-0.44703,0.06308,,,,,,,,,,,,,,,,,,,,,,,,,,0,0,0,0,0
3.6749,1783720821.4441,1,1,1.0000,0.0000,1.42052,0.14184,-2.66686,0.95413,1.57083,0.11692,-0.13197,-0.44703,0.06308,,,,,,,,,,,,,,,,,,,,,,,,,,0,0,0,0,0
3.6753,1783720821.4445,1,1,1.0000,0.0000,1.42052,0.14184,-2.66686,0.95413,1.57083,0.11692,-0.13197,-0.44703,0.06308,,,,,,,,,,,,,,,,,,,,,,,,,,0,0,0,0,0
3.6847,1783720821.4539,1,1,1.0000,0.0000,1.42052,0.14184,-2.66686,0.95413,1.57083,0.11692,-0.13197,-0.44703,0.06308,,,,,,,,,,,,,,,,,,,,,,,,,,0,0,0,0,0
3.6995,1783720821.4687,1,1,1.0000,0.0000,1.42052,0.14184,-2.66686,0.95413,1.57083,0.11692,-0.13197,-0.44703,0.06308,,,,,,,,,,,,,,,,,,,,,,,,,,0,0,0,0,0
3.7111,1783720821.4803,1,1,1.0000,0.0000,1.42052,0.14184,-2.66686,0.95413,1.57083,0.11691,-0.13197,-0.44703,0.06308,,,,,,,,,,,,,,,,,,,,,,,,,,0,0,0,0,0
3.7116,1783720821.4808,1,1,1.0000,0.0000,1.42052,0.14184,-2.66686,0.95413,1.57083,0.11691,-0.13197,-0.44703,0.06308,,,,,,,,,,,,,,,,,,,,,,,,,,0,0,0,0,0
3.7172,1783720821.4864,1,1,1.0000,0.0000,1.42052,0.14184,-2.66686,0.95414,1.57083,0.11690,-0.13197,-0.44703,0.06308,,,,,,,,,,,,,,,,,,,,,,,,,,0,0,0,0,0
3.7274,1783720821.4966,1,1,1.0000,0.0000,1.42052,0.14184,-2.66687,0.95415,1.57082,0.11689,-0.13197,-0.44703,0.06307,,,,,,,,,,,,,,,,,,,,,,,,,,0,0,0,0,0
3.7454,1783720821.5146,1,1,1.0000,0.0000,1.42052,0.14183,-2.66688,0.95416,1.57082,0.11688,-0.13197,-0.44702,0.06307,,,,,,,,,,,,,,,,,,,,,,,,,,0,0,0,0,0
3.7543,1783720821.5235,1,1,1.0000,0.0000,1.42052,0.14182,-2.66690,0.95419,1.57082,0.11688,-0.13197,-0.44702,0.06306,,,,,,,,,,,,,,,,,,,,,,,,,,0,0,0,0,0
3.7573,1783720821.5265,1,1,1.0000,0.0000,1.42052,0.14181,-2.66691,0.95420,1.57082,0.11687,-0.13197,-0.44701,0.06305,,,,,,,,,,,,,,,,,,,,,,,,,,0,0,0,0,0
3.7576,1783720821.5268,1,1,1.0000,0.0000,1.42052,0.14181,-2.66691,0.95420,1.57082,0.11687,-0.13197,-0.44701,0.06305,,,,,,,,,,,,,,,,,,,,,,,,,,0,0,0,0,0
3.7640,1783720821.5332,1,1,1.0000,0.0000,1.42052,0.14180,-2.66692,0.95422,1.57082,0.11687,-0.13197,-0.44701,0.06305,,,,,,,,,,,,,,,,,,,,,,,,,,0,0,0,0,0
3.7758,1783720821.5450,1,1,1.0000,0.0000,1.42052,0.14175,-2.66695,0.95430,1.57082,0.11687,-0.13197,-0.44700,0.06302,,,,,,,,,,,,,,,,,,,,,,,,,,0,0,0,0,0
3.7844,1783720821.5536,1,1,1.0000,0.0000,1.42052,0.14165,-2.66699,0.95442,1.57082,0.11686,-0.13197,-0.44699,0.06298,,,,,,,,,,,,,,,,,,,,,,,,,,0,0,0,0,0
3.8008,1783720821.5700,1,1,1.0000,0.0000,1.42052,0.14149,-2.66704,0.95463,1.57082,0.11686,-0.13197,-0.44699,0.06293,,,,,,,,,,,,,,,,,,,,,,,,,,0,0,0,0,0
3.8037,1783720821.5729,1,1,1.0000,0.0000,1.42052,0.14138,-2.66708,0.95478,1.57082,0.11686,-0.13197,-0.44699,0.06289,,,,,,,,,,,,,,,,,,,,,,,,,,0,0,0,0,0
3.8042,1783720821.5734,1,1,1.0000,0.0000,1.42052,0.14138,-2.66708,0.95478,1.57082,0.11686,-0.13197,-0.44699,0.06289,,,,,,,,,,,,,,,,,,,,,,,,,,0,0,0,0,0
3.8187,1783720821.5879,1,1,1.0000,0.0000,1.42051,0.14090,-2.66723,0.95539,1.57082,0.11686,-0.13197,-0.44698,0.06272,,,,,,,,,,,,,,,,,,,,,,,,,,0,0,0,0,0
3.8246,1783720821.5938,1,1,1.0000,0.0000,1.42051,0.14087,-2.66724,0.95543,1.57082,0.11686,-0.13197,-0.44698,0.06271,,,,,,,,,,,,,,,,,,,,,,,,,,0,0,0,0,0
3.8250,1783720821.5942,1,1,1.0000,0.0000,1.42051,0.14087,-2.66724,0.95543,1.57082,0.11686,-0.13197,-0.44698,0.06271,,,,,,,,,,,,,,,,,,,,,,,,,,0,0,0,0,0
3.8372,1783720821.6064,1,1,1.0000,0.0000,1.42051,0.14046,-2.66736,0.95596,1.57082,0.11685,-0.13197,-0.44698,0.06257,,,,,,,,,,,,,,,,,,,,,,,,,,0,0,0,0,0
3.8489,1783720821.6181,1,1,1.0000,0.0000,1.42051,0.13967,-2.66759,0.95697,1.57082,0.11685,-0.13197,-0.44698,0.06230,,,,,,,,,,,,,,,,,,,,,,,,,,0,0,0,0,0
3.8549,1783720821.6241,1,1,1.0000,0.0000,1.42051,0.13962,-2.66760,0.95704,1.57082,0.11685,-0.13197,-0.44698,0.06228,,,,,,,,,,,,,,,,,,,,,,,,,,0,0,0,0,0
3.8552,1783720821.6244,1,1,1.0000,0.0000,1.42051,0.13962,-2.66760,0.95704,1.57082,0.11685,-0.13197,-0.44698,0.06228,,,,,,,,,,,,,,,,,,,,,,,,,,0,0,0,0,0
3.8647,1783720821.6339,1,1,1.0000,0.0000,1.42051,0.13923,-2.66771,0.95754,1.57082,0.11685,-0.13197,-0.44698,0.06215,,,,,,,,,,,,,,,,,,,,,,,,,,0,0,0,0,0
3.8768,1783720821.6460,1,1,1.0000,0.0000,1.42050,0.13807,-2.66804,0.95902,1.57082,0.11685,-0.13197,-0.44698,0.06176,,,,,,,,,,,,,,,,,,,,,,,,,,0,0,0,0,0
3.8869,1783720821.6561,1,1,1.0000,0.0000,1.42050,0.13776,-2.66813,0.95942,1.57082,0.11685,-0.13197,-0.44698,0.06166,,,,,,,,,,,,,,,,,,,,,,,,,,0,0,0,0,0
3.8974,1783720821.6666,1,1,1.0000,0.0000,1.42050,0.13691,-2.66838,0.96050,1.57082,0.11684,-0.13196,-0.44698,0.06137,,,,,,,,,,,,,,,,,,,,,,,,,,0,0,0,0,0
3.9053,1783720821.6745,1,1,1.0000,0.0000,1.42049,0.13568,-2.66873,0.96208,1.57082,0.11684,-0.13196,-0.44699,0.06096,,,,,,,,,,,,,,,,,,,,,,,,,,0,0,0,0,0
3.9159,1783720821.6851,1,1,1.0000,0.0000,1.42049,0.13486,-2.66896,0.96312,1.57082,0.11684,-0.13196,-0.44699,0.06068,,,,,,,,,,,,,,,,,,,,,,,,,,0,0,0,0,0
3.9250,1783720821.6942,1,1,1.0000,0.0000,1.42048,0.13412,-2.66917,0.96406,1.57082,0.11684,-0.13196,-0.44699,0.06043,,,,,,,,,,,,,,,,,,,,,,,,,,0,0,0,0,0
3.9354,1783720821.7046,1,1,1.0000,0.0000,1.42047,0.13196,-2.66978,0.96682,1.57082,0.11684,-0.13195,-0.44699,0.05971,,,,,,,,,,,,,,,,,,,,,,,,,,0,0,0,0,0
3.9446,1783720821.7138,1,1,1.0000,0.0000,1.42047,0.13105,-2.67004,0.96799,1.57082,0.11684,-0.13195,-0.44699,0.05940,,,,,,,,,,,,,,,,,,,,,,,,,,0,0,0,0,0
3.9693,1783720821.7385,1,1,1.0000,0.0000,1.42045,0.12833,-2.67081,0.97145,1.57082,0.11684,-0.13195,-0.44699,0.05849,,,,,,,,,,,,,,,,,,,,,,,,,,0,0,0,0,0
3.9709,1783720821.7401,1,1,1.0000,0.0000,1.42045,0.12817,-2.67085,0.97165,1.57082,0.11684,-0.13195,-0.44699,0.05844,,,,,,,,,,,,,,,,,,,,,,,,,,0,0,0,0,0
3.9891,1783720821.7583,1,1,1.0000,0.0000,1.42044,0.12496,-2.67174,0.97573,1.57082,0.11683,-0.13194,-0.44699,0.05737,,,,,,,,,,,,,,,,,,,,,,,,,,0,0,0,0,0
4.0364,1783720821.8056,1,1,1.0000,0.0000,1.42040,0.11662,-2.67404,0.98635,1.57082,0.11683,-0.13192,-0.44700,0.05462,,,,,,,,,,,,,,,,,,,,,,,,,,0,0,0,0,0
4.0439,1783720821.8131,1,1,1.0000,0.0000,1.42040,0.11549,-2.67435,0.98780,1.57082,0.11683,-0.13192,-0.44700,0.05425,,,,,,,,,,,,,,,,,,,,,,,,,,0,0,0,0,0
4.0476,1783720821.8168,1,1,1.0000,0.0000,1.42039,0.11457,-2.67459,0.98896,1.57082,0.11682,-0.13191,-0.44700,0.05395,,,,,,,,,,,,,,,,,,,,,,,,,,0,0,0,0,0
4.0480,1783720821.8172,1,1,1.0000,0.0000,1.42039,0.11457,-2.67459,0.98896,1.57082,0.11682,-0.13191,-0.44700,0.05395,,,,,,,,,,,,,,,,,,,,,,,,,,0,0,0,0,0
4.0552,1783720821.8244,1,1,1.0000,0.0000,1.42039,0.11348,-2.67489,0.99036,1.57082,0.11682,-0.13191,-0.44701,0.05360,,,,,,,,,,,,,,,,,,,,,,,,,,0,0,0,0,0
4.0556,1783720821.8248,1,1,1.0000,0.0000,1.42039,0.11348,-2.67489,0.99036,1.57082,0.11682,-0.13191,-0.44701,0.05360,,,,,,,,,,,,,,,,,,,,,,,,,,0,0,0,0,0
4.0560,1783720821.8252,1,1,1.0000,0.0000,1.42039,0.11348,-2.67489,0.99036,1.57082,0.11682,-0.13191,-0.44701,0.05360,,,,,,,,,,,,,,,,,,,,,,,,,,0,0,0,0,0
4.0563,1783720821.8255,1,1,1.0000,0.0000,1.42039,0.11348,-2.67489,0.99036,1.57082,0.11682,-0.13191,-0.44701,0.05360,,,,,,,,,,,,,,,,,,,,,,,,,,0,0,0,0,0
4.0566,1783720821.8258,1,1,1.0000,0.0000,1.42039,0.11348,-2.67489,0.99036,1.57082,0.11682,-0.13191,-0.44701,0.05360,,,,,,,,,,,,,,,,,,,,,,,,,,0,0,0,0,0
4.0642,1783720821.8334,1,1,1.0000,0.0000,1.42038,0.11276,-2.67508,0.99128,1.57082,0.11682,-0.13191,-0.44701,0.05336,,,,,,,,,,,,,,,,,,,,,,,,,,0,0,0,0,0
4.0748,1783720821.8440,1,1,1.0000,0.0000,1.42037,0.10954,-2.67593,0.99536,1.57083,0.11682,-0.13190,-0.44702,0.05232,,,,,,,,,,,,,,,,,,,,,,,,,,0,0,0,0,0
4.0852,1783720821.8544,1,1,1.0000,0.0000,1.42036,0.10652,-2.67673,0.99919,1.57083,0.11682,-0.13190,-0.44702,0.05134,,,,,,,,,,,,,,,,,,,,,,,,,,0,0,0,0,0
4.0940,1783720821.8632,1,1,1.0000,0.0000,1.42035,0.10490,-2.67717,1.00125,1.57083,0.11682,-0.13189,-0.44702,0.05082,,,,,,,,,,,,,,,,,,,,,,,,,,0,0,0,0,0
4.1038,1783720821.8730,1,1,1.0000,0.0000,1.42034,0.10370,-2.67748,1.00277,1.57083,0.11682,-0.13189,-0.44702,0.05043,,,,,,,,,,,,,,,,,,,,,,,,,,0,0,0,0,0
4.1179,1783720821.8871,1,1,1.0000,0.0000,1.42033,0.10069,-2.67827,1.00657,1.57083,0.11681,-0.13188,-0.44702,0.04946,,,,,,,,,,,,,,,,,,,,,,,,,,0,0,0,0,0
4.1255,1783720821.8947,1,1,1.0000,0.0000,1.42032,0.09944,-2.67859,1.00815,1.57083,0.11681,-0.13188,-0.44702,0.04906,,,,,,,,,,,,,,,,,,,,,,,,,,0,0,0,0,0
4.1340,1783720821.9032,1,1,1.0000,0.0000,1.42032,0.09886,-2.67874,1.00889,1.57083,0.11681,-0.13188,-0.44702,0.04887,,,,,,,,,,,,,,,,,,,,,,,,,,0,0,0,0,0
4.1474,1783720821.9166,1,1,1.0000,0.0000,1.42031,0.09622,-2.67942,1.01220,1.57084,0.11681,-0.13187,-0.44703,0.04803,,,,,,,,,,,,,,,,,,,,,,,,,,0,0,0,0,0
4.1564,1783720821.9256,1,1,1.0000,0.0000,1.42031,0.09553,-2.67959,1.01308,1.57084,0.11681,-0.13187,-0.44703,0.04781,,,,,,,,,,,,,,,,,,,,,,,,,,0,0,0,0,0
4.1639,1783720821.9331,1,1,1.0000,0.0000,1.42030,0.09368,-2.68006,1.01540,1.57084,0.11681,-0.13187,-0.44703,0.04722,,,,,,,,,,,,,,,,,,,,,,,,,,0,0,0,0,0
4.1750,1783720821.9442,1,1,1.0000,0.0000,1.42028,0.08952,-2.68111,1.02061,1.57084,0.11680,-0.13186,-0.44703,0.04591,,,,,,,,,,,,,,,,,,,,,,,,,,0,0,0,0,0
4.1883,1783720821.9575,1,1,1.0000,0.0000,1.42028,0.08888,-2.68126,1.02141,1.57084,0.11680,-0.13186,-0.44703,0.04571,,,,,,,,,,,,,,,,,,,,,,,,,,0,0,0,0,0
4.1939,1783720821.9631,1,1,1.0000,0.0000,1.42028,0.08814,-2.68145,1.02234,1.57084,0.11680,-0.13185,-0.44703,0.04547,,,,,,,,,,,,,,,,,,,,,,,,,,0,0,0,0,0
4.1942,1783720821.9634,1,1,1.0000,0.0000,1.42028,0.08814,-2.68145,1.02234,1.57084,0.11680,-0.13185,-0.44703,0.04547,,,,,,,,,,,,,,,,,,,,,,,,,,0,0,0,0,0
4.2100,1783720821.9792,1,1,1.0000,0.0000,1.42026,0.08325,-2.68265,1.02845,1.57085,0.11680,-0.13184,-0.44704,0.04393,,,,,,,,,,,,,,,,,,,,,,,,,,0,0,0,0,0
4.2212,1783720821.9904,1,1,1.0000,0.0000,1.42025,0.08260,-2.68281,1.02927,1.57085,0.11680,-0.13184,-0.44704,0.04373,,,,,,,,,,,,,,,,,,,,,,,,,,0,0,0,0,0
4.2280,1783720821.9972,1,1,1.0000,0.0000,1.42025,0.08084,-2.68324,1.03146,1.57085,0.11680,-0.13184,-0.44704,0.04318,,,,,,,,,,,,,,,,,,,,,,,,,,0,0,0,0,0
4.2341,1783720822.0033,1,1,1.0000,0.0000,1.42024,0.07965,-2.68353,1.03294,1.57086,0.11680,-0.13184,-0.44704,0.04280,,,,,,,,,,,,,,,,,,,,,,,,,,0,0,0,0,0
4.2345,1783720822.0037,1,1,1.0000,0.0000,1.42024,0.07965,-2.68353,1.03294,1.57086,0.11680,-0.13184,-0.44704,0.04280,,,,,,,,,,,,,,,,,,,,,,,,,,0,0,0,0,0
4.2584,1783720822.0276,1,1,1.0000,0.0000,1.42022,0.07544,-2.68454,1.03817,1.57086,0.11679,-0.13183,-0.44704,0.04149,,,,,,,,,,,,,,,,,,,,,,,,,,0,0,0,0,0
4.2591,1783720822.0283,1,1,1.0000,0.0000,1.42022,0.07445,-2.68477,1.03939,1.57086,0.11679,-0.13182,-0.44704,0.04119,,,,,,,,,,,,,,,,,,,,,,,,,,0,0,0,0,0
4.2711,1783720822.0403,1,1,1.0000,0.0000,1.42021,0.07194,-2.68536,1.04249,1.57087,0.11679,-0.13182,-0.44704,0.04041,,,,,,,,,,,,,,,,,,,,,,,,,,0,0,0,0,0
4.2740,1783720822.0432,1,1,1.0000,0.0000,1.42021,0.07194,-2.68536,1.04249,1.57087,0.11679,-0.13182,-0.44704,0.04041,,,,,,,,,,,,,,,,,,,,,,,,,,0,0,0,0,0
4.2745,1783720822.0437,1,1,1.0000,0.0000,1.42021,0.07194,-2.68536,1.04249,1.57087,0.11679,-0.13182,-0.44704,0.04041,,,,,,,,,,,,,,,,,,,,,,,,,,0,0,0,0,0
4.2879,1783720822.0571,1,1,1.0000,0.0000,1.42020,0.06943,-2.68595,1.04560,1.57087,0.11679,-0.13181,-0.44704,0.03963,,,,,,,,,,,,,,,,,,,,,,,,,,0,0,0,0,0
4.3010,1783720822.0702,1,1,1.0000,0.0000,1.42018,0.06532,-2.68690,1.05067,1.57088,0.11678,-0.13180,-0.44704,0.03836,,,,,,,,,,,,,,,,,,,,,,,,,,0,0,0,0,0
4.3035,1783720822.0727,1,1,1.0000,0.0000,1.42018,0.06532,-2.68690,1.05067,1.57088,0.11678,-0.13180,-0.44704,0.03836,,,,,,,,,,,,,,,,,,,,,,,,,,0,0,0,0,0
4.3270,1783720822.0962,1,1,1.0000,0.0000,1.42017,0.06188,-2.68769,1.05490,1.57089,0.11678,-0.13180,-0.44705,0.03731,,,,,,,,,,,,,,,,,,,,,,,,,,0,0,0,0,0
4.3361,1783720822.1053,1,1,1.0000,0.0000,1.42017,0.06112,-2.68786,1.05582,1.57089,0.11678,-0.13179,-0.44705,0.03708,,,,,,,,,,,,,,,,,,,,,,,,,,0,0,0,0,0
4.3502,1783720822.1194,1,1,1.0000,0.0000,1.42015,0.05777,-2.68861,1.05994,1.57090,0.11678,-0.13179,-0.44705,0.03606,,,,,,,,,,,,,,,,,,,,,,,,,,0,0,0,0,0
4.3563,1783720822.1255,1,1,1.0000,0.0000,1.42014,0.05460,-2.68932,1.06381,1.57090,0.11677,-0.13178,-0.44705,0.03509,,,,,,,,,,,,,,,,,,,,,,,,,,0,0,0,0,0
4.3713,1783720822.1405,1,1,1.0000,0.0000,1.42013,0.05100,-2.69012,1.06822,1.57091,0.11677,-0.13177,-0.44704,0.03400,,,,,,,,,,,,,,,,,,,,,,,,,,0,0,0,0,0
4.3717,1783720822.1409,1,1,1.0000,0.0000,1.42013,0.05100,-2.69012,1.06822,1.57091,0.11677,-0.13177,-0.44704,0.03400,,,,,,,,,,,,,,,,,,,,,,,,,,0,0,0,0,0
4.3735,1783720822.1427,1,1,1.0000,0.0000,1.42013,0.05100,-2.69012,1.06822,1.57091,0.11677,-0.13177,-0.44704,0.03400,,,,,,,,,,,,,,,,,,,,,,,,,,0,0,0,0,0
4.3741,1783720822.1433,1,1,1.0000,0.0000,1.42013,0.05100,-2.69012,1.06822,1.57091,0.11677,-0.13177,-0.44704,0.03400,,,,,,,,,,,,,,,,,,,,,,,,,,0,0,0,0,0
4.3956,1783720822.1648,1,1,1.0000,0.0000,1.42011,0.04693,-2.69101,1.07319,1.57092,0.11677,-0.13176,-0.44704,0.03277,,,,,,,,,,,,,,,,,,,,,,,,,,0,0,0,0,0
4.3959,1783720822.1651,1,1,1.0000,0.0000,1.42011,0.04693,-2.69101,1.07319,1.57092,0.11677,-0.13176,-0.44704,0.03277,,,,,,,,,,,,,,,,,,,,,,,,,,0,0,0,0,0
4.3962,1783720822.1654,1,1,1.0000,0.0000,1.42011,0.04693,-2.69101,1.07319,1.57092,0.11677,-0.13176,-0.44704,0.03277,,,,,,,,,,,,,,,,,,,,,,,,,,0,0,0,0,0
4.4038,1783720822.1730,1,1,1.0000,0.0000,1.42011,0.04625,-2.69115,1.07401,1.57092,0.11677,-0.13176,-0.44704,0.03257,,,,,,,,,,,,,,,,,,,,,,,,,,0,0,0,0,0
