Martins-Lucaas/twinforge/sensors/Data/20260704_154052__samples.csv
t_rel_s,t_unix,cycle,phase,setpoint_n,force_net_n,q1,q2,q3,q4,q5,q6,tcp_x,tcp_y,tcp_z,taxel_0,taxel_1,taxel_2,taxel_3,taxel_4,taxel_5,taxel_6,taxel_7,taxel_8,taxel_9,taxel_10,taxel_11,taxel_12,taxel_13,taxel_14,taxel_15,taxel_16,taxel_17,taxel_18,taxel_19,taxel_20,taxel_21,taxel_22,taxel_23,taxel_24,n_RA,n_SA,cn_mm,cn_ra,cn_sa
0.0023,1783190452.1423,1,0,1.0000,0.0000,1.44682,0.23328,-2.77748,0.97337,1.57080,0.00000,-0.14512,-0.38003,0.04653,,,,,,,,,,,,,,,,,,,,,,,,,,0,0,0,0,0
0.0101,1783190452.1501,1,0,1.0000,0.0000,1.44682,0.23328,-2.77748,0.97337,1.57080,0.00000,-0.14512,-0.38003,0.04653,,,,,,,,,,,,,,,,,,,,,,,,,,0,0,0,0,0
0.0210,1783190452.1610,1,0,1.0000,0.0000,1.44682,0.23328,-2.77748,0.97337,1.57080,-0.00000,-0.14512,-0.38003,0.04653,,,,,,,,,,,,,,,,,,,,,,,,,,0,0,0,0,0
0.0301,1783190452.1701,1,0,1.0000,0.0000,1.44682,0.23328,-2.77748,0.97337,1.57080,0.00000,-0.14512,-0.38003,0.04653,,,,,,,,,,,,,,,,,,,,,,,,,,0,0,0,0,0
0.0428,1783190452.1828,1,0,1.0000,0.0000,1.44682,0.23328,-2.77748,0.97337,1.57080,0.00000,-0.14512,-0.38003,0.04653,,,,,,,,,,,,,,,,,,,,,,,,,,0,0,0,0,0
0.0504,1783190452.1904,1,0,1.0000,0.0000,1.44682,0.23328,-2.77748,0.97337,1.57080,0.00000,-0.14512,-0.38003,0.04653,,,,,,,,,,,,,,,,,,,,,,,,,,0,0,0,0,0
0.0659,1783190452.2059,1,0,1.0000,0.0000,1.44682,0.23328,-2.77748,0.97337,1.57080,0.00000,-0.14512,-0.38003,0.04653,,,,,,,,,,,,,,,,,,,,,,,,,,0,0,0,0,0
0.0701,1783190452.2101,1,0,1.0000,0.0000,1.44682,0.23328,-2.77748,0.97337,1.57080,0.00000,-0.14512,-0.38003,0.04653,,,,,,,,,,,,,,,,,,,,,,,,,,0,0,0,0,0
0.0704,1783190452.2104,1,0,1.0000,0.0000,1.44682,0.23328,-2.77748,0.97337,1.57080,0.00000,-0.14512,-0.38003,0.04653,,,,,,,,,,,,,,,,,,,,,,,,,,0,0,0,0,0
0.0809,1783190452.2209,1,0,1.0000,0.0000,1.44682,0.23328,-2.77748,0.97337,1.57080,-0.00000,-0.14512,-0.38003,0.04653,,,,,,,,,,,,,,,,,,,,,,,,,,0,0,0,0,0
0.0942,1783190452.2342,1,0,1.0000,0.0000,1.44682,0.23328,-2.77748,0.97337,1.57080,0.00000,-0.14512,-0.38003,0.04653,,,,,,,,,,,,,,,,,,,,,,,,,,0,0,0,0,0
0.1000,1783190452.2400,1,0,1.0000,0.0000,1.44682,0.23328,-2.77748,0.97337,1.57080,0.00000,-0.14512,-0.38003,0.04653,,,,,,,,,,,,,,,,,,,,,,,,,,0,0,0,0,0
0.1004,1783190452.2404,1,0,1.0000,0.0000,1.44682,0.23328,-2.77748,0.97337,1.57080,0.00000,-0.14512,-0.38003,0.04653,,,,,,,,,,,,,,,,,,,,,,,,,,0,0,0,0,0
0.1103,1783190452.2503,1,0,1.0000,0.0000,1.44682,0.23328,-2.77748,0.97337,1.57080,0.00000,-0.14512,-0.38003,0.04653,,,,,,,,,,,,,,,,,,,,,,,,,,0,0,0,0,0
0.1107,1783190452.2507,1,0,1.0000,0.0000,1.44682,0.23328,-2.77748,0.97337,1.57080,0.00000,-0.14512,-0.38003,0.04653,,,,,,,,,,,,,,,,,,,,,,,,,,0,0,0,0,0
0.1251,1783190452.2651,1,0,1.0000,0.0000,1.44682,0.23328,-2.77748,0.97337,1.57080,0.00000,-0.14512,-0.38003,0.04653,,,,,,,,,,,,,,,,,,,,,,,,,,0,0,0,0,0
0.1314,1783190452.2714,1,0,1.0000,0.0000,1.44682,0.23328,-2.77748,0.97337,1.57080,0.00000,-0.14512,-0.38003,0.04653,,,,,,,,,,,,,,,,,,,,,,,,,,0,0,0,0,0
0.1319,1783190452.2719,1,0,1.0000,0.0000,1.44682,0.23328,-2.77748,0.97337,1.57080,0.00000,-0.14512,-0.38003,0.04653,,,,,,,,,,,,,,,,,,,,,,,,,,0,0,0,0,0
0.1454,1783190452.2854,1,0,1.0000,0.0000,1.44682,0.23328,-2.77748,0.97337,1.57080,0.00000,-0.14512,-0.38003,0.04653,,,,,,,,,,,,,,,,,,,,,,,,,,0,0,0,0,0
0.1510,1783190452.2910,1,0,1.0000,0.0000,1.44682,0.23328,-2.77748,0.97337,1.57080,0.00000,-0.14512,-0.38003,0.04653,,,,,,,,,,,,,,,,,,,,,,,,,,0,0,0,0,0
0.1513,1783190452.2913,1,0,1.0000,0.0000,1.44682,0.23328,-2.77748,0.97337,1.57080,0.00000,-0.14512,-0.38003,0.04653,,,,,,,,,,,,,,,,,,,,,,,,,,0,0,0,0,0
0.1602,1783190452.3003,1,0,1.0000,0.0000,1.44682,0.23328,-2.77748,0.97337,1.57080,0.00000,-0.14512,-0.38003,0.04653,,,,,,,,,,,,,,,,,,,,,,,,,,0,0,0,0,0
0.1712,1783190452.3112,1,0,1.0000,0.0000,1.44682,0.23328,-2.77748,0.97337,1.57080,0.00000,-0.14512,-0.38003,0.04653,,,,,,,,,,,,,,,,,,,,,,,,,,0,0,0,0,0
0.1820,1783190452.3220,1,0,1.0000,0.0000,1.44682,0.23328,-2.77748,0.97337,1.57080,0.00000,-0.14512,-0.38003,0.04653,,,,,,,,,,,,,,,,,,,,,,,,,,0,0,0,0,0
0.1950,1783190452.3350,1,0,1.0000,0.0000,1.44682,0.23328,-2.77748,0.97337,1.57080,0.00000,-0.14512,-0.38003,0.04653,,,,,,,,,,,,,,,,,,,,,,,,,,0,0,0,0,0
0.2073,1783190452.3473,1,0,1.0000,0.0000,1.44682,0.23328,-2.77748,0.97337,1.57080,0.00000,-0.14512,-0.38003,0.04653,,,,,,,,,,,,,,,,,,,,,,,,,,0,0,0,0,0
0.2211,1783190452.3611,1,0,1.0000,0.0000,1.44682,0.23328,-2.77748,0.97337,1.57080,0.00000,-0.14512,-0.38003,0.04653,,,,,,,,,,,,,,,,,,,,,,,,,,0,0,0,0,0
0.2248,1783190452.3648,1,0,1.0000,0.0000,1.44682,0.23328,-2.77748,0.97337,1.57080,0.00000,-0.14512,-0.38003,0.04653,,,,,,,,,,,,,,,,,,,,,,,,,,0,0,0,0,0
0.2253,1783190452.3653,1,0,1.0000,0.0000,1.44682,0.23328,-2.77748,0.97337,1.57080,0.00000,-0.14512,-0.38003,0.04653,,,,,,,,,,,,,,,,,,,,,,,,,,0,0,0,0,0
0.2554,1783190452.3955,1,0,1.0000,0.0000,1.44682,0.23328,-2.77748,0.97337,1.57080,0.00000,-0.14512,-0.38003,0.04653,,,,,,,,,,,,,,,,,,,,,,,,,,0,0,0,0,0
0.2559,1783190452.3959,1,0,1.0000,0.0000,1.44682,0.23328,-2.77748,0.97337,1.57080,0.00000,-0.14512,-0.38003,0.04653,,,,,,,,,,,,,,,,,,,,,,,,,,0,0,0,0,0
0.2563,1783190452.3963,1,0,1.0000,0.0000,1.44682,0.23328,-2.77748,0.97337,1.57080,0.00000,-0.14512,-0.38003,0.04653,,,,,,,,,,,,,,,,,,,,,,,,,,0,0,0,0,0
0.2661,1783190452.4061,1,0,1.0000,0.0000,1.44682,0.23328,-2.77748,0.97337,1.57080,0.00000,-0.14512,-0.38003,0.04653,,,,,,,,,,,,,,,,,,,,,,,,,,0,0,0,0,0
0.2664,1783190452.4064,1,0,1.0000,0.0000,1.44682,0.23328,-2.77748,0.97337,1.57080,0.00000,-0.14512,-0.38003,0.04653,,,,,,,,,,,,,,,,,,,,,,,,,,0,0,0,0,0
0.2766,1783190452.4166,1,0,1.0000,0.0000,1.44682,0.23328,-2.77748,0.97337,1.57080,0.00000,-0.14512,-0.38003,0.04653,,,,,,,,,,,,,,,,,,,,,,,,,,0,0,0,0,0
0.2862,1783190452.4262,1,0,1.0000,0.0000,1.44682,0.23328,-2.77748,0.97337,1.57080,0.00000,-0.14512,-0.38003,0.04653,,,,,,,,,,,,,,,,,,,,,,,,,,0,0,0,0,0
0.3014,1783190452.4414,1,0,1.0000,0.0000,1.44682,0.23328,-2.77748,0.97337,1.57080,0.00000,-0.14512,-0.38003,0.04653,,,,,,,,,,,,,,,,,,,,,,,,,,0,0,0,0,0
0.3051,1783190452.4451,1,0,1.0000,0.0000,1.44682,0.23328,-2.77748,0.97337,1.57080,0.00000,-0.14512,-0.38003,0.04653,,,,,,,,,,,,,,,,,,,,,,,,,,0,0,0,0,0
0.3149,1783190452.4549,1,0,1.0000,0.0000,1.44682,0.23328,-2.77748,0.97337,1.57080,0.00000,-0.14512,-0.38003,0.04653,,,,,,,,,,,,,,,,,,,,,,,,,,0,0,0,0,0
0.3268,1783190452.4668,1,0,1.0000,0.0000,1.44682,0.23328,-2.77748,0.97337,1.57080,0.00000,-0.14512,-0.38003,0.04653,,,,,,,,,,,,,,,,,,,,,,,,,,0,0,0,0,0
0.3351,1783190452.4751,1,0,1.0000,0.0000,1.44682,0.23328,-2.77748,0.97337,1.57080,0.00000,-0.14512,-0.38003,0.04653,,,,,,,,,,,,,,,,,,,,,,,,,,0,0,0,0,0
0.3495,1783190452.4895,1,0,1.0000,0.0000,1.44682,0.23328,-2.77748,0.97337,1.57080,0.00000,-0.14512,-0.38003,0.04653,,,,,,,,,,,,,,,,,,,,,,,,,,0,0,0,0,0
0.3556,1783190452.4957,1,0,1.0000,0.0000,1.44682,0.23328,-2.77748,0.97337,1.57080,0.00000,-0.14512,-0.38003,0.04653,,,,,,,,,,,,,,,,,,,,,,,,,,0,0,0,0,0
0.3560,1783190452.4961,1,0,1.0000,0.0000,1.44682,0.23328,-2.77748,0.97337,1.57080,0.00000,-0.14512,-0.38003,0.04653,,,,,,,,,,,,,,,,,,,,,,,,,,0,0,0,0,0
0.3664,1783190452.5064,1,0,1.0000,0.0000,1.44682,0.23328,-2.77748,0.97337,1.57080,0.00000,-0.14512,-0.38003,0.04653,,,,,,,,,,,,,,,,,,,,,,,,,,0,0,0,0,0
0.3793,1783190452.5194,1,0,1.0000,0.0000,1.44682,0.23328,-2.77748,0.97337,1.57080,0.00000,-0.14512,-0.38003,0.04653,,,,,,,,,,,,,,,,,,,,,,,,,,0,0,0,0,0
0.3864,1783190452.5264,1,0,1.0000,0.0000,1.44682,0.23328,-2.77748,0.97337,1.57080,0.00000,-0.14512,-0.38003,0.04653,,,,,,,,,,,,,,,,,,,,,,,,,,0,0,0,0,0
0.3868,1783190452.5268,1,0,1.0000,0.0000,1.44682,0.23328,-2.77748,0.97337,1.57080,0.00000,-0.14512,-0.38003,0.04653,,,,,,,,,,,,,,,,,,,,,,,,,,0,0,0,0,0
0.3993,1783190452.5393,1,0,1.0000,0.0000,1.44682,0.23328,-2.77748,0.97337,1.57080,0.00000,-0.14512,-0.38003,0.04653,,,,,,,,,,,,,,,,,,,,,,,,,,0,0,0,0,0
0.3997,1783190452.5397,1,0,1.0000,0.0000,1.44682,0.23328,-2.77748,0.97337,1.57080,0.00000,-0.14512,-0.38003,0.04653,,,,,,,,,,,,,,,,,,,,,,,,,,0,0,0,0,0
0.4073,1783190452.5473,1,0,1.0000,0.0000,1.44682,0.23328,-2.77748,0.97337,1.57080,0.00000,-0.14512,-0.38003,0.04653,,,,,,,,,,,,,,,,,,,,,,,,,,0,0,0,0,0
0.4163,1783190452.5563,1,0,1.0000,0.0000,1.44682,0.23328,-2.77748,0.97337,1.57080,0.00000,-0.14512,-0.38003,0.04653,,,,,,,,,,,,,,,,,,,,,,,,,,0,0,0,0,0
0.4171,1783190452.5571,1,0,1.0000,0.0000,1.44682,0.23328,-2.77748,0.97337,1.57080,0.00000,-0.14512,-0.38003,0.04653,,,,,,,,,,,,,,,,,,,,,,,,,,0,0,0,0,0
0.4332,1783190452.5732,1,0,1.0000,0.0000,1.44682,0.23328,-2.77748,0.97337,1.57080,0.00000,-0.14512,-0.38003,0.04653,,,,,,,,,,,,,,,,,,,,,,,,,,0,0,0,0,0
0.4352,1783190452.5752,1,0,1.0000,0.0000,1.44682,0.23328,-2.77748,0.97337,1.57080,0.00000,-0.14512,-0.38003,0.04653,,,,,,,,,,,,,,,,,,,,,,,,,,0,0,0,0,0
0.4525,1783190452.5925,1,0,1.0000,0.0000,1.44682,0.23328,-2.77748,0.97337,1.57080,0.00000,-0.14512,-0.38003,0.04653,,,,,,,,,,,,,,,,,,,,,,,,,,0,0,0,0,0
0.4591,1783190452.5991,1,0,1.0000,0.0000,1.44682,0.23328,-2.77748,0.97337,1.57080,0.00000,-0.14512,-0.38003,0.04653,,,,,,,,,,,,,,,,,,,,,,,,,,0,0,0,0,0
0.4672,1783190452.6072,1,0,1.0000,0.0000,1.44682,0.23328,-2.77748,0.97337,1.57080,0.00000,-0.14512,-0.38003,0.04653,,,,,,,,,,,,,,,,,,,,,,,,,,0,0,0,0,0
0.4751,1783190452.6151,1,0,1.0000,0.0000,1.44682,0.23328,-2.77748,0.97337,1.57080,0.00000,-0.14512,-0.38003,0.04653,,,,,,,,,,,,,,,,,,,,,,,,,,0,0,0,0,0
0.4853,1783190452.6253,1,0,1.0000,0.0000,1.44682,0.23328,-2.77748,0.97337,1.57080,0.00000,-0.14512,-0.38003,0.04653,,,,,,,,,,,,,,,,,,,,,,,,,,0,0,0,0,0
0.4988,1783190452.6388,1,0,1.0000,0.0000,1.44682,0.23328,-2.77748,0.97337,1.57080,0.00000,-0.14512,-0.38003,0.04653,,,,,,,,,,,,,,,,,,,,,,,,,,0,0,0,0,0
0.5065,1783190452.6465,1,0,1.0000,0.0000,1.44682,0.23328,-2.77748,0.97337,1.57080,0.00000,-0.14512,-0.38003,0.04653,,,,,,,,,,,,,,,,,,,,,,,,,,0,0,0,0,0
0.5161,1783190452.6561,1,0,1.0000,0.0000,1.44682,0.23328,-2.77748,0.97337,1.57080,0.00000,-0.14512,-0.38003,0.04653,,,,,,,,,,,,,,,,,,,,,,,,,,0,0,0,0,0
0.5271,1783190452.6671,1,0,1.0000,0.0000,1.44682,0.23328,-2.77748,0.97337,1.57080,0.00000,-0.14512,-0.38003,0.04653,,,,,,,,,,,,,,,,,,,,,,,,,,0,0,0,0,0
0.5275,1783190452.6675,1,0,1.0000,0.0000,1.44682,0.23328,-2.77748,0.97337,1.57080,0.00000,-0.14512,-0.38003,0.04653,,,,,,,,,,,,,,,,,,,,,,,,,,0,0,0,0,0
0.5369,1783190452.6769,1,0,1.0000,0.0000,1.44682,0.23328,-2.77748,0.97337,1.57080,0.00000,-0.14512,-0.38003,0.04653,,,,,,,,,,,,,,,,,,,,,,,,,,0,0,0,0,0
0.5746,1783190452.7146,1,0,1.0000,0.0000,1.44682,0.23328,-2.77748,0.97337,1.57080,0.00000,-0.14512,-0.38003,0.04653,,,,,,,,,,,,,,,,,,,,,,,,,,0,0,0,0,0
0.5750,1783190452.7150,1,0,1.0000,0.0000,1.44682,0.23328,-2.77748,0.97337,1.57080,0.00000,-0.14512,-0.38003,0.04653,,,,,,,,,,,,,,,,,,,,,,,,,,0,0,0,0,0
0.5753,1783190452.7153,1,0,1.0000,0.0000,1.44682,0.23328,-2.77748,0.97337,1.57080,0.00000,-0.14512,-0.38003,0.04653,,,,,,,,,,,,,,,,,,,,,,,,,,0,0,0,0,0
0.5756,1783190452.7156,1,0,1.0000,0.0000,1.44682,0.23328,-2.77748,0.97337,1.57080,0.00000,-0.14512,-0.38003,0.04653,,,,,,,,,,,,,,,,,,,,,,,,,,0,0,0,0,0
0.5914,1783190452.7315,1,0,1.0000,0.0000,1.44682,0.23328,-2.77748,0.97337,1.57080,0.00000,-0.14512,-0.38003,0.04653,,,,,,,,,,,,,,,,,,,,,,,,,,0,0,0,0,0
0.6014,1783190452.7414,1,0,1.0000,0.0000,1.44682,0.23328,-2.77748,0.97337,1.57080,0.00000,-0.14512,-0.38003,0.04653,,,,,,,,,,,,,,,,,,,,,,,,,,0,0,0,0,0
0.6073,1783190452.7473,1,0,1.0000,0.0000,1.44682,0.23328,-2.77748,0.97337,1.57080,0.00000,-0.14512,-0.38003,0.04653,,,,,,,,,,,,,,,,,,,,,,,,,,0,0,0,0,0
0.6170,1783190452.7570,1,0,1.0000,0.0000,1.44682,0.23328,-2.77748,0.97337,1.57080,0.00000,-0.14512,-0.38003,0.04653,,,,,,,,,,,,,,,,,,,,,,,,,,0,0,0,0,0
0.6173,1783190452.7573,1,0,1.0000,0.0000,1.44682,0.23328,-2.77748,0.97337,1.57080,0.00000,-0.14512,-0.38003,0.04653,,,,,,,,,,,,,,,,,,,,,,,,,,0,0,0,0,0
0.6350,1783190452.7750,1,0,1.0000,0.0000,1.44682,0.23328,-2.77748,0.97337,1.57080,0.00000,-0.14512,-0.38003,0.04653,,,,,,,,,,,,,,,,,,,,,,,,,,0,0,0,0,0
0.6354,1783190452.7754,1,0,1.0000,0.0000,1.44682,0.23328,-2.77748,0.97337,1.57080,0.00000,-0.14512,-0.38003,0.04653,,,,,,,,,,,,,,,,,,,,,,,,,,0,0,0,0,0
0.6356,1783190452.7756,1,0,1.0000,0.0000,1.44682,0.23328,-2.77748,0.97337,1.57080,0.00000,-0.14512,-0.38003,0.04653,,,,,,,,,,,,,,,,,,,,,,,,,,0,0,0,0,0
0.7070,1783190452.8470,1,0,1.0000,0.0000,1.44682,0.23328,-2.77748,0.97337,1.57080,0.00000,-0.14512,-0.38003,0.04653,,,,,,,,,,,,,,,,,,,,,,,,,,0,0,0,0,0
0.7162,1783190452.8563,1,0,1.0000,0.0000,1.44682,0.23328,-2.77748,0.97337,1.57080,0.00000,-0.14512,-0.38003,0.04653,,,,,,,,,,,,,,,,,,,,,,,,,,0,0,0,0,0
0.7167,1783190452.8567,1,0,1.0000,0.0000,1.44682,0.23328,-2.77748,0.97337,1.57080,0.00000,-0.14512,-0.38003,0.04653,,,,,,,,,,,,,,,,,,,,,,,,,,0,0,0,0,0
0.7172,1783190452.8572,1,0,1.0000,0.0000,1.44682,0.23328,-2.77748,0.97337,1.57080,0.00000,-0.14512,-0.38003,0.04653,,,,,,,,,,,,,,,,,,,,,,,,,,0,0,0,0,0
0.7179,1783190452.8579,1,0,1.0000,0.0000,1.44682,0.23328,-2.77748,0.97337,1.57080,0.00000,-0.14512,-0.38003,0.04653,,,,,,,,,,,,,,,,,,,,,,,,,,0,0,0,0,0
0.7182,1783190452.8582,1,0,1.0000,0.0000,1.44682,0.23328,-2.77748,0.97337,1.57080,0.00000,-0.14512,-0.38003,0.04653,,,,,,,,,,,,,,,,,,,,,,,,,,0,0,0,0,0
0.7186,1783190452.8586,1,0,1.0000,0.0000,1.44682,0.23328,-2.77748,0.97337,1.57080,0.00000,-0.14512,-0.38003,0.04653,,,,,,,,,,,,,,,,,,,,,,,,,,0,0,0,0,0
0.7189,1783190452.8589,1,0,1.0000,0.0000,1.44682,0.23328,-2.77748,0.97337,1.57080,0.00000,-0.14512,-0.38003,0.04653,,,,,,,,,,,,,,,,,,,,,,,,,,0,0,0,0,0
0.7254,1783190452.8654,1,0,1.0000,0.0000,1.44682,0.23328,-2.77748,0.97337,1.57080,0.00000,-0.14512,-0.38003,0.04653,,,,,,,,,,,,,,,,,,,,,,,,,,0,0,0,0,0
0.7261,1783190452.8661,1,0,1.0000,0.0000,1.44682,0.23328,-2.77748,0.97337,1.57080,0.00000,-0.14512,-0.38003,0.04653,,,,,,,,,,,,,,,,,,,,,,,,,,0,0,0,0,0
0.7380,1783190452.8780,1,1,1.0000,0.0000,1.44682,0.23328,-2.77748,0.97337,1.57080,0.00000,-0.14512,-0.38003,0.04653,,,,,,,,,,,,,,,,,,,,,,,,,,0,0,0,0,0
0.7468,1783190452.8868,1,1,1.0000,0.0000,1.44682,0.23328,-2.77748,0.97337,1.57080,0.00000,-0.14512,-0.38003,0.04653,,,,,,,,,,,,,,,,,,,,,,,,,,0,0,0,0,0
0.7613,1783190452.9013,1,1,1.0000,0.0000,1.44682,0.23328,-2.77748,0.97337,1.57080,0.00000,-0.14512,-0.38003,0.04653,,,,,,,,,,,,,,,,,,,,,,,,,,0,0,0,0,0
0.7649,1783190452.9049,1,1,1.0000,0.0000,1.44682,0.23328,-2.77748,0.97337,1.57080,0.00000,-0.14512,-0.38003,0.04653,,,,,,,,,,,,,,,,,,,,,,,,,,0,0,0,0,0
0.7652,1783190452.9052,1,1,1.0000,0.0000,1.44682,0.23328,-2.77748,0.97337,1.57080,0.00000,-0.14512,-0.38003,0.04653,,,,,,,,,,,,,,,,,,,,,,,,,,0,0,0,0,0
0.7782,1783190452.9182,1,1,1.0000,0.0000,1.44682,0.23328,-2.77748,0.97337,1.57080,0.00000,-0.14512,-0.38003,0.04653,,,,,,,,,,,,,,,,,,,,,,,,,,0,0,0,0,0
0.7869,1783190452.9269,1,1,1.0000,0.0000,1.44682,0.23328,-2.77748,0.97337,1.57080,0.00000,-0.14512,-0.38003,0.04653,,,,,,,,,,,,,,,,,,,,,,,,,,0,0,0,0,0
0.7949,1783190452.9349,1,1,1.0000,0.0000,1.44682,0.23328,-2.77748,0.97337,1.57080,0.00000,-0.14512,-0.38003,0.04653,,,,,,,,,,,,,,,,,,,,,,,,,,0,0,0,0,0
0.8102,1783190452.9502,1,1,1.0000,0.0000,1.44682,0.23328,-2.77748,0.97337,1.57080,0.00000,-0.14512,-0.38003,0.04653,,,,,,,,,,,,,,,,,,,,,,,,,,0,0,0,0,0
0.8104,1783190452.9505,1,1,1.0000,0.0000,1.44682,0.23328,-2.77748,0.97337,1.57080,0.00000,-0.14512,-0.38003,0.04653,,,,,,,,,,,,,,,,,,,,,,,,,,0,0,0,0,0
0.8172,1783190452.9572,1,1,1.0000,0.0000,1.44682,0.23328,-2.77748,0.97337,1.57080,0.00000,-0.14512,-0.38003,0.04653,,,,,,,,,,,,,,,,,,,,,,,,,,0,0,0,0,0
0.8250,1783190452.9650,1,1,1.0000,0.0000,1.44682,0.23328,-2.77748,0.97337,1.57080,0.00000,-0.14512,-0.38003,0.04653,,,,,,,,,,,,,,,,,,,,,,,,,,0,0,0,0,0
0.8407,1783190452.9807,1,1,1.0000,0.0000,1.44682,0.23328,-2.77748,0.97337,1.57080,0.00000,-0.14512,-0.38003,0.04653,,,,,,,,,,,,,,,,,,,,,,,,,,0,0,0,0,0
0.8451,1783190452.9851,1,1,1.0000,0.0000,1.44682,0.23328,-2.77748,0.97337,1.57080,0.00000,-0.14512,-0.38003,0.04653,,,,,,,,,,,,,,,,,,,,,,,,,,0,0,0,0,0
0.8559,1783190452.9959,1,1,1.0000,0.0000,1.44682,0.23328,-2.77748,0.97337,1.57080,0.00000,-0.14512,-0.38003,0.04653,,,,,,,,,,,,,,,,,,,,,,,,,,0,0,0,0,0
0.8659,1783190453.0059,1,1,1.0000,0.0000,1.44682,0.23328,-2.77748,0.97337,1.57080,0.00000,-0.14512,-0.38003,0.04653,,,,,,,,,,,,,,,,,,,,,,,,,,0,0,0,0,0
0.8662,1783190453.0062,1,1,1.0000,0.0000,1.44682,0.23328,-2.77748,0.97337,1.57080,0.00000,-0.14512,-0.38003,0.04653,,,,,,,,,,,,,,,,,,,,,,,,,,0,0,0,0,0
0.8767,1783190453.0167,1,1,1.0000,0.0000,1.44682,0.23328,-2.77748,0.97337,1.57080,0.00000,-0.14512,-0.38003,0.04653,,,,,,,,,,,,,,,,,,,,,,,,,,0,0,0,0,0
0.8849,1783190453.0249,1,1,1.0000,0.0000,1.44682,0.23328,-2.77748,0.97337,1.57080,0.00000,-0.14512,-0.38003,0.04653,,,,,,,,,,,,,,,,,,,,,,,,,,0,0,0,0,0
0.9003,1783190453.0403,1,1,1.0000,0.0000,1.44682,0.23328,-2.77748,0.97337,1.57080,0.00000,-0.14512,-0.38003,0.04653,,,,,,,,,,,,,,,,,,,,,,,,,,0,0,0,0,0
0.9086,1783190453.0486,1,1,1.0000,0.0000,1.44682,0.23328,-2.77748,0.97337,1.57080,0.00000,-0.14512,-0.38003,0.04653,,,,,,,,,,,,,,,,,,,,,,,,,,0,0,0,0,0
0.9202,1783190453.0602,1,1,1.0000,0.0000,1.44682,0.23328,-2.77748,0.97337,1.57080,0.00000,-0.14512,-0.38003,0.04653,,,,,,,,,,,,,,,,,,,,,,,,,,0,0,0,0,0
0.9269,1783190453.0669,1,1,1.0000,0.0000,1.44682,0.23322,-2.77749,0.97344,1.57080,0.00000,-0.14512,-0.38003,0.04651,,,,,,,,,,,,,,,,,,,,,,,,,,0,0,0,0,0
0.9272,1783190453.0672,1,1,1.0000,0.0000,1.44682,0.23322,-2.77749,0.97344,1.57080,0.00000,-0.14512,-0.38003,0.04651,,,,,,,,,,,,,,,,,,,,,,,,,,0,0,0,0,0
0.9411,1783190453.0812,1,1,1.0000,0.0000,1.44682,0.23301,-2.77755,0.97371,1.57080,0.00000,-0.14512,-0.38003,0.04646,,,,,,,,,,,,,,,,,,,,,,,,,,0,0,0,0,0
0.9416,1783190453.0816,1,1,1.0000,0.0000,1.44682,0.23301,-2.77755,0.97371,1.57080,0.00000,-0.14512,-0.38003,0.04646,,,,,,,,,,,,,,,,,,,,,,,,,,0,0,0,0,0
0.9469,1783190453.0870,1,1,1.0000,0.0000,1.44682,0.23285,-2.77759,0.97390,1.57080,0.00000,-0.14512,-0.38003,0.04642,,,,,,,,,,,,,,,,,,,,,,,,,,0,0,0,0,0
0.9653,1783190453.1053,1,1,1.0000,0.0000,1.44682,0.23279,-2.77760,0.97398,1.57080,0.00000,-0.14512,-0.38003,0.04640,,,,,,,,,,,,,,,,,,,,,,,,,,0,0,0,0,0
0.9660,1783190453.1060,1,1,1.0000,0.0000,1.44682,0.23275,-2.77761,0.97404,1.57080,0.00000,-0.14512,-0.38003,0.04639,,,,,,,,,,,,,,,,,,,,,,,,,,0,0,0,0,0
0.9662,1783190453.1062,1,1,1.0000,0.0000,1.44682,0.23275,-2.77761,0.97404,1.57080,0.00000,-0.14512,-0.38003,0.04639,,,,,,,,,,,,,,,,,,,,,,,,,,0,0,0,0,0
0.9792,1783190453.1192,1,1,1.0000,0.0000,1.44682,0.23264,-2.77764,0.97417,1.57080,0.00000,-0.14512,-0.38003,0.04636,,,,,,,,,,,,,,,,,,,,,,,,,,0,0,0,0,0
0.9859,1783190453.1260,1,1,1.0000,0.0000,1.44682,0.23259,-2.77765,0.97423,1.57080,0.00000,-0.14512,-0.38003,0.04635,,,,,,,,,,,,,,,,,,,,,,,,,,0,0,0,0,0
0.9962,1783190453.1362,1,1,1.0000,0.0000,1.44682,0.23248,-2.77768,0.97437,1.57080,0.00000,-0.14512,-0.38003,0.04632,,,,,,,,,,,,,,,,,,,,,,,,,,0,0,0,0,0
1.0103,1783190453.1503,1,1,1.0000,0.0000,1.44682,0.23227,-2.77774,0.97464,1.57080,0.00000,-0.14512,-0.38003,0.04626,,,,,,,,,,,,,,,,,,,,,,,,,,0,0,0,0,0
1.0174,1783190453.1574,1,1,1.0000,0.0000,1.44682,0.23226,-2.77774,0.97465,1.57080,0.00000,-0.14512,-0.38003,0.04626,,,,,,,,,,,,,,,,,,,,,,,,,,0,0,0,0,0
1.0265,1783190453.1665,1,1,1.0000,0.0000,1.44682,0.23216,-2.77777,0.97478,1.57080,0.00000,-0.14512,-0.38003,0.04623,,,,,,,,,,,,,,,,,,,,,,,,,,0,0,0,0,0
1.0269,1783190453.1669,1,1,1.0000,0.0000,1.44682,0.23216,-2.77777,0.97478,1.57080,0.00000,-0.14512,-0.38003,0.04623,,,,,,,,,,,,,,,,,,,,,,,,,,0,0,0,0,0
1.0370,1783190453.1770,1,1,1.0000,0.0000,1.44682,0.23204,-2.77779,0.97492,1.57080,0.00000,-0.14512,-0.38003,0.04621,,,,,,,,,,,,,,,,,,,,,,,,,,0,0,0,0,0
1.0449,1783190453.1849,1,1,1.0000,0.0000,1.44682,0.23203,-2.77780,0.97494,1.57080,0.00000,-0.14512,-0.38003,0.04620,,,,,,,,,,,,,,,,,,,,,,,,,,0,0,0,0,0
1.0675,1783190453.2075,1,1,1.0000,0.0000,1.44682,0.23168,-2.77789,0.97538,1.57080,0.00000,-0.14512,-0.38003,0.04611,,,,,,,,,,,,,,,,,,,,,,,,,,0,0,0,0,0
1.0678,1783190453.2079,1,1,1.0000,0.0000,1.44682,0.23168,-2.77789,0.97538,1.57080,0.00000,-0.14512,-0.38003,0.04611,,,,,,,,,,,,,,,,,,,,,,,,,,0,0,0,0,0
1.0750,1783190453.2150,1,1,1.0000,0.0000,1.44682,0.23167,-2.77789,0.97540,1.57080,0.00000,-0.14512,-0.38003,0.04611,,,,,,,,,,,,,,,,,,,,,,,,,,0,0,0,0,0
1.0850,1783190453.2250,1,1,1.0000,0.0000,1.44682,0.23158,-2.77791,0.97550,1.57080,0.00000,-0.14512,-0.38003,0.04608,,,,,,,,,,,,,,,,,,,,,,,,,,0,0,0,0,0
1.0967,1783190453.2367,1,1,1.0000,0.0000,1.44682,0.23139,-2.77796,0.97575,1.57080,0.00000,-0.14512,-0.38003,0.04603,,,,,,,,,,,,,,,,,,,,,,,,,,0,0,0,0,0
1.0971,1783190453.2371,1,1,1.0000,0.0000,1.44682,0.23139,-2.77796,0.97575,1.57080,0.00000,-0.14512,-0.38003,0.04603,,,,,,,,,,,,,,,,,,,,,,,,,,0,0,0,0,0
1.1154,1783190453.2555,1,1,1.0000,0.0000,1.44682,0.23123,-2.77800,0.97594,1.57080,0.00000,-0.14512,-0.38003,0.04599,,,,,,,,,,,,,,,,,,,,,,,,,,0,0,0,0,0
1.1190,1783190453.2590,1,1,1.0000,0.0000,1.44682,0.23117,-2.77802,0.97602,1.57080,0.00000,-0.14512,-0.38003,0.04598,,,,,,,,,,,,,,,,,,,,,,,,,,0,0,0,0,0
1.1263,1783190453.2663,1,1,1.0000,0.0000,1.44682,0.23103,-2.77806,0.97619,1.57080,0.00000,-0.14512,-0.38003,0.04594,,,,,,,,,,,,,,,,,,,,,,,,,,0,0,0,0,0
1.1346,1783190453.2746,1,1,1.0000,0.0000,1.44682,0.23102,-2.77806,0.97621,1.57080,0.00000,-0.14512,-0.38003,0.04594,,,,,,,,,,,,,,,,,,,,,,,,,,0,0,0,0,0
1.1349,1783190453.2750,1,1,1.0000,0.0000,1.44682,0.23102,-2.77806,0.97621,1.57080,0.00000,-0.14512,-0.38003,0.04594,,,,,,,,,,,,,,,,,,,,,,,,,,0,0,0,0,0
1.1478,1783190453.2878,1,1,1.0000,0.0000,1.44682,0.23088,-2.77810,0.97639,1.57080,0.00000,-0.14512,-0.38003,0.04590,,,,,,,,,,,,,,,,,,,,,,,,,,0,0,0,0,0
1.1569,1783190453.2969,1,1,1.0000,0.0000,1.44682,0.23074,-2.77813,0.97656,1.57080,0.00000,-0.14512,-0.38003,0.04586,,,,,,,,,,,,,,,,,,,,,,,,,,0,0,0,0,0
1.1572,1783190453.2972,1,1,1.0000,0.0000,1.44682,0.23074,-2.77813,0.97656,1.57080,0.00000,-0.14512,-0.38003,0.04586,,,,,,,,,,,,,,,,,,,,,,,,,,0,0,0,0,0
1.1712,1783190453.3112,1,1,1.0000,0.0000,1.44682,0.23065,-2.77815,0.97668,1.57080,0.00000,-0.14512,-0.38003,0.04584,,,,,,,,,,,,,,,,,,,,,,,,,,0,0,0,0,0
1.1768,1783190453.3168,1,1,1.0000,0.0000,1.44682,0.23059,-2.77817,0.97675,1.57080,0.00000,-0.14512,-0.38003,0.04582,,,,,,,,,,,,,,,,,,,,,,,,,,0,0,0,0,0
1.1850,1783190453.3250,1,1,1.0000,0.0000,1.44682,0.23045,-2.77820,0.97692,1.57080,0.00000,-0.14512,-0.38003,0.04579,,,,,,,,,,,,,,,,,,,,,,,,,,0,0,0,0,0
1.1963,1783190453.3364,1,1,1.0000,0.0000,1.44682,0.23037,-2.77823,0.97702,1.57080,0.00000,-0.14512,-0.38003,0.04577,,,,,,,,,,,,,,,,,,,,,,,,,,0,0,0,0,0
1.2073,1783190453.3473,1,1,1.0000,0.0000,1.44682,0.23023,-2.77826,0.97720,1.57080,0.00000,-0.14512,-0.38003,0.04573,,,,,,,,,,,,,,,,,,,,,,,,,,0,0,0,0,0
1.2170,1783190453.3570,1,1,1.0000,0.0000,1.44682,0.23009,-2.77830,0.97738,1.57080,0.00000,-0.14512,-0.38003,0.04570,,,,,,,,,,,,,,,,,,,,,,,,,,0,0,0,0,0
1.2266,1783190453.3666,1,1,1.0000,0.0000,1.44682,0.23005,-2.77831,0.97743,1.57080,0.00000,-0.14512,-0.38003,0.04568,,,,,,,,,,,,,,,,,,,,,,,,,,0,0,0,0,0
1.2347,1783190453.3747,1,1,1.0000,0.0000,1.44682,0.22994,-2.77834,0.97757,1.57080,0.00000,-0.14512,-0.38003,0.04566,,,,,,,,,,,,,,,,,,,,,,,,,,0,0,0,0,0
1.2350,1783190453.3750,1,1,1.0000,0.0000,1.44682,0.22994,-2.77834,0.97757,1.57080,0.00000,-0.14512,-0.38003,0.04566,,,,,,,,,,,,,,,,,,,,,,,,,,0,0,0,0,0
1.2450,1783190453.3850,1,1,1.0000,0.0000,1.44682,0.22980,-2.77837,0.97774,1.57080,0.00000,-0.14512,-0.38003,0.04562,,,,,,,,,,,,,,,,,,,,,,,,,,0,0,0,0,0
1.2558,1783190453.3958,1,1,1.0000,0.0000,1.44682,0.22972,-2.77839,0.97784,1.57080,0.00000,-0.14512,-0.38003,0.04560,,,,,,,,,,,,,,,,,,,,,,,,,,0,0,0,0,0
1.2696,1783190453.4096,1,1,1.0000,0.0000,1.44682,0.22958,-2.77843,0.97802,1.57080,0.00000,-0.14512,-0.38003,0.04556,,,,,,,,,,,,,,,,,,,,,,,,,,0,0,0,0,0
1.2770,1783190453.4171,1,1,1.0000,0.0000,1.44682,0.22944,-2.77846,0.97819,1.57080,0.00000,-0.14512,-0.38003,0.04553,,,,,,,,,,,,,,,,,,,,,,,,,,0,0,0,0,0
1.2863,1783190453.4263,1,1,1.0000,0.0000,1.44682,0.22940,-2.77847,0.97825,1.57080,0.00000,-0.14512,-0.38003,0.04551,,,,,,,,,,,,,,,,,,,,,,,,,,0,0,0,0,0
1.2866,1783190453.4266,1,1,1.0000,0.0000,1.44682,0.22940,-2.77847,0.97825,1.57080,0.00000,-0.14512,-0.38003,0.04551,,,,,,,,,,,,,,,,,,,,,,,,,,0,0,0,0,0
1.2967,1783190453.4367,1,1,1.0000,0.0000,1.44682,0.22929,-2.77850,0.97838,1.57080,0.00000,-0.14512,-0.38003,0.04549,,,,,,,,,,,,,,,,,,,,,,,,,,0,0,0,0,0
1.3051,1783190453.4451,1,1,1.0000,0.0000,1.44682,0.22915,-2.77854,0.97856,1.57080,0.00000,-0.14512,-0.38003,0.04545,,,,,,,,,,,,,,,,,,,,,,,,,,0,0,0,0,0
1.3170,1783190453.4570,1,1,1.0000,0.0000,1.44682,0.22907,-2.77856,0.97865,1.57080,0.00000,-0.14512,-0.38003,0.04543,,,,,,,,,,,,,,,,,,,,,,,,,,0,0,0,0,0
1.3291,1783190453.4691,1,1,1.0000,0.0000,1.44682,0.22893,-2.77859,0.97883,1.57080,0.00000,-0.14512,-0.38003,0.04539,,,,,,,,,,,,,,,,,,,,,,,,,,0,0,0,0,0
1.3353,1783190453.4753,1,1,1.0000,0.0000,1.44682,0.22879,-2.77863,0.97901,1.57080,0.00000,-0.14512,-0.38003,0.04536,,,,,,,,,,,,,,,,,,,,,,,,,,0,0,0,0,0
1.3461,1783190453.4861,1,1,1.0000,0.0000,1.44682,0.22875,-2.77864,0.97906,1.57080,0.00000,-0.14512,-0.38003,0.04535,,,,,,,,,,,,,,,,,,,,,,,,,,0,0,0,0,0
1.3565,1783190453.4965,1,1,1.0000,0.0000,1.44682,0.22864,-2.77867,0.97920,1.57080,0.00000,-0.14512,-0.38003,0.04532,,,,,,,,,,,,,,,,,,,,,,,,,,0,0,0,0,0
1.3734,1783190453.5135,1,1,1.0000,0.0000,1.44682,0.22843,-2.77872,0.97946,1.57080,0.00000,-0.14512,-0.38003,0.04526,,,,,,,,,,,,,,,,,,,,,,,,,,0,0,0,0,0
1.3765,1783190453.5165,1,1,1.0000,0.0000,1.44682,0.22842,-2.77872,0.97947,1.57080,0.00000,-0.14512,-0.38003,0.04526,,,,,,,,,,,,,,,,,,,,,,,,,,0,0,0,0,0
1.3850,1783190453.5251,1,1,1.0000,0.0000,1.44682,0.22834,-2.77874,0.97957,1.57080,0.00000,-0.14512,-0.38003,0.04524,,,,,,,,,,,,,,,,,,,,,,,,,,0,0,0,0,0
1.4002,1783190453.5402,1,1,1.0000,0.0000,1.44682,0.22814,-2.77879,0.97982,1.57080,0.00000,-0.14512,-0.38003,0.04519,,,,,,,,,,,,,,,,,,,,,,,,,,0,0,0,0,0
1.4052,1783190453.5452,1,1,1.0000,0.0000,1.44682,0.22813,-2.77880,0.97984,1.57080,0.00000,-0.14512,-0.38003,0.04518,,,,,,,,,,,,,,,,,,,,,,,,,,0,0,0,0,0
1.4185,1783190453.5586,1,1,1.0000,0.0000,1.44682,0.22792,-2.77885,0.98010,1.57080,0.00000,-0.14512,-0.38003,0.04513,,,,,,,,,,,,,,,,,,,,,,,,,,0,0,0,0,0
1.4256,1783190453.5656,1,1,1.0000,0.0000,1.44682,0.22785,-2.77887,0.98019,1.57080,0.00000,-0.14512,-0.38003,0.04511,,,,,,,,,,,,,,,,,,,,,,,,,,0,0,0,0,0
1.4352,1783190453.5752,1,1,1.0000,0.0000,1.44682,0.22777,-2.77889,0.98029,1.57080,0.00000,-0.14512,-0.38003,0.04509,,,,,,,,,,,,,,,,,,,,,,,,,,0,0,0,0,0
1.4505,1783190453.5905,1,1,1.0000,0.0000,1.44682,0.22756,-2.77894,0.98055,1.57080,0.00000,-0.14512,-0.38003,0.04504,,,,,,,,,,,,,,,,,,,,,,,,,,0,0,0,0,0
1.4551,1783190453.5951,1,1,1.0000,0.0000,1.44682,0.22749,-2.77896,0.98064,1.57080,0.00000,-0.14512,-0.38003,0.04502,,,,,,,,,,,,,,,,,,,,,,,,,,0,0,0,0,0
1.4707,1783190453.6108,1,1,1.0000,0.0000,1.44682,0.22740,-2.77898,0.98076,1.57080,0.00000,-0.14512,-0.38003,0.04499,,,,,,,,,,,,,,,,,,,,,,,,,,0,0,0,0,0
1.4790,1783190453.6190,1,1,1.0000,0.0000,1.44682,0.22727,-2.77902,0.98092,1.57080,0.00000,-0.14512,-0.38003,0.04496,,,,,,,,,,,,,,,,,,,,,,,,,,0,0,0,0,0
1.4909,1783190453.6309,1,1,1.0000,0.0000,1.44682,0.22713,-2.77905,0.98109,1.57080,0.00000,-0.14512,-0.38003,0.04493,,,,,,,,,,,,,,,,,,,,,,,,,,0,0,0,0,0
1.4913,1783190453.6313,1,1,1.0000,0.0000,1.44682,0.22713,-2.77905,0.98109,1.57080,0.00000,-0.14512,-0.38003,0.04493,,,,,,,,,,,,,,,,,,,,,,,,,,0,0,0,0,0
1.4970,1783190453.6370,1,1,1.0000,0.0000,1.44682,0.22712,-2.77905,0.98110,1.57080,0.00000,-0.14512,-0.38003,0.04492,,,,,,,,,,,,,,,,,,,,,,,,,,0,0,0,0,0
1.5048,1783190453.6448,1,1,1.0000,0.0000,1.44682,0.22704,-2.77908,0.98121,1.57080,0.00001,-0.14512,-0.38003,0.04490,,,,,,,,,,,,,,,,,,,,,,,,,,0,0,0,0,0
1.5052,1783190453.6452,1,1,1.0000,0.0000,1.44682,0.22704,-2.77908,0.98121,1.57080,0.00001,-0.14512,-0.38003,0.04490,,,,,,,,,,,,,,,,,,,,,,,,,,0,0,0,0,0
1.5219,1783190453.6619,1,1,1.0000,0.0000,1.44682,0.22677,-2.77914,0.98154,1.57080,0.00001,-0.14512,-0.38003,0.04483,,,,,,,,,,,,,,,,,,,,,,,,,,0,0,0,0,0
1.5301,1783190453.6701,1,1,1.0000,0.0000,1.44682,0.22674,-2.77915,0.98158,1.57080,0.00001,-0.14512,-0.38003,0.04482,,,,,,,,,,,,,,,,,,,,,,,,,,0,0,0,0,0
1.5348,1783190453.6748,1,1,1.0000,0.0000,1.44682,0.22670,-2.77916,0.98163,1.57080,0.00001,-0.14512,-0.38003,0.04481,,,,,,,,,,,,,,,,,,,,,,,,,,0,0,0,0,0
1.5493,1783190453.6893,1,1,1.0000,0.0000,1.44682,0.22654,-2.77920,0.98183,1.57080,0.00001,-0.14512,-0.38003,0.04477,,,,,,,,,,,,,,,,,,,,,,,,,,0,0,0,0,0
1.5613,1783190453.7013,1,1,1.0000,0.0000,1.44682,0.22649,-2.77921,0.98189,1.57080,0.00001,-0.14512,-0.38003,0.04476,,,,,,,,,,,,,,,,,,,,,,,,,,0,0,0,0,0
1.5666,1783190453.7067,1,1,1.0000,0.0000,1.44682,0.22638,-2.77924,0.98203,1.57080,0.00001,-0.14512,-0.38003,0.04473,,,,,,,,,,,,,,,,,,,,,,,,,,0,0,0,0,0
1.5788,1783190453.7188,1,1,1.0000,0.0000,1.44682,0.22617,-2.77930,0.98229,1.57080,0.00001,-0.14512,-0.38003,0.04468,,,,,,,,,,,,,,,,,,,,,,,,,,0,0,0,0,0
1.5868,1783190453.7269,1,1,1.0000,0.0000,1.44682,0.22616,-2.77930,0.98230,1.57080,0.00001,-0.14512,-0.38003,0.04467,,,,,,,,,,,,,,,,,,,,,,,,,,0,0,0,0,0
1.5871,1783190453.7271,1,1,1.0000,0.0000,1.44682,0.22616,-2.77930,0.98230,1.57080,0.00001,-0.14512,-0.38003,0.04467,,,,,,,,,,,,,,,,,,,,,,,,,,0,0,0,0,0
1.5960,1783190453.7360,1,1,1.0000,0.0000,1.44682,0.22610,-2.77931,0.98238,1.57080,0.00001,-0.14512,-0.38003,0.04466,,,,,,,,,,,,,,,,,,,,,,,,,,0,0,0,0,0
1.6068,1783190453.7468,1,1,1.0000,0.0000,1.44682,0.22594,-2.77935,0.98258,1.57080,0.00001,-0.14512,-0.38003,0.04462,,,,,,,,,,,,,,,,,,,,,,,,,,0,0,0,0,0
1.6153,1783190453.7553,1,1,1.0000,0.0000,1.44682,0.22593,-2.77936,0.98260,1.57080,0.00001,-0.14512,-0.38003,0.04461,,,,,,,,,,,,,,,,,,,,,,,,,,0,0,0,0,0
1.6156,1783190453.7556,1,1,1.0000,0.0000,1.44682,0.22593,-2.77936,0.98260,1.57080,0.00001,-0.14512,-0.38003,0.04461,,,,,,,,,,,,,,,,,,,,,,,,,,0,0,0,0,0
1.6270,1783190453.7670,1,1,1.0000,0.0000,1.44682,0.22578,-2.77939,0.98278,1.57080,0.00001,-0.14512,-0.38003,0.04458,,,,,,,,,,,,,,,,,,,,,,,,,,0,0,0,0,0
1.6273,1783190453.7673,1,1,1.0000,0.0000,1.44682,0.22578,-2.77939,0.98278,1.57080,0.00001,-0.14512,-0.38003,0.04458,,,,,,,,,,,,,,,,,,,,,,,,,,0,0,0,0,0
1.6358,1783190453.7758,1,1,1.0000,0.0000,1.44682,0.22564,-2.77943,0.98296,1.57080,0.00001,-0.14512,-0.38003,0.04454,,,,,,,,,,,,,,,,,,,,,,,,,,0,0,0,0,0
1.6362,1783190453.7762,1,1,1.0000,0.0000,1.44682,0.22564,-2.77943,0.98296,1.57080,0.00001,-0.14512,-0.38003,0.04454,,,,,,,,,,,,,,,,,,,,,,,,,,0,0,0,0,0
1.6455,1783190453.7856,1,1,1.0000,0.0000,1.44682,0.22557,-2.77945,0.98304,1.57080,0.00001,-0.14512,-0.38003,0.04452,,,,,,,,,,,,,,,,,,,,,,,,,,0,0,0,0,0
1.6593,1783190453.7993,1,1,1.0000,0.0000,1.44682,0.22546,-2.77948,0.98319,1.57080,0.00001,-0.14512,-0.38002,0.04449,,,,,,,,,,,,,,,,,,,,,,,,,,0,0,0,0,0
1.6672,1783190453.8073,1,1,1.0000,0.0000,1.44682,0.22534,-2.77950,0.98333,1.57080,0.00001,-0.14512,-0.38002,0.04446,,,,,,,,,,,,,,,,,,,,,,,,,,0,0,0,0,0
1.6810,1783190453.8210,1,1,1.0000,0.0000,1.44682,0.22530,-2.77952,0.98339,1.57080,0.00001,-0.14512,-0.38002,0.04445,,,,,,,,,,,,,,,,,,,,,,,,,,0,0,0,0,0
1.6860,1783190453.8260,1,1,1.0000,0.0000,1.44682,0.22518,-2.77955,0.98353,1.57080,0.00001,-0.14512,-0.38002,0.04442,,,,,,,,,,,,,,,,,,,,,,,,,,0,0,0,0,0
1.6992,1783190453.8392,1,1,1.0000,0.0000,1.44682,0.22497,-2.77960,0.98379,1.57080,0.00001,-0.14512,-0.38002,0.04437,,,,,,,,,,,,,,,,,,,,,,,,,,0,0,0,0,0
1.6997,1783190453.8397,1,1,1.0000,0.0000,1.44682,0.22497,-2.77960,0.98379,1.57080,0.00001,-0.14512,-0.38002,0.04437,,,,,,,,,,,,,,,,,,,,,,,,,,0,0,0,0,0
1.7074,1783190453.8474,1,1,1.0000,0.0000,1.44682,0.22496,-2.77960,0.98381,1.57080,0.00001,-0.14512,-0.38002,0.04436,,,,,,,,,,,,,,,,,,,,,,,,,,0,0,0,0,0
1.7147,1783190453.8548,1,1,1.0000,0.0000,1.44682,0.22490,-2.77962,0.98388,1.57080,0.00001,-0.14512,-0.38002,0.04435,,,,,,,,,,,,,,,,,,,,,,,,,,0,0,0,0,0
1.7269,1783190453.8670,1,1,1.0000,0.0000,1.44682,0.22474,-2.77966,0.98408,1.57080,0.00001,-0.14512,-0.38002,0.04431,,,,,,,,,,,,,,,,,,,,,,,,,,0,0,0,0,0
1.7401,1783190453.8801,1,1,1.0000,0.0000,1.44682,0.22470,-2.77967,0.98414,1.57080,0.00001,-0.14512,-0.38002,0.04430,,,,,,,,,,,,,,,,,,,,,,,,,,0,0,0,0,0
1.7483,1783190453.8883,1,1,1.0000,0.0000,1.44682,0.22458,-2.77970,0.98428,1.57080,0.00001,-0.14512,-0.38002,0.04427,,,,,,,,,,,,,,,,,,,,,,,,,,0,0,0,0,0
1.7488,1783190453.8888,1,1,1.0000,0.0000,1.44682,0.22458,-2.77970,0.98428,1.57080,0.00001,-0.14512,-0.38002,0.04427,,,,,,,,,,,,,,,,,,,,,,,,,,0,0,0,0,0
1.7633,1783190453.9033,1,1,1.0000,0.0000,1.44682,0.22437,-2.77975,0.98455,1.57080,0.00001,-0.14512,-0.38002,0.04421,,,,,,,,,,,,,,,,,,,,,,,,,,0,0,0,0,0
1.7687,1783190453.9087,1,1,1.0000,0.0000,1.44682,0.22436,-2.77975,0.98456,1.57080,0.00001,-0.14512,-0.38002,0.04421,,,,,,,,,,,,,,,,,,,,,,,,,,0,0,0,0,0
1.7842,1783190453.9242,1,1,1.0000,0.0000,1.44682,0.22420,-2.77979,0.98476,1.57080,0.00001,-0.14512,-0.38002,0.04417,,,,,,,,,,,,,,,,,,,,,,,,,,0,0,0,0,0
1.7888,1783190453.9288,1,1,1.0000,0.0000,1.44682,0.22414,-2.77981,0.98483,1.57080,0.00001,-0.14512,-0.38002,0.04415,,,,,,,,,,,,,,,,,,,,,,,,,,0,0,0,0,0
1.7996,1783190453.9396,1,1,1.0000,0.0000,1.44682,0.22410,-2.77982,0.98489,1.57080,0.00001,-0.14512,-0.38002,0.04414,,,,,,,,,,,,,,,,,,,,,,,,,,0,0,0,0,0
1.8145,1783190453.9545,1,1,1.0000,0.0000,1.44682,0.22384,-2.77988,0.98521,1.57080,0.00001,-0.14512,-0.38002,0.04407,,,,,,,,,,,,,,,,,,,,,,,,,,0,0,0,0,0
1.8343,1783190453.9743,1,1,1.0000,0.0000,1.44682,0.22368,-2.77992,0.98542,1.57080,0.00001,-0.14512,-0.38002,0.04403,,,,,,,,,,,,,,,,,,,,,,,,,,0,0,0,0,0
1.8347,1783190453.9747,1,1,1.0000,0.0000,1.44682,0.22368,-2.77992,0.98542,1.57080,0.00001,-0.14512,-0.38002,0.04403,,,,,,,,,,,,,,,,,,,,,,,,,,0,0,0,0,0
1.8533,1783190453.9933,1,1,1.0000,0.0000,1.44682,0.22341,-2.77999,0.98575,1.57080,0.00001,-0.14512,-0.38002,0.04396,,,,,,,,,,,,,,,,,,,,,,,,,,0,0,0,0,0
1.8537,1783190453.9938,1,1,1.0000,0.0000,1.44682,0.22341,-2.77999,0.98575,1.57080,0.00001,-0.14512,-0.38002,0.04396,,,,,,,,,,,,,,,,,,,,,,,,,,0,0,0,0,0
1.8543,1783190453.9943,1,1,1.0000,0.0000,1.44682,0.22341,-2.77999,0.98575,1.57080,0.00001,-0.14512,-0.38002,0.04396,,,,,,,,,,,,,,,,,,,,,,,,,,0,0,0,0,0
1.8661,1783190454.0061,1,1,1.0000,0.0000,1.44682,0.22334,-2.78001,0.98584,1.57080,0.00001,-0.14512,-0.38002,0.04395,,,,,,,,,,,,,,,,,,,,,,,,,,0,0,0,0,0
1.8714,1783190454.0114,1,1,1.0000,0.0000,1.44682,0.22329,-2.78002,0.98590,1.57080,0.00001,-0.14512,-0.38002,0.04393,,,,,,,,,,,,,,,,,,,,,,,,,,0,0,0,0,0
1.8937,1783190454.0338,1,1,1.0000,0.0000,1.44682,0.22313,-2.78006,0.98610,1.57080,0.00001,-0.14512,-0.38002,0.04389,,,,,,,,,,,,,,,,,,,,,,,,,,0,0,0,0,0
1.8946,1783190454.0346,1,1,1.0000,0.0000,1.44682,0.22308,-2.78007,0.98616,1.57080,0.00001,-0.14512,-0.38002,0.04388,,,,,,,,,,,,,,,,,,,,,,,,,,0,0,0,0,0
1.9185,1783190454.0585,1,1,1.0000,0.0000,1.44682,0.22280,-2.78014,0.98652,1.57080,0.00001,-0.14512,-0.38002,0.04381,,,,,,,,,,,,,,,,,,,,,,,,,,0,0,0,0,0
1.9190,1783190454.0590,1,1,1.0000,0.0000,1.44682,0.22280,-2.78014,0.98652,1.57080,0.00001,-0.14512,-0.38002,0.04381,,,,,,,,,,,,,,,,,,,,,,,,,,0,0,0,0,0
1.9193,1783190454.0593,1,1,1.0000,0.0000,1.44682,0.22280,-2.78014,0.98652,1.57080,0.00001,-0.14512,-0.38002,0.04381,,,,,,,,,,,,,,,,,,,,,,,,,,0,0,0,0,0
1.9210,1783190454.0610,1,1,1.0000,0.0000,1.44682,0.22280,-2.78014,0.98652,1.57080,0.00001,-0.14512,-0.38002,0.04381,,,,,,,,,,,,,,,,,,,,,,,,,,0,0,0,0,0
1.9335,1783190454.0735,1,1,1.0000,0.0000,1.44681,0.22269,-2.78017,0.98665,1.57080,0.00001,-0.14512,-0.38002,0.04378,,,,,,,,,,,,,,,,,,,,,,,,,,0,0,0,0,0
1.9523,1783190454.0923,1,1,1.0000,0.0000,1.44681,0.22253,-2.78021,0.98685,1.57080,0.00001,-0.14512,-0.38002,0.04374,,,,,,,,,,,,,,,,,,,,,,,,,,0,0,0,0,0
1.9529,1783190454.0929,1,1,1.0000,0.0000,1.44681,0.22253,-2.78021,0.98685,1.57080,0.00001,-0.14512,-0.38002,0.04374,,,,,,,,,,,,,,,,,,,,,,,,,,0,0,0,0,0
1.9532,1783190454.0932,1,1,1.0000,0.0000,1.44681,0.22253,-2.78021,0.98685,1.57080,0.00001,-0.14512,-0.38002,0.04374,,,,,,,,,,,,,,,,,,,,,,,,,,0,0,0,0,0
1.9707,1783190454.1107,1,1,1.0000,0.0000,1.44681,0.22220,-2.78029,0.98726,1.57080,0.00001,-0.14512,-0.38002,0.04365,,,,,,,,,,,,,,,,,,,,,,,,,,0,0,0,0,0
1.9711,1783190454.1111,1,1,1.0000,0.0000,1.44681,0.22220,-2.78029,0.98726,1.57080,0.00001,-0.14512,-0.38002,0.04365,,,,,,,,,,,,,,,,,,,,,,,,,,0,0,0,0,0
1.9901,1783190454.1301,1,1,1.0000,0.0000,1.44681,0.22209,-2.78032,0.98740,1.57080,0.00001,-0.14512,-0.38002,0.04362,,,,,,,,,,,,,,,,,,,,,,,,,,0,0,0,0,0
1.9986,1783190454.1387,1,1,1.0000,0.0000,1.44681,0.22197,-2.78035,0.98754,1.57080,0.00001,-0.14512,-0.38002,0.04359,,,,,,,,,,,,,,,,,,,,,,,,,,0,0,0,0,0
1.9989,1783190454.1389,1,1,1.0000,0.0000,1.44681,0.22197,-2.78035,0.98754,1.57080,0.00001,-0.14512,-0.38002,0.04359,,,,,,,,,,,,,,,,,,,,,,,,,,0,0,0,0,0
2.0102,1783190454.1502,1,1,1.0000,0.0000,1.44681,0.22193,-2.78036,0.98760,1.57080,0.00001,-0.14512,-0.38002,0.04358,,,,,,,,,,,,,,,,,,,,,,,,,,0,0,0,0,0
2.0196,1783190454.1596,1,1,1.0000,0.0000,1.44681,0.22181,-2.78039,0.98775,1.57080,0.00001,-0.14512,-0.38002,0.04355,,,,,,,,,,,,,,,,,,,,,,,,,,0,0,0,0,0
2.0344,1783190454.1744,1,1,1.0000,0.0000,1.44681,0.22160,-2.78044,0.98801,1.57080,0.00001,-0.14512,-0.38002,0.04350,,,,,,,,,,,,,,,,,,,,,,,,,,0,0,0,0,0
2.0396,1783190454.1796,1,1,1.0000,0.0000,1.44681,0.22159,-2.78045,0.98802,1.57080,0.00001,-0.14512,-0.38002,0.04350,,,,,,,,,,,,,,,,,,,,,,,,,,0,0,0,0,0
2.0500,1783190454.1900,1,1,1.0000,0.0000,1.44681,0.22149,-2.78047,0.98816,1.57080,0.00001,-0.14512,-0.38002,0.04347,,,,,,,,,,,,,,,,,,,,,,,,,,0,0,0,0,0
2.0585,1783190454.1985,1,1,1.0000,0.0000,1.44681,0.22137,-2.78050,0.98830,1.57080,0.00001,-0.14512,-0.38002,0.04344,,,,,,,,,,,,,,,,,,,,,,,,,,0,0,0,0,0
2.0587,1783190454.1988,1,1,1.0000,0.0000,1.44681,0.22137,-2.78050,0.98830,1.57080,0.00001,-0.14512,-0.38002,0.04344,,,,,,,,,,,,,,,,,,,,,,,,,,0,0,0,0,0
2.0686,1783190454.2086,1,1,1.0000,0.0000,1.44681,0.22136,-2.78050,0.98831,1.57080,0.00001,-0.14512,-0.38002,0.04344,,,,,,,,,,,,,,,,,,,,,,,,,,0,0,0,0,0
2.0851,1783190454.2251,1,1,1.0000,0.0000,1.44681,0.22114,-2.78056,0.98859,1.57080,0.00001,-0.14512,-0.38002,0.04338,,,,,,,,,,,,,,,,,,,,,,,,,,0,0,0,0,0
2.0894,1783190454.2294,1,1,1.0000,0.0000,1.44681,0.22107,-2.78058,0.98868,1.57080,0.00001,-0.14512,-0.38002,0.04336,,,,,,,,,,,,,,,,,,,,,,,,,,0,0,0,0,0
2.0900,1783190454.2300,1,1,1.0000,0.0000,1.44681,0.22100,-2.78059,0.98876,1.57080,0.00001,-0.14512,-0.38002,0.04334,,,,,,,,,,,,,,,,,,,,,,,,,,0,0,0,0,0
2.0987,1783190454.2387,1,1,1.0000,0.0000,1.44681,0.22099,-2.78060,0.98877,1.57080,0.00001,-0.14512,-0.38002,0.04334,,,,,,,,,,,,,,,,,,,,,,,,,,0,0,0,0,0
2.1087,1783190454.2487,1,1,1.0000,0.0000,1.44681,0.22093,-2.78061,0.98885,1.57080,0.00001,-0.14512,-0.38002,0.04332,,,,,,,,,,,,,,,,,,,,,,,,,,0,0,0,0,0
2.1203,1783190454.2603,1,1,1.0000,0.0000,1.44681,0.22077,-2.78065,0.98905,1.57080,0.00001,-0.14512,-0.38002,0.04328,,,,,,,,,,,,,,,,,,,,,,,,,,0,0,0,0,0
2.1447,1783190454.2847,1,1,1.0000,0.0000,1.44681,0.22054,-2.78071,0.98934,1.57080,0.00001,-0.14512,-0.38002,0.04322,,,,,,,,,,,,,,,,,,,,,,,,,,0,0,0,0,0
2.1485,1783190454.2885,1,1,1.0000,0.0000,1.44681,0.22046,-2.78073,0.98943,1.57080,0.00001,-0.14512,-0.38002,0.04321,,,,,,,,,,,,,,,,,,,,,,,,,,0,0,0,0,0
2.1492,1783190454.2892,1,1,1.0000,0.0000,1.44681,0.22046,-2.78073,0.98943,1.57080,0.00001,-0.14512,-0.38002,0.04321,,,,,,,,,,,,,,,,,,,,,,,,,,0,0,0,0,0
2.1495,1783190454.2895,1,1,1.0000,0.0000,1.44681,0.22046,-2.78073,0.98943,1.57080,0.00001,-0.14512,-0.38002,0.04321,,,,,,,,,,,,,,,,,,,,,,,,,,0,0,0,0,0
2.1600,1783190454.3000,1,1,1.0000,0.0000,1.44681,0.22038,-2.78075,0.98953,1.57080,0.00001,-0.14512,-0.38002,0.04318,,,,,,,,,,,,,,,,,,,,,,,,,,0,0,0,0,0
2.1603,1783190454.3003,1,1,1.0000,0.0000,1.44681,0.22038,-2.78075,0.98953,1.57080,0.00001,-0.14512,-0.38002,0.04318,,,,,,,,,,,,,,,,,,,,,,,,,,0,0,0,0,0
2.1683,1783190454.3083,1,1,1.0000,0.0000,1.44681,0.22030,-2.78077,0.98964,1.57080,0.00001,-0.14512,-0.38002,0.04316,,,,,,,,,,,,,,,,,,,,,,,,,,0,0,0,0,0
2.1688,1783190454.3088,1,1,1.0000,0.0000,1.44681,0.22030,-2.78077,0.98964,1.57080,0.00001,-0.14512,-0.38002,0.04316,,,,,,,,,,,,,,,,,,,,,,,,,,0,0,0,0,0
2.1902,1783190454.3302,1,1,1.0000,0.0000,1.44681,0.22005,-2.78083,0.98994,1.57080,0.00001,-0.14512,-0.38002,0.04310,,,,,,,,,,,,,,,,,,,,,,,,,,0,0,0,0,0
2.1905,1783190454.3305,1,1,1.0000,0.0000,1.44681,0.22005,-2.78083,0.98994,1.57080,0.00001,-0.14512,-0.38002,0.04310,,,,,,,,,,,,,,,,,,,,,,,,,,0,0,0,0,0
2.1908,1783190454.3309,1,1,1.0000,0.0000,1.44681,0.22005,-2.78083,0.98994,1.57080,0.00001,-0.14512,-0.38002,0.04310,,,,,,,,,,,,,,,,,,,,,,,,,,0,0,0,0,0
2.1911,1783190454.3311,1,1,1.0000,0.0000,1.44681,0.22005,-2.78083,0.98994,1.57080,0.00001,-0.14512,-0.38002,0.04310,,,,,,,,,,,,,,,,,,,,,,,,,,0,0,0,0,0
2.1992,1783190454.3392,1,1,1.0000,0.0000,1.44681,0.21994,-2.78086,0.99008,1.57080,0.00001,-0.14512,-0.38002,0.04307,,,,,,,,,,,,,,,,,,,,,,,,,,0,0,0,0,0
2.1994,1783190454.3395,1,1,1.0000,0.0000,1.44681,0.21994,-2.78086,0.99008,1.57080,0.00001,-0.14512,-0.38002,0.04307,,,,,,,,,,,,,,,,,,,,,,,,,,0,0,0,0,0
2.2100,1783190454.3500,1,1,1.0000,0.0000,1.44681,0.21974,-2.78091,0.99034,1.57080,0.00001,-0.14512,-0.38002,0.04302,,,,,,,,,,,,,,,,,,,,,,,,,,0,0,0,0,0
2.2103,1783190454.3503,1,1,1.0000,0.0000,1.44681,0.21974,-2.78091,0.99034,1.57080,0.00001,-0.14512,-0.38002,0.04302,,,,,,,,,,,,,,,,,,,,,,,,,,0,0,0,0,0
2.2225,1783190454.3625,1,1,1.0000,0.0000,1.44681,0.21969,-2.78092,0.99040,1.57080,0.00001,-0.14512,-0.38002,0.04301,,,,,,,,,,,,,,,,,,,,,,,,,,0,0,0,0,0
2.2230,1783190454.3630,1,1,1.0000,0.0000,1.44681,0.21969,-2.78092,0.99040,1.57080,0.00001,-0.14512,-0.38002,0.04301,,,,,,,,,,,,,,,,,,,,,,,,,,0,0,0,0,0
2.2401,1783190454.3802,1,1,1.0000,0.0000,1.44681,0.21944,-2.78098,0.99071,1.57080,0.00001,-0.14512,-0.38002,0.04294,,,,,,,,,,,,,,,,,,,,,,,,,,0,0,0,0,0
2.2407,1783190454.3807,1,1,1.0000,0.0000,1.44681,0.21944,-2.78098,0.99071,1.57080,0.00001,-0.14512,-0.38002,0.04294,,,,,,,,,,,,,,,,,,,,,,,,,,0,0,0,0,0
2.2411,1783190454.3811,1,1,1.0000,0.0000,1.44681,0.21944,-2.78098,0.99071,1.57080,0.00001,-0.14512,-0.38002,0.04294,,,,,,,,,,,,,,,,,,,,,,,,,,0,0,0,0,0
2.2415,1783190454.3815,1,1,1.0000,0.0000,1.44681,0.21944,-2.78098,0.99071,1.57080,0.00001,-0.14512,-0.38002,0.04294,,,,,,,,,,,,,,,,,,,,,,,,,,0,0,0,0,0
2.2508,1783190454.3909,1,1,1.0000,0.0000,1.44681,0.21940,-2.78099,0.99076,1.57080,0.00001,-0.14512,-0.38002,0.04293,,,,,,,,,,,,,,,,,,,,,,,,,,0,0,0,0,0
2.2513,1783190454.3913,1,1,1.0000,0.0000,1.44681,0.21940,-2.78099,0.99076,1.57080,0.00001,-0.14512,-0.38002,0.04293,,,,,,,,,,,,,,,,,,,,,,,,,,0,0,0,0,0
2.2603,1783190454.4003,1,1,1.0000,0.0000,1.44681,0.21929,-2.78102,0.99090,1.57080,0.00001,-0.14512,-0.38002,0.04290,,,,,,,,,,,,,,,,,,,,,,,,,,0,0,0,0,0
2.2609,1783190454.4009,1,1,1.0000,0.0000,1.44681,0.21929,-2.78102,0.99090,1.57080,0.00001,-0.14512,-0.38002,0.04290,,,,,,,,,,,,,,,,,,,,,,,,,,0,0,0,0,0
2.2685,1783190454.4085,1,1,1.0000,0.0000,1.44681,0.21915,-2.78105,0.99108,1.57080,0.00001,-0.14512,-0.38002,0.04287,,,,,,,,,,,,,,,,,,,,,,,,,,0,0,0,0,0
2.2799,1783190454.4199,1,1,1.0000,0.0000,1.44681,0.21907,-2.78107,0.99118,1.57080,0.00001,-0.14512,-0.38002,0.04285,,,,,,,,,,,,,,,,,,,,,,,,,,0,0,0,0,0
2.2943,1783190454.4344,1,1,1.0000,0.0000,1.44681,0.21885,-2.78113,0.99144,1.57080,0.00001,-0.14512,-0.38002,0.04279,,,,,,,,,,,,,,,,,,,,,,,,,,0,0,0,0,0
2.2946,1783190454.4346,1,1,1.0000,0.0000,1.44681,0.21885,-2.78113,0.99144,1.57080,0.00001,-0.14512,-0.38002,0.04279,,,,,,,,,,,,,,,,,,,,,,,,,,0,0,0,0,0
2.2985,1783190454.4385,1,1,1.0000,0.0000,1.44681,0.21878,-2.78115,0.99153,1.57080,0.00001,-0.14512,-0.38002,0.04277,,,,,,,,,,,,,,,,,,,,,,,,,,0,0,0,0,0
2.2988,1783190454.4388,1,1,1.0000,0.0000,1.44681,0.21878,-2.78115,0.99153,1.57080,0.00001,-0.14512,-0.38002,0.04277,,,,,,,,,,,,,,,,,,,,,,,,,,0,0,0,0,0
2.3114,1783190454.4514,1,1,1.0000,0.0000,1.44681,0.21874,-2.78116,0.99159,1.57080,0.00001,-0.14512,-0.38002,0.04276,,,,,,,,,,,,,,,,,,,,,,,,,,0,0,0,0,0
2.3187,1783190454.4587,1,1,1.0000,0.0000,1.44681,0.21863,-2.78118,0.99173,1.57080,0.00001,-0.14512,-0.38002,0.04273,,,,,,,,,,,,,,,,,,,,,,,,,,0,0,0,0,0
2.3291,1783190454.4691,1,1,1.0000,0.0000,1.44681,0.21849,-2.78122,0.99190,1.57080,0.00001,-0.14512,-0.38002,0.04270,,,,,,,,,,,,,,,,,,,,,,,,,,0,0,0,0,0
2.3401,1783190454.4802,1,1,1.0000,0.0000,1.44681,0.21841,-2.78124,0.99200,1.57080,0.00001,-0.14512,-0.38002,0.04268,,,,,,,,,,,,,,,,,,,,,,,,,,0,0,0,0,0
2.3404,1783190454.4804,1,1,1.0000,0.0000,1.44681,0.21841,-2.78124,0.99200,1.57080,0.00001,-0.14512,-0.38002,0.04268,,,,,,,,,,,,,,,,,,,,,,,,,,0,0,0,0,0
2.3535,1783190454.4935,1,1,1.0000,0.0000,1.44681,0.21826,-2.78127,0.99218,1.57080,0.00001,-0.14512,-0.38002,0.04264,,,,,,,,,,,,,,,,,,,,,,,,,,0,0,0,0,0
2.3540,1783190454.4940,1,1,1.0000,0.0000,1.44681,0.21819,-2.78129,0.99227,1.57080,0.00001,-0.14512,-0.38002,0.04262,,,,,,,,,,,,,,,,,,,,,,,,,,0,0,0,0,0
2.3622,1783190454.5022,1,1,1.0000,0.0000,1.44681,0.21812,-2.78131,0.99235,1.57080,0.00001,-0.14512,-0.38002,0.04260,,,,,,,,,,,,,,,,,,,,,,,,,,0,0,0,0,0
2.3624,1783190454.5024,1,1,1.0000,0.0000,1.44681,0.21812,-2.78131,0.99235,1.57080,0.00001,-0.14512,-0.38002,0.04260,,,,,,,,,,,,,,,,,,,,,,,,,,0,0,0,0,0
2.3733,1783190454.5133,1,1,1.0000,0.0000,1.44681,0.21808,-2.78132,0.99241,1.57080,0.00001,-0.14512,-0.38002,0.04259,,,,,,,,,,,,,,,,,,,,,,,,,,0,0,0,0,0
2.3739,1783190454.5139,1,1,1.0000,0.0000,1.44681,0.21803,-2.78133,0.99247,1.57080,0.00001,-0.14512,-0.38002,0.04258,,,,,,,,,,,,,,,,,,,,,,,,,,0,0,0,0,0
2.3806,1783190454.5206,1,1,1.0000,0.0000,1.44681,0.21796,-2.78135,0.99255,1.57080,0.00001,-0.14512,-0.38002,0.04256,,,,,,,,,,,,,,,,,,,,,,,,,,0,0,0,0,0
2.4000,1783190454.5400,1,1,1.0000,0.0000,1.44681,0.21774,-2.78140,0.99282,1.57080,0.00001,-0.14512,-0.38002,0.04251,,,,,,,,,,,,,,,,,,,,,,,,,,0,0,0,0,0
2.4004,1783190454.5404,1,1,1.0000,0.0000,1.44681,0.21774,-2.78140,0.99282,1.57080,0.00001,-0.14512,-0.38002,0.04251,,,,,,,,,,,,,,,,,,,,,,,,,,0,0,0,0,0
2.4161,1783190454.5561,1,1,1.0000,0.0000,1.44681,0.21753,-2.78145,0.99309,1.57080,0.00001,-0.14512,-0.38002,0.04245,,,,,,,,,,,,,,,,,,,,,,,,,,0,0,0,0,0
2.4239,1783190454.5639,1,1,1.0000,0.0000,1.44681,0.21746,-2.78147,0.99318,1.57080,0.00001,-0.14512,-0.38002,0.04244,,,,,,,,,,,,,,,,,,,,,,,,,,0,0,0,0,0
2.4309,1783190454.5709,1,1,1.0000,0.0000,1.44681,0.21741,-2.78148,0.99323,1.57080,0.00001,-0.14512,-0.38002,0.04242,,,,,,,,,,,,,,,,,,,,,,,,,,0,0,0,0,0
2.4438,1783190454.5838,1,1,1.0000,0.0000,1.44681,0.21724,-2.78153,0.99346,1.57080,0.00001,-0.14512,-0.38002,0.04238,,,,,,,,,,,,,,,,,,,,,,,,,,0,0,0,0,0
2.4489,1783190454.5889,1,1,1.0000,0.0000,1.44681,0.21716,-2.78154,0.99355,1.57080,0.00001,-0.14512,-0.38002,0.04236,,,,,,,,,,,,,,,,,,,,,,,,,,0,0,0,0,0
2.4492,1783190454.5892,1,1,1.0000,0.0000,1.44681,0.21716,-2.78154,0.99355,1.57080,0.00001,-0.14512,-0.38002,0.04236,,,,,,,,,,,,,,,,,,,,,,,,,,0,0,0,0,0
2.4594,1783190454.5994,1,1,1.0000,0.0000,1.44681,0.21708,-2.78156,0.99365,1.57080,0.00001,-0.14512,-0.38002,0.04234,,,,,,,,,,,,,,,,,,,,,,,,,,0,0,0,0,0
2.4731,1783190454.6131,1,1,1.0000,0.0000,1.44681,0.21694,-2.78160,0.99383,1.57080,0.00001,-0.14512,-0.38002,0.04230,,,,,,,,,,,,,,,,,,,,,,,,,,0,0,0,0,0
2.4785,1783190454.6185,1,1,1.0000,0.0000,1.44681,0.21680,-2.78163,0.99400,1.57080,0.00001,-0.14512,-0.38002,0.04227,,,,,,,,,,,,,,,,,,,,,,,,,,0,0,0,0,0
2.4787,1783190454.6187,1,1,1.0000,0.0000,1.44681,0.21680,-2.78163,0.99400,1.57080,0.00001,-0.14512,-0.38002,0.04227,,,,,,,,,,,,,,,,,,,,,,,,,,0,0,0,0,0
2.4889,1783190454.6290,1,1,1.0000,0.0000,1.44681,0.21679,-2.78164,0.99402,1.57080,0.00001,-0.14512,-0.38002,0.04226,,,,,,,,,,,,,,,,,,,,,,,,,,0,0,0,0,0
2.5003,1783190454.6403,1,1,1.0000,0.0000,1.44681,0.21664,-2.78167,0.99420,1.57080,0.00001,-0.14512,-0.38002,0.04223,,,,,,,,,,,,,,,,,,,,,,,,,,0,0,0,0,0
2.5094,1783190454.6494,1,1,1.0000,0.0000,1.44681,0.21650,-2.78171,0.99437,1.57080,0.00001,-0.14512,-0.38002,0.04219,,,,,,,,,,,,,,,,,,,,,,,,,,0,0,0,0,0
2.5191,1783190454.6591,1,1,1.0000,0.0000,1.44681,0.21642,-2.78173,0.99447,1.57080,0.00001,-0.14512,-0.38002,0.04217,,,,,,,,,,,,,,,,,,,,,,,,,,0,0,0,0,0
2.5327,1783190454.6727,1,1,1.0000,0.0000,1.44681,0.21628,-2.78176,0.99465,1.57080,0.00001,-0.14512,-0.38002,0.04213,,,,,,,,,,,,,,,,,,,,,,,,,,0,0,0,0,0
2.5330,1783190454.6730,1,1,1.0000,0.0000,1.44681,0.21628,-2.78176,0.99465,1.57080,0.00001,-0.14512,-0.38002,0.04213,,,,,,,,,,,,,,,,,,,,,,,,,,0,0,0,0,0
2.5539,1783190454.6939,1,1,1.0000,0.0000,1.44681,0.21603,-2.78182,0.99496,1.57080,0.00001,-0.14512,-0.38002,0.04207,,,,,,,,,,,,,,,,,,,,,,,,,,0,0,0,0,0
2.5542,1783190454.6942,1,1,1.0000,0.0000,1.44681,0.21603,-2.78182,0.99496,1.57080,0.00001,-0.14512,-0.38002,0.04207,,,,,,,,,,,,,,,,,,,,,,,,,,0,0,0,0,0
2.5628,1783190454.7028,1,1,1.0000,0.0000,1.44681,0.21595,-2.78184,0.99506,1.57080,0.00001,-0.14512,-0.38002,0.04205,,,,,,,,,,,,,,,,,,,,,,,,,,0,0,0,0,0
2.5630,1783190454.7030,1,1,1.0000,0.0000,1.44681,0.21595,-2.78184,0.99506,1.57080,0.00001,-0.14512,-0.38002,0.04205,,,,,,,,,,,,,,,,,,,,,,,,,,0,0,0,0,0
2.5702,1783190454.7102,1,1,1.0000,0.0000,1.44681,0.21583,-2.78187,0.99521,1.57080,0.00001,-0.14512,-0.38002,0.04202,,,,,,,,,,,,,,,,,,,,,,,,,,0,0,0,0,0
2.5705,1783190454.7105,1,1,1.0000,0.0000,1.44681,0.21583,-2.78187,0.99521,1.57080,0.00001,-0.14512,-0.38002,0.04202,,,,,,,,,,,,,,,,,,,,,,,,,,0,0,0,0,0
2.5802,1783190454.7202,1,1,1.0000,0.0000,1.44681,0.21582,-2.78188,0.99522,1.57080,0.00001,-0.14512,-0.38002,0.04202,,,,,,,,,,,,,,,,,,,,,,,,,,0,0,0,0,0
2.5807,1783190454.7207,1,1,1.0000,0.0000,1.44681,0.21582,-2.78188,0.99522,1.57080,0.00001,-0.14512,-0.38002,0.04202,,,,,,,,,,,,,,,,,,,,,,,,,,0,0,0,0,0
2.6043,1783190454.7443,1,1,1.0000,0.0000,1.44681,0.21546,-2.78196,0.99567,1.57080,0.00001,-0.14512,-0.38002,0.04192,,,,,,,,,,,,,,,,,,,,,,,,,,0,0,0,0,0
2.6048,1783190454.7448,1,1,1.0000,0.0000,1.44681,0.21546,-2.78196,0.99567,1.57080,0.00001,-0.14512,-0.38002,0.04192,,,,,,,,,,,,,,,,,,,,,,,,,,0,0,0,0,0
2.6223,1783190454.7624,1,1,1.0000,0.0000,1.44681,0.21534,-2.78199,0.99582,1.57080,0.00001,-0.14512,-0.38002,0.04189,,,,,,,,,,,,,,,,,,,,,,,,,,0,0,0,0,0
2.6303,1783190454.7703,1,1,1.0000,0.0000,1.44681,0.21523,-2.78202,0.99596,1.57080,0.00001,-0.14512,-0.38002,0.04186,,,,,,,,,,,,,,,,,,,,,,,,,,0,0,0,0,0
2.6386,1783190454.7786,1,1,1.0000,0.0000,1.44681,0.21521,-2.78202,0.99598,1.57080,0.00001,-0.14512,-0.38002,0.04186,,,,,,,,,,,,,,,,,,,,,,,,,,0,0,0,0,0
2.6390,1783190454.7790,1,1,1.0000,0.0000,1.44681,0.21521,-2.78202,0.99598,1.57080,0.00001,-0.14512,-0.38002,0.04186,,,,,,,,,,,,,,,,,,,,,,,,,,0,0,0,0,0
2.6508,1783190454.7908,1,1,1.0000,0.0000,1.44681,0.21506,-2.78206,0.99616,1.57080,0.00001,-0.14512,-0.38002,0.04182,,,,,,,,,,,,,,,,,,,,,,,,,,0,0,0,0,0
2.6700,1783190454.8100,1,1,1.0000,0.0000,1.44681,0.21484,-2.78212,0.99644,1.57080,0.00001,-0.14512,-0.38002,0.04177,,,,,,,,,,,,,,,,,,,,,,,,,,0,0,0,0,0
2.6724,1783190454.8124,1,1,1.0000,0.0000,1.44681,0.21484,-2.78212,0.99644,1.57080,0.00001,-0.14512,-0.38002,0.04177,,,,,,,,,,,,,,,,,,,,,,,,,,0,0,0,0,0
2.6942,1783190454.8342,1,1,1.0000,0.0000,1.44681,0.21462,-2.78217,0.99672,1.57080,0.00001,-0.14512,-0.38002,0.04171,,,,,,,,,,,,,,,,,,,,,,,,,,0,0,0,0,0
2.7317,1783190454.8717,1,1,1.0000,0.0000,1.44681,0.21423,-2.78226,0.99720,1.57080,0.00002,-0.14512,-0.38002,0.04161,,,,,,,,,,,,,,,,,,,,,,,,,,0,0,0,0,0
2.7320,1783190454.8720,1,1,1.0000,0.0000,1.44681,0.21423,-2.78226,0.99720,1.57080,0.00002,-0.14512,-0.38002,0.04161,,,,,,,,,,,,,,,,,,,,,,,,,,0,0,0,0,0
2.7620,1783190454.9020,1,1,1.0000,0.0000,1.44681,0.21396,-2.78233,0.99754,1.57080,0.00002,-0.14512,-0.38002,0.04154,,,,,,,,,,,,,,,,,,,,,,,,,,0,0,0,0,0
2.7623,1783190454.9024,1,1,1.0000,0.0000,1.44681,0.21396,-2.78233,0.99754,1.57080,0.00002,-0.14512,-0.38002,0.04154,,,,,,,,,,,,,,,,,,,,,,,,,,0,0,0,0,0
2.7711,1783190454.9111,1,1,1.0000,0.0000,1.44681,0.21384,-2.78236,0.99768,1.57080,0.00002,-0.14512,-0.38002,0.04151,,,,,,,,,,,,,,,,,,,,,,,,,,0,0,0,0,0
2.7786,1783190454.9186,1,1,1.0000,0.0000,1.44681,0.21370,-2.78239,0.99786,1.57080,0.00002,-0.14512,-0.38002,0.04148,,,,,,,,,,,,,,,,,,,,,,,,,,0,0,0,0,0
2.7887,1783190454.9287,1,1,1.0000,0.0000,1.44681,0.21363,-2.78241,0.99795,1.57080,0.00002,-0.14512,-0.38002,0.04146,,,,,,,,,,,,,,,,,,,,,,,,,,0,0,0,0,0
2.8059,1783190454.9459,1,1,1.0000,0.0000,1.44681,0.21346,-2.78245,0.99816,1.57080,0.00002,-0.14512,-0.38002,0.04141,,,,,,,,,,,,,,,,,,,,,,,,,,0,0,0,0,0
2.8104,1783190454.9505,1,1,1.0000,0.0000,1.44681,0.21340,-2.78247,0.99824,1.57080,0.00002,-0.14512,-0.38002,0.04140,,,,,,,,,,,,,,,,,,,,,,,,,,0,0,0,0,0
2.8185,1783190454.9586,1,1,1.0000,0.0000,1.44681,0.21338,-2.78247,0.99825,1.57080,0.00002,-0.14512,-0.38002,0.04140,,,,,,,,,,,,,,,,,,,,,,,,,,0,0,0,0,0
2.8296,1783190454.9696,1,1,1.0000,0.0000,1.44681,0.21330,-2.78249,0.99836,1.57080,0.00002,-0.14512,-0.38002,0.04137,,,,,,,,,,,,,,,,,,,,,,,,,,0,0,0,0,0
2.8386,1783190454.9786,1,1,1.0000,0.0000,1.44681,0.21309,-2.78254,0.99862,1.57080,0.00002,-0.14512,-0.38002,0.04132,,,,,,,,,,,,,,,,,,,,,,,,,,0,0,0,0,0
2.8392,1783190454.9792,1,1,1.0000,0.0000,1.44681,0.21309,-2.78254,0.99862,1.57080,0.00002,-0.14512,-0.38002,0.04132,,,,,,,,,,,,,,,,,,,,,,,,,,0,0,0,0,0
2.8533,1783190454.9933,1,1,1.0000,0.0000,1.44681,0.21301,-2.78256,0.99872,1.57080,0.00002,-0.14512,-0.38002,0.04130,,,,,,,,,,,,,,,,,,,,,,,,,,0,0,0,0,0
2.8540,1783190454.9940,1,1,1.0000,0.0000,1.44681,0.21299,-2.78257,0.99875,1.57080,0.00002,-0.14512,-0.38002,0.04130,,,,,,,,,,,,,,,,,,,,,,,,,,0,0,0,0,0
2.8591,1783190454.9991,1,1,1.0000,0.0000,1.44681,0.21295,-2.78258,0.99879,1.57080,0.00002,-0.14512,-0.38002,0.04129,,,,,,,,,,,,,,,,,,,,,,,,,,0,0,0,0,0
2.8594,1783190454.9995,1,1,1.0000,0.0000,1.44681,0.21295,-2.78258,0.99879,1.57080,0.00002,-0.14512,-0.38002,0.04129,,,,,,,,,,,,,,,,,,,,,,,,,,0,0,0,0,0
2.8717,1783190455.0117,1,1,1.0000,0.0000,1.44681,0.21279,-2.78262,0.99899,1.57080,0.00002,-0.14512,-0.38002,0.04124,,,,,,,,,,,,,,,,,,,,,,,,,,0,0,0,0,0
2.8800,1783190455.0200,1,1,1.0000,0.0000,1.44681,0.21277,-2.78262,0.99901,1.57080,0.00002,-0.14512,-0.38002,0.04124,,,,,,,,,,,,,,,,,,,,,,,,,,0,0,0,0,0
2.8802,1783190455.0202,1,1,1.0000,0.0000,1.44681,0.21277,-2.78262,0.99901,1.57080,0.00002,-0.14512,-0.38002,0.04124,,,,,,,,,,,,,,,,,,,,,,,,,,0,0,0,0,0
2.8902,1783190455.0302,1,1,1.0000,0.0000,1.44681,0.21262,-2.78266,0.99920,1.57080,0.00002,-0.14512,-0.38002,0.04120,,,,,,,,,,,,,,,,,,,,,,,,,,0,0,0,0,0
2.8905,1783190455.0305,1,1,1.0000,0.0000,1.44681,0.21262,-2.78266,0.99920,1.57080,0.00002,-0.14512,-0.38002,0.04120,,,,,,,,,,,,,,,,,,,,,,,,,,0,0,0,0,0
2.9041,1783190455.0442,1,1,1.0000,0.0000,1.44681,0.21241,-2.78271,0.99946,1.57080,0.00002,-0.14512,-0.38002,0.04115,,,,,,,,,,,,,,,,,,,,,,,,,,0,0,0,0,0
2.9045,1783190455.0446,1,1,1.0000,0.0000,1.44681,0.21241,-2.78271,0.99946,1.57080,0.00002,-0.14512,-0.38002,0.04115,,,,,,,,,,,,,,,,,,,,,,,,,,0,0,0,0,0
2.9151,1783190455.0551,1,1,1.0000,0.0000,1.44681,0.21238,-2.78272,0.99950,1.57080,0.00002,-0.14512,-0.38002,0.04114,,,,,,,,,,,,,,,,,,,,,,,,,,0,0,0,0,0
2.9153,1783190455.0554,1,1,1.0000,0.0000,1.44681,0.21238,-2.78272,0.99950,1.57080,0.00002,-0.14512,-0.38002,0.04114,,,,,,,,,,,,,,,,,,,,,,,,,,0,0,0,0,0
2.9247,1783190455.0647,1,1,1.0000,0.0000,1.44681,0.21229,-2.78274,0.99961,1.57080,0.00002,-0.14512,-0.38002,0.04112,,,,,,,,,,,,,,,,,,,,,,,,,,0,0,0,0,0
2.9285,1783190455.0685,1,1,1.0000,0.0000,1.44681,0.21224,-2.78275,0.99968,1.57080,0.00002,-0.14512,-0.38002,0.04110,,,,,,,,,,,,,,,,,,,,,,,,,,0,0,0,0,0
2.9288,1783190455.0688,1,1,1.0000,0.0000,1.44681,0.21224,-2.78275,0.99968,1.57080,0.00002,-0.14512,-0.38002,0.04110,,,,,,,,,,,,,,,,,,,,,,,,,,0,0,0,0,0
2.9385,1783190455.0785,1,1,1.0000,0.0000,1.44681,0.21216,-2.78277,0.99977,1.57080,0.00002,-0.14512,-0.38002,0.04109,,,,,,,,,,,,,,,,,,,,,,,,,,0,0,0,0,0
2.9605,1783190455.1005,1,1,1.0000,0.0000,1.44681,0.21187,-2.78284,1.00014,1.57080,0.00002,-0.14512,-0.38002,0.04101,,,,,,,,,,,,,,,,,,,,,,,,,,0,0,0,0,0
2.9626,1783190455.1026,1,1,1.0000,0.0000,1.44681,0.21180,-2.78286,1.00022,1.57080,0.00002,-0.14512,-0.38002,0.04099,,,,,,,,,,,,,,,,,,,,,,,,,,0,0,0,0,0
2.9686,1783190455.1087,1,1,1.0000,0.0000,1.44681,0.21180,-2.78286,1.00022,1.57080,0.00002,-0.14512,-0.38002,0.04099,,,,,,,,,,,,,,,,,,,,,,,,,,0,0,0,0,0
2.9785,1783190455.1185,1,1,1.0000,0.0000,1.44681,0.21170,-2.78288,1.00034,1.57080,0.00002,-0.14512,-0.38002,0.04097,,,,,,,,,,,,,,,,,,,,,,,,,,0,0,0,0,0
2.9912,1783190455.1312,1,1,1.0000,0.0000,1.44681,0.21150,-2.78293,1.00059,1.57080,0.00002,-0.14512,-0.38002,0.04092,,,,,,,,,,,,,,,,,,,,,,,,,,0,0,0,0,0
3.0006,1783190455.1406,1,1,1.0000,0.0000,1.44681,0.21149,-2.78293,1.00061,1.57080,0.00002,-0.14512,-0.38002,0.04091,,,,,,,,,,,,,,,,,,,,,,,,,,0,0,0,0,0
3.0113,1783190455.1513,1,1,1.0000,0.0000,1.44681,0.21134,-2.78297,1.00079,1.57080,0.00002,-0.14512,-0.38002,0.04088,,,,,,,,,,,,,,,,,,,,,,,,,,0,0,0,0,0
3.0118,1783190455.1518,1,1,1.0000,0.0000,1.44681,0.21134,-2.78297,1.00079,1.57080,0.00002,-0.14512,-0.38002,0.04088,,,,,,,,,,,,,,,,,,,,,,,,,,0,0,0,0,0
3.0193,1783190455.1593,1,1,1.0000,0.0000,1.44681,0.21120,-2.78300,1.00096,1.57080,0.00002,-0.14512,-0.38002,0.04084,,,,,,,,,,,,,,,,,,,,,,,,,,0,0,0,0,0
3.0331,1783190455.1731,1,1,1.0000,0.0000,1.44681,0.21112,-2.78302,1.00107,1.57080,0.00002,-0.14512,-0.38002,0.04082,,,,,,,,,,,,,,,,,,,,,,,,,,0,0,0,0,0
3.0386,1783190455.1786,1,1,1.0000,0.0000,1.44681,0.21104,-2.78304,1.00117,1.57080,0.00002,-0.14512,-0.38002,0.04080,,,,,,,,,,,,,,,,,,,,,,,,,,0,0,0,0,0
3.0664,1783190455.2064,1,1,1.0000,0.0000,1.44681,0.21074,-2.78311,1.00154,1.57080,0.00002,-0.14512,-0.38002,0.04072,,,,,,,,,,,,,,,,,,,,,,,,,,0,0,0,0,0
3.0694,1783190455.2094,1,1,1.0000,0.0000,1.44681,0.21074,-2.78311,1.00154,1.57080,0.00002,-0.14512,-0.38002,0.04072,,,,,,,,,,,,,,,,,,,,,,,,,,0,0,0,0,0
3.0702,1783190455.2102,1,1,1.0000,0.0000,1.44681,0.21067,-2.78313,1.00162,1.57080,0.00002,-0.14512,-0.38002,0.04071,,,,,,,,,,,,,,,,,,,,,,,,,,0,0,0,0,0
3.0785,1783190455.2185,1,1,1.0000,0.0000,1.44681,0.21053,-2.78316,1.00179,1.57080,0.00002,-0.14512,-0.38002,0.04067,,,,,,,,,,,,,,,,,,,,,,,,,,0,0,0,0,0
3.0789,1783190455.2190,1,1,1.0000,0.0000,1.44681,0.21053,-2.78316,1.00179,1.57080,0.00002,-0.14512,-0.38002,0.04067,,,,,,,,,,,,,,,,,,,,,,,,,,0,0,0,0,0
3.0892,1783190455.2292,1,1,1.0000,0.0000,1.44681,0.21046,-2.78318,1.00188,1.57080,0.00002,-0.14512,-0.38002,0.04066,,,,,,,,,,,,,,,,,,,,,,,,,,0,0,0,0,0
3.0984,1783190455.2384,1,1,1.0000,0.0000,1.44681,0.21037,-2.78320,1.00200,1.57080,0.00002,-0.14512,-0.38002,0.04063,,,,,,,,,,,,,,,,,,,,,,,,,,0,0,0,0,0
3.0988,1783190455.2388,1,1,1.0000,0.0000,1.44681,0.21037,-2.78320,1.00200,1.57080,0.00002,-0.14512,-0.38002,0.04063,,,,,,,,,,,,,,,,,,,,,,,,,,0,0,0,0,0
3.1162,1783190455.2562,1,1,1.0000,0.0000,1.44681,0.21016,-2.78325,1.00225,1.57080,0.00002,-0.14512,-0.38002,0.04058,,,,,,,,,,,,,,,,,,,,,,,,,,0,0,0,0,0
3.1300,1783190455.2700,1,1,1.0000,0.0000,1.44681,0.21001,-2.78329,1.00245,1.57080,0.00002,-0.14512,-0.38002,0.04054,,,,,,,,,,,,,,,,,,,,,,,,,,0,0,0,0,0
3.1347,1783190455.2747,1,1,1.0000,0.0000,1.44681,0.20994,-2.78331,1.00253,1.57080,0.00002,-0.14512,-0.38002,0.04052,,,,,,,,,,,,,,,,,,,,,,,,,,0,0,0,0,0
3.1428,1783190455.2828,1,1,1.0000,0.0000,1.44680,0.20980,-2.78334,1.00271,1.57080,0.00002,-0.14512,-0.38002,0.04049,,,,,,,,,,,,,,,,,,,,,,,,,,0,0,0,0,0
3.1489,1783190455.2889,1,1,1.0000,0.0000,1.44680,0.20980,-2.78334,1.00271,1.57080,0.00002,-0.14512,-0.38002,0.04049,,,,,,,,,,,,,,,,,,,,,,,,,,0,0,0,0,0
3.1492,1783190455.2892,1,1,1.0000,0.0000,1.44680,0.20980,-2.78334,1.00271,1.57080,0.00002,-0.14512,-0.38002,0.04049,,,,,,,,,,,,,,,,,,,,,,,,,,0,0,0,0,0
3.1631,1783190455.3031,1,1,1.0000,0.0000,1.44680,0.20964,-2.78338,1.00291,1.57080,0.00002,-0.14512,-0.38002,0.04045,,,,,,,,,,,,,,,,,,,,,,,,,,0,0,0,0,0
3.1742,1783190455.3142,1,1,1.0000,0.0000,1.44680,0.20950,-2.78341,1.00308,1.57079,0.00002,-0.14512,-0.38002,0.04041,,,,,,,,,,,,,,,,,,,,,,,,,,0,0,0,0,0
3.1820,1783190455.3221,1,1,1.0000,0.0000,1.44680,0.20945,-2.78342,1.00314,1.57079,0.00002,-0.14512,-0.38002,0.04040,,,,,,,,,,,,,,,,,,,,,,,,,,0,0,0,0,0
3.1993,1783190455.3393,1,1,1.0000,0.0000,1.44680,0.20920,-2.78348,1.00345,1.57079,0.00002,-0.14512,-0.38002,0.04034,,,,,,,,,,,,,,,,,,,,,,,,,,0,0,0,0,0
3.2042,1783190455.3442,1,1,1.0000,0.0000,1.44680,0.20913,-2.78350,1.00354,1.57079,0.00002,-0.14512,-0.38002,0.04032,,,,,,,,,,,,,,,,,,,,,,,,,,0,0,0,0,0
3.2168,1783190455.3568,1,1,1.0000,0.0000,1.44680,0.20908,-2.78351,1.00360,1.57079,0.00002,-0.14512,-0.38002,0.04031,,,,,,,,,,,,,,,,,,,,,,,,,,0,0,0,0,0
3.2226,1783190455.3626,1,1,1.0000,0.0000,1.44680,0.20897,-2.78354,1.00374,1.57079,0.00002,-0.14512,-0.38002,0.04028,,,,,,,,,,,,,,,,,,,,,,,,,,0,0,0,0,0
3.2367,1783190455.3767,1,1,1.0000,0.0000,1.44680,0.20876,-2.78359,1.00400,1.57079,0.00002,-0.14512,-0.38002,0.04022,,,,,,,,,,,,,,,,,,,,,,,,,,0,0,0,0,0
3.2432,1783190455.3833,1,1,1.0000,0.0000,1.44680,0.20875,-2.78359,1.00401,1.57079,0.00002,-0.14512,-0.38002,0.04022,,,,,,,,,,,,,,,,,,,,,,,,,,0,0,0,0,0
3.2529,1783190455.3929,1,1,1.0000,0.0000,1.44680,0.20869,-2.78361,1.00409,1.57079,0.00002,-0.14512,-0.38002,0.04021,,,,,,,,,,,,,,,,,,,,,,,,,,0,0,0,0,0
3.2661,1783190455.4061,1,1,1.0000,0.0000,1.44680,0.20852,-2.78365,1.00429,1.57079,0.00002,-0.14512,-0.38002,0.04016,,,,,,,,,,,,,,,,,,,,,,,,,,0,0,0,0,0
3.2743,1783190455.4143,1,1,1.0000,0.0000,1.44680,0.20847,-2.78366,1.00435,1.57079,0.00002,-0.14512,-0.38002,0.04015,,,,,,,,,,,,,,,,,,,,,,,,,,0,0,0,0,0
3.2747,1783190455.4147,1,1,1.0000,0.0000,1.44680,0.20847,-2.78366,1.00435,1.57079,0.00002,-0.14512,-0.38002,0.04015,,,,,,,,,,,,,,,,,,,,,,,,,,0,0,0,0,0
3.2829,1783190455.4229,1,1,1.0000,0.0000,1.44680,0.20836,-2.78369,1.00449,1.57079,0.00002,-0.14512,-0.38002,0.04012,,,,,,,,,,,,,,,,,,,,,,,,,,0,0,0,0,0
3.2832,1783190455.4233,1,1,1.0000,0.0000,1.44680,0.20836,-2.78369,1.00449,1.57079,0.00002,-0.14512,-0.38002,0.04012,,,,,,,,,,,,,,,,,,,,,,,,,,0,0,0,0,0
3.2967,1783190455.4367,1,1,1.0000,0.0000,1.44680,0.20814,-2.78374,1.00476,1.57079,0.00002,-0.14512,-0.38002,0.04007,,,,,,,,,,,,,,,,,,,,,,,,,,0,0,0,0,0
3.2970,1783190455.4371,1,1,1.0000,0.0000,1.44680,0.20814,-2.78374,1.00476,1.57079,0.00002,-0.14512,-0.38002,0.04007,,,,,,,,,,,,,,,,,,,,,,,,,,0,0,0,0,0
3.3041,1783190455.4441,1,1,1.0000,0.0000,1.44680,0.20813,-2.78374,1.00477,1.57079,0.00002,-0.14512,-0.38002,0.04007,,,,,,,,,,,,,,,,,,,,,,,,,,0,0,0,0,0
3.3183,1783190455.4583,1,1,1.0000,0.0000,1.44680,0.20797,-2.78378,1.00498,1.57079,0.00002,-0.14512,-0.38002,0.04002,,,,,,,,,,,,,,,,,,,,,,,,,,0,0,0,0,0
3.3232,1783190455.4632,1,1,1.0000,0.0000,1.44680,0.20791,-2.78379,1.00505,1.57079,0.00002,-0.14512,-0.38002,0.04001,,,,,,,,,,,,,,,,,,,,,,,,,,0,0,0,0,0
3.3235,1783190455.4635,1,1,1.0000,0.0000,1.44680,0.20791,-2.78379,1.00505,1.57079,0.00002,-0.14512,-0.38002,0.04001,,,,,,,,,,,,,,,,,,,,,,,,,,0,0,0,0,0
3.3344,1783190455.4744,1,1,1.0000,0.0000,1.44680,0.20786,-2.78381,1.00511,1.57079,0.00002,-0.14512,-0.38002,0.04000,,,,,,,,,,,,,,,,,,,,,,,,,,0,0,0,0,0
3.3348,1783190455.4748,1,1,1.0000,0.0000,1.44680,0.20786,-2.78381,1.00511,1.57079,0.00002,-0.14512,-0.38002,0.04000,,,,,,,,,,,,,,,,,,,,,,,,,,0,0,0,0,0
3.3421,1783190455.4821,1,1,1.0000,0.0000,1.44680,0.20774,-2.78383,1.00526,1.57079,0.00002,-0.14512,-0.38002,0.03997,,,,,,,,,,,,,,,,,,,,,,,,,,0,0,0,0,0
3.3522,1783190455.4923,1,1,1.0000,0.0000,1.44680,0.20760,-2.78387,1.00544,1.57079,0.00002,-0.14512,-0.38002,0.03993,,,,,,,,,,,,,,,,,,,,,,,,,,0,0,0,0,0
3.3644,1783190455.5044,1,1,1.0000,0.0000,1.44680,0.20752,-2.78389,1.00554,1.57079,0.00002,-0.14512,-0.38002,0.03991,,,,,,,,,,,,,,,,,,,,,,,,,,0,0,0,0,0
3.3771,1783190455.5171,1,1,1.0000,0.0000,1.44680,0.20741,-2.78391,1.00567,1.57079,0.00002,-0.14512,-0.38002,0.03988,,,,,,,,,,,,,,,,,,,,,,,,,,0,0,0,0,0
3.3823,1783190455.5223,1,1,1.0000,0.0000,1.44680,0.20729,-2.78394,1.00582,1.57079,0.00002,-0.14512,-0.38002,0.03985,,,,,,,,,,,,,,,,,,,,,,,,,,0,0,0,0,0
3.3992,1783190455.5393,1,1,1.0000,0.0000,1.44680,0.20719,-2.78397,1.00594,1.57079,0.00002,-0.14512,-0.38002,0.03983,,,,,,,,,,,,,,,,,,,,,,,,,,0,0,0,0,0
3.3995,1783190455.5395,1,1,1.0000,0.0000,1.44680,0.20719,-2.78397,1.00594,1.57079,0.00002,-0.14512,-0.38002,0.03983,,,,,,,,,,,,,,,,,,,,,,,,,,0,0,0,0,0
3.4023,1783190455.5423,1,1,1.0000,0.0000,1.44680,0.20713,-2.78398,1.00602,1.57079,0.00002,-0.14512,-0.38002,0.03981,,,,,,,,,,,,,,,,,,,,,,,,,,0,0,0,0,0
3.4225,1783190455.5625,1,1,1.0000,0.0000,1.44680,0.20690,-2.78404,1.00630,1.57079,0.00002,-0.14512,-0.38002,0.03976,,,,,,,,,,,,,,,,,,,,,,,,,,0,0,0,0,0
3.4229,1783190455.5629,1,1,1.0000,0.0000,1.44680,0.20690,-2.78404,1.00630,1.57079,0.00002,-0.14512,-0.38002,0.03976,,,,,,,,,,,,,,,,,,,,,,,,,,0,0,0,0,0
3.4520,1783190455.5920,1,1,1.0000,0.0000,1.44680,0.20666,-2.78409,1.00659,1.57079,0.00002,-0.14512,-0.38002,0.03970,,,,,,,,,,,,,,,,,,,,,,,,,,0,0,0,0,0
3.4869,1783190455.6269,1,1,1.0000,0.0000,1.44680,0.20626,-2.78419,1.00709,1.57079,0.00002,-0.14512,-0.38002,0.03959,,,,,,,,,,,,,,,,,,,,,,,,,,0,0,0,0,0
3.4874,1783190455.6274,1,1,1.0000,0.0000,1.44680,0.20626,-2.78419,1.00709,1.57079,0.00002,-0.14512,-0.38002,0.03959,,,,,,,,,,,,,,,,,,,,,,,,,,0,0,0,0,0
3.4879,1783190455.6279,1,1,1.0000,0.0000,1.44680,0.20626,-2.78419,1.00709,1.57079,0.00002,-0.14512,-0.38002,0.03959,,,,,,,,,,,,,,,,,,,,,,,,,,0,0,0,0,0
3.4883,1783190455.6283,1,1,1.0000,0.0000,1.44680,0.20626,-2.78419,1.00709,1.57079,0.00002,-0.14512,-0.38002,0.03959,,,,,,,,,,,,,,,,,,,,,,,,,,0,0,0,0,0
3.4893,1783190455.6293,1,1,1.0000,0.0000,1.44680,0.20626,-2.78419,1.00709,1.57079,0.00002,-0.14512,-0.38002,0.03959,,,,,,,,,,,,,,,,,,,,,,,,,,0,0,0,0,0
3.4897,1783190455.6297,1,1,1.0000,0.0000,1.44680,0.20626,-2.78419,1.00709,1.57079,0.00002,-0.14512,-0.38002,0.03959,,,,,,,,,,,,,,,,,,,,,,,,,,0,0,0,0,0
3.4949,1783190455.6349,1,1,1.0000,0.0000,1.44680,0.20618,-2.78421,1.00720,1.57079,0.00002,-0.14512,-0.38002,0.03957,,,,,,,,,,,,,,,,,,,,,,,,,,0,0,0,0,0
3.4953,1783190455.6353,1,1,1.0000,0.0000,1.44680,0.20618,-2.78421,1.00720,1.57079,0.00002,-0.14512,-0.38002,0.03957,,,,,,,,,,,,,,,,,,,,,,,,,,0,0,0,0,0
3.5052,1783190455.6453,1,1,1.0000,0.0000,1.44680,0.20606,-2.78424,1.00734,1.57079,0.00002,-0.14512,-0.38002,0.03954,,,,,,,,,,,,,,,,,,,,,,,,,,0,0,0,0,0
3.5276,1783190455.6676,1,1,1.0000,0.0000,1.44680,0.20582,-2.78429,1.00763,1.57079,0.00002,-0.14512,-0.38002,0.03948,,,,,,,,,,,,,,,,,,,,,,,,,,0,0,0,0,0
3.5330,1783190455.6730,1,1,1.0000,0.0000,1.44680,0.20575,-2.78431,1.00773,1.57079,0.00002,-0.14512,-0.38002,0.03947,,,,,,,,,,,,,,,,,,,,,,,,,,0,0,0,0,0
3.5427,1783190455.6827,1,1,1.0000,0.0000,1.44680,0.20567,-2.78433,1.00782,1.57079,0.00002,-0.14512,-0.38002,0.03945,,,,,,,,,,,,,,,,,,,,,,,,,,0,0,0,0,0
3.5534,1783190455.6934,1,1,1.0000,0.0000,1.44680,0.20561,-2.78434,1.00790,1.57079,0.00002,-0.14512,-0.38002,0.03943,,,,,,,,,,,,,,,,,,,,,,,,,,0,0,0,0,0
3.5539,1783190455.6939,1,1,1.0000,0.0000,1.44680,0.20561,-2.78434,1.00790,1.57079,0.00002,-0.14512,-0.38002,0.03943,,,,,,,,,,,,,,,,,,,,,,,,,,0,0,0,0,0
3.5732,1783190455.7132,1,1,1.0000,0.0000,1.44680,0.20543,-2.78439,1.00812,1.57079,0.00002,-0.14512,-0.38002,0.03939,,,,,,,,,,,,,,,,,,,,,,,,,,0,0,0,0,0
3.5757,1783190455.7157,1,1,1.0000,0.0000,1.44680,0.20539,-2.78439,1.00816,1.57079,0.00002,-0.14512,-0.38002,0.03938,,,,,,,,,,,,,,,,,,,,,,,,,,0,0,0,0,0
3.5761,1783190455.7162,1,1,1.0000,0.0000,1.44680,0.20539,-2.78439,1.00816,1.57079,0.00002,-0.14512,-0.38002,0.03938,,,,,,,,,,,,,,,,,,,,,,,,,,0,0,0,0,0
3.5821,1783190455.7221,1,1,1.0000,0.0000,1.44680,0.20534,-2.78441,1.00823,1.57079,0.00002,-0.14512,-0.38002,0.03936,,,,,,,,,,,,,,,,,,,,,,,,,,0,0,0,0,0
3.5966,1783190455.7366,1,1,1.0000,0.0000,1.44680,0.20506,-2.78447,1.00858,1.57079,0.00002,-0.14512,-0.38002,0.03929,,,,,,,,,,,,,,,,,,,,,,,,,,0,0,0,0,0
3.6075,1783190455.7475,1,1,1.0000,0.0000,1.44680,0.20503,-2.78448,1.00862,1.57079,0.00002,-0.14512,-0.38002,0.03928,,,,,,,,,,,,,,,,,,,,,,,,,,0,0,0,0,0
3.6120,1783190455.7520,1,1,1.0000,0.0000,1.44680,0.20499,-2.78449,1.00866,1.57079,0.00002,-0.14512,-0.38002,0.03928,,,,,,,,,,,,,,,,,,,,,,,,,,0,0,0,0,0
3.6122,1783190455.7522,1,1,1.0000,0.0000,1.44680,0.20499,-2.78449,1.00866,1.57079,0.00002,-0.14512,-0.38002,0.03928,,,,,,,,,,,,,,,,,,,,,,,,,,0,0,0,0,0
3.6128,1783190455.7528,1,1,1.0000,0.0000,1.44680,0.20499,-2.78449,1.00866,1.57079,0.00002,-0.14512,-0.38002,0.03928,,,,,,,,,,,,,,,,,,,,,,,,,,0,0,0,0,0
3.6280,1783190455.7680,1,1,1.0000,0.0000,1.44680,0.20482,-2.78453,1.00887,1.57079,0.00002,-0.14512,-0.38002,0.03923,,,,,,,,,,,,,,,,,,,,,,,,,,0,0,0,0,0
3.6322,1783190455.7723,1,1,1.0000,0.0000,1.44680,0.20481,-2.78453,1.00888,1.57079,0.00002,-0.14512,-0.38002,0.03923,,,,,,,,,,,,,,,,,,,,,,,,,,0,0,0,0,0
3.6325,1783190455.7726,1,1,1.0000,0.0000,1.44680,0.20481,-2.78453,1.00888,1.57079,0.00002,-0.14512,-0.38002,0.03923,,,,,,,,,,,,,,,,,,,,,,,,,,0,0,0,0,0
3.6466,1783190455.7866,1,1,1.0000,0.0000,1.44680,0.20459,-2.78459,1.00916,1.57079,0.00002,-0.14512,-0.38002,0.03917,,,,,,,,,,,,,,,,,,,,,,,,,,0,0,0,0,0
3.6535,1783190455.7935,1,1,1.0000,0.0000,1.44680,0.20451,-2.78460,1.00925,1.57079,0.00002,-0.14512,-0.38002,0.03916,,,,,,,,,,,,,,,,,,,,,,,,,,0,0,0,0,0
3.6620,1783190455.8020,1,1,1.0000,0.0000,1.44680,0.20444,-2.78462,1.00934,1.57079,0.00002,-0.14512,-0.38002,0.03914,,,,,,,,,,,,,,,,,,,,,,,,,,0,0,0,0,0
3.6753,1783190455.8153,1,1,1.0000,0.0000,1.44680,0.20432,-2.78465,1.00949,1.57079,0.00002,-0.14512,-0.38002,0.03911,,,,,,,,,,,,,,,,,,,,,,,,,,0,0,0,0,0
3.6858,1783190455.8258,1,1,1.0000,0.0000,1.44680,0.20421,-2.78468,1.00963,1.57079,0.00002,-0.14512,-0.38002,0.03908,,,,,,,,,,,,,,,,,,,,,,,,,,0,0,0,0,0
3.7109,1783190455.8509,1,1,1.0000,0.0000,1.44680,0.20390,-2.78475,1.01002,1.57079,0.00002,-0.14512,-0.38002,0.03900,,,,,,,,,,,,,,,,,,,,,,,,,,0,0,0,0,0
3.7114,1783190455.8514,1,1,1.0000,0.0000,1.44680,0.20390,-2.78475,1.01002,1.57079,0.00002,-0.14512,-0.38002,0.03900,,,,,,,,,,,,,,,,,,,,,,,,,,0,0,0,0,0
3.7117,1783190455.8517,1,1,1.0000,0.0000,1.44680,0.20390,-2.78475,1.01002,1.57079,0.00002,-0.14512,-0.38002,0.03900,,,,,,,,,,,,,,,,,,,,,,,,,,0,0,0,0,0
3.7169,1783190455.8570,1,1,1.0000,0.0000,1.44680,0.20382,-2.78477,1.01011,1.57079,0.00002,-0.14512,-0.38002,0.03898,,,,,,,,,,,,,,,,,,,,,,,,,,0,0,0,0,0
3.7172,1783190455.8573,1,1,1.0000,0.0000,1.44680,0.20382,-2.78477,1.01011,1.57079,0.00002,-0.14512,-0.38002,0.03898,,,,,,,,,,,,,,,,,,,,,,,,,,0,0,0,0,0
3.7286,1783190455.8686,1,1,1.0000,0.0000,1.44680,0.20379,-2.78477,1.01015,1.57079,0.00002,-0.14512,-0.38002,0.03897,,,,,,,,,,,,,,,,,,,,,,,,,,0,0,0,0,0
3.7289,1783190455.8689,1,1,1.0000,0.0000,1.44680,0.20379,-2.78477,1.01015,1.57079,0.00002,-0.14512,-0.38002,0.03897,,,,,,,,,,,,,,,,,,,,,,,,,,0,0,0,0,0
3.7390,1783190455.8791,1,1,1.0000,0.0000,1.44680,0.20365,-2.78481,1.01032,1.57079,0.00002,-0.14512,-0.38002,0.03894,,,,,,,,,,,,,,,,,,,,,,,,,,0,0,0,0,0
3.7494,1783190455.8894,1,1,1.0000,0.0000,1.44680,0.20359,-2.78482,1.01040,1.57079,0.00002,-0.14512,-0.38002,0.03892,,,,,,,,,,,,,,,,,,,,,,,,,,0,0,0,0,0
3.7630,1783190455.9030,1,1,1.0000,0.0000,1.44680,0.20342,-2.78486,1.01060,1.57079,0.00002,-0.14512,-0.38002,0.03888,,,,,,,,,,,,,,,,,,,,,,,,,,0,0,0,0,0
3.7857,1783190455.9257,1,1,1.0000,0.0000,1.44680,0.20320,-2.78492,1.01088,1.57079,0.00002,-0.14512,-0.38002,0.03883,,,,,,,,,,,,,,,,,,,,,,,,,,0,0,0,0,0
3.7933,1783190455.9333,1,1,1.0000,0.0000,1.44680,0.20314,-2.78493,1.01096,1.57079,0.00002,-0.14512,-0.38002,0.03881,,,,,,,,,,,,,,,,,,,,,,,,,,0,0,0,0,0
3.7936,1783190455.9336,1,1,1.0000,0.0000,1.44680,0.20314,-2.78493,1.01096,1.57079,0.00002,-0.14512,-0.38002,0.03881,,,,,,,,,,,,,,,,,,,,,,,,,,0,0,0,0,0
3.7991,1783190455.9391,1,1,1.0000,0.0000,1.44680,0.20303,-2.78495,1.01109,1.57079,0.00002,-0.14512,-0.38002,0.03878,,,,,,,,,,,,,,,,,,,,,,,,,,0,0,0,0,0
3.8165,1783190455.9565,1,1,1.0000,0.0000,1.44680,0.20292,-2.78498,1.01122,1.57079,0.00002,-0.14512,-0.38001,0.03876,,,,,,,,,,,,,,,,,,,,,,,,,,0,0,0,0,0
3.8404,1783190455.9804,1,1,1.0000,0.0000,1.44680,0.20259,-2.78506,1.01164,1.57079,0.00002,-0.14512,-0.38001,0.03867,,,,,,,,,,,,,,,,,,,,,,,,,,0,0,0,0,0
3.8408,1783190455.9808,1,1,1.0000,0.0000,1.44680,0.20259,-2.78506,1.01164,1.57079,0.00002,-0.14512,-0.38001,0.03867,,,,,,,,,,,,,,,,,,,,,,,,,,0,0,0,0,0
3.8578,1783190455.9978,1,1,1.0000,0.0000,1.44680,0.20243,-2.78510,1.01183,1.57079,0.00002,-0.14512,-0.38001,0.03863,,,,,,,,,,,,,,,,,,,,,,,,,,0,0,0,0,0
3.8587,1783190455.9987,1,1,1.0000,0.0000,1.44680,0.20236,-2.78511,1.01192,1.57079,0.00002,-0.14512,-0.38001,0.03862,,,,,,,,,,,,,,,,,,,,,,,,,,0,0,0,0,0
3.8662,1783190456.0062,1,1,1.0000,0.0000,1.44680,0.20228,-2.78513,1.01201,1.57079,0.00002,-0.14512,-0.38001,0.03860,,,,,,,,,,,,,,,,,,,,,,,,,,0,0,0,0,0
3.8668,1783190456.0068,1,1,1.0000,0.0000,1.44680,0.20228,-2.78513,1.01201,1.57079,0.00002,-0.14512,-0.38001,0.03860,,,,,,,,,,,,,,,,,,,,,,,,,,0,0,0,0,0
3.8779,1783190456.0180,1,1,1.0000,0.0000,1.44680,0.20224,-2.78514,1.01207,1.57079,0.00002,-0.14512,-0.38001,0.03859,,,,,,,,,,,,,,,,,,,,,,,,,,0,0,0,0,0
3.8888,1783190456.0288,1,1,1.0000,0.0000,1.44680,0.20205,-2.78518,1.01229,1.57079,0.00002,-0.14512,-0.38001,0.03854,,,,,,,,,,,,,,,,,,,,,,,,,,0,0,0,0,0
3.8892,1783190456.0292,1,1,1.0000,0.0000,1.44680,0.20205,-2.78518,1.01229,1.57079,0.00002,-0.14512,-0.38001,0.03854,,,,,,,,,,,,,,,,,,,,,,,,,,0,0,0,0,0
3.8969,1783190456.0369,1,1,1.0000,0.0000,1.44680,0.20191,-2.78522,1.01247,1.57079,0.00002,-0.14512,-0.38001,0.03850,,,,,,,,,,,,,,,,,,,,,,,,,,0,0,0,0,0
3.8972,1783190456.0372,1,1,1.0000,0.0000,1.44680,0.20191,-2.78522,1.01247,1.57079,0.00002,-0.14512,-0.38001,0.03850,,,,,,,,,,,,,,,,,,,,,,,,,,0,0,0,0,0
3.9069,1783190456.0469,1,1,1.0000,0.0000,1.44680,0.20187,-2.78523,1.01253,1.57079,0.00002,-0.14512,-0.38001,0.03849,,,,,,,,,,,,,,,,,,,,,,,,,,0,0,0,0,0
3.9073,1783190456.0473,1,1,1.0000,0.0000,1.44680,0.20187,-2.78523,1.01253,1.57079,0.00002,-0.14512,-0.38001,0.03849,,,,,,,,,,,,,,,,,,,,,,,,,,0,0,0,0,0
3.9160,1783190456.0560,1,1,1.0000,0.0000,1.44680,0.20175,-2.78526,1.01267,1.57079,0.00002,-0.14512,-0.38001,0.03846,,,,,,,,,,,,,,,,,,,,,,,,,,0,0,0,0,0
3.9163,1783190456.0563,1,1,1.0000,0.0000,1.44680,0.20175,-2.78526,1.01267,1.57079,0.00002,-0.14512,-0.38001,0.03846,,,,,,,,,,,,,,,,,,,,,,,,,,0,0,0,0,0
3.9315,1783190456.0715,1,1,1.0000,0.0000,1.44680,0.20160,-2.78529,1.01286,1.57079,0.00002,-0.14512,-0.38001,0.03843,,,,,,,,,,,,,,,,,,,,,,,,,,0,0,0,0,0
3.9352,1783190456.0752,1,1,1.0000,0.0000,1.44680,0.20156,-2.78530,1.01290,1.57079,0.00002,-0.14512,-0.38001,0.03842,,,,,,,,,,,,,,,,,,,,,,,,,,0,0,0,0,0
3.9490,1783190456.0890,1,1,1.0000,0.0000,1.44680,0.20138,-2.78534,1.01313,1.57079,0.00003,-0.14512,-0.38001,0.03837,,,,,,,,,,,,,,,,,,,,,,,,,,0,0,0,0,0
3.9495,1783190456.0895,1,1,1.0000,0.0000,1.44680,0.20138,-2.78534,1.01313,1.57079,0.00003,-0.14512,-0.38001,0.03837,,,,,,,,,,,,,,,,,,,,,,,,,,0,0,0,0,0
3.9572,1783190456.0972,1,1,1.0000,0.0000,1.44680,0.20124,-2.78538,1.01331,1.57079,0.00003,-0.14512,-0.38001,0.03834,,,,,,,,,,,,,,,,,,,,,,,,,,0,0,0,0,0
3.9577,1783190456.0977,1,1,1.0000,0.0000,1.44680,0.20124,-2.78538,1.01331,1.57079,0.00003,-0.14512,-0.38001,0.03834,,,,,,,,,,,,,,,,,,,,,,,,,,0,0,0,0,0
3.9661,1783190456.1061,1,1,1.0000,0.0000,1.44680,0.20122,-2.78538,1.01332,1.57079,0.00003,-0.14512,-0.38001,0.03833,,,,,,,,,,,,,,,,,,,,,,,,,,0,0,0,0,0
3.9664,1783190456.1065,1,1,1.0000,0.0000,1.44680,0.20122,-2.78538,1.01332,1.57079,0.00003,-0.14512,-0.38001,0.03833,,,,,,,,,,,,,,,,,,,,,,,,,,0,0,0,0,0
3.9788,1783190456.1188,1,1,1.0000,0.0000,1.44680,0.20100,-2.78543,1.01359,1.57079,0.00003,-0.14512,-0.38001,0.03828,,,,,,,,,,,,,,,,,,,,,,,,,,0,0,0,0,0
3.9858,1783190456.1258,1,1,1.0000,0.0000,1.44680,0.20093,-2.78545,1.01368,1.57079,0.00003,-0.14512,-0.38001,0.03826,,,,,,,,,,,,,,,,,,,,,,,,,,0,0,0,0,0
3.9862,1783190456.1262,1,1,1.0000,0.0000,1.44680,0.20093,-2.78545,1.01368,1.57079,0.00003,-0.14512,-0.38001,0.03826,,,,,,,,,,,,,,,,,,,,,,,,,,0,0,0,0,0
3.9951,1783190456.1351,1,1,1.0000,0.0000,1.44680,0.20088,-2.78546,1.01374,1.57079,0.00003,-0.14512,-0.38001,0.03825,,,,,,,,,,,,,,,,,,,,,,,,,,0,0,0,0,0
3.9955,1783190456.1355,1,1,1.0000,0.0000,1.44680,0.20088,-2.78546,1.01374,1.57079,0.00003,-0.14512,-0.38001,0.03825,,,,,,,,,,,,,,,,,,,,,,,,,,0,0,0,0,0
4.0064,1783190456.1464,1,1,1.0000,0.0000,1.44680,0.20077,-2.78549,1.01388,1.57079,0.00003,-0.14512,-0.38001,0.03822,,,,,,,,,,,,,,,,,,,,,,,,,,0,0,0,0,0
4.0070,1783190456.1471,1,1,1.0000,0.0000,1.44680,0.20070,-2.78550,1.01396,1.57079,0.00003,-0.14512,-0.38001,0.03820,,,,,,,,,,,,,,,,,,,,,,,,,,0,0,0,0,0
4.0200,1783190456.1600,1,1,1.0000,0.0000,1.44680,0.20056,-2.78554,1.01414,1.57079,0.00003,-0.14512,-0.38001,0.03817,,,,,,,,,,,,,,,,,,,,,,,,,,0,0,0,0,0
4.0204,1783190456.1604,1,1,1.0000,0.0000,1.44680,0.20056,-2.78554,1.01414,1.57079,0.00003,-0.14512,-0.38001,0.03817,,,,,,,,,,,,,,,,,,,,,,,,,,0,0,0,0,0
4.0402,1783190456.1802,1,1,1.0000,0.0000,1.44680,0.20033,-2.78559,1.01443,1.57079,0.00003,-0.14512,-0.38001,0.03811,,,,,,,,,,,,,,,,,,,,,,,,,,0,0,0,0,0
4.0405,1783190456.1806,1,1,1.0000,0.0000,1.44680,0.20033,-2.78559,1.01443,1.57079,0.00003,-0.14512,-0.38001,0.03811,,,,,,,,,,,,,,,,,,,,,,,,,,0,0,0,0,0
4.0454,1783190456.1854,1,1,1.0000,0.0000,1.44680,0.20025,-2.78561,1.01452,1.57079,0.00003,-0.14512,-0.38001,0.03809,,,,,,,,,,,,,,,,,,,,,,,,,,0,0,0,0,0
4.0553,1783190456.1953,1,1,1.0000,0.0000,1.44680,0.20021,-2.78562,1.01457,1.57079,0.00003,-0.14512,-0.38001,0.03808,,,,,,,,,,,,,,,,,,,,,,,,,,0,0,0,0,0
4.0557,1783190456.1957,1,1,1.0000,0.0000,1.44680,0.20021,-2.78562,1.01457,1.57079,0.00003,-0.14512,-0.38001,0.03808,,,,,,,,,,,,,,,,,,,,,,,,,,0,0,0,0,0
4.1078,1783190456.2478,1,1,1.0000,0.0000,1.44680,0.19958,-2.78577,1.01535,1.57079,0.00003,-0.14512,-0.38001,0.03792,,,,,,,,,,,,,,,,,,,,,,,,,,0,0,0,0,0
4.1218,1783190456.2618,1,1,1.0000,0.0000,1.44680,0.19948,-2.78579,1.01547,1.57079,0.00003,-0.14512,-0.38001,0.03790,,,,,,,,,,,,,,,,,,,,,,,,,,0,0,0,0,0
4.1222,1783190456.2622,1,1,1.0000,0.0000,1.44680,0.19948,-2.78579,1.01547,1.57079,0.00003,-0.14512,-0.38001,0.03790,,,,,,,,,,,,,,,,,,,,,,,,,,0,0,0,0,0
4.1228,1783190456.2628,1,1,1.0000,0.0000,1.44680,0.19942,-2.78580,1.01555,1.57079,0.00003,-0.14512,-0.38001,0.03788,,,,,,,,,,,,,,,,,,,,,,,,,,0,0,0,0,0
4.1258,1783190456.2658,1,1,1.0000,0.0000,1.44680,0.19942,-2.78580,1.01555,1.57079,0.00003,-0.14512,-0.38001,0.03788,,,,,,,,,,,,,,,,,,,,,,,,,,0,0,0,0,0
4.1261,1783190456.2661,1,1,1.0000,0.0000,1.44680,0.19942,-2.78580,1.01555,1.57079,0.00003,-0.14512,-0.38001,0.03788,,,,,,,,,,,,,,,,,,,,,,,,,,0,0,0,0,0
4.1459,1783190456.2859,1,1,1.0000,0.0000,1.44680,0.19919,-2.78586,1.01582,1.57079,0.00003,-0.14512,-0.38001,0.03783,,,,,,,,,,,,,,,,,,,,,,,,,,0,0,0,0,0
4.1462,1783190456.2863,1,1,1.0000,0.0000,1.44680,0.19919,-2.78586,1.01582,1.57079,0.00003,-0.14512,-0.38001,0.03783,,,,,,,,,,,,,,,,,,,,,,,,,,0,0,0,0,0
4.1671,1783190456.3071,1,1,1.0000,0.0000,1.44680,0.19896,-2.78591,1.01611,1.57079,0.00003,-0.14512,-0.38001,0.03777,,,,,,,,,,,,,,,,,,,,,,,,,,0,0,0,0,0
4.1674,1783190456.3074,1,1,1.0000,0.0000,1.44680,0.19896,-2.78591,1.01611,1.57079,0.00003,-0.14512,-0.38001,0.03777,,,,,,,,,,,,,,,,,,,,,,,,,,0,0,0,0,0
4.1978,1783190456.3378,1,1,1.0000,0.0000,1.44680,0.19858,-2.78600,1.01658,1.57079,0.00003,-0.14512,-0.38001,0.03767,,,,,,,,,,,,,,,,,,,,,,,,,,0,0,0,0,0
4.1980,1783190456.3381,1,1,1.0000,0.0000,1.44680,0.19858,-2.78600,1.01658,1.57079,0.00003,-0.14512,-0.38001,0.03767,,,,,,,,,,,,,,,,,,,,,,,,,,0,0,0,0,0
4.2092,1783190456.3492,1,1,1.0000,0.0000,1.44680,0.19853,-2.78601,1.01664,1.57079,0.00003,-0.14512,-0.38001,0.03766,,,,,,,,,,,,,,,,,,,,,,,,,,0,0,0,0,0
4.2095,1783190456.3495,1,1,1.0000,0.0000,1.44680,0.19853,-2.78601,1.01664,1.57079,0.00003,-0.14512,-0.38001,0.03766,,,,,,,,,,,,,,,,,,,,,,,,,,0,0,0,0,0
4.2098,1783190456.3498,1,1,1.0000,0.0000,1.44680,0.19853,-2.78601,1.01664,1.57079,0.00003,-0.14512,-0.38001,0.03766,,,,,,,,,,,,,,,,,,,,,,,,,,0,0,0,0,0
4.2217,1783190456.3617,1,1,1.0000,0.0000,1.44680,0.19835,-2.78605,1.01687,1.57079,0.00003,-0.14512,-0.38001,0.03761,,,,,,,,,,,,,,,,,,,,,,,,,,0,0,0,0,0
4.2298,1783190456.3698,1,1,1.0000,0.0000,1.44680,0.19820,-2.78609,1.01705,1.57079,0.00003,-0.14512,-0.38001,0.03758,,,,,,,,,,,,,,,,,,,,,,,,,,0,0,0,0,0
4.2481,1783190456.3881,1,1,1.0000,0.0000,1.44680,0.19808,-2.78612,1.01720,1.57079,0.00003,-0.14512,-0.38001,0.03755,,,,,,,,,,,,,,,,,,,,,,,,,,0,0,0,0,0
4.2483,1783190456.3883,1,1,1.0000,0.0000,1.44680,0.19808,-2.78612,1.01720,1.57079,0.00003,-0.14512,-0.38001,0.03755,,,,,,,,,,,,,,,,,,,,,,,,,,0,0,0,0,0
4.2586,1783190456.3986,1,1,1.0000,0.0000,1.44680,0.19796,-2.78614,1.01734,1.57079,0.00003,-0.14512,-0.38001,0.03752,,,,,,,,,,,,,,,,,,,,,,,,,,0,0,0,0,0
4.2671,1783190456.4071,1,1,1.0000,0.0000,1.44680,0.19791,-2.78615,1.01740,1.57079,0.00003,-0.14512,-0.38001,0.03751,,,,,,,,,,,,,,,,,,,,,,,,,,0,0,0,0,0
4.2675,1783190456.4075,1,1,1.0000,0.0000,1.44680,0.19791,-2.78615,1.01740,1.57079,0.00003,-0.14512,-0.38001,0.03751,,,,,,,,,,,,,,,,,,,,,,,,,,0,0,0,0,0
4.2872,1783190456.4272,1,1,1.0000,0.0000,1.44680,0.19758,-2.78623,1.01782,1.57079,0.00003,-0.14512,-0.38001,0.03742,,,,,,,,,,,,,,,,,,,,,,,,,,0,0,0,0,0
4.2927,1783190456.4327,1,1,1.0000,0.0000,1.44680,0.19758,-2.78623,1.01782,1.57079,0.00003,-0.14512,-0.38001,0.03742,,,,,,,,,,,,,,,,,,,,,,,,,,0,0,0,0,0
4.2982,1783190456.4382,1,1,1.0000,0.0000,1.44680,0.19757,-2.78623,1.01783,1.57079,0.00003,-0.14512,-0.38001,0.03742,,,,,,,,,,,,,,,,,,,,,,,,,,0,0,0,0,0
4.2990,1783190456.4390,1,1,1.0000,0.0000,1.44680,0.19754,-2.78624,1.01786,1.57079,0.00003,-0.14512,-0.38001,0.03742,,,,,,,,,,,,,,,,,,,,,,,,,,0,0,0,0,0
4.3071,1783190456.4472,1,1,1.0000,0.0000,1.44680,0.19746,-2.78626,1.01797,1.57079,0.00003,-0.14512,-0.38001,0.03739,,,,,,,,,,,,,,,,,,,,,,,,,,0,0,0,0,0
4.3209,1783190456.4609,1,1,1.0000,0.0000,1.44680,0.19734,-2.78629,1.01811,1.57079,0.00003,-0.14512,-0.38001,0.03736,,,,,,,,,,,,,,,,,,,,,,,,,,0,0,0,0,0
4.3254,1783190456.4655,1,1,1.0000,0.0000,1.44680,0.19733,-2.78629,1.01813,1.57079,0.00003,-0.14512,-0.38001,0.03736,,,,,,,,,,,,,,,,,,,,,,,,,,0,0,0,0,0
4.3258,1783190456.4658,1,1,1.0000,0.0000,1.44680,0.19733,-2.78629,1.01813,1.57079,0.00003,-0.14512,-0.38001,0.03736,,,,,,,,,,,,,,,,,,,,,,,,,,0,0,0,0,0
4.3476,1783190456.4876,1,1,1.0000,0.0000,1.44680,0.19695,-2.78638,1.01859,1.57079,0.00003,-0.14512,-0.38001,0.03727,,,,,,,,,,,,,,,,,,,,,,,,,,0,0,0,0,0
4.3494,1783190456.4894,1,1,1.0000,0.0000,1.44680,0.19695,-2.78638,1.01859,1.57079,0.00003,-0.14512,-0.38001,0.03727,,,,,,,,,,,,,,,,,,,,,,,,,,0,0,0,0,0
4.3621,1783190456.5021,1,1,1.0000,0.0000,1.44680,0.19692,-2.78639,1.01863,1.57079,0.00003,-0.14512,-0.38001,0.03726,,,,,,,,,,,,,,,,,,,,,,,,,,0,0,0,0,0
4.3625,1783190456.5026,1,1,1.0000,0.0000,1.44680,0.19692,-2.78639,1.01863,1.57079,0.00003,-0.14512,-0.38001,0.03726,,,,,,,,,,,,,,,,,,,,,,,,,,0,0,0,0,0
4.3698,1783190456.5098,1,1,1.0000,0.0000,1.44680,0.19683,-2.78641,1.01873,1.57079,0.00003,-0.14512,-0.38001,0.03724,,,,,,,,,,,,,,,,,,,,,,,,,,0,0,0,0,0
4.3701,1783190456.5101,1,1,1.0000,0.0000,1.44680,0.19683,-2.78641,1.01873,1.57079,0.00003,-0.14512,-0.38001,0.03724,,,,,,,,,,,,,,,,,,,,,,,,,,0,0,0,0,0
4.3814,1783190456.5214,1,1,1.0000,0.0000,1.44680,0.19671,-2.78643,1.01888,1.57079,0.00003,-0.14512,-0.38001,0.03721,,,,,,,,,,,,,,,,,,,,,,,,,,0,0,0,0,0
4.3964,1783190456.5364,1,1,1.0000,0.0000,1.44680,0.19655,-2.78647,1.01909,1.57079,0.00003,-0.14512,-0.38001,0.03717,,,,,,,,,,,,,,,,,,,,,,,,,,0,0,0,0,0
4.3980,1783190456.5380,1,1,1.0000,0.0000,1.44680,0.19655,-2.78647,1.01909,1.57079,0.00003,-0.14512,-0.38001,0.03717,,,,,,,,,,,,,,,,,,,,,,,,,,0,0,0,0,0
4.4095,1783190456.5495,1,1,1.0000,0.0000,1.44679,0.19633,-2.78652,1.01936,1.57079,0.00003,-0.14511,-0.38001,0.03711,,,,,,,,,,,,,,,,,,,,,,,,,,0,0,0,0,0
4.4098,1783190456.5498,1,1,1.0000,0.0000,1.44679,0.19633,-2.78652,1.01936,1.57079,0.00003,-0.14511,-0.38001,0.03711,,,,,,,,,,,,,,,,,,,,,,,,,,0,0,0,0,0
4.4156,1783190456.5556,1,1,1.0000,0.0000,1.44679,0.19632,-2.78652,1.01937,1.57079,0.00003,-0.14511,-0.38001,0.03711,,,,,,,,,,,,,,,,,,,,,,,,,,0,0,0,0,0
4.4271,1783190456.5672,1,1,1.0000,0.0000,1.44679,0.19617,-2.78656,1.01955,1.57079,0.00003,-0.14511,-0.38001,0.03707,,,,,,,,,,,,,,,,,,,,,,,,,,0,0,0,0,0
4.4274,1783190456.5674,1,1,1.0000,0.0000,1.44679,0.19617,-2.78656,1.01955,1.57079,0.00003,-0.14511,-0.38001,0.03707,,,,,,,,,,,,,,,,,,,,,,,,,,0,0,0,0,0
4.4829,1783190456.6229,1,1,1.0000,0.0000,1.44679,0.19555,-2.78670,1.02032,1.57079,0.00003,-0.14511,-0.38001,0.03692,,,,,,,,,,,,,,,,,,,,,,,,,,0,0,0,0,0
4.4833,1783190456.6233,1,1,1.0000,0.0000,1.44679,0.19555,-2.78670,1.02032,1.57079,0.00003,-0.14511,-0.38001,0.03692,,,,,,,,,,,,,,,,,,,,,,,,,,0,0,0,0,0
4.4876,1783190456.6276,1,1,1.0000,0.0000,1.44679,0.19548,-2.78672,1.02039,1.57079,0.00003,-0.14511,-0.38001,0.03690,,,,,,,,,,,,,,,,,,,,,,,,,,0,0,0,0,0
4.4880,1783190456.6280,1,1,1.0000,0.0000,1.44679,0.19548,-2.78672,1.02039,1.57079,0.00003,-0.14511,-0.38001,0.03690,,,,,,,,,,,,,,,,,,,,,,,,,,0,0,0,0,0
4.5158,1783190456.6558,1,1,1.0000,0.0000,1.44679,0.19518,-2.78679,1.02077,1.57079,0.00003,-0.14511,-0.38001,0.03683,,,,,,,,,,,,,,,,,,,,,,,,,,0,0,0,0,0
4.5162,1783190456.6563,1,1,1.0000,0.0000,1.44679,0.19518,-2.78679,1.02077,1.57079,0.00003,-0.14511,-0.38001,0.03683,,,,,,,,,,,,,,,,,,,,,,,,,,0,0,0,0,0
4.5166,1783190456.6566,1,1,1.0000,0.0000,1.44679,0.19518,-2.78679,1.02077,1.57079,0.00003,-0.14511,-0.38001,0.03683,,,,,,,,,,,,,,,,,,,,,,,,,,0,0,0,0,0
4.5172,1783190456.6572,1,1,1.0000,0.0000,1.44679,0.19518,-2.78679,1.02077,1.57079,0.00003,-0.14511,-0.38001,0.03683,,,,,,,,,,,,,,,,,,,,,,,,,,0,0,0,0,0
4.5297,1783190456.6697,1,1,1.0000,0.0000,1.44679,0.19496,-2.78684,1.02103,1.57079,0.00003,-0.14511,-0.38001,0.03678,,,,,,,,,,,,,,,,,,,,,,,,,,0,0,0,0,0
4.5466,1783190456.6866,1,1,1.0000,0.0000,1.44679,0.19487,-2.78686,1.02116,1.57079,0.00003,-0.14511,-0.38001,0.03675,,,,,,,,,,,,,,,,,,,,,,,,,,0,0,0,0,0
4.5474,1783190456.6875,1,1,1.0000,0.0000,1.44679,0.19480,-2.78687,1.02123,1.57079,0.00003,-0.14511,-0.38001,0.03674,,,,,,,,,,,,,,,,,,,,,,,,,,0,0,0,0,0
4.5568,1783190456.6968,1,1,1.0000,0.0000,1.44679,0.19466,-2.78691,1.02141,1.57079,0.00003,-0.14511,-0.38001,0.03670,,,,,,,,,,,,,,,,,,,,,,,,,,0,0,0,0,0
4.5571,1783190456.6971,1,1,1.0000,0.0000,1.44679,0.19466,-2.78691,1.02141,1.57079,0.00003,-0.14511,-0.38001,0.03670,,,,,,,,,,,,,,,,,,,,,,,,,,0,0,0,0,0
4.5682,1783190456.7083,1,1,1.0000,0.0000,1.44679,0.19461,-2.78692,1.02147,1.57079,0.00003,-0.14511,-0.38001,0.03669,,,,,,,,,,,,,,,,,,,,,,,,,,0,0,0,0,0
4.5777,1783190456.7178,1,1,1.0000,0.0000,1.44679,0.19450,-2.78694,1.02161,1.57079,0.00003,-0.14511,-0.38001,0.03666,,,,,,,,,,,,,,,,,,,,,,,,,,0,0,0,0,0
4.5928,1783190456.7329,1,1,1.0000,0.0000,1.44679,0.19428,-2.78699,1.02187,1.57079,0.00003,-0.14511,-0.38001,0.03661,,,,,,,,,,,,,,,,,,,,,,,,,,0,0,0,0,0
4.5969,1783190456.7369,1,1,1.0000,0.0000,1.44679,0.19427,-2.78700,1.02189,1.57079,0.00003,-0.14511,-0.38001,0.03660,,,,,,,,,,,,,,,,,,,,,,,,,,0,0,0,0,0
4.5972,1783190456.7372,1,1,1.0000,0.0000,1.44679,0.19427,-2.78700,1.02189,1.57079,0.00003,-0.14511,-0.38001,0.03660,,,,,,,,,,,,,,,,,,,,,,,,,,0,0,0,0,0
4.6054,1783190456.7454,1,1,1.0000,0.0000,1.44679,0.19418,-2.78702,1.02200,1.57079,0.00003,-0.14511,-0.38001,0.03658,,,,,,,,,,,,,,,,,,,,,,,,,,0,0,0,0,0
4.6057,1783190456.7457,1,1,1.0000,0.0000,1.44679,0.19418,-2.78702,1.02200,1.57079,0.00003,-0.14511,-0.38001,0.03658,,,,,,,,,,,,,,,,,,,,,,,,,,0,0,0,0,0
4.6154,1783190456.7554,1,1,1.0000,0.0000,1.44679,0.19397,-2.78706,1.02225,1.57079,0.00003,-0.14511,-0.38001,0.03653,,,,,,,,,,,,,,,,,,,,,,,,,,0,0,0,0,0
4.6323,1783190456.7724,1,1,1.0000,0.0000,1.44679,0.19387,-2.78709,1.02238,1.57079,0.00003,-0.14511,-0.38001,0.03650,,,,,,,,,,,,,,,,,,,,,,,,,,0,0,0,0,0
4.6369,1783190456.7770,1,1,1.0000,0.0000,1.44679,0.19383,-2.78710,1.02243,1.57079,0.00003,-0.14511,-0.38001,0.03649,,,,,,,,,,,,,,,,,,,,,,,,,,0,0,0,0,0
4.6372,1783190456.7773,1,1,1.0000,0.0000,1.44679,0.19383,-2.78710,1.02243,1.57079,0.00003,-0.14511,-0.38001,0.03649,,,,,,,,,,,,,,,,,,,,,,,,,,0,0,0,0,0
4.6510,1783190456.7910,1,1,1.0000,0.0000,1.44679,0.19366,-2.78714,1.02264,1.57079,0.00003,-0.14511,-0.38001,0.03645,,,,,,,,,,,,,,,,,,,,,,,,,,0,0,0,0,0
4.6553,1783190456.7953,1,1,1.0000,0.0000,1.44679,0.19365,-2.78714,1.02265,1.57079,0.00003,-0.14511,-0.38001,0.03645,,,,,,,,,,,,,,,,,,,,,,,,,,0,0,0,0,0
4.6673,1783190456.8074,1,1,1.0000,0.0000,1.44679,0.19349,-2.78718,1.02284,1.57079,0.00003,-0.14511,-0.38001,0.03641,,,,,,,,,,,,,,,,,,,,,,,,,,0,0,0,0,0
4.6677,1783190456.8077,1,1,1.0000,0.0000,1.44679,0.19349,-2.78718,1.02284,1.57079,0.00003,-0.14511,-0.38001,0.03641,,,,,,,,,,,,,,,,,,,,,,,,,,0,0,0,0,0
4.6778,1783190456.8178,1,1,1.0000,0.0000,1.44679,0.19335,-2.78721,1.02302,1.57079,0.00003,-0.14511,-0.38001,0.03638,,,,,,,,,,,,,,,,,,,,,,,,,,0,0,0,0,0
4.7016,1783190456.8416,1,1,1.0000,0.0000,1.44679,0.19315,-2.78725,1.02326,1.57079,0.00003,-0.14511,-0.38001,0.03633,,,,,,,,,,,,,,,,,,,,,,,,,,0,0,0,0,0
4.7019,1783190456.8419,1,1,1.0000,0.0000,1.44679,0.19315,-2.78725,1.02326,1.57079,0.00003,-0.14511,-0.38001,0.03633,,,,,,,,,,,,,,,,,,,,,,,,,,0,0,0,0,0
4.7125,1783190456.8525,1,1,1.0000,0.0000,1.44679,0.19303,-2.78728,1.02341,1.57079,0.00003,-0.14511,-0.38001,0.03630,,,,,,,,,,,,,,,,,,,,,,,,,,0,0,0,0,0
4.7231,1783190456.8631,1,1,1.0000,0.0000,1.44679,0.19293,-2.78730,1.02353,1.57079,0.00003,-0.14511,-0.38001,0.03627,,,,,,,,,,,,,,,,,,,,,,,,,,0,0,0,0,0
4.7313,1783190456.8713,1,1,1.0000,0.0000,1.44679,0.19279,-2.78734,1.02370,1.57079,0.00003,-0.14511,-0.38001,0.03624,,,,,,,,,,,,,,,,,,,,,,,,,,0,0,0,0,0
4.7393,1783190456.8793,1,1,1.0000,0.0000,1.44679,0.19265,-2.78737,1.02388,1.57079,0.00003,-0.14511,-0.38001,0.03620,,,,,,,,,,,,,,,,,,,,,,,,,,0,0,0,0,0
4.7496,1783190456.8896,1,1,1.0000,0.0000,1.44679,0.19264,-2.78737,1.02390,1.57079,0.00003,-0.14511,-0.38001,0.03620,,,,,,,,,,,,,,,,,,,,,,,,,,0,0,0,0,0
4.7646,1783190456.9046,1,1,1.0000,0.0000,1.44679,0.19247,-2.78741,1.02410,1.57079,0.00003,-0.14511,-0.38001,0.03616,,,,,,,,,,,,,,,,,,,,,,,,,,0,0,0,0,0
4.7753,1783190456.9153,1,1,1.0000,0.0000,1.44679,0.19239,-2.78743,1.02419,1.57079,0.00003,-0.14511,-0.38001,0.03614,,,,,,,,,,,,,,,,,,,,,,,,,,0,0,0,0,0
4.7757,1783190456.9158,1,1,1.0000,0.0000,1.44679,0.19239,-2.78743,1.02419,1.57079,0.00003,-0.14511,-0.38001,0.03614,,,,,,,,,,,,,,,,,,,,,,,,,,0,0,0,0,0
4.7814,1783190456.9214,1,1,1.0000,0.0000,1.44679,0.19236,-2.78744,1.02424,1.57079,0.00003,-0.14511,-0.38001,0.03613,,,,,,,,,,,,,,,,,,,,,,,,,,0,0,0,0,0
4.8073,1783190456.9474,1,1,1.0000,0.0000,1.44679,0.19201,-2.78752,1.02467,1.57079,0.00003,-0.14511,-0.38001,0.03605,,,,,,,,,,,,,,,,,,,,,,,,,,0,0,0,0,0
4.8077,1783190456.9478,1,1,1.0000,0.0000,1.44679,0.19201,-2.78752,1.02467,1.57079,0.00003,-0.14511,-0.38001,0.03605,,,,,,,,,,,,,,,,,,,,,,,,,,0,0,0,0,0
4.8161,1783190456.9561,1,1,1.0000,0.0000,1.44679,0.19195,-2.78753,1.02475,1.57079,0.00003,-0.14511,-0.38001,0.03603,,,,,,,,,,,,,,,,,,,,,,,,,,0,0,0,0,0
4.8231,1783190456.9631,1,1,1.0000,0.0000,1.44679,0.19184,-2.78755,1.02487,1.57079,0.00003,-0.14511,-0.38001,0.03600,,,,,,,,,,,,,,,,,,,,,,,,,,0,0,0,0,0
4.8340,1783190456.9741,1,1,1.0000,0.0000,1.44679,0.19178,-2.78757,1.02495,1.57079,0.00003,-0.14511,-0.38001,0.03599,,,,,,,,,,,,,,,,,,,,,,,,,,0,0,0,0,0
4.8406,1783190456.9806,1,1,1.0000,0.0000,1.44679,0.19173,-2.78758,1.02501,1.57079,0.00003,-0.14511,-0.38001,0.03598,,,,,,,,,,,,,,,,,,,,,,,,,,0,0,0,0,0
4.8495,1783190456.9896,1,1,1.0000,0.0000,1.44679,0.19161,-2.78761,1.02516,1.57079,0.00003,-0.14511,-0.38001,0.03595,,,,,,,,,,,,,,,,,,,,,,,,,,0,0,0,0,0
4.8499,1783190456.9899,1,1,1.0000,0.0000,1.44679,0.19161,-2.78761,1.02516,1.57079,0.00003,-0.14511,-0.38001,0.03595,,,,,,,,,,,,,,,,,,,,,,,,,,0,0,0,0,0
4.8591,1783190456.9991,1,1,1.0000,0.0000,1.44679,0.19139,-2.78766,1.02543,1.57079,0.00003,-0.14511,-0.38001,0.03589,,,,,,,,,,,,,,,,,,,,,,,,,,0,0,0,0,0
4.8715,1783190457.0115,1,1,1.0000,0.0000,1.44679,0.19136,-2.78766,1.02547,1.57079,0.00003,-0.14511,-0.38001,0.03588,,,,,,,,,,,,,,,,,,,,,,,,,,0,0,0,0,0
4.8792,1783190457.0192,1,1,1.0000,0.0000,1.44679,0.19127,-2.78768,1.02558,1.57079,0.00003,-0.14511,-0.38001,0.03586,,,,,,,,,,,,,,,,,,,,,,,,,,0,0,0,0,0
4.8909,1783190457.0309,1,1,1.0000,0.0000,1.44679,0.19115,-2.78771,1.02572,1.57079,0.00003,-0.14511,-0.38001,0.03583,,,,,,,,,,,,,,,,,,,,,,,,,,0,0,0,0,0
4.9006,1783190457.0406,1,1,1.0000,0.0000,1.44679,0.19110,-2.78772,1.02578,1.57079,0.00003,-0.14511,-0.38001,0.03582,,,,,,,,,,,,,,,,,,,,,,,,,,0,0,0,0,0
4.9149,1783190457.0549,1,1,1.0000,0.0000,1.44679,0.19083,-2.78778,1.02611,1.57079,0.00003,-0.14511,-0.38001,0.03576,,,,,,,,,,,,,,,,,,,,,,,,,,0,0,0,0,0
4.9193,1783190457.0593,1,1,1.0000,0.0000,1.44679,0.19076,-2.78780,1.02620,1.57079,0.00003,-0.14511,-0.38001,0.03574,,,,,,,,,,,,,,,,,,,,,,,,,,0,0,0,0,0
4.9312,1783190457.0712,1,1,1.0000,0.0000,1.44679,0.19073,-2.78781,1.02624,1.57079,0.00003,-0.14511,-0.38001,0.03573,,,,,,,,,,,,,,,,,,,,,,,,,,0,0,0,0,0
4.9315,1783190457.0715,1,1,1.0000,0.0000,1.44679,0.19073,-2.78781,1.02624,1.57079,0.00003,-0.14511,-0.38001,0.03573,,,,,,,,,,,,,,,,,,,,,,,,,,0,0,0,0,0
4.9392,1783190457.0793,1,1,1.0000,0.0000,1.44679,0.19064,-2.78783,1.02635,1.57079,0.00003,-0.14511,-0.38001,0.03571,,,,,,,,,,,,,,,,,,,,,,,,,,0,0,0,0,0
4.9579,1783190457.0979,1,1,1.0000,0.0000,1.44679,0.19051,-2.78786,1.02651,1.57079,0.00003,-0.14511,-0.38001,0.03567,,,,,,,,,,,,,,,,,,,,,,,,,,0,0,0,0,0
4.9655,1783190457.1055,1,1,1.0000,0.0000,1.44679,0.19042,-2.78788,1.02662,1.57079,0.00003,-0.14511,-0.38001,0.03565,,,,,,,,,,,,,,,,,,,,,,,,,,0,0,0,0,0
4.9725,1783190457.1126,1,1,1.0000,0.0000,1.44679,0.19028,-2.78791,1.02679,1.57079,0.00003,-0.14511,-0.38001,0.03562,,,,,,,,,,,,,,,,,,,,,,,,,,0,0,0,0,0
4.9797,1783190457.1197,1,1,1.0000,0.0000,1.44679,0.19013,-2.78794,1.02697,1.57079,0.00003,-0.14511,-0.38001,0.03558,,,,,,,,,,,,,,,,,,,,,,,,,,0,0,0,0,0
4.9933,1783190457.1333,1,1,1.0000,0.0000,1.44679,0.19008,-2.78795,1.02703,1.57079,0.00003,-0.14511,-0.38001,0.03557,,,,,,,,,,,,,,,,,,,,,,,,,,0,0,0,0,0
5.0025,1783190457.1425,1,1,1.0000,0.0000,1.44679,0.18997,-2.78798,1.02717,1.57079,0.00003,-0.14511,-0.38001,0.03554,,,,,,,,,,,,,,,,,,,,,,,,,,0,0,0,0,0
5.0092,1783190457.1493,1,1,1.0000,0.0000,1.44679,0.18982,-2.78801,1.02735,1.57079,0.00003,-0.14511,-0.38001,0.03551,,,,,,,,,,,,,,,,,,,,,,,,,,0,0,0,0,0
5.0196,1783190457.1597,1,1,1.0000,0.0000,1.44679,0.18977,-2.78802,1.02741,1.57079,0.00003,-0.14511,-0.38001,0.03549,,,,,,,,,,,,,,,,,,,,,,,,,,0,0,0,0,0
5.0288,1783190457.1688,1,1,1.0000,0.0000,1.44679,0.18966,-2.78805,1.02755,1.57079,0.00003,-0.14511,-0.38001,0.03547,,,,,,,,,,,,,,,,,,,,,,,,,,0,0,0,0,0
5.0400,1783190457.1800,1,1,1.0000,0.0000,1.44679,0.18944,-2.78810,1.02782,1.57079,0.00003,-0.14511,-0.38001,0.03541,,,,,,,,,,,,,,,,,,,,,,,,,,0,0,0,0,0
5.0663,1783190457.2063,1,1,1.0000,0.0000,1.44679,0.18921,-2.78815,1.02811,1.57079,0.00003,-0.14511,-0.38001,0.03536,,,,,,,,,,,,,,,,,,,,,,,,,,0,0,0,0,0
5.0703,1783190457.2103,1,1,1.0000,0.0000,1.44679,0.18913,-2.78817,1.02820,1.57079,0.00003,-0.14511,-0.38001,0.03534,,,,,,,,,,,,,,,,,,,,,,,,,,0,0,0,0,0
5.0800,1783190457.2201,1,1,1.0000,0.0000,1.44679,0.18909,-2.78818,1.02825,1.57079,0.00003,-0.14511,-0.38001,0.03533,,,,,,,,,,,,,,,,,,,,,,,,,,0,0,0,0,0
5.0887,1783190457.2287,1,1,1.0000,0.0000,1.44679,0.18897,-2.78821,1.02840,1.57079,0.00003,-0.14511,-0.38001,0.03530,,,,,,,,,,,,,,,,,,,,,,,,,,0,0,0,0,0
5.1101,1783190457.2501,1,1,1.0000,0.0000,1.44679,0.18874,-2.78826,1.02868,1.57079,0.00003,-0.14511,-0.38001,0.03524,,,,,,,,,,,,,,,,,,,,,,,,,,0,0,0,0,0
5.1124,1783190457.2524,1,1,1.0000,0.0000,1.44679,0.18871,-2.78827,1.02872,1.57079,0.00003,-0.14511,-0.38001,0.03523,,,,,,,,,,,,,,,,,,,,,,,,,,0,0,0,0,0
5.1128,1783190457.2528,1,1,1.0000,0.0000,1.44679,0.18871,-2.78827,1.02872,1.57079,0.00003,-0.14511,-0.38001,0.03523,,,,,,,,,,,,,,,,,,,,,,,,,,0,0,0,0,0
5.1191,1783190457.2591,1,1,1.0000,0.0000,1.44679,0.18859,-2.78829,1.02886,1.57079,0.00003,-0.14511,-0.38001,0.03520,,,,,,,,,,,,,,,,,,,,,,,,,,0,0,0,0,0
5.1292,1783190457.2692,1,1,1.0000,0.0000,1.44679,0.18845,-2.78833,1.02904,1.57079,0.00003,-0.14511,-0.38001,0.03517,,,,,,,,,,,,,,,,,,,,,,,,,,0,0,0,0,0
5.1405,1783190457.2805,1,1,1.0000,0.0000,1.44679,0.18840,-2.78834,1.02910,1.57079,0.00003,-0.14511,-0.38001,0.03516,,,,,,,,,,,,,,,,,,,,,,,,,,0,0,0,0,0
5.1506,1783190457.2906,1,1,1.0000,0.0000,1.44679,0.18828,-2.78836,1.02924,1.57079,0.00003,-0.14511,-0.38001,0.03513,,,,,,,,,,,,,,,,,,,,,,,,,,0,0,0,0,0
5.1616,1783190457.3016,1,1,1.0000,0.0000,1.44679,0.18807,-2.78841,1.02951,1.57079,0.00004,-0.14511,-0.38001,0.03508,,,,,,,,,,,,,,,,,,,,,,,,,,0,0,0,0,0
5.1718,1783190457.3118,1,1,1.0000,0.0000,1.44679,0.18802,-2.78842,1.02956,1.57079,0.00004,-0.14511,-0.38001,0.03506,,,,,,,,,,,,,,,,,,,,,,,,,,0,0,0,0,0
5.1790,1783190457.3190,1,1,1.0000,0.0000,1.44679,0.18790,-2.78845,1.02971,1.57079,0.00004,-0.14511,-0.38001,0.03504,,,,,,,,,,,,,,,,,,,,,,,,,,0,0,0,0,0
5.1897,1783190457.3297,1,1,1.0000,0.0000,1.44679,0.18776,-2.78848,1.02989,1.57079,0.00004,-0.14511,-0.38001,0.03500,,,,,,,,,,,,,,,,,,,,,,,,,,0,0,0,0,0
5.1899,1783190457.3299,1,1,1.0000,0.0000,1.44679,0.18776,-2.78848,1.02989,1.57079,0.00004,-0.14511,-0.38001,0.03500,,,,,,,,,,,,,,,,,,,,,,,,,,0,0,0,0,0
5.1998,1783190457.3398,1,1,1.0000,0.0000,1.44679,0.18771,-2.78849,1.02994,1.57079,0.00004,-0.14511,-0.38001,0.03499,,,,,,,,,,,,,,,,,,,,,,,,,,0,0,0,0,0
5.2098,1783190457.3498,1,1,1.0000,0.0000,1.44679,0.18759,-2.78852,1.03008,1.57079,0.00004,-0.14511,-0.38001,0.03496,,,,,,,,,,,,,,,,,,,,,,,,,,0,0,0,0,0
5.2201,1783190457.3601,1,1,1.0000,0.0000,1.44679,0.18738,-2.78857,1.03035,1.57079,0.00004,-0.14511,-0.38001,0.03491,,,,,,,,,,,,,,,,,,,,,,,,,,0,0,0,0,0
5.2300,1783190457.3700,1,1,1.0000,0.0000,1.44679,0.18736,-2.78857,1.03037,1.57079,0.00004,-0.14511,-0.38001,0.03490,,,,,,,,,,,,,,,,,,,,,,,,,,0,0,0,0,0
5.2432,1783190457.3832,1,1,1.0000,0.0000,1.44679,0.18714,-2.78862,1.03064,1.57079,0.00004,-0.14511,-0.38001,0.03485,,,,,,,,,,,,,,,,,,,,,,,,,,0,0,0,0,0
5.2436,1783190457.3836,1,1,1.0000,0.0000,1.44679,0.18714,-2.78862,1.03064,1.57079,0.00004,-0.14511,-0.38001,0.03485,,,,,,,,,,,,,,,,,,,,,,,,,,0,0,0,0,0
5.2489,1783190457.3889,1,1,1.0000,0.0000,1.44679,0.18707,-2.78864,1.03073,1.57079,0.00004,-0.14511,-0.38001,0.03483,,,,,,,,,,,,,,,,,,,,,,,,,,0,0,0,0,0
5.2659,1783190457.4060,1,1,1.0000,0.0000,1.44679,0.18697,-2.78866,1.03085,1.57079,0.00004,-0.14511,-0.38001,0.03481,,,,,,,,,,,,,,,,,,,,,,,,,,0,0,0,0,0
5.2695,1783190457.4095,1,1,1.0000,0.0000,1.44679,0.18690,-2.78867,1.03093,1.57079,0.00004,-0.14511,-0.38001,0.03479,,,,,,,,,,,,,,,,,,,,,,,,,,0,0,0,0,0
5.2813,1783190457.4214,1,1,1.0000,0.0000,1.44679,0.18669,-2.78872,1.03120,1.57079,0.00004,-0.14511,-0.38001,0.03474,,,,,,,,,,,,,,,,,,,,,,,,,,0,0,0,0,0
5.2915,1783190457.4315,1,1,1.0000,0.0000,1.44679,0.18664,-2.78873,1.03125,1.57079,0.00004,-0.14511,-0.38001,0.03473,,,,,,,,,,,,,,,,,,,,,,,,,,0,0,0,0,0
5.3002,1783190457.4402,1,1,1.0000,0.0000,1.44679,0.18652,-2.78876,1.03140,1.57079,0.00004,-0.14511,-0.38001,0.03470,,,,,,,,,,,,,,,,,,,,,,,,,,0,0,0,0,0
5.3113,1783190457.4513,1,1,1.0000,0.0000,1.44679,0.18638,-2.78879,1.03158,1.57079,0.00004,-0.14511,-0.38001,0.03466,,,,,,,,,,,,,,,,,,,,,,,,,,0,0,0,0,0
5.3225,1783190457.4625,1,1,1.0000,0.0000,1.44679,0.18633,-2.78880,1.03163,1.57079,0.00004,-0.14511,-0.38001,0.03465,,,,,,,,,,,,,,,,,,,,,,,,,,0,0,0,0,0
5.3286,1783190457.4686,1,1,1.0000,0.0000,1.44679,0.18621,-2.78883,1.03177,1.57079,0.00004,-0.14511,-0.38001,0.03462,,,,,,,,,,,,,,,,,,,,,,,,,,0,0,0,0,0
5.3422,1783190457.4823,1,1,1.0000,0.0000,1.44679,0.18600,-2.78888,1.03204,1.57079,0.00004,-0.14511,-0.38001,0.03457,,,,,,,,,,,,,,,,,,,,,,,,,,0,0,0,0,0
5.3529,1783190457.4929,1,1,1.0000,0.0000,1.44679,0.18595,-2.78889,1.03210,1.57079,0.00004,-0.14511,-0.38001,0.03456,,,,,,,,,,,,,,,,,,,,,,,,,,0,0,0,0,0
5.3532,1783190457.4932,1,1,1.0000,0.0000,1.44679,0.18595,-2.78889,1.03210,1.57079,0.00004,-0.14511,-0.38001,0.03456,,,,,,,,,,,,,,,,,,,,,,,,,,0,0,0,0,0
5.3686,1783190457.5086,1,1,1.0000,0.0000,1.44679,0.18569,-2.78895,1.03242,1.57079,0.00004,-0.14511,-0.38001,0.03449,,,,,,,,,,,,,,,,,,,,,,,,,,0,0,0,0,0
5.3735,1783190457.5135,1,1,1.0000,0.0000,1.44679,0.18561,-2.78896,1.03251,1.57079,0.00004,-0.14511,-0.38001,0.03447,,,,,,,,,,,,,,,,,,,,,,,,,,0,0,0,0,0
5.3839,1783190457.5239,1,1,1.0000,0.0000,1.44679,0.18558,-2.78897,1.03255,1.57079,0.00004,-0.14511,-0.38001,0.03447,,,,,,,,,,,,,,,,,,,,,,,,,,0,0,0,0,0
5.3960,1783190457.5360,1,1,1.0000,0.0000,1.44679,0.18543,-2.78900,1.03273,1.57079,0.00004,-0.14511,-0.38001,0.03443,,,,,,,,,,,,,,,,,,,,,,,,,,0,0,0,0,0
5.4123,1783190457.5523,1,1,1.0000,0.0000,1.44679,0.18532,-2.78903,1.03287,1.57079,0.00004,-0.14511,-0.38001,0.03440,,,,,,,,,,,,,,,,,,,,,,,,,,0,0,0,0,0
5.4127,1783190457.5528,1,1,1.0000,0.0000,1.44679,0.18532,-2.78903,1.03287,1.57079,0.00004,-0.14511,-0.38001,0.03440,,,,,,,,,,,,,,,,,,,,,,,,,,0,0,0,0,0
5.4136,1783190457.5537,1,1,1.0000,0.0000,1.44679,0.18532,-2.78903,1.03287,1.57079,0.00004,-0.14511,-0.38001,0.03440,,,,,,,,,,,,,,,,,,,,,,,,,,0,0,0,0,0
5.4209,1783190457.5610,1,1,1.0000,0.0000,1.44679,0.18520,-2.78906,1.03302,1.57079,0.00004,-0.14511,-0.38001,0.03437,,,,,,,,,,,,,,,,,,,,,,,,,,0,0,0,0,0
5.4213,1783190457.5613,1,1,1.0000,0.0000,1.44679,0.18520,-2.78906,1.03302,1.57079,0.00004,-0.14511,-0.38001,0.03437,,,,,,,,,,,,,,,,,,,,,,,,,,0,0,0,0,0
5.4296,1783190457.5696,1,1,1.0000,0.0000,1.44679,0.18505,-2.78909,1.03320,1.57079,0.00004,-0.14511,-0.38001,0.03434,,,,,,,,,,,,,,,,,,,,,,,,,,0,0,0,0,0
