Martins-Lucaas/twinforge/sensors/Data/20260704_155323__samples.csv
t_rel_s,t_unix,cycle,phase,setpoint_n,force_net_n,q1,q2,q3,q4,q5,q6,tcp_x,tcp_y,tcp_z,taxel_0,taxel_1,taxel_2,taxel_3,taxel_4,taxel_5,taxel_6,taxel_7,taxel_8,taxel_9,taxel_10,taxel_11,taxel_12,taxel_13,taxel_14,taxel_15,taxel_16,taxel_17,taxel_18,taxel_19,taxel_20,taxel_21,taxel_22,taxel_23,taxel_24,n_RA,n_SA,cn_mm,cn_ra,cn_sa
0.0009,1783191203.5087,0,-1,1.0000,0.0000,1.44682,0.23328,-2.77748,0.97337,1.57080,0.00000,-0.14512,-0.38003,0.04653,,,,,,,,,,,,,,,,,,,,,,,,,,0,0,0,0,0
0.0115,1783191203.5193,1,0,1.0000,0.0000,1.44682,0.23328,-2.77748,0.97337,1.57080,0.00000,-0.14512,-0.38003,0.04653,,,,,,,,,,,,,,,,,,,,,,,,,,0,0,0,0,0
0.0194,1783191203.5272,1,0,1.0000,0.0000,1.44682,0.23328,-2.77748,0.97337,1.57080,0.00000,-0.14512,-0.38003,0.04653,,,,,,,,,,,,,,,,,,,,,,,,,,0,0,0,0,0
0.0331,1783191203.5408,1,0,1.0000,0.0000,1.44682,0.23328,-2.77748,0.97337,1.57080,0.00000,-0.14512,-0.38003,0.04653,,,,,,,,,,,,,,,,,,,,,,,,,,0,0,0,0,0
0.0334,1783191203.5412,1,0,1.0000,0.0000,1.44682,0.23328,-2.77748,0.97337,1.57080,0.00000,-0.14512,-0.38003,0.04653,,,,,,,,,,,,,,,,,,,,,,,,,,0,0,0,0,0
0.0401,1783191203.5479,1,0,1.0000,0.0000,1.44682,0.23328,-2.77748,0.97337,1.57080,0.00000,-0.14512,-0.38003,0.04653,,,,,,,,,,,,,,,,,,,,,,,,,,0,0,0,0,0
0.0494,1783191203.5572,1,0,1.0000,0.0000,1.44682,0.23328,-2.77748,0.97337,1.57080,0.00000,-0.14512,-0.38003,0.04653,,,,,,,,,,,,,,,,,,,,,,,,,,0,0,0,0,0
0.0599,1783191203.5677,1,0,1.0000,0.0000,1.44682,0.23328,-2.77748,0.97337,1.57080,0.00000,-0.14512,-0.38003,0.04653,,,,,,,,,,,,,,,,,,,,,,,,,,0,0,0,0,0
0.0703,1783191203.5781,1,0,1.0000,0.0000,1.44682,0.23328,-2.77748,0.97337,1.57080,0.00000,-0.14512,-0.38003,0.04653,,,,,,,,,,,,,,,,,,,,,,,,,,0,0,0,0,0
0.0796,1783191203.5874,1,0,1.0000,0.0000,1.44682,0.23328,-2.77748,0.97337,1.57080,0.00000,-0.14512,-0.38003,0.04653,,,,,,,,,,,,,,,,,,,,,,,,,,0,0,0,0,0
0.0902,1783191203.5980,1,0,1.0000,0.0000,1.44682,0.23328,-2.77748,0.97337,1.57080,0.00000,-0.14512,-0.38003,0.04653,,,,,,,,,,,,,,,,,,,,,,,,,,0,0,0,0,0
0.1033,1783191203.6111,1,0,1.0000,0.0000,1.44682,0.23328,-2.77748,0.97337,1.57080,0.00000,-0.14512,-0.38003,0.04653,,,,,,,,,,,,,,,,,,,,,,,,,,0,0,0,0,0
0.1104,1783191203.6182,1,0,1.0000,0.0000,1.44682,0.23328,-2.77748,0.97337,1.57080,0.00000,-0.14512,-0.38003,0.04653,,,,,,,,,,,,,,,,,,,,,,,,,,0,0,0,0,0
0.1220,1783191203.6298,1,0,1.0000,0.0000,1.44682,0.23328,-2.77748,0.97337,1.57080,0.00000,-0.14512,-0.38003,0.04653,,,,,,,,,,,,,,,,,,,,,,,,,,0,0,0,0,0
0.1313,1783191203.6391,1,0,1.0000,0.0000,1.44682,0.23328,-2.77748,0.97337,1.57080,0.00000,-0.14512,-0.38003,0.04653,,,,,,,,,,,,,,,,,,,,,,,,,,0,0,0,0,0
0.1406,1783191203.6484,1,0,1.0000,0.0000,1.44682,0.23328,-2.77748,0.97337,1.57080,0.00000,-0.14512,-0.38003,0.04653,,,,,,,,,,,,,,,,,,,,,,,,,,0,0,0,0,0
0.1409,1783191203.6487,1,0,1.0000,0.0000,1.44682,0.23328,-2.77748,0.97337,1.57080,0.00000,-0.14512,-0.38003,0.04653,,,,,,,,,,,,,,,,,,,,,,,,,,0,0,0,0,0
0.1523,1783191203.6601,1,0,1.0000,0.0000,1.44682,0.23328,-2.77748,0.97337,1.57080,0.00000,-0.14512,-0.38003,0.04653,,,,,,,,,,,,,,,,,,,,,,,,,,0,0,0,0,0
0.1635,1783191203.6713,1,0,1.0000,0.0000,1.44682,0.23328,-2.77748,0.97337,1.57080,-0.00000,-0.14512,-0.38003,0.04653,,,,,,,,,,,,,,,,,,,,,,,,,,0,0,0,0,0
0.1638,1783191203.6716,1,0,1.0000,0.0000,1.44682,0.23328,-2.77748,0.97337,1.57080,-0.00000,-0.14512,-0.38003,0.04653,,,,,,,,,,,,,,,,,,,,,,,,,,0,0,0,0,0
0.1725,1783191203.6803,1,0,1.0000,0.0000,1.44682,0.23328,-2.77748,0.97337,1.57080,-0.00000,-0.14512,-0.38003,0.04653,,,,,,,,,,,,,,,,,,,,,,,,,,0,0,0,0,0
0.1729,1783191203.6806,1,0,1.0000,0.0000,1.44682,0.23328,-2.77748,0.97337,1.57080,-0.00000,-0.14512,-0.38003,0.04653,,,,,,,,,,,,,,,,,,,,,,,,,,0,0,0,0,0
0.1794,1783191203.6871,1,0,1.0000,0.0000,1.44682,0.23328,-2.77748,0.97337,1.57080,-0.00000,-0.14512,-0.38003,0.04653,,,,,,,,,,,,,,,,,,,,,,,,,,0,0,0,0,0
0.1797,1783191203.6875,1,0,1.0000,0.0000,1.44682,0.23328,-2.77748,0.97337,1.57080,-0.00000,-0.14512,-0.38003,0.04653,,,,,,,,,,,,,,,,,,,,,,,,,,0,0,0,0,0
0.1923,1783191203.7001,1,0,1.0000,0.0000,1.44682,0.23328,-2.77748,0.97337,1.57080,0.00000,-0.14512,-0.38003,0.04653,,,,,,,,,,,,,,,,,,,,,,,,,,0,0,0,0,0
0.2063,1783191203.7141,1,0,1.0000,0.0000,1.44682,0.23328,-2.77748,0.97337,1.57080,0.00000,-0.14512,-0.38003,0.04653,,,,,,,,,,,,,,,,,,,,,,,,,,0,0,0,0,0
0.2096,1783191203.7173,1,0,1.0000,0.0000,1.44682,0.23328,-2.77748,0.97337,1.57080,0.00000,-0.14512,-0.38003,0.04653,,,,,,,,,,,,,,,,,,,,,,,,,,0,0,0,0,0
0.2194,1783191203.7272,1,0,1.0000,0.0000,1.44682,0.23328,-2.77748,0.97337,1.57080,0.00000,-0.14512,-0.38003,0.04653,,,,,,,,,,,,,,,,,,,,,,,,,,0,0,0,0,0
0.2197,1783191203.7275,1,0,1.0000,0.0000,1.44682,0.23328,-2.77748,0.97337,1.57080,0.00000,-0.14512,-0.38003,0.04653,,,,,,,,,,,,,,,,,,,,,,,,,,0,0,0,0,0
0.2319,1783191203.7396,1,0,1.0000,0.0000,1.44682,0.23328,-2.77748,0.97337,1.57080,0.00000,-0.14512,-0.38003,0.04653,,,,,,,,,,,,,,,,,,,,,,,,,,0,0,0,0,0
0.2418,1783191203.7495,1,0,1.0000,0.0000,1.44682,0.23328,-2.77748,0.97337,1.57080,-0.00000,-0.14512,-0.38003,0.04653,,,,,,,,,,,,,,,,,,,,,,,,,,0,0,0,0,0
0.2424,1783191203.7501,1,0,1.0000,0.0000,1.44682,0.23328,-2.77748,0.97337,1.57080,0.00000,-0.14512,-0.38003,0.04653,,,,,,,,,,,,,,,,,,,,,,,,,,0,0,0,0,0
0.2506,1783191203.7584,1,0,1.0000,0.0000,1.44682,0.23328,-2.77748,0.97337,1.57080,0.00000,-0.14512,-0.38003,0.04653,,,,,,,,,,,,,,,,,,,,,,,,,,0,0,0,0,0
0.2509,1783191203.7587,1,0,1.0000,0.0000,1.44682,0.23328,-2.77748,0.97337,1.57080,0.00000,-0.14512,-0.38003,0.04653,,,,,,,,,,,,,,,,,,,,,,,,,,0,0,0,0,0
0.2605,1783191203.7683,1,0,1.0000,0.0000,1.44682,0.23328,-2.77748,0.97337,1.57080,0.00000,-0.14512,-0.38003,0.04653,,,,,,,,,,,,,,,,,,,,,,,,,,0,0,0,0,0
0.2744,1783191203.7822,1,0,1.0000,0.0000,1.44682,0.23328,-2.77748,0.97337,1.57080,0.00000,-0.14512,-0.38003,0.04653,,,,,,,,,,,,,,,,,,,,,,,,,,0,0,0,0,0
0.2746,1783191203.7824,1,0,1.0000,0.0000,1.44682,0.23328,-2.77748,0.97337,1.57080,0.00000,-0.14512,-0.38003,0.04653,,,,,,,,,,,,,,,,,,,,,,,,,,0,0,0,0,0
0.2801,1783191203.7879,1,0,1.0000,0.0000,1.44682,0.23328,-2.77748,0.97337,1.57080,0.00000,-0.14512,-0.38003,0.04653,,,,,,,,,,,,,,,,,,,,,,,,,,0,0,0,0,0
0.2803,1783191203.7881,1,0,1.0000,0.0000,1.44682,0.23328,-2.77748,0.97337,1.57080,0.00000,-0.14512,-0.38003,0.04653,,,,,,,,,,,,,,,,,,,,,,,,,,0,0,0,0,0
0.2902,1783191203.7980,1,0,1.0000,0.0000,1.44682,0.23328,-2.77748,0.97337,1.57080,0.00000,-0.14512,-0.38003,0.04653,,,,,,,,,,,,,,,,,,,,,,,,,,0,0,0,0,0
0.2905,1783191203.7983,1,0,1.0000,0.0000,1.44682,0.23328,-2.77748,0.97337,1.57080,0.00000,-0.14512,-0.38003,0.04653,,,,,,,,,,,,,,,,,,,,,,,,,,0,0,0,0,0
0.3034,1783191203.8112,1,0,1.0000,0.0000,1.44682,0.23328,-2.77748,0.97337,1.57080,0.00000,-0.14512,-0.38003,0.04653,,,,,,,,,,,,,,,,,,,,,,,,,,0,0,0,0,0
0.3038,1783191203.8116,1,0,1.0000,0.0000,1.44682,0.23328,-2.77748,0.97337,1.57080,0.00000,-0.14512,-0.38003,0.04653,,,,,,,,,,,,,,,,,,,,,,,,,,0,0,0,0,0
0.3095,1783191203.8173,1,0,1.0000,0.0000,1.44682,0.23328,-2.77748,0.97337,1.57080,0.00000,-0.14512,-0.38003,0.04653,,,,,,,,,,,,,,,,,,,,,,,,,,0,0,0,0,0
0.3212,1783191203.8290,1,0,1.0000,0.0000,1.44682,0.23328,-2.77748,0.97337,1.57080,0.00000,-0.14512,-0.38003,0.04653,,,,,,,,,,,,,,,,,,,,,,,,,,0,0,0,0,0
0.3310,1783191203.8388,1,0,1.0000,0.0000,1.44682,0.23328,-2.77748,0.97337,1.57080,0.00000,-0.14512,-0.38003,0.04653,,,,,,,,,,,,,,,,,,,,,,,,,,0,0,0,0,0
0.3312,1783191203.8390,1,0,1.0000,0.0000,1.44682,0.23328,-2.77748,0.97337,1.57080,0.00000,-0.14512,-0.38003,0.04653,,,,,,,,,,,,,,,,,,,,,,,,,,0,0,0,0,0
0.3630,1783191203.8708,1,0,1.0000,0.0000,1.44682,0.23328,-2.77748,0.97337,1.57080,0.00000,-0.14512,-0.38003,0.04653,,,,,,,,,,,,,,,,,,,,,,,,,,0,0,0,0,0
0.3634,1783191203.8712,1,0,1.0000,0.0000,1.44682,0.23328,-2.77748,0.97337,1.57080,0.00000,-0.14512,-0.38003,0.04653,,,,,,,,,,,,,,,,,,,,,,,,,,0,0,0,0,0
0.3677,1783191203.8755,1,0,1.0000,0.0000,1.44682,0.23328,-2.77748,0.97337,1.57080,0.00000,-0.14512,-0.38003,0.04653,,,,,,,,,,,,,,,,,,,,,,,,,,0,0,0,0,0
0.3681,1783191203.8759,1,0,1.0000,0.0000,1.44682,0.23328,-2.77748,0.97337,1.57080,0.00000,-0.14512,-0.38003,0.04653,,,,,,,,,,,,,,,,,,,,,,,,,,0,0,0,0,0
0.3745,1783191203.8823,1,0,1.0000,0.0000,1.44682,0.23328,-2.77748,0.97337,1.57080,0.00000,-0.14512,-0.38003,0.04653,,,,,,,,,,,,,,,,,,,,,,,,,,0,0,0,0,0
0.3748,1783191203.8826,1,0,1.0000,0.0000,1.44682,0.23328,-2.77748,0.97337,1.57080,0.00000,-0.14512,-0.38003,0.04653,,,,,,,,,,,,,,,,,,,,,,,,,,0,0,0,0,0
0.3991,1783191203.9069,1,0,1.0000,0.0000,1.44682,0.23328,-2.77748,0.97337,1.57080,0.00000,-0.14512,-0.38003,0.04653,,,,,,,,,,,,,,,,,,,,,,,,,,0,0,0,0,0
0.3994,1783191203.9072,1,0,1.0000,0.0000,1.44682,0.23328,-2.77748,0.97337,1.57080,0.00000,-0.14512,-0.38003,0.04653,,,,,,,,,,,,,,,,,,,,,,,,,,0,0,0,0,0
0.4065,1783191203.9143,1,0,1.0000,0.0000,1.44682,0.23328,-2.77748,0.97337,1.57080,0.00000,-0.14512,-0.38003,0.04653,,,,,,,,,,,,,,,,,,,,,,,,,,0,0,0,0,0
0.4068,1783191203.9146,1,0,1.0000,0.0000,1.44682,0.23328,-2.77748,0.97337,1.57080,0.00000,-0.14512,-0.38003,0.04653,,,,,,,,,,,,,,,,,,,,,,,,,,0,0,0,0,0
0.4147,1783191203.9225,1,0,1.0000,0.0000,1.44682,0.23328,-2.77748,0.97337,1.57080,0.00000,-0.14512,-0.38003,0.04653,,,,,,,,,,,,,,,,,,,,,,,,,,0,0,0,0,0
0.4150,1783191203.9228,1,0,1.0000,0.0000,1.44682,0.23328,-2.77748,0.97337,1.57080,0.00000,-0.14512,-0.38003,0.04653,,,,,,,,,,,,,,,,,,,,,,,,,,0,0,0,0,0
0.4281,1783191203.9358,1,0,1.0000,0.0000,1.44682,0.23328,-2.77748,0.97337,1.57080,0.00000,-0.14512,-0.38003,0.04653,,,,,,,,,,,,,,,,,,,,,,,,,,0,0,0,0,0
0.4378,1783191203.9455,1,0,1.0000,0.0000,1.44682,0.23328,-2.77748,0.97337,1.57080,0.00000,-0.14512,-0.38003,0.04653,,,,,,,,,,,,,,,,,,,,,,,,,,0,0,0,0,0
0.4467,1783191203.9545,1,0,1.0000,0.0000,1.44682,0.23328,-2.77748,0.97337,1.57080,0.00000,-0.14512,-0.38003,0.04653,,,,,,,,,,,,,,,,,,,,,,,,,,0,0,0,0,0
0.4583,1783191203.9661,1,0,1.0000,0.0000,1.44682,0.23328,-2.77748,0.97337,1.57080,0.00000,-0.14512,-0.38003,0.04653,,,,,,,,,,,,,,,,,,,,,,,,,,0,0,0,0,0
0.4586,1783191203.9664,1,0,1.0000,0.0000,1.44682,0.23328,-2.77748,0.97337,1.57080,0.00000,-0.14512,-0.38003,0.04653,,,,,,,,,,,,,,,,,,,,,,,,,,0,0,0,0,0
0.4645,1783191203.9723,1,0,1.0000,0.0000,1.44682,0.23328,-2.77748,0.97337,1.57080,0.00000,-0.14512,-0.38003,0.04653,,,,,,,,,,,,,,,,,,,,,,,,,,0,0,0,0,0
0.4745,1783191203.9823,1,0,1.0000,0.0000,1.44682,0.23328,-2.77748,0.97337,1.57080,0.00000,-0.14512,-0.38003,0.04653,,,,,,,,,,,,,,,,,,,,,,,,,,0,0,0,0,0
0.4864,1783191203.9941,1,0,1.0000,0.0000,1.44682,0.23328,-2.77748,0.97337,1.57080,0.00000,-0.14512,-0.38003,0.04653,,,,,,,,,,,,,,,,,,,,,,,,,,0,0,0,0,0
0.4867,1783191203.9945,1,0,1.0000,0.0000,1.44682,0.23328,-2.77748,0.97337,1.57080,0.00000,-0.14512,-0.38003,0.04653,,,,,,,,,,,,,,,,,,,,,,,,,,0,0,0,0,0
0.4995,1783191204.0073,1,0,1.0000,0.0000,1.44682,0.23328,-2.77748,0.97337,1.57080,0.00000,-0.14512,-0.38003,0.04653,,,,,,,,,,,,,,,,,,,,,,,,,,0,0,0,0,0
0.4998,1783191204.0075,1,0,1.0000,0.0000,1.44682,0.23328,-2.77748,0.97337,1.57080,0.00000,-0.14512,-0.38003,0.04653,,,,,,,,,,,,,,,,,,,,,,,,,,0,0,0,0,0
0.5075,1783191204.0153,1,0,1.0000,0.0000,1.44682,0.23328,-2.77748,0.97337,1.57080,0.00000,-0.14512,-0.38003,0.04653,,,,,,,,,,,,,,,,,,,,,,,,,,0,0,0,0,0
0.5078,1783191204.0155,1,0,1.0000,0.0000,1.44682,0.23328,-2.77748,0.97337,1.57080,0.00000,-0.14512,-0.38003,0.04653,,,,,,,,,,,,,,,,,,,,,,,,,,0,0,0,0,0
0.5183,1783191204.0261,1,0,1.0000,0.0000,1.44682,0.23328,-2.77748,0.97337,1.57080,0.00000,-0.14512,-0.38003,0.04653,,,,,,,,,,,,,,,,,,,,,,,,,,0,0,0,0,0
0.5247,1783191204.0325,1,0,1.0000,0.0000,1.44682,0.23328,-2.77748,0.97337,1.57080,0.00000,-0.14512,-0.38003,0.04653,,,,,,,,,,,,,,,,,,,,,,,,,,0,0,0,0,0
0.5338,1783191204.0416,1,0,1.0000,0.0000,1.44682,0.23328,-2.77748,0.97337,1.57080,0.00000,-0.14512,-0.38003,0.04653,,,,,,,,,,,,,,,,,,,,,,,,,,0,0,0,0,0
0.5345,1783191204.0423,1,0,1.0000,0.0000,1.44682,0.23328,-2.77748,0.97337,1.57080,0.00000,-0.14512,-0.38003,0.04653,,,,,,,,,,,,,,,,,,,,,,,,,,0,0,0,0,0
0.5446,1783191204.0524,1,0,1.0000,0.0000,1.44682,0.23328,-2.77748,0.97337,1.57080,0.00000,-0.14512,-0.38003,0.04653,,,,,,,,,,,,,,,,,,,,,,,,,,0,0,0,0,0
0.5582,1783191204.0660,1,0,1.0000,0.0000,1.44682,0.23328,-2.77748,0.97337,1.57080,0.00000,-0.14512,-0.38003,0.04653,,,,,,,,,,,,,,,,,,,,,,,,,,0,0,0,0,0
0.5585,1783191204.0663,1,0,1.0000,0.0000,1.44682,0.23328,-2.77748,0.97337,1.57080,0.00000,-0.14512,-0.38003,0.04653,,,,,,,,,,,,,,,,,,,,,,,,,,0,0,0,0,0
0.5629,1783191204.0707,1,0,1.0000,0.0000,1.44682,0.23328,-2.77748,0.97337,1.57080,0.00000,-0.14512,-0.38003,0.04653,,,,,,,,,,,,,,,,,,,,,,,,,,0,0,0,0,0
0.5631,1783191204.0709,1,0,1.0000,0.0000,1.44682,0.23328,-2.77748,0.97337,1.57080,0.00000,-0.14512,-0.38003,0.04653,,,,,,,,,,,,,,,,,,,,,,,,,,0,0,0,0,0
0.5749,1783191204.0826,1,0,1.0000,0.0000,1.44682,0.23328,-2.77748,0.97337,1.57080,0.00000,-0.14512,-0.38003,0.04653,,,,,,,,,,,,,,,,,,,,,,,,,,0,0,0,0,0
0.5752,1783191204.0830,1,0,1.0000,0.0000,1.44682,0.23328,-2.77748,0.97337,1.57080,0.00000,-0.14512,-0.38003,0.04653,,,,,,,,,,,,,,,,,,,,,,,,,,0,0,0,0,0
0.5840,1783191204.0917,1,0,1.0000,0.0000,1.44682,0.23328,-2.77748,0.97337,1.57080,0.00000,-0.14512,-0.38003,0.04653,,,,,,,,,,,,,,,,,,,,,,,,,,0,0,0,0,0
0.5977,1783191204.1055,1,0,1.0000,0.0000,1.44682,0.23328,-2.77748,0.97337,1.57080,0.00000,-0.14512,-0.38003,0.04653,,,,,,,,,,,,,,,,,,,,,,,,,,0,0,0,0,0
0.6051,1783191204.1129,1,0,1.0000,0.0000,1.44682,0.23328,-2.77748,0.97337,1.57080,0.00000,-0.14512,-0.38003,0.04653,,,,,,,,,,,,,,,,,,,,,,,,,,0,0,0,0,0
0.6055,1783191204.1133,1,0,1.0000,0.0000,1.44682,0.23328,-2.77748,0.97337,1.57080,0.00000,-0.14512,-0.38003,0.04653,,,,,,,,,,,,,,,,,,,,,,,,,,0,0,0,0,0
0.6143,1783191204.1221,1,0,1.0000,0.0000,1.44682,0.23328,-2.77748,0.97337,1.57080,0.00000,-0.14512,-0.38003,0.04653,,,,,,,,,,,,,,,,,,,,,,,,,,0,0,0,0,0
0.6241,1783191204.1319,1,0,1.0000,0.0000,1.44682,0.23328,-2.77748,0.97337,1.57080,0.00000,-0.14512,-0.38003,0.04653,,,,,,,,,,,,,,,,,,,,,,,,,,0,0,0,0,0
0.6332,1783191204.1410,1,0,1.0000,0.0000,1.44682,0.23328,-2.77748,0.97337,1.57080,0.00000,-0.14512,-0.38003,0.04653,,,,,,,,,,,,,,,,,,,,,,,,,,0,0,0,0,0
0.6431,1783191204.1509,1,0,1.0000,0.0000,1.44682,0.23328,-2.77748,0.97337,1.57080,0.00000,-0.14512,-0.38003,0.04653,,,,,,,,,,,,,,,,,,,,,,,,,,0,0,0,0,0
0.6602,1783191204.1680,1,0,1.0000,0.0000,1.44682,0.23328,-2.77748,0.97337,1.57080,0.00000,-0.14512,-0.38003,0.04653,,,,,,,,,,,,,,,,,,,,,,,,,,0,0,0,0,0
0.6649,1783191204.1727,1,0,1.0000,0.0000,1.44682,0.23328,-2.77748,0.97337,1.57080,0.00000,-0.14512,-0.38003,0.04653,,,,,,,,,,,,,,,,,,,,,,,,,,0,0,0,0,0
0.6730,1783191204.1808,1,0,1.0000,0.0000,1.44682,0.23328,-2.77748,0.97337,1.57080,0.00000,-0.14512,-0.38003,0.04653,,,,,,,,,,,,,,,,,,,,,,,,,,0,0,0,0,0
0.6846,1783191204.1924,1,0,1.0000,0.0000,1.44682,0.23328,-2.77748,0.97337,1.57080,0.00000,-0.14512,-0.38003,0.04653,,,,,,,,,,,,,,,,,,,,,,,,,,0,0,0,0,0
0.6943,1783191204.2021,1,0,1.0000,0.0000,1.44682,0.23328,-2.77748,0.97337,1.57080,0.00000,-0.14512,-0.38003,0.04653,,,,,,,,,,,,,,,,,,,,,,,,,,0,0,0,0,0
0.7042,1783191204.2119,1,0,1.0000,0.0000,1.44682,0.23328,-2.77748,0.97337,1.57080,0.00000,-0.14512,-0.38003,0.04653,,,,,,,,,,,,,,,,,,,,,,,,,,0,0,0,0,0
0.7132,1783191204.2210,1,0,1.0000,0.0000,1.44682,0.23328,-2.77748,0.97337,1.57080,0.00000,-0.14512,-0.38003,0.04653,,,,,,,,,,,,,,,,,,,,,,,,,,0,0,0,0,0
0.7258,1783191204.2335,1,0,1.0000,0.0000,1.44682,0.23328,-2.77748,0.97337,1.57080,0.00000,-0.14512,-0.38003,0.04653,,,,,,,,,,,,,,,,,,,,,,,,,,0,0,0,0,0
0.7353,1783191204.2431,1,1,1.0000,0.0000,1.44682,0.23328,-2.77748,0.97337,1.57080,0.00000,-0.14512,-0.38003,0.04653,,,,,,,,,,,,,,,,,,,,,,,,,,0,0,0,0,0
0.7439,1783191204.2517,1,1,1.0000,0.0000,1.44682,0.23328,-2.77748,0.97337,1.57080,0.00000,-0.14512,-0.38003,0.04653,,,,,,,,,,,,,,,,,,,,,,,,,,0,0,0,0,0
0.7443,1783191204.2521,1,1,1.0000,0.0000,1.44682,0.23328,-2.77748,0.97337,1.57080,0.00000,-0.14512,-0.38003,0.04653,,,,,,,,,,,,,,,,,,,,,,,,,,0,0,0,0,0
0.7542,1783191204.2620,1,1,1.0000,0.0000,1.44682,0.23328,-2.77748,0.97337,1.57080,0.00000,-0.14512,-0.38003,0.04653,,,,,,,,,,,,,,,,,,,,,,,,,,0,0,0,0,0
0.7632,1783191204.2709,1,1,1.0000,0.0000,1.44682,0.23328,-2.77748,0.97337,1.57080,0.00000,-0.14512,-0.38003,0.04653,,,,,,,,,,,,,,,,,,,,,,,,,,0,0,0,0,0
0.7726,1783191204.2804,1,1,1.0000,0.0000,1.44682,0.23328,-2.77748,0.97337,1.57080,0.00000,-0.14512,-0.38003,0.04653,,,,,,,,,,,,,,,,,,,,,,,,,,0,0,0,0,0
0.7730,1783191204.2808,1,1,1.0000,0.0000,1.44682,0.23328,-2.77748,0.97337,1.57080,0.00000,-0.14512,-0.38003,0.04653,,,,,,,,,,,,,,,,,,,,,,,,,,0,0,0,0,0
0.7831,1783191204.2909,1,1,1.0000,0.0000,1.44682,0.23328,-2.77748,0.97337,1.57080,0.00000,-0.14512,-0.38003,0.04653,,,,,,,,,,,,,,,,,,,,,,,,,,0,0,0,0,0
0.7834,1783191204.2912,1,1,1.0000,0.0000,1.44682,0.23328,-2.77748,0.97337,1.57080,0.00000,-0.14512,-0.38003,0.04653,,,,,,,,,,,,,,,,,,,,,,,,,,0,0,0,0,0
0.7930,1783191204.3008,1,1,1.0000,0.0000,1.44682,0.23328,-2.77748,0.97337,1.57080,0.00000,-0.14512,-0.38003,0.04653,,,,,,,,,,,,,,,,,,,,,,,,,,0,0,0,0,0
0.8108,1783191204.3186,1,1,1.0000,0.0000,1.44682,0.23328,-2.77748,0.97337,1.57080,0.00000,-0.14512,-0.38003,0.04653,,,,,,,,,,,,,,,,,,,,,,,,,,0,0,0,0,0
0.8143,1783191204.3220,1,1,1.0000,0.0000,1.44682,0.23328,-2.77748,0.97337,1.57080,0.00000,-0.14512,-0.38003,0.04653,,,,,,,,,,,,,,,,,,,,,,,,,,0,0,0,0,0
0.8234,1783191204.3312,1,1,1.0000,0.0000,1.44682,0.23328,-2.77748,0.97337,1.57080,0.00000,-0.14512,-0.38003,0.04653,,,,,,,,,,,,,,,,,,,,,,,,,,0,0,0,0,0
0.8238,1783191204.3316,1,1,1.0000,0.0000,1.44682,0.23328,-2.77748,0.97337,1.57080,0.00000,-0.14512,-0.38003,0.04653,,,,,,,,,,,,,,,,,,,,,,,,,,0,0,0,0,0
0.8342,1783191204.3420,1,1,1.0000,0.0000,1.44682,0.23328,-2.77748,0.97337,1.57080,0.00000,-0.14512,-0.38003,0.04653,,,,,,,,,,,,,,,,,,,,,,,,,,0,0,0,0,0
0.8428,1783191204.3506,1,1,1.0000,0.0000,1.44682,0.23328,-2.77748,0.97337,1.57080,0.00000,-0.14512,-0.38003,0.04653,,,,,,,,,,,,,,,,,,,,,,,,,,0,0,0,0,0
0.8431,1783191204.3509,1,1,1.0000,0.0000,1.44682,0.23328,-2.77748,0.97337,1.57080,0.00000,-0.14512,-0.38003,0.04653,,,,,,,,,,,,,,,,,,,,,,,,,,0,0,0,0,0
0.8572,1783191204.3650,1,1,1.0000,0.0000,1.44682,0.23328,-2.77748,0.97337,1.57080,0.00000,-0.14512,-0.38003,0.04653,,,,,,,,,,,,,,,,,,,,,,,,,,0,0,0,0,0
0.8650,1783191204.3728,1,1,1.0000,0.0000,1.44682,0.23328,-2.77748,0.97337,1.57080,0.00000,-0.14512,-0.38003,0.04653,,,,,,,,,,,,,,,,,,,,,,,,,,0,0,0,0,0
0.8738,1783191204.3816,1,1,1.0000,0.0000,1.44682,0.23328,-2.77748,0.97337,1.57080,0.00000,-0.14512,-0.38003,0.04653,,,,,,,,,,,,,,,,,,,,,,,,,,0,0,0,0,0
0.8827,1783191204.3905,1,1,1.0000,0.0000,1.44682,0.23328,-2.77748,0.97337,1.57080,0.00000,-0.14512,-0.38003,0.04653,,,,,,,,,,,,,,,,,,,,,,,,,,0,0,0,0,0
0.8830,1783191204.3908,1,1,1.0000,0.0000,1.44682,0.23328,-2.77748,0.97337,1.57080,0.00000,-0.14512,-0.38003,0.04653,,,,,,,,,,,,,,,,,,,,,,,,,,0,0,0,0,0
0.8929,1783191204.4007,1,1,1.0000,0.0000,1.44682,0.23328,-2.77748,0.97337,1.57080,0.00000,-0.14512,-0.38003,0.04653,,,,,,,,,,,,,,,,,,,,,,,,,,0,0,0,0,0
0.9110,1783191204.4187,1,1,1.0000,0.0000,1.44682,0.23328,-2.77748,0.97337,1.57080,0.00000,-0.14512,-0.38003,0.04653,,,,,,,,,,,,,,,,,,,,,,,,,,0,0,0,0,0
0.9139,1783191204.4217,1,1,1.0000,0.0000,1.44682,0.23328,-2.77748,0.97337,1.57080,0.00000,-0.14512,-0.38003,0.04653,,,,,,,,,,,,,,,,,,,,,,,,,,0,0,0,0,0
0.9144,1783191204.4222,1,1,1.0000,0.0000,1.44682,0.23328,-2.77748,0.97337,1.57080,0.00000,-0.14512,-0.38003,0.04653,,,,,,,,,,,,,,,,,,,,,,,,,,0,0,0,0,0
0.9227,1783191204.4305,1,1,1.0000,0.0000,1.44682,0.23326,-2.77748,0.97339,1.57080,0.00000,-0.14512,-0.38003,0.04652,,,,,,,,,,,,,,,,,,,,,,,,,,0,0,0,0,0
0.9346,1783191204.4424,1,1,1.0000,0.0000,1.44682,0.23309,-2.77753,0.97361,1.57080,0.00000,-0.14512,-0.38003,0.04648,,,,,,,,,,,,,,,,,,,,,,,,,,0,0,0,0,0
0.9349,1783191204.4427,1,1,1.0000,0.0000,1.44682,0.23309,-2.77753,0.97361,1.57080,0.00000,-0.14512,-0.38003,0.04648,,,,,,,,,,,,,,,,,,,,,,,,,,0,0,0,0,0
0.9446,1783191204.4524,1,1,1.0000,0.0000,1.44682,0.23293,-2.77757,0.97381,1.57080,0.00000,-0.14512,-0.38003,0.04644,,,,,,,,,,,,,,,,,,,,,,,,,,0,0,0,0,0
0.9550,1783191204.4628,1,1,1.0000,0.0000,1.44682,0.23284,-2.77759,0.97393,1.57080,0.00000,-0.14512,-0.38003,0.04641,,,,,,,,,,,,,,,,,,,,,,,,,,0,0,0,0,0
0.9704,1783191204.4782,1,1,1.0000,0.0000,1.44682,0.23256,-2.77766,0.97427,1.57080,0.00000,-0.14512,-0.38003,0.04634,,,,,,,,,,,,,,,,,,,,,,,,,,0,0,0,0,0
0.9707,1783191204.4785,1,1,1.0000,0.0000,1.44682,0.23256,-2.77766,0.97427,1.57080,0.00000,-0.14512,-0.38003,0.04634,,,,,,,,,,,,,,,,,,,,,,,,,,0,0,0,0,0
0.9807,1783191204.4885,1,1,1.0000,0.0000,1.44682,0.23247,-2.77768,0.97438,1.57080,0.00000,-0.14512,-0.38003,0.04632,,,,,,,,,,,,,,,,,,,,,,,,,,0,0,0,0,0
0.9809,1783191204.4887,1,1,1.0000,0.0000,1.44682,0.23247,-2.77768,0.97438,1.57080,0.00000,-0.14512,-0.38003,0.04632,,,,,,,,,,,,,,,,,,,,,,,,,,0,0,0,0,0
0.9877,1783191204.4955,1,1,1.0000,0.0000,1.44682,0.23240,-2.77770,0.97448,1.57080,0.00000,-0.14512,-0.38003,0.04630,,,,,,,,,,,,,,,,,,,,,,,,,,0,0,0,0,0
0.9984,1783191204.5062,1,1,1.0000,0.0000,1.44682,0.23212,-2.77778,0.97482,1.57080,0.00000,-0.14512,-0.38003,0.04623,,,,,,,,,,,,,,,,,,,,,,,,,,0,0,0,0,0
0.9987,1783191204.5065,1,1,1.0000,0.0000,1.44682,0.23212,-2.77778,0.97482,1.57080,0.00000,-0.14512,-0.38003,0.04623,,,,,,,,,,,,,,,,,,,,,,,,,,0,0,0,0,0
1.0186,1783191204.5264,1,1,1.0000,0.0000,1.44682,0.23188,-2.77784,0.97513,1.57080,0.00000,-0.14512,-0.38003,0.04616,,,,,,,,,,,,,,,,,,,,,,,,,,0,0,0,0,0
1.0189,1783191204.5267,1,1,1.0000,0.0000,1.44682,0.23188,-2.77784,0.97513,1.57080,0.00000,-0.14512,-0.38003,0.04616,,,,,,,,,,,,,,,,,,,,,,,,,,0,0,0,0,0
1.0192,1783191204.5270,1,1,1.0000,0.0000,1.44682,0.23188,-2.77784,0.97513,1.57080,0.00000,-0.14512,-0.38003,0.04616,,,,,,,,,,,,,,,,,,,,,,,,,,0,0,0,0,0
1.0269,1783191204.5347,1,1,1.0000,0.0000,1.44682,0.23173,-2.77788,0.97532,1.57080,0.00000,-0.14512,-0.38003,0.04612,,,,,,,,,,,,,,,,,,,,,,,,,,0,0,0,0,0
1.0438,1783191204.5516,1,1,1.0000,0.0000,1.44682,0.23154,-2.77793,0.97556,1.57080,0.00000,-0.14512,-0.38003,0.04607,,,,,,,,,,,,,,,,,,,,,,,,,,0,0,0,0,0
1.0596,1783191204.5673,1,1,1.0000,0.0000,1.44682,0.23121,-2.77801,0.97597,1.57080,0.00000,-0.14512,-0.38003,0.04599,,,,,,,,,,,,,,,,,,,,,,,,,,0,0,0,0,0
1.0604,1783191204.5682,1,1,1.0000,0.0000,1.44682,0.23121,-2.77801,0.97597,1.57080,0.00000,-0.14512,-0.38003,0.04599,,,,,,,,,,,,,,,,,,,,,,,,,,0,0,0,0,0
1.0608,1783191204.5686,1,1,1.0000,0.0000,1.44682,0.23121,-2.77801,0.97597,1.57080,0.00000,-0.14512,-0.38003,0.04599,,,,,,,,,,,,,,,,,,,,,,,,,,0,0,0,0,0
1.0702,1783191204.5779,1,1,1.0000,0.0000,1.44682,0.23102,-2.77806,0.97620,1.57080,0.00000,-0.14512,-0.38003,0.04594,,,,,,,,,,,,,,,,,,,,,,,,,,0,0,0,0,0
1.0785,1783191204.5863,1,1,1.0000,0.0000,1.44682,0.23096,-2.77807,0.97628,1.57080,0.00000,-0.14512,-0.38003,0.04592,,,,,,,,,,,,,,,,,,,,,,,,,,0,0,0,0,0
1.0788,1783191204.5866,1,1,1.0000,0.0000,1.44682,0.23096,-2.77807,0.97628,1.57080,0.00000,-0.14512,-0.38003,0.04592,,,,,,,,,,,,,,,,,,,,,,,,,,0,0,0,0,0
1.0878,1783191204.5956,1,1,1.0000,0.0000,1.44682,0.23081,-2.77811,0.97647,1.57080,0.00000,-0.14512,-0.38003,0.04588,,,,,,,,,,,,,,,,,,,,,,,,,,0,0,0,0,0
1.0979,1783191204.6057,1,1,1.0000,0.0000,1.44682,0.23064,-2.77816,0.97668,1.57080,0.00000,-0.14512,-0.38003,0.04584,,,,,,,,,,,,,,,,,,,,,,,,,,0,0,0,0,0
1.1198,1783191204.6276,1,1,1.0000,0.0000,1.44682,0.23036,-2.77823,0.97704,1.57080,0.00000,-0.14512,-0.38003,0.04576,,,,,,,,,,,,,,,,,,,,,,,,,,0,0,0,0,0
1.1201,1783191204.6279,1,1,1.0000,0.0000,1.44682,0.23036,-2.77823,0.97704,1.57080,0.00000,-0.14512,-0.38003,0.04576,,,,,,,,,,,,,,,,,,,,,,,,,,0,0,0,0,0
1.1283,1783191204.6361,1,1,1.0000,0.0000,1.44682,0.23018,-2.77827,0.97726,1.57080,0.00000,-0.14512,-0.38003,0.04572,,,,,,,,,,,,,,,,,,,,,,,,,,0,0,0,0,0
1.1376,1783191204.6454,1,1,1.0000,0.0000,1.44682,0.23016,-2.77828,0.97728,1.57080,0.00000,-0.14512,-0.38003,0.04571,,,,,,,,,,,,,,,,,,,,,,,,,,0,0,0,0,0
1.1379,1783191204.6457,1,1,1.0000,0.0000,1.44682,0.23016,-2.77828,0.97728,1.57080,0.00000,-0.14512,-0.38003,0.04571,,,,,,,,,,,,,,,,,,,,,,,,,,0,0,0,0,0
1.1487,1783191204.6565,1,1,1.0000,0.0000,1.44682,0.22993,-2.77834,0.97758,1.57080,0.00000,-0.14512,-0.38003,0.04565,,,,,,,,,,,,,,,,,,,,,,,,,,0,0,0,0,0
1.1591,1783191204.6669,1,1,1.0000,0.0000,1.44682,0.22965,-2.77841,0.97793,1.57080,0.00000,-0.14512,-0.38003,0.04558,,,,,,,,,,,,,,,,,,,,,,,,,,0,0,0,0,0
1.1679,1783191204.6757,1,1,1.0000,0.0000,1.44682,0.22963,-2.77841,0.97795,1.57080,0.00000,-0.14512,-0.38003,0.04558,,,,,,,,,,,,,,,,,,,,,,,,,,0,0,0,0,0
1.1682,1783191204.6760,1,1,1.0000,0.0000,1.44682,0.22963,-2.77841,0.97795,1.57080,0.00000,-0.14512,-0.38003,0.04558,,,,,,,,,,,,,,,,,,,,,,,,,,0,0,0,0,0
1.1779,1783191204.6857,1,1,1.0000,0.0000,1.44682,0.22952,-2.77844,0.97809,1.57080,0.00000,-0.14512,-0.38003,0.04555,,,,,,,,,,,,,,,,,,,,,,,,,,0,0,0,0,0
1.1888,1783191204.6966,1,1,1.0000,0.0000,1.44682,0.22927,-2.77851,0.97841,1.57080,0.00000,-0.14512,-0.38003,0.04548,,,,,,,,,,,,,,,,,,,,,,,,,,0,0,0,0,0
1.1973,1783191204.7051,1,1,1.0000,0.0000,1.44682,0.22925,-2.77851,0.97844,1.57080,0.00000,-0.14512,-0.38003,0.04548,,,,,,,,,,,,,,,,,,,,,,,,,,0,0,0,0,0
1.2118,1783191204.7196,1,1,1.0000,0.0000,1.44682,0.22891,-2.77860,0.97886,1.57080,0.00000,-0.14512,-0.38003,0.04539,,,,,,,,,,,,,,,,,,,,,,,,,,0,0,0,0,0
1.2121,1783191204.7199,1,1,1.0000,0.0000,1.44682,0.22891,-2.77860,0.97886,1.57080,0.00000,-0.14512,-0.38003,0.04539,,,,,,,,,,,,,,,,,,,,,,,,,,0,0,0,0,0
1.2213,1783191204.7290,1,1,1.0000,0.0000,1.44682,0.22873,-2.77864,0.97908,1.57080,0.00000,-0.14512,-0.38003,0.04534,,,,,,,,,,,,,,,,,,,,,,,,,,0,0,0,0,0
1.2300,1783191204.7377,1,1,1.0000,0.0000,1.44682,0.22871,-2.77865,0.97910,1.57080,0.00000,-0.14512,-0.38003,0.04534,,,,,,,,,,,,,,,,,,,,,,,,,,0,0,0,0,0
1.2369,1783191204.7447,1,1,1.0000,0.0000,1.44682,0.22860,-2.77868,0.97925,1.57080,0.00000,-0.14512,-0.38003,0.04531,,,,,,,,,,,,,,,,,,,,,,,,,,0,0,0,0,0
1.2373,1783191204.7451,1,1,1.0000,0.0000,1.44682,0.22860,-2.77868,0.97925,1.57080,0.00000,-0.14512,-0.38003,0.04531,,,,,,,,,,,,,,,,,,,,,,,,,,0,0,0,0,0
1.2504,1783191204.7582,1,1,1.0000,0.0000,1.44682,0.22835,-2.77874,0.97956,1.57080,0.00000,-0.14512,-0.38003,0.04524,,,,,,,,,,,,,,,,,,,,,,,,,,0,0,0,0,0
1.2508,1783191204.7586,1,1,1.0000,0.0000,1.44682,0.22835,-2.77874,0.97956,1.57080,0.00000,-0.14512,-0.38003,0.04524,,,,,,,,,,,,,,,,,,,,,,,,,,0,0,0,0,0
1.2578,1783191204.7656,1,1,1.0000,0.0000,1.44682,0.22833,-2.77875,0.97959,1.57080,0.00000,-0.14512,-0.38003,0.04524,,,,,,,,,,,,,,,,,,,,,,,,,,0,0,0,0,0
1.2580,1783191204.7658,1,1,1.0000,0.0000,1.44682,0.22833,-2.77875,0.97959,1.57080,0.00000,-0.14512,-0.38003,0.04524,,,,,,,,,,,,,,,,,,,,,,,,,,0,0,0,0,0
1.2751,1783191204.7829,1,1,1.0000,0.0000,1.44682,0.22789,-2.77886,0.98013,1.57080,0.00000,-0.14512,-0.38003,0.04512,,,,,,,,,,,,,,,,,,,,,,,,,,0,0,0,0,0
1.2786,1783191204.7863,1,1,1.0000,0.0000,1.44682,0.22781,-2.77888,0.98024,1.57080,0.00000,-0.14512,-0.38003,0.04510,,,,,,,,,,,,,,,,,,,,,,,,,,0,0,0,0,0
1.2789,1783191204.7866,1,1,1.0000,0.0000,1.44682,0.22781,-2.77888,0.98024,1.57080,0.00000,-0.14512,-0.38003,0.04510,,,,,,,,,,,,,,,,,,,,,,,,,,0,0,0,0,0
1.2910,1783191204.7987,1,1,1.0000,0.0000,1.44682,0.22775,-2.77890,0.98032,1.57080,0.00000,-0.14512,-0.38003,0.04509,,,,,,,,,,,,,,,,,,,,,,,,,,0,0,0,0,0
1.2914,1783191204.7991,1,1,1.0000,0.0000,1.44682,0.22775,-2.77890,0.98032,1.57080,0.00000,-0.14512,-0.38003,0.04509,,,,,,,,,,,,,,,,,,,,,,,,,,0,0,0,0,0
1.3029,1783191204.8107,1,1,1.0000,0.0000,1.44682,0.22751,-2.77895,0.98061,1.57080,0.00000,-0.14512,-0.38003,0.04502,,,,,,,,,,,,,,,,,,,,,,,,,,0,0,0,0,0
1.3034,1783191204.8112,1,1,1.0000,0.0000,1.44682,0.22751,-2.77895,0.98061,1.57080,0.00000,-0.14512,-0.38003,0.04502,,,,,,,,,,,,,,,,,,,,,,,,,,0,0,0,0,0
1.3075,1783191204.8152,1,1,1.0000,0.0000,1.44682,0.22743,-2.77898,0.98072,1.57080,0.00000,-0.14512,-0.38003,0.04500,,,,,,,,,,,,,,,,,,,,,,,,,,0,0,0,0,0
1.3209,1783191204.8287,1,1,1.0000,0.0000,1.44682,0.22735,-2.77900,0.98081,1.57080,0.00000,-0.14512,-0.38003,0.04498,,,,,,,,,,,,,,,,,,,,,,,,,,0,0,0,0,0
1.3440,1783191204.8518,1,1,1.0000,0.0000,1.44682,0.22689,-2.77911,0.98139,1.57080,0.00001,-0.14512,-0.38003,0.04486,,,,,,,,,,,,,,,,,,,,,,,,,,0,0,0,0,0
1.3443,1783191204.8521,1,1,1.0000,0.0000,1.44682,0.22689,-2.77911,0.98139,1.57080,0.00001,-0.14512,-0.38003,0.04486,,,,,,,,,,,,,,,,,,,,,,,,,,0,0,0,0,0
1.3468,1783191204.8545,1,1,1.0000,0.0000,1.44682,0.22687,-2.77912,0.98141,1.57080,0.00001,-0.14512,-0.38003,0.04486,,,,,,,,,,,,,,,,,,,,,,,,,,0,0,0,0,0
1.3593,1783191204.8670,1,1,1.0000,0.0000,1.44682,0.22668,-2.77917,0.98166,1.57080,0.00001,-0.14512,-0.38003,0.04481,,,,,,,,,,,,,,,,,,,,,,,,,,0,0,0,0,0
1.3682,1783191204.8760,1,1,1.0000,0.0000,1.44682,0.22650,-2.77921,0.98187,1.57080,0.00001,-0.14512,-0.38003,0.04476,,,,,,,,,,,,,,,,,,,,,,,,,,0,0,0,0,0
1.3768,1783191204.8846,1,1,1.0000,0.0000,1.44682,0.22648,-2.77922,0.98190,1.57080,0.00001,-0.14512,-0.38003,0.04476,,,,,,,,,,,,,,,,,,,,,,,,,,0,0,0,0,0
1.3773,1783191204.8851,1,1,1.0000,0.0000,1.44682,0.22648,-2.77922,0.98190,1.57080,0.00001,-0.14512,-0.38003,0.04476,,,,,,,,,,,,,,,,,,,,,,,,,,0,0,0,0,0
1.3868,1783191204.8946,1,1,1.0000,0.0000,1.44682,0.22625,-2.77927,0.98219,1.57080,0.00001,-0.14512,-0.38003,0.04470,,,,,,,,,,,,,,,,,,,,,,,,,,0,0,0,0,0
1.3873,1783191204.8950,1,1,1.0000,0.0000,1.44682,0.22625,-2.77927,0.98219,1.57080,0.00001,-0.14512,-0.38003,0.04470,,,,,,,,,,,,,,,,,,,,,,,,,,0,0,0,0,0
1.3968,1783191204.9046,1,1,1.0000,0.0000,1.44682,0.22605,-2.77933,0.98244,1.57080,0.00001,-0.14512,-0.38003,0.04465,,,,,,,,,,,,,,,,,,,,,,,,,,0,0,0,0,0
1.4076,1783191204.9154,1,1,1.0000,0.0000,1.44682,0.22595,-2.77935,0.98257,1.57080,0.00001,-0.14512,-0.38003,0.04462,,,,,,,,,,,,,,,,,,,,,,,,,,0,0,0,0,0
1.4079,1783191204.9157,1,1,1.0000,0.0000,1.44682,0.22595,-2.77935,0.98257,1.57080,0.00001,-0.14512,-0.38003,0.04462,,,,,,,,,,,,,,,,,,,,,,,,,,0,0,0,0,0
1.4285,1783191204.9363,1,1,1.0000,0.0000,1.44682,0.22558,-2.77944,0.98303,1.57080,0.00001,-0.14512,-0.38002,0.04452,,,,,,,,,,,,,,,,,,,,,,,,,,0,0,0,0,0
1.4331,1783191204.9409,1,1,1.0000,0.0000,1.44682,0.22558,-2.77944,0.98303,1.57080,0.00001,-0.14512,-0.38002,0.04452,,,,,,,,,,,,,,,,,,,,,,,,,,0,0,0,0,0
1.4378,1783191204.9456,1,1,1.0000,0.0000,1.44682,0.22556,-2.77945,0.98306,1.57080,0.00001,-0.14512,-0.38002,0.04452,,,,,,,,,,,,,,,,,,,,,,,,,,0,0,0,0,0
1.4388,1783191204.9466,1,1,1.0000,0.0000,1.44682,0.22551,-2.77946,0.98313,1.57080,0.00001,-0.14512,-0.38002,0.04450,,,,,,,,,,,,,,,,,,,,,,,,,,0,0,0,0,0
1.4475,1783191204.9553,1,1,1.0000,0.0000,1.44682,0.22533,-2.77951,0.98335,1.57080,0.00001,-0.14512,-0.38002,0.04446,,,,,,,,,,,,,,,,,,,,,,,,,,0,0,0,0,0
1.4478,1783191204.9556,1,1,1.0000,0.0000,1.44682,0.22533,-2.77951,0.98335,1.57080,0.00001,-0.14512,-0.38002,0.04446,,,,,,,,,,,,,,,,,,,,,,,,,,0,0,0,0,0
1.4608,1783191204.9686,1,1,1.0000,0.0000,1.44682,0.22504,-2.77958,0.98371,1.57080,0.00001,-0.14512,-0.38002,0.04439,,,,,,,,,,,,,,,,,,,,,,,,,,0,0,0,0,0
1.4713,1783191204.9791,1,1,1.0000,0.0000,1.44682,0.22498,-2.77960,0.98378,1.57080,0.00001,-0.14512,-0.38002,0.04437,,,,,,,,,,,,,,,,,,,,,,,,,,0,0,0,0,0
1.4796,1783191204.9874,1,1,1.0000,0.0000,1.44682,0.22483,-2.77963,0.98397,1.57080,0.00001,-0.14512,-0.38002,0.04433,,,,,,,,,,,,,,,,,,,,,,,,,,0,0,0,0,0
1.4874,1783191204.9952,1,1,1.0000,0.0000,1.44682,0.22466,-2.77968,0.98419,1.57080,0.00001,-0.14512,-0.38002,0.04429,,,,,,,,,,,,,,,,,,,,,,,,,,0,0,0,0,0
1.5035,1783191205.0113,1,1,1.0000,0.0000,1.44682,0.22450,-2.77972,0.98439,1.57080,0.00001,-0.14512,-0.38002,0.04424,,,,,,,,,,,,,,,,,,,,,,,,,,0,0,0,0,0
1.5095,1783191205.0173,1,1,1.0000,0.0000,1.44682,0.22440,-2.77974,0.98451,1.57080,0.00001,-0.14512,-0.38002,0.04422,,,,,,,,,,,,,,,,,,,,,,,,,,0,0,0,0,0
1.5202,1783191205.0280,1,1,1.0000,0.0000,1.44682,0.22412,-2.77981,0.98486,1.57080,0.00001,-0.14512,-0.38002,0.04415,,,,,,,,,,,,,,,,,,,,,,,,,,0,0,0,0,0
1.5283,1783191205.0361,1,1,1.0000,0.0000,1.44682,0.22410,-2.77982,0.98488,1.57080,0.00001,-0.14512,-0.38002,0.04414,,,,,,,,,,,,,,,,,,,,,,,,,,0,0,0,0,0
1.5367,1783191205.0445,1,1,1.0000,0.0000,1.44682,0.22399,-2.77985,0.98503,1.57080,0.00001,-0.14512,-0.38002,0.04411,,,,,,,,,,,,,,,,,,,,,,,,,,0,0,0,0,0
1.5469,1783191205.0547,1,1,1.0000,0.0000,1.44682,0.22373,-2.77991,0.98535,1.57080,0.00001,-0.14512,-0.38002,0.04405,,,,,,,,,,,,,,,,,,,,,,,,,,0,0,0,0,0
1.5567,1783191205.0645,1,1,1.0000,0.0000,1.44682,0.22371,-2.77992,0.98537,1.57080,0.00001,-0.14512,-0.38002,0.04404,,,,,,,,,,,,,,,,,,,,,,,,,,0,0,0,0,0
1.5708,1783191205.0785,1,1,1.0000,0.0000,1.44682,0.22338,-2.78000,0.98579,1.57080,0.00001,-0.14512,-0.38002,0.04395,,,,,,,,,,,,,,,,,,,,,,,,,,0,0,0,0,0
1.5821,1783191205.0899,1,1,1.0000,0.0000,1.44682,0.22319,-2.78005,0.98602,1.57080,0.00001,-0.14512,-0.38002,0.04391,,,,,,,,,,,,,,,,,,,,,,,,,,0,0,0,0,0
1.5867,1783191205.0945,1,1,1.0000,0.0000,1.44682,0.22318,-2.78005,0.98604,1.57080,0.00001,-0.14512,-0.38002,0.04390,,,,,,,,,,,,,,,,,,,,,,,,,,0,0,0,0,0
1.5972,1783191205.1050,1,1,1.0000,0.0000,1.44682,0.22306,-2.78008,0.98619,1.57080,0.00001,-0.14512,-0.38002,0.04387,,,,,,,,,,,,,,,,,,,,,,,,,,0,0,0,0,0
1.5977,1783191205.1055,1,1,1.0000,0.0000,1.44682,0.22306,-2.78008,0.98619,1.57080,0.00001,-0.14512,-0.38002,0.04387,,,,,,,,,,,,,,,,,,,,,,,,,,0,0,0,0,0
1.6068,1783191205.1146,1,1,1.0000,0.0000,1.44682,0.22281,-2.78014,0.98651,1.57080,0.00001,-0.14512,-0.38002,0.04381,,,,,,,,,,,,,,,,,,,,,,,,,,0,0,0,0,0
1.6071,1783191205.1149,1,1,1.0000,0.0000,1.44682,0.22281,-2.78014,0.98651,1.57080,0.00001,-0.14512,-0.38002,0.04381,,,,,,,,,,,,,,,,,,,,,,,,,,0,0,0,0,0
1.6277,1783191205.1355,1,1,1.0000,0.0000,1.44681,0.22255,-2.78021,0.98682,1.57080,0.00001,-0.14512,-0.38002,0.04374,,,,,,,,,,,,,,,,,,,,,,,,,,0,0,0,0,0
1.6291,1783191205.1368,1,1,1.0000,0.0000,1.44681,0.22255,-2.78021,0.98682,1.57080,0.00001,-0.14512,-0.38002,0.04374,,,,,,,,,,,,,,,,,,,,,,,,,,0,0,0,0,0
1.6293,1783191205.1371,1,1,1.0000,0.0000,1.44681,0.22255,-2.78021,0.98682,1.57080,0.00001,-0.14512,-0.38002,0.04374,,,,,,,,,,,,,,,,,,,,,,,,,,0,0,0,0,0
1.6374,1783191205.1452,1,1,1.0000,0.0000,1.44681,0.22235,-2.78026,0.98708,1.57080,0.00001,-0.14512,-0.38002,0.04369,,,,,,,,,,,,,,,,,,,,,,,,,,0,0,0,0,0
1.6377,1783191205.1455,1,1,1.0000,0.0000,1.44681,0.22235,-2.78026,0.98708,1.57080,0.00001,-0.14512,-0.38002,0.04369,,,,,,,,,,,,,,,,,,,,,,,,,,0,0,0,0,0
1.6469,1783191205.1547,1,1,1.0000,0.0000,1.44681,0.22225,-2.78028,0.98720,1.57080,0.00001,-0.14512,-0.38002,0.04366,,,,,,,,,,,,,,,,,,,,,,,,,,0,0,0,0,0
1.6569,1783191205.1647,1,1,1.0000,0.0000,1.44681,0.22213,-2.78031,0.98735,1.57080,0.00001,-0.14512,-0.38002,0.04363,,,,,,,,,,,,,,,,,,,,,,,,,,0,0,0,0,0
1.6670,1783191205.1748,1,1,1.0000,0.0000,1.44681,0.22188,-2.78038,0.98767,1.57080,0.00001,-0.14512,-0.38002,0.04357,,,,,,,,,,,,,,,,,,,,,,,,,,0,0,0,0,0
1.6788,1783191205.1866,1,1,1.0000,0.0000,1.44681,0.22180,-2.78039,0.98776,1.57080,0.00001,-0.14512,-0.38002,0.04355,,,,,,,,,,,,,,,,,,,,,,,,,,0,0,0,0,0
1.6885,1783191205.1962,1,1,1.0000,0.0000,1.44681,0.22162,-2.78044,0.98798,1.57080,0.00001,-0.14512,-0.38002,0.04350,,,,,,,,,,,,,,,,,,,,,,,,,,0,0,0,0,0
1.6888,1783191205.1966,1,1,1.0000,0.0000,1.44681,0.22162,-2.78044,0.98798,1.57080,0.00001,-0.14512,-0.38002,0.04350,,,,,,,,,,,,,,,,,,,,,,,,,,0,0,0,0,0
1.6981,1783191205.2058,1,1,1.0000,0.0000,1.44681,0.22142,-2.78049,0.98824,1.57080,0.00001,-0.14512,-0.38002,0.04345,,,,,,,,,,,,,,,,,,,,,,,,,,0,0,0,0,0
1.7108,1783191205.2186,1,1,1.0000,0.0000,1.44681,0.22127,-2.78053,0.98842,1.57080,0.00001,-0.14512,-0.38002,0.04341,,,,,,,,,,,,,,,,,,,,,,,,,,0,0,0,0,0
1.7174,1783191205.2252,1,1,1.0000,0.0000,1.44681,0.22121,-2.78054,0.98851,1.57080,0.00001,-0.14512,-0.38002,0.04340,,,,,,,,,,,,,,,,,,,,,,,,,,0,0,0,0,0
1.7317,1783191205.2394,1,1,1.0000,0.0000,1.44681,0.22095,-2.78061,0.98883,1.57080,0.00001,-0.14512,-0.38002,0.04333,,,,,,,,,,,,,,,,,,,,,,,,,,0,0,0,0,0
1.7373,1783191205.2451,1,1,1.0000,0.0000,1.44681,0.22093,-2.78061,0.98885,1.57080,0.00001,-0.14512,-0.38002,0.04332,,,,,,,,,,,,,,,,,,,,,,,,,,0,0,0,0,0
1.7376,1783191205.2454,1,1,1.0000,0.0000,1.44681,0.22093,-2.78061,0.98885,1.57080,0.00001,-0.14512,-0.38002,0.04332,,,,,,,,,,,,,,,,,,,,,,,,,,0,0,0,0,0
1.7512,1783191205.2590,1,1,1.0000,0.0000,1.44681,0.22059,-2.78070,0.98927,1.57080,0.00001,-0.14512,-0.38002,0.04324,,,,,,,,,,,,,,,,,,,,,,,,,,0,0,0,0,0
1.7515,1783191205.2593,1,1,1.0000,0.0000,1.44681,0.22059,-2.78070,0.98927,1.57080,0.00001,-0.14512,-0.38002,0.04324,,,,,,,,,,,,,,,,,,,,,,,,,,0,0,0,0,0
1.7613,1783191205.2691,1,1,1.0000,0.0000,1.44681,0.22041,-2.78074,0.98950,1.57080,0.00001,-0.14512,-0.38002,0.04319,,,,,,,,,,,,,,,,,,,,,,,,,,0,0,0,0,0
1.7680,1783191205.2757,1,1,1.0000,0.0000,1.44681,0.22039,-2.78075,0.98953,1.57080,0.00001,-0.14512,-0.38002,0.04319,,,,,,,,,,,,,,,,,,,,,,,,,,0,0,0,0,0
1.7779,1783191205.2857,1,1,1.0000,0.0000,1.44681,0.22027,-2.78078,0.98967,1.57080,0.00001,-0.14512,-0.38002,0.04316,,,,,,,,,,,,,,,,,,,,,,,,,,0,0,0,0,0
1.7871,1783191205.2949,1,1,1.0000,0.0000,1.44681,0.22002,-2.78084,0.98999,1.57080,0.00001,-0.14512,-0.38002,0.04309,,,,,,,,,,,,,,,,,,,,,,,,,,0,0,0,0,0
1.7874,1783191205.2952,1,1,1.0000,0.0000,1.44681,0.22002,-2.78084,0.98999,1.57080,0.00001,-0.14512,-0.38002,0.04309,,,,,,,,,,,,,,,,,,,,,,,,,,0,0,0,0,0
1.8011,1783191205.3089,1,1,1.0000,0.0000,1.44681,0.21994,-2.78086,0.99008,1.57080,0.00001,-0.14512,-0.38002,0.04307,,,,,,,,,,,,,,,,,,,,,,,,,,0,0,0,0,0
1.8107,1783191205.3185,1,1,1.0000,0.0000,1.44681,0.21966,-2.78093,0.99044,1.57080,0.00001,-0.14512,-0.38002,0.04300,,,,,,,,,,,,,,,,,,,,,,,,,,0,0,0,0,0
1.8183,1783191205.3261,1,1,1.0000,0.0000,1.44681,0.21956,-2.78095,0.99056,1.57080,0.00001,-0.14512,-0.38002,0.04297,,,,,,,,,,,,,,,,,,,,,,,,,,0,0,0,0,0
1.8414,1783191205.3491,1,1,1.0000,0.0000,1.44681,0.21926,-2.78103,0.99093,1.57080,0.00001,-0.14512,-0.38002,0.04290,,,,,,,,,,,,,,,,,,,,,,,,,,0,0,0,0,0
1.8417,1783191205.3495,1,1,1.0000,0.0000,1.44681,0.21926,-2.78103,0.99093,1.57080,0.00001,-0.14512,-0.38002,0.04290,,,,,,,,,,,,,,,,,,,,,,,,,,0,0,0,0,0
1.8476,1783191205.3554,1,1,1.0000,0.0000,1.44681,0.21909,-2.78107,0.99115,1.57080,0.00001,-0.14512,-0.38002,0.04285,,,,,,,,,,,,,,,,,,,,,,,,,,0,0,0,0,0
1.8567,1783191205.3644,1,1,1.0000,0.0000,1.44681,0.21907,-2.78108,0.99118,1.57080,0.00001,-0.14512,-0.38002,0.04285,,,,,,,,,,,,,,,,,,,,,,,,,,0,0,0,0,0
1.8571,1783191205.3649,1,1,1.0000,0.0000,1.44681,0.21907,-2.78108,0.99118,1.57080,0.00001,-0.14512,-0.38002,0.04285,,,,,,,,,,,,,,,,,,,,,,,,,,0,0,0,0,0
1.8765,1783191205.3843,1,1,1.0000,0.0000,1.44681,0.21863,-2.78118,0.99172,1.57080,0.00001,-0.14512,-0.38002,0.04273,,,,,,,,,,,,,,,,,,,,,,,,,,0,0,0,0,0
1.8804,1783191205.3882,1,1,1.0000,0.0000,1.44681,0.21854,-2.78121,0.99183,1.57080,0.00001,-0.14512,-0.38002,0.04271,,,,,,,,,,,,,,,,,,,,,,,,,,0,0,0,0,0
1.8920,1783191205.3998,1,1,1.0000,0.0000,1.44681,0.21848,-2.78122,0.99191,1.57080,0.00001,-0.14512,-0.38002,0.04270,,,,,,,,,,,,,,,,,,,,,,,,,,0,0,0,0,0
1.9035,1783191205.4113,1,1,1.0000,0.0000,1.44681,0.21824,-2.78128,0.99221,1.57080,0.00001,-0.14512,-0.38002,0.04263,,,,,,,,,,,,,,,,,,,,,,,,,,0,0,0,0,0
1.9138,1783191205.4215,1,1,1.0000,0.0000,1.44681,0.21815,-2.78130,0.99232,1.57080,0.00001,-0.14512,-0.38002,0.04261,,,,,,,,,,,,,,,,,,,,,,,,,,0,0,0,0,0
1.9217,1783191205.4295,1,1,1.0000,0.0000,1.44681,0.21808,-2.78132,0.99241,1.57080,0.00001,-0.14512,-0.38002,0.04259,,,,,,,,,,,,,,,,,,,,,,,,,,0,0,0,0,0
1.9301,1783191205.4379,1,1,1.0000,0.0000,1.44681,0.21790,-2.78136,0.99264,1.57080,0.00001,-0.14512,-0.38002,0.04255,,,,,,,,,,,,,,,,,,,,,,,,,,0,0,0,0,0
1.9416,1783191205.4494,1,1,1.0000,0.0000,1.44681,0.21761,-2.78144,0.99299,1.57080,0.00001,-0.14512,-0.38002,0.04247,,,,,,,,,,,,,,,,,,,,,,,,,,0,0,0,0,0
1.9510,1783191205.4588,1,1,1.0000,0.0000,1.44681,0.21754,-2.78145,0.99307,1.57080,0.00001,-0.14512,-0.38002,0.04246,,,,,,,,,,,,,,,,,,,,,,,,,,0,0,0,0,0
1.9513,1783191205.4591,1,1,1.0000,0.0000,1.44681,0.21754,-2.78145,0.99307,1.57080,0.00001,-0.14512,-0.38002,0.04246,,,,,,,,,,,,,,,,,,,,,,,,,,0,0,0,0,0
1.9601,1783191205.4678,1,1,1.0000,0.0000,1.44681,0.21739,-2.78149,0.99326,1.57080,0.00001,-0.14512,-0.38002,0.04242,,,,,,,,,,,,,,,,,,,,,,,,,,0,0,0,0,0
1.9704,1783191205.4782,1,1,1.0000,0.0000,1.44681,0.21722,-2.78153,0.99348,1.57080,0.00001,-0.14512,-0.38002,0.04237,,,,,,,,,,,,,,,,,,,,,,,,,,0,0,0,0,0
1.9818,1783191205.4895,1,1,1.0000,0.0000,1.44681,0.21714,-2.78155,0.99358,1.57080,0.00001,-0.14512,-0.38002,0.04235,,,,,,,,,,,,,,,,,,,,,,,,,,0,0,0,0,0
1.9950,1783191205.5028,1,1,1.0000,0.0000,1.44681,0.21676,-2.78165,0.99405,1.57080,0.00001,-0.14512,-0.38002,0.04226,,,,,,,,,,,,,,,,,,,,,,,,,,0,0,0,0,0
1.9998,1783191205.5076,1,1,1.0000,0.0000,1.44681,0.21667,-2.78167,0.99416,1.57080,0.00001,-0.14512,-0.38002,0.04223,,,,,,,,,,,,,,,,,,,,,,,,,,0,0,0,0,0
2.0167,1783191205.5245,1,1,1.0000,0.0000,1.44681,0.21654,-2.78170,0.99432,1.57080,0.00001,-0.14512,-0.38002,0.04220,,,,,,,,,,,,,,,,,,,,,,,,,,0,0,0,0,0
2.0203,1783191205.5281,1,1,1.0000,0.0000,1.44681,0.21646,-2.78172,0.99443,1.57080,0.00001,-0.14512,-0.38002,0.04218,,,,,,,,,,,,,,,,,,,,,,,,,,0,0,0,0,0
2.0372,1783191205.5450,1,1,1.0000,0.0000,1.44681,0.21620,-2.78178,0.99474,1.57080,0.00001,-0.14512,-0.38002,0.04211,,,,,,,,,,,,,,,,,,,,,,,,,,0,0,0,0,0
2.0419,1783191205.5497,1,1,1.0000,0.0000,1.44681,0.21619,-2.78179,0.99477,1.57080,0.00001,-0.14512,-0.38002,0.04211,,,,,,,,,,,,,,,,,,,,,,,,,,0,0,0,0,0
2.0548,1783191205.5626,1,1,1.0000,0.0000,1.44681,0.21590,-2.78186,0.99512,1.57080,0.00001,-0.14512,-0.38002,0.04204,,,,,,,,,,,,,,,,,,,,,,,,,,0,0,0,0,0
2.0600,1783191205.5678,1,1,1.0000,0.0000,1.44681,0.21581,-2.78188,0.99523,1.57080,0.00001,-0.14512,-0.38002,0.04201,,,,,,,,,,,,,,,,,,,,,,,,,,0,0,0,0,0
2.0750,1783191205.5828,1,1,1.0000,0.0000,1.44681,0.21565,-2.78192,0.99543,1.57080,0.00001,-0.14512,-0.38002,0.04197,,,,,,,,,,,,,,,,,,,,,,,,,,0,0,0,0,0
2.0754,1783191205.5832,1,1,1.0000,0.0000,1.44681,0.21565,-2.78192,0.99543,1.57080,0.00001,-0.14512,-0.38002,0.04197,,,,,,,,,,,,,,,,,,,,,,,,,,0,0,0,0,0
2.0868,1783191205.5946,1,1,1.0000,0.0000,1.44681,0.21535,-2.78199,0.99580,1.57080,0.00001,-0.14512,-0.38002,0.04190,,,,,,,,,,,,,,,,,,,,,,,,,,0,0,0,0,0
2.0909,1783191205.5987,1,1,1.0000,0.0000,1.44681,0.21527,-2.78201,0.99591,1.57080,0.00001,-0.14512,-0.38002,0.04188,,,,,,,,,,,,,,,,,,,,,,,,,,0,0,0,0,0
2.1031,1783191205.6109,1,1,1.0000,0.0000,1.44681,0.21520,-2.78203,0.99599,1.57080,0.00001,-0.14512,-0.38002,0.04186,,,,,,,,,,,,,,,,,,,,,,,,,,0,0,0,0,0
2.1109,1783191205.6187,1,1,1.0000,0.0000,1.44681,0.21505,-2.78206,0.99618,1.57080,0.00001,-0.14512,-0.38002,0.04182,,,,,,,,,,,,,,,,,,,,,,,,,,0,0,0,0,0
2.1113,1783191205.6191,1,1,1.0000,0.0000,1.44681,0.21505,-2.78206,0.99618,1.57080,0.00001,-0.14512,-0.38002,0.04182,,,,,,,,,,,,,,,,,,,,,,,,,,0,0,0,0,0
2.1222,1783191205.6300,1,1,1.0000,0.0000,1.44681,0.21488,-2.78211,0.99640,1.57080,0.00001,-0.14512,-0.38002,0.04178,,,,,,,,,,,,,,,,,,,,,,,,,,0,0,0,0,0
2.1480,1783191205.6557,1,1,1.0000,0.0000,1.44681,0.21442,-2.78222,0.99697,1.57080,0.00002,-0.14512,-0.38002,0.04166,,,,,,,,,,,,,,,,,,,,,,,,,,0,0,0,0,0
2.1484,1783191205.6562,1,1,1.0000,0.0000,1.44681,0.21442,-2.78222,0.99697,1.57080,0.00002,-0.14512,-0.38002,0.04166,,,,,,,,,,,,,,,,,,,,,,,,,,0,0,0,0,0
2.1567,1783191205.6644,1,1,1.0000,0.0000,1.44681,0.21433,-2.78224,0.99708,1.57080,0.00002,-0.14512,-0.38002,0.04164,,,,,,,,,,,,,,,,,,,,,,,,,,0,0,0,0,0
2.1629,1783191205.6707,1,1,1.0000,0.0000,1.44681,0.21427,-2.78226,0.99716,1.57080,0.00002,-0.14512,-0.38002,0.04162,,,,,,,,,,,,,,,,,,,,,,,,,,0,0,0,0,0
2.1750,1783191205.6828,1,1,1.0000,0.0000,1.44681,0.21403,-2.78232,0.99746,1.57080,0.00002,-0.14512,-0.38002,0.04156,,,,,,,,,,,,,,,,,,,,,,,,,,0,0,0,0,0
2.1858,1783191205.6936,1,1,1.0000,0.0000,1.44681,0.21394,-2.78234,0.99756,1.57080,0.00002,-0.14512,-0.38002,0.04154,,,,,,,,,,,,,,,,,,,,,,,,,,0,0,0,0,0
2.1981,1783191205.7059,1,1,1.0000,0.0000,1.44681,0.21378,-2.78238,0.99776,1.57080,0.00002,-0.14512,-0.38002,0.04150,,,,,,,,,,,,,,,,,,,,,,,,,,0,0,0,0,0
2.2056,1783191205.7134,1,1,1.0000,0.0000,1.44681,0.21358,-2.78242,0.99801,1.57080,0.00002,-0.14512,-0.38002,0.04144,,,,,,,,,,,,,,,,,,,,,,,,,,0,0,0,0,0
2.2102,1783191205.7179,1,1,1.0000,0.0000,1.44681,0.21348,-2.78245,0.99814,1.57080,0.00002,-0.14512,-0.38002,0.04142,,,,,,,,,,,,,,,,,,,,,,,,,,0,0,0,0,0
2.2272,1783191205.7349,1,1,1.0000,0.0000,1.44681,0.21326,-2.78250,0.99841,1.57080,0.00002,-0.14512,-0.38002,0.04136,,,,,,,,,,,,,,,,,,,,,,,,,,0,0,0,0,0
2.2407,1783191205.7485,1,1,1.0000,0.0000,1.44681,0.21300,-2.78257,0.99873,1.57080,0.00002,-0.14512,-0.38002,0.04130,,,,,,,,,,,,,,,,,,,,,,,,,,0,0,0,0,0
2.2446,1783191205.7524,1,1,1.0000,0.0000,1.44681,0.21300,-2.78257,0.99873,1.57080,0.00002,-0.14512,-0.38002,0.04130,,,,,,,,,,,,,,,,,,,,,,,,,,0,0,0,0,0
2.2506,1783191205.7584,1,1,1.0000,0.0000,1.44681,0.21298,-2.78257,0.99876,1.57080,0.00002,-0.14512,-0.38002,0.04129,,,,,,,,,,,,,,,,,,,,,,,,,,0,0,0,0,0
2.2600,1783191205.7678,1,1,1.0000,0.0000,1.44681,0.21274,-2.78263,0.99905,1.57080,0.00002,-0.14512,-0.38002,0.04123,,,,,,,,,,,,,,,,,,,,,,,,,,0,0,0,0,0
2.2719,1783191205.7797,1,1,1.0000,0.0000,1.44681,0.21245,-2.78270,0.99942,1.57080,0.00002,-0.14512,-0.38002,0.04116,,,,,,,,,,,,,,,,,,,,,,,,,,0,0,0,0,0
2.3035,1783191205.8113,1,1,1.0000,0.0000,1.44681,0.21206,-2.78279,0.99990,1.57080,0.00002,-0.14512,-0.38002,0.04106,,,,,,,,,,,,,,,,,,,,,,,,,,0,0,0,0,0
2.3038,1783191205.8116,1,1,1.0000,0.0000,1.44681,0.21206,-2.78279,0.99990,1.57080,0.00002,-0.14512,-0.38002,0.04106,,,,,,,,,,,,,,,,,,,,,,,,,,0,0,0,0,0
2.3041,1783191205.8119,1,1,1.0000,0.0000,1.44681,0.21206,-2.78279,0.99990,1.57080,0.00002,-0.14512,-0.38002,0.04106,,,,,,,,,,,,,,,,,,,,,,,,,,0,0,0,0,0
2.3151,1783191205.8229,1,1,1.0000,0.0000,1.44681,0.21190,-2.78283,1.00010,1.57080,0.00002,-0.14512,-0.38002,0.04102,,,,,,,,,,,,,,,,,,,,,,,,,,0,0,0,0,0
2.3219,1783191205.8297,1,1,1.0000,0.0000,1.44681,0.21180,-2.78286,1.00023,1.57080,0.00002,-0.14512,-0.38002,0.04099,,,,,,,,,,,,,,,,,,,,,,,,,,0,0,0,0,0
2.3311,1783191205.8389,1,1,1.0000,0.0000,1.44681,0.21151,-2.78293,1.00059,1.57080,0.00002,-0.14512,-0.38002,0.04092,,,,,,,,,,,,,,,,,,,,,,,,,,0,0,0,0,0
2.3501,1783191205.8578,1,1,1.0000,0.0000,1.44681,0.21137,-2.78296,1.00075,1.57080,0.00002,-0.14512,-0.38002,0.04089,,,,,,,,,,,,,,,,,,,,,,,,,,0,0,0,0,0
2.3509,1783191205.8587,1,1,1.0000,0.0000,1.44681,0.21129,-2.78298,1.00085,1.57080,0.00002,-0.14512,-0.38002,0.04086,,,,,,,,,,,,,,,,,,,,,,,,,,0,0,0,0,0
2.3512,1783191205.8590,1,1,1.0000,0.0000,1.44681,0.21129,-2.78298,1.00085,1.57080,0.00002,-0.14512,-0.38002,0.04086,,,,,,,,,,,,,,,,,,,,,,,,,,0,0,0,0,0
2.3602,1783191205.8679,1,1,1.0000,0.0000,1.44681,0.21111,-2.78302,1.00107,1.57080,0.00002,-0.14512,-0.38002,0.04082,,,,,,,,,,,,,,,,,,,,,,,,,,0,0,0,0,0
2.3606,1783191205.8683,1,1,1.0000,0.0000,1.44681,0.21111,-2.78302,1.00107,1.57080,0.00002,-0.14512,-0.38002,0.04082,,,,,,,,,,,,,,,,,,,,,,,,,,0,0,0,0,0
2.3752,1783191205.8829,1,1,1.0000,0.0000,1.44681,0.21095,-2.78306,1.00127,1.57080,0.00002,-0.14512,-0.38002,0.04078,,,,,,,,,,,,,,,,,,,,,,,,,,0,0,0,0,0
2.3826,1783191205.8904,1,1,1.0000,0.0000,1.44681,0.21085,-2.78309,1.00140,1.57080,0.00002,-0.14512,-0.38002,0.04075,,,,,,,,,,,,,,,,,,,,,,,,,,0,0,0,0,0
2.3920,1783191205.8998,1,1,1.0000,0.0000,1.44681,0.21056,-2.78316,1.00176,1.57080,0.00002,-0.14512,-0.38002,0.04068,,,,,,,,,,,,,,,,,,,,,,,,,,0,0,0,0,0
2.4012,1783191205.9089,1,1,1.0000,0.0000,1.44681,0.21055,-2.78316,1.00178,1.57080,0.00002,-0.14512,-0.38002,0.04068,,,,,,,,,,,,,,,,,,,,,,,,,,0,0,0,0,0
2.4111,1783191205.9189,1,1,1.0000,0.0000,1.44681,0.21035,-2.78321,1.00203,1.57080,0.00002,-0.14512,-0.38002,0.04063,,,,,,,,,,,,,,,,,,,,,,,,,,0,0,0,0,0
2.4200,1783191205.9277,1,1,1.0000,0.0000,1.44681,0.21017,-2.78325,1.00225,1.57080,0.00002,-0.14512,-0.38002,0.04058,,,,,,,,,,,,,,,,,,,,,,,,,,0,0,0,0,0
2.4301,1783191205.9378,1,1,1.0000,0.0000,1.44681,0.21015,-2.78326,1.00227,1.57080,0.00002,-0.14512,-0.38002,0.04058,,,,,,,,,,,,,,,,,,,,,,,,,,0,0,0,0,0
2.4407,1783191205.9485,1,1,1.0000,0.0000,1.44681,0.20991,-2.78331,1.00257,1.57080,0.00002,-0.14512,-0.38002,0.04052,,,,,,,,,,,,,,,,,,,,,,,,,,0,0,0,0,0
2.4500,1783191205.9578,1,1,1.0000,0.0000,1.44680,0.20971,-2.78336,1.00282,1.57080,0.00002,-0.14512,-0.38002,0.04046,,,,,,,,,,,,,,,,,,,,,,,,,,0,0,0,0,0
2.4610,1783191205.9688,1,1,1.0000,0.0000,1.44680,0.20960,-2.78339,1.00295,1.57080,0.00002,-0.14512,-0.38002,0.04044,,,,,,,,,,,,,,,,,,,,,,,,,,0,0,0,0,0
2.4706,1783191205.9783,1,1,1.0000,0.0000,1.44680,0.20949,-2.78342,1.00310,1.57079,0.00002,-0.14512,-0.38002,0.04041,,,,,,,,,,,,,,,,,,,,,,,,,,0,0,0,0,0
2.4711,1783191205.9789,1,1,1.0000,0.0000,1.44680,0.20940,-2.78344,1.00320,1.57079,0.00002,-0.14512,-0.38002,0.04039,,,,,,,,,,,,,,,,,,,,,,,,,,0,0,0,0,0
2.4799,1783191205.9877,1,1,1.0000,0.0000,1.44680,0.20922,-2.78348,1.00342,1.57079,0.00002,-0.14512,-0.38002,0.04034,,,,,,,,,,,,,,,,,,,,,,,,,,0,0,0,0,0
2.4924,1783191206.0002,1,1,1.0000,0.0000,1.44680,0.20915,-2.78350,1.00352,1.57079,0.00002,-0.14512,-0.38002,0.04032,,,,,,,,,,,,,,,,,,,,,,,,,,0,0,0,0,0
2.5066,1783191206.0144,1,1,1.0000,0.0000,1.44680,0.20886,-2.78357,1.00387,1.57079,0.00002,-0.14512,-0.38002,0.04025,,,,,,,,,,,,,,,,,,,,,,,,,,0,0,0,0,0
2.5115,1783191206.0193,1,1,1.0000,0.0000,1.44680,0.20867,-2.78361,1.00410,1.57079,0.00002,-0.14512,-0.38002,0.04020,,,,,,,,,,,,,,,,,,,,,,,,,,0,0,0,0,0
2.5215,1783191206.0292,1,1,1.0000,0.0000,1.44680,0.20866,-2.78362,1.00413,1.57079,0.00002,-0.14512,-0.38002,0.04020,,,,,,,,,,,,,,,,,,,,,,,,,,0,0,0,0,0
2.5701,1783191206.0779,1,1,1.0000,0.0000,1.44680,0.20781,-2.78382,1.00517,1.57079,0.00002,-0.14512,-0.38002,0.03999,,,,,,,,,,,,,,,,,,,,,,,,,,0,0,0,0,0
2.5706,1783191206.0783,1,1,1.0000,0.0000,1.44680,0.20781,-2.78382,1.00517,1.57079,0.00002,-0.14512,-0.38002,0.03999,,,,,,,,,,,,,,,,,,,,,,,,,,0,0,0,0,0
2.5713,1783191206.0790,1,1,1.0000,0.0000,1.44680,0.20773,-2.78384,1.00528,1.57079,0.00002,-0.14512,-0.38002,0.03996,,,,,,,,,,,,,,,,,,,,,,,,,,0,0,0,0,0
2.5798,1783191206.0876,1,1,1.0000,0.0000,1.44680,0.20771,-2.78384,1.00530,1.57079,0.00002,-0.14512,-0.38002,0.03996,,,,,,,,,,,,,,,,,,,,,,,,,,0,0,0,0,0
2.5801,1783191206.0879,1,1,1.0000,0.0000,1.44680,0.20771,-2.78384,1.00530,1.57079,0.00002,-0.14512,-0.38002,0.03996,,,,,,,,,,,,,,,,,,,,,,,,,,0,0,0,0,0
2.5941,1783191206.1019,1,1,1.0000,0.0000,1.44680,0.20751,-2.78389,1.00555,1.57079,0.00002,-0.14512,-0.38002,0.03991,,,,,,,,,,,,,,,,,,,,,,,,,,0,0,0,0,0
2.6007,1783191206.1085,1,1,1.0000,0.0000,1.44680,0.20733,-2.78393,1.00577,1.57079,0.00002,-0.14512,-0.38002,0.03986,,,,,,,,,,,,,,,,,,,,,,,,,,0,0,0,0,0
2.6102,1783191206.1180,1,1,1.0000,0.0000,1.44680,0.20731,-2.78394,1.00579,1.57079,0.00002,-0.14512,-0.38002,0.03986,,,,,,,,,,,,,,,,,,,,,,,,,,0,0,0,0,0
2.6204,1783191206.1282,1,1,1.0000,0.0000,1.44680,0.20707,-2.78400,1.00609,1.57079,0.00002,-0.14512,-0.38002,0.03980,,,,,,,,,,,,,,,,,,,,,,,,,,0,0,0,0,0
2.6336,1783191206.1414,1,1,1.0000,0.0000,1.44680,0.20678,-2.78407,1.00645,1.57079,0.00002,-0.14512,-0.38002,0.03972,,,,,,,,,,,,,,,,,,,,,,,,,,0,0,0,0,0
2.6456,1783191206.1534,1,1,1.0000,0.0000,1.44680,0.20671,-2.78408,1.00653,1.57079,0.00002,-0.14512,-0.38002,0.03971,,,,,,,,,,,,,,,,,,,,,,,,,,0,0,0,0,0
2.6580,1783191206.1658,1,1,1.0000,0.0000,1.44680,0.20647,-2.78414,1.00683,1.57079,0.00002,-0.14512,-0.38002,0.03965,,,,,,,,,,,,,,,,,,,,,,,,,,0,0,0,0,0
2.6633,1783191206.1711,1,1,1.0000,0.0000,1.44680,0.20638,-2.78416,1.00694,1.57079,0.00002,-0.14512,-0.38002,0.03962,,,,,,,,,,,,,,,,,,,,,,,,,,0,0,0,0,0
2.6717,1783191206.1795,1,1,1.0000,0.0000,1.44680,0.20630,-2.78418,1.00704,1.57079,0.00002,-0.14512,-0.38002,0.03960,,,,,,,,,,,,,,,,,,,,,,,,,,0,0,0,0,0
2.6834,1783191206.1912,1,1,1.0000,0.0000,1.44680,0.20601,-2.78425,1.00740,1.57079,0.00002,-0.14512,-0.38002,0.03953,,,,,,,,,,,,,,,,,,,,,,,,,,0,0,0,0,0
2.6838,1783191206.1916,1,1,1.0000,0.0000,1.44680,0.20601,-2.78425,1.00740,1.57079,0.00002,-0.14512,-0.38002,0.03953,,,,,,,,,,,,,,,,,,,,,,,,,,0,0,0,0,0
2.6903,1783191206.1981,1,1,1.0000,0.0000,1.44680,0.20591,-2.78427,1.00752,1.57079,0.00002,-0.14512,-0.38002,0.03951,,,,,,,,,,,,,,,,,,,,,,,,,,0,0,0,0,0
2.6910,1783191206.1988,1,1,1.0000,0.0000,1.44680,0.20583,-2.78429,1.00763,1.57079,0.00002,-0.14512,-0.38002,0.03949,,,,,,,,,,,,,,,,,,,,,,,,,,0,0,0,0,0
2.7032,1783191206.2110,1,1,1.0000,0.0000,1.44680,0.20576,-2.78431,1.00771,1.57079,0.00002,-0.14512,-0.38002,0.03947,,,,,,,,,,,,,,,,,,,,,,,,,,0,0,0,0,0
2.7111,1783191206.2189,1,1,1.0000,0.0000,1.44680,0.20561,-2.78434,1.00790,1.57079,0.00002,-0.14512,-0.38002,0.03943,,,,,,,,,,,,,,,,,,,,,,,,,,0,0,0,0,0
2.7116,1783191206.2194,1,1,1.0000,0.0000,1.44680,0.20561,-2.78434,1.00790,1.57079,0.00002,-0.14512,-0.38002,0.03943,,,,,,,,,,,,,,,,,,,,,,,,,,0,0,0,0,0
2.7200,1783191206.2278,1,1,1.0000,0.0000,1.44680,0.20543,-2.78439,1.00812,1.57079,0.00002,-0.14512,-0.38002,0.03939,,,,,,,,,,,,,,,,,,,,,,,,,,0,0,0,0,0
2.7321,1783191206.2398,1,1,1.0000,0.0000,1.44680,0.20535,-2.78441,1.00822,1.57079,0.00002,-0.14512,-0.38002,0.03937,,,,,,,,,,,,,,,,,,,,,,,,,,0,0,0,0,0
2.7414,1783191206.2492,1,1,1.0000,0.0000,1.44680,0.20517,-2.78445,1.00844,1.57079,0.00002,-0.14512,-0.38002,0.03932,,,,,,,,,,,,,,,,,,,,,,,,,,0,0,0,0,0
2.7419,1783191206.2496,1,1,1.0000,0.0000,1.44680,0.20517,-2.78445,1.00844,1.57079,0.00002,-0.14512,-0.38002,0.03932,,,,,,,,,,,,,,,,,,,,,,,,,,0,0,0,0,0
2.7523,1783191206.2600,1,1,1.0000,0.0000,1.44680,0.20488,-2.78452,1.00881,1.57079,0.00002,-0.14512,-0.38002,0.03925,,,,,,,,,,,,,,,,,,,,,,,,,,0,0,0,0,0
2.7602,1783191206.2680,1,1,1.0000,0.0000,1.44680,0.20486,-2.78452,1.00883,1.57079,0.00002,-0.14512,-0.38002,0.03924,,,,,,,,,,,,,,,,,,,,,,,,,,0,0,0,0,0
2.7607,1783191206.2685,1,1,1.0000,0.0000,1.44680,0.20486,-2.78452,1.00883,1.57079,0.00002,-0.14512,-0.38002,0.03924,,,,,,,,,,,,,,,,,,,,,,,,,,0,0,0,0,0
2.7704,1783191206.2781,1,1,1.0000,0.0000,1.44680,0.20474,-2.78455,1.00897,1.57079,0.00002,-0.14512,-0.38002,0.03921,,,,,,,,,,,,,,,,,,,,,,,,,,0,0,0,0,0
2.7712,1783191206.2790,1,1,1.0000,0.0000,1.44680,0.20466,-2.78457,1.00908,1.57079,0.00002,-0.14512,-0.38002,0.03919,,,,,,,,,,,,,,,,,,,,,,,,,,0,0,0,0,0
2.7800,1783191206.2878,1,1,1.0000,0.0000,1.44680,0.20448,-2.78461,1.00930,1.57079,0.00002,-0.14512,-0.38002,0.03915,,,,,,,,,,,,,,,,,,,,,,,,,,0,0,0,0,0
2.7918,1783191206.2996,1,1,1.0000,0.0000,1.44680,0.20438,-2.78464,1.00942,1.57079,0.00002,-0.14512,-0.38002,0.03912,,,,,,,,,,,,,,,,,,,,,,,,,,0,0,0,0,0
2.7921,1783191206.2999,1,1,1.0000,0.0000,1.44680,0.20438,-2.78464,1.00942,1.57079,0.00002,-0.14512,-0.38002,0.03912,,,,,,,,,,,,,,,,,,,,,,,,,,0,0,0,0,0
2.8019,1783191206.3097,1,1,1.0000,0.0000,1.44680,0.20426,-2.78466,1.00956,1.57079,0.00002,-0.14512,-0.38001,0.03909,,,,,,,,,,,,,,,,,,,,,,,,,,0,0,0,0,0
2.8022,1783191206.3100,1,1,1.0000,0.0000,1.44680,0.20426,-2.78466,1.00956,1.57079,0.00002,-0.14512,-0.38001,0.03909,,,,,,,,,,,,,,,,,,,,,,,,,,0,0,0,0,0
2.8107,1783191206.3184,1,1,1.0000,0.0000,1.44680,0.20409,-2.78470,1.00978,1.57079,0.00002,-0.14512,-0.38001,0.03905,,,,,,,,,,,,,,,,,,,,,,,,,,0,0,0,0,0
2.8111,1783191206.3189,1,1,1.0000,0.0000,1.44680,0.20400,-2.78473,1.00989,1.57079,0.00002,-0.14512,-0.38001,0.03903,,,,,,,,,,,,,,,,,,,,,,,,,,0,0,0,0,0
2.8214,1783191206.3292,1,1,1.0000,0.0000,1.44680,0.20398,-2.78473,1.00991,1.57079,0.00002,-0.14512,-0.38001,0.03902,,,,,,,,,,,,,,,,,,,,,,,,,,0,0,0,0,0
2.8218,1783191206.3295,1,1,1.0000,0.0000,1.44680,0.20398,-2.78473,1.00991,1.57079,0.00002,-0.14512,-0.38001,0.03902,,,,,,,,,,,,,,,,,,,,,,,,,,0,0,0,0,0
2.8413,1783191206.3491,1,1,1.0000,0.0000,1.44680,0.20353,-2.78484,1.01047,1.57079,0.00002,-0.14512,-0.38001,0.03891,,,,,,,,,,,,,,,,,,,,,,,,,,0,0,0,0,0
2.8418,1783191206.3496,1,1,1.0000,0.0000,1.44680,0.20353,-2.78484,1.01047,1.57079,0.00002,-0.14512,-0.38001,0.03891,,,,,,,,,,,,,,,,,,,,,,,,,,0,0,0,0,0
2.8422,1783191206.3500,1,1,1.0000,0.0000,1.44680,0.20353,-2.78484,1.01047,1.57079,0.00002,-0.14512,-0.38001,0.03891,,,,,,,,,,,,,,,,,,,,,,,,,,0,0,0,0,0
2.8426,1783191206.3504,1,1,1.0000,0.0000,1.44680,0.20353,-2.78484,1.01047,1.57079,0.00002,-0.14512,-0.38001,0.03891,,,,,,,,,,,,,,,,,,,,,,,,,,0,0,0,0,0
2.8504,1783191206.3582,1,1,1.0000,0.0000,1.44680,0.20345,-2.78486,1.01057,1.57079,0.00002,-0.14512,-0.38001,0.03889,,,,,,,,,,,,,,,,,,,,,,,,,,0,0,0,0,0
2.8510,1783191206.3588,1,1,1.0000,0.0000,1.44680,0.20343,-2.78486,1.01060,1.57079,0.00002,-0.14512,-0.38001,0.03888,,,,,,,,,,,,,,,,,,,,,,,,,,0,0,0,0,0
2.8599,1783191206.3677,1,1,1.0000,0.0000,1.44680,0.20331,-2.78489,1.01074,1.57079,0.00002,-0.14512,-0.38001,0.03885,,,,,,,,,,,,,,,,,,,,,,,,,,0,0,0,0,0
2.8702,1783191206.3780,1,1,1.0000,0.0000,1.44680,0.20314,-2.78493,1.01096,1.57079,0.00002,-0.14512,-0.38001,0.03881,,,,,,,,,,,,,,,,,,,,,,,,,,0,0,0,0,0
2.8853,1783191206.3931,1,1,1.0000,0.0000,1.44680,0.20297,-2.78497,1.01116,1.57079,0.00002,-0.14512,-0.38001,0.03877,,,,,,,,,,,,,,,,,,,,,,,,,,0,0,0,0,0
2.8911,1783191206.3989,1,1,1.0000,0.0000,1.44680,0.20279,-2.78501,1.01139,1.57079,0.00002,-0.14512,-0.38001,0.03872,,,,,,,,,,,,,,,,,,,,,,,,,,0,0,0,0,0
2.9034,1783191206.4112,1,1,1.0000,0.0000,1.44680,0.20249,-2.78508,1.01175,1.57079,0.00002,-0.14512,-0.38001,0.03865,,,,,,,,,,,,,,,,,,,,,,,,,,0,0,0,0,0
2.9037,1783191206.4115,1,1,1.0000,0.0000,1.44680,0.20249,-2.78508,1.01175,1.57079,0.00002,-0.14512,-0.38001,0.03865,,,,,,,,,,,,,,,,,,,,,,,,,,0,0,0,0,0
2.9138,1783191206.4216,1,1,1.0000,0.0000,1.44680,0.20247,-2.78509,1.01178,1.57079,0.00002,-0.14512,-0.38001,0.03864,,,,,,,,,,,,,,,,,,,,,,,,,,0,0,0,0,0
2.9265,1783191206.4343,1,1,1.0000,0.0000,1.44680,0.20227,-2.78513,1.01202,1.57079,0.00002,-0.14512,-0.38001,0.03859,,,,,,,,,,,,,,,,,,,,,,,,,,0,0,0,0,0
2.9359,1783191206.4436,1,1,1.0000,0.0000,1.44680,0.20209,-2.78518,1.01225,1.57079,0.00002,-0.14512,-0.38001,0.03855,,,,,,,,,,,,,,,,,,,,,,,,,,0,0,0,0,0
2.9438,1783191206.4516,1,1,1.0000,0.0000,1.44680,0.20201,-2.78520,1.01234,1.57079,0.00002,-0.14512,-0.38001,0.03853,,,,,,,,,,,,,,,,,,,,,,,,,,0,0,0,0,0
2.9592,1783191206.4669,1,1,1.0000,0.0000,1.44680,0.20162,-2.78529,1.01283,1.57079,0.00002,-0.14512,-0.38001,0.03843,,,,,,,,,,,,,,,,,,,,,,,,,,0,0,0,0,0
2.9660,1783191206.4738,1,1,1.0000,0.0000,1.44680,0.20154,-2.78531,1.01293,1.57079,0.00003,-0.14512,-0.38001,0.03841,,,,,,,,,,,,,,,,,,,,,,,,,,0,0,0,0,0
2.9739,1783191206.4817,1,1,1.0000,0.0000,1.44680,0.20152,-2.78531,1.01296,1.57079,0.00003,-0.14512,-0.38001,0.03841,,,,,,,,,,,,,,,,,,,,,,,,,,0,0,0,0,0
2.9848,1783191206.4925,1,1,1.0000,0.0000,1.44680,0.20132,-2.78536,1.01320,1.57079,0.00003,-0.14512,-0.38001,0.03836,,,,,,,,,,,,,,,,,,,,,,,,,,0,0,0,0,0
2.9851,1783191206.4928,1,1,1.0000,0.0000,1.44680,0.20132,-2.78536,1.01320,1.57079,0.00003,-0.14512,-0.38001,0.03836,,,,,,,,,,,,,,,,,,,,,,,,,,0,0,0,0,0
2.9935,1783191206.5013,1,1,1.0000,0.0000,1.44680,0.20114,-2.78540,1.01343,1.57079,0.00003,-0.14512,-0.38001,0.03831,,,,,,,,,,,,,,,,,,,,,,,,,,0,0,0,0,0
2.9939,1783191206.5017,1,1,1.0000,0.0000,1.44680,0.20114,-2.78540,1.01343,1.57079,0.00003,-0.14512,-0.38001,0.03831,,,,,,,,,,,,,,,,,,,,,,,,,,0,0,0,0,0
3.0220,1783191206.5298,1,1,1.0000,0.0000,1.44680,0.20067,-2.78551,1.01401,1.57079,0.00003,-0.14512,-0.38001,0.03819,,,,,,,,,,,,,,,,,,,,,,,,,,0,0,0,0,0
3.0280,1783191206.5357,1,1,1.0000,0.0000,1.44680,0.20058,-2.78553,1.01412,1.57079,0.00003,-0.14512,-0.38001,0.03817,,,,,,,,,,,,,,,,,,,,,,,,,,0,0,0,0,0
3.0297,1783191206.5375,1,1,1.0000,0.0000,1.44680,0.20058,-2.78553,1.01412,1.57079,0.00003,-0.14512,-0.38001,0.03817,,,,,,,,,,,,,,,,,,,,,,,,,,0,0,0,0,0
3.0300,1783191206.5378,1,1,1.0000,0.0000,1.44680,0.20058,-2.78553,1.01412,1.57079,0.00003,-0.14512,-0.38001,0.03817,,,,,,,,,,,,,,,,,,,,,,,,,,0,0,0,0,0
3.0335,1783191206.5413,1,1,1.0000,0.0000,1.44680,0.20056,-2.78554,1.01414,1.57079,0.00003,-0.14512,-0.38001,0.03817,,,,,,,,,,,,,,,,,,,,,,,,,,0,0,0,0,0
3.0339,1783191206.5416,1,1,1.0000,0.0000,1.44680,0.20056,-2.78554,1.01414,1.57079,0.00003,-0.14512,-0.38001,0.03817,,,,,,,,,,,,,,,,,,,,,,,,,,0,0,0,0,0
3.0471,1783191206.5549,1,1,1.0000,0.0000,1.44680,0.20027,-2.78561,1.01450,1.57079,0.00003,-0.14512,-0.38001,0.03809,,,,,,,,,,,,,,,,,,,,,,,,,,0,0,0,0,0
3.0560,1783191206.5638,1,1,1.0000,0.0000,1.44680,0.20018,-2.78563,1.01461,1.57079,0.00003,-0.14512,-0.38001,0.03807,,,,,,,,,,,,,,,,,,,,,,,,,,0,0,0,0,0
3.0634,1783191206.5712,1,1,1.0000,0.0000,1.44680,0.20010,-2.78564,1.01471,1.57079,0.00003,-0.14512,-0.38001,0.03805,,,,,,,,,,,,,,,,,,,,,,,,,,0,0,0,0,0
3.0639,1783191206.5717,1,1,1.0000,0.0000,1.44680,0.20010,-2.78564,1.01471,1.57079,0.00003,-0.14512,-0.38001,0.03805,,,,,,,,,,,,,,,,,,,,,,,,,,0,0,0,0,0
3.0757,1783191206.5835,1,1,1.0000,0.0000,1.44680,0.19981,-2.78571,1.01506,1.57079,0.00003,-0.14512,-0.38001,0.03798,,,,,,,,,,,,,,,,,,,,,,,,,,0,0,0,0,0
3.0838,1783191206.5916,1,1,1.0000,0.0000,1.44680,0.19962,-2.78576,1.01530,1.57079,0.00003,-0.14512,-0.38001,0.03793,,,,,,,,,,,,,,,,,,,,,,,,,,0,0,0,0,0
3.0953,1783191206.6031,1,1,1.0000,0.0000,1.44680,0.19956,-2.78577,1.01538,1.57079,0.00003,-0.14512,-0.38001,0.03792,,,,,,,,,,,,,,,,,,,,,,,,,,0,0,0,0,0
3.0956,1783191206.6034,1,1,1.0000,0.0000,1.44680,0.19956,-2.78577,1.01538,1.57079,0.00003,-0.14512,-0.38001,0.03792,,,,,,,,,,,,,,,,,,,,,,,,,,0,0,0,0,0
3.1088,1783191206.6166,1,1,1.0000,0.0000,1.44680,0.19931,-2.78583,1.01568,1.57079,0.00003,-0.14512,-0.38001,0.03785,,,,,,,,,,,,,,,,,,,,,,,,,,0,0,0,0,0
3.1185,1783191206.6263,1,1,1.0000,0.0000,1.44680,0.19922,-2.78585,1.01579,1.57079,0.00003,-0.14512,-0.38001,0.03783,,,,,,,,,,,,,,,,,,,,,,,,,,0,0,0,0,0
3.1191,1783191206.6268,1,1,1.0000,0.0000,1.44680,0.19920,-2.78586,1.01582,1.57079,0.00003,-0.14512,-0.38001,0.03783,,,,,,,,,,,,,,,,,,,,,,,,,,0,0,0,0,0
3.1271,1783191206.6348,1,1,1.0000,0.0000,1.44680,0.19906,-2.78589,1.01599,1.57079,0.00003,-0.14512,-0.38001,0.03779,,,,,,,,,,,,,,,,,,,,,,,,,,0,0,0,0,0
3.1387,1783191206.6465,1,1,1.0000,0.0000,1.44680,0.19885,-2.78594,1.01625,1.57079,0.00003,-0.14512,-0.38001,0.03774,,,,,,,,,,,,,,,,,,,,,,,,,,0,0,0,0,0
3.1574,1783191206.6652,1,1,1.0000,0.0000,1.44680,0.19860,-2.78600,1.01656,1.57079,0.00003,-0.14512,-0.38001,0.03768,,,,,,,,,,,,,,,,,,,,,,,,,,0,0,0,0,0
3.1578,1783191206.6656,1,1,1.0000,0.0000,1.44680,0.19860,-2.78600,1.01656,1.57079,0.00003,-0.14512,-0.38001,0.03768,,,,,,,,,,,,,,,,,,,,,,,,,,0,0,0,0,0
3.1682,1783191206.6760,1,1,1.0000,0.0000,1.44680,0.19835,-2.78605,1.01686,1.57079,0.00003,-0.14512,-0.38001,0.03762,,,,,,,,,,,,,,,,,,,,,,,,,,0,0,0,0,0
3.1974,1783191206.7052,1,1,1.0000,0.0000,1.44680,0.19789,-2.78616,1.01743,1.57079,0.00003,-0.14512,-0.38001,0.03750,,,,,,,,,,,,,,,,,,,,,,,,,,0,0,0,0,0
3.1980,1783191206.7058,1,1,1.0000,0.0000,1.44680,0.19789,-2.78616,1.01743,1.57079,0.00003,-0.14512,-0.38001,0.03750,,,,,,,,,,,,,,,,,,,,,,,,,,0,0,0,0,0
3.1983,1783191206.7061,1,1,1.0000,0.0000,1.44680,0.19789,-2.78616,1.01743,1.57079,0.00003,-0.14512,-0.38001,0.03750,,,,,,,,,,,,,,,,,,,,,,,,,,0,0,0,0,0
3.2090,1783191206.7168,1,1,1.0000,0.0000,1.44680,0.19770,-2.78620,1.01767,1.57079,0.00003,-0.14512,-0.38001,0.03745,,,,,,,,,,,,,,,,,,,,,,,,,,0,0,0,0,0
3.2153,1783191206.7231,1,1,1.0000,0.0000,1.44680,0.19764,-2.78622,1.01775,1.57079,0.00003,-0.14512,-0.38001,0.03744,,,,,,,,,,,,,,,,,,,,,,,,,,0,0,0,0,0
3.2336,1783191206.7414,1,1,1.0000,0.0000,1.44680,0.19730,-2.78630,1.01816,1.57079,0.00003,-0.14512,-0.38001,0.03735,,,,,,,,,,,,,,,,,,,,,,,,,,0,0,0,0,0
3.2362,1783191206.7440,1,1,1.0000,0.0000,1.44680,0.19730,-2.78630,1.01816,1.57079,0.00003,-0.14512,-0.38001,0.03735,,,,,,,,,,,,,,,,,,,,,,,,,,0,0,0,0,0
3.2364,1783191206.7442,1,1,1.0000,0.0000,1.44680,0.19730,-2.78630,1.01816,1.57079,0.00003,-0.14512,-0.38001,0.03735,,,,,,,,,,,,,,,,,,,,,,,,,,0,0,0,0,0
3.2459,1783191206.7537,1,1,1.0000,0.0000,1.44680,0.19722,-2.78632,1.01826,1.57079,0.00003,-0.14512,-0.38001,0.03733,,,,,,,,,,,,,,,,,,,,,,,,,,0,0,0,0,0
3.2664,1783191206.7742,1,1,1.0000,0.0000,1.44680,0.19674,-2.78643,1.01885,1.57079,0.00003,-0.14512,-0.38001,0.03722,,,,,,,,,,,,,,,,,,,,,,,,,,0,0,0,0,0
3.2671,1783191206.7749,1,1,1.0000,0.0000,1.44680,0.19674,-2.78643,1.01885,1.57079,0.00003,-0.14512,-0.38001,0.03722,,,,,,,,,,,,,,,,,,,,,,,,,,0,0,0,0,0
3.2763,1783191206.7841,1,1,1.0000,0.0000,1.44680,0.19667,-2.78644,1.01893,1.57079,0.00003,-0.14512,-0.38001,0.03720,,,,,,,,,,,,,,,,,,,,,,,,,,0,0,0,0,0
3.2840,1783191206.7918,1,1,1.0000,0.0000,1.44680,0.19652,-2.78648,1.01912,1.57079,0.00003,-0.14512,-0.38001,0.03716,,,,,,,,,,,,,,,,,,,,,,,,,,0,0,0,0,0
3.2953,1783191206.8031,1,1,1.0000,0.0000,1.44679,0.19634,-2.78652,1.01935,1.57079,0.00003,-0.14512,-0.38001,0.03712,,,,,,,,,,,,,,,,,,,,,,,,,,0,0,0,0,0
3.3040,1783191206.8118,1,1,1.0000,0.0000,1.44679,0.19626,-2.78654,1.01944,1.57079,0.00003,-0.14512,-0.38001,0.03710,,,,,,,,,,,,,,,,,,,,,,,,,,0,0,0,0,0
3.3258,1783191206.8335,1,1,1.0000,0.0000,1.44679,0.19578,-2.78665,1.02004,1.57079,0.00003,-0.14511,-0.38001,0.03698,,,,,,,,,,,,,,,,,,,,,,,,,,0,0,0,0,0
3.3267,1783191206.8345,1,1,1.0000,0.0000,1.44679,0.19578,-2.78665,1.02004,1.57079,0.00003,-0.14511,-0.38001,0.03698,,,,,,,,,,,,,,,,,,,,,,,,,,0,0,0,0,0
3.3355,1783191206.8433,1,1,1.0000,0.0000,1.44679,0.19571,-2.78667,1.02012,1.57079,0.00003,-0.14511,-0.38001,0.03696,,,,,,,,,,,,,,,,,,,,,,,,,,0,0,0,0,0
3.3358,1783191206.8435,1,1,1.0000,0.0000,1.44679,0.19571,-2.78667,1.02012,1.57079,0.00003,-0.14511,-0.38001,0.03696,,,,,,,,,,,,,,,,,,,,,,,,,,0,0,0,0,0
3.3441,1783191206.8518,1,1,1.0000,0.0000,1.44679,0.19556,-2.78670,1.02031,1.57079,0.00003,-0.14511,-0.38001,0.03692,,,,,,,,,,,,,,,,,,,,,,,,,,0,0,0,0,0
3.3537,1783191206.8615,1,1,1.0000,0.0000,1.44679,0.19537,-2.78674,1.02053,1.57079,0.00003,-0.14511,-0.38001,0.03688,,,,,,,,,,,,,,,,,,,,,,,,,,0,0,0,0,0
3.3671,1783191206.8748,1,1,1.0000,0.0000,1.44679,0.19521,-2.78678,1.02073,1.57079,0.00003,-0.14511,-0.38001,0.03684,,,,,,,,,,,,,,,,,,,,,,,,,,0,0,0,0,0
3.3753,1783191206.8831,1,1,1.0000,0.0000,1.44679,0.19500,-2.78683,1.02099,1.57079,0.00003,-0.14511,-0.38001,0.03678,,,,,,,,,,,,,,,,,,,,,,,,,,0,0,0,0,0
3.3756,1783191206.8834,1,1,1.0000,0.0000,1.44679,0.19500,-2.78683,1.02099,1.57079,0.00003,-0.14511,-0.38001,0.03678,,,,,,,,,,,,,,,,,,,,,,,,,,0,0,0,0,0
3.3857,1783191206.8934,1,1,1.0000,0.0000,1.44679,0.19481,-2.78687,1.02122,1.57079,0.00003,-0.14511,-0.38001,0.03674,,,,,,,,,,,,,,,,,,,,,,,,,,0,0,0,0,0
3.3951,1783191206.9028,1,1,1.0000,0.0000,1.44679,0.19475,-2.78689,1.02130,1.57079,0.00003,-0.14511,-0.38001,0.03672,,,,,,,,,,,,,,,,,,,,,,,,,,0,0,0,0,0
3.3953,1783191206.9030,1,1,1.0000,0.0000,1.44679,0.19475,-2.78689,1.02130,1.57079,0.00003,-0.14511,-0.38001,0.03672,,,,,,,,,,,,,,,,,,,,,,,,,,0,0,0,0,0
3.4376,1783191206.9454,1,1,1.0000,0.0000,1.44679,0.19404,-2.78705,1.02218,1.57079,0.00003,-0.14511,-0.38001,0.03655,,,,,,,,,,,,,,,,,,,,,,,,,,0,0,0,0,0
3.4382,1783191206.9460,1,1,1.0000,0.0000,1.44679,0.19404,-2.78705,1.02218,1.57079,0.00003,-0.14511,-0.38001,0.03655,,,,,,,,,,,,,,,,,,,,,,,,,,0,0,0,0,0
3.4387,1783191206.9465,1,1,1.0000,0.0000,1.44679,0.19404,-2.78705,1.02218,1.57079,0.00003,-0.14511,-0.38001,0.03655,,,,,,,,,,,,,,,,,,,,,,,,,,0,0,0,0,0
3.4491,1783191206.9568,1,1,1.0000,0.0000,1.44679,0.19385,-2.78710,1.02241,1.57079,0.00003,-0.14511,-0.38001,0.03650,,,,,,,,,,,,,,,,,,,,,,,,,,0,0,0,0,0
3.4555,1783191206.9633,1,1,1.0000,0.0000,1.44679,0.19378,-2.78711,1.02249,1.57079,0.00003,-0.14511,-0.38001,0.03648,,,,,,,,,,,,,,,,,,,,,,,,,,0,0,0,0,0
3.4737,1783191206.9814,1,1,1.0000,0.0000,1.44679,0.19344,-2.78719,1.02291,1.57079,0.00003,-0.14511,-0.38001,0.03640,,,,,,,,,,,,,,,,,,,,,,,,,,0,0,0,0,0
3.4778,1783191206.9855,1,1,1.0000,0.0000,1.44679,0.19344,-2.78719,1.02291,1.57079,0.00003,-0.14511,-0.38001,0.03640,,,,,,,,,,,,,,,,,,,,,,,,,,0,0,0,0,0
3.4781,1783191206.9859,1,1,1.0000,0.0000,1.44679,0.19344,-2.78719,1.02291,1.57079,0.00003,-0.14511,-0.38001,0.03640,,,,,,,,,,,,,,,,,,,,,,,,,,0,0,0,0,0
3.4846,1783191206.9924,1,1,1.0000,0.0000,1.44679,0.19336,-2.78721,1.02301,1.57079,0.00003,-0.14511,-0.38001,0.03638,,,,,,,,,,,,,,,,,,,,,,,,,,0,0,0,0,0
3.5035,1783191207.0113,1,1,1.0000,0.0000,1.44679,0.19288,-2.78732,1.02360,1.57079,0.00003,-0.14511,-0.38001,0.03626,,,,,,,,,,,,,,,,,,,,,,,,,,0,0,0,0,0
3.5040,1783191207.0117,1,1,1.0000,0.0000,1.44679,0.19288,-2.78732,1.02360,1.57079,0.00003,-0.14511,-0.38001,0.03626,,,,,,,,,,,,,,,,,,,,,,,,,,0,0,0,0,0
3.5164,1783191207.0242,1,1,1.0000,0.0000,1.44679,0.19281,-2.78733,1.02368,1.57079,0.00003,-0.14511,-0.38001,0.03624,,,,,,,,,,,,,,,,,,,,,,,,,,0,0,0,0,0
3.5238,1783191207.0316,1,1,1.0000,0.0000,1.44679,0.19266,-2.78737,1.02387,1.57079,0.00003,-0.14511,-0.38001,0.03620,,,,,,,,,,,,,,,,,,,,,,,,,,0,0,0,0,0
3.5342,1783191207.0420,1,1,1.0000,0.0000,1.44679,0.19247,-2.78741,1.02410,1.57079,0.00003,-0.14511,-0.38001,0.03616,,,,,,,,,,,,,,,,,,,,,,,,,,0,0,0,0,0
3.5445,1783191207.0522,1,1,1.0000,0.0000,1.44679,0.19238,-2.78743,1.02422,1.57079,0.00003,-0.14511,-0.38001,0.03614,,,,,,,,,,,,,,,,,,,,,,,,,,0,0,0,0,0
3.5546,1783191207.0624,1,1,1.0000,0.0000,1.44679,0.19226,-2.78746,1.02436,1.57079,0.00003,-0.14511,-0.38001,0.03611,,,,,,,,,,,,,,,,,,,,,,,,,,0,0,0,0,0
3.5673,1783191207.0751,1,1,1.0000,0.0000,1.44679,0.19199,-2.78752,1.02469,1.57079,0.00003,-0.14511,-0.38001,0.03604,,,,,,,,,,,,,,,,,,,,,,,,,,0,0,0,0,0
3.5810,1783191207.0887,1,1,1.0000,0.0000,1.44679,0.19183,-2.78756,1.02489,1.57079,0.00003,-0.14511,-0.38001,0.03600,,,,,,,,,,,,,,,,,,,,,,,,,,0,0,0,0,0
3.5899,1783191207.0977,1,1,1.0000,0.0000,1.44679,0.19162,-2.78761,1.02515,1.57079,0.00003,-0.14511,-0.38001,0.03595,,,,,,,,,,,,,,,,,,,,,,,,,,0,0,0,0,0
3.5993,1783191207.1071,1,1,1.0000,0.0000,1.44679,0.19143,-2.78765,1.02539,1.57079,0.00003,-0.14511,-0.38001,0.03590,,,,,,,,,,,,,,,,,,,,,,,,,,0,0,0,0,0
3.6036,1783191207.1114,1,1,1.0000,0.0000,1.44679,0.19141,-2.78765,1.02541,1.57079,0.00003,-0.14511,-0.38001,0.03590,,,,,,,,,,,,,,,,,,,,,,,,,,0,0,0,0,0
3.6040,1783191207.1117,1,1,1.0000,0.0000,1.44679,0.19141,-2.78765,1.02541,1.57079,0.00003,-0.14511,-0.38001,0.03590,,,,,,,,,,,,,,,,,,,,,,,,,,0,0,0,0,0
3.6356,1783191207.1434,1,1,1.0000,0.0000,1.44679,0.19094,-2.78776,1.02598,1.57079,0.00003,-0.14511,-0.38001,0.03578,,,,,,,,,,,,,,,,,,,,,,,,,,0,0,0,0,0
3.6359,1783191207.1437,1,1,1.0000,0.0000,1.44679,0.19094,-2.78776,1.02598,1.57079,0.00003,-0.14511,-0.38001,0.03578,,,,,,,,,,,,,,,,,,,,,,,,,,0,0,0,0,0
3.6362,1783191207.1440,1,1,1.0000,0.0000,1.44679,0.19094,-2.78776,1.02598,1.57079,0.00003,-0.14511,-0.38001,0.03578,,,,,,,,,,,,,,,,,,,,,,,,,,0,0,0,0,0
3.6487,1783191207.1565,1,1,1.0000,0.0000,1.44679,0.19065,-2.78783,1.02634,1.57079,0.00003,-0.14511,-0.38001,0.03571,,,,,,,,,,,,,,,,,,,,,,,,,,0,0,0,0,0
3.6491,1783191207.1569,1,1,1.0000,0.0000,1.44679,0.19065,-2.78783,1.02634,1.57079,0.00003,-0.14511,-0.38001,0.03571,,,,,,,,,,,,,,,,,,,,,,,,,,0,0,0,0,0
3.6558,1783191207.1636,1,1,1.0000,0.0000,1.44679,0.19046,-2.78787,1.02658,1.57079,0.00003,-0.14511,-0.38001,0.03566,,,,,,,,,,,,,,,,,,,,,,,,,,0,0,0,0,0
3.6562,1783191207.1640,1,1,1.0000,0.0000,1.44679,0.19046,-2.78787,1.02658,1.57079,0.00003,-0.14511,-0.38001,0.03566,,,,,,,,,,,,,,,,,,,,,,,,,,0,0,0,0,0
3.6696,1783191207.1774,1,1,1.0000,0.0000,1.44679,0.19039,-2.78789,1.02666,1.57079,0.00003,-0.14511,-0.38001,0.03565,,,,,,,,,,,,,,,,,,,,,,,,,,0,0,0,0,0
3.6772,1783191207.1850,1,1,1.0000,0.0000,1.44679,0.19023,-2.78792,1.02685,1.57079,0.00003,-0.14511,-0.38001,0.03561,,,,,,,,,,,,,,,,,,,,,,,,,,0,0,0,0,0
3.6850,1783191207.1928,1,1,1.0000,0.0000,1.44679,0.19005,-2.78796,1.02707,1.57079,0.00003,-0.14511,-0.38001,0.03556,,,,,,,,,,,,,,,,,,,,,,,,,,0,0,0,0,0
3.6853,1783191207.1931,1,1,1.0000,0.0000,1.44679,0.19005,-2.78796,1.02707,1.57079,0.00003,-0.14511,-0.38001,0.03556,,,,,,,,,,,,,,,,,,,,,,,,,,0,0,0,0,0
3.6970,1783191207.2047,1,1,1.0000,0.0000,1.44679,0.18997,-2.78798,1.02717,1.57079,0.00003,-0.14511,-0.38001,0.03554,,,,,,,,,,,,,,,,,,,,,,,,,,0,0,0,0,0
3.7036,1783191207.2114,1,1,1.0000,0.0000,1.44679,0.18978,-2.78802,1.02740,1.57079,0.00003,-0.14511,-0.38001,0.03550,,,,,,,,,,,,,,,,,,,,,,,,,,0,0,0,0,0
3.7040,1783191207.2118,1,1,1.0000,0.0000,1.44679,0.18978,-2.78802,1.02740,1.57079,0.00003,-0.14511,-0.38001,0.03550,,,,,,,,,,,,,,,,,,,,,,,,,,0,0,0,0,0
3.7273,1783191207.2350,1,1,1.0000,0.0000,1.44679,0.18942,-2.78811,1.02785,1.57079,0.00003,-0.14511,-0.38001,0.03541,,,,,,,,,,,,,,,,,,,,,,,,,,0,0,0,0,0
3.7281,1783191207.2359,1,1,1.0000,0.0000,1.44679,0.18942,-2.78811,1.02785,1.57079,0.00003,-0.14511,-0.38001,0.03541,,,,,,,,,,,,,,,,,,,,,,,,,,0,0,0,0,0
3.7360,1783191207.2438,1,1,1.0000,0.0000,1.44679,0.18926,-2.78814,1.02804,1.57079,0.00003,-0.14511,-0.38001,0.03537,,,,,,,,,,,,,,,,,,,,,,,,,,0,0,0,0,0
3.7942,1783191207.3020,1,1,1.0000,0.0000,1.44679,0.18837,-2.78834,1.02913,1.57079,0.00003,-0.14511,-0.38001,0.03515,,,,,,,,,,,,,,,,,,,,,,,,,,0,0,0,0,0
3.7946,1783191207.3024,1,1,1.0000,0.0000,1.44679,0.18837,-2.78834,1.02913,1.57079,0.00003,-0.14511,-0.38001,0.03515,,,,,,,,,,,,,,,,,,,,,,,,,,0,0,0,0,0
3.7952,1783191207.3030,1,1,1.0000,0.0000,1.44679,0.18829,-2.78836,1.02924,1.57079,0.00003,-0.14511,-0.38001,0.03513,,,,,,,,,,,,,,,,,,,,,,,,,,0,0,0,0,0
3.7959,1783191207.3037,1,1,1.0000,0.0000,1.44679,0.18829,-2.78836,1.02924,1.57079,0.00003,-0.14511,-0.38001,0.03513,,,,,,,,,,,,,,,,,,,,,,,,,,0,0,0,0,0
3.7963,1783191207.3040,1,1,1.0000,0.0000,1.44679,0.18829,-2.78836,1.02924,1.57079,0.00003,-0.14511,-0.38001,0.03513,,,,,,,,,,,,,,,,,,,,,,,,,,0,0,0,0,0
3.8075,1783191207.3153,1,1,1.0000,0.0000,1.44679,0.18810,-2.78840,1.02946,1.57079,0.00004,-0.14511,-0.38001,0.03508,,,,,,,,,,,,,,,,,,,,,,,,,,0,0,0,0,0
3.8079,1783191207.3157,1,1,1.0000,0.0000,1.44679,0.18810,-2.78840,1.02946,1.57079,0.00004,-0.14511,-0.38001,0.03508,,,,,,,,,,,,,,,,,,,,,,,,,,0,0,0,0,0
3.8309,1783191207.3386,1,1,1.0000,0.0000,1.44679,0.18773,-2.78849,1.02992,1.57079,0.00004,-0.14511,-0.38001,0.03499,,,,,,,,,,,,,,,,,,,,,,,,,,0,0,0,0,0
3.8314,1783191207.3391,1,1,1.0000,0.0000,1.44679,0.18763,-2.78851,1.03005,1.57079,0.00004,-0.14511,-0.38001,0.03497,,,,,,,,,,,,,,,,,,,,,,,,,,0,0,0,0,0
3.8392,1783191207.3470,1,1,1.0000,0.0000,1.44679,0.18754,-2.78853,1.03016,1.57079,0.00004,-0.14511,-0.38001,0.03494,,,,,,,,,,,,,,,,,,,,,,,,,,0,0,0,0,0
3.8464,1783191207.3542,1,1,1.0000,0.0000,1.44679,0.18752,-2.78854,1.03018,1.57079,0.00004,-0.14511,-0.38001,0.03494,,,,,,,,,,,,,,,,,,,,,,,,,,0,0,0,0,0
3.8469,1783191207.3547,1,1,1.0000,0.0000,1.44679,0.18752,-2.78854,1.03018,1.57079,0.00004,-0.14511,-0.38001,0.03494,,,,,,,,,,,,,,,,,,,,,,,,,,0,0,0,0,0
3.8537,1783191207.3615,1,1,1.0000,0.0000,1.44679,0.18740,-2.78856,1.03032,1.57079,0.00004,-0.14511,-0.38001,0.03491,,,,,,,,,,,,,,,,,,,,,,,,,,0,0,0,0,0
3.8654,1783191207.3732,1,1,1.0000,0.0000,1.44679,0.18713,-2.78862,1.03065,1.57079,0.00004,-0.14511,-0.38001,0.03485,,,,,,,,,,,,,,,,,,,,,,,,,,0,0,0,0,0
3.8753,1783191207.3831,1,1,1.0000,0.0000,1.44679,0.18705,-2.78864,1.03075,1.57079,0.00004,-0.14511,-0.38001,0.03483,,,,,,,,,,,,,,,,,,,,,,,,,,0,0,0,0,0
3.8874,1783191207.3952,1,1,1.0000,0.0000,1.44679,0.18675,-2.78871,1.03111,1.57079,0.00004,-0.14511,-0.38001,0.03475,,,,,,,,,,,,,,,,,,,,,,,,,,0,0,0,0,0
3.8877,1783191207.3955,1,1,1.0000,0.0000,1.44679,0.18675,-2.78871,1.03111,1.57079,0.00004,-0.14511,-0.38001,0.03475,,,,,,,,,,,,,,,,,,,,,,,,,,0,0,0,0,0
3.8993,1783191207.4071,1,1,1.0000,0.0000,1.44679,0.18656,-2.78875,1.03135,1.57079,0.00004,-0.14511,-0.38001,0.03471,,,,,,,,,,,,,,,,,,,,,,,,,,0,0,0,0,0
3.9059,1783191207.4137,1,1,1.0000,0.0000,1.44679,0.18654,-2.78876,1.03137,1.57079,0.00004,-0.14511,-0.38001,0.03470,,,,,,,,,,,,,,,,,,,,,,,,,,0,0,0,0,0
3.9138,1783191207.4216,1,1,1.0000,0.0000,1.44679,0.18642,-2.78878,1.03152,1.57079,0.00004,-0.14511,-0.38001,0.03467,,,,,,,,,,,,,,,,,,,,,,,,,,0,0,0,0,0
3.9238,1783191207.4315,1,1,1.0000,0.0000,1.44679,0.18615,-2.78884,1.03185,1.57079,0.00004,-0.14511,-0.38001,0.03461,,,,,,,,,,,,,,,,,,,,,,,,,,0,0,0,0,0
3.9241,1783191207.4319,1,1,1.0000,0.0000,1.44679,0.18615,-2.78884,1.03185,1.57079,0.00004,-0.14511,-0.38001,0.03461,,,,,,,,,,,,,,,,,,,,,,,,,,0,0,0,0,0
3.9439,1783191207.4517,1,1,1.0000,0.0000,1.44679,0.18589,-2.78890,1.03218,1.57079,0.00004,-0.14511,-0.38001,0.03454,,,,,,,,,,,,,,,,,,,,,,,,,,0,0,0,0,0
3.9445,1783191207.4523,1,1,1.0000,0.0000,1.44679,0.18589,-2.78890,1.03218,1.57079,0.00004,-0.14511,-0.38001,0.03454,,,,,,,,,,,,,,,,,,,,,,,,,,0,0,0,0,0
3.9448,1783191207.4526,1,1,1.0000,0.0000,1.44679,0.18589,-2.78890,1.03218,1.57079,0.00004,-0.14511,-0.38001,0.03454,,,,,,,,,,,,,,,,,,,,,,,,,,0,0,0,0,0
3.9547,1783191207.4625,1,1,1.0000,0.0000,1.44679,0.18567,-2.78895,1.03244,1.57079,0.00004,-0.14511,-0.38001,0.03449,,,,,,,,,,,,,,,,,,,,,,,,,,0,0,0,0,0
3.9553,1783191207.4631,1,1,1.0000,0.0000,1.44679,0.18558,-2.78897,1.03255,1.57079,0.00004,-0.14511,-0.38001,0.03447,,,,,,,,,,,,,,,,,,,,,,,,,,0,0,0,0,0
3.9864,1783191207.4942,1,1,1.0000,0.0000,1.44679,0.18518,-2.78906,1.03305,1.57079,0.00004,-0.14511,-0.38001,0.03437,,,,,,,,,,,,,,,,,,,,,,,,,,0,0,0,0,0
3.9866,1783191207.4944,1,1,1.0000,0.0000,1.44679,0.18518,-2.78906,1.03305,1.57079,0.00004,-0.14511,-0.38001,0.03437,,,,,,,,,,,,,,,,,,,,,,,,,,0,0,0,0,0
3.9937,1783191207.5015,1,1,1.0000,0.0000,1.44679,0.18515,-2.78907,1.03307,1.57079,0.00004,-0.14511,-0.38001,0.03436,,,,,,,,,,,,,,,,,,,,,,,,,,0,0,0,0,0
4.0099,1783191207.5177,1,1,1.0000,0.0000,1.44679,0.18480,-2.78915,1.03351,1.57079,0.00004,-0.14511,-0.38001,0.03428,,,,,,,,,,,,,,,,,,,,,,,,,,0,0,0,0,0
4.0137,1783191207.5215,1,1,1.0000,0.0000,1.44679,0.18470,-2.78917,1.03363,1.57079,0.00004,-0.14511,-0.38001,0.03425,,,,,,,,,,,,,,,,,,,,,,,,,,0,0,0,0,0
4.0248,1783191207.5326,1,1,1.0000,0.0000,1.44679,0.18459,-2.78919,1.03377,1.57079,0.00004,-0.14511,-0.38001,0.03422,,,,,,,,,,,,,,,,,,,,,,,,,,0,0,0,0,0
4.0490,1783191207.5568,1,1,1.0000,0.0000,1.44679,0.18420,-2.78928,1.03424,1.57079,0.00004,-0.14511,-0.38001,0.03413,,,,,,,,,,,,,,,,,,,,,,,,,,0,0,0,0,0
4.0494,1783191207.5572,1,1,1.0000,0.0000,1.44679,0.18420,-2.78928,1.03424,1.57079,0.00004,-0.14511,-0.38001,0.03413,,,,,,,,,,,,,,,,,,,,,,,,,,0,0,0,0,0
4.0534,1783191207.5612,1,1,1.0000,0.0000,1.44679,0.18418,-2.78929,1.03427,1.57079,0.00004,-0.14511,-0.38001,0.03412,,,,,,,,,,,,,,,,,,,,,,,,,,0,0,0,0,0
4.0537,1783191207.5615,1,1,1.0000,0.0000,1.44679,0.18418,-2.78929,1.03427,1.57079,0.00004,-0.14511,-0.38001,0.03412,,,,,,,,,,,,,,,,,,,,,,,,,,0,0,0,0,0
4.0650,1783191207.5728,1,1,1.0000,0.0000,1.44679,0.18393,-2.78934,1.03457,1.57079,0.00004,-0.14511,-0.38001,0.03406,,,,,,,,,,,,,,,,,,,,,,,,,,0,0,0,0,0
4.0860,1783191207.5938,1,1,1.0000,0.0000,1.44679,0.18361,-2.78941,1.03496,1.57079,0.00004,-0.14511,-0.38001,0.03398,,,,,,,,,,,,,,,,,,,,,,,,,,0,0,0,0,0
4.0995,1783191207.6073,1,1,1.0000,0.0000,1.44679,0.18331,-2.78948,1.03533,1.57079,0.00004,-0.14511,-0.38001,0.03391,,,,,,,,,,,,,,,,,,,,,,,,,,0,0,0,0,0
4.1056,1783191207.6134,1,1,1.0000,0.0000,1.44679,0.18322,-2.78950,1.03544,1.57079,0.00004,-0.14511,-0.38001,0.03389,,,,,,,,,,,,,,,,,,,,,,,,,,0,0,0,0,0
4.1154,1783191207.6231,1,1,1.0000,0.0000,1.44679,0.18314,-2.78952,1.03554,1.57079,0.00004,-0.14511,-0.38001,0.03387,,,,,,,,,,,,,,,,,,,,,,,,,,0,0,0,0,0
4.1158,1783191207.6235,1,1,1.0000,0.0000,1.44679,0.18314,-2.78952,1.03554,1.57079,0.00004,-0.14511,-0.38001,0.03387,,,,,,,,,,,,,,,,,,,,,,,,,,0,0,0,0,0
4.1306,1783191207.6383,1,1,1.0000,0.0000,1.44679,0.18284,-2.78958,1.03590,1.57079,0.00004,-0.14511,-0.38001,0.03380,,,,,,,,,,,,,,,,,,,,,,,,,,0,0,0,0,0
4.1359,1783191207.6437,1,1,1.0000,0.0000,1.44678,0.18265,-2.78963,1.03614,1.57079,0.00004,-0.14511,-0.38001,0.03375,,,,,,,,,,,,,,,,,,,,,,,,,,0,0,0,0,0
4.1448,1783191207.6526,1,1,1.0000,0.0000,1.44678,0.18263,-2.78963,1.03616,1.57079,0.00004,-0.14511,-0.38001,0.03375,,,,,,,,,,,,,,,,,,,,,,,,,,0,0,0,0,0
4.1451,1783191207.6529,1,1,1.0000,0.0000,1.44678,0.18263,-2.78963,1.03616,1.57079,0.00004,-0.14511,-0.38001,0.03375,,,,,,,,,,,,,,,,,,,,,,,,,,0,0,0,0,0
4.1556,1783191207.6634,1,1,1.0000,0.0000,1.44678,0.18242,-2.78968,1.03641,1.57079,0.00004,-0.14511,-0.38001,0.03370,,,,,,,,,,,,,,,,,,,,,,,,,,0,0,0,0,0
4.1644,1783191207.6722,1,1,1.0000,0.0000,1.44678,0.18224,-2.78972,1.03664,1.57079,0.00004,-0.14511,-0.38001,0.03365,,,,,,,,,,,,,,,,,,,,,,,,,,0,0,0,0,0
4.1646,1783191207.6724,1,1,1.0000,0.0000,1.44678,0.18224,-2.78972,1.03664,1.57079,0.00004,-0.14511,-0.38001,0.03365,,,,,,,,,,,,,,,,,,,,,,,,,,0,0,0,0,0
4.1737,1783191207.6815,1,1,1.0000,0.0000,1.44678,0.18221,-2.78972,1.03667,1.57079,0.00004,-0.14511,-0.38001,0.03365,,,,,,,,,,,,,,,,,,,,,,,,,,0,0,0,0,0
4.1861,1783191207.6938,1,1,1.0000,0.0000,1.44678,0.18197,-2.78978,1.03697,1.57079,0.00004,-0.14511,-0.38001,0.03359,,,,,,,,,,,,,,,,,,,,,,,,,,0,0,0,0,0
4.1954,1783191207.7032,1,1,1.0000,0.0000,1.44678,0.18166,-2.78985,1.03734,1.57079,0.00004,-0.14511,-0.38000,0.03351,,,,,,,,,,,,,,,,,,,,,,,,,,0,0,0,0,0
4.1957,1783191207.7035,1,1,1.0000,0.0000,1.44678,0.18166,-2.78985,1.03734,1.57079,0.00004,-0.14511,-0.38000,0.03351,,,,,,,,,,,,,,,,,,,,,,,,,,0,0,0,0,0
4.2036,1783191207.7114,1,1,1.0000,0.0000,1.44678,0.18165,-2.78985,1.03736,1.57079,0.00004,-0.14511,-0.38000,0.03351,,,,,,,,,,,,,,,,,,,,,,,,,,0,0,0,0,0
4.2040,1783191207.7117,1,1,1.0000,0.0000,1.44678,0.18165,-2.78985,1.03736,1.57079,0.00004,-0.14511,-0.38000,0.03351,,,,,,,,,,,,,,,,,,,,,,,,,,0,0,0,0,0
4.2137,1783191207.7215,1,1,1.0000,0.0000,1.44678,0.18153,-2.78988,1.03751,1.57079,0.00004,-0.14511,-0.38000,0.03348,,,,,,,,,,,,,,,,,,,,,,,,,,0,0,0,0,0
4.2456,1783191207.7533,1,1,1.0000,0.0000,1.44678,0.18098,-2.79000,1.03817,1.57079,0.00004,-0.14511,-0.38000,0.03335,,,,,,,,,,,,,,,,,,,,,,,,,,0,0,0,0,0
4.2459,1783191207.7537,1,1,1.0000,0.0000,1.44678,0.18098,-2.79000,1.03817,1.57079,0.00004,-0.14511,-0.38000,0.03335,,,,,,,,,,,,,,,,,,,,,,,,,,0,0,0,0,0
4.2463,1783191207.7541,1,1,1.0000,0.0000,1.44678,0.18098,-2.79000,1.03817,1.57079,0.00004,-0.14511,-0.38000,0.03335,,,,,,,,,,,,,,,,,,,,,,,,,,0,0,0,0,0
4.2562,1783191207.7640,1,1,1.0000,0.0000,1.44678,0.18068,-2.79006,1.03854,1.57079,0.00004,-0.14511,-0.38000,0.03327,,,,,,,,,,,,,,,,,,,,,,,,,,0,0,0,0,0
4.2901,1783191207.7979,1,1,1.0000,0.0000,1.44678,0.18019,-2.79017,1.03914,1.57079,0.00004,-0.14511,-0.38000,0.03315,,,,,,,,,,,,,,,,,,,,,,,,,,0,0,0,0,0
4.2905,1783191207.7983,1,1,1.0000,0.0000,1.44678,0.18019,-2.79017,1.03914,1.57079,0.00004,-0.14511,-0.38000,0.03315,,,,,,,,,,,,,,,,,,,,,,,,,,0,0,0,0,0
4.2973,1783191207.8050,1,1,1.0000,0.0000,1.44678,0.18017,-2.79018,1.03916,1.57079,0.00004,-0.14511,-0.38000,0.03315,,,,,,,,,,,,,,,,,,,,,,,,,,0,0,0,0,0
4.3091,1783191207.8169,1,1,1.0000,0.0000,1.44678,0.17996,-2.79022,1.03942,1.57079,0.00004,-0.14511,-0.38000,0.03310,,,,,,,,,,,,,,,,,,,,,,,,,,0,0,0,0,0
4.3095,1783191207.8172,1,1,1.0000,0.0000,1.44678,0.17996,-2.79022,1.03942,1.57079,0.00004,-0.14511,-0.38000,0.03310,,,,,,,,,,,,,,,,,,,,,,,,,,0,0,0,0,0
4.3536,1783191207.8614,1,1,1.0000,0.0000,1.44678,0.17920,-2.79039,1.04034,1.57079,0.00004,-0.14511,-0.38000,0.03291,,,,,,,,,,,,,,,,,,,,,,,,,,0,0,0,0,0
4.3541,1783191207.8619,1,1,1.0000,0.0000,1.44678,0.17920,-2.79039,1.04034,1.57079,0.00004,-0.14511,-0.38000,0.03291,,,,,,,,,,,,,,,,,,,,,,,,,,0,0,0,0,0
4.3545,1783191207.8623,1,1,1.0000,0.0000,1.44678,0.17920,-2.79039,1.04034,1.57079,0.00004,-0.14511,-0.38000,0.03291,,,,,,,,,,,,,,,,,,,,,,,,,,0,0,0,0,0
4.3551,1783191207.8629,1,1,1.0000,0.0000,1.44678,0.17919,-2.79039,1.04036,1.57079,0.00004,-0.14511,-0.38000,0.03291,,,,,,,,,,,,,,,,,,,,,,,,,,0,0,0,0,0
4.3575,1783191207.8653,1,1,1.0000,0.0000,1.44678,0.17919,-2.79039,1.04036,1.57079,0.00004,-0.14511,-0.38000,0.03291,,,,,,,,,,,,,,,,,,,,,,,,,,0,0,0,0,0
4.3673,1783191207.8751,1,1,1.0000,0.0000,1.44678,0.17898,-2.79044,1.04062,1.57079,0.00004,-0.14511,-0.38000,0.03286,,,,,,,,,,,,,,,,,,,,,,,,,,0,0,0,0,0
4.3776,1783191207.8854,1,1,1.0000,0.0000,1.44678,0.17879,-2.79048,1.04084,1.57079,0.00004,-0.14511,-0.38000,0.03281,,,,,,,,,,,,,,,,,,,,,,,,,,0,0,0,0,0
4.3906,1783191207.8984,1,1,1.0000,0.0000,1.44678,0.17871,-2.79050,1.04094,1.57079,0.00004,-0.14511,-0.38000,0.03279,,,,,,,,,,,,,,,,,,,,,,,,,,0,0,0,0,0
4.3974,1783191207.9052,1,1,1.0000,0.0000,1.44678,0.17852,-2.79054,1.04117,1.57079,0.00004,-0.14511,-0.38000,0.03275,,,,,,,,,,,,,,,,,,,,,,,,,,0,0,0,0,0
4.3978,1783191207.9055,1,1,1.0000,0.0000,1.44678,0.17852,-2.79054,1.04117,1.57079,0.00004,-0.14511,-0.38000,0.03275,,,,,,,,,,,,,,,,,,,,,,,,,,0,0,0,0,0
4.4091,1783191207.9169,1,1,1.0000,0.0000,1.44678,0.17822,-2.79061,1.04155,1.57079,0.00004,-0.14511,-0.38000,0.03268,,,,,,,,,,,,,,,,,,,,,,,,,,0,0,0,0,0
4.4174,1783191207.9252,1,1,1.0000,0.0000,1.44678,0.17820,-2.79061,1.04157,1.57079,0.00004,-0.14511,-0.38000,0.03267,,,,,,,,,,,,,,,,,,,,,,,,,,0,0,0,0,0
4.4306,1783191207.9384,1,1,1.0000,0.0000,1.44678,0.17799,-2.79066,1.04182,1.57079,0.00004,-0.14511,-0.38000,0.03262,,,,,,,,,,,,,,,,,,,,,,,,,,0,0,0,0,0
4.4388,1783191207.9466,1,1,1.0000,0.0000,1.44678,0.17781,-2.79070,1.04205,1.57079,0.00004,-0.14511,-0.38000,0.03258,,,,,,,,,,,,,,,,,,,,,,,,,,0,0,0,0,0
4.4520,1783191207.9598,1,1,1.0000,0.0000,1.44678,0.17764,-2.79073,1.04225,1.57079,0.00004,-0.14511,-0.38000,0.03253,,,,,,,,,,,,,,,,,,,,,,,,,,0,0,0,0,0
4.4606,1783191207.9684,1,1,1.0000,0.0000,1.44678,0.17743,-2.79078,1.04251,1.57079,0.00004,-0.14511,-0.38000,0.03248,,,,,,,,,,,,,,,,,,,,,,,,,,0,0,0,0,0
4.4609,1783191207.9687,1,1,1.0000,0.0000,1.44678,0.17743,-2.79078,1.04251,1.57079,0.00004,-0.14511,-0.38000,0.03248,,,,,,,,,,,,,,,,,,,,,,,,,,0,0,0,0,0
4.4674,1783191207.9751,1,1,1.0000,0.0000,1.44678,0.17723,-2.79082,1.04275,1.57079,0.00004,-0.14511,-0.38000,0.03244,,,,,,,,,,,,,,,,,,,,,,,,,,0,0,0,0,0
4.4786,1783191207.9864,1,1,1.0000,0.0000,1.44678,0.17721,-2.79083,1.04277,1.57079,0.00004,-0.14511,-0.38000,0.03243,,,,,,,,,,,,,,,,,,,,,,,,,,0,0,0,0,0
4.4889,1783191207.9967,1,1,1.0000,0.0000,1.44678,0.17700,-2.79087,1.04302,1.57079,0.00004,-0.14511,-0.38000,0.03238,,,,,,,,,,,,,,,,,,,,,,,,,,0,0,0,0,0
4.4974,1783191208.0052,1,1,1.0000,0.0000,1.44678,0.17682,-2.79091,1.04325,1.57079,0.00004,-0.14511,-0.38000,0.03234,,,,,,,,,,,,,,,,,,,,,,,,,,0,0,0,0,0
4.5081,1783191208.0159,1,1,1.0000,0.0000,1.44678,0.17674,-2.79093,1.04335,1.57079,0.00004,-0.14511,-0.38000,0.03232,,,,,,,,,,,,,,,,,,,,,,,,,,0,0,0,0,0
4.5239,1783191208.0317,1,1,1.0000,0.0000,1.44678,0.17633,-2.79102,1.04384,1.57079,0.00004,-0.14511,-0.38000,0.03222,,,,,,,,,,,,,,,,,,,,,,,,,,0,0,0,0,0
4.5306,1783191208.0384,1,1,1.0000,0.0000,1.44678,0.17624,-2.79104,1.04395,1.57079,0.00004,-0.14511,-0.38000,0.03220,,,,,,,,,,,,,,,,,,,,,,,,,,0,0,0,0,0
4.5312,1783191208.0390,1,1,1.0000,0.0000,1.44678,0.17624,-2.79104,1.04395,1.57079,0.00004,-0.14511,-0.38000,0.03220,,,,,,,,,,,,,,,,,,,,,,,,,,0,0,0,0,0
4.5420,1783191208.0498,1,1,1.0000,0.0000,1.44678,0.17617,-2.79105,1.04404,1.57079,0.00004,-0.14511,-0.38000,0.03218,,,,,,,,,,,,,,,,,,,,,,,,,,0,0,0,0,0
4.5577,1783191208.0655,1,1,1.0000,0.0000,1.44678,0.17583,-2.79113,1.04446,1.57079,0.00004,-0.14511,-0.38000,0.03210,,,,,,,,,,,,,,,,,,,,,,,,,,0,0,0,0,0
4.5581,1783191208.0658,1,1,1.0000,0.0000,1.44678,0.17583,-2.79113,1.04446,1.57079,0.00004,-0.14511,-0.38000,0.03210,,,,,,,,,,,,,,,,,,,,,,,,,,0,0,0,0,0
4.5676,1783191208.0753,1,1,1.0000,0.0000,1.44678,0.17575,-2.79115,1.04456,1.57079,0.00004,-0.14511,-0.38000,0.03208,,,,,,,,,,,,,,,,,,,,,,,,,,0,0,0,0,0
4.5678,1783191208.0755,1,1,1.0000,0.0000,1.44678,0.17575,-2.79115,1.04456,1.57079,0.00004,-0.14511,-0.38000,0.03208,,,,,,,,,,,,,,,,,,,,,,,,,,0,0,0,0,0
4.5771,1783191208.0849,1,1,1.0000,0.0000,1.44678,0.17556,-2.79119,1.04479,1.57079,0.00004,-0.14511,-0.38000,0.03203,,,,,,,,,,,,,,,,,,,,,,,,,,0,0,0,0,0
4.5774,1783191208.0852,1,1,1.0000,0.0000,1.44678,0.17556,-2.79119,1.04479,1.57079,0.00004,-0.14511,-0.38000,0.03203,,,,,,,,,,,,,,,,,,,,,,,,,,0,0,0,0,0
4.5913,1783191208.0991,1,1,1.0000,0.0000,1.44678,0.17525,-2.79125,1.04516,1.57079,0.00004,-0.14511,-0.38000,0.03196,,,,,,,,,,,,,,,,,,,,,,,,,,0,0,0,0,0
4.5995,1783191208.1073,1,1,1.0000,0.0000,1.44678,0.17518,-2.79127,1.04524,1.57079,0.00004,-0.14511,-0.38000,0.03194,,,,,,,,,,,,,,,,,,,,,,,,,,0,0,0,0,0
4.6100,1783191208.1178,1,1,1.0000,0.0000,1.44678,0.17502,-2.79130,1.04544,1.57079,0.00004,-0.14511,-0.38000,0.03190,,,,,,,,,,,,,,,,,,,,,,,,,,0,0,0,0,0
4.6194,1783191208.1271,1,1,1.0000,0.0000,1.44678,0.17484,-2.79134,1.04566,1.57079,0.00004,-0.14511,-0.38000,0.03186,,,,,,,,,,,,,,,,,,,,,,,,,,0,0,0,0,0
4.6279,1783191208.1356,1,1,1.0000,0.0000,1.44678,0.17476,-2.79136,1.04576,1.57079,0.00004,-0.14511,-0.38000,0.03184,,,,,,,,,,,,,,,,,,,,,,,,,,0,0,0,0,0
4.6282,1783191208.1360,1,1,1.0000,0.0000,1.44678,0.17476,-2.79136,1.04576,1.57079,0.00004,-0.14511,-0.38000,0.03184,,,,,,,,,,,,,,,,,,,,,,,,,,0,0,0,0,0
4.6407,1783191208.1485,1,1,1.0000,0.0000,1.44678,0.17446,-2.79143,1.04613,1.57079,0.00004,-0.14511,-0.38000,0.03177,,,,,,,,,,,,,,,,,,,,,,,,,,0,0,0,0,0
4.6487,1783191208.1565,1,1,1.0000,0.0000,1.44678,0.17426,-2.79147,1.04637,1.57079,0.00004,-0.14511,-0.38000,0.03172,,,,,,,,,,,,,,,,,,,,,,,,,,0,0,0,0,0
4.6616,1783191208.1694,1,1,1.0000,0.0000,1.44678,0.17419,-2.79148,1.04645,1.57079,0.00005,-0.14511,-0.38000,0.03170,,,,,,,,,,,,,,,,,,,,,,,,,,0,0,0,0,0
4.6621,1783191208.1698,1,1,1.0000,0.0000,1.44678,0.17419,-2.79148,1.04645,1.57079,0.00005,-0.14511,-0.38000,0.03170,,,,,,,,,,,,,,,,,,,,,,,,,,0,0,0,0,0
4.6691,1783191208.1769,1,1,1.0000,0.0000,1.44678,0.17403,-2.79152,1.04664,1.57079,0.00005,-0.14511,-0.38000,0.03166,,,,,,,,,,,,,,,,,,,,,,,,,,0,0,0,0,0
4.6694,1783191208.1772,1,1,1.0000,0.0000,1.44678,0.17403,-2.79152,1.04664,1.57079,0.00005,-0.14511,-0.38000,0.03166,,,,,,,,,,,,,,,,,,,,,,,,,,0,0,0,0,0
4.6796,1783191208.1874,1,1,1.0000,0.0000,1.44678,0.17385,-2.79156,1.04687,1.57079,0.00005,-0.14511,-0.38000,0.03162,,,,,,,,,,,,,,,,,,,,,,,,,,0,0,0,0,0
4.6874,1783191208.1952,1,1,1.0000,0.0000,1.44678,0.17376,-2.79158,1.04697,1.57079,0.00005,-0.14511,-0.38000,0.03160,,,,,,,,,,,,,,,,,,,,,,,,,,0,0,0,0,0
4.6877,1783191208.1955,1,1,1.0000,0.0000,1.44678,0.17376,-2.79158,1.04697,1.57079,0.00005,-0.14511,-0.38000,0.03160,,,,,,,,,,,,,,,,,,,,,,,,,,0,0,0,0,0
4.7034,1783191208.2112,1,1,1.0000,0.0000,1.44678,0.17336,-2.79166,1.04746,1.57079,0.00005,-0.14511,-0.38000,0.03150,,,,,,,,,,,,,,,,,,,,,,,,,,0,0,0,0,0
4.7038,1783191208.2116,1,1,1.0000,0.0000,1.44678,0.17336,-2.79166,1.04746,1.57079,0.00005,-0.14511,-0.38000,0.03150,,,,,,,,,,,,,,,,,,,,,,,,,,0,0,0,0,0
4.7073,1783191208.2151,1,1,1.0000,0.0000,1.44678,0.17327,-2.79168,1.04757,1.57079,0.00005,-0.14511,-0.38000,0.03148,,,,,,,,,,,,,,,,,,,,,,,,,,0,0,0,0,0
4.7077,1783191208.2155,1,1,1.0000,0.0000,1.44678,0.17327,-2.79168,1.04757,1.57079,0.00005,-0.14511,-0.38000,0.03148,,,,,,,,,,,,,,,,,,,,,,,,,,0,0,0,0,0
4.7172,1783191208.2250,1,1,1.0000,0.0000,1.44678,0.17325,-2.79169,1.04760,1.57079,0.00005,-0.14511,-0.38000,0.03148,,,,,,,,,,,,,,,,,,,,,,,,,,0,0,0,0,0
4.7175,1783191208.2253,1,1,1.0000,0.0000,1.44678,0.17325,-2.79169,1.04760,1.57079,0.00005,-0.14511,-0.38000,0.03148,,,,,,,,,,,,,,,,,,,,,,,,,,0,0,0,0,0
4.7286,1783191208.2364,1,1,1.0000,0.0000,1.44678,0.17304,-2.79173,1.04785,1.57079,0.00005,-0.14511,-0.38000,0.03143,,,,,,,,,,,,,,,,,,,,,,,,,,0,0,0,0,0
4.7486,1783191208.2563,1,1,1.0000,0.0000,1.44678,0.17277,-2.79179,1.04818,1.57079,0.00005,-0.14511,-0.38000,0.03136,,,,,,,,,,,,,,,,,,,,,,,,,,0,0,0,0,0
4.7493,1783191208.2571,1,1,1.0000,0.0000,1.44678,0.17277,-2.79179,1.04818,1.57079,0.00005,-0.14511,-0.38000,0.03136,,,,,,,,,,,,,,,,,,,,,,,,,,0,0,0,0,0
4.7496,1783191208.2574,1,1,1.0000,0.0000,1.44678,0.17277,-2.79179,1.04818,1.57079,0.00005,-0.14511,-0.38000,0.03136,,,,,,,,,,,,,,,,,,,,,,,,,,0,0,0,0,0
4.7623,1783191208.2701,1,1,1.0000,0.0000,1.44678,0.17247,-2.79186,1.04854,1.57079,0.00005,-0.14511,-0.38000,0.03129,,,,,,,,,,,,,,,,,,,,,,,,,,0,0,0,0,0
4.7680,1783191208.2758,1,1,1.0000,0.0000,1.44678,0.17227,-2.79190,1.04878,1.57079,0.00005,-0.14511,-0.38000,0.03124,,,,,,,,,,,,,,,,,,,,,,,,,,0,0,0,0,0
4.7819,1783191208.2897,1,1,1.0000,0.0000,1.44678,0.17221,-2.79191,1.04886,1.57079,0.00005,-0.14511,-0.38000,0.03123,,,,,,,,,,,,,,,,,,,,,,,,,,0,0,0,0,0
4.7825,1783191208.2902,1,1,1.0000,0.0000,1.44678,0.17221,-2.79191,1.04886,1.57079,0.00005,-0.14511,-0.38000,0.03123,,,,,,,,,,,,,,,,,,,,,,,,,,0,0,0,0,0
4.7890,1783191208.2968,1,1,1.0000,0.0000,1.44678,0.17205,-2.79195,1.04906,1.57079,0.00005,-0.14511,-0.38000,0.03119,,,,,,,,,,,,,,,,,,,,,,,,,,0,0,0,0,0
4.7974,1783191208.3052,1,1,1.0000,0.0000,1.44678,0.17186,-2.79199,1.04929,1.57079,0.00005,-0.14511,-0.38000,0.03114,,,,,,,,,,,,,,,,,,,,,,,,,,0,0,0,0,0
4.8077,1783191208.3155,1,1,1.0000,0.0000,1.44678,0.17178,-2.79201,1.04939,1.57079,0.00005,-0.14511,-0.38000,0.03112,,,,,,,,,,,,,,,,,,,,,,,,,,0,0,0,0,0
4.8203,1783191208.3281,1,1,1.0000,0.0000,1.44678,0.17148,-2.79207,1.04975,1.57079,0.00005,-0.14511,-0.38000,0.03105,,,,,,,,,,,,,,,,,,,,,,,,,,0,0,0,0,0
4.8312,1783191208.3390,1,1,1.0000,0.0000,1.44678,0.17128,-2.79211,1.04999,1.57079,0.00005,-0.14511,-0.38000,0.03100,,,,,,,,,,,,,,,,,,,,,,,,,,0,0,0,0,0
4.8398,1783191208.3475,1,1,1.0000,0.0000,1.44678,0.17121,-2.79213,1.05007,1.57079,0.00005,-0.14511,-0.38000,0.03099,,,,,,,,,,,,,,,,,,,,,,,,,,0,0,0,0,0
4.8401,1783191208.3479,1,1,1.0000,0.0000,1.44678,0.17121,-2.79213,1.05007,1.57079,0.00005,-0.14511,-0.38000,0.03099,,,,,,,,,,,,,,,,,,,,,,,,,,0,0,0,0,0
4.8480,1783191208.3558,1,1,1.0000,0.0000,1.44678,0.17105,-2.79216,1.05027,1.57079,0.00005,-0.14511,-0.38000,0.03095,,,,,,,,,,,,,,,,,,,,,,,,,,0,0,0,0,0
4.8587,1783191208.3665,1,1,1.0000,0.0000,1.44678,0.17086,-2.79220,1.05050,1.57079,0.00005,-0.14511,-0.38000,0.03090,,,,,,,,,,,,,,,,,,,,,,,,,,0,0,0,0,0
4.8675,1783191208.3753,1,1,1.0000,0.0000,1.44678,0.17076,-2.79222,1.05062,1.57079,0.00005,-0.14511,-0.38000,0.03088,,,,,,,,,,,,,,,,,,,,,,,,,,0,0,0,0,0
4.8849,1783191208.3927,1,1,1.0000,0.0000,1.44678,0.17046,-2.79229,1.05099,1.57079,0.00005,-0.14511,-0.38000,0.03081,,,,,,,,,,,,,,,,,,,,,,,,,,0,0,0,0,0
4.8875,1783191208.3952,1,1,1.0000,0.0000,1.44678,0.17036,-2.79231,1.05110,1.57079,0.00005,-0.14511,-0.38000,0.03078,,,,,,,,,,,,,,,,,,,,,,,,,,0,0,0,0,0
4.8879,1783191208.3956,1,1,1.0000,0.0000,1.44678,0.17036,-2.79231,1.05110,1.57079,0.00005,-0.14511,-0.38000,0.03078,,,,,,,,,,,,,,,,,,,,,,,,,,0,0,0,0,0
4.9036,1783191208.4114,1,1,1.0000,0.0000,1.44678,0.17019,-2.79235,1.05131,1.57079,0.00005,-0.14511,-0.38000,0.03074,,,,,,,,,,,,,,,,,,,,,,,,,,0,0,0,0,0
4.9087,1783191208.4165,1,1,1.0000,0.0000,1.44678,0.17009,-2.79237,1.05143,1.57079,0.00005,-0.14511,-0.38000,0.03072,,,,,,,,,,,,,,,,,,,,,,,,,,0,0,0,0,0
4.9178,1783191208.4256,1,1,1.0000,0.0000,1.44678,0.16987,-2.79241,1.05170,1.57079,0.00005,-0.14511,-0.38000,0.03067,,,,,,,,,,,,,,,,,,,,,,,,,,0,0,0,0,0
4.9280,1783191208.4357,1,1,1.0000,0.0000,1.44678,0.16976,-2.79244,1.05183,1.57079,0.00005,-0.14511,-0.38000,0.03064,,,,,,,,,,,,,,,,,,,,,,,,,,0,0,0,0,0
4.9376,1783191208.4454,1,1,1.0000,0.0000,1.44678,0.16964,-2.79246,1.05198,1.57079,0.00005,-0.14511,-0.38000,0.03061,,,,,,,,,,,,,,,,,,,,,,,,,,0,0,0,0,0
4.9495,1783191208.4573,1,1,1.0000,0.0000,1.44678,0.16937,-2.79252,1.05231,1.57079,0.00005,-0.14511,-0.38000,0.03054,,,,,,,,,,,,,,,,,,,,,,,,,,0,0,0,0,0
4.9623,1783191208.4701,1,1,1.0000,0.0000,1.44678,0.16928,-2.79254,1.05241,1.57079,0.00005,-0.14511,-0.38000,0.03052,,,,,,,,,,,,,,,,,,,,,,,,,,0,0,0,0,0
4.9778,1783191208.4855,1,1,1.0000,0.0000,1.44678,0.16888,-2.79263,1.05291,1.57079,0.00005,-0.14511,-0.38000,0.03043,,,,,,,,,,,,,,,,,,,,,,,,,,0,0,0,0,0
4.9834,1783191208.4912,1,1,1.0000,0.0000,1.44678,0.16878,-2.79265,1.05302,1.57079,0.00005,-0.14511,-0.38000,0.03041,,,,,,,,,,,,,,,,,,,,,,,,,,0,0,0,0,0
4.9837,1783191208.4914,1,1,1.0000,0.0000,1.44678,0.16878,-2.79265,1.05302,1.57079,0.00005,-0.14511,-0.38000,0.03041,,,,,,,,,,,,,,,,,,,,,,,,,,0,0,0,0,0
4.9930,1783191208.5008,1,1,1.0000,0.0000,1.44678,0.16872,-2.79266,1.05310,1.57079,0.00005,-0.14511,-0.38000,0.03039,,,,,,,,,,,,,,,,,,,,,,,,,,0,0,0,0,0
5.0068,1783191208.5146,1,1,1.0000,0.0000,1.44678,0.16846,-2.79272,1.05341,1.57079,0.00005,-0.14511,-0.38000,0.03033,,,,,,,,,,,,,,,,,,,,,,,,,,0,0,0,0,0
5.0115,1783191208.5192,1,1,1.0000,0.0000,1.44678,0.16837,-2.79274,1.05352,1.57079,0.00005,-0.14511,-0.38000,0.03031,,,,,,,,,,,,,,,,,,,,,,,,,,0,0,0,0,0
5.0117,1783191208.5195,1,1,1.0000,0.0000,1.44678,0.16837,-2.79274,1.05352,1.57079,0.00005,-0.14511,-0.38000,0.03031,,,,,,,,,,,,,,,,,,,,,,,,,,0,0,0,0,0
5.0216,1783191208.5294,1,1,1.0000,0.0000,1.44677,0.16829,-2.79275,1.05362,1.57079,0.00005,-0.14511,-0.38000,0.03029,,,,,,,,,,,,,,,,,,,,,,,,,,0,0,0,0,0
5.0326,1783191208.5404,1,1,1.0000,0.0000,1.44677,0.16798,-2.79282,1.05399,1.57079,0.00005,-0.14511,-0.38000,0.03021,,,,,,,,,,,,,,,,,,,,,,,,,,0,0,0,0,0
5.0458,1783191208.5536,1,1,1.0000,0.0000,1.44677,0.16779,-2.79286,1.05423,1.57079,0.00005,-0.14511,-0.38000,0.03017,,,,,,,,,,,,,,,,,,,,,,,,,,0,0,0,0,0
5.0526,1783191208.5604,1,1,1.0000,0.0000,1.44677,0.16772,-2.79287,1.05431,1.57079,0.00005,-0.14511,-0.38000,0.03015,,,,,,,,,,,,,,,,,,,,,,,,,,0,0,0,0,0
5.0634,1783191208.5712,1,1,1.0000,0.0000,1.44677,0.16746,-2.79293,1.05462,1.57079,0.00005,-0.14511,-0.38000,0.03009,,,,,,,,,,,,,,,,,,,,,,,,,,0,0,0,0,0
5.0714,1783191208.5791,1,1,1.0000,0.0000,1.44677,0.16737,-2.79295,1.05474,1.57079,0.00005,-0.14511,-0.38000,0.03007,,,,,,,,,,,,,,,,,,,,,,,,,,0,0,0,0,0
5.0718,1783191208.5796,1,1,1.0000,0.0000,1.44677,0.16737,-2.79295,1.05474,1.57079,0.00005,-0.14511,-0.38000,0.03007,,,,,,,,,,,,,,,,,,,,,,,,,,0,0,0,0,0
5.0818,1783191208.5896,1,1,1.0000,0.0000,1.44677,0.16728,-2.79297,1.05484,1.57079,0.00005,-0.14511,-0.38000,0.03005,,,,,,,,,,,,,,,,,,,,,,,,,,0,0,0,0,0
5.0929,1783191208.6007,1,1,1.0000,0.0000,1.44677,0.16698,-2.79303,1.05520,1.57079,0.00005,-0.14511,-0.38000,0.02997,,,,,,,,,,,,,,,,,,,,,,,,,,0,0,0,0,0
5.1192,1783191208.6270,1,1,1.0000,0.0000,1.44677,0.16655,-2.79312,1.05572,1.57079,0.00005,-0.14511,-0.38000,0.02987,,,,,,,,,,,,,,,,,,,,,,,,,,0,0,0,0,0
5.1194,1783191208.6272,1,1,1.0000,0.0000,1.44677,0.16655,-2.79312,1.05572,1.57079,0.00005,-0.14511,-0.38000,0.02987,,,,,,,,,,,,,,,,,,,,,,,,,,0,0,0,0,0
5.1219,1783191208.6296,1,1,1.0000,0.0000,1.44677,0.16655,-2.79312,1.05572,1.57079,0.00005,-0.14511,-0.38000,0.02987,,,,,,,,,,,,,,,,,,,,,,,,,,0,0,0,0,0
5.1224,1783191208.6302,1,1,1.0000,0.0000,1.44677,0.16655,-2.79312,1.05572,1.57079,0.00005,-0.14511,-0.38000,0.02987,,,,,,,,,,,,,,,,,,,,,,,,,,0,0,0,0,0
5.1319,1783191208.6397,1,1,1.0000,0.0000,1.44677,0.16637,-2.79316,1.05595,1.57079,0.00005,-0.14511,-0.38000,0.02983,,,,,,,,,,,,,,,,,,,,,,,,,,0,0,0,0,0
5.1417,1783191208.6495,1,1,1.0000,0.0000,1.44677,0.16628,-2.79318,1.05605,1.57079,0.00005,-0.14511,-0.38000,0.02981,,,,,,,,,,,,,,,,,,,,,,,,,,0,0,0,0,0
5.1534,1783191208.6612,1,1,1.0000,0.0000,1.44677,0.16598,-2.79324,1.05642,1.57079,0.00005,-0.14511,-0.38000,0.02974,,,,,,,,,,,,,,,,,,,,,,,,,,0,0,0,0,0
5.1666,1783191208.6743,1,1,1.0000,0.0000,1.44677,0.16578,-2.79328,1.05666,1.57079,0.00005,-0.14511,-0.38000,0.02969,,,,,,,,,,,,,,,,,,,,,,,,,,0,0,0,0,0
5.1714,1783191208.6792,1,1,1.0000,0.0000,1.44677,0.16571,-2.79330,1.05674,1.57079,0.00005,-0.14511,-0.38000,0.02967,,,,,,,,,,,,,,,,,,,,,,,,,,0,0,0,0,0
5.1718,1783191208.6796,1,1,1.0000,0.0000,1.44677,0.16571,-2.79330,1.05674,1.57079,0.00005,-0.14511,-0.38000,0.02967,,,,,,,,,,,,,,,,,,,,,,,,,,0,0,0,0,0
5.1817,1783191208.6895,1,1,1.0000,0.0000,1.44677,0.16555,-2.79333,1.05694,1.57079,0.00005,-0.14511,-0.38000,0.02963,,,,,,,,,,,,,,,,,,,,,,,,,,0,0,0,0,0
5.1820,1783191208.6898,1,1,1.0000,0.0000,1.44677,0.16555,-2.79333,1.05694,1.57079,0.00005,-0.14511,-0.38000,0.02963,,,,,,,,,,,,,,,,,,,,,,,,,,0,0,0,0,0
5.1927,1783191208.7005,1,1,1.0000,0.0000,1.44677,0.16536,-2.79337,1.05716,1.57079,0.00005,-0.14511,-0.38000,0.02959,,,,,,,,,,,,,,,,,,,,,,,,,,0,0,0,0,0
5.2144,1783191208.7221,1,1,1.0000,0.0000,1.44677,0.16498,-2.79345,1.05763,1.57079,0.00005,-0.14511,-0.38000,0.02950,,,,,,,,,,,,,,,,,,,,,,,,,,0,0,0,0,0
5.2237,1783191208.7315,1,1,1.0000,0.0000,1.44677,0.16478,-2.79350,1.05787,1.57079,0.00005,-0.14511,-0.38000,0.02945,,,,,,,,,,,,,,,,,,,,,,,,,,0,0,0,0,0
5.2335,1783191208.7413,1,1,1.0000,0.0000,1.44677,0.16471,-2.79351,1.05795,1.57079,0.00005,-0.14511,-0.38000,0.02943,,,,,,,,,,,,,,,,,,,,,,,,,,0,0,0,0,0
5.2420,1783191208.7498,1,1,1.0000,0.0000,1.44677,0.16455,-2.79354,1.05815,1.57079,0.00005,-0.14511,-0.38000,0.02939,,,,,,,,,,,,,,,,,,,,,,,,,,0,0,0,0,0
5.2607,1783191208.7685,1,1,1.0000,0.0000,1.44677,0.16428,-2.79360,1.05848,1.57079,0.00005,-0.14511,-0.38000,0.02933,,,,,,,,,,,,,,,,,,,,,,,,,,0,0,0,0,0
5.2645,1783191208.7723,1,1,1.0000,0.0000,1.44677,0.16419,-2.79362,1.05859,1.57079,0.00005,-0.14511,-0.38000,0.02931,,,,,,,,,,,,,,,,,,,,,,,,,,0,0,0,0,0
5.2648,1783191208.7726,1,1,1.0000,0.0000,1.44677,0.16419,-2.79362,1.05859,1.57079,0.00005,-0.14511,-0.38000,0.02931,,,,,,,,,,,,,,,,,,,,,,,,,,0,0,0,0,0
5.2754,1783191208.7832,1,1,1.0000,0.0000,1.44677,0.16387,-2.79369,1.05898,1.57079,0.00005,-0.14511,-0.38000,0.02923,,,,,,,,,,,,,,,,,,,,,,,,,,0,0,0,0,0
5.2834,1783191208.7911,1,1,1.0000,0.0000,1.44677,0.16377,-2.79371,1.05909,1.57079,0.00005,-0.14511,-0.38000,0.02921,,,,,,,,,,,,,,,,,,,,,,,,,,0,0,0,0,0
5.2955,1783191208.8033,1,1,1.0000,0.0000,1.44677,0.16363,-2.79374,1.05926,1.57079,0.00005,-0.14511,-0.38000,0.02918,,,,,,,,,,,,,,,,,,,,,,,,,,0,0,0,0,0
5.2959,1783191208.8037,1,1,1.0000,0.0000,1.44677,0.16363,-2.79374,1.05926,1.57079,0.00005,-0.14511,-0.38000,0.02918,,,,,,,,,,,,,,,,,,,,,,,,,,0,0,0,0,0
5.3036,1783191208.8113,1,1,1.0000,0.0000,1.44677,0.16345,-2.79378,1.05948,1.57079,0.00005,-0.14511,-0.38000,0.02913,,,,,,,,,,,,,,,,,,,,,,,,,,0,0,0,0,0
5.3162,1783191208.8240,1,1,1.0000,0.0000,1.44677,0.16333,-2.79380,1.05962,1.57079,0.00005,-0.14511,-0.38000,0.02911,,,,,,,,,,,,,,,,,,,,,,,,,,0,0,0,0,0
