Martins-Lucaas/twinforge/sensors/Data/20260710_180713__samples.csv
t_rel_s,t_unix,cycle,phase,setpoint_n,force_net_n,q1,q2,q3,q4,q5,q6,tcp_x,tcp_y,tcp_z,taxel_0,taxel_1,taxel_2,taxel_3,taxel_4,taxel_5,taxel_6,taxel_7,taxel_8,taxel_9,taxel_10,taxel_11,taxel_12,taxel_13,taxel_14,taxel_15,taxel_16,taxel_17,taxel_18,taxel_19,taxel_20,taxel_21,taxel_22,taxel_23,taxel_24,n_RA,n_SA,cn_mm,cn_ra,cn_sa
0.0010,1783717633.1105,0,-1,1.0000,0.0000,1.42052,0.14185,-2.66687,1.00234,1.56182,0.11682,-0.13242,-0.45911,0.07209,,,,,,,,,,,,,,,,,,,,,,,,,,0,0,0,0,0
0.0013,1783717633.1107,0,-1,1.0000,0.0000,1.42052,0.14185,-2.66687,1.00234,1.56182,0.11682,-0.13242,-0.45911,0.07209,,,,,,,,,,,,,,,,,,,,,,,,,,0,0,0,0,0
0.0137,1783717633.1232,1,0,1.0000,0.0000,1.42052,0.14185,-2.66687,1.00234,1.56182,0.11682,-0.13242,-0.45911,0.07209,,,,,,,,,,,,,,,,,,,,,,,,,,0,0,0,0,0
0.0313,1783717633.1407,1,0,1.0000,0.0000,1.42052,0.14185,-2.66687,1.00234,1.56182,0.11682,-0.13242,-0.45911,0.07209,,,,,,,,,,,,,,,,,,,,,,,,,,0,0,0,0,0
0.0407,1783717633.1502,1,0,1.0000,0.0000,1.42052,0.14185,-2.66687,1.00234,1.56182,0.11682,-0.13242,-0.45911,0.07209,,,,,,,,,,,,,,,,,,,,,,,,,,0,0,0,0,0
0.0558,1783717633.1653,1,0,1.0000,0.0000,1.42052,0.14185,-2.66687,1.00234,1.56182,0.11682,-0.13242,-0.45911,0.07209,,,,,,,,,,,,,,,,,,,,,,,,,,0,0,0,0,0
0.0609,1783717633.1704,1,0,1.0000,0.0000,1.42052,0.14185,-2.66687,1.00234,1.56182,0.11682,-0.13242,-0.45911,0.07209,,,,,,,,,,,,,,,,,,,,,,,,,,0,0,0,0,0
0.0767,1783717633.1862,1,0,1.0000,0.0000,1.42052,0.14185,-2.66687,1.00234,1.56182,0.11682,-0.13242,-0.45911,0.07209,,,,,,,,,,,,,,,,,,,,,,,,,,0,0,0,0,0
0.0799,1783717633.1894,1,0,1.0000,0.0000,1.42052,0.14185,-2.66687,1.00234,1.56182,0.11682,-0.13242,-0.45911,0.07209,,,,,,,,,,,,,,,,,,,,,,,,,,0,0,0,0,0
0.0898,1783717633.1992,1,0,1.0000,0.0000,1.42052,0.14185,-2.66687,1.00234,1.56182,0.11682,-0.13242,-0.45911,0.07209,,,,,,,,,,,,,,,,,,,,,,,,,,0,0,0,0,0
0.1002,1783717633.2097,1,0,1.0000,0.0000,1.42052,0.14185,-2.66687,1.00234,1.56182,0.11682,-0.13242,-0.45911,0.07209,,,,,,,,,,,,,,,,,,,,,,,,,,0,0,0,0,0
0.1115,1783717633.2210,1,0,1.0000,0.0000,1.42052,0.14185,-2.66687,1.00234,1.56182,0.11682,-0.13242,-0.45911,0.07209,,,,,,,,,,,,,,,,,,,,,,,,,,0,0,0,0,0
0.1212,1783717633.2307,1,0,1.0000,0.0000,1.42052,0.14185,-2.66687,1.00234,1.56182,0.11682,-0.13242,-0.45911,0.07209,,,,,,,,,,,,,,,,,,,,,,,,,,0,0,0,0,0
0.1325,1783717633.2420,1,0,1.0000,0.0000,1.42052,0.14185,-2.66687,1.00234,1.56182,0.11682,-0.13242,-0.45911,0.07209,,,,,,,,,,,,,,,,,,,,,,,,,,0,0,0,0,0
0.1453,1783717633.2548,1,0,1.0000,0.0000,1.42052,0.14185,-2.66687,1.00234,1.56182,0.11682,-0.13242,-0.45911,0.07209,,,,,,,,,,,,,,,,,,,,,,,,,,0,0,0,0,0
0.1574,1783717633.2669,1,0,1.0000,0.0000,1.42052,0.14185,-2.66687,1.00234,1.56182,0.11682,-0.13242,-0.45911,0.07209,,,,,,,,,,,,,,,,,,,,,,,,,,0,0,0,0,0
0.1592,1783717633.2687,1,0,1.0000,0.0000,1.42052,0.14185,-2.66687,1.00234,1.56182,0.11682,-0.13242,-0.45911,0.07209,,,,,,,,,,,,,,,,,,,,,,,,,,0,0,0,0,0
0.1595,1783717633.2690,1,0,1.0000,0.0000,1.42052,0.14185,-2.66687,1.00234,1.56182,0.11682,-0.13242,-0.45911,0.07209,,,,,,,,,,,,,,,,,,,,,,,,,,0,0,0,0,0
0.1736,1783717633.2831,1,0,1.0000,0.0000,1.42052,0.14185,-2.66687,1.00234,1.56182,0.11682,-0.13242,-0.45911,0.07209,,,,,,,,,,,,,,,,,,,,,,,,,,0,0,0,0,0
0.1803,1783717633.2897,1,0,1.0000,0.0000,1.42052,0.14185,-2.66687,1.00234,1.56182,0.11682,-0.13242,-0.45911,0.07209,,,,,,,,,,,,,,,,,,,,,,,,,,0,0,0,0,0
0.1805,1783717633.2900,1,0,1.0000,0.0000,1.42052,0.14185,-2.66687,1.00234,1.56182,0.11682,-0.13242,-0.45911,0.07209,,,,,,,,,,,,,,,,,,,,,,,,,,0,0,0,0,0
0.1925,1783717633.3020,1,0,1.0000,0.0000,1.42052,0.14185,-2.66687,1.00234,1.56182,0.11682,-0.13242,-0.45911,0.07209,,,,,,,,,,,,,,,,,,,,,,,,,,0,0,0,0,0
0.1999,1783717633.3093,1,0,1.0000,0.0000,1.42052,0.14185,-2.66687,1.00234,1.56182,0.11682,-0.13242,-0.45911,0.07209,,,,,,,,,,,,,,,,,,,,,,,,,,0,0,0,0,0
0.2137,1783717633.3232,1,0,1.0000,0.0000,1.42052,0.14185,-2.66687,1.00234,1.56182,0.11682,-0.13242,-0.45911,0.07209,,,,,,,,,,,,,,,,,,,,,,,,,,0,0,0,0,0
0.2436,1783717633.3531,1,0,1.0000,0.0000,1.42052,0.14185,-2.66687,1.00234,1.56182,0.11682,-0.13242,-0.45911,0.07209,,,,,,,,,,,,,,,,,,,,,,,,,,0,0,0,0,0
0.2462,1783717633.3557,1,0,1.0000,0.0000,1.42052,0.14185,-2.66687,1.00234,1.56182,0.11682,-0.13242,-0.45911,0.07209,,,,,,,,,,,,,,,,,,,,,,,,,,0,0,0,0,0
0.2465,1783717633.3560,1,0,1.0000,0.0000,1.42052,0.14185,-2.66687,1.00234,1.56182,0.11682,-0.13242,-0.45911,0.07209,,,,,,,,,,,,,,,,,,,,,,,,,,0,0,0,0,0
0.2516,1783717633.3611,1,0,1.0000,0.0000,1.42052,0.14185,-2.66687,1.00234,1.56182,0.11682,-0.13242,-0.45911,0.07209,,,,,,,,,,,,,,,,,,,,,,,,,,0,0,0,0,0
0.2634,1783717633.3729,1,0,1.0000,0.0000,1.42052,0.14185,-2.66687,1.00234,1.56182,0.11682,-0.13242,-0.45911,0.07209,,,,,,,,,,,,,,,,,,,,,,,,,,0,0,0,0,0
0.2723,1783717633.3818,1,0,1.0000,0.0000,1.42052,0.14185,-2.66687,1.00234,1.56182,0.11682,-0.13242,-0.45911,0.07209,,,,,,,,,,,,,,,,,,,,,,,,,,0,0,0,0,0
0.2727,1783717633.3822,1,0,1.0000,0.0000,1.42052,0.14185,-2.66687,1.00234,1.56182,0.11682,-0.13242,-0.45911,0.07209,,,,,,,,,,,,,,,,,,,,,,,,,,0,0,0,0,0
0.2854,1783717633.3949,1,0,1.0000,0.0000,1.42052,0.14185,-2.66687,1.00234,1.56182,0.11682,-0.13242,-0.45911,0.07209,,,,,,,,,,,,,,,,,,,,,,,,,,0,0,0,0,0
0.2897,1783717633.3992,1,0,1.0000,0.0000,1.42052,0.14185,-2.66687,1.00234,1.56182,0.11682,-0.13242,-0.45911,0.07209,,,,,,,,,,,,,,,,,,,,,,,,,,0,0,0,0,0
0.2902,1783717633.3997,1,0,1.0000,0.0000,1.42052,0.14185,-2.66687,1.00234,1.56182,0.11682,-0.13242,-0.45911,0.07209,,,,,,,,,,,,,,,,,,,,,,,,,,0,0,0,0,0
0.3048,1783717633.4143,1,0,1.0000,0.0000,1.42052,0.14185,-2.66687,1.00234,1.56182,0.11682,-0.13242,-0.45911,0.07209,,,,,,,,,,,,,,,,,,,,,,,,,,0,0,0,0,0
0.3096,1783717633.4191,1,0,1.0000,0.0000,1.42052,0.14185,-2.66687,1.00234,1.56182,0.11682,-0.13242,-0.45911,0.07209,,,,,,,,,,,,,,,,,,,,,,,,,,0,0,0,0,0
0.3100,1783717633.4195,1,0,1.0000,0.0000,1.42052,0.14185,-2.66687,1.00234,1.56182,0.11682,-0.13242,-0.45911,0.07209,,,,,,,,,,,,,,,,,,,,,,,,,,0,0,0,0,0
0.3206,1783717633.4300,1,0,1.0000,0.0000,1.42052,0.14185,-2.66687,1.00234,1.56182,0.11682,-0.13242,-0.45911,0.07209,,,,,,,,,,,,,,,,,,,,,,,,,,0,0,0,0,0
0.3345,1783717633.4440,1,0,1.0000,0.0000,1.42052,0.14185,-2.66687,1.00234,1.56182,0.11682,-0.13242,-0.45911,0.07209,,,,,,,,,,,,,,,,,,,,,,,,,,0,0,0,0,0
0.3443,1783717633.4538,1,0,1.0000,0.0000,1.42052,0.14185,-2.66687,1.00234,1.56182,0.11682,-0.13242,-0.45911,0.07209,,,,,,,,,,,,,,,,,,,,,,,,,,0,0,0,0,0
0.3510,1783717633.4605,1,0,1.0000,0.0000,1.42052,0.14185,-2.66687,1.00234,1.56182,0.11682,-0.13242,-0.45911,0.07209,,,,,,,,,,,,,,,,,,,,,,,,,,0,0,0,0,0
0.3629,1783717633.4724,1,0,1.0000,0.0000,1.42052,0.14185,-2.66687,1.00234,1.56182,0.11682,-0.13242,-0.45911,0.07209,,,,,,,,,,,,,,,,,,,,,,,,,,0,0,0,0,0
0.3772,1783717633.4867,1,0,1.0000,0.0000,1.42052,0.14185,-2.66687,1.00234,1.56182,0.11682,-0.13242,-0.45911,0.07209,,,,,,,,,,,,,,,,,,,,,,,,,,0,0,0,0,0
0.3818,1783717633.4913,1,0,1.0000,0.0000,1.42052,0.14185,-2.66687,1.00234,1.56182,0.11682,-0.13242,-0.45911,0.07209,,,,,,,,,,,,,,,,,,,,,,,,,,0,0,0,0,0
0.3912,1783717633.5007,1,0,1.0000,0.0000,1.42052,0.14185,-2.66687,1.00234,1.56182,0.11682,-0.13242,-0.45911,0.07209,,,,,,,,,,,,,,,,,,,,,,,,,,0,0,0,0,0
0.3915,1783717633.5010,1,0,1.0000,0.0000,1.42052,0.14185,-2.66687,1.00234,1.56182,0.11682,-0.13242,-0.45911,0.07209,,,,,,,,,,,,,,,,,,,,,,,,,,0,0,0,0,0
0.3918,1783717633.5013,1,0,1.0000,0.0000,1.42052,0.14185,-2.66687,1.00234,1.56182,0.11682,-0.13242,-0.45911,0.07209,,,,,,,,,,,,,,,,,,,,,,,,,,0,0,0,0,0
0.4011,1783717633.5106,1,0,1.0000,0.0000,1.42052,0.14185,-2.66687,1.00234,1.56182,0.11682,-0.13242,-0.45911,0.07209,,,,,,,,,,,,,,,,,,,,,,,,,,0,0,0,0,0
0.4170,1783717633.5265,1,0,1.0000,0.0000,1.42052,0.14185,-2.66687,1.00234,1.56182,0.11682,-0.13242,-0.45911,0.07209,,,,,,,,,,,,,,,,,,,,,,,,,,0,0,0,0,0
0.4227,1783717633.5322,1,0,1.0000,0.0000,1.42052,0.14185,-2.66687,1.00234,1.56182,0.11682,-0.13242,-0.45911,0.07209,,,,,,,,,,,,,,,,,,,,,,,,,,0,0,0,0,0
0.4335,1783717633.5430,1,0,1.0000,0.0000,1.42052,0.14185,-2.66687,1.00234,1.56182,0.11682,-0.13242,-0.45911,0.07209,,,,,,,,,,,,,,,,,,,,,,,,,,0,0,0,0,0
0.4470,1783717633.5565,1,0,1.0000,0.0000,1.42052,0.14185,-2.66687,1.00234,1.56182,0.11682,-0.13242,-0.45911,0.07209,,,,,,,,,,,,,,,,,,,,,,,,,,0,0,0,0,0
0.4533,1783717633.5628,1,0,1.0000,0.0000,1.42052,0.14185,-2.66687,1.00234,1.56182,0.11682,-0.13242,-0.45911,0.07209,,,,,,,,,,,,,,,,,,,,,,,,,,0,0,0,0,0
0.4651,1783717633.5746,1,0,1.0000,0.0000,1.42052,0.14185,-2.66687,1.00234,1.56182,0.11682,-0.13242,-0.45911,0.07209,,,,,,,,,,,,,,,,,,,,,,,,,,0,0,0,0,0
0.4836,1783717633.5931,1,0,1.0000,0.0000,1.42052,0.14185,-2.66687,1.00234,1.56182,0.11682,-0.13242,-0.45911,0.07209,,,,,,,,,,,,,,,,,,,,,,,,,,0,0,0,0,0
0.4839,1783717633.5934,1,0,1.0000,0.0000,1.42052,0.14185,-2.66687,1.00234,1.56182,0.11682,-0.13242,-0.45911,0.07209,,,,,,,,,,,,,,,,,,,,,,,,,,0,0,0,0,0
0.4907,1783717633.6002,1,0,1.0000,0.0000,1.42052,0.14185,-2.66687,1.00234,1.56182,0.11682,-0.13242,-0.45911,0.07209,,,,,,,,,,,,,,,,,,,,,,,,,,0,0,0,0,0
0.5018,1783717633.6113,1,0,1.0000,0.0000,1.42052,0.14185,-2.66687,1.00234,1.56182,0.11682,-0.13242,-0.45911,0.07209,,,,,,,,,,,,,,,,,,,,,,,,,,0,0,0,0,0
0.5148,1783717633.6243,1,0,1.0000,0.0000,1.42052,0.14185,-2.66687,1.00234,1.56182,0.11682,-0.13242,-0.45911,0.07209,,,,,,,,,,,,,,,,,,,,,,,,,,0,0,0,0,0
0.5193,1783717633.6288,1,0,1.0000,0.0000,1.42052,0.14185,-2.66687,1.00234,1.56182,0.11682,-0.13242,-0.45911,0.07209,,,,,,,,,,,,,,,,,,,,,,,,,,0,0,0,0,0
0.5196,1783717633.6291,1,0,1.0000,0.0000,1.42052,0.14185,-2.66687,1.00234,1.56182,0.11682,-0.13242,-0.45911,0.07209,,,,,,,,,,,,,,,,,,,,,,,,,,0,0,0,0,0
0.5356,1783717633.6451,1,0,1.0000,0.0000,1.42052,0.14185,-2.66687,1.00234,1.56182,0.11682,-0.13242,-0.45911,0.07209,,,,,,,,,,,,,,,,,,,,,,,,,,0,0,0,0,0
0.5397,1783717633.6492,1,0,1.0000,0.0000,1.42052,0.14185,-2.66687,1.00234,1.56182,0.11682,-0.13242,-0.45911,0.07209,,,,,,,,,,,,,,,,,,,,,,,,,,0,0,0,0,0
0.5516,1783717633.6610,1,0,1.0000,0.0000,1.42052,0.14185,-2.66687,1.00234,1.56182,0.11682,-0.13242,-0.45911,0.07209,,,,,,,,,,,,,,,,,,,,,,,,,,0,0,0,0,0
0.5520,1783717633.6615,1,0,1.0000,0.0000,1.42052,0.14185,-2.66687,1.00234,1.56182,0.11682,-0.13242,-0.45911,0.07209,,,,,,,,,,,,,,,,,,,,,,,,,,0,0,0,0,0
0.5698,1783717633.6793,1,0,1.0000,0.0000,1.42052,0.14185,-2.66687,1.00234,1.56182,0.11682,-0.13242,-0.45911,0.07209,,,,,,,,,,,,,,,,,,,,,,,,,,0,0,0,0,0
0.5703,1783717633.6797,1,0,1.0000,0.0000,1.42052,0.14185,-2.66687,1.00234,1.56182,0.11682,-0.13242,-0.45911,0.07209,,,,,,,,,,,,,,,,,,,,,,,,,,0,0,0,0,0
0.5824,1783717633.6919,1,0,1.0000,0.0000,1.42052,0.14185,-2.66687,1.00234,1.56182,0.11682,-0.13242,-0.45911,0.07209,,,,,,,,,,,,,,,,,,,,,,,,,,0,0,0,0,0
0.5831,1783717633.6926,1,0,1.0000,0.0000,1.42052,0.14185,-2.66687,1.00234,1.56182,0.11682,-0.13242,-0.45911,0.07209,,,,,,,,,,,,,,,,,,,,,,,,,,0,0,0,0,0
0.5905,1783717633.7000,1,0,1.0000,0.0000,1.42052,0.14185,-2.66687,1.00234,1.56182,0.11682,-0.13242,-0.45911,0.07209,,,,,,,,,,,,,,,,,,,,,,,,,,0,0,0,0,0
0.6037,1783717633.7132,1,0,1.0000,0.0000,1.42052,0.14185,-2.66687,1.00234,1.56182,0.11682,-0.13242,-0.45911,0.07209,,,,,,,,,,,,,,,,,,,,,,,,,,0,0,0,0,0
0.6122,1783717633.7217,1,0,1.0000,0.0000,1.42052,0.14185,-2.66687,1.00234,1.56182,0.11682,-0.13242,-0.45911,0.07209,,,,,,,,,,,,,,,,,,,,,,,,,,0,0,0,0,0
0.6124,1783717633.7219,1,0,1.0000,0.0000,1.42052,0.14185,-2.66687,1.00234,1.56182,0.11682,-0.13242,-0.45911,0.07209,,,,,,,,,,,,,,,,,,,,,,,,,,0,0,0,0,0
0.6230,1783717633.7325,1,0,1.0000,0.0000,1.42052,0.14185,-2.66687,1.00234,1.56182,0.11682,-0.13242,-0.45911,0.07209,,,,,,,,,,,,,,,,,,,,,,,,,,0,0,0,0,0
0.6318,1783717633.7413,1,0,1.0000,0.0000,1.42052,0.14185,-2.66687,1.00234,1.56182,0.11682,-0.13242,-0.45911,0.07209,,,,,,,,,,,,,,,,,,,,,,,,,,0,0,0,0,0
0.6450,1783717633.7544,1,0,1.0000,0.0000,1.42052,0.14185,-2.66687,1.00234,1.56182,0.11682,-0.13242,-0.45911,0.07209,,,,,,,,,,,,,,,,,,,,,,,,,,0,0,0,0,0
0.6534,1783717633.7629,1,0,1.0000,0.0000,1.42052,0.14185,-2.66687,1.00234,1.56182,0.11682,-0.13242,-0.45910,0.07209,,,,,,,,,,,,,,,,,,,,,,,,,,0,0,0,0,0
0.6612,1783717633.7706,1,0,1.0000,0.0000,1.42051,0.14185,-2.66688,1.00234,1.56182,0.11682,-0.13242,-0.45910,0.07208,,,,,,,,,,,,,,,,,,,,,,,,,,0,0,0,0,0
0.6616,1783717633.7710,1,0,1.0000,0.0000,1.42051,0.14185,-2.66688,1.00234,1.56182,0.11682,-0.13242,-0.45910,0.07208,,,,,,,,,,,,,,,,,,,,,,,,,,0,0,0,0,0
0.6696,1783717633.7791,1,0,1.0000,0.0000,1.42049,0.14186,-2.66690,1.00234,1.56182,0.11684,-0.13241,-0.45909,0.07207,,,,,,,,,,,,,,,,,,,,,,,,,,0,0,0,0,0
0.6811,1783717633.7905,1,0,1.0000,0.0000,1.42046,0.14186,-2.66693,1.00234,1.56182,0.11686,-0.13240,-0.45908,0.07206,,,,,,,,,,,,,,,,,,,,,,,,,,0,0,0,0,0
0.6938,1783717633.8033,1,0,1.0000,0.0000,1.42041,0.14188,-2.66695,1.00233,1.56182,0.11690,-0.13239,-0.45907,0.07206,,,,,,,,,,,,,,,,,,,,,,,,,,0,0,0,0,0
0.7049,1783717633.8144,1,0,1.0000,0.0000,1.42028,0.14191,-2.66700,1.00233,1.56182,0.11702,-0.13234,-0.45905,0.07204,,,,,,,,,,,,,,,,,,,,,,,,,,0,0,0,0,0
0.7127,1783717633.8221,1,0,1.0000,0.0000,1.42023,0.14193,-2.66703,1.00233,1.56182,0.11707,-0.13232,-0.45904,0.07204,,,,,,,,,,,,,,,,,,,,,,,,,,0,0,0,0,0
0.7239,1783717633.8334,1,0,1.0000,0.0000,1.42010,0.14196,-2.66706,1.00232,1.56182,0.11719,-0.13227,-0.45904,0.07204,,,,,,,,,,,,,,,,,,,,,,,,,,0,0,0,0,0
0.7343,1783717633.8438,1,0,1.0000,0.0000,1.41990,0.14202,-2.66710,1.00231,1.56181,0.11739,-0.13219,-0.45904,0.07204,,,,,,,,,,,,,,,,,,,,,,,,,,0,0,0,0,0
0.7405,1783717633.8500,1,0,1.0000,0.0000,1.41987,0.14202,-2.66711,1.00231,1.56181,0.11742,-0.13218,-0.45904,0.07204,,,,,,,,,,,,,,,,,,,,,,,,,,0,0,0,0,0
0.7551,1783717633.8646,1,0,1.0000,0.0000,1.41927,0.14219,-2.66723,1.00227,1.56179,0.11801,-0.13196,-0.45904,0.07204,,,,,,,,,,,,,,,,,,,,,,,,,,0,0,0,0,0
0.7555,1783717633.8649,1,0,1.0000,0.0000,1.41927,0.14219,-2.66723,1.00227,1.56179,0.11801,-0.13196,-0.45904,0.07204,,,,,,,,,,,,,,,,,,,,,,,,,,0,0,0,0,0
0.7605,1783717633.8700,1,0,1.0000,0.0000,1.41903,0.14226,-2.66728,1.00225,1.56179,0.11824,-0.13186,-0.45905,0.07204,,,,,,,,,,,,,,,,,,,,,,,,,,0,0,0,0,0
0.7721,1783717633.8816,1,0,1.0000,0.0000,1.41873,0.14234,-2.66734,1.00223,1.56178,0.11854,-0.13175,-0.45905,0.07204,,,,,,,,,,,,,,,,,,,,,,,,,,0,0,0,0,0
0.7799,1783717633.8894,1,0,1.0000,0.0000,1.41842,0.14243,-2.66740,1.00221,1.56177,0.11885,-0.13163,-0.45905,0.07204,,,,,,,,,,,,,,,,,,,,,,,,,,0,0,0,0,0
0.7920,1783717633.9015,1,0,1.0000,0.0000,1.41751,0.14268,-2.66757,1.00214,1.56173,0.11976,-0.13129,-0.45906,0.07205,,,,,,,,,,,,,,,,,,,,,,,,,,0,0,0,0,0
0.7923,1783717633.9018,1,0,1.0000,0.0000,1.41751,0.14268,-2.66757,1.00214,1.56173,0.11976,-0.13129,-0.45906,0.07205,,,,,,,,,,,,,,,,,,,,,,,,,,0,0,0,0,0
0.8000,1783717633.9094,1,0,1.0000,0.0000,1.41669,0.14290,-2.66773,1.00209,1.56170,0.12057,-0.13098,-0.45907,0.07205,,,,,,,,,,,,,,,,,,,,,,,,,,0,0,0,0,0
0.8099,1783717633.9194,1,0,1.0000,0.0000,1.41664,0.14292,-2.66774,1.00208,1.56170,0.12063,-0.13096,-0.45907,0.07205,,,,,,,,,,,,,,,,,,,,,,,,,,0,0,0,0,0
0.8217,1783717633.9312,1,0,1.0000,0.0000,1.41595,0.14310,-2.66787,1.00203,1.56167,0.12132,-0.13071,-0.45908,0.07206,,,,,,,,,,,,,,,,,,,,,,,,,,0,0,0,0,0
0.8304,1783717633.9399,1,0,1.0000,0.0000,1.41558,0.14321,-2.66794,1.00200,1.56166,0.12169,-0.13057,-0.45908,0.07206,,,,,,,,,,,,,,,,,,,,,,,,,,0,0,0,0,0
0.8399,1783717633.9493,1,0,1.0000,0.0000,1.41503,0.14336,-2.66805,1.00196,1.56163,0.12224,-0.13036,-0.45909,0.07206,,,,,,,,,,,,,,,,,,,,,,,,,,0,0,0,0,0
0.8402,1783717633.9497,1,0,1.0000,0.0000,1.41503,0.14336,-2.66805,1.00196,1.56163,0.12224,-0.13036,-0.45909,0.07206,,,,,,,,,,,,,,,,,,,,,,,,,,0,0,0,0,0
0.8621,1783717633.9716,1,0,1.0000,0.0000,1.41310,0.14388,-2.66842,1.00181,1.56155,0.12417,-0.12964,-0.45911,0.07207,,,,,,,,,,,,,,,,,,,,,,,,,,0,0,0,0,0
0.8738,1783717633.9833,1,0,1.0000,0.0000,1.41264,0.14401,-2.66851,1.00177,1.56153,0.12463,-0.12947,-0.45911,0.07207,,,,,,,,,,,,,,,,,,,,,,,,,,0,0,0,0,0
0.8745,1783717633.9839,1,0,1.0000,0.0000,1.41264,0.14401,-2.66851,1.00177,1.56153,0.12463,-0.12947,-0.45911,0.07207,,,,,,,,,,,,,,,,,,,,,,,,,,0,0,0,0,0
0.8750,1783717633.9845,1,0,1.0000,0.0000,1.41232,0.14409,-2.66857,1.00175,1.56152,0.12496,-0.12935,-0.45912,0.07207,,,,,,,,,,,,,,,,,,,,,,,,,,0,0,0,0,0
0.8918,1783717634.0013,1,0,1.0000,0.0000,1.41104,0.14444,-2.66881,1.00165,1.56146,0.12624,-0.12887,-0.45913,0.07207,,,,,,,,,,,,,,,,,,,,,,,,,,0,0,0,0,0
0.8935,1783717634.0030,1,0,1.0000,0.0000,1.41104,0.14444,-2.66881,1.00165,1.56146,0.12624,-0.12887,-0.45913,0.07207,,,,,,,,,,,,,,,,,,,,,,,,,,0,0,0,0,0
0.8940,1783717634.0035,1,0,1.0000,0.0000,1.41104,0.14444,-2.66881,1.00165,1.56146,0.12624,-0.12887,-0.45913,0.07207,,,,,,,,,,,,,,,,,,,,,,,,,,0,0,0,0,0
0.9079,1783717634.0174,1,0,1.0000,0.0000,1.41043,0.14461,-2.66893,1.00160,1.56143,0.12685,-0.12864,-0.45913,0.07208,,,,,,,,,,,,,,,,,,,,,,,,,,0,0,0,0,0
0.9126,1783717634.0221,1,0,1.0000,0.0000,1.41013,0.14469,-2.66899,1.00157,1.56142,0.12715,-0.12853,-0.45913,0.07208,,,,,,,,,,,,,,,,,,,,,,,,,,0,0,0,0,0
0.9206,1783717634.0301,1,0,1.0000,0.0000,1.41009,0.14470,-2.66900,1.00157,1.56142,0.12718,-0.12852,-0.45913,0.07208,,,,,,,,,,,,,,,,,,,,,,,,,,0,0,0,0,0
0.9209,1783717634.0304,1,0,1.0000,0.0000,1.41009,0.14470,-2.66900,1.00157,1.56142,0.12718,-0.12852,-0.45913,0.07208,,,,,,,,,,,,,,,,,,,,,,,,,,0,0,0,0,0
0.9302,1783717634.0397,1,0,1.0000,0.0000,1.40981,0.14477,-2.66905,1.00155,1.56140,0.12746,-0.12841,-0.45913,0.07208,,,,,,,,,,,,,,,,,,,,,,,,,,0,0,0,0,0
0.9449,1783717634.0544,1,0,1.0000,0.0000,1.40876,0.14506,-2.66925,1.00146,1.56135,0.12852,-0.12802,-0.45914,0.07208,,,,,,,,,,,,,,,,,,,,,,,,,,0,0,0,0,0
0.9495,1783717634.0589,1,0,1.0000,0.0000,1.40876,0.14506,-2.66925,1.00146,1.56135,0.12852,-0.12802,-0.45914,0.07208,,,,,,,,,,,,,,,,,,,,,,,,,,0,0,0,0,0
0.9498,1783717634.0593,1,0,1.0000,0.0000,1.40876,0.14506,-2.66925,1.00146,1.56135,0.12852,-0.12802,-0.45914,0.07208,,,,,,,,,,,,,,,,,,,,,,,,,,0,0,0,0,0
0.9650,1783717634.0745,1,0,1.0000,0.0000,1.40845,0.14514,-2.66930,1.00143,1.56133,0.12883,-0.12791,-0.45915,0.07209,,,,,,,,,,,,,,,,,,,,,,,,,,0,0,0,0,0
0.9779,1783717634.0874,1,0,1.0000,0.0000,1.40796,0.14527,-2.66937,1.00138,1.56131,0.12931,-0.12772,-0.45917,0.07210,,,,,,,,,,,,,,,,,,,,,,,,,,0,0,0,0,0
0.9823,1783717634.0918,1,0,1.0000,0.0000,1.40779,0.14532,-2.66939,1.00137,1.56130,0.12949,-0.12766,-0.45918,0.07210,,,,,,,,,,,,,,,,,,,,,,,,,,0,0,0,0,0
0.9937,1783717634.1032,1,0,1.0000,0.0000,1.40730,0.14545,-2.66945,1.00132,1.56127,0.12998,-0.12748,-0.45920,0.07212,,,,,,,,,,,,,,,,,,,,,,,,,,0,0,0,0,0
1.0039,1783717634.1134,1,0,1.0000,0.0000,1.40702,0.14553,-2.66947,1.00129,1.56126,0.13027,-0.12737,-0.45923,0.07214,,,,,,,,,,,,,,,,,,,,,,,,,,0,0,0,0,0
1.0106,1783717634.1201,1,0,1.0000,0.0000,1.40699,0.14554,-2.66946,1.00129,1.56126,0.13030,-0.12736,-0.45924,0.07215,,,,,,,,,,,,,,,,,,,,,,,,,,0,0,0,0,0
1.0111,1783717634.1206,1,0,1.0000,0.0000,1.40699,0.14554,-2.66946,1.00129,1.56126,0.13030,-0.12736,-0.45924,0.07215,,,,,,,,,,,,,,,,,,,,,,,,,,0,0,0,0,0
1.0202,1783717634.1297,1,0,1.0000,0.0000,1.40699,0.14554,-2.66946,1.00129,1.56126,0.13030,-0.12736,-0.45924,0.07215,,,,,,,,,,,,,,,,,,,,,,,,,,0,0,0,0,0
1.0321,1783717634.1416,1,1,1.0000,0.0000,1.40699,0.14554,-2.66946,1.00129,1.56126,0.13030,-0.12736,-0.45924,0.07215,,,,,,,,,,,,,,,,,,,,,,,,,,0,0,0,0,0
1.0423,1783717634.1518,1,1,1.0000,0.0000,1.40699,0.14554,-2.66946,1.00129,1.56126,0.13030,-0.12736,-0.45924,0.07215,,,,,,,,,,,,,,,,,,,,,,,,,,0,0,0,0,0
1.0666,1783717634.1761,1,1,1.0000,0.0000,1.40699,0.14554,-2.66946,1.00129,1.56126,0.13030,-0.12736,-0.45924,0.07215,,,,,,,,,,,,,,,,,,,,,,,,,,0,0,0,0,0
1.0673,1783717634.1768,1,1,1.0000,0.0000,1.40699,0.14554,-2.66946,1.00129,1.56126,0.13030,-0.12736,-0.45924,0.07215,,,,,,,,,,,,,,,,,,,,,,,,,,0,0,0,0,0
1.0811,1783717634.1906,1,1,1.0000,0.0000,1.40699,0.14554,-2.66946,1.00129,1.56126,0.13030,-0.12736,-0.45924,0.07215,,,,,,,,,,,,,,,,,,,,,,,,,,0,0,0,0,0
1.0814,1783717634.1908,1,1,1.0000,0.0000,1.40699,0.14554,-2.66946,1.00129,1.56126,0.13030,-0.12736,-0.45924,0.07215,,,,,,,,,,,,,,,,,,,,,,,,,,0,0,0,0,0
1.0935,1783717634.2030,1,1,1.0000,0.0000,1.40699,0.14554,-2.66946,1.00129,1.56126,0.13030,-0.12736,-0.45924,0.07215,,,,,,,,,,,,,,,,,,,,,,,,,,0,0,0,0,0
1.1062,1783717634.2157,1,1,1.0000,0.0000,1.40699,0.14554,-2.66946,1.00129,1.56126,0.13030,-0.12736,-0.45924,0.07215,,,,,,,,,,,,,,,,,,,,,,,,,,0,0,0,0,0
1.1133,1783717634.2228,1,1,1.0000,0.0000,1.40699,0.14554,-2.66946,1.00129,1.56126,0.13030,-0.12736,-0.45924,0.07215,,,,,,,,,,,,,,,,,,,,,,,,,,0,0,0,0,0
1.1138,1783717634.2233,1,1,1.0000,0.0000,1.40699,0.14554,-2.66946,1.00129,1.56126,0.13030,-0.12736,-0.45924,0.07215,,,,,,,,,,,,,,,,,,,,,,,,,,0,0,0,0,0
1.1219,1783717634.2314,1,1,1.0000,0.0000,1.40699,0.14554,-2.66946,1.00129,1.56126,0.13030,-0.12736,-0.45924,0.07215,,,,,,,,,,,,,,,,,,,,,,,,,,0,0,0,0,0
1.1353,1783717634.2448,1,1,1.0000,0.0000,1.40699,0.14554,-2.66946,1.00129,1.56126,0.13030,-0.12736,-0.45924,0.07215,,,,,,,,,,,,,,,,,,,,,,,,,,0,0,0,0,0
1.1413,1783717634.2508,1,1,1.0000,0.0000,1.40699,0.14554,-2.66946,1.00129,1.56126,0.13030,-0.12736,-0.45924,0.07215,,,,,,,,,,,,,,,,,,,,,,,,,,0,0,0,0,0
1.1416,1783717634.2511,1,1,1.0000,0.0000,1.40699,0.14554,-2.66946,1.00129,1.56126,0.13030,-0.12736,-0.45924,0.07215,,,,,,,,,,,,,,,,,,,,,,,,,,0,0,0,0,0
1.1541,1783717634.2636,1,1,1.0000,0.0000,1.40699,0.14554,-2.66946,1.00129,1.56126,0.13030,-0.12736,-0.45924,0.07215,,,,,,,,,,,,,,,,,,,,,,,,,,0,0,0,0,0
1.1700,1783717634.2795,1,1,1.0000,0.0000,1.40699,0.14554,-2.66946,1.00129,1.56126,0.13030,-0.12736,-0.45924,0.07215,,,,,,,,,,,,,,,,,,,,,,,,,,0,0,0,0,0
1.1933,1783717634.3027,1,1,1.0000,0.0000,1.40699,0.14554,-2.66946,1.00129,1.56126,0.13030,-0.12736,-0.45924,0.07215,,,,,,,,,,,,,,,,,,,,,,,,,,0,0,0,0,0
1.1936,1783717634.3031,1,1,1.0000,0.0000,1.40699,0.14554,-2.66946,1.00129,1.56126,0.13030,-0.12736,-0.45924,0.07215,,,,,,,,,,,,,,,,,,,,,,,,,,0,0,0,0,0
1.2042,1783717634.3136,1,1,1.0000,0.0000,1.40699,0.14554,-2.66946,1.00129,1.56126,0.13030,-0.12736,-0.45924,0.07215,,,,,,,,,,,,,,,,,,,,,,,,,,0,0,0,0,0
1.2099,1783717634.3194,1,1,1.0000,0.0000,1.40699,0.14554,-2.66946,1.00129,1.56126,0.13030,-0.12736,-0.45924,0.07215,,,,,,,,,,,,,,,,,,,,,,,,,,0,0,0,0,0
1.2101,1783717634.3196,1,1,1.0000,0.0000,1.40699,0.14554,-2.66946,1.00129,1.56126,0.13030,-0.12736,-0.45924,0.07215,,,,,,,,,,,,,,,,,,,,,,,,,,0,0,0,0,0
1.2200,1783717634.3295,1,1,1.0000,0.0000,1.40699,0.14554,-2.66946,1.00129,1.56126,0.13030,-0.12736,-0.45924,0.07215,,,,,,,,,,,,,,,,,,,,,,,,,,0,0,0,0,0
1.2299,1783717634.3394,1,1,1.0000,0.0000,1.40699,0.14554,-2.66946,1.00129,1.56126,0.13030,-0.12736,-0.45924,0.07215,,,,,,,,,,,,,,,,,,,,,,,,,,0,0,0,0,0
1.2417,1783717634.3512,1,1,1.0000,0.0000,1.40699,0.14554,-2.66946,1.00129,1.56126,0.13030,-0.12736,-0.45924,0.07215,,,,,,,,,,,,,,,,,,,,,,,,,,0,0,0,0,0
1.2426,1783717634.3521,1,1,1.0000,0.0000,1.40699,0.14554,-2.66946,1.00129,1.56126,0.13030,-0.12736,-0.45924,0.07215,,,,,,,,,,,,,,,,,,,,,,,,,,0,0,0,0,0
1.2522,1783717634.3617,1,1,1.0000,0.0000,1.40699,0.14554,-2.66946,1.00129,1.56126,0.13030,-0.12736,-0.45924,0.07215,,,,,,,,,,,,,,,,,,,,,,,,,,0,0,0,0,0
1.2526,1783717634.3621,1,1,1.0000,0.0000,1.40699,0.14554,-2.66946,1.00129,1.56126,0.13030,-0.12736,-0.45924,0.07215,,,,,,,,,,,,,,,,,,,,,,,,,,0,0,0,0,0
1.2611,1783717634.3706,1,1,1.0000,0.0000,1.40699,0.14554,-2.66946,1.00129,1.56126,0.13030,-0.12736,-0.45924,0.07215,,,,,,,,,,,,,,,,,,,,,,,,,,0,0,0,0,0
1.2726,1783717634.3821,1,1,1.0000,0.0000,1.40699,0.14554,-2.66946,1.00129,1.56126,0.13030,-0.12736,-0.45924,0.07215,,,,,,,,,,,,,,,,,,,,,,,,,,0,0,0,0,0
1.2847,1783717634.3942,1,1,1.0000,0.0000,1.40699,0.14554,-2.66946,1.00129,1.56126,0.13030,-0.12736,-0.45924,0.07215,,,,,,,,,,,,,,,,,,,,,,,,,,0,0,0,0,0
1.2852,1783717634.3947,1,1,1.0000,0.0000,1.40699,0.14554,-2.66946,1.00129,1.56126,0.13030,-0.12736,-0.45924,0.07215,,,,,,,,,,,,,,,,,,,,,,,,,,0,0,0,0,0
1.2947,1783717634.4042,1,1,1.0000,0.0000,1.40699,0.14554,-2.66946,1.00129,1.56126,0.13030,-0.12736,-0.45924,0.07215,,,,,,,,,,,,,,,,,,,,,,,,,,0,0,0,0,0
1.3010,1783717634.4105,1,1,1.0000,0.0000,1.40699,0.14554,-2.66946,1.00129,1.56126,0.13030,-0.12736,-0.45924,0.07215,,,,,,,,,,,,,,,,,,,,,,,,,,0,0,0,0,0
1.3015,1783717634.4110,1,1,1.0000,0.0000,1.40699,0.14554,-2.66946,1.00129,1.56126,0.13030,-0.12736,-0.45924,0.07215,,,,,,,,,,,,,,,,,,,,,,,,,,0,0,0,0,0
1.3131,1783717634.4225,1,1,1.0000,0.0000,1.40699,0.14554,-2.66946,1.00129,1.56126,0.13030,-0.12736,-0.45924,0.07215,,,,,,,,,,,,,,,,,,,,,,,,,,0,0,0,0,0
1.3199,1783717634.4293,1,1,1.0000,0.0000,1.40699,0.14554,-2.66946,1.00129,1.56126,0.13030,-0.12736,-0.45924,0.07215,,,,,,,,,,,,,,,,,,,,,,,,,,0,0,0,0,0
1.3314,1783717634.4409,1,1,1.0000,0.0000,1.40699,0.14554,-2.66946,1.00129,1.56126,0.13030,-0.12736,-0.45924,0.07215,,,,,,,,,,,,,,,,,,,,,,,,,,0,0,0,0,0
1.3397,1783717634.4492,1,1,1.0000,0.0000,1.40699,0.14554,-2.66946,1.00129,1.56126,0.13030,-0.12736,-0.45924,0.07215,,,,,,,,,,,,,,,,,,,,,,,,,,0,0,0,0,0
1.3499,1783717634.4594,1,1,1.0000,0.0000,1.40699,0.14554,-2.66946,1.00129,1.56126,0.13030,-0.12736,-0.45924,0.07215,,,,,,,,,,,,,,,,,,,,,,,,,,0,0,0,0,0
1.3640,1783717634.4735,1,1,1.0000,0.0000,1.40699,0.14554,-2.66946,1.00129,1.56126,0.13030,-0.12736,-0.45924,0.07215,,,,,,,,,,,,,,,,,,,,,,,,,,0,0,0,0,0
1.3781,1783717634.4876,1,1,1.0000,0.0000,1.40699,0.14554,-2.66946,1.00129,1.56126,0.13030,-0.12736,-0.45924,0.07215,,,,,,,,,,,,,,,,,,,,,,,,,,0,0,0,0,0
1.3854,1783717634.4949,1,1,1.0000,0.0000,1.40699,0.14554,-2.66946,1.00129,1.56126,0.13030,-0.12736,-0.45924,0.07215,,,,,,,,,,,,,,,,,,,,,,,,,,0,0,0,0,0
1.3857,1783717634.4952,1,1,1.0000,0.0000,1.40699,0.14554,-2.66946,1.00129,1.56126,0.13030,-0.12736,-0.45924,0.07215,,,,,,,,,,,,,,,,,,,,,,,,,,0,0,0,0,0
1.3892,1783717634.4987,1,1,1.0000,0.0000,1.40699,0.14554,-2.66946,1.00129,1.56126,0.13030,-0.12736,-0.45924,0.07215,,,,,,,,,,,,,,,,,,,,,,,,,,0,0,0,0,0
1.4000,1783717634.5094,1,1,1.0000,0.0000,1.40699,0.14554,-2.66946,1.00129,1.56126,0.13030,-0.12736,-0.45924,0.07215,,,,,,,,,,,,,,,,,,,,,,,,,,0,0,0,0,0
1.4135,1783717634.5230,1,1,1.0000,0.0000,1.40702,0.14553,-2.66945,1.00129,1.56125,0.13029,-0.12737,-0.45924,0.07215,,,,,,,,,,,,,,,,,,,,,,,,,,0,0,0,0,0
1.4139,1783717634.5234,1,1,1.0000,0.0000,1.40702,0.14553,-2.66945,1.00129,1.56125,0.13029,-0.12737,-0.45924,0.07215,,,,,,,,,,,,,,,,,,,,,,,,,,0,0,0,0,0
1.4213,1783717634.5308,1,1,1.0000,0.0000,1.40705,0.14552,-2.66945,1.00129,1.56125,0.13028,-0.12738,-0.45924,0.07215,,,,,,,,,,,,,,,,,,,,,,,,,,0,0,0,0,0
1.4218,1783717634.5312,1,1,1.0000,0.0000,1.40705,0.14552,-2.66945,1.00129,1.56125,0.13028,-0.12738,-0.45924,0.07215,,,,,,,,,,,,,,,,,,,,,,,,,,0,0,0,0,0
1.4320,1783717634.5415,1,1,1.0000,0.0000,1.40710,0.14551,-2.66944,1.00128,1.56124,0.13025,-0.12741,-0.45924,0.07214,,,,,,,,,,,,,,,,,,,,,,,,,,0,0,0,0,0
1.4325,1783717634.5419,1,1,1.0000,0.0000,1.40710,0.14551,-2.66944,1.00128,1.56124,0.13025,-0.12741,-0.45924,0.07214,,,,,,,,,,,,,,,,,,,,,,,,,,0,0,0,0,0
1.4407,1783717634.5502,1,1,1.0000,0.0000,1.40714,0.14550,-2.66943,1.00128,1.56124,0.13023,-0.12742,-0.45924,0.07215,,,,,,,,,,,,,,,,,,,,,,,,,,0,0,0,0,0
1.4541,1783717634.5635,1,1,1.0000,0.0000,1.40729,0.14546,-2.66940,1.00128,1.56124,0.13010,-0.12748,-0.45923,0.07215,,,,,,,,,,,,,,,,,,,,,,,,,,0,0,0,0,0
1.4627,1783717634.5722,1,1,1.0000,0.0000,1.40731,0.14545,-2.66939,1.00129,1.56124,0.13008,-0.12749,-0.45923,0.07214,,,,,,,,,,,,,,,,,,,,,,,,,,0,0,0,0,0
1.4634,1783717634.5728,1,1,1.0000,0.0000,1.40737,0.14544,-2.66938,1.00129,1.56124,0.13003,-0.12751,-0.45923,0.07214,,,,,,,,,,,,,,,,,,,,,,,,,,0,0,0,0,0
1.4723,1783717634.5818,1,1,1.0000,0.0000,1.40757,0.14538,-2.66934,1.00129,1.56124,0.12984,-0.12759,-0.45923,0.07214,,,,,,,,,,,,,,,,,,,,,,,,,,0,0,0,0,0
1.4934,1783717634.6029,1,1,1.0000,0.0000,1.40808,0.14525,-2.66925,1.00131,1.56124,0.12937,-0.12779,-0.45922,0.07213,,,,,,,,,,,,,,,,,,,,,,,,,,0,0,0,0,0
1.4938,1783717634.6033,1,1,1.0000,0.0000,1.40808,0.14525,-2.66925,1.00131,1.56124,0.12937,-0.12779,-0.45922,0.07213,,,,,,,,,,,,,,,,,,,,,,,,,,0,0,0,0,0
1.5075,1783717634.6169,1,1,1.0000,0.0000,1.40872,0.14508,-2.66914,1.00135,1.56126,0.12875,-0.12803,-0.45921,0.07213,,,,,,,,,,,,,,,,,,,,,,,,,,0,0,0,0,0
1.5100,1783717634.6195,1,1,1.0000,0.0000,1.40872,0.14508,-2.66914,1.00135,1.56126,0.12875,-0.12803,-0.45921,0.07213,,,,,,,,,,,,,,,,,,,,,,,,,,0,0,0,0,0
1.5393,1783717634.6488,1,1,1.0000,0.0000,1.41021,0.14467,-2.66886,1.00145,1.56130,0.12728,-0.12860,-0.45918,0.07211,,,,,,,,,,,,,,,,,,,,,,,,,,0,0,0,0,0
1.5395,1783717634.6490,1,1,1.0000,0.0000,1.41021,0.14467,-2.66886,1.00145,1.56130,0.12728,-0.12860,-0.45918,0.07211,,,,,,,,,,,,,,,,,,,,,,,,,,0,0,0,0,0
1.5432,1783717634.6527,1,1,1.0000,0.0000,1.41053,0.14458,-2.66880,1.00147,1.56131,0.12696,-0.12872,-0.45918,0.07211,,,,,,,,,,,,,,,,,,,,,,,,,,0,0,0,0,0
1.5434,1783717634.6529,1,1,1.0000,0.0000,1.41053,0.14458,-2.66880,1.00147,1.56131,0.12696,-0.12872,-0.45918,0.07211,,,,,,,,,,,,,,,,,,,,,,,,,,0,0,0,0,0
1.5519,1783717634.6613,1,1,1.0000,0.0000,1.41060,0.14457,-2.66879,1.00147,1.56131,0.12689,-0.12874,-0.45918,0.07211,,,,,,,,,,,,,,,,,,,,,,,,,,0,0,0,0,0
1.5523,1783717634.6617,1,1,1.0000,0.0000,1.41060,0.14457,-2.66879,1.00147,1.56131,0.12689,-0.12874,-0.45918,0.07211,,,,,,,,,,,,,,,,,,,,,,,,,,0,0,0,0,0
1.5650,1783717634.6744,1,1,1.0000,0.0000,1.41143,0.14434,-2.66863,1.00153,1.56135,0.12606,-0.12906,-0.45917,0.07210,,,,,,,,,,,,,,,,,,,,,,,,,,0,0,0,0,0
1.5735,1783717634.6830,1,1,1.0000,0.0000,1.41237,0.14408,-2.66846,1.00160,1.56138,0.12513,-0.12941,-0.45916,0.07210,,,,,,,,,,,,,,,,,,,,,,,,,,0,0,0,0,0
1.5914,1783717634.7009,1,1,1.0000,0.0000,1.41338,0.14381,-2.66826,1.00168,1.56142,0.12412,-0.12978,-0.45915,0.07209,,,,,,,,,,,,,,,,,,,,,,,,,,0,0,0,0,0
1.5917,1783717634.7012,1,1,1.0000,0.0000,1.41338,0.14381,-2.66826,1.00168,1.56142,0.12412,-0.12978,-0.45915,0.07209,,,,,,,,,,,,,,,,,,,,,,,,,,0,0,0,0,0
1.5920,1783717634.7015,1,1,1.0000,0.0000,1.41338,0.14381,-2.66826,1.00168,1.56142,0.12412,-0.12978,-0.45915,0.07209,,,,,,,,,,,,,,,,,,,,,,,,,,0,0,0,0,0
1.6019,1783717634.7114,1,1,1.0000,0.0000,1.41411,0.14361,-2.66812,1.00174,1.56145,0.12338,-0.13006,-0.45914,0.07209,,,,,,,,,,,,,,,,,,,,,,,,,,0,0,0,0,0
1.6024,1783717634.7119,1,1,1.0000,0.0000,1.41411,0.14361,-2.66812,1.00174,1.56145,0.12338,-0.13006,-0.45914,0.07209,,,,,,,,,,,,,,,,,,,,,,,,,,0,0,0,0,0
1.6114,1783717634.7209,1,1,1.0000,0.0000,1.41505,0.14335,-2.66794,1.00181,1.56149,0.12244,-0.13041,-0.45913,0.07208,,,,,,,,,,,,,,,,,,,,,,,,,,0,0,0,0,0
1.6252,1783717634.7347,1,1,1.0000,0.0000,1.41549,0.14323,-2.66786,1.00184,1.56151,0.12200,-0.13057,-0.45913,0.07208,,,,,,,,,,,,,,,,,,,,,,,,,,0,0,0,0,0
1.6313,1783717634.7408,1,1,1.0000,0.0000,1.41615,0.14305,-2.66773,1.00190,1.56154,0.12134,-0.13082,-0.45912,0.07208,,,,,,,,,,,,,,,,,,,,,,,,,,0,0,0,0,0
1.6540,1783717634.7635,1,1,1.0000,0.0000,1.41685,0.14286,-2.66759,1.00195,1.56157,0.12064,-0.13108,-0.45912,0.07208,,,,,,,,,,,,,,,,,,,,,,,,,,0,0,0,0,0
1.6627,1783717634.7722,1,1,1.0000,0.0000,1.41756,0.14266,-2.66745,1.00201,1.56160,0.11993,-0.13135,-0.45911,0.07208,,,,,,,,,,,,,,,,,,,,,,,,,,0,0,0,0,0
1.6642,1783717634.7737,1,1,1.0000,0.0000,1.41795,0.14255,-2.66737,1.00204,1.56162,0.11953,-0.13149,-0.45911,0.07208,,,,,,,,,,,,,,,,,,,,,,,,,,0,0,0,0,0
1.6770,1783717634.7865,1,1,1.0000,0.0000,1.41807,0.14252,-2.66735,1.00205,1.56163,0.11941,-0.13154,-0.45911,0.07208,,,,,,,,,,,,,,,,,,,,,,,,,,0,0,0,0,0
1.6802,1783717634.7897,1,1,1.0000,0.0000,1.41821,0.14248,-2.66732,1.00207,1.56164,0.11927,-0.13159,-0.45911,0.07208,,,,,,,,,,,,,,,,,,,,,,,,,,0,0,0,0,0
1.6806,1783717634.7901,1,1,1.0000,0.0000,1.41821,0.14248,-2.66732,1.00207,1.56164,0.11927,-0.13159,-0.45911,0.07208,,,,,,,,,,,,,,,,,,,,,,,,,,0,0,0,0,0
1.6941,1783717634.8036,1,1,1.0000,0.0000,1.41883,0.14231,-2.66721,1.00212,1.56167,0.11865,-0.13182,-0.45910,0.07207,,,,,,,,,,,,,,,,,,,,,,,,,,0,0,0,0,0
1.7045,1783717634.8140,1,1,1.0000,0.0000,1.41958,0.14211,-2.66707,1.00219,1.56170,0.11789,-0.13210,-0.45909,0.07207,,,,,,,,,,,,,,,,,,,,,,,,,,0,0,0,0,0
1.7048,1783717634.8143,1,1,1.0000,0.0000,1.41958,0.14211,-2.66707,1.00219,1.56170,0.11789,-0.13210,-0.45909,0.07207,,,,,,,,,,,,,,,,,,,,,,,,,,0,0,0,0,0
1.7114,1783717634.8209,1,1,1.0000,0.0000,1.42004,0.14198,-2.66699,1.00223,1.56173,0.11743,-0.13227,-0.45908,0.07206,,,,,,,,,,,,,,,,,,,,,,,,,,0,0,0,0,0
1.7117,1783717634.8212,1,1,1.0000,0.0000,1.42004,0.14198,-2.66699,1.00223,1.56173,0.11743,-0.13227,-0.45908,0.07206,,,,,,,,,,,,,,,,,,,,,,,,,,0,0,0,0,0
1.7203,1783717634.8298,1,1,1.0000,0.0000,1.42038,0.14189,-2.66693,1.00226,1.56175,0.11708,-0.13240,-0.45907,0.07206,,,,,,,,,,,,,,,,,,,,,,,,,,0,0,0,0,0
1.7308,1783717634.8403,1,1,1.0000,0.0000,1.42054,0.14184,-2.66691,1.00228,1.56176,0.11691,-0.13246,-0.45907,0.07206,,,,,,,,,,,,,,,,,,,,,,,,,,0,0,0,0,0
1.7411,1783717634.8506,1,1,1.0000,0.0000,1.42054,0.14184,-2.66691,1.00228,1.56176,0.11691,-0.13246,-0.45907,0.07206,,,,,,,,,,,,,,,,,,,,,,,,,,0,0,0,0,0
1.7522,1783717634.8616,1,1,1.0000,0.0000,1.42054,0.14184,-2.66691,1.00228,1.56176,0.11691,-0.13246,-0.45907,0.07206,,,,,,,,,,,,,,,,,,,,,,,,,,0,0,0,0,0
1.7858,1783717634.8952,1,1,1.0000,0.0000,1.42054,0.14184,-2.66691,1.00228,1.56176,0.11691,-0.13246,-0.45907,0.07206,,,,,,,,,,,,,,,,,,,,,,,,,,0,0,0,0,0
1.7860,1783717634.8955,1,1,1.0000,0.0000,1.42054,0.14184,-2.66691,1.00228,1.56176,0.11691,-0.13246,-0.45907,0.07206,,,,,,,,,,,,,,,,,,,,,,,,,,0,0,0,0,0
1.7864,1783717634.8959,1,1,1.0000,0.0000,1.42054,0.14184,-2.66691,1.00228,1.56176,0.11691,-0.13246,-0.45907,0.07206,,,,,,,,,,,,,,,,,,,,,,,,,,0,0,0,0,0
1.7960,1783717634.9055,1,1,1.0000,0.0000,1.42054,0.14184,-2.66691,1.00228,1.56176,0.11691,-0.13246,-0.45907,0.07206,,,,,,,,,,,,,,,,,,,,,,,,,,0,0,0,0,0
1.8041,1783717634.9135,1,1,1.0000,0.0000,1.42054,0.14184,-2.66691,1.00228,1.56176,0.11691,-0.13246,-0.45907,0.07206,,,,,,,,,,,,,,,,,,,,,,,,,,0,0,0,0,0
1.8100,1783717634.9195,1,1,1.0000,0.0000,1.42054,0.14184,-2.66691,1.00228,1.56176,0.11691,-0.13246,-0.45907,0.07206,,,,,,,,,,,,,,,,,,,,,,,,,,0,0,0,0,0
1.8105,1783717634.9200,1,1,1.0000,0.0000,1.42054,0.14184,-2.66691,1.00228,1.56176,0.11691,-0.13246,-0.45907,0.07206,,,,,,,,,,,,,,,,,,,,,,,,,,0,0,0,0,0
1.8215,1783717634.9310,1,1,1.0000,0.0000,1.42054,0.14184,-2.66691,1.00228,1.56176,0.11691,-0.13246,-0.45907,0.07206,,,,,,,,,,,,,,,,,,,,,,,,,,0,0,0,0,0
1.8301,1783717634.9396,1,1,1.0000,0.0000,1.42054,0.14184,-2.66691,1.00228,1.56176,0.11691,-0.13246,-0.45907,0.07206,,,,,,,,,,,,,,,,,,,,,,,,,,0,0,0,0,0
1.8405,1783717634.9500,1,1,1.0000,0.0000,1.42054,0.14184,-2.66691,1.00228,1.56176,0.11691,-0.13246,-0.45907,0.07206,,,,,,,,,,,,,,,,,,,,,,,,,,0,0,0,0,0
1.8566,1783717634.9661,1,1,1.0000,0.0000,1.42054,0.14184,-2.66691,1.00228,1.56176,0.11691,-0.13246,-0.45907,0.07206,,,,,,,,,,,,,,,,,,,,,,,,,,0,0,0,0,0
1.8572,1783717634.9666,1,1,1.0000,0.0000,1.42054,0.14184,-2.66691,1.00228,1.56176,0.11691,-0.13246,-0.45907,0.07206,,,,,,,,,,,,,,,,,,,,,,,,,,0,0,0,0,0
1.8609,1783717634.9703,1,1,1.0000,0.0000,1.42054,0.14184,-2.66691,1.00228,1.56176,0.11691,-0.13246,-0.45907,0.07206,,,,,,,,,,,,,,,,,,,,,,,,,,0,0,0,0,0
1.8613,1783717634.9708,1,1,1.0000,0.0000,1.42054,0.14184,-2.66691,1.00228,1.56176,0.11691,-0.13246,-0.45907,0.07206,,,,,,,,,,,,,,,,,,,,,,,,,,0,0,0,0,0
1.8697,1783717634.9792,1,1,1.0000,0.0000,1.42054,0.14184,-2.66691,1.00228,1.56176,0.11691,-0.13246,-0.45907,0.07206,,,,,,,,,,,,,,,,,,,,,,,,,,0,0,0,0,0
1.8701,1783717634.9795,1,1,1.0000,0.0000,1.42054,0.14184,-2.66691,1.00228,1.56176,0.11691,-0.13246,-0.45907,0.07206,,,,,,,,,,,,,,,,,,,,,,,,,,0,0,0,0,0
1.8855,1783717634.9950,1,1,1.0000,0.0000,1.42054,0.14184,-2.66691,1.00228,1.56176,0.11691,-0.13246,-0.45907,0.07206,,,,,,,,,,,,,,,,,,,,,,,,,,0,0,0,0,0
1.8976,1783717635.0071,1,1,1.0000,0.0000,1.42054,0.14184,-2.66691,1.00228,1.56176,0.11691,-0.13246,-0.45907,0.07206,,,,,,,,,,,,,,,,,,,,,,,,,,0,0,0,0,0
1.8981,1783717635.0075,1,1,1.0000,0.0000,1.42054,0.14184,-2.66691,1.00228,1.56176,0.11691,-0.13246,-0.45907,0.07206,,,,,,,,,,,,,,,,,,,,,,,,,,0,0,0,0,0
1.9061,1783717635.0155,1,1,1.0000,0.0000,1.42054,0.14184,-2.66691,1.00228,1.56176,0.11691,-0.13246,-0.45907,0.07206,,,,,,,,,,,,,,,,,,,,,,,,,,0,0,0,0,0
1.9169,1783717635.0263,1,1,1.0000,0.0000,1.42054,0.14184,-2.66691,1.00228,1.56176,0.11691,-0.13246,-0.45907,0.07206,,,,,,,,,,,,,,,,,,,,,,,,,,0,0,0,0,0
1.9282,1783717635.0377,1,1,1.0000,0.0000,1.42054,0.14184,-2.66691,1.00228,1.56176,0.11691,-0.13246,-0.45907,0.07206,,,,,,,,,,,,,,,,,,,,,,,,,,0,0,0,0,0
1.9285,1783717635.0380,1,1,1.0000,0.0000,1.42054,0.14184,-2.66691,1.00228,1.56176,0.11691,-0.13246,-0.45907,0.07206,,,,,,,,,,,,,,,,,,,,,,,,,,0,0,0,0,0
1.9363,1783717635.0457,1,1,1.0000,0.0000,1.42054,0.14184,-2.66691,1.00228,1.56176,0.11691,-0.13246,-0.45907,0.07206,,,,,,,,,,,,,,,,,,,,,,,,,,0,0,0,0,0
1.9458,1783717635.0552,1,1,1.0000,0.0000,1.42054,0.14184,-2.66691,1.00228,1.56176,0.11691,-0.13246,-0.45907,0.07206,,,,,,,,,,,,,,,,,,,,,,,,,,0,0,0,0,0
1.9461,1783717635.0556,1,1,1.0000,0.0000,1.42054,0.14184,-2.66691,1.00228,1.56176,0.11691,-0.13246,-0.45907,0.07206,,,,,,,,,,,,,,,,,,,,,,,,,,0,0,0,0,0
1.9579,1783717635.0673,1,1,1.0000,0.0000,1.42054,0.14184,-2.66691,1.00228,1.56176,0.11691,-0.13246,-0.45907,0.07206,,,,,,,,,,,,,,,,,,,,,,,,,,0,0,0,0,0
1.9582,1783717635.0676,1,1,1.0000,0.0000,1.42054,0.14184,-2.66691,1.00228,1.56176,0.11691,-0.13246,-0.45907,0.07206,,,,,,,,,,,,,,,,,,,,,,,,,,0,0,0,0,0
1.9785,1783717635.0880,1,1,1.0000,0.0000,1.42054,0.14184,-2.66691,1.00228,1.56176,0.11691,-0.13246,-0.45907,0.07206,,,,,,,,,,,,,,,,,,,,,,,,,,0,0,0,0,0
1.9788,1783717635.0883,1,1,1.0000,0.0000,1.42054,0.14184,-2.66691,1.00228,1.56176,0.11691,-0.13246,-0.45907,0.07206,,,,,,,,,,,,,,,,,,,,,,,,,,0,0,0,0,0
1.9853,1783717635.0948,1,1,1.0000,0.0000,1.42054,0.14184,-2.66691,1.00228,1.56176,0.11691,-0.13246,-0.45907,0.07206,,,,,,,,,,,,,,,,,,,,,,,,,,0,0,0,0,0
1.9856,1783717635.0951,1,1,1.0000,0.0000,1.42054,0.14184,-2.66691,1.00228,1.56176,0.11691,-0.13246,-0.45907,0.07206,,,,,,,,,,,,,,,,,,,,,,,,,,0,0,0,0,0
2.0002,1783717635.1097,1,1,1.0000,0.0000,1.42054,0.14184,-2.66691,1.00228,1.56176,0.11691,-0.13246,-0.45907,0.07206,,,,,,,,,,,,,,,,,,,,,,,,,,0,0,0,0,0
2.0051,1783717635.1145,1,1,1.0000,0.0000,1.42054,0.14184,-2.66691,1.00228,1.56176,0.11691,-0.13246,-0.45907,0.07206,,,,,,,,,,,,,,,,,,,,,,,,,,0,0,0,0,0
2.0054,1783717635.1149,1,1,1.0000,0.0000,1.42054,0.14184,-2.66691,1.00228,1.56176,0.11691,-0.13246,-0.45907,0.07206,,,,,,,,,,,,,,,,,,,,,,,,,,0,0,0,0,0
2.0190,1783717635.1285,1,1,1.0000,0.0000,1.42054,0.14184,-2.66691,1.00228,1.56176,0.11691,-0.13246,-0.45907,0.07206,,,,,,,,,,,,,,,,,,,,,,,,,,0,0,0,0,0
2.0267,1783717635.1362,1,1,1.0000,0.0000,1.42054,0.14184,-2.66691,1.00228,1.56176,0.11691,-0.13246,-0.45907,0.07206,,,,,,,,,,,,,,,,,,,,,,,,,,0,0,0,0,0
2.0350,1783717635.1444,1,1,1.0000,0.0000,1.42054,0.14184,-2.66691,1.00228,1.56176,0.11691,-0.13246,-0.45907,0.07206,,,,,,,,,,,,,,,,,,,,,,,,,,0,0,0,0,0
2.0443,1783717635.1538,1,1,1.0000,0.0000,1.42054,0.14184,-2.66691,1.00228,1.56176,0.11691,-0.13246,-0.45907,0.07206,,,,,,,,,,,,,,,,,,,,,,,,,,0,0,0,0,0
2.0447,1783717635.1541,1,1,1.0000,0.0000,1.42054,0.14184,-2.66691,1.00228,1.56176,0.11691,-0.13246,-0.45907,0.07206,,,,,,,,,,,,,,,,,,,,,,,,,,0,0,0,0,0
2.0623,1783717635.1718,1,1,1.0000,0.0000,1.42054,0.14184,-2.66691,1.00228,1.56176,0.11691,-0.13246,-0.45907,0.07206,,,,,,,,,,,,,,,,,,,,,,,,,,0,0,0,0,0
2.0657,1783717635.1752,1,1,1.0000,0.0000,1.42054,0.14184,-2.66691,1.00228,1.56176,0.11691,-0.13246,-0.45907,0.07206,,,,,,,,,,,,,,,,,,,,,,,,,,0,0,0,0,0
2.0765,1783717635.1859,1,1,1.0000,0.0000,1.42054,0.14184,-2.66691,1.00228,1.56176,0.11691,-0.13246,-0.45907,0.07206,,,,,,,,,,,,,,,,,,,,,,,,,,0,0,0,0,0
2.0881,1783717635.1976,1,1,1.0000,0.0000,1.42054,0.14184,-2.66691,1.00228,1.56176,0.11691,-0.13246,-0.45907,0.07206,,,,,,,,,,,,,,,,,,,,,,,,,,0,0,0,0,0
2.0948,1783717635.2043,1,1,1.0000,0.0000,1.42054,0.14184,-2.66691,1.00228,1.56176,0.11691,-0.13246,-0.45907,0.07206,,,,,,,,,,,,,,,,,,,,,,,,,,0,0,0,0,0
2.0955,1783717635.2050,1,1,1.0000,0.0000,1.42054,0.14184,-2.66691,1.00228,1.56176,0.11691,-0.13246,-0.45907,0.07206,,,,,,,,,,,,,,,,,,,,,,,,,,0,0,0,0,0
2.1130,1783717635.2225,1,1,1.0000,0.0000,1.42054,0.14184,-2.66691,1.00228,1.56176,0.11691,-0.13246,-0.45907,0.07206,,,,,,,,,,,,,,,,,,,,,,,,,,0,0,0,0,0
2.1179,1783717635.2273,1,1,1.0000,0.0000,1.42054,0.14184,-2.66691,1.00228,1.56176,0.11691,-0.13246,-0.45907,0.07206,,,,,,,,,,,,,,,,,,,,,,,,,,0,0,0,0,0
2.1182,1783717635.2276,1,1,1.0000,0.0000,1.42054,0.14184,-2.66691,1.00228,1.56176,0.11691,-0.13246,-0.45907,0.07206,,,,,,,,,,,,,,,,,,,,,,,,,,0,0,0,0,0
2.1253,1783717635.2348,1,1,1.0000,0.0000,1.42054,0.14184,-2.66691,1.00228,1.56176,0.11691,-0.13246,-0.45907,0.07206,,,,,,,,,,,,,,,,,,,,,,,,,,0,0,0,0,0
2.1256,1783717635.2351,1,1,1.0000,0.0000,1.42054,0.14184,-2.66691,1.00228,1.56176,0.11691,-0.13246,-0.45907,0.07206,,,,,,,,,,,,,,,,,,,,,,,,,,0,0,0,0,0
2.1386,1783717635.2481,1,1,1.0000,0.0000,1.42054,0.14184,-2.66691,1.00228,1.56176,0.11691,-0.13246,-0.45907,0.07206,,,,,,,,,,,,,,,,,,,,,,,,,,0,0,0,0,0
2.1464,1783717635.2559,1,1,1.0000,0.0000,1.42054,0.14184,-2.66691,1.00228,1.56176,0.11691,-0.13246,-0.45907,0.07206,,,,,,,,,,,,,,,,,,,,,,,,,,0,0,0,0,0
2.1628,1783717635.2723,1,1,1.0000,0.0000,1.42054,0.14184,-2.66691,1.00228,1.56176,0.11691,-0.13246,-0.45907,0.07206,,,,,,,,,,,,,,,,,,,,,,,,,,0,0,0,0,0
2.1635,1783717635.2729,1,1,1.0000,0.0000,1.42054,0.14184,-2.66691,1.00229,1.56176,0.11691,-0.13245,-0.45906,0.07206,,,,,,,,,,,,,,,,,,,,,,,,,,0,0,0,0,0
2.1695,1783717635.2790,1,1,1.0000,0.0000,1.42053,0.14185,-2.66692,1.00229,1.56176,0.11690,-0.13245,-0.45906,0.07205,,,,,,,,,,,,,,,,,,,,,,,,,,0,0,0,0,0
2.1702,1783717635.2797,1,1,1.0000,0.0000,1.42053,0.14185,-2.66692,1.00229,1.56176,0.11690,-0.13245,-0.45906,0.07205,,,,,,,,,,,,,,,,,,,,,,,,,,0,0,0,0,0
2.1764,1783717635.2859,1,1,1.0000,0.0000,1.42053,0.14185,-2.66692,1.00230,1.56177,0.11690,-0.13245,-0.45906,0.07205,,,,,,,,,,,,,,,,,,,,,,,,,,0,0,0,0,0
2.1869,1783717635.2964,1,1,1.0000,0.0000,1.42053,0.14185,-2.66692,1.00230,1.56177,0.11689,-0.13245,-0.45906,0.07205,,,,,,,,,,,,,,,,,,,,,,,,,,0,0,0,0,0
2.1976,1783717635.3071,1,1,1.0000,0.0000,1.42053,0.14187,-2.66695,1.00230,1.56177,0.11688,-0.13245,-0.45905,0.07205,,,,,,,,,,,,,,,,,,,,,,,,,,0,0,0,0,0
2.2087,1783717635.3182,1,1,1.0000,0.0000,1.42052,0.14188,-2.66697,1.00231,1.56178,0.11687,-0.13244,-0.45904,0.07205,,,,,,,,,,,,,,,,,,,,,,,,,,0,0,0,0,0
2.2156,1783717635.3251,1,1,1.0000,0.0000,1.42052,0.14190,-2.66698,1.00231,1.56178,0.11687,-0.13244,-0.45903,0.07205,,,,,,,,,,,,,,,,,,,,,,,,,,0,0,0,0,0
2.2266,1783717635.3361,1,1,1.0000,0.0000,1.42051,0.14195,-2.66703,1.00230,1.56178,0.11687,-0.13244,-0.45900,0.07204,,,,,,,,,,,,,,,,,,,,,,,,,,0,0,0,0,0
2.2368,1783717635.3463,1,1,1.0000,0.0000,1.42048,0.14207,-2.66713,1.00229,1.56179,0.11687,-0.13244,-0.45895,0.07204,,,,,,,,,,,,,,,,,,,,,,,,,,0,0,0,0,0
2.2458,1783717635.3553,1,1,1.0000,0.0000,1.42047,0.14212,-2.66717,1.00229,1.56179,0.11687,-0.13244,-0.45892,0.07204,,,,,,,,,,,,,,,,,,,,,,,,,,0,0,0,0,0
2.2462,1783717635.3557,1,1,1.0000,0.0000,1.42047,0.14212,-2.66717,1.00229,1.56179,0.11687,-0.13244,-0.45892,0.07204,,,,,,,,,,,,,,,,,,,,,,,,,,0,0,0,0,0
2.2549,1783717635.3643,1,1,1.0000,0.0000,1.42046,0.14217,-2.66720,1.00228,1.56179,0.11687,-0.13244,-0.45890,0.07204,,,,,,,,,,,,,,,,,,,,,,,,,,0,0,0,0,0
2.2645,1783717635.3740,1,1,1.0000,0.0000,1.42042,0.14238,-2.66736,1.00224,1.56179,0.11689,-0.13243,-0.45881,0.07205,,,,,,,,,,,,,,,,,,,,,,,,,,0,0,0,0,0
2.2758,1783717635.3853,1,1,1.0000,0.0000,1.42040,0.14247,-2.66742,1.00222,1.56179,0.11690,-0.13243,-0.45877,0.07205,,,,,,,,,,,,,,,,,,,,,,,,,,0,0,0,0,0
2.2761,1783717635.3855,1,1,1.0000,0.0000,1.42040,0.14247,-2.66742,1.00222,1.56179,0.11690,-0.13243,-0.45877,0.07205,,,,,,,,,,,,,,,,,,,,,,,,,,0,0,0,0,0
2.2910,1783717635.4004,1,1,1.0000,0.0000,1.42032,0.14289,-2.66772,1.00213,1.56179,0.11696,-0.13243,-0.45860,0.07206,,,,,,,,,,,,,,,,,,,,,,,,,,0,0,0,0,0
2.2972,1783717635.4067,1,1,1.0000,0.0000,1.42024,0.14330,-2.66802,1.00203,1.56179,0.11702,-0.13242,-0.45842,0.07206,,,,,,,,,,,,,,,,,,,,,,,,,,0,0,0,0,0
2.3095,1783717635.4190,1,1,1.0000,0.0000,1.42022,0.14343,-2.66811,1.00200,1.56179,0.11705,-0.13242,-0.45837,0.07207,,,,,,,,,,,,,,,,,,,,,,,,,,0,0,0,0,0
2.3158,1783717635.4253,1,1,1.0000,0.0000,1.42015,0.14380,-2.66838,1.00191,1.56179,0.11711,-0.13242,-0.45821,0.07207,,,,,,,,,,,,,,,,,,,,,,,,,,0,0,0,0,0
2.3264,1783717635.4359,1,1,1.0000,0.0000,1.42004,0.14435,-2.66877,1.00178,1.56179,0.11720,-0.13241,-0.45797,0.07207,,,,,,,,,,,,,,,,,,,,,,,,,,0,0,0,0,0
2.3268,1783717635.4362,1,1,1.0000,0.0000,1.42004,0.14435,-2.66877,1.00178,1.56179,0.11720,-0.13241,-0.45797,0.07207,,,,,,,,,,,,,,,,,,,,,,,,,,0,0,0,0,0
2.3371,1783717635.4466,1,1,1.0000,0.0000,1.41997,0.14472,-2.66904,1.00168,1.56179,0.11727,-0.13241,-0.45781,0.07208,,,,,,,,,,,,,,,,,,,,,,,,,,0,0,0,0,0
2.3485,1783717635.4579,1,1,1.0000,0.0000,1.41985,0.14534,-2.66949,1.00152,1.56180,0.11738,-0.13240,-0.45753,0.07208,,,,,,,,,,,,,,,,,,,,,,,,,,0,0,0,0,0
2.3556,1783717635.4651,1,1,1.0000,0.0000,1.41979,0.14568,-2.66974,1.00144,1.56180,0.11744,-0.13240,-0.45739,0.07208,,,,,,,,,,,,,,,,,,,,,,,,,,0,0,0,0,0
2.3560,1783717635.4655,1,1,1.0000,0.0000,1.41979,0.14568,-2.66974,1.00144,1.56180,0.11744,-0.13240,-0.45739,0.07208,,,,,,,,,,,,,,,,,,,,,,,,,,0,0,0,0,0
2.3967,1783717635.5062,1,1,1.0000,0.0000,1.41927,0.14841,-2.67171,1.00072,1.56180,0.11796,-0.13238,-0.45619,0.07209,,,,,,,,,,,,,,,,,,,,,,,,,,0,0,0,0,0
2.3970,1783717635.5065,1,1,1.0000,0.0000,1.41927,0.14841,-2.67171,1.00072,1.56180,0.11796,-0.13238,-0.45619,0.07209,,,,,,,,,,,,,,,,,,,,,,,,,,0,0,0,0,0
2.3974,1783717635.5069,1,1,1.0000,0.0000,1.41927,0.14841,-2.67171,1.00072,1.56180,0.11796,-0.13238,-0.45619,0.07209,,,,,,,,,,,,,,,,,,,,,,,,,,0,0,0,0,0
2.3998,1783717635.5093,1,1,1.0000,0.0000,1.41924,0.14852,-2.67180,1.00068,1.56180,0.11798,-0.13238,-0.45614,0.07209,,,,,,,,,,,,,,,,,,,,,,,,,,0,0,0,0,0
2.4002,1783717635.5097,1,1,1.0000,0.0000,1.41924,0.14852,-2.67180,1.00068,1.56180,0.11798,-0.13238,-0.45614,0.07209,,,,,,,,,,,,,,,,,,,,,,,,,,0,0,0,0,0
2.4100,1783717635.5195,1,1,1.0000,0.0000,1.41916,0.14895,-2.67211,1.00057,1.56180,0.11806,-0.13238,-0.45595,0.07210,,,,,,,,,,,,,,,,,,,,,,,,,,0,0,0,0,0
2.4185,1783717635.5280,1,1,1.0000,0.0000,1.41911,0.14924,-2.67232,1.00049,1.56180,0.11811,-0.13238,-0.45582,0.07210,,,,,,,,,,,,,,,,,,,,,,,,,,0,0,0,0,0
2.4261,1783717635.5356,1,1,1.0000,0.0000,1.41907,0.14940,-2.67243,1.00044,1.56180,0.11815,-0.13238,-0.45575,0.07210,,,,,,,,,,,,,,,,,,,,,,,,,,0,0,0,0,0
2.4264,1783717635.5359,1,1,1.0000,0.0000,1.41907,0.14940,-2.67243,1.00044,1.56180,0.11815,-0.13238,-0.45575,0.07210,,,,,,,,,,,,,,,,,,,,,,,,,,0,0,0,0,0
2.4559,1783717635.5654,1,1,1.0000,0.0000,1.41879,0.15087,-2.67349,1.00003,1.56179,0.11843,-0.13237,-0.45510,0.07210,,,,,,,,,,,,,,,,,,,,,,,,,,0,0,0,0,0
2.5225,1783717635.6320,1,1,1.0000,0.0000,1.41843,0.15273,-2.67479,0.99947,1.56179,0.11881,-0.13236,-0.45431,0.07211,,,,,,,,,,,,,,,,,,,,,,,,,,0,0,0,0,0
2.5229,1783717635.6323,1,1,1.0000,0.0000,1.41843,0.15273,-2.67479,0.99947,1.56179,0.11881,-0.13236,-0.45431,0.07211,,,,,,,,,,,,,,,,,,,,,,,,,,0,0,0,0,0
2.5234,1783717635.6329,1,1,1.0000,0.0000,1.41841,0.15284,-2.67486,0.99943,1.56179,0.11883,-0.13236,-0.45427,0.07212,,,,,,,,,,,,,,,,,,,,,,,,,,0,0,0,0,0
2.5237,1783717635.6332,1,1,1.0000,0.0000,1.41841,0.15284,-2.67486,0.99943,1.56179,0.11883,-0.13236,-0.45427,0.07212,,,,,,,,,,,,,,,,,,,,,,,,,,0,0,0,0,0
2.5240,1783717635.6334,1,1,1.0000,0.0000,1.41841,0.15284,-2.67486,0.99943,1.56179,0.11883,-0.13236,-0.45427,0.07212,,,,,,,,,,,,,,,,,,,,,,,,,,0,0,0,0,0
2.5277,1783717635.6372,1,1,1.0000,0.0000,1.41839,0.15294,-2.67492,0.99940,1.56179,0.11885,-0.13235,-0.45423,0.07212,,,,,,,,,,,,,,,,,,,,,,,,,,0,0,0,0,0
2.5360,1783717635.6454,1,1,1.0000,0.0000,1.41837,0.15306,-2.67498,0.99936,1.56179,0.11888,-0.13235,-0.45420,0.07214,,,,,,,,,,,,,,,,,,,,,,,,,,0,0,0,0,0
2.5469,1783717635.6564,1,1,1.0000,0.0000,1.41836,0.15308,-2.67497,0.99935,1.56179,0.11888,-0.13235,-0.45420,0.07214,,,,,,,,,,,,,,,,,,,,,,,,,,0,0,0,0,0
2.5566,1783717635.6661,1,1,1.0000,0.0000,1.41836,0.15308,-2.67497,0.99935,1.56179,0.11888,-0.13235,-0.45420,0.07214,,,,,,,,,,,,,,,,,,,,,,,,,,0,0,0,0,0
2.5695,1783717635.6790,1,1,1.0000,0.0000,1.41836,0.15308,-2.67497,0.99935,1.56179,0.11888,-0.13235,-0.45420,0.07214,,,,,,,,,,,,,,,,,,,,,,,,,,0,0,0,0,0
2.5990,1783717635.7085,1,1,1.0000,0.0000,1.41836,0.15308,-2.67497,0.99935,1.56179,0.11888,-0.13235,-0.45420,0.07214,,,,,,,,,,,,,,,,,,,,,,,,,,0,0,0,0,0
2.5996,1783717635.7091,1,1,1.0000,0.0000,1.41836,0.15308,-2.67497,0.99935,1.56179,0.11888,-0.13235,-0.45420,0.07214,,,,,,,,,,,,,,,,,,,,,,,,,,0,0,0,0,0
2.6170,1783717635.7265,1,1,1.0000,0.0000,1.41836,0.15308,-2.67497,0.99935,1.56179,0.11888,-0.13235,-0.45420,0.07214,,,,,,,,,,,,,,,,,,,,,,,,,,0,0,0,0,0
2.6175,1783717635.7270,1,1,1.0000,0.0000,1.41836,0.15308,-2.67497,0.99935,1.56179,0.11888,-0.13235,-0.45420,0.07214,,,,,,,,,,,,,,,,,,,,,,,,,,0,0,0,0,0
2.6180,1783717635.7275,1,1,1.0000,0.0000,1.41836,0.15308,-2.67497,0.99935,1.56179,0.11888,-0.13235,-0.45420,0.07214,,,,,,,,,,,,,,,,,,,,,,,,,,0,0,0,0,0
2.6260,1783717635.7355,1,1,1.0000,0.0000,1.41836,0.15308,-2.67497,0.99935,1.56179,0.11888,-0.13235,-0.45420,0.07214,,,,,,,,,,,,,,,,,,,,,,,,,,0,0,0,0,0
2.6265,1783717635.7360,1,1,1.0000,0.0000,1.41836,0.15308,-2.67497,0.99935,1.56179,0.11888,-0.13235,-0.45420,0.07214,,,,,,,,,,,,,,,,,,,,,,,,,,0,0,0,0,0
2.6368,1783717635.7463,1,1,1.0000,0.0000,1.41836,0.15308,-2.67497,0.99935,1.56179,0.11888,-0.13235,-0.45420,0.07214,,,,,,,,,,,,,,,,,,,,,,,,,,0,0,0,0,0
2.6445,1783717635.7539,1,1,1.0000,0.0000,1.41836,0.15308,-2.67497,0.99935,1.56179,0.11888,-0.13235,-0.45420,0.07214,,,,,,,,,,,,,,,,,,,,,,,,,,0,0,0,0,0
2.6548,1783717635.7643,1,1,1.0000,0.0000,1.41836,0.15308,-2.67497,0.99935,1.56179,0.11888,-0.13235,-0.45420,0.07214,,,,,,,,,,,,,,,,,,,,,,,,,,0,0,0,0,0
2.6697,1783717635.7792,1,1,1.0000,0.0000,1.41836,0.15308,-2.67497,0.99935,1.56179,0.11888,-0.13235,-0.45420,0.07214,,,,,,,,,,,,,,,,,,,,,,,,,,0,0,0,0,0
2.6750,1783717635.7845,1,1,1.0000,0.0000,1.41836,0.15308,-2.67497,0.99935,1.56179,0.11888,-0.13235,-0.45420,0.07214,,,,,,,,,,,,,,,,,,,,,,,,,,0,0,0,0,0
2.6755,1783717635.7850,1,1,1.0000,0.0000,1.41836,0.15308,-2.67497,0.99935,1.56179,0.11888,-0.13235,-0.45420,0.07214,,,,,,,,,,,,,,,,,,,,,,,,,,0,0,0,0,0
2.6871,1783717635.7965,1,1,1.0000,0.0000,1.41836,0.15308,-2.67497,0.99935,1.56179,0.11888,-0.13235,-0.45420,0.07214,,,,,,,,,,,,,,,,,,,,,,,,,,0,0,0,0,0
2.6999,1783717635.8094,1,1,1.0000,0.0000,1.41836,0.15308,-2.67497,0.99935,1.56179,0.11888,-0.13235,-0.45420,0.07214,,,,,,,,,,,,,,,,,,,,,,,,,,0,0,0,0,0
2.7075,1783717635.8170,1,1,1.0000,0.0000,1.41836,0.15308,-2.67497,0.99935,1.56179,0.11888,-0.13235,-0.45420,0.07214,,,,,,,,,,,,,,,,,,,,,,,,,,0,0,0,0,0
2.7171,1783717635.8265,1,1,1.0000,0.0000,1.41836,0.15308,-2.67497,0.99935,1.56179,0.11888,-0.13235,-0.45420,0.07214,,,,,,,,,,,,,,,,,,,,,,,,,,0,0,0,0,0
2.7295,1783717635.8390,1,1,1.0000,0.0000,1.41836,0.15308,-2.67497,0.99935,1.56179,0.11888,-0.13235,-0.45420,0.07214,,,,,,,,,,,,,,,,,,,,,,,,,,0,0,0,0,0
2.7358,1783717635.8453,1,1,1.0000,0.0000,1.41836,0.15308,-2.67497,0.99935,1.56179,0.11888,-0.13235,-0.45420,0.07214,,,,,,,,,,,,,,,,,,,,,,,,,,0,0,0,0,0
2.7361,1783717635.8456,1,1,1.0000,0.0000,1.41836,0.15308,-2.67497,0.99935,1.56179,0.11888,-0.13235,-0.45420,0.07214,,,,,,,,,,,,,,,,,,,,,,,,,,0,0,0,0,0
2.7453,1783717635.8548,1,1,1.0000,0.0000,1.41836,0.15308,-2.67497,0.99935,1.56179,0.11888,-0.13235,-0.45420,0.07214,,,,,,,,,,,,,,,,,,,,,,,,,,0,0,0,0,0
2.7550,1783717635.8645,1,1,1.0000,0.0000,1.41836,0.15308,-2.67497,0.99935,1.56179,0.11888,-0.13235,-0.45420,0.07214,,,,,,,,,,,,,,,,,,,,,,,,,,0,0,0,0,0
2.7718,1783717635.8813,1,1,1.0000,0.0000,1.41836,0.15308,-2.67497,0.99935,1.56179,0.11888,-0.13235,-0.45420,0.07214,,,,,,,,,,,,,,,,,,,,,,,,,,0,0,0,0,0
2.7722,1783717635.8817,1,1,1.0000,0.0000,1.41836,0.15308,-2.67497,0.99935,1.56179,0.11888,-0.13235,-0.45420,0.07214,,,,,,,,,,,,,,,,,,,,,,,,,,0,0,0,0,0
2.7767,1783717635.8862,1,1,1.0000,0.0000,1.41836,0.15308,-2.67497,0.99935,1.56179,0.11888,-0.13235,-0.45420,0.07214,,,,,,,,,,,,,,,,,,,,,,,,,,0,0,0,0,0
2.7844,1783717635.8939,1,1,1.0000,0.0000,1.41836,0.15308,-2.67497,0.99935,1.56179,0.11888,-0.13235,-0.45420,0.07214,,,,,,,,,,,,,,,,,,,,,,,,,,0,0,0,0,0
2.7966,1783717635.9061,1,1,1.0000,0.0000,1.41836,0.15308,-2.67497,0.99935,1.56179,0.11888,-0.13235,-0.45420,0.07214,,,,,,,,,,,,,,,,,,,,,,,,,,0,0,0,0,0
2.8071,1783717635.9165,1,1,1.0000,0.0000,1.41836,0.15308,-2.67497,0.99935,1.56179,0.11888,-0.13235,-0.45420,0.07214,,,,,,,,,,,,,,,,,,,,,,,,,,0,0,0,0,0
2.8202,1783717635.9297,1,1,1.0000,0.0000,1.41836,0.15308,-2.67497,0.99935,1.56179,0.11888,-0.13235,-0.45420,0.07214,,,,,,,,,,,,,,,,,,,,,,,,,,0,0,0,0,0
2.8279,1783717635.9374,1,1,1.0000,0.0000,1.41836,0.15308,-2.67497,0.99935,1.56179,0.11888,-0.13235,-0.45420,0.07214,,,,,,,,,,,,,,,,,,,,,,,,,,0,0,0,0,0
2.8282,1783717635.9377,1,1,1.0000,0.0000,1.41836,0.15308,-2.67497,0.99935,1.56179,0.11888,-0.13235,-0.45420,0.07214,,,,,,,,,,,,,,,,,,,,,,,,,,0,0,0,0,0
2.8345,1783717635.9440,1,1,1.0000,0.0000,1.41836,0.15308,-2.67497,0.99935,1.56179,0.11888,-0.13235,-0.45420,0.07214,,,,,,,,,,,,,,,,,,,,,,,,,,0,0,0,0,0
2.8348,1783717635.9443,1,1,1.0000,0.0000,1.41836,0.15308,-2.67497,0.99935,1.56179,0.11888,-0.13235,-0.45420,0.07214,,,,,,,,,,,,,,,,,,,,,,,,,,0,0,0,0,0
2.8448,1783717635.9543,1,1,1.0000,0.0000,1.41836,0.15308,-2.67497,0.99935,1.56179,0.11888,-0.13235,-0.45420,0.07214,,,,,,,,,,,,,,,,,,,,,,,,,,0,0,0,0,0
2.8557,1783717635.9652,1,1,1.0000,0.0000,1.41836,0.15308,-2.67497,0.99935,1.56179,0.11888,-0.13235,-0.45420,0.07214,,,,,,,,,,,,,,,,,,,,,,,,,,0,0,0,0,0
2.8560,1783717635.9655,1,1,1.0000,0.0000,1.41836,0.15308,-2.67497,0.99935,1.56179,0.11888,-0.13235,-0.45420,0.07214,,,,,,,,,,,,,,,,,,,,,,,,,,0,0,0,0,0
2.8690,1783717635.9785,1,1,1.0000,0.0000,1.41836,0.15308,-2.67497,0.99935,1.56179,0.11888,-0.13235,-0.45420,0.07214,,,,,,,,,,,,,,,,,,,,,,,,,,0,0,0,0,0
2.8743,1783717635.9838,1,1,1.0000,0.0000,1.41836,0.15308,-2.67497,0.99935,1.56179,0.11888,-0.13235,-0.45420,0.07214,,,,,,,,,,,,,,,,,,,,,,,,,,0,0,0,0,0
2.8746,1783717635.9841,1,1,1.0000,0.0000,1.41836,0.15308,-2.67497,0.99935,1.56179,0.11888,-0.13235,-0.45420,0.07214,,,,,,,,,,,,,,,,,,,,,,,,,,0,0,0,0,0
2.8854,1783717635.9949,1,1,1.0000,0.0000,1.41836,0.15308,-2.67497,0.99935,1.56179,0.11888,-0.13235,-0.45420,0.07214,,,,,,,,,,,,,,,,,,,,,,,,,,0,0,0,0,0
2.8984,1783717636.0079,1,1,1.0000,0.0000,1.41836,0.15308,-2.67497,0.99935,1.56179,0.11888,-0.13235,-0.45420,0.07214,,,,,,,,,,,,,,,,,,,,,,,,,,0,0,0,0,0
2.9088,1783717636.0183,1,1,1.0000,0.0000,1.41836,0.15308,-2.67497,0.99935,1.56179,0.11888,-0.13235,-0.45420,0.07214,,,,,,,,,,,,,,,,,,,,,,,,,,0,0,0,0,0
2.9239,1783717636.0334,1,1,1.0000,0.0000,1.41836,0.15308,-2.67497,0.99935,1.56179,0.11888,-0.13235,-0.45420,0.07214,,,,,,,,,,,,,,,,,,,,,,,,,,0,0,0,0,0
2.9243,1783717636.0338,1,1,1.0000,0.0000,1.41836,0.15308,-2.67497,0.99935,1.56179,0.11888,-0.13235,-0.45420,0.07214,,,,,,,,,,,,,,,,,,,,,,,,,,0,0,0,0,0
2.9345,1783717636.0440,1,1,1.0000,0.0000,1.41836,0.15308,-2.67497,0.99935,1.56179,0.11888,-0.13235,-0.45420,0.07214,,,,,,,,,,,,,,,,,,,,,,,,,,0,0,0,0,0
2.9459,1783717636.0554,1,1,1.0000,0.0000,1.41837,0.15306,-2.67496,0.99935,1.56179,0.11889,-0.13235,-0.45420,0.07214,,,,,,,,,,,,,,,,,,,,,,,,,,0,0,0,0,0
2.9558,1783717636.0653,1,1,1.0000,0.0000,1.41837,0.15304,-2.67495,0.99935,1.56179,0.11889,-0.13235,-0.45421,0.07214,,,,,,,,,,,,,,,,,,,,,,,,,,0,0,0,0,0
2.9560,1783717636.0655,1,1,1.0000,0.0000,1.41837,0.15304,-2.67495,0.99935,1.56179,0.11889,-0.13235,-0.45421,0.07214,,,,,,,,,,,,,,,,,,,,,,,,,,0,0,0,0,0
2.9646,1783717636.0741,1,1,1.0000,0.0000,1.41838,0.15301,-2.67493,0.99935,1.56179,0.11890,-0.13235,-0.45422,0.07214,,,,,,,,,,,,,,,,,,,,,,,,,,0,0,0,0,0
2.9776,1783717636.0871,1,1,1.0000,0.0000,1.41840,0.15290,-2.67485,0.99936,1.56179,0.11890,-0.13236,-0.45426,0.07213,,,,,,,,,,,,,,,,,,,,,,,,,,0,0,0,0,0
2.9996,1783717636.1090,1,1,1.0000,0.0000,1.41844,0.15266,-2.67468,0.99940,1.56179,0.11889,-0.13236,-0.45436,0.07213,,,,,,,,,,,,,,,,,,,,,,,,,,0,0,0,0,0
3.0000,1783717636.1094,1,1,1.0000,0.0000,1.41844,0.15266,-2.67468,0.99940,1.56179,0.11889,-0.13236,-0.45436,0.07213,,,,,,,,,,,,,,,,,,,,,,,,,,0,0,0,0,0
3.0068,1783717636.1163,1,1,1.0000,0.0000,1.41846,0.15258,-2.67463,0.99942,1.56179,0.11888,-0.13236,-0.45439,0.07212,,,,,,,,,,,,,,,,,,,,,,,,,,0,0,0,0,0
3.0374,1783717636.1468,1,1,1.0000,0.0000,1.41860,0.15183,-2.67411,0.99958,1.56179,0.11880,-0.13237,-0.45469,0.07210,,,,,,,,,,,,,,,,,,,,,,,,,,0,0,0,0,0
3.0377,1783717636.1472,1,1,1.0000,0.0000,1.41860,0.15183,-2.67411,0.99958,1.56179,0.11880,-0.13237,-0.45469,0.07210,,,,,,,,,,,,,,,,,,,,,,,,,,0,0,0,0,0
3.0470,1783717636.1565,1,1,1.0000,0.0000,1.41863,0.15172,-2.67403,0.99961,1.56179,0.11878,-0.13237,-0.45474,0.07210,,,,,,,,,,,,,,,,,,,,,,,,,,0,0,0,0,0
3.0572,1783717636.1667,1,1,1.0000,0.0000,1.41870,0.15132,-2.67375,0.99971,1.56179,0.11871,-0.13238,-0.45491,0.07210,,,,,,,,,,,,,,,,,,,,,,,,,,0,0,0,0,0
3.0688,1783717636.1783,1,1,1.0000,0.0000,1.41889,0.15036,-2.67305,0.99996,1.56179,0.11854,-0.13238,-0.45533,0.07209,,,,,,,,,,,,,,,,,,,,,,,,,,0,0,0,0,0
3.0790,1783717636.1885,1,1,1.0000,0.0000,1.41904,0.14955,-2.67247,1.00017,1.56179,0.11839,-0.13239,-0.45568,0.07209,,,,,,,,,,,,,,,,,,,,,,,,,,0,0,0,0,0
3.0798,1783717636.1893,1,1,1.0000,0.0000,1.41912,0.14914,-2.67217,1.00028,1.56179,0.11832,-0.13239,-0.45586,0.07209,,,,,,,,,,,,,,,,,,,,,,,,,,0,0,0,0,0
3.0877,1783717636.1972,1,1,1.0000,0.0000,1.41920,0.14873,-2.67188,1.00039,1.56179,0.11825,-0.13240,-0.45604,0.07209,,,,,,,,,,,,,,,,,,,,,,,,,,0,0,0,0,0
3.0881,1783717636.1975,1,1,1.0000,0.0000,1.41920,0.14873,-2.67188,1.00039,1.56179,0.11825,-0.13240,-0.45604,0.07209,,,,,,,,,,,,,,,,,,,,,,,,,,0,0,0,0,0
3.0962,1783717636.2057,1,1,1.0000,0.0000,1.41922,0.14861,-2.67179,1.00042,1.56179,0.11822,-0.13240,-0.45609,0.07208,,,,,,,,,,,,,,,,,,,,,,,,,,0,0,0,0,0
3.0965,1783717636.2059,1,1,1.0000,0.0000,1.41922,0.14861,-2.67179,1.00042,1.56179,0.11822,-0.13240,-0.45609,0.07208,,,,,,,,,,,,,,,,,,,,,,,,,,0,0,0,0,0
3.1104,1783717636.2199,1,1,1.0000,0.0000,1.41933,0.14802,-2.67136,1.00058,1.56179,0.11811,-0.13240,-0.45635,0.07208,,,,,,,,,,,,,,,,,,,,,,,,,,0,0,0,0,0
3.1170,1783717636.2265,1,1,1.0000,0.0000,1.41945,0.14741,-2.67093,1.00073,1.56179,0.11800,-0.13240,-0.45662,0.07208,,,,,,,,,,,,,,,,,,,,,,,,,,0,0,0,0,0
3.1265,1783717636.2360,1,1,1.0000,0.0000,1.41959,0.14670,-2.67041,1.00092,1.56179,0.11787,-0.13241,-0.45693,0.07208,,,,,,,,,,,,,,,,,,,,,,,,,,0,0,0,0,0
3.1268,1783717636.2363,1,1,1.0000,0.0000,1.41959,0.14670,-2.67041,1.00092,1.56179,0.11787,-0.13241,-0.45693,0.07208,,,,,,,,,,,,,,,,,,,,,,,,,,0,0,0,0,0
3.1341,1783717636.2436,1,1,1.0000,0.0000,1.41974,0.14591,-2.66984,1.00113,1.56179,0.11772,-0.13241,-0.45728,0.07207,,,,,,,,,,,,,,,,,,,,,,,,,,0,0,0,0,0
3.1476,1783717636.2571,1,1,1.0000,0.0000,1.42005,0.14429,-2.66866,1.00156,1.56179,0.11741,-0.13242,-0.45799,0.07207,,,,,,,,,,,,,,,,,,,,,,,,,,0,0,0,0,0
3.1545,1783717636.2639,1,1,1.0000,0.0000,1.42005,0.14429,-2.66866,1.00156,1.56179,0.11741,-0.13242,-0.45799,0.07207,,,,,,,,,,,,,,,,,,,,,,,,,,0,0,0,0,0
3.1646,1783717636.2741,1,1,1.0000,0.0000,1.42008,0.14414,-2.66855,1.00160,1.56179,0.11738,-0.13242,-0.45806,0.07207,,,,,,,,,,,,,,,,,,,,,,,,,,0,0,0,0,0
3.1765,1783717636.2860,1,1,1.0000,0.0000,1.42009,0.14404,-2.66848,1.00163,1.56179,0.11736,-0.13242,-0.45810,0.07207,,,,,,,,,,,,,,,,,,,,,,,,,,0,0,0,0,0
3.1862,1783717636.2957,1,1,1.0000,0.0000,1.42014,0.14378,-2.66829,1.00170,1.56179,0.11731,-0.13243,-0.45822,0.07207,,,,,,,,,,,,,,,,,,,,,,,,,,0,0,0,0,0
3.2165,1783717636.3260,1,1,1.0000,0.0000,1.42034,0.14275,-2.66753,1.00199,1.56179,0.11711,-0.13243,-0.45868,0.07207,,,,,,,,,,,,,,,,,,,,,,,,,,0,0,0,0,0
3.2169,1783717636.3264,1,1,1.0000,0.0000,1.42034,0.14275,-2.66753,1.00199,1.56179,0.11711,-0.13243,-0.45868,0.07207,,,,,,,,,,,,,,,,,,,,,,,,,,0,0,0,0,0
3.2199,1783717636.3294,1,1,1.0000,0.0000,1.42035,0.14270,-2.66750,1.00200,1.56179,0.11710,-0.13243,-0.45870,0.07207,,,,,,,,,,,,,,,,,,,,,,,,,,0,0,0,0,0
3.2204,1783717636.3298,1,1,1.0000,0.0000,1.42035,0.14270,-2.66750,1.00200,1.56179,0.11710,-0.13243,-0.45870,0.07207,,,,,,,,,,,,,,,,,,,,,,,,,,0,0,0,0,0
3.2290,1783717636.3385,1,1,1.0000,0.0000,1.42038,0.14257,-2.66740,1.00205,1.56179,0.11707,-0.13243,-0.45876,0.07207,,,,,,,,,,,,,,,,,,,,,,,,,,0,0,0,0,0
3.2397,1783717636.3492,1,1,1.0000,0.0000,1.42043,0.14230,-2.66722,1.00213,1.56179,0.11701,-0.13243,-0.45887,0.07206,,,,,,,,,,,,,,,,,,,,,,,,,,0,0,0,0,0
3.2401,1783717636.3496,1,1,1.0000,0.0000,1.42043,0.14230,-2.66722,1.00213,1.56179,0.11701,-0.13243,-0.45887,0.07206,,,,,,,,,,,,,,,,,,,,,,,,,,0,0,0,0,0
3.2472,1783717636.3567,1,1,1.0000,0.0000,1.42045,0.14221,-2.66716,1.00215,1.56179,0.11699,-0.13244,-0.45891,0.07206,,,,,,,,,,,,,,,,,,,,,,,,,,0,0,0,0,0
3.2558,1783717636.3653,1,1,1.0000,0.0000,1.42050,0.14197,-2.66699,1.00223,1.56179,0.11694,-0.13244,-0.45901,0.07206,,,,,,,,,,,,,,,,,,,,,,,,,,0,0,0,0,0
3.2675,1783717636.3770,1,1,1.0000,0.0000,1.42052,0.14183,-2.66691,1.00228,1.56180,0.11691,-0.13244,-0.45906,0.07205,,,,,,,,,,,,,,,,,,,,,,,,,,0,0,0,0,0
3.2745,1783717636.3840,1,1,1.0000,0.0000,1.42052,0.14183,-2.66691,1.00228,1.56180,0.11691,-0.13244,-0.45906,0.07205,,,,,,,,,,,,,,,,,,,,,,,,,,0,0,0,0,0
3.2918,1783717636.4013,1,1,1.0000,0.0000,1.42052,0.14183,-2.66691,1.00228,1.56180,0.11691,-0.13244,-0.45906,0.07205,,,,,,,,,,,,,,,,,,,,,,,,,,0,0,0,0,0
3.2948,1783717636.4043,1,1,1.0000,0.0000,1.42052,0.14183,-2.66691,1.00228,1.56180,0.11691,-0.13244,-0.45906,0.07205,,,,,,,,,,,,,,,,,,,,,,,,,,0,0,0,0,0
3.3063,1783717636.4158,1,1,1.0000,0.0000,1.42052,0.14183,-2.66691,1.00228,1.56180,0.11691,-0.13244,-0.45906,0.07205,,,,,,,,,,,,,,,,,,,,,,,,,,0,0,0,0,0
3.3189,1783717636.4284,1,1,1.0000,0.0000,1.42052,0.14183,-2.66691,1.00228,1.56180,0.11691,-0.13244,-0.45906,0.07205,,,,,,,,,,,,,,,,,,,,,,,,,,0,0,0,0,0
3.3193,1783717636.4287,1,1,1.0000,0.0000,1.42052,0.14183,-2.66691,1.00228,1.56180,0.11691,-0.13244,-0.45906,0.07205,,,,,,,,,,,,,,,,,,,,,,,,,,0,0,0,0,0
3.3323,1783717636.4418,1,1,1.0000,0.0000,1.42052,0.14183,-2.66691,1.00228,1.56180,0.11691,-0.13244,-0.45906,0.07205,,,,,,,,,,,,,,,,,,,,,,,,,,0,0,0,0,0
3.3386,1783717636.4480,1,1,1.0000,0.0000,1.42052,0.14183,-2.66691,1.00228,1.56180,0.11691,-0.13244,-0.45906,0.07205,,,,,,,,,,,,,,,,,,,,,,,,,,0,0,0,0,0
3.3388,1783717636.4483,1,1,1.0000,0.0000,1.42052,0.14183,-2.66691,1.00228,1.56180,0.11691,-0.13244,-0.45906,0.07205,,,,,,,,,,,,,,,,,,,,,,,,,,0,0,0,0,0
3.3459,1783717636.4554,1,1,1.0000,0.0000,1.42052,0.14183,-2.66691,1.00228,1.56180,0.11691,-0.13244,-0.45906,0.07205,,,,,,,,,,,,,,,,,,,,,,,,,,0,0,0,0,0
3.3462,1783717636.4557,1,1,1.0000,0.0000,1.42052,0.14183,-2.66691,1.00228,1.56180,0.11691,-0.13244,-0.45906,0.07205,,,,,,,,,,,,,,,,,,,,,,,,,,0,0,0,0,0
3.3546,1783717636.4640,1,1,1.0000,0.0000,1.42052,0.14183,-2.66691,1.00228,1.56180,0.11691,-0.13244,-0.45906,0.07205,,,,,,,,,,,,,,,,,,,,,,,,,,0,0,0,0,0
3.3698,1783717636.4793,1,1,1.0000,0.0000,1.42052,0.14183,-2.66691,1.00228,1.56180,0.11691,-0.13244,-0.45906,0.07205,,,,,,,,,,,,,,,,,,,,,,,,,,0,0,0,0,0
3.3768,1783717636.4863,1,1,1.0000,0.0000,1.42052,0.14183,-2.66691,1.00228,1.56180,0.11691,-0.13244,-0.45906,0.07205,,,,,,,,,,,,,,,,,,,,,,,,,,0,0,0,0,0
3.3885,1783717636.4980,1,1,1.0000,0.0000,1.42052,0.14183,-2.66691,1.00228,1.56180,0.11691,-0.13244,-0.45906,0.07205,,,,,,,,,,,,,,,,,,,,,,,,,,0,0,0,0,0
3.3976,1783717636.5071,1,1,1.0000,0.0000,1.42052,0.14183,-2.66691,1.00228,1.56180,0.11691,-0.13244,-0.45906,0.07205,,,,,,,,,,,,,,,,,,,,,,,,,,0,0,0,0,0
3.4064,1783717636.5159,1,1,1.0000,0.0000,1.42052,0.14183,-2.66691,1.00228,1.56180,0.11691,-0.13244,-0.45906,0.07205,,,,,,,,,,,,,,,,,,,,,,,,,,0,0,0,0,0
3.4185,1783717636.5280,1,1,1.0000,0.0000,1.42052,0.14183,-2.66691,1.00228,1.56180,0.11691,-0.13244,-0.45906,0.07205,,,,,,,,,,,,,,,,,,,,,,,,,,0,0,0,0,0
3.4353,1783717636.5448,1,1,1.0000,0.0000,1.42052,0.14183,-2.66691,1.00228,1.56180,0.11691,-0.13244,-0.45906,0.07205,,,,,,,,,,,,,,,,,,,,,,,,,,0,0,0,0,0
3.4358,1783717636.5453,1,1,1.0000,0.0000,1.42052,0.14183,-2.66691,1.00228,1.56180,0.11691,-0.13244,-0.45906,0.07205,,,,,,,,,,,,,,,,,,,,,,,,,,0,0,0,0,0
3.4462,1783717636.5557,1,1,1.0000,0.0000,1.42052,0.14183,-2.66691,1.00228,1.56180,0.11691,-0.13244,-0.45906,0.07205,,,,,,,,,,,,,,,,,,,,,,,,,,0,0,0,0,0
3.4565,1783717636.5660,1,1,1.0000,0.0000,1.42052,0.14183,-2.66691,1.00228,1.56180,0.11691,-0.13244,-0.45906,0.07205,,,,,,,,,,,,,,,,,,,,,,,,,,0,0,0,0,0
3.4649,1783717636.5744,1,1,1.0000,0.0000,1.42052,0.14183,-2.66691,1.00228,1.56180,0.11691,-0.13244,-0.45906,0.07205,,,,,,,,,,,,,,,,,,,,,,,,,,0,0,0,0,0
3.4755,1783717636.5850,1,1,1.0000,0.0000,1.42052,0.14183,-2.66691,1.00228,1.56180,0.11691,-0.13244,-0.45906,0.07205,,,,,,,,,,,,,,,,,,,,,,,,,,0,0,0,0,0
3.4887,1783717636.5982,1,1,1.0000,0.0000,1.42052,0.14183,-2.66691,1.00228,1.56180,0.11691,-0.13244,-0.45906,0.07205,,,,,,,,,,,,,,,,,,,,,,,,,,0,0,0,0,0
3.4948,1783717636.6043,1,1,1.0000,0.0000,1.42052,0.14183,-2.66691,1.00228,1.56180,0.11691,-0.13244,-0.45906,0.07205,,,,,,,,,,,,,,,,,,,,,,,,,,0,0,0,0,0
3.4955,1783717636.6050,1,1,1.0000,0.0000,1.42052,0.14183,-2.66691,1.00228,1.56180,0.11691,-0.13244,-0.45906,0.07205,,,,,,,,,,,,,,,,,,,,,,,,,,0,0,0,0,0
3.5202,1783717636.6297,1,1,1.0000,0.0000,1.42052,0.14183,-2.66691,1.00228,1.56180,0.11691,-0.13244,-0.45906,0.07205,,,,,,,,,,,,,,,,,,,,,,,,,,0,0,0,0,0
3.5206,1783717636.6301,1,1,1.0000,0.0000,1.42052,0.14183,-2.66691,1.00228,1.56180,0.11691,-0.13244,-0.45906,0.07205,,,,,,,,,,,,,,,,,,,,,,,,,,0,0,0,0,0
3.5216,1783717636.6311,1,1,1.0000,0.0000,1.42052,0.14183,-2.66691,1.00228,1.56180,0.11691,-0.13244,-0.45906,0.07205,,,,,,,,,,,,,,,,,,,,,,,,,,0,0,0,0,0
3.5220,1783717636.6315,1,1,1.0000,0.0000,1.42052,0.14183,-2.66691,1.00228,1.56180,0.11691,-0.13244,-0.45906,0.07205,,,,,,,,,,,,,,,,,,,,,,,,,,0,0,0,0,0
3.5385,1783717636.6480,1,1,1.0000,0.0000,1.42052,0.14183,-2.66691,1.00228,1.56180,0.11691,-0.13244,-0.45906,0.07205,,,,,,,,,,,,,,,,,,,,,,,,,,0,0,0,0,0
3.5390,1783717636.6485,1,1,1.0000,0.0000,1.42052,0.14183,-2.66691,1.00228,1.56180,0.11691,-0.13244,-0.45906,0.07205,,,,,,,,,,,,,,,,,,,,,,,,,,0,0,0,0,0
3.5491,1783717636.6585,1,1,1.0000,0.0000,1.42052,0.14183,-2.66691,1.00228,1.56180,0.11691,-0.13244,-0.45906,0.07205,,,,,,,,,,,,,,,,,,,,,,,,,,0,0,0,0,0
3.5586,1783717636.6681,1,1,1.0000,0.0000,1.42052,0.14183,-2.66691,1.00228,1.56180,0.11691,-0.13244,-0.45906,0.07205,,,,,,,,,,,,,,,,,,,,,,,,,,0,0,0,0,0
3.5589,1783717636.6684,1,1,1.0000,0.0000,1.42052,0.14183,-2.66691,1.00228,1.56180,0.11691,-0.13244,-0.45906,0.07205,,,,,,,,,,,,,,,,,,,,,,,,,,0,0,0,0,0
3.5644,1783717636.6739,1,1,1.0000,0.0000,1.42052,0.14183,-2.66691,1.00228,1.56180,0.11691,-0.13244,-0.45906,0.07205,,,,,,,,,,,,,,,,,,,,,,,,,,0,0,0,0,0
3.5752,1783717636.6847,1,1,1.0000,0.0000,1.42052,0.14183,-2.66691,1.00228,1.56180,0.11691,-0.13244,-0.45906,0.07205,,,,,,,,,,,,,,,,,,,,,,,,,,0,0,0,0,0
3.6080,1783717636.7175,1,1,1.0000,0.0000,1.42052,0.14183,-2.66691,1.00228,1.56180,0.11691,-0.13244,-0.45906,0.07205,,,,,,,,,,,,,,,,,,,,,,,,,,0,0,0,0,0
3.6084,1783717636.7179,1,1,1.0000,0.0000,1.42052,0.14183,-2.66691,1.00228,1.56180,0.11691,-0.13244,-0.45906,0.07205,,,,,,,,,,,,,,,,,,,,,,,,,,0,0,0,0,0
3.6098,1783717636.7193,1,1,1.0000,0.0000,1.42052,0.14183,-2.66691,1.00228,1.56180,0.11691,-0.13244,-0.45906,0.07205,,,,,,,,,,,,,,,,,,,,,,,,,,0,0,0,0,0
3.6101,1783717636.7196,1,1,1.0000,0.0000,1.42052,0.14183,-2.66691,1.00228,1.56180,0.11691,-0.13244,-0.45906,0.07205,,,,,,,,,,,,,,,,,,,,,,,,,,0,0,0,0,0
3.6259,1783717636.7354,1,1,1.0000,0.0000,1.42052,0.14183,-2.66691,1.00228,1.56180,0.11691,-0.13244,-0.45906,0.07205,,,,,,,,,,,,,,,,,,,,,,,,,,0,0,0,0,0
3.6262,1783717636.7357,1,1,1.0000,0.0000,1.42052,0.14183,-2.66691,1.00228,1.56180,0.11691,-0.13244,-0.45906,0.07205,,,,,,,,,,,,,,,,,,,,,,,,,,0,0,0,0,0
3.6270,1783717636.7365,1,1,1.0000,0.0000,1.42052,0.14183,-2.66691,1.00228,1.56180,0.11691,-0.13244,-0.45906,0.07205,,,,,,,,,,,,,,,,,,,,,,,,,,0,0,0,0,0
3.6273,1783717636.7368,1,1,1.0000,0.0000,1.42052,0.14183,-2.66691,1.00228,1.56180,0.11691,-0.13244,-0.45906,0.07205,,,,,,,,,,,,,,,,,,,,,,,,,,0,0,0,0,0
3.6392,1783717636.7487,1,1,1.0000,0.0000,1.42052,0.14183,-2.66691,1.00228,1.56180,0.11691,-0.13244,-0.45906,0.07205,,,,,,,,,,,,,,,,,,,,,,,,,,0,0,0,0,0
3.6456,1783717636.7550,1,1,1.0000,0.0000,1.42052,0.14183,-2.66691,1.00228,1.56180,0.11691,-0.13244,-0.45906,0.07205,,,,,,,,,,,,,,,,,,,,,,,,,,0,0,0,0,0
3.6556,1783717636.7651,1,1,1.0000,0.0000,1.42052,0.14183,-2.66691,1.00228,1.56180,0.11691,-0.13244,-0.45906,0.07205,,,,,,,,,,,,,,,,,,,,,,,,,,0,0,0,0,0
3.6658,1783717636.7753,1,1,1.0000,0.0000,1.42052,0.14183,-2.66691,1.00228,1.56180,0.11691,-0.13244,-0.45906,0.07205,,,,,,,,,,,,,,,,,,,,,,,,,,0,0,0,0,0
3.6762,1783717636.7857,1,1,1.0000,0.0000,1.42052,0.14183,-2.66691,1.00228,1.56180,0.11691,-0.13244,-0.45906,0.07205,,,,,,,,,,,,,,,,,,,,,,,,,,0,0,0,0,0
3.6858,1783717636.7953,1,1,1.0000,0.0000,1.42052,0.14183,-2.66691,1.00228,1.56180,0.11690,-0.13244,-0.45906,0.07205,,,,,,,,,,,,,,,,,,,,,,,,,,0,0,0,0,0
3.6977,1783717636.8071,1,1,1.0000,0.0000,1.42052,0.14184,-2.66691,1.00230,1.56180,0.11689,-0.13244,-0.45907,0.07205,,,,,,,,,,,,,,,,,,,,,,,,,,0,0,0,0,0
3.7103,1783717636.8198,1,1,1.0000,0.0000,1.42052,0.14184,-2.66691,1.00232,1.56180,0.11687,-0.13243,-0.45908,0.07206,,,,,,,,,,,,,,,,,,,,,,,,,,0,0,0,0,0
3.7175,1783717636.8270,1,1,1.0000,0.0000,1.42052,0.14184,-2.66691,1.00232,1.56180,0.11687,-0.13243,-0.45908,0.07206,,,,,,,,,,,,,,,,,,,,,,,,,,0,0,0,0,0
3.7179,1783717636.8274,1,1,1.0000,0.0000,1.42052,0.14184,-2.66691,1.00232,1.56180,0.11687,-0.13243,-0.45908,0.07206,,,,,,,,,,,,,,,,,,,,,,,,,,0,0,0,0,0
3.7270,1783717636.8365,1,1,1.0000,0.0000,1.42052,0.14183,-2.66691,1.00234,1.56180,0.11687,-0.13243,-0.45908,0.07206,,,,,,,,,,,,,,,,,,,,,,,,,,0,0,0,0,0
3.7422,1783717636.8516,1,1,1.0000,0.0000,1.42052,0.14177,-2.66695,1.00242,1.56180,0.11686,-0.13243,-0.45907,0.07203,,,,,,,,,,,,,,,,,,,,,,,,,,0,0,0,0,0
3.7438,1783717636.8533,1,1,1.0000,0.0000,1.42052,0.14177,-2.66695,1.00242,1.56180,0.11686,-0.13243,-0.45907,0.07203,,,,,,,,,,,,,,,,,,,,,,,,,,0,0,0,0,0
3.7560,1783717636.8654,1,1,1.0000,0.0000,1.42052,0.14171,-2.66697,1.00249,1.56180,0.11686,-0.13243,-0.45906,0.07201,,,,,,,,,,,,,,,,,,,,,,,,,,0,0,0,0,0
3.7649,1783717636.8744,1,1,1.0000,0.0000,1.42052,0.14162,-2.66700,1.00261,1.56181,0.11686,-0.13243,-0.45906,0.07197,,,,,,,,,,,,,,,,,,,,,,,,,,0,0,0,0,0
3.7764,1783717636.8859,1,1,1.0000,0.0000,1.42052,0.14157,-2.66702,1.00267,1.56181,0.11685,-0.13243,-0.45906,0.07195,,,,,,,,,,,,,,,,,,,,,,,,,,0,0,0,0,0
3.7858,1783717636.8953,1,1,1.0000,0.0000,1.42052,0.14142,-2.66706,1.00285,1.56181,0.11685,-0.13243,-0.45906,0.07190,,,,,,,,,,,,,,,,,,,,,,,,,,0,0,0,0,0
3.7958,1783717636.9053,1,1,1.0000,0.0000,1.42052,0.14109,-2.66715,1.00327,1.56181,0.11685,-0.13243,-0.45906,0.07179,,,,,,,,,,,,,,,,,,,,,,,,,,0,0,0,0,0
3.7963,1783717636.9058,1,1,1.0000,0.0000,1.42052,0.14109,-2.66715,1.00327,1.56181,0.11685,-0.13243,-0.45906,0.07179,,,,,,,,,,,,,,,,,,,,,,,,,,0,0,0,0,0
3.8056,1783717636.9151,1,1,1.0000,0.0000,1.42052,0.14107,-2.66716,1.00329,1.56181,0.11685,-0.13243,-0.45906,0.07178,,,,,,,,,,,,,,,,,,,,,,,,,,0,0,0,0,0
3.8060,1783717636.9154,1,1,1.0000,0.0000,1.42052,0.14107,-2.66716,1.00329,1.56181,0.11685,-0.13243,-0.45906,0.07178,,,,,,,,,,,,,,,,,,,,,,,,,,0,0,0,0,0
3.8145,1783717636.9240,1,1,1.0000,0.0000,1.42052,0.14093,-2.66719,1.00347,1.56181,0.11684,-0.13243,-0.45906,0.07174,,,,,,,,,,,,,,,,,,,,,,,,,,0,0,0,0,0
3.8269,1783717636.9364,1,1,1.0000,0.0000,1.42052,0.14051,-2.66729,1.00398,1.56181,0.11684,-0.13243,-0.45907,0.07160,,,,,,,,,,,,,,,,,,,,,,,,,,0,0,0,0,0
3.8351,1783717636.9446,1,1,1.0000,0.0000,1.42052,0.14034,-2.66734,1.00420,1.56181,0.11684,-0.13243,-0.45907,0.07155,,,,,,,,,,,,,,,,,,,,,,,,,,0,0,0,0,0
3.8356,1783717636.9451,1,1,1.0000,0.0000,1.42052,0.14031,-2.66734,1.00424,1.56181,0.11684,-0.13243,-0.45907,0.07154,,,,,,,,,,,,,,,,,,,,,,,,,,0,0,0,0,0
3.8441,1783717636.9535,1,1,1.0000,0.0000,1.42052,0.14012,-2.66739,1.00448,1.56181,0.11683,-0.13243,-0.45908,0.07148,,,,,,,,,,,,,,,,,,,,,,,,,,0,0,0,0,0
3.8444,1783717636.9539,1,1,1.0000,0.0000,1.42052,0.14012,-2.66739,1.00448,1.56181,0.11683,-0.13243,-0.45908,0.07148,,,,,,,,,,,,,,,,,,,,,,,,,,0,0,0,0,0
3.8569,1783717636.9664,1,1,1.0000,0.0000,1.42052,0.13977,-2.66747,1.00491,1.56181,0.11683,-0.13243,-0.45909,0.07137,,,,,,,,,,,,,,,,,,,,,,,,,,0,0,0,0,0
3.8693,1783717636.9788,1,1,1.0000,0.0000,1.42052,0.13949,-2.66754,1.00526,1.56181,0.11683,-0.13243,-0.45909,0.07127,,,,,,,,,,,,,,,,,,,,,,,,,,0,0,0,0,0
3.9372,1783717637.0466,1,1,1.0000,0.0000,1.42053,0.13709,-2.66813,1.00826,1.56182,0.11680,-0.13242,-0.45915,0.07051,,,,,,,,,,,,,,,,,,,,,,,,,,0,0,0,0,0
3.9377,1783717637.0471,1,1,1.0000,0.0000,1.42053,0.13709,-2.66813,1.00826,1.56182,0.11680,-0.13242,-0.45915,0.07051,,,,,,,,,,,,,,,,,,,,,,,,,,0,0,0,0,0
3.9380,1783717637.0475,1,1,1.0000,0.0000,1.42053,0.13709,-2.66813,1.00826,1.56182,0.11680,-0.13242,-0.45915,0.07051,,,,,,,,,,,,,,,,,,,,,,,,,,0,0,0,0,0
3.9407,1783717637.0502,1,1,1.0000,0.0000,1.42053,0.13699,-2.66815,1.00838,1.56182,0.11680,-0.13242,-0.45915,0.07047,,,,,,,,,,,,,,,,,,,,,,,,,,0,0,0,0,0
3.9410,1783717637.0505,1,1,1.0000,0.0000,1.42053,0.13699,-2.66815,1.00838,1.56182,0.11680,-0.13242,-0.45915,0.07047,,,,,,,,,,,,,,,,,,,,,,,,,,0,0,0,0,0
3.9414,1783717637.0509,1,1,1.0000,0.0000,1.42053,0.13699,-2.66815,1.00838,1.56182,0.11680,-0.13242,-0.45915,0.07047,,,,,,,,,,,,,,,,,,,,,,,,,,0,0,0,0,0
3.9519,1783717637.0614,1,1,1.0000,0.0000,1.42053,0.13686,-2.66818,1.00855,1.56182,0.11680,-0.13242,-0.45916,0.07043,,,,,,,,,,,,,,,,,,,,,,,,,,0,0,0,0,0
3.9549,1783717637.0644,1,1,1.0000,0.0000,1.42053,0.13686,-2.66818,1.00855,1.56182,0.11680,-0.13242,-0.45916,0.07043,,,,,,,,,,,,,,,,,,,,,,,,,,0,0,0,0,0
3.9553,1783717637.0647,1,1,1.0000,0.0000,1.42053,0.13686,-2.66818,1.00855,1.56182,0.11680,-0.13242,-0.45916,0.07043,,,,,,,,,,,,,,,,,,,,,,,,,,0,0,0,0,0
3.9644,1783717637.0739,1,1,1.0000,0.0000,1.42053,0.13667,-2.66822,1.00880,1.56182,0.11680,-0.13242,-0.45917,0.07038,,,,,,,,,,,,,,,,,,,,,,,,,,0,0,0,0,0
3.9646,1783717637.0741,1,1,1.0000,0.0000,1.42053,0.13667,-2.66822,1.00880,1.56182,0.11680,-0.13242,-0.45917,0.07038,,,,,,,,,,,,,,,,,,,,,,,,,,0,0,0,0,0
3.9750,1783717637.0845,1,1,1.0000,0.0000,1.42053,0.13647,-2.66826,1.00906,1.56182,0.11680,-0.13241,-0.45918,0.07032,,,,,,,,,,,,,,,,,,,,,,,,,,0,0,0,0,0
3.9756,1783717637.0851,1,1,1.0000,0.0000,1.42053,0.13635,-2.66828,1.00921,1.56182,0.11679,-0.13241,-0.45919,0.07029,,,,,,,,,,,,,,,,,,,,,,,,,,0,0,0,0,0
3.9845,1783717637.0940,1,1,1.0000,0.0000,1.42054,0.13612,-2.66832,1.00951,1.56182,0.11679,-0.13241,-0.45921,0.07023,,,,,,,,,,,,,,,,,,,,,,,,,,0,0,0,0,0
3.9954,1783717637.1049,1,1,1.0000,0.0000,1.42054,0.13592,-2.66835,1.00978,1.56182,0.11679,-0.13241,-0.45923,0.07017,,,,,,,,,,,,,,,,,,,,,,,,,,0,0,0,0,0
3.9959,1783717637.1054,1,1,1.0000,0.0000,1.42054,0.13584,-2.66836,1.00989,1.56182,0.11679,-0.13241,-0.45924,0.07015,,,,,,,,,,,,,,,,,,,,,,,,,,0,0,0,0,0
4.0061,1783717637.1156,1,1,1.0000,0.0000,1.42054,0.13573,-2.66836,1.01003,1.56182,0.11679,-0.13240,-0.45927,0.07013,,,,,,,,,,,,,,,,,,,,,,,,,,0,0,0,0,0
4.0064,1783717637.1159,1,1,1.0000,0.0000,1.42054,0.13573,-2.66836,1.01003,1.56182,0.11679,-0.13240,-0.45927,0.07013,,,,,,,,,,,,,,,,,,,,,,,,,,0,0,0,0,0
4.0174,1783717637.1269,1,1,1.0000,0.0000,1.42054,0.13571,-2.66835,1.01006,1.56182,0.11679,-0.13240,-0.45928,0.07014,,,,,,,,,,,,,,,,,,,,,,,,,,0,0,0,0,0
4.0176,1783717637.1271,1,1,1.0000,0.0000,1.42054,0.13571,-2.66835,1.01006,1.56182,0.11679,-0.13240,-0.45928,0.07014,,,,,,,,,,,,,,,,,,,,,,,,,,0,0,0,0,0
4.0266,1783717637.1361,1,1,1.0000,0.0000,1.42054,0.13570,-2.66836,1.01008,1.56182,0.11678,-0.13240,-0.45927,0.07013,,,,,,,,,,,,,,,,,,,,,,,,,,0,0,0,0,0
4.0374,1783717637.1468,1,1,1.0000,0.0000,1.42054,0.13567,-2.66838,1.01012,1.56182,0.11678,-0.13240,-0.45927,0.07011,,,,,,,,,,,,,,,,,,,,,,,,,,0,0,0,0,0
4.0574,1783717637.1669,1,1,1.0000,0.0000,1.42054,0.13551,-2.66846,1.01032,1.56182,0.11678,-0.13241,-0.45925,0.07004,,,,,,,,,,,,,,,,,,,,,,,,,,0,0,0,0,0
4.0577,1783717637.1672,1,1,1.0000,0.0000,1.42054,0.13551,-2.66846,1.01032,1.56182,0.11678,-0.13241,-0.45925,0.07004,,,,,,,,,,,,,,,,,,,,,,,,,,0,0,0,0,0
4.0581,1783717637.1676,1,1,1.0000,0.0000,1.42054,0.13551,-2.66846,1.01032,1.56182,0.11678,-0.13241,-0.45925,0.07004,,,,,,,,,,,,,,,,,,,,,,,,,,0,0,0,0,0
4.0688,1783717637.1783,1,1,1.0000,0.0000,1.42054,0.13538,-2.66851,1.01048,1.56182,0.11678,-0.13241,-0.45923,0.06999,,,,,,,,,,,,,,,,,,,,,,,,,,0,0,0,0,0
4.0931,1783717637.2026,1,1,1.0000,0.0000,1.42054,0.13500,-2.66863,1.01095,1.56182,0.11678,-0.13241,-0.45922,0.06985,,,,,,,,,,,,,,,,,,,,,,,,,,0,0,0,0,0
4.0959,1783717637.2054,1,1,1.0000,0.0000,1.42054,0.13489,-2.66867,1.01110,1.56182,0.11678,-0.13241,-0.45922,0.06981,,,,,,,,,,,,,,,,,,,,,,,,,,0,0,0,0,0
4.0969,1783717637.2064,1,1,1.0000,0.0000,1.42054,0.13489,-2.66867,1.01110,1.56182,0.11678,-0.13241,-0.45922,0.06981,,,,,,,,,,,,,,,,,,,,,,,,,,0,0,0,0,0
4.0972,1783717637.2067,1,1,1.0000,0.0000,1.42054,0.13489,-2.66867,1.01110,1.56182,0.11678,-0.13241,-0.45922,0.06981,,,,,,,,,,,,,,,,,,,,,,,,,,0,0,0,0,0
4.1082,1783717637.2177,1,1,1.0000,0.0000,1.42054,0.13481,-2.66869,1.01119,1.56182,0.11678,-0.13241,-0.45922,0.06979,,,,,,,,,,,,,,,,,,,,,,,,,,0,0,0,0,0
4.1085,1783717637.2180,1,1,1.0000,0.0000,1.42054,0.13481,-2.66869,1.01119,1.56182,0.11678,-0.13241,-0.45922,0.06979,,,,,,,,,,,,,,,,,,,,,,,,,,0,0,0,0,0
4.1202,1783717637.2297,1,1,1.0000,0.0000,1.42054,0.13445,-2.66878,1.01164,1.56183,0.11677,-0.13241,-0.45922,0.06967,,,,,,,,,,,,,,,,,,,,,,,,,,0,0,0,0,0
4.1289,1783717637.2384,1,1,1.0000,0.0000,1.42054,0.13428,-2.66883,1.01185,1.56183,0.11677,-0.13241,-0.45922,0.06961,,,,,,,,,,,,,,,,,,,,,,,,,,0,0,0,0,0
4.1390,1783717637.2485,1,1,1.0000,0.0000,1.42054,0.13417,-2.66886,1.01198,1.56183,0.11677,-0.13241,-0.45922,0.06957,,,,,,,,,,,,,,,,,,,,,,,,,,0,0,0,0,0
4.1614,1783717637.2709,1,1,1.0000,0.0000,1.42054,0.13322,-2.66910,1.01315,1.56183,0.11676,-0.13241,-0.45923,0.06926,,,,,,,,,,,,,,,,,,,,,,,,,,0,0,0,0,0
4.1618,1783717637.2713,1,1,1.0000,0.0000,1.42054,0.13322,-2.66910,1.01315,1.56183,0.11676,-0.13241,-0.45923,0.06926,,,,,,,,,,,,,,,,,,,,,,,,,,0,0,0,0,0
4.1647,1783717637.2742,1,1,1.0000,0.0000,1.42054,0.13319,-2.66911,1.01319,1.56183,0.11676,-0.13241,-0.45923,0.06925,,,,,,,,,,,,,,,,,,,,,,,,,,0,0,0,0,0
4.1651,1783717637.2746,1,1,1.0000,0.0000,1.42054,0.13319,-2.66911,1.01319,1.56183,0.11676,-0.13241,-0.45923,0.06925,,,,,,,,,,,,,,,,,,,,,,,,,,0,0,0,0,0
4.1658,1783717637.2753,1,1,1.0000,0.0000,1.42054,0.13319,-2.66911,1.01319,1.56183,0.11676,-0.13241,-0.45923,0.06925,,,,,,,,,,,,,,,,,,,,,,,,,,0,0,0,0,0
4.1771,1783717637.2866,1,1,1.0000,0.0000,1.42055,0.13282,-2.66920,1.01365,1.56183,0.11676,-0.13241,-0.45923,0.06913,,,,,,,,,,,,,,,,,,,,,,,,,,0,0,0,0,0
4.1866,1783717637.2961,1,1,1.0000,0.0000,1.42055,0.13239,-2.66931,1.01418,1.56183,0.11676,-0.13241,-0.45924,0.06899,,,,,,,,,,,,,,,,,,,,,,,,,,0,0,0,0,0
4.1966,1783717637.3061,1,1,1.0000,0.0000,1.42055,0.13212,-2.66938,1.01451,1.56183,0.11676,-0.13241,-0.45924,0.06890,,,,,,,,,,,,,,,,,,,,,,,,,,0,0,0,0,0
4.2104,1783717637.3199,1,1,1.0000,0.0000,1.42055,0.13177,-2.66946,1.01494,1.56183,0.11675,-0.13241,-0.45925,0.06879,,,,,,,,,,,,,,,,,,,,,,,,,,0,0,0,0,0
4.2164,1783717637.3259,1,1,1.0000,0.0000,1.42055,0.13159,-2.66951,1.01517,1.56183,0.11675,-0.13241,-0.45925,0.06873,,,,,,,,,,,,,,,,,,,,,,,,,,0,0,0,0,0
4.2168,1783717637.3263,1,1,1.0000,0.0000,1.42055,0.13159,-2.66951,1.01517,1.56183,0.11675,-0.13241,-0.45925,0.06873,,,,,,,,,,,,,,,,,,,,,,,,,,0,0,0,0,0
4.2271,1783717637.3366,1,1,1.0000,0.0000,1.42055,0.13150,-2.66953,1.01529,1.56183,0.11675,-0.13241,-0.45925,0.06870,,,,,,,,,,,,,,,,,,,,,,,,,,0,0,0,0,0
4.2364,1783717637.3459,1,1,1.0000,0.0000,1.42055,0.13109,-2.66963,1.01581,1.56183,0.11675,-0.13240,-0.45926,0.06857,,,,,,,,,,,,,,,,,,,,,,,,,,0,0,0,0,0
4.2367,1783717637.3462,1,1,1.0000,0.0000,1.42055,0.13109,-2.66963,1.01581,1.56183,0.11675,-0.13240,-0.45926,0.06857,,,,,,,,,,,,,,,,,,,,,,,,,,0,0,0,0,0
4.2540,1783717637.3635,1,1,1.0000,0.0000,1.42055,0.13070,-2.66973,1.01630,1.56183,0.11674,-0.13240,-0.45927,0.06845,,,,,,,,,,,,,,,,,,,,,,,,,,0,0,0,0,0
4.2544,1783717637.3639,1,1,1.0000,0.0000,1.42055,0.13070,-2.66973,1.01630,1.56183,0.11674,-0.13240,-0.45927,0.06845,,,,,,,,,,,,,,,,,,,,,,,,,,0,0,0,0,0
4.2662,1783717637.3757,1,1,1.0000,0.0000,1.42055,0.13051,-2.66976,1.01655,1.56183,0.11674,-0.13240,-0.45928,0.06839,,,,,,,,,,,,,,,,,,,,,,,,,,0,0,0,0,0
4.2665,1783717637.3760,1,1,1.0000,0.0000,1.42055,0.13051,-2.66976,1.01655,1.56183,0.11674,-0.13240,-0.45928,0.06839,,,,,,,,,,,,,,,,,,,,,,,,,,0,0,0,0,0
4.2780,1783717637.3875,1,1,1.0000,0.0000,1.42055,0.13019,-2.66982,1.01696,1.56183,0.11674,-0.13240,-0.45931,0.06830,,,,,,,,,,,,,,,,,,,,,,,,,,0,0,0,0,0
4.2884,1783717637.3979,1,1,1.0000,0.0000,1.42056,0.12985,-2.66988,1.01740,1.56184,0.11673,-0.13239,-0.45934,0.06821,,,,,,,,,,,,,,,,,,,,,,,,,,0,0,0,0,0
4.2948,1783717637.4043,1,1,1.0000,0.0000,1.42056,0.12976,-2.66989,1.01753,1.56184,0.11673,-0.13239,-0.45935,0.06818,,,,,,,,,,,,,,,,,,,,,,,,,,0,0,0,0,0
4.3212,1783717637.4306,1,1,1.0000,0.0000,1.42056,0.12955,-2.66991,1.01780,1.56184,0.11673,-0.13239,-0.45938,0.06814,,,,,,,,,,,,,,,,,,,,,,,,,,0,0,0,0,0
4.3215,1783717637.4310,1,1,1.0000,0.0000,1.42056,0.12955,-2.66991,1.01780,1.56184,0.11673,-0.13239,-0.45938,0.06814,,,,,,,,,,,,,,,,,,,,,,,,,,0,0,0,0,0
4.3325,1783717637.4420,1,1,1.0000,0.0000,1.42056,0.12952,-2.66993,1.01785,1.56184,0.11673,-0.13239,-0.45937,0.06812,,,,,,,,,,,,,,,,,,,,,,,,,,0,0,0,0,0
4.3388,1783717637.4483,1,1,1.0000,0.0000,1.42056,0.12951,-2.66995,1.01787,1.56184,0.11673,-0.13239,-0.45936,0.06812,,,,,,,,,,,,,,,,,,,,,,,,,,0,0,0,0,0
4.3451,1783717637.4546,1,1,1.0000,0.0000,1.42056,0.12950,-2.66995,1.01787,1.56184,0.11673,-0.13239,-0.45936,0.06811,,,,,,,,,,,,,,,,,,,,,,,,,,0,0,0,0,0
4.3455,1783717637.4550,1,1,1.0000,0.0000,1.42056,0.12950,-2.66995,1.01787,1.56184,0.11673,-0.13239,-0.45936,0.06811,,,,,,,,,,,,,,,,,,,,,,,,,,0,0,0,0,0
4.3575,1783717637.4669,1,1,1.0000,0.0000,1.42056,0.12943,-2.66999,1.01797,1.56184,0.11673,-0.13239,-0.45935,0.06808,,,,,,,,,,,,,,,,,,,,,,,,,,0,0,0,0,0
4.3645,1783717637.4740,1,1,1.0000,0.0000,1.42056,0.12933,-2.67003,1.01809,1.56184,0.11673,-0.13239,-0.45934,0.06804,,,,,,,,,,,,,,,,,,,,,,,,,,0,0,0,0,0
4.3758,1783717637.4853,1,1,1.0000,0.0000,1.42056,0.12926,-2.67006,1.01818,1.56184,0.11673,-0.13239,-0.45933,0.06801,,,,,,,,,,,,,,,,,,,,,,,,,,0,0,0,0,0
4.3762,1783717637.4857,1,1,1.0000,0.0000,1.42056,0.12926,-2.67006,1.01818,1.56184,0.11673,-0.13239,-0.45933,0.06801,,,,,,,,,,,,,,,,,,,,,,,,,,0,0,0,0,0
4.3860,1783717637.4955,1,1,1.0000,0.0000,1.42056,0.12916,-2.67009,1.01830,1.56184,0.11673,-0.13239,-0.45933,0.06797,,,,,,,,,,,,,,,,,,,,,,,,,,0,0,0,0,0
4.3970,1783717637.5065,1,1,1.0000,0.0000,1.42056,0.12898,-2.67014,1.01852,1.56184,0.11672,-0.13239,-0.45932,0.06791,,,,,,,,,,,,,,,,,,,,,,,,,,0,0,0,0,0
4.4046,1783717637.5141,1,1,1.0000,0.0000,1.42056,0.12889,-2.67017,1.01862,1.56184,0.11672,-0.13239,-0.45932,0.06788,,,,,,,,,,,,,,,,,,,,,,,,,,0,0,0,0,0
4.4159,1783717637.5254,1,1,1.0000,0.0000,1.42056,0.12851,-2.67027,1.01910,1.56184,0.11672,-0.13240,-0.45932,0.06775,,,,,,,,,,,,,,,,,,,,,,,,,,0,0,0,0,0
4.4163,1783717637.5257,1,1,1.0000,0.0000,1.42056,0.12851,-2.67027,1.01910,1.56184,0.11672,-0.13240,-0.45932,0.06775,,,,,,,,,,,,,,,,,,,,,,,,,,0,0,0,0,0
4.4272,1783717637.5367,1,1,1.0000,0.0000,1.42056,0.12813,-2.67037,1.01956,1.56184,0.11672,-0.13240,-0.45932,0.06762,,,,,,,,,,,,,,,,,,,,,,,,,,0,0,0,0,0
4.4360,1783717637.5455,1,1,1.0000,0.0000,1.42056,0.12803,-2.67040,1.01968,1.56184,0.11672,-0.13240,-0.45932,0.06759,,,,,,,,,,,,,,,,,,,,,,,,,,0,0,0,0,0
4.4364,1783717637.5459,1,1,1.0000,0.0000,1.42056,0.12803,-2.67040,1.01968,1.56184,0.11672,-0.13240,-0.45932,0.06759,,,,,,,,,,,,,,,,,,,,,,,,,,0,0,0,0,0
4.4452,1783717637.5547,1,1,1.0000,0.0000,1.42056,0.12776,-2.67047,1.02001,1.56184,0.11672,-0.13240,-0.45932,0.06750,,,,,,,,,,,,,,,,,,,,,,,,,,0,0,0,0,0
4.4602,1783717637.5697,1,1,1.0000,0.0000,1.42056,0.12688,-2.67069,1.02109,1.56184,0.11671,-0.13239,-0.45933,0.06721,,,,,,,,,,,,,,,,,,,,,,,,,,0,0,0,0,0
4.4671,1783717637.5766,1,1,1.0000,0.0000,1.42056,0.12688,-2.67069,1.02109,1.56184,0.11671,-0.13239,-0.45933,0.06721,,,,,,,,,,,,,,,,,,,,,,,,,,0,0,0,0,0
4.4679,1783717637.5774,1,1,1.0000,0.0000,1.42056,0.12686,-2.67069,1.02112,1.56184,0.11671,-0.13239,-0.45933,0.06720,,,,,,,,,,,,,,,,,,,,,,,,,,0,0,0,0,0
4.4742,1783717637.5836,1,1,1.0000,0.0000,1.42056,0.12678,-2.67071,1.02121,1.56184,0.11671,-0.13239,-0.45933,0.06718,,,,,,,,,,,,,,,,,,,,,,,,,,0,0,0,0,0
4.4747,1783717637.5842,1,1,1.0000,0.0000,1.42056,0.12678,-2.67071,1.02121,1.56184,0.11671,-0.13239,-0.45933,0.06718,,,,,,,,,,,,,,,,,,,,,,,,,,0,0,0,0,0
4.4843,1783717637.5938,1,1,1.0000,0.0000,1.42057,0.12632,-2.67082,1.02178,1.56184,0.11670,-0.13239,-0.45934,0.06703,,,,,,,,,,,,,,,,,,,,,,,,,,0,0,0,0,0
4.4847,1783717637.5941,1,1,1.0000,0.0000,1.42057,0.12632,-2.67082,1.02178,1.56184,0.11670,-0.13239,-0.45934,0.06703,,,,,,,,,,,,,,,,,,,,,,,,,,0,0,0,0,0
4.4944,1783717637.6039,1,1,1.0000,0.0000,1.42057,0.12629,-2.67083,1.02182,1.56184,0.11670,-0.13239,-0.45934,0.06702,,,,,,,,,,,,,,,,,,,,,,,,,,0,0,0,0,0
4.5047,1783717637.6142,1,1,1.0000,0.0000,1.42057,0.12588,-2.67093,1.02232,1.56184,0.11670,-0.13239,-0.45935,0.06689,,,,,,,,,,,,,,,,,,,,,,,,,,0,0,0,0,0
4.5151,1783717637.6246,1,1,1.0000,0.0000,1.42057,0.12544,-2.67104,1.02287,1.56185,0.11670,-0.13239,-0.45935,0.06675,,,,,,,,,,,,,,,,,,,,,,,,,,0,0,0,0,0
4.5288,1783717637.6383,1,1,1.0000,0.0000,1.42057,0.12511,-2.67112,1.02328,1.56185,0.11669,-0.13239,-0.45936,0.06664,,,,,,,,,,,,,,,,,,,,,,,,,,0,0,0,0,0
4.5369,1783717637.6464,1,1,1.0000,0.0000,1.42057,0.12489,-2.67117,1.02355,1.56185,0.11669,-0.13239,-0.45936,0.06657,,,,,,,,,,,,,,,,,,,,,,,,,,0,0,0,0,0
4.5483,1783717637.6577,1,1,1.0000,0.0000,1.42057,0.12442,-2.67128,1.02414,1.56185,0.11669,-0.13239,-0.45937,0.06642,,,,,,,,,,,,,,,,,,,,,,,,,,0,0,0,0,0
4.5621,1783717637.6716,1,1,1.0000,0.0000,1.42057,0.12390,-2.67141,1.02480,1.56185,0.11668,-0.13239,-0.45938,0.06626,,,,,,,,,,,,,,,,,,,,,,,,,,0,0,0,0,0
4.5695,1783717637.6790,1,1,1.0000,0.0000,1.42057,0.12360,-2.67148,1.02518,1.56185,0.11668,-0.13239,-0.45939,0.06616,,,,,,,,,,,,,,,,,,,,,,,,,,0,0,0,0,0
4.5764,1783717637.6859,1,1,1.0000,0.0000,1.42058,0.12340,-2.67153,1.02544,1.56185,0.11668,-0.13239,-0.45940,0.06610,,,,,,,,,,,,,,,,,,,,,,,,,,0,0,0,0,0
4.5883,1783717637.6978,1,1,1.0000,0.0000,1.42058,0.12339,-2.67153,1.02545,1.56185,0.11668,-0.13239,-0.45940,0.06610,,,,,,,,,,,,,,,,,,,,,,,,,,0,0,0,0,0
4.5886,1783717637.6981,1,1,1.0000,0.0000,1.42058,0.12339,-2.67153,1.02545,1.56185,0.11668,-0.13239,-0.45940,0.06610,,,,,,,,,,,,,,,,,,,,,,,,,,0,0,0,0,0
4.5967,1783717637.7062,1,1,1.0000,0.0000,1.42058,0.12338,-2.67153,1.02548,1.56185,0.11668,-0.13238,-0.45941,0.06610,,,,,,,,,,,,,,,,,,,,,,,,,,0,0,0,0,0
4.6060,1783717637.7155,1,1,1.0000,0.0000,1.42058,0.12335,-2.67152,1.02552,1.56185,0.11668,-0.13238,-0.45941,0.06610,,,,,,,,,,,,,,,,,,,,,,,,,,0,0,0,0,0
4.6184,1783717637.7279,1,1,1.0000,0.0000,1.42058,0.12333,-2.67153,1.02555,1.56185,0.11668,-0.13238,-0.45942,0.06609,,,,,,,,,,,,,,,,,,,,,,,,,,0,0,0,0,0
4.6370,1783717637.7465,1,1,1.0000,0.0000,1.42058,0.12321,-2.67156,1.02570,1.56185,0.11667,-0.13238,-0.45942,0.06605,,,,,,,,,,,,,,,,,,,,,,,,,,0,0,0,0,0
4.6373,1783717637.7468,1,1,1.0000,0.0000,1.42058,0.12321,-2.67156,1.02570,1.56185,0.11667,-0.13238,-0.45942,0.06605,,,,,,,,,,,,,,,,,,,,,,,,,,0,0,0,0,0
4.6479,1783717637.7573,1,1,1.0000,0.0000,1.42058,0.12311,-2.67159,1.02583,1.56185,0.11667,-0.13238,-0.45942,0.06602,,,,,,,,,,,,,,,,,,,,,,,,,,0,0,0,0,0
4.6661,1783717637.7755,1,1,1.0000,0.0000,1.42058,0.12272,-2.67169,1.02630,1.56185,0.11667,-0.13238,-0.45941,0.06589,,,,,,,,,,,,,,,,,,,,,,,,,,0,0,0,0,0
4.6757,1783717637.7852,1,1,1.0000,0.0000,1.42058,0.12265,-2.67171,1.02638,1.56185,0.11667,-0.13238,-0.45941,0.06587,,,,,,,,,,,,,,,,,,,,,,,,,,0,0,0,0,0
4.6869,1783717637.7964,1,1,1.0000,0.0000,1.42058,0.12247,-2.67176,1.02661,1.56185,0.11667,-0.13238,-0.45941,0.06580,,,,,,,,,,,,,,,,,,,,,,,,,,0,0,0,0,0
4.6872,1783717637.7966,1,1,1.0000,0.0000,1.42058,0.12247,-2.67176,1.02661,1.56185,0.11667,-0.13238,-0.45941,0.06580,,,,,,,,,,,,,,,,,,,,,,,,,,0,0,0,0,0
4.6971,1783717637.8066,1,1,1.0000,0.0000,1.42058,0.12202,-2.67187,1.02716,1.56185,0.11667,-0.13238,-0.45942,0.06566,,,,,,,,,,,,,,,,,,,,,,,,,,0,0,0,0,0
4.7095,1783717637.8190,1,1,1.0000,0.0000,1.42058,0.12192,-2.67189,1.02728,1.56185,0.11666,-0.13238,-0.45942,0.06563,,,,,,,,,,,,,,,,,,,,,,,,,,0,0,0,0,0
4.7099,1783717637.8194,1,1,1.0000,0.0000,1.42058,0.12192,-2.67189,1.02728,1.56185,0.11666,-0.13238,-0.45942,0.06563,,,,,,,,,,,,,,,,,,,,,,,,,,0,0,0,0,0
4.7243,1783717637.8338,1,1,1.0000,0.0000,1.42058,0.12147,-2.67200,1.02783,1.56185,0.11666,-0.13238,-0.45943,0.06548,,,,,,,,,,,,,,,,,,,,,,,,,,0,0,0,0,0
4.7346,1783717637.8441,1,1,1.0000,0.0000,1.42058,0.12134,-2.67203,1.02799,1.56186,0.11666,-0.13238,-0.45943,0.06544,,,,,,,,,,,,,,,,,,,,,,,,,,0,0,0,0,0
4.7350,1783717637.8445,1,1,1.0000,0.0000,1.42058,0.12134,-2.67203,1.02799,1.56186,0.11666,-0.13238,-0.45943,0.06544,,,,,,,,,,,,,,,,,,,,,,,,,,0,0,0,0,0
4.7427,1783717637.8522,1,1,1.0000,0.0000,1.42058,0.12099,-2.67212,1.02842,1.56186,0.11666,-0.13238,-0.45943,0.06533,,,,,,,,,,,,,,,,,,,,,,,,,,0,0,0,0,0
4.7431,1783717637.8525,1,1,1.0000,0.0000,1.42058,0.12099,-2.67212,1.02842,1.56186,0.11666,-0.13238,-0.45943,0.06533,,,,,,,,,,,,,,,,,,,,,,,,,,0,0,0,0,0
4.7501,1783717637.8596,1,1,1.0000,0.0000,1.42058,0.12050,-2.67224,1.02903,1.56186,0.11665,-0.13238,-0.45944,0.06517,,,,,,,,,,,,,,,,,,,,,,,,,,0,0,0,0,0
4.7552,1783717637.8647,1,1,1.0000,0.0000,1.42059,0.12021,-2.67231,1.02938,1.56186,0.11665,-0.13238,-0.45944,0.06508,,,,,,,,,,,,,,,,,,,,,,,,,,0,0,0,0,0
4.7695,1783717637.8790,1,1,1.0000,0.0000,1.42059,0.11997,-2.67237,1.02967,1.56186,0.11665,-0.13238,-0.45944,0.06500,,,,,,,,,,,,,,,,,,,,,,,,,,0,0,0,0,0
4.7767,1783717637.8861,1,1,1.0000,0.0000,1.42059,0.11961,-2.67245,1.03012,1.56186,0.11665,-0.13238,-0.45945,0.06488,,,,,,,,,,,,,,,,,,,,,,,,,,0,0,0,0,0
4.7861,1783717637.8956,1,1,1.0000,0.0000,1.42059,0.11914,-2.67256,1.03070,1.56186,0.11664,-0.13238,-0.45946,0.06473,,,,,,,,,,,,,,,,,,,,,,,,,,0,0,0,0,0
4.8009,1783717637.9104,1,1,1.0000,0.0000,1.42059,0.11881,-2.67264,1.03110,1.56186,0.11664,-0.13238,-0.45946,0.06463,,,,,,,,,,,,,,,,,,,,,,,,,,0,0,0,0,0
4.8012,1783717637.9107,1,1,1.0000,0.0000,1.42059,0.11881,-2.67264,1.03110,1.56186,0.11664,-0.13238,-0.45946,0.06463,,,,,,,,,,,,,,,,,,,,,,,,,,0,0,0,0,0
4.8065,1783717637.9159,1,1,1.0000,0.0000,1.42059,0.11873,-2.67266,1.03121,1.56186,0.11664,-0.13238,-0.45946,0.06460,,,,,,,,,,,,,,,,,,,,,,,,,,0,0,0,0,0
4.8264,1783717637.9358,1,1,1.0000,0.0000,1.42059,0.11800,-2.67283,1.03212,1.56186,0.11663,-0.13238,-0.45948,0.06437,,,,,,,,,,,,,,,,,,,,,,,,,,0,0,0,0,0
4.8307,1783717637.9402,1,1,1.0000,0.0000,1.42059,0.11783,-2.67287,1.03233,1.56186,0.11663,-0.13238,-0.45948,0.06432,,,,,,,,,,,,,,,,,,,,,,,,,,0,0,0,0,0
4.8311,1783717637.9406,1,1,1.0000,0.0000,1.42059,0.11783,-2.67287,1.03233,1.56186,0.11663,-0.13238,-0.45948,0.06432,,,,,,,,,,,,,,,,,,,,,,,,,,0,0,0,0,0
4.8365,1783717637.9460,1,1,1.0000,0.0000,1.42059,0.11751,-2.67295,1.03273,1.56186,0.11663,-0.13237,-0.45949,0.06422,,,,,,,,,,,,,,,,,,,,,,,,,,0,0,0,0,0
4.8369,1783717637.9464,1,1,1.0000,0.0000,1.42059,0.11751,-2.67295,1.03273,1.56186,0.11663,-0.13237,-0.45949,0.06422,,,,,,,,,,,,,,,,,,,,,,,,,,0,0,0,0,0
4.8454,1783717637.9549,1,1,1.0000,0.0000,1.42059,0.11725,-2.67301,1.03306,1.56186,0.11662,-0.13237,-0.45950,0.06414,,,,,,,,,,,,,,,,,,,,,,,,,,0,0,0,0,0
4.8566,1783717637.9661,1,1,1.0000,0.0000,1.42060,0.11709,-2.67305,1.03327,1.56186,0.11662,-0.13237,-0.45950,0.06409,,,,,,,,,,,,,,,,,,,,,,,,,,0,0,0,0,0
4.8568,1783717637.9663,1,1,1.0000,0.0000,1.42060,0.11709,-2.67305,1.03327,1.56186,0.11662,-0.13237,-0.45950,0.06409,,,,,,,,,,,,,,,,,,,,,,,,,,0,0,0,0,0
4.8701,1783717637.9795,1,1,1.0000,0.0000,1.42060,0.11709,-2.67305,1.03327,1.56186,0.11662,-0.13237,-0.45950,0.06409,,,,,,,,,,,,,,,,,,,,,,,,,,0,0,0,0,0
4.8798,1783717637.9893,1,1,1.0000,0.0000,1.42060,0.11709,-2.67305,1.03327,1.56186,0.11662,-0.13237,-0.45950,0.06409,,,,,,,,,,,,,,,,,,,,,,,,,,0,0,0,0,0
4.8854,1783717637.9949,1,1,1.0000,0.0000,1.42060,0.11709,-2.67305,1.03328,1.56186,0.11662,-0.13237,-0.45950,0.06409,,,,,,,,,,,,,,,,,,,,,,,,,,0,0,0,0,0
4.8998,1783717638.0092,1,1,1.0000,0.0000,1.42060,0.11705,-2.67304,1.03333,1.56186,0.11662,-0.13237,-0.45951,0.06409,,,,,,,,,,,,,,,,,,,,,,,,,,0,0,0,0,0
4.9047,1783717638.0142,1,1,1.0000,0.0000,1.42060,0.11704,-2.67304,1.03336,1.56186,0.11662,-0.13237,-0.45952,0.06408,,,,,,,,,,,,,,,,,,,,,,,,,,0,0,0,0,0
4.9159,1783717638.0254,1,1,1.0000,0.0000,1.42060,0.11701,-2.67305,1.03339,1.56186,0.11662,-0.13237,-0.45952,0.06408,,,,,,,,,,,,,,,,,,,,,,,,,,0,0,0,0,0
4.9162,1783717638.0257,1,1,1.0000,0.0000,1.42060,0.11701,-2.67305,1.03339,1.56186,0.11662,-0.13237,-0.45952,0.06408,,,,,,,,,,,,,,,,,,,,,,,,,,0,0,0,0,0
4.9246,1783717638.0341,1,1,1.0000,0.0000,1.42060,0.11696,-2.67307,1.03346,1.56186,0.11662,-0.13237,-0.45951,0.06406,,,,,,,,,,,,,,,,,,,,,,,,,,0,0,0,0,0
4.9388,1783717638.0483,1,1,1.0000,0.0000,1.42060,0.11681,-2.67312,1.03364,1.56186,0.11662,-0.13237,-0.45951,0.06400,,,,,,,,,,,,,,,,,,,,,,,,,,0,0,0,0,0
4.9444,1783717638.0539,1,1,1.0000,0.0000,1.42060,0.11680,-2.67313,1.03366,1.56186,0.11662,-0.13237,-0.45951,0.06400,,,,,,,,,,,,,,,,,,,,,,,,,,0,0,0,0,0
4.9447,1783717638.0542,1,1,1.0000,0.0000,1.42060,0.11680,-2.67313,1.03366,1.56186,0.11662,-0.13237,-0.45951,0.06400,,,,,,,,,,,,,,,,,,,,,,,,,,0,0,0,0,0
4.9575,1783717638.0669,1,1,1.0000,0.0000,1.42060,0.11664,-2.67317,1.03385,1.56187,0.11662,-0.13237,-0.45951,0.06395,,,,,,,,,,,,,,,,,,,,,,,,,,0,0,0,0,0
4.9711,1783717638.0806,1,1,1.0000,0.0000,1.42060,0.11634,-2.67325,1.03422,1.56187,0.11661,-0.13237,-0.45950,0.06385,,,,,,,,,,,,,,,,,,,,,,,,,,0,0,0,0,0
4.9809,1783717638.0903,1,1,1.0000,0.0000,1.42060,0.11626,-2.67327,1.03432,1.56187,0.11661,-0.13237,-0.45950,0.06382,,,,,,,,,,,,,,,,,,,,,,,,,,0,0,0,0,0
4.9858,1783717638.0953,1,1,1.0000,0.0000,1.42060,0.11617,-2.67329,1.03443,1.56187,0.11661,-0.13237,-0.45950,0.06379,,,,,,,,,,,,,,,,,,,,,,,,,,0,0,0,0,0
4.9945,1783717638.1040,1,1,1.0000,0.0000,1.42060,0.11590,-2.67336,1.03476,1.56187,0.11661,-0.13237,-0.45951,0.06370,,,,,,,,,,,,,,,,,,,,,,,,,,0,0,0,0,0
5.0045,1783717638.1140,1,1,1.0000,0.0000,1.42060,0.11578,-2.67338,1.03490,1.56187,0.11661,-0.13237,-0.45951,0.06367,,,,,,,,,,,,,,,,,,,,,,,,,,0,0,0,0,0
5.0157,1783717638.1252,1,1,1.0000,0.0000,1.42060,0.11526,-2.67351,1.03554,1.56187,0.11661,-0.13237,-0.45951,0.06350,,,,,,,,,,,,,,,,,,,,,,,,,,0,0,0,0,0
5.0296,1783717638.1391,1,1,1.0000,0.0000,1.42060,0.11476,-2.67363,1.03615,1.56187,0.11660,-0.13237,-0.45952,0.06334,,,,,,,,,,,,,,,,,,,,,,,,,,0,0,0,0,0
5.0360,1783717638.1455,1,1,1.0000,0.0000,1.42060,0.11465,-2.67365,1.03629,1.56187,0.11660,-0.13237,-0.45952,0.06330,,,,,,,,,,,,,,,,,,,,,,,,,,0,0,0,0,0
5.0483,1783717638.1578,1,1,1.0000,0.0000,1.42060,0.11413,-2.67377,1.03693,1.56187,0.11660,-0.13237,-0.45953,0.06314,,,,,,,,,,,,,,,,,,,,,,,,,,0,0,0,0,0
5.0486,1783717638.1581,1,1,1.0000,0.0000,1.42060,0.11413,-2.67377,1.03693,1.56187,0.11660,-0.13237,-0.45953,0.06314,,,,,,,,,,,,,,,,,,,,,,,,,,0,0,0,0,0
5.0558,1783717638.1653,1,1,1.0000,0.0000,1.42061,0.11363,-2.67389,1.03753,1.56187,0.11659,-0.13237,-0.45954,0.06298,,,,,,,,,,,,,,,,,,,,,,,,,,0,0,0,0,0
5.0719,1783717638.1814,1,1,1.0000,0.0000,1.42061,0.11327,-2.67397,1.03798,1.56187,0.11659,-0.13237,-0.45954,0.06286,,,,,,,,,,,,,,,,,,,,,,,,,,0,0,0,0,0
5.0772,1783717638.1867,1,1,1.0000,0.0000,1.42061,0.11316,-2.67400,1.03811,1.56187,0.11659,-0.13237,-0.45954,0.06283,,,,,,,,,,,,,,,,,,,,,,,,,,0,0,0,0,0
5.0910,1783717638.2005,1,1,1.0000,0.0000,1.42061,0.11285,-2.67407,1.03849,1.56187,0.11659,-0.13237,-0.45955,0.06273,,,,,,,,,,,,,,,,,,,,,,,,,,0,0,0,0,0
5.0965,1783717638.2060,1,1,1.0000,0.0000,1.42061,0.11275,-2.67409,1.03861,1.56187,0.11659,-0.13237,-0.45955,0.06270,,,,,,,,,,,,,,,,,,,,,,,,,,0,0,0,0,0
5.0968,1783717638.2063,1,1,1.0000,0.0000,1.42061,0.11275,-2.67409,1.03861,1.56187,0.11659,-0.13237,-0.45955,0.06270,,,,,,,,,,,,,,,,,,,,,,,,,,0,0,0,0,0
5.1068,1783717638.2163,1,1,1.0000,0.0000,1.42061,0.11251,-2.67415,1.03891,1.56187,0.11658,-0.13237,-0.45956,0.06263,,,,,,,,,,,,,,,,,,,,,,,,,,0,0,0,0,0
5.1168,1783717638.2263,1,1,1.0000,0.0000,1.42061,0.11197,-2.67427,1.03958,1.56187,0.11658,-0.13236,-0.45957,0.06246,,,,,,,,,,,,,,,,,,,,,,,,,,0,0,0,0,0
5.1300,1783717638.2395,1,1,1.0000,0.0000,1.42061,0.11139,-2.67441,1.04031,1.56187,0.11657,-0.13236,-0.45958,0.06227,,,,,,,,,,,,,,,,,,,,,,,,,,0,0,0,0,0
5.1511,1783717638.2606,1,1,1.0000,0.0000,1.42061,0.11092,-2.67452,1.04089,1.56188,0.11657,-0.13236,-0.45959,0.06213,,,,,,,,,,,,,,,,,,,,,,,,,,0,0,0,0,0
5.1514,1783717638.2609,1,1,1.0000,0.0000,1.42061,0.11092,-2.67452,1.04089,1.56188,0.11657,-0.13236,-0.45959,0.06213,,,,,,,,,,,,,,,,,,,,,,,,,,0,0,0,0,0
5.1520,1783717638.2615,1,1,1.0000,0.0000,1.42061,0.11091,-2.67452,1.04090,1.56188,0.11657,-0.13236,-0.45959,0.06213,,,,,,,,,,,,,,,,,,,,,,,,,,0,0,0,0,0
5.1745,1783717638.2840,1,1,1.0000,0.0000,1.42062,0.11082,-2.67451,1.04104,1.56188,0.11657,-0.13236,-0.45961,0.06211,,,,,,,,,,,,,,,,,,,,,,,,,,0,0,0,0,0
5.1812,1783717638.2907,1,1,1.0000,0.0000,1.42062,0.11082,-2.67451,1.04104,1.56188,0.11657,-0.13236,-0.45961,0.06211,,,,,,,,,,,,,,,,,,,,,,,,,,0,0,0,0,0
5.1815,1783717638.2909,1,1,1.0000,0.0000,1.42062,0.11082,-2.67451,1.04104,1.56188,0.11657,-0.13236,-0.45961,0.06211,,,,,,,,,,,,,,,,,,,,,,,,,,0,0,0,0,0
5.1987,1783717638.3082,1,1,1.0000,0.0000,1.42062,0.11071,-2.67455,1.04118,1.56188,0.11657,-0.13236,-0.45961,0.06208,,,,,,,,,,,,,,,,,,,,,,,,,,0,0,0,0,0
5.1991,1783717638.3086,1,1,1.0000,0.0000,1.42062,0.11071,-2.67455,1.04118,1.56188,0.11657,-0.13236,-0.45961,0.06208,,,,,,,,,,,,,,,,,,,,,,,,,,0,0,0,0,0
5.2079,1783717638.3173,1,1,1.0000,0.0000,1.42062,0.11056,-2.67459,1.04138,1.56188,0.11656,-0.13236,-0.45961,0.06203,,,,,,,,,,,,,,,,,,,,,,,,,,0,0,0,0,0
5.2082,1783717638.3177,1,1,1.0000,0.0000,1.42062,0.11056,-2.67459,1.04138,1.56188,0.11656,-0.13236,-0.45961,0.06203,,,,,,,,,,,,,,,,,,,,,,,,,,0,0,0,0,0
5.2189,1783717638.3284,1,1,1.0000,0.0000,1.42062,0.11055,-2.67459,1.04139,1.56188,0.11656,-0.13236,-0.45961,0.06202,,,,,,,,,,,,,,,,,,,,,,,,,,0,0,0,0,0
5.2559,1783717638.3654,1,1,1.0000,0.0000,1.42062,0.10992,-2.67475,1.04215,1.56188,0.11656,-0.13236,-0.45961,0.06182,,,,,,,,,,,,,,,,,,,,,,,,,,0,0,0,0,0
5.2761,1783717638.3856,1,1,1.0000,0.0000,1.42062,0.10951,-2.67485,1.04265,1.56188,0.11656,-0.13236,-0.45961,0.06169,,,,,,,,,,,,,,,,,,,,,,,,,,0,0,0,0,0
5.2912,1783717638.4007,1,1,1.0000,0.0000,1.42062,0.10909,-2.67494,1.04316,1.56188,0.11655,-0.13236,-0.45962,0.06155,,,,,,,,,,,,,,,,,,,,,,,,,,0,0,0,0,0
5.2916,1783717638.4010,1,1,1.0000,0.0000,1.42062,0.10909,-2.67494,1.04316,1.56188,0.11655,-0.13236,-0.45962,0.06155,,,,,,,,,,,,,,,,,,,,,,,,,,0,0,0,0,0
5.2921,1783717638.4016,1,1,1.0000,0.0000,1.42062,0.10890,-2.67499,1.04340,1.56188,0.11655,-0.13236,-0.45962,0.06149,,,,,,,,,,,,,,,,,,,,,,,,,,0,0,0,0,0
5.3026,1783717638.4121,1,1,1.0000,0.0000,1.42062,0.10868,-2.67504,1.04366,1.56188,0.11655,-0.13236,-0.45963,0.06142,,,,,,,,,,,,,,,,,,,,,,,,,,0,0,0,0,0
5.3408,1783717638.4502,1,1,1.0000,0.0000,1.42063,0.10757,-2.67530,1.04501,1.56188,0.11654,-0.13236,-0.45964,0.06107,,,,,,,,,,,,,,,,,,,,,,,,,,0,0,0,0,0
5.3411,1783717638.4506,1,1,1.0000,0.0000,1.42063,0.10757,-2.67530,1.04501,1.56188,0.11654,-0.13236,-0.45964,0.06107,,,,,,,,,,,,,,,,,,,,,,,,,,0,0,0,0,0
5.3416,1783717638.4511,1,1,1.0000,0.0000,1.42063,0.10757,-2.67530,1.04501,1.56188,0.11654,-0.13236,-0.45964,0.06107,,,,,,,,,,,,,,,,,,,,,,,,,,0,0,0,0,0
5.3464,1783717638.4559,1,1,1.0000,0.0000,1.42063,0.10734,-2.67535,1.04529,1.56188,0.11654,-0.13236,-0.45964,0.06100,,,,,,,,,,,,,,,,,,,,,,,,,,0,0,0,0,0
5.3700,1783717638.4795,1,1,1.0000,0.0000,1.42063,0.10658,-2.67553,1.04622,1.56188,0.11653,-0.13236,-0.45965,0.06075,,,,,,,,,,,,,,,,,,,,,,,,,,0,0,0,0,0
5.3704,1783717638.4799,1,1,1.0000,0.0000,1.42063,0.10658,-2.67553,1.04622,1.56188,0.11653,-0.13236,-0.45965,0.06075,,,,,,,,,,,,,,,,,,,,,,,,,,0,0,0,0,0
5.3707,1783717638.4802,1,1,1.0000,0.0000,1.42063,0.10658,-2.67553,1.04622,1.56188,0.11653,-0.13236,-0.45965,0.06075,,,,,,,,,,,,,,,,,,,,,,,,,,0,0,0,0,0
