Martins-Lucaas/twinforge/sensors/Data/20260702_141515__samples.csv
t_rel_s,t_unix,cycle,phase,setpoint_n,force_net_n,q1,q2,q3,q4,q5,q6,tcp_x,tcp_y,tcp_z,taxel_0,taxel_1,taxel_2,taxel_3,taxel_4,taxel_5,taxel_6,taxel_7,taxel_8,taxel_9,taxel_10,taxel_11,taxel_12,taxel_13,taxel_14,taxel_15,taxel_16,taxel_17,taxel_18,taxel_19,taxel_20,taxel_21,taxel_22,taxel_23,taxel_24,n_RA,n_SA,cn_mm,cn_ra,cn_sa
0.0070,1783012515.0896,1,0,1.0000,0.0000,1.44682,0.23328,-2.77760,0.97329,1.57080,0.00000,-0.14513,-0.37992,0.04645,,,,,,,,,,,,,,,,,,,,,,,,,,0,0,0,0,0
0.0192,1783012515.1018,1,0,1.0000,0.0000,1.44682,0.23328,-2.77760,0.97329,1.57080,0.00000,-0.14513,-0.37992,0.04645,,,,,,,,,,,,,,,,,,,,,,,,,,0,0,0,0,0
0.0280,1783012515.1107,1,0,1.0000,0.0000,1.44682,0.23328,-2.77760,0.97329,1.57080,0.00000,-0.14513,-0.37992,0.04645,,,,,,,,,,,,,,,,,,,,,,,,,,0,0,0,0,0
0.0392,1783012515.1218,1,0,1.0000,0.0000,1.44682,0.23328,-2.77760,0.97329,1.57080,0.00000,-0.14513,-0.37992,0.04645,,,,,,,,,,,,,,,,,,,,,,,,,,0,0,0,0,0
0.0494,1783012515.1321,1,0,1.0000,0.0000,1.44682,0.23328,-2.77760,0.97329,1.57080,0.00000,-0.14513,-0.37992,0.04645,,,,,,,,,,,,,,,,,,,,,,,,,,0,0,0,0,0
0.0575,1783012515.1402,1,0,1.0000,0.0000,1.44682,0.23328,-2.77760,0.97329,1.57080,0.00000,-0.14513,-0.37992,0.04645,,,,,,,,,,,,,,,,,,,,,,,,,,0,0,0,0,0
0.0777,1783012515.1603,1,0,1.0000,0.0000,1.44682,0.23328,-2.77760,0.97329,1.57080,0.00000,-0.14513,-0.37992,0.04645,,,,,,,,,,,,,,,,,,,,,,,,,,0,0,0,0,0
0.0798,1783012515.1625,1,0,1.0000,0.0000,1.44682,0.23328,-2.77760,0.97329,1.57080,0.00000,-0.14513,-0.37992,0.04645,,,,,,,,,,,,,,,,,,,,,,,,,,0,0,0,0,0
0.0803,1783012515.1630,1,0,1.0000,0.0000,1.44682,0.23328,-2.77760,0.97329,1.57080,0.00000,-0.14513,-0.37992,0.04645,,,,,,,,,,,,,,,,,,,,,,,,,,0,0,0,0,0
0.0926,1783012515.1752,1,0,1.0000,0.0000,1.44682,0.23328,-2.77760,0.97329,1.57080,0.00000,-0.14513,-0.37992,0.04645,,,,,,,,,,,,,,,,,,,,,,,,,,0,0,0,0,0
0.1003,1783012515.1829,1,0,1.0000,0.0000,1.44682,0.23328,-2.77760,0.97329,1.57080,0.00000,-0.14513,-0.37992,0.04645,,,,,,,,,,,,,,,,,,,,,,,,,,0,0,0,0,0
0.1066,1783012515.1892,1,0,1.0000,0.0000,1.44682,0.23328,-2.77760,0.97329,1.57080,0.00000,-0.14513,-0.37992,0.04645,,,,,,,,,,,,,,,,,,,,,,,,,,0,0,0,0,0
0.1337,1783012515.2163,1,0,1.0000,0.0000,1.44682,0.23328,-2.77760,0.97329,1.57080,0.00000,-0.14513,-0.37992,0.04645,,,,,,,,,,,,,,,,,,,,,,,,,,0,0,0,0,0
0.1364,1783012515.2190,1,0,1.0000,0.0000,1.44682,0.23328,-2.77760,0.97329,1.57080,0.00000,-0.14513,-0.37992,0.04645,,,,,,,,,,,,,,,,,,,,,,,,,,0,0,0,0,0
0.1367,1783012515.2193,1,0,1.0000,0.0000,1.44682,0.23328,-2.77760,0.97329,1.57080,0.00000,-0.14513,-0.37992,0.04645,,,,,,,,,,,,,,,,,,,,,,,,,,0,0,0,0,0
0.1382,1783012515.2208,1,0,1.0000,0.0000,1.44682,0.23328,-2.77760,0.97329,1.57080,0.00000,-0.14513,-0.37992,0.04645,,,,,,,,,,,,,,,,,,,,,,,,,,0,0,0,0,0
0.1465,1783012515.2292,1,0,1.0000,0.0000,1.44682,0.23328,-2.77760,0.97329,1.57080,0.00000,-0.14513,-0.37992,0.04645,,,,,,,,,,,,,,,,,,,,,,,,,,0,0,0,0,0
0.1581,1783012515.2408,1,0,1.0000,0.0000,1.44682,0.23328,-2.77760,0.97329,1.57080,0.00000,-0.14513,-0.37992,0.04645,,,,,,,,,,,,,,,,,,,,,,,,,,0,0,0,0,0
0.1681,1783012515.2507,1,0,1.0000,0.0000,1.44682,0.23328,-2.77760,0.97329,1.57080,0.00000,-0.14513,-0.37992,0.04645,,,,,,,,,,,,,,,,,,,,,,,,,,0,0,0,0,0
0.1778,1783012515.2604,1,0,1.0000,0.0000,1.44682,0.23328,-2.77760,0.97329,1.57080,0.00000,-0.14513,-0.37992,0.04645,,,,,,,,,,,,,,,,,,,,,,,,,,0,0,0,0,0
0.1781,1783012515.2607,1,0,1.0000,0.0000,1.44682,0.23328,-2.77760,0.97329,1.57080,0.00000,-0.14513,-0.37992,0.04645,,,,,,,,,,,,,,,,,,,,,,,,,,0,0,0,0,0
0.1989,1783012515.2816,1,0,1.0000,0.0000,1.44682,0.23328,-2.77760,0.97329,1.57080,0.00000,-0.14513,-0.37992,0.04645,,,,,,,,,,,,,,,,,,,,,,,,,,0,0,0,0,0
0.1992,1783012515.2818,1,0,1.0000,0.0000,1.44682,0.23328,-2.77760,0.97329,1.57080,0.00000,-0.14513,-0.37992,0.04645,,,,,,,,,,,,,,,,,,,,,,,,,,0,0,0,0,0
0.2110,1783012515.2936,1,0,1.0000,0.0000,1.44682,0.23328,-2.77760,0.97329,1.57080,0.00000,-0.14513,-0.37992,0.04645,,,,,,,,,,,,,,,,,,,,,,,,,,0,0,0,0,0
0.2215,1783012515.3042,1,0,1.0000,0.0000,1.44682,0.23328,-2.77760,0.97329,1.57080,0.00000,-0.14513,-0.37992,0.04645,,,,,,,,,,,,,,,,,,,,,,,,,,0,0,0,0,0
0.2308,1783012515.3134,1,0,1.0000,0.0000,1.44682,0.23328,-2.77760,0.97329,1.57080,0.00000,-0.14513,-0.37992,0.04645,,,,,,,,,,,,,,,,,,,,,,,,,,0,0,0,0,0
0.2409,1783012515.3236,1,0,1.0000,0.0000,1.44682,0.23328,-2.77760,0.97329,1.57080,0.00000,-0.14513,-0.37992,0.04645,,,,,,,,,,,,,,,,,,,,,,,,,,0,0,0,0,0
0.2472,1783012515.3299,1,0,1.0000,0.0000,1.44682,0.23328,-2.77760,0.97329,1.57080,0.00000,-0.14513,-0.37992,0.04645,,,,,,,,,,,,,,,,,,,,,,,,,,0,0,0,0,0
0.2570,1783012515.3396,1,0,1.0000,0.0000,1.44682,0.23328,-2.77760,0.97329,1.57080,0.00000,-0.14513,-0.37992,0.04645,,,,,,,,,,,,,,,,,,,,,,,,,,0,0,0,0,0
0.2697,1783012515.3523,1,0,1.0000,0.0000,1.44682,0.23328,-2.77760,0.97329,1.57080,0.00000,-0.14513,-0.37992,0.04645,,,,,,,,,,,,,,,,,,,,,,,,,,0,0,0,0,0
0.2700,1783012515.3526,1,0,1.0000,0.0000,1.44682,0.23328,-2.77760,0.97329,1.57080,0.00000,-0.14513,-0.37992,0.04645,,,,,,,,,,,,,,,,,,,,,,,,,,0,0,0,0,0
0.2818,1783012515.3644,1,0,1.0000,0.0000,1.44682,0.23328,-2.77760,0.97329,1.57080,0.00000,-0.14513,-0.37992,0.04645,,,,,,,,,,,,,,,,,,,,,,,,,,0,0,0,0,0
0.2822,1783012515.3648,1,0,1.0000,0.0000,1.44682,0.23328,-2.77760,0.97329,1.57080,0.00000,-0.14513,-0.37992,0.04645,,,,,,,,,,,,,,,,,,,,,,,,,,0,0,0,0,0
0.2946,1783012515.3772,1,0,1.0000,0.0000,1.44682,0.23328,-2.77760,0.97329,1.57080,0.00000,-0.14513,-0.37992,0.04645,,,,,,,,,,,,,,,,,,,,,,,,,,0,0,0,0,0
0.3026,1783012515.3853,1,0,1.0000,0.0000,1.44682,0.23328,-2.77760,0.97329,1.57080,0.00000,-0.14513,-0.37992,0.04645,,,,,,,,,,,,,,,,,,,,,,,,,,0,0,0,0,0
0.3083,1783012515.3909,1,0,1.0000,0.0000,1.44682,0.23328,-2.77760,0.97329,1.57080,0.00000,-0.14513,-0.37992,0.04645,,,,,,,,,,,,,,,,,,,,,,,,,,0,0,0,0,0
0.3281,1783012515.4107,1,0,1.0000,0.0000,1.44682,0.23328,-2.77760,0.97329,1.57080,0.00000,-0.14513,-0.37992,0.04645,,,,,,,,,,,,,,,,,,,,,,,,,,0,0,0,0,0
0.3299,1783012515.4125,1,0,1.0000,0.0000,1.44682,0.23328,-2.77760,0.97329,1.57080,0.00000,-0.14513,-0.37992,0.04645,,,,,,,,,,,,,,,,,,,,,,,,,,0,0,0,0,0
0.3376,1783012515.4203,1,0,1.0000,0.0000,1.44682,0.23328,-2.77760,0.97329,1.57080,0.00000,-0.14513,-0.37992,0.04645,,,,,,,,,,,,,,,,,,,,,,,,,,0,0,0,0,0
0.3691,1783012515.4517,1,0,1.0000,0.0000,1.44682,0.23328,-2.77760,0.97329,1.57080,0.00000,-0.14513,-0.37992,0.04645,,,,,,,,,,,,,,,,,,,,,,,,,,0,0,0,0,0
0.3697,1783012515.4523,1,0,1.0000,0.0000,1.44682,0.23328,-2.77760,0.97329,1.57080,0.00000,-0.14513,-0.37992,0.04645,,,,,,,,,,,,,,,,,,,,,,,,,,0,0,0,0,0
0.3828,1783012515.4655,1,0,1.0000,0.0000,1.44682,0.23328,-2.77760,0.97329,1.57080,0.00000,-0.14513,-0.37992,0.04645,,,,,,,,,,,,,,,,,,,,,,,,,,0,0,0,0,0
0.4016,1783012515.4843,1,0,1.0000,0.0000,1.44682,0.23328,-2.77760,0.97329,1.57080,0.00000,-0.14513,-0.37992,0.04645,,,,,,,,,,,,,,,,,,,,,,,,,,0,0,0,0,0
0.4019,1783012515.4845,1,0,1.0000,0.0000,1.44682,0.23328,-2.77760,0.97329,1.57080,0.00000,-0.14513,-0.37992,0.04645,,,,,,,,,,,,,,,,,,,,,,,,,,0,0,0,0,0
0.4022,1783012515.4848,1,0,1.0000,0.0000,1.44682,0.23328,-2.77760,0.97329,1.57080,0.00000,-0.14513,-0.37992,0.04645,,,,,,,,,,,,,,,,,,,,,,,,,,0,0,0,0,0
0.4024,1783012515.4851,1,0,1.0000,0.0000,1.44682,0.23328,-2.77760,0.97329,1.57080,0.00000,-0.14513,-0.37992,0.04645,,,,,,,,,,,,,,,,,,,,,,,,,,0,0,0,0,0
0.4144,1783012515.4971,1,0,1.0000,0.0000,1.44682,0.23328,-2.77760,0.97329,1.57080,0.00000,-0.14513,-0.37992,0.04645,,,,,,,,,,,,,,,,,,,,,,,,,,0,0,0,0,0
0.4336,1783012515.5162,1,0,1.0000,0.0000,1.44682,0.23328,-2.77760,0.97329,1.57080,0.00000,-0.14513,-0.37992,0.04645,,,,,,,,,,,,,,,,,,,,,,,,,,0,0,0,0,0
0.4339,1783012515.5165,1,0,1.0000,0.0000,1.44682,0.23328,-2.77760,0.97329,1.57080,0.00000,-0.14513,-0.37992,0.04645,,,,,,,,,,,,,,,,,,,,,,,,,,0,0,0,0,0
0.4379,1783012515.5206,1,0,1.0000,0.0000,1.44682,0.23328,-2.77760,0.97329,1.57080,0.00000,-0.14513,-0.37992,0.04645,,,,,,,,,,,,,,,,,,,,,,,,,,0,0,0,0,0
0.4485,1783012515.5311,1,0,1.0000,0.0000,1.44682,0.23328,-2.77760,0.97329,1.57080,0.00000,-0.14513,-0.37992,0.04645,,,,,,,,,,,,,,,,,,,,,,,,,,0,0,0,0,0
0.4590,1783012515.5416,1,0,1.0000,0.0000,1.44682,0.23328,-2.77760,0.97329,1.57080,0.00000,-0.14513,-0.37992,0.04645,,,,,,,,,,,,,,,,,,,,,,,,,,0,0,0,0,0
0.4666,1783012515.5492,1,0,1.0000,0.0000,1.44682,0.23328,-2.77760,0.97329,1.57080,0.00000,-0.14513,-0.37992,0.04645,,,,,,,,,,,,,,,,,,,,,,,,,,0,0,0,0,0
0.4876,1783012515.5702,1,0,1.0000,0.0000,1.44682,0.23328,-2.77760,0.97329,1.57080,0.00000,-0.14513,-0.37992,0.04645,,,,,,,,,,,,,,,,,,,,,,,,,,0,0,0,0,0
0.4963,1783012515.5789,1,0,1.0000,0.0000,1.44682,0.23328,-2.77760,0.97329,1.57080,0.00000,-0.14513,-0.37992,0.04645,,,,,,,,,,,,,,,,,,,,,,,,,,0,0,0,0,0
0.5036,1783012515.5862,1,0,1.0000,0.0000,1.44682,0.23328,-2.77760,0.97329,1.57080,0.00000,-0.14513,-0.37992,0.04645,,,,,,,,,,,,,,,,,,,,,,,,,,0,0,0,0,0
0.5168,1783012515.5994,1,0,1.0000,0.0000,1.44682,0.23328,-2.77760,0.97329,1.57080,0.00000,-0.14513,-0.37992,0.04645,,,,,,,,,,,,,,,,,,,,,,,,,,0,0,0,0,0
0.5217,1783012515.6044,1,0,1.0000,0.0000,1.44682,0.23328,-2.77760,0.97329,1.57080,0.00000,-0.14513,-0.37992,0.04645,,,,,,,,,,,,,,,,,,,,,,,,,,0,0,0,0,0
0.5317,1783012515.6144,1,0,1.0000,0.0000,1.44682,0.23328,-2.77760,0.97329,1.57080,0.00000,-0.14513,-0.37992,0.04645,,,,,,,,,,,,,,,,,,,,,,,,,,0,0,0,0,0
0.5417,1783012515.6243,1,0,1.0000,0.0000,1.44682,0.23328,-2.77760,0.97329,1.57080,0.00000,-0.14513,-0.37992,0.04645,,,,,,,,,,,,,,,,,,,,,,,,,,0,0,0,0,0
0.5521,1783012515.6347,1,0,1.0000,0.0000,1.44682,0.23328,-2.77760,0.97329,1.57080,0.00000,-0.14513,-0.37992,0.04645,,,,,,,,,,,,,,,,,,,,,,,,,,0,0,0,0,0
0.5616,1783012515.6442,1,0,1.0000,0.0000,1.44682,0.23328,-2.77760,0.97329,1.57080,0.00000,-0.14513,-0.37992,0.04645,,,,,,,,,,,,,,,,,,,,,,,,,,0,0,0,0,0
0.5738,1783012515.6564,1,0,1.0000,0.0000,1.44682,0.23328,-2.77760,0.97329,1.57080,0.00000,-0.14513,-0.37992,0.04645,,,,,,,,,,,,,,,,,,,,,,,,,,0,0,0,0,0
0.5888,1783012515.6715,1,0,1.0000,0.0000,1.44682,0.23328,-2.77760,0.97329,1.57080,0.00000,-0.14513,-0.37992,0.04645,,,,,,,,,,,,,,,,,,,,,,,,,,0,0,0,0,0
0.5979,1783012515.6805,1,0,1.0000,0.0000,1.44682,0.23328,-2.77760,0.97329,1.57080,0.00000,-0.14513,-0.37992,0.04645,,,,,,,,,,,,,,,,,,,,,,,,,,0,0,0,0,0
0.6049,1783012515.6875,1,0,1.0000,0.0000,1.44682,0.23328,-2.77760,0.97329,1.57080,0.00000,-0.14513,-0.37992,0.04645,,,,,,,,,,,,,,,,,,,,,,,,,,0,0,0,0,0
0.6102,1783012515.6929,1,0,1.0000,0.0000,1.44682,0.23328,-2.77760,0.97329,1.57080,0.00000,-0.14513,-0.37992,0.04645,,,,,,,,,,,,,,,,,,,,,,,,,,0,0,0,0,0
0.6204,1783012515.7031,1,0,1.0000,0.0000,1.44682,0.23328,-2.77760,0.97329,1.57080,0.00000,-0.14513,-0.37992,0.04645,,,,,,,,,,,,,,,,,,,,,,,,,,0,0,0,0,0
0.6307,1783012515.7133,1,0,1.0000,0.0000,1.44682,0.23328,-2.77760,0.97329,1.57080,0.00000,-0.14513,-0.37992,0.04645,,,,,,,,,,,,,,,,,,,,,,,,,,0,0,0,0,0
0.6309,1783012515.7136,1,0,1.0000,0.0000,1.44682,0.23328,-2.77760,0.97329,1.57080,0.00000,-0.14513,-0.37992,0.04645,,,,,,,,,,,,,,,,,,,,,,,,,,0,0,0,0,0
0.6426,1783012515.7253,1,0,1.0000,0.0000,1.44682,0.23328,-2.77760,0.97329,1.57080,0.00000,-0.14513,-0.37992,0.04645,,,,,,,,,,,,,,,,,,,,,,,,,,0,0,0,0,0
0.6430,1783012515.7257,1,0,1.0000,0.0000,1.44682,0.23328,-2.77760,0.97329,1.57080,0.00000,-0.14513,-0.37992,0.04645,,,,,,,,,,,,,,,,,,,,,,,,,,0,0,0,0,0
0.6521,1783012515.7348,1,0,1.0000,0.0000,1.44682,0.23328,-2.77760,0.97329,1.57080,0.00000,-0.14513,-0.37992,0.04645,,,,,,,,,,,,,,,,,,,,,,,,,,0,0,0,0,0
0.6603,1783012515.7430,1,0,1.0000,0.0000,1.44682,0.23328,-2.77760,0.97329,1.57080,0.00000,-0.14513,-0.37992,0.04645,,,,,,,,,,,,,,,,,,,,,,,,,,0,0,0,0,0
0.6702,1783012515.7528,1,0,1.0000,0.0000,1.44682,0.23328,-2.77760,0.97329,1.57080,0.00000,-0.14513,-0.37992,0.04645,,,,,,,,,,,,,,,,,,,,,,,,,,0,0,0,0,0
0.6704,1783012515.7531,1,0,1.0000,0.0000,1.44682,0.23328,-2.77760,0.97329,1.57080,0.00000,-0.14513,-0.37992,0.04645,,,,,,,,,,,,,,,,,,,,,,,,,,0,0,0,0,0
0.6809,1783012515.7635,1,0,1.0000,0.0000,1.44682,0.23328,-2.77760,0.97329,1.57080,0.00000,-0.14513,-0.37992,0.04645,,,,,,,,,,,,,,,,,,,,,,,,,,0,0,0,0,0
0.6920,1783012515.7746,1,0,1.0000,0.0000,1.44682,0.23328,-2.77760,0.97329,1.57080,0.00000,-0.14513,-0.37992,0.04645,,,,,,,,,,,,,,,,,,,,,,,,,,0,0,0,0,0
0.7013,1783012515.7839,1,0,1.0000,0.0000,1.44682,0.23328,-2.77760,0.97329,1.57080,0.00000,-0.14513,-0.37992,0.04645,,,,,,,,,,,,,,,,,,,,,,,,,,0,0,0,0,0
0.7137,1783012515.7964,1,0,1.0000,0.0000,1.44682,0.23328,-2.77760,0.97329,1.57080,0.00000,-0.14513,-0.37992,0.04645,,,,,,,,,,,,,,,,,,,,,,,,,,0,0,0,0,0
0.7345,1783012515.8172,1,1,1.0000,0.0000,1.44682,0.23328,-2.77760,0.97329,1.57080,0.00000,-0.14513,-0.37992,0.04645,,,,,,,,,,,,,,,,,,,,,,,,,,0,0,0,0,0
0.7349,1783012515.8176,1,1,1.0000,0.0000,1.44682,0.23328,-2.77760,0.97329,1.57080,0.00000,-0.14513,-0.37992,0.04645,,,,,,,,,,,,,,,,,,,,,,,,,,0,0,0,0,0
0.7423,1783012515.8250,1,1,1.0000,0.0000,1.44682,0.23328,-2.77760,0.97329,1.57080,0.00000,-0.14513,-0.37992,0.04645,,,,,,,,,,,,,,,,,,,,,,,,,,0,0,0,0,0
0.7528,1783012515.8355,1,1,1.0000,0.0000,1.44682,0.23328,-2.77760,0.97329,1.57080,0.00000,-0.14513,-0.37992,0.04645,,,,,,,,,,,,,,,,,,,,,,,,,,0,0,0,0,0
0.7632,1783012515.8459,1,1,1.0000,0.0000,1.44682,0.23328,-2.77760,0.97329,1.57080,0.00000,-0.14513,-0.37992,0.04645,,,,,,,,,,,,,,,,,,,,,,,,,,0,0,0,0,0
0.7721,1783012515.8548,1,1,1.0000,0.0000,1.44682,0.23328,-2.77760,0.97329,1.57080,0.00000,-0.14513,-0.37992,0.04645,,,,,,,,,,,,,,,,,,,,,,,,,,0,0,0,0,0
0.7918,1783012515.8745,1,1,1.0000,0.0000,1.44682,0.23328,-2.77760,0.97329,1.57080,0.00000,-0.14513,-0.37992,0.04645,,,,,,,,,,,,,,,,,,,,,,,,,,0,0,0,0,0
0.7921,1783012515.8748,1,1,1.0000,0.0000,1.44682,0.23328,-2.77760,0.97329,1.57080,0.00000,-0.14513,-0.37992,0.04645,,,,,,,,,,,,,,,,,,,,,,,,,,0,0,0,0,0
0.7937,1783012515.8764,1,1,1.0000,0.0000,1.44682,0.23328,-2.77760,0.97329,1.57080,0.00000,-0.14513,-0.37992,0.04645,,,,,,,,,,,,,,,,,,,,,,,,,,0,0,0,0,0
0.8005,1783012515.8832,1,1,1.0000,0.0000,1.44682,0.23328,-2.77760,0.97329,1.57080,0.00000,-0.14513,-0.37992,0.04645,,,,,,,,,,,,,,,,,,,,,,,,,,0,0,0,0,0
0.8248,1783012515.9075,1,1,1.0000,0.0000,1.44682,0.23328,-2.77760,0.97329,1.57080,0.00000,-0.14513,-0.37992,0.04645,,,,,,,,,,,,,,,,,,,,,,,,,,0,0,0,0,0
0.8253,1783012515.9079,1,1,1.0000,0.0000,1.44682,0.23328,-2.77760,0.97329,1.57080,0.00000,-0.14513,-0.37992,0.04645,,,,,,,,,,,,,,,,,,,,,,,,,,0,0,0,0,0
0.8305,1783012515.9132,1,1,1.0000,0.0000,1.44682,0.23328,-2.77760,0.97329,1.57080,0.00000,-0.14513,-0.37992,0.04645,,,,,,,,,,,,,,,,,,,,,,,,,,0,0,0,0,0
0.8309,1783012515.9136,1,1,1.0000,0.0000,1.44682,0.23328,-2.77760,0.97329,1.57080,0.00000,-0.14513,-0.37992,0.04645,,,,,,,,,,,,,,,,,,,,,,,,,,0,0,0,0,0
0.8505,1783012515.9331,1,1,1.0000,0.0000,1.44682,0.23328,-2.77760,0.97329,1.57080,0.00000,-0.14513,-0.37992,0.04645,,,,,,,,,,,,,,,,,,,,,,,,,,0,0,0,0,0
0.8553,1783012515.9379,1,1,1.0000,0.0000,1.44682,0.23328,-2.77760,0.97329,1.57080,0.00000,-0.14513,-0.37992,0.04645,,,,,,,,,,,,,,,,,,,,,,,,,,0,0,0,0,0
0.8605,1783012515.9432,1,1,1.0000,0.0000,1.44682,0.23328,-2.77760,0.97329,1.57080,0.00000,-0.14513,-0.37992,0.04645,,,,,,,,,,,,,,,,,,,,,,,,,,0,0,0,0,0
0.8733,1783012515.9559,1,1,1.0000,0.0000,1.44682,0.23328,-2.77760,0.97329,1.57080,0.00000,-0.14513,-0.37992,0.04645,,,,,,,,,,,,,,,,,,,,,,,,,,0,0,0,0,0
0.8809,1783012515.9635,1,1,1.0000,0.0000,1.44682,0.23328,-2.77760,0.97329,1.57080,0.00000,-0.14513,-0.37992,0.04645,,,,,,,,,,,,,,,,,,,,,,,,,,0,0,0,0,0
0.8943,1783012515.9769,1,1,1.0000,0.0000,1.44682,0.23328,-2.77760,0.97329,1.57080,0.00000,-0.14513,-0.37992,0.04645,,,,,,,,,,,,,,,,,,,,,,,,,,0,0,0,0,0
0.8947,1783012515.9774,1,1,1.0000,0.0000,1.44682,0.23328,-2.77760,0.97329,1.57080,0.00000,-0.14513,-0.37992,0.04645,,,,,,,,,,,,,,,,,,,,,,,,,,0,0,0,0,0
0.9037,1783012515.9864,1,1,1.0000,0.0000,1.44682,0.23328,-2.77760,0.97329,1.57080,0.00000,-0.14513,-0.37992,0.04645,,,,,,,,,,,,,,,,,,,,,,,,,,0,0,0,0,0
0.9159,1783012515.9986,1,1,1.0000,0.0000,1.44682,0.23328,-2.77760,0.97329,1.57080,0.00000,-0.14513,-0.37992,0.04645,,,,,,,,,,,,,,,,,,,,,,,,,,0,0,0,0,0
0.9162,1783012515.9988,1,1,1.0000,0.0000,1.44682,0.23328,-2.77760,0.97329,1.57080,0.00000,-0.14513,-0.37992,0.04645,,,,,,,,,,,,,,,,,,,,,,,,,,0,0,0,0,0
0.9202,1783012516.0028,1,1,1.0000,0.0000,1.44682,0.23328,-2.77760,0.97329,1.57080,0.00000,-0.14513,-0.37992,0.04645,,,,,,,,,,,,,,,,,,,,,,,,,,0,0,0,0,0
0.9205,1783012516.0032,1,1,1.0000,0.0000,1.44682,0.23328,-2.77760,0.97329,1.57080,0.00000,-0.14513,-0.37992,0.04645,,,,,,,,,,,,,,,,,,,,,,,,,,0,0,0,0,0
0.9352,1783012516.0179,1,1,1.0000,0.0000,1.44682,0.23321,-2.77761,0.97338,1.57080,0.00000,-0.14513,-0.37992,0.04643,,,,,,,,,,,,,,,,,,,,,,,,,,0,0,0,0,0
0.9420,1783012516.0247,1,1,1.0000,0.0000,1.44682,0.23315,-2.77763,0.97345,1.57080,0.00000,-0.14513,-0.37992,0.04642,,,,,,,,,,,,,,,,,,,,,,,,,,0,0,0,0,0
0.9425,1783012516.0252,1,1,1.0000,0.0000,1.44682,0.23315,-2.77763,0.97345,1.57080,0.00000,-0.14513,-0.37992,0.04642,,,,,,,,,,,,,,,,,,,,,,,,,,0,0,0,0,0
0.9504,1783012516.0330,1,1,1.0000,0.0000,1.44682,0.23312,-2.77764,0.97349,1.57080,0.00000,-0.14513,-0.37992,0.04641,,,,,,,,,,,,,,,,,,,,,,,,,,0,0,0,0,0
0.9507,1783012516.0333,1,1,1.0000,0.0000,1.44682,0.23312,-2.77764,0.97349,1.57080,0.00000,-0.14513,-0.37992,0.04641,,,,,,,,,,,,,,,,,,,,,,,,,,0,0,0,0,0
0.9619,1783012516.0445,1,1,1.0000,0.0000,1.44682,0.23308,-2.77765,0.97353,1.57080,0.00000,-0.14513,-0.37992,0.04640,,,,,,,,,,,,,,,,,,,,,,,,,,0,0,0,0,0
0.9706,1783012516.0533,1,1,1.0000,0.0000,1.44682,0.23304,-2.77766,0.97359,1.57080,0.00000,-0.14513,-0.37992,0.04639,,,,,,,,,,,,,,,,,,,,,,,,,,0,0,0,0,0
0.9802,1783012516.0628,1,1,1.0000,0.0000,1.44682,0.23299,-2.77767,0.97365,1.57080,0.00000,-0.14513,-0.37992,0.04638,,,,,,,,,,,,,,,,,,,,,,,,,,0,0,0,0,0
0.9806,1783012516.0632,1,1,1.0000,0.0000,1.44682,0.23299,-2.77767,0.97365,1.57080,0.00000,-0.14513,-0.37992,0.04638,,,,,,,,,,,,,,,,,,,,,,,,,,0,0,0,0,0
1.0040,1783012516.0866,1,1,1.0000,0.0000,1.44682,0.23292,-2.77769,0.97373,1.57080,0.00000,-0.14513,-0.37992,0.04636,,,,,,,,,,,,,,,,,,,,,,,,,,0,0,0,0,0
1.0066,1783012516.0893,1,1,1.0000,0.0000,1.44682,0.23290,-2.77769,0.97376,1.57080,0.00000,-0.14513,-0.37992,0.04635,,,,,,,,,,,,,,,,,,,,,,,,,,0,0,0,0,0
1.0069,1783012516.0895,1,1,1.0000,0.0000,1.44682,0.23290,-2.77769,0.97376,1.57080,0.00000,-0.14513,-0.37992,0.04635,,,,,,,,,,,,,,,,,,,,,,,,,,0,0,0,0,0
1.0405,1783012516.1232,1,1,1.0000,0.0000,1.44682,0.23276,-2.77773,0.97393,1.57080,0.00000,-0.14513,-0.37992,0.04632,,,,,,,,,,,,,,,,,,,,,,,,,,0,0,0,0,0
1.0445,1783012516.1271,1,1,1.0000,0.0000,1.44682,0.23276,-2.77773,0.97393,1.57080,0.00000,-0.14513,-0.37992,0.04632,,,,,,,,,,,,,,,,,,,,,,,,,,0,0,0,0,0
1.0449,1783012516.1275,1,1,1.0000,0.0000,1.44682,0.23276,-2.77773,0.97393,1.57080,0.00000,-0.14513,-0.37992,0.04632,,,,,,,,,,,,,,,,,,,,,,,,,,0,0,0,0,0
1.0457,1783012516.1284,1,1,1.0000,0.0000,1.44682,0.23276,-2.77773,0.97394,1.57080,0.00000,-0.14513,-0.37992,0.04632,,,,,,,,,,,,,,,,,,,,,,,,,,0,0,0,0,0
1.0613,1783012516.1439,1,1,1.0000,0.0000,1.44682,0.23272,-2.77774,0.97399,1.57080,0.00000,-0.14513,-0.37992,0.04631,,,,,,,,,,,,,,,,,,,,,,,,,,0,0,0,0,0
1.0923,1783012516.1749,1,1,1.0000,0.0000,1.44682,0.23259,-2.77777,0.97415,1.57080,0.00000,-0.14513,-0.37992,0.04627,,,,,,,,,,,,,,,,,,,,,,,,,,0,0,0,0,0
1.0927,1783012516.1753,1,1,1.0000,0.0000,1.44682,0.23259,-2.77777,0.97415,1.57080,0.00000,-0.14513,-0.37992,0.04627,,,,,,,,,,,,,,,,,,,,,,,,,,0,0,0,0,0
1.0930,1783012516.1757,1,1,1.0000,0.0000,1.44682,0.23259,-2.77777,0.97415,1.57080,0.00000,-0.14513,-0.37992,0.04627,,,,,,,,,,,,,,,,,,,,,,,,,,0,0,0,0,0
1.1066,1783012516.1893,1,1,1.0000,0.0000,1.44682,0.23254,-2.77779,0.97422,1.57080,0.00000,-0.14513,-0.37992,0.04626,,,,,,,,,,,,,,,,,,,,,,,,,,0,0,0,0,0
1.1246,1783012516.2072,1,1,1.0000,0.0000,1.44682,0.23248,-2.77780,0.97429,1.57080,0.00000,-0.14513,-0.37992,0.04624,,,,,,,,,,,,,,,,,,,,,,,,,,0,0,0,0,0
1.1304,1783012516.2130,1,1,1.0000,0.0000,1.44682,0.23246,-2.77781,0.97432,1.57080,0.00000,-0.14513,-0.37992,0.04624,,,,,,,,,,,,,,,,,,,,,,,,,,0,0,0,0,0
1.1428,1783012516.2254,1,1,1.0000,0.0000,1.44682,0.23242,-2.77782,0.97437,1.57080,0.00000,-0.14513,-0.37992,0.04623,,,,,,,,,,,,,,,,,,,,,,,,,,0,0,0,0,0
1.1546,1783012516.2372,1,1,1.0000,0.0000,1.44682,0.23234,-2.77784,0.97446,1.57080,0.00000,-0.14513,-0.37992,0.04621,,,,,,,,,,,,,,,,,,,,,,,,,,0,0,0,0,0
1.1663,1783012516.2490,1,1,1.0000,0.0000,1.44682,0.23231,-2.77784,0.97450,1.57080,0.00000,-0.14513,-0.37992,0.04620,,,,,,,,,,,,,,,,,,,,,,,,,,0,0,0,0,0
1.1668,1783012516.2494,1,1,1.0000,0.0000,1.44682,0.23231,-2.77784,0.97450,1.57080,0.00000,-0.14513,-0.37992,0.04620,,,,,,,,,,,,,,,,,,,,,,,,,,0,0,0,0,0
1.1702,1783012516.2528,1,1,1.0000,0.0000,1.44682,0.23230,-2.77785,0.97451,1.57080,0.00000,-0.14513,-0.37992,0.04620,,,,,,,,,,,,,,,,,,,,,,,,,,0,0,0,0,0
1.1810,1783012516.2636,1,1,1.0000,0.0000,1.44682,0.23226,-2.77786,0.97457,1.57080,0.00000,-0.14513,-0.37992,0.04619,,,,,,,,,,,,,,,,,,,,,,,,,,0,0,0,0,0
1.1906,1783012516.2732,1,1,1.0000,0.0000,1.44682,0.23221,-2.77787,0.97463,1.57080,0.00001,-0.14513,-0.37992,0.04617,,,,,,,,,,,,,,,,,,,,,,,,,,0,0,0,0,0
1.1910,1783012516.2736,1,1,1.0000,0.0000,1.44682,0.23221,-2.77787,0.97463,1.57080,0.00001,-0.14513,-0.37992,0.04617,,,,,,,,,,,,,,,,,,,,,,,,,,0,0,0,0,0
1.2019,1783012516.2845,1,1,1.0000,0.0000,1.44682,0.23217,-2.77788,0.97467,1.57080,0.00001,-0.14513,-0.37992,0.04616,,,,,,,,,,,,,,,,,,,,,,,,,,0,0,0,0,0
1.2022,1783012516.2849,1,1,1.0000,0.0000,1.44682,0.23217,-2.77788,0.97467,1.57080,0.00001,-0.14513,-0.37992,0.04616,,,,,,,,,,,,,,,,,,,,,,,,,,0,0,0,0,0
1.2120,1783012516.2947,1,1,1.0000,0.0000,1.44682,0.23213,-2.77789,0.97473,1.57080,0.00001,-0.14513,-0.37992,0.04615,,,,,,,,,,,,,,,,,,,,,,,,,,0,0,0,0,0
1.2208,1783012516.3034,1,1,1.0000,0.0000,1.44682,0.23208,-2.77791,0.97480,1.57080,0.00001,-0.14513,-0.37992,0.04614,,,,,,,,,,,,,,,,,,,,,,,,,,0,0,0,0,0
1.2322,1783012516.3148,1,1,1.0000,0.0000,1.44682,0.23206,-2.77791,0.97482,1.57080,0.00001,-0.14513,-0.37992,0.04613,,,,,,,,,,,,,,,,,,,,,,,,,,0,0,0,0,0
1.2327,1783012516.3153,1,1,1.0000,0.0000,1.44682,0.23206,-2.77791,0.97482,1.57080,0.00001,-0.14513,-0.37992,0.04613,,,,,,,,,,,,,,,,,,,,,,,,,,0,0,0,0,0
1.2465,1783012516.3291,1,1,1.0000,0.0000,1.44682,0.23197,-2.77793,0.97494,1.57080,0.00001,-0.14513,-0.37992,0.04611,,,,,,,,,,,,,,,,,,,,,,,,,,0,0,0,0,0
1.2505,1783012516.3332,1,1,1.0000,0.0000,1.44682,0.23197,-2.77793,0.97494,1.57080,0.00001,-0.14513,-0.37992,0.04611,,,,,,,,,,,,,,,,,,,,,,,,,,0,0,0,0,0
1.2608,1783012516.3434,1,1,1.0000,0.0000,1.44682,0.23195,-2.77794,0.97496,1.57080,0.00001,-0.14513,-0.37992,0.04611,,,,,,,,,,,,,,,,,,,,,,,,,,0,0,0,0,0
1.2726,1783012516.3552,1,1,1.0000,0.0000,1.44682,0.23188,-2.77796,0.97504,1.57080,0.00001,-0.14513,-0.37992,0.04609,,,,,,,,,,,,,,,,,,,,,,,,,,0,0,0,0,0
1.2828,1783012516.3654,1,1,1.0000,0.0000,1.44682,0.23183,-2.77797,0.97510,1.57080,0.00001,-0.14513,-0.37992,0.04608,,,,,,,,,,,,,,,,,,,,,,,,,,0,0,0,0,0
1.2914,1783012516.3740,1,1,1.0000,0.0000,1.44682,0.23182,-2.77797,0.97512,1.57080,0.00001,-0.14513,-0.37992,0.04607,,,,,,,,,,,,,,,,,,,,,,,,,,0,0,0,0,0
1.3140,1783012516.3966,1,1,1.0000,0.0000,1.44682,0.23172,-2.77800,0.97525,1.57080,0.00001,-0.14513,-0.37992,0.04605,,,,,,,,,,,,,,,,,,,,,,,,,,0,0,0,0,0
1.3152,1783012516.3979,1,1,1.0000,0.0000,1.44682,0.23172,-2.77800,0.97525,1.57080,0.00001,-0.14513,-0.37992,0.04605,,,,,,,,,,,,,,,,,,,,,,,,,,0,0,0,0,0
1.3257,1783012516.4084,1,1,1.0000,0.0000,1.44682,0.23167,-2.77801,0.97531,1.57080,0.00001,-0.14513,-0.37992,0.04603,,,,,,,,,,,,,,,,,,,,,,,,,,0,0,0,0,0
1.3311,1783012516.4138,1,1,1.0000,0.0000,1.44682,0.23164,-2.77802,0.97534,1.57080,0.00001,-0.14513,-0.37992,0.04603,,,,,,,,,,,,,,,,,,,,,,,,,,0,0,0,0,0
1.3315,1783012516.4141,1,1,1.0000,0.0000,1.44682,0.23164,-2.77802,0.97534,1.57080,0.00001,-0.14513,-0.37992,0.04603,,,,,,,,,,,,,,,,,,,,,,,,,,0,0,0,0,0
1.3519,1783012516.4346,1,1,1.0000,0.0000,1.44682,0.23157,-2.77804,0.97543,1.57080,0.00001,-0.14513,-0.37992,0.04601,,,,,,,,,,,,,,,,,,,,,,,,,,0,0,0,0,0
1.3523,1783012516.4349,1,1,1.0000,0.0000,1.44682,0.23157,-2.77804,0.97543,1.57080,0.00001,-0.14513,-0.37992,0.04601,,,,,,,,,,,,,,,,,,,,,,,,,,0,0,0,0,0
1.3603,1783012516.4430,1,1,1.0000,0.0000,1.44682,0.23153,-2.77805,0.97548,1.57080,0.00001,-0.14513,-0.37992,0.04600,,,,,,,,,,,,,,,,,,,,,,,,,,0,0,0,0,0
1.3705,1783012516.4532,1,1,1.0000,0.0000,1.44682,0.23148,-2.77806,0.97555,1.57080,0.00001,-0.14513,-0.37992,0.04598,,,,,,,,,,,,,,,,,,,,,,,,,,0,0,0,0,0
1.3820,1783012516.4646,1,1,1.0000,0.0000,1.44682,0.23145,-2.77807,0.97559,1.57080,0.00001,-0.14513,-0.37992,0.04597,,,,,,,,,,,,,,,,,,,,,,,,,,0,0,0,0,0
1.3824,1783012516.4651,1,1,1.0000,0.0000,1.44682,0.23145,-2.77807,0.97559,1.57080,0.00001,-0.14513,-0.37992,0.04597,,,,,,,,,,,,,,,,,,,,,,,,,,0,0,0,0,0
1.3954,1783012516.4781,1,1,1.0000,0.0000,1.44682,0.23137,-2.77809,0.97568,1.57080,0.00001,-0.14513,-0.37992,0.04596,,,,,,,,,,,,,,,,,,,,,,,,,,0,0,0,0,0
1.4058,1783012516.4884,1,1,1.0000,0.0000,1.44682,0.23134,-2.77809,0.97572,1.57080,0.00001,-0.14513,-0.37992,0.04595,,,,,,,,,,,,,,,,,,,,,,,,,,0,0,0,0,0
1.4288,1783012516.5115,1,1,1.0000,0.0000,1.44682,0.23124,-2.77812,0.97585,1.57080,0.00001,-0.14513,-0.37992,0.04592,,,,,,,,,,,,,,,,,,,,,,,,,,0,0,0,0,0
1.4292,1783012516.5118,1,1,1.0000,0.0000,1.44682,0.23124,-2.77812,0.97585,1.57080,0.00001,-0.14513,-0.37992,0.04592,,,,,,,,,,,,,,,,,,,,,,,,,,0,0,0,0,0
1.4341,1783012516.5167,1,1,1.0000,0.0000,1.44682,0.23123,-2.77812,0.97586,1.57080,0.00001,-0.14513,-0.37992,0.04592,,,,,,,,,,,,,,,,,,,,,,,,,,0,0,0,0,0
1.4458,1783012516.5284,1,1,1.0000,0.0000,1.44682,0.23118,-2.77814,0.97592,1.57080,0.00001,-0.14513,-0.37992,0.04591,,,,,,,,,,,,,,,,,,,,,,,,,,0,0,0,0,0
1.4543,1783012516.5370,1,1,1.0000,0.0000,1.44682,0.23113,-2.77815,0.97599,1.57080,0.00001,-0.14513,-0.37992,0.04589,,,,,,,,,,,,,,,,,,,,,,,,,,0,0,0,0,0
1.4548,1783012516.5374,1,1,1.0000,0.0000,1.44682,0.23113,-2.77815,0.97599,1.57080,0.00001,-0.14513,-0.37992,0.04589,,,,,,,,,,,,,,,,,,,,,,,,,,0,0,0,0,0
1.4621,1783012516.5447,1,1,1.0000,0.0000,1.44682,0.23110,-2.77816,0.97602,1.57080,0.00001,-0.14513,-0.37992,0.04589,,,,,,,,,,,,,,,,,,,,,,,,,,0,0,0,0,0
1.4860,1783012516.5687,1,1,1.0000,0.0000,1.44682,0.23099,-2.77818,0.97616,1.57080,0.00001,-0.14513,-0.37992,0.04586,,,,,,,,,,,,,,,,,,,,,,,,,,0,0,0,0,0
1.5333,1783012516.6159,1,1,1.0000,0.0000,1.44682,0.23087,-2.77822,0.97632,1.57080,0.00001,-0.14513,-0.37992,0.04582,,,,,,,,,,,,,,,,,,,,,,,,,,0,0,0,0,0
1.5338,1783012516.6165,1,1,1.0000,0.0000,1.44682,0.23085,-2.77822,0.97634,1.57080,0.00001,-0.14513,-0.37992,0.04582,,,,,,,,,,,,,,,,,,,,,,,,,,0,0,0,0,0
1.5340,1783012516.6166,1,1,1.0000,0.0000,1.44682,0.23085,-2.77822,0.97634,1.57080,0.00001,-0.14513,-0.37992,0.04582,,,,,,,,,,,,,,,,,,,,,,,,,,0,0,0,0,0
1.5343,1783012516.6169,1,1,1.0000,0.0000,1.44682,0.23085,-2.77822,0.97634,1.57080,0.00001,-0.14513,-0.37992,0.04582,,,,,,,,,,,,,,,,,,,,,,,,,,0,0,0,0,0
1.5368,1783012516.6195,1,1,1.0000,0.0000,1.44682,0.23085,-2.77822,0.97634,1.57080,0.00001,-0.14513,-0.37992,0.04582,,,,,,,,,,,,,,,,,,,,,,,,,,0,0,0,0,0
1.5372,1783012516.6198,1,1,1.0000,0.0000,1.44682,0.23085,-2.77822,0.97634,1.57080,0.00001,-0.14513,-0.37992,0.04582,,,,,,,,,,,,,,,,,,,,,,,,,,0,0,0,0,0
1.5377,1783012516.6204,1,1,1.0000,0.0000,1.44682,0.23082,-2.77823,0.97637,1.57080,0.00001,-0.14513,-0.37992,0.04581,,,,,,,,,,,,,,,,,,,,,,,,,,0,0,0,0,0
1.5405,1783012516.6232,1,1,1.0000,0.0000,1.44682,0.23082,-2.77823,0.97637,1.57080,0.00001,-0.14513,-0.37992,0.04581,,,,,,,,,,,,,,,,,,,,,,,,,,0,0,0,0,0
1.5409,1783012516.6236,1,1,1.0000,0.0000,1.44682,0.23082,-2.77823,0.97637,1.57080,0.00001,-0.14513,-0.37992,0.04581,,,,,,,,,,,,,,,,,,,,,,,,,,0,0,0,0,0
1.5764,1783012516.6590,1,1,1.0000,0.0000,1.44682,0.23068,-2.77826,0.97655,1.57080,0.00001,-0.14513,-0.37992,0.04578,,,,,,,,,,,,,,,,,,,,,,,,,,0,0,0,0,0
1.5769,1783012516.6595,1,1,1.0000,0.0000,1.44682,0.23068,-2.77826,0.97655,1.57080,0.00001,-0.14513,-0.37992,0.04578,,,,,,,,,,,,,,,,,,,,,,,,,,0,0,0,0,0
1.5883,1783012516.6710,1,1,1.0000,0.0000,1.44682,0.23066,-2.77827,0.97658,1.57080,0.00001,-0.14513,-0.37992,0.04577,,,,,,,,,,,,,,,,,,,,,,,,,,0,0,0,0,0
1.5888,1783012516.6714,1,1,1.0000,0.0000,1.44682,0.23066,-2.77827,0.97658,1.57080,0.00001,-0.14513,-0.37992,0.04577,,,,,,,,,,,,,,,,,,,,,,,,,,0,0,0,0,0
1.6081,1783012516.6908,1,1,1.0000,0.0000,1.44682,0.23055,-2.77830,0.97672,1.57080,0.00001,-0.14513,-0.37992,0.04574,,,,,,,,,,,,,,,,,,,,,,,,,,0,0,0,0,0
1.6121,1783012516.6947,1,1,1.0000,0.0000,1.44682,0.23052,-2.77831,0.97675,1.57080,0.00001,-0.14513,-0.37992,0.04573,,,,,,,,,,,,,,,,,,,,,,,,,,0,0,0,0,0
1.6205,1783012516.7032,1,1,1.0000,0.0000,1.44682,0.23052,-2.77831,0.97675,1.57080,0.00001,-0.14513,-0.37992,0.04573,,,,,,,,,,,,,,,,,,,,,,,,,,0,0,0,0,0
1.6210,1783012516.7037,1,1,1.0000,0.0000,1.44682,0.23052,-2.77831,0.97675,1.57080,0.00001,-0.14513,-0.37992,0.04573,,,,,,,,,,,,,,,,,,,,,,,,,,0,0,0,0,0
1.6343,1783012516.7169,1,1,1.0000,0.0000,1.44682,0.23046,-2.77832,0.97683,1.57080,0.00001,-0.14513,-0.37992,0.04572,,,,,,,,,,,,,,,,,,,,,,,,,,0,0,0,0,0
1.6446,1783012516.7272,1,1,1.0000,0.0000,1.44682,0.23044,-2.77833,0.97686,1.57080,0.00001,-0.14513,-0.37992,0.04571,,,,,,,,,,,,,,,,,,,,,,,,,,0,0,0,0,0
1.6518,1783012516.7345,1,1,1.0000,0.0000,1.44682,0.23042,-2.77833,0.97688,1.57080,0.00001,-0.14513,-0.37992,0.04571,,,,,,,,,,,,,,,,,,,,,,,,,,0,0,0,0,0
1.6616,1783012516.7443,1,1,1.0000,0.0000,1.44682,0.23035,-2.77835,0.97696,1.57080,0.00001,-0.14513,-0.37992,0.04569,,,,,,,,,,,,,,,,,,,,,,,,,,0,0,0,0,0
1.6705,1783012516.7532,1,1,1.0000,0.0000,1.44682,0.23030,-2.77836,0.97703,1.57080,0.00001,-0.14513,-0.37992,0.04568,,,,,,,,,,,,,,,,,,,,,,,,,,0,0,0,0,0
1.6708,1783012516.7535,1,1,1.0000,0.0000,1.44682,0.23030,-2.77836,0.97703,1.57080,0.00001,-0.14513,-0.37992,0.04568,,,,,,,,,,,,,,,,,,,,,,,,,,0,0,0,0,0
1.6820,1783012516.7646,1,1,1.0000,0.0000,1.44682,0.23029,-2.77837,0.97705,1.57080,0.00001,-0.14513,-0.37992,0.04567,,,,,,,,,,,,,,,,,,,,,,,,,,0,0,0,0,0
1.6823,1783012516.7650,1,1,1.0000,0.0000,1.44682,0.23029,-2.77837,0.97705,1.57080,0.00001,-0.14513,-0.37992,0.04567,,,,,,,,,,,,,,,,,,,,,,,,,,0,0,0,0,0
1.7004,1783012516.7830,1,1,1.0000,0.0000,1.44682,0.23021,-2.77838,0.97714,1.57080,0.00001,-0.14513,-0.37992,0.04565,,,,,,,,,,,,,,,,,,,,,,,,,,0,0,0,0,0
1.7007,1783012516.7834,1,1,1.0000,0.0000,1.44682,0.23021,-2.77838,0.97714,1.57080,0.00001,-0.14513,-0.37992,0.04565,,,,,,,,,,,,,,,,,,,,,,,,,,0,0,0,0,0
1.7213,1783012516.8039,1,1,1.0000,0.0000,1.44682,0.23015,-2.77840,0.97721,1.57080,0.00001,-0.14513,-0.37992,0.04564,,,,,,,,,,,,,,,,,,,,,,,,,,0,0,0,0,0
1.7252,1783012516.8079,1,1,1.0000,0.0000,1.44682,0.23013,-2.77841,0.97724,1.57080,0.00001,-0.14513,-0.37992,0.04563,,,,,,,,,,,,,,,,,,,,,,,,,,0,0,0,0,0
1.7258,1783012516.8085,1,1,1.0000,0.0000,1.44682,0.23010,-2.77841,0.97728,1.57080,0.00001,-0.14513,-0.37992,0.04562,,,,,,,,,,,,,,,,,,,,,,,,,,0,0,0,0,0
1.7429,1783012516.8255,1,1,1.0000,0.0000,1.44682,0.23006,-2.77842,0.97733,1.57080,0.00001,-0.14513,-0.37992,0.04561,,,,,,,,,,,,,,,,,,,,,,,,,,0,0,0,0,0
1.7439,1783012516.8265,1,1,1.0000,0.0000,1.44682,0.23006,-2.77842,0.97733,1.57080,0.00001,-0.14513,-0.37992,0.04561,,,,,,,,,,,,,,,,,,,,,,,,,,0,0,0,0,0
1.7554,1783012516.8380,1,1,1.0000,0.0000,1.44682,0.23001,-2.77844,0.97739,1.57080,0.00001,-0.14513,-0.37992,0.04560,,,,,,,,,,,,,,,,,,,,,,,,,,0,0,0,0,0
1.7623,1783012516.8449,1,1,1.0000,0.0000,1.44682,0.22999,-2.77844,0.97742,1.57080,0.00001,-0.14513,-0.37992,0.04559,,,,,,,,,,,,,,,,,,,,,,,,,,0,0,0,0,0
1.7704,1783012516.8530,1,1,1.0000,0.0000,1.44682,0.22997,-2.77845,0.97744,1.57080,0.00001,-0.14513,-0.37992,0.04559,,,,,,,,,,,,,,,,,,,,,,,,,,0,0,0,0,0
1.7803,1783012516.8630,1,1,1.0000,0.0000,1.44682,0.22993,-2.77846,0.97749,1.57080,0.00001,-0.14513,-0.37992,0.04558,,,,,,,,,,,,,,,,,,,,,,,,,,0,0,0,0,0
1.7807,1783012516.8634,1,1,1.0000,0.0000,1.44682,0.22993,-2.77846,0.97749,1.57080,0.00001,-0.14513,-0.37992,0.04558,,,,,,,,,,,,,,,,,,,,,,,,,,0,0,0,0,0
1.7922,1783012516.8748,1,1,1.0000,0.0000,1.44682,0.22985,-2.77848,0.97759,1.57080,0.00001,-0.14513,-0.37992,0.04556,,,,,,,,,,,,,,,,,,,,,,,,,,0,0,0,0,0
1.8004,1783012516.8831,1,1,1.0000,0.0000,1.44682,0.22985,-2.77848,0.97760,1.57080,0.00001,-0.14513,-0.37992,0.04556,,,,,,,,,,,,,,,,,,,,,,,,,,0,0,0,0,0
1.8153,1783012516.8979,1,1,1.0000,0.0000,1.44682,0.22977,-2.77850,0.97769,1.57080,0.00001,-0.14513,-0.37992,0.04554,,,,,,,,,,,,,,,,,,,,,,,,,,0,0,0,0,0
1.8228,1783012516.9054,1,1,1.0000,0.0000,1.44682,0.22974,-2.77850,0.97773,1.57080,0.00001,-0.14513,-0.37992,0.04553,,,,,,,,,,,,,,,,,,,,,,,,,,0,0,0,0,0
1.8343,1783012516.9169,1,1,1.0000,0.0000,1.44682,0.22971,-2.77851,0.97777,1.57080,0.00001,-0.14513,-0.37992,0.04552,,,,,,,,,,,,,,,,,,,,,,,,,,0,0,0,0,0
1.8438,1783012516.9265,1,1,1.0000,0.0000,1.44682,0.22966,-2.77853,0.97783,1.57080,0.00001,-0.14513,-0.37992,0.04551,,,,,,,,,,,,,,,,,,,,,,,,,,0,0,0,0,0
1.8442,1783012516.9268,1,1,1.0000,0.0000,1.44682,0.22966,-2.77853,0.97783,1.57080,0.00001,-0.14513,-0.37992,0.04551,,,,,,,,,,,,,,,,,,,,,,,,,,0,0,0,0,0
1.8501,1783012516.9328,1,1,1.0000,0.0000,1.44682,0.22961,-2.77854,0.97790,1.57080,0.00001,-0.14513,-0.37992,0.04550,,,,,,,,,,,,,,,,,,,,,,,,,,0,0,0,0,0
1.8506,1783012516.9333,1,1,1.0000,0.0000,1.44682,0.22961,-2.77854,0.97790,1.57080,0.00001,-0.14513,-0.37992,0.04550,,,,,,,,,,,,,,,,,,,,,,,,,,0,0,0,0,0
1.8604,1783012516.9430,1,1,1.0000,0.0000,1.44682,0.22960,-2.77854,0.97790,1.57080,0.00001,-0.14513,-0.37992,0.04549,,,,,,,,,,,,,,,,,,,,,,,,,,0,0,0,0,0
1.8727,1783012516.9554,1,1,1.0000,0.0000,1.44682,0.22955,-2.77855,0.97797,1.57080,0.00001,-0.14513,-0.37992,0.04548,,,,,,,,,,,,,,,,,,,,,,,,,,0,0,0,0,0
1.8806,1783012516.9632,1,1,1.0000,0.0000,1.44682,0.22950,-2.77857,0.97803,1.57080,0.00001,-0.14513,-0.37992,0.04547,,,,,,,,,,,,,,,,,,,,,,,,,,0,0,0,0,0
1.8909,1783012516.9736,1,1,1.0000,0.0000,1.44682,0.22948,-2.77857,0.97805,1.57080,0.00001,-0.14513,-0.37992,0.04546,,,,,,,,,,,,,,,,,,,,,,,,,,0,0,0,0,0
1.9028,1783012516.9854,1,1,1.0000,0.0000,1.44682,0.22942,-2.77859,0.97814,1.57080,0.00001,-0.14513,-0.37992,0.04545,,,,,,,,,,,,,,,,,,,,,,,,,,0,0,0,0,0
1.9219,1783012517.0045,1,1,1.0000,0.0000,1.44682,0.22935,-2.77861,0.97822,1.57080,0.00001,-0.14513,-0.37992,0.04543,,,,,,,,,,,,,,,,,,,,,,,,,,0,0,0,0,0
1.9245,1783012517.0072,1,1,1.0000,0.0000,1.44682,0.22935,-2.77861,0.97822,1.57080,0.00001,-0.14513,-0.37992,0.04543,,,,,,,,,,,,,,,,,,,,,,,,,,0,0,0,0,0
1.9311,1783012517.0137,1,1,1.0000,0.0000,1.44682,0.22931,-2.77862,0.97827,1.57080,0.00001,-0.14513,-0.37992,0.04542,,,,,,,,,,,,,,,,,,,,,,,,,,0,0,0,0,0
1.9403,1783012517.0230,1,1,1.0000,0.0000,1.44682,0.22926,-2.77863,0.97834,1.57080,0.00001,-0.14513,-0.37992,0.04540,,,,,,,,,,,,,,,,,,,,,,,,,,0,0,0,0,0
1.9503,1783012517.0329,1,1,1.0000,0.0000,1.44682,0.22924,-2.77863,0.97836,1.57080,0.00001,-0.14513,-0.37992,0.04540,,,,,,,,,,,,,,,,,,,,,,,,,,0,0,0,0,0
1.9507,1783012517.0334,1,1,1.0000,0.0000,1.44682,0.22924,-2.77863,0.97836,1.57080,0.00001,-0.14513,-0.37992,0.04540,,,,,,,,,,,,,,,,,,,,,,,,,,0,0,0,0,0
1.9659,1783012517.0485,1,1,1.0000,0.0000,1.44682,0.22915,-2.77866,0.97848,1.57080,0.00001,-0.14513,-0.37992,0.04538,,,,,,,,,,,,,,,,,,,,,,,,,,0,0,0,0,0
1.9707,1783012517.0533,1,1,1.0000,0.0000,1.44682,0.22912,-2.77866,0.97851,1.57080,0.00001,-0.14513,-0.37992,0.04537,,,,,,,,,,,,,,,,,,,,,,,,,,0,0,0,0,0
1.9710,1783012517.0536,1,1,1.0000,0.0000,1.44682,0.22912,-2.77866,0.97851,1.57080,0.00001,-0.14513,-0.37992,0.04537,,,,,,,,,,,,,,,,,,,,,,,,,,0,0,0,0,0
1.9825,1783012517.0652,1,1,1.0000,0.0000,1.44682,0.22911,-2.77867,0.97853,1.57080,0.00001,-0.14513,-0.37992,0.04536,,,,,,,,,,,,,,,,,,,,,,,,,,0,0,0,0,0
1.9915,1783012517.0741,1,1,1.0000,0.0000,1.44682,0.22906,-2.77868,0.97858,1.57080,0.00001,-0.14513,-0.37992,0.04535,,,,,,,,,,,,,,,,,,,,,,,,,,0,0,0,0,0
2.0006,1783012517.0832,1,1,1.0000,0.0000,1.44682,0.22901,-2.77869,0.97865,1.57080,0.00001,-0.14513,-0.37992,0.04534,,,,,,,,,,,,,,,,,,,,,,,,,,0,0,0,0,0
2.0248,1783012517.1074,1,1,1.0000,0.0000,1.44682,0.22893,-2.77871,0.97875,1.57080,0.00001,-0.14513,-0.37992,0.04532,,,,,,,,,,,,,,,,,,,,,,,,,,0,0,0,0,0
2.0252,1783012517.1078,1,1,1.0000,0.0000,1.44682,0.22893,-2.77871,0.97875,1.57080,0.00001,-0.14513,-0.37992,0.04532,,,,,,,,,,,,,,,,,,,,,,,,,,0,0,0,0,0
2.0304,1783012517.1130,1,1,1.0000,0.0000,1.44682,0.22888,-2.77873,0.97881,1.57080,0.00001,-0.14513,-0.37992,0.04531,,,,,,,,,,,,,,,,,,,,,,,,,,0,0,0,0,0
2.0465,1783012517.1291,1,1,1.0000,0.0000,1.44682,0.22884,-2.77873,0.97886,1.57080,0.00001,-0.14513,-0.37992,0.04530,,,,,,,,,,,,,,,,,,,,,,,,,,0,0,0,0,0
2.0516,1783012517.1343,1,1,1.0000,0.0000,1.44682,0.22882,-2.77874,0.97889,1.57080,0.00001,-0.14513,-0.37992,0.04529,,,,,,,,,,,,,,,,,,,,,,,,,,0,0,0,0,0
2.0520,1783012517.1346,1,1,1.0000,0.0000,1.44682,0.22882,-2.77874,0.97889,1.57080,0.00001,-0.14513,-0.37992,0.04529,,,,,,,,,,,,,,,,,,,,,,,,,,0,0,0,0,0
2.0645,1783012517.1472,1,1,1.0000,0.0000,1.44682,0.22874,-2.77876,0.97898,1.57080,0.00001,-0.14513,-0.37992,0.04527,,,,,,,,,,,,,,,,,,,,,,,,,,0,0,0,0,0
2.0724,1783012517.1551,1,1,1.0000,0.0000,1.44682,0.22874,-2.77876,0.97899,1.57080,0.00001,-0.14513,-0.37992,0.04527,,,,,,,,,,,,,,,,,,,,,,,,,,0,0,0,0,0
2.0806,1783012517.1633,1,1,1.0000,0.0000,1.44682,0.22872,-2.77877,0.97902,1.57080,0.00001,-0.14513,-0.37992,0.04526,,,,,,,,,,,,,,,,,,,,,,,,,,0,0,0,0,0
2.0904,1783012517.1730,1,1,1.0000,0.0000,1.44682,0.22866,-2.77878,0.97909,1.57080,0.00001,-0.14513,-0.37992,0.04525,,,,,,,,,,,,,,,,,,,,,,,,,,0,0,0,0,0
2.1029,1783012517.1856,1,1,1.0000,0.0000,1.44682,0.22864,-2.77879,0.97911,1.57080,0.00001,-0.14513,-0.37992,0.04524,,,,,,,,,,,,,,,,,,,,,,,,,,0,0,0,0,0
2.1228,1783012517.2054,1,1,1.0000,0.0000,1.44682,0.22852,-2.77882,0.97927,1.57080,0.00001,-0.14513,-0.37992,0.04521,,,,,,,,,,,,,,,,,,,,,,,,,,0,0,0,0,0
2.1232,1783012517.2058,1,1,1.0000,0.0000,1.44682,0.22852,-2.77882,0.97927,1.57080,0.00001,-0.14513,-0.37992,0.04521,,,,,,,,,,,,,,,,,,,,,,,,,,0,0,0,0,0
2.1825,1783012517.2652,1,1,1.0000,0.0000,1.44682,0.22829,-2.77887,0.97955,1.57080,0.00001,-0.14513,-0.37992,0.04515,,,,,,,,,,,,,,,,,,,,,,,,,,0,0,0,0,0
2.1828,1783012517.2655,1,1,1.0000,0.0000,1.44682,0.22829,-2.77887,0.97955,1.57080,0.00001,-0.14513,-0.37992,0.04515,,,,,,,,,,,,,,,,,,,,,,,,,,0,0,0,0,0
2.1832,1783012517.2659,1,1,1.0000,0.0000,1.44682,0.22829,-2.77887,0.97955,1.57080,0.00001,-0.14513,-0.37992,0.04515,,,,,,,,,,,,,,,,,,,,,,,,,,0,0,0,0,0
2.1836,1783012517.2662,1,1,1.0000,0.0000,1.44682,0.22829,-2.77887,0.97955,1.57080,0.00001,-0.14513,-0.37992,0.04515,,,,,,,,,,,,,,,,,,,,,,,,,,0,0,0,0,0
2.1840,1783012517.2667,1,1,1.0000,0.0000,1.44682,0.22829,-2.77887,0.97955,1.57080,0.00001,-0.14513,-0.37992,0.04515,,,,,,,,,,,,,,,,,,,,,,,,,,0,0,0,0,0
2.1843,1783012517.2670,1,1,1.0000,0.0000,1.44682,0.22829,-2.77887,0.97955,1.57080,0.00001,-0.14513,-0.37992,0.04515,,,,,,,,,,,,,,,,,,,,,,,,,,0,0,0,0,0
2.2026,1783012517.2852,1,1,1.0000,0.0000,1.44682,0.22825,-2.77889,0.97960,1.57080,0.00001,-0.14513,-0.37992,0.04514,,,,,,,,,,,,,,,,,,,,,,,,,,0,0,0,0,0
2.2029,1783012517.2856,1,1,1.0000,0.0000,1.44682,0.22825,-2.77889,0.97960,1.57080,0.00001,-0.14513,-0.37992,0.04514,,,,,,,,,,,,,,,,,,,,,,,,,,0,0,0,0,0
2.2838,1783012517.3665,1,1,1.0000,0.0000,1.44682,0.22797,-2.77896,0.97996,1.57080,0.00001,-0.14513,-0.37992,0.04507,,,,,,,,,,,,,,,,,,,,,,,,,,0,0,0,0,0
2.2842,1783012517.3669,1,1,1.0000,0.0000,1.44682,0.22797,-2.77896,0.97996,1.57080,0.00001,-0.14513,-0.37992,0.04507,,,,,,,,,,,,,,,,,,,,,,,,,,0,0,0,0,0
2.2847,1783012517.3673,1,1,1.0000,0.0000,1.44682,0.22797,-2.77896,0.97996,1.57080,0.00001,-0.14513,-0.37992,0.04507,,,,,,,,,,,,,,,,,,,,,,,,,,0,0,0,0,0
2.2851,1783012517.3677,1,1,1.0000,0.0000,1.44682,0.22797,-2.77896,0.97996,1.57080,0.00001,-0.14513,-0.37992,0.04507,,,,,,,,,,,,,,,,,,,,,,,,,,0,0,0,0,0
2.2856,1783012517.3683,1,1,1.0000,0.0000,1.44682,0.22795,-2.77896,0.97998,1.57080,0.00001,-0.14513,-0.37992,0.04506,,,,,,,,,,,,,,,,,,,,,,,,,,0,0,0,0,0
2.2905,1783012517.3732,1,1,1.0000,0.0000,1.44682,0.22793,-2.77897,0.98001,1.57080,0.00001,-0.14513,-0.37992,0.04506,,,,,,,,,,,,,,,,,,,,,,,,,,0,0,0,0,0
2.3017,1783012517.3843,1,1,1.0000,0.0000,1.44682,0.22785,-2.77899,0.98011,1.57080,0.00001,-0.14513,-0.37992,0.04504,,,,,,,,,,,,,,,,,,,,,,,,,,0,0,0,0,0
2.3020,1783012517.3846,1,1,1.0000,0.0000,1.44682,0.22785,-2.77899,0.98011,1.57080,0.00001,-0.14513,-0.37992,0.04504,,,,,,,,,,,,,,,,,,,,,,,,,,0,0,0,0,0
2.3109,1783012517.3935,1,1,1.0000,0.0000,1.44682,0.22784,-2.77899,0.98011,1.57080,0.00001,-0.14513,-0.37992,0.04504,,,,,,,,,,,,,,,,,,,,,,,,,,0,0,0,0,0
2.3317,1783012517.4144,1,1,1.0000,0.0000,1.44681,0.22776,-2.77901,0.98021,1.57080,0.00001,-0.14513,-0.37992,0.04502,,,,,,,,,,,,,,,,,,,,,,,,,,0,0,0,0,0
2.3519,1783012517.4345,1,1,1.0000,0.0000,1.44681,0.22776,-2.77901,0.98021,1.57080,0.00001,-0.14513,-0.37992,0.04502,,,,,,,,,,,,,,,,,,,,,,,,,,0,0,0,0,0
2.3687,1783012517.4514,1,1,1.0000,0.0000,1.44681,0.22762,-2.77905,0.98039,1.57080,0.00001,-0.14513,-0.37992,0.04498,,,,,,,,,,,,,,,,,,,,,,,,,,0,0,0,0,0
2.3716,1783012517.4542,1,1,1.0000,0.0000,1.44681,0.22762,-2.77905,0.98039,1.57080,0.00001,-0.14513,-0.37992,0.04498,,,,,,,,,,,,,,,,,,,,,,,,,,0,0,0,0,0
2.3806,1783012517.4633,1,1,1.0000,0.0000,1.44681,0.22760,-2.77905,0.98042,1.57080,0.00001,-0.14513,-0.37992,0.04497,,,,,,,,,,,,,,,,,,,,,,,,,,0,0,0,0,0
2.3914,1783012517.4740,1,1,1.0000,0.0000,1.44681,0.22754,-2.77907,0.98050,1.57080,0.00001,-0.14513,-0.37992,0.04496,,,,,,,,,,,,,,,,,,,,,,,,,,0,0,0,0,0
2.5517,1783012517.6343,1,1,1.0000,0.0000,1.44681,0.22691,-2.77923,0.98129,1.57080,0.00001,-0.14513,-0.37992,0.04479,,,,,,,,,,,,,,,,,,,,,,,,,,0,0,0,0,0
2.5940,1783012517.6767,1,1,1.0000,0.0000,1.44681,0.22672,-2.77928,0.98152,1.57080,0.00001,-0.14513,-0.37992,0.04474,,,,,,,,,,,,,,,,,,,,,,,,,,0,0,0,0,0
2.5947,1783012517.6773,1,1,1.0000,0.0000,1.44681,0.22672,-2.77928,0.98152,1.57080,0.00001,-0.14513,-0.37992,0.04474,,,,,,,,,,,,,,,,,,,,,,,,,,0,0,0,0,0
2.5951,1783012517.6777,1,1,1.0000,0.0000,1.44681,0.22672,-2.77928,0.98152,1.57080,0.00001,-0.14513,-0.37992,0.04474,,,,,,,,,,,,,,,,,,,,,,,,,,0,0,0,0,0
2.5955,1783012517.6781,1,1,1.0000,0.0000,1.44681,0.22672,-2.77928,0.98152,1.57080,0.00001,-0.14513,-0.37992,0.04474,,,,,,,,,,,,,,,,,,,,,,,,,,0,0,0,0,0
2.5960,1783012517.6786,1,1,1.0000,0.0000,1.44681,0.22672,-2.77928,0.98152,1.57080,0.00001,-0.14513,-0.37992,0.04474,,,,,,,,,,,,,,,,,,,,,,,,,,0,0,0,0,0
2.5964,1783012517.6791,1,1,1.0000,0.0000,1.44681,0.22672,-2.77928,0.98152,1.57080,0.00001,-0.14513,-0.37992,0.04474,,,,,,,,,,,,,,,,,,,,,,,,,,0,0,0,0,0
2.6129,1783012517.6956,1,1,1.0000,0.0000,1.44681,0.22666,-2.77929,0.98159,1.57080,0.00001,-0.14513,-0.37992,0.04473,,,,,,,,,,,,,,,,,,,,,,,,,,0,0,0,0,0
2.6139,1783012517.6966,1,1,1.0000,0.0000,1.44681,0.22665,-2.77929,0.98161,1.57080,0.00001,-0.14513,-0.37992,0.04473,,,,,,,,,,,,,,,,,,,,,,,,,,0,0,0,0,0
2.6142,1783012517.6968,1,1,1.0000,0.0000,1.44681,0.22665,-2.77929,0.98161,1.57080,0.00001,-0.14513,-0.37992,0.04473,,,,,,,,,,,,,,,,,,,,,,,,,,0,0,0,0,0
2.6540,1783012517.7366,1,1,1.0000,0.0000,1.44681,0.22647,-2.77934,0.98183,1.57080,0.00001,-0.14513,-0.37992,0.04468,,,,,,,,,,,,,,,,,,,,,,,,,,0,0,0,0,0
2.7164,1783012517.7991,1,1,1.0000,0.0000,1.44681,0.22623,-2.77940,0.98214,1.57080,0.00001,-0.14513,-0.37992,0.04462,,,,,,,,,,,,,,,,,,,,,,,,,,0,0,0,0,0
2.7169,1783012517.7995,1,1,1.0000,0.0000,1.44681,0.22623,-2.77940,0.98214,1.57080,0.00001,-0.14513,-0.37992,0.04462,,,,,,,,,,,,,,,,,,,,,,,,,,0,0,0,0,0
2.7171,1783012517.7998,1,1,1.0000,0.0000,1.44681,0.22623,-2.77940,0.98214,1.57080,0.00001,-0.14513,-0.37992,0.04462,,,,,,,,,,,,,,,,,,,,,,,,,,0,0,0,0,0
2.7175,1783012517.8001,1,1,1.0000,0.0000,1.44681,0.22623,-2.77940,0.98214,1.57080,0.00001,-0.14513,-0.37992,0.04462,,,,,,,,,,,,,,,,,,,,,,,,,,0,0,0,0,0
2.7179,1783012517.8006,1,1,1.0000,0.0000,1.44681,0.22620,-2.77941,0.98217,1.57080,0.00001,-0.14513,-0.37992,0.04461,,,,,,,,,,,,,,,,,,,,,,,,,,0,0,0,0,0
2.7181,1783012517.8008,1,1,1.0000,0.0000,1.44681,0.22620,-2.77941,0.98217,1.57080,0.00001,-0.14513,-0.37992,0.04461,,,,,,,,,,,,,,,,,,,,,,,,,,0,0,0,0,0
2.7184,1783012517.8010,1,1,1.0000,0.0000,1.44681,0.22620,-2.77941,0.98217,1.57080,0.00001,-0.14513,-0.37992,0.04461,,,,,,,,,,,,,,,,,,,,,,,,,,0,0,0,0,0
2.7239,1783012517.8065,1,1,1.0000,0.0000,1.44681,0.22618,-2.77941,0.98220,1.57080,0.00001,-0.14513,-0.37992,0.04460,,,,,,,,,,,,,,,,,,,,,,,,,,0,0,0,0,0
2.7467,1783012517.8294,1,1,1.0000,0.0000,1.44681,0.22611,-2.77943,0.98228,1.57080,0.00001,-0.14513,-0.37992,0.04459,,,,,,,,,,,,,,,,,,,,,,,,,,0,0,0,0,0
2.7482,1783012517.8308,1,1,1.0000,0.0000,1.44681,0.22611,-2.77943,0.98228,1.57080,0.00001,-0.14513,-0.37992,0.04459,,,,,,,,,,,,,,,,,,,,,,,,,,0,0,0,0,0
2.7484,1783012517.8311,1,1,1.0000,0.0000,1.44681,0.22611,-2.77943,0.98228,1.57080,0.00001,-0.14513,-0.37992,0.04459,,,,,,,,,,,,,,,,,,,,,,,,,,0,0,0,0,0
2.7551,1783012517.8378,1,1,1.0000,0.0000,1.44681,0.22607,-2.77944,0.98234,1.57080,0.00001,-0.14513,-0.37992,0.04458,,,,,,,,,,,,,,,,,,,,,,,,,,0,0,0,0,0
2.7554,1783012517.8380,1,1,1.0000,0.0000,1.44681,0.22607,-2.77944,0.98234,1.57080,0.00001,-0.14513,-0.37992,0.04458,,,,,,,,,,,,,,,,,,,,,,,,,,0,0,0,0,0
2.7637,1783012517.8463,1,1,1.0000,0.0000,1.44681,0.22606,-2.77944,0.98234,1.57080,0.00001,-0.14513,-0.37992,0.04457,,,,,,,,,,,,,,,,,,,,,,,,,,0,0,0,0,0
2.7641,1783012517.8467,1,1,1.0000,0.0000,1.44681,0.22606,-2.77944,0.98234,1.57080,0.00001,-0.14513,-0.37992,0.04457,,,,,,,,,,,,,,,,,,,,,,,,,,0,0,0,0,0
2.7710,1783012517.8537,1,1,1.0000,0.0000,1.44681,0.22604,-2.77945,0.98238,1.57080,0.00001,-0.14513,-0.37992,0.04457,,,,,,,,,,,,,,,,,,,,,,,,,,0,0,0,0,0
2.7715,1783012517.8542,1,1,1.0000,0.0000,1.44681,0.22604,-2.77945,0.98238,1.57080,0.00001,-0.14513,-0.37992,0.04457,,,,,,,,,,,,,,,,,,,,,,,,,,0,0,0,0,0
2.7810,1783012517.8636,1,1,1.0000,0.0000,1.44681,0.22600,-2.77946,0.98243,1.57080,0.00001,-0.14513,-0.37992,0.04456,,,,,,,,,,,,,,,,,,,,,,,,,,0,0,0,0,0
2.7814,1783012517.8641,1,1,1.0000,0.0000,1.44681,0.22600,-2.77946,0.98243,1.57080,0.00001,-0.14513,-0.37992,0.04456,,,,,,,,,,,,,,,,,,,,,,,,,,0,0,0,0,0
2.7918,1783012517.8744,1,1,1.0000,0.0000,1.44681,0.22597,-2.77947,0.98246,1.57080,0.00001,-0.14513,-0.37992,0.04455,,,,,,,,,,,,,,,,,,,,,,,,,,0,0,0,0,0
2.8010,1783012517.8837,1,1,1.0000,0.0000,1.44681,0.22594,-2.77947,0.98250,1.57080,0.00001,-0.14513,-0.37992,0.04454,,,,,,,,,,,,,,,,,,,,,,,,,,0,0,0,0,0
2.8103,1783012517.8930,1,1,1.0000,0.0000,1.44681,0.22586,-2.77949,0.98260,1.57080,0.00001,-0.14513,-0.37992,0.04452,,,,,,,,,,,,,,,,,,,,,,,,,,0,0,0,0,0
2.8228,1783012517.9054,1,1,1.0000,0.0000,1.44681,0.22583,-2.77950,0.98263,1.57080,0.00001,-0.14513,-0.37992,0.04452,,,,,,,,,,,,,,,,,,,,,,,,,,0,0,0,0,0
2.8309,1783012517.9135,1,1,1.0000,0.0000,1.44681,0.22581,-2.77951,0.98266,1.57080,0.00001,-0.14513,-0.37992,0.04451,,,,,,,,,,,,,,,,,,,,,,,,,,0,0,0,0,0
2.8411,1783012517.9238,1,1,1.0000,0.0000,1.44681,0.22577,-2.77951,0.98271,1.57080,0.00001,-0.14513,-0.37992,0.04450,,,,,,,,,,,,,,,,,,,,,,,,,,0,0,0,0,0
2.8532,1783012517.9358,1,1,1.0000,0.0000,1.44681,0.22575,-2.77952,0.98274,1.57080,0.00001,-0.14513,-0.37992,0.04449,,,,,,,,,,,,,,,,,,,,,,,,,,0,0,0,0,0
2.8741,1783012517.9567,1,1,1.0000,0.0000,1.44681,0.22561,-2.77956,0.98291,1.57080,0.00001,-0.14513,-0.37992,0.04446,,,,,,,,,,,,,,,,,,,,,,,,,,0,0,0,0,0
2.8745,1783012517.9571,1,1,1.0000,0.0000,1.44681,0.22561,-2.77956,0.98291,1.57080,0.00001,-0.14513,-0.37992,0.04446,,,,,,,,,,,,,,,,,,,,,,,,,,0,0,0,0,0
2.9180,1783012518.0007,1,1,1.0000,0.0000,1.44681,0.22549,-2.77959,0.98306,1.57080,0.00001,-0.14513,-0.37992,0.04443,,,,,,,,,,,,,,,,,,,,,,,,,,0,0,0,0,0
2.9183,1783012518.0010,1,1,1.0000,0.0000,1.44681,0.22549,-2.77959,0.98306,1.57080,0.00001,-0.14513,-0.37992,0.04443,,,,,,,,,,,,,,,,,,,,,,,,,,0,0,0,0,0
2.9187,1783012518.0014,1,1,1.0000,0.0000,1.44681,0.22549,-2.77959,0.98306,1.57080,0.00001,-0.14513,-0.37992,0.04443,,,,,,,,,,,,,,,,,,,,,,,,,,0,0,0,0,0
2.9191,1783012518.0017,1,1,1.0000,0.0000,1.44681,0.22549,-2.77959,0.98306,1.57080,0.00001,-0.14513,-0.37992,0.04443,,,,,,,,,,,,,,,,,,,,,,,,,,0,0,0,0,0
2.9213,1783012518.0039,1,1,1.0000,0.0000,1.44681,0.22549,-2.77959,0.98306,1.57080,0.00001,-0.14513,-0.37992,0.04443,,,,,,,,,,,,,,,,,,,,,,,,,,0,0,0,0,0
2.9219,1783012518.0045,1,1,1.0000,0.0000,1.44681,0.22547,-2.77959,0.98309,1.57080,0.00001,-0.14513,-0.37992,0.04442,,,,,,,,,,,,,,,,,,,,,,,,,,0,0,0,0,0
2.9324,1783012518.0151,1,1,1.0000,0.0000,1.44681,0.22541,-2.77961,0.98316,1.57080,0.00001,-0.14513,-0.37992,0.04441,,,,,,,,,,,,,,,,,,,,,,,,,,0,0,0,0,0
2.9455,1783012518.0282,1,1,1.0000,0.0000,1.44681,0.22538,-2.77961,0.98320,1.57080,0.00001,-0.14513,-0.37992,0.04440,,,,,,,,,,,,,,,,,,,,,,,,,,0,0,0,0,0
2.9462,1783012518.0288,1,1,1.0000,0.0000,1.44681,0.22537,-2.77962,0.98321,1.57080,0.00001,-0.14513,-0.37992,0.04440,,,,,,,,,,,,,,,,,,,,,,,,,,0,0,0,0,0
2.9518,1783012518.0344,1,1,1.0000,0.0000,1.44681,0.22536,-2.77962,0.98322,1.57080,0.00001,-0.14513,-0.37992,0.04439,,,,,,,,,,,,,,,,,,,,,,,,,,0,0,0,0,0
2.9608,1783012518.0435,1,1,1.0000,0.0000,1.44681,0.22532,-2.77963,0.98327,1.57080,0.00001,-0.14513,-0.37992,0.04438,,,,,,,,,,,,,,,,,,,,,,,,,,0,0,0,0,0
2.9710,1783012518.0536,1,1,1.0000,0.0000,1.44681,0.22530,-2.77964,0.98330,1.57080,0.00001,-0.14513,-0.37992,0.04438,,,,,,,,,,,,,,,,,,,,,,,,,,0,0,0,0,0
2.9843,1783012518.0670,1,1,1.0000,0.0000,1.44681,0.22524,-2.77965,0.98337,1.57080,0.00001,-0.14513,-0.37992,0.04436,,,,,,,,,,,,,,,,,,,,,,,,,,0,0,0,0,0
2.9913,1783012518.0739,1,1,1.0000,0.0000,1.44681,0.22519,-2.77966,0.98344,1.57080,0.00001,-0.14513,-0.37992,0.04435,,,,,,,,,,,,,,,,,,,,,,,,,,0,0,0,0,0
3.0012,1783012518.0839,1,1,1.0000,0.0000,1.44681,0.22516,-2.77967,0.98347,1.57080,0.00001,-0.14513,-0.37992,0.04434,,,,,,,,,,,,,,,,,,,,,,,,,,0,0,0,0,0
3.0106,1783012518.0933,1,1,1.0000,0.0000,1.44681,0.22514,-2.77968,0.98351,1.57080,0.00001,-0.14513,-0.37992,0.04434,,,,,,,,,,,,,,,,,,,,,,,,,,0,0,0,0,0
3.0210,1783012518.1037,1,1,1.0000,0.0000,1.44681,0.22510,-2.77969,0.98355,1.57080,0.00001,-0.14513,-0.37992,0.04433,,,,,,,,,,,,,,,,,,,,,,,,,,0,0,0,0,0
3.0314,1783012518.1140,1,1,1.0000,0.0000,1.44681,0.22507,-2.77969,0.98359,1.57080,0.00001,-0.14513,-0.37992,0.04432,,,,,,,,,,,,,,,,,,,,,,,,,,0,0,0,0,0
3.0475,1783012518.1302,1,1,1.0000,0.0000,1.44681,0.22499,-2.77971,0.98369,1.57080,0.00001,-0.14513,-0.37992,0.04430,,,,,,,,,,,,,,,,,,,,,,,,,,0,0,0,0,0
3.0479,1783012518.1305,1,1,1.0000,0.0000,1.44681,0.22499,-2.77971,0.98369,1.57080,0.00001,-0.14513,-0.37992,0.04430,,,,,,,,,,,,,,,,,,,,,,,,,,0,0,0,0,0
3.0562,1783012518.1389,1,1,1.0000,0.0000,1.44681,0.22494,-2.77973,0.98375,1.57080,0.00001,-0.14513,-0.37992,0.04428,,,,,,,,,,,,,,,,,,,,,,,,,,0,0,0,0,0
3.0662,1783012518.1488,1,1,1.0000,0.0000,1.44681,0.22492,-2.77973,0.98377,1.57080,0.00001,-0.14513,-0.37992,0.04428,,,,,,,,,,,,,,,,,,,,,,,,,,0,0,0,0,0
3.0809,1783012518.1636,1,1,1.0000,0.0000,1.44681,0.22487,-2.77974,0.98383,1.57080,0.00001,-0.14513,-0.37992,0.04427,,,,,,,,,,,,,,,,,,,,,,,,,,0,0,0,0,0
3.0813,1783012518.1640,1,1,1.0000,0.0000,1.44681,0.22487,-2.77974,0.98383,1.57080,0.00001,-0.14513,-0.37992,0.04427,,,,,,,,,,,,,,,,,,,,,,,,,,0,0,0,0,0
3.0901,1783012518.1727,1,1,1.0000,0.0000,1.44681,0.22485,-2.77975,0.98387,1.57080,0.00001,-0.14513,-0.37992,0.04426,,,,,,,,,,,,,,,,,,,,,,,,,,0,0,0,0,0
3.0905,1783012518.1731,1,1,1.0000,0.0000,1.44681,0.22485,-2.77975,0.98387,1.57080,0.00001,-0.14513,-0.37992,0.04426,,,,,,,,,,,,,,,,,,,,,,,,,,0,0,0,0,0
3.0964,1783012518.1791,1,1,1.0000,0.0000,1.44681,0.22483,-2.77975,0.98388,1.57080,0.00001,-0.14513,-0.37992,0.04426,,,,,,,,,,,,,,,,,,,,,,,,,,0,0,0,0,0
3.0967,1783012518.1793,1,1,1.0000,0.0000,1.44681,0.22483,-2.77975,0.98388,1.57080,0.00001,-0.14513,-0.37992,0.04426,,,,,,,,,,,,,,,,,,,,,,,,,,0,0,0,0,0
3.1039,1783012518.1865,1,1,1.0000,0.0000,1.44681,0.22479,-2.77976,0.98394,1.57080,0.00001,-0.14513,-0.37992,0.04425,,,,,,,,,,,,,,,,,,,,,,,,,,0,0,0,0,0
3.1042,1783012518.1869,1,1,1.0000,0.0000,1.44681,0.22479,-2.77976,0.98394,1.57080,0.00001,-0.14513,-0.37992,0.04425,,,,,,,,,,,,,,,,,,,,,,,,,,0,0,0,0,0
3.1140,1783012518.1967,1,1,1.0000,0.0000,1.44681,0.22471,-2.77978,0.98404,1.57080,0.00001,-0.14513,-0.37992,0.04423,,,,,,,,,,,,,,,,,,,,,,,,,,0,0,0,0,0
3.1238,1783012518.2064,1,1,1.0000,0.0000,1.44681,0.22471,-2.77978,0.98404,1.57080,0.00001,-0.14513,-0.37992,0.04422,,,,,,,,,,,,,,,,,,,,,,,,,,0,0,0,0,0
3.1341,1783012518.2167,1,1,1.0000,0.0000,1.44681,0.22467,-2.77979,0.98409,1.57080,0.00001,-0.14513,-0.37992,0.04421,,,,,,,,,,,,,,,,,,,,,,,,,,0,0,0,0,0
3.1463,1783012518.2290,1,1,1.0000,0.0000,1.44681,0.22463,-2.77980,0.98414,1.57080,0.00001,-0.14513,-0.37992,0.04420,,,,,,,,,,,,,,,,,,,,,,,,,,0,0,0,0,0
3.1467,1783012518.2293,1,1,1.0000,0.0000,1.44681,0.22463,-2.77980,0.98414,1.57080,0.00001,-0.14513,-0.37992,0.04420,,,,,,,,,,,,,,,,,,,,,,,,,,0,0,0,0,0
3.1704,1783012518.2531,1,1,1.0000,0.0000,1.44681,0.22451,-2.77983,0.98429,1.57080,0.00001,-0.14513,-0.37992,0.04417,,,,,,,,,,,,,,,,,,,,,,,,,,0,0,0,0,0
3.1709,1783012518.2535,1,1,1.0000,0.0000,1.44681,0.22451,-2.77983,0.98429,1.57080,0.00001,-0.14513,-0.37992,0.04417,,,,,,,,,,,,,,,,,,,,,,,,,,0,0,0,0,0
3.1742,1783012518.2569,1,1,1.0000,0.0000,1.44681,0.22449,-2.77984,0.98432,1.57080,0.00001,-0.14513,-0.37992,0.04417,,,,,,,,,,,,,,,,,,,,,,,,,,0,0,0,0,0
3.1997,1783012518.2823,1,1,1.0000,0.0000,1.44681,0.22440,-2.77986,0.98442,1.57080,0.00001,-0.14513,-0.37992,0.04415,,,,,,,,,,,,,,,,,,,,,,,,,,0,0,0,0,0
3.2001,1783012518.2827,1,1,1.0000,0.0000,1.44681,0.22440,-2.77986,0.98442,1.57080,0.00001,-0.14513,-0.37992,0.04415,,,,,,,,,,,,,,,,,,,,,,,,,,0,0,0,0,0
3.2108,1783012518.2935,1,1,1.0000,0.0000,1.44681,0.22437,-2.77987,0.98446,1.57080,0.00001,-0.14513,-0.37992,0.04414,,,,,,,,,,,,,,,,,,,,,,,,,,0,0,0,0,0
3.2181,1783012518.3008,1,1,1.0000,0.0000,1.44681,0.22434,-2.77988,0.98450,1.57080,0.00001,-0.14513,-0.37992,0.04413,,,,,,,,,,,,,,,,,,,,,,,,,,0,0,0,0,0
3.2184,1783012518.3010,1,1,1.0000,0.0000,1.44681,0.22434,-2.77988,0.98450,1.57080,0.00001,-0.14513,-0.37992,0.04413,,,,,,,,,,,,,,,,,,,,,,,,,,0,0,0,0,0
3.2396,1783012518.3222,1,1,1.0000,0.0000,1.44681,0.22424,-2.77990,0.98463,1.57080,0.00001,-0.14513,-0.37992,0.04410,,,,,,,,,,,,,,,,,,,,,,,,,,0,0,0,0,0
3.2398,1783012518.3225,1,1,1.0000,0.0000,1.44681,0.22424,-2.77990,0.98463,1.57080,0.00001,-0.14513,-0.37992,0.04410,,,,,,,,,,,,,,,,,,,,,,,,,,0,0,0,0,0
3.2677,1783012518.3504,1,1,1.0000,0.0000,1.44681,0.22413,-2.77993,0.98476,1.57080,0.00001,-0.14513,-0.37992,0.04408,,,,,,,,,,,,,,,,,,,,,,,,,,0,0,0,0,0
3.2680,1783012518.3506,1,1,1.0000,0.0000,1.44681,0.22413,-2.77993,0.98476,1.57080,0.00001,-0.14513,-0.37992,0.04408,,,,,,,,,,,,,,,,,,,,,,,,,,0,0,0,0,0
3.2683,1783012518.3510,1,1,1.0000,0.0000,1.44681,0.22413,-2.77993,0.98476,1.57080,0.00001,-0.14513,-0.37992,0.04408,,,,,,,,,,,,,,,,,,,,,,,,,,0,0,0,0,0
3.2686,1783012518.3513,1,1,1.0000,0.0000,1.44681,0.22413,-2.77993,0.98476,1.57080,0.00001,-0.14513,-0.37992,0.04408,,,,,,,,,,,,,,,,,,,,,,,,,,0,0,0,0,0
3.2772,1783012518.3598,1,1,1.0000,0.0000,1.44681,0.22411,-2.77993,0.98478,1.57080,0.00001,-0.14513,-0.37992,0.04407,,,,,,,,,,,,,,,,,,,,,,,,,,0,0,0,0,0
3.3003,1783012518.3829,1,1,1.0000,0.0000,1.44681,0.22400,-2.77996,0.98493,1.57080,0.00001,-0.14513,-0.37992,0.04404,,,,,,,,,,,,,,,,,,,,,,,,,,0,0,0,0,0
3.3008,1783012518.3834,1,1,1.0000,0.0000,1.44681,0.22400,-2.77996,0.98493,1.57080,0.00001,-0.14513,-0.37992,0.04404,,,,,,,,,,,,,,,,,,,,,,,,,,0,0,0,0,0
3.3048,1783012518.3875,1,1,1.0000,0.0000,1.44681,0.22399,-2.77996,0.98494,1.57080,0.00001,-0.14513,-0.37992,0.04404,,,,,,,,,,,,,,,,,,,,,,,,,,0,0,0,0,0
3.3052,1783012518.3878,1,1,1.0000,0.0000,1.44681,0.22399,-2.77996,0.98494,1.57080,0.00001,-0.14513,-0.37992,0.04404,,,,,,,,,,,,,,,,,,,,,,,,,,0,0,0,0,0
3.3153,1783012518.3979,1,1,1.0000,0.0000,1.44681,0.22394,-2.77998,0.98501,1.57080,0.00001,-0.14513,-0.37992,0.04403,,,,,,,,,,,,,,,,,,,,,,,,,,0,0,0,0,0
3.3264,1783012518.4091,1,1,1.0000,0.0000,1.44681,0.22388,-2.77999,0.98507,1.57080,0.00001,-0.14513,-0.37992,0.04401,,,,,,,,,,,,,,,,,,,,,,,,,,0,0,0,0,0
3.3266,1783012518.4092,1,1,1.0000,0.0000,1.44681,0.22388,-2.77999,0.98507,1.57080,0.00001,-0.14513,-0.37992,0.04401,,,,,,,,,,,,,,,,,,,,,,,,,,0,0,0,0,0
3.3385,1783012518.4211,1,1,1.0000,0.0000,1.44681,0.22385,-2.78000,0.98511,1.57080,0.00001,-0.14513,-0.37992,0.04400,,,,,,,,,,,,,,,,,,,,,,,,,,0,0,0,0,0
3.3388,1783012518.4214,1,1,1.0000,0.0000,1.44681,0.22385,-2.78000,0.98511,1.57080,0.00001,-0.14513,-0.37992,0.04400,,,,,,,,,,,,,,,,,,,,,,,,,,0,0,0,0,0
3.3487,1783012518.4314,1,1,1.0000,0.0000,1.44681,0.22380,-2.78001,0.98518,1.57080,0.00001,-0.14513,-0.37992,0.04399,,,,,,,,,,,,,,,,,,,,,,,,,,0,0,0,0,0
3.3609,1783012518.4436,1,1,1.0000,0.0000,1.44681,0.22375,-2.78002,0.98524,1.57080,0.00001,-0.14513,-0.37992,0.04398,,,,,,,,,,,,,,,,,,,,,,,,,,0,0,0,0,0
3.3612,1783012518.4439,1,1,1.0000,0.0000,1.44681,0.22375,-2.78002,0.98524,1.57080,0.00001,-0.14513,-0.37992,0.04398,,,,,,,,,,,,,,,,,,,,,,,,,,0,0,0,0,0
3.3639,1783012518.4466,1,1,1.0000,0.0000,1.44681,0.22375,-2.78003,0.98525,1.57080,0.00001,-0.14513,-0.37992,0.04398,,,,,,,,,,,,,,,,,,,,,,,,,,0,0,0,0,0
3.3743,1783012518.4569,1,1,1.0000,0.0000,1.44681,0.22369,-2.78004,0.98531,1.57080,0.00001,-0.14513,-0.37992,0.04396,,,,,,,,,,,,,,,,,,,,,,,,,,0,0,0,0,0
3.3847,1783012518.4673,1,1,1.0000,0.0000,1.44681,0.22364,-2.78005,0.98538,1.57080,0.00001,-0.14513,-0.37992,0.04395,,,,,,,,,,,,,,,,,,,,,,,,,,0,0,0,0,0
3.3939,1783012518.4766,1,1,1.0000,0.0000,1.44681,0.22363,-2.78005,0.98538,1.57080,0.00001,-0.14513,-0.37992,0.04395,,,,,,,,,,,,,,,,,,,,,,,,,,0,0,0,0,0
3.4051,1783012518.4877,1,1,1.0000,0.0000,1.44681,0.22358,-2.78007,0.98545,1.57080,0.00001,-0.14513,-0.37992,0.04393,,,,,,,,,,,,,,,,,,,,,,,,,,0,0,0,0,0
3.4156,1783012518.4983,1,1,1.0000,0.0000,1.44681,0.22350,-2.78009,0.98555,1.57080,0.00001,-0.14513,-0.37992,0.04391,,,,,,,,,,,,,,,,,,,,,,,,,,0,0,0,0,0
3.4254,1783012518.5080,1,1,1.0000,0.0000,1.44681,0.22350,-2.78009,0.98555,1.57080,0.00001,-0.14513,-0.37992,0.04391,,,,,,,,,,,,,,,,,,,,,,,,,,0,0,0,0,0
3.4342,1783012518.5169,1,1,1.0000,0.0000,1.44681,0.22345,-2.78010,0.98562,1.57080,0.00001,-0.14513,-0.37992,0.04390,,,,,,,,,,,,,,,,,,,,,,,,,,0,0,0,0,0
3.4584,1783012518.5410,1,1,1.0000,0.0000,1.44681,0.22336,-2.78012,0.98573,1.57080,0.00001,-0.14513,-0.37992,0.04388,,,,,,,,,,,,,,,,,,,,,,,,,,0,0,0,0,0
3.4599,1783012518.5425,1,1,1.0000,0.0000,1.44681,0.22336,-2.78012,0.98573,1.57080,0.00001,-0.14513,-0.37992,0.04388,,,,,,,,,,,,,,,,,,,,,,,,,,0,0,0,0,0
3.4603,1783012518.5429,1,1,1.0000,0.0000,1.44681,0.22336,-2.78012,0.98573,1.57080,0.00001,-0.14513,-0.37992,0.04388,,,,,,,,,,,,,,,,,,,,,,,,,,0,0,0,0,0
3.4643,1783012518.5470,1,1,1.0000,0.0000,1.44681,0.22334,-2.78013,0.98576,1.57080,0.00001,-0.14513,-0.37992,0.04387,,,,,,,,,,,,,,,,,,,,,,,,,,0,0,0,0,0
3.4647,1783012518.5474,1,1,1.0000,0.0000,1.44681,0.22334,-2.78013,0.98576,1.57080,0.00001,-0.14513,-0.37992,0.04387,,,,,,,,,,,,,,,,,,,,,,,,,,0,0,0,0,0
3.4743,1783012518.5569,1,1,1.0000,0.0000,1.44681,0.22326,-2.78015,0.98586,1.57080,0.00001,-0.14513,-0.37992,0.04385,,,,,,,,,,,,,,,,,,,,,,,,,,0,0,0,0,0
3.4863,1783012518.5689,1,1,1.0000,0.0000,1.44681,0.22324,-2.78015,0.98588,1.57080,0.00001,-0.14513,-0.37992,0.04385,,,,,,,,,,,,,,,,,,,,,,,,,,0,0,0,0,0
3.4961,1783012518.5787,1,1,1.0000,0.0000,1.44681,0.22320,-2.78016,0.98593,1.57080,0.00001,-0.14513,-0.37992,0.04384,,,,,,,,,,,,,,,,,,,,,,,,,,0,0,0,0,0
3.5047,1783012518.5874,1,1,1.0000,0.0000,1.44681,0.22315,-2.78018,0.98599,1.57080,0.00001,-0.14513,-0.37992,0.04382,,,,,,,,,,,,,,,,,,,,,,,,,,0,0,0,0,0
3.5386,1783012518.6212,1,1,1.0000,0.0000,1.44681,0.22301,-2.78021,0.98616,1.57080,0.00001,-0.14513,-0.37992,0.04379,,,,,,,,,,,,,,,,,,,,,,,,,,0,0,0,0,0
3.5389,1783012518.6216,1,1,1.0000,0.0000,1.44681,0.22301,-2.78021,0.98616,1.57080,0.00001,-0.14513,-0.37992,0.04379,,,,,,,,,,,,,,,,,,,,,,,,,,0,0,0,0,0
3.5393,1783012518.6219,1,1,1.0000,0.0000,1.44681,0.22301,-2.78021,0.98616,1.57080,0.00001,-0.14513,-0.37992,0.04379,,,,,,,,,,,,,,,,,,,,,,,,,,0,0,0,0,0
3.5464,1783012518.6291,1,1,1.0000,0.0000,1.44681,0.22299,-2.78021,0.98618,1.57080,0.00001,-0.14513,-0.37992,0.04378,,,,,,,,,,,,,,,,,,,,,,,,,,0,0,0,0,0
3.5558,1783012518.6384,1,1,1.0000,0.0000,1.44681,0.22295,-2.78022,0.98624,1.57080,0.00001,-0.14513,-0.37992,0.04377,,,,,,,,,,,,,,,,,,,,,,,,,,0,0,0,0,0
3.5561,1783012518.6388,1,1,1.0000,0.0000,1.44681,0.22295,-2.78022,0.98624,1.57080,0.00001,-0.14513,-0.37992,0.04377,,,,,,,,,,,,,,,,,,,,,,,,,,0,0,0,0,0
3.5693,1783012518.6520,1,1,1.0000,0.0000,1.44681,0.22288,-2.78024,0.98633,1.57080,0.00001,-0.14513,-0.37992,0.04375,,,,,,,,,,,,,,,,,,,,,,,,,,0,0,0,0,0
3.5783,1783012518.6610,1,1,1.0000,0.0000,1.44681,0.22286,-2.78025,0.98635,1.57080,0.00001,-0.14513,-0.37992,0.04375,,,,,,,,,,,,,,,,,,,,,,,,,,0,0,0,0,0
3.5845,1783012518.6672,1,1,1.0000,0.0000,1.44681,0.22285,-2.78025,0.98637,1.57080,0.00001,-0.14513,-0.37992,0.04375,,,,,,,,,,,,,,,,,,,,,,,,,,0,0,0,0,0
3.5977,1783012518.6804,1,1,1.0000,0.0000,1.44681,0.22279,-2.78027,0.98644,1.57080,0.00001,-0.14513,-0.37992,0.04373,,,,,,,,,,,,,,,,,,,,,,,,,,0,0,0,0,0
3.5985,1783012518.6811,1,1,1.0000,0.0000,1.44681,0.22279,-2.78027,0.98644,1.57080,0.00001,-0.14513,-0.37992,0.04373,,,,,,,,,,,,,,,,,,,,,,,,,,0,0,0,0,0
3.6037,1783012518.6863,1,1,1.0000,0.0000,1.44681,0.22278,-2.78027,0.98645,1.57080,0.00001,-0.14513,-0.37992,0.04373,,,,,,,,,,,,,,,,,,,,,,,,,,0,0,0,0,0
3.6041,1783012518.6868,1,1,1.0000,0.0000,1.44681,0.22278,-2.78027,0.98645,1.57080,0.00001,-0.14513,-0.37992,0.04373,,,,,,,,,,,,,,,,,,,,,,,,,,0,0,0,0,0
3.6142,1783012518.6969,1,1,1.0000,0.0000,1.44681,0.22273,-2.78028,0.98652,1.57080,0.00001,-0.14513,-0.37992,0.04371,,,,,,,,,,,,,,,,,,,,,,,,,,0,0,0,0,0
3.6275,1783012518.7102,1,1,1.0000,0.0000,1.44681,0.22265,-2.78030,0.98662,1.57080,0.00001,-0.14513,-0.37992,0.04369,,,,,,,,,,,,,,,,,,,,,,,,,,0,0,0,0,0
3.6278,1783012518.7105,1,1,1.0000,0.0000,1.44681,0.22265,-2.78030,0.98662,1.57080,0.00001,-0.14513,-0.37992,0.04369,,,,,,,,,,,,,,,,,,,,,,,,,,0,0,0,0,0
3.6383,1783012518.7209,1,1,1.0000,0.0000,1.44681,0.22264,-2.78030,0.98663,1.57080,0.00001,-0.14513,-0.37992,0.04369,,,,,,,,,,,,,,,,,,,,,,,,,,0,0,0,0,0
3.6457,1783012518.7284,1,1,1.0000,0.0000,1.44681,0.22262,-2.78031,0.98665,1.57080,0.00001,-0.14513,-0.37992,0.04369,,,,,,,,,,,,,,,,,,,,,,,,,,0,0,0,0,0
3.6623,1783012518.7450,1,1,1.0000,0.0000,1.44681,0.22256,-2.78032,0.98673,1.57080,0.00001,-0.14513,-0.37992,0.04367,,,,,,,,,,,,,,,,,,,,,,,,,,0,0,0,0,0
3.6700,1783012518.7526,1,1,1.0000,0.0000,1.44681,0.22255,-2.78033,0.98675,1.57080,0.00001,-0.14513,-0.37992,0.04367,,,,,,,,,,,,,,,,,,,,,,,,,,0,0,0,0,0
3.6738,1783012518.7565,1,1,1.0000,0.0000,1.44681,0.22253,-2.78033,0.98677,1.57080,0.00001,-0.14513,-0.37992,0.04366,,,,,,,,,,,,,,,,,,,,,,,,,,0,0,0,0,0
3.6744,1783012518.7571,1,1,1.0000,0.0000,1.44681,0.22250,-2.78034,0.98680,1.57080,0.00001,-0.14513,-0.37992,0.04366,,,,,,,,,,,,,,,,,,,,,,,,,,0,0,0,0,0
3.6873,1783012518.7700,1,1,1.0000,0.0000,1.44681,0.22242,-2.78036,0.98690,1.57080,0.00001,-0.14513,-0.37992,0.04364,,,,,,,,,,,,,,,,,,,,,,,,,,0,0,0,0,0
3.7011,1783012518.7838,1,1,1.0000,0.0000,1.44681,0.22241,-2.78036,0.98691,1.57080,0.00001,-0.14513,-0.37992,0.04363,,,,,,,,,,,,,,,,,,,,,,,,,,0,0,0,0,0
3.7036,1783012518.7863,1,1,1.0000,0.0000,1.44681,0.22240,-2.78036,0.98693,1.57080,0.00001,-0.14513,-0.37992,0.04363,,,,,,,,,,,,,,,,,,,,,,,,,,0,0,0,0,0
3.7039,1783012518.7866,1,1,1.0000,0.0000,1.44681,0.22240,-2.78036,0.98693,1.57080,0.00001,-0.14513,-0.37992,0.04363,,,,,,,,,,,,,,,,,,,,,,,,,,0,0,0,0,0
3.7154,1783012518.7980,1,1,1.0000,0.0000,1.44681,0.22234,-2.78038,0.98701,1.57080,0.00001,-0.14513,-0.37992,0.04361,,,,,,,,,,,,,,,,,,,,,,,,,,0,0,0,0,0
3.7256,1783012518.8083,1,1,1.0000,0.0000,1.44681,0.22233,-2.78038,0.98701,1.57080,0.00001,-0.14513,-0.37992,0.04361,,,,,,,,,,,,,,,,,,,,,,,,,,0,0,0,0,0
3.7337,1783012518.8164,1,1,1.0000,0.0000,1.44681,0.22230,-2.78039,0.98705,1.57080,0.00001,-0.14513,-0.37992,0.04360,,,,,,,,,,,,,,,,,,,,,,,,,,0,0,0,0,0
3.7447,1783012518.8274,1,1,1.0000,0.0000,1.44681,0.22222,-2.78041,0.98715,1.57080,0.00001,-0.14513,-0.37992,0.04358,,,,,,,,,,,,,,,,,,,,,,,,,,0,0,0,0,0
3.7593,1783012518.8419,1,1,1.0000,0.0000,1.44681,0.22219,-2.78042,0.98720,1.57080,0.00001,-0.14513,-0.37992,0.04357,,,,,,,,,,,,,,,,,,,,,,,,,,0,0,0,0,0
3.7646,1783012518.8472,1,1,1.0000,0.0000,1.44681,0.22217,-2.78042,0.98721,1.57080,0.00001,-0.14513,-0.37992,0.04357,,,,,,,,,,,,,,,,,,,,,,,,,,0,0,0,0,0
3.7751,1783012518.8577,1,1,1.0000,0.0000,1.44681,0.22211,-2.78044,0.98729,1.57080,0.00001,-0.14513,-0.37992,0.04356,,,,,,,,,,,,,,,,,,,,,,,,,,0,0,0,0,0
3.7839,1783012518.8666,1,1,1.0000,0.0000,1.44681,0.22211,-2.78044,0.98729,1.57080,0.00001,-0.14513,-0.37992,0.04355,,,,,,,,,,,,,,,,,,,,,,,,,,0,0,0,0,0
3.7939,1783012518.8765,1,1,1.0000,0.0000,1.44681,0.22207,-2.78044,0.98733,1.57080,0.00001,-0.14513,-0.37992,0.04355,,,,,,,,,,,,,,,,,,,,,,,,,,0,0,0,0,0
3.8071,1783012518.8897,1,1,1.0000,0.0000,1.44681,0.22197,-2.78047,0.98746,1.57080,0.00001,-0.14513,-0.37992,0.04352,,,,,,,,,,,,,,,,,,,,,,,,,,0,0,0,0,0
3.8140,1783012518.8967,1,1,1.0000,0.0000,1.44681,0.22197,-2.78047,0.98746,1.57080,0.00001,-0.14513,-0.37992,0.04352,,,,,,,,,,,,,,,,,,,,,,,,,,0,0,0,0,0
3.8249,1783012518.9076,1,1,1.0000,0.0000,1.44681,0.22195,-2.78048,0.98750,1.57080,0.00001,-0.14513,-0.37992,0.04351,,,,,,,,,,,,,,,,,,,,,,,,,,0,0,0,0,0
3.8339,1783012518.9165,1,1,1.0000,0.0000,1.44681,0.22191,-2.78049,0.98754,1.57080,0.00001,-0.14513,-0.37992,0.04350,,,,,,,,,,,,,,,,,,,,,,,,,,0,0,0,0,0
3.8439,1783012518.9265,1,1,1.0000,0.0000,1.44681,0.22188,-2.78049,0.98758,1.57080,0.00001,-0.14513,-0.37992,0.04350,,,,,,,,,,,,,,,,,,,,,,,,,,0,0,0,0,0
3.8665,1783012518.9491,1,1,1.0000,0.0000,1.44681,0.22175,-2.78053,0.98775,1.57080,0.00001,-0.14513,-0.37992,0.04346,,,,,,,,,,,,,,,,,,,,,,,,,,0,0,0,0,0
3.8682,1783012518.9508,1,1,1.0000,0.0000,1.44681,0.22175,-2.78053,0.98775,1.57080,0.00001,-0.14513,-0.37992,0.04346,,,,,,,,,,,,,,,,,,,,,,,,,,0,0,0,0,0
3.8685,1783012518.9511,1,1,1.0000,0.0000,1.44681,0.22175,-2.78053,0.98775,1.57080,0.00001,-0.14513,-0.37992,0.04346,,,,,,,,,,,,,,,,,,,,,,,,,,0,0,0,0,0
3.8750,1783012518.9577,1,1,1.0000,0.0000,1.44681,0.22174,-2.78053,0.98775,1.57080,0.00001,-0.14513,-0.37992,0.04346,,,,,,,,,,,,,,,,,,,,,,,,,,0,0,0,0,0
3.8889,1783012518.9716,1,1,1.0000,0.0000,1.44681,0.22170,-2.78054,0.98780,1.57080,0.00001,-0.14513,-0.37992,0.04345,,,,,,,,,,,,,,,,,,,,,,,,,,0,0,0,0,0
3.9002,1783012518.9828,1,1,1.0000,0.0000,1.44681,0.22166,-2.78055,0.98785,1.57080,0.00001,-0.14513,-0.37992,0.04344,,,,,,,,,,,,,,,,,,,,,,,,,,0,0,0,0,0
3.9217,1783012519.0044,1,1,1.0000,0.0000,1.44681,0.22157,-2.78057,0.98796,1.57080,0.00001,-0.14513,-0.37992,0.04342,,,,,,,,,,,,,,,,,,,,,,,,,,0,0,0,0,0
3.9223,1783012519.0049,1,1,1.0000,0.0000,1.44681,0.22155,-2.78058,0.98800,1.57080,0.00001,-0.14513,-0.37992,0.04341,,,,,,,,,,,,,,,,,,,,,,,,,,0,0,0,0,0
3.9298,1783012519.0124,1,1,1.0000,0.0000,1.44681,0.22152,-2.78058,0.98803,1.57080,0.00001,-0.14513,-0.37992,0.04340,,,,,,,,,,,,,,,,,,,,,,,,,,0,0,0,0,0
3.9337,1783012519.0164,1,1,1.0000,0.0000,1.44681,0.22152,-2.78058,0.98803,1.57080,0.00001,-0.14513,-0.37992,0.04340,,,,,,,,,,,,,,,,,,,,,,,,,,0,0,0,0,0
3.9494,1783012519.0321,1,1,1.0000,0.0000,1.44681,0.22146,-2.78060,0.98810,1.57080,0.00001,-0.14513,-0.37992,0.04339,,,,,,,,,,,,,,,,,,,,,,,,,,0,0,0,0,0
4.0313,1783012519.1140,1,1,1.0000,0.0000,1.44681,0.22113,-2.78068,0.98852,1.57080,0.00001,-0.14513,-0.37992,0.04330,,,,,,,,,,,,,,,,,,,,,,,,,,0,0,0,0,0
4.0316,1783012519.1143,1,1,1.0000,0.0000,1.44681,0.22113,-2.78068,0.98852,1.57080,0.00001,-0.14513,-0.37992,0.04330,,,,,,,,,,,,,,,,,,,,,,,,,,0,0,0,0,0
4.0320,1783012519.1147,1,1,1.0000,0.0000,1.44681,0.22113,-2.78068,0.98852,1.57080,0.00001,-0.14513,-0.37992,0.04330,,,,,,,,,,,,,,,,,,,,,,,,,,0,0,0,0,0
4.0323,1783012519.1149,1,1,1.0000,0.0000,1.44681,0.22113,-2.78068,0.98852,1.57080,0.00001,-0.14513,-0.37992,0.04330,,,,,,,,,,,,,,,,,,,,,,,,,,0,0,0,0,0
4.0325,1783012519.1151,1,1,1.0000,0.0000,1.44681,0.22113,-2.78068,0.98852,1.57080,0.00001,-0.14513,-0.37992,0.04330,,,,,,,,,,,,,,,,,,,,,,,,,,0,0,0,0,0
4.0327,1783012519.1154,1,1,1.0000,0.0000,1.44681,0.22113,-2.78068,0.98852,1.57080,0.00001,-0.14513,-0.37992,0.04330,,,,,,,,,,,,,,,,,,,,,,,,,,0,0,0,0,0
4.0330,1783012519.1156,1,1,1.0000,0.0000,1.44681,0.22113,-2.78068,0.98852,1.57080,0.00001,-0.14513,-0.37992,0.04330,,,,,,,,,,,,,,,,,,,,,,,,,,0,0,0,0,0
4.0332,1783012519.1159,1,1,1.0000,0.0000,1.44681,0.22113,-2.78068,0.98852,1.57080,0.00001,-0.14513,-0.37992,0.04330,,,,,,,,,,,,,,,,,,,,,,,,,,0,0,0,0,0
4.0334,1783012519.1161,1,1,1.0000,0.0000,1.44681,0.22113,-2.78068,0.98852,1.57080,0.00001,-0.14513,-0.37992,0.04330,,,,,,,,,,,,,,,,,,,,,,,,,,0,0,0,0,0
4.0371,1783012519.1198,1,1,1.0000,0.0000,1.44681,0.22110,-2.78069,0.98855,1.57080,0.00001,-0.14513,-0.37992,0.04330,,,,,,,,,,,,,,,,,,,,,,,,,,0,0,0,0,0
4.0375,1783012519.1201,1,1,1.0000,0.0000,1.44681,0.22110,-2.78069,0.98855,1.57080,0.00001,-0.14513,-0.37992,0.04330,,,,,,,,,,,,,,,,,,,,,,,,,,0,0,0,0,0
4.0377,1783012519.1203,1,1,1.0000,0.0000,1.44681,0.22110,-2.78069,0.98855,1.57080,0.00001,-0.14513,-0.37992,0.04330,,,,,,,,,,,,,,,,,,,,,,,,,,0,0,0,0,0
4.0458,1783012519.1285,1,1,1.0000,0.0000,1.44681,0.22105,-2.78070,0.98861,1.57080,0.00001,-0.14513,-0.37992,0.04328,,,,,,,,,,,,,,,,,,,,,,,,,,0,0,0,0,0
4.0464,1783012519.1290,1,1,1.0000,0.0000,1.44681,0.22103,-2.78071,0.98864,1.57080,0.00001,-0.14513,-0.37992,0.04328,,,,,,,,,,,,,,,,,,,,,,,,,,0,0,0,0,0
4.0552,1783012519.1379,1,1,1.0000,0.0000,1.44681,0.22102,-2.78071,0.98865,1.57080,0.00001,-0.14513,-0.37992,0.04327,,,,,,,,,,,,,,,,,,,,,,,,,,0,0,0,0,0
4.0693,1783012519.1520,1,1,1.0000,0.0000,1.44681,0.22097,-2.78072,0.98872,1.57080,0.00001,-0.14513,-0.37992,0.04326,,,,,,,,,,,,,,,,,,,,,,,,,,0,0,0,0,0
4.0787,1783012519.1614,1,1,1.0000,0.0000,1.44681,0.22092,-2.78073,0.98878,1.57080,0.00001,-0.14513,-0.37992,0.04325,,,,,,,,,,,,,,,,,,,,,,,,,,0,0,0,0,0
4.0791,1783012519.1617,1,1,1.0000,0.0000,1.44681,0.22092,-2.78073,0.98878,1.57080,0.00001,-0.14513,-0.37992,0.04325,,,,,,,,,,,,,,,,,,,,,,,,,,0,0,0,0,0
4.0869,1783012519.1695,1,1,1.0000,0.0000,1.44681,0.22090,-2.78074,0.98880,1.57080,0.00001,-0.14513,-0.37992,0.04324,,,,,,,,,,,,,,,,,,,,,,,,,,0,0,0,0,0
4.0872,1783012519.1699,1,1,1.0000,0.0000,1.44681,0.22090,-2.78074,0.98880,1.57080,0.00001,-0.14513,-0.37992,0.04324,,,,,,,,,,,,,,,,,,,,,,,,,,0,0,0,0,0
4.0960,1783012519.1786,1,1,1.0000,0.0000,1.44681,0.22086,-2.78075,0.98886,1.57080,0.00001,-0.14513,-0.37992,0.04323,,,,,,,,,,,,,,,,,,,,,,,,,,0,0,0,0,0
4.1038,1783012519.1865,1,1,1.0000,0.0000,1.44681,0.22081,-2.78076,0.98892,1.57080,0.00001,-0.14513,-0.37992,0.04322,,,,,,,,,,,,,,,,,,,,,,,,,,0,0,0,0,0
4.1144,1783012519.1970,1,1,1.0000,0.0000,1.44681,0.22077,-2.78077,0.98896,1.57080,0.00001,-0.14513,-0.37992,0.04321,,,,,,,,,,,,,,,,,,,,,,,,,,0,0,0,0,0
4.1242,1783012519.2068,1,1,1.0000,0.0000,1.44681,0.22074,-2.78078,0.98900,1.57080,0.00001,-0.14513,-0.37992,0.04320,,,,,,,,,,,,,,,,,,,,,,,,,,0,0,0,0,0
4.1245,1783012519.2071,1,1,1.0000,0.0000,1.44681,0.22074,-2.78078,0.98900,1.57080,0.00001,-0.14513,-0.37992,0.04320,,,,,,,,,,,,,,,,,,,,,,,,,,0,0,0,0,0
4.1351,1783012519.2178,1,1,1.0000,0.0000,1.44681,0.22067,-2.78080,0.98909,1.57080,0.00001,-0.14513,-0.37992,0.04318,,,,,,,,,,,,,,,,,,,,,,,,,,0,0,0,0,0
4.1448,1783012519.2274,1,1,1.0000,0.0000,1.44681,0.22066,-2.78080,0.98910,1.57080,0.00001,-0.14513,-0.37992,0.04318,,,,,,,,,,,,,,,,,,,,,,,,,,0,0,0,0,0
4.1452,1783012519.2278,1,1,1.0000,0.0000,1.44681,0.22066,-2.78080,0.98910,1.57080,0.00001,-0.14513,-0.37992,0.04318,,,,,,,,,,,,,,,,,,,,,,,,,,0,0,0,0,0
4.1589,1783012519.2416,1,1,1.0000,0.0000,1.44681,0.22058,-2.78082,0.98920,1.57080,0.00001,-0.14513,-0.37992,0.04316,,,,,,,,,,,,,,,,,,,,,,,,,,0,0,0,0,0
4.1746,1783012519.2573,1,1,1.0000,0.0000,1.44681,0.22053,-2.78083,0.98927,1.57080,0.00001,-0.14513,-0.37992,0.04315,,,,,,,,,,,,,,,,,,,,,,,,,,0,0,0,0,0
4.1751,1783012519.2577,1,1,1.0000,0.0000,1.44681,0.22053,-2.78083,0.98927,1.57080,0.00001,-0.14513,-0.37992,0.04315,,,,,,,,,,,,,,,,,,,,,,,,,,0,0,0,0,0
4.1761,1783012519.2588,1,1,1.0000,0.0000,1.44681,0.22053,-2.78083,0.98927,1.57080,0.00001,-0.14513,-0.37992,0.04315,,,,,,,,,,,,,,,,,,,,,,,,,,0,0,0,0,0
4.1946,1783012519.2772,1,1,1.0000,0.0000,1.44681,0.22042,-2.78086,0.98940,1.57080,0.00001,-0.14513,-0.37992,0.04312,,,,,,,,,,,,,,,,,,,,,,,,,,0,0,0,0,0
4.1947,1783012519.2774,1,1,1.0000,0.0000,1.44681,0.22042,-2.78086,0.98940,1.57080,0.00001,-0.14513,-0.37992,0.04312,,,,,,,,,,,,,,,,,,,,,,,,,,0,0,0,0,0
4.2040,1783012519.2866,1,1,1.0000,0.0000,1.44681,0.22042,-2.78086,0.98941,1.57080,0.00001,-0.14513,-0.37992,0.04312,,,,,,,,,,,,,,,,,,,,,,,,,,0,0,0,0,0
4.2174,1783012519.3001,1,1,1.0000,0.0000,1.44681,0.22036,-2.78087,0.98947,1.57080,0.00001,-0.14513,-0.37992,0.04311,,,,,,,,,,,,,,,,,,,,,,,,,,0,0,0,0,0
4.2237,1783012519.3064,1,1,1.0000,0.0000,1.44681,0.22031,-2.78088,0.98954,1.57080,0.00001,-0.14513,-0.37992,0.04309,,,,,,,,,,,,,,,,,,,,,,,,,,0,0,0,0,0
4.2243,1783012519.3069,1,1,1.0000,0.0000,1.44681,0.22031,-2.78088,0.98954,1.57080,0.00001,-0.14513,-0.37992,0.04309,,,,,,,,,,,,,,,,,,,,,,,,,,0,0,0,0,0
4.2355,1783012519.3182,1,1,1.0000,0.0000,1.44681,0.22028,-2.78089,0.98957,1.57080,0.00001,-0.14513,-0.37992,0.04308,,,,,,,,,,,,,,,,,,,,,,,,,,0,0,0,0,0
4.2453,1783012519.3280,1,1,1.0000,0.0000,1.44681,0.22025,-2.78090,0.98961,1.57080,0.00001,-0.14513,-0.37992,0.04308,,,,,,,,,,,,,,,,,,,,,,,,,,0,0,0,0,0
4.2531,1783012519.3357,1,1,1.0000,0.0000,1.44681,0.22020,-2.78091,0.98967,1.57080,0.00001,-0.14513,-0.37992,0.04306,,,,,,,,,,,,,,,,,,,,,,,,,,0,0,0,0,0
4.2535,1783012519.3361,1,1,1.0000,0.0000,1.44681,0.22020,-2.78091,0.98967,1.57080,0.00001,-0.14513,-0.37992,0.04306,,,,,,,,,,,,,,,,,,,,,,,,,,0,0,0,0,0
4.2745,1783012519.3572,1,1,1.0000,0.0000,1.44681,0.22012,-2.78093,0.98978,1.57080,0.00001,-0.14513,-0.37992,0.04304,,,,,,,,,,,,,,,,,,,,,,,,,,0,0,0,0,0
4.2765,1783012519.3591,1,1,1.0000,0.0000,1.44681,0.22012,-2.78093,0.98978,1.57080,0.00001,-0.14513,-0.37992,0.04304,,,,,,,,,,,,,,,,,,,,,,,,,,0,0,0,0,0
4.2851,1783012519.3677,1,1,1.0000,0.0000,1.44681,0.22006,-2.78095,0.98985,1.57080,0.00001,-0.14513,-0.37992,0.04303,,,,,,,,,,,,,,,,,,,,,,,,,,0,0,0,0,0
4.2948,1783012519.3774,1,1,1.0000,0.0000,1.44681,0.22003,-2.78095,0.98988,1.57080,0.00001,-0.14513,-0.37992,0.04302,,,,,,,,,,,,,,,,,,,,,,,,,,0,0,0,0,0
4.3043,1783012519.3870,1,1,1.0000,0.0000,1.44681,0.22000,-2.78096,0.98992,1.57080,0.00001,-0.14513,-0.37992,0.04301,,,,,,,,,,,,,,,,,,,,,,,,,,0,0,0,0,0
4.3172,1783012519.3999,1,1,1.0000,0.0000,1.44681,0.21993,-2.78098,0.99002,1.57080,0.00001,-0.14513,-0.37992,0.04299,,,,,,,,,,,,,,,,,,,,,,,,,,0,0,0,0,0
4.3236,1783012519.4063,1,1,1.0000,0.0000,1.44681,0.21992,-2.78098,0.99002,1.57080,0.00001,-0.14513,-0.37992,0.04299,,,,,,,,,,,,,,,,,,,,,,,,,,0,0,0,0,0
4.3239,1783012519.4066,1,1,1.0000,0.0000,1.44681,0.21992,-2.78098,0.99002,1.57080,0.00001,-0.14513,-0.37992,0.04299,,,,,,,,,,,,,,,,,,,,,,,,,,0,0,0,0,0
4.3370,1783012519.4196,1,1,1.0000,0.0000,1.44681,0.21987,-2.78099,0.99009,1.57080,0.00001,-0.14513,-0.37992,0.04298,,,,,,,,,,,,,,,,,,,,,,,,,,0,0,0,0,0
4.3437,1783012519.4264,1,1,1.0000,0.0000,1.44681,0.21982,-2.78101,0.99015,1.57080,0.00001,-0.14513,-0.37992,0.04297,,,,,,,,,,,,,,,,,,,,,,,,,,0,0,0,0,0
4.3443,1783012519.4269,1,1,1.0000,0.0000,1.44681,0.21982,-2.78101,0.99015,1.57080,0.00001,-0.14513,-0.37992,0.04297,,,,,,,,,,,,,,,,,,,,,,,,,,0,0,0,0,0
4.3547,1783012519.4374,1,1,1.0000,0.0000,1.44681,0.21979,-2.78101,0.99019,1.57080,0.00002,-0.14513,-0.37992,0.04296,,,,,,,,,,,,,,,,,,,,,,,,,,0,0,0,0,0
4.3640,1783012519.4467,1,1,1.0000,0.0000,1.44681,0.21976,-2.78102,0.99023,1.57080,0.00002,-0.14513,-0.37992,0.04295,,,,,,,,,,,,,,,,,,,,,,,,,,0,0,0,0,0
4.3872,1783012519.4698,1,1,1.0000,0.0000,1.44681,0.21965,-2.78105,0.99036,1.57080,0.00002,-0.14513,-0.37992,0.04292,,,,,,,,,,,,,,,,,,,,,,,,,,0,0,0,0,0
4.3874,1783012519.4701,1,1,1.0000,0.0000,1.44681,0.21965,-2.78105,0.99036,1.57080,0.00002,-0.14513,-0.37992,0.04292,,,,,,,,,,,,,,,,,,,,,,,,,,0,0,0,0,0
4.3951,1783012519.4777,1,1,1.0000,0.0000,1.44681,0.21963,-2.78105,0.99039,1.57080,0.00002,-0.14513,-0.37992,0.04292,,,,,,,,,,,,,,,,,,,,,,,,,,0,0,0,0,0
4.3953,1783012519.4780,1,1,1.0000,0.0000,1.44681,0.21963,-2.78105,0.99039,1.57080,0.00002,-0.14513,-0.37992,0.04292,,,,,,,,,,,,,,,,,,,,,,,,,,0,0,0,0,0
4.4074,1783012519.4901,1,1,1.0000,0.0000,1.44681,0.21957,-2.78107,0.99047,1.57080,0.00002,-0.14513,-0.37992,0.04290,,,,,,,,,,,,,,,,,,,,,,,,,,0,0,0,0,0
4.4173,1783012519.5000,1,1,1.0000,0.0000,1.44681,0.21956,-2.78107,0.99047,1.57080,0.00002,-0.14513,-0.37992,0.04290,,,,,,,,,,,,,,,,,,,,,,,,,,0,0,0,0,0
4.4240,1783012519.5066,1,1,1.0000,0.0000,1.44681,0.21953,-2.78108,0.99051,1.57080,0.00002,-0.14513,-0.37992,0.04289,,,,,,,,,,,,,,,,,,,,,,,,,,0,0,0,0,0
4.4365,1783012519.5192,1,1,1.0000,0.0000,1.44681,0.21945,-2.78110,0.99061,1.57080,0.00002,-0.14513,-0.37992,0.04287,,,,,,,,,,,,,,,,,,,,,,,,,,0,0,0,0,0
4.4369,1783012519.5196,1,1,1.0000,0.0000,1.44681,0.21945,-2.78110,0.99061,1.57080,0.00002,-0.14513,-0.37992,0.04287,,,,,,,,,,,,,,,,,,,,,,,,,,0,0,0,0,0
4.4442,1783012519.5268,1,1,1.0000,0.0000,1.44681,0.21943,-2.78110,0.99064,1.57080,0.00002,-0.14513,-0.37992,0.04287,,,,,,,,,,,,,,,,,,,,,,,,,,0,0,0,0,0
4.4547,1783012519.5373,1,1,1.0000,0.0000,1.44681,0.21940,-2.78111,0.99067,1.57080,0.00002,-0.14513,-0.37992,0.04286,,,,,,,,,,,,,,,,,,,,,,,,,,0,0,0,0,0
4.4647,1783012519.5474,1,1,1.0000,0.0000,1.44681,0.21936,-2.78112,0.99072,1.57080,0.00002,-0.14513,-0.37992,0.04285,,,,,,,,,,,,,,,,,,,,,,,,,,0,0,0,0,0
4.4651,1783012519.5478,1,1,1.0000,0.0000,1.44681,0.21936,-2.78112,0.99072,1.57080,0.00002,-0.14513,-0.37992,0.04285,,,,,,,,,,,,,,,,,,,,,,,,,,0,0,0,0,0
4.4844,1783012519.5671,1,1,1.0000,0.0000,1.44681,0.21930,-2.78113,0.99079,1.57080,0.00002,-0.14513,-0.37992,0.04283,,,,,,,,,,,,,,,,,,,,,,,,,,0,0,0,0,0
4.4906,1783012519.5733,1,1,1.0000,0.0000,1.44681,0.21925,-2.78115,0.99086,1.57080,0.00002,-0.14513,-0.37992,0.04282,,,,,,,,,,,,,,,,,,,,,,,,,,0,0,0,0,0
4.4965,1783012519.5791,1,1,1.0000,0.0000,1.44681,0.21923,-2.78115,0.99089,1.57080,0.00002,-0.14513,-0.37992,0.04281,,,,,,,,,,,,,,,,,,,,,,,,,,0,0,0,0,0
4.5074,1783012519.5901,1,1,1.0000,0.0000,1.44681,0.21920,-2.78116,0.99093,1.57080,0.00002,-0.14513,-0.37992,0.04281,,,,,,,,,,,,,,,,,,,,,,,,,,0,0,0,0,0
4.5193,1783012519.6020,1,1,1.0000,0.0000,1.44681,0.21916,-2.78117,0.99098,1.57080,0.00002,-0.14513,-0.37992,0.04280,,,,,,,,,,,,,,,,,,,,,,,,,,0,0,0,0,0
4.5299,1783012519.6125,1,1,1.0000,0.0000,1.44681,0.21911,-2.78118,0.99103,1.57080,0.00002,-0.14513,-0.37992,0.04279,,,,,,,,,,,,,,,,,,,,,,,,,,0,0,0,0,0
4.5339,1783012519.6165,1,1,1.0000,0.0000,1.44681,0.21911,-2.78118,0.99103,1.57080,0.00002,-0.14513,-0.37992,0.04279,,,,,,,,,,,,,,,,,,,,,,,,,,0,0,0,0,0
4.5446,1783012519.6272,1,1,1.0000,0.0000,1.44681,0.21908,-2.78119,0.99108,1.57080,0.00002,-0.14513,-0.37992,0.04278,,,,,,,,,,,,,,,,,,,,,,,,,,0,0,0,0,0
4.5537,1783012519.6364,1,1,1.0000,0.0000,1.44681,0.21903,-2.78120,0.99114,1.57080,0.00002,-0.14513,-0.37992,0.04276,,,,,,,,,,,,,,,,,,,,,,,,,,0,0,0,0,0
4.5686,1783012519.6512,1,1,1.0000,0.0000,1.44681,0.21897,-2.78122,0.99121,1.57080,0.00002,-0.14513,-0.37992,0.04275,,,,,,,,,,,,,,,,,,,,,,,,,,0,0,0,0,0
4.5804,1783012519.6630,1,1,1.0000,0.0000,1.44681,0.21893,-2.78123,0.99126,1.57080,0.00002,-0.14513,-0.37992,0.04274,,,,,,,,,,,,,,,,,,,,,,,,,,0,0,0,0,0
4.5866,1783012519.6692,1,1,1.0000,0.0000,1.44681,0.21889,-2.78124,0.99132,1.57080,0.00002,-0.14513,-0.37992,0.04273,,,,,,,,,,,,,,,,,,,,,,,,,,0,0,0,0,0
4.5869,1783012519.6695,1,1,1.0000,0.0000,1.44681,0.21889,-2.78124,0.99132,1.57080,0.00002,-0.14513,-0.37992,0.04273,,,,,,,,,,,,,,,,,,,,,,,,,,0,0,0,0,0
4.5947,1783012519.6773,1,1,1.0000,0.0000,1.44681,0.21888,-2.78124,0.99132,1.57080,0.00002,-0.14513,-0.37992,0.04273,,,,,,,,,,,,,,,,,,,,,,,,,,0,0,0,0,0
4.6040,1783012519.6867,1,1,1.0000,0.0000,1.44681,0.21885,-2.78125,0.99136,1.57080,0.00002,-0.14513,-0.37992,0.04272,,,,,,,,,,,,,,,,,,,,,,,,,,0,0,0,0,0
4.6142,1783012519.6968,1,1,1.0000,0.0000,1.44681,0.21880,-2.78126,0.99142,1.57080,0.00002,-0.14513,-0.37992,0.04270,,,,,,,,,,,,,,,,,,,,,,,,,,0,0,0,0,0
4.6241,1783012519.7067,1,1,1.0000,0.0000,1.44681,0.21875,-2.78127,0.99149,1.57080,0.00002,-0.14513,-0.37992,0.04269,,,,,,,,,,,,,,,,,,,,,,,,,,0,0,0,0,0
4.6362,1783012519.7189,1,1,1.0000,0.0000,1.44681,0.21872,-2.78128,0.99152,1.57080,0.00002,-0.14513,-0.37992,0.04268,,,,,,,,,,,,,,,,,,,,,,,,,,0,0,0,0,0
4.6450,1783012519.7276,1,1,1.0000,0.0000,1.44681,0.21868,-2.78129,0.99157,1.57080,0.00002,-0.14513,-0.37992,0.04267,,,,,,,,,,,,,,,,,,,,,,,,,,0,0,0,0,0
4.6453,1783012519.7279,1,1,1.0000,0.0000,1.44681,0.21868,-2.78129,0.99157,1.57080,0.00002,-0.14513,-0.37992,0.04267,,,,,,,,,,,,,,,,,,,,,,,,,,0,0,0,0,0
4.6552,1783012519.7378,1,1,1.0000,0.0000,1.44681,0.21865,-2.78129,0.99160,1.57080,0.00002,-0.14513,-0.37992,0.04267,,,,,,,,,,,,,,,,,,,,,,,,,,0,0,0,0,0
4.6556,1783012519.7382,1,1,1.0000,0.0000,1.44681,0.21865,-2.78129,0.99160,1.57080,0.00002,-0.14513,-0.37992,0.04267,,,,,,,,,,,,,,,,,,,,,,,,,,0,0,0,0,0
4.6651,1783012519.7478,1,1,1.0000,0.0000,1.44681,0.21862,-2.78130,0.99164,1.57080,0.00002,-0.14513,-0.37992,0.04266,,,,,,,,,,,,,,,,,,,,,,,,,,0,0,0,0,0
4.6841,1783012519.7668,1,1,1.0000,0.0000,1.44681,0.21852,-2.78133,0.99177,1.57080,0.00002,-0.14513,-0.37992,0.04263,,,,,,,,,,,,,,,,,,,,,,,,,,0,0,0,0,0
4.6856,1783012519.7682,1,1,1.0000,0.0000,1.44681,0.21852,-2.78133,0.99177,1.57080,0.00002,-0.14513,-0.37992,0.04263,,,,,,,,,,,,,,,,,,,,,,,,,,0,0,0,0,0
4.6942,1783012519.7769,1,1,1.0000,0.0000,1.44681,0.21851,-2.78133,0.99179,1.57080,0.00002,-0.14513,-0.37992,0.04263,,,,,,,,,,,,,,,,,,,,,,,,,,0,0,0,0,0
4.7059,1783012519.7885,1,1,1.0000,0.0000,1.44681,0.21845,-2.78134,0.99185,1.57080,0.00002,-0.14513,-0.37992,0.04262,,,,,,,,,,,,,,,,,,,,,,,,,,0,0,0,0,0
4.7142,1783012519.7968,1,1,1.0000,0.0000,1.44681,0.21843,-2.78135,0.99188,1.57080,0.00002,-0.14513,-0.37992,0.04261,,,,,,,,,,,,,,,,,,,,,,,,,,0,0,0,0,0
4.7289,1783012519.8116,1,1,1.0000,0.0000,1.44681,0.21837,-2.78136,0.99196,1.57080,0.00002,-0.14513,-0.37992,0.04260,,,,,,,,,,,,,,,,,,,,,,,,,,0,0,0,0,0
4.7348,1783012519.8174,1,1,1.0000,0.0000,1.44681,0.21832,-2.78138,0.99202,1.57080,0.00002,-0.14513,-0.37992,0.04258,,,,,,,,,,,,,,,,,,,,,,,,,,0,0,0,0,0
4.7506,1783012519.8332,1,1,1.0000,0.0000,1.44681,0.21828,-2.78139,0.99207,1.57080,0.00002,-0.14513,-0.37992,0.04257,,,,,,,,,,,,,,,,,,,,,,,,,,0,0,0,0,0
4.7545,1783012519.8372,1,1,1.0000,0.0000,1.44681,0.21827,-2.78139,0.99209,1.57080,0.00002,-0.14513,-0.37992,0.04257,,,,,,,,,,,,,,,,,,,,,,,,,,0,0,0,0,0
4.7548,1783012519.8375,1,1,1.0000,0.0000,1.44681,0.21827,-2.78139,0.99209,1.57080,0.00002,-0.14513,-0.37992,0.04257,,,,,,,,,,,,,,,,,,,,,,,,,,0,0,0,0,0
4.7649,1783012519.8475,1,1,1.0000,0.0000,1.44681,0.21823,-2.78140,0.99214,1.57080,0.00002,-0.14513,-0.37992,0.04256,,,,,,,,,,,,,,,,,,,,,,,,,,0,0,0,0,0
4.7757,1783012519.8583,1,1,1.0000,0.0000,1.44681,0.21820,-2.78141,0.99217,1.57080,0.00002,-0.14513,-0.37992,0.04255,,,,,,,,,,,,,,,,,,,,,,,,,,0,0,0,0,0
4.7871,1783012519.8698,1,1,1.0000,0.0000,1.44681,0.21814,-2.78142,0.99224,1.57080,0.00002,-0.14513,-0.37992,0.04254,,,,,,,,,,,,,,,,,,,,,,,,,,0,0,0,0,0
4.7985,1783012519.8811,1,1,1.0000,0.0000,1.44681,0.21806,-2.78144,0.99234,1.57080,0.00002,-0.14513,-0.37992,0.04252,,,,,,,,,,,,,,,,,,,,,,,,,,0,0,0,0,0
4.8091,1783012519.8917,1,1,1.0000,0.0000,1.44681,0.21806,-2.78144,0.99235,1.57080,0.00002,-0.14513,-0.37992,0.04252,,,,,,,,,,,,,,,,,,,,,,,,,,0,0,0,0,0
4.8188,1783012519.9014,1,1,1.0000,0.0000,1.44681,0.21801,-2.78146,0.99241,1.57080,0.00002,-0.14513,-0.37992,0.04250,,,,,,,,,,,,,,,,,,,,,,,,,,0,0,0,0,0
4.8293,1783012519.9119,1,1,1.0000,0.0000,1.44681,0.21795,-2.78147,0.99248,1.57080,0.00002,-0.14513,-0.37992,0.04249,,,,,,,,,,,,,,,,,,,,,,,,,,0,0,0,0,0
4.8411,1783012519.9238,1,1,1.0000,0.0000,1.44681,0.21794,-2.78147,0.99250,1.57080,0.00002,-0.14513,-0.37992,0.04248,,,,,,,,,,,,,,,,,,,,,,,,,,0,0,0,0,0
4.8488,1783012519.9315,1,1,1.0000,0.0000,1.44681,0.21790,-2.78148,0.99255,1.57080,0.00002,-0.14513,-0.37992,0.04247,,,,,,,,,,,,,,,,,,,,,,,,,,0,0,0,0,0
4.8491,1783012519.9318,1,1,1.0000,0.0000,1.44681,0.21790,-2.78148,0.99255,1.57080,0.00002,-0.14513,-0.37992,0.04247,,,,,,,,,,,,,,,,,,,,,,,,,,0,0,0,0,0
4.8571,1783012519.9398,1,1,1.0000,0.0000,1.44681,0.21784,-2.78150,0.99262,1.57080,0.00002,-0.14513,-0.37992,0.04246,,,,,,,,,,,,,,,,,,,,,,,,,,0,0,0,0,0
4.9096,1783012519.9923,1,1,1.0000,0.0000,1.44681,0.21765,-2.78154,0.99286,1.57080,0.00002,-0.14513,-0.37992,0.04241,,,,,,,,,,,,,,,,,,,,,,,,,,0,0,0,0,0
4.9100,1783012519.9926,1,1,1.0000,0.0000,1.44681,0.21765,-2.78154,0.99286,1.57080,0.00002,-0.14513,-0.37992,0.04241,,,,,,,,,,,,,,,,,,,,,,,,,,0,0,0,0,0
4.9105,1783012519.9931,1,1,1.0000,0.0000,1.44681,0.21762,-2.78155,0.99289,1.57080,0.00002,-0.14513,-0.37992,0.04240,,,,,,,,,,,,,,,,,,,,,,,,,,0,0,0,0,0
4.9169,1783012519.9995,1,1,1.0000,0.0000,1.44681,0.21759,-2.78156,0.99293,1.57080,0.00002,-0.14513,-0.37992,0.04240,,,,,,,,,,,,,,,,,,,,,,,,,,0,0,0,0,0
4.9171,1783012519.9998,1,1,1.0000,0.0000,1.44681,0.21759,-2.78156,0.99293,1.57080,0.00002,-0.14513,-0.37992,0.04240,,,,,,,,,,,,,,,,,,,,,,,,,,0,0,0,0,0
4.9601,1783012520.0428,1,1,1.0000,0.0000,1.44681,0.21744,-2.78159,0.99312,1.57080,0.00002,-0.14513,-0.37992,0.04236,,,,,,,,,,,,,,,,,,,,,,,,,,0,0,0,0,0
4.9608,1783012520.0434,1,1,1.0000,0.0000,1.44681,0.21744,-2.78159,0.99312,1.57080,0.00002,-0.14513,-0.37992,0.04236,,,,,,,,,,,,,,,,,,,,,,,,,,0,0,0,0,0
4.9612,1783012520.0438,1,1,1.0000,0.0000,1.44681,0.21744,-2.78159,0.99312,1.57080,0.00002,-0.14513,-0.37992,0.04236,,,,,,,,,,,,,,,,,,,,,,,,,,0,0,0,0,0
4.9614,1783012520.0440,1,1,1.0000,0.0000,1.44681,0.21744,-2.78159,0.99312,1.57080,0.00002,-0.14513,-0.37992,0.04236,,,,,,,,,,,,,,,,,,,,,,,,,,0,0,0,0,0
4.9673,1783012520.0499,1,1,1.0000,0.0000,1.44681,0.21740,-2.78161,0.99317,1.57080,0.00002,-0.14513,-0.37992,0.04235,,,,,,,,,,,,,,,,,,,,,,,,,,0,0,0,0,0
4.9782,1783012520.0608,1,1,1.0000,0.0000,1.44681,0.21735,-2.78162,0.99323,1.57080,0.00002,-0.14513,-0.37992,0.04233,,,,,,,,,,,,,,,,,,,,,,,,,,0,0,0,0,0
4.9890,1783012520.0716,1,1,1.0000,0.0000,1.44681,0.21732,-2.78163,0.99327,1.57080,0.00002,-0.14513,-0.37992,0.04233,,,,,,,,,,,,,,,,,,,,,,,,,,0,0,0,0,0
4.9977,1783012520.0803,1,1,1.0000,0.0000,1.44681,0.21729,-2.78163,0.99331,1.57080,0.00002,-0.14513,-0.37992,0.04232,,,,,,,,,,,,,,,,,,,,,,,,,,0,0,0,0,0
5.0084,1783012520.0911,1,1,1.0000,0.0000,1.44681,0.21721,-2.78165,0.99341,1.57080,0.00002,-0.14513,-0.37992,0.04230,,,,,,,,,,,,,,,,,,,,,,,,,,0,0,0,0,0
5.0179,1783012520.1006,1,1,1.0000,0.0000,1.44681,0.21720,-2.78165,0.99341,1.57080,0.00002,-0.14513,-0.37992,0.04230,,,,,,,,,,,,,,,,,,,,,,,,,,0,0,0,0,0
5.0377,1783012520.1204,1,1,1.0000,0.0000,1.44681,0.21710,-2.78168,0.99354,1.57080,0.00002,-0.14513,-0.37992,0.04227,,,,,,,,,,,,,,,,,,,,,,,,,,0,0,0,0,0
5.0385,1783012520.1212,1,1,1.0000,0.0000,1.44681,0.21707,-2.78169,0.99358,1.57080,0.00002,-0.14513,-0.37992,0.04226,,,,,,,,,,,,,,,,,,,,,,,,,,0,0,0,0,0
5.0390,1783012520.1217,1,1,1.0000,0.0000,1.44681,0.21707,-2.78169,0.99358,1.57080,0.00002,-0.14513,-0.37992,0.04226,,,,,,,,,,,,,,,,,,,,,,,,,,0,0,0,0,0
5.0486,1783012520.1312,1,1,1.0000,0.0000,1.44681,0.21707,-2.78169,0.99358,1.57080,0.00002,-0.14513,-0.37992,0.04226,,,,,,,,,,,,,,,,,,,,,,,,,,0,0,0,0,0
5.0571,1783012520.1397,1,1,1.0000,0.0000,1.44681,0.21704,-2.78169,0.99362,1.57080,0.00002,-0.14513,-0.37992,0.04225,,,,,,,,,,,,,,,,,,,,,,,,,,0,0,0,0,0
5.0575,1783012520.1401,1,1,1.0000,0.0000,1.44681,0.21704,-2.78169,0.99362,1.57080,0.00002,-0.14513,-0.37992,0.04225,,,,,,,,,,,,,,,,,,,,,,,,,,0,0,0,0,0
5.0670,1783012520.1497,1,1,1.0000,0.0000,1.44681,0.21696,-2.78171,0.99372,1.57080,0.00002,-0.14513,-0.37992,0.04223,,,,,,,,,,,,,,,,,,,,,,,,,,0,0,0,0,0
5.0790,1783012520.1617,1,1,1.0000,0.0000,1.44681,0.21694,-2.78172,0.99374,1.57080,0.00002,-0.14513,-0.37992,0.04223,,,,,,,,,,,,,,,,,,,,,,,,,,0,0,0,0,0
5.0952,1783012520.1778,1,1,1.0000,0.0000,1.44681,0.21685,-2.78174,0.99385,1.57080,0.00002,-0.14513,-0.37992,0.04221,,,,,,,,,,,,,,,,,,,,,,,,,,0,0,0,0,0
5.1001,1783012520.1828,1,1,1.0000,0.0000,1.44681,0.21682,-2.78175,0.99389,1.57080,0.00002,-0.14513,-0.37992,0.04220,,,,,,,,,,,,,,,,,,,,,,,,,,0,0,0,0,0
5.1106,1783012520.1933,1,1,1.0000,0.0000,1.44681,0.21681,-2.78175,0.99391,1.57080,0.00002,-0.14513,-0.37992,0.04220,,,,,,,,,,,,,,,,,,,,,,,,,,0,0,0,0,0
5.1168,1783012520.1995,1,1,1.0000,0.0000,1.44681,0.21679,-2.78176,0.99393,1.57080,0.00002,-0.14513,-0.37992,0.04219,,,,,,,,,,,,,,,,,,,,,,,,,,0,0,0,0,0
5.1171,1783012520.1998,1,1,1.0000,0.0000,1.44681,0.21679,-2.78176,0.99393,1.57080,0.00002,-0.14513,-0.37992,0.04219,,,,,,,,,,,,,,,,,,,,,,,,,,0,0,0,0,0
5.1333,1783012520.2160,1,1,1.0000,0.0000,1.44681,0.21669,-2.78178,0.99406,1.57080,0.00002,-0.14513,-0.37992,0.04216,,,,,,,,,,,,,,,,,,,,,,,,,,0,0,0,0,0
5.1372,1783012520.2198,1,1,1.0000,0.0000,1.44681,0.21669,-2.78178,0.99406,1.57080,0.00002,-0.14513,-0.37992,0.04216,,,,,,,,,,,,,,,,,,,,,,,,,,0,0,0,0,0
5.1377,1783012520.2203,1,1,1.0000,0.0000,1.44681,0.21669,-2.78178,0.99406,1.57080,0.00002,-0.14513,-0.37992,0.04216,,,,,,,,,,,,,,,,,,,,,,,,,,0,0,0,0,0
5.1480,1783012520.2307,1,1,1.0000,0.0000,1.44681,0.21666,-2.78179,0.99409,1.57080,0.00002,-0.14513,-0.37992,0.04216,,,,,,,,,,,,,,,,,,,,,,,,,,0,0,0,0,0
5.1572,1783012520.2398,1,1,1.0000,0.0000,1.44681,0.21662,-2.78180,0.99414,1.57080,0.00002,-0.14513,-0.37992,0.04215,,,,,,,,,,,,,,,,,,,,,,,,,,0,0,0,0,0
5.1779,1783012520.2605,1,1,1.0000,0.0000,1.44681,0.21656,-2.78181,0.99421,1.57080,0.00002,-0.14513,-0.37992,0.04213,,,,,,,,,,,,,,,,,,,,,,,,,,0,0,0,0,0
5.1781,1783012520.2607,1,1,1.0000,0.0000,1.44681,0.21656,-2.78181,0.99421,1.57080,0.00002,-0.14513,-0.37992,0.04213,,,,,,,,,,,,,,,,,,,,,,,,,,0,0,0,0,0
5.1791,1783012520.2617,1,1,1.0000,0.0000,1.44681,0.21654,-2.78182,0.99424,1.57080,0.00002,-0.14513,-0.37992,0.04213,,,,,,,,,,,,,,,,,,,,,,,,,,0,0,0,0,0
5.1794,1783012520.2620,1,1,1.0000,0.0000,1.44681,0.21654,-2.78182,0.99424,1.57080,0.00002,-0.14513,-0.37992,0.04213,,,,,,,,,,,,,,,,,,,,,,,,,,0,0,0,0,0
5.1952,1783012520.2778,1,1,1.0000,0.0000,1.44681,0.21646,-2.78184,0.99434,1.57080,0.00002,-0.14513,-0.37992,0.04211,,,,,,,,,,,,,,,,,,,,,,,,,,0,0,0,0,0
5.1954,1783012520.2780,1,1,1.0000,0.0000,1.44681,0.21646,-2.78184,0.99434,1.57080,0.00002,-0.14513,-0.37992,0.04211,,,,,,,,,,,,,,,,,,,,,,,,,,0,0,0,0,0
5.1982,1783012520.2808,1,1,1.0000,0.0000,1.44681,0.21646,-2.78184,0.99434,1.57080,0.00002,-0.14513,-0.37992,0.04211,,,,,,,,,,,,,,,,,,,,,,,,,,0,0,0,0,0
5.2074,1783012520.2900,1,1,1.0000,0.0000,1.44681,0.21643,-2.78184,0.99437,1.57080,0.00002,-0.14513,-0.37992,0.04210,,,,,,,,,,,,,,,,,,,,,,,,,,0,0,0,0,0
5.2171,1783012520.2998,1,1,1.0000,0.0000,1.44681,0.21639,-2.78185,0.99442,1.57080,0.00002,-0.14513,-0.37992,0.04209,,,,,,,,,,,,,,,,,,,,,,,,,,0,0,0,0,0
5.2292,1783012520.3118,1,1,1.0000,0.0000,1.44681,0.21637,-2.78186,0.99446,1.57080,0.00002,-0.14513,-0.37992,0.04208,,,,,,,,,,,,,,,,,,,,,,,,,,0,0,0,0,0
5.2388,1783012520.3215,1,1,1.0000,0.0000,1.44681,0.21631,-2.78187,0.99453,1.57080,0.00002,-0.14513,-0.37992,0.04207,,,,,,,,,,,,,,,,,,,,,,,,,,0,0,0,0,0
5.2470,1783012520.3297,1,1,1.0000,0.0000,1.44681,0.21626,-2.78189,0.99459,1.57080,0.00002,-0.14513,-0.37992,0.04205,,,,,,,,,,,,,,,,,,,,,,,,,,0,0,0,0,0
5.2473,1783012520.3300,1,1,1.0000,0.0000,1.44681,0.21626,-2.78189,0.99459,1.57080,0.00002,-0.14513,-0.37992,0.04205,,,,,,,,,,,,,,,,,,,,,,,,,,0,0,0,0,0
5.2627,1783012520.3453,1,1,1.0000,0.0000,1.44681,0.21622,-2.78190,0.99464,1.57080,0.00002,-0.14513,-0.37992,0.04204,,,,,,,,,,,,,,,,,,,,,,,,,,0,0,0,0,0
5.2672,1783012520.3498,1,1,1.0000,0.0000,1.44681,0.21620,-2.78190,0.99466,1.57080,0.00002,-0.14513,-0.37992,0.04204,,,,,,,,,,,,,,,,,,,,,,,,,,0,0,0,0,0
5.2674,1783012520.3501,1,1,1.0000,0.0000,1.44681,0.21620,-2.78190,0.99466,1.57080,0.00002,-0.14513,-0.37992,0.04204,,,,,,,,,,,,,,,,,,,,,,,,,,0,0,0,0,0
5.2788,1783012520.3614,1,1,1.0000,0.0000,1.44681,0.21614,-2.78191,0.99473,1.57080,0.00002,-0.14513,-0.37991,0.04203,,,,,,,,,,,,,,,,,,,,,,,,,,0,0,0,0,0
5.3009,1783012520.3835,1,1,1.0000,0.0000,1.44681,0.21608,-2.78193,0.99481,1.57080,0.00002,-0.14513,-0.37991,0.04201,,,,,,,,,,,,,,,,,,,,,,,,,,0,0,0,0,0
5.3013,1783012520.3840,1,1,1.0000,0.0000,1.44681,0.21608,-2.78193,0.99481,1.57080,0.00002,-0.14513,-0.37991,0.04201,,,,,,,,,,,,,,,,,,,,,,,,,,0,0,0,0,0
5.3069,1783012520.3896,1,1,1.0000,0.0000,1.44681,0.21603,-2.78194,0.99488,1.57080,0.00002,-0.14513,-0.37991,0.04200,,,,,,,,,,,,,,,,,,,,,,,,,,0,0,0,0,0
5.3072,1783012520.3898,1,1,1.0000,0.0000,1.44681,0.21603,-2.78194,0.99488,1.57080,0.00002,-0.14513,-0.37991,0.04200,,,,,,,,,,,,,,,,,,,,,,,,,,0,0,0,0,0
5.3189,1783012520.4016,1,1,1.0000,0.0000,1.44681,0.21600,-2.78195,0.99492,1.57080,0.00002,-0.14513,-0.37991,0.04199,,,,,,,,,,,,,,,,,,,,,,,,,,0,0,0,0,0
5.3192,1783012520.4018,1,1,1.0000,0.0000,1.44681,0.21600,-2.78195,0.99492,1.57080,0.00002,-0.14513,-0.37991,0.04199,,,,,,,,,,,,,,,,,,,,,,,,,,0,0,0,0,0
5.3312,1783012520.4138,1,1,1.0000,0.0000,1.44681,0.21594,-2.78196,0.99498,1.57080,0.00002,-0.14513,-0.37991,0.04197,,,,,,,,,,,,,,,,,,,,,,,,,,0,0,0,0,0
5.3443,1783012520.4270,1,1,1.0000,0.0000,1.44681,0.21589,-2.78198,0.99505,1.57080,0.00002,-0.14513,-0.37991,0.04196,,,,,,,,,,,,,,,,,,,,,,,,,,0,0,0,0,0
5.3446,1783012520.4272,1,1,1.0000,0.0000,1.44681,0.21589,-2.78198,0.99505,1.57080,0.00002,-0.14513,-0.37991,0.04196,,,,,,,,,,,,,,,,,,,,,,,,,,0,0,0,0,0
5.3495,1783012520.4321,1,1,1.0000,0.0000,1.44681,0.21589,-2.78198,0.99505,1.57080,0.00002,-0.14513,-0.37991,0.04196,,,,,,,,,,,,,,,,,,,,,,,,,,0,0,0,0,0
5.3498,1783012520.4324,1,1,1.0000,0.0000,1.44681,0.21589,-2.78198,0.99505,1.57080,0.00002,-0.14513,-0.37991,0.04196,,,,,,,,,,,,,,,,,,,,,,,,,,0,0,0,0,0
5.3572,1783012520.4399,1,1,1.0000,0.0000,1.44681,0.21586,-2.78198,0.99509,1.57080,0.00002,-0.14513,-0.37991,0.04195,,,,,,,,,,,,,,,,,,,,,,,,,,0,0,0,0,0
5.3699,1783012520.4526,1,1,1.0000,0.0000,1.44681,0.21578,-2.78200,0.99519,1.57080,0.00002,-0.14513,-0.37991,0.04193,,,,,,,,,,,,,,,,,,,,,,,,,,0,0,0,0,0
5.3771,1783012520.4597,1,1,1.0000,0.0000,1.44681,0.21575,-2.78201,0.99522,1.57080,0.00002,-0.14513,-0.37991,0.04193,,,,,,,,,,,,,,,,,,,,,,,,,,0,0,0,0,0
5.3774,1783012520.4600,1,1,1.0000,0.0000,1.44681,0.21575,-2.78201,0.99522,1.57080,0.00002,-0.14513,-0.37991,0.04193,,,,,,,,,,,,,,,,,,,,,,,,,,0,0,0,0,0
5.3942,1783012520.4769,1,1,1.0000,0.0000,1.44681,0.21570,-2.78202,0.99529,1.57080,0.00002,-0.14513,-0.37991,0.04191,,,,,,,,,,,,,,,,,,,,,,,,,,0,0,0,0,0
5.3948,1783012520.4774,1,1,1.0000,0.0000,1.44681,0.21567,-2.78203,0.99532,1.57080,0.00002,-0.14513,-0.37991,0.04190,,,,,,,,,,,,,,,,,,,,,,,,,,0,0,0,0,0
5.4052,1783012520.4878,1,1,1.0000,0.0000,1.44681,0.21564,-2.78204,0.99536,1.57080,0.00002,-0.14513,-0.37991,0.04190,,,,,,,,,,,,,,,,,,,,,,,,,,0,0,0,0,0
5.4056,1783012520.4883,1,1,1.0000,0.0000,1.44681,0.21564,-2.78204,0.99536,1.57080,0.00002,-0.14513,-0.37991,0.04190,,,,,,,,,,,,,,,,,,,,,,,,,,0,0,0,0,0
5.4571,1783012520.5397,1,1,1.0000,0.0000,1.44681,0.21542,-2.78209,0.99563,1.57080,0.00002,-0.14513,-0.37991,0.04184,,,,,,,,,,,,,,,,,,,,,,,,,,0,0,0,0,0
5.4574,1783012520.5401,1,1,1.0000,0.0000,1.44681,0.21542,-2.78209,0.99563,1.57080,0.00002,-0.14513,-0.37991,0.04184,,,,,,,,,,,,,,,,,,,,,,,,,,0,0,0,0,0
5.4578,1783012520.5405,1,1,1.0000,0.0000,1.44681,0.21542,-2.78209,0.99563,1.57080,0.00002,-0.14513,-0.37991,0.04184,,,,,,,,,,,,,,,,,,,,,,,,,,0,0,0,0,0
5.4581,1783012520.5408,1,1,1.0000,0.0000,1.44681,0.21542,-2.78209,0.99563,1.57080,0.00002,-0.14513,-0.37991,0.04184,,,,,,,,,,,,,,,,,,,,,,,,,,0,0,0,0,0
5.4587,1783012520.5414,1,1,1.0000,0.0000,1.44681,0.21539,-2.78210,0.99567,1.57080,0.00002,-0.14513,-0.37991,0.04183,,,,,,,,,,,,,,,,,,,,,,,,,,0,0,0,0,0
5.4633,1783012520.5460,1,1,1.0000,0.0000,1.44681,0.21537,-2.78210,0.99570,1.57080,0.00002,-0.14513,-0.37991,0.04183,,,,,,,,,,,,,,,,,,,,,,,,,,0,0,0,0,0
5.4672,1783012520.5499,1,1,1.0000,0.0000,1.44681,0.21537,-2.78210,0.99570,1.57080,0.00002,-0.14513,-0.37991,0.04183,,,,,,,,,,,,,,,,,,,,,,,,,,0,0,0,0,0
5.4676,1783012520.5503,1,1,1.0000,0.0000,1.44681,0.21537,-2.78210,0.99570,1.57080,0.00002,-0.14513,-0.37991,0.04183,,,,,,,,,,,,,,,,,,,,,,,,,,0,0,0,0,0
5.4772,1783012520.5598,1,1,1.0000,0.0000,1.44681,0.21536,-2.78211,0.99572,1.57080,0.00002,-0.14513,-0.37991,0.04182,,,,,,,,,,,,,,,,,,,,,,,,,,0,0,0,0,0
5.4917,1783012520.5743,1,1,1.0000,0.0000,1.44681,0.21528,-2.78213,0.99581,1.57080,0.00002,-0.14513,-0.37991,0.04181,,,,,,,,,,,,,,,,,,,,,,,,,,0,0,0,0,0
5.5051,1783012520.5878,1,1,1.0000,0.0000,1.44681,0.21526,-2.78213,0.99583,1.57080,0.00002,-0.14513,-0.37991,0.04180,,,,,,,,,,,,,,,,,,,,,,,,,,0,0,0,0,0
5.5056,1783012520.5882,1,1,1.0000,0.0000,1.44681,0.21526,-2.78213,0.99583,1.57080,0.00002,-0.14513,-0.37991,0.04180,,,,,,,,,,,,,,,,,,,,,,,,,,0,0,0,0,0
5.5430,1783012520.6257,1,1,1.0000,0.0000,1.44681,0.21508,-2.78217,0.99606,1.57080,0.00002,-0.14513,-0.37991,0.04176,,,,,,,,,,,,,,,,,,,,,,,,,,0,0,0,0,0
5.5434,1783012520.6261,1,1,1.0000,0.0000,1.44681,0.21508,-2.78217,0.99606,1.57080,0.00002,-0.14513,-0.37991,0.04176,,,,,,,,,,,,,,,,,,,,,,,,,,0,0,0,0,0
5.5437,1783012520.6263,1,1,1.0000,0.0000,1.44681,0.21508,-2.78217,0.99606,1.57080,0.00002,-0.14513,-0.37991,0.04176,,,,,,,,,,,,,,,,,,,,,,,,,,0,0,0,0,0
5.5538,1783012520.6364,1,1,1.0000,0.0000,1.44680,0.21503,-2.78219,0.99612,1.57080,0.00002,-0.14513,-0.37991,0.04174,,,,,,,,,,,,,,,,,,,,,,,,,,0,0,0,0,0
5.5542,1783012520.6368,1,1,1.0000,0.0000,1.44680,0.21503,-2.78219,0.99612,1.57080,0.00002,-0.14513,-0.37991,0.04174,,,,,,,,,,,,,,,,,,,,,,,,,,0,0,0,0,0
5.5583,1783012520.6409,1,1,1.0000,0.0000,1.44680,0.21503,-2.78219,0.99612,1.57080,0.00002,-0.14513,-0.37991,0.04174,,,,,,,,,,,,,,,,,,,,,,,,,,0,0,0,0,0
5.5677,1783012520.6503,1,1,1.0000,0.0000,1.44680,0.21499,-2.78220,0.99617,1.57080,0.00002,-0.14513,-0.37991,0.04173,,,,,,,,,,,,,,,,,,,,,,,,,,0,0,0,0,0
5.5781,1783012520.6607,1,1,1.0000,0.0000,1.44680,0.21494,-2.78221,0.99623,1.57080,0.00002,-0.14513,-0.37991,0.04172,,,,,,,,,,,,,,,,,,,,,,,,,,0,0,0,0,0
5.5877,1783012520.6703,1,1,1.0000,0.0000,1.44680,0.21491,-2.78222,0.99627,1.57080,0.00002,-0.14513,-0.37991,0.04171,,,,,,,,,,,,,,,,,,,,,,,,,,0,0,0,0,0
5.6095,1783012520.6921,1,1,1.0000,0.0000,1.44680,0.21481,-2.78224,0.99640,1.57080,0.00002,-0.14513,-0.37991,0.04168,,,,,,,,,,,,,,,,,,,,,,,,,,0,0,0,0,0
5.6099,1783012520.6925,1,1,1.0000,0.0000,1.44680,0.21481,-2.78224,0.99640,1.57080,0.00002,-0.14513,-0.37991,0.04168,,,,,,,,,,,,,,,,,,,,,,,,,,0,0,0,0,0
5.6177,1783012520.7004,1,1,1.0000,0.0000,1.44680,0.21478,-2.78225,0.99643,1.57080,0.00002,-0.14513,-0.37991,0.04168,,,,,,,,,,,,,,,,,,,,,,,,,,0,0,0,0,0
5.6279,1783012520.7106,1,1,1.0000,0.0000,1.44680,0.21474,-2.78226,0.99648,1.57080,0.00002,-0.14513,-0.37991,0.04167,,,,,,,,,,,,,,,,,,,,,,,,,,0,0,0,0,0
5.6548,1783012520.7375,1,1,1.0000,0.0000,1.44680,0.21463,-2.78229,0.99662,1.57080,0.00002,-0.14513,-0.37991,0.04164,,,,,,,,,,,,,,,,,,,,,,,,,,0,0,0,0,0
5.6553,1783012520.7380,1,1,1.0000,0.0000,1.44680,0.21463,-2.78229,0.99662,1.57080,0.00002,-0.14513,-0.37991,0.04164,,,,,,,,,,,,,,,,,,,,,,,,,,0,0,0,0,0
5.6599,1783012520.7426,1,1,1.0000,0.0000,1.44680,0.21462,-2.78229,0.99664,1.57080,0.00002,-0.14513,-0.37991,0.04164,,,,,,,,,,,,,,,,,,,,,,,,,,0,0,0,0,0
5.6679,1783012520.7505,1,1,1.0000,0.0000,1.44680,0.21458,-2.78230,0.99668,1.57080,0.00002,-0.14513,-0.37991,0.04163,,,,,,,,,,,,,,,,,,,,,,,,,,0,0,0,0,0
5.6811,1783012520.7638,1,1,1.0000,0.0000,1.44680,0.21455,-2.78230,0.99672,1.57080,0.00002,-0.14513,-0.37991,0.04162,,,,,,,,,,,,,,,,,,,,,,,,,,0,0,0,0,0
5.6884,1783012520.7711,1,1,1.0000,0.0000,1.44680,0.21452,-2.78231,0.99676,1.57080,0.00002,-0.14513,-0.37991,0.04161,,,,,,,,,,,,,,,,,,,,,,,,,,0,0,0,0,0
5.7023,1783012520.7849,1,1,1.0000,0.0000,1.44680,0.21444,-2.78233,0.99686,1.57080,0.00002,-0.14513,-0.37991,0.04159,,,,,,,,,,,,,,,,,,,,,,,,,,0,0,0,0,0
5.7129,1783012520.7955,1,1,1.0000,0.0000,1.44680,0.21441,-2.78234,0.99689,1.57080,0.00002,-0.14513,-0.37991,0.04158,,,,,,,,,,,,,,,,,,,,,,,,,,0,0,0,0,0
5.7173,1783012520.7999,1,1,1.0000,0.0000,1.44680,0.21440,-2.78234,0.99690,1.57080,0.00002,-0.14513,-0.37991,0.04158,,,,,,,,,,,,,,,,,,,,,,,,,,0,0,0,0,0
5.7283,1783012520.8109,1,1,1.0000,0.0000,1.44680,0.21435,-2.78235,0.99697,1.57080,0.00002,-0.14513,-0.37991,0.04157,,,,,,,,,,,,,,,,,,,,,,,,,,0,0,0,0,0
5.7286,1783012520.8112,1,1,1.0000,0.0000,1.44680,0.21435,-2.78235,0.99697,1.57080,0.00002,-0.14513,-0.37991,0.04157,,,,,,,,,,,,,,,,,,,,,,,,,,0,0,0,0,0
5.7368,1783012520.8194,1,1,1.0000,0.0000,1.44680,0.21433,-2.78236,0.99700,1.57080,0.00002,-0.14513,-0.37991,0.04156,,,,,,,,,,,,,,,,,,,,,,,,,,0,0,0,0,0
5.7371,1783012520.8197,1,1,1.0000,0.0000,1.44680,0.21433,-2.78236,0.99700,1.57080,0.00002,-0.14513,-0.37991,0.04156,,,,,,,,,,,,,,,,,,,,,,,,,,0,0,0,0,0
5.7517,1783012520.8343,1,1,1.0000,0.0000,1.44680,0.21426,-2.78237,0.99707,1.57080,0.00002,-0.14513,-0.37991,0.04155,,,,,,,,,,,,,,,,,,,,,,,,,,0,0,0,0,0
5.7573,1783012520.8399,1,1,1.0000,0.0000,1.44680,0.21424,-2.78238,0.99711,1.57080,0.00002,-0.14513,-0.37991,0.04154,,,,,,,,,,,,,,,,,,,,,,,,,,0,0,0,0,0
5.7706,1783012520.8533,1,1,1.0000,0.0000,1.44680,0.21418,-2.78239,0.99718,1.57080,0.00002,-0.14513,-0.37991,0.04153,,,,,,,,,,,,,,,,,,,,,,,,,,0,0,0,0,0
