Martins-Lucaas/twinforge/sensors/Data/20260704_145016__samples.csv
t_rel_s,t_unix,cycle,phase,setpoint_n,force_net_n,q1,q2,q3,q4,q5,q6,tcp_x,tcp_y,tcp_z,taxel_0,taxel_1,taxel_2,taxel_3,taxel_4,taxel_5,taxel_6,taxel_7,taxel_8,taxel_9,taxel_10,taxel_11,taxel_12,taxel_13,taxel_14,taxel_15,taxel_16,taxel_17,taxel_18,taxel_19,taxel_20,taxel_21,taxel_22,taxel_23,taxel_24,n_RA,n_SA,cn_mm,cn_ra,cn_sa
0.0015,1783187416.0326,0,-1,1.0000,0.0000,1.44682,0.23328,-2.77748,0.97337,1.57080,-0.00000,-0.14512,-0.38003,0.04653,,,,,,,,,,,,,,,,,,,,,,,,,,0,0,0,0,0
0.0018,1783187416.0328,0,-1,1.0000,0.0000,1.44682,0.23328,-2.77748,0.97337,1.57080,-0.00000,-0.14512,-0.38003,0.04653,,,,,,,,,,,,,,,,,,,,,,,,,,0,0,0,0,0
0.0136,1783187416.0446,1,0,1.0000,0.0000,1.44682,0.23328,-2.77748,0.97337,1.57080,0.00000,-0.14512,-0.38003,0.04653,,,,,,,,,,,,,,,,,,,,,,,,,,0,0,0,0,0
0.0266,1783187416.0576,1,0,1.0000,0.0000,1.44682,0.23328,-2.77748,0.97337,1.57080,0.00000,-0.14512,-0.38003,0.04653,,,,,,,,,,,,,,,,,,,,,,,,,,0,0,0,0,0
0.0269,1783187416.0579,1,0,1.0000,0.0000,1.44682,0.23328,-2.77748,0.97337,1.57080,0.00000,-0.14512,-0.38003,0.04653,,,,,,,,,,,,,,,,,,,,,,,,,,0,0,0,0,0
0.0357,1783187416.0667,1,0,1.0000,0.0000,1.44682,0.23328,-2.77748,0.97337,1.57080,0.00000,-0.14512,-0.38003,0.04653,,,,,,,,,,,,,,,,,,,,,,,,,,0,0,0,0,0
0.0364,1783187416.0675,1,0,1.0000,0.0000,1.44682,0.23328,-2.77748,0.97337,1.57080,0.00000,-0.14512,-0.38003,0.04653,,,,,,,,,,,,,,,,,,,,,,,,,,0,0,0,0,0
0.0464,1783187416.0774,1,0,1.0000,0.0000,1.44682,0.23328,-2.77748,0.97337,1.57080,0.00000,-0.14512,-0.38003,0.04653,,,,,,,,,,,,,,,,,,,,,,,,,,0,0,0,0,0
0.0573,1783187416.0883,1,0,1.0000,0.0000,1.44682,0.23328,-2.77748,0.97337,1.57080,0.00000,-0.14512,-0.38003,0.04653,,,,,,,,,,,,,,,,,,,,,,,,,,0,0,0,0,0
0.0712,1783187416.1023,1,0,1.0000,0.0000,1.44682,0.23328,-2.77748,0.97337,1.57080,0.00000,-0.14512,-0.38003,0.04653,,,,,,,,,,,,,,,,,,,,,,,,,,0,0,0,0,0
0.0752,1783187416.1062,1,0,1.0000,0.0000,1.44682,0.23328,-2.77748,0.97337,1.57080,0.00000,-0.14512,-0.38003,0.04653,,,,,,,,,,,,,,,,,,,,,,,,,,0,0,0,0,0
0.0755,1783187416.1065,1,0,1.0000,0.0000,1.44682,0.23328,-2.77748,0.97337,1.57080,0.00000,-0.14512,-0.38003,0.04653,,,,,,,,,,,,,,,,,,,,,,,,,,0,0,0,0,0
0.0896,1783187416.1207,1,0,1.0000,0.0000,1.44682,0.23328,-2.77748,0.97337,1.57080,0.00000,-0.14512,-0.38003,0.04653,,,,,,,,,,,,,,,,,,,,,,,,,,0,0,0,0,0
0.0952,1783187416.1262,1,0,1.0000,0.0000,1.44682,0.23328,-2.77748,0.97337,1.57080,0.00000,-0.14512,-0.38003,0.04653,,,,,,,,,,,,,,,,,,,,,,,,,,0,0,0,0,0
0.1074,1783187416.1385,1,0,1.0000,0.0000,1.44682,0.23328,-2.77748,0.97337,1.57080,0.00000,-0.14512,-0.38003,0.04653,,,,,,,,,,,,,,,,,,,,,,,,,,0,0,0,0,0
0.1164,1783187416.1475,1,0,1.0000,0.0000,1.44682,0.23328,-2.77748,0.97337,1.57080,0.00000,-0.14512,-0.38003,0.04653,,,,,,,,,,,,,,,,,,,,,,,,,,0,0,0,0,0
0.1166,1783187416.1476,1,0,1.0000,0.0000,1.44682,0.23328,-2.77748,0.97337,1.57080,0.00000,-0.14512,-0.38003,0.04653,,,,,,,,,,,,,,,,,,,,,,,,,,0,0,0,0,0
0.1269,1783187416.1580,1,0,1.0000,0.0000,1.44682,0.23328,-2.77748,0.97337,1.57080,0.00000,-0.14512,-0.38003,0.04653,,,,,,,,,,,,,,,,,,,,,,,,,,0,0,0,0,0
0.1397,1783187416.1707,1,0,1.0000,0.0000,1.44682,0.23328,-2.77748,0.97337,1.57080,0.00000,-0.14512,-0.38003,0.04653,,,,,,,,,,,,,,,,,,,,,,,,,,0,0,0,0,0
0.1488,1783187416.1798,1,0,1.0000,0.0000,1.44682,0.23328,-2.77748,0.97337,1.57080,0.00000,-0.14512,-0.38003,0.04653,,,,,,,,,,,,,,,,,,,,,,,,,,0,0,0,0,0
0.1561,1783187416.1872,1,0,1.0000,0.0000,1.44682,0.23328,-2.77748,0.97337,1.57080,0.00000,-0.14512,-0.38003,0.04653,,,,,,,,,,,,,,,,,,,,,,,,,,0,0,0,0,0
0.1756,1783187416.2067,1,0,1.0000,0.0000,1.44682,0.23328,-2.77748,0.97337,1.57080,0.00000,-0.14512,-0.38003,0.04653,,,,,,,,,,,,,,,,,,,,,,,,,,0,0,0,0,0
0.1759,1783187416.2070,1,0,1.0000,0.0000,1.44682,0.23328,-2.77748,0.97337,1.57080,0.00000,-0.14512,-0.38003,0.04653,,,,,,,,,,,,,,,,,,,,,,,,,,0,0,0,0,0
0.1858,1783187416.2168,1,0,1.0000,0.0000,1.44682,0.23328,-2.77748,0.97337,1.57080,0.00000,-0.14512,-0.38003,0.04653,,,,,,,,,,,,,,,,,,,,,,,,,,0,0,0,0,0
0.1952,1783187416.2263,1,0,1.0000,0.0000,1.44682,0.23328,-2.77748,0.97337,1.57080,0.00000,-0.14512,-0.38003,0.04653,,,,,,,,,,,,,,,,,,,,,,,,,,0,0,0,0,0
0.1955,1783187416.2266,1,0,1.0000,0.0000,1.44682,0.23328,-2.77748,0.97337,1.57080,0.00000,-0.14512,-0.38003,0.04653,,,,,,,,,,,,,,,,,,,,,,,,,,0,0,0,0,0
0.2085,1783187416.2396,1,0,1.0000,0.0000,1.44682,0.23328,-2.77748,0.97337,1.57080,0.00000,-0.14512,-0.38003,0.04653,,,,,,,,,,,,,,,,,,,,,,,,,,0,0,0,0,0
0.2173,1783187416.2484,1,0,1.0000,0.0000,1.44682,0.23328,-2.77748,0.97337,1.57080,0.00000,-0.14512,-0.38003,0.04653,,,,,,,,,,,,,,,,,,,,,,,,,,0,0,0,0,0
0.2176,1783187416.2487,1,0,1.0000,0.0000,1.44682,0.23328,-2.77748,0.97337,1.57080,0.00000,-0.14512,-0.38003,0.04653,,,,,,,,,,,,,,,,,,,,,,,,,,0,0,0,0,0
0.2263,1783187416.2573,1,0,1.0000,0.0000,1.44682,0.23328,-2.77748,0.97337,1.57080,0.00000,-0.14512,-0.38003,0.04653,,,,,,,,,,,,,,,,,,,,,,,,,,0,0,0,0,0
0.2367,1783187416.2678,1,0,1.0000,0.0000,1.44682,0.23328,-2.77748,0.97337,1.57080,0.00000,-0.14512,-0.38003,0.04653,,,,,,,,,,,,,,,,,,,,,,,,,,0,0,0,0,0
0.2454,1783187416.2764,1,0,1.0000,0.0000,1.44682,0.23328,-2.77748,0.97337,1.57080,0.00000,-0.14512,-0.38003,0.04653,,,,,,,,,,,,,,,,,,,,,,,,,,0,0,0,0,0
0.2606,1783187416.2917,1,0,1.0000,0.0000,1.44682,0.23328,-2.77748,0.97337,1.57080,0.00000,-0.14512,-0.38003,0.04653,,,,,,,,,,,,,,,,,,,,,,,,,,0,0,0,0,0
0.2658,1783187416.2968,1,0,1.0000,0.0000,1.44682,0.23328,-2.77748,0.97337,1.57080,0.00000,-0.14512,-0.38003,0.04653,,,,,,,,,,,,,,,,,,,,,,,,,,0,0,0,0,0
0.2662,1783187416.2972,1,0,1.0000,0.0000,1.44682,0.23328,-2.77748,0.97337,1.57080,0.00000,-0.14512,-0.38003,0.04653,,,,,,,,,,,,,,,,,,,,,,,,,,0,0,0,0,0
0.2782,1783187416.3092,1,0,1.0000,0.0000,1.44682,0.23328,-2.77748,0.97337,1.57080,0.00000,-0.14512,-0.38003,0.04653,,,,,,,,,,,,,,,,,,,,,,,,,,0,0,0,0,0
0.2893,1783187416.3204,1,0,1.0000,0.0000,1.44682,0.23328,-2.77748,0.97337,1.57080,0.00000,-0.14512,-0.38003,0.04653,,,,,,,,,,,,,,,,,,,,,,,,,,0,0,0,0,0
0.3000,1783187416.3310,1,0,1.0000,0.0000,1.44682,0.23328,-2.77748,0.97337,1.57080,0.00000,-0.14512,-0.38003,0.04653,,,,,,,,,,,,,,,,,,,,,,,,,,0,0,0,0,0
0.3061,1783187416.3371,1,0,1.0000,0.0000,1.44682,0.23328,-2.77748,0.97337,1.57080,0.00000,-0.14512,-0.38003,0.04653,,,,,,,,,,,,,,,,,,,,,,,,,,0,0,0,0,0
0.3199,1783187416.3510,1,0,1.0000,0.0000,1.44682,0.23328,-2.77748,0.97337,1.57080,0.00000,-0.14512,-0.38003,0.04653,,,,,,,,,,,,,,,,,,,,,,,,,,0,0,0,0,0
0.3268,1783187416.3578,1,0,1.0000,0.0000,1.44682,0.23328,-2.77748,0.97337,1.57080,0.00000,-0.14512,-0.38003,0.04653,,,,,,,,,,,,,,,,,,,,,,,,,,0,0,0,0,0
0.3411,1783187416.3721,1,0,1.0000,0.0000,1.44682,0.23328,-2.77748,0.97337,1.57080,0.00000,-0.14512,-0.38003,0.04653,,,,,,,,,,,,,,,,,,,,,,,,,,0,0,0,0,0
0.3494,1783187416.3804,1,0,1.0000,0.0000,1.44682,0.23328,-2.77748,0.97337,1.57080,0.00000,-0.14512,-0.38003,0.04653,,,,,,,,,,,,,,,,,,,,,,,,,,0,0,0,0,0
0.3572,1783187416.3883,1,0,1.0000,0.0000,1.44682,0.23328,-2.77748,0.97337,1.57080,0.00000,-0.14512,-0.38003,0.04653,,,,,,,,,,,,,,,,,,,,,,,,,,0,0,0,0,0
0.3686,1783187416.3996,1,0,1.0000,0.0000,1.44682,0.23328,-2.77748,0.97337,1.57080,0.00000,-0.14512,-0.38003,0.04653,,,,,,,,,,,,,,,,,,,,,,,,,,0,0,0,0,0
0.3887,1783187416.4198,1,0,1.0000,0.0000,1.44682,0.23328,-2.77748,0.97337,1.57080,0.00000,-0.14512,-0.38003,0.04653,,,,,,,,,,,,,,,,,,,,,,,,,,0,0,0,0,0
0.3891,1783187416.4201,1,0,1.0000,0.0000,1.44682,0.23328,-2.77748,0.97337,1.57080,0.00000,-0.14512,-0.38003,0.04653,,,,,,,,,,,,,,,,,,,,,,,,,,0,0,0,0,0
0.3893,1783187416.4204,1,0,1.0000,0.0000,1.44682,0.23328,-2.77748,0.97337,1.57080,0.00000,-0.14512,-0.38003,0.04653,,,,,,,,,,,,,,,,,,,,,,,,,,0,0,0,0,0
0.3972,1783187416.4282,1,0,1.0000,0.0000,1.44682,0.23328,-2.77748,0.97337,1.57080,0.00000,-0.14512,-0.38003,0.04653,,,,,,,,,,,,,,,,,,,,,,,,,,0,0,0,0,0
0.4070,1783187416.4381,1,0,1.0000,0.0000,1.44682,0.23328,-2.77748,0.97337,1.57080,0.00000,-0.14512,-0.38003,0.04653,,,,,,,,,,,,,,,,,,,,,,,,,,0,0,0,0,0
0.4074,1783187416.4384,1,0,1.0000,0.0000,1.44682,0.23328,-2.77748,0.97337,1.57080,0.00000,-0.14512,-0.38003,0.04653,,,,,,,,,,,,,,,,,,,,,,,,,,0,0,0,0,0
0.4172,1783187416.4482,1,0,1.0000,0.0000,1.44682,0.23328,-2.77748,0.97337,1.57080,0.00000,-0.14512,-0.38003,0.04653,,,,,,,,,,,,,,,,,,,,,,,,,,0,0,0,0,0
0.4275,1783187416.4586,1,0,1.0000,0.0000,1.44682,0.23328,-2.77748,0.97337,1.57080,0.00000,-0.14512,-0.38003,0.04653,,,,,,,,,,,,,,,,,,,,,,,,,,0,0,0,0,0
0.4429,1783187416.4739,1,0,1.0000,0.0000,1.44682,0.23328,-2.77748,0.97337,1.57080,0.00000,-0.14512,-0.38003,0.04653,,,,,,,,,,,,,,,,,,,,,,,,,,0,0,0,0,0
0.4515,1783187416.4825,1,0,1.0000,0.0000,1.44682,0.23328,-2.77748,0.97337,1.57080,0.00000,-0.14512,-0.38003,0.04653,,,,,,,,,,,,,,,,,,,,,,,,,,0,0,0,0,0
0.4554,1783187416.4865,1,0,1.0000,0.0000,1.44682,0.23328,-2.77748,0.97337,1.57080,0.00000,-0.14512,-0.38003,0.04653,,,,,,,,,,,,,,,,,,,,,,,,,,0,0,0,0,0
0.4653,1783187416.4963,1,0,1.0000,0.0000,1.44682,0.23328,-2.77748,0.97337,1.57080,0.00000,-0.14512,-0.38003,0.04653,,,,,,,,,,,,,,,,,,,,,,,,,,0,0,0,0,0
0.4828,1783187416.5138,1,0,1.0000,0.0000,1.44682,0.23328,-2.77748,0.97337,1.57080,0.00000,-0.14512,-0.38003,0.04653,,,,,,,,,,,,,,,,,,,,,,,,,,0,0,0,0,0
0.4857,1783187416.5167,1,0,1.0000,0.0000,1.44682,0.23328,-2.77748,0.97337,1.57080,0.00000,-0.14512,-0.38003,0.04653,,,,,,,,,,,,,,,,,,,,,,,,,,0,0,0,0,0
0.4861,1783187416.5171,1,0,1.0000,0.0000,1.44682,0.23328,-2.77748,0.97337,1.57080,0.00000,-0.14512,-0.38003,0.04653,,,,,,,,,,,,,,,,,,,,,,,,,,0,0,0,0,0
0.4954,1783187416.5264,1,0,1.0000,0.0000,1.44682,0.23328,-2.77748,0.97337,1.57080,0.00000,-0.14512,-0.38003,0.04653,,,,,,,,,,,,,,,,,,,,,,,,,,0,0,0,0,0
0.5089,1783187416.5400,1,0,1.0000,0.0000,1.44682,0.23328,-2.77748,0.97337,1.57080,0.00000,-0.14512,-0.38003,0.04653,,,,,,,,,,,,,,,,,,,,,,,,,,0,0,0,0,0
0.5151,1783187416.5462,1,0,1.0000,0.0000,1.44682,0.23328,-2.77748,0.97337,1.57080,0.00000,-0.14512,-0.38003,0.04653,,,,,,,,,,,,,,,,,,,,,,,,,,0,0,0,0,0
0.5155,1783187416.5465,1,0,1.0000,0.0000,1.44682,0.23328,-2.77748,0.97337,1.57080,0.00000,-0.14512,-0.38003,0.04653,,,,,,,,,,,,,,,,,,,,,,,,,,0,0,0,0,0
0.5262,1783187416.5573,1,0,1.0000,0.0000,1.44682,0.23328,-2.77748,0.97337,1.57080,0.00000,-0.14512,-0.38003,0.04653,,,,,,,,,,,,,,,,,,,,,,,,,,0,0,0,0,0
0.5367,1783187416.5678,1,0,1.0000,0.0000,1.44682,0.23328,-2.77748,0.97337,1.57080,0.00000,-0.14512,-0.38003,0.04653,,,,,,,,,,,,,,,,,,,,,,,,,,0,0,0,0,0
0.5370,1783187416.5680,1,0,1.0000,0.0000,1.44682,0.23328,-2.77748,0.97337,1.57080,0.00000,-0.14512,-0.38003,0.04653,,,,,,,,,,,,,,,,,,,,,,,,,,0,0,0,0,0
0.5466,1783187416.5777,1,0,1.0000,0.0000,1.44682,0.23328,-2.77748,0.97337,1.57080,0.00000,-0.14512,-0.38003,0.04653,,,,,,,,,,,,,,,,,,,,,,,,,,0,0,0,0,0
0.5584,1783187416.5894,1,0,1.0000,0.0000,1.44682,0.23328,-2.77748,0.97337,1.57080,0.00000,-0.14512,-0.38003,0.04653,,,,,,,,,,,,,,,,,,,,,,,,,,0,0,0,0,0
0.5649,1783187416.5960,1,0,1.0000,0.0000,1.44682,0.23328,-2.77748,0.97337,1.57080,0.00000,-0.14512,-0.38003,0.04653,,,,,,,,,,,,,,,,,,,,,,,,,,0,0,0,0,0
0.5653,1783187416.5964,1,0,1.0000,0.0000,1.44682,0.23328,-2.77748,0.97337,1.57080,0.00000,-0.14512,-0.38003,0.04653,,,,,,,,,,,,,,,,,,,,,,,,,,0,0,0,0,0
0.5864,1783187416.6174,1,0,1.0000,0.0000,1.44682,0.23328,-2.77748,0.97337,1.57080,0.00000,-0.14512,-0.38003,0.04653,,,,,,,,,,,,,,,,,,,,,,,,,,0,0,0,0,0
0.5870,1783187416.6181,1,0,1.0000,0.0000,1.44682,0.23328,-2.77748,0.97337,1.57080,0.00000,-0.14512,-0.38003,0.04653,,,,,,,,,,,,,,,,,,,,,,,,,,0,0,0,0,0
0.5874,1783187416.6185,1,0,1.0000,0.0000,1.44682,0.23328,-2.77748,0.97337,1.57080,0.00000,-0.14512,-0.38003,0.04653,,,,,,,,,,,,,,,,,,,,,,,,,,0,0,0,0,0
0.5876,1783187416.6186,1,0,1.0000,0.0000,1.44682,0.23328,-2.77748,0.97337,1.57080,0.00000,-0.14512,-0.38003,0.04653,,,,,,,,,,,,,,,,,,,,,,,,,,0,0,0,0,0
0.5962,1783187416.6273,1,0,1.0000,0.0000,1.44682,0.23328,-2.77748,0.97337,1.57080,0.00000,-0.14512,-0.38003,0.04653,,,,,,,,,,,,,,,,,,,,,,,,,,0,0,0,0,0
0.6321,1783187416.6631,1,0,1.0000,0.0000,1.44682,0.23328,-2.77748,0.97337,1.57080,0.00000,-0.14512,-0.38003,0.04653,,,,,,,,,,,,,,,,,,,,,,,,,,0,0,0,0,0
0.6327,1783187416.6638,1,0,1.0000,0.0000,1.44682,0.23328,-2.77748,0.97337,1.57080,0.00000,-0.14512,-0.38003,0.04653,,,,,,,,,,,,,,,,,,,,,,,,,,0,0,0,0,0
0.6388,1783187416.6698,1,0,1.0000,0.0000,1.44682,0.23328,-2.77748,0.97337,1.57080,0.00000,-0.14512,-0.38003,0.04653,,,,,,,,,,,,,,,,,,,,,,,,,,0,0,0,0,0
0.6393,1783187416.6703,1,0,1.0000,0.0000,1.44682,0.23328,-2.77748,0.97337,1.57080,0.00000,-0.14512,-0.38003,0.04653,,,,,,,,,,,,,,,,,,,,,,,,,,0,0,0,0,0
0.6464,1783187416.6775,1,0,1.0000,0.0000,1.44682,0.23328,-2.77748,0.97337,1.57080,0.00000,-0.14512,-0.38003,0.04653,,,,,,,,,,,,,,,,,,,,,,,,,,0,0,0,0,0
0.6556,1783187416.6866,1,0,1.0000,0.0000,1.44682,0.23328,-2.77748,0.97337,1.57080,0.00000,-0.14512,-0.38003,0.04653,,,,,,,,,,,,,,,,,,,,,,,,,,0,0,0,0,0
0.6658,1783187416.6969,1,0,1.0000,0.0000,1.44682,0.23328,-2.77748,0.97337,1.57080,0.00000,-0.14512,-0.38003,0.04653,,,,,,,,,,,,,,,,,,,,,,,,,,0,0,0,0,0
0.6773,1783187416.7084,1,0,1.0000,0.0000,1.44682,0.23328,-2.77748,0.97337,1.57080,0.00000,-0.14512,-0.38003,0.04653,,,,,,,,,,,,,,,,,,,,,,,,,,0,0,0,0,0
0.6880,1783187416.7191,1,0,1.0000,0.0000,1.44682,0.23328,-2.77748,0.97337,1.57080,0.00000,-0.14512,-0.38003,0.04653,,,,,,,,,,,,,,,,,,,,,,,,,,0,0,0,0,0
0.6954,1783187416.7265,1,0,1.0000,0.0000,1.44682,0.23328,-2.77748,0.97337,1.57080,0.00000,-0.14512,-0.38003,0.04653,,,,,,,,,,,,,,,,,,,,,,,,,,0,0,0,0,0
0.6959,1783187416.7270,1,0,1.0000,0.0000,1.44682,0.23328,-2.77748,0.97337,1.57080,0.00000,-0.14512,-0.38003,0.04653,,,,,,,,,,,,,,,,,,,,,,,,,,0,0,0,0,0
0.7058,1783187416.7369,1,0,1.0000,0.0000,1.44682,0.23328,-2.77748,0.97337,1.57080,0.00000,-0.14512,-0.38003,0.04653,,,,,,,,,,,,,,,,,,,,,,,,,,0,0,0,0,0
0.7062,1783187416.7373,1,0,1.0000,0.0000,1.44682,0.23328,-2.77748,0.97337,1.57080,0.00000,-0.14512,-0.38003,0.04653,,,,,,,,,,,,,,,,,,,,,,,,,,0,0,0,0,0
0.7174,1783187416.7484,1,0,1.0000,0.0000,1.44682,0.23328,-2.77748,0.97337,1.57080,0.00000,-0.14512,-0.38003,0.04653,,,,,,,,,,,,,,,,,,,,,,,,,,0,0,0,0,0
0.7291,1783187416.7602,1,0,1.0000,0.0000,1.44682,0.23328,-2.77748,0.97337,1.57080,0.00000,-0.14512,-0.38003,0.04653,,,,,,,,,,,,,,,,,,,,,,,,,,0,0,0,0,0
0.7410,1783187416.7721,1,1,1.0000,0.0000,1.44682,0.23328,-2.77748,0.97337,1.57080,0.00000,-0.14512,-0.38003,0.04653,,,,,,,,,,,,,,,,,,,,,,,,,,0,0,0,0,0
0.7413,1783187416.7724,1,1,1.0000,0.0000,1.44682,0.23328,-2.77748,0.97337,1.57080,0.00000,-0.14512,-0.38003,0.04653,,,,,,,,,,,,,,,,,,,,,,,,,,0,0,0,0,0
0.7501,1783187416.7811,1,1,1.0000,0.0000,1.44682,0.23328,-2.77748,0.97337,1.57080,0.00000,-0.14512,-0.38003,0.04653,,,,,,,,,,,,,,,,,,,,,,,,,,0,0,0,0,0
0.7623,1783187416.7934,1,1,1.0000,0.0000,1.44682,0.23328,-2.77748,0.97337,1.57080,0.00000,-0.14512,-0.38003,0.04653,,,,,,,,,,,,,,,,,,,,,,,,,,0,0,0,0,0
0.7653,1783187416.7964,1,1,1.0000,0.0000,1.44682,0.23328,-2.77748,0.97337,1.57080,0.00000,-0.14512,-0.38003,0.04653,,,,,,,,,,,,,,,,,,,,,,,,,,0,0,0,0,0
0.7767,1783187416.8078,1,1,1.0000,0.0000,1.44682,0.23328,-2.77748,0.97337,1.57080,0.00000,-0.14512,-0.38003,0.04653,,,,,,,,,,,,,,,,,,,,,,,,,,0,0,0,0,0
0.7770,1783187416.8081,1,1,1.0000,0.0000,1.44682,0.23328,-2.77748,0.97337,1.57080,0.00000,-0.14512,-0.38003,0.04653,,,,,,,,,,,,,,,,,,,,,,,,,,0,0,0,0,0
0.7888,1783187416.8198,1,1,1.0000,0.0000,1.44682,0.23328,-2.77748,0.97337,1.57080,0.00000,-0.14512,-0.38003,0.04653,,,,,,,,,,,,,,,,,,,,,,,,,,0,0,0,0,0
0.7891,1783187416.8201,1,1,1.0000,0.0000,1.44682,0.23328,-2.77748,0.97337,1.57080,0.00000,-0.14512,-0.38003,0.04653,,,,,,,,,,,,,,,,,,,,,,,,,,0,0,0,0,0
0.7972,1783187416.8282,1,1,1.0000,0.0000,1.44682,0.23328,-2.77748,0.97337,1.57080,0.00000,-0.14512,-0.38003,0.04653,,,,,,,,,,,,,,,,,,,,,,,,,,0,0,0,0,0
0.7976,1783187416.8286,1,1,1.0000,0.0000,1.44682,0.23328,-2.77748,0.97337,1.57080,0.00000,-0.14512,-0.38003,0.04653,,,,,,,,,,,,,,,,,,,,,,,,,,0,0,0,0,0
0.8051,1783187416.8361,1,1,1.0000,0.0000,1.44682,0.23328,-2.77748,0.97337,1.57080,0.00000,-0.14512,-0.38003,0.04653,,,,,,,,,,,,,,,,,,,,,,,,,,0,0,0,0,0
0.8175,1783187416.8485,1,1,1.0000,0.0000,1.44682,0.23328,-2.77748,0.97337,1.57080,0.00000,-0.14512,-0.38003,0.04653,,,,,,,,,,,,,,,,,,,,,,,,,,0,0,0,0,0
0.8266,1783187416.8576,1,1,1.0000,0.0000,1.44682,0.23328,-2.77748,0.97337,1.57080,0.00000,-0.14512,-0.38003,0.04653,,,,,,,,,,,,,,,,,,,,,,,,,,0,0,0,0,0
0.8378,1783187416.8689,1,1,1.0000,0.0000,1.44682,0.23328,-2.77748,0.97337,1.57080,0.00000,-0.14512,-0.38003,0.04653,,,,,,,,,,,,,,,,,,,,,,,,,,0,0,0,0,0
0.8503,1783187416.8814,1,1,1.0000,0.0000,1.44682,0.23328,-2.77748,0.97337,1.57080,0.00000,-0.14512,-0.38003,0.04653,,,,,,,,,,,,,,,,,,,,,,,,,,0,0,0,0,0
0.8506,1783187416.8816,1,1,1.0000,0.0000,1.44682,0.23328,-2.77748,0.97337,1.57080,0.00000,-0.14512,-0.38003,0.04653,,,,,,,,,,,,,,,,,,,,,,,,,,0,0,0,0,0
0.8595,1783187416.8906,1,1,1.0000,0.0000,1.44682,0.23328,-2.77748,0.97337,1.57080,0.00000,-0.14512,-0.38003,0.04653,,,,,,,,,,,,,,,,,,,,,,,,,,0,0,0,0,0
0.8670,1783187416.8981,1,1,1.0000,0.0000,1.44682,0.23328,-2.77748,0.97337,1.57080,0.00000,-0.14512,-0.38003,0.04653,,,,,,,,,,,,,,,,,,,,,,,,,,0,0,0,0,0
0.8760,1783187416.9070,1,1,1.0000,0.0000,1.44682,0.23328,-2.77748,0.97337,1.57080,0.00000,-0.14512,-0.38003,0.04653,,,,,,,,,,,,,,,,,,,,,,,,,,0,0,0,0,0
0.8915,1783187416.9225,1,1,1.0000,0.0000,1.44682,0.23328,-2.77748,0.97337,1.57080,0.00000,-0.14512,-0.38003,0.04653,,,,,,,,,,,,,,,,,,,,,,,,,,0,0,0,0,0
0.8957,1783187416.9268,1,1,1.0000,0.0000,1.44682,0.23328,-2.77748,0.97337,1.57080,0.00000,-0.14512,-0.38003,0.04653,,,,,,,,,,,,,,,,,,,,,,,,,,0,0,0,0,0
0.8961,1783187416.9271,1,1,1.0000,0.0000,1.44682,0.23328,-2.77748,0.97337,1.57080,0.00000,-0.14512,-0.38003,0.04653,,,,,,,,,,,,,,,,,,,,,,,,,,0,0,0,0,0
0.9050,1783187416.9360,1,1,1.0000,0.0000,1.44682,0.23328,-2.77748,0.97337,1.57080,0.00000,-0.14512,-0.38003,0.04653,,,,,,,,,,,,,,,,,,,,,,,,,,0,0,0,0,0
0.9053,1783187416.9364,1,1,1.0000,0.0000,1.44682,0.23328,-2.77748,0.97337,1.57080,0.00000,-0.14512,-0.38003,0.04653,,,,,,,,,,,,,,,,,,,,,,,,,,0,0,0,0,0
0.9158,1783187416.9469,1,1,1.0000,0.0000,1.44682,0.23328,-2.77748,0.97337,1.57080,0.00000,-0.14512,-0.38003,0.04653,,,,,,,,,,,,,,,,,,,,,,,,,,0,0,0,0,0
0.9260,1783187416.9570,1,1,1.0000,0.0000,1.44682,0.23327,-2.77748,0.97338,1.57080,0.00000,-0.14512,-0.38003,0.04652,,,,,,,,,,,,,,,,,,,,,,,,,,0,0,0,0,0
0.9372,1783187416.9682,1,1,1.0000,0.0000,1.44682,0.23313,-2.77751,0.97355,1.57080,0.00000,-0.14512,-0.38003,0.04649,,,,,,,,,,,,,,,,,,,,,,,,,,0,0,0,0,0
0.9460,1783187416.9770,1,1,1.0000,0.0000,1.44682,0.23301,-2.77754,0.97370,1.57080,0.00000,-0.14512,-0.38003,0.04646,,,,,,,,,,,,,,,,,,,,,,,,,,0,0,0,0,0
0.9556,1783187416.9867,1,1,1.0000,0.0000,1.44682,0.23301,-2.77755,0.97371,1.57080,0.00000,-0.14512,-0.38003,0.04646,,,,,,,,,,,,,,,,,,,,,,,,,,0,0,0,0,0
0.9559,1783187416.9869,1,1,1.0000,0.0000,1.44682,0.23301,-2.77755,0.97371,1.57080,0.00000,-0.14512,-0.38003,0.04646,,,,,,,,,,,,,,,,,,,,,,,,,,0,0,0,0,0
0.9677,1783187416.9987,1,1,1.0000,0.0000,1.44682,0.23290,-2.77757,0.97384,1.57080,0.00000,-0.14512,-0.38003,0.04643,,,,,,,,,,,,,,,,,,,,,,,,,,0,0,0,0,0
0.9762,1783187417.0073,1,1,1.0000,0.0000,1.44682,0.23280,-2.77760,0.97396,1.57080,0.00000,-0.14512,-0.38003,0.04640,,,,,,,,,,,,,,,,,,,,,,,,,,0,0,0,0,0
0.9952,1783187417.0262,1,1,1.0000,0.0000,1.44682,0.23268,-2.77763,0.97412,1.57080,0.00000,-0.14512,-0.38003,0.04637,,,,,,,,,,,,,,,,,,,,,,,,,,0,0,0,0,0
0.9958,1783187417.0268,1,1,1.0000,0.0000,1.44682,0.23268,-2.77763,0.97412,1.57080,0.00000,-0.14512,-0.38003,0.04637,,,,,,,,,,,,,,,,,,,,,,,,,,0,0,0,0,0
0.9961,1783187417.0272,1,1,1.0000,0.0000,1.44682,0.23268,-2.77763,0.97412,1.57080,0.00000,-0.14512,-0.38003,0.04637,,,,,,,,,,,,,,,,,,,,,,,,,,0,0,0,0,0
1.0654,1783187417.0965,1,1,1.0000,0.0000,1.44682,0.23209,-2.77778,0.97486,1.57080,0.00000,-0.14512,-0.38003,0.04622,,,,,,,,,,,,,,,,,,,,,,,,,,0,0,0,0,0
1.0658,1783187417.0968,1,1,1.0000,0.0000,1.44682,0.23209,-2.77778,0.97486,1.57080,0.00000,-0.14512,-0.38003,0.04622,,,,,,,,,,,,,,,,,,,,,,,,,,0,0,0,0,0
1.1180,1783187417.1490,1,1,1.0000,0.0000,1.44682,0.23175,-2.77787,0.97529,1.57080,0.00000,-0.14512,-0.38003,0.04613,,,,,,,,,,,,,,,,,,,,,,,,,,0,0,0,0,0
1.1183,1783187417.1493,1,1,1.0000,0.0000,1.44682,0.23175,-2.77787,0.97529,1.57080,0.00000,-0.14512,-0.38003,0.04613,,,,,,,,,,,,,,,,,,,,,,,,,,0,0,0,0,0
1.1187,1783187417.1497,1,1,1.0000,0.0000,1.44682,0.23175,-2.77787,0.97529,1.57080,0.00000,-0.14512,-0.38003,0.04613,,,,,,,,,,,,,,,,,,,,,,,,,,0,0,0,0,0
1.1190,1783187417.1500,1,1,1.0000,0.0000,1.44682,0.23175,-2.77787,0.97529,1.57080,0.00000,-0.14512,-0.38003,0.04613,,,,,,,,,,,,,,,,,,,,,,,,,,0,0,0,0,0
1.1193,1783187417.1504,1,1,1.0000,0.0000,1.44682,0.23175,-2.77787,0.97529,1.57080,0.00000,-0.14512,-0.38003,0.04613,,,,,,,,,,,,,,,,,,,,,,,,,,0,0,0,0,0
1.1197,1783187417.1507,1,1,1.0000,0.0000,1.44682,0.23175,-2.77787,0.97529,1.57080,0.00000,-0.14512,-0.38003,0.04613,,,,,,,,,,,,,,,,,,,,,,,,,,0,0,0,0,0
1.1200,1783187417.1510,1,1,1.0000,0.0000,1.44682,0.23175,-2.77787,0.97529,1.57080,0.00000,-0.14512,-0.38003,0.04613,,,,,,,,,,,,,,,,,,,,,,,,,,0,0,0,0,0
1.1288,1783187417.1599,1,1,1.0000,0.0000,1.44682,0.23159,-2.77791,0.97549,1.57080,0.00000,-0.14512,-0.38003,0.04609,,,,,,,,,,,,,,,,,,,,,,,,,,0,0,0,0,0
1.1292,1783187417.1603,1,1,1.0000,0.0000,1.44682,0.23159,-2.77791,0.97549,1.57080,0.00000,-0.14512,-0.38003,0.04609,,,,,,,,,,,,,,,,,,,,,,,,,,0,0,0,0,0
1.1383,1783187417.1694,1,1,1.0000,0.0000,1.44682,0.23159,-2.77791,0.97549,1.57080,0.00000,-0.14512,-0.38003,0.04609,,,,,,,,,,,,,,,,,,,,,,,,,,0,0,0,0,0
1.1680,1783187417.1991,1,1,1.0000,0.0000,1.44682,0.23142,-2.77796,0.97571,1.57080,0.00000,-0.14512,-0.38003,0.04604,,,,,,,,,,,,,,,,,,,,,,,,,,0,0,0,0,0
1.1767,1783187417.2077,1,1,1.0000,0.0000,1.44682,0.23131,-2.77799,0.97585,1.57080,0.00000,-0.14512,-0.38003,0.04601,,,,,,,,,,,,,,,,,,,,,,,,,,0,0,0,0,0
1.2291,1783187417.2602,1,1,1.0000,0.0000,1.44682,0.23094,-2.77808,0.97630,1.57080,0.00000,-0.14512,-0.38003,0.04592,,,,,,,,,,,,,,,,,,,,,,,,,,0,0,0,0,0
1.2296,1783187417.2606,1,1,1.0000,0.0000,1.44682,0.23094,-2.77808,0.97630,1.57080,0.00000,-0.14512,-0.38003,0.04592,,,,,,,,,,,,,,,,,,,,,,,,,,0,0,0,0,0
1.2299,1783187417.2609,1,1,1.0000,0.0000,1.44682,0.23094,-2.77808,0.97630,1.57080,0.00000,-0.14512,-0.38003,0.04592,,,,,,,,,,,,,,,,,,,,,,,,,,0,0,0,0,0
1.2419,1783187417.2729,1,1,1.0000,0.0000,1.44682,0.23081,-2.77811,0.97647,1.57080,0.00000,-0.14512,-0.38003,0.04588,,,,,,,,,,,,,,,,,,,,,,,,,,0,0,0,0,0
1.2469,1783187417.2779,1,1,1.0000,0.0000,1.44682,0.23075,-2.77813,0.97654,1.57080,0.00000,-0.14512,-0.38003,0.04587,,,,,,,,,,,,,,,,,,,,,,,,,,0,0,0,0,0
1.2570,1783187417.2880,1,1,1.0000,0.0000,1.44682,0.23070,-2.77814,0.97661,1.57080,0.00000,-0.14512,-0.38003,0.04585,,,,,,,,,,,,,,,,,,,,,,,,,,0,0,0,0,0
1.2680,1783187417.2991,1,1,1.0000,0.0000,1.44682,0.23065,-2.77815,0.97667,1.57080,0.00000,-0.14512,-0.38003,0.04584,,,,,,,,,,,,,,,,,,,,,,,,,,0,0,0,0,0
1.2755,1783187417.3066,1,1,1.0000,0.0000,1.44682,0.23058,-2.77817,0.97676,1.57080,0.00000,-0.14512,-0.38003,0.04582,,,,,,,,,,,,,,,,,,,,,,,,,,0,0,0,0,0
1.2858,1783187417.3169,1,1,1.0000,0.0000,1.44682,0.23052,-2.77819,0.97683,1.57080,0.00000,-0.14512,-0.38003,0.04581,,,,,,,,,,,,,,,,,,,,,,,,,,0,0,0,0,0
1.3019,1783187417.3330,1,1,1.0000,0.0000,1.44682,0.23036,-2.77823,0.97704,1.57080,0.00000,-0.14512,-0.38003,0.04577,,,,,,,,,,,,,,,,,,,,,,,,,,0,0,0,0,0
1.3055,1783187417.3365,1,1,1.0000,0.0000,1.44682,0.23031,-2.77824,0.97710,1.57080,0.00000,-0.14512,-0.38003,0.04575,,,,,,,,,,,,,,,,,,,,,,,,,,0,0,0,0,0
1.3197,1783187417.3508,1,1,1.0000,0.0000,1.44682,0.23025,-2.77826,0.97717,1.57080,0.00000,-0.14512,-0.38003,0.04574,,,,,,,,,,,,,,,,,,,,,,,,,,0,0,0,0,0
1.3288,1783187417.3599,1,1,1.0000,0.0000,1.44682,0.23017,-2.77828,0.97727,1.57080,0.00000,-0.14512,-0.38003,0.04572,,,,,,,,,,,,,,,,,,,,,,,,,,0,0,0,0,0
1.3625,1783187417.3936,1,1,1.0000,0.0000,1.44682,0.22992,-2.77834,0.97760,1.57080,0.00000,-0.14512,-0.38003,0.04565,,,,,,,,,,,,,,,,,,,,,,,,,,0,0,0,0,0
1.3694,1783187417.4005,1,1,1.0000,0.0000,1.44682,0.22981,-2.77837,0.97773,1.57080,0.00000,-0.14512,-0.38003,0.04562,,,,,,,,,,,,,,,,,,,,,,,,,,0,0,0,0,0
1.3699,1783187417.4009,1,1,1.0000,0.0000,1.44682,0.22981,-2.77837,0.97773,1.57080,0.00000,-0.14512,-0.38003,0.04562,,,,,,,,,,,,,,,,,,,,,,,,,,0,0,0,0,0
1.3772,1783187417.4083,1,1,1.0000,0.0000,1.44682,0.22980,-2.77837,0.97774,1.57080,0.00000,-0.14512,-0.38003,0.04562,,,,,,,,,,,,,,,,,,,,,,,,,,0,0,0,0,0
1.3776,1783187417.4086,1,1,1.0000,0.0000,1.44682,0.22980,-2.77837,0.97774,1.57080,0.00000,-0.14512,-0.38003,0.04562,,,,,,,,,,,,,,,,,,,,,,,,,,0,0,0,0,0
1.3780,1783187417.4091,1,1,1.0000,0.0000,1.44682,0.22980,-2.77837,0.97774,1.57080,0.00000,-0.14512,-0.38003,0.04562,,,,,,,,,,,,,,,,,,,,,,,,,,0,0,0,0,0
1.3870,1783187417.4180,1,1,1.0000,0.0000,1.44682,0.22976,-2.77838,0.97779,1.57080,0.00000,-0.14512,-0.38003,0.04561,,,,,,,,,,,,,,,,,,,,,,,,,,0,0,0,0,0
1.3958,1783187417.4268,1,1,1.0000,0.0000,1.44682,0.22968,-2.77840,0.97789,1.57080,0.00000,-0.14512,-0.38003,0.04559,,,,,,,,,,,,,,,,,,,,,,,,,,0,0,0,0,0
1.4054,1783187417.4365,1,1,1.0000,0.0000,1.44682,0.22963,-2.77841,0.97795,1.57080,0.00000,-0.14512,-0.38003,0.04558,,,,,,,,,,,,,,,,,,,,,,,,,,0,0,0,0,0
1.4057,1783187417.4368,1,1,1.0000,0.0000,1.44682,0.22963,-2.77841,0.97795,1.57080,0.00000,-0.14512,-0.38003,0.04558,,,,,,,,,,,,,,,,,,,,,,,,,,0,0,0,0,0
1.4177,1783187417.4488,1,1,1.0000,0.0000,1.44682,0.22952,-2.77844,0.97809,1.57080,0.00000,-0.14512,-0.38003,0.04555,,,,,,,,,,,,,,,,,,,,,,,,,,0,0,0,0,0
1.4181,1783187417.4492,1,1,1.0000,0.0000,1.44682,0.22952,-2.77844,0.97809,1.57080,0.00000,-0.14512,-0.38003,0.04555,,,,,,,,,,,,,,,,,,,,,,,,,,0,0,0,0,0
1.4251,1783187417.4562,1,1,1.0000,0.0000,1.44682,0.22942,-2.77847,0.97822,1.57080,0.00000,-0.14512,-0.38003,0.04552,,,,,,,,,,,,,,,,,,,,,,,,,,0,0,0,0,0
1.4257,1783187417.4567,1,1,1.0000,0.0000,1.44682,0.22942,-2.77847,0.97822,1.57080,0.00000,-0.14512,-0.38003,0.04552,,,,,,,,,,,,,,,,,,,,,,,,,,0,0,0,0,0
1.4373,1783187417.4683,1,1,1.0000,0.0000,1.44682,0.22935,-2.77849,0.97830,1.57080,0.00000,-0.14512,-0.38003,0.04550,,,,,,,,,,,,,,,,,,,,,,,,,,0,0,0,0,0
1.4377,1783187417.4688,1,1,1.0000,0.0000,1.44682,0.22935,-2.77849,0.97830,1.57080,0.00000,-0.14512,-0.38003,0.04550,,,,,,,,,,,,,,,,,,,,,,,,,,0,0,0,0,0
1.4503,1783187417.4814,1,1,1.0000,0.0000,1.44682,0.22925,-2.77851,0.97843,1.57080,0.00000,-0.14512,-0.38003,0.04548,,,,,,,,,,,,,,,,,,,,,,,,,,0,0,0,0,0
1.4669,1783187417.4979,1,1,1.0000,0.0000,1.44682,0.22914,-2.77854,0.97857,1.57080,0.00000,-0.14512,-0.38003,0.04545,,,,,,,,,,,,,,,,,,,,,,,,,,0,0,0,0,0
1.4717,1783187417.5028,1,1,1.0000,0.0000,1.44682,0.22911,-2.77855,0.97860,1.57080,0.00000,-0.14512,-0.38003,0.04544,,,,,,,,,,,,,,,,,,,,,,,,,,0,0,0,0,0
1.4820,1783187417.5131,1,1,1.0000,0.0000,1.44682,0.22898,-2.77858,0.97877,1.57080,0.00000,-0.14512,-0.38003,0.04541,,,,,,,,,,,,,,,,,,,,,,,,,,0,0,0,0,0
1.4824,1783187417.5135,1,1,1.0000,0.0000,1.44682,0.22898,-2.77858,0.97877,1.57080,0.00000,-0.14512,-0.38003,0.04541,,,,,,,,,,,,,,,,,,,,,,,,,,0,0,0,0,0
1.4903,1783187417.5214,1,1,1.0000,0.0000,1.44682,0.22888,-2.77861,0.97890,1.57080,0.00000,-0.14512,-0.38003,0.04538,,,,,,,,,,,,,,,,,,,,,,,,,,0,0,0,0,0
1.5057,1783187417.5367,1,1,1.0000,0.0000,1.44682,0.22881,-2.77863,0.97899,1.57080,0.00000,-0.14512,-0.38003,0.04536,,,,,,,,,,,,,,,,,,,,,,,,,,0,0,0,0,0
1.5105,1783187417.5415,1,1,1.0000,0.0000,1.44682,0.22876,-2.77864,0.97904,1.57080,0.00000,-0.14512,-0.38003,0.04535,,,,,,,,,,,,,,,,,,,,,,,,,,0,0,0,0,0
1.5108,1783187417.5418,1,1,1.0000,0.0000,1.44682,0.22876,-2.77864,0.97904,1.57080,0.00000,-0.14512,-0.38003,0.04535,,,,,,,,,,,,,,,,,,,,,,,,,,0,0,0,0,0
1.5254,1783187417.5565,1,1,1.0000,0.0000,1.44682,0.22865,-2.77867,0.97919,1.57080,0.00000,-0.14512,-0.38003,0.04532,,,,,,,,,,,,,,,,,,,,,,,,,,0,0,0,0,0
1.5334,1783187417.5645,1,1,1.0000,0.0000,1.44682,0.22859,-2.77868,0.97926,1.57080,0.00000,-0.14512,-0.38003,0.04530,,,,,,,,,,,,,,,,,,,,,,,,,,0,0,0,0,0
1.5401,1783187417.5712,1,1,1.0000,0.0000,1.44682,0.22854,-2.77869,0.97932,1.57080,0.00000,-0.14512,-0.38003,0.04529,,,,,,,,,,,,,,,,,,,,,,,,,,0,0,0,0,0
1.5405,1783187417.5715,1,1,1.0000,0.0000,1.44682,0.22854,-2.77869,0.97932,1.57080,0.00000,-0.14512,-0.38003,0.04529,,,,,,,,,,,,,,,,,,,,,,,,,,0,0,0,0,0
1.5542,1783187417.5852,1,1,1.0000,0.0000,1.44682,0.22839,-2.77873,0.97951,1.57080,0.00000,-0.14512,-0.38003,0.04525,,,,,,,,,,,,,,,,,,,,,,,,,,0,0,0,0,0
1.5628,1783187417.5939,1,1,1.0000,0.0000,1.44682,0.22836,-2.77874,0.97955,1.57080,0.00000,-0.14512,-0.38003,0.04524,,,,,,,,,,,,,,,,,,,,,,,,,,0,0,0,0,0
1.5707,1783187417.6017,1,1,1.0000,0.0000,1.44682,0.22827,-2.77876,0.97966,1.57080,0.00000,-0.14512,-0.38003,0.04522,,,,,,,,,,,,,,,,,,,,,,,,,,0,0,0,0,0
1.5827,1783187417.6137,1,1,1.0000,0.0000,1.44682,0.22817,-2.77879,0.97979,1.57080,0.00000,-0.14512,-0.38003,0.04520,,,,,,,,,,,,,,,,,,,,,,,,,,0,0,0,0,0
1.5918,1783187417.6229,1,1,1.0000,0.0000,1.44682,0.22814,-2.77880,0.97983,1.57080,0.00000,-0.14512,-0.38003,0.04519,,,,,,,,,,,,,,,,,,,,,,,,,,0,0,0,0,0
1.6000,1783187417.6311,1,1,1.0000,0.0000,1.44682,0.22805,-2.77882,0.97993,1.57080,0.00000,-0.14512,-0.38003,0.04517,,,,,,,,,,,,,,,,,,,,,,,,,,0,0,0,0,0
1.6004,1783187417.6314,1,1,1.0000,0.0000,1.44682,0.22805,-2.77882,0.97993,1.57080,0.00000,-0.14512,-0.38003,0.04517,,,,,,,,,,,,,,,,,,,,,,,,,,0,0,0,0,0
1.6106,1783187417.6416,1,1,1.0000,0.0000,1.44682,0.22790,-2.77886,0.98012,1.57080,0.00000,-0.14512,-0.38003,0.04513,,,,,,,,,,,,,,,,,,,,,,,,,,0,0,0,0,0
1.6217,1783187417.6527,1,1,1.0000,0.0000,1.44682,0.22787,-2.77886,0.98017,1.57080,0.00000,-0.14512,-0.38003,0.04512,,,,,,,,,,,,,,,,,,,,,,,,,,0,0,0,0,0
1.6220,1783187417.6530,1,1,1.0000,0.0000,1.44682,0.22787,-2.77886,0.98017,1.57080,0.00000,-0.14512,-0.38003,0.04512,,,,,,,,,,,,,,,,,,,,,,,,,,0,0,0,0,0
1.6369,1783187417.6679,1,1,1.0000,0.0000,1.44682,0.22768,-2.77891,0.98040,1.57080,0.00000,-0.14512,-0.38003,0.04507,,,,,,,,,,,,,,,,,,,,,,,,,,0,0,0,0,0
1.6452,1783187417.6763,1,1,1.0000,0.0000,1.44682,0.22767,-2.77891,0.98041,1.57080,0.00000,-0.14512,-0.38003,0.04507,,,,,,,,,,,,,,,,,,,,,,,,,,0,0,0,0,0
1.6455,1783187417.6765,1,1,1.0000,0.0000,1.44682,0.22767,-2.77891,0.98041,1.57080,0.00000,-0.14512,-0.38003,0.04507,,,,,,,,,,,,,,,,,,,,,,,,,,0,0,0,0,0
1.6530,1783187417.6841,1,1,1.0000,0.0000,1.44682,0.22761,-2.77893,0.98049,1.57080,0.00000,-0.14512,-0.38003,0.04505,,,,,,,,,,,,,,,,,,,,,,,,,,0,0,0,0,0
1.6532,1783187417.6843,1,1,1.0000,0.0000,1.44682,0.22761,-2.77893,0.98049,1.57080,0.00000,-0.14512,-0.38003,0.04505,,,,,,,,,,,,,,,,,,,,,,,,,,0,0,0,0,0
1.6630,1783187417.6940,1,1,1.0000,0.0000,1.44682,0.22752,-2.77895,0.98061,1.57080,0.00000,-0.14512,-0.38003,0.04503,,,,,,,,,,,,,,,,,,,,,,,,,,0,0,0,0,0
1.6724,1783187417.7034,1,1,1.0000,0.0000,1.44682,0.22741,-2.77898,0.98074,1.57080,0.00000,-0.14512,-0.38003,0.04500,,,,,,,,,,,,,,,,,,,,,,,,,,0,0,0,0,0
1.6838,1783187417.7148,1,1,1.0000,0.0000,1.44682,0.22738,-2.77899,0.98078,1.57080,0.00000,-0.14512,-0.38003,0.04499,,,,,,,,,,,,,,,,,,,,,,,,,,0,0,0,0,0
1.6841,1783187417.7151,1,1,1.0000,0.0000,1.44682,0.22738,-2.77899,0.98078,1.57080,0.00000,-0.14512,-0.38003,0.04499,,,,,,,,,,,,,,,,,,,,,,,,,,0,0,0,0,0
1.6931,1783187417.7241,1,1,1.0000,0.0000,1.44682,0.22725,-2.77902,0.98095,1.57080,0.00000,-0.14512,-0.38003,0.04496,,,,,,,,,,,,,,,,,,,,,,,,,,0,0,0,0,0
1.7003,1783187417.7314,1,1,1.0000,0.0000,1.44682,0.22719,-2.77904,0.98101,1.57080,0.00000,-0.14512,-0.38003,0.04494,,,,,,,,,,,,,,,,,,,,,,,,,,0,0,0,0,0
1.7010,1783187417.7321,1,1,1.0000,0.0000,1.44682,0.22719,-2.77904,0.98101,1.57080,0.00000,-0.14512,-0.38003,0.04494,,,,,,,,,,,,,,,,,,,,,,,,,,0,0,0,0,0
1.7113,1783187417.7423,1,1,1.0000,0.0000,1.44682,0.22716,-2.77904,0.98105,1.57080,0.00000,-0.14512,-0.38003,0.04493,,,,,,,,,,,,,,,,,,,,,,,,,,0,0,0,0,0
1.7203,1783187417.7513,1,1,1.0000,0.0000,1.44682,0.22708,-2.77907,0.98116,1.57080,0.00001,-0.14512,-0.38003,0.04491,,,,,,,,,,,,,,,,,,,,,,,,,,0,0,0,0,0
1.7207,1783187417.7517,1,1,1.0000,0.0000,1.44682,0.22708,-2.77907,0.98116,1.57080,0.00001,-0.14512,-0.38003,0.04491,,,,,,,,,,,,,,,,,,,,,,,,,,0,0,0,0,0
1.7352,1783187417.7663,1,1,1.0000,0.0000,1.44682,0.22692,-2.77910,0.98135,1.57080,0.00001,-0.14512,-0.38003,0.04487,,,,,,,,,,,,,,,,,,,,,,,,,,0,0,0,0,0
1.7355,1783187417.7666,1,1,1.0000,0.0000,1.44682,0.22692,-2.77910,0.98135,1.57080,0.00001,-0.14512,-0.38003,0.04487,,,,,,,,,,,,,,,,,,,,,,,,,,0,0,0,0,0
1.7439,1783187417.7749,1,1,1.0000,0.0000,1.44682,0.22689,-2.77911,0.98139,1.57080,0.00001,-0.14512,-0.38003,0.04486,,,,,,,,,,,,,,,,,,,,,,,,,,0,0,0,0,0
1.7613,1783187417.7924,1,1,1.0000,0.0000,1.44682,0.22665,-2.77917,0.98169,1.57080,0.00001,-0.14512,-0.38003,0.04480,,,,,,,,,,,,,,,,,,,,,,,,,,0,0,0,0,0
1.7617,1783187417.7927,1,1,1.0000,0.0000,1.44682,0.22665,-2.77917,0.98169,1.57080,0.00001,-0.14512,-0.38003,0.04480,,,,,,,,,,,,,,,,,,,,,,,,,,0,0,0,0,0
1.7663,1783187417.7974,1,1,1.0000,0.0000,1.44682,0.22665,-2.77917,0.98169,1.57080,0.00001,-0.14512,-0.38003,0.04480,,,,,,,,,,,,,,,,,,,,,,,,,,0,0,0,0,0
1.7739,1783187417.8049,1,1,1.0000,0.0000,1.44682,0.22663,-2.77918,0.98172,1.57080,0.00001,-0.14512,-0.38003,0.04480,,,,,,,,,,,,,,,,,,,,,,,,,,0,0,0,0,0
1.7803,1783187417.8113,1,1,1.0000,0.0000,1.44682,0.22660,-2.77919,0.98175,1.57080,0.00001,-0.14512,-0.38003,0.04479,,,,,,,,,,,,,,,,,,,,,,,,,,0,0,0,0,0
1.7806,1783187417.8116,1,1,1.0000,0.0000,1.44682,0.22660,-2.77919,0.98175,1.57080,0.00001,-0.14512,-0.38003,0.04479,,,,,,,,,,,,,,,,,,,,,,,,,,0,0,0,0,0
1.7910,1783187417.8221,1,1,1.0000,0.0000,1.44682,0.22648,-2.77922,0.98191,1.57080,0.00001,-0.14512,-0.38003,0.04476,,,,,,,,,,,,,,,,,,,,,,,,,,0,0,0,0,0
1.8016,1783187417.8326,1,1,1.0000,0.0000,1.44682,0.22645,-2.77923,0.98195,1.57080,0.00001,-0.14512,-0.38003,0.04475,,,,,,,,,,,,,,,,,,,,,,,,,,0,0,0,0,0
1.8019,1783187417.8329,1,1,1.0000,0.0000,1.44682,0.22645,-2.77923,0.98195,1.57080,0.00001,-0.14512,-0.38003,0.04475,,,,,,,,,,,,,,,,,,,,,,,,,,0,0,0,0,0
1.8143,1783187417.8453,1,1,1.0000,0.0000,1.44682,0.22631,-2.77926,0.98212,1.57080,0.00001,-0.14512,-0.38003,0.04471,,,,,,,,,,,,,,,,,,,,,,,,,,0,0,0,0,0
1.8214,1783187417.8525,1,1,1.0000,0.0000,1.44682,0.22620,-2.77929,0.98225,1.57080,0.00001,-0.14512,-0.38003,0.04469,,,,,,,,,,,,,,,,,,,,,,,,,,0,0,0,0,0
1.8333,1783187417.8643,1,1,1.0000,0.0000,1.44682,0.22618,-2.77929,0.98228,1.57080,0.00001,-0.14512,-0.38003,0.04468,,,,,,,,,,,,,,,,,,,,,,,,,,0,0,0,0,0
1.8337,1783187417.8647,1,1,1.0000,0.0000,1.44682,0.22618,-2.77929,0.98228,1.57080,0.00001,-0.14512,-0.38003,0.04468,,,,,,,,,,,,,,,,,,,,,,,,,,0,0,0,0,0
1.8443,1783187417.8754,1,1,1.0000,0.0000,1.44682,0.22612,-2.77931,0.98236,1.57080,0.00001,-0.14512,-0.38003,0.04466,,,,,,,,,,,,,,,,,,,,,,,,,,0,0,0,0,0
1.8450,1783187417.8761,1,1,1.0000,0.0000,1.44682,0.22608,-2.77932,0.98241,1.57080,0.00001,-0.14512,-0.38003,0.04465,,,,,,,,,,,,,,,,,,,,,,,,,,0,0,0,0,0
1.8506,1783187417.8816,1,1,1.0000,0.0000,1.44682,0.22603,-2.77933,0.98247,1.57080,0.00001,-0.14512,-0.38003,0.04464,,,,,,,,,,,,,,,,,,,,,,,,,,0,0,0,0,0
1.8633,1783187417.8944,1,1,1.0000,0.0000,1.44682,0.22600,-2.77934,0.98251,1.57080,0.00001,-0.14512,-0.38003,0.04463,,,,,,,,,,,,,,,,,,,,,,,,,,0,0,0,0,0
1.8765,1783187417.9076,1,1,1.0000,0.0000,1.44682,0.22586,-2.77937,0.98268,1.57080,0.00001,-0.14512,-0.38003,0.04460,,,,,,,,,,,,,,,,,,,,,,,,,,0,0,0,0,0
1.8806,1783187417.9116,1,1,1.0000,0.0000,1.44682,0.22581,-2.77939,0.98275,1.57080,0.00001,-0.14512,-0.38003,0.04458,,,,,,,,,,,,,,,,,,,,,,,,,,0,0,0,0,0
1.8923,1783187417.9233,1,1,1.0000,0.0000,1.44682,0.22575,-2.77940,0.98282,1.57080,0.00001,-0.14512,-0.38003,0.04457,,,,,,,,,,,,,,,,,,,,,,,,,,0,0,0,0,0
1.9034,1783187417.9345,1,1,1.0000,0.0000,1.44682,0.22567,-2.77942,0.98292,1.57080,0.00001,-0.14512,-0.38003,0.04455,,,,,,,,,,,,,,,,,,,,,,,,,,0,0,0,0,0
1.9155,1783187417.9465,1,1,1.0000,0.0000,1.44682,0.22558,-2.77944,0.98303,1.57080,0.00001,-0.14512,-0.38003,0.04452,,,,,,,,,,,,,,,,,,,,,,,,,,0,0,0,0,0
1.9216,1783187417.9527,1,1,1.0000,0.0000,1.44682,0.22555,-2.77945,0.98307,1.57080,0.00001,-0.14512,-0.38003,0.04452,,,,,,,,,,,,,,,,,,,,,,,,,,0,0,0,0,0
1.9220,1783187417.9531,1,1,1.0000,0.0000,1.44682,0.22555,-2.77945,0.98307,1.57080,0.00001,-0.14512,-0.38003,0.04452,,,,,,,,,,,,,,,,,,,,,,,,,,0,0,0,0,0
1.9323,1783187417.9633,1,1,1.0000,0.0000,1.44682,0.22546,-2.77947,0.98318,1.57080,0.00001,-0.14512,-0.38003,0.04449,,,,,,,,,,,,,,,,,,,,,,,,,,0,0,0,0,0
1.9327,1783187417.9637,1,1,1.0000,0.0000,1.44682,0.22546,-2.77947,0.98318,1.57080,0.00001,-0.14512,-0.38003,0.04449,,,,,,,,,,,,,,,,,,,,,,,,,,0,0,0,0,0
1.9450,1783187417.9760,1,1,1.0000,0.0000,1.44682,0.22530,-2.77951,0.98338,1.57080,0.00001,-0.14512,-0.38003,0.04445,,,,,,,,,,,,,,,,,,,,,,,,,,0,0,0,0,0
1.9539,1783187417.9850,1,1,1.0000,0.0000,1.44682,0.22528,-2.77952,0.98341,1.57080,0.00001,-0.14512,-0.38003,0.04445,,,,,,,,,,,,,,,,,,,,,,,,,,0,0,0,0,0
1.9658,1783187417.9968,1,1,1.0000,0.0000,1.44682,0.22518,-2.77955,0.98354,1.57080,0.00001,-0.14512,-0.38002,0.04442,,,,,,,,,,,,,,,,,,,,,,,,,,0,0,0,0,0
1.9701,1783187418.0012,1,1,1.0000,0.0000,1.44682,0.22513,-2.77956,0.98359,1.57080,0.00001,-0.14512,-0.38002,0.04441,,,,,,,,,,,,,,,,,,,,,,,,,,0,0,0,0,0
1.9706,1783187418.0016,1,1,1.0000,0.0000,1.44682,0.22513,-2.77956,0.98359,1.57080,0.00001,-0.14512,-0.38002,0.04441,,,,,,,,,,,,,,,,,,,,,,,,,,0,0,0,0,0
1.9834,1783187418.0144,1,1,1.0000,0.0000,1.44682,0.22510,-2.77957,0.98364,1.57080,0.00001,-0.14512,-0.38002,0.04440,,,,,,,,,,,,,,,,,,,,,,,,,,0,0,0,0,0
1.9917,1783187418.0228,1,1,1.0000,0.0000,1.44682,0.22501,-2.77959,0.98374,1.57080,0.00001,-0.14512,-0.38002,0.04438,,,,,,,,,,,,,,,,,,,,,,,,,,0,0,0,0,0
2.0059,1783187418.0369,1,1,1.0000,0.0000,1.44682,0.22485,-2.77963,0.98394,1.57080,0.00001,-0.14512,-0.38002,0.04434,,,,,,,,,,,,,,,,,,,,,,,,,,0,0,0,0,0
2.0169,1783187418.0480,1,1,1.0000,0.0000,1.44682,0.22480,-2.77964,0.98401,1.57080,0.00001,-0.14512,-0.38002,0.04432,,,,,,,,,,,,,,,,,,,,,,,,,,0,0,0,0,0
2.0249,1783187418.0560,1,1,1.0000,0.0000,1.44682,0.22473,-2.77966,0.98410,1.57080,0.00001,-0.14512,-0.38002,0.04430,,,,,,,,,,,,,,,,,,,,,,,,,,0,0,0,0,0
2.0339,1783187418.0650,1,1,1.0000,0.0000,1.44682,0.22468,-2.77967,0.98416,1.57080,0.00001,-0.14512,-0.38002,0.04429,,,,,,,,,,,,,,,,,,,,,,,,,,0,0,0,0,0
2.0411,1783187418.0721,1,1,1.0000,0.0000,1.44682,0.22465,-2.77968,0.98420,1.57080,0.00001,-0.14512,-0.38002,0.04428,,,,,,,,,,,,,,,,,,,,,,,,,,0,0,0,0,0
2.0413,1783187418.0724,1,1,1.0000,0.0000,1.44682,0.22465,-2.77968,0.98420,1.57080,0.00001,-0.14512,-0.38002,0.04428,,,,,,,,,,,,,,,,,,,,,,,,,,0,0,0,0,0
2.0503,1783187418.0813,1,1,1.0000,0.0000,1.44682,0.22456,-2.77970,0.98431,1.57080,0.00001,-0.14512,-0.38002,0.04426,,,,,,,,,,,,,,,,,,,,,,,,,,0,0,0,0,0
2.0659,1783187418.0969,1,1,1.0000,0.0000,1.44682,0.22440,-2.77974,0.98450,1.57080,0.00001,-0.14512,-0.38002,0.04422,,,,,,,,,,,,,,,,,,,,,,,,,,0,0,0,0,0
2.0662,1783187418.0973,1,1,1.0000,0.0000,1.44682,0.22440,-2.77974,0.98450,1.57080,0.00001,-0.14512,-0.38002,0.04422,,,,,,,,,,,,,,,,,,,,,,,,,,0,0,0,0,0
2.0743,1783187418.1053,1,1,1.0000,0.0000,1.44682,0.22438,-2.77975,0.98454,1.57080,0.00001,-0.14512,-0.38002,0.04421,,,,,,,,,,,,,,,,,,,,,,,,,,0,0,0,0,0
2.0891,1783187418.1201,1,1,1.0000,0.0000,1.44682,0.22423,-2.77978,0.98472,1.57080,0.00001,-0.14512,-0.38002,0.04418,,,,,,,,,,,,,,,,,,,,,,,,,,0,0,0,0,0
2.0893,1783187418.1203,1,1,1.0000,0.0000,1.44682,0.22423,-2.77978,0.98472,1.57080,0.00001,-0.14512,-0.38002,0.04418,,,,,,,,,,,,,,,,,,,,,,,,,,0,0,0,0,0
2.1014,1783187418.1324,1,1,1.0000,0.0000,1.44682,0.22420,-2.77979,0.98476,1.57080,0.00001,-0.14512,-0.38002,0.04417,,,,,,,,,,,,,,,,,,,,,,,,,,0,0,0,0,0
2.1050,1783187418.1360,1,1,1.0000,0.0000,1.44682,0.22416,-2.77980,0.98481,1.57080,0.00001,-0.14512,-0.38002,0.04416,,,,,,,,,,,,,,,,,,,,,,,,,,0,0,0,0,0
2.1197,1783187418.1507,1,1,1.0000,0.0000,1.44682,0.22401,-2.77984,0.98500,1.57080,0.00001,-0.14512,-0.38002,0.04412,,,,,,,,,,,,,,,,,,,,,,,,,,0,0,0,0,0
2.1373,1783187418.1683,1,1,1.0000,0.0000,1.44682,0.22390,-2.77987,0.98513,1.57080,0.00001,-0.14512,-0.38002,0.04409,,,,,,,,,,,,,,,,,,,,,,,,,,0,0,0,0,0
2.1439,1783187418.1750,1,1,1.0000,0.0000,1.44682,0.22387,-2.77988,0.98518,1.57080,0.00001,-0.14512,-0.38002,0.04408,,,,,,,,,,,,,,,,,,,,,,,,,,0,0,0,0,0
2.1651,1783187418.1962,1,1,1.0000,0.0000,1.44682,0.22371,-2.77992,0.98538,1.57080,0.00001,-0.14512,-0.38002,0.04404,,,,,,,,,,,,,,,,,,,,,,,,,,0,0,0,0,0
2.1658,1783187418.1969,1,1,1.0000,0.0000,1.44682,0.22371,-2.77992,0.98538,1.57080,0.00001,-0.14512,-0.38002,0.04404,,,,,,,,,,,,,,,,,,,,,,,,,,0,0,0,0,0
2.1661,1783187418.1972,1,1,1.0000,0.0000,1.44682,0.22371,-2.77992,0.98538,1.57080,0.00001,-0.14512,-0.38002,0.04404,,,,,,,,,,,,,,,,,,,,,,,,,,0,0,0,0,0
2.1900,1783187418.2210,1,1,1.0000,0.0000,1.44682,0.22350,-2.77997,0.98564,1.57080,0.00001,-0.14512,-0.38002,0.04399,,,,,,,,,,,,,,,,,,,,,,,,,,0,0,0,0,0
2.1903,1783187418.2214,1,1,1.0000,0.0000,1.44682,0.22350,-2.77997,0.98564,1.57080,0.00001,-0.14512,-0.38002,0.04399,,,,,,,,,,,,,,,,,,,,,,,,,,0,0,0,0,0
2.1905,1783187418.2216,1,1,1.0000,0.0000,1.44682,0.22350,-2.77997,0.98564,1.57080,0.00001,-0.14512,-0.38002,0.04399,,,,,,,,,,,,,,,,,,,,,,,,,,0,0,0,0,0
2.2195,1783187418.2505,1,1,1.0000,0.0000,1.44682,0.22332,-2.78001,0.98586,1.57080,0.00001,-0.14512,-0.38002,0.04394,,,,,,,,,,,,,,,,,,,,,,,,,,0,0,0,0,0
2.2198,1783187418.2508,1,1,1.0000,0.0000,1.44682,0.22332,-2.78001,0.98586,1.57080,0.00001,-0.14512,-0.38002,0.04394,,,,,,,,,,,,,,,,,,,,,,,,,,0,0,0,0,0
2.2200,1783187418.2511,1,1,1.0000,0.0000,1.44682,0.22332,-2.78001,0.98586,1.57080,0.00001,-0.14512,-0.38002,0.04394,,,,,,,,,,,,,,,,,,,,,,,,,,0,0,0,0,0
2.2203,1783187418.2514,1,1,1.0000,0.0000,1.44682,0.22332,-2.78001,0.98586,1.57080,0.00001,-0.14512,-0.38002,0.04394,,,,,,,,,,,,,,,,,,,,,,,,,,0,0,0,0,0
2.2206,1783187418.2517,1,1,1.0000,0.0000,1.44682,0.22332,-2.78001,0.98586,1.57080,0.00001,-0.14512,-0.38002,0.04394,,,,,,,,,,,,,,,,,,,,,,,,,,0,0,0,0,0
2.2307,1783187418.2618,1,1,1.0000,0.0000,1.44682,0.22321,-2.78004,0.98600,1.57080,0.00001,-0.14512,-0.38002,0.04391,,,,,,,,,,,,,,,,,,,,,,,,,,0,0,0,0,0
2.2346,1783187418.2656,1,1,1.0000,0.0000,1.44682,0.22316,-2.78005,0.98606,1.57080,0.00001,-0.14512,-0.38002,0.04390,,,,,,,,,,,,,,,,,,,,,,,,,,0,0,0,0,0
2.2350,1783187418.2661,1,1,1.0000,0.0000,1.44682,0.22316,-2.78005,0.98606,1.57080,0.00001,-0.14512,-0.38002,0.04390,,,,,,,,,,,,,,,,,,,,,,,,,,0,0,0,0,0
2.2444,1783187418.2755,1,1,1.0000,0.0000,1.44682,0.22305,-2.78008,0.98620,1.57080,0.00001,-0.14512,-0.38002,0.04387,,,,,,,,,,,,,,,,,,,,,,,,,,0,0,0,0,0
2.2537,1783187418.2848,1,1,1.0000,0.0000,1.44682,0.22303,-2.78009,0.98623,1.57080,0.00001,-0.14512,-0.38002,0.04386,,,,,,,,,,,,,,,,,,,,,,,,,,0,0,0,0,0
2.2540,1783187418.2850,1,1,1.0000,0.0000,1.44682,0.22303,-2.78009,0.98623,1.57080,0.00001,-0.14512,-0.38002,0.04386,,,,,,,,,,,,,,,,,,,,,,,,,,0,0,0,0,0
2.3360,1783187418.3671,1,1,1.0000,0.0000,1.44681,0.22242,-2.78024,0.98698,1.57080,0.00001,-0.14512,-0.38002,0.04371,,,,,,,,,,,,,,,,,,,,,,,,,,0,0,0,0,0
2.3364,1783187418.3675,1,1,1.0000,0.0000,1.44681,0.22242,-2.78024,0.98698,1.57080,0.00001,-0.14512,-0.38002,0.04371,,,,,,,,,,,,,,,,,,,,,,,,,,0,0,0,0,0
2.3369,1783187418.3680,1,1,1.0000,0.0000,1.44681,0.22241,-2.78024,0.98699,1.57080,0.00001,-0.14512,-0.38002,0.04371,,,,,,,,,,,,,,,,,,,,,,,,,,0,0,0,0,0
2.3371,1783187418.3681,1,1,1.0000,0.0000,1.44681,0.22241,-2.78024,0.98699,1.57080,0.00001,-0.14512,-0.38002,0.04371,,,,,,,,,,,,,,,,,,,,,,,,,,0,0,0,0,0
2.3373,1783187418.3684,1,1,1.0000,0.0000,1.44681,0.22241,-2.78024,0.98699,1.57080,0.00001,-0.14512,-0.38002,0.04371,,,,,,,,,,,,,,,,,,,,,,,,,,0,0,0,0,0
2.3376,1783187418.3687,1,1,1.0000,0.0000,1.44681,0.22241,-2.78024,0.98699,1.57080,0.00001,-0.14512,-0.38002,0.04371,,,,,,,,,,,,,,,,,,,,,,,,,,0,0,0,0,0
2.3382,1783187418.3692,1,1,1.0000,0.0000,1.44681,0.22241,-2.78024,0.98699,1.57080,0.00001,-0.14512,-0.38002,0.04371,,,,,,,,,,,,,,,,,,,,,,,,,,0,0,0,0,0
2.3384,1783187418.3695,1,1,1.0000,0.0000,1.44681,0.22241,-2.78024,0.98699,1.57080,0.00001,-0.14512,-0.38002,0.04371,,,,,,,,,,,,,,,,,,,,,,,,,,0,0,0,0,0
2.3468,1783187418.3779,1,1,1.0000,0.0000,1.44681,0.22235,-2.78026,0.98707,1.57080,0.00001,-0.14512,-0.38002,0.04369,,,,,,,,,,,,,,,,,,,,,,,,,,0,0,0,0,0
2.3549,1783187418.3860,1,1,1.0000,0.0000,1.44681,0.22226,-2.78028,0.98719,1.57080,0.00001,-0.14512,-0.38002,0.04367,,,,,,,,,,,,,,,,,,,,,,,,,,0,0,0,0,0
2.3675,1783187418.3986,1,1,1.0000,0.0000,1.44681,0.22215,-2.78031,0.98732,1.57080,0.00001,-0.14512,-0.38002,0.04364,,,,,,,,,,,,,,,,,,,,,,,,,,0,0,0,0,0
2.3798,1783187418.4109,1,1,1.0000,0.0000,1.44681,0.22208,-2.78032,0.98741,1.57080,0.00001,-0.14512,-0.38002,0.04362,,,,,,,,,,,,,,,,,,,,,,,,,,0,0,0,0,0
2.3892,1783187418.4202,1,1,1.0000,0.0000,1.44681,0.22193,-2.78036,0.98760,1.57080,0.00001,-0.14512,-0.38002,0.04358,,,,,,,,,,,,,,,,,,,,,,,,,,0,0,0,0,0
2.3946,1783187418.4256,1,1,1.0000,0.0000,1.44681,0.22188,-2.78037,0.98766,1.57080,0.00001,-0.14512,-0.38002,0.04357,,,,,,,,,,,,,,,,,,,,,,,,,,0,0,0,0,0
2.4064,1783187418.4375,1,1,1.0000,0.0000,1.44681,0.22185,-2.78038,0.98769,1.57080,0.00001,-0.14512,-0.38002,0.04356,,,,,,,,,,,,,,,,,,,,,,,,,,0,0,0,0,0
2.4165,1783187418.4476,1,1,1.0000,0.0000,1.44681,0.22179,-2.78040,0.98777,1.57080,0.00001,-0.14512,-0.38002,0.04355,,,,,,,,,,,,,,,,,,,,,,,,,,0,0,0,0,0
2.4170,1783187418.4481,1,1,1.0000,0.0000,1.44681,0.22175,-2.78041,0.98782,1.57080,0.00001,-0.14512,-0.38002,0.04354,,,,,,,,,,,,,,,,,,,,,,,,,,0,0,0,0,0
2.4293,1783187418.4603,1,1,1.0000,0.0000,1.44681,0.22170,-2.78042,0.98789,1.57080,0.00001,-0.14512,-0.38002,0.04352,,,,,,,,,,,,,,,,,,,,,,,,,,0,0,0,0,0
2.4374,1783187418.4685,1,1,1.0000,0.0000,1.44681,0.22163,-2.78044,0.98797,1.57080,0.00001,-0.14512,-0.38002,0.04351,,,,,,,,,,,,,,,,,,,,,,,,,,0,0,0,0,0
2.4489,1783187418.4799,1,1,1.0000,0.0000,1.44681,0.22148,-2.78047,0.98816,1.57080,0.00001,-0.14512,-0.38002,0.04347,,,,,,,,,,,,,,,,,,,,,,,,,,0,0,0,0,0
2.4494,1783187418.4804,1,1,1.0000,0.0000,1.44681,0.22148,-2.78047,0.98816,1.57080,0.00001,-0.14512,-0.38002,0.04347,,,,,,,,,,,,,,,,,,,,,,,,,,0,0,0,0,0
2.4544,1783187418.4855,1,1,1.0000,0.0000,1.44681,0.22143,-2.78049,0.98823,1.57080,0.00001,-0.14512,-0.38002,0.04345,,,,,,,,,,,,,,,,,,,,,,,,,,0,0,0,0,0
2.4784,1783187418.5095,1,1,1.0000,0.0000,1.44681,0.22130,-2.78052,0.98839,1.57080,0.00001,-0.14512,-0.38002,0.04342,,,,,,,,,,,,,,,,,,,,,,,,,,0,0,0,0,0
2.4823,1783187418.5133,1,1,1.0000,0.0000,1.44681,0.22125,-2.78053,0.98844,1.57080,0.00001,-0.14512,-0.38002,0.04341,,,,,,,,,,,,,,,,,,,,,,,,,,0,0,0,0,0
2.4943,1783187418.5254,1,1,1.0000,0.0000,1.44681,0.22122,-2.78054,0.98849,1.57080,0.00001,-0.14512,-0.38002,0.04340,,,,,,,,,,,,,,,,,,,,,,,,,,0,0,0,0,0
2.4950,1783187418.5260,1,1,1.0000,0.0000,1.44681,0.22122,-2.78054,0.98849,1.57080,0.00001,-0.14512,-0.38002,0.04340,,,,,,,,,,,,,,,,,,,,,,,,,,0,0,0,0,0
2.4952,1783187418.5263,1,1,1.0000,0.0000,1.44681,0.22122,-2.78054,0.98849,1.57080,0.00001,-0.14512,-0.38002,0.04340,,,,,,,,,,,,,,,,,,,,,,,,,,0,0,0,0,0
2.5040,1783187418.5350,1,1,1.0000,0.0000,1.44681,0.22113,-2.78056,0.98860,1.57080,0.00001,-0.14512,-0.38002,0.04338,,,,,,,,,,,,,,,,,,,,,,,,,,0,0,0,0,0
2.5151,1783187418.5461,1,1,1.0000,0.0000,1.44681,0.22097,-2.78060,0.98879,1.57080,0.00001,-0.14512,-0.38002,0.04334,,,,,,,,,,,,,,,,,,,,,,,,,,0,0,0,0,0
2.5282,1783187418.5592,1,1,1.0000,0.0000,1.44681,0.22095,-2.78061,0.98882,1.57080,0.00001,-0.14512,-0.38002,0.04333,,,,,,,,,,,,,,,,,,,,,,,,,,0,0,0,0,0
2.5337,1783187418.5647,1,1,1.0000,0.0000,1.44681,0.22089,-2.78062,0.98890,1.57080,0.00001,-0.14512,-0.38002,0.04331,,,,,,,,,,,,,,,,,,,,,,,,,,0,0,0,0,0
2.5438,1783187418.5749,1,1,1.0000,0.0000,1.44681,0.22080,-2.78064,0.98901,1.57080,0.00001,-0.14512,-0.38002,0.04329,,,,,,,,,,,,,,,,,,,,,,,,,,0,0,0,0,0
2.5581,1783187418.5892,1,1,1.0000,0.0000,1.44681,0.22073,-2.78066,0.98910,1.57080,0.00001,-0.14512,-0.38002,0.04327,,,,,,,,,,,,,,,,,,,,,,,,,,0,0,0,0,0
2.5777,1783187418.6088,1,1,1.0000,0.0000,1.44681,0.22052,-2.78071,0.98936,1.57080,0.00001,-0.14512,-0.38002,0.04322,,,,,,,,,,,,,,,,,,,,,,,,,,0,0,0,0,0
2.5781,1783187418.6092,1,1,1.0000,0.0000,1.44681,0.22052,-2.78071,0.98936,1.57080,0.00001,-0.14512,-0.38002,0.04322,,,,,,,,,,,,,,,,,,,,,,,,,,0,0,0,0,0
2.5882,1783187418.6192,1,1,1.0000,0.0000,1.44681,0.22050,-2.78072,0.98939,1.57080,0.00001,-0.14512,-0.38002,0.04321,,,,,,,,,,,,,,,,,,,,,,,,,,0,0,0,0,0
2.5987,1783187418.6298,1,1,1.0000,0.0000,1.44681,0.22039,-2.78074,0.98952,1.57080,0.00001,-0.14512,-0.38002,0.04319,,,,,,,,,,,,,,,,,,,,,,,,,,0,0,0,0,0
2.5991,1783187418.6302,1,1,1.0000,0.0000,1.44681,0.22039,-2.78074,0.98952,1.57080,0.00001,-0.14512,-0.38002,0.04319,,,,,,,,,,,,,,,,,,,,,,,,,,0,0,0,0,0
2.6172,1783187418.6483,1,1,1.0000,0.0000,1.44681,0.22027,-2.78077,0.98967,1.57080,0.00001,-0.14512,-0.38002,0.04316,,,,,,,,,,,,,,,,,,,,,,,,,,0,0,0,0,0
2.6177,1783187418.6487,1,1,1.0000,0.0000,1.44681,0.22027,-2.78077,0.98967,1.57080,0.00001,-0.14512,-0.38002,0.04316,,,,,,,,,,,,,,,,,,,,,,,,,,0,0,0,0,0
2.6215,1783187418.6525,1,1,1.0000,0.0000,1.44681,0.22023,-2.78079,0.98973,1.57080,0.00001,-0.14512,-0.38002,0.04314,,,,,,,,,,,,,,,,,,,,,,,,,,0,0,0,0,0
2.6222,1783187418.6532,1,1,1.0000,0.0000,1.44681,0.22023,-2.78079,0.98973,1.57080,0.00001,-0.14512,-0.38002,0.04314,,,,,,,,,,,,,,,,,,,,,,,,,,0,0,0,0,0
2.6316,1783187418.6626,1,1,1.0000,0.0000,1.44681,0.22012,-2.78081,0.98986,1.57080,0.00001,-0.14512,-0.38002,0.04312,,,,,,,,,,,,,,,,,,,,,,,,,,0,0,0,0,0
2.6320,1783187418.6631,1,1,1.0000,0.0000,1.44681,0.22012,-2.78081,0.98986,1.57080,0.00001,-0.14512,-0.38002,0.04312,,,,,,,,,,,,,,,,,,,,,,,,,,0,0,0,0,0
2.6363,1783187418.6673,1,1,1.0000,0.0000,1.44681,0.22007,-2.78083,0.98992,1.57080,0.00001,-0.14512,-0.38002,0.04310,,,,,,,,,,,,,,,,,,,,,,,,,,0,0,0,0,0
2.6449,1783187418.6759,1,1,1.0000,0.0000,1.44681,0.22004,-2.78083,0.98996,1.57080,0.00001,-0.14512,-0.38002,0.04310,,,,,,,,,,,,,,,,,,,,,,,,,,0,0,0,0,0
2.6452,1783187418.6762,1,1,1.0000,0.0000,1.44681,0.22004,-2.78083,0.98996,1.57080,0.00001,-0.14512,-0.38002,0.04310,,,,,,,,,,,,,,,,,,,,,,,,,,0,0,0,0,0
2.6542,1783187418.6853,1,1,1.0000,0.0000,1.44681,0.21998,-2.78085,0.99003,1.57080,0.00001,-0.14512,-0.38002,0.04308,,,,,,,,,,,,,,,,,,,,,,,,,,0,0,0,0,0
2.6547,1783187418.6857,1,1,1.0000,0.0000,1.44681,0.21998,-2.78085,0.99003,1.57080,0.00001,-0.14512,-0.38002,0.04308,,,,,,,,,,,,,,,,,,,,,,,,,,0,0,0,0,0
2.6691,1783187418.7001,1,1,1.0000,0.0000,1.44681,0.21989,-2.78087,0.99015,1.57080,0.00001,-0.14512,-0.38002,0.04306,,,,,,,,,,,,,,,,,,,,,,,,,,0,0,0,0,0
2.6761,1783187418.7071,1,1,1.0000,0.0000,1.44681,0.21986,-2.78088,0.99018,1.57080,0.00001,-0.14512,-0.38002,0.04305,,,,,,,,,,,,,,,,,,,,,,,,,,0,0,0,0,0
2.6764,1783187418.7075,1,1,1.0000,0.0000,1.44681,0.21986,-2.78088,0.99018,1.57080,0.00001,-0.14512,-0.38002,0.04305,,,,,,,,,,,,,,,,,,,,,,,,,,0,0,0,0,0
2.6868,1783187418.7179,1,1,1.0000,0.0000,1.44681,0.21972,-2.78091,0.99036,1.57080,0.00001,-0.14512,-0.38002,0.04301,,,,,,,,,,,,,,,,,,,,,,,,,,0,0,0,0,0
2.6871,1783187418.7182,1,1,1.0000,0.0000,1.44681,0.21972,-2.78091,0.99036,1.57080,0.00001,-0.14512,-0.38002,0.04301,,,,,,,,,,,,,,,,,,,,,,,,,,0,0,0,0,0
2.6956,1783187418.7266,1,1,1.0000,0.0000,1.44681,0.21961,-2.78094,0.99049,1.57080,0.00001,-0.14512,-0.38002,0.04299,,,,,,,,,,,,,,,,,,,,,,,,,,0,0,0,0,0
2.6961,1783187418.7271,1,1,1.0000,0.0000,1.44681,0.21961,-2.78094,0.99049,1.57080,0.00001,-0.14512,-0.38002,0.04299,,,,,,,,,,,,,,,,,,,,,,,,,,0,0,0,0,0
2.7038,1783187418.7348,1,1,1.0000,0.0000,1.44681,0.21961,-2.78094,0.99050,1.57080,0.00001,-0.14512,-0.38002,0.04299,,,,,,,,,,,,,,,,,,,,,,,,,,0,0,0,0,0
2.7043,1783187418.7353,1,1,1.0000,0.0000,1.44681,0.21961,-2.78094,0.99050,1.57080,0.00001,-0.14512,-0.38002,0.04299,,,,,,,,,,,,,,,,,,,,,,,,,,0,0,0,0,0
2.7149,1783187418.7459,1,1,1.0000,0.0000,1.44681,0.21953,-2.78096,0.99060,1.57080,0.00001,-0.14512,-0.38002,0.04296,,,,,,,,,,,,,,,,,,,,,,,,,,0,0,0,0,0
2.7256,1783187418.7567,1,1,1.0000,0.0000,1.44681,0.21944,-2.78098,0.99071,1.57080,0.00001,-0.14512,-0.38002,0.04294,,,,,,,,,,,,,,,,,,,,,,,,,,0,0,0,0,0
2.7339,1783187418.7650,1,1,1.0000,0.0000,1.44681,0.21941,-2.78099,0.99075,1.57080,0.00001,-0.14512,-0.38002,0.04293,,,,,,,,,,,,,,,,,,,,,,,,,,0,0,0,0,0
2.7436,1783187418.7747,1,1,1.0000,0.0000,1.44681,0.21932,-2.78101,0.99086,1.57080,0.00001,-0.14512,-0.38002,0.04291,,,,,,,,,,,,,,,,,,,,,,,,,,0,0,0,0,0
2.7441,1783187418.7751,1,1,1.0000,0.0000,1.44681,0.21932,-2.78101,0.99086,1.57080,0.00001,-0.14512,-0.38002,0.04291,,,,,,,,,,,,,,,,,,,,,,,,,,0,0,0,0,0
2.7561,1783187418.7872,1,1,1.0000,0.0000,1.44681,0.21916,-2.78105,0.99106,1.57080,0.00001,-0.14512,-0.38002,0.04287,,,,,,,,,,,,,,,,,,,,,,,,,,0,0,0,0,0
2.7639,1783187418.7949,1,1,1.0000,0.0000,1.44681,0.21915,-2.78105,0.99106,1.57080,0.00001,-0.14512,-0.38002,0.04287,,,,,,,,,,,,,,,,,,,,,,,,,,0,0,0,0,0
2.7768,1783187418.8079,1,1,1.0000,0.0000,1.44681,0.21903,-2.78108,0.99122,1.57080,0.00001,-0.14512,-0.38002,0.04284,,,,,,,,,,,,,,,,,,,,,,,,,,0,0,0,0,0
2.7914,1783187418.8224,1,1,1.0000,0.0000,1.44681,0.21898,-2.78110,0.99128,1.57080,0.00001,-0.14512,-0.38002,0.04282,,,,,,,,,,,,,,,,,,,,,,,,,,0,0,0,0,0
2.7979,1783187418.8289,1,1,1.0000,0.0000,1.44681,0.21891,-2.78111,0.99136,1.57080,0.00001,-0.14512,-0.38002,0.04281,,,,,,,,,,,,,,,,,,,,,,,,,,0,0,0,0,0
2.8034,1783187418.8344,1,1,1.0000,0.0000,1.44681,0.21887,-2.78112,0.99142,1.57080,0.00001,-0.14512,-0.38002,0.04280,,,,,,,,,,,,,,,,,,,,,,,,,,0,0,0,0,0
2.8037,1783187418.8348,1,1,1.0000,0.0000,1.44681,0.21887,-2.78112,0.99142,1.57080,0.00001,-0.14512,-0.38002,0.04280,,,,,,,,,,,,,,,,,,,,,,,,,,0,0,0,0,0
2.8138,1783187418.8449,1,1,1.0000,0.0000,1.44681,0.21871,-2.78116,0.99162,1.57080,0.00001,-0.14512,-0.38002,0.04275,,,,,,,,,,,,,,,,,,,,,,,,,,0,0,0,0,0
2.8141,1783187418.8451,1,1,1.0000,0.0000,1.44681,0.21871,-2.78116,0.99162,1.57080,0.00001,-0.14512,-0.38002,0.04275,,,,,,,,,,,,,,,,,,,,,,,,,,0,0,0,0,0
2.8266,1783187418.8577,1,1,1.0000,0.0000,1.44681,0.21868,-2.78117,0.99165,1.57080,0.00001,-0.14512,-0.38002,0.04275,,,,,,,,,,,,,,,,,,,,,,,,,,0,0,0,0,0
2.8378,1783187418.8689,1,1,1.0000,0.0000,1.44681,0.21858,-2.78119,0.99178,1.57080,0.00001,-0.14512,-0.38002,0.04272,,,,,,,,,,,,,,,,,,,,,,,,,,0,0,0,0,0
2.8484,1783187418.8794,1,1,1.0000,0.0000,1.44681,0.21853,-2.78121,0.99184,1.57080,0.00001,-0.14512,-0.38002,0.04271,,,,,,,,,,,,,,,,,,,,,,,,,,0,0,0,0,0
2.8549,1783187418.8859,1,1,1.0000,0.0000,1.44681,0.21850,-2.78121,0.99188,1.57080,0.00001,-0.14512,-0.38002,0.04270,,,,,,,,,,,,,,,,,,,,,,,,,,0,0,0,0,0
2.8640,1783187418.8951,1,1,1.0000,0.0000,1.44681,0.21841,-2.78124,0.99199,1.57080,0.00001,-0.14512,-0.38002,0.04268,,,,,,,,,,,,,,,,,,,,,,,,,,0,0,0,0,0
2.8746,1783187418.9056,1,1,1.0000,0.0000,1.44681,0.21825,-2.78128,0.99219,1.57080,0.00001,-0.14512,-0.38002,0.04264,,,,,,,,,,,,,,,,,,,,,,,,,,0,0,0,0,0
2.8849,1783187418.9160,1,1,1.0000,0.0000,1.44681,0.21822,-2.78128,0.99223,1.57080,0.00001,-0.14512,-0.38002,0.04263,,,,,,,,,,,,,,,,,,,,,,,,,,0,0,0,0,0
2.8939,1783187418.9250,1,1,1.0000,0.0000,1.44681,0.21814,-2.78130,0.99234,1.57080,0.00001,-0.14512,-0.38002,0.04261,,,,,,,,,,,,,,,,,,,,,,,,,,0,0,0,0,0
2.9038,1783187418.9349,1,1,1.0000,0.0000,1.44681,0.21803,-2.78133,0.99247,1.57080,0.00001,-0.14512,-0.38002,0.04258,,,,,,,,,,,,,,,,,,,,,,,,,,0,0,0,0,0
2.9155,1783187418.9465,1,1,1.0000,0.0000,1.44681,0.21800,-2.78134,0.99251,1.57080,0.00001,-0.14512,-0.38002,0.04257,,,,,,,,,,,,,,,,,,,,,,,,,,0,0,0,0,0
2.9276,1783187418.9586,1,1,1.0000,0.0000,1.44681,0.21786,-2.78137,0.99268,1.57080,0.00001,-0.14512,-0.38002,0.04254,,,,,,,,,,,,,,,,,,,,,,,,,,0,0,0,0,0
2.9385,1783187418.9696,1,1,1.0000,0.0000,1.44681,0.21776,-2.78140,0.99281,1.57080,0.00001,-0.14512,-0.38002,0.04251,,,,,,,,,,,,,,,,,,,,,,,,,,0,0,0,0,0
2.9459,1783187418.9769,1,1,1.0000,0.0000,1.44681,0.21772,-2.78141,0.99285,1.57080,0.00001,-0.14512,-0.38002,0.04250,,,,,,,,,,,,,,,,,,,,,,,,,,0,0,0,0,0
2.9556,1783187418.9867,1,1,1.0000,0.0000,1.44681,0.21764,-2.78143,0.99295,1.57080,0.00001,-0.14512,-0.38002,0.04248,,,,,,,,,,,,,,,,,,,,,,,,,,0,0,0,0,0
2.9660,1783187418.9970,1,1,1.0000,0.0000,1.44681,0.21754,-2.78145,0.99308,1.57080,0.00001,-0.14512,-0.38002,0.04245,,,,,,,,,,,,,,,,,,,,,,,,,,0,0,0,0,0
2.9750,1783187419.0060,1,1,1.0000,0.0000,1.44681,0.21750,-2.78146,0.99313,1.57080,0.00001,-0.14512,-0.38002,0.04245,,,,,,,,,,,,,,,,,,,,,,,,,,0,0,0,0,0
2.9867,1783187419.0178,1,1,1.0000,0.0000,1.44681,0.21737,-2.78149,0.99329,1.57080,0.00001,-0.14512,-0.38002,0.04241,,,,,,,,,,,,,,,,,,,,,,,,,,0,0,0,0,0
2.9942,1783187419.0252,1,1,1.0000,0.0000,1.44681,0.21726,-2.78152,0.99342,1.57080,0.00001,-0.14512,-0.38002,0.04238,,,,,,,,,,,,,,,,,,,,,,,,,,0,0,0,0,0
3.0086,1783187419.0396,1,1,1.0000,0.0000,1.44681,0.21723,-2.78153,0.99347,1.57080,0.00001,-0.14512,-0.38002,0.04238,,,,,,,,,,,,,,,,,,,,,,,,,,0,0,0,0,0
3.0158,1783187419.0468,1,1,1.0000,0.0000,1.44681,0.21714,-2.78155,0.99357,1.57080,0.00001,-0.14512,-0.38002,0.04235,,,,,,,,,,,,,,,,,,,,,,,,,,0,0,0,0,0
3.0162,1783187419.0473,1,1,1.0000,0.0000,1.44681,0.21714,-2.78155,0.99357,1.57080,0.00001,-0.14512,-0.38002,0.04235,,,,,,,,,,,,,,,,,,,,,,,,,,0,0,0,0,0
3.0249,1783187419.0559,1,1,1.0000,0.0000,1.44681,0.21704,-2.78157,0.99370,1.57080,0.00001,-0.14512,-0.38002,0.04233,,,,,,,,,,,,,,,,,,,,,,,,,,0,0,0,0,0
3.0417,1783187419.0728,1,1,1.0000,0.0000,1.44681,0.21692,-2.78160,0.99385,1.57080,0.00001,-0.14512,-0.38002,0.04230,,,,,,,,,,,,,,,,,,,,,,,,,,0,0,0,0,0
3.0446,1783187419.0756,1,1,1.0000,0.0000,1.44681,0.21692,-2.78160,0.99385,1.57080,0.00001,-0.14512,-0.38002,0.04230,,,,,,,,,,,,,,,,,,,,,,,,,,0,0,0,0,0
3.0452,1783187419.0763,1,1,1.0000,0.0000,1.44681,0.21687,-2.78162,0.99391,1.57080,0.00001,-0.14512,-0.38002,0.04228,,,,,,,,,,,,,,,,,,,,,,,,,,0,0,0,0,0
3.0538,1783187419.0849,1,1,1.0000,0.0000,1.44681,0.21677,-2.78164,0.99404,1.57080,0.00001,-0.14512,-0.38002,0.04226,,,,,,,,,,,,,,,,,,,,,,,,,,0,0,0,0,0
3.0541,1783187419.0852,1,1,1.0000,0.0000,1.44681,0.21677,-2.78164,0.99404,1.57080,0.00001,-0.14512,-0.38002,0.04226,,,,,,,,,,,,,,,,,,,,,,,,,,0,0,0,0,0
3.0638,1783187419.0949,1,1,1.0000,0.0000,1.44681,0.21676,-2.78164,0.99405,1.57080,0.00001,-0.14512,-0.38002,0.04226,,,,,,,,,,,,,,,,,,,,,,,,,,0,0,0,0,0
3.0756,1783187419.1067,1,1,1.0000,0.0000,1.44681,0.21665,-2.78167,0.99419,1.57080,0.00001,-0.14512,-0.38002,0.04223,,,,,,,,,,,,,,,,,,,,,,,,,,0,0,0,0,0
3.0868,1783187419.1178,1,1,1.0000,0.0000,1.44681,0.21649,-2.78171,0.99439,1.57080,0.00001,-0.14512,-0.38002,0.04219,,,,,,,,,,,,,,,,,,,,,,,,,,0,0,0,0,0
3.0993,1783187419.1303,1,1,1.0000,0.0000,1.44681,0.21647,-2.78172,0.99442,1.57080,0.00001,-0.14512,-0.38002,0.04218,,,,,,,,,,,,,,,,,,,,,,,,,,0,0,0,0,0
3.1073,1783187419.1383,1,1,1.0000,0.0000,1.44681,0.21640,-2.78173,0.99450,1.57080,0.00001,-0.14512,-0.38002,0.04217,,,,,,,,,,,,,,,,,,,,,,,,,,0,0,0,0,0
3.1176,1783187419.1486,1,1,1.0000,0.0000,1.44681,0.21632,-2.78175,0.99460,1.57080,0.00001,-0.14512,-0.38002,0.04214,,,,,,,,,,,,,,,,,,,,,,,,,,0,0,0,0,0
3.1347,1783187419.1657,1,1,1.0000,0.0000,1.44681,0.21619,-2.78178,0.99475,1.57080,0.00001,-0.14512,-0.38002,0.04211,,,,,,,,,,,,,,,,,,,,,,,,,,0,0,0,0,0
3.1436,1783187419.1747,1,1,1.0000,0.0000,1.44681,0.21609,-2.78181,0.99489,1.57080,0.00001,-0.14512,-0.38002,0.04208,,,,,,,,,,,,,,,,,,,,,,,,,,0,0,0,0,0
3.1474,1783187419.1784,1,1,1.0000,0.0000,1.44681,0.21603,-2.78182,0.99495,1.57080,0.00001,-0.14512,-0.38002,0.04207,,,,,,,,,,,,,,,,,,,,,,,,,,0,0,0,0,0
3.1572,1783187419.1882,1,1,1.0000,0.0000,1.44681,0.21601,-2.78183,0.99498,1.57080,0.00001,-0.14512,-0.38002,0.04206,,,,,,,,,,,,,,,,,,,,,,,,,,0,0,0,0,0
3.1575,1783187419.1886,1,1,1.0000,0.0000,1.44681,0.21601,-2.78183,0.99498,1.57080,0.00001,-0.14512,-0.38002,0.04206,,,,,,,,,,,,,,,,,,,,,,,,,,0,0,0,0,0
3.1709,1783187419.2020,1,1,1.0000,0.0000,1.44681,0.21591,-2.78185,0.99511,1.57080,0.00001,-0.14512,-0.38002,0.04204,,,,,,,,,,,,,,,,,,,,,,,,,,0,0,0,0,0
3.1714,1783187419.2025,1,1,1.0000,0.0000,1.44681,0.21591,-2.78185,0.99511,1.57080,0.00001,-0.14512,-0.38002,0.04204,,,,,,,,,,,,,,,,,,,,,,,,,,0,0,0,0,0
3.1924,1783187419.2235,1,1,1.0000,0.0000,1.44681,0.21579,-2.78188,0.99526,1.57080,0.00001,-0.14512,-0.38002,0.04201,,,,,,,,,,,,,,,,,,,,,,,,,,0,0,0,0,0
3.1949,1783187419.2259,1,1,1.0000,0.0000,1.44681,0.21574,-2.78189,0.99532,1.57080,0.00001,-0.14512,-0.38002,0.04200,,,,,,,,,,,,,,,,,,,,,,,,,,0,0,0,0,0
3.1988,1783187419.2298,1,1,1.0000,0.0000,1.44681,0.21569,-2.78191,0.99539,1.57080,0.00001,-0.14512,-0.38002,0.04198,,,,,,,,,,,,,,,,,,,,,,,,,,0,0,0,0,0
3.2075,1783187419.2385,1,1,1.0000,0.0000,1.44681,0.21558,-2.78193,0.99552,1.57080,0.00001,-0.14512,-0.38002,0.04195,,,,,,,,,,,,,,,,,,,,,,,,,,0,0,0,0,0
3.2205,1783187419.2516,1,1,1.0000,0.0000,1.44681,0.21555,-2.78194,0.99555,1.57080,0.00001,-0.14512,-0.38002,0.04195,,,,,,,,,,,,,,,,,,,,,,,,,,0,0,0,0,0
3.2281,1783187419.2592,1,1,1.0000,0.0000,1.44681,0.21549,-2.78196,0.99563,1.57080,0.00001,-0.14512,-0.38002,0.04193,,,,,,,,,,,,,,,,,,,,,,,,,,0,0,0,0,0
3.2719,1783187419.3030,1,1,1.0000,0.0000,1.44681,0.21512,-2.78205,0.99609,1.57080,0.00001,-0.14512,-0.38002,0.04184,,,,,,,,,,,,,,,,,,,,,,,,,,0,0,0,0,0
3.2723,1783187419.3033,1,1,1.0000,0.0000,1.44681,0.21512,-2.78205,0.99609,1.57080,0.00001,-0.14512,-0.38002,0.04184,,,,,,,,,,,,,,,,,,,,,,,,,,0,0,0,0,0
3.2726,1783187419.3036,1,1,1.0000,0.0000,1.44681,0.21512,-2.78205,0.99609,1.57080,0.00001,-0.14512,-0.38002,0.04184,,,,,,,,,,,,,,,,,,,,,,,,,,0,0,0,0,0
3.2834,1783187419.3145,1,1,1.0000,0.0000,1.44681,0.21507,-2.78206,0.99616,1.57080,0.00001,-0.14512,-0.38002,0.04183,,,,,,,,,,,,,,,,,,,,,,,,,,0,0,0,0,0
3.2910,1783187419.3220,1,1,1.0000,0.0000,1.44681,0.21499,-2.78208,0.99625,1.57080,0.00001,-0.14512,-0.38002,0.04181,,,,,,,,,,,,,,,,,,,,,,,,,,0,0,0,0,0
3.3273,1783187419.3583,1,1,1.0000,0.0000,1.44681,0.21467,-2.78216,0.99666,1.57080,0.00001,-0.14512,-0.38002,0.04172,,,,,,,,,,,,,,,,,,,,,,,,,,0,0,0,0,0
3.3275,1783187419.3586,1,1,1.0000,0.0000,1.44681,0.21467,-2.78216,0.99666,1.57080,0.00001,-0.14512,-0.38002,0.04172,,,,,,,,,,,,,,,,,,,,,,,,,,0,0,0,0,0
3.3325,1783187419.3635,1,1,1.0000,0.0000,1.44681,0.21467,-2.78216,0.99666,1.57080,0.00001,-0.14512,-0.38002,0.04172,,,,,,,,,,,,,,,,,,,,,,,,,,0,0,0,0,0
3.3330,1783187419.3641,1,1,1.0000,0.0000,1.44681,0.21466,-2.78216,0.99667,1.57080,0.00001,-0.14512,-0.38002,0.04172,,,,,,,,,,,,,,,,,,,,,,,,,,0,0,0,0,0
3.3333,1783187419.3644,1,1,1.0000,0.0000,1.44681,0.21466,-2.78216,0.99667,1.57080,0.00001,-0.14512,-0.38002,0.04172,,,,,,,,,,,,,,,,,,,,,,,,,,0,0,0,0,0
3.3380,1783187419.3690,1,1,1.0000,0.0000,1.44681,0.21464,-2.78216,0.99669,1.57080,0.00001,-0.14512,-0.38002,0.04172,,,,,,,,,,,,,,,,,,,,,,,,,,0,0,0,0,0
3.3385,1783187419.3695,1,1,1.0000,0.0000,1.44681,0.21464,-2.78216,0.99669,1.57080,0.00001,-0.14512,-0.38002,0.04172,,,,,,,,,,,,,,,,,,,,,,,,,,0,0,0,0,0
3.3490,1783187419.3801,1,1,1.0000,0.0000,1.44681,0.21454,-2.78219,0.99682,1.57080,0.00001,-0.14512,-0.38002,0.04169,,,,,,,,,,,,,,,,,,,,,,,,,,0,0,0,0,0
3.3496,1783187419.3806,1,1,1.0000,0.0000,1.44681,0.21454,-2.78219,0.99682,1.57080,0.00001,-0.14512,-0.38002,0.04169,,,,,,,,,,,,,,,,,,,,,,,,,,0,0,0,0,0
3.3602,1783187419.3912,1,1,1.0000,0.0000,1.44681,0.21449,-2.78220,0.99687,1.57080,0.00002,-0.14512,-0.38002,0.04168,,,,,,,,,,,,,,,,,,,,,,,,,,0,0,0,0,0
3.3682,1783187419.3992,1,1,1.0000,0.0000,1.44681,0.21446,-2.78221,0.99692,1.57080,0.00002,-0.14512,-0.38002,0.04167,,,,,,,,,,,,,,,,,,,,,,,,,,0,0,0,0,0
3.3817,1783187419.4127,1,1,1.0000,0.0000,1.44681,0.21426,-2.78226,0.99716,1.57080,0.00002,-0.14512,-0.38002,0.04162,,,,,,,,,,,,,,,,,,,,,,,,,,0,0,0,0,0
3.3822,1783187419.4133,1,1,1.0000,0.0000,1.44681,0.21426,-2.78226,0.99716,1.57080,0.00002,-0.14512,-0.38002,0.04162,,,,,,,,,,,,,,,,,,,,,,,,,,0,0,0,0,0
3.3910,1783187419.4221,1,1,1.0000,0.0000,1.44681,0.21421,-2.78227,0.99723,1.57080,0.00002,-0.14512,-0.38002,0.04161,,,,,,,,,,,,,,,,,,,,,,,,,,0,0,0,0,0
3.4038,1783187419.4349,1,1,1.0000,0.0000,1.44681,0.21416,-2.78228,0.99729,1.57080,0.00002,-0.14512,-0.38002,0.04159,,,,,,,,,,,,,,,,,,,,,,,,,,0,0,0,0,0
3.4041,1783187419.4352,1,1,1.0000,0.0000,1.44681,0.21416,-2.78228,0.99729,1.57080,0.00002,-0.14512,-0.38002,0.04159,,,,,,,,,,,,,,,,,,,,,,,,,,0,0,0,0,0
3.4113,1783187419.4424,1,1,1.0000,0.0000,1.44681,0.21408,-2.78230,0.99739,1.57080,0.00002,-0.14512,-0.38002,0.04157,,,,,,,,,,,,,,,,,,,,,,,,,,0,0,0,0,0
3.4207,1783187419.4518,1,1,1.0000,0.0000,1.44681,0.21403,-2.78231,0.99744,1.57080,0.00002,-0.14512,-0.38002,0.04156,,,,,,,,,,,,,,,,,,,,,,,,,,0,0,0,0,0
3.4217,1783187419.4527,1,1,1.0000,0.0000,1.44681,0.21402,-2.78231,0.99746,1.57080,0.00002,-0.14512,-0.38002,0.04156,,,,,,,,,,,,,,,,,,,,,,,,,,0,0,0,0,0
3.4284,1783187419.4595,1,1,1.0000,0.0000,1.44681,0.21400,-2.78232,0.99749,1.57080,0.00002,-0.14512,-0.38002,0.04155,,,,,,,,,,,,,,,,,,,,,,,,,,0,0,0,0,0
3.4411,1783187419.4722,1,1,1.0000,0.0000,1.44681,0.21380,-2.78237,0.99773,1.57080,0.00002,-0.14512,-0.38002,0.04150,,,,,,,,,,,,,,,,,,,,,,,,,,0,0,0,0,0
3.4415,1783187419.4725,1,1,1.0000,0.0000,1.44681,0.21380,-2.78237,0.99773,1.57080,0.00002,-0.14512,-0.38002,0.04150,,,,,,,,,,,,,,,,,,,,,,,,,,0,0,0,0,0
3.4505,1783187419.4815,1,1,1.0000,0.0000,1.44681,0.21375,-2.78238,0.99780,1.57080,0.00002,-0.14512,-0.38002,0.04149,,,,,,,,,,,,,,,,,,,,,,,,,,0,0,0,0,0
3.4586,1783187419.4896,1,1,1.0000,0.0000,1.44681,0.21372,-2.78239,0.99784,1.57080,0.00002,-0.14512,-0.38002,0.04148,,,,,,,,,,,,,,,,,,,,,,,,,,0,0,0,0,0
3.4672,1783187419.4983,1,1,1.0000,0.0000,1.44681,0.21363,-2.78241,0.99794,1.57080,0.00002,-0.14512,-0.38002,0.04146,,,,,,,,,,,,,,,,,,,,,,,,,,0,0,0,0,0
3.4787,1783187419.5097,1,1,1.0000,0.0000,1.44681,0.21353,-2.78244,0.99807,1.57080,0.00002,-0.14512,-0.38002,0.04143,,,,,,,,,,,,,,,,,,,,,,,,,,0,0,0,0,0
3.4895,1783187419.5205,1,1,1.0000,0.0000,1.44681,0.21346,-2.78245,0.99816,1.57080,0.00002,-0.14512,-0.38002,0.04141,,,,,,,,,,,,,,,,,,,,,,,,,,0,0,0,0,0
3.5221,1783187419.5531,1,1,1.0000,0.0000,1.44681,0.21318,-2.78252,0.99850,1.57080,0.00002,-0.14512,-0.38002,0.04134,,,,,,,,,,,,,,,,,,,,,,,,,,0,0,0,0,0
3.5224,1783187419.5534,1,1,1.0000,0.0000,1.44681,0.21318,-2.78252,0.99850,1.57080,0.00002,-0.14512,-0.38002,0.04134,,,,,,,,,,,,,,,,,,,,,,,,,,0,0,0,0,0
3.5227,1783187419.5538,1,1,1.0000,0.0000,1.44681,0.21318,-2.78252,0.99850,1.57080,0.00002,-0.14512,-0.38002,0.04134,,,,,,,,,,,,,,,,,,,,,,,,,,0,0,0,0,0
3.5231,1783187419.5541,1,1,1.0000,0.0000,1.44681,0.21318,-2.78252,0.99850,1.57080,0.00002,-0.14512,-0.38002,0.04134,,,,,,,,,,,,,,,,,,,,,,,,,,0,0,0,0,0
3.5275,1783187419.5585,1,1,1.0000,0.0000,1.44681,0.21313,-2.78253,0.99856,1.57080,0.00002,-0.14512,-0.38002,0.04133,,,,,,,,,,,,,,,,,,,,,,,,,,0,0,0,0,0
3.5429,1783187419.5740,1,1,1.0000,0.0000,1.44681,0.21302,-2.78256,0.99870,1.57080,0.00002,-0.14512,-0.38002,0.04130,,,,,,,,,,,,,,,,,,,,,,,,,,0,0,0,0,0
3.5616,1783187419.5927,1,1,1.0000,0.0000,1.44681,0.21281,-2.78261,0.99897,1.57080,0.00002,-0.14512,-0.38002,0.04125,,,,,,,,,,,,,,,,,,,,,,,,,,0,0,0,0,0
3.5637,1783187419.5947,1,1,1.0000,0.0000,1.44681,0.21281,-2.78261,0.99897,1.57080,0.00002,-0.14512,-0.38002,0.04125,,,,,,,,,,,,,,,,,,,,,,,,,,0,0,0,0,0
3.5676,1783187419.5986,1,1,1.0000,0.0000,1.44681,0.21275,-2.78262,0.99904,1.57080,0.00002,-0.14512,-0.38002,0.04124,,,,,,,,,,,,,,,,,,,,,,,,,,0,0,0,0,0
3.5814,1783187419.6124,1,1,1.0000,0.0000,1.44681,0.21268,-2.78264,0.99912,1.57080,0.00002,-0.14512,-0.38002,0.04122,,,,,,,,,,,,,,,,,,,,,,,,,,0,0,0,0,0
3.5884,1783187419.6195,1,1,1.0000,0.0000,1.44681,0.21264,-2.78265,0.99918,1.57080,0.00002,-0.14512,-0.38002,0.04121,,,,,,,,,,,,,,,,,,,,,,,,,,0,0,0,0,0
3.5989,1783187419.6299,1,1,1.0000,0.0000,1.44681,0.21253,-2.78268,0.99931,1.57080,0.00002,-0.14512,-0.38002,0.04118,,,,,,,,,,,,,,,,,,,,,,,,,,0,0,0,0,0
3.6089,1783187419.6400,1,1,1.0000,0.0000,1.44681,0.21246,-2.78270,0.99940,1.57080,0.00002,-0.14512,-0.38002,0.04116,,,,,,,,,,,,,,,,,,,,,,,,,,0,0,0,0,0
3.6092,1783187419.6402,1,1,1.0000,0.0000,1.44681,0.21246,-2.78270,0.99940,1.57080,0.00002,-0.14512,-0.38002,0.04116,,,,,,,,,,,,,,,,,,,,,,,,,,0,0,0,0,0
3.6174,1783187419.6484,1,1,1.0000,0.0000,1.44681,0.21236,-2.78272,0.99952,1.57080,0.00002,-0.14512,-0.38002,0.04114,,,,,,,,,,,,,,,,,,,,,,,,,,0,0,0,0,0
3.6176,1783187419.6487,1,1,1.0000,0.0000,1.44681,0.21236,-2.78272,0.99952,1.57080,0.00002,-0.14512,-0.38002,0.04114,,,,,,,,,,,,,,,,,,,,,,,,,,0,0,0,0,0
3.6297,1783187419.6607,1,1,1.0000,0.0000,1.44681,0.21225,-2.78274,0.99966,1.57080,0.00002,-0.14512,-0.38002,0.04111,,,,,,,,,,,,,,,,,,,,,,,,,,0,0,0,0,0
3.6383,1783187419.6693,1,1,1.0000,0.0000,1.44681,0.21222,-2.78275,0.99970,1.57080,0.00002,-0.14512,-0.38002,0.04110,,,,,,,,,,,,,,,,,,,,,,,,,,0,0,0,0,0
3.6473,1783187419.6783,1,1,1.0000,0.0000,1.44681,0.21214,-2.78277,0.99980,1.57080,0.00002,-0.14512,-0.38002,0.04108,,,,,,,,,,,,,,,,,,,,,,,,,,0,0,0,0,0
3.6605,1783187419.6916,1,1,1.0000,0.0000,1.44681,0.21198,-2.78281,1.00000,1.57080,0.00002,-0.14512,-0.38002,0.04104,,,,,,,,,,,,,,,,,,,,,,,,,,0,0,0,0,0
3.6722,1783187419.7033,1,1,1.0000,0.0000,1.44681,0.21195,-2.78282,1.00003,1.57080,0.00002,-0.14512,-0.38002,0.04103,,,,,,,,,,,,,,,,,,,,,,,,,,0,0,0,0,0
3.6836,1783187419.7146,1,1,1.0000,0.0000,1.44681,0.21185,-2.78284,1.00016,1.57080,0.00002,-0.14512,-0.38002,0.04101,,,,,,,,,,,,,,,,,,,,,,,,,,0,0,0,0,0
3.6873,1783187419.7183,1,1,1.0000,0.0000,1.44681,0.21180,-2.78285,1.00022,1.57080,0.00002,-0.14512,-0.38002,0.04099,,,,,,,,,,,,,,,,,,,,,,,,,,0,0,0,0,0
3.7014,1783187419.7324,1,1,1.0000,0.0000,1.44681,0.21173,-2.78287,1.00031,1.57080,0.00002,-0.14512,-0.38002,0.04098,,,,,,,,,,,,,,,,,,,,,,,,,,0,0,0,0,0
3.7017,1783187419.7328,1,1,1.0000,0.0000,1.44681,0.21173,-2.78287,1.00031,1.57080,0.00002,-0.14512,-0.38002,0.04098,,,,,,,,,,,,,,,,,,,,,,,,,,0,0,0,0,0
3.7121,1783187419.7432,1,1,1.0000,0.0000,1.44681,0.21163,-2.78290,1.00044,1.57080,0.00002,-0.14512,-0.38002,0.04095,,,,,,,,,,,,,,,,,,,,,,,,,,0,0,0,0,0
3.7213,1783187419.7524,1,1,1.0000,0.0000,1.44681,0.21152,-2.78292,1.00057,1.57080,0.00002,-0.14512,-0.38002,0.04092,,,,,,,,,,,,,,,,,,,,,,,,,,0,0,0,0,0
3.7326,1783187419.7636,1,1,1.0000,0.0000,1.44681,0.21149,-2.78293,1.00060,1.57080,0.00002,-0.14512,-0.38002,0.04092,,,,,,,,,,,,,,,,,,,,,,,,,,0,0,0,0,0
3.7479,1783187419.7790,1,1,1.0000,0.0000,1.44681,0.21134,-2.78297,1.00079,1.57080,0.00002,-0.14512,-0.38002,0.04088,,,,,,,,,,,,,,,,,,,,,,,,,,0,0,0,0,0
3.7589,1783187419.7899,1,1,1.0000,0.0000,1.44681,0.21131,-2.78297,1.00083,1.57080,0.00002,-0.14512,-0.38002,0.04087,,,,,,,,,,,,,,,,,,,,,,,,,,0,0,0,0,0
3.7670,1783187419.7981,1,1,1.0000,0.0000,1.44681,0.21122,-2.78300,1.00094,1.57080,0.00002,-0.14512,-0.38002,0.04085,,,,,,,,,,,,,,,,,,,,,,,,,,0,0,0,0,0
3.7673,1783187419.7984,1,1,1.0000,0.0000,1.44681,0.21122,-2.78300,1.00094,1.57080,0.00002,-0.14512,-0.38002,0.04085,,,,,,,,,,,,,,,,,,,,,,,,,,0,0,0,0,0
3.7734,1783187419.8044,1,1,1.0000,0.0000,1.44681,0.21111,-2.78302,1.00108,1.57080,0.00002,-0.14512,-0.38002,0.04082,,,,,,,,,,,,,,,,,,,,,,,,,,0,0,0,0,0
3.7737,1783187419.8048,1,1,1.0000,0.0000,1.44681,0.21111,-2.78302,1.00108,1.57080,0.00002,-0.14512,-0.38002,0.04082,,,,,,,,,,,,,,,,,,,,,,,,,,0,0,0,0,0
3.7825,1783187419.8135,1,1,1.0000,0.0000,1.44681,0.21106,-2.78303,1.00114,1.57080,0.00002,-0.14512,-0.38002,0.04081,,,,,,,,,,,,,,,,,,,,,,,,,,0,0,0,0,0
3.7920,1783187419.8231,1,1,1.0000,0.0000,1.44681,0.21103,-2.78304,1.00117,1.57080,0.00002,-0.14512,-0.38002,0.04080,,,,,,,,,,,,,,,,,,,,,,,,,,0,0,0,0,0
3.8039,1783187419.8350,1,1,1.0000,0.0000,1.44681,0.21093,-2.78307,1.00130,1.57080,0.00002,-0.14512,-0.38002,0.04077,,,,,,,,,,,,,,,,,,,,,,,,,,0,0,0,0,0
3.8147,1783187419.8458,1,1,1.0000,0.0000,1.44681,0.21087,-2.78308,1.00137,1.57080,0.00002,-0.14512,-0.38002,0.04076,,,,,,,,,,,,,,,,,,,,,,,,,,0,0,0,0,0
3.8266,1783187419.8576,1,1,1.0000,0.0000,1.44681,0.21076,-2.78311,1.00151,1.57080,0.00002,-0.14512,-0.38002,0.04073,,,,,,,,,,,,,,,,,,,,,,,,,,0,0,0,0,0
3.8345,1783187419.8655,1,1,1.0000,0.0000,1.44681,0.21065,-2.78313,1.00165,1.57080,0.00002,-0.14512,-0.38002,0.04070,,,,,,,,,,,,,,,,,,,,,,,,,,0,0,0,0,0
3.8450,1783187419.8761,1,1,1.0000,0.0000,1.44681,0.21059,-2.78315,1.00172,1.57080,0.00002,-0.14512,-0.38002,0.04069,,,,,,,,,,,,,,,,,,,,,,,,,,0,0,0,0,0
3.8651,1783187419.8962,1,1,1.0000,0.0000,1.44681,0.21042,-2.78319,1.00193,1.57080,0.00002,-0.14512,-0.38002,0.04065,,,,,,,,,,,,,,,,,,,,,,,,,,0,0,0,0,0
3.8656,1783187419.8967,1,1,1.0000,0.0000,1.44681,0.21042,-2.78319,1.00193,1.57080,0.00002,-0.14512,-0.38002,0.04065,,,,,,,,,,,,,,,,,,,,,,,,,,0,0,0,0,0
3.8659,1783187419.8969,1,1,1.0000,0.0000,1.44681,0.21042,-2.78319,1.00193,1.57080,0.00002,-0.14512,-0.38002,0.04065,,,,,,,,,,,,,,,,,,,,,,,,,,0,0,0,0,0
3.8661,1783187419.8972,1,1,1.0000,0.0000,1.44681,0.21042,-2.78319,1.00193,1.57080,0.00002,-0.14512,-0.38002,0.04065,,,,,,,,,,,,,,,,,,,,,,,,,,0,0,0,0,0
3.8759,1783187419.9070,1,1,1.0000,0.0000,1.44681,0.21041,-2.78319,1.00194,1.57080,0.00002,-0.14512,-0.38002,0.04064,,,,,,,,,,,,,,,,,,,,,,,,,,0,0,0,0,0
3.8882,1783187419.9192,1,1,1.0000,0.0000,1.44681,0.21030,-2.78322,1.00208,1.57080,0.00002,-0.14512,-0.38002,0.04061,,,,,,,,,,,,,,,,,,,,,,,,,,0,0,0,0,0
3.8957,1783187419.9267,1,1,1.0000,0.0000,1.44681,0.21019,-2.78324,1.00222,1.57080,0.00002,-0.14512,-0.38002,0.04059,,,,,,,,,,,,,,,,,,,,,,,,,,0,0,0,0,0
3.9080,1783187419.9390,1,1,1.0000,0.0000,1.44681,0.21013,-2.78326,1.00229,1.57080,0.00002,-0.14512,-0.38002,0.04057,,,,,,,,,,,,,,,,,,,,,,,,,,0,0,0,0,0
3.9156,1783187419.9467,1,1,1.0000,0.0000,1.44681,0.21009,-2.78327,1.00235,1.57080,0.00002,-0.14512,-0.38002,0.04056,,,,,,,,,,,,,,,,,,,,,,,,,,0,0,0,0,0
3.9297,1783187419.9607,1,1,1.0000,0.0000,1.44681,0.20996,-2.78330,1.00250,1.57080,0.00002,-0.14512,-0.38002,0.04053,,,,,,,,,,,,,,,,,,,,,,,,,,0,0,0,0,0
3.9372,1783187419.9683,1,1,1.0000,0.0000,1.44681,0.20993,-2.78331,1.00254,1.57080,0.00002,-0.14512,-0.38002,0.04052,,,,,,,,,,,,,,,,,,,,,,,,,,0,0,0,0,0
3.9376,1783187419.9687,1,1,1.0000,0.0000,1.44681,0.20993,-2.78331,1.00254,1.57080,0.00002,-0.14512,-0.38002,0.04052,,,,,,,,,,,,,,,,,,,,,,,,,,0,0,0,0,0
3.9690,1783187420.0000,1,1,1.0000,0.0000,1.44680,0.20965,-2.78338,1.00290,1.57080,0.00002,-0.14512,-0.38002,0.04045,,,,,,,,,,,,,,,,,,,,,,,,,,0,0,0,0,0
3.9694,1783187420.0005,1,1,1.0000,0.0000,1.44680,0.20965,-2.78338,1.00290,1.57080,0.00002,-0.14512,-0.38002,0.04045,,,,,,,,,,,,,,,,,,,,,,,,,,0,0,0,0,0
3.9698,1783187420.0009,1,1,1.0000,0.0000,1.44680,0.20965,-2.78338,1.00290,1.57080,0.00002,-0.14512,-0.38002,0.04045,,,,,,,,,,,,,,,,,,,,,,,,,,0,0,0,0,0
3.9743,1783187420.0054,1,1,1.0000,0.0000,1.44680,0.20961,-2.78338,1.00294,1.57080,0.00002,-0.14512,-0.38002,0.04044,,,,,,,,,,,,,,,,,,,,,,,,,,0,0,0,0,0
3.9903,1783187420.0213,1,1,1.0000,0.0000,1.44680,0.20946,-2.78342,1.00313,1.57079,0.00002,-0.14512,-0.38002,0.04040,,,,,,,,,,,,,,,,,,,,,,,,,,0,0,0,0,0
3.9946,1783187420.0257,1,1,1.0000,0.0000,1.44680,0.20945,-2.78342,1.00314,1.57079,0.00002,-0.14512,-0.38002,0.04040,,,,,,,,,,,,,,,,,,,,,,,,,,0,0,0,0,0
4.0061,1783187420.0371,1,1,1.0000,0.0000,1.44680,0.20934,-2.78345,1.00328,1.57079,0.00002,-0.14512,-0.38002,0.04037,,,,,,,,,,,,,,,,,,,,,,,,,,0,0,0,0,0
4.0065,1783187420.0375,1,1,1.0000,0.0000,1.44680,0.20934,-2.78345,1.00328,1.57079,0.00002,-0.14512,-0.38002,0.04037,,,,,,,,,,,,,,,,,,,,,,,,,,0,0,0,0,0
4.0196,1783187420.0507,1,1,1.0000,0.0000,1.44680,0.20918,-2.78349,1.00347,1.57079,0.00002,-0.14512,-0.38002,0.04033,,,,,,,,,,,,,,,,,,,,,,,,,,0,0,0,0,0
4.0296,1783187420.0607,1,1,1.0000,0.0000,1.44680,0.20914,-2.78350,1.00352,1.57079,0.00002,-0.14512,-0.38002,0.04032,,,,,,,,,,,,,,,,,,,,,,,,,,0,0,0,0,0
4.0299,1783187420.0610,1,1,1.0000,0.0000,1.44680,0.20914,-2.78350,1.00352,1.57079,0.00002,-0.14512,-0.38002,0.04032,,,,,,,,,,,,,,,,,,,,,,,,,,0,0,0,0,0
4.0401,1783187420.0712,1,1,1.0000,0.0000,1.44680,0.20906,-2.78352,1.00362,1.57079,0.00002,-0.14512,-0.38002,0.04030,,,,,,,,,,,,,,,,,,,,,,,,,,0,0,0,0,0
4.0503,1783187420.0813,1,1,1.0000,0.0000,1.44680,0.20895,-2.78354,1.00375,1.57079,0.00002,-0.14512,-0.38002,0.04027,,,,,,,,,,,,,,,,,,,,,,,,,,0,0,0,0,0
4.0833,1783187420.1143,1,1,1.0000,0.0000,1.44680,0.20868,-2.78361,1.00410,1.57079,0.00002,-0.14512,-0.38002,0.04020,,,,,,,,,,,,,,,,,,,,,,,,,,0,0,0,0,0
4.0838,1783187420.1148,1,1,1.0000,0.0000,1.44680,0.20868,-2.78361,1.00410,1.57079,0.00002,-0.14512,-0.38002,0.04020,,,,,,,,,,,,,,,,,,,,,,,,,,0,0,0,0,0
4.0893,1783187420.1203,1,1,1.0000,0.0000,1.44680,0.20864,-2.78362,1.00414,1.57079,0.00002,-0.14512,-0.38002,0.04020,,,,,,,,,,,,,,,,,,,,,,,,,,0,0,0,0,0
4.0989,1783187420.1299,1,1,1.0000,0.0000,1.44680,0.20856,-2.78364,1.00424,1.57079,0.00002,-0.14512,-0.38002,0.04017,,,,,,,,,,,,,,,,,,,,,,,,,,0,0,0,0,0
4.1117,1783187420.1428,1,1,1.0000,0.0000,1.44680,0.20845,-2.78366,1.00438,1.57079,0.00002,-0.14512,-0.38002,0.04015,,,,,,,,,,,,,,,,,,,,,,,,,,0,0,0,0,0
4.1206,1783187420.1517,1,1,1.0000,0.0000,1.44680,0.20842,-2.78367,1.00442,1.57079,0.00002,-0.14512,-0.38002,0.04014,,,,,,,,,,,,,,,,,,,,,,,,,,0,0,0,0,0
4.1294,1783187420.1605,1,1,1.0000,0.0000,1.44680,0.20828,-2.78370,1.00459,1.57079,0.00002,-0.14512,-0.38002,0.04010,,,,,,,,,,,,,,,,,,,,,,,,,,0,0,0,0,0
4.1433,1783187420.1743,1,1,1.0000,0.0000,1.44680,0.20817,-2.78373,1.00472,1.57079,0.00002,-0.14512,-0.38002,0.04008,,,,,,,,,,,,,,,,,,,,,,,,,,0,0,0,0,0
4.1505,1783187420.1816,1,1,1.0000,0.0000,1.44680,0.20814,-2.78374,1.00476,1.57079,0.00002,-0.14512,-0.38002,0.04007,,,,,,,,,,,,,,,,,,,,,,,,,,0,0,0,0,0
4.1597,1783187420.1908,1,1,1.0000,0.0000,1.44680,0.20805,-2.78376,1.00487,1.57079,0.00002,-0.14512,-0.38002,0.04005,,,,,,,,,,,,,,,,,,,,,,,,,,0,0,0,0,0
4.1704,1783187420.2014,1,1,1.0000,0.0000,1.44680,0.20795,-2.78378,1.00500,1.57079,0.00002,-0.14512,-0.38002,0.04002,,,,,,,,,,,,,,,,,,,,,,,,,,0,0,0,0,0
4.1825,1783187420.2135,1,1,1.0000,0.0000,1.44680,0.20788,-2.78380,1.00509,1.57079,0.00002,-0.14512,-0.38002,0.04000,,,,,,,,,,,,,,,,,,,,,,,,,,0,0,0,0,0
4.1889,1783187420.2200,1,1,1.0000,0.0000,1.44680,0.20783,-2.78381,1.00515,1.57079,0.00002,-0.14512,-0.38002,0.03999,,,,,,,,,,,,,,,,,,,,,,,,,,0,0,0,0,0
4.1985,1783187420.2295,1,1,1.0000,0.0000,1.44680,0.20767,-2.78385,1.00534,1.57079,0.00002,-0.14512,-0.38002,0.03995,,,,,,,,,,,,,,,,,,,,,,,,,,0,0,0,0,0
4.2142,1783187420.2453,1,1,1.0000,0.0000,1.44680,0.20760,-2.78387,1.00543,1.57079,0.00002,-0.14512,-0.38002,0.03993,,,,,,,,,,,,,,,,,,,,,,,,,,0,0,0,0,0
4.2228,1783187420.2539,1,1,1.0000,0.0000,1.44680,0.20750,-2.78389,1.00556,1.57079,0.00002,-0.14512,-0.38002,0.03991,,,,,,,,,,,,,,,,,,,,,,,,,,0,0,0,0,0
4.2317,1783187420.2628,1,1,1.0000,0.0000,1.44680,0.20745,-2.78390,1.00562,1.57079,0.00002,-0.14512,-0.38002,0.03989,,,,,,,,,,,,,,,,,,,,,,,,,,0,0,0,0,0
4.2385,1783187420.2695,1,1,1.0000,0.0000,1.44680,0.20741,-2.78391,1.00567,1.57079,0.00002,-0.14512,-0.38002,0.03988,,,,,,,,,,,,,,,,,,,,,,,,,,0,0,0,0,0
4.2502,1783187420.2813,1,1,1.0000,0.0000,1.44680,0.20727,-2.78394,1.00583,1.57079,0.00002,-0.14512,-0.38002,0.03985,,,,,,,,,,,,,,,,,,,,,,,,,,0,0,0,0,0
4.2718,1783187420.3029,1,1,1.0000,0.0000,1.44680,0.20713,-2.78398,1.00601,1.57079,0.00002,-0.14512,-0.38002,0.03981,,,,,,,,,,,,,,,,,,,,,,,,,,0,0,0,0,0
4.2721,1783187420.3032,1,1,1.0000,0.0000,1.44680,0.20713,-2.78398,1.00601,1.57079,0.00002,-0.14512,-0.38002,0.03981,,,,,,,,,,,,,,,,,,,,,,,,,,0,0,0,0,0
4.2785,1783187420.3096,1,1,1.0000,0.0000,1.44680,0.20705,-2.78400,1.00611,1.57079,0.00002,-0.14512,-0.38002,0.03979,,,,,,,,,,,,,,,,,,,,,,,,,,0,0,0,0,0
4.2887,1783187420.3197,1,1,1.0000,0.0000,1.44680,0.20694,-2.78402,1.00625,1.57079,0.00002,-0.14512,-0.38002,0.03977,,,,,,,,,,,,,,,,,,,,,,,,,,0,0,0,0,0
4.2986,1783187420.3296,1,1,1.0000,0.0000,1.44680,0.20688,-2.78404,1.00632,1.57079,0.00002,-0.14512,-0.38002,0.03975,,,,,,,,,,,,,,,,,,,,,,,,,,0,0,0,0,0
4.3089,1783187420.3399,1,1,1.0000,0.0000,1.44680,0.20684,-2.78405,1.00638,1.57079,0.00002,-0.14512,-0.38002,0.03974,,,,,,,,,,,,,,,,,,,,,,,,,,0,0,0,0,0
4.3216,1783187420.3526,1,1,1.0000,0.0000,1.44680,0.20671,-2.78408,1.00653,1.57079,0.00002,-0.14512,-0.38002,0.03971,,,,,,,,,,,,,,,,,,,,,,,,,,0,0,0,0,0
4.3339,1783187420.3650,1,1,1.0000,0.0000,1.44680,0.20664,-2.78410,1.00662,1.57079,0.00002,-0.14512,-0.38002,0.03969,,,,,,,,,,,,,,,,,,,,,,,,,,0,0,0,0,0
4.3392,1783187420.3703,1,1,1.0000,0.0000,1.44680,0.20659,-2.78411,1.00668,1.57079,0.00002,-0.14512,-0.38002,0.03968,,,,,,,,,,,,,,,,,,,,,,,,,,0,0,0,0,0
4.3395,1783187420.3706,1,1,1.0000,0.0000,1.44680,0.20659,-2.78411,1.00668,1.57079,0.00002,-0.14512,-0.38002,0.03968,,,,,,,,,,,,,,,,,,,,,,,,,,0,0,0,0,0
4.3615,1783187420.3926,1,1,1.0000,0.0000,1.44680,0.20641,-2.78415,1.00691,1.57079,0.00002,-0.14512,-0.38002,0.03963,,,,,,,,,,,,,,,,,,,,,,,,,,0,0,0,0,0
4.3649,1783187420.3960,1,1,1.0000,0.0000,1.44680,0.20641,-2.78415,1.00691,1.57079,0.00002,-0.14512,-0.38002,0.03963,,,,,,,,,,,,,,,,,,,,,,,,,,0,0,0,0,0
4.3825,1783187420.4136,1,1,1.0000,0.0000,1.44680,0.20620,-2.78420,1.00716,1.57079,0.00002,-0.14512,-0.38002,0.03958,,,,,,,,,,,,,,,,,,,,,,,,,,0,0,0,0,0
4.3829,1783187420.4140,1,1,1.0000,0.0000,1.44680,0.20620,-2.78420,1.00716,1.57079,0.00002,-0.14512,-0.38002,0.03958,,,,,,,,,,,,,,,,,,,,,,,,,,0,0,0,0,0
4.3854,1783187420.4165,1,1,1.0000,0.0000,1.44680,0.20619,-2.78420,1.00717,1.57079,0.00002,-0.14512,-0.38002,0.03958,,,,,,,,,,,,,,,,,,,,,,,,,,0,0,0,0,0
4.3859,1783187420.4169,1,1,1.0000,0.0000,1.44680,0.20619,-2.78420,1.00717,1.57079,0.00002,-0.14512,-0.38002,0.03958,,,,,,,,,,,,,,,,,,,,,,,,,,0,0,0,0,0
4.3885,1783187420.4195,1,1,1.0000,0.0000,1.44680,0.20619,-2.78420,1.00717,1.57079,0.00002,-0.14512,-0.38002,0.03958,,,,,,,,,,,,,,,,,,,,,,,,,,0,0,0,0,0
4.3893,1783187420.4203,1,1,1.0000,0.0000,1.44680,0.20617,-2.78421,1.00720,1.57079,0.00002,-0.14512,-0.38002,0.03957,,,,,,,,,,,,,,,,,,,,,,,,,,0,0,0,0,0
4.3998,1783187420.4309,1,1,1.0000,0.0000,1.44680,0.20608,-2.78423,1.00731,1.57079,0.00002,-0.14512,-0.38002,0.03955,,,,,,,,,,,,,,,,,,,,,,,,,,0,0,0,0,0
4.4003,1783187420.4313,1,1,1.0000,0.0000,1.44680,0.20608,-2.78423,1.00731,1.57079,0.00002,-0.14512,-0.38002,0.03955,,,,,,,,,,,,,,,,,,,,,,,,,,0,0,0,0,0
4.4106,1783187420.4417,1,1,1.0000,0.0000,1.44680,0.20592,-2.78427,1.00751,1.57079,0.00002,-0.14512,-0.38002,0.03951,,,,,,,,,,,,,,,,,,,,,,,,,,0,0,0,0,0
4.4110,1783187420.4421,1,1,1.0000,0.0000,1.44680,0.20592,-2.78427,1.00751,1.57079,0.00002,-0.14512,-0.38002,0.03951,,,,,,,,,,,,,,,,,,,,,,,,,,0,0,0,0,0
4.4201,1783187420.4512,1,1,1.0000,0.0000,1.44680,0.20592,-2.78427,1.00752,1.57079,0.00002,-0.14512,-0.38002,0.03951,,,,,,,,,,,,,,,,,,,,,,,,,,0,0,0,0,0
4.4308,1783187420.4618,1,1,1.0000,0.0000,1.44680,0.20583,-2.78429,1.00762,1.57079,0.00002,-0.14512,-0.38002,0.03949,,,,,,,,,,,,,,,,,,,,,,,,,,0,0,0,0,0
4.4385,1783187420.4696,1,1,1.0000,0.0000,1.44680,0.20575,-2.78431,1.00773,1.57079,0.00002,-0.14512,-0.38002,0.03947,,,,,,,,,,,,,,,,,,,,,,,,,,0,0,0,0,0
4.4388,1783187420.4699,1,1,1.0000,0.0000,1.44680,0.20575,-2.78431,1.00773,1.57079,0.00002,-0.14512,-0.38002,0.03947,,,,,,,,,,,,,,,,,,,,,,,,,,0,0,0,0,0
4.4494,1783187420.4804,1,1,1.0000,0.0000,1.44680,0.20571,-2.78432,1.00777,1.57079,0.00002,-0.14512,-0.38002,0.03946,,,,,,,,,,,,,,,,,,,,,,,,,,0,0,0,0,0
4.4497,1783187420.4808,1,1,1.0000,0.0000,1.44680,0.20571,-2.78432,1.00777,1.57079,0.00002,-0.14512,-0.38002,0.03946,,,,,,,,,,,,,,,,,,,,,,,,,,0,0,0,0,0
4.4633,1783187420.4944,1,1,1.0000,0.0000,1.44680,0.20557,-2.78435,1.00795,1.57079,0.00002,-0.14512,-0.38002,0.03942,,,,,,,,,,,,,,,,,,,,,,,,,,0,0,0,0,0
4.4829,1783187420.5139,1,1,1.0000,0.0000,1.44680,0.20543,-2.78438,1.00811,1.57079,0.00002,-0.14512,-0.38002,0.03939,,,,,,,,,,,,,,,,,,,,,,,,,,0,0,0,0,0
4.4835,1783187420.5145,1,1,1.0000,0.0000,1.44680,0.20543,-2.78438,1.00811,1.57079,0.00002,-0.14512,-0.38002,0.03939,,,,,,,,,,,,,,,,,,,,,,,,,,0,0,0,0,0
4.4901,1783187420.5211,1,1,1.0000,0.0000,1.44680,0.20537,-2.78440,1.00819,1.57079,0.00002,-0.14512,-0.38002,0.03937,,,,,,,,,,,,,,,,,,,,,,,,,,0,0,0,0,0
4.5105,1783187420.5416,1,1,1.0000,0.0000,1.44680,0.20525,-2.78443,1.00834,1.57079,0.00002,-0.14512,-0.38002,0.03934,,,,,,,,,,,,,,,,,,,,,,,,,,0,0,0,0,0
4.5108,1783187420.5418,1,1,1.0000,0.0000,1.44680,0.20525,-2.78443,1.00834,1.57079,0.00002,-0.14512,-0.38002,0.03934,,,,,,,,,,,,,,,,,,,,,,,,,,0,0,0,0,0
4.5111,1783187420.5421,1,1,1.0000,0.0000,1.44680,0.20525,-2.78443,1.00834,1.57079,0.00002,-0.14512,-0.38002,0.03934,,,,,,,,,,,,,,,,,,,,,,,,,,0,0,0,0,0
4.5604,1783187420.5915,1,1,1.0000,0.0000,1.44680,0.20482,-2.78453,1.00887,1.57079,0.00002,-0.14512,-0.38002,0.03923,,,,,,,,,,,,,,,,,,,,,,,,,,0,0,0,0,0
4.5607,1783187420.5918,1,1,1.0000,0.0000,1.44680,0.20482,-2.78453,1.00887,1.57079,0.00002,-0.14512,-0.38002,0.03923,,,,,,,,,,,,,,,,,,,,,,,,,,0,0,0,0,0
4.5856,1783187420.6166,1,1,1.0000,0.0000,1.44680,0.20459,-2.78459,1.00916,1.57079,0.00002,-0.14512,-0.38002,0.03917,,,,,,,,,,,,,,,,,,,,,,,,,,0,0,0,0,0
4.5861,1783187420.6172,1,1,1.0000,0.0000,1.44680,0.20459,-2.78459,1.00916,1.57079,0.00002,-0.14512,-0.38002,0.03917,,,,,,,,,,,,,,,,,,,,,,,,,,0,0,0,0,0
4.5865,1783187420.6175,1,1,1.0000,0.0000,1.44680,0.20459,-2.78459,1.00916,1.57079,0.00002,-0.14512,-0.38002,0.03917,,,,,,,,,,,,,,,,,,,,,,,,,,0,0,0,0,0
4.5954,1783187420.6265,1,1,1.0000,0.0000,1.44680,0.20453,-2.78460,1.00923,1.57079,0.00002,-0.14512,-0.38002,0.03916,,,,,,,,,,,,,,,,,,,,,,,,,,0,0,0,0,0
4.6048,1783187420.6359,1,1,1.0000,0.0000,1.44680,0.20451,-2.78460,1.00926,1.57079,0.00002,-0.14512,-0.38002,0.03915,,,,,,,,,,,,,,,,,,,,,,,,,,0,0,0,0,0
4.6245,1783187420.6556,1,1,1.0000,0.0000,1.44680,0.20436,-2.78464,1.00945,1.57079,0.00002,-0.14512,-0.38002,0.03912,,,,,,,,,,,,,,,,,,,,,,,,,,0,0,0,0,0
4.6248,1783187420.6558,1,1,1.0000,0.0000,1.44680,0.20436,-2.78464,1.00945,1.57079,0.00002,-0.14512,-0.38002,0.03912,,,,,,,,,,,,,,,,,,,,,,,,,,0,0,0,0,0
4.6257,1783187420.6567,1,1,1.0000,0.0000,1.44680,0.20435,-2.78464,1.00946,1.57079,0.00002,-0.14512,-0.38002,0.03911,,,,,,,,,,,,,,,,,,,,,,,,,,0,0,0,0,0
4.6259,1783187420.6570,1,1,1.0000,0.0000,1.44680,0.20435,-2.78464,1.00946,1.57079,0.00002,-0.14512,-0.38002,0.03911,,,,,,,,,,,,,,,,,,,,,,,,,,0,0,0,0,0
4.6322,1783187420.6633,1,1,1.0000,0.0000,1.44680,0.20432,-2.78465,1.00949,1.57079,0.00002,-0.14512,-0.38002,0.03911,,,,,,,,,,,,,,,,,,,,,,,,,,0,0,0,0,0
4.6325,1783187420.6636,1,1,1.0000,0.0000,1.44680,0.20432,-2.78465,1.00949,1.57079,0.00002,-0.14512,-0.38002,0.03911,,,,,,,,,,,,,,,,,,,,,,,,,,0,0,0,0,0
4.6418,1783187420.6728,1,1,1.0000,0.0000,1.44680,0.20418,-2.78468,1.00967,1.57079,0.00002,-0.14512,-0.38002,0.03907,,,,,,,,,,,,,,,,,,,,,,,,,,0,0,0,0,0
4.6545,1783187420.6855,1,1,1.0000,0.0000,1.44680,0.20407,-2.78471,1.00980,1.57079,0.00002,-0.14512,-0.38002,0.03904,,,,,,,,,,,,,,,,,,,,,,,,,,0,0,0,0,0
4.6684,1783187420.6995,1,1,1.0000,0.0000,1.44680,0.20402,-2.78472,1.00987,1.57079,0.00002,-0.14512,-0.38002,0.03903,,,,,,,,,,,,,,,,,,,,,,,,,,0,0,0,0,0
4.6816,1783187420.7127,1,1,1.0000,0.0000,1.44680,0.20389,-2.78475,1.01002,1.57079,0.00002,-0.14512,-0.38002,0.03900,,,,,,,,,,,,,,,,,,,,,,,,,,0,0,0,0,0
4.6824,1783187420.7134,1,1,1.0000,0.0000,1.44680,0.20389,-2.78475,1.01002,1.57079,0.00002,-0.14512,-0.38002,0.03900,,,,,,,,,,,,,,,,,,,,,,,,,,0,0,0,0,0
4.6828,1783187420.7138,1,1,1.0000,0.0000,1.44680,0.20389,-2.78475,1.01002,1.57079,0.00002,-0.14512,-0.38002,0.03900,,,,,,,,,,,,,,,,,,,,,,,,,,0,0,0,0,0
4.6914,1783187420.7224,1,1,1.0000,0.0000,1.44680,0.20386,-2.78476,1.01006,1.57079,0.00002,-0.14512,-0.38002,0.03899,,,,,,,,,,,,,,,,,,,,,,,,,,0,0,0,0,0
4.6918,1783187420.7228,1,1,1.0000,0.0000,1.44680,0.20386,-2.78476,1.01006,1.57079,0.00002,-0.14512,-0.38002,0.03899,,,,,,,,,,,,,,,,,,,,,,,,,,0,0,0,0,0
4.7032,1783187420.7342,1,1,1.0000,0.0000,1.44680,0.20372,-2.78479,1.01024,1.57079,0.00002,-0.14512,-0.38002,0.03896,,,,,,,,,,,,,,,,,,,,,,,,,,0,0,0,0,0
4.7117,1783187420.7428,1,1,1.0000,0.0000,1.44680,0.20361,-2.78482,1.01037,1.57079,0.00002,-0.14512,-0.38002,0.03893,,,,,,,,,,,,,,,,,,,,,,,,,,0,0,0,0,0
4.7235,1783187420.7545,1,1,1.0000,0.0000,1.44680,0.20358,-2.78482,1.01041,1.57079,0.00002,-0.14512,-0.38002,0.03892,,,,,,,,,,,,,,,,,,,,,,,,,,0,0,0,0,0
4.7348,1783187420.7659,1,1,1.0000,0.0000,1.44680,0.20348,-2.78485,1.01054,1.57079,0.00002,-0.14512,-0.38002,0.03890,,,,,,,,,,,,,,,,,,,,,,,,,,0,0,0,0,0
4.7434,1783187420.7744,1,1,1.0000,0.0000,1.44680,0.20343,-2.78486,1.01059,1.57079,0.00002,-0.14512,-0.38002,0.03888,,,,,,,,,,,,,,,,,,,,,,,,,,0,0,0,0,0
4.7438,1783187420.7748,1,1,1.0000,0.0000,1.44680,0.20343,-2.78486,1.01059,1.57079,0.00002,-0.14512,-0.38002,0.03888,,,,,,,,,,,,,,,,,,,,,,,,,,0,0,0,0,0
4.7580,1783187420.7890,1,1,1.0000,0.0000,1.44680,0.20331,-2.78489,1.01075,1.57079,0.00002,-0.14512,-0.38002,0.03885,,,,,,,,,,,,,,,,,,,,,,,,,,0,0,0,0,0
4.7583,1783187420.7894,1,1,1.0000,0.0000,1.44680,0.20331,-2.78489,1.01075,1.57079,0.00002,-0.14512,-0.38002,0.03885,,,,,,,,,,,,,,,,,,,,,,,,,,0,0,0,0,0
4.7651,1783187420.7961,1,1,1.0000,0.0000,1.44680,0.20325,-2.78490,1.01081,1.57079,0.00002,-0.14512,-0.38002,0.03884,,,,,,,,,,,,,,,,,,,,,,,,,,0,0,0,0,0
4.7727,1783187420.8038,1,1,1.0000,0.0000,1.44680,0.20314,-2.78493,1.01095,1.57079,0.00002,-0.14512,-0.38002,0.03881,,,,,,,,,,,,,,,,,,,,,,,,,,0,0,0,0,0
4.7731,1783187420.8041,1,1,1.0000,0.0000,1.44680,0.20314,-2.78493,1.01095,1.57079,0.00002,-0.14512,-0.38002,0.03881,,,,,,,,,,,,,,,,,,,,,,,,,,0,0,0,0,0
4.7839,1783187420.8149,1,1,1.0000,0.0000,1.44680,0.20312,-2.78493,1.01098,1.57079,0.00002,-0.14512,-0.38002,0.03881,,,,,,,,,,,,,,,,,,,,,,,,,,0,0,0,0,0
4.7929,1783187420.8240,1,1,1.0000,0.0000,1.44680,0.20305,-2.78495,1.01106,1.57079,0.00002,-0.14512,-0.38002,0.03879,,,,,,,,,,,,,,,,,,,,,,,,,,0,0,0,0,0
4.8039,1783187420.8350,1,1,1.0000,0.0000,1.44680,0.20297,-2.78497,1.01117,1.57079,0.00002,-0.14512,-0.38002,0.03877,,,,,,,,,,,,,,,,,,,,,,,,,,0,0,0,0,0
4.8138,1783187420.8448,1,1,1.0000,0.0000,1.44680,0.20289,-2.78499,1.01126,1.57079,0.00002,-0.14512,-0.38002,0.03875,,,,,,,,,,,,,,,,,,,,,,,,,,0,0,0,0,0
4.8275,1783187420.8585,1,1,1.0000,0.0000,1.44680,0.20273,-2.78502,1.01146,1.57079,0.00002,-0.14512,-0.38002,0.03871,,,,,,,,,,,,,,,,,,,,,,,,,,0,0,0,0,0
4.8278,1783187420.8588,1,1,1.0000,0.0000,1.44680,0.20273,-2.78502,1.01146,1.57079,0.00002,-0.14512,-0.38002,0.03871,,,,,,,,,,,,,,,,,,,,,,,,,,0,0,0,0,0
4.8323,1783187420.8634,1,1,1.0000,0.0000,1.44680,0.20268,-2.78504,1.01152,1.57079,0.00002,-0.14512,-0.38002,0.03870,,,,,,,,,,,,,,,,,,,,,,,,,,0,0,0,0,0
4.8457,1783187420.8767,1,1,1.0000,0.0000,1.44680,0.20260,-2.78505,1.01161,1.57079,0.00002,-0.14512,-0.38002,0.03868,,,,,,,,,,,,,,,,,,,,,,,,,,0,0,0,0,0
4.8515,1783187420.8825,1,1,1.0000,0.0000,1.44680,0.20256,-2.78507,1.01167,1.57079,0.00002,-0.14512,-0.38002,0.03867,,,,,,,,,,,,,,,,,,,,,,,,,,0,0,0,0,0
4.8518,1783187420.8828,1,1,1.0000,0.0000,1.44680,0.20256,-2.78507,1.01167,1.57079,0.00002,-0.14512,-0.38002,0.03867,,,,,,,,,,,,,,,,,,,,,,,,,,0,0,0,0,0
4.8658,1783187420.8968,1,1,1.0000,0.0000,1.44680,0.20244,-2.78509,1.01181,1.57079,0.00002,-0.14512,-0.38002,0.03864,,,,,,,,,,,,,,,,,,,,,,,,,,0,0,0,0,0
4.8741,1783187420.9052,1,1,1.0000,0.0000,1.44680,0.20238,-2.78511,1.01189,1.57079,0.00002,-0.14512,-0.38002,0.03862,,,,,,,,,,,,,,,,,,,,,,,,,,0,0,0,0,0
4.8889,1783187420.9200,1,1,1.0000,0.0000,1.44680,0.20222,-2.78514,1.01208,1.57079,0.00002,-0.14512,-0.38002,0.03858,,,,,,,,,,,,,,,,,,,,,,,,,,0,0,0,0,0
4.8952,1783187420.9263,1,1,1.0000,0.0000,1.44680,0.20217,-2.78516,1.01215,1.57079,0.00002,-0.14512,-0.38002,0.03857,,,,,,,,,,,,,,,,,,,,,,,,,,0,0,0,0,0
4.8958,1783187420.9268,1,1,1.0000,0.0000,1.44680,0.20217,-2.78516,1.01215,1.57079,0.00002,-0.14512,-0.38002,0.03857,,,,,,,,,,,,,,,,,,,,,,,,,,0,0,0,0,0
4.9044,1783187420.9355,1,1,1.0000,0.0000,1.44680,0.20214,-2.78516,1.01219,1.57079,0.00002,-0.14512,-0.38002,0.03856,,,,,,,,,,,,,,,,,,,,,,,,,,0,0,0,0,0
4.9118,1783187420.9428,1,1,1.0000,0.0000,1.44680,0.20205,-2.78518,1.01230,1.57079,0.00002,-0.14512,-0.38002,0.03854,,,,,,,,,,,,,,,,,,,,,,,,,,0,0,0,0,0
4.9224,1783187420.9534,1,1,1.0000,0.0000,1.44680,0.20194,-2.78521,1.01243,1.57079,0.00002,-0.14512,-0.38002,0.03851,,,,,,,,,,,,,,,,,,,,,,,,,,0,0,0,0,0
4.9229,1783187420.9539,1,1,1.0000,0.0000,1.44680,0.20194,-2.78521,1.01243,1.57079,0.00002,-0.14512,-0.38002,0.03851,,,,,,,,,,,,,,,,,,,,,,,,,,0,0,0,0,0
4.9347,1783187420.9657,1,1,1.0000,0.0000,1.44680,0.20187,-2.78523,1.01252,1.57079,0.00002,-0.14512,-0.38001,0.03849,,,,,,,,,,,,,,,,,,,,,,,,,,0,0,0,0,0
4.9350,1783187420.9661,1,1,1.0000,0.0000,1.44680,0.20187,-2.78523,1.01252,1.57079,0.00002,-0.14512,-0.38001,0.03849,,,,,,,,,,,,,,,,,,,,,,,,,,0,0,0,0,0
4.9419,1783187420.9730,1,1,1.0000,0.0000,1.44680,0.20177,-2.78525,1.01264,1.57079,0.00002,-0.14512,-0.38001,0.03847,,,,,,,,,,,,,,,,,,,,,,,,,,0,0,0,0,0
4.9556,1783187420.9867,1,1,1.0000,0.0000,1.44680,0.20166,-2.78528,1.01277,1.57079,0.00002,-0.14512,-0.38001,0.03844,,,,,,,,,,,,,,,,,,,,,,,,,,0,0,0,0,0
4.9561,1783187420.9872,1,1,1.0000,0.0000,1.44680,0.20166,-2.78528,1.01277,1.57079,0.00002,-0.14512,-0.38001,0.03844,,,,,,,,,,,,,,,,,,,,,,,,,,0,0,0,0,0
4.9630,1783187420.9940,1,1,1.0000,0.0000,1.44680,0.20163,-2.78528,1.01282,1.57079,0.00002,-0.14512,-0.38001,0.03843,,,,,,,,,,,,,,,,,,,,,,,,,,0,0,0,0,0
4.9632,1783187420.9943,1,1,1.0000,0.0000,1.44680,0.20163,-2.78528,1.01282,1.57079,0.00002,-0.14512,-0.38001,0.03843,,,,,,,,,,,,,,,,,,,,,,,,,,0,0,0,0,0
4.9755,1783187421.0065,1,1,1.0000,0.0000,1.44680,0.20149,-2.78532,1.01299,1.57079,0.00003,-0.14512,-0.38001,0.03840,,,,,,,,,,,,,,,,,,,,,,,,,,0,0,0,0,0
4.9857,1783187421.0167,1,1,1.0000,0.0000,1.44680,0.20143,-2.78533,1.01307,1.57079,0.00003,-0.14512,-0.38001,0.03838,,,,,,,,,,,,,,,,,,,,,,,,,,0,0,0,0,0
4.9922,1783187421.0233,1,1,1.0000,0.0000,1.44680,0.20140,-2.78534,1.01310,1.57079,0.00003,-0.14512,-0.38001,0.03838,,,,,,,,,,,,,,,,,,,,,,,,,,0,0,0,0,0
5.0023,1783187421.0334,1,1,1.0000,0.0000,1.44680,0.20126,-2.78537,1.01327,1.57079,0.00003,-0.14512,-0.38001,0.03834,,,,,,,,,,,,,,,,,,,,,,,,,,0,0,0,0,0
5.0028,1783187421.0338,1,1,1.0000,0.0000,1.44680,0.20126,-2.78537,1.01327,1.57079,0.00003,-0.14512,-0.38001,0.03834,,,,,,,,,,,,,,,,,,,,,,,,,,0,0,0,0,0
5.0141,1783187421.0452,1,1,1.0000,0.0000,1.44680,0.20116,-2.78539,1.01340,1.57079,0.00003,-0.14512,-0.38001,0.03832,,,,,,,,,,,,,,,,,,,,,,,,,,0,0,0,0,0
5.0222,1783187421.0533,1,1,1.0000,0.0000,1.44680,0.20112,-2.78540,1.01344,1.57079,0.00003,-0.14512,-0.38001,0.03831,,,,,,,,,,,,,,,,,,,,,,,,,,0,0,0,0,0
5.0227,1783187421.0537,1,1,1.0000,0.0000,1.44680,0.20112,-2.78540,1.01344,1.57079,0.00003,-0.14512,-0.38001,0.03831,,,,,,,,,,,,,,,,,,,,,,,,,,0,0,0,0,0
5.0324,1783187421.0635,1,1,1.0000,0.0000,1.44680,0.20104,-2.78542,1.01355,1.57079,0.00003,-0.14512,-0.38001,0.03829,,,,,,,,,,,,,,,,,,,,,,,,,,0,0,0,0,0
5.0419,1783187421.0730,1,1,1.0000,0.0000,1.44680,0.20088,-2.78546,1.01375,1.57079,0.00003,-0.14512,-0.38001,0.03825,,,,,,,,,,,,,,,,,,,,,,,,,,0,0,0,0,0
5.0514,1783187421.0825,1,1,1.0000,0.0000,1.44680,0.20087,-2.78546,1.01376,1.57079,0.00003,-0.14512,-0.38001,0.03824,,,,,,,,,,,,,,,,,,,,,,,,,,0,0,0,0,0
5.0640,1783187421.0951,1,1,1.0000,0.0000,1.44680,0.20079,-2.78548,1.01386,1.57079,0.00003,-0.14512,-0.38001,0.03822,,,,,,,,,,,,,,,,,,,,,,,,,,0,0,0,0,0
5.0731,1783187421.1042,1,1,1.0000,0.0000,1.44680,0.20070,-2.78550,1.01397,1.57079,0.00003,-0.14512,-0.38001,0.03820,,,,,,,,,,,,,,,,,,,,,,,,,,0,0,0,0,0
5.0938,1783187421.1249,1,1,1.0000,0.0000,1.44680,0.20052,-2.78554,1.01419,1.57079,0.00003,-0.14512,-0.38001,0.03816,,,,,,,,,,,,,,,,,,,,,,,,,,0,0,0,0,0
5.0941,1783187421.1252,1,1,1.0000,0.0000,1.44680,0.20052,-2.78554,1.01419,1.57079,0.00003,-0.14512,-0.38001,0.03816,,,,,,,,,,,,,,,,,,,,,,,,,,0,0,0,0,0
5.1021,1783187421.1332,1,1,1.0000,0.0000,1.44680,0.20041,-2.78557,1.01432,1.57079,0.00003,-0.14512,-0.38001,0.03813,,,,,,,,,,,,,,,,,,,,,,,,,,0,0,0,0,0
5.1167,1783187421.1477,1,1,1.0000,0.0000,1.44680,0.20038,-2.78558,1.01436,1.57079,0.00003,-0.14512,-0.38001,0.03812,,,,,,,,,,,,,,,,,,,,,,,,,,0,0,0,0,0
5.1215,1783187421.1526,1,1,1.0000,0.0000,1.44680,0.20036,-2.78558,1.01439,1.57079,0.00003,-0.14512,-0.38001,0.03812,,,,,,,,,,,,,,,,,,,,,,,,,,0,0,0,0,0
5.1361,1783187421.1671,1,1,1.0000,0.0000,1.44680,0.20023,-2.78561,1.01454,1.57079,0.00003,-0.14512,-0.38001,0.03808,,,,,,,,,,,,,,,,,,,,,,,,,,0,0,0,0,0
5.1457,1783187421.1768,1,1,1.0000,0.0000,1.44680,0.20015,-2.78563,1.01464,1.57079,0.00003,-0.14512,-0.38001,0.03807,,,,,,,,,,,,,,,,,,,,,,,,,,0,0,0,0,0
5.1555,1783187421.1865,1,1,1.0000,0.0000,1.44680,0.20005,-2.78565,1.01476,1.57079,0.00003,-0.14512,-0.38001,0.03804,,,,,,,,,,,,,,,,,,,,,,,,,,0,0,0,0,0
5.1658,1783187421.1969,1,1,1.0000,0.0000,1.44680,0.19994,-2.78568,1.01490,1.57079,0.00003,-0.14512,-0.38001,0.03801,,,,,,,,,,,,,,,,,,,,,,,,,,0,0,0,0,0
5.1744,1783187421.2055,1,1,1.0000,0.0000,1.44680,0.19992,-2.78569,1.01493,1.57079,0.00003,-0.14512,-0.38001,0.03801,,,,,,,,,,,,,,,,,,,,,,,,,,0,0,0,0,0
5.1926,1783187421.2236,1,1,1.0000,0.0000,1.44680,0.19976,-2.78572,1.01512,1.57079,0.00003,-0.14512,-0.38001,0.03797,,,,,,,,,,,,,,,,,,,,,,,,,,0,0,0,0,0
5.1980,1783187421.2291,1,1,1.0000,0.0000,1.44680,0.19975,-2.78572,1.01513,1.57079,0.00003,-0.14512,-0.38001,0.03797,,,,,,,,,,,,,,,,,,,,,,,,,,0,0,0,0,0
5.2062,1783187421.2372,1,1,1.0000,0.0000,1.44680,0.19969,-2.78574,1.01521,1.57079,0.00003,-0.14512,-0.38001,0.03795,,,,,,,,,,,,,,,,,,,,,,,,,,0,0,0,0,0
5.2065,1783187421.2375,1,1,1.0000,0.0000,1.44680,0.19969,-2.78574,1.01521,1.57079,0.00003,-0.14512,-0.38001,0.03795,,,,,,,,,,,,,,,,,,,,,,,,,,0,0,0,0,0
5.2150,1783187421.2461,1,1,1.0000,0.0000,1.44680,0.19959,-2.78576,1.01534,1.57079,0.00003,-0.14512,-0.38001,0.03792,,,,,,,,,,,,,,,,,,,,,,,,,,0,0,0,0,0
5.2245,1783187421.2556,1,1,1.0000,0.0000,1.44680,0.19948,-2.78579,1.01548,1.57079,0.00003,-0.14512,-0.38001,0.03790,,,,,,,,,,,,,,,,,,,,,,,,,,0,0,0,0,0
5.2408,1783187421.2719,1,1,1.0000,0.0000,1.44680,0.19942,-2.78580,1.01554,1.57079,0.00003,-0.14512,-0.38001,0.03788,,,,,,,,,,,,,,,,,,,,,,,,,,0,0,0,0,0
5.2468,1783187421.2779,1,1,1.0000,0.0000,1.44680,0.19934,-2.78582,1.01564,1.57079,0.00003,-0.14512,-0.38001,0.03786,,,,,,,,,,,,,,,,,,,,,,,,,,0,0,0,0,0
5.2555,1783187421.2866,1,1,1.0000,0.0000,1.44680,0.19930,-2.78583,1.01570,1.57079,0.00003,-0.14512,-0.38001,0.03785,,,,,,,,,,,,,,,,,,,,,,,,,,0,0,0,0,0
5.2680,1783187421.2990,1,1,1.0000,0.0000,1.44680,0.19922,-2.78585,1.01579,1.57079,0.00003,-0.14512,-0.38001,0.03783,,,,,,,,,,,,,,,,,,,,,,,,,,0,0,0,0,0
5.2743,1783187421.3053,1,1,1.0000,0.0000,1.44680,0.19912,-2.78587,1.01592,1.57079,0.00003,-0.14512,-0.38001,0.03781,,,,,,,,,,,,,,,,,,,,,,,,,,0,0,0,0,0
5.2747,1783187421.3057,1,1,1.0000,0.0000,1.44680,0.19912,-2.78587,1.01592,1.57079,0.00003,-0.14512,-0.38001,0.03781,,,,,,,,,,,,,,,,,,,,,,,,,,0,0,0,0,0
5.2988,1783187421.3299,1,1,1.0000,0.0000,1.44680,0.19896,-2.78591,1.01612,1.57079,0.00003,-0.14512,-0.38001,0.03777,,,,,,,,,,,,,,,,,,,,,,,,,,0,0,0,0,0
5.2993,1783187421.3303,1,1,1.0000,0.0000,1.44680,0.19896,-2.78591,1.01612,1.57079,0.00003,-0.14512,-0.38001,0.03777,,,,,,,,,,,,,,,,,,,,,,,,,,0,0,0,0,0
5.3059,1783187421.3369,1,1,1.0000,0.0000,1.44680,0.19888,-2.78593,1.01621,1.57079,0.00003,-0.14512,-0.38001,0.03775,,,,,,,,,,,,,,,,,,,,,,,,,,0,0,0,0,0
5.3156,1783187421.3466,1,1,1.0000,0.0000,1.44680,0.19883,-2.78594,1.01627,1.57079,0.00003,-0.14512,-0.38001,0.03774,,,,,,,,,,,,,,,,,,,,,,,,,,0,0,0,0,0
5.3261,1783187421.3572,1,1,1.0000,0.0000,1.44680,0.19875,-2.78596,1.01636,1.57079,0.00003,-0.14512,-0.38001,0.03772,,,,,,,,,,,,,,,,,,,,,,,,,,0,0,0,0,0
5.3367,1783187421.3677,1,1,1.0000,0.0000,1.44680,0.19865,-2.78598,1.01649,1.57079,0.00003,-0.14512,-0.38001,0.03769,,,,,,,,,,,,,,,,,,,,,,,,,,0,0,0,0,0
5.3494,1783187421.3804,1,1,1.0000,0.0000,1.44680,0.19854,-2.78601,1.01663,1.57079,0.00003,-0.14512,-0.38001,0.03766,,,,,,,,,,,,,,,,,,,,,,,,,,0,0,0,0,0
5.3567,1783187421.3877,1,1,1.0000,0.0000,1.44680,0.19852,-2.78601,1.01666,1.57079,0.00003,-0.14512,-0.38001,0.03766,,,,,,,,,,,,,,,,,,,,,,,,,,0,0,0,0,0
5.3642,1783187421.3953,1,1,1.0000,0.0000,1.44680,0.19845,-2.78603,1.01674,1.57079,0.00003,-0.14512,-0.38001,0.03764,,,,,,,,,,,,,,,,,,,,,,,,,,0,0,0,0,0
5.3645,1783187421.3956,1,1,1.0000,0.0000,1.44680,0.19845,-2.78603,1.01674,1.57079,0.00003,-0.14512,-0.38001,0.03764,,,,,,,,,,,,,,,,,,,,,,,,,,0,0,0,0,0
5.3763,1783187421.4074,1,1,1.0000,0.0000,1.44680,0.19836,-2.78605,1.01685,1.57079,0.00003,-0.14512,-0.38001,0.03762,,,,,,,,,,,,,,,,,,,,,,,,,,0,0,0,0,0
5.3850,1783187421.4160,1,1,1.0000,0.0000,1.44680,0.19833,-2.78606,1.01689,1.57079,0.00003,-0.14512,-0.38001,0.03761,,,,,,,,,,,,,,,,,,,,,,,,,,0,0,0,0,0
5.4018,1783187421.4329,1,1,1.0000,0.0000,1.44680,0.19807,-2.78612,1.01720,1.57079,0.00003,-0.14512,-0.38001,0.03755,,,,,,,,,,,,,,,,,,,,,,,,,,0,0,0,0,0
5.4092,1783187421.4403,1,1,1.0000,0.0000,1.44680,0.19807,-2.78612,1.01720,1.57079,0.00003,-0.14512,-0.38001,0.03755,,,,,,,,,,,,,,,,,,,,,,,,,,0,0,0,0,0
5.4148,1783187421.4458,1,1,1.0000,0.0000,1.44680,0.19804,-2.78612,1.01725,1.57079,0.00003,-0.14512,-0.38001,0.03754,,,,,,,,,,,,,,,,,,,,,,,,,,0,0,0,0,0
5.4266,1783187421.4576,1,1,1.0000,0.0000,1.44680,0.19790,-2.78616,1.01742,1.57079,0.00003,-0.14512,-0.38001,0.03750,,,,,,,,,,,,,,,,,,,,,,,,,,0,0,0,0,0
5.4349,1783187421.4659,1,1,1.0000,0.0000,1.44680,0.19785,-2.78617,1.01749,1.57079,0.00003,-0.14512,-0.38001,0.03749,,,,,,,,,,,,,,,,,,,,,,,,,,0,0,0,0,0
5.4517,1783187421.4828,1,1,1.0000,0.0000,1.44680,0.19773,-2.78620,1.01763,1.57079,0.00003,-0.14512,-0.38001,0.03746,,,,,,,,,,,,,,,,,,,,,,,,,,0,0,0,0,0
5.4602,1783187421.4913,1,1,1.0000,0.0000,1.44680,0.19762,-2.78622,1.01777,1.57079,0.00003,-0.14512,-0.38001,0.03743,,,,,,,,,,,,,,,,,,,,,,,,,,0,0,0,0,0
