Martins-Lucaas/twinforge/sensors/Data/20260706_172819__samples.csv
t_rel_s,t_unix,cycle,phase,setpoint_n,force_net_n,q1,q2,q3,q4,q5,q6,tcp_x,tcp_y,tcp_z,taxel_0,taxel_1,taxel_2,taxel_3,taxel_4,taxel_5,taxel_6,taxel_7,taxel_8,taxel_9,taxel_10,taxel_11,taxel_12,taxel_13,taxel_14,taxel_15,taxel_16,taxel_17,taxel_18,taxel_19,taxel_20,taxel_21,taxel_22,taxel_23,taxel_24,n_RA,n_SA,cn_mm,cn_ra,cn_sa
0.0084,1783369699.4277,1,0,1.0000,0.0000,1.42056,0.14184,-2.66683,1.00243,1.56169,0.11674,-0.13246,-0.45916,0.07213,,,,,,,,,,,,,,,,,,,,,,,,,,0,0,0,0,0
0.0255,1783369699.4448,1,0,1.0000,0.0000,1.42048,0.14182,-2.66687,1.00224,1.56192,0.11692,-0.13239,-0.45909,0.07206,,,,,,,,,,,,,,,,,,,,,,,,,,0,0,0,0,0
0.0261,1783369699.4454,1,0,1.0000,0.0000,1.42048,0.14182,-2.66687,1.00224,1.56192,0.11692,-0.13239,-0.45909,0.07206,,,,,,,,,,,,,,,,,,,,,,,,,,0,0,0,0,0
0.0319,1783369699.4512,1,0,1.0000,0.0000,1.42056,0.14181,-2.66684,1.00244,1.56169,0.11674,-0.13246,-0.45915,0.07210,,,,,,,,,,,,,,,,,,,,,,,,,,0,0,0,0,0
0.0328,1783369699.4520,1,0,1.0000,0.0000,1.42056,0.14181,-2.66684,1.00244,1.56169,0.11674,-0.13246,-0.45915,0.07210,,,,,,,,,,,,,,,,,,,,,,,,,,0,0,0,0,0
0.0336,1783369699.4528,1,0,1.0000,0.0000,1.42047,0.14181,-2.66687,1.00224,1.56192,0.11692,-0.13239,-0.45908,0.07205,,,,,,,,,,,,,,,,,,,,,,,,,,0,0,0,0,0
0.0436,1783369699.4629,1,0,1.0000,0.0000,1.42047,0.14181,-2.66688,1.00223,1.56193,0.11692,-0.13238,-0.45907,0.07204,,,,,,,,,,,,,,,,,,,,,,,,,,0,0,0,0,0
0.0484,1783369699.4677,1,0,1.0000,0.0000,1.42056,0.14181,-2.66685,1.00244,1.56169,0.11673,-0.13246,-0.45914,0.07210,,,,,,,,,,,,,,,,,,,,,,,,,,0,0,0,0,0
0.0593,1783369699.4786,1,0,1.0000,0.0000,1.42048,0.14183,-2.66689,1.00224,1.56193,0.11691,-0.13238,-0.45907,0.07205,,,,,,,,,,,,,,,,,,,,,,,,,,0,0,0,0,0
0.0880,1783369699.5072,1,0,1.0000,0.0000,1.42056,0.14185,-2.66686,1.00244,1.56170,0.11672,-0.13246,-0.45914,0.07211,,,,,,,,,,,,,,,,,,,,,,,,,,0,0,0,0,0
0.0887,1783369699.5080,1,0,1.0000,0.0000,1.42056,0.14185,-2.66686,1.00244,1.56170,0.11672,-0.13246,-0.45914,0.07211,,,,,,,,,,,,,,,,,,,,,,,,,,0,0,0,0,0
0.0941,1783369699.5134,1,0,1.0000,0.0000,1.42056,0.14185,-2.66686,1.00244,1.56171,0.11672,-0.13246,-0.45914,0.07211,,,,,,,,,,,,,,,,,,,,,,,,,,0,0,0,0,0
0.0992,1783369699.5185,1,0,1.0000,0.0000,1.42047,0.14185,-2.66689,1.00224,1.56193,0.11691,-0.13238,-0.45907,0.07206,,,,,,,,,,,,,,,,,,,,,,,,,,0,0,0,0,0
0.1100,1783369699.5293,1,0,1.0000,0.0000,1.42056,0.14185,-2.66686,1.00244,1.56170,0.11672,-0.13246,-0.45914,0.07211,,,,,,,,,,,,,,,,,,,,,,,,,,0,0,0,0,0
0.1108,1783369699.5300,1,0,1.0000,0.0000,1.42056,0.14185,-2.66686,1.00244,1.56170,0.11672,-0.13246,-0.45914,0.07211,,,,,,,,,,,,,,,,,,,,,,,,,,0,0,0,0,0
0.1122,1783369699.5315,1,0,1.0000,0.0000,1.42056,0.14185,-2.66686,1.00244,1.56170,0.11672,-0.13246,-0.45914,0.07211,,,,,,,,,,,,,,,,,,,,,,,,,,0,0,0,0,0
0.1211,1783369699.5403,1,0,1.0000,0.0000,1.42056,0.14184,-2.66686,1.00245,1.56169,0.11672,-0.13246,-0.45914,0.07211,,,,,,,,,,,,,,,,,,,,,,,,,,0,0,0,0,0
0.1354,1783369699.5547,1,0,1.0000,0.0000,1.42056,0.14185,-2.66686,1.00243,1.56171,0.11673,-0.13246,-0.45914,0.07211,,,,,,,,,,,,,,,,,,,,,,,,,,0,0,0,0,0
0.1364,1783369699.5556,1,0,1.0000,0.0000,1.42056,0.14185,-2.66686,1.00243,1.56171,0.11673,-0.13246,-0.45914,0.07211,,,,,,,,,,,,,,,,,,,,,,,,,,0,0,0,0,0
0.1511,1783369699.5703,1,0,1.0000,0.0000,1.42056,0.14185,-2.66686,1.00243,1.56171,0.11673,-0.13246,-0.45914,0.07211,,,,,,,,,,,,,,,,,,,,,,,,,,0,0,0,0,0
0.1626,1783369699.5818,1,0,1.0000,0.0000,1.42047,0.14185,-2.66689,1.00223,1.56194,0.11691,-0.13238,-0.45907,0.07206,,,,,,,,,,,,,,,,,,,,,,,,,,0,0,0,0,0
0.1704,1783369699.5897,1,0,1.0000,0.0000,1.42047,0.14185,-2.66689,1.00223,1.56193,0.11691,-0.13238,-0.45907,0.07206,,,,,,,,,,,,,,,,,,,,,,,,,,0,0,0,0,0
0.1792,1783369699.5984,1,0,1.0000,0.0000,1.42047,0.14185,-2.66689,1.00223,1.56194,0.11691,-0.13238,-0.45907,0.07206,,,,,,,,,,,,,,,,,,,,,,,,,,0,0,0,0,0
0.1871,1783369699.6064,1,0,1.0000,0.0000,1.42047,0.14185,-2.66689,1.00223,1.56193,0.11691,-0.13238,-0.45907,0.07206,,,,,,,,,,,,,,,,,,,,,,,,,,0,0,0,0,0
0.1983,1783369699.6176,1,0,1.0000,0.0000,1.42056,0.14185,-2.66686,1.00244,1.56170,0.11672,-0.13246,-0.45914,0.07211,,,,,,,,,,,,,,,,,,,,,,,,,,0,0,0,0,0
0.2110,1783369699.6303,1,0,1.0000,0.0000,1.42047,0.14185,-2.66689,1.00223,1.56194,0.11691,-0.13238,-0.45907,0.07206,,,,,,,,,,,,,,,,,,,,,,,,,,0,0,0,0,0
0.2220,1783369699.6413,1,0,1.0000,0.0000,1.42056,0.14185,-2.66686,1.00243,1.56171,0.11673,-0.13246,-0.45913,0.07211,,,,,,,,,,,,,,,,,,,,,,,,,,0,0,0,0,0
0.2280,1783369699.6472,1,0,1.0000,0.0000,1.42048,0.14185,-2.66689,1.00224,1.56193,0.11690,-0.13238,-0.45907,0.07206,,,,,,,,,,,,,,,,,,,,,,,,,,0,0,0,0,0
0.2395,1783369699.6588,1,0,1.0000,0.0000,1.42056,0.14185,-2.66686,1.00244,1.56170,0.11672,-0.13246,-0.45914,0.07211,,,,,,,,,,,,,,,,,,,,,,,,,,0,0,0,0,0
0.2412,1783369699.6605,1,0,1.0000,0.0000,1.42056,0.14185,-2.66686,1.00244,1.56170,0.11672,-0.13246,-0.45914,0.07211,,,,,,,,,,,,,,,,,,,,,,,,,,0,0,0,0,0
0.2484,1783369699.6677,1,0,1.0000,0.0000,1.42056,0.14185,-2.66686,1.00243,1.56171,0.11673,-0.13246,-0.45914,0.07211,,,,,,,,,,,,,,,,,,,,,,,,,,0,0,0,0,0
0.2591,1783369699.6784,1,0,1.0000,0.0000,1.42048,0.14185,-2.66689,1.00224,1.56193,0.11691,-0.13238,-0.45907,0.07206,,,,,,,,,,,,,,,,,,,,,,,,,,0,0,0,0,0
0.2715,1783369699.6908,1,0,1.0000,0.0000,1.42056,0.14185,-2.66686,1.00244,1.56170,0.11672,-0.13246,-0.45914,0.07211,,,,,,,,,,,,,,,,,,,,,,,,,,0,0,0,0,0
0.2794,1783369699.6987,1,0,1.0000,0.0000,1.42056,0.14185,-2.66686,1.00244,1.56171,0.11672,-0.13246,-0.45914,0.07211,,,,,,,,,,,,,,,,,,,,,,,,,,0,0,0,0,0
0.2874,1783369699.7066,1,0,1.0000,0.0000,1.42056,0.14185,-2.66686,1.00244,1.56170,0.11672,-0.13246,-0.45914,0.07211,,,,,,,,,,,,,,,,,,,,,,,,,,0,0,0,0,0
0.2979,1783369699.7172,1,0,1.0000,0.0000,1.42047,0.14185,-2.66689,1.00224,1.56193,0.11691,-0.13238,-0.45907,0.07206,,,,,,,,,,,,,,,,,,,,,,,,,,0,0,0,0,0
0.3085,1783369699.7278,1,0,1.0000,0.0000,1.42047,0.14185,-2.66689,1.00223,1.56193,0.11691,-0.13238,-0.45907,0.07206,,,,,,,,,,,,,,,,,,,,,,,,,,0,0,0,0,0
0.3190,1783369699.7383,1,0,1.0000,0.0000,1.42056,0.14185,-2.66686,1.00244,1.56170,0.11672,-0.13246,-0.45914,0.07211,,,,,,,,,,,,,,,,,,,,,,,,,,0,0,0,0,0
0.3298,1783369699.7491,1,0,1.0000,0.0000,1.42047,0.14185,-2.66689,1.00223,1.56194,0.11691,-0.13238,-0.45907,0.07206,,,,,,,,,,,,,,,,,,,,,,,,,,0,0,0,0,0
0.3381,1783369699.7574,1,0,1.0000,0.0000,1.42047,0.14185,-2.66689,1.00223,1.56193,0.11691,-0.13238,-0.45907,0.07206,,,,,,,,,,,,,,,,,,,,,,,,,,0,0,0,0,0
0.3387,1783369699.7579,1,0,1.0000,0.0000,1.42047,0.14185,-2.66689,1.00223,1.56193,0.11691,-0.13238,-0.45907,0.07206,,,,,,,,,,,,,,,,,,,,,,,,,,0,0,0,0,0
0.3554,1783369699.7747,1,0,1.0000,0.0000,1.42047,0.14185,-2.66689,1.00224,1.56193,0.11691,-0.13238,-0.45907,0.07206,,,,,,,,,,,,,,,,,,,,,,,,,,0,0,0,0,0
0.3617,1783369699.7810,1,0,1.0000,0.0000,1.42047,0.14185,-2.66689,1.00224,1.56193,0.11691,-0.13238,-0.45907,0.07206,,,,,,,,,,,,,,,,,,,,,,,,,,0,0,0,0,0
0.3747,1783369699.7940,1,0,1.0000,0.0000,1.42056,0.14184,-2.66686,1.00245,1.56169,0.11672,-0.13246,-0.45914,0.07211,,,,,,,,,,,,,,,,,,,,,,,,,,0,0,0,0,0
0.3830,1783369699.8023,1,0,1.0000,0.0000,1.42056,0.14185,-2.66686,1.00244,1.56170,0.11672,-0.13246,-0.45914,0.07211,,,,,,,,,,,,,,,,,,,,,,,,,,0,0,0,0,0
0.3877,1783369699.8069,1,0,1.0000,0.0000,1.42047,0.14185,-2.66689,1.00223,1.56194,0.11691,-0.13238,-0.45907,0.07206,,,,,,,,,,,,,,,,,,,,,,,,,,0,0,0,0,0
0.3997,1783369699.8190,1,0,1.0000,0.0000,1.42056,0.14185,-2.66686,1.00243,1.56171,0.11673,-0.13246,-0.45914,0.07211,,,,,,,,,,,,,,,,,,,,,,,,,,0,0,0,0,0
0.4073,1783369699.8265,1,0,1.0000,0.0000,1.42056,0.14185,-2.66686,1.00243,1.56171,0.11673,-0.13246,-0.45914,0.07211,,,,,,,,,,,,,,,,,,,,,,,,,,0,0,0,0,0
0.4170,1783369699.8363,1,0,1.0000,0.0000,1.42056,0.14185,-2.66686,1.00244,1.56170,0.11672,-0.13246,-0.45914,0.07211,,,,,,,,,,,,,,,,,,,,,,,,,,0,0,0,0,0
0.4182,1783369699.8375,1,0,1.0000,0.0000,1.42056,0.14185,-2.66686,1.00244,1.56170,0.11672,-0.13246,-0.45914,0.07211,,,,,,,,,,,,,,,,,,,,,,,,,,0,0,0,0,0
0.4315,1783369699.8507,1,0,1.0000,0.0000,1.42056,0.14185,-2.66686,1.00244,1.56170,0.11672,-0.13246,-0.45914,0.07211,,,,,,,,,,,,,,,,,,,,,,,,,,0,0,0,0,0
0.4441,1783369699.8634,1,0,1.0000,0.0000,1.42047,0.14185,-2.66689,1.00224,1.56193,0.11691,-0.13238,-0.45907,0.07206,,,,,,,,,,,,,,,,,,,,,,,,,,0,0,0,0,0
0.4540,1783369699.8732,1,0,1.0000,0.0000,1.42056,0.14185,-2.66686,1.00244,1.56170,0.11672,-0.13246,-0.45914,0.07211,,,,,,,,,,,,,,,,,,,,,,,,,,0,0,0,0,0
0.4676,1783369699.8869,1,0,1.0000,0.0000,1.42047,0.14185,-2.66689,1.00224,1.56193,0.11691,-0.13238,-0.45907,0.07206,,,,,,,,,,,,,,,,,,,,,,,,,,0,0,0,0,0
0.4758,1783369699.8951,1,0,1.0000,0.0000,1.42047,0.14185,-2.66689,1.00224,1.56193,0.11691,-0.13238,-0.45907,0.07206,,,,,,,,,,,,,,,,,,,,,,,,,,0,0,0,0,0
0.4772,1783369699.8965,1,0,1.0000,0.0000,1.42047,0.14185,-2.66689,1.00224,1.56193,0.11691,-0.13238,-0.45907,0.07206,,,,,,,,,,,,,,,,,,,,,,,,,,0,0,0,0,0
0.4824,1783369699.9017,1,0,1.0000,0.0000,1.42048,0.14185,-2.66689,1.00224,1.56193,0.11691,-0.13238,-0.45907,0.07206,,,,,,,,,,,,,,,,,,,,,,,,,,0,0,0,0,0
0.4831,1783369699.9023,1,0,1.0000,0.0000,1.42048,0.14185,-2.66689,1.00224,1.56193,0.11691,-0.13238,-0.45907,0.07206,,,,,,,,,,,,,,,,,,,,,,,,,,0,0,0,0,0
0.4917,1783369699.9109,1,0,1.0000,0.0000,1.42048,0.14185,-2.66689,1.00224,1.56193,0.11690,-0.13238,-0.45907,0.07206,,,,,,,,,,,,,,,,,,,,,,,,,,0,0,0,0,0
0.5023,1783369699.9215,1,0,1.0000,0.0000,1.42056,0.14185,-2.66686,1.00244,1.56170,0.11672,-0.13246,-0.45914,0.07211,,,,,,,,,,,,,,,,,,,,,,,,,,0,0,0,0,0
0.5121,1783369699.9314,1,0,1.0000,0.0000,1.42056,0.14185,-2.66686,1.00244,1.56170,0.11672,-0.13246,-0.45914,0.07211,,,,,,,,,,,,,,,,,,,,,,,,,,0,0,0,0,0
0.5221,1783369699.9413,1,0,1.0000,0.0000,1.42047,0.14185,-2.66689,1.00224,1.56193,0.11691,-0.13238,-0.45907,0.07206,,,,,,,,,,,,,,,,,,,,,,,,,,0,0,0,0,0
0.5331,1783369699.9524,1,0,1.0000,0.0000,1.42047,0.14185,-2.66689,1.00224,1.56193,0.11691,-0.13238,-0.45907,0.07206,,,,,,,,,,,,,,,,,,,,,,,,,,0,0,0,0,0
0.5421,1783369699.9613,1,0,1.0000,0.0000,1.42047,0.14185,-2.66689,1.00223,1.56193,0.11691,-0.13238,-0.45907,0.07206,,,,,,,,,,,,,,,,,,,,,,,,,,0,0,0,0,0
0.5539,1783369699.9731,1,0,1.0000,0.0000,1.42047,0.14185,-2.66689,1.00223,1.56193,0.11691,-0.13238,-0.45907,0.07206,,,,,,,,,,,,,,,,,,,,,,,,,,0,0,0,0,0
0.5723,1783369699.9916,1,0,1.0000,0.0000,1.42047,0.14185,-2.66689,1.00224,1.56193,0.11691,-0.13238,-0.45907,0.07206,,,,,,,,,,,,,,,,,,,,,,,,,,0,0,0,0,0
0.5766,1783369699.9959,1,0,1.0000,0.0000,1.42056,0.14185,-2.66686,1.00243,1.56171,0.11673,-0.13246,-0.45914,0.07211,,,,,,,,,,,,,,,,,,,,,,,,,,0,0,0,0,0
0.5825,1783369700.0018,1,0,1.0000,0.0000,1.42056,0.14184,-2.66686,1.00245,1.56169,0.11672,-0.13246,-0.45914,0.07211,,,,,,,,,,,,,,,,,,,,,,,,,,0,0,0,0,0
0.5931,1783369700.0124,1,0,1.0000,0.0000,1.42056,0.14185,-2.66686,1.00244,1.56171,0.11672,-0.13246,-0.45914,0.07211,,,,,,,,,,,,,,,,,,,,,,,,,,0,0,0,0,0
0.6040,1783369700.0233,1,0,1.0000,0.0000,1.42047,0.14185,-2.66689,1.00223,1.56193,0.11691,-0.13238,-0.45907,0.07206,,,,,,,,,,,,,,,,,,,,,,,,,,0,0,0,0,0
0.6150,1783369700.0342,1,0,1.0000,0.0000,1.42056,0.14185,-2.66686,1.00244,1.56170,0.11672,-0.13246,-0.45914,0.07211,,,,,,,,,,,,,,,,,,,,,,,,,,0,0,0,0,0
0.6211,1783369700.0404,1,0,1.0000,0.0000,1.42047,0.14185,-2.66689,1.00223,1.56193,0.11691,-0.13238,-0.45907,0.07206,,,,,,,,,,,,,,,,,,,,,,,,,,0,0,0,0,0
0.6230,1783369700.0422,1,0,1.0000,0.0000,1.42047,0.14185,-2.66689,1.00223,1.56193,0.11691,-0.13238,-0.45907,0.07206,,,,,,,,,,,,,,,,,,,,,,,,,,0,0,0,0,0
0.6342,1783369700.0535,1,0,1.0000,0.0000,1.42048,0.14185,-2.66689,1.00224,1.56193,0.11691,-0.13238,-0.45907,0.07206,,,,,,,,,,,,,,,,,,,,,,,,,,0,0,0,0,0
0.6434,1783369700.0626,1,0,1.0000,0.0000,1.42047,0.14185,-2.66689,1.00223,1.56194,0.11691,-0.13238,-0.45907,0.07206,,,,,,,,,,,,,,,,,,,,,,,,,,0,0,0,0,0
0.6791,1783369700.0983,1,0,1.0000,0.0000,1.42056,0.14185,-2.66686,1.00244,1.56169,0.11672,-0.13246,-0.45914,0.07211,,,,,,,,,,,,,,,,,,,,,,,,,,0,0,0,0,0
0.6793,1783369700.0986,1,0,1.0000,0.0000,1.42056,0.14185,-2.66686,1.00244,1.56169,0.11672,-0.13246,-0.45914,0.07211,,,,,,,,,,,,,,,,,,,,,,,,,,0,0,0,0,0
0.6799,1783369700.0992,1,0,1.0000,0.0000,1.42056,0.14185,-2.66686,1.00244,1.56169,0.11672,-0.13246,-0.45914,0.07211,,,,,,,,,,,,,,,,,,,,,,,,,,0,0,0,0,0
0.6985,1783369700.1177,1,0,1.0000,0.0000,1.42046,0.14185,-2.66690,1.00223,1.56194,0.11692,-0.13238,-0.45906,0.07205,,,,,,,,,,,,,,,,,,,,,,,,,,0,0,0,0,0
0.6989,1783369700.1181,1,0,1.0000,0.0000,1.42046,0.14185,-2.66690,1.00223,1.56194,0.11692,-0.13238,-0.45906,0.07205,,,,,,,,,,,,,,,,,,,,,,,,,,0,0,0,0,0
0.7027,1783369700.1219,1,0,1.0000,0.0000,1.42046,0.14185,-2.66690,1.00223,1.56194,0.11692,-0.13238,-0.45906,0.07205,,,,,,,,,,,,,,,,,,,,,,,,,,0,0,0,0,0
0.7122,1783369700.1315,1,0,1.0000,0.0000,1.42052,0.14186,-2.66691,1.00244,1.56170,0.11674,-0.13245,-0.45911,0.07209,,,,,,,,,,,,,,,,,,,,,,,,,,0,0,0,0,0
0.7235,1783369700.1427,1,0,1.0000,0.0000,1.42040,0.14187,-2.66697,1.00223,1.56194,0.11693,-0.13236,-0.45903,0.07203,,,,,,,,,,,,,,,,,,,,,,,,,,0,0,0,0,0
0.7377,1783369700.1570,1,0,1.0000,0.0000,1.42041,0.14189,-2.66699,1.00243,1.56170,0.11680,-0.13241,-0.45907,0.07206,,,,,,,,,,,,,,,,,,,,,,,,,,0,0,0,0,0
0.7424,1783369700.1617,1,0,1.0000,0.0000,1.42037,0.14190,-2.66701,1.00244,1.56169,0.11684,-0.13239,-0.45906,0.07206,,,,,,,,,,,,,,,,,,,,,,,,,,0,0,0,0,0
0.7591,1783369700.1784,1,0,1.0000,0.0000,1.41997,0.14201,-2.66712,1.00241,1.56170,0.11720,-0.13224,-0.45905,0.07205,,,,,,,,,,,,,,,,,,,,,,,,,,0,0,0,0,0
0.7628,1783369700.1820,1,0,1.0000,0.0000,1.41976,0.14205,-2.66717,1.00221,1.56192,0.11750,-0.13212,-0.45898,0.07199,,,,,,,,,,,,,,,,,,,,,,,,,,0,0,0,0,0
0.7717,1783369700.1909,1,0,1.0000,0.0000,1.41947,0.14213,-2.66723,1.00219,1.56193,0.11777,-0.13201,-0.45898,0.07199,,,,,,,,,,,,,,,,,,,,,,,,,,0,0,0,0,0
0.7926,1783369700.2118,1,0,1.0000,0.0000,1.41895,0.14229,-2.66732,1.00237,1.56168,0.11817,-0.13185,-0.45906,0.07205,,,,,,,,,,,,,,,,,,,,,,,,,,0,0,0,0,0
0.7932,1783369700.2124,1,0,1.0000,0.0000,1.41895,0.14229,-2.66732,1.00237,1.56168,0.11817,-0.13185,-0.45906,0.07205,,,,,,,,,,,,,,,,,,,,,,,,,,0,0,0,0,0
0.8036,1783369700.2229,1,0,1.0000,0.0000,1.41851,0.14239,-2.66742,1.00214,1.56191,0.11871,-0.13164,-0.45900,0.07200,,,,,,,,,,,,,,,,,,,,,,,,,,0,0,0,0,0
0.8109,1783369700.2301,1,0,1.0000,0.0000,1.41806,0.14252,-2.66750,1.00211,1.56189,0.11915,-0.13147,-0.45901,0.07201,,,,,,,,,,,,,,,,,,,,,,,,,,0,0,0,0,0
0.8220,1783369700.2413,1,0,1.0000,0.0000,1.41747,0.14268,-2.66761,1.00207,1.56188,0.11973,-0.13124,-0.45902,0.07201,,,,,,,,,,,,,,,,,,,,,,,,,,0,0,0,0,0
0.8367,1783369700.2560,1,0,1.0000,0.0000,1.41643,0.14296,-2.66780,1.00199,1.56184,0.12078,-0.13085,-0.45904,0.07202,,,,,,,,,,,,,,,,,,,,,,,,,,0,0,0,0,0
0.8474,1783369700.2667,1,0,1.0000,0.0000,1.41540,0.14327,-2.66798,1.00211,1.56156,0.12172,-0.13051,-0.45912,0.07209,,,,,,,,,,,,,,,,,,,,,,,,,,0,0,0,0,0
0.8512,1783369700.2704,1,0,1.0000,0.0000,1.41493,0.14337,-2.66808,1.00188,1.56178,0.12228,-0.13029,-0.45906,0.07204,,,,,,,,,,,,,,,,,,,,,,,,,,0,0,0,0,0
0.8515,1783369700.2708,1,0,1.0000,0.0000,1.41493,0.14337,-2.66808,1.00188,1.56178,0.12228,-0.13029,-0.45906,0.07204,,,,,,,,,,,,,,,,,,,,,,,,,,0,0,0,0,0
0.8629,1783369700.2822,1,0,1.0000,0.0000,1.41426,0.14358,-2.66819,1.00202,1.56152,0.12286,-0.13008,-0.45913,0.07210,,,,,,,,,,,,,,,,,,,,,,,,,,0,0,0,0,0
0.8730,1783369700.2923,1,0,1.0000,0.0000,1.41350,0.14378,-2.66833,1.00197,1.56148,0.12362,-0.12980,-0.45915,0.07210,,,,,,,,,,,,,,,,,,,,,,,,,,0,0,0,0,0
0.8848,1783369700.3040,1,0,1.0000,0.0000,1.41229,0.14409,-2.66857,1.00168,1.56166,0.12494,-0.12930,-0.45909,0.07205,,,,,,,,,,,,,,,,,,,,,,,,,,0,0,0,0,0
0.8925,1783369700.3117,1,0,1.0000,0.0000,1.41156,0.14429,-2.66871,1.00162,1.56163,0.12567,-0.12903,-0.45910,0.07206,,,,,,,,,,,,,,,,,,,,,,,,,,0,0,0,0,0
0.8931,1783369700.3124,1,0,1.0000,0.0000,1.41156,0.14429,-2.66871,1.00162,1.56163,0.12567,-0.12903,-0.45910,0.07206,,,,,,,,,,,,,,,,,,,,,,,,,,0,0,0,0,0
0.9012,1783369700.3204,1,0,1.0000,0.0000,1.41121,0.14439,-2.66877,1.00159,1.56162,0.12602,-0.12890,-0.45910,0.07206,,,,,,,,,,,,,,,,,,,,,,,,,,0,0,0,0,0
0.9116,1783369700.3309,1,0,1.0000,0.0000,1.41035,0.14464,-2.66893,1.00171,1.56135,0.12678,-0.12862,-0.45918,0.07212,,,,,,,,,,,,,,,,,,,,,,,,,,0,0,0,0,0
0.9226,1783369700.3418,1,0,1.0000,0.0000,1.40971,0.14479,-2.66906,1.00147,1.56155,0.12753,-0.12834,-0.45912,0.07206,,,,,,,,,,,,,,,,,,,,,,,,,,0,0,0,0,0
0.9235,1783369700.3428,1,0,1.0000,0.0000,1.40971,0.14479,-2.66906,1.00147,1.56155,0.12753,-0.12834,-0.45912,0.07206,,,,,,,,,,,,,,,,,,,,,,,,,,0,0,0,0,0
0.9312,1783369700.3505,1,0,1.0000,0.0000,1.40920,0.14493,-2.66916,1.00143,1.56153,0.12804,-0.12815,-0.45912,0.07206,,,,,,,,,,,,,,,,,,,,,,,,,,0,0,0,0,0
0.9319,1783369700.3512,1,0,1.0000,0.0000,1.40920,0.14493,-2.66916,1.00143,1.56153,0.12804,-0.12815,-0.45912,0.07206,,,,,,,,,,,,,,,,,,,,,,,,,,0,0,0,0,0
0.9429,1783369700.3622,1,0,1.0000,0.0000,1.40860,0.14512,-2.66926,1.00157,1.56126,0.12853,-0.12797,-0.45919,0.07212,,,,,,,,,,,,,,,,,,,,,,,,,,0,0,0,0,0
0.9520,1783369700.3712,1,0,1.0000,0.0000,1.40840,0.14517,-2.66930,1.00155,1.56125,0.12873,-0.12790,-0.45919,0.07212,,,,,,,,,,,,,,,,,,,,,,,,,,0,0,0,0,0
0.9612,1783369700.3804,1,0,1.0000,0.0000,1.40805,0.14526,-2.66937,1.00152,1.56123,0.12908,-0.12777,-0.45919,0.07212,,,,,,,,,,,,,,,,,,,,,,,,,,0,0,0,0,0
0.9717,1783369700.3909,1,0,1.0000,0.0000,1.40757,0.14537,-2.66947,1.00128,1.56144,0.12966,-0.12755,-0.45913,0.07206,,,,,,,,,,,,,,,,,,,,,,,,,,0,0,0,0,0
0.9720,1783369700.3913,1,0,1.0000,0.0000,1.40757,0.14537,-2.66947,1.00128,1.56144,0.12966,-0.12755,-0.45913,0.07206,,,,,,,,,,,,,,,,,,,,,,,,,,0,0,0,0,0
0.9810,1783369700.4003,1,0,1.0000,0.0000,1.40738,0.14542,-2.66951,1.00126,1.56143,0.12986,-0.12747,-0.45913,0.07206,,,,,,,,,,,,,,,,,,,,,,,,,,0,0,0,0,0
0.9951,1783369700.4143,1,0,1.0000,0.0000,1.40717,0.14547,-2.66954,1.00124,1.56142,0.13006,-0.12740,-0.45913,0.07207,,,,,,,,,,,,,,,,,,,,,,,,,,0,0,0,0,0
1.0026,1783369700.4218,1,0,1.0000,0.0000,1.40708,0.14550,-2.66955,1.00123,1.56141,0.13016,-0.12736,-0.45914,0.07207,,,,,,,,,,,,,,,,,,,,,,,,,,0,0,0,0,0
1.0111,1783369700.4303,1,0,1.0000,0.0000,1.40702,0.14552,-2.66955,1.00122,1.56140,0.13023,-0.12734,-0.45915,0.07208,,,,,,,,,,,,,,,,,,,,,,,,,,0,0,0,0,0
1.0117,1783369700.4310,1,0,1.0000,0.0000,1.40702,0.14552,-2.66955,1.00122,1.56140,0.13023,-0.12734,-0.45915,0.07208,,,,,,,,,,,,,,,,,,,,,,,,,,0,0,0,0,0
1.0211,1783369700.4404,1,0,1.0000,0.0000,1.40698,0.14553,-2.66954,1.00121,1.56140,0.13027,-0.12733,-0.45916,0.07209,,,,,,,,,,,,,,,,,,,,,,,,,,0,0,0,0,0
1.0327,1783369700.4520,1,0,1.0000,0.0000,1.40704,0.14554,-2.66948,1.00140,1.56117,0.13012,-0.12739,-0.45925,0.07216,,,,,,,,,,,,,,,,,,,,,,,,,,0,0,0,0,0
1.0438,1783369700.4630,1,1,1.0000,0.0000,1.40695,0.14553,-2.66947,1.00120,1.56139,0.13031,-0.12731,-0.45921,0.07212,,,,,,,,,,,,,,,,,,,,,,,,,,0,0,0,0,0
1.0553,1783369700.4746,1,1,1.0000,0.0000,1.40704,0.14554,-2.66944,1.00140,1.56116,0.13012,-0.12738,-0.45928,0.07218,,,,,,,,,,,,,,,,,,,,,,,,,,0,0,0,0,0
1.0701,1783369700.4894,1,1,1.0000,0.0000,1.40695,0.14553,-2.66947,1.00120,1.56139,0.13031,-0.12731,-0.45921,0.07212,,,,,,,,,,,,,,,,,,,,,,,,,,0,0,0,0,0
1.0787,1783369700.4980,1,1,1.0000,0.0000,1.40704,0.14554,-2.66944,1.00140,1.56116,0.13013,-0.12738,-0.45928,0.07218,,,,,,,,,,,,,,,,,,,,,,,,,,0,0,0,0,0
1.0841,1783369700.5034,1,1,1.0000,0.0000,1.40695,0.14553,-2.66947,1.00120,1.56139,0.13031,-0.12731,-0.45921,0.07212,,,,,,,,,,,,,,,,,,,,,,,,,,0,0,0,0,0
1.0992,1783369700.5185,1,1,1.0000,0.0000,1.40695,0.14553,-2.66947,1.00120,1.56139,0.13031,-0.12731,-0.45921,0.07212,,,,,,,,,,,,,,,,,,,,,,,,,,0,0,0,0,0
1.1042,1783369700.5234,1,1,1.0000,0.0000,1.40704,0.14553,-2.66944,1.00140,1.56116,0.13012,-0.12738,-0.45928,0.07218,,,,,,,,,,,,,,,,,,,,,,,,,,0,0,0,0,0
1.1151,1783369700.5343,1,1,1.0000,0.0000,1.40695,0.14553,-2.66947,1.00120,1.56139,0.13031,-0.12731,-0.45921,0.07212,,,,,,,,,,,,,,,,,,,,,,,,,,0,0,0,0,0
1.1241,1783369700.5434,1,1,1.0000,0.0000,1.40695,0.14553,-2.66947,1.00120,1.56139,0.13031,-0.12731,-0.45921,0.07212,,,,,,,,,,,,,,,,,,,,,,,,,,0,0,0,0,0
1.1369,1783369700.5561,1,1,1.0000,0.0000,1.40703,0.14554,-2.66944,1.00140,1.56117,0.13013,-0.12738,-0.45928,0.07218,,,,,,,,,,,,,,,,,,,,,,,,,,0,0,0,0,0
1.1477,1783369700.5669,1,1,1.0000,0.0000,1.40695,0.14554,-2.66947,1.00120,1.56139,0.13032,-0.12731,-0.45921,0.07212,,,,,,,,,,,,,,,,,,,,,,,,,,0,0,0,0,0
1.1548,1783369700.5741,1,1,1.0000,0.0000,1.40695,0.14554,-2.66947,1.00120,1.56139,0.13031,-0.12731,-0.45921,0.07212,,,,,,,,,,,,,,,,,,,,,,,,,,0,0,0,0,0
1.1562,1783369700.5755,1,1,1.0000,0.0000,1.40695,0.14554,-2.66947,1.00120,1.56139,0.13031,-0.12731,-0.45921,0.07212,,,,,,,,,,,,,,,,,,,,,,,,,,0,0,0,0,0
1.1764,1783369700.5957,1,1,1.0000,0.0000,1.40704,0.14554,-2.66944,1.00140,1.56116,0.13012,-0.12738,-0.45928,0.07218,,,,,,,,,,,,,,,,,,,,,,,,,,0,0,0,0,0
1.1775,1783369700.5968,1,1,1.0000,0.0000,1.40704,0.14554,-2.66944,1.00140,1.56116,0.13012,-0.12738,-0.45928,0.07218,,,,,,,,,,,,,,,,,,,,,,,,,,0,0,0,0,0
1.1882,1783369700.6074,1,1,1.0000,0.0000,1.40695,0.14554,-2.66947,1.00120,1.56139,0.13031,-0.12731,-0.45921,0.07212,,,,,,,,,,,,,,,,,,,,,,,,,,0,0,0,0,0
1.1952,1783369700.6145,1,1,1.0000,0.0000,1.40695,0.14553,-2.66947,1.00120,1.56139,0.13031,-0.12731,-0.45921,0.07212,,,,,,,,,,,,,,,,,,,,,,,,,,0,0,0,0,0
1.2075,1783369700.6268,1,1,1.0000,0.0000,1.40704,0.14553,-2.66944,1.00141,1.56115,0.13012,-0.12739,-0.45928,0.07218,,,,,,,,,,,,,,,,,,,,,,,,,,0,0,0,0,0
1.2152,1783369700.6344,1,1,1.0000,0.0000,1.40704,0.14554,-2.66944,1.00140,1.56116,0.13013,-0.12738,-0.45928,0.07218,,,,,,,,,,,,,,,,,,,,,,,,,,0,0,0,0,0
1.2243,1783369700.6436,1,1,1.0000,0.0000,1.40704,0.14553,-2.66944,1.00141,1.56115,0.13012,-0.12739,-0.45928,0.07218,,,,,,,,,,,,,,,,,,,,,,,,,,0,0,0,0,0
1.2248,1783369700.6441,1,1,1.0000,0.0000,1.40704,0.14553,-2.66944,1.00141,1.56115,0.13012,-0.12739,-0.45928,0.07218,,,,,,,,,,,,,,,,,,,,,,,,,,0,0,0,0,0
1.2394,1783369700.6586,1,1,1.0000,0.0000,1.40704,0.14553,-2.66944,1.00141,1.56115,0.13012,-0.12739,-0.45928,0.07218,,,,,,,,,,,,,,,,,,,,,,,,,,0,0,0,0,0
1.2479,1783369700.6672,1,1,1.0000,0.0000,1.40704,0.14553,-2.66944,1.00141,1.56115,0.13012,-0.12739,-0.45928,0.07218,,,,,,,,,,,,,,,,,,,,,,,,,,0,0,0,0,0
1.2586,1783369700.6778,1,1,1.0000,0.0000,1.40695,0.14554,-2.66947,1.00120,1.56139,0.13031,-0.12731,-0.45921,0.07212,,,,,,,,,,,,,,,,,,,,,,,,,,0,0,0,0,0
1.2697,1783369700.6889,1,1,1.0000,0.0000,1.40695,0.14554,-2.66947,1.00120,1.56140,0.13032,-0.12731,-0.45921,0.07212,,,,,,,,,,,,,,,,,,,,,,,,,,0,0,0,0,0
1.2831,1783369700.7024,1,1,1.0000,0.0000,1.40695,0.14554,-2.66947,1.00120,1.56139,0.13031,-0.12731,-0.45921,0.07212,,,,,,,,,,,,,,,,,,,,,,,,,,0,0,0,0,0
1.2878,1783369700.7071,1,1,1.0000,0.0000,1.40704,0.14554,-2.66944,1.00140,1.56116,0.13013,-0.12738,-0.45928,0.07218,,,,,,,,,,,,,,,,,,,,,,,,,,0,0,0,0,0
1.2977,1783369700.7169,1,1,1.0000,0.0000,1.40703,0.14554,-2.66944,1.00140,1.56117,0.13013,-0.12738,-0.45928,0.07218,,,,,,,,,,,,,,,,,,,,,,,,,,0,0,0,0,0
1.3120,1783369700.7313,1,1,1.0000,0.0000,1.40704,0.14553,-2.66944,1.00141,1.56115,0.13012,-0.12739,-0.45928,0.07218,,,,,,,,,,,,,,,,,,,,,,,,,,0,0,0,0,0
1.3172,1783369700.7365,1,1,1.0000,0.0000,1.40695,0.14553,-2.66947,1.00120,1.56139,0.13031,-0.12731,-0.45921,0.07212,,,,,,,,,,,,,,,,,,,,,,,,,,0,0,0,0,0
1.3288,1783369700.7481,1,1,1.0000,0.0000,1.40704,0.14554,-2.66944,1.00140,1.56116,0.13013,-0.12738,-0.45928,0.07218,,,,,,,,,,,,,,,,,,,,,,,,,,0,0,0,0,0
1.3293,1783369700.7486,1,1,1.0000,0.0000,1.40704,0.14554,-2.66944,1.00140,1.56116,0.13013,-0.12738,-0.45928,0.07218,,,,,,,,,,,,,,,,,,,,,,,,,,0,0,0,0,0
1.3395,1783369700.7588,1,1,1.0000,0.0000,1.40695,0.14554,-2.66947,1.00120,1.56140,0.13032,-0.12731,-0.45921,0.07212,,,,,,,,,,,,,,,,,,,,,,,,,,0,0,0,0,0
1.3401,1783369700.7593,1,1,1.0000,0.0000,1.40695,0.14554,-2.66947,1.00120,1.56140,0.13032,-0.12731,-0.45921,0.07212,,,,,,,,,,,,,,,,,,,,,,,,,,0,0,0,0,0
1.3522,1783369700.7715,1,1,1.0000,0.0000,1.40704,0.14554,-2.66944,1.00140,1.56116,0.13013,-0.12738,-0.45928,0.07218,,,,,,,,,,,,,,,,,,,,,,,,,,0,0,0,0,0
1.3615,1783369700.7808,1,1,1.0000,0.0000,1.40704,0.14554,-2.66944,1.00140,1.56116,0.13013,-0.12738,-0.45928,0.07218,,,,,,,,,,,,,,,,,,,,,,,,,,0,0,0,0,0
1.3757,1783369700.7950,1,1,1.0000,0.0000,1.40704,0.14554,-2.66944,1.00140,1.56116,0.13012,-0.12738,-0.45928,0.07218,,,,,,,,,,,,,,,,,,,,,,,,,,0,0,0,0,0
1.3916,1783369700.8108,1,1,1.0000,0.0000,1.40704,0.14554,-2.66944,1.00140,1.56116,0.13013,-0.12738,-0.45928,0.07218,,,,,,,,,,,,,,,,,,,,,,,,,,0,0,0,0,0
1.3975,1783369700.8167,1,1,1.0000,0.0000,1.40695,0.14554,-2.66947,1.00120,1.56139,0.13031,-0.12731,-0.45921,0.07212,,,,,,,,,,,,,,,,,,,,,,,,,,0,0,0,0,0
1.4041,1783369700.8233,1,1,1.0000,0.0000,1.40695,0.14553,-2.66947,1.00120,1.56139,0.13032,-0.12731,-0.45921,0.07212,,,,,,,,,,,,,,,,,,,,,,,,,,0,0,0,0,0
1.4046,1783369700.8238,1,1,1.0000,0.0000,1.40695,0.14553,-2.66947,1.00120,1.56139,0.13032,-0.12731,-0.45921,0.07212,,,,,,,,,,,,,,,,,,,,,,,,,,0,0,0,0,0
1.4117,1783369700.8310,1,1,1.0000,0.0000,1.40695,0.14554,-2.66947,1.00120,1.56139,0.13031,-0.12731,-0.45921,0.07212,,,,,,,,,,,,,,,,,,,,,,,,,,0,0,0,0,0
1.4124,1783369700.8316,1,1,1.0000,0.0000,1.40695,0.14554,-2.66947,1.00120,1.56139,0.13031,-0.12731,-0.45921,0.07212,,,,,,,,,,,,,,,,,,,,,,,,,,0,0,0,0,0
1.4252,1783369700.8444,1,1,1.0000,0.0000,1.40704,0.14553,-2.66944,1.00140,1.56116,0.13012,-0.12738,-0.45928,0.07218,,,,,,,,,,,,,,,,,,,,,,,,,,0,0,0,0,0
1.4330,1783369700.8522,1,1,1.0000,0.0000,1.40704,0.14554,-2.66944,1.00140,1.56116,0.13013,-0.12738,-0.45928,0.07218,,,,,,,,,,,,,,,,,,,,,,,,,,0,0,0,0,0
1.4408,1783369700.8600,1,1,1.0000,0.0000,1.40704,0.14554,-2.66944,1.00140,1.56116,0.13013,-0.12738,-0.45928,0.07218,,,,,,,,,,,,,,,,,,,,,,,,,,0,0,0,0,0
1.4536,1783369700.8729,1,1,1.0000,0.0000,1.40695,0.14554,-2.66947,1.00120,1.56139,0.13031,-0.12731,-0.45921,0.07212,,,,,,,,,,,,,,,,,,,,,,,,,,0,0,0,0,0
1.4648,1783369700.8841,1,1,1.0000,0.0000,1.40704,0.14553,-2.66942,1.00141,1.56115,0.13012,-0.12739,-0.45929,0.07219,,,,,,,,,,,,,,,,,,,,,,,,,,0,0,0,0,0
1.4651,1783369700.8843,1,1,1.0000,0.0000,1.40704,0.14553,-2.66942,1.00141,1.56115,0.13012,-0.12739,-0.45929,0.07219,,,,,,,,,,,,,,,,,,,,,,,,,,0,0,0,0,0
1.4778,1783369700.8971,1,1,1.0000,0.0000,1.40699,0.14553,-2.66942,1.00119,1.56138,0.13032,-0.12732,-0.45923,0.07214,,,,,,,,,,,,,,,,,,,,,,,,,,0,0,0,0,0
1.4841,1783369700.9033,1,1,1.0000,0.0000,1.40702,0.14552,-2.66942,1.00119,1.56137,0.13032,-0.12734,-0.45923,0.07214,,,,,,,,,,,,,,,,,,,,,,,,,,0,0,0,0,0
1.4939,1783369700.9131,1,1,1.0000,0.0000,1.40706,0.14551,-2.66941,1.00118,1.56136,0.13032,-0.12736,-0.45923,0.07214,,,,,,,,,,,,,,,,,,,,,,,,,,0,0,0,0,0
1.5086,1783369700.9279,1,1,1.0000,0.0000,1.40714,0.14549,-2.66941,1.00118,1.56136,0.13030,-0.12740,-0.45922,0.07213,,,,,,,,,,,,,,,,,,,,,,,,,,0,0,0,0,0
1.5147,1783369700.9340,1,1,1.0000,0.0000,1.40726,0.14548,-2.66938,1.00138,1.56112,0.13009,-0.12749,-0.45928,0.07218,,,,,,,,,,,,,,,,,,,,,,,,,,0,0,0,0,0
1.5265,1783369700.9457,1,1,1.0000,0.0000,1.40726,0.14546,-2.66940,1.00117,1.56136,0.13021,-0.12745,-0.45921,0.07212,,,,,,,,,,,,,,,,,,,,,,,,,,0,0,0,0,0
1.5359,1783369700.9552,1,1,1.0000,0.0000,1.40741,0.14542,-2.66937,1.00118,1.56135,0.13007,-0.12751,-0.45920,0.07212,,,,,,,,,,,,,,,,,,,,,,,,,,0,0,0,0,0
1.5565,1783369700.9758,1,1,1.0000,0.0000,1.40808,0.14524,-2.66925,1.00120,1.56136,0.12943,-0.12777,-0.45918,0.07211,,,,,,,,,,,,,,,,,,,,,,,,,,0,0,0,0,0
1.5573,1783369700.9765,1,1,1.0000,0.0000,1.40808,0.14524,-2.66925,1.00120,1.56136,0.12943,-0.12777,-0.45918,0.07211,,,,,,,,,,,,,,,,,,,,,,,,,,0,0,0,0,0
1.5644,1783369700.9837,1,1,1.0000,0.0000,1.40845,0.14514,-2.66919,1.00122,1.56137,0.12908,-0.12791,-0.45918,0.07210,,,,,,,,,,,,,,,,,,,,,,,,,,0,0,0,0,0
1.5649,1783369700.9841,1,1,1.0000,0.0000,1.40845,0.14514,-2.66919,1.00122,1.56137,0.12908,-0.12791,-0.45918,0.07210,,,,,,,,,,,,,,,,,,,,,,,,,,0,0,0,0,0
1.5772,1783369700.9965,1,1,1.0000,0.0000,1.40918,0.14497,-2.66905,1.00146,1.56116,0.12826,-0.12823,-0.45923,0.07215,,,,,,,,,,,,,,,,,,,,,,,,,,0,0,0,0,0
1.5862,1783369701.0055,1,1,1.0000,0.0000,1.40944,0.14489,-2.66900,1.00148,1.56115,0.12800,-0.12833,-0.45922,0.07214,,,,,,,,,,,,,,,,,,,,,,,,,,0,0,0,0,0
1.5941,1783369701.0134,1,1,1.0000,0.0000,1.41001,0.14474,-2.66889,1.00152,1.56117,0.12743,-0.12854,-0.45921,0.07214,,,,,,,,,,,,,,,,,,,,,,,,,,0,0,0,0,0
1.6122,1783369701.0315,1,1,1.0000,0.0000,1.41128,0.14437,-2.66867,1.00141,1.56145,0.12626,-0.12898,-0.45913,0.07207,,,,,,,,,,,,,,,,,,,,,,,,,,0,0,0,0,0
1.6180,1783369701.0373,1,1,1.0000,0.0000,1.41172,0.14427,-2.66858,1.00163,1.56124,0.12572,-0.12919,-0.45919,0.07212,,,,,,,,,,,,,,,,,,,,,,,,,,0,0,0,0,0
1.6241,1783369701.0433,1,1,1.0000,0.0000,1.41244,0.14408,-2.66844,1.00169,1.56126,0.12500,-0.12946,-0.45918,0.07212,,,,,,,,,,,,,,,,,,,,,,,,,,0,0,0,0,0
1.6346,1783369701.0539,1,1,1.0000,0.0000,1.41315,0.14388,-2.66831,1.00175,1.56128,0.12428,-0.12973,-0.45917,0.07212,,,,,,,,,,,,,,,,,,,,,,,,,,0,0,0,0,0
1.6441,1783369701.0634,1,1,1.0000,0.0000,1.41378,0.14369,-2.66820,1.00160,1.56155,0.12375,-0.12992,-0.45910,0.07206,,,,,,,,,,,,,,,,,,,,,,,,,,0,0,0,0,0
1.6561,1783369701.0754,1,1,1.0000,0.0000,1.41495,0.14339,-2.66797,1.00189,1.56135,0.12247,-0.13040,-0.45916,0.07211,,,,,,,,,,,,,,,,,,,,,,,,,,0,0,0,0,0
1.6569,1783369701.0762,1,1,1.0000,0.0000,1.41495,0.14339,-2.66797,1.00189,1.56135,0.12247,-0.13040,-0.45916,0.07211,,,,,,,,,,,,,,,,,,,,,,,,,,0,0,0,0,0
1.6679,1783369701.0872,1,1,1.0000,0.0000,1.41592,0.14310,-2.66779,1.00177,1.56165,0.12160,-0.13072,-0.45908,0.07205,,,,,,,,,,,,,,,,,,,,,,,,,,0,0,0,0,0
1.6798,1783369701.0990,1,1,1.0000,0.0000,1.41667,0.14292,-2.66763,1.00202,1.56144,0.12075,-0.13104,-0.45914,0.07210,,,,,,,,,,,,,,,,,,,,,,,,,,0,0,0,0,0
1.6845,1783369701.1037,1,1,1.0000,0.0000,1.41689,0.14284,-2.66760,1.00184,1.56169,0.12063,-0.13108,-0.45907,0.07204,,,,,,,,,,,,,,,,,,,,,,,,,,0,0,0,0,0
1.6962,1783369701.1154,1,1,1.0000,0.0000,1.41782,0.14260,-2.66741,1.00212,1.56149,0.11960,-0.13147,-0.45913,0.07210,,,,,,,,,,,,,,,,,,,,,,,,,,0,0,0,0,0
1.7060,1783369701.1253,1,1,1.0000,0.0000,1.41808,0.14253,-2.66736,1.00214,1.56150,0.11934,-0.13157,-0.45913,0.07210,,,,,,,,,,,,,,,,,,,,,,,,,,0,0,0,0,0
1.7179,1783369701.1372,1,1,1.0000,0.0000,1.41867,0.14235,-2.66725,1.00200,1.56177,0.11884,-0.13174,-0.45906,0.07204,,,,,,,,,,,,,,,,,,,,,,,,,,0,0,0,0,0
1.7237,1783369701.1430,1,1,1.0000,0.0000,1.41906,0.14224,-2.66717,1.00203,1.56179,0.11846,-0.13189,-0.45906,0.07204,,,,,,,,,,,,,,,,,,,,,,,,,,0,0,0,0,0
1.7242,1783369701.1435,1,1,1.0000,0.0000,1.41906,0.14224,-2.66717,1.00203,1.56179,0.11846,-0.13189,-0.45906,0.07204,,,,,,,,,,,,,,,,,,,,,,,,,,0,0,0,0,0
1.7373,1783369701.1566,1,1,1.0000,0.0000,1.41948,0.14214,-2.66708,1.00226,1.56157,0.11794,-0.13209,-0.45912,0.07210,,,,,,,,,,,,,,,,,,,,,,,,,,0,0,0,0,0
1.7454,1783369701.1646,1,1,1.0000,0.0000,1.41977,0.14207,-2.66702,1.00229,1.56158,0.11765,-0.13219,-0.45913,0.07210,,,,,,,,,,,,,,,,,,,,,,,,,,0,0,0,0,0
1.7623,1783369701.1815,1,1,1.0000,0.0000,1.42011,0.14197,-2.66695,1.00232,1.56160,0.11730,-0.13232,-0.45913,0.07210,,,,,,,,,,,,,,,,,,,,,,,,,,0,0,0,0,0
1.7674,1783369701.1867,1,1,1.0000,0.0000,1.42027,0.14193,-2.66692,1.00234,1.56162,0.11713,-0.13238,-0.45912,0.07210,,,,,,,,,,,,,,,,,,,,,,,,,,0,0,0,0,0
1.7830,1783369701.2023,1,1,1.0000,0.0000,1.42036,0.14188,-2.66692,1.00216,1.56186,0.11714,-0.13237,-0.45905,0.07204,,,,,,,,,,,,,,,,,,,,,,,,,,0,0,0,0,0
1.7886,1783369701.2078,1,1,1.0000,0.0000,1.42042,0.14186,-2.66692,1.00217,1.56187,0.11707,-0.13239,-0.45904,0.07203,,,,,,,,,,,,,,,,,,,,,,,,,,0,0,0,0,0
1.7951,1783369701.2144,1,1,1.0000,0.0000,1.42054,0.14186,-2.66690,1.00238,1.56163,0.11686,-0.13248,-0.45910,0.07209,,,,,,,,,,,,,,,,,,,,,,,,,,0,0,0,0,0
1.7959,1783369701.2152,1,1,1.0000,0.0000,1.42046,0.14185,-2.66693,1.00217,1.56187,0.11703,-0.13241,-0.45903,0.07203,,,,,,,,,,,,,,,,,,,,,,,,,,0,0,0,0,0
1.8039,1783369701.2232,1,1,1.0000,0.0000,1.42048,0.14185,-2.66695,1.00218,1.56187,0.11700,-0.13241,-0.45902,0.07202,,,,,,,,,,,,,,,,,,,,,,,,,,0,0,0,0,0
1.8157,1783369701.2349,1,1,1.0000,0.0000,1.42058,0.14184,-2.66696,1.00240,1.56164,0.11680,-0.13250,-0.45906,0.07205,,,,,,,,,,,,,,,,,,,,,,,,,,0,0,0,0,0
1.8168,1783369701.2360,1,1,1.0000,0.0000,1.42058,0.14184,-2.66696,1.00240,1.56164,0.11680,-0.13250,-0.45906,0.07205,,,,,,,,,,,,,,,,,,,,,,,,,,0,0,0,0,0
1.8239,1783369701.2432,1,1,1.0000,0.0000,1.42058,0.14184,-2.66698,1.00240,1.56164,0.11679,-0.13250,-0.45905,0.07204,,,,,,,,,,,,,,,,,,,,,,,,,,0,0,0,0,0
1.8216,1783369701.2432,1,1,1.0000,0.0000,1.42058,0.14184,-2.66698,1.00240,1.56164,0.11679,-0.13250,-0.45905,0.07204,,,,,,,,,,,,,,,,,,,,,,,,,,0,0,0,0,0
1.8350,1783369701.2566,1,1,1.0000,0.0000,1.42049,0.14184,-2.66700,1.00219,1.56188,0.11698,-0.13242,-0.45898,0.07199,,,,,,,,,,,,,,,,,,,,,,,,,,0,0,0,0,0
1.8476,1783369701.2692,1,1,1.0000,0.0000,1.42058,0.14184,-2.66698,1.00239,1.56164,0.11680,-0.13250,-0.45905,0.07204,,,,,,,,,,,,,,,,,,,,,,,,,,0,0,0,0,0
1.8635,1783369701.2850,1,1,1.0000,0.0000,1.42058,0.14185,-2.66698,1.00239,1.56165,0.11680,-0.13250,-0.45904,0.07204,,,,,,,,,,,,,,,,,,,,,,,,,,0,0,0,0,0
1.8646,1783369701.2862,1,1,1.0000,0.0000,1.42050,0.14184,-2.66700,1.00219,1.56187,0.11698,-0.13242,-0.45898,0.07199,,,,,,,,,,,,,,,,,,,,,,,,,,0,0,0,0,0
1.8759,1783369701.2974,1,1,1.0000,0.0000,1.42049,0.14184,-2.66700,1.00219,1.56188,0.11698,-0.13242,-0.45898,0.07199,,,,,,,,,,,,,,,,,,,,,,,,,,0,0,0,0,0
1.8866,1783369701.3081,1,1,1.0000,0.0000,1.42058,0.14185,-2.66698,1.00239,1.56165,0.11680,-0.13250,-0.45904,0.07204,,,,,,,,,,,,,,,,,,,,,,,,,,0,0,0,0,0
1.8972,1783369701.3188,1,1,1.0000,0.0000,1.42049,0.14184,-2.66700,1.00219,1.56187,0.11698,-0.13242,-0.45898,0.07199,,,,,,,,,,,,,,,,,,,,,,,,,,0,0,0,0,0
1.8982,1783369701.3197,1,1,1.0000,0.0000,1.42049,0.14184,-2.66700,1.00219,1.56187,0.11698,-0.13242,-0.45898,0.07199,,,,,,,,,,,,,,,,,,,,,,,,,,0,0,0,0,0
1.9039,1783369701.3254,1,1,1.0000,0.0000,1.42058,0.14184,-2.66697,1.00240,1.56164,0.11679,-0.13250,-0.45905,0.07204,,,,,,,,,,,,,,,,,,,,,,,,,,0,0,0,0,0
1.9185,1783369701.3400,1,1,1.0000,0.0000,1.42058,0.14185,-2.66698,1.00239,1.56165,0.11680,-0.13250,-0.45904,0.07204,,,,,,,,,,,,,,,,,,,,,,,,,,0,0,0,0,0
1.9220,1783369701.3436,1,1,1.0000,0.0000,1.42050,0.14184,-2.66700,1.00220,1.56187,0.11698,-0.13243,-0.45898,0.07199,,,,,,,,,,,,,,,,,,,,,,,,,,0,0,0,0,0
1.9366,1783369701.3581,1,1,1.0000,0.0000,1.42058,0.14184,-2.66697,1.00240,1.56164,0.11679,-0.13250,-0.45905,0.07204,,,,,,,,,,,,,,,,,,,,,,,,,,0,0,0,0,0
1.9449,1783369701.3665,1,1,1.0000,0.0000,1.42049,0.14184,-2.66700,1.00219,1.56187,0.11698,-0.13242,-0.45898,0.07199,,,,,,,,,,,,,,,,,,,,,,,,,,0,0,0,0,0
1.9517,1783369701.3732,1,1,1.0000,0.0000,1.42058,0.14184,-2.66697,1.00240,1.56164,0.11679,-0.13250,-0.45905,0.07204,,,,,,,,,,,,,,,,,,,,,,,,,,0,0,0,0,0
1.9532,1783369701.3748,1,1,1.0000,0.0000,1.42058,0.14184,-2.66697,1.00240,1.56164,0.11679,-0.13250,-0.45905,0.07204,,,,,,,,,,,,,,,,,,,,,,,,,,0,0,0,0,0
1.9623,1783369701.3839,1,1,1.0000,0.0000,1.42049,0.14184,-2.66700,1.00219,1.56188,0.11698,-0.13242,-0.45898,0.07199,,,,,,,,,,,,,,,,,,,,,,,,,,0,0,0,0,0
1.9637,1783369701.3853,1,1,1.0000,0.0000,1.42049,0.14184,-2.66700,1.00219,1.56188,0.11698,-0.13242,-0.45898,0.07199,,,,,,,,,,,,,,,,,,,,,,,,,,0,0,0,0,0
1.9735,1783369701.3950,1,1,1.0000,0.0000,1.42049,0.14184,-2.66700,1.00219,1.56187,0.11698,-0.13242,-0.45898,0.07199,,,,,,,,,,,,,,,,,,,,,,,,,,0,0,0,0,0
1.9859,1783369701.4075,1,1,1.0000,0.0000,1.42050,0.14184,-2.66700,1.00220,1.56187,0.11698,-0.13243,-0.45898,0.07199,,,,,,,,,,,,,,,,,,,,,,,,,,0,0,0,0,0
1.9868,1783369701.4084,1,1,1.0000,0.0000,1.42050,0.14184,-2.66700,1.00220,1.56187,0.11698,-0.13243,-0.45898,0.07199,,,,,,,,,,,,,,,,,,,,,,,,,,0,0,0,0,0
1.9915,1783369701.4131,1,1,1.0000,0.0000,1.42058,0.14184,-2.66698,1.00239,1.56165,0.11680,-0.13250,-0.45905,0.07204,,,,,,,,,,,,,,,,,,,,,,,,,,0,0,0,0,0
2.0031,1783369701.4247,1,1,1.0000,0.0000,1.42049,0.14184,-2.66700,1.00219,1.56188,0.11698,-0.13242,-0.45898,0.07199,,,,,,,,,,,,,,,,,,,,,,,,,,0,0,0,0,0
2.0117,1783369701.4333,1,1,1.0000,0.0000,1.42049,0.14185,-2.66700,1.00219,1.56188,0.11698,-0.13242,-0.45898,0.07199,,,,,,,,,,,,,,,,,,,,,,,,,,0,0,0,0,0
2.0231,1783369701.4447,1,1,1.0000,0.0000,1.42058,0.14184,-2.66698,1.00239,1.56165,0.11680,-0.13250,-0.45905,0.07204,,,,,,,,,,,,,,,,,,,,,,,,,,0,0,0,0,0
2.0320,1783369701.4536,1,1,1.0000,0.0000,1.42058,0.14184,-2.66697,1.00240,1.56163,0.11679,-0.13250,-0.45905,0.07204,,,,,,,,,,,,,,,,,,,,,,,,,,0,0,0,0,0
2.0424,1783369701.4639,1,1,1.0000,0.0000,1.42049,0.14184,-2.66700,1.00219,1.56187,0.11698,-0.13242,-0.45898,0.07199,,,,,,,,,,,,,,,,,,,,,,,,,,0,0,0,0,0
2.0517,1783369701.4733,1,1,1.0000,0.0000,1.42049,0.14185,-2.66700,1.00219,1.56188,0.11698,-0.13242,-0.45898,0.07199,,,,,,,,,,,,,,,,,,,,,,,,,,0,0,0,0,0
2.0658,1783369701.4874,1,1,1.0000,0.0000,1.42050,0.14184,-2.66700,1.00219,1.56187,0.11698,-0.13242,-0.45898,0.07199,,,,,,,,,,,,,,,,,,,,,,,,,,0,0,0,0,0
2.0786,1783369701.5002,1,1,1.0000,0.0000,1.42058,0.14184,-2.66697,1.00240,1.56164,0.11679,-0.13250,-0.45905,0.07204,,,,,,,,,,,,,,,,,,,,,,,,,,0,0,0,0,0
2.0917,1783369701.5133,1,1,1.0000,0.0000,1.42050,0.14184,-2.66700,1.00219,1.56187,0.11698,-0.13243,-0.45898,0.07199,,,,,,,,,,,,,,,,,,,,,,,,,,0,0,0,0,0
2.0934,1783369701.5150,1,1,1.0000,0.0000,1.42050,0.14184,-2.66700,1.00219,1.56187,0.11698,-0.13243,-0.45898,0.07199,,,,,,,,,,,,,,,,,,,,,,,,,,0,0,0,0,0
2.0950,1783369701.5165,1,1,1.0000,0.0000,1.42058,0.14184,-2.66697,1.00240,1.56164,0.11679,-0.13250,-0.45905,0.07204,,,,,,,,,,,,,,,,,,,,,,,,,,0,0,0,0,0
2.1058,1783369701.5273,1,1,1.0000,0.0000,1.42049,0.14184,-2.66700,1.00219,1.56188,0.11698,-0.13242,-0.45898,0.07199,,,,,,,,,,,,,,,,,,,,,,,,,,0,0,0,0,0
2.1151,1783369701.5366,1,1,1.0000,0.0000,1.42049,0.14184,-2.66700,1.00219,1.56188,0.11698,-0.13242,-0.45898,0.07199,,,,,,,,,,,,,,,,,,,,,,,,,,0,0,0,0,0
2.1277,1783369701.5493,1,1,1.0000,0.0000,1.42058,0.14185,-2.66698,1.00239,1.56165,0.11680,-0.13250,-0.45904,0.07204,,,,,,,,,,,,,,,,,,,,,,,,,,0,0,0,0,0
2.1386,1783369701.5602,1,1,1.0000,0.0000,1.42049,0.14184,-2.66700,1.00219,1.56187,0.11698,-0.13242,-0.45898,0.07199,,,,,,,,,,,,,,,,,,,,,,,,,,0,0,0,0,0
2.1473,1783369701.5688,1,1,1.0000,0.0000,1.42049,0.14184,-2.66700,1.00219,1.56187,0.11698,-0.13242,-0.45898,0.07199,,,,,,,,,,,,,,,,,,,,,,,,,,0,0,0,0,0
2.1579,1783369701.5795,1,1,1.0000,0.0000,1.42058,0.14185,-2.66698,1.00239,1.56165,0.11680,-0.13250,-0.45904,0.07204,,,,,,,,,,,,,,,,,,,,,,,,,,0,0,0,0,0
2.1589,1783369701.5804,1,1,1.0000,0.0000,1.42058,0.14185,-2.66698,1.00239,1.56165,0.11680,-0.13250,-0.45904,0.07204,,,,,,,,,,,,,,,,,,,,,,,,,,0,0,0,0,0
2.1689,1783369701.5905,1,1,1.0000,0.0000,1.42058,0.14185,-2.66698,1.00239,1.56166,0.11680,-0.13250,-0.45904,0.07204,,,,,,,,,,,,,,,,,,,,,,,,,,0,0,0,0,0
2.1770,1783369701.5986,1,1,1.0000,0.0000,1.42058,0.14184,-2.66697,1.00240,1.56164,0.11679,-0.13250,-0.45905,0.07204,,,,,,,,,,,,,,,,,,,,,,,,,,0,0,0,0,0
2.1894,1783369701.6109,1,1,1.0000,0.0000,1.42050,0.14184,-2.66700,1.00219,1.56187,0.11698,-0.13243,-0.45898,0.07199,,,,,,,,,,,,,,,,,,,,,,,,,,0,0,0,0,0
2.1953,1783369701.6169,1,1,1.0000,0.0000,1.42050,0.14184,-2.66700,1.00220,1.56187,0.11698,-0.13243,-0.45898,0.07199,,,,,,,,,,,,,,,,,,,,,,,,,,0,0,0,0,0
2.1958,1783369701.6173,1,1,1.0000,0.0000,1.42050,0.14184,-2.66700,1.00220,1.56187,0.11698,-0.13243,-0.45898,0.07199,,,,,,,,,,,,,,,,,,,,,,,,,,0,0,0,0,0
2.2060,1783369701.6275,1,1,1.0000,0.0000,1.42058,0.14184,-2.66698,1.00239,1.56165,0.11680,-0.13250,-0.45904,0.07204,,,,,,,,,,,,,,,,,,,,,,,,,,0,0,0,0,0
2.2064,1783369701.6279,1,1,1.0000,0.0000,1.42058,0.14184,-2.66698,1.00239,1.56165,0.11680,-0.13250,-0.45904,0.07204,,,,,,,,,,,,,,,,,,,,,,,,,,0,0,0,0,0
2.2178,1783369701.6393,1,1,1.0000,0.0000,1.42050,0.14184,-2.66700,1.00220,1.56187,0.11698,-0.13243,-0.45898,0.07199,,,,,,,,,,,,,,,,,,,,,,,,,,0,0,0,0,0
2.2265,1783369701.6480,1,1,1.0000,0.0000,1.42050,0.14184,-2.66700,1.00220,1.56187,0.11698,-0.13243,-0.45898,0.07199,,,,,,,,,,,,,,,,,,,,,,,,,,0,0,0,0,0
2.2358,1783369701.6574,1,1,1.0000,0.0000,1.42049,0.14184,-2.66700,1.00219,1.56188,0.11698,-0.13242,-0.45898,0.07199,,,,,,,,,,,,,,,,,,,,,,,,,,0,0,0,0,0
2.2462,1783369701.6678,1,1,1.0000,0.0000,1.42058,0.14185,-2.66699,1.00239,1.56165,0.11680,-0.13250,-0.45903,0.07204,,,,,,,,,,,,,,,,,,,,,,,,,,0,0,0,0,0
2.2555,1783369701.6770,1,1,1.0000,0.0000,1.42058,0.14187,-2.66703,1.00240,1.56165,0.11679,-0.13250,-0.45901,0.07203,,,,,,,,,,,,,,,,,,,,,,,,,,0,0,0,0,0
2.2780,1783369701.6995,1,1,1.0000,0.0000,1.42055,0.14199,-2.66712,1.00241,1.56166,0.11677,-0.13249,-0.45896,0.07203,,,,,,,,,,,,,,,,,,,,,,,,,,0,0,0,0,0
2.2794,1783369701.7010,1,1,1.0000,0.0000,1.42055,0.14199,-2.66712,1.00241,1.56166,0.11677,-0.13249,-0.45896,0.07203,,,,,,,,,,,,,,,,,,,,,,,,,,0,0,0,0,0
2.2984,1783369701.7199,1,1,1.0000,0.0000,1.42041,0.14220,-2.66729,1.00218,1.56190,0.11695,-0.13240,-0.45883,0.07200,,,,,,,,,,,,,,,,,,,,,,,,,,0,0,0,0,0
2.3060,1783369701.7275,1,1,1.0000,0.0000,1.42040,0.14226,-2.66732,1.00218,1.56190,0.11695,-0.13240,-0.45881,0.07200,,,,,,,,,,,,,,,,,,,,,,,,,,0,0,0,0,0
2.3191,1783369701.7406,1,1,1.0000,0.0000,1.42045,0.14245,-2.66742,1.00235,1.56168,0.11679,-0.13247,-0.45880,0.07207,,,,,,,,,,,,,,,,,,,,,,,,,,0,0,0,0,0
2.3266,1783369701.7481,1,1,1.0000,0.0000,1.42042,0.14261,-2.66752,1.00232,1.56167,0.11679,-0.13247,-0.45874,0.07208,,,,,,,,,,,,,,,,,,,,,,,,,,0,0,0,0,0
2.3355,1783369701.7570,1,1,1.0000,0.0000,1.42038,0.14279,-2.66765,1.00228,1.56168,0.11682,-0.13246,-0.45867,0.07208,,,,,,,,,,,,,,,,,,,,,,,,,,0,0,0,0,0
2.3503,1783369701.7719,1,1,1.0000,0.0000,1.42032,0.14313,-2.66788,1.00220,1.56168,0.11687,-0.13246,-0.45853,0.07209,,,,,,,,,,,,,,,,,,,,,,,,,,0,0,0,0,0
2.3588,1783369701.7803,1,1,1.0000,0.0000,1.42029,0.14327,-2.66798,1.00217,1.56169,0.11689,-0.13245,-0.45847,0.07210,,,,,,,,,,,,,,,,,,,,,,,,,,0,0,0,0,0
2.3704,1783369701.7920,1,1,1.0000,0.0000,1.42008,0.14391,-2.66846,1.00181,1.56191,0.11718,-0.13237,-0.45814,0.07205,,,,,,,,,,,,,,,,,,,,,,,,,,0,0,0,0,0
2.3869,1783369701.8085,1,1,1.0000,0.0000,1.41985,0.14513,-2.66935,1.00150,1.56191,0.11741,-0.13237,-0.45760,0.07206,,,,,,,,,,,,,,,,,,,,,,,,,,0,0,0,0,0
2.3880,1783369701.8096,1,1,1.0000,0.0000,1.41985,0.14513,-2.66935,1.00150,1.56191,0.11741,-0.13237,-0.45760,0.07206,,,,,,,,,,,,,,,,,,,,,,,,,,0,0,0,0,0
2.4876,1783369701.9091,1,1,1.0000,0.0000,1.41878,0.15115,-2.67368,1.00008,1.56167,0.11837,-0.13241,-0.45502,0.07213,,,,,,,,,,,,,,,,,,,,,,,,,,0,0,0,0,0
2.4883,1783369701.9099,1,1,1.0000,0.0000,1.41878,0.15115,-2.67368,1.00008,1.56167,0.11837,-0.13241,-0.45502,0.07213,,,,,,,,,,,,,,,,,,,,,,,,,,0,0,0,0,0
2.4901,1783369701.9116,1,1,1.0000,0.0000,1.41865,0.15136,-2.67387,0.99981,1.56191,0.11861,-0.13233,-0.45486,0.07207,,,,,,,,,,,,,,,,,,,,,,,,,,0,0,0,0,0
2.5167,1783369701.9383,1,1,1.0000,0.0000,1.41848,0.15225,-2.67451,0.99955,1.56192,0.11879,-0.13232,-0.45446,0.07207,,,,,,,,,,,,,,,,,,,,,,,,,,0,0,0,0,0
2.5178,1783369701.9394,1,1,1.0000,0.0000,1.41854,0.15239,-2.67458,0.99972,1.56167,0.11862,-0.13240,-0.45447,0.07213,,,,,,,,,,,,,,,,,,,,,,,,,,0,0,0,0,0
2.5184,1783369701.9399,1,1,1.0000,0.0000,1.41854,0.15239,-2.67458,0.99972,1.56167,0.11862,-0.13240,-0.45447,0.07213,,,,,,,,,,,,,,,,,,,,,,,,,,0,0,0,0,0
2.5198,1783369701.9413,1,1,1.0000,0.0000,1.41854,0.15239,-2.67458,0.99972,1.56167,0.11862,-0.13240,-0.45447,0.07213,,,,,,,,,,,,,,,,,,,,,,,,,,0,0,0,0,0
2.5463,1783369701.9679,1,1,1.0000,0.0000,1.41835,0.15289,-2.67497,0.99935,1.56192,0.11892,-0.13232,-0.45418,0.07206,,,,,,,,,,,,,,,,,,,,,,,,,,0,0,0,0,0
2.5477,1783369701.9692,1,1,1.0000,0.0000,1.41835,0.15289,-2.67497,0.99935,1.56192,0.11892,-0.13232,-0.45418,0.07206,,,,,,,,,,,,,,,,,,,,,,,,,,0,0,0,0,0
2.5566,1783369701.9782,1,1,1.0000,0.0000,1.41834,0.15297,-2.67502,0.99932,1.56191,0.11893,-0.13232,-0.45414,0.07207,,,,,,,,,,,,,,,,,,,,,,,,,,0,0,0,0,0
2.5774,1783369701.9990,1,1,1.0000,0.0000,1.41832,0.15307,-2.67505,0.99927,1.56191,0.11897,-0.13232,-0.45412,0.07208,,,,,,,,,,,,,,,,,,,,,,,,,,0,0,0,0,0
2.5918,1783369702.0134,1,1,1.0000,0.0000,1.41841,0.15308,-2.67499,0.99947,1.56167,0.11878,-0.13239,-0.45421,0.07216,,,,,,,,,,,,,,,,,,,,,,,,,,0,0,0,0,0
2.6022,1783369702.0237,1,1,1.0000,0.0000,1.41832,0.15308,-2.67499,0.99926,1.56191,0.11897,-0.13231,-0.45416,0.07211,,,,,,,,,,,,,,,,,,,,,,,,,,0,0,0,0,0
2.6168,1783369702.0384,1,1,1.0000,0.0000,1.41841,0.15308,-2.67496,0.99947,1.56166,0.11878,-0.13239,-0.45423,0.07217,,,,,,,,,,,,,,,,,,,,,,,,,,0,0,0,0,0
2.6181,1783369702.0396,1,1,1.0000,0.0000,1.41832,0.15308,-2.67499,0.99925,1.56191,0.11898,-0.13231,-0.45416,0.07211,,,,,,,,,,,,,,,,,,,,,,,,,,0,0,0,0,0
2.6183,1783369702.0399,1,1,1.0000,0.0000,1.41832,0.15308,-2.67499,0.99925,1.56191,0.11898,-0.13231,-0.45416,0.07211,,,,,,,,,,,,,,,,,,,,,,,,,,0,0,0,0,0
2.6261,1783369702.0476,1,1,1.0000,0.0000,1.41832,0.15308,-2.67499,0.99925,1.56191,0.11897,-0.13231,-0.45416,0.07211,,,,,,,,,,,,,,,,,,,,,,,,,,0,0,0,0,0
2.6392,1783369702.0608,1,1,1.0000,0.0000,1.41841,0.15308,-2.67497,0.99946,1.56167,0.11878,-0.13239,-0.45423,0.07217,,,,,,,,,,,,,,,,,,,,,,,,,,0,0,0,0,0
2.6508,1783369702.0724,1,1,1.0000,0.0000,1.41832,0.15308,-2.67499,0.99926,1.56191,0.11897,-0.13231,-0.45416,0.07211,,,,,,,,,,,,,,,,,,,,,,,,,,0,0,0,0,0
2.6517,1783369702.0732,1,1,1.0000,0.0000,1.41832,0.15308,-2.67499,0.99926,1.56191,0.11897,-0.13231,-0.45416,0.07211,,,,,,,,,,,,,,,,,,,,,,,,,,0,0,0,0,0
2.6547,1783369702.0763,1,1,1.0000,0.0000,1.41840,0.15308,-2.67497,0.99945,1.56168,0.11879,-0.13239,-0.45422,0.07217,,,,,,,,,,,,,,,,,,,,,,,,,,0,0,0,0,0
2.6556,1783369702.0772,1,1,1.0000,0.0000,1.41840,0.15308,-2.67497,0.99945,1.56168,0.11879,-0.13239,-0.45422,0.07217,,,,,,,,,,,,,,,,,,,,,,,,,,0,0,0,0,0
2.6688,1783369702.0903,1,1,1.0000,0.0000,1.41832,0.15308,-2.67499,0.99925,1.56191,0.11897,-0.13231,-0.45416,0.07211,,,,,,,,,,,,,,,,,,,,,,,,,,0,0,0,0,0
2.6693,1783369702.0909,1,1,1.0000,0.0000,1.41832,0.15308,-2.67499,0.99925,1.56191,0.11897,-0.13231,-0.45416,0.07211,,,,,,,,,,,,,,,,,,,,,,,,,,0,0,0,0,0
2.6777,1783369702.0992,1,1,1.0000,0.0000,1.41841,0.15308,-2.67497,0.99946,1.56168,0.11878,-0.13239,-0.45423,0.07217,,,,,,,,,,,,,,,,,,,,,,,,,,0,0,0,0,0
2.6783,1783369702.0999,1,1,1.0000,0.0000,1.41841,0.15308,-2.67497,0.99946,1.56168,0.11878,-0.13239,-0.45423,0.07217,,,,,,,,,,,,,,,,,,,,,,,,,,0,0,0,0,0
2.6915,1783369702.1130,1,1,1.0000,0.0000,1.41832,0.15307,-2.67499,0.99926,1.56190,0.11897,-0.13231,-0.45416,0.07211,,,,,,,,,,,,,,,,,,,,,,,,,,0,0,0,0,0
2.7064,1783369702.1279,1,1,1.0000,0.0000,1.41832,0.15308,-2.67499,0.99925,1.56191,0.11897,-0.13231,-0.45416,0.07211,,,,,,,,,,,,,,,,,,,,,,,,,,0,0,0,0,0
2.7073,1783369702.1288,1,1,1.0000,0.0000,1.41832,0.15308,-2.67499,0.99925,1.56191,0.11897,-0.13231,-0.45416,0.07211,,,,,,,,,,,,,,,,,,,,,,,,,,0,0,0,0,0
2.7209,1783369702.1424,1,1,1.0000,0.0000,1.41841,0.15308,-2.67497,0.99946,1.56167,0.11878,-0.13239,-0.45423,0.07217,,,,,,,,,,,,,,,,,,,,,,,,,,0,0,0,0,0
2.7279,1783369702.1495,1,1,1.0000,0.0000,1.41841,0.15308,-2.67497,0.99946,1.56168,0.11878,-0.13239,-0.45423,0.07217,,,,,,,,,,,,,,,,,,,,,,,,,,0,0,0,0,0
2.7396,1783369702.1612,1,1,1.0000,0.0000,1.41832,0.15308,-2.67499,0.99925,1.56192,0.11898,-0.13231,-0.45416,0.07211,,,,,,,,,,,,,,,,,,,,,,,,,,0,0,0,0,0
2.7459,1783369702.1674,1,1,1.0000,0.0000,1.41832,0.15308,-2.67500,0.99925,1.56192,0.11898,-0.13231,-0.45416,0.07211,,,,,,,,,,,,,,,,,,,,,,,,,,0,0,0,0,0
2.7563,1783369702.1778,1,1,1.0000,0.0000,1.41832,0.15308,-2.67499,0.99925,1.56191,0.11897,-0.13231,-0.45416,0.07211,,,,,,,,,,,,,,,,,,,,,,,,,,0,0,0,0,0
2.7676,1783369702.1892,1,1,1.0000,0.0000,1.41840,0.15308,-2.67497,0.99945,1.56169,0.11879,-0.13238,-0.45422,0.07217,,,,,,,,,,,,,,,,,,,,,,,,,,0,0,0,0,0
2.7750,1783369702.1966,1,1,1.0000,0.0000,1.41841,0.15308,-2.67496,0.99947,1.56166,0.11877,-0.13239,-0.45423,0.07217,,,,,,,,,,,,,,,,,,,,,,,,,,0,0,0,0,0
2.7757,1783369702.1973,1,1,1.0000,0.0000,1.41841,0.15308,-2.67496,0.99947,1.56166,0.11877,-0.13239,-0.45423,0.07217,,,,,,,,,,,,,,,,,,,,,,,,,,0,0,0,0,0
2.7765,1783369702.1980,1,1,1.0000,0.0000,1.41841,0.15308,-2.67496,0.99947,1.56166,0.11877,-0.13239,-0.45423,0.07217,,,,,,,,,,,,,,,,,,,,,,,,,,0,0,0,0,0
2.7867,1783369702.2083,1,1,1.0000,0.0000,1.41832,0.15308,-2.67499,0.99925,1.56191,0.11897,-0.13231,-0.45416,0.07211,,,,,,,,,,,,,,,,,,,,,,,,,,0,0,0,0,0
2.7878,1783369702.2093,1,1,1.0000,0.0000,1.41832,0.15308,-2.67499,0.99925,1.56191,0.11897,-0.13231,-0.45416,0.07211,,,,,,,,,,,,,,,,,,,,,,,,,,0,0,0,0,0
2.7973,1783369702.2189,1,1,1.0000,0.0000,1.41841,0.15308,-2.67497,0.99946,1.56167,0.11878,-0.13239,-0.45423,0.07217,,,,,,,,,,,,,,,,,,,,,,,,,,0,0,0,0,0
2.8064,1783369702.2280,1,1,1.0000,0.0000,1.41841,0.15308,-2.67497,0.99946,1.56168,0.11878,-0.13239,-0.45423,0.07217,,,,,,,,,,,,,,,,,,,,,,,,,,0,0,0,0,0
2.8202,1783369702.2418,1,1,1.0000,0.0000,1.41832,0.15308,-2.67499,0.99926,1.56191,0.11897,-0.13231,-0.45416,0.07211,,,,,,,,,,,,,,,,,,,,,,,,,,0,0,0,0,0
2.8331,1783369702.2546,1,1,1.0000,0.0000,1.41841,0.15308,-2.67497,0.99946,1.56167,0.11878,-0.13239,-0.45423,0.07217,,,,,,,,,,,,,,,,,,,,,,,,,,0,0,0,0,0
2.8398,1783369702.2613,1,1,1.0000,0.0000,1.41841,0.15308,-2.67497,0.99946,1.56167,0.11878,-0.13239,-0.45423,0.07217,,,,,,,,,,,,,,,,,,,,,,,,,,0,0,0,0,0
2.8551,1783369702.2767,1,1,1.0000,0.0000,1.41841,0.15308,-2.67497,0.99945,1.56168,0.11879,-0.13239,-0.45422,0.07217,,,,,,,,,,,,,,,,,,,,,,,,,,0,0,0,0,0
2.8621,1783369702.2837,1,1,1.0000,0.0000,1.41841,0.15308,-2.67497,0.99946,1.56167,0.11878,-0.13239,-0.45423,0.07217,,,,,,,,,,,,,,,,,,,,,,,,,,0,0,0,0,0
2.8713,1783369702.2929,1,1,1.0000,0.0000,1.41841,0.15308,-2.67497,0.99946,1.56167,0.11878,-0.13239,-0.45423,0.07217,,,,,,,,,,,,,,,,,,,,,,,,,,0,0,0,0,0
2.8780,1783369702.2996,1,1,1.0000,0.0000,1.41841,0.15308,-2.67497,0.99946,1.56168,0.11878,-0.13239,-0.45423,0.07217,,,,,,,,,,,,,,,,,,,,,,,,,,0,0,0,0,0
2.8914,1783369702.3130,1,1,1.0000,0.0000,1.41832,0.15308,-2.67499,0.99925,1.56191,0.11897,-0.13231,-0.45416,0.07211,,,,,,,,,,,,,,,,,,,,,,,,,,0,0,0,0,0
2.8983,1783369702.3198,1,1,1.0000,0.0000,1.41832,0.15308,-2.67499,0.99926,1.56191,0.11897,-0.13231,-0.45416,0.07211,,,,,,,,,,,,,,,,,,,,,,,,,,0,0,0,0,0
2.9109,1783369702.3324,1,1,1.0000,0.0000,1.41841,0.15308,-2.67497,0.99945,1.56168,0.11879,-0.13239,-0.45422,0.07217,,,,,,,,,,,,,,,,,,,,,,,,,,0,0,0,0,0
2.9274,1783369702.3489,1,1,1.0000,0.0000,1.41841,0.15308,-2.67497,0.99946,1.56168,0.11878,-0.13239,-0.45423,0.07217,,,,,,,,,,,,,,,,,,,,,,,,,,0,0,0,0,0
2.9302,1783369702.3518,1,1,1.0000,0.0000,1.41832,0.15308,-2.67499,0.99925,1.56191,0.11897,-0.13231,-0.45416,0.07211,,,,,,,,,,,,,,,,,,,,,,,,,,0,0,0,0,0
2.9421,1783369702.3636,1,1,1.0000,0.0000,1.41841,0.15308,-2.67496,0.99947,1.56166,0.11877,-0.13239,-0.45423,0.07217,,,,,,,,,,,,,,,,,,,,,,,,,,0,0,0,0,0
2.9460,1783369702.3675,1,1,1.0000,0.0000,1.41832,0.15308,-2.67499,0.99925,1.56191,0.11897,-0.13231,-0.45416,0.07211,,,,,,,,,,,,,,,,,,,,,,,,,,0,0,0,0,0
2.9547,1783369702.3763,1,1,1.0000,0.0000,1.41832,0.15308,-2.67499,0.99925,1.56191,0.11897,-0.13231,-0.45416,0.07211,,,,,,,,,,,,,,,,,,,,,,,,,,0,0,0,0,0
2.9657,1783369702.3873,1,1,1.0000,0.0000,1.41840,0.15308,-2.67497,0.99945,1.56168,0.11879,-0.13239,-0.45422,0.07217,,,,,,,,,,,,,,,,,,,,,,,,,,0,0,0,0,0
2.9757,1783369702.3972,1,1,1.0000,0.0000,1.41840,0.15308,-2.67497,0.99945,1.56169,0.11879,-0.13239,-0.45422,0.07217,,,,,,,,,,,,,,,,,,,,,,,,,,0,0,0,0,0
2.9882,1783369702.4098,1,1,1.0000,0.0000,1.41832,0.15308,-2.67499,0.99925,1.56191,0.11897,-0.13231,-0.45416,0.07211,,,,,,,,,,,,,,,,,,,,,,,,,,0,0,0,0,0
2.9999,1783369702.4215,1,1,1.0000,0.0000,1.41841,0.15308,-2.67496,0.99946,1.56167,0.11878,-0.13239,-0.45423,0.07217,,,,,,,,,,,,,,,,,,,,,,,,,,0,0,0,0,0
3.0110,1783369702.4326,1,1,1.0000,0.0000,1.41832,0.15307,-2.67497,0.99925,1.56190,0.11898,-0.13231,-0.45418,0.07212,,,,,,,,,,,,,,,,,,,,,,,,,,0,0,0,0,0
3.0145,1783369702.4361,1,1,1.0000,0.0000,1.41841,0.15307,-2.67494,0.99945,1.56167,0.11879,-0.13239,-0.45424,0.07218,,,,,,,,,,,,,,,,,,,,,,,,,,0,0,0,0,0
3.0152,1783369702.4367,1,1,1.0000,0.0000,1.41841,0.15307,-2.67494,0.99945,1.56167,0.11879,-0.13239,-0.45424,0.07218,,,,,,,,,,,,,,,,,,,,,,,,,,0,0,0,0,0
3.0250,1783369702.4466,1,1,1.0000,0.0000,1.41841,0.15307,-2.67494,0.99945,1.56167,0.11879,-0.13239,-0.45424,0.07218,,,,,,,,,,,,,,,,,,,,,,,,,,0,0,0,0,0
3.0350,1783369702.4565,1,1,1.0000,0.0000,1.41833,0.15303,-2.67495,0.99923,1.56190,0.11900,-0.13232,-0.45418,0.07211,,,,,,,,,,,,,,,,,,,,,,,,,,0,0,0,0,0
3.0487,1783369702.4703,1,1,1.0000,0.0000,1.41843,0.15298,-2.67488,0.99944,1.56167,0.11882,-0.13240,-0.45427,0.07217,,,,,,,,,,,,,,,,,,,,,,,,,,0,0,0,0,0
3.0559,1783369702.4775,1,1,1.0000,0.0000,1.41843,0.15295,-2.67486,0.99944,1.56167,0.11882,-0.13240,-0.45428,0.07216,,,,,,,,,,,,,,,,,,,,,,,,,,0,0,0,0,0
3.0751,1783369702.4967,1,1,1.0000,0.0000,1.41839,0.15273,-2.67474,0.99926,1.56191,0.11901,-0.13232,-0.45430,0.07210,,,,,,,,,,,,,,,,,,,,,,,,,,0,0,0,0,0
3.0769,1783369702.4985,1,1,1.0000,0.0000,1.41839,0.15273,-2.67474,0.99926,1.56191,0.11901,-0.13232,-0.45430,0.07210,,,,,,,,,,,,,,,,,,,,,,,,,,0,0,0,0,0
3.0819,1783369702.5035,1,1,1.0000,0.0000,1.41847,0.15274,-2.67471,0.99946,1.56168,0.11883,-0.13240,-0.45436,0.07216,,,,,,,,,,,,,,,,,,,,,,,,,,0,0,0,0,0
3.0890,1783369702.5105,1,1,1.0000,0.0000,1.41851,0.15258,-2.67460,0.99950,1.56166,0.11880,-0.13241,-0.45442,0.07215,,,,,,,,,,,,,,,,,,,,,,,,,,0,0,0,0,0
3.0996,1783369702.5212,1,1,1.0000,0.0000,1.41847,0.15227,-2.67443,0.99935,1.56191,0.11897,-0.13233,-0.45448,0.07208,,,,,,,,,,,,,,,,,,,,,,,,,,0,0,0,0,0
3.1137,1783369702.5352,1,1,1.0000,0.0000,1.41855,0.15189,-2.67417,0.99944,1.56191,0.11892,-0.13234,-0.45463,0.07207,,,,,,,,,,,,,,,,,,,,,,,,,,0,0,0,0,0
3.1232,1783369702.5448,1,1,1.0000,0.0000,1.41861,0.15158,-2.67395,0.99951,1.56191,0.11888,-0.13234,-0.45476,0.07207,,,,,,,,,,,,,,,,,,,,,,,,,,0,0,0,0,0
3.1309,1783369702.5524,1,1,1.0000,0.0000,1.41867,0.15123,-2.67370,0.99960,1.56191,0.11882,-0.13234,-0.45491,0.07206,,,,,,,,,,,,,,,,,,,,,,,,,,0,0,0,0,0
3.1562,1783369702.5777,1,1,1.0000,0.0000,1.41891,0.15000,-2.67282,0.99993,1.56191,0.11860,-0.13235,-0.45544,0.07205,,,,,,,,,,,,,,,,,,,,,,,,,,0,0,0,0,0
3.1589,1783369702.5805,1,1,1.0000,0.0000,1.41906,0.14970,-2.67258,1.00021,1.56167,0.11835,-0.13243,-0.45563,0.07211,,,,,,,,,,,,,,,,,,,,,,,,,,0,0,0,0,0
3.1707,1783369702.5923,1,1,1.0000,0.0000,1.41909,0.14907,-2.67216,1.00018,1.56190,0.11842,-0.13236,-0.45584,0.07205,,,,,,,,,,,,,,,,,,,,,,,,,,0,0,0,0,0
3.1797,1783369702.6013,1,1,1.0000,0.0000,1.41921,0.14845,-2.67171,1.00034,1.56191,0.11830,-0.13236,-0.45611,0.07205,,,,,,,,,,,,,,,,,,,,,,,,,,0,0,0,0,0
3.1942,1783369702.6157,1,1,1.0000,0.0000,1.41943,0.14729,-2.67086,1.00065,1.56191,0.11808,-0.13237,-0.45663,0.07204,,,,,,,,,,,,,,,,,,,,,,,,,,0,0,0,0,0
3.2068,1783369702.6283,1,1,1.0000,0.0000,1.41962,0.14673,-2.67043,1.00100,1.56168,0.11779,-0.13245,-0.45694,0.07210,,,,,,,,,,,,,,,,,,,,,,,,,,0,0,0,0,0
3.2160,1783369702.6375,1,1,1.0000,0.0000,1.41973,0.14617,-2.67003,1.00116,1.56167,0.11768,-0.13245,-0.45718,0.07210,,,,,,,,,,,,,,,,,,,,,,,,,,0,0,0,0,0
3.2262,1783369702.6478,1,1,1.0000,0.0000,1.41975,0.14563,-2.66966,1.00110,1.56191,0.11776,-0.13238,-0.45736,0.07204,,,,,,,,,,,,,,,,,,,,,,,,,,0,0,0,0,0
3.2274,1783369702.6490,1,1,1.0000,0.0000,1.41975,0.14563,-2.66966,1.00110,1.56191,0.11776,-0.13238,-0.45736,0.07204,,,,,,,,,,,,,,,,,,,,,,,,,,0,0,0,0,0
3.2326,1783369702.6541,1,1,1.0000,0.0000,1.41988,0.14536,-2.66943,1.00137,1.56168,0.11753,-0.13245,-0.45754,0.07209,,,,,,,,,,,,,,,,,,,,,,,,,,0,0,0,0,0
3.2338,1783369702.6554,1,1,1.0000,0.0000,1.41988,0.14536,-2.66943,1.00137,1.56168,0.11753,-0.13245,-0.45754,0.07209,,,,,,,,,,,,,,,,,,,,,,,,,,0,0,0,0,0
3.2473,1783369702.6688,1,1,1.0000,0.0000,1.42009,0.14430,-2.66865,1.00166,1.56168,0.11732,-0.13246,-0.45802,0.07209,,,,,,,,,,,,,,,,,,,,,,,,,,0,0,0,0,0
3.2520,1783369702.6736,1,1,1.0000,0.0000,1.42005,0.14404,-2.66849,1.00153,1.56191,0.11745,-0.13239,-0.45807,0.07204,,,,,,,,,,,,,,,,,,,,,,,,,,0,0,0,0,0
3.2687,1783369702.6902,1,1,1.0000,0.0000,1.42018,0.14337,-2.66800,1.00171,1.56191,0.11733,-0.13239,-0.45837,0.07204,,,,,,,,,,,,,,,,,,,,,,,,,,0,0,0,0,0
3.2717,1783369702.6933,1,1,1.0000,0.0000,1.42030,0.14318,-2.66783,1.00196,1.56168,0.11710,-0.13247,-0.45852,0.07209,,,,,,,,,,,,,,,,,,,,,,,,,,0,0,0,0,0
3.2831,1783369702.7047,1,1,1.0000,0.0000,1.42031,0.14272,-2.66752,1.00189,1.56191,0.11719,-0.13239,-0.45866,0.07204,,,,,,,,,,,,,,,,,,,,,,,,,,0,0,0,0,0
3.2954,1783369702.7169,1,1,1.0000,0.0000,1.42044,0.14248,-2.66732,1.00216,1.56167,0.11696,-0.13247,-0.45883,0.07209,,,,,,,,,,,,,,,,,,,,,,,,,,0,0,0,0,0
3.3028,1783369702.7244,1,1,1.0000,0.0000,1.42048,0.14229,-2.66719,1.00222,1.56167,0.11692,-0.13247,-0.45892,0.07210,,,,,,,,,,,,,,,,,,,,,,,,,,0,0,0,0,0
3.3169,1783369702.7384,1,1,1.0000,0.0000,1.42042,0.14215,-2.66711,1.00206,1.56191,0.11708,-0.13240,-0.45891,0.07204,,,,,,,,,,,,,,,,,,,,,,,,,,0,0,0,0,0
3.3224,1783369702.7439,1,1,1.0000,0.0000,1.42044,0.14204,-2.66703,1.00209,1.56191,0.11706,-0.13240,-0.45896,0.07204,,,,,,,,,,,,,,,,,,,,,,,,,,0,0,0,0,0
3.3236,1783369702.7452,1,1,1.0000,0.0000,1.42044,0.14204,-2.66703,1.00209,1.56191,0.11706,-0.13240,-0.45896,0.07204,,,,,,,,,,,,,,,,,,,,,,,,,,0,0,0,0,0
3.3322,1783369702.7537,1,1,1.0000,0.0000,1.42045,0.14196,-2.66698,1.00212,1.56191,0.11704,-0.13240,-0.45899,0.07204,,,,,,,,,,,,,,,,,,,,,,,,,,0,0,0,0,0
3.3434,1783369702.7649,1,1,1.0000,0.0000,1.42056,0.14188,-2.66692,1.00236,1.56167,0.11683,-0.13248,-0.45908,0.07208,,,,,,,,,,,,,,,,,,,,,,,,,,0,0,0,0,0
3.3542,1783369702.7757,1,1,1.0000,0.0000,1.42048,0.14185,-2.66695,1.00218,1.56191,0.11700,-0.13240,-0.45902,0.07201,,,,,,,,,,,,,,,,,,,,,,,,,,0,0,0,0,0
3.3624,1783369702.7839,1,1,1.0000,0.0000,1.42048,0.14184,-2.66697,1.00218,1.56191,0.11700,-0.13241,-0.45900,0.07200,,,,,,,,,,,,,,,,,,,,,,,,,,0,0,0,0,0
3.3630,1783369702.7845,1,1,1.0000,0.0000,1.42048,0.14184,-2.66697,1.00218,1.56191,0.11700,-0.13241,-0.45900,0.07200,,,,,,,,,,,,,,,,,,,,,,,,,,0,0,0,0,0
3.3635,1783369702.7850,1,1,1.0000,0.0000,1.42048,0.14184,-2.66697,1.00218,1.56191,0.11700,-0.13241,-0.45900,0.07200,,,,,,,,,,,,,,,,,,,,,,,,,,0,0,0,0,0
3.3722,1783369702.7937,1,1,1.0000,0.0000,1.42048,0.14184,-2.66699,1.00219,1.56192,0.11700,-0.13241,-0.45899,0.07199,,,,,,,,,,,,,,,,,,,,,,,,,,0,0,0,0,0
3.3841,1783369702.8056,1,1,1.0000,0.0000,1.42056,0.14184,-2.66698,1.00239,1.56169,0.11681,-0.13248,-0.45904,0.07204,,,,,,,,,,,,,,,,,,,,,,,,,,0,0,0,0,0
3.3948,1783369702.8164,1,1,1.0000,0.0000,1.42048,0.14184,-2.66701,1.00219,1.56191,0.11700,-0.13241,-0.45898,0.07198,,,,,,,,,,,,,,,,,,,,,,,,,,0,0,0,0,0
3.4036,1783369702.8252,1,1,1.0000,0.0000,1.42048,0.14183,-2.66701,1.00220,1.56190,0.11699,-0.13241,-0.45898,0.07198,,,,,,,,,,,,,,,,,,,,,,,,,,0,0,0,0,0
3.4118,1783369702.8333,1,1,1.0000,0.0000,1.42048,0.14184,-2.66701,1.00219,1.56191,0.11700,-0.13241,-0.45898,0.07198,,,,,,,,,,,,,,,,,,,,,,,,,,0,0,0,0,0
3.4233,1783369702.8448,1,1,1.0000,0.0000,1.42056,0.14184,-2.66698,1.00239,1.56169,0.11681,-0.13248,-0.45904,0.07204,,,,,,,,,,,,,,,,,,,,,,,,,,0,0,0,0,0
3.4345,1783369702.8561,1,1,1.0000,0.0000,1.42048,0.14184,-2.66701,1.00220,1.56191,0.11699,-0.13241,-0.45898,0.07198,,,,,,,,,,,,,,,,,,,,,,,,,,0,0,0,0,0
3.4431,1783369702.8647,1,1,1.0000,0.0000,1.42048,0.14184,-2.66701,1.00219,1.56191,0.11700,-0.13241,-0.45898,0.07198,,,,,,,,,,,,,,,,,,,,,,,,,,0,0,0,0,0
3.4522,1783369702.8738,1,1,1.0000,0.0000,1.42048,0.14184,-2.66701,1.00219,1.56191,0.11699,-0.13241,-0.45898,0.07198,,,,,,,,,,,,,,,,,,,,,,,,,,0,0,0,0,0
3.4627,1783369702.8842,1,1,1.0000,0.0000,1.42056,0.14184,-2.66698,1.00240,1.56168,0.11681,-0.13249,-0.45904,0.07204,,,,,,,,,,,,,,,,,,,,,,,,,,0,0,0,0,0
3.4718,1783369702.8933,1,1,1.0000,0.0000,1.42056,0.14184,-2.66698,1.00239,1.56169,0.11682,-0.13248,-0.45904,0.07204,,,,,,,,,,,,,,,,,,,,,,,,,,0,0,0,0,0
3.4735,1783369702.8951,1,1,1.0000,0.0000,1.42056,0.14184,-2.66698,1.00239,1.56169,0.11682,-0.13248,-0.45904,0.07204,,,,,,,,,,,,,,,,,,,,,,,,,,0,0,0,0,0
3.4837,1783369702.9053,1,1,1.0000,0.0000,1.42048,0.14184,-2.66701,1.00219,1.56191,0.11699,-0.13241,-0.45898,0.07198,,,,,,,,,,,,,,,,,,,,,,,,,,0,0,0,0,0
3.4978,1783369702.9194,1,1,1.0000,0.0000,1.42048,0.14184,-2.66701,1.00219,1.56191,0.11700,-0.13241,-0.45898,0.07198,,,,,,,,,,,,,,,,,,,,,,,,,,0,0,0,0,0
3.5029,1783369702.9245,1,1,1.0000,0.0000,1.42056,0.14184,-2.66698,1.00239,1.56169,0.11682,-0.13248,-0.45904,0.07204,,,,,,,,,,,,,,,,,,,,,,,,,,0,0,0,0,0
3.5137,1783369702.9353,1,1,1.0000,0.0000,1.42048,0.14184,-2.66701,1.00219,1.56191,0.11700,-0.13241,-0.45898,0.07198,,,,,,,,,,,,,,,,,,,,,,,,,,0,0,0,0,0
3.5150,1783369702.9366,1,1,1.0000,0.0000,1.42048,0.14184,-2.66701,1.00219,1.56191,0.11700,-0.13241,-0.45898,0.07198,,,,,,,,,,,,,,,,,,,,,,,,,,0,0,0,0,0
3.5245,1783369702.9461,1,1,1.0000,0.0000,1.42048,0.14183,-2.66701,1.00220,1.56190,0.11699,-0.13241,-0.45898,0.07198,,,,,,,,,,,,,,,,,,,,,,,,,,0,0,0,0,0
3.5383,1783369702.9598,1,1,1.0000,0.0000,1.42048,0.14184,-2.66701,1.00219,1.56191,0.11699,-0.13241,-0.45898,0.07198,,,,,,,,,,,,,,,,,,,,,,,,,,0,0,0,0,0
3.5394,1783369702.9610,1,1,1.0000,0.0000,1.42048,0.14184,-2.66701,1.00219,1.56191,0.11699,-0.13241,-0.45898,0.07198,,,,,,,,,,,,,,,,,,,,,,,,,,0,0,0,0,0
3.5399,1783369702.9615,1,1,1.0000,0.0000,1.42048,0.14184,-2.66701,1.00219,1.56191,0.11699,-0.13241,-0.45898,0.07198,,,,,,,,,,,,,,,,,,,,,,,,,,0,0,0,0,0
3.5464,1783369702.9680,1,1,1.0000,0.0000,1.42048,0.14184,-2.66701,1.00219,1.56191,0.11699,-0.13241,-0.45898,0.07198,,,,,,,,,,,,,,,,,,,,,,,,,,0,0,0,0,0
3.5554,1783369702.9769,1,1,1.0000,0.0000,1.42048,0.14184,-2.66701,1.00219,1.56191,0.11699,-0.13241,-0.45898,0.07198,,,,,,,,,,,,,,,,,,,,,,,,,,0,0,0,0,0
3.5641,1783369702.9856,1,1,1.0000,0.0000,1.42048,0.14184,-2.66701,1.00219,1.56191,0.11700,-0.13241,-0.45898,0.07198,,,,,,,,,,,,,,,,,,,,,,,,,,0,0,0,0,0
3.5650,1783369702.9865,1,1,1.0000,0.0000,1.42048,0.14184,-2.66701,1.00219,1.56191,0.11700,-0.13241,-0.45898,0.07198,,,,,,,,,,,,,,,,,,,,,,,,,,0,0,0,0,0
3.5755,1783369702.9970,1,1,1.0000,0.0000,1.42056,0.14184,-2.66698,1.00239,1.56168,0.11681,-0.13249,-0.45904,0.07204,,,,,,,,,,,,,,,,,,,,,,,,,,0,0,0,0,0
3.5864,1783369703.0080,1,1,1.0000,0.0000,1.42048,0.14184,-2.66701,1.00219,1.56191,0.11700,-0.13241,-0.45898,0.07198,,,,,,,,,,,,,,,,,,,,,,,,,,0,0,0,0,0
3.5933,1783369703.0149,1,1,1.0000,0.0000,1.42056,0.14184,-2.66698,1.00239,1.56168,0.11681,-0.13249,-0.45904,0.07204,,,,,,,,,,,,,,,,,,,,,,,,,,0,0,0,0,0
3.6060,1783369703.0276,1,1,1.0000,0.0000,1.42056,0.14183,-2.66698,1.00239,1.56168,0.11681,-0.13249,-0.45904,0.07204,,,,,,,,,,,,,,,,,,,,,,,,,,0,0,0,0,0
3.6118,1783369703.0334,1,1,1.0000,0.0000,1.42048,0.14184,-2.66701,1.00219,1.56191,0.11699,-0.13241,-0.45898,0.07198,,,,,,,,,,,,,,,,,,,,,,,,,,0,0,0,0,0
3.6136,1783369703.0351,1,1,1.0000,0.0000,1.42048,0.14184,-2.66701,1.00219,1.56191,0.11699,-0.13241,-0.45898,0.07198,,,,,,,,,,,,,,,,,,,,,,,,,,0,0,0,0,0
3.6258,1783369703.0474,1,1,1.0000,0.0000,1.42048,0.14184,-2.66701,1.00219,1.56192,0.11700,-0.13241,-0.45898,0.07198,,,,,,,,,,,,,,,,,,,,,,,,,,0,0,0,0,0
3.6330,1783369703.0546,1,1,1.0000,0.0000,1.42057,0.14183,-2.66698,1.00240,1.56168,0.11681,-0.13249,-0.45904,0.07204,,,,,,,,,,,,,,,,,,,,,,,,,,0,0,0,0,0
3.6432,1783369703.0648,1,1,1.0000,0.0000,1.42048,0.14184,-2.66701,1.00219,1.56191,0.11699,-0.13241,-0.45898,0.07198,,,,,,,,,,,,,,,,,,,,,,,,,,0,0,0,0,0
3.6586,1783369703.0802,1,1,1.0000,0.0000,1.42048,0.14184,-2.66701,1.00219,1.56191,0.11700,-0.13241,-0.45898,0.07198,,,,,,,,,,,,,,,,,,,,,,,,,,0,0,0,0,0
3.6633,1783369703.0848,1,1,1.0000,0.0000,1.42056,0.14184,-2.66698,1.00240,1.56168,0.11681,-0.13249,-0.45904,0.07204,,,,,,,,,,,,,,,,,,,,,,,,,,0,0,0,0,0
3.6726,1783369703.0942,1,1,1.0000,0.0000,1.42056,0.14184,-2.66698,1.00240,1.56168,0.11681,-0.13249,-0.45904,0.07204,,,,,,,,,,,,,,,,,,,,,,,,,,0,0,0,0,0
3.6821,1783369703.1037,1,1,1.0000,0.0000,1.42048,0.14184,-2.66701,1.00219,1.56191,0.11699,-0.13241,-0.45898,0.07198,,,,,,,,,,,,,,,,,,,,,,,,,,0,0,0,0,0
3.6832,1783369703.1047,1,1,1.0000,0.0000,1.42048,0.14184,-2.66701,1.00219,1.56191,0.11699,-0.13241,-0.45898,0.07198,,,,,,,,,,,,,,,,,,,,,,,,,,0,0,0,0,0
3.7073,1783369703.1289,1,1,1.0000,0.0000,1.42048,0.14183,-2.66701,1.00220,1.56190,0.11699,-0.13241,-0.45898,0.07198,,,,,,,,,,,,,,,,,,,,,,,,,,0,0,0,0,0
3.7077,1783369703.1293,1,1,1.0000,0.0000,1.42048,0.14183,-2.66701,1.00220,1.56190,0.11699,-0.13241,-0.45898,0.07198,,,,,,,,,,,,,,,,,,,,,,,,,,0,0,0,0,0
3.7189,1783369703.1404,1,1,1.0000,0.0000,1.42056,0.14184,-2.66698,1.00239,1.56168,0.11681,-0.13248,-0.45904,0.07204,,,,,,,,,,,,,,,,,,,,,,,,,,0,0,0,0,0
3.7267,1783369703.1483,1,1,1.0000,0.0000,1.42057,0.14183,-2.66698,1.00240,1.56167,0.11681,-0.13249,-0.45904,0.07204,,,,,,,,,,,,,,,,,,,,,,,,,,0,0,0,0,0
3.7396,1783369703.1612,1,1,1.0000,0.0000,1.42048,0.14184,-2.66701,1.00219,1.56191,0.11700,-0.13241,-0.45898,0.07198,,,,,,,,,,,,,,,,,,,,,,,,,,0,0,0,0,0
3.7505,1783369703.1721,1,1,1.0000,0.0000,1.42056,0.14184,-2.66698,1.00239,1.56168,0.11681,-0.13248,-0.45904,0.07204,,,,,,,,,,,,,,,,,,,,,,,,,,0,0,0,0,0
3.7513,1783369703.1729,1,1,1.0000,0.0000,1.42056,0.14184,-2.66698,1.00239,1.56168,0.11681,-0.13248,-0.45904,0.07204,,,,,,,,,,,,,,,,,,,,,,,,,,0,0,0,0,0
3.7594,1783369703.1810,1,1,1.0000,0.0000,1.42056,0.14184,-2.66698,1.00239,1.56169,0.11681,-0.13248,-0.45904,0.07204,,,,,,,,,,,,,,,,,,,,,,,,,,0,0,0,0,0
3.7662,1783369703.1878,1,1,1.0000,0.0000,1.42056,0.14183,-2.66698,1.00239,1.56168,0.11681,-0.13249,-0.45904,0.07204,,,,,,,,,,,,,,,,,,,,,,,,,,0,0,0,0,0
3.7786,1783369703.2002,1,1,1.0000,0.0000,1.42048,0.14184,-2.66701,1.00219,1.56192,0.11700,-0.13241,-0.45898,0.07198,,,,,,,,,,,,,,,,,,,,,,,,,,0,0,0,0,0
3.7875,1783369703.2091,1,1,1.0000,0.0000,1.42048,0.14184,-2.66701,1.00219,1.56191,0.11700,-0.13241,-0.45898,0.07198,,,,,,,,,,,,,,,,,,,,,,,,,,0,0,0,0,0
3.7974,1783369703.2189,1,1,1.0000,0.0000,1.42048,0.14183,-2.66701,1.00220,1.56190,0.11699,-0.13241,-0.45898,0.07198,,,,,,,,,,,,,,,,,,,,,,,,,,0,0,0,0,0
3.8080,1783369703.2295,1,1,1.0000,0.0000,1.42056,0.14182,-2.66701,1.00242,1.56169,0.11681,-0.13248,-0.45903,0.07202,,,,,,,,,,,,,,,,,,,,,,,,,,0,0,0,0,0
3.8160,1783369703.2376,1,1,1.0000,0.0000,1.42057,0.14175,-2.66703,1.00252,1.56168,0.11680,-0.13249,-0.45903,0.07200,,,,,,,,,,,,,,,,,,,,,,,,,,0,0,0,0,0
3.8280,1783369703.2495,1,1,1.0000,0.0000,1.42048,0.14162,-2.66710,1.00250,1.56191,0.11697,-0.13241,-0.45897,0.07190,,,,,,,,,,,,,,,,,,,,,,,,,,0,0,0,0,0
3.8417,1783369703.2633,1,1,1.0000,0.0000,1.42048,0.14148,-2.66713,1.00269,1.56192,0.11695,-0.13240,-0.45898,0.07186,,,,,,,,,,,,,,,,,,,,,,,,,,0,0,0,0,0
3.8460,1783369703.2676,1,1,1.0000,0.0000,1.42056,0.14143,-2.66711,1.00295,1.56170,0.11677,-0.13248,-0.45904,0.07190,,,,,,,,,,,,,,,,,,,,,,,,,,0,0,0,0,0
3.8620,1783369703.2836,1,1,1.0000,0.0000,1.42056,0.14126,-2.66714,1.00316,1.56169,0.11676,-0.13248,-0.45905,0.07185,,,,,,,,,,,,,,,,,,,,,,,,,,0,0,0,0,0
3.8660,1783369703.2875,1,1,1.0000,0.0000,1.42048,0.14119,-2.66718,1.00305,1.56192,0.11694,-0.13240,-0.45899,0.07177,,,,,,,,,,,,,,,,,,,,,,,,,,0,0,0,0,0
3.8669,1783369703.2885,1,1,1.0000,0.0000,1.42048,0.14119,-2.66718,1.00305,1.56192,0.11694,-0.13240,-0.45899,0.07177,,,,,,,,,,,,,,,,,,,,,,,,,,0,0,0,0,0
3.8758,1783369703.2973,1,1,1.0000,0.0000,1.42047,0.14100,-2.66723,1.00328,1.56193,0.11694,-0.13240,-0.45900,0.07172,,,,,,,,,,,,,,,,,,,,,,,,,,0,0,0,0,0
3.8905,1783369703.3121,1,1,1.0000,0.0000,1.42047,0.14066,-2.66730,1.00370,1.56193,0.11693,-0.13239,-0.45901,0.07161,,,,,,,,,,,,,,,,,,,,,,,,,,0,0,0,0,0
3.8912,1783369703.3128,1,1,1.0000,0.0000,1.42047,0.14066,-2.66730,1.00370,1.56193,0.11693,-0.13239,-0.45901,0.07161,,,,,,,,,,,,,,,,,,,,,,,,,,0,0,0,0,0
3.8959,1783369703.3175,1,1,1.0000,0.0000,1.42057,0.14053,-2.66730,1.00407,1.56168,0.11674,-0.13248,-0.45908,0.07162,,,,,,,,,,,,,,,,,,,,,,,,,,0,0,0,0,0
3.9103,1783369703.3319,1,1,1.0000,0.0000,1.42056,0.13995,-2.66743,1.00478,1.56170,0.11675,-0.13247,-0.45910,0.07144,,,,,,,,,,,,,,,,,,,,,,,,,,0,0,0,0,0
3.9108,1783369703.3324,1,1,1.0000,0.0000,1.42056,0.13995,-2.66743,1.00478,1.56170,0.11675,-0.13247,-0.45910,0.07144,,,,,,,,,,,,,,,,,,,,,,,,,,0,0,0,0,0
3.9206,1783369703.3421,1,1,1.0000,0.0000,1.42056,0.13963,-2.66751,1.00519,1.56169,0.11674,-0.13247,-0.45911,0.07134,,,,,,,,,,,,,,,,,,,,,,,,,,0,0,0,0,0
3.9302,1783369703.3517,1,1,1.0000,0.0000,1.42048,0.13930,-2.66761,1.00540,1.56192,0.11692,-0.13239,-0.45906,0.07118,,,,,,,,,,,,,,,,,,,,,,,,,,0,0,0,0,0
3.9387,1783369703.3603,1,1,1.0000,0.0000,1.42048,0.13895,-2.66769,1.00583,1.56193,0.11692,-0.13239,-0.45907,0.07107,,,,,,,,,,,,,,,,,,,,,,,,,,0,0,0,0,0
3.9474,1783369703.3690,1,1,1.0000,0.0000,1.42048,0.13878,-2.66773,1.00605,1.56193,0.11692,-0.13239,-0.45907,0.07102,,,,,,,,,,,,,,,,,,,,,,,,,,0,0,0,0,0
3.9642,1783369703.3857,1,1,1.0000,0.0000,1.42048,0.13806,-2.66791,1.00694,1.56193,0.11691,-0.13238,-0.45909,0.07078,,,,,,,,,,,,,,,,,,,,,,,,,,0,0,0,0,0
3.9668,1783369703.3884,1,1,1.0000,0.0000,1.42057,0.13787,-2.66792,1.00738,1.56169,0.11672,-0.13246,-0.45916,0.07078,,,,,,,,,,,,,,,,,,,,,,,,,,0,0,0,0,0
3.9760,1783369703.3975,1,1,1.0000,0.0000,1.42057,0.13751,-2.66801,1.00782,1.56169,0.11672,-0.13246,-0.45917,0.07067,,,,,,,,,,,,,,,,,,,,,,,,,,0,0,0,0,0
3.9959,1783369703.4175,1,1,1.0000,0.0000,1.42049,0.13691,-2.66819,1.00837,1.56193,0.11690,-0.13238,-0.45912,0.07042,,,,,,,,,,,,,,,,,,,,,,,,,,0,0,0,0,0
3.9995,1783369703.4210,1,1,1.0000,0.0000,1.42057,0.13678,-2.66819,1.00873,1.56170,0.11671,-0.13246,-0.45918,0.07043,,,,,,,,,,,,,,,,,,,,,,,,,,0,0,0,0,0
4.0067,1783369703.4282,1,1,1.0000,0.0000,1.42057,0.13655,-2.66825,1.00902,1.56170,0.11671,-0.13246,-0.45919,0.07036,,,,,,,,,,,,,,,,,,,,,,,,,,0,0,0,0,0
4.0188,1783369703.4404,1,1,1.0000,0.0000,1.42049,0.13636,-2.66832,1.00907,1.56192,0.11689,-0.13238,-0.45913,0.07024,,,,,,,,,,,,,,,,,,,,,,,,,,0,0,0,0,0
4.0267,1783369703.4482,1,1,1.0000,0.0000,1.42049,0.13620,-2.66836,1.00928,1.56192,0.11689,-0.13238,-0.45914,0.07019,,,,,,,,,,,,,,,,,,,,,,,,,,0,0,0,0,0
4.0395,1783369703.4610,1,1,1.0000,0.0000,1.42058,0.13601,-2.66837,1.00972,1.56170,0.11671,-0.13245,-0.45921,0.07019,,,,,,,,,,,,,,,,,,,,,,,,,,0,0,0,0,0
4.0481,1783369703.4696,1,1,1.0000,0.0000,1.42057,0.13592,-2.66839,1.00985,1.56171,0.11671,-0.13245,-0.45922,0.07017,,,,,,,,,,,,,,,,,,,,,,,,,,0,0,0,0,0
4.0587,1783369703.4803,1,1,1.0000,0.0000,1.42050,0.13582,-2.66843,1.00979,1.56192,0.11688,-0.13238,-0.45917,0.07009,,,,,,,,,,,,,,,,,,,,,,,,,,0,0,0,0,0
4.0671,1783369703.4886,1,1,1.0000,0.0000,1.42049,0.13576,-2.66843,1.00987,1.56193,0.11688,-0.13237,-0.45918,0.07008,,,,,,,,,,,,,,,,,,,,,,,,,,0,0,0,0,0
4.0804,1783369703.5019,1,1,1.0000,0.0000,1.42058,0.13571,-2.66841,1.01014,1.56170,0.11670,-0.13245,-0.45926,0.07012,,,,,,,,,,,,,,,,,,,,,,,,,,0,0,0,0,0
4.0905,1783369703.5121,1,1,1.0000,0.0000,1.42050,0.13566,-2.66844,1.01002,1.56193,0.11688,-0.13237,-0.45920,0.07006,,,,,,,,,,,,,,,,,,,,,,,,,,0,0,0,0,0
4.0991,1783369703.5207,1,1,1.0000,0.0000,1.42049,0.13562,-2.66846,1.01008,1.56193,0.11688,-0.13237,-0.45920,0.07004,,,,,,,,,,,,,,,,,,,,,,,,,,0,0,0,0,0
4.1117,1783369703.5332,1,1,1.0000,0.0000,1.42058,0.13556,-2.66845,1.01036,1.56171,0.11670,-0.13244,-0.45926,0.07008,,,,,,,,,,,,,,,,,,,,,,,,,,0,0,0,0,0
4.2429,1783369703.6644,1,1,1.0000,0.0000,1.42051,0.13172,-2.66949,1.01491,1.56194,0.11684,-0.13237,-0.45922,0.06874,,,,,,,,,,,,,,,,,,,,,,,,,,0,0,0,0,0
4.2441,1783369703.6657,1,1,1.0000,0.0000,1.42051,0.13172,-2.66949,1.01491,1.56194,0.11684,-0.13237,-0.45922,0.06874,,,,,,,,,,,,,,,,,,,,,,,,,,0,0,0,0,0
4.2444,1783369703.6660,1,1,1.0000,0.0000,1.42051,0.13172,-2.66949,1.01491,1.56194,0.11684,-0.13237,-0.45922,0.06874,,,,,,,,,,,,,,,,,,,,,,,,,,0,0,0,0,0
4.2461,1783369703.6677,1,1,1.0000,0.0000,1.42059,0.13153,-2.66951,1.01535,1.56171,0.11666,-0.13244,-0.45928,0.06874,,,,,,,,,,,,,,,,,,,,,,,,,,0,0,0,0,0
4.2466,1783369703.6681,1,1,1.0000,0.0000,1.42059,0.13153,-2.66951,1.01535,1.56171,0.11666,-0.13244,-0.45928,0.06874,,,,,,,,,,,,,,,,,,,,,,,,,,0,0,0,0,0
4.2476,1783369703.6692,1,1,1.0000,0.0000,1.42059,0.13153,-2.66951,1.01535,1.56171,0.11666,-0.13244,-0.45928,0.06874,,,,,,,,,,,,,,,,,,,,,,,,,,0,0,0,0,0
4.2500,1783369703.6715,1,1,1.0000,0.0000,1.42051,0.13154,-2.66954,1.01514,1.56193,0.11684,-0.13237,-0.45922,0.06868,,,,,,,,,,,,,,,,,,,,,,,,,,0,0,0,0,0
4.2588,1783369703.6804,1,1,1.0000,0.0000,1.42051,0.13119,-2.66962,1.01556,1.56194,0.11684,-0.13237,-0.45922,0.06857,,,,,,,,,,,,,,,,,,,,,,,,,,0,0,0,0,0
4.2693,1783369703.6908,1,1,1.0000,0.0000,1.42051,0.13089,-2.66970,1.01594,1.56194,0.11684,-0.13237,-0.45923,0.06847,,,,,,,,,,,,,,,,,,,,,,,,,,0,0,0,0,0
4.2805,1783369703.7020,1,1,1.0000,0.0000,1.42060,0.13050,-2.66977,1.01664,1.56171,0.11665,-0.13244,-0.45930,0.06840,,,,,,,,,,,,,,,,,,,,,,,,,,0,0,0,0,0
4.2926,1783369703.7142,1,1,1.0000,0.0000,1.42051,0.13029,-2.66984,1.01669,1.56194,0.11683,-0.13237,-0.45924,0.06828,,,,,,,,,,,,,,,,,,,,,,,,,,0,0,0,0,0
4.2956,1783369703.7172,1,1,1.0000,0.0000,1.42059,0.13019,-2.66984,1.01702,1.56172,0.11665,-0.13244,-0.45931,0.06831,,,,,,,,,,,,,,,,,,,,,,,,,,0,0,0,0,0
4.2967,1783369703.7182,1,1,1.0000,0.0000,1.42059,0.13019,-2.66984,1.01702,1.56172,0.11665,-0.13244,-0.45931,0.06831,,,,,,,,,,,,,,,,,,,,,,,,,,0,0,0,0,0
4.3083,1783369703.7299,1,1,1.0000,0.0000,1.42051,0.12996,-2.66992,1.01712,1.56194,0.11683,-0.13236,-0.45926,0.06818,,,,,,,,,,,,,,,,,,,,,,,,,,0,0,0,0,0
4.3195,1783369703.7410,1,1,1.0000,0.0000,1.42060,0.12977,-2.66993,1.01757,1.56171,0.11664,-0.13244,-0.45934,0.06819,,,,,,,,,,,,,,,,,,,,,,,,,,0,0,0,0,0
4.3271,1783369703.7487,1,1,1.0000,0.0000,1.42060,0.12969,-2.66994,1.01769,1.56172,0.11664,-0.13244,-0.45934,0.06816,,,,,,,,,,,,,,,,,,,,,,,,,,0,0,0,0,0
4.3274,1783369703.7490,1,1,1.0000,0.0000,1.42060,0.12969,-2.66994,1.01769,1.56172,0.11664,-0.13244,-0.45934,0.06816,,,,,,,,,,,,,,,,,,,,,,,,,,0,0,0,0,0
4.3398,1783369703.7614,1,1,1.0000,0.0000,1.42051,0.12962,-2.66998,1.01758,1.56195,0.11682,-0.13236,-0.45928,0.06809,,,,,,,,,,,,,,,,,,,,,,,,,,0,0,0,0,0
4.3567,1783369703.7782,1,1,1.0000,0.0000,1.42051,0.12951,-2.67000,1.01774,1.56195,0.11682,-0.13236,-0.45930,0.06806,,,,,,,,,,,,,,,,,,,,,,,,,,0,0,0,0,0
4.3627,1783369703.7842,1,1,1.0000,0.0000,1.42051,0.12948,-2.67001,1.01779,1.56195,0.11682,-0.13236,-0.45930,0.06805,,,,,,,,,,,,,,,,,,,,,,,,,,0,0,0,0,0
4.3684,1783369703.7900,1,1,1.0000,0.0000,1.42060,0.12945,-2.66998,1.01802,1.56172,0.11664,-0.13243,-0.45937,0.06810,,,,,,,,,,,,,,,,,,,,,,,,,,0,0,0,0,0
4.3843,1783369703.8058,1,1,1.0000,0.0000,1.42060,0.12938,-2.67001,1.01813,1.56173,0.11664,-0.13243,-0.45937,0.06808,,,,,,,,,,,,,,,,,,,,,,,,,,0,0,0,0,0
4.3878,1783369703.8094,1,1,1.0000,0.0000,1.42052,0.12935,-2.67005,1.01797,1.56195,0.11681,-0.13236,-0.45930,0.06801,,,,,,,,,,,,,,,,,,,,,,,,,,0,0,0,0,0
4.3976,1783369703.8192,1,1,1.0000,0.0000,1.42052,0.12925,-2.67008,1.01809,1.56195,0.11681,-0.13236,-0.45930,0.06798,,,,,,,,,,,,,,,,,,,,,,,,,,0,0,0,0,0
4.4067,1783369703.8283,1,1,1.0000,0.0000,1.42060,0.12912,-2.67010,1.01845,1.56173,0.11664,-0.13243,-0.45935,0.06798,,,,,,,,,,,,,,,,,,,,,,,,,,0,0,0,0,0
4.4074,1783369703.8289,1,1,1.0000,0.0000,1.42060,0.12912,-2.67010,1.01845,1.56173,0.11664,-0.13243,-0.45935,0.06798,,,,,,,,,,,,,,,,,,,,,,,,,,0,0,0,0,0
4.4192,1783369703.8407,1,1,1.0000,0.0000,1.42051,0.12887,-2.67020,1.01856,1.56195,0.11681,-0.13236,-0.45928,0.06784,,,,,,,,,,,,,,,,,,,,,,,,,,0,0,0,0,0
4.4277,1783369703.8493,1,1,1.0000,0.0000,1.42051,0.12867,-2.67026,1.01881,1.56195,0.11681,-0.13236,-0.45928,0.06777,,,,,,,,,,,,,,,,,,,,,,,,,,0,0,0,0,0
4.4367,1783369703.8582,1,1,1.0000,0.0000,1.42052,0.12856,-2.67029,1.01894,1.56195,0.11681,-0.13236,-0.45928,0.06773,,,,,,,,,,,,,,,,,,,,,,,,,,0,0,0,0,0
4.4473,1783369703.8688,1,1,1.0000,0.0000,1.42060,0.12817,-2.67036,1.01961,1.56173,0.11663,-0.13243,-0.45934,0.06766,,,,,,,,,,,,,,,,,,,,,,,,,,0,0,0,0,0
4.4591,1783369703.8807,1,1,1.0000,0.0000,1.42052,0.12775,-2.67049,1.01994,1.56195,0.11680,-0.13236,-0.45929,0.06747,,,,,,,,,,,,,,,,,,,,,,,,,,0,0,0,0,0
4.4668,1783369703.8883,1,1,1.0000,0.0000,1.42052,0.12759,-2.67053,1.02012,1.56196,0.11681,-0.13236,-0.45929,0.06741,,,,,,,,,,,,,,,,,,,,,,,,,,0,0,0,0,0
4.4778,1783369703.8994,1,1,1.0000,0.0000,1.42060,0.12708,-2.67063,1.02096,1.56173,0.11662,-0.13243,-0.45936,0.06730,,,,,,,,,,,,,,,,,,,,,,,,,,0,0,0,0,0
4.4868,1783369703.9083,1,1,1.0000,0.0000,1.42061,0.12690,-2.67067,1.02118,1.56172,0.11661,-0.13243,-0.45937,0.06725,,,,,,,,,,,,,,,,,,,,,,,,,,0,0,0,0,0
4.4986,1783369703.9202,1,1,1.0000,0.0000,1.42052,0.12634,-2.67083,1.02167,1.56195,0.11679,-0.13236,-0.45931,0.06701,,,,,,,,,,,,,,,,,,,,,,,,,,0,0,0,0,0
4.5082,1783369703.9298,1,1,1.0000,0.0000,1.42052,0.12593,-2.67093,1.02217,1.56196,0.11679,-0.13236,-0.45931,0.06688,,,,,,,,,,,,,,,,,,,,,,,,,,0,0,0,0,0
4.5158,1783369703.9373,1,1,1.0000,0.0000,1.42052,0.12553,-2.67103,1.02266,1.56196,0.11679,-0.13235,-0.45932,0.06675,,,,,,,,,,,,,,,,,,,,,,,,,,0,0,0,0,0
4.5287,1783369703.9503,1,1,1.0000,0.0000,1.42061,0.12515,-2.67110,1.02333,1.56173,0.11660,-0.13243,-0.45939,0.06668,,,,,,,,,,,,,,,,,,,,,,,,,,0,0,0,0,0
4.5446,1783369703.9661,1,1,1.0000,0.0000,1.42061,0.12454,-2.67124,1.02408,1.56173,0.11660,-0.13243,-0.45940,0.06649,,,,,,,,,,,,,,,,,,,,,,,,,,0,0,0,0,0
4.5481,1783369703.9697,1,1,1.0000,0.0000,1.42053,0.12443,-2.67130,1.02402,1.56196,0.11678,-0.13235,-0.45934,0.06639,,,,,,,,,,,,,,,,,,,,,,,,,,0,0,0,0,0
4.5486,1783369703.9702,1,1,1.0000,0.0000,1.42053,0.12443,-2.67130,1.02402,1.56196,0.11678,-0.13235,-0.45934,0.06639,,,,,,,,,,,,,,,,,,,,,,,,,,0,0,0,0,0
4.5645,1783369703.9861,1,1,1.0000,0.0000,1.42053,0.12410,-2.67137,1.02443,1.56196,0.11677,-0.13235,-0.45934,0.06629,,,,,,,,,,,,,,,,,,,,,,,,,,0,0,0,0,0
4.5688,1783369703.9903,1,1,1.0000,0.0000,1.42061,0.12400,-2.67137,1.02475,1.56174,0.11660,-0.13242,-0.45941,0.06631,,,,,,,,,,,,,,,,,,,,,,,,,,0,0,0,0,0
4.5837,1783369704.0053,1,1,1.0000,0.0000,1.42062,0.12371,-2.67144,1.02513,1.56173,0.11659,-0.13243,-0.45942,0.06623,,,,,,,,,,,,,,,,,,,,,,,,,,0,0,0,0,0
4.5881,1783369704.0097,1,1,1.0000,0.0000,1.42053,0.12367,-2.67148,1.02499,1.56196,0.11677,-0.13235,-0.45936,0.06616,,,,,,,,,,,,,,,,,,,,,,,,,,0,0,0,0,0
4.5958,1783369704.0174,1,1,1.0000,0.0000,1.42053,0.12356,-2.67150,1.02513,1.56196,0.11676,-0.13235,-0.45936,0.06613,,,,,,,,,,,,,,,,,,,,,,,,,,0,0,0,0,0
4.6081,1783369704.0296,1,1,1.0000,0.0000,1.42062,0.12342,-2.67150,1.02552,1.56173,0.11658,-0.13242,-0.45944,0.06614,,,,,,,,,,,,,,,,,,,,,,,,,,0,0,0,0,0
4.6167,1783369704.0382,1,1,1.0000,0.0000,1.42062,0.12338,-2.67151,1.02557,1.56173,0.11658,-0.13242,-0.45944,0.06613,,,,,,,,,,,,,,,,,,,,,,,,,,0,0,0,0,0
4.6344,1783369704.0559,1,1,1.0000,0.0000,1.42062,0.12327,-2.67152,1.02572,1.56173,0.11658,-0.13242,-0.45945,0.06611,,,,,,,,,,,,,,,,,,,,,,,,,,0,0,0,0,0
4.6408,1783369704.0624,1,1,1.0000,0.0000,1.42062,0.12326,-2.67153,1.02574,1.56174,0.11658,-0.13242,-0.45945,0.06610,,,,,,,,,,,,,,,,,,,,,,,,,,0,0,0,0,0
4.6461,1783369704.0676,1,1,1.0000,0.0000,1.42053,0.12325,-2.67156,1.02556,1.56197,0.11676,-0.13234,-0.45939,0.06604,,,,,,,,,,,,,,,,,,,,,,,,,,0,0,0,0,0
4.6595,1783369704.0811,1,1,1.0000,0.0000,1.42053,0.12312,-2.67160,1.02573,1.56196,0.11676,-0.13234,-0.45939,0.06600,,,,,,,,,,,,,,,,,,,,,,,,,,0,0,0,0,0
4.6712,1783369704.0927,1,1,1.0000,0.0000,1.42062,0.12303,-2.67160,1.02605,1.56175,0.11659,-0.13242,-0.45945,0.06602,,,,,,,,,,,,,,,,,,,,,,,,,,0,0,0,0,0
4.6801,1783369704.1017,1,1,1.0000,0.0000,1.42062,0.12291,-2.67164,1.02620,1.56175,0.11658,-0.13242,-0.45945,0.06598,,,,,,,,,,,,,,,,,,,,,,,,,,0,0,0,0,0
4.6874,1783369704.1090,1,1,1.0000,0.0000,1.42062,0.12275,-2.67168,1.02639,1.56173,0.11657,-0.13242,-0.45945,0.06593,,,,,,,,,,,,,,,,,,,,,,,,,,0,0,0,0,0
4.6958,1783369704.1174,1,1,1.0000,0.0000,1.42062,0.12257,-2.67173,1.02660,1.56174,0.11658,-0.13242,-0.45944,0.06587,,,,,,,,,,,,,,,,,,,,,,,,,,0,0,0,0,0
4.7111,1783369704.1326,1,1,1.0000,0.0000,1.42062,0.12225,-2.67181,1.02700,1.56174,0.11658,-0.13242,-0.45944,0.06576,,,,,,,,,,,,,,,,,,,,,,,,,,0,0,0,0,0
4.7209,1783369704.1425,1,1,1.0000,0.0000,1.42062,0.12199,-2.67187,1.02731,1.56174,0.11657,-0.13242,-0.45944,0.06567,,,,,,,,,,,,,,,,,,,,,,,,,,0,0,0,0,0
4.7293,1783369704.1508,1,1,1.0000,0.0000,1.42062,0.12186,-2.67191,1.02747,1.56175,0.11658,-0.13242,-0.45945,0.06563,,,,,,,,,,,,,,,,,,,,,,,,,,0,0,0,0,0
4.7300,1783369704.1516,1,1,1.0000,0.0000,1.42062,0.12186,-2.67191,1.02747,1.56175,0.11658,-0.13242,-0.45945,0.06563,,,,,,,,,,,,,,,,,,,,,,,,,,0,0,0,0,0
4.7406,1783369704.1622,1,1,1.0000,0.0000,1.42054,0.12141,-2.67203,1.02781,1.56196,0.11674,-0.13235,-0.45939,0.06544,,,,,,,,,,,,,,,,,,,,,,,,,,0,0,0,0,0
4.7524,1783369704.1740,1,1,1.0000,0.0000,1.42062,0.12091,-2.67212,1.02862,1.56174,0.11656,-0.13242,-0.45947,0.06533,,,,,,,,,,,,,,,,,,,,,,,,,,0,0,0,0,0
4.7875,1783369704.2091,1,1,1.0000,0.0000,1.42054,0.11956,-2.67247,1.03007,1.56197,0.11673,-0.13234,-0.45942,0.06484,,,,,,,,,,,,,,,,,,,,,,,,,,0,0,0,0,0
4.7884,1783369704.2100,1,1,1.0000,0.0000,1.42054,0.11956,-2.67247,1.03007,1.56197,0.11673,-0.13234,-0.45942,0.06484,,,,,,,,,,,,,,,,,,,,,,,,,,0,0,0,0,0
4.7897,1783369704.2113,1,1,1.0000,0.0000,1.42054,0.11956,-2.67247,1.03007,1.56197,0.11673,-0.13234,-0.45942,0.06484,,,,,,,,,,,,,,,,,,,,,,,,,,0,0,0,0,0
4.7917,1783369704.2132,1,1,1.0000,0.0000,1.42063,0.11956,-2.67245,1.03029,1.56175,0.11656,-0.13241,-0.45948,0.06489,,,,,,,,,,,,,,,,,,,,,,,,,,0,0,0,0,0
4.8026,1783369704.2241,1,1,1.0000,0.0000,1.42055,0.11906,-2.67260,1.03069,1.56197,0.11673,-0.13234,-0.45942,0.06468,,,,,,,,,,,,,,,,,,,,,,,,,,0,0,0,0,0
4.8125,1783369704.2340,1,1,1.0000,0.0000,1.42063,0.11890,-2.67261,1.03110,1.56175,0.11655,-0.13241,-0.45949,0.06468,,,,,,,,,,,,,,,,,,,,,,,,,,0,0,0,0,0
4.8227,1783369704.2443,1,1,1.0000,0.0000,1.42063,0.11844,-2.67272,1.03167,1.56174,0.11654,-0.13242,-0.45950,0.06453,,,,,,,,,,,,,,,,,,,,,,,,,,0,0,0,0,0
4.8315,1783369704.2531,1,1,1.0000,0.0000,1.42063,0.11816,-2.67279,1.03201,1.56175,0.11655,-0.13241,-0.45950,0.06445,,,,,,,,,,,,,,,,,,,,,,,,,,0,0,0,0,0
4.8322,1783369704.2537,1,1,1.0000,0.0000,1.42063,0.11816,-2.67279,1.03201,1.56175,0.11655,-0.13241,-0.45950,0.06445,,,,,,,,,,,,,,,,,,,,,,,,,,0,0,0,0,0
4.8426,1783369704.2642,1,1,1.0000,0.0000,1.42055,0.11780,-2.67290,1.03228,1.56197,0.11671,-0.13234,-0.45945,0.06428,,,,,,,,,,,,,,,,,,,,,,,,,,0,0,0,0,0
4.8513,1783369704.2728,1,1,1.0000,0.0000,1.42055,0.11769,-2.67293,1.03242,1.56197,0.11671,-0.13234,-0.45945,0.06425,,,,,,,,,,,,,,,,,,,,,,,,,,0,0,0,0,0
4.8600,1783369704.2816,1,1,1.0000,0.0000,1.42055,0.11750,-2.67296,1.03265,1.56197,0.11671,-0.13234,-0.45946,0.06419,,,,,,,,,,,,,,,,,,,,,,,,,,0,0,0,0,0
4.8763,1783369704.2979,1,1,1.0000,0.0000,1.42056,0.11725,-2.67300,1.03297,1.56197,0.11670,-0.13234,-0.45948,0.06412,,,,,,,,,,,,,,,,,,,,,,,,,,0,0,0,0,0
4.8806,1783369704.3021,1,1,1.0000,0.0000,1.42064,0.11724,-2.67298,1.03318,1.56175,0.11653,-0.13241,-0.45954,0.06417,,,,,,,,,,,,,,,,,,,,,,,,,,0,0,0,0,0
4.8907,1783369704.3122,1,1,1.0000,0.0000,1.42056,0.11714,-2.67302,1.03312,1.56197,0.11670,-0.13233,-0.45949,0.06410,,,,,,,,,,,,,,,,,,,,,,,,,,0,0,0,0,0
4.8916,1783369704.3131,1,1,1.0000,0.0000,1.42056,0.11714,-2.67302,1.03312,1.56197,0.11670,-0.13233,-0.45949,0.06410,,,,,,,,,,,,,,,,,,,,,,,,,,0,0,0,0,0
4.8998,1783369704.3214,1,1,1.0000,0.0000,1.42055,0.11709,-2.67302,1.03318,1.56197,0.11671,-0.13233,-0.45950,0.06409,,,,,,,,,,,,,,,,,,,,,,,,,,0,0,0,0,0
4.9010,1783369704.3226,1,1,1.0000,0.0000,1.42055,0.11709,-2.67302,1.03318,1.56197,0.11671,-0.13233,-0.45950,0.06409,,,,,,,,,,,,,,,,,,,,,,,,,,0,0,0,0,0
4.9107,1783369704.3323,1,1,1.0000,0.0000,1.42064,0.11704,-2.67300,1.03346,1.56175,0.11653,-0.13240,-0.45957,0.06413,,,,,,,,,,,,,,,,,,,,,,,,,,0,0,0,0,0
4.9227,1783369704.3442,1,1,1.0000,0.0000,1.42055,0.11699,-2.67305,1.03333,1.56198,0.11671,-0.13233,-0.45951,0.06406,,,,,,,,,,,,,,,,,,,,,,,,,,0,0,0,0,0
4.9353,1783369704.3568,1,1,1.0000,0.0000,1.42064,0.11689,-2.67306,1.03366,1.56176,0.11653,-0.13240,-0.45956,0.06408,,,,,,,,,,,,,,,,,,,,,,,,,,0,0,0,0,0
4.9434,1783369704.3650,1,1,1.0000,0.0000,1.42064,0.11686,-2.67307,1.03371,1.56176,0.11653,-0.13240,-0.45956,0.06406,,,,,,,,,,,,,,,,,,,,,,,,,,0,0,0,0,0
4.9565,1783369704.3780,1,1,1.0000,0.0000,1.42055,0.11671,-2.67315,1.03370,1.56198,0.11670,-0.13233,-0.45949,0.06395,,,,,,,,,,,,,,,,,,,,,,,,,,0,0,0,0,0
4.9627,1783369704.3842,1,1,1.0000,0.0000,1.42056,0.11657,-2.67320,1.03388,1.56197,0.11670,-0.13234,-0.45948,0.06390,,,,,,,,,,,,,,,,,,,,,,,,,,0,0,0,0,0
4.9634,1783369704.3850,1,1,1.0000,0.0000,1.42056,0.11657,-2.67320,1.03388,1.56197,0.11670,-0.13234,-0.45948,0.06390,,,,,,,,,,,,,,,,,,,,,,,,,,0,0,0,0,0
4.9730,1783369704.3946,1,1,1.0000,0.0000,1.42056,0.11648,-2.67322,1.03397,1.56197,0.11670,-0.13234,-0.45948,0.06387,,,,,,,,,,,,,,,,,,,,,,,,,,0,0,0,0,0
4.9870,1783369704.4085,1,1,1.0000,0.0000,1.42056,0.11606,-2.67333,1.03448,1.56197,0.11669,-0.13234,-0.45948,0.06373,,,,,,,,,,,,,,,,,,,,,,,,,,0,0,0,0,0
4.9954,1783369704.4169,1,1,1.0000,0.0000,1.42056,0.11594,-2.67336,1.03463,1.56198,0.11670,-0.13233,-0.45948,0.06369,,,,,,,,,,,,,,,,,,,,,,,,,,0,0,0,0,0
5.0046,1783369704.4262,1,1,1.0000,0.0000,1.42056,0.11565,-2.67343,1.03498,1.56197,0.11669,-0.13234,-0.45948,0.06360,,,,,,,,,,,,,,,,,,,,,,,,,,0,0,0,0,0
5.0133,1783369704.4348,1,1,1.0000,0.0000,1.42056,0.11532,-2.67351,1.03539,1.56197,0.11669,-0.13234,-0.45948,0.06349,,,,,,,,,,,,,,,,,,,,,,,,,,0,0,0,0,0
5.0263,1783369704.4479,1,1,1.0000,0.0000,1.42064,0.11475,-2.67361,1.03627,1.56176,0.11652,-0.13240,-0.45955,0.06336,,,,,,,,,,,,,,,,,,,,,,,,,,0,0,0,0,0
5.0351,1783369704.4566,1,1,1.0000,0.0000,1.42056,0.11439,-2.67372,1.03652,1.56198,0.11669,-0.13233,-0.45950,0.06320,,,,,,,,,,,,,,,,,,,,,,,,,,0,0,0,0,0
5.0356,1783369704.4571,1,1,1.0000,0.0000,1.42056,0.11439,-2.67372,1.03652,1.56198,0.11669,-0.13233,-0.45950,0.06320,,,,,,,,,,,,,,,,,,,,,,,,,,0,0,0,0,0
5.0442,1783369704.4657,1,1,1.0000,0.0000,1.42056,0.11401,-2.67381,1.03698,1.56197,0.11668,-0.13233,-0.45951,0.06308,,,,,,,,,,,,,,,,,,,,,,,,,,0,0,0,0,0
5.0557,1783369704.4772,1,1,1.0000,0.0000,1.42065,0.11345,-2.67391,1.03786,1.56176,0.11651,-0.13240,-0.45958,0.06295,,,,,,,,,,,,,,,,,,,,,,,,,,0,0,0,0,0
5.0567,1783369704.4782,1,1,1.0000,0.0000,1.42065,0.11345,-2.67391,1.03786,1.56176,0.11651,-0.13240,-0.45958,0.06295,,,,,,,,,,,,,,,,,,,,,,,,,,0,0,0,0,0
5.0723,1783369704.4938,1,1,1.0000,0.0000,1.42065,0.11292,-2.67404,1.03851,1.56176,0.11650,-0.13240,-0.45958,0.06278,,,,,,,,,,,,,,,,,,,,,,,,,,0,0,0,0,0
5.0726,1783369704.4942,1,1,1.0000,0.0000,1.42065,0.11292,-2.67404,1.03851,1.56176,0.11650,-0.13240,-0.45958,0.06278,,,,,,,,,,,,,,,,,,,,,,,,,,0,0,0,0,0
5.0737,1783369704.4952,1,1,1.0000,0.0000,1.42065,0.11292,-2.67404,1.03851,1.56176,0.11650,-0.13240,-0.45958,0.06278,,,,,,,,,,,,,,,,,,,,,,,,,,0,0,0,0,0
5.0896,1783369704.5111,1,1,1.0000,0.0000,1.42065,0.11226,-2.67419,1.03932,1.56175,0.11649,-0.13241,-0.45959,0.06258,,,,,,,,,,,,,,,,,,,,,,,,,,0,0,0,0,0
5.0934,1783369704.5149,1,1,1.0000,0.0000,1.42057,0.11213,-2.67425,1.03928,1.56198,0.11667,-0.13233,-0.45953,0.06248,,,,,,,,,,,,,,,,,,,,,,,,,,0,0,0,0,0
5.1036,1783369704.5252,1,1,1.0000,0.0000,1.42065,0.11184,-2.67429,1.03983,1.56176,0.11649,-0.13240,-0.45960,0.06244,,,,,,,,,,,,,,,,,,,,,,,,,,0,0,0,0,0
5.1158,1783369704.5374,1,1,1.0000,0.0000,1.42057,0.11151,-2.67439,1.04004,1.56197,0.11665,-0.13233,-0.45954,0.06229,,,,,,,,,,,,,,,,,,,,,,,,,,0,0,0,0,0
5.1255,1783369704.5470,1,1,1.0000,0.0000,1.42057,0.11134,-2.67444,1.04026,1.56198,0.11666,-0.13233,-0.45954,0.06223,,,,,,,,,,,,,,,,,,,,,,,,,,0,0,0,0,0
5.1359,1783369704.5574,1,1,1.0000,0.0000,1.42065,0.11109,-2.67447,1.04076,1.56177,0.11649,-0.13240,-0.45961,0.06220,,,,,,,,,,,,,,,,,,,,,,,,,,0,0,0,0,0
5.1485,1783369704.5700,1,1,1.0000,0.0000,1.42057,0.11092,-2.67453,1.04080,1.56198,0.11665,-0.13233,-0.45955,0.06210,,,,,,,,,,,,,,,,,,,,,,,,,,0,0,0,0,0
5.1496,1783369704.5712,1,1,1.0000,0.0000,1.42057,0.11092,-2.67453,1.04080,1.56198,0.11665,-0.13233,-0.45955,0.06210,,,,,,,,,,,,,,,,,,,,,,,,,,0,0,0,0,0
5.1644,1783369704.5860,1,1,1.0000,0.0000,1.42057,0.11079,-2.67456,1.04097,1.56198,0.11665,-0.13233,-0.45956,0.06206,,,,,,,,,,,,,,,,,,,,,,,,,,0,0,0,0,0
5.1652,1783369704.5868,1,1,1.0000,0.0000,1.42057,0.11079,-2.67456,1.04097,1.56198,0.11665,-0.13233,-0.45956,0.06206,,,,,,,,,,,,,,,,,,,,,,,,,,0,0,0,0,0
5.1756,1783369704.5972,1,1,1.0000,0.0000,1.42066,0.11072,-2.67454,1.04125,1.56176,0.11648,-0.13240,-0.45964,0.06210,,,,,,,,,,,,,,,,,,,,,,,,,,0,0,0,0,0
5.1768,1783369704.5984,1,1,1.0000,0.0000,1.42066,0.11072,-2.67454,1.04125,1.56176,0.11648,-0.13240,-0.45964,0.06210,,,,,,,,,,,,,,,,,,,,,,,,,,0,0,0,0,0
5.1859,1783369704.6075,1,1,1.0000,0.0000,1.42065,0.11069,-2.67454,1.04129,1.56177,0.11648,-0.13239,-0.45964,0.06210,,,,,,,,,,,,,,,,,,,,,,,,,,0,0,0,0,0
5.1930,1783369704.6146,1,1,1.0000,0.0000,1.42065,0.11065,-2.67455,1.04135,1.56177,0.11648,-0.13239,-0.45965,0.06209,,,,,,,,,,,,,,,,,,,,,,,,,,0,0,0,0,0
5.2072,1783369704.6287,1,1,1.0000,0.0000,1.42066,0.11059,-2.67456,1.04145,1.56177,0.11648,-0.13239,-0.45965,0.06207,,,,,,,,,,,,,,,,,,,,,,,,,,0,0,0,0,0
5.2142,1783369704.6358,1,1,1.0000,0.0000,1.42057,0.11058,-2.67460,1.04127,1.56199,0.11665,-0.13232,-0.45958,0.06201,,,,,,,,,,,,,,,,,,,,,,,,,,0,0,0,0,0
5.2247,1783369704.6463,1,1,1.0000,0.0000,1.42065,0.11044,-2.67461,1.04164,1.56177,0.11648,-0.13239,-0.45964,0.06201,,,,,,,,,,,,,,,,,,,,,,,,,,0,0,0,0,0
5.2383,1783369704.6598,1,1,1.0000,0.0000,1.42057,0.11027,-2.67469,1.04165,1.56199,0.11665,-0.13232,-0.45957,0.06190,,,,,,,,,,,,,,,,,,,,,,,,,,0,0,0,0,0
5.2494,1783369704.6710,1,1,1.0000,0.0000,1.42066,0.11009,-2.67471,1.04206,1.56177,0.11648,-0.13240,-0.45963,0.06190,,,,,,,,,,,,,,,,,,,,,,,,,,0,0,0,0,0
5.2556,1783369704.6772,1,1,1.0000,0.0000,1.42066,0.10989,-2.67476,1.04231,1.56176,0.11647,-0.13240,-0.45963,0.06183,,,,,,,,,,,,,,,,,,,,,,,,,,0,0,0,0,0
5.2657,1783369704.6872,1,1,1.0000,0.0000,1.42066,0.10965,-2.67482,1.04260,1.56178,0.11648,-0.13239,-0.45963,0.06175,,,,,,,,,,,,,,,,,,,,,,,,,,0,0,0,0,0
5.2670,1783369704.6886,1,1,1.0000,0.0000,1.42058,0.10966,-2.67485,1.04239,1.56198,0.11664,-0.13233,-0.45957,0.06170,,,,,,,,,,,,,,,,,,,,,,,,,,0,0,0,0,0
5.2779,1783369704.6994,1,1,1.0000,0.0000,1.42058,0.10937,-2.67491,1.04273,1.56199,0.11664,-0.13232,-0.45958,0.06161,,,,,,,,,,,,,,,,,,,,,,,,,,0,0,0,0,0
5.2900,1783369704.7116,1,1,1.0000,0.0000,1.42066,0.10887,-2.67499,1.04354,1.56176,0.11647,-0.13240,-0.45965,0.06151,,,,,,,,,,,,,,,,,,,,,,,,,,0,0,0,0,0
5.2944,1783369704.7159,1,1,1.0000,0.0000,1.42058,0.10871,-2.67506,1.04353,1.56199,0.11664,-0.13232,-0.45959,0.06140,,,,,,,,,,,,,,,,,,,,,,,,,,0,0,0,0,0
5.3041,1783369704.7256,1,1,1.0000,0.0000,1.42066,0.10835,-2.67511,1.04417,1.56178,0.11647,-0.13239,-0.45966,0.06134,,,,,,,,,,,,,,,,,,,,,,,,,,0,0,0,0,0
5.3172,1783369704.7388,1,1,1.0000,0.0000,1.42058,0.10782,-2.67525,1.04462,1.56198,0.11663,-0.13232,-0.45961,0.06113,,,,,,,,,,,,,,,,,,,,,,,,,,0,0,0,0,0
5.3403,1783369704.7618,1,1,1.0000,0.0000,1.42058,0.10692,-2.67546,1.04570,1.56199,0.11663,-0.13232,-0.45961,0.06084,,,,,,,,,,,,,,,,,,,,,,,,,,0,0,0,0,0
5.3435,1783369704.7651,1,1,1.0000,0.0000,1.42067,0.10673,-2.67548,1.04614,1.56177,0.11645,-0.13239,-0.45968,0.06083,,,,,,,,,,,,,,,,,,,,,,,,,,0,0,0,0,0
5.3445,1783369704.7660,1,1,1.0000,0.0000,1.42067,0.10673,-2.67548,1.04614,1.56177,0.11645,-0.13239,-0.45968,0.06083,,,,,,,,,,,,,,,,,,,,,,,,,,0,0,0,0,0
5.3466,1783369704.7681,1,1,1.0000,0.0000,1.42067,0.10673,-2.67548,1.04614,1.56177,0.11645,-0.13239,-0.45968,0.06083,,,,,,,,,,,,,,,,,,,,,,,,,,0,0,0,0,0
5.3470,1783369704.7686,1,1,1.0000,0.0000,1.42067,0.10673,-2.67548,1.04614,1.56177,0.11645,-0.13239,-0.45968,0.06083,,,,,,,,,,,,,,,,,,,,,,,,,,0,0,0,0,0
5.4057,1783369704.8272,1,1,1.0000,0.0000,1.42059,0.10491,-2.67593,1.04818,1.56199,0.11661,-0.13232,-0.45964,0.06020,,,,,,,,,,,,,,,,,,,,,,,,,,0,0,0,0,0
5.4075,1783369704.8290,1,1,1.0000,0.0000,1.42067,0.10481,-2.67592,1.04850,1.56178,0.11644,-0.13239,-0.45971,0.06023,,,,,,,,,,,,,,,,,,,,,,,,,,0,0,0,0,0
5.4081,1783369704.8297,1,1,1.0000,0.0000,1.42067,0.10481,-2.67592,1.04850,1.56178,0.11644,-0.13239,-0.45971,0.06023,,,,,,,,,,,,,,,,,,,,,,,,,,0,0,0,0,0
5.5084,1783369704.9300,1,1,1.0000,0.0000,1.42060,0.10404,-2.67611,1.04932,1.56200,0.11659,-0.13231,-0.45969,0.05995,,,,,,,,,,,,,,,,,,,,,,,,,,0,0,0,0,0
5.5103,1783369704.9319,1,1,1.0000,0.0000,1.42060,0.10404,-2.67611,1.04932,1.56200,0.11659,-0.13231,-0.45969,0.05995,,,,,,,,,,,,,,,,,,,,,,,,,,0,0,0,0,0
5.5111,1783369704.9326,1,1,1.0000,0.0000,1.42067,0.10402,-2.67609,1.04954,1.56178,0.11643,-0.13238,-0.45975,0.06000,,,,,,,,,,,,,,,,,,,,,,,,,,0,0,0,0,0
5.5116,1783369704.9332,1,1,1.0000,0.0000,1.42067,0.10402,-2.67609,1.04954,1.56178,0.11643,-0.13238,-0.45975,0.06000,,,,,,,,,,,,,,,,,,,,,,,,,,0,0,0,0,0
5.5172,1783369704.9388,1,1,1.0000,0.0000,1.42060,0.10397,-2.67613,1.04940,1.56199,0.11659,-0.13231,-0.45968,0.05993,,,,,,,,,,,,,,,,,,,,,,,,,,0,0,0,0,0
5.5276,1783369704.9491,1,1,1.0000,0.0000,1.42067,0.10370,-2.67618,1.04993,1.56179,0.11643,-0.13238,-0.45974,0.05989,,,,,,,,,,,,,,,,,,,,,,,,,,0,0,0,0,0
5.5337,1783369704.9553,1,1,1.0000,0.0000,1.42060,0.10361,-2.67623,1.04985,1.56199,0.11659,-0.13231,-0.45968,0.05981,,,,,,,,,,,,,,,,,,,,,,,,,,0,0,0,0,0
5.5499,1783369704.9715,1,1,1.0000,0.0000,1.42060,0.10322,-2.67632,1.05032,1.56200,0.11659,-0.13231,-0.45968,0.05968,,,,,,,,,,,,,,,,,,,,,,,,,,0,0,0,0,0
5.5537,1783369704.9753,1,1,1.0000,0.0000,1.42068,0.10304,-2.67634,1.05073,1.56179,0.11642,-0.13238,-0.45974,0.05968,,,,,,,,,,,,,,,,,,,,,,,,,,0,0,0,0,0
5.5690,1783369704.9906,1,1,1.0000,0.0000,1.42068,0.10234,-2.67650,1.05158,1.56179,0.11642,-0.13238,-0.45975,0.05946,,,,,,,,,,,,,,,,,,,,,,,,,,0,0,0,0,0
5.5738,1783369704.9953,1,1,1.0000,0.0000,1.42060,0.10235,-2.67652,1.05137,1.56200,0.11658,-0.13231,-0.45969,0.05941,,,,,,,,,,,,,,,,,,,,,,,,,,0,0,0,0,0
5.5840,1783369705.0056,1,1,1.0000,0.0000,1.42068,0.10180,-2.67661,1.05223,1.56178,0.11641,-0.13238,-0.45976,0.05929,,,,,,,,,,,,,,,,,,,,,,,,,,0,0,0,0,0
5.5961,1783369705.0176,1,1,1.0000,0.0000,1.42060,0.10132,-2.67675,1.05262,1.56200,0.11657,-0.13231,-0.45970,0.05909,,,,,,,,,,,,,,,,,,,,,,,,,,0,0,0,0,0
5.6074,1783369705.0289,1,1,1.0000,0.0000,1.42068,0.10096,-2.67680,1.05324,1.56178,0.11641,-0.13238,-0.45977,0.05903,,,,,,,,,,,,,,,,,,,,,,,,,,0,0,0,0,0
5.6190,1783369705.0405,1,1,1.0000,0.0000,1.42061,0.10047,-2.67694,1.05363,1.56200,0.11657,-0.13231,-0.45971,0.05882,,,,,,,,,,,,,,,,,,,,,,,,,,0,0,0,0,0
5.6276,1783369705.0491,1,1,1.0000,0.0000,1.42061,0.10030,-2.67698,1.05384,1.56200,0.11657,-0.13231,-0.45971,0.05877,,,,,,,,,,,,,,,,,,,,,,,,,,0,0,0,0,0
5.6294,1783369705.0510,1,1,1.0000,0.0000,1.42061,0.10030,-2.67698,1.05384,1.56200,0.11657,-0.13231,-0.45971,0.05877,,,,,,,,,,,,,,,,,,,,,,,,,,0,0,0,0,0
5.6358,1783369705.0574,1,1,1.0000,0.0000,1.42061,0.09996,-2.67705,1.05426,1.56200,0.11656,-0.13231,-0.45972,0.05866,,,,,,,,,,,,,,,,,,,,,,,,,,0,0,0,0,0
5.6475,1783369705.0690,1,1,1.0000,0.0000,1.42069,0.09945,-2.67714,1.05507,1.56179,0.11640,-0.13238,-0.45979,0.05855,,,,,,,,,,,,,,,,,,,,,,,,,,0,0,0,0,0
5.6482,1783369705.0698,1,1,1.0000,0.0000,1.42069,0.09945,-2.67714,1.05507,1.56179,0.11640,-0.13238,-0.45979,0.05855,,,,,,,,,,,,,,,,,,,,,,,,,,0,0,0,0,0
5.6557,1783369705.0773,1,1,1.0000,0.0000,1.42069,0.09914,-2.67721,1.05545,1.56179,0.11640,-0.13237,-0.45979,0.05845,,,,,,,,,,,,,,,,,,,,,,,,,,0,0,0,0,0
5.6653,1783369705.0869,1,1,1.0000,0.0000,1.42069,0.09899,-2.67724,1.05563,1.56178,0.11639,-0.13238,-0.45980,0.05841,,,,,,,,,,,,,,,,,,,,,,,,,,0,0,0,0,0
5.6873,1783369705.1088,1,1,1.0000,0.0000,1.42069,0.09839,-2.67737,1.05638,1.56179,0.11639,-0.13237,-0.45981,0.05823,,,,,,,,,,,,,,,,,,,,,,,,,,0,0,0,0,0
5.6878,1783369705.1093,1,1,1.0000,0.0000,1.42069,0.09839,-2.67737,1.05638,1.56179,0.11639,-0.13237,-0.45981,0.05823,,,,,,,,,,,,,,,,,,,,,,,,,,0,0,0,0,0
5.6972,1783369705.1188,1,1,1.0000,0.0000,1.42069,0.09826,-2.67740,1.05655,1.56180,0.11639,-0.13237,-0.45982,0.05819,,,,,,,,,,,,,,,,,,,,,,,,,,0,0,0,0,0
5.7047,1783369705.1262,1,1,1.0000,0.0000,1.42069,0.09815,-2.67742,1.05669,1.56179,0.11638,-0.13237,-0.45982,0.05816,,,,,,,,,,,,,,,,,,,,,,,,,,0,0,0,0,0
5.7130,1783369705.1346,1,1,1.0000,0.0000,1.42069,0.09806,-2.67744,1.05680,1.56179,0.11638,-0.13237,-0.45983,0.05813,,,,,,,,,,,,,,,,,,,,,,,,,,0,0,0,0,0
5.7234,1783369705.1449,1,1,1.0000,0.0000,1.42061,0.09801,-2.67747,1.05667,1.56201,0.11655,-0.13230,-0.45977,0.05807,,,,,,,,,,,,,,,,,,,,,,,,,,0,0,0,0,0
5.7250,1783369705.1466,1,1,1.0000,0.0000,1.42061,0.09801,-2.67747,1.05667,1.56201,0.11655,-0.13230,-0.45977,0.05807,,,,,,,,,,,,,,,,,,,,,,,,,,0,0,0,0,0
5.7367,1783369705.1583,1,1,1.0000,0.0000,1.42069,0.09793,-2.67745,1.05699,1.56180,0.11638,-0.13237,-0.45984,0.05810,,,,,,,,,,,,,,,,,,,,,,,,,,0,0,0,0,0
5.7531,1783369705.1747,1,1,1.0000,0.0000,1.42070,0.09788,-2.67746,1.05706,1.56179,0.11638,-0.13237,-0.45985,0.05809,,,,,,,,,,,,,,,,,,,,,,,,,,0,0,0,0,0
5.7548,1783369705.1764,1,1,1.0000,0.0000,1.42062,0.09789,-2.67748,1.05686,1.56201,0.11654,-0.13230,-0.45979,0.05804,,,,,,,,,,,,,,,,,,,,,,,,,,0,0,0,0,0
5.7557,1783369705.1773,1,1,1.0000,0.0000,1.42062,0.09789,-2.67748,1.05686,1.56201,0.11654,-0.13230,-0.45979,0.05804,,,,,,,,,,,,,,,,,,,,,,,,,,0,0,0,0,0
5.7743,1783369705.1958,1,1,1.0000,0.0000,1.42062,0.09777,-2.67752,1.05702,1.56201,0.11654,-0.13230,-0.45979,0.05800,,,,,,,,,,,,,,,,,,,,,,,,,,0,0,0,0,0
5.7837,1783369705.2053,1,1,1.0000,0.0000,1.42069,0.09766,-2.67753,1.05735,1.56180,0.11638,-0.13237,-0.45985,0.05801,,,,,,,,,,,,,,,,,,,,,,,,,,0,0,0,0,0
5.7882,1783369705.2097,1,1,1.0000,0.0000,1.42062,0.09762,-2.67757,1.05720,1.56201,0.11654,-0.13230,-0.45978,0.05795,,,,,,,,,,,,,,,,,,,,,,,,,,0,0,0,0,0
5.7947,1783369705.2163,1,1,1.0000,0.0000,1.42062,0.09747,-2.67761,1.05738,1.56201,0.11654,-0.13230,-0.45978,0.05790,,,,,,,,,,,,,,,,,,,,,,,,,,0,0,0,0,0
5.8057,1783369705.2272,1,1,1.0000,0.0000,1.42062,0.09729,-2.67766,1.05760,1.56201,0.11654,-0.13230,-0.45977,0.05784,,,,,,,,,,,,,,,,,,,,,,,,,,0,0,0,0,0
5.8130,1783369705.2345,1,1,1.0000,0.0000,1.42062,0.09718,-2.67768,1.05773,1.56201,0.11654,-0.13230,-0.45977,0.05780,,,,,,,,,,,,,,,,,,,,,,,,,,0,0,0,0,0
5.8244,1783369705.2460,1,1,1.0000,0.0000,1.42070,0.09674,-2.67776,1.05844,1.56180,0.11637,-0.13237,-0.45983,0.05771,,,,,,,,,,,,,,,,,,,,,,,,,,0,0,0,0,0
5.8254,1783369705.2469,1,1,1.0000,0.0000,1.42070,0.09674,-2.67776,1.05844,1.56180,0.11637,-0.13237,-0.45983,0.05771,,,,,,,,,,,,,,,,,,,,,,,,,,0,0,0,0,0
5.8361,1783369705.2576,1,1,1.0000,0.0000,1.42062,0.09626,-2.67789,1.05883,1.56201,0.11653,-0.13230,-0.45978,0.05751,,,,,,,,,,,,,,,,,,,,,,,,,,0,0,0,0,0
5.8438,1783369705.2654,1,1,1.0000,0.0000,1.42062,0.09608,-2.67793,1.05904,1.56201,0.11653,-0.13230,-0.45978,0.05745,,,,,,,,,,,,,,,,,,,,,,,,,,0,0,0,0,0
5.8550,1783369705.2765,1,1,1.0000,0.0000,1.42070,0.09552,-2.67802,1.05991,1.56179,0.11636,-0.13237,-0.45985,0.05733,,,,,,,,,,,,,,,,,,,,,,,,,,0,0,0,0,0
5.8647,1783369705.2862,1,1,1.0000,0.0000,1.42070,0.09516,-2.67810,1.06035,1.56180,0.11636,-0.13237,-0.45986,0.05722,,,,,,,,,,,,,,,,,,,,,,,,,,0,0,0,0,0
5.8768,1783369705.2983,1,1,1.0000,0.0000,1.42062,0.09481,-2.67820,1.06057,1.56201,0.11652,-0.13230,-0.45980,0.05706,,,,,,,,,,,,,,,,,,,,,,,,,,0,0,0,0,0
5.8882,1783369705.3097,1,1,1.0000,0.0000,1.42070,0.09423,-2.67831,1.06146,1.56180,0.11636,-0.13237,-0.45987,0.05693,,,,,,,,,,,,,,,,,,,,,,,,,,0,0,0,0,0
5.8934,1783369705.3149,1,1,1.0000,0.0000,1.42063,0.09407,-2.67837,1.06147,1.56201,0.11652,-0.13230,-0.45981,0.05683,,,,,,,,,,,,,,,,,,,,,,,,,,0,0,0,0,0
5.9049,1783369705.3265,1,1,1.0000,0.0000,1.42071,0.09368,-2.67843,1.06212,1.56180,0.11635,-0.13236,-0.45987,0.05676,,,,,,,,,,,,,,,,,,,,,,,,,,0,0,0,0,0
5.9135,1783369705.3351,1,1,1.0000,0.0000,1.42071,0.09333,-2.67850,1.06254,1.56180,0.11635,-0.13236,-0.45988,0.05665,,,,,,,,,,,,,,,,,,,,,,,,,,0,0,0,0,0
5.9234,1783369705.3450,1,1,1.0000,0.0000,1.42063,0.09288,-2.67863,1.06291,1.56201,0.11650,-0.13230,-0.45983,0.05646,,,,,,,,,,,,,,,,,,,,,,,,,,0,0,0,0,0
5.9337,1783369705.3552,1,1,1.0000,0.0000,1.42063,0.09273,-2.67866,1.06308,1.56201,0.11650,-0.13230,-0.45983,0.05641,,,,,,,,,,,,,,,,,,,,,,,,,,0,0,0,0,0
5.9447,1783369705.3663,1,1,1.0000,0.0000,1.42071,0.09234,-2.67872,1.06376,1.56180,0.11634,-0.13236,-0.45990,0.05634,,,,,,,,,,,,,,,,,,,,,,,,,,0,0,0,0,0
5.9559,1783369705.3774,1,1,1.0000,0.0000,1.42063,0.09208,-2.67880,1.06389,1.56201,0.11650,-0.13229,-0.45984,0.05621,,,,,,,,,,,,,,,,,,,,,,,,,,0,0,0,0,0
5.9635,1783369705.3851,1,1,1.0000,0.0000,1.42064,0.09200,-2.67882,1.06399,1.56201,0.11650,-0.13229,-0.45984,0.05619,,,,,,,,,,,,,,,,,,,,,,,,,,0,0,0,0,0
5.9780,1783369705.3995,1,1,1.0000,0.0000,1.42072,0.09178,-2.67883,1.06446,1.56180,0.11633,-0.13236,-0.45992,0.05618,,,,,,,,,,,,,,,,,,,,,,,,,,0,0,0,0,0
5.9846,1783369705.4061,1,1,1.0000,0.0000,1.42071,0.09170,-2.67885,1.06457,1.56181,0.11633,-0.13236,-0.45992,0.05616,,,,,,,,,,,,,,,,,,,,,,,,,,0,0,0,0,0
6.0033,1783369705.4249,1,1,1.0000,0.0000,1.42064,0.09159,-2.67887,1.06452,1.56202,0.11649,-0.13229,-0.45988,0.05609,,,,,,,,,,,,,,,,,,,,,,,,,,0,0,0,0,0
6.0040,1783369705.4256,1,1,1.0000,0.0000,1.42064,0.09159,-2.67887,1.06452,1.56202,0.11649,-0.13229,-0.45988,0.05609,,,,,,,,,,,,,,,,,,,,,,,,,,0,0,0,0,0
6.0109,1783369705.4325,1,1,1.0000,0.0000,1.42064,0.09155,-2.67887,1.06458,1.56202,0.11649,-0.13229,-0.45989,0.05608,,,,,,,,,,,,,,,,,,,,,,,,,,0,0,0,0,0
6.0137,1783369705.4352,1,1,1.0000,0.0000,1.42064,0.09155,-2.67887,1.06458,1.56202,0.11649,-0.13229,-0.45989,0.05608,,,,,,,,,,,,,,,,,,,,,,,,,,0,0,0,0,0
6.0276,1783369705.4492,1,1,1.0000,0.0000,1.42064,0.09149,-2.67888,1.06466,1.56202,0.11649,-0.13229,-0.45990,0.05607,,,,,,,,,,,,,,,,,,,,,,,,,,0,0,0,0,0
