Martins-Lucaas/twinforge/sensors/Data/20260713_152041__samples.csv
t_rel_s,t_unix,cycle,phase,setpoint_n,force_net_n,q1,q2,q3,q4,q5,q6,tcp_x,tcp_y,tcp_z,taxel_0,taxel_1,taxel_2,taxel_3,taxel_4,taxel_5,taxel_6,taxel_7,taxel_8,taxel_9,taxel_10,taxel_11,taxel_12,taxel_13,taxel_14,taxel_15,taxel_16,taxel_17,taxel_18,taxel_19,taxel_20,taxel_21,taxel_22,taxel_23,taxel_24,n_RA,n_SA,cn_mm,cn_ra,cn_sa
0.0091,1783966841.3560,1,0,3.0000,-0.0000,1.42244,0.00071,-2.63046,1.05906,1.57084,0.11671,-0.12761,-0.48157,0.03741,,,,,,,,,,,,,,,,,,,,,,,,,,0,0,0,0,0
0.0182,1783966841.3652,1,0,3.0000,-0.0000,1.42244,0.00071,-2.63046,1.05906,1.57084,0.11671,-0.12761,-0.48157,0.03741,,,,,,,,,,,,,,,,,,,,,,,,,,0,0,0,0,0
0.0241,1783966841.3710,1,0,3.0000,-0.0000,1.42244,0.00071,-2.63046,1.05906,1.57084,0.11671,-0.12761,-0.48157,0.03741,,,,,,,,,,,,,,,,,,,,,,,,,,0,0,0,0,0
0.0343,1783966841.3813,1,0,3.0000,-0.0000,1.42244,0.00071,-2.63047,1.05906,1.57084,0.11672,-0.12762,-0.48157,0.03741,,,,,,,,,,,,,,,,,,,,,,,,,,0,0,0,0,0
0.0579,1783966841.4048,1,0,3.0000,-0.0000,1.42244,0.00071,-2.63051,1.05906,1.57081,0.11674,-0.12763,-0.48154,0.03739,,,,,,,,,,,,,,,,,,,,,,,,,,0,0,0,0,0
0.0583,1783966841.4052,1,0,3.0000,-0.0000,1.42244,0.00071,-2.63051,1.05906,1.57081,0.11674,-0.12763,-0.48154,0.03739,,,,,,,,,,,,,,,,,,,,,,,,,,0,0,0,0,0
0.0586,1783966841.4056,1,0,3.0000,-0.0000,1.42244,0.00071,-2.63051,1.05906,1.57081,0.11674,-0.12763,-0.48154,0.03739,,,,,,,,,,,,,,,,,,,,,,,,,,0,0,0,0,0
0.0669,1783966841.4139,1,0,3.0000,-0.0000,1.42244,0.00071,-2.63052,1.05906,1.57080,0.11675,-0.12763,-0.48153,0.03739,,,,,,,,,,,,,,,,,,,,,,,,,,0,0,0,0,0
0.0674,1783966841.4143,1,0,3.0000,-0.0000,1.42244,0.00071,-2.63052,1.05906,1.57080,0.11675,-0.12763,-0.48153,0.03739,,,,,,,,,,,,,,,,,,,,,,,,,,0,0,0,0,0
0.0720,1783966841.4190,1,0,3.0000,-0.0000,1.42244,0.00071,-2.63052,1.05907,1.57080,0.11675,-0.12763,-0.48153,0.03738,,,,,,,,,,,,,,,,,,,,,,,,,,0,0,0,0,0
0.0724,1783966841.4193,1,0,3.0000,-0.0000,1.42244,0.00071,-2.63052,1.05907,1.57080,0.11675,-0.12763,-0.48153,0.03738,,,,,,,,,,,,,,,,,,,,,,,,,,0,0,0,0,0
0.0824,1783966841.4293,1,0,3.0000,-0.0000,1.42244,0.00071,-2.63053,1.05907,1.57080,0.11675,-0.12764,-0.48152,0.03738,,,,,,,,,,,,,,,,,,,,,,,,,,0,0,0,0,0
0.0923,1783966841.4393,1,0,3.0000,-0.0000,1.42244,0.00071,-2.63053,1.05907,1.57080,0.11675,-0.12764,-0.48152,0.03738,,,,,,,,,,,,,,,,,,,,,,,,,,0,0,0,0,0
0.1046,1783966841.4515,1,0,3.0000,-0.0000,1.42244,0.00071,-2.63053,1.05907,1.57080,0.11675,-0.12764,-0.48152,0.03738,,,,,,,,,,,,,,,,,,,,,,,,,,0,0,0,0,0
0.1147,1783966841.4617,1,0,3.0000,-0.0000,1.42244,0.00071,-2.63053,1.05907,1.57080,0.11675,-0.12764,-0.48152,0.03738,,,,,,,,,,,,,,,,,,,,,,,,,,0,0,0,0,0
0.1249,1783966841.4719,1,0,3.0000,-0.0000,1.42244,0.00071,-2.63053,1.05907,1.57080,0.11675,-0.12764,-0.48152,0.03738,,,,,,,,,,,,,,,,,,,,,,,,,,0,0,0,0,0
0.1321,1783966841.4791,1,0,3.0000,-0.0000,1.42244,0.00071,-2.63053,1.05907,1.57080,0.11675,-0.12764,-0.48152,0.03738,,,,,,,,,,,,,,,,,,,,,,,,,,0,0,0,0,0
0.1324,1783966841.4794,1,0,3.0000,-0.0000,1.42244,0.00071,-2.63053,1.05907,1.57080,0.11675,-0.12764,-0.48152,0.03738,,,,,,,,,,,,,,,,,,,,,,,,,,0,0,0,0,0
0.1457,1783966841.4926,1,0,3.0000,-0.0000,1.42244,0.00071,-2.63053,1.05907,1.57080,0.11675,-0.12764,-0.48152,0.03738,,,,,,,,,,,,,,,,,,,,,,,,,,0,0,0,0,0
0.1459,1783966841.4929,1,0,3.0000,-0.0000,1.42244,0.00071,-2.63053,1.05907,1.57080,0.11675,-0.12764,-0.48152,0.03738,,,,,,,,,,,,,,,,,,,,,,,,,,0,0,0,0,0
0.1532,1783966841.5001,1,0,3.0000,-0.0000,1.42244,0.00071,-2.63053,1.05907,1.57080,0.11675,-0.12764,-0.48152,0.03738,,,,,,,,,,,,,,,,,,,,,,,,,,0,0,0,0,0
0.1629,1783966841.5099,1,0,3.0000,-0.0000,1.42244,0.00071,-2.63053,1.05907,1.57080,0.11675,-0.12764,-0.48152,0.03738,,,,,,,,,,,,,,,,,,,,,,,,,,0,0,0,0,0
0.1632,1783966841.5101,1,0,3.0000,-0.0000,1.42244,0.00071,-2.63053,1.05907,1.57080,0.11675,-0.12764,-0.48152,0.03738,,,,,,,,,,,,,,,,,,,,,,,,,,0,0,0,0,0
0.1723,1783966841.5193,1,0,3.0000,-0.0000,1.42244,0.00071,-2.63053,1.05907,1.57080,0.11675,-0.12764,-0.48152,0.03738,,,,,,,,,,,,,,,,,,,,,,,,,,0,0,0,0,0
0.1727,1783966841.5196,1,0,3.0000,-0.0000,1.42244,0.00071,-2.63053,1.05907,1.57080,0.11675,-0.12764,-0.48152,0.03738,,,,,,,,,,,,,,,,,,,,,,,,,,0,0,0,0,0
0.1835,1783966841.5305,1,0,3.0000,-0.0000,1.42244,0.00071,-2.63053,1.05907,1.57080,0.11675,-0.12764,-0.48152,0.03738,,,,,,,,,,,,,,,,,,,,,,,,,,0,0,0,0,0
0.1838,1783966841.5307,1,0,3.0000,-0.0000,1.42244,0.00071,-2.63053,1.05907,1.57080,0.11675,-0.12764,-0.48152,0.03738,,,,,,,,,,,,,,,,,,,,,,,,,,0,0,0,0,0
0.1993,1783966841.5463,1,0,3.0000,-0.0000,1.42244,0.00071,-2.63053,1.05907,1.57080,0.11675,-0.12764,-0.48152,0.03738,,,,,,,,,,,,,,,,,,,,,,,,,,0,0,0,0,0
0.2130,1783966841.5600,1,0,3.0000,-0.0000,1.42244,0.00071,-2.63053,1.05907,1.57080,0.11675,-0.12764,-0.48152,0.03738,,,,,,,,,,,,,,,,,,,,,,,,,,0,0,0,0,0
0.2141,1783966841.5611,1,0,3.0000,-0.0000,1.42244,0.00071,-2.63053,1.05907,1.57080,0.11675,-0.12764,-0.48152,0.03738,,,,,,,,,,,,,,,,,,,,,,,,,,0,0,0,0,0
0.2237,1783966841.5707,1,0,3.0000,-0.0000,1.42244,0.00071,-2.63053,1.05907,1.57080,0.11675,-0.12764,-0.48152,0.03738,,,,,,,,,,,,,,,,,,,,,,,,,,0,0,0,0,0
0.2385,1783966841.5855,1,0,3.0000,-0.0000,1.42244,0.00071,-2.63053,1.05907,1.57080,0.11675,-0.12764,-0.48152,0.03738,,,,,,,,,,,,,,,,,,,,,,,,,,0,0,0,0,0
0.2460,1783966841.5930,1,0,3.0000,-0.0000,1.42244,0.00071,-2.63053,1.05907,1.57080,0.11675,-0.12764,-0.48152,0.03738,,,,,,,,,,,,,,,,,,,,,,,,,,0,0,0,0,0
0.2463,1783966841.5932,1,0,3.0000,-0.0000,1.42244,0.00071,-2.63053,1.05907,1.57080,0.11675,-0.12764,-0.48152,0.03738,,,,,,,,,,,,,,,,,,,,,,,,,,0,0,0,0,0
0.2555,1783966841.6025,1,0,3.0000,-0.0000,1.42244,0.00071,-2.63053,1.05907,1.57080,0.11675,-0.12764,-0.48152,0.03738,,,,,,,,,,,,,,,,,,,,,,,,,,0,0,0,0,0
0.2628,1783966841.6098,1,0,3.0000,-0.0000,1.42244,0.00071,-2.63053,1.05907,1.57080,0.11675,-0.12764,-0.48152,0.03738,,,,,,,,,,,,,,,,,,,,,,,,,,0,0,0,0,0
0.2856,1783966841.6326,1,0,3.0000,-0.0000,1.42244,0.00071,-2.63053,1.05907,1.57080,0.11675,-0.12764,-0.48152,0.03738,,,,,,,,,,,,,,,,,,,,,,,,,,0,0,0,0,0
0.2873,1783966841.6343,1,0,3.0000,-0.0000,1.42244,0.00071,-2.63053,1.05907,1.57080,0.11675,-0.12764,-0.48152,0.03738,,,,,,,,,,,,,,,,,,,,,,,,,,0,0,0,0,0
0.3028,1783966841.6498,1,0,3.0000,-0.0000,1.42244,0.00071,-2.63053,1.05907,1.57080,0.11675,-0.12764,-0.48152,0.03738,,,,,,,,,,,,,,,,,,,,,,,,,,0,0,0,0,0
0.3056,1783966841.6526,1,0,3.0000,-0.0000,1.42244,0.00071,-2.63053,1.05907,1.57080,0.11675,-0.12764,-0.48152,0.03738,,,,,,,,,,,,,,,,,,,,,,,,,,0,0,0,0,0
0.3271,1783966841.6741,1,0,3.0000,-0.0000,1.42244,0.00071,-2.63053,1.05907,1.57080,0.11675,-0.12764,-0.48152,0.03738,,,,,,,,,,,,,,,,,,,,,,,,,,0,0,0,0,0
0.3276,1783966841.6746,1,0,3.0000,-0.0000,1.42244,0.00071,-2.63053,1.05907,1.57080,0.11675,-0.12764,-0.48152,0.03738,,,,,,,,,,,,,,,,,,,,,,,,,,0,0,0,0,0
0.3386,1783966841.6856,1,0,3.0000,-0.0000,1.42244,0.00071,-2.63053,1.05907,1.57080,0.11675,-0.12764,-0.48152,0.03738,,,,,,,,,,,,,,,,,,,,,,,,,,0,0,0,0,0
0.3556,1783966841.7025,1,0,3.0000,-0.0000,1.42244,0.00071,-2.63053,1.05907,1.57080,0.11675,-0.12764,-0.48152,0.03738,,,,,,,,,,,,,,,,,,,,,,,,,,0,0,0,0,0
0.3663,1783966841.7133,1,0,3.0000,-0.0000,1.42244,0.00071,-2.63053,1.05907,1.57080,0.11675,-0.12764,-0.48152,0.03738,,,,,,,,,,,,,,,,,,,,,,,,,,0,0,0,0,0
0.3677,1783966841.7147,1,0,3.0000,-0.0000,1.42244,0.00071,-2.63053,1.05907,1.57080,0.11675,-0.12764,-0.48152,0.03738,,,,,,,,,,,,,,,,,,,,,,,,,,0,0,0,0,0
0.3680,1783966841.7149,1,0,3.0000,-0.0000,1.42244,0.00071,-2.63053,1.05907,1.57080,0.11675,-0.12764,-0.48152,0.03738,,,,,,,,,,,,,,,,,,,,,,,,,,0,0,0,0,0
0.3737,1783966841.7206,1,0,3.0000,-0.0000,1.42244,0.00071,-2.63053,1.05907,1.57080,0.11675,-0.12764,-0.48152,0.03738,,,,,,,,,,,,,,,,,,,,,,,,,,0,0,0,0,0
0.3836,1783966841.7305,1,0,3.0000,-0.0000,1.42244,0.00071,-2.63053,1.05907,1.57080,0.11675,-0.12764,-0.48152,0.03738,,,,,,,,,,,,,,,,,,,,,,,,,,0,0,0,0,0
0.3942,1783966841.7412,1,0,3.0000,-0.0000,1.42244,0.00071,-2.63053,1.05907,1.57080,0.11675,-0.12764,-0.48152,0.03738,,,,,,,,,,,,,,,,,,,,,,,,,,0,0,0,0,0
0.4077,1783966841.7546,1,0,3.0000,-0.0000,1.42244,0.00071,-2.63053,1.05907,1.57080,0.11675,-0.12764,-0.48152,0.03738,,,,,,,,,,,,,,,,,,,,,,,,,,0,0,0,0,0
0.4269,1783966841.7739,1,0,3.0000,-0.0000,1.42244,0.00071,-2.63053,1.05907,1.57080,0.11675,-0.12764,-0.48152,0.03738,,,,,,,,,,,,,,,,,,,,,,,,,,0,0,0,0,0
0.4273,1783966841.7743,1,0,3.0000,-0.0000,1.42244,0.00071,-2.63053,1.05907,1.57080,0.11675,-0.12764,-0.48152,0.03738,,,,,,,,,,,,,,,,,,,,,,,,,,0,0,0,0,0
0.4368,1783966841.7838,1,0,3.0000,-0.0000,1.42244,0.00071,-2.63053,1.05907,1.57080,0.11675,-0.12764,-0.48152,0.03738,,,,,,,,,,,,,,,,,,,,,,,,,,0,0,0,0,0
0.4376,1783966841.7845,1,0,3.0000,-0.0000,1.42244,0.00071,-2.63053,1.05907,1.57080,0.11675,-0.12764,-0.48152,0.03738,,,,,,,,,,,,,,,,,,,,,,,,,,0,0,0,0,0
0.4397,1783966841.7866,1,0,3.0000,-0.0000,1.42244,0.00071,-2.63053,1.05907,1.57080,0.11675,-0.12764,-0.48152,0.03738,,,,,,,,,,,,,,,,,,,,,,,,,,0,0,0,0,0
0.4457,1783966841.7927,1,0,3.0000,-0.0000,1.42244,0.00071,-2.63053,1.05907,1.57080,0.11675,-0.12764,-0.48152,0.03738,,,,,,,,,,,,,,,,,,,,,,,,,,0,0,0,0,0
0.4554,1783966841.8023,1,0,3.0000,-0.0000,1.42244,0.00071,-2.63053,1.05907,1.57080,0.11675,-0.12764,-0.48152,0.03738,,,,,,,,,,,,,,,,,,,,,,,,,,0,0,0,0,0
0.4556,1783966841.8026,1,0,3.0000,-0.0000,1.42244,0.00071,-2.63053,1.05907,1.57080,0.11675,-0.12764,-0.48152,0.03738,,,,,,,,,,,,,,,,,,,,,,,,,,0,0,0,0,0
0.4657,1783966841.8127,1,0,3.0000,-0.0000,1.42244,0.00071,-2.63053,1.05907,1.57080,0.11675,-0.12764,-0.48152,0.03738,,,,,,,,,,,,,,,,,,,,,,,,,,0,0,0,0,0
0.4661,1783966841.8130,1,0,3.0000,-0.0000,1.42244,0.00071,-2.63053,1.05907,1.57080,0.11675,-0.12764,-0.48152,0.03738,,,,,,,,,,,,,,,,,,,,,,,,,,0,0,0,0,0
0.4799,1783966841.8268,1,0,3.0000,-0.0000,1.42244,0.00071,-2.63053,1.05907,1.57080,0.11675,-0.12764,-0.48152,0.03738,,,,,,,,,,,,,,,,,,,,,,,,,,0,0,0,0,0
0.4802,1783966841.8271,1,0,3.0000,-0.0000,1.42244,0.00071,-2.63053,1.05907,1.57080,0.11675,-0.12764,-0.48152,0.03738,,,,,,,,,,,,,,,,,,,,,,,,,,0,0,0,0,0
0.4828,1783966841.8298,1,0,3.0000,-0.0000,1.42244,0.00071,-2.63053,1.05907,1.57080,0.11675,-0.12764,-0.48152,0.03738,,,,,,,,,,,,,,,,,,,,,,,,,,0,0,0,0,0
0.4830,1783966841.8300,1,0,3.0000,-0.0000,1.42244,0.00071,-2.63053,1.05907,1.57080,0.11675,-0.12764,-0.48152,0.03738,,,,,,,,,,,,,,,,,,,,,,,,,,0,0,0,0,0
0.4937,1783966841.8407,1,0,3.0000,-0.0000,1.42244,0.00071,-2.63053,1.05907,1.57080,0.11675,-0.12764,-0.48152,0.03738,,,,,,,,,,,,,,,,,,,,,,,,,,0,0,0,0,0
0.4941,1783966841.8411,1,0,3.0000,-0.0000,1.42244,0.00071,-2.63053,1.05907,1.57080,0.11675,-0.12764,-0.48152,0.03738,,,,,,,,,,,,,,,,,,,,,,,,,,0,0,0,0,0
0.5059,1783966841.8529,1,0,3.0000,-0.0000,1.42244,0.00071,-2.63053,1.05907,1.57080,0.11675,-0.12764,-0.48152,0.03738,,,,,,,,,,,,,,,,,,,,,,,,,,0,0,0,0,0
0.5147,1783966841.8617,1,0,3.0000,-0.0000,1.42244,0.00071,-2.63053,1.05907,1.57080,0.11675,-0.12764,-0.48152,0.03738,,,,,,,,,,,,,,,,,,,,,,,,,,0,0,0,0,0
0.5296,1783966841.8766,1,0,3.0000,-0.0000,1.42244,0.00071,-2.63053,1.05907,1.57080,0.11675,-0.12764,-0.48152,0.03738,,,,,,,,,,,,,,,,,,,,,,,,,,0,0,0,0,0
0.5364,1783966841.8833,1,0,3.0000,-0.0000,1.42244,0.00071,-2.63053,1.05907,1.57080,0.11675,-0.12764,-0.48152,0.03738,,,,,,,,,,,,,,,,,,,,,,,,,,0,0,0,0,0
0.5368,1783966841.8837,1,0,3.0000,-0.0000,1.42244,0.00071,-2.63053,1.05907,1.57080,0.11675,-0.12764,-0.48152,0.03738,,,,,,,,,,,,,,,,,,,,,,,,,,0,0,0,0,0
0.5421,1783966841.8891,1,0,3.0000,-0.0000,1.42244,0.00071,-2.63053,1.05907,1.57080,0.11675,-0.12764,-0.48152,0.03738,,,,,,,,,,,,,,,,,,,,,,,,,,0,0,0,0,0
0.5424,1783966841.8894,1,0,3.0000,-0.0000,1.42244,0.00071,-2.63053,1.05907,1.57080,0.11675,-0.12764,-0.48152,0.03738,,,,,,,,,,,,,,,,,,,,,,,,,,0,0,0,0,0
0.5537,1783966841.9006,1,0,3.0000,-0.0000,1.42244,0.00071,-2.63053,1.05907,1.57080,0.11675,-0.12764,-0.48152,0.03738,,,,,,,,,,,,,,,,,,,,,,,,,,0,0,0,0,0
0.5633,1783966841.9102,1,0,3.0000,-0.0000,1.42244,0.00071,-2.63053,1.05907,1.57080,0.11675,-0.12764,-0.48152,0.03738,,,,,,,,,,,,,,,,,,,,,,,,,,0,0,0,0,0
0.5722,1783966841.9192,1,0,3.0000,-0.0000,1.42244,0.00071,-2.63053,1.05907,1.57080,0.11675,-0.12764,-0.48152,0.03738,,,,,,,,,,,,,,,,,,,,,,,,,,0,0,0,0,0
0.5822,1783966841.9292,1,0,3.0000,-0.0000,1.42244,0.00071,-2.63053,1.05907,1.57080,0.11675,-0.12764,-0.48152,0.03738,,,,,,,,,,,,,,,,,,,,,,,,,,0,0,0,0,0
0.5826,1783966841.9295,1,0,3.0000,-0.0000,1.42244,0.00071,-2.63053,1.05907,1.57080,0.11675,-0.12764,-0.48152,0.03738,,,,,,,,,,,,,,,,,,,,,,,,,,0,0,0,0,0
0.5945,1783966841.9415,1,0,3.0000,-0.0000,1.42244,0.00071,-2.63053,1.05907,1.57080,0.11675,-0.12764,-0.48152,0.03738,,,,,,,,,,,,,,,,,,,,,,,,,,0,0,0,0,0
0.5950,1783966841.9419,1,0,3.0000,-0.0000,1.42244,0.00071,-2.63053,1.05907,1.57080,0.11675,-0.12764,-0.48152,0.03738,,,,,,,,,,,,,,,,,,,,,,,,,,0,0,0,0,0
0.6129,1783966841.9599,1,0,3.0000,-0.0000,1.42244,0.00071,-2.63053,1.05907,1.57080,0.11675,-0.12764,-0.48152,0.03738,,,,,,,,,,,,,,,,,,,,,,,,,,0,0,0,0,0
0.6143,1783966841.9613,1,0,3.0000,-0.0000,1.42244,0.00071,-2.63053,1.05907,1.57080,0.11675,-0.12764,-0.48152,0.03738,,,,,,,,,,,,,,,,,,,,,,,,,,0,0,0,0,0
0.6148,1783966841.9618,1,0,3.0000,-0.0000,1.42244,0.00071,-2.63053,1.05907,1.57080,0.11675,-0.12764,-0.48152,0.03738,,,,,,,,,,,,,,,,,,,,,,,,,,0,0,0,0,0
0.6364,1783966841.9834,1,0,3.0000,-0.0000,1.42244,0.00071,-2.63053,1.05907,1.57080,0.11675,-0.12764,-0.48152,0.03738,,,,,,,,,,,,,,,,,,,,,,,,,,0,0,0,0,0
0.6388,1783966841.9857,1,0,3.0000,-0.0000,1.42244,0.00071,-2.63053,1.05907,1.57080,0.11675,-0.12764,-0.48152,0.03738,,,,,,,,,,,,,,,,,,,,,,,,,,0,0,0,0,0
0.6390,1783966841.9860,1,0,3.0000,-0.0000,1.42244,0.00071,-2.63053,1.05907,1.57080,0.11675,-0.12764,-0.48152,0.03738,,,,,,,,,,,,,,,,,,,,,,,,,,0,0,0,0,0
0.6449,1783966841.9919,1,0,3.0000,-0.0000,1.42244,0.00071,-2.63053,1.05907,1.57080,0.11675,-0.12764,-0.48152,0.03738,,,,,,,,,,,,,,,,,,,,,,,,,,0,0,0,0,0
0.6562,1783966842.0032,1,0,3.0000,-0.0000,1.42244,0.00071,-2.63053,1.05907,1.57080,0.11675,-0.12764,-0.48152,0.03738,,,,,,,,,,,,,,,,,,,,,,,,,,0,0,0,0,0
0.6625,1783966842.0095,1,0,3.0000,-0.0000,1.42244,0.00071,-2.63053,1.05907,1.57080,0.11675,-0.12764,-0.48152,0.03738,,,,,,,,,,,,,,,,,,,,,,,,,,0,0,0,0,0
0.6724,1783966842.0193,1,0,3.0000,-0.0000,1.42244,0.00071,-2.63053,1.05907,1.57080,0.11675,-0.12764,-0.48152,0.03738,,,,,,,,,,,,,,,,,,,,,,,,,,0,0,0,0,0
0.6850,1783966842.0320,1,0,3.0000,-0.0000,1.42244,0.00071,-2.63053,1.05907,1.57080,0.11675,-0.12764,-0.48152,0.03738,,,,,,,,,,,,,,,,,,,,,,,,,,0,0,0,0,0
0.6952,1783966842.0422,1,0,3.0000,-0.0000,1.42244,0.00071,-2.63053,1.05907,1.57080,0.11675,-0.12764,-0.48152,0.03738,,,,,,,,,,,,,,,,,,,,,,,,,,0,0,0,0,0
0.6955,1783966842.0425,1,0,3.0000,-0.0000,1.42244,0.00071,-2.63053,1.05907,1.57080,0.11675,-0.12764,-0.48152,0.03738,,,,,,,,,,,,,,,,,,,,,,,,,,0,0,0,0,0
0.7049,1783966842.0519,1,0,3.0000,-0.0000,1.42244,0.00071,-2.63053,1.05907,1.57080,0.11675,-0.12764,-0.48152,0.03738,,,,,,,,,,,,,,,,,,,,,,,,,,0,0,0,0,0
0.7144,1783966842.0614,1,0,3.0000,-0.0000,1.42244,0.00071,-2.63053,1.05907,1.57080,0.11675,-0.12764,-0.48152,0.03738,,,,,,,,,,,,,,,,,,,,,,,,,,0,0,0,0,0
0.7338,1783966842.0808,1,1,3.0000,-0.0000,1.42244,0.00071,-2.63053,1.05907,1.57080,0.11675,-0.12764,-0.48152,0.03738,,,,,,,,,,,,,,,,,,,,,,,,,,0,0,0,0,0
0.7342,1783966842.0812,1,1,3.0000,-0.0000,1.42244,0.00071,-2.63053,1.05907,1.57080,0.11675,-0.12764,-0.48152,0.03738,,,,,,,,,,,,,,,,,,,,,,,,,,0,0,0,0,0
0.7354,1783966842.0824,1,1,3.0000,-0.0000,1.42244,0.00071,-2.63053,1.05907,1.57080,0.11675,-0.12764,-0.48152,0.03738,,,,,,,,,,,,,,,,,,,,,,,,,,0,0,0,0,0
0.7358,1783966842.0828,1,1,3.0000,-0.0000,1.42244,0.00071,-2.63053,1.05907,1.57080,0.11675,-0.12764,-0.48152,0.03738,,,,,,,,,,,,,,,,,,,,,,,,,,0,0,0,0,0
0.7422,1783966842.0892,1,1,3.0000,-0.0000,1.42244,0.00071,-2.63053,1.05907,1.57080,0.11675,-0.12764,-0.48152,0.03738,,,,,,,,,,,,,,,,,,,,,,,,,,0,0,0,0,0
0.7426,1783966842.0895,1,1,3.0000,-0.0000,1.42244,0.00071,-2.63053,1.05907,1.57080,0.11675,-0.12764,-0.48152,0.03738,,,,,,,,,,,,,,,,,,,,,,,,,,0,0,0,0,0
0.7604,1783966842.1074,1,1,3.0000,-0.0000,1.42244,0.00071,-2.63053,1.05907,1.57080,0.11675,-0.12764,-0.48152,0.03738,,,,,,,,,,,,,,,,,,,,,,,,,,0,0,0,0,0
0.7608,1783966842.1078,1,1,3.0000,-0.0000,1.42244,0.00071,-2.63053,1.05907,1.57080,0.11675,-0.12764,-0.48152,0.03738,,,,,,,,,,,,,,,,,,,,,,,,,,0,0,0,0,0
0.7692,1783966842.1162,1,1,3.0000,-0.0000,1.42244,0.00071,-2.63053,1.05907,1.57080,0.11675,-0.12764,-0.48152,0.03738,,,,,,,,,,,,,,,,,,,,,,,,,,0,0,0,0,0
0.7698,1783966842.1168,1,1,3.0000,-0.0000,1.42244,0.00071,-2.63053,1.05907,1.57080,0.11675,-0.12764,-0.48152,0.03738,,,,,,,,,,,,,,,,,,,,,,,,,,0,0,0,0,0
0.7720,1783966842.1189,1,1,3.0000,-0.0000,1.42244,0.00071,-2.63053,1.05907,1.57080,0.11675,-0.12764,-0.48152,0.03738,,,,,,,,,,,,,,,,,,,,,,,,,,0,0,0,0,0
0.7724,1783966842.1194,1,1,3.0000,-0.0000,1.42244,0.00071,-2.63053,1.05907,1.57080,0.11675,-0.12764,-0.48152,0.03738,,,,,,,,,,,,,,,,,,,,,,,,,,0,0,0,0,0
0.7864,1783966842.1334,1,1,3.0000,-0.0000,1.42244,0.00071,-2.63053,1.05907,1.57080,0.11675,-0.12764,-0.48152,0.03738,,,,,,,,,,,,,,,,,,,,,,,,,,0,0,0,0,0
0.7937,1783966842.1407,1,1,3.0000,-0.0000,1.42244,0.00071,-2.63053,1.05907,1.57080,0.11675,-0.12764,-0.48152,0.03738,,,,,,,,,,,,,,,,,,,,,,,,,,0,0,0,0,0
0.8078,1783966842.1547,1,1,3.0000,-0.0000,1.42244,0.00071,-2.63053,1.05907,1.57080,0.11675,-0.12764,-0.48152,0.03738,,,,,,,,,,,,,,,,,,,,,,,,,,0,0,0,0,0
0.8122,1783966842.1592,1,1,3.0000,-0.0000,1.42244,0.00071,-2.63053,1.05907,1.57080,0.11675,-0.12764,-0.48152,0.03738,,,,,,,,,,,,,,,,,,,,,,,,,,0,0,0,0,0
0.8126,1783966842.1595,1,1,3.0000,-0.0000,1.42244,0.00071,-2.63053,1.05907,1.57080,0.11675,-0.12764,-0.48152,0.03738,,,,,,,,,,,,,,,,,,,,,,,,,,0,0,0,0,0
0.8267,1783966842.1737,1,1,3.0000,-0.0000,1.42244,0.00071,-2.63053,1.05907,1.57080,0.11675,-0.12764,-0.48152,0.03738,,,,,,,,,,,,,,,,,,,,,,,,,,0,0,0,0,0
0.8348,1783966842.1817,1,1,3.0000,-0.0000,1.42244,0.00071,-2.63053,1.05907,1.57080,0.11675,-0.12764,-0.48152,0.03738,,,,,,,,,,,,,,,,,,,,,,,,,,0,0,0,0,0
0.8429,1783966842.1899,1,1,3.0000,-0.0000,1.42244,0.00071,-2.63053,1.05907,1.57080,0.11675,-0.12764,-0.48152,0.03738,,,,,,,,,,,,,,,,,,,,,,,,,,0,0,0,0,0
0.8434,1783966842.1904,1,1,3.0000,-0.0000,1.42244,0.00071,-2.63053,1.05907,1.57080,0.11675,-0.12764,-0.48152,0.03738,,,,,,,,,,,,,,,,,,,,,,,,,,0,0,0,0,0
0.8633,1783966842.2103,1,1,3.0000,-0.0000,1.42244,0.00071,-2.63053,1.05907,1.57080,0.11675,-0.12764,-0.48152,0.03738,,,,,,,,,,,,,,,,,,,,,,,,,,0,0,0,0,0
0.8641,1783966842.2110,1,1,3.0000,-0.0000,1.42244,0.00071,-2.63053,1.05907,1.57080,0.11675,-0.12764,-0.48152,0.03738,,,,,,,,,,,,,,,,,,,,,,,,,,0,0,0,0,0
0.8736,1783966842.2206,1,1,3.0000,-0.0000,1.42244,0.00071,-2.63053,1.05907,1.57080,0.11675,-0.12764,-0.48152,0.03738,,,,,,,,,,,,,,,,,,,,,,,,,,0,0,0,0,0
0.8888,1783966842.2357,1,1,3.0000,-0.0000,1.42244,0.00071,-2.63053,1.05907,1.57080,0.11675,-0.12764,-0.48152,0.03738,,,,,,,,,,,,,,,,,,,,,,,,,,0,0,0,0,0
0.8924,1783966842.2394,1,1,3.0000,-0.0000,1.42244,0.00071,-2.63053,1.05907,1.57080,0.11675,-0.12764,-0.48152,0.03738,,,,,,,,,,,,,,,,,,,,,,,,,,0,0,0,0,0
0.9034,1783966842.2503,1,1,3.0000,-0.0000,1.42244,0.00071,-2.63053,1.05907,1.57080,0.11675,-0.12764,-0.48152,0.03738,,,,,,,,,,,,,,,,,,,,,,,,,,0,0,0,0,0
0.9132,1783966842.2601,1,1,3.0000,-0.0000,1.42244,0.00071,-2.63053,1.05907,1.57080,0.11675,-0.12764,-0.48152,0.03738,,,,,,,,,,,,,,,,,,,,,,,,,,0,0,0,0,0
0.9248,1783966842.2717,1,1,3.0000,-0.0000,1.42244,0.00071,-2.63053,1.05907,1.57080,0.11675,-0.12764,-0.48152,0.03738,,,,,,,,,,,,,,,,,,,,,,,,,,0,0,0,0,0
0.9338,1783966842.2807,1,1,3.0000,-0.0000,1.42244,0.00071,-2.63053,1.05907,1.57080,0.11675,-0.12764,-0.48152,0.03738,,,,,,,,,,,,,,,,,,,,,,,,,,0,0,0,0,0
0.9420,1783966842.2889,1,1,3.0000,-0.0000,1.42244,0.00071,-2.63053,1.05907,1.57080,0.11675,-0.12764,-0.48152,0.03738,,,,,,,,,,,,,,,,,,,,,,,,,,0,0,0,0,0
0.9423,1783966842.2893,1,1,3.0000,-0.0000,1.42244,0.00071,-2.63053,1.05907,1.57080,0.11675,-0.12764,-0.48152,0.03738,,,,,,,,,,,,,,,,,,,,,,,,,,0,0,0,0,0
0.9693,1783966842.3162,1,1,3.0000,-0.0000,1.42244,0.00071,-2.63053,1.05907,1.57080,0.11675,-0.12764,-0.48152,0.03738,,,,,,,,,,,,,,,,,,,,,,,,,,0,0,0,0,0
0.9698,1783966842.3168,1,1,3.0000,-0.0000,1.42244,0.00071,-2.63053,1.05907,1.57080,0.11675,-0.12764,-0.48152,0.03738,,,,,,,,,,,,,,,,,,,,,,,,,,0,0,0,0,0
0.9842,1783966842.3312,1,1,3.0000,-0.0000,1.42244,0.00071,-2.63053,1.05907,1.57080,0.11675,-0.12764,-0.48152,0.03738,,,,,,,,,,,,,,,,,,,,,,,,,,0,0,0,0,0
1.1853,1783966842.5322,1,1,3.0000,-0.0000,1.42244,-0.00001,-2.63079,1.05981,1.57080,0.11675,-0.12765,-0.48142,0.03707,,,,,,,,,,,,,,,,,,,,,,,,,,0,0,0,0,0
1.1940,1783966842.5410,1,1,3.0000,-0.0000,1.42244,-0.00015,-2.63081,1.05998,1.57080,0.11675,-0.12765,-0.48143,0.03702,,,,,,,,,,,,,,,,,,,,,,,,,,0,0,0,0,0
1.2099,1783966842.5568,1,1,3.0000,-0.0000,1.42244,-0.00034,-2.63083,1.06023,1.57080,0.11675,-0.12765,-0.48144,0.03697,,,,,,,,,,,,,,,,,,,,,,,,,,0,0,0,0,0
1.2140,1783966842.5610,1,1,3.0000,-0.0000,1.42244,-0.00038,-2.63084,1.06028,1.57080,0.11675,-0.12765,-0.48145,0.03696,,,,,,,,,,,,,,,,,,,,,,,,,,0,0,0,0,0
1.2143,1783966842.5613,1,1,3.0000,-0.0000,1.42244,-0.00038,-2.63084,1.06028,1.57080,0.11675,-0.12765,-0.48145,0.03696,,,,,,,,,,,,,,,,,,,,,,,,,,0,0,0,0,0
1.2231,1783966842.5701,1,1,3.0000,-0.0000,1.42244,-0.00043,-2.63084,1.06036,1.57080,0.11675,-0.12764,-0.48145,0.03695,,,,,,,,,,,,,,,,,,,,,,,,,,0,0,0,0,0
1.2238,1783966842.5708,1,1,3.0000,-0.0000,1.42244,-0.00043,-2.63084,1.06036,1.57080,0.11675,-0.12764,-0.48145,0.03695,,,,,,,,,,,,,,,,,,,,,,,,,,0,0,0,0,0
1.2241,1783966842.5711,1,1,3.0000,-0.0000,1.42244,-0.00043,-2.63084,1.06036,1.57080,0.11675,-0.12764,-0.48145,0.03695,,,,,,,,,,,,,,,,,,,,,,,,,,0,0,0,0,0
1.2271,1783966842.5741,1,1,3.0000,-0.0000,1.42244,-0.00043,-2.63084,1.06036,1.57080,0.11675,-0.12764,-0.48145,0.03695,,,,,,,,,,,,,,,,,,,,,,,,,,0,0,0,0,0
1.2274,1783966842.5744,1,1,3.0000,-0.0000,1.42244,-0.00043,-2.63084,1.06036,1.57080,0.11675,-0.12764,-0.48145,0.03695,,,,,,,,,,,,,,,,,,,,,,,,,,0,0,0,0,0
1.2292,1783966842.5762,1,1,3.0000,-0.0000,1.42244,-0.00043,-2.63084,1.06036,1.57080,0.11675,-0.12764,-0.48145,0.03695,,,,,,,,,,,,,,,,,,,,,,,,,,0,0,0,0,0
1.2298,1783966842.5767,1,1,3.0000,-0.0000,1.42244,-0.00043,-2.63084,1.06036,1.57080,0.11675,-0.12764,-0.48145,0.03695,,,,,,,,,,,,,,,,,,,,,,,,,,0,0,0,0,0
1.2556,1783966842.6026,1,1,3.0000,-0.0000,1.42244,-0.00043,-2.63084,1.06036,1.57080,0.11675,-0.12764,-0.48145,0.03695,,,,,,,,,,,,,,,,,,,,,,,,,,0,0,0,0,0
1.2980,1783966842.6450,1,1,3.0000,-0.0000,1.42244,-0.00043,-2.63084,1.06036,1.57080,0.11675,-0.12764,-0.48145,0.03695,,,,,,,,,,,,,,,,,,,,,,,,,,0,0,0,0,0
1.2984,1783966842.6453,1,1,3.0000,-0.0000,1.42244,-0.00043,-2.63084,1.06036,1.57080,0.11675,-0.12764,-0.48145,0.03695,,,,,,,,,,,,,,,,,,,,,,,,,,0,0,0,0,0
1.6242,1783966842.9712,1,1,3.0000,-0.0000,1.42244,-0.00144,-2.63108,1.06168,1.57080,0.11675,-0.12764,-0.48147,0.03662,,,,,,,,,,,,,,,,,,,,,,,,,,0,0,0,0,0
1.6892,1783966843.0362,1,1,3.0000,-0.0000,1.42244,-0.00158,-2.63110,1.06186,1.57080,0.11675,-0.12764,-0.48148,0.03658,,,,,,,,,,,,,,,,,,,,,,,,,,0,0,0,0,0
1.6930,1783966843.0400,1,1,3.0000,-0.0000,1.42244,-0.00158,-2.63110,1.06186,1.57080,0.11675,-0.12764,-0.48148,0.03658,,,,,,,,,,,,,,,,,,,,,,,,,,0,0,0,0,0
1.6934,1783966843.0403,1,1,3.0000,-0.0000,1.42244,-0.00158,-2.63110,1.06186,1.57080,0.11675,-0.12764,-0.48148,0.03658,,,,,,,,,,,,,,,,,,,,,,,,,,0,0,0,0,0
1.7081,1783966843.0551,1,1,3.0000,-0.0000,1.42244,-0.00158,-2.63110,1.06186,1.57080,0.11675,-0.12764,-0.48148,0.03658,,,,,,,,,,,,,,,,,,,,,,,,,,0,0,0,0,0
1.7086,1783966843.0555,1,1,3.0000,-0.0000,1.42244,-0.00158,-2.63110,1.06186,1.57080,0.11675,-0.12764,-0.48148,0.03658,,,,,,,,,,,,,,,,,,,,,,,,,,0,0,0,0,0
1.7198,1783966843.0668,1,1,3.0000,-0.0000,1.42244,-0.00158,-2.63110,1.06186,1.57080,0.11675,-0.12764,-0.48148,0.03658,,,,,,,,,,,,,,,,,,,,,,,,,,0,0,0,0,0
1.7211,1783966843.0681,1,1,3.0000,-0.0000,1.42244,-0.00158,-2.63110,1.06186,1.57080,0.11675,-0.12764,-0.48148,0.03658,,,,,,,,,,,,,,,,,,,,,,,,,,0,0,0,0,0
1.7216,1783966843.0685,1,1,3.0000,-0.0000,1.42244,-0.00158,-2.63110,1.06186,1.57080,0.11675,-0.12764,-0.48148,0.03658,,,,,,,,,,,,,,,,,,,,,,,,,,0,0,0,0,0
1.7242,1783966843.0712,1,1,3.0000,-0.0000,1.42244,-0.00158,-2.63110,1.06186,1.57080,0.11675,-0.12764,-0.48148,0.03658,,,,,,,,,,,,,,,,,,,,,,,,,,0,0,0,0,0
1.7247,1783966843.0717,1,1,3.0000,-0.0000,1.42244,-0.00158,-2.63110,1.06186,1.57080,0.11675,-0.12764,-0.48148,0.03658,,,,,,,,,,,,,,,,,,,,,,,,,,0,0,0,0,0
1.7344,1783966843.0813,1,1,3.0000,-0.0000,1.42244,-0.00158,-2.63110,1.06186,1.57080,0.11675,-0.12764,-0.48148,0.03658,,,,,,,,,,,,,,,,,,,,,,,,,,0,0,0,0,0
1.7382,1783966843.0851,1,1,3.0000,-0.0000,1.42244,-0.00158,-2.63110,1.06186,1.57080,0.11675,-0.12764,-0.48148,0.03658,,,,,,,,,,,,,,,,,,,,,,,,,,0,0,0,0,0
1.7384,1783966843.0854,1,1,3.0000,-0.0000,1.42244,-0.00158,-2.63110,1.06186,1.57080,0.11675,-0.12764,-0.48148,0.03658,,,,,,,,,,,,,,,,,,,,,,,,,,0,0,0,0,0
1.7430,1783966843.0899,1,1,3.0000,-0.0000,1.42244,-0.00158,-2.63110,1.06186,1.57080,0.11675,-0.12764,-0.48148,0.03658,,,,,,,,,,,,,,,,,,,,,,,,,,0,0,0,0,0
1.7433,1783966843.0902,1,1,3.0000,-0.0000,1.42244,-0.00158,-2.63110,1.06186,1.57080,0.11675,-0.12764,-0.48148,0.03658,,,,,,,,,,,,,,,,,,,,,,,,,,0,0,0,0,0
1.7440,1783966843.0910,1,1,3.0000,-0.0000,1.42244,-0.00158,-2.63110,1.06186,1.57080,0.11675,-0.12764,-0.48148,0.03658,,,,,,,,,,,,,,,,,,,,,,,,,,0,0,0,0,0
1.7501,1783966843.0971,1,1,3.0000,-0.0000,1.42244,-0.00158,-2.63110,1.06186,1.57080,0.11675,-0.12764,-0.48148,0.03658,,,,,,,,,,,,,,,,,,,,,,,,,,0,0,0,0,0
1.7607,1783966843.1077,1,1,3.0000,-0.0000,1.42244,-0.00158,-2.63110,1.06186,1.57080,0.11675,-0.12764,-0.48148,0.03658,,,,,,,,,,,,,,,,,,,,,,,,,,0,0,0,0,0
1.7632,1783966843.1101,1,1,3.0000,-0.0000,1.42244,-0.00158,-2.63110,1.06186,1.57080,0.11675,-0.12764,-0.48148,0.03658,,,,,,,,,,,,,,,,,,,,,,,,,,0,0,0,0,0
1.7636,1783966843.1106,1,1,3.0000,-0.0000,1.42244,-0.00158,-2.63110,1.06186,1.57080,0.11675,-0.12764,-0.48148,0.03658,,,,,,,,,,,,,,,,,,,,,,,,,,0,0,0,0,0
1.7703,1783966843.1173,1,1,3.0000,-0.0000,1.42244,-0.00158,-2.63110,1.06186,1.57080,0.11675,-0.12764,-0.48148,0.03658,,,,,,,,,,,,,,,,,,,,,,,,,,0,0,0,0,0
1.7708,1783966843.1178,1,1,3.0000,-0.0000,1.42244,-0.00158,-2.63110,1.06186,1.57080,0.11675,-0.12764,-0.48148,0.03658,,,,,,,,,,,,,,,,,,,,,,,,,,0,0,0,0,0
1.7832,1783966843.1302,1,1,3.0000,-0.0000,1.42244,-0.00158,-2.63110,1.06186,1.57080,0.11675,-0.12764,-0.48148,0.03658,,,,,,,,,,,,,,,,,,,,,,,,,,0,0,0,0,0
1.7913,1783966843.1383,1,1,3.0000,-0.0000,1.42244,-0.00158,-2.63110,1.06186,1.57080,0.11675,-0.12764,-0.48148,0.03658,,,,,,,,,,,,,,,,,,,,,,,,,,0,0,0,0,0
1.7933,1783966843.1403,1,1,3.0000,-0.0000,1.42244,-0.00158,-2.63110,1.06186,1.57080,0.11675,-0.12764,-0.48148,0.03658,,,,,,,,,,,,,,,,,,,,,,,,,,0,0,0,0,0
1.7948,1783966843.1418,1,1,3.0000,-0.0000,1.42244,-0.00158,-2.63110,1.06186,1.57080,0.11675,-0.12764,-0.48148,0.03658,,,,,,,,,,,,,,,,,,,,,,,,,,0,0,0,0,0
1.7951,1783966843.1420,1,1,3.0000,-0.0000,1.42244,-0.00158,-2.63110,1.06186,1.57080,0.11675,-0.12764,-0.48148,0.03658,,,,,,,,,,,,,,,,,,,,,,,,,,0,0,0,0,0
1.7997,1783966843.1466,1,1,3.0000,-0.0000,1.42244,-0.00158,-2.63110,1.06186,1.57080,0.11675,-0.12764,-0.48148,0.03658,,,,,,,,,,,,,,,,,,,,,,,,,,0,0,0,0,0
1.8015,1783966843.1485,1,1,3.0000,-0.0000,1.42244,-0.00158,-2.63110,1.06186,1.57080,0.11675,-0.12764,-0.48148,0.03658,,,,,,,,,,,,,,,,,,,,,,,,,,0,0,0,0,0
1.8052,1783966843.1522,1,1,3.0000,-0.0000,1.42244,-0.00158,-2.63110,1.06186,1.57080,0.11675,-0.12764,-0.48148,0.03658,,,,,,,,,,,,,,,,,,,,,,,,,,0,0,0,0,0
1.8143,1783966843.1613,1,1,3.0000,-0.0000,1.42244,-0.00158,-2.63110,1.06186,1.57080,0.11675,-0.12764,-0.48148,0.03658,,,,,,,,,,,,,,,,,,,,,,,,,,0,0,0,0,0
1.8149,1783966843.1618,1,1,3.0000,-0.0000,1.42244,-0.00158,-2.63110,1.06186,1.57080,0.11675,-0.12764,-0.48148,0.03658,,,,,,,,,,,,,,,,,,,,,,,,,,0,0,0,0,0
1.8154,1783966843.1623,1,1,3.0000,-0.0000,1.42244,-0.00158,-2.63110,1.06186,1.57080,0.11675,-0.12764,-0.48148,0.03658,,,,,,,,,,,,,,,,,,,,,,,,,,0,0,0,0,0
1.8185,1783966843.1654,1,1,3.0000,-0.0000,1.42244,-0.00158,-2.63110,1.06186,1.57080,0.11675,-0.12764,-0.48148,0.03658,,,,,,,,,,,,,,,,,,,,,,,,,,0,0,0,0,0
1.8189,1783966843.1659,1,1,3.0000,-0.0000,1.42244,-0.00158,-2.63110,1.06186,1.57080,0.11675,-0.12764,-0.48148,0.03658,,,,,,,,,,,,,,,,,,,,,,,,,,0,0,0,0,0
1.8194,1783966843.1663,1,1,3.0000,-0.0000,1.42244,-0.00158,-2.63110,1.06186,1.57080,0.11675,-0.12764,-0.48148,0.03658,,,,,,,,,,,,,,,,,,,,,,,,,,0,0,0,0,0
1.8212,1783966843.1682,1,1,3.0000,-0.0000,1.42244,-0.00158,-2.63110,1.06186,1.57080,0.11675,-0.12764,-0.48148,0.03658,,,,,,,,,,,,,,,,,,,,,,,,,,0,0,0,0,0
1.8221,1783966843.1690,1,1,3.0000,-0.0000,1.42244,-0.00158,-2.63110,1.06186,1.57080,0.11675,-0.12764,-0.48148,0.03658,,,,,,,,,,,,,,,,,,,,,,,,,,0,0,0,0,0
1.8223,1783966843.1693,1,1,3.0000,-0.0000,1.42244,-0.00158,-2.63110,1.06186,1.57080,0.11675,-0.12764,-0.48148,0.03658,,,,,,,,,,,,,,,,,,,,,,,,,,0,0,0,0,0
1.8225,1783966843.1695,1,1,3.0000,-0.0000,1.42244,-0.00158,-2.63110,1.06186,1.57080,0.11675,-0.12764,-0.48148,0.03658,,,,,,,,,,,,,,,,,,,,,,,,,,0,0,0,0,0
1.8233,1783966843.1703,1,1,3.0000,-0.0000,1.42244,-0.00158,-2.63110,1.06186,1.57080,0.11675,-0.12764,-0.48148,0.03658,,,,,,,,,,,,,,,,,,,,,,,,,,0,0,0,0,0
1.8235,1783966843.1705,1,1,3.0000,-0.0000,1.42244,-0.00158,-2.63110,1.06186,1.57080,0.11675,-0.12764,-0.48148,0.03658,,,,,,,,,,,,,,,,,,,,,,,,,,0,0,0,0,0
1.8247,1783966843.1717,1,1,3.0000,-0.0000,1.42244,-0.00158,-2.63110,1.06186,1.57080,0.11675,-0.12764,-0.48148,0.03658,,,,,,,,,,,,,,,,,,,,,,,,,,0,0,0,0,0
1.8250,1783966843.1719,1,1,3.0000,-0.0000,1.42244,-0.00158,-2.63110,1.06186,1.57080,0.11675,-0.12764,-0.48148,0.03658,,,,,,,,,,,,,,,,,,,,,,,,,,0,0,0,0,0
1.8335,1783966843.1805,1,1,3.0000,-0.0000,1.42244,-0.00158,-2.63110,1.06186,1.57080,0.11675,-0.12764,-0.48148,0.03658,,,,,,,,,,,,,,,,,,,,,,,,,,0,0,0,0,0
1.8435,1783966843.1905,1,1,3.0000,-0.0000,1.42244,-0.00158,-2.63110,1.06186,1.57080,0.11675,-0.12764,-0.48148,0.03658,,,,,,,,,,,,,,,,,,,,,,,,,,0,0,0,0,0
1.8455,1783966843.1924,1,1,3.0000,-0.0000,1.42244,-0.00158,-2.63110,1.06186,1.57080,0.11675,-0.12764,-0.48148,0.03658,,,,,,,,,,,,,,,,,,,,,,,,,,0,0,0,0,0
1.8460,1783966843.1930,1,1,3.0000,-0.0000,1.42244,-0.00158,-2.63110,1.06186,1.57080,0.11675,-0.12764,-0.48148,0.03658,,,,,,,,,,,,,,,,,,,,,,,,,,0,0,0,0,0
1.8463,1783966843.1933,1,1,3.0000,-0.0000,1.42244,-0.00158,-2.63110,1.06186,1.57080,0.11675,-0.12764,-0.48148,0.03658,,,,,,,,,,,,,,,,,,,,,,,,,,0,0,0,0,0
1.8466,1783966843.1935,1,1,3.0000,-0.0000,1.42244,-0.00158,-2.63110,1.06186,1.57080,0.11675,-0.12764,-0.48148,0.03658,,,,,,,,,,,,,,,,,,,,,,,,,,0,0,0,0,0
1.8553,1783966843.2022,1,1,3.0000,-0.0000,1.42244,-0.00158,-2.63110,1.06186,1.57080,0.11675,-0.12764,-0.48148,0.03658,,,,,,,,,,,,,,,,,,,,,,,,,,0,0,0,0,0
1.8574,1783966843.2044,1,1,3.0000,-0.0000,1.42244,-0.00158,-2.63110,1.06186,1.57080,0.11675,-0.12764,-0.48148,0.03658,,,,,,,,,,,,,,,,,,,,,,,,,,0,0,0,0,0
1.8580,1783966843.2050,1,1,3.0000,-0.0000,1.42244,-0.00159,-2.63110,1.06187,1.57080,0.11675,-0.12764,-0.48149,0.03658,,,,,,,,,,,,,,,,,,,,,,,,,,0,0,0,0,0
1.8611,1783966843.2080,1,1,3.0000,-0.0000,1.42244,-0.00159,-2.63110,1.06187,1.57080,0.11675,-0.12764,-0.48149,0.03658,,,,,,,,,,,,,,,,,,,,,,,,,,0,0,0,0,0
1.8614,1783966843.2084,1,1,3.0000,-0.0000,1.42244,-0.00159,-2.63110,1.06187,1.57080,0.11675,-0.12764,-0.48149,0.03658,,,,,,,,,,,,,,,,,,,,,,,,,,0,0,0,0,0
1.8623,1783966843.2093,1,1,3.0000,-0.0000,1.42244,-0.00159,-2.63110,1.06188,1.57080,0.11675,-0.12764,-0.48149,0.03657,,,,,,,,,,,,,,,,,,,,,,,,,,0,0,0,0,0
1.8627,1783966843.2096,1,1,3.0000,-0.0000,1.42244,-0.00159,-2.63110,1.06188,1.57080,0.11675,-0.12764,-0.48149,0.03657,,,,,,,,,,,,,,,,,,,,,,,,,,0,0,0,0,0
1.8634,1783966843.2104,1,1,3.0000,-0.0000,1.42244,-0.00159,-2.63110,1.06188,1.57080,0.11675,-0.12764,-0.48149,0.03657,,,,,,,,,,,,,,,,,,,,,,,,,,0,0,0,0,0
1.8636,1783966843.2106,1,1,3.0000,-0.0000,1.42244,-0.00159,-2.63110,1.06188,1.57080,0.11675,-0.12764,-0.48149,0.03657,,,,,,,,,,,,,,,,,,,,,,,,,,0,0,0,0,0
1.8722,1783966843.2191,1,1,3.0000,-0.0000,1.42244,-0.00161,-2.63110,1.06191,1.57080,0.11675,-0.12764,-0.48149,0.03657,,,,,,,,,,,,,,,,,,,,,,,,,,0,0,0,0,0
1.8727,1783966843.2197,1,1,3.0000,-0.0000,1.42244,-0.00161,-2.63110,1.06191,1.57080,0.11675,-0.12764,-0.48149,0.03657,,,,,,,,,,,,,,,,,,,,,,,,,,0,0,0,0,0
1.9425,1783966843.2894,1,1,3.0000,-0.0000,1.42243,-0.00185,-2.63121,1.06220,1.57080,0.11675,-0.12764,-0.48144,0.03646,,,,,,,,,,,,,,,,,,,,,,,,,,0,0,0,0,0
1.9455,1783966843.2924,1,1,3.0000,-0.0000,1.42243,-0.00185,-2.63121,1.06220,1.57080,0.11675,-0.12764,-0.48144,0.03646,,,,,,,,,,,,,,,,,,,,,,,,,,0,0,0,0,0
1.9460,1783966843.2930,1,1,3.0000,-0.0000,1.42243,-0.00186,-2.63121,1.06220,1.57080,0.11675,-0.12764,-0.48144,0.03646,,,,,,,,,,,,,,,,,,,,,,,,,,0,0,0,0,0
1.9635,1783966843.3105,1,1,3.0000,-0.0000,1.42243,-0.00196,-2.63124,1.06233,1.57080,0.11675,-0.12764,-0.48144,0.03642,,,,,,,,,,,,,,,,,,,,,,,,,,0,0,0,0,0
1.9647,1783966843.3117,1,1,3.0000,-0.0000,1.42243,-0.00196,-2.63124,1.06233,1.57080,0.11675,-0.12764,-0.48144,0.03642,,,,,,,,,,,,,,,,,,,,,,,,,,0,0,0,0,0
1.9690,1783966843.3160,1,1,3.0000,-0.0000,1.42243,-0.00200,-2.63124,1.06238,1.57080,0.11675,-0.12764,-0.48144,0.03641,,,,,,,,,,,,,,,,,,,,,,,,,,0,0,0,0,0
1.9694,1783966843.3164,1,1,3.0000,-0.0000,1.42243,-0.00200,-2.63124,1.06238,1.57080,0.11675,-0.12764,-0.48144,0.03641,,,,,,,,,,,,,,,,,,,,,,,,,,0,0,0,0,0
1.9701,1783966843.3170,1,1,3.0000,-0.0000,1.42243,-0.00204,-2.63125,1.06243,1.57080,0.11675,-0.12764,-0.48145,0.03640,,,,,,,,,,,,,,,,,,,,,,,,,,0,0,0,0,0
1.9708,1783966843.3178,1,1,3.0000,-0.0000,1.42243,-0.00204,-2.63125,1.06243,1.57080,0.11675,-0.12764,-0.48145,0.03640,,,,,,,,,,,,,,,,,,,,,,,,,,0,0,0,0,0
1.9713,1783966843.3182,1,1,3.0000,-0.0000,1.42243,-0.00204,-2.63125,1.06243,1.57080,0.11675,-0.12764,-0.48145,0.03640,,,,,,,,,,,,,,,,,,,,,,,,,,0,0,0,0,0
1.9731,1783966843.3200,1,1,3.0000,-0.0000,1.42243,-0.00204,-2.63125,1.06243,1.57080,0.11675,-0.12764,-0.48145,0.03640,,,,,,,,,,,,,,,,,,,,,,,,,,0,0,0,0,0
1.9735,1783966843.3205,1,1,3.0000,-0.0000,1.42243,-0.00204,-2.63125,1.06243,1.57080,0.11675,-0.12764,-0.48145,0.03640,,,,,,,,,,,,,,,,,,,,,,,,,,0,0,0,0,0
1.9808,1783966843.3278,1,1,3.0000,-0.0000,1.42243,-0.00205,-2.63125,1.06244,1.57080,0.11675,-0.12764,-0.48145,0.03639,,,,,,,,,,,,,,,,,,,,,,,,,,0,0,0,0,0
1.9812,1783966843.3282,1,1,3.0000,-0.0000,1.42243,-0.00205,-2.63125,1.06244,1.57080,0.11675,-0.12764,-0.48145,0.03639,,,,,,,,,,,,,,,,,,,,,,,,,,0,0,0,0,0
1.9948,1783966843.3418,1,1,3.0000,-0.0000,1.42243,-0.00218,-2.63128,1.06260,1.57080,0.11675,-0.12764,-0.48145,0.03635,,,,,,,,,,,,,,,,,,,,,,,,,,0,0,0,0,0
1.9954,1783966843.3424,1,1,3.0000,-0.0000,1.42243,-0.00218,-2.63128,1.06260,1.57080,0.11675,-0.12764,-0.48145,0.03635,,,,,,,,,,,,,,,,,,,,,,,,,,0,0,0,0,0
1.9957,1783966843.3427,1,1,3.0000,-0.0000,1.42243,-0.00218,-2.63128,1.06260,1.57080,0.11675,-0.12764,-0.48145,0.03635,,,,,,,,,,,,,,,,,,,,,,,,,,0,0,0,0,0
1.9980,1783966843.3450,1,1,3.0000,-0.0000,1.42243,-0.00218,-2.63128,1.06260,1.57080,0.11675,-0.12764,-0.48145,0.03635,,,,,,,,,,,,,,,,,,,,,,,,,,0,0,0,0,0
2.0003,1783966843.3473,1,1,3.0000,-0.0000,1.42243,-0.00218,-2.63128,1.06260,1.57080,0.11675,-0.12764,-0.48145,0.03635,,,,,,,,,,,,,,,,,,,,,,,,,,0,0,0,0,0
2.0006,1783966843.3476,1,1,3.0000,-0.0000,1.42243,-0.00218,-2.63128,1.06260,1.57080,0.11675,-0.12764,-0.48145,0.03635,,,,,,,,,,,,,,,,,,,,,,,,,,0,0,0,0,0
2.0013,1783966843.3483,1,1,3.0000,-0.0000,1.42243,-0.00218,-2.63128,1.06260,1.57080,0.11675,-0.12764,-0.48145,0.03635,,,,,,,,,,,,,,,,,,,,,,,,,,0,0,0,0,0
2.0018,1783966843.3488,1,1,3.0000,-0.0000,1.42243,-0.00219,-2.63128,1.06260,1.57080,0.11675,-0.12764,-0.48145,0.03635,,,,,,,,,,,,,,,,,,,,,,,,,,0,0,0,0,0
2.0063,1783966843.3532,1,1,3.0000,-0.0000,1.42243,-0.00220,-2.63128,1.06263,1.57080,0.11675,-0.12764,-0.48145,0.03635,,,,,,,,,,,,,,,,,,,,,,,,,,0,0,0,0,0
2.0743,1783966843.4213,1,1,3.0000,-0.0000,1.42243,-0.00278,-2.63135,1.06334,1.57080,0.11675,-0.12763,-0.48149,0.03618,,,,,,,,,,,,,,,,,,,,,,,,,,0,0,0,0,0
2.0748,1783966843.4217,1,1,3.0000,-0.0000,1.42243,-0.00278,-2.63135,1.06334,1.57080,0.11675,-0.12763,-0.48149,0.03618,,,,,,,,,,,,,,,,,,,,,,,,,,0,0,0,0,0
2.0789,1783966843.4259,1,1,3.0000,-0.0000,1.42243,-0.00278,-2.63135,1.06334,1.57080,0.11675,-0.12763,-0.48149,0.03618,,,,,,,,,,,,,,,,,,,,,,,,,,0,0,0,0,0
2.0905,1783966843.4375,1,1,3.0000,-0.0000,1.42243,-0.00278,-2.63135,1.06334,1.57080,0.11675,-0.12763,-0.48149,0.03618,,,,,,,,,,,,,,,,,,,,,,,,,,0,0,0,0,0
2.0908,1783966843.4377,1,1,3.0000,-0.0000,1.42243,-0.00278,-2.63135,1.06334,1.57080,0.11675,-0.12763,-0.48149,0.03618,,,,,,,,,,,,,,,,,,,,,,,,,,0,0,0,0,0
2.1007,1783966843.4477,1,1,3.0000,-0.0000,1.42243,-0.00278,-2.63135,1.06334,1.57080,0.11675,-0.12763,-0.48149,0.03618,,,,,,,,,,,,,,,,,,,,,,,,,,0,0,0,0,0
2.1012,1783966843.4482,1,1,3.0000,-0.0000,1.42243,-0.00278,-2.63135,1.06334,1.57080,0.11675,-0.12763,-0.48149,0.03618,,,,,,,,,,,,,,,,,,,,,,,,,,0,0,0,0,0
2.1031,1783966843.4501,1,1,3.0000,-0.0000,1.42243,-0.00278,-2.63135,1.06334,1.57080,0.11675,-0.12763,-0.48149,0.03618,,,,,,,,,,,,,,,,,,,,,,,,,,0,0,0,0,0
2.1081,1783966843.4551,1,1,3.0000,-0.0000,1.42243,-0.00278,-2.63135,1.06334,1.57080,0.11675,-0.12763,-0.48149,0.03618,,,,,,,,,,,,,,,,,,,,,,,,,,0,0,0,0,0
2.1090,1783966843.4559,1,1,3.0000,-0.0000,1.42243,-0.00278,-2.63135,1.06334,1.57080,0.11675,-0.12763,-0.48149,0.03618,,,,,,,,,,,,,,,,,,,,,,,,,,0,0,0,0,0
2.1094,1783966843.4564,1,1,3.0000,-0.0000,1.42243,-0.00278,-2.63135,1.06334,1.57080,0.11675,-0.12763,-0.48149,0.03618,,,,,,,,,,,,,,,,,,,,,,,,,,0,0,0,0,0
2.1207,1783966843.4677,1,1,3.0000,-0.0000,1.42243,-0.00278,-2.63135,1.06334,1.57080,0.11675,-0.12763,-0.48149,0.03618,,,,,,,,,,,,,,,,,,,,,,,,,,0,0,0,0,0
2.1306,1783966843.4776,1,1,3.0000,-0.0000,1.42243,-0.00278,-2.63135,1.06334,1.57080,0.11675,-0.12763,-0.48149,0.03618,,,,,,,,,,,,,,,,,,,,,,,,,,0,0,0,0,0
2.1345,1783966843.4814,1,1,3.0000,-0.0000,1.42243,-0.00278,-2.63135,1.06334,1.57080,0.11675,-0.12763,-0.48149,0.03618,,,,,,,,,,,,,,,,,,,,,,,,,,0,0,0,0,0
2.1348,1783966843.4817,1,1,3.0000,-0.0000,1.42243,-0.00278,-2.63135,1.06334,1.57080,0.11675,-0.12763,-0.48149,0.03618,,,,,,,,,,,,,,,,,,,,,,,,,,0,0,0,0,0
2.1494,1783966843.4964,1,1,3.0000,-0.0000,1.42243,-0.00278,-2.63135,1.06334,1.57080,0.11675,-0.12763,-0.48149,0.03618,,,,,,,,,,,,,,,,,,,,,,,,,,0,0,0,0,0
2.1620,1783966843.5090,1,1,3.0000,-0.0000,1.42243,-0.00278,-2.63135,1.06334,1.57080,0.11675,-0.12763,-0.48149,0.03618,,,,,,,,,,,,,,,,,,,,,,,,,,0,0,0,0,0
2.1622,1783966843.5092,1,1,3.0000,-0.0000,1.42243,-0.00278,-2.63135,1.06334,1.57080,0.11675,-0.12763,-0.48149,0.03618,,,,,,,,,,,,,,,,,,,,,,,,,,0,0,0,0,0
2.1626,1783966843.5096,1,1,3.0000,-0.0000,1.42243,-0.00278,-2.63135,1.06334,1.57080,0.11675,-0.12763,-0.48149,0.03618,,,,,,,,,,,,,,,,,,,,,,,,,,0,0,0,0,0
2.1700,1783966843.5170,1,1,3.0000,-0.0000,1.42243,-0.00278,-2.63135,1.06334,1.57080,0.11675,-0.12763,-0.48149,0.03618,,,,,,,,,,,,,,,,,,,,,,,,,,0,0,0,0,0
2.1702,1783966843.5172,1,1,3.0000,-0.0000,1.42243,-0.00278,-2.63135,1.06334,1.57080,0.11675,-0.12763,-0.48149,0.03618,,,,,,,,,,,,,,,,,,,,,,,,,,0,0,0,0,0
2.1942,1783966843.5411,1,1,3.0000,-0.0000,1.42243,-0.00278,-2.63135,1.06334,1.57080,0.11675,-0.12763,-0.48149,0.03618,,,,,,,,,,,,,,,,,,,,,,,,,,0,0,0,0,0
2.2142,1783966843.5612,1,1,3.0000,-0.0000,1.42243,-0.00278,-2.63135,1.06334,1.57080,0.11675,-0.12763,-0.48149,0.03618,,,,,,,,,,,,,,,,,,,,,,,,,,0,0,0,0,0
2.2145,1783966843.5615,1,1,3.0000,-0.0000,1.42243,-0.00278,-2.63135,1.06334,1.57080,0.11675,-0.12763,-0.48149,0.03618,,,,,,,,,,,,,,,,,,,,,,,,,,0,0,0,0,0
2.2202,1783966843.5672,1,1,3.0000,-0.0000,1.42243,-0.00278,-2.63135,1.06334,1.57080,0.11675,-0.12763,-0.48149,0.03618,,,,,,,,,,,,,,,,,,,,,,,,,,0,0,0,0,0
2.2206,1783966843.5675,1,1,3.0000,-0.0000,1.42243,-0.00278,-2.63135,1.06334,1.57080,0.11675,-0.12763,-0.48149,0.03618,,,,,,,,,,,,,,,,,,,,,,,,,,0,0,0,0,0
2.2308,1783966843.5778,1,1,3.0000,-0.0000,1.42243,-0.00278,-2.63135,1.06334,1.57080,0.11675,-0.12763,-0.48149,0.03618,,,,,,,,,,,,,,,,,,,,,,,,,,0,0,0,0,0
2.2323,1783966843.5793,1,1,3.0000,-0.0000,1.42243,-0.00278,-2.63135,1.06334,1.57080,0.11675,-0.12763,-0.48149,0.03618,,,,,,,,,,,,,,,,,,,,,,,,,,0,0,0,0,0
2.2327,1783966843.5797,1,1,3.0000,-0.0000,1.42243,-0.00278,-2.63135,1.06334,1.57080,0.11675,-0.12763,-0.48149,0.03618,,,,,,,,,,,,,,,,,,,,,,,,,,0,0,0,0,0
2.2382,1783966843.5852,1,1,3.0000,-0.0000,1.42243,-0.00278,-2.63135,1.06334,1.57080,0.11675,-0.12763,-0.48149,0.03618,,,,,,,,,,,,,,,,,,,,,,,,,,0,0,0,0,0
2.2507,1783966843.5977,1,1,3.0000,-0.0000,1.42243,-0.00278,-2.63135,1.06334,1.57080,0.11675,-0.12763,-0.48149,0.03618,,,,,,,,,,,,,,,,,,,,,,,,,,0,0,0,0,0
2.2510,1783966843.5979,1,1,3.0000,-0.0000,1.42243,-0.00278,-2.63135,1.06334,1.57080,0.11675,-0.12763,-0.48149,0.03618,,,,,,,,,,,,,,,,,,,,,,,,,,0,0,0,0,0
2.2641,1783966843.6111,1,1,3.0000,-0.0000,1.42243,-0.00278,-2.63135,1.06334,1.57080,0.11675,-0.12763,-0.48149,0.03618,,,,,,,,,,,,,,,,,,,,,,,,,,0,0,0,0,0
2.2646,1783966843.6115,1,1,3.0000,-0.0000,1.42243,-0.00278,-2.63135,1.06334,1.57080,0.11675,-0.12763,-0.48149,0.03618,,,,,,,,,,,,,,,,,,,,,,,,,,0,0,0,0,0
2.2730,1783966843.6200,1,1,3.0000,-0.0000,1.42243,-0.00278,-2.63135,1.06334,1.57080,0.11675,-0.12763,-0.48149,0.03618,,,,,,,,,,,,,,,,,,,,,,,,,,0,0,0,0,0
2.2736,1783966843.6206,1,1,3.0000,-0.0000,1.42243,-0.00278,-2.63135,1.06334,1.57080,0.11675,-0.12763,-0.48149,0.03618,,,,,,,,,,,,,,,,,,,,,,,,,,0,0,0,0,0
2.2823,1783966843.6292,1,1,3.0000,-0.0000,1.42243,-0.00278,-2.63135,1.06335,1.57080,0.11675,-0.12763,-0.48150,0.03618,,,,,,,,,,,,,,,,,,,,,,,,,,0,0,0,0,0
2.2827,1783966843.6296,1,1,3.0000,-0.0000,1.42243,-0.00278,-2.63135,1.06335,1.57080,0.11675,-0.12763,-0.48150,0.03618,,,,,,,,,,,,,,,,,,,,,,,,,,0,0,0,0,0
2.2880,1783966843.6350,1,1,3.0000,-0.0000,1.42243,-0.00279,-2.63135,1.06336,1.57080,0.11675,-0.12763,-0.48150,0.03617,,,,,,,,,,,,,,,,,,,,,,,,,,0,0,0,0,0
2.3032,1783966843.6502,1,1,3.0000,-0.0000,1.42243,-0.00282,-2.63136,1.06340,1.57080,0.11675,-0.12763,-0.48150,0.03617,,,,,,,,,,,,,,,,,,,,,,,,,,0,0,0,0,0
2.3123,1783966843.6593,1,1,3.0000,-0.0000,1.42243,-0.00283,-2.63137,1.06341,1.57080,0.11675,-0.12763,-0.48150,0.03616,,,,,,,,,,,,,,,,,,,,,,,,,,0,0,0,0,0
2.3224,1783966843.6693,1,1,3.0000,-0.0000,1.42243,-0.00287,-2.63140,1.06346,1.57080,0.11675,-0.12764,-0.48148,0.03614,,,,,,,,,,,,,,,,,,,,,,,,,,0,0,0,0,0
2.3290,1783966843.6760,1,1,3.0000,-0.0000,1.42243,-0.00289,-2.63141,1.06348,1.57080,0.11675,-0.12764,-0.48147,0.03613,,,,,,,,,,,,,,,,,,,,,,,,,,0,0,0,0,0
2.3294,1783966843.6763,1,1,3.0000,-0.0000,1.42243,-0.00289,-2.63141,1.06348,1.57080,0.11675,-0.12764,-0.48147,0.03613,,,,,,,,,,,,,,,,,,,,,,,,,,0,0,0,0,0
2.3386,1783966843.6856,1,1,3.0000,-0.0000,1.42243,-0.00291,-2.63143,1.06351,1.57080,0.11675,-0.12764,-0.48147,0.03611,,,,,,,,,,,,,,,,,,,,,,,,,,0,0,0,0,0
2.3485,1783966843.6954,1,1,3.0000,-0.0000,1.42243,-0.00294,-2.63144,1.06354,1.57080,0.11675,-0.12764,-0.48146,0.03610,,,,,,,,,,,,,,,,,,,,,,,,,,0,0,0,0,0
2.3580,1783966843.7050,1,1,3.0000,-0.0000,1.42243,-0.00299,-2.63146,1.06359,1.57080,0.11675,-0.12764,-0.48145,0.03608,,,,,,,,,,,,,,,,,,,,,,,,,,0,0,0,0,0
2.3681,1783966843.7151,1,1,3.0000,-0.0000,1.42243,-0.00301,-2.63146,1.06362,1.57080,0.11675,-0.12764,-0.48145,0.03607,,,,,,,,,,,,,,,,,,,,,,,,,,0,0,0,0,0
2.3843,1783966843.7313,1,1,3.0000,-0.0000,1.42243,-0.00314,-2.63149,1.06378,1.57080,0.11675,-0.12764,-0.48145,0.03603,,,,,,,,,,,,,,,,,,,,,,,,,,0,0,0,0,0
2.3965,1783966843.7435,1,1,3.0000,-0.0000,1.42243,-0.00320,-2.63150,1.06385,1.57080,0.11675,-0.12764,-0.48145,0.03601,,,,,,,,,,,,,,,,,,,,,,,,,,0,0,0,0,0
2.3970,1783966843.7439,1,1,3.0000,-0.0000,1.42243,-0.00320,-2.63150,1.06385,1.57080,0.11675,-0.12764,-0.48145,0.03601,,,,,,,,,,,,,,,,,,,,,,,,,,0,0,0,0,0
2.3987,1783966843.7457,1,1,3.0000,-0.0000,1.42243,-0.00321,-2.63151,1.06387,1.57080,0.11675,-0.12764,-0.48145,0.03600,,,,,,,,,,,,,,,,,,,,,,,,,,0,0,0,0,0
2.3991,1783966843.7460,1,1,3.0000,-0.0000,1.42243,-0.00321,-2.63151,1.06387,1.57080,0.11675,-0.12764,-0.48145,0.03600,,,,,,,,,,,,,,,,,,,,,,,,,,0,0,0,0,0
2.4075,1783966843.7545,1,1,3.0000,-0.0000,1.42243,-0.00328,-2.63152,1.06394,1.57080,0.11675,-0.12764,-0.48145,0.03598,,,,,,,,,,,,,,,,,,,,,,,,,,0,0,0,0,0
2.4078,1783966843.7548,1,1,3.0000,-0.0000,1.42243,-0.00328,-2.63152,1.06394,1.57080,0.11675,-0.12764,-0.48145,0.03598,,,,,,,,,,,,,,,,,,,,,,,,,,0,0,0,0,0
2.4254,1783966843.7724,1,1,3.0000,-0.0000,1.42243,-0.00342,-2.63154,1.06411,1.57080,0.11675,-0.12764,-0.48146,0.03594,,,,,,,,,,,,,,,,,,,,,,,,,,0,0,0,0,0
2.4275,1783966843.7745,1,1,3.0000,-0.0000,1.42243,-0.00343,-2.63154,1.06412,1.57080,0.11675,-0.12764,-0.48146,0.03593,,,,,,,,,,,,,,,,,,,,,,,,,,0,0,0,0,0
2.4278,1783966843.7747,1,1,3.0000,-0.0000,1.42243,-0.00343,-2.63154,1.06412,1.57080,0.11675,-0.12764,-0.48146,0.03593,,,,,,,,,,,,,,,,,,,,,,,,,,0,0,0,0,0
2.4380,1783966843.7850,1,1,3.0000,-0.0000,1.42243,-0.00347,-2.63155,1.06417,1.57080,0.11675,-0.12764,-0.48146,0.03592,,,,,,,,,,,,,,,,,,,,,,,,,,0,0,0,0,0
2.4565,1783966843.8035,1,1,3.0000,-0.0000,1.42243,-0.00368,-2.63158,1.06442,1.57080,0.11675,-0.12764,-0.48147,0.03586,,,,,,,,,,,,,,,,,,,,,,,,,,0,0,0,0,0
2.4583,1783966843.8052,1,1,3.0000,-0.0000,1.42243,-0.00373,-2.63159,1.06448,1.57080,0.11675,-0.12763,-0.48148,0.03584,,,,,,,,,,,,,,,,,,,,,,,,,,0,0,0,0,0
2.4585,1783966843.8055,1,1,3.0000,-0.0000,1.42243,-0.00373,-2.63159,1.06448,1.57080,0.11675,-0.12763,-0.48148,0.03584,,,,,,,,,,,,,,,,,,,,,,,,,,0,0,0,0,0
2.4710,1783966843.8180,1,1,3.0000,-0.0000,1.42243,-0.00386,-2.63160,1.06465,1.57080,0.11675,-0.12763,-0.48148,0.03580,,,,,,,,,,,,,,,,,,,,,,,,,,0,0,0,0,0
2.4713,1783966843.8182,1,1,3.0000,-0.0000,1.42243,-0.00386,-2.63160,1.06465,1.57080,0.11675,-0.12763,-0.48148,0.03580,,,,,,,,,,,,,,,,,,,,,,,,,,0,0,0,0,0
2.4788,1783966843.8258,1,1,3.0000,-0.0000,1.42243,-0.00393,-2.63161,1.06474,1.57080,0.11675,-0.12763,-0.48149,0.03578,,,,,,,,,,,,,,,,,,,,,,,,,,0,0,0,0,0
2.4791,1783966843.8260,1,1,3.0000,-0.0000,1.42243,-0.00393,-2.63161,1.06474,1.57080,0.11675,-0.12763,-0.48149,0.03578,,,,,,,,,,,,,,,,,,,,,,,,,,0,0,0,0,0
2.4993,1783966843.8463,1,1,3.0000,-0.0000,1.42243,-0.00396,-2.63161,1.06477,1.57080,0.11675,-0.12763,-0.48149,0.03578,,,,,,,,,,,,,,,,,,,,,,,,,,0,0,0,0,0
2.5109,1783966843.8578,1,1,3.0000,-0.0000,1.42243,-0.00396,-2.63161,1.06477,1.57080,0.11675,-0.12763,-0.48149,0.03578,,,,,,,,,,,,,,,,,,,,,,,,,,0,0,0,0,0
2.5112,1783966843.8582,1,1,3.0000,-0.0000,1.42243,-0.00396,-2.63161,1.06477,1.57080,0.11675,-0.12763,-0.48149,0.03578,,,,,,,,,,,,,,,,,,,,,,,,,,0,0,0,0,0
2.5294,1783966843.8764,1,1,3.0000,-0.0000,1.42243,-0.00396,-2.63161,1.06477,1.57080,0.11675,-0.12763,-0.48149,0.03578,,,,,,,,,,,,,,,,,,,,,,,,,,0,0,0,0,0
2.5302,1783966843.8772,1,1,3.0000,-0.0000,1.42243,-0.00396,-2.63161,1.06477,1.57080,0.11675,-0.12763,-0.48149,0.03578,,,,,,,,,,,,,,,,,,,,,,,,,,0,0,0,0,0
2.5387,1783966843.8856,1,1,3.0000,-0.0000,1.42243,-0.00396,-2.63161,1.06477,1.57080,0.11675,-0.12763,-0.48149,0.03578,,,,,,,,,,,,,,,,,,,,,,,,,,0,0,0,0,0
2.5389,1783966843.8859,1,1,3.0000,-0.0000,1.42243,-0.00396,-2.63161,1.06477,1.57080,0.11675,-0.12763,-0.48149,0.03578,,,,,,,,,,,,,,,,,,,,,,,,,,0,0,0,0,0
2.5610,1783966843.9080,1,1,3.0000,-0.0000,1.42243,-0.00396,-2.63161,1.06477,1.57080,0.11675,-0.12763,-0.48149,0.03578,,,,,,,,,,,,,,,,,,,,,,,,,,0,0,0,0,0
2.5613,1783966843.9083,1,1,3.0000,-0.0000,1.42243,-0.00396,-2.63161,1.06477,1.57080,0.11675,-0.12763,-0.48149,0.03578,,,,,,,,,,,,,,,,,,,,,,,,,,0,0,0,0,0
2.5731,1783966843.9200,1,1,3.0000,-0.0000,1.42243,-0.00396,-2.63161,1.06477,1.57080,0.11675,-0.12763,-0.48149,0.03578,,,,,,,,,,,,,,,,,,,,,,,,,,0,0,0,0,0
2.5734,1783966843.9204,1,1,3.0000,-0.0000,1.42243,-0.00396,-2.63161,1.06477,1.57080,0.11675,-0.12763,-0.48149,0.03578,,,,,,,,,,,,,,,,,,,,,,,,,,0,0,0,0,0
2.5774,1783966843.9244,1,1,3.0000,-0.0000,1.42243,-0.00396,-2.63161,1.06477,1.57080,0.11675,-0.12763,-0.48149,0.03578,,,,,,,,,,,,,,,,,,,,,,,,,,0,0,0,0,0
2.5781,1783966843.9250,1,1,3.0000,-0.0000,1.42243,-0.00396,-2.63161,1.06477,1.57080,0.11675,-0.12763,-0.48149,0.03578,,,,,,,,,,,,,,,,,,,,,,,,,,0,0,0,0,0
2.5902,1783966843.9372,1,1,3.0000,-0.0000,1.42243,-0.00396,-2.63161,1.06477,1.57080,0.11675,-0.12763,-0.48149,0.03578,,,,,,,,,,,,,,,,,,,,,,,,,,0,0,0,0,0
2.5905,1783966843.9375,1,1,3.0000,-0.0000,1.42243,-0.00396,-2.63161,1.06477,1.57080,0.11675,-0.12763,-0.48149,0.03578,,,,,,,,,,,,,,,,,,,,,,,,,,0,0,0,0,0
2.6104,1783966843.9574,1,1,3.0000,-0.0000,1.42243,-0.00396,-2.63161,1.06477,1.57080,0.11675,-0.12763,-0.48149,0.03578,,,,,,,,,,,,,,,,,,,,,,,,,,0,0,0,0,0
2.6111,1783966843.9580,1,1,3.0000,-0.0000,1.42243,-0.00396,-2.63161,1.06477,1.57080,0.11675,-0.12763,-0.48149,0.03578,,,,,,,,,,,,,,,,,,,,,,,,,,0,0,0,0,0
2.6114,1783966843.9584,1,1,3.0000,-0.0000,1.42243,-0.00396,-2.63161,1.06477,1.57080,0.11675,-0.12763,-0.48149,0.03578,,,,,,,,,,,,,,,,,,,,,,,,,,0,0,0,0,0
2.6197,1783966843.9666,1,1,3.0000,-0.0000,1.42243,-0.00396,-2.63161,1.06477,1.57080,0.11675,-0.12763,-0.48149,0.03578,,,,,,,,,,,,,,,,,,,,,,,,,,0,0,0,0,0
2.6313,1783966843.9783,1,1,3.0000,-0.0000,1.42243,-0.00396,-2.63161,1.06477,1.57080,0.11675,-0.12763,-0.48149,0.03578,,,,,,,,,,,,,,,,,,,,,,,,,,0,0,0,0,0
2.6422,1783966843.9892,1,1,3.0000,-0.0000,1.42243,-0.00396,-2.63161,1.06477,1.57080,0.11675,-0.12763,-0.48149,0.03578,,,,,,,,,,,,,,,,,,,,,,,,,,0,0,0,0,0
2.6424,1783966843.9894,1,1,3.0000,-0.0000,1.42243,-0.00396,-2.63161,1.06477,1.57080,0.11675,-0.12763,-0.48149,0.03578,,,,,,,,,,,,,,,,,,,,,,,,,,0,0,0,0,0
2.6556,1783966844.0025,1,1,3.0000,-0.0000,1.42243,-0.00396,-2.63161,1.06477,1.57080,0.11675,-0.12763,-0.48149,0.03578,,,,,,,,,,,,,,,,,,,,,,,,,,0,0,0,0,0
2.6595,1783966844.0065,1,1,3.0000,-0.0000,1.42243,-0.00396,-2.63161,1.06477,1.57080,0.11675,-0.12763,-0.48149,0.03578,,,,,,,,,,,,,,,,,,,,,,,,,,0,0,0,0,0
2.6794,1783966844.0264,1,1,3.0000,-0.0000,1.42243,-0.00396,-2.63161,1.06477,1.57080,0.11675,-0.12763,-0.48149,0.03578,,,,,,,,,,,,,,,,,,,,,,,,,,0,0,0,0,0
2.6822,1783966844.0292,1,1,3.0000,-0.0000,1.42243,-0.00396,-2.63161,1.06477,1.57080,0.11675,-0.12763,-0.48149,0.03578,,,,,,,,,,,,,,,,,,,,,,,,,,0,0,0,0,0
2.6824,1783966844.0294,1,1,3.0000,-0.0000,1.42243,-0.00396,-2.63161,1.06477,1.57080,0.11675,-0.12763,-0.48149,0.03578,,,,,,,,,,,,,,,,,,,,,,,,,,0,0,0,0,0
2.6918,1783966844.0388,1,1,3.0000,-0.0000,1.42243,-0.00396,-2.63161,1.06477,1.57080,0.11675,-0.12763,-0.48149,0.03578,,,,,,,,,,,,,,,,,,,,,,,,,,0,0,0,0,0
2.6922,1783966844.0391,1,1,3.0000,-0.0000,1.42243,-0.00396,-2.63161,1.06477,1.57080,0.11675,-0.12763,-0.48149,0.03578,,,,,,,,,,,,,,,,,,,,,,,,,,0,0,0,0,0
2.7116,1783966844.0586,1,1,3.0000,-0.0000,1.42243,-0.00397,-2.63162,1.06479,1.57080,0.11675,-0.12763,-0.48150,0.03577,,,,,,,,,,,,,,,,,,,,,,,,,,0,0,0,0,0
2.7132,1783966844.0601,1,1,3.0000,-0.0000,1.42243,-0.00397,-2.63162,1.06479,1.57080,0.11675,-0.12763,-0.48150,0.03577,,,,,,,,,,,,,,,,,,,,,,,,,,0,0,0,0,0
2.7201,1783966844.0671,1,1,3.0000,-0.0000,1.42243,-0.00398,-2.63162,1.06481,1.57080,0.11675,-0.12763,-0.48150,0.03577,,,,,,,,,,,,,,,,,,,,,,,,,,0,0,0,0,0
2.7329,1783966844.0798,1,1,3.0000,-0.0000,1.42243,-0.00400,-2.63163,1.06483,1.57080,0.11675,-0.12763,-0.48149,0.03576,,,,,,,,,,,,,,,,,,,,,,,,,,0,0,0,0,0
2.7434,1783966844.0904,1,1,3.0000,-0.0000,1.42243,-0.00406,-2.63167,1.06490,1.57080,0.11675,-0.12764,-0.48147,0.03573,,,,,,,,,,,,,,,,,,,,,,,,,,0,0,0,0,0
2.7546,1783966844.1015,1,1,3.0000,-0.0000,1.42243,-0.00409,-2.63169,1.06493,1.57080,0.11675,-0.12764,-0.48146,0.03571,,,,,,,,,,,,,,,,,,,,,,,,,,0,0,0,0,0
2.7594,1783966844.1064,1,1,3.0000,-0.0000,1.42243,-0.00410,-2.63169,1.06495,1.57080,0.11675,-0.12764,-0.48146,0.03571,,,,,,,,,,,,,,,,,,,,,,,,,,0,0,0,0,0
2.7678,1783966844.1148,1,1,3.0000,-0.0000,1.42243,-0.00413,-2.63171,1.06499,1.57080,0.11675,-0.12764,-0.48145,0.03569,,,,,,,,,,,,,,,,,,,,,,,,,,0,0,0,0,0
2.7783,1783966844.1253,1,1,3.0000,-0.0000,1.42243,-0.00421,-2.63174,1.06508,1.57080,0.11675,-0.12764,-0.48144,0.03566,,,,,,,,,,,,,,,,,,,,,,,,,,0,0,0,0,0
2.7885,1783966844.1354,1,1,3.0000,-0.0000,1.42243,-0.00422,-2.63174,1.06508,1.57080,0.11675,-0.12764,-0.48144,0.03566,,,,,,,,,,,,,,,,,,,,,,,,,,0,0,0,0,0
2.7888,1783966844.1357,1,1,3.0000,-0.0000,1.42243,-0.00422,-2.63174,1.06508,1.57080,0.11675,-0.12764,-0.48144,0.03566,,,,,,,,,,,,,,,,,,,,,,,,,,0,0,0,0,0
2.7999,1783966844.1469,1,1,3.0000,-0.0000,1.42243,-0.00428,-2.63176,1.06516,1.57080,0.11675,-0.12764,-0.48144,0.03563,,,,,,,,,,,,,,,,,,,,,,,,,,0,0,0,0,0
2.8217,1783966844.1687,1,1,3.0000,-0.0000,1.42243,-0.00440,-2.63178,1.06531,1.57080,0.11675,-0.12764,-0.48144,0.03559,,,,,,,,,,,,,,,,,,,,,,,,,,0,0,0,0,0
2.8226,1783966844.1696,1,1,3.0000,-0.0000,1.42243,-0.00442,-2.63178,1.06533,1.57080,0.11675,-0.12764,-0.48144,0.03559,,,,,,,,,,,,,,,,,,,,,,,,,,0,0,0,0,0
2.8364,1783966844.1833,1,1,3.0000,-0.0000,1.42243,-0.00452,-2.63180,1.06546,1.57080,0.11675,-0.12764,-0.48145,0.03556,,,,,,,,,,,,,,,,,,,,,,,,,,0,0,0,0,0
2.8415,1783966844.1885,1,1,3.0000,-0.0000,1.42243,-0.00457,-2.63181,1.06552,1.57080,0.11675,-0.12764,-0.48145,0.03554,,,,,,,,,,,,,,,,,,,,,,,,,,0,0,0,0,0
2.8614,1783966844.2083,1,1,3.0000,-0.0000,1.42242,-0.00467,-2.63182,1.06563,1.57080,0.11675,-0.12764,-0.48145,0.03551,,,,,,,,,,,,,,,,,,,,,,,,,,0,0,0,0,0
2.8616,1783966844.2086,1,1,3.0000,-0.0000,1.42242,-0.00467,-2.63182,1.06563,1.57080,0.11675,-0.12764,-0.48145,0.03551,,,,,,,,,,,,,,,,,,,,,,,,,,0,0,0,0,0
2.8623,1783966844.2092,1,1,3.0000,-0.0000,1.42242,-0.00470,-2.63183,1.06567,1.57080,0.11675,-0.12764,-0.48146,0.03550,,,,,,,,,,,,,,,,,,,,,,,,,,0,0,0,0,0
2.9651,1783966844.3121,1,1,3.0000,-0.0000,1.42242,-0.00515,-2.63188,1.06624,1.57080,0.11675,-0.12763,-0.48149,0.03537,,,,,,,,,,,,,,,,,,,,,,,,,,0,0,0,0,0
2.9656,1783966844.3125,1,1,3.0000,-0.0000,1.42242,-0.00515,-2.63188,1.06624,1.57080,0.11675,-0.12763,-0.48149,0.03537,,,,,,,,,,,,,,,,,,,,,,,,,,0,0,0,0,0
2.9663,1783966844.3133,1,1,3.0000,-0.0000,1.42242,-0.00515,-2.63188,1.06624,1.57080,0.11675,-0.12763,-0.48149,0.03537,,,,,,,,,,,,,,,,,,,,,,,,,,0,0,0,0,0
2.9665,1783966844.3134,1,1,3.0000,-0.0000,1.42242,-0.00515,-2.63188,1.06624,1.57080,0.11675,-0.12763,-0.48149,0.03537,,,,,,,,,,,,,,,,,,,,,,,,,,0,0,0,0,0
2.9709,1783966844.3179,1,1,3.0000,-0.0000,1.42242,-0.00515,-2.63188,1.06624,1.57080,0.11675,-0.12763,-0.48149,0.03537,,,,,,,,,,,,,,,,,,,,,,,,,,0,0,0,0,0
2.9723,1783966844.3193,1,1,3.0000,-0.0000,1.42242,-0.00515,-2.63188,1.06624,1.57080,0.11675,-0.12763,-0.48149,0.03537,,,,,,,,,,,,,,,,,,,,,,,,,,0,0,0,0,0
2.9727,1783966844.3196,1,1,3.0000,-0.0000,1.42242,-0.00515,-2.63188,1.06624,1.57080,0.11675,-0.12763,-0.48149,0.03537,,,,,,,,,,,,,,,,,,,,,,,,,,0,0,0,0,0
2.9730,1783966844.3199,1,1,3.0000,-0.0000,1.42242,-0.00515,-2.63188,1.06624,1.57080,0.11675,-0.12763,-0.48149,0.03537,,,,,,,,,,,,,,,,,,,,,,,,,,0,0,0,0,0
2.9803,1783966844.3273,1,1,3.0000,-0.0000,1.42242,-0.00515,-2.63188,1.06624,1.57080,0.11675,-0.12763,-0.48149,0.03537,,,,,,,,,,,,,,,,,,,,,,,,,,0,0,0,0,0
2.9806,1783966844.3276,1,1,3.0000,-0.0000,1.42242,-0.00515,-2.63188,1.06624,1.57080,0.11675,-0.12763,-0.48149,0.03537,,,,,,,,,,,,,,,,,,,,,,,,,,0,0,0,0,0
2.9810,1783966844.3280,1,1,3.0000,-0.0000,1.42242,-0.00515,-2.63188,1.06624,1.57080,0.11675,-0.12763,-0.48149,0.03537,,,,,,,,,,,,,,,,,,,,,,,,,,0,0,0,0,0
2.9813,1783966844.3283,1,1,3.0000,-0.0000,1.42242,-0.00515,-2.63188,1.06624,1.57080,0.11675,-0.12763,-0.48149,0.03537,,,,,,,,,,,,,,,,,,,,,,,,,,0,0,0,0,0
2.9932,1783966844.3401,1,1,3.0000,-0.0000,1.42242,-0.00515,-2.63188,1.06624,1.57080,0.11675,-0.12763,-0.48149,0.03537,,,,,,,,,,,,,,,,,,,,,,,,,,0,0,0,0,0
2.9937,1783966844.3407,1,1,3.0000,-0.0000,1.42242,-0.00515,-2.63188,1.06624,1.57080,0.11675,-0.12763,-0.48149,0.03537,,,,,,,,,,,,,,,,,,,,,,,,,,0,0,0,0,0
3.0217,1783966844.3687,1,1,3.0000,-0.0000,1.42242,-0.00515,-2.63188,1.06624,1.57080,0.11675,-0.12763,-0.48149,0.03537,,,,,,,,,,,,,,,,,,,,,,,,,,0,0,0,0,0
3.0225,1783966844.3695,1,1,3.0000,-0.0000,1.42242,-0.00515,-2.63188,1.06624,1.57080,0.11675,-0.12763,-0.48149,0.03537,,,,,,,,,,,,,,,,,,,,,,,,,,0,0,0,0,0
3.0229,1783966844.3699,1,1,3.0000,-0.0000,1.42242,-0.00515,-2.63188,1.06624,1.57080,0.11675,-0.12763,-0.48149,0.03537,,,,,,,,,,,,,,,,,,,,,,,,,,0,0,0,0,0
3.0234,1783966844.3703,1,1,3.0000,-0.0000,1.42242,-0.00515,-2.63188,1.06624,1.57080,0.11675,-0.12763,-0.48149,0.03537,,,,,,,,,,,,,,,,,,,,,,,,,,0,0,0,0,0
3.0237,1783966844.3707,1,1,3.0000,-0.0000,1.42242,-0.00515,-2.63188,1.06624,1.57080,0.11675,-0.12763,-0.48149,0.03537,,,,,,,,,,,,,,,,,,,,,,,,,,0,0,0,0,0
3.0425,1783966844.3894,1,1,3.0000,-0.0000,1.42242,-0.00515,-2.63188,1.06624,1.57080,0.11675,-0.12763,-0.48149,0.03537,,,,,,,,,,,,,,,,,,,,,,,,,,0,0,0,0,0
3.0427,1783966844.3897,1,1,3.0000,-0.0000,1.42242,-0.00515,-2.63188,1.06624,1.57080,0.11675,-0.12763,-0.48149,0.03537,,,,,,,,,,,,,,,,,,,,,,,,,,0,0,0,0,0
3.0436,1783966844.3905,1,1,3.0000,-0.0000,1.42242,-0.00515,-2.63188,1.06624,1.57080,0.11675,-0.12763,-0.48149,0.03537,,,,,,,,,,,,,,,,,,,,,,,,,,0,0,0,0,0
3.0509,1783966844.3979,1,1,3.0000,-0.0000,1.42242,-0.00515,-2.63188,1.06624,1.57080,0.11675,-0.12763,-0.48149,0.03537,,,,,,,,,,,,,,,,,,,,,,,,,,0,0,0,0,0
3.0665,1783966844.4135,1,1,3.0000,-0.0000,1.42242,-0.00515,-2.63188,1.06624,1.57080,0.11675,-0.12763,-0.48149,0.03537,,,,,,,,,,,,,,,,,,,,,,,,,,0,0,0,0,0
3.0669,1783966844.4139,1,1,3.0000,-0.0000,1.42242,-0.00515,-2.63188,1.06624,1.57080,0.11675,-0.12763,-0.48149,0.03537,,,,,,,,,,,,,,,,,,,,,,,,,,0,0,0,0,0
3.0713,1783966844.4183,1,1,3.0000,-0.0000,1.42242,-0.00515,-2.63188,1.06624,1.57080,0.11675,-0.12763,-0.48149,0.03537,,,,,,,,,,,,,,,,,,,,,,,,,,0,0,0,0,0
3.0718,1783966844.4187,1,1,3.0000,-0.0000,1.42242,-0.00515,-2.63188,1.06624,1.57080,0.11675,-0.12763,-0.48149,0.03537,,,,,,,,,,,,,,,,,,,,,,,,,,0,0,0,0,0
3.0937,1783966844.4406,1,1,3.0000,-0.0000,1.42242,-0.00515,-2.63188,1.06624,1.57080,0.11675,-0.12763,-0.48149,0.03537,,,,,,,,,,,,,,,,,,,,,,,,,,0,0,0,0,0
3.0982,1783966844.4451,1,1,3.0000,-0.0000,1.42242,-0.00515,-2.63188,1.06624,1.57080,0.11675,-0.12763,-0.48149,0.03537,,,,,,,,,,,,,,,,,,,,,,,,,,0,0,0,0,0
3.1048,1783966844.4518,1,1,3.0000,-0.0000,1.42242,-0.00515,-2.63188,1.06624,1.57080,0.11675,-0.12763,-0.48149,0.03537,,,,,,,,,,,,,,,,,,,,,,,,,,0,0,0,0,0
3.1051,1783966844.4521,1,1,3.0000,-0.0000,1.42242,-0.00515,-2.63188,1.06624,1.57080,0.11675,-0.12763,-0.48149,0.03537,,,,,,,,,,,,,,,,,,,,,,,,,,0,0,0,0,0
3.1147,1783966844.4616,1,1,3.0000,-0.0000,1.42242,-0.00516,-2.63188,1.06624,1.57080,0.11675,-0.12763,-0.48149,0.03537,,,,,,,,,,,,,,,,,,,,,,,,,,0,0,0,0,0
3.1150,1783966844.4620,1,1,3.0000,-0.0000,1.42242,-0.00516,-2.63188,1.06624,1.57080,0.11675,-0.12763,-0.48149,0.03537,,,,,,,,,,,,,,,,,,,,,,,,,,0,0,0,0,0
3.1298,1783966844.4767,1,1,3.0000,-0.0000,1.42242,-0.00516,-2.63188,1.06625,1.57080,0.11675,-0.12763,-0.48150,0.03537,,,,,,,,,,,,,,,,,,,,,,,,,,0,0,0,0,0
3.1344,1783966844.4814,1,1,3.0000,-0.0000,1.42242,-0.00517,-2.63187,1.06627,1.57080,0.11675,-0.12763,-0.48150,0.03537,,,,,,,,,,,,,,,,,,,,,,,,,,0,0,0,0,0
3.1426,1783966844.4895,1,1,3.0000,-0.0000,1.42242,-0.00518,-2.63187,1.06628,1.57080,0.11675,-0.12763,-0.48151,0.03537,,,,,,,,,,,,,,,,,,,,,,,,,,0,0,0,0,0
3.1529,1783966844.4998,1,1,3.0000,-0.0000,1.42242,-0.00518,-2.63188,1.06629,1.57080,0.11675,-0.12763,-0.48150,0.03537,,,,,,,,,,,,,,,,,,,,,,,,,,0,0,0,0,0
3.1616,1783966844.5086,1,1,3.0000,-0.0000,1.42242,-0.00520,-2.63189,1.06631,1.57080,0.11675,-0.12763,-0.48150,0.03536,,,,,,,,,,,,,,,,,,,,,,,,,,0,0,0,0,0
3.1707,1783966844.5176,1,1,3.0000,-0.0000,1.42242,-0.00525,-2.63193,1.06637,1.57080,0.11675,-0.12763,-0.48148,0.03533,,,,,,,,,,,,,,,,,,,,,,,,,,0,0,0,0,0
3.1849,1783966844.5318,1,1,3.0000,-0.0000,1.42242,-0.00526,-2.63194,1.06638,1.57080,0.11675,-0.12763,-0.48147,0.03532,,,,,,,,,,,,,,,,,,,,,,,,,,0,0,0,0,0
3.1888,1783966844.5358,1,1,3.0000,-0.0000,1.42242,-0.00528,-2.63195,1.06640,1.57080,0.11675,-0.12763,-0.48147,0.03531,,,,,,,,,,,,,,,,,,,,,,,,,,0,0,0,0,0
3.1988,1783966844.5458,1,1,3.0000,-0.0000,1.42242,-0.00532,-2.63197,1.06645,1.57080,0.11675,-0.12763,-0.48146,0.03529,,,,,,,,,,,,,,,,,,,,,,,,,,0,0,0,0,0
3.2251,1783966844.5721,1,1,3.0000,-0.0000,1.42242,-0.00547,-2.63201,1.06663,1.57080,0.11675,-0.12763,-0.48145,0.03524,,,,,,,,,,,,,,,,,,,,,,,,,,0,0,0,0,0
3.2254,1783966844.5724,1,1,3.0000,-0.0000,1.42242,-0.00547,-2.63201,1.06663,1.57080,0.11675,-0.12763,-0.48145,0.03524,,,,,,,,,,,,,,,,,,,,,,,,,,0,0,0,0,0
3.2345,1783966844.5815,1,1,3.0000,-0.0000,1.42242,-0.00552,-2.63203,1.06669,1.57080,0.11675,-0.12764,-0.48145,0.03522,,,,,,,,,,,,,,,,,,,,,,,,,,0,0,0,0,0
3.2348,1783966844.5818,1,1,3.0000,-0.0000,1.42242,-0.00552,-2.63203,1.06669,1.57080,0.11675,-0.12764,-0.48145,0.03522,,,,,,,,,,,,,,,,,,,,,,,,,,0,0,0,0,0
3.2356,1783966844.5826,1,1,3.0000,-0.0000,1.42242,-0.00552,-2.63203,1.06669,1.57080,0.11675,-0.12764,-0.48145,0.03522,,,,,,,,,,,,,,,,,,,,,,,,,,0,0,0,0,0
3.2359,1783966844.5829,1,1,3.0000,-0.0000,1.42242,-0.00552,-2.63203,1.06669,1.57080,0.11675,-0.12764,-0.48145,0.03522,,,,,,,,,,,,,,,,,,,,,,,,,,0,0,0,0,0
3.2434,1783966844.5903,1,1,3.0000,-0.0000,1.42242,-0.00557,-2.63203,1.06675,1.57080,0.11675,-0.12763,-0.48145,0.03520,,,,,,,,,,,,,,,,,,,,,,,,,,0,0,0,0,0
3.2562,1783966844.6032,1,1,3.0000,-0.0000,1.42242,-0.00569,-2.63206,1.06690,1.57080,0.11675,-0.12763,-0.48145,0.03516,,,,,,,,,,,,,,,,,,,,,,,,,,0,0,0,0,0
3.2609,1783966844.6079,1,1,3.0000,-0.0000,1.42242,-0.00574,-2.63207,1.06696,1.57080,0.11675,-0.12763,-0.48145,0.03515,,,,,,,,,,,,,,,,,,,,,,,,,,0,0,0,0,0
3.2720,1783966844.6189,1,1,3.0000,-0.0000,1.42242,-0.00577,-2.63207,1.06698,1.57080,0.11675,-0.12763,-0.48145,0.03514,,,,,,,,,,,,,,,,,,,,,,,,,,0,0,0,0,0
3.2807,1783966844.6277,1,1,3.0000,-0.0000,1.42242,-0.00583,-2.63208,1.06705,1.57080,0.11675,-0.12763,-0.48146,0.03512,,,,,,,,,,,,,,,,,,,,,,,,,,0,0,0,0,0
3.3052,1783966844.6522,1,1,3.0000,-0.0000,1.42242,-0.00611,-2.63212,1.06740,1.57080,0.11675,-0.12763,-0.48147,0.03503,,,,,,,,,,,,,,,,,,,,,,,,,,0,0,0,0,0
3.3263,1783966844.6733,1,1,3.0000,-0.0000,1.42242,-0.00630,-2.63215,1.06764,1.57080,0.11675,-0.12763,-0.48148,0.03498,,,,,,,,,,,,,,,,,,,,,,,,,,0,0,0,0,0
3.3487,1783966844.6957,1,1,3.0000,-0.0000,1.42242,-0.00630,-2.63215,1.06764,1.57080,0.11675,-0.12763,-0.48148,0.03498,,,,,,,,,,,,,,,,,,,,,,,,,,0,0,0,0,0
3.3502,1783966844.6972,1,1,3.0000,-0.0000,1.42242,-0.00630,-2.63215,1.06764,1.57080,0.11675,-0.12763,-0.48148,0.03498,,,,,,,,,,,,,,,,,,,,,,,,,,0,0,0,0,0
3.3505,1783966844.6975,1,1,3.0000,-0.0000,1.42242,-0.00630,-2.63215,1.06764,1.57080,0.11675,-0.12763,-0.48148,0.03498,,,,,,,,,,,,,,,,,,,,,,,,,,0,0,0,0,0
3.3532,1783966844.7002,1,1,3.0000,-0.0000,1.42242,-0.00630,-2.63215,1.06764,1.57080,0.11675,-0.12763,-0.48148,0.03498,,,,,,,,,,,,,,,,,,,,,,,,,,0,0,0,0,0
3.3536,1783966844.7005,1,1,3.0000,-0.0000,1.42242,-0.00630,-2.63215,1.06764,1.57080,0.11675,-0.12763,-0.48148,0.03498,,,,,,,,,,,,,,,,,,,,,,,,,,0,0,0,0,0
3.3615,1783966844.7085,1,1,3.0000,-0.0000,1.42242,-0.00630,-2.63215,1.06764,1.57080,0.11675,-0.12763,-0.48148,0.03498,,,,,,,,,,,,,,,,,,,,,,,,,,0,0,0,0,0
3.3725,1783966844.7195,1,1,3.0000,-0.0000,1.42242,-0.00630,-2.63215,1.06764,1.57080,0.11675,-0.12763,-0.48148,0.03498,,,,,,,,,,,,,,,,,,,,,,,,,,0,0,0,0,0
3.3744,1783966844.7214,1,1,3.0000,-0.0000,1.42242,-0.00630,-2.63215,1.06764,1.57080,0.11675,-0.12763,-0.48148,0.03498,,,,,,,,,,,,,,,,,,,,,,,,,,0,0,0,0,0
3.3894,1783966844.7364,1,1,3.0000,-0.0000,1.42242,-0.00630,-2.63215,1.06764,1.57080,0.11675,-0.12763,-0.48148,0.03498,,,,,,,,,,,,,,,,,,,,,,,,,,0,0,0,0,0
3.3897,1783966844.7367,1,1,3.0000,-0.0000,1.42242,-0.00630,-2.63215,1.06764,1.57080,0.11675,-0.12763,-0.48148,0.03498,,,,,,,,,,,,,,,,,,,,,,,,,,0,0,0,0,0
3.4005,1783966844.7474,1,1,3.0000,-0.0000,1.42242,-0.00630,-2.63215,1.06764,1.57080,0.11675,-0.12763,-0.48148,0.03498,,,,,,,,,,,,,,,,,,,,,,,,,,0,0,0,0,0
3.4009,1783966844.7478,1,1,3.0000,-0.0000,1.42242,-0.00630,-2.63215,1.06764,1.57080,0.11675,-0.12763,-0.48148,0.03498,,,,,,,,,,,,,,,,,,,,,,,,,,0,0,0,0,0
3.4026,1783966844.7495,1,1,3.0000,-0.0000,1.42242,-0.00630,-2.63215,1.06764,1.57080,0.11675,-0.12763,-0.48148,0.03498,,,,,,,,,,,,,,,,,,,,,,,,,,0,0,0,0,0
3.4085,1783966844.7554,1,1,3.0000,-0.0000,1.42242,-0.00630,-2.63215,1.06764,1.57080,0.11675,-0.12763,-0.48148,0.03498,,,,,,,,,,,,,,,,,,,,,,,,,,0,0,0,0,0
3.4088,1783966844.7557,1,1,3.0000,-0.0000,1.42242,-0.00630,-2.63215,1.06764,1.57080,0.11675,-0.12763,-0.48148,0.03498,,,,,,,,,,,,,,,,,,,,,,,,,,0,0,0,0,0
3.4215,1783966844.7685,1,1,3.0000,-0.0000,1.42242,-0.00630,-2.63215,1.06764,1.57080,0.11675,-0.12763,-0.48148,0.03498,,,,,,,,,,,,,,,,,,,,,,,,,,0,0,0,0,0
3.4218,1783966844.7688,1,1,3.0000,-0.0000,1.42242,-0.00630,-2.63215,1.06764,1.57080,0.11675,-0.12763,-0.48148,0.03498,,,,,,,,,,,,,,,,,,,,,,,,,,0,0,0,0,0
3.4395,1783966844.7864,1,1,3.0000,-0.0000,1.42242,-0.00630,-2.63215,1.06764,1.57080,0.11675,-0.12763,-0.48148,0.03498,,,,,,,,,,,,,,,,,,,,,,,,,,0,0,0,0,0
3.4463,1783966844.7932,1,1,3.0000,-0.0000,1.42242,-0.00630,-2.63215,1.06764,1.57080,0.11675,-0.12763,-0.48148,0.03498,,,,,,,,,,,,,,,,,,,,,,,,,,0,0,0,0,0
3.4555,1783966844.8025,1,1,3.0000,-0.0000,1.42242,-0.00630,-2.63215,1.06764,1.57080,0.11675,-0.12763,-0.48148,0.03498,,,,,,,,,,,,,,,,,,,,,,,,,,0,0,0,0,0
3.4595,1783966844.8065,1,1,3.0000,-0.0000,1.42242,-0.00630,-2.63215,1.06764,1.57080,0.11675,-0.12763,-0.48148,0.03498,,,,,,,,,,,,,,,,,,,,,,,,,,0,0,0,0,0
3.4745,1783966844.8214,1,1,3.0000,-0.0000,1.42242,-0.00630,-2.63215,1.06764,1.57080,0.11675,-0.12763,-0.48148,0.03498,,,,,,,,,,,,,,,,,,,,,,,,,,0,0,0,0,0
3.4748,1783966844.8218,1,1,3.0000,-0.0000,1.42242,-0.00630,-2.63215,1.06764,1.57080,0.11675,-0.12763,-0.48148,0.03498,,,,,,,,,,,,,,,,,,,,,,,,,,0,0,0,0,0
3.4828,1783966844.8298,1,1,3.0000,-0.0000,1.42242,-0.00630,-2.63215,1.06764,1.57080,0.11675,-0.12763,-0.48148,0.03498,,,,,,,,,,,,,,,,,,,,,,,,,,0,0,0,0,0
3.4832,1783966844.8301,1,1,3.0000,-0.0000,1.42242,-0.00630,-2.63215,1.06764,1.57080,0.11675,-0.12763,-0.48148,0.03498,,,,,,,,,,,,,,,,,,,,,,,,,,0,0,0,0,0
3.4919,1783966844.8389,1,1,3.0000,-0.0000,1.42242,-0.00630,-2.63215,1.06764,1.57080,0.11675,-0.12763,-0.48148,0.03498,,,,,,,,,,,,,,,,,,,,,,,,,,0,0,0,0,0
3.4924,1783966844.8394,1,1,3.0000,-0.0000,1.42242,-0.00630,-2.63215,1.06764,1.57080,0.11675,-0.12763,-0.48148,0.03498,,,,,,,,,,,,,,,,,,,,,,,,,,0,0,0,0,0
3.5022,1783966844.8492,1,1,3.0000,-0.0000,1.42242,-0.00630,-2.63215,1.06764,1.57080,0.11675,-0.12763,-0.48148,0.03498,,,,,,,,,,,,,,,,,,,,,,,,,,0,0,0,0,0
3.5098,1783966844.8567,1,1,3.0000,-0.0000,1.42242,-0.00630,-2.63215,1.06764,1.57080,0.11675,-0.12763,-0.48148,0.03498,,,,,,,,,,,,,,,,,,,,,,,,,,0,0,0,0,0
3.5247,1783966844.8716,1,1,3.0000,-0.0000,1.42242,-0.00630,-2.63215,1.06764,1.57080,0.11675,-0.12763,-0.48148,0.03498,,,,,,,,,,,,,,,,,,,,,,,,,,0,0,0,0,0
3.5325,1783966844.8795,1,1,3.0000,-0.0000,1.42242,-0.00630,-2.63215,1.06764,1.57080,0.11675,-0.12763,-0.48148,0.03498,,,,,,,,,,,,,,,,,,,,,,,,,,0,0,0,0,0
3.5330,1783966844.8800,1,1,3.0000,-0.0000,1.42242,-0.00630,-2.63215,1.06764,1.57080,0.11675,-0.12763,-0.48148,0.03498,,,,,,,,,,,,,,,,,,,,,,,,,,0,0,0,0,0
3.5385,1783966844.8855,1,1,3.0000,-0.0000,1.42242,-0.00630,-2.63215,1.06764,1.57080,0.11675,-0.12763,-0.48149,0.03498,,,,,,,,,,,,,,,,,,,,,,,,,,0,0,0,0,0
3.5389,1783966844.8859,1,1,3.0000,-0.0000,1.42242,-0.00630,-2.63215,1.06764,1.57080,0.11675,-0.12763,-0.48149,0.03498,,,,,,,,,,,,,,,,,,,,,,,,,,0,0,0,0,0
3.5543,1783966844.9013,1,1,3.0000,-0.0000,1.42242,-0.00633,-2.63214,1.06768,1.57080,0.11675,-0.12763,-0.48149,0.03497,,,,,,,,,,,,,,,,,,,,,,,,,,0,0,0,0,0
3.5624,1783966844.9094,1,1,3.0000,-0.0000,1.42242,-0.00633,-2.63214,1.06768,1.57080,0.11675,-0.12763,-0.48149,0.03497,,,,,,,,,,,,,,,,,,,,,,,,,,0,0,0,0,0
3.5693,1783966844.9163,1,1,3.0000,-0.0000,1.42242,-0.00634,-2.63215,1.06769,1.57080,0.11675,-0.12763,-0.48149,0.03497,,,,,,,,,,,,,,,,,,,,,,,,,,0,0,0,0,0
3.5697,1783966844.9166,1,1,3.0000,-0.0000,1.42242,-0.00634,-2.63215,1.06769,1.57080,0.11675,-0.12763,-0.48149,0.03497,,,,,,,,,,,,,,,,,,,,,,,,,,0,0,0,0,0
3.5953,1783966844.9422,1,1,3.0000,-0.0000,1.42242,-0.00642,-2.63220,1.06779,1.57080,0.11675,-0.12763,-0.48146,0.03492,,,,,,,,,,,,,,,,,,,,,,,,,,0,0,0,0,0
3.6139,1783966844.9609,1,1,3.0000,-0.0000,1.42242,-0.00648,-2.63223,1.06786,1.57080,0.11675,-0.12763,-0.48145,0.03490,,,,,,,,,,,,,,,,,,,,,,,,,,0,0,0,0,0
3.6196,1783966844.9665,1,1,3.0000,-0.0000,1.42242,-0.00653,-2.63226,1.06792,1.57080,0.11675,-0.12763,-0.48144,0.03487,,,,,,,,,,,,,,,,,,,,,,,,,,0,0,0,0,0
3.6254,1783966844.9723,1,1,3.0000,-0.0000,1.42242,-0.00653,-2.63226,1.06792,1.57080,0.11675,-0.12763,-0.48144,0.03487,,,,,,,,,,,,,,,,,,,,,,,,,,0,0,0,0,0
3.6258,1783966844.9728,1,1,3.0000,-0.0000,1.42242,-0.00653,-2.63226,1.06792,1.57080,0.11675,-0.12763,-0.48144,0.03487,,,,,,,,,,,,,,,,,,,,,,,,,,0,0,0,0,0
3.6556,1783966845.0026,1,1,3.0000,-0.0000,1.42242,-0.00665,-2.63228,1.06806,1.57080,0.11675,-0.12763,-0.48144,0.03483,,,,,,,,,,,,,,,,,,,,,,,,,,0,0,0,0,0
3.6604,1783966845.0073,1,1,3.0000,-0.0000,1.42242,-0.00668,-2.63229,1.06810,1.57080,0.11675,-0.12763,-0.48144,0.03482,,,,,,,,,,,,,,,,,,,,,,,,,,0,0,0,0,0
3.6652,1783966845.0122,1,1,3.0000,-0.0000,1.42242,-0.00672,-2.63229,1.06815,1.57080,0.11675,-0.12763,-0.48144,0.03481,,,,,,,,,,,,,,,,,,,,,,,,,,0,0,0,0,0
3.6655,1783966845.0125,1,1,3.0000,-0.0000,1.42242,-0.00672,-2.63229,1.06815,1.57080,0.11675,-0.12763,-0.48144,0.03481,,,,,,,,,,,,,,,,,,,,,,,,,,0,0,0,0,0
3.6658,1783966845.0128,1,1,3.0000,-0.0000,1.42242,-0.00672,-2.63229,1.06815,1.57080,0.11675,-0.12763,-0.48144,0.03481,,,,,,,,,,,,,,,,,,,,,,,,,,0,0,0,0,0
3.6703,1783966845.0173,1,1,3.0000,-0.0000,1.42242,-0.00682,-2.63231,1.06827,1.57080,0.11675,-0.12763,-0.48145,0.03478,,,,,,,,,,,,,,,,,,,,,,,,,,0,0,0,0,0
3.6815,1783966845.0285,1,1,3.0000,-0.0000,1.42242,-0.00688,-2.63232,1.06834,1.57080,0.11675,-0.12763,-0.48145,0.03476,,,,,,,,,,,,,,,,,,,,,,,,,,0,0,0,0,0
3.6898,1783966845.0368,1,1,3.0000,-0.0000,1.42242,-0.00691,-2.63232,1.06837,1.57080,0.11675,-0.12763,-0.48145,0.03475,,,,,,,,,,,,,,,,,,,,,,,,,,0,0,0,0,0
3.6903,1783966845.0373,1,1,3.0000,-0.0000,1.42242,-0.00693,-2.63233,1.06840,1.57080,0.11675,-0.12763,-0.48145,0.03474,,,,,,,,,,,,,,,,,,,,,,,,,,0,0,0,0,0
3.7051,1783966845.0520,1,1,3.0000,-0.0000,1.42242,-0.00706,-2.63235,1.06855,1.57080,0.11675,-0.12763,-0.48146,0.03471,,,,,,,,,,,,,,,,,,,,,,,,,,0,0,0,0,0
3.7055,1783966845.0525,1,1,3.0000,-0.0000,1.42242,-0.00706,-2.63235,1.06855,1.57080,0.11675,-0.12763,-0.48146,0.03471,,,,,,,,,,,,,,,,,,,,,,,,,,0,0,0,0,0
3.7078,1783966845.0547,1,1,3.0000,-0.0000,1.42242,-0.00711,-2.63235,1.06861,1.57080,0.11675,-0.12763,-0.48146,0.03469,,,,,,,,,,,,,,,,,,,,,,,,,,0,0,0,0,0
3.7216,1783966845.0686,1,1,3.0000,-0.0000,1.42242,-0.00716,-2.63236,1.06868,1.57080,0.11675,-0.12763,-0.48146,0.03467,,,,,,,,,,,,,,,,,,,,,,,,,,0,0,0,0,0
3.7220,1783966845.0690,1,1,3.0000,-0.0000,1.42242,-0.00716,-2.63236,1.06868,1.57080,0.11675,-0.12763,-0.48146,0.03467,,,,,,,,,,,,,,,,,,,,,,,,,,0,0,0,0,0
3.7507,1783966845.0977,1,1,3.0000,-0.0000,1.42241,-0.00739,-2.63236,1.06897,1.57080,0.11675,-0.12762,-0.48150,0.03462,,,,,,,,,,,,,,,,,,,,,,,,,,0,0,0,0,0
3.7511,1783966845.0980,1,1,3.0000,-0.0000,1.42241,-0.00739,-2.63236,1.06897,1.57080,0.11675,-0.12762,-0.48150,0.03462,,,,,,,,,,,,,,,,,,,,,,,,,,0,0,0,0,0
3.7586,1783966845.1055,1,1,3.0000,-0.0000,1.42241,-0.00746,-2.63236,1.06906,1.57080,0.11675,-0.12762,-0.48152,0.03460,,,,,,,,,,,,,,,,,,,,,,,,,,0,0,0,0,0
3.7625,1783966845.1095,1,1,3.0000,-0.0000,1.42241,-0.00749,-2.63236,1.06910,1.57080,0.11675,-0.12762,-0.48153,0.03460,,,,,,,,,,,,,,,,,,,,,,,,,,0,0,0,0,0
3.7628,1783966845.1098,1,1,3.0000,-0.0000,1.42241,-0.00749,-2.63236,1.06910,1.57080,0.11675,-0.12762,-0.48153,0.03460,,,,,,,,,,,,,,,,,,,,,,,,,,0,0,0,0,0
3.7676,1783966845.1146,1,1,3.0000,-0.0000,1.42241,-0.00752,-2.63235,1.06913,1.57080,0.11675,-0.12762,-0.48153,0.03460,,,,,,,,,,,,,,,,,,,,,,,,,,0,0,0,0,0
3.7687,1783966845.1157,1,1,3.0000,-0.0000,1.42241,-0.00752,-2.63235,1.06913,1.57080,0.11675,-0.12762,-0.48153,0.03460,,,,,,,,,,,,,,,,,,,,,,,,,,0,0,0,0,0
3.7689,1783966845.1159,1,1,3.0000,-0.0000,1.42241,-0.00752,-2.63235,1.06913,1.57080,0.11675,-0.12762,-0.48153,0.03460,,,,,,,,,,,,,,,,,,,,,,,,,,0,0,0,0,0
3.7801,1783966845.1270,1,1,3.0000,-0.0000,1.42241,-0.00756,-2.63234,1.06918,1.57080,0.11675,-0.12762,-0.48155,0.03459,,,,,,,,,,,,,,,,,,,,,,,,,,0,0,0,0,0
3.7899,1783966845.1368,1,1,3.0000,-0.0000,1.42241,-0.00756,-2.63234,1.06918,1.57080,0.11675,-0.12762,-0.48155,0.03459,,,,,,,,,,,,,,,,,,,,,,,,,,0,0,0,0,0
3.7907,1783966845.1377,1,1,3.0000,-0.0000,1.42241,-0.00756,-2.63234,1.06918,1.57080,0.11675,-0.12762,-0.48155,0.03459,,,,,,,,,,,,,,,,,,,,,,,,,,0,0,0,0,0
3.8082,1783966845.1551,1,1,3.0000,-0.0000,1.42241,-0.00756,-2.63234,1.06918,1.57080,0.11675,-0.12762,-0.48155,0.03459,,,,,,,,,,,,,,,,,,,,,,,,,,0,0,0,0,0
3.8327,1783966845.1797,1,1,3.0000,-0.0000,1.42241,-0.00756,-2.63234,1.06918,1.57080,0.11675,-0.12762,-0.48155,0.03459,,,,,,,,,,,,,,,,,,,,,,,,,,0,0,0,0,0
3.8396,1783966845.1866,1,1,3.0000,-0.0000,1.42241,-0.00756,-2.63234,1.06918,1.57080,0.11675,-0.12762,-0.48155,0.03459,,,,,,,,,,,,,,,,,,,,,,,,,,0,0,0,0,0
3.8400,1783966845.1869,1,1,3.0000,-0.0000,1.42241,-0.00756,-2.63234,1.06918,1.57080,0.11675,-0.12762,-0.48155,0.03459,,,,,,,,,,,,,,,,,,,,,,,,,,0,0,0,0,0
3.8437,1783966845.1906,1,1,3.0000,-0.0000,1.42241,-0.00756,-2.63234,1.06918,1.57080,0.11675,-0.12762,-0.48155,0.03459,,,,,,,,,,,,,,,,,,,,,,,,,,0,0,0,0,0
3.8439,1783966845.1909,1,1,3.0000,-0.0000,1.42241,-0.00756,-2.63234,1.06918,1.57080,0.11675,-0.12762,-0.48155,0.03459,,,,,,,,,,,,,,,,,,,,,,,,,,0,0,0,0,0
3.8453,1783966845.1923,1,1,3.0000,-0.0000,1.42241,-0.00756,-2.63234,1.06918,1.57080,0.11675,-0.12762,-0.48155,0.03459,,,,,,,,,,,,,,,,,,,,,,,,,,0,0,0,0,0
3.8481,1783966845.1950,1,1,3.0000,-0.0000,1.42241,-0.00756,-2.63234,1.06918,1.57080,0.11675,-0.12762,-0.48155,0.03459,,,,,,,,,,,,,,,,,,,,,,,,,,0,0,0,0,0
3.8485,1783966845.1954,1,1,3.0000,-0.0000,1.42241,-0.00756,-2.63234,1.06918,1.57080,0.11675,-0.12762,-0.48155,0.03459,,,,,,,,,,,,,,,,,,,,,,,,,,0,0,0,0,0
3.8589,1783966845.2058,1,1,3.0000,-0.0000,1.42241,-0.00756,-2.63234,1.06918,1.57080,0.11675,-0.12762,-0.48155,0.03459,,,,,,,,,,,,,,,,,,,,,,,,,,0,0,0,0,0
3.8721,1783966845.2191,1,1,3.0000,-0.0000,1.42241,-0.00756,-2.63234,1.06918,1.57080,0.11675,-0.12762,-0.48155,0.03459,,,,,,,,,,,,,,,,,,,,,,,,,,0,0,0,0,0
3.8725,1783966845.2195,1,1,3.0000,-0.0000,1.42241,-0.00756,-2.63234,1.06918,1.57080,0.11675,-0.12762,-0.48155,0.03459,,,,,,,,,,,,,,,,,,,,,,,,,,0,0,0,0,0
3.8838,1783966845.2308,1,1,3.0000,-0.0000,1.42241,-0.00756,-2.63234,1.06918,1.57080,0.11675,-0.12762,-0.48155,0.03459,,,,,,,,,,,,,,,,,,,,,,,,,,0,0,0,0,0
3.8908,1783966845.2377,1,1,3.0000,-0.0000,1.42241,-0.00756,-2.63234,1.06918,1.57080,0.11675,-0.12762,-0.48155,0.03459,,,,,,,,,,,,,,,,,,,,,,,,,,0,0,0,0,0
3.8911,1783966845.2381,1,1,3.0000,-0.0000,1.42241,-0.00756,-2.63234,1.06918,1.57080,0.11675,-0.12762,-0.48155,0.03459,,,,,,,,,,,,,,,,,,,,,,,,,,0,0,0,0,0
3.9010,1783966845.2480,1,1,3.0000,-0.0000,1.42241,-0.00756,-2.63234,1.06918,1.57080,0.11675,-0.12762,-0.48155,0.03459,,,,,,,,,,,,,,,,,,,,,,,,,,0,0,0,0,0
3.9099,1783966845.2569,1,1,3.0000,-0.0000,1.42241,-0.00756,-2.63234,1.06918,1.57080,0.11675,-0.12762,-0.48155,0.03459,,,,,,,,,,,,,,,,,,,,,,,,,,0,0,0,0,0
3.9104,1783966845.2574,1,1,3.0000,-0.0000,1.42241,-0.00756,-2.63234,1.06918,1.57080,0.11675,-0.12762,-0.48155,0.03459,,,,,,,,,,,,,,,,,,,,,,,,,,0,0,0,0,0
3.9204,1783966845.2673,1,1,3.0000,-0.0000,1.42241,-0.00756,-2.63234,1.06918,1.57080,0.11675,-0.12762,-0.48155,0.03459,,,,,,,,,,,,,,,,,,,,,,,,,,0,0,0,0,0
3.9406,1783966845.2875,1,1,3.0000,-0.0000,1.42241,-0.00756,-2.63234,1.06918,1.57080,0.11675,-0.12762,-0.48155,0.03459,,,,,,,,,,,,,,,,,,,,,,,,,,0,0,0,0,0
3.9420,1783966845.2890,1,1,3.0000,-0.0000,1.42241,-0.00756,-2.63234,1.06918,1.57080,0.11675,-0.12762,-0.48155,0.03459,,,,,,,,,,,,,,,,,,,,,,,,,,0,0,0,0,0
3.9425,1783966845.2894,1,1,3.0000,-0.0000,1.42241,-0.00756,-2.63234,1.06918,1.57080,0.11675,-0.12762,-0.48155,0.03459,,,,,,,,,,,,,,,,,,,,,,,,,,0,0,0,0,0
3.9608,1783966845.3077,1,1,3.0000,-0.0000,1.42241,-0.00756,-2.63234,1.06918,1.57080,0.11675,-0.12762,-0.48155,0.03459,,,,,,,,,,,,,,,,,,,,,,,,,,0,0,0,0,0
3.9629,1783966845.3099,1,1,3.0000,-0.0000,1.42241,-0.00756,-2.63234,1.06918,1.57080,0.11675,-0.12762,-0.48155,0.03459,,,,,,,,,,,,,,,,,,,,,,,,,,0,0,0,0,0
3.9633,1783966845.3103,1,1,3.0000,-0.0000,1.42241,-0.00756,-2.63234,1.06918,1.57080,0.11675,-0.12762,-0.48155,0.03459,,,,,,,,,,,,,,,,,,,,,,,,,,0,0,0,0,0
3.9677,1783966845.3147,1,1,3.0000,-0.0000,1.42241,-0.00756,-2.63234,1.06918,1.57080,0.11675,-0.12762,-0.48155,0.03459,,,,,,,,,,,,,,,,,,,,,,,,,,0,0,0,0,0
3.9838,1783966845.3308,1,1,3.0000,-0.0000,1.42241,-0.00756,-2.63234,1.06918,1.57080,0.11675,-0.12762,-0.48155,0.03459,,,,,,,,,,,,,,,,,,,,,,,,,,0,0,0,0,0
3.9881,1783966845.3351,1,1,3.0000,-0.0000,1.42241,-0.00756,-2.63234,1.06918,1.57080,0.11675,-0.12762,-0.48155,0.03459,,,,,,,,,,,,,,,,,,,,,,,,,,0,0,0,0,0
4.0032,1783966845.3502,1,1,3.0000,-0.0000,1.42241,-0.00759,-2.63237,1.06922,1.57080,0.11675,-0.12762,-0.48153,0.03457,,,,,,,,,,,,,,,,,,,,,,,,,,0,0,0,0,0
4.0104,1783966845.3574,1,1,3.0000,-0.0000,1.42241,-0.00759,-2.63238,1.06922,1.57080,0.11675,-0.12762,-0.48153,0.03457,,,,,,,,,,,,,,,,,,,,,,,,,,0,0,0,0,0
4.0176,1783966845.3645,1,1,3.0000,-0.0000,1.42241,-0.00760,-2.63238,1.06923,1.57080,0.11675,-0.12762,-0.48152,0.03456,,,,,,,,,,,,,,,,,,,,,,,,,,0,0,0,0,0
4.0181,1783966845.3650,1,1,3.0000,-0.0000,1.42241,-0.00760,-2.63238,1.06923,1.57080,0.11675,-0.12762,-0.48152,0.03456,,,,,,,,,,,,,,,,,,,,,,,,,,0,0,0,0,0
4.0552,1783966845.4021,1,1,3.0000,-0.0000,1.42241,-0.00776,-2.63249,1.06942,1.57080,0.11675,-0.12763,-0.48147,0.03448,,,,,,,,,,,,,,,,,,,,,,,,,,0,0,0,0,0
4.0626,1783966845.4096,1,1,3.0000,-0.0000,1.42241,-0.00782,-2.63251,1.06949,1.57080,0.11675,-0.12763,-0.48147,0.03445,,,,,,,,,,,,,,,,,,,,,,,,,,0,0,0,0,0
4.0630,1783966845.4100,1,1,3.0000,-0.0000,1.42241,-0.00782,-2.63251,1.06949,1.57080,0.11675,-0.12763,-0.48147,0.03445,,,,,,,,,,,,,,,,,,,,,,,,,,0,0,0,0,0
4.0646,1783966845.4116,1,1,3.0000,-0.0000,1.42241,-0.00782,-2.63251,1.06949,1.57080,0.11675,-0.12763,-0.48147,0.03445,,,,,,,,,,,,,,,,,,,,,,,,,,0,0,0,0,0
4.0701,1783966845.4170,1,1,3.0000,-0.0000,1.42241,-0.00785,-2.63252,1.06953,1.57080,0.11675,-0.12763,-0.48146,0.03444,,,,,,,,,,,,,,,,,,,,,,,,,,0,0,0,0,0
4.0708,1783966845.4178,1,1,3.0000,-0.0000,1.42241,-0.00785,-2.63252,1.06953,1.57080,0.11675,-0.12763,-0.48146,0.03444,,,,,,,,,,,,,,,,,,,,,,,,,,0,0,0,0,0
4.0747,1783966845.4217,1,1,3.0000,-0.0000,1.42241,-0.00786,-2.63252,1.06954,1.57080,0.11675,-0.12763,-0.48146,0.03444,,,,,,,,,,,,,,,,,,,,,,,,,,0,0,0,0,0
4.0814,1783966845.4284,1,1,3.0000,-0.0000,1.42241,-0.00787,-2.63252,1.06955,1.57080,0.11675,-0.12763,-0.48146,0.03443,,,,,,,,,,,,,,,,,,,,,,,,,,0,0,0,0,0
4.0817,1783966845.4287,1,1,3.0000,-0.0000,1.42241,-0.00787,-2.63252,1.06955,1.57080,0.11675,-0.12763,-0.48146,0.03443,,,,,,,,,,,,,,,,,,,,,,,,,,0,0,0,0,0
4.0893,1783966845.4363,1,1,3.0000,-0.0000,1.42241,-0.00793,-2.63254,1.06962,1.57080,0.11675,-0.12763,-0.48146,0.03441,,,,,,,,,,,,,,,,,,,,,,,,,,0,0,0,0,0
4.0896,1783966845.4366,1,1,3.0000,-0.0000,1.42241,-0.00793,-2.63254,1.06962,1.57080,0.11675,-0.12763,-0.48146,0.03441,,,,,,,,,,,,,,,,,,,,,,,,,,0,0,0,0,0
4.1040,1783966845.4510,1,1,3.0000,-0.0000,1.42241,-0.00812,-2.63258,1.06985,1.57080,0.11675,-0.12763,-0.48146,0.03435,,,,,,,,,,,,,,,,,,,,,,,,,,0,0,0,0,0
4.1043,1783966845.4513,1,1,3.0000,-0.0000,1.42241,-0.00812,-2.63258,1.06985,1.57080,0.11675,-0.12763,-0.48146,0.03435,,,,,,,,,,,,,,,,,,,,,,,,,,0,0,0,0,0
4.1083,1783966845.4553,1,1,3.0000,-0.0000,1.42241,-0.00812,-2.63258,1.06985,1.57080,0.11675,-0.12763,-0.48146,0.03435,,,,,,,,,,,,,,,,,,,,,,,,,,0,0,0,0,0
4.1233,1783966845.4703,1,1,3.0000,-0.0000,1.42241,-0.00820,-2.63259,1.06994,1.57080,0.11675,-0.12763,-0.48146,0.03432,,,,,,,,,,,,,,,,,,,,,,,,,,0,0,0,0,0
4.1397,1783966845.4866,1,1,3.0000,-0.0000,1.42241,-0.00826,-2.63260,1.07001,1.57080,0.11675,-0.12763,-0.48147,0.03431,,,,,,,,,,,,,,,,,,,,,,,,,,0,0,0,0,0
4.1400,1783966845.4869,1,1,3.0000,-0.0000,1.42241,-0.00826,-2.63260,1.07001,1.57080,0.11675,-0.12763,-0.48147,0.03431,,,,,,,,,,,,,,,,,,,,,,,,,,0,0,0,0,0
4.1488,1783966845.4958,1,1,3.0000,-0.0000,1.42241,-0.00831,-2.63261,1.07008,1.57080,0.11675,-0.12763,-0.48147,0.03429,,,,,,,,,,,,,,,,,,,,,,,,,,0,0,0,0,0
4.1492,1783966845.4961,1,1,3.0000,-0.0000,1.42241,-0.00831,-2.63261,1.07008,1.57080,0.11675,-0.12763,-0.48147,0.03429,,,,,,,,,,,,,,,,,,,,,,,,,,0,0,0,0,0
4.1505,1783966845.4974,1,1,3.0000,-0.0000,1.42241,-0.00835,-2.63261,1.07013,1.57080,0.11675,-0.12763,-0.48147,0.03428,,,,,,,,,,,,,,,,,,,,,,,,,,0,0,0,0,0
4.1732,1783966845.5202,1,1,3.0000,-0.0000,1.42241,-0.00858,-2.63263,1.07042,1.57080,0.11675,-0.12762,-0.48150,0.03421,,,,,,,,,,,,,,,,,,,,,,,,,,0,0,0,0,0
4.1810,1783966845.5280,1,1,3.0000,-0.0000,1.42241,-0.00866,-2.63264,1.07052,1.57080,0.11675,-0.12762,-0.48151,0.03419,,,,,,,,,,,,,,,,,,,,,,,,,,0,0,0,0,0
4.1813,1783966845.5283,1,1,3.0000,-0.0000,1.42241,-0.00866,-2.63264,1.07052,1.57080,0.11675,-0.12762,-0.48151,0.03419,,,,,,,,,,,,,,,,,,,,,,,,,,0,0,0,0,0
4.1883,1783966845.5353,1,1,3.0000,-0.0000,1.42241,-0.00872,-2.63263,1.07059,1.57080,0.11675,-0.12762,-0.48152,0.03418,,,,,,,,,,,,,,,,,,,,,,,,,,0,0,0,0,0
4.1919,1783966845.5389,1,1,3.0000,-0.0000,1.42241,-0.00874,-2.63263,1.07061,1.57080,0.11675,-0.12762,-0.48152,0.03418,,,,,,,,,,,,,,,,,,,,,,,,,,0,0,0,0,0
4.1986,1783966845.5455,1,1,3.0000,-0.0000,1.42241,-0.00874,-2.63263,1.07061,1.57080,0.11675,-0.12762,-0.48152,0.03418,,,,,,,,,,,,,,,,,,,,,,,,,,0,0,0,0,0
4.1988,1783966845.5458,1,1,3.0000,-0.0000,1.42241,-0.00874,-2.63263,1.07061,1.57080,0.11675,-0.12762,-0.48152,0.03418,,,,,,,,,,,,,,,,,,,,,,,,,,0,0,0,0,0
4.2199,1783966845.5669,1,1,3.0000,-0.0000,1.42241,-0.00874,-2.63263,1.07061,1.57080,0.11675,-0.12762,-0.48152,0.03418,,,,,,,,,,,,,,,,,,,,,,,,,,0,0,0,0,0
4.2224,1783966845.5693,1,1,3.0000,-0.0000,1.42241,-0.00874,-2.63263,1.07061,1.57080,0.11675,-0.12762,-0.48152,0.03418,,,,,,,,,,,,,,,,,,,,,,,,,,0,0,0,0,0
4.2226,1783966845.5696,1,1,3.0000,-0.0000,1.42241,-0.00874,-2.63263,1.07061,1.57080,0.11675,-0.12762,-0.48152,0.03418,,,,,,,,,,,,,,,,,,,,,,,,,,0,0,0,0,0
4.2330,1783966845.5799,1,1,3.0000,-0.0000,1.42241,-0.00874,-2.63263,1.07061,1.57080,0.11675,-0.12762,-0.48152,0.03418,,,,,,,,,,,,,,,,,,,,,,,,,,0,0,0,0,0
4.2333,1783966845.5803,1,1,3.0000,-0.0000,1.42241,-0.00874,-2.63263,1.07061,1.57080,0.11675,-0.12762,-0.48152,0.03418,,,,,,,,,,,,,,,,,,,,,,,,,,0,0,0,0,0
4.2411,1783966845.5881,1,1,3.0000,-0.0000,1.42241,-0.00874,-2.63263,1.07061,1.57080,0.11675,-0.12762,-0.48152,0.03418,,,,,,,,,,,,,,,,,,,,,,,,,,0,0,0,0,0
4.2415,1783966845.5885,1,1,3.0000,-0.0000,1.42241,-0.00874,-2.63263,1.07061,1.57080,0.11675,-0.12762,-0.48152,0.03418,,,,,,,,,,,,,,,,,,,,,,,,,,0,0,0,0,0
4.2497,1783966845.5967,1,1,3.0000,-0.0000,1.42241,-0.00874,-2.63263,1.07061,1.57080,0.11675,-0.12762,-0.48152,0.03418,,,,,,,,,,,,,,,,,,,,,,,,,,0,0,0,0,0
4.2501,1783966845.5971,1,1,3.0000,-0.0000,1.42241,-0.00874,-2.63263,1.07061,1.57080,0.11675,-0.12762,-0.48152,0.03418,,,,,,,,,,,,,,,,,,,,,,,,,,0,0,0,0,0
4.2578,1783966845.6047,1,1,3.0000,-0.0000,1.42241,-0.00874,-2.63263,1.07061,1.57080,0.11675,-0.12762,-0.48152,0.03418,,,,,,,,,,,,,,,,,,,,,,,,,,0,0,0,0,0
4.2705,1783966845.6174,1,1,3.0000,-0.0000,1.42241,-0.00874,-2.63263,1.07061,1.57080,0.11675,-0.12762,-0.48152,0.03418,,,,,,,,,,,,,,,,,,,,,,,,,,0,0,0,0,0
4.2787,1783966845.6257,1,1,3.0000,-0.0000,1.42241,-0.00874,-2.63263,1.07061,1.57080,0.11675,-0.12762,-0.48152,0.03418,,,,,,,,,,,,,,,,,,,,,,,,,,0,0,0,0,0
4.2789,1783966845.6259,1,1,3.0000,-0.0000,1.42241,-0.00874,-2.63263,1.07061,1.57080,0.11675,-0.12762,-0.48152,0.03418,,,,,,,,,,,,,,,,,,,,,,,,,,0,0,0,0,0
4.2912,1783966845.6382,1,1,3.0000,-0.0000,1.42241,-0.00874,-2.63263,1.07061,1.57080,0.11675,-0.12762,-0.48152,0.03418,,,,,,,,,,,,,,,,,,,,,,,,,,0,0,0,0,0
4.2994,1783966845.6464,1,1,3.0000,-0.0000,1.42241,-0.00874,-2.63263,1.07061,1.57080,0.11675,-0.12762,-0.48152,0.03418,,,,,,,,,,,,,,,,,,,,,,,,,,0,0,0,0,0
4.2997,1783966845.6466,1,1,3.0000,-0.0000,1.42241,-0.00874,-2.63263,1.07061,1.57080,0.11675,-0.12762,-0.48152,0.03418,,,,,,,,,,,,,,,,,,,,,,,,,,0,0,0,0,0
4.3094,1783966845.6563,1,1,3.0000,-0.0000,1.42241,-0.00874,-2.63263,1.07061,1.57080,0.11675,-0.12762,-0.48152,0.03418,,,,,,,,,,,,,,,,,,,,,,,,,,0,0,0,0,0
4.3188,1783966845.6657,1,1,3.0000,-0.0000,1.42241,-0.00874,-2.63263,1.07061,1.57080,0.11675,-0.12762,-0.48152,0.03418,,,,,,,,,,,,,,,,,,,,,,,,,,0,0,0,0,0
4.3191,1783966845.6660,1,1,3.0000,-0.0000,1.42241,-0.00874,-2.63263,1.07061,1.57080,0.11675,-0.12762,-0.48152,0.03418,,,,,,,,,,,,,,,,,,,,,,,,,,0,0,0,0,0
4.3304,1783966845.6773,1,1,3.0000,-0.0000,1.42241,-0.00874,-2.63263,1.07061,1.57080,0.11675,-0.12762,-0.48152,0.03418,,,,,,,,,,,,,,,,,,,,,,,,,,0,0,0,0,0
4.3425,1783966845.6895,1,1,3.0000,-0.0000,1.42241,-0.00874,-2.63263,1.07061,1.57080,0.11675,-0.12762,-0.48152,0.03418,,,,,,,,,,,,,,,,,,,,,,,,,,0,0,0,0,0
4.3430,1783966845.6900,1,1,3.0000,-0.0000,1.42241,-0.00874,-2.63263,1.07061,1.57080,0.11675,-0.12762,-0.48152,0.03418,,,,,,,,,,,,,,,,,,,,,,,,,,0,0,0,0,0
4.3482,1783966845.6952,1,1,3.0000,-0.0000,1.42241,-0.00874,-2.63263,1.07061,1.57080,0.11675,-0.12762,-0.48152,0.03418,,,,,,,,,,,,,,,,,,,,,,,,,,0,0,0,0,0
4.3485,1783966845.6955,1,1,3.0000,-0.0000,1.42241,-0.00874,-2.63263,1.07061,1.57080,0.11675,-0.12762,-0.48152,0.03418,,,,,,,,,,,,,,,,,,,,,,,,,,0,0,0,0,0
4.3719,1783966845.7188,1,1,3.0000,-0.0000,1.42241,-0.00874,-2.63263,1.07061,1.57080,0.11675,-0.12762,-0.48152,0.03418,,,,,,,,,,,,,,,,,,,,,,,,,,0,0,0,0,0
4.3726,1783966845.7196,1,1,3.0000,-0.0000,1.42241,-0.00874,-2.63263,1.07061,1.57080,0.11675,-0.12762,-0.48152,0.03418,,,,,,,,,,,,,,,,,,,,,,,,,,0,0,0,0,0
4.3839,1783966845.7308,1,1,3.0000,-0.0000,1.42241,-0.00874,-2.63263,1.07061,1.57080,0.11675,-0.12762,-0.48152,0.03418,,,,,,,,,,,,,,,,,,,,,,,,,,0,0,0,0,0
4.3905,1783966845.7374,1,1,3.0000,-0.0000,1.42241,-0.00874,-2.63263,1.07061,1.57080,0.11675,-0.12762,-0.48152,0.03418,,,,,,,,,,,,,,,,,,,,,,,,,,0,0,0,0,0
4.4036,1783966845.7506,1,1,3.0000,-0.0000,1.42241,-0.00874,-2.63263,1.07061,1.57080,0.11675,-0.12762,-0.48152,0.03418,,,,,,,,,,,,,,,,,,,,,,,,,,0,0,0,0,0
4.4212,1783966845.7682,1,1,3.0000,-0.0000,1.42241,-0.00876,-2.63266,1.07065,1.57080,0.11675,-0.12762,-0.48151,0.03416,,,,,,,,,,,,,,,,,,,,,,,,,,0,0,0,0,0
4.4225,1783966845.7695,1,1,3.0000,-0.0000,1.42241,-0.00878,-2.63267,1.07066,1.57080,0.11675,-0.12762,-0.48150,0.03415,,,,,,,,,,,,,,,,,,,,,,,,,,0,0,0,0,0
4.4426,1783966845.7895,1,1,3.0000,-0.0000,1.42241,-0.00881,-2.63270,1.07071,1.57080,0.11675,-0.12762,-0.48149,0.03413,,,,,,,,,,,,,,,,,,,,,,,,,,0,0,0,0,0
4.4429,1783966845.7898,1,1,3.0000,-0.0000,1.42241,-0.00881,-2.63270,1.07071,1.57080,0.11675,-0.12762,-0.48149,0.03413,,,,,,,,,,,,,,,,,,,,,,,,,,0,0,0,0,0
4.4550,1783966845.8020,1,1,3.0000,-0.0000,1.42241,-0.00887,-2.63274,1.07077,1.57081,0.11675,-0.12763,-0.48146,0.03410,,,,,,,,,,,,,,,,,,,,,,,,,,0,0,0,0,0
4.4602,1783966845.8072,1,1,3.0000,-0.0000,1.42241,-0.00889,-2.63275,1.07080,1.57081,0.11675,-0.12763,-0.48146,0.03408,,,,,,,,,,,,,,,,,,,,,,,,,,0,0,0,0,0
4.4633,1783966845.8102,1,1,3.0000,-0.0000,1.42241,-0.00889,-2.63275,1.07080,1.57081,0.11675,-0.12763,-0.48146,0.03408,,,,,,,,,,,,,,,,,,,,,,,,,,0,0,0,0,0
4.4747,1783966845.8216,1,1,3.0000,-0.0000,1.42241,-0.00892,-2.63276,1.07084,1.57081,0.11675,-0.12763,-0.48145,0.03407,,,,,,,,,,,,,,,,,,,,,,,,,,0,0,0,0,0
4.4751,1783966845.8221,1,1,3.0000,-0.0000,1.42241,-0.00892,-2.63276,1.07084,1.57081,0.11675,-0.12763,-0.48145,0.03407,,,,,,,,,,,,,,,,,,,,,,,,,,0,0,0,0,0
4.4793,1783966845.8263,1,1,3.0000,-0.0000,1.42241,-0.00895,-2.63277,1.07086,1.57081,0.11675,-0.12763,-0.48145,0.03406,,,,,,,,,,,,,,,,,,,,,,,,,,0,0,0,0,0
4.4888,1783966845.8358,1,1,3.0000,-0.0000,1.42241,-0.00897,-2.63278,1.07089,1.57081,0.11675,-0.12763,-0.48145,0.03405,,,,,,,,,,,,,,,,,,,,,,,,,,0,0,0,0,0
4.4892,1783966845.8362,1,1,3.0000,-0.0000,1.42241,-0.00897,-2.63278,1.07089,1.57081,0.11675,-0.12763,-0.48145,0.03405,,,,,,,,,,,,,,,,,,,,,,,,,,0,0,0,0,0
4.5007,1783966845.8477,1,1,3.0000,-0.0000,1.42241,-0.00902,-2.63279,1.07096,1.57081,0.11675,-0.12763,-0.48145,0.03404,,,,,,,,,,,,,,,,,,,,,,,,,,0,0,0,0,0
4.5178,1783966845.8648,1,1,3.0000,-0.0000,1.42241,-0.00921,-2.63283,1.07118,1.57081,0.11675,-0.12763,-0.48145,0.03398,,,,,,,,,,,,,,,,,,,,,,,,,,0,0,0,0,0
4.5182,1783966845.8651,1,1,3.0000,-0.0000,1.42241,-0.00921,-2.63283,1.07118,1.57081,0.11675,-0.12763,-0.48145,0.03398,,,,,,,,,,,,,,,,,,,,,,,,,,0,0,0,0,0
4.5412,1783966845.8881,1,1,3.0000,-0.0000,1.42241,-0.00934,-2.63285,1.07133,1.57081,0.11675,-0.12763,-0.48145,0.03393,,,,,,,,,,,,,,,,,,,,,,,,,,0,0,0,0,0
4.5494,1783966845.8964,1,1,3.0000,-0.0000,1.42241,-0.00942,-2.63287,1.07142,1.57081,0.11675,-0.12763,-0.48146,0.03391,,,,,,,,,,,,,,,,,,,,,,,,,,0,0,0,0,0
4.5612,1783966845.9081,1,1,3.0000,-0.0000,1.42241,-0.00947,-2.63287,1.07148,1.57081,0.11675,-0.12763,-0.48146,0.03389,,,,,,,,,,,,,,,,,,,,,,,,,,0,0,0,0,0
4.5787,1783966845.9257,1,1,3.0000,-0.0000,1.42241,-0.00960,-2.63289,1.07164,1.57081,0.11675,-0.12762,-0.48147,0.03385,,,,,,,,,,,,,,,,,,,,,,,,,,0,0,0,0,0
4.5790,1783966845.9259,1,1,3.0000,-0.0000,1.42241,-0.00960,-2.63289,1.07164,1.57081,0.11675,-0.12762,-0.48147,0.03385,,,,,,,,,,,,,,,,,,,,,,,,,,0,0,0,0,0
4.5810,1783966845.9280,1,1,3.0000,-0.0000,1.42241,-0.00960,-2.63289,1.07164,1.57081,0.11675,-0.12762,-0.48147,0.03385,,,,,,,,,,,,,,,,,,,,,,,,,,0,0,0,0,0
4.5814,1783966845.9284,1,1,3.0000,-0.0000,1.42241,-0.00960,-2.63289,1.07164,1.57081,0.11675,-0.12762,-0.48147,0.03385,,,,,,,,,,,,,,,,,,,,,,,,,,0,0,0,0,0
4.5939,1783966845.9409,1,1,3.0000,-0.0000,1.42241,-0.00972,-2.63290,1.07179,1.57081,0.11675,-0.12762,-0.48148,0.03382,,,,,,,,,,,,,,,,,,,,,,,,,,0,0,0,0,0
4.6110,1783966845.9579,1,1,3.0000,-0.0000,1.42241,-0.00990,-2.63290,1.07202,1.57081,0.11675,-0.12762,-0.48151,0.03378,,,,,,,,,,,,,,,,,,,,,,,,,,0,0,0,0,0
4.6187,1783966845.9657,1,1,3.0000,-0.0000,1.42241,-0.00992,-2.63289,1.07205,1.57081,0.11675,-0.12762,-0.48152,0.03378,,,,,,,,,,,,,,,,,,,,,,,,,,0,0,0,0,0
4.6249,1783966845.9719,1,1,3.0000,-0.0000,1.42241,-0.00992,-2.63289,1.07205,1.57081,0.11675,-0.12762,-0.48152,0.03378,,,,,,,,,,,,,,,,,,,,,,,,,,0,0,0,0,0
4.6253,1783966845.9722,1,1,3.0000,-0.0000,1.42241,-0.00992,-2.63289,1.07205,1.57081,0.11675,-0.12762,-0.48152,0.03378,,,,,,,,,,,,,,,,,,,,,,,,,,0,0,0,0,0
4.6427,1783966845.9897,1,1,3.0000,-0.0000,1.42241,-0.00992,-2.63289,1.07205,1.57081,0.11675,-0.12762,-0.48152,0.03378,,,,,,,,,,,,,,,,,,,,,,,,,,0,0,0,0,0
4.6430,1783966845.9899,1,1,3.0000,-0.0000,1.42241,-0.00992,-2.63289,1.07205,1.57081,0.11675,-0.12762,-0.48152,0.03378,,,,,,,,,,,,,,,,,,,,,,,,,,0,0,0,0,0
4.6678,1783966846.0148,1,1,3.0000,-0.0000,1.42241,-0.00992,-2.63289,1.07205,1.57081,0.11675,-0.12762,-0.48152,0.03378,,,,,,,,,,,,,,,,,,,,,,,,,,0,0,0,0,0
4.6683,1783966846.0153,1,1,3.0000,-0.0000,1.42241,-0.00992,-2.63289,1.07205,1.57081,0.11675,-0.12762,-0.48152,0.03378,,,,,,,,,,,,,,,,,,,,,,,,,,0,0,0,0,0
4.6687,1783966846.0157,1,1,3.0000,-0.0000,1.42241,-0.00992,-2.63289,1.07205,1.57081,0.11675,-0.12762,-0.48152,0.03378,,,,,,,,,,,,,,,,,,,,,,,,,,0,0,0,0,0
4.6694,1783966846.0163,1,1,3.0000,-0.0000,1.42241,-0.00992,-2.63289,1.07205,1.57081,0.11675,-0.12762,-0.48152,0.03378,,,,,,,,,,,,,,,,,,,,,,,,,,0,0,0,0,0
4.6699,1783966846.0169,1,1,3.0000,-0.0000,1.42241,-0.00992,-2.63289,1.07205,1.57081,0.11675,-0.12762,-0.48152,0.03378,,,,,,,,,,,,,,,,,,,,,,,,,,0,0,0,0,0
4.6724,1783966846.0193,1,1,3.0000,-0.0000,1.42241,-0.00992,-2.63289,1.07205,1.57081,0.11675,-0.12762,-0.48152,0.03378,,,,,,,,,,,,,,,,,,,,,,,,,,0,0,0,0,0
4.6820,1783966846.0290,1,1,3.0000,-0.0000,1.42241,-0.00992,-2.63289,1.07205,1.57081,0.11675,-0.12762,-0.48152,0.03378,,,,,,,,,,,,,,,,,,,,,,,,,,0,0,0,0,0
4.6841,1783966846.0310,1,1,3.0000,-0.0000,1.42241,-0.00992,-2.63289,1.07205,1.57081,0.11675,-0.12762,-0.48152,0.03378,,,,,,,,,,,,,,,,,,,,,,,,,,0,0,0,0,0
4.6843,1783966846.0313,1,1,3.0000,-0.0000,1.42241,-0.00992,-2.63289,1.07205,1.57081,0.11675,-0.12762,-0.48152,0.03378,,,,,,,,,,,,,,,,,,,,,,,,,,0,0,0,0,0
4.6895,1783966846.0365,1,1,3.0000,-0.0000,1.42241,-0.00992,-2.63289,1.07205,1.57081,0.11675,-0.12762,-0.48152,0.03378,,,,,,,,,,,,,,,,,,,,,,,,,,0,0,0,0,0
4.6898,1783966846.0368,1,1,3.0000,-0.0000,1.42241,-0.00992,-2.63289,1.07205,1.57081,0.11675,-0.12762,-0.48152,0.03378,,,,,,,,,,,,,,,,,,,,,,,,,,0,0,0,0,0
4.6910,1783966846.0379,1,1,3.0000,-0.0000,1.42241,-0.00992,-2.63289,1.07205,1.57081,0.11675,-0.12762,-0.48152,0.03378,,,,,,,,,,,,,,,,,,,,,,,,,,0,0,0,0,0
4.6912,1783966846.0382,1,1,3.0000,-0.0000,1.42241,-0.00992,-2.63289,1.07205,1.57081,0.11675,-0.12762,-0.48152,0.03378,,,,,,,,,,,,,,,,,,,,,,,,,,0,0,0,0,0
4.7039,1783966846.0508,1,1,3.0000,-0.0000,1.42241,-0.00992,-2.63289,1.07205,1.57081,0.11675,-0.12762,-0.48152,0.03378,,,,,,,,,,,,,,,,,,,,,,,,,,0,0,0,0,0
4.7107,1783966846.0577,1,1,3.0000,-0.0000,1.42241,-0.00992,-2.63289,1.07205,1.57081,0.11675,-0.12762,-0.48152,0.03378,,,,,,,,,,,,,,,,,,,,,,,,,,0,0,0,0,0
4.7289,1783966846.0759,1,1,3.0000,-0.0000,1.42241,-0.00992,-2.63289,1.07205,1.57081,0.11675,-0.12762,-0.48152,0.03378,,,,,,,,,,,,,,,,,,,,,,,,,,0,0,0,0,0
4.7353,1783966846.0822,1,1,3.0000,-0.0000,1.42241,-0.00992,-2.63289,1.07205,1.57081,0.11675,-0.12762,-0.48152,0.03378,,,,,,,,,,,,,,,,,,,,,,,,,,0,0,0,0,0
4.7445,1783966846.0915,1,1,3.0000,-0.0000,1.42241,-0.00992,-2.63289,1.07205,1.57081,0.11675,-0.12762,-0.48152,0.03378,,,,,,,,,,,,,,,,,,,,,,,,,,0,0,0,0,0
4.7534,1783966846.1004,1,1,3.0000,-0.0000,1.42241,-0.00992,-2.63289,1.07205,1.57081,0.11675,-0.12762,-0.48152,0.03378,,,,,,,,,,,,,,,,,,,,,,,,,,0,0,0,0,0
4.7538,1783966846.1007,1,1,3.0000,-0.0000,1.42241,-0.00992,-2.63289,1.07205,1.57081,0.11675,-0.12762,-0.48152,0.03378,,,,,,,,,,,,,,,,,,,,,,,,,,0,0,0,0,0
4.7613,1783966846.1083,1,1,3.0000,-0.0000,1.42241,-0.00992,-2.63289,1.07205,1.57081,0.11675,-0.12762,-0.48152,0.03378,,,,,,,,,,,,,,,,,,,,,,,,,,0,0,0,0,0
4.7699,1783966846.1168,1,1,3.0000,-0.0000,1.42241,-0.00992,-2.63289,1.07205,1.57081,0.11675,-0.12762,-0.48152,0.03378,,,,,,,,,,,,,,,,,,,,,,,,,,0,0,0,0,0
4.7708,1783966846.1178,1,1,3.0000,-0.0000,1.42241,-0.00992,-2.63289,1.07205,1.57081,0.11675,-0.12762,-0.48152,0.03378,,,,,,,,,,,,,,,,,,,,,,,,,,0,0,0,0,0
4.7807,1783966846.1277,1,1,3.0000,-0.0000,1.42241,-0.00992,-2.63289,1.07205,1.57081,0.11675,-0.12762,-0.48152,0.03378,,,,,,,,,,,,,,,,,,,,,,,,,,0,0,0,0,0
4.7812,1783966846.1282,1,1,3.0000,-0.0000,1.42241,-0.00992,-2.63289,1.07205,1.57081,0.11675,-0.12762,-0.48152,0.03378,,,,,,,,,,,,,,,,,,,,,,,,,,0,0,0,0,0
4.7931,1783966846.1400,1,1,3.0000,-0.0000,1.42241,-0.00992,-2.63289,1.07205,1.57081,0.11675,-0.12762,-0.48152,0.03378,,,,,,,,,,,,,,,,,,,,,,,,,,0,0,0,0,0
4.7934,1783966846.1404,1,1,3.0000,-0.0000,1.42241,-0.00992,-2.63289,1.07205,1.57081,0.11675,-0.12762,-0.48152,0.03378,,,,,,,,,,,,,,,,,,,,,,,,,,0,0,0,0,0
4.8027,1783966846.1497,1,1,3.0000,-0.0000,1.42241,-0.00992,-2.63289,1.07205,1.57081,0.11675,-0.12762,-0.48152,0.03378,,,,,,,,,,,,,,,,,,,,,,,,,,0,0,0,0,0
4.8107,1783966846.1577,1,1,3.0000,-0.0000,1.42241,-0.00992,-2.63289,1.07205,1.57081,0.11675,-0.12762,-0.48152,0.03378,,,,,,,,,,,,,,,,,,,,,,,,,,0,0,0,0,0
4.8217,1783966846.1687,1,1,3.0000,-0.0000,1.42241,-0.00992,-2.63289,1.07205,1.57081,0.11675,-0.12762,-0.48152,0.03378,,,,,,,,,,,,,,,,,,,,,,,,,,0,0,0,0,0
4.8221,1783966846.1690,1,1,3.0000,-0.0000,1.42241,-0.00992,-2.63289,1.07205,1.57081,0.11675,-0.12762,-0.48152,0.03378,,,,,,,,,,,,,,,,,,,,,,,,,,0,0,0,0,0
4.8317,1783966846.1787,1,1,3.0000,-0.0000,1.42241,-0.00993,-2.63290,1.07205,1.57081,0.11675,-0.12762,-0.48152,0.03377,,,,,,,,,,,,,,,,,,,,,,,,,,0,0,0,0,0
4.8321,1783966846.1790,1,1,3.0000,-0.0000,1.42241,-0.00993,-2.63290,1.07205,1.57081,0.11675,-0.12762,-0.48152,0.03377,,,,,,,,,,,,,,,,,,,,,,,,,,0,0,0,0,0
4.8387,1783966846.1856,1,1,3.0000,-0.0000,1.42241,-0.00994,-2.63291,1.07207,1.57081,0.11675,-0.12762,-0.48151,0.03376,,,,,,,,,,,,,,,,,,,,,,,,,,0,0,0,0,0
4.8389,1783966846.1859,1,1,3.0000,-0.0000,1.42241,-0.00994,-2.63291,1.07207,1.57081,0.11675,-0.12762,-0.48151,0.03376,,,,,,,,,,,,,,,,,,,,,,,,,,0,0,0,0,0
4.8825,1783966846.2295,1,1,3.0000,-0.0000,1.42241,-0.01009,-2.63303,1.07225,1.57081,0.11675,-0.12763,-0.48145,0.03367,,,,,,,,,,,,,,,,,,,,,,,,,,0,0,0,0,0
4.9493,1783966846.2963,1,1,3.0000,-0.0000,1.42240,-0.01044,-2.63310,1.07266,1.57081,0.11675,-0.12763,-0.48145,0.03356,,,,,,,,,,,,,,,,,,,,,,,,,,0,0,0,0,0
4.9917,1783966846.3386,1,1,3.0000,-0.0000,1.42240,-0.01073,-2.63314,1.07302,1.57081,0.11675,-0.12762,-0.48146,0.03347,,,,,,,,,,,,,,,,,,,,,,,,,,0,0,0,0,0
5.0141,1783966846.3610,1,1,3.0000,-0.0000,1.42240,-0.01094,-2.63316,1.07327,1.57081,0.11675,-0.12762,-0.48148,0.03341,,,,,,,,,,,,,,,,,,,,,,,,,,0,0,0,0,0
5.0179,1783966846.3648,1,1,3.0000,-0.0000,1.42240,-0.01098,-2.63317,1.07332,1.57081,0.11675,-0.12762,-0.48148,0.03340,,,,,,,,,,,,,,,,,,,,,,,,,,0,0,0,0,0
5.0185,1783966846.3655,1,1,3.0000,-0.0000,1.42240,-0.01102,-2.63317,1.07337,1.57081,0.11675,-0.12762,-0.48149,0.03339,,,,,,,,,,,,,,,,,,,,,,,,,,0,0,0,0,0
5.0206,1783966846.3676,1,1,3.0000,-0.0000,1.42240,-0.01102,-2.63317,1.07337,1.57081,0.11675,-0.12762,-0.48149,0.03339,,,,,,,,,,,,,,,,,,,,,,,,,,0,0,0,0,0
5.0351,1783966846.3821,1,1,3.0000,-0.0000,1.42240,-0.01111,-2.63317,1.07348,1.57081,0.11675,-0.12762,-0.48150,0.03337,,,,,,,,,,,,,,,,,,,,,,,,,,0,0,0,0,0
5.0354,1783966846.3823,1,1,3.0000,-0.0000,1.42240,-0.01111,-2.63317,1.07348,1.57081,0.11675,-0.12762,-0.48150,0.03337,,,,,,,,,,,,,,,,,,,,,,,,,,0,0,0,0,0
5.0391,1783966846.3861,1,1,3.0000,-0.0000,1.42240,-0.01111,-2.63317,1.07348,1.57081,0.11675,-0.12762,-0.48150,0.03337,,,,,,,,,,,,,,,,,,,,,,,,,,0,0,0,0,0
5.0445,1783966846.3915,1,1,3.0000,-0.0000,1.42240,-0.01111,-2.63317,1.07348,1.57081,0.11675,-0.12762,-0.48150,0.03337,,,,,,,,,,,,,,,,,,,,,,,,,,0,0,0,0,0
5.0449,1783966846.3919,1,1,3.0000,-0.0000,1.42240,-0.01111,-2.63317,1.07348,1.57081,0.11675,-0.12762,-0.48150,0.03337,,,,,,,,,,,,,,,,,,,,,,,,,,0,0,0,0,0
5.0499,1783966846.3969,1,1,3.0000,-0.0000,1.42240,-0.01111,-2.63317,1.07348,1.57081,0.11675,-0.12762,-0.48150,0.03337,,,,,,,,,,,,,,,,,,,,,,,,,,0,0,0,0,0
5.0507,1783966846.3977,1,1,3.0000,-0.0000,1.42240,-0.01111,-2.63317,1.07348,1.57081,0.11675,-0.12762,-0.48150,0.03337,,,,,,,,,,,,,,,,,,,,,,,,,,0,0,0,0,0
5.0596,1783966846.4066,1,1,3.0000,-0.0000,1.42240,-0.01111,-2.63317,1.07348,1.57081,0.11675,-0.12762,-0.48150,0.03337,,,,,,,,,,,,,,,,,,,,,,,,,,0,0,0,0,0
5.0708,1783966846.4178,1,1,3.0000,-0.0000,1.42240,-0.01111,-2.63317,1.07348,1.57081,0.11675,-0.12762,-0.48150,0.03337,,,,,,,,,,,,,,,,,,,,,,,,,,0,0,0,0,0
5.0747,1783966846.4217,1,1,3.0000,-0.0000,1.42240,-0.01111,-2.63317,1.07348,1.57081,0.11675,-0.12762,-0.48150,0.03337,,,,,,,,,,,,,,,,,,,,,,,,,,0,0,0,0,0
5.0752,1783966846.4221,1,1,3.0000,-0.0000,1.42240,-0.01111,-2.63317,1.07348,1.57081,0.11675,-0.12762,-0.48150,0.03337,,,,,,,,,,,,,,,,,,,,,,,,,,0,0,0,0,0
5.0906,1783966846.4376,1,1,3.0000,-0.0000,1.42240,-0.01111,-2.63317,1.07348,1.57081,0.11675,-0.12762,-0.48150,0.03337,,,,,,,,,,,,,,,,,,,,,,,,,,0,0,0,0,0
5.0911,1783966846.4380,1,1,3.0000,-0.0000,1.42240,-0.01111,-2.63317,1.07348,1.57081,0.11675,-0.12762,-0.48150,0.03337,,,,,,,,,,,,,,,,,,,,,,,,,,0,0,0,0,0
5.0995,1783966846.4465,1,1,3.0000,-0.0000,1.42240,-0.01111,-2.63317,1.07348,1.57081,0.11675,-0.12762,-0.48150,0.03337,,,,,,,,,,,,,,,,,,,,,,,,,,0,0,0,0,0
5.1038,1783966846.4508,1,1,3.0000,-0.0000,1.42240,-0.01111,-2.63317,1.07348,1.57081,0.11675,-0.12762,-0.48150,0.03337,,,,,,,,,,,,,,,,,,,,,,,,,,0,0,0,0,0
5.1042,1783966846.4512,1,1,3.0000,-0.0000,1.42240,-0.01111,-2.63317,1.07348,1.57081,0.11675,-0.12762,-0.48150,0.03337,,,,,,,,,,,,,,,,,,,,,,,,,,0,0,0,0,0
5.1148,1783966846.4618,1,1,3.0000,-0.0000,1.42240,-0.01111,-2.63317,1.07348,1.57081,0.11675,-0.12762,-0.48150,0.03337,,,,,,,,,,,,,,,,,,,,,,,,,,0,0,0,0,0
5.1203,1783966846.4672,1,1,3.0000,-0.0000,1.42240,-0.01111,-2.63317,1.07348,1.57081,0.11675,-0.12762,-0.48150,0.03337,,,,,,,,,,,,,,,,,,,,,,,,,,0,0,0,0,0
5.1205,1783966846.4675,1,1,3.0000,-0.0000,1.42240,-0.01111,-2.63317,1.07348,1.57081,0.11675,-0.12762,-0.48150,0.03337,,,,,,,,,,,,,,,,,,,,,,,,,,0,0,0,0,0
5.1307,1783966846.4776,1,1,3.0000,-0.0000,1.42240,-0.01111,-2.63317,1.07348,1.57081,0.11675,-0.12762,-0.48150,0.03337,,,,,,,,,,,,,,,,,,,,,,,,,,0,0,0,0,0
5.1329,1783966846.4799,1,1,3.0000,-0.0000,1.42240,-0.01111,-2.63317,1.07348,1.57081,0.11675,-0.12762,-0.48150,0.03337,,,,,,,,,,,,,,,,,,,,,,,,,,0,0,0,0,0
