Martins-Lucaas/twinforge/sensors/Data/20260713_150605__samples.csv
t_rel_s,t_unix,cycle,phase,setpoint_n,force_net_n,q1,q2,q3,q4,q5,q6,tcp_x,tcp_y,tcp_z,taxel_0,taxel_1,taxel_2,taxel_3,taxel_4,taxel_5,taxel_6,taxel_7,taxel_8,taxel_9,taxel_10,taxel_11,taxel_12,taxel_13,taxel_14,taxel_15,taxel_16,taxel_17,taxel_18,taxel_19,taxel_20,taxel_21,taxel_22,taxel_23,taxel_24,n_RA,n_SA,cn_mm,cn_ra,cn_sa
0.0182,1783965965.6760,1,0,2.0000,-0.0000,1.42244,0.00071,-2.63046,1.05905,1.57084,0.11672,-0.12762,-0.48157,0.03741,,,,,,,,,,,,,,,,,,,,,,,,,,0,0,0,0,0
0.0186,1783965965.6765,1,0,2.0000,-0.0000,1.42244,0.00071,-2.63046,1.05905,1.57084,0.11672,-0.12762,-0.48157,0.03741,,,,,,,,,,,,,,,,,,,,,,,,,,0,0,0,0,0
0.0191,1783965965.6769,1,0,2.0000,-0.0000,1.42244,0.00071,-2.63046,1.05905,1.57084,0.11672,-0.12762,-0.48157,0.03741,,,,,,,,,,,,,,,,,,,,,,,,,,0,0,0,0,0
0.0195,1783965965.6774,1,0,2.0000,-0.0000,1.42244,0.00071,-2.63046,1.05905,1.57084,0.11672,-0.12762,-0.48157,0.03741,,,,,,,,,,,,,,,,,,,,,,,,,,0,0,0,0,0
0.0237,1783965965.6815,1,0,2.0000,-0.0000,1.42244,0.00071,-2.63046,1.05905,1.57084,0.11672,-0.12762,-0.48157,0.03741,,,,,,,,,,,,,,,,,,,,,,,,,,0,0,0,0,0
0.0240,1783965965.6818,1,0,2.0000,-0.0000,1.42244,0.00071,-2.63046,1.05905,1.57084,0.11672,-0.12762,-0.48157,0.03741,,,,,,,,,,,,,,,,,,,,,,,,,,0,0,0,0,0
0.0308,1783965965.6887,1,0,2.0000,-0.0000,1.42244,0.00071,-2.63046,1.05905,1.57084,0.11672,-0.12762,-0.48157,0.03741,,,,,,,,,,,,,,,,,,,,,,,,,,0,0,0,0,0
0.0312,1783965965.6890,1,0,2.0000,-0.0000,1.42244,0.00071,-2.63046,1.05905,1.57084,0.11672,-0.12762,-0.48157,0.03741,,,,,,,,,,,,,,,,,,,,,,,,,,0,0,0,0,0
0.0477,1783965965.7055,1,0,2.0000,-0.0000,1.42244,0.00071,-2.63048,1.05906,1.57082,0.11673,-0.12762,-0.48155,0.03740,,,,,,,,,,,,,,,,,,,,,,,,,,0,0,0,0,0
0.0544,1783965965.7123,1,0,2.0000,-0.0000,1.42244,0.00071,-2.63050,1.05906,1.57082,0.11674,-0.12763,-0.48154,0.03739,,,,,,,,,,,,,,,,,,,,,,,,,,0,0,0,0,0
0.0647,1783965965.7225,1,0,2.0000,-0.0000,1.42244,0.00071,-2.63051,1.05906,1.57081,0.11674,-0.12763,-0.48153,0.03739,,,,,,,,,,,,,,,,,,,,,,,,,,0,0,0,0,0
0.0746,1783965965.7325,1,0,2.0000,-0.0000,1.42244,0.00071,-2.63053,1.05907,1.57080,0.11675,-0.12763,-0.48152,0.03738,,,,,,,,,,,,,,,,,,,,,,,,,,0,0,0,0,0
0.0817,1783965965.7396,1,0,2.0000,-0.0000,1.42244,0.00071,-2.63053,1.05907,1.57080,0.11675,-0.12764,-0.48152,0.03738,,,,,,,,,,,,,,,,,,,,,,,,,,0,0,0,0,0
0.0820,1783965965.7399,1,0,2.0000,-0.0000,1.42244,0.00071,-2.63053,1.05907,1.57080,0.11675,-0.12764,-0.48152,0.03738,,,,,,,,,,,,,,,,,,,,,,,,,,0,0,0,0,0
0.1132,1783965965.7711,1,0,2.0000,-0.0000,1.42244,0.00071,-2.63053,1.05907,1.57080,0.11675,-0.12764,-0.48152,0.03738,,,,,,,,,,,,,,,,,,,,,,,,,,0,0,0,0,0
0.1146,1783965965.7724,1,0,2.0000,-0.0000,1.42244,0.00071,-2.63053,1.05907,1.57080,0.11675,-0.12764,-0.48152,0.03738,,,,,,,,,,,,,,,,,,,,,,,,,,0,0,0,0,0
0.1167,1783965965.7746,1,0,2.0000,-0.0000,1.42244,0.00071,-2.63053,1.05907,1.57080,0.11675,-0.12764,-0.48152,0.03738,,,,,,,,,,,,,,,,,,,,,,,,,,0,0,0,0,0
0.1272,1783965965.7850,1,0,2.0000,-0.0000,1.42244,0.00071,-2.63053,1.05907,1.57080,0.11675,-0.12764,-0.48152,0.03738,,,,,,,,,,,,,,,,,,,,,,,,,,0,0,0,0,0
0.1335,1783965965.7913,1,0,2.0000,-0.0000,1.42244,0.00071,-2.63053,1.05907,1.57080,0.11675,-0.12764,-0.48152,0.03738,,,,,,,,,,,,,,,,,,,,,,,,,,0,0,0,0,0
0.1423,1783965965.8002,1,0,2.0000,-0.0000,1.42244,0.00071,-2.63053,1.05907,1.57080,0.11675,-0.12764,-0.48152,0.03738,,,,,,,,,,,,,,,,,,,,,,,,,,0,0,0,0,0
0.1579,1783965965.8157,1,0,2.0000,-0.0000,1.42244,0.00071,-2.63053,1.05907,1.57080,0.11675,-0.12764,-0.48152,0.03738,,,,,,,,,,,,,,,,,,,,,,,,,,0,0,0,0,0
0.1642,1783965965.8221,1,0,2.0000,-0.0000,1.42244,0.00071,-2.63053,1.05907,1.57080,0.11675,-0.12764,-0.48152,0.03738,,,,,,,,,,,,,,,,,,,,,,,,,,0,0,0,0,0
0.1645,1783965965.8224,1,0,2.0000,-0.0000,1.42244,0.00071,-2.63053,1.05907,1.57080,0.11675,-0.12764,-0.48152,0.03738,,,,,,,,,,,,,,,,,,,,,,,,,,0,0,0,0,0
0.1725,1783965965.8304,1,0,2.0000,-0.0000,1.42244,0.00071,-2.63053,1.05907,1.57080,0.11675,-0.12764,-0.48152,0.03738,,,,,,,,,,,,,,,,,,,,,,,,,,0,0,0,0,0
0.1813,1783965965.8391,1,0,2.0000,-0.0000,1.42244,0.00071,-2.63053,1.05907,1.57080,0.11675,-0.12764,-0.48152,0.03738,,,,,,,,,,,,,,,,,,,,,,,,,,0,0,0,0,0
0.1918,1783965965.8496,1,0,2.0000,-0.0000,1.42244,0.00071,-2.63053,1.05907,1.57080,0.11675,-0.12764,-0.48152,0.03738,,,,,,,,,,,,,,,,,,,,,,,,,,0,0,0,0,0
0.1921,1783965965.8500,1,0,2.0000,-0.0000,1.42244,0.00071,-2.63053,1.05907,1.57080,0.11675,-0.12764,-0.48152,0.03738,,,,,,,,,,,,,,,,,,,,,,,,,,0,0,0,0,0
0.2055,1783965965.8634,1,0,2.0000,-0.0000,1.42244,0.00071,-2.63053,1.05907,1.57080,0.11675,-0.12764,-0.48152,0.03738,,,,,,,,,,,,,,,,,,,,,,,,,,0,0,0,0,0
0.2059,1783965965.8638,1,0,2.0000,-0.0000,1.42244,0.00071,-2.63053,1.05907,1.57080,0.11675,-0.12764,-0.48152,0.03738,,,,,,,,,,,,,,,,,,,,,,,,,,0,0,0,0,0
0.2118,1783965965.8696,1,0,2.0000,-0.0000,1.42244,0.00071,-2.63053,1.05907,1.57080,0.11675,-0.12764,-0.48152,0.03738,,,,,,,,,,,,,,,,,,,,,,,,,,0,0,0,0,0
0.2123,1783965965.8702,1,0,2.0000,-0.0000,1.42244,0.00071,-2.63053,1.05907,1.57080,0.11675,-0.12764,-0.48152,0.03738,,,,,,,,,,,,,,,,,,,,,,,,,,0,0,0,0,0
0.2229,1783965965.8808,1,0,2.0000,-0.0000,1.42244,0.00071,-2.63053,1.05907,1.57080,0.11675,-0.12764,-0.48152,0.03738,,,,,,,,,,,,,,,,,,,,,,,,,,0,0,0,0,0
0.2324,1783965965.8903,1,0,2.0000,-0.0000,1.42244,0.00071,-2.63053,1.05907,1.57080,0.11675,-0.12764,-0.48152,0.03738,,,,,,,,,,,,,,,,,,,,,,,,,,0,0,0,0,0
0.2656,1783965965.9234,1,0,2.0000,-0.0000,1.42244,0.00071,-2.63053,1.05907,1.57080,0.11675,-0.12764,-0.48152,0.03738,,,,,,,,,,,,,,,,,,,,,,,,,,0,0,0,0,0
0.2854,1783965965.9433,1,0,2.0000,-0.0000,1.42244,0.00071,-2.63053,1.05907,1.57080,0.11675,-0.12764,-0.48152,0.03738,,,,,,,,,,,,,,,,,,,,,,,,,,0,0,0,0,0
0.2873,1783965965.9452,1,0,2.0000,-0.0000,1.42244,0.00071,-2.63053,1.05907,1.57080,0.11675,-0.12764,-0.48152,0.03738,,,,,,,,,,,,,,,,,,,,,,,,,,0,0,0,0,0
0.2908,1783965965.9486,1,0,2.0000,-0.0000,1.42244,0.00071,-2.63053,1.05907,1.57080,0.11675,-0.12764,-0.48152,0.03738,,,,,,,,,,,,,,,,,,,,,,,,,,0,0,0,0,0
0.2911,1783965965.9489,1,0,2.0000,-0.0000,1.42244,0.00071,-2.63053,1.05907,1.57080,0.11675,-0.12764,-0.48152,0.03738,,,,,,,,,,,,,,,,,,,,,,,,,,0,0,0,0,0
0.2936,1783965965.9515,1,0,2.0000,-0.0000,1.42244,0.00071,-2.63053,1.05907,1.57080,0.11675,-0.12764,-0.48152,0.03738,,,,,,,,,,,,,,,,,,,,,,,,,,0,0,0,0,0
0.2940,1783965965.9518,1,0,2.0000,-0.0000,1.42244,0.00071,-2.63053,1.05907,1.57080,0.11675,-0.12764,-0.48152,0.03738,,,,,,,,,,,,,,,,,,,,,,,,,,0,0,0,0,0
0.3174,1783965965.9753,1,0,2.0000,-0.0000,1.42244,0.00071,-2.63053,1.05907,1.57080,0.11675,-0.12764,-0.48152,0.03738,,,,,,,,,,,,,,,,,,,,,,,,,,0,0,0,0,0
0.3221,1783965965.9800,1,0,2.0000,-0.0000,1.42244,0.00071,-2.63053,1.05907,1.57080,0.11675,-0.12764,-0.48152,0.03738,,,,,,,,,,,,,,,,,,,,,,,,,,0,0,0,0,0
0.3224,1783965965.9802,1,0,2.0000,-0.0000,1.42244,0.00071,-2.63053,1.05907,1.57080,0.11675,-0.12764,-0.48152,0.03738,,,,,,,,,,,,,,,,,,,,,,,,,,0,0,0,0,0
0.3228,1783965965.9807,1,0,2.0000,-0.0000,1.42244,0.00071,-2.63053,1.05907,1.57080,0.11675,-0.12764,-0.48152,0.03738,,,,,,,,,,,,,,,,,,,,,,,,,,0,0,0,0,0
0.3231,1783965965.9810,1,0,2.0000,-0.0000,1.42244,0.00071,-2.63053,1.05907,1.57080,0.11675,-0.12764,-0.48152,0.03738,,,,,,,,,,,,,,,,,,,,,,,,,,0,0,0,0,0
0.3378,1783965965.9956,1,0,2.0000,-0.0000,1.42244,0.00071,-2.63053,1.05907,1.57080,0.11675,-0.12764,-0.48152,0.03738,,,,,,,,,,,,,,,,,,,,,,,,,,0,0,0,0,0
0.3382,1783965965.9960,1,0,2.0000,-0.0000,1.42244,0.00071,-2.63053,1.05907,1.57080,0.11675,-0.12764,-0.48152,0.03738,,,,,,,,,,,,,,,,,,,,,,,,,,0,0,0,0,0
0.3412,1783965965.9990,1,0,2.0000,-0.0000,1.42244,0.00071,-2.63053,1.05907,1.57080,0.11675,-0.12764,-0.48152,0.03738,,,,,,,,,,,,,,,,,,,,,,,,,,0,0,0,0,0
0.3561,1783965966.0139,1,0,2.0000,-0.0000,1.42244,0.00071,-2.63053,1.05907,1.57080,0.11675,-0.12764,-0.48152,0.03738,,,,,,,,,,,,,,,,,,,,,,,,,,0,0,0,0,0
0.3681,1783965966.0259,1,0,2.0000,-0.0000,1.42244,0.00071,-2.63053,1.05907,1.57080,0.11675,-0.12764,-0.48152,0.03738,,,,,,,,,,,,,,,,,,,,,,,,,,0,0,0,0,0
0.3715,1783965966.0293,1,0,2.0000,-0.0000,1.42244,0.00071,-2.63053,1.05907,1.57080,0.11675,-0.12764,-0.48152,0.03738,,,,,,,,,,,,,,,,,,,,,,,,,,0,0,0,0,0
0.3812,1783965966.0391,1,0,2.0000,-0.0000,1.42244,0.00071,-2.63053,1.05907,1.57080,0.11675,-0.12764,-0.48152,0.03738,,,,,,,,,,,,,,,,,,,,,,,,,,0,0,0,0,0
0.3908,1783965966.0487,1,0,2.0000,-0.0000,1.42244,0.00071,-2.63053,1.05907,1.57080,0.11675,-0.12764,-0.48152,0.03738,,,,,,,,,,,,,,,,,,,,,,,,,,0,0,0,0,0
0.3912,1783965966.0490,1,0,2.0000,-0.0000,1.42244,0.00071,-2.63053,1.05907,1.57080,0.11675,-0.12764,-0.48152,0.03738,,,,,,,,,,,,,,,,,,,,,,,,,,0,0,0,0,0
0.4081,1783965966.0660,1,0,2.0000,-0.0000,1.42244,0.00071,-2.63053,1.05907,1.57080,0.11675,-0.12764,-0.48152,0.03738,,,,,,,,,,,,,,,,,,,,,,,,,,0,0,0,0,0
0.4252,1783965966.0830,1,0,2.0000,-0.0000,1.42244,0.00071,-2.63053,1.05907,1.57080,0.11675,-0.12764,-0.48152,0.03738,,,,,,,,,,,,,,,,,,,,,,,,,,0,0,0,0,0
0.4254,1783965966.0832,1,0,2.0000,-0.0000,1.42244,0.00071,-2.63053,1.05907,1.57080,0.11675,-0.12764,-0.48152,0.03738,,,,,,,,,,,,,,,,,,,,,,,,,,0,0,0,0,0
0.4342,1783965966.0921,1,0,2.0000,-0.0000,1.42244,0.00071,-2.63053,1.05907,1.57080,0.11675,-0.12764,-0.48152,0.03738,,,,,,,,,,,,,,,,,,,,,,,,,,0,0,0,0,0
0.4495,1783965966.1074,1,0,2.0000,-0.0000,1.42244,0.00071,-2.63053,1.05907,1.57080,0.11675,-0.12764,-0.48152,0.03738,,,,,,,,,,,,,,,,,,,,,,,,,,0,0,0,0,0
0.4549,1783965966.1128,1,0,2.0000,-0.0000,1.42244,0.00071,-2.63053,1.05907,1.57080,0.11675,-0.12764,-0.48152,0.03738,,,,,,,,,,,,,,,,,,,,,,,,,,0,0,0,0,0
0.4736,1783965966.1315,1,0,2.0000,-0.0000,1.42244,0.00071,-2.63053,1.05907,1.57080,0.11675,-0.12764,-0.48152,0.03738,,,,,,,,,,,,,,,,,,,,,,,,,,0,0,0,0,0
0.4739,1783965966.1318,1,0,2.0000,-0.0000,1.42244,0.00071,-2.63053,1.05907,1.57080,0.11675,-0.12764,-0.48152,0.03738,,,,,,,,,,,,,,,,,,,,,,,,,,0,0,0,0,0
0.4813,1783965966.1392,1,0,2.0000,-0.0000,1.42244,0.00071,-2.63053,1.05907,1.57080,0.11675,-0.12764,-0.48152,0.03738,,,,,,,,,,,,,,,,,,,,,,,,,,0,0,0,0,0
0.4837,1783965966.1415,1,0,2.0000,-0.0000,1.42244,0.00071,-2.63053,1.05907,1.57080,0.11675,-0.12764,-0.48152,0.03738,,,,,,,,,,,,,,,,,,,,,,,,,,0,0,0,0,0
0.4840,1783965966.1419,1,0,2.0000,-0.0000,1.42244,0.00071,-2.63053,1.05907,1.57080,0.11675,-0.12764,-0.48152,0.03738,,,,,,,,,,,,,,,,,,,,,,,,,,0,0,0,0,0
0.4910,1783965966.1488,1,0,2.0000,-0.0000,1.42244,0.00071,-2.63053,1.05907,1.57080,0.11675,-0.12764,-0.48152,0.03738,,,,,,,,,,,,,,,,,,,,,,,,,,0,0,0,0,0
0.5038,1783965966.1616,1,0,2.0000,-0.0000,1.42244,0.00071,-2.63053,1.05907,1.57080,0.11675,-0.12764,-0.48152,0.03738,,,,,,,,,,,,,,,,,,,,,,,,,,0,0,0,0,0
0.5040,1783965966.1619,1,0,2.0000,-0.0000,1.42244,0.00071,-2.63053,1.05907,1.57080,0.11675,-0.12764,-0.48152,0.03738,,,,,,,,,,,,,,,,,,,,,,,,,,0,0,0,0,0
0.5138,1783965966.1716,1,0,2.0000,-0.0000,1.42244,0.00071,-2.63053,1.05907,1.57080,0.11675,-0.12764,-0.48152,0.03738,,,,,,,,,,,,,,,,,,,,,,,,,,0,0,0,0,0
0.5254,1783965966.1832,1,0,2.0000,-0.0000,1.42244,0.00071,-2.63053,1.05907,1.57080,0.11675,-0.12764,-0.48152,0.03738,,,,,,,,,,,,,,,,,,,,,,,,,,0,0,0,0,0
0.5388,1783965966.1966,1,0,2.0000,-0.0000,1.42244,0.00071,-2.63053,1.05907,1.57080,0.11675,-0.12764,-0.48152,0.03738,,,,,,,,,,,,,,,,,,,,,,,,,,0,0,0,0,0
0.5672,1783965966.2250,1,0,2.0000,-0.0000,1.42244,0.00071,-2.63053,1.05907,1.57080,0.11675,-0.12764,-0.48152,0.03738,,,,,,,,,,,,,,,,,,,,,,,,,,0,0,0,0,0
0.5763,1783965966.2342,1,0,2.0000,-0.0000,1.42244,0.00071,-2.63053,1.05907,1.57080,0.11675,-0.12764,-0.48152,0.03738,,,,,,,,,,,,,,,,,,,,,,,,,,0,0,0,0,0
0.5840,1783965966.2418,1,0,2.0000,-0.0000,1.42244,0.00071,-2.63053,1.05907,1.57080,0.11675,-0.12764,-0.48152,0.03738,,,,,,,,,,,,,,,,,,,,,,,,,,0,0,0,0,0
0.5853,1783965966.2432,1,0,2.0000,-0.0000,1.42244,0.00071,-2.63053,1.05907,1.57080,0.11675,-0.12764,-0.48152,0.03738,,,,,,,,,,,,,,,,,,,,,,,,,,0,0,0,0,0
0.5946,1783965966.2524,1,0,2.0000,-0.0000,1.42244,0.00071,-2.63053,1.05907,1.57080,0.11675,-0.12764,-0.48152,0.03738,,,,,,,,,,,,,,,,,,,,,,,,,,0,0,0,0,0
0.5955,1783965966.2534,1,0,2.0000,-0.0000,1.42244,0.00071,-2.63053,1.05907,1.57080,0.11675,-0.12764,-0.48152,0.03738,,,,,,,,,,,,,,,,,,,,,,,,,,0,0,0,0,0
0.5959,1783965966.2538,1,0,2.0000,-0.0000,1.42244,0.00071,-2.63053,1.05907,1.57080,0.11675,-0.12764,-0.48152,0.03738,,,,,,,,,,,,,,,,,,,,,,,,,,0,0,0,0,0
0.6026,1783965966.2605,1,0,2.0000,-0.0000,1.42244,0.00071,-2.63053,1.05907,1.57080,0.11675,-0.12764,-0.48152,0.03738,,,,,,,,,,,,,,,,,,,,,,,,,,0,0,0,0,0
0.6030,1783965966.2609,1,0,2.0000,-0.0000,1.42244,0.00071,-2.63053,1.05907,1.57080,0.11675,-0.12764,-0.48152,0.03738,,,,,,,,,,,,,,,,,,,,,,,,,,0,0,0,0,0
0.6254,1783965966.2833,1,0,2.0000,-0.0000,1.42244,0.00071,-2.63053,1.05907,1.57080,0.11675,-0.12764,-0.48152,0.03738,,,,,,,,,,,,,,,,,,,,,,,,,,0,0,0,0,0
0.6320,1783965966.2898,1,0,2.0000,-0.0000,1.42244,0.00071,-2.63053,1.05907,1.57080,0.11675,-0.12764,-0.48152,0.03738,,,,,,,,,,,,,,,,,,,,,,,,,,0,0,0,0,0
0.6324,1783965966.2902,1,0,2.0000,-0.0000,1.42244,0.00071,-2.63053,1.05907,1.57080,0.11675,-0.12764,-0.48152,0.03738,,,,,,,,,,,,,,,,,,,,,,,,,,0,0,0,0,0
0.6340,1783965966.2919,1,0,2.0000,-0.0000,1.42244,0.00071,-2.63053,1.05907,1.57080,0.11675,-0.12764,-0.48152,0.03738,,,,,,,,,,,,,,,,,,,,,,,,,,0,0,0,0,0
0.6343,1783965966.2922,1,0,2.0000,-0.0000,1.42244,0.00071,-2.63053,1.05907,1.57080,0.11675,-0.12764,-0.48152,0.03738,,,,,,,,,,,,,,,,,,,,,,,,,,0,0,0,0,0
0.6413,1783965966.2992,1,0,2.0000,-0.0000,1.42244,0.00071,-2.63053,1.05907,1.57080,0.11675,-0.12764,-0.48152,0.03738,,,,,,,,,,,,,,,,,,,,,,,,,,0,0,0,0,0
0.6417,1783965966.2996,1,0,2.0000,-0.0000,1.42244,0.00071,-2.63053,1.05907,1.57080,0.11675,-0.12764,-0.48152,0.03738,,,,,,,,,,,,,,,,,,,,,,,,,,0,0,0,0,0
0.6572,1783965966.3151,1,0,2.0000,-0.0000,1.42244,0.00071,-2.63053,1.05907,1.57080,0.11675,-0.12764,-0.48152,0.03738,,,,,,,,,,,,,,,,,,,,,,,,,,0,0,0,0,0
0.6574,1783965966.3152,1,0,2.0000,-0.0000,1.42244,0.00071,-2.63053,1.05907,1.57080,0.11675,-0.12764,-0.48152,0.03738,,,,,,,,,,,,,,,,,,,,,,,,,,0,0,0,0,0
0.6617,1783965966.3196,1,0,2.0000,-0.0000,1.42244,0.00071,-2.63053,1.05907,1.57080,0.11675,-0.12764,-0.48152,0.03738,,,,,,,,,,,,,,,,,,,,,,,,,,0,0,0,0,0
0.6621,1783965966.3199,1,0,2.0000,-0.0000,1.42244,0.00071,-2.63053,1.05907,1.57080,0.11675,-0.12764,-0.48152,0.03738,,,,,,,,,,,,,,,,,,,,,,,,,,0,0,0,0,0
0.6746,1783965966.3325,1,0,2.0000,-0.0000,1.42244,0.00071,-2.63053,1.05907,1.57080,0.11675,-0.12764,-0.48152,0.03738,,,,,,,,,,,,,,,,,,,,,,,,,,0,0,0,0,0
0.6898,1783965966.3477,1,0,2.0000,-0.0000,1.42244,0.00071,-2.63053,1.05907,1.57080,0.11675,-0.12764,-0.48152,0.03738,,,,,,,,,,,,,,,,,,,,,,,,,,0,0,0,0,0
0.6960,1783965966.3538,1,0,2.0000,-0.0000,1.42244,0.00071,-2.63053,1.05907,1.57080,0.11675,-0.12764,-0.48152,0.03738,,,,,,,,,,,,,,,,,,,,,,,,,,0,0,0,0,0
0.6964,1783965966.3542,1,0,2.0000,-0.0000,1.42244,0.00071,-2.63053,1.05907,1.57080,0.11675,-0.12764,-0.48152,0.03738,,,,,,,,,,,,,,,,,,,,,,,,,,0,0,0,0,0
0.7017,1783965966.3595,1,0,2.0000,-0.0000,1.42244,0.00071,-2.63053,1.05907,1.57080,0.11675,-0.12764,-0.48152,0.03738,,,,,,,,,,,,,,,,,,,,,,,,,,0,0,0,0,0
0.7020,1783965966.3599,1,0,2.0000,-0.0000,1.42244,0.00071,-2.63053,1.05907,1.57080,0.11675,-0.12764,-0.48152,0.03738,,,,,,,,,,,,,,,,,,,,,,,,,,0,0,0,0,0
0.7146,1783965966.3724,1,0,2.0000,-0.0000,1.42244,0.00071,-2.63053,1.05907,1.57080,0.11675,-0.12764,-0.48152,0.03738,,,,,,,,,,,,,,,,,,,,,,,,,,0,0,0,0,0
0.7241,1783965966.3820,1,0,2.0000,-0.0000,1.42244,0.00071,-2.63053,1.05907,1.57080,0.11675,-0.12764,-0.48152,0.03738,,,,,,,,,,,,,,,,,,,,,,,,,,0,0,0,0,0
0.7384,1783965966.3963,1,1,2.0000,-0.0000,1.42244,0.00071,-2.63053,1.05907,1.57080,0.11675,-0.12764,-0.48152,0.03738,,,,,,,,,,,,,,,,,,,,,,,,,,0,0,0,0,0
0.7448,1783965966.4026,1,1,2.0000,-0.0000,1.42244,0.00071,-2.63053,1.05907,1.57080,0.11675,-0.12764,-0.48152,0.03738,,,,,,,,,,,,,,,,,,,,,,,,,,0,0,0,0,0
0.7452,1783965966.4030,1,1,2.0000,-0.0000,1.42244,0.00071,-2.63053,1.05907,1.57080,0.11675,-0.12764,-0.48152,0.03738,,,,,,,,,,,,,,,,,,,,,,,,,,0,0,0,0,0
0.7582,1783965966.4161,1,1,2.0000,-0.0000,1.42244,0.00071,-2.63053,1.05907,1.57080,0.11675,-0.12764,-0.48152,0.03738,,,,,,,,,,,,,,,,,,,,,,,,,,0,0,0,0,0
0.7779,1783965966.4358,1,1,2.0000,-0.0000,1.42244,0.00071,-2.63053,1.05907,1.57080,0.11675,-0.12764,-0.48152,0.03738,,,,,,,,,,,,,,,,,,,,,,,,,,0,0,0,0,0
0.7977,1783965966.4556,1,1,2.0000,-0.0000,1.42244,0.00071,-2.63053,1.05907,1.57080,0.11675,-0.12764,-0.48152,0.03738,,,,,,,,,,,,,,,,,,,,,,,,,,0,0,0,0,0
0.8039,1783965966.4617,1,1,2.0000,-0.0000,1.42244,0.00071,-2.63053,1.05907,1.57080,0.11675,-0.12764,-0.48152,0.03738,,,,,,,,,,,,,,,,,,,,,,,,,,0,0,0,0,0
0.8070,1783965966.4648,1,1,2.0000,-0.0000,1.42244,0.00071,-2.63053,1.05907,1.57080,0.11675,-0.12764,-0.48152,0.03738,,,,,,,,,,,,,,,,,,,,,,,,,,0,0,0,0,0
0.8074,1783965966.4653,1,1,2.0000,-0.0000,1.42244,0.00071,-2.63053,1.05907,1.57080,0.11675,-0.12764,-0.48152,0.03738,,,,,,,,,,,,,,,,,,,,,,,,,,0,0,0,0,0
0.8192,1783965966.4770,1,1,2.0000,-0.0000,1.42244,0.00071,-2.63053,1.05907,1.57080,0.11675,-0.12764,-0.48152,0.03738,,,,,,,,,,,,,,,,,,,,,,,,,,0,0,0,0,0
0.8282,1783965966.4860,1,1,2.0000,-0.0000,1.42244,0.00071,-2.63053,1.05907,1.57080,0.11675,-0.12764,-0.48152,0.03738,,,,,,,,,,,,,,,,,,,,,,,,,,0,0,0,0,0
0.8331,1783965966.4910,1,1,2.0000,-0.0000,1.42244,0.00071,-2.63053,1.05907,1.57080,0.11675,-0.12764,-0.48152,0.03738,,,,,,,,,,,,,,,,,,,,,,,,,,0,0,0,0,0
0.8339,1783965966.4917,1,1,2.0000,-0.0000,1.42244,0.00071,-2.63053,1.05907,1.57080,0.11675,-0.12764,-0.48152,0.03738,,,,,,,,,,,,,,,,,,,,,,,,,,0,0,0,0,0
0.8433,1783965966.5011,1,1,2.0000,-0.0000,1.42244,0.00071,-2.63053,1.05907,1.57080,0.11675,-0.12764,-0.48152,0.03738,,,,,,,,,,,,,,,,,,,,,,,,,,0,0,0,0,0
0.8438,1783965966.5017,1,1,2.0000,-0.0000,1.42244,0.00071,-2.63053,1.05907,1.57080,0.11675,-0.12764,-0.48152,0.03738,,,,,,,,,,,,,,,,,,,,,,,,,,0,0,0,0,0
0.8585,1783965966.5163,1,1,2.0000,-0.0000,1.42244,0.00071,-2.63053,1.05907,1.57080,0.11675,-0.12764,-0.48152,0.03738,,,,,,,,,,,,,,,,,,,,,,,,,,0,0,0,0,0
0.8631,1783965966.5209,1,1,2.0000,-0.0000,1.42244,0.00071,-2.63053,1.05907,1.57080,0.11675,-0.12764,-0.48152,0.03738,,,,,,,,,,,,,,,,,,,,,,,,,,0,0,0,0,0
0.8896,1783965966.5474,1,1,2.0000,-0.0000,1.42244,0.00071,-2.63053,1.05907,1.57080,0.11675,-0.12764,-0.48152,0.03738,,,,,,,,,,,,,,,,,,,,,,,,,,0,0,0,0,0
0.8941,1783965966.5520,1,1,2.0000,-0.0000,1.42244,0.00071,-2.63053,1.05907,1.57080,0.11675,-0.12764,-0.48152,0.03738,,,,,,,,,,,,,,,,,,,,,,,,,,0,0,0,0,0
0.8944,1783965966.5523,1,1,2.0000,-0.0000,1.42244,0.00071,-2.63053,1.05907,1.57080,0.11675,-0.12764,-0.48152,0.03738,,,,,,,,,,,,,,,,,,,,,,,,,,0,0,0,0,0
0.8964,1783965966.5543,1,1,2.0000,-0.0000,1.42244,0.00071,-2.63053,1.05907,1.57080,0.11675,-0.12764,-0.48152,0.03738,,,,,,,,,,,,,,,,,,,,,,,,,,0,0,0,0,0
0.8967,1783965966.5546,1,1,2.0000,-0.0000,1.42244,0.00071,-2.63053,1.05907,1.57080,0.11675,-0.12764,-0.48152,0.03738,,,,,,,,,,,,,,,,,,,,,,,,,,0,0,0,0,0
0.9019,1783965966.5598,1,1,2.0000,-0.0000,1.42244,0.00071,-2.63053,1.05907,1.57080,0.11675,-0.12764,-0.48152,0.03738,,,,,,,,,,,,,,,,,,,,,,,,,,0,0,0,0,0
0.9139,1783965966.5718,1,1,2.0000,-0.0000,1.42244,0.00071,-2.63053,1.05907,1.57080,0.11675,-0.12764,-0.48152,0.03738,,,,,,,,,,,,,,,,,,,,,,,,,,0,0,0,0,0
0.9143,1783965966.5722,1,1,2.0000,-0.0000,1.42244,0.00071,-2.63053,1.05907,1.57080,0.11675,-0.12764,-0.48152,0.03738,,,,,,,,,,,,,,,,,,,,,,,,,,0,0,0,0,0
0.9417,1783965966.5995,1,1,2.0000,-0.0000,1.42244,0.00071,-2.63053,1.05907,1.57080,0.11675,-0.12764,-0.48152,0.03738,,,,,,,,,,,,,,,,,,,,,,,,,,0,0,0,0,0
0.9430,1783965966.6008,1,1,2.0000,-0.0000,1.42244,0.00071,-2.63053,1.05907,1.57080,0.11675,-0.12764,-0.48152,0.03738,,,,,,,,,,,,,,,,,,,,,,,,,,0,0,0,0,0
0.9441,1783965966.6020,1,1,2.0000,-0.0000,1.42244,0.00071,-2.63053,1.05907,1.57080,0.11675,-0.12764,-0.48152,0.03738,,,,,,,,,,,,,,,,,,,,,,,,,,0,0,0,0,0
0.9569,1783965966.6148,1,1,2.0000,-0.0000,1.42244,0.00071,-2.63053,1.05907,1.57080,0.11675,-0.12764,-0.48152,0.03738,,,,,,,,,,,,,,,,,,,,,,,,,,0,0,0,0,0
0.9646,1783965966.6224,1,1,2.0000,-0.0000,1.42244,0.00071,-2.63053,1.05907,1.57080,0.11675,-0.12764,-0.48152,0.03738,,,,,,,,,,,,,,,,,,,,,,,,,,0,0,0,0,0
0.9762,1783965966.6340,1,1,2.0000,-0.0000,1.42244,0.00071,-2.63053,1.05907,1.57080,0.11675,-0.12764,-0.48152,0.03738,,,,,,,,,,,,,,,,,,,,,,,,,,0,0,0,0,0
0.9828,1783965966.6407,1,1,2.0000,-0.0000,1.42244,0.00071,-2.63053,1.05907,1.57080,0.11675,-0.12764,-0.48152,0.03738,,,,,,,,,,,,,,,,,,,,,,,,,,0,0,0,0,0
0.9978,1783965966.6556,1,1,2.0000,-0.0000,1.42244,0.00071,-2.63053,1.05907,1.57080,0.11675,-0.12764,-0.48152,0.03738,,,,,,,,,,,,,,,,,,,,,,,,,,0,0,0,0,0
1.0037,1783965966.6616,1,1,2.0000,-0.0000,1.42244,0.00071,-2.63053,1.05907,1.57080,0.11675,-0.12764,-0.48152,0.03738,,,,,,,,,,,,,,,,,,,,,,,,,,0,0,0,0,0
1.0041,1783965966.6619,1,1,2.0000,-0.0000,1.42244,0.00071,-2.63053,1.05907,1.57080,0.11675,-0.12764,-0.48152,0.03738,,,,,,,,,,,,,,,,,,,,,,,,,,0,0,0,0,0
1.0336,1783965966.6914,1,1,2.0000,-0.0000,1.42244,0.00070,-2.63055,1.05907,1.57080,0.11675,-0.12764,-0.48151,0.03737,,,,,,,,,,,,,,,,,,,,,,,,,,0,0,0,0,0
1.0359,1783965966.6937,1,1,2.0000,-0.0000,1.42244,0.00070,-2.63055,1.05907,1.57080,0.11675,-0.12764,-0.48151,0.03737,,,,,,,,,,,,,,,,,,,,,,,,,,0,0,0,0,0
1.0362,1783965966.6941,1,1,2.0000,-0.0000,1.42244,0.00070,-2.63055,1.05907,1.57080,0.11675,-0.12764,-0.48151,0.03737,,,,,,,,,,,,,,,,,,,,,,,,,,0,0,0,0,0
1.0368,1783965966.6946,1,1,2.0000,-0.0000,1.42244,0.00070,-2.63055,1.05907,1.57080,0.11675,-0.12764,-0.48151,0.03737,,,,,,,,,,,,,,,,,,,,,,,,,,0,0,0,0,0
1.0371,1783965966.6950,1,1,2.0000,-0.0000,1.42244,0.00070,-2.63055,1.05907,1.57080,0.11675,-0.12764,-0.48151,0.03737,,,,,,,,,,,,,,,,,,,,,,,,,,0,0,0,0,0
1.0446,1783965966.7024,1,1,2.0000,-0.0000,1.42244,0.00070,-2.63055,1.05907,1.57080,0.11675,-0.12764,-0.48151,0.03737,,,,,,,,,,,,,,,,,,,,,,,,,,0,0,0,0,0
1.0555,1783965966.7134,1,1,2.0000,-0.0000,1.42244,0.00067,-2.63058,1.05908,1.57080,0.11675,-0.12764,-0.48149,0.03734,,,,,,,,,,,,,,,,,,,,,,,,,,0,0,0,0,0
1.0660,1783965966.7239,1,1,2.0000,-0.0000,1.42244,0.00063,-2.63063,1.05911,1.57080,0.11675,-0.12765,-0.48145,0.03730,,,,,,,,,,,,,,,,,,,,,,,,,,0,0,0,0,0
1.0734,1783965966.7312,1,1,2.0000,-0.0000,1.42244,0.00063,-2.63063,1.05911,1.57080,0.11675,-0.12765,-0.48145,0.03730,,,,,,,,,,,,,,,,,,,,,,,,,,0,0,0,0,0
1.0742,1783965966.7321,1,1,2.0000,-0.0000,1.42244,0.00062,-2.63063,1.05911,1.57080,0.11675,-0.12765,-0.48145,0.03730,,,,,,,,,,,,,,,,,,,,,,,,,,0,0,0,0,0
1.0858,1783965966.7437,1,1,2.0000,-0.0000,1.42244,0.00058,-2.63066,1.05915,1.57080,0.11675,-0.12765,-0.48143,0.03728,,,,,,,,,,,,,,,,,,,,,,,,,,0,0,0,0,0
1.0961,1783965966.7540,1,1,2.0000,-0.0000,1.42244,0.00054,-2.63068,1.05918,1.57080,0.11675,-0.12765,-0.48142,0.03726,,,,,,,,,,,,,,,,,,,,,,,,,,0,0,0,0,0
1.1031,1783965966.7609,1,1,2.0000,-0.0000,1.42244,0.00052,-2.63069,1.05920,1.57080,0.11675,-0.12765,-0.48141,0.03724,,,,,,,,,,,,,,,,,,,,,,,,,,0,0,0,0,0
1.1141,1783965966.7719,1,1,2.0000,-0.0000,1.42244,0.00048,-2.63070,1.05924,1.57080,0.11675,-0.12765,-0.48141,0.03723,,,,,,,,,,,,,,,,,,,,,,,,,,0,0,0,0,0
1.1266,1783965966.7844,1,1,2.0000,-0.0000,1.42244,0.00038,-2.63073,1.05936,1.57080,0.11675,-0.12765,-0.48141,0.03719,,,,,,,,,,,,,,,,,,,,,,,,,,0,0,0,0,0
1.1381,1783965966.7959,1,1,2.0000,-0.0000,1.42244,0.00035,-2.63073,1.05939,1.57080,0.11675,-0.12765,-0.48141,0.03718,,,,,,,,,,,,,,,,,,,,,,,,,,0,0,0,0,0
1.1427,1783965966.8006,1,1,2.0000,-0.0000,1.42244,0.00032,-2.63073,1.05942,1.57080,0.11675,-0.12765,-0.48141,0.03717,,,,,,,,,,,,,,,,,,,,,,,,,,0,0,0,0,0
1.1432,1783965966.8010,1,1,2.0000,-0.0000,1.42244,0.00032,-2.63073,1.05942,1.57080,0.11675,-0.12765,-0.48141,0.03717,,,,,,,,,,,,,,,,,,,,,,,,,,0,0,0,0,0
1.1519,1783965966.8098,1,1,2.0000,-0.0000,1.42244,0.00024,-2.63075,1.05953,1.57080,0.11675,-0.12765,-0.48141,0.03715,,,,,,,,,,,,,,,,,,,,,,,,,,0,0,0,0,0
1.1651,1783965966.8229,1,1,2.0000,-0.0000,1.42244,0.00013,-2.63076,1.05965,1.57080,0.11675,-0.12765,-0.48142,0.03711,,,,,,,,,,,,,,,,,,,,,,,,,,0,0,0,0,0
1.1841,1783965966.8420,1,1,2.0000,-0.0000,1.42244,0.00002,-2.63078,1.05980,1.57080,0.11675,-0.12765,-0.48142,0.03708,,,,,,,,,,,,,,,,,,,,,,,,,,0,0,0,0,0
1.1885,1783965966.8464,1,1,2.0000,-0.0000,1.42244,-0.00003,-2.63079,1.05985,1.57080,0.11675,-0.12765,-0.48143,0.03707,,,,,,,,,,,,,,,,,,,,,,,,,,0,0,0,0,0
1.1888,1783965966.8466,1,1,2.0000,-0.0000,1.42244,-0.00003,-2.63079,1.05985,1.57080,0.11675,-0.12765,-0.48143,0.03707,,,,,,,,,,,,,,,,,,,,,,,,,,0,0,0,0,0
1.1971,1783965966.8550,1,1,2.0000,-0.0000,1.42244,-0.00007,-2.63080,1.05991,1.57080,0.11675,-0.12765,-0.48143,0.03705,,,,,,,,,,,,,,,,,,,,,,,,,,0,0,0,0,0
1.1982,1783965966.8561,1,1,2.0000,-0.0000,1.42244,-0.00008,-2.63080,1.05991,1.57080,0.11675,-0.12765,-0.48143,0.03705,,,,,,,,,,,,,,,,,,,,,,,,,,0,0,0,0,0
1.2078,1783965966.8656,1,1,2.0000,-0.0000,1.42244,-0.00011,-2.63080,1.05995,1.57080,0.11675,-0.12765,-0.48143,0.03704,,,,,,,,,,,,,,,,,,,,,,,,,,0,0,0,0,0
1.2138,1783965966.8716,1,1,2.0000,-0.0000,1.42244,-0.00016,-2.63080,1.06003,1.57080,0.11675,-0.12765,-0.48144,0.03703,,,,,,,,,,,,,,,,,,,,,,,,,,0,0,0,0,0
1.2295,1783965966.8874,1,1,2.0000,-0.0000,1.42244,-0.00031,-2.63079,1.06022,1.57080,0.11675,-0.12764,-0.48148,0.03700,,,,,,,,,,,,,,,,,,,,,,,,,,0,0,0,0,0
1.2338,1783965966.8917,1,1,2.0000,-0.0000,1.42244,-0.00035,-2.63079,1.06027,1.57080,0.11675,-0.12764,-0.48148,0.03700,,,,,,,,,,,,,,,,,,,,,,,,,,0,0,0,0,0
1.2342,1783965966.8920,1,1,2.0000,-0.0000,1.42244,-0.00035,-2.63079,1.06027,1.57080,0.11675,-0.12764,-0.48148,0.03700,,,,,,,,,,,,,,,,,,,,,,,,,,0,0,0,0,0
1.2419,1783965966.8998,1,1,2.0000,-0.0000,1.42244,-0.00041,-2.63078,1.06036,1.57080,0.11675,-0.12764,-0.48151,0.03699,,,,,,,,,,,,,,,,,,,,,,,,,,0,0,0,0,0
1.2422,1783965966.9001,1,1,2.0000,-0.0000,1.42244,-0.00041,-2.63078,1.06036,1.57080,0.11675,-0.12764,-0.48151,0.03699,,,,,,,,,,,,,,,,,,,,,,,,,,0,0,0,0,0
1.2527,1783965966.9106,1,1,2.0000,-0.0000,1.42244,-0.00046,-2.63076,1.06042,1.57080,0.11675,-0.12763,-0.48153,0.03699,,,,,,,,,,,,,,,,,,,,,,,,,,0,0,0,0,0
1.2995,1783965966.9573,1,1,2.0000,-0.0000,1.42244,-0.00047,-2.63075,1.06044,1.57080,0.11675,-0.12763,-0.48154,0.03699,,,,,,,,,,,,,,,,,,,,,,,,,,0,0,0,0,0
1.3024,1783965966.9603,1,1,2.0000,-0.0000,1.42244,-0.00047,-2.63075,1.06044,1.57080,0.11675,-0.12763,-0.48154,0.03699,,,,,,,,,,,,,,,,,,,,,,,,,,0,0,0,0,0
1.3096,1783965966.9675,1,1,2.0000,-0.0000,1.42244,-0.00047,-2.63075,1.06044,1.57080,0.11675,-0.12763,-0.48154,0.03699,,,,,,,,,,,,,,,,,,,,,,,,,,0,0,0,0,0
1.3138,1783965966.9717,1,1,2.0000,-0.0000,1.42244,-0.00047,-2.63075,1.06044,1.57080,0.11675,-0.12763,-0.48154,0.03699,,,,,,,,,,,,,,,,,,,,,,,,,,0,0,0,0,0
1.3143,1783965966.9722,1,1,2.0000,-0.0000,1.42244,-0.00047,-2.63075,1.06044,1.57080,0.11675,-0.12763,-0.48154,0.03699,,,,,,,,,,,,,,,,,,,,,,,,,,0,0,0,0,0
1.3152,1783965966.9730,1,1,2.0000,-0.0000,1.42244,-0.00047,-2.63075,1.06044,1.57080,0.11675,-0.12763,-0.48154,0.03699,,,,,,,,,,,,,,,,,,,,,,,,,,0,0,0,0,0
1.3156,1783965966.9734,1,1,2.0000,-0.0000,1.42244,-0.00047,-2.63075,1.06044,1.57080,0.11675,-0.12763,-0.48154,0.03699,,,,,,,,,,,,,,,,,,,,,,,,,,0,0,0,0,0
1.3286,1783965966.9865,1,1,2.0000,-0.0000,1.42244,-0.00047,-2.63075,1.06044,1.57080,0.11675,-0.12763,-0.48154,0.03699,,,,,,,,,,,,,,,,,,,,,,,,,,0,0,0,0,0
1.3417,1783965966.9996,1,1,2.0000,-0.0000,1.42244,-0.00047,-2.63075,1.06044,1.57080,0.11675,-0.12763,-0.48154,0.03699,,,,,,,,,,,,,,,,,,,,,,,,,,0,0,0,0,0
1.3420,1783965966.9999,1,1,2.0000,-0.0000,1.42244,-0.00047,-2.63075,1.06044,1.57080,0.11675,-0.12763,-0.48154,0.03699,,,,,,,,,,,,,,,,,,,,,,,,,,0,0,0,0,0
1.3469,1783965967.0047,1,1,2.0000,-0.0000,1.42244,-0.00047,-2.63075,1.06044,1.57080,0.11675,-0.12763,-0.48154,0.03699,,,,,,,,,,,,,,,,,,,,,,,,,,0,0,0,0,0
1.3471,1783965967.0050,1,1,2.0000,-0.0000,1.42244,-0.00047,-2.63075,1.06044,1.57080,0.11675,-0.12763,-0.48154,0.03699,,,,,,,,,,,,,,,,,,,,,,,,,,0,0,0,0,0
1.4485,1783965967.1063,1,1,2.0000,-0.0000,1.42244,-0.00048,-2.63076,1.06046,1.57080,0.11675,-0.12763,-0.48153,0.03698,,,,,,,,,,,,,,,,,,,,,,,,,,0,0,0,0,0
1.4523,1783965967.1101,1,1,2.0000,-0.0000,1.42244,-0.00048,-2.63077,1.06047,1.57080,0.11675,-0.12763,-0.48153,0.03698,,,,,,,,,,,,,,,,,,,,,,,,,,0,0,0,0,0
1.4528,1783965967.1106,1,1,2.0000,-0.0000,1.42244,-0.00048,-2.63077,1.06047,1.57080,0.11675,-0.12763,-0.48153,0.03698,,,,,,,,,,,,,,,,,,,,,,,,,,0,0,0,0,0
1.4597,1783965967.1175,1,1,2.0000,-0.0000,1.42244,-0.00049,-2.63079,1.06050,1.57080,0.11675,-0.12763,-0.48152,0.03697,,,,,,,,,,,,,,,,,,,,,,,,,,0,0,0,0,0
1.4599,1783965967.1178,1,1,2.0000,-0.0000,1.42244,-0.00049,-2.63079,1.06050,1.57080,0.11675,-0.12763,-0.48152,0.03697,,,,,,,,,,,,,,,,,,,,,,,,,,0,0,0,0,0
1.4652,1783965967.1230,1,1,2.0000,-0.0000,1.42244,-0.00049,-2.63079,1.06050,1.57080,0.11675,-0.12763,-0.48152,0.03697,,,,,,,,,,,,,,,,,,,,,,,,,,0,0,0,0,0
1.4657,1783965967.1235,1,1,2.0000,-0.0000,1.42244,-0.00050,-2.63080,1.06051,1.57080,0.11675,-0.12763,-0.48152,0.03697,,,,,,,,,,,,,,,,,,,,,,,,,,0,0,0,0,0
1.4815,1783965967.1394,1,1,2.0000,-0.0000,1.42244,-0.00054,-2.63084,1.06057,1.57080,0.11675,-0.12764,-0.48149,0.03694,,,,,,,,,,,,,,,,,,,,,,,,,,0,0,0,0,0
1.4821,1783965967.1400,1,1,2.0000,-0.0000,1.42244,-0.00054,-2.63084,1.06057,1.57080,0.11675,-0.12764,-0.48149,0.03694,,,,,,,,,,,,,,,,,,,,,,,,,,0,0,0,0,0
1.4887,1783965967.1465,1,1,2.0000,-0.0000,1.42244,-0.00056,-2.63086,1.06059,1.57080,0.11675,-0.12764,-0.48148,0.03692,,,,,,,,,,,,,,,,,,,,,,,,,,0,0,0,0,0
1.4890,1783965967.1468,1,1,2.0000,-0.0000,1.42244,-0.00056,-2.63086,1.06059,1.57080,0.11675,-0.12764,-0.48148,0.03692,,,,,,,,,,,,,,,,,,,,,,,,,,0,0,0,0,0
1.4921,1783965967.1499,1,1,2.0000,-0.0000,1.42244,-0.00056,-2.63086,1.06059,1.57080,0.11675,-0.12764,-0.48148,0.03692,,,,,,,,,,,,,,,,,,,,,,,,,,0,0,0,0,0
1.4960,1783965967.1538,1,1,2.0000,-0.0000,1.42244,-0.00056,-2.63086,1.06060,1.57080,0.11675,-0.12764,-0.48148,0.03692,,,,,,,,,,,,,,,,,,,,,,,,,,0,0,0,0,0
1.4963,1783965967.1542,1,1,2.0000,-0.0000,1.42244,-0.00056,-2.63086,1.06060,1.57080,0.11675,-0.12764,-0.48148,0.03692,,,,,,,,,,,,,,,,,,,,,,,,,,0,0,0,0,0
1.5059,1783965967.1637,1,1,2.0000,-0.0000,1.42244,-0.00061,-2.63089,1.06065,1.57080,0.11675,-0.12764,-0.48147,0.03690,,,,,,,,,,,,,,,,,,,,,,,,,,0,0,0,0,0
1.5063,1783965967.1642,1,1,2.0000,-0.0000,1.42244,-0.00061,-2.63089,1.06065,1.57080,0.11675,-0.12764,-0.48147,0.03690,,,,,,,,,,,,,,,,,,,,,,,,,,0,0,0,0,0
1.5077,1783965967.1655,1,1,2.0000,-0.0000,1.42244,-0.00061,-2.63089,1.06065,1.57080,0.11675,-0.12764,-0.48147,0.03690,,,,,,,,,,,,,,,,,,,,,,,,,,0,0,0,0,0
1.5081,1783965967.1660,1,1,2.0000,-0.0000,1.42244,-0.00061,-2.63089,1.06065,1.57080,0.11675,-0.12764,-0.48147,0.03690,,,,,,,,,,,,,,,,,,,,,,,,,,0,0,0,0,0
1.5113,1783965967.1692,1,1,2.0000,-0.0000,1.42244,-0.00063,-2.63090,1.06068,1.57080,0.11675,-0.12764,-0.48146,0.03689,,,,,,,,,,,,,,,,,,,,,,,,,,0,0,0,0,0
1.5116,1783965967.1695,1,1,2.0000,-0.0000,1.42244,-0.00063,-2.63090,1.06068,1.57080,0.11675,-0.12764,-0.48146,0.03689,,,,,,,,,,,,,,,,,,,,,,,,,,0,0,0,0,0
1.5837,1783965967.2415,1,1,2.0000,-0.0000,1.42244,-0.00101,-2.63101,1.06116,1.57080,0.11675,-0.12764,-0.48145,0.03675,,,,,,,,,,,,,,,,,,,,,,,,,,0,0,0,0,0
1.5840,1783965967.2419,1,1,2.0000,-0.0000,1.42244,-0.00101,-2.63101,1.06116,1.57080,0.11675,-0.12764,-0.48145,0.03675,,,,,,,,,,,,,,,,,,,,,,,,,,0,0,0,0,0
1.5843,1783965967.2422,1,1,2.0000,-0.0000,1.42244,-0.00101,-2.63101,1.06116,1.57080,0.11675,-0.12764,-0.48145,0.03675,,,,,,,,,,,,,,,,,,,,,,,,,,0,0,0,0,0
1.5935,1783965967.2514,1,1,2.0000,-0.0000,1.42244,-0.00110,-2.63102,1.06126,1.57080,0.11675,-0.12764,-0.48145,0.03672,,,,,,,,,,,,,,,,,,,,,,,,,,0,0,0,0,0
1.5943,1783965967.2522,1,1,2.0000,-0.0000,1.42244,-0.00110,-2.63102,1.06126,1.57080,0.11675,-0.12764,-0.48145,0.03672,,,,,,,,,,,,,,,,,,,,,,,,,,0,0,0,0,0
1.5946,1783965967.2525,1,1,2.0000,-0.0000,1.42244,-0.00110,-2.63102,1.06126,1.57080,0.11675,-0.12764,-0.48145,0.03672,,,,,,,,,,,,,,,,,,,,,,,,,,0,0,0,0,0
1.6068,1783965967.2647,1,1,2.0000,-0.0000,1.42244,-0.00124,-2.63105,1.06144,1.57080,0.11675,-0.12764,-0.48146,0.03668,,,,,,,,,,,,,,,,,,,,,,,,,,0,0,0,0,0
1.6086,1783965967.2665,1,1,2.0000,-0.0000,1.42244,-0.00124,-2.63105,1.06144,1.57080,0.11675,-0.12764,-0.48146,0.03668,,,,,,,,,,,,,,,,,,,,,,,,,,0,0,0,0,0
1.6089,1783965967.2668,1,1,2.0000,-0.0000,1.42244,-0.00124,-2.63105,1.06144,1.57080,0.11675,-0.12764,-0.48146,0.03668,,,,,,,,,,,,,,,,,,,,,,,,,,0,0,0,0,0
1.6127,1783965967.2706,1,1,2.0000,-0.0000,1.42244,-0.00124,-2.63105,1.06144,1.57080,0.11675,-0.12764,-0.48146,0.03668,,,,,,,,,,,,,,,,,,,,,,,,,,0,0,0,0,0
1.6132,1783965967.2711,1,1,2.0000,-0.0000,1.42244,-0.00124,-2.63105,1.06144,1.57080,0.11675,-0.12764,-0.48146,0.03668,,,,,,,,,,,,,,,,,,,,,,,,,,0,0,0,0,0
1.6151,1783965967.2729,1,1,2.0000,-0.0000,1.42244,-0.00125,-2.63105,1.06145,1.57080,0.11675,-0.12764,-0.48146,0.03668,,,,,,,,,,,,,,,,,,,,,,,,,,0,0,0,0,0
1.6158,1783965967.2737,1,1,2.0000,-0.0000,1.42244,-0.00125,-2.63105,1.06145,1.57080,0.11675,-0.12764,-0.48146,0.03668,,,,,,,,,,,,,,,,,,,,,,,,,,0,0,0,0,0
1.6161,1783965967.2739,1,1,2.0000,-0.0000,1.42244,-0.00125,-2.63105,1.06145,1.57080,0.11675,-0.12764,-0.48146,0.03668,,,,,,,,,,,,,,,,,,,,,,,,,,0,0,0,0,0
1.6224,1783965967.2803,1,1,2.0000,-0.0000,1.42244,-0.00128,-2.63105,1.06149,1.57080,0.11675,-0.12764,-0.48147,0.03667,,,,,,,,,,,,,,,,,,,,,,,,,,0,0,0,0,0
1.6228,1783965967.2806,1,1,2.0000,-0.0000,1.42244,-0.00128,-2.63105,1.06149,1.57080,0.11675,-0.12764,-0.48147,0.03667,,,,,,,,,,,,,,,,,,,,,,,,,,0,0,0,0,0
1.6487,1783965967.3065,1,1,2.0000,-0.0000,1.42244,-0.00149,-2.63104,1.06176,1.57080,0.11675,-0.12763,-0.48151,0.03662,,,,,,,,,,,,,,,,,,,,,,,,,,0,0,0,0,0
1.6518,1783965967.3097,1,1,2.0000,-0.0000,1.42244,-0.00153,-2.63104,1.06180,1.57080,0.11675,-0.12763,-0.48152,0.03661,,,,,,,,,,,,,,,,,,,,,,,,,,0,0,0,0,0
1.6522,1783965967.3101,1,1,2.0000,-0.0000,1.42244,-0.00153,-2.63104,1.06180,1.57080,0.11675,-0.12763,-0.48152,0.03661,,,,,,,,,,,,,,,,,,,,,,,,,,0,0,0,0,0
1.6577,1783965967.3155,1,1,2.0000,-0.0000,1.42244,-0.00159,-2.63103,1.06189,1.57080,0.11675,-0.12763,-0.48154,0.03661,,,,,,,,,,,,,,,,,,,,,,,,,,0,0,0,0,0
1.6626,1783965967.3204,1,1,2.0000,-0.0000,1.42244,-0.00162,-2.63102,1.06192,1.57080,0.11675,-0.12763,-0.48155,0.03660,,,,,,,,,,,,,,,,,,,,,,,,,,0,0,0,0,0
1.6772,1783965967.3350,1,1,2.0000,-0.0000,1.42244,-0.00165,-2.63100,1.06196,1.57080,0.11675,-0.12762,-0.48157,0.03661,,,,,,,,,,,,,,,,,,,,,,,,,,0,0,0,0,0
1.7088,1783965967.3667,1,1,2.0000,-0.0000,1.42244,-0.00165,-2.63100,1.06196,1.57080,0.11675,-0.12762,-0.48157,0.03661,,,,,,,,,,,,,,,,,,,,,,,,,,0,0,0,0,0
1.7177,1783965967.3756,1,1,2.0000,-0.0000,1.42244,-0.00165,-2.63100,1.06196,1.57080,0.11675,-0.12762,-0.48157,0.03661,,,,,,,,,,,,,,,,,,,,,,,,,,0,0,0,0,0
1.7181,1783965967.3759,1,1,2.0000,-0.0000,1.42244,-0.00165,-2.63100,1.06196,1.57080,0.11675,-0.12762,-0.48157,0.03661,,,,,,,,,,,,,,,,,,,,,,,,,,0,0,0,0,0
1.7185,1783965967.3763,1,1,2.0000,-0.0000,1.42244,-0.00165,-2.63100,1.06196,1.57080,0.11675,-0.12762,-0.48157,0.03661,,,,,,,,,,,,,,,,,,,,,,,,,,0,0,0,0,0
1.7188,1783965967.3766,1,1,2.0000,-0.0000,1.42244,-0.00165,-2.63100,1.06196,1.57080,0.11675,-0.12762,-0.48157,0.03661,,,,,,,,,,,,,,,,,,,,,,,,,,0,0,0,0,0
1.7219,1783965967.3797,1,1,2.0000,-0.0000,1.42244,-0.00165,-2.63100,1.06196,1.57080,0.11675,-0.12762,-0.48157,0.03661,,,,,,,,,,,,,,,,,,,,,,,,,,0,0,0,0,0
1.7222,1783965967.3801,1,1,2.0000,-0.0000,1.42244,-0.00165,-2.63100,1.06196,1.57080,0.11675,-0.12762,-0.48157,0.03661,,,,,,,,,,,,,,,,,,,,,,,,,,0,0,0,0,0
1.7439,1783965967.4018,1,1,2.0000,-0.0000,1.42244,-0.00165,-2.63100,1.06196,1.57080,0.11675,-0.12762,-0.48157,0.03661,,,,,,,,,,,,,,,,,,,,,,,,,,0,0,0,0,0
1.7524,1783965967.4103,1,1,2.0000,-0.0000,1.42244,-0.00165,-2.63100,1.06196,1.57080,0.11675,-0.12762,-0.48157,0.03661,,,,,,,,,,,,,,,,,,,,,,,,,,0,0,0,0,0
1.7539,1783965967.4118,1,1,2.0000,-0.0000,1.42244,-0.00165,-2.63100,1.06196,1.57080,0.11675,-0.12762,-0.48157,0.03661,,,,,,,,,,,,,,,,,,,,,,,,,,0,0,0,0,0
1.7620,1783965967.4198,1,1,2.0000,-0.0000,1.42244,-0.00165,-2.63100,1.06196,1.57080,0.11675,-0.12762,-0.48157,0.03661,,,,,,,,,,,,,,,,,,,,,,,,,,0,0,0,0,0
1.7813,1783965967.4391,1,1,2.0000,-0.0000,1.42244,-0.00165,-2.63100,1.06196,1.57080,0.11675,-0.12762,-0.48157,0.03661,,,,,,,,,,,,,,,,,,,,,,,,,,0,0,0,0,0
1.7858,1783965967.4436,1,1,2.0000,-0.0000,1.42244,-0.00165,-2.63100,1.06196,1.57080,0.11675,-0.12762,-0.48157,0.03661,,,,,,,,,,,,,,,,,,,,,,,,,,0,0,0,0,0
1.7952,1783965967.4530,1,1,2.0000,-0.0000,1.42244,-0.00165,-2.63100,1.06196,1.57080,0.11675,-0.12762,-0.48157,0.03661,,,,,,,,,,,,,,,,,,,,,,,,,,0,0,0,0,0
1.7957,1783965967.4536,1,1,2.0000,-0.0000,1.42244,-0.00165,-2.63100,1.06196,1.57080,0.11675,-0.12762,-0.48157,0.03661,,,,,,,,,,,,,,,,,,,,,,,,,,0,0,0,0,0
1.8072,1783965967.4651,1,1,2.0000,-0.0000,1.42244,-0.00165,-2.63100,1.06196,1.57080,0.11675,-0.12762,-0.48157,0.03661,,,,,,,,,,,,,,,,,,,,,,,,,,0,0,0,0,0
1.8139,1783965967.4717,1,1,2.0000,-0.0000,1.42244,-0.00165,-2.63100,1.06196,1.57080,0.11675,-0.12762,-0.48157,0.03661,,,,,,,,,,,,,,,,,,,,,,,,,,0,0,0,0,0
1.8143,1783965967.4722,1,1,2.0000,-0.0000,1.42244,-0.00165,-2.63100,1.06196,1.57080,0.11675,-0.12762,-0.48157,0.03661,,,,,,,,,,,,,,,,,,,,,,,,,,0,0,0,0,0
1.8231,1783965967.4810,1,1,2.0000,-0.0000,1.42244,-0.00165,-2.63100,1.06196,1.57080,0.11675,-0.12762,-0.48157,0.03661,,,,,,,,,,,,,,,,,,,,,,,,,,0,0,0,0,0
1.8320,1783965967.4899,1,1,2.0000,-0.0000,1.42244,-0.00165,-2.63100,1.06196,1.57080,0.11675,-0.12762,-0.48157,0.03661,,,,,,,,,,,,,,,,,,,,,,,,,,0,0,0,0,0
1.8561,1783965967.5140,1,1,2.0000,-0.0000,1.42244,-0.00165,-2.63100,1.06196,1.57080,0.11675,-0.12762,-0.48157,0.03661,,,,,,,,,,,,,,,,,,,,,,,,,,0,0,0,0,0
1.8609,1783965967.5188,1,1,2.0000,-0.0000,1.42244,-0.00165,-2.63100,1.06196,1.57080,0.11675,-0.12762,-0.48157,0.03660,,,,,,,,,,,,,,,,,,,,,,,,,,0,0,0,0,0
1.8613,1783965967.5192,1,1,2.0000,-0.0000,1.42244,-0.00165,-2.63100,1.06196,1.57080,0.11675,-0.12762,-0.48157,0.03660,,,,,,,,,,,,,,,,,,,,,,,,,,0,0,0,0,0
1.9322,1783965967.5901,1,1,2.0000,-0.0000,1.42243,-0.00181,-2.63117,1.06215,1.57080,0.11675,-0.12764,-0.48147,0.03649,,,,,,,,,,,,,,,,,,,,,,,,,,0,0,0,0,0
1.9471,1783965967.6050,1,1,2.0000,-0.0000,1.42243,-0.00185,-2.63119,1.06220,1.57080,0.11675,-0.12764,-0.48146,0.03647,,,,,,,,,,,,,,,,,,,,,,,,,,0,0,0,0,0
1.9492,1783965967.6071,1,1,2.0000,-0.0000,1.42243,-0.00185,-2.63119,1.06220,1.57080,0.11675,-0.12764,-0.48146,0.03647,,,,,,,,,,,,,,,,,,,,,,,,,,0,0,0,0,0
1.9651,1783965967.6229,1,1,2.0000,-0.0000,1.42243,-0.00198,-2.63122,1.06235,1.57080,0.11675,-0.12764,-0.48146,0.03643,,,,,,,,,,,,,,,,,,,,,,,,,,0,0,0,0,0
1.9678,1783965967.6257,1,1,2.0000,-0.0000,1.42243,-0.00202,-2.63123,1.06241,1.57080,0.11675,-0.12764,-0.48146,0.03641,,,,,,,,,,,,,,,,,,,,,,,,,,0,0,0,0,0
1.9693,1783965967.6272,1,1,2.0000,-0.0000,1.42243,-0.00202,-2.63123,1.06241,1.57080,0.11675,-0.12764,-0.48146,0.03641,,,,,,,,,,,,,,,,,,,,,,,,,,0,0,0,0,0
1.9876,1783965967.6455,1,1,2.0000,-0.0000,1.42243,-0.00211,-2.63126,1.06252,1.57080,0.11675,-0.12764,-0.48146,0.03638,,,,,,,,,,,,,,,,,,,,,,,,,,0,0,0,0,0
1.9955,1783965967.6533,1,1,2.0000,-0.0000,1.42243,-0.00218,-2.63127,1.06260,1.57080,0.11675,-0.12764,-0.48146,0.03636,,,,,,,,,,,,,,,,,,,,,,,,,,0,0,0,0,0
2.0166,1783965967.6744,1,1,2.0000,-0.0000,1.42243,-0.00229,-2.63129,1.06273,1.57080,0.11675,-0.12764,-0.48146,0.03632,,,,,,,,,,,,,,,,,,,,,,,,,,0,0,0,0,0
2.0245,1783965967.6823,1,1,2.0000,-0.0000,1.42243,-0.00234,-2.63130,1.06279,1.57080,0.11675,-0.12764,-0.48146,0.03630,,,,,,,,,,,,,,,,,,,,,,,,,,0,0,0,0,0
2.0258,1783965967.6836,1,1,2.0000,-0.0000,1.42243,-0.00238,-2.63130,1.06284,1.57080,0.11675,-0.12764,-0.48146,0.03629,,,,,,,,,,,,,,,,,,,,,,,,,,0,0,0,0,0
2.0283,1783965967.6862,1,1,2.0000,-0.0000,1.42243,-0.00238,-2.63130,1.06284,1.57080,0.11675,-0.12764,-0.48146,0.03629,,,,,,,,,,,,,,,,,,,,,,,,,,0,0,0,0,0
2.0325,1783965967.6904,1,1,2.0000,-0.0000,1.42243,-0.00242,-2.63131,1.06289,1.57080,0.11675,-0.12764,-0.48147,0.03628,,,,,,,,,,,,,,,,,,,,,,,,,,0,0,0,0,0
2.0329,1783965967.6907,1,1,2.0000,-0.0000,1.42243,-0.00242,-2.63131,1.06289,1.57080,0.11675,-0.12764,-0.48147,0.03628,,,,,,,,,,,,,,,,,,,,,,,,,,0,0,0,0,0
2.0356,1783965967.6935,1,1,2.0000,-0.0000,1.42243,-0.00246,-2.63131,1.06294,1.57080,0.11675,-0.12764,-0.48147,0.03627,,,,,,,,,,,,,,,,,,,,,,,,,,0,0,0,0,0
2.0359,1783965967.6938,1,1,2.0000,-0.0000,1.42243,-0.00246,-2.63131,1.06294,1.57080,0.11675,-0.12764,-0.48147,0.03627,,,,,,,,,,,,,,,,,,,,,,,,,,0,0,0,0,0
2.0452,1783965967.7030,1,1,2.0000,-0.0000,1.42243,-0.00256,-2.63133,1.06306,1.57080,0.11675,-0.12764,-0.48148,0.03624,,,,,,,,,,,,,,,,,,,,,,,,,,0,0,0,0,0
2.0460,1783965967.7038,1,1,2.0000,-0.0000,1.42243,-0.00261,-2.63133,1.06312,1.57080,0.11675,-0.12764,-0.48148,0.03623,,,,,,,,,,,,,,,,,,,,,,,,,,0,0,0,0,0
2.0556,1783965967.7135,1,1,2.0000,-0.0000,1.42243,-0.00269,-2.63134,1.06323,1.57080,0.11675,-0.12763,-0.48149,0.03620,,,,,,,,,,,,,,,,,,,,,,,,,,0,0,0,0,0
2.0559,1783965967.7138,1,1,2.0000,-0.0000,1.42243,-0.00269,-2.63134,1.06323,1.57080,0.11675,-0.12763,-0.48149,0.03620,,,,,,,,,,,,,,,,,,,,,,,,,,0,0,0,0,0
2.0609,1783965967.7188,1,1,2.0000,-0.0000,1.42243,-0.00273,-2.63135,1.06328,1.57080,0.11675,-0.12763,-0.48149,0.03619,,,,,,,,,,,,,,,,,,,,,,,,,,0,0,0,0,0
2.0672,1783965967.7251,1,1,2.0000,-0.0000,1.42243,-0.00279,-2.63135,1.06336,1.57080,0.11675,-0.12763,-0.48150,0.03617,,,,,,,,,,,,,,,,,,,,,,,,,,0,0,0,0,0
2.0675,1783965967.7254,1,1,2.0000,-0.0000,1.42243,-0.00279,-2.63135,1.06336,1.57080,0.11675,-0.12763,-0.48150,0.03617,,,,,,,,,,,,,,,,,,,,,,,,,,0,0,0,0,0
2.0699,1783965967.7278,1,1,2.0000,-0.0000,1.42243,-0.00279,-2.63135,1.06336,1.57080,0.11675,-0.12763,-0.48150,0.03617,,,,,,,,,,,,,,,,,,,,,,,,,,0,0,0,0,0
2.0790,1783965967.7369,1,1,2.0000,-0.0000,1.42243,-0.00279,-2.63135,1.06336,1.57080,0.11675,-0.12763,-0.48150,0.03617,,,,,,,,,,,,,,,,,,,,,,,,,,0,0,0,0,0
2.0793,1783965967.7372,1,1,2.0000,-0.0000,1.42243,-0.00279,-2.63135,1.06336,1.57080,0.11675,-0.12763,-0.48150,0.03617,,,,,,,,,,,,,,,,,,,,,,,,,,0,0,0,0,0
2.1179,1783965967.7757,1,1,2.0000,-0.0000,1.42243,-0.00279,-2.63135,1.06336,1.57080,0.11675,-0.12763,-0.48150,0.03617,,,,,,,,,,,,,,,,,,,,,,,,,,0,0,0,0,0
2.1259,1783965967.7838,1,1,2.0000,-0.0000,1.42243,-0.00279,-2.63135,1.06336,1.57080,0.11675,-0.12763,-0.48150,0.03617,,,,,,,,,,,,,,,,,,,,,,,,,,0,0,0,0,0
2.1263,1783965967.7841,1,1,2.0000,-0.0000,1.42243,-0.00279,-2.63135,1.06336,1.57080,0.11675,-0.12763,-0.48150,0.03617,,,,,,,,,,,,,,,,,,,,,,,,,,0,0,0,0,0
2.1270,1783965967.7849,1,1,2.0000,-0.0000,1.42243,-0.00279,-2.63135,1.06336,1.57080,0.11675,-0.12763,-0.48150,0.03617,,,,,,,,,,,,,,,,,,,,,,,,,,0,0,0,0,0
2.1273,1783965967.7852,1,1,2.0000,-0.0000,1.42243,-0.00279,-2.63135,1.06336,1.57080,0.11675,-0.12763,-0.48150,0.03617,,,,,,,,,,,,,,,,,,,,,,,,,,0,0,0,0,0
2.1276,1783965967.7855,1,1,2.0000,-0.0000,1.42243,-0.00279,-2.63135,1.06336,1.57080,0.11675,-0.12763,-0.48150,0.03617,,,,,,,,,,,,,,,,,,,,,,,,,,0,0,0,0,0
2.1281,1783965967.7859,1,1,2.0000,-0.0000,1.42243,-0.00279,-2.63135,1.06336,1.57080,0.11675,-0.12763,-0.48150,0.03617,,,,,,,,,,,,,,,,,,,,,,,,,,0,0,0,0,0
2.1283,1783965967.7862,1,1,2.0000,-0.0000,1.42243,-0.00279,-2.63135,1.06336,1.57080,0.11675,-0.12763,-0.48150,0.03617,,,,,,,,,,,,,,,,,,,,,,,,,,0,0,0,0,0
2.1307,1783965967.7886,1,1,2.0000,-0.0000,1.42243,-0.00279,-2.63135,1.06336,1.57080,0.11675,-0.12763,-0.48150,0.03617,,,,,,,,,,,,,,,,,,,,,,,,,,0,0,0,0,0
2.1310,1783965967.7888,1,1,2.0000,-0.0000,1.42243,-0.00279,-2.63135,1.06336,1.57080,0.11675,-0.12763,-0.48150,0.03617,,,,,,,,,,,,,,,,,,,,,,,,,,0,0,0,0,0
2.1530,1783965967.8109,1,1,2.0000,-0.0000,1.42243,-0.00279,-2.63135,1.06336,1.57080,0.11675,-0.12763,-0.48150,0.03617,,,,,,,,,,,,,,,,,,,,,,,,,,0,0,0,0,0
2.1581,1783965967.8159,1,1,2.0000,-0.0000,1.42243,-0.00279,-2.63135,1.06336,1.57080,0.11675,-0.12763,-0.48150,0.03617,,,,,,,,,,,,,,,,,,,,,,,,,,0,0,0,0,0
2.1584,1783965967.8162,1,1,2.0000,-0.0000,1.42243,-0.00279,-2.63135,1.06336,1.57080,0.11675,-0.12763,-0.48150,0.03617,,,,,,,,,,,,,,,,,,,,,,,,,,0,0,0,0,0
2.1619,1783965967.8197,1,1,2.0000,-0.0000,1.42243,-0.00279,-2.63135,1.06336,1.57080,0.11675,-0.12763,-0.48150,0.03617,,,,,,,,,,,,,,,,,,,,,,,,,,0,0,0,0,0
2.1742,1783965967.8320,1,1,2.0000,-0.0000,1.42243,-0.00279,-2.63135,1.06336,1.57080,0.11675,-0.12763,-0.48150,0.03617,,,,,,,,,,,,,,,,,,,,,,,,,,0,0,0,0,0
2.1744,1783965967.8323,1,1,2.0000,-0.0000,1.42243,-0.00279,-2.63135,1.06336,1.57080,0.11675,-0.12763,-0.48150,0.03617,,,,,,,,,,,,,,,,,,,,,,,,,,0,0,0,0,0
2.1921,1783965967.8499,1,1,2.0000,-0.0000,1.42243,-0.00279,-2.63135,1.06336,1.57080,0.11675,-0.12763,-0.48150,0.03617,,,,,,,,,,,,,,,,,,,,,,,,,,0,0,0,0,0
2.1960,1783965967.8539,1,1,2.0000,-0.0000,1.42243,-0.00279,-2.63135,1.06336,1.57080,0.11675,-0.12763,-0.48150,0.03617,,,,,,,,,,,,,,,,,,,,,,,,,,0,0,0,0,0
2.1965,1783965967.8543,1,1,2.0000,-0.0000,1.42243,-0.00279,-2.63135,1.06336,1.57080,0.11675,-0.12763,-0.48150,0.03617,,,,,,,,,,,,,,,,,,,,,,,,,,0,0,0,0,0
2.2138,1783965967.8716,1,1,2.0000,-0.0000,1.42243,-0.00279,-2.63135,1.06336,1.57080,0.11675,-0.12763,-0.48150,0.03617,,,,,,,,,,,,,,,,,,,,,,,,,,0,0,0,0,0
2.2143,1783965967.8722,1,1,2.0000,-0.0000,1.42243,-0.00279,-2.63135,1.06336,1.57080,0.11675,-0.12763,-0.48150,0.03617,,,,,,,,,,,,,,,,,,,,,,,,,,0,0,0,0,0
2.2146,1783965967.8724,1,1,2.0000,-0.0000,1.42243,-0.00279,-2.63135,1.06336,1.57080,0.11675,-0.12763,-0.48150,0.03617,,,,,,,,,,,,,,,,,,,,,,,,,,0,0,0,0,0
2.2253,1783965967.8832,1,1,2.0000,-0.0000,1.42243,-0.00279,-2.63135,1.06336,1.57080,0.11675,-0.12763,-0.48150,0.03617,,,,,,,,,,,,,,,,,,,,,,,,,,0,0,0,0,0
2.2380,1783965967.8958,1,1,2.0000,-0.0000,1.42243,-0.00279,-2.63135,1.06336,1.57080,0.11675,-0.12763,-0.48150,0.03617,,,,,,,,,,,,,,,,,,,,,,,,,,0,0,0,0,0
2.2665,1783965967.9244,1,1,2.0000,-0.0000,1.42243,-0.00279,-2.63135,1.06336,1.57080,0.11675,-0.12763,-0.48150,0.03617,,,,,,,,,,,,,,,,,,,,,,,,,,0,0,0,0,0
2.2736,1783965967.9315,1,1,2.0000,-0.0000,1.42243,-0.00279,-2.63135,1.06336,1.57080,0.11675,-0.12763,-0.48150,0.03617,,,,,,,,,,,,,,,,,,,,,,,,,,0,0,0,0,0
2.2740,1783965967.9318,1,1,2.0000,-0.0000,1.42243,-0.00279,-2.63135,1.06336,1.57080,0.11675,-0.12763,-0.48150,0.03617,,,,,,,,,,,,,,,,,,,,,,,,,,0,0,0,0,0
2.2751,1783965967.9330,1,1,2.0000,-0.0000,1.42243,-0.00279,-2.63135,1.06336,1.57080,0.11675,-0.12763,-0.48150,0.03617,,,,,,,,,,,,,,,,,,,,,,,,,,0,0,0,0,0
2.2754,1783965967.9333,1,1,2.0000,-0.0000,1.42243,-0.00279,-2.63135,1.06336,1.57080,0.11675,-0.12763,-0.48150,0.03617,,,,,,,,,,,,,,,,,,,,,,,,,,0,0,0,0,0
2.2806,1783965967.9384,1,1,2.0000,-0.0000,1.42243,-0.00279,-2.63135,1.06336,1.57080,0.11675,-0.12763,-0.48150,0.03617,,,,,,,,,,,,,,,,,,,,,,,,,,0,0,0,0,0
2.2809,1783965967.9388,1,1,2.0000,-0.0000,1.42243,-0.00279,-2.63135,1.06336,1.57080,0.11675,-0.12763,-0.48150,0.03617,,,,,,,,,,,,,,,,,,,,,,,,,,0,0,0,0,0
2.2943,1783965967.9522,1,1,2.0000,-0.0000,1.42243,-0.00281,-2.63135,1.06339,1.57080,0.11675,-0.12763,-0.48150,0.03617,,,,,,,,,,,,,,,,,,,,,,,,,,0,0,0,0,0
2.3063,1783965967.9641,1,1,2.0000,-0.0000,1.42243,-0.00282,-2.63136,1.06340,1.57080,0.11675,-0.12763,-0.48150,0.03617,,,,,,,,,,,,,,,,,,,,,,,,,,0,0,0,0,0
2.3066,1783965967.9645,1,1,2.0000,-0.0000,1.42243,-0.00282,-2.63136,1.06340,1.57080,0.11675,-0.12763,-0.48150,0.03617,,,,,,,,,,,,,,,,,,,,,,,,,,0,0,0,0,0
2.3717,1783965968.0296,1,1,2.0000,-0.0000,1.42243,-0.00306,-2.63149,1.06368,1.57080,0.11675,-0.12764,-0.48144,0.03605,,,,,,,,,,,,,,,,,,,,,,,,,,0,0,0,0,0
2.6878,1783965968.3456,1,1,2.0000,-0.0000,1.42243,-0.00396,-2.63162,1.06477,1.57080,0.11675,-0.12763,-0.48149,0.03578,,,,,,,,,,,,,,,,,,,,,,,,,,0,0,0,0,0
2.7844,1783965968.4422,1,1,2.0000,-0.0000,1.42243,-0.00419,-2.63173,1.06505,1.57080,0.11675,-0.12764,-0.48144,0.03567,,,,,,,,,,,,,,,,,,,,,,,,,,0,0,0,0,0
2.8555,1783965968.5134,1,1,2.0000,-0.0000,1.42242,-0.00464,-2.63182,1.06560,1.57080,0.11675,-0.12764,-0.48145,0.03552,,,,,,,,,,,,,,,,,,,,,,,,,,0,0,0,0,0
2.9206,1783965968.5784,1,1,2.0000,-0.0000,1.42242,-0.00509,-2.63183,1.06616,1.57080,0.11675,-0.12763,-0.48152,0.03541,,,,,,,,,,,,,,,,,,,,,,,,,,0,0,0,0,0
2.9403,1783965968.5982,1,1,2.0000,-0.0000,1.42242,-0.00519,-2.63180,1.06628,1.57080,0.11675,-0.12762,-0.48156,0.03540,,,,,,,,,,,,,,,,,,,,,,,,,,0,0,0,0,0
2.9448,1783965968.6026,1,1,2.0000,-0.0000,1.42242,-0.00519,-2.63180,1.06628,1.57080,0.11675,-0.12762,-0.48156,0.03540,,,,,,,,,,,,,,,,,,,,,,,,,,0,0,0,0,0
2.9882,1783965968.6460,1,1,2.0000,-0.0000,1.42242,-0.00519,-2.63180,1.06628,1.57080,0.11675,-0.12762,-0.48156,0.03540,,,,,,,,,,,,,,,,,,,,,,,,,,0,0,0,0,0
2.9888,1783965968.6466,1,1,2.0000,-0.0000,1.42242,-0.00519,-2.63180,1.06628,1.57080,0.11675,-0.12762,-0.48156,0.03540,,,,,,,,,,,,,,,,,,,,,,,,,,0,0,0,0,0
3.0688,1783965968.7267,1,1,2.0000,-0.0000,1.42242,-0.00519,-2.63180,1.06628,1.57080,0.11675,-0.12762,-0.48156,0.03540,,,,,,,,,,,,,,,,,,,,,,,,,,0,0,0,0,0
3.1039,1783965968.7617,1,1,2.0000,-0.0000,1.42242,-0.00519,-2.63180,1.06628,1.57080,0.11675,-0.12762,-0.48156,0.03540,,,,,,,,,,,,,,,,,,,,,,,,,,0,0,0,0,0
3.1896,1783965968.8474,1,1,2.0000,-0.0000,1.42242,-0.00529,-2.63191,1.06641,1.57080,0.11675,-0.12763,-0.48149,0.03532,,,,,,,,,,,,,,,,,,,,,,,,,,0,0,0,0,0
3.1904,1783965968.8482,1,1,2.0000,-0.0000,1.42242,-0.00532,-2.63193,1.06644,1.57080,0.11675,-0.12763,-0.48149,0.03531,,,,,,,,,,,,,,,,,,,,,,,,,,0,0,0,0,0
3.1908,1783965968.8487,1,1,2.0000,-0.0000,1.42242,-0.00532,-2.63193,1.06644,1.57080,0.11675,-0.12763,-0.48149,0.03531,,,,,,,,,,,,,,,,,,,,,,,,,,0,0,0,0,0
3.1913,1783965968.8491,1,1,2.0000,-0.0000,1.42242,-0.00532,-2.63193,1.06644,1.57080,0.11675,-0.12763,-0.48149,0.03531,,,,,,,,,,,,,,,,,,,,,,,,,,0,0,0,0,0
3.2594,1783965968.9173,1,1,2.0000,-0.0000,1.42242,-0.00568,-2.63205,1.06687,1.57080,0.11675,-0.12763,-0.48145,0.03517,,,,,,,,,,,,,,,,,,,,,,,,,,0,0,0,0,0
3.2673,1783965968.9251,1,1,2.0000,-0.0000,1.42242,-0.00570,-2.63205,1.06690,1.57080,0.11675,-0.12763,-0.48146,0.03516,,,,,,,,,,,,,,,,,,,,,,,,,,0,0,0,0,0
3.2854,1783965968.9432,1,1,2.0000,-0.0000,1.42242,-0.00587,-2.63208,1.06710,1.57080,0.11675,-0.12763,-0.48146,0.03511,,,,,,,,,,,,,,,,,,,,,,,,,,0,0,0,0,0
3.2889,1783965968.9468,1,1,2.0000,-0.0000,1.42242,-0.00592,-2.63209,1.06717,1.57080,0.11675,-0.12763,-0.48146,0.03509,,,,,,,,,,,,,,,,,,,,,,,,,,0,0,0,0,0
3.2934,1783965968.9513,1,1,2.0000,-0.0000,1.42242,-0.00598,-2.63210,1.06723,1.57080,0.11675,-0.12763,-0.48146,0.03507,,,,,,,,,,,,,,,,,,,,,,,,,,0,0,0,0,0
3.2964,1783965968.9543,1,1,2.0000,-0.0000,1.42242,-0.00598,-2.63210,1.06723,1.57080,0.11675,-0.12763,-0.48146,0.03507,,,,,,,,,,,,,,,,,,,,,,,,,,0,0,0,0,0
3.3028,1783965968.9606,1,1,2.0000,-0.0000,1.42242,-0.00599,-2.63210,1.06725,1.57080,0.11675,-0.12763,-0.48147,0.03507,,,,,,,,,,,,,,,,,,,,,,,,,,0,0,0,0,0
3.3054,1783965968.9633,1,1,2.0000,-0.0000,1.42242,-0.00599,-2.63210,1.06725,1.57080,0.11675,-0.12763,-0.48147,0.03507,,,,,,,,,,,,,,,,,,,,,,,,,,0,0,0,0,0
3.3069,1783965968.9648,1,1,2.0000,-0.0000,1.42242,-0.00601,-2.63210,1.06728,1.57080,0.11675,-0.12763,-0.48147,0.03506,,,,,,,,,,,,,,,,,,,,,,,,,,0,0,0,0,0
3.3073,1783965968.9652,1,1,2.0000,-0.0000,1.42242,-0.00601,-2.63210,1.06728,1.57080,0.11675,-0.12763,-0.48147,0.03506,,,,,,,,,,,,,,,,,,,,,,,,,,0,0,0,0,0
3.3078,1783965968.9657,1,1,2.0000,-0.0000,1.42242,-0.00601,-2.63210,1.06728,1.57080,0.11675,-0.12763,-0.48147,0.03506,,,,,,,,,,,,,,,,,,,,,,,,,,0,0,0,0,0
3.3304,1783965968.9883,1,1,2.0000,-0.0000,1.42242,-0.00621,-2.63210,1.06752,1.57080,0.11675,-0.12763,-0.48150,0.03502,,,,,,,,,,,,,,,,,,,,,,,,,,0,0,0,0,0
3.3378,1783965968.9956,1,1,2.0000,-0.0000,1.42242,-0.00624,-2.63210,1.06757,1.57080,0.11675,-0.12762,-0.48151,0.03501,,,,,,,,,,,,,,,,,,,,,,,,,,0,0,0,0,0
3.3383,1783965968.9962,1,1,2.0000,-0.0000,1.42242,-0.00628,-2.63209,1.06761,1.57080,0.11675,-0.12762,-0.48152,0.03501,,,,,,,,,,,,,,,,,,,,,,,,,,0,0,0,0,0
3.3387,1783965968.9965,1,1,2.0000,-0.0000,1.42242,-0.00628,-2.63209,1.06761,1.57080,0.11675,-0.12762,-0.48152,0.03501,,,,,,,,,,,,,,,,,,,,,,,,,,0,0,0,0,0
3.3389,1783965968.9968,1,1,2.0000,-0.0000,1.42242,-0.00628,-2.63209,1.06761,1.57080,0.11675,-0.12762,-0.48152,0.03501,,,,,,,,,,,,,,,,,,,,,,,,,,0,0,0,0,0
3.3628,1783965969.0206,1,1,2.0000,-0.0000,1.42242,-0.00637,-2.63206,1.06773,1.57080,0.11675,-0.12762,-0.48156,0.03500,,,,,,,,,,,,,,,,,,,,,,,,,,0,0,0,0,0
3.3814,1783965969.0393,1,1,2.0000,-0.0000,1.42242,-0.00637,-2.63206,1.06773,1.57080,0.11675,-0.12762,-0.48156,0.03500,,,,,,,,,,,,,,,,,,,,,,,,,,0,0,0,0,0
3.3823,1783965969.0401,1,1,2.0000,-0.0000,1.42242,-0.00637,-2.63206,1.06773,1.57080,0.11675,-0.12762,-0.48156,0.03500,,,,,,,,,,,,,,,,,,,,,,,,,,0,0,0,0,0
3.3889,1783965969.0468,1,1,2.0000,-0.0000,1.42242,-0.00637,-2.63206,1.06773,1.57080,0.11675,-0.12762,-0.48156,0.03500,,,,,,,,,,,,,,,,,,,,,,,,,,0,0,0,0,0
3.3894,1783965969.0472,1,1,2.0000,-0.0000,1.42242,-0.00637,-2.63206,1.06773,1.57080,0.11675,-0.12762,-0.48156,0.03500,,,,,,,,,,,,,,,,,,,,,,,,,,0,0,0,0,0
3.3925,1783965969.0504,1,1,2.0000,-0.0000,1.42242,-0.00637,-2.63206,1.06773,1.57080,0.11675,-0.12762,-0.48156,0.03500,,,,,,,,,,,,,,,,,,,,,,,,,,0,0,0,0,0
3.3930,1783965969.0508,1,1,2.0000,-0.0000,1.42242,-0.00637,-2.63206,1.06773,1.57080,0.11675,-0.12762,-0.48156,0.03500,,,,,,,,,,,,,,,,,,,,,,,,,,0,0,0,0,0
3.3946,1783965969.0525,1,1,2.0000,-0.0000,1.42242,-0.00637,-2.63206,1.06773,1.57080,0.11675,-0.12762,-0.48156,0.03500,,,,,,,,,,,,,,,,,,,,,,,,,,0,0,0,0,0
3.3949,1783965969.0527,1,1,2.0000,-0.0000,1.42242,-0.00637,-2.63206,1.06773,1.57080,0.11675,-0.12762,-0.48156,0.03500,,,,,,,,,,,,,,,,,,,,,,,,,,0,0,0,0,0
3.3952,1783965969.0530,1,1,2.0000,-0.0000,1.42242,-0.00637,-2.63206,1.06773,1.57080,0.11675,-0.12762,-0.48156,0.03500,,,,,,,,,,,,,,,,,,,,,,,,,,0,0,0,0,0
3.3954,1783965969.0533,1,1,2.0000,-0.0000,1.42242,-0.00637,-2.63206,1.06773,1.57080,0.11675,-0.12762,-0.48156,0.03500,,,,,,,,,,,,,,,,,,,,,,,,,,0,0,0,0,0
3.3969,1783965969.0548,1,1,2.0000,-0.0000,1.42242,-0.00637,-2.63206,1.06773,1.57080,0.11675,-0.12762,-0.48156,0.03500,,,,,,,,,,,,,,,,,,,,,,,,,,0,0,0,0,0
3.3972,1783965969.0551,1,1,2.0000,-0.0000,1.42242,-0.00637,-2.63206,1.06773,1.57080,0.11675,-0.12762,-0.48156,0.03500,,,,,,,,,,,,,,,,,,,,,,,,,,0,0,0,0,0
3.3985,1783965969.0564,1,1,2.0000,-0.0000,1.42242,-0.00637,-2.63206,1.06773,1.57080,0.11675,-0.12762,-0.48156,0.03500,,,,,,,,,,,,,,,,,,,,,,,,,,0,0,0,0,0
3.3990,1783965969.0568,1,1,2.0000,-0.0000,1.42242,-0.00637,-2.63206,1.06773,1.57080,0.11675,-0.12762,-0.48156,0.03500,,,,,,,,,,,,,,,,,,,,,,,,,,0,0,0,0,0
3.3992,1783965969.0571,1,1,2.0000,-0.0000,1.42242,-0.00637,-2.63206,1.06773,1.57080,0.11675,-0.12762,-0.48156,0.03500,,,,,,,,,,,,,,,,,,,,,,,,,,0,0,0,0,0
3.4075,1783965969.0654,1,1,2.0000,-0.0000,1.42242,-0.00637,-2.63206,1.06773,1.57080,0.11675,-0.12762,-0.48156,0.03500,,,,,,,,,,,,,,,,,,,,,,,,,,0,0,0,0,0
3.4081,1783965969.0660,1,1,2.0000,-0.0000,1.42242,-0.00637,-2.63206,1.06773,1.57080,0.11675,-0.12762,-0.48156,0.03500,,,,,,,,,,,,,,,,,,,,,,,,,,0,0,0,0,0
3.4268,1783965969.0847,1,1,2.0000,-0.0000,1.42242,-0.00637,-2.63206,1.06773,1.57080,0.11675,-0.12762,-0.48156,0.03500,,,,,,,,,,,,,,,,,,,,,,,,,,0,0,0,0,0
3.4626,1783965969.1205,1,1,2.0000,-0.0000,1.42242,-0.00637,-2.63206,1.06773,1.57080,0.11675,-0.12762,-0.48156,0.03500,,,,,,,,,,,,,,,,,,,,,,,,,,0,0,0,0,0
3.4631,1783965969.1209,1,1,2.0000,-0.0000,1.42242,-0.00637,-2.63206,1.06773,1.57080,0.11675,-0.12762,-0.48156,0.03500,,,,,,,,,,,,,,,,,,,,,,,,,,0,0,0,0,0
3.4645,1783965969.1224,1,1,2.0000,-0.0000,1.42242,-0.00637,-2.63206,1.06773,1.57080,0.11675,-0.12762,-0.48156,0.03500,,,,,,,,,,,,,,,,,,,,,,,,,,0,0,0,0,0
3.4648,1783965969.1227,1,1,2.0000,-0.0000,1.42242,-0.00637,-2.63206,1.06773,1.57080,0.11675,-0.12762,-0.48156,0.03500,,,,,,,,,,,,,,,,,,,,,,,,,,0,0,0,0,0
3.4651,1783965969.1229,1,1,2.0000,-0.0000,1.42242,-0.00637,-2.63206,1.06773,1.57080,0.11675,-0.12762,-0.48156,0.03500,,,,,,,,,,,,,,,,,,,,,,,,,,0,0,0,0,0
3.4654,1783965969.1232,1,1,2.0000,-0.0000,1.42242,-0.00637,-2.63206,1.06773,1.57080,0.11675,-0.12762,-0.48156,0.03500,,,,,,,,,,,,,,,,,,,,,,,,,,0,0,0,0,0
3.4661,1783965969.1239,1,1,2.0000,-0.0000,1.42242,-0.00637,-2.63206,1.06773,1.57080,0.11675,-0.12762,-0.48156,0.03500,,,,,,,,,,,,,,,,,,,,,,,,,,0,0,0,0,0
3.4676,1783965969.1254,1,1,2.0000,-0.0000,1.42242,-0.00637,-2.63206,1.06773,1.57080,0.11675,-0.12762,-0.48156,0.03500,,,,,,,,,,,,,,,,,,,,,,,,,,0,0,0,0,0
3.4679,1783965969.1258,1,1,2.0000,-0.0000,1.42242,-0.00637,-2.63206,1.06773,1.57080,0.11675,-0.12762,-0.48156,0.03500,,,,,,,,,,,,,,,,,,,,,,,,,,0,0,0,0,0
3.4687,1783965969.1266,1,1,2.0000,-0.0000,1.42242,-0.00637,-2.63206,1.06773,1.57080,0.11675,-0.12762,-0.48156,0.03500,,,,,,,,,,,,,,,,,,,,,,,,,,0,0,0,0,0
3.4690,1783965969.1269,1,1,2.0000,-0.0000,1.42242,-0.00637,-2.63206,1.06773,1.57080,0.11675,-0.12762,-0.48156,0.03500,,,,,,,,,,,,,,,,,,,,,,,,,,0,0,0,0,0
3.4924,1783965969.1503,1,1,2.0000,-0.0000,1.42242,-0.00637,-2.63206,1.06773,1.57080,0.11675,-0.12762,-0.48156,0.03500,,,,,,,,,,,,,,,,,,,,,,,,,,0,0,0,0,0
3.4942,1783965969.1520,1,1,2.0000,-0.0000,1.42242,-0.00637,-2.63206,1.06773,1.57080,0.11675,-0.12762,-0.48156,0.03500,,,,,,,,,,,,,,,,,,,,,,,,,,0,0,0,0,0
3.4955,1783965969.1534,1,1,2.0000,-0.0000,1.42242,-0.00637,-2.63206,1.06773,1.57080,0.11675,-0.12762,-0.48156,0.03500,,,,,,,,,,,,,,,,,,,,,,,,,,0,0,0,0,0
3.4958,1783965969.1537,1,1,2.0000,-0.0000,1.42242,-0.00637,-2.63206,1.06773,1.57080,0.11675,-0.12762,-0.48156,0.03500,,,,,,,,,,,,,,,,,,,,,,,,,,0,0,0,0,0
3.5232,1783965969.1811,1,1,2.0000,-0.0000,1.42242,-0.00637,-2.63206,1.06773,1.57080,0.11675,-0.12762,-0.48156,0.03500,,,,,,,,,,,,,,,,,,,,,,,,,,0,0,0,0,0
3.5243,1783965969.1821,1,1,2.0000,-0.0000,1.42242,-0.00637,-2.63206,1.06773,1.57080,0.11675,-0.12762,-0.48156,0.03500,,,,,,,,,,,,,,,,,,,,,,,,,,0,0,0,0,0
3.5246,1783965969.1825,1,1,2.0000,-0.0000,1.42242,-0.00637,-2.63206,1.06773,1.57080,0.11675,-0.12762,-0.48156,0.03500,,,,,,,,,,,,,,,,,,,,,,,,,,0,0,0,0,0
3.5271,1783965969.1850,1,1,2.0000,-0.0000,1.42242,-0.00637,-2.63206,1.06773,1.57080,0.11675,-0.12762,-0.48156,0.03500,,,,,,,,,,,,,,,,,,,,,,,,,,0,0,0,0,0
3.5275,1783965969.1853,1,1,2.0000,-0.0000,1.42242,-0.00637,-2.63206,1.06773,1.57080,0.11675,-0.12762,-0.48156,0.03500,,,,,,,,,,,,,,,,,,,,,,,,,,0,0,0,0,0
3.5306,1783965969.1884,1,1,2.0000,-0.0000,1.42242,-0.00637,-2.63206,1.06773,1.57080,0.11675,-0.12762,-0.48156,0.03500,,,,,,,,,,,,,,,,,,,,,,,,,,0,0,0,0,0
3.5309,1783965969.1888,1,1,2.0000,-0.0000,1.42242,-0.00637,-2.63206,1.06773,1.57080,0.11675,-0.12762,-0.48156,0.03500,,,,,,,,,,,,,,,,,,,,,,,,,,0,0,0,0,0
3.5386,1783965969.1965,1,1,2.0000,-0.0000,1.42242,-0.00637,-2.63206,1.06773,1.57080,0.11675,-0.12762,-0.48156,0.03500,,,,,,,,,,,,,,,,,,,,,,,,,,0,0,0,0,0
3.5425,1783965969.2004,1,1,2.0000,-0.0000,1.42242,-0.00637,-2.63206,1.06773,1.57080,0.11675,-0.12762,-0.48156,0.03500,,,,,,,,,,,,,,,,,,,,,,,,,,0,0,0,0,0
3.5427,1783965969.2006,1,1,2.0000,-0.0000,1.42242,-0.00637,-2.63206,1.06773,1.57080,0.11675,-0.12762,-0.48156,0.03500,,,,,,,,,,,,,,,,,,,,,,,,,,0,0,0,0,0
3.5448,1783965969.2027,1,1,2.0000,-0.0000,1.42242,-0.00637,-2.63206,1.06773,1.57080,0.11675,-0.12762,-0.48156,0.03500,,,,,,,,,,,,,,,,,,,,,,,,,,0,0,0,0,0
3.5453,1783965969.2031,1,1,2.0000,-0.0000,1.42242,-0.00637,-2.63206,1.06773,1.57080,0.11675,-0.12762,-0.48156,0.03500,,,,,,,,,,,,,,,,,,,,,,,,,,0,0,0,0,0
3.5465,1783965969.2044,1,1,2.0000,-0.0000,1.42242,-0.00637,-2.63206,1.06773,1.57080,0.11675,-0.12762,-0.48156,0.03500,,,,,,,,,,,,,,,,,,,,,,,,,,0,0,0,0,0
3.5523,1783965969.2101,1,1,2.0000,-0.0000,1.42242,-0.00637,-2.63206,1.06773,1.57080,0.11675,-0.12762,-0.48156,0.03500,,,,,,,,,,,,,,,,,,,,,,,,,,0,0,0,0,0
3.5544,1783965969.2122,1,1,2.0000,-0.0000,1.42242,-0.00637,-2.63206,1.06773,1.57080,0.11675,-0.12762,-0.48156,0.03500,,,,,,,,,,,,,,,,,,,,,,,,,,0,0,0,0,0
3.5548,1783965969.2126,1,1,2.0000,-0.0000,1.42242,-0.00637,-2.63206,1.06773,1.57080,0.11675,-0.12762,-0.48156,0.03500,,,,,,,,,,,,,,,,,,,,,,,,,,0,0,0,0,0
3.5552,1783965969.2131,1,1,2.0000,-0.0000,1.42242,-0.00637,-2.63206,1.06773,1.57080,0.11675,-0.12762,-0.48156,0.03500,,,,,,,,,,,,,,,,,,,,,,,,,,0,0,0,0,0
3.5557,1783965969.2135,1,1,2.0000,-0.0000,1.42242,-0.00637,-2.63206,1.06773,1.57080,0.11675,-0.12762,-0.48156,0.03500,,,,,,,,,,,,,,,,,,,,,,,,,,0,0,0,0,0
3.5623,1783965969.2201,1,1,2.0000,-0.0000,1.42242,-0.00637,-2.63206,1.06773,1.57080,0.11675,-0.12762,-0.48156,0.03500,,,,,,,,,,,,,,,,,,,,,,,,,,0,0,0,0,0
3.5847,1783965969.2426,1,1,2.0000,-0.0000,1.42242,-0.00640,-2.63210,1.06776,1.57080,0.11675,-0.12762,-0.48154,0.03498,,,,,,,,,,,,,,,,,,,,,,,,,,0,0,0,0,0
3.5952,1783965969.2531,1,1,2.0000,-0.0000,1.42242,-0.00641,-2.63211,1.06778,1.57080,0.11675,-0.12762,-0.48153,0.03497,,,,,,,,,,,,,,,,,,,,,,,,,,0,0,0,0,0
3.5958,1783965969.2536,1,1,2.0000,-0.0000,1.42242,-0.00641,-2.63211,1.06778,1.57080,0.11675,-0.12762,-0.48153,0.03497,,,,,,,,,,,,,,,,,,,,,,,,,,0,0,0,0,0
3.6005,1783965969.2584,1,1,2.0000,-0.0000,1.42242,-0.00642,-2.63212,1.06779,1.57080,0.11675,-0.12762,-0.48152,0.03496,,,,,,,,,,,,,,,,,,,,,,,,,,0,0,0,0,0
3.6273,1783965969.2851,1,1,2.0000,-0.0000,1.42242,-0.00652,-2.63221,1.06791,1.57080,0.11675,-0.12763,-0.48148,0.03490,,,,,,,,,,,,,,,,,,,,,,,,,,0,0,0,0,0
3.6329,1783965969.2908,1,1,2.0000,-0.0000,1.42242,-0.00654,-2.63221,1.06793,1.57080,0.11675,-0.12763,-0.48148,0.03489,,,,,,,,,,,,,,,,,,,,,,,,,,0,0,0,0,0
3.6387,1783965969.2965,1,1,2.0000,-0.0000,1.42242,-0.00659,-2.63223,1.06799,1.57080,0.11675,-0.12763,-0.48147,0.03487,,,,,,,,,,,,,,,,,,,,,,,,,,0,0,0,0,0
3.6426,1783965969.3004,1,1,2.0000,-0.0000,1.42242,-0.00663,-2.63225,1.06803,1.57080,0.11675,-0.12763,-0.48146,0.03485,,,,,,,,,,,,,,,,,,,,,,,,,,0,0,0,0,0
3.6585,1783965969.3163,1,1,2.0000,-0.0000,1.42242,-0.00671,-2.63227,1.06813,1.57080,0.11675,-0.12763,-0.48146,0.03482,,,,,,,,,,,,,,,,,,,,,,,,,,0,0,0,0,0
3.6589,1783965969.3167,1,1,2.0000,-0.0000,1.42242,-0.00671,-2.63227,1.06813,1.57080,0.11675,-0.12763,-0.48146,0.03482,,,,,,,,,,,,,,,,,,,,,,,,,,0,0,0,0,0
3.6612,1783965969.3191,1,1,2.0000,-0.0000,1.42242,-0.00671,-2.63227,1.06813,1.57080,0.11675,-0.12763,-0.48146,0.03482,,,,,,,,,,,,,,,,,,,,,,,,,,0,0,0,0,0
3.6615,1783965969.3194,1,1,2.0000,-0.0000,1.42242,-0.00671,-2.63227,1.06813,1.57080,0.11675,-0.12763,-0.48146,0.03482,,,,,,,,,,,,,,,,,,,,,,,,,,0,0,0,0,0
3.6722,1783965969.3301,1,1,2.0000,-0.0000,1.42242,-0.00677,-2.63229,1.06821,1.57080,0.11675,-0.12763,-0.48146,0.03480,,,,,,,,,,,,,,,,,,,,,,,,,,0,0,0,0,0
3.6887,1783965969.3466,1,1,2.0000,-0.0000,1.42242,-0.00684,-2.63230,1.06828,1.57080,0.11675,-0.12763,-0.48146,0.03478,,,,,,,,,,,,,,,,,,,,,,,,,,0,0,0,0,0
3.6943,1783965969.3522,1,1,2.0000,-0.0000,1.42242,-0.00690,-2.63231,1.06837,1.57080,0.11675,-0.12763,-0.48146,0.03476,,,,,,,,,,,,,,,,,,,,,,,,,,0,0,0,0,0
3.7022,1783965969.3601,1,1,2.0000,-0.0000,1.42242,-0.00700,-2.63233,1.06848,1.57080,0.11675,-0.12763,-0.48146,0.03473,,,,,,,,,,,,,,,,,,,,,,,,,,0,0,0,0,0
3.7142,1783965969.3721,1,1,2.0000,-0.0000,1.42242,-0.00706,-2.63234,1.06855,1.57080,0.11675,-0.12763,-0.48146,0.03471,,,,,,,,,,,,,,,,,,,,,,,,,,0,0,0,0,0
3.7284,1783965969.3862,1,1,2.0000,-0.0000,1.42242,-0.00712,-2.63235,1.06863,1.57080,0.11675,-0.12763,-0.48147,0.03469,,,,,,,,,,,,,,,,,,,,,,,,,,0,0,0,0,0
3.7308,1783965969.3887,1,1,2.0000,-0.0000,1.42242,-0.00716,-2.63236,1.06868,1.57080,0.11675,-0.12763,-0.48147,0.03468,,,,,,,,,,,,,,,,,,,,,,,,,,0,0,0,0,0
3.7465,1783965969.4044,1,1,2.0000,-0.0000,1.42241,-0.00725,-2.63237,1.06878,1.57080,0.11675,-0.12763,-0.48148,0.03465,,,,,,,,,,,,,,,,,,,,,,,,,,0,0,0,0,0
3.7468,1783965969.4046,1,1,2.0000,-0.0000,1.42241,-0.00725,-2.63237,1.06878,1.57080,0.11675,-0.12763,-0.48148,0.03465,,,,,,,,,,,,,,,,,,,,,,,,,,0,0,0,0,0
3.7507,1783965969.4085,1,1,2.0000,-0.0000,1.42241,-0.00726,-2.63236,1.06880,1.57080,0.11675,-0.12763,-0.48148,0.03465,,,,,,,,,,,,,,,,,,,,,,,,,,0,0,0,0,0
3.7510,1783965969.4089,1,1,2.0000,-0.0000,1.42241,-0.00726,-2.63236,1.06880,1.57080,0.11675,-0.12763,-0.48148,0.03465,,,,,,,,,,,,,,,,,,,,,,,,,,0,0,0,0,0
3.7626,1783965969.4205,1,1,2.0000,-0.0000,1.42241,-0.00732,-2.63236,1.06888,1.57080,0.11675,-0.12762,-0.48149,0.03464,,,,,,,,,,,,,,,,,,,,,,,,,,0,0,0,0,0
3.7730,1783965969.4308,1,1,2.0000,-0.0000,1.42241,-0.00738,-2.63235,1.06896,1.57080,0.11675,-0.12762,-0.48151,0.03463,,,,,,,,,,,,,,,,,,,,,,,,,,0,0,0,0,0
3.8023,1783965969.4602,1,1,2.0000,-0.0000,1.42241,-0.00756,-2.63229,1.06918,1.57080,0.11675,-0.12761,-0.48159,0.03462,,,,,,,,,,,,,,,,,,,,,,,,,,0,0,0,0,0
3.8026,1783965969.4605,1,1,2.0000,-0.0000,1.42241,-0.00756,-2.63229,1.06918,1.57080,0.11675,-0.12761,-0.48159,0.03462,,,,,,,,,,,,,,,,,,,,,,,,,,0,0,0,0,0
3.8047,1783965969.4625,1,1,2.0000,-0.0000,1.42241,-0.00756,-2.63229,1.06918,1.57080,0.11675,-0.12761,-0.48159,0.03462,,,,,,,,,,,,,,,,,,,,,,,,,,0,0,0,0,0
3.8051,1783965969.4630,1,1,2.0000,-0.0000,1.42241,-0.00756,-2.63229,1.06918,1.57080,0.11675,-0.12761,-0.48159,0.03462,,,,,,,,,,,,,,,,,,,,,,,,,,0,0,0,0,0
3.8144,1783965969.4723,1,1,2.0000,-0.0000,1.42241,-0.00756,-2.63229,1.06918,1.57080,0.11675,-0.12761,-0.48159,0.03462,,,,,,,,,,,,,,,,,,,,,,,,,,0,0,0,0,0
3.8148,1783965969.4727,1,1,2.0000,-0.0000,1.42241,-0.00756,-2.63229,1.06918,1.57080,0.11675,-0.12761,-0.48159,0.03462,,,,,,,,,,,,,,,,,,,,,,,,,,0,0,0,0,0
3.8384,1783965969.4963,1,1,2.0000,-0.0000,1.42241,-0.00756,-2.63229,1.06918,1.57080,0.11675,-0.12761,-0.48159,0.03462,,,,,,,,,,,,,,,,,,,,,,,,,,0,0,0,0,0
3.8422,1783965969.5000,1,1,2.0000,-0.0000,1.42241,-0.00756,-2.63229,1.06918,1.57080,0.11675,-0.12761,-0.48159,0.03462,,,,,,,,,,,,,,,,,,,,,,,,,,0,0,0,0,0
3.8478,1783965969.5056,1,1,2.0000,-0.0000,1.42241,-0.00756,-2.63229,1.06918,1.57080,0.11675,-0.12761,-0.48159,0.03462,,,,,,,,,,,,,,,,,,,,,,,,,,0,0,0,0,0
3.8544,1783965969.5123,1,1,2.0000,-0.0000,1.42241,-0.00756,-2.63229,1.06918,1.57080,0.11675,-0.12761,-0.48159,0.03462,,,,,,,,,,,,,,,,,,,,,,,,,,0,0,0,0,0
3.8652,1783965969.5230,1,1,2.0000,-0.0000,1.42241,-0.00756,-2.63229,1.06918,1.57080,0.11675,-0.12761,-0.48159,0.03462,,,,,,,,,,,,,,,,,,,,,,,,,,0,0,0,0,0
3.8717,1783965969.5296,1,1,2.0000,-0.0000,1.42241,-0.00756,-2.63229,1.06918,1.57080,0.11675,-0.12761,-0.48159,0.03462,,,,,,,,,,,,,,,,,,,,,,,,,,0,0,0,0,0
3.8824,1783965969.5403,1,1,2.0000,-0.0000,1.42241,-0.00756,-2.63229,1.06918,1.57080,0.11675,-0.12761,-0.48159,0.03462,,,,,,,,,,,,,,,,,,,,,,,,,,0,0,0,0,0
3.8828,1783965969.5407,1,1,2.0000,-0.0000,1.42241,-0.00756,-2.63229,1.06918,1.57080,0.11675,-0.12761,-0.48159,0.03462,,,,,,,,,,,,,,,,,,,,,,,,,,0,0,0,0,0
3.8920,1783965969.5499,1,1,2.0000,-0.0000,1.42241,-0.00756,-2.63229,1.06918,1.57080,0.11675,-0.12761,-0.48159,0.03462,,,,,,,,,,,,,,,,,,,,,,,,,,0,0,0,0,0
3.9006,1783965969.5585,1,1,2.0000,-0.0000,1.42241,-0.00756,-2.63229,1.06918,1.57080,0.11675,-0.12761,-0.48159,0.03462,,,,,,,,,,,,,,,,,,,,,,,,,,0,0,0,0,0
3.9009,1783965969.5588,1,1,2.0000,-0.0000,1.42241,-0.00756,-2.63229,1.06918,1.57080,0.11675,-0.12761,-0.48159,0.03462,,,,,,,,,,,,,,,,,,,,,,,,,,0,0,0,0,0
3.9157,1783965969.5736,1,1,2.0000,-0.0000,1.42241,-0.00756,-2.63229,1.06918,1.57080,0.11675,-0.12761,-0.48159,0.03462,,,,,,,,,,,,,,,,,,,,,,,,,,0,0,0,0,0
3.9160,1783965969.5739,1,1,2.0000,-0.0000,1.42241,-0.00756,-2.63229,1.06918,1.57080,0.11675,-0.12761,-0.48159,0.03462,,,,,,,,,,,,,,,,,,,,,,,,,,0,0,0,0,0
3.9227,1783965969.5805,1,1,2.0000,-0.0000,1.42241,-0.00756,-2.63229,1.06918,1.57080,0.11675,-0.12761,-0.48159,0.03462,,,,,,,,,,,,,,,,,,,,,,,,,,0,0,0,0,0
3.9385,1783965969.5963,1,1,2.0000,-0.0000,1.42241,-0.00756,-2.63229,1.06918,1.57080,0.11675,-0.12761,-0.48159,0.03462,,,,,,,,,,,,,,,,,,,,,,,,,,0,0,0,0,0
3.9418,1783965969.5996,1,1,2.0000,-0.0000,1.42241,-0.00756,-2.63229,1.06918,1.57080,0.11675,-0.12761,-0.48159,0.03462,,,,,,,,,,,,,,,,,,,,,,,,,,0,0,0,0,0
3.9425,1783965969.6003,1,1,2.0000,-0.0000,1.42241,-0.00756,-2.63229,1.06918,1.57080,0.11675,-0.12761,-0.48159,0.03462,,,,,,,,,,,,,,,,,,,,,,,,,,0,0,0,0,0
3.9554,1783965969.6132,1,1,2.0000,-0.0000,1.42241,-0.00756,-2.63229,1.06918,1.57080,0.11675,-0.12761,-0.48159,0.03462,,,,,,,,,,,,,,,,,,,,,,,,,,0,0,0,0,0
3.9556,1783965969.6135,1,1,2.0000,-0.0000,1.42241,-0.00756,-2.63229,1.06918,1.57080,0.11675,-0.12761,-0.48159,0.03462,,,,,,,,,,,,,,,,,,,,,,,,,,0,0,0,0,0
3.9718,1783965969.6297,1,1,2.0000,-0.0000,1.42241,-0.00756,-2.63229,1.06918,1.57080,0.11675,-0.12761,-0.48159,0.03462,,,,,,,,,,,,,,,,,,,,,,,,,,0,0,0,0,0
3.9721,1783965969.6300,1,1,2.0000,-0.0000,1.42241,-0.00756,-2.63229,1.06918,1.57080,0.11675,-0.12761,-0.48159,0.03462,,,,,,,,,,,,,,,,,,,,,,,,,,0,0,0,0,0
3.9842,1783965969.6421,1,1,2.0000,-0.0000,1.42241,-0.00756,-2.63229,1.06919,1.57080,0.11675,-0.12761,-0.48159,0.03462,,,,,,,,,,,,,,,,,,,,,,,,,,0,0,0,0,0
3.9945,1783965969.6523,1,1,2.0000,-0.0000,1.42241,-0.00758,-2.63232,1.06920,1.57080,0.11675,-0.12761,-0.48157,0.03460,,,,,,,,,,,,,,,,,,,,,,,,,,0,0,0,0,0
3.9948,1783965969.6526,1,1,2.0000,-0.0000,1.42241,-0.00758,-2.63232,1.06920,1.57080,0.11675,-0.12761,-0.48157,0.03460,,,,,,,,,,,,,,,,,,,,,,,,,,0,0,0,0,0
4.0051,1783965969.6630,1,1,2.0000,-0.0000,1.42241,-0.00759,-2.63235,1.06923,1.57080,0.11675,-0.12762,-0.48155,0.03458,,,,,,,,,,,,,,,,,,,,,,,,,,0,0,0,0,0
4.0123,1783965969.6702,1,1,2.0000,-0.0000,1.42241,-0.00762,-2.63239,1.06926,1.57080,0.11675,-0.12762,-0.48152,0.03455,,,,,,,,,,,,,,,,,,,,,,,,,,0,0,0,0,0
4.0247,1783965969.6825,1,1,2.0000,-0.0000,1.42241,-0.00763,-2.63240,1.06927,1.57080,0.11675,-0.12762,-0.48152,0.03455,,,,,,,,,,,,,,,,,,,,,,,,,,0,0,0,0,0
4.0342,1783965969.6921,1,1,2.0000,-0.0000,1.42241,-0.00768,-2.63244,1.06932,1.57080,0.11675,-0.12762,-0.48150,0.03452,,,,,,,,,,,,,,,,,,,,,,,,,,0,0,0,0,0
4.0422,1783965969.7001,1,1,2.0000,-0.0000,1.42241,-0.00772,-2.63247,1.06937,1.57080,0.11675,-0.12763,-0.48148,0.03449,,,,,,,,,,,,,,,,,,,,,,,,,,0,0,0,0,0
4.0425,1783965969.7004,1,1,2.0000,-0.0000,1.42241,-0.00772,-2.63247,1.06937,1.57080,0.11675,-0.12763,-0.48148,0.03449,,,,,,,,,,,,,,,,,,,,,,,,,,0,0,0,0,0
4.0504,1783965969.7083,1,1,2.0000,-0.0000,1.42241,-0.00772,-2.63247,1.06938,1.57080,0.11675,-0.12763,-0.48148,0.03449,,,,,,,,,,,,,,,,,,,,,,,,,,0,0,0,0,0
4.0635,1783965969.7213,1,1,2.0000,-0.0000,1.42241,-0.00778,-2.63249,1.06944,1.57080,0.11675,-0.12763,-0.48147,0.03447,,,,,,,,,,,,,,,,,,,,,,,,,,0,0,0,0,0
4.0744,1783965969.7322,1,1,2.0000,-0.0000,1.42241,-0.00782,-2.63250,1.06949,1.57080,0.11675,-0.12763,-0.48147,0.03446,,,,,,,,,,,,,,,,,,,,,,,,,,0,0,0,0,0
4.1139,1783965969.7718,1,1,2.0000,-0.0000,1.42241,-0.00809,-2.63256,1.06981,1.57080,0.11675,-0.12763,-0.48147,0.03436,,,,,,,,,,,,,,,,,,,,,,,,,,0,0,0,0,0
4.1239,1783965969.7817,1,1,2.0000,-0.0000,1.42241,-0.00819,-2.63258,1.06994,1.57080,0.11675,-0.12763,-0.48147,0.03433,,,,,,,,,,,,,,,,,,,,,,,,,,0,0,0,0,0
4.1243,1783965969.7822,1,1,2.0000,-0.0000,1.42241,-0.00819,-2.63258,1.06994,1.57080,0.11675,-0.12763,-0.48147,0.03433,,,,,,,,,,,,,,,,,,,,,,,,,,0,0,0,0,0
4.1275,1783965969.7853,1,1,2.0000,-0.0000,1.42241,-0.00819,-2.63258,1.06994,1.57080,0.11675,-0.12763,-0.48147,0.03433,,,,,,,,,,,,,,,,,,,,,,,,,,0,0,0,0,0
4.1279,1783965969.7858,1,1,2.0000,-0.0000,1.42241,-0.00819,-2.63258,1.06994,1.57080,0.11675,-0.12763,-0.48147,0.03433,,,,,,,,,,,,,,,,,,,,,,,,,,0,0,0,0,0
4.1383,1783965969.7961,1,1,2.0000,-0.0000,1.42241,-0.00824,-2.63259,1.07000,1.57080,0.11675,-0.12763,-0.48147,0.03431,,,,,,,,,,,,,,,,,,,,,,,,,,0,0,0,0,0
4.1428,1783965969.8007,1,1,2.0000,-0.0000,1.42241,-0.00828,-2.63260,1.07004,1.57080,0.11675,-0.12763,-0.48147,0.03430,,,,,,,,,,,,,,,,,,,,,,,,,,0,0,0,0,0
4.1433,1783965969.8012,1,1,2.0000,-0.0000,1.42241,-0.00828,-2.63260,1.07004,1.57080,0.11675,-0.12763,-0.48147,0.03430,,,,,,,,,,,,,,,,,,,,,,,,,,0,0,0,0,0
4.1439,1783965969.8018,1,1,2.0000,-0.0000,1.42241,-0.00828,-2.63260,1.07004,1.57080,0.11675,-0.12763,-0.48147,0.03430,,,,,,,,,,,,,,,,,,,,,,,,,,0,0,0,0,0
4.1444,1783965969.8022,1,1,2.0000,-0.0000,1.42241,-0.00828,-2.63260,1.07004,1.57080,0.11675,-0.12763,-0.48147,0.03430,,,,,,,,,,,,,,,,,,,,,,,,,,0,0,0,0,0
4.1572,1783965969.8151,1,1,2.0000,-0.0000,1.42241,-0.00841,-2.63262,1.07021,1.57080,0.11675,-0.12762,-0.48148,0.03426,,,,,,,,,,,,,,,,,,,,,,,,,,0,0,0,0,0
4.1658,1783965969.8236,1,1,2.0000,-0.0000,1.42241,-0.00851,-2.63263,1.07033,1.57080,0.11675,-0.12762,-0.48149,0.03423,,,,,,,,,,,,,,,,,,,,,,,,,,0,0,0,0,0
4.1665,1783965969.8244,1,1,2.0000,-0.0000,1.42241,-0.00856,-2.63264,1.07039,1.57080,0.11675,-0.12762,-0.48149,0.03422,,,,,,,,,,,,,,,,,,,,,,,,,,0,0,0,0,0
4.1770,1783965969.8349,1,1,2.0000,-0.0000,1.42241,-0.00865,-2.63265,1.07050,1.57080,0.11675,-0.12762,-0.48150,0.03419,,,,,,,,,,,,,,,,,,,,,,,,,,0,0,0,0,0
4.1839,1783965969.8418,1,1,2.0000,-0.0000,1.42241,-0.00871,-2.63265,1.07058,1.57080,0.11675,-0.12762,-0.48151,0.03418,,,,,,,,,,,,,,,,,,,,,,,,,,0,0,0,0,0
4.2127,1783965969.8705,1,1,2.0000,-0.0000,1.42241,-0.00873,-2.63265,1.07060,1.57080,0.11675,-0.12762,-0.48151,0.03417,,,,,,,,,,,,,,,,,,,,,,,,,,0,0,0,0,0
4.2144,1783965969.8722,1,1,2.0000,-0.0000,1.42241,-0.00873,-2.63265,1.07060,1.57080,0.11675,-0.12762,-0.48151,0.03417,,,,,,,,,,,,,,,,,,,,,,,,,,0,0,0,0,0
4.2146,1783965969.8725,1,1,2.0000,-0.0000,1.42241,-0.00873,-2.63265,1.07060,1.57080,0.11675,-0.12762,-0.48151,0.03417,,,,,,,,,,,,,,,,,,,,,,,,,,0,0,0,0,0
4.2164,1783965969.8742,1,1,2.0000,-0.0000,1.42241,-0.00873,-2.63265,1.07060,1.57080,0.11675,-0.12762,-0.48151,0.03417,,,,,,,,,,,,,,,,,,,,,,,,,,0,0,0,0,0
4.2225,1783965969.8803,1,1,2.0000,-0.0000,1.42241,-0.00873,-2.63265,1.07060,1.57080,0.11675,-0.12762,-0.48151,0.03417,,,,,,,,,,,,,,,,,,,,,,,,,,0,0,0,0,0
4.2372,1783965969.8951,1,1,2.0000,-0.0000,1.42241,-0.00873,-2.63265,1.07060,1.57080,0.11675,-0.12762,-0.48151,0.03417,,,,,,,,,,,,,,,,,,,,,,,,,,0,0,0,0,0
4.2407,1783965969.8985,1,1,2.0000,-0.0000,1.42241,-0.00873,-2.63265,1.07060,1.57080,0.11675,-0.12762,-0.48151,0.03417,,,,,,,,,,,,,,,,,,,,,,,,,,0,0,0,0,0
4.2532,1783965969.9111,1,1,2.0000,-0.0000,1.42241,-0.00873,-2.63265,1.07060,1.57080,0.11675,-0.12762,-0.48151,0.03417,,,,,,,,,,,,,,,,,,,,,,,,,,0,0,0,0,0
4.2736,1783965969.9315,1,1,2.0000,-0.0000,1.42241,-0.00873,-2.63265,1.07060,1.57080,0.11675,-0.12762,-0.48151,0.03417,,,,,,,,,,,,,,,,,,,,,,,,,,0,0,0,0,0
4.2747,1783965969.9325,1,1,2.0000,-0.0000,1.42241,-0.00873,-2.63265,1.07060,1.57080,0.11675,-0.12762,-0.48151,0.03417,,,,,,,,,,,,,,,,,,,,,,,,,,0,0,0,0,0
4.2750,1783965969.9328,1,1,2.0000,-0.0000,1.42241,-0.00873,-2.63265,1.07060,1.57080,0.11675,-0.12762,-0.48151,0.03417,,,,,,,,,,,,,,,,,,,,,,,,,,0,0,0,0,0
4.2824,1783965969.9402,1,1,2.0000,-0.0000,1.42241,-0.00873,-2.63265,1.07060,1.57080,0.11675,-0.12762,-0.48151,0.03417,,,,,,,,,,,,,,,,,,,,,,,,,,0,0,0,0,0
4.2986,1783965969.9564,1,1,2.0000,-0.0000,1.42241,-0.00873,-2.63265,1.07060,1.57080,0.11675,-0.12762,-0.48151,0.03417,,,,,,,,,,,,,,,,,,,,,,,,,,0,0,0,0,0
4.3018,1783965969.9596,1,1,2.0000,-0.0000,1.42241,-0.00873,-2.63265,1.07060,1.57080,0.11675,-0.12762,-0.48151,0.03417,,,,,,,,,,,,,,,,,,,,,,,,,,0,0,0,0,0
4.3025,1783965969.9603,1,1,2.0000,-0.0000,1.42241,-0.00873,-2.63265,1.07060,1.57080,0.11675,-0.12762,-0.48151,0.03417,,,,,,,,,,,,,,,,,,,,,,,,,,0,0,0,0,0
4.3127,1783965969.9705,1,1,2.0000,-0.0000,1.42241,-0.00873,-2.63265,1.07060,1.57080,0.11675,-0.12762,-0.48151,0.03417,,,,,,,,,,,,,,,,,,,,,,,,,,0,0,0,0,0
4.3131,1783965969.9709,1,1,2.0000,-0.0000,1.42241,-0.00873,-2.63265,1.07060,1.57080,0.11675,-0.12762,-0.48151,0.03417,,,,,,,,,,,,,,,,,,,,,,,,,,0,0,0,0,0
4.3211,1783965969.9789,1,1,2.0000,-0.0000,1.42241,-0.00873,-2.63265,1.07060,1.57080,0.11675,-0.12762,-0.48151,0.03417,,,,,,,,,,,,,,,,,,,,,,,,,,0,0,0,0,0
4.3465,1783965970.0044,1,1,2.0000,-0.0000,1.42241,-0.00873,-2.63265,1.07060,1.57080,0.11675,-0.12762,-0.48151,0.03417,,,,,,,,,,,,,,,,,,,,,,,,,,0,0,0,0,0
4.3546,1783965970.0125,1,1,2.0000,-0.0000,1.42241,-0.00873,-2.63265,1.07060,1.57080,0.11675,-0.12762,-0.48151,0.03417,,,,,,,,,,,,,,,,,,,,,,,,,,0,0,0,0,0
4.3638,1783965970.0217,1,1,2.0000,-0.0000,1.42241,-0.00873,-2.63265,1.07060,1.57080,0.11675,-0.12762,-0.48151,0.03417,,,,,,,,,,,,,,,,,,,,,,,,,,0,0,0,0,0
4.3643,1783965970.0221,1,1,2.0000,-0.0000,1.42241,-0.00873,-2.63265,1.07060,1.57080,0.11675,-0.12762,-0.48151,0.03417,,,,,,,,,,,,,,,,,,,,,,,,,,0,0,0,0,0
4.3728,1783965970.0307,1,1,2.0000,-0.0000,1.42241,-0.00873,-2.63265,1.07060,1.57080,0.11675,-0.12762,-0.48151,0.03417,,,,,,,,,,,,,,,,,,,,,,,,,,0,0,0,0,0
4.3778,1783965970.0357,1,1,2.0000,-0.0000,1.42241,-0.00873,-2.63265,1.07060,1.57080,0.11675,-0.12762,-0.48151,0.03417,,,,,,,,,,,,,,,,,,,,,,,,,,0,0,0,0,0
4.3784,1783965970.0363,1,1,2.0000,-0.0000,1.42241,-0.00873,-2.63265,1.07060,1.57080,0.11675,-0.12762,-0.48151,0.03417,,,,,,,,,,,,,,,,,,,,,,,,,,0,0,0,0,0
4.3847,1783965970.0426,1,1,2.0000,-0.0000,1.42241,-0.00873,-2.63265,1.07060,1.57080,0.11675,-0.12762,-0.48151,0.03417,,,,,,,,,,,,,,,,,,,,,,,,,,0,0,0,0,0
4.3851,1783965970.0429,1,1,2.0000,-0.0000,1.42241,-0.00873,-2.63265,1.07060,1.57080,0.11675,-0.12762,-0.48151,0.03417,,,,,,,,,,,,,,,,,,,,,,,,,,0,0,0,0,0
4.4150,1783965970.0729,1,1,2.0000,-0.0000,1.42241,-0.00874,-2.63266,1.07062,1.57080,0.11675,-0.12762,-0.48150,0.03416,,,,,,,,,,,,,,,,,,,,,,,,,,0,0,0,0,0
4.4170,1783965970.0748,1,1,2.0000,-0.0000,1.42241,-0.00874,-2.63266,1.07062,1.57080,0.11675,-0.12762,-0.48150,0.03416,,,,,,,,,,,,,,,,,,,,,,,,,,0,0,0,0,0
4.4174,1783965970.0753,1,1,2.0000,-0.0000,1.42241,-0.00874,-2.63266,1.07062,1.57080,0.11675,-0.12762,-0.48150,0.03416,,,,,,,,,,,,,,,,,,,,,,,,,,0,0,0,0,0
4.4272,1783965970.0851,1,1,2.0000,-0.0000,1.42241,-0.00877,-2.63268,1.07066,1.57080,0.11675,-0.12762,-0.48149,0.03415,,,,,,,,,,,,,,,,,,,,,,,,,,0,0,0,0,0
4.4282,1783965970.0861,1,1,2.0000,-0.0000,1.42241,-0.00877,-2.63268,1.07066,1.57080,0.11675,-0.12762,-0.48149,0.03415,,,,,,,,,,,,,,,,,,,,,,,,,,0,0,0,0,0
4.4286,1783965970.0864,1,1,2.0000,-0.0000,1.42241,-0.00877,-2.63268,1.07066,1.57080,0.11675,-0.12762,-0.48149,0.03415,,,,,,,,,,,,,,,,,,,,,,,,,,0,0,0,0,0
4.4318,1783965970.0896,1,1,2.0000,-0.0000,1.42241,-0.00878,-2.63269,1.07068,1.57080,0.11675,-0.12762,-0.48149,0.03414,,,,,,,,,,,,,,,,,,,,,,,,,,0,0,0,0,0
4.4322,1783965970.0900,1,1,2.0000,-0.0000,1.42241,-0.00878,-2.63269,1.07068,1.57080,0.11675,-0.12762,-0.48149,0.03414,,,,,,,,,,,,,,,,,,,,,,,,,,0,0,0,0,0
4.4440,1783965970.1019,1,1,2.0000,-0.0000,1.42241,-0.00879,-2.63270,1.07069,1.57080,0.11675,-0.12762,-0.48148,0.03414,,,,,,,,,,,,,,,,,,,,,,,,,,0,0,0,0,0
4.4520,1783965970.1098,1,1,2.0000,-0.0000,1.42241,-0.00881,-2.63272,1.07071,1.57081,0.11675,-0.12762,-0.48147,0.03412,,,,,,,,,,,,,,,,,,,,,,,,,,0,0,0,0,0
4.4776,1783965970.1354,1,1,2.0000,-0.0000,1.42241,-0.00888,-2.63275,1.07079,1.57081,0.11675,-0.12763,-0.48146,0.03409,,,,,,,,,,,,,,,,,,,,,,,,,,0,0,0,0,0
4.4787,1783965970.1366,1,1,2.0000,-0.0000,1.42241,-0.00891,-2.63276,1.07082,1.57081,0.11675,-0.12763,-0.48146,0.03408,,,,,,,,,,,,,,,,,,,,,,,,,,0,0,0,0,0
4.4790,1783965970.1369,1,1,2.0000,-0.0000,1.42241,-0.00891,-2.63276,1.07082,1.57081,0.11675,-0.12763,-0.48146,0.03408,,,,,,,,,,,,,,,,,,,,,,,,,,0,0,0,0,0
4.4818,1783965970.1397,1,1,2.0000,-0.0000,1.42241,-0.00891,-2.63276,1.07082,1.57081,0.11675,-0.12763,-0.48146,0.03408,,,,,,,,,,,,,,,,,,,,,,,,,,0,0,0,0,0
4.4824,1783965970.1403,1,1,2.0000,-0.0000,1.42241,-0.00894,-2.63277,1.07086,1.57081,0.11675,-0.12763,-0.48145,0.03407,,,,,,,,,,,,,,,,,,,,,,,,,,0,0,0,0,0
4.4946,1783965970.1525,1,1,2.0000,-0.0000,1.42241,-0.00898,-2.63278,1.07090,1.57081,0.11675,-0.12763,-0.48145,0.03405,,,,,,,,,,,,,,,,,,,,,,,,,,0,0,0,0,0
4.5032,1783965970.1610,1,1,2.0000,-0.0000,1.42241,-0.00901,-2.63279,1.07094,1.57081,0.11675,-0.12763,-0.48145,0.03404,,,,,,,,,,,,,,,,,,,,,,,,,,0,0,0,0,0
4.5166,1783965970.1745,1,1,2.0000,-0.0000,1.42241,-0.00912,-2.63282,1.07108,1.57081,0.11675,-0.12763,-0.48145,0.03400,,,,,,,,,,,,,,,,,,,,,,,,,,0,0,0,0,0
4.5215,1783965970.1793,1,1,2.0000,-0.0000,1.42241,-0.00917,-2.63283,1.07113,1.57081,0.11675,-0.12763,-0.48145,0.03399,,,,,,,,,,,,,,,,,,,,,,,,,,0,0,0,0,0
4.5307,1783965970.1885,1,1,2.0000,-0.0000,1.42241,-0.00920,-2.63283,1.07116,1.57081,0.11675,-0.12763,-0.48145,0.03398,,,,,,,,,,,,,,,,,,,,,,,,,,0,0,0,0,0
4.5309,1783965970.1887,1,1,2.0000,-0.0000,1.42241,-0.00920,-2.63283,1.07116,1.57081,0.11675,-0.12763,-0.48145,0.03398,,,,,,,,,,,,,,,,,,,,,,,,,,0,0,0,0,0
4.5458,1783965970.2036,1,1,2.0000,-0.0000,1.42241,-0.00931,-2.63285,1.07129,1.57081,0.11675,-0.12763,-0.48145,0.03394,,,,,,,,,,,,,,,,,,,,,,,,,,0,0,0,0,0
4.5529,1783965970.2108,1,1,2.0000,-0.0000,1.42241,-0.00941,-2.63287,1.07142,1.57081,0.11675,-0.12763,-0.48145,0.03391,,,,,,,,,,,,,,,,,,,,,,,,,,0,0,0,0,0
4.5670,1783965970.2249,1,1,2.0000,-0.0000,1.42241,-0.00945,-2.63287,1.07147,1.57081,0.11675,-0.12763,-0.48146,0.03389,,,,,,,,,,,,,,,,,,,,,,,,,,0,0,0,0,0
4.5756,1783965970.2334,1,1,2.0000,-0.0000,1.42241,-0.00952,-2.63288,1.07155,1.57081,0.11675,-0.12762,-0.48146,0.03387,,,,,,,,,,,,,,,,,,,,,,,,,,0,0,0,0,0
4.5987,1783965970.2565,1,1,2.0000,-0.0000,1.42241,-0.00979,-2.63291,1.07188,1.57081,0.11675,-0.12762,-0.48148,0.03380,,,,,,,,,,,,,,,,,,,,,,,,,,0,0,0,0,0
4.6086,1783965970.2665,1,1,2.0000,-0.0000,1.42241,-0.00986,-2.63291,1.07197,1.57081,0.11675,-0.12762,-0.48149,0.03378,,,,,,,,,,,,,,,,,,,,,,,,,,0,0,0,0,0
4.6088,1783965970.2667,1,1,2.0000,-0.0000,1.42241,-0.00986,-2.63291,1.07197,1.57081,0.11675,-0.12762,-0.48149,0.03378,,,,,,,,,,,,,,,,,,,,,,,,,,0,0,0,0,0
4.6531,1783965970.3109,1,1,2.0000,-0.0000,1.42241,-0.00992,-2.63291,1.07204,1.57081,0.11675,-0.12762,-0.48150,0.03377,,,,,,,,,,,,,,,,,,,,,,,,,,0,0,0,0,0
4.6628,1783965970.3207,1,1,2.0000,-0.0000,1.42241,-0.00992,-2.63291,1.07204,1.57081,0.11675,-0.12762,-0.48150,0.03377,,,,,,,,,,,,,,,,,,,,,,,,,,0,0,0,0,0
4.7346,1783965970.3924,1,1,2.0000,-0.0000,1.42241,-0.00992,-2.63291,1.07204,1.57081,0.11675,-0.12762,-0.48150,0.03377,,,,,,,,,,,,,,,,,,,,,,,,,,0,0,0,0,0
4.7872,1783965970.4450,1,1,2.0000,-0.0000,1.42241,-0.00992,-2.63291,1.07204,1.57081,0.11675,-0.12762,-0.48150,0.03377,,,,,,,,,,,,,,,,,,,,,,,,,,0,0,0,0,0
4.7875,1783965970.4453,1,1,2.0000,-0.0000,1.42241,-0.00992,-2.63291,1.07204,1.57081,0.11675,-0.12762,-0.48150,0.03377,,,,,,,,,,,,,,,,,,,,,,,,,,0,0,0,0,0
4.8261,1783965970.4839,1,1,2.0000,-0.0000,1.42241,-0.00992,-2.63291,1.07204,1.57081,0.11675,-0.12762,-0.48150,0.03377,,,,,,,,,,,,,,,,,,,,,,,,,,0,0,0,0,0
4.8263,1783965970.4842,1,1,2.0000,-0.0000,1.42241,-0.00992,-2.63291,1.07204,1.57081,0.11675,-0.12762,-0.48150,0.03377,,,,,,,,,,,,,,,,,,,,,,,,,,0,0,0,0,0
4.8314,1783965970.4892,1,1,2.0000,-0.0000,1.42241,-0.00992,-2.63291,1.07205,1.57081,0.11675,-0.12762,-0.48150,0.03377,,,,,,,,,,,,,,,,,,,,,,,,,,0,0,0,0,0
4.8317,1783965970.4896,1,1,2.0000,-0.0000,1.42241,-0.00992,-2.63291,1.07205,1.57081,0.11675,-0.12762,-0.48150,0.03377,,,,,,,,,,,,,,,,,,,,,,,,,,0,0,0,0,0
4.8527,1783965970.5106,1,1,2.0000,-0.0000,1.42240,-0.00995,-2.63293,1.07209,1.57081,0.11675,-0.12762,-0.48150,0.03375,,,,,,,,,,,,,,,,,,,,,,,,,,0,0,0,0,0
4.8530,1783965970.5108,1,1,2.0000,-0.0000,1.42240,-0.00995,-2.63293,1.07209,1.57081,0.11675,-0.12762,-0.48150,0.03375,,,,,,,,,,,,,,,,,,,,,,,,,,0,0,0,0,0
4.9042,1783965970.5621,1,1,2.0000,-0.0000,1.42240,-0.01011,-2.63303,1.07228,1.57081,0.11675,-0.12763,-0.48145,0.03367,,,,,,,,,,,,,,,,,,,,,,,,,,0,0,0,0,0
4.9046,1783965970.5625,1,1,2.0000,-0.0000,1.42240,-0.01011,-2.63303,1.07228,1.57081,0.11675,-0.12763,-0.48145,0.03367,,,,,,,,,,,,,,,,,,,,,,,,,,0,0,0,0,0
4.9292,1783965970.5870,1,1,2.0000,-0.0000,1.42240,-0.01023,-2.63306,1.07242,1.57081,0.11675,-0.12763,-0.48145,0.03363,,,,,,,,,,,,,,,,,,,,,,,,,,0,0,0,0,0
4.9295,1783965970.5874,1,1,2.0000,-0.0000,1.42240,-0.01023,-2.63306,1.07242,1.57081,0.11675,-0.12763,-0.48145,0.03363,,,,,,,,,,,,,,,,,,,,,,,,,,0,0,0,0,0
4.9415,1783965970.5994,1,1,2.0000,-0.0000,1.42240,-0.01033,-2.63308,1.07254,1.57081,0.11675,-0.12763,-0.48145,0.03359,,,,,,,,,,,,,,,,,,,,,,,,,,0,0,0,0,0
4.9430,1783965970.6009,1,1,2.0000,-0.0000,1.42240,-0.01033,-2.63308,1.07254,1.57081,0.11675,-0.12763,-0.48145,0.03359,,,,,,,,,,,,,,,,,,,,,,,,,,0,0,0,0,0
4.9462,1783965970.6040,1,1,2.0000,-0.0000,1.42240,-0.01033,-2.63308,1.07255,1.57081,0.11675,-0.12763,-0.48145,0.03359,,,,,,,,,,,,,,,,,,,,,,,,,,0,0,0,0,0
4.9463,1783965970.6042,1,1,2.0000,-0.0000,1.42240,-0.01033,-2.63308,1.07255,1.57081,0.11675,-0.12763,-0.48145,0.03359,,,,,,,,,,,,,,,,,,,,,,,,,,0,0,0,0,0
4.9584,1783965970.6162,1,1,2.0000,-0.0000,1.42240,-0.01041,-2.63309,1.07264,1.57081,0.11675,-0.12762,-0.48145,0.03357,,,,,,,,,,,,,,,,,,,,,,,,,,0,0,0,0,0
4.9649,1783965970.6227,1,1,2.0000,-0.0000,1.42240,-0.01050,-2.63311,1.07275,1.57081,0.11675,-0.12762,-0.48145,0.03354,,,,,,,,,,,,,,,,,,,,,,,,,,0,0,0,0,0
4.9689,1783965970.6267,1,1,2.0000,-0.0000,1.42240,-0.01055,-2.63312,1.07281,1.57081,0.11675,-0.12762,-0.48145,0.03352,,,,,,,,,,,,,,,,,,,,,,,,,,0,0,0,0,0
4.9693,1783965970.6271,1,1,2.0000,-0.0000,1.42240,-0.01055,-2.63312,1.07281,1.57081,0.11675,-0.12762,-0.48145,0.03352,,,,,,,,,,,,,,,,,,,,,,,,,,0,0,0,0,0
4.9720,1783965970.6299,1,1,2.0000,-0.0000,1.42240,-0.01055,-2.63312,1.07281,1.57081,0.11675,-0.12762,-0.48145,0.03352,,,,,,,,,,,,,,,,,,,,,,,,,,0,0,0,0,0
4.9943,1783965970.6521,1,1,2.0000,-0.0000,1.42240,-0.01067,-2.63313,1.07294,1.57081,0.11675,-0.12762,-0.48146,0.03349,,,,,,,,,,,,,,,,,,,,,,,,,,0,0,0,0,0
4.9947,1783965970.6525,1,1,2.0000,-0.0000,1.42240,-0.01067,-2.63313,1.07294,1.57081,0.11675,-0.12762,-0.48146,0.03349,,,,,,,,,,,,,,,,,,,,,,,,,,0,0,0,0,0
4.9957,1783965970.6536,1,1,2.0000,-0.0000,1.42240,-0.01071,-2.63314,1.07299,1.57081,0.11675,-0.12762,-0.48146,0.03347,,,,,,,,,,,,,,,,,,,,,,,,,,0,0,0,0,0
5.0021,1783965970.6600,1,1,2.0000,-0.0000,1.42240,-0.01076,-2.63315,1.07305,1.57081,0.11675,-0.12762,-0.48146,0.03346,,,,,,,,,,,,,,,,,,,,,,,,,,0,0,0,0,0
5.0045,1783965970.6623,1,1,2.0000,-0.0000,1.42240,-0.01080,-2.63315,1.07310,1.57081,0.11675,-0.12762,-0.48146,0.03345,,,,,,,,,,,,,,,,,,,,,,,,,,0,0,0,0,0
5.0049,1783965970.6628,1,1,2.0000,-0.0000,1.42240,-0.01080,-2.63315,1.07310,1.57081,0.11675,-0.12762,-0.48146,0.03345,,,,,,,,,,,,,,,,,,,,,,,,,,0,0,0,0,0
5.0057,1783965970.6635,1,1,2.0000,-0.0000,1.42240,-0.01080,-2.63315,1.07310,1.57081,0.11675,-0.12762,-0.48146,0.03345,,,,,,,,,,,,,,,,,,,,,,,,,,0,0,0,0,0
5.0061,1783965970.6639,1,1,2.0000,-0.0000,1.42240,-0.01080,-2.63315,1.07310,1.57081,0.11675,-0.12762,-0.48146,0.03345,,,,,,,,,,,,,,,,,,,,,,,,,,0,0,0,0,0
5.0079,1783965970.6658,1,1,2.0000,-0.0000,1.42240,-0.01085,-2.63316,1.07316,1.57081,0.11675,-0.12762,-0.48147,0.03343,,,,,,,,,,,,,,,,,,,,,,,,,,0,0,0,0,0
5.0306,1783965970.6885,1,1,2.0000,-0.0000,1.42240,-0.01106,-2.63318,1.07342,1.57081,0.11675,-0.12762,-0.48148,0.03337,,,,,,,,,,,,,,,,,,,,,,,,,,0,0,0,0,0
5.0371,1783965970.6949,1,1,2.0000,-0.0000,1.42240,-0.01109,-2.63319,1.07346,1.57081,0.11675,-0.12762,-0.48149,0.03336,,,,,,,,,,,,,,,,,,,,,,,,,,0,0,0,0,0
5.0375,1783965970.6954,1,1,2.0000,-0.0000,1.42240,-0.01109,-2.63319,1.07346,1.57081,0.11675,-0.12762,-0.48149,0.03336,,,,,,,,,,,,,,,,,,,,,,,,,,0,0,0,0,0
5.0536,1783965970.7115,1,1,2.0000,-0.0000,1.42240,-0.01109,-2.63319,1.07346,1.57081,0.11675,-0.12762,-0.48149,0.03336,,,,,,,,,,,,,,,,,,,,,,,,,,0,0,0,0,0
5.0623,1783965970.7201,1,1,2.0000,-0.0000,1.42240,-0.01109,-2.63319,1.07346,1.57081,0.11675,-0.12762,-0.48149,0.03336,,,,,,,,,,,,,,,,,,,,,,,,,,0,0,0,0,0
5.0626,1783965970.7205,1,1,2.0000,-0.0000,1.42240,-0.01109,-2.63319,1.07346,1.57081,0.11675,-0.12762,-0.48149,0.03336,,,,,,,,,,,,,,,,,,,,,,,,,,0,0,0,0,0
5.0649,1783965970.7227,1,1,2.0000,-0.0000,1.42240,-0.01109,-2.63319,1.07346,1.57081,0.11675,-0.12762,-0.48149,0.03336,,,,,,,,,,,,,,,,,,,,,,,,,,0,0,0,0,0
5.0652,1783965970.7231,1,1,2.0000,-0.0000,1.42240,-0.01109,-2.63319,1.07346,1.57081,0.11675,-0.12762,-0.48149,0.03336,,,,,,,,,,,,,,,,,,,,,,,,,,0,0,0,0,0
5.0655,1783965970.7234,1,1,2.0000,-0.0000,1.42240,-0.01109,-2.63319,1.07346,1.57081,0.11675,-0.12762,-0.48149,0.03336,,,,,,,,,,,,,,,,,,,,,,,,,,0,0,0,0,0
5.0658,1783965970.7236,1,1,2.0000,-0.0000,1.42240,-0.01109,-2.63319,1.07346,1.57081,0.11675,-0.12762,-0.48149,0.03336,,,,,,,,,,,,,,,,,,,,,,,,,,0,0,0,0,0
5.0776,1783965970.7355,1,1,2.0000,-0.0000,1.42240,-0.01109,-2.63319,1.07346,1.57081,0.11675,-0.12762,-0.48149,0.03336,,,,,,,,,,,,,,,,,,,,,,,,,,0,0,0,0,0
5.0779,1783965970.7358,1,1,2.0000,-0.0000,1.42240,-0.01109,-2.63319,1.07346,1.57081,0.11675,-0.12762,-0.48149,0.03336,,,,,,,,,,,,,,,,,,,,,,,,,,0,0,0,0,0
5.0788,1783965970.7366,1,1,2.0000,-0.0000,1.42240,-0.01109,-2.63319,1.07346,1.57081,0.11675,-0.12762,-0.48149,0.03336,,,,,,,,,,,,,,,,,,,,,,,,,,0,0,0,0,0
5.0821,1783965970.7399,1,1,2.0000,-0.0000,1.42240,-0.01109,-2.63319,1.07346,1.57081,0.11675,-0.12762,-0.48149,0.03336,,,,,,,,,,,,,,,,,,,,,,,,,,0,0,0,0,0
5.0888,1783965970.7467,1,1,2.0000,-0.0000,1.42240,-0.01109,-2.63319,1.07346,1.57081,0.11675,-0.12762,-0.48149,0.03336,,,,,,,,,,,,,,,,,,,,,,,,,,0,0,0,0,0
5.0891,1783965970.7469,1,1,2.0000,-0.0000,1.42240,-0.01109,-2.63319,1.07346,1.57081,0.11675,-0.12762,-0.48149,0.03336,,,,,,,,,,,,,,,,,,,,,,,,,,0,0,0,0,0
5.0902,1783965970.7481,1,1,2.0000,-0.0000,1.42240,-0.01109,-2.63319,1.07346,1.57081,0.11675,-0.12762,-0.48149,0.03336,,,,,,,,,,,,,,,,,,,,,,,,,,0,0,0,0,0
5.0905,1783965970.7484,1,1,2.0000,-0.0000,1.42240,-0.01109,-2.63319,1.07346,1.57081,0.11675,-0.12762,-0.48149,0.03336,,,,,,,,,,,,,,,,,,,,,,,,,,0,0,0,0,0
5.0924,1783965970.7502,1,1,2.0000,-0.0000,1.42240,-0.01109,-2.63319,1.07346,1.57081,0.11675,-0.12762,-0.48149,0.03336,,,,,,,,,,,,,,,,,,,,,,,,,,0,0,0,0,0
5.0942,1783965970.7520,1,1,2.0000,-0.0000,1.42240,-0.01109,-2.63319,1.07346,1.57081,0.11675,-0.12762,-0.48149,0.03336,,,,,,,,,,,,,,,,,,,,,,,,,,0,0,0,0,0
5.0944,1783965970.7523,1,1,2.0000,-0.0000,1.42240,-0.01109,-2.63319,1.07346,1.57081,0.11675,-0.12762,-0.48149,0.03336,,,,,,,,,,,,,,,,,,,,,,,,,,0,0,0,0,0
5.0947,1783965970.7526,1,1,2.0000,-0.0000,1.42240,-0.01109,-2.63319,1.07346,1.57081,0.11675,-0.12762,-0.48149,0.03336,,,,,,,,,,,,,,,,,,,,,,,,,,0,0,0,0,0
5.0950,1783965970.7529,1,1,2.0000,-0.0000,1.42240,-0.01109,-2.63319,1.07346,1.57081,0.11675,-0.12762,-0.48149,0.03336,,,,,,,,,,,,,,,,,,,,,,,,,,0,0,0,0,0
5.0955,1783965970.7533,1,1,2.0000,-0.0000,1.42240,-0.01109,-2.63319,1.07346,1.57081,0.11675,-0.12762,-0.48149,0.03336,,,,,,,,,,,,,,,,,,,,,,,,,,0,0,0,0,0
5.0971,1783965970.7549,1,1,2.0000,-0.0000,1.42240,-0.01109,-2.63319,1.07346,1.57081,0.11675,-0.12762,-0.48149,0.03336,,,,,,,,,,,,,,,,,,,,,,,,,,0,0,0,0,0
5.0975,1783965970.7554,1,1,2.0000,-0.0000,1.42240,-0.01109,-2.63319,1.07346,1.57081,0.11675,-0.12762,-0.48149,0.03336,,,,,,,,,,,,,,,,,,,,,,,,,,0,0,0,0,0
5.0979,1783965970.7557,1,1,2.0000,-0.0000,1.42240,-0.01109,-2.63319,1.07346,1.57081,0.11675,-0.12762,-0.48149,0.03336,,,,,,,,,,,,,,,,,,,,,,,,,,0,0,0,0,0
5.0982,1783965970.7560,1,1,2.0000,-0.0000,1.42240,-0.01109,-2.63319,1.07346,1.57081,0.11675,-0.12762,-0.48149,0.03336,,,,,,,,,,,,,,,,,,,,,,,,,,0,0,0,0,0
5.0990,1783965970.7568,1,1,2.0000,-0.0000,1.42240,-0.01109,-2.63319,1.07346,1.57081,0.11675,-0.12762,-0.48149,0.03336,,,,,,,,,,,,,,,,,,,,,,,,,,0,0,0,0,0
5.0997,1783965970.7575,1,1,2.0000,-0.0000,1.42240,-0.01109,-2.63319,1.07346,1.57081,0.11675,-0.12762,-0.48149,0.03336,,,,,,,,,,,,,,,,,,,,,,,,,,0,0,0,0,0
5.1017,1783965970.7596,1,1,2.0000,-0.0000,1.42240,-0.01109,-2.63319,1.07346,1.57081,0.11675,-0.12762,-0.48149,0.03336,,,,,,,,,,,,,,,,,,,,,,,,,,0,0,0,0,0
5.1020,1783965970.7599,1,1,2.0000,-0.0000,1.42240,-0.01109,-2.63319,1.07346,1.57081,0.11675,-0.12762,-0.48149,0.03336,,,,,,,,,,,,,,,,,,,,,,,,,,0,0,0,0,0
5.1025,1783965970.7603,1,1,2.0000,-0.0000,1.42240,-0.01109,-2.63319,1.07346,1.57081,0.11675,-0.12762,-0.48149,0.03336,,,,,,,,,,,,,,,,,,,,,,,,,,0,0,0,0,0
5.1028,1783965970.7607,1,1,2.0000,-0.0000,1.42240,-0.01109,-2.63319,1.07346,1.57081,0.11675,-0.12762,-0.48149,0.03336,,,,,,,,,,,,,,,,,,,,,,,,,,0,0,0,0,0
5.1214,1783965970.7792,1,1,2.0000,-0.0000,1.42240,-0.01109,-2.63319,1.07346,1.57081,0.11675,-0.12762,-0.48149,0.03336,,,,,,,,,,,,,,,,,,,,,,,,,,0,0,0,0,0
5.1329,1783965970.7907,1,1,2.0000,-0.0000,1.42240,-0.01109,-2.63319,1.07346,1.57081,0.11675,-0.12762,-0.48149,0.03336,,,,,,,,,,,,,,,,,,,,,,,,,,0,0,0,0,0
5.1331,1783965970.7910,1,1,2.0000,-0.0000,1.42240,-0.01109,-2.63319,1.07346,1.57081,0.11675,-0.12762,-0.48149,0.03336,,,,,,,,,,,,,,,,,,,,,,,,,,0,0,0,0,0
5.1335,1783965970.7913,1,1,2.0000,-0.0000,1.42240,-0.01109,-2.63319,1.07346,1.57081,0.11675,-0.12762,-0.48149,0.03336,,,,,,,,,,,,,,,,,,,,,,,,,,0,0,0,0,0
5.1436,1783965970.8015,1,1,2.0000,-0.0000,1.42240,-0.01109,-2.63319,1.07346,1.57081,0.11675,-0.12762,-0.48149,0.03336,,,,,,,,,,,,,,,,,,,,,,,,,,0,0,0,0,0
5.1519,1783965970.8097,1,1,2.0000,-0.0000,1.42240,-0.01109,-2.63319,1.07346,1.57081,0.11675,-0.12762,-0.48149,0.03336,,,,,,,,,,,,,,,,,,,,,,,,,,0,0,0,0,0
5.1622,1783965970.8201,1,1,2.0000,-0.0000,1.42240,-0.01109,-2.63319,1.07346,1.57081,0.11675,-0.12762,-0.48149,0.03336,,,,,,,,,,,,,,,,,,,,,,,,,,0,0,0,0,0
5.1626,1783965970.8204,1,1,2.0000,-0.0000,1.42240,-0.01109,-2.63319,1.07346,1.57081,0.11675,-0.12762,-0.48149,0.03336,,,,,,,,,,,,,,,,,,,,,,,,,,0,0,0,0,0
5.1761,1783965970.8340,1,1,2.0000,-0.0000,1.42240,-0.01109,-2.63319,1.07346,1.57081,0.11675,-0.12762,-0.48149,0.03336,,,,,,,,,,,,,,,,,,,,,,,,,,0,0,0,0,0
5.1816,1783965970.8394,1,1,2.0000,-0.0000,1.42240,-0.01109,-2.63319,1.07346,1.57081,0.11675,-0.12762,-0.48149,0.03336,,,,,,,,,,,,,,,,,,,,,,,,,,0,0,0,0,0
5.1961,1783965970.8539,1,1,2.0000,-0.0000,1.42240,-0.01109,-2.63319,1.07346,1.57081,0.11675,-0.12762,-0.48149,0.03336,,,,,,,,,,,,,,,,,,,,,,,,,,0,0,0,0,0
5.2016,1783965970.8595,1,1,2.0000,-0.0000,1.42240,-0.01109,-2.63319,1.07346,1.57081,0.11675,-0.12762,-0.48149,0.03336,,,,,,,,,,,,,,,,,,,,,,,,,,0,0,0,0,0
5.2022,1783965970.8600,1,1,2.0000,-0.0000,1.42240,-0.01109,-2.63319,1.07346,1.57081,0.11675,-0.12762,-0.48149,0.03336,,,,,,,,,,,,,,,,,,,,,,,,,,0,0,0,0,0
5.2155,1783965970.8733,1,1,2.0000,-0.0000,1.42240,-0.01109,-2.63319,1.07346,1.57081,0.11675,-0.12762,-0.48149,0.03336,,,,,,,,,,,,,,,,,,,,,,,,,,0,0,0,0,0
5.2246,1783965970.8825,1,1,2.0000,-0.0000,1.42240,-0.01109,-2.63319,1.07346,1.57081,0.11675,-0.12762,-0.48149,0.03336,,,,,,,,,,,,,,,,,,,,,,,,,,0,0,0,0,0
5.2416,1783965970.8994,1,1,2.0000,-0.0000,1.42240,-0.01109,-2.63319,1.07346,1.57081,0.11675,-0.12762,-0.48149,0.03336,,,,,,,,,,,,,,,,,,,,,,,,,,0,0,0,0,0
5.2435,1783965970.9013,1,1,2.0000,-0.0000,1.42240,-0.01109,-2.63319,1.07346,1.57081,0.11675,-0.12762,-0.48149,0.03336,,,,,,,,,,,,,,,,,,,,,,,,,,0,0,0,0,0
5.2536,1783965970.9114,1,1,2.0000,-0.0000,1.42240,-0.01109,-2.63319,1.07346,1.57081,0.11675,-0.12762,-0.48149,0.03336,,,,,,,,,,,,,,,,,,,,,,,,,,0,0,0,0,0
5.2683,1783965970.9262,1,1,2.0000,-0.0000,1.42240,-0.01111,-2.63319,1.07349,1.57081,0.11675,-0.12762,-0.48149,0.03336,,,,,,,,,,,,,,,,,,,,,,,,,,0,0,0,0,0
5.2717,1783965970.9295,1,1,2.0000,-0.0000,1.42240,-0.01111,-2.63319,1.07349,1.57081,0.11675,-0.12762,-0.48149,0.03336,,,,,,,,,,,,,,,,,,,,,,,,,,0,0,0,0,0
5.3125,1783965970.9703,1,1,2.0000,-0.0000,1.42240,-0.01126,-2.63329,1.07367,1.57081,0.11675,-0.12762,-0.48144,0.03328,,,,,,,,,,,,,,,,,,,,,,,,,,0,0,0,0,0
5.3127,1783965970.9706,1,1,2.0000,-0.0000,1.42240,-0.01126,-2.63329,1.07367,1.57081,0.11675,-0.12762,-0.48144,0.03328,,,,,,,,,,,,,,,,,,,,,,,,,,0,0,0,0,0
5.3164,1783965970.9742,1,1,2.0000,-0.0000,1.42240,-0.01127,-2.63329,1.07368,1.57081,0.11675,-0.12762,-0.48144,0.03327,,,,,,,,,,,,,,,,,,,,,,,,,,0,0,0,0,0
5.4646,1783965971.1225,1,1,2.0000,-0.0000,1.42240,-0.01226,-2.63344,1.07490,1.57081,0.11675,-0.12761,-0.48149,0.03297,,,,,,,,,,,,,,,,,,,,,,,,,,0,0,0,0,0
5.4864,1783965971.1443,1,1,2.0000,-0.0000,1.42240,-0.01226,-2.63344,1.07490,1.57081,0.11675,-0.12761,-0.48149,0.03297,,,,,,,,,,,,,,,,,,,,,,,,,,0,0,0,0,0
5.4935,1783965971.1514,1,1,2.0000,-0.0000,1.42240,-0.01226,-2.63344,1.07490,1.57081,0.11675,-0.12761,-0.48149,0.03297,,,,,,,,,,,,,,,,,,,,,,,,,,0,0,0,0,0
5.5011,1783965971.1589,1,1,2.0000,-0.0000,1.42240,-0.01226,-2.63344,1.07490,1.57081,0.11675,-0.12761,-0.48149,0.03297,,,,,,,,,,,,,,,,,,,,,,,,,,0,0,0,0,0
5.5015,1783965971.1594,1,1,2.0000,-0.0000,1.42240,-0.01226,-2.63344,1.07490,1.57081,0.11675,-0.12761,-0.48149,0.03297,,,,,,,,,,,,,,,,,,,,,,,,,,0,0,0,0,0
5.5047,1783965971.1626,1,1,2.0000,-0.0000,1.42240,-0.01226,-2.63344,1.07490,1.57081,0.11675,-0.12761,-0.48149,0.03297,,,,,,,,,,,,,,,,,,,,,,,,,,0,0,0,0,0
5.5050,1783965971.1629,1,1,2.0000,-0.0000,1.42240,-0.01226,-2.63344,1.07490,1.57081,0.11675,-0.12761,-0.48149,0.03297,,,,,,,,,,,,,,,,,,,,,,,,,,0,0,0,0,0
5.5073,1783965971.1652,1,1,2.0000,-0.0000,1.42240,-0.01226,-2.63344,1.07490,1.57081,0.11675,-0.12761,-0.48149,0.03297,,,,,,,,,,,,,,,,,,,,,,,,,,0,0,0,0,0
5.5131,1783965971.1709,1,1,2.0000,-0.0000,1.42240,-0.01226,-2.63344,1.07490,1.57081,0.11675,-0.12761,-0.48149,0.03297,,,,,,,,,,,,,,,,,,,,,,,,,,0,0,0,0,0
5.5134,1783965971.1713,1,1,2.0000,-0.0000,1.42240,-0.01226,-2.63344,1.07490,1.57081,0.11675,-0.12761,-0.48149,0.03297,,,,,,,,,,,,,,,,,,,,,,,,,,0,0,0,0,0
5.5163,1783965971.1742,1,1,2.0000,-0.0000,1.42240,-0.01226,-2.63344,1.07490,1.57081,0.11675,-0.12761,-0.48149,0.03297,,,,,,,,,,,,,,,,,,,,,,,,,,0,0,0,0,0
5.5167,1783965971.1746,1,1,2.0000,-0.0000,1.42240,-0.01226,-2.63344,1.07490,1.57081,0.11675,-0.12761,-0.48149,0.03297,,,,,,,,,,,,,,,,,,,,,,,,,,0,0,0,0,0
5.5386,1783965971.1964,1,1,2.0000,-0.0000,1.42240,-0.01226,-2.63344,1.07490,1.57081,0.11675,-0.12761,-0.48149,0.03297,,,,,,,,,,,,,,,,,,,,,,,,,,0,0,0,0,0
5.5441,1783965971.2019,1,1,2.0000,-0.0000,1.42240,-0.01226,-2.63344,1.07490,1.57081,0.11675,-0.12761,-0.48149,0.03297,,,,,,,,,,,,,,,,,,,,,,,,,,0,0,0,0,0
5.5455,1783965971.2034,1,1,2.0000,-0.0000,1.42240,-0.01226,-2.63344,1.07490,1.57081,0.11675,-0.12761,-0.48149,0.03297,,,,,,,,,,,,,,,,,,,,,,,,,,0,0,0,0,0
5.5459,1783965971.2038,1,1,2.0000,-0.0000,1.42240,-0.01226,-2.63344,1.07490,1.57081,0.11675,-0.12761,-0.48149,0.03297,,,,,,,,,,,,,,,,,,,,,,,,,,0,0,0,0,0
5.5465,1783965971.2043,1,1,2.0000,-0.0000,1.42240,-0.01226,-2.63344,1.07490,1.57081,0.11675,-0.12761,-0.48149,0.03297,,,,,,,,,,,,,,,,,,,,,,,,,,0,0,0,0,0
5.5560,1783965971.2139,1,1,2.0000,-0.0000,1.42240,-0.01226,-2.63344,1.07490,1.57081,0.11675,-0.12761,-0.48149,0.03297,,,,,,,,,,,,,,,,,,,,,,,,,,0,0,0,0,0
5.5721,1783965971.2300,1,1,2.0000,-0.0000,1.42240,-0.01226,-2.63344,1.07490,1.57081,0.11675,-0.12761,-0.48149,0.03297,,,,,,,,,,,,,,,,,,,,,,,,,,0,0,0,0,0
5.5772,1783965971.2350,1,1,2.0000,-0.0000,1.42240,-0.01226,-2.63344,1.07490,1.57081,0.11675,-0.12761,-0.48149,0.03297,,,,,,,,,,,,,,,,,,,,,,,,,,0,0,0,0,0
5.5775,1783965971.2354,1,1,2.0000,-0.0000,1.42240,-0.01226,-2.63344,1.07490,1.57081,0.11675,-0.12761,-0.48149,0.03297,,,,,,,,,,,,,,,,,,,,,,,,,,0,0,0,0,0
5.5835,1783965971.2413,1,1,2.0000,-0.0000,1.42240,-0.01226,-2.63344,1.07490,1.57081,0.11675,-0.12761,-0.48149,0.03297,,,,,,,,,,,,,,,,,,,,,,,,,,0,0,0,0,0
5.5843,1783965971.2421,1,1,2.0000,-0.0000,1.42240,-0.01226,-2.63344,1.07490,1.57081,0.11675,-0.12761,-0.48149,0.03297,,,,,,,,,,,,,,,,,,,,,,,,,,0,0,0,0,0
5.5845,1783965971.2424,1,1,2.0000,-0.0000,1.42240,-0.01226,-2.63344,1.07490,1.57081,0.11675,-0.12761,-0.48149,0.03297,,,,,,,,,,,,,,,,,,,,,,,,,,0,0,0,0,0
5.6106,1783965971.2684,1,1,2.0000,-0.0000,1.42240,-0.01226,-2.63344,1.07490,1.57081,0.11675,-0.12761,-0.48149,0.03297,,,,,,,,,,,,,,,,,,,,,,,,,,0,0,0,0,0
5.6131,1783965971.2710,1,1,2.0000,-0.0000,1.42240,-0.01226,-2.63344,1.07490,1.57081,0.11675,-0.12761,-0.48149,0.03297,,,,,,,,,,,,,,,,,,,,,,,,,,0,0,0,0,0
5.6134,1783965971.2713,1,1,2.0000,-0.0000,1.42240,-0.01226,-2.63344,1.07490,1.57081,0.11675,-0.12761,-0.48149,0.03297,,,,,,,,,,,,,,,,,,,,,,,,,,0,0,0,0,0
5.6151,1783965971.2730,1,1,2.0000,-0.0000,1.42240,-0.01226,-2.63344,1.07490,1.57081,0.11675,-0.12761,-0.48149,0.03297,,,,,,,,,,,,,,,,,,,,,,,,,,0,0,0,0,0
5.6161,1783965971.2740,1,1,2.0000,-0.0000,1.42240,-0.01226,-2.63344,1.07490,1.57081,0.11675,-0.12761,-0.48149,0.03297,,,,,,,,,,,,,,,,,,,,,,,,,,0,0,0,0,0
5.6176,1783965971.2754,1,1,2.0000,-0.0000,1.42240,-0.01226,-2.63344,1.07490,1.57081,0.11675,-0.12761,-0.48149,0.03297,,,,,,,,,,,,,,,,,,,,,,,,,,0,0,0,0,0
5.6435,1783965971.3014,1,1,2.0000,-0.0000,1.42240,-0.01226,-2.63344,1.07490,1.57081,0.11675,-0.12761,-0.48149,0.03297,,,,,,,,,,,,,,,,,,,,,,,,,,0,0,0,0,0
5.6439,1783965971.3018,1,1,2.0000,-0.0000,1.42240,-0.01226,-2.63344,1.07490,1.57081,0.11675,-0.12761,-0.48149,0.03297,,,,,,,,,,,,,,,,,,,,,,,,,,0,0,0,0,0
5.6491,1783965971.3070,1,1,2.0000,-0.0000,1.42240,-0.01226,-2.63344,1.07490,1.57081,0.11675,-0.12761,-0.48149,0.03297,,,,,,,,,,,,,,,,,,,,,,,,,,0,0,0,0,0
5.6562,1783965971.3141,1,1,2.0000,-0.0000,1.42240,-0.01226,-2.63344,1.07490,1.57081,0.11675,-0.12761,-0.48149,0.03297,,,,,,,,,,,,,,,,,,,,,,,,,,0,0,0,0,0
5.6574,1783965971.3152,1,1,2.0000,-0.0000,1.42240,-0.01226,-2.63344,1.07490,1.57081,0.11675,-0.12761,-0.48149,0.03297,,,,,,,,,,,,,,,,,,,,,,,,,,0,0,0,0,0
5.6578,1783965971.3156,1,1,2.0000,-0.0000,1.42240,-0.01226,-2.63344,1.07490,1.57081,0.11675,-0.12761,-0.48149,0.03297,,,,,,,,,,,,,,,,,,,,,,,,,,0,0,0,0,0
