Martins-Lucaas/twinforge/sensors/Data/20260710_190841__samples.csv
t_rel_s,t_unix,cycle,phase,setpoint_n,force_net_n,q1,q2,q3,q4,q5,q6,tcp_x,tcp_y,tcp_z,taxel_0,taxel_1,taxel_2,taxel_3,taxel_4,taxel_5,taxel_6,taxel_7,taxel_8,taxel_9,taxel_10,taxel_11,taxel_12,taxel_13,taxel_14,taxel_15,taxel_16,taxel_17,taxel_18,taxel_19,taxel_20,taxel_21,taxel_22,taxel_23,taxel_24,n_RA,n_SA,cn_mm,cn_ra,cn_sa
0.0051,1783721321.2100,1,0,1.0000,-0.0000,1.42052,0.14185,-2.66687,0.95417,1.57080,0.11681,-0.13197,-0.44703,0.06308,,,,,,,,,,,,,,,,,,,,,,,,,,0,0,0,0,0
0.0226,1783721321.2275,1,0,1.0000,-0.0000,1.42052,0.14185,-2.66687,0.95417,1.57080,0.11681,-0.13197,-0.44703,0.06308,,,,,,,,,,,,,,,,,,,,,,,,,,0,0,0,0,0
0.0299,1783721321.2348,1,0,1.0000,-0.0000,1.42052,0.14185,-2.66687,0.95417,1.57080,0.11681,-0.13197,-0.44703,0.06308,,,,,,,,,,,,,,,,,,,,,,,,,,0,0,0,0,0
0.0351,1783721321.2400,1,0,1.0000,-0.0000,1.42052,0.14185,-2.66687,0.95417,1.57080,0.11681,-0.13197,-0.44703,0.06308,,,,,,,,,,,,,,,,,,,,,,,,,,0,0,0,0,0
0.0453,1783721321.2502,1,0,1.0000,-0.0000,1.42052,0.14185,-2.66687,0.95417,1.57080,0.11681,-0.13197,-0.44703,0.06308,,,,,,,,,,,,,,,,,,,,,,,,,,0,0,0,0,0
0.0587,1783721321.2636,1,0,1.0000,-0.0000,1.42052,0.14185,-2.66687,0.95417,1.57080,0.11681,-0.13197,-0.44703,0.06308,,,,,,,,,,,,,,,,,,,,,,,,,,0,0,0,0,0
0.0591,1783721321.2641,1,0,1.0000,-0.0000,1.42052,0.14185,-2.66687,0.95417,1.57080,0.11681,-0.13197,-0.44703,0.06308,,,,,,,,,,,,,,,,,,,,,,,,,,0,0,0,0,0
0.0674,1783721321.2723,1,0,1.0000,-0.0000,1.42052,0.14185,-2.66687,0.95417,1.57080,0.11681,-0.13197,-0.44703,0.06308,,,,,,,,,,,,,,,,,,,,,,,,,,0,0,0,0,0
0.0808,1783721321.2858,1,0,1.0000,-0.0000,1.42052,0.14185,-2.66687,0.95417,1.57080,0.11681,-0.13197,-0.44703,0.06308,,,,,,,,,,,,,,,,,,,,,,,,,,0,0,0,0,0
0.0870,1783721321.2919,1,0,1.0000,-0.0000,1.42052,0.14185,-2.66687,0.95417,1.57080,0.11681,-0.13197,-0.44703,0.06308,,,,,,,,,,,,,,,,,,,,,,,,,,0,0,0,0,0
0.0877,1783721321.2926,1,0,1.0000,-0.0000,1.42052,0.14185,-2.66687,0.95417,1.57080,0.11681,-0.13197,-0.44703,0.06308,,,,,,,,,,,,,,,,,,,,,,,,,,0,0,0,0,0
0.1015,1783721321.3064,1,0,1.0000,-0.0000,1.42052,0.14185,-2.66687,0.95417,1.57080,0.11681,-0.13197,-0.44703,0.06308,,,,,,,,,,,,,,,,,,,,,,,,,,0,0,0,0,0
0.1060,1783721321.3109,1,0,1.0000,-0.0000,1.42052,0.14185,-2.66687,0.95417,1.57080,0.11681,-0.13197,-0.44703,0.06308,,,,,,,,,,,,,,,,,,,,,,,,,,0,0,0,0,0
0.1224,1783721321.3274,1,0,1.0000,-0.0000,1.42052,0.14185,-2.66687,0.95417,1.57080,0.11681,-0.13197,-0.44703,0.06308,,,,,,,,,,,,,,,,,,,,,,,,,,0,0,0,0,0
0.1276,1783721321.3325,1,0,1.0000,-0.0000,1.42052,0.14185,-2.66687,0.95417,1.57080,0.11681,-0.13197,-0.44703,0.06308,,,,,,,,,,,,,,,,,,,,,,,,,,0,0,0,0,0
0.1379,1783721321.3428,1,0,1.0000,-0.0000,1.42052,0.14185,-2.66687,0.95417,1.57080,0.11681,-0.13197,-0.44703,0.06308,,,,,,,,,,,,,,,,,,,,,,,,,,0,0,0,0,0
0.1528,1783721321.3577,1,0,1.0000,-0.0000,1.42052,0.14185,-2.66687,0.95417,1.57080,0.11681,-0.13197,-0.44703,0.06308,,,,,,,,,,,,,,,,,,,,,,,,,,0,0,0,0,0
0.1569,1783721321.3619,1,0,1.0000,-0.0000,1.42052,0.14185,-2.66687,0.95417,1.57080,0.11681,-0.13197,-0.44703,0.06308,,,,,,,,,,,,,,,,,,,,,,,,,,0,0,0,0,0
0.1575,1783721321.3625,1,0,1.0000,-0.0000,1.42052,0.14185,-2.66687,0.95417,1.57080,0.11681,-0.13197,-0.44703,0.06308,,,,,,,,,,,,,,,,,,,,,,,,,,0,0,0,0,0
0.1675,1783721321.3724,1,0,1.0000,-0.0000,1.42052,0.14185,-2.66687,0.95417,1.57080,0.11681,-0.13197,-0.44703,0.06308,,,,,,,,,,,,,,,,,,,,,,,,,,0,0,0,0,0
0.1805,1783721321.3854,1,0,1.0000,-0.0000,1.42052,0.14185,-2.66687,0.95417,1.57080,0.11681,-0.13197,-0.44703,0.06308,,,,,,,,,,,,,,,,,,,,,,,,,,0,0,0,0,0
0.1865,1783721321.3914,1,0,1.0000,-0.0000,1.42052,0.14185,-2.66687,0.95417,1.57080,0.11681,-0.13197,-0.44703,0.06308,,,,,,,,,,,,,,,,,,,,,,,,,,0,0,0,0,0
0.1870,1783721321.3919,1,0,1.0000,-0.0000,1.42052,0.14185,-2.66687,0.95417,1.57080,0.11681,-0.13197,-0.44703,0.06308,,,,,,,,,,,,,,,,,,,,,,,,,,0,0,0,0,0
0.1967,1783721321.4016,1,0,1.0000,-0.0000,1.42052,0.14185,-2.66687,0.95417,1.57080,0.11681,-0.13197,-0.44703,0.06308,,,,,,,,,,,,,,,,,,,,,,,,,,0,0,0,0,0
0.2051,1783721321.4101,1,0,1.0000,-0.0000,1.42052,0.14185,-2.66687,0.95417,1.57080,0.11681,-0.13197,-0.44703,0.06308,,,,,,,,,,,,,,,,,,,,,,,,,,0,0,0,0,0
0.2168,1783721321.4218,1,0,1.0000,-0.0000,1.42052,0.14185,-2.66687,0.95417,1.57080,0.11681,-0.13197,-0.44703,0.06308,,,,,,,,,,,,,,,,,,,,,,,,,,0,0,0,0,0
0.2268,1783721321.4318,1,0,1.0000,-0.0000,1.42052,0.14185,-2.66687,0.95417,1.57080,0.11681,-0.13197,-0.44703,0.06308,,,,,,,,,,,,,,,,,,,,,,,,,,0,0,0,0,0
0.2351,1783721321.4400,1,0,1.0000,-0.0000,1.42052,0.14185,-2.66687,0.95417,1.57080,0.11681,-0.13197,-0.44703,0.06308,,,,,,,,,,,,,,,,,,,,,,,,,,0,0,0,0,0
0.2455,1783721321.4504,1,0,1.0000,-0.0000,1.42052,0.14185,-2.66687,0.95417,1.57080,0.11681,-0.13197,-0.44703,0.06308,,,,,,,,,,,,,,,,,,,,,,,,,,0,0,0,0,0
0.2552,1783721321.4602,1,0,1.0000,-0.0000,1.42052,0.14185,-2.66687,0.95417,1.57080,0.11681,-0.13197,-0.44703,0.06308,,,,,,,,,,,,,,,,,,,,,,,,,,0,0,0,0,0
0.2737,1783721321.4786,1,0,1.0000,-0.0000,1.42052,0.14185,-2.66687,0.95417,1.57080,0.11681,-0.13197,-0.44703,0.06308,,,,,,,,,,,,,,,,,,,,,,,,,,0,0,0,0,0
0.2826,1783721321.4875,1,0,1.0000,-0.0000,1.42052,0.14185,-2.66687,0.95417,1.57080,0.11681,-0.13197,-0.44703,0.06308,,,,,,,,,,,,,,,,,,,,,,,,,,0,0,0,0,0
0.2831,1783721321.4880,1,0,1.0000,-0.0000,1.42052,0.14185,-2.66687,0.95417,1.57080,0.11681,-0.13197,-0.44703,0.06308,,,,,,,,,,,,,,,,,,,,,,,,,,0,0,0,0,0
0.2927,1783721321.4976,1,0,1.0000,-0.0000,1.42052,0.14185,-2.66687,0.95417,1.57080,0.11681,-0.13197,-0.44703,0.06308,,,,,,,,,,,,,,,,,,,,,,,,,,0,0,0,0,0
0.2952,1783721321.5001,1,0,1.0000,-0.0000,1.42052,0.14185,-2.66687,0.95417,1.57080,0.11681,-0.13197,-0.44703,0.06308,,,,,,,,,,,,,,,,,,,,,,,,,,0,0,0,0,0
0.3051,1783721321.5100,1,0,1.0000,-0.0000,1.42052,0.14185,-2.66687,0.95417,1.57080,0.11681,-0.13197,-0.44703,0.06308,,,,,,,,,,,,,,,,,,,,,,,,,,0,0,0,0,0
0.3291,1783721321.5340,1,0,1.0000,-0.0000,1.42052,0.14185,-2.66687,0.95417,1.57080,0.11681,-0.13197,-0.44703,0.06308,,,,,,,,,,,,,,,,,,,,,,,,,,0,0,0,0,0
0.3387,1783721321.5437,1,0,1.0000,-0.0000,1.42052,0.14185,-2.66687,0.95417,1.57080,0.11681,-0.13197,-0.44703,0.06308,,,,,,,,,,,,,,,,,,,,,,,,,,0,0,0,0,0
0.3392,1783721321.5441,1,0,1.0000,-0.0000,1.42052,0.14185,-2.66687,0.95417,1.57080,0.11681,-0.13197,-0.44703,0.06308,,,,,,,,,,,,,,,,,,,,,,,,,,0,0,0,0,0
0.3450,1783721321.5499,1,0,1.0000,-0.0000,1.42052,0.14185,-2.66687,0.95417,1.57080,0.11681,-0.13197,-0.44703,0.06308,,,,,,,,,,,,,,,,,,,,,,,,,,0,0,0,0,0
0.3456,1783721321.5505,1,0,1.0000,-0.0000,1.42052,0.14185,-2.66687,0.95417,1.57080,0.11681,-0.13197,-0.44703,0.06308,,,,,,,,,,,,,,,,,,,,,,,,,,0,0,0,0,0
0.3576,1783721321.5626,1,0,1.0000,-0.0000,1.42052,0.14185,-2.66687,0.95417,1.57080,0.11681,-0.13197,-0.44703,0.06308,,,,,,,,,,,,,,,,,,,,,,,,,,0,0,0,0,0
0.3669,1783721321.5718,1,0,1.0000,-0.0000,1.42052,0.14185,-2.66687,0.95417,1.57080,0.11681,-0.13197,-0.44703,0.06308,,,,,,,,,,,,,,,,,,,,,,,,,,0,0,0,0,0
0.3749,1783721321.5798,1,0,1.0000,-0.0000,1.42052,0.14185,-2.66687,0.95417,1.57080,0.11681,-0.13197,-0.44703,0.06308,,,,,,,,,,,,,,,,,,,,,,,,,,0,0,0,0,0
0.3753,1783721321.5802,1,0,1.0000,-0.0000,1.42052,0.14185,-2.66687,0.95417,1.57080,0.11681,-0.13197,-0.44703,0.06308,,,,,,,,,,,,,,,,,,,,,,,,,,0,0,0,0,0
0.3876,1783721321.5925,1,0,1.0000,-0.0000,1.42052,0.14185,-2.66687,0.95417,1.57080,0.11681,-0.13197,-0.44703,0.06308,,,,,,,,,,,,,,,,,,,,,,,,,,0,0,0,0,0
0.3959,1783721321.6008,1,0,1.0000,-0.0000,1.42052,0.14185,-2.66687,0.95417,1.57080,0.11681,-0.13197,-0.44703,0.06308,,,,,,,,,,,,,,,,,,,,,,,,,,0,0,0,0,0
0.4097,1783721321.6146,1,0,1.0000,-0.0000,1.42052,0.14185,-2.66687,0.95417,1.57080,0.11681,-0.13197,-0.44703,0.06308,,,,,,,,,,,,,,,,,,,,,,,,,,0,0,0,0,0
0.4172,1783721321.6222,1,0,1.0000,-0.0000,1.42052,0.14185,-2.66687,0.95417,1.57080,0.11681,-0.13197,-0.44703,0.06308,,,,,,,,,,,,,,,,,,,,,,,,,,0,0,0,0,0
0.4311,1783721321.6360,1,0,1.0000,-0.0000,1.42052,0.14185,-2.66687,0.95417,1.57080,0.11681,-0.13197,-0.44703,0.06308,,,,,,,,,,,,,,,,,,,,,,,,,,0,0,0,0,0
0.4315,1783721321.6365,1,0,1.0000,-0.0000,1.42052,0.14185,-2.66687,0.95417,1.57080,0.11681,-0.13197,-0.44703,0.06308,,,,,,,,,,,,,,,,,,,,,,,,,,0,0,0,0,0
0.4366,1783721321.6415,1,0,1.0000,-0.0000,1.42052,0.14185,-2.66687,0.95417,1.57080,0.11681,-0.13197,-0.44703,0.06308,,,,,,,,,,,,,,,,,,,,,,,,,,0,0,0,0,0
0.4476,1783721321.6525,1,0,1.0000,-0.0000,1.42052,0.14185,-2.66687,0.95417,1.57080,0.11681,-0.13197,-0.44703,0.06308,,,,,,,,,,,,,,,,,,,,,,,,,,0,0,0,0,0
0.4602,1783721321.6651,1,0,1.0000,-0.0000,1.42052,0.14185,-2.66687,0.95417,1.57080,0.11681,-0.13197,-0.44703,0.06308,,,,,,,,,,,,,,,,,,,,,,,,,,0,0,0,0,0
0.4773,1783721321.6822,1,0,1.0000,-0.0000,1.42052,0.14185,-2.66687,0.95417,1.57080,0.11681,-0.13197,-0.44703,0.06308,,,,,,,,,,,,,,,,,,,,,,,,,,0,0,0,0,0
0.4777,1783721321.6826,1,0,1.0000,-0.0000,1.42052,0.14185,-2.66687,0.95417,1.57080,0.11681,-0.13197,-0.44703,0.06308,,,,,,,,,,,,,,,,,,,,,,,,,,0,0,0,0,0
0.4905,1783721321.6954,1,0,1.0000,-0.0000,1.42052,0.14185,-2.66687,0.95417,1.57080,0.11681,-0.13197,-0.44703,0.06308,,,,,,,,,,,,,,,,,,,,,,,,,,0,0,0,0,0
0.4968,1783721321.7017,1,0,1.0000,-0.0000,1.42052,0.14185,-2.66687,0.95417,1.57080,0.11681,-0.13197,-0.44703,0.06308,,,,,,,,,,,,,,,,,,,,,,,,,,0,0,0,0,0
0.5192,1783721321.7241,1,0,1.0000,-0.0000,1.42052,0.14185,-2.66687,0.95417,1.57080,0.11681,-0.13197,-0.44703,0.06308,,,,,,,,,,,,,,,,,,,,,,,,,,0,0,0,0,0
0.5210,1783721321.7259,1,0,1.0000,-0.0000,1.42052,0.14185,-2.66687,0.95417,1.57080,0.11681,-0.13197,-0.44703,0.06308,,,,,,,,,,,,,,,,,,,,,,,,,,0,0,0,0,0
0.5333,1783721321.7382,1,0,1.0000,-0.0000,1.42052,0.14185,-2.66687,0.95417,1.57080,0.11681,-0.13197,-0.44703,0.06308,,,,,,,,,,,,,,,,,,,,,,,,,,0,0,0,0,0
0.5354,1783721321.7403,1,0,1.0000,-0.0000,1.42052,0.14185,-2.66687,0.95417,1.57080,0.11681,-0.13197,-0.44703,0.06308,,,,,,,,,,,,,,,,,,,,,,,,,,0,0,0,0,0
0.5498,1783721321.7547,1,0,1.0000,-0.0000,1.42052,0.14185,-2.66687,0.95417,1.57080,0.11681,-0.13197,-0.44703,0.06308,,,,,,,,,,,,,,,,,,,,,,,,,,0,0,0,0,0
0.5559,1783721321.7609,1,0,1.0000,-0.0000,1.42052,0.14185,-2.66687,0.95417,1.57080,0.11681,-0.13197,-0.44703,0.06308,,,,,,,,,,,,,,,,,,,,,,,,,,0,0,0,0,0
0.5564,1783721321.7613,1,0,1.0000,-0.0000,1.42052,0.14185,-2.66687,0.95417,1.57080,0.11681,-0.13197,-0.44703,0.06308,,,,,,,,,,,,,,,,,,,,,,,,,,0,0,0,0,0
0.5653,1783721321.7702,1,0,1.0000,-0.0000,1.42052,0.14185,-2.66687,0.95417,1.57080,0.11681,-0.13197,-0.44703,0.06308,,,,,,,,,,,,,,,,,,,,,,,,,,0,0,0,0,0
0.5771,1783721321.7821,1,0,1.0000,-0.0000,1.42052,0.14185,-2.66687,0.95417,1.57080,0.11681,-0.13197,-0.44703,0.06308,,,,,,,,,,,,,,,,,,,,,,,,,,0,0,0,0,0
0.5911,1783721321.7960,1,0,1.0000,-0.0000,1.42052,0.14185,-2.66687,0.95417,1.57080,0.11681,-0.13197,-0.44703,0.06308,,,,,,,,,,,,,,,,,,,,,,,,,,0,0,0,0,0
0.6004,1783721321.8053,1,0,1.0000,-0.0000,1.42052,0.14185,-2.66687,0.95417,1.57080,0.11681,-0.13197,-0.44703,0.06308,,,,,,,,,,,,,,,,,,,,,,,,,,0,0,0,0,0
0.6079,1783721321.8129,1,0,1.0000,-0.0000,1.42052,0.14185,-2.66687,0.95417,1.57080,0.11681,-0.13197,-0.44703,0.06308,,,,,,,,,,,,,,,,,,,,,,,,,,0,0,0,0,0
0.6222,1783721321.8271,1,0,1.0000,-0.0000,1.42052,0.14185,-2.66687,0.95417,1.57080,0.11681,-0.13197,-0.44703,0.06308,,,,,,,,,,,,,,,,,,,,,,,,,,0,0,0,0,0
0.6395,1783721321.8444,1,0,1.0000,-0.0000,1.42052,0.14185,-2.66687,0.95417,1.57080,0.11681,-0.13197,-0.44703,0.06308,,,,,,,,,,,,,,,,,,,,,,,,,,0,0,0,0,0
0.6398,1783721321.8448,1,0,1.0000,-0.0000,1.42052,0.14185,-2.66687,0.95417,1.57080,0.11681,-0.13197,-0.44703,0.06308,,,,,,,,,,,,,,,,,,,,,,,,,,0,0,0,0,0
0.6467,1783721321.8516,1,0,1.0000,-0.0000,1.42052,0.14185,-2.66687,0.95417,1.57080,0.11681,-0.13197,-0.44703,0.06308,,,,,,,,,,,,,,,,,,,,,,,,,,0,0,0,0,0
0.6567,1783721321.8616,1,0,1.0000,-0.0000,1.42052,0.14185,-2.66687,0.95417,1.57080,0.11681,-0.13197,-0.44703,0.06308,,,,,,,,,,,,,,,,,,,,,,,,,,0,0,0,0,0
0.6655,1783721321.8704,1,0,1.0000,-0.0000,1.42052,0.14185,-2.66687,0.95417,1.57080,0.11681,-0.13197,-0.44703,0.06308,,,,,,,,,,,,,,,,,,,,,,,,,,0,0,0,0,0
0.6746,1783721321.8795,1,0,1.0000,-0.0000,1.42052,0.14185,-2.66687,0.95417,1.57080,0.11681,-0.13197,-0.44703,0.06308,,,,,,,,,,,,,,,,,,,,,,,,,,0,0,0,0,0
0.6749,1783721321.8798,1,0,1.0000,-0.0000,1.42052,0.14185,-2.66687,0.95417,1.57080,0.11681,-0.13197,-0.44703,0.06308,,,,,,,,,,,,,,,,,,,,,,,,,,0,0,0,0,0
0.6856,1783721321.8905,1,0,1.0000,-0.0000,1.42052,0.14185,-2.66687,0.95417,1.57080,0.11681,-0.13197,-0.44703,0.06308,,,,,,,,,,,,,,,,,,,,,,,,,,0,0,0,0,0
0.6953,1783721321.9002,1,0,1.0000,-0.0000,1.42052,0.14185,-2.66687,0.95417,1.57080,0.11681,-0.13197,-0.44703,0.06308,,,,,,,,,,,,,,,,,,,,,,,,,,0,0,0,0,0
0.7064,1783721321.9113,1,0,1.0000,-0.0000,1.42052,0.14185,-2.66687,0.95417,1.57080,0.11681,-0.13197,-0.44703,0.06308,,,,,,,,,,,,,,,,,,,,,,,,,,0,0,0,0,0
0.7152,1783721321.9201,1,0,1.0000,-0.0000,1.42052,0.14185,-2.66687,0.95417,1.57080,0.11681,-0.13197,-0.44703,0.06308,,,,,,,,,,,,,,,,,,,,,,,,,,0,0,0,0,0
0.7398,1783721321.9447,1,1,1.0000,-0.0000,1.42052,0.14185,-2.66687,0.95417,1.57080,0.11681,-0.13197,-0.44703,0.06308,,,,,,,,,,,,,,,,,,,,,,,,,,0,0,0,0,0
0.7401,1783721321.9450,1,1,1.0000,-0.0000,1.42052,0.14185,-2.66687,0.95417,1.57080,0.11681,-0.13197,-0.44703,0.06308,,,,,,,,,,,,,,,,,,,,,,,,,,0,0,0,0,0
0.7471,1783721321.9520,1,1,1.0000,-0.0000,1.42052,0.14185,-2.66687,0.95417,1.57080,0.11681,-0.13197,-0.44703,0.06308,,,,,,,,,,,,,,,,,,,,,,,,,,0,0,0,0,0
0.7476,1783721321.9525,1,1,1.0000,-0.0000,1.42052,0.14185,-2.66687,0.95417,1.57080,0.11681,-0.13197,-0.44703,0.06308,,,,,,,,,,,,,,,,,,,,,,,,,,0,0,0,0,0
0.7551,1783721321.9600,1,1,1.0000,-0.0000,1.42052,0.14185,-2.66687,0.95417,1.57080,0.11681,-0.13197,-0.44703,0.06308,,,,,,,,,,,,,,,,,,,,,,,,,,0,0,0,0,0
0.7554,1783721321.9603,1,1,1.0000,-0.0000,1.42052,0.14185,-2.66687,0.95417,1.57080,0.11681,-0.13197,-0.44703,0.06308,,,,,,,,,,,,,,,,,,,,,,,,,,0,0,0,0,0
0.7687,1783721321.9736,1,1,1.0000,-0.0000,1.42052,0.14185,-2.66687,0.95417,1.57080,0.11681,-0.13197,-0.44703,0.06308,,,,,,,,,,,,,,,,,,,,,,,,,,0,0,0,0,0
0.7752,1783721321.9802,1,1,1.0000,-0.0000,1.42052,0.14185,-2.66687,0.95417,1.57080,0.11681,-0.13197,-0.44703,0.06308,,,,,,,,,,,,,,,,,,,,,,,,,,0,0,0,0,0
0.7865,1783721321.9915,1,1,1.0000,-0.0000,1.42052,0.14185,-2.66687,0.95417,1.57080,0.11681,-0.13197,-0.44703,0.06308,,,,,,,,,,,,,,,,,,,,,,,,,,0,0,0,0,0
0.7953,1783721322.0002,1,1,1.0000,-0.0000,1.42052,0.14185,-2.66687,0.95417,1.57080,0.11681,-0.13197,-0.44703,0.06308,,,,,,,,,,,,,,,,,,,,,,,,,,0,0,0,0,0
0.8071,1783721322.0121,1,1,1.0000,-0.0000,1.42052,0.14185,-2.66687,0.95417,1.57080,0.11681,-0.13197,-0.44703,0.06308,,,,,,,,,,,,,,,,,,,,,,,,,,0,0,0,0,0
0.8167,1783721322.0216,1,1,1.0000,-0.0000,1.42052,0.14185,-2.66687,0.95417,1.57080,0.11681,-0.13197,-0.44703,0.06308,,,,,,,,,,,,,,,,,,,,,,,,,,0,0,0,0,0
0.8265,1783721322.0314,1,1,1.0000,-0.0000,1.42052,0.14185,-2.66687,0.95417,1.57080,0.11681,-0.13197,-0.44703,0.06308,,,,,,,,,,,,,,,,,,,,,,,,,,0,0,0,0,0
0.8423,1783721322.0472,1,1,1.0000,-0.0000,1.42052,0.14185,-2.66687,0.95417,1.57080,0.11681,-0.13197,-0.44703,0.06308,,,,,,,,,,,,,,,,,,,,,,,,,,0,0,0,0,0
0.8562,1783721322.0611,1,1,1.0000,-0.0000,1.42052,0.14185,-2.66687,0.95417,1.57080,0.11681,-0.13197,-0.44703,0.06308,,,,,,,,,,,,,,,,,,,,,,,,,,0,0,0,0,0
0.8616,1783721322.0665,1,1,1.0000,-0.0000,1.42052,0.14185,-2.66687,0.95417,1.57080,0.11681,-0.13197,-0.44703,0.06308,,,,,,,,,,,,,,,,,,,,,,,,,,0,0,0,0,0
0.8652,1783721322.0701,1,1,1.0000,-0.0000,1.42052,0.14185,-2.66687,0.95417,1.57080,0.11681,-0.13197,-0.44703,0.06308,,,,,,,,,,,,,,,,,,,,,,,,,,0,0,0,0,0
0.8657,1783721322.0706,1,1,1.0000,-0.0000,1.42052,0.14185,-2.66687,0.95417,1.57080,0.11681,-0.13197,-0.44703,0.06308,,,,,,,,,,,,,,,,,,,,,,,,,,0,0,0,0,0
0.8805,1783721322.0855,1,1,1.0000,-0.0000,1.42052,0.14185,-2.66687,0.95417,1.57080,0.11681,-0.13197,-0.44703,0.06308,,,,,,,,,,,,,,,,,,,,,,,,,,0,0,0,0,0
0.8809,1783721322.0858,1,1,1.0000,-0.0000,1.42052,0.14185,-2.66687,0.95417,1.57080,0.11681,-0.13197,-0.44703,0.06308,,,,,,,,,,,,,,,,,,,,,,,,,,0,0,0,0,0
0.8879,1783721322.0929,1,1,1.0000,-0.0000,1.42052,0.14185,-2.66687,0.95417,1.57080,0.11681,-0.13197,-0.44703,0.06308,,,,,,,,,,,,,,,,,,,,,,,,,,0,0,0,0,0
0.8883,1783721322.0933,1,1,1.0000,-0.0000,1.42052,0.14185,-2.66687,0.95417,1.57080,0.11681,-0.13197,-0.44703,0.06308,,,,,,,,,,,,,,,,,,,,,,,,,,0,0,0,0,0
0.8975,1783721322.1024,1,1,1.0000,-0.0000,1.42052,0.14185,-2.66687,0.95417,1.57080,0.11681,-0.13197,-0.44703,0.06308,,,,,,,,,,,,,,,,,,,,,,,,,,0,0,0,0,0
0.8979,1783721322.1028,1,1,1.0000,-0.0000,1.42052,0.14185,-2.66687,0.95417,1.57080,0.11681,-0.13197,-0.44703,0.06308,,,,,,,,,,,,,,,,,,,,,,,,,,0,0,0,0,0
0.9107,1783721322.1157,1,1,1.0000,-0.0000,1.42052,0.14185,-2.66687,0.95417,1.57080,0.11681,-0.13197,-0.44703,0.06308,,,,,,,,,,,,,,,,,,,,,,,,,,0,0,0,0,0
0.9148,1783721322.1197,1,1,1.0000,-0.0000,1.42052,0.14185,-2.66687,0.95417,1.57080,0.11681,-0.13197,-0.44703,0.06308,,,,,,,,,,,,,,,,,,,,,,,,,,0,0,0,0,0
0.9152,1783721322.1202,1,1,1.0000,-0.0000,1.42052,0.14185,-2.66687,0.95417,1.57080,0.11681,-0.13197,-0.44703,0.06308,,,,,,,,,,,,,,,,,,,,,,,,,,0,0,0,0,0
0.9255,1783721322.1304,1,1,1.0000,-0.0000,1.42052,0.14185,-2.66687,0.95417,1.57080,0.11681,-0.13197,-0.44703,0.06308,,,,,,,,,,,,,,,,,,,,,,,,,,0,0,0,0,0
0.9419,1783721322.1468,1,1,1.0000,-0.0000,1.42052,0.14185,-2.66687,0.95417,1.57080,0.11681,-0.13197,-0.44703,0.06308,,,,,,,,,,,,,,,,,,,,,,,,,,0,0,0,0,0
0.9486,1783721322.1535,1,1,1.0000,-0.0000,1.42052,0.14185,-2.66687,0.95417,1.57080,0.11681,-0.13197,-0.44703,0.06308,,,,,,,,,,,,,,,,,,,,,,,,,,0,0,0,0,0
0.9491,1783721322.1540,1,1,1.0000,-0.0000,1.42052,0.14185,-2.66687,0.95417,1.57080,0.11681,-0.13197,-0.44703,0.06308,,,,,,,,,,,,,,,,,,,,,,,,,,0,0,0,0,0
0.9546,1783721322.1595,1,1,1.0000,-0.0000,1.42052,0.14185,-2.66687,0.95417,1.57080,0.11681,-0.13197,-0.44703,0.06308,,,,,,,,,,,,,,,,,,,,,,,,,,0,0,0,0,0
0.9550,1783721322.1600,1,1,1.0000,-0.0000,1.42052,0.14185,-2.66687,0.95417,1.57080,0.11681,-0.13197,-0.44703,0.06308,,,,,,,,,,,,,,,,,,,,,,,,,,0,0,0,0,0
0.9669,1783721322.1718,1,1,1.0000,-0.0000,1.42052,0.14185,-2.66687,0.95417,1.57080,0.11681,-0.13197,-0.44703,0.06308,,,,,,,,,,,,,,,,,,,,,,,,,,0,0,0,0,0
0.9758,1783721322.1807,1,1,1.0000,-0.0000,1.42052,0.14185,-2.66687,0.95417,1.57080,0.11681,-0.13197,-0.44703,0.06308,,,,,,,,,,,,,,,,,,,,,,,,,,0,0,0,0,0
0.9892,1783721322.1941,1,1,1.0000,-0.0000,1.42052,0.14185,-2.66687,0.95417,1.57080,0.11681,-0.13197,-0.44703,0.06308,,,,,,,,,,,,,,,,,,,,,,,,,,0,0,0,0,0
0.9895,1783721322.1944,1,1,1.0000,-0.0000,1.42052,0.14185,-2.66687,0.95417,1.57080,0.11681,-0.13197,-0.44703,0.06308,,,,,,,,,,,,,,,,,,,,,,,,,,0,0,0,0,0
0.9948,1783721322.1997,1,1,1.0000,-0.0000,1.42052,0.14185,-2.66687,0.95417,1.57080,0.11681,-0.13197,-0.44703,0.06308,,,,,,,,,,,,,,,,,,,,,,,,,,0,0,0,0,0
0.9951,1783721322.2000,1,1,1.0000,-0.0000,1.42052,0.14185,-2.66687,0.95417,1.57080,0.11681,-0.13197,-0.44703,0.06308,,,,,,,,,,,,,,,,,,,,,,,,,,0,0,0,0,0
1.0083,1783721322.2132,1,1,1.0000,-0.0000,1.42052,0.14185,-2.66687,0.95417,1.57080,0.11681,-0.13197,-0.44703,0.06308,,,,,,,,,,,,,,,,,,,,,,,,,,0,0,0,0,0
1.0160,1783721322.2210,1,1,1.0000,-0.0000,1.42052,0.14185,-2.66688,0.95417,1.57080,0.11681,-0.13197,-0.44703,0.06308,,,,,,,,,,,,,,,,,,,,,,,,,,0,0,0,0,0
1.0292,1783721322.2341,1,1,1.0000,-0.0000,1.42052,0.14184,-2.66689,0.95418,1.57080,0.11681,-0.13197,-0.44702,0.06307,,,,,,,,,,,,,,,,,,,,,,,,,,0,0,0,0,0
1.0459,1783721322.2508,1,1,1.0000,-0.0000,1.42052,0.14183,-2.66692,0.95419,1.57080,0.11681,-0.13197,-0.44700,0.06305,,,,,,,,,,,,,,,,,,,,,,,,,,0,0,0,0,0
1.0467,1783721322.2516,1,1,1.0000,-0.0000,1.42052,0.14183,-2.66692,0.95419,1.57080,0.11681,-0.13197,-0.44700,0.06305,,,,,,,,,,,,,,,,,,,,,,,,,,0,0,0,0,0
1.0557,1783721322.2607,1,1,1.0000,-0.0000,1.42052,0.14182,-2.66693,0.95420,1.57080,0.11681,-0.13198,-0.44700,0.06305,,,,,,,,,,,,,,,,,,,,,,,,,,0,0,0,0,0
1.0652,1783721322.2702,1,1,1.0000,-0.0000,1.42052,0.14179,-2.66695,0.95424,1.57080,0.11681,-0.13198,-0.44699,0.06303,,,,,,,,,,,,,,,,,,,,,,,,,,0,0,0,0,0
1.0753,1783721322.2802,1,1,1.0000,-0.0000,1.42052,0.14176,-2.66697,0.95427,1.57080,0.11681,-0.13198,-0.44698,0.06301,,,,,,,,,,,,,,,,,,,,,,,,,,0,0,0,0,0
1.0876,1783721322.2925,1,1,1.0000,-0.0000,1.42052,0.14166,-2.66702,0.95439,1.57080,0.11681,-0.13198,-0.44696,0.06297,,,,,,,,,,,,,,,,,,,,,,,,,,0,0,0,0,0
1.0954,1783721322.3003,1,1,1.0000,-0.0000,1.42052,0.14155,-2.66707,0.95453,1.57080,0.11681,-0.13198,-0.44695,0.06292,,,,,,,,,,,,,,,,,,,,,,,,,,0,0,0,0,0
1.0958,1783721322.3008,1,1,1.0000,-0.0000,1.42052,0.14155,-2.66707,0.95453,1.57080,0.11681,-0.13198,-0.44695,0.06292,,,,,,,,,,,,,,,,,,,,,,,,,,0,0,0,0,0
1.1056,1783721322.3105,1,1,1.0000,-0.0000,1.42052,0.14148,-2.66710,0.95461,1.57080,0.11681,-0.13198,-0.44694,0.06289,,,,,,,,,,,,,,,,,,,,,,,,,,0,0,0,0,0
1.1191,1783721322.3241,1,1,1.0000,-0.0000,1.42052,0.14130,-2.66715,0.95483,1.57080,0.11681,-0.13198,-0.44694,0.06283,,,,,,,,,,,,,,,,,,,,,,,,,,0,0,0,0,0
1.1322,1783721322.3372,1,1,1.0000,-0.0000,1.42051,0.14099,-2.66725,0.95523,1.57080,0.11681,-0.13198,-0.44693,0.06272,,,,,,,,,,,,,,,,,,,,,,,,,,0,0,0,0,0
1.1487,1783721322.3536,1,1,1.0000,-0.0000,1.42051,0.14080,-2.66730,0.95546,1.57080,0.11681,-0.13198,-0.44693,0.06265,,,,,,,,,,,,,,,,,,,,,,,,,,0,0,0,0,0
1.1491,1783721322.3540,1,1,1.0000,-0.0000,1.42051,0.14080,-2.66730,0.95546,1.57080,0.11681,-0.13198,-0.44693,0.06265,,,,,,,,,,,,,,,,,,,,,,,,,,0,0,0,0,0
1.1594,1783721322.3643,1,1,1.0000,-0.0000,1.42051,0.14050,-2.66738,0.95584,1.57080,0.11681,-0.13198,-0.44694,0.06255,,,,,,,,,,,,,,,,,,,,,,,,,,0,0,0,0,0
1.1669,1783721322.3718,1,1,1.0000,-0.0000,1.42051,0.14036,-2.66742,0.95602,1.57080,0.11681,-0.13198,-0.44694,0.06251,,,,,,,,,,,,,,,,,,,,,,,,,,0,0,0,0,0
1.1783,1783721322.3833,1,1,1.0000,-0.0000,1.42051,0.13974,-2.66759,0.95681,1.57080,0.11681,-0.13198,-0.44694,0.06230,,,,,,,,,,,,,,,,,,,,,,,,,,0,0,0,0,0
1.1853,1783721322.3903,1,1,1.0000,-0.0000,1.42051,0.13945,-2.66767,0.95718,1.57080,0.11681,-0.13198,-0.44694,0.06220,,,,,,,,,,,,,,,,,,,,,,,,,,0,0,0,0,0
1.1964,1783721322.4013,1,1,1.0000,-0.0000,1.42051,0.13882,-2.66785,0.95798,1.57080,0.11681,-0.13198,-0.44695,0.06199,,,,,,,,,,,,,,,,,,,,,,,,,,0,0,0,0,0
1.2051,1783721322.4100,1,1,1.0000,-0.0000,1.42051,0.13869,-2.66789,0.95815,1.57080,0.11681,-0.13198,-0.44695,0.06195,,,,,,,,,,,,,,,,,,,,,,,,,,0,0,0,0,0
1.2158,1783721322.4207,1,1,1.0000,-0.0000,1.42050,0.13809,-2.66805,0.95893,1.57080,0.11681,-0.13198,-0.44695,0.06175,,,,,,,,,,,,,,,,,,,,,,,,,,0,0,0,0,0
1.2288,1783721322.4337,1,1,1.0000,-0.0000,1.42050,0.13750,-2.66822,0.95968,1.57080,0.11681,-0.13197,-0.44696,0.06155,,,,,,,,,,,,,,,,,,,,,,,,,,0,0,0,0,0
1.2353,1783721322.4402,1,1,1.0000,-0.0000,1.42050,0.13734,-2.66826,0.95989,1.57080,0.11681,-0.13197,-0.44696,0.06150,,,,,,,,,,,,,,,,,,,,,,,,,,0,0,0,0,0
1.2493,1783721322.4542,1,1,1.0000,-0.0000,1.42049,0.13662,-2.66847,0.96082,1.57080,0.11681,-0.13197,-0.44697,0.06126,,,,,,,,,,,,,,,,,,,,,,,,,,0,0,0,0,0
1.2600,1783721322.4649,1,1,1.0000,-0.0000,1.42049,0.13641,-2.66852,0.96108,1.57080,0.11681,-0.13197,-0.44697,0.06119,,,,,,,,,,,,,,,,,,,,,,,,,,0,0,0,0,0
1.2667,1783721322.4716,1,1,1.0000,-0.0000,1.42049,0.13588,-2.66868,0.96177,1.57080,0.11681,-0.13197,-0.44697,0.06101,,,,,,,,,,,,,,,,,,,,,,,,,,0,0,0,0,0
1.2673,1783721322.4722,1,1,1.0000,-0.0000,1.42049,0.13588,-2.66868,0.96177,1.57080,0.11681,-0.13197,-0.44697,0.06101,,,,,,,,,,,,,,,,,,,,,,,,,,0,0,0,0,0
1.2795,1783721322.4845,1,1,1.0000,-0.0000,1.42048,0.13468,-2.66902,0.96332,1.57080,0.11681,-0.13196,-0.44697,0.06061,,,,,,,,,,,,,,,,,,,,,,,,,,0,0,0,0,0
1.2869,1783721322.4918,1,1,1.0000,-0.0000,1.42048,0.13463,-2.66903,0.96338,1.57080,0.11681,-0.13196,-0.44697,0.06059,,,,,,,,,,,,,,,,,,,,,,,,,,0,0,0,0,0
1.2986,1783721322.5035,1,1,1.0000,-0.0000,1.42048,0.13398,-2.66922,0.96422,1.57080,0.11681,-0.13196,-0.44698,0.06038,,,,,,,,,,,,,,,,,,,,,,,,,,0,0,0,0,0
1.2991,1783721322.5041,1,1,1.0000,-0.0000,1.42048,0.13398,-2.66922,0.96422,1.57080,0.11681,-0.13196,-0.44698,0.06038,,,,,,,,,,,,,,,,,,,,,,,,,,0,0,0,0,0
1.3069,1783721322.5118,1,1,1.0000,-0.0000,1.42048,0.13324,-2.66943,0.96518,1.57080,0.11681,-0.13196,-0.44698,0.06013,,,,,,,,,,,,,,,,,,,,,,,,,,0,0,0,0,0
1.3072,1783721322.5122,1,1,1.0000,-0.0000,1.42048,0.13324,-2.66943,0.96518,1.57080,0.11681,-0.13196,-0.44698,0.06013,,,,,,,,,,,,,,,,,,,,,,,,,,0,0,0,0,0
1.3215,1783721322.5264,1,1,1.0000,-0.0000,1.42047,0.13276,-2.66956,0.96580,1.57080,0.11681,-0.13196,-0.44698,0.05997,,,,,,,,,,,,,,,,,,,,,,,,,,0,0,0,0,0
1.3304,1783721322.5353,1,1,1.0000,-0.0000,1.42047,0.13208,-2.66976,0.96668,1.57080,0.11681,-0.13196,-0.44699,0.05974,,,,,,,,,,,,,,,,,,,,,,,,,,0,0,0,0,0
1.3391,1783721322.5441,1,1,1.0000,-0.0000,1.42047,0.13171,-2.66986,0.96715,1.57080,0.11681,-0.13196,-0.44699,0.05962,,,,,,,,,,,,,,,,,,,,,,,,,,0,0,0,0,0
1.3396,1783721322.5445,1,1,1.0000,-0.0000,1.42047,0.13171,-2.66986,0.96715,1.57080,0.11681,-0.13196,-0.44699,0.05962,,,,,,,,,,,,,,,,,,,,,,,,,,0,0,0,0,0
1.3562,1783721322.5611,1,1,1.0000,-0.0000,1.42046,0.13087,-2.67010,0.96824,1.57080,0.11681,-0.13195,-0.44699,0.05934,,,,,,,,,,,,,,,,,,,,,,,,,,0,0,0,0,0
1.3691,1783721322.5740,1,1,1.0000,-0.0000,1.42046,0.12950,-2.67049,0.97001,1.57080,0.11681,-0.13195,-0.44700,0.05889,,,,,,,,,,,,,,,,,,,,,,,,,,0,0,0,0,0
1.3722,1783721322.5771,1,1,1.0000,-0.0000,1.42046,0.12950,-2.67049,0.97001,1.57080,0.11681,-0.13195,-0.44700,0.05889,,,,,,,,,,,,,,,,,,,,,,,,,,0,0,0,0,0
1.3725,1783721322.5775,1,1,1.0000,-0.0000,1.42046,0.12950,-2.67049,0.97001,1.57080,0.11681,-0.13195,-0.44700,0.05889,,,,,,,,,,,,,,,,,,,,,,,,,,0,0,0,0,0
1.3815,1783721322.5865,1,1,1.0000,-0.0000,1.42046,0.12930,-2.67054,0.97027,1.57080,0.11681,-0.13195,-0.44700,0.05882,,,,,,,,,,,,,,,,,,,,,,,,,,0,0,0,0,0
1.3852,1783721322.5901,1,1,1.0000,-0.0000,1.42046,0.12906,-2.67061,0.97058,1.57080,0.11681,-0.13195,-0.44700,0.05875,,,,,,,,,,,,,,,,,,,,,,,,,,0,0,0,0,0
1.3955,1783721322.6005,1,1,1.0000,-0.0000,1.42045,0.12798,-2.67091,0.97198,1.57080,0.11681,-0.13194,-0.44701,0.05839,,,,,,,,,,,,,,,,,,,,,,,,,,0,0,0,0,0
1.4095,1783721322.6144,1,1,1.0000,-0.0000,1.42045,0.12706,-2.67117,0.97317,1.57080,0.11681,-0.13194,-0.44701,0.05808,,,,,,,,,,,,,,,,,,,,,,,,,,0,0,0,0,0
1.4217,1783721322.6266,1,1,1.0000,-0.0000,1.42045,0.12667,-2.67128,0.97367,1.57080,0.11681,-0.13194,-0.44701,0.05796,,,,,,,,,,,,,,,,,,,,,,,,,,0,0,0,0,0
1.4271,1783721322.6321,1,1,1.0000,-0.0000,1.42044,0.12608,-2.67144,0.97443,1.57080,0.11681,-0.13194,-0.44702,0.05776,,,,,,,,,,,,,,,,,,,,,,,,,,0,0,0,0,0
1.4370,1783721322.6419,1,1,1.0000,-0.0000,1.42044,0.12602,-2.67146,0.97451,1.57080,0.11681,-0.13194,-0.44702,0.05774,,,,,,,,,,,,,,,,,,,,,,,,,,0,0,0,0,0
1.4585,1783721322.6635,1,1,1.0000,-0.0000,1.42043,0.12396,-2.67204,0.97715,1.57080,0.11681,-0.13193,-0.44702,0.05706,,,,,,,,,,,,,,,,,,,,,,,,,,0,0,0,0,0
1.4722,1783721322.6771,1,1,1.0000,-0.0000,1.42043,0.12376,-2.67209,0.97741,1.57080,0.11681,-0.13193,-0.44702,0.05699,,,,,,,,,,,,,,,,,,,,,,,,,,0,0,0,0,0
1.4753,1783721322.6802,1,1,1.0000,-0.0000,1.42043,0.12352,-2.67216,0.97771,1.57080,0.11681,-0.13193,-0.44702,0.05691,,,,,,,,,,,,,,,,,,,,,,,,,,0,0,0,0,0
1.4872,1783721322.6921,1,1,1.0000,-0.0000,1.42043,0.12243,-2.67246,0.97912,1.57081,0.11681,-0.13193,-0.44702,0.05655,,,,,,,,,,,,,,,,,,,,,,,,,,0,0,0,0,0
1.5030,1783721322.7079,1,1,1.0000,-0.0000,1.42042,0.12177,-2.67265,0.97996,1.57081,0.11681,-0.13193,-0.44702,0.05634,,,,,,,,,,,,,,,,,,,,,,,,,,0,0,0,0,0
1.5059,1783721322.7108,1,1,1.0000,-0.0000,1.42042,0.12177,-2.67265,0.97996,1.57081,0.11681,-0.13193,-0.44702,0.05634,,,,,,,,,,,,,,,,,,,,,,,,,,0,0,0,0,0
1.5065,1783721322.7114,1,1,1.0000,-0.0000,1.42042,0.12154,-2.67271,0.98026,1.57081,0.11681,-0.13193,-0.44702,0.05626,,,,,,,,,,,,,,,,,,,,,,,,,,0,0,0,0,0
1.5151,1783721322.7200,1,1,1.0000,-0.0000,1.42042,0.12087,-2.67290,0.98112,1.57081,0.11681,-0.13193,-0.44702,0.05604,,,,,,,,,,,,,,,,,,,,,,,,,,0,0,0,0,0
1.5286,1783721322.7335,1,1,1.0000,-0.0000,1.42042,0.12064,-2.67296,0.98142,1.57081,0.11681,-0.13193,-0.44703,0.05596,,,,,,,,,,,,,,,,,,,,,,,,,,0,0,0,0,0
1.5290,1783721322.7339,1,1,1.0000,-0.0000,1.42042,0.12064,-2.67296,0.98142,1.57081,0.11681,-0.13193,-0.44703,0.05596,,,,,,,,,,,,,,,,,,,,,,,,,,0,0,0,0,0
1.5354,1783721322.7403,1,1,1.0000,-0.0000,1.42041,0.12001,-2.67313,0.98221,1.57081,0.11681,-0.13192,-0.44703,0.05576,,,,,,,,,,,,,,,,,,,,,,,,,,0,0,0,0,0
1.5453,1783721322.7502,1,1,1.0000,-0.0000,1.42041,0.11913,-2.67338,0.98335,1.57081,0.11681,-0.13192,-0.44703,0.05547,,,,,,,,,,,,,,,,,,,,,,,,,,0,0,0,0,0
1.5561,1783721322.7610,1,1,1.0000,-0.0000,1.42041,0.11810,-2.67366,0.98466,1.57081,0.11681,-0.13192,-0.44703,0.05513,,,,,,,,,,,,,,,,,,,,,,,,,,0,0,0,0,0
1.5671,1783721322.7721,1,1,1.0000,-0.0000,1.42040,0.11771,-2.67377,0.98516,1.57081,0.11681,-0.13192,-0.44703,0.05500,,,,,,,,,,,,,,,,,,,,,,,,,,0,0,0,0,0
1.6608,1783721322.8657,1,1,1.0000,-0.0000,1.42038,0.11225,-2.67525,0.99212,1.57082,0.11681,-0.13191,-0.44703,0.05322,,,,,,,,,,,,,,,,,,,,,,,,,,0,0,0,0,0
1.6613,1783721322.8663,1,1,1.0000,-0.0000,1.42038,0.11225,-2.67525,0.99212,1.57082,0.11681,-0.13191,-0.44703,0.05322,,,,,,,,,,,,,,,,,,,,,,,,,,0,0,0,0,0
1.6616,1783721322.8665,1,1,1.0000,-0.0000,1.42038,0.11225,-2.67525,0.99212,1.57082,0.11681,-0.13191,-0.44703,0.05322,,,,,,,,,,,,,,,,,,,,,,,,,,0,0,0,0,0
1.6620,1783721322.8669,1,1,1.0000,-0.0000,1.42038,0.11225,-2.67525,0.99212,1.57082,0.11681,-0.13191,-0.44703,0.05322,,,,,,,,,,,,,,,,,,,,,,,,,,0,0,0,0,0
1.6629,1783721322.8678,1,1,1.0000,-0.0000,1.42038,0.11187,-2.67535,0.99260,1.57082,0.11681,-0.13191,-0.44703,0.05309,,,,,,,,,,,,,,,,,,,,,,,,,,0,0,0,0,0
1.6631,1783721322.8681,1,1,1.0000,-0.0000,1.42038,0.11187,-2.67535,0.99260,1.57082,0.11681,-0.13191,-0.44703,0.05309,,,,,,,,,,,,,,,,,,,,,,,,,,0,0,0,0,0
1.6657,1783721322.8706,1,1,1.0000,-0.0000,1.42038,0.11187,-2.67535,0.99260,1.57082,0.11681,-0.13191,-0.44703,0.05309,,,,,,,,,,,,,,,,,,,,,,,,,,0,0,0,0,0
1.6661,1783721322.8710,1,1,1.0000,-0.0000,1.42038,0.11187,-2.67535,0.99260,1.57082,0.11681,-0.13191,-0.44703,0.05309,,,,,,,,,,,,,,,,,,,,,,,,,,0,0,0,0,0
1.6774,1783721322.8823,1,1,1.0000,-0.0000,1.42037,0.11099,-2.67559,0.99372,1.57082,0.11681,-0.13190,-0.44703,0.05280,,,,,,,,,,,,,,,,,,,,,,,,,,0,0,0,0,0
1.6887,1783721322.8936,1,1,1.0000,-0.0000,1.42037,0.11055,-2.67571,0.99428,1.57082,0.11681,-0.13190,-0.44703,0.05266,,,,,,,,,,,,,,,,,,,,,,,,,,0,0,0,0,0
1.6953,1783721322.9003,1,1,1.0000,-0.0000,1.42037,0.10987,-2.67589,0.99515,1.57082,0.11681,-0.13190,-0.44703,0.05244,,,,,,,,,,,,,,,,,,,,,,,,,,0,0,0,0,0
1.7180,1783721322.9229,1,1,1.0000,-0.0000,1.42037,0.10902,-2.67612,0.99622,1.57082,0.11681,-0.13190,-0.44703,0.05217,,,,,,,,,,,,,,,,,,,,,,,,,,0,0,0,0,0
1.7204,1783721322.9253,1,1,1.0000,-0.0000,1.42036,0.10861,-2.67623,0.99675,1.57082,0.11681,-0.13190,-0.44703,0.05203,,,,,,,,,,,,,,,,,,,,,,,,,,0,0,0,0,0
1.7207,1783721322.9256,1,1,1.0000,-0.0000,1.42036,0.10861,-2.67623,0.99675,1.57082,0.11681,-0.13190,-0.44703,0.05203,,,,,,,,,,,,,,,,,,,,,,,,,,0,0,0,0,0
1.7334,1783721322.9383,1,1,1.0000,-0.0000,1.42036,0.10765,-2.67648,0.99797,1.57082,0.11681,-0.13190,-0.44704,0.05172,,,,,,,,,,,,,,,,,,,,,,,,,,0,0,0,0,0
1.7411,1783721322.9460,1,1,1.0000,-0.0000,1.42036,0.10745,-2.67654,0.99823,1.57082,0.11681,-0.13189,-0.44704,0.05166,,,,,,,,,,,,,,,,,,,,,,,,,,0,0,0,0,0
1.7454,1783721322.9503,1,1,1.0000,-0.0000,1.42036,0.10721,-2.67660,0.99852,1.57082,0.11681,-0.13189,-0.44704,0.05158,,,,,,,,,,,,,,,,,,,,,,,,,,0,0,0,0,0
1.7624,1783721322.9673,1,1,1.0000,-0.0000,1.42035,0.10517,-2.67714,1.00111,1.57083,0.11681,-0.13189,-0.44704,0.05092,,,,,,,,,,,,,,,,,,,,,,,,,,0,0,0,0,0
1.7627,1783721322.9676,1,1,1.0000,-0.0000,1.42035,0.10517,-2.67714,1.00111,1.57083,0.11681,-0.13189,-0.44704,0.05092,,,,,,,,,,,,,,,,,,,,,,,,,,0,0,0,0,0
1.7676,1783721322.9725,1,1,1.0000,-0.0000,1.42035,0.10517,-2.67714,1.00111,1.57083,0.11681,-0.13189,-0.44704,0.05092,,,,,,,,,,,,,,,,,,,,,,,,,,0,0,0,0,0
1.7751,1783721322.9800,1,1,1.0000,-0.0000,1.42035,0.10498,-2.67719,1.00135,1.57083,0.11681,-0.13189,-0.44704,0.05086,,,,,,,,,,,,,,,,,,,,,,,,,,0,0,0,0,0
1.7755,1783721322.9804,1,1,1.0000,-0.0000,1.42035,0.10498,-2.67719,1.00135,1.57083,0.11681,-0.13189,-0.44704,0.05086,,,,,,,,,,,,,,,,,,,,,,,,,,0,0,0,0,0
1.7870,1783721322.9920,1,1,1.0000,-0.0000,1.42034,0.10414,-2.67741,1.00241,1.57083,0.11681,-0.13189,-0.44704,0.05059,,,,,,,,,,,,,,,,,,,,,,,,,,0,0,0,0,0
1.7971,1783721323.0020,1,1,1.0000,-0.0000,1.42034,0.10408,-2.67743,1.00248,1.57083,0.11681,-0.13189,-0.44704,0.05057,,,,,,,,,,,,,,,,,,,,,,,,,,0,0,0,0,0
1.8110,1783721323.0159,1,1,1.0000,-0.0000,1.42034,0.10292,-2.67773,1.00395,1.57083,0.11681,-0.13188,-0.44704,0.05019,,,,,,,,,,,,,,,,,,,,,,,,,,0,0,0,0,0
1.8171,1783721323.0220,1,1,1.0000,-0.0000,1.42034,0.10246,-2.67785,1.00452,1.57083,0.11681,-0.13188,-0.44704,0.05005,,,,,,,,,,,,,,,,,,,,,,,,,,0,0,0,0,0
1.8307,1783721323.0356,1,1,1.0000,-0.0000,1.42033,0.10178,-2.67803,1.00539,1.57083,0.11681,-0.13188,-0.44704,0.04983,,,,,,,,,,,,,,,,,,,,,,,,,,0,0,0,0,0
1.8363,1783721323.0412,1,1,1.0000,-0.0000,1.42033,0.10154,-2.67809,1.00569,1.57083,0.11681,-0.13188,-0.44704,0.04975,,,,,,,,,,,,,,,,,,,,,,,,,,0,0,0,0,0
1.8453,1783721323.0502,1,1,1.0000,-0.0000,1.42033,0.10087,-2.67826,1.00653,1.57083,0.11681,-0.13188,-0.44704,0.04953,,,,,,,,,,,,,,,,,,,,,,,,,,0,0,0,0,0
1.8679,1783721323.0728,1,1,1.0000,-0.0000,1.42032,0.09957,-2.67860,1.00817,1.57083,0.11681,-0.13188,-0.44704,0.04912,,,,,,,,,,,,,,,,,,,,,,,,,,0,0,0,0,0
1.8714,1783721323.0763,1,1,1.0000,-0.0000,1.42032,0.09926,-2.67868,1.00856,1.57083,0.11681,-0.13188,-0.44704,0.04902,,,,,,,,,,,,,,,,,,,,,,,,,,0,0,0,0,0
1.8721,1783721323.0770,1,1,1.0000,-0.0000,1.42032,0.09926,-2.67868,1.00856,1.57083,0.11681,-0.13188,-0.44704,0.04902,,,,,,,,,,,,,,,,,,,,,,,,,,0,0,0,0,0
1.8786,1783721323.0836,1,1,1.0000,-0.0000,1.42032,0.09889,-2.67877,1.00902,1.57084,0.11681,-0.13188,-0.44704,0.04890,,,,,,,,,,,,,,,,,,,,,,,,,,0,0,0,0,0
1.8791,1783721323.0840,1,1,1.0000,-0.0000,1.42032,0.09889,-2.67877,1.00902,1.57084,0.11681,-0.13188,-0.44704,0.04890,,,,,,,,,,,,,,,,,,,,,,,,,,0,0,0,0,0
1.8873,1783721323.0922,1,1,1.0000,-0.0000,1.42032,0.09865,-2.67884,1.00933,1.57084,0.11680,-0.13188,-0.44704,0.04882,,,,,,,,,,,,,,,,,,,,,,,,,,0,0,0,0,0
1.8877,1783721323.0926,1,1,1.0000,-0.0000,1.42032,0.09865,-2.67884,1.00933,1.57084,0.11680,-0.13188,-0.44704,0.04882,,,,,,,,,,,,,,,,,,,,,,,,,,0,0,0,0,0
1.8962,1783721323.1011,1,1,1.0000,-0.0000,1.42032,0.09800,-2.67900,1.01013,1.57084,0.11680,-0.13187,-0.44704,0.04861,,,,,,,,,,,,,,,,,,,,,,,,,,0,0,0,0,0
1.9054,1783721323.1104,1,1,1.0000,-0.0000,1.42031,0.09708,-2.67924,1.01129,1.57084,0.11680,-0.13187,-0.44704,0.04832,,,,,,,,,,,,,,,,,,,,,,,,,,0,0,0,0,0
1.9057,1783721323.1107,1,1,1.0000,-0.0000,1.42031,0.09708,-2.67924,1.01129,1.57084,0.11680,-0.13187,-0.44704,0.04832,,,,,,,,,,,,,,,,,,,,,,,,,,0,0,0,0,0
1.9171,1783721323.1221,1,1,1.0000,-0.0000,1.42031,0.09649,-2.67939,1.01203,1.57084,0.11680,-0.13187,-0.44704,0.04813,,,,,,,,,,,,,,,,,,,,,,,,,,0,0,0,0,0
1.9383,1783721323.1432,1,1,1.0000,-0.0000,1.42030,0.09491,-2.67979,1.01402,1.57084,0.11680,-0.13187,-0.44704,0.04762,,,,,,,,,,,,,,,,,,,,,,,,,,0,0,0,0,0
1.9436,1783721323.1485,1,1,1.0000,-0.0000,1.42030,0.09442,-2.67992,1.01463,1.57084,0.11680,-0.13187,-0.44703,0.04747,,,,,,,,,,,,,,,,,,,,,,,,,,0,0,0,0,0
1.9453,1783721323.1503,1,1,1.0000,-0.0000,1.42030,0.09442,-2.67992,1.01463,1.57084,0.11680,-0.13187,-0.44703,0.04747,,,,,,,,,,,,,,,,,,,,,,,,,,0,0,0,0,0
1.9457,1783721323.1506,1,1,1.0000,-0.0000,1.42030,0.09442,-2.67992,1.01463,1.57084,0.11680,-0.13187,-0.44703,0.04747,,,,,,,,,,,,,,,,,,,,,,,,,,0,0,0,0,0
1.9676,1783721323.1725,1,1,1.0000,-0.0000,1.42030,0.09325,-2.68021,1.01610,1.57084,0.11680,-0.13186,-0.44704,0.04709,,,,,,,,,,,,,,,,,,,,,,,,,,0,0,0,0,0
1.9682,1783721323.1731,1,1,1.0000,-0.0000,1.42030,0.09325,-2.68021,1.01610,1.57084,0.11680,-0.13186,-0.44704,0.04709,,,,,,,,,,,,,,,,,,,,,,,,,,0,0,0,0,0
1.9792,1783721323.1841,1,1,1.0000,-0.0000,1.42029,0.09272,-2.68035,1.01676,1.57084,0.11680,-0.13186,-0.44704,0.04693,,,,,,,,,,,,,,,,,,,,,,,,,,0,0,0,0,0
1.9885,1783721323.1935,1,1,1.0000,-0.0000,1.42029,0.09192,-2.68055,1.01777,1.57085,0.11680,-0.13186,-0.44704,0.04667,,,,,,,,,,,,,,,,,,,,,,,,,,0,0,0,0,0
1.9889,1783721323.1938,1,1,1.0000,-0.0000,1.42029,0.09192,-2.68055,1.01777,1.57085,0.11680,-0.13186,-0.44704,0.04667,,,,,,,,,,,,,,,,,,,,,,,,,,0,0,0,0,0
1.9959,1783721323.2008,1,1,1.0000,-0.0000,1.42029,0.09090,-2.68081,1.01904,1.57085,0.11680,-0.13186,-0.44704,0.04635,,,,,,,,,,,,,,,,,,,,,,,,,,0,0,0,0,0
2.0068,1783721323.2117,1,1,1.0000,-0.0000,1.42028,0.09030,-2.68096,1.01979,1.57085,0.11680,-0.13186,-0.44704,0.04616,,,,,,,,,,,,,,,,,,,,,,,,,,0,0,0,0,0
2.0153,1783721323.2203,1,1,1.0000,-0.0000,1.42028,0.08994,-2.68105,1.02024,1.57085,0.11680,-0.13186,-0.44704,0.04605,,,,,,,,,,,,,,,,,,,,,,,,,,0,0,0,0,0
2.0261,1783721323.2310,1,1,1.0000,-0.0000,1.42028,0.08931,-2.68120,1.02103,1.57085,0.11680,-0.13185,-0.44704,0.04585,,,,,,,,,,,,,,,,,,,,,,,,,,0,0,0,0,0
2.0351,1783721323.2400,1,1,1.0000,-0.0000,1.42028,0.08850,-2.68141,1.02205,1.57085,0.11680,-0.13185,-0.44703,0.04559,,,,,,,,,,,,,,,,,,,,,,,,,,0,0,0,0,0
2.0354,1783721323.2403,1,1,1.0000,-0.0000,1.42028,0.08850,-2.68141,1.02205,1.57085,0.11680,-0.13185,-0.44703,0.04559,,,,,,,,,,,,,,,,,,,,,,,,,,0,0,0,0,0
2.0473,1783721323.2523,1,1,1.0000,-0.0000,1.42027,0.08807,-2.68152,1.02259,1.57085,0.11680,-0.13185,-0.44703,0.04545,,,,,,,,,,,,,,,,,,,,,,,,,,0,0,0,0,0
2.0562,1783721323.2612,1,1,1.0000,-0.0000,1.42027,0.08739,-2.68168,1.02343,1.57085,0.11680,-0.13185,-0.44703,0.04524,,,,,,,,,,,,,,,,,,,,,,,,,,0,0,0,0,0
2.0673,1783721323.2723,1,1,1.0000,-0.0000,1.42027,0.08715,-2.68174,1.02373,1.57085,0.11680,-0.13185,-0.44703,0.04516,,,,,,,,,,,,,,,,,,,,,,,,,,0,0,0,0,0
2.0678,1783721323.2727,1,1,1.0000,-0.0000,1.42027,0.08715,-2.68174,1.02373,1.57085,0.11680,-0.13185,-0.44703,0.04516,,,,,,,,,,,,,,,,,,,,,,,,,,0,0,0,0,0
2.0753,1783721323.2802,1,1,1.0000,-0.0000,1.42027,0.08650,-2.68190,1.02454,1.57085,0.11680,-0.13185,-0.44703,0.04496,,,,,,,,,,,,,,,,,,,,,,,,,,0,0,0,0,0
2.0884,1783721323.2934,1,1,1.0000,-0.0000,1.42026,0.08504,-2.68226,1.02635,1.57086,0.11680,-0.13185,-0.44703,0.04450,,,,,,,,,,,,,,,,,,,,,,,,,,0,0,0,0,0
2.0988,1783721323.3037,1,1,1.0000,-0.0000,1.42026,0.08483,-2.68232,1.02662,1.57086,0.11680,-0.13184,-0.44703,0.04443,,,,,,,,,,,,,,,,,,,,,,,,,,0,0,0,0,0
2.1096,1783721323.3146,1,1,1.0000,-0.0000,1.42026,0.08425,-2.68246,1.02734,1.57086,0.11680,-0.13184,-0.44703,0.04425,,,,,,,,,,,,,,,,,,,,,,,,,,0,0,0,0,0
2.1170,1783721323.3219,1,1,1.0000,-0.0000,1.42026,0.08342,-2.68266,1.02837,1.57086,0.11680,-0.13184,-0.44703,0.04399,,,,,,,,,,,,,,,,,,,,,,,,,,0,0,0,0,0
2.1264,1783721323.3313,1,1,1.0000,-0.0000,1.42025,0.08295,-2.68278,1.02897,1.57086,0.11680,-0.13184,-0.44703,0.04384,,,,,,,,,,,,,,,,,,,,,,,,,,0,0,0,0,0
2.1396,1783721323.3445,1,1,1.0000,-0.0000,1.42025,0.08216,-2.68297,1.02994,1.57086,0.11680,-0.13184,-0.44704,0.04359,,,,,,,,,,,,,,,,,,,,,,,,,,0,0,0,0,0
2.1495,1783721323.3544,1,1,1.0000,-0.0000,1.42025,0.08178,-2.68306,1.03042,1.57086,0.11680,-0.13184,-0.44704,0.04347,,,,,,,,,,,,,,,,,,,,,,,,,,0,0,0,0,0
2.1553,1783721323.3602,1,1,1.0000,-0.0000,1.42025,0.08153,-2.68312,1.03073,1.57086,0.11680,-0.13184,-0.44704,0.04339,,,,,,,,,,,,,,,,,,,,,,,,,,0,0,0,0,0
2.1701,1783721323.3751,1,1,1.0000,-0.0000,1.42024,0.08044,-2.68338,1.03208,1.57087,0.11680,-0.13183,-0.44704,0.04305,,,,,,,,,,,,,,,,,,,,,,,,,,0,0,0,0,0
2.1706,1783721323.3756,1,1,1.0000,-0.0000,1.42024,0.08044,-2.68338,1.03208,1.57087,0.11680,-0.13183,-0.44704,0.04305,,,,,,,,,,,,,,,,,,,,,,,,,,0,0,0,0,0
2.1773,1783721323.3822,1,1,1.0000,-0.0000,1.42024,0.07942,-2.68363,1.03335,1.57087,0.11680,-0.13183,-0.44704,0.04273,,,,,,,,,,,,,,,,,,,,,,,,,,0,0,0,0,0
2.1852,1783721323.3901,1,1,1.0000,-0.0000,1.42024,0.07887,-2.68376,1.03404,1.57087,0.11680,-0.13183,-0.44704,0.04256,,,,,,,,,,,,,,,,,,,,,,,,,,0,0,0,0,0
2.2009,1783721323.4058,1,1,1.0000,-0.0000,1.42023,0.07815,-2.68393,1.03493,1.57087,0.11680,-0.13183,-0.44704,0.04234,,,,,,,,,,,,,,,,,,,,,,,,,,0,0,0,0,0
2.2115,1783721323.4164,1,1,1.0000,-0.0000,1.42023,0.07694,-2.68422,1.03643,1.57087,0.11680,-0.13183,-0.44704,0.04196,,,,,,,,,,,,,,,,,,,,,,,,,,0,0,0,0,0
2.2168,1783721323.4218,1,1,1.0000,-0.0000,1.42023,0.07694,-2.68422,1.03643,1.57087,0.11680,-0.13183,-0.44704,0.04196,,,,,,,,,,,,,,,,,,,,,,,,,,0,0,0,0,0
2.2172,1783721323.4221,1,1,1.0000,-0.0000,1.42023,0.07694,-2.68422,1.03643,1.57087,0.11680,-0.13183,-0.44704,0.04196,,,,,,,,,,,,,,,,,,,,,,,,,,0,0,0,0,0
2.2287,1783721323.4336,1,1,1.0000,-0.0000,1.42023,0.07649,-2.68433,1.03698,1.57088,0.11680,-0.13182,-0.44704,0.04182,,,,,,,,,,,,,,,,,,,,,,,,,,0,0,0,0,0
2.2449,1783721323.4498,1,1,1.0000,-0.0000,1.42022,0.07574,-2.68451,1.03791,1.57088,0.11680,-0.13182,-0.44704,0.04159,,,,,,,,,,,,,,,,,,,,,,,,,,0,0,0,0,0
2.2494,1783721323.4543,1,1,1.0000,-0.0000,1.42022,0.07557,-2.68455,1.03813,1.57088,0.11680,-0.13182,-0.44704,0.04153,,,,,,,,,,,,,,,,,,,,,,,,,,0,0,0,0,0
2.2564,1783721323.4613,1,1,1.0000,-0.0000,1.42022,0.07493,-2.68470,1.03892,1.57088,0.11680,-0.13182,-0.44704,0.04134,,,,,,,,,,,,,,,,,,,,,,,,,,0,0,0,0,0
2.2649,1783721323.4698,1,1,1.0000,-0.0000,1.42022,0.07403,-2.68491,1.04003,1.57088,0.11680,-0.13182,-0.44704,0.04106,,,,,,,,,,,,,,,,,,,,,,,,,,0,0,0,0,0
2.2775,1783721323.4824,1,1,1.0000,-0.0000,1.42021,0.07346,-2.68505,1.04073,1.57088,0.11680,-0.13182,-0.44704,0.04088,,,,,,,,,,,,,,,,,,,,,,,,,,0,0,0,0,0
2.2954,1783721323.5004,1,1,1.0000,-0.0000,1.42021,0.07197,-2.68540,1.04258,1.57089,0.11680,-0.13181,-0.44704,0.04041,,,,,,,,,,,,,,,,,,,,,,,,,,0,0,0,0,0
2.2959,1783721323.5008,1,1,1.0000,-0.0000,1.42021,0.07197,-2.68540,1.04258,1.57089,0.11680,-0.13181,-0.44704,0.04041,,,,,,,,,,,,,,,,,,,,,,,,,,0,0,0,0,0
2.3051,1783721323.5101,1,1,1.0000,-0.0000,1.42021,0.07151,-2.68551,1.04314,1.57089,0.11680,-0.13181,-0.44704,0.04027,,,,,,,,,,,,,,,,,,,,,,,,,,0,0,0,0,0
2.3164,1783721323.5213,1,1,1.0000,-0.0000,1.42020,0.07105,-2.68562,1.04371,1.57089,0.11680,-0.13181,-0.44704,0.04013,,,,,,,,,,,,,,,,,,,,,,,,,,0,0,0,0,0
2.3250,1783721323.5300,1,1,1.0000,-0.0000,1.42020,0.07033,-2.68578,1.04459,1.57089,0.11680,-0.13181,-0.44704,0.03991,,,,,,,,,,,,,,,,,,,,,,,,,,0,0,0,0,0
2.3371,1783721323.5420,1,1,1.0000,-0.0000,1.42020,0.07008,-2.68584,1.04491,1.57089,0.11680,-0.13181,-0.44704,0.03983,,,,,,,,,,,,,,,,,,,,,,,,,,0,0,0,0,0
2.3476,1783721323.5525,1,1,1.0000,-0.0000,1.42020,0.06894,-2.68611,1.04631,1.57089,0.11679,-0.13181,-0.44704,0.03948,,,,,,,,,,,,,,,,,,,,,,,,,,0,0,0,0,0
2.3480,1783721323.5529,1,1,1.0000,-0.0000,1.42020,0.06894,-2.68611,1.04631,1.57089,0.11679,-0.13181,-0.44704,0.03948,,,,,,,,,,,,,,,,,,,,,,,,,,0,0,0,0,0
2.3565,1783721323.5614,1,1,1.0000,-0.0000,1.42019,0.06788,-2.68636,1.04762,1.57090,0.11679,-0.13180,-0.44704,0.03915,,,,,,,,,,,,,,,,,,,,,,,,,,0,0,0,0,0
2.3690,1783721323.5739,1,1,1.0000,-0.0000,1.42019,0.06766,-2.68641,1.04789,1.57090,0.11679,-0.13180,-0.44704,0.03908,,,,,,,,,,,,,,,,,,,,,,,,,,0,0,0,0,0
2.3775,1783721323.5824,1,1,1.0000,-0.0000,1.42019,0.06706,-2.68655,1.04862,1.57090,0.11679,-0.13180,-0.44704,0.03890,,,,,,,,,,,,,,,,,,,,,,,,,,0,0,0,0,0
2.3862,1783721323.5911,1,1,1.0000,-0.0000,1.42019,0.06621,-2.68674,1.04968,1.57090,0.11679,-0.13180,-0.44704,0.03863,,,,,,,,,,,,,,,,,,,,,,,,,,0,0,0,0,0
2.3953,1783721323.6002,1,1,1.0000,-0.0000,1.42018,0.06519,-2.68698,1.05093,1.57091,0.11679,-0.13180,-0.44704,0.03832,,,,,,,,,,,,,,,,,,,,,,,,,,0,0,0,0,0
2.4056,1783721323.6105,1,1,1.0000,-0.0000,1.42018,0.06500,-2.68702,1.05116,1.57091,0.11679,-0.13180,-0.44703,0.03826,,,,,,,,,,,,,,,,,,,,,,,,,,0,0,0,0,0
2.4214,1783721323.6263,1,1,1.0000,-0.0000,1.42018,0.06413,-2.68722,1.05223,1.57091,0.11679,-0.13180,-0.44703,0.03800,,,,,,,,,,,,,,,,,,,,,,,,,,0,0,0,0,0
2.4216,1783721323.6266,1,1,1.0000,-0.0000,1.42018,0.06413,-2.68722,1.05223,1.57091,0.11679,-0.13180,-0.44703,0.03800,,,,,,,,,,,,,,,,,,,,,,,,,,0,0,0,0,0
2.4275,1783721323.6324,1,1,1.0000,-0.0000,1.42018,0.06390,-2.68728,1.05252,1.57091,0.11679,-0.13179,-0.44703,0.03792,,,,,,,,,,,,,,,,,,,,,,,,,,0,0,0,0,0
2.4277,1783721323.6326,1,1,1.0000,-0.0000,1.42018,0.06390,-2.68728,1.05252,1.57091,0.11679,-0.13179,-0.44703,0.03792,,,,,,,,,,,,,,,,,,,,,,,,,,0,0,0,0,0
2.4357,1783721323.6406,1,1,1.0000,-0.0000,1.42017,0.06327,-2.68742,1.05328,1.57091,0.11679,-0.13179,-0.44703,0.03773,,,,,,,,,,,,,,,,,,,,,,,,,,0,0,0,0,0
2.4466,1783721323.6516,1,1,1.0000,-0.0000,1.42017,0.06239,-2.68762,1.05437,1.57091,0.11679,-0.13179,-0.44703,0.03746,,,,,,,,,,,,,,,,,,,,,,,,,,0,0,0,0,0
2.4570,1783721323.6620,1,1,1.0000,-0.0000,1.42017,0.06182,-2.68775,1.05506,1.57092,0.11679,-0.13179,-0.44703,0.03729,,,,,,,,,,,,,,,,,,,,,,,,,,0,0,0,0,0
2.4666,1783721323.6716,1,1,1.0000,-0.0000,1.42017,0.06142,-2.68784,1.05555,1.57092,0.11679,-0.13179,-0.44703,0.03717,,,,,,,,,,,,,,,,,,,,,,,,,,0,0,0,0,0
2.4790,1783721323.6839,1,1,1.0000,-0.0000,1.42016,0.06029,-2.68810,1.05694,1.57092,0.11679,-0.13179,-0.44703,0.03682,,,,,,,,,,,,,,,,,,,,,,,,,,0,0,0,0,0
2.4853,1783721323.6902,1,1,1.0000,-0.0000,1.42016,0.05982,-2.68820,1.05752,1.57092,0.11679,-0.13178,-0.44703,0.03667,,,,,,,,,,,,,,,,,,,,,,,,,,0,0,0,0,0
2.4857,1783721323.6907,1,1,1.0000,-0.0000,1.42016,0.05982,-2.68820,1.05752,1.57092,0.11679,-0.13178,-0.44703,0.03667,,,,,,,,,,,,,,,,,,,,,,,,,,0,0,0,0,0
2.4967,1783721323.7016,1,1,1.0000,-0.0000,1.42016,0.05935,-2.68831,1.05809,1.57092,0.11679,-0.13178,-0.44703,0.03653,,,,,,,,,,,,,,,,,,,,,,,,,,0,0,0,0,0
2.5051,1783721323.7100,1,1,1.0000,-0.0000,1.42016,0.05862,-2.68847,1.05899,1.57093,0.11679,-0.13178,-0.44703,0.03631,,,,,,,,,,,,,,,,,,,,,,,,,,0,0,0,0,0
2.5211,1783721323.7260,1,1,1.0000,-0.0000,1.42015,0.05806,-2.68860,1.05967,1.57093,0.11679,-0.13178,-0.44703,0.03614,,,,,,,,,,,,,,,,,,,,,,,,,,0,0,0,0,0
2.5302,1783721323.7352,1,1,1.0000,-0.0000,1.42015,0.05720,-2.68879,1.06072,1.57093,0.11679,-0.13178,-0.44703,0.03588,,,,,,,,,,,,,,,,,,,,,,,,,,0,0,0,0,0
2.5355,1783721323.7404,1,1,1.0000,-0.0000,1.42015,0.05612,-2.68903,1.06204,1.57094,0.11679,-0.13178,-0.44703,0.03555,,,,,,,,,,,,,,,,,,,,,,,,,,0,0,0,0,0
2.5358,1783721323.7407,1,1,1.0000,-0.0000,1.42015,0.05612,-2.68903,1.06204,1.57094,0.11679,-0.13178,-0.44703,0.03555,,,,,,,,,,,,,,,,,,,,,,,,,,0,0,0,0,0
2.5467,1783721323.7516,1,1,1.0000,-0.0000,1.42015,0.05606,-2.68904,1.06211,1.57094,0.11679,-0.13177,-0.44703,0.03553,,,,,,,,,,,,,,,,,,,,,,,,,,0,0,0,0,0
2.5573,1783721323.7622,1,1,1.0000,-0.0000,1.42014,0.05529,-2.68921,1.06306,1.57094,0.11679,-0.13177,-0.44703,0.03530,,,,,,,,,,,,,,,,,,,,,,,,,,0,0,0,0,0
2.5657,1783721323.7706,1,1,1.0000,-0.0000,1.42014,0.05442,-2.68941,1.06412,1.57094,0.11679,-0.13177,-0.44703,0.03503,,,,,,,,,,,,,,,,,,,,,,,,,,0,0,0,0,0
2.5815,1783721323.7864,1,1,1.0000,-0.0000,1.42014,0.05370,-2.68957,1.06501,1.57094,0.11679,-0.13177,-0.44703,0.03481,,,,,,,,,,,,,,,,,,,,,,,,,,0,0,0,0,0
2.5874,1783721323.7923,1,1,1.0000,-0.0000,1.42013,0.05311,-2.68970,1.06573,1.57095,0.11679,-0.13177,-0.44703,0.03463,,,,,,,,,,,,,,,,,,,,,,,,,,0,0,0,0,0
2.5879,1783721323.7929,1,1,1.0000,-0.0000,1.42013,0.05311,-2.68970,1.06573,1.57095,0.11679,-0.13177,-0.44703,0.03463,,,,,,,,,,,,,,,,,,,,,,,,,,0,0,0,0,0
2.5955,1783721323.8004,1,1,1.0000,-0.0000,1.42013,0.05225,-2.68989,1.06678,1.57095,0.11679,-0.13177,-0.44703,0.03437,,,,,,,,,,,,,,,,,,,,,,,,,,0,0,0,0,0
2.5958,1783721323.8008,1,1,1.0000,-0.0000,1.42013,0.05225,-2.68989,1.06678,1.57095,0.11679,-0.13177,-0.44703,0.03437,,,,,,,,,,,,,,,,,,,,,,,,,,0,0,0,0,0
2.6051,1783721323.8100,1,1,1.0000,-0.0000,1.42013,0.05219,-2.68990,1.06685,1.57095,0.11679,-0.13176,-0.44703,0.03435,,,,,,,,,,,,,,,,,,,,,,,,,,0,0,0,0,0
2.6162,1783721323.8211,1,1,1.0000,-0.0000,1.42013,0.05137,-2.69008,1.06784,1.57095,0.11678,-0.13176,-0.44703,0.03411,,,,,,,,,,,,,,,,,,,,,,,,,,0,0,0,0,0
2.6291,1783721323.8341,1,1,1.0000,-0.0000,1.42012,0.04994,-2.69039,1.06960,1.57096,0.11678,-0.13176,-0.44703,0.03367,,,,,,,,,,,,,,,,,,,,,,,,,,0,0,0,0,0
2.6383,1783721323.8433,1,1,1.0000,-0.0000,1.42012,0.04988,-2.69041,1.06967,1.57096,0.11678,-0.13176,-0.44703,0.03366,,,,,,,,,,,,,,,,,,,,,,,,,,0,0,0,0,0
2.6453,1783721323.8502,1,1,1.0000,-0.0000,1.42012,0.04946,-2.69050,1.07018,1.57096,0.11678,-0.13176,-0.44703,0.03353,,,,,,,,,,,,,,,,,,,,,,,,,,0,0,0,0,0
2.6557,1783721323.8606,1,1,1.0000,-0.0000,1.42012,0.04826,-2.69076,1.07163,1.57096,0.11678,-0.13175,-0.44703,0.03317,,,,,,,,,,,,,,,,,,,,,,,,,,0,0,0,0,0
2.6694,1783721323.8743,1,1,1.0000,-0.0000,1.42011,0.04771,-2.69088,1.07230,1.57096,0.11678,-0.13175,-0.44703,0.03300,,,,,,,,,,,,,,,,,,,,,,,,,,0,0,0,0,0
2.6865,1783721323.8914,1,1,1.0000,-0.0000,1.42011,0.04656,-2.69112,1.07371,1.57097,0.11678,-0.13175,-0.44703,0.03266,,,,,,,,,,,,,,,,,,,,,,,,,,0,0,0,0,0
2.6888,1783721323.8938,1,1,1.0000,-0.0000,1.42011,0.04656,-2.69112,1.07371,1.57097,0.11678,-0.13175,-0.44703,0.03266,,,,,,,,,,,,,,,,,,,,,,,,,,0,0,0,0,0
2.6893,1783721323.8942,1,1,1.0000,-0.0000,1.42011,0.04656,-2.69112,1.07371,1.57097,0.11678,-0.13175,-0.44703,0.03266,,,,,,,,,,,,,,,,,,,,,,,,,,0,0,0,0,0
2.6996,1783721323.9046,1,1,1.0000,-0.0000,1.42011,0.04601,-2.69124,1.07438,1.57097,0.11678,-0.13175,-0.44703,0.03249,,,,,,,,,,,,,,,,,,,,,,,,,,0,0,0,0,0
2.7060,1783721323.9109,1,1,1.0000,-0.0000,1.42011,0.04562,-2.69132,1.07484,1.57097,0.11678,-0.13175,-0.44703,0.03237,,,,,,,,,,,,,,,,,,,,,,,,,,0,0,0,0,0
2.7194,1783721323.9243,1,1,1.0000,-0.0000,1.42010,0.04410,-2.69165,1.07669,1.57097,0.11678,-0.13174,-0.44703,0.03192,,,,,,,,,,,,,,,,,,,,,,,,,,0,0,0,0,0
2.7275,1783721323.9324,1,1,1.0000,-0.0000,1.42010,0.04388,-2.69170,1.07696,1.57098,0.11678,-0.13174,-0.44703,0.03185,,,,,,,,,,,,,,,,,,,,,,,,,,0,0,0,0,0
2.7355,1783721323.9404,1,1,1.0000,-0.0000,1.42010,0.04328,-2.69183,1.07769,1.57098,0.11678,-0.13174,-0.44703,0.03167,,,,,,,,,,,,,,,,,,,,,,,,,,0,0,0,0,0
2.7358,1783721323.9407,1,1,1.0000,-0.0000,1.42010,0.04328,-2.69183,1.07769,1.57098,0.11678,-0.13174,-0.44703,0.03167,,,,,,,,,,,,,,,,,,,,,,,,,,0,0,0,0,0
2.7528,1783721323.9578,1,1,1.0000,-0.0000,1.42009,0.04191,-2.69212,1.07935,1.57098,0.11678,-0.13174,-0.44703,0.03126,,,,,,,,,,,,,,,,,,,,,,,,,,0,0,0,0,0
2.7569,1783721323.9618,1,1,1.0000,-0.0000,1.42009,0.04185,-2.69213,1.07942,1.57098,0.11678,-0.13174,-0.44703,0.03124,,,,,,,,,,,,,,,,,,,,,,,,,,0,0,0,0,0
2.7572,1783721323.9621,1,1,1.0000,-0.0000,1.42009,0.04185,-2.69213,1.07942,1.57098,0.11678,-0.13174,-0.44703,0.03124,,,,,,,,,,,,,,,,,,,,,,,,,,0,0,0,0,0
2.7670,1783721323.9720,1,1,1.0000,-0.0000,1.42009,0.04142,-2.69222,1.07994,1.57098,0.11678,-0.13174,-0.44703,0.03112,,,,,,,,,,,,,,,,,,,,,,,,,,0,0,0,0,0
2.7796,1783721323.9845,1,1,1.0000,-0.0000,1.42009,0.04019,-2.69248,1.08143,1.57098,0.11678,-0.13174,-0.44704,0.03075,,,,,,,,,,,,,,,,,,,,,,,,,,0,0,0,0,0
2.7875,1783721323.9924,1,1,1.0000,-0.0000,1.42008,0.03995,-2.69253,1.08173,1.57099,0.11678,-0.13174,-0.44704,0.03067,,,,,,,,,,,,,,,,,,,,,,,,,,0,0,0,0,0
2.7878,1783721323.9927,1,1,1.0000,-0.0000,1.42008,0.03995,-2.69253,1.08173,1.57099,0.11678,-0.13174,-0.44704,0.03067,,,,,,,,,,,,,,,,,,,,,,,,,,0,0,0,0,0
2.7967,1783721324.0017,1,1,1.0000,-0.0000,1.42008,0.03929,-2.69267,1.08252,1.57099,0.11678,-0.13173,-0.44704,0.03048,,,,,,,,,,,,,,,,,,,,,,,,,,0,0,0,0,0
2.8101,1783721324.0150,1,1,1.0000,-0.0000,1.42008,0.03782,-2.69298,1.08430,1.57099,0.11677,-0.13173,-0.44703,0.03004,,,,,,,,,,,,,,,,,,,,,,,,,,0,0,0,0,0
2.8154,1783721324.0204,1,1,1.0000,-0.0000,1.42008,0.03776,-2.69299,1.08437,1.57099,0.11677,-0.13173,-0.44703,0.03002,,,,,,,,,,,,,,,,,,,,,,,,,,0,0,0,0,0
2.8373,1783721324.0422,1,1,1.0000,-0.0000,1.42007,0.03616,-2.69332,1.08630,1.57099,0.11677,-0.13173,-0.44703,0.02955,,,,,,,,,,,,,,,,,,,,,,,,,,0,0,0,0,0
2.8382,1783721324.0432,1,1,1.0000,-0.0000,1.42007,0.03616,-2.69332,1.08630,1.57099,0.11677,-0.13173,-0.44703,0.02955,,,,,,,,,,,,,,,,,,,,,,,,,,0,0,0,0,0
2.8468,1783721324.0517,1,1,1.0000,-0.0000,1.42007,0.03567,-2.69342,1.08689,1.57099,0.11677,-0.13173,-0.44703,0.02940,,,,,,,,,,,,,,,,,,,,,,,,,,0,0,0,0,0
2.8560,1783721324.0610,1,1,1.0000,-0.0000,1.42007,0.03520,-2.69352,1.08747,1.57100,0.11677,-0.13173,-0.44703,0.02926,,,,,,,,,,,,,,,,,,,,,,,,,,0,0,0,0,0
2.8654,1783721324.0703,1,1,1.0000,-0.0000,1.42006,0.03446,-2.69367,1.08835,1.57100,0.11677,-0.13172,-0.44703,0.02904,,,,,,,,,,,,,,,,,,,,,,,,,,0,0,0,0,0
2.8757,1783721324.0806,1,1,1.0000,-0.0000,1.42006,0.03420,-2.69373,1.08866,1.57100,0.11677,-0.13172,-0.44703,0.02896,,,,,,,,,,,,,,,,,,,,,,,,,,0,0,0,0,0
2.8919,1783721324.0969,1,1,1.0000,-0.0000,1.42006,0.03255,-2.69407,1.09066,1.57100,0.11677,-0.13172,-0.44703,0.02847,,,,,,,,,,,,,,,,,,,,,,,,,,0,0,0,0,0
2.8924,1783721324.0973,1,1,1.0000,-0.0000,1.42006,0.03255,-2.69407,1.09066,1.57100,0.11677,-0.13172,-0.44703,0.02847,,,,,,,,,,,,,,,,,,,,,,,,,,0,0,0,0,0
2.8956,1783721324.1005,1,1,1.0000,-0.0000,1.42006,0.03199,-2.69418,1.09133,1.57100,0.11677,-0.13172,-0.44703,0.02831,,,,,,,,,,,,,,,,,,,,,,,,,,0,0,0,0,0
2.9116,1783721324.1165,1,1,1.0000,-0.0000,1.42005,0.03149,-2.69428,1.09193,1.57100,0.11677,-0.13172,-0.44703,0.02816,,,,,,,,,,,,,,,,,,,,,,,,,,0,0,0,0,0
2.9186,1783721324.1235,1,1,1.0000,-0.0000,1.42005,0.03114,-2.69436,1.09236,1.57100,0.11677,-0.13172,-0.44703,0.02806,,,,,,,,,,,,,,,,,,,,,,,,,,0,0,0,0,0
2.9253,1783721324.1302,1,1,1.0000,-0.0000,1.42005,0.03024,-2.69454,1.09344,1.57100,0.11677,-0.13172,-0.44703,0.02779,,,,,,,,,,,,,,,,,,,,,,,,,,0,0,0,0,0
2.9375,1783721324.1424,1,1,1.0000,-0.0000,1.42005,0.02966,-2.69466,1.09414,1.57101,0.11677,-0.13171,-0.44703,0.02762,,,,,,,,,,,,,,,,,,,,,,,,,,0,0,0,0,0
2.9450,1783721324.1499,1,1,1.0000,-0.0000,1.42005,0.02922,-2.69475,1.09467,1.57101,0.11677,-0.13171,-0.44703,0.02749,,,,,,,,,,,,,,,,,,,,,,,,,,0,0,0,0,0
2.9454,1783721324.1503,1,1,1.0000,-0.0000,1.42005,0.02922,-2.69475,1.09467,1.57101,0.11677,-0.13171,-0.44703,0.02749,,,,,,,,,,,,,,,,,,,,,,,,,,0,0,0,0,0
2.9558,1783721324.1607,1,1,1.0000,-0.0000,1.42004,0.02795,-2.69500,1.09619,1.57101,0.11677,-0.13171,-0.44703,0.02711,,,,,,,,,,,,,,,,,,,,,,,,,,0,0,0,0,0
2.9700,1783721324.1749,1,1,1.0000,-0.0000,1.42004,0.02771,-2.69505,1.09649,1.57101,0.11677,-0.13171,-0.44703,0.02704,,,,,,,,,,,,,,,,,,,,,,,,,,0,0,0,0,0
2.9900,1783721324.1949,1,1,1.0000,-0.0000,1.42003,0.02560,-2.69548,1.09902,1.57101,0.11676,-0.13171,-0.44703,0.02642,,,,,,,,,,,,,,,,,,,,,,,,,,0,0,0,0,0
2.9971,1783721324.2020,1,1,1.0000,-0.0000,1.42003,0.02554,-2.69549,1.09909,1.57101,0.11676,-0.13171,-0.44703,0.02640,,,,,,,,,,,,,,,,,,,,,,,,,,0,0,0,0,0
3.0077,1783721324.2126,1,1,1.0000,-0.0000,1.42003,0.02479,-2.69564,1.09999,1.57101,0.11676,-0.13170,-0.44703,0.02618,,,,,,,,,,,,,,,,,,,,,,,,,,0,0,0,0,0
3.0081,1783721324.2130,1,1,1.0000,-0.0000,1.42003,0.02479,-2.69564,1.09999,1.57101,0.11676,-0.13170,-0.44703,0.02618,,,,,,,,,,,,,,,,,,,,,,,,,,0,0,0,0,0
3.0219,1783721324.2268,1,1,1.0000,-0.0000,1.42002,0.02344,-2.69591,1.10160,1.57101,0.11676,-0.13170,-0.44703,0.02579,,,,,,,,,,,,,,,,,,,,,,,,,,0,0,0,0,0
3.0265,1783721324.2315,1,1,1.0000,-0.0000,1.42002,0.02344,-2.69591,1.10160,1.57101,0.11676,-0.13170,-0.44703,0.02579,,,,,,,,,,,,,,,,,,,,,,,,,,0,0,0,0,0
3.0372,1783721324.2421,1,1,1.0000,-0.0000,1.42002,0.02296,-2.69600,1.10218,1.57102,0.11676,-0.13170,-0.44703,0.02565,,,,,,,,,,,,,,,,,,,,,,,,,,0,0,0,0,0
3.0477,1783721324.2526,1,1,1.0000,-0.0000,1.42002,0.02222,-2.69615,1.10306,1.57102,0.11676,-0.13170,-0.44703,0.02543,,,,,,,,,,,,,,,,,,,,,,,,,,0,0,0,0,0
3.0481,1783721324.2530,1,1,1.0000,-0.0000,1.42002,0.02222,-2.69615,1.10306,1.57102,0.11676,-0.13170,-0.44703,0.02543,,,,,,,,,,,,,,,,,,,,,,,,,,0,0,0,0,0
3.0600,1783721324.2649,1,1,1.0000,-0.0000,1.42002,0.02166,-2.69626,1.10375,1.57102,0.11676,-0.13170,-0.44703,0.02526,,,,,,,,,,,,,,,,,,,,,,,,,,0,0,0,0,0
3.0773,1783721324.2822,1,1,1.0000,-0.0000,1.42001,0.01967,-2.69665,1.10612,1.57102,0.11676,-0.13169,-0.44704,0.02468,,,,,,,,,,,,,,,,,,,,,,,,,,0,0,0,0,0
3.0778,1783721324.2827,1,1,1.0000,-0.0000,1.42001,0.01967,-2.69665,1.10612,1.57102,0.11676,-0.13169,-0.44704,0.02468,,,,,,,,,,,,,,,,,,,,,,,,,,0,0,0,0,0
3.0781,1783721324.2830,1,1,1.0000,-0.0000,1.42001,0.01967,-2.69665,1.10612,1.57102,0.11676,-0.13169,-0.44704,0.02468,,,,,,,,,,,,,,,,,,,,,,,,,,0,0,0,0,0
3.0916,1783721324.2966,1,1,1.0000,-0.0000,1.42001,0.01841,-2.69689,1.10763,1.57102,0.11676,-0.13169,-0.44704,0.02432,,,,,,,,,,,,,,,,,,,,,,,,,,0,0,0,0,0
3.0966,1783721324.3015,1,1,1.0000,-0.0000,1.42001,0.01828,-2.69692,1.10779,1.57102,0.11676,-0.13169,-0.44704,0.02428,,,,,,,,,,,,,,,,,,,,,,,,,,0,0,0,0,0
3.0970,1783721324.3020,1,1,1.0000,-0.0000,1.42001,0.01828,-2.69692,1.10779,1.57102,0.11676,-0.13169,-0.44704,0.02428,,,,,,,,,,,,,,,,,,,,,,,,,,0,0,0,0,0
3.1079,1783721324.3128,1,1,1.0000,-0.0000,1.42000,0.01744,-2.69708,1.10880,1.57102,0.11676,-0.13169,-0.44704,0.02403,,,,,,,,,,,,,,,,,,,,,,,,,,0,0,0,0,0
3.1159,1783721324.3208,1,1,1.0000,-0.0000,1.42000,0.01705,-2.69716,1.10926,1.57102,0.11676,-0.13169,-0.44704,0.02392,,,,,,,,,,,,,,,,,,,,,,,,,,0,0,0,0,0
3.1164,1783721324.3213,1,1,1.0000,-0.0000,1.42000,0.01705,-2.69716,1.10926,1.57102,0.11676,-0.13169,-0.44704,0.02392,,,,,,,,,,,,,,,,,,,,,,,,,,0,0,0,0,0
3.1253,1783721324.3302,1,1,1.0000,-0.0000,1.42000,0.01682,-2.69720,1.10953,1.57102,0.11676,-0.13169,-0.44704,0.02385,,,,,,,,,,,,,,,,,,,,,,,,,,0,0,0,0,0
3.1256,1783721324.3305,1,1,1.0000,-0.0000,1.42000,0.01682,-2.69720,1.10953,1.57102,0.11676,-0.13169,-0.44704,0.02385,,,,,,,,,,,,,,,,,,,,,,,,,,0,0,0,0,0
3.1360,1783721324.3409,1,1,1.0000,-0.0000,1.42000,0.01584,-2.69739,1.11071,1.57103,0.11675,-0.13169,-0.44704,0.02356,,,,,,,,,,,,,,,,,,,,,,,,,,0,0,0,0,0
3.1364,1783721324.3413,1,1,1.0000,-0.0000,1.42000,0.01584,-2.69739,1.11071,1.57103,0.11675,-0.13169,-0.44704,0.02356,,,,,,,,,,,,,,,,,,,,,,,,,,0,0,0,0,0
3.1462,1783721324.3512,1,1,1.0000,-0.0000,1.42000,0.01577,-2.69740,1.11078,1.57103,0.11675,-0.13169,-0.44704,0.02355,,,,,,,,,,,,,,,,,,,,,,,,,,0,0,0,0,0
3.1595,1783721324.3645,1,1,1.0000,-0.0000,1.41999,0.01451,-2.69765,1.11229,1.57103,0.11675,-0.13168,-0.44704,0.02318,,,,,,,,,,,,,,,,,,,,,,,,,,0,0,0,0,0
3.1680,1783721324.3729,1,1,1.0000,-0.0000,1.41999,0.01349,-2.69784,1.11351,1.57103,0.11675,-0.13168,-0.44704,0.02288,,,,,,,,,,,,,,,,,,,,,,,,,,0,0,0,0,0
3.1804,1783721324.3853,1,1,1.0000,-0.0000,1.41999,0.01327,-2.69789,1.11377,1.57103,0.11675,-0.13168,-0.44704,0.02282,,,,,,,,,,,,,,,,,,,,,,,,,,0,0,0,0,0
3.1875,1783721324.3925,1,1,1.0000,-0.0000,1.41999,0.01266,-2.69800,1.11449,1.57103,0.11675,-0.13168,-0.44704,0.02264,,,,,,,,,,,,,,,,,,,,,,,,,,0,0,0,0,0
3.1879,1783721324.3928,1,1,1.0000,-0.0000,1.41999,0.01266,-2.69800,1.11449,1.57103,0.11675,-0.13168,-0.44704,0.02264,,,,,,,,,,,,,,,,,,,,,,,,,,0,0,0,0,0
3.1960,1783721324.4010,1,1,1.0000,-0.0000,1.41998,0.01179,-2.69817,1.11554,1.57103,0.11675,-0.13168,-0.44704,0.02239,,,,,,,,,,,,,,,,,,,,,,,,,,0,0,0,0,0
3.2229,1783721324.4279,1,1,1.0000,-0.0000,1.41998,0.01042,-2.69843,1.11716,1.57103,0.11675,-0.13168,-0.44704,0.02199,,,,,,,,,,,,,,,,,,,,,,,,,,0,0,0,0,0
3.2237,1783721324.4286,1,1,1.0000,-0.0000,1.41998,0.00999,-2.69851,1.11767,1.57103,0.11675,-0.13168,-0.44704,0.02187,,,,,,,,,,,,,,,,,,,,,,,,,,0,0,0,0,0
3.2409,1783721324.4459,1,1,1.0000,-0.0000,1.41998,0.00942,-2.69862,1.11835,1.57104,0.11675,-0.13167,-0.44704,0.02170,,,,,,,,,,,,,,,,,,,,,,,,,,0,0,0,0,0
3.2414,1783721324.4463,1,1,1.0000,-0.0000,1.41998,0.00942,-2.69862,1.11835,1.57104,0.11675,-0.13167,-0.44704,0.02170,,,,,,,,,,,,,,,,,,,,,,,,,,0,0,0,0,0
3.2515,1783721324.4564,1,1,1.0000,-0.0000,1.41997,0.00799,-2.69889,1.12004,1.57104,0.11675,-0.13167,-0.44703,0.02129,,,,,,,,,,,,,,,,,,,,,,,,,,0,0,0,0,0
3.2568,1783721324.4617,1,1,1.0000,-0.0000,1.41997,0.00741,-2.69900,1.12073,1.57104,0.11675,-0.13167,-0.44703,0.02112,,,,,,,,,,,,,,,,,,,,,,,,,,0,0,0,0,0
3.2572,1783721324.4621,1,1,1.0000,-0.0000,1.41997,0.00741,-2.69900,1.12073,1.57104,0.11675,-0.13167,-0.44703,0.02112,,,,,,,,,,,,,,,,,,,,,,,,,,0,0,0,0,0
3.2805,1783721324.4854,1,1,1.0000,-0.0000,1.41996,0.00612,-2.69924,1.12226,1.57104,0.11674,-0.13167,-0.44703,0.02075,,,,,,,,,,,,,,,,,,,,,,,,,,0,0,0,0,0
3.2810,1783721324.4859,1,1,1.0000,-0.0000,1.41996,0.00612,-2.69924,1.12226,1.57104,0.11674,-0.13167,-0.44703,0.02075,,,,,,,,,,,,,,,,,,,,,,,,,,0,0,0,0,0
3.2999,1783721324.5048,1,1,1.0000,-0.0000,1.41996,0.00489,-2.69947,1.12373,1.57104,0.11674,-0.13167,-0.44703,0.02039,,,,,,,,,,,,,,,,,,,,,,,,,,0,0,0,0,0
3.3004,1783721324.5053,1,1,1.0000,-0.0000,1.41996,0.00489,-2.69947,1.12373,1.57104,0.11674,-0.13167,-0.44703,0.02039,,,,,,,,,,,,,,,,,,,,,,,,,,0,0,0,0,0
3.3121,1783721324.5171,1,1,1.0000,-0.0000,1.41996,0.00384,-2.69967,1.12497,1.57104,0.11674,-0.13166,-0.44703,0.02009,,,,,,,,,,,,,,,,,,,,,,,,,,0,0,0,0,0
3.3156,1783721324.5205,1,1,1.0000,-0.0000,1.41995,0.00336,-2.69976,1.12553,1.57104,0.11674,-0.13166,-0.44703,0.01995,,,,,,,,,,,,,,,,,,,,,,,,,,0,0,0,0,0
3.3438,1783721324.5487,1,1,1.0000,-0.0000,1.41995,0.00154,-2.70009,1.12769,1.57105,0.11674,-0.13166,-0.44703,0.01943,,,,,,,,,,,,,,,,,,,,,,,,,,0,0,0,0,0
3.3442,1783721324.5492,1,1,1.0000,-0.0000,1.41995,0.00154,-2.70009,1.12769,1.57105,0.11674,-0.13166,-0.44703,0.01943,,,,,,,,,,,,,,,,,,,,,,,,,,0,0,0,0,0
3.3586,1783721324.5635,1,1,1.0000,-0.0000,1.41995,0.00095,-2.70020,1.12839,1.57105,0.11674,-0.13166,-0.44703,0.01926,,,,,,,,,,,,,,,,,,,,,,,,,,0,0,0,0,0
3.3590,1783721324.5640,1,1,1.0000,-0.0000,1.41995,0.00095,-2.70020,1.12839,1.57105,0.11674,-0.13166,-0.44703,0.01926,,,,,,,,,,,,,,,,,,,,,,,,,,0,0,0,0,0
3.3722,1783721324.5772,1,1,1.0000,-0.0000,1.41994,-0.00024,-2.70042,1.12980,1.57105,0.11674,-0.13166,-0.44703,0.01891,,,,,,,,,,,,,,,,,,,,,,,,,,0,0,0,0,0
3.3786,1783721324.5835,1,1,1.0000,-0.0000,1.41994,-0.00072,-2.70051,1.13036,1.57105,0.11674,-0.13166,-0.44703,0.01878,,,,,,,,,,,,,,,,,,,,,,,,,,0,0,0,0,0
3.3874,1783721324.5923,1,1,1.0000,-0.0000,1.41994,-0.00129,-2.70061,1.13104,1.57105,0.11674,-0.13165,-0.44703,0.01861,,,,,,,,,,,,,,,,,,,,,,,,,,0,0,0,0,0
3.3993,1783721324.6043,1,1,1.0000,-0.0000,1.41994,-0.00210,-2.70076,1.13199,1.57105,0.11673,-0.13165,-0.44703,0.01838,,,,,,,,,,,,,,,,,,,,,,,,,,0,0,0,0,0
3.4075,1783721324.6124,1,1,1.0000,-0.0000,1.41994,-0.00253,-2.70083,1.13250,1.57105,0.11673,-0.13165,-0.44703,0.01826,,,,,,,,,,,,,,,,,,,,,,,,,,0,0,0,0,0
3.4171,1783721324.6220,1,1,1.0000,-0.0000,1.41993,-0.00280,-2.70088,1.13282,1.57105,0.11673,-0.13165,-0.44703,0.01818,,,,,,,,,,,,,,,,,,,,,,,,,,0,0,0,0,0
3.4300,1783721324.6349,1,1,1.0000,-0.0000,1.41993,-0.00401,-2.70110,1.13424,1.57106,0.11673,-0.13165,-0.44703,0.01783,,,,,,,,,,,,,,,,,,,,,,,,,,0,0,0,0,0
3.4354,1783721324.6403,1,1,1.0000,-0.0000,1.41993,-0.00514,-2.70131,1.13558,1.57106,0.11673,-0.13165,-0.44703,0.01751,,,,,,,,,,,,,,,,,,,,,,,,,,0,0,0,0,0
3.4451,1783721324.6500,1,1,1.0000,-0.0000,1.41993,-0.00520,-2.70132,1.13565,1.57106,0.11673,-0.13165,-0.44703,0.01749,,,,,,,,,,,,,,,,,,,,,,,,,,0,0,0,0,0
3.4572,1783721324.6622,1,1,1.0000,-0.0000,1.41992,-0.00601,-2.70146,1.13661,1.57106,0.11673,-0.13165,-0.44703,0.01726,,,,,,,,,,,,,,,,,,,,,,,,,,0,0,0,0,0
3.4863,1783721324.6912,1,1,1.0000,-0.0000,1.41992,-0.00797,-2.70181,1.13891,1.57106,0.11673,-0.13164,-0.44703,0.01670,,,,,,,,,,,,,,,,,,,,,,,,,,0,0,0,0,0
3.4867,1783721324.6916,1,1,1.0000,-0.0000,1.41992,-0.00797,-2.70181,1.13891,1.57106,0.11673,-0.13164,-0.44703,0.01670,,,,,,,,,,,,,,,,,,,,,,,,,,0,0,0,0,0
3.4875,1783721324.6925,1,1,1.0000,-0.0000,1.41992,-0.00832,-2.70187,1.13933,1.57106,0.11673,-0.13164,-0.44703,0.01660,,,,,,,,,,,,,,,,,,,,,,,,,,0,0,0,0,0
3.5015,1783721324.7064,1,1,1.0000,-0.0000,1.41991,-0.00923,-2.70203,1.14040,1.57106,0.11672,-0.13164,-0.44703,0.01635,,,,,,,,,,,,,,,,,,,,,,,,,,0,0,0,0,0
3.5128,1783721324.7177,1,1,1.0000,-0.0000,1.41991,-0.00977,-2.70213,1.14104,1.57106,0.11672,-0.13164,-0.44703,0.01619,,,,,,,,,,,,,,,,,,,,,,,,,,0,0,0,0,0
3.5165,1783721324.7215,1,1,1.0000,-0.0000,1.41991,-0.01016,-2.70220,1.14149,1.57106,0.11672,-0.13164,-0.44703,0.01608,,,,,,,,,,,,,,,,,,,,,,,,,,0,0,0,0,0
3.5264,1783721324.7313,1,1,1.0000,-0.0000,1.41991,-0.01113,-2.70237,1.14263,1.57107,0.11672,-0.13164,-0.44703,0.01581,,,,,,,,,,,,,,,,,,,,,,,,,,0,0,0,0,0
3.5268,1783721324.7317,1,1,1.0000,-0.0000,1.41991,-0.01113,-2.70237,1.14263,1.57107,0.11672,-0.13164,-0.44703,0.01581,,,,,,,,,,,,,,,,,,,,,,,,,,0,0,0,0,0
3.5397,1783721324.7446,1,1,1.0000,-0.0000,1.41990,-0.01192,-2.70250,1.14356,1.57107,0.11672,-0.13164,-0.44703,0.01558,,,,,,,,,,,,,,,,,,,,,,,,,,0,0,0,0,0
3.5455,1783721324.7504,1,1,1.0000,-0.0000,1.41990,-0.01219,-2.70255,1.14388,1.57107,0.11672,-0.13163,-0.44703,0.01551,,,,,,,,,,,,,,,,,,,,,,,,,,0,0,0,0,0
3.5459,1783721324.7508,1,1,1.0000,-0.0000,1.41990,-0.01219,-2.70255,1.14388,1.57107,0.11672,-0.13163,-0.44703,0.01551,,,,,,,,,,,,,,,,,,,,,,,,,,0,0,0,0,0
3.5599,1783721324.7649,1,1,1.0000,-0.0000,1.41990,-0.01398,-2.70286,1.14599,1.57107,0.11672,-0.13163,-0.44703,0.01500,,,,,,,,,,,,,,,,,,,,,,,,,,0,0,0,0,0
3.5604,1783721324.7653,1,1,1.0000,-0.0000,1.41990,-0.01398,-2.70286,1.14599,1.57107,0.11672,-0.13163,-0.44703,0.01500,,,,,,,,,,,,,,,,,,,,,,,,,,0,0,0,0,0
3.5656,1783721324.7705,1,1,1.0000,-0.0000,1.41990,-0.01398,-2.70286,1.14599,1.57107,0.11672,-0.13163,-0.44703,0.01500,,,,,,,,,,,,,,,,,,,,,,,,,,0,0,0,0,0
3.5759,1783721324.7809,1,1,1.0000,-0.0000,1.41990,-0.01449,-2.70295,1.14658,1.57107,0.11672,-0.13163,-0.44703,0.01486,,,,,,,,,,,,,,,,,,,,,,,,,,0,0,0,0,0
3.5875,1783721324.7924,1,1,1.0000,-0.0000,1.41989,-0.01527,-2.70309,1.14750,1.57107,0.11672,-0.13163,-0.44703,0.01463,,,,,,,,,,,,,,,,,,,,,,,,,,0,0,0,0,0
3.5966,1783721324.8016,1,1,1.0000,-0.0000,1.41989,-0.01554,-2.70313,1.14782,1.57107,0.11672,-0.13163,-0.44703,0.01456,,,,,,,,,,,,,,,,,,,,,,,,,,0,0,0,0,0
3.6079,1783721324.8129,1,1,1.0000,-0.0000,1.41989,-0.01675,-2.70334,1.14923,1.57107,0.11671,-0.13163,-0.44703,0.01422,,,,,,,,,,,,,,,,,,,,,,,,,,0,0,0,0,0
3.6220,1783721324.8270,1,1,1.0000,-0.0000,1.41989,-0.01788,-2.70354,1.15056,1.57108,0.11671,-0.13162,-0.44703,0.01390,,,,,,,,,,,,,,,,,,,,,,,,,,0,0,0,0,0
3.6588,1783721324.8637,1,1,1.0000,-0.0000,1.41988,-0.02033,-2.70396,1.15344,1.57108,0.11671,-0.13162,-0.44703,0.01321,,,,,,,,,,,,,,,,,,,,,,,,,,0,0,0,0,0
3.6597,1783721324.8646,1,1,1.0000,-0.0000,1.41988,-0.02051,-2.70399,1.15365,1.57108,0.11671,-0.13162,-0.44703,0.01315,,,,,,,,,,,,,,,,,,,,,,,,,,0,0,0,0,0
3.6601,1783721324.8651,1,1,1.0000,-0.0000,1.41988,-0.02051,-2.70399,1.15365,1.57108,0.11671,-0.13162,-0.44703,0.01315,,,,,,,,,,,,,,,,,,,,,,,,,,0,0,0,0,0
3.6823,1783721324.8872,1,1,1.0000,-0.0000,1.41987,-0.02170,-2.70419,1.15503,1.57108,0.11671,-0.13162,-0.44703,0.01282,,,,,,,,,,,,,,,,,,,,,,,,,,0,0,0,0,0
3.6827,1783721324.8877,1,1,1.0000,-0.0000,1.41987,-0.02170,-2.70419,1.15503,1.57108,0.11671,-0.13162,-0.44703,0.01282,,,,,,,,,,,,,,,,,,,,,,,,,,0,0,0,0,0
3.6890,1783721324.8940,1,1,1.0000,-0.0000,1.41987,-0.02222,-2.70427,1.15564,1.57108,0.11671,-0.13162,-0.44703,0.01268,,,,,,,,,,,,,,,,,,,,,,,,,,0,0,0,0,0
3.7003,1783721324.9052,1,1,1.0000,-0.0000,1.41987,-0.02367,-2.70452,1.15734,1.57108,0.11670,-0.13161,-0.44703,0.01227,,,,,,,,,,,,,,,,,,,,,,,,,,0,0,0,0,0
3.7091,1783721324.9141,1,1,1.0000,-0.0000,1.41986,-0.02488,-2.70472,1.15875,1.57109,0.11670,-0.13161,-0.44703,0.01193,,,,,,,,,,,,,,,,,,,,,,,,,,0,0,0,0,0
3.7151,1783721324.9200,1,1,1.0000,0.3652,1.41986,-0.02488,-2.70472,1.15875,1.57109,0.11670,-0.13161,-0.44703,0.01193,,,,,,,,,,,,,,,,,,,,,,,,,,0,0,0,0,0
3.7269,1783721324.9318,1,1,1.0000,2.5465,1.41986,-0.02532,-2.70480,1.15926,1.57109,0.11670,-0.13161,-0.44703,0.01181,,,,,,,,,,,,,,,,,,,,,,,,,,0,0,0,0,0
3.7369,1783721324.9418,1,1,1.0000,3.9413,1.41986,-0.02642,-2.70498,1.16056,1.57109,0.11670,-0.13161,-0.44703,0.01149,,,,,,,,,,,,,,,,,,,,,,,,,,0,0,0,0,0
3.7374,1783721324.9423,1,1,1.0000,4.2714,1.41986,-0.02642,-2.70498,1.16056,1.57109,0.11670,-0.13161,-0.44703,0.01149,,,,,,,,,,,,,,,,,,,,,,,,,,0,0,0,0,0
3.8579,1783721325.0628,1,2,1.0000,26.8136,1.41983,-0.03479,-2.70628,1.17045,1.57114,0.11669,-0.13157,-0.44712,0.00921,,,,,,,,,,,,,,,,,,,,,,,,,,0,0,0,0,0
4.0136,1783721325.2186,1,2,1.0000,44.4349,1.41981,-0.04311,-2.70756,1.18028,1.57124,0.11666,-0.13152,-0.44719,0.00696,,,,,,,,,,,,,,,,,,,,,,,,,,0,0,0,0,0
4.0391,1783721325.2440,1,2,1.0000,43.7202,1.41980,-0.04426,-2.70777,1.18161,1.57125,0.11666,-0.13152,-0.44717,0.00663,,,,,,,,,,,,,,,,,,,,,,,,,,0,0,0,0,0
4.0397,1783721325.2446,1,2,1.0000,43.7225,1.41980,-0.04431,-2.70778,1.18167,1.57125,0.11666,-0.13152,-0.44716,0.00661,,,,,,,,,,,,,,,,,,,,,,,,,,0,0,0,0,0
4.0509,1783721325.2559,1,2,1.0000,43.9163,1.41980,-0.04431,-2.70778,1.18167,1.57125,0.11666,-0.13152,-0.44716,0.00661,,,,,,,,,,,,,,,,,,,,,,,,,,0,0,0,0,0
4.2206,1783721325.4255,1,2,1.0000,37.7452,1.41980,-0.04399,-2.70768,1.18123,1.57124,0.11666,-0.13152,-0.44719,0.00671,,,,,,,,,,,,,,,,,,,,,,,,,,0,0,0,0,0
4.2287,1783721325.4337,1,2,1.0000,35.1045,1.41980,-0.04396,-2.70767,1.18119,1.57124,0.11666,-0.13152,-0.44719,0.00672,,,,,,,,,,,,,,,,,,,,,,,,,,0,0,0,0,0
4.2292,1783721325.4341,1,2,1.0000,35.0511,1.41980,-0.04396,-2.70767,1.18119,1.57124,0.11666,-0.13152,-0.44719,0.00672,,,,,,,,,,,,,,,,,,,,,,,,,,0,0,0,0,0
4.2377,1783721325.4427,1,2,1.0000,35.0560,1.41980,-0.04387,-2.70767,1.18108,1.57124,0.11666,-0.13152,-0.44718,0.00674,,,,,,,,,,,,,,,,,,,,,,,,,,0,0,0,0,0
4.2503,1783721325.4552,1,2,1.0000,35.6631,1.41980,-0.04367,-2.70765,1.18083,1.57124,0.11666,-0.13152,-0.44716,0.00678,,,,,,,,,,,,,,,,,,,,,,,,,,0,0,0,0,0
4.2552,1783721325.4602,1,2,1.0000,35.8458,1.41980,-0.04367,-2.70765,1.18083,1.57124,0.11666,-0.13152,-0.44716,0.00678,,,,,,,,,,,,,,,,,,,,,,,,,,0,0,0,0,0
4.2559,1783721325.4608,1,2,1.0000,35.9992,1.41980,-0.04366,-2.70765,1.18082,1.57124,0.11666,-0.13153,-0.44716,0.00679,,,,,,,,,,,,,,,,,,,,,,,,,,0,0,0,0,0
4.2690,1783721325.4739,1,2,1.0000,35.9775,1.41980,-0.04355,-2.70764,1.18067,1.57124,0.11666,-0.13153,-0.44715,0.00681,,,,,,,,,,,,,,,,,,,,,,,,,,0,0,0,0,0
4.2789,1783721325.4839,1,2,1.0000,34.5419,1.41980,-0.04342,-2.70763,1.18051,1.57124,0.11666,-0.13153,-0.44714,0.00684,,,,,,,,,,,,,,,,,,,,,,,,,,0,0,0,0,0
4.2865,1783721325.4914,1,2,1.0000,33.5622,1.41980,-0.04334,-2.70762,1.18041,1.57124,0.11666,-0.13153,-0.44714,0.00686,,,,,,,,,,,,,,,,,,,,,,,,,,0,0,0,0,0
4.2999,1783721325.5048,1,2,1.0000,33.6816,1.41981,-0.04322,-2.70762,1.18027,1.57123,0.11666,-0.13153,-0.44713,0.00688,,,,,,,,,,,,,,,,,,,,,,,,,,0,0,0,0,0
4.3212,1783721325.5261,1,2,1.0000,34.8826,1.41981,-0.04310,-2.70761,1.18011,1.57123,0.11666,-0.13154,-0.44711,0.00691,,,,,,,,,,,,,,,,,,,,,,,,,,0,0,0,0,0
4.3216,1783721325.5265,1,2,1.0000,36.1409,1.41981,-0.04310,-2.70761,1.18011,1.57123,0.11666,-0.13154,-0.44711,0.00691,,,,,,,,,,,,,,,,,,,,,,,,,,0,0,0,0,0
4.3305,1783721325.5354,1,2,1.0000,36.3180,1.41981,-0.04300,-2.70761,1.17997,1.57123,0.11666,-0.13154,-0.44709,0.00693,,,,,,,,,,,,,,,,,,,,,,,,,,0,0,0,0,0
4.3352,1783721325.5401,1,2,1.0000,35.8415,1.41981,-0.04294,-2.70761,1.17990,1.57123,0.11666,-0.13154,-0.44708,0.00694,,,,,,,,,,,,,,,,,,,,,,,,,,0,0,0,0,0
4.3449,1783721325.5498,1,2,1.0000,35.5880,1.41981,-0.04274,-2.70762,1.17964,1.57123,0.11666,-0.13155,-0.44705,0.00697,,,,,,,,,,,,,,,,,,,,,,,,,,0,0,0,0,0
4.3453,1783721325.5503,1,2,1.0000,34.9684,1.41981,-0.04274,-2.70762,1.17964,1.57123,0.11666,-0.13155,-0.44705,0.00697,,,,,,,,,,,,,,,,,,,,,,,,,,0,0,0,0,0
4.3569,1783721325.5619,1,2,1.0000,34.3526,1.41981,-0.04257,-2.70764,1.17942,1.57122,0.11666,-0.13155,-0.44700,0.00700,,,,,,,,,,,,,,,,,,,,,,,,,,0,0,0,0,0
4.3652,1783721325.5701,1,2,1.0000,34.4598,1.41981,-0.04251,-2.70766,1.17933,1.57122,0.11666,-0.13156,-0.44698,0.00700,,,,,,,,,,,,,,,,,,,,,,,,,,0,0,0,0,0
4.3751,1783721325.5800,1,2,1.0000,34.8314,1.41981,-0.04250,-2.70768,1.17931,1.57122,0.11666,-0.13156,-0.44696,0.00700,,,,,,,,,,,,,,,,,,,,,,,,,,0,0,0,0,0
4.3879,1783721325.5929,1,2,1.0000,35.6956,1.41981,-0.04250,-2.70768,1.17931,1.57122,0.11666,-0.13156,-0.44696,0.00700,,,,,,,,,,,,,,,,,,,,,,,,,,0,0,0,0,0
4.3974,1783721325.6023,1,2,1.0000,35.7142,1.41981,-0.04250,-2.70768,1.17931,1.57122,0.11666,-0.13156,-0.44696,0.00700,,,,,,,,,,,,,,,,,,,,,,,,,,0,0,0,0,0
4.4070,1783721325.6119,1,2,1.0000,35.3969,1.41981,-0.04250,-2.70768,1.17931,1.57122,0.11666,-0.13156,-0.44696,0.00700,,,,,,,,,,,,,,,,,,,,,,,,,,0,0,0,0,0
4.4160,1783721325.6209,1,2,1.0000,34.2236,1.41981,-0.04250,-2.70768,1.17931,1.57122,0.11666,-0.13156,-0.44696,0.00700,,,,,,,,,,,,,,,,,,,,,,,,,,0,0,0,0,0
4.4283,1783721325.6332,1,2,1.0000,33.2594,1.41981,-0.04250,-2.70768,1.17931,1.57122,0.11666,-0.13156,-0.44696,0.00700,,,,,,,,,,,,,,,,,,,,,,,,,,0,0,0,0,0
4.4385,1783721325.6435,1,2,1.0000,32.8401,1.41981,-0.04250,-2.70768,1.17931,1.57122,0.11666,-0.13156,-0.44696,0.00700,,,,,,,,,,,,,,,,,,,,,,,,,,0,0,0,0,0
4.4390,1783721325.6439,1,2,1.0000,32.8225,1.41981,-0.04250,-2.70768,1.17931,1.57122,0.11666,-0.13156,-0.44696,0.00700,,,,,,,,,,,,,,,,,,,,,,,,,,0,0,0,0,0
4.4465,1783721325.6514,1,2,1.0000,32.7458,1.41981,-0.04249,-2.70767,1.17930,1.57122,0.11666,-0.13156,-0.44697,0.00700,,,,,,,,,,,,,,,,,,,,,,,,,,0,0,0,0,0
4.4469,1783721325.6518,1,2,1.0000,32.7550,1.41981,-0.04249,-2.70767,1.17930,1.57122,0.11666,-0.13156,-0.44697,0.00700,,,,,,,,,,,,,,,,,,,,,,,,,,0,0,0,0,0
4.4569,1783721325.6618,1,2,1.0000,32.7215,1.41981,-0.04247,-2.70765,1.17926,1.57122,0.11666,-0.13156,-0.44698,0.00701,,,,,,,,,,,,,,,,,,,,,,,,,,0,0,0,0,0
4.4572,1783721325.6621,1,2,1.0000,32.5997,1.41981,-0.04247,-2.70765,1.17926,1.57122,0.11666,-0.13156,-0.44698,0.00701,,,,,,,,,,,,,,,,,,,,,,,,,,0,0,0,0,0
4.4722,1783721325.6771,1,2,1.0000,32.3258,1.41981,-0.04245,-2.70763,1.17923,1.57122,0.11666,-0.13156,-0.44699,0.00702,,,,,,,,,,,,,,,,,,,,,,,,,,0,0,0,0,0
4.4727,1783721325.6776,1,2,1.0000,31.9882,1.41981,-0.04245,-2.70763,1.17923,1.57122,0.11666,-0.13156,-0.44699,0.00702,,,,,,,,,,,,,,,,,,,,,,,,,,0,0,0,0,0
4.4753,1783721325.6803,1,2,1.0000,31.2336,1.41981,-0.04245,-2.70763,1.17923,1.57122,0.11666,-0.13156,-0.44699,0.00702,,,,,,,,,,,,,,,,,,,,,,,,,,0,0,0,0,0
4.4763,1783721325.6812,1,2,1.0000,31.1642,1.41981,-0.04244,-2.70762,1.17921,1.57122,0.11666,-0.13156,-0.44699,0.00703,,,,,,,,,,,,,,,,,,,,,,,,,,0,0,0,0,0
4.4927,1783721325.6976,1,2,1.0000,30.8224,1.41981,-0.04234,-2.70755,1.17908,1.57121,0.11666,-0.13155,-0.44703,0.00707,,,,,,,,,,,,,,,,,,,,,,,,,,0,0,0,0,0
4.4930,1783721325.6979,1,2,1.0000,30.6789,1.41981,-0.04234,-2.70755,1.17908,1.57121,0.11666,-0.13155,-0.44703,0.00707,,,,,,,,,,,,,,,,,,,,,,,,,,0,0,0,0,0
4.4979,1783721325.7028,1,2,1.0000,30.3536,1.41981,-0.04234,-2.70755,1.17908,1.57121,0.11666,-0.13155,-0.44703,0.00707,,,,,,,,,,,,,,,,,,,,,,,,,,0,0,0,0,0
4.5050,1783721325.7099,1,2,1.0000,29.9039,1.41981,-0.04232,-2.70754,1.17905,1.57121,0.11666,-0.13155,-0.44703,0.00708,,,,,,,,,,,,,,,,,,,,,,,,,,0,0,0,0,0
4.5323,1783721325.7372,1,2,1.0000,29.3207,1.41981,-0.04216,-2.70749,1.17885,1.57121,0.11666,-0.13155,-0.44705,0.00713,,,,,,,,,,,,,,,,,,,,,,,,,,0,0,0,0,0
4.5327,1783721325.7376,1,2,1.0000,27.5046,1.41981,-0.04216,-2.70749,1.17885,1.57121,0.11666,-0.13155,-0.44705,0.00713,,,,,,,,,,,,,,,,,,,,,,,,,,0,0,0,0,0
4.5377,1783721325.7427,1,2,1.0000,26.8682,1.41981,-0.04211,-2.70748,1.17879,1.57121,0.11666,-0.13155,-0.44705,0.00714,,,,,,,,,,,,,,,,,,,,,,,,,,0,0,0,0,0
4.5382,1783721325.7432,1,2,1.0000,26.5281,1.41981,-0.04211,-2.70748,1.17879,1.57121,0.11666,-0.13155,-0.44705,0.00714,,,,,,,,,,,,,,,,,,,,,,,,,,0,0,0,0,0
4.5459,1783721325.7508,1,2,1.0000,26.2677,1.41981,-0.04199,-2.70746,1.17864,1.57121,0.11666,-0.13155,-0.44705,0.00718,,,,,,,,,,,,,,,,,,,,,,,,,,0,0,0,0,0
4.5563,1783721325.7613,1,2,1.0000,26.5144,1.41981,-0.04184,-2.70743,1.17846,1.57120,0.11666,-0.13155,-0.44705,0.00722,,,,,,,,,,,,,,,,,,,,,,,,,,0,0,0,0,0
4.5569,1783721325.7618,1,2,1.0000,26.5924,1.41981,-0.04184,-2.70743,1.17846,1.57120,0.11666,-0.13155,-0.44705,0.00722,,,,,,,,,,,,,,,,,,,,,,,,,,0,0,0,0,0
4.5684,1783721325.7733,1,2,1.0000,26.9134,1.41981,-0.04178,-2.70742,1.17837,1.57120,0.11666,-0.13155,-0.44705,0.00723,,,,,,,,,,,,,,,,,,,,,,,,,,0,0,0,0,0
4.5762,1783721325.7811,1,2,1.0000,26.9349,1.41981,-0.04167,-2.70741,1.17825,1.57120,0.11666,-0.13156,-0.44705,0.00726,,,,,,,,,,,,,,,,,,,,,,,,,,0,0,0,0,0
4.5855,1783721325.7904,1,2,1.0000,26.3180,1.41981,-0.04166,-2.70741,1.17824,1.57120,0.11666,-0.13156,-0.44704,0.00726,,,,,,,,,,,,,,,,,,,,,,,,,,0,0,0,0,0
4.6008,1783721325.8057,1,2,1.0000,25.5518,1.41981,-0.04147,-2.70738,1.17800,1.57120,0.11666,-0.13156,-0.44704,0.00731,,,,,,,,,,,,,,,,,,,,,,,,,,0,0,0,0,0
4.6091,1783721325.8141,1,2,1.0000,25.5052,1.41981,-0.04132,-2.70736,1.17782,1.57119,0.11666,-0.13156,-0.44703,0.00735,,,,,,,,,,,,,,,,,,,,,,,,,,0,0,0,0,0
4.6220,1783721325.8269,1,2,1.0000,25.9028,1.41981,-0.04129,-2.70736,1.17779,1.57119,0.11666,-0.13156,-0.44703,0.00736,,,,,,,,,,,,,,,,,,,,,,,,,,0,0,0,0,0
4.6267,1783721325.8316,1,2,1.0000,26.8917,1.41981,-0.04126,-2.70736,1.17775,1.57119,0.11666,-0.13156,-0.44703,0.00736,,,,,,,,,,,,,,,,,,,,,,,,,,0,0,0,0,0
4.6400,1783721325.8450,1,2,1.0000,26.8757,1.41981,-0.04106,-2.70735,1.17751,1.57119,0.11666,-0.13157,-0.44701,0.00741,,,,,,,,,,,,,,,,,,,,,,,,,,0,0,0,0,0
4.6496,1783721325.8545,1,2,1.0000,26.5990,1.41981,-0.04105,-2.70735,1.17750,1.57119,0.11666,-0.13157,-0.44701,0.00741,,,,,,,,,,,,,,,,,,,,,,,,,,0,0,0,0,0
4.6500,1783721325.8550,1,2,1.0000,26.1399,1.41981,-0.04105,-2.70735,1.17750,1.57119,0.11666,-0.13157,-0.44701,0.00741,,,,,,,,,,,,,,,,,,,,,,,,,,0,0,0,0,0
4.6605,1783721325.8654,1,2,1.0000,24.5436,1.41981,-0.04099,-2.70735,1.17742,1.57118,0.11666,-0.13157,-0.44700,0.00742,,,,,,,,,,,,,,,,,,,,,,,,,,0,0,0,0,0
4.6651,1783721325.8700,1,2,1.0000,23.4900,1.41981,-0.04095,-2.70735,1.17738,1.57118,0.11666,-0.13157,-0.44699,0.00743,,,,,,,,,,,,,,,,,,,,,,,,,,0,0,0,0,0
4.6802,1783721325.8851,1,2,1.0000,23.0412,1.41981,-0.04091,-2.70735,1.17732,1.57118,0.11666,-0.13157,-0.44699,0.00744,,,,,,,,,,,,,,,,,,,,,,,,,,0,0,0,0,0
4.6805,1783721325.8854,1,2,1.0000,22.8524,1.41981,-0.04091,-2.70735,1.17732,1.57118,0.11666,-0.13157,-0.44699,0.00744,,,,,,,,,,,,,,,,,,,,,,,,,,0,0,0,0,0
4.6882,1783721325.8931,1,2,1.0000,22.7926,1.41981,-0.04083,-2.70733,1.17723,1.57118,0.11666,-0.13157,-0.44699,0.00746,,,,,,,,,,,,,,,,,,,,,,,,,,0,0,0,0,0
4.6962,1783721325.9012,1,2,1.0000,23.2271,1.41981,-0.04074,-2.70732,1.17712,1.57118,0.11666,-0.13157,-0.44699,0.00749,,,,,,,,,,,,,,,,,,,,,,,,,,0,0,0,0,0
4.7082,1783721325.9131,1,2,1.0000,23.3912,1.41981,-0.04071,-2.70731,1.17709,1.57118,0.11666,-0.13157,-0.44699,0.00750,,,,,,,,,,,,,,,,,,,,,,,,,,0,0,0,0,0
4.7085,1783721325.9135,1,2,1.0000,23.5652,1.41981,-0.04071,-2.70731,1.17709,1.57118,0.11666,-0.13157,-0.44699,0.00750,,,,,,,,,,,,,,,,,,,,,,,,,,0,0,0,0,0
4.7161,1783721325.9210,1,2,1.0000,23.5230,1.41981,-0.04065,-2.70730,1.17702,1.57118,0.11666,-0.13157,-0.44700,0.00751,,,,,,,,,,,,,,,,,,,,,,,,,,0,0,0,0,0
4.7402,1783721325.9451,1,2,1.0000,21.4253,1.41981,-0.04045,-2.70725,1.17678,1.57117,0.11666,-0.13157,-0.44700,0.00757,,,,,,,,,,,,,,,,,,,,,,,,,,0,0,0,0,0
4.7405,1783721325.9455,1,2,1.0000,20.3564,1.41981,-0.04045,-2.70725,1.17678,1.57117,0.11666,-0.13157,-0.44700,0.00757,,,,,,,,,,,,,,,,,,,,,,,,,,0,0,0,0,0
4.7474,1783721325.9524,1,2,1.0000,19.1179,1.41981,-0.04044,-2.70725,1.17676,1.57117,0.11666,-0.13157,-0.44700,0.00758,,,,,,,,,,,,,,,,,,,,,,,,,,0,0,0,0,0
4.7553,1783721325.9602,1,2,1.0000,18.7006,1.41981,-0.04037,-2.70724,1.17668,1.57117,0.11666,-0.13157,-0.44700,0.00760,,,,,,,,,,,,,,,,,,,,,,,,,,0,0,0,0,0
4.7670,1783721325.9719,1,2,1.0000,19.0518,1.41981,-0.04031,-2.70723,1.17661,1.57117,0.11666,-0.13157,-0.44700,0.00761,,,,,,,,,,,,,,,,,,,,,,,,,,0,0,0,0,0
4.7815,1783721325.9864,1,2,1.0000,19.4361,1.41982,-0.04011,-2.70720,1.17637,1.57116,0.11666,-0.13157,-0.44700,0.00767,,,,,,,,,,,,,,,,,,,,,,,,,,0,0,0,0,0
4.7858,1783721325.9907,1,2,1.0000,19.3838,1.41982,-0.04003,-2.70719,1.17628,1.57116,0.11666,-0.13157,-0.44700,0.00769,,,,,,,,,,,,,,,,,,,,,,,,,,0,0,0,0,0
4.8002,1783721326.0051,1,2,1.0000,18.3711,1.41982,-0.03990,-2.70717,1.17613,1.57116,0.11666,-0.13158,-0.44700,0.00772,,,,,,,,,,,,,,,,,,,,,,,,,,0,0,0,0,0
4.8162,1783721326.0211,1,2,1.0000,17.1553,1.41982,-0.03967,-2.70714,1.17585,1.57116,0.11666,-0.13158,-0.44699,0.00778,,,,,,,,,,,,,,,,,,,,,,,,,,0,0,0,0,0
4.8166,1783721326.0215,1,2,1.0000,16.9033,1.41982,-0.03967,-2.70714,1.17585,1.57116,0.11666,-0.13158,-0.44699,0.00778,,,,,,,,,,,,,,,,,,,,,,,,,,0,0,0,0,0
4.8248,1783721326.0297,1,2,1.0000,17.1819,1.41982,-0.03959,-2.70712,1.17576,1.57115,0.11666,-0.13158,-0.44699,0.00781,,,,,,,,,,,,,,,,,,,,,,,,,,0,0,0,0,0
4.8251,1783721326.0300,1,2,1.0000,17.3798,1.41982,-0.03959,-2.70712,1.17576,1.57115,0.11666,-0.13158,-0.44699,0.00781,,,,,,,,,,,,,,,,,,,,,,,,,,0,0,0,0,0
4.8407,1783721326.0456,1,2,1.0000,19.0639,1.41982,-0.03948,-2.70711,1.17563,1.57115,0.11666,-0.13158,-0.44699,0.00783,,,,,,,,,,,,,,,,,,,,,,,,,,0,0,0,0,0
4.8524,1783721326.0573,1,2,1.0000,19.6085,1.41982,-0.03931,-2.70710,1.17543,1.57115,0.11666,-0.13158,-0.44698,0.00787,,,,,,,,,,,,,,,,,,,,,,,,,,0,0,0,0,0
4.8528,1783721326.0577,1,2,1.0000,19.6037,1.41982,-0.03931,-2.70710,1.17543,1.57115,0.11666,-0.13158,-0.44698,0.00787,,,,,,,,,,,,,,,,,,,,,,,,,,0,0,0,0,0
4.8586,1783721326.0635,1,2,1.0000,19.0457,1.41982,-0.03924,-2.70709,1.17535,1.57115,0.11666,-0.13158,-0.44697,0.00789,,,,,,,,,,,,,,,,,,,,,,,,,,0,0,0,0,0
4.8590,1783721326.0639,1,2,1.0000,18.9783,1.41982,-0.03924,-2.70709,1.17535,1.57115,0.11666,-0.13158,-0.44697,0.00789,,,,,,,,,,,,,,,,,,,,,,,,,,0,0,0,0,0
4.8685,1783721326.0735,1,2,1.0000,17.7717,1.41982,-0.03905,-2.70708,1.17512,1.57114,0.11666,-0.13159,-0.44696,0.00793,,,,,,,,,,,,,,,,,,,,,,,,,,0,0,0,0,0
4.8689,1783721326.0738,1,2,1.0000,17.3745,1.41982,-0.03905,-2.70708,1.17512,1.57114,0.11666,-0.13159,-0.44696,0.00793,,,,,,,,,,,,,,,,,,,,,,,,,,0,0,0,0,0
4.8818,1783721326.0867,1,2,1.0000,16.1237,1.41982,-0.03891,-2.70708,1.17495,1.57114,0.11666,-0.13159,-0.44694,0.00796,,,,,,,,,,,,,,,,,,,,,,,,,,0,0,0,0,0
4.8915,1783721326.0965,1,2,1.0000,15.5611,1.41982,-0.03891,-2.70708,1.17495,1.57114,0.11666,-0.13159,-0.44694,0.00797,,,,,,,,,,,,,,,,,,,,,,,,,,0,0,0,0,0
4.9002,1783721326.1051,1,2,1.0000,15.4953,1.41982,-0.03888,-2.70708,1.17492,1.57114,0.11666,-0.13159,-0.44694,0.00797,,,,,,,,,,,,,,,,,,,,,,,,,,0,0,0,0,0
4.9705,1783721326.1754,1,2,1.0000,15.5907,1.41982,-0.03850,-2.70697,1.17449,1.57113,0.11666,-0.13159,-0.44697,0.00810,,,,,,,,,,,,,,,,,,,,,,,,,,0,0,0,0,0
4.9712,1783721326.1762,1,2,1.0000,15.4156,1.41982,-0.03850,-2.70697,1.17449,1.57113,0.11666,-0.13159,-0.44697,0.00810,,,,,,,,,,,,,,,,,,,,,,,,,,0,0,0,0,0
4.9720,1783721326.1770,1,2,1.0000,12.6190,1.41982,-0.03850,-2.70697,1.17449,1.57113,0.11666,-0.13159,-0.44697,0.00810,,,,,,,,,,,,,,,,,,,,,,,,,,0,0,0,0,0
4.9723,1783721326.1772,1,2,1.0000,11.5621,1.41982,-0.03850,-2.70697,1.17449,1.57113,0.11666,-0.13159,-0.44697,0.00810,,,,,,,,,,,,,,,,,,,,,,,,,,0,0,0,0,0
4.9785,1783721326.1834,1,2,1.0000,11.4767,1.41982,-0.03849,-2.70697,1.17448,1.57113,0.11666,-0.13159,-0.44698,0.00810,,,,,,,,,,,,,,,,,,,,,,,,,,0,0,0,0,0
4.9892,1783721326.1941,1,2,1.0000,11.7814,1.41982,-0.03839,-2.70695,1.17436,1.57113,0.11666,-0.13159,-0.44698,0.00813,,,,,,,,,,,,,,,,,,,,,,,,,,0,0,0,0,0
5.0021,1783721326.2071,1,2,1.0000,11.9676,1.41982,-0.03819,-2.70692,1.17413,1.57113,0.11666,-0.13159,-0.44698,0.00819,,,,,,,,,,,,,,,,,,,,,,,,,,0,0,0,0,0
5.0098,1783721326.2147,1,2,1.0000,11.7200,1.41982,-0.03818,-2.70691,1.17412,1.57113,0.11666,-0.13159,-0.44698,0.00819,,,,,,,,,,,,,,,,,,,,,,,,,,0,0,0,0,0
5.0214,1783721326.2264,1,2,1.0000,10.8736,1.41982,-0.03806,-2.70689,1.17398,1.57113,0.11666,-0.13159,-0.44698,0.00822,,,,,,,,,,,,,,,,,,,,,,,,,,0,0,0,0,0
5.0408,1783721326.2457,1,2,1.0000,10.1705,1.41982,-0.03792,-2.70687,1.17381,1.57112,0.11666,-0.13159,-0.44698,0.00826,,,,,,,,,,,,,,,,,,,,,,,,,,0,0,0,0,0
5.0454,1783721326.2504,1,2,1.0000,10.0411,1.41982,-0.03786,-2.70686,1.17375,1.57112,0.11666,-0.13159,-0.44698,0.00828,,,,,,,,,,,,,,,,,,,,,,,,,,0,0,0,0,0
5.0457,1783721326.2506,1,2,1.0000,10.0187,1.41982,-0.03786,-2.70686,1.17375,1.57112,0.11666,-0.13159,-0.44698,0.00828,,,,,,,,,,,,,,,,,,,,,,,,,,0,0,0,0,0
5.0544,1783721326.2593,1,2,1.0000,10.4299,1.41982,-0.03772,-2.70684,1.17359,1.57112,0.11666,-0.13159,-0.44698,0.00832,,,,,,,,,,,,,,,,,,,,,,,,,,0,0,0,0,0
5.0603,1783721326.2652,1,2,1.0000,11.3382,1.41982,-0.03756,-2.70681,1.17340,1.57112,0.11666,-0.13159,-0.44698,0.00836,,,,,,,,,,,,,,,,,,,,,,,,,,0,0,0,0,0
5.0727,1783721326.2776,1,2,1.0000,11.5187,1.41982,-0.03754,-2.70681,1.17337,1.57112,0.11666,-0.13159,-0.44698,0.00837,,,,,,,,,,,,,,,,,,,,,,,,,,0,0,0,0,0
5.0732,1783721326.2781,1,2,1.0000,11.7861,1.41982,-0.03754,-2.70681,1.17337,1.57112,0.11666,-0.13159,-0.44698,0.00837,,,,,,,,,,,,,,,,,,,,,,,,,,0,0,0,0,0
5.0803,1783721326.2852,1,2,1.0000,11.3367,1.41982,-0.03748,-2.70681,1.17330,1.57112,0.11666,-0.13159,-0.44698,0.00838,,,,,,,,,,,,,,,,,,,,,,,,,,0,0,0,0,0
5.0890,1783721326.2939,1,2,1.0000,10.0167,1.41982,-0.03740,-2.70681,1.17321,1.57112,0.11666,-0.13159,-0.44697,0.00840,,,,,,,,,,,,,,,,,,,,,,,,,,0,0,0,0,0
5.0986,1783721326.3035,1,2,1.0000,9.1737,1.41982,-0.03735,-2.70681,1.17316,1.57112,0.11666,-0.13159,-0.44696,0.00841,,,,,,,,,,,,,,,,,,,,,,,,,,0,0,0,0,0
5.0990,1783721326.3040,1,2,1.0000,9.0263,1.41982,-0.03735,-2.70681,1.17316,1.57112,0.11666,-0.13159,-0.44696,0.00841,,,,,,,,,,,,,,,,,,,,,,,,,,0,0,0,0,0
5.1101,1783721326.3150,1,2,1.0000,8.5416,1.41982,-0.03731,-2.70681,1.17311,1.57112,0.11666,-0.13160,-0.44696,0.00842,,,,,,,,,,,,,,,,,,,,,,,,,,0,0,0,0,0
5.1103,1783721326.3153,1,2,1.0000,8.4783,1.41982,-0.03731,-2.70681,1.17311,1.57112,0.11666,-0.13160,-0.44696,0.00842,,,,,,,,,,,,,,,,,,,,,,,,,,0,0,0,0,0
5.1213,1783721326.3262,1,2,1.0000,8.3749,1.41982,-0.03725,-2.70680,1.17305,1.57112,0.11666,-0.13160,-0.44696,0.00843,,,,,,,,,,,,,,,,,,,,,,,,,,0,0,0,0,0
5.1216,1783721326.3265,1,2,1.0000,8.2964,1.41982,-0.03725,-2.70680,1.17305,1.57112,0.11666,-0.13160,-0.44696,0.00843,,,,,,,,,,,,,,,,,,,,,,,,,,0,0,0,0,0
5.1333,1783721326.3382,1,2,1.0000,8.3719,1.41982,-0.03720,-2.70679,1.17299,1.57112,0.11666,-0.13160,-0.44696,0.00845,,,,,,,,,,,,,,,,,,,,,,,,,,0,0,0,0,0
5.1387,1783721326.3436,1,2,1.0000,8.4571,1.41982,-0.03717,-2.70678,1.17295,1.57112,0.11666,-0.13160,-0.44696,0.00846,,,,,,,,,,,,,,,,,,,,,,,,,,0,0,0,0,0
5.1391,1783721326.3440,1,2,1.0000,8.5308,1.41982,-0.03717,-2.70678,1.17295,1.57112,0.11666,-0.13160,-0.44696,0.00846,,,,,,,,,,,,,,,,,,,,,,,,,,0,0,0,0,0
5.1486,1783721326.3535,1,2,1.0000,8.4913,1.41982,-0.03703,-2.70674,1.17279,1.57111,0.11666,-0.13159,-0.44698,0.00851,,,,,,,,,,,,,,,,,,,,,,,,,,0,0,0,0,0
5.1623,1783721326.3672,1,2,1.0000,7.8708,1.41982,-0.03700,-2.70673,1.17276,1.57111,0.11666,-0.13159,-0.44698,0.00851,,,,,,,,,,,,,,,,,,,,,,,,,,0,0,0,0,0
5.1705,1783721326.3754,1,2,1.0000,6.7206,1.41983,-0.03694,-2.70672,1.17269,1.57111,0.11666,-0.13159,-0.44698,0.00853,,,,,,,,,,,,,,,,,,,,,,,,,,0,0,0,0,0
5.1822,1783721326.3871,1,2,1.0000,5.6270,1.41983,-0.03680,-2.70668,1.17252,1.57111,0.11666,-0.13159,-0.44699,0.00858,,,,,,,,,,,,,,,,,,,,,,,,,,0,0,0,0,0
5.1963,1783721326.4012,1,2,1.0000,4.8111,1.41983,-0.03673,-2.70667,1.17244,1.57111,0.11666,-0.13159,-0.44699,0.00860,,,,,,,,,,,,,,,,,,,,,,,,,,0,0,0,0,0
5.1998,1783721326.4047,1,2,1.0000,4.5414,1.41983,-0.03673,-2.70667,1.17244,1.57111,0.11666,-0.13159,-0.44699,0.00860,,,,,,,,,,,,,,,,,,,,,,,,,,0,0,0,0,0
5.2104,1783721326.4153,1,2,1.0000,4.7200,1.41983,-0.03663,-2.70665,1.17232,1.57111,0.11666,-0.13159,-0.44700,0.00863,,,,,,,,,,,,,,,,,,,,,,,,,,0,0,0,0,0
5.2214,1783721326.4264,1,2,1.0000,4.9592,1.41983,-0.03653,-2.70664,1.17221,1.57111,0.11666,-0.13159,-0.44700,0.00865,,,,,,,,,,,,,,,,,,,,,,,,,,0,0,0,0,0
5.2292,1783721326.4342,1,2,1.0000,4.8697,1.41983,-0.03639,-2.70661,1.17204,1.57111,0.11666,-0.13159,-0.44700,0.00869,,,,,,,,,,,,,,,,,,,,,,,,,,0,0,0,0,0
5.2427,1783721326.4477,1,2,1.0000,4.2477,1.41983,-0.03620,-2.70658,1.17183,1.57111,0.11666,-0.13159,-0.44700,0.00874,,,,,,,,,,,,,,,,,,,,,,,,,,0,0,0,0,0
5.2515,1783721326.4564,1,2,1.0000,3.5741,1.41983,-0.03617,-2.70658,1.17179,1.57111,0.11666,-0.13159,-0.44700,0.00875,,,,,,,,,,,,,,,,,,,,,,,,,,0,0,0,0,0
5.2588,1783721326.4638,1,2,1.0000,3.4343,1.41983,-0.03608,-2.70657,1.17169,1.57111,0.11666,-0.13159,-0.44700,0.00878,,,,,,,,,,,,,,,,,,,,,,,,,,0,0,0,0,0
5.2592,1783721326.4641,1,2,1.0000,3.3838,1.41983,-0.03608,-2.70657,1.17169,1.57111,0.11666,-0.13159,-0.44700,0.00878,,,,,,,,,,,,,,,,,,,,,,,,,,0,0,0,0,0
5.2731,1783721326.4780,1,2,1.0000,3.6996,1.41983,-0.03580,-2.70652,1.17136,1.57111,0.11666,-0.13160,-0.44699,0.00886,,,,,,,,,,,,,,,,,,,,,,,,,,0,0,0,0,0
5.2795,1783721326.4845,1,2,1.0000,4.3862,1.41983,-0.03572,-2.70651,1.17127,1.57110,0.11666,-0.13160,-0.44699,0.00888,,,,,,,,,,,,,,,,,,,,,,,,,,0,0,0,0,0
5.2802,1783721326.4851,1,2,1.0000,4.5047,1.41983,-0.03564,-2.70650,1.17118,1.57110,0.11666,-0.13160,-0.44699,0.00890,,,,,,,,,,,,,,,,,,,,,,,,,,0,0,0,0,0
5.2884,1783721326.4933,1,2,1.0000,5.0398,1.41983,-0.03550,-2.70648,1.17101,1.57110,0.11666,-0.13160,-0.44699,0.00894,,,,,,,,,,,,,,,,,,,,,,,,,,0,0,0,0,0
5.2889,1783721326.4938,1,2,1.0000,5.1801,1.41983,-0.03550,-2.70648,1.17101,1.57110,0.11666,-0.13160,-0.44699,0.00894,,,,,,,,,,,,,,,,,,,,,,,,,,0,0,0,0,0
5.3025,1783721326.5074,1,2,1.0000,5.1316,1.41983,-0.03535,-2.70646,1.17084,1.57110,0.11666,-0.13160,-0.44699,0.00898,,,,,,,,,,,,,,,,,,,,,,,,,,0,0,0,0,0
5.3028,1783721326.5077,1,2,1.0000,4.8877,1.41983,-0.03535,-2.70646,1.17084,1.57110,0.11666,-0.13160,-0.44699,0.00898,,,,,,,,,,,,,,,,,,,,,,,,,,0,0,0,0,0
5.3104,1783721326.5153,1,2,1.0000,4.0362,1.41983,-0.03535,-2.70646,1.17084,1.57110,0.11666,-0.13160,-0.44699,0.00898,,,,,,,,,,,,,,,,,,,,,,,,,,0,0,0,0,0
5.3230,1783721326.5280,1,2,1.0000,2.9418,1.41983,-0.03535,-2.70646,1.17084,1.57110,0.11666,-0.13160,-0.44699,0.00898,,,,,,,,,,,,,,,,,,,,,,,,,,0,0,0,0,0
5.3293,1783721326.5342,1,2,1.0000,2.5723,1.41983,-0.03535,-2.70646,1.17084,1.57110,0.11666,-0.13160,-0.44699,0.00898,,,,,,,,,,,,,,,,,,,,,,,,,,0,0,0,0,0
5.3471,1783721326.5520,1,2,1.0000,2.4379,1.41983,-0.03532,-2.70646,1.17081,1.57110,0.11666,-0.13160,-0.44698,0.00898,,,,,,,,,,,,,,,,,,,,,,,,,,0,0,0,0,0
5.3524,1783721326.5573,1,2,1.0000,2.4376,1.41983,-0.03528,-2.70645,1.17076,1.57110,0.11666,-0.13160,-0.44698,0.00899,,,,,,,,,,,,,,,,,,,,,,,,,,0,0,0,0,0
5.3606,1783721326.5655,1,2,1.0000,2.6489,1.41983,-0.03525,-2.70645,1.17073,1.57110,0.11666,-0.13160,-0.44698,0.00900,,,,,,,,,,,,,,,,,,,,,,,,,,0,0,0,0,0
5.3710,1783721326.5760,1,2,1.0000,2.7476,1.41983,-0.03521,-2.70644,1.17068,1.57110,0.11666,-0.13160,-0.44698,0.00901,,,,,,,,,,,,,,,,,,,,,,,,,,0,0,0,0,0
5.3714,1783721326.5763,1,2,1.0000,2.7555,1.41983,-0.03521,-2.70644,1.17068,1.57110,0.11666,-0.13160,-0.44698,0.00901,,,,,,,,,,,,,,,,,,,,,,,,,,0,0,0,0,0
5.3829,1783721326.5878,1,2,1.0000,2.6408,1.41983,-0.03515,-2.70643,1.17061,1.57110,0.11666,-0.13160,-0.44699,0.00903,,,,,,,,,,,,,,,,,,,,,,,,,,0,0,0,0,0
5.3904,1783721326.5954,1,2,1.0000,1.9921,1.41983,-0.03511,-2.70642,1.17057,1.57110,0.11666,-0.13160,-0.44699,0.00905,,,,,,,,,,,,,,,,,,,,,,,,,,0,0,0,0,0
5.3999,1783721326.6048,1,2,1.0000,1.4614,1.41983,-0.03509,-2.70641,1.17054,1.57110,0.11666,-0.13160,-0.44699,0.00905,,,,,,,,,,,,,,,,,,,,,,,,,,0,0,0,0,0
5.4117,1783721326.6166,1,2,1.0000,1.1492,1.41983,-0.03496,-2.70639,1.17040,1.57110,0.11666,-0.13160,-0.44700,0.00909,,,,,,,,,,,,,,,,,,,,,,,,,,0,0,0,0,0
5.4124,1783721326.6173,1,2,1.0000,0.9882,1.41983,-0.03490,-2.70638,1.17033,1.57110,0.11666,-0.13160,-0.44700,0.00911,,,,,,,,,,,,,,,,,,,,,,,,,,0,0,0,0,0
5.4216,1783721326.6266,1,0,1.0000,0.7943,1.41983,-0.03484,-2.70636,1.17026,1.57110,0.11666,-0.13160,-0.44700,0.00913,,,,,,,,,,,,,,,,,,,,,,,,,,0,0,0,0,0
5.4305,1783721326.6354,1,0,1.0000,0.9653,1.41983,-0.03481,-2.70636,1.17022,1.57110,0.11666,-0.13160,-0.44700,0.00914,,,,,,,,,,,,,,,,,,,,,,,,,,0,0,0,0,0
5.4404,1783721326.6454,1,0,1.0000,1.2552,1.41983,-0.03466,-2.70633,1.17005,1.57109,0.11666,-0.13160,-0.44700,0.00918,,,,,,,,,,,,,,,,,,,,,,,,,,0,0,0,0,0
5.4506,1783721326.6555,1,0,1.0000,1.5961,1.41983,-0.03451,-2.70631,1.16988,1.57109,0.11666,-0.13160,-0.44700,0.00922,,,,,,,,,,,,,,,,,,,,,,,,,,0,0,0,0,0
5.4594,1783721326.6643,1,0,1.0000,1.4199,1.41983,-0.03450,-2.70631,1.16987,1.57109,0.11666,-0.13160,-0.44700,0.00922,,,,,,,,,,,,,,,,,,,,,,,,,,0,0,0,0,0
5.4736,1783721326.6786,1,0,1.0000,0.9855,1.41983,-0.03431,-2.70628,1.16966,1.57109,0.11666,-0.13160,-0.44701,0.00928,,,,,,,,,,,,,,,,,,,,,,,,,,0,0,0,0,0
5.4739,1783721326.6789,1,0,1.0000,0.8410,1.41983,-0.03431,-2.70628,1.16966,1.57109,0.11666,-0.13160,-0.44701,0.00928,,,,,,,,,,,,,,,,,,,,,,,,,,0,0,0,0,0
5.4813,1783721326.6862,1,0,1.0000,0.4028,1.41983,-0.03424,-2.70626,1.16958,1.57109,0.11666,-0.13160,-0.44701,0.00930,,,,,,,,,,,,,,,,,,,,,,,,,,0,0,0,0,0
5.4933,1783721326.6983,1,0,1.0000,0.4881,1.41983,-0.03417,-2.70626,1.16950,1.57109,0.11666,-0.13160,-0.44700,0.00931,,,,,,,,,,,,,,,,,,,,,,,,,,0,0,0,0,0
5.5012,1783721326.7061,1,0,1.0000,0.7621,1.41983,-0.03407,-2.70624,1.16938,1.57109,0.11666,-0.13160,-0.44700,0.00934,,,,,,,,,,,,,,,,,,,,,,,,,,0,0,0,0,0
5.5096,1783721326.7146,1,0,1.0000,1.4960,1.41984,-0.03394,-2.70623,1.16922,1.57108,0.11666,-0.13160,-0.44700,0.00938,,,,,,,,,,,,,,,,,,,,,,,,,,0,0,0,0,0
5.5099,1783721326.7149,1,0,1.0000,1.6425,1.41984,-0.03394,-2.70623,1.16922,1.57108,0.11666,-0.13160,-0.44700,0.00938,,,,,,,,,,,,,,,,,,,,,,,,,,0,0,0,0,0
5.5191,1783721326.7240,1,0,1.0000,1.8511,1.41984,-0.03379,-2.70621,1.16906,1.57108,0.11666,-0.13160,-0.44700,0.00941,,,,,,,,,,,,,,,,,,,,,,,,,,0,0,0,0,0
5.5326,1783721326.7375,1,0,1.0000,1.7543,1.41984,-0.03355,-2.70618,1.16878,1.57108,0.11666,-0.13161,-0.44698,0.00948,,,,,,,,,,,,,,,,,,,,,,,,,,0,0,0,0,0
5.5329,1783721326.7379,1,0,1.0000,1.4908,1.41984,-0.03355,-2.70618,1.16878,1.57108,0.11666,-0.13161,-0.44698,0.00948,,,,,,,,,,,,,,,,,,,,,,,,,,0,0,0,0,0
5.5436,1783721326.7486,1,0,1.0000,0.5257,1.41984,-0.03348,-2.70618,1.16870,1.57108,0.11666,-0.13161,-0.44698,0.00949,,,,,,,,,,,,,,,,,,,,,,,,,,0,0,0,0,0
5.5491,1783721326.7541,1,0,1.0000,0.2713,1.41984,-0.03348,-2.70618,1.16870,1.57108,0.11666,-0.13161,-0.44698,0.00949,,,,,,,,,,,,,,,,,,,,,,,,,,0,0,0,0,0
5.5494,1783721326.7544,1,0,1.0000,0.0231,1.41984,-0.03348,-2.70618,1.16870,1.57108,0.11666,-0.13161,-0.44698,0.00949,,,,,,,,,,,,,,,,,,,,,,,,,,0,0,0,0,0
5.5591,1783721326.7641,1,0,1.0000,0.0055,1.41984,-0.03347,-2.70618,1.16869,1.57108,0.11666,-0.13161,-0.44698,0.00950,,,,,,,,,,,,,,,,,,,,,,,,,,0,0,0,0,0
5.5595,1783721326.7644,1,0,1.0000,0.0008,1.41984,-0.03347,-2.70618,1.16869,1.57108,0.11666,-0.13161,-0.44698,0.00950,,,,,,,,,,,,,,,,,,,,,,,,,,0,0,0,0,0
5.5688,1783721326.7738,1,0,1.0000,0.0001,1.41984,-0.03344,-2.70618,1.16866,1.57108,0.11666,-0.13161,-0.44698,0.00950,,,,,,,,,,,,,,,,,,,,,,,,,,0,0,0,0,0
5.5692,1783721326.7741,1,0,1.0000,0.0001,1.41984,-0.03344,-2.70618,1.16866,1.57108,0.11666,-0.13161,-0.44698,0.00950,,,,,,,,,,,,,,,,,,,,,,,,,,0,0,0,0,0
5.5804,1783721326.7853,1,0,1.0000,0.0000,1.41984,-0.03341,-2.70617,1.16862,1.57108,0.11666,-0.13161,-0.44698,0.00951,,,,,,,,,,,,,,,,,,,,,,,,,,0,0,0,0,0
5.5916,1783721326.7965,1,0,1.0000,0.1215,1.41984,-0.03335,-2.70615,1.16855,1.57107,0.11666,-0.13161,-0.44699,0.00953,,,,,,,,,,,,,,,,,,,,,,,,,,0,0,0,0,0
