Martins-Lucaas/twinforge/sensors/Data/20260713_124053__samples.csv
t_rel_s,t_unix,cycle,phase,setpoint_n,force_net_n,q1,q2,q3,q4,q5,q6,tcp_x,tcp_y,tcp_z,taxel_0,taxel_1,taxel_2,taxel_3,taxel_4,taxel_5,taxel_6,taxel_7,taxel_8,taxel_9,taxel_10,taxel_11,taxel_12,taxel_13,taxel_14,taxel_15,taxel_16,taxel_17,taxel_18,taxel_19,taxel_20,taxel_21,taxel_22,taxel_23,taxel_24,n_RA,n_SA,cn_mm,cn_ra,cn_sa
0.0499,1783957253.1178,1,0,3.0000,0.0000,1.42244,0.00072,-2.63060,1.05902,1.57082,0.11673,-0.12764,-0.48146,0.03734,,,,,,,,,,,,,,,,,,,,,,,,,,0,0,0,0,0
0.0704,1783957253.1383,1,0,3.0000,0.0000,1.42244,0.00072,-2.63058,1.05904,1.57081,0.11674,-0.12763,-0.48148,0.03736,,,,,,,,,,,,,,,,,,,,,,,,,,0,0,0,0,0
0.0707,1783957253.1386,1,0,3.0000,0.0000,1.42244,0.00072,-2.63058,1.05904,1.57081,0.11674,-0.12763,-0.48148,0.03736,,,,,,,,,,,,,,,,,,,,,,,,,,0,0,0,0,0
0.0710,1783957253.1389,1,0,3.0000,0.0000,1.42244,0.00072,-2.63058,1.05904,1.57081,0.11674,-0.12763,-0.48148,0.03736,,,,,,,,,,,,,,,,,,,,,,,,,,0,0,0,0,0
0.0713,1783957253.1392,1,0,3.0000,0.0000,1.42244,0.00072,-2.63058,1.05904,1.57081,0.11674,-0.12763,-0.48148,0.03736,,,,,,,,,,,,,,,,,,,,,,,,,,0,0,0,0,0
0.0717,1783957253.1396,1,0,3.0000,0.0000,1.42244,0.00072,-2.63058,1.05904,1.57081,0.11674,-0.12763,-0.48148,0.03736,,,,,,,,,,,,,,,,,,,,,,,,,,0,0,0,0,0
0.0771,1783957253.1450,1,0,3.0000,0.0000,1.42244,0.00072,-2.63057,1.05904,1.57081,0.11674,-0.12763,-0.48149,0.03736,,,,,,,,,,,,,,,,,,,,,,,,,,0,0,0,0,0
0.0871,1783957253.1550,1,0,3.0000,0.0000,1.42244,0.00071,-2.63055,1.05905,1.57080,0.11675,-0.12763,-0.48151,0.03737,,,,,,,,,,,,,,,,,,,,,,,,,,0,0,0,0,0
0.0959,1783957253.1638,1,0,3.0000,0.0000,1.42244,0.00071,-2.63054,1.05906,1.57080,0.11675,-0.12763,-0.48152,0.03738,,,,,,,,,,,,,,,,,,,,,,,,,,0,0,0,0,0
0.1071,1783957253.1750,1,0,3.0000,0.0000,1.42244,0.00071,-2.63053,1.05907,1.57080,0.11675,-0.12763,-0.48152,0.03738,,,,,,,,,,,,,,,,,,,,,,,,,,0,0,0,0,0
0.1076,1783957253.1755,1,0,3.0000,0.0000,1.42244,0.00071,-2.63053,1.05907,1.57080,0.11675,-0.12763,-0.48152,0.03738,,,,,,,,,,,,,,,,,,,,,,,,,,0,0,0,0,0
0.1185,1783957253.1864,1,0,3.0000,0.0000,1.42244,0.00071,-2.63053,1.05907,1.57080,0.11675,-0.12763,-0.48152,0.03738,,,,,,,,,,,,,,,,,,,,,,,,,,0,0,0,0,0
0.1264,1783957253.1943,1,0,3.0000,0.0000,1.42244,0.00071,-2.63053,1.05907,1.57080,0.11675,-0.12763,-0.48152,0.03738,,,,,,,,,,,,,,,,,,,,,,,,,,0,0,0,0,0
0.1266,1783957253.1945,1,0,3.0000,0.0000,1.42244,0.00071,-2.63053,1.05907,1.57080,0.11675,-0.12763,-0.48152,0.03738,,,,,,,,,,,,,,,,,,,,,,,,,,0,0,0,0,0
0.1379,1783957253.2058,1,0,3.0000,0.0000,1.42244,0.00071,-2.63053,1.05907,1.57080,0.11675,-0.12763,-0.48152,0.03738,,,,,,,,,,,,,,,,,,,,,,,,,,0,0,0,0,0
0.1382,1783957253.2061,1,0,3.0000,0.0000,1.42244,0.00071,-2.63053,1.05907,1.57080,0.11675,-0.12763,-0.48152,0.03738,,,,,,,,,,,,,,,,,,,,,,,,,,0,0,0,0,0
0.1459,1783957253.2138,1,0,3.0000,0.0000,1.42244,0.00071,-2.63053,1.05907,1.57080,0.11675,-0.12763,-0.48152,0.03738,,,,,,,,,,,,,,,,,,,,,,,,,,0,0,0,0,0
0.1616,1783957253.2295,1,0,3.0000,0.0000,1.42244,0.00071,-2.63053,1.05907,1.57080,0.11675,-0.12763,-0.48152,0.03738,,,,,,,,,,,,,,,,,,,,,,,,,,0,0,0,0,0
0.1708,1783957253.2388,1,0,3.0000,0.0000,1.42244,0.00071,-2.63053,1.05907,1.57080,0.11675,-0.12763,-0.48152,0.03738,,,,,,,,,,,,,,,,,,,,,,,,,,0,0,0,0,0
0.1773,1783957253.2452,1,0,3.0000,0.0000,1.42244,0.00071,-2.63053,1.05907,1.57080,0.11675,-0.12763,-0.48152,0.03738,,,,,,,,,,,,,,,,,,,,,,,,,,0,0,0,0,0
0.1779,1783957253.2458,1,0,3.0000,0.0000,1.42244,0.00071,-2.63053,1.05907,1.57080,0.11675,-0.12763,-0.48152,0.03738,,,,,,,,,,,,,,,,,,,,,,,,,,0,0,0,0,0
0.1867,1783957253.2547,1,0,3.0000,0.0000,1.42244,0.00071,-2.63053,1.05907,1.57080,0.11675,-0.12763,-0.48152,0.03738,,,,,,,,,,,,,,,,,,,,,,,,,,0,0,0,0,0
0.1870,1783957253.2549,1,0,3.0000,0.0000,1.42244,0.00071,-2.63053,1.05907,1.57080,0.11675,-0.12763,-0.48152,0.03738,,,,,,,,,,,,,,,,,,,,,,,,,,0,0,0,0,0
0.1996,1783957253.2675,1,0,3.0000,0.0000,1.42244,0.00071,-2.63053,1.05907,1.57080,0.11675,-0.12763,-0.48152,0.03738,,,,,,,,,,,,,,,,,,,,,,,,,,0,0,0,0,0
0.1998,1783957253.2677,1,0,3.0000,0.0000,1.42244,0.00071,-2.63053,1.05907,1.57080,0.11675,-0.12763,-0.48152,0.03738,,,,,,,,,,,,,,,,,,,,,,,,,,0,0,0,0,0
0.2098,1783957253.2777,1,0,3.0000,0.0000,1.42244,0.00071,-2.63053,1.05907,1.57080,0.11675,-0.12763,-0.48152,0.03738,,,,,,,,,,,,,,,,,,,,,,,,,,0,0,0,0,0
0.2189,1783957253.2868,1,0,3.0000,0.0000,1.42244,0.00071,-2.63053,1.05907,1.57080,0.11675,-0.12763,-0.48152,0.03738,,,,,,,,,,,,,,,,,,,,,,,,,,0,0,0,0,0
0.2271,1783957253.2950,1,0,3.0000,0.0000,1.42244,0.00071,-2.63053,1.05907,1.57080,0.11675,-0.12763,-0.48152,0.03738,,,,,,,,,,,,,,,,,,,,,,,,,,0,0,0,0,0
0.2274,1783957253.2953,1,0,3.0000,0.0000,1.42244,0.00071,-2.63053,1.05907,1.57080,0.11675,-0.12763,-0.48152,0.03738,,,,,,,,,,,,,,,,,,,,,,,,,,0,0,0,0,0
0.2379,1783957253.3058,1,0,3.0000,0.0000,1.42244,0.00071,-2.63053,1.05907,1.57080,0.11675,-0.12763,-0.48152,0.03738,,,,,,,,,,,,,,,,,,,,,,,,,,0,0,0,0,0
0.2476,1783957253.3155,1,0,3.0000,0.0000,1.42244,0.00071,-2.63053,1.05907,1.57080,0.11675,-0.12763,-0.48152,0.03738,,,,,,,,,,,,,,,,,,,,,,,,,,0,0,0,0,0
0.2928,1783957253.3607,1,0,3.0000,0.0000,1.42244,0.00071,-2.63053,1.05907,1.57080,0.11675,-0.12763,-0.48152,0.03738,,,,,,,,,,,,,,,,,,,,,,,,,,0,0,0,0,0
0.2939,1783957253.3618,1,0,3.0000,0.0000,1.42244,0.00071,-2.63053,1.05907,1.57080,0.11675,-0.12763,-0.48152,0.03738,,,,,,,,,,,,,,,,,,,,,,,,,,0,0,0,0,0
0.2942,1783957253.3621,1,0,3.0000,0.0000,1.42244,0.00071,-2.63053,1.05907,1.57080,0.11675,-0.12763,-0.48152,0.03738,,,,,,,,,,,,,,,,,,,,,,,,,,0,0,0,0,0
0.2947,1783957253.3626,1,0,3.0000,0.0000,1.42244,0.00071,-2.63053,1.05907,1.57080,0.11675,-0.12763,-0.48152,0.03738,,,,,,,,,,,,,,,,,,,,,,,,,,0,0,0,0,0
0.3108,1783957253.3787,1,0,3.0000,0.0000,1.42244,0.00071,-2.63053,1.05907,1.57080,0.11675,-0.12763,-0.48152,0.03738,,,,,,,,,,,,,,,,,,,,,,,,,,0,0,0,0,0
0.3112,1783957253.3791,1,0,3.0000,0.0000,1.42244,0.00071,-2.63053,1.05907,1.57080,0.11675,-0.12763,-0.48152,0.03738,,,,,,,,,,,,,,,,,,,,,,,,,,0,0,0,0,0
0.3184,1783957253.3863,1,0,3.0000,0.0000,1.42244,0.00071,-2.63053,1.05907,1.57080,0.11675,-0.12763,-0.48152,0.03738,,,,,,,,,,,,,,,,,,,,,,,,,,0,0,0,0,0
0.3187,1783957253.3866,1,0,3.0000,0.0000,1.42244,0.00071,-2.63053,1.05907,1.57080,0.11675,-0.12763,-0.48152,0.03738,,,,,,,,,,,,,,,,,,,,,,,,,,0,0,0,0,0
0.3288,1783957253.3967,1,0,3.0000,0.0000,1.42244,0.00071,-2.63053,1.05907,1.57080,0.11675,-0.12763,-0.48152,0.03738,,,,,,,,,,,,,,,,,,,,,,,,,,0,0,0,0,0
0.3294,1783957253.3973,1,0,3.0000,0.0000,1.42244,0.00071,-2.63053,1.05907,1.57080,0.11675,-0.12763,-0.48152,0.03738,,,,,,,,,,,,,,,,,,,,,,,,,,0,0,0,0,0
0.3356,1783957253.4035,1,0,3.0000,0.0000,1.42244,0.00071,-2.63053,1.05907,1.57080,0.11675,-0.12763,-0.48152,0.03738,,,,,,,,,,,,,,,,,,,,,,,,,,0,0,0,0,0
0.3453,1783957253.4132,1,0,3.0000,0.0000,1.42244,0.00071,-2.63053,1.05907,1.57080,0.11675,-0.12763,-0.48152,0.03738,,,,,,,,,,,,,,,,,,,,,,,,,,0,0,0,0,0
0.3461,1783957253.4141,1,0,3.0000,0.0000,1.42244,0.00071,-2.63053,1.05907,1.57080,0.11675,-0.12763,-0.48152,0.03738,,,,,,,,,,,,,,,,,,,,,,,,,,0,0,0,0,0
0.3564,1783957253.4243,1,0,3.0000,0.0000,1.42244,0.00071,-2.63053,1.05907,1.57080,0.11675,-0.12763,-0.48152,0.03738,,,,,,,,,,,,,,,,,,,,,,,,,,0,0,0,0,0
0.3691,1783957253.4370,1,0,3.0000,0.0000,1.42244,0.00071,-2.63053,1.05907,1.57080,0.11675,-0.12763,-0.48152,0.03738,,,,,,,,,,,,,,,,,,,,,,,,,,0,0,0,0,0
0.3782,1783957253.4461,1,0,3.0000,0.0000,1.42244,0.00071,-2.63053,1.05907,1.57080,0.11675,-0.12763,-0.48152,0.03738,,,,,,,,,,,,,,,,,,,,,,,,,,0,0,0,0,0
0.3786,1783957253.4466,1,0,3.0000,0.0000,1.42244,0.00071,-2.63053,1.05907,1.57080,0.11675,-0.12763,-0.48152,0.03738,,,,,,,,,,,,,,,,,,,,,,,,,,0,0,0,0,0
0.3934,1783957253.4613,1,0,3.0000,0.0000,1.42244,0.00071,-2.63053,1.05907,1.57080,0.11675,-0.12763,-0.48152,0.03738,,,,,,,,,,,,,,,,,,,,,,,,,,0,0,0,0,0
0.3982,1783957253.4661,1,0,3.0000,0.0000,1.42244,0.00071,-2.63053,1.05907,1.57080,0.11675,-0.12763,-0.48152,0.03738,,,,,,,,,,,,,,,,,,,,,,,,,,0,0,0,0,0
0.4091,1783957253.4770,1,0,3.0000,0.0000,1.42244,0.00071,-2.63053,1.05907,1.57080,0.11675,-0.12763,-0.48152,0.03738,,,,,,,,,,,,,,,,,,,,,,,,,,0,0,0,0,0
0.4157,1783957253.4836,1,0,3.0000,0.0000,1.42244,0.00071,-2.63053,1.05907,1.57080,0.11675,-0.12763,-0.48152,0.03738,,,,,,,,,,,,,,,,,,,,,,,,,,0,0,0,0,0
0.4272,1783957253.4951,1,0,3.0000,0.0000,1.42244,0.00071,-2.63053,1.05907,1.57080,0.11675,-0.12763,-0.48152,0.03738,,,,,,,,,,,,,,,,,,,,,,,,,,0,0,0,0,0
0.4411,1783957253.5090,1,0,3.0000,0.0000,1.42244,0.00071,-2.63053,1.05907,1.57080,0.11675,-0.12763,-0.48152,0.03738,,,,,,,,,,,,,,,,,,,,,,,,,,0,0,0,0,0
0.4416,1783957253.5095,1,0,3.0000,0.0000,1.42244,0.00071,-2.63053,1.05907,1.57080,0.11675,-0.12763,-0.48152,0.03738,,,,,,,,,,,,,,,,,,,,,,,,,,0,0,0,0,0
0.4463,1783957253.5142,1,0,3.0000,0.0000,1.42244,0.00071,-2.63053,1.05907,1.57080,0.11675,-0.12763,-0.48152,0.03738,,,,,,,,,,,,,,,,,,,,,,,,,,0,0,0,0,0
0.4467,1783957253.5146,1,0,3.0000,0.0000,1.42244,0.00071,-2.63053,1.05907,1.57080,0.11675,-0.12763,-0.48152,0.03738,,,,,,,,,,,,,,,,,,,,,,,,,,0,0,0,0,0
0.4606,1783957253.5285,1,0,3.0000,0.0000,1.42244,0.00071,-2.63053,1.05907,1.57080,0.11675,-0.12763,-0.48152,0.03738,,,,,,,,,,,,,,,,,,,,,,,,,,0,0,0,0,0
0.4696,1783957253.5375,1,0,3.0000,0.0000,1.42244,0.00071,-2.63053,1.05907,1.57080,0.11675,-0.12763,-0.48152,0.03738,,,,,,,,,,,,,,,,,,,,,,,,,,0,0,0,0,0
0.4702,1783957253.5381,1,0,3.0000,0.0000,1.42244,0.00071,-2.63053,1.05907,1.57080,0.11675,-0.12763,-0.48152,0.03738,,,,,,,,,,,,,,,,,,,,,,,,,,0,0,0,0,0
0.4781,1783957253.5460,1,0,3.0000,0.0000,1.42244,0.00071,-2.63053,1.05907,1.57080,0.11675,-0.12763,-0.48152,0.03738,,,,,,,,,,,,,,,,,,,,,,,,,,0,0,0,0,0
0.4871,1783957253.5550,1,0,3.0000,0.0000,1.42244,0.00071,-2.63053,1.05907,1.57080,0.11675,-0.12763,-0.48152,0.03738,,,,,,,,,,,,,,,,,,,,,,,,,,0,0,0,0,0
0.4955,1783957253.5634,1,0,3.0000,0.0000,1.42244,0.00071,-2.63053,1.05907,1.57080,0.11675,-0.12763,-0.48152,0.03738,,,,,,,,,,,,,,,,,,,,,,,,,,0,0,0,0,0
0.5055,1783957253.5735,1,0,3.0000,0.0000,1.42244,0.00071,-2.63053,1.05907,1.57080,0.11675,-0.12763,-0.48152,0.03738,,,,,,,,,,,,,,,,,,,,,,,,,,0,0,0,0,0
0.5063,1783957253.5742,1,0,3.0000,0.0000,1.42244,0.00071,-2.63053,1.05907,1.57080,0.11675,-0.12763,-0.48152,0.03738,,,,,,,,,,,,,,,,,,,,,,,,,,0,0,0,0,0
0.5159,1783957253.5838,1,0,3.0000,0.0000,1.42244,0.00071,-2.63053,1.05907,1.57080,0.11675,-0.12763,-0.48152,0.03738,,,,,,,,,,,,,,,,,,,,,,,,,,0,0,0,0,0
0.5298,1783957253.5977,1,0,3.0000,0.0000,1.42244,0.00071,-2.63053,1.05907,1.57080,0.11675,-0.12763,-0.48152,0.03738,,,,,,,,,,,,,,,,,,,,,,,,,,0,0,0,0,0
0.5492,1783957253.6171,1,0,3.0000,0.0000,1.42244,0.00071,-2.63053,1.05907,1.57080,0.11675,-0.12763,-0.48152,0.03738,,,,,,,,,,,,,,,,,,,,,,,,,,0,0,0,0,0
0.5702,1783957253.6381,1,0,3.0000,0.0000,1.42244,0.00071,-2.63053,1.05907,1.57080,0.11675,-0.12763,-0.48152,0.03738,,,,,,,,,,,,,,,,,,,,,,,,,,0,0,0,0,0
0.5706,1783957253.6385,1,0,3.0000,0.0000,1.42244,0.00071,-2.63053,1.05907,1.57080,0.11675,-0.12763,-0.48152,0.03738,,,,,,,,,,,,,,,,,,,,,,,,,,0,0,0,0,0
0.5826,1783957253.6505,1,0,3.0000,0.0000,1.42244,0.00071,-2.63053,1.05907,1.57080,0.11675,-0.12763,-0.48152,0.03738,,,,,,,,,,,,,,,,,,,,,,,,,,0,0,0,0,0
0.5830,1783957253.6510,1,0,3.0000,0.0000,1.42244,0.00071,-2.63053,1.05907,1.57080,0.11675,-0.12763,-0.48152,0.03738,,,,,,,,,,,,,,,,,,,,,,,,,,0,0,0,0,0
0.6263,1783957253.6942,1,0,3.0000,0.0000,1.42244,0.00071,-2.63053,1.05907,1.57080,0.11675,-0.12763,-0.48152,0.03738,,,,,,,,,,,,,,,,,,,,,,,,,,0,0,0,0,0
0.6732,1783957253.7411,1,0,3.0000,0.0000,1.42244,0.00071,-2.63053,1.05907,1.57080,0.11675,-0.12763,-0.48152,0.03738,,,,,,,,,,,,,,,,,,,,,,,,,,0,0,0,0,0
0.6735,1783957253.7414,1,0,3.0000,0.0000,1.42244,0.00071,-2.63053,1.05907,1.57080,0.11675,-0.12763,-0.48152,0.03738,,,,,,,,,,,,,,,,,,,,,,,,,,0,0,0,0,0
0.6739,1783957253.7418,1,0,3.0000,0.0000,1.42244,0.00071,-2.63053,1.05907,1.57080,0.11675,-0.12763,-0.48152,0.03738,,,,,,,,,,,,,,,,,,,,,,,,,,0,0,0,0,0
0.7002,1783957253.7681,1,0,3.0000,0.0000,1.42244,0.00071,-2.63053,1.05907,1.57080,0.11675,-0.12763,-0.48152,0.03738,,,,,,,,,,,,,,,,,,,,,,,,,,0,0,0,0,0
0.7006,1783957253.7685,1,0,3.0000,0.0000,1.42244,0.00071,-2.63053,1.05907,1.57080,0.11675,-0.12763,-0.48152,0.03738,,,,,,,,,,,,,,,,,,,,,,,,,,0,0,0,0,0
0.7011,1783957253.7690,1,0,3.0000,0.0000,1.42244,0.00071,-2.63053,1.05907,1.57080,0.11675,-0.12763,-0.48152,0.03738,,,,,,,,,,,,,,,,,,,,,,,,,,0,0,0,0,0
0.7015,1783957253.7694,1,0,3.0000,0.0000,1.42244,0.00071,-2.63053,1.05907,1.57080,0.11675,-0.12763,-0.48152,0.03738,,,,,,,,,,,,,,,,,,,,,,,,,,0,0,0,0,0
0.7110,1783957253.7789,1,0,3.0000,0.0000,1.42244,0.00071,-2.63053,1.05907,1.57080,0.11675,-0.12763,-0.48152,0.03738,,,,,,,,,,,,,,,,,,,,,,,,,,0,0,0,0,0
0.7161,1783957253.7840,1,0,3.0000,0.0000,1.42244,0.00071,-2.63053,1.05907,1.57080,0.11675,-0.12763,-0.48152,0.03738,,,,,,,,,,,,,,,,,,,,,,,,,,0,0,0,0,0
0.7359,1783957253.8038,1,1,3.0000,0.0000,1.42244,0.00071,-2.63053,1.05907,1.57080,0.11675,-0.12763,-0.48152,0.03738,,,,,,,,,,,,,,,,,,,,,,,,,,0,0,0,0,0
0.7434,1783957253.8113,1,1,3.0000,0.0000,1.42244,0.00071,-2.63053,1.05907,1.57080,0.11675,-0.12763,-0.48152,0.03738,,,,,,,,,,,,,,,,,,,,,,,,,,0,0,0,0,0
0.7454,1783957253.8133,1,1,3.0000,0.0000,1.42244,0.00071,-2.63053,1.05907,1.57080,0.11675,-0.12763,-0.48152,0.03738,,,,,,,,,,,,,,,,,,,,,,,,,,0,0,0,0,0
0.7457,1783957253.8136,1,1,3.0000,0.0000,1.42244,0.00071,-2.63053,1.05907,1.57080,0.11675,-0.12763,-0.48152,0.03738,,,,,,,,,,,,,,,,,,,,,,,,,,0,0,0,0,0
0.7768,1783957253.8447,1,1,3.0000,0.0000,1.42244,0.00071,-2.63053,1.05907,1.57080,0.11675,-0.12763,-0.48152,0.03738,,,,,,,,,,,,,,,,,,,,,,,,,,0,0,0,0,0
0.7771,1783957253.8450,1,1,3.0000,0.0000,1.42244,0.00071,-2.63053,1.05907,1.57080,0.11675,-0.12763,-0.48152,0.03738,,,,,,,,,,,,,,,,,,,,,,,,,,0,0,0,0,0
0.7858,1783957253.8537,1,1,3.0000,0.0000,1.42244,0.00071,-2.63053,1.05907,1.57080,0.11675,-0.12763,-0.48152,0.03738,,,,,,,,,,,,,,,,,,,,,,,,,,0,0,0,0,0
0.7909,1783957253.8588,1,1,3.0000,0.0000,1.42244,0.00071,-2.63053,1.05907,1.57080,0.11675,-0.12763,-0.48152,0.03738,,,,,,,,,,,,,,,,,,,,,,,,,,0,0,0,0,0
0.7913,1783957253.8592,1,1,3.0000,0.0000,1.42244,0.00071,-2.63053,1.05907,1.57080,0.11675,-0.12763,-0.48152,0.03738,,,,,,,,,,,,,,,,,,,,,,,,,,0,0,0,0,0
0.7996,1783957253.8675,1,1,3.0000,0.0000,1.42244,0.00071,-2.63053,1.05907,1.57080,0.11675,-0.12763,-0.48152,0.03738,,,,,,,,,,,,,,,,,,,,,,,,,,0,0,0,0,0
0.7999,1783957253.8678,1,1,3.0000,0.0000,1.42244,0.00071,-2.63053,1.05907,1.57080,0.11675,-0.12763,-0.48152,0.03738,,,,,,,,,,,,,,,,,,,,,,,,,,0,0,0,0,0
0.8052,1783957253.8731,1,1,3.0000,0.0000,1.42244,0.00071,-2.63053,1.05907,1.57080,0.11675,-0.12763,-0.48152,0.03738,,,,,,,,,,,,,,,,,,,,,,,,,,0,0,0,0,0
0.8055,1783957253.8734,1,1,3.0000,0.0000,1.42244,0.00071,-2.63053,1.05907,1.57080,0.11675,-0.12763,-0.48152,0.03738,,,,,,,,,,,,,,,,,,,,,,,,,,0,0,0,0,0
0.8168,1783957253.8847,1,1,3.0000,0.0000,1.42244,0.00071,-2.63053,1.05907,1.57080,0.11675,-0.12763,-0.48152,0.03738,,,,,,,,,,,,,,,,,,,,,,,,,,0,0,0,0,0
0.8254,1783957253.8933,1,1,3.0000,0.0000,1.42244,0.00071,-2.63053,1.05907,1.57080,0.11675,-0.12763,-0.48152,0.03738,,,,,,,,,,,,,,,,,,,,,,,,,,0,0,0,0,0
0.8456,1783957253.9135,1,1,3.0000,0.0000,1.42244,0.00071,-2.63053,1.05907,1.57080,0.11675,-0.12763,-0.48152,0.03738,,,,,,,,,,,,,,,,,,,,,,,,,,0,0,0,0,0
0.8480,1783957253.9159,1,1,3.0000,0.0000,1.42244,0.00071,-2.63053,1.05907,1.57080,0.11675,-0.12763,-0.48152,0.03738,,,,,,,,,,,,,,,,,,,,,,,,,,0,0,0,0,0
0.8560,1783957253.9239,1,1,3.0000,0.0000,1.42244,0.00071,-2.63053,1.05907,1.57080,0.11675,-0.12763,-0.48152,0.03738,,,,,,,,,,,,,,,,,,,,,,,,,,0,0,0,0,0
0.8562,1783957253.9241,1,1,3.0000,0.0000,1.42244,0.00071,-2.63053,1.05907,1.57080,0.11675,-0.12763,-0.48152,0.03738,,,,,,,,,,,,,,,,,,,,,,,,,,0,0,0,0,0
0.8698,1783957253.9377,1,1,3.0000,0.0000,1.42244,0.00071,-2.63053,1.05907,1.57080,0.11675,-0.12763,-0.48152,0.03738,,,,,,,,,,,,,,,,,,,,,,,,,,0,0,0,0,0
0.8787,1783957253.9466,1,1,3.0000,0.0000,1.42244,0.00071,-2.63053,1.05907,1.57080,0.11675,-0.12763,-0.48152,0.03738,,,,,,,,,,,,,,,,,,,,,,,,,,0,0,0,0,0
0.8793,1783957253.9472,1,1,3.0000,0.0000,1.42244,0.00071,-2.63053,1.05907,1.57080,0.11675,-0.12763,-0.48152,0.03738,,,,,,,,,,,,,,,,,,,,,,,,,,0,0,0,0,0
0.8857,1783957253.9537,1,1,3.0000,0.0000,1.42244,0.00071,-2.63053,1.05907,1.57080,0.11675,-0.12763,-0.48152,0.03738,,,,,,,,,,,,,,,,,,,,,,,,,,0,0,0,0,0
0.8862,1783957253.9541,1,1,3.0000,0.0000,1.42244,0.00071,-2.63053,1.05907,1.57080,0.11675,-0.12763,-0.48152,0.03738,,,,,,,,,,,,,,,,,,,,,,,,,,0,0,0,0,0
0.8956,1783957253.9635,1,1,3.0000,0.0000,1.42244,0.00071,-2.63053,1.05907,1.57080,0.11675,-0.12763,-0.48152,0.03738,,,,,,,,,,,,,,,,,,,,,,,,,,0,0,0,0,0
0.9051,1783957253.9730,1,1,3.0000,0.0000,1.42244,0.00071,-2.63053,1.05907,1.57080,0.11675,-0.12763,-0.48152,0.03738,,,,,,,,,,,,,,,,,,,,,,,,,,0,0,0,0,0
0.9055,1783957253.9734,1,1,3.0000,0.0000,1.42244,0.00071,-2.63053,1.05907,1.57080,0.11675,-0.12763,-0.48152,0.03738,,,,,,,,,,,,,,,,,,,,,,,,,,0,0,0,0,0
0.9166,1783957253.9845,1,1,3.0000,0.0000,1.42244,0.00071,-2.63053,1.05907,1.57080,0.11675,-0.12763,-0.48152,0.03738,,,,,,,,,,,,,,,,,,,,,,,,,,0,0,0,0,0
0.9176,1783957253.9855,1,1,3.0000,0.0000,1.42244,0.00071,-2.63053,1.05907,1.57080,0.11675,-0.12763,-0.48152,0.03738,,,,,,,,,,,,,,,,,,,,,,,,,,0,0,0,0,0
0.9258,1783957253.9937,1,1,3.0000,0.0000,1.42244,0.00071,-2.63053,1.05907,1.57080,0.11675,-0.12763,-0.48152,0.03738,,,,,,,,,,,,,,,,,,,,,,,,,,0,0,0,0,0
0.9378,1783957254.0057,1,1,3.0000,0.0000,1.42244,0.00071,-2.63053,1.05907,1.57080,0.11675,-0.12763,-0.48152,0.03738,,,,,,,,,,,,,,,,,,,,,,,,,,0,0,0,0,0
0.9475,1783957254.0154,1,1,3.0000,0.0000,1.42244,0.00071,-2.63053,1.05907,1.57080,0.11675,-0.12763,-0.48152,0.03738,,,,,,,,,,,,,,,,,,,,,,,,,,0,0,0,0,0
0.9554,1783957254.0233,1,1,3.0000,0.0000,1.42244,0.00071,-2.63053,1.05907,1.57080,0.11675,-0.12763,-0.48152,0.03738,,,,,,,,,,,,,,,,,,,,,,,,,,0,0,0,0,0
0.9721,1783957254.0400,1,1,3.0000,0.0000,1.42244,0.00071,-2.63053,1.05907,1.57080,0.11675,-0.12763,-0.48152,0.03738,,,,,,,,,,,,,,,,,,,,,,,,,,0,0,0,0,0
0.9827,1783957254.0506,1,1,3.0000,0.0000,1.42244,0.00071,-2.63053,1.05907,1.57080,0.11675,-0.12763,-0.48152,0.03738,,,,,,,,,,,,,,,,,,,,,,,,,,0,0,0,0,0
0.9830,1783957254.0509,1,1,3.0000,0.0000,1.42244,0.00071,-2.63053,1.05907,1.57080,0.11675,-0.12763,-0.48152,0.03738,,,,,,,,,,,,,,,,,,,,,,,,,,0,0,0,0,0
0.9858,1783957254.0537,1,1,3.0000,0.0000,1.42244,0.00071,-2.63053,1.05907,1.57080,0.11675,-0.12763,-0.48152,0.03738,,,,,,,,,,,,,,,,,,,,,,,,,,0,0,0,0,0
0.9863,1783957254.0542,1,1,3.0000,0.0000,1.42244,0.00071,-2.63053,1.05907,1.57080,0.11675,-0.12763,-0.48152,0.03738,,,,,,,,,,,,,,,,,,,,,,,,,,0,0,0,0,0
0.9964,1783957254.0643,1,1,3.0000,0.0000,1.42244,0.00071,-2.63053,1.05907,1.57080,0.11675,-0.12763,-0.48152,0.03738,,,,,,,,,,,,,,,,,,,,,,,,,,0,0,0,0,0
1.0057,1783957254.0736,1,1,3.0000,0.0000,1.42244,0.00071,-2.63053,1.05907,1.57080,0.11675,-0.12763,-0.48152,0.03738,,,,,,,,,,,,,,,,,,,,,,,,,,0,0,0,0,0
1.0298,1783957254.0977,1,1,3.0000,0.0000,1.42244,0.00070,-2.63055,1.05907,1.57080,0.11675,-0.12764,-0.48151,0.03737,,,,,,,,,,,,,,,,,,,,,,,,,,0,0,0,0,0
1.0301,1783957254.0980,1,1,3.0000,0.0000,1.42244,0.00070,-2.63055,1.05907,1.57080,0.11675,-0.12764,-0.48151,0.03737,,,,,,,,,,,,,,,,,,,,,,,,,,0,0,0,0,0
1.0381,1783957254.1060,1,1,3.0000,0.0000,1.42244,0.00070,-2.63055,1.05907,1.57080,0.11675,-0.12764,-0.48151,0.03737,,,,,,,,,,,,,,,,,,,,,,,,,,0,0,0,0,0
1.0460,1783957254.1139,1,1,3.0000,0.0000,1.42244,0.00069,-2.63056,1.05908,1.57080,0.11675,-0.12764,-0.48150,0.03736,,,,,,,,,,,,,,,,,,,,,,,,,,0,0,0,0,0
1.0466,1783957254.1145,1,1,3.0000,0.0000,1.42244,0.00069,-2.63056,1.05908,1.57080,0.11675,-0.12764,-0.48150,0.03736,,,,,,,,,,,,,,,,,,,,,,,,,,0,0,0,0,0
1.0618,1783957254.1297,1,1,3.0000,0.0000,1.42244,0.00067,-2.63058,1.05910,1.57080,0.11675,-0.12764,-0.48149,0.03735,,,,,,,,,,,,,,,,,,,,,,,,,,0,0,0,0,0
1.0871,1783957254.1550,1,1,3.0000,0.0000,1.42244,0.00056,-2.63064,1.05922,1.57080,0.11675,-0.12764,-0.48146,0.03729,,,,,,,,,,,,,,,,,,,,,,,,,,0,0,0,0,0
1.0876,1783957254.1555,1,1,3.0000,0.0000,1.42244,0.00056,-2.63064,1.05922,1.57080,0.11675,-0.12764,-0.48146,0.03729,,,,,,,,,,,,,,,,,,,,,,,,,,0,0,0,0,0
1.0883,1783957254.1562,1,1,3.0000,0.0000,1.42244,0.00056,-2.63064,1.05922,1.57080,0.11675,-0.12764,-0.48146,0.03729,,,,,,,,,,,,,,,,,,,,,,,,,,0,0,0,0,0
1.0956,1783957254.1635,1,1,3.0000,0.0000,1.42244,0.00055,-2.63064,1.05922,1.57080,0.11675,-0.12764,-0.48146,0.03729,,,,,,,,,,,,,,,,,,,,,,,,,,0,0,0,0,0
1.1059,1783957254.1738,1,1,3.0000,0.0000,1.42244,0.00052,-2.63065,1.05925,1.57080,0.11675,-0.12764,-0.48146,0.03727,,,,,,,,,,,,,,,,,,,,,,,,,,0,0,0,0,0
1.1195,1783957254.1874,1,1,3.0000,0.0000,1.42244,0.00040,-2.63068,1.05939,1.57080,0.11675,-0.12764,-0.48145,0.03723,,,,,,,,,,,,,,,,,,,,,,,,,,0,0,0,0,0
1.1197,1783957254.1876,1,1,3.0000,0.0000,1.42244,0.00040,-2.63068,1.05939,1.57080,0.11675,-0.12764,-0.48145,0.03723,,,,,,,,,,,,,,,,,,,,,,,,,,0,0,0,0,0
1.1420,1783957254.2099,1,1,3.0000,0.0000,1.42244,0.00032,-2.63070,1.05949,1.57080,0.11675,-0.12764,-0.48145,0.03720,,,,,,,,,,,,,,,,,,,,,,,,,,0,0,0,0,0
1.1426,1783957254.2105,1,1,3.0000,0.0000,1.42244,0.00028,-2.63071,1.05954,1.57080,0.11675,-0.12764,-0.48145,0.03719,,,,,,,,,,,,,,,,,,,,,,,,,,0,0,0,0,0
1.1428,1783957254.2107,1,1,3.0000,0.0000,1.42244,0.00028,-2.63071,1.05954,1.57080,0.11675,-0.12764,-0.48145,0.03719,,,,,,,,,,,,,,,,,,,,,,,,,,0,0,0,0,0
1.1474,1783957254.2153,1,1,3.0000,0.0000,1.42244,0.00028,-2.63071,1.05954,1.57080,0.11675,-0.12764,-0.48145,0.03719,,,,,,,,,,,,,,,,,,,,,,,,,,0,0,0,0,0
1.1477,1783957254.2156,1,1,3.0000,0.0000,1.42244,0.00028,-2.63071,1.05954,1.57080,0.11675,-0.12764,-0.48145,0.03719,,,,,,,,,,,,,,,,,,,,,,,,,,0,0,0,0,0
1.1617,1783957254.2297,1,1,3.0000,0.0000,1.42244,0.00022,-2.63072,1.05961,1.57080,0.11675,-0.12764,-0.48145,0.03717,,,,,,,,,,,,,,,,,,,,,,,,,,0,0,0,0,0
1.1657,1783957254.2336,1,1,3.0000,0.0000,1.42244,0.00018,-2.63073,1.05965,1.57080,0.11675,-0.12764,-0.48145,0.03715,,,,,,,,,,,,,,,,,,,,,,,,,,0,0,0,0,0
1.1766,1783957254.2445,1,1,3.0000,0.0000,1.42244,0.00002,-2.63076,1.05983,1.57080,0.11675,-0.12764,-0.48145,0.03710,,,,,,,,,,,,,,,,,,,,,,,,,,0,0,0,0,0
1.1769,1783957254.2448,1,1,3.0000,0.0000,1.42244,0.00002,-2.63076,1.05983,1.57080,0.11675,-0.12764,-0.48145,0.03710,,,,,,,,,,,,,,,,,,,,,,,,,,0,0,0,0,0
1.1883,1783957254.2562,1,1,3.0000,0.0000,1.42244,-0.00004,-2.63077,1.05991,1.57080,0.11675,-0.12764,-0.48145,0.03708,,,,,,,,,,,,,,,,,,,,,,,,,,0,0,0,0,0
1.1955,1783957254.2634,1,1,3.0000,0.0000,1.42244,-0.00007,-2.63077,1.05995,1.57080,0.11675,-0.12764,-0.48146,0.03707,,,,,,,,,,,,,,,,,,,,,,,,,,0,0,0,0,0
1.2079,1783957254.2758,1,1,3.0000,0.0000,1.42244,-0.00016,-2.63078,1.06006,1.57080,0.11675,-0.12764,-0.48146,0.03705,,,,,,,,,,,,,,,,,,,,,,,,,,0,0,0,0,0
1.2152,1783957254.2831,1,1,3.0000,0.0000,1.42244,-0.00024,-2.63079,1.06016,1.57080,0.11675,-0.12764,-0.48147,0.03702,,,,,,,,,,,,,,,,,,,,,,,,,,0,0,0,0,0
1.2273,1783957254.2952,1,1,3.0000,0.0000,1.42244,-0.00035,-2.63080,1.06030,1.57080,0.11675,-0.12764,-0.48149,0.03700,,,,,,,,,,,,,,,,,,,,,,,,,,0,0,0,0,0
1.2472,1783957254.3151,1,1,3.0000,0.0000,1.42244,-0.00046,-2.63079,1.06045,1.57080,0.11675,-0.12763,-0.48151,0.03697,,,,,,,,,,,,,,,,,,,,,,,,,,0,0,0,0,0
1.2476,1783957254.3155,1,1,3.0000,0.0000,1.42244,-0.00046,-2.63079,1.06045,1.57080,0.11675,-0.12763,-0.48151,0.03697,,,,,,,,,,,,,,,,,,,,,,,,,,0,0,0,0,0
1.2479,1783957254.3159,1,1,3.0000,0.0000,1.42244,-0.00046,-2.63079,1.06045,1.57080,0.11675,-0.12763,-0.48151,0.03697,,,,,,,,,,,,,,,,,,,,,,,,,,0,0,0,0,0
1.2671,1783957254.3350,1,1,3.0000,0.0000,1.42244,-0.00046,-2.63079,1.06045,1.57080,0.11675,-0.12763,-0.48151,0.03697,,,,,,,,,,,,,,,,,,,,,,,,,,0,0,0,0,0
1.2674,1783957254.3353,1,1,3.0000,0.0000,1.42244,-0.00046,-2.63079,1.06045,1.57080,0.11675,-0.12763,-0.48151,0.03697,,,,,,,,,,,,,,,,,,,,,,,,,,0,0,0,0,0
1.2788,1783957254.3467,1,1,3.0000,0.0000,1.42244,-0.00046,-2.63079,1.06045,1.57080,0.11675,-0.12763,-0.48151,0.03697,,,,,,,,,,,,,,,,,,,,,,,,,,0,0,0,0,0
1.2890,1783957254.3569,1,1,3.0000,0.0000,1.42244,-0.00046,-2.63079,1.06045,1.57080,0.11675,-0.12763,-0.48151,0.03697,,,,,,,,,,,,,,,,,,,,,,,,,,0,0,0,0,0
1.2956,1783957254.3636,1,1,3.0000,0.0000,1.42244,-0.00046,-2.63079,1.06045,1.57080,0.11675,-0.12763,-0.48151,0.03697,,,,,,,,,,,,,,,,,,,,,,,,,,0,0,0,0,0
1.3055,1783957254.3734,1,1,3.0000,0.0000,1.42244,-0.00046,-2.63079,1.06045,1.57080,0.11675,-0.12763,-0.48151,0.03697,,,,,,,,,,,,,,,,,,,,,,,,,,0,0,0,0,0
1.3153,1783957254.3832,1,1,3.0000,0.0000,1.42244,-0.00046,-2.63079,1.06045,1.57080,0.11675,-0.12763,-0.48151,0.03697,,,,,,,,,,,,,,,,,,,,,,,,,,0,0,0,0,0
1.3156,1783957254.3835,1,1,3.0000,0.0000,1.42244,-0.00046,-2.63079,1.06045,1.57080,0.11675,-0.12763,-0.48151,0.03697,,,,,,,,,,,,,,,,,,,,,,,,,,0,0,0,0,0
1.3268,1783957254.3947,1,1,3.0000,0.0000,1.42244,-0.00046,-2.63079,1.06045,1.57080,0.11675,-0.12763,-0.48151,0.03697,,,,,,,,,,,,,,,,,,,,,,,,,,0,0,0,0,0
1.3356,1783957254.4035,1,1,3.0000,0.0000,1.42244,-0.00046,-2.63079,1.06045,1.57080,0.11675,-0.12763,-0.48151,0.03697,,,,,,,,,,,,,,,,,,,,,,,,,,0,0,0,0,0
1.3360,1783957254.4039,1,1,3.0000,0.0000,1.42244,-0.00046,-2.63079,1.06045,1.57080,0.11675,-0.12763,-0.48151,0.03697,,,,,,,,,,,,,,,,,,,,,,,,,,0,0,0,0,0
1.3485,1783957254.4164,1,1,3.0000,0.0000,1.42244,-0.00046,-2.63079,1.06045,1.57080,0.11675,-0.12763,-0.48151,0.03697,,,,,,,,,,,,,,,,,,,,,,,,,,0,0,0,0,0
1.3587,1783957254.4266,1,1,3.0000,0.0000,1.42244,-0.00046,-2.63079,1.06045,1.57080,0.11675,-0.12763,-0.48151,0.03697,,,,,,,,,,,,,,,,,,,,,,,,,,0,0,0,0,0
1.3656,1783957254.4335,1,1,3.0000,0.0000,1.42244,-0.00046,-2.63079,1.06045,1.57080,0.11675,-0.12763,-0.48151,0.03697,,,,,,,,,,,,,,,,,,,,,,,,,,0,0,0,0,0
1.3661,1783957254.4341,1,1,3.0000,0.0000,1.42244,-0.00046,-2.63079,1.06045,1.57080,0.11675,-0.12763,-0.48151,0.03697,,,,,,,,,,,,,,,,,,,,,,,,,,0,0,0,0,0
1.3793,1783957254.4472,1,1,3.0000,0.0000,1.42244,-0.00046,-2.63079,1.06045,1.57080,0.11675,-0.12763,-0.48151,0.03697,,,,,,,,,,,,,,,,,,,,,,,,,,0,0,0,0,0
1.3797,1783957254.4476,1,1,3.0000,0.0000,1.42244,-0.00046,-2.63079,1.06045,1.57080,0.11675,-0.12763,-0.48151,0.03697,,,,,,,,,,,,,,,,,,,,,,,,,,0,0,0,0,0
1.3897,1783957254.4576,1,1,3.0000,0.0000,1.42244,-0.00046,-2.63079,1.06045,1.57080,0.11675,-0.12763,-0.48151,0.03697,,,,,,,,,,,,,,,,,,,,,,,,,,0,0,0,0,0
1.3955,1783957254.4634,1,1,3.0000,0.0000,1.42244,-0.00046,-2.63079,1.06045,1.57080,0.11675,-0.12763,-0.48151,0.03697,,,,,,,,,,,,,,,,,,,,,,,,,,0,0,0,0,0
1.4057,1783957254.4736,1,1,3.0000,0.0000,1.42244,-0.00046,-2.63079,1.06045,1.57080,0.11675,-0.12763,-0.48151,0.03697,,,,,,,,,,,,,,,,,,,,,,,,,,0,0,0,0,0
1.4152,1783957254.4831,1,1,3.0000,0.0000,1.42244,-0.00046,-2.63079,1.06045,1.57080,0.11675,-0.12763,-0.48151,0.03697,,,,,,,,,,,,,,,,,,,,,,,,,,0,0,0,0,0
1.4157,1783957254.4836,1,1,3.0000,0.0000,1.42244,-0.00046,-2.63079,1.06045,1.57080,0.11675,-0.12763,-0.48151,0.03697,,,,,,,,,,,,,,,,,,,,,,,,,,0,0,0,0,0
1.4259,1783957254.4938,1,1,3.0000,0.0000,1.42244,-0.00046,-2.63079,1.06045,1.57080,0.11675,-0.12763,-0.48151,0.03697,,,,,,,,,,,,,,,,,,,,,,,,,,0,0,0,0,0
1.4376,1783957254.5056,1,1,3.0000,0.0000,1.42244,-0.00046,-2.63079,1.06046,1.57080,0.11675,-0.12763,-0.48151,0.03697,,,,,,,,,,,,,,,,,,,,,,,,,,0,0,0,0,0
1.4473,1783957254.5152,1,1,3.0000,0.0000,1.42244,-0.00047,-2.63080,1.06048,1.57080,0.11675,-0.12763,-0.48151,0.03697,,,,,,,,,,,,,,,,,,,,,,,,,,0,0,0,0,0
1.4568,1783957254.5247,1,1,3.0000,0.0000,1.42244,-0.00048,-2.63081,1.06050,1.57080,0.11675,-0.12763,-0.48151,0.03697,,,,,,,,,,,,,,,,,,,,,,,,,,0,0,0,0,0
1.4670,1783957254.5349,1,1,3.0000,0.0000,1.42244,-0.00049,-2.63082,1.06051,1.57080,0.11675,-0.12763,-0.48151,0.03696,,,,,,,,,,,,,,,,,,,,,,,,,,0,0,0,0,0
1.4674,1783957254.5353,1,1,3.0000,0.0000,1.42244,-0.00049,-2.63082,1.06051,1.57080,0.11675,-0.12763,-0.48151,0.03696,,,,,,,,,,,,,,,,,,,,,,,,,,0,0,0,0,0
1.4764,1783957254.5443,1,1,3.0000,0.0000,1.42244,-0.00051,-2.63084,1.06054,1.57080,0.11675,-0.12764,-0.48150,0.03695,,,,,,,,,,,,,,,,,,,,,,,,,,0,0,0,0,0
1.4949,1783957254.5628,1,1,3.0000,0.0000,1.42244,-0.00056,-2.63087,1.06060,1.57080,0.11675,-0.12764,-0.48148,0.03692,,,,,,,,,,,,,,,,,,,,,,,,,,0,0,0,0,0
1.5009,1783957254.5688,1,1,3.0000,0.0000,1.42244,-0.00058,-2.63088,1.06062,1.57080,0.11675,-0.12764,-0.48147,0.03691,,,,,,,,,,,,,,,,,,,,,,,,,,0,0,0,0,0
1.5069,1783957254.5748,1,1,3.0000,0.0000,1.42244,-0.00063,-2.63091,1.06068,1.57080,0.11675,-0.12764,-0.48146,0.03688,,,,,,,,,,,,,,,,,,,,,,,,,,0,0,0,0,0
1.5073,1783957254.5753,1,1,3.0000,0.0000,1.42244,-0.00063,-2.63091,1.06068,1.57080,0.11675,-0.12764,-0.48146,0.03688,,,,,,,,,,,,,,,,,,,,,,,,,,0,0,0,0,0
1.5153,1783957254.5832,1,1,3.0000,0.0000,1.42244,-0.00066,-2.63093,1.06072,1.57080,0.11675,-0.12764,-0.48145,0.03687,,,,,,,,,,,,,,,,,,,,,,,,,,0,0,0,0,0
1.5156,1783957254.5835,1,1,3.0000,0.0000,1.42244,-0.00066,-2.63093,1.06072,1.57080,0.11675,-0.12764,-0.48145,0.03687,,,,,,,,,,,,,,,,,,,,,,,,,,0,0,0,0,0
1.5282,1783957254.5961,1,1,3.0000,0.0000,1.42244,-0.00070,-2.63094,1.06076,1.57080,0.11675,-0.12764,-0.48145,0.03685,,,,,,,,,,,,,,,,,,,,,,,,,,0,0,0,0,0
1.5363,1783957254.6042,1,1,3.0000,0.0000,1.42243,-0.00076,-2.63096,1.06084,1.57080,0.11675,-0.12764,-0.48145,0.03683,,,,,,,,,,,,,,,,,,,,,,,,,,0,0,0,0,0
1.5367,1783957254.6046,1,1,3.0000,0.0000,1.42243,-0.00076,-2.63096,1.06084,1.57080,0.11675,-0.12764,-0.48145,0.03683,,,,,,,,,,,,,,,,,,,,,,,,,,0,0,0,0,0
1.5494,1783957254.6173,1,1,3.0000,0.0000,1.42243,-0.00079,-2.63096,1.06087,1.57080,0.11675,-0.12764,-0.48145,0.03682,,,,,,,,,,,,,,,,,,,,,,,,,,0,0,0,0,0
1.5498,1783957254.6177,1,1,3.0000,0.0000,1.42243,-0.00079,-2.63096,1.06087,1.57080,0.11675,-0.12764,-0.48145,0.03682,,,,,,,,,,,,,,,,,,,,,,,,,,0,0,0,0,0
1.5574,1783957254.6253,1,1,3.0000,0.0000,1.42243,-0.00086,-2.63098,1.06096,1.57080,0.11675,-0.12764,-0.48145,0.03680,,,,,,,,,,,,,,,,,,,,,,,,,,0,0,0,0,0
1.5579,1783957254.6259,1,1,3.0000,0.0000,1.42243,-0.00086,-2.63098,1.06096,1.57080,0.11675,-0.12764,-0.48145,0.03680,,,,,,,,,,,,,,,,,,,,,,,,,,0,0,0,0,0
1.5682,1783957254.6361,1,1,3.0000,0.0000,1.42243,-0.00102,-2.63101,1.06116,1.57080,0.11675,-0.12764,-0.48145,0.03675,,,,,,,,,,,,,,,,,,,,,,,,,,0,0,0,0,0
1.5685,1783957254.6364,1,1,3.0000,0.0000,1.42243,-0.00102,-2.63101,1.06116,1.57080,0.11675,-0.12764,-0.48145,0.03675,,,,,,,,,,,,,,,,,,,,,,,,,,0,0,0,0,0
1.5972,1783957254.6651,1,1,3.0000,0.0000,1.42243,-0.00119,-2.63104,1.06136,1.57080,0.11675,-0.12764,-0.48146,0.03669,,,,,,,,,,,,,,,,,,,,,,,,,,0,0,0,0,0
1.5976,1783957254.6656,1,1,3.0000,0.0000,1.42243,-0.00119,-2.63104,1.06136,1.57080,0.11675,-0.12764,-0.48146,0.03669,,,,,,,,,,,,,,,,,,,,,,,,,,0,0,0,0,0
1.6051,1783957254.6730,1,1,3.0000,0.0000,1.42243,-0.00129,-2.63105,1.06148,1.57080,0.11675,-0.12764,-0.48146,0.03666,,,,,,,,,,,,,,,,,,,,,,,,,,0,0,0,0,0
1.6056,1783957254.6735,1,1,3.0000,0.0000,1.42243,-0.00129,-2.63105,1.06148,1.57080,0.11675,-0.12764,-0.48146,0.03666,,,,,,,,,,,,,,,,,,,,,,,,,,0,0,0,0,0
1.6177,1783957254.6856,1,1,3.0000,0.0000,1.42243,-0.00144,-2.63108,1.06167,1.57080,0.11675,-0.12764,-0.48147,0.03662,,,,,,,,,,,,,,,,,,,,,,,,,,0,0,0,0,0
1.6261,1783957254.6940,1,1,3.0000,0.0000,1.42243,-0.00152,-2.63109,1.06177,1.57080,0.11675,-0.12764,-0.48147,0.03659,,,,,,,,,,,,,,,,,,,,,,,,,,0,0,0,0,0
1.6389,1783957254.7068,1,1,3.0000,0.0000,1.42243,-0.00158,-2.63110,1.06185,1.57080,0.11675,-0.12764,-0.48148,0.03657,,,,,,,,,,,,,,,,,,,,,,,,,,0,0,0,0,0
1.6462,1783957254.7141,1,1,3.0000,0.0000,1.42243,-0.00158,-2.63110,1.06185,1.57080,0.11675,-0.12764,-0.48148,0.03657,,,,,,,,,,,,,,,,,,,,,,,,,,0,0,0,0,0
1.6588,1783957254.7268,1,1,3.0000,0.0000,1.42243,-0.00158,-2.63110,1.06185,1.57080,0.11675,-0.12764,-0.48148,0.03657,,,,,,,,,,,,,,,,,,,,,,,,,,0,0,0,0,0
1.6656,1783957254.7335,1,1,3.0000,0.0000,1.42243,-0.00158,-2.63110,1.06185,1.57080,0.11675,-0.12764,-0.48148,0.03657,,,,,,,,,,,,,,,,,,,,,,,,,,0,0,0,0,0
1.6661,1783957254.7340,1,1,3.0000,0.0000,1.42243,-0.00158,-2.63110,1.06185,1.57080,0.11675,-0.12764,-0.48148,0.03657,,,,,,,,,,,,,,,,,,,,,,,,,,0,0,0,0,0
1.6768,1783957254.7447,1,1,3.0000,0.0000,1.42243,-0.00158,-2.63110,1.06185,1.57080,0.11675,-0.12764,-0.48148,0.03657,,,,,,,,,,,,,,,,,,,,,,,,,,0,0,0,0,0
1.6870,1783957254.7549,1,1,3.0000,0.0000,1.42243,-0.00158,-2.63110,1.06185,1.57080,0.11675,-0.12764,-0.48148,0.03657,,,,,,,,,,,,,,,,,,,,,,,,,,0,0,0,0,0
1.6988,1783957254.7667,1,1,3.0000,0.0000,1.42243,-0.00158,-2.63110,1.06185,1.57080,0.11675,-0.12764,-0.48148,0.03657,,,,,,,,,,,,,,,,,,,,,,,,,,0,0,0,0,0
1.7109,1783957254.7788,1,1,3.0000,0.0000,1.42243,-0.00158,-2.63110,1.06185,1.57080,0.11675,-0.12764,-0.48148,0.03657,,,,,,,,,,,,,,,,,,,,,,,,,,0,0,0,0,0
1.7113,1783957254.7792,1,1,3.0000,0.0000,1.42243,-0.00158,-2.63110,1.06185,1.57080,0.11675,-0.12764,-0.48148,0.03657,,,,,,,,,,,,,,,,,,,,,,,,,,0,0,0,0,0
1.7222,1783957254.7901,1,1,3.0000,0.0000,1.42243,-0.00158,-2.63110,1.06185,1.57080,0.11675,-0.12764,-0.48148,0.03657,,,,,,,,,,,,,,,,,,,,,,,,,,0,0,0,0,0
1.7296,1783957254.7975,1,1,3.0000,0.0000,1.42243,-0.00158,-2.63110,1.06185,1.57080,0.11675,-0.12764,-0.48148,0.03657,,,,,,,,,,,,,,,,,,,,,,,,,,0,0,0,0,0
1.7375,1783957254.8055,1,1,3.0000,0.0000,1.42243,-0.00158,-2.63110,1.06185,1.57080,0.11675,-0.12764,-0.48148,0.03657,,,,,,,,,,,,,,,,,,,,,,,,,,0,0,0,0,0
1.7379,1783957254.8058,1,1,3.0000,0.0000,1.42243,-0.00158,-2.63110,1.06185,1.57080,0.11675,-0.12764,-0.48148,0.03657,,,,,,,,,,,,,,,,,,,,,,,,,,0,0,0,0,0
1.7614,1783957254.8293,1,1,3.0000,0.0000,1.42243,-0.00158,-2.63110,1.06185,1.57080,0.11675,-0.12764,-0.48148,0.03657,,,,,,,,,,,,,,,,,,,,,,,,,,0,0,0,0,0
1.7617,1783957254.8297,1,1,3.0000,0.0000,1.42243,-0.00158,-2.63110,1.06185,1.57080,0.11675,-0.12764,-0.48148,0.03657,,,,,,,,,,,,,,,,,,,,,,,,,,0,0,0,0,0
1.7736,1783957254.8415,1,1,3.0000,0.0000,1.42243,-0.00158,-2.63110,1.06185,1.57080,0.11675,-0.12764,-0.48148,0.03657,,,,,,,,,,,,,,,,,,,,,,,,,,0,0,0,0,0
1.7752,1783957254.8431,1,1,3.0000,0.0000,1.42243,-0.00158,-2.63110,1.06185,1.57080,0.11675,-0.12764,-0.48148,0.03657,,,,,,,,,,,,,,,,,,,,,,,,,,0,0,0,0,0
1.7755,1783957254.8434,1,1,3.0000,0.0000,1.42243,-0.00158,-2.63110,1.06185,1.57080,0.11675,-0.12764,-0.48148,0.03657,,,,,,,,,,,,,,,,,,,,,,,,,,0,0,0,0,0
1.7881,1783957254.8560,1,1,3.0000,0.0000,1.42243,-0.00158,-2.63110,1.06185,1.57080,0.11675,-0.12764,-0.48148,0.03657,,,,,,,,,,,,,,,,,,,,,,,,,,0,0,0,0,0
1.7999,1783957254.8678,1,1,3.0000,0.0000,1.42243,-0.00158,-2.63110,1.06185,1.57080,0.11675,-0.12764,-0.48148,0.03657,,,,,,,,,,,,,,,,,,,,,,,,,,0,0,0,0,0
1.8191,1783957254.8871,1,1,3.0000,0.0000,1.42243,-0.00158,-2.63110,1.06185,1.57080,0.11675,-0.12764,-0.48148,0.03657,,,,,,,,,,,,,,,,,,,,,,,,,,0,0,0,0,0
1.8196,1783957254.8875,1,1,3.0000,0.0000,1.42243,-0.00158,-2.63110,1.06185,1.57080,0.11675,-0.12764,-0.48148,0.03657,,,,,,,,,,,,,,,,,,,,,,,,,,0,0,0,0,0
1.8199,1783957254.8878,1,1,3.0000,0.0000,1.42243,-0.00158,-2.63110,1.06185,1.57080,0.11675,-0.12764,-0.48148,0.03657,,,,,,,,,,,,,,,,,,,,,,,,,,0,0,0,0,0
1.8285,1783957254.8964,1,1,3.0000,0.0000,1.42243,-0.00158,-2.63110,1.06185,1.57080,0.11675,-0.12764,-0.48148,0.03657,,,,,,,,,,,,,,,,,,,,,,,,,,0,0,0,0,0
1.8289,1783957254.8968,1,1,3.0000,0.0000,1.42243,-0.00158,-2.63110,1.06185,1.57080,0.11675,-0.12764,-0.48148,0.03657,,,,,,,,,,,,,,,,,,,,,,,,,,0,0,0,0,0
1.8360,1783957254.9039,1,1,3.0000,0.0000,1.42243,-0.00158,-2.63110,1.06185,1.57080,0.11675,-0.12764,-0.48148,0.03657,,,,,,,,,,,,,,,,,,,,,,,,,,0,0,0,0,0
1.8471,1783957254.9150,1,1,3.0000,0.0000,1.42243,-0.00158,-2.63110,1.06185,1.57080,0.11675,-0.12764,-0.48148,0.03657,,,,,,,,,,,,,,,,,,,,,,,,,,0,0,0,0,0
1.8582,1783957254.9261,1,1,3.0000,0.0000,1.42243,-0.00159,-2.63109,1.06187,1.57080,0.11675,-0.12764,-0.48149,0.03658,,,,,,,,,,,,,,,,,,,,,,,,,,0,0,0,0,0
1.8667,1783957254.9346,1,1,3.0000,0.0000,1.42243,-0.00161,-2.63109,1.06190,1.57080,0.11675,-0.12763,-0.48150,0.03658,,,,,,,,,,,,,,,,,,,,,,,,,,0,0,0,0,0
1.8670,1783957254.9349,1,1,3.0000,0.0000,1.42243,-0.00161,-2.63109,1.06190,1.57080,0.11675,-0.12763,-0.48150,0.03658,,,,,,,,,,,,,,,,,,,,,,,,,,0,0,0,0,0
1.8755,1783957254.9434,1,1,3.0000,0.0000,1.42243,-0.00162,-2.63109,1.06192,1.57080,0.11675,-0.12763,-0.48150,0.03657,,,,,,,,,,,,,,,,,,,,,,,,,,0,0,0,0,0
1.8934,1783957254.9613,1,1,3.0000,0.0000,1.42243,-0.00165,-2.63110,1.06195,1.57080,0.11675,-0.12763,-0.48149,0.03656,,,,,,,,,,,,,,,,,,,,,,,,,,0,0,0,0,0
1.8936,1783957254.9615,1,1,3.0000,0.0000,1.42243,-0.00165,-2.63110,1.06195,1.57080,0.11675,-0.12763,-0.48149,0.03656,,,,,,,,,,,,,,,,,,,,,,,,,,0,0,0,0,0
1.9126,1783957254.9805,1,1,3.0000,0.0000,1.42243,-0.00169,-2.63113,1.06201,1.57080,0.11675,-0.12764,-0.48148,0.03654,,,,,,,,,,,,,,,,,,,,,,,,,,0,0,0,0,0
1.9194,1783957254.9873,1,1,3.0000,0.0000,1.42243,-0.00174,-2.63116,1.06206,1.57080,0.11675,-0.12764,-0.48147,0.03651,,,,,,,,,,,,,,,,,,,,,,,,,,0,0,0,0,0
1.9198,1783957254.9877,1,1,3.0000,0.0000,1.42243,-0.00174,-2.63116,1.06206,1.57080,0.11675,-0.12764,-0.48147,0.03651,,,,,,,,,,,,,,,,,,,,,,,,,,0,0,0,0,0
1.9257,1783957254.9936,1,1,3.0000,0.0000,1.42243,-0.00177,-2.63117,1.06209,1.57080,0.11675,-0.12764,-0.48146,0.03650,,,,,,,,,,,,,,,,,,,,,,,,,,0,0,0,0,0
1.9399,1783957255.0078,1,1,3.0000,0.0000,1.42243,-0.00181,-2.63119,1.06215,1.57080,0.11675,-0.12764,-0.48145,0.03648,,,,,,,,,,,,,,,,,,,,,,,,,,0,0,0,0,0
1.9455,1783957255.0134,1,1,3.0000,0.0000,1.42243,-0.00183,-2.63120,1.06217,1.57080,0.11675,-0.12764,-0.48145,0.03647,,,,,,,,,,,,,,,,,,,,,,,,,,0,0,0,0,0
1.9600,1783957255.0279,1,1,3.0000,0.0000,1.42243,-0.00197,-2.63123,1.06234,1.57080,0.11675,-0.12764,-0.48145,0.03642,,,,,,,,,,,,,,,,,,,,,,,,,,0,0,0,0,0
1.9656,1783957255.0335,1,1,3.0000,0.0000,1.42243,-0.00202,-2.63124,1.06239,1.57080,0.11675,-0.12764,-0.48145,0.03641,,,,,,,,,,,,,,,,,,,,,,,,,,0,0,0,0,0
1.9816,1783957255.0495,1,1,3.0000,0.0000,1.42243,-0.00206,-2.63125,1.06245,1.57080,0.11675,-0.12764,-0.48145,0.03639,,,,,,,,,,,,,,,,,,,,,,,,,,0,0,0,0,0
1.9875,1783957255.0554,1,1,3.0000,0.0000,1.42243,-0.00213,-2.63126,1.06253,1.57080,0.11675,-0.12764,-0.48145,0.03637,,,,,,,,,,,,,,,,,,,,,,,,,,0,0,0,0,0
1.9880,1783957255.0559,1,1,3.0000,0.0000,1.42243,-0.00213,-2.63126,1.06253,1.57080,0.11675,-0.12764,-0.48145,0.03637,,,,,,,,,,,,,,,,,,,,,,,,,,0,0,0,0,0
2.0105,1783957255.0785,1,1,3.0000,0.0000,1.42243,-0.00227,-2.63128,1.06269,1.57080,0.11675,-0.12764,-0.48146,0.03633,,,,,,,,,,,,,,,,,,,,,,,,,,0,0,0,0,0
2.0166,1783957255.0845,1,1,3.0000,0.0000,1.42243,-0.00232,-2.63129,1.06275,1.57080,0.11675,-0.12764,-0.48146,0.03631,,,,,,,,,,,,,,,,,,,,,,,,,,0,0,0,0,0
2.0271,1783957255.0950,1,1,3.0000,0.0000,1.42243,-0.00237,-2.63130,1.06282,1.57080,0.11675,-0.12764,-0.48146,0.03629,,,,,,,,,,,,,,,,,,,,,,,,,,0,0,0,0,0
2.0366,1783957255.1045,1,1,3.0000,0.0000,1.42243,-0.00241,-2.63130,1.06287,1.57080,0.11675,-0.12764,-0.48147,0.03628,,,,,,,,,,,,,,,,,,,,,,,,,,0,0,0,0,0
2.0369,1783957255.1048,1,1,3.0000,0.0000,1.42243,-0.00241,-2.63130,1.06287,1.57080,0.11675,-0.12764,-0.48147,0.03628,,,,,,,,,,,,,,,,,,,,,,,,,,0,0,0,0,0
2.0500,1783957255.1179,1,1,3.0000,0.0000,1.42243,-0.00251,-2.63131,1.06299,1.57080,0.11675,-0.12763,-0.48148,0.03626,,,,,,,,,,,,,,,,,,,,,,,,,,0,0,0,0,0
2.0507,1783957255.1187,1,1,3.0000,0.0000,1.42243,-0.00255,-2.63131,1.06304,1.57080,0.11675,-0.12763,-0.48148,0.03625,,,,,,,,,,,,,,,,,,,,,,,,,,0,0,0,0,0
2.0561,1783957255.1240,1,1,3.0000,0.0000,1.42243,-0.00259,-2.63131,1.06309,1.57080,0.11675,-0.12763,-0.48149,0.03624,,,,,,,,,,,,,,,,,,,,,,,,,,0,0,0,0,0
2.0565,1783957255.1244,1,1,3.0000,0.0000,1.42243,-0.00259,-2.63131,1.06309,1.57080,0.11675,-0.12763,-0.48149,0.03624,,,,,,,,,,,,,,,,,,,,,,,,,,0,0,0,0,0
2.0683,1783957255.1362,1,1,3.0000,0.0000,1.42243,-0.00271,-2.63132,1.06325,1.57080,0.11675,-0.12763,-0.48151,0.03621,,,,,,,,,,,,,,,,,,,,,,,,,,0,0,0,0,0
2.0852,1783957255.1531,1,1,3.0000,0.0000,1.42243,-0.00282,-2.63130,1.06339,1.57080,0.11675,-0.12763,-0.48154,0.03619,,,,,,,,,,,,,,,,,,,,,,,,,,0,0,0,0,0
2.0859,1783957255.1538,1,1,3.0000,0.0000,1.42243,-0.00282,-2.63130,1.06339,1.57080,0.11675,-0.12763,-0.48154,0.03619,,,,,,,,,,,,,,,,,,,,,,,,,,0,0,0,0,0
2.1110,1783957255.1789,1,1,3.0000,0.0000,1.42243,-0.00282,-2.63130,1.06339,1.57080,0.11675,-0.12763,-0.48154,0.03619,,,,,,,,,,,,,,,,,,,,,,,,,,0,0,0,0,0
2.1113,1783957255.1792,1,1,3.0000,0.0000,1.42243,-0.00282,-2.63130,1.06339,1.57080,0.11675,-0.12763,-0.48154,0.03619,,,,,,,,,,,,,,,,,,,,,,,,,,0,0,0,0,0
2.1197,1783957255.1876,1,1,3.0000,0.0000,1.42243,-0.00282,-2.63130,1.06339,1.57080,0.11675,-0.12763,-0.48154,0.03619,,,,,,,,,,,,,,,,,,,,,,,,,,0,0,0,0,0
2.1200,1783957255.1879,1,1,3.0000,0.0000,1.42243,-0.00282,-2.63130,1.06339,1.57080,0.11675,-0.12763,-0.48154,0.03619,,,,,,,,,,,,,,,,,,,,,,,,,,0,0,0,0,0
2.1257,1783957255.1936,1,1,3.0000,0.0000,1.42243,-0.00282,-2.63130,1.06339,1.57080,0.11675,-0.12763,-0.48154,0.03619,,,,,,,,,,,,,,,,,,,,,,,,,,0,0,0,0,0
2.1387,1783957255.2066,1,1,3.0000,0.0000,1.42243,-0.00282,-2.63130,1.06339,1.57080,0.11675,-0.12763,-0.48154,0.03619,,,,,,,,,,,,,,,,,,,,,,,,,,0,0,0,0,0
2.1390,1783957255.2069,1,1,3.0000,0.0000,1.42243,-0.00282,-2.63130,1.06339,1.57080,0.11675,-0.12763,-0.48154,0.03619,,,,,,,,,,,,,,,,,,,,,,,,,,0,0,0,0,0
2.1790,1783957255.2469,1,1,3.0000,0.0000,1.42243,-0.00282,-2.63130,1.06339,1.57080,0.11675,-0.12763,-0.48154,0.03619,,,,,,,,,,,,,,,,,,,,,,,,,,0,0,0,0,0
2.1795,1783957255.2474,1,1,3.0000,0.0000,1.42243,-0.00282,-2.63130,1.06339,1.57080,0.11675,-0.12763,-0.48154,0.03619,,,,,,,,,,,,,,,,,,,,,,,,,,0,0,0,0,0
2.1801,1783957255.2480,1,1,3.0000,0.0000,1.42243,-0.00282,-2.63130,1.06339,1.57080,0.11675,-0.12763,-0.48154,0.03619,,,,,,,,,,,,,,,,,,,,,,,,,,0,0,0,0,0
2.1804,1783957255.2483,1,1,3.0000,0.0000,1.42243,-0.00282,-2.63130,1.06339,1.57080,0.11675,-0.12763,-0.48154,0.03619,,,,,,,,,,,,,,,,,,,,,,,,,,0,0,0,0,0
2.2201,1783957255.2880,1,1,3.0000,0.0000,1.42243,-0.00282,-2.63130,1.06339,1.57080,0.11675,-0.12763,-0.48154,0.03619,,,,,,,,,,,,,,,,,,,,,,,,,,0,0,0,0,0
2.2205,1783957255.2884,1,1,3.0000,0.0000,1.42243,-0.00282,-2.63130,1.06339,1.57080,0.11675,-0.12763,-0.48154,0.03619,,,,,,,,,,,,,,,,,,,,,,,,,,0,0,0,0,0
2.2208,1783957255.2887,1,1,3.0000,0.0000,1.42243,-0.00282,-2.63130,1.06339,1.57080,0.11675,-0.12763,-0.48154,0.03619,,,,,,,,,,,,,,,,,,,,,,,,,,0,0,0,0,0
2.2212,1783957255.2891,1,1,3.0000,0.0000,1.42243,-0.00282,-2.63130,1.06339,1.57080,0.11675,-0.12763,-0.48154,0.03619,,,,,,,,,,,,,,,,,,,,,,,,,,0,0,0,0,0
2.2214,1783957255.2893,1,1,3.0000,0.0000,1.42243,-0.00282,-2.63130,1.06339,1.57080,0.11675,-0.12763,-0.48154,0.03619,,,,,,,,,,,,,,,,,,,,,,,,,,0,0,0,0,0
2.2450,1783957255.3129,1,1,3.0000,0.0000,1.42243,-0.00282,-2.63130,1.06339,1.57080,0.11675,-0.12763,-0.48154,0.03619,,,,,,,,,,,,,,,,,,,,,,,,,,0,0,0,0,0
2.2466,1783957255.3145,1,1,3.0000,0.0000,1.42243,-0.00282,-2.63130,1.06339,1.57080,0.11675,-0.12763,-0.48154,0.03619,,,,,,,,,,,,,,,,,,,,,,,,,,0,0,0,0,0
2.2469,1783957255.3148,1,1,3.0000,0.0000,1.42243,-0.00282,-2.63130,1.06339,1.57080,0.11675,-0.12763,-0.48154,0.03619,,,,,,,,,,,,,,,,,,,,,,,,,,0,0,0,0,0
2.2472,1783957255.3151,1,1,3.0000,0.0000,1.42243,-0.00282,-2.63130,1.06339,1.57080,0.11675,-0.12763,-0.48154,0.03619,,,,,,,,,,,,,,,,,,,,,,,,,,0,0,0,0,0
2.2475,1783957255.3154,1,1,3.0000,0.0000,1.42243,-0.00282,-2.63130,1.06339,1.57080,0.11675,-0.12763,-0.48154,0.03619,,,,,,,,,,,,,,,,,,,,,,,,,,0,0,0,0,0
2.2569,1783957255.3249,1,1,3.0000,0.0000,1.42243,-0.00282,-2.63130,1.06339,1.57080,0.11675,-0.12763,-0.48154,0.03619,,,,,,,,,,,,,,,,,,,,,,,,,,0,0,0,0,0
2.2673,1783957255.3352,1,1,3.0000,0.0000,1.42243,-0.00282,-2.63130,1.06339,1.57080,0.11675,-0.12763,-0.48154,0.03619,,,,,,,,,,,,,,,,,,,,,,,,,,0,0,0,0,0
2.2758,1783957255.3437,1,1,3.0000,0.0000,1.42243,-0.00282,-2.63130,1.06339,1.57080,0.11675,-0.12763,-0.48154,0.03619,,,,,,,,,,,,,,,,,,,,,,,,,,0,0,0,0,0
2.3110,1783957255.3789,1,1,3.0000,0.0000,1.42243,-0.00285,-2.63133,1.06342,1.57080,0.11675,-0.12763,-0.48152,0.03617,,,,,,,,,,,,,,,,,,,,,,,,,,0,0,0,0,0
2.3113,1783957255.3792,1,1,3.0000,0.0000,1.42243,-0.00285,-2.63133,1.06342,1.57080,0.11675,-0.12763,-0.48152,0.03617,,,,,,,,,,,,,,,,,,,,,,,,,,0,0,0,0,0
2.3271,1783957255.3951,1,1,3.0000,0.0000,1.42243,-0.00288,-2.63136,1.06346,1.57080,0.11675,-0.12763,-0.48151,0.03615,,,,,,,,,,,,,,,,,,,,,,,,,,0,0,0,0,0
2.3277,1783957255.3956,1,1,3.0000,0.0000,1.42243,-0.00288,-2.63136,1.06346,1.57080,0.11675,-0.12763,-0.48151,0.03615,,,,,,,,,,,,,,,,,,,,,,,,,,0,0,0,0,0
2.3281,1783957255.3960,1,1,3.0000,0.0000,1.42243,-0.00288,-2.63136,1.06346,1.57080,0.11675,-0.12763,-0.48151,0.03615,,,,,,,,,,,,,,,,,,,,,,,,,,0,0,0,0,0
2.3388,1783957255.4067,1,1,3.0000,0.0000,1.42243,-0.00291,-2.63138,1.06350,1.57080,0.11675,-0.12763,-0.48149,0.03613,,,,,,,,,,,,,,,,,,,,,,,,,,0,0,0,0,0
2.3472,1783957255.4151,1,1,3.0000,0.0000,1.42243,-0.00296,-2.63141,1.06355,1.57080,0.11675,-0.12763,-0.48148,0.03611,,,,,,,,,,,,,,,,,,,,,,,,,,0,0,0,0,0
2.3790,1783957255.4469,1,1,3.0000,0.0000,1.42243,-0.00312,-2.63147,1.06375,1.57080,0.11675,-0.12764,-0.48147,0.03604,,,,,,,,,,,,,,,,,,,,,,,,,,0,0,0,0,0
2.3793,1783957255.4473,1,1,3.0000,0.0000,1.42243,-0.00312,-2.63147,1.06375,1.57080,0.11675,-0.12764,-0.48147,0.03604,,,,,,,,,,,,,,,,,,,,,,,,,,0,0,0,0,0
2.3796,1783957255.4475,1,1,3.0000,0.0000,1.42243,-0.00312,-2.63147,1.06375,1.57080,0.11675,-0.12764,-0.48147,0.03604,,,,,,,,,,,,,,,,,,,,,,,,,,0,0,0,0,0
2.3799,1783957255.4478,1,1,3.0000,0.0000,1.42243,-0.00312,-2.63147,1.06375,1.57080,0.11675,-0.12764,-0.48147,0.03604,,,,,,,,,,,,,,,,,,,,,,,,,,0,0,0,0,0
2.3802,1783957255.4481,1,1,3.0000,0.0000,1.42243,-0.00312,-2.63147,1.06375,1.57080,0.11675,-0.12764,-0.48147,0.03604,,,,,,,,,,,,,,,,,,,,,,,,,,0,0,0,0,0
2.3911,1783957255.4590,1,1,3.0000,0.0000,1.42243,-0.00314,-2.63147,1.06377,1.57080,0.11675,-0.12764,-0.48147,0.03604,,,,,,,,,,,,,,,,,,,,,,,,,,0,0,0,0,0
2.4282,1783957255.4961,1,1,3.0000,0.0000,1.42243,-0.00338,-2.63152,1.06406,1.57080,0.11675,-0.12764,-0.48147,0.03595,,,,,,,,,,,,,,,,,,,,,,,,,,0,0,0,0,0
2.4285,1783957255.4964,1,1,3.0000,0.0000,1.42243,-0.00338,-2.63152,1.06406,1.57080,0.11675,-0.12764,-0.48147,0.03595,,,,,,,,,,,,,,,,,,,,,,,,,,0,0,0,0,0
2.4288,1783957255.4967,1,1,3.0000,0.0000,1.42243,-0.00338,-2.63152,1.06406,1.57080,0.11675,-0.12764,-0.48147,0.03595,,,,,,,,,,,,,,,,,,,,,,,,,,0,0,0,0,0
2.4387,1783957255.5067,1,1,3.0000,0.0000,1.42243,-0.00346,-2.63154,1.06415,1.57080,0.11675,-0.12763,-0.48147,0.03593,,,,,,,,,,,,,,,,,,,,,,,,,,0,0,0,0,0
2.4456,1783957255.5135,1,1,3.0000,0.0000,1.42243,-0.00346,-2.63154,1.06416,1.57080,0.11675,-0.12763,-0.48147,0.03593,,,,,,,,,,,,,,,,,,,,,,,,,,0,0,0,0,0
2.4560,1783957255.5239,1,1,3.0000,0.0000,1.42242,-0.00354,-2.63155,1.06425,1.57080,0.11675,-0.12763,-0.48147,0.03590,,,,,,,,,,,,,,,,,,,,,,,,,,0,0,0,0,0
2.4659,1783957255.5338,1,1,3.0000,0.0000,1.42242,-0.00363,-2.63156,1.06436,1.57080,0.11675,-0.12763,-0.48148,0.03588,,,,,,,,,,,,,,,,,,,,,,,,,,0,0,0,0,0
2.4788,1783957255.5467,1,1,3.0000,0.0000,1.42242,-0.00383,-2.63159,1.06460,1.57080,0.11675,-0.12763,-0.48149,0.03582,,,,,,,,,,,,,,,,,,,,,,,,,,0,0,0,0,0
2.4791,1783957255.5470,1,1,3.0000,0.0000,1.42242,-0.00383,-2.63159,1.06460,1.57080,0.11675,-0.12763,-0.48149,0.03582,,,,,,,,,,,,,,,,,,,,,,,,,,0,0,0,0,0
2.4853,1783957255.5532,1,1,3.0000,0.0000,1.42242,-0.00387,-2.63159,1.06466,1.57080,0.11675,-0.12763,-0.48149,0.03580,,,,,,,,,,,,,,,,,,,,,,,,,,0,0,0,0,0
2.4858,1783957255.5537,1,1,3.0000,0.0000,1.42242,-0.00387,-2.63159,1.06466,1.57080,0.11675,-0.12763,-0.48149,0.03580,,,,,,,,,,,,,,,,,,,,,,,,,,0,0,0,0,0
2.4966,1783957255.5645,1,1,3.0000,0.0000,1.42242,-0.00398,-2.63160,1.06479,1.57080,0.11675,-0.12763,-0.48151,0.03578,,,,,,,,,,,,,,,,,,,,,,,,,,0,0,0,0,0
2.5302,1783957255.5981,1,1,3.0000,0.0000,1.42242,-0.00399,-2.63160,1.06481,1.57080,0.11675,-0.12763,-0.48151,0.03577,,,,,,,,,,,,,,,,,,,,,,,,,,0,0,0,0,0
2.5308,1783957255.5987,1,1,3.0000,0.0000,1.42242,-0.00399,-2.63160,1.06481,1.57080,0.11675,-0.12763,-0.48151,0.03577,,,,,,,,,,,,,,,,,,,,,,,,,,0,0,0,0,0
2.5395,1783957255.6074,1,1,3.0000,0.0000,1.42242,-0.00399,-2.63160,1.06481,1.57080,0.11675,-0.12763,-0.48151,0.03577,,,,,,,,,,,,,,,,,,,,,,,,,,0,0,0,0,0
2.5467,1783957255.6146,1,1,3.0000,0.0000,1.42242,-0.00399,-2.63160,1.06481,1.57080,0.11675,-0.12763,-0.48151,0.03577,,,,,,,,,,,,,,,,,,,,,,,,,,0,0,0,0,0
2.5487,1783957255.6166,1,1,3.0000,0.0000,1.42242,-0.00399,-2.63160,1.06481,1.57080,0.11675,-0.12763,-0.48151,0.03577,,,,,,,,,,,,,,,,,,,,,,,,,,0,0,0,0,0
2.5491,1783957255.6170,1,1,3.0000,0.0000,1.42242,-0.00399,-2.63160,1.06481,1.57080,0.11675,-0.12763,-0.48151,0.03577,,,,,,,,,,,,,,,,,,,,,,,,,,0,0,0,0,0
2.5557,1783957255.6236,1,1,3.0000,0.0000,1.42242,-0.00399,-2.63160,1.06481,1.57080,0.11675,-0.12763,-0.48151,0.03577,,,,,,,,,,,,,,,,,,,,,,,,,,0,0,0,0,0
2.5661,1783957255.6340,1,1,3.0000,0.0000,1.42242,-0.00399,-2.63160,1.06481,1.57080,0.11675,-0.12763,-0.48151,0.03577,,,,,,,,,,,,,,,,,,,,,,,,,,0,0,0,0,0
2.5763,1783957255.6442,1,1,3.0000,0.0000,1.42242,-0.00399,-2.63160,1.06481,1.57080,0.11675,-0.12763,-0.48151,0.03577,,,,,,,,,,,,,,,,,,,,,,,,,,0,0,0,0,0
2.5767,1783957255.6446,1,1,3.0000,0.0000,1.42242,-0.00399,-2.63160,1.06481,1.57080,0.11675,-0.12763,-0.48151,0.03577,,,,,,,,,,,,,,,,,,,,,,,,,,0,0,0,0,0
2.5868,1783957255.6547,1,1,3.0000,0.0000,1.42242,-0.00399,-2.63160,1.06481,1.57080,0.11675,-0.12763,-0.48151,0.03577,,,,,,,,,,,,,,,,,,,,,,,,,,0,0,0,0,0
2.5955,1783957255.6634,1,1,3.0000,0.0000,1.42242,-0.00399,-2.63160,1.06481,1.57080,0.11675,-0.12763,-0.48151,0.03577,,,,,,,,,,,,,,,,,,,,,,,,,,0,0,0,0,0
2.6076,1783957255.6755,1,1,3.0000,0.0000,1.42242,-0.00399,-2.63160,1.06481,1.57080,0.11675,-0.12763,-0.48151,0.03577,,,,,,,,,,,,,,,,,,,,,,,,,,0,0,0,0,0
2.6181,1783957255.6860,1,1,3.0000,0.0000,1.42242,-0.00399,-2.63160,1.06481,1.57080,0.11675,-0.12763,-0.48151,0.03577,,,,,,,,,,,,,,,,,,,,,,,,,,0,0,0,0,0
2.6253,1783957255.6932,1,1,3.0000,0.0000,1.42242,-0.00399,-2.63160,1.06481,1.57080,0.11675,-0.12763,-0.48151,0.03577,,,,,,,,,,,,,,,,,,,,,,,,,,0,0,0,0,0
2.6257,1783957255.6936,1,1,3.0000,0.0000,1.42242,-0.00399,-2.63160,1.06481,1.57080,0.11675,-0.12763,-0.48151,0.03577,,,,,,,,,,,,,,,,,,,,,,,,,,0,0,0,0,0
2.6356,1783957255.7035,1,1,3.0000,0.0000,1.42242,-0.00399,-2.63160,1.06481,1.57080,0.11675,-0.12763,-0.48151,0.03577,,,,,,,,,,,,,,,,,,,,,,,,,,0,0,0,0,0
2.6452,1783957255.7131,1,1,3.0000,0.0000,1.42242,-0.00399,-2.63160,1.06481,1.57080,0.11675,-0.12763,-0.48151,0.03577,,,,,,,,,,,,,,,,,,,,,,,,,,0,0,0,0,0
2.6455,1783957255.7134,1,1,3.0000,0.0000,1.42242,-0.00399,-2.63160,1.06481,1.57080,0.11675,-0.12763,-0.48151,0.03577,,,,,,,,,,,,,,,,,,,,,,,,,,0,0,0,0,0
2.7140,1783957255.7819,1,1,3.0000,0.0000,1.42242,-0.00400,-2.63160,1.06483,1.57080,0.11675,-0.12763,-0.48152,0.03577,,,,,,,,,,,,,,,,,,,,,,,,,,0,0,0,0,0
2.7144,1783957255.7823,1,1,3.0000,0.0000,1.42242,-0.00400,-2.63160,1.06483,1.57080,0.11675,-0.12763,-0.48152,0.03577,,,,,,,,,,,,,,,,,,,,,,,,,,0,0,0,0,0
2.7367,1783957255.8046,1,1,3.0000,0.0000,1.42242,-0.00405,-2.63164,1.06489,1.57080,0.11675,-0.12763,-0.48149,0.03575,,,,,,,,,,,,,,,,,,,,,,,,,,0,0,0,0,0
2.7406,1783957255.8085,1,1,3.0000,0.0000,1.42242,-0.00406,-2.63165,1.06491,1.57080,0.11675,-0.12763,-0.48149,0.03574,,,,,,,,,,,,,,,,,,,,,,,,,,0,0,0,0,0
2.7409,1783957255.8089,1,1,3.0000,0.0000,1.42242,-0.00406,-2.63165,1.06491,1.57080,0.11675,-0.12763,-0.48149,0.03574,,,,,,,,,,,,,,,,,,,,,,,,,,0,0,0,0,0
2.7441,1783957255.8120,1,1,3.0000,0.0000,1.42242,-0.00406,-2.63165,1.06491,1.57080,0.11675,-0.12763,-0.48149,0.03574,,,,,,,,,,,,,,,,,,,,,,,,,,0,0,0,0,0
2.7445,1783957255.8124,1,1,3.0000,0.0000,1.42242,-0.00406,-2.63165,1.06491,1.57080,0.11675,-0.12763,-0.48149,0.03574,,,,,,,,,,,,,,,,,,,,,,,,,,0,0,0,0,0
2.7692,1783957255.8371,1,1,3.0000,0.0000,1.42242,-0.00414,-2.63170,1.06500,1.57080,0.11675,-0.12763,-0.48146,0.03569,,,,,,,,,,,,,,,,,,,,,,,,,,0,0,0,0,0
2.7695,1783957255.8374,1,1,3.0000,0.0000,1.42242,-0.00414,-2.63170,1.06500,1.57080,0.11675,-0.12763,-0.48146,0.03569,,,,,,,,,,,,,,,,,,,,,,,,,,0,0,0,0,0
2.7699,1783957255.8378,1,1,3.0000,0.0000,1.42242,-0.00414,-2.63170,1.06500,1.57080,0.11675,-0.12763,-0.48146,0.03569,,,,,,,,,,,,,,,,,,,,,,,,,,0,0,0,0,0
2.7705,1783957255.8384,1,1,3.0000,0.0000,1.42242,-0.00417,-2.63172,1.06503,1.57080,0.11675,-0.12764,-0.48145,0.03568,,,,,,,,,,,,,,,,,,,,,,,,,,0,0,0,0,0
2.7962,1783957255.8641,1,1,3.0000,0.0000,1.42242,-0.00426,-2.63174,1.06514,1.57080,0.11675,-0.12764,-0.48145,0.03565,,,,,,,,,,,,,,,,,,,,,,,,,,0,0,0,0,0
2.7966,1783957255.8645,1,1,3.0000,0.0000,1.42242,-0.00426,-2.63174,1.06514,1.57080,0.11675,-0.12764,-0.48145,0.03565,,,,,,,,,,,,,,,,,,,,,,,,,,0,0,0,0,0
2.7969,1783957255.8648,1,1,3.0000,0.0000,1.42242,-0.00426,-2.63174,1.06514,1.57080,0.11675,-0.12764,-0.48145,0.03565,,,,,,,,,,,,,,,,,,,,,,,,,,0,0,0,0,0
2.8076,1783957255.8755,1,1,3.0000,0.0000,1.42242,-0.00429,-2.63175,1.06517,1.57080,0.11675,-0.12764,-0.48145,0.03564,,,,,,,,,,,,,,,,,,,,,,,,,,0,0,0,0,0
2.8157,1783957255.8836,1,1,3.0000,0.0000,1.42242,-0.00436,-2.63176,1.06525,1.57080,0.11675,-0.12764,-0.48145,0.03561,,,,,,,,,,,,,,,,,,,,,,,,,,0,0,0,0,0
2.8489,1783957255.9168,1,1,3.0000,0.0000,1.42242,-0.00460,-2.63181,1.06554,1.57080,0.11675,-0.12763,-0.48146,0.03553,,,,,,,,,,,,,,,,,,,,,,,,,,0,0,0,0,0
2.8492,1783957255.9171,1,1,3.0000,0.0000,1.42242,-0.00460,-2.63181,1.06554,1.57080,0.11675,-0.12763,-0.48146,0.03553,,,,,,,,,,,,,,,,,,,,,,,,,,0,0,0,0,0
2.8521,1783957255.9200,1,1,3.0000,0.0000,1.42242,-0.00464,-2.63181,1.06559,1.57080,0.11675,-0.12763,-0.48146,0.03552,,,,,,,,,,,,,,,,,,,,,,,,,,0,0,0,0,0
2.8523,1783957255.9202,1,1,3.0000,0.0000,1.42242,-0.00464,-2.63181,1.06559,1.57080,0.11675,-0.12763,-0.48146,0.03552,,,,,,,,,,,,,,,,,,,,,,,,,,0,0,0,0,0
2.8618,1783957255.9297,1,1,3.0000,0.0000,1.42242,-0.00474,-2.63183,1.06571,1.57080,0.11675,-0.12763,-0.48146,0.03549,,,,,,,,,,,,,,,,,,,,,,,,,,0,0,0,0,0
2.8707,1783957255.9386,1,1,3.0000,0.0000,1.42242,-0.00479,-2.63184,1.06577,1.57080,0.11675,-0.12763,-0.48146,0.03547,,,,,,,,,,,,,,,,,,,,,,,,,,0,0,0,0,0
2.8710,1783957255.9389,1,1,3.0000,0.0000,1.42242,-0.00479,-2.63184,1.06577,1.57080,0.11675,-0.12763,-0.48146,0.03547,,,,,,,,,,,,,,,,,,,,,,,,,,0,0,0,0,0
2.8805,1783957255.9484,1,1,3.0000,0.0000,1.42242,-0.00482,-2.63184,1.06581,1.57080,0.11675,-0.12763,-0.48146,0.03546,,,,,,,,,,,,,,,,,,,,,,,,,,0,0,0,0,0
2.8809,1783957255.9488,1,1,3.0000,0.0000,1.42242,-0.00482,-2.63184,1.06581,1.57080,0.11675,-0.12763,-0.48146,0.03546,,,,,,,,,,,,,,,,,,,,,,,,,,0,0,0,0,0
2.8879,1783957255.9558,1,1,3.0000,0.0000,1.42242,-0.00487,-2.63185,1.06588,1.57080,0.11675,-0.12763,-0.48147,0.03545,,,,,,,,,,,,,,,,,,,,,,,,,,0,0,0,0,0
2.9014,1783957255.9693,1,1,3.0000,0.0000,1.42242,-0.00498,-2.63185,1.06600,1.57080,0.11675,-0.12763,-0.48148,0.03542,,,,,,,,,,,,,,,,,,,,,,,,,,0,0,0,0,0
2.9112,1783957255.9791,1,1,3.0000,0.0000,1.42242,-0.00508,-2.63186,1.06614,1.57080,0.11675,-0.12763,-0.48150,0.03540,,,,,,,,,,,,,,,,,,,,,,,,,,0,0,0,0,0
2.9118,1783957255.9797,1,1,3.0000,0.0000,1.42242,-0.00508,-2.63186,1.06614,1.57080,0.11675,-0.12763,-0.48150,0.03540,,,,,,,,,,,,,,,,,,,,,,,,,,0,0,0,0,0
2.9179,1783957255.9858,1,1,3.0000,0.0000,1.42242,-0.00512,-2.63186,1.06618,1.57080,0.11675,-0.12763,-0.48150,0.03539,,,,,,,,,,,,,,,,,,,,,,,,,,0,0,0,0,0
2.9394,1783957256.0073,1,1,3.0000,0.0000,1.42242,-0.00518,-2.63185,1.06627,1.57080,0.11675,-0.12762,-0.48152,0.03538,,,,,,,,,,,,,,,,,,,,,,,,,,0,0,0,0,0
2.9399,1783957256.0078,1,1,3.0000,0.0000,1.42242,-0.00518,-2.63185,1.06627,1.57080,0.11675,-0.12762,-0.48152,0.03538,,,,,,,,,,,,,,,,,,,,,,,,,,0,0,0,0,0
2.9487,1783957256.0166,1,1,3.0000,0.0000,1.42242,-0.00518,-2.63185,1.06627,1.57080,0.11675,-0.12762,-0.48152,0.03538,,,,,,,,,,,,,,,,,,,,,,,,,,0,0,0,0,0
2.9492,1783957256.0171,1,1,3.0000,0.0000,1.42242,-0.00518,-2.63185,1.06627,1.57080,0.11675,-0.12762,-0.48152,0.03538,,,,,,,,,,,,,,,,,,,,,,,,,,0,0,0,0,0
2.9954,1783957256.0633,1,1,3.0000,0.0000,1.42242,-0.00518,-2.63185,1.06627,1.57080,0.11675,-0.12762,-0.48152,0.03538,,,,,,,,,,,,,,,,,,,,,,,,,,0,0,0,0,0
2.9961,1783957256.0640,1,1,3.0000,0.0000,1.42242,-0.00518,-2.63185,1.06627,1.57080,0.11675,-0.12762,-0.48152,0.03538,,,,,,,,,,,,,,,,,,,,,,,,,,0,0,0,0,0
2.9965,1783957256.0644,1,1,3.0000,0.0000,1.42242,-0.00518,-2.63185,1.06627,1.57080,0.11675,-0.12762,-0.48152,0.03538,,,,,,,,,,,,,,,,,,,,,,,,,,0,0,0,0,0
3.0088,1783957256.0767,1,1,3.0000,0.0000,1.42242,-0.00518,-2.63185,1.06627,1.57080,0.11675,-0.12762,-0.48152,0.03538,,,,,,,,,,,,,,,,,,,,,,,,,,0,0,0,0,0
3.0201,1783957256.0880,1,1,3.0000,0.0000,1.42242,-0.00518,-2.63185,1.06627,1.57080,0.11675,-0.12762,-0.48152,0.03538,,,,,,,,,,,,,,,,,,,,,,,,,,0,0,0,0,0
3.0293,1783957256.0972,1,1,3.0000,0.0000,1.42242,-0.00518,-2.63185,1.06627,1.57080,0.11675,-0.12762,-0.48152,0.03538,,,,,,,,,,,,,,,,,,,,,,,,,,0,0,0,0,0
3.0295,1783957256.0974,1,1,3.0000,0.0000,1.42242,-0.00518,-2.63185,1.06627,1.57080,0.11675,-0.12762,-0.48152,0.03538,,,,,,,,,,,,,,,,,,,,,,,,,,0,0,0,0,0
3.0392,1783957256.1071,1,1,3.0000,0.0000,1.42242,-0.00518,-2.63185,1.06627,1.57080,0.11675,-0.12762,-0.48152,0.03538,,,,,,,,,,,,,,,,,,,,,,,,,,0,0,0,0,0
3.0466,1783957256.1145,1,1,3.0000,0.0000,1.42242,-0.00518,-2.63185,1.06627,1.57080,0.11675,-0.12762,-0.48152,0.03538,,,,,,,,,,,,,,,,,,,,,,,,,,0,0,0,0,0
3.0596,1783957256.1275,1,1,3.0000,0.0000,1.42242,-0.00518,-2.63185,1.06627,1.57080,0.11675,-0.12762,-0.48152,0.03538,,,,,,,,,,,,,,,,,,,,,,,,,,0,0,0,0,0
3.0678,1783957256.1357,1,1,3.0000,0.0000,1.42242,-0.00518,-2.63185,1.06627,1.57080,0.11675,-0.12762,-0.48152,0.03538,,,,,,,,,,,,,,,,,,,,,,,,,,0,0,0,0,0
3.0765,1783957256.1444,1,1,3.0000,0.0000,1.42242,-0.00518,-2.63185,1.06627,1.57080,0.11675,-0.12762,-0.48152,0.03538,,,,,,,,,,,,,,,,,,,,,,,,,,0,0,0,0,0
3.0897,1783957256.1576,1,1,3.0000,0.0000,1.42242,-0.00518,-2.63185,1.06627,1.57080,0.11675,-0.12762,-0.48152,0.03538,,,,,,,,,,,,,,,,,,,,,,,,,,0,0,0,0,0
3.0955,1783957256.1634,1,1,3.0000,0.0000,1.42242,-0.00518,-2.63185,1.06627,1.57080,0.11675,-0.12762,-0.48152,0.03538,,,,,,,,,,,,,,,,,,,,,,,,,,0,0,0,0,0
3.1195,1783957256.1874,1,1,3.0000,0.0000,1.42242,-0.00518,-2.63185,1.06627,1.57080,0.11675,-0.12762,-0.48152,0.03538,,,,,,,,,,,,,,,,,,,,,,,,,,0,0,0,0,0
3.1675,1783957256.2354,1,1,3.0000,0.0000,1.42242,-0.00522,-2.63188,1.06632,1.57080,0.11675,-0.12763,-0.48150,0.03535,,,,,,,,,,,,,,,,,,,,,,,,,,0,0,0,0,0
3.1679,1783957256.2358,1,1,3.0000,0.0000,1.42242,-0.00522,-2.63188,1.06632,1.57080,0.11675,-0.12763,-0.48150,0.03535,,,,,,,,,,,,,,,,,,,,,,,,,,0,0,0,0,0
3.1683,1783957256.2362,1,1,3.0000,0.0000,1.42242,-0.00522,-2.63188,1.06632,1.57080,0.11675,-0.12763,-0.48150,0.03535,,,,,,,,,,,,,,,,,,,,,,,,,,0,0,0,0,0
3.2032,1783957256.2711,1,1,3.0000,0.0000,1.42242,-0.00535,-2.63197,1.06648,1.57080,0.11675,-0.12763,-0.48146,0.03528,,,,,,,,,,,,,,,,,,,,,,,,,,0,0,0,0,0
3.2035,1783957256.2714,1,1,3.0000,0.0000,1.42242,-0.00535,-2.63197,1.06648,1.57080,0.11675,-0.12763,-0.48146,0.03528,,,,,,,,,,,,,,,,,,,,,,,,,,0,0,0,0,0
3.2038,1783957256.2717,1,1,3.0000,0.0000,1.42242,-0.00535,-2.63197,1.06648,1.57080,0.11675,-0.12763,-0.48146,0.03528,,,,,,,,,,,,,,,,,,,,,,,,,,0,0,0,0,0
3.2069,1783957256.2748,1,1,3.0000,0.0000,1.42242,-0.00538,-2.63198,1.06651,1.57080,0.11675,-0.12763,-0.48146,0.03527,,,,,,,,,,,,,,,,,,,,,,,,,,0,0,0,0,0
3.2073,1783957256.2753,1,1,3.0000,0.0000,1.42242,-0.00538,-2.63198,1.06651,1.57080,0.11675,-0.12763,-0.48146,0.03527,,,,,,,,,,,,,,,,,,,,,,,,,,0,0,0,0,0
3.2227,1783957256.2906,1,1,3.0000,0.0000,1.42242,-0.00551,-2.63202,1.06667,1.57080,0.11675,-0.12763,-0.48145,0.03522,,,,,,,,,,,,,,,,,,,,,,,,,,0,0,0,0,0
3.2231,1783957256.2910,1,1,3.0000,0.0000,1.42242,-0.00551,-2.63202,1.06667,1.57080,0.11675,-0.12763,-0.48145,0.03522,,,,,,,,,,,,,,,,,,,,,,,,,,0,0,0,0,0
3.2413,1783957256.3092,1,1,3.0000,0.0000,1.42242,-0.00556,-2.63203,1.06672,1.57080,0.11675,-0.12763,-0.48145,0.03521,,,,,,,,,,,,,,,,,,,,,,,,,,0,0,0,0,0
3.2417,1783957256.3096,1,1,3.0000,0.0000,1.42242,-0.00556,-2.63203,1.06672,1.57080,0.11675,-0.12763,-0.48145,0.03521,,,,,,,,,,,,,,,,,,,,,,,,,,0,0,0,0,0
3.2486,1783957256.3165,1,1,3.0000,0.0000,1.42242,-0.00562,-2.63205,1.06681,1.57080,0.11675,-0.12763,-0.48145,0.03518,,,,,,,,,,,,,,,,,,,,,,,,,,0,0,0,0,0
3.2489,1783957256.3168,1,1,3.0000,0.0000,1.42242,-0.00562,-2.63205,1.06681,1.57080,0.11675,-0.12763,-0.48145,0.03518,,,,,,,,,,,,,,,,,,,,,,,,,,0,0,0,0,0
3.2717,1783957256.3396,1,1,3.0000,0.0000,1.42242,-0.00576,-2.63207,1.06697,1.57080,0.11675,-0.12763,-0.48145,0.03514,,,,,,,,,,,,,,,,,,,,,,,,,,0,0,0,0,0
3.2720,1783957256.3399,1,1,3.0000,0.0000,1.42242,-0.00576,-2.63207,1.06697,1.57080,0.11675,-0.12763,-0.48145,0.03514,,,,,,,,,,,,,,,,,,,,,,,,,,0,0,0,0,0
3.2723,1783957256.3402,1,1,3.0000,0.0000,1.42242,-0.00576,-2.63207,1.06697,1.57080,0.11675,-0.12763,-0.48145,0.03514,,,,,,,,,,,,,,,,,,,,,,,,,,0,0,0,0,0
3.2813,1783957256.3492,1,1,3.0000,0.0000,1.42242,-0.00587,-2.63209,1.06709,1.57080,0.11675,-0.12763,-0.48146,0.03511,,,,,,,,,,,,,,,,,,,,,,,,,,0,0,0,0,0
3.2938,1783957256.3617,1,1,3.0000,0.0000,1.42242,-0.00589,-2.63209,1.06712,1.57080,0.11675,-0.12763,-0.48146,0.03510,,,,,,,,,,,,,,,,,,,,,,,,,,0,0,0,0,0
3.3285,1783957256.3964,1,1,3.0000,0.0000,1.42242,-0.00609,-2.63211,1.06737,1.57080,0.11675,-0.12763,-0.48148,0.03504,,,,,,,,,,,,,,,,,,,,,,,,,,0,0,0,0,0
3.3289,1783957256.3968,1,1,3.0000,0.0000,1.42242,-0.00609,-2.63211,1.06737,1.57080,0.11675,-0.12763,-0.48148,0.03504,,,,,,,,,,,,,,,,,,,,,,,,,,0,0,0,0,0
3.3429,1783957256.4108,1,1,3.0000,0.0000,1.42242,-0.00619,-2.63210,1.06751,1.57080,0.11675,-0.12762,-0.48150,0.03502,,,,,,,,,,,,,,,,,,,,,,,,,,0,0,0,0,0
3.3432,1783957256.4111,1,1,3.0000,0.0000,1.42242,-0.00619,-2.63210,1.06751,1.57080,0.11675,-0.12762,-0.48150,0.03502,,,,,,,,,,,,,,,,,,,,,,,,,,0,0,0,0,0
3.3452,1783957256.4131,1,1,3.0000,0.0000,1.42242,-0.00619,-2.63210,1.06751,1.57080,0.11675,-0.12762,-0.48150,0.03502,,,,,,,,,,,,,,,,,,,,,,,,,,0,0,0,0,0
3.3456,1783957256.4135,1,1,3.0000,0.0000,1.42242,-0.00619,-2.63210,1.06751,1.57080,0.11675,-0.12762,-0.48150,0.03502,,,,,,,,,,,,,,,,,,,,,,,,,,0,0,0,0,0
3.3617,1783957256.4296,1,1,3.0000,0.0000,1.42241,-0.00631,-2.63207,1.06766,1.57080,0.11675,-0.12762,-0.48154,0.03501,,,,,,,,,,,,,,,,,,,,,,,,,,0,0,0,0,0
3.3676,1783957256.4355,1,1,3.0000,0.0000,1.42241,-0.00635,-2.63205,1.06771,1.57080,0.11675,-0.12761,-0.48157,0.03501,,,,,,,,,,,,,,,,,,,,,,,,,,0,0,0,0,0
3.3795,1783957256.4474,1,1,3.0000,0.0000,1.42241,-0.00637,-2.63202,1.06773,1.57080,0.11675,-0.12761,-0.48159,0.03502,,,,,,,,,,,,,,,,,,,,,,,,,,0,0,0,0,0
3.3879,1783957256.4558,1,1,3.0000,0.0000,1.42241,-0.00637,-2.63202,1.06773,1.57080,0.11675,-0.12761,-0.48159,0.03502,,,,,,,,,,,,,,,,,,,,,,,,,,0,0,0,0,0
3.6451,1783957256.7130,1,1,3.0000,0.0000,1.42241,-0.00661,-2.63224,1.06801,1.57080,0.11675,-0.12763,-0.48146,0.03486,,,,,,,,,,,,,,,,,,,,,,,,,,0,0,0,0,0
3.6456,1783957256.7135,1,1,3.0000,0.0000,1.42241,-0.00661,-2.63224,1.06801,1.57080,0.11675,-0.12763,-0.48146,0.03486,,,,,,,,,,,,,,,,,,,,,,,,,,0,0,0,0,0
3.6462,1783957256.7141,1,1,3.0000,0.0000,1.42241,-0.00661,-2.63224,1.06801,1.57080,0.11675,-0.12763,-0.48146,0.03486,,,,,,,,,,,,,,,,,,,,,,,,,,0,0,0,0,0
3.6469,1783957256.7148,1,1,3.0000,0.0000,1.42241,-0.00661,-2.63224,1.06802,1.57080,0.11675,-0.12763,-0.48146,0.03486,,,,,,,,,,,,,,,,,,,,,,,,,,0,0,0,0,0
3.6473,1783957256.7152,1,1,3.0000,0.0000,1.42241,-0.00661,-2.63224,1.06802,1.57080,0.11675,-0.12763,-0.48146,0.03486,,,,,,,,,,,,,,,,,,,,,,,,,,0,0,0,0,0
3.6477,1783957256.7156,1,1,3.0000,0.0000,1.42241,-0.00661,-2.63224,1.06802,1.57080,0.11675,-0.12763,-0.48146,0.03486,,,,,,,,,,,,,,,,,,,,,,,,,,0,0,0,0,0
3.6481,1783957256.7160,1,1,3.0000,0.0000,1.42241,-0.00661,-2.63224,1.06802,1.57080,0.11675,-0.12763,-0.48146,0.03486,,,,,,,,,,,,,,,,,,,,,,,,,,0,0,0,0,0
3.6485,1783957256.7164,1,1,3.0000,0.0000,1.42241,-0.00661,-2.63224,1.06802,1.57080,0.11675,-0.12763,-0.48146,0.03486,,,,,,,,,,,,,,,,,,,,,,,,,,0,0,0,0,0
3.6490,1783957256.7169,1,1,3.0000,0.0000,1.42241,-0.00661,-2.63224,1.06802,1.57080,0.11675,-0.12763,-0.48146,0.03486,,,,,,,,,,,,,,,,,,,,,,,,,,0,0,0,0,0
3.6494,1783957256.7173,1,1,3.0000,0.0000,1.42241,-0.00661,-2.63224,1.06802,1.57080,0.11675,-0.12763,-0.48146,0.03486,,,,,,,,,,,,,,,,,,,,,,,,,,0,0,0,0,0
3.6499,1783957256.7178,1,1,3.0000,0.0000,1.42241,-0.00661,-2.63224,1.06802,1.57080,0.11675,-0.12763,-0.48146,0.03486,,,,,,,,,,,,,,,,,,,,,,,,,,0,0,0,0,0
3.6503,1783957256.7182,1,1,3.0000,0.0000,1.42241,-0.00661,-2.63224,1.06802,1.57080,0.11675,-0.12763,-0.48146,0.03486,,,,,,,,,,,,,,,,,,,,,,,,,,0,0,0,0,0
3.6508,1783957256.7187,1,1,3.0000,0.0000,1.42241,-0.00663,-2.63225,1.06804,1.57080,0.11675,-0.12763,-0.48146,0.03485,,,,,,,,,,,,,,,,,,,,,,,,,,0,0,0,0,0
3.6511,1783957256.7190,1,1,3.0000,0.0000,1.42241,-0.00663,-2.63225,1.06804,1.57080,0.11675,-0.12763,-0.48146,0.03485,,,,,,,,,,,,,,,,,,,,,,,,,,0,0,0,0,0
3.6514,1783957256.7193,1,1,3.0000,0.0000,1.42241,-0.00663,-2.63225,1.06804,1.57080,0.11675,-0.12763,-0.48146,0.03485,,,,,,,,,,,,,,,,,,,,,,,,,,0,0,0,0,0
3.6517,1783957256.7196,1,1,3.0000,0.0000,1.42241,-0.00663,-2.63225,1.06804,1.57080,0.11675,-0.12763,-0.48146,0.03485,,,,,,,,,,,,,,,,,,,,,,,,,,0,0,0,0,0
3.6520,1783957256.7199,1,1,3.0000,0.0000,1.42241,-0.00663,-2.63225,1.06804,1.57080,0.11675,-0.12763,-0.48146,0.03485,,,,,,,,,,,,,,,,,,,,,,,,,,0,0,0,0,0
3.6635,1783957256.7314,1,1,3.0000,0.0000,1.42241,-0.00672,-2.63227,1.06814,1.57080,0.11675,-0.12763,-0.48146,0.03482,,,,,,,,,,,,,,,,,,,,,,,,,,0,0,0,0,0
3.6638,1783957256.7317,1,1,3.0000,0.0000,1.42241,-0.00672,-2.63227,1.06814,1.57080,0.11675,-0.12763,-0.48146,0.03482,,,,,,,,,,,,,,,,,,,,,,,,,,0,0,0,0,0
3.6671,1783957256.7350,1,1,3.0000,0.0000,1.42241,-0.00676,-2.63228,1.06819,1.57080,0.11675,-0.12763,-0.48146,0.03481,,,,,,,,,,,,,,,,,,,,,,,,,,0,0,0,0,0
3.6674,1783957256.7353,1,1,3.0000,0.0000,1.42241,-0.00676,-2.63228,1.06819,1.57080,0.11675,-0.12763,-0.48146,0.03481,,,,,,,,,,,,,,,,,,,,,,,,,,0,0,0,0,0
3.7352,1783957256.8031,1,1,3.0000,0.0000,1.42241,-0.00718,-2.63236,1.06870,1.57080,0.11675,-0.12763,-0.48147,0.03467,,,,,,,,,,,,,,,,,,,,,,,,,,0,0,0,0,0
3.7356,1783957256.8035,1,1,3.0000,0.0000,1.42241,-0.00718,-2.63236,1.06870,1.57080,0.11675,-0.12763,-0.48147,0.03467,,,,,,,,,,,,,,,,,,,,,,,,,,0,0,0,0,0
3.7360,1783957256.8039,1,1,3.0000,0.0000,1.42241,-0.00718,-2.63236,1.06870,1.57080,0.11675,-0.12763,-0.48147,0.03467,,,,,,,,,,,,,,,,,,,,,,,,,,0,0,0,0,0
3.7515,1783957256.8194,1,1,3.0000,0.0000,1.42241,-0.00727,-2.63236,1.06882,1.57080,0.11675,-0.12762,-0.48149,0.03465,,,,,,,,,,,,,,,,,,,,,,,,,,0,0,0,0,0
3.7656,1783957256.8335,1,1,3.0000,0.0000,1.42241,-0.00738,-2.63235,1.06895,1.57080,0.11675,-0.12762,-0.48151,0.03463,,,,,,,,,,,,,,,,,,,,,,,,,,0,0,0,0,0
3.8326,1783957256.9005,1,1,3.0000,0.0000,1.42241,-0.00756,-2.63230,1.06918,1.57080,0.11675,-0.12761,-0.48158,0.03461,,,,,,,,,,,,,,,,,,,,,,,,,,0,0,0,0,0
3.8330,1783957256.9010,1,1,3.0000,0.0000,1.42241,-0.00756,-2.63230,1.06918,1.57080,0.11675,-0.12761,-0.48158,0.03461,,,,,,,,,,,,,,,,,,,,,,,,,,0,0,0,0,0
3.8333,1783957256.9012,1,1,3.0000,0.0000,1.42241,-0.00756,-2.63230,1.06918,1.57080,0.11675,-0.12761,-0.48158,0.03461,,,,,,,,,,,,,,,,,,,,,,,,,,0,0,0,0,0
3.8335,1783957256.9015,1,1,3.0000,0.0000,1.42241,-0.00756,-2.63230,1.06918,1.57080,0.11675,-0.12761,-0.48158,0.03461,,,,,,,,,,,,,,,,,,,,,,,,,,0,0,0,0,0
3.9206,1783957256.9885,1,1,3.0000,0.0000,1.42241,-0.00756,-2.63230,1.06918,1.57080,0.11675,-0.12761,-0.48158,0.03461,,,,,,,,,,,,,,,,,,,,,,,,,,0,0,0,0,0
3.9210,1783957256.9889,1,1,3.0000,0.0000,1.42241,-0.00756,-2.63230,1.06918,1.57080,0.11675,-0.12761,-0.48158,0.03461,,,,,,,,,,,,,,,,,,,,,,,,,,0,0,0,0,0
3.9214,1783957256.9893,1,1,3.0000,0.0000,1.42241,-0.00756,-2.63230,1.06918,1.57080,0.11675,-0.12761,-0.48158,0.03461,,,,,,,,,,,,,,,,,,,,,,,,,,0,0,0,0,0
3.9217,1783957256.9896,1,1,3.0000,0.0000,1.42241,-0.00756,-2.63230,1.06918,1.57080,0.11675,-0.12761,-0.48158,0.03461,,,,,,,,,,,,,,,,,,,,,,,,,,0,0,0,0,0
3.9221,1783957256.9900,1,1,3.0000,0.0000,1.42241,-0.00756,-2.63230,1.06918,1.57080,0.11675,-0.12761,-0.48158,0.03461,,,,,,,,,,,,,,,,,,,,,,,,,,0,0,0,0,0
3.9263,1783957256.9942,1,1,3.0000,0.0000,1.42241,-0.00756,-2.63230,1.06918,1.57080,0.11675,-0.12761,-0.48158,0.03461,,,,,,,,,,,,,,,,,,,,,,,,,,0,0,0,0,0
3.9412,1783957257.0091,1,1,3.0000,0.0000,1.42241,-0.00756,-2.63230,1.06918,1.57080,0.11675,-0.12761,-0.48158,0.03461,,,,,,,,,,,,,,,,,,,,,,,,,,0,0,0,0,0
3.9415,1783957257.0094,1,1,3.0000,0.0000,1.42241,-0.00756,-2.63230,1.06918,1.57080,0.11675,-0.12761,-0.48158,0.03461,,,,,,,,,,,,,,,,,,,,,,,,,,0,0,0,0,0
3.9457,1783957257.0136,1,1,3.0000,0.0000,1.42241,-0.00756,-2.63230,1.06918,1.57080,0.11675,-0.12761,-0.48158,0.03461,,,,,,,,,,,,,,,,,,,,,,,,,,0,0,0,0,0
3.9461,1783957257.0140,1,1,3.0000,0.0000,1.42241,-0.00756,-2.63230,1.06918,1.57080,0.11675,-0.12761,-0.48158,0.03461,,,,,,,,,,,,,,,,,,,,,,,,,,0,0,0,0,0
3.9668,1783957257.0347,1,1,3.0000,0.0000,1.42241,-0.00756,-2.63230,1.06918,1.57080,0.11675,-0.12761,-0.48158,0.03461,,,,,,,,,,,,,,,,,,,,,,,,,,0,0,0,0,0
3.9673,1783957257.0352,1,1,3.0000,0.0000,1.42241,-0.00756,-2.63230,1.06918,1.57080,0.11675,-0.12761,-0.48158,0.03461,,,,,,,,,,,,,,,,,,,,,,,,,,0,0,0,0,0
3.9808,1783957257.0487,1,1,3.0000,0.0000,1.42241,-0.00756,-2.63230,1.06918,1.57080,0.11675,-0.12761,-0.48158,0.03461,,,,,,,,,,,,,,,,,,,,,,,,,,0,0,0,0,0
3.9812,1783957257.0491,1,1,3.0000,0.0000,1.42241,-0.00756,-2.63230,1.06918,1.57080,0.11675,-0.12761,-0.48158,0.03461,,,,,,,,,,,,,,,,,,,,,,,,,,0,0,0,0,0
3.9816,1783957257.0495,1,1,3.0000,0.0000,1.42241,-0.00756,-2.63230,1.06918,1.57080,0.11675,-0.12761,-0.48158,0.03461,,,,,,,,,,,,,,,,,,,,,,,,,,0,0,0,0,0
3.9875,1783957257.0554,1,1,3.0000,0.0000,1.42241,-0.00757,-2.63232,1.06919,1.57080,0.11675,-0.12761,-0.48157,0.03460,,,,,,,,,,,,,,,,,,,,,,,,,,0,0,0,0,0
4.0280,1783957257.0959,1,1,3.0000,0.0000,1.42241,-0.00765,-2.63243,1.06929,1.57080,0.11675,-0.12762,-0.48150,0.03453,,,,,,,,,,,,,,,,,,,,,,,,,,0,0,0,0,0
4.0284,1783957257.0963,1,1,3.0000,0.0000,1.42241,-0.00765,-2.63243,1.06929,1.57080,0.11675,-0.12762,-0.48150,0.03453,,,,,,,,,,,,,,,,,,,,,,,,,,0,0,0,0,0
4.0324,1783957257.1003,1,1,3.0000,0.0000,1.42241,-0.00767,-2.63245,1.06932,1.57080,0.11675,-0.12762,-0.48149,0.03452,,,,,,,,,,,,,,,,,,,,,,,,,,0,0,0,0,0
4.0327,1783957257.1006,1,1,3.0000,0.0000,1.42241,-0.00767,-2.63245,1.06932,1.57080,0.11675,-0.12762,-0.48149,0.03452,,,,,,,,,,,,,,,,,,,,,,,,,,0,0,0,0,0
4.0408,1783957257.1087,1,1,3.0000,0.0000,1.42241,-0.00767,-2.63245,1.06932,1.57080,0.11675,-0.12762,-0.48149,0.03451,,,,,,,,,,,,,,,,,,,,,,,,,,0,0,0,0,0
4.0413,1783957257.1092,1,1,3.0000,0.0000,1.42241,-0.00767,-2.63245,1.06932,1.57080,0.11675,-0.12762,-0.48149,0.03451,,,,,,,,,,,,,,,,,,,,,,,,,,0,0,0,0,0
4.0558,1783957257.1237,1,1,3.0000,0.0000,1.42241,-0.00775,-2.63249,1.06941,1.57080,0.11675,-0.12763,-0.48147,0.03448,,,,,,,,,,,,,,,,,,,,,,,,,,0,0,0,0,0
4.0598,1783957257.1277,1,1,3.0000,0.0000,1.42241,-0.00775,-2.63249,1.06941,1.57080,0.11675,-0.12763,-0.48147,0.03448,,,,,,,,,,,,,,,,,,,,,,,,,,0,0,0,0,0
4.0690,1783957257.1370,1,1,3.0000,0.0000,1.42241,-0.00778,-2.63249,1.06944,1.57080,0.11675,-0.12763,-0.48147,0.03447,,,,,,,,,,,,,,,,,,,,,,,,,,0,0,0,0,0
4.0791,1783957257.1470,1,1,3.0000,0.0000,1.42241,-0.00788,-2.63252,1.06957,1.57080,0.11675,-0.12763,-0.48147,0.03443,,,,,,,,,,,,,,,,,,,,,,,,,,0,0,0,0,0
4.0879,1783957257.1558,1,1,3.0000,0.0000,1.42241,-0.00798,-2.63255,1.06969,1.57080,0.11675,-0.12763,-0.48146,0.03440,,,,,,,,,,,,,,,,,,,,,,,,,,0,0,0,0,0
4.1161,1783957257.1840,1,1,3.0000,0.0000,1.42241,-0.00816,-2.63258,1.06990,1.57080,0.11675,-0.12763,-0.48147,0.03434,,,,,,,,,,,,,,,,,,,,,,,,,,0,0,0,0,0
4.1164,1783957257.1843,1,1,3.0000,0.0000,1.42241,-0.00816,-2.63258,1.06990,1.57080,0.11675,-0.12763,-0.48147,0.03434,,,,,,,,,,,,,,,,,,,,,,,,,,0,0,0,0,0
4.1620,1783957257.2299,1,1,3.0000,0.0000,1.42241,-0.00848,-2.63263,1.07028,1.57080,0.11675,-0.12762,-0.48148,0.03424,,,,,,,,,,,,,,,,,,,,,,,,,,0,0,0,0,0
4.1625,1783957257.2304,1,1,3.0000,0.0000,1.42241,-0.00848,-2.63263,1.07028,1.57080,0.11675,-0.12762,-0.48148,0.03424,,,,,,,,,,,,,,,,,,,,,,,,,,0,0,0,0,0
4.1630,1783957257.2309,1,1,3.0000,0.0000,1.42241,-0.00852,-2.63264,1.07033,1.57080,0.11675,-0.12762,-0.48148,0.03422,,,,,,,,,,,,,,,,,,,,,,,,,,0,0,0,0,0
4.2036,1783957257.2715,1,1,3.0000,0.0000,1.42241,-0.00872,-2.63266,1.07059,1.57080,0.11675,-0.12762,-0.48150,0.03417,,,,,,,,,,,,,,,,,,,,,,,,,,0,0,0,0,0
4.2232,1783957257.2911,1,1,3.0000,0.0000,1.42241,-0.00872,-2.63266,1.07059,1.57080,0.11675,-0.12762,-0.48150,0.03417,,,,,,,,,,,,,,,,,,,,,,,,,,0,0,0,0,0
4.2237,1783957257.2916,1,1,3.0000,0.0000,1.42241,-0.00872,-2.63266,1.07059,1.57080,0.11675,-0.12762,-0.48150,0.03417,,,,,,,,,,,,,,,,,,,,,,,,,,0,0,0,0,0
4.2242,1783957257.2921,1,1,3.0000,0.0000,1.42241,-0.00872,-2.63266,1.07059,1.57080,0.11675,-0.12762,-0.48150,0.03417,,,,,,,,,,,,,,,,,,,,,,,,,,0,0,0,0,0
4.2289,1783957257.2968,1,1,3.0000,0.0000,1.42241,-0.00872,-2.63266,1.07059,1.57080,0.11675,-0.12762,-0.48150,0.03417,,,,,,,,,,,,,,,,,,,,,,,,,,0,0,0,0,0
4.2572,1783957257.3251,1,1,3.0000,0.0000,1.42241,-0.00872,-2.63266,1.07059,1.57080,0.11675,-0.12762,-0.48150,0.03417,,,,,,,,,,,,,,,,,,,,,,,,,,0,0,0,0,0
4.2576,1783957257.3255,1,1,3.0000,0.0000,1.42241,-0.00872,-2.63266,1.07059,1.57080,0.11675,-0.12762,-0.48150,0.03417,,,,,,,,,,,,,,,,,,,,,,,,,,0,0,0,0,0
4.3169,1783957257.3848,1,1,3.0000,0.0000,1.42241,-0.00872,-2.63266,1.07059,1.57080,0.11675,-0.12762,-0.48150,0.03417,,,,,,,,,,,,,,,,,,,,,,,,,,0,0,0,0,0
4.3171,1783957257.3850,1,1,3.0000,0.0000,1.42241,-0.00872,-2.63266,1.07059,1.57080,0.11675,-0.12762,-0.48150,0.03417,,,,,,,,,,,,,,,,,,,,,,,,,,0,0,0,0,0
4.3175,1783957257.3854,1,1,3.0000,0.0000,1.42241,-0.00872,-2.63266,1.07059,1.57080,0.11675,-0.12762,-0.48150,0.03417,,,,,,,,,,,,,,,,,,,,,,,,,,0,0,0,0,0
4.3177,1783957257.3857,1,1,3.0000,0.0000,1.42241,-0.00872,-2.63266,1.07059,1.57080,0.11675,-0.12762,-0.48150,0.03417,,,,,,,,,,,,,,,,,,,,,,,,,,0,0,0,0,0
4.3181,1783957257.3860,1,1,3.0000,0.0000,1.42241,-0.00872,-2.63266,1.07059,1.57080,0.11675,-0.12762,-0.48150,0.03417,,,,,,,,,,,,,,,,,,,,,,,,,,0,0,0,0,0
4.3183,1783957257.3863,1,1,3.0000,0.0000,1.42241,-0.00872,-2.63266,1.07059,1.57080,0.11675,-0.12762,-0.48150,0.03417,,,,,,,,,,,,,,,,,,,,,,,,,,0,0,0,0,0
4.3187,1783957257.3866,1,1,3.0000,0.0000,1.42241,-0.00872,-2.63266,1.07059,1.57080,0.11675,-0.12762,-0.48150,0.03417,,,,,,,,,,,,,,,,,,,,,,,,,,0,0,0,0,0
4.5413,1783957257.6093,1,1,3.0000,0.0000,1.42240,-0.00934,-2.63286,1.07133,1.57081,0.11675,-0.12763,-0.48145,0.03393,,,,,,,,,,,,,,,,,,,,,,,,,,0,0,0,0,0
4.5416,1783957257.6095,1,1,3.0000,0.0000,1.42240,-0.00934,-2.63286,1.07133,1.57081,0.11675,-0.12763,-0.48145,0.03393,,,,,,,,,,,,,,,,,,,,,,,,,,0,0,0,0,0
4.5419,1783957257.6098,1,1,3.0000,0.0000,1.42240,-0.00934,-2.63286,1.07133,1.57081,0.11675,-0.12763,-0.48145,0.03393,,,,,,,,,,,,,,,,,,,,,,,,,,0,0,0,0,0
4.5422,1783957257.6101,1,1,3.0000,0.0000,1.42240,-0.00934,-2.63286,1.07133,1.57081,0.11675,-0.12763,-0.48145,0.03393,,,,,,,,,,,,,,,,,,,,,,,,,,0,0,0,0,0
4.5425,1783957257.6104,1,1,3.0000,0.0000,1.42240,-0.00934,-2.63286,1.07133,1.57081,0.11675,-0.12763,-0.48145,0.03393,,,,,,,,,,,,,,,,,,,,,,,,,,0,0,0,0,0
4.5431,1783957257.6110,1,1,3.0000,0.0000,1.42240,-0.00934,-2.63286,1.07133,1.57081,0.11675,-0.12763,-0.48145,0.03393,,,,,,,,,,,,,,,,,,,,,,,,,,0,0,0,0,0
4.5434,1783957257.6113,1,1,3.0000,0.0000,1.42240,-0.00934,-2.63286,1.07133,1.57081,0.11675,-0.12763,-0.48145,0.03393,,,,,,,,,,,,,,,,,,,,,,,,,,0,0,0,0,0
4.5439,1783957257.6118,1,1,3.0000,0.0000,1.42240,-0.00934,-2.63286,1.07133,1.57081,0.11675,-0.12763,-0.48145,0.03393,,,,,,,,,,,,,,,,,,,,,,,,,,0,0,0,0,0
4.5443,1783957257.6122,1,1,3.0000,0.0000,1.42240,-0.00934,-2.63286,1.07133,1.57081,0.11675,-0.12763,-0.48145,0.03393,,,,,,,,,,,,,,,,,,,,,,,,,,0,0,0,0,0
4.5446,1783957257.6126,1,1,3.0000,0.0000,1.42240,-0.00934,-2.63286,1.07133,1.57081,0.11675,-0.12763,-0.48145,0.03393,,,,,,,,,,,,,,,,,,,,,,,,,,0,0,0,0,0
4.5452,1783957257.6131,1,1,3.0000,0.0000,1.42240,-0.00934,-2.63286,1.07133,1.57081,0.11675,-0.12763,-0.48145,0.03393,,,,,,,,,,,,,,,,,,,,,,,,,,0,0,0,0,0
4.5529,1783957257.6208,1,1,3.0000,0.0000,1.42240,-0.00936,-2.63286,1.07136,1.57081,0.11675,-0.12763,-0.48145,0.03392,,,,,,,,,,,,,,,,,,,,,,,,,,0,0,0,0,0
4.5534,1783957257.6213,1,1,3.0000,0.0000,1.42240,-0.00936,-2.63286,1.07136,1.57081,0.11675,-0.12763,-0.48145,0.03392,,,,,,,,,,,,,,,,,,,,,,,,,,0,0,0,0,0
4.5538,1783957257.6217,1,1,3.0000,0.0000,1.42240,-0.00936,-2.63286,1.07136,1.57081,0.11675,-0.12763,-0.48145,0.03392,,,,,,,,,,,,,,,,,,,,,,,,,,0,0,0,0,0
4.5558,1783957257.6237,1,1,3.0000,0.0000,1.42240,-0.00939,-2.63287,1.07139,1.57081,0.11675,-0.12763,-0.48145,0.03391,,,,,,,,,,,,,,,,,,,,,,,,,,0,0,0,0,0
4.5562,1783957257.6241,1,1,3.0000,0.0000,1.42240,-0.00939,-2.63287,1.07139,1.57081,0.11675,-0.12763,-0.48145,0.03391,,,,,,,,,,,,,,,,,,,,,,,,,,0,0,0,0,0
4.5683,1783957257.6362,1,1,3.0000,0.0000,1.42240,-0.00950,-2.63288,1.07152,1.57081,0.11675,-0.12762,-0.48146,0.03388,,,,,,,,,,,,,,,,,,,,,,,,,,0,0,0,0,0
4.5809,1783957257.6488,1,1,3.0000,0.0000,1.42240,-0.00955,-2.63289,1.07158,1.57081,0.11675,-0.12762,-0.48146,0.03386,,,,,,,,,,,,,,,,,,,,,,,,,,0,0,0,0,0
4.7286,1783957257.7965,1,1,3.0000,0.0000,1.42240,-0.00993,-2.63283,1.07205,1.57081,0.11675,-0.12761,-0.48157,0.03380,,,,,,,,,,,,,,,,,,,,,,,,,,0,0,0,0,0
4.7475,1783957257.8154,1,1,3.0000,0.0000,1.42240,-0.00993,-2.63283,1.07205,1.57081,0.11675,-0.12761,-0.48157,0.03380,,,,,,,,,,,,,,,,,,,,,,,,,,0,0,0,0,0
4.7675,1783957257.8354,1,1,3.0000,0.0000,1.42240,-0.00993,-2.63283,1.07205,1.57081,0.11675,-0.12761,-0.48157,0.03380,,,,,,,,,,,,,,,,,,,,,,,,,,0,0,0,0,0
4.7678,1783957257.8357,1,1,3.0000,0.0000,1.42240,-0.00993,-2.63283,1.07205,1.57081,0.11675,-0.12761,-0.48157,0.03380,,,,,,,,,,,,,,,,,,,,,,,,,,0,0,0,0,0
4.7692,1783957257.8371,1,1,3.0000,0.0000,1.42240,-0.00993,-2.63283,1.07205,1.57081,0.11675,-0.12761,-0.48157,0.03380,,,,,,,,,,,,,,,,,,,,,,,,,,0,0,0,0,0
4.7695,1783957257.8374,1,1,3.0000,0.0000,1.42240,-0.00993,-2.63283,1.07205,1.57081,0.11675,-0.12761,-0.48157,0.03380,,,,,,,,,,,,,,,,,,,,,,,,,,0,0,0,0,0
4.7697,1783957257.8376,1,1,3.0000,0.0000,1.42240,-0.00993,-2.63283,1.07205,1.57081,0.11675,-0.12761,-0.48157,0.03380,,,,,,,,,,,,,,,,,,,,,,,,,,0,0,0,0,0
4.7700,1783957257.8379,1,1,3.0000,0.0000,1.42240,-0.00993,-2.63283,1.07205,1.57081,0.11675,-0.12761,-0.48157,0.03380,,,,,,,,,,,,,,,,,,,,,,,,,,0,0,0,0,0
4.7703,1783957257.8382,1,1,3.0000,0.0000,1.42240,-0.00993,-2.63283,1.07205,1.57081,0.11675,-0.12761,-0.48157,0.03380,,,,,,,,,,,,,,,,,,,,,,,,,,0,0,0,0,0
4.7706,1783957257.8385,1,1,3.0000,0.0000,1.42240,-0.00993,-2.63283,1.07205,1.57081,0.11675,-0.12761,-0.48157,0.03380,,,,,,,,,,,,,,,,,,,,,,,,,,0,0,0,0,0
4.7712,1783957257.8391,1,1,3.0000,0.0000,1.42240,-0.00993,-2.63283,1.07205,1.57081,0.11675,-0.12761,-0.48157,0.03380,,,,,,,,,,,,,,,,,,,,,,,,,,0,0,0,0,0
4.7719,1783957257.8398,1,1,3.0000,0.0000,1.42240,-0.00993,-2.63283,1.07205,1.57081,0.11675,-0.12761,-0.48157,0.03380,,,,,,,,,,,,,,,,,,,,,,,,,,0,0,0,0,0
4.7722,1783957257.8401,1,1,3.0000,0.0000,1.42240,-0.00993,-2.63283,1.07205,1.57081,0.11675,-0.12761,-0.48157,0.03380,,,,,,,,,,,,,,,,,,,,,,,,,,0,0,0,0,0
4.7725,1783957257.8404,1,1,3.0000,0.0000,1.42240,-0.00993,-2.63283,1.07205,1.57081,0.11675,-0.12761,-0.48157,0.03380,,,,,,,,,,,,,,,,,,,,,,,,,,0,0,0,0,0
4.7765,1783957257.8444,1,1,3.0000,0.0000,1.42240,-0.00993,-2.63283,1.07205,1.57081,0.11675,-0.12761,-0.48157,0.03380,,,,,,,,,,,,,,,,,,,,,,,,,,0,0,0,0,0
4.7801,1783957257.8480,1,1,3.0000,0.0000,1.42240,-0.00993,-2.63283,1.07205,1.57081,0.11675,-0.12761,-0.48157,0.03380,,,,,,,,,,,,,,,,,,,,,,,,,,0,0,0,0,0
4.7804,1783957257.8483,1,1,3.0000,0.0000,1.42240,-0.00993,-2.63283,1.07205,1.57081,0.11675,-0.12761,-0.48157,0.03380,,,,,,,,,,,,,,,,,,,,,,,,,,0,0,0,0,0
4.7807,1783957257.8486,1,1,3.0000,0.0000,1.42240,-0.00993,-2.63283,1.07205,1.57081,0.11675,-0.12761,-0.48157,0.03380,,,,,,,,,,,,,,,,,,,,,,,,,,0,0,0,0,0
4.7820,1783957257.8499,1,1,3.0000,0.0000,1.42240,-0.00993,-2.63283,1.07205,1.57081,0.11675,-0.12761,-0.48157,0.03380,,,,,,,,,,,,,,,,,,,,,,,,,,0,0,0,0,0
4.7825,1783957257.8504,1,1,3.0000,0.0000,1.42240,-0.00993,-2.63283,1.07205,1.57081,0.11675,-0.12761,-0.48157,0.03380,,,,,,,,,,,,,,,,,,,,,,,,,,0,0,0,0,0
4.7841,1783957257.8520,1,1,3.0000,0.0000,1.42240,-0.00993,-2.63283,1.07205,1.57081,0.11675,-0.12761,-0.48157,0.03380,,,,,,,,,,,,,,,,,,,,,,,,,,0,0,0,0,0
4.7844,1783957257.8523,1,1,3.0000,0.0000,1.42240,-0.00993,-2.63283,1.07205,1.57081,0.11675,-0.12761,-0.48157,0.03380,,,,,,,,,,,,,,,,,,,,,,,,,,0,0,0,0,0
4.7847,1783957257.8526,1,1,3.0000,0.0000,1.42240,-0.00993,-2.63283,1.07205,1.57081,0.11675,-0.12761,-0.48157,0.03380,,,,,,,,,,,,,,,,,,,,,,,,,,0,0,0,0,0
4.7931,1783957257.8610,1,1,3.0000,0.0000,1.42240,-0.00993,-2.63283,1.07205,1.57081,0.11675,-0.12761,-0.48157,0.03380,,,,,,,,,,,,,,,,,,,,,,,,,,0,0,0,0,0
4.7994,1783957257.8673,1,1,3.0000,0.0000,1.42240,-0.00993,-2.63283,1.07205,1.57081,0.11675,-0.12761,-0.48157,0.03380,,,,,,,,,,,,,,,,,,,,,,,,,,0,0,0,0,0
4.8057,1783957257.8736,1,1,3.0000,0.0000,1.42240,-0.00993,-2.63283,1.07205,1.57081,0.11675,-0.12761,-0.48157,0.03380,,,,,,,,,,,,,,,,,,,,,,,,,,0,0,0,0,0
4.8061,1783957257.8740,1,1,3.0000,0.0000,1.42240,-0.00993,-2.63283,1.07205,1.57081,0.11675,-0.12761,-0.48157,0.03380,,,,,,,,,,,,,,,,,,,,,,,,,,0,0,0,0,0
4.8178,1783957257.8857,1,1,3.0000,0.0000,1.42240,-0.00993,-2.63283,1.07206,1.57081,0.11675,-0.12761,-0.48157,0.03380,,,,,,,,,,,,,,,,,,,,,,,,,,0,0,0,0,0
4.8182,1783957257.8861,1,1,3.0000,0.0000,1.42240,-0.00993,-2.63283,1.07206,1.57081,0.11675,-0.12761,-0.48157,0.03380,,,,,,,,,,,,,,,,,,,,,,,,,,0,0,0,0,0
4.8295,1783957257.8974,1,1,3.0000,0.0000,1.42240,-0.00994,-2.63284,1.07207,1.57081,0.11675,-0.12761,-0.48156,0.03380,,,,,,,,,,,,,,,,,,,,,,,,,,0,0,0,0,0
4.8300,1783957257.8979,1,1,3.0000,0.0000,1.42240,-0.00994,-2.63284,1.07207,1.57081,0.11675,-0.12761,-0.48156,0.03380,,,,,,,,,,,,,,,,,,,,,,,,,,0,0,0,0,0
4.8466,1783957257.9145,1,1,3.0000,0.0000,1.42240,-0.00995,-2.63287,1.07208,1.57081,0.11675,-0.12761,-0.48155,0.03378,,,,,,,,,,,,,,,,,,,,,,,,,,0,0,0,0,0
4.8487,1783957257.9166,1,1,3.0000,0.0000,1.42240,-0.00995,-2.63287,1.07209,1.57081,0.11675,-0.12761,-0.48154,0.03378,,,,,,,,,,,,,,,,,,,,,,,,,,0,0,0,0,0
4.8491,1783957257.9170,1,1,3.0000,0.0000,1.42240,-0.00995,-2.63287,1.07209,1.57081,0.11675,-0.12761,-0.48154,0.03378,,,,,,,,,,,,,,,,,,,,,,,,,,0,0,0,0,0
4.8558,1783957257.9237,1,1,3.0000,0.0000,1.42240,-0.00997,-2.63290,1.07211,1.57081,0.11675,-0.12761,-0.48152,0.03376,,,,,,,,,,,,,,,,,,,,,,,,,,0,0,0,0,0
4.8562,1783957257.9241,1,1,3.0000,0.0000,1.42240,-0.00997,-2.63290,1.07211,1.57081,0.11675,-0.12761,-0.48152,0.03376,,,,,,,,,,,,,,,,,,,,,,,,,,0,0,0,0,0
4.8691,1783957257.9370,1,1,3.0000,0.0000,1.42240,-0.01002,-2.63296,1.07217,1.57081,0.11675,-0.12762,-0.48149,0.03372,,,,,,,,,,,,,,,,,,,,,,,,,,0,0,0,0,0
4.8771,1783957257.9450,1,1,3.0000,0.0000,1.42240,-0.01002,-2.63296,1.07217,1.57081,0.11675,-0.12762,-0.48149,0.03372,,,,,,,,,,,,,,,,,,,,,,,,,,0,0,0,0,0
4.8774,1783957257.9453,1,1,3.0000,0.0000,1.42240,-0.01002,-2.63296,1.07217,1.57081,0.11675,-0.12762,-0.48149,0.03372,,,,,,,,,,,,,,,,,,,,,,,,,,0,0,0,0,0
4.8858,1783957257.9537,1,1,3.0000,0.0000,1.42240,-0.01004,-2.63298,1.07220,1.57081,0.11675,-0.12762,-0.48148,0.03371,,,,,,,,,,,,,,,,,,,,,,,,,,0,0,0,0,0
4.8965,1783957257.9644,1,1,3.0000,0.0000,1.42240,-0.01010,-2.63302,1.07227,1.57081,0.11675,-0.12762,-0.48146,0.03368,,,,,,,,,,,,,,,,,,,,,,,,,,0,0,0,0,0
4.9113,1783957257.9792,1,1,3.0000,0.0000,1.42240,-0.01015,-2.63304,1.07232,1.57081,0.11675,-0.12762,-0.48145,0.03366,,,,,,,,,,,,,,,,,,,,,,,,,,0,0,0,0,0
4.9196,1783957257.9875,1,1,3.0000,0.0000,1.42240,-0.01019,-2.63305,1.07237,1.57081,0.11675,-0.12762,-0.48145,0.03364,,,,,,,,,,,,,,,,,,,,,,,,,,0,0,0,0,0
4.9199,1783957257.9878,1,1,3.0000,0.0000,1.42240,-0.01019,-2.63305,1.07237,1.57081,0.11675,-0.12762,-0.48145,0.03364,,,,,,,,,,,,,,,,,,,,,,,,,,0,0,0,0,0
4.9290,1783957257.9969,1,1,3.0000,0.0000,1.42240,-0.01022,-2.63306,1.07241,1.57081,0.11675,-0.12762,-0.48144,0.03363,,,,,,,,,,,,,,,,,,,,,,,,,,0,0,0,0,0
4.9395,1783957258.0074,1,1,3.0000,0.0000,1.42240,-0.01028,-2.63307,1.07248,1.57081,0.11675,-0.12762,-0.48145,0.03361,,,,,,,,,,,,,,,,,,,,,,,,,,0,0,0,0,0
4.9478,1783957258.0157,1,1,3.0000,0.0000,1.42240,-0.01037,-2.63308,1.07258,1.57081,0.11675,-0.12762,-0.48145,0.03358,,,,,,,,,,,,,,,,,,,,,,,,,,0,0,0,0,0
4.9482,1783957258.0161,1,1,3.0000,0.0000,1.42240,-0.01037,-2.63308,1.07258,1.57081,0.11675,-0.12762,-0.48145,0.03358,,,,,,,,,,,,,,,,,,,,,,,,,,0,0,0,0,0
4.9586,1783957258.0265,1,1,3.0000,0.0000,1.42240,-0.01048,-2.63310,1.07271,1.57081,0.11675,-0.12762,-0.48145,0.03354,,,,,,,,,,,,,,,,,,,,,,,,,,0,0,0,0,0
4.9662,1783957258.0342,1,1,3.0000,0.0000,1.42240,-0.01049,-2.63311,1.07272,1.57081,0.11675,-0.12762,-0.48145,0.03354,,,,,,,,,,,,,,,,,,,,,,,,,,0,0,0,0,0
4.9770,1783957258.0449,1,1,3.0000,0.0000,1.42240,-0.01056,-2.63312,1.07281,1.57081,0.11675,-0.12762,-0.48145,0.03352,,,,,,,,,,,,,,,,,,,,,,,,,,0,0,0,0,0
4.9860,1783957258.0539,1,1,3.0000,0.0000,1.42240,-0.01065,-2.63313,1.07292,1.57081,0.11675,-0.12762,-0.48146,0.03349,,,,,,,,,,,,,,,,,,,,,,,,,,0,0,0,0,0
5.0003,1783957258.0682,1,1,3.0000,0.0000,1.42240,-0.01086,-2.63316,1.07316,1.57081,0.11675,-0.12762,-0.48147,0.03343,,,,,,,,,,,,,,,,,,,,,,,,,,0,0,0,0,0
5.0006,1783957258.0685,1,1,3.0000,0.0000,1.42240,-0.01086,-2.63316,1.07316,1.57081,0.11675,-0.12762,-0.48147,0.03343,,,,,,,,,,,,,,,,,,,,,,,,,,0,0,0,0,0
5.0266,1783957258.0945,1,1,3.0000,0.0000,1.42240,-0.01105,-2.63319,1.07341,1.57081,0.11675,-0.12762,-0.48148,0.03337,,,,,,,,,,,,,,,,,,,,,,,,,,0,0,0,0,0
5.0325,1783957258.1004,1,1,3.0000,0.0000,1.42240,-0.01105,-2.63319,1.07341,1.57081,0.11675,-0.12762,-0.48148,0.03337,,,,,,,,,,,,,,,,,,,,,,,,,,0,0,0,0,0
5.0375,1783957258.1054,1,1,3.0000,0.0000,1.42240,-0.01105,-2.63319,1.07341,1.57081,0.11675,-0.12762,-0.48148,0.03337,,,,,,,,,,,,,,,,,,,,,,,,,,0,0,0,0,0
5.0378,1783957258.1057,1,1,3.0000,0.0000,1.42240,-0.01105,-2.63319,1.07341,1.57081,0.11675,-0.12762,-0.48148,0.03337,,,,,,,,,,,,,,,,,,,,,,,,,,0,0,0,0,0
5.0396,1783957258.1075,1,1,3.0000,0.0000,1.42240,-0.01105,-2.63319,1.07341,1.57081,0.11675,-0.12762,-0.48148,0.03337,,,,,,,,,,,,,,,,,,,,,,,,,,0,0,0,0,0
5.0564,1783957258.1243,1,1,3.0000,0.0000,1.42240,-0.01105,-2.63319,1.07341,1.57081,0.11675,-0.12762,-0.48148,0.03337,,,,,,,,,,,,,,,,,,,,,,,,,,0,0,0,0,0
5.0604,1783957258.1283,1,1,3.0000,0.0000,1.42240,-0.01105,-2.63319,1.07341,1.57081,0.11675,-0.12762,-0.48148,0.03337,,,,,,,,,,,,,,,,,,,,,,,,,,0,0,0,0,0
5.0608,1783957258.1287,1,1,3.0000,0.0000,1.42240,-0.01105,-2.63319,1.07341,1.57081,0.11675,-0.12762,-0.48148,0.03337,,,,,,,,,,,,,,,,,,,,,,,,,,0,0,0,0,0
5.0655,1783957258.1334,1,1,3.0000,0.0000,1.42240,-0.01105,-2.63319,1.07341,1.57081,0.11675,-0.12762,-0.48148,0.03337,,,,,,,,,,,,,,,,,,,,,,,,,,0,0,0,0,0
5.0659,1783957258.1338,1,1,3.0000,0.0000,1.42240,-0.01105,-2.63319,1.07341,1.57081,0.11675,-0.12762,-0.48148,0.03337,,,,,,,,,,,,,,,,,,,,,,,,,,0,0,0,0,0
5.0816,1783957258.1495,1,1,3.0000,0.0000,1.42240,-0.01105,-2.63319,1.07341,1.57081,0.11675,-0.12762,-0.48148,0.03337,,,,,,,,,,,,,,,,,,,,,,,,,,0,0,0,0,0
5.0825,1783957258.1504,1,1,3.0000,0.0000,1.42240,-0.01105,-2.63319,1.07341,1.57081,0.11675,-0.12762,-0.48148,0.03337,,,,,,,,,,,,,,,,,,,,,,,,,,0,0,0,0,0
5.0877,1783957258.1556,1,1,3.0000,0.0000,1.42240,-0.01105,-2.63319,1.07341,1.57081,0.11675,-0.12762,-0.48148,0.03337,,,,,,,,,,,,,,,,,,,,,,,,,,0,0,0,0,0
5.0955,1783957258.1634,1,1,3.0000,0.0000,1.42240,-0.01105,-2.63319,1.07341,1.57081,0.11675,-0.12762,-0.48148,0.03337,,,,,,,,,,,,,,,,,,,,,,,,,,0,0,0,0,0
5.0958,1783957258.1637,1,1,3.0000,0.0000,1.42240,-0.01105,-2.63319,1.07341,1.57081,0.11675,-0.12762,-0.48148,0.03337,,,,,,,,,,,,,,,,,,,,,,,,,,0,0,0,0,0
5.1116,1783957258.1795,1,1,3.0000,0.0000,1.42240,-0.01105,-2.63319,1.07341,1.57081,0.11675,-0.12762,-0.48148,0.03337,,,,,,,,,,,,,,,,,,,,,,,,,,0,0,0,0,0
5.1230,1783957258.1909,1,1,3.0000,0.0000,1.42240,-0.01105,-2.63319,1.07341,1.57081,0.11675,-0.12762,-0.48148,0.03337,,,,,,,,,,,,,,,,,,,,,,,,,,0,0,0,0,0
5.1379,1783957258.2058,1,1,3.0000,0.0000,1.42240,-0.01105,-2.63319,1.07341,1.57081,0.11675,-0.12762,-0.48148,0.03337,,,,,,,,,,,,,,,,,,,,,,,,,,0,0,0,0,0
5.1383,1783957258.2062,1,1,3.0000,0.0000,1.42240,-0.01105,-2.63319,1.07341,1.57081,0.11675,-0.12762,-0.48148,0.03337,,,,,,,,,,,,,,,,,,,,,,,,,,0,0,0,0,0
5.1435,1783957258.2114,1,1,3.0000,0.0000,1.42240,-0.01105,-2.63319,1.07341,1.57081,0.11675,-0.12762,-0.48148,0.03337,,,,,,,,,,,,,,,,,,,,,,,,,,0,0,0,0,0
5.1465,1783957258.2144,1,1,3.0000,0.0000,1.42240,-0.01105,-2.63319,1.07341,1.57081,0.11675,-0.12762,-0.48148,0.03337,,,,,,,,,,,,,,,,,,,,,,,,,,0,0,0,0,0
5.1566,1783957258.2245,1,1,3.0000,0.0000,1.42240,-0.01105,-2.63319,1.07341,1.57081,0.11675,-0.12762,-0.48148,0.03337,,,,,,,,,,,,,,,,,,,,,,,,,,0,0,0,0,0
5.1679,1783957258.2358,1,1,3.0000,0.0000,1.42240,-0.01105,-2.63319,1.07341,1.57081,0.11675,-0.12762,-0.48148,0.03337,,,,,,,,,,,,,,,,,,,,,,,,,,0,0,0,0,0
5.1781,1783957258.2460,1,1,3.0000,0.0000,1.42240,-0.01105,-2.63319,1.07341,1.57081,0.11675,-0.12762,-0.48148,0.03337,,,,,,,,,,,,,,,,,,,,,,,,,,0,0,0,0,0
5.1860,1783957258.2539,1,1,3.0000,0.0000,1.42240,-0.01105,-2.63319,1.07341,1.57081,0.11675,-0.12762,-0.48148,0.03337,,,,,,,,,,,,,,,,,,,,,,,,,,0,0,0,0,0
5.1983,1783957258.2662,1,1,3.0000,0.0000,1.42240,-0.01105,-2.63319,1.07341,1.57081,0.11675,-0.12762,-0.48148,0.03337,,,,,,,,,,,,,,,,,,,,,,,,,,0,0,0,0,0
5.2098,1783957258.2777,1,1,3.0000,0.0000,1.42240,-0.01105,-2.63319,1.07341,1.57081,0.11675,-0.12762,-0.48148,0.03337,,,,,,,,,,,,,,,,,,,,,,,,,,0,0,0,0,0
5.2162,1783957258.2841,1,1,3.0000,0.0000,1.42240,-0.01105,-2.63319,1.07341,1.57081,0.11675,-0.12762,-0.48148,0.03337,,,,,,,,,,,,,,,,,,,,,,,,,,0,0,0,0,0
5.2262,1783957258.2941,1,1,3.0000,0.0000,1.42240,-0.01105,-2.63319,1.07341,1.57081,0.11675,-0.12762,-0.48148,0.03337,,,,,,,,,,,,,,,,,,,,,,,,,,0,0,0,0,0
5.2532,1783957258.3211,1,1,3.0000,0.0000,1.42240,-0.01108,-2.63318,1.07345,1.57081,0.11675,-0.12762,-0.48149,0.03337,,,,,,,,,,,,,,,,,,,,,,,,,,0,0,0,0,0
5.2600,1783957258.3279,1,1,3.0000,0.0000,1.42240,-0.01110,-2.63318,1.07348,1.57081,0.11675,-0.12761,-0.48149,0.03337,,,,,,,,,,,,,,,,,,,,,,,,,,0,0,0,0,0
5.2603,1783957258.3282,1,1,3.0000,0.0000,1.42240,-0.01110,-2.63318,1.07348,1.57081,0.11675,-0.12761,-0.48149,0.03337,,,,,,,,,,,,,,,,,,,,,,,,,,0,0,0,0,0
5.2610,1783957258.3289,1,1,3.0000,0.0000,1.42240,-0.01110,-2.63318,1.07348,1.57081,0.11675,-0.12761,-0.48149,0.03337,,,,,,,,,,,,,,,,,,,,,,,,,,0,0,0,0,0
5.2613,1783957258.3292,1,1,3.0000,0.0000,1.42240,-0.01110,-2.63318,1.07348,1.57081,0.11675,-0.12761,-0.48149,0.03337,,,,,,,,,,,,,,,,,,,,,,,,,,0,0,0,0,0
5.2800,1783957258.3479,1,1,3.0000,0.0000,1.42240,-0.01113,-2.63321,1.07352,1.57081,0.11675,-0.12762,-0.48148,0.03335,,,,,,,,,,,,,,,,,,,,,,,,,,0,0,0,0,0
5.2814,1783957258.3493,1,1,3.0000,0.0000,1.42240,-0.01113,-2.63321,1.07352,1.57081,0.11675,-0.12762,-0.48148,0.03335,,,,,,,,,,,,,,,,,,,,,,,,,,0,0,0,0,0
5.2816,1783957258.3495,1,1,3.0000,0.0000,1.42240,-0.01113,-2.63321,1.07352,1.57081,0.11675,-0.12762,-0.48148,0.03335,,,,,,,,,,,,,,,,,,,,,,,,,,0,0,0,0,0
5.2889,1783957258.3568,1,1,3.0000,0.0000,1.42240,-0.01116,-2.63323,1.07356,1.57081,0.11675,-0.12762,-0.48147,0.03333,,,,,,,,,,,,,,,,,,,,,,,,,,0,0,0,0,0
5.3559,1783957258.4238,1,1,3.0000,0.0000,1.42240,-0.01146,-2.63333,1.07392,1.57081,0.11674,-0.12762,-0.48145,0.03321,,,,,,,,,,,,,,,,,,,,,,,,,,0,0,0,0,0
5.3635,1783957258.4314,1,1,3.0000,0.0000,1.42240,-0.01150,-2.63333,1.07397,1.57081,0.11674,-0.12762,-0.48145,0.03320,,,,,,,,,,,,,,,,,,,,,,,,,,0,0,0,0,0
5.3638,1783957258.4317,1,1,3.0000,0.0000,1.42240,-0.01150,-2.63333,1.07397,1.57081,0.11674,-0.12762,-0.48145,0.03320,,,,,,,,,,,,,,,,,,,,,,,,,,0,0,0,0,0
5.3678,1783957258.4357,1,1,3.0000,0.0000,1.42240,-0.01154,-2.63334,1.07402,1.57081,0.11674,-0.12762,-0.48145,0.03319,,,,,,,,,,,,,,,,,,,,,,,,,,0,0,0,0,0
5.3681,1783957258.4360,1,1,3.0000,0.0000,1.42240,-0.01154,-2.63334,1.07402,1.57081,0.11674,-0.12762,-0.48145,0.03319,,,,,,,,,,,,,,,,,,,,,,,,,,0,0,0,0,0
5.3842,1783957258.4521,1,1,3.0000,0.0000,1.42240,-0.01161,-2.63335,1.07410,1.57081,0.11674,-0.12762,-0.48145,0.03317,,,,,,,,,,,,,,,,,,,,,,,,,,0,0,0,0,0
5.3858,1783957258.4537,1,1,3.0000,0.0000,1.42240,-0.01161,-2.63335,1.07410,1.57081,0.11674,-0.12762,-0.48145,0.03317,,,,,,,,,,,,,,,,,,,,,,,,,,0,0,0,0,0
5.3862,1783957258.4541,1,1,3.0000,0.0000,1.42240,-0.01161,-2.63335,1.07410,1.57081,0.11674,-0.12762,-0.48145,0.03317,,,,,,,,,,,,,,,,,,,,,,,,,,0,0,0,0,0
5.3877,1783957258.4556,1,1,3.0000,0.0000,1.42240,-0.01164,-2.63336,1.07413,1.57081,0.11674,-0.12762,-0.48145,0.03316,,,,,,,,,,,,,,,,,,,,,,,,,,0,0,0,0,0
5.3889,1783957258.4568,1,1,3.0000,0.0000,1.42240,-0.01164,-2.63336,1.07413,1.57081,0.11674,-0.12762,-0.48145,0.03316,,,,,,,,,,,,,,,,,,,,,,,,,,0,0,0,0,0
5.3893,1783957258.4572,1,1,3.0000,0.0000,1.42240,-0.01164,-2.63336,1.07413,1.57081,0.11674,-0.12762,-0.48145,0.03316,,,,,,,,,,,,,,,,,,,,,,,,,,0,0,0,0,0
5.3956,1783957258.4635,1,1,3.0000,0.0000,1.42240,-0.01172,-2.63337,1.07423,1.57081,0.11674,-0.12762,-0.48145,0.03313,,,,,,,,,,,,,,,,,,,,,,,,,,0,0,0,0,0
5.3976,1783957258.4655,1,1,3.0000,0.0000,1.42240,-0.01172,-2.63337,1.07423,1.57081,0.11674,-0.12762,-0.48145,0.03313,,,,,,,,,,,,,,,,,,,,,,,,,,0,0,0,0,0
5.4180,1783957258.4859,1,1,3.0000,0.0000,1.42239,-0.01200,-2.63341,1.07456,1.57081,0.11674,-0.12762,-0.48147,0.03304,,,,,,,,,,,,,,,,,,,,,,,,,,0,0,0,0,0
5.4197,1783957258.4876,1,1,3.0000,0.0000,1.42239,-0.01200,-2.63341,1.07456,1.57081,0.11674,-0.12762,-0.48147,0.03304,,,,,,,,,,,,,,,,,,,,,,,,,,0,0,0,0,0
5.4320,1783957258.4999,1,1,3.0000,0.0000,1.42239,-0.01202,-2.63341,1.07459,1.57081,0.11674,-0.12762,-0.48147,0.03304,,,,,,,,,,,,,,,,,,,,,,,,,,0,0,0,0,0
5.4483,1783957258.5162,1,1,3.0000,0.0000,1.42239,-0.01211,-2.63341,1.07470,1.57081,0.11674,-0.12761,-0.48149,0.03302,,,,,,,,,,,,,,,,,,,,,,,,,,0,0,0,0,0
5.4491,1783957258.5170,1,1,3.0000,0.0000,1.42239,-0.01211,-2.63341,1.07470,1.57081,0.11674,-0.12761,-0.48149,0.03302,,,,,,,,,,,,,,,,,,,,,,,,,,0,0,0,0,0
5.4495,1783957258.5174,1,1,3.0000,0.0000,1.42239,-0.01211,-2.63341,1.07470,1.57081,0.11674,-0.12761,-0.48149,0.03302,,,,,,,,,,,,,,,,,,,,,,,,,,0,0,0,0,0
5.4879,1783957258.5558,1,1,3.0000,0.0000,1.42239,-0.01231,-2.63335,1.07496,1.57081,0.11674,-0.12760,-0.48156,0.03300,,,,,,,,,,,,,,,,,,,,,,,,,,0,0,0,0,0
5.4888,1783957258.5567,1,1,3.0000,0.0000,1.42239,-0.01231,-2.63335,1.07496,1.57081,0.11674,-0.12760,-0.48156,0.03300,,,,,,,,,,,,,,,,,,,,,,,,,,0,0,0,0,0
5.4891,1783957258.5570,1,1,3.0000,0.0000,1.42239,-0.01231,-2.63335,1.07496,1.57081,0.11674,-0.12760,-0.48156,0.03300,,,,,,,,,,,,,,,,,,,,,,,,,,0,0,0,0,0
5.5025,1783957258.5704,1,1,3.0000,0.0000,1.42239,-0.01231,-2.63335,1.07496,1.57081,0.11674,-0.12760,-0.48156,0.03300,,,,,,,,,,,,,,,,,,,,,,,,,,0,0,0,0,0
5.5057,1783957258.5736,1,1,3.0000,0.0000,1.42239,-0.01231,-2.63335,1.07496,1.57081,0.11674,-0.12760,-0.48156,0.03300,,,,,,,,,,,,,,,,,,,,,,,,,,0,0,0,0,0
5.5358,1783957258.6037,1,1,3.0000,0.0000,1.42239,-0.01231,-2.63335,1.07496,1.57081,0.11674,-0.12760,-0.48156,0.03300,,,,,,,,,,,,,,,,,,,,,,,,,,0,0,0,0,0
5.5362,1783957258.6041,1,1,3.0000,0.0000,1.42239,-0.01231,-2.63335,1.07496,1.57081,0.11674,-0.12760,-0.48156,0.03300,,,,,,,,,,,,,,,,,,,,,,,,,,0,0,0,0,0
5.5380,1783957258.6059,1,1,3.0000,0.0000,1.42239,-0.01231,-2.63335,1.07496,1.57081,0.11674,-0.12760,-0.48156,0.03300,,,,,,,,,,,,,,,,,,,,,,,,,,0,0,0,0,0
5.5466,1783957258.6145,1,1,3.0000,0.0000,1.42239,-0.01231,-2.63335,1.07496,1.57081,0.11674,-0.12760,-0.48156,0.03300,,,,,,,,,,,,,,,,,,,,,,,,,,0,0,0,0,0
5.5470,1783957258.6149,1,1,3.0000,0.0000,1.42239,-0.01231,-2.63335,1.07496,1.57081,0.11674,-0.12760,-0.48156,0.03300,,,,,,,,,,,,,,,,,,,,,,,,,,0,0,0,0,0
5.5476,1783957258.6155,1,1,3.0000,0.0000,1.42239,-0.01231,-2.63335,1.07496,1.57081,0.11674,-0.12760,-0.48156,0.03300,,,,,,,,,,,,,,,,,,,,,,,,,,0,0,0,0,0
5.5628,1783957258.6307,1,1,3.0000,0.0000,1.42239,-0.01231,-2.63335,1.07496,1.57081,0.11674,-0.12760,-0.48156,0.03300,,,,,,,,,,,,,,,,,,,,,,,,,,0,0,0,0,0
5.5661,1783957258.6340,1,1,3.0000,0.0000,1.42239,-0.01231,-2.63335,1.07496,1.57081,0.11674,-0.12760,-0.48156,0.03300,,,,,,,,,,,,,,,,,,,,,,,,,,0,0,0,0,0
5.5666,1783957258.6345,1,1,3.0000,0.0000,1.42239,-0.01231,-2.63335,1.07496,1.57081,0.11674,-0.12760,-0.48156,0.03300,,,,,,,,,,,,,,,,,,,,,,,,,,0,0,0,0,0
5.5807,1783957258.6487,1,1,3.0000,0.0000,1.42239,-0.01231,-2.63335,1.07496,1.57081,0.11674,-0.12760,-0.48156,0.03300,,,,,,,,,,,,,,,,,,,,,,,,,,0,0,0,0,0
5.5886,1783957258.6565,1,1,3.0000,0.0000,1.42239,-0.01231,-2.63335,1.07496,1.57081,0.11674,-0.12760,-0.48156,0.03300,,,,,,,,,,,,,,,,,,,,,,,,,,0,0,0,0,0
5.5890,1783957258.6569,1,1,3.0000,0.0000,1.42239,-0.01231,-2.63335,1.07496,1.57081,0.11674,-0.12760,-0.48156,0.03300,,,,,,,,,,,,,,,,,,,,,,,,,,0,0,0,0,0
5.5974,1783957258.6653,1,1,3.0000,0.0000,1.42239,-0.01231,-2.63335,1.07496,1.57081,0.11674,-0.12760,-0.48156,0.03300,,,,,,,,,,,,,,,,,,,,,,,,,,0,0,0,0,0
5.6054,1783957258.6733,1,1,3.0000,0.0000,1.42239,-0.01231,-2.63335,1.07496,1.57081,0.11674,-0.12760,-0.48156,0.03300,,,,,,,,,,,,,,,,,,,,,,,,,,0,0,0,0,0
5.6057,1783957258.6736,1,1,3.0000,0.0000,1.42239,-0.01231,-2.63335,1.07496,1.57081,0.11674,-0.12760,-0.48156,0.03300,,,,,,,,,,,,,,,,,,,,,,,,,,0,0,0,0,0
5.6157,1783957258.6836,1,1,3.0000,0.0000,1.42239,-0.01231,-2.63335,1.07496,1.57081,0.11674,-0.12760,-0.48156,0.03300,,,,,,,,,,,,,,,,,,,,,,,,,,0,0,0,0,0
5.6288,1783957258.6967,1,1,3.0000,0.0000,1.42239,-0.01231,-2.63335,1.07496,1.57081,0.11674,-0.12760,-0.48156,0.03300,,,,,,,,,,,,,,,,,,,,,,,,,,0,0,0,0,0
5.6369,1783957258.7048,1,1,3.0000,0.0000,1.42239,-0.01231,-2.63335,1.07496,1.57081,0.11674,-0.12760,-0.48156,0.03300,,,,,,,,,,,,,,,,,,,,,,,,,,0,0,0,0,0
5.6371,1783957258.7050,1,1,3.0000,0.0000,1.42239,-0.01231,-2.63335,1.07496,1.57081,0.11674,-0.12760,-0.48156,0.03300,,,,,,,,,,,,,,,,,,,,,,,,,,0,0,0,0,0
5.6490,1783957258.7169,1,1,3.0000,0.0000,1.42239,-0.01231,-2.63335,1.07496,1.57081,0.11674,-0.12760,-0.48156,0.03300,,,,,,,,,,,,,,,,,,,,,,,,,,0,0,0,0,0
5.6614,1783957258.7293,1,1,3.0000,0.0000,1.42239,-0.01231,-2.63335,1.07496,1.57081,0.11674,-0.12760,-0.48156,0.03300,,,,,,,,,,,,,,,,,,,,,,,,,,0,0,0,0,0
5.6677,1783957258.7356,1,1,3.0000,0.0000,1.42239,-0.01231,-2.63335,1.07496,1.57081,0.11674,-0.12760,-0.48156,0.03300,,,,,,,,,,,,,,,,,,,,,,,,,,0,0,0,0,0
5.6759,1783957258.7438,1,1,3.0000,0.0000,1.42239,-0.01231,-2.63335,1.07496,1.57081,0.11674,-0.12760,-0.48156,0.03300,,,,,,,,,,,,,,,,,,,,,,,,,,0,0,0,0,0
5.6908,1783957258.7587,1,1,3.0000,0.0000,1.42239,-0.01231,-2.63336,1.07496,1.57081,0.11674,-0.12760,-0.48156,0.03300,,,,,,,,,,,,,,,,,,,,,,,,,,0,0,0,0,0
5.6969,1783957258.7648,1,1,3.0000,0.0000,1.42239,-0.01232,-2.63337,1.07498,1.57081,0.11674,-0.12760,-0.48155,0.03299,,,,,,,,,,,,,,,,,,,,,,,,,,0,0,0,0,0
5.6973,1783957258.7652,1,1,3.0000,0.0000,1.42239,-0.01232,-2.63337,1.07498,1.57081,0.11674,-0.12760,-0.48155,0.03299,,,,,,,,,,,,,,,,,,,,,,,,,,0,0,0,0,0
5.7067,1783957258.7746,1,1,3.0000,0.0000,1.42239,-0.01234,-2.63340,1.07500,1.57081,0.11674,-0.12761,-0.48154,0.03297,,,,,,,,,,,,,,,,,,,,,,,,,,0,0,0,0,0
5.7072,1783957258.7752,1,1,3.0000,0.0000,1.42239,-0.01234,-2.63340,1.07500,1.57081,0.11674,-0.12761,-0.48154,0.03297,,,,,,,,,,,,,,,,,,,,,,,,,,0,0,0,0,0
5.7157,1783957258.7836,1,1,3.0000,0.0000,1.42239,-0.01237,-2.63343,1.07504,1.57081,0.11674,-0.12761,-0.48152,0.03295,,,,,,,,,,,,,,,,,,,,,,,,,,0,0,0,0,0
5.7161,1783957258.7840,1,1,3.0000,0.0000,1.42239,-0.01237,-2.63343,1.07504,1.57081,0.11674,-0.12761,-0.48152,0.03295,,,,,,,,,,,,,,,,,,,,,,,,,,0,0,0,0,0
5.7267,1783957258.7946,1,1,3.0000,0.0000,1.42239,-0.01239,-2.63344,1.07505,1.57081,0.11674,-0.12761,-0.48151,0.03294,,,,,,,,,,,,,,,,,,,,,,,,,,0,0,0,0,0
5.7380,1783957258.8059,1,1,3.0000,0.0000,1.42239,-0.01244,-2.63348,1.07512,1.57081,0.11674,-0.12761,-0.48149,0.03291,,,,,,,,,,,,,,,,,,,,,,,,,,0,0,0,0,0
5.7384,1783957258.8063,1,1,3.0000,0.0000,1.42239,-0.01244,-2.63348,1.07512,1.57081,0.11674,-0.12761,-0.48149,0.03291,,,,,,,,,,,,,,,,,,,,,,,,,,0,0,0,0,0
5.7518,1783957258.8197,1,1,3.0000,0.0000,1.42239,-0.01248,-2.63350,1.07517,1.57081,0.11674,-0.12761,-0.48148,0.03289,,,,,,,,,,,,,,,,,,,,,,,,,,0,0,0,0,0
5.7578,1783957258.8258,1,1,3.0000,0.0000,1.42239,-0.01251,-2.63351,1.07520,1.57081,0.11674,-0.12761,-0.48148,0.03288,,,,,,,,,,,,,,,,,,,,,,,,,,0,0,0,0,0
5.7582,1783957258.8261,1,1,3.0000,0.0000,1.42239,-0.01251,-2.63351,1.07520,1.57081,0.11674,-0.12761,-0.48148,0.03288,,,,,,,,,,,,,,,,,,,,,,,,,,0,0,0,0,0
5.7683,1783957258.8362,1,1,3.0000,0.0000,1.42239,-0.01262,-2.63355,1.07534,1.57081,0.11674,-0.12761,-0.48147,0.03284,,,,,,,,,,,,,,,,,,,,,,,,,,0,0,0,0,0
