Martins-Lucaas/twinforge/sensors/Data/20260704_142606__samples.csv
t_rel_s,t_unix,cycle,phase,setpoint_n,force_net_n,q1,q2,q3,q4,q5,q6,tcp_x,tcp_y,tcp_z,taxel_0,taxel_1,taxel_2,taxel_3,taxel_4,taxel_5,taxel_6,taxel_7,taxel_8,taxel_9,taxel_10,taxel_11,taxel_12,taxel_13,taxel_14,taxel_15,taxel_16,taxel_17,taxel_18,taxel_19,taxel_20,taxel_21,taxel_22,taxel_23,taxel_24,n_RA,n_SA,cn_mm,cn_ra,cn_sa
0.0045,1783185966.8074,1,0,1.0000,-0.0000,1.44682,0.23328,-2.77748,0.97337,1.57080,0.00000,-0.14512,-0.38003,0.04653,,,,,,,,,,,,,,,,,,,,,,,,,,0,0,0,0,0
0.0085,1783185966.8114,1,0,1.0000,-0.0000,1.44682,0.23328,-2.77748,0.97337,1.57080,0.00000,-0.14512,-0.38003,0.04653,,,,,,,,,,,,,,,,,,,,,,,,,,0,0,0,0,0
0.0088,1783185966.8117,1,0,1.0000,-0.0000,1.44682,0.23328,-2.77748,0.97337,1.57080,0.00000,-0.14512,-0.38003,0.04653,,,,,,,,,,,,,,,,,,,,,,,,,,0,0,0,0,0
0.0191,1783185966.8220,1,0,1.0000,-0.0000,1.44682,0.23328,-2.77748,0.97337,1.57080,0.00000,-0.14512,-0.38003,0.04653,,,,,,,,,,,,,,,,,,,,,,,,,,0,0,0,0,0
0.0351,1783185966.8380,1,0,1.0000,-0.0000,1.44682,0.23328,-2.77748,0.97337,1.57080,0.00000,-0.14512,-0.38003,0.04653,,,,,,,,,,,,,,,,,,,,,,,,,,0,0,0,0,0
0.0387,1783185966.8416,1,0,1.0000,-0.0000,1.44682,0.23328,-2.77748,0.97337,1.57080,-0.00000,-0.14512,-0.38003,0.04653,,,,,,,,,,,,,,,,,,,,,,,,,,0,0,0,0,0
0.0390,1783185966.8419,1,0,1.0000,-0.0000,1.44682,0.23328,-2.77748,0.97337,1.57080,-0.00000,-0.14512,-0.38003,0.04653,,,,,,,,,,,,,,,,,,,,,,,,,,0,0,0,0,0
0.0488,1783185966.8517,1,0,1.0000,-0.0000,1.44682,0.23328,-2.77748,0.97337,1.57080,-0.00000,-0.14512,-0.38003,0.04653,,,,,,,,,,,,,,,,,,,,,,,,,,0,0,0,0,0
0.0490,1783185966.8519,1,0,1.0000,-0.0000,1.44682,0.23328,-2.77748,0.97337,1.57080,-0.00000,-0.14512,-0.38003,0.04653,,,,,,,,,,,,,,,,,,,,,,,,,,0,0,0,0,0
0.0608,1783185966.8637,1,0,1.0000,-0.0000,1.44682,0.23328,-2.77748,0.97337,1.57080,-0.00000,-0.14512,-0.38003,0.04653,,,,,,,,,,,,,,,,,,,,,,,,,,0,0,0,0,0
0.0693,1783185966.8722,1,0,1.0000,-0.0000,1.44682,0.23328,-2.77748,0.97337,1.57080,-0.00000,-0.14512,-0.38003,0.04653,,,,,,,,,,,,,,,,,,,,,,,,,,0,0,0,0,0
0.0697,1783185966.8726,1,0,1.0000,-0.0000,1.44682,0.23328,-2.77748,0.97337,1.57080,-0.00000,-0.14512,-0.38003,0.04653,,,,,,,,,,,,,,,,,,,,,,,,,,0,0,0,0,0
0.0820,1783185966.8849,1,0,1.0000,-0.0000,1.44682,0.23328,-2.77748,0.97337,1.57080,-0.00000,-0.14512,-0.38003,0.04653,,,,,,,,,,,,,,,,,,,,,,,,,,0,0,0,0,0
0.0889,1783185966.8918,1,0,1.0000,-0.0000,1.44682,0.23328,-2.77748,0.97337,1.57080,-0.00000,-0.14512,-0.38003,0.04653,,,,,,,,,,,,,,,,,,,,,,,,,,0,0,0,0,0
0.0996,1783185966.9025,1,0,1.0000,-0.0000,1.44682,0.23328,-2.77748,0.97337,1.57080,-0.00000,-0.14512,-0.38003,0.04653,,,,,,,,,,,,,,,,,,,,,,,,,,0,0,0,0,0
0.1099,1783185966.9127,1,0,1.0000,-0.0000,1.44682,0.23328,-2.77748,0.97337,1.57080,-0.00000,-0.14512,-0.38003,0.04653,,,,,,,,,,,,,,,,,,,,,,,,,,0,0,0,0,0
0.1102,1783185966.9131,1,0,1.0000,-0.0000,1.44682,0.23328,-2.77748,0.97337,1.57080,-0.00000,-0.14512,-0.38003,0.04653,,,,,,,,,,,,,,,,,,,,,,,,,,0,0,0,0,0
0.1203,1783185966.9232,1,0,1.0000,-0.0000,1.44682,0.23328,-2.77748,0.97337,1.57080,0.00000,-0.14512,-0.38003,0.04653,,,,,,,,,,,,,,,,,,,,,,,,,,0,0,0,0,0
0.1310,1783185966.9339,1,0,1.0000,-0.0000,1.44682,0.23328,-2.77748,0.97337,1.57080,-0.00000,-0.14512,-0.38003,0.04653,,,,,,,,,,,,,,,,,,,,,,,,,,0,0,0,0,0
0.1404,1783185966.9433,1,0,1.0000,-0.0000,1.44682,0.23328,-2.77748,0.97337,1.57080,0.00000,-0.14512,-0.38003,0.04653,,,,,,,,,,,,,,,,,,,,,,,,,,0,0,0,0,0
0.1520,1783185966.9549,1,0,1.0000,-0.0000,1.44682,0.23328,-2.77748,0.97337,1.57080,0.00000,-0.14512,-0.38003,0.04653,,,,,,,,,,,,,,,,,,,,,,,,,,0,0,0,0,0
0.1631,1783185966.9660,1,0,1.0000,-0.0000,1.44682,0.23328,-2.77748,0.97337,1.57080,0.00000,-0.14512,-0.38003,0.04653,,,,,,,,,,,,,,,,,,,,,,,,,,0,0,0,0,0
0.1736,1783185966.9765,1,0,1.0000,-0.0000,1.44682,0.23328,-2.77748,0.97337,1.57080,0.00000,-0.14512,-0.38003,0.04653,,,,,,,,,,,,,,,,,,,,,,,,,,0,0,0,0,0
0.1865,1783185966.9894,1,0,1.0000,-0.0000,1.44682,0.23328,-2.77748,0.97337,1.57080,0.00000,-0.14512,-0.38003,0.04653,,,,,,,,,,,,,,,,,,,,,,,,,,0,0,0,0,0
0.1912,1783185966.9941,1,0,1.0000,-0.0000,1.44682,0.23328,-2.77748,0.97337,1.57080,0.00000,-0.14512,-0.38003,0.04653,,,,,,,,,,,,,,,,,,,,,,,,,,0,0,0,0,0
0.1988,1783185967.0017,1,0,1.0000,-0.0000,1.44682,0.23328,-2.77748,0.97337,1.57080,-0.00000,-0.14512,-0.38003,0.04653,,,,,,,,,,,,,,,,,,,,,,,,,,0,0,0,0,0
0.2086,1783185967.0115,1,0,1.0000,-0.0000,1.44682,0.23328,-2.77748,0.97337,1.57080,-0.00000,-0.14512,-0.38003,0.04653,,,,,,,,,,,,,,,,,,,,,,,,,,0,0,0,0,0
0.2351,1783185967.0380,1,0,1.0000,-0.0000,1.44682,0.23328,-2.77748,0.97337,1.57080,-0.00000,-0.14512,-0.38003,0.04653,,,,,,,,,,,,,,,,,,,,,,,,,,0,0,0,0,0
0.2355,1783185967.0384,1,0,1.0000,-0.0000,1.44682,0.23328,-2.77748,0.97337,1.57080,-0.00000,-0.14512,-0.38003,0.04653,,,,,,,,,,,,,,,,,,,,,,,,,,0,0,0,0,0
0.2427,1783185967.0456,1,0,1.0000,-0.0000,1.44682,0.23328,-2.77748,0.97337,1.57080,-0.00000,-0.14512,-0.38003,0.04653,,,,,,,,,,,,,,,,,,,,,,,,,,0,0,0,0,0
0.2430,1783185967.0459,1,0,1.0000,-0.0000,1.44682,0.23328,-2.77748,0.97337,1.57080,-0.00000,-0.14512,-0.38003,0.04653,,,,,,,,,,,,,,,,,,,,,,,,,,0,0,0,0,0
0.2485,1783185967.0513,1,0,1.0000,-0.0000,1.44682,0.23328,-2.77748,0.97337,1.57080,-0.00000,-0.14512,-0.38003,0.04653,,,,,,,,,,,,,,,,,,,,,,,,,,0,0,0,0,0
0.2653,1783185967.0682,1,0,1.0000,-0.0000,1.44682,0.23328,-2.77748,0.97337,1.57080,-0.00000,-0.14512,-0.38003,0.04653,,,,,,,,,,,,,,,,,,,,,,,,,,0,0,0,0,0
0.2709,1783185967.0738,1,0,1.0000,-0.0000,1.44682,0.23328,-2.77748,0.97337,1.57080,-0.00000,-0.14512,-0.38003,0.04653,,,,,,,,,,,,,,,,,,,,,,,,,,0,0,0,0,0
0.2713,1783185967.0742,1,0,1.0000,-0.0000,1.44682,0.23328,-2.77748,0.97337,1.57080,-0.00000,-0.14512,-0.38003,0.04653,,,,,,,,,,,,,,,,,,,,,,,,,,0,0,0,0,0
0.2794,1783185967.0823,1,0,1.0000,-0.0000,1.44682,0.23328,-2.77748,0.97337,1.57080,-0.00000,-0.14512,-0.38003,0.04653,,,,,,,,,,,,,,,,,,,,,,,,,,0,0,0,0,0
0.2801,1783185967.0830,1,0,1.0000,-0.0000,1.44682,0.23328,-2.77748,0.97337,1.57080,-0.00000,-0.14512,-0.38003,0.04653,,,,,,,,,,,,,,,,,,,,,,,,,,0,0,0,0,0
0.2891,1783185967.0920,1,0,1.0000,-0.0000,1.44682,0.23328,-2.77748,0.97337,1.57080,-0.00000,-0.14512,-0.38003,0.04653,,,,,,,,,,,,,,,,,,,,,,,,,,0,0,0,0,0
0.3070,1783185967.1099,1,0,1.0000,-0.0000,1.44682,0.23328,-2.77748,0.97337,1.57080,-0.00000,-0.14512,-0.38003,0.04653,,,,,,,,,,,,,,,,,,,,,,,,,,0,0,0,0,0
0.3136,1783185967.1165,1,0,1.0000,-0.0000,1.44682,0.23328,-2.77748,0.97337,1.57080,-0.00000,-0.14512,-0.38003,0.04653,,,,,,,,,,,,,,,,,,,,,,,,,,0,0,0,0,0
0.3253,1783185967.1282,1,0,1.0000,-0.0000,1.44682,0.23328,-2.77748,0.97337,1.57080,-0.00000,-0.14512,-0.38003,0.04653,,,,,,,,,,,,,,,,,,,,,,,,,,0,0,0,0,0
0.3286,1783185967.1315,1,0,1.0000,-0.0000,1.44682,0.23328,-2.77748,0.97337,1.57080,-0.00000,-0.14512,-0.38003,0.04653,,,,,,,,,,,,,,,,,,,,,,,,,,0,0,0,0,0
0.3405,1783185967.1434,1,0,1.0000,-0.0000,1.44682,0.23328,-2.77748,0.97337,1.57080,-0.00000,-0.14512,-0.38003,0.04653,,,,,,,,,,,,,,,,,,,,,,,,,,0,0,0,0,0
0.3408,1783185967.1437,1,0,1.0000,-0.0000,1.44682,0.23328,-2.77748,0.97337,1.57080,-0.00000,-0.14512,-0.38003,0.04653,,,,,,,,,,,,,,,,,,,,,,,,,,0,0,0,0,0
0.3522,1783185967.1551,1,0,1.0000,-0.0000,1.44682,0.23328,-2.77748,0.97337,1.57080,-0.00000,-0.14512,-0.38003,0.04653,,,,,,,,,,,,,,,,,,,,,,,,,,0,0,0,0,0
0.3527,1783185967.1556,1,0,1.0000,-0.0000,1.44682,0.23328,-2.77748,0.97337,1.57080,-0.00000,-0.14512,-0.38003,0.04653,,,,,,,,,,,,,,,,,,,,,,,,,,0,0,0,0,0
0.3609,1783185967.1638,1,0,1.0000,-0.0000,1.44682,0.23328,-2.77748,0.97337,1.57080,-0.00000,-0.14512,-0.38003,0.04653,,,,,,,,,,,,,,,,,,,,,,,,,,0,0,0,0,0
0.3707,1783185967.1736,1,0,1.0000,-0.0000,1.44682,0.23328,-2.77748,0.97337,1.57080,-0.00000,-0.14512,-0.38003,0.04653,,,,,,,,,,,,,,,,,,,,,,,,,,0,0,0,0,0
0.3830,1783185967.1859,1,0,1.0000,-0.0000,1.44682,0.23328,-2.77748,0.97337,1.57080,-0.00000,-0.14512,-0.38003,0.04653,,,,,,,,,,,,,,,,,,,,,,,,,,0,0,0,0,0
0.3834,1783185967.1863,1,0,1.0000,-0.0000,1.44682,0.23328,-2.77748,0.97337,1.57080,-0.00000,-0.14512,-0.38003,0.04653,,,,,,,,,,,,,,,,,,,,,,,,,,0,0,0,0,0
0.3897,1783185967.1926,1,0,1.0000,-0.0000,1.44682,0.23328,-2.77748,0.97337,1.57080,-0.00000,-0.14512,-0.38003,0.04653,,,,,,,,,,,,,,,,,,,,,,,,,,0,0,0,0,0
0.4010,1783185967.2039,1,0,1.0000,-0.0000,1.44682,0.23328,-2.77748,0.97337,1.57080,-0.00000,-0.14512,-0.38003,0.04653,,,,,,,,,,,,,,,,,,,,,,,,,,0,0,0,0,0
0.4014,1783185967.2043,1,0,1.0000,-0.0000,1.44682,0.23328,-2.77748,0.97337,1.57080,-0.00000,-0.14512,-0.38003,0.04653,,,,,,,,,,,,,,,,,,,,,,,,,,0,0,0,0,0
0.4120,1783185967.2149,1,0,1.0000,-0.0000,1.44682,0.23328,-2.77748,0.97337,1.57080,-0.00000,-0.14512,-0.38003,0.04653,,,,,,,,,,,,,,,,,,,,,,,,,,0,0,0,0,0
0.4123,1783185967.2152,1,0,1.0000,-0.0000,1.44682,0.23328,-2.77748,0.97337,1.57080,-0.00000,-0.14512,-0.38003,0.04653,,,,,,,,,,,,,,,,,,,,,,,,,,0,0,0,0,0
0.4209,1783185967.2238,1,0,1.0000,-0.0000,1.44682,0.23328,-2.77748,0.97337,1.57080,-0.00000,-0.14512,-0.38003,0.04653,,,,,,,,,,,,,,,,,,,,,,,,,,0,0,0,0,0
0.4213,1783185967.2242,1,0,1.0000,-0.0000,1.44682,0.23328,-2.77748,0.97337,1.57080,-0.00000,-0.14512,-0.38003,0.04653,,,,,,,,,,,,,,,,,,,,,,,,,,0,0,0,0,0
0.4301,1783185967.2330,1,0,1.0000,-0.0000,1.44682,0.23328,-2.77748,0.97337,1.57080,-0.00000,-0.14512,-0.38003,0.04653,,,,,,,,,,,,,,,,,,,,,,,,,,0,0,0,0,0
0.4404,1783185967.2433,1,0,1.0000,-0.0000,1.44682,0.23328,-2.77748,0.97337,1.57080,-0.00000,-0.14512,-0.38003,0.04653,,,,,,,,,,,,,,,,,,,,,,,,,,0,0,0,0,0
0.4491,1783185967.2520,1,0,1.0000,-0.0000,1.44682,0.23328,-2.77748,0.97337,1.57080,-0.00000,-0.14512,-0.38003,0.04653,,,,,,,,,,,,,,,,,,,,,,,,,,0,0,0,0,0
0.4586,1783185967.2615,1,0,1.0000,-0.0000,1.44682,0.23328,-2.77748,0.97337,1.57080,-0.00000,-0.14512,-0.38003,0.04653,,,,,,,,,,,,,,,,,,,,,,,,,,0,0,0,0,0
0.4711,1783185967.2740,1,0,1.0000,-0.0000,1.44682,0.23328,-2.77748,0.97337,1.57080,-0.00000,-0.14512,-0.38003,0.04653,,,,,,,,,,,,,,,,,,,,,,,,,,0,0,0,0,0
0.4714,1783185967.2743,1,0,1.0000,-0.0000,1.44682,0.23328,-2.77748,0.97337,1.57080,-0.00000,-0.14512,-0.38003,0.04653,,,,,,,,,,,,,,,,,,,,,,,,,,0,0,0,0,0
0.4816,1783185967.2845,1,0,1.0000,-0.0000,1.44682,0.23328,-2.77748,0.97337,1.57080,-0.00000,-0.14512,-0.38003,0.04653,,,,,,,,,,,,,,,,,,,,,,,,,,0,0,0,0,0
0.4924,1783185967.2953,1,0,1.0000,-0.0000,1.44682,0.23328,-2.77748,0.97337,1.57080,-0.00000,-0.14512,-0.38003,0.04653,,,,,,,,,,,,,,,,,,,,,,,,,,0,0,0,0,0
0.4984,1783185967.3013,1,0,1.0000,-0.0000,1.44682,0.23328,-2.77748,0.97337,1.57080,-0.00000,-0.14512,-0.38003,0.04653,,,,,,,,,,,,,,,,,,,,,,,,,,0,0,0,0,0
0.4988,1783185967.3016,1,0,1.0000,-0.0000,1.44682,0.23328,-2.77748,0.97337,1.57080,-0.00000,-0.14512,-0.38003,0.04653,,,,,,,,,,,,,,,,,,,,,,,,,,0,0,0,0,0
0.5162,1783185967.3191,1,0,1.0000,-0.0000,1.44682,0.23328,-2.77748,0.97337,1.57080,-0.00000,-0.14512,-0.38003,0.04653,,,,,,,,,,,,,,,,,,,,,,,,,,0,0,0,0,0
0.5203,1783185967.3232,1,0,1.0000,-0.0000,1.44682,0.23328,-2.77748,0.97337,1.57080,-0.00000,-0.14512,-0.38003,0.04653,,,,,,,,,,,,,,,,,,,,,,,,,,0,0,0,0,0
0.5206,1783185967.3235,1,0,1.0000,-0.0000,1.44682,0.23328,-2.77748,0.97337,1.57080,-0.00000,-0.14512,-0.38003,0.04653,,,,,,,,,,,,,,,,,,,,,,,,,,0,0,0,0,0
0.5301,1783185967.3330,1,0,1.0000,-0.0000,1.44682,0.23328,-2.77748,0.97337,1.57080,-0.00000,-0.14512,-0.38003,0.04653,,,,,,,,,,,,,,,,,,,,,,,,,,0,0,0,0,0
0.5403,1783185967.3431,1,0,1.0000,-0.0000,1.44682,0.23328,-2.77748,0.97337,1.57080,0.00000,-0.14512,-0.38003,0.04653,,,,,,,,,,,,,,,,,,,,,,,,,,0,0,0,0,0
0.5514,1783185967.3543,1,0,1.0000,-0.0000,1.44682,0.23328,-2.77748,0.97337,1.57080,0.00000,-0.14512,-0.38003,0.04653,,,,,,,,,,,,,,,,,,,,,,,,,,0,0,0,0,0
0.5643,1783185967.3672,1,0,1.0000,-0.0000,1.44682,0.23328,-2.77748,0.97337,1.57080,0.00000,-0.14512,-0.38003,0.04653,,,,,,,,,,,,,,,,,,,,,,,,,,0,0,0,0,0
0.5755,1783185967.3784,1,0,1.0000,-0.0000,1.44682,0.23328,-2.77748,0.97337,1.57080,0.00000,-0.14512,-0.38003,0.04653,,,,,,,,,,,,,,,,,,,,,,,,,,0,0,0,0,0
0.5831,1783185967.3860,1,0,1.0000,-0.0000,1.44682,0.23328,-2.77748,0.97337,1.57080,0.00000,-0.14512,-0.38003,0.04653,,,,,,,,,,,,,,,,,,,,,,,,,,0,0,0,0,0
0.5956,1783185967.3985,1,0,1.0000,-0.0000,1.44682,0.23328,-2.77748,0.97337,1.57080,0.00000,-0.14512,-0.38003,0.04653,,,,,,,,,,,,,,,,,,,,,,,,,,0,0,0,0,0
0.5995,1783185967.4024,1,0,1.0000,-0.0000,1.44682,0.23328,-2.77748,0.97337,1.57080,0.00000,-0.14512,-0.38003,0.04653,,,,,,,,,,,,,,,,,,,,,,,,,,0,0,0,0,0
0.6099,1783185967.4128,1,0,1.0000,-0.0000,1.44682,0.23328,-2.77748,0.97337,1.57080,0.00000,-0.14512,-0.38003,0.04653,,,,,,,,,,,,,,,,,,,,,,,,,,0,0,0,0,0
0.6265,1783185967.4294,1,0,1.0000,-0.0000,1.44682,0.23328,-2.77748,0.97337,1.57080,0.00000,-0.14512,-0.38003,0.04653,,,,,,,,,,,,,,,,,,,,,,,,,,0,0,0,0,0
0.6442,1783185967.4471,1,0,1.0000,-0.0000,1.44682,0.23328,-2.77748,0.97337,1.57080,0.00000,-0.14512,-0.38003,0.04653,,,,,,,,,,,,,,,,,,,,,,,,,,0,0,0,0,0
0.6446,1783185967.4475,1,0,1.0000,-0.0000,1.44682,0.23328,-2.77748,0.97337,1.57080,0.00000,-0.14512,-0.38003,0.04653,,,,,,,,,,,,,,,,,,,,,,,,,,0,0,0,0,0
0.6492,1783185967.4521,1,0,1.0000,-0.0000,1.44682,0.23328,-2.77748,0.97337,1.57080,0.00000,-0.14512,-0.38003,0.04653,,,,,,,,,,,,,,,,,,,,,,,,,,0,0,0,0,0
0.6495,1783185967.4524,1,0,1.0000,-0.0000,1.44682,0.23328,-2.77748,0.97337,1.57080,0.00000,-0.14512,-0.38003,0.04653,,,,,,,,,,,,,,,,,,,,,,,,,,0,0,0,0,0
0.6608,1783185967.4637,1,0,1.0000,-0.0000,1.44682,0.23328,-2.77748,0.97337,1.57080,0.00000,-0.14512,-0.38003,0.04653,,,,,,,,,,,,,,,,,,,,,,,,,,0,0,0,0,0
0.6702,1783185967.4730,1,0,1.0000,-0.0000,1.44682,0.23328,-2.77748,0.97337,1.57080,0.00000,-0.14512,-0.38003,0.04653,,,,,,,,,,,,,,,,,,,,,,,,,,0,0,0,0,0
0.6795,1783185967.4824,1,0,1.0000,-0.0000,1.44682,0.23328,-2.77748,0.97337,1.57080,0.00000,-0.14512,-0.38003,0.04653,,,,,,,,,,,,,,,,,,,,,,,,,,0,0,0,0,0
0.6888,1783185967.4917,1,0,1.0000,-0.0000,1.44682,0.23328,-2.77748,0.97337,1.57080,0.00000,-0.14512,-0.38003,0.04653,,,,,,,,,,,,,,,,,,,,,,,,,,0,0,0,0,0
0.7029,1783185967.5058,1,0,1.0000,-0.0000,1.44682,0.23328,-2.77748,0.97337,1.57080,0.00000,-0.14512,-0.38003,0.04653,,,,,,,,,,,,,,,,,,,,,,,,,,0,0,0,0,0
0.7095,1783185967.5124,1,0,1.0000,-0.0000,1.44682,0.23328,-2.77748,0.97337,1.57080,0.00000,-0.14512,-0.38003,0.04653,,,,,,,,,,,,,,,,,,,,,,,,,,0,0,0,0,0
0.7211,1783185967.5239,1,0,1.0000,-0.0000,1.44682,0.23328,-2.77748,0.97337,1.57080,0.00000,-0.14512,-0.38003,0.04653,,,,,,,,,,,,,,,,,,,,,,,,,,0,0,0,0,0
0.7289,1783185967.5318,1,0,1.0000,-0.0000,1.44682,0.23328,-2.77748,0.97337,1.57080,0.00000,-0.14512,-0.38003,0.04653,,,,,,,,,,,,,,,,,,,,,,,,,,0,0,0,0,0
0.7430,1783185967.5459,1,1,1.0000,-0.0000,1.44682,0.23328,-2.77748,0.97337,1.57080,0.00000,-0.14512,-0.38003,0.04653,,,,,,,,,,,,,,,,,,,,,,,,,,0,0,0,0,0
0.7492,1783185967.5521,1,1,1.0000,-0.0000,1.44682,0.23328,-2.77748,0.97337,1.57080,0.00000,-0.14512,-0.38003,0.04653,,,,,,,,,,,,,,,,,,,,,,,,,,0,0,0,0,0
0.7495,1783185967.5524,1,1,1.0000,-0.0000,1.44682,0.23328,-2.77748,0.97337,1.57080,0.00000,-0.14512,-0.38003,0.04653,,,,,,,,,,,,,,,,,,,,,,,,,,0,0,0,0,0
0.7585,1783185967.5614,1,1,1.0000,-0.0000,1.44682,0.23328,-2.77748,0.97337,1.57080,0.00000,-0.14512,-0.38003,0.04653,,,,,,,,,,,,,,,,,,,,,,,,,,0,0,0,0,0
0.7590,1783185967.5618,1,1,1.0000,-0.0000,1.44682,0.23328,-2.77748,0.97337,1.57080,0.00000,-0.14512,-0.38003,0.04653,,,,,,,,,,,,,,,,,,,,,,,,,,0,0,0,0,0
0.7694,1783185967.5723,1,1,1.0000,-0.0000,1.44682,0.23328,-2.77748,0.97337,1.57080,0.00000,-0.14512,-0.38003,0.04653,,,,,,,,,,,,,,,,,,,,,,,,,,0,0,0,0,0
0.7855,1783185967.5884,1,1,1.0000,-0.0000,1.44682,0.23328,-2.77748,0.97337,1.57080,0.00000,-0.14512,-0.38003,0.04653,,,,,,,,,,,,,,,,,,,,,,,,,,0,0,0,0,0
0.7859,1783185967.5888,1,1,1.0000,-0.0000,1.44682,0.23328,-2.77748,0.97337,1.57080,0.00000,-0.14512,-0.38003,0.04653,,,,,,,,,,,,,,,,,,,,,,,,,,0,0,0,0,0
0.7908,1783185967.5937,1,1,1.0000,-0.0000,1.44682,0.23328,-2.77748,0.97337,1.57080,0.00000,-0.14512,-0.38003,0.04653,,,,,,,,,,,,,,,,,,,,,,,,,,0,0,0,0,0
0.7912,1783185967.5941,1,1,1.0000,-0.0000,1.44682,0.23328,-2.77748,0.97337,1.57080,0.00000,-0.14512,-0.38003,0.04653,,,,,,,,,,,,,,,,,,,,,,,,,,0,0,0,0,0
0.7992,1783185967.6021,1,1,1.0000,-0.0000,1.44682,0.23328,-2.77748,0.97337,1.57080,0.00000,-0.14512,-0.38003,0.04653,,,,,,,,,,,,,,,,,,,,,,,,,,0,0,0,0,0
0.7996,1783185967.6025,1,1,1.0000,-0.0000,1.44682,0.23328,-2.77748,0.97337,1.57080,0.00000,-0.14512,-0.38003,0.04653,,,,,,,,,,,,,,,,,,,,,,,,,,0,0,0,0,0
0.8089,1783185967.6118,1,1,1.0000,-0.0000,1.44682,0.23328,-2.77748,0.97337,1.57080,0.00000,-0.14512,-0.38003,0.04653,,,,,,,,,,,,,,,,,,,,,,,,,,0,0,0,0,0
0.8186,1783185967.6215,1,1,1.0000,-0.0000,1.44682,0.23328,-2.77748,0.97337,1.57080,0.00000,-0.14512,-0.38003,0.04653,,,,,,,,,,,,,,,,,,,,,,,,,,0,0,0,0,0
0.8299,1783185967.6328,1,1,1.0000,-0.0000,1.44682,0.23328,-2.77748,0.97337,1.57080,0.00000,-0.14512,-0.38003,0.04653,,,,,,,,,,,,,,,,,,,,,,,,,,0,0,0,0,0
0.8301,1783185967.6330,1,1,1.0000,-0.0000,1.44682,0.23328,-2.77748,0.97337,1.57080,0.00000,-0.14512,-0.38003,0.04653,,,,,,,,,,,,,,,,,,,,,,,,,,0,0,0,0,0
0.8509,1783185967.6538,1,1,1.0000,-0.0000,1.44682,0.23328,-2.77748,0.97337,1.57080,0.00000,-0.14512,-0.38003,0.04653,,,,,,,,,,,,,,,,,,,,,,,,,,0,0,0,0,0
0.8543,1783185967.6572,1,1,1.0000,-0.0000,1.44682,0.23328,-2.77748,0.97337,1.57080,0.00000,-0.14512,-0.38003,0.04653,,,,,,,,,,,,,,,,,,,,,,,,,,0,0,0,0,0
0.8546,1783185967.6575,1,1,1.0000,-0.0000,1.44682,0.23328,-2.77748,0.97337,1.57080,0.00000,-0.14512,-0.38003,0.04653,,,,,,,,,,,,,,,,,,,,,,,,,,0,0,0,0,0
0.8599,1783185967.6628,1,1,1.0000,-0.0000,1.44682,0.23328,-2.77748,0.97337,1.57080,0.00000,-0.14512,-0.38003,0.04653,,,,,,,,,,,,,,,,,,,,,,,,,,0,0,0,0,0
0.8730,1783185967.6759,1,1,1.0000,-0.0000,1.44682,0.23328,-2.77748,0.97337,1.57080,0.00000,-0.14512,-0.38003,0.04653,,,,,,,,,,,,,,,,,,,,,,,,,,0,0,0,0,0
0.8870,1783185967.6899,1,1,1.0000,-0.0000,1.44682,0.23328,-2.77748,0.97337,1.57080,0.00000,-0.14512,-0.38003,0.04653,,,,,,,,,,,,,,,,,,,,,,,,,,0,0,0,0,0
0.8919,1783185967.6948,1,1,1.0000,-0.0000,1.44682,0.23328,-2.77748,0.97337,1.57080,0.00000,-0.14512,-0.38003,0.04653,,,,,,,,,,,,,,,,,,,,,,,,,,0,0,0,0,0
0.9060,1783185967.7089,1,1,1.0000,-0.0000,1.44682,0.23328,-2.77748,0.97337,1.57080,0.00000,-0.14512,-0.38003,0.04653,,,,,,,,,,,,,,,,,,,,,,,,,,0,0,0,0,0
0.9152,1783185967.7181,1,1,1.0000,-0.0000,1.44682,0.23328,-2.77748,0.97337,1.57080,0.00000,-0.14512,-0.38003,0.04653,,,,,,,,,,,,,,,,,,,,,,,,,,0,0,0,0,0
0.9154,1783185967.7183,1,1,1.0000,-0.0000,1.44682,0.23328,-2.77748,0.97337,1.57080,0.00000,-0.14512,-0.38003,0.04653,,,,,,,,,,,,,,,,,,,,,,,,,,0,0,0,0,0
0.9249,1783185967.7278,1,1,1.0000,-0.0000,1.44682,0.23327,-2.77748,0.97338,1.57080,0.00000,-0.14512,-0.38003,0.04652,,,,,,,,,,,,,,,,,,,,,,,,,,0,0,0,0,0
0.9254,1783185967.7282,1,1,1.0000,-0.0000,1.44682,0.23327,-2.77748,0.97338,1.57080,0.00000,-0.14512,-0.38003,0.04652,,,,,,,,,,,,,,,,,,,,,,,,,,0,0,0,0,0
0.9340,1783185967.7369,1,1,1.0000,-0.0000,1.44682,0.23319,-2.77750,0.97348,1.57080,0.00000,-0.14512,-0.38003,0.04650,,,,,,,,,,,,,,,,,,,,,,,,,,0,0,0,0,0
0.9420,1783185967.7449,1,1,1.0000,-0.0000,1.44682,0.23307,-2.77753,0.97363,1.57080,0.00000,-0.14512,-0.38003,0.04647,,,,,,,,,,,,,,,,,,,,,,,,,,0,0,0,0,0
0.9554,1783185967.7583,1,1,1.0000,-0.0000,1.44682,0.23296,-2.77756,0.97377,1.57080,0.00000,-0.14512,-0.38003,0.04644,,,,,,,,,,,,,,,,,,,,,,,,,,0,0,0,0,0
0.9619,1783185967.7648,1,1,1.0000,-0.0000,1.44682,0.23294,-2.77756,0.97380,1.57080,0.00000,-0.14512,-0.38003,0.04644,,,,,,,,,,,,,,,,,,,,,,,,,,0,0,0,0,0
0.9743,1783185967.7772,1,1,1.0000,-0.0000,1.44682,0.23284,-2.77759,0.97392,1.57080,0.00000,-0.14512,-0.38003,0.04641,,,,,,,,,,,,,,,,,,,,,,,,,,0,0,0,0,0
0.9857,1783185967.7886,1,1,1.0000,-0.0000,1.44682,0.23279,-2.77760,0.97398,1.57080,0.00000,-0.14512,-0.38003,0.04640,,,,,,,,,,,,,,,,,,,,,,,,,,0,0,0,0,0
0.9922,1783185967.7951,1,1,1.0000,-0.0000,1.44682,0.23276,-2.77761,0.97402,1.57080,0.00000,-0.14512,-0.38003,0.04639,,,,,,,,,,,,,,,,,,,,,,,,,,0,0,0,0,0
1.0082,1783185967.8111,1,1,1.0000,-0.0000,1.44682,0.23257,-2.77766,0.97426,1.57080,0.00000,-0.14512,-0.38003,0.04634,,,,,,,,,,,,,,,,,,,,,,,,,,0,0,0,0,0
1.0115,1783185967.8144,1,1,1.0000,-0.0000,1.44682,0.23252,-2.77767,0.97432,1.57080,0.00000,-0.14512,-0.38003,0.04633,,,,,,,,,,,,,,,,,,,,,,,,,,0,0,0,0,0
1.0118,1783185967.8147,1,1,1.0000,-0.0000,1.44682,0.23252,-2.77767,0.97432,1.57080,0.00000,-0.14512,-0.38003,0.04633,,,,,,,,,,,,,,,,,,,,,,,,,,0,0,0,0,0
1.0268,1783185967.8297,1,1,1.0000,-0.0000,1.44682,0.23247,-2.77768,0.97438,1.57080,0.00000,-0.14512,-0.38003,0.04632,,,,,,,,,,,,,,,,,,,,,,,,,,0,0,0,0,0
1.0319,1783185967.8348,1,1,1.0000,-0.0000,1.44682,0.23244,-2.77769,0.97443,1.57080,0.00000,-0.14512,-0.38003,0.04631,,,,,,,,,,,,,,,,,,,,,,,,,,0,0,0,0,0
1.0441,1783185967.8470,1,1,1.0000,-0.0000,1.44682,0.23235,-2.77772,0.97453,1.57080,0.00000,-0.14512,-0.38003,0.04629,,,,,,,,,,,,,,,,,,,,,,,,,,0,0,0,0,0
1.0519,1783185967.8548,1,1,1.0000,-0.0000,1.44682,0.23232,-2.77772,0.97458,1.57080,0.00000,-0.14512,-0.38003,0.04628,,,,,,,,,,,,,,,,,,,,,,,,,,0,0,0,0,0
1.0622,1783185967.8651,1,1,1.0000,-0.0000,1.44682,0.23218,-2.77776,0.97475,1.57080,0.00000,-0.14512,-0.38003,0.04624,,,,,,,,,,,,,,,,,,,,,,,,,,0,0,0,0,0
1.0754,1783185967.8783,1,1,1.0000,-0.0000,1.44682,0.23208,-2.77779,0.97488,1.57080,0.00000,-0.14512,-0.38003,0.04621,,,,,,,,,,,,,,,,,,,,,,,,,,0,0,0,0,0
1.0887,1783185967.8916,1,1,1.0000,-0.0000,1.44682,0.23199,-2.77781,0.97499,1.57080,0.00000,-0.14512,-0.38003,0.04619,,,,,,,,,,,,,,,,,,,,,,,,,,0,0,0,0,0
1.0930,1783185967.8959,1,1,1.0000,-0.0000,1.44682,0.23195,-2.77782,0.97504,1.57080,0.00000,-0.14512,-0.38003,0.04618,,,,,,,,,,,,,,,,,,,,,,,,,,0,0,0,0,0
1.0934,1783185967.8963,1,1,1.0000,-0.0000,1.44682,0.23195,-2.77782,0.97504,1.57080,0.00000,-0.14512,-0.38003,0.04618,,,,,,,,,,,,,,,,,,,,,,,,,,0,0,0,0,0
1.1072,1783185967.9101,1,1,1.0000,-0.0000,1.44682,0.23190,-2.77783,0.97510,1.57080,0.00000,-0.14512,-0.38003,0.04617,,,,,,,,,,,,,,,,,,,,,,,,,,0,0,0,0,0
1.1122,1783185967.9151,1,1,1.0000,-0.0000,1.44682,0.23187,-2.77784,0.97514,1.57080,0.00000,-0.14512,-0.38003,0.04616,,,,,,,,,,,,,,,,,,,,,,,,,,0,0,0,0,0
1.1259,1783185967.9288,1,1,1.0000,-0.0000,1.44682,0.23168,-2.77789,0.97537,1.57080,0.00000,-0.14512,-0.38003,0.04611,,,,,,,,,,,,,,,,,,,,,,,,,,0,0,0,0,0
1.1580,1783185967.9609,1,1,1.0000,-0.0000,1.44682,0.23146,-2.77794,0.97565,1.57080,0.00000,-0.14512,-0.38003,0.04605,,,,,,,,,,,,,,,,,,,,,,,,,,0,0,0,0,0
1.2187,1783185968.0216,1,1,1.0000,-0.0000,1.44682,0.23102,-2.77806,0.97621,1.57080,0.00000,-0.14512,-0.38003,0.04594,,,,,,,,,,,,,,,,,,,,,,,,,,0,0,0,0,0
1.2191,1783185968.0220,1,1,1.0000,-0.0000,1.44682,0.23102,-2.77806,0.97621,1.57080,0.00000,-0.14512,-0.38003,0.04594,,,,,,,,,,,,,,,,,,,,,,,,,,0,0,0,0,0
1.2197,1783185968.0226,1,1,1.0000,-0.0000,1.44682,0.23102,-2.77806,0.97621,1.57080,0.00000,-0.14512,-0.38003,0.04594,,,,,,,,,,,,,,,,,,,,,,,,,,0,0,0,0,0
1.2201,1783185968.0230,1,1,1.0000,-0.0000,1.44682,0.23102,-2.77806,0.97621,1.57080,0.00000,-0.14512,-0.38003,0.04594,,,,,,,,,,,,,,,,,,,,,,,,,,0,0,0,0,0
1.2208,1783185968.0237,1,1,1.0000,-0.0000,1.44682,0.23102,-2.77806,0.97621,1.57080,0.00000,-0.14512,-0.38003,0.04594,,,,,,,,,,,,,,,,,,,,,,,,,,0,0,0,0,0
1.2241,1783185968.0270,1,1,1.0000,-0.0000,1.44682,0.23102,-2.77806,0.97621,1.57080,0.00000,-0.14512,-0.38003,0.04594,,,,,,,,,,,,,,,,,,,,,,,,,,0,0,0,0,0
1.2370,1783185968.0399,1,1,1.0000,-0.0000,1.44682,0.23090,-2.77809,0.97636,1.57080,0.00000,-0.14512,-0.38003,0.04591,,,,,,,,,,,,,,,,,,,,,,,,,,0,0,0,0,0
1.2570,1783185968.0599,1,1,1.0000,-0.0000,1.44682,0.23073,-2.77813,0.97657,1.57080,0.00000,-0.14512,-0.38003,0.04586,,,,,,,,,,,,,,,,,,,,,,,,,,0,0,0,0,0
1.2574,1783185968.0603,1,1,1.0000,-0.0000,1.44682,0.23073,-2.77813,0.97657,1.57080,0.00000,-0.14512,-0.38003,0.04586,,,,,,,,,,,,,,,,,,,,,,,,,,0,0,0,0,0
1.2641,1783185968.0670,1,1,1.0000,-0.0000,1.44682,0.23071,-2.77814,0.97660,1.57080,0.00000,-0.14512,-0.38003,0.04586,,,,,,,,,,,,,,,,,,,,,,,,,,0,0,0,0,0
1.2779,1783185968.0808,1,1,1.0000,-0.0000,1.44682,0.23052,-2.77819,0.97683,1.57080,0.00000,-0.14512,-0.38003,0.04581,,,,,,,,,,,,,,,,,,,,,,,,,,0,0,0,0,0
1.2889,1783185968.0918,1,1,1.0000,-0.0000,1.44682,0.23049,-2.77819,0.97687,1.57080,0.00000,-0.14512,-0.38003,0.04580,,,,,,,,,,,,,,,,,,,,,,,,,,0,0,0,0,0
1.2971,1783185968.1000,1,1,1.0000,-0.0000,1.44682,0.23041,-2.77822,0.97698,1.57080,0.00000,-0.14512,-0.38003,0.04578,,,,,,,,,,,,,,,,,,,,,,,,,,0,0,0,0,0
1.3114,1783185968.1143,1,1,1.0000,-0.0000,1.44682,0.23026,-2.77825,0.97717,1.57080,0.00000,-0.14512,-0.38003,0.04574,,,,,,,,,,,,,,,,,,,,,,,,,,0,0,0,0,0
1.3119,1783185968.1148,1,1,1.0000,-0.0000,1.44682,0.23026,-2.77825,0.97717,1.57080,0.00000,-0.14512,-0.38003,0.04574,,,,,,,,,,,,,,,,,,,,,,,,,,0,0,0,0,0
1.3129,1783185968.1158,1,1,1.0000,-0.0000,1.44682,0.23026,-2.77825,0.97717,1.57080,0.00000,-0.14512,-0.38003,0.04574,,,,,,,,,,,,,,,,,,,,,,,,,,0,0,0,0,0
1.3251,1783185968.1280,1,1,1.0000,-0.0000,1.44682,0.23018,-2.77827,0.97726,1.57080,0.00000,-0.14512,-0.38003,0.04572,,,,,,,,,,,,,,,,,,,,,,,,,,0,0,0,0,0
1.3339,1783185968.1368,1,1,1.0000,-0.0000,1.44682,0.23009,-2.77830,0.97738,1.57080,0.00000,-0.14512,-0.38003,0.04569,,,,,,,,,,,,,,,,,,,,,,,,,,0,0,0,0,0
1.3343,1783185968.1372,1,1,1.0000,-0.0000,1.44682,0.23009,-2.77830,0.97738,1.57080,0.00000,-0.14512,-0.38003,0.04569,,,,,,,,,,,,,,,,,,,,,,,,,,0,0,0,0,0
1.3452,1783185968.1481,1,1,1.0000,-0.0000,1.44682,0.23003,-2.77831,0.97745,1.57080,0.00000,-0.14512,-0.38003,0.04568,,,,,,,,,,,,,,,,,,,,,,,,,,0,0,0,0,0
1.3457,1783185968.1486,1,1,1.0000,-0.0000,1.44682,0.23003,-2.77831,0.97745,1.57080,0.00000,-0.14512,-0.38003,0.04568,,,,,,,,,,,,,,,,,,,,,,,,,,0,0,0,0,0
1.3548,1783185968.1577,1,1,1.0000,-0.0000,1.44682,0.22997,-2.77833,0.97753,1.57080,0.00000,-0.14512,-0.38003,0.04566,,,,,,,,,,,,,,,,,,,,,,,,,,0,0,0,0,0
1.3638,1783185968.1667,1,1,1.0000,-0.0000,1.44682,0.22987,-2.77835,0.97765,1.57080,0.00000,-0.14512,-0.38003,0.04564,,,,,,,,,,,,,,,,,,,,,,,,,,0,0,0,0,0
1.3719,1783185968.1748,1,1,1.0000,-0.0000,1.44682,0.22977,-2.77838,0.97778,1.57080,0.00000,-0.14512,-0.38003,0.04561,,,,,,,,,,,,,,,,,,,,,,,,,,0,0,0,0,0
1.3728,1783185968.1757,1,1,1.0000,-0.0000,1.44682,0.22977,-2.77838,0.97778,1.57080,0.00000,-0.14512,-0.38003,0.04561,,,,,,,,,,,,,,,,,,,,,,,,,,0,0,0,0,0
1.3836,1783185968.1865,1,1,1.0000,-0.0000,1.44682,0.22973,-2.77839,0.97782,1.57080,0.00000,-0.14512,-0.38003,0.04560,,,,,,,,,,,,,,,,,,,,,,,,,,0,0,0,0,0
1.3841,1783185968.1870,1,1,1.0000,-0.0000,1.44682,0.22973,-2.77839,0.97782,1.57080,0.00000,-0.14512,-0.38003,0.04560,,,,,,,,,,,,,,,,,,,,,,,,,,0,0,0,0,0
1.3943,1783185968.1972,1,1,1.0000,-0.0000,1.44682,0.22960,-2.77842,0.97799,1.57080,0.00000,-0.14512,-0.38003,0.04557,,,,,,,,,,,,,,,,,,,,,,,,,,0,0,0,0,0
1.4040,1783185968.2069,1,1,1.0000,-0.0000,1.44682,0.22955,-2.77844,0.97806,1.57080,0.00000,-0.14512,-0.38003,0.04555,,,,,,,,,,,,,,,,,,,,,,,,,,0,0,0,0,0
1.4162,1783185968.2191,1,1,1.0000,-0.0000,1.44682,0.22948,-2.77845,0.97814,1.57080,0.00000,-0.14512,-0.38003,0.04554,,,,,,,,,,,,,,,,,,,,,,,,,,0,0,0,0,0
1.4170,1783185968.2199,1,1,1.0000,-0.0000,1.44682,0.22943,-2.77846,0.97820,1.57080,0.00000,-0.14512,-0.38003,0.04552,,,,,,,,,,,,,,,,,,,,,,,,,,0,0,0,0,0
1.4218,1783185968.2247,1,1,1.0000,-0.0000,1.44682,0.22938,-2.77848,0.97826,1.57080,0.00000,-0.14512,-0.38003,0.04551,,,,,,,,,,,,,,,,,,,,,,,,,,0,0,0,0,0
1.4220,1783185968.2249,1,1,1.0000,-0.0000,1.44682,0.22938,-2.77848,0.97826,1.57080,0.00000,-0.14512,-0.38003,0.04551,,,,,,,,,,,,,,,,,,,,,,,,,,0,0,0,0,0
1.4361,1783185968.2389,1,1,1.0000,-0.0000,1.44682,0.22928,-2.77850,0.97839,1.57080,0.00000,-0.14512,-0.38003,0.04548,,,,,,,,,,,,,,,,,,,,,,,,,,0,0,0,0,0
1.4364,1783185968.2393,1,1,1.0000,-0.0000,1.44682,0.22928,-2.77850,0.97839,1.57080,0.00000,-0.14512,-0.38003,0.04548,,,,,,,,,,,,,,,,,,,,,,,,,,0,0,0,0,0
1.4453,1783185968.2482,1,1,1.0000,-0.0000,1.44682,0.22921,-2.77852,0.97848,1.57080,0.00000,-0.14512,-0.38003,0.04547,,,,,,,,,,,,,,,,,,,,,,,,,,0,0,0,0,0
1.4456,1783185968.2485,1,1,1.0000,-0.0000,1.44682,0.22921,-2.77852,0.97848,1.57080,0.00000,-0.14512,-0.38003,0.04547,,,,,,,,,,,,,,,,,,,,,,,,,,0,0,0,0,0
1.4591,1783185968.2620,1,1,1.0000,-0.0000,1.44682,0.22906,-2.77856,0.97867,1.57080,0.00000,-0.14512,-0.38003,0.04543,,,,,,,,,,,,,,,,,,,,,,,,,,0,0,0,0,0
1.4651,1783185968.2680,1,1,1.0000,-0.0000,1.44682,0.22905,-2.77856,0.97868,1.57080,0.00000,-0.14512,-0.38003,0.04543,,,,,,,,,,,,,,,,,,,,,,,,,,0,0,0,0,0
1.4656,1783185968.2685,1,1,1.0000,-0.0000,1.44682,0.22905,-2.77856,0.97868,1.57080,0.00000,-0.14512,-0.38003,0.04543,,,,,,,,,,,,,,,,,,,,,,,,,,0,0,0,0,0
1.4754,1783185968.2783,1,1,1.0000,-0.0000,1.44682,0.22899,-2.77858,0.97875,1.57080,0.00000,-0.14512,-0.38003,0.04541,,,,,,,,,,,,,,,,,,,,,,,,,,0,0,0,0,0
1.4858,1783185968.2887,1,1,1.0000,-0.0000,1.44682,0.22884,-2.77862,0.97894,1.57080,0.00000,-0.14512,-0.38003,0.04537,,,,,,,,,,,,,,,,,,,,,,,,,,0,0,0,0,0
1.4862,1783185968.2891,1,1,1.0000,-0.0000,1.44682,0.22884,-2.77862,0.97894,1.57080,0.00000,-0.14512,-0.38003,0.04537,,,,,,,,,,,,,,,,,,,,,,,,,,0,0,0,0,0
1.4968,1783185968.2997,1,1,1.0000,-0.0000,1.44682,0.22878,-2.77863,0.97901,1.57080,0.00000,-0.14512,-0.38003,0.04536,,,,,,,,,,,,,,,,,,,,,,,,,,0,0,0,0,0
1.5052,1783185968.3081,1,1,1.0000,-0.0000,1.44682,0.22872,-2.77865,0.97909,1.57080,0.00000,-0.14512,-0.38003,0.04534,,,,,,,,,,,,,,,,,,,,,,,,,,0,0,0,0,0
1.5152,1783185968.3181,1,1,1.0000,-0.0000,1.44682,0.22863,-2.77867,0.97921,1.57080,0.00000,-0.14512,-0.38003,0.04531,,,,,,,,,,,,,,,,,,,,,,,,,,0,0,0,0,0
1.5155,1783185968.3184,1,1,1.0000,-0.0000,1.44682,0.22863,-2.77867,0.97921,1.57080,0.00000,-0.14512,-0.38003,0.04531,,,,,,,,,,,,,,,,,,,,,,,,,,0,0,0,0,0
1.5249,1783185968.3278,1,1,1.0000,-0.0000,1.44682,0.22852,-2.77870,0.97934,1.57080,0.00000,-0.14512,-0.38003,0.04529,,,,,,,,,,,,,,,,,,,,,,,,,,0,0,0,0,0
1.5342,1783185968.3371,1,1,1.0000,-0.0000,1.44682,0.22850,-2.77870,0.97937,1.57080,0.00000,-0.14512,-0.38003,0.04528,,,,,,,,,,,,,,,,,,,,,,,,,,0,0,0,0,0
1.5448,1783185968.3477,1,1,1.0000,-0.0000,1.44682,0.22840,-2.77873,0.97950,1.57080,0.00000,-0.14512,-0.38003,0.04525,,,,,,,,,,,,,,,,,,,,,,,,,,0,0,0,0,0
1.5592,1783185968.3621,1,1,1.0000,-0.0000,1.44682,0.22834,-2.77874,0.97957,1.57080,0.00000,-0.14512,-0.38003,0.04524,,,,,,,,,,,,,,,,,,,,,,,,,,0,0,0,0,0
1.5615,1783185968.3644,1,1,1.0000,-0.0000,1.44682,0.22832,-2.77875,0.97960,1.57080,0.00000,-0.14512,-0.38003,0.04523,,,,,,,,,,,,,,,,,,,,,,,,,,0,0,0,0,0
1.5985,1783185968.4014,1,1,1.0000,-0.0000,1.44682,0.22802,-2.77882,0.97997,1.57080,0.00000,-0.14512,-0.38003,0.04516,,,,,,,,,,,,,,,,,,,,,,,,,,0,0,0,0,0
1.5989,1783185968.4018,1,1,1.0000,-0.0000,1.44682,0.22802,-2.77882,0.97997,1.57080,0.00000,-0.14512,-0.38003,0.04516,,,,,,,,,,,,,,,,,,,,,,,,,,0,0,0,0,0
1.5993,1783185968.4022,1,1,1.0000,-0.0000,1.44682,0.22802,-2.77882,0.97997,1.57080,0.00000,-0.14512,-0.38003,0.04516,,,,,,,,,,,,,,,,,,,,,,,,,,0,0,0,0,0
1.6036,1783185968.4065,1,1,1.0000,-0.0000,1.44682,0.22799,-2.77883,0.98001,1.57080,0.00000,-0.14512,-0.38003,0.04515,,,,,,,,,,,,,,,,,,,,,,,,,,0,0,0,0,0
1.6040,1783185968.4069,1,1,1.0000,-0.0000,1.44682,0.22799,-2.77883,0.98001,1.57080,0.00000,-0.14512,-0.38003,0.04515,,,,,,,,,,,,,,,,,,,,,,,,,,0,0,0,0,0
1.6122,1783185968.4151,1,1,1.0000,-0.0000,1.44682,0.22790,-2.77886,0.98012,1.57080,0.00000,-0.14512,-0.38003,0.04513,,,,,,,,,,,,,,,,,,,,,,,,,,0,0,0,0,0
1.6252,1783185968.4281,1,1,1.0000,-0.0000,1.44682,0.22783,-2.77887,0.98021,1.57080,0.00000,-0.14512,-0.38003,0.04511,,,,,,,,,,,,,,,,,,,,,,,,,,0,0,0,0,0
1.6256,1783185968.4285,1,1,1.0000,-0.0000,1.44682,0.22783,-2.77887,0.98021,1.57080,0.00000,-0.14512,-0.38003,0.04511,,,,,,,,,,,,,,,,,,,,,,,,,,0,0,0,0,0
1.6343,1783185968.4372,1,1,1.0000,-0.0000,1.44682,0.22773,-2.77890,0.98034,1.57080,0.00000,-0.14512,-0.38003,0.04508,,,,,,,,,,,,,,,,,,,,,,,,,,0,0,0,0,0
1.6500,1783185968.4529,1,1,1.0000,-0.0000,1.44682,0.22762,-2.77893,0.98048,1.57080,0.00000,-0.14512,-0.38003,0.04505,,,,,,,,,,,,,,,,,,,,,,,,,,0,0,0,0,0
1.6567,1783185968.4596,1,1,1.0000,-0.0000,1.44682,0.22758,-2.77894,0.98053,1.57080,0.00000,-0.14512,-0.38003,0.04504,,,,,,,,,,,,,,,,,,,,,,,,,,0,0,0,0,0
1.6614,1783185968.4643,1,1,1.0000,-0.0000,1.44682,0.22754,-2.77895,0.98058,1.57080,0.00000,-0.14512,-0.38003,0.04503,,,,,,,,,,,,,,,,,,,,,,,,,,0,0,0,0,0
1.6618,1783185968.4647,1,1,1.0000,-0.0000,1.44682,0.22754,-2.77895,0.98058,1.57080,0.00000,-0.14512,-0.38003,0.04503,,,,,,,,,,,,,,,,,,,,,,,,,,0,0,0,0,0
1.6740,1783185968.4769,1,1,1.0000,-0.0000,1.44682,0.22746,-2.77897,0.98068,1.57080,0.00000,-0.14512,-0.38003,0.04501,,,,,,,,,,,,,,,,,,,,,,,,,,0,0,0,0,0
1.6860,1783185968.4889,1,1,1.0000,-0.0000,1.44682,0.22738,-2.77899,0.98077,1.57080,0.00000,-0.14512,-0.38003,0.04499,,,,,,,,,,,,,,,,,,,,,,,,,,0,0,0,0,0
1.6986,1783185968.5015,1,1,1.0000,-0.0000,1.44682,0.22723,-2.77903,0.98096,1.57080,0.00000,-0.14512,-0.38003,0.04495,,,,,,,,,,,,,,,,,,,,,,,,,,0,0,0,0,0
1.7052,1783185968.5081,1,1,1.0000,-0.0000,1.44682,0.22718,-2.77904,0.98103,1.57080,0.00000,-0.14512,-0.38003,0.04494,,,,,,,,,,,,,,,,,,,,,,,,,,0,0,0,0,0
1.7056,1783185968.5085,1,1,1.0000,-0.0000,1.44682,0.22718,-2.77904,0.98103,1.57080,0.00000,-0.14512,-0.38003,0.04494,,,,,,,,,,,,,,,,,,,,,,,,,,0,0,0,0,0
1.7118,1783185968.5147,1,1,1.0000,-0.0000,1.44682,0.22717,-2.77904,0.98104,1.57080,0.00000,-0.14512,-0.38003,0.04494,,,,,,,,,,,,,,,,,,,,,,,,,,0,0,0,0,0
1.7216,1783185968.5245,1,1,1.0000,-0.0000,1.44682,0.22709,-2.77906,0.98114,1.57080,0.00001,-0.14512,-0.38003,0.04492,,,,,,,,,,,,,,,,,,,,,,,,,,0,0,0,0,0
1.7377,1783185968.5406,1,1,1.0000,-0.0000,1.44682,0.22700,-2.77909,0.98126,1.57080,0.00001,-0.14512,-0.38003,0.04489,,,,,,,,,,,,,,,,,,,,,,,,,,0,0,0,0,0
1.7471,1783185968.5500,1,1,1.0000,-0.0000,1.44682,0.22693,-2.77910,0.98134,1.57080,0.00001,-0.14512,-0.38003,0.04488,,,,,,,,,,,,,,,,,,,,,,,,,,0,0,0,0,0
1.7597,1783185968.5626,1,1,1.0000,-0.0000,1.44682,0.22678,-2.77914,0.98153,1.57080,0.00001,-0.14512,-0.38003,0.04484,,,,,,,,,,,,,,,,,,,,,,,,,,0,0,0,0,0
1.7640,1783185968.5669,1,1,1.0000,-0.0000,1.44682,0.22673,-2.77915,0.98159,1.57080,0.00001,-0.14512,-0.38003,0.04482,,,,,,,,,,,,,,,,,,,,,,,,,,0,0,0,0,0
1.7645,1783185968.5674,1,1,1.0000,-0.0000,1.44682,0.22673,-2.77915,0.98159,1.57080,0.00001,-0.14512,-0.38003,0.04482,,,,,,,,,,,,,,,,,,,,,,,,,,0,0,0,0,0
1.7721,1783185968.5749,1,1,1.0000,-0.0000,1.44682,0.22672,-2.77915,0.98160,1.57080,0.00001,-0.14512,-0.38003,0.04482,,,,,,,,,,,,,,,,,,,,,,,,,,0,0,0,0,0
1.7823,1783185968.5852,1,1,1.0000,-0.0000,1.44682,0.22664,-2.77918,0.98170,1.57080,0.00001,-0.14512,-0.38003,0.04480,,,,,,,,,,,,,,,,,,,,,,,,,,0,0,0,0,0
1.7933,1783185968.5962,1,1,1.0000,-0.0000,1.44682,0.22656,-2.77920,0.98181,1.57080,0.00001,-0.14512,-0.38003,0.04478,,,,,,,,,,,,,,,,,,,,,,,,,,0,0,0,0,0
1.8049,1783185968.6078,1,1,1.0000,-0.0000,1.44682,0.22649,-2.77922,0.98190,1.57080,0.00001,-0.14512,-0.38003,0.04476,,,,,,,,,,,,,,,,,,,,,,,,,,0,0,0,0,0
1.8234,1783185968.6263,1,1,1.0000,-0.0000,1.44682,0.22628,-2.77927,0.98215,1.57080,0.00001,-0.14512,-0.38003,0.04471,,,,,,,,,,,,,,,,,,,,,,,,,,0,0,0,0,0
1.8281,1783185968.6310,1,1,1.0000,-0.0000,1.44682,0.22628,-2.77927,0.98215,1.57080,0.00001,-0.14512,-0.38003,0.04471,,,,,,,,,,,,,,,,,,,,,,,,,,0,0,0,0,0
1.8339,1783185968.6368,1,1,1.0000,-0.0000,1.44682,0.22626,-2.77927,0.98218,1.57080,0.00001,-0.14512,-0.38003,0.04470,,,,,,,,,,,,,,,,,,,,,,,,,,0,0,0,0,0
1.8469,1783185968.6498,1,1,1.0000,-0.0000,1.44682,0.22615,-2.77930,0.98231,1.57080,0.00001,-0.14512,-0.38003,0.04467,,,,,,,,,,,,,,,,,,,,,,,,,,0,0,0,0,0
1.8542,1783185968.6571,1,1,1.0000,-0.0000,1.44682,0.22611,-2.77931,0.98237,1.57080,0.00001,-0.14512,-0.38003,0.04466,,,,,,,,,,,,,,,,,,,,,,,,,,0,0,0,0,0
1.8616,1783185968.6645,1,1,1.0000,-0.0000,1.44682,0.22608,-2.77932,0.98241,1.57080,0.00001,-0.14512,-0.38003,0.04465,,,,,,,,,,,,,,,,,,,,,,,,,,0,0,0,0,0
1.8757,1783185968.6786,1,1,1.0000,-0.0000,1.44682,0.22594,-2.77935,0.98258,1.57080,0.00001,-0.14512,-0.38003,0.04462,,,,,,,,,,,,,,,,,,,,,,,,,,0,0,0,0,0
1.8761,1783185968.6790,1,1,1.0000,-0.0000,1.44682,0.22594,-2.77935,0.98258,1.57080,0.00001,-0.14512,-0.38003,0.04462,,,,,,,,,,,,,,,,,,,,,,,,,,0,0,0,0,0
1.8890,1783185968.6919,1,1,1.0000,-0.0000,1.44682,0.22583,-2.77938,0.98272,1.57080,0.00001,-0.14512,-0.38003,0.04459,,,,,,,,,,,,,,,,,,,,,,,,,,0,0,0,0,0
1.8934,1783185968.6963,1,1,1.0000,-0.0000,1.44682,0.22581,-2.77939,0.98275,1.57080,0.00001,-0.14512,-0.38003,0.04458,,,,,,,,,,,,,,,,,,,,,,,,,,0,0,0,0,0
1.8938,1783185968.6967,1,1,1.0000,-0.0000,1.44682,0.22581,-2.77939,0.98275,1.57080,0.00001,-0.14512,-0.38003,0.04458,,,,,,,,,,,,,,,,,,,,,,,,,,0,0,0,0,0
1.9079,1783185968.7108,1,1,1.0000,-0.0000,1.44682,0.22571,-2.77941,0.98288,1.57080,0.00001,-0.14512,-0.38003,0.04456,,,,,,,,,,,,,,,,,,,,,,,,,,0,0,0,0,0
1.9122,1783185968.7151,1,1,1.0000,-0.0000,1.44682,0.22566,-2.77942,0.98293,1.57080,0.00001,-0.14512,-0.38003,0.04455,,,,,,,,,,,,,,,,,,,,,,,,,,0,0,0,0,0
1.9129,1783185968.7158,1,1,1.0000,-0.0000,1.44682,0.22566,-2.77942,0.98293,1.57080,0.00001,-0.14512,-0.38003,0.04455,,,,,,,,,,,,,,,,,,,,,,,,,,0,0,0,0,0
1.9257,1783185968.7286,1,1,1.0000,-0.0000,1.44682,0.22559,-2.77944,0.98302,1.57080,0.00001,-0.14512,-0.38003,0.04453,,,,,,,,,,,,,,,,,,,,,,,,,,0,0,0,0,0
1.9330,1783185968.7359,1,1,1.0000,-0.0000,1.44682,0.22549,-2.77947,0.98315,1.57080,0.00001,-0.14512,-0.38003,0.04450,,,,,,,,,,,,,,,,,,,,,,,,,,0,0,0,0,0
1.9426,1783185968.7455,1,1,1.0000,-0.0000,1.44682,0.22538,-2.77949,0.98328,1.57080,0.00001,-0.14512,-0.38003,0.04447,,,,,,,,,,,,,,,,,,,,,,,,,,0,0,0,0,0
1.9535,1783185968.7564,1,1,1.0000,-0.0000,1.44682,0.22535,-2.77950,0.98332,1.57080,0.00001,-0.14512,-0.38003,0.04446,,,,,,,,,,,,,,,,,,,,,,,,,,0,0,0,0,0
1.9683,1783185968.7712,1,1,1.0000,-0.0000,1.44682,0.22522,-2.77954,0.98349,1.57080,0.00001,-0.14512,-0.38003,0.04443,,,,,,,,,,,,,,,,,,,,,,,,,,0,0,0,0,0
1.9777,1783185968.7806,1,1,1.0000,-0.0000,1.44682,0.22515,-2.77955,0.98357,1.57080,0.00001,-0.14512,-0.38002,0.04441,,,,,,,,,,,,,,,,,,,,,,,,,,0,0,0,0,0
1.9854,1783185968.7883,1,1,1.0000,-0.0000,1.44682,0.22509,-2.77957,0.98364,1.57080,0.00001,-0.14512,-0.38002,0.04440,,,,,,,,,,,,,,,,,,,,,,,,,,0,0,0,0,0
1.9928,1783185968.7957,1,1,1.0000,-0.0000,1.44682,0.22500,-2.77959,0.98376,1.57080,0.00001,-0.14512,-0.38002,0.04437,,,,,,,,,,,,,,,,,,,,,,,,,,0,0,0,0,0
2.0138,1783185968.8167,1,1,1.0000,-0.0000,1.44682,0.22486,-2.77963,0.98394,1.57080,0.00001,-0.14512,-0.38002,0.04434,,,,,,,,,,,,,,,,,,,,,,,,,,0,0,0,0,0
2.0149,1783185968.8178,1,1,1.0000,-0.0000,1.44682,0.22486,-2.77963,0.98394,1.57080,0.00001,-0.14512,-0.38002,0.04434,,,,,,,,,,,,,,,,,,,,,,,,,,0,0,0,0,0
2.0294,1783185968.8323,1,1,1.0000,-0.0000,1.44682,0.22467,-2.77967,0.98417,1.57080,0.00001,-0.14512,-0.38002,0.04429,,,,,,,,,,,,,,,,,,,,,,,,,,0,0,0,0,0
2.0339,1783185968.8368,1,1,1.0000,-0.0000,1.44682,0.22467,-2.77967,0.98417,1.57080,0.00001,-0.14512,-0.38002,0.04429,,,,,,,,,,,,,,,,,,,,,,,,,,0,0,0,0,0
2.0442,1783185968.8471,1,1,1.0000,-0.0000,1.44682,0.22464,-2.77968,0.98421,1.57080,0.00001,-0.14512,-0.38002,0.04428,,,,,,,,,,,,,,,,,,,,,,,,,,0,0,0,0,0
2.0560,1783185968.8589,1,1,1.0000,-0.0000,1.44682,0.22451,-2.77972,0.98438,1.57080,0.00001,-0.14512,-0.38002,0.04425,,,,,,,,,,,,,,,,,,,,,,,,,,0,0,0,0,0
2.0676,1783185968.8705,1,1,1.0000,-0.0000,1.44682,0.22440,-2.77974,0.98451,1.57080,0.00001,-0.14512,-0.38002,0.04422,,,,,,,,,,,,,,,,,,,,,,,,,,0,0,0,0,0
2.0718,1783185968.8747,1,1,1.0000,-0.0000,1.44682,0.22439,-2.77974,0.98452,1.57080,0.00001,-0.14512,-0.38002,0.04422,,,,,,,,,,,,,,,,,,,,,,,,,,0,0,0,0,0
2.0820,1783185968.8849,1,1,1.0000,-0.0000,1.44682,0.22429,-2.77977,0.98465,1.57080,0.00001,-0.14512,-0.38002,0.04419,,,,,,,,,,,,,,,,,,,,,,,,,,0,0,0,0,0
2.0923,1783185968.8952,1,1,1.0000,-0.0000,1.44682,0.22418,-2.77980,0.98478,1.57080,0.00001,-0.14512,-0.38002,0.04416,,,,,,,,,,,,,,,,,,,,,,,,,,0,0,0,0,0
2.1130,1783185968.9159,1,1,1.0000,-0.0000,1.44682,0.22402,-2.77984,0.98499,1.57080,0.00001,-0.14512,-0.38002,0.04412,,,,,,,,,,,,,,,,,,,,,,,,,,0,0,0,0,0
2.1133,1783185968.9162,1,1,1.0000,-0.0000,1.44682,0.22402,-2.77984,0.98499,1.57080,0.00001,-0.14512,-0.38002,0.04412,,,,,,,,,,,,,,,,,,,,,,,,,,0,0,0,0,0
2.1138,1783185968.9167,1,1,1.0000,-0.0000,1.44682,0.22402,-2.77984,0.98499,1.57080,0.00001,-0.14512,-0.38002,0.04412,,,,,,,,,,,,,,,,,,,,,,,,,,0,0,0,0,0
2.1329,1783185968.9358,1,1,1.0000,-0.0000,1.44682,0.22388,-2.77987,0.98516,1.57080,0.00001,-0.14512,-0.38002,0.04408,,,,,,,,,,,,,,,,,,,,,,,,,,0,0,0,0,0
2.1332,1783185968.9361,1,1,1.0000,-0.0000,1.44682,0.22388,-2.77987,0.98516,1.57080,0.00001,-0.14512,-0.38002,0.04408,,,,,,,,,,,,,,,,,,,,,,,,,,0,0,0,0,0
2.1340,1783185968.9369,1,1,1.0000,-0.0000,1.44682,0.22388,-2.77987,0.98516,1.57080,0.00001,-0.14512,-0.38002,0.04408,,,,,,,,,,,,,,,,,,,,,,,,,,0,0,0,0,0
2.1416,1783185968.9445,1,1,1.0000,-0.0000,1.44682,0.22379,-2.77989,0.98527,1.57080,0.00001,-0.14512,-0.38002,0.04406,,,,,,,,,,,,,,,,,,,,,,,,,,0,0,0,0,0
2.1418,1783185968.9447,1,1,1.0000,-0.0000,1.44682,0.22379,-2.77989,0.98527,1.57080,0.00001,-0.14512,-0.38002,0.04406,,,,,,,,,,,,,,,,,,,,,,,,,,0,0,0,0,0
2.1530,1783185968.9559,1,1,1.0000,-0.0000,1.44682,0.22369,-2.77992,0.98540,1.57080,0.00001,-0.14512,-0.38002,0.04404,,,,,,,,,,,,,,,,,,,,,,,,,,0,0,0,0,0
2.1618,1783185968.9647,1,1,1.0000,-0.0000,1.44682,0.22366,-2.77993,0.98544,1.57080,0.00001,-0.14512,-0.38002,0.04403,,,,,,,,,,,,,,,,,,,,,,,,,,0,0,0,0,0
2.1744,1783185968.9773,1,1,1.0000,-0.0000,1.44682,0.22352,-2.77996,0.98561,1.57080,0.00001,-0.14512,-0.38002,0.04399,,,,,,,,,,,,,,,,,,,,,,,,,,0,0,0,0,0
2.1747,1783185968.9776,1,1,1.0000,-0.0000,1.44682,0.22352,-2.77996,0.98561,1.57080,0.00001,-0.14512,-0.38002,0.04399,,,,,,,,,,,,,,,,,,,,,,,,,,0,0,0,0,0
2.1818,1783185968.9847,1,1,1.0000,-0.0000,1.44682,0.22342,-2.77999,0.98574,1.57080,0.00001,-0.14512,-0.38002,0.04397,,,,,,,,,,,,,,,,,,,,,,,,,,0,0,0,0,0
2.1958,1783185968.9987,1,1,1.0000,-0.0000,1.44682,0.22339,-2.78000,0.98578,1.57080,0.00001,-0.14512,-0.38002,0.04396,,,,,,,,,,,,,,,,,,,,,,,,,,0,0,0,0,0
2.2148,1783185969.0177,1,1,1.0000,-0.0000,1.44682,0.22315,-2.78006,0.98608,1.57080,0.00001,-0.14512,-0.38002,0.04390,,,,,,,,,,,,,,,,,,,,,,,,,,0,0,0,0,0
2.2221,1783185969.0250,1,1,1.0000,-0.0000,1.44682,0.22314,-2.78006,0.98609,1.57080,0.00001,-0.14512,-0.38002,0.04389,,,,,,,,,,,,,,,,,,,,,,,,,,0,0,0,0,0
2.2228,1783185969.0256,1,1,1.0000,-0.0000,1.44682,0.22314,-2.78006,0.98609,1.57080,0.00001,-0.14512,-0.38002,0.04389,,,,,,,,,,,,,,,,,,,,,,,,,,0,0,0,0,0
2.2232,1783185969.0261,1,1,1.0000,-0.0000,1.44682,0.22314,-2.78006,0.98609,1.57080,0.00001,-0.14512,-0.38002,0.04389,,,,,,,,,,,,,,,,,,,,,,,,,,0,0,0,0,0
2.2351,1783185969.0380,1,1,1.0000,-0.0000,1.44682,0.22306,-2.78008,0.98619,1.57080,0.00001,-0.14512,-0.38002,0.04387,,,,,,,,,,,,,,,,,,,,,,,,,,0,0,0,0,0
2.2443,1783185969.0472,1,1,1.0000,-0.0000,1.44682,0.22297,-2.78010,0.98629,1.57080,0.00001,-0.14512,-0.38002,0.04385,,,,,,,,,,,,,,,,,,,,,,,,,,0,0,0,0,0
2.2551,1783185969.0580,1,1,1.0000,-0.0000,1.44682,0.22294,-2.78011,0.98634,1.57080,0.00001,-0.14512,-0.38002,0.04384,,,,,,,,,,,,,,,,,,,,,,,,,,0,0,0,0,0
2.2556,1783185969.0584,1,1,1.0000,-0.0000,1.44682,0.22294,-2.78011,0.98634,1.57080,0.00001,-0.14512,-0.38002,0.04384,,,,,,,,,,,,,,,,,,,,,,,,,,0,0,0,0,0
2.2640,1783185969.0669,1,1,1.0000,-0.0000,1.44682,0.22285,-2.78013,0.98644,1.57080,0.00001,-0.14512,-0.38002,0.04382,,,,,,,,,,,,,,,,,,,,,,,,,,0,0,0,0,0
2.2721,1783185969.0750,1,1,1.0000,-0.0000,1.44682,0.22275,-2.78016,0.98658,1.57080,0.00001,-0.14512,-0.38002,0.04379,,,,,,,,,,,,,,,,,,,,,,,,,,0,0,0,0,0
2.2817,1783185969.0846,1,1,1.0000,-0.0000,1.44681,0.22269,-2.78017,0.98665,1.57080,0.00001,-0.14512,-0.38002,0.04378,,,,,,,,,,,,,,,,,,,,,,,,,,0,0,0,0,0
2.2936,1783185969.0965,1,1,1.0000,-0.0000,1.44681,0.22261,-2.78019,0.98675,1.57080,0.00001,-0.14512,-0.38002,0.04376,,,,,,,,,,,,,,,,,,,,,,,,,,0,0,0,0,0
2.3041,1783185969.1070,1,1,1.0000,-0.0000,1.44681,0.22252,-2.78021,0.98686,1.57080,0.00001,-0.14512,-0.38002,0.04373,,,,,,,,,,,,,,,,,,,,,,,,,,0,0,0,0,0
2.3152,1783185969.1181,1,1,1.0000,-0.0000,1.44681,0.22249,-2.78022,0.98690,1.57080,0.00001,-0.14512,-0.38002,0.04373,,,,,,,,,,,,,,,,,,,,,,,,,,0,0,0,0,0
2.3250,1783185969.1279,1,1,1.0000,-0.0000,1.44681,0.22235,-2.78026,0.98707,1.57080,0.00001,-0.14512,-0.38002,0.04369,,,,,,,,,,,,,,,,,,,,,,,,,,0,0,0,0,0
2.3254,1783185969.1283,1,1,1.0000,-0.0000,1.44681,0.22235,-2.78026,0.98707,1.57080,0.00001,-0.14512,-0.38002,0.04369,,,,,,,,,,,,,,,,,,,,,,,,,,0,0,0,0,0
2.3346,1783185969.1375,1,1,1.0000,-0.0000,1.44681,0.22224,-2.78028,0.98721,1.57080,0.00001,-0.14512,-0.38002,0.04366,,,,,,,,,,,,,,,,,,,,,,,,,,0,0,0,0,0
2.3428,1783185969.1457,1,1,1.0000,-0.0000,1.44681,0.22224,-2.78028,0.98722,1.57080,0.00001,-0.14512,-0.38002,0.04366,,,,,,,,,,,,,,,,,,,,,,,,,,0,0,0,0,0
2.3432,1783185969.1460,1,1,1.0000,-0.0000,1.44681,0.22224,-2.78028,0.98722,1.57080,0.00001,-0.14512,-0.38002,0.04366,,,,,,,,,,,,,,,,,,,,,,,,,,0,0,0,0,0
2.3610,1783185969.1639,1,1,1.0000,-0.0000,1.44681,0.22207,-2.78033,0.98742,1.57080,0.00001,-0.14512,-0.38002,0.04362,,,,,,,,,,,,,,,,,,,,,,,,,,0,0,0,0,0
2.3612,1783185969.1641,1,1,1.0000,-0.0000,1.44681,0.22207,-2.78033,0.98742,1.57080,0.00001,-0.14512,-0.38002,0.04362,,,,,,,,,,,,,,,,,,,,,,,,,,0,0,0,0,0
2.3682,1783185969.1711,1,1,1.0000,-0.0000,1.44681,0.22207,-2.78033,0.98742,1.57080,0.00001,-0.14512,-0.38002,0.04362,,,,,,,,,,,,,,,,,,,,,,,,,,0,0,0,0,0
2.3689,1783185969.1718,1,1,1.0000,-0.0000,1.44681,0.22206,-2.78033,0.98743,1.57080,0.00001,-0.14512,-0.38002,0.04362,,,,,,,,,,,,,,,,,,,,,,,,,,0,0,0,0,0
2.3730,1783185969.1759,1,1,1.0000,-0.0000,1.44681,0.22204,-2.78034,0.98747,1.57080,0.00001,-0.14512,-0.38002,0.04361,,,,,,,,,,,,,,,,,,,,,,,,,,0,0,0,0,0
2.3733,1783185969.1762,1,1,1.0000,-0.0000,1.44681,0.22204,-2.78034,0.98747,1.57080,0.00001,-0.14512,-0.38002,0.04361,,,,,,,,,,,,,,,,,,,,,,,,,,0,0,0,0,0
2.3840,1783185969.1869,1,1,1.0000,-0.0000,1.44681,0.22195,-2.78036,0.98757,1.57080,0.00001,-0.14512,-0.38002,0.04359,,,,,,,,,,,,,,,,,,,,,,,,,,0,0,0,0,0
2.4027,1783185969.2056,1,1,1.0000,-0.0000,1.44681,0.22179,-2.78040,0.98778,1.57080,0.00001,-0.14512,-0.38002,0.04354,,,,,,,,,,,,,,,,,,,,,,,,,,0,0,0,0,0
2.4053,1783185969.2082,1,1,1.0000,-0.0000,1.44681,0.22177,-2.78040,0.98780,1.57080,0.00001,-0.14512,-0.38002,0.04354,,,,,,,,,,,,,,,,,,,,,,,,,,0,0,0,0,0
2.4157,1783185969.2186,1,1,1.0000,-0.0000,1.44681,0.22170,-2.78042,0.98788,1.57080,0.00001,-0.14512,-0.38002,0.04352,,,,,,,,,,,,,,,,,,,,,,,,,,0,0,0,0,0
2.4258,1783185969.2287,1,1,1.0000,-0.0000,1.44681,0.22162,-2.78044,0.98799,1.57080,0.00001,-0.14512,-0.38002,0.04350,,,,,,,,,,,,,,,,,,,,,,,,,,0,0,0,0,0
2.4821,1783185969.2850,1,1,1.0000,-0.0000,1.44681,0.22117,-2.78055,0.98855,1.57080,0.00001,-0.14512,-0.38002,0.04339,,,,,,,,,,,,,,,,,,,,,,,,,,0,0,0,0,0
2.4824,1783185969.2853,1,1,1.0000,-0.0000,1.44681,0.22117,-2.78055,0.98855,1.57080,0.00001,-0.14512,-0.38002,0.04339,,,,,,,,,,,,,,,,,,,,,,,,,,0,0,0,0,0
2.4827,1783185969.2856,1,1,1.0000,-0.0000,1.44681,0.22117,-2.78055,0.98855,1.57080,0.00001,-0.14512,-0.38002,0.04339,,,,,,,,,,,,,,,,,,,,,,,,,,0,0,0,0,0
2.4830,1783185969.2859,1,1,1.0000,-0.0000,1.44681,0.22117,-2.78055,0.98855,1.57080,0.00001,-0.14512,-0.38002,0.04339,,,,,,,,,,,,,,,,,,,,,,,,,,0,0,0,0,0
2.4833,1783185969.2862,1,1,1.0000,-0.0000,1.44681,0.22117,-2.78055,0.98855,1.57080,0.00001,-0.14512,-0.38002,0.04339,,,,,,,,,,,,,,,,,,,,,,,,,,0,0,0,0,0
2.4837,1783185969.2866,1,1,1.0000,-0.0000,1.44681,0.22117,-2.78055,0.98855,1.57080,0.00001,-0.14512,-0.38002,0.04339,,,,,,,,,,,,,,,,,,,,,,,,,,0,0,0,0,0
2.4840,1783185969.2869,1,1,1.0000,-0.0000,1.44681,0.22117,-2.78055,0.98855,1.57080,0.00001,-0.14512,-0.38002,0.04339,,,,,,,,,,,,,,,,,,,,,,,,,,0,0,0,0,0
2.4936,1783185969.2965,1,1,1.0000,-0.0000,1.44681,0.22113,-2.78056,0.98860,1.57080,0.00001,-0.14512,-0.38002,0.04338,,,,,,,,,,,,,,,,,,,,,,,,,,0,0,0,0,0
2.5012,1783185969.3041,1,1,1.0000,-0.0000,1.44681,0.22105,-2.78058,0.98870,1.57080,0.00001,-0.14512,-0.38002,0.04335,,,,,,,,,,,,,,,,,,,,,,,,,,0,0,0,0,0
2.5015,1783185969.3044,1,1,1.0000,-0.0000,1.44681,0.22105,-2.78058,0.98870,1.57080,0.00001,-0.14512,-0.38002,0.04335,,,,,,,,,,,,,,,,,,,,,,,,,,0,0,0,0,0
2.5271,1783185969.3299,1,1,1.0000,-0.0000,1.44681,0.22086,-2.78063,0.98893,1.57080,0.00001,-0.14512,-0.38002,0.04331,,,,,,,,,,,,,,,,,,,,,,,,,,0,0,0,0,0
2.5401,1783185969.3430,1,1,1.0000,-0.0000,1.44681,0.22076,-2.78065,0.98906,1.57080,0.00001,-0.14512,-0.38002,0.04328,,,,,,,,,,,,,,,,,,,,,,,,,,0,0,0,0,0
2.5405,1783185969.3434,1,1,1.0000,-0.0000,1.44681,0.22076,-2.78065,0.98906,1.57080,0.00001,-0.14512,-0.38002,0.04328,,,,,,,,,,,,,,,,,,,,,,,,,,0,0,0,0,0
2.5431,1783185969.3460,1,1,1.0000,-0.0000,1.44681,0.22071,-2.78066,0.98912,1.57080,0.00001,-0.14512,-0.38002,0.04327,,,,,,,,,,,,,,,,,,,,,,,,,,0,0,0,0,0
2.5434,1783185969.3463,1,1,1.0000,-0.0000,1.44681,0.22071,-2.78066,0.98912,1.57080,0.00001,-0.14512,-0.38002,0.04327,,,,,,,,,,,,,,,,,,,,,,,,,,0,0,0,0,0
2.5546,1783185969.3575,1,1,1.0000,-0.0000,1.44681,0.22068,-2.78067,0.98916,1.57080,0.00001,-0.14512,-0.38002,0.04326,,,,,,,,,,,,,,,,,,,,,,,,,,0,0,0,0,0
2.5630,1783185969.3659,1,1,1.0000,-0.0000,1.44681,0.22059,-2.78069,0.98927,1.57080,0.00001,-0.14512,-0.38002,0.04324,,,,,,,,,,,,,,,,,,,,,,,,,,0,0,0,0,0
2.5635,1783185969.3664,1,1,1.0000,-0.0000,1.44681,0.22059,-2.78069,0.98927,1.57080,0.00001,-0.14512,-0.38002,0.04324,,,,,,,,,,,,,,,,,,,,,,,,,,0,0,0,0,0
2.5771,1783185969.3800,1,1,1.0000,-0.0000,1.44681,0.22043,-2.78073,0.98947,1.57080,0.00001,-0.14512,-0.38002,0.04320,,,,,,,,,,,,,,,,,,,,,,,,,,0,0,0,0,0
2.5774,1783185969.3803,1,1,1.0000,-0.0000,1.44681,0.22043,-2.78073,0.98947,1.57080,0.00001,-0.14512,-0.38002,0.04320,,,,,,,,,,,,,,,,,,,,,,,,,,0,0,0,0,0
2.5853,1783185969.3882,1,1,1.0000,-0.0000,1.44681,0.22041,-2.78074,0.98950,1.57080,0.00001,-0.14512,-0.38002,0.04319,,,,,,,,,,,,,,,,,,,,,,,,,,0,0,0,0,0
2.5856,1783185969.3885,1,1,1.0000,-0.0000,1.44681,0.22041,-2.78074,0.98950,1.57080,0.00001,-0.14512,-0.38002,0.04319,,,,,,,,,,,,,,,,,,,,,,,,,,0,0,0,0,0
2.5943,1783185969.3972,1,1,1.0000,-0.0000,1.44681,0.22035,-2.78076,0.98958,1.57080,0.00001,-0.14512,-0.38002,0.04318,,,,,,,,,,,,,,,,,,,,,,,,,,0,0,0,0,0
2.6059,1783185969.4088,1,1,1.0000,-0.0000,1.44681,0.22026,-2.78078,0.98968,1.57080,0.00001,-0.14512,-0.38002,0.04315,,,,,,,,,,,,,,,,,,,,,,,,,,0,0,0,0,0
2.6062,1783185969.4091,1,1,1.0000,-0.0000,1.44681,0.22026,-2.78078,0.98968,1.57080,0.00001,-0.14512,-0.38002,0.04315,,,,,,,,,,,,,,,,,,,,,,,,,,0,0,0,0,0
2.6116,1783185969.4145,1,1,1.0000,-0.0000,1.44681,0.22025,-2.78078,0.98969,1.57080,0.00001,-0.14512,-0.38002,0.04315,,,,,,,,,,,,,,,,,,,,,,,,,,0,0,0,0,0
2.6120,1783185969.4149,1,1,1.0000,-0.0000,1.44681,0.22025,-2.78078,0.98969,1.57080,0.00001,-0.14512,-0.38002,0.04315,,,,,,,,,,,,,,,,,,,,,,,,,,0,0,0,0,0
2.6223,1783185969.4252,1,1,1.0000,-0.0000,1.44681,0.22014,-2.78081,0.98983,1.57080,0.00001,-0.14512,-0.38002,0.04312,,,,,,,,,,,,,,,,,,,,,,,,,,0,0,0,0,0
2.6363,1783185969.4392,1,1,1.0000,-0.0000,1.44681,0.21998,-2.78085,0.99003,1.57080,0.00001,-0.14512,-0.38002,0.04308,,,,,,,,,,,,,,,,,,,,,,,,,,0,0,0,0,0
2.6424,1783185969.4453,1,1,1.0000,-0.0000,1.44681,0.21998,-2.78085,0.99004,1.57080,0.00001,-0.14512,-0.38002,0.04308,,,,,,,,,,,,,,,,,,,,,,,,,,0,0,0,0,0
2.6537,1783185969.4566,1,1,1.0000,-0.0000,1.44681,0.21989,-2.78087,0.99014,1.57080,0.00001,-0.14512,-0.38002,0.04306,,,,,,,,,,,,,,,,,,,,,,,,,,0,0,0,0,0
2.6541,1783185969.4570,1,1,1.0000,-0.0000,1.44681,0.21989,-2.78087,0.99014,1.57080,0.00001,-0.14512,-0.38002,0.04306,,,,,,,,,,,,,,,,,,,,,,,,,,0,0,0,0,0
2.6653,1783185969.4681,1,1,1.0000,-0.0000,1.44681,0.21981,-2.78089,0.99025,1.57080,0.00001,-0.14512,-0.38002,0.04304,,,,,,,,,,,,,,,,,,,,,,,,,,0,0,0,0,0
2.6816,1783185969.4845,1,1,1.0000,-0.0000,1.44681,0.21969,-2.78092,0.99040,1.57080,0.00001,-0.14512,-0.38002,0.04301,,,,,,,,,,,,,,,,,,,,,,,,,,0,0,0,0,0
2.6821,1783185969.4850,1,1,1.0000,-0.0000,1.44681,0.21969,-2.78092,0.99040,1.57080,0.00001,-0.14512,-0.38002,0.04301,,,,,,,,,,,,,,,,,,,,,,,,,,0,0,0,0,0
2.6966,1783185969.4995,1,1,1.0000,-0.0000,1.44681,0.21953,-2.78096,0.99060,1.57080,0.00001,-0.14512,-0.38002,0.04296,,,,,,,,,,,,,,,,,,,,,,,,,,0,0,0,0,0
2.7079,1783185969.5108,1,1,1.0000,-0.0000,1.44681,0.21949,-2.78097,0.99064,1.57080,0.00001,-0.14512,-0.38002,0.04296,,,,,,,,,,,,,,,,,,,,,,,,,,0,0,0,0,0
2.7117,1783185969.5146,1,1,1.0000,-0.0000,1.44681,0.21946,-2.78098,0.99069,1.57080,0.00001,-0.14512,-0.38002,0.04295,,,,,,,,,,,,,,,,,,,,,,,,,,0,0,0,0,0
2.7122,1783185969.5151,1,1,1.0000,-0.0000,1.44681,0.21946,-2.78098,0.99069,1.57080,0.00001,-0.14512,-0.38002,0.04295,,,,,,,,,,,,,,,,,,,,,,,,,,0,0,0,0,0
2.7241,1783185969.5270,1,1,1.0000,-0.0000,1.44681,0.21931,-2.78101,0.99088,1.57080,0.00001,-0.14512,-0.38002,0.04291,,,,,,,,,,,,,,,,,,,,,,,,,,0,0,0,0,0
2.7343,1783185969.5372,1,1,1.0000,-0.0000,1.44681,0.21927,-2.78102,0.99092,1.57080,0.00001,-0.14512,-0.38002,0.04290,,,,,,,,,,,,,,,,,,,,,,,,,,0,0,0,0,0
2.7541,1783185969.5570,1,1,1.0000,-0.0000,1.44681,0.21903,-2.78108,0.99121,1.57080,0.00001,-0.14512,-0.38002,0.04284,,,,,,,,,,,,,,,,,,,,,,,,,,0,0,0,0,0
2.7545,1783185969.5574,1,1,1.0000,-0.0000,1.44681,0.21903,-2.78108,0.99121,1.57080,0.00001,-0.14512,-0.38002,0.04284,,,,,,,,,,,,,,,,,,,,,,,,,,0,0,0,0,0
2.7642,1783185969.5671,1,1,1.0000,-0.0000,1.44681,0.21903,-2.78108,0.99123,1.57080,0.00001,-0.14512,-0.38002,0.04284,,,,,,,,,,,,,,,,,,,,,,,,,,0,0,0,0,0
2.7760,1783185969.5789,1,1,1.0000,-0.0000,1.44681,0.21892,-2.78111,0.99136,1.57080,0.00001,-0.14512,-0.38002,0.04281,,,,,,,,,,,,,,,,,,,,,,,,,,0,0,0,0,0
2.7827,1783185969.5856,1,1,1.0000,-0.0000,1.44681,0.21881,-2.78114,0.99149,1.57080,0.00001,-0.14512,-0.38002,0.04278,,,,,,,,,,,,,,,,,,,,,,,,,,0,0,0,0,0
2.7976,1783185969.6005,1,1,1.0000,-0.0000,1.44681,0.21874,-2.78115,0.99158,1.57080,0.00001,-0.14512,-0.38002,0.04276,,,,,,,,,,,,,,,,,,,,,,,,,,0,0,0,0,0
2.8099,1783185969.6128,1,1,1.0000,-0.0000,1.44681,0.21859,-2.78119,0.99177,1.57080,0.00001,-0.14512,-0.38002,0.04272,,,,,,,,,,,,,,,,,,,,,,,,,,0,0,0,0,0
2.8130,1783185969.6159,1,1,1.0000,-0.0000,1.44681,0.21854,-2.78120,0.99183,1.57080,0.00001,-0.14512,-0.38002,0.04271,,,,,,,,,,,,,,,,,,,,,,,,,,0,0,0,0,0
2.8266,1783185969.6295,1,1,1.0000,-0.0000,1.44681,0.21851,-2.78121,0.99187,1.57080,0.00001,-0.14512,-0.38002,0.04270,,,,,,,,,,,,,,,,,,,,,,,,,,0,0,0,0,0
2.8341,1783185969.6370,1,1,1.0000,-0.0000,1.44681,0.21842,-2.78123,0.99198,1.57080,0.00001,-0.14512,-0.38002,0.04268,,,,,,,,,,,,,,,,,,,,,,,,,,0,0,0,0,0
2.8553,1783185969.6582,1,1,1.0000,-0.0000,1.44681,0.21828,-2.78127,0.99215,1.57080,0.00001,-0.14512,-0.38002,0.04265,,,,,,,,,,,,,,,,,,,,,,,,,,0,0,0,0,0
2.8557,1783185969.6586,1,1,1.0000,-0.0000,1.44681,0.21828,-2.78127,0.99215,1.57080,0.00001,-0.14512,-0.38002,0.04265,,,,,,,,,,,,,,,,,,,,,,,,,,0,0,0,0,0
2.8617,1783185969.6646,1,1,1.0000,-0.0000,1.44681,0.21820,-2.78129,0.99226,1.57080,0.00001,-0.14512,-0.38002,0.04262,,,,,,,,,,,,,,,,,,,,,,,,,,0,0,0,0,0
2.8622,1783185969.6651,1,1,1.0000,-0.0000,1.44681,0.21820,-2.78129,0.99226,1.57080,0.00001,-0.14512,-0.38002,0.04262,,,,,,,,,,,,,,,,,,,,,,,,,,0,0,0,0,0
2.8759,1783185969.6788,1,1,1.0000,-0.0000,1.44681,0.21804,-2.78133,0.99245,1.57080,0.00001,-0.14512,-0.38002,0.04258,,,,,,,,,,,,,,,,,,,,,,,,,,0,0,0,0,0
2.8881,1783185969.6910,1,1,1.0000,-0.0000,1.44681,0.21801,-2.78134,0.99249,1.57080,0.00001,-0.14512,-0.38002,0.04258,,,,,,,,,,,,,,,,,,,,,,,,,,0,0,0,0,0
2.8917,1783185969.6946,1,1,1.0000,-0.0000,1.44681,0.21797,-2.78134,0.99254,1.57080,0.00001,-0.14512,-0.38002,0.04257,,,,,,,,,,,,,,,,,,,,,,,,,,0,0,0,0,0
2.8920,1783185969.6949,1,1,1.0000,-0.0000,1.44681,0.21797,-2.78134,0.99254,1.57080,0.00001,-0.14512,-0.38002,0.04257,,,,,,,,,,,,,,,,,,,,,,,,,,0,0,0,0,0
2.9041,1783185969.7070,1,1,1.0000,-0.0000,1.44681,0.21782,-2.78138,0.99273,1.57080,0.00001,-0.14512,-0.38002,0.04253,,,,,,,,,,,,,,,,,,,,,,,,,,0,0,0,0,0
2.9137,1783185969.7166,1,1,1.0000,-0.0000,1.44681,0.21779,-2.78139,0.99277,1.57080,0.00001,-0.14512,-0.38002,0.04252,,,,,,,,,,,,,,,,,,,,,,,,,,0,0,0,0,0
2.9275,1783185969.7304,1,1,1.0000,-0.0000,1.44681,0.21765,-2.78142,0.99294,1.57080,0.00001,-0.14512,-0.38002,0.04248,,,,,,,,,,,,,,,,,,,,,,,,,,0,0,0,0,0
2.9365,1783185969.7394,1,1,1.0000,-0.0000,1.44681,0.21755,-2.78145,0.99307,1.57080,0.00001,-0.14512,-0.38002,0.04246,,,,,,,,,,,,,,,,,,,,,,,,,,0,0,0,0,0
2.9496,1783185969.7525,1,1,1.0000,-0.0000,1.44681,0.21748,-2.78147,0.99316,1.57080,0.00001,-0.14512,-0.38002,0.04244,,,,,,,,,,,,,,,,,,,,,,,,,,0,0,0,0,0
2.9548,1783185969.7577,1,1,1.0000,-0.0000,1.44681,0.21743,-2.78148,0.99321,1.57080,0.00001,-0.14512,-0.38002,0.04243,,,,,,,,,,,,,,,,,,,,,,,,,,0,0,0,0,0
2.9682,1783185969.7711,1,1,1.0000,-0.0000,1.44681,0.21733,-2.78150,0.99335,1.57080,0.00001,-0.14512,-0.38002,0.04240,,,,,,,,,,,,,,,,,,,,,,,,,,0,0,0,0,0
2.9738,1783185969.7767,1,1,1.0000,-0.0000,1.44681,0.21729,-2.78151,0.99339,1.57080,0.00001,-0.14512,-0.38002,0.04239,,,,,,,,,,,,,,,,,,,,,,,,,,0,0,0,0,0
2.9818,1783185969.7847,1,1,1.0000,-0.0000,1.44681,0.21721,-2.78153,0.99349,1.57080,0.00001,-0.14512,-0.38002,0.04237,,,,,,,,,,,,,,,,,,,,,,,,,,0,0,0,0,0
2.9925,1783185969.7954,1,1,1.0000,-0.0000,1.44681,0.21710,-2.78156,0.99362,1.57080,0.00001,-0.14512,-0.38002,0.04234,,,,,,,,,,,,,,,,,,,,,,,,,,0,0,0,0,0
3.0037,1783185969.8066,1,1,1.0000,-0.0000,1.44681,0.21704,-2.78157,0.99370,1.57080,0.00001,-0.14512,-0.38002,0.04233,,,,,,,,,,,,,,,,,,,,,,,,,,0,0,0,0,0
3.0043,1783185969.8072,1,1,1.0000,-0.0000,1.44681,0.21704,-2.78157,0.99370,1.57080,0.00001,-0.14512,-0.38002,0.04233,,,,,,,,,,,,,,,,,,,,,,,,,,0,0,0,0,0
3.0151,1783185969.8180,1,1,1.0000,-0.0000,1.44681,0.21693,-2.78160,0.99383,1.57080,0.00001,-0.14512,-0.38002,0.04230,,,,,,,,,,,,,,,,,,,,,,,,,,0,0,0,0,0
3.0237,1783185969.8266,1,1,1.0000,-0.0000,1.44681,0.21683,-2.78163,0.99396,1.57080,0.00001,-0.14512,-0.38002,0.04227,,,,,,,,,,,,,,,,,,,,,,,,,,0,0,0,0,0
3.0240,1783185969.8269,1,1,1.0000,-0.0000,1.44681,0.21683,-2.78163,0.99396,1.57080,0.00001,-0.14512,-0.38002,0.04227,,,,,,,,,,,,,,,,,,,,,,,,,,0,0,0,0,0
3.0338,1783185969.8367,1,1,1.0000,-0.0000,1.44681,0.21680,-2.78164,0.99401,1.57080,0.00001,-0.14512,-0.38002,0.04227,,,,,,,,,,,,,,,,,,,,,,,,,,0,0,0,0,0
3.0436,1783185969.8465,1,1,1.0000,-0.0000,1.44681,0.21671,-2.78166,0.99411,1.57080,0.00001,-0.14512,-0.38002,0.04224,,,,,,,,,,,,,,,,,,,,,,,,,,0,0,0,0,0
3.0562,1783185969.8591,1,1,1.0000,-0.0000,1.44681,0.21656,-2.78169,0.99430,1.57080,0.00001,-0.14512,-0.38002,0.04220,,,,,,,,,,,,,,,,,,,,,,,,,,0,0,0,0,0
3.0618,1783185969.8647,1,1,1.0000,-0.0000,1.44681,0.21655,-2.78170,0.99432,1.57080,0.00001,-0.14512,-0.38002,0.04220,,,,,,,,,,,,,,,,,,,,,,,,,,0,0,0,0,0
3.0787,1783185969.8816,1,1,1.0000,-0.0000,1.44681,0.21639,-2.78174,0.99452,1.57080,0.00001,-0.14512,-0.38002,0.04216,,,,,,,,,,,,,,,,,,,,,,,,,,0,0,0,0,0
3.0838,1783185969.8867,1,1,1.0000,-0.0000,1.44681,0.21633,-2.78175,0.99458,1.57080,0.00001,-0.14512,-0.38002,0.04215,,,,,,,,,,,,,,,,,,,,,,,,,,0,0,0,0,0
3.0972,1783185969.9001,1,1,1.0000,-0.0000,1.44681,0.21626,-2.78177,0.99467,1.57080,0.00001,-0.14512,-0.38002,0.04213,,,,,,,,,,,,,,,,,,,,,,,,,,0,0,0,0,0
3.1017,1783185969.9046,1,1,1.0000,-0.0000,1.44681,0.21622,-2.78178,0.99473,1.57080,0.00001,-0.14512,-0.38002,0.04212,,,,,,,,,,,,,,,,,,,,,,,,,,0,0,0,0,0
3.1118,1783185969.9147,1,1,1.0000,-0.0000,1.44681,0.21611,-2.78180,0.99486,1.57080,0.00001,-0.14512,-0.38002,0.04209,,,,,,,,,,,,,,,,,,,,,,,,,,0,0,0,0,0
3.1241,1783185969.9270,1,1,1.0000,-0.0000,1.44681,0.21605,-2.78182,0.99493,1.57080,0.00001,-0.14512,-0.38002,0.04208,,,,,,,,,,,,,,,,,,,,,,,,,,0,0,0,0,0
3.1416,1783185969.9445,1,1,1.0000,-0.0000,1.44681,0.21584,-2.78187,0.99520,1.57080,0.00001,-0.14512,-0.38002,0.04202,,,,,,,,,,,,,,,,,,,,,,,,,,0,0,0,0,0
3.1477,1783185969.9506,1,1,1.0000,-0.0000,1.44681,0.21578,-2.78188,0.99527,1.57080,0.00001,-0.14512,-0.38002,0.04201,,,,,,,,,,,,,,,,,,,,,,,,,,0,0,0,0,0
3.1544,1783185969.9573,1,1,1.0000,-0.0000,1.44681,0.21578,-2.78189,0.99527,1.57080,0.00001,-0.14512,-0.38002,0.04201,,,,,,,,,,,,,,,,,,,,,,,,,,0,0,0,0,0
3.1694,1783185969.9723,1,1,1.0000,-0.0000,1.44681,0.21565,-2.78192,0.99543,1.57080,0.00001,-0.14512,-0.38002,0.04197,,,,,,,,,,,,,,,,,,,,,,,,,,0,0,0,0,0
3.1698,1783185969.9727,1,1,1.0000,-0.0000,1.44681,0.21565,-2.78192,0.99543,1.57080,0.00001,-0.14512,-0.38002,0.04197,,,,,,,,,,,,,,,,,,,,,,,,,,0,0,0,0,0
3.1769,1783185969.9798,1,1,1.0000,-0.0000,1.44681,0.21561,-2.78193,0.99548,1.57080,0.00001,-0.14512,-0.38002,0.04196,,,,,,,,,,,,,,,,,,,,,,,,,,0,0,0,0,0
3.1771,1783185969.9800,1,1,1.0000,-0.0000,1.44681,0.21561,-2.78193,0.99548,1.57080,0.00001,-0.14512,-0.38002,0.04196,,,,,,,,,,,,,,,,,,,,,,,,,,0,0,0,0,0
3.1870,1783185969.9899,1,1,1.0000,-0.0000,1.44681,0.21557,-2.78194,0.99553,1.57080,0.00001,-0.14512,-0.38002,0.04195,,,,,,,,,,,,,,,,,,,,,,,,,,0,0,0,0,0
3.1941,1783185969.9970,1,1,1.0000,-0.0000,1.44681,0.21549,-2.78196,0.99564,1.57080,0.00001,-0.14512,-0.38002,0.04193,,,,,,,,,,,,,,,,,,,,,,,,,,0,0,0,0,0
3.2117,1783185970.0146,1,1,1.0000,-0.0000,1.44681,0.21533,-2.78200,0.99584,1.57080,0.00001,-0.14512,-0.38002,0.04189,,,,,,,,,,,,,,,,,,,,,,,,,,0,0,0,0,0
3.2121,1783185970.0150,1,1,1.0000,-0.0000,1.44681,0.21533,-2.78200,0.99584,1.57080,0.00001,-0.14512,-0.38002,0.04189,,,,,,,,,,,,,,,,,,,,,,,,,,0,0,0,0,0
3.2126,1783185970.0155,1,1,1.0000,-0.0000,1.44681,0.21533,-2.78200,0.99584,1.57080,0.00001,-0.14512,-0.38002,0.04189,,,,,,,,,,,,,,,,,,,,,,,,,,0,0,0,0,0
3.2292,1783185970.0321,1,1,1.0000,-0.0000,1.44681,0.21520,-2.78203,0.99600,1.57080,0.00001,-0.14512,-0.38002,0.04186,,,,,,,,,,,,,,,,,,,,,,,,,,0,0,0,0,0
3.2296,1783185970.0325,1,1,1.0000,-0.0000,1.44681,0.21520,-2.78203,0.99600,1.57080,0.00001,-0.14512,-0.38002,0.04186,,,,,,,,,,,,,,,,,,,,,,,,,,0,0,0,0,0
3.2383,1783185970.0412,1,1,1.0000,-0.0000,1.44681,0.21515,-2.78204,0.99605,1.57080,0.00001,-0.14512,-0.38002,0.04185,,,,,,,,,,,,,,,,,,,,,,,,,,0,0,0,0,0
3.2455,1783185970.0484,1,1,1.0000,-0.0000,1.44681,0.21512,-2.78205,0.99610,1.57080,0.00001,-0.14512,-0.38002,0.04184,,,,,,,,,,,,,,,,,,,,,,,,,,0,0,0,0,0
3.2459,1783185970.0488,1,1,1.0000,-0.0000,1.44681,0.21512,-2.78205,0.99610,1.57080,0.00001,-0.14512,-0.38002,0.04184,,,,,,,,,,,,,,,,,,,,,,,,,,0,0,0,0,0
3.2589,1783185970.0618,1,1,1.0000,-0.0000,1.44681,0.21498,-2.78208,0.99627,1.57080,0.00001,-0.14512,-0.38002,0.04180,,,,,,,,,,,,,,,,,,,,,,,,,,0,0,0,0,0
3.2616,1783185970.0645,1,1,1.0000,-0.0000,1.44681,0.21492,-2.78209,0.99634,1.57080,0.00001,-0.14512,-0.38002,0.04179,,,,,,,,,,,,,,,,,,,,,,,,,,0,0,0,0,0
3.2620,1783185970.0649,1,1,1.0000,-0.0000,1.44681,0.21492,-2.78209,0.99634,1.57080,0.00001,-0.14512,-0.38002,0.04179,,,,,,,,,,,,,,,,,,,,,,,,,,0,0,0,0,0
3.2720,1783185970.0748,1,1,1.0000,-0.0000,1.44681,0.21487,-2.78211,0.99640,1.57080,0.00001,-0.14512,-0.38002,0.04177,,,,,,,,,,,,,,,,,,,,,,,,,,0,0,0,0,0
3.2723,1783185970.0752,1,1,1.0000,-0.0000,1.44681,0.21487,-2.78211,0.99640,1.57080,0.00001,-0.14512,-0.38002,0.04177,,,,,,,,,,,,,,,,,,,,,,,,,,0,0,0,0,0
3.2840,1783185970.0869,1,1,1.0000,-0.0000,1.44681,0.21482,-2.78212,0.99647,1.57080,0.00001,-0.14512,-0.38002,0.04176,,,,,,,,,,,,,,,,,,,,,,,,,,0,0,0,0,0
3.2843,1783185970.0872,1,1,1.0000,-0.0000,1.44681,0.21482,-2.78212,0.99647,1.57080,0.00001,-0.14512,-0.38002,0.04176,,,,,,,,,,,,,,,,,,,,,,,,,,0,0,0,0,0
3.2981,1783185970.1010,1,1,1.0000,-0.0000,1.44681,0.21470,-2.78215,0.99662,1.57080,0.00001,-0.14512,-0.38002,0.04173,,,,,,,,,,,,,,,,,,,,,,,,,,0,0,0,0,0
3.3062,1783185970.1091,1,1,1.0000,-0.0000,1.44681,0.21466,-2.78216,0.99666,1.57080,0.00001,-0.14512,-0.38002,0.04172,,,,,,,,,,,,,,,,,,,,,,,,,,0,0,0,0,0
3.3151,1783185970.1180,1,1,1.0000,-0.0000,1.44681,0.21457,-2.78218,0.99677,1.57080,0.00001,-0.14512,-0.38002,0.04170,,,,,,,,,,,,,,,,,,,,,,,,,,0,0,0,0,0
3.3237,1783185970.1266,1,1,1.0000,-0.0000,1.44681,0.21447,-2.78221,0.99691,1.57080,0.00002,-0.14512,-0.38002,0.04167,,,,,,,,,,,,,,,,,,,,,,,,,,0,0,0,0,0
3.3239,1783185970.1268,1,1,1.0000,-0.0000,1.44681,0.21447,-2.78221,0.99691,1.57080,0.00002,-0.14512,-0.38002,0.04167,,,,,,,,,,,,,,,,,,,,,,,,,,0,0,0,0,0
3.3385,1783185970.1414,1,1,1.0000,-0.0000,1.44681,0.21439,-2.78223,0.99700,1.57080,0.00002,-0.14512,-0.38002,0.04165,,,,,,,,,,,,,,,,,,,,,,,,,,0,0,0,0,0
3.3456,1783185970.1485,1,1,1.0000,-0.0000,1.44681,0.21433,-2.78224,0.99708,1.57080,0.00002,-0.14512,-0.38002,0.04164,,,,,,,,,,,,,,,,,,,,,,,,,,0,0,0,0,0
3.3635,1783185970.1664,1,1,1.0000,-0.0000,1.44681,0.21423,-2.78226,0.99720,1.57080,0.00002,-0.14512,-0.38002,0.04161,,,,,,,,,,,,,,,,,,,,,,,,,,0,0,0,0,0
3.3639,1783185970.1668,1,1,1.0000,-0.0000,1.44681,0.21423,-2.78226,0.99720,1.57080,0.00002,-0.14512,-0.38002,0.04161,,,,,,,,,,,,,,,,,,,,,,,,,,0,0,0,0,0
3.3681,1783185970.1710,1,1,1.0000,-0.0000,1.44681,0.21420,-2.78227,0.99723,1.57080,0.00002,-0.14512,-0.38002,0.04160,,,,,,,,,,,,,,,,,,,,,,,,,,0,0,0,0,0
3.3685,1783185970.1714,1,1,1.0000,-0.0000,1.44681,0.21420,-2.78227,0.99723,1.57080,0.00002,-0.14512,-0.38002,0.04160,,,,,,,,,,,,,,,,,,,,,,,,,,0,0,0,0,0
3.3751,1783185970.1780,1,1,1.0000,-0.0000,1.44681,0.21412,-2.78229,0.99734,1.57080,0.00002,-0.14512,-0.38002,0.04158,,,,,,,,,,,,,,,,,,,,,,,,,,0,0,0,0,0
3.3853,1783185970.1882,1,1,1.0000,-0.0000,1.44681,0.21396,-2.78233,0.99754,1.57080,0.00002,-0.14512,-0.38002,0.04154,,,,,,,,,,,,,,,,,,,,,,,,,,0,0,0,0,0
3.3857,1783185970.1886,1,1,1.0000,-0.0000,1.44681,0.21396,-2.78233,0.99754,1.57080,0.00002,-0.14512,-0.38002,0.04154,,,,,,,,,,,,,,,,,,,,,,,,,,0,0,0,0,0
3.3972,1783185970.2001,1,1,1.0000,-0.0000,1.44681,0.21393,-2.78234,0.99757,1.57080,0.00002,-0.14512,-0.38002,0.04154,,,,,,,,,,,,,,,,,,,,,,,,,,0,0,0,0,0
3.4092,1783185970.2121,1,1,1.0000,-0.0000,1.44681,0.21383,-2.78236,0.99770,1.57080,0.00002,-0.14512,-0.38002,0.04151,,,,,,,,,,,,,,,,,,,,,,,,,,0,0,0,0,0
3.4166,1783185970.2195,1,1,1.0000,-0.0000,1.44681,0.21378,-2.78237,0.99776,1.57080,0.00002,-0.14512,-0.38002,0.04150,,,,,,,,,,,,,,,,,,,,,,,,,,0,0,0,0,0
3.4171,1783185970.2200,1,1,1.0000,-0.0000,1.44681,0.21378,-2.78237,0.99776,1.57080,0.00002,-0.14512,-0.38002,0.04150,,,,,,,,,,,,,,,,,,,,,,,,,,0,0,0,0,0
3.4220,1783185970.2249,1,1,1.0000,-0.0000,1.44681,0.21377,-2.78238,0.99777,1.57080,0.00002,-0.14512,-0.38002,0.04150,,,,,,,,,,,,,,,,,,,,,,,,,,0,0,0,0,0
3.4317,1783185970.2346,1,1,1.0000,-0.0000,1.44681,0.21371,-2.78239,0.99785,1.57080,0.00002,-0.14512,-0.38002,0.04148,,,,,,,,,,,,,,,,,,,,,,,,,,0,0,0,0,0
3.4503,1783185970.2532,1,1,1.0000,-0.0000,1.44681,0.21350,-2.78244,0.99811,1.57080,0.00002,-0.14512,-0.38002,0.04143,,,,,,,,,,,,,,,,,,,,,,,,,,0,0,0,0,0
3.4552,1783185970.2580,1,1,1.0000,-0.0000,1.44681,0.21349,-2.78244,0.99812,1.57080,0.00002,-0.14512,-0.38002,0.04142,,,,,,,,,,,,,,,,,,,,,,,,,,0,0,0,0,0
3.4639,1783185970.2668,1,1,1.0000,-0.0000,1.44681,0.21343,-2.78246,0.99820,1.57080,0.00002,-0.14512,-0.38002,0.04141,,,,,,,,,,,,,,,,,,,,,,,,,,0,0,0,0,0
3.4754,1783185970.2783,1,1,1.0000,-0.0000,1.44681,0.21328,-2.78250,0.99839,1.57080,0.00002,-0.14512,-0.38002,0.04137,,,,,,,,,,,,,,,,,,,,,,,,,,0,0,0,0,0
3.4887,1783185970.2916,1,1,1.0000,-0.0000,1.44681,0.21324,-2.78251,0.99843,1.57080,0.00002,-0.14512,-0.38002,0.04136,,,,,,,,,,,,,,,,,,,,,,,,,,0,0,0,0,0
3.5001,1783185970.3030,1,1,1.0000,-0.0000,1.44681,0.21311,-2.78254,0.99860,1.57080,0.00002,-0.14512,-0.38002,0.04133,,,,,,,,,,,,,,,,,,,,,,,,,,0,0,0,0,0
3.5005,1783185970.3034,1,1,1.0000,-0.0000,1.44681,0.21311,-2.78254,0.99860,1.57080,0.00002,-0.14512,-0.38002,0.04133,,,,,,,,,,,,,,,,,,,,,,,,,,0,0,0,0,0
3.5079,1783185970.3108,1,1,1.0000,-0.0000,1.44681,0.21300,-2.78256,0.99873,1.57080,0.00002,-0.14512,-0.38002,0.04130,,,,,,,,,,,,,,,,,,,,,,,,,,0,0,0,0,0
3.5151,1783185970.3180,1,1,1.0000,-0.0000,1.44681,0.21299,-2.78257,0.99874,1.57080,0.00002,-0.14512,-0.38002,0.04130,,,,,,,,,,,,,,,,,,,,,,,,,,0,0,0,0,0
3.5221,1783185970.3250,1,1,1.0000,-0.0000,1.44681,0.21293,-2.78258,0.99882,1.57080,0.00002,-0.14512,-0.38002,0.04128,,,,,,,,,,,,,,,,,,,,,,,,,,0,0,0,0,0
3.5454,1783185970.3483,1,1,1.0000,-0.0000,1.44681,0.21274,-2.78263,0.99905,1.57080,0.00002,-0.14512,-0.38002,0.04123,,,,,,,,,,,,,,,,,,,,,,,,,,0,0,0,0,0
3.5456,1783185970.3485,1,1,1.0000,-0.0000,1.44681,0.21274,-2.78263,0.99905,1.57080,0.00002,-0.14512,-0.38002,0.04123,,,,,,,,,,,,,,,,,,,,,,,,,,0,0,0,0,0
3.5541,1783185970.3570,1,1,1.0000,-0.0000,1.44681,0.21266,-2.78265,0.99915,1.57080,0.00002,-0.14512,-0.38002,0.04121,,,,,,,,,,,,,,,,,,,,,,,,,,0,0,0,0,0
3.5543,1783185970.3572,1,1,1.0000,-0.0000,1.44681,0.21266,-2.78265,0.99915,1.57080,0.00002,-0.14512,-0.38002,0.04121,,,,,,,,,,,,,,,,,,,,,,,,,,0,0,0,0,0
3.5681,1783185970.3710,1,1,1.0000,-0.0000,1.44681,0.21250,-2.78269,0.99935,1.57080,0.00002,-0.14512,-0.38002,0.04117,,,,,,,,,,,,,,,,,,,,,,,,,,0,0,0,0,0
3.5761,1783185970.3790,1,1,1.0000,-0.0000,1.44681,0.21249,-2.78269,0.99936,1.57080,0.00002,-0.14512,-0.38002,0.04117,,,,,,,,,,,,,,,,,,,,,,,,,,0,0,0,0,0
3.5862,1783185970.3891,1,1,1.0000,-0.0000,1.44681,0.21238,-2.78271,0.99950,1.57080,0.00002,-0.14512,-0.38002,0.04114,,,,,,,,,,,,,,,,,,,,,,,,,,0,0,0,0,0
3.5865,1783185970.3894,1,1,1.0000,-0.0000,1.44681,0.21238,-2.78271,0.99950,1.57080,0.00002,-0.14512,-0.38002,0.04114,,,,,,,,,,,,,,,,,,,,,,,,,,0,0,0,0,0
3.5942,1783185970.3971,1,1,1.0000,-0.0000,1.44681,0.21228,-2.78274,0.99963,1.57080,0.00002,-0.14512,-0.38002,0.04112,,,,,,,,,,,,,,,,,,,,,,,,,,0,0,0,0,0
3.6020,1783185970.4049,1,1,1.0000,-0.0000,1.44681,0.21227,-2.78274,0.99964,1.57080,0.00002,-0.14512,-0.38002,0.04111,,,,,,,,,,,,,,,,,,,,,,,,,,0,0,0,0,0
3.6164,1783185970.4193,1,1,1.0000,-0.0000,1.44681,0.21216,-2.78277,0.99978,1.57080,0.00002,-0.14512,-0.38002,0.04109,,,,,,,,,,,,,,,,,,,,,,,,,,0,0,0,0,0
3.6268,1783185970.4297,1,1,1.0000,-0.0000,1.44681,0.21200,-2.78281,0.99997,1.57080,0.00002,-0.14512,-0.38002,0.04105,,,,,,,,,,,,,,,,,,,,,,,,,,0,0,0,0,0
3.6317,1783185970.4346,1,1,1.0000,-0.0000,1.44681,0.21200,-2.78281,0.99997,1.57080,0.00002,-0.14512,-0.38002,0.04105,,,,,,,,,,,,,,,,,,,,,,,,,,0,0,0,0,0
3.6547,1783185970.4576,1,1,1.0000,-0.0000,1.44681,0.21178,-2.78286,1.00025,1.57080,0.00002,-0.14512,-0.38002,0.04099,,,,,,,,,,,,,,,,,,,,,,,,,,0,0,0,0,0
3.6664,1783185970.4693,1,1,1.0000,-0.0000,1.44681,0.21174,-2.78287,1.00029,1.57080,0.00002,-0.14512,-0.38002,0.04098,,,,,,,,,,,,,,,,,,,,,,,,,,0,0,0,0,0
3.6727,1783185970.4756,1,1,1.0000,-0.0000,1.44681,0.21170,-2.78288,1.00034,1.57080,0.00002,-0.14512,-0.38002,0.04097,,,,,,,,,,,,,,,,,,,,,,,,,,0,0,0,0,0
3.6836,1783185970.4865,1,1,1.0000,-0.0000,1.44681,0.21155,-2.78291,1.00053,1.57080,0.00002,-0.14512,-0.38002,0.04093,,,,,,,,,,,,,,,,,,,,,,,,,,0,0,0,0,0
3.6917,1783185970.4946,1,1,1.0000,-0.0000,1.44681,0.21150,-2.78293,1.00059,1.57080,0.00002,-0.14512,-0.38002,0.04092,,,,,,,,,,,,,,,,,,,,,,,,,,0,0,0,0,0
3.6920,1783185970.4949,1,1,1.0000,-0.0000,1.44681,0.21150,-2.78293,1.00059,1.57080,0.00002,-0.14512,-0.38002,0.04092,,,,,,,,,,,,,,,,,,,,,,,,,,0,0,0,0,0
3.7046,1783185970.5075,1,1,1.0000,-0.0000,1.44681,0.21143,-2.78295,1.00068,1.57080,0.00002,-0.14512,-0.38002,0.04090,,,,,,,,,,,,,,,,,,,,,,,,,,0,0,0,0,0
3.7291,1783185970.5320,1,1,1.0000,-0.0000,1.44681,0.21120,-2.78300,1.00097,1.57080,0.00002,-0.14512,-0.38002,0.04084,,,,,,,,,,,,,,,,,,,,,,,,,,0,0,0,0,0
3.7294,1783185970.5323,1,1,1.0000,-0.0000,1.44681,0.21120,-2.78300,1.00097,1.57080,0.00002,-0.14512,-0.38002,0.04084,,,,,,,,,,,,,,,,,,,,,,,,,,0,0,0,0,0
3.7380,1783185970.5409,1,1,1.0000,-0.0000,1.44681,0.21113,-2.78302,1.00105,1.57080,0.00002,-0.14512,-0.38002,0.04083,,,,,,,,,,,,,,,,,,,,,,,,,,0,0,0,0,0
3.7421,1783185970.5450,1,1,1.0000,-0.0000,1.44681,0.21109,-2.78303,1.00110,1.57080,0.00002,-0.14512,-0.38002,0.04082,,,,,,,,,,,,,,,,,,,,,,,,,,0,0,0,0,0
3.7564,1783185970.5593,1,1,1.0000,-0.0000,1.44681,0.21104,-2.78304,1.00117,1.57080,0.00002,-0.14512,-0.38002,0.04080,,,,,,,,,,,,,,,,,,,,,,,,,,0,0,0,0,0
3.7740,1783185970.5769,1,1,1.0000,-0.0000,1.44681,0.21082,-2.78309,1.00144,1.57080,0.00002,-0.14512,-0.38002,0.04074,,,,,,,,,,,,,,,,,,,,,,,,,,0,0,0,0,0
3.7742,1783185970.5771,1,1,1.0000,-0.0000,1.44681,0.21082,-2.78309,1.00144,1.57080,0.00002,-0.14512,-0.38002,0.04074,,,,,,,,,,,,,,,,,,,,,,,,,,0,0,0,0,0
3.7774,1783185970.5803,1,1,1.0000,-0.0000,1.44681,0.21082,-2.78309,1.00144,1.57080,0.00002,-0.14512,-0.38002,0.04074,,,,,,,,,,,,,,,,,,,,,,,,,,0,0,0,0,0
3.7778,1783185970.5807,1,1,1.0000,-0.0000,1.44681,0.21082,-2.78309,1.00144,1.57080,0.00002,-0.14512,-0.38002,0.04074,,,,,,,,,,,,,,,,,,,,,,,,,,0,0,0,0,0
3.7940,1783185970.5969,1,1,1.0000,-0.0000,1.44681,0.21070,-2.78312,1.00159,1.57080,0.00002,-0.14512,-0.38002,0.04072,,,,,,,,,,,,,,,,,,,,,,,,,,0,0,0,0,0
3.8001,1783185970.6030,1,1,1.0000,-0.0000,1.44681,0.21065,-2.78313,1.00165,1.57080,0.00002,-0.14512,-0.38002,0.04070,,,,,,,,,,,,,,,,,,,,,,,,,,0,0,0,0,0
3.8133,1783185970.6162,1,1,1.0000,-0.0000,1.44681,0.21053,-2.78316,1.00179,1.57080,0.00002,-0.14512,-0.38002,0.04067,,,,,,,,,,,,,,,,,,,,,,,,,,0,0,0,0,0
3.8137,1783185970.6166,1,1,1.0000,-0.0000,1.44681,0.21053,-2.78316,1.00179,1.57080,0.00002,-0.14512,-0.38002,0.04067,,,,,,,,,,,,,,,,,,,,,,,,,,0,0,0,0,0
3.8139,1783185970.6168,1,1,1.0000,-0.0000,1.44681,0.21053,-2.78316,1.00179,1.57080,0.00002,-0.14512,-0.38002,0.04067,,,,,,,,,,,,,,,,,,,,,,,,,,0,0,0,0,0
3.8277,1783185970.6306,1,1,1.0000,-0.0000,1.44681,0.21042,-2.78319,1.00193,1.57080,0.00002,-0.14512,-0.38002,0.04065,,,,,,,,,,,,,,,,,,,,,,,,,,0,0,0,0,0
3.8653,1783185970.6682,1,1,1.0000,-0.0000,1.44681,0.21009,-2.78327,1.00235,1.57080,0.00002,-0.14512,-0.38002,0.04056,,,,,,,,,,,,,,,,,,,,,,,,,,0,0,0,0,0
3.8658,1783185970.6687,1,1,1.0000,-0.0000,1.44681,0.21009,-2.78327,1.00235,1.57080,0.00002,-0.14512,-0.38002,0.04056,,,,,,,,,,,,,,,,,,,,,,,,,,0,0,0,0,0
3.8661,1783185970.6690,1,1,1.0000,-0.0000,1.44681,0.21009,-2.78327,1.00235,1.57080,0.00002,-0.14512,-0.38002,0.04056,,,,,,,,,,,,,,,,,,,,,,,,,,0,0,0,0,0
3.8767,1783185970.6796,1,1,1.0000,-0.0000,1.44681,0.21008,-2.78327,1.00236,1.57080,0.00002,-0.14512,-0.38002,0.04056,,,,,,,,,,,,,,,,,,,,,,,,,,0,0,0,0,0
3.8892,1783185970.6921,1,1,1.0000,-0.0000,1.44681,0.20991,-2.78331,1.00257,1.57080,0.00002,-0.14512,-0.38002,0.04052,,,,,,,,,,,,,,,,,,,,,,,,,,0,0,0,0,0
3.8895,1783185970.6924,1,1,1.0000,-0.0000,1.44681,0.20991,-2.78331,1.00257,1.57080,0.00002,-0.14512,-0.38002,0.04052,,,,,,,,,,,,,,,,,,,,,,,,,,0,0,0,0,0
3.9029,1783185970.7058,1,1,1.0000,-0.0000,1.44680,0.20980,-2.78334,1.00270,1.57080,0.00002,-0.14512,-0.38002,0.04049,,,,,,,,,,,,,,,,,,,,,,,,,,0,0,0,0,0
3.9056,1783185970.7085,1,1,1.0000,-0.0000,1.44680,0.20980,-2.78334,1.00271,1.57080,0.00002,-0.14512,-0.38002,0.04049,,,,,,,,,,,,,,,,,,,,,,,,,,0,0,0,0,0
3.9119,1783185970.7148,1,1,1.0000,-0.0000,1.44680,0.20978,-2.78334,1.00273,1.57080,0.00002,-0.14512,-0.38002,0.04048,,,,,,,,,,,,,,,,,,,,,,,,,,0,0,0,0,0
3.9254,1783185970.7283,1,1,1.0000,-0.0000,1.44680,0.20963,-2.78338,1.00292,1.57080,0.00002,-0.14512,-0.38002,0.04044,,,,,,,,,,,,,,,,,,,,,,,,,,0,0,0,0,0
3.9258,1783185970.7287,1,1,1.0000,-0.0000,1.44680,0.20963,-2.78338,1.00292,1.57080,0.00002,-0.14512,-0.38002,0.04044,,,,,,,,,,,,,,,,,,,,,,,,,,0,0,0,0,0
3.9374,1783185970.7403,1,1,1.0000,-0.0000,1.44680,0.20959,-2.78339,1.00296,1.57079,0.00002,-0.14512,-0.38002,0.04044,,,,,,,,,,,,,,,,,,,,,,,,,,0,0,0,0,0
3.9440,1783185970.7469,1,1,1.0000,-0.0000,1.44680,0.20955,-2.78340,1.00301,1.57079,0.00002,-0.14512,-0.38002,0.04043,,,,,,,,,,,,,,,,,,,,,,,,,,0,0,0,0,0
3.9593,1783185970.7622,1,1,1.0000,-0.0000,1.44680,0.20934,-2.78345,1.00327,1.57079,0.00002,-0.14512,-0.38002,0.04037,,,,,,,,,,,,,,,,,,,,,,,,,,0,0,0,0,0
3.9637,1783185970.7666,1,1,1.0000,-0.0000,1.44680,0.20934,-2.78345,1.00327,1.57079,0.00002,-0.14512,-0.38002,0.04037,,,,,,,,,,,,,,,,,,,,,,,,,,0,0,0,0,0
3.9641,1783185970.7670,1,1,1.0000,-0.0000,1.44680,0.20934,-2.78345,1.00327,1.57079,0.00002,-0.14512,-0.38002,0.04037,,,,,,,,,,,,,,,,,,,,,,,,,,0,0,0,0,0
3.9738,1783185970.7767,1,1,1.0000,-0.0000,1.44680,0.20929,-2.78346,1.00334,1.57079,0.00002,-0.14512,-0.38002,0.04036,,,,,,,,,,,,,,,,,,,,,,,,,,0,0,0,0,0
3.9839,1783185970.7868,1,1,1.0000,-0.0000,1.44680,0.20921,-2.78348,1.00343,1.57079,0.00002,-0.14512,-0.38002,0.04034,,,,,,,,,,,,,,,,,,,,,,,,,,0,0,0,0,0
3.9919,1783185970.7948,1,1,1.0000,-0.0000,1.44680,0.20917,-2.78349,1.00349,1.57079,0.00002,-0.14512,-0.38002,0.04033,,,,,,,,,,,,,,,,,,,,,,,,,,0,0,0,0,0
4.0063,1783185970.8092,1,1,1.0000,-0.0000,1.44680,0.20904,-2.78352,1.00364,1.57079,0.00002,-0.14512,-0.38002,0.04030,,,,,,,,,,,,,,,,,,,,,,,,,,0,0,0,0,0
4.0121,1783185970.8150,1,1,1.0000,-0.0000,1.44680,0.20899,-2.78353,1.00371,1.57079,0.00002,-0.14512,-0.38002,0.04028,,,,,,,,,,,,,,,,,,,,,,,,,,0,0,0,0,0
4.0226,1783185970.8255,1,1,1.0000,-0.0000,1.44680,0.20888,-2.78356,1.00384,1.57079,0.00002,-0.14512,-0.38002,0.04026,,,,,,,,,,,,,,,,,,,,,,,,,,0,0,0,0,0
4.0352,1783185970.8381,1,1,1.0000,-0.0000,1.44680,0.20883,-2.78357,1.00391,1.57079,0.00002,-0.14512,-0.38002,0.04024,,,,,,,,,,,,,,,,,,,,,,,,,,0,0,0,0,0
4.0416,1783185970.8445,1,1,1.0000,-0.0000,1.44680,0.20875,-2.78359,1.00400,1.57079,0.00002,-0.14512,-0.38002,0.04022,,,,,,,,,,,,,,,,,,,,,,,,,,0,0,0,0,0
4.0419,1783185970.8448,1,1,1.0000,-0.0000,1.44680,0.20875,-2.78359,1.00400,1.57079,0.00002,-0.14512,-0.38002,0.04022,,,,,,,,,,,,,,,,,,,,,,,,,,0,0,0,0,0
4.0601,1783185970.8630,1,1,1.0000,-0.0000,1.44680,0.20867,-2.78361,1.00410,1.57079,0.00002,-0.14512,-0.38002,0.04020,,,,,,,,,,,,,,,,,,,,,,,,,,0,0,0,0,0
4.0679,1783185970.8708,1,1,1.0000,-0.0000,1.44680,0.20858,-2.78363,1.00421,1.57079,0.00002,-0.14512,-0.38002,0.04018,,,,,,,,,,,,,,,,,,,,,,,,,,0,0,0,0,0
4.0760,1783185970.8789,1,1,1.0000,-0.0000,1.44680,0.20848,-2.78366,1.00435,1.57079,0.00002,-0.14512,-0.38002,0.04015,,,,,,,,,,,,,,,,,,,,,,,,,,0,0,0,0,0
4.0763,1783185970.8792,1,1,1.0000,-0.0000,1.44680,0.20848,-2.78366,1.00435,1.57079,0.00002,-0.14512,-0.38002,0.04015,,,,,,,,,,,,,,,,,,,,,,,,,,0,0,0,0,0
4.0865,1783185970.8894,1,1,1.0000,-0.0000,1.44680,0.20841,-2.78367,1.00442,1.57079,0.00002,-0.14512,-0.38002,0.04014,,,,,,,,,,,,,,,,,,,,,,,,,,0,0,0,0,0
4.0921,1783185970.8950,1,1,1.0000,-0.0000,1.44680,0.20839,-2.78368,1.00446,1.57079,0.00002,-0.14512,-0.38002,0.04013,,,,,,,,,,,,,,,,,,,,,,,,,,0,0,0,0,0
4.1078,1783185970.9107,1,1,1.0000,-0.0000,1.44680,0.20820,-2.78372,1.00469,1.57079,0.00002,-0.14512,-0.38002,0.04008,,,,,,,,,,,,,,,,,,,,,,,,,,0,0,0,0,0
4.1142,1783185970.9171,1,1,1.0000,-0.0000,1.44680,0.20819,-2.78373,1.00470,1.57079,0.00002,-0.14512,-0.38002,0.04008,,,,,,,,,,,,,,,,,,,,,,,,,,0,0,0,0,0
4.1246,1783185970.9275,1,1,1.0000,-0.0000,1.44680,0.20812,-2.78374,1.00478,1.57079,0.00002,-0.14512,-0.38002,0.04006,,,,,,,,,,,,,,,,,,,,,,,,,,0,0,0,0,0
4.1365,1783185970.9394,1,1,1.0000,-0.0000,1.44680,0.20797,-2.78378,1.00497,1.57079,0.00002,-0.14512,-0.38002,0.04003,,,,,,,,,,,,,,,,,,,,,,,,,,0,0,0,0,0
4.1440,1783185970.9469,1,1,1.0000,-0.0000,1.44680,0.20792,-2.78379,1.00503,1.57079,0.00002,-0.14512,-0.38002,0.04001,,,,,,,,,,,,,,,,,,,,,,,,,,0,0,0,0,0
4.1571,1783185970.9600,1,1,1.0000,-0.0000,1.44680,0.20783,-2.78381,1.00515,1.57079,0.00002,-0.14512,-0.38002,0.03999,,,,,,,,,,,,,,,,,,,,,,,,,,0,0,0,0,0
4.1681,1783185970.9710,1,1,1.0000,-0.0000,1.44680,0.20774,-2.78383,1.00526,1.57079,0.00002,-0.14512,-0.38002,0.03997,,,,,,,,,,,,,,,,,,,,,,,,,,0,0,0,0,0
4.1856,1783185970.9885,1,1,1.0000,-0.0000,1.44680,0.20762,-2.78386,1.00541,1.57079,0.00002,-0.14512,-0.38002,0.03994,,,,,,,,,,,,,,,,,,,,,,,,,,0,0,0,0,0
4.1963,1783185970.9992,1,1,1.0000,-0.0000,1.44680,0.20751,-2.78389,1.00554,1.57079,0.00002,-0.14512,-0.38002,0.03991,,,,,,,,,,,,,,,,,,,,,,,,,,0,0,0,0,0
4.2063,1783185971.0092,1,1,1.0000,-0.0000,1.44680,0.20745,-2.78390,1.00562,1.57079,0.00002,-0.14512,-0.38002,0.03989,,,,,,,,,,,,,,,,,,,,,,,,,,0,0,0,0,0
4.2201,1783185971.0230,1,1,1.0000,-0.0000,1.44680,0.20734,-2.78393,1.00576,1.57079,0.00002,-0.14512,-0.38002,0.03987,,,,,,,,,,,,,,,,,,,,,,,,,,0,0,0,0,0
4.2239,1783185971.0268,1,1,1.0000,-0.0000,1.44680,0.20729,-2.78394,1.00582,1.57079,0.00002,-0.14512,-0.38002,0.03985,,,,,,,,,,,,,,,,,,,,,,,,,,0,0,0,0,0
4.2333,1783185971.0362,1,1,1.0000,-0.0000,1.44680,0.20722,-2.78396,1.00590,1.57079,0.00002,-0.14512,-0.38002,0.03984,,,,,,,,,,,,,,,,,,,,,,,,,,0,0,0,0,0
4.2438,1783185971.0467,1,1,1.0000,-0.0000,1.44680,0.20716,-2.78397,1.00598,1.57079,0.00002,-0.14512,-0.38002,0.03982,,,,,,,,,,,,,,,,,,,,,,,,,,0,0,0,0,0
4.2443,1783185971.0472,1,1,1.0000,-0.0000,1.44680,0.20716,-2.78397,1.00598,1.57079,0.00002,-0.14512,-0.38002,0.03982,,,,,,,,,,,,,,,,,,,,,,,,,,0,0,0,0,0
4.2583,1783185971.0612,1,1,1.0000,-0.0000,1.44680,0.20695,-2.78402,1.00623,1.57079,0.00002,-0.14512,-0.38002,0.03977,,,,,,,,,,,,,,,,,,,,,,,,,,0,0,0,0,0
4.2673,1783185971.0702,1,1,1.0000,-0.0000,1.44680,0.20695,-2.78402,1.00624,1.57079,0.00002,-0.14512,-0.38002,0.03977,,,,,,,,,,,,,,,,,,,,,,,,,,0,0,0,0,0
4.2676,1783185971.0705,1,1,1.0000,-0.0000,1.44680,0.20695,-2.78402,1.00624,1.57079,0.00002,-0.14512,-0.38002,0.03977,,,,,,,,,,,,,,,,,,,,,,,,,,0,0,0,0,0
4.2741,1783185971.0770,1,1,1.0000,-0.0000,1.44680,0.20688,-2.78404,1.00632,1.57079,0.00002,-0.14512,-0.38002,0.03975,,,,,,,,,,,,,,,,,,,,,,,,,,0,0,0,0,0
4.2878,1783185971.0907,1,1,1.0000,-0.0000,1.44680,0.20673,-2.78408,1.00651,1.57079,0.00002,-0.14512,-0.38002,0.03971,,,,,,,,,,,,,,,,,,,,,,,,,,0,0,0,0,0
4.2932,1783185971.0961,1,1,1.0000,-0.0000,1.44680,0.20672,-2.78408,1.00652,1.57079,0.00002,-0.14512,-0.38002,0.03971,,,,,,,,,,,,,,,,,,,,,,,,,,0,0,0,0,0
4.3031,1783185971.1060,1,1,1.0000,-0.0000,1.44680,0.20666,-2.78409,1.00660,1.57079,0.00002,-0.14512,-0.38002,0.03969,,,,,,,,,,,,,,,,,,,,,,,,,,0,0,0,0,0
4.3034,1783185971.1063,1,1,1.0000,-0.0000,1.44680,0.20666,-2.78409,1.00660,1.57079,0.00002,-0.14512,-0.38002,0.03969,,,,,,,,,,,,,,,,,,,,,,,,,,0,0,0,0,0
4.3133,1783185971.1162,1,1,1.0000,-0.0000,1.44680,0.20650,-2.78413,1.00679,1.57079,0.00002,-0.14512,-0.38002,0.03966,,,,,,,,,,,,,,,,,,,,,,,,,,0,0,0,0,0
4.3239,1783185971.1268,1,1,1.0000,-0.0000,1.44680,0.20645,-2.78414,1.00686,1.57079,0.00002,-0.14512,-0.38002,0.03964,,,,,,,,,,,,,,,,,,,,,,,,,,0,0,0,0,0
4.3381,1783185971.1410,1,1,1.0000,-0.0000,1.44680,0.20633,-2.78417,1.00700,1.57079,0.00002,-0.14512,-0.38002,0.03961,,,,,,,,,,,,,,,,,,,,,,,,,,0,0,0,0,0
4.3423,1783185971.1452,1,1,1.0000,-0.0000,1.44680,0.20628,-2.78418,1.00707,1.57079,0.00002,-0.14512,-0.38002,0.03960,,,,,,,,,,,,,,,,,,,,,,,,,,0,0,0,0,0
4.3552,1783185971.1580,1,1,1.0000,-0.0000,1.44680,0.20621,-2.78420,1.00715,1.57079,0.00002,-0.14512,-0.38002,0.03958,,,,,,,,,,,,,,,,,,,,,,,,,,0,0,0,0,0
4.3717,1783185971.1746,1,1,1.0000,-0.0000,1.44680,0.20605,-2.78424,1.00735,1.57079,0.00002,-0.14512,-0.38002,0.03954,,,,,,,,,,,,,,,,,,,,,,,,,,0,0,0,0,0
4.3833,1783185971.1862,1,1,1.0000,-0.0000,1.44680,0.20595,-2.78426,1.00748,1.57079,0.00002,-0.14512,-0.38002,0.03952,,,,,,,,,,,,,,,,,,,,,,,,,,0,0,0,0,0
4.3892,1783185971.1921,1,1,1.0000,-0.0000,1.44680,0.20591,-2.78427,1.00752,1.57079,0.00002,-0.14512,-0.38002,0.03951,,,,,,,,,,,,,,,,,,,,,,,,,,0,0,0,0,0
4.3918,1783185971.1947,1,1,1.0000,-0.0000,1.44680,0.20591,-2.78427,1.00752,1.57079,0.00002,-0.14512,-0.38002,0.03951,,,,,,,,,,,,,,,,,,,,,,,,,,0,0,0,0,0
4.3921,1783185971.1950,1,1,1.0000,-0.0000,1.44680,0.20591,-2.78427,1.00752,1.57079,0.00002,-0.14512,-0.38002,0.03951,,,,,,,,,,,,,,,,,,,,,,,,,,0,0,0,0,0
4.4069,1783185971.2098,1,1,1.0000,-0.0000,1.44680,0.20572,-2.78432,1.00776,1.57079,0.00002,-0.14512,-0.38002,0.03946,,,,,,,,,,,,,,,,,,,,,,,,,,0,0,0,0,0
4.4221,1783185971.2250,1,1,1.0000,-0.0000,1.44680,0.20565,-2.78433,1.00785,1.57079,0.00002,-0.14512,-0.38002,0.03944,,,,,,,,,,,,,,,,,,,,,,,,,,0,0,0,0,0
4.4258,1783185971.2287,1,1,1.0000,-0.0000,1.44680,0.20560,-2.78434,1.00791,1.57079,0.00002,-0.14512,-0.38002,0.03943,,,,,,,,,,,,,,,,,,,,,,,,,,0,0,0,0,0
4.4262,1783185971.2291,1,1,1.0000,-0.0000,1.44680,0.20560,-2.78434,1.00791,1.57079,0.00002,-0.14512,-0.38002,0.03943,,,,,,,,,,,,,,,,,,,,,,,,,,0,0,0,0,0
4.4382,1783185971.2411,1,1,1.0000,-0.0000,1.44680,0.20544,-2.78438,1.00810,1.57079,0.00002,-0.14512,-0.38002,0.03939,,,,,,,,,,,,,,,,,,,,,,,,,,0,0,0,0,0
4.4418,1783185971.2447,1,1,1.0000,-0.0000,1.44680,0.20544,-2.78438,1.00810,1.57079,0.00002,-0.14512,-0.38002,0.03939,,,,,,,,,,,,,,,,,,,,,,,,,,0,0,0,0,0
4.4422,1783185971.2451,1,1,1.0000,-0.0000,1.44680,0.20544,-2.78438,1.00810,1.57079,0.00002,-0.14512,-0.38002,0.03939,,,,,,,,,,,,,,,,,,,,,,,,,,0,0,0,0,0
4.4539,1783185971.2568,1,1,1.0000,-0.0000,1.44680,0.20537,-2.78440,1.00819,1.57079,0.00002,-0.14512,-0.38002,0.03937,,,,,,,,,,,,,,,,,,,,,,,,,,0,0,0,0,0
4.4633,1783185971.2662,1,1,1.0000,-0.0000,1.44680,0.20527,-2.78442,1.00832,1.57079,0.00002,-0.14512,-0.38002,0.03935,,,,,,,,,,,,,,,,,,,,,,,,,,0,0,0,0,0
4.4636,1783185971.2665,1,1,1.0000,-0.0000,1.44680,0.20527,-2.78442,1.00832,1.57079,0.00002,-0.14512,-0.38002,0.03935,,,,,,,,,,,,,,,,,,,,,,,,,,0,0,0,0,0
4.4760,1783185971.2789,1,1,1.0000,-0.0000,1.44680,0.20516,-2.78445,1.00845,1.57079,0.00002,-0.14512,-0.38002,0.03932,,,,,,,,,,,,,,,,,,,,,,,,,,0,0,0,0,0
4.4763,1783185971.2792,1,1,1.0000,-0.0000,1.44680,0.20516,-2.78445,1.00845,1.57079,0.00002,-0.14512,-0.38002,0.03932,,,,,,,,,,,,,,,,,,,,,,,,,,0,0,0,0,0
4.4894,1783185971.2923,1,1,1.0000,-0.0000,1.44680,0.20507,-2.78447,1.00856,1.57079,0.00002,-0.14512,-0.38002,0.03930,,,,,,,,,,,,,,,,,,,,,,,,,,0,0,0,0,0
4.4954,1783185971.2983,1,1,1.0000,-0.0000,1.44680,0.20503,-2.78448,1.00861,1.57079,0.00002,-0.14512,-0.38002,0.03929,,,,,,,,,,,,,,,,,,,,,,,,,,0,0,0,0,0
4.5143,1783185971.3172,1,1,1.0000,-0.0000,1.44680,0.20491,-2.78451,1.00876,1.57079,0.00002,-0.14512,-0.38002,0.03926,,,,,,,,,,,,,,,,,,,,,,,,,,0,0,0,0,0
4.5149,1783185971.3178,1,1,1.0000,-0.0000,1.44680,0.20491,-2.78451,1.00876,1.57079,0.00002,-0.14512,-0.38002,0.03926,,,,,,,,,,,,,,,,,,,,,,,,,,0,0,0,0,0
4.5243,1783185971.3272,1,1,1.0000,-0.0000,1.44680,0.20481,-2.78453,1.00889,1.57079,0.00002,-0.14512,-0.38002,0.03923,,,,,,,,,,,,,,,,,,,,,,,,,,0,0,0,0,0
4.5444,1783185971.3473,1,1,1.0000,-0.0000,1.44680,0.20467,-2.78456,1.00906,1.57079,0.00002,-0.14512,-0.38002,0.03920,,,,,,,,,,,,,,,,,,,,,,,,,,0,0,0,0,0
4.5455,1783185971.3484,1,1,1.0000,-0.0000,1.44680,0.20465,-2.78457,1.00909,1.57079,0.00002,-0.14512,-0.38002,0.03919,,,,,,,,,,,,,,,,,,,,,,,,,,0,0,0,0,0
4.5459,1783185971.3488,1,1,1.0000,-0.0000,1.44680,0.20465,-2.78457,1.00909,1.57079,0.00002,-0.14512,-0.38002,0.03919,,,,,,,,,,,,,,,,,,,,,,,,,,0,0,0,0,0
4.5523,1783185971.3552,1,1,1.0000,-0.0000,1.44680,0.20461,-2.78458,1.00913,1.57079,0.00002,-0.14512,-0.38002,0.03918,,,,,,,,,,,,,,,,,,,,,,,,,,0,0,0,0,0
4.5527,1783185971.3556,1,1,1.0000,-0.0000,1.44680,0.20461,-2.78458,1.00913,1.57079,0.00002,-0.14512,-0.38002,0.03918,,,,,,,,,,,,,,,,,,,,,,,,,,0,0,0,0,0
4.5699,1783185971.3728,1,1,1.0000,-0.0000,1.44680,0.20449,-2.78461,1.00929,1.57079,0.00002,-0.14512,-0.38002,0.03915,,,,,,,,,,,,,,,,,,,,,,,,,,0,0,0,0,0
4.5731,1783185971.3760,1,1,1.0000,-0.0000,1.44680,0.20445,-2.78462,1.00934,1.57079,0.00002,-0.14512,-0.38002,0.03914,,,,,,,,,,,,,,,,,,,,,,,,,,0,0,0,0,0
4.5734,1783185971.3763,1,1,1.0000,-0.0000,1.44680,0.20445,-2.78462,1.00934,1.57079,0.00002,-0.14512,-0.38002,0.03914,,,,,,,,,,,,,,,,,,,,,,,,,,0,0,0,0,0
4.5880,1783185971.3909,1,1,1.0000,-0.0000,1.44680,0.20429,-2.78466,1.00953,1.57079,0.00002,-0.14512,-0.38002,0.03910,,,,,,,,,,,,,,,,,,,,,,,,,,0,0,0,0,0
4.5918,1783185971.3946,1,1,1.0000,-0.0000,1.44680,0.20423,-2.78467,1.00960,1.57079,0.00002,-0.14512,-0.38002,0.03909,,,,,,,,,,,,,,,,,,,,,,,,,,0,0,0,0,0
4.5921,1783185971.3950,1,1,1.0000,-0.0000,1.44680,0.20423,-2.78467,1.00960,1.57079,0.00002,-0.14512,-0.38002,0.03909,,,,,,,,,,,,,,,,,,,,,,,,,,0,0,0,0,0
4.6066,1783185971.4095,1,1,1.0000,-0.0000,1.44680,0.20418,-2.78468,1.00966,1.57079,0.00002,-0.14512,-0.38002,0.03907,,,,,,,,,,,,,,,,,,,,,,,,,,0,0,0,0,0
4.6360,1783185971.4389,1,1,1.0000,-0.0000,1.44680,0.20398,-2.78473,1.00991,1.57079,0.00002,-0.14512,-0.38002,0.03902,,,,,,,,,,,,,,,,,,,,,,,,,,0,0,0,0,0
4.6364,1783185971.4393,1,1,1.0000,-0.0000,1.44680,0.20398,-2.78473,1.00991,1.57079,0.00002,-0.14512,-0.38002,0.03902,,,,,,,,,,,,,,,,,,,,,,,,,,0,0,0,0,0
4.6500,1783185971.4529,1,1,1.0000,-0.0000,1.44680,0.20377,-2.78478,1.01017,1.57079,0.00002,-0.14512,-0.38002,0.03897,,,,,,,,,,,,,,,,,,,,,,,,,,0,0,0,0,0
4.6537,1783185971.4566,1,1,1.0000,-0.0000,1.44680,0.20377,-2.78478,1.01017,1.57079,0.00002,-0.14512,-0.38002,0.03897,,,,,,,,,,,,,,,,,,,,,,,,,,0,0,0,0,0
4.6541,1783185971.4570,1,1,1.0000,-0.0000,1.44680,0.20377,-2.78478,1.01017,1.57079,0.00002,-0.14512,-0.38002,0.03897,,,,,,,,,,,,,,,,,,,,,,,,,,0,0,0,0,0
4.6752,1783185971.4781,1,1,1.0000,-0.0000,1.44680,0.20364,-2.78481,1.01033,1.57079,0.00002,-0.14512,-0.38002,0.03894,,,,,,,,,,,,,,,,,,,,,,,,,,0,0,0,0,0
4.6757,1783185971.4786,1,1,1.0000,-0.0000,1.44680,0.20364,-2.78481,1.01033,1.57079,0.00002,-0.14512,-0.38002,0.03894,,,,,,,,,,,,,,,,,,,,,,,,,,0,0,0,0,0
4.6772,1783185971.4801,1,1,1.0000,-0.0000,1.44680,0.20359,-2.78482,1.01039,1.57079,0.00002,-0.14512,-0.38002,0.03893,,,,,,,,,,,,,,,,,,,,,,,,,,0,0,0,0,0
4.6774,1783185971.4803,1,1,1.0000,-0.0000,1.44680,0.20359,-2.78482,1.01039,1.57079,0.00002,-0.14512,-0.38002,0.03893,,,,,,,,,,,,,,,,,,,,,,,,,,0,0,0,0,0
4.6913,1783185971.4942,1,1,1.0000,-0.0000,1.44680,0.20356,-2.78483,1.01043,1.57079,0.00002,-0.14512,-0.38002,0.03892,,,,,,,,,,,,,,,,,,,,,,,,,,0,0,0,0,0
4.6917,1783185971.4946,1,1,1.0000,-0.0000,1.44680,0.20356,-2.78483,1.01043,1.57079,0.00002,-0.14512,-0.38002,0.03892,,,,,,,,,,,,,,,,,,,,,,,,,,0,0,0,0,0
4.6921,1783185971.4950,1,1,1.0000,-0.0000,1.44680,0.20356,-2.78483,1.01043,1.57079,0.00002,-0.14512,-0.38002,0.03892,,,,,,,,,,,,,,,,,,,,,,,,,,0,0,0,0,0
4.7053,1783185971.5082,1,1,1.0000,-0.0000,1.44680,0.20336,-2.78488,1.01068,1.57079,0.00002,-0.14512,-0.38002,0.03887,,,,,,,,,,,,,,,,,,,,,,,,,,0,0,0,0,0
4.7126,1783185971.5155,1,1,1.0000,-0.0000,1.44680,0.20331,-2.78489,1.01074,1.57079,0.00002,-0.14512,-0.38002,0.03885,,,,,,,,,,,,,,,,,,,,,,,,,,0,0,0,0,0
4.7131,1783185971.5160,1,1,1.0000,-0.0000,1.44680,0.20331,-2.78489,1.01074,1.57079,0.00002,-0.14512,-0.38002,0.03885,,,,,,,,,,,,,,,,,,,,,,,,,,0,0,0,0,0
4.7285,1783185971.5314,1,1,1.0000,-0.0000,1.44680,0.20325,-2.78490,1.01081,1.57079,0.00002,-0.14512,-0.38002,0.03884,,,,,,,,,,,,,,,,,,,,,,,,,,0,0,0,0,0
4.7293,1783185971.5322,1,1,1.0000,-0.0000,1.44680,0.20322,-2.78491,1.01086,1.57079,0.00002,-0.14512,-0.38002,0.03883,,,,,,,,,,,,,,,,,,,,,,,,,,0,0,0,0,0
4.7350,1783185971.5379,1,1,1.0000,-0.0000,1.44680,0.20318,-2.78492,1.01091,1.57079,0.00002,-0.14512,-0.38002,0.03882,,,,,,,,,,,,,,,,,,,,,,,,,,0,0,0,0,0
4.7419,1783185971.5448,1,1,1.0000,-0.0000,1.44680,0.20313,-2.78493,1.01096,1.57079,0.00002,-0.14512,-0.38002,0.03881,,,,,,,,,,,,,,,,,,,,,,,,,,0,0,0,0,0
4.7575,1783185971.5604,1,1,1.0000,-0.0000,1.44680,0.20301,-2.78496,1.01112,1.57079,0.00002,-0.14512,-0.38002,0.03878,,,,,,,,,,,,,,,,,,,,,,,,,,0,0,0,0,0
4.7578,1783185971.5607,1,1,1.0000,-0.0000,1.44680,0.20301,-2.78496,1.01112,1.57079,0.00002,-0.14512,-0.38002,0.03878,,,,,,,,,,,,,,,,,,,,,,,,,,0,0,0,0,0
4.7614,1783185971.5643,1,1,1.0000,-0.0000,1.44680,0.20295,-2.78497,1.01118,1.57079,0.00002,-0.14512,-0.38002,0.03876,,,,,,,,,,,,,,,,,,,,,,,,,,0,0,0,0,0
4.7617,1783185971.5646,1,1,1.0000,-0.0000,1.44680,0.20295,-2.78497,1.01118,1.57079,0.00002,-0.14512,-0.38002,0.03876,,,,,,,,,,,,,,,,,,,,,,,,,,0,0,0,0,0
4.7778,1783185971.5807,1,1,1.0000,-0.0000,1.44680,0.20283,-2.78500,1.01133,1.57079,0.00002,-0.14512,-0.38002,0.03874,,,,,,,,,,,,,,,,,,,,,,,,,,0,0,0,0,0
4.7840,1783185971.5869,1,1,1.0000,-0.0000,1.44680,0.20281,-2.78501,1.01136,1.57079,0.00002,-0.14512,-0.38002,0.03873,,,,,,,,,,,,,,,,,,,,,,,,,,0,0,0,0,0
4.7843,1783185971.5872,1,1,1.0000,-0.0000,1.44680,0.20281,-2.78501,1.01136,1.57079,0.00002,-0.14512,-0.38002,0.03873,,,,,,,,,,,,,,,,,,,,,,,,,,0,0,0,0,0
4.7987,1783185971.6016,1,1,1.0000,-0.0000,1.44680,0.20262,-2.78505,1.01160,1.57079,0.00002,-0.14512,-0.38002,0.03868,,,,,,,,,,,,,,,,,,,,,,,,,,0,0,0,0,0
4.8016,1783185971.6045,1,1,1.0000,-0.0000,1.44680,0.20262,-2.78505,1.01160,1.57079,0.00002,-0.14512,-0.38002,0.03868,,,,,,,,,,,,,,,,,,,,,,,,,,0,0,0,0,0
4.8019,1783185971.6048,1,1,1.0000,-0.0000,1.44680,0.20262,-2.78505,1.01160,1.57079,0.00002,-0.14512,-0.38002,0.03868,,,,,,,,,,,,,,,,,,,,,,,,,,0,0,0,0,0
4.8114,1783185971.6143,1,1,1.0000,-0.0000,1.44680,0.20258,-2.78506,1.01164,1.57079,0.00002,-0.14512,-0.38002,0.03867,,,,,,,,,,,,,,,,,,,,,,,,,,0,0,0,0,0
4.8118,1783185971.6147,1,1,1.0000,-0.0000,1.44680,0.20258,-2.78506,1.01164,1.57079,0.00002,-0.14512,-0.38002,0.03867,,,,,,,,,,,,,,,,,,,,,,,,,,0,0,0,0,0
4.8252,1783185971.6281,1,1,1.0000,-0.0000,1.44680,0.20239,-2.78510,1.01188,1.57079,0.00002,-0.14512,-0.38002,0.03862,,,,,,,,,,,,,,,,,,,,,,,,,,0,0,0,0,0
4.8356,1783185971.6385,1,1,1.0000,-0.0000,1.44680,0.20234,-2.78512,1.01194,1.57079,0.00002,-0.14512,-0.38002,0.03861,,,,,,,,,,,,,,,,,,,,,,,,,,0,0,0,0,0
4.8434,1783185971.6463,1,1,1.0000,-0.0000,1.44680,0.20230,-2.78513,1.01199,1.57079,0.00002,-0.14512,-0.38002,0.03860,,,,,,,,,,,,,,,,,,,,,,,,,,0,0,0,0,0
4.8539,1783185971.6568,1,1,1.0000,-0.0000,1.44680,0.20216,-2.78516,1.01216,1.57079,0.00002,-0.14512,-0.38002,0.03857,,,,,,,,,,,,,,,,,,,,,,,,,,0,0,0,0,0
4.8542,1783185971.6571,1,1,1.0000,-0.0000,1.44680,0.20216,-2.78516,1.01216,1.57079,0.00002,-0.14512,-0.38002,0.03857,,,,,,,,,,,,,,,,,,,,,,,,,,0,0,0,0,0
4.8629,1783185971.6658,1,1,1.0000,-0.0000,1.44680,0.20211,-2.78517,1.01223,1.57079,0.00002,-0.14512,-0.38002,0.03855,,,,,,,,,,,,,,,,,,,,,,,,,,0,0,0,0,0
4.8724,1783185971.6753,1,1,1.0000,-0.0000,1.44680,0.20207,-2.78518,1.01227,1.57079,0.00002,-0.14512,-0.38002,0.03855,,,,,,,,,,,,,,,,,,,,,,,,,,0,0,0,0,0
4.8855,1783185971.6884,1,1,1.0000,-0.0000,1.44680,0.20188,-2.78522,1.01250,1.57079,0.00002,-0.14512,-0.38001,0.03850,,,,,,,,,,,,,,,,,,,,,,,,,,0,0,0,0,0
4.8858,1783185971.6887,1,1,1.0000,-0.0000,1.44680,0.20188,-2.78522,1.01250,1.57079,0.00002,-0.14512,-0.38001,0.03850,,,,,,,,,,,,,,,,,,,,,,,,,,0,0,0,0,0
4.8955,1783185971.6984,1,1,1.0000,-0.0000,1.44680,0.20183,-2.78524,1.01257,1.57079,0.00002,-0.14512,-0.38001,0.03848,,,,,,,,,,,,,,,,,,,,,,,,,,0,0,0,0,0
4.9041,1783185971.7070,1,1,1.0000,-0.0000,1.44680,0.20179,-2.78524,1.01261,1.57079,0.00002,-0.14512,-0.38001,0.03848,,,,,,,,,,,,,,,,,,,,,,,,,,0,0,0,0,0
4.9114,1783185971.7143,1,1,1.0000,-0.0000,1.44680,0.20171,-2.78527,1.01272,1.57079,0.00002,-0.14512,-0.38001,0.03845,,,,,,,,,,,,,,,,,,,,,,,,,,0,0,0,0,0
4.9118,1783185971.7147,1,1,1.0000,-0.0000,1.44680,0.20171,-2.78527,1.01272,1.57079,0.00002,-0.14512,-0.38001,0.03845,,,,,,,,,,,,,,,,,,,,,,,,,,0,0,0,0,0
4.9267,1783185971.7296,1,1,1.0000,-0.0000,1.44680,0.20159,-2.78529,1.01286,1.57079,0.00002,-0.14512,-0.38001,0.03842,,,,,,,,,,,,,,,,,,,,,,,,,,0,0,0,0,0
4.9343,1783185971.7372,1,1,1.0000,-0.0000,1.44680,0.20153,-2.78531,1.01294,1.57079,0.00003,-0.14512,-0.38001,0.03841,,,,,,,,,,,,,,,,,,,,,,,,,,0,0,0,0,0
4.9346,1783185971.7375,1,1,1.0000,-0.0000,1.44680,0.20153,-2.78531,1.01294,1.57079,0.00003,-0.14512,-0.38001,0.03841,,,,,,,,,,,,,,,,,,,,,,,,,,0,0,0,0,0
4.9440,1783185971.7468,1,1,1.0000,-0.0000,1.44680,0.20143,-2.78533,1.01306,1.57079,0.00003,-0.14512,-0.38001,0.03838,,,,,,,,,,,,,,,,,,,,,,,,,,0,0,0,0,0
4.9444,1783185971.7473,1,1,1.0000,-0.0000,1.44680,0.20143,-2.78533,1.01306,1.57079,0.00003,-0.14512,-0.38001,0.03838,,,,,,,,,,,,,,,,,,,,,,,,,,0,0,0,0,0
4.9550,1783185971.7579,1,1,1.0000,-0.0000,1.44680,0.20132,-2.78536,1.01320,1.57079,0.00003,-0.14512,-0.38001,0.03836,,,,,,,,,,,,,,,,,,,,,,,,,,0,0,0,0,0
4.9555,1783185971.7584,1,1,1.0000,-0.0000,1.44680,0.20132,-2.78536,1.01320,1.57079,0.00003,-0.14512,-0.38001,0.03836,,,,,,,,,,,,,,,,,,,,,,,,,,0,0,0,0,0
4.9682,1783185971.7711,1,1,1.0000,-0.0000,1.44680,0.20125,-2.78537,1.01329,1.57079,0.00003,-0.14512,-0.38001,0.03834,,,,,,,,,,,,,,,,,,,,,,,,,,0,0,0,0,0
4.9686,1783185971.7715,1,1,1.0000,-0.0000,1.44680,0.20125,-2.78537,1.01329,1.57079,0.00003,-0.14512,-0.38001,0.03834,,,,,,,,,,,,,,,,,,,,,,,,,,0,0,0,0,0
4.9789,1783185971.7818,1,1,1.0000,-0.0000,1.44680,0.20109,-2.78541,1.01348,1.57079,0.00003,-0.14512,-0.38001,0.03830,,,,,,,,,,,,,,,,,,,,,,,,,,0,0,0,0,0
4.9791,1783185971.7820,1,1,1.0000,-0.0000,1.44680,0.20109,-2.78541,1.01348,1.57079,0.00003,-0.14512,-0.38001,0.03830,,,,,,,,,,,,,,,,,,,,,,,,,,0,0,0,0,0
4.9841,1783185971.7870,1,1,1.0000,-0.0000,1.44680,0.20109,-2.78541,1.01348,1.57079,0.00003,-0.14512,-0.38001,0.03830,,,,,,,,,,,,,,,,,,,,,,,,,,0,0,0,0,0
4.9845,1783185971.7874,1,1,1.0000,-0.0000,1.44680,0.20109,-2.78541,1.01348,1.57079,0.00003,-0.14512,-0.38001,0.03830,,,,,,,,,,,,,,,,,,,,,,,,,,0,0,0,0,0
4.9979,1783185971.8008,1,1,1.0000,-0.0000,1.44680,0.20097,-2.78544,1.01363,1.57079,0.00003,-0.14512,-0.38001,0.03827,,,,,,,,,,,,,,,,,,,,,,,,,,0,0,0,0,0
5.0061,1783185971.8090,1,1,1.0000,-0.0000,1.44680,0.20087,-2.78546,1.01376,1.57079,0.00003,-0.14512,-0.38001,0.03824,,,,,,,,,,,,,,,,,,,,,,,,,,0,0,0,0,0
5.0067,1783185971.8096,1,1,1.0000,-0.0000,1.44680,0.20087,-2.78546,1.01376,1.57079,0.00003,-0.14512,-0.38001,0.03824,,,,,,,,,,,,,,,,,,,,,,,,,,0,0,0,0,0
5.0152,1783185971.8181,1,1,1.0000,-0.0000,1.44680,0.20081,-2.78548,1.01382,1.57079,0.00003,-0.14512,-0.38001,0.03823,,,,,,,,,,,,,,,,,,,,,,,,,,0,0,0,0,0
5.0254,1783185971.8283,1,1,1.0000,-0.0000,1.44680,0.20074,-2.78549,1.01391,1.57079,0.00003,-0.14512,-0.38001,0.03821,,,,,,,,,,,,,,,,,,,,,,,,,,0,0,0,0,0
5.0356,1783185971.8385,1,1,1.0000,-0.0000,1.44680,0.20064,-2.78552,1.01404,1.57079,0.00003,-0.14512,-0.38001,0.03819,,,,,,,,,,,,,,,,,,,,,,,,,,0,0,0,0,0
5.0441,1783185971.8470,1,1,1.0000,-0.0000,1.44680,0.20059,-2.78553,1.01411,1.57079,0.00003,-0.14512,-0.38001,0.03817,,,,,,,,,,,,,,,,,,,,,,,,,,0,0,0,0,0
5.0543,1783185971.8572,1,1,1.0000,-0.0000,1.44680,0.20051,-2.78555,1.01420,1.57079,0.00003,-0.14512,-0.38001,0.03816,,,,,,,,,,,,,,,,,,,,,,,,,,0,0,0,0,0
5.0676,1783185971.8705,1,1,1.0000,-0.0000,1.44680,0.20036,-2.78558,1.01439,1.57079,0.00003,-0.14512,-0.38001,0.03812,,,,,,,,,,,,,,,,,,,,,,,,,,0,0,0,0,0
5.0793,1783185971.8822,1,1,1.0000,-0.0000,1.44680,0.20030,-2.78560,1.01446,1.57079,0.00003,-0.14512,-0.38001,0.03810,,,,,,,,,,,,,,,,,,,,,,,,,,0,0,0,0,0
5.0886,1783185971.8915,1,1,1.0000,-0.0000,1.44680,0.20023,-2.78561,1.01454,1.57079,0.00003,-0.14512,-0.38001,0.03809,,,,,,,,,,,,,,,,,,,,,,,,,,0,0,0,0,0
5.1100,1783185971.9129,1,1,1.0000,-0.0000,1.44680,0.20004,-2.78566,1.01478,1.57079,0.00003,-0.14512,-0.38001,0.03804,,,,,,,,,,,,,,,,,,,,,,,,,,0,0,0,0,0
5.1103,1783185971.9132,1,1,1.0000,-0.0000,1.44680,0.20004,-2.78566,1.01478,1.57079,0.00003,-0.14512,-0.38001,0.03804,,,,,,,,,,,,,,,,,,,,,,,,,,0,0,0,0,0
5.1172,1783185971.9201,1,1,1.0000,-0.0000,1.44680,0.19996,-2.78568,1.01488,1.57079,0.00003,-0.14512,-0.38001,0.03802,,,,,,,,,,,,,,,,,,,,,,,,,,0,0,0,0,0
5.1282,1783185971.9311,1,1,1.0000,-0.0000,1.44680,0.19985,-2.78570,1.01501,1.57079,0.00003,-0.14512,-0.38001,0.03799,,,,,,,,,,,,,,,,,,,,,,,,,,0,0,0,0,0
5.1345,1783185971.9374,1,1,1.0000,-0.0000,1.44680,0.19980,-2.78571,1.01508,1.57079,0.00003,-0.14512,-0.38001,0.03798,,,,,,,,,,,,,,,,,,,,,,,,,,0,0,0,0,0
5.1440,1783185971.9469,1,1,1.0000,-0.0000,1.44680,0.19976,-2.78572,1.01512,1.57079,0.00003,-0.14512,-0.38001,0.03797,,,,,,,,,,,,,,,,,,,,,,,,,,0,0,0,0,0
5.1560,1783185971.9589,1,1,1.0000,-0.0000,1.44680,0.19962,-2.78575,1.01529,1.57079,0.00003,-0.14512,-0.38001,0.03793,,,,,,,,,,,,,,,,,,,,,,,,,,0,0,0,0,0
5.1617,1783185971.9646,1,1,1.0000,-0.0000,1.44680,0.19952,-2.78578,1.01543,1.57079,0.00003,-0.14512,-0.38001,0.03791,,,,,,,,,,,,,,,,,,,,,,,,,,0,0,0,0,0
5.1740,1783185971.9769,1,1,1.0000,-0.0000,1.44680,0.19949,-2.78579,1.01546,1.57079,0.00003,-0.14512,-0.38001,0.03790,,,,,,,,,,,,,,,,,,,,,,,,,,0,0,0,0,0
5.1824,1783185971.9853,1,1,1.0000,-0.0000,1.44680,0.19943,-2.78580,1.01554,1.57079,0.00003,-0.14512,-0.38001,0.03788,,,,,,,,,,,,,,,,,,,,,,,,,,0,0,0,0,0
5.1828,1783185971.9857,1,1,1.0000,-0.0000,1.44680,0.19943,-2.78580,1.01554,1.57079,0.00003,-0.14512,-0.38001,0.03788,,,,,,,,,,,,,,,,,,,,,,,,,,0,0,0,0,0
5.1955,1783185971.9984,1,1,1.0000,-0.0000,1.44680,0.19934,-2.78582,1.01565,1.57079,0.00003,-0.14512,-0.38001,0.03786,,,,,,,,,,,,,,,,,,,,,,,,,,0,0,0,0,0
5.2054,1783185972.0083,1,1,1.0000,-0.0000,1.44680,0.19926,-2.78584,1.01574,1.57079,0.00003,-0.14512,-0.38001,0.03784,,,,,,,,,,,,,,,,,,,,,,,,,,0,0,0,0,0
5.2135,1783185972.0164,1,1,1.0000,-0.0000,1.44680,0.19916,-2.78586,1.01587,1.57079,0.00003,-0.14512,-0.38001,0.03782,,,,,,,,,,,,,,,,,,,,,,,,,,0,0,0,0,0
5.2140,1783185972.0169,1,1,1.0000,-0.0000,1.44680,0.19916,-2.78586,1.01587,1.57079,0.00003,-0.14512,-0.38001,0.03782,,,,,,,,,,,,,,,,,,,,,,,,,,0,0,0,0,0
5.2253,1783185972.0282,1,1,1.0000,-0.0000,1.44680,0.19905,-2.78589,1.01600,1.57079,0.00003,-0.14512,-0.38001,0.03779,,,,,,,,,,,,,,,,,,,,,,,,,,0,0,0,0,0
5.2462,1783185972.0491,1,1,1.0000,-0.0000,1.44680,0.19892,-2.78592,1.01617,1.57079,0.00003,-0.14512,-0.38001,0.03776,,,,,,,,,,,,,,,,,,,,,,,,,,0,0,0,0,0
5.2466,1783185972.0495,1,1,1.0000,-0.0000,1.44680,0.19892,-2.78592,1.01617,1.57079,0.00003,-0.14512,-0.38001,0.03776,,,,,,,,,,,,,,,,,,,,,,,,,,0,0,0,0,0
5.2547,1783185972.0576,1,1,1.0000,-0.0000,1.44680,0.19887,-2.78593,1.01622,1.57079,0.00003,-0.14512,-0.38001,0.03775,,,,,,,,,,,,,,,,,,,,,,,,,,0,0,0,0,0
5.2638,1783185972.0667,1,1,1.0000,-0.0000,1.44680,0.19883,-2.78594,1.01627,1.57079,0.00003,-0.14512,-0.38001,0.03774,,,,,,,,,,,,,,,,,,,,,,,,,,0,0,0,0,0
5.2715,1783185972.0744,1,1,1.0000,-0.0000,1.44680,0.19875,-2.78596,1.01638,1.57079,0.00003,-0.14512,-0.38001,0.03771,,,,,,,,,,,,,,,,,,,,,,,,,,0,0,0,0,0
