Martins-Lucaas/twinforge/sensors/Data/20260704_145212__samples.csv
t_rel_s,t_unix,cycle,phase,setpoint_n,force_net_n,q1,q2,q3,q4,q5,q6,tcp_x,tcp_y,tcp_z,taxel_0,taxel_1,taxel_2,taxel_3,taxel_4,taxel_5,taxel_6,taxel_7,taxel_8,taxel_9,taxel_10,taxel_11,taxel_12,taxel_13,taxel_14,taxel_15,taxel_16,taxel_17,taxel_18,taxel_19,taxel_20,taxel_21,taxel_22,taxel_23,taxel_24,n_RA,n_SA,cn_mm,cn_ra,cn_sa
0.0088,1783187532.5359,1,0,1.0000,0.0000,1.44682,0.23328,-2.77748,0.97337,1.57080,0.00000,-0.14512,-0.38003,0.04653,,,,,,,,,,,,,,,,,,,,,,,,,,0,0,0,0,0
0.0093,1783187532.5363,1,0,1.0000,0.0000,1.44682,0.23328,-2.77748,0.97337,1.57080,0.00000,-0.14512,-0.38003,0.04653,,,,,,,,,,,,,,,,,,,,,,,,,,0,0,0,0,0
0.0095,1783187532.5365,1,0,1.0000,0.0000,1.44682,0.23328,-2.77748,0.97337,1.57080,0.00000,-0.14512,-0.38003,0.04653,,,,,,,,,,,,,,,,,,,,,,,,,,0,0,0,0,0
0.0099,1783187532.5369,1,0,1.0000,0.0000,1.44682,0.23328,-2.77748,0.97337,1.57080,0.00000,-0.14512,-0.38003,0.04653,,,,,,,,,,,,,,,,,,,,,,,,,,0,0,0,0,0
0.0193,1783187532.5463,1,0,1.0000,0.0000,1.44682,0.23328,-2.77748,0.97337,1.57080,0.00000,-0.14512,-0.38003,0.04653,,,,,,,,,,,,,,,,,,,,,,,,,,0,0,0,0,0
0.0291,1783187532.5561,1,0,1.0000,0.0000,1.44682,0.23328,-2.77748,0.97337,1.57080,0.00000,-0.14512,-0.38003,0.04653,,,,,,,,,,,,,,,,,,,,,,,,,,0,0,0,0,0
0.0513,1783187532.5783,1,0,1.0000,0.0000,1.44682,0.23328,-2.77748,0.97337,1.57080,0.00000,-0.14512,-0.38003,0.04653,,,,,,,,,,,,,,,,,,,,,,,,,,0,0,0,0,0
0.0522,1783187532.5792,1,0,1.0000,0.0000,1.44682,0.23328,-2.77748,0.97337,1.57080,0.00000,-0.14512,-0.38003,0.04653,,,,,,,,,,,,,,,,,,,,,,,,,,0,0,0,0,0
0.0529,1783187532.5799,1,0,1.0000,0.0000,1.44682,0.23328,-2.77748,0.97337,1.57080,0.00000,-0.14512,-0.38003,0.04653,,,,,,,,,,,,,,,,,,,,,,,,,,0,0,0,0,0
0.0589,1783187532.5859,1,0,1.0000,0.0000,1.44682,0.23328,-2.77748,0.97337,1.57080,0.00000,-0.14512,-0.38003,0.04653,,,,,,,,,,,,,,,,,,,,,,,,,,0,0,0,0,0
0.0802,1783187532.6072,1,0,1.0000,0.0000,1.44682,0.23328,-2.77748,0.97337,1.57080,0.00000,-0.14512,-0.38003,0.04653,,,,,,,,,,,,,,,,,,,,,,,,,,0,0,0,0,0
0.0842,1783187532.6112,1,0,1.0000,0.0000,1.44682,0.23328,-2.77748,0.97337,1.57080,0.00000,-0.14512,-0.38003,0.04653,,,,,,,,,,,,,,,,,,,,,,,,,,0,0,0,0,0
0.1287,1783187532.6557,1,0,1.0000,0.0000,1.44682,0.23328,-2.77748,0.97337,1.57080,0.00000,-0.14512,-0.38003,0.04653,,,,,,,,,,,,,,,,,,,,,,,,,,0,0,0,0,0
0.1290,1783187532.6561,1,0,1.0000,0.0000,1.44682,0.23328,-2.77748,0.97337,1.57080,0.00000,-0.14512,-0.38003,0.04653,,,,,,,,,,,,,,,,,,,,,,,,,,0,0,0,0,0
0.1300,1783187532.6570,1,0,1.0000,0.0000,1.44682,0.23328,-2.77748,0.97337,1.57080,0.00000,-0.14512,-0.38003,0.04653,,,,,,,,,,,,,,,,,,,,,,,,,,0,0,0,0,0
0.1302,1783187532.6572,1,0,1.0000,0.0000,1.44682,0.23328,-2.77748,0.97337,1.57080,0.00000,-0.14512,-0.38003,0.04653,,,,,,,,,,,,,,,,,,,,,,,,,,0,0,0,0,0
0.1305,1783187532.6575,1,0,1.0000,0.0000,1.44682,0.23328,-2.77748,0.97337,1.57080,0.00000,-0.14512,-0.38003,0.04653,,,,,,,,,,,,,,,,,,,,,,,,,,0,0,0,0,0
0.1308,1783187532.6578,1,0,1.0000,0.0000,1.44682,0.23328,-2.77748,0.97337,1.57080,0.00000,-0.14512,-0.38003,0.04653,,,,,,,,,,,,,,,,,,,,,,,,,,0,0,0,0,0
0.1395,1783187532.6665,1,0,1.0000,0.0000,1.44682,0.23328,-2.77748,0.97337,1.57080,0.00000,-0.14512,-0.38003,0.04653,,,,,,,,,,,,,,,,,,,,,,,,,,0,0,0,0,0
0.1513,1783187532.6783,1,0,1.0000,0.0000,1.44682,0.23328,-2.77748,0.97337,1.57080,0.00000,-0.14512,-0.38003,0.04653,,,,,,,,,,,,,,,,,,,,,,,,,,0,0,0,0,0
0.1517,1783187532.6787,1,0,1.0000,0.0000,1.44682,0.23328,-2.77748,0.97337,1.57080,0.00000,-0.14512,-0.38003,0.04653,,,,,,,,,,,,,,,,,,,,,,,,,,0,0,0,0,0
0.1632,1783187532.6902,1,0,1.0000,0.0000,1.44682,0.23328,-2.77748,0.97337,1.57080,0.00000,-0.14512,-0.38003,0.04653,,,,,,,,,,,,,,,,,,,,,,,,,,0,0,0,0,0
0.1693,1783187532.6963,1,0,1.0000,0.0000,1.44682,0.23328,-2.77748,0.97337,1.57080,0.00000,-0.14512,-0.38003,0.04653,,,,,,,,,,,,,,,,,,,,,,,,,,0,0,0,0,0
0.1697,1783187532.6967,1,0,1.0000,0.0000,1.44682,0.23328,-2.77748,0.97337,1.57080,0.00000,-0.14512,-0.38003,0.04653,,,,,,,,,,,,,,,,,,,,,,,,,,0,0,0,0,0
0.1799,1783187532.7069,1,0,1.0000,0.0000,1.44682,0.23328,-2.77748,0.97337,1.57080,0.00000,-0.14512,-0.38003,0.04653,,,,,,,,,,,,,,,,,,,,,,,,,,0,0,0,0,0
0.1891,1783187532.7161,1,0,1.0000,0.0000,1.44682,0.23328,-2.77748,0.97337,1.57080,0.00000,-0.14512,-0.38003,0.04653,,,,,,,,,,,,,,,,,,,,,,,,,,0,0,0,0,0
0.1896,1783187532.7166,1,0,1.0000,0.0000,1.44682,0.23328,-2.77748,0.97337,1.57080,0.00000,-0.14512,-0.38003,0.04653,,,,,,,,,,,,,,,,,,,,,,,,,,0,0,0,0,0
0.1988,1783187532.7258,1,0,1.0000,0.0000,1.44682,0.23328,-2.77748,0.97337,1.57080,0.00000,-0.14512,-0.38003,0.04653,,,,,,,,,,,,,,,,,,,,,,,,,,0,0,0,0,0
0.1991,1783187532.7261,1,0,1.0000,0.0000,1.44682,0.23328,-2.77748,0.97337,1.57080,0.00000,-0.14512,-0.38003,0.04653,,,,,,,,,,,,,,,,,,,,,,,,,,0,0,0,0,0
0.2134,1783187532.7404,1,0,1.0000,0.0000,1.44682,0.23328,-2.77748,0.97337,1.57080,0.00000,-0.14512,-0.38003,0.04653,,,,,,,,,,,,,,,,,,,,,,,,,,0,0,0,0,0
0.2228,1783187532.7498,1,0,1.0000,0.0000,1.44682,0.23328,-2.77748,0.97337,1.57080,0.00000,-0.14512,-0.38003,0.04653,,,,,,,,,,,,,,,,,,,,,,,,,,0,0,0,0,0
0.2288,1783187532.7558,1,0,1.0000,0.0000,1.44682,0.23328,-2.77748,0.97337,1.57080,0.00000,-0.14512,-0.38003,0.04653,,,,,,,,,,,,,,,,,,,,,,,,,,0,0,0,0,0
0.2408,1783187532.7678,1,0,1.0000,0.0000,1.44682,0.23328,-2.77748,0.97337,1.57080,0.00000,-0.14512,-0.38003,0.04653,,,,,,,,,,,,,,,,,,,,,,,,,,0,0,0,0,0
0.2609,1783187532.7879,1,0,1.0000,0.0000,1.44682,0.23328,-2.77748,0.97337,1.57080,0.00000,-0.14512,-0.38003,0.04653,,,,,,,,,,,,,,,,,,,,,,,,,,0,0,0,0,0
0.2612,1783187532.7882,1,0,1.0000,0.0000,1.44682,0.23328,-2.77748,0.97337,1.57080,0.00000,-0.14512,-0.38003,0.04653,,,,,,,,,,,,,,,,,,,,,,,,,,0,0,0,0,0
0.2817,1783187532.8087,1,0,1.0000,0.0000,1.44682,0.23328,-2.77748,0.97337,1.57080,0.00000,-0.14512,-0.38003,0.04653,,,,,,,,,,,,,,,,,,,,,,,,,,0,0,0,0,0
0.2820,1783187532.8090,1,0,1.0000,0.0000,1.44682,0.23328,-2.77748,0.97337,1.57080,0.00000,-0.14512,-0.38003,0.04653,,,,,,,,,,,,,,,,,,,,,,,,,,0,0,0,0,0
0.2953,1783187532.8223,1,0,1.0000,0.0000,1.44682,0.23328,-2.77748,0.97337,1.57080,0.00000,-0.14512,-0.38003,0.04653,,,,,,,,,,,,,,,,,,,,,,,,,,0,0,0,0,0
0.3123,1783187532.8393,1,0,1.0000,0.0000,1.44682,0.23328,-2.77748,0.97337,1.57080,0.00000,-0.14512,-0.38003,0.04653,,,,,,,,,,,,,,,,,,,,,,,,,,0,0,0,0,0
0.3129,1783187532.8399,1,0,1.0000,0.0000,1.44682,0.23328,-2.77748,0.97337,1.57080,0.00000,-0.14512,-0.38003,0.04653,,,,,,,,,,,,,,,,,,,,,,,,,,0,0,0,0,0
0.3211,1783187532.8481,1,0,1.0000,0.0000,1.44682,0.23328,-2.77748,0.97337,1.57080,0.00000,-0.14512,-0.38003,0.04653,,,,,,,,,,,,,,,,,,,,,,,,,,0,0,0,0,0
0.3213,1783187532.8484,1,0,1.0000,0.0000,1.44682,0.23328,-2.77748,0.97337,1.57080,0.00000,-0.14512,-0.38003,0.04653,,,,,,,,,,,,,,,,,,,,,,,,,,0,0,0,0,0
0.3296,1783187532.8566,1,0,1.0000,0.0000,1.44682,0.23328,-2.77748,0.97337,1.57080,0.00000,-0.14512,-0.38003,0.04653,,,,,,,,,,,,,,,,,,,,,,,,,,0,0,0,0,0
0.3399,1783187532.8669,1,0,1.0000,0.0000,1.44682,0.23328,-2.77748,0.97337,1.57080,0.00000,-0.14512,-0.38003,0.04653,,,,,,,,,,,,,,,,,,,,,,,,,,0,0,0,0,0
0.3491,1783187532.8761,1,0,1.0000,0.0000,1.44682,0.23328,-2.77748,0.97337,1.57080,0.00000,-0.14512,-0.38003,0.04653,,,,,,,,,,,,,,,,,,,,,,,,,,0,0,0,0,0
0.3494,1783187532.8764,1,0,1.0000,0.0000,1.44682,0.23328,-2.77748,0.97337,1.57080,0.00000,-0.14512,-0.38003,0.04653,,,,,,,,,,,,,,,,,,,,,,,,,,0,0,0,0,0
0.3604,1783187532.8874,1,0,1.0000,0.0000,1.44682,0.23328,-2.77748,0.97337,1.57080,0.00000,-0.14512,-0.38003,0.04653,,,,,,,,,,,,,,,,,,,,,,,,,,0,0,0,0,0
0.3695,1783187532.8965,1,0,1.0000,0.0000,1.44682,0.23328,-2.77748,0.97337,1.57080,0.00000,-0.14512,-0.38003,0.04653,,,,,,,,,,,,,,,,,,,,,,,,,,0,0,0,0,0
0.3803,1783187532.9073,1,0,1.0000,0.0000,1.44682,0.23328,-2.77748,0.97337,1.57080,0.00000,-0.14512,-0.38003,0.04653,,,,,,,,,,,,,,,,,,,,,,,,,,0,0,0,0,0
0.3894,1783187532.9164,1,0,1.0000,0.0000,1.44682,0.23328,-2.77748,0.97337,1.57080,0.00000,-0.14512,-0.38003,0.04653,,,,,,,,,,,,,,,,,,,,,,,,,,0,0,0,0,0
0.3986,1783187532.9257,1,0,1.0000,0.0000,1.44682,0.23328,-2.77748,0.97337,1.57080,0.00000,-0.14512,-0.38003,0.04653,,,,,,,,,,,,,,,,,,,,,,,,,,0,0,0,0,0
0.4163,1783187532.9434,1,0,1.0000,0.0000,1.44682,0.23328,-2.77748,0.97337,1.57080,0.00000,-0.14512,-0.38003,0.04653,,,,,,,,,,,,,,,,,,,,,,,,,,0,0,0,0,0
0.4208,1783187532.9479,1,0,1.0000,0.0000,1.44682,0.23328,-2.77748,0.97337,1.57080,0.00000,-0.14512,-0.38003,0.04653,,,,,,,,,,,,,,,,,,,,,,,,,,0,0,0,0,0
0.4210,1783187532.9481,1,0,1.0000,0.0000,1.44682,0.23328,-2.77748,0.97337,1.57080,0.00000,-0.14512,-0.38003,0.04653,,,,,,,,,,,,,,,,,,,,,,,,,,0,0,0,0,0
0.4291,1783187532.9562,1,0,1.0000,0.0000,1.44682,0.23328,-2.77748,0.97337,1.57080,0.00000,-0.14512,-0.38003,0.04653,,,,,,,,,,,,,,,,,,,,,,,,,,0,0,0,0,0
0.4391,1783187532.9661,1,0,1.0000,0.0000,1.44682,0.23328,-2.77748,0.97337,1.57080,0.00000,-0.14512,-0.38003,0.04653,,,,,,,,,,,,,,,,,,,,,,,,,,0,0,0,0,0
0.4489,1783187532.9759,1,0,1.0000,0.0000,1.44682,0.23328,-2.77748,0.97337,1.57080,0.00000,-0.14512,-0.38003,0.04653,,,,,,,,,,,,,,,,,,,,,,,,,,0,0,0,0,0
0.4600,1783187532.9870,1,0,1.0000,0.0000,1.44682,0.23328,-2.77748,0.97337,1.57080,0.00000,-0.14512,-0.38003,0.04653,,,,,,,,,,,,,,,,,,,,,,,,,,0,0,0,0,0
0.4697,1783187532.9967,1,0,1.0000,0.0000,1.44682,0.23328,-2.77748,0.97337,1.57080,0.00000,-0.14512,-0.38003,0.04653,,,,,,,,,,,,,,,,,,,,,,,,,,0,0,0,0,0
0.4836,1783187533.0106,1,0,1.0000,0.0000,1.44682,0.23328,-2.77748,0.97337,1.57080,0.00000,-0.14512,-0.38003,0.04653,,,,,,,,,,,,,,,,,,,,,,,,,,0,0,0,0,0
0.4926,1783187533.0196,1,0,1.0000,0.0000,1.44682,0.23328,-2.77748,0.97337,1.57080,0.00000,-0.14512,-0.38003,0.04653,,,,,,,,,,,,,,,,,,,,,,,,,,0,0,0,0,0
0.4987,1783187533.0257,1,0,1.0000,0.0000,1.44682,0.23328,-2.77748,0.97337,1.57080,0.00000,-0.14512,-0.38003,0.04653,,,,,,,,,,,,,,,,,,,,,,,,,,0,0,0,0,0
0.5168,1783187533.0438,1,0,1.0000,0.0000,1.44682,0.23328,-2.77748,0.97337,1.57080,0.00000,-0.14512,-0.38003,0.04653,,,,,,,,,,,,,,,,,,,,,,,,,,0,0,0,0,0
0.5234,1783187533.0504,1,0,1.0000,0.0000,1.44682,0.23328,-2.77748,0.97337,1.57080,0.00000,-0.14512,-0.38003,0.04653,,,,,,,,,,,,,,,,,,,,,,,,,,0,0,0,0,0
0.5237,1783187533.0507,1,0,1.0000,0.0000,1.44682,0.23328,-2.77748,0.97337,1.57080,0.00000,-0.14512,-0.38003,0.04653,,,,,,,,,,,,,,,,,,,,,,,,,,0,0,0,0,0
0.5302,1783187533.0572,1,0,1.0000,0.0000,1.44682,0.23328,-2.77748,0.97337,1.57080,0.00000,-0.14512,-0.38003,0.04653,,,,,,,,,,,,,,,,,,,,,,,,,,0,0,0,0,0
0.5411,1783187533.0682,1,0,1.0000,0.0000,1.44682,0.23328,-2.77748,0.97337,1.57080,0.00000,-0.14512,-0.38003,0.04653,,,,,,,,,,,,,,,,,,,,,,,,,,0,0,0,0,0
0.5504,1783187533.0774,1,0,1.0000,0.0000,1.44682,0.23328,-2.77748,0.97337,1.57080,0.00000,-0.14512,-0.38003,0.04653,,,,,,,,,,,,,,,,,,,,,,,,,,0,0,0,0,0
0.5508,1783187533.0778,1,0,1.0000,0.0000,1.44682,0.23328,-2.77748,0.97337,1.57080,0.00000,-0.14512,-0.38003,0.04653,,,,,,,,,,,,,,,,,,,,,,,,,,0,0,0,0,0
0.5610,1783187533.0880,1,0,1.0000,0.0000,1.44682,0.23328,-2.77748,0.97337,1.57080,0.00000,-0.14512,-0.38003,0.04653,,,,,,,,,,,,,,,,,,,,,,,,,,0,0,0,0,0
0.5733,1783187533.1003,1,0,1.0000,0.0000,1.44682,0.23328,-2.77748,0.97337,1.57080,0.00000,-0.14512,-0.38003,0.04653,,,,,,,,,,,,,,,,,,,,,,,,,,0,0,0,0,0
0.5736,1783187533.1006,1,0,1.0000,0.0000,1.44682,0.23328,-2.77748,0.97337,1.57080,0.00000,-0.14512,-0.38003,0.04653,,,,,,,,,,,,,,,,,,,,,,,,,,0,0,0,0,0
0.5868,1783187533.1138,1,0,1.0000,0.0000,1.44682,0.23328,-2.77748,0.97337,1.57080,0.00000,-0.14512,-0.38003,0.04653,,,,,,,,,,,,,,,,,,,,,,,,,,0,0,0,0,0
0.5871,1783187533.1141,1,0,1.0000,0.0000,1.44682,0.23328,-2.77748,0.97337,1.57080,0.00000,-0.14512,-0.38003,0.04653,,,,,,,,,,,,,,,,,,,,,,,,,,0,0,0,0,0
0.5945,1783187533.1215,1,0,1.0000,0.0000,1.44682,0.23328,-2.77748,0.97337,1.57080,0.00000,-0.14512,-0.38003,0.04653,,,,,,,,,,,,,,,,,,,,,,,,,,0,0,0,0,0
0.6206,1783187533.1476,1,0,1.0000,0.0000,1.44682,0.23328,-2.77748,0.97337,1.57080,0.00000,-0.14512,-0.38003,0.04653,,,,,,,,,,,,,,,,,,,,,,,,,,0,0,0,0,0
0.6212,1783187533.1482,1,0,1.0000,0.0000,1.44682,0.23328,-2.77748,0.97337,1.57080,0.00000,-0.14512,-0.38003,0.04653,,,,,,,,,,,,,,,,,,,,,,,,,,0,0,0,0,0
0.6652,1783187533.1922,1,0,1.0000,0.0000,1.44682,0.23328,-2.77748,0.97337,1.57080,0.00000,-0.14512,-0.38003,0.04653,,,,,,,,,,,,,,,,,,,,,,,,,,0,0,0,0,0
0.6657,1783187533.1927,1,0,1.0000,0.0000,1.44682,0.23328,-2.77748,0.97337,1.57080,0.00000,-0.14512,-0.38003,0.04653,,,,,,,,,,,,,,,,,,,,,,,,,,0,0,0,0,0
0.6660,1783187533.1930,1,0,1.0000,0.0000,1.44682,0.23328,-2.77748,0.97337,1.57080,0.00000,-0.14512,-0.38003,0.04653,,,,,,,,,,,,,,,,,,,,,,,,,,0,0,0,0,0
0.6700,1783187533.1970,1,0,1.0000,0.0000,1.44682,0.23328,-2.77748,0.97337,1.57080,0.00000,-0.14512,-0.38003,0.04653,,,,,,,,,,,,,,,,,,,,,,,,,,0,0,0,0,0
0.6703,1783187533.1973,1,0,1.0000,0.0000,1.44682,0.23328,-2.77748,0.97337,1.57080,0.00000,-0.14512,-0.38003,0.04653,,,,,,,,,,,,,,,,,,,,,,,,,,0,0,0,0,0
0.6707,1783187533.1977,1,0,1.0000,0.0000,1.44682,0.23328,-2.77748,0.97337,1.57080,0.00000,-0.14512,-0.38003,0.04653,,,,,,,,,,,,,,,,,,,,,,,,,,0,0,0,0,0
0.6744,1783187533.2015,1,0,1.0000,0.0000,1.44682,0.23328,-2.77748,0.97337,1.57080,0.00000,-0.14512,-0.38003,0.04653,,,,,,,,,,,,,,,,,,,,,,,,,,0,0,0,0,0
0.6837,1783187533.2107,1,0,1.0000,0.0000,1.44682,0.23328,-2.77748,0.97337,1.57080,0.00000,-0.14512,-0.38003,0.04653,,,,,,,,,,,,,,,,,,,,,,,,,,0,0,0,0,0
0.6840,1783187533.2110,1,0,1.0000,0.0000,1.44682,0.23328,-2.77748,0.97337,1.57080,0.00000,-0.14512,-0.38003,0.04653,,,,,,,,,,,,,,,,,,,,,,,,,,0,0,0,0,0
0.6968,1783187533.2239,1,0,1.0000,0.0000,1.44682,0.23328,-2.77748,0.97337,1.57080,0.00000,-0.14512,-0.38003,0.04653,,,,,,,,,,,,,,,,,,,,,,,,,,0,0,0,0,0
0.7036,1783187533.2307,1,0,1.0000,0.0000,1.44682,0.23328,-2.77748,0.97337,1.57080,0.00000,-0.14512,-0.38003,0.04653,,,,,,,,,,,,,,,,,,,,,,,,,,0,0,0,0,0
0.7249,1783187533.2519,1,0,1.0000,0.0000,1.44682,0.23328,-2.77748,0.97337,1.57080,0.00000,-0.14512,-0.38003,0.04653,,,,,,,,,,,,,,,,,,,,,,,,,,0,0,0,0,0
0.7279,1783187533.2549,1,0,1.0000,0.0000,1.44682,0.23328,-2.77748,0.97337,1.57080,0.00000,-0.14512,-0.38003,0.04653,,,,,,,,,,,,,,,,,,,,,,,,,,0,0,0,0,0
0.7283,1783187533.2554,1,0,1.0000,0.0000,1.44682,0.23328,-2.77748,0.97337,1.57080,0.00000,-0.14512,-0.38003,0.04653,,,,,,,,,,,,,,,,,,,,,,,,,,0,0,0,0,0
0.7372,1783187533.2642,1,1,1.0000,0.0000,1.44682,0.23328,-2.77748,0.97337,1.57080,0.00000,-0.14512,-0.38003,0.04653,,,,,,,,,,,,,,,,,,,,,,,,,,0,0,0,0,0
0.7437,1783187533.2707,1,1,1.0000,0.0000,1.44682,0.23328,-2.77748,0.97337,1.57080,0.00000,-0.14512,-0.38003,0.04653,,,,,,,,,,,,,,,,,,,,,,,,,,0,0,0,0,0
0.7571,1783187533.2841,1,1,1.0000,0.0000,1.44682,0.23328,-2.77748,0.97337,1.57080,0.00000,-0.14512,-0.38003,0.04653,,,,,,,,,,,,,,,,,,,,,,,,,,0,0,0,0,0
0.7666,1783187533.2936,1,1,1.0000,0.0000,1.44682,0.23328,-2.77748,0.97337,1.57080,0.00000,-0.14512,-0.38003,0.04653,,,,,,,,,,,,,,,,,,,,,,,,,,0,0,0,0,0
0.7770,1783187533.3040,1,1,1.0000,0.0000,1.44682,0.23328,-2.77748,0.97337,1.57080,0.00000,-0.14512,-0.38003,0.04653,,,,,,,,,,,,,,,,,,,,,,,,,,0,0,0,0,0
0.7861,1783187533.3132,1,1,1.0000,0.0000,1.44682,0.23328,-2.77748,0.97337,1.57080,0.00000,-0.14512,-0.38003,0.04653,,,,,,,,,,,,,,,,,,,,,,,,,,0,0,0,0,0
0.7941,1783187533.3211,1,1,1.0000,0.0000,1.44682,0.23328,-2.77748,0.97337,1.57080,0.00000,-0.14512,-0.38003,0.04653,,,,,,,,,,,,,,,,,,,,,,,,,,0,0,0,0,0
0.7945,1783187533.3215,1,1,1.0000,0.0000,1.44682,0.23328,-2.77748,0.97337,1.57080,0.00000,-0.14512,-0.38003,0.04653,,,,,,,,,,,,,,,,,,,,,,,,,,0,0,0,0,0
0.8057,1783187533.3327,1,1,1.0000,0.0000,1.44682,0.23328,-2.77748,0.97337,1.57080,0.00000,-0.14512,-0.38003,0.04653,,,,,,,,,,,,,,,,,,,,,,,,,,0,0,0,0,0
0.8255,1783187533.3525,1,1,1.0000,0.0000,1.44682,0.23328,-2.77748,0.97337,1.57080,0.00000,-0.14512,-0.38003,0.04653,,,,,,,,,,,,,,,,,,,,,,,,,,0,0,0,0,0
0.8258,1783187533.3528,1,1,1.0000,0.0000,1.44682,0.23328,-2.77748,0.97337,1.57080,0.00000,-0.14512,-0.38003,0.04653,,,,,,,,,,,,,,,,,,,,,,,,,,0,0,0,0,0
0.8331,1783187533.3601,1,1,1.0000,0.0000,1.44682,0.23328,-2.77748,0.97337,1.57080,0.00000,-0.14512,-0.38003,0.04653,,,,,,,,,,,,,,,,,,,,,,,,,,0,0,0,0,0
0.8590,1783187533.3860,1,1,1.0000,0.0000,1.44682,0.23328,-2.77748,0.97337,1.57080,0.00000,-0.14512,-0.38003,0.04653,,,,,,,,,,,,,,,,,,,,,,,,,,0,0,0,0,0
0.8592,1783187533.3863,1,1,1.0000,0.0000,1.44682,0.23328,-2.77748,0.97337,1.57080,0.00000,-0.14512,-0.38003,0.04653,,,,,,,,,,,,,,,,,,,,,,,,,,0,0,0,0,0
0.8682,1783187533.3952,1,1,1.0000,0.0000,1.44682,0.23328,-2.77748,0.97337,1.57080,0.00000,-0.14512,-0.38003,0.04653,,,,,,,,,,,,,,,,,,,,,,,,,,0,0,0,0,0
0.8734,1783187533.4004,1,1,1.0000,0.0000,1.44682,0.23328,-2.77748,0.97337,1.57080,0.00000,-0.14512,-0.38003,0.04653,,,,,,,,,,,,,,,,,,,,,,,,,,0,0,0,0,0
0.8739,1783187533.4009,1,1,1.0000,0.0000,1.44682,0.23328,-2.77748,0.97337,1.57080,0.00000,-0.14512,-0.38003,0.04653,,,,,,,,,,,,,,,,,,,,,,,,,,0,0,0,0,0
0.8889,1783187533.4159,1,1,1.0000,0.0000,1.44682,0.23328,-2.77748,0.97337,1.57080,0.00000,-0.14512,-0.38003,0.04653,,,,,,,,,,,,,,,,,,,,,,,,,,0,0,0,0,0
0.8952,1783187533.4222,1,1,1.0000,0.0000,1.44682,0.23328,-2.77748,0.97337,1.57080,0.00000,-0.14512,-0.38003,0.04653,,,,,,,,,,,,,,,,,,,,,,,,,,0,0,0,0,0
0.9039,1783187533.4309,1,1,1.0000,0.0000,1.44682,0.23328,-2.77748,0.97337,1.57080,0.00000,-0.14512,-0.38003,0.04653,,,,,,,,,,,,,,,,,,,,,,,,,,0,0,0,0,0
0.9135,1783187533.4405,1,1,1.0000,0.0000,1.44682,0.23328,-2.77748,0.97337,1.57080,0.00000,-0.14512,-0.38003,0.04653,,,,,,,,,,,,,,,,,,,,,,,,,,0,0,0,0,0
0.9255,1783187533.4525,1,1,1.0000,0.0000,1.44682,0.23327,-2.77748,0.97338,1.57080,0.00000,-0.14512,-0.38003,0.04652,,,,,,,,,,,,,,,,,,,,,,,,,,0,0,0,0,0
0.9258,1783187533.4528,1,1,1.0000,0.0000,1.44682,0.23327,-2.77748,0.97338,1.57080,0.00000,-0.14512,-0.38003,0.04652,,,,,,,,,,,,,,,,,,,,,,,,,,0,0,0,0,0
0.9348,1783187533.4618,1,1,1.0000,0.0000,1.44682,0.23319,-2.77750,0.97348,1.57080,0.00000,-0.14512,-0.38003,0.04650,,,,,,,,,,,,,,,,,,,,,,,,,,0,0,0,0,0
0.9352,1783187533.4622,1,1,1.0000,0.0000,1.44682,0.23319,-2.77750,0.97348,1.57080,0.00000,-0.14512,-0.38003,0.04650,,,,,,,,,,,,,,,,,,,,,,,,,,0,0,0,0,0
0.9430,1783187533.4700,1,1,1.0000,0.0000,1.44682,0.23307,-2.77753,0.97363,1.57080,0.00000,-0.14512,-0.38003,0.04647,,,,,,,,,,,,,,,,,,,,,,,,,,0,0,0,0,0
0.9544,1783187533.4814,1,1,1.0000,0.0000,1.44682,0.23301,-2.77755,0.97371,1.57080,0.00000,-0.14512,-0.38003,0.04646,,,,,,,,,,,,,,,,,,,,,,,,,,0,0,0,0,0
0.9546,1783187533.4817,1,1,1.0000,0.0000,1.44682,0.23301,-2.77755,0.97371,1.57080,0.00000,-0.14512,-0.38003,0.04646,,,,,,,,,,,,,,,,,,,,,,,,,,0,0,0,0,0
0.9631,1783187533.4901,1,1,1.0000,0.0000,1.44682,0.23295,-2.77756,0.97378,1.57080,0.00000,-0.14512,-0.38003,0.04644,,,,,,,,,,,,,,,,,,,,,,,,,,0,0,0,0,0
0.9753,1783187533.5024,1,1,1.0000,0.0000,1.44682,0.23280,-2.77760,0.97396,1.57080,0.00000,-0.14512,-0.38003,0.04640,,,,,,,,,,,,,,,,,,,,,,,,,,0,0,0,0,0
0.9830,1783187533.5100,1,1,1.0000,0.0000,1.44682,0.23275,-2.77761,0.97403,1.57080,0.00000,-0.14512,-0.38003,0.04639,,,,,,,,,,,,,,,,,,,,,,,,,,0,0,0,0,0
0.9941,1783187533.5211,1,1,1.0000,0.0000,1.44682,0.23270,-2.77763,0.97409,1.57080,0.00000,-0.14512,-0.38003,0.04638,,,,,,,,,,,,,,,,,,,,,,,,,,0,0,0,0,0
1.0031,1783187533.5302,1,1,1.0000,0.0000,1.44682,0.23263,-2.77764,0.97419,1.57080,0.00000,-0.14512,-0.38003,0.04636,,,,,,,,,,,,,,,,,,,,,,,,,,0,0,0,0,0
1.0037,1783187533.5308,1,1,1.0000,0.0000,1.44682,0.23263,-2.77764,0.97419,1.57080,0.00000,-0.14512,-0.38003,0.04636,,,,,,,,,,,,,,,,,,,,,,,,,,0,0,0,0,0
1.0138,1783187533.5408,1,1,1.0000,0.0000,1.44682,0.23257,-2.77766,0.97426,1.57080,0.00000,-0.14512,-0.38003,0.04634,,,,,,,,,,,,,,,,,,,,,,,,,,0,0,0,0,0
1.0292,1783187533.5562,1,1,1.0000,0.0000,1.44682,0.23241,-2.77770,0.97446,1.57080,0.00000,-0.14512,-0.38003,0.04630,,,,,,,,,,,,,,,,,,,,,,,,,,0,0,0,0,0
1.0297,1783187533.5567,1,1,1.0000,0.0000,1.44682,0.23241,-2.77770,0.97446,1.57080,0.00000,-0.14512,-0.38003,0.04630,,,,,,,,,,,,,,,,,,,,,,,,,,0,0,0,0,0
1.0340,1783187533.5610,1,1,1.0000,0.0000,1.44682,0.23236,-2.77771,0.97453,1.57080,0.00000,-0.14512,-0.38003,0.04629,,,,,,,,,,,,,,,,,,,,,,,,,,0,0,0,0,0
1.0428,1783187533.5698,1,1,1.0000,0.0000,1.44682,0.23231,-2.77773,0.97459,1.57080,0.00000,-0.14512,-0.38003,0.04627,,,,,,,,,,,,,,,,,,,,,,,,,,0,0,0,0,0
1.0534,1783187533.5804,1,1,1.0000,0.0000,1.44682,0.23226,-2.77774,0.97465,1.57080,0.00000,-0.14512,-0.38003,0.04626,,,,,,,,,,,,,,,,,,,,,,,,,,0,0,0,0,0
1.0627,1783187533.5898,1,1,1.0000,0.0000,1.44682,0.23218,-2.77776,0.97475,1.57080,0.00000,-0.14512,-0.38003,0.04624,,,,,,,,,,,,,,,,,,,,,,,,,,0,0,0,0,0
1.0772,1783187533.6042,1,1,1.0000,0.0000,1.44682,0.23210,-2.77778,0.97485,1.57080,0.00000,-0.14512,-0.38003,0.04622,,,,,,,,,,,,,,,,,,,,,,,,,,0,0,0,0,0
1.0843,1783187533.6113,1,1,1.0000,0.0000,1.44682,0.23206,-2.77779,0.97489,1.57080,0.00000,-0.14512,-0.38003,0.04621,,,,,,,,,,,,,,,,,,,,,,,,,,0,0,0,0,0
1.0966,1783187533.6236,1,1,1.0000,0.0000,1.44682,0.23191,-2.77783,0.97509,1.57080,0.00000,-0.14512,-0.38003,0.04617,,,,,,,,,,,,,,,,,,,,,,,,,,0,0,0,0,0
1.1063,1783187533.6333,1,1,1.0000,0.0000,1.44682,0.23186,-2.77784,0.97516,1.57080,0.00000,-0.14512,-0.38003,0.04616,,,,,,,,,,,,,,,,,,,,,,,,,,0,0,0,0,0
1.1148,1783187533.6418,1,1,1.0000,0.0000,1.44682,0.23181,-2.77785,0.97521,1.57080,0.00000,-0.14512,-0.38003,0.04614,,,,,,,,,,,,,,,,,,,,,,,,,,0,0,0,0,0
1.1344,1783187533.6615,1,1,1.0000,0.0000,1.44682,0.23168,-2.77789,0.97537,1.57080,0.00000,-0.14512,-0.38003,0.04611,,,,,,,,,,,,,,,,,,,,,,,,,,0,0,0,0,0
1.1348,1783187533.6618,1,1,1.0000,0.0000,1.44682,0.23168,-2.77789,0.97537,1.57080,0.00000,-0.14512,-0.38003,0.04611,,,,,,,,,,,,,,,,,,,,,,,,,,0,0,0,0,0
1.1433,1783187533.6703,1,1,1.0000,0.0000,1.44682,0.23162,-2.77790,0.97545,1.57080,0.00000,-0.14512,-0.38003,0.04609,,,,,,,,,,,,,,,,,,,,,,,,,,0,0,0,0,0
1.1436,1783187533.6706,1,1,1.0000,0.0000,1.44682,0.23162,-2.77790,0.97545,1.57080,0.00000,-0.14512,-0.38003,0.04609,,,,,,,,,,,,,,,,,,,,,,,,,,0,0,0,0,0
1.1541,1783187533.6811,1,1,1.0000,0.0000,1.44682,0.23147,-2.77794,0.97565,1.57080,0.00000,-0.14512,-0.38003,0.04605,,,,,,,,,,,,,,,,,,,,,,,,,,0,0,0,0,0
1.1546,1783187533.6816,1,1,1.0000,0.0000,1.44682,0.23147,-2.77794,0.97565,1.57080,0.00000,-0.14512,-0.38003,0.04605,,,,,,,,,,,,,,,,,,,,,,,,,,0,0,0,0,0
1.1673,1783187533.6943,1,1,1.0000,0.0000,1.44682,0.23141,-2.77796,0.97572,1.57080,0.00000,-0.14512,-0.38003,0.04604,,,,,,,,,,,,,,,,,,,,,,,,,,0,0,0,0,0
1.1752,1783187533.7022,1,1,1.0000,0.0000,1.44682,0.23137,-2.77797,0.97577,1.57080,0.00000,-0.14512,-0.38003,0.04603,,,,,,,,,,,,,,,,,,,,,,,,,,0,0,0,0,0
1.1878,1783187533.7148,1,1,1.0000,0.0000,1.44682,0.23125,-2.77800,0.97592,1.57080,0.00000,-0.14512,-0.38003,0.04600,,,,,,,,,,,,,,,,,,,,,,,,,,0,0,0,0,0
1.1937,1783187533.7207,1,1,1.0000,0.0000,1.44682,0.23124,-2.77800,0.97593,1.57080,0.00000,-0.14512,-0.38003,0.04599,,,,,,,,,,,,,,,,,,,,,,,,,,0,0,0,0,0
1.1939,1783187533.7210,1,1,1.0000,0.0000,1.44682,0.23124,-2.77800,0.97593,1.57080,0.00000,-0.14512,-0.38003,0.04599,,,,,,,,,,,,,,,,,,,,,,,,,,0,0,0,0,0
1.2045,1783187533.7315,1,1,1.0000,0.0000,1.44682,0.23117,-2.77802,0.97601,1.57080,0.00000,-0.14512,-0.38003,0.04598,,,,,,,,,,,,,,,,,,,,,,,,,,0,0,0,0,0
1.2051,1783187533.7321,1,1,1.0000,0.0000,1.44682,0.23113,-2.77803,0.97607,1.57080,0.00000,-0.14512,-0.38003,0.04597,,,,,,,,,,,,,,,,,,,,,,,,,,0,0,0,0,0
1.2133,1783187533.7403,1,1,1.0000,0.0000,1.44682,0.23102,-2.77806,0.97621,1.57080,0.00000,-0.14512,-0.38003,0.04594,,,,,,,,,,,,,,,,,,,,,,,,,,0,0,0,0,0
1.2232,1783187533.7502,1,1,1.0000,0.0000,1.44682,0.23097,-2.77807,0.97627,1.57080,0.00000,-0.14512,-0.38003,0.04592,,,,,,,,,,,,,,,,,,,,,,,,,,0,0,0,0,0
1.2235,1783187533.7505,1,1,1.0000,0.0000,1.44682,0.23097,-2.77807,0.97627,1.57080,0.00000,-0.14512,-0.38003,0.04592,,,,,,,,,,,,,,,,,,,,,,,,,,0,0,0,0,0
1.2372,1783187533.7643,1,1,1.0000,0.0000,1.44682,0.23089,-2.77809,0.97638,1.57080,0.00000,-0.14512,-0.38003,0.04590,,,,,,,,,,,,,,,,,,,,,,,,,,0,0,0,0,0
1.2494,1783187533.7764,1,1,1.0000,0.0000,1.44682,0.23080,-2.77811,0.97648,1.57080,0.00000,-0.14512,-0.38003,0.04588,,,,,,,,,,,,,,,,,,,,,,,,,,0,0,0,0,0
1.2525,1783187533.7795,1,1,1.0000,0.0000,1.44682,0.23080,-2.77811,0.97648,1.57080,0.00000,-0.14512,-0.38003,0.04588,,,,,,,,,,,,,,,,,,,,,,,,,,0,0,0,0,0
1.2533,1783187533.7803,1,1,1.0000,0.0000,1.44682,0.23079,-2.77812,0.97649,1.57080,0.00000,-0.14512,-0.38003,0.04588,,,,,,,,,,,,,,,,,,,,,,,,,,0,0,0,0,0
1.2645,1783187533.7915,1,1,1.0000,0.0000,1.44682,0.23073,-2.77813,0.97657,1.57080,0.00000,-0.14512,-0.38003,0.04586,,,,,,,,,,,,,,,,,,,,,,,,,,0,0,0,0,0
1.2773,1783187533.8044,1,1,1.0000,0.0000,1.44682,0.23053,-2.77819,0.97683,1.57080,0.00000,-0.14512,-0.38003,0.04581,,,,,,,,,,,,,,,,,,,,,,,,,,0,0,0,0,0
1.2777,1783187533.8047,1,1,1.0000,0.0000,1.44682,0.23053,-2.77819,0.97683,1.57080,0.00000,-0.14512,-0.38003,0.04581,,,,,,,,,,,,,,,,,,,,,,,,,,0,0,0,0,0
1.2890,1783187533.8161,1,1,1.0000,0.0000,1.44682,0.23049,-2.77819,0.97687,1.57080,0.00000,-0.14512,-0.38003,0.04580,,,,,,,,,,,,,,,,,,,,,,,,,,0,0,0,0,0
1.2981,1783187533.8251,1,1,1.0000,0.0000,1.44682,0.23041,-2.77821,0.97697,1.57080,0.00000,-0.14512,-0.38003,0.04578,,,,,,,,,,,,,,,,,,,,,,,,,,0,0,0,0,0
1.3113,1783187533.8383,1,1,1.0000,0.0000,1.44682,0.23031,-2.77824,0.97710,1.57080,0.00000,-0.14512,-0.38003,0.04575,,,,,,,,,,,,,,,,,,,,,,,,,,0,0,0,0,0
1.3172,1783187533.8442,1,1,1.0000,0.0000,1.44682,0.23027,-2.77825,0.97715,1.57080,0.00000,-0.14512,-0.38003,0.04574,,,,,,,,,,,,,,,,,,,,,,,,,,0,0,0,0,0
1.3258,1783187533.8528,1,1,1.0000,0.0000,1.44682,0.23019,-2.77827,0.97725,1.57080,0.00000,-0.14512,-0.38003,0.04572,,,,,,,,,,,,,,,,,,,,,,,,,,0,0,0,0,0
1.3370,1783187533.8641,1,1,1.0000,0.0000,1.44682,0.23004,-2.77831,0.97744,1.57080,0.00000,-0.14512,-0.38003,0.04568,,,,,,,,,,,,,,,,,,,,,,,,,,0,0,0,0,0
1.3445,1783187533.8715,1,1,1.0000,0.0000,1.44682,0.23004,-2.77831,0.97744,1.57080,0.00000,-0.14512,-0.38003,0.04568,,,,,,,,,,,,,,,,,,,,,,,,,,0,0,0,0,0
1.3592,1783187533.8862,1,1,1.0000,0.0000,1.44682,0.22992,-2.77834,0.97759,1.57080,0.00000,-0.14512,-0.38003,0.04565,,,,,,,,,,,,,,,,,,,,,,,,,,0,0,0,0,0
1.3652,1783187533.8922,1,1,1.0000,0.0000,1.44682,0.22982,-2.77837,0.97772,1.57080,0.00000,-0.14512,-0.38003,0.04562,,,,,,,,,,,,,,,,,,,,,,,,,,0,0,0,0,0
1.3733,1783187533.9003,1,1,1.0000,0.0000,1.44682,0.22981,-2.77837,0.97773,1.57080,0.00000,-0.14512,-0.38003,0.04562,,,,,,,,,,,,,,,,,,,,,,,,,,0,0,0,0,0
1.3853,1783187533.9123,1,1,1.0000,0.0000,1.44682,0.22971,-2.77840,0.97786,1.57080,0.00000,-0.14512,-0.38003,0.04560,,,,,,,,,,,,,,,,,,,,,,,,,,0,0,0,0,0
1.3931,1783187533.9202,1,1,1.0000,0.0000,1.44682,0.22960,-2.77842,0.97799,1.57080,0.00000,-0.14512,-0.38003,0.04557,,,,,,,,,,,,,,,,,,,,,,,,,,0,0,0,0,0
1.4043,1783187533.9313,1,1,1.0000,0.0000,1.44682,0.22955,-2.77843,0.97805,1.57080,0.00000,-0.14512,-0.38003,0.04556,,,,,,,,,,,,,,,,,,,,,,,,,,0,0,0,0,0
1.4129,1783187533.9399,1,1,1.0000,0.0000,1.44682,0.22948,-2.77845,0.97814,1.57080,0.00000,-0.14512,-0.38003,0.04554,,,,,,,,,,,,,,,,,,,,,,,,,,0,0,0,0,0
1.4131,1783187533.9402,1,1,1.0000,0.0000,1.44682,0.22948,-2.77845,0.97814,1.57080,0.00000,-0.14512,-0.38003,0.04554,,,,,,,,,,,,,,,,,,,,,,,,,,0,0,0,0,0
1.4251,1783187533.9521,1,1,1.0000,0.0000,1.44682,0.22933,-2.77849,0.97833,1.57080,0.00000,-0.14512,-0.38003,0.04550,,,,,,,,,,,,,,,,,,,,,,,,,,0,0,0,0,0
1.4385,1783187533.9656,1,1,1.0000,0.0000,1.44682,0.22930,-2.77850,0.97837,1.57080,0.00000,-0.14512,-0.38003,0.04549,,,,,,,,,,,,,,,,,,,,,,,,,,0,0,0,0,0
1.4442,1783187533.9712,1,1,1.0000,0.0000,1.44682,0.22926,-2.77851,0.97841,1.57080,0.00000,-0.14512,-0.38003,0.04548,,,,,,,,,,,,,,,,,,,,,,,,,,0,0,0,0,0
1.4446,1783187533.9716,1,1,1.0000,0.0000,1.44682,0.22926,-2.77851,0.97841,1.57080,0.00000,-0.14512,-0.38003,0.04548,,,,,,,,,,,,,,,,,,,,,,,,,,0,0,0,0,0
1.4535,1783187533.9805,1,1,1.0000,0.0000,1.44682,0.22912,-2.77855,0.97860,1.57080,0.00000,-0.14512,-0.38003,0.04544,,,,,,,,,,,,,,,,,,,,,,,,,,0,0,0,0,0
1.4663,1783187533.9933,1,1,1.0000,0.0000,1.44682,0.22906,-2.77856,0.97867,1.57080,0.00000,-0.14512,-0.38003,0.04543,,,,,,,,,,,,,,,,,,,,,,,,,,0,0,0,0,0
1.4751,1783187534.0021,1,1,1.0000,0.0000,1.44682,0.22899,-2.77858,0.97875,1.57080,0.00000,-0.14512,-0.38003,0.04541,,,,,,,,,,,,,,,,,,,,,,,,,,0,0,0,0,0
1.4852,1783187534.0122,1,1,1.0000,0.0000,1.44682,0.22885,-2.77862,0.97894,1.57080,0.00000,-0.14512,-0.38003,0.04537,,,,,,,,,,,,,,,,,,,,,,,,,,0,0,0,0,0
1.4936,1783187534.0206,1,1,1.0000,0.0000,1.44682,0.22879,-2.77863,0.97900,1.57080,0.00000,-0.14512,-0.38003,0.04536,,,,,,,,,,,,,,,,,,,,,,,,,,0,0,0,0,0
1.4939,1783187534.0209,1,1,1.0000,0.0000,1.44682,0.22879,-2.77863,0.97900,1.57080,0.00000,-0.14512,-0.38003,0.04536,,,,,,,,,,,,,,,,,,,,,,,,,,0,0,0,0,0
1.5039,1783187534.0310,1,1,1.0000,0.0000,1.44682,0.22877,-2.77863,0.97903,1.57080,0.00000,-0.14512,-0.38003,0.04535,,,,,,,,,,,,,,,,,,,,,,,,,,0,0,0,0,0
1.5043,1783187534.0313,1,1,1.0000,0.0000,1.44682,0.22877,-2.77863,0.97903,1.57080,0.00000,-0.14512,-0.38003,0.04535,,,,,,,,,,,,,,,,,,,,,,,,,,0,0,0,0,0
1.5159,1783187534.0429,1,1,1.0000,0.0000,1.44682,0.22867,-2.77866,0.97916,1.57080,0.00000,-0.14512,-0.38003,0.04532,,,,,,,,,,,,,,,,,,,,,,,,,,0,0,0,0,0
1.5162,1783187534.0432,1,1,1.0000,0.0000,1.44682,0.22867,-2.77866,0.97916,1.57080,0.00000,-0.14512,-0.38003,0.04532,,,,,,,,,,,,,,,,,,,,,,,,,,0,0,0,0,0
1.5233,1783187534.0504,1,1,1.0000,0.0000,1.44682,0.22862,-2.77867,0.97922,1.57080,0.00000,-0.14512,-0.38003,0.04531,,,,,,,,,,,,,,,,,,,,,,,,,,0,0,0,0,0
1.5872,1783187534.1142,1,1,1.0000,0.0000,1.44682,0.22817,-2.77879,0.97979,1.57080,0.00000,-0.14512,-0.38003,0.04519,,,,,,,,,,,,,,,,,,,,,,,,,,0,0,0,0,0
1.5875,1783187534.1145,1,1,1.0000,0.0000,1.44682,0.22817,-2.77879,0.97979,1.57080,0.00000,-0.14512,-0.38003,0.04519,,,,,,,,,,,,,,,,,,,,,,,,,,0,0,0,0,0
1.5884,1783187534.1154,1,1,1.0000,0.0000,1.44682,0.22817,-2.77879,0.97979,1.57080,0.00000,-0.14512,-0.38003,0.04519,,,,,,,,,,,,,,,,,,,,,,,,,,0,0,0,0,0
1.5923,1783187534.1193,1,1,1.0000,0.0000,1.44682,0.22814,-2.77879,0.97982,1.57080,0.00000,-0.14512,-0.38003,0.04519,,,,,,,,,,,,,,,,,,,,,,,,,,0,0,0,0,0
1.5929,1783187534.1199,1,1,1.0000,0.0000,1.44682,0.22810,-2.77880,0.97987,1.57080,0.00000,-0.14512,-0.38003,0.04518,,,,,,,,,,,,,,,,,,,,,,,,,,0,0,0,0,0
1.6202,1783187534.1472,1,1,1.0000,0.0000,1.44682,0.22789,-2.77886,0.98013,1.57080,0.00000,-0.14512,-0.38003,0.04512,,,,,,,,,,,,,,,,,,,,,,,,,,0,0,0,0,0
1.6238,1783187534.1508,1,1,1.0000,0.0000,1.44682,0.22787,-2.77886,0.98016,1.57080,0.00000,-0.14512,-0.38003,0.04512,,,,,,,,,,,,,,,,,,,,,,,,,,0,0,0,0,0
1.6251,1783187534.1521,1,1,1.0000,0.0000,1.44682,0.22785,-2.77887,0.98019,1.57080,0.00000,-0.14512,-0.38003,0.04511,,,,,,,,,,,,,,,,,,,,,,,,,,0,0,0,0,0
1.6254,1783187534.1524,1,1,1.0000,0.0000,1.44682,0.22785,-2.77887,0.98019,1.57080,0.00000,-0.14512,-0.38003,0.04511,,,,,,,,,,,,,,,,,,,,,,,,,,0,0,0,0,0
1.6270,1783187534.1540,1,1,1.0000,0.0000,1.44682,0.22785,-2.77887,0.98019,1.57080,0.00000,-0.14512,-0.38003,0.04511,,,,,,,,,,,,,,,,,,,,,,,,,,0,0,0,0,0
1.6274,1783187534.1544,1,1,1.0000,0.0000,1.44682,0.22785,-2.77887,0.98019,1.57080,0.00000,-0.14512,-0.38003,0.04511,,,,,,,,,,,,,,,,,,,,,,,,,,0,0,0,0,0
1.6442,1783187534.1712,1,1,1.0000,0.0000,1.44682,0.22773,-2.77890,0.98034,1.57080,0.00000,-0.14512,-0.38003,0.04508,,,,,,,,,,,,,,,,,,,,,,,,,,0,0,0,0,0
1.6456,1783187534.1726,1,1,1.0000,0.0000,1.44682,0.22772,-2.77890,0.98035,1.57080,0.00000,-0.14512,-0.38003,0.04508,,,,,,,,,,,,,,,,,,,,,,,,,,0,0,0,0,0
1.6459,1783187534.1729,1,1,1.0000,0.0000,1.44682,0.22772,-2.77890,0.98035,1.57080,0.00000,-0.14512,-0.38003,0.04508,,,,,,,,,,,,,,,,,,,,,,,,,,0,0,0,0,0
1.6532,1783187534.1802,1,1,1.0000,0.0000,1.44682,0.22765,-2.77892,0.98043,1.57080,0.00000,-0.14512,-0.38003,0.04506,,,,,,,,,,,,,,,,,,,,,,,,,,0,0,0,0,0
1.6631,1783187534.1902,1,1,1.0000,0.0000,1.44682,0.22756,-2.77894,0.98056,1.57080,0.00000,-0.14512,-0.38003,0.04504,,,,,,,,,,,,,,,,,,,,,,,,,,0,0,0,0,0
1.6748,1783187534.2018,1,1,1.0000,0.0000,1.44682,0.22745,-2.77897,0.98069,1.57080,0.00000,-0.14512,-0.38003,0.04501,,,,,,,,,,,,,,,,,,,,,,,,,,0,0,0,0,0
1.6751,1783187534.2021,1,1,1.0000,0.0000,1.44682,0.22745,-2.77897,0.98069,1.57080,0.00000,-0.14512,-0.38003,0.04501,,,,,,,,,,,,,,,,,,,,,,,,,,0,0,0,0,0
1.6869,1783187534.2139,1,1,1.0000,0.0000,1.44682,0.22738,-2.77899,0.98078,1.57080,0.00000,-0.14512,-0.38003,0.04499,,,,,,,,,,,,,,,,,,,,,,,,,,0,0,0,0,0
1.6872,1783187534.2142,1,1,1.0000,0.0000,1.44682,0.22738,-2.77899,0.98078,1.57080,0.00000,-0.14512,-0.38003,0.04499,,,,,,,,,,,,,,,,,,,,,,,,,,0,0,0,0,0
1.6957,1783187534.2227,1,1,1.0000,0.0000,1.44682,0.22728,-2.77901,0.98090,1.57080,0.00000,-0.14512,-0.38003,0.04497,,,,,,,,,,,,,,,,,,,,,,,,,,0,0,0,0,0
1.6963,1783187534.2233,1,1,1.0000,0.0000,1.44682,0.22728,-2.77901,0.98090,1.57080,0.00000,-0.14512,-0.38003,0.04497,,,,,,,,,,,,,,,,,,,,,,,,,,0,0,0,0,0
1.7082,1783187534.2352,1,1,1.0000,0.0000,1.44682,0.22722,-2.77903,0.98097,1.57080,0.00000,-0.14512,-0.38003,0.04495,,,,,,,,,,,,,,,,,,,,,,,,,,0,0,0,0,0
1.7131,1783187534.2401,1,1,1.0000,0.0000,1.44682,0.22716,-2.77904,0.98105,1.57080,0.00000,-0.14512,-0.38003,0.04493,,,,,,,,,,,,,,,,,,,,,,,,,,0,0,0,0,0
1.7134,1783187534.2404,1,1,1.0000,0.0000,1.44682,0.22716,-2.77904,0.98105,1.57080,0.00000,-0.14512,-0.38003,0.04493,,,,,,,,,,,,,,,,,,,,,,,,,,0,0,0,0,0
1.7232,1783187534.2502,1,1,1.0000,0.0000,1.44682,0.22707,-2.77907,0.98117,1.57080,0.00001,-0.14512,-0.38003,0.04491,,,,,,,,,,,,,,,,,,,,,,,,,,0,0,0,0,0
1.7356,1783187534.2626,1,1,1.0000,0.0000,1.44682,0.22696,-2.77909,0.98130,1.57080,0.00001,-0.14512,-0.38003,0.04488,,,,,,,,,,,,,,,,,,,,,,,,,,0,0,0,0,0
1.7468,1783187534.2738,1,1,1.0000,0.0000,1.44682,0.22689,-2.77911,0.98139,1.57080,0.00001,-0.14512,-0.38003,0.04486,,,,,,,,,,,,,,,,,,,,,,,,,,0,0,0,0,0
1.7532,1783187534.2802,1,1,1.0000,0.0000,1.44682,0.22680,-2.77914,0.98151,1.57080,0.00001,-0.14512,-0.38003,0.04484,,,,,,,,,,,,,,,,,,,,,,,,,,0,0,0,0,0
1.7677,1783187534.2947,1,1,1.0000,0.0000,1.44682,0.22673,-2.77915,0.98159,1.57080,0.00001,-0.14512,-0.38003,0.04482,,,,,,,,,,,,,,,,,,,,,,,,,,0,0,0,0,0
1.7681,1783187534.2951,1,1,1.0000,0.0000,1.44682,0.22673,-2.77915,0.98159,1.57080,0.00001,-0.14512,-0.38003,0.04482,,,,,,,,,,,,,,,,,,,,,,,,,,0,0,0,0,0
1.7747,1783187534.3017,1,1,1.0000,0.0000,1.44682,0.22667,-2.77917,0.98166,1.57080,0.00001,-0.14512,-0.38003,0.04481,,,,,,,,,,,,,,,,,,,,,,,,,,0,0,0,0,0
1.7835,1783187534.3105,1,1,1.0000,0.0000,1.44682,0.22658,-2.77919,0.98178,1.57080,0.00001,-0.14512,-0.38003,0.04478,,,,,,,,,,,,,,,,,,,,,,,,,,0,0,0,0,0
1.7838,1783187534.3108,1,1,1.0000,0.0000,1.44682,0.22658,-2.77919,0.98178,1.57080,0.00001,-0.14512,-0.38003,0.04478,,,,,,,,,,,,,,,,,,,,,,,,,,0,0,0,0,0
1.7950,1783187534.3221,1,1,1.0000,0.0000,1.44682,0.22647,-2.77922,0.98191,1.57080,0.00001,-0.14512,-0.38003,0.04476,,,,,,,,,,,,,,,,,,,,,,,,,,0,0,0,0,0
1.8041,1783187534.3311,1,1,1.0000,0.0000,1.44682,0.22644,-2.77923,0.98196,1.57080,0.00001,-0.14512,-0.38003,0.04475,,,,,,,,,,,,,,,,,,,,,,,,,,0,0,0,0,0
1.8176,1783187534.3446,1,1,1.0000,0.0000,1.44682,0.22625,-2.77927,0.98219,1.57080,0.00001,-0.14512,-0.38003,0.04470,,,,,,,,,,,,,,,,,,,,,,,,,,0,0,0,0,0
1.8278,1783187534.3549,1,1,1.0000,0.0000,1.44682,0.22624,-2.77928,0.98220,1.57080,0.00001,-0.14512,-0.38003,0.04470,,,,,,,,,,,,,,,,,,,,,,,,,,0,0,0,0,0
1.8332,1783187534.3602,1,1,1.0000,0.0000,1.44682,0.22618,-2.77929,0.98228,1.57080,0.00001,-0.14512,-0.38003,0.04468,,,,,,,,,,,,,,,,,,,,,,,,,,0,0,0,0,0
1.8490,1783187534.3760,1,1,1.0000,0.0000,1.44682,0.22598,-2.77934,0.98253,1.57080,0.00001,-0.14512,-0.38003,0.04463,,,,,,,,,,,,,,,,,,,,,,,,,,0,0,0,0,0
1.8588,1783187534.3858,1,1,1.0000,0.0000,1.44682,0.22597,-2.77934,0.98254,1.57080,0.00001,-0.14512,-0.38003,0.04463,,,,,,,,,,,,,,,,,,,,,,,,,,0,0,0,0,0
1.8630,1783187534.3900,1,1,1.0000,0.0000,1.44682,0.22595,-2.77935,0.98257,1.57080,0.00001,-0.14512,-0.38003,0.04462,,,,,,,,,,,,,,,,,,,,,,,,,,0,0,0,0,0
1.8772,1783187534.4042,1,1,1.0000,0.0000,1.44682,0.22576,-2.77940,0.98280,1.57080,0.00001,-0.14512,-0.38003,0.04457,,,,,,,,,,,,,,,,,,,,,,,,,,0,0,0,0,0
1.8865,1783187534.4135,1,1,1.0000,0.0000,1.44682,0.22575,-2.77940,0.98281,1.57080,0.00001,-0.14512,-0.38003,0.04457,,,,,,,,,,,,,,,,,,,,,,,,,,0,0,0,0,0
1.8961,1783187534.4231,1,1,1.0000,0.0000,1.44682,0.22569,-2.77942,0.98289,1.57080,0.00001,-0.14512,-0.38003,0.04455,,,,,,,,,,,,,,,,,,,,,,,,,,0,0,0,0,0
1.9132,1783187534.4402,1,1,1.0000,0.0000,1.44682,0.22549,-2.77947,0.98314,1.57080,0.00001,-0.14512,-0.38003,0.04450,,,,,,,,,,,,,,,,,,,,,,,,,,0,0,0,0,0
1.9161,1783187534.4431,1,1,1.0000,0.0000,1.44682,0.22549,-2.77947,0.98314,1.57080,0.00001,-0.14512,-0.38003,0.04450,,,,,,,,,,,,,,,,,,,,,,,,,,0,0,0,0,0
1.9164,1783187534.4434,1,1,1.0000,0.0000,1.44682,0.22549,-2.77947,0.98314,1.57080,0.00001,-0.14512,-0.38003,0.04450,,,,,,,,,,,,,,,,,,,,,,,,,,0,0,0,0,0
1.9279,1783187534.4549,1,1,1.0000,0.0000,1.44682,0.22542,-2.77948,0.98323,1.57080,0.00001,-0.14512,-0.38003,0.04448,,,,,,,,,,,,,,,,,,,,,,,,,,0,0,0,0,0
1.9410,1783187534.4680,1,1,1.0000,0.0000,1.44682,0.22527,-2.77952,0.98342,1.57080,0.00001,-0.14512,-0.38003,0.04444,,,,,,,,,,,,,,,,,,,,,,,,,,0,0,0,0,0
1.9539,1783187534.4809,1,1,1.0000,0.0000,1.44682,0.22520,-2.77954,0.98350,1.57080,0.00001,-0.14512,-0.38002,0.04443,,,,,,,,,,,,,,,,,,,,,,,,,,0,0,0,0,0
1.9572,1783187534.4842,1,1,1.0000,0.0000,1.44682,0.22516,-2.77955,0.98356,1.57080,0.00001,-0.14512,-0.38002,0.04441,,,,,,,,,,,,,,,,,,,,,,,,,,0,0,0,0,0
1.9575,1783187534.4845,1,1,1.0000,0.0000,1.44682,0.22516,-2.77955,0.98356,1.57080,0.00001,-0.14512,-0.38002,0.04441,,,,,,,,,,,,,,,,,,,,,,,,,,0,0,0,0,0
1.9685,1783187534.4955,1,1,1.0000,0.0000,1.44682,0.22505,-2.77958,0.98369,1.57080,0.00001,-0.14512,-0.38002,0.04439,,,,,,,,,,,,,,,,,,,,,,,,,,0,0,0,0,0
1.9797,1783187534.5067,1,1,1.0000,0.0000,1.44682,0.22499,-2.77959,0.98377,1.57080,0.00001,-0.14512,-0.38002,0.04437,,,,,,,,,,,,,,,,,,,,,,,,,,0,0,0,0,0
1.9983,1783187534.5253,1,1,1.0000,0.0000,1.44682,0.22478,-2.77965,0.98403,1.57080,0.00001,-0.14512,-0.38002,0.04432,,,,,,,,,,,,,,,,,,,,,,,,,,0,0,0,0,0
1.9995,1783187534.5266,1,1,1.0000,0.0000,1.44682,0.22478,-2.77965,0.98403,1.57080,0.00001,-0.14512,-0.38002,0.04432,,,,,,,,,,,,,,,,,,,,,,,,,,0,0,0,0,0
1.9999,1783187534.5269,1,1,1.0000,0.0000,1.44682,0.22478,-2.77965,0.98403,1.57080,0.00001,-0.14512,-0.38002,0.04432,,,,,,,,,,,,,,,,,,,,,,,,,,0,0,0,0,0
2.0001,1783187534.5271,1,1,1.0000,0.0000,1.44682,0.22478,-2.77965,0.98403,1.57080,0.00001,-0.14512,-0.38002,0.04432,,,,,,,,,,,,,,,,,,,,,,,,,,0,0,0,0,0
2.0063,1783187534.5333,1,1,1.0000,0.0000,1.44682,0.22473,-2.77966,0.98410,1.57080,0.00001,-0.14512,-0.38002,0.04430,,,,,,,,,,,,,,,,,,,,,,,,,,0,0,0,0,0
2.0065,1783187534.5335,1,1,1.0000,0.0000,1.44682,0.22473,-2.77966,0.98410,1.57080,0.00001,-0.14512,-0.38002,0.04430,,,,,,,,,,,,,,,,,,,,,,,,,,0,0,0,0,0
2.0178,1783187534.5448,1,1,1.0000,0.0000,1.44682,0.22468,-2.77967,0.98416,1.57080,0.00001,-0.14512,-0.38002,0.04429,,,,,,,,,,,,,,,,,,,,,,,,,,0,0,0,0,0
2.0287,1783187534.5557,1,1,1.0000,0.0000,1.44682,0.22460,-2.77969,0.98426,1.57080,0.00001,-0.14512,-0.38002,0.04427,,,,,,,,,,,,,,,,,,,,,,,,,,0,0,0,0,0
2.0427,1783187534.5698,1,1,1.0000,0.0000,1.44682,0.22452,-2.77971,0.98436,1.57080,0.00001,-0.14512,-0.38002,0.04425,,,,,,,,,,,,,,,,,,,,,,,,,,0,0,0,0,0
2.0535,1783187534.5805,1,1,1.0000,0.0000,1.44682,0.22439,-2.77975,0.98453,1.57080,0.00001,-0.14512,-0.38002,0.04422,,,,,,,,,,,,,,,,,,,,,,,,,,0,0,0,0,0
2.0538,1783187534.5808,1,1,1.0000,0.0000,1.44682,0.22439,-2.77975,0.98453,1.57080,0.00001,-0.14512,-0.38002,0.04422,,,,,,,,,,,,,,,,,,,,,,,,,,0,0,0,0,0
2.0587,1783187534.5857,1,1,1.0000,0.0000,1.44682,0.22433,-2.77976,0.98460,1.57080,0.00001,-0.14512,-0.38002,0.04420,,,,,,,,,,,,,,,,,,,,,,,,,,0,0,0,0,0
2.0678,1783187534.5948,1,1,1.0000,0.0000,1.44682,0.22432,-2.77976,0.98461,1.57080,0.00001,-0.14512,-0.38002,0.04420,,,,,,,,,,,,,,,,,,,,,,,,,,0,0,0,0,0
2.0778,1783187534.6048,1,1,1.0000,0.0000,1.44682,0.22422,-2.77979,0.98474,1.57080,0.00001,-0.14512,-0.38002,0.04417,,,,,,,,,,,,,,,,,,,,,,,,,,0,0,0,0,0
2.0882,1783187534.6152,1,1,1.0000,0.0000,1.44682,0.22411,-2.77981,0.98487,1.57080,0.00001,-0.14512,-0.38002,0.04415,,,,,,,,,,,,,,,,,,,,,,,,,,0,0,0,0,0
2.0885,1783187534.6155,1,1,1.0000,0.0000,1.44682,0.22411,-2.77981,0.98487,1.57080,0.00001,-0.14512,-0.38002,0.04415,,,,,,,,,,,,,,,,,,,,,,,,,,0,0,0,0,0
2.0998,1783187534.6269,1,1,1.0000,0.0000,1.44682,0.22405,-2.77983,0.98494,1.57080,0.00001,-0.14512,-0.38002,0.04413,,,,,,,,,,,,,,,,,,,,,,,,,,0,0,0,0,0
2.1093,1783187534.6363,1,1,1.0000,0.0000,1.44682,0.22395,-2.77986,0.98508,1.57080,0.00001,-0.14512,-0.38002,0.04410,,,,,,,,,,,,,,,,,,,,,,,,,,0,0,0,0,0
2.1179,1783187534.6449,1,1,1.0000,0.0000,1.44682,0.22384,-2.77988,0.98521,1.57080,0.00001,-0.14512,-0.38002,0.04407,,,,,,,,,,,,,,,,,,,,,,,,,,0,0,0,0,0
2.1264,1783187534.6534,1,1,1.0000,0.0000,1.44682,0.22379,-2.77990,0.98527,1.57080,0.00001,-0.14512,-0.38002,0.04406,,,,,,,,,,,,,,,,,,,,,,,,,,0,0,0,0,0
2.1618,1783187534.6888,1,1,1.0000,0.0000,1.44682,0.22358,-2.77995,0.98553,1.57080,0.00001,-0.14512,-0.38002,0.04401,,,,,,,,,,,,,,,,,,,,,,,,,,0,0,0,0,0
2.1691,1783187534.6961,1,1,1.0000,0.0000,1.44682,0.22350,-2.77997,0.98564,1.57080,0.00001,-0.14512,-0.38002,0.04399,,,,,,,,,,,,,,,,,,,,,,,,,,0,0,0,0,0
2.1701,1783187534.6971,1,1,1.0000,0.0000,1.44682,0.22350,-2.77997,0.98564,1.57080,0.00001,-0.14512,-0.38002,0.04399,,,,,,,,,,,,,,,,,,,,,,,,,,0,0,0,0,0
2.1704,1783187534.6974,1,1,1.0000,0.0000,1.44682,0.22350,-2.77997,0.98564,1.57080,0.00001,-0.14512,-0.38002,0.04399,,,,,,,,,,,,,,,,,,,,,,,,,,0,0,0,0,0
2.1770,1783187534.7040,1,1,1.0000,0.0000,1.44682,0.22339,-2.78000,0.98577,1.57080,0.00001,-0.14512,-0.38002,0.04396,,,,,,,,,,,,,,,,,,,,,,,,,,0,0,0,0,0
2.1930,1783187534.7200,1,1,1.0000,0.0000,1.44682,0.22331,-2.78001,0.98587,1.57080,0.00001,-0.14512,-0.38002,0.04394,,,,,,,,,,,,,,,,,,,,,,,,,,0,0,0,0,0
2.2023,1783187534.7294,1,1,1.0000,0.0000,1.44682,0.22325,-2.78003,0.98595,1.57080,0.00001,-0.14512,-0.38002,0.04392,,,,,,,,,,,,,,,,,,,,,,,,,,0,0,0,0,0
2.2027,1783187534.7297,1,1,1.0000,0.0000,1.44682,0.22325,-2.78003,0.98595,1.57080,0.00001,-0.14512,-0.38002,0.04392,,,,,,,,,,,,,,,,,,,,,,,,,,0,0,0,0,0
2.2117,1783187534.7387,1,1,1.0000,0.0000,1.44682,0.22317,-2.78005,0.98605,1.57080,0.00001,-0.14512,-0.38002,0.04390,,,,,,,,,,,,,,,,,,,,,,,,,,0,0,0,0,0
2.2178,1783187534.7449,1,1,1.0000,0.0000,1.44682,0.22316,-2.78005,0.98607,1.57080,0.00001,-0.14512,-0.38002,0.04390,,,,,,,,,,,,,,,,,,,,,,,,,,0,0,0,0,0
2.2181,1783187534.7451,1,1,1.0000,0.0000,1.44682,0.22316,-2.78005,0.98607,1.57080,0.00001,-0.14512,-0.38002,0.04390,,,,,,,,,,,,,,,,,,,,,,,,,,0,0,0,0,0
2.2292,1783187534.7562,1,1,1.0000,0.0000,1.44682,0.22305,-2.78008,0.98620,1.57080,0.00001,-0.14512,-0.38002,0.04387,,,,,,,,,,,,,,,,,,,,,,,,,,0,0,0,0,0
2.2365,1783187534.7635,1,1,1.0000,0.0000,1.44682,0.22299,-2.78010,0.98627,1.57080,0.00001,-0.14512,-0.38002,0.04386,,,,,,,,,,,,,,,,,,,,,,,,,,0,0,0,0,0
2.2492,1783187534.7762,1,1,1.0000,0.0000,1.44682,0.22288,-2.78012,0.98641,1.57080,0.00001,-0.14512,-0.38002,0.04383,,,,,,,,,,,,,,,,,,,,,,,,,,0,0,0,0,0
2.2589,1783187534.7859,1,1,1.0000,0.0000,1.44682,0.22284,-2.78013,0.98647,1.57080,0.00001,-0.14512,-0.38002,0.04382,,,,,,,,,,,,,,,,,,,,,,,,,,0,0,0,0,0
2.2694,1783187534.7964,1,1,1.0000,0.0000,1.44681,0.22272,-2.78017,0.98662,1.57080,0.00001,-0.14512,-0.38002,0.04378,,,,,,,,,,,,,,,,,,,,,,,,,,0,0,0,0,0
2.2782,1783187534.8052,1,1,1.0000,0.0000,1.44681,0.22271,-2.78017,0.98663,1.57080,0.00001,-0.14512,-0.38002,0.04378,,,,,,,,,,,,,,,,,,,,,,,,,,0,0,0,0,0
2.2784,1783187534.8054,1,1,1.0000,0.0000,1.44681,0.22271,-2.78017,0.98663,1.57080,0.00001,-0.14512,-0.38002,0.04378,,,,,,,,,,,,,,,,,,,,,,,,,,0,0,0,0,0
2.2859,1783187534.8129,1,1,1.0000,0.0000,1.44681,0.22264,-2.78018,0.98671,1.57080,0.00001,-0.14512,-0.38002,0.04377,,,,,,,,,,,,,,,,,,,,,,,,,,0,0,0,0,0
2.3012,1783187534.8282,1,1,1.0000,0.0000,1.44681,0.22244,-2.78024,0.98697,1.57080,0.00001,-0.14512,-0.38002,0.04371,,,,,,,,,,,,,,,,,,,,,,,,,,0,0,0,0,0
2.3015,1783187534.8286,1,1,1.0000,0.0000,1.44681,0.22244,-2.78024,0.98697,1.57080,0.00001,-0.14512,-0.38002,0.04371,,,,,,,,,,,,,,,,,,,,,,,,,,0,0,0,0,0
2.3069,1783187534.8339,1,1,1.0000,0.0000,1.44681,0.22244,-2.78024,0.98697,1.57080,0.00001,-0.14512,-0.38002,0.04371,,,,,,,,,,,,,,,,,,,,,,,,,,0,0,0,0,0
2.3072,1783187534.8342,1,1,1.0000,0.0000,1.44681,0.22244,-2.78024,0.98697,1.57080,0.00001,-0.14512,-0.38002,0.04371,,,,,,,,,,,,,,,,,,,,,,,,,,0,0,0,0,0
2.3225,1783187534.8495,1,1,1.0000,0.0000,1.44681,0.22235,-2.78026,0.98708,1.57080,0.00001,-0.14512,-0.38002,0.04369,,,,,,,,,,,,,,,,,,,,,,,,,,0,0,0,0,0
2.3228,1783187534.8498,1,1,1.0000,0.0000,1.44681,0.22235,-2.78026,0.98708,1.57080,0.00001,-0.14512,-0.38002,0.04369,,,,,,,,,,,,,,,,,,,,,,,,,,0,0,0,0,0
2.3264,1783187534.8534,1,1,1.0000,0.0000,1.44681,0.22231,-2.78027,0.98713,1.57080,0.00001,-0.14512,-0.38002,0.04368,,,,,,,,,,,,,,,,,,,,,,,,,,0,0,0,0,0
2.3267,1783187534.8537,1,1,1.0000,0.0000,1.44681,0.22231,-2.78027,0.98713,1.57080,0.00001,-0.14512,-0.38002,0.04368,,,,,,,,,,,,,,,,,,,,,,,,,,0,0,0,0,0
2.3409,1783187534.8679,1,1,1.0000,0.0000,1.44681,0.22223,-2.78029,0.98723,1.57080,0.00001,-0.14512,-0.38002,0.04366,,,,,,,,,,,,,,,,,,,,,,,,,,0,0,0,0,0
2.3412,1783187534.8683,1,1,1.0000,0.0000,1.44681,0.22223,-2.78029,0.98723,1.57080,0.00001,-0.14512,-0.38002,0.04366,,,,,,,,,,,,,,,,,,,,,,,,,,0,0,0,0,0
2.3469,1783187534.8739,1,1,1.0000,0.0000,1.44681,0.22219,-2.78030,0.98727,1.57080,0.00001,-0.14512,-0.38002,0.04365,,,,,,,,,,,,,,,,,,,,,,,,,,0,0,0,0,0
2.3473,1783187534.8743,1,1,1.0000,0.0000,1.44681,0.22219,-2.78030,0.98727,1.57080,0.00001,-0.14512,-0.38002,0.04365,,,,,,,,,,,,,,,,,,,,,,,,,,0,0,0,0,0
2.3592,1783187534.8862,1,1,1.0000,0.0000,1.44681,0.22204,-2.78033,0.98747,1.57080,0.00001,-0.14512,-0.38002,0.04361,,,,,,,,,,,,,,,,,,,,,,,,,,0,0,0,0,0
2.3595,1783187534.8865,1,1,1.0000,0.0000,1.44681,0.22204,-2.78033,0.98747,1.57080,0.00001,-0.14512,-0.38002,0.04361,,,,,,,,,,,,,,,,,,,,,,,,,,0,0,0,0,0
2.3707,1783187534.8977,1,1,1.0000,0.0000,1.44681,0.22198,-2.78035,0.98754,1.57080,0.00001,-0.14512,-0.38002,0.04359,,,,,,,,,,,,,,,,,,,,,,,,,,0,0,0,0,0
2.3763,1783187534.9033,1,1,1.0000,0.0000,1.44681,0.22195,-2.78036,0.98757,1.57080,0.00001,-0.14512,-0.38002,0.04359,,,,,,,,,,,,,,,,,,,,,,,,,,0,0,0,0,0
2.3899,1783187534.9169,1,1,1.0000,0.0000,1.44681,0.22176,-2.78040,0.98781,1.57080,0.00001,-0.14512,-0.38002,0.04354,,,,,,,,,,,,,,,,,,,,,,,,,,0,0,0,0,0
2.3981,1783187534.9252,1,1,1.0000,0.0000,1.44681,0.22175,-2.78041,0.98782,1.57080,0.00001,-0.14512,-0.38002,0.04354,,,,,,,,,,,,,,,,,,,,,,,,,,0,0,0,0,0
2.4068,1783187534.9338,1,1,1.0000,0.0000,1.44681,0.22169,-2.78042,0.98790,1.57080,0.00001,-0.14512,-0.38002,0.04352,,,,,,,,,,,,,,,,,,,,,,,,,,0,0,0,0,0
2.4187,1783187534.9457,1,1,1.0000,0.0000,1.44681,0.22154,-2.78046,0.98808,1.57080,0.00001,-0.14512,-0.38002,0.04348,,,,,,,,,,,,,,,,,,,,,,,,,,0,0,0,0,0
2.4265,1783187534.9535,1,1,1.0000,0.0000,1.44681,0.22149,-2.78047,0.98815,1.57080,0.00001,-0.14512,-0.38002,0.04347,,,,,,,,,,,,,,,,,,,,,,,,,,0,0,0,0,0
2.4376,1783187534.9646,1,1,1.0000,0.0000,1.44681,0.22142,-2.78049,0.98824,1.57080,0.00001,-0.14512,-0.38002,0.04345,,,,,,,,,,,,,,,,,,,,,,,,,,0,0,0,0,0
2.4534,1783187534.9804,1,1,1.0000,0.0000,1.44681,0.22127,-2.78053,0.98842,1.57080,0.00001,-0.14512,-0.38002,0.04341,,,,,,,,,,,,,,,,,,,,,,,,,,0,0,0,0,0
2.4618,1783187534.9888,1,1,1.0000,0.0000,1.44681,0.22124,-2.78053,0.98847,1.57080,0.00001,-0.14512,-0.38002,0.04340,,,,,,,,,,,,,,,,,,,,,,,,,,0,0,0,0,0
2.4665,1783187534.9936,1,1,1.0000,0.0000,1.44681,0.22120,-2.78054,0.98851,1.57080,0.00001,-0.14512,-0.38002,0.04339,,,,,,,,,,,,,,,,,,,,,,,,,,0,0,0,0,0
2.4763,1783187535.0033,1,1,1.0000,0.0000,1.44681,0.22110,-2.78057,0.98863,1.57080,0.00001,-0.14512,-0.38002,0.04337,,,,,,,,,,,,,,,,,,,,,,,,,,0,0,0,0,0
2.4867,1783187535.0138,1,1,1.0000,0.0000,1.44681,0.22100,-2.78059,0.98876,1.57080,0.00001,-0.14512,-0.38002,0.04334,,,,,,,,,,,,,,,,,,,,,,,,,,0,0,0,0,0
2.5067,1783187535.0338,1,1,1.0000,0.0000,1.44681,0.22083,-2.78064,0.98897,1.57080,0.00001,-0.14512,-0.38002,0.04330,,,,,,,,,,,,,,,,,,,,,,,,,,0,0,0,0,0
2.5181,1783187535.0451,1,1,1.0000,0.0000,1.44681,0.22077,-2.78065,0.98905,1.57080,0.00001,-0.14512,-0.38002,0.04328,,,,,,,,,,,,,,,,,,,,,,,,,,0,0,0,0,0
2.5211,1783187535.0481,1,1,1.0000,0.0000,1.44681,0.22074,-2.78066,0.98908,1.57080,0.00001,-0.14512,-0.38002,0.04328,,,,,,,,,,,,,,,,,,,,,,,,,,0,0,0,0,0
2.5308,1783187535.0578,1,1,1.0000,0.0000,1.44681,0.22066,-2.78068,0.98918,1.57080,0.00001,-0.14512,-0.38002,0.04326,,,,,,,,,,,,,,,,,,,,,,,,,,0,0,0,0,0
2.5405,1783187535.0676,1,1,1.0000,0.0000,1.44681,0.22056,-2.78070,0.98931,1.57080,0.00001,-0.14512,-0.38002,0.04323,,,,,,,,,,,,,,,,,,,,,,,,,,0,0,0,0,0
2.5505,1783187535.0775,1,1,1.0000,0.0000,1.44681,0.22050,-2.78072,0.98939,1.57080,0.00001,-0.14512,-0.38002,0.04321,,,,,,,,,,,,,,,,,,,,,,,,,,0,0,0,0,0
2.5664,1783187535.0935,1,1,1.0000,0.0000,1.44681,0.22034,-2.78076,0.98959,1.57080,0.00001,-0.14512,-0.38002,0.04317,,,,,,,,,,,,,,,,,,,,,,,,,,0,0,0,0,0
2.5712,1783187535.0982,1,1,1.0000,0.0000,1.44681,0.22028,-2.78077,0.98966,1.57080,0.00001,-0.14512,-0.38002,0.04316,,,,,,,,,,,,,,,,,,,,,,,,,,0,0,0,0,0
2.5715,1783187535.0985,1,1,1.0000,0.0000,1.44681,0.22028,-2.78077,0.98966,1.57080,0.00001,-0.14512,-0.38002,0.04316,,,,,,,,,,,,,,,,,,,,,,,,,,0,0,0,0,0
2.5795,1783187535.1065,1,1,1.0000,0.0000,1.44681,0.22027,-2.78077,0.98967,1.57080,0.00001,-0.14512,-0.38002,0.04316,,,,,,,,,,,,,,,,,,,,,,,,,,0,0,0,0,0
2.5799,1783187535.1069,1,1,1.0000,0.0000,1.44681,0.22027,-2.78077,0.98967,1.57080,0.00001,-0.14512,-0.38002,0.04316,,,,,,,,,,,,,,,,,,,,,,,,,,0,0,0,0,0
2.5899,1783187535.1169,1,1,1.0000,0.0000,1.44681,0.22017,-2.78080,0.98980,1.57080,0.00001,-0.14512,-0.38002,0.04313,,,,,,,,,,,,,,,,,,,,,,,,,,0,0,0,0,0
2.6051,1783187535.1321,1,1,1.0000,0.0000,1.44681,0.22001,-2.78084,0.99000,1.57080,0.00001,-0.14512,-0.38002,0.04309,,,,,,,,,,,,,,,,,,,,,,,,,,0,0,0,0,0
2.6118,1783187535.1388,1,1,1.0000,0.0000,1.44681,0.22000,-2.78084,0.99001,1.57080,0.00001,-0.14512,-0.38002,0.04309,,,,,,,,,,,,,,,,,,,,,,,,,,0,0,0,0,0
2.6210,1783187535.1480,1,1,1.0000,0.0000,1.44681,0.21989,-2.78087,0.99014,1.57080,0.00001,-0.14512,-0.38002,0.04306,,,,,,,,,,,,,,,,,,,,,,,,,,0,0,0,0,0
2.6306,1783187535.1577,1,1,1.0000,0.0000,1.44681,0.21979,-2.78089,0.99027,1.57080,0.00001,-0.14512,-0.38002,0.04303,,,,,,,,,,,,,,,,,,,,,,,,,,0,0,0,0,0
2.6424,1783187535.1694,1,1,1.0000,0.0000,1.44681,0.21976,-2.78090,0.99031,1.57080,0.00001,-0.14512,-0.38002,0.04302,,,,,,,,,,,,,,,,,,,,,,,,,,0,0,0,0,0
2.6514,1783187535.1784,1,1,1.0000,0.0000,1.44681,0.21967,-2.78092,0.99042,1.57080,0.00001,-0.14512,-0.38002,0.04300,,,,,,,,,,,,,,,,,,,,,,,,,,0,0,0,0,0
2.6661,1783187535.1931,1,1,1.0000,0.0000,1.44681,0.21952,-2.78096,0.99061,1.57080,0.00001,-0.14512,-0.38002,0.04296,,,,,,,,,,,,,,,,,,,,,,,,,,0,0,0,0,0
2.6714,1783187535.1984,1,1,1.0000,0.0000,1.44681,0.21951,-2.78096,0.99062,1.57080,0.00001,-0.14512,-0.38002,0.04296,,,,,,,,,,,,,,,,,,,,,,,,,,0,0,0,0,0
2.6801,1783187535.2071,1,1,1.0000,0.0000,1.44681,0.21945,-2.78098,0.99070,1.57080,0.00001,-0.14512,-0.38002,0.04294,,,,,,,,,,,,,,,,,,,,,,,,,,0,0,0,0,0
2.6923,1783187535.2193,1,1,1.0000,0.0000,1.44681,0.21929,-2.78102,0.99089,1.57080,0.00001,-0.14512,-0.38002,0.04291,,,,,,,,,,,,,,,,,,,,,,,,,,0,0,0,0,0
2.7017,1783187535.2287,1,1,1.0000,0.0000,1.44681,0.21924,-2.78103,0.99096,1.57080,0.00001,-0.14512,-0.38002,0.04289,,,,,,,,,,,,,,,,,,,,,,,,,,0,0,0,0,0
2.7153,1783187535.2423,1,1,1.0000,0.0000,1.44681,0.21916,-2.78105,0.99106,1.57080,0.00001,-0.14512,-0.38002,0.04287,,,,,,,,,,,,,,,,,,,,,,,,,,0,0,0,0,0
2.7156,1783187535.2426,1,1,1.0000,0.0000,1.44681,0.21916,-2.78105,0.99106,1.57080,0.00001,-0.14512,-0.38002,0.04287,,,,,,,,,,,,,,,,,,,,,,,,,,0,0,0,0,0
2.7226,1783187535.2496,1,1,1.0000,0.0000,1.44681,0.21907,-2.78107,0.99117,1.57080,0.00001,-0.14512,-0.38002,0.04285,,,,,,,,,,,,,,,,,,,,,,,,,,0,0,0,0,0
2.7230,1783187535.2500,1,1,1.0000,0.0000,1.44681,0.21907,-2.78107,0.99117,1.57080,0.00001,-0.14512,-0.38002,0.04285,,,,,,,,,,,,,,,,,,,,,,,,,,0,0,0,0,0
2.7302,1783187535.2572,1,1,1.0000,0.0000,1.44681,0.21906,-2.78108,0.99118,1.57080,0.00001,-0.14512,-0.38002,0.04284,,,,,,,,,,,,,,,,,,,,,,,,,,0,0,0,0,0
2.7411,1783187535.2681,1,1,1.0000,0.0000,1.44681,0.21895,-2.78110,0.99132,1.57080,0.00001,-0.14512,-0.38002,0.04282,,,,,,,,,,,,,,,,,,,,,,,,,,0,0,0,0,0
2.7497,1783187535.2767,1,1,1.0000,0.0000,1.44681,0.21884,-2.78113,0.99146,1.57080,0.00001,-0.14512,-0.38002,0.04279,,,,,,,,,,,,,,,,,,,,,,,,,,0,0,0,0,0
2.7499,1783187535.2769,1,1,1.0000,0.0000,1.44681,0.21884,-2.78113,0.99146,1.57080,0.00001,-0.14512,-0.38002,0.04279,,,,,,,,,,,,,,,,,,,,,,,,,,0,0,0,0,0
2.7713,1783187535.2984,1,1,1.0000,0.0000,1.44681,0.21874,-2.78116,0.99159,1.57080,0.00001,-0.14512,-0.38002,0.04276,,,,,,,,,,,,,,,,,,,,,,,,,,0,0,0,0,0
2.7718,1783187535.2988,1,1,1.0000,0.0000,1.44681,0.21874,-2.78116,0.99159,1.57080,0.00001,-0.14512,-0.38002,0.04276,,,,,,,,,,,,,,,,,,,,,,,,,,0,0,0,0,0
2.7827,1783187535.3097,1,1,1.0000,0.0000,1.44681,0.21862,-2.78119,0.99174,1.57080,0.00001,-0.14512,-0.38002,0.04273,,,,,,,,,,,,,,,,,,,,,,,,,,0,0,0,0,0
2.7916,1783187535.3186,1,1,1.0000,0.0000,1.44681,0.21861,-2.78119,0.99175,1.57080,0.00001,-0.14512,-0.38002,0.04273,,,,,,,,,,,,,,,,,,,,,,,,,,0,0,0,0,0
2.8041,1783187535.3311,1,1,1.0000,0.0000,1.44681,0.21849,-2.78122,0.99189,1.57080,0.00001,-0.14512,-0.38002,0.04270,,,,,,,,,,,,,,,,,,,,,,,,,,0,0,0,0,0
2.8134,1783187535.3404,1,1,1.0000,0.0000,1.44681,0.21833,-2.78126,0.99209,1.57080,0.00001,-0.14512,-0.38002,0.04266,,,,,,,,,,,,,,,,,,,,,,,,,,0,0,0,0,0
2.8201,1783187535.3471,1,1,1.0000,0.0000,1.44681,0.21833,-2.78126,0.99209,1.57080,0.00001,-0.14512,-0.38002,0.04266,,,,,,,,,,,,,,,,,,,,,,,,,,0,0,0,0,0
2.8204,1783187535.3474,1,1,1.0000,0.0000,1.44681,0.21833,-2.78126,0.99209,1.57080,0.00001,-0.14512,-0.38002,0.04266,,,,,,,,,,,,,,,,,,,,,,,,,,0,0,0,0,0
2.8345,1783187535.3616,1,1,1.0000,0.0000,1.44681,0.21825,-2.78128,0.99220,1.57080,0.00001,-0.14512,-0.38002,0.04264,,,,,,,,,,,,,,,,,,,,,,,,,,0,0,0,0,0
2.8403,1783187535.3673,1,1,1.0000,0.0000,1.44681,0.21821,-2.78129,0.99225,1.57080,0.00001,-0.14512,-0.38002,0.04263,,,,,,,,,,,,,,,,,,,,,,,,,,0,0,0,0,0
2.8497,1783187535.3767,1,1,1.0000,0.0000,1.44681,0.21815,-2.78130,0.99232,1.57080,0.00001,-0.14512,-0.38002,0.04261,,,,,,,,,,,,,,,,,,,,,,,,,,0,0,0,0,0
2.8630,1783187535.3900,1,1,1.0000,0.0000,1.44681,0.21804,-2.78133,0.99246,1.57080,0.00001,-0.14512,-0.38002,0.04258,,,,,,,,,,,,,,,,,,,,,,,,,,0,0,0,0,0
2.8709,1783187535.3979,1,1,1.0000,0.0000,1.44681,0.21793,-2.78135,0.99259,1.57080,0.00001,-0.14512,-0.38002,0.04256,,,,,,,,,,,,,,,,,,,,,,,,,,0,0,0,0,0
2.8826,1783187535.4096,1,1,1.0000,0.0000,1.44681,0.21787,-2.78137,0.99266,1.57080,0.00001,-0.14512,-0.38002,0.04254,,,,,,,,,,,,,,,,,,,,,,,,,,0,0,0,0,0
2.8931,1783187535.4201,1,1,1.0000,0.0000,1.44681,0.21779,-2.78139,0.99276,1.57080,0.00001,-0.14512,-0.38002,0.04252,,,,,,,,,,,,,,,,,,,,,,,,,,0,0,0,0,0
2.9022,1783187535.4293,1,1,1.0000,0.0000,1.44681,0.21771,-2.78141,0.99287,1.57080,0.00001,-0.14512,-0.38002,0.04250,,,,,,,,,,,,,,,,,,,,,,,,,,0,0,0,0,0
2.9117,1783187535.4387,1,1,1.0000,0.0000,1.44681,0.21770,-2.78141,0.99288,1.57080,0.00001,-0.14512,-0.38002,0.04250,,,,,,,,,,,,,,,,,,,,,,,,,,0,0,0,0,0
2.9280,1783187535.4550,1,1,1.0000,0.0000,1.44681,0.21753,-2.78145,0.99309,1.57080,0.00001,-0.14512,-0.38002,0.04245,,,,,,,,,,,,,,,,,,,,,,,,,,0,0,0,0,0
2.9309,1783187535.4579,1,1,1.0000,0.0000,1.44681,0.21748,-2.78147,0.99316,1.57080,0.00001,-0.14512,-0.38002,0.04244,,,,,,,,,,,,,,,,,,,,,,,,,,0,0,0,0,0
2.9452,1783187535.4722,1,1,1.0000,0.0000,1.44681,0.21740,-2.78149,0.99325,1.57080,0.00001,-0.14512,-0.38002,0.04242,,,,,,,,,,,,,,,,,,,,,,,,,,0,0,0,0,0
2.9498,1783187535.4769,1,1,1.0000,0.0000,1.44681,0.21737,-2.78149,0.99329,1.57080,0.00001,-0.14512,-0.38002,0.04241,,,,,,,,,,,,,,,,,,,,,,,,,,0,0,0,0,0
2.9502,1783187535.4772,1,1,1.0000,0.0000,1.44681,0.21737,-2.78149,0.99329,1.57080,0.00001,-0.14512,-0.38002,0.04241,,,,,,,,,,,,,,,,,,,,,,,,,,0,0,0,0,0
2.9612,1783187535.4882,1,1,1.0000,0.0000,1.44681,0.21725,-2.78152,0.99344,1.57080,0.00001,-0.14512,-0.38002,0.04238,,,,,,,,,,,,,,,,,,,,,,,,,,0,0,0,0,0
2.9615,1783187535.4885,1,1,1.0000,0.0000,1.44681,0.21725,-2.78152,0.99344,1.57080,0.00001,-0.14512,-0.38002,0.04238,,,,,,,,,,,,,,,,,,,,,,,,,,0,0,0,0,0
2.9744,1783187535.5014,1,1,1.0000,0.0000,1.44681,0.21722,-2.78153,0.99348,1.57080,0.00001,-0.14512,-0.38002,0.04237,,,,,,,,,,,,,,,,,,,,,,,,,,0,0,0,0,0
2.9799,1783187535.5070,1,1,1.0000,0.0000,1.44681,0.21718,-2.78154,0.99353,1.57080,0.00001,-0.14512,-0.38002,0.04236,,,,,,,,,,,,,,,,,,,,,,,,,,0,0,0,0,0
2.9803,1783187535.5073,1,1,1.0000,0.0000,1.44681,0.21718,-2.78154,0.99353,1.57080,0.00001,-0.14512,-0.38002,0.04236,,,,,,,,,,,,,,,,,,,,,,,,,,0,0,0,0,0
2.9894,1783187535.5164,1,1,1.0000,0.0000,1.44681,0.21702,-2.78158,0.99372,1.57080,0.00001,-0.14512,-0.38002,0.04232,,,,,,,,,,,,,,,,,,,,,,,,,,0,0,0,0,0
3.0028,1783187535.5298,1,1,1.0000,0.0000,1.44681,0.21696,-2.78159,0.99380,1.57080,0.00001,-0.14512,-0.38002,0.04231,,,,,,,,,,,,,,,,,,,,,,,,,,0,0,0,0,0
3.0202,1783187535.5472,1,1,1.0000,0.0000,1.44681,0.21684,-2.78162,0.99395,1.57080,0.00001,-0.14512,-0.38002,0.04228,,,,,,,,,,,,,,,,,,,,,,,,,,0,0,0,0,0
3.0204,1783187535.5474,1,1,1.0000,0.0000,1.44681,0.21684,-2.78162,0.99395,1.57080,0.00001,-0.14512,-0.38002,0.04228,,,,,,,,,,,,,,,,,,,,,,,,,,0,0,0,0,0
3.0210,1783187535.5480,1,1,1.0000,0.0000,1.44681,0.21680,-2.78163,0.99400,1.57080,0.00001,-0.14512,-0.38002,0.04227,,,,,,,,,,,,,,,,,,,,,,,,,,0,0,0,0,0
3.0300,1783187535.5570,1,1,1.0000,0.0000,1.44681,0.21679,-2.78164,0.99402,1.57080,0.00001,-0.14512,-0.38002,0.04226,,,,,,,,,,,,,,,,,,,,,,,,,,0,0,0,0,0
3.0414,1783187535.5684,1,1,1.0000,0.0000,1.44681,0.21667,-2.78166,0.99416,1.57080,0.00001,-0.14512,-0.38002,0.04223,,,,,,,,,,,,,,,,,,,,,,,,,,0,0,0,0,0
3.0523,1783187535.5793,1,1,1.0000,0.0000,1.44681,0.21657,-2.78169,0.99429,1.57080,0.00001,-0.14512,-0.38002,0.04221,,,,,,,,,,,,,,,,,,,,,,,,,,0,0,0,0,0
3.0599,1783187535.5870,1,1,1.0000,0.0000,1.44681,0.21651,-2.78170,0.99436,1.57080,0.00001,-0.14512,-0.38002,0.04219,,,,,,,,,,,,,,,,,,,,,,,,,,0,0,0,0,0
3.0776,1783187535.6046,1,1,1.0000,0.0000,1.44681,0.21635,-2.78175,0.99457,1.57080,0.00001,-0.14512,-0.38002,0.04215,,,,,,,,,,,,,,,,,,,,,,,,,,0,0,0,0,0
3.0806,1783187535.6076,1,1,1.0000,0.0000,1.44681,0.21635,-2.78175,0.99457,1.57080,0.00001,-0.14512,-0.38002,0.04215,,,,,,,,,,,,,,,,,,,,,,,,,,0,0,0,0,0
3.0899,1783187535.6169,1,1,1.0000,0.0000,1.44681,0.21628,-2.78176,0.99464,1.57080,0.00001,-0.14512,-0.38002,0.04213,,,,,,,,,,,,,,,,,,,,,,,,,,0,0,0,0,0
3.0901,1783187535.6172,1,1,1.0000,0.0000,1.44681,0.21628,-2.78176,0.99464,1.57080,0.00001,-0.14512,-0.38002,0.04213,,,,,,,,,,,,,,,,,,,,,,,,,,0,0,0,0,0
3.0997,1783187535.6267,1,1,1.0000,0.0000,1.44681,0.21622,-2.78178,0.99472,1.57080,0.00001,-0.14512,-0.38002,0.04212,,,,,,,,,,,,,,,,,,,,,,,,,,0,0,0,0,0
3.1104,1783187535.6375,1,1,1.0000,0.0000,1.44681,0.21607,-2.78181,0.99491,1.57080,0.00001,-0.14512,-0.38002,0.04208,,,,,,,,,,,,,,,,,,,,,,,,,,0,0,0,0,0
3.1108,1783187535.6378,1,1,1.0000,0.0000,1.44681,0.21607,-2.78181,0.99491,1.57080,0.00001,-0.14512,-0.38002,0.04208,,,,,,,,,,,,,,,,,,,,,,,,,,0,0,0,0,0
3.1110,1783187535.6380,1,1,1.0000,0.0000,1.44681,0.21607,-2.78181,0.99491,1.57080,0.00001,-0.14512,-0.38002,0.04208,,,,,,,,,,,,,,,,,,,,,,,,,,0,0,0,0,0
3.1216,1783187535.6487,1,1,1.0000,0.0000,1.44681,0.21601,-2.78183,0.99499,1.57080,0.00001,-0.14512,-0.38002,0.04206,,,,,,,,,,,,,,,,,,,,,,,,,,0,0,0,0,0
3.1220,1783187535.6490,1,1,1.0000,0.0000,1.44681,0.21601,-2.78183,0.99499,1.57080,0.00001,-0.14512,-0.38002,0.04206,,,,,,,,,,,,,,,,,,,,,,,,,,0,0,0,0,0
3.1332,1783187535.6602,1,1,1.0000,0.0000,1.44681,0.21590,-2.78186,0.99512,1.57080,0.00001,-0.14512,-0.38002,0.04204,,,,,,,,,,,,,,,,,,,,,,,,,,0,0,0,0,0
3.1416,1783187535.6686,1,1,1.0000,0.0000,1.44681,0.21579,-2.78188,0.99525,1.57080,0.00001,-0.14512,-0.38002,0.04201,,,,,,,,,,,,,,,,,,,,,,,,,,0,0,0,0,0
3.1518,1783187535.6788,1,1,1.0000,0.0000,1.44681,0.21579,-2.78188,0.99526,1.57080,0.00001,-0.14512,-0.38002,0.04201,,,,,,,,,,,,,,,,,,,,,,,,,,0,0,0,0,0
3.1617,1783187535.6887,1,1,1.0000,0.0000,1.44681,0.21568,-2.78191,0.99540,1.57080,0.00001,-0.14512,-0.38002,0.04198,,,,,,,,,,,,,,,,,,,,,,,,,,0,0,0,0,0
3.1621,1783187535.6891,1,1,1.0000,0.0000,1.44681,0.21568,-2.78191,0.99540,1.57080,0.00001,-0.14512,-0.38002,0.04198,,,,,,,,,,,,,,,,,,,,,,,,,,0,0,0,0,0
3.1696,1783187535.6967,1,1,1.0000,0.0000,1.44681,0.21557,-2.78194,0.99553,1.57080,0.00001,-0.14512,-0.38002,0.04195,,,,,,,,,,,,,,,,,,,,,,,,,,0,0,0,0,0
3.1819,1783187535.7089,1,1,1.0000,0.0000,1.44681,0.21551,-2.78195,0.99560,1.57080,0.00001,-0.14512,-0.38002,0.04194,,,,,,,,,,,,,,,,,,,,,,,,,,0,0,0,0,0
3.1898,1783187535.7168,1,1,1.0000,0.0000,1.44681,0.21545,-2.78197,0.99568,1.57080,0.00001,-0.14512,-0.38002,0.04192,,,,,,,,,,,,,,,,,,,,,,,,,,0,0,0,0,0
3.2005,1783187535.7275,1,1,1.0000,0.0000,1.44681,0.21535,-2.78199,0.99580,1.57080,0.00001,-0.14512,-0.38002,0.04190,,,,,,,,,,,,,,,,,,,,,,,,,,0,0,0,0,0
3.2118,1783187535.7389,1,1,1.0000,0.0000,1.44681,0.21529,-2.78201,0.99588,1.57080,0.00001,-0.14512,-0.38002,0.04188,,,,,,,,,,,,,,,,,,,,,,,,,,0,0,0,0,0
3.2249,1783187535.7519,1,1,1.0000,0.0000,1.44681,0.21513,-2.78204,0.99608,1.57080,0.00001,-0.14512,-0.38002,0.04184,,,,,,,,,,,,,,,,,,,,,,,,,,0,0,0,0,0
3.2352,1783187535.7622,1,1,1.0000,0.0000,1.44681,0.21502,-2.78207,0.99621,1.57080,0.00001,-0.14512,-0.38002,0.04181,,,,,,,,,,,,,,,,,,,,,,,,,,0,0,0,0,0
3.2425,1783187535.7695,1,1,1.0000,0.0000,1.44681,0.21501,-2.78207,0.99622,1.57080,0.00001,-0.14512,-0.38002,0.04181,,,,,,,,,,,,,,,,,,,,,,,,,,0,0,0,0,0
3.2508,1783187535.7778,1,1,1.0000,0.0000,1.44681,0.21495,-2.78209,0.99630,1.57080,0.00001,-0.14512,-0.38002,0.04180,,,,,,,,,,,,,,,,,,,,,,,,,,0,0,0,0,0
3.2615,1783187535.7885,1,1,1.0000,0.0000,1.44681,0.21480,-2.78212,0.99649,1.57080,0.00001,-0.14512,-0.38002,0.04176,,,,,,,,,,,,,,,,,,,,,,,,,,0,0,0,0,0
3.2717,1783187535.7987,1,1,1.0000,0.0000,1.44681,0.21479,-2.78213,0.99650,1.57080,0.00001,-0.14512,-0.38002,0.04175,,,,,,,,,,,,,,,,,,,,,,,,,,0,0,0,0,0
3.2812,1783187535.8082,1,1,1.0000,0.0000,1.44681,0.21468,-2.78215,0.99664,1.57080,0.00001,-0.14512,-0.38002,0.04173,,,,,,,,,,,,,,,,,,,,,,,,,,0,0,0,0,0
3.2909,1783187535.8179,1,1,1.0000,0.0000,1.44681,0.21458,-2.78218,0.99677,1.57080,0.00001,-0.14512,-0.38002,0.04170,,,,,,,,,,,,,,,,,,,,,,,,,,0,0,0,0,0
3.2912,1783187535.8182,1,1,1.0000,0.0000,1.44681,0.21458,-2.78218,0.99677,1.57080,0.00001,-0.14512,-0.38002,0.04170,,,,,,,,,,,,,,,,,,,,,,,,,,0,0,0,0,0
3.3062,1783187535.8332,1,1,1.0000,0.0000,1.44681,0.21449,-2.78220,0.99687,1.57080,0.00002,-0.14512,-0.38002,0.04168,,,,,,,,,,,,,,,,,,,,,,,,,,0,0,0,0,0
3.3102,1783187535.8372,1,1,1.0000,0.0000,1.44681,0.21445,-2.78221,0.99692,1.57080,0.00002,-0.14512,-0.38002,0.04167,,,,,,,,,,,,,,,,,,,,,,,,,,0,0,0,0,0
3.3211,1783187535.8481,1,1,1.0000,0.0000,1.44681,0.21430,-2.78225,0.99711,1.57080,0.00002,-0.14512,-0.38002,0.04163,,,,,,,,,,,,,,,,,,,,,,,,,,0,0,0,0,0
3.3317,1783187535.8587,1,1,1.0000,0.0000,1.44681,0.21429,-2.78225,0.99712,1.57080,0.00002,-0.14512,-0.38002,0.04163,,,,,,,,,,,,,,,,,,,,,,,,,,0,0,0,0,0
3.3404,1783187535.8674,1,1,1.0000,0.0000,1.44681,0.21423,-2.78226,0.99720,1.57080,0.00002,-0.14512,-0.38002,0.04161,,,,,,,,,,,,,,,,,,,,,,,,,,0,0,0,0,0
3.3510,1783187535.8780,1,1,1.0000,0.0000,1.44681,0.21408,-2.78230,0.99739,1.57080,0.00002,-0.14512,-0.38002,0.04157,,,,,,,,,,,,,,,,,,,,,,,,,,0,0,0,0,0
3.3512,1783187535.8783,1,1,1.0000,0.0000,1.44681,0.21408,-2.78230,0.99739,1.57080,0.00002,-0.14512,-0.38002,0.04157,,,,,,,,,,,,,,,,,,,,,,,,,,0,0,0,0,0
3.3651,1783187535.8921,1,1,1.0000,0.0000,1.44681,0.21399,-2.78232,0.99749,1.57080,0.00002,-0.14512,-0.38002,0.04155,,,,,,,,,,,,,,,,,,,,,,,,,,0,0,0,0,0
3.3697,1783187535.8968,1,1,1.0000,0.0000,1.44681,0.21396,-2.78233,0.99754,1.57080,0.00002,-0.14512,-0.38002,0.04154,,,,,,,,,,,,,,,,,,,,,,,,,,0,0,0,0,0
3.3700,1783187535.8970,1,1,1.0000,0.0000,1.44681,0.21396,-2.78233,0.99754,1.57080,0.00002,-0.14512,-0.38002,0.04154,,,,,,,,,,,,,,,,,,,,,,,,,,0,0,0,0,0
3.3857,1783187535.9127,1,1,1.0000,0.0000,1.44681,0.21375,-2.78238,0.99780,1.57080,0.00002,-0.14512,-0.38002,0.04149,,,,,,,,,,,,,,,,,,,,,,,,,,0,0,0,0,0
3.3902,1783187535.9172,1,1,1.0000,0.0000,1.44681,0.21375,-2.78238,0.99780,1.57080,0.00002,-0.14512,-0.38002,0.04149,,,,,,,,,,,,,,,,,,,,,,,,,,0,0,0,0,0
3.4043,1783187535.9313,1,1,1.0000,0.0000,1.44681,0.21370,-2.78239,0.99786,1.57080,0.00002,-0.14512,-0.38002,0.04148,,,,,,,,,,,,,,,,,,,,,,,,,,0,0,0,0,0
3.4097,1783187535.9367,1,1,1.0000,0.0000,1.44681,0.21362,-2.78241,0.99796,1.57080,0.00002,-0.14512,-0.38002,0.04146,,,,,,,,,,,,,,,,,,,,,,,,,,0,0,0,0,0
3.5519,1783187536.0790,1,1,1.0000,0.0000,1.44681,0.21259,-2.78266,0.99924,1.57080,0.00002,-0.14512,-0.38002,0.04119,,,,,,,,,,,,,,,,,,,,,,,,,,0,0,0,0,0
3.5579,1783187536.0850,1,1,1.0000,0.0000,1.44681,0.21248,-2.78269,0.99937,1.57080,0.00002,-0.14512,-0.38002,0.04117,,,,,,,,,,,,,,,,,,,,,,,,,,0,0,0,0,0
3.5583,1783187536.0853,1,1,1.0000,0.0000,1.44681,0.21248,-2.78269,0.99937,1.57080,0.00002,-0.14512,-0.38002,0.04117,,,,,,,,,,,,,,,,,,,,,,,,,,0,0,0,0,0
3.5585,1783187536.0855,1,1,1.0000,0.0000,1.44681,0.21248,-2.78269,0.99937,1.57080,0.00002,-0.14512,-0.38002,0.04117,,,,,,,,,,,,,,,,,,,,,,,,,,0,0,0,0,0
3.5640,1783187536.0910,1,1,1.0000,0.0000,1.44681,0.21243,-2.78270,0.99944,1.57080,0.00002,-0.14512,-0.38002,0.04115,,,,,,,,,,,,,,,,,,,,,,,,,,0,0,0,0,0
3.5643,1783187536.0913,1,1,1.0000,0.0000,1.44681,0.21243,-2.78270,0.99944,1.57080,0.00002,-0.14512,-0.38002,0.04115,,,,,,,,,,,,,,,,,,,,,,,,,,0,0,0,0,0
3.5651,1783187536.0921,1,1,1.0000,0.0000,1.44681,0.21238,-2.78272,0.99950,1.57080,0.00002,-0.14512,-0.38002,0.04114,,,,,,,,,,,,,,,,,,,,,,,,,,0,0,0,0,0
3.5664,1783187536.0934,1,1,1.0000,0.0000,1.44681,0.21238,-2.78272,0.99950,1.57080,0.00002,-0.14512,-0.38002,0.04114,,,,,,,,,,,,,,,,,,,,,,,,,,0,0,0,0,0
3.5667,1783187536.0937,1,1,1.0000,0.0000,1.44681,0.21238,-2.78272,0.99950,1.57080,0.00002,-0.14512,-0.38002,0.04114,,,,,,,,,,,,,,,,,,,,,,,,,,0,0,0,0,0
3.5669,1783187536.0940,1,1,1.0000,0.0000,1.44681,0.21238,-2.78272,0.99950,1.57080,0.00002,-0.14512,-0.38002,0.04114,,,,,,,,,,,,,,,,,,,,,,,,,,0,0,0,0,0
3.5673,1783187536.0943,1,1,1.0000,0.0000,1.44681,0.21238,-2.78272,0.99950,1.57080,0.00002,-0.14512,-0.38002,0.04114,,,,,,,,,,,,,,,,,,,,,,,,,,0,0,0,0,0
3.5679,1783187536.0949,1,1,1.0000,0.0000,1.44681,0.21238,-2.78272,0.99950,1.57080,0.00002,-0.14512,-0.38002,0.04114,,,,,,,,,,,,,,,,,,,,,,,,,,0,0,0,0,0
3.5682,1783187536.0952,1,1,1.0000,0.0000,1.44681,0.21238,-2.78272,0.99950,1.57080,0.00002,-0.14512,-0.38002,0.04114,,,,,,,,,,,,,,,,,,,,,,,,,,0,0,0,0,0
3.5685,1783187536.0955,1,1,1.0000,0.0000,1.44681,0.21238,-2.78272,0.99950,1.57080,0.00002,-0.14512,-0.38002,0.04114,,,,,,,,,,,,,,,,,,,,,,,,,,0,0,0,0,0
3.5690,1783187536.0960,1,1,1.0000,0.0000,1.44681,0.21238,-2.78272,0.99950,1.57080,0.00002,-0.14512,-0.38002,0.04114,,,,,,,,,,,,,,,,,,,,,,,,,,0,0,0,0,0
3.5698,1783187536.0968,1,1,1.0000,0.0000,1.44681,0.21238,-2.78272,0.99950,1.57080,0.00002,-0.14512,-0.38002,0.04114,,,,,,,,,,,,,,,,,,,,,,,,,,0,0,0,0,0
3.5702,1783187536.0972,1,1,1.0000,0.0000,1.44681,0.21238,-2.78272,0.99950,1.57080,0.00002,-0.14512,-0.38002,0.04114,,,,,,,,,,,,,,,,,,,,,,,,,,0,0,0,0,0
3.5717,1783187536.0988,1,1,1.0000,0.0000,1.44681,0.21238,-2.78272,0.99950,1.57080,0.00002,-0.14512,-0.38002,0.04114,,,,,,,,,,,,,,,,,,,,,,,,,,0,0,0,0,0
3.5721,1783187536.0992,1,1,1.0000,0.0000,1.44681,0.21238,-2.78272,0.99950,1.57080,0.00002,-0.14512,-0.38002,0.04114,,,,,,,,,,,,,,,,,,,,,,,,,,0,0,0,0,0
3.5799,1783187536.1069,1,1,1.0000,0.0000,1.44681,0.21235,-2.78272,0.99953,1.57080,0.00002,-0.14512,-0.38002,0.04113,,,,,,,,,,,,,,,,,,,,,,,,,,0,0,0,0,0
3.6466,1783187536.1736,1,1,1.0000,0.0000,1.44681,0.21183,-2.78285,1.00018,1.57080,0.00002,-0.14512,-0.38002,0.04100,,,,,,,,,,,,,,,,,,,,,,,,,,0,0,0,0,0
3.6468,1783187536.1738,1,1,1.0000,0.0000,1.44681,0.21183,-2.78285,1.00018,1.57080,0.00002,-0.14512,-0.38002,0.04100,,,,,,,,,,,,,,,,,,,,,,,,,,0,0,0,0,0
3.6472,1783187536.1742,1,1,1.0000,0.0000,1.44681,0.21183,-2.78285,1.00018,1.57080,0.00002,-0.14512,-0.38002,0.04100,,,,,,,,,,,,,,,,,,,,,,,,,,0,0,0,0,0
3.6476,1783187536.1746,1,1,1.0000,0.0000,1.44681,0.21183,-2.78285,1.00018,1.57080,0.00002,-0.14512,-0.38002,0.04100,,,,,,,,,,,,,,,,,,,,,,,,,,0,0,0,0,0
3.6480,1783187536.1750,1,1,1.0000,0.0000,1.44681,0.21183,-2.78285,1.00018,1.57080,0.00002,-0.14512,-0.38002,0.04100,,,,,,,,,,,,,,,,,,,,,,,,,,0,0,0,0,0
3.6484,1783187536.1755,1,1,1.0000,0.0000,1.44681,0.21183,-2.78285,1.00018,1.57080,0.00002,-0.14512,-0.38002,0.04100,,,,,,,,,,,,,,,,,,,,,,,,,,0,0,0,0,0
3.6593,1783187536.1863,1,1,1.0000,0.0000,1.44681,0.21174,-2.78287,1.00029,1.57080,0.00002,-0.14512,-0.38002,0.04098,,,,,,,,,,,,,,,,,,,,,,,,,,0,0,0,0,0
3.6716,1783187536.1986,1,1,1.0000,0.0000,1.44681,0.21167,-2.78289,1.00038,1.57080,0.00002,-0.14512,-0.38002,0.04096,,,,,,,,,,,,,,,,,,,,,,,,,,0,0,0,0,0
3.6719,1783187536.1990,1,1,1.0000,0.0000,1.44681,0.21167,-2.78289,1.00038,1.57080,0.00002,-0.14512,-0.38002,0.04096,,,,,,,,,,,,,,,,,,,,,,,,,,0,0,0,0,0
3.6811,1783187536.2081,1,1,1.0000,0.0000,1.44681,0.21151,-2.78292,1.00058,1.57080,0.00002,-0.14512,-0.38002,0.04092,,,,,,,,,,,,,,,,,,,,,,,,,,0,0,0,0,0
3.6971,1783187536.2241,1,1,1.0000,0.0000,1.44681,0.21143,-2.78295,1.00069,1.57080,0.00002,-0.14512,-0.38002,0.04090,,,,,,,,,,,,,,,,,,,,,,,,,,0,0,0,0,0
3.7010,1783187536.2280,1,1,1.0000,0.0000,1.44681,0.21139,-2.78296,1.00073,1.57080,0.00002,-0.14512,-0.38002,0.04089,,,,,,,,,,,,,,,,,,,,,,,,,,0,0,0,0,0
3.7136,1783187536.2406,1,1,1.0000,0.0000,1.44681,0.21124,-2.78299,1.00092,1.57080,0.00002,-0.14512,-0.38002,0.04085,,,,,,,,,,,,,,,,,,,,,,,,,,0,0,0,0,0
3.7212,1783187536.2483,1,1,1.0000,0.0000,1.44681,0.21123,-2.78299,1.00093,1.57080,0.00002,-0.14512,-0.38002,0.04085,,,,,,,,,,,,,,,,,,,,,,,,,,0,0,0,0,0
3.7299,1783187536.2569,1,1,1.0000,0.0000,1.44681,0.21116,-2.78301,1.00101,1.57080,0.00002,-0.14512,-0.38002,0.04083,,,,,,,,,,,,,,,,,,,,,,,,,,0,0,0,0,0
3.7413,1783187536.2683,1,1,1.0000,0.0000,1.44681,0.21101,-2.78305,1.00120,1.57080,0.00002,-0.14512,-0.38002,0.04079,,,,,,,,,,,,,,,,,,,,,,,,,,0,0,0,0,0
3.7417,1783187536.2687,1,1,1.0000,0.0000,1.44681,0.21101,-2.78305,1.00120,1.57080,0.00002,-0.14512,-0.38002,0.04079,,,,,,,,,,,,,,,,,,,,,,,,,,0,0,0,0,0
3.7495,1783187536.2765,1,1,1.0000,0.0000,1.44681,0.21096,-2.78306,1.00126,1.57080,0.00002,-0.14512,-0.38002,0.04078,,,,,,,,,,,,,,,,,,,,,,,,,,0,0,0,0,0
3.7598,1783187536.2868,1,1,1.0000,0.0000,1.44681,0.21093,-2.78307,1.00131,1.57080,0.00002,-0.14512,-0.38002,0.04077,,,,,,,,,,,,,,,,,,,,,,,,,,0,0,0,0,0
3.7738,1783187536.3008,1,1,1.0000,0.0000,1.44681,0.21073,-2.78311,1.00154,1.57080,0.00002,-0.14512,-0.38002,0.04072,,,,,,,,,,,,,,,,,,,,,,,,,,0,0,0,0,0
3.7834,1783187536.3104,1,1,1.0000,0.0000,1.44681,0.21073,-2.78312,1.00155,1.57080,0.00002,-0.14512,-0.38002,0.04072,,,,,,,,,,,,,,,,,,,,,,,,,,0,0,0,0,0
3.7913,1783187536.3184,1,1,1.0000,0.0000,1.44681,0.21066,-2.78313,1.00163,1.57080,0.00002,-0.14512,-0.38002,0.04071,,,,,,,,,,,,,,,,,,,,,,,,,,0,0,0,0,0
3.8030,1783187536.3300,1,1,1.0000,0.0000,1.44681,0.21051,-2.78317,1.00182,1.57080,0.00002,-0.14512,-0.38002,0.04067,,,,,,,,,,,,,,,,,,,,,,,,,,0,0,0,0,0
3.8112,1783187536.3382,1,1,1.0000,0.0000,1.44681,0.21046,-2.78318,1.00189,1.57080,0.00002,-0.14512,-0.38002,0.04065,,,,,,,,,,,,,,,,,,,,,,,,,,0,0,0,0,0
3.8231,1783187536.3502,1,1,1.0000,0.0000,1.44681,0.21039,-2.78320,1.00198,1.57080,0.00002,-0.14512,-0.38002,0.04064,,,,,,,,,,,,,,,,,,,,,,,,,,0,0,0,0,0
3.8397,1783187536.3667,1,1,1.0000,0.0000,1.44681,0.21023,-2.78323,1.00217,1.57080,0.00002,-0.14512,-0.38002,0.04060,,,,,,,,,,,,,,,,,,,,,,,,,,0,0,0,0,0
3.8444,1783187536.3714,1,1,1.0000,0.0000,1.44681,0.21022,-2.78324,1.00218,1.57080,0.00002,-0.14512,-0.38002,0.04060,,,,,,,,,,,,,,,,,,,,,,,,,,0,0,0,0,0
3.8449,1783187536.3719,1,1,1.0000,0.0000,1.44681,0.21020,-2.78324,1.00221,1.57080,0.00002,-0.14512,-0.38002,0.04059,,,,,,,,,,,,,,,,,,,,,,,,,,0,0,0,0,0
3.8611,1783187536.3882,1,1,1.0000,0.0000,1.44681,0.21001,-2.78329,1.00244,1.57080,0.00002,-0.14512,-0.38002,0.04054,,,,,,,,,,,,,,,,,,,,,,,,,,0,0,0,0,0
3.8615,1783187536.3885,1,1,1.0000,0.0000,1.44681,0.21001,-2.78329,1.00244,1.57080,0.00002,-0.14512,-0.38002,0.04054,,,,,,,,,,,,,,,,,,,,,,,,,,0,0,0,0,0
3.8618,1783187536.3888,1,1,1.0000,0.0000,1.44681,0.21001,-2.78329,1.00244,1.57080,0.00002,-0.14512,-0.38002,0.04054,,,,,,,,,,,,,,,,,,,,,,,,,,0,0,0,0,0
3.8712,1783187536.3982,1,1,1.0000,0.0000,1.44681,0.20996,-2.78330,1.00251,1.57080,0.00002,-0.14512,-0.38002,0.04053,,,,,,,,,,,,,,,,,,,,,,,,,,0,0,0,0,0
3.8813,1783187536.4083,1,1,1.0000,0.0000,1.44681,0.20989,-2.78332,1.00260,1.57080,0.00002,-0.14512,-0.38002,0.04051,,,,,,,,,,,,,,,,,,,,,,,,,,0,0,0,0,0
3.8817,1783187536.4087,1,1,1.0000,0.0000,1.44681,0.20989,-2.78332,1.00260,1.57080,0.00002,-0.14512,-0.38002,0.04051,,,,,,,,,,,,,,,,,,,,,,,,,,0,0,0,0,0
3.9013,1783187536.4283,1,1,1.0000,0.0000,1.44680,0.20968,-2.78337,1.00285,1.57080,0.00002,-0.14512,-0.38002,0.04046,,,,,,,,,,,,,,,,,,,,,,,,,,0,0,0,0,0
3.9060,1783187536.4330,1,1,1.0000,0.0000,1.44680,0.20967,-2.78337,1.00286,1.57080,0.00002,-0.14512,-0.38002,0.04046,,,,,,,,,,,,,,,,,,,,,,,,,,0,0,0,0,0
3.9108,1783187536.4378,1,1,1.0000,0.0000,1.44680,0.20966,-2.78337,1.00288,1.57080,0.00002,-0.14512,-0.38002,0.04045,,,,,,,,,,,,,,,,,,,,,,,,,,0,0,0,0,0
3.9111,1783187536.4381,1,1,1.0000,0.0000,1.44680,0.20966,-2.78337,1.00288,1.57080,0.00002,-0.14512,-0.38002,0.04045,,,,,,,,,,,,,,,,,,,,,,,,,,0,0,0,0,0
3.9193,1783187536.4463,1,1,1.0000,0.0000,1.44680,0.20959,-2.78339,1.00296,1.57079,0.00002,-0.14512,-0.38002,0.04043,,,,,,,,,,,,,,,,,,,,,,,,,,0,0,0,0,0
3.9196,1783187536.4466,1,1,1.0000,0.0000,1.44680,0.20959,-2.78339,1.00296,1.57079,0.00002,-0.14512,-0.38002,0.04043,,,,,,,,,,,,,,,,,,,,,,,,,,0,0,0,0,0
3.9295,1783187536.4565,1,1,1.0000,0.0000,1.44680,0.20950,-2.78341,1.00307,1.57079,0.00002,-0.14512,-0.38002,0.04041,,,,,,,,,,,,,,,,,,,,,,,,,,0,0,0,0,0
3.9439,1783187536.4709,1,1,1.0000,0.0000,1.44680,0.20943,-2.78343,1.00316,1.57079,0.00002,-0.14512,-0.38002,0.04039,,,,,,,,,,,,,,,,,,,,,,,,,,0,0,0,0,0
3.9442,1783187536.4712,1,1,1.0000,0.0000,1.44680,0.20943,-2.78343,1.00316,1.57079,0.00002,-0.14512,-0.38002,0.04039,,,,,,,,,,,,,,,,,,,,,,,,,,0,0,0,0,0
3.9743,1783187536.5013,1,1,1.0000,0.0000,1.44680,0.20917,-2.78349,1.00349,1.57079,0.00002,-0.14512,-0.38002,0.04033,,,,,,,,,,,,,,,,,,,,,,,,,,0,0,0,0,0
3.9745,1783187536.5016,1,1,1.0000,0.0000,1.44680,0.20917,-2.78349,1.00349,1.57079,0.00002,-0.14512,-0.38002,0.04033,,,,,,,,,,,,,,,,,,,,,,,,,,0,0,0,0,0
3.9750,1783187536.5020,1,1,1.0000,0.0000,1.44680,0.20917,-2.78349,1.00349,1.57079,0.00002,-0.14512,-0.38002,0.04033,,,,,,,,,,,,,,,,,,,,,,,,,,0,0,0,0,0
3.9752,1783187536.5022,1,1,1.0000,0.0000,1.44680,0.20917,-2.78349,1.00349,1.57079,0.00002,-0.14512,-0.38002,0.04033,,,,,,,,,,,,,,,,,,,,,,,,,,0,0,0,0,0
3.9845,1783187536.5115,1,1,1.0000,0.0000,1.44680,0.20909,-2.78351,1.00359,1.57079,0.00002,-0.14512,-0.38002,0.04031,,,,,,,,,,,,,,,,,,,,,,,,,,0,0,0,0,0
4.0002,1783187536.5272,1,1,1.0000,0.0000,1.44680,0.20901,-2.78353,1.00369,1.57079,0.00002,-0.14512,-0.38002,0.04029,,,,,,,,,,,,,,,,,,,,,,,,,,0,0,0,0,0
4.0006,1783187536.5276,1,1,1.0000,0.0000,1.44680,0.20901,-2.78353,1.00369,1.57079,0.00002,-0.14512,-0.38002,0.04029,,,,,,,,,,,,,,,,,,,,,,,,,,0,0,0,0,0
4.0054,1783187536.5324,1,1,1.0000,0.0000,1.44680,0.20892,-2.78355,1.00380,1.57079,0.00002,-0.14512,-0.38002,0.04027,,,,,,,,,,,,,,,,,,,,,,,,,,0,0,0,0,0
4.0175,1783187536.5445,1,1,1.0000,0.0000,1.44680,0.20876,-2.78359,1.00400,1.57079,0.00002,-0.14512,-0.38002,0.04022,,,,,,,,,,,,,,,,,,,,,,,,,,0,0,0,0,0
4.0780,1783187536.6050,1,1,1.0000,0.0000,1.44680,0.20830,-2.78370,1.00457,1.57079,0.00002,-0.14512,-0.38002,0.04011,,,,,,,,,,,,,,,,,,,,,,,,,,0,0,0,0,0
4.0782,1783187536.6052,1,1,1.0000,0.0000,1.44680,0.20830,-2.78370,1.00457,1.57079,0.00002,-0.14512,-0.38002,0.04011,,,,,,,,,,,,,,,,,,,,,,,,,,0,0,0,0,0
4.0786,1783187536.6057,1,1,1.0000,0.0000,1.44680,0.20830,-2.78370,1.00457,1.57079,0.00002,-0.14512,-0.38002,0.04011,,,,,,,,,,,,,,,,,,,,,,,,,,0,0,0,0,0
4.0789,1783187536.6059,1,1,1.0000,0.0000,1.44680,0.20830,-2.78370,1.00457,1.57079,0.00002,-0.14512,-0.38002,0.04011,,,,,,,,,,,,,,,,,,,,,,,,,,0,0,0,0,0
4.0791,1783187536.6061,1,1,1.0000,0.0000,1.44680,0.20830,-2.78370,1.00457,1.57079,0.00002,-0.14512,-0.38002,0.04011,,,,,,,,,,,,,,,,,,,,,,,,,,0,0,0,0,0
4.0793,1783187536.6064,1,1,1.0000,0.0000,1.44680,0.20830,-2.78370,1.00457,1.57079,0.00002,-0.14512,-0.38002,0.04011,,,,,,,,,,,,,,,,,,,,,,,,,,0,0,0,0,0
4.0796,1783187536.6066,1,1,1.0000,0.0000,1.44680,0.20830,-2.78370,1.00457,1.57079,0.00002,-0.14512,-0.38002,0.04011,,,,,,,,,,,,,,,,,,,,,,,,,,0,0,0,0,0
4.0842,1783187536.6112,1,1,1.0000,0.0000,1.44680,0.20830,-2.78370,1.00457,1.57079,0.00002,-0.14512,-0.38002,0.04011,,,,,,,,,,,,,,,,,,,,,,,,,,0,0,0,0,0
4.0846,1783187536.6116,1,1,1.0000,0.0000,1.44680,0.20830,-2.78370,1.00457,1.57079,0.00002,-0.14512,-0.38002,0.04011,,,,,,,,,,,,,,,,,,,,,,,,,,0,0,0,0,0
4.1003,1783187536.6273,1,1,1.0000,0.0000,1.44680,0.20821,-2.78372,1.00468,1.57079,0.00002,-0.14512,-0.38002,0.04009,,,,,,,,,,,,,,,,,,,,,,,,,,0,0,0,0,0
4.1063,1783187536.6333,1,1,1.0000,0.0000,1.44680,0.20812,-2.78374,1.00479,1.57079,0.00002,-0.14512,-0.38002,0.04006,,,,,,,,,,,,,,,,,,,,,,,,,,0,0,0,0,0
4.1163,1783187536.6433,1,1,1.0000,0.0000,1.44680,0.20811,-2.78374,1.00480,1.57079,0.00002,-0.14512,-0.38002,0.04006,,,,,,,,,,,,,,,,,,,,,,,,,,0,0,0,0,0
4.1261,1783187536.6531,1,1,1.0000,0.0000,1.44680,0.20800,-2.78377,1.00494,1.57079,0.00002,-0.14512,-0.38002,0.04003,,,,,,,,,,,,,,,,,,,,,,,,,,0,0,0,0,0
4.1345,1783187536.6615,1,1,1.0000,0.0000,1.44680,0.20789,-2.78380,1.00507,1.57079,0.00002,-0.14512,-0.38002,0.04001,,,,,,,,,,,,,,,,,,,,,,,,,,0,0,0,0,0
4.1465,1783187536.6735,1,1,1.0000,0.0000,1.44680,0.20783,-2.78381,1.00515,1.57079,0.00002,-0.14512,-0.38002,0.03999,,,,,,,,,,,,,,,,,,,,,,,,,,0,0,0,0,0
4.1573,1783187536.6843,1,1,1.0000,0.0000,1.44680,0.20772,-2.78384,1.00529,1.57079,0.00002,-0.14512,-0.38002,0.03996,,,,,,,,,,,,,,,,,,,,,,,,,,0,0,0,0,0
4.1650,1783187536.6921,1,1,1.0000,0.0000,1.44680,0.20761,-2.78386,1.00542,1.57079,0.00002,-0.14512,-0.38002,0.03994,,,,,,,,,,,,,,,,,,,,,,,,,,0,0,0,0,0
4.1653,1783187536.6923,1,1,1.0000,0.0000,1.44680,0.20761,-2.78386,1.00542,1.57079,0.00002,-0.14512,-0.38002,0.03994,,,,,,,,,,,,,,,,,,,,,,,,,,0,0,0,0,0
4.1782,1783187536.7052,1,1,1.0000,0.0000,1.44680,0.20758,-2.78387,1.00546,1.57079,0.00002,-0.14512,-0.38002,0.03993,,,,,,,,,,,,,,,,,,,,,,,,,,0,0,0,0,0
4.1862,1783187536.7132,1,1,1.0000,0.0000,1.44680,0.20749,-2.78389,1.00556,1.57079,0.00002,-0.14512,-0.38002,0.03991,,,,,,,,,,,,,,,,,,,,,,,,,,0,0,0,0,0
4.1943,1783187536.7213,1,1,1.0000,0.0000,1.44680,0.20739,-2.78392,1.00570,1.57079,0.00002,-0.14512,-0.38002,0.03988,,,,,,,,,,,,,,,,,,,,,,,,,,0,0,0,0,0
4.1945,1783187536.7216,1,1,1.0000,0.0000,1.44680,0.20739,-2.78392,1.00570,1.57079,0.00002,-0.14512,-0.38002,0.03988,,,,,,,,,,,,,,,,,,,,,,,,,,0,0,0,0,0
4.2063,1783187536.7333,1,1,1.0000,0.0000,1.44680,0.20732,-2.78393,1.00577,1.57079,0.00002,-0.14512,-0.38002,0.03986,,,,,,,,,,,,,,,,,,,,,,,,,,0,0,0,0,0
4.2158,1783187536.7428,1,1,1.0000,0.0000,1.44680,0.20726,-2.78395,1.00585,1.57079,0.00002,-0.14512,-0.38002,0.03985,,,,,,,,,,,,,,,,,,,,,,,,,,0,0,0,0,0
4.2262,1783187536.7532,1,1,1.0000,0.0000,1.44680,0.20711,-2.78398,1.00604,1.57079,0.00002,-0.14512,-0.38002,0.03981,,,,,,,,,,,,,,,,,,,,,,,,,,0,0,0,0,0
4.2352,1783187536.7622,1,1,1.0000,0.0000,1.44680,0.20710,-2.78399,1.00605,1.57079,0.00002,-0.14512,-0.38002,0.03981,,,,,,,,,,,,,,,,,,,,,,,,,,0,0,0,0,0
4.2475,1783187536.7745,1,1,1.0000,0.0000,1.44680,0.20699,-2.78401,1.00619,1.57079,0.00002,-0.14512,-0.38002,0.03978,,,,,,,,,,,,,,,,,,,,,,,,,,0,0,0,0,0
4.2589,1783187536.7859,1,1,1.0000,0.0000,1.44680,0.20683,-2.78405,1.00638,1.57079,0.00002,-0.14512,-0.38002,0.03974,,,,,,,,,,,,,,,,,,,,,,,,,,0,0,0,0,0
4.2676,1783187536.7946,1,1,1.0000,0.0000,1.44680,0.20682,-2.78405,1.00640,1.57079,0.00002,-0.14512,-0.38002,0.03974,,,,,,,,,,,,,,,,,,,,,,,,,,0,0,0,0,0
4.2742,1783187536.8013,1,1,1.0000,0.0000,1.44680,0.20676,-2.78407,1.00647,1.57079,0.00002,-0.14512,-0.38002,0.03972,,,,,,,,,,,,,,,,,,,,,,,,,,0,0,0,0,0
4.2745,1783187536.8015,1,1,1.0000,0.0000,1.44680,0.20676,-2.78407,1.00647,1.57079,0.00002,-0.14512,-0.38002,0.03972,,,,,,,,,,,,,,,,,,,,,,,,,,0,0,0,0,0
4.2860,1783187536.8130,1,1,1.0000,0.0000,1.44680,0.20660,-2.78411,1.00667,1.57079,0.00002,-0.14512,-0.38002,0.03968,,,,,,,,,,,,,,,,,,,,,,,,,,0,0,0,0,0
4.2949,1783187536.8219,1,1,1.0000,0.0000,1.44680,0.20655,-2.78412,1.00673,1.57079,0.00002,-0.14512,-0.38002,0.03967,,,,,,,,,,,,,,,,,,,,,,,,,,0,0,0,0,0
4.3130,1783187536.8400,1,1,1.0000,0.0000,1.44680,0.20642,-2.78415,1.00689,1.57079,0.00002,-0.14512,-0.38002,0.03964,,,,,,,,,,,,,,,,,,,,,,,,,,0,0,0,0,0
4.3150,1783187536.8420,1,1,1.0000,0.0000,1.44680,0.20642,-2.78415,1.00689,1.57079,0.00002,-0.14512,-0.38002,0.03964,,,,,,,,,,,,,,,,,,,,,,,,,,0,0,0,0,0
4.3250,1783187536.8520,1,1,1.0000,0.0000,1.44680,0.20636,-2.78416,1.00696,1.57079,0.00002,-0.14512,-0.38002,0.03962,,,,,,,,,,,,,,,,,,,,,,,,,,0,0,0,0,0
4.3358,1783187536.8628,1,1,1.0000,0.0000,1.44680,0.20630,-2.78418,1.00704,1.57079,0.00002,-0.14512,-0.38002,0.03960,,,,,,,,,,,,,,,,,,,,,,,,,,0,0,0,0,0
4.3499,1783187536.8769,1,1,1.0000,0.0000,1.44680,0.20609,-2.78423,1.00730,1.57079,0.00002,-0.14512,-0.38002,0.03955,,,,,,,,,,,,,,,,,,,,,,,,,,0,0,0,0,0
4.3612,1783187536.8882,1,1,1.0000,0.0000,1.44680,0.20606,-2.78423,1.00734,1.57079,0.00002,-0.14512,-0.38002,0.03955,,,,,,,,,,,,,,,,,,,,,,,,,,0,0,0,0,0
4.3691,1783187536.8961,1,1,1.0000,0.0000,1.44680,0.20600,-2.78425,1.00741,1.57079,0.00002,-0.14512,-0.38002,0.03953,,,,,,,,,,,,,,,,,,,,,,,,,,0,0,0,0,0
4.3743,1783187536.9014,1,1,1.0000,0.0000,1.44680,0.20596,-2.78426,1.00747,1.57079,0.00002,-0.14512,-0.38002,0.03952,,,,,,,,,,,,,,,,,,,,,,,,,,0,0,0,0,0
4.3851,1783187536.9121,1,1,1.0000,0.0000,1.44680,0.20590,-2.78427,1.00753,1.57079,0.00002,-0.14512,-0.38002,0.03950,,,,,,,,,,,,,,,,,,,,,,,,,,0,0,0,0,0
4.3855,1783187536.9125,1,1,1.0000,0.0000,1.44680,0.20590,-2.78427,1.00753,1.57079,0.00002,-0.14512,-0.38002,0.03950,,,,,,,,,,,,,,,,,,,,,,,,,,0,0,0,0,0
4.3945,1783187536.9216,1,1,1.0000,0.0000,1.44680,0.20584,-2.78429,1.00762,1.57079,0.00002,-0.14512,-0.38002,0.03949,,,,,,,,,,,,,,,,,,,,,,,,,,0,0,0,0,0
4.4071,1783187536.9342,1,1,1.0000,0.0000,1.44680,0.20568,-2.78433,1.00781,1.57079,0.00002,-0.14512,-0.38002,0.03945,,,,,,,,,,,,,,,,,,,,,,,,,,0,0,0,0,0
4.4185,1783187536.9455,1,1,1.0000,0.0000,1.44680,0.20562,-2.78434,1.00789,1.57079,0.00002,-0.14512,-0.38002,0.03943,,,,,,,,,,,,,,,,,,,,,,,,,,0,0,0,0,0
4.4252,1783187536.9522,1,1,1.0000,0.0000,1.44680,0.20557,-2.78435,1.00794,1.57079,0.00002,-0.14512,-0.38002,0.03942,,,,,,,,,,,,,,,,,,,,,,,,,,0,0,0,0,0
4.4257,1783187536.9527,1,1,1.0000,0.0000,1.44680,0.20557,-2.78435,1.00794,1.57079,0.00002,-0.14512,-0.38002,0.03942,,,,,,,,,,,,,,,,,,,,,,,,,,0,0,0,0,0
4.4362,1783187536.9633,1,1,1.0000,0.0000,1.44680,0.20549,-2.78437,1.00804,1.57079,0.00002,-0.14512,-0.38002,0.03940,,,,,,,,,,,,,,,,,,,,,,,,,,0,0,0,0,0
4.4528,1783187536.9798,1,1,1.0000,0.0000,1.44680,0.20541,-2.78439,1.00814,1.57079,0.00002,-0.14512,-0.38002,0.03938,,,,,,,,,,,,,,,,,,,,,,,,,,0,0,0,0,0
4.4591,1783187536.9861,1,1,1.0000,0.0000,1.44680,0.20533,-2.78441,1.00825,1.57079,0.00002,-0.14512,-0.38002,0.03936,,,,,,,,,,,,,,,,,,,,,,,,,,0,0,0,0,0
4.4656,1783187536.9927,1,1,1.0000,0.0000,1.44680,0.20522,-2.78444,1.00838,1.57079,0.00002,-0.14512,-0.38002,0.03933,,,,,,,,,,,,,,,,,,,,,,,,,,0,0,0,0,0
4.4743,1783187537.0014,1,1,1.0000,0.0000,1.44680,0.20516,-2.78445,1.00845,1.57079,0.00002,-0.14512,-0.38002,0.03932,,,,,,,,,,,,,,,,,,,,,,,,,,0,0,0,0,0
4.4859,1783187537.0129,1,1,1.0000,0.0000,1.44680,0.20511,-2.78446,1.00852,1.57079,0.00002,-0.14512,-0.38002,0.03931,,,,,,,,,,,,,,,,,,,,,,,,,,0,0,0,0,0
4.4954,1783187537.0224,1,1,1.0000,0.0000,1.44680,0.20503,-2.78448,1.00861,1.57079,0.00002,-0.14512,-0.38002,0.03929,,,,,,,,,,,,,,,,,,,,,,,,,,0,0,0,0,0
4.5184,1783187537.0454,1,1,1.0000,0.0000,1.44680,0.20486,-2.78452,1.00882,1.57079,0.00002,-0.14512,-0.38002,0.03924,,,,,,,,,,,,,,,,,,,,,,,,,,0,0,0,0,0
4.5213,1783187537.0483,1,1,1.0000,0.0000,1.44680,0.20481,-2.78453,1.00889,1.57079,0.00002,-0.14512,-0.38002,0.03923,,,,,,,,,,,,,,,,,,,,,,,,,,0,0,0,0,0
4.5216,1783187537.0486,1,1,1.0000,0.0000,1.44680,0.20481,-2.78453,1.00889,1.57079,0.00002,-0.14512,-0.38002,0.03923,,,,,,,,,,,,,,,,,,,,,,,,,,0,0,0,0,0
4.5240,1783187537.0510,1,1,1.0000,0.0000,1.44680,0.20481,-2.78453,1.00889,1.57079,0.00002,-0.14512,-0.38002,0.03923,,,,,,,,,,,,,,,,,,,,,,,,,,0,0,0,0,0
4.5243,1783187537.0513,1,1,1.0000,0.0000,1.44680,0.20481,-2.78453,1.00889,1.57079,0.00002,-0.14512,-0.38002,0.03923,,,,,,,,,,,,,,,,,,,,,,,,,,0,0,0,0,0
4.5344,1783187537.0614,1,1,1.0000,0.0000,1.44680,0.20470,-2.78456,1.00902,1.57079,0.00002,-0.14512,-0.38002,0.03920,,,,,,,,,,,,,,,,,,,,,,,,,,0,0,0,0,0
4.5461,1783187537.0731,1,1,1.0000,0.0000,1.44680,0.20465,-2.78457,1.00909,1.57079,0.00002,-0.14512,-0.38002,0.03919,,,,,,,,,,,,,,,,,,,,,,,,,,0,0,0,0,0
4.5576,1783187537.0846,1,1,1.0000,0.0000,1.44680,0.20452,-2.78460,1.00924,1.57079,0.00002,-0.14512,-0.38002,0.03916,,,,,,,,,,,,,,,,,,,,,,,,,,0,0,0,0,0
4.5656,1783187537.0926,1,1,1.0000,0.0000,1.44680,0.20451,-2.78460,1.00925,1.57079,0.00002,-0.14512,-0.38002,0.03916,,,,,,,,,,,,,,,,,,,,,,,,,,0,0,0,0,0
4.5659,1783187537.0929,1,1,1.0000,0.0000,1.44680,0.20451,-2.78460,1.00925,1.57079,0.00002,-0.14512,-0.38002,0.03916,,,,,,,,,,,,,,,,,,,,,,,,,,0,0,0,0,0
4.5776,1783187537.1046,1,1,1.0000,0.0000,1.44680,0.20440,-2.78463,1.00939,1.57079,0.00002,-0.14512,-0.38002,0.03913,,,,,,,,,,,,,,,,,,,,,,,,,,0,0,0,0,0
4.5782,1783187537.1052,1,1,1.0000,0.0000,1.44680,0.20440,-2.78463,1.00939,1.57079,0.00002,-0.14512,-0.38002,0.03913,,,,,,,,,,,,,,,,,,,,,,,,,,0,0,0,0,0
4.5878,1783187537.1148,1,1,1.0000,0.0000,1.44680,0.20429,-2.78466,1.00953,1.57079,0.00002,-0.14512,-0.38002,0.03910,,,,,,,,,,,,,,,,,,,,,,,,,,0,0,0,0,0
4.5982,1783187537.1252,1,1,1.0000,0.0000,1.44680,0.20423,-2.78467,1.00960,1.57079,0.00002,-0.14512,-0.38002,0.03908,,,,,,,,,,,,,,,,,,,,,,,,,,0,0,0,0,0
4.6124,1783187537.1394,1,1,1.0000,0.0000,1.44680,0.20415,-2.78469,1.00971,1.57079,0.00002,-0.14512,-0.38002,0.03906,,,,,,,,,,,,,,,,,,,,,,,,,,0,0,0,0,0
4.6160,1783187537.1430,1,1,1.0000,0.0000,1.44680,0.20411,-2.78470,1.00976,1.57079,0.00002,-0.14512,-0.38002,0.03905,,,,,,,,,,,,,,,,,,,,,,,,,,0,0,0,0,0
4.6261,1783187537.1531,1,1,1.0000,0.0000,1.44680,0.20405,-2.78471,1.00983,1.57079,0.00002,-0.14512,-0.38002,0.03904,,,,,,,,,,,,,,,,,,,,,,,,,,0,0,0,0,0
4.6408,1783187537.1678,1,1,1.0000,0.0000,1.44680,0.20394,-2.78474,1.00997,1.57079,0.00002,-0.14512,-0.38002,0.03901,,,,,,,,,,,,,,,,,,,,,,,,,,0,0,0,0,0
4.6446,1783187537.1716,1,1,1.0000,0.0000,1.44680,0.20388,-2.78475,1.01003,1.57079,0.00002,-0.14512,-0.38002,0.03900,,,,,,,,,,,,,,,,,,,,,,,,,,0,0,0,0,0
4.6593,1783187537.1863,1,1,1.0000,0.0000,1.44680,0.20377,-2.78478,1.01018,1.57079,0.00002,-0.14512,-0.38002,0.03897,,,,,,,,,,,,,,,,,,,,,,,,,,0,0,0,0,0
4.6683,1783187537.1953,1,1,1.0000,0.0000,1.44680,0.20372,-2.78479,1.01024,1.57079,0.00002,-0.14512,-0.38002,0.03896,,,,,,,,,,,,,,,,,,,,,,,,,,0,0,0,0,0
4.6775,1783187537.2046,1,1,1.0000,0.0000,1.44680,0.20360,-2.78482,1.01039,1.57079,0.00002,-0.14512,-0.38002,0.03893,,,,,,,,,,,,,,,,,,,,,,,,,,0,0,0,0,0
4.7864,1783187537.3134,1,1,1.0000,0.0000,1.44680,0.20279,-2.78501,1.01138,1.57079,0.00002,-0.14512,-0.38002,0.03872,,,,,,,,,,,,,,,,,,,,,,,,,,0,0,0,0,0
4.7867,1783187537.3137,1,1,1.0000,0.0000,1.44680,0.20279,-2.78501,1.01138,1.57079,0.00002,-0.14512,-0.38002,0.03872,,,,,,,,,,,,,,,,,,,,,,,,,,0,0,0,0,0
4.7870,1783187537.3140,1,1,1.0000,0.0000,1.44680,0.20279,-2.78501,1.01138,1.57079,0.00002,-0.14512,-0.38002,0.03872,,,,,,,,,,,,,,,,,,,,,,,,,,0,0,0,0,0
4.7872,1783187537.3143,1,1,1.0000,0.0000,1.44680,0.20279,-2.78501,1.01138,1.57079,0.00002,-0.14512,-0.38002,0.03872,,,,,,,,,,,,,,,,,,,,,,,,,,0,0,0,0,0
4.7876,1783187537.3146,1,1,1.0000,0.0000,1.44680,0.20279,-2.78501,1.01138,1.57079,0.00002,-0.14512,-0.38002,0.03872,,,,,,,,,,,,,,,,,,,,,,,,,,0,0,0,0,0
4.7879,1783187537.3149,1,1,1.0000,0.0000,1.44680,0.20279,-2.78501,1.01138,1.57079,0.00002,-0.14512,-0.38002,0.03872,,,,,,,,,,,,,,,,,,,,,,,,,,0,0,0,0,0
4.7882,1783187537.3152,1,1,1.0000,0.0000,1.44680,0.20279,-2.78501,1.01138,1.57079,0.00002,-0.14512,-0.38002,0.03872,,,,,,,,,,,,,,,,,,,,,,,,,,0,0,0,0,0
4.7947,1783187537.3217,1,1,1.0000,0.0000,1.44680,0.20271,-2.78503,1.01148,1.57079,0.00002,-0.14512,-0.38002,0.03870,,,,,,,,,,,,,,,,,,,,,,,,,,0,0,0,0,0
4.8071,1783187537.3341,1,1,1.0000,0.0000,1.44680,0.20266,-2.78504,1.01155,1.57079,0.00002,-0.14512,-0.38002,0.03869,,,,,,,,,,,,,,,,,,,,,,,,,,0,0,0,0,0
4.8212,1783187537.3483,1,1,1.0000,0.0000,1.44680,0.20254,-2.78507,1.01169,1.57079,0.00002,-0.14512,-0.38002,0.03866,,,,,,,,,,,,,,,,,,,,,,,,,,0,0,0,0,0
4.8260,1783187537.3531,1,1,1.0000,0.0000,1.44680,0.20243,-2.78509,1.01183,1.57079,0.00002,-0.14512,-0.38002,0.03863,,,,,,,,,,,,,,,,,,,,,,,,,,0,0,0,0,0
4.8361,1783187537.3631,1,1,1.0000,0.0000,1.44680,0.20238,-2.78511,1.01189,1.57079,0.00002,-0.14512,-0.38002,0.03862,,,,,,,,,,,,,,,,,,,,,,,,,,0,0,0,0,0
4.8459,1783187537.3729,1,1,1.0000,0.0000,1.44680,0.20231,-2.78512,1.01198,1.57079,0.00002,-0.14512,-0.38002,0.03860,,,,,,,,,,,,,,,,,,,,,,,,,,0,0,0,0,0
4.8546,1783187537.3816,1,1,1.0000,0.0000,1.44680,0.20221,-2.78515,1.01210,1.57079,0.00002,-0.14512,-0.38002,0.03858,,,,,,,,,,,,,,,,,,,,,,,,,,0,0,0,0,0
4.8549,1783187537.3819,1,1,1.0000,0.0000,1.44680,0.20221,-2.78515,1.01210,1.57079,0.00002,-0.14512,-0.38002,0.03858,,,,,,,,,,,,,,,,,,,,,,,,,,0,0,0,0,0
4.8696,1783187537.3967,1,1,1.0000,0.0000,1.44680,0.20212,-2.78517,1.01221,1.57079,0.00002,-0.14512,-0.38002,0.03856,,,,,,,,,,,,,,,,,,,,,,,,,,0,0,0,0,0
4.8822,1783187537.4092,1,1,1.0000,0.0000,1.44680,0.20198,-2.78520,1.01238,1.57079,0.00002,-0.14512,-0.38002,0.03852,,,,,,,,,,,,,,,,,,,,,,,,,,0,0,0,0,0
4.8844,1783187537.4114,1,1,1.0000,0.0000,1.44680,0.20198,-2.78520,1.01238,1.57079,0.00002,-0.14512,-0.38002,0.03852,,,,,,,,,,,,,,,,,,,,,,,,,,0,0,0,0,0
4.8847,1783187537.4117,1,1,1.0000,0.0000,1.44680,0.20198,-2.78520,1.01238,1.57079,0.00002,-0.14512,-0.38002,0.03852,,,,,,,,,,,,,,,,,,,,,,,,,,0,0,0,0,0
4.8948,1783187537.4218,1,1,1.0000,0.0000,1.44680,0.20187,-2.78523,1.01252,1.57079,0.00002,-0.14512,-0.38001,0.03849,,,,,,,,,,,,,,,,,,,,,,,,,,0,0,0,0,0
4.9060,1783187537.4330,1,1,1.0000,0.0000,1.44680,0.20180,-2.78524,1.01261,1.57079,0.00002,-0.14512,-0.38001,0.03848,,,,,,,,,,,,,,,,,,,,,,,,,,0,0,0,0,0
4.9064,1783187537.4334,1,1,1.0000,0.0000,1.44680,0.20180,-2.78524,1.01261,1.57079,0.00002,-0.14512,-0.38001,0.03848,,,,,,,,,,,,,,,,,,,,,,,,,,0,0,0,0,0
4.9211,1783187537.4481,1,1,1.0000,0.0000,1.44680,0.20164,-2.78528,1.01280,1.57079,0.00002,-0.14512,-0.38001,0.03844,,,,,,,,,,,,,,,,,,,,,,,,,,0,0,0,0,0
4.9218,1783187537.4488,1,1,1.0000,0.0000,1.44680,0.20164,-2.78528,1.01280,1.57079,0.00002,-0.14512,-0.38001,0.03844,,,,,,,,,,,,,,,,,,,,,,,,,,0,0,0,0,0
4.9247,1783187537.4517,1,1,1.0000,0.0000,1.44680,0.20164,-2.78528,1.01280,1.57079,0.00002,-0.14512,-0.38001,0.03844,,,,,,,,,,,,,,,,,,,,,,,,,,0,0,0,0,0
4.9380,1783187537.4650,1,1,1.0000,0.0000,1.44680,0.20153,-2.78531,1.01295,1.57079,0.00003,-0.14512,-0.38001,0.03841,,,,,,,,,,,,,,,,,,,,,,,,,,0,0,0,0,0
4.9383,1783187537.4653,1,1,1.0000,0.0000,1.44680,0.20153,-2.78531,1.01295,1.57079,0.00003,-0.14512,-0.38001,0.03841,,,,,,,,,,,,,,,,,,,,,,,,,,0,0,0,0,0
4.9445,1783187537.4715,1,1,1.0000,0.0000,1.44680,0.20147,-2.78532,1.01301,1.57079,0.00003,-0.14512,-0.38001,0.03839,,,,,,,,,,,,,,,,,,,,,,,,,,0,0,0,0,0
4.9449,1783187537.4719,1,1,1.0000,0.0000,1.44680,0.20147,-2.78532,1.01301,1.57079,0.00003,-0.14512,-0.38001,0.03839,,,,,,,,,,,,,,,,,,,,,,,,,,0,0,0,0,0
4.9544,1783187537.4814,1,1,1.0000,0.0000,1.44680,0.20137,-2.78535,1.01314,1.57079,0.00003,-0.14512,-0.38001,0.03837,,,,,,,,,,,,,,,,,,,,,,,,,,0,0,0,0,0
4.9546,1783187537.4817,1,1,1.0000,0.0000,1.44680,0.20137,-2.78535,1.01314,1.57079,0.00003,-0.14512,-0.38001,0.03837,,,,,,,,,,,,,,,,,,,,,,,,,,0,0,0,0,0
4.9707,1783187537.4977,1,1,1.0000,0.0000,1.44680,0.20125,-2.78537,1.01329,1.57079,0.00003,-0.14512,-0.38001,0.03834,,,,,,,,,,,,,,,,,,,,,,,,,,0,0,0,0,0
4.9845,1783187537.5115,1,1,1.0000,0.0000,1.44680,0.20114,-2.78540,1.01342,1.57079,0.00003,-0.14512,-0.38001,0.03831,,,,,,,,,,,,,,,,,,,,,,,,,,0,0,0,0,0
4.9884,1783187537.5155,1,1,1.0000,0.0000,1.44680,0.20113,-2.78540,1.01344,1.57079,0.00003,-0.14512,-0.38001,0.03831,,,,,,,,,,,,,,,,,,,,,,,,,,0,0,0,0,0
4.9998,1783187537.5268,1,1,1.0000,0.0000,1.44680,0.20102,-2.78543,1.01357,1.57079,0.00003,-0.14512,-0.38001,0.03828,,,,,,,,,,,,,,,,,,,,,,,,,,0,0,0,0,0
5.0119,1783187537.5389,1,1,1.0000,0.0000,1.44680,0.20086,-2.78547,1.01377,1.57079,0.00003,-0.14512,-0.38001,0.03824,,,,,,,,,,,,,,,,,,,,,,,,,,0,0,0,0,0
5.0219,1783187537.5489,1,1,1.0000,0.0000,1.44680,0.20082,-2.78547,1.01381,1.57079,0.00003,-0.14512,-0.38001,0.03823,,,,,,,,,,,,,,,,,,,,,,,,,,0,0,0,0,0
5.0327,1783187537.5597,1,1,1.0000,0.0000,1.44680,0.20074,-2.78549,1.01392,1.57079,0.00003,-0.14512,-0.38001,0.03821,,,,,,,,,,,,,,,,,,,,,,,,,,0,0,0,0,0
5.0424,1783187537.5694,1,1,1.0000,0.0000,1.44680,0.20063,-2.78552,1.01405,1.57079,0.00003,-0.14512,-0.38001,0.03818,,,,,,,,,,,,,,,,,,,,,,,,,,0,0,0,0,0
5.0427,1783187537.5697,1,1,1.0000,0.0000,1.44680,0.20063,-2.78552,1.01405,1.57079,0.00003,-0.14512,-0.38001,0.03818,,,,,,,,,,,,,,,,,,,,,,,,,,0,0,0,0,0
5.0508,1783187537.5778,1,1,1.0000,0.0000,1.44680,0.20059,-2.78553,1.01409,1.57079,0.00003,-0.14512,-0.38001,0.03818,,,,,,,,,,,,,,,,,,,,,,,,,,0,0,0,0,0
5.0587,1783187537.5857,1,1,1.0000,0.0000,1.44680,0.20051,-2.78555,1.01420,1.57079,0.00003,-0.14512,-0.38001,0.03815,,,,,,,,,,,,,,,,,,,,,,,,,,0,0,0,0,0
5.0712,1783187537.5982,1,1,1.0000,0.0000,1.44680,0.20035,-2.78558,1.01440,1.57079,0.00003,-0.14512,-0.38001,0.03811,,,,,,,,,,,,,,,,,,,,,,,,,,0,0,0,0,0
5.0715,1783187537.5985,1,1,1.0000,0.0000,1.44680,0.20035,-2.78558,1.01440,1.57079,0.00003,-0.14512,-0.38001,0.03811,,,,,,,,,,,,,,,,,,,,,,,,,,0,0,0,0,0
5.0849,1783187537.6119,1,1,1.0000,0.0000,1.44680,0.20031,-2.78559,1.01444,1.57079,0.00003,-0.14512,-0.38001,0.03811,,,,,,,,,,,,,,,,,,,,,,,,,,0,0,0,0,0
5.0914,1783187537.6184,1,1,1.0000,0.0000,1.44680,0.20023,-2.78561,1.01455,1.57079,0.00003,-0.14512,-0.38001,0.03808,,,,,,,,,,,,,,,,,,,,,,,,,,0,0,0,0,0
5.0997,1783187537.6267,1,1,1.0000,0.0000,1.44680,0.20012,-2.78564,1.01468,1.57079,0.00003,-0.14512,-0.38001,0.03806,,,,,,,,,,,,,,,,,,,,,,,,,,0,0,0,0,0
5.1101,1783187537.6372,1,1,1.0000,0.0000,1.44680,0.20009,-2.78565,1.01472,1.57079,0.00003,-0.14512,-0.38001,0.03805,,,,,,,,,,,,,,,,,,,,,,,,,,0,0,0,0,0
5.1106,1783187537.6376,1,1,1.0000,0.0000,1.44680,0.20009,-2.78565,1.01472,1.57079,0.00003,-0.14512,-0.38001,0.03805,,,,,,,,,,,,,,,,,,,,,,,,,,0,0,0,0,0
5.1294,1783187537.6564,1,1,1.0000,0.0000,1.44680,0.19989,-2.78569,1.01496,1.57079,0.00003,-0.14512,-0.38001,0.03800,,,,,,,,,,,,,,,,,,,,,,,,,,0,0,0,0,0
5.1306,1783187537.6576,1,1,1.0000,0.0000,1.44680,0.19984,-2.78570,1.01502,1.57079,0.00003,-0.14512,-0.38001,0.03799,,,,,,,,,,,,,,,,,,,,,,,,,,0,0,0,0,0
5.1391,1783187537.6661,1,1,1.0000,0.0000,1.44680,0.19983,-2.78571,1.01504,1.57079,0.00003,-0.14512,-0.38001,0.03799,,,,,,,,,,,,,,,,,,,,,,,,,,0,0,0,0,0
5.1493,1783187537.6763,1,1,1.0000,0.0000,1.44680,0.19977,-2.78572,1.01511,1.57079,0.00003,-0.14512,-0.38001,0.03797,,,,,,,,,,,,,,,,,,,,,,,,,,0,0,0,0,0
5.1499,1783187537.6769,1,1,1.0000,0.0000,1.44680,0.19972,-2.78573,1.01517,1.57079,0.00003,-0.14512,-0.38001,0.03796,,,,,,,,,,,,,,,,,,,,,,,,,,0,0,0,0,0
5.1582,1783187537.6852,1,1,1.0000,0.0000,1.44680,0.19961,-2.78576,1.01531,1.57079,0.00003,-0.14512,-0.38001,0.03793,,,,,,,,,,,,,,,,,,,,,,,,,,0,0,0,0,0
5.1587,1783187537.6857,1,1,1.0000,0.0000,1.44680,0.19961,-2.78576,1.01531,1.57079,0.00003,-0.14512,-0.38001,0.03793,,,,,,,,,,,,,,,,,,,,,,,,,,0,0,0,0,0
5.1703,1783187537.6973,1,1,1.0000,0.0000,1.44680,0.19958,-2.78576,1.01535,1.57079,0.00003,-0.14512,-0.38001,0.03792,,,,,,,,,,,,,,,,,,,,,,,,,,0,0,0,0,0
5.1706,1783187537.6977,1,1,1.0000,0.0000,1.44680,0.19958,-2.78576,1.01535,1.57079,0.00003,-0.14512,-0.38001,0.03792,,,,,,,,,,,,,,,,,,,,,,,,,,0,0,0,0,0
5.1806,1783187537.7076,1,1,1.0000,0.0000,1.44680,0.19949,-2.78578,1.01545,1.57079,0.00003,-0.14512,-0.38001,0.03790,,,,,,,,,,,,,,,,,,,,,,,,,,0,0,0,0,0
5.1901,1783187537.7171,1,1,1.0000,0.0000,1.44680,0.19933,-2.78582,1.01565,1.57079,0.00003,-0.14512,-0.38001,0.03786,,,,,,,,,,,,,,,,,,,,,,,,,,0,0,0,0,0
5.2026,1783187537.7296,1,1,1.0000,0.0000,1.44680,0.19930,-2.78583,1.01570,1.57079,0.00003,-0.14512,-0.38001,0.03785,,,,,,,,,,,,,,,,,,,,,,,,,,0,0,0,0,0
5.2088,1783187537.7358,1,1,1.0000,0.0000,1.44680,0.19926,-2.78584,1.01574,1.57079,0.00003,-0.14512,-0.38001,0.03784,,,,,,,,,,,,,,,,,,,,,,,,,,0,0,0,0,0
5.2091,1783187537.7361,1,1,1.0000,0.0000,1.44680,0.19926,-2.78584,1.01574,1.57079,0.00003,-0.14512,-0.38001,0.03784,,,,,,,,,,,,,,,,,,,,,,,,,,0,0,0,0,0
5.2186,1783187537.7456,1,1,1.0000,0.0000,1.44680,0.19910,-2.78588,1.01593,1.57079,0.00003,-0.14512,-0.38001,0.03780,,,,,,,,,,,,,,,,,,,,,,,,,,0,0,0,0,0
5.2307,1783187537.7577,1,1,1.0000,0.0000,1.44680,0.19907,-2.78588,1.01598,1.57079,0.00003,-0.14512,-0.38001,0.03780,,,,,,,,,,,,,,,,,,,,,,,,,,0,0,0,0,0
5.2392,1783187537.7662,1,1,1.0000,0.0000,1.44680,0.19898,-2.78590,1.01608,1.57079,0.00003,-0.14512,-0.38001,0.03777,,,,,,,,,,,,,,,,,,,,,,,,,,0,0,0,0,0
5.2394,1783187537.7665,1,1,1.0000,0.0000,1.44680,0.19898,-2.78590,1.01608,1.57079,0.00003,-0.14512,-0.38001,0.03777,,,,,,,,,,,,,,,,,,,,,,,,,,0,0,0,0,0
5.2485,1783187537.7755,1,1,1.0000,0.0000,1.44680,0.19888,-2.78593,1.01621,1.57079,0.00003,-0.14512,-0.38001,0.03775,,,,,,,,,,,,,,,,,,,,,,,,,,0,0,0,0,0
5.2599,1783187537.7869,1,1,1.0000,0.0000,1.44680,0.19881,-2.78594,1.01629,1.57079,0.00003,-0.14512,-0.38001,0.03773,,,,,,,,,,,,,,,,,,,,,,,,,,0,0,0,0,0
5.2743,1783187537.8013,1,1,1.0000,0.0000,1.44680,0.19865,-2.78598,1.01649,1.57079,0.00003,-0.14512,-0.38001,0.03769,,,,,,,,,,,,,,,,,,,,,,,,,,0,0,0,0,0
5.2747,1783187537.8017,1,1,1.0000,0.0000,1.44680,0.19865,-2.78598,1.01649,1.57079,0.00003,-0.14512,-0.38001,0.03769,,,,,,,,,,,,,,,,,,,,,,,,,,0,0,0,0,0
5.2791,1783187537.8062,1,1,1.0000,0.0000,1.44680,0.19859,-2.78599,1.01656,1.57079,0.00003,-0.14512,-0.38001,0.03768,,,,,,,,,,,,,,,,,,,,,,,,,,0,0,0,0,0
5.2900,1783187537.8170,1,1,1.0000,0.0000,1.44680,0.19853,-2.78601,1.01664,1.57079,0.00003,-0.14512,-0.38001,0.03766,,,,,,,,,,,,,,,,,,,,,,,,,,0,0,0,0,0
5.2982,1783187537.8252,1,1,1.0000,0.0000,1.44680,0.19849,-2.78602,1.01669,1.57079,0.00003,-0.14512,-0.38001,0.03765,,,,,,,,,,,,,,,,,,,,,,,,,,0,0,0,0,0
5.2986,1783187537.8256,1,1,1.0000,0.0000,1.44680,0.19849,-2.78602,1.01669,1.57079,0.00003,-0.14512,-0.38001,0.03765,,,,,,,,,,,,,,,,,,,,,,,,,,0,0,0,0,0
5.3087,1783187537.8357,1,1,1.0000,0.0000,1.44680,0.19841,-2.78604,1.01679,1.57079,0.00003,-0.14512,-0.38001,0.03763,,,,,,,,,,,,,,,,,,,,,,,,,,0,0,0,0,0
5.3323,1783187537.8593,1,1,1.0000,0.0000,1.44680,0.19824,-2.78608,1.01700,1.57079,0.00003,-0.14512,-0.38001,0.03759,,,,,,,,,,,,,,,,,,,,,,,,,,0,0,0,0,0
5.3427,1783187537.8697,1,1,1.0000,0.0000,1.44680,0.19813,-2.78610,1.01714,1.57079,0.00003,-0.14512,-0.38001,0.03756,,,,,,,,,,,,,,,,,,,,,,,,,,0,0,0,0,0
5.3504,1783187537.8775,1,1,1.0000,0.0000,1.44680,0.19809,-2.78611,1.01718,1.57079,0.00003,-0.14512,-0.38001,0.03755,,,,,,,,,,,,,,,,,,,,,,,,,,0,0,0,0,0
5.3600,1783187537.8871,1,1,1.0000,0.0000,1.44680,0.19801,-2.78613,1.01729,1.57079,0.00003,-0.14512,-0.38001,0.03753,,,,,,,,,,,,,,,,,,,,,,,,,,0,0,0,0,0
5.3742,1783187537.9012,1,1,1.0000,0.0000,1.44680,0.19785,-2.78617,1.01748,1.57079,0.00003,-0.14512,-0.38001,0.03749,,,,,,,,,,,,,,,,,,,,,,,,,,0,0,0,0,0
5.3788,1783187537.9059,1,1,1.0000,0.0000,1.44680,0.19784,-2.78617,1.01750,1.57079,0.00003,-0.14512,-0.38001,0.03749,,,,,,,,,,,,,,,,,,,,,,,,,,0,0,0,0,0
5.3792,1783187537.9062,1,1,1.0000,0.0000,1.44680,0.19784,-2.78617,1.01750,1.57079,0.00003,-0.14512,-0.38001,0.03749,,,,,,,,,,,,,,,,,,,,,,,,,,0,0,0,0,0
5.3921,1783187537.9191,1,1,1.0000,0.0000,1.44680,0.19773,-2.78620,1.01763,1.57079,0.00003,-0.14512,-0.38001,0.03746,,,,,,,,,,,,,,,,,,,,,,,,,,0,0,0,0,0
5.4225,1783187537.9495,1,1,1.0000,0.0000,1.44680,0.19747,-2.78626,1.01794,1.57079,0.00003,-0.14512,-0.38001,0.03740,,,,,,,,,,,,,,,,,,,,,,,,,,0,0,0,0,0
5.4228,1783187537.9498,1,1,1.0000,0.0000,1.44680,0.19747,-2.78626,1.01794,1.57079,0.00003,-0.14512,-0.38001,0.03740,,,,,,,,,,,,,,,,,,,,,,,,,,0,0,0,0,0
5.4432,1783187537.9702,1,1,1.0000,0.0000,1.44680,0.19735,-2.78628,1.01810,1.57079,0.00003,-0.14512,-0.38001,0.03737,,,,,,,,,,,,,,,,,,,,,,,,,,0,0,0,0,0
5.4435,1783187537.9705,1,1,1.0000,0.0000,1.44680,0.19735,-2.78628,1.01810,1.57079,0.00003,-0.14512,-0.38001,0.03737,,,,,,,,,,,,,,,,,,,,,,,,,,0,0,0,0,0
5.4945,1783187538.0215,1,1,1.0000,0.0000,1.44680,0.19692,-2.78638,1.01863,1.57079,0.00003,-0.14511,-0.38001,0.03726,,,,,,,,,,,,,,,,,,,,,,,,,,0,0,0,0,0
5.5028,1783187538.0298,1,1,1.0000,0.0000,1.44680,0.19688,-2.78639,1.01867,1.57079,0.00003,-0.14511,-0.38001,0.03725,,,,,,,,,,,,,,,,,,,,,,,,,,0,0,0,0,0
