Martins-Lucaas/twinforge/sensors/Data/20260707_132216__samples.csv
t_rel_s,t_unix,cycle,phase,setpoint_n,force_net_n,q1,q2,q3,q4,q5,q6,tcp_x,tcp_y,tcp_z,taxel_0,taxel_1,taxel_2,taxel_3,taxel_4,taxel_5,taxel_6,taxel_7,taxel_8,taxel_9,taxel_10,taxel_11,taxel_12,taxel_13,taxel_14,taxel_15,taxel_16,taxel_17,taxel_18,taxel_19,taxel_20,taxel_21,taxel_22,taxel_23,taxel_24,n_RA,n_SA,cn_mm,cn_ra,cn_sa
0.0049,1783441336.2650,1,0,2.0000,0.0000,1.42052,0.14185,-2.66687,1.00233,1.56182,0.11682,-0.13242,-0.45910,0.07209,,,,,,,,,,,,,,,,,,,,,,,,,,0,0,0,0,0
0.0089,1783441336.2690,1,0,2.0000,0.0000,1.42052,0.14185,-2.66687,1.00233,1.56182,0.11682,-0.13242,-0.45910,0.07209,,,,,,,,,,,,,,,,,,,,,,,,,,0,0,0,0,0
0.0093,1783441336.2695,1,0,2.0000,0.0000,1.42052,0.14185,-2.66687,1.00233,1.56182,0.11682,-0.13242,-0.45910,0.07209,,,,,,,,,,,,,,,,,,,,,,,,,,0,0,0,0,0
0.0169,1783441336.2771,1,0,2.0000,0.0000,1.42052,0.14185,-2.66687,1.00233,1.56182,0.11682,-0.13242,-0.45910,0.07209,,,,,,,,,,,,,,,,,,,,,,,,,,0,0,0,0,0
0.0267,1783441336.2869,1,0,2.0000,0.0000,1.42052,0.14185,-2.66687,1.00233,1.56182,0.11682,-0.13242,-0.45910,0.07209,,,,,,,,,,,,,,,,,,,,,,,,,,0,0,0,0,0
0.0275,1783441336.2877,1,0,2.0000,0.0000,1.42052,0.14185,-2.66687,1.00233,1.56182,0.11682,-0.13242,-0.45910,0.07209,,,,,,,,,,,,,,,,,,,,,,,,,,0,0,0,0,0
0.0382,1783441336.2983,1,0,2.0000,0.0000,1.42052,0.14185,-2.66687,1.00233,1.56182,0.11682,-0.13242,-0.45910,0.07209,,,,,,,,,,,,,,,,,,,,,,,,,,0,0,0,0,0
0.0513,1783441336.3114,1,0,2.0000,0.0000,1.42052,0.14185,-2.66687,1.00233,1.56182,0.11682,-0.13242,-0.45910,0.07209,,,,,,,,,,,,,,,,,,,,,,,,,,0,0,0,0,0
0.0572,1783441336.3173,1,0,2.0000,0.0000,1.42052,0.14185,-2.66687,1.00233,1.56182,0.11682,-0.13242,-0.45910,0.07209,,,,,,,,,,,,,,,,,,,,,,,,,,0,0,0,0,0
0.0721,1783441336.3323,1,0,2.0000,0.0000,1.42052,0.14185,-2.66687,1.00233,1.56182,0.11682,-0.13242,-0.45910,0.07209,,,,,,,,,,,,,,,,,,,,,,,,,,0,0,0,0,0
0.0809,1783441336.3411,1,0,2.0000,0.0000,1.42052,0.14185,-2.66687,1.00233,1.56182,0.11682,-0.13242,-0.45910,0.07209,,,,,,,,,,,,,,,,,,,,,,,,,,0,0,0,0,0
0.0894,1783441336.3495,1,0,2.0000,0.0000,1.42052,0.14185,-2.66687,1.00233,1.56182,0.11682,-0.13242,-0.45910,0.07209,,,,,,,,,,,,,,,,,,,,,,,,,,0,0,0,0,0
0.0971,1783441336.3572,1,0,2.0000,0.0000,1.42052,0.14185,-2.66687,1.00233,1.56182,0.11682,-0.13242,-0.45910,0.07209,,,,,,,,,,,,,,,,,,,,,,,,,,0,0,0,0,0
0.0974,1783441336.3576,1,0,2.0000,0.0000,1.42052,0.14185,-2.66687,1.00233,1.56182,0.11682,-0.13242,-0.45910,0.07209,,,,,,,,,,,,,,,,,,,,,,,,,,0,0,0,0,0
0.1061,1783441336.3663,1,0,2.0000,0.0000,1.42052,0.14185,-2.66687,1.00233,1.56182,0.11682,-0.13242,-0.45910,0.07209,,,,,,,,,,,,,,,,,,,,,,,,,,0,0,0,0,0
0.1209,1783441336.3811,1,0,2.0000,0.0000,1.42052,0.14185,-2.66687,1.00233,1.56182,0.11682,-0.13242,-0.45910,0.07209,,,,,,,,,,,,,,,,,,,,,,,,,,0,0,0,0,0
0.1304,1783441336.3906,1,0,2.0000,0.0000,1.42052,0.14185,-2.66687,1.00233,1.56182,0.11682,-0.13242,-0.45910,0.07209,,,,,,,,,,,,,,,,,,,,,,,,,,0,0,0,0,0
0.1367,1783441336.3969,1,0,2.0000,0.0000,1.42052,0.14185,-2.66687,1.00233,1.56182,0.11682,-0.13242,-0.45910,0.07209,,,,,,,,,,,,,,,,,,,,,,,,,,0,0,0,0,0
0.1533,1783441336.4135,1,0,2.0000,0.0000,1.42052,0.14185,-2.66687,1.00233,1.56182,0.11682,-0.13242,-0.45910,0.07209,,,,,,,,,,,,,,,,,,,,,,,,,,0,0,0,0,0
0.1611,1783441336.4213,1,0,2.0000,0.0000,1.42052,0.14185,-2.66687,1.00233,1.56182,0.11682,-0.13242,-0.45910,0.07209,,,,,,,,,,,,,,,,,,,,,,,,,,0,0,0,0,0
0.1617,1783441336.4219,1,0,2.0000,0.0000,1.42052,0.14185,-2.66687,1.00233,1.56182,0.11682,-0.13242,-0.45910,0.07209,,,,,,,,,,,,,,,,,,,,,,,,,,0,0,0,0,0
0.2142,1783441336.4743,1,0,2.0000,0.0000,1.42052,0.14185,-2.66687,1.00233,1.56182,0.11682,-0.13242,-0.45910,0.07209,,,,,,,,,,,,,,,,,,,,,,,,,,0,0,0,0,0
0.2146,1783441336.4748,1,0,2.0000,0.0000,1.42052,0.14185,-2.66687,1.00233,1.56182,0.11682,-0.13242,-0.45910,0.07209,,,,,,,,,,,,,,,,,,,,,,,,,,0,0,0,0,0
0.2151,1783441336.4753,1,0,2.0000,0.0000,1.42052,0.14185,-2.66687,1.00233,1.56182,0.11682,-0.13242,-0.45910,0.07209,,,,,,,,,,,,,,,,,,,,,,,,,,0,0,0,0,0
0.2162,1783441336.4764,1,0,2.0000,0.0000,1.42052,0.14185,-2.66687,1.00233,1.56182,0.11682,-0.13242,-0.45910,0.07209,,,,,,,,,,,,,,,,,,,,,,,,,,0,0,0,0,0
0.2169,1783441336.4771,1,0,2.0000,0.0000,1.42052,0.14185,-2.66687,1.00233,1.56182,0.11682,-0.13242,-0.45910,0.07209,,,,,,,,,,,,,,,,,,,,,,,,,,0,0,0,0,0
0.2313,1783441336.4915,1,0,2.0000,0.0000,1.42052,0.14185,-2.66687,1.00233,1.56182,0.11682,-0.13242,-0.45910,0.07209,,,,,,,,,,,,,,,,,,,,,,,,,,0,0,0,0,0
0.2363,1783441336.4965,1,0,2.0000,0.0000,1.42052,0.14185,-2.66687,1.00233,1.56182,0.11682,-0.13242,-0.45910,0.07209,,,,,,,,,,,,,,,,,,,,,,,,,,0,0,0,0,0
0.2465,1783441336.5067,1,0,2.0000,0.0000,1.42052,0.14185,-2.66687,1.00233,1.56182,0.11682,-0.13242,-0.45910,0.07209,,,,,,,,,,,,,,,,,,,,,,,,,,0,0,0,0,0
0.2772,1783441336.5374,1,0,2.0000,0.0000,1.42052,0.14185,-2.66687,1.00233,1.56182,0.11682,-0.13242,-0.45910,0.07209,,,,,,,,,,,,,,,,,,,,,,,,,,0,0,0,0,0
0.2777,1783441336.5378,1,0,2.0000,0.0000,1.42052,0.14185,-2.66687,1.00233,1.56182,0.11682,-0.13242,-0.45910,0.07209,,,,,,,,,,,,,,,,,,,,,,,,,,0,0,0,0,0
0.3680,1783441336.6282,1,0,2.0000,0.0000,1.42052,0.14185,-2.66687,1.00233,1.56182,0.11682,-0.13242,-0.45910,0.07209,,,,,,,,,,,,,,,,,,,,,,,,,,0,0,0,0,0
0.4695,1783441336.7297,1,0,2.0000,0.0000,1.42052,0.14185,-2.66687,1.00233,1.56182,0.11682,-0.13242,-0.45910,0.07209,,,,,,,,,,,,,,,,,,,,,,,,,,0,0,0,0,0
0.4700,1783441336.7301,1,0,2.0000,0.0000,1.42052,0.14185,-2.66687,1.00233,1.56182,0.11682,-0.13242,-0.45910,0.07209,,,,,,,,,,,,,,,,,,,,,,,,,,0,0,0,0,0
0.6278,1783441336.8879,1,0,2.0000,0.0000,1.42052,0.14185,-2.66687,1.00233,1.56182,0.11682,-0.13242,-0.45910,0.07209,,,,,,,,,,,,,,,,,,,,,,,,,,0,0,0,0,0
0.6283,1783441336.8884,1,0,2.0000,0.0000,1.42052,0.14185,-2.66687,1.00233,1.56182,0.11682,-0.13242,-0.45910,0.07209,,,,,,,,,,,,,,,,,,,,,,,,,,0,0,0,0,0
0.6288,1783441336.8890,1,0,2.0000,0.0000,1.42052,0.14185,-2.66687,1.00233,1.56182,0.11682,-0.13242,-0.45910,0.07209,,,,,,,,,,,,,,,,,,,,,,,,,,0,0,0,0,0
0.6296,1783441336.8898,1,0,2.0000,0.0000,1.42052,0.14185,-2.66687,1.00233,1.56182,0.11682,-0.13242,-0.45910,0.07209,,,,,,,,,,,,,,,,,,,,,,,,,,0,0,0,0,0
0.6299,1783441336.8901,1,0,2.0000,0.0000,1.42052,0.14185,-2.66687,1.00233,1.56182,0.11682,-0.13242,-0.45910,0.07209,,,,,,,,,,,,,,,,,,,,,,,,,,0,0,0,0,0
0.6303,1783441336.8905,1,0,2.0000,0.0000,1.42052,0.14185,-2.66687,1.00233,1.56182,0.11682,-0.13242,-0.45910,0.07209,,,,,,,,,,,,,,,,,,,,,,,,,,0,0,0,0,0
0.6309,1783441336.8910,1,0,2.0000,0.0000,1.42052,0.14185,-2.66687,1.00233,1.56182,0.11682,-0.13242,-0.45910,0.07209,,,,,,,,,,,,,,,,,,,,,,,,,,0,0,0,0,0
0.6313,1783441336.8915,1,0,2.0000,0.0000,1.42052,0.14185,-2.66687,1.00233,1.56182,0.11682,-0.13242,-0.45910,0.07209,,,,,,,,,,,,,,,,,,,,,,,,,,0,0,0,0,0
0.6318,1783441336.8920,1,0,2.0000,0.0000,1.42052,0.14185,-2.66687,1.00233,1.56182,0.11682,-0.13242,-0.45910,0.07209,,,,,,,,,,,,,,,,,,,,,,,,,,0,0,0,0,0
0.6323,1783441336.8925,1,0,2.0000,0.0000,1.42052,0.14185,-2.66687,1.00233,1.56182,0.11682,-0.13242,-0.45910,0.07209,,,,,,,,,,,,,,,,,,,,,,,,,,0,0,0,0,0
0.6328,1783441336.8930,1,0,2.0000,0.0000,1.42052,0.14185,-2.66687,1.00233,1.56182,0.11682,-0.13242,-0.45910,0.07209,,,,,,,,,,,,,,,,,,,,,,,,,,0,0,0,0,0
0.6336,1783441336.8938,1,0,2.0000,0.0000,1.42052,0.14185,-2.66687,1.00233,1.56182,0.11682,-0.13242,-0.45910,0.07209,,,,,,,,,,,,,,,,,,,,,,,,,,0,0,0,0,0
0.6342,1783441336.8943,1,0,2.0000,0.0000,1.42052,0.14185,-2.66687,1.00233,1.56182,0.11682,-0.13242,-0.45910,0.07209,,,,,,,,,,,,,,,,,,,,,,,,,,0,0,0,0,0
0.6345,1783441336.8947,1,0,2.0000,0.0000,1.42052,0.14185,-2.66687,1.00233,1.56182,0.11682,-0.13242,-0.45910,0.07209,,,,,,,,,,,,,,,,,,,,,,,,,,0,0,0,0,0
0.6349,1783441336.8950,1,0,2.0000,0.0000,1.42052,0.14185,-2.66687,1.00233,1.56182,0.11682,-0.13242,-0.45910,0.07209,,,,,,,,,,,,,,,,,,,,,,,,,,0,0,0,0,0
0.6352,1783441336.8954,1,0,2.0000,0.0000,1.42052,0.14185,-2.66687,1.00233,1.56182,0.11682,-0.13242,-0.45910,0.07209,,,,,,,,,,,,,,,,,,,,,,,,,,0,0,0,0,0
0.6362,1783441336.8964,1,0,2.0000,0.0000,1.42052,0.14185,-2.66687,1.00233,1.56182,0.11682,-0.13242,-0.45910,0.07209,,,,,,,,,,,,,,,,,,,,,,,,,,0,0,0,0,0
0.6368,1783441336.8969,1,0,2.0000,0.0000,1.42052,0.14185,-2.66687,1.00233,1.56182,0.11682,-0.13242,-0.45910,0.07209,,,,,,,,,,,,,,,,,,,,,,,,,,0,0,0,0,0
0.6372,1783441336.8973,1,0,2.0000,0.0000,1.42052,0.14185,-2.66687,1.00233,1.56182,0.11682,-0.13242,-0.45910,0.07209,,,,,,,,,,,,,,,,,,,,,,,,,,0,0,0,0,0
0.6418,1783441336.9020,1,0,2.0000,0.0000,1.42052,0.14185,-2.66687,1.00233,1.56182,0.11682,-0.13242,-0.45910,0.07209,,,,,,,,,,,,,,,,,,,,,,,,,,0,0,0,0,0
0.6422,1783441336.9023,1,0,2.0000,0.0000,1.42052,0.14185,-2.66687,1.00233,1.56182,0.11682,-0.13242,-0.45910,0.07209,,,,,,,,,,,,,,,,,,,,,,,,,,0,0,0,0,0
0.6740,1783441336.9341,1,0,2.0000,0.0000,1.42052,0.14185,-2.66687,1.00233,1.56182,0.11682,-0.13242,-0.45910,0.07209,,,,,,,,,,,,,,,,,,,,,,,,,,0,0,0,0,0
0.6746,1783441336.9347,1,0,2.0000,0.0000,1.42052,0.14185,-2.66687,1.00233,1.56182,0.11682,-0.13242,-0.45910,0.07209,,,,,,,,,,,,,,,,,,,,,,,,,,0,0,0,0,0
0.6801,1783441336.9402,1,0,2.0000,0.0000,1.42052,0.14185,-2.66687,1.00233,1.56182,0.11682,-0.13242,-0.45910,0.07209,,,,,,,,,,,,,,,,,,,,,,,,,,0,0,0,0,0
0.6803,1783441336.9404,1,0,2.0000,0.0000,1.42052,0.14185,-2.66687,1.00233,1.56182,0.11682,-0.13242,-0.45910,0.07209,,,,,,,,,,,,,,,,,,,,,,,,,,0,0,0,0,0
0.6899,1783441336.9500,1,0,2.0000,0.0000,1.42050,0.14185,-2.66689,1.00233,1.56182,0.11683,-0.13241,-0.45909,0.07208,,,,,,,,,,,,,,,,,,,,,,,,,,0,0,0,0,0
0.7077,1783441336.9679,1,0,2.0000,0.0000,1.42046,0.14186,-2.66693,1.00232,1.56182,0.11686,-0.13240,-0.45907,0.07206,,,,,,,,,,,,,,,,,,,,,,,,,,0,0,0,0,0
0.7109,1783441336.9711,1,0,2.0000,0.0000,1.42046,0.14186,-2.66693,1.00232,1.56182,0.11687,-0.13240,-0.45907,0.07206,,,,,,,,,,,,,,,,,,,,,,,,,,0,0,0,0,0
0.7113,1783441336.9715,1,0,2.0000,0.0000,1.42046,0.14186,-2.66693,1.00232,1.56182,0.11687,-0.13240,-0.45907,0.07206,,,,,,,,,,,,,,,,,,,,,,,,,,0,0,0,0,0
0.7218,1783441336.9819,1,0,2.0000,0.0000,1.42037,0.14189,-2.66697,1.00231,1.56182,0.11695,-0.13237,-0.45906,0.07205,,,,,,,,,,,,,,,,,,,,,,,,,,0,0,0,0,0
0.7299,1783441336.9900,1,0,2.0000,0.0000,1.42032,0.14190,-2.66699,1.00231,1.56182,0.11699,-0.13235,-0.45905,0.07204,,,,,,,,,,,,,,,,,,,,,,,,,,0,0,0,0,0
0.7303,1783441336.9904,1,0,2.0000,0.0000,1.42032,0.14190,-2.66699,1.00231,1.56182,0.11699,-0.13235,-0.45905,0.07204,,,,,,,,,,,,,,,,,,,,,,,,,,0,0,0,0,0
0.7419,1783441337.0020,1,0,2.0000,0.0000,1.42019,0.14194,-2.66702,1.00230,1.56182,0.11712,-0.13230,-0.45905,0.07204,,,,,,,,,,,,,,,,,,,,,,,,,,0,0,0,0,0
0.7540,1783441337.0142,1,0,2.0000,0.0000,1.41985,0.14203,-2.66711,1.00228,1.56181,0.11746,-0.13217,-0.45904,0.07203,,,,,,,,,,,,,,,,,,,,,,,,,,0,0,0,0,0
0.7544,1783441337.0146,1,0,2.0000,0.0000,1.41985,0.14203,-2.66711,1.00228,1.56181,0.11746,-0.13217,-0.45904,0.07203,,,,,,,,,,,,,,,,,,,,,,,,,,0,0,0,0,0
0.7681,1783441337.0282,1,0,2.0000,0.0000,1.41967,0.14208,-2.66715,1.00227,1.56181,0.11763,-0.13211,-0.45903,0.07203,,,,,,,,,,,,,,,,,,,,,,,,,,0,0,0,0,0
0.7733,1783441337.0334,1,0,2.0000,0.0000,1.41959,0.14210,-2.66717,1.00226,1.56180,0.11771,-0.13208,-0.45903,0.07203,,,,,,,,,,,,,,,,,,,,,,,,,,0,0,0,0,0
0.7738,1783441337.0340,1,0,2.0000,0.0000,1.41946,0.14214,-2.66719,1.00226,1.56180,0.11783,-0.13203,-0.45903,0.07203,,,,,,,,,,,,,,,,,,,,,,,,,,0,0,0,0,0
0.7862,1783441337.0463,1,0,2.0000,0.0000,1.41908,0.14224,-2.66727,1.00223,1.56178,0.11821,-0.13189,-0.45904,0.07203,,,,,,,,,,,,,,,,,,,,,,,,,,0,0,0,0,0
0.7968,1783441337.0570,1,0,2.0000,0.0000,1.41889,0.14230,-2.66731,1.00222,1.56178,0.11840,-0.13181,-0.45904,0.07203,,,,,,,,,,,,,,,,,,,,,,,,,,0,0,0,0,0
0.8060,1783441337.0662,1,0,2.0000,0.0000,1.41803,0.14253,-2.66747,1.00215,1.56174,0.11925,-0.13149,-0.45905,0.07204,,,,,,,,,,,,,,,,,,,,,,,,,,0,0,0,0,0
0.8065,1783441337.0667,1,0,2.0000,0.0000,1.41803,0.14253,-2.66747,1.00215,1.56174,0.11925,-0.13149,-0.45905,0.07204,,,,,,,,,,,,,,,,,,,,,,,,,,0,0,0,0,0
0.8101,1783441337.0702,1,0,2.0000,0.0000,1.41764,0.14264,-2.66754,1.00212,1.56172,0.11964,-0.13135,-0.45906,0.07204,,,,,,,,,,,,,,,,,,,,,,,,,,0,0,0,0,0
0.8204,1783441337.0805,1,0,2.0000,0.0000,1.41721,0.14276,-2.66763,1.00209,1.56171,0.12007,-0.13119,-0.45906,0.07204,,,,,,,,,,,,,,,,,,,,,,,,,,0,0,0,0,0
0.8373,1783441337.0974,1,0,2.0000,0.0000,1.41643,0.14297,-2.66778,1.00203,1.56167,0.12085,-0.13089,-0.45907,0.07205,,,,,,,,,,,,,,,,,,,,,,,,,,0,0,0,0,0
0.8391,1783441337.0993,1,0,2.0000,0.0000,1.41604,0.14308,-2.66785,1.00201,1.56166,0.12124,-0.13075,-0.45908,0.07205,,,,,,,,,,,,,,,,,,,,,,,,,,0,0,0,0,0
0.8396,1783441337.0997,1,0,2.0000,0.0000,1.41604,0.14308,-2.66785,1.00201,1.56166,0.12124,-0.13075,-0.45908,0.07205,,,,,,,,,,,,,,,,,,,,,,,,,,0,0,0,0,0
0.8499,1783441337.1101,1,0,2.0000,0.0000,1.41461,0.14347,-2.66812,1.00190,1.56159,0.12267,-0.13021,-0.45909,0.07206,,,,,,,,,,,,,,,,,,,,,,,,,,0,0,0,0,0
0.8618,1783441337.1220,1,0,2.0000,0.0000,1.41440,0.14353,-2.66816,1.00188,1.56158,0.12288,-0.13013,-0.45909,0.07206,,,,,,,,,,,,,,,,,,,,,,,,,,0,0,0,0,0
0.8925,1783441337.1526,1,0,2.0000,0.0000,1.41297,0.14392,-2.66843,1.00177,1.56152,0.12431,-0.12960,-0.45911,0.07207,,,,,,,,,,,,,,,,,,,,,,,,,,0,0,0,0,0
0.8943,1783441337.1544,1,0,2.0000,0.0000,1.41297,0.14392,-2.66843,1.00177,1.56152,0.12431,-0.12960,-0.45911,0.07207,,,,,,,,,,,,,,,,,,,,,,,,,,0,0,0,0,0
0.9037,1783441337.1639,1,0,2.0000,0.0000,1.41173,0.14425,-2.66867,1.00167,1.56146,0.12556,-0.12913,-0.45912,0.07207,,,,,,,,,,,,,,,,,,,,,,,,,,0,0,0,0,0
0.9142,1783441337.1743,1,0,2.0000,0.0000,1.41118,0.14440,-2.66878,1.00163,1.56144,0.12611,-0.12893,-0.45912,0.07207,,,,,,,,,,,,,,,,,,,,,,,,,,0,0,0,0,0
0.9195,1783441337.1796,1,0,2.0000,0.0000,1.41105,0.14444,-2.66880,1.00161,1.56143,0.12623,-0.12888,-0.45912,0.07207,,,,,,,,,,,,,,,,,,,,,,,,,,0,0,0,0,0
0.9307,1783441337.1908,1,0,2.0000,0.0000,1.41028,0.14465,-2.66895,1.00155,1.56140,0.12700,-0.12860,-0.45913,0.07207,,,,,,,,,,,,,,,,,,,,,,,,,,0,0,0,0,0
1.0031,1783441337.2633,1,0,2.0000,0.0000,1.40711,0.14550,-2.66951,1.00127,1.56124,0.13017,-0.12741,-0.45918,0.07210,,,,,,,,,,,,,,,,,,,,,,,,,,0,0,0,0,0
1.0035,1783441337.2636,1,0,2.0000,0.0000,1.40711,0.14550,-2.66951,1.00127,1.56124,0.13017,-0.12741,-0.45918,0.07210,,,,,,,,,,,,,,,,,,,,,,,,,,0,0,0,0,0
1.0040,1783441337.2642,1,0,2.0000,0.0000,1.40711,0.14550,-2.66951,1.00127,1.56124,0.13017,-0.12741,-0.45918,0.07210,,,,,,,,,,,,,,,,,,,,,,,,,,0,0,0,0,0
1.0044,1783441337.2646,1,0,2.0000,0.0000,1.40711,0.14550,-2.66951,1.00127,1.56124,0.13017,-0.12741,-0.45918,0.07210,,,,,,,,,,,,,,,,,,,,,,,,,,0,0,0,0,0
1.0050,1783441337.2651,1,0,2.0000,0.0000,1.40711,0.14550,-2.66951,1.00127,1.56124,0.13017,-0.12741,-0.45918,0.07210,,,,,,,,,,,,,,,,,,,,,,,,,,0,0,0,0,0
1.0106,1783441337.2708,1,0,2.0000,0.0000,1.40699,0.14554,-2.66951,1.00126,1.56124,0.13030,-0.12737,-0.45919,0.07211,,,,,,,,,,,,,,,,,,,,,,,,,,0,0,0,0,0
1.0110,1783441337.2711,1,0,2.0000,0.0000,1.40699,0.14554,-2.66951,1.00126,1.56124,0.13030,-0.12737,-0.45919,0.07211,,,,,,,,,,,,,,,,,,,,,,,,,,0,0,0,0,0
1.0118,1783441337.2720,1,0,2.0000,0.0000,1.40699,0.14554,-2.66951,1.00126,1.56124,0.13030,-0.12737,-0.45919,0.07211,,,,,,,,,,,,,,,,,,,,,,,,,,0,0,0,0,0
1.0203,1783441337.2805,1,0,2.0000,0.0000,1.40699,0.14554,-2.66951,1.00126,1.56124,0.13030,-0.12737,-0.45919,0.07211,,,,,,,,,,,,,,,,,,,,,,,,,,0,0,0,0,0
1.0342,1783441337.2943,1,1,2.0000,0.0000,1.40699,0.14554,-2.66951,1.00126,1.56124,0.13030,-0.12737,-0.45919,0.07211,,,,,,,,,,,,,,,,,,,,,,,,,,0,0,0,0,0
1.0351,1783441337.2953,1,1,2.0000,0.0000,1.40699,0.14554,-2.66951,1.00126,1.56124,0.13030,-0.12737,-0.45919,0.07211,,,,,,,,,,,,,,,,,,,,,,,,,,0,0,0,0,0
1.0407,1783441337.3009,1,1,2.0000,0.0000,1.40699,0.14554,-2.66951,1.00126,1.56124,0.13030,-0.12737,-0.45919,0.07211,,,,,,,,,,,,,,,,,,,,,,,,,,0,0,0,0,0
1.0550,1783441337.3152,1,1,2.0000,0.0000,1.40699,0.14554,-2.66951,1.00126,1.56124,0.13030,-0.12737,-0.45919,0.07211,,,,,,,,,,,,,,,,,,,,,,,,,,0,0,0,0,0
1.0594,1783441337.3196,1,1,2.0000,0.0000,1.40699,0.14554,-2.66951,1.00126,1.56124,0.13030,-0.12737,-0.45919,0.07211,,,,,,,,,,,,,,,,,,,,,,,,,,0,0,0,0,0
1.0724,1783441337.3326,1,1,2.0000,0.0000,1.40699,0.14554,-2.66951,1.00126,1.56124,0.13030,-0.12737,-0.45919,0.07211,,,,,,,,,,,,,,,,,,,,,,,,,,0,0,0,0,0
1.0854,1783441337.3455,1,1,2.0000,0.0000,1.40699,0.14554,-2.66951,1.00126,1.56124,0.13030,-0.12737,-0.45919,0.07211,,,,,,,,,,,,,,,,,,,,,,,,,,0,0,0,0,0
1.0927,1783441337.3528,1,1,2.0000,0.0000,1.40699,0.14554,-2.66951,1.00126,1.56124,0.13030,-0.12737,-0.45919,0.07211,,,,,,,,,,,,,,,,,,,,,,,,,,0,0,0,0,0
1.0930,1783441337.3532,1,1,2.0000,0.0000,1.40699,0.14554,-2.66951,1.00126,1.56124,0.13030,-0.12737,-0.45919,0.07211,,,,,,,,,,,,,,,,,,,,,,,,,,0,0,0,0,0
1.0996,1783441337.3598,1,1,2.0000,0.0000,1.40699,0.14554,-2.66951,1.00126,1.56124,0.13030,-0.12737,-0.45919,0.07211,,,,,,,,,,,,,,,,,,,,,,,,,,0,0,0,0,0
1.1131,1783441337.3733,1,1,2.0000,0.0000,1.40699,0.14554,-2.66951,1.00126,1.56124,0.13030,-0.12737,-0.45919,0.07211,,,,,,,,,,,,,,,,,,,,,,,,,,0,0,0,0,0
1.1240,1783441337.3842,1,1,2.0000,0.0000,1.40699,0.14554,-2.66951,1.00126,1.56124,0.13030,-0.12737,-0.45919,0.07211,,,,,,,,,,,,,,,,,,,,,,,,,,0,0,0,0,0
1.1321,1783441337.3923,1,1,2.0000,0.0000,1.40699,0.14554,-2.66951,1.00126,1.56124,0.13030,-0.12737,-0.45919,0.07211,,,,,,,,,,,,,,,,,,,,,,,,,,0,0,0,0,0
1.1398,1783441337.4000,1,1,2.0000,0.0000,1.40699,0.14554,-2.66951,1.00126,1.56124,0.13030,-0.12737,-0.45919,0.07211,,,,,,,,,,,,,,,,,,,,,,,,,,0,0,0,0,0
1.1509,1783441337.4110,1,1,2.0000,0.0000,1.40699,0.14554,-2.66951,1.00126,1.56124,0.13030,-0.12737,-0.45919,0.07211,,,,,,,,,,,,,,,,,,,,,,,,,,0,0,0,0,0
1.1629,1783441337.4231,1,1,2.0000,0.0000,1.40699,0.14554,-2.66951,1.00126,1.56124,0.13030,-0.12737,-0.45919,0.07211,,,,,,,,,,,,,,,,,,,,,,,,,,0,0,0,0,0
1.1709,1783441337.4310,1,1,2.0000,0.0000,1.40699,0.14554,-2.66951,1.00126,1.56124,0.13030,-0.12737,-0.45919,0.07211,,,,,,,,,,,,,,,,,,,,,,,,,,0,0,0,0,0
1.1858,1783441337.4459,1,1,2.0000,0.0000,1.40699,0.14554,-2.66951,1.00126,1.56124,0.13030,-0.12737,-0.45919,0.07211,,,,,,,,,,,,,,,,,,,,,,,,,,0,0,0,0,0
1.1920,1783441337.4521,1,1,2.0000,0.0000,1.40699,0.14554,-2.66951,1.00126,1.56124,0.13030,-0.12737,-0.45919,0.07211,,,,,,,,,,,,,,,,,,,,,,,,,,0,0,0,0,0
1.2001,1783441337.4603,1,1,2.0000,0.0000,1.40699,0.14554,-2.66951,1.00126,1.56124,0.13030,-0.12737,-0.45919,0.07211,,,,,,,,,,,,,,,,,,,,,,,,,,0,0,0,0,0
1.2007,1783441337.4608,1,1,2.0000,0.0000,1.40699,0.14554,-2.66951,1.00126,1.56124,0.13030,-0.12737,-0.45919,0.07211,,,,,,,,,,,,,,,,,,,,,,,,,,0,0,0,0,0
1.2153,1783441337.4755,1,1,2.0000,0.0000,1.40699,0.14554,-2.66951,1.00126,1.56124,0.13030,-0.12737,-0.45919,0.07211,,,,,,,,,,,,,,,,,,,,,,,,,,0,0,0,0,0
1.2233,1783441337.4834,1,1,2.0000,0.0000,1.40699,0.14554,-2.66951,1.00126,1.56124,0.13030,-0.12737,-0.45919,0.07211,,,,,,,,,,,,,,,,,,,,,,,,,,0,0,0,0,0
1.2309,1783441337.4911,1,1,2.0000,0.0000,1.40699,0.14554,-2.66951,1.00126,1.56124,0.13030,-0.12737,-0.45919,0.07211,,,,,,,,,,,,,,,,,,,,,,,,,,0,0,0,0,0
1.2433,1783441337.5034,1,1,2.0000,0.0000,1.40699,0.14554,-2.66951,1.00126,1.56124,0.13030,-0.12737,-0.45919,0.07211,,,,,,,,,,,,,,,,,,,,,,,,,,0,0,0,0,0
1.2566,1783441337.5168,1,1,2.0000,0.0000,1.40699,0.14554,-2.66951,1.00126,1.56124,0.13030,-0.12737,-0.45919,0.07211,,,,,,,,,,,,,,,,,,,,,,,,,,0,0,0,0,0
1.2646,1783441337.5247,1,1,2.0000,0.0000,1.40699,0.14554,-2.66951,1.00126,1.56124,0.13030,-0.12737,-0.45919,0.07211,,,,,,,,,,,,,,,,,,,,,,,,,,0,0,0,0,0
1.2699,1783441337.5301,1,1,2.0000,0.0000,1.40699,0.14554,-2.66951,1.00126,1.56124,0.13030,-0.12737,-0.45919,0.07211,,,,,,,,,,,,,,,,,,,,,,,,,,0,0,0,0,0
1.2702,1783441337.5304,1,1,2.0000,0.0000,1.40699,0.14554,-2.66951,1.00126,1.56124,0.13030,-0.12737,-0.45919,0.07211,,,,,,,,,,,,,,,,,,,,,,,,,,0,0,0,0,0
1.2892,1783441337.5494,1,1,2.0000,0.0000,1.40699,0.14554,-2.66951,1.00126,1.56124,0.13030,-0.12737,-0.45919,0.07211,,,,,,,,,,,,,,,,,,,,,,,,,,0,0,0,0,0
1.2948,1783441337.5549,1,1,2.0000,0.0000,1.40699,0.14554,-2.66951,1.00126,1.56124,0.13030,-0.12737,-0.45919,0.07211,,,,,,,,,,,,,,,,,,,,,,,,,,0,0,0,0,0
1.3034,1783441337.5635,1,1,2.0000,0.0000,1.40699,0.14554,-2.66951,1.00126,1.56124,0.13030,-0.12737,-0.45919,0.07211,,,,,,,,,,,,,,,,,,,,,,,,,,0,0,0,0,0
1.3037,1783441337.5638,1,1,2.0000,0.0000,1.40699,0.14554,-2.66951,1.00126,1.56124,0.13030,-0.12737,-0.45919,0.07211,,,,,,,,,,,,,,,,,,,,,,,,,,0,0,0,0,0
1.3141,1783441337.5742,1,1,2.0000,0.0000,1.40699,0.14554,-2.66951,1.00126,1.56124,0.13030,-0.12737,-0.45919,0.07211,,,,,,,,,,,,,,,,,,,,,,,,,,0,0,0,0,0
1.3264,1783441337.5866,1,1,2.0000,0.0000,1.40699,0.14554,-2.66951,1.00126,1.56124,0.13030,-0.12737,-0.45919,0.07211,,,,,,,,,,,,,,,,,,,,,,,,,,0,0,0,0,0
1.3320,1783441337.5922,1,1,2.0000,0.0000,1.40699,0.14554,-2.66951,1.00126,1.56124,0.13030,-0.12737,-0.45919,0.07211,,,,,,,,,,,,,,,,,,,,,,,,,,0,0,0,0,0
1.3325,1783441337.5927,1,1,2.0000,0.0000,1.40699,0.14554,-2.66951,1.00126,1.56124,0.13030,-0.12737,-0.45919,0.07211,,,,,,,,,,,,,,,,,,,,,,,,,,0,0,0,0,0
1.3438,1783441337.6040,1,1,2.0000,0.0000,1.40699,0.14554,-2.66951,1.00126,1.56124,0.13030,-0.12737,-0.45919,0.07211,,,,,,,,,,,,,,,,,,,,,,,,,,0,0,0,0,0
1.3525,1783441337.6127,1,1,2.0000,0.0000,1.40699,0.14554,-2.66951,1.00126,1.56124,0.13030,-0.12737,-0.45919,0.07211,,,,,,,,,,,,,,,,,,,,,,,,,,0,0,0,0,0
1.3643,1783441337.6245,1,1,2.0000,0.0000,1.40699,0.14554,-2.66951,1.00126,1.56124,0.13030,-0.12737,-0.45919,0.07211,,,,,,,,,,,,,,,,,,,,,,,,,,0,0,0,0,0
1.3757,1783441337.6358,1,1,2.0000,0.0000,1.40699,0.14554,-2.66951,1.00126,1.56124,0.13030,-0.12737,-0.45919,0.07211,,,,,,,,,,,,,,,,,,,,,,,,,,0,0,0,0,0
1.4047,1783441337.6649,1,1,2.0000,0.0000,1.40699,0.14554,-2.66951,1.00126,1.56124,0.13030,-0.12737,-0.45919,0.07211,,,,,,,,,,,,,,,,,,,,,,,,,,0,0,0,0,0
1.4050,1783441337.6652,1,1,2.0000,0.0000,1.40699,0.14554,-2.66951,1.00126,1.56124,0.13030,-0.12737,-0.45919,0.07211,,,,,,,,,,,,,,,,,,,,,,,,,,0,0,0,0,0
1.4066,1783441337.6668,1,1,2.0000,0.0000,1.40699,0.14554,-2.66951,1.00126,1.56124,0.13030,-0.12737,-0.45919,0.07211,,,,,,,,,,,,,,,,,,,,,,,,,,0,0,0,0,0
1.4070,1783441337.6671,1,1,2.0000,0.0000,1.40699,0.14554,-2.66951,1.00126,1.56124,0.13030,-0.12737,-0.45919,0.07211,,,,,,,,,,,,,,,,,,,,,,,,,,0,0,0,0,0
1.4126,1783441337.6728,1,1,2.0000,0.0000,1.40699,0.14554,-2.66951,1.00126,1.56124,0.13030,-0.12737,-0.45919,0.07211,,,,,,,,,,,,,,,,,,,,,,,,,,0,0,0,0,0
1.4131,1783441337.6733,1,1,2.0000,0.0000,1.40699,0.14554,-2.66951,1.00126,1.56124,0.13030,-0.12737,-0.45919,0.07211,,,,,,,,,,,,,,,,,,,,,,,,,,0,0,0,0,0
1.4250,1783441337.6852,1,1,2.0000,0.0000,1.40699,0.14554,-2.66951,1.00126,1.56124,0.13030,-0.12737,-0.45919,0.07211,,,,,,,,,,,,,,,,,,,,,,,,,,0,0,0,0,0
1.4258,1783441337.6860,1,1,2.0000,0.0000,1.40699,0.14554,-2.66951,1.00126,1.56124,0.13030,-0.12737,-0.45919,0.07211,,,,,,,,,,,,,,,,,,,,,,,,,,0,0,0,0,0
1.4508,1783441337.7109,1,1,2.0000,0.0000,1.40700,0.14553,-2.66952,1.00125,1.56123,0.13030,-0.12737,-0.45918,0.07211,,,,,,,,,,,,,,,,,,,,,,,,,,0,0,0,0,0
1.4512,1783441337.7113,1,1,2.0000,0.0000,1.40700,0.14553,-2.66952,1.00125,1.56123,0.13030,-0.12737,-0.45918,0.07211,,,,,,,,,,,,,,,,,,,,,,,,,,0,0,0,0,0
1.4524,1783441337.7125,1,1,2.0000,0.0000,1.40700,0.14553,-2.66952,1.00125,1.56123,0.13030,-0.12737,-0.45918,0.07211,,,,,,,,,,,,,,,,,,,,,,,,,,0,0,0,0,0
1.4528,1783441337.7129,1,1,2.0000,0.0000,1.40700,0.14553,-2.66952,1.00125,1.56123,0.13030,-0.12737,-0.45918,0.07211,,,,,,,,,,,,,,,,,,,,,,,,,,0,0,0,0,0
1.4635,1783441337.7236,1,1,2.0000,0.0000,1.40701,0.14553,-2.66952,1.00125,1.56123,0.13030,-0.12738,-0.45918,0.07211,,,,,,,,,,,,,,,,,,,,,,,,,,0,0,0,0,0
1.4639,1783441337.7241,1,1,2.0000,0.0000,1.40701,0.14553,-2.66952,1.00125,1.56123,0.13030,-0.12738,-0.45918,0.07211,,,,,,,,,,,,,,,,,,,,,,,,,,0,0,0,0,0
1.4739,1783441337.7341,1,1,2.0000,0.0000,1.40703,0.14553,-2.66951,1.00125,1.56123,0.13030,-0.12739,-0.45919,0.07211,,,,,,,,,,,,,,,,,,,,,,,,,,0,0,0,0,0
1.4849,1783441337.7451,1,1,2.0000,0.0000,1.40704,0.14552,-2.66951,1.00125,1.56123,0.13030,-0.12739,-0.45919,0.07211,,,,,,,,,,,,,,,,,,,,,,,,,,0,0,0,0,0
1.4928,1783441337.7529,1,1,2.0000,0.0000,1.40705,0.14552,-2.66950,1.00125,1.56123,0.13029,-0.12740,-0.45919,0.07211,,,,,,,,,,,,,,,,,,,,,,,,,,0,0,0,0,0
1.5029,1783441337.7630,1,1,2.0000,0.0000,1.40714,0.14550,-2.66947,1.00125,1.56122,0.13023,-0.12743,-0.45920,0.07212,,,,,,,,,,,,,,,,,,,,,,,,,,0,0,0,0,0
1.5174,1783441337.7775,1,1,2.0000,0.0000,1.40719,0.14548,-2.66946,1.00125,1.56123,0.13018,-0.12745,-0.45920,0.07212,,,,,,,,,,,,,,,,,,,,,,,,,,0,0,0,0,0
1.5225,1783441337.7827,1,1,2.0000,0.0000,1.40733,0.14545,-2.66943,1.00125,1.56123,0.13006,-0.12750,-0.45920,0.07212,,,,,,,,,,,,,,,,,,,,,,,,,,0,0,0,0,0
1.5229,1783441337.7831,1,1,2.0000,0.0000,1.40733,0.14545,-2.66943,1.00125,1.56123,0.13006,-0.12750,-0.45920,0.07212,,,,,,,,,,,,,,,,,,,,,,,,,,0,0,0,0,0
1.5354,1783441337.7956,1,1,2.0000,0.0000,1.40765,0.14536,-2.66935,1.00126,1.56123,0.12978,-0.12763,-0.45920,0.07212,,,,,,,,,,,,,,,,,,,,,,,,,,0,0,0,0,0
1.5489,1783441337.8091,1,1,2.0000,0.0000,1.40774,0.14534,-2.66933,1.00126,1.56123,0.12969,-0.12766,-0.45920,0.07212,,,,,,,,,,,,,,,,,,,,,,,,,,0,0,0,0,0
1.5535,1783441337.8136,1,1,2.0000,0.0000,1.40784,0.14531,-2.66931,1.00127,1.56123,0.12959,-0.12770,-0.45920,0.07212,,,,,,,,,,,,,,,,,,,,,,,,,,0,0,0,0,0
1.5538,1783441337.8140,1,1,2.0000,0.0000,1.40798,0.14527,-2.66929,1.00127,1.56123,0.12946,-0.12775,-0.45920,0.07212,,,,,,,,,,,,,,,,,,,,,,,,,,0,0,0,0,0
1.5629,1783441337.8230,1,1,2.0000,0.0000,1.40835,0.14518,-2.66922,1.00129,1.56124,0.12911,-0.12789,-0.45920,0.07212,,,,,,,,,,,,,,,,,,,,,,,,,,0,0,0,0,0
1.5734,1783441337.8336,1,1,2.0000,0.0000,1.40881,0.14505,-2.66913,1.00131,1.56125,0.12867,-0.12807,-0.45919,0.07211,,,,,,,,,,,,,,,,,,,,,,,,,,0,0,0,0,0
1.5866,1783441337.8468,1,1,2.0000,0.0000,1.40911,0.14497,-2.66907,1.00133,1.56126,0.12837,-0.12818,-0.45919,0.07211,,,,,,,,,,,,,,,,,,,,,,,,,,0,0,0,0,0
1.6023,1783441337.8625,1,1,2.0000,0.0000,1.41023,0.14467,-2.66886,1.00141,1.56130,0.12727,-0.12861,-0.45917,0.07210,,,,,,,,,,,,,,,,,,,,,,,,,,0,0,0,0,0
1.6030,1783441337.8632,1,1,2.0000,0.0000,1.41023,0.14467,-2.66886,1.00141,1.56130,0.12727,-0.12861,-0.45917,0.07210,,,,,,,,,,,,,,,,,,,,,,,,,,0,0,0,0,0
1.6144,1783441337.8746,1,1,2.0000,0.0000,1.41042,0.14461,-2.66882,1.00142,1.56130,0.12707,-0.12868,-0.45917,0.07210,,,,,,,,,,,,,,,,,,,,,,,,,,0,0,0,0,0
1.6340,1783441337.8941,1,1,2.0000,0.0000,1.41139,0.14435,-2.66864,1.00149,1.56134,0.12610,-0.12904,-0.45916,0.07210,,,,,,,,,,,,,,,,,,,,,,,,,,0,0,0,0,0
1.6366,1783441337.8967,1,1,2.0000,0.0000,1.41139,0.14435,-2.66864,1.00149,1.56134,0.12610,-0.12904,-0.45916,0.07210,,,,,,,,,,,,,,,,,,,,,,,,,,0,0,0,0,0
1.6474,1783441337.9075,1,1,2.0000,0.0000,1.41228,0.14411,-2.66847,1.00156,1.56138,0.12522,-0.12937,-0.45915,0.07209,,,,,,,,,,,,,,,,,,,,,,,,,,0,0,0,0,0
1.6593,1783441337.9194,1,1,2.0000,0.0000,1.41383,0.14368,-2.66818,1.00168,1.56144,0.12367,-0.12995,-0.45913,0.07208,,,,,,,,,,,,,,,,,,,,,,,,,,0,0,0,0,0
1.6672,1783441337.9274,1,1,2.0000,0.0000,1.41388,0.14367,-2.66817,1.00168,1.56144,0.12361,-0.12998,-0.45913,0.07208,,,,,,,,,,,,,,,,,,,,,,,,,,0,0,0,0,0
1.6763,1783441337.9364,1,1,2.0000,0.0000,1.41431,0.14355,-2.66808,1.00172,1.56146,0.12319,-0.13013,-0.45913,0.07208,,,,,,,,,,,,,,,,,,,,,,,,,,0,0,0,0,0
1.6989,1783441337.9590,1,1,2.0000,0.0000,1.41603,0.14308,-2.66775,1.00185,1.56154,0.12145,-0.13078,-0.45912,0.07208,,,,,,,,,,,,,,,,,,,,,,,,,,0,0,0,0,0
1.6997,1783441337.9598,1,1,2.0000,0.0000,1.41603,0.14308,-2.66775,1.00185,1.56154,0.12145,-0.13078,-0.45912,0.07208,,,,,,,,,,,,,,,,,,,,,,,,,,0,0,0,0,0
1.7039,1783441337.9640,1,1,2.0000,0.0000,1.41617,0.14304,-2.66772,1.00186,1.56154,0.12132,-0.13083,-0.45911,0.07208,,,,,,,,,,,,,,,,,,,,,,,,,,0,0,0,0,0
1.7043,1783441337.9645,1,1,2.0000,0.0000,1.41617,0.14304,-2.66772,1.00186,1.56154,0.12132,-0.13083,-0.45911,0.07208,,,,,,,,,,,,,,,,,,,,,,,,,,0,0,0,0,0
1.7148,1783441337.9749,1,1,2.0000,0.0000,1.41698,0.14282,-2.66756,1.00193,1.56158,0.12051,-0.13113,-0.45911,0.07207,,,,,,,,,,,,,,,,,,,,,,,,,,0,0,0,0,0
1.7150,1783441337.9751,1,1,2.0000,0.0000,1.41698,0.14282,-2.66756,1.00193,1.56158,0.12051,-0.13113,-0.45911,0.07207,,,,,,,,,,,,,,,,,,,,,,,,,,0,0,0,0,0
1.7227,1783441337.9828,1,1,2.0000,0.0000,1.41702,0.14281,-2.66755,1.00193,1.56158,0.12046,-0.13115,-0.45911,0.07207,,,,,,,,,,,,,,,,,,,,,,,,,,0,0,0,0,0
1.7368,1783441337.9970,1,1,2.0000,0.0000,1.41757,0.14266,-2.66745,1.00198,1.56161,0.11991,-0.13135,-0.45911,0.07207,,,,,,,,,,,,,,,,,,,,,,,,,,0,0,0,0,0
1.7447,1783441338.0049,1,1,2.0000,0.0000,1.41817,0.14249,-2.66733,1.00203,1.56164,0.11931,-0.13158,-0.45910,0.07207,,,,,,,,,,,,,,,,,,,,,,,,,,0,0,0,0,0
1.7526,1783441338.0127,1,1,2.0000,0.0000,1.41886,0.14230,-2.66719,1.00209,1.56167,0.11862,-0.13183,-0.45910,0.07207,,,,,,,,,,,,,,,,,,,,,,,,,,0,0,0,0,0
1.7531,1783441338.0133,1,1,2.0000,0.0000,1.41886,0.14230,-2.66719,1.00209,1.56167,0.11862,-0.13183,-0.45910,0.07207,,,,,,,,,,,,,,,,,,,,,,,,,,0,0,0,0,0
1.7628,1783441338.0230,1,1,2.0000,0.0000,1.41894,0.14228,-2.66718,1.00210,1.56167,0.11854,-0.13186,-0.45910,0.07207,,,,,,,,,,,,,,,,,,,,,,,,,,0,0,0,0,0
1.7731,1783441338.0332,1,1,2.0000,0.0000,1.41915,0.14222,-2.66714,1.00212,1.56169,0.11832,-0.13194,-0.45909,0.07207,,,,,,,,,,,,,,,,,,,,,,,,,,0,0,0,0,0
1.7838,1783441338.0439,1,1,2.0000,0.0000,1.41961,0.14210,-2.66707,1.00216,1.56171,0.11786,-0.13211,-0.45908,0.07206,,,,,,,,,,,,,,,,,,,,,,,,,,0,0,0,0,0
1.7942,1783441338.0543,1,1,2.0000,0.0000,1.42009,0.14196,-2.66700,1.00221,1.56174,0.11736,-0.13229,-0.45906,0.07205,,,,,,,,,,,,,,,,,,,,,,,,,,0,0,0,0,0
1.8069,1783441338.0671,1,1,2.0000,0.0000,1.42045,0.14187,-2.66696,1.00225,1.56176,0.11699,-0.13243,-0.45904,0.07203,,,,,,,,,,,,,,,,,,,,,,,,,,0,0,0,0,0
1.8145,1783441338.0747,1,1,2.0000,0.0000,1.42054,0.14184,-2.66697,1.00226,1.56176,0.11690,-0.13246,-0.45902,0.07202,,,,,,,,,,,,,,,,,,,,,,,,,,0,0,0,0,0
1.8247,1783441338.0849,1,1,2.0000,0.0000,1.42054,0.14184,-2.66697,1.00226,1.56176,0.11690,-0.13246,-0.45902,0.07202,,,,,,,,,,,,,,,,,,,,,,,,,,0,0,0,0,0
1.8430,1783441338.1032,1,1,2.0000,0.0000,1.42054,0.14184,-2.66697,1.00226,1.56176,0.11690,-0.13246,-0.45902,0.07202,,,,,,,,,,,,,,,,,,,,,,,,,,0,0,0,0,0
1.8436,1783441338.1038,1,1,2.0000,0.0000,1.42054,0.14184,-2.66697,1.00226,1.56176,0.11690,-0.13246,-0.45902,0.07202,,,,,,,,,,,,,,,,,,,,,,,,,,0,0,0,0,0
1.8599,1783441338.1200,1,1,2.0000,0.0000,1.42054,0.14184,-2.66697,1.00226,1.56176,0.11690,-0.13246,-0.45902,0.07202,,,,,,,,,,,,,,,,,,,,,,,,,,0,0,0,0,0
1.8630,1783441338.1231,1,1,2.0000,0.0000,1.42054,0.14184,-2.66697,1.00226,1.56176,0.11690,-0.13246,-0.45902,0.07202,,,,,,,,,,,,,,,,,,,,,,,,,,0,0,0,0,0
1.8744,1783441338.1346,1,1,2.0000,0.0000,1.42054,0.14184,-2.66697,1.00226,1.56176,0.11690,-0.13246,-0.45902,0.07202,,,,,,,,,,,,,,,,,,,,,,,,,,0,0,0,0,0
1.8838,1783441338.1439,1,1,2.0000,0.0000,1.42054,0.14184,-2.66697,1.00226,1.56176,0.11690,-0.13246,-0.45902,0.07202,,,,,,,,,,,,,,,,,,,,,,,,,,0,0,0,0,0
1.8965,1783441338.1566,1,1,2.0000,0.0000,1.42054,0.14184,-2.66697,1.00226,1.56176,0.11690,-0.13246,-0.45902,0.07202,,,,,,,,,,,,,,,,,,,,,,,,,,0,0,0,0,0
1.9102,1783441338.1703,1,1,2.0000,0.0000,1.42054,0.14184,-2.66697,1.00226,1.56176,0.11690,-0.13246,-0.45902,0.07202,,,,,,,,,,,,,,,,,,,,,,,,,,0,0,0,0,0
1.9107,1783441338.1708,1,1,2.0000,0.0000,1.42054,0.14184,-2.66697,1.00226,1.56176,0.11690,-0.13246,-0.45902,0.07202,,,,,,,,,,,,,,,,,,,,,,,,,,0,0,0,0,0
1.9164,1783441338.1766,1,1,2.0000,0.0000,1.42054,0.14184,-2.66697,1.00226,1.56176,0.11690,-0.13246,-0.45902,0.07202,,,,,,,,,,,,,,,,,,,,,,,,,,0,0,0,0,0
1.9243,1783441338.1845,1,1,2.0000,0.0000,1.42054,0.14184,-2.66697,1.00226,1.56176,0.11690,-0.13246,-0.45902,0.07202,,,,,,,,,,,,,,,,,,,,,,,,,,0,0,0,0,0
1.9388,1783441338.1989,1,1,2.0000,0.0000,1.42054,0.14184,-2.66697,1.00226,1.56176,0.11690,-0.13246,-0.45902,0.07202,,,,,,,,,,,,,,,,,,,,,,,,,,0,0,0,0,0
1.9704,1783441338.2306,1,1,2.0000,0.0000,1.42054,0.14184,-2.66697,1.00226,1.56176,0.11690,-0.13246,-0.45902,0.07202,,,,,,,,,,,,,,,,,,,,,,,,,,0,0,0,0,0
1.9709,1783441338.2310,1,1,2.0000,0.0000,1.42054,0.14184,-2.66697,1.00226,1.56176,0.11690,-0.13246,-0.45902,0.07202,,,,,,,,,,,,,,,,,,,,,,,,,,0,0,0,0,0
1.9783,1783441338.2384,1,1,2.0000,0.0000,1.42054,0.14184,-2.66697,1.00226,1.56176,0.11690,-0.13246,-0.45902,0.07202,,,,,,,,,,,,,,,,,,,,,,,,,,0,0,0,0,0
2.0077,1783441338.2678,1,1,2.0000,0.0000,1.42054,0.14184,-2.66697,1.00226,1.56176,0.11690,-0.13246,-0.45902,0.07202,,,,,,,,,,,,,,,,,,,,,,,,,,0,0,0,0,0
2.0081,1783441338.2683,1,1,2.0000,0.0000,1.42054,0.14184,-2.66697,1.00226,1.56176,0.11690,-0.13246,-0.45902,0.07202,,,,,,,,,,,,,,,,,,,,,,,,,,0,0,0,0,0
2.0085,1783441338.2687,1,1,2.0000,0.0000,1.42054,0.14184,-2.66697,1.00226,1.56176,0.11690,-0.13246,-0.45902,0.07202,,,,,,,,,,,,,,,,,,,,,,,,,,0,0,0,0,0
2.0153,1783441338.2754,1,1,2.0000,0.0000,1.42054,0.14184,-2.66697,1.00226,1.56176,0.11690,-0.13246,-0.45902,0.07202,,,,,,,,,,,,,,,,,,,,,,,,,,0,0,0,0,0
2.0227,1783441338.2829,1,1,2.0000,0.0000,1.42054,0.14184,-2.66697,1.00226,1.56176,0.11690,-0.13246,-0.45902,0.07202,,,,,,,,,,,,,,,,,,,,,,,,,,0,0,0,0,0
2.0614,1783441338.3215,1,1,2.0000,0.0000,1.42054,0.14184,-2.66697,1.00226,1.56176,0.11690,-0.13246,-0.45902,0.07202,,,,,,,,,,,,,,,,,,,,,,,,,,0,0,0,0,0
2.0621,1783441338.3223,1,1,2.0000,0.0000,1.42054,0.14184,-2.66697,1.00226,1.56176,0.11690,-0.13246,-0.45902,0.07202,,,,,,,,,,,,,,,,,,,,,,,,,,0,0,0,0,0
2.0623,1783441338.3225,1,1,2.0000,0.0000,1.42054,0.14184,-2.66697,1.00226,1.56176,0.11690,-0.13246,-0.45902,0.07202,,,,,,,,,,,,,,,,,,,,,,,,,,0,0,0,0,0
2.0701,1783441338.3302,1,1,2.0000,0.0000,1.42054,0.14184,-2.66697,1.00226,1.56176,0.11690,-0.13246,-0.45902,0.07202,,,,,,,,,,,,,,,,,,,,,,,,,,0,0,0,0,0
2.0769,1783441338.3370,1,1,2.0000,0.0000,1.42054,0.14184,-2.66697,1.00226,1.56176,0.11690,-0.13246,-0.45902,0.07202,,,,,,,,,,,,,,,,,,,,,,,,,,0,0,0,0,0
2.0845,1783441338.3446,1,1,2.0000,0.0000,1.42054,0.14184,-2.66697,1.00226,1.56176,0.11690,-0.13246,-0.45902,0.07202,,,,,,,,,,,,,,,,,,,,,,,,,,0,0,0,0,0
2.0978,1783441338.3579,1,1,2.0000,0.0000,1.42054,0.14184,-2.66697,1.00226,1.56176,0.11690,-0.13246,-0.45902,0.07202,,,,,,,,,,,,,,,,,,,,,,,,,,0,0,0,0,0
2.1073,1783441338.3675,1,1,2.0000,0.0000,1.42054,0.14184,-2.66697,1.00226,1.56176,0.11690,-0.13246,-0.45902,0.07202,,,,,,,,,,,,,,,,,,,,,,,,,,0,0,0,0,0
2.1146,1783441338.3748,1,1,2.0000,0.0000,1.42054,0.14184,-2.66697,1.00226,1.56176,0.11690,-0.13246,-0.45902,0.07202,,,,,,,,,,,,,,,,,,,,,,,,,,0,0,0,0,0
2.1232,1783441338.3833,1,1,2.0000,0.0000,1.42054,0.14184,-2.66697,1.00226,1.56176,0.11690,-0.13246,-0.45902,0.07202,,,,,,,,,,,,,,,,,,,,,,,,,,0,0,0,0,0
2.1790,1783441338.4391,1,1,2.0000,0.0000,1.42054,0.14184,-2.66697,1.00226,1.56176,0.11690,-0.13246,-0.45902,0.07202,,,,,,,,,,,,,,,,,,,,,,,,,,0,0,0,0,0
2.1826,1783441338.4427,1,1,2.0000,0.0000,1.42054,0.14184,-2.66697,1.00226,1.56176,0.11690,-0.13246,-0.45902,0.07202,,,,,,,,,,,,,,,,,,,,,,,,,,0,0,0,0,0
2.1830,1783441338.4432,1,1,2.0000,0.0000,1.42054,0.14184,-2.66697,1.00226,1.56176,0.11690,-0.13246,-0.45902,0.07202,,,,,,,,,,,,,,,,,,,,,,,,,,0,0,0,0,0
2.1836,1783441338.4437,1,1,2.0000,0.0000,1.42054,0.14184,-2.66697,1.00226,1.56176,0.11690,-0.13246,-0.45902,0.07202,,,,,,,,,,,,,,,,,,,,,,,,,,0,0,0,0,0
2.1840,1783441338.4442,1,1,2.0000,0.0000,1.42054,0.14184,-2.66697,1.00226,1.56176,0.11690,-0.13246,-0.45902,0.07202,,,,,,,,,,,,,,,,,,,,,,,,,,0,0,0,0,0
2.1941,1783441338.4543,1,1,2.0000,0.0000,1.42054,0.14184,-2.66697,1.00226,1.56176,0.11690,-0.13246,-0.45902,0.07202,,,,,,,,,,,,,,,,,,,,,,,,,,0,0,0,0,0
2.2037,1783441338.4639,1,1,2.0000,0.0000,1.42054,0.14184,-2.66697,1.00226,1.56176,0.11690,-0.13246,-0.45902,0.07202,,,,,,,,,,,,,,,,,,,,,,,,,,0,0,0,0,0
2.2162,1783441338.4763,1,1,2.0000,0.0000,1.42054,0.14184,-2.66697,1.00226,1.56176,0.11690,-0.13246,-0.45902,0.07202,,,,,,,,,,,,,,,,,,,,,,,,,,0,0,0,0,0
2.2234,1783441338.4835,1,1,2.0000,0.0000,1.42054,0.14184,-2.66697,1.00226,1.56176,0.11690,-0.13246,-0.45902,0.07202,,,,,,,,,,,,,,,,,,,,,,,,,,0,0,0,0,0
2.2342,1783441338.4943,1,1,2.0000,0.0000,1.42054,0.14184,-2.66697,1.00227,1.56177,0.11690,-0.13246,-0.45902,0.07202,,,,,,,,,,,,,,,,,,,,,,,,,,0,0,0,0,0
2.2346,1783441338.4948,1,1,2.0000,0.0000,1.42054,0.14184,-2.66697,1.00227,1.56177,0.11690,-0.13246,-0.45902,0.07202,,,,,,,,,,,,,,,,,,,,,,,,,,0,0,0,0,0
2.2441,1783441338.5042,1,1,2.0000,0.0000,1.42053,0.14184,-2.66696,1.00227,1.56177,0.11689,-0.13246,-0.45903,0.07203,,,,,,,,,,,,,,,,,,,,,,,,,,0,0,0,0,0
2.2446,1783441338.5047,1,1,2.0000,0.0000,1.42053,0.14184,-2.66696,1.00227,1.56177,0.11689,-0.13246,-0.45903,0.07203,,,,,,,,,,,,,,,,,,,,,,,,,,0,0,0,0,0
2.2525,1783441338.5126,1,1,2.0000,0.0000,1.42053,0.14185,-2.66694,1.00228,1.56178,0.11688,-0.13245,-0.45904,0.07204,,,,,,,,,,,,,,,,,,,,,,,,,,0,0,0,0,0
2.2541,1783441338.5143,1,1,2.0000,0.0000,1.42053,0.14185,-2.66693,1.00228,1.56178,0.11688,-0.13245,-0.45905,0.07204,,,,,,,,,,,,,,,,,,,,,,,,,,0,0,0,0,0
2.2663,1783441338.5265,1,1,2.0000,0.0000,1.42053,0.14185,-2.66693,1.00229,1.56179,0.11687,-0.13244,-0.45906,0.07205,,,,,,,,,,,,,,,,,,,,,,,,,,0,0,0,0,0
2.2742,1783441338.5343,1,1,2.0000,0.0000,1.42052,0.14185,-2.66693,1.00229,1.56179,0.11687,-0.13244,-0.45905,0.07205,,,,,,,,,,,,,,,,,,,,,,,,,,0,0,0,0,0
2.2748,1783441338.5349,1,1,2.0000,0.0000,1.42052,0.14185,-2.66693,1.00229,1.56179,0.11687,-0.13244,-0.45905,0.07205,,,,,,,,,,,,,,,,,,,,,,,,,,0,0,0,0,0
2.2824,1783441338.5426,1,1,2.0000,0.0000,1.42052,0.14186,-2.66694,1.00229,1.56179,0.11686,-0.13244,-0.45905,0.07205,,,,,,,,,,,,,,,,,,,,,,,,,,0,0,0,0,0
2.2828,1783441338.5430,1,1,2.0000,0.0000,1.42052,0.14186,-2.66694,1.00229,1.56179,0.11686,-0.13244,-0.45905,0.07205,,,,,,,,,,,,,,,,,,,,,,,,,,0,0,0,0,0
2.3420,1783441338.6022,1,1,2.0000,0.0000,1.42045,0.14222,-2.66723,1.00224,1.56180,0.11688,-0.13243,-0.45888,0.07205,,,,,,,,,,,,,,,,,,,,,,,,,,0,0,0,0,0
2.3425,1783441338.6026,1,1,2.0000,0.0000,1.42045,0.14222,-2.66723,1.00224,1.56180,0.11688,-0.13243,-0.45888,0.07205,,,,,,,,,,,,,,,,,,,,,,,,,,0,0,0,0,0
2.3460,1783441338.6061,1,1,2.0000,0.0000,1.42043,0.14233,-2.66731,1.00222,1.56180,0.11689,-0.13243,-0.45884,0.07205,,,,,,,,,,,,,,,,,,,,,,,,,,0,0,0,0,0
2.3465,1783441338.6067,1,1,2.0000,0.0000,1.42043,0.14233,-2.66731,1.00222,1.56180,0.11689,-0.13243,-0.45884,0.07205,,,,,,,,,,,,,,,,,,,,,,,,,,0,0,0,0,0
2.3472,1783441338.6073,1,1,2.0000,0.0000,1.42043,0.14233,-2.66731,1.00222,1.56180,0.11689,-0.13243,-0.45884,0.07205,,,,,,,,,,,,,,,,,,,,,,,,,,0,0,0,0,0
2.3581,1783441338.6182,1,1,2.0000,0.0000,1.42038,0.14259,-2.66750,1.00217,1.56180,0.11692,-0.13243,-0.45873,0.07205,,,,,,,,,,,,,,,,,,,,,,,,,,0,0,0,0,0
2.3643,1783441338.6245,1,1,2.0000,0.0000,1.42037,0.14261,-2.66751,1.00217,1.56180,0.11692,-0.13243,-0.45872,0.07205,,,,,,,,,,,,,,,,,,,,,,,,,,0,0,0,0,0
2.3646,1783441338.6247,1,1,2.0000,0.0000,1.42037,0.14261,-2.66751,1.00217,1.56180,0.11692,-0.13243,-0.45872,0.07205,,,,,,,,,,,,,,,,,,,,,,,,,,0,0,0,0,0
2.3729,1783441338.6330,1,1,2.0000,0.0000,1.42034,0.14279,-2.66764,1.00213,1.56180,0.11695,-0.13242,-0.45864,0.07205,,,,,,,,,,,,,,,,,,,,,,,,,,0,0,0,0,0
2.3832,1783441338.6434,1,1,2.0000,0.0000,1.42028,0.14310,-2.66787,1.00205,1.56180,0.11699,-0.13242,-0.45850,0.07206,,,,,,,,,,,,,,,,,,,,,,,,,,0,0,0,0,0
2.3945,1783441338.6547,1,1,2.0000,0.0000,1.42022,0.14344,-2.66811,1.00197,1.56180,0.11705,-0.13242,-0.45836,0.07206,,,,,,,,,,,,,,,,,,,,,,,,,,0,0,0,0,0
2.4083,1783441338.6684,1,1,2.0000,0.0000,1.42006,0.14427,-2.66872,1.00177,1.56180,0.11720,-0.13241,-0.45800,0.07207,,,,,,,,,,,,,,,,,,,,,,,,,,0,0,0,0,0
2.4223,1783441338.6824,1,1,2.0000,0.0000,1.41996,0.14480,-2.66910,1.00164,1.56180,0.11729,-0.13241,-0.45777,0.07207,,,,,,,,,,,,,,,,,,,,,,,,,,0,0,0,0,0
2.4387,1783441338.6989,1,1,2.0000,0.0000,1.41980,0.14560,-2.66968,1.00143,1.56180,0.11743,-0.13240,-0.45742,0.07208,,,,,,,,,,,,,,,,,,,,,,,,,,0,0,0,0,0
2.4394,1783441338.6996,1,1,2.0000,0.0000,1.41980,0.14560,-2.66968,1.00143,1.56180,0.11743,-0.13240,-0.45742,0.07208,,,,,,,,,,,,,,,,,,,,,,,,,,0,0,0,0,0
2.4479,1783441338.7080,1,1,2.0000,0.0000,1.41976,0.14583,-2.66984,1.00137,1.56180,0.11748,-0.13240,-0.45732,0.07208,,,,,,,,,,,,,,,,,,,,,,,,,,0,0,0,0,0
2.4666,1783441338.7267,1,1,2.0000,0.0000,1.41938,0.14781,-2.67128,1.00084,1.56180,0.11785,-0.13239,-0.45645,0.07209,,,,,,,,,,,,,,,,,,,,,,,,,,0,0,0,0,0
2.4669,1783441338.7271,1,1,2.0000,0.0000,1.41938,0.14781,-2.67128,1.00084,1.56180,0.11785,-0.13239,-0.45645,0.07209,,,,,,,,,,,,,,,,,,,,,,,,,,0,0,0,0,0
2.4686,1783441338.7287,1,1,2.0000,0.0000,1.41938,0.14781,-2.67128,1.00084,1.56180,0.11785,-0.13239,-0.45645,0.07209,,,,,,,,,,,,,,,,,,,,,,,,,,0,0,0,0,0
2.4762,1783441338.7364,1,1,2.0000,0.0000,1.41928,0.14833,-2.67165,1.00070,1.56180,0.11794,-0.13238,-0.45622,0.07209,,,,,,,,,,,,,,,,,,,,,,,,,,0,0,0,0,0
2.4897,1783441338.7499,1,1,2.0000,0.0000,1.41917,0.14892,-2.67208,1.00054,1.56180,0.11806,-0.13238,-0.45596,0.07209,,,,,,,,,,,,,,,,,,,,,,,,,,0,0,0,0,0
2.5278,1783441338.7880,1,1,2.0000,0.0000,1.41884,0.15060,-2.67330,1.00007,1.56180,0.11838,-0.13237,-0.45521,0.07209,,,,,,,,,,,,,,,,,,,,,,,,,,0,0,0,0,0
2.5351,1783441338.7953,1,1,2.0000,0.0000,1.41884,0.15063,-2.67332,1.00006,1.56180,0.11839,-0.13237,-0.45520,0.07209,,,,,,,,,,,,,,,,,,,,,,,,,,0,0,0,0,0
2.5440,1783441338.8042,1,1,2.0000,0.0000,1.41879,0.15085,-2.67348,1.00000,1.56180,0.11843,-0.13237,-0.45510,0.07209,,,,,,,,,,,,,,,,,,,,,,,,,,0,0,0,0,0
2.5564,1783441338.8165,1,1,2.0000,0.0000,1.41868,0.15145,-2.67391,0.99982,1.56180,0.11855,-0.13237,-0.45484,0.07209,,,,,,,,,,,,,,,,,,,,,,,,,,0,0,0,0,0
2.5593,1783441338.8195,1,1,2.0000,0.0000,1.41863,0.15168,-2.67408,0.99975,1.56180,0.11859,-0.13237,-0.45473,0.07209,,,,,,,,,,,,,,,,,,,,,,,,,,0,0,0,0,0
2.5602,1783441338.8203,1,1,2.0000,0.0000,1.41863,0.15168,-2.67408,0.99975,1.56180,0.11859,-0.13237,-0.45473,0.07209,,,,,,,,,,,,,,,,,,,,,,,,,,0,0,0,0,0
2.5624,1783441338.8226,1,1,2.0000,0.0000,1.41859,0.15192,-2.67425,0.99968,1.56180,0.11864,-0.13237,-0.45463,0.07209,,,,,,,,,,,,,,,,,,,,,,,,,,0,0,0,0,0
2.5700,1783441338.8301,1,1,2.0000,0.0000,1.41850,0.15239,-2.67459,0.99955,1.56180,0.11873,-0.13236,-0.45442,0.07208,,,,,,,,,,,,,,,,,,,,,,,,,,0,0,0,0,0
2.5826,1783441338.8427,1,1,2.0000,0.0000,1.41839,0.15292,-2.67498,0.99939,1.56180,0.11884,-0.13236,-0.45418,0.07208,,,,,,,,,,,,,,,,,,,,,,,,,,0,0,0,0,0
2.5830,1783441338.8431,1,1,2.0000,0.0000,1.41839,0.15292,-2.67498,0.99939,1.56180,0.11884,-0.13236,-0.45418,0.07208,,,,,,,,,,,,,,,,,,,,,,,,,,0,0,0,0,0
2.5977,1783441338.8578,1,1,2.0000,0.0000,1.41837,0.15307,-2.67508,0.99934,1.56180,0.11887,-0.13236,-0.45412,0.07208,,,,,,,,,,,,,,,,,,,,,,,,,,0,0,0,0,0
2.6004,1783441338.8605,1,1,2.0000,0.0000,1.41837,0.15307,-2.67508,0.99934,1.56180,0.11887,-0.13236,-0.45412,0.07208,,,,,,,,,,,,,,,,,,,,,,,,,,0,0,0,0,0
2.6009,1783441338.8610,1,1,2.0000,0.0000,1.41837,0.15307,-2.67508,0.99934,1.56180,0.11887,-0.13236,-0.45412,0.07208,,,,,,,,,,,,,,,,,,,,,,,,,,0,0,0,0,0
2.6132,1783441338.8734,1,1,2.0000,0.0000,1.41837,0.15307,-2.67508,0.99934,1.56180,0.11887,-0.13236,-0.45412,0.07208,,,,,,,,,,,,,,,,,,,,,,,,,,0,0,0,0,0
2.6198,1783441338.8799,1,1,2.0000,0.0000,1.41837,0.15307,-2.67508,0.99934,1.56180,0.11887,-0.13236,-0.45412,0.07208,,,,,,,,,,,,,,,,,,,,,,,,,,0,0,0,0,0
2.6302,1783441338.8903,1,1,2.0000,0.0000,1.41837,0.15307,-2.67508,0.99934,1.56180,0.11887,-0.13236,-0.45412,0.07208,,,,,,,,,,,,,,,,,,,,,,,,,,0,0,0,0,0
2.6306,1783441338.8907,1,1,2.0000,0.0000,1.41837,0.15307,-2.67508,0.99934,1.56180,0.11887,-0.13236,-0.45412,0.07208,,,,,,,,,,,,,,,,,,,,,,,,,,0,0,0,0,0
2.6425,1783441338.9026,1,1,2.0000,0.0000,1.41837,0.15307,-2.67508,0.99934,1.56180,0.11887,-0.13236,-0.45412,0.07208,,,,,,,,,,,,,,,,,,,,,,,,,,0,0,0,0,0
2.6547,1783441338.9149,1,1,2.0000,0.0000,1.41837,0.15307,-2.67508,0.99934,1.56180,0.11887,-0.13236,-0.45412,0.07208,,,,,,,,,,,,,,,,,,,,,,,,,,0,0,0,0,0
2.6552,1783441338.9154,1,1,2.0000,0.0000,1.41837,0.15307,-2.67508,0.99934,1.56180,0.11887,-0.13236,-0.45412,0.07208,,,,,,,,,,,,,,,,,,,,,,,,,,0,0,0,0,0
2.6595,1783441338.9197,1,1,2.0000,0.0000,1.41837,0.15307,-2.67508,0.99934,1.56180,0.11887,-0.13236,-0.45412,0.07208,,,,,,,,,,,,,,,,,,,,,,,,,,0,0,0,0,0
2.6717,1783441338.9319,1,1,2.0000,0.0000,1.41837,0.15307,-2.67508,0.99934,1.56180,0.11887,-0.13236,-0.45412,0.07208,,,,,,,,,,,,,,,,,,,,,,,,,,0,0,0,0,0
2.6800,1783441338.9402,1,1,2.0000,0.0000,1.41837,0.15307,-2.67508,0.99934,1.56180,0.11887,-0.13236,-0.45412,0.07208,,,,,,,,,,,,,,,,,,,,,,,,,,0,0,0,0,0
2.6931,1783441338.9532,1,1,2.0000,0.0000,1.41837,0.15307,-2.67508,0.99934,1.56180,0.11887,-0.13236,-0.45412,0.07208,,,,,,,,,,,,,,,,,,,,,,,,,,0,0,0,0,0
2.7022,1783441338.9623,1,1,2.0000,0.0000,1.41837,0.15307,-2.67508,0.99934,1.56180,0.11887,-0.13236,-0.45412,0.07208,,,,,,,,,,,,,,,,,,,,,,,,,,0,0,0,0,0
2.7026,1783441338.9627,1,1,2.0000,0.0000,1.41837,0.15307,-2.67508,0.99934,1.56180,0.11887,-0.13236,-0.45412,0.07208,,,,,,,,,,,,,,,,,,,,,,,,,,0,0,0,0,0
2.7117,1783441338.9718,1,1,2.0000,0.0000,1.41837,0.15307,-2.67508,0.99934,1.56180,0.11887,-0.13236,-0.45412,0.07208,,,,,,,,,,,,,,,,,,,,,,,,,,0,0,0,0,0
2.7233,1783441338.9835,1,1,2.0000,0.0000,1.41837,0.15307,-2.67508,0.99934,1.56180,0.11887,-0.13236,-0.45412,0.07208,,,,,,,,,,,,,,,,,,,,,,,,,,0,0,0,0,0
2.7301,1783441338.9903,1,1,2.0000,0.0000,1.41837,0.15307,-2.67508,0.99934,1.56180,0.11887,-0.13236,-0.45412,0.07208,,,,,,,,,,,,,,,,,,,,,,,,,,0,0,0,0,0
2.7418,1783441339.0019,1,1,2.0000,0.0000,1.41837,0.15307,-2.67508,0.99934,1.56180,0.11887,-0.13236,-0.45412,0.07208,,,,,,,,,,,,,,,,,,,,,,,,,,0,0,0,0,0
2.7607,1783441339.0209,1,1,2.0000,0.0000,1.41837,0.15307,-2.67508,0.99934,1.56180,0.11887,-0.13236,-0.45412,0.07208,,,,,,,,,,,,,,,,,,,,,,,,,,0,0,0,0,0
2.7615,1783441339.0216,1,1,2.0000,0.0000,1.41837,0.15307,-2.67508,0.99934,1.56180,0.11887,-0.13236,-0.45412,0.07208,,,,,,,,,,,,,,,,,,,,,,,,,,0,0,0,0,0
2.7700,1783441339.0302,1,1,2.0000,0.0000,1.41837,0.15307,-2.67508,0.99934,1.56180,0.11887,-0.13236,-0.45412,0.07208,,,,,,,,,,,,,,,,,,,,,,,,,,0,0,0,0,0
2.7799,1783441339.0401,1,1,2.0000,0.0000,1.41837,0.15307,-2.67508,0.99934,1.56180,0.11887,-0.13236,-0.45412,0.07208,,,,,,,,,,,,,,,,,,,,,,,,,,0,0,0,0,0
2.7923,1783441339.0524,1,1,2.0000,0.0000,1.41837,0.15307,-2.67508,0.99934,1.56180,0.11887,-0.13236,-0.45412,0.07208,,,,,,,,,,,,,,,,,,,,,,,,,,0,0,0,0,0
2.8019,1783441339.0621,1,1,2.0000,0.0000,1.41837,0.15307,-2.67508,0.99934,1.56180,0.11887,-0.13236,-0.45412,0.07208,,,,,,,,,,,,,,,,,,,,,,,,,,0,0,0,0,0
2.8154,1783441339.0755,1,1,2.0000,0.0000,1.41837,0.15307,-2.67508,0.99934,1.56180,0.11887,-0.13236,-0.45412,0.07208,,,,,,,,,,,,,,,,,,,,,,,,,,0,0,0,0,0
2.8314,1783441339.0916,1,1,2.0000,0.0000,1.41837,0.15307,-2.67508,0.99934,1.56180,0.11887,-0.13236,-0.45412,0.07208,,,,,,,,,,,,,,,,,,,,,,,,,,0,0,0,0,0
2.8319,1783441339.0921,1,1,2.0000,0.0000,1.41837,0.15307,-2.67508,0.99934,1.56180,0.11887,-0.13236,-0.45412,0.07208,,,,,,,,,,,,,,,,,,,,,,,,,,0,0,0,0,0
2.8324,1783441339.0926,1,1,2.0000,0.0000,1.41837,0.15307,-2.67508,0.99934,1.56180,0.11887,-0.13236,-0.45412,0.07208,,,,,,,,,,,,,,,,,,,,,,,,,,0,0,0,0,0
2.8420,1783441339.1022,1,1,2.0000,0.0000,1.41837,0.15307,-2.67508,0.99934,1.56180,0.11887,-0.13236,-0.45412,0.07208,,,,,,,,,,,,,,,,,,,,,,,,,,0,0,0,0,0
2.8424,1783441339.1026,1,1,2.0000,0.0000,1.41837,0.15307,-2.67508,0.99934,1.56180,0.11887,-0.13236,-0.45412,0.07208,,,,,,,,,,,,,,,,,,,,,,,,,,0,0,0,0,0
2.8647,1783441339.1249,1,1,2.0000,0.0000,1.41837,0.15307,-2.67508,0.99934,1.56180,0.11887,-0.13236,-0.45412,0.07208,,,,,,,,,,,,,,,,,,,,,,,,,,0,0,0,0,0
2.8652,1783441339.1254,1,1,2.0000,0.0000,1.41837,0.15307,-2.67508,0.99934,1.56180,0.11887,-0.13236,-0.45412,0.07208,,,,,,,,,,,,,,,,,,,,,,,,,,0,0,0,0,0
2.8694,1783441339.1295,1,1,2.0000,0.0000,1.41837,0.15307,-2.67508,0.99934,1.56180,0.11887,-0.13236,-0.45412,0.07208,,,,,,,,,,,,,,,,,,,,,,,,,,0,0,0,0,0
2.8700,1783441339.1302,1,1,2.0000,0.0000,1.41837,0.15307,-2.67508,0.99934,1.56180,0.11887,-0.13236,-0.45412,0.07208,,,,,,,,,,,,,,,,,,,,,,,,,,0,0,0,0,0
2.8896,1783441339.1498,1,1,2.0000,0.0000,1.41837,0.15307,-2.67508,0.99934,1.56180,0.11887,-0.13236,-0.45412,0.07208,,,,,,,,,,,,,,,,,,,,,,,,,,0,0,0,0,0
2.8900,1783441339.1501,1,1,2.0000,0.0000,1.41837,0.15307,-2.67508,0.99934,1.56180,0.11887,-0.13236,-0.45412,0.07208,,,,,,,,,,,,,,,,,,,,,,,,,,0,0,0,0,0
2.9032,1783441339.1634,1,1,2.0000,0.0000,1.41837,0.15307,-2.67508,0.99934,1.56180,0.11887,-0.13236,-0.45412,0.07208,,,,,,,,,,,,,,,,,,,,,,,,,,0,0,0,0,0
2.9167,1783441339.1768,1,1,2.0000,0.0000,1.41837,0.15307,-2.67508,0.99934,1.56180,0.11887,-0.13236,-0.45412,0.07208,,,,,,,,,,,,,,,,,,,,,,,,,,0,0,0,0,0
2.9219,1783441339.1821,1,1,2.0000,0.0000,1.41837,0.15307,-2.67508,0.99934,1.56180,0.11887,-0.13236,-0.45412,0.07208,,,,,,,,,,,,,,,,,,,,,,,,,,0,0,0,0,0
2.9338,1783441339.1940,1,1,2.0000,0.0000,1.41837,0.15307,-2.67508,0.99934,1.56180,0.11887,-0.13236,-0.45412,0.07208,,,,,,,,,,,,,,,,,,,,,,,,,,0,0,0,0,0
2.9414,1783441339.2015,1,1,2.0000,0.0000,1.41837,0.15307,-2.67508,0.99934,1.56180,0.11887,-0.13236,-0.45412,0.07208,,,,,,,,,,,,,,,,,,,,,,,,,,0,0,0,0,0
2.9508,1783441339.2110,1,1,2.0000,0.0000,1.41837,0.15307,-2.67508,0.99934,1.56180,0.11887,-0.13236,-0.45412,0.07208,,,,,,,,,,,,,,,,,,,,,,,,,,0,0,0,0,0
2.9606,1783441339.2207,1,1,2.0000,0.0000,1.41837,0.15307,-2.67508,0.99934,1.56180,0.11887,-0.13236,-0.45412,0.07208,,,,,,,,,,,,,,,,,,,,,,,,,,0,0,0,0,0
2.9743,1783441339.2345,1,1,2.0000,0.0000,1.41837,0.15307,-2.67508,0.99934,1.56180,0.11887,-0.13236,-0.45412,0.07208,,,,,,,,,,,,,,,,,,,,,,,,,,0,0,0,0,0
2.9820,1783441339.2421,1,1,2.0000,0.0000,1.41837,0.15307,-2.67508,0.99934,1.56180,0.11887,-0.13236,-0.45412,0.07208,,,,,,,,,,,,,,,,,,,,,,,,,,0,0,0,0,0
2.9824,1783441339.2426,1,1,2.0000,0.0000,1.41837,0.15307,-2.67508,0.99934,1.56180,0.11887,-0.13236,-0.45412,0.07208,,,,,,,,,,,,,,,,,,,,,,,,,,0,0,0,0,0
2.9902,1783441339.2503,1,1,2.0000,0.0000,1.41837,0.15307,-2.67508,0.99934,1.56180,0.11887,-0.13236,-0.45412,0.07208,,,,,,,,,,,,,,,,,,,,,,,,,,0,0,0,0,0
3.0188,1783441339.2790,1,1,2.0000,0.0000,1.41837,0.15307,-2.67508,0.99934,1.56180,0.11887,-0.13236,-0.45412,0.07208,,,,,,,,,,,,,,,,,,,,,,,,,,0,0,0,0,0
3.0234,1783441339.2836,1,1,2.0000,0.0000,1.41837,0.15307,-2.67508,0.99934,1.56180,0.11887,-0.13236,-0.45412,0.07208,,,,,,,,,,,,,,,,,,,,,,,,,,0,0,0,0,0
3.0302,1783441339.2904,1,1,2.0000,0.0000,1.41837,0.15307,-2.67508,0.99934,1.56180,0.11887,-0.13236,-0.45412,0.07208,,,,,,,,,,,,,,,,,,,,,,,,,,0,0,0,0,0
3.0307,1783441339.2908,1,1,2.0000,0.0000,1.41837,0.15307,-2.67508,0.99934,1.56180,0.11887,-0.13236,-0.45412,0.07208,,,,,,,,,,,,,,,,,,,,,,,,,,0,0,0,0,0
3.0311,1783441339.2913,1,1,2.0000,0.0000,1.41837,0.15307,-2.67508,0.99934,1.56180,0.11887,-0.13236,-0.45412,0.07208,,,,,,,,,,,,,,,,,,,,,,,,,,0,0,0,0,0
3.0419,1783441339.3021,1,1,2.0000,0.0000,1.41837,0.15306,-2.67507,0.99933,1.56180,0.11888,-0.13236,-0.45413,0.07208,,,,,,,,,,,,,,,,,,,,,,,,,,0,0,0,0,0
3.0510,1783441339.3111,1,1,2.0000,0.0000,1.41837,0.15305,-2.67505,0.99933,1.56180,0.11888,-0.13236,-0.45413,0.07209,,,,,,,,,,,,,,,,,,,,,,,,,,0,0,0,0,0
3.0633,1783441339.3234,1,1,2.0000,0.0000,1.41837,0.15303,-2.67501,0.99932,1.56180,0.11890,-0.13236,-0.45416,0.07210,,,,,,,,,,,,,,,,,,,,,,,,,,0,0,0,0,0
3.0699,1783441339.3301,1,1,2.0000,0.0000,1.41838,0.15301,-2.67497,0.99931,1.56180,0.11891,-0.13236,-0.45418,0.07211,,,,,,,,,,,,,,,,,,,,,,,,,,0,0,0,0,0
3.0821,1783441339.3422,1,1,2.0000,0.0000,1.41838,0.15299,-2.67495,0.99931,1.56180,0.11891,-0.13236,-0.45419,0.07211,,,,,,,,,,,,,,,,,,,,,,,,,,0,0,0,0,0
3.0934,1783441339.3536,1,1,2.0000,0.0000,1.41839,0.15295,-2.67492,0.99931,1.56180,0.11891,-0.13236,-0.45421,0.07211,,,,,,,,,,,,,,,,,,,,,,,,,,0,0,0,0,0
3.1038,1783441339.3640,1,1,2.0000,0.0000,1.41840,0.15288,-2.67486,0.99932,1.56180,0.11891,-0.13236,-0.45424,0.07211,,,,,,,,,,,,,,,,,,,,,,,,,,0,0,0,0,0
3.1100,1783441339.3702,1,1,2.0000,0.0000,1.41841,0.15282,-2.67482,0.99933,1.56180,0.11891,-0.13236,-0.45427,0.07211,,,,,,,,,,,,,,,,,,,,,,,,,,0,0,0,0,0
3.1104,1783441339.3705,1,1,2.0000,0.0000,1.41841,0.15282,-2.67482,0.99933,1.56180,0.11891,-0.13236,-0.45427,0.07211,,,,,,,,,,,,,,,,,,,,,,,,,,0,0,0,0,0
3.1204,1783441339.3806,1,1,2.0000,0.0000,1.41844,0.15266,-2.67471,0.99936,1.56180,0.11889,-0.13236,-0.45433,0.07211,,,,,,,,,,,,,,,,,,,,,,,,,,0,0,0,0,0
3.1316,1783441339.3918,1,1,2.0000,0.0000,1.41851,0.15229,-2.67445,0.99944,1.56180,0.11886,-0.13237,-0.45448,0.07210,,,,,,,,,,,,,,,,,,,,,,,,,,0,0,0,0,0
3.1422,1783441339.4024,1,1,2.0000,0.0000,1.41853,0.15220,-2.67438,0.99946,1.56180,0.11884,-0.13237,-0.45452,0.07210,,,,,,,,,,,,,,,,,,,,,,,,,,0,0,0,0,0
3.1509,1783441339.4111,1,1,2.0000,0.0000,1.41858,0.15195,-2.67420,0.99952,1.56180,0.11881,-0.13237,-0.45463,0.07209,,,,,,,,,,,,,,,,,,,,,,,,,,0,0,0,0,0
3.1619,1783441339.4221,1,1,2.0000,0.0000,1.41865,0.15157,-2.67393,0.99962,1.56180,0.11875,-0.13238,-0.45479,0.07209,,,,,,,,,,,,,,,,,,,,,,,,,,0,0,0,0,0
3.1623,1783441339.4225,1,1,2.0000,0.0000,1.41865,0.15157,-2.67393,0.99962,1.56180,0.11875,-0.13238,-0.45479,0.07209,,,,,,,,,,,,,,,,,,,,,,,,,,0,0,0,0,0
3.1787,1783441339.4388,1,1,2.0000,0.0000,1.41876,0.15102,-2.67353,0.99976,1.56180,0.11865,-0.13238,-0.45503,0.07209,,,,,,,,,,,,,,,,,,,,,,,,,,0,0,0,0,0
3.1941,1783441339.4542,1,1,2.0000,0.0000,1.41894,0.15008,-2.67286,1.00000,1.56180,0.11849,-0.13239,-0.45544,0.07208,,,,,,,,,,,,,,,,,,,,,,,,,,0,0,0,0,0
3.1946,1783441339.4547,1,1,2.0000,0.0000,1.41894,0.15008,-2.67286,1.00000,1.56180,0.11849,-0.13239,-0.45544,0.07208,,,,,,,,,,,,,,,,,,,,,,,,,,0,0,0,0,0
3.1949,1783441339.4550,1,1,2.0000,0.0000,1.41894,0.15008,-2.67286,1.00000,1.56180,0.11849,-0.13239,-0.45544,0.07208,,,,,,,,,,,,,,,,,,,,,,,,,,0,0,0,0,0
3.2068,1783441339.4670,1,1,2.0000,0.0000,1.41901,0.14969,-2.67258,1.00010,1.56180,0.11842,-0.13239,-0.45561,0.07208,,,,,,,,,,,,,,,,,,,,,,,,,,0,0,0,0,0
3.2827,1783441339.5428,1,1,2.0000,0.0000,1.41987,0.14522,-2.66933,1.00129,1.56180,0.11758,-0.13242,-0.45758,0.07207,,,,,,,,,,,,,,,,,,,,,,,,,,0,0,0,0,0
3.2895,1783441339.5497,1,1,2.0000,0.0000,1.41988,0.14518,-2.66930,1.00130,1.56180,0.11757,-0.13242,-0.45759,0.07207,,,,,,,,,,,,,,,,,,,,,,,,,,0,0,0,0,0
3.3114,1783441339.5715,1,1,2.0000,0.0000,1.42002,0.14442,-2.66875,1.00150,1.56180,0.11743,-0.13242,-0.45793,0.07207,,,,,,,,,,,,,,,,,,,,,,,,,,0,0,0,0,0
3.3118,1783441339.5720,1,1,2.0000,0.0000,1.42002,0.14442,-2.66875,1.00150,1.56180,0.11743,-0.13242,-0.45793,0.07207,,,,,,,,,,,,,,,,,,,,,,,,,,0,0,0,0,0
3.3145,1783441339.5746,1,1,2.0000,0.0000,1.42004,0.14433,-2.66868,1.00153,1.56180,0.11741,-0.13242,-0.45797,0.07207,,,,,,,,,,,,,,,,,,,,,,,,,,0,0,0,0,0
3.3151,1783441339.5752,1,1,2.0000,0.0000,1.42004,0.14433,-2.66868,1.00153,1.56180,0.11741,-0.13242,-0.45797,0.07207,,,,,,,,,,,,,,,,,,,,,,,,,,0,0,0,0,0
3.3156,1783441339.5758,1,1,2.0000,0.0000,1.42004,0.14433,-2.66868,1.00153,1.56180,0.11741,-0.13242,-0.45797,0.07207,,,,,,,,,,,,,,,,,,,,,,,,,,0,0,0,0,0
3.3160,1783441339.5762,1,1,2.0000,0.0000,1.42004,0.14433,-2.66868,1.00153,1.56180,0.11741,-0.13242,-0.45797,0.07207,,,,,,,,,,,,,,,,,,,,,,,,,,0,0,0,0,0
3.3204,1783441339.5806,1,1,2.0000,0.0000,1.42007,0.14419,-2.66858,1.00157,1.56180,0.11738,-0.13242,-0.45804,0.07207,,,,,,,,,,,,,,,,,,,,,,,,,,0,0,0,0,0
3.3375,1783441339.5977,1,1,2.0000,0.0000,1.42024,0.14331,-2.66793,1.00182,1.56180,0.11721,-0.13243,-0.45843,0.07207,,,,,,,,,,,,,,,,,,,,,,,,,,0,0,0,0,0
3.3432,1783441339.6033,1,1,2.0000,0.0000,1.42024,0.14329,-2.66792,1.00182,1.56180,0.11720,-0.13243,-0.45844,0.07207,,,,,,,,,,,,,,,,,,,,,,,,,,0,0,0,0,0
3.3435,1783441339.6037,1,1,2.0000,0.0000,1.42024,0.14329,-2.66792,1.00182,1.56180,0.11720,-0.13243,-0.45844,0.07207,,,,,,,,,,,,,,,,,,,,,,,,,,0,0,0,0,0
3.3519,1783441339.6120,1,1,2.0000,0.0000,1.42027,0.14315,-2.66783,1.00186,1.56180,0.11718,-0.13243,-0.45850,0.07207,,,,,,,,,,,,,,,,,,,,,,,,,,0,0,0,0,0
3.3599,1783441339.6200,1,1,2.0000,0.0000,1.42031,0.14293,-2.66767,1.00193,1.56180,0.11713,-0.13243,-0.45859,0.07206,,,,,,,,,,,,,,,,,,,,,,,,,,0,0,0,0,0
3.3705,1783441339.6306,1,1,2.0000,0.0000,1.42039,0.14250,-2.66738,1.00206,1.56180,0.11704,-0.13243,-0.45877,0.07205,,,,,,,,,,,,,,,,,,,,,,,,,,0,0,0,0,0
3.3710,1783441339.6312,1,1,2.0000,0.0000,1.42039,0.14250,-2.66738,1.00206,1.56180,0.11704,-0.13243,-0.45877,0.07205,,,,,,,,,,,,,,,,,,,,,,,,,,0,0,0,0,0
3.3798,1783441339.6399,1,1,2.0000,0.0000,1.42045,0.14222,-2.66719,1.00214,1.56180,0.11698,-0.13244,-0.45888,0.07204,,,,,,,,,,,,,,,,,,,,,,,,,,0,0,0,0,0
3.3900,1783441339.6501,1,1,2.0000,0.0000,1.42049,0.14199,-2.66705,1.00221,1.56180,0.11694,-0.13244,-0.45897,0.07203,,,,,,,,,,,,,,,,,,,,,,,,,,0,0,0,0,0
3.4015,1783441339.6616,1,1,2.0000,0.0000,1.42052,0.14184,-2.66698,1.00227,1.56180,0.11690,-0.13245,-0.45901,0.07201,,,,,,,,,,,,,,,,,,,,,,,,,,0,0,0,0,0
3.4103,1783441339.6705,1,1,2.0000,0.0000,1.42052,0.14184,-2.66698,1.00227,1.56180,0.11690,-0.13245,-0.45901,0.07201,,,,,,,,,,,,,,,,,,,,,,,,,,0,0,0,0,0
3.4205,1783441339.6806,1,1,2.0000,0.0000,1.42052,0.14184,-2.66698,1.00227,1.56180,0.11690,-0.13245,-0.45901,0.07201,,,,,,,,,,,,,,,,,,,,,,,,,,0,0,0,0,0
3.4209,1783441339.6811,1,1,2.0000,0.0000,1.42052,0.14184,-2.66698,1.00227,1.56180,0.11690,-0.13245,-0.45901,0.07201,,,,,,,,,,,,,,,,,,,,,,,,,,0,0,0,0,0
3.4344,1783441339.6946,1,1,2.0000,0.0000,1.42052,0.14184,-2.66698,1.00227,1.56180,0.11690,-0.13245,-0.45901,0.07201,,,,,,,,,,,,,,,,,,,,,,,,,,0,0,0,0,0
3.4399,1783441339.7000,1,1,2.0000,0.0000,1.42052,0.14184,-2.66698,1.00227,1.56180,0.11690,-0.13245,-0.45901,0.07201,,,,,,,,,,,,,,,,,,,,,,,,,,0,0,0,0,0
3.4497,1783441339.7099,1,1,2.0000,0.0000,1.42052,0.14184,-2.66698,1.00227,1.56180,0.11690,-0.13245,-0.45901,0.07201,,,,,,,,,,,,,,,,,,,,,,,,,,0,0,0,0,0
3.4500,1783441339.7101,1,1,2.0000,0.0000,1.42052,0.14184,-2.66698,1.00227,1.56180,0.11690,-0.13245,-0.45901,0.07201,,,,,,,,,,,,,,,,,,,,,,,,,,0,0,0,0,0
3.4603,1783441339.7204,1,1,2.0000,0.0000,1.42052,0.14184,-2.66698,1.00227,1.56180,0.11690,-0.13245,-0.45901,0.07201,,,,,,,,,,,,,,,,,,,,,,,,,,0,0,0,0,0
3.4733,1783441339.7334,1,1,2.0000,0.0000,1.42052,0.14184,-2.66698,1.00227,1.56180,0.11690,-0.13245,-0.45901,0.07201,,,,,,,,,,,,,,,,,,,,,,,,,,0,0,0,0,0
3.4797,1783441339.7399,1,1,2.0000,0.0000,1.42052,0.14184,-2.66698,1.00227,1.56180,0.11690,-0.13245,-0.45901,0.07201,,,,,,,,,,,,,,,,,,,,,,,,,,0,0,0,0,0
3.4915,1783441339.7516,1,1,2.0000,0.0000,1.42052,0.14184,-2.66698,1.00227,1.56180,0.11690,-0.13245,-0.45901,0.07201,,,,,,,,,,,,,,,,,,,,,,,,,,0,0,0,0,0
3.5014,1783441339.7615,1,1,2.0000,0.0000,1.42052,0.14184,-2.66698,1.00227,1.56180,0.11690,-0.13245,-0.45901,0.07201,,,,,,,,,,,,,,,,,,,,,,,,,,0,0,0,0,0
3.5096,1783441339.7697,1,1,2.0000,0.0000,1.42052,0.14184,-2.66698,1.00227,1.56180,0.11690,-0.13245,-0.45901,0.07201,,,,,,,,,,,,,,,,,,,,,,,,,,0,0,0,0,0
3.5197,1783441339.7799,1,1,2.0000,0.0000,1.42052,0.14184,-2.66698,1.00227,1.56180,0.11690,-0.13245,-0.45901,0.07201,,,,,,,,,,,,,,,,,,,,,,,,,,0,0,0,0,0
3.5347,1783441339.7949,1,1,2.0000,0.0000,1.42052,0.14184,-2.66698,1.00227,1.56180,0.11690,-0.13245,-0.45901,0.07201,,,,,,,,,,,,,,,,,,,,,,,,,,0,0,0,0,0
3.5478,1783441339.8080,1,1,2.0000,0.0000,1.42052,0.14184,-2.66698,1.00227,1.56180,0.11690,-0.13245,-0.45901,0.07201,,,,,,,,,,,,,,,,,,,,,,,,,,0,0,0,0,0
3.5531,1783441339.8132,1,1,2.0000,0.0000,1.42052,0.14184,-2.66698,1.00227,1.56180,0.11690,-0.13245,-0.45901,0.07201,,,,,,,,,,,,,,,,,,,,,,,,,,0,0,0,0,0
3.5535,1783441339.8137,1,1,2.0000,0.0000,1.42052,0.14184,-2.66698,1.00227,1.56180,0.11690,-0.13245,-0.45901,0.07201,,,,,,,,,,,,,,,,,,,,,,,,,,0,0,0,0,0
3.5646,1783441339.8247,1,1,2.0000,0.0000,1.42052,0.14184,-2.66698,1.00227,1.56180,0.11690,-0.13245,-0.45901,0.07201,,,,,,,,,,,,,,,,,,,,,,,,,,0,0,0,0,0
3.5651,1783441339.8252,1,1,2.0000,0.0000,1.42052,0.14184,-2.66698,1.00227,1.56180,0.11690,-0.13245,-0.45901,0.07201,,,,,,,,,,,,,,,,,,,,,,,,,,0,0,0,0,0
3.5655,1783441339.8257,1,1,2.0000,0.0000,1.42052,0.14184,-2.66698,1.00227,1.56180,0.11690,-0.13245,-0.45901,0.07201,,,,,,,,,,,,,,,,,,,,,,,,,,0,0,0,0,0
3.5751,1783441339.8353,1,1,2.0000,0.0000,1.42052,0.14184,-2.66698,1.00227,1.56180,0.11690,-0.13245,-0.45901,0.07201,,,,,,,,,,,,,,,,,,,,,,,,,,0,0,0,0,0
3.5754,1783441339.8356,1,1,2.0000,0.0000,1.42052,0.14184,-2.66698,1.00227,1.56180,0.11690,-0.13245,-0.45901,0.07201,,,,,,,,,,,,,,,,,,,,,,,,,,0,0,0,0,0
3.5758,1783441339.8360,1,1,2.0000,0.0000,1.42052,0.14184,-2.66698,1.00227,1.56180,0.11690,-0.13245,-0.45901,0.07201,,,,,,,,,,,,,,,,,,,,,,,,,,0,0,0,0,0
3.5847,1783441339.8449,1,1,2.0000,0.0000,1.42052,0.14184,-2.66698,1.00227,1.56180,0.11690,-0.13245,-0.45901,0.07201,,,,,,,,,,,,,,,,,,,,,,,,,,0,0,0,0,0
3.6853,1783441339.9455,1,1,2.0000,0.0000,1.42052,0.14184,-2.66698,1.00227,1.56180,0.11690,-0.13245,-0.45901,0.07201,,,,,,,,,,,,,,,,,,,,,,,,,,0,0,0,0,0
3.6895,1783441339.9497,1,1,2.0000,0.0000,1.42052,0.14184,-2.66698,1.00227,1.56180,0.11690,-0.13245,-0.45901,0.07201,,,,,,,,,,,,,,,,,,,,,,,,,,0,0,0,0,0
3.6900,1783441339.9502,1,1,2.0000,0.0000,1.42052,0.14184,-2.66698,1.00227,1.56180,0.11690,-0.13245,-0.45901,0.07201,,,,,,,,,,,,,,,,,,,,,,,,,,0,0,0,0,0
3.6967,1783441339.9568,1,1,2.0000,0.0000,1.42052,0.14184,-2.66698,1.00227,1.56180,0.11690,-0.13245,-0.45901,0.07201,,,,,,,,,,,,,,,,,,,,,,,,,,0,0,0,0,0
3.6988,1783441339.9590,1,1,2.0000,0.0000,1.42052,0.14184,-2.66698,1.00227,1.56180,0.11690,-0.13245,-0.45901,0.07201,,,,,,,,,,,,,,,,,,,,,,,,,,0,0,0,0,0
3.6994,1783441339.9595,1,1,2.0000,0.0000,1.42052,0.14184,-2.66698,1.00227,1.56180,0.11690,-0.13245,-0.45901,0.07201,,,,,,,,,,,,,,,,,,,,,,,,,,0,0,0,0,0
3.6999,1783441339.9601,1,1,2.0000,0.0000,1.42052,0.14184,-2.66698,1.00227,1.56180,0.11690,-0.13245,-0.45901,0.07201,,,,,,,,,,,,,,,,,,,,,,,,,,0,0,0,0,0
3.7004,1783441339.9605,1,1,2.0000,0.0000,1.42052,0.14184,-2.66698,1.00227,1.56180,0.11690,-0.13245,-0.45901,0.07201,,,,,,,,,,,,,,,,,,,,,,,,,,0,0,0,0,0
3.7059,1783441339.9661,1,1,2.0000,0.0000,1.42052,0.14184,-2.66698,1.00227,1.56180,0.11690,-0.13245,-0.45901,0.07201,,,,,,,,,,,,,,,,,,,,,,,,,,0,0,0,0,0
3.7067,1783441339.9669,1,1,2.0000,0.0000,1.42052,0.14184,-2.66698,1.00227,1.56180,0.11690,-0.13245,-0.45901,0.07201,,,,,,,,,,,,,,,,,,,,,,,,,,0,0,0,0,0
3.7139,1783441339.9741,1,1,2.0000,0.0000,1.42052,0.14184,-2.66698,1.00227,1.56180,0.11690,-0.13245,-0.45901,0.07201,,,,,,,,,,,,,,,,,,,,,,,,,,0,0,0,0,0
3.7245,1783441339.9847,1,1,2.0000,0.0000,1.42052,0.14184,-2.66698,1.00227,1.56180,0.11690,-0.13245,-0.45901,0.07201,,,,,,,,,,,,,,,,,,,,,,,,,,0,0,0,0,0
3.7394,1783441339.9995,1,1,2.0000,0.0000,1.42052,0.14184,-2.66698,1.00227,1.56180,0.11690,-0.13245,-0.45901,0.07201,,,,,,,,,,,,,,,,,,,,,,,,,,0,0,0,0,0
3.7462,1783441340.0063,1,1,2.0000,0.0000,1.42052,0.14184,-2.66698,1.00227,1.56180,0.11690,-0.13245,-0.45901,0.07201,,,,,,,,,,,,,,,,,,,,,,,,,,0,0,0,0,0
3.7529,1783441340.0131,1,1,2.0000,0.0000,1.42052,0.14184,-2.66698,1.00227,1.56180,0.11690,-0.13245,-0.45901,0.07201,,,,,,,,,,,,,,,,,,,,,,,,,,0,0,0,0,0
3.7533,1783441340.0135,1,1,2.0000,0.0000,1.42052,0.14184,-2.66698,1.00227,1.56180,0.11690,-0.13245,-0.45901,0.07201,,,,,,,,,,,,,,,,,,,,,,,,,,0,0,0,0,0
3.7671,1783441340.0272,1,1,2.0000,0.0000,1.42052,0.14184,-2.66698,1.00227,1.56180,0.11690,-0.13245,-0.45901,0.07201,,,,,,,,,,,,,,,,,,,,,,,,,,0,0,0,0,0
3.7675,1783441340.0276,1,1,2.0000,0.0000,1.42052,0.14184,-2.66698,1.00227,1.56180,0.11690,-0.13245,-0.45901,0.07201,,,,,,,,,,,,,,,,,,,,,,,,,,0,0,0,0,0
3.7843,1783441340.0445,1,1,2.0000,0.0000,1.42052,0.14184,-2.66698,1.00227,1.56180,0.11690,-0.13245,-0.45901,0.07201,,,,,,,,,,,,,,,,,,,,,,,,,,0,0,0,0,0
3.7874,1783441340.0476,1,1,2.0000,0.0000,1.42052,0.14184,-2.66698,1.00227,1.56180,0.11690,-0.13245,-0.45901,0.07201,,,,,,,,,,,,,,,,,,,,,,,,,,0,0,0,0,0
3.7995,1783441340.0596,1,1,2.0000,0.0000,1.42052,0.14183,-2.66698,1.00227,1.56180,0.11690,-0.13244,-0.45901,0.07201,,,,,,,,,,,,,,,,,,,,,,,,,,0,0,0,0,0
3.7999,1783441340.0600,1,1,2.0000,0.0000,1.42052,0.14183,-2.66698,1.00227,1.56180,0.11690,-0.13244,-0.45901,0.07201,,,,,,,,,,,,,,,,,,,,,,,,,,0,0,0,0,0
3.8056,1783441340.0657,1,1,2.0000,0.0000,1.42052,0.14183,-2.66698,1.00228,1.56180,0.11690,-0.13244,-0.45902,0.07201,,,,,,,,,,,,,,,,,,,,,,,,,,0,0,0,0,0
3.8136,1783441340.0737,1,1,2.0000,0.0000,1.42052,0.14183,-2.66697,1.00229,1.56181,0.11689,-0.13244,-0.45902,0.07202,,,,,,,,,,,,,,,,,,,,,,,,,,0,0,0,0,0
3.8141,1783441340.0743,1,1,2.0000,0.0000,1.42052,0.14183,-2.66697,1.00229,1.56181,0.11689,-0.13244,-0.45902,0.07202,,,,,,,,,,,,,,,,,,,,,,,,,,0,0,0,0,0
3.8233,1783441340.0835,1,1,2.0000,0.0000,1.42052,0.14182,-2.66697,1.00232,1.56181,0.11688,-0.13244,-0.45903,0.07202,,,,,,,,,,,,,,,,,,,,,,,,,,0,0,0,0,0
3.8241,1783441340.0843,1,1,2.0000,0.0000,1.42052,0.14182,-2.66697,1.00232,1.56181,0.11688,-0.13244,-0.45903,0.07202,,,,,,,,,,,,,,,,,,,,,,,,,,0,0,0,0,0
3.8243,1783441340.0845,1,1,2.0000,0.0000,1.42052,0.14182,-2.66697,1.00232,1.56181,0.11688,-0.13244,-0.45903,0.07202,,,,,,,,,,,,,,,,,,,,,,,,,,0,0,0,0,0
3.8377,1783441340.0979,1,1,2.0000,0.0000,1.42052,0.14179,-2.66698,1.00236,1.56181,0.11687,-0.13244,-0.45903,0.07201,,,,,,,,,,,,,,,,,,,,,,,,,,0,0,0,0,0
3.8438,1783441340.1040,1,1,2.0000,0.0000,1.42052,0.14174,-2.66699,1.00243,1.56181,0.11687,-0.13244,-0.45903,0.07199,,,,,,,,,,,,,,,,,,,,,,,,,,0,0,0,0,0
3.8443,1783441340.1044,1,1,2.0000,0.0000,1.42052,0.14174,-2.66699,1.00243,1.56181,0.11687,-0.13244,-0.45903,0.07199,,,,,,,,,,,,,,,,,,,,,,,,,,0,0,0,0,0
3.8553,1783441340.1154,1,1,2.0000,0.0000,1.42052,0.14169,-2.66701,1.00249,1.56181,0.11687,-0.13244,-0.45903,0.07198,,,,,,,,,,,,,,,,,,,,,,,,,,0,0,0,0,0
3.8556,1783441340.1158,1,1,2.0000,0.0000,1.42052,0.14169,-2.66701,1.00249,1.56181,0.11687,-0.13244,-0.45903,0.07198,,,,,,,,,,,,,,,,,,,,,,,,,,0,0,0,0,0
3.8630,1783441340.1232,1,1,2.0000,0.0000,1.42052,0.14162,-2.66703,1.00257,1.56181,0.11686,-0.13244,-0.45903,0.07195,,,,,,,,,,,,,,,,,,,,,,,,,,0,0,0,0,0
3.8635,1783441340.1236,1,1,2.0000,0.0000,1.42052,0.14162,-2.66703,1.00257,1.56181,0.11686,-0.13244,-0.45903,0.07195,,,,,,,,,,,,,,,,,,,,,,,,,,0,0,0,0,0
3.8834,1783441340.1435,1,1,2.0000,0.0000,1.42052,0.14133,-2.66711,1.00293,1.56181,0.11685,-0.13244,-0.45903,0.07185,,,,,,,,,,,,,,,,,,,,,,,,,,0,0,0,0,0
3.8843,1783441340.1444,1,1,2.0000,0.0000,1.42052,0.14133,-2.66711,1.00293,1.56181,0.11685,-0.13244,-0.45903,0.07185,,,,,,,,,,,,,,,,,,,,,,,,,,0,0,0,0,0
3.8928,1783441340.1530,1,1,2.0000,0.0000,1.42052,0.14128,-2.66712,1.00300,1.56181,0.11685,-0.13244,-0.45903,0.07184,,,,,,,,,,,,,,,,,,,,,,,,,,0,0,0,0,0
3.8933,1783441340.1534,1,1,2.0000,0.0000,1.42052,0.14128,-2.66712,1.00300,1.56181,0.11685,-0.13244,-0.45903,0.07184,,,,,,,,,,,,,,,,,,,,,,,,,,0,0,0,0,0
3.9033,1783441340.1634,1,1,2.0000,0.0000,1.42052,0.14101,-2.66719,1.00334,1.56181,0.11685,-0.13243,-0.45904,0.07175,,,,,,,,,,,,,,,,,,,,,,,,,,0,0,0,0,0
3.9169,1783441340.1770,1,1,2.0000,0.0000,1.42052,0.14091,-2.66721,1.00346,1.56181,0.11685,-0.13243,-0.45904,0.07172,,,,,,,,,,,,,,,,,,,,,,,,,,0,0,0,0,0
3.9239,1783441340.1840,1,1,2.0000,0.0000,1.42052,0.14066,-2.66727,1.00377,1.56181,0.11685,-0.13243,-0.45905,0.07164,,,,,,,,,,,,,,,,,,,,,,,,,,0,0,0,0,0
3.9242,1783441340.1844,1,1,2.0000,0.0000,1.42052,0.14066,-2.66727,1.00377,1.56181,0.11685,-0.13243,-0.45905,0.07164,,,,,,,,,,,,,,,,,,,,,,,,,,0,0,0,0,0
3.9332,1783441340.1933,1,1,2.0000,0.0000,1.42052,0.14029,-2.66736,1.00424,1.56181,0.11684,-0.13243,-0.45906,0.07152,,,,,,,,,,,,,,,,,,,,,,,,,,0,0,0,0,0
3.9478,1783441340.2079,1,1,2.0000,0.0000,1.42052,0.13997,-2.66743,1.00464,1.56182,0.11684,-0.13243,-0.45907,0.07142,,,,,,,,,,,,,,,,,,,,,,,,,,0,0,0,0,0
3.9538,1783441340.2139,1,1,2.0000,0.0000,1.42052,0.13984,-2.66746,1.00479,1.56182,0.11684,-0.13243,-0.45907,0.07138,,,,,,,,,,,,,,,,,,,,,,,,,,0,0,0,0,0
3.9671,1783441340.2273,1,1,2.0000,0.0000,1.42052,0.13901,-2.66766,1.00583,1.56182,0.11683,-0.13243,-0.45909,0.07111,,,,,,,,,,,,,,,,,,,,,,,,,,0,0,0,0,0
3.9726,1783441340.2328,1,1,2.0000,0.0000,1.42052,0.13901,-2.66766,1.00583,1.56182,0.11683,-0.13243,-0.45909,0.07111,,,,,,,,,,,,,,,,,,,,,,,,,,0,0,0,0,0
3.9729,1783441340.2331,1,1,2.0000,0.0000,1.42052,0.13901,-2.66766,1.00583,1.56182,0.11683,-0.13243,-0.45909,0.07111,,,,,,,,,,,,,,,,,,,,,,,,,,0,0,0,0,0
3.9845,1783441340.2446,1,1,2.0000,0.0000,1.42052,0.13876,-2.66772,1.00614,1.56182,0.11683,-0.13243,-0.45910,0.07103,,,,,,,,,,,,,,,,,,,,,,,,,,0,0,0,0,0
3.9936,1783441340.2537,1,1,2.0000,0.0000,1.42053,0.13838,-2.66782,1.00660,1.56182,0.11682,-0.13242,-0.45911,0.07091,,,,,,,,,,,,,,,,,,,,,,,,,,0,0,0,0,0
3.9940,1783441340.2542,1,1,2.0000,0.0000,1.42053,0.13838,-2.66782,1.00660,1.56182,0.11682,-0.13242,-0.45911,0.07091,,,,,,,,,,,,,,,,,,,,,,,,,,0,0,0,0,0
4.0031,1783441340.2633,1,1,2.0000,0.0000,1.42053,0.13813,-2.66788,1.00692,1.56182,0.11682,-0.13242,-0.45911,0.07083,,,,,,,,,,,,,,,,,,,,,,,,,,0,0,0,0,0
4.0154,1783441340.2756,1,1,2.0000,0.0000,1.42053,0.13778,-2.66796,1.00736,1.56182,0.11682,-0.13242,-0.45912,0.07072,,,,,,,,,,,,,,,,,,,,,,,,,,0,0,0,0,0
4.0229,1783441340.2830,1,1,2.0000,0.0000,1.42053,0.13740,-2.66805,1.00783,1.56182,0.11681,-0.13242,-0.45913,0.07060,,,,,,,,,,,,,,,,,,,,,,,,,,0,0,0,0,0
4.0233,1783441340.2835,1,1,2.0000,0.0000,1.42053,0.13740,-2.66805,1.00783,1.56182,0.11681,-0.13242,-0.45913,0.07060,,,,,,,,,,,,,,,,,,,,,,,,,,0,0,0,0,0
4.0329,1783441340.2930,1,1,2.0000,0.0000,1.42053,0.13719,-2.66811,1.00810,1.56182,0.11681,-0.13242,-0.45914,0.07053,,,,,,,,,,,,,,,,,,,,,,,,,,0,0,0,0,0
4.0442,1783441340.3043,1,1,2.0000,0.0000,1.42053,0.13705,-2.66814,1.00829,1.56182,0.11681,-0.13242,-0.45914,0.07048,,,,,,,,,,,,,,,,,,,,,,,,,,0,0,0,0,0
4.0447,1783441340.3048,1,1,2.0000,0.0000,1.42053,0.13705,-2.66814,1.00829,1.56182,0.11681,-0.13242,-0.45914,0.07048,,,,,,,,,,,,,,,,,,,,,,,,,,0,0,0,0,0
4.0550,1783441340.3152,1,1,2.0000,0.0000,1.42053,0.13670,-2.66822,1.00874,1.56182,0.11680,-0.13242,-0.45916,0.07038,,,,,,,,,,,,,,,,,,,,,,,,,,0,0,0,0,0
4.0634,1783441340.3235,1,1,2.0000,0.0000,1.42053,0.13656,-2.66825,1.00892,1.56182,0.11680,-0.13242,-0.45916,0.07034,,,,,,,,,,,,,,,,,,,,,,,,,,0,0,0,0,0
4.0728,1783441340.3329,1,1,2.0000,0.0000,1.42053,0.13651,-2.66826,1.00897,1.56182,0.11680,-0.13242,-0.45917,0.07032,,,,,,,,,,,,,,,,,,,,,,,,,,0,0,0,0,0
4.0895,1783441340.3497,1,1,2.0000,0.0000,1.42053,0.13633,-2.66829,1.00921,1.56182,0.11680,-0.13241,-0.45918,0.07027,,,,,,,,,,,,,,,,,,,,,,,,,,0,0,0,0,0
4.0936,1783441340.3537,1,1,2.0000,0.0000,1.42053,0.13632,-2.66830,1.00922,1.56182,0.11680,-0.13241,-0.45918,0.07027,,,,,,,,,,,,,,,,,,,,,,,,,,0,0,0,0,0
4.1067,1783441340.3669,1,1,2.0000,0.0000,1.42053,0.13612,-2.66835,1.00950,1.56183,0.11680,-0.13241,-0.45919,0.07021,,,,,,,,,,,,,,,,,,,,,,,,,,0,0,0,0,0
4.1143,1783441340.3745,1,1,2.0000,0.0000,1.42053,0.13604,-2.66837,1.00960,1.56183,0.11679,-0.13241,-0.45919,0.07018,,,,,,,,,,,,,,,,,,,,,,,,,,0,0,0,0,0
4.1229,1783441340.3830,1,1,2.0000,0.0000,1.42054,0.13586,-2.66841,1.00984,1.56183,0.11679,-0.13241,-0.45920,0.07013,,,,,,,,,,,,,,,,,,,,,,,,,,0,0,0,0,0
4.1343,1783441340.3944,1,1,2.0000,0.0000,1.42054,0.13582,-2.66843,1.00989,1.56183,0.11679,-0.13241,-0.45920,0.07011,,,,,,,,,,,,,,,,,,,,,,,,,,0,0,0,0,0
4.1460,1783441340.4061,1,1,2.0000,0.0000,1.42054,0.13564,-2.66848,1.01013,1.56183,0.11679,-0.13241,-0.45920,0.07005,,,,,,,,,,,,,,,,,,,,,,,,,,0,0,0,0,0
4.1563,1783441340.4165,1,1,2.0000,0.0000,1.42054,0.13545,-2.66853,1.01037,1.56183,0.11679,-0.13241,-0.45920,0.06998,,,,,,,,,,,,,,,,,,,,,,,,,,0,0,0,0,0
4.1630,1783441340.4232,1,1,2.0000,0.0000,1.42054,0.13538,-2.66855,1.01045,1.56183,0.11679,-0.13241,-0.45920,0.06996,,,,,,,,,,,,,,,,,,,,,,,,,,0,0,0,0,0
4.1742,1783441340.4344,1,1,2.0000,0.0000,1.42054,0.13521,-2.66860,1.01066,1.56183,0.11679,-0.13241,-0.45920,0.06991,,,,,,,,,,,,,,,,,,,,,,,,,,0,0,0,0,0
4.1958,1783441340.4560,1,1,2.0000,0.0000,1.42054,0.13473,-2.66872,1.01126,1.56183,0.11678,-0.13241,-0.45921,0.06975,,,,,,,,,,,,,,,,,,,,,,,,,,0,0,0,0,0
4.1962,1783441340.4564,1,1,2.0000,0.0000,1.42054,0.13473,-2.66872,1.01126,1.56183,0.11678,-0.13241,-0.45921,0.06975,,,,,,,,,,,,,,,,,,,,,,,,,,0,0,0,0,0
4.1966,1783441340.4568,1,1,2.0000,0.0000,1.42054,0.13473,-2.66872,1.01126,1.56183,0.11678,-0.13241,-0.45921,0.06975,,,,,,,,,,,,,,,,,,,,,,,,,,0,0,0,0,0
4.2081,1783441340.4683,1,1,2.0000,0.0000,1.42054,0.13413,-2.66887,1.01201,1.56183,0.11678,-0.13241,-0.45922,0.06956,,,,,,,,,,,,,,,,,,,,,,,,,,0,0,0,0,0
4.2126,1783441340.4728,1,1,2.0000,0.0000,1.42054,0.13413,-2.66887,1.01201,1.56183,0.11678,-0.13241,-0.45922,0.06956,,,,,,,,,,,,,,,,,,,,,,,,,,0,0,0,0,0
4.2131,1783441340.4733,1,1,2.0000,0.0000,1.42054,0.13413,-2.66887,1.01201,1.56183,0.11678,-0.13241,-0.45922,0.06956,,,,,,,,,,,,,,,,,,,,,,,,,,0,0,0,0,0
4.2135,1783441340.4737,1,1,2.0000,0.0000,1.42054,0.13413,-2.66887,1.01201,1.56183,0.11678,-0.13241,-0.45922,0.06956,,,,,,,,,,,,,,,,,,,,,,,,,,0,0,0,0,0
4.2234,1783441340.4835,1,1,2.0000,0.0000,1.42054,0.13389,-2.66893,1.01230,1.56183,0.11678,-0.13241,-0.45922,0.06948,,,,,,,,,,,,,,,,,,,,,,,,,,0,0,0,0,0
4.2237,1783441340.4839,1,1,2.0000,0.0000,1.42054,0.13389,-2.66893,1.01230,1.56183,0.11678,-0.13241,-0.45922,0.06948,,,,,,,,,,,,,,,,,,,,,,,,,,0,0,0,0,0
4.2342,1783441340.4944,1,1,2.0000,0.0000,1.42054,0.13352,-2.66902,1.01276,1.56183,0.11677,-0.13241,-0.45922,0.06936,,,,,,,,,,,,,,,,,,,,,,,,,,0,0,0,0,0
4.2492,1783441340.5093,1,1,2.0000,0.0000,1.42054,0.13301,-2.66915,1.01339,1.56183,0.11677,-0.13241,-0.45923,0.06919,,,,,,,,,,,,,,,,,,,,,,,,,,0,0,0,0,0
4.2536,1783441340.5137,1,1,2.0000,0.0000,1.42054,0.13292,-2.66917,1.01350,1.56183,0.11677,-0.13241,-0.45923,0.06916,,,,,,,,,,,,,,,,,,,,,,,,,,0,0,0,0,0
4.2648,1783441340.5250,1,1,2.0000,0.0000,1.42055,0.13240,-2.66931,1.01415,1.56183,0.11676,-0.13241,-0.45924,0.06899,,,,,,,,,,,,,,,,,,,,,,,,,,0,0,0,0,0
4.2733,1783441340.5334,1,1,2.0000,0.0000,1.42055,0.13236,-2.66931,1.01419,1.56183,0.11676,-0.13241,-0.45924,0.06898,,,,,,,,,,,,,,,,,,,,,,,,,,0,0,0,0,0
4.2738,1783441340.5340,1,1,2.0000,0.0000,1.42055,0.13236,-2.66931,1.01419,1.56183,0.11676,-0.13241,-0.45924,0.06898,,,,,,,,,,,,,,,,,,,,,,,,,,0,0,0,0,0
4.2930,1783441340.5531,1,1,2.0000,0.0000,1.42055,0.13152,-2.66952,1.01524,1.56183,0.11675,-0.13240,-0.45925,0.06871,,,,,,,,,,,,,,,,,,,,,,,,,,0,0,0,0,0
4.2935,1783441340.5537,1,1,2.0000,0.0000,1.42055,0.13152,-2.66952,1.01524,1.56183,0.11675,-0.13240,-0.45925,0.06871,,,,,,,,,,,,,,,,,,,,,,,,,,0,0,0,0,0
4.3054,1783441340.5655,1,1,2.0000,0.0000,1.42055,0.13102,-2.66964,1.01587,1.56184,0.11675,-0.13240,-0.45926,0.06854,,,,,,,,,,,,,,,,,,,,,,,,,,0,0,0,0,0
4.3139,1783441340.5741,1,1,2.0000,0.0000,1.42055,0.13095,-2.66966,1.01596,1.56184,0.11675,-0.13240,-0.45926,0.06852,,,,,,,,,,,,,,,,,,,,,,,,,,0,0,0,0,0
4.3255,1783441340.5857,1,1,2.0000,0.0000,1.42055,0.13066,-2.66973,1.01632,1.56184,0.11675,-0.13240,-0.45927,0.06843,,,,,,,,,,,,,,,,,,,,,,,,,,0,0,0,0,0
4.3354,1783441340.5955,1,1,2.0000,0.0000,1.42055,0.13026,-2.66982,1.01684,1.56184,0.11674,-0.13240,-0.45929,0.06831,,,,,,,,,,,,,,,,,,,,,,,,,,0,0,0,0,0
4.3358,1783441340.5960,1,1,2.0000,0.0000,1.42055,0.13026,-2.66982,1.01684,1.56184,0.11674,-0.13240,-0.45929,0.06831,,,,,,,,,,,,,,,,,,,,,,,,,,0,0,0,0,0
4.3443,1783441340.6045,1,1,2.0000,0.0000,1.42055,0.12998,-2.66989,1.01719,1.56184,0.11674,-0.13240,-0.45930,0.06822,,,,,,,,,,,,,,,,,,,,,,,,,,0,0,0,0,0
4.3448,1783441340.6049,1,1,2.0000,0.0000,1.42055,0.12998,-2.66989,1.01719,1.56184,0.11674,-0.13240,-0.45930,0.06822,,,,,,,,,,,,,,,,,,,,,,,,,,0,0,0,0,0
4.3566,1783441340.6167,1,1,2.0000,0.0000,1.42055,0.12966,-2.66996,1.01761,1.56184,0.11673,-0.13240,-0.45931,0.06812,,,,,,,,,,,,,,,,,,,,,,,,,,0,0,0,0,0
4.3631,1783441340.6232,1,1,2.0000,0.0000,1.42055,0.12965,-2.66996,1.01762,1.56184,0.11673,-0.13240,-0.45931,0.06812,,,,,,,,,,,,,,,,,,,,,,,,,,0,0,0,0,0
4.3637,1783441340.6238,1,1,2.0000,0.0000,1.42055,0.12965,-2.66996,1.01762,1.56184,0.11673,-0.13240,-0.45931,0.06812,,,,,,,,,,,,,,,,,,,,,,,,,,0,0,0,0,0
4.3792,1783441340.6393,1,1,2.0000,0.0000,1.42056,0.12959,-2.66997,1.01772,1.56184,0.11673,-0.13240,-0.45932,0.06811,,,,,,,,,,,,,,,,,,,,,,,,,,0,0,0,0,0
4.3837,1783441340.6438,1,1,2.0000,0.0000,1.42056,0.12956,-2.66998,1.01776,1.56184,0.11673,-0.13239,-0.45932,0.06810,,,,,,,,,,,,,,,,,,,,,,,,,,0,0,0,0,0
4.3949,1783441340.6551,1,1,2.0000,0.0000,1.42056,0.12952,-2.66999,1.01781,1.56184,0.11673,-0.13239,-0.45932,0.06809,,,,,,,,,,,,,,,,,,,,,,,,,,0,0,0,0,0
4.4040,1783441340.6641,1,1,2.0000,0.0000,1.42056,0.12947,-2.67001,1.01788,1.56184,0.11673,-0.13239,-0.45932,0.06807,,,,,,,,,,,,,,,,,,,,,,,,,,0,0,0,0,0
4.4132,1783441340.6733,1,1,2.0000,0.0000,1.42056,0.12936,-2.67004,1.01801,1.56184,0.11673,-0.13240,-0.45932,0.06803,,,,,,,,,,,,,,,,,,,,,,,,,,0,0,0,0,0
4.4231,1783441340.6832,1,1,2.0000,0.0000,1.42056,0.12923,-2.67009,1.01818,1.56184,0.11673,-0.13240,-0.45931,0.06798,,,,,,,,,,,,,,,,,,,,,,,,,,0,0,0,0,0
4.4336,1783441340.6937,1,1,2.0000,0.0000,1.42056,0.12917,-2.67010,1.01825,1.56184,0.11673,-0.13240,-0.45931,0.06796,,,,,,,,,,,,,,,,,,,,,,,,,,0,0,0,0,0
4.4340,1783441340.6942,1,1,2.0000,0.0000,1.42056,0.12917,-2.67010,1.01825,1.56184,0.11673,-0.13240,-0.45931,0.06796,,,,,,,,,,,,,,,,,,,,,,,,,,0,0,0,0,0
4.4474,1783441340.7075,1,1,2.0000,0.0000,1.42056,0.12892,-2.67017,1.01857,1.56184,0.11673,-0.13240,-0.45931,0.06788,,,,,,,,,,,,,,,,,,,,,,,,,,0,0,0,0,0
4.4479,1783441340.7080,1,1,2.0000,0.0000,1.42056,0.12892,-2.67017,1.01857,1.56184,0.11673,-0.13240,-0.45931,0.06788,,,,,,,,,,,,,,,,,,,,,,,,,,0,0,0,0,0
4.4637,1783441340.7239,1,1,2.0000,0.0000,1.42056,0.12858,-2.67026,1.01898,1.56184,0.11672,-0.13240,-0.45931,0.06777,,,,,,,,,,,,,,,,,,,,,,,,,,0,0,0,0,0
4.4701,1783441340.7302,1,1,2.0000,0.0000,1.42056,0.12842,-2.67030,1.01918,1.56184,0.11672,-0.13240,-0.45931,0.06771,,,,,,,,,,,,,,,,,,,,,,,,,,0,0,0,0,0
4.4783,1783441340.7385,1,1,2.0000,0.0000,1.42056,0.12802,-2.67040,1.01967,1.56184,0.11672,-0.13239,-0.45932,0.06758,,,,,,,,,,,,,,,,,,,,,,,,,,0,0,0,0,0
4.5015,1783441340.7617,1,1,2.0000,0.0000,1.42056,0.12746,-2.67053,1.02035,1.56184,0.11671,-0.13239,-0.45933,0.06740,,,,,,,,,,,,,,,,,,,,,,,,,,0,0,0,0,0
4.5020,1783441340.7621,1,1,2.0000,0.0000,1.42056,0.12746,-2.67053,1.02035,1.56184,0.11671,-0.13239,-0.45933,0.06740,,,,,,,,,,,,,,,,,,,,,,,,,,0,0,0,0,0
4.5072,1783441340.7673,1,1,2.0000,0.0000,1.42056,0.12710,-2.67063,1.02081,1.56184,0.11671,-0.13239,-0.45933,0.06728,,,,,,,,,,,,,,,,,,,,,,,,,,0,0,0,0,0
4.5775,1783441340.8376,1,1,2.0000,0.0000,1.42057,0.12512,-2.67111,1.02325,1.56185,0.11669,-0.13239,-0.45936,0.06664,,,,,,,,,,,,,,,,,,,,,,,,,,0,0,0,0,0
4.6981,1783441340.9582,1,1,2.0000,0.0000,1.42058,0.12307,-2.67161,1.02586,1.56185,0.11667,-0.13238,-0.45941,0.06600,,,,,,,,,,,,,,,,,,,,,,,,,,0,0,0,0,0
4.6988,1783441340.9590,1,1,2.0000,0.0000,1.42058,0.12306,-2.67161,1.02588,1.56185,0.11667,-0.13238,-0.45941,0.06600,,,,,,,,,,,,,,,,,,,,,,,,,,0,0,0,0,0
4.6995,1783441340.9597,1,1,2.0000,0.0000,1.42058,0.12306,-2.67161,1.02588,1.56185,0.11667,-0.13238,-0.45941,0.06600,,,,,,,,,,,,,,,,,,,,,,,,,,0,0,0,0,0
4.7000,1783441340.9601,1,1,2.0000,0.0000,1.42058,0.12306,-2.67161,1.02588,1.56185,0.11667,-0.13238,-0.45941,0.06600,,,,,,,,,,,,,,,,,,,,,,,,,,0,0,0,0,0
4.7003,1783441340.9605,1,1,2.0000,0.0000,1.42058,0.12306,-2.67161,1.02588,1.56185,0.11667,-0.13238,-0.45941,0.06600,,,,,,,,,,,,,,,,,,,,,,,,,,0,0,0,0,0
4.7008,1783441340.9609,1,1,2.0000,0.0000,1.42058,0.12306,-2.67161,1.02588,1.56185,0.11667,-0.13238,-0.45941,0.06600,,,,,,,,,,,,,,,,,,,,,,,,,,0,0,0,0,0
4.7012,1783441340.9614,1,1,2.0000,0.0000,1.42058,0.12306,-2.67161,1.02588,1.56185,0.11667,-0.13238,-0.45941,0.06600,,,,,,,,,,,,,,,,,,,,,,,,,,0,0,0,0,0
4.7016,1783441340.9617,1,1,2.0000,0.0000,1.42058,0.12306,-2.67161,1.02588,1.56185,0.11667,-0.13238,-0.45941,0.06600,,,,,,,,,,,,,,,,,,,,,,,,,,0,0,0,0,0
4.7020,1783441340.9621,1,1,2.0000,0.0000,1.42058,0.12306,-2.67161,1.02588,1.56185,0.11667,-0.13238,-0.45941,0.06600,,,,,,,,,,,,,,,,,,,,,,,,,,0,0,0,0,0
4.7024,1783441340.9625,1,1,2.0000,0.0000,1.42058,0.12306,-2.67161,1.02588,1.56185,0.11667,-0.13238,-0.45941,0.06600,,,,,,,,,,,,,,,,,,,,,,,,,,0,0,0,0,0
4.7033,1783441340.9634,1,1,2.0000,0.0000,1.42058,0.12302,-2.67162,1.02592,1.56185,0.11667,-0.13238,-0.45941,0.06599,,,,,,,,,,,,,,,,,,,,,,,,,,0,0,0,0,0
4.7037,1783441340.9638,1,1,2.0000,0.0000,1.42058,0.12302,-2.67162,1.02592,1.56185,0.11667,-0.13238,-0.45941,0.06599,,,,,,,,,,,,,,,,,,,,,,,,,,0,0,0,0,0
4.7080,1783441340.9682,1,1,2.0000,0.0000,1.42058,0.12296,-2.67164,1.02600,1.56185,0.11667,-0.13238,-0.45941,0.06596,,,,,,,,,,,,,,,,,,,,,,,,,,0,0,0,0,0
4.7085,1783441340.9686,1,1,2.0000,0.0000,1.42058,0.12296,-2.67164,1.02600,1.56185,0.11667,-0.13238,-0.45941,0.06596,,,,,,,,,,,,,,,,,,,,,,,,,,0,0,0,0,0
4.7130,1783441340.9731,1,1,2.0000,0.0000,1.42058,0.12288,-2.67166,1.02610,1.56185,0.11667,-0.13238,-0.45941,0.06594,,,,,,,,,,,,,,,,,,,,,,,,,,0,0,0,0,0
4.7229,1783441340.9831,1,1,2.0000,0.0000,1.42058,0.12275,-2.67169,1.02625,1.56185,0.11667,-0.13238,-0.45941,0.06590,,,,,,,,,,,,,,,,,,,,,,,,,,0,0,0,0,0
4.7327,1783441340.9929,1,1,2.0000,0.0000,1.42058,0.12259,-2.67173,1.02645,1.56185,0.11667,-0.13238,-0.45941,0.06584,,,,,,,,,,,,,,,,,,,,,,,,,,0,0,0,0,0
4.7456,1783441341.0057,1,1,2.0000,0.0000,1.42058,0.12211,-2.67184,1.02703,1.56186,0.11666,-0.13238,-0.45942,0.06569,,,,,,,,,,,,,,,,,,,,,,,,,,0,0,0,0,0
4.7633,1783441341.0234,1,1,2.0000,0.0000,1.42058,0.12170,-2.67194,1.02753,1.56186,0.11666,-0.13238,-0.45942,0.06555,,,,,,,,,,,,,,,,,,,,,,,,,,0,0,0,0,0
4.7643,1783441341.0245,1,1,2.0000,0.0000,1.42058,0.12170,-2.67194,1.02753,1.56186,0.11666,-0.13238,-0.45942,0.06555,,,,,,,,,,,,,,,,,,,,,,,,,,0,0,0,0,0
4.7647,1783441341.0248,1,1,2.0000,0.0000,1.42058,0.12170,-2.67194,1.02753,1.56186,0.11666,-0.13238,-0.45942,0.06555,,,,,,,,,,,,,,,,,,,,,,,,,,0,0,0,0,0
4.7727,1783441341.0328,1,1,2.0000,0.0000,1.42058,0.12137,-2.67202,1.02794,1.56186,0.11666,-0.13238,-0.45942,0.06545,,,,,,,,,,,,,,,,,,,,,,,,,,0,0,0,0,0
4.7834,1783441341.0436,1,1,2.0000,0.0000,1.42058,0.12094,-2.67213,1.02846,1.56186,0.11666,-0.13238,-0.45943,0.06531,,,,,,,,,,,,,,,,,,,,,,,,,,0,0,0,0,0
4.7997,1783441341.0598,1,1,2.0000,0.0000,1.42058,0.12054,-2.67223,1.02895,1.56186,0.11665,-0.13238,-0.45943,0.06518,,,,,,,,,,,,,,,,,,,,,,,,,,0,0,0,0,0
4.8001,1783441341.0602,1,1,2.0000,0.0000,1.42058,0.12054,-2.67223,1.02895,1.56186,0.11665,-0.13238,-0.45943,0.06518,,,,,,,,,,,,,,,,,,,,,,,,,,0,0,0,0,0
4.8030,1783441341.0631,1,1,2.0000,0.0000,1.42058,0.12034,-2.67228,1.02920,1.56186,0.11665,-0.13238,-0.45943,0.06511,,,,,,,,,,,,,,,,,,,,,,,,,,0,0,0,0,0
4.8035,1783441341.0636,1,1,2.0000,0.0000,1.42058,0.12034,-2.67228,1.02920,1.56186,0.11665,-0.13238,-0.45943,0.06511,,,,,,,,,,,,,,,,,,,,,,,,,,0,0,0,0,0
4.8179,1783441341.0781,1,1,2.0000,0.0000,1.42058,0.12022,-2.67231,1.02935,1.56186,0.11665,-0.13238,-0.45944,0.06507,,,,,,,,,,,,,,,,,,,,,,,,,,0,0,0,0,0
4.8242,1783441341.0844,1,1,2.0000,0.0000,1.42058,0.11989,-2.67239,1.02976,1.56186,0.11665,-0.13238,-0.45944,0.06497,,,,,,,,,,,,,,,,,,,,,,,,,,0,0,0,0,0
4.8371,1783441341.0973,1,1,2.0000,0.0000,1.42059,0.11915,-2.67256,1.03067,1.56186,0.11664,-0.13238,-0.45945,0.06473,,,,,,,,,,,,,,,,,,,,,,,,,,0,0,0,0,0
4.8455,1783441341.1056,1,1,2.0000,0.0000,1.42059,0.11888,-2.67263,1.03101,1.56186,0.11664,-0.13238,-0.45946,0.06465,,,,,,,,,,,,,,,,,,,,,,,,,,0,0,0,0,0
4.8538,1783441341.1140,1,1,2.0000,0.0000,1.42059,0.11880,-2.67265,1.03111,1.56186,0.11664,-0.13238,-0.45946,0.06462,,,,,,,,,,,,,,,,,,,,,,,,,,0,0,0,0,0
4.8639,1783441341.1240,1,1,2.0000,0.0000,1.42059,0.11846,-2.67273,1.03153,1.56186,0.11663,-0.13238,-0.45946,0.06451,,,,,,,,,,,,,,,,,,,,,,,,,,0,0,0,0,0
4.8726,1783441341.1328,1,1,2.0000,0.0000,1.42059,0.11815,-2.67280,1.03192,1.56186,0.11663,-0.13238,-0.45947,0.06442,,,,,,,,,,,,,,,,,,,,,,,,,,0,0,0,0,0
4.8895,1783441341.1497,1,1,2.0000,0.0000,1.42059,0.11750,-2.67296,1.03274,1.56186,0.11663,-0.13237,-0.45948,0.06421,,,,,,,,,,,,,,,,,,,,,,,,,,0,0,0,0,0
4.9101,1783441341.1703,1,1,2.0000,0.0000,1.42059,0.11723,-2.67302,1.03307,1.56186,0.11662,-0.13237,-0.45949,0.06413,,,,,,,,,,,,,,,,,,,,,,,,,,0,0,0,0,0
4.9114,1783441341.1716,1,1,2.0000,0.0000,1.42059,0.11722,-2.67301,1.03309,1.56186,0.11662,-0.13237,-0.45950,0.06413,,,,,,,,,,,,,,,,,,,,,,,,,,0,0,0,0,0
4.9126,1783441341.1728,1,1,2.0000,0.0000,1.42059,0.11722,-2.67301,1.03309,1.56186,0.11662,-0.13237,-0.45950,0.06413,,,,,,,,,,,,,,,,,,,,,,,,,,0,0,0,0,0
4.9246,1783441341.1848,1,1,2.0000,0.0000,1.42059,0.11717,-2.67301,1.03317,1.56186,0.11662,-0.13237,-0.45951,0.06412,,,,,,,,,,,,,,,,,,,,,,,,,,0,0,0,0,0
4.9396,1783441341.1997,1,1,2.0000,0.0000,1.42059,0.11712,-2.67302,1.03323,1.56186,0.11662,-0.13237,-0.45952,0.06411,,,,,,,,,,,,,,,,,,,,,,,,,,0,0,0,0,0
4.9663,1783441341.2265,1,1,2.0000,0.0000,1.42059,0.11694,-2.67308,1.03348,1.56187,0.11662,-0.13237,-0.45951,0.06405,,,,,,,,,,,,,,,,,,,,,,,,,,0,0,0,0,0
5.0270,1783441341.2871,1,1,2.0000,0.0000,1.42060,0.11566,-2.67341,1.03504,1.56187,0.11661,-0.13237,-0.45951,0.06363,,,,,,,,,,,,,,,,,,,,,,,,,,0,0,0,0,0
5.0297,1783441341.2898,1,1,2.0000,0.0000,1.42060,0.11566,-2.67341,1.03504,1.56187,0.11661,-0.13237,-0.45951,0.06363,,,,,,,,,,,,,,,,,,,,,,,,,,0,0,0,0,0
5.0302,1783441341.2903,1,1,2.0000,0.0000,1.42060,0.11566,-2.67341,1.03504,1.56187,0.11661,-0.13237,-0.45951,0.06363,,,,,,,,,,,,,,,,,,,,,,,,,,0,0,0,0,0
5.0309,1783441341.2911,1,1,2.0000,0.0000,1.42060,0.11560,-2.67342,1.03512,1.56187,0.11661,-0.13237,-0.45951,0.06361,,,,,,,,,,,,,,,,,,,,,,,,,,0,0,0,0,0
5.0313,1783441341.2914,1,1,2.0000,0.0000,1.42060,0.11560,-2.67342,1.03512,1.56187,0.11661,-0.13237,-0.45951,0.06361,,,,,,,,,,,,,,,,,,,,,,,,,,0,0,0,0,0
5.0338,1783441341.2940,1,1,2.0000,0.0000,1.42060,0.11560,-2.67342,1.03512,1.56187,0.11661,-0.13237,-0.45951,0.06361,,,,,,,,,,,,,,,,,,,,,,,,,,0,0,0,0,0
5.0443,1783441341.3045,1,1,2.0000,0.0000,1.42060,0.11520,-2.67352,1.03561,1.56187,0.11661,-0.13237,-0.45952,0.06348,,,,,,,,,,,,,,,,,,,,,,,,,,0,0,0,0,0
5.0550,1783441341.3151,1,1,2.0000,0.0000,1.42060,0.11480,-2.67361,1.03609,1.56187,0.11660,-0.13237,-0.45952,0.06335,,,,,,,,,,,,,,,,,,,,,,,,,,0,0,0,0,0
5.0662,1783441341.3263,1,1,2.0000,0.0000,1.42060,0.11469,-2.67364,1.03622,1.56187,0.11660,-0.13237,-0.45952,0.06332,,,,,,,,,,,,,,,,,,,,,,,,,,0,0,0,0,0
5.0733,1783441341.3335,1,1,2.0000,0.0000,1.42060,0.11440,-2.67371,1.03658,1.56187,0.11660,-0.13237,-0.45953,0.06322,,,,,,,,,,,,,,,,,,,,,,,,,,0,0,0,0,0
5.0895,1783441341.3497,1,1,2.0000,0.0000,1.42060,0.11407,-2.67378,1.03698,1.56187,0.11660,-0.13237,-0.45953,0.06312,,,,,,,,,,,,,,,,,,,,,,,,,,0,0,0,0,0
5.0950,1783441341.3552,1,1,2.0000,0.0000,1.42060,0.11374,-2.67386,1.03739,1.56187,0.11660,-0.13237,-0.45953,0.06301,,,,,,,,,,,,,,,,,,,,,,,,,,0,0,0,0,0
5.1185,1783441341.3786,1,1,2.0000,0.0000,1.42061,0.11296,-2.67404,1.03833,1.56187,0.11659,-0.13237,-0.45954,0.06276,,,,,,,,,,,,,,,,,,,,,,,,,,0,0,0,0,0
5.1192,1783441341.3794,1,1,2.0000,0.0000,1.42061,0.11290,-2.67406,1.03842,1.56187,0.11659,-0.13237,-0.45954,0.06274,,,,,,,,,,,,,,,,,,,,,,,,,,0,0,0,0,0
5.1241,1783441341.3842,1,1,2.0000,0.0000,1.42061,0.11279,-2.67409,1.03855,1.56187,0.11659,-0.13237,-0.45955,0.06271,,,,,,,,,,,,,,,,,,,,,,,,,,0,0,0,0,0
5.1245,1783441341.3846,1,1,2.0000,0.0000,1.42061,0.11279,-2.67409,1.03855,1.56187,0.11659,-0.13237,-0.45955,0.06271,,,,,,,,,,,,,,,,,,,,,,,,,,0,0,0,0,0
5.1328,1783441341.3930,1,1,2.0000,0.0000,1.42061,0.11248,-2.67416,1.03893,1.56187,0.11659,-0.13237,-0.45955,0.06261,,,,,,,,,,,,,,,,,,,,,,,,,,0,0,0,0,0
5.1466,1783441341.4068,1,1,2.0000,0.0000,1.42061,0.11190,-2.67430,1.03965,1.56187,0.11658,-0.13237,-0.45956,0.06243,,,,,,,,,,,,,,,,,,,,,,,,,,0,0,0,0,0
5.1563,1783441341.4165,1,1,2.0000,0.0000,1.42061,0.11131,-2.67443,1.04039,1.56187,0.11657,-0.13236,-0.45957,0.06224,,,,,,,,,,,,,,,,,,,,,,,,,,0,0,0,0,0
5.1631,1783441341.4232,1,1,2.0000,0.0000,1.42061,0.11099,-2.67451,1.04078,1.56188,0.11657,-0.13236,-0.45958,0.06214,,,,,,,,,,,,,,,,,,,,,,,,,,0,0,0,0,0
5.1636,1783441341.4238,1,1,2.0000,0.0000,1.42061,0.11099,-2.67451,1.04078,1.56188,0.11657,-0.13236,-0.45958,0.06214,,,,,,,,,,,,,,,,,,,,,,,,,,0,0,0,0,0
5.1738,1783441341.4339,1,1,2.0000,0.0000,1.42061,0.11099,-2.67451,1.04078,1.56188,0.11657,-0.13236,-0.45958,0.06214,,,,,,,,,,,,,,,,,,,,,,,,,,0,0,0,0,0
5.1835,1783441341.4436,1,1,2.0000,0.0000,1.42061,0.11095,-2.67451,1.04085,1.56188,0.11657,-0.13236,-0.45959,0.06214,,,,,,,,,,,,,,,,,,,,,,,,,,0,0,0,0,0
5.1925,1783441341.4527,1,1,2.0000,0.0000,1.42061,0.11090,-2.67450,1.04091,1.56188,0.11657,-0.13236,-0.45960,0.06213,,,,,,,,,,,,,,,,,,,,,,,,,,0,0,0,0,0
5.1930,1783441341.4532,1,1,2.0000,0.0000,1.42061,0.11090,-2.67450,1.04091,1.56188,0.11657,-0.13236,-0.45960,0.06213,,,,,,,,,,,,,,,,,,,,,,,,,,0,0,0,0,0
5.2150,1783441341.4751,1,1,2.0000,0.0000,1.42061,0.11082,-2.67451,1.04102,1.56188,0.11657,-0.13236,-0.45961,0.06211,,,,,,,,,,,,,,,,,,,,,,,,,,0,0,0,0,0
5.2168,1783441341.4770,1,1,2.0000,0.0000,1.42061,0.11080,-2.67452,1.04104,1.56188,0.11657,-0.13236,-0.45961,0.06211,,,,,,,,,,,,,,,,,,,,,,,,,,0,0,0,0,0
5.2229,1783441341.4831,1,1,2.0000,0.0000,1.42061,0.11074,-2.67454,1.04113,1.56188,0.11657,-0.13236,-0.45961,0.06209,,,,,,,,,,,,,,,,,,,,,,,,,,0,0,0,0,0
5.2340,1783441341.4942,1,1,2.0000,0.0000,1.42061,0.11066,-2.67456,1.04124,1.56188,0.11657,-0.13236,-0.45961,0.06206,,,,,,,,,,,,,,,,,,,,,,,,,,0,0,0,0,0
5.2473,1783441341.5075,1,1,2.0000,0.0000,1.42061,0.11057,-2.67459,1.04134,1.56188,0.11657,-0.13236,-0.45961,0.06203,,,,,,,,,,,,,,,,,,,,,,,,,,0,0,0,0,0
5.2526,1783441341.5127,1,1,2.0000,0.0000,1.42061,0.11051,-2.67461,1.04142,1.56188,0.11657,-0.13236,-0.45960,0.06201,,,,,,,,,,,,,,,,,,,,,,,,,,0,0,0,0,0
5.2737,1783441341.5339,1,1,2.0000,0.0000,1.42062,0.11028,-2.67467,1.04170,1.56188,0.11656,-0.13236,-0.45960,0.06193,,,,,,,,,,,,,,,,,,,,,,,,,,0,0,0,0,0
5.2758,1783441341.5360,1,1,2.0000,0.0000,1.42062,0.11016,-2.67470,1.04184,1.56188,0.11656,-0.13236,-0.45960,0.06189,,,,,,,,,,,,,,,,,,,,,,,,,,0,0,0,0,0
5.2762,1783441341.5363,1,1,2.0000,0.0000,1.42062,0.11016,-2.67470,1.04184,1.56188,0.11656,-0.13236,-0.45960,0.06189,,,,,,,,,,,,,,,,,,,,,,,,,,0,0,0,0,0
5.2832,1783441341.5433,1,1,2.0000,0.0000,1.42062,0.10987,-2.67477,1.04220,1.56188,0.11656,-0.13236,-0.45960,0.06180,,,,,,,,,,,,,,,,,,,,,,,,,,0,0,0,0,0
5.2929,1783441341.5530,1,1,2.0000,0.0000,1.42062,0.10970,-2.67481,1.04241,1.56188,0.11656,-0.13236,-0.45960,0.06174,,,,,,,,,,,,,,,,,,,,,,,,,,0,0,0,0,0
5.3251,1783441341.5853,1,1,2.0000,0.0000,1.42062,0.10874,-2.67503,1.04357,1.56188,0.11655,-0.13236,-0.45962,0.06144,,,,,,,,,,,,,,,,,,,,,,,,,,0,0,0,0,0
5.3339,1783441341.5940,1,1,2.0000,0.0000,1.42062,0.10862,-2.67506,1.04371,1.56188,0.11655,-0.13236,-0.45962,0.06140,,,,,,,,,,,,,,,,,,,,,,,,,,0,0,0,0,0
5.4030,1783441341.6632,1,1,2.0000,0.0000,1.42063,0.10606,-2.67565,1.04683,1.56189,0.11653,-0.13235,-0.45965,0.06059,,,,,,,,,,,,,,,,,,,,,,,,,,0,0,0,0,0
5.4036,1783441341.6637,1,1,2.0000,0.0000,1.42063,0.10606,-2.67565,1.04683,1.56189,0.11653,-0.13235,-0.45965,0.06059,,,,,,,,,,,,,,,,,,,,,,,,,,0,0,0,0,0
5.4040,1783441341.6641,1,1,2.0000,0.0000,1.42063,0.10606,-2.67565,1.04683,1.56189,0.11653,-0.13235,-0.45965,0.06059,,,,,,,,,,,,,,,,,,,,,,,,,,0,0,0,0,0
5.4043,1783441341.6645,1,1,2.0000,0.0000,1.42063,0.10606,-2.67565,1.04683,1.56189,0.11653,-0.13235,-0.45965,0.06059,,,,,,,,,,,,,,,,,,,,,,,,,,0,0,0,0,0
5.4049,1783441341.6650,1,1,2.0000,0.0000,1.42063,0.10606,-2.67565,1.04683,1.56189,0.11653,-0.13235,-0.45965,0.06059,,,,,,,,,,,,,,,,,,,,,,,,,,0,0,0,0,0
5.4196,1783441341.6798,1,1,2.0000,0.0000,1.42063,0.10569,-2.67574,1.04729,1.56189,0.11653,-0.13235,-0.45965,0.06047,,,,,,,,,,,,,,,,,,,,,,,,,,0,0,0,0,0
5.4242,1783441341.6844,1,1,2.0000,0.0000,1.42063,0.10565,-2.67575,1.04734,1.56189,0.11653,-0.13235,-0.45966,0.06046,,,,,,,,,,,,,,,,,,,,,,,,,,0,0,0,0,0
5.4359,1783441341.6961,1,1,2.0000,0.0000,1.42063,0.10538,-2.67580,1.04768,1.56189,0.11653,-0.13235,-0.45967,0.06038,,,,,,,,,,,,,,,,,,,,,,,,,,0,0,0,0,0
5.4436,1783441341.7038,1,1,2.0000,0.0000,1.42063,0.10514,-2.67584,1.04799,1.56189,0.11652,-0.13235,-0.45968,0.06031,,,,,,,,,,,,,,,,,,,,,,,,,,0,0,0,0,0
5.4441,1783441341.7042,1,1,2.0000,0.0000,1.42063,0.10514,-2.67584,1.04799,1.56189,0.11652,-0.13235,-0.45968,0.06031,,,,,,,,,,,,,,,,,,,,,,,,,,0,0,0,0,0
5.4554,1783441341.7156,1,1,2.0000,0.0000,1.42063,0.10476,-2.67591,1.04847,1.56189,0.11652,-0.13235,-0.45971,0.06020,,,,,,,,,,,,,,,,,,,,,,,,,,0,0,0,0,0
5.4644,1783441341.7246,1,1,2.0000,0.0000,1.42063,0.10455,-2.67594,1.04873,1.56189,0.11652,-0.13234,-0.45972,0.06015,,,,,,,,,,,,,,,,,,,,,,,,,,0,0,0,0,0
5.4649,1783441341.7250,1,1,2.0000,0.0000,1.42063,0.10455,-2.67594,1.04873,1.56189,0.11652,-0.13234,-0.45972,0.06015,,,,,,,,,,,,,,,,,,,,,,,,,,0,0,0,0,0
5.4757,1783441341.7359,1,1,2.0000,0.0000,1.42063,0.10447,-2.67595,1.04883,1.56189,0.11652,-0.13234,-0.45973,0.06013,,,,,,,,,,,,,,,,,,,,,,,,,,0,0,0,0,0
5.4896,1783441341.7498,1,1,2.0000,0.0000,1.42063,0.10442,-2.67596,1.04890,1.56189,0.11652,-0.13234,-0.45973,0.06011,,,,,,,,,,,,,,,,,,,,,,,,,,0,0,0,0,0
5.4925,1783441341.7526,1,1,2.0000,0.0000,1.42063,0.10439,-2.67598,1.04894,1.56189,0.11652,-0.13234,-0.45973,0.06010,,,,,,,,,,,,,,,,,,,,,,,,,,0,0,0,0,0
5.4929,1783441341.7531,1,1,2.0000,0.0000,1.42063,0.10439,-2.67598,1.04894,1.56189,0.11652,-0.13234,-0.45973,0.06010,,,,,,,,,,,,,,,,,,,,,,,,,,0,0,0,0,0
5.5032,1783441341.7634,1,1,2.0000,0.0000,1.42063,0.10432,-2.67600,1.04904,1.56189,0.11651,-0.13234,-0.45972,0.06008,,,,,,,,,,,,,,,,,,,,,,,,,,0,0,0,0,0
5.5248,1783441341.7849,1,1,2.0000,0.0000,1.42063,0.10412,-2.67607,1.04929,1.56189,0.11651,-0.13234,-0.45971,0.06000,,,,,,,,,,,,,,,,,,,,,,,,,,0,0,0,0,0
5.5252,1783441341.7854,1,1,2.0000,0.0000,1.42063,0.10412,-2.67607,1.04929,1.56189,0.11651,-0.13234,-0.45971,0.06000,,,,,,,,,,,,,,,,,,,,,,,,,,0,0,0,0,0
5.5257,1783441341.7858,1,1,2.0000,0.0000,1.42063,0.10412,-2.67607,1.04929,1.56189,0.11651,-0.13234,-0.45971,0.06000,,,,,,,,,,,,,,,,,,,,,,,,,,0,0,0,0,0
5.5338,1783441341.7939,1,1,2.0000,0.0000,1.42063,0.10404,-2.67609,1.04939,1.56189,0.11651,-0.13235,-0.45971,0.05998,,,,,,,,,,,,,,,,,,,,,,,,,,0,0,0,0,0
5.5503,1783441341.8104,1,1,2.0000,0.0000,1.42064,0.10379,-2.67616,1.04968,1.56189,0.11651,-0.13235,-0.45971,0.05990,,,,,,,,,,,,,,,,,,,,,,,,,,0,0,0,0,0
5.5559,1783441341.8160,1,1,2.0000,0.0000,1.42064,0.10353,-2.67622,1.05000,1.56189,0.11651,-0.13235,-0.45971,0.05981,,,,,,,,,,,,,,,,,,,,,,,,,,0,0,0,0,0
5.5658,1783441341.8259,1,1,2.0000,0.0000,1.42064,0.10338,-2.67626,1.05019,1.56189,0.11651,-0.13235,-0.45971,0.05976,,,,,,,,,,,,,,,,,,,,,,,,,,0,0,0,0,0
5.5802,1783441341.8404,1,1,2.0000,0.0000,1.42064,0.10304,-2.67634,1.05060,1.56189,0.11651,-0.13235,-0.45971,0.05965,,,,,,,,,,,,,,,,,,,,,,,,,,0,0,0,0,0
5.5806,1783441341.8408,1,1,2.0000,0.0000,1.42064,0.10304,-2.67634,1.05060,1.56189,0.11651,-0.13235,-0.45971,0.05965,,,,,,,,,,,,,,,,,,,,,,,,,,0,0,0,0,0
5.5834,1783441341.8436,1,1,2.0000,0.0000,1.42064,0.10287,-2.67638,1.05080,1.56189,0.11650,-0.13235,-0.45971,0.05960,,,,,,,,,,,,,,,,,,,,,,,,,,0,0,0,0,0
5.5956,1783441341.8558,1,1,2.0000,0.0000,1.42064,0.10247,-2.67647,1.05130,1.56189,0.11650,-0.13235,-0.45971,0.05947,,,,,,,,,,,,,,,,,,,,,,,,,,0,0,0,0,0
5.6028,1783441341.8630,1,1,2.0000,0.0000,1.42064,0.10235,-2.67650,1.05143,1.56189,0.11650,-0.13235,-0.45972,0.05943,,,,,,,,,,,,,,,,,,,,,,,,,,0,0,0,0,0
5.6031,1783441341.8632,1,1,2.0000,0.0000,1.42064,0.10235,-2.67650,1.05143,1.56189,0.11650,-0.13235,-0.45972,0.05943,,,,,,,,,,,,,,,,,,,,,,,,,,0,0,0,0,0
5.6136,1783441341.8737,1,1,2.0000,0.0000,1.42064,0.10205,-2.67657,1.05180,1.56189,0.11650,-0.13234,-0.45972,0.05934,,,,,,,,,,,,,,,,,,,,,,,,,,0,0,0,0,0
5.6141,1783441341.8743,1,1,2.0000,0.0000,1.42064,0.10205,-2.67657,1.05180,1.56189,0.11650,-0.13234,-0.45972,0.05934,,,,,,,,,,,,,,,,,,,,,,,,,,0,0,0,0,0
5.6229,1783441341.8831,1,1,2.0000,0.0000,1.42064,0.10181,-2.67662,1.05209,1.56189,0.11650,-0.13234,-0.45972,0.05926,,,,,,,,,,,,,,,,,,,,,,,,,,0,0,0,0,0
5.6233,1783441341.8835,1,1,2.0000,0.0000,1.42064,0.10181,-2.67662,1.05209,1.56189,0.11650,-0.13234,-0.45972,0.05926,,,,,,,,,,,,,,,,,,,,,,,,,,0,0,0,0,0
5.6328,1783441341.8930,1,1,2.0000,0.0000,1.42064,0.10155,-2.67668,1.05240,1.56189,0.11650,-0.13234,-0.45972,0.05918,,,,,,,,,,,,,,,,,,,,,,,,,,0,0,0,0,0
5.6432,1783441341.9034,1,1,2.0000,0.0000,1.42064,0.10085,-2.67684,1.05325,1.56190,0.11649,-0.13234,-0.45973,0.05896,,,,,,,,,,,,,,,,,,,,,,,,,,0,0,0,0,0
5.6539,1783441341.9140,1,1,2.0000,0.0000,1.42064,0.10056,-2.67691,1.05359,1.56190,0.11649,-0.13234,-0.45973,0.05887,,,,,,,,,,,,,,,,,,,,,,,,,,0,0,0,0,0
5.6634,1783441341.9236,1,1,2.0000,0.0000,1.42065,0.10035,-2.67695,1.05385,1.56190,0.11649,-0.13234,-0.45974,0.05880,,,,,,,,,,,,,,,,,,,,,,,,,,0,0,0,0,0
5.6727,1783441341.9328,1,1,2.0000,0.0000,1.42065,0.10002,-2.67703,1.05425,1.56190,0.11648,-0.13234,-0.45974,0.05870,,,,,,,,,,,,,,,,,,,,,,,,,,0,0,0,0,0
5.6835,1783441341.9437,1,1,2.0000,0.0000,1.42065,0.09939,-2.67717,1.05502,1.56190,0.11648,-0.13234,-0.45975,0.05850,,,,,,,,,,,,,,,,,,,,,,,,,,0,0,0,0,0
5.6926,1783441341.9527,1,1,2.0000,0.0000,1.42065,0.09938,-2.67717,1.05505,1.56190,0.11648,-0.13234,-0.45975,0.05850,,,,,,,,,,,,,,,,,,,,,,,,,,0,0,0,0,0
5.7070,1783441341.9672,1,1,2.0000,0.0000,1.42065,0.09906,-2.67724,1.05544,1.56190,0.11647,-0.13234,-0.45976,0.05840,,,,,,,,,,,,,,,,,,,,,,,,,,0,0,0,0,0
5.7151,1783441341.9752,1,1,2.0000,0.0000,1.42065,0.09880,-2.67729,1.05576,1.56190,0.11647,-0.13234,-0.45977,0.05833,,,,,,,,,,,,,,,,,,,,,,,,,,0,0,0,0,0
5.7289,1783441341.9891,1,1,2.0000,0.0000,1.42065,0.09841,-2.67736,1.05625,1.56190,0.11647,-0.13234,-0.45979,0.05821,,,,,,,,,,,,,,,,,,,,,,,,,,0,0,0,0,0
5.7325,1783441341.9927,1,1,2.0000,0.0000,1.42065,0.09829,-2.67738,1.05640,1.56190,0.11647,-0.13233,-0.45980,0.05818,,,,,,,,,,,,,,,,,,,,,,,,,,0,0,0,0,0
5.7330,1783441341.9932,1,1,2.0000,0.0000,1.42065,0.09829,-2.67738,1.05640,1.56190,0.11647,-0.13233,-0.45980,0.05818,,,,,,,,,,,,,,,,,,,,,,,,,,0,0,0,0,0
5.7435,1783441342.0036,1,1,2.0000,0.0000,1.42065,0.09810,-2.67742,1.05664,1.56190,0.11646,-0.13233,-0.45981,0.05813,,,,,,,,,,,,,,,,,,,,,,,,,,0,0,0,0,0
5.7537,1783441342.0138,1,1,2.0000,0.0000,1.42065,0.09809,-2.67742,1.05666,1.56190,0.11646,-0.13233,-0.45981,0.05812,,,,,,,,,,,,,,,,,,,,,,,,,,0,0,0,0,0
5.7647,1783441342.0249,1,1,2.0000,0.0000,1.42065,0.09803,-2.67743,1.05674,1.56190,0.11646,-0.13233,-0.45982,0.05811,,,,,,,,,,,,,,,,,,,,,,,,,,0,0,0,0,0
5.7781,1783441342.0382,1,1,2.0000,0.0000,1.42065,0.09797,-2.67744,1.05682,1.56190,0.11646,-0.13233,-0.45982,0.05809,,,,,,,,,,,,,,,,,,,,,,,,,,0,0,0,0,0
5.7853,1783441342.0455,1,1,2.0000,0.0000,1.42065,0.09794,-2.67745,1.05686,1.56190,0.11646,-0.13233,-0.45982,0.05808,,,,,,,,,,,,,,,,,,,,,,,,,,0,0,0,0,0
5.7938,1783441342.0540,1,1,2.0000,0.0000,1.42065,0.09786,-2.67748,1.05696,1.56190,0.11646,-0.13233,-0.45981,0.05805,,,,,,,,,,,,,,,,,,,,,,,,,,0,0,0,0,0
5.8101,1783441342.0703,1,1,2.0000,0.0000,1.42065,0.09774,-2.67752,1.05710,1.56190,0.11646,-0.13233,-0.45981,0.05801,,,,,,,,,,,,,,,,,,,,,,,,,,0,0,0,0,0
5.8188,1783441342.0790,1,1,2.0000,0.0000,1.42066,0.09746,-2.67759,1.05744,1.56190,0.11646,-0.13233,-0.45980,0.05792,,,,,,,,,,,,,,,,,,,,,,,,,,0,0,0,0,0
5.8243,1783441342.0844,1,1,2.0000,0.0000,1.42066,0.09733,-2.67762,1.05760,1.56190,0.11646,-0.13233,-0.45980,0.05787,,,,,,,,,,,,,,,,,,,,,,,,,,0,0,0,0,0
5.8348,1783441342.0950,1,1,2.0000,0.0000,1.42066,0.09716,-2.67767,1.05780,1.56190,0.11646,-0.13233,-0.45980,0.05782,,,,,,,,,,,,,,,,,,,,,,,,,,0,0,0,0,0
5.8743,1783441342.1344,1,1,2.0000,0.0000,1.42066,0.09621,-2.67788,1.05895,1.56191,0.11645,-0.13233,-0.45981,0.05752,,,,,,,,,,,,,,,,,,,,,,,,,,0,0,0,0,0
5.8750,1783441342.1352,1,1,2.0000,0.0000,1.42066,0.09608,-2.67791,1.05910,1.56191,0.11645,-0.13233,-0.45981,0.05748,,,,,,,,,,,,,,,,,,,,,,,,,,0,0,0,0,0
5.8858,1783441342.1460,1,1,2.0000,0.0000,1.42066,0.09571,-2.67799,1.05955,1.56191,0.11645,-0.13233,-0.45981,0.05736,,,,,,,,,,,,,,,,,,,,,,,,,,0,0,0,0,0
5.8862,1783441342.1464,1,1,2.0000,0.0000,1.42066,0.09571,-2.67799,1.05955,1.56191,0.11645,-0.13233,-0.45981,0.05736,,,,,,,,,,,,,,,,,,,,,,,,,,0,0,0,0,0
5.8907,1783441342.1508,1,1,2.0000,0.0000,1.42066,0.09567,-2.67800,1.05960,1.56191,0.11645,-0.13233,-0.45981,0.05735,,,,,,,,,,,,,,,,,,,,,,,,,,0,0,0,0,0
5.8912,1783441342.1514,1,1,2.0000,0.0000,1.42066,0.09567,-2.67800,1.05960,1.56191,0.11645,-0.13233,-0.45981,0.05735,,,,,,,,,,,,,,,,,,,,,,,,,,0,0,0,0,0
5.8983,1783441342.1585,1,1,2.0000,0.0000,1.42066,0.09557,-2.67802,1.05972,1.56191,0.11645,-0.13233,-0.45982,0.05732,,,,,,,,,,,,,,,,,,,,,,,,,,0,0,0,0,0
5.8989,1783441342.1591,1,1,2.0000,0.0000,1.42066,0.09541,-2.67806,1.05991,1.56191,0.11645,-0.13233,-0.45982,0.05727,,,,,,,,,,,,,,,,,,,,,,,,,,0,0,0,0,0
5.9032,1783441342.1634,1,1,2.0000,0.0000,1.42066,0.09520,-2.67810,1.06017,1.56191,0.11644,-0.13233,-0.45982,0.05720,,,,,,,,,,,,,,,,,,,,,,,,,,0,0,0,0,0
5.9128,1783441342.1730,1,1,2.0000,0.0000,1.42066,0.09468,-2.67822,1.06080,1.56191,0.11644,-0.13233,-0.45982,0.05704,,,,,,,,,,,,,,,,,,,,,,,,,,0,0,0,0,0
5.9310,1783441342.1911,1,1,2.0000,0.0000,1.42067,0.09398,-2.67838,1.06164,1.56191,0.11644,-0.13233,-0.45983,0.05682,,,,,,,,,,,,,,,,,,,,,,,,,,0,0,0,0,0
5.9313,1783441342.1914,1,1,2.0000,0.0000,1.42067,0.09398,-2.67838,1.06164,1.56191,0.11644,-0.13233,-0.45983,0.05682,,,,,,,,,,,,,,,,,,,,,,,,,,0,0,0,0,0
5.9340,1783441342.1942,1,1,2.0000,0.0000,1.42067,0.09398,-2.67838,1.06164,1.56191,0.11644,-0.13233,-0.45983,0.05682,,,,,,,,,,,,,,,,,,,,,,,,,,0,0,0,0,0
5.9995,1783441342.2597,1,1,2.0000,0.0000,1.42067,0.09190,-2.67882,1.06422,1.56191,0.11642,-0.13232,-0.45988,0.05619,,,,,,,,,,,,,,,,,,,,,,,,,,0,0,0,0,0
6.0000,1783441342.2602,1,1,2.0000,0.0000,1.42067,0.09190,-2.67882,1.06422,1.56191,0.11642,-0.13232,-0.45988,0.05619,,,,,,,,,,,,,,,,,,,,,,,,,,0,0,0,0,0
