Martins-Lucaas/twinforge/sensors/Data/20260704_155409__samples.csv
t_rel_s,t_unix,cycle,phase,setpoint_n,force_net_n,q1,q2,q3,q4,q5,q6,tcp_x,tcp_y,tcp_z,taxel_0,taxel_1,taxel_2,taxel_3,taxel_4,taxel_5,taxel_6,taxel_7,taxel_8,taxel_9,taxel_10,taxel_11,taxel_12,taxel_13,taxel_14,taxel_15,taxel_16,taxel_17,taxel_18,taxel_19,taxel_20,taxel_21,taxel_22,taxel_23,taxel_24,n_RA,n_SA,cn_mm,cn_ra,cn_sa
0.0030,1783191249.4077,1,0,1.0000,0.0000,1.44682,0.23328,-2.77748,0.97337,1.57080,-0.00000,-0.14512,-0.38003,0.04653,,,,,,,,,,,,,,,,,,,,,,,,,,0,0,0,0,0
0.0178,1783191249.4225,1,0,1.0000,0.0000,1.44682,0.23328,-2.77748,0.97337,1.57080,0.00000,-0.14512,-0.38003,0.04653,,,,,,,,,,,,,,,,,,,,,,,,,,0,0,0,0,0
0.0264,1783191249.4312,1,0,1.0000,0.0000,1.44682,0.23328,-2.77748,0.97337,1.57080,0.00000,-0.14512,-0.38003,0.04653,,,,,,,,,,,,,,,,,,,,,,,,,,0,0,0,0,0
0.0360,1783191249.4407,1,0,1.0000,0.0000,1.44682,0.23328,-2.77748,0.97337,1.57080,0.00000,-0.14512,-0.38003,0.04653,,,,,,,,,,,,,,,,,,,,,,,,,,0,0,0,0,0
0.0524,1783191249.4572,1,0,1.0000,0.0000,1.44682,0.23328,-2.77748,0.97337,1.57080,0.00000,-0.14512,-0.38003,0.04653,,,,,,,,,,,,,,,,,,,,,,,,,,0,0,0,0,0
0.0559,1783191249.4607,1,0,1.0000,0.0000,1.44682,0.23328,-2.77748,0.97337,1.57080,0.00000,-0.14512,-0.38003,0.04653,,,,,,,,,,,,,,,,,,,,,,,,,,0,0,0,0,0
0.0722,1783191249.4769,1,0,1.0000,0.0000,1.44682,0.23328,-2.77748,0.97337,1.57080,-0.00000,-0.14512,-0.38003,0.04653,,,,,,,,,,,,,,,,,,,,,,,,,,0,0,0,0,0
0.0763,1783191249.4811,1,0,1.0000,0.0000,1.44682,0.23328,-2.77748,0.97337,1.57080,-0.00000,-0.14512,-0.38003,0.04653,,,,,,,,,,,,,,,,,,,,,,,,,,0,0,0,0,0
0.0765,1783191249.4813,1,0,1.0000,0.0000,1.44682,0.23328,-2.77748,0.97337,1.57080,-0.00000,-0.14512,-0.38003,0.04653,,,,,,,,,,,,,,,,,,,,,,,,,,0,0,0,0,0
0.0856,1783191249.4903,1,0,1.0000,0.0000,1.44682,0.23328,-2.77748,0.97337,1.57080,-0.00000,-0.14512,-0.38003,0.04653,,,,,,,,,,,,,,,,,,,,,,,,,,0,0,0,0,0
0.0859,1783191249.4906,1,0,1.0000,0.0000,1.44682,0.23328,-2.77748,0.97337,1.57080,-0.00000,-0.14512,-0.38003,0.04653,,,,,,,,,,,,,,,,,,,,,,,,,,0,0,0,0,0
0.1804,1783191249.5852,1,0,1.0000,0.0000,1.44682,0.23328,-2.77748,0.97337,1.57080,0.00000,-0.14512,-0.38003,0.04653,,,,,,,,,,,,,,,,,,,,,,,,,,0,0,0,0,0
0.1807,1783191249.5855,1,0,1.0000,0.0000,1.44682,0.23328,-2.77748,0.97337,1.57080,0.00000,-0.14512,-0.38003,0.04653,,,,,,,,,,,,,,,,,,,,,,,,,,0,0,0,0,0
0.1812,1783191249.5859,1,0,1.0000,0.0000,1.44682,0.23328,-2.77748,0.97337,1.57080,0.00000,-0.14512,-0.38003,0.04653,,,,,,,,,,,,,,,,,,,,,,,,,,0,0,0,0,0
0.1816,1783191249.5863,1,0,1.0000,0.0000,1.44682,0.23328,-2.77748,0.97337,1.57080,0.00000,-0.14512,-0.38003,0.04653,,,,,,,,,,,,,,,,,,,,,,,,,,0,0,0,0,0
0.1867,1783191249.5915,1,0,1.0000,0.0000,1.44682,0.23328,-2.77748,0.97337,1.57080,0.00000,-0.14512,-0.38003,0.04653,,,,,,,,,,,,,,,,,,,,,,,,,,0,0,0,0,0
0.1873,1783191249.5920,1,0,1.0000,0.0000,1.44682,0.23328,-2.77748,0.97337,1.57080,0.00000,-0.14512,-0.38003,0.04653,,,,,,,,,,,,,,,,,,,,,,,,,,0,0,0,0,0
0.1956,1783191249.6003,1,0,1.0000,0.0000,1.44682,0.23328,-2.77748,0.97337,1.57080,0.00000,-0.14512,-0.38003,0.04653,,,,,,,,,,,,,,,,,,,,,,,,,,0,0,0,0,0
0.2124,1783191249.6172,1,0,1.0000,0.0000,1.44682,0.23328,-2.77748,0.97337,1.57080,0.00000,-0.14512,-0.38003,0.04653,,,,,,,,,,,,,,,,,,,,,,,,,,0,0,0,0,0
0.2410,1783191249.6457,1,0,1.0000,0.0000,1.44682,0.23328,-2.77748,0.97337,1.57080,0.00000,-0.14512,-0.38003,0.04653,,,,,,,,,,,,,,,,,,,,,,,,,,0,0,0,0,0
0.2413,1783191249.6461,1,0,1.0000,0.0000,1.44682,0.23328,-2.77748,0.97337,1.57080,0.00000,-0.14512,-0.38003,0.04653,,,,,,,,,,,,,,,,,,,,,,,,,,0,0,0,0,0
0.2415,1783191249.6463,1,0,1.0000,0.0000,1.44682,0.23328,-2.77748,0.97337,1.57080,0.00000,-0.14512,-0.38003,0.04653,,,,,,,,,,,,,,,,,,,,,,,,,,0,0,0,0,0
0.2512,1783191249.6559,1,0,1.0000,0.0000,1.44682,0.23328,-2.77748,0.97337,1.57080,0.00000,-0.14512,-0.38003,0.04653,,,,,,,,,,,,,,,,,,,,,,,,,,0,0,0,0,0
0.2515,1783191249.6562,1,0,1.0000,0.0000,1.44682,0.23328,-2.77748,0.97337,1.57080,0.00000,-0.14512,-0.38003,0.04653,,,,,,,,,,,,,,,,,,,,,,,,,,0,0,0,0,0
0.2785,1783191249.6832,1,0,1.0000,0.0000,1.44682,0.23328,-2.77748,0.97337,1.57080,0.00000,-0.14512,-0.38003,0.04653,,,,,,,,,,,,,,,,,,,,,,,,,,0,0,0,0,0
0.2788,1783191249.6836,1,0,1.0000,0.0000,1.44682,0.23328,-2.77748,0.97337,1.57080,0.00000,-0.14512,-0.38003,0.04653,,,,,,,,,,,,,,,,,,,,,,,,,,0,0,0,0,0
0.2791,1783191249.6839,1,0,1.0000,0.0000,1.44682,0.23328,-2.77748,0.97337,1.57080,0.00000,-0.14512,-0.38003,0.04653,,,,,,,,,,,,,,,,,,,,,,,,,,0,0,0,0,0
0.2911,1783191249.6958,1,0,1.0000,0.0000,1.44682,0.23328,-2.77748,0.97337,1.57080,0.00000,-0.14512,-0.38003,0.04653,,,,,,,,,,,,,,,,,,,,,,,,,,0,0,0,0,0
0.2980,1783191249.7027,1,0,1.0000,0.0000,1.44682,0.23328,-2.77748,0.97337,1.57080,0.00000,-0.14512,-0.38003,0.04653,,,,,,,,,,,,,,,,,,,,,,,,,,0,0,0,0,0
0.2984,1783191249.7031,1,0,1.0000,0.0000,1.44682,0.23328,-2.77748,0.97337,1.57080,0.00000,-0.14512,-0.38003,0.04653,,,,,,,,,,,,,,,,,,,,,,,,,,0,0,0,0,0
0.3094,1783191249.7141,1,0,1.0000,0.0000,1.44682,0.23328,-2.77748,0.97337,1.57080,0.00000,-0.14512,-0.38003,0.04653,,,,,,,,,,,,,,,,,,,,,,,,,,0,0,0,0,0
0.3096,1783191249.7144,1,0,1.0000,0.0000,1.44682,0.23328,-2.77748,0.97337,1.57080,0.00000,-0.14512,-0.38003,0.04653,,,,,,,,,,,,,,,,,,,,,,,,,,0,0,0,0,0
0.3221,1783191249.7269,1,0,1.0000,0.0000,1.44682,0.23328,-2.77748,0.97337,1.57080,0.00000,-0.14512,-0.38003,0.04653,,,,,,,,,,,,,,,,,,,,,,,,,,0,0,0,0,0
0.3268,1783191249.7315,1,0,1.0000,0.0000,1.44682,0.23328,-2.77748,0.97337,1.57080,0.00000,-0.14512,-0.38003,0.04653,,,,,,,,,,,,,,,,,,,,,,,,,,0,0,0,0,0
0.3272,1783191249.7319,1,0,1.0000,0.0000,1.44682,0.23328,-2.77748,0.97337,1.57080,0.00000,-0.14512,-0.38003,0.04653,,,,,,,,,,,,,,,,,,,,,,,,,,0,0,0,0,0
0.3390,1783191249.7438,1,0,1.0000,0.0000,1.44682,0.23328,-2.77748,0.97337,1.57080,0.00000,-0.14512,-0.38003,0.04653,,,,,,,,,,,,,,,,,,,,,,,,,,0,0,0,0,0
0.3566,1783191249.7614,1,0,1.0000,0.0000,1.44682,0.23328,-2.77748,0.97337,1.57080,0.00000,-0.14512,-0.38003,0.04653,,,,,,,,,,,,,,,,,,,,,,,,,,0,0,0,0,0
0.3570,1783191249.7617,1,0,1.0000,0.0000,1.44682,0.23328,-2.77748,0.97337,1.57080,0.00000,-0.14512,-0.38003,0.04653,,,,,,,,,,,,,,,,,,,,,,,,,,0,0,0,0,0
0.3823,1783191249.7870,1,0,1.0000,0.0000,1.44682,0.23328,-2.77748,0.97337,1.57080,0.00000,-0.14512,-0.38003,0.04653,,,,,,,,,,,,,,,,,,,,,,,,,,0,0,0,0,0
0.3826,1783191249.7873,1,0,1.0000,0.0000,1.44682,0.23328,-2.77748,0.97337,1.57080,0.00000,-0.14512,-0.38003,0.04653,,,,,,,,,,,,,,,,,,,,,,,,,,0,0,0,0,0
0.3922,1783191249.7970,1,0,1.0000,0.0000,1.44682,0.23328,-2.77748,0.97337,1.57080,0.00000,-0.14512,-0.38003,0.04653,,,,,,,,,,,,,,,,,,,,,,,,,,0,0,0,0,0
0.3980,1783191249.8027,1,0,1.0000,0.0000,1.44682,0.23328,-2.77748,0.97337,1.57080,0.00000,-0.14512,-0.38003,0.04653,,,,,,,,,,,,,,,,,,,,,,,,,,0,0,0,0,0
0.4091,1783191249.8138,1,0,1.0000,0.0000,1.44682,0.23328,-2.77748,0.97337,1.57080,0.00000,-0.14512,-0.38003,0.04653,,,,,,,,,,,,,,,,,,,,,,,,,,0,0,0,0,0
0.4165,1783191249.8212,1,0,1.0000,0.0000,1.44682,0.23328,-2.77748,0.97337,1.57080,0.00000,-0.14512,-0.38003,0.04653,,,,,,,,,,,,,,,,,,,,,,,,,,0,0,0,0,0
0.4169,1783191249.8216,1,0,1.0000,0.0000,1.44682,0.23328,-2.77748,0.97337,1.57080,0.00000,-0.14512,-0.38003,0.04653,,,,,,,,,,,,,,,,,,,,,,,,,,0,0,0,0,0
0.4285,1783191249.8332,1,0,1.0000,0.0000,1.44682,0.23328,-2.77748,0.97337,1.57080,0.00000,-0.14512,-0.38003,0.04653,,,,,,,,,,,,,,,,,,,,,,,,,,0,0,0,0,0
0.4402,1783191249.8449,1,0,1.0000,0.0000,1.44682,0.23328,-2.77748,0.97337,1.57080,0.00000,-0.14512,-0.38003,0.04653,,,,,,,,,,,,,,,,,,,,,,,,,,0,0,0,0,0
0.4456,1783191249.8503,1,0,1.0000,0.0000,1.44682,0.23328,-2.77748,0.97337,1.57080,0.00000,-0.14512,-0.38003,0.04653,,,,,,,,,,,,,,,,,,,,,,,,,,0,0,0,0,0
0.4459,1783191249.8506,1,0,1.0000,0.0000,1.44682,0.23328,-2.77748,0.97337,1.57080,0.00000,-0.14512,-0.38003,0.04653,,,,,,,,,,,,,,,,,,,,,,,,,,0,0,0,0,0
0.4588,1783191249.8635,1,0,1.0000,0.0000,1.44682,0.23328,-2.77748,0.97337,1.57080,0.00000,-0.14512,-0.38003,0.04653,,,,,,,,,,,,,,,,,,,,,,,,,,0,0,0,0,0
0.4677,1783191249.8724,1,0,1.0000,0.0000,1.44682,0.23328,-2.77748,0.97337,1.57080,0.00000,-0.14512,-0.38003,0.04653,,,,,,,,,,,,,,,,,,,,,,,,,,0,0,0,0,0
0.4683,1783191249.8730,1,0,1.0000,0.0000,1.44682,0.23328,-2.77748,0.97337,1.57080,0.00000,-0.14512,-0.38003,0.04653,,,,,,,,,,,,,,,,,,,,,,,,,,0,0,0,0,0
0.4804,1783191249.8851,1,0,1.0000,0.0000,1.44682,0.23328,-2.77748,0.97337,1.57080,0.00000,-0.14512,-0.38003,0.04653,,,,,,,,,,,,,,,,,,,,,,,,,,0,0,0,0,0
0.4857,1783191249.8905,1,0,1.0000,0.0000,1.44682,0.23328,-2.77748,0.97337,1.57080,0.00000,-0.14512,-0.38003,0.04653,,,,,,,,,,,,,,,,,,,,,,,,,,0,0,0,0,0
0.4982,1783191249.9029,1,0,1.0000,0.0000,1.44682,0.23328,-2.77748,0.97337,1.57080,0.00000,-0.14512,-0.38003,0.04653,,,,,,,,,,,,,,,,,,,,,,,,,,0,0,0,0,0
0.5092,1783191249.9140,1,0,1.0000,0.0000,1.44682,0.23328,-2.77748,0.97337,1.57080,0.00000,-0.14512,-0.38003,0.04653,,,,,,,,,,,,,,,,,,,,,,,,,,0,0,0,0,0
0.5096,1783191249.9143,1,0,1.0000,0.0000,1.44682,0.23328,-2.77748,0.97337,1.57080,0.00000,-0.14512,-0.38003,0.04653,,,,,,,,,,,,,,,,,,,,,,,,,,0,0,0,0,0
0.5175,1783191249.9223,1,0,1.0000,0.0000,1.44682,0.23328,-2.77748,0.97337,1.57080,0.00000,-0.14512,-0.38003,0.04653,,,,,,,,,,,,,,,,,,,,,,,,,,0,0,0,0,0
0.5273,1783191249.9321,1,0,1.0000,0.0000,1.44682,0.23328,-2.77748,0.97337,1.57080,0.00000,-0.14512,-0.38003,0.04653,,,,,,,,,,,,,,,,,,,,,,,,,,0,0,0,0,0
0.5366,1783191249.9413,1,0,1.0000,0.0000,1.44682,0.23328,-2.77748,0.97337,1.57080,0.00000,-0.14512,-0.38003,0.04653,,,,,,,,,,,,,,,,,,,,,,,,,,0,0,0,0,0
0.5456,1783191249.9503,1,0,1.0000,0.0000,1.44682,0.23328,-2.77748,0.97337,1.57080,0.00000,-0.14512,-0.38003,0.04653,,,,,,,,,,,,,,,,,,,,,,,,,,0,0,0,0,0
0.5566,1783191249.9613,1,0,1.0000,0.0000,1.44682,0.23328,-2.77748,0.97337,1.57080,0.00000,-0.14512,-0.38003,0.04653,,,,,,,,,,,,,,,,,,,,,,,,,,0,0,0,0,0
0.5570,1783191249.9617,1,0,1.0000,0.0000,1.44682,0.23328,-2.77748,0.97337,1.57080,0.00000,-0.14512,-0.38003,0.04653,,,,,,,,,,,,,,,,,,,,,,,,,,0,0,0,0,0
0.5656,1783191249.9703,1,0,1.0000,0.0000,1.44682,0.23328,-2.77748,0.97337,1.57080,0.00000,-0.14512,-0.38003,0.04653,,,,,,,,,,,,,,,,,,,,,,,,,,0,0,0,0,0
0.5659,1783191249.9706,1,0,1.0000,0.0000,1.44682,0.23328,-2.77748,0.97337,1.57080,0.00000,-0.14512,-0.38003,0.04653,,,,,,,,,,,,,,,,,,,,,,,,,,0,0,0,0,0
0.5764,1783191249.9811,1,0,1.0000,0.0000,1.44682,0.23328,-2.77748,0.97337,1.57080,0.00000,-0.14512,-0.38003,0.04653,,,,,,,,,,,,,,,,,,,,,,,,,,0,0,0,0,0
0.5865,1783191249.9913,1,0,1.0000,0.0000,1.44682,0.23328,-2.77748,0.97337,1.57080,0.00000,-0.14512,-0.38003,0.04653,,,,,,,,,,,,,,,,,,,,,,,,,,0,0,0,0,0
0.6004,1783191250.0051,1,0,1.0000,0.0000,1.44682,0.23328,-2.77748,0.97337,1.57080,0.00000,-0.14512,-0.38003,0.04653,,,,,,,,,,,,,,,,,,,,,,,,,,0,0,0,0,0
0.6069,1783191250.0116,1,0,1.0000,0.0000,1.44682,0.23328,-2.77748,0.97337,1.57080,0.00000,-0.14512,-0.38003,0.04653,,,,,,,,,,,,,,,,,,,,,,,,,,0,0,0,0,0
0.6072,1783191250.0119,1,0,1.0000,0.0000,1.44682,0.23328,-2.77748,0.97337,1.57080,0.00000,-0.14512,-0.38003,0.04653,,,,,,,,,,,,,,,,,,,,,,,,,,0,0,0,0,0
0.6169,1783191250.0216,1,0,1.0000,0.0000,1.44682,0.23328,-2.77748,0.97337,1.57080,0.00000,-0.14512,-0.38003,0.04653,,,,,,,,,,,,,,,,,,,,,,,,,,0,0,0,0,0
0.6297,1783191250.0344,1,0,1.0000,0.0000,1.44682,0.23328,-2.77748,0.97337,1.57080,0.00000,-0.14512,-0.38003,0.04653,,,,,,,,,,,,,,,,,,,,,,,,,,0,0,0,0,0
0.6390,1783191250.0437,1,0,1.0000,0.0000,1.44682,0.23328,-2.77748,0.97337,1.57080,0.00000,-0.14512,-0.38003,0.04653,,,,,,,,,,,,,,,,,,,,,,,,,,0,0,0,0,0
0.6463,1783191250.0511,1,0,1.0000,0.0000,1.44682,0.23328,-2.77748,0.97337,1.57080,0.00000,-0.14512,-0.38003,0.04653,,,,,,,,,,,,,,,,,,,,,,,,,,0,0,0,0,0
0.6468,1783191250.0515,1,0,1.0000,0.0000,1.44682,0.23328,-2.77748,0.97337,1.57080,0.00000,-0.14512,-0.38003,0.04653,,,,,,,,,,,,,,,,,,,,,,,,,,0,0,0,0,0
0.6559,1783191250.0606,1,0,1.0000,0.0000,1.44682,0.23328,-2.77748,0.97337,1.57080,0.00000,-0.14512,-0.38003,0.04653,,,,,,,,,,,,,,,,,,,,,,,,,,0,0,0,0,0
0.6699,1783191250.0747,1,0,1.0000,0.0000,1.44682,0.23328,-2.77748,0.97337,1.57080,0.00000,-0.14512,-0.38003,0.04653,,,,,,,,,,,,,,,,,,,,,,,,,,0,0,0,0,0
0.6803,1783191250.0851,1,0,1.0000,0.0000,1.44682,0.23328,-2.77748,0.97337,1.57080,0.00000,-0.14512,-0.38003,0.04653,,,,,,,,,,,,,,,,,,,,,,,,,,0,0,0,0,0
0.6807,1783191250.0854,1,0,1.0000,0.0000,1.44682,0.23328,-2.77748,0.97337,1.57080,0.00000,-0.14512,-0.38003,0.04653,,,,,,,,,,,,,,,,,,,,,,,,,,0,0,0,0,0
0.6878,1783191250.0926,1,0,1.0000,0.0000,1.44682,0.23328,-2.77748,0.97337,1.57080,0.00000,-0.14512,-0.38003,0.04653,,,,,,,,,,,,,,,,,,,,,,,,,,0,0,0,0,0
0.6886,1783191250.0933,1,0,1.0000,0.0000,1.44682,0.23328,-2.77748,0.97337,1.57080,0.00000,-0.14512,-0.38003,0.04653,,,,,,,,,,,,,,,,,,,,,,,,,,0,0,0,0,0
0.7002,1783191250.1049,1,0,1.0000,0.0000,1.44682,0.23328,-2.77748,0.97337,1.57080,0.00000,-0.14512,-0.38003,0.04653,,,,,,,,,,,,,,,,,,,,,,,,,,0,0,0,0,0
0.7060,1783191250.1108,1,0,1.0000,0.0000,1.44682,0.23328,-2.77748,0.97337,1.57080,0.00000,-0.14512,-0.38003,0.04653,,,,,,,,,,,,,,,,,,,,,,,,,,0,0,0,0,0
0.7165,1783191250.1212,1,0,1.0000,0.0000,1.44682,0.23328,-2.77748,0.97337,1.57080,0.00000,-0.14512,-0.38003,0.04653,,,,,,,,,,,,,,,,,,,,,,,,,,0,0,0,0,0
0.7169,1783191250.1216,1,0,1.0000,0.0000,1.44682,0.23328,-2.77748,0.97337,1.57080,0.00000,-0.14512,-0.38003,0.04653,,,,,,,,,,,,,,,,,,,,,,,,,,0,0,0,0,0
0.7327,1783191250.1374,1,1,1.0000,0.0000,1.44682,0.23328,-2.77748,0.97337,1.57080,0.00000,-0.14512,-0.38003,0.04653,,,,,,,,,,,,,,,,,,,,,,,,,,0,0,0,0,0
0.7330,1783191250.1377,1,1,1.0000,0.0000,1.44682,0.23328,-2.77748,0.97337,1.57080,0.00000,-0.14512,-0.38003,0.04653,,,,,,,,,,,,,,,,,,,,,,,,,,0,0,0,0,0
0.7416,1783191250.1463,1,1,1.0000,0.0000,1.44682,0.23328,-2.77748,0.97337,1.57080,0.00000,-0.14512,-0.38003,0.04653,,,,,,,,,,,,,,,,,,,,,,,,,,0,0,0,0,0
0.7419,1783191250.1466,1,1,1.0000,0.0000,1.44682,0.23328,-2.77748,0.97337,1.57080,0.00000,-0.14512,-0.38003,0.04653,,,,,,,,,,,,,,,,,,,,,,,,,,0,0,0,0,0
0.7476,1783191250.1524,1,1,1.0000,0.0000,1.44682,0.23328,-2.77748,0.97337,1.57080,0.00000,-0.14512,-0.38003,0.04653,,,,,,,,,,,,,,,,,,,,,,,,,,0,0,0,0,0
0.7559,1783191250.1606,1,1,1.0000,0.0000,1.44682,0.23328,-2.77748,0.97337,1.57080,0.00000,-0.14512,-0.38003,0.04653,,,,,,,,,,,,,,,,,,,,,,,,,,0,0,0,0,0
0.7679,1783191250.1726,1,1,1.0000,0.0000,1.44682,0.23328,-2.77748,0.97337,1.57080,0.00000,-0.14512,-0.38003,0.04653,,,,,,,,,,,,,,,,,,,,,,,,,,0,0,0,0,0
0.7884,1783191250.1932,1,1,1.0000,0.0000,1.44682,0.23328,-2.77748,0.97337,1.57080,0.00000,-0.14512,-0.38003,0.04653,,,,,,,,,,,,,,,,,,,,,,,,,,0,0,0,0,0
0.7889,1783191250.1936,1,1,1.0000,0.0000,1.44682,0.23328,-2.77748,0.97337,1.57080,0.00000,-0.14512,-0.38003,0.04653,,,,,,,,,,,,,,,,,,,,,,,,,,0,0,0,0,0
0.7996,1783191250.2044,1,1,1.0000,0.0000,1.44682,0.23328,-2.77748,0.97337,1.57080,0.00000,-0.14512,-0.38003,0.04653,,,,,,,,,,,,,,,,,,,,,,,,,,0,0,0,0,0
0.8067,1783191250.2114,1,1,1.0000,0.0000,1.44682,0.23328,-2.77748,0.97337,1.57080,0.00000,-0.14512,-0.38003,0.04653,,,,,,,,,,,,,,,,,,,,,,,,,,0,0,0,0,0
0.8070,1783191250.2117,1,1,1.0000,0.0000,1.44682,0.23328,-2.77748,0.97337,1.57080,0.00000,-0.14512,-0.38003,0.04653,,,,,,,,,,,,,,,,,,,,,,,,,,0,0,0,0,0
0.8164,1783191250.2211,1,1,1.0000,0.0000,1.44682,0.23328,-2.77748,0.97337,1.57080,0.00000,-0.14512,-0.38003,0.04653,,,,,,,,,,,,,,,,,,,,,,,,,,0,0,0,0,0
0.8257,1783191250.2305,1,1,1.0000,0.0000,1.44682,0.23328,-2.77748,0.97337,1.57080,0.00000,-0.14512,-0.38003,0.04653,,,,,,,,,,,,,,,,,,,,,,,,,,0,0,0,0,0
0.8366,1783191250.2414,1,1,1.0000,0.0000,1.44682,0.23328,-2.77748,0.97337,1.57080,0.00000,-0.14512,-0.38003,0.04653,,,,,,,,,,,,,,,,,,,,,,,,,,0,0,0,0,0
0.8372,1783191250.2420,1,1,1.0000,0.0000,1.44682,0.23328,-2.77748,0.97337,1.57080,0.00000,-0.14512,-0.38003,0.04653,,,,,,,,,,,,,,,,,,,,,,,,,,0,0,0,0,0
0.8470,1783191250.2518,1,1,1.0000,0.0000,1.44682,0.23328,-2.77748,0.97337,1.57080,0.00000,-0.14512,-0.38003,0.04653,,,,,,,,,,,,,,,,,,,,,,,,,,0,0,0,0,0
0.8473,1783191250.2521,1,1,1.0000,0.0000,1.44682,0.23328,-2.77748,0.97337,1.57080,0.00000,-0.14512,-0.38003,0.04653,,,,,,,,,,,,,,,,,,,,,,,,,,0,0,0,0,0
0.8604,1783191250.2651,1,1,1.0000,0.0000,1.44682,0.23328,-2.77748,0.97337,1.57080,0.00000,-0.14512,-0.38003,0.04653,,,,,,,,,,,,,,,,,,,,,,,,,,0,0,0,0,0
0.8691,1783191250.2739,1,1,1.0000,0.0000,1.44682,0.23328,-2.77748,0.97337,1.57080,0.00000,-0.14512,-0.38003,0.04653,,,,,,,,,,,,,,,,,,,,,,,,,,0,0,0,0,0
0.8768,1783191250.2815,1,1,1.0000,0.0000,1.44682,0.23328,-2.77748,0.97337,1.57080,0.00000,-0.14512,-0.38003,0.04653,,,,,,,,,,,,,,,,,,,,,,,,,,0,0,0,0,0
0.8897,1783191250.2944,1,1,1.0000,0.0000,1.44682,0.23328,-2.77748,0.97337,1.57080,0.00000,-0.14512,-0.38003,0.04653,,,,,,,,,,,,,,,,,,,,,,,,,,0,0,0,0,0
0.9043,1783191250.3090,1,1,1.0000,0.0000,1.44682,0.23328,-2.77748,0.97337,1.57080,0.00000,-0.14512,-0.38003,0.04653,,,,,,,,,,,,,,,,,,,,,,,,,,0,0,0,0,0
0.9045,1783191250.3092,1,1,1.0000,0.0000,1.44682,0.23328,-2.77748,0.97337,1.57080,0.00000,-0.14512,-0.38003,0.04653,,,,,,,,,,,,,,,,,,,,,,,,,,0,0,0,0,0
0.9083,1783191250.3130,1,1,1.0000,0.0000,1.44682,0.23328,-2.77748,0.97337,1.57080,0.00000,-0.14512,-0.38003,0.04653,,,,,,,,,,,,,,,,,,,,,,,,,,0,0,0,0,0
0.9086,1783191250.3134,1,1,1.0000,0.0000,1.44682,0.23328,-2.77748,0.97337,1.57080,0.00000,-0.14512,-0.38003,0.04653,,,,,,,,,,,,,,,,,,,,,,,,,,0,0,0,0,0
0.9191,1783191250.3238,1,1,1.0000,0.0000,1.44682,0.23328,-2.77748,0.97337,1.57080,0.00000,-0.14512,-0.38003,0.04653,,,,,,,,,,,,,,,,,,,,,,,,,,0,0,0,0,0
0.9269,1783191250.3316,1,1,1.0000,0.0000,1.44682,0.23326,-2.77748,0.97339,1.57080,0.00000,-0.14512,-0.38003,0.04652,,,,,,,,,,,,,,,,,,,,,,,,,,0,0,0,0,0
0.9273,1783191250.3320,1,1,1.0000,0.0000,1.44682,0.23326,-2.77748,0.97339,1.57080,0.00000,-0.14512,-0.38003,0.04652,,,,,,,,,,,,,,,,,,,,,,,,,,0,0,0,0,0
0.9397,1783191250.3445,1,1,1.0000,0.0000,1.44682,0.23309,-2.77753,0.97361,1.57080,0.00000,-0.14512,-0.38003,0.04648,,,,,,,,,,,,,,,,,,,,,,,,,,0,0,0,0,0
0.9460,1783191250.3508,1,1,1.0000,0.0000,1.44682,0.23293,-2.77757,0.97381,1.57080,0.00000,-0.14512,-0.38003,0.04644,,,,,,,,,,,,,,,,,,,,,,,,,,0,0,0,0,0
0.9559,1783191250.3606,1,1,1.0000,0.0000,1.44682,0.23291,-2.77757,0.97384,1.57080,0.00000,-0.14512,-0.38003,0.04643,,,,,,,,,,,,,,,,,,,,,,,,,,0,0,0,0,0
0.9673,1783191250.3720,1,1,1.0000,0.0000,1.44682,0.23268,-2.77763,0.97412,1.57080,0.00000,-0.14512,-0.38003,0.04637,,,,,,,,,,,,,,,,,,,,,,,,,,0,0,0,0,0
0.9856,1783191250.3904,1,1,1.0000,0.0000,1.44682,0.23238,-2.77771,0.97450,1.57080,0.00000,-0.14512,-0.38003,0.04629,,,,,,,,,,,,,,,,,,,,,,,,,,0,0,0,0,0
0.9903,1783191250.3951,1,1,1.0000,0.0000,1.44682,0.23233,-2.77772,0.97456,1.57080,0.00000,-0.14512,-0.38003,0.04628,,,,,,,,,,,,,,,,,,,,,,,,,,0,0,0,0,0
0.9907,1783191250.3954,1,1,1.0000,0.0000,1.44682,0.23233,-2.77772,0.97456,1.57080,0.00000,-0.14512,-0.38003,0.04628,,,,,,,,,,,,,,,,,,,,,,,,,,0,0,0,0,0
0.9959,1783191250.4007,1,1,1.0000,0.0000,1.44682,0.23227,-2.77774,0.97464,1.57080,0.00000,-0.14512,-0.38003,0.04626,,,,,,,,,,,,,,,,,,,,,,,,,,0,0,0,0,0
0.9967,1783191250.4015,1,1,1.0000,0.0000,1.44682,0.23219,-2.77776,0.97474,1.57080,0.00000,-0.14512,-0.38003,0.04624,,,,,,,,,,,,,,,,,,,,,,,,,,0,0,0,0,0
1.0071,1783191250.4118,1,1,1.0000,0.0000,1.44682,0.23202,-2.77780,0.97496,1.57080,0.00000,-0.14512,-0.38003,0.04620,,,,,,,,,,,,,,,,,,,,,,,,,,0,0,0,0,0
1.0166,1783191250.4213,1,1,1.0000,0.0000,1.44682,0.23194,-2.77782,0.97505,1.57080,0.00000,-0.14512,-0.38003,0.04618,,,,,,,,,,,,,,,,,,,,,,,,,,0,0,0,0,0
1.0256,1783191250.4303,1,1,1.0000,0.0000,1.44682,0.23176,-2.77787,0.97527,1.57080,0.00000,-0.14512,-0.38003,0.04613,,,,,,,,,,,,,,,,,,,,,,,,,,0,0,0,0,0
1.0385,1783191250.4432,1,1,1.0000,0.0000,1.44682,0.23148,-2.77794,0.97563,1.57080,0.00000,-0.14512,-0.38003,0.04606,,,,,,,,,,,,,,,,,,,,,,,,,,0,0,0,0,0
1.0388,1783191250.4435,1,1,1.0000,0.0000,1.44682,0.23148,-2.77794,0.97563,1.57080,0.00000,-0.14512,-0.38003,0.04606,,,,,,,,,,,,,,,,,,,,,,,,,,0,0,0,0,0
1.0523,1783191250.4570,1,1,1.0000,0.0000,1.44682,0.23135,-2.77797,0.97579,1.57080,0.00000,-0.14512,-0.38003,0.04602,,,,,,,,,,,,,,,,,,,,,,,,,,0,0,0,0,0
1.0610,1783191250.4657,1,1,1.0000,0.0000,1.44682,0.23119,-2.77802,0.97600,1.57080,0.00000,-0.14512,-0.38003,0.04598,,,,,,,,,,,,,,,,,,,,,,,,,,0,0,0,0,0
1.0614,1783191250.4661,1,1,1.0000,0.0000,1.44682,0.23119,-2.77802,0.97600,1.57080,0.00000,-0.14512,-0.38003,0.04598,,,,,,,,,,,,,,,,,,,,,,,,,,0,0,0,0,0
1.0743,1783191250.4791,1,1,1.0000,0.0000,1.44682,0.23108,-2.77804,0.97613,1.57080,0.00000,-0.14512,-0.38003,0.04595,,,,,,,,,,,,,,,,,,,,,,,,,,0,0,0,0,0
1.0816,1783191250.4863,1,1,1.0000,0.0000,1.44682,0.23094,-2.77808,0.97630,1.57080,0.00000,-0.14512,-0.38003,0.04592,,,,,,,,,,,,,,,,,,,,,,,,,,0,0,0,0,0
1.0945,1783191250.4992,1,1,1.0000,0.0000,1.44682,0.23065,-2.77815,0.97667,1.57080,0.00000,-0.14512,-0.38003,0.04584,,,,,,,,,,,,,,,,,,,,,,,,,,0,0,0,0,0
1.1014,1783191250.5062,1,1,1.0000,0.0000,1.44682,0.23057,-2.77818,0.97678,1.57080,0.00000,-0.14512,-0.38003,0.04582,,,,,,,,,,,,,,,,,,,,,,,,,,0,0,0,0,0
1.1097,1783191250.5145,1,1,1.0000,0.0000,1.44682,0.23050,-2.77819,0.97686,1.57080,0.00000,-0.14512,-0.38003,0.04580,,,,,,,,,,,,,,,,,,,,,,,,,,0,0,0,0,0
1.1193,1783191250.5240,1,1,1.0000,0.0000,1.44682,0.23036,-2.77823,0.97704,1.57080,0.00000,-0.14512,-0.38003,0.04576,,,,,,,,,,,,,,,,,,,,,,,,,,0,0,0,0,0
1.1197,1783191250.5245,1,1,1.0000,0.0000,1.44682,0.23036,-2.77823,0.97704,1.57080,0.00000,-0.14512,-0.38003,0.04576,,,,,,,,,,,,,,,,,,,,,,,,,,0,0,0,0,0
1.1291,1783191250.5339,1,1,1.0000,0.0000,1.44682,0.23018,-2.77827,0.97726,1.57080,0.00000,-0.14512,-0.38003,0.04572,,,,,,,,,,,,,,,,,,,,,,,,,,0,0,0,0,0
1.1411,1783191250.5458,1,1,1.0000,0.0000,1.44682,0.23003,-2.77831,0.97745,1.57080,0.00000,-0.14512,-0.38003,0.04568,,,,,,,,,,,,,,,,,,,,,,,,,,0,0,0,0,0
1.1492,1783191250.5539,1,1,1.0000,0.0000,1.44682,0.22983,-2.77836,0.97770,1.57080,0.00000,-0.14512,-0.38003,0.04563,,,,,,,,,,,,,,,,,,,,,,,,,,0,0,0,0,0
1.1605,1783191250.5652,1,1,1.0000,0.0000,1.44682,0.22965,-2.77841,0.97793,1.57080,0.00000,-0.14512,-0.38003,0.04558,,,,,,,,,,,,,,,,,,,,,,,,,,0,0,0,0,0
1.1707,1783191250.5754,1,1,1.0000,0.0000,1.44682,0.22959,-2.77843,0.97801,1.57080,0.00000,-0.14512,-0.38003,0.04556,,,,,,,,,,,,,,,,,,,,,,,,,,0,0,0,0,0
1.1806,1783191250.5853,1,1,1.0000,0.0000,1.44682,0.22935,-2.77849,0.97830,1.57080,0.00000,-0.14512,-0.38003,0.04550,,,,,,,,,,,,,,,,,,,,,,,,,,0,0,0,0,0
1.1809,1783191250.5856,1,1,1.0000,0.0000,1.44682,0.22935,-2.77849,0.97830,1.57080,0.00000,-0.14512,-0.38003,0.04550,,,,,,,,,,,,,,,,,,,,,,,,,,0,0,0,0,0
1.1915,1783191250.5962,1,1,1.0000,0.0000,1.44682,0.22927,-2.77851,0.97841,1.57080,0.00000,-0.14512,-0.38003,0.04548,,,,,,,,,,,,,,,,,,,,,,,,,,0,0,0,0,0
1.1989,1783191250.6036,1,1,1.0000,0.0000,1.44682,0.22919,-2.77853,0.97851,1.57080,0.00000,-0.14512,-0.38003,0.04546,,,,,,,,,,,,,,,,,,,,,,,,,,0,0,0,0,0
1.1992,1783191250.6039,1,1,1.0000,0.0000,1.44682,0.22919,-2.77853,0.97851,1.57080,0.00000,-0.14512,-0.38003,0.04546,,,,,,,,,,,,,,,,,,,,,,,,,,0,0,0,0,0
1.2166,1783191250.6214,1,1,1.0000,0.0000,1.44682,0.22873,-2.77864,0.97908,1.57080,0.00000,-0.14512,-0.38003,0.04534,,,,,,,,,,,,,,,,,,,,,,,,,,0,0,0,0,0
1.2171,1783191250.6218,1,1,1.0000,0.0000,1.44682,0.22873,-2.77864,0.97908,1.57080,0.00000,-0.14512,-0.38003,0.04534,,,,,,,,,,,,,,,,,,,,,,,,,,0,0,0,0,0
1.2190,1783191250.6238,1,1,1.0000,0.0000,1.44682,0.22873,-2.77864,0.97908,1.57080,0.00000,-0.14512,-0.38003,0.04534,,,,,,,,,,,,,,,,,,,,,,,,,,0,0,0,0,0
1.2194,1783191250.6241,1,1,1.0000,0.0000,1.44682,0.22873,-2.77864,0.97908,1.57080,0.00000,-0.14512,-0.38003,0.04534,,,,,,,,,,,,,,,,,,,,,,,,,,0,0,0,0,0
1.2327,1783191250.6375,1,1,1.0000,0.0000,1.44682,0.22860,-2.77868,0.97925,1.57080,0.00000,-0.14512,-0.38003,0.04531,,,,,,,,,,,,,,,,,,,,,,,,,,0,0,0,0,0
1.2330,1783191250.6378,1,1,1.0000,0.0000,1.44682,0.22860,-2.77868,0.97925,1.57080,0.00000,-0.14512,-0.38003,0.04531,,,,,,,,,,,,,,,,,,,,,,,,,,0,0,0,0,0
1.2443,1783191250.6490,1,1,1.0000,0.0000,1.44682,0.22835,-2.77874,0.97956,1.57080,0.00000,-0.14512,-0.38003,0.04524,,,,,,,,,,,,,,,,,,,,,,,,,,0,0,0,0,0
1.2446,1783191250.6493,1,1,1.0000,0.0000,1.44682,0.22835,-2.77874,0.97956,1.57080,0.00000,-0.14512,-0.38003,0.04524,,,,,,,,,,,,,,,,,,,,,,,,,,0,0,0,0,0
1.2539,1783191250.6586,1,1,1.0000,0.0000,1.44682,0.22833,-2.77875,0.97959,1.57080,0.00000,-0.14512,-0.38003,0.04524,,,,,,,,,,,,,,,,,,,,,,,,,,0,0,0,0,0
1.2592,1783191250.6639,1,1,1.0000,0.0000,1.44682,0.22827,-2.77876,0.97966,1.57080,0.00000,-0.14512,-0.38003,0.04522,,,,,,,,,,,,,,,,,,,,,,,,,,0,0,0,0,0
1.2710,1783191250.6757,1,1,1.0000,0.0000,1.44682,0.22799,-2.77883,0.98001,1.57080,0.00000,-0.14512,-0.38003,0.04515,,,,,,,,,,,,,,,,,,,,,,,,,,0,0,0,0,0
1.2789,1783191250.6836,1,1,1.0000,0.0000,1.44682,0.22781,-2.77888,0.98024,1.57080,0.00000,-0.14512,-0.38003,0.04510,,,,,,,,,,,,,,,,,,,,,,,,,,0,0,0,0,0
1.2793,1783191250.6840,1,1,1.0000,0.0000,1.44682,0.22781,-2.77888,0.98024,1.57080,0.00000,-0.14512,-0.38003,0.04510,,,,,,,,,,,,,,,,,,,,,,,,,,0,0,0,0,0
1.2930,1783191250.6977,1,1,1.0000,0.0000,1.44682,0.22768,-2.77891,0.98040,1.57080,0.00000,-0.14512,-0.38003,0.04507,,,,,,,,,,,,,,,,,,,,,,,,,,0,0,0,0,0
1.3025,1783191250.7072,1,1,1.0000,0.0000,1.44682,0.22751,-2.77895,0.98061,1.57080,0.00000,-0.14512,-0.38003,0.04502,,,,,,,,,,,,,,,,,,,,,,,,,,0,0,0,0,0
1.3112,1783191250.7159,1,1,1.0000,0.0000,1.44682,0.22735,-2.77900,0.98082,1.57080,0.00000,-0.14512,-0.38003,0.04498,,,,,,,,,,,,,,,,,,,,,,,,,,0,0,0,0,0
1.3204,1783191250.7252,1,1,1.0000,0.0000,1.44682,0.22729,-2.77901,0.98089,1.57080,0.00000,-0.14512,-0.38003,0.04497,,,,,,,,,,,,,,,,,,,,,,,,,,0,0,0,0,0
1.3208,1783191250.7255,1,1,1.0000,0.0000,1.44682,0.22729,-2.77901,0.98089,1.57080,0.00000,-0.14512,-0.38003,0.04497,,,,,,,,,,,,,,,,,,,,,,,,,,0,0,0,0,0
1.3300,1783191250.7347,1,1,1.0000,0.0000,1.44682,0.22714,-2.77905,0.98108,1.57080,0.00000,-0.14512,-0.38003,0.04493,,,,,,,,,,,,,,,,,,,,,,,,,,0,0,0,0,0
1.3304,1783191250.7351,1,1,1.0000,0.0000,1.44682,0.22714,-2.77905,0.98108,1.57080,0.00000,-0.14512,-0.38003,0.04493,,,,,,,,,,,,,,,,,,,,,,,,,,0,0,0,0,0
1.3444,1783191250.7491,1,1,1.0000,0.0000,1.44682,0.22695,-2.77910,0.98132,1.57080,0.00001,-0.14512,-0.38003,0.04488,,,,,,,,,,,,,,,,,,,,,,,,,,0,0,0,0,0
1.3509,1783191250.7556,1,1,1.0000,0.0000,1.44682,0.22689,-2.77911,0.98139,1.57080,0.00001,-0.14512,-0.38003,0.04486,,,,,,,,,,,,,,,,,,,,,,,,,,0,0,0,0,0
1.3512,1783191250.7559,1,1,1.0000,0.0000,1.44682,0.22689,-2.77911,0.98139,1.57080,0.00001,-0.14512,-0.38003,0.04486,,,,,,,,,,,,,,,,,,,,,,,,,,0,0,0,0,0
1.3593,1783191250.7640,1,1,1.0000,0.0000,1.44682,0.22671,-2.77916,0.98161,1.57080,0.00001,-0.14512,-0.38003,0.04482,,,,,,,,,,,,,,,,,,,,,,,,,,0,0,0,0,0
1.3728,1783191250.7775,1,1,1.0000,0.0000,1.44682,0.22643,-2.77923,0.98197,1.57080,0.00001,-0.14512,-0.38003,0.04474,,,,,,,,,,,,,,,,,,,,,,,,,,0,0,0,0,0
1.3811,1783191250.7858,1,1,1.0000,0.0000,1.44682,0.22637,-2.77925,0.98205,1.57080,0.00001,-0.14512,-0.38003,0.04473,,,,,,,,,,,,,,,,,,,,,,,,,,0,0,0,0,0
1.3894,1783191250.7941,1,1,1.0000,0.0000,1.44682,0.22622,-2.77928,0.98223,1.57080,0.00001,-0.14512,-0.38003,0.04469,,,,,,,,,,,,,,,,,,,,,,,,,,0,0,0,0,0
1.4026,1783191250.8074,1,1,1.0000,0.0000,1.44682,0.22604,-2.77933,0.98245,1.57080,0.00001,-0.14512,-0.38003,0.04464,,,,,,,,,,,,,,,,,,,,,,,,,,0,0,0,0,0
1.4091,1783191250.8138,1,1,1.0000,0.0000,1.44682,0.22597,-2.77935,0.98255,1.57080,0.00001,-0.14512,-0.38003,0.04462,,,,,,,,,,,,,,,,,,,,,,,,,,0,0,0,0,0
1.4196,1783191250.8243,1,1,1.0000,0.0000,1.44682,0.22579,-2.77939,0.98277,1.57080,0.00001,-0.14512,-0.38003,0.04458,,,,,,,,,,,,,,,,,,,,,,,,,,0,0,0,0,0
1.4291,1783191250.8338,1,1,1.0000,0.0000,1.44682,0.22551,-2.77946,0.98313,1.57080,0.00001,-0.14512,-0.38002,0.04450,,,,,,,,,,,,,,,,,,,,,,,,,,0,0,0,0,0
1.4396,1783191250.8443,1,1,1.0000,0.0000,1.44682,0.22549,-2.77947,0.98315,1.57080,0.00001,-0.14512,-0.38002,0.04450,,,,,,,,,,,,,,,,,,,,,,,,,,0,0,0,0,0
1.4531,1783191250.8578,1,1,1.0000,0.0000,1.44682,0.22521,-2.77954,0.98350,1.57080,0.00001,-0.14512,-0.38002,0.04443,,,,,,,,,,,,,,,,,,,,,,,,,,0,0,0,0,0
1.4610,1783191250.8658,1,1,1.0000,0.0000,1.44682,0.22512,-2.77956,0.98361,1.57080,0.00001,-0.14512,-0.38002,0.04440,,,,,,,,,,,,,,,,,,,,,,,,,,0,0,0,0,0
1.4724,1783191250.8771,1,1,1.0000,0.0000,1.44682,0.22496,-2.77960,0.98381,1.57080,0.00001,-0.14512,-0.38002,0.04436,,,,,,,,,,,,,,,,,,,,,,,,,,0,0,0,0,0
1.4816,1783191250.8863,1,1,1.0000,0.0000,1.44682,0.22476,-2.77965,0.98405,1.57080,0.00001,-0.14512,-0.38002,0.04431,,,,,,,,,,,,,,,,,,,,,,,,,,0,0,0,0,0
1.4820,1783191250.8867,1,1,1.0000,0.0000,1.44682,0.22476,-2.77965,0.98405,1.57080,0.00001,-0.14512,-0.38002,0.04431,,,,,,,,,,,,,,,,,,,,,,,,,,0,0,0,0,0
1.4909,1783191250.8957,1,1,1.0000,0.0000,1.44682,0.22458,-2.77970,0.98428,1.57080,0.00001,-0.14512,-0.38002,0.04427,,,,,,,,,,,,,,,,,,,,,,,,,,0,0,0,0,0
1.5060,1783191250.9107,1,1,1.0000,0.0000,1.44682,0.22445,-2.77973,0.98445,1.57080,0.00001,-0.14512,-0.38002,0.04423,,,,,,,,,,,,,,,,,,,,,,,,,,0,0,0,0,0
1.5109,1783191250.9157,1,1,1.0000,0.0000,1.44682,0.22437,-2.77975,0.98455,1.57080,0.00001,-0.14512,-0.38002,0.04421,,,,,,,,,,,,,,,,,,,,,,,,,,0,0,0,0,0
1.5200,1783191250.9248,1,1,1.0000,0.0000,1.44682,0.22420,-2.77979,0.98477,1.57080,0.00001,-0.14512,-0.38002,0.04417,,,,,,,,,,,,,,,,,,,,,,,,,,0,0,0,0,0
1.5209,1783191250.9256,1,1,1.0000,0.0000,1.44682,0.22420,-2.77979,0.98477,1.57080,0.00001,-0.14512,-0.38002,0.04417,,,,,,,,,,,,,,,,,,,,,,,,,,0,0,0,0,0
1.5334,1783191250.9381,1,1,1.0000,0.0000,1.44682,0.22404,-2.77983,0.98496,1.57080,0.00001,-0.14512,-0.38002,0.04413,,,,,,,,,,,,,,,,,,,,,,,,,,0,0,0,0,0
1.5417,1783191250.9464,1,1,1.0000,0.0000,1.44682,0.22384,-2.77988,0.98521,1.57080,0.00001,-0.14512,-0.38002,0.04407,,,,,,,,,,,,,,,,,,,,,,,,,,0,0,0,0,0
1.5521,1783191250.9568,1,1,1.0000,0.0000,1.44682,0.22366,-2.77993,0.98544,1.57080,0.00001,-0.14512,-0.38002,0.04403,,,,,,,,,,,,,,,,,,,,,,,,,,0,0,0,0,0
1.5527,1783191250.9575,1,1,1.0000,0.0000,1.44682,0.22366,-2.77993,0.98544,1.57080,0.00001,-0.14512,-0.38002,0.04403,,,,,,,,,,,,,,,,,,,,,,,,,,0,0,0,0,0
1.5630,1783191250.9677,1,1,1.0000,0.0000,1.44682,0.22359,-2.77995,0.98552,1.57080,0.00001,-0.14512,-0.38002,0.04401,,,,,,,,,,,,,,,,,,,,,,,,,,0,0,0,0,0
1.5699,1783191250.9746,1,1,1.0000,0.0000,1.44682,0.22344,-2.77998,0.98571,1.57080,0.00001,-0.14512,-0.38002,0.04397,,,,,,,,,,,,,,,,,,,,,,,,,,0,0,0,0,0
1.5803,1783191250.9851,1,1,1.0000,0.0000,1.44682,0.22327,-2.78003,0.98593,1.57080,0.00001,-0.14512,-0.38002,0.04393,,,,,,,,,,,,,,,,,,,,,,,,,,0,0,0,0,0
1.5891,1783191250.9938,1,1,1.0000,0.0000,1.44682,0.22319,-2.78005,0.98602,1.57080,0.00001,-0.14512,-0.38002,0.04391,,,,,,,,,,,,,,,,,,,,,,,,,,0,0,0,0,0
1.5894,1783191250.9941,1,1,1.0000,0.0000,1.44682,0.22319,-2.78005,0.98602,1.57080,0.00001,-0.14512,-0.38002,0.04391,,,,,,,,,,,,,,,,,,,,,,,,,,0,0,0,0,0
1.6003,1783191251.0051,1,1,1.0000,0.0000,1.44682,0.22291,-2.78012,0.98637,1.57080,0.00001,-0.14512,-0.38002,0.04383,,,,,,,,,,,,,,,,,,,,,,,,,,0,0,0,0,0
1.6101,1783191251.0148,1,1,1.0000,0.0000,1.44681,0.22273,-2.78016,0.98660,1.57080,0.00001,-0.14512,-0.38002,0.04379,,,,,,,,,,,,,,,,,,,,,,,,,,0,0,0,0,0
1.6260,1783191251.0307,1,1,1.0000,0.0000,1.44681,0.22260,-2.78020,0.98677,1.57080,0.00001,-0.14512,-0.38002,0.04375,,,,,,,,,,,,,,,,,,,,,,,,,,0,0,0,0,0
1.6290,1783191251.0337,1,1,1.0000,0.0000,1.44681,0.22252,-2.78022,0.98687,1.57080,0.00001,-0.14512,-0.38002,0.04373,,,,,,,,,,,,,,,,,,,,,,,,,,0,0,0,0,0
1.6444,1783191251.0491,1,1,1.0000,0.0000,1.44681,0.22232,-2.78026,0.98711,1.57080,0.00001,-0.14512,-0.38002,0.04368,,,,,,,,,,,,,,,,,,,,,,,,,,0,0,0,0,0
1.6519,1783191251.0567,1,1,1.0000,0.0000,1.44681,0.22227,-2.78028,0.98718,1.57080,0.00001,-0.14512,-0.38002,0.04367,,,,,,,,,,,,,,,,,,,,,,,,,,0,0,0,0,0
1.6626,1783191251.0674,1,1,1.0000,0.0000,1.44681,0.22198,-2.78035,0.98753,1.57080,0.00001,-0.14512,-0.38002,0.04360,,,,,,,,,,,,,,,,,,,,,,,,,,0,0,0,0,0
1.6630,1783191251.0677,1,1,1.0000,0.0000,1.44681,0.22198,-2.78035,0.98753,1.57080,0.00001,-0.14512,-0.38002,0.04360,,,,,,,,,,,,,,,,,,,,,,,,,,0,0,0,0,0
1.6691,1783191251.0739,1,1,1.0000,0.0000,1.44681,0.22180,-2.78039,0.98776,1.57080,0.00001,-0.14512,-0.38002,0.04355,,,,,,,,,,,,,,,,,,,,,,,,,,0,0,0,0,0
1.6694,1783191251.0741,1,1,1.0000,0.0000,1.44681,0.22180,-2.78039,0.98776,1.57080,0.00001,-0.14512,-0.38002,0.04355,,,,,,,,,,,,,,,,,,,,,,,,,,0,0,0,0,0
1.6793,1783191251.0840,1,1,1.0000,0.0000,1.44681,0.22178,-2.78040,0.98778,1.57080,0.00001,-0.14512,-0.38002,0.04354,,,,,,,,,,,,,,,,,,,,,,,,,,0,0,0,0,0
1.6939,1783191251.0986,1,1,1.0000,0.0000,1.44681,0.22150,-2.78047,0.98814,1.57080,0.00001,-0.14512,-0.38002,0.04347,,,,,,,,,,,,,,,,,,,,,,,,,,0,0,0,0,0
1.7072,1783191251.1119,1,1,1.0000,0.0000,1.44681,0.22139,-2.78050,0.98827,1.57080,0.00001,-0.14512,-0.38002,0.04344,,,,,,,,,,,,,,,,,,,,,,,,,,0,0,0,0,0
1.7113,1783191251.1160,1,1,1.0000,0.0000,1.44681,0.22134,-2.78051,0.98834,1.57080,0.00001,-0.14512,-0.38002,0.04343,,,,,,,,,,,,,,,,,,,,,,,,,,0,0,0,0,0
1.7225,1783191251.1272,1,1,1.0000,0.0000,1.44681,0.22106,-2.78058,0.98869,1.57080,0.00001,-0.14512,-0.38002,0.04336,,,,,,,,,,,,,,,,,,,,,,,,,,0,0,0,0,0
1.7291,1783191251.1339,1,1,1.0000,0.0000,1.44681,0.22087,-2.78063,0.98892,1.57080,0.00001,-0.14512,-0.38002,0.04331,,,,,,,,,,,,,,,,,,,,,,,,,,0,0,0,0,0
1.7391,1783191251.1438,1,1,1.0000,0.0000,1.44681,0.22085,-2.78063,0.98894,1.57080,0.00001,-0.14512,-0.38002,0.04331,,,,,,,,,,,,,,,,,,,,,,,,,,0,0,0,0,0
1.7529,1783191251.1576,1,1,1.0000,0.0000,1.44681,0.22057,-2.78070,0.98930,1.57080,0.00001,-0.14512,-0.38002,0.04323,,,,,,,,,,,,,,,,,,,,,,,,,,0,0,0,0,0
1.7618,1783191251.1665,1,1,1.0000,0.0000,1.44681,0.22048,-2.78072,0.98941,1.57080,0.00001,-0.14512,-0.38002,0.04321,,,,,,,,,,,,,,,,,,,,,,,,,,0,0,0,0,0
1.7725,1783191251.1772,1,1,1.0000,0.0000,1.44681,0.22032,-2.78076,0.98961,1.57080,0.00001,-0.14512,-0.38002,0.04317,,,,,,,,,,,,,,,,,,,,,,,,,,0,0,0,0,0
1.7793,1783191251.1840,1,1,1.0000,0.0000,1.44681,0.22023,-2.78079,0.98973,1.57080,0.00001,-0.14512,-0.38002,0.04314,,,,,,,,,,,,,,,,,,,,,,,,,,0,0,0,0,0
1.7900,1783191251.1947,1,1,1.0000,0.0000,1.44681,0.21994,-2.78086,0.99008,1.57080,0.00001,-0.14512,-0.38002,0.04307,,,,,,,,,,,,,,,,,,,,,,,,,,0,0,0,0,0
1.7990,1783191251.2037,1,1,1.0000,0.0000,1.44681,0.21992,-2.78086,0.99011,1.57080,0.00001,-0.14512,-0.38002,0.04307,,,,,,,,,,,,,,,,,,,,,,,,,,0,0,0,0,0
1.8099,1783191251.2146,1,1,1.0000,0.0000,1.44681,0.21973,-2.78091,0.99035,1.57080,0.00001,-0.14512,-0.38002,0.04302,,,,,,,,,,,,,,,,,,,,,,,,,,0,0,0,0,0
1.8268,1783191251.2316,1,1,1.0000,0.0000,1.44681,0.21953,-2.78096,0.99060,1.57080,0.00001,-0.14512,-0.38002,0.04297,,,,,,,,,,,,,,,,,,,,,,,,,,0,0,0,0,0
1.8300,1783191251.2347,1,1,1.0000,0.0000,1.44681,0.21947,-2.78097,0.99067,1.57080,0.00001,-0.14512,-0.38002,0.04295,,,,,,,,,,,,,,,,,,,,,,,,,,0,0,0,0,0
1.8303,1783191251.2351,1,1,1.0000,0.0000,1.44681,0.21947,-2.78097,0.99067,1.57080,0.00001,-0.14512,-0.38002,0.04295,,,,,,,,,,,,,,,,,,,,,,,,,,0,0,0,0,0
1.8408,1783191251.2455,1,1,1.0000,0.0000,1.44681,0.21919,-2.78104,0.99102,1.57080,0.00001,-0.14512,-0.38002,0.04288,,,,,,,,,,,,,,,,,,,,,,,,,,0,0,0,0,0
1.8410,1783191251.2458,1,1,1.0000,0.0000,1.44681,0.21919,-2.78104,0.99102,1.57080,0.00001,-0.14512,-0.38002,0.04288,,,,,,,,,,,,,,,,,,,,,,,,,,0,0,0,0,0
1.8562,1783191251.2609,1,1,1.0000,0.0000,1.44681,0.21901,-2.78109,0.99125,1.57080,0.00001,-0.14512,-0.38002,0.04283,,,,,,,,,,,,,,,,,,,,,,,,,,0,0,0,0,0
1.8596,1783191251.2644,1,1,1.0000,0.0000,1.44681,0.21899,-2.78109,0.99127,1.57080,0.00001,-0.14512,-0.38002,0.04283,,,,,,,,,,,,,,,,,,,,,,,,,,0,0,0,0,0
1.8601,1783191251.2648,1,1,1.0000,0.0000,1.44681,0.21899,-2.78109,0.99127,1.57080,0.00001,-0.14512,-0.38002,0.04283,,,,,,,,,,,,,,,,,,,,,,,,,,0,0,0,0,0
1.8716,1783191251.2763,1,1,1.0000,0.0000,1.44681,0.21880,-2.78114,0.99151,1.57080,0.00001,-0.14512,-0.38002,0.04278,,,,,,,,,,,,,,,,,,,,,,,,,,0,0,0,0,0
1.8720,1783191251.2767,1,1,1.0000,0.0000,1.44681,0.21880,-2.78114,0.99151,1.57080,0.00001,-0.14512,-0.38002,0.04278,,,,,,,,,,,,,,,,,,,,,,,,,,0,0,0,0,0
1.8839,1783191251.2886,1,1,1.0000,0.0000,1.44681,0.21862,-2.78119,0.99173,1.57080,0.00001,-0.14512,-0.38002,0.04273,,,,,,,,,,,,,,,,,,,,,,,,,,0,0,0,0,0
1.8935,1783191251.2982,1,1,1.0000,0.0000,1.44681,0.21846,-2.78123,0.99193,1.57080,0.00001,-0.14512,-0.38002,0.04269,,,,,,,,,,,,,,,,,,,,,,,,,,0,0,0,0,0
1.8997,1783191251.3044,1,1,1.0000,0.0000,1.44681,0.21836,-2.78125,0.99205,1.57080,0.00001,-0.14512,-0.38002,0.04267,,,,,,,,,,,,,,,,,,,,,,,,,,0,0,0,0,0
1.9000,1783191251.3047,1,1,1.0000,0.0000,1.44681,0.21836,-2.78125,0.99205,1.57080,0.00001,-0.14512,-0.38002,0.04267,,,,,,,,,,,,,,,,,,,,,,,,,,0,0,0,0,0
1.9121,1783191251.3168,1,1,1.0000,0.0000,1.44681,0.21808,-2.78132,0.99241,1.57080,0.00001,-0.14512,-0.38002,0.04259,,,,,,,,,,,,,,,,,,,,,,,,,,0,0,0,0,0
1.9253,1783191251.3300,1,1,1.0000,0.0000,1.44681,0.21794,-2.78135,0.99258,1.57080,0.00001,-0.14512,-0.38002,0.04256,,,,,,,,,,,,,,,,,,,,,,,,,,0,0,0,0,0
1.9296,1783191251.3343,1,1,1.0000,0.0000,1.44681,0.21786,-2.78137,0.99268,1.57080,0.00001,-0.14512,-0.38002,0.04254,,,,,,,,,,,,,,,,,,,,,,,,,,0,0,0,0,0
1.9298,1783191251.3346,1,1,1.0000,0.0000,1.44681,0.21786,-2.78137,0.99268,1.57080,0.00001,-0.14512,-0.38002,0.04254,,,,,,,,,,,,,,,,,,,,,,,,,,0,0,0,0,0
1.9393,1783191251.3440,1,1,1.0000,0.0000,1.44681,0.21769,-2.78142,0.99290,1.57080,0.00001,-0.14512,-0.38002,0.04249,,,,,,,,,,,,,,,,,,,,,,,,,,0,0,0,0,0
1.9511,1783191251.3559,1,1,1.0000,0.0000,1.44681,0.21759,-2.78144,0.99302,1.57080,0.00001,-0.14512,-0.38002,0.04247,,,,,,,,,,,,,,,,,,,,,,,,,,0,0,0,0,0
1.9515,1783191251.3562,1,1,1.0000,0.0000,1.44681,0.21759,-2.78144,0.99302,1.57080,0.00001,-0.14512,-0.38002,0.04247,,,,,,,,,,,,,,,,,,,,,,,,,,0,0,0,0,0
1.9606,1783191251.3654,1,1,1.0000,0.0000,1.44681,0.21739,-2.78149,0.99326,1.57080,0.00001,-0.14512,-0.38002,0.04242,,,,,,,,,,,,,,,,,,,,,,,,,,0,0,0,0,0
1.9702,1783191251.3749,1,1,1.0000,0.0000,1.44681,0.21722,-2.78153,0.99348,1.57080,0.00001,-0.14512,-0.38002,0.04237,,,,,,,,,,,,,,,,,,,,,,,,,,0,0,0,0,0
1.9705,1783191251.3752,1,1,1.0000,0.0000,1.44681,0.21722,-2.78153,0.99348,1.57080,0.00001,-0.14512,-0.38002,0.04237,,,,,,,,,,,,,,,,,,,,,,,,,,0,0,0,0,0
1.9806,1783191251.3854,1,1,1.0000,0.0000,1.44681,0.21714,-2.78155,0.99358,1.57080,0.00001,-0.14512,-0.38002,0.04235,,,,,,,,,,,,,,,,,,,,,,,,,,0,0,0,0,0
1.9903,1783191251.3950,1,1,1.0000,0.0000,1.44681,0.21696,-2.78160,0.99380,1.57080,0.00001,-0.14512,-0.38002,0.04231,,,,,,,,,,,,,,,,,,,,,,,,,,0,0,0,0,0
1.9906,1783191251.3953,1,1,1.0000,0.0000,1.44681,0.21696,-2.78160,0.99380,1.57080,0.00001,-0.14512,-0.38002,0.04231,,,,,,,,,,,,,,,,,,,,,,,,,,0,0,0,0,0
2.0011,1783191251.4058,1,1,1.0000,0.0000,1.44681,0.21667,-2.78167,0.99416,1.57080,0.00001,-0.14512,-0.38002,0.04223,,,,,,,,,,,,,,,,,,,,,,,,,,0,0,0,0,0
2.0196,1783191251.4243,1,1,1.0000,0.0000,1.44681,0.21654,-2.78170,0.99432,1.57080,0.00001,-0.14512,-0.38002,0.04220,,,,,,,,,,,,,,,,,,,,,,,,,,0,0,0,0,0
2.0295,1783191251.4342,1,1,1.0000,0.0000,1.44681,0.21628,-2.78176,0.99465,1.57080,0.00001,-0.14512,-0.38002,0.04213,,,,,,,,,,,,,,,,,,,,,,,,,,0,0,0,0,0
2.0410,1783191251.4458,1,1,1.0000,0.0000,1.44681,0.21621,-2.78178,0.99474,1.57080,0.00001,-0.14512,-0.38002,0.04211,,,,,,,,,,,,,,,,,,,,,,,,,,0,0,0,0,0
2.0504,1783191251.4551,1,1,1.0000,0.0000,1.44681,0.21603,-2.78183,0.99497,1.57080,0.00001,-0.14512,-0.38002,0.04207,,,,,,,,,,,,,,,,,,,,,,,,,,0,0,0,0,0
2.0664,1783191251.4712,1,1,1.0000,0.0000,1.44681,0.21574,-2.78190,0.99533,1.57080,0.00001,-0.14512,-0.38002,0.04199,,,,,,,,,,,,,,,,,,,,,,,,,,0,0,0,0,0
2.0760,1783191251.4807,1,1,1.0000,0.0000,1.44681,0.21567,-2.78191,0.99541,1.57080,0.00001,-0.14512,-0.38002,0.04198,,,,,,,,,,,,,,,,,,,,,,,,,,0,0,0,0,0
2.0830,1783191251.4878,1,1,1.0000,0.0000,1.44681,0.21552,-2.78195,0.99559,1.57080,0.00001,-0.14512,-0.38002,0.04194,,,,,,,,,,,,,,,,,,,,,,,,,,0,0,0,0,0
2.0958,1783191251.5005,1,1,1.0000,0.0000,1.44681,0.21535,-2.78199,0.99581,1.57080,0.00001,-0.14512,-0.38002,0.04190,,,,,,,,,,,,,,,,,,,,,,,,,,0,0,0,0,0
2.1049,1783191251.5096,1,1,1.0000,0.0000,1.44681,0.21519,-2.78203,0.99601,1.57080,0.00001,-0.14512,-0.38002,0.04185,,,,,,,,,,,,,,,,,,,,,,,,,,0,0,0,0,0
2.1169,1783191251.5216,1,1,1.0000,0.0000,1.44681,0.21488,-2.78211,0.99639,1.57080,0.00001,-0.14512,-0.38002,0.04178,,,,,,,,,,,,,,,,,,,,,,,,,,0,0,0,0,0
2.1250,1783191251.5297,1,1,1.0000,0.0000,1.44681,0.21480,-2.78213,0.99649,1.57080,0.00001,-0.14512,-0.38002,0.04176,,,,,,,,,,,,,,,,,,,,,,,,,,0,0,0,0,0
2.1352,1783191251.5399,1,1,1.0000,0.0000,1.44681,0.21474,-2.78214,0.99657,1.57080,0.00001,-0.14512,-0.38002,0.04174,,,,,,,,,,,,,,,,,,,,,,,,,,0,0,0,0,0
2.1471,1783191251.5519,1,1,1.0000,0.0000,1.44681,0.21450,-2.78220,0.99687,1.57080,0.00002,-0.14512,-0.38002,0.04168,,,,,,,,,,,,,,,,,,,,,,,,,,0,0,0,0,0
2.1476,1783191251.5523,1,1,1.0000,0.0000,1.44681,0.21450,-2.78220,0.99687,1.57080,0.00002,-0.14512,-0.38002,0.04168,,,,,,,,,,,,,,,,,,,,,,,,,,0,0,0,0,0
2.1529,1783191251.5576,1,1,1.0000,0.0000,1.44681,0.21441,-2.78222,0.99698,1.57080,0.00002,-0.14512,-0.38002,0.04166,,,,,,,,,,,,,,,,,,,,,,,,,,0,0,0,0,0
2.1659,1783191251.5706,1,1,1.0000,0.0000,1.44681,0.21425,-2.78226,0.99718,1.57080,0.00002,-0.14512,-0.38002,0.04162,,,,,,,,,,,,,,,,,,,,,,,,,,0,0,0,0,0
2.1749,1783191251.5797,1,1,1.0000,0.0000,1.44681,0.21405,-2.78231,0.99743,1.57080,0.00002,-0.14512,-0.38002,0.04156,,,,,,,,,,,,,,,,,,,,,,,,,,0,0,0,0,0
2.1841,1783191251.5888,1,1,1.0000,0.0000,1.44681,0.21386,-2.78236,0.99766,1.57080,0.00002,-0.14512,-0.38002,0.04152,,,,,,,,,,,,,,,,,,,,,,,,,,0,0,0,0,0
2.1931,1783191251.5978,1,1,1.0000,0.0000,1.44681,0.21380,-2.78237,0.99774,1.57080,0.00002,-0.14512,-0.38002,0.04150,,,,,,,,,,,,,,,,,,,,,,,,,,0,0,0,0,0
2.1935,1783191251.5982,1,1,1.0000,0.0000,1.44681,0.21380,-2.78237,0.99774,1.57080,0.00002,-0.14512,-0.38002,0.04150,,,,,,,,,,,,,,,,,,,,,,,,,,0,0,0,0,0
2.2068,1783191251.6115,1,1,1.0000,0.0000,1.44681,0.21356,-2.78243,0.99804,1.57080,0.00002,-0.14512,-0.38002,0.04144,,,,,,,,,,,,,,,,,,,,,,,,,,0,0,0,0,0
2.2194,1783191251.6241,1,1,1.0000,0.0000,1.44681,0.21345,-2.78246,0.99818,1.57080,0.00002,-0.14512,-0.38002,0.04141,,,,,,,,,,,,,,,,,,,,,,,,,,0,0,0,0,0
2.2293,1783191251.6340,1,1,1.0000,0.0000,1.44681,0.21321,-2.78251,0.99847,1.57080,0.00002,-0.14512,-0.38002,0.04135,,,,,,,,,,,,,,,,,,,,,,,,,,0,0,0,0,0
2.2356,1783191251.6404,1,1,1.0000,0.0000,1.44681,0.21311,-2.78254,0.99860,1.57080,0.00002,-0.14512,-0.38002,0.04133,,,,,,,,,,,,,,,,,,,,,,,,,,0,0,0,0,0
2.2431,1783191251.6479,1,1,1.0000,0.0000,1.44681,0.21292,-2.78258,0.99883,1.57080,0.00002,-0.14512,-0.38002,0.04128,,,,,,,,,,,,,,,,,,,,,,,,,,0,0,0,0,0
2.2550,1783191251.6598,1,1,1.0000,0.0000,1.44681,0.21286,-2.78260,0.99891,1.57080,0.00002,-0.14512,-0.38002,0.04126,,,,,,,,,,,,,,,,,,,,,,,,,,0,0,0,0,0
2.2651,1783191251.6699,1,1,1.0000,0.0000,1.44681,0.21262,-2.78266,0.99921,1.57080,0.00002,-0.14512,-0.38002,0.04120,,,,,,,,,,,,,,,,,,,,,,,,,,0,0,0,0,0
2.2739,1783191251.6786,1,1,1.0000,0.0000,1.44681,0.21253,-2.78268,0.99932,1.57080,0.00002,-0.14512,-0.38002,0.04118,,,,,,,,,,,,,,,,,,,,,,,,,,0,0,0,0,0
2.2829,1783191251.6877,1,1,1.0000,0.0000,1.44681,0.21245,-2.78270,0.99942,1.57080,0.00002,-0.14512,-0.38002,0.04116,,,,,,,,,,,,,,,,,,,,,,,,,,0,0,0,0,0
2.2930,1783191251.6977,1,1,1.0000,0.0000,1.44681,0.21216,-2.78277,0.99977,1.57080,0.00002,-0.14512,-0.38002,0.04109,,,,,,,,,,,,,,,,,,,,,,,,,,0,0,0,0,0
2.2933,1783191251.6980,1,1,1.0000,0.0000,1.44681,0.21216,-2.78277,0.99977,1.57080,0.00002,-0.14512,-0.38002,0.04109,,,,,,,,,,,,,,,,,,,,,,,,,,0,0,0,0,0
2.3053,1783191251.7100,1,1,1.0000,0.0000,1.44681,0.21198,-2.78281,1.00000,1.57080,0.00002,-0.14512,-0.38002,0.04104,,,,,,,,,,,,,,,,,,,,,,,,,,0,0,0,0,0
2.3171,1783191251.7219,1,1,1.0000,0.0000,1.44681,0.21185,-2.78285,1.00017,1.57080,0.00002,-0.14512,-0.38002,0.04101,,,,,,,,,,,,,,,,,,,,,,,,,,0,0,0,0,0
2.3277,1783191251.7324,1,1,1.0000,0.0000,1.44681,0.21167,-2.78289,1.00038,1.57080,0.00002,-0.14512,-0.38002,0.04096,,,,,,,,,,,,,,,,,,,,,,,,,,0,0,0,0,0
2.3349,1783191251.7397,1,1,1.0000,0.0000,1.44681,0.21159,-2.78291,1.00049,1.57080,0.00002,-0.14512,-0.38002,0.04094,,,,,,,,,,,,,,,,,,,,,,,,,,0,0,0,0,0
2.3439,1783191251.7487,1,1,1.0000,0.0000,1.44681,0.21151,-2.78293,1.00059,1.57080,0.00002,-0.14512,-0.38002,0.04092,,,,,,,,,,,,,,,,,,,,,,,,,,0,0,0,0,0
2.3532,1783191251.7579,1,1,1.0000,0.0000,1.44681,0.21122,-2.78300,1.00094,1.57080,0.00002,-0.14512,-0.38002,0.04085,,,,,,,,,,,,,,,,,,,,,,,,,,0,0,0,0,0
2.3700,1783191251.7747,1,1,1.0000,0.0000,1.44681,0.21102,-2.78305,1.00119,1.57080,0.00002,-0.14512,-0.38002,0.04080,,,,,,,,,,,,,,,,,,,,,,,,,,0,0,0,0,0
2.3745,1783191251.7792,1,1,1.0000,0.0000,1.44681,0.21097,-2.78306,1.00125,1.57080,0.00002,-0.14512,-0.38002,0.04078,,,,,,,,,,,,,,,,,,,,,,,,,,0,0,0,0,0
2.3748,1783191251.7795,1,1,1.0000,0.0000,1.44681,0.21097,-2.78306,1.00125,1.57080,0.00002,-0.14512,-0.38002,0.04078,,,,,,,,,,,,,,,,,,,,,,,,,,0,0,0,0,0
2.3833,1783191251.7881,1,1,1.0000,0.0000,1.44681,0.21082,-2.78309,1.00144,1.57080,0.00002,-0.14512,-0.38002,0.04075,,,,,,,,,,,,,,,,,,,,,,,,,,0,0,0,0,0
2.3836,1783191251.7884,1,1,1.0000,0.0000,1.44681,0.21082,-2.78309,1.00144,1.57080,0.00002,-0.14512,-0.38002,0.04075,,,,,,,,,,,,,,,,,,,,,,,,,,0,0,0,0,0
2.3958,1783191251.8005,1,1,1.0000,0.0000,1.44681,0.21064,-2.78314,1.00166,1.57080,0.00002,-0.14512,-0.38002,0.04070,,,,,,,,,,,,,,,,,,,,,,,,,,0,0,0,0,0
2.4068,1783191251.8115,1,1,1.0000,0.0000,1.44681,0.21048,-2.78318,1.00186,1.57080,0.00002,-0.14512,-0.38002,0.04066,,,,,,,,,,,,,,,,,,,,,,,,,,0,0,0,0,0
2.4194,1783191251.8241,1,1,1.0000,0.0000,1.44681,0.21018,-2.78325,1.00224,1.57080,0.00002,-0.14512,-0.38002,0.04058,,,,,,,,,,,,,,,,,,,,,,,,,,0,0,0,0,0
2.4290,1783191251.8338,1,1,1.0000,0.0000,1.44681,0.21007,-2.78327,1.00237,1.57080,0.00002,-0.14512,-0.38002,0.04056,,,,,,,,,,,,,,,,,,,,,,,,,,0,0,0,0,0
2.4331,1783191251.8378,1,1,1.0000,0.0000,1.44681,0.21003,-2.78329,1.00242,1.57080,0.00002,-0.14512,-0.38002,0.04054,,,,,,,,,,,,,,,,,,,,,,,,,,0,0,0,0,0
2.4336,1783191251.8383,1,1,1.0000,0.0000,1.44681,0.21003,-2.78329,1.00242,1.57080,0.00002,-0.14512,-0.38002,0.04054,,,,,,,,,,,,,,,,,,,,,,,,,,0,0,0,0,0
2.4449,1783191251.8496,1,1,1.0000,0.0000,1.44680,0.20979,-2.78334,1.00272,1.57080,0.00002,-0.14512,-0.38002,0.04048,,,,,,,,,,,,,,,,,,,,,,,,,,0,0,0,0,0
2.4558,1783191251.8605,1,1,1.0000,0.0000,1.44680,0.20970,-2.78337,1.00283,1.57080,0.00002,-0.14512,-0.38002,0.04046,,,,,,,,,,,,,,,,,,,,,,,,,,0,0,0,0,0
2.4637,1783191251.8684,1,1,1.0000,0.0000,1.44680,0.20962,-2.78338,1.00293,1.57080,0.00002,-0.14512,-0.38002,0.04044,,,,,,,,,,,,,,,,,,,,,,,,,,0,0,0,0,0
2.4828,1783191251.8875,1,1,1.0000,0.0000,1.44680,0.20915,-2.78350,1.00352,1.57079,0.00002,-0.14512,-0.38002,0.04032,,,,,,,,,,,,,,,,,,,,,,,,,,0,0,0,0,0
2.4850,1783191251.8898,1,1,1.0000,0.0000,1.44680,0.20915,-2.78350,1.00352,1.57079,0.00002,-0.14512,-0.38002,0.04032,,,,,,,,,,,,,,,,,,,,,,,,,,0,0,0,0,0
2.4954,1783191251.9001,1,1,1.0000,0.0000,1.44680,0.20908,-2.78351,1.00360,1.57079,0.00002,-0.14512,-0.38002,0.04031,,,,,,,,,,,,,,,,,,,,,,,,,,0,0,0,0,0
2.5050,1783191251.9097,1,1,1.0000,0.0000,1.44680,0.20884,-2.78357,1.00390,1.57079,0.00002,-0.14512,-0.38002,0.04024,,,,,,,,,,,,,,,,,,,,,,,,,,0,0,0,0,0
2.5052,1783191251.9099,1,1,1.0000,0.0000,1.44680,0.20884,-2.78357,1.00390,1.57079,0.00002,-0.14512,-0.38002,0.04024,,,,,,,,,,,,,,,,,,,,,,,,,,0,0,0,0,0
2.5375,1783191251.9422,1,1,1.0000,0.0000,1.44680,0.20829,-2.78370,1.00458,1.57079,0.00002,-0.14512,-0.38002,0.04010,,,,,,,,,,,,,,,,,,,,,,,,,,0,0,0,0,0
2.5405,1783191251.9452,1,1,1.0000,0.0000,1.44680,0.20829,-2.78370,1.00458,1.57079,0.00002,-0.14512,-0.38002,0.04010,,,,,,,,,,,,,,,,,,,,,,,,,,0,0,0,0,0
2.5410,1783191251.9458,1,1,1.0000,0.0000,1.44680,0.20820,-2.78373,1.00469,1.57079,0.00002,-0.14512,-0.38002,0.04008,,,,,,,,,,,,,,,,,,,,,,,,,,0,0,0,0,0
2.5440,1783191251.9487,1,1,1.0000,0.0000,1.44680,0.20820,-2.78373,1.00469,1.57079,0.00002,-0.14512,-0.38002,0.04008,,,,,,,,,,,,,,,,,,,,,,,,,,0,0,0,0,0
2.5444,1783191251.9491,1,1,1.0000,0.0000,1.44680,0.20820,-2.78373,1.00469,1.57079,0.00002,-0.14512,-0.38002,0.04008,,,,,,,,,,,,,,,,,,,,,,,,,,0,0,0,0,0
2.5532,1783191251.9579,1,1,1.0000,0.0000,1.44680,0.20813,-2.78374,1.00477,1.57079,0.00002,-0.14512,-0.38002,0.04007,,,,,,,,,,,,,,,,,,,,,,,,,,0,0,0,0,0
2.5656,1783191251.9703,1,1,1.0000,0.0000,1.44680,0.20789,-2.78380,1.00507,1.57079,0.00002,-0.14512,-0.38002,0.04001,,,,,,,,,,,,,,,,,,,,,,,,,,0,0,0,0,0
2.5738,1783191251.9785,1,1,1.0000,0.0000,1.44680,0.20780,-2.78382,1.00518,1.57079,0.00002,-0.14512,-0.38002,0.03998,,,,,,,,,,,,,,,,,,,,,,,,,,0,0,0,0,0
2.5845,1783191251.9892,1,1,1.0000,0.0000,1.44680,0.20773,-2.78384,1.00528,1.57079,0.00002,-0.14512,-0.38002,0.03996,,,,,,,,,,,,,,,,,,,,,,,,,,0,0,0,0,0
2.5850,1783191251.9898,1,1,1.0000,0.0000,1.44680,0.20764,-2.78386,1.00538,1.57079,0.00002,-0.14512,-0.38002,0.03994,,,,,,,,,,,,,,,,,,,,,,,,,,0,0,0,0,0
2.5935,1783191251.9982,1,1,1.0000,0.0000,1.44680,0.20744,-2.78391,1.00563,1.57079,0.00002,-0.14512,-0.38002,0.03989,,,,,,,,,,,,,,,,,,,,,,,,,,0,0,0,0,0
2.5939,1783191251.9986,1,1,1.0000,0.0000,1.44680,0.20744,-2.78391,1.00563,1.57079,0.00002,-0.14512,-0.38002,0.03989,,,,,,,,,,,,,,,,,,,,,,,,,,0,0,0,0,0
2.6030,1783191252.0077,1,1,1.0000,0.0000,1.44680,0.20725,-2.78395,1.00587,1.57079,0.00002,-0.14512,-0.38002,0.03984,,,,,,,,,,,,,,,,,,,,,,,,,,0,0,0,0,0
2.6132,1783191252.0179,1,1,1.0000,0.0000,1.44680,0.20719,-2.78397,1.00595,1.57079,0.00002,-0.14512,-0.38002,0.03983,,,,,,,,,,,,,,,,,,,,,,,,,,0,0,0,0,0
2.6242,1783191252.0289,1,1,1.0000,0.0000,1.44680,0.20703,-2.78400,1.00613,1.57079,0.00002,-0.14512,-0.38002,0.03979,,,,,,,,,,,,,,,,,,,,,,,,,,0,0,0,0,0
2.6365,1783191252.0412,1,1,1.0000,0.0000,1.44680,0.20686,-2.78405,1.00636,1.57079,0.00002,-0.14512,-0.38002,0.03974,,,,,,,,,,,,,,,,,,,,,,,,,,0,0,0,0,0
2.6450,1783191252.0498,1,1,1.0000,0.0000,1.44680,0.20669,-2.78409,1.00656,1.57079,0.00002,-0.14512,-0.38002,0.03970,,,,,,,,,,,,,,,,,,,,,,,,,,0,0,0,0,0
2.6542,1783191252.0589,1,1,1.0000,0.0000,1.44680,0.20649,-2.78413,1.00681,1.57079,0.00002,-0.14512,-0.38002,0.03965,,,,,,,,,,,,,,,,,,,,,,,,,,0,0,0,0,0
2.6646,1783191252.0693,1,1,1.0000,0.0000,1.44680,0.20630,-2.78418,1.00704,1.57079,0.00002,-0.14512,-0.38002,0.03960,,,,,,,,,,,,,,,,,,,,,,,,,,0,0,0,0,0
2.6767,1783191252.0814,1,1,1.0000,0.0000,1.44680,0.20624,-2.78419,1.00712,1.57079,0.00002,-0.14512,-0.38002,0.03959,,,,,,,,,,,,,,,,,,,,,,,,,,0,0,0,0,0
2.6876,1783191252.0923,1,1,1.0000,0.0000,1.44680,0.20599,-2.78425,1.00742,1.57079,0.00002,-0.14512,-0.38002,0.03953,,,,,,,,,,,,,,,,,,,,,,,,,,0,0,0,0,0
2.6933,1783191252.0980,1,1,1.0000,0.0000,1.44680,0.20583,-2.78429,1.00763,1.57079,0.00002,-0.14512,-0.38002,0.03949,,,,,,,,,,,,,,,,,,,,,,,,,,0,0,0,0,0
2.6936,1783191252.0983,1,1,1.0000,0.0000,1.44680,0.20583,-2.78429,1.00763,1.57079,0.00002,-0.14512,-0.38002,0.03949,,,,,,,,,,,,,,,,,,,,,,,,,,0,0,0,0,0
2.7097,1783191252.1144,1,1,1.0000,0.0000,1.44680,0.20569,-2.78432,1.00780,1.57079,0.00002,-0.14512,-0.38002,0.03945,,,,,,,,,,,,,,,,,,,,,,,,,,0,0,0,0,0
2.7177,1783191252.1225,1,1,1.0000,0.0000,1.44680,0.20552,-2.78437,1.00801,1.57079,0.00002,-0.14512,-0.38002,0.03941,,,,,,,,,,,,,,,,,,,,,,,,,,0,0,0,0,0
2.7180,1783191252.1228,1,1,1.0000,0.0000,1.44680,0.20552,-2.78437,1.00801,1.57079,0.00002,-0.14512,-0.38002,0.03941,,,,,,,,,,,,,,,,,,,,,,,,,,0,0,0,0,0
2.7265,1783191252.1313,1,1,1.0000,0.0000,1.44680,0.20543,-2.78439,1.00812,1.57079,0.00002,-0.14512,-0.38002,0.03939,,,,,,,,,,,,,,,,,,,,,,,,,,0,0,0,0,0
2.7362,1783191252.1409,1,1,1.0000,0.0000,1.44680,0.20535,-2.78441,1.00822,1.57079,0.00002,-0.14512,-0.38002,0.03937,,,,,,,,,,,,,,,,,,,,,,,,,,0,0,0,0,0
2.7365,1783191252.1413,1,1,1.0000,0.0000,1.44680,0.20535,-2.78441,1.00822,1.57079,0.00002,-0.14512,-0.38002,0.03937,,,,,,,,,,,,,,,,,,,,,,,,,,0,0,0,0,0
2.7445,1783191252.1492,1,1,1.0000,0.0000,1.44680,0.20517,-2.78445,1.00844,1.57079,0.00002,-0.14512,-0.38002,0.03932,,,,,,,,,,,,,,,,,,,,,,,,,,0,0,0,0,0
2.7546,1783191252.1594,1,1,1.0000,0.0000,1.44680,0.20488,-2.78452,1.00881,1.57079,0.00002,-0.14512,-0.38002,0.03925,,,,,,,,,,,,,,,,,,,,,,,,,,0,0,0,0,0
2.7550,1783191252.1598,1,1,1.0000,0.0000,1.44680,0.20488,-2.78452,1.00881,1.57079,0.00002,-0.14512,-0.38002,0.03925,,,,,,,,,,,,,,,,,,,,,,,,,,0,0,0,0,0
2.7629,1783191252.1676,1,1,1.0000,0.0000,1.44680,0.20486,-2.78452,1.00883,1.57079,0.00002,-0.14512,-0.38002,0.03924,,,,,,,,,,,,,,,,,,,,,,,,,,0,0,0,0,0
2.7632,1783191252.1679,1,1,1.0000,0.0000,1.44680,0.20486,-2.78452,1.00883,1.57079,0.00002,-0.14512,-0.38002,0.03924,,,,,,,,,,,,,,,,,,,,,,,,,,0,0,0,0,0
2.7766,1783191252.1814,1,1,1.0000,0.0000,1.44680,0.20466,-2.78457,1.00908,1.57079,0.00002,-0.14512,-0.38002,0.03919,,,,,,,,,,,,,,,,,,,,,,,,,,0,0,0,0,0
2.7840,1783191252.1887,1,1,1.0000,0.0000,1.44680,0.20448,-2.78461,1.00930,1.57079,0.00002,-0.14512,-0.38002,0.03915,,,,,,,,,,,,,,,,,,,,,,,,,,0,0,0,0,0
2.7946,1783191252.1993,1,1,1.0000,0.0000,1.44680,0.20440,-2.78463,1.00940,1.57079,0.00002,-0.14512,-0.38002,0.03913,,,,,,,,,,,,,,,,,,,,,,,,,,0,0,0,0,0
2.8065,1783191252.2113,1,1,1.0000,0.0000,1.44680,0.20411,-2.78470,1.00975,1.57079,0.00002,-0.14512,-0.38001,0.03905,,,,,,,,,,,,,,,,,,,,,,,,,,0,0,0,0,0
2.8068,1783191252.2115,1,1,1.0000,0.0000,1.44680,0.20411,-2.78470,1.00975,1.57079,0.00002,-0.14512,-0.38001,0.03905,,,,,,,,,,,,,,,,,,,,,,,,,,0,0,0,0,0
2.8145,1783191252.2192,1,1,1.0000,0.0000,1.44680,0.20392,-2.78474,1.00998,1.57079,0.00002,-0.14512,-0.38001,0.03901,,,,,,,,,,,,,,,,,,,,,,,,,,0,0,0,0,0
2.8148,1783191252.2195,1,1,1.0000,0.0000,1.44680,0.20392,-2.78474,1.00998,1.57079,0.00002,-0.14512,-0.38001,0.03901,,,,,,,,,,,,,,,,,,,,,,,,,,0,0,0,0,0
2.8291,1783191252.2338,1,1,1.0000,0.0000,1.44680,0.20379,-2.78478,1.01015,1.57079,0.00002,-0.14512,-0.38001,0.03897,,,,,,,,,,,,,,,,,,,,,,,,,,0,0,0,0,0
2.8346,1783191252.2394,1,1,1.0000,0.0000,1.44680,0.20371,-2.78480,1.01025,1.57079,0.00002,-0.14512,-0.38001,0.03895,,,,,,,,,,,,,,,,,,,,,,,,,,0,0,0,0,0
2.8429,1783191252.2476,1,1,1.0000,0.0000,1.44680,0.20353,-2.78484,1.01048,1.57079,0.00002,-0.14512,-0.38001,0.03891,,,,,,,,,,,,,,,,,,,,,,,,,,0,0,0,0,0
2.8432,1783191252.2480,1,1,1.0000,0.0000,1.44680,0.20353,-2.78484,1.01048,1.57079,0.00002,-0.14512,-0.38001,0.03891,,,,,,,,,,,,,,,,,,,,,,,,,,0,0,0,0,0
2.8532,1783191252.2579,1,1,1.0000,0.0000,1.44680,0.20345,-2.78486,1.01057,1.57079,0.00002,-0.14512,-0.38001,0.03889,,,,,,,,,,,,,,,,,,,,,,,,,,0,0,0,0,0
2.8652,1783191252.2699,1,1,1.0000,0.0000,1.44680,0.20316,-2.78493,1.01093,1.57079,0.00002,-0.14512,-0.38001,0.03882,,,,,,,,,,,,,,,,,,,,,,,,,,0,0,0,0,0
2.8733,1783191252.2781,1,1,1.0000,0.0000,1.44680,0.20297,-2.78497,1.01116,1.57079,0.00002,-0.14512,-0.38001,0.03877,,,,,,,,,,,,,,,,,,,,,,,,,,0,0,0,0,0
2.8737,1783191252.2784,1,1,1.0000,0.0000,1.44680,0.20297,-2.78497,1.01116,1.57079,0.00002,-0.14512,-0.38001,0.03877,,,,,,,,,,,,,,,,,,,,,,,,,,0,0,0,0,0
2.8839,1783191252.2886,1,1,1.0000,0.0000,1.44680,0.20295,-2.78497,1.01119,1.57079,0.00002,-0.14512,-0.38001,0.03876,,,,,,,,,,,,,,,,,,,,,,,,,,0,0,0,0,0
2.8948,1783191252.2996,1,1,1.0000,0.0000,1.44680,0.20275,-2.78502,1.01143,1.57079,0.00002,-0.14512,-0.38001,0.03871,,,,,,,,,,,,,,,,,,,,,,,,,,0,0,0,0,0
2.9039,1783191252.3086,1,1,1.0000,0.0000,1.44680,0.20257,-2.78506,1.01166,1.57079,0.00002,-0.14512,-0.38001,0.03867,,,,,,,,,,,,,,,,,,,,,,,,,,0,0,0,0,0
2.9164,1783191252.3211,1,1,1.0000,0.0000,1.44680,0.20249,-2.78508,1.01175,1.57079,0.00002,-0.14512,-0.38001,0.03865,,,,,,,,,,,,,,,,,,,,,,,,,,0,0,0,0,0
2.9168,1783191252.3215,1,1,1.0000,0.0000,1.44680,0.20249,-2.78508,1.01175,1.57079,0.00002,-0.14512,-0.38001,0.03865,,,,,,,,,,,,,,,,,,,,,,,,,,0,0,0,0,0
2.9245,1783191252.3292,1,1,1.0000,0.0000,1.44680,0.20231,-2.78513,1.01198,1.57079,0.00002,-0.14512,-0.38001,0.03860,,,,,,,,,,,,,,,,,,,,,,,,,,0,0,0,0,0
2.9251,1783191252.3298,1,1,1.0000,0.0000,1.44680,0.20220,-2.78515,1.01211,1.57079,0.00002,-0.14512,-0.38001,0.03858,,,,,,,,,,,,,,,,,,,,,,,,,,0,0,0,0,0
2.9389,1783191252.3436,1,1,1.0000,0.0000,1.44680,0.20201,-2.78520,1.01234,1.57079,0.00002,-0.14512,-0.38001,0.03853,,,,,,,,,,,,,,,,,,,,,,,,,,0,0,0,0,0
2.9493,1783191252.3541,1,1,1.0000,0.0000,1.44680,0.20188,-2.78523,1.01251,1.57079,0.00002,-0.14512,-0.38001,0.03850,,,,,,,,,,,,,,,,,,,,,,,,,,0,0,0,0,0
2.9533,1783191252.3580,1,1,1.0000,0.0000,1.44680,0.20180,-2.78525,1.01261,1.57079,0.00002,-0.14512,-0.38001,0.03847,,,,,,,,,,,,,,,,,,,,,,,,,,0,0,0,0,0
2.9667,1783191252.3714,1,1,1.0000,0.0000,1.44680,0.20162,-2.78529,1.01284,1.57079,0.00002,-0.14512,-0.38001,0.03843,,,,,,,,,,,,,,,,,,,,,,,,,,0,0,0,0,0
2.9736,1783191252.3784,1,1,1.0000,0.0000,1.44680,0.20154,-2.78531,1.01293,1.57079,0.00003,-0.14512,-0.38001,0.03841,,,,,,,,,,,,,,,,,,,,,,,,,,0,0,0,0,0
2.9740,1783191252.3788,1,1,1.0000,0.0000,1.44680,0.20154,-2.78531,1.01293,1.57079,0.00003,-0.14512,-0.38001,0.03841,,,,,,,,,,,,,,,,,,,,,,,,,,0,0,0,0,0
2.9867,1783191252.3915,1,1,1.0000,0.0000,1.44680,0.20125,-2.78538,1.01329,1.57079,0.00003,-0.14512,-0.38001,0.03834,,,,,,,,,,,,,,,,,,,,,,,,,,0,0,0,0,0
2.9941,1783191252.3988,1,1,1.0000,0.0000,1.44680,0.20106,-2.78542,1.01352,1.57079,0.00003,-0.14512,-0.38001,0.03829,,,,,,,,,,,,,,,,,,,,,,,,,,0,0,0,0,0
3.0030,1783191252.4077,1,1,1.0000,0.0000,1.44680,0.20104,-2.78542,1.01355,1.57079,0.00003,-0.14512,-0.38001,0.03829,,,,,,,,,,,,,,,,,,,,,,,,,,0,0,0,0,0
3.0133,1783191252.4180,1,1,1.0000,0.0000,1.44680,0.20084,-2.78547,1.01380,1.57079,0.00003,-0.14512,-0.38001,0.03824,,,,,,,,,,,,,,,,,,,,,,,,,,0,0,0,0,0
3.0231,1783191252.4279,1,1,1.0000,0.0000,1.44680,0.20066,-2.78551,1.01402,1.57079,0.00003,-0.14512,-0.38001,0.03819,,,,,,,,,,,,,,,,,,,,,,,,,,0,0,0,0,0
3.0337,1783191252.4384,1,1,1.0000,0.0000,1.44680,0.20058,-2.78553,1.01412,1.57079,0.00003,-0.14512,-0.38001,0.03817,,,,,,,,,,,,,,,,,,,,,,,,,,0,0,0,0,0
3.0476,1783191252.4524,1,1,1.0000,0.0000,1.44680,0.20029,-2.78560,1.01447,1.57079,0.00003,-0.14512,-0.38001,0.03810,,,,,,,,,,,,,,,,,,,,,,,,,,0,0,0,0,0
3.0536,1783191252.4584,1,1,1.0000,0.0000,1.44680,0.20010,-2.78564,1.01471,1.57079,0.00003,-0.14512,-0.38001,0.03805,,,,,,,,,,,,,,,,,,,,,,,,,,0,0,0,0,0
3.0696,1783191252.4743,1,1,1.0000,0.0000,1.44680,0.19997,-2.78568,1.01487,1.57079,0.00003,-0.14512,-0.38001,0.03802,,,,,,,,,,,,,,,,,,,,,,,,,,0,0,0,0,0
3.0746,1783191252.4793,1,1,1.0000,0.0000,1.44680,0.19988,-2.78570,1.01498,1.57079,0.00003,-0.14512,-0.38001,0.03800,,,,,,,,,,,,,,,,,,,,,,,,,,0,0,0,0,0
3.0855,1783191252.4902,1,1,1.0000,0.0000,1.44680,0.19970,-2.78574,1.01520,1.57079,0.00003,-0.14512,-0.38001,0.03795,,,,,,,,,,,,,,,,,,,,,,,,,,0,0,0,0,0
3.0966,1783191252.5014,1,1,1.0000,0.0000,1.44680,0.19962,-2.78576,1.01530,1.57079,0.00003,-0.14512,-0.38001,0.03793,,,,,,,,,,,,,,,,,,,,,,,,,,0,0,0,0,0
3.1037,1783191252.5084,1,1,1.0000,0.0000,1.44680,0.19944,-2.78580,1.01552,1.57079,0.00003,-0.14512,-0.38001,0.03789,,,,,,,,,,,,,,,,,,,,,,,,,,0,0,0,0,0
3.1153,1783191252.5200,1,1,1.0000,0.0000,1.44680,0.19914,-2.78587,1.01589,1.57079,0.00003,-0.14512,-0.38001,0.03781,,,,,,,,,,,,,,,,,,,,,,,,,,0,0,0,0,0
3.1253,1783191252.5300,1,1,1.0000,0.0000,1.44680,0.19908,-2.78588,1.01597,1.57079,0.00003,-0.14512,-0.38001,0.03780,,,,,,,,,,,,,,,,,,,,,,,,,,0,0,0,0,0
3.1364,1783191252.5411,1,1,1.0000,0.0000,1.44680,0.19892,-2.78592,1.01616,1.57079,0.00003,-0.14512,-0.38001,0.03776,,,,,,,,,,,,,,,,,,,,,,,,,,0,0,0,0,0
3.1453,1783191252.5500,1,1,1.0000,0.0000,1.44680,0.19874,-2.78596,1.01638,1.57079,0.00003,-0.14512,-0.38001,0.03771,,,,,,,,,,,,,,,,,,,,,,,,,,0,0,0,0,0
3.1555,1783191252.5602,1,1,1.0000,0.0000,1.44680,0.19866,-2.78598,1.01648,1.57079,0.00003,-0.14512,-0.38001,0.03769,,,,,,,,,,,,,,,,,,,,,,,,,,0,0,0,0,0
3.1631,1783191252.5678,1,1,1.0000,0.0000,1.44680,0.19848,-2.78602,1.01671,1.57079,0.00003,-0.14512,-0.38001,0.03765,,,,,,,,,,,,,,,,,,,,,,,,,,0,0,0,0,0
3.1733,1783191252.5780,1,1,1.0000,0.0000,1.44680,0.19818,-2.78609,1.01707,1.57079,0.00003,-0.14512,-0.38001,0.03757,,,,,,,,,,,,,,,,,,,,,,,,,,0,0,0,0,0
3.1875,1783191252.5922,1,1,1.0000,0.0000,1.44680,0.19812,-2.78611,1.01715,1.57079,0.00003,-0.14512,-0.38001,0.03756,,,,,,,,,,,,,,,,,,,,,,,,,,0,0,0,0,0
3.1989,1783191252.6036,1,1,1.0000,0.0000,1.44680,0.19787,-2.78617,1.01746,1.57079,0.00003,-0.14512,-0.38001,0.03750,,,,,,,,,,,,,,,,,,,,,,,,,,0,0,0,0,0
3.2029,1783191252.6077,1,1,1.0000,0.0000,1.44680,0.19778,-2.78619,1.01757,1.57079,0.00003,-0.14512,-0.38001,0.03747,,,,,,,,,,,,,,,,,,,,,,,,,,0,0,0,0,0
3.2127,1783191252.6174,1,1,1.0000,0.0000,1.44680,0.19776,-2.78619,1.01759,1.57079,0.00003,-0.14512,-0.38001,0.03747,,,,,,,,,,,,,,,,,,,,,,,,,,0,0,0,0,0
3.2132,1783191252.6179,1,1,1.0000,0.0000,1.44680,0.19770,-2.78620,1.01767,1.57079,0.00003,-0.14512,-0.38001,0.03745,,,,,,,,,,,,,,,,,,,,,,,,,,0,0,0,0,0
3.2252,1783191252.6299,1,1,1.0000,0.0000,1.44680,0.19741,-2.78627,1.01802,1.57079,0.00003,-0.14512,-0.38001,0.03738,,,,,,,,,,,,,,,,,,,,,,,,,,0,0,0,0,0
3.2398,1783191252.6445,1,1,1.0000,0.0000,1.44680,0.19722,-2.78632,1.01826,1.57079,0.00003,-0.14512,-0.38001,0.03733,,,,,,,,,,,,,,,,,,,,,,,,,,0,0,0,0,0
3.2448,1783191252.6495,1,1,1.0000,0.0000,1.44680,0.19720,-2.78632,1.01828,1.57079,0.00003,-0.14512,-0.38001,0.03733,,,,,,,,,,,,,,,,,,,,,,,,,,0,0,0,0,0
3.2548,1783191252.6596,1,1,1.0000,0.0000,1.44680,0.19700,-2.78637,1.01853,1.57079,0.00003,-0.14512,-0.38001,0.03728,,,,,,,,,,,,,,,,,,,,,,,,,,0,0,0,0,0
3.2634,1783191252.6682,1,1,1.0000,0.0000,1.44680,0.19682,-2.78641,1.01875,1.57079,0.00003,-0.14512,-0.38001,0.03723,,,,,,,,,,,,,,,,,,,,,,,,,,0,0,0,0,0
3.2739,1783191252.6787,1,1,1.0000,0.0000,1.44680,0.19674,-2.78643,1.01885,1.57079,0.00003,-0.14512,-0.38001,0.03722,,,,,,,,,,,,,,,,,,,,,,,,,,0,0,0,0,0
3.2834,1783191252.6881,1,1,1.0000,0.0000,1.44680,0.19655,-2.78647,1.01908,1.57079,0.00003,-0.14512,-0.38001,0.03717,,,,,,,,,,,,,,,,,,,,,,,,,,0,0,0,0,0
3.2941,1783191252.6988,1,1,1.0000,0.0000,1.44679,0.19626,-2.78654,1.01944,1.57079,0.00003,-0.14512,-0.38001,0.03710,,,,,,,,,,,,,,,,,,,,,,,,,,0,0,0,0,0
3.3043,1783191252.7090,1,1,1.0000,0.0000,1.44679,0.19624,-2.78654,1.01947,1.57079,0.00003,-0.14512,-0.38001,0.03709,,,,,,,,,,,,,,,,,,,,,,,,,,0,0,0,0,0
3.3165,1783191252.7213,1,1,1.0000,0.0000,1.44679,0.19604,-2.78659,1.01972,1.57079,0.00003,-0.14512,-0.38001,0.03704,,,,,,,,,,,,,,,,,,,,,,,,,,0,0,0,0,0
3.3301,1783191252.7348,1,1,1.0000,0.0000,1.44679,0.19583,-2.78664,1.01997,1.57079,0.00003,-0.14511,-0.38001,0.03699,,,,,,,,,,,,,,,,,,,,,,,,,,0,0,0,0,0
3.3332,1783191252.7380,1,1,1.0000,0.0000,1.44679,0.19578,-2.78665,1.02004,1.57079,0.00003,-0.14511,-0.38001,0.03698,,,,,,,,,,,,,,,,,,,,,,,,,,0,0,0,0,0
3.3334,1783191252.7382,1,1,1.0000,0.0000,1.44679,0.19578,-2.78665,1.02004,1.57079,0.00003,-0.14511,-0.38001,0.03698,,,,,,,,,,,,,,,,,,,,,,,,,,0,0,0,0,0
3.3477,1783191252.7525,1,1,1.0000,0.0000,1.44679,0.19548,-2.78672,1.02040,1.57079,0.00003,-0.14511,-0.38001,0.03690,,,,,,,,,,,,,,,,,,,,,,,,,,0,0,0,0,0
3.3540,1783191252.7587,1,1,1.0000,0.0000,1.44679,0.19529,-2.78676,1.02063,1.57079,0.00003,-0.14511,-0.38001,0.03686,,,,,,,,,,,,,,,,,,,,,,,,,,0,0,0,0,0
3.3629,1783191252.7676,1,1,1.0000,0.0000,1.44679,0.19528,-2.78677,1.02065,1.57079,0.00003,-0.14511,-0.38001,0.03685,,,,,,,,,,,,,,,,,,,,,,,,,,0,0,0,0,0
3.3740,1783191252.7787,1,1,1.0000,0.0000,1.44679,0.19507,-2.78681,1.02090,1.57079,0.00003,-0.14511,-0.38001,0.03680,,,,,,,,,,,,,,,,,,,,,,,,,,0,0,0,0,0
3.3742,1783191252.7790,1,1,1.0000,0.0000,1.44679,0.19507,-2.78681,1.02090,1.57079,0.00003,-0.14511,-0.38001,0.03680,,,,,,,,,,,,,,,,,,,,,,,,,,0,0,0,0,0
3.3832,1783191252.7879,1,1,1.0000,0.0000,1.44679,0.19489,-2.78686,1.02113,1.57079,0.00003,-0.14511,-0.38001,0.03676,,,,,,,,,,,,,,,,,,,,,,,,,,0,0,0,0,0
3.3959,1783191252.8006,1,1,1.0000,0.0000,1.44679,0.19481,-2.78687,1.02122,1.57079,0.00003,-0.14511,-0.38001,0.03674,,,,,,,,,,,,,,,,,,,,,,,,,,0,0,0,0,0
3.4098,1783191252.8146,1,1,1.0000,0.0000,1.44679,0.19442,-2.78696,1.02171,1.57079,0.00003,-0.14511,-0.38001,0.03664,,,,,,,,,,,,,,,,,,,,,,,,,,0,0,0,0,0
3.4102,1783191252.8149,1,1,1.0000,0.0000,1.44679,0.19442,-2.78696,1.02171,1.57079,0.00003,-0.14511,-0.38001,0.03664,,,,,,,,,,,,,,,,,,,,,,,,,,0,0,0,0,0
3.4162,1783191252.8210,1,1,1.0000,0.0000,1.44679,0.19433,-2.78699,1.02182,1.57079,0.00003,-0.14511,-0.38001,0.03662,,,,,,,,,,,,,,,,,,,,,,,,,,0,0,0,0,0
3.4294,1783191252.8341,1,1,1.0000,0.0000,1.44679,0.19419,-2.78702,1.02199,1.57079,0.00003,-0.14511,-0.38001,0.03658,,,,,,,,,,,,,,,,,,,,,,,,,,0,0,0,0,0
3.4366,1783191252.8413,1,1,1.0000,0.0000,1.44679,0.19411,-2.78704,1.02209,1.57079,0.00003,-0.14511,-0.38001,0.03656,,,,,,,,,,,,,,,,,,,,,,,,,,0,0,0,0,0
3.4487,1783191252.8535,1,1,1.0000,0.0000,1.44679,0.19384,-2.78710,1.02241,1.57079,0.00003,-0.14511,-0.38001,0.03650,,,,,,,,,,,,,,,,,,,,,,,,,,0,0,0,0,0
3.4575,1783191252.8622,1,1,1.0000,0.0000,1.44679,0.19378,-2.78711,1.02249,1.57079,0.00003,-0.14511,-0.38001,0.03648,,,,,,,,,,,,,,,,,,,,,,,,,,0,0,0,0,0
3.4660,1783191252.8707,1,1,1.0000,0.0000,1.44679,0.19362,-2.78715,1.02268,1.57079,0.00003,-0.14511,-0.38001,0.03644,,,,,,,,,,,,,,,,,,,,,,,,,,0,0,0,0,0
3.4662,1783191252.8710,1,1,1.0000,0.0000,1.44679,0.19362,-2.78715,1.02268,1.57079,0.00003,-0.14511,-0.38001,0.03644,,,,,,,,,,,,,,,,,,,,,,,,,,0,0,0,0,0
3.4765,1783191252.8813,1,1,1.0000,0.0000,1.44679,0.19344,-2.78719,1.02291,1.57079,0.00003,-0.14511,-0.38001,0.03640,,,,,,,,,,,,,,,,,,,,,,,,,,0,0,0,0,0
3.4932,1783191252.8979,1,1,1.0000,0.0000,1.44679,0.19318,-2.78725,1.02323,1.57079,0.00003,-0.14511,-0.38001,0.03633,,,,,,,,,,,,,,,,,,,,,,,,,,0,0,0,0,0
3.5003,1783191252.9050,1,1,1.0000,0.0000,1.44679,0.19307,-2.78727,1.02337,1.57079,0.00003,-0.14511,-0.38001,0.03631,,,,,,,,,,,,,,,,,,,,,,,,,,0,0,0,0,0
3.5007,1783191252.9054,1,1,1.0000,0.0000,1.44679,0.19307,-2.78727,1.02337,1.57079,0.00003,-0.14511,-0.38001,0.03631,,,,,,,,,,,,,,,,,,,,,,,,,,0,0,0,0,0
3.5067,1783191252.9114,1,1,1.0000,0.0000,1.44679,0.19288,-2.78732,1.02360,1.57079,0.00003,-0.14511,-0.38001,0.03626,,,,,,,,,,,,,,,,,,,,,,,,,,0,0,0,0,0
3.5169,1783191252.9216,1,1,1.0000,0.0000,1.44679,0.19286,-2.78732,1.02362,1.57079,0.00003,-0.14511,-0.38001,0.03625,,,,,,,,,,,,,,,,,,,,,,,,,,0,0,0,0,0
3.5175,1783191252.9222,1,1,1.0000,0.0000,1.44679,0.19281,-2.78733,1.02368,1.57079,0.00003,-0.14511,-0.38001,0.03624,,,,,,,,,,,,,,,,,,,,,,,,,,0,0,0,0,0
3.5343,1783191252.9390,1,1,1.0000,0.0000,1.44679,0.19247,-2.78741,1.02410,1.57079,0.00003,-0.14511,-0.38001,0.03616,,,,,,,,,,,,,,,,,,,,,,,,,,0,0,0,0,0
3.5476,1783191252.9524,1,1,1.0000,0.0000,1.44679,0.19239,-2.78743,1.02420,1.57079,0.00003,-0.14511,-0.38001,0.03614,,,,,,,,,,,,,,,,,,,,,,,,,,0,0,0,0,0
3.5495,1783191252.9542,1,1,1.0000,0.0000,1.44679,0.19231,-2.78745,1.02430,1.57079,0.00003,-0.14511,-0.38001,0.03612,,,,,,,,,,,,,,,,,,,,,,,,,,0,0,0,0,0
3.5637,1783191252.9685,1,1,1.0000,0.0000,1.44679,0.19200,-2.78752,1.02468,1.57079,0.00003,-0.14511,-0.38001,0.03604,,,,,,,,,,,,,,,,,,,,,,,,,,0,0,0,0,0
3.5665,1783191252.9712,1,1,1.0000,0.0000,1.44679,0.19191,-2.78754,1.02479,1.57079,0.00003,-0.14511,-0.38001,0.03602,,,,,,,,,,,,,,,,,,,,,,,,,,0,0,0,0,0
3.5667,1783191252.9715,1,1,1.0000,0.0000,1.44679,0.19191,-2.78754,1.02479,1.57079,0.00003,-0.14511,-0.38001,0.03602,,,,,,,,,,,,,,,,,,,,,,,,,,0,0,0,0,0
3.5762,1783191252.9809,1,1,1.0000,0.0000,1.44679,0.19189,-2.78754,1.02481,1.57079,0.00003,-0.14511,-0.38001,0.03602,,,,,,,,,,,,,,,,,,,,,,,,,,0,0,0,0,0
3.5878,1783191252.9926,1,1,1.0000,0.0000,1.44679,0.19169,-2.78759,1.02506,1.57079,0.00003,-0.14511,-0.38001,0.03597,,,,,,,,,,,,,,,,,,,,,,,,,,0,0,0,0,0
3.5986,1783191253.0033,1,1,1.0000,0.0000,1.44679,0.19151,-2.78763,1.02529,1.57079,0.00003,-0.14511,-0.38001,0.03592,,,,,,,,,,,,,,,,,,,,,,,,,,0,0,0,0,0
3.6087,1783191253.0135,1,1,1.0000,0.0000,1.44679,0.19143,-2.78765,1.02539,1.57079,0.00003,-0.14511,-0.38001,0.03590,,,,,,,,,,,,,,,,,,,,,,,,,,0,0,0,0,0
3.6167,1783191253.0215,1,1,1.0000,0.0000,1.44679,0.19124,-2.78769,1.02561,1.57079,0.00003,-0.14511,-0.38001,0.03586,,,,,,,,,,,,,,,,,,,,,,,,,,0,0,0,0,0
3.6274,1783191253.0321,1,1,1.0000,0.0000,1.44679,0.19094,-2.78776,1.02598,1.57079,0.00003,-0.14511,-0.38001,0.03578,,,,,,,,,,,,,,,,,,,,,,,,,,0,0,0,0,0
3.6365,1783191253.0412,1,1,1.0000,0.0000,1.44679,0.19092,-2.78777,1.02600,1.57079,0.00003,-0.14511,-0.38001,0.03578,,,,,,,,,,,,,,,,,,,,,,,,,,0,0,0,0,0
3.6542,1783191253.0589,1,1,1.0000,0.0000,1.44679,0.19054,-2.78785,1.02648,1.57079,0.00003,-0.14511,-0.38001,0.03568,,,,,,,,,,,,,,,,,,,,,,,,,,0,0,0,0,0
3.6596,1783191253.0644,1,1,1.0000,0.0000,1.44679,0.19054,-2.78785,1.02648,1.57079,0.00003,-0.14511,-0.38001,0.03568,,,,,,,,,,,,,,,,,,,,,,,,,,0,0,0,0,0
3.6663,1783191253.0710,1,1,1.0000,0.0000,1.44679,0.19046,-2.78787,1.02658,1.57079,0.00003,-0.14511,-0.38001,0.03566,,,,,,,,,,,,,,,,,,,,,,,,,,0,0,0,0,0
3.6665,1783191253.0713,1,1,1.0000,0.0000,1.44679,0.19046,-2.78787,1.02658,1.57079,0.00003,-0.14511,-0.38001,0.03566,,,,,,,,,,,,,,,,,,,,,,,,,,0,0,0,0,0
3.6845,1783191253.0893,1,1,1.0000,0.0000,1.44679,0.19006,-2.78796,1.02706,1.57079,0.00003,-0.14511,-0.38001,0.03556,,,,,,,,,,,,,,,,,,,,,,,,,,0,0,0,0,0
3.7069,1783191253.1116,1,1,1.0000,0.0000,1.44679,0.18975,-2.78803,1.02745,1.57079,0.00003,-0.14511,-0.38001,0.03549,,,,,,,,,,,,,,,,,,,,,,,,,,0,0,0,0,0
3.7379,1783191253.1426,1,1,1.0000,0.0000,1.44679,0.18919,-2.78816,1.02813,1.57079,0.00003,-0.14511,-0.38001,0.03535,,,,,,,,,,,,,,,,,,,,,,,,,,0,0,0,0,0
3.7381,1783191253.1429,1,1,1.0000,0.0000,1.44679,0.18919,-2.78816,1.02813,1.57079,0.00003,-0.14511,-0.38001,0.03535,,,,,,,,,,,,,,,,,,,,,,,,,,0,0,0,0,0
3.7384,1783191253.1431,1,1,1.0000,0.0000,1.44679,0.18919,-2.78816,1.02813,1.57079,0.00003,-0.14511,-0.38001,0.03535,,,,,,,,,,,,,,,,,,,,,,,,,,0,0,0,0,0
3.7386,1783191253.1434,1,1,1.0000,0.0000,1.44679,0.18919,-2.78816,1.02813,1.57079,0.00003,-0.14511,-0.38001,0.03535,,,,,,,,,,,,,,,,,,,,,,,,,,0,0,0,0,0
3.7390,1783191253.1438,1,1,1.0000,0.0000,1.44679,0.18919,-2.78816,1.02813,1.57079,0.00003,-0.14511,-0.38001,0.03535,,,,,,,,,,,,,,,,,,,,,,,,,,0,0,0,0,0
3.7394,1783191253.1442,1,1,1.0000,0.0000,1.44679,0.18919,-2.78816,1.02813,1.57079,0.00003,-0.14511,-0.38001,0.03535,,,,,,,,,,,,,,,,,,,,,,,,,,0,0,0,0,0
3.7513,1783191253.1560,1,1,1.0000,0.0000,1.44679,0.18900,-2.78820,1.02837,1.57079,0.00003,-0.14511,-0.38001,0.03530,,,,,,,,,,,,,,,,,,,,,,,,,,0,0,0,0,0
3.7516,1783191253.1564,1,1,1.0000,0.0000,1.44679,0.18900,-2.78820,1.02837,1.57079,0.00003,-0.14511,-0.38001,0.03530,,,,,,,,,,,,,,,,,,,,,,,,,,0,0,0,0,0
3.7565,1783191253.1612,1,1,1.0000,0.0000,1.44679,0.18898,-2.78821,1.02839,1.57079,0.00003,-0.14511,-0.38001,0.03530,,,,,,,,,,,,,,,,,,,,,,,,,,0,0,0,0,0
3.7569,1783191253.1616,1,1,1.0000,0.0000,1.44679,0.18898,-2.78821,1.02839,1.57079,0.00003,-0.14511,-0.38001,0.03530,,,,,,,,,,,,,,,,,,,,,,,,,,0,0,0,0,0
3.7763,1783191253.1810,1,1,1.0000,0.0000,1.44679,0.18859,-2.78829,1.02886,1.57079,0.00003,-0.14511,-0.38001,0.03520,,,,,,,,,,,,,,,,,,,,,,,,,,0,0,0,0,0
3.7766,1783191253.1813,1,1,1.0000,0.0000,1.44679,0.18859,-2.78829,1.02886,1.57079,0.00003,-0.14511,-0.38001,0.03520,,,,,,,,,,,,,,,,,,,,,,,,,,0,0,0,0,0
3.7769,1783191253.1817,1,1,1.0000,0.0000,1.44679,0.18859,-2.78829,1.02886,1.57079,0.00003,-0.14511,-0.38001,0.03520,,,,,,,,,,,,,,,,,,,,,,,,,,0,0,0,0,0
3.7866,1783191253.1913,1,1,1.0000,0.0000,1.44679,0.18851,-2.78831,1.02896,1.57079,0.00003,-0.14511,-0.38001,0.03518,,,,,,,,,,,,,,,,,,,,,,,,,,0,0,0,0,0
3.7869,1783191253.1916,1,1,1.0000,0.0000,1.44679,0.18851,-2.78831,1.02896,1.57079,0.00003,-0.14511,-0.38001,0.03518,,,,,,,,,,,,,,,,,,,,,,,,,,0,0,0,0,0
3.8013,1783191253.2060,1,1,1.0000,0.0000,1.44679,0.18811,-2.78840,1.02945,1.57079,0.00004,-0.14511,-0.38001,0.03509,,,,,,,,,,,,,,,,,,,,,,,,,,0,0,0,0,0
3.8134,1783191253.2181,1,1,1.0000,0.0000,1.44679,0.18801,-2.78843,1.02958,1.57079,0.00004,-0.14511,-0.38001,0.03506,,,,,,,,,,,,,,,,,,,,,,,,,,0,0,0,0,0
3.8163,1783191253.2210,1,1,1.0000,0.0000,1.44679,0.18801,-2.78843,1.02958,1.57079,0.00004,-0.14511,-0.38001,0.03506,,,,,,,,,,,,,,,,,,,,,,,,,,0,0,0,0,0
3.8266,1783191253.2313,1,1,1.0000,0.0000,1.44679,0.18780,-2.78847,1.02983,1.57079,0.00004,-0.14511,-0.38001,0.03501,,,,,,,,,,,,,,,,,,,,,,,,,,0,0,0,0,0
3.8268,1783191253.2316,1,1,1.0000,0.0000,1.44679,0.18780,-2.78847,1.02983,1.57079,0.00004,-0.14511,-0.38001,0.03501,,,,,,,,,,,,,,,,,,,,,,,,,,0,0,0,0,0
3.8384,1783191253.2431,1,1,1.0000,0.0000,1.44679,0.18762,-2.78851,1.03006,1.57079,0.00004,-0.14511,-0.38001,0.03496,,,,,,,,,,,,,,,,,,,,,,,,,,0,0,0,0,0
3.8494,1783191253.2541,1,1,1.0000,0.0000,1.44679,0.18745,-2.78855,1.03026,1.57079,0.00004,-0.14511,-0.38001,0.03492,,,,,,,,,,,,,,,,,,,,,,,,,,0,0,0,0,0
3.8584,1783191253.2631,1,1,1.0000,0.0000,1.44679,0.18724,-2.78860,1.03052,1.57079,0.00004,-0.14511,-0.38001,0.03487,,,,,,,,,,,,,,,,,,,,,,,,,,0,0,0,0,0
3.8661,1783191253.2708,1,1,1.0000,0.0000,1.44679,0.18705,-2.78864,1.03075,1.57079,0.00004,-0.14511,-0.38001,0.03483,,,,,,,,,,,,,,,,,,,,,,,,,,0,0,0,0,0
3.8763,1783191253.2810,1,1,1.0000,0.0000,1.44679,0.18703,-2.78865,1.03078,1.57079,0.00004,-0.14511,-0.38001,0.03482,,,,,,,,,,,,,,,,,,,,,,,,,,0,0,0,0,0
3.8889,1783191253.2937,1,1,1.0000,0.0000,1.44679,0.18683,-2.78869,1.03103,1.57079,0.00004,-0.14511,-0.38001,0.03477,,,,,,,,,,,,,,,,,,,,,,,,,,0,0,0,0,0
3.8895,1783191253.2943,1,1,1.0000,0.0000,1.44679,0.18673,-2.78871,1.03114,1.57079,0.00004,-0.14511,-0.38001,0.03475,,,,,,,,,,,,,,,,,,,,,,,,,,0,0,0,0,0
3.8977,1783191253.3024,1,1,1.0000,0.0000,1.44679,0.18664,-2.78873,1.03125,1.57079,0.00004,-0.14511,-0.38001,0.03473,,,,,,,,,,,,,,,,,,,,,,,,,,0,0,0,0,0
3.8980,1783191253.3027,1,1,1.0000,0.0000,1.44679,0.18664,-2.78873,1.03125,1.57079,0.00004,-0.14511,-0.38001,0.03473,,,,,,,,,,,,,,,,,,,,,,,,,,0,0,0,0,0
3.9093,1783191253.3141,1,1,1.0000,0.0000,1.44679,0.18648,-2.78877,1.03146,1.57079,0.00004,-0.14511,-0.38001,0.03469,,,,,,,,,,,,,,,,,,,,,,,,,,0,0,0,0,0
3.9183,1783191253.3231,1,1,1.0000,0.0000,1.44679,0.18627,-2.78882,1.03171,1.57079,0.00004,-0.14511,-0.38001,0.03463,,,,,,,,,,,,,,,,,,,,,,,,,,0,0,0,0,0
3.9188,1783191253.3235,1,1,1.0000,0.0000,1.44679,0.18627,-2.78882,1.03171,1.57079,0.00004,-0.14511,-0.38001,0.03463,,,,,,,,,,,,,,,,,,,,,,,,,,0,0,0,0,0
3.9276,1783191253.3323,1,1,1.0000,0.0000,1.44679,0.18607,-2.78886,1.03195,1.57079,0.00004,-0.14511,-0.38001,0.03459,,,,,,,,,,,,,,,,,,,,,,,,,,0,0,0,0,0
3.9421,1783191253.3468,1,1,1.0000,0.0000,1.44679,0.18593,-2.78889,1.03212,1.57079,0.00004,-0.14511,-0.38001,0.03455,,,,,,,,,,,,,,,,,,,,,,,,,,0,0,0,0,0
3.9462,1783191253.3509,1,1,1.0000,0.0000,1.44679,0.18585,-2.78891,1.03222,1.57079,0.00004,-0.14511,-0.38001,0.03453,,,,,,,,,,,,,,,,,,,,,,,,,,0,0,0,0,0
3.9561,1783191253.3609,1,1,1.0000,0.0000,1.44679,0.18567,-2.78895,1.03245,1.57079,0.00004,-0.14511,-0.38001,0.03449,,,,,,,,,,,,,,,,,,,,,,,,,,0,0,0,0,0
3.9660,1783191253.3707,1,1,1.0000,0.0000,1.44679,0.18558,-2.78897,1.03255,1.57079,0.00004,-0.14511,-0.38001,0.03447,,,,,,,,,,,,,,,,,,,,,,,,,,0,0,0,0,0
3.9663,1783191253.3710,1,1,1.0000,0.0000,1.44679,0.18558,-2.78897,1.03255,1.57079,0.00004,-0.14511,-0.38001,0.03447,,,,,,,,,,,,,,,,,,,,,,,,,,0,0,0,0,0
3.9770,1783191253.3817,1,1,1.0000,0.0000,1.44679,0.18540,-2.78901,1.03278,1.57079,0.00004,-0.14511,-0.38001,0.03442,,,,,,,,,,,,,,,,,,,,,,,,,,0,0,0,0,0
3.9863,1783191253.3910,1,1,1.0000,0.0000,1.44679,0.18510,-2.78908,1.03315,1.57079,0.00004,-0.14511,-0.38001,0.03435,,,,,,,,,,,,,,,,,,,,,,,,,,0,0,0,0,0
3.9962,1783191253.4010,1,1,1.0000,0.0000,1.44679,0.18508,-2.78909,1.03317,1.57079,0.00004,-0.14511,-0.38001,0.03434,,,,,,,,,,,,,,,,,,,,,,,,,,0,0,0,0,0
4.0120,1783191253.4167,1,1,1.0000,0.0000,1.44679,0.18478,-2.78915,1.03353,1.57079,0.00004,-0.14511,-0.38001,0.03427,,,,,,,,,,,,,,,,,,,,,,,,,,0,0,0,0,0
4.0306,1783191253.4354,1,1,1.0000,0.0000,1.44679,0.18454,-2.78921,1.03383,1.57079,0.00004,-0.14511,-0.38001,0.03421,,,,,,,,,,,,,,,,,,,,,,,,,,0,0,0,0,0
4.0311,1783191253.4358,1,1,1.0000,0.0000,1.44679,0.18454,-2.78921,1.03383,1.57079,0.00004,-0.14511,-0.38001,0.03421,,,,,,,,,,,,,,,,,,,,,,,,,,0,0,0,0,0
4.0698,1783191253.4745,1,1,1.0000,0.0000,1.44679,0.18382,-2.78937,1.03470,1.57079,0.00004,-0.14511,-0.38001,0.03404,,,,,,,,,,,,,,,,,,,,,,,,,,0,0,0,0,0
4.0702,1783191253.4749,1,1,1.0000,0.0000,1.44679,0.18382,-2.78937,1.03470,1.57079,0.00004,-0.14511,-0.38001,0.03404,,,,,,,,,,,,,,,,,,,,,,,,,,0,0,0,0,0
4.0704,1783191253.4751,1,1,1.0000,0.0000,1.44679,0.18382,-2.78937,1.03470,1.57079,0.00004,-0.14511,-0.38001,0.03404,,,,,,,,,,,,,,,,,,,,,,,,,,0,0,0,0,0
4.0708,1783191253.4755,1,1,1.0000,0.0000,1.44679,0.18382,-2.78937,1.03470,1.57079,0.00004,-0.14511,-0.38001,0.03404,,,,,,,,,,,,,,,,,,,,,,,,,,0,0,0,0,0
4.0712,1783191253.4759,1,1,1.0000,0.0000,1.44679,0.18382,-2.78937,1.03470,1.57079,0.00004,-0.14511,-0.38001,0.03404,,,,,,,,,,,,,,,,,,,,,,,,,,0,0,0,0,0
4.0786,1783191253.4833,1,1,1.0000,0.0000,1.44679,0.18363,-2.78941,1.03494,1.57079,0.00004,-0.14511,-0.38001,0.03399,,,,,,,,,,,,,,,,,,,,,,,,,,0,0,0,0,0
4.0896,1783191253.4943,1,1,1.0000,0.0000,1.44679,0.18356,-2.78942,1.03502,1.57079,0.00004,-0.14511,-0.38001,0.03397,,,,,,,,,,,,,,,,,,,,,,,,,,0,0,0,0,0
4.0899,1783191253.4946,1,1,1.0000,0.0000,1.44679,0.18356,-2.78942,1.03502,1.57079,0.00004,-0.14511,-0.38001,0.03397,,,,,,,,,,,,,,,,,,,,,,,,,,0,0,0,0,0
4.0984,1783191253.5031,1,1,1.0000,0.0000,1.44679,0.18340,-2.78946,1.03522,1.57079,0.00004,-0.14511,-0.38001,0.03393,,,,,,,,,,,,,,,,,,,,,,,,,,0,0,0,0,0
4.1103,1783191253.5150,1,1,1.0000,0.0000,1.44679,0.18322,-2.78950,1.03544,1.57079,0.00004,-0.14511,-0.38001,0.03389,,,,,,,,,,,,,,,,,,,,,,,,,,0,0,0,0,0
4.1305,1783191253.5352,1,1,1.0000,0.0000,1.44679,0.18284,-2.78958,1.03590,1.57079,0.00004,-0.14511,-0.38001,0.03380,,,,,,,,,,,,,,,,,,,,,,,,,,0,0,0,0,0
4.1320,1783191253.5367,1,1,1.0000,0.0000,1.44679,0.18284,-2.78958,1.03590,1.57079,0.00004,-0.14511,-0.38001,0.03380,,,,,,,,,,,,,,,,,,,,,,,,,,0,0,0,0,0
4.1365,1783191253.5412,1,1,1.0000,0.0000,1.44679,0.18274,-2.78961,1.03603,1.57079,0.00004,-0.14511,-0.38001,0.03377,,,,,,,,,,,,,,,,,,,,,,,,,,0,0,0,0,0
4.1471,1783191253.5519,1,1,1.0000,0.0000,1.44678,0.18263,-2.78963,1.03616,1.57079,0.00004,-0.14511,-0.38001,0.03375,,,,,,,,,,,,,,,,,,,,,,,,,,0,0,0,0,0
4.1672,1783191253.5719,1,1,1.0000,0.0000,1.44678,0.18224,-2.78972,1.03664,1.57079,0.00004,-0.14511,-0.38001,0.03365,,,,,,,,,,,,,,,,,,,,,,,,,,0,0,0,0,0
4.1718,1783191253.5765,1,1,1.0000,0.0000,1.44678,0.18224,-2.78972,1.03664,1.57079,0.00004,-0.14511,-0.38001,0.03365,,,,,,,,,,,,,,,,,,,,,,,,,,0,0,0,0,0
4.1797,1783191253.5844,1,1,1.0000,0.0000,1.44678,0.18216,-2.78974,1.03674,1.57079,0.00004,-0.14511,-0.38001,0.03363,,,,,,,,,,,,,,,,,,,,,,,,,,0,0,0,0,0
4.1863,1783191253.5910,1,1,1.0000,0.0000,1.44678,0.18197,-2.78978,1.03697,1.57079,0.00004,-0.14511,-0.38001,0.03359,,,,,,,,,,,,,,,,,,,,,,,,,,0,0,0,0,0
4.1978,1783191253.6026,1,1,1.0000,0.0000,1.44678,0.18166,-2.78985,1.03734,1.57079,0.00004,-0.14511,-0.38000,0.03351,,,,,,,,,,,,,,,,,,,,,,,,,,0,0,0,0,0
4.2116,1783191253.6164,1,1,1.0000,0.0000,1.44678,0.18160,-2.78986,1.03742,1.57079,0.00004,-0.14511,-0.38000,0.03350,,,,,,,,,,,,,,,,,,,,,,,,,,0,0,0,0,0
4.2183,1783191253.6230,1,1,1.0000,0.0000,1.44678,0.18144,-2.78990,1.03761,1.57079,0.00004,-0.14511,-0.38000,0.03346,,,,,,,,,,,,,,,,,,,,,,,,,,0,0,0,0,0
4.2307,1783191253.6354,1,1,1.0000,0.0000,1.44678,0.18125,-2.78994,1.03784,1.57079,0.00004,-0.14511,-0.38000,0.03341,,,,,,,,,,,,,,,,,,,,,,,,,,0,0,0,0,0
4.2366,1783191253.6413,1,1,1.0000,0.0000,1.44678,0.18123,-2.78994,1.03787,1.57079,0.00004,-0.14511,-0.38000,0.03341,,,,,,,,,,,,,,,,,,,,,,,,,,0,0,0,0,0
4.2369,1783191253.6416,1,1,1.0000,0.0000,1.44678,0.18123,-2.78994,1.03787,1.57079,0.00004,-0.14511,-0.38000,0.03341,,,,,,,,,,,,,,,,,,,,,,,,,,0,0,0,0,0
4.2523,1783191253.6570,1,1,1.0000,0.0000,1.44678,0.18088,-2.79002,1.03830,1.57079,0.00004,-0.14511,-0.38000,0.03332,,,,,,,,,,,,,,,,,,,,,,,,,,0,0,0,0,0
4.2567,1783191253.6614,1,1,1.0000,0.0000,1.44678,0.18077,-2.79004,1.03843,1.57079,0.00004,-0.14511,-0.38000,0.03329,,,,,,,,,,,,,,,,,,,,,,,,,,0,0,0,0,0
4.2569,1783191253.6617,1,1,1.0000,0.0000,1.44678,0.18077,-2.79004,1.03843,1.57079,0.00004,-0.14511,-0.38000,0.03329,,,,,,,,,,,,,,,,,,,,,,,,,,0,0,0,0,0
4.2674,1783191253.6721,1,1,1.0000,0.0000,1.44678,0.18066,-2.79007,1.03856,1.57079,0.00004,-0.14511,-0.38000,0.03327,,,,,,,,,,,,,,,,,,,,,,,,,,0,0,0,0,0
4.2678,1783191253.6725,1,1,1.0000,0.0000,1.44678,0.18066,-2.79007,1.03856,1.57079,0.00004,-0.14511,-0.38000,0.03327,,,,,,,,,,,,,,,,,,,,,,,,,,0,0,0,0,0
4.2809,1783191253.6856,1,1,1.0000,0.0000,1.44678,0.18046,-2.79011,1.03882,1.57079,0.00004,-0.14511,-0.38000,0.03322,,,,,,,,,,,,,,,,,,,,,,,,,,0,0,0,0,0
4.2916,1783191253.6963,1,1,1.0000,0.0000,1.44678,0.18027,-2.79015,1.03904,1.57079,0.00004,-0.14511,-0.38000,0.03317,,,,,,,,,,,,,,,,,,,,,,,,,,0,0,0,0,0
4.2921,1783191253.6968,1,1,1.0000,0.0000,1.44678,0.18027,-2.79015,1.03904,1.57079,0.00004,-0.14511,-0.38000,0.03317,,,,,,,,,,,,,,,,,,,,,,,,,,0,0,0,0,0
4.2963,1783191253.7010,1,1,1.0000,0.0000,1.44678,0.18025,-2.79016,1.03907,1.57079,0.00004,-0.14511,-0.38000,0.03317,,,,,,,,,,,,,,,,,,,,,,,,,,0,0,0,0,0
4.2968,1783191253.7015,1,1,1.0000,0.0000,1.44678,0.18025,-2.79016,1.03907,1.57079,0.00004,-0.14511,-0.38000,0.03317,,,,,,,,,,,,,,,,,,,,,,,,,,0,0,0,0,0
4.3123,1783191253.7170,1,1,1.0000,0.0000,1.44678,0.17989,-2.79024,1.03950,1.57079,0.00004,-0.14511,-0.38000,0.03308,,,,,,,,,,,,,,,,,,,,,,,,,,0,0,0,0,0
4.3128,1783191253.7175,1,1,1.0000,0.0000,1.44678,0.17989,-2.79024,1.03950,1.57079,0.00004,-0.14511,-0.38000,0.03308,,,,,,,,,,,,,,,,,,,,,,,,,,0,0,0,0,0
4.3208,1783191253.7256,1,1,1.0000,0.0000,1.44678,0.17970,-2.79028,1.03974,1.57079,0.00004,-0.14511,-0.38000,0.03303,,,,,,,,,,,,,,,,,,,,,,,,,,0,0,0,0,0
4.3282,1783191253.7329,1,1,1.0000,0.0000,1.44678,0.17968,-2.79028,1.03976,1.57079,0.00004,-0.14511,-0.38000,0.03303,,,,,,,,,,,,,,,,,,,,,,,,,,0,0,0,0,0
4.3366,1783191253.7413,1,1,1.0000,0.0000,1.44678,0.17956,-2.79031,1.03991,1.57079,0.00004,-0.14511,-0.38000,0.03300,,,,,,,,,,,,,,,,,,,,,,,,,,0,0,0,0,0
4.3509,1783191253.7556,1,1,1.0000,0.0000,1.44678,0.17929,-2.79037,1.04024,1.57079,0.00004,-0.14511,-0.38000,0.03293,,,,,,,,,,,,,,,,,,,,,,,,,,0,0,0,0,0
4.3563,1783191253.7610,1,1,1.0000,0.0000,1.44678,0.17926,-2.79038,1.04027,1.57079,0.00004,-0.14511,-0.38000,0.03293,,,,,,,,,,,,,,,,,,,,,,,,,,0,0,0,0,0
4.3566,1783191253.7613,1,1,1.0000,0.0000,1.44678,0.17926,-2.79038,1.04027,1.57079,0.00004,-0.14511,-0.38000,0.03293,,,,,,,,,,,,,,,,,,,,,,,,,,0,0,0,0,0
4.3699,1783191253.7746,1,1,1.0000,0.0000,1.44678,0.17891,-2.79045,1.04071,1.57079,0.00004,-0.14511,-0.38000,0.03284,,,,,,,,,,,,,,,,,,,,,,,,,,0,0,0,0,0
4.3779,1783191253.7826,1,1,1.0000,0.0000,1.44678,0.17871,-2.79050,1.04094,1.57079,0.00004,-0.14511,-0.38000,0.03279,,,,,,,,,,,,,,,,,,,,,,,,,,0,0,0,0,0
4.3876,1783191253.7923,1,1,1.0000,0.0000,1.44678,0.17869,-2.79050,1.04097,1.57079,0.00004,-0.14511,-0.38000,0.03279,,,,,,,,,,,,,,,,,,,,,,,,,,0,0,0,0,0
4.3962,1783191253.8010,1,1,1.0000,0.0000,1.44678,0.17857,-2.79053,1.04111,1.57079,0.00004,-0.14511,-0.38000,0.03276,,,,,,,,,,,,,,,,,,,,,,,,,,0,0,0,0,0
4.3966,1783191253.8013,1,1,1.0000,0.0000,1.44678,0.17857,-2.79053,1.04111,1.57079,0.00004,-0.14511,-0.38000,0.03276,,,,,,,,,,,,,,,,,,,,,,,,,,0,0,0,0,0
4.4105,1783191253.8152,1,1,1.0000,0.0000,1.44678,0.17830,-2.79059,1.04145,1.57079,0.00004,-0.14511,-0.38000,0.03269,,,,,,,,,,,,,,,,,,,,,,,,,,0,0,0,0,0
4.4107,1783191253.8155,1,1,1.0000,0.0000,1.44678,0.17830,-2.79059,1.04145,1.57079,0.00004,-0.14511,-0.38000,0.03269,,,,,,,,,,,,,,,,,,,,,,,,,,0,0,0,0,0
4.4185,1783191253.8233,1,1,1.0000,0.0000,1.44678,0.17822,-2.79061,1.04155,1.57079,0.00004,-0.14511,-0.38000,0.03268,,,,,,,,,,,,,,,,,,,,,,,,,,0,0,0,0,0
4.4188,1783191253.8235,1,1,1.0000,0.0000,1.44678,0.17822,-2.79061,1.04155,1.57079,0.00004,-0.14511,-0.38000,0.03268,,,,,,,,,,,,,,,,,,,,,,,,,,0,0,0,0,0
4.4319,1783191253.8366,1,1,1.0000,0.0000,1.44678,0.17792,-2.79067,1.04191,1.57079,0.00004,-0.14511,-0.38000,0.03260,,,,,,,,,,,,,,,,,,,,,,,,,,0,0,0,0,0
4.4438,1783191253.8485,1,1,1.0000,0.0000,1.44678,0.17772,-2.79071,1.04215,1.57079,0.00004,-0.14511,-0.38000,0.03256,,,,,,,,,,,,,,,,,,,,,,,,,,0,0,0,0,0
4.4552,1783191253.8600,1,1,1.0000,0.0000,1.44678,0.17759,-2.79074,1.04232,1.57079,0.00004,-0.14511,-0.38000,0.03252,,,,,,,,,,,,,,,,,,,,,,,,,,0,0,0,0,0
4.4618,1783191253.8666,1,1,1.0000,0.0000,1.44678,0.17740,-2.79078,1.04254,1.57079,0.00004,-0.14511,-0.38000,0.03248,,,,,,,,,,,,,,,,,,,,,,,,,,0,0,0,0,0
4.4750,1783191253.8798,1,1,1.0000,0.0000,1.44678,0.17729,-2.79081,1.04268,1.57079,0.00004,-0.14511,-0.38000,0.03245,,,,,,,,,,,,,,,,,,,,,,,,,,0,0,0,0,0
4.4809,1783191253.8856,1,1,1.0000,0.0000,1.44678,0.17723,-2.79082,1.04275,1.57079,0.00004,-0.14511,-0.38000,0.03244,,,,,,,,,,,,,,,,,,,,,,,,,,0,0,0,0,0
4.4906,1783191253.8953,1,1,1.0000,0.0000,1.44678,0.17693,-2.79089,1.04311,1.57079,0.00004,-0.14511,-0.38000,0.03236,,,,,,,,,,,,,,,,,,,,,,,,,,0,0,0,0,0
4.5024,1783191253.9072,1,1,1.0000,0.0000,1.44678,0.17674,-2.79093,1.04335,1.57079,0.00004,-0.14511,-0.38000,0.03232,,,,,,,,,,,,,,,,,,,,,,,,,,0,0,0,0,0
4.5111,1783191253.9158,1,1,1.0000,0.0000,1.44678,0.17667,-2.79094,1.04343,1.57079,0.00004,-0.14511,-0.38000,0.03230,,,,,,,,,,,,,,,,,,,,,,,,,,0,0,0,0,0
4.5216,1783191253.9263,1,1,1.0000,0.0000,1.44678,0.17642,-2.79100,1.04374,1.57079,0.00004,-0.14511,-0.38000,0.03224,,,,,,,,,,,,,,,,,,,,,,,,,,0,0,0,0,0
4.5304,1783191253.9352,1,1,1.0000,0.0000,1.44678,0.17632,-2.79102,1.04385,1.57079,0.00004,-0.14511,-0.38000,0.03222,,,,,,,,,,,,,,,,,,,,,,,,,,0,0,0,0,0
4.5308,1783191253.9355,1,1,1.0000,0.0000,1.44678,0.17632,-2.79102,1.04385,1.57079,0.00004,-0.14511,-0.38000,0.03222,,,,,,,,,,,,,,,,,,,,,,,,,,0,0,0,0,0
4.5419,1783191253.9467,1,1,1.0000,0.0000,1.44678,0.17616,-2.79106,1.04406,1.57079,0.00004,-0.14511,-0.38000,0.03218,,,,,,,,,,,,,,,,,,,,,,,,,,0,0,0,0,0
4.5529,1783191253.9577,1,1,1.0000,0.0000,1.44678,0.17594,-2.79110,1.04432,1.57079,0.00004,-0.14511,-0.38000,0.03212,,,,,,,,,,,,,,,,,,,,,,,,,,0,0,0,0,0
4.5607,1783191253.9655,1,1,1.0000,0.0000,1.44678,0.17575,-2.79115,1.04456,1.57079,0.00004,-0.14511,-0.38000,0.03208,,,,,,,,,,,,,,,,,,,,,,,,,,0,0,0,0,0
4.5763,1783191253.9810,1,1,1.0000,0.0000,1.44678,0.17561,-2.79118,1.04473,1.57079,0.00004,-0.14511,-0.38000,0.03204,,,,,,,,,,,,,,,,,,,,,,,,,,0,0,0,0,0
4.5819,1783191253.9866,1,1,1.0000,0.0000,1.44678,0.17543,-2.79122,1.04495,1.57079,0.00004,-0.14511,-0.38000,0.03200,,,,,,,,,,,,,,,,,,,,,,,,,,0,0,0,0,0
4.5824,1783191253.9871,1,1,1.0000,0.0000,1.44678,0.17543,-2.79122,1.04495,1.57079,0.00004,-0.14511,-0.38000,0.03200,,,,,,,,,,,,,,,,,,,,,,,,,,0,0,0,0,0
4.5828,1783191253.9876,1,1,1.0000,0.0000,1.44678,0.17543,-2.79122,1.04495,1.57079,0.00004,-0.14511,-0.38000,0.03200,,,,,,,,,,,,,,,,,,,,,,,,,,0,0,0,0,0
4.5988,1783191254.0035,1,1,1.0000,0.0000,1.44678,0.17525,-2.79125,1.04516,1.57079,0.00004,-0.14511,-0.38000,0.03196,,,,,,,,,,,,,,,,,,,,,,,,,,0,0,0,0,0
4.6071,1783191254.0118,1,1,1.0000,0.0000,1.44678,0.17506,-2.79129,1.04539,1.57079,0.00004,-0.14511,-0.38000,0.03191,,,,,,,,,,,,,,,,,,,,,,,,,,0,0,0,0,0
4.6224,1783191254.0271,1,1,1.0000,0.0000,1.44678,0.17476,-2.79136,1.04576,1.57079,0.00004,-0.14511,-0.38000,0.03184,,,,,,,,,,,,,,,,,,,,,,,,,,0,0,0,0,0
4.6278,1783191254.0326,1,1,1.0000,0.0000,1.44678,0.17474,-2.79137,1.04578,1.57079,0.00004,-0.14511,-0.38000,0.03183,,,,,,,,,,,,,,,,,,,,,,,,,,0,0,0,0,0
4.6329,1783191254.0376,1,1,1.0000,0.0000,1.44678,0.17469,-2.79138,1.04584,1.57079,0.00004,-0.14511,-0.38000,0.03182,,,,,,,,,,,,,,,,,,,,,,,,,,0,0,0,0,0
4.6335,1783191254.0382,1,1,1.0000,0.0000,1.44678,0.17462,-2.79139,1.04593,1.57079,0.00004,-0.14511,-0.38000,0.03181,,,,,,,,,,,,,,,,,,,,,,,,,,0,0,0,0,0
4.6469,1783191254.0517,1,1,1.0000,0.0000,1.44678,0.17434,-2.79145,1.04627,1.57079,0.00004,-0.14511,-0.38000,0.03174,,,,,,,,,,,,,,,,,,,,,,,,,,0,0,0,0,0
4.6553,1783191254.0600,1,1,1.0000,0.0000,1.44678,0.17432,-2.79146,1.04629,1.57079,0.00004,-0.14511,-0.38000,0.03173,,,,,,,,,,,,,,,,,,,,,,,,,,0,0,0,0,0
4.6668,1783191254.0715,1,1,1.0000,0.0000,1.44678,0.17407,-2.79151,1.04660,1.57079,0.00005,-0.14511,-0.38000,0.03167,,,,,,,,,,,,,,,,,,,,,,,,,,0,0,0,0,0
4.6817,1783191254.0864,1,1,1.0000,0.0000,1.44678,0.17376,-2.79158,1.04697,1.57079,0.00005,-0.14511,-0.38000,0.03160,,,,,,,,,,,,,,,,,,,,,,,,,,0,0,0,0,0
4.6820,1783191254.0867,1,1,1.0000,0.0000,1.44678,0.17376,-2.79158,1.04697,1.57079,0.00005,-0.14511,-0.38000,0.03160,,,,,,,,,,,,,,,,,,,,,,,,,,0,0,0,0,0
4.6839,1783191254.0886,1,1,1.0000,0.0000,1.44678,0.17376,-2.79158,1.04697,1.57079,0.00005,-0.14511,-0.38000,0.03160,,,,,,,,,,,,,,,,,,,,,,,,,,0,0,0,0,0
4.6939,1783191254.0987,1,1,1.0000,0.0000,1.44678,0.17362,-2.79161,1.04714,1.57079,0.00005,-0.14511,-0.38000,0.03157,,,,,,,,,,,,,,,,,,,,,,,,,,0,0,0,0,0
4.7123,1783191254.1171,1,1,1.0000,0.0000,1.44678,0.17335,-2.79167,1.04747,1.57079,0.00005,-0.14511,-0.38000,0.03150,,,,,,,,,,,,,,,,,,,,,,,,,,0,0,0,0,0
4.7127,1783191254.1174,1,1,1.0000,0.0000,1.44678,0.17335,-2.79167,1.04747,1.57079,0.00005,-0.14511,-0.38000,0.03150,,,,,,,,,,,,,,,,,,,,,,,,,,0,0,0,0,0
4.7244,1783191254.1291,1,1,1.0000,0.0000,1.44678,0.17318,-2.79170,1.04768,1.57079,0.00005,-0.14511,-0.38000,0.03146,,,,,,,,,,,,,,,,,,,,,,,,,,0,0,0,0,0
4.7313,1783191254.1360,1,1,1.0000,0.0000,1.44678,0.17297,-2.79175,1.04794,1.57079,0.00005,-0.14511,-0.38000,0.03141,,,,,,,,,,,,,,,,,,,,,,,,,,0,0,0,0,0
4.7406,1783191254.1453,1,1,1.0000,0.0000,1.44678,0.17277,-2.79179,1.04818,1.57079,0.00005,-0.14511,-0.38000,0.03136,,,,,,,,,,,,,,,,,,,,,,,,,,0,0,0,0,0
4.7410,1783191254.1457,1,1,1.0000,0.0000,1.44678,0.17277,-2.79179,1.04818,1.57079,0.00005,-0.14511,-0.38000,0.03136,,,,,,,,,,,,,,,,,,,,,,,,,,0,0,0,0,0
4.7544,1783191254.1591,1,1,1.0000,0.0000,1.44678,0.17263,-2.79182,1.04835,1.57079,0.00005,-0.14511,-0.38000,0.03133,,,,,,,,,,,,,,,,,,,,,,,,,,0,0,0,0,0
4.7625,1783191254.1672,1,1,1.0000,0.0000,1.44678,0.17245,-2.79186,1.04857,1.57079,0.00005,-0.14511,-0.38000,0.03128,,,,,,,,,,,,,,,,,,,,,,,,,,0,0,0,0,0
4.7628,1783191254.1675,1,1,1.0000,0.0000,1.44678,0.17245,-2.79186,1.04857,1.57079,0.00005,-0.14511,-0.38000,0.03128,,,,,,,,,,,,,,,,,,,,,,,,,,0,0,0,0,0
4.7747,1783191254.1795,1,1,1.0000,0.0000,1.44678,0.17233,-2.79189,1.04871,1.57079,0.00005,-0.14511,-0.38000,0.03126,,,,,,,,,,,,,,,,,,,,,,,,,,0,0,0,0,0
4.7804,1783191254.1851,1,1,1.0000,0.0000,1.44678,0.17227,-2.79190,1.04878,1.57079,0.00005,-0.14511,-0.38000,0.03124,,,,,,,,,,,,,,,,,,,,,,,,,,0,0,0,0,0
4.7807,1783191254.1855,1,1,1.0000,0.0000,1.44678,0.17227,-2.79190,1.04878,1.57079,0.00005,-0.14511,-0.38000,0.03124,,,,,,,,,,,,,,,,,,,,,,,,,,0,0,0,0,0
4.7931,1783191254.1978,1,1,1.0000,0.0000,1.44678,0.17197,-2.79196,1.04915,1.57079,0.00005,-0.14511,-0.38000,0.03117,,,,,,,,,,,,,,,,,,,,,,,,,,0,0,0,0,0
4.8009,1783191254.2056,1,1,1.0000,0.0000,1.44678,0.17178,-2.79201,1.04939,1.57079,0.00005,-0.14511,-0.38000,0.03112,,,,,,,,,,,,,,,,,,,,,,,,,,0,0,0,0,0
4.8110,1783191254.2157,1,1,1.0000,0.0000,1.44678,0.17171,-2.79202,1.04947,1.57079,0.00005,-0.14511,-0.38000,0.03111,,,,,,,,,,,,,,,,,,,,,,,,,,0,0,0,0,0
4.8114,1783191254.2161,1,1,1.0000,0.0000,1.44678,0.17171,-2.79202,1.04947,1.57079,0.00005,-0.14511,-0.38000,0.03111,,,,,,,,,,,,,,,,,,,,,,,,,,0,0,0,0,0
4.8250,1783191254.2298,1,1,1.0000,0.0000,1.44678,0.17145,-2.79207,1.04978,1.57079,0.00005,-0.14511,-0.38000,0.03104,,,,,,,,,,,,,,,,,,,,,,,,,,0,0,0,0,0
4.8257,1783191254.2304,1,1,1.0000,0.0000,1.44678,0.17136,-2.79209,1.04989,1.57079,0.00005,-0.14511,-0.38000,0.03102,,,,,,,,,,,,,,,,,,,,,,,,,,0,0,0,0,0
4.8376,1783191254.2424,1,1,1.0000,0.0000,1.44678,0.17126,-2.79212,1.05001,1.57079,0.00005,-0.14511,-0.38000,0.03100,,,,,,,,,,,,,,,,,,,,,,,,,,0,0,0,0,0
4.8454,1783191254.2501,1,1,1.0000,0.0000,1.44678,0.17121,-2.79213,1.05007,1.57079,0.00005,-0.14511,-0.38000,0.03099,,,,,,,,,,,,,,,,,,,,,,,,,,0,0,0,0,0
4.8508,1783191254.2555,1,1,1.0000,0.0000,1.44678,0.17105,-2.79216,1.05027,1.57079,0.00005,-0.14511,-0.38000,0.03095,,,,,,,,,,,,,,,,,,,,,,,,,,0,0,0,0,0
4.8606,1783191254.2654,1,1,1.0000,0.0000,1.44678,0.17086,-2.79220,1.05050,1.57079,0.00005,-0.14511,-0.38000,0.03090,,,,,,,,,,,,,,,,,,,,,,,,,,0,0,0,0,0
4.8787,1783191254.2835,1,1,1.0000,0.0000,1.44678,0.17059,-2.79226,1.05083,1.57079,0.00005,-0.14511,-0.38000,0.03084,,,,,,,,,,,,,,,,,,,,,,,,,,0,0,0,0,0
4.8791,1783191254.2838,1,1,1.0000,0.0000,1.44678,0.17059,-2.79226,1.05083,1.57079,0.00005,-0.14511,-0.38000,0.03084,,,,,,,,,,,,,,,,,,,,,,,,,,0,0,0,0,0
4.8859,1783191254.2906,1,1,1.0000,0.0000,1.44678,0.17037,-2.79231,1.05109,1.57079,0.00005,-0.14511,-0.38000,0.03079,,,,,,,,,,,,,,,,,,,,,,,,,,0,0,0,0,0
4.8948,1783191254.2995,1,1,1.0000,0.0000,1.44678,0.17028,-2.79233,1.05120,1.57079,0.00005,-0.14511,-0.38000,0.03076,,,,,,,,,,,,,,,,,,,,,,,,,,0,0,0,0,0
4.8951,1783191254.2998,1,1,1.0000,0.0000,1.44678,0.17028,-2.79233,1.05120,1.57079,0.00005,-0.14511,-0.38000,0.03076,,,,,,,,,,,,,,,,,,,,,,,,,,0,0,0,0,0
4.9023,1783191254.3071,1,1,1.0000,0.0000,1.44678,0.17021,-2.79234,1.05128,1.57079,0.00005,-0.14511,-0.38000,0.03075,,,,,,,,,,,,,,,,,,,,,,,,,,0,0,0,0,0
4.9128,1783191254.3175,1,1,1.0000,0.0000,1.44678,0.17005,-2.79238,1.05148,1.57079,0.00005,-0.14511,-0.38000,0.03071,,,,,,,,,,,,,,,,,,,,,,,,,,0,0,0,0,0
4.9215,1783191254.3263,1,1,1.0000,0.0000,1.44678,0.16987,-2.79242,1.05171,1.57079,0.00005,-0.14511,-0.38000,0.03066,,,,,,,,,,,,,,,,,,,,,,,,,,0,0,0,0,0
4.9321,1783191254.3368,1,1,1.0000,0.0000,1.44678,0.16978,-2.79243,1.05181,1.57079,0.00005,-0.14511,-0.38000,0.03064,,,,,,,,,,,,,,,,,,,,,,,,,,0,0,0,0,0
4.9428,1783191254.3476,1,1,1.0000,0.0000,1.44678,0.16948,-2.79250,1.05217,1.57079,0.00005,-0.14511,-0.38000,0.03057,,,,,,,,,,,,,,,,,,,,,,,,,,0,0,0,0,0
4.9508,1783191254.3555,1,1,1.0000,0.0000,1.44678,0.16928,-2.79254,1.05241,1.57079,0.00005,-0.14511,-0.38000,0.03052,,,,,,,,,,,,,,,,,,,,,,,,,,0,0,0,0,0
4.9643,1783191254.3690,1,1,1.0000,0.0000,1.44678,0.16922,-2.79255,1.05249,1.57079,0.00005,-0.14511,-0.38000,0.03051,,,,,,,,,,,,,,,,,,,,,,,,,,0,0,0,0,0
4.9647,1783191254.3694,1,1,1.0000,0.0000,1.44678,0.16922,-2.79255,1.05249,1.57079,0.00005,-0.14511,-0.38000,0.03051,,,,,,,,,,,,,,,,,,,,,,,,,,0,0,0,0,0
4.9713,1783191254.3760,1,1,1.0000,0.0000,1.44678,0.16906,-2.79259,1.05269,1.57079,0.00005,-0.14511,-0.38000,0.03047,,,,,,,,,,,,,,,,,,,,,,,,,,0,0,0,0,0
4.9808,1783191254.3855,1,1,1.0000,0.0000,1.44678,0.16887,-2.79263,1.05292,1.57079,0.00005,-0.14511,-0.38000,0.03043,,,,,,,,,,,,,,,,,,,,,,,,,,0,0,0,0,0
4.9917,1783191254.3964,1,1,1.0000,0.0000,1.44678,0.16878,-2.79265,1.05302,1.57079,0.00005,-0.14511,-0.38000,0.03041,,,,,,,,,,,,,,,,,,,,,,,,,,0,0,0,0,0
5.0008,1783191254.4055,1,1,1.0000,0.0000,1.44678,0.16859,-2.79269,1.05325,1.57079,0.00005,-0.14511,-0.38000,0.03036,,,,,,,,,,,,,,,,,,,,,,,,,,0,0,0,0,0
5.0130,1783191254.4178,1,1,1.0000,0.0000,1.44677,0.16829,-2.79275,1.05362,1.57079,0.00005,-0.14511,-0.38000,0.03029,,,,,,,,,,,,,,,,,,,,,,,,,,0,0,0,0,0
5.0207,1783191254.4254,1,1,1.0000,0.0000,1.44677,0.16827,-2.79276,1.05365,1.57079,0.00005,-0.14511,-0.38000,0.03028,,,,,,,,,,,,,,,,,,,,,,,,,,0,0,0,0,0
5.0339,1783191254.4386,1,1,1.0000,0.0000,1.44677,0.16796,-2.79282,1.05402,1.57079,0.00005,-0.14511,-0.38000,0.03021,,,,,,,,,,,,,,,,,,,,,,,,,,0,0,0,0,0
5.0422,1783191254.4469,1,1,1.0000,0.0000,1.44677,0.16787,-2.79284,1.05413,1.57079,0.00005,-0.14511,-0.38000,0.03019,,,,,,,,,,,,,,,,,,,,,,,,,,0,0,0,0,0
5.0507,1783191254.4554,1,1,1.0000,0.0000,1.44677,0.16779,-2.79286,1.05423,1.57079,0.00005,-0.14511,-0.38000,0.03017,,,,,,,,,,,,,,,,,,,,,,,,,,0,0,0,0,0
5.0651,1783191254.4699,1,1,1.0000,0.0000,1.44677,0.16748,-2.79292,1.05460,1.57079,0.00005,-0.14511,-0.38000,0.03009,,,,,,,,,,,,,,,,,,,,,,,,,,0,0,0,0,0
5.0721,1783191254.4768,1,1,1.0000,0.0000,1.44677,0.16728,-2.79297,1.05484,1.57079,0.00005,-0.14511,-0.38000,0.03005,,,,,,,,,,,,,,,,,,,,,,,,,,0,0,0,0,0
5.0961,1783191254.5009,1,1,1.0000,0.0000,1.44677,0.16696,-2.79303,1.05523,1.57079,0.00005,-0.14511,-0.38000,0.02997,,,,,,,,,,,,,,,,,,,,,,,,,,0,0,0,0,0
5.1005,1783191254.5052,1,1,1.0000,0.0000,1.44677,0.16687,-2.79305,1.05534,1.57079,0.00005,-0.14511,-0.38000,0.02995,,,,,,,,,,,,,,,,,,,,,,,,,,0,0,0,0,0
5.1008,1783191254.5055,1,1,1.0000,0.0000,1.44677,0.16687,-2.79305,1.05534,1.57079,0.00005,-0.14511,-0.38000,0.02995,,,,,,,,,,,,,,,,,,,,,,,,,,0,0,0,0,0
5.1139,1783191254.5186,1,1,1.0000,0.0000,1.44677,0.16670,-2.79309,1.05555,1.57079,0.00005,-0.14511,-0.38000,0.02991,,,,,,,,,,,,,,,,,,,,,,,,,,0,0,0,0,0
5.1143,1783191254.5190,1,1,1.0000,0.0000,1.44677,0.16670,-2.79309,1.05555,1.57079,0.00005,-0.14511,-0.38000,0.02991,,,,,,,,,,,,,,,,,,,,,,,,,,0,0,0,0,0
5.1219,1783191254.5267,1,1,1.0000,0.0000,1.44677,0.16648,-2.79314,1.05581,1.57079,0.00005,-0.14511,-0.38000,0.02986,,,,,,,,,,,,,,,,,,,,,,,,,,0,0,0,0,0
5.1348,1783191254.5395,1,1,1.0000,0.0000,1.44677,0.16628,-2.79318,1.05605,1.57079,0.00005,-0.14511,-0.38000,0.02981,,,,,,,,,,,,,,,,,,,,,,,,,,0,0,0,0,0
5.1553,1783191254.5600,1,1,1.0000,0.0000,1.44677,0.16596,-2.79325,1.05644,1.57079,0.00005,-0.14511,-0.38000,0.02973,,,,,,,,,,,,,,,,,,,,,,,,,,0,0,0,0,0
5.1557,1783191254.5604,1,1,1.0000,0.0000,1.44677,0.16596,-2.79325,1.05644,1.57079,0.00005,-0.14511,-0.38000,0.02973,,,,,,,,,,,,,,,,,,,,,,,,,,0,0,0,0,0
5.1618,1783191254.5665,1,1,1.0000,0.0000,1.44677,0.16587,-2.79327,1.05656,1.57079,0.00005,-0.14511,-0.38000,0.02971,,,,,,,,,,,,,,,,,,,,,,,,,,0,0,0,0,0
5.1621,1783191254.5669,1,1,1.0000,0.0000,1.44677,0.16587,-2.79327,1.05656,1.57079,0.00005,-0.14511,-0.38000,0.02971,,,,,,,,,,,,,,,,,,,,,,,,,,0,0,0,0,0
5.1708,1783191254.5755,1,1,1.0000,0.0000,1.44677,0.16578,-2.79328,1.05666,1.57079,0.00005,-0.14511,-0.38000,0.02969,,,,,,,,,,,,,,,,,,,,,,,,,,0,0,0,0,0
5.1886,1783191254.5933,1,1,1.0000,0.0000,1.44677,0.16537,-2.79337,1.05715,1.57079,0.00005,-0.14511,-0.38000,0.02959,,,,,,,,,,,,,,,,,,,,,,,,,,0,0,0,0,0
5.1904,1783191254.5951,1,1,1.0000,0.0000,1.44677,0.16528,-2.79339,1.05726,1.57079,0.00005,-0.14511,-0.38000,0.02957,,,,,,,,,,,,,,,,,,,,,,,,,,0,0,0,0,0
5.1908,1783191254.5955,1,1,1.0000,0.0000,1.44677,0.16528,-2.79339,1.05726,1.57079,0.00005,-0.14511,-0.38000,0.02957,,,,,,,,,,,,,,,,,,,,,,,,,,0,0,0,0,0
5.2065,1783191254.6113,1,1,1.0000,0.0000,1.44677,0.16514,-2.79342,1.05744,1.57079,0.00005,-0.14511,-0.38000,0.02954,,,,,,,,,,,,,,,,,,,,,,,,,,0,0,0,0,0
5.2107,1783191254.6155,1,1,1.0000,0.0000,1.44677,0.16505,-2.79344,1.05754,1.57079,0.00005,-0.14511,-0.38000,0.02951,,,,,,,,,,,,,,,,,,,,,,,,,,0,0,0,0,0
5.2205,1783191254.6252,1,1,1.0000,0.0000,1.44677,0.16486,-2.79348,1.05777,1.57079,0.00005,-0.14511,-0.38000,0.02947,,,,,,,,,,,,,,,,,,,,,,,,,,0,0,0,0,0
5.2338,1783191254.6385,1,1,1.0000,0.0000,1.44677,0.16469,-2.79351,1.05798,1.57079,0.00005,-0.14511,-0.38000,0.02943,,,,,,,,,,,,,,,,,,,,,,,,,,0,0,0,0,0
5.2416,1783191254.6464,1,1,1.0000,0.0000,1.44677,0.16447,-2.79356,1.05824,1.57079,0.00005,-0.14511,-0.38000,0.02938,,,,,,,,,,,,,,,,,,,,,,,,,,0,0,0,0,0
5.2508,1783191254.6556,1,1,1.0000,0.0000,1.44677,0.16428,-2.79360,1.05848,1.57079,0.00005,-0.14511,-0.38000,0.02933,,,,,,,,,,,,,,,,,,,,,,,,,,0,0,0,0,0
5.2604,1783191254.6652,1,1,1.0000,0.0000,1.44677,0.16426,-2.79361,1.05850,1.57079,0.00005,-0.14511,-0.38000,0.02933,,,,,,,,,,,,,,,,,,,,,,,,,,0,0,0,0,0
5.2608,1783191254.6655,1,1,1.0000,0.0000,1.44677,0.16426,-2.79361,1.05850,1.57079,0.00005,-0.14511,-0.38000,0.02933,,,,,,,,,,,,,,,,,,,,,,,,,,0,0,0,0,0
5.2738,1783191254.6786,1,1,1.0000,0.0000,1.44677,0.16395,-2.79367,1.05887,1.57079,0.00005,-0.14511,-0.38000,0.02925,,,,,,,,,,,,,,,,,,,,,,,,,,0,0,0,0,0
5.2741,1783191254.6788,1,1,1.0000,0.0000,1.44677,0.16395,-2.79367,1.05887,1.57079,0.00005,-0.14511,-0.38000,0.02925,,,,,,,,,,,,,,,,,,,,,,,,,,0,0,0,0,0
5.2867,1783191254.6914,1,1,1.0000,0.0000,1.44677,0.16383,-2.79369,1.05901,1.57079,0.00005,-0.14511,-0.38000,0.02923,,,,,,,,,,,,,,,,,,,,,,,,,,0,0,0,0,0
5.2917,1783191254.6965,1,1,1.0000,0.0000,1.44677,0.16377,-2.79371,1.05909,1.57079,0.00005,-0.14511,-0.38000,0.02921,,,,,,,,,,,,,,,,,,,,,,,,,,0,0,0,0,0
5.2922,1783191254.6969,1,1,1.0000,0.0000,1.44677,0.16377,-2.79371,1.05909,1.57079,0.00005,-0.14511,-0.38000,0.02921,,,,,,,,,,,,,,,,,,,,,,,,,,0,0,0,0,0
5.3079,1783191254.7126,1,1,1.0000,0.0000,1.44677,0.16336,-2.79379,1.05959,1.57079,0.00005,-0.14511,-0.38000,0.02911,,,,,,,,,,,,,,,,,,,,,,,,,,0,0,0,0,0
5.3082,1783191254.7129,1,1,1.0000,0.0000,1.44677,0.16336,-2.79379,1.05959,1.57079,0.00005,-0.14511,-0.38000,0.02911,,,,,,,,,,,,,,,,,,,,,,,,,,0,0,0,0,0
5.3125,1783191254.7172,1,1,1.0000,0.0000,1.44677,0.16327,-2.79381,1.05970,1.57079,0.00005,-0.14511,-0.38000,0.02909,,,,,,,,,,,,,,,,,,,,,,,,,,0,0,0,0,0
5.3226,1783191254.7273,1,1,1.0000,0.0000,1.44677,0.16320,-2.79383,1.05978,1.57079,0.00005,-0.14511,-0.38000,0.02907,,,,,,,,,,,,,,,,,,,,,,,,,,0,0,0,0,0
5.3363,1783191254.7410,1,1,1.0000,0.0000,1.44677,0.16295,-2.79388,1.06009,1.57079,0.00005,-0.14511,-0.38000,0.02901,,,,,,,,,,,,,,,,,,,,,,,,,,0,0,0,0,0
5.3431,1783191254.7478,1,1,1.0000,0.0000,1.44677,0.16285,-2.79390,1.06020,1.57079,0.00005,-0.14511,-0.38000,0.02899,,,,,,,,,,,,,,,,,,,,,,,,,,0,0,0,0,0
5.3525,1783191254.7572,1,1,1.0000,0.0000,1.44677,0.16277,-2.79392,1.06030,1.57079,0.00005,-0.14511,-0.38000,0.02897,,,,,,,,,,,,,,,,,,,,,,,,,,0,0,0,0,0
5.3608,1783191254.7655,1,1,1.0000,0.0000,1.44677,0.16257,-2.79396,1.06054,1.57079,0.00005,-0.14511,-0.38000,0.02893,,,,,,,,,,,,,,,,,,,,,,,,,,0,0,0,0,0
5.3726,1783191254.7774,1,1,1.0000,0.0000,1.44677,0.16226,-2.79402,1.06091,1.57079,0.00005,-0.14511,-0.38000,0.02885,,,,,,,,,,,,,,,,,,,,,,,,,,0,0,0,0,0
5.3809,1783191254.7857,1,1,1.0000,0.0000,1.44677,0.16225,-2.79403,1.06094,1.57079,0.00005,-0.14511,-0.38000,0.02885,,,,,,,,,,,,,,,,,,,,,,,,,,0,0,0,0,0
