Martins-Lucaas/twinforge/sensors/Data/20260702_141040__samples.csv
t_rel_s,t_unix,cycle,phase,setpoint_n,force_net_n,q1,q2,q3,q4,q5,q6,tcp_x,tcp_y,tcp_z,taxel_0,taxel_1,taxel_2,taxel_3,taxel_4,taxel_5,taxel_6,taxel_7,taxel_8,taxel_9,taxel_10,taxel_11,taxel_12,taxel_13,taxel_14,taxel_15,taxel_16,taxel_17,taxel_18,taxel_19,taxel_20,taxel_21,taxel_22,taxel_23,taxel_24,n_RA,n_SA,cn_mm,cn_ra,cn_sa
0.0016,1783012240.8767,1,0,1.0000,0.0000,1.44682,0.23328,-2.77748,0.97337,1.57080,-0.00000,-0.14512,-0.38003,0.04653,,,,,,,,,,,,,,,,,,,,,,,,,,0,0,0,0,0
0.0120,1783012240.8871,1,0,1.0000,0.0000,1.44682,0.23328,-2.77748,0.97337,1.57080,0.00000,-0.14512,-0.38003,0.04653,,,,,,,,,,,,,,,,,,,,,,,,,,0,0,0,0,0
0.0212,1783012240.8963,1,0,1.0000,0.0000,1.44682,0.23328,-2.77748,0.97337,1.57080,0.00000,-0.14512,-0.38003,0.04653,,,,,,,,,,,,,,,,,,,,,,,,,,0,0,0,0,0
0.0215,1783012240.8966,1,0,1.0000,0.0000,1.44682,0.23328,-2.77748,0.97337,1.57080,0.00000,-0.14512,-0.38003,0.04653,,,,,,,,,,,,,,,,,,,,,,,,,,0,0,0,0,0
0.0314,1783012240.9065,1,0,1.0000,0.0000,1.44682,0.23328,-2.77748,0.97337,1.57080,0.00000,-0.14512,-0.38003,0.04653,,,,,,,,,,,,,,,,,,,,,,,,,,0,0,0,0,0
0.0437,1783012240.9188,1,0,1.0000,0.0000,1.44682,0.23328,-2.77748,0.97337,1.57080,0.00000,-0.14512,-0.38003,0.04653,,,,,,,,,,,,,,,,,,,,,,,,,,0,0,0,0,0
0.0541,1783012240.9291,1,0,1.0000,0.0000,1.44682,0.23328,-2.77748,0.97337,1.57080,0.00000,-0.14512,-0.38003,0.04653,,,,,,,,,,,,,,,,,,,,,,,,,,0,0,0,0,0
0.0622,1783012240.9373,1,0,1.0000,0.0000,1.44682,0.23328,-2.77748,0.97337,1.57080,0.00000,-0.14512,-0.38003,0.04653,,,,,,,,,,,,,,,,,,,,,,,,,,0,0,0,0,0
0.0762,1783012240.9513,1,0,1.0000,0.0000,1.44682,0.23328,-2.77748,0.97337,1.57080,0.00000,-0.14512,-0.38003,0.04653,,,,,,,,,,,,,,,,,,,,,,,,,,0,0,0,0,0
0.0821,1783012240.9571,1,0,1.0000,0.0000,1.44682,0.23328,-2.77748,0.97337,1.57080,0.00000,-0.14512,-0.38003,0.04653,,,,,,,,,,,,,,,,,,,,,,,,,,0,0,0,0,0
0.0965,1783012240.9716,1,0,1.0000,0.0000,1.44682,0.23328,-2.77748,0.97337,1.57080,0.00000,-0.14512,-0.38003,0.04653,,,,,,,,,,,,,,,,,,,,,,,,,,0,0,0,0,0
0.1073,1783012240.9824,1,0,1.0000,0.0000,1.44682,0.23328,-2.77748,0.97337,1.57080,0.00000,-0.14512,-0.38003,0.04653,,,,,,,,,,,,,,,,,,,,,,,,,,0,0,0,0,0
0.1083,1783012240.9834,1,0,1.0000,0.0000,1.44682,0.23328,-2.77748,0.97337,1.57080,0.00000,-0.14512,-0.38003,0.04653,,,,,,,,,,,,,,,,,,,,,,,,,,0,0,0,0,0
0.1131,1783012240.9882,1,0,1.0000,0.0000,1.44682,0.23328,-2.77748,0.97337,1.57080,0.00000,-0.14512,-0.38003,0.04653,,,,,,,,,,,,,,,,,,,,,,,,,,0,0,0,0,0
0.1237,1783012240.9988,1,0,1.0000,0.0000,1.44682,0.23328,-2.77748,0.97337,1.57080,0.00000,-0.14512,-0.38003,0.04653,,,,,,,,,,,,,,,,,,,,,,,,,,0,0,0,0,0
0.1316,1783012241.0067,1,0,1.0000,0.0000,1.44682,0.23328,-2.77748,0.97337,1.57080,0.00000,-0.14512,-0.38003,0.04653,,,,,,,,,,,,,,,,,,,,,,,,,,0,0,0,0,0
0.1409,1783012241.0160,1,0,1.0000,0.0000,1.44682,0.23328,-2.77748,0.97337,1.57080,0.00000,-0.14512,-0.38003,0.04653,,,,,,,,,,,,,,,,,,,,,,,,,,0,0,0,0,0
0.1572,1783012241.0323,1,0,1.0000,0.0000,1.44682,0.23328,-2.77748,0.97337,1.57080,0.00000,-0.14512,-0.38003,0.04653,,,,,,,,,,,,,,,,,,,,,,,,,,0,0,0,0,0
0.1654,1783012241.0405,1,0,1.0000,0.0000,1.44682,0.23328,-2.77748,0.97337,1.57080,0.00000,-0.14512,-0.38003,0.04653,,,,,,,,,,,,,,,,,,,,,,,,,,0,0,0,0,0
0.1768,1783012241.0519,1,0,1.0000,0.0000,1.44682,0.23328,-2.77748,0.97337,1.57080,0.00000,-0.14512,-0.38003,0.04653,,,,,,,,,,,,,,,,,,,,,,,,,,0,0,0,0,0
0.1812,1783012241.0563,1,0,1.0000,0.0000,1.44682,0.23328,-2.77748,0.97337,1.57080,0.00000,-0.14512,-0.38003,0.04653,,,,,,,,,,,,,,,,,,,,,,,,,,0,0,0,0,0
0.1922,1783012241.0672,1,0,1.0000,0.0000,1.44682,0.23328,-2.77748,0.97337,1.57080,0.00000,-0.14512,-0.38003,0.04653,,,,,,,,,,,,,,,,,,,,,,,,,,0,0,0,0,0
0.2011,1783012241.0762,1,0,1.0000,0.0000,1.44682,0.23328,-2.77748,0.97337,1.57080,0.00000,-0.14512,-0.38003,0.04653,,,,,,,,,,,,,,,,,,,,,,,,,,0,0,0,0,0
0.2249,1783012241.1000,1,0,1.0000,0.0000,1.44682,0.23328,-2.77748,0.97337,1.57080,0.00000,-0.14512,-0.38003,0.04653,,,,,,,,,,,,,,,,,,,,,,,,,,0,0,0,0,0
0.2252,1783012241.1003,1,0,1.0000,0.0000,1.44682,0.23328,-2.77748,0.97337,1.57080,0.00000,-0.14512,-0.38003,0.04653,,,,,,,,,,,,,,,,,,,,,,,,,,0,0,0,0,0
0.2327,1783012241.1078,1,0,1.0000,0.0000,1.44682,0.23328,-2.77748,0.97337,1.57080,0.00000,-0.14512,-0.38003,0.04653,,,,,,,,,,,,,,,,,,,,,,,,,,0,0,0,0,0
0.2430,1783012241.1180,1,0,1.0000,0.0000,1.44682,0.23328,-2.77748,0.97337,1.57080,0.00000,-0.14512,-0.38003,0.04653,,,,,,,,,,,,,,,,,,,,,,,,,,0,0,0,0,0
0.2813,1783012241.1563,1,0,1.0000,0.0000,1.44682,0.23328,-2.77748,0.97337,1.57080,0.00000,-0.14512,-0.38003,0.04653,,,,,,,,,,,,,,,,,,,,,,,,,,0,0,0,0,0
0.2817,1783012241.1568,1,0,1.0000,0.0000,1.44682,0.23328,-2.77748,0.97337,1.57080,0.00000,-0.14512,-0.38003,0.04653,,,,,,,,,,,,,,,,,,,,,,,,,,0,0,0,0,0
0.2821,1783012241.1571,1,0,1.0000,0.0000,1.44682,0.23328,-2.77748,0.97337,1.57080,0.00000,-0.14512,-0.38003,0.04653,,,,,,,,,,,,,,,,,,,,,,,,,,0,0,0,0,0
0.2828,1783012241.1579,1,0,1.0000,0.0000,1.44682,0.23328,-2.77748,0.97337,1.57080,0.00000,-0.14512,-0.38003,0.04653,,,,,,,,,,,,,,,,,,,,,,,,,,0,0,0,0,0
0.2923,1783012241.1674,1,0,1.0000,0.0000,1.44682,0.23328,-2.77748,0.97337,1.57080,0.00000,-0.14512,-0.38003,0.04653,,,,,,,,,,,,,,,,,,,,,,,,,,0,0,0,0,0
0.3195,1783012241.1946,1,0,1.0000,0.0000,1.44682,0.23328,-2.77748,0.97337,1.57080,0.00000,-0.14512,-0.38003,0.04653,,,,,,,,,,,,,,,,,,,,,,,,,,0,0,0,0,0
0.3199,1783012241.1950,1,0,1.0000,0.0000,1.44682,0.23328,-2.77748,0.97337,1.57080,0.00000,-0.14512,-0.38003,0.04653,,,,,,,,,,,,,,,,,,,,,,,,,,0,0,0,0,0
0.3525,1783012241.2276,1,0,1.0000,0.0000,1.44682,0.23328,-2.77748,0.97337,1.57080,0.00000,-0.14512,-0.38003,0.04653,,,,,,,,,,,,,,,,,,,,,,,,,,0,0,0,0,0
0.3530,1783012241.2281,1,0,1.0000,0.0000,1.44682,0.23328,-2.77748,0.97337,1.57080,0.00000,-0.14512,-0.38003,0.04653,,,,,,,,,,,,,,,,,,,,,,,,,,0,0,0,0,0
0.3534,1783012241.2284,1,0,1.0000,0.0000,1.44682,0.23328,-2.77748,0.97337,1.57080,0.00000,-0.14512,-0.38003,0.04653,,,,,,,,,,,,,,,,,,,,,,,,,,0,0,0,0,0
0.3803,1783012241.2554,1,0,1.0000,0.0000,1.44682,0.23328,-2.77748,0.97337,1.57080,0.00000,-0.14512,-0.38003,0.04653,,,,,,,,,,,,,,,,,,,,,,,,,,0,0,0,0,0
0.3807,1783012241.2558,1,0,1.0000,0.0000,1.44682,0.23328,-2.77748,0.97337,1.57080,0.00000,-0.14512,-0.38003,0.04653,,,,,,,,,,,,,,,,,,,,,,,,,,0,0,0,0,0
0.4088,1783012241.2839,1,0,1.0000,0.0000,1.44682,0.23328,-2.77748,0.97337,1.57080,0.00000,-0.14512,-0.38003,0.04653,,,,,,,,,,,,,,,,,,,,,,,,,,0,0,0,0,0
0.4091,1783012241.2841,1,0,1.0000,0.0000,1.44682,0.23328,-2.77748,0.97337,1.57080,0.00000,-0.14512,-0.38003,0.04653,,,,,,,,,,,,,,,,,,,,,,,,,,0,0,0,0,0
0.4174,1783012241.2924,1,0,1.0000,0.0000,1.44682,0.23328,-2.77748,0.97337,1.57080,0.00000,-0.14512,-0.38003,0.04653,,,,,,,,,,,,,,,,,,,,,,,,,,0,0,0,0,0
0.4177,1783012241.2928,1,0,1.0000,0.0000,1.44682,0.23328,-2.77748,0.97337,1.57080,0.00000,-0.14512,-0.38003,0.04653,,,,,,,,,,,,,,,,,,,,,,,,,,0,0,0,0,0
0.4207,1783012241.2958,1,0,1.0000,0.0000,1.44682,0.23328,-2.77748,0.97337,1.57080,0.00000,-0.14512,-0.38003,0.04653,,,,,,,,,,,,,,,,,,,,,,,,,,0,0,0,0,0
0.4210,1783012241.2960,1,0,1.0000,0.0000,1.44682,0.23328,-2.77748,0.97337,1.57080,0.00000,-0.14512,-0.38003,0.04653,,,,,,,,,,,,,,,,,,,,,,,,,,0,0,0,0,0
0.4321,1783012241.3072,1,0,1.0000,0.0000,1.44682,0.23328,-2.77748,0.97337,1.57080,0.00000,-0.14512,-0.38003,0.04653,,,,,,,,,,,,,,,,,,,,,,,,,,0,0,0,0,0
0.4410,1783012241.3161,1,0,1.0000,0.0000,1.44682,0.23328,-2.77748,0.97337,1.57080,0.00000,-0.14512,-0.38003,0.04653,,,,,,,,,,,,,,,,,,,,,,,,,,0,0,0,0,0
0.4515,1783012241.3266,1,0,1.0000,0.0000,1.44682,0.23328,-2.77748,0.97337,1.57080,0.00000,-0.14512,-0.38003,0.04653,,,,,,,,,,,,,,,,,,,,,,,,,,0,0,0,0,0
0.4678,1783012241.3428,1,0,1.0000,0.0000,1.44682,0.23328,-2.77748,0.97337,1.57080,0.00000,-0.14512,-0.38003,0.04653,,,,,,,,,,,,,,,,,,,,,,,,,,0,0,0,0,0
0.4734,1783012241.3485,1,0,1.0000,0.0000,1.44682,0.23328,-2.77748,0.97337,1.57080,0.00000,-0.14512,-0.38003,0.04653,,,,,,,,,,,,,,,,,,,,,,,,,,0,0,0,0,0
0.4828,1783012241.3578,1,0,1.0000,0.0000,1.44682,0.23328,-2.77748,0.97337,1.57080,0.00000,-0.14512,-0.38003,0.04653,,,,,,,,,,,,,,,,,,,,,,,,,,0,0,0,0,0
0.4946,1783012241.3697,1,0,1.0000,0.0000,1.44682,0.23328,-2.77748,0.97337,1.57080,0.00000,-0.14512,-0.38003,0.04653,,,,,,,,,,,,,,,,,,,,,,,,,,0,0,0,0,0
0.4951,1783012241.3702,1,0,1.0000,0.0000,1.44682,0.23328,-2.77748,0.97337,1.57080,0.00000,-0.14512,-0.38003,0.04653,,,,,,,,,,,,,,,,,,,,,,,,,,0,0,0,0,0
0.5011,1783012241.3761,1,0,1.0000,0.0000,1.44682,0.23328,-2.77748,0.97337,1.57080,0.00000,-0.14512,-0.38003,0.04653,,,,,,,,,,,,,,,,,,,,,,,,,,0,0,0,0,0
0.5014,1783012241.3765,1,0,1.0000,0.0000,1.44682,0.23328,-2.77748,0.97337,1.57080,0.00000,-0.14512,-0.38003,0.04653,,,,,,,,,,,,,,,,,,,,,,,,,,0,0,0,0,0
0.5122,1783012241.3873,1,0,1.0000,0.0000,1.44682,0.23328,-2.77748,0.97337,1.57080,0.00000,-0.14512,-0.38003,0.04653,,,,,,,,,,,,,,,,,,,,,,,,,,0,0,0,0,0
0.5234,1783012241.3985,1,0,1.0000,0.0000,1.44682,0.23328,-2.77748,0.97337,1.57080,0.00000,-0.14512,-0.38003,0.04653,,,,,,,,,,,,,,,,,,,,,,,,,,0,0,0,0,0
0.5362,1783012241.4112,1,0,1.0000,0.0000,1.44682,0.23328,-2.77748,0.97337,1.57080,0.00000,-0.14512,-0.38003,0.04653,,,,,,,,,,,,,,,,,,,,,,,,,,0,0,0,0,0
0.5366,1783012241.4116,1,0,1.0000,0.0000,1.44682,0.23328,-2.77748,0.97337,1.57080,0.00000,-0.14512,-0.38003,0.04653,,,,,,,,,,,,,,,,,,,,,,,,,,0,0,0,0,0
0.5411,1783012241.4162,1,0,1.0000,0.0000,1.44682,0.23328,-2.77748,0.97337,1.57080,0.00000,-0.14512,-0.38003,0.04653,,,,,,,,,,,,,,,,,,,,,,,,,,0,0,0,0,0
0.5670,1783012241.4420,1,0,1.0000,0.0000,1.44682,0.23328,-2.77748,0.97337,1.57080,0.00000,-0.14512,-0.38003,0.04653,,,,,,,,,,,,,,,,,,,,,,,,,,0,0,0,0,0
0.5676,1783012241.4427,1,0,1.0000,0.0000,1.44682,0.23328,-2.77748,0.97337,1.57080,0.00000,-0.14512,-0.38003,0.04653,,,,,,,,,,,,,,,,,,,,,,,,,,0,0,0,0,0
0.5755,1783012241.4506,1,0,1.0000,0.0000,1.44682,0.23328,-2.77748,0.97337,1.57080,0.00000,-0.14512,-0.38003,0.04653,,,,,,,,,,,,,,,,,,,,,,,,,,0,0,0,0,0
0.5758,1783012241.4509,1,0,1.0000,0.0000,1.44682,0.23328,-2.77748,0.97337,1.57080,0.00000,-0.14512,-0.38003,0.04653,,,,,,,,,,,,,,,,,,,,,,,,,,0,0,0,0,0
0.5810,1783012241.4561,1,0,1.0000,0.0000,1.44682,0.23328,-2.77748,0.97337,1.57080,0.00000,-0.14512,-0.38003,0.04653,,,,,,,,,,,,,,,,,,,,,,,,,,0,0,0,0,0
0.5814,1783012241.4565,1,0,1.0000,0.0000,1.44682,0.23328,-2.77748,0.97337,1.57080,0.00000,-0.14512,-0.38003,0.04653,,,,,,,,,,,,,,,,,,,,,,,,,,0,0,0,0,0
0.5945,1783012241.4696,1,0,1.0000,0.0000,1.44682,0.23328,-2.77748,0.97337,1.57080,0.00000,-0.14512,-0.38003,0.04653,,,,,,,,,,,,,,,,,,,,,,,,,,0,0,0,0,0
0.6015,1783012241.4765,1,0,1.0000,0.0000,1.44682,0.23328,-2.77748,0.97337,1.57080,0.00000,-0.14512,-0.38003,0.04653,,,,,,,,,,,,,,,,,,,,,,,,,,0,0,0,0,0
0.6124,1783012241.4874,1,0,1.0000,0.0000,1.44682,0.23328,-2.77748,0.97337,1.57080,0.00000,-0.14512,-0.38003,0.04653,,,,,,,,,,,,,,,,,,,,,,,,,,0,0,0,0,0
0.6237,1783012241.4988,1,0,1.0000,0.0000,1.44682,0.23328,-2.77748,0.97337,1.57080,0.00000,-0.14512,-0.38003,0.04653,,,,,,,,,,,,,,,,,,,,,,,,,,0,0,0,0,0
0.6311,1783012241.5062,1,0,1.0000,0.0000,1.44682,0.23328,-2.77748,0.97337,1.57080,0.00000,-0.14512,-0.38003,0.04653,,,,,,,,,,,,,,,,,,,,,,,,,,0,0,0,0,0
0.6421,1783012241.5171,1,0,1.0000,0.0000,1.44682,0.23328,-2.77748,0.97337,1.57080,0.00000,-0.14512,-0.38003,0.04653,,,,,,,,,,,,,,,,,,,,,,,,,,0,0,0,0,0
0.6529,1783012241.5280,1,0,1.0000,0.0000,1.44682,0.23328,-2.77748,0.97337,1.57080,0.00000,-0.14512,-0.38003,0.04653,,,,,,,,,,,,,,,,,,,,,,,,,,0,0,0,0,0
0.6532,1783012241.5282,1,0,1.0000,0.0000,1.44682,0.23328,-2.77748,0.97337,1.57080,0.00000,-0.14512,-0.38003,0.04653,,,,,,,,,,,,,,,,,,,,,,,,,,0,0,0,0,0
0.6727,1783012241.5477,1,0,1.0000,0.0000,1.44682,0.23328,-2.77748,0.97337,1.57080,0.00000,-0.14512,-0.38003,0.04653,,,,,,,,,,,,,,,,,,,,,,,,,,0,0,0,0,0
0.6780,1783012241.5531,1,0,1.0000,0.0000,1.44682,0.23328,-2.77748,0.97337,1.57080,0.00000,-0.14512,-0.38003,0.04653,,,,,,,,,,,,,,,,,,,,,,,,,,0,0,0,0,0
0.6828,1783012241.5578,1,0,1.0000,0.0000,1.44682,0.23328,-2.77748,0.97337,1.57080,0.00000,-0.14512,-0.38003,0.04653,,,,,,,,,,,,,,,,,,,,,,,,,,0,0,0,0,0
0.6924,1783012241.5675,1,0,1.0000,0.0000,1.44682,0.23328,-2.77748,0.97337,1.57080,0.00000,-0.14512,-0.38003,0.04653,,,,,,,,,,,,,,,,,,,,,,,,,,0,0,0,0,0
0.7015,1783012241.5766,1,0,1.0000,0.0000,1.44682,0.23328,-2.77748,0.97337,1.57080,0.00000,-0.14512,-0.38003,0.04653,,,,,,,,,,,,,,,,,,,,,,,,,,0,0,0,0,0
0.7018,1783012241.5769,1,0,1.0000,0.0000,1.44682,0.23328,-2.77748,0.97337,1.57080,0.00000,-0.14512,-0.38003,0.04653,,,,,,,,,,,,,,,,,,,,,,,,,,0,0,0,0,0
0.7136,1783012241.5887,1,0,1.0000,0.0000,1.44682,0.23328,-2.77748,0.97337,1.57080,0.00000,-0.14512,-0.38003,0.04653,,,,,,,,,,,,,,,,,,,,,,,,,,0,0,0,0,0
0.7280,1783012241.6030,1,0,1.0000,0.0000,1.44682,0.23328,-2.77748,0.97337,1.57080,0.00000,-0.14512,-0.38003,0.04653,,,,,,,,,,,,,,,,,,,,,,,,,,0,0,0,0,0
0.7327,1783012241.6078,1,1,1.0000,0.0000,1.44682,0.23328,-2.77748,0.97337,1.57080,0.00000,-0.14512,-0.38003,0.04653,,,,,,,,,,,,,,,,,,,,,,,,,,0,0,0,0,0
0.7426,1783012241.6177,1,1,1.0000,0.0000,1.44682,0.23328,-2.77748,0.97337,1.57080,0.00000,-0.14512,-0.38003,0.04653,,,,,,,,,,,,,,,,,,,,,,,,,,0,0,0,0,0
0.7563,1783012241.6314,1,1,1.0000,0.0000,1.44682,0.23328,-2.77748,0.97337,1.57080,0.00000,-0.14512,-0.38003,0.04653,,,,,,,,,,,,,,,,,,,,,,,,,,0,0,0,0,0
0.7626,1783012241.6377,1,1,1.0000,0.0000,1.44682,0.23328,-2.77748,0.97337,1.57080,0.00000,-0.14512,-0.38003,0.04653,,,,,,,,,,,,,,,,,,,,,,,,,,0,0,0,0,0
0.7768,1783012241.6519,1,1,1.0000,0.0000,1.44682,0.23328,-2.77748,0.97337,1.57080,0.00000,-0.14512,-0.38003,0.04653,,,,,,,,,,,,,,,,,,,,,,,,,,0,0,0,0,0
0.7913,1783012241.6664,1,1,1.0000,0.0000,1.44682,0.23328,-2.77748,0.97337,1.57080,0.00000,-0.14512,-0.38003,0.04653,,,,,,,,,,,,,,,,,,,,,,,,,,0,0,0,0,0
0.7970,1783012241.6720,1,1,1.0000,0.0000,1.44682,0.23328,-2.77748,0.97337,1.57080,0.00000,-0.14512,-0.38003,0.04653,,,,,,,,,,,,,,,,,,,,,,,,,,0,0,0,0,0
0.8065,1783012241.6816,1,1,1.0000,0.0000,1.44682,0.23328,-2.77748,0.97337,1.57080,0.00000,-0.14512,-0.38003,0.04653,,,,,,,,,,,,,,,,,,,,,,,,,,0,0,0,0,0
0.8069,1783012241.6820,1,1,1.0000,0.0000,1.44682,0.23328,-2.77748,0.97337,1.57080,0.00000,-0.14512,-0.38003,0.04653,,,,,,,,,,,,,,,,,,,,,,,,,,0,0,0,0,0
0.8478,1783012241.7228,1,1,1.0000,0.0000,1.44682,0.23328,-2.77748,0.97337,1.57080,0.00000,-0.14512,-0.38003,0.04653,,,,,,,,,,,,,,,,,,,,,,,,,,0,0,0,0,0
0.8480,1783012241.7231,1,1,1.0000,0.0000,1.44682,0.23328,-2.77748,0.97337,1.57080,0.00000,-0.14512,-0.38003,0.04653,,,,,,,,,,,,,,,,,,,,,,,,,,0,0,0,0,0
0.8484,1783012241.7235,1,1,1.0000,0.0000,1.44682,0.23328,-2.77748,0.97337,1.57080,0.00000,-0.14512,-0.38003,0.04653,,,,,,,,,,,,,,,,,,,,,,,,,,0,0,0,0,0
0.8486,1783012241.7237,1,1,1.0000,0.0000,1.44682,0.23328,-2.77748,0.97337,1.57080,0.00000,-0.14512,-0.38003,0.04653,,,,,,,,,,,,,,,,,,,,,,,,,,0,0,0,0,0
0.8490,1783012241.7241,1,1,1.0000,0.0000,1.44682,0.23328,-2.77748,0.97337,1.57080,0.00000,-0.14512,-0.38003,0.04653,,,,,,,,,,,,,,,,,,,,,,,,,,0,0,0,0,0
0.8605,1783012241.7356,1,1,1.0000,0.0000,1.44682,0.23328,-2.77748,0.97337,1.57080,0.00000,-0.14512,-0.38003,0.04653,,,,,,,,,,,,,,,,,,,,,,,,,,0,0,0,0,0
0.8610,1783012241.7360,1,1,1.0000,0.0000,1.44682,0.23328,-2.77748,0.97337,1.57080,0.00000,-0.14512,-0.38003,0.04653,,,,,,,,,,,,,,,,,,,,,,,,,,0,0,0,0,0
0.8763,1783012241.7514,1,1,1.0000,0.0000,1.44682,0.23328,-2.77748,0.97337,1.57080,0.00000,-0.14512,-0.38003,0.04653,,,,,,,,,,,,,,,,,,,,,,,,,,0,0,0,0,0
0.8766,1783012241.7517,1,1,1.0000,0.0000,1.44682,0.23328,-2.77748,0.97337,1.57080,0.00000,-0.14512,-0.38003,0.04653,,,,,,,,,,,,,,,,,,,,,,,,,,0,0,0,0,0
0.8775,1783012241.7526,1,1,1.0000,0.0000,1.44682,0.23328,-2.77748,0.97337,1.57080,0.00000,-0.14512,-0.38003,0.04653,,,,,,,,,,,,,,,,,,,,,,,,,,0,0,0,0,0
0.8778,1783012241.7529,1,1,1.0000,0.0000,1.44682,0.23328,-2.77748,0.97337,1.57080,0.00000,-0.14512,-0.38003,0.04653,,,,,,,,,,,,,,,,,,,,,,,,,,0,0,0,0,0
0.8859,1783012241.7609,1,1,1.0000,0.0000,1.44682,0.23328,-2.77748,0.97337,1.57080,0.00000,-0.14512,-0.38003,0.04653,,,,,,,,,,,,,,,,,,,,,,,,,,0,0,0,0,0
0.8966,1783012241.7717,1,1,1.0000,0.0000,1.44682,0.23328,-2.77748,0.97337,1.57080,0.00000,-0.14512,-0.38003,0.04653,,,,,,,,,,,,,,,,,,,,,,,,,,0,0,0,0,0
0.8969,1783012241.7719,1,1,1.0000,0.0000,1.44682,0.23328,-2.77748,0.97337,1.57080,0.00000,-0.14512,-0.38003,0.04653,,,,,,,,,,,,,,,,,,,,,,,,,,0,0,0,0,0
0.9084,1783012241.7835,1,1,1.0000,0.0000,1.44682,0.23328,-2.77748,0.97337,1.57080,0.00000,-0.14512,-0.38003,0.04653,,,,,,,,,,,,,,,,,,,,,,,,,,0,0,0,0,0
0.9087,1783012241.7837,1,1,1.0000,0.0000,1.44682,0.23328,-2.77748,0.97337,1.57080,0.00000,-0.14512,-0.38003,0.04653,,,,,,,,,,,,,,,,,,,,,,,,,,0,0,0,0,0
0.9177,1783012241.7928,1,1,1.0000,0.0000,1.44682,0.23328,-2.77748,0.97337,1.57080,0.00000,-0.14512,-0.38003,0.04653,,,,,,,,,,,,,,,,,,,,,,,,,,0,0,0,0,0
0.9180,1783012241.7931,1,1,1.0000,0.0000,1.44682,0.23328,-2.77748,0.97337,1.57080,0.00000,-0.14512,-0.38003,0.04653,,,,,,,,,,,,,,,,,,,,,,,,,,0,0,0,0,0
0.9295,1783012241.8046,1,1,1.0000,0.0000,1.44682,0.23326,-2.77748,0.97340,1.57080,0.00000,-0.14512,-0.38003,0.04652,,,,,,,,,,,,,,,,,,,,,,,,,,0,0,0,0,0
0.9367,1783012241.8117,1,1,1.0000,0.0000,1.44682,0.23321,-2.77750,0.97346,1.57080,0.00000,-0.14512,-0.38003,0.04651,,,,,,,,,,,,,,,,,,,,,,,,,,0,0,0,0,0
0.9369,1783012241.8120,1,1,1.0000,0.0000,1.44682,0.23321,-2.77750,0.97346,1.57080,0.00000,-0.14512,-0.38003,0.04651,,,,,,,,,,,,,,,,,,,,,,,,,,0,0,0,0,0
1.0125,1783012241.8876,1,1,1.0000,0.0000,1.44682,0.23290,-2.77757,0.97384,1.57080,0.00000,-0.14512,-0.38003,0.04643,,,,,,,,,,,,,,,,,,,,,,,,,,0,0,0,0,0
1.0404,1783012241.9155,1,1,1.0000,0.0000,1.44682,0.23281,-2.77760,0.97395,1.57080,0.00000,-0.14512,-0.38003,0.04641,,,,,,,,,,,,,,,,,,,,,,,,,,0,0,0,0,0
1.0407,1783012241.9158,1,1,1.0000,0.0000,1.44682,0.23281,-2.77760,0.97395,1.57080,0.00000,-0.14512,-0.38003,0.04641,,,,,,,,,,,,,,,,,,,,,,,,,,0,0,0,0,0
1.0410,1783012241.9161,1,1,1.0000,0.0000,1.44682,0.23281,-2.77760,0.97395,1.57080,0.00000,-0.14512,-0.38003,0.04641,,,,,,,,,,,,,,,,,,,,,,,,,,0,0,0,0,0
1.0413,1783012241.9163,1,1,1.0000,0.0000,1.44682,0.23281,-2.77760,0.97395,1.57080,0.00000,-0.14512,-0.38003,0.04641,,,,,,,,,,,,,,,,,,,,,,,,,,0,0,0,0,0
1.0415,1783012241.9166,1,1,1.0000,0.0000,1.44682,0.23281,-2.77760,0.97395,1.57080,0.00000,-0.14512,-0.38003,0.04641,,,,,,,,,,,,,,,,,,,,,,,,,,0,0,0,0,0
1.0439,1783012241.9190,1,1,1.0000,0.0000,1.44682,0.23281,-2.77760,0.97396,1.57080,0.00000,-0.14512,-0.38003,0.04641,,,,,,,,,,,,,,,,,,,,,,,,,,0,0,0,0,0
1.0482,1783012241.9232,1,1,1.0000,0.0000,1.44682,0.23280,-2.77760,0.97397,1.57080,0.00000,-0.14512,-0.38003,0.04640,,,,,,,,,,,,,,,,,,,,,,,,,,0,0,0,0,0
1.0485,1783012241.9236,1,1,1.0000,0.0000,1.44682,0.23280,-2.77760,0.97397,1.57080,0.00000,-0.14512,-0.38003,0.04640,,,,,,,,,,,,,,,,,,,,,,,,,,0,0,0,0,0
1.0565,1783012241.9316,1,1,1.0000,0.0000,1.44682,0.23276,-2.77761,0.97403,1.57080,0.00000,-0.14512,-0.38003,0.04639,,,,,,,,,,,,,,,,,,,,,,,,,,0,0,0,0,0
1.0570,1783012241.9320,1,1,1.0000,0.0000,1.44682,0.23276,-2.77761,0.97403,1.57080,0.00000,-0.14512,-0.38003,0.04639,,,,,,,,,,,,,,,,,,,,,,,,,,0,0,0,0,0
1.0824,1783012241.9575,1,1,1.0000,0.0000,1.44682,0.23267,-2.77763,0.97414,1.57080,0.00000,-0.14512,-0.38003,0.04637,,,,,,,,,,,,,,,,,,,,,,,,,,0,0,0,0,0
1.0828,1783012241.9579,1,1,1.0000,0.0000,1.44682,0.23267,-2.77763,0.97414,1.57080,0.00000,-0.14512,-0.38003,0.04637,,,,,,,,,,,,,,,,,,,,,,,,,,0,0,0,0,0
1.0872,1783012241.9622,1,1,1.0000,0.0000,1.44682,0.23265,-2.77764,0.97416,1.57080,0.00000,-0.14512,-0.38003,0.04636,,,,,,,,,,,,,,,,,,,,,,,,,,0,0,0,0,0
1.0879,1783012241.9630,1,1,1.0000,0.0000,1.44682,0.23263,-2.77764,0.97418,1.57080,0.00000,-0.14512,-0.38003,0.04636,,,,,,,,,,,,,,,,,,,,,,,,,,0,0,0,0,0
1.0961,1783012241.9712,1,1,1.0000,0.0000,1.44682,0.23259,-2.77765,0.97423,1.57080,0.00000,-0.14512,-0.38003,0.04635,,,,,,,,,,,,,,,,,,,,,,,,,,0,0,0,0,0
1.0965,1783012241.9716,1,1,1.0000,0.0000,1.44682,0.23259,-2.77765,0.97423,1.57080,0.00000,-0.14512,-0.38003,0.04635,,,,,,,,,,,,,,,,,,,,,,,,,,0,0,0,0,0
1.1071,1783012241.9822,1,1,1.0000,0.0000,1.44682,0.23259,-2.77765,0.97424,1.57080,0.00000,-0.14512,-0.38003,0.04635,,,,,,,,,,,,,,,,,,,,,,,,,,0,0,0,0,0
1.1243,1783012241.9994,1,1,1.0000,0.0000,1.44682,0.23248,-2.77768,0.97437,1.57080,0.00000,-0.14512,-0.38003,0.04632,,,,,,,,,,,,,,,,,,,,,,,,,,0,0,0,0,0
1.1260,1783012242.0011,1,1,1.0000,0.0000,1.44682,0.23248,-2.77768,0.97437,1.57080,0.00000,-0.14512,-0.38003,0.04632,,,,,,,,,,,,,,,,,,,,,,,,,,0,0,0,0,0
1.1376,1783012242.0127,1,1,1.0000,0.0000,1.44682,0.23245,-2.77769,0.97441,1.57080,0.00000,-0.14512,-0.38003,0.04631,,,,,,,,,,,,,,,,,,,,,,,,,,0,0,0,0,0
1.1482,1783012242.0232,1,1,1.0000,0.0000,1.44682,0.23241,-2.77770,0.97446,1.57080,0.00000,-0.14512,-0.38003,0.04630,,,,,,,,,,,,,,,,,,,,,,,,,,0,0,0,0,0
1.1560,1783012242.0311,1,1,1.0000,0.0000,1.44682,0.23237,-2.77771,0.97451,1.57080,0.00000,-0.14512,-0.38003,0.04629,,,,,,,,,,,,,,,,,,,,,,,,,,0,0,0,0,0
1.1704,1783012242.0455,1,1,1.0000,0.0000,1.44682,0.23235,-2.77772,0.97453,1.57080,0.00000,-0.14512,-0.38003,0.04629,,,,,,,,,,,,,,,,,,,,,,,,,,0,0,0,0,0
1.1802,1783012242.0552,1,1,1.0000,0.0000,1.44682,0.23228,-2.77773,0.97462,1.57080,0.00000,-0.14512,-0.38003,0.04627,,,,,,,,,,,,,,,,,,,,,,,,,,0,0,0,0,0
1.1894,1783012242.0645,1,1,1.0000,0.0000,1.44682,0.23223,-2.77775,0.97468,1.57080,0.00000,-0.14512,-0.38003,0.04625,,,,,,,,,,,,,,,,,,,,,,,,,,0,0,0,0,0
1.1998,1783012242.0749,1,1,1.0000,0.0000,1.44682,0.23222,-2.77775,0.97470,1.57080,0.00000,-0.14512,-0.38003,0.04625,,,,,,,,,,,,,,,,,,,,,,,,,,0,0,0,0,0
1.2081,1783012242.0832,1,1,1.0000,0.0000,1.44682,0.23219,-2.77776,0.97474,1.57080,0.00000,-0.14512,-0.38003,0.04624,,,,,,,,,,,,,,,,,,,,,,,,,,0,0,0,0,0
1.2084,1783012242.0835,1,1,1.0000,0.0000,1.44682,0.23219,-2.77776,0.97474,1.57080,0.00000,-0.14512,-0.38003,0.04624,,,,,,,,,,,,,,,,,,,,,,,,,,0,0,0,0,0
1.2161,1783012242.0912,1,1,1.0000,0.0000,1.44682,0.23215,-2.77777,0.97479,1.57080,0.00000,-0.14512,-0.38003,0.04623,,,,,,,,,,,,,,,,,,,,,,,,,,0,0,0,0,0
1.2163,1783012242.0914,1,1,1.0000,0.0000,1.44682,0.23215,-2.77777,0.97479,1.57080,0.00000,-0.14512,-0.38003,0.04623,,,,,,,,,,,,,,,,,,,,,,,,,,0,0,0,0,0
1.2288,1783012242.1038,1,1,1.0000,0.0000,1.44682,0.23213,-2.77777,0.97481,1.57080,0.00000,-0.14512,-0.38003,0.04623,,,,,,,,,,,,,,,,,,,,,,,,,,0,0,0,0,0
1.2390,1783012242.1141,1,1,1.0000,0.0000,1.44682,0.23209,-2.77778,0.97487,1.57080,0.00000,-0.14512,-0.38003,0.04622,,,,,,,,,,,,,,,,,,,,,,,,,,0,0,0,0,0
1.2459,1783012242.1210,1,1,1.0000,0.0000,1.44682,0.23204,-2.77780,0.97493,1.57080,0.00000,-0.14512,-0.38003,0.04620,,,,,,,,,,,,,,,,,,,,,,,,,,0,0,0,0,0
1.2561,1783012242.1312,1,1,1.0000,0.0000,1.44682,0.23201,-2.77780,0.97497,1.57080,0.00000,-0.14512,-0.38003,0.04620,,,,,,,,,,,,,,,,,,,,,,,,,,0,0,0,0,0
1.2665,1783012242.1416,1,1,1.0000,0.0000,1.44682,0.23198,-2.77781,0.97500,1.57080,0.00000,-0.14512,-0.38003,0.04619,,,,,,,,,,,,,,,,,,,,,,,,,,0,0,0,0,0
1.2798,1783012242.1549,1,1,1.0000,0.0000,1.44682,0.23193,-2.77783,0.97507,1.57080,0.00000,-0.14512,-0.38003,0.04617,,,,,,,,,,,,,,,,,,,,,,,,,,0,0,0,0,0
1.2880,1783012242.1631,1,1,1.0000,0.0000,1.44682,0.23191,-2.77783,0.97509,1.57080,0.00000,-0.14512,-0.38003,0.04617,,,,,,,,,,,,,,,,,,,,,,,,,,0,0,0,0,0
1.2961,1783012242.1712,1,1,1.0000,0.0000,1.44682,0.23187,-2.77784,0.97515,1.57080,0.00000,-0.14512,-0.38003,0.04616,,,,,,,,,,,,,,,,,,,,,,,,,,0,0,0,0,0
1.3071,1783012242.1822,1,1,1.0000,0.0000,1.44682,0.23181,-2.77785,0.97521,1.57080,0.00000,-0.14512,-0.38003,0.04614,,,,,,,,,,,,,,,,,,,,,,,,,,0,0,0,0,0
1.3318,1783012242.2069,1,1,1.0000,0.0000,1.44682,0.23170,-2.77788,0.97535,1.57080,0.00000,-0.14512,-0.38003,0.04612,,,,,,,,,,,,,,,,,,,,,,,,,,0,0,0,0,0
1.3361,1783012242.2112,1,1,1.0000,0.0000,1.44682,0.23168,-2.77789,0.97538,1.57080,0.00000,-0.14512,-0.38003,0.04611,,,,,,,,,,,,,,,,,,,,,,,,,,0,0,0,0,0
1.3365,1783012242.2116,1,1,1.0000,0.0000,1.44682,0.23168,-2.77789,0.97538,1.57080,0.00000,-0.14512,-0.38003,0.04611,,,,,,,,,,,,,,,,,,,,,,,,,,0,0,0,0,0
1.3495,1783012242.2245,1,1,1.0000,0.0000,1.44682,0.23166,-2.77789,0.97540,1.57080,0.00000,-0.14512,-0.38003,0.04611,,,,,,,,,,,,,,,,,,,,,,,,,,0,0,0,0,0
1.3565,1783012242.2315,1,1,1.0000,0.0000,1.44682,0.23164,-2.77790,0.97542,1.57080,0.00000,-0.14512,-0.38003,0.04610,,,,,,,,,,,,,,,,,,,,,,,,,,0,0,0,0,0
1.3659,1783012242.2410,1,1,1.0000,0.0000,1.44682,0.23157,-2.77792,0.97552,1.57080,0.00000,-0.14512,-0.38003,0.04608,,,,,,,,,,,,,,,,,,,,,,,,,,0,0,0,0,0
1.3662,1783012242.2413,1,1,1.0000,0.0000,1.44682,0.23157,-2.77792,0.97552,1.57080,0.00000,-0.14512,-0.38003,0.04608,,,,,,,,,,,,,,,,,,,,,,,,,,0,0,0,0,0
1.3920,1783012242.2671,1,1,1.0000,0.0000,1.44682,0.23146,-2.77794,0.97565,1.57080,0.00000,-0.14512,-0.38003,0.04605,,,,,,,,,,,,,,,,,,,,,,,,,,0,0,0,0,0
1.3982,1783012242.2733,1,1,1.0000,0.0000,1.44682,0.23144,-2.77795,0.97569,1.57080,0.00000,-0.14512,-0.38003,0.04605,,,,,,,,,,,,,,,,,,,,,,,,,,0,0,0,0,0
1.3988,1783012242.2739,1,1,1.0000,0.0000,1.44682,0.23144,-2.77795,0.97569,1.57080,0.00000,-0.14512,-0.38003,0.04605,,,,,,,,,,,,,,,,,,,,,,,,,,0,0,0,0,0
1.3991,1783012242.2742,1,1,1.0000,0.0000,1.44682,0.23144,-2.77795,0.97569,1.57080,0.00000,-0.14512,-0.38003,0.04605,,,,,,,,,,,,,,,,,,,,,,,,,,0,0,0,0,0
1.4097,1783012242.2848,1,1,1.0000,0.0000,1.44682,0.23141,-2.77796,0.97572,1.57080,0.00000,-0.14512,-0.38003,0.04604,,,,,,,,,,,,,,,,,,,,,,,,,,0,0,0,0,0
1.4160,1783012242.2910,1,1,1.0000,0.0000,1.44682,0.23138,-2.77796,0.97575,1.57080,0.00000,-0.14512,-0.38003,0.04603,,,,,,,,,,,,,,,,,,,,,,,,,,0,0,0,0,0
1.4273,1783012242.3024,1,1,1.0000,0.0000,1.44682,0.23135,-2.77797,0.97580,1.57080,0.00000,-0.14512,-0.38003,0.04602,,,,,,,,,,,,,,,,,,,,,,,,,,0,0,0,0,0
1.4366,1783012242.3116,1,1,1.0000,0.0000,1.44682,0.23132,-2.77798,0.97583,1.57080,0.00000,-0.14512,-0.38003,0.04602,,,,,,,,,,,,,,,,,,,,,,,,,,0,0,0,0,0
1.4460,1783012242.3211,1,1,1.0000,0.0000,1.44682,0.23129,-2.77799,0.97587,1.57080,0.00000,-0.14512,-0.38003,0.04601,,,,,,,,,,,,,,,,,,,,,,,,,,0,0,0,0,0
1.4601,1783012242.3352,1,1,1.0000,0.0000,1.44682,0.23121,-2.77801,0.97597,1.57080,0.00000,-0.14512,-0.38003,0.04599,,,,,,,,,,,,,,,,,,,,,,,,,,0,0,0,0,0
1.4674,1783012242.3425,1,1,1.0000,0.0000,1.44682,0.23121,-2.77801,0.97597,1.57080,0.00000,-0.14512,-0.38003,0.04599,,,,,,,,,,,,,,,,,,,,,,,,,,0,0,0,0,0
1.4761,1783012242.3511,1,1,1.0000,0.0000,1.44682,0.23116,-2.77802,0.97604,1.57080,0.00000,-0.14512,-0.38003,0.04597,,,,,,,,,,,,,,,,,,,,,,,,,,0,0,0,0,0
1.4883,1783012242.3634,1,1,1.0000,0.0000,1.44682,0.23108,-2.77804,0.97613,1.57080,0.00000,-0.14512,-0.38003,0.04595,,,,,,,,,,,,,,,,,,,,,,,,,,0,0,0,0,0
1.4885,1783012242.3636,1,1,1.0000,0.0000,1.44682,0.23108,-2.77804,0.97613,1.57080,0.00000,-0.14512,-0.38003,0.04595,,,,,,,,,,,,,,,,,,,,,,,,,,0,0,0,0,0
1.4988,1783012242.3739,1,1,1.0000,0.0000,1.44682,0.23107,-2.77804,0.97614,1.57080,0.00000,-0.14512,-0.38003,0.04595,,,,,,,,,,,,,,,,,,,,,,,,,,0,0,0,0,0
1.5074,1783012242.3824,1,1,1.0000,0.0000,1.44682,0.23104,-2.77805,0.97618,1.57080,0.00000,-0.14512,-0.38003,0.04594,,,,,,,,,,,,,,,,,,,,,,,,,,0,0,0,0,0
1.5160,1783012242.3911,1,1,1.0000,0.0000,1.44682,0.23097,-2.77807,0.97627,1.57080,0.00000,-0.14512,-0.38003,0.04592,,,,,,,,,,,,,,,,,,,,,,,,,,0,0,0,0,0
1.5465,1783012242.4216,1,1,1.0000,0.0000,1.44682,0.23088,-2.77809,0.97638,1.57080,0.00000,-0.14512,-0.38003,0.04590,,,,,,,,,,,,,,,,,,,,,,,,,,0,0,0,0,0
1.5468,1783012242.4218,1,1,1.0000,0.0000,1.44682,0.23088,-2.77809,0.97638,1.57080,0.00000,-0.14512,-0.38003,0.04590,,,,,,,,,,,,,,,,,,,,,,,,,,0,0,0,0,0
1.5470,1783012242.4221,1,1,1.0000,0.0000,1.44682,0.23088,-2.77809,0.97638,1.57080,0.00000,-0.14512,-0.38003,0.04590,,,,,,,,,,,,,,,,,,,,,,,,,,0,0,0,0,0
1.5520,1783012242.4271,1,1,1.0000,0.0000,1.44682,0.23086,-2.77810,0.97641,1.57080,0.00000,-0.14512,-0.38003,0.04590,,,,,,,,,,,,,,,,,,,,,,,,,,0,0,0,0,0
1.5568,1783012242.4319,1,1,1.0000,0.0000,1.44682,0.23085,-2.77810,0.97642,1.57080,0.00000,-0.14512,-0.38003,0.04589,,,,,,,,,,,,,,,,,,,,,,,,,,0,0,0,0,0
1.5658,1783012242.4408,1,1,1.0000,0.0000,1.44682,0.23082,-2.77811,0.97646,1.57080,0.00000,-0.14512,-0.38003,0.04589,,,,,,,,,,,,,,,,,,,,,,,,,,0,0,0,0,0
1.5661,1783012242.4412,1,1,1.0000,0.0000,1.44682,0.23082,-2.77811,0.97646,1.57080,0.00000,-0.14512,-0.38003,0.04589,,,,,,,,,,,,,,,,,,,,,,,,,,0,0,0,0,0
1.5776,1783012242.4527,1,1,1.0000,0.0000,1.44682,0.23075,-2.77813,0.97655,1.57080,0.00000,-0.14512,-0.38003,0.04587,,,,,,,,,,,,,,,,,,,,,,,,,,0,0,0,0,0
1.5900,1783012242.4651,1,1,1.0000,0.0000,1.44682,0.23073,-2.77813,0.97657,1.57080,0.00000,-0.14512,-0.38003,0.04586,,,,,,,,,,,,,,,,,,,,,,,,,,0,0,0,0,0
1.6003,1783012242.4754,1,1,1.0000,0.0000,1.44682,0.23066,-2.77815,0.97665,1.57080,0.00000,-0.14512,-0.38003,0.04585,,,,,,,,,,,,,,,,,,,,,,,,,,0,0,0,0,0
1.6082,1783012242.4832,1,1,1.0000,0.0000,1.44682,0.23061,-2.77816,0.97672,1.57080,0.00000,-0.14512,-0.38003,0.04583,,,,,,,,,,,,,,,,,,,,,,,,,,0,0,0,0,0
1.6085,1783012242.4836,1,1,1.0000,0.0000,1.44682,0.23061,-2.77816,0.97672,1.57080,0.00000,-0.14512,-0.38003,0.04583,,,,,,,,,,,,,,,,,,,,,,,,,,0,0,0,0,0
1.6175,1783012242.4926,1,1,1.0000,0.0000,1.44682,0.23061,-2.77816,0.97672,1.57080,0.00000,-0.14512,-0.38003,0.04583,,,,,,,,,,,,,,,,,,,,,,,,,,0,0,0,0,0
1.6296,1783012242.5047,1,1,1.0000,0.0000,1.44682,0.23056,-2.77818,0.97679,1.57080,0.00000,-0.14512,-0.38003,0.04582,,,,,,,,,,,,,,,,,,,,,,,,,,0,0,0,0,0
1.6372,1783012242.5123,1,1,1.0000,0.0000,1.44682,0.23050,-2.77819,0.97686,1.57080,0.00000,-0.14512,-0.38003,0.04580,,,,,,,,,,,,,,,,,,,,,,,,,,0,0,0,0,0
1.6473,1783012242.5224,1,1,1.0000,0.0000,1.44682,0.23048,-2.77820,0.97689,1.57080,0.00000,-0.14512,-0.38003,0.04580,,,,,,,,,,,,,,,,,,,,,,,,,,0,0,0,0,0
1.6560,1783012242.5310,1,1,1.0000,0.0000,1.44682,0.23045,-2.77820,0.97692,1.57080,0.00000,-0.14512,-0.38003,0.04579,,,,,,,,,,,,,,,,,,,,,,,,,,0,0,0,0,0
1.6661,1783012242.5412,1,1,1.0000,0.0000,1.44682,0.23041,-2.77821,0.97697,1.57080,0.00000,-0.14512,-0.38003,0.04578,,,,,,,,,,,,,,,,,,,,,,,,,,0,0,0,0,0
1.6772,1783012242.5523,1,1,1.0000,0.0000,1.44682,0.23039,-2.77822,0.97700,1.57080,0.00000,-0.14512,-0.38003,0.04577,,,,,,,,,,,,,,,,,,,,,,,,,,0,0,0,0,0
1.6930,1783012242.5681,1,1,1.0000,0.0000,1.44682,0.23031,-2.77824,0.97710,1.57080,0.00000,-0.14512,-0.38003,0.04575,,,,,,,,,,,,,,,,,,,,,,,,,,0,0,0,0,0
1.6965,1783012242.5715,1,1,1.0000,0.0000,1.44682,0.23028,-2.77825,0.97714,1.57080,0.00000,-0.14512,-0.38003,0.04574,,,,,,,,,,,,,,,,,,,,,,,,,,0,0,0,0,0
1.6970,1783012242.5720,1,1,1.0000,0.0000,1.44682,0.23028,-2.77825,0.97714,1.57080,0.00000,-0.14512,-0.38003,0.04574,,,,,,,,,,,,,,,,,,,,,,,,,,0,0,0,0,0
1.7073,1783012242.5824,1,1,1.0000,0.0000,1.44682,0.23025,-2.77825,0.97717,1.57080,0.00000,-0.14512,-0.38003,0.04574,,,,,,,,,,,,,,,,,,,,,,,,,,0,0,0,0,0
1.7162,1783012242.5913,1,1,1.0000,0.0000,1.44682,0.23023,-2.77826,0.97720,1.57080,0.00000,-0.14512,-0.38003,0.04573,,,,,,,,,,,,,,,,,,,,,,,,,,0,0,0,0,0
1.7167,1783012242.5918,1,1,1.0000,0.0000,1.44682,0.23023,-2.77826,0.97720,1.57080,0.00000,-0.14512,-0.38003,0.04573,,,,,,,,,,,,,,,,,,,,,,,,,,0,0,0,0,0
1.7274,1783012242.6025,1,1,1.0000,0.0000,1.44682,0.23019,-2.77827,0.97725,1.57080,0.00000,-0.14512,-0.38003,0.04572,,,,,,,,,,,,,,,,,,,,,,,,,,0,0,0,0,0
1.7361,1783012242.6112,1,1,1.0000,0.0000,1.44682,0.23017,-2.77828,0.97728,1.57080,0.00000,-0.14512,-0.38003,0.04571,,,,,,,,,,,,,,,,,,,,,,,,,,0,0,0,0,0
1.7468,1783012242.6219,1,1,1.0000,0.0000,1.44682,0.23013,-2.77829,0.97732,1.57080,0.00000,-0.14512,-0.38003,0.04571,,,,,,,,,,,,,,,,,,,,,,,,,,0,0,0,0,0
1.7577,1783012242.6328,1,1,1.0000,0.0000,1.44682,0.23006,-2.77831,0.97742,1.57080,0.00000,-0.14512,-0.38003,0.04569,,,,,,,,,,,,,,,,,,,,,,,,,,0,0,0,0,0
1.7674,1783012242.6425,1,1,1.0000,0.0000,1.44682,0.23003,-2.77831,0.97745,1.57080,0.00000,-0.14512,-0.38003,0.04568,,,,,,,,,,,,,,,,,,,,,,,,,,0,0,0,0,0
1.7759,1783012242.6510,1,1,1.0000,0.0000,1.44682,0.23001,-2.77832,0.97748,1.57080,0.00000,-0.14512,-0.38003,0.04567,,,,,,,,,,,,,,,,,,,,,,,,,,0,0,0,0,0
1.7763,1783012242.6514,1,1,1.0000,0.0000,1.44682,0.23001,-2.77832,0.97748,1.57080,0.00000,-0.14512,-0.38003,0.04567,,,,,,,,,,,,,,,,,,,,,,,,,,0,0,0,0,0
1.8061,1783012242.6812,1,1,1.0000,0.0000,1.44682,0.22991,-2.77834,0.97760,1.57080,0.00000,-0.14512,-0.38003,0.04565,,,,,,,,,,,,,,,,,,,,,,,,,,0,0,0,0,0
1.8065,1783012242.6815,1,1,1.0000,0.0000,1.44682,0.22991,-2.77834,0.97760,1.57080,0.00000,-0.14512,-0.38003,0.04565,,,,,,,,,,,,,,,,,,,,,,,,,,0,0,0,0,0
1.8130,1783012242.6881,1,1,1.0000,0.0000,1.44682,0.22986,-2.77836,0.97766,1.57080,0.00000,-0.14512,-0.38003,0.04564,,,,,,,,,,,,,,,,,,,,,,,,,,0,0,0,0,0
1.8171,1783012242.6922,1,1,1.0000,0.0000,1.44682,0.22983,-2.77836,0.97770,1.57080,0.00000,-0.14512,-0.38003,0.04563,,,,,,,,,,,,,,,,,,,,,,,,,,0,0,0,0,0
1.8264,1783012242.7014,1,1,1.0000,0.0000,1.44682,0.22981,-2.77837,0.97773,1.57080,0.00000,-0.14512,-0.38003,0.04562,,,,,,,,,,,,,,,,,,,,,,,,,,0,0,0,0,0
1.8362,1783012242.7113,1,1,1.0000,0.0000,1.44682,0.22978,-2.77838,0.97776,1.57080,0.00000,-0.14512,-0.38003,0.04562,,,,,,,,,,,,,,,,,,,,,,,,,,0,0,0,0,0
1.8515,1783012242.7266,1,1,1.0000,0.0000,1.44682,0.22972,-2.77839,0.97784,1.57080,0.00000,-0.14512,-0.38003,0.04560,,,,,,,,,,,,,,,,,,,,,,,,,,0,0,0,0,0
1.8522,1783012242.7273,1,1,1.0000,0.0000,1.44682,0.22972,-2.77839,0.97784,1.57080,0.00000,-0.14512,-0.38003,0.04560,,,,,,,,,,,,,,,,,,,,,,,,,,0,0,0,0,0
1.8525,1783012242.7276,1,1,1.0000,0.0000,1.44682,0.22972,-2.77839,0.97784,1.57080,0.00000,-0.14512,-0.38003,0.04560,,,,,,,,,,,,,,,,,,,,,,,,,,0,0,0,0,0
1.8561,1783012242.7311,1,1,1.0000,0.0000,1.44682,0.22972,-2.77839,0.97784,1.57080,0.00000,-0.14512,-0.38003,0.04560,,,,,,,,,,,,,,,,,,,,,,,,,,0,0,0,0,0
1.8563,1783012242.7313,1,1,1.0000,0.0000,1.44682,0.22972,-2.77839,0.97784,1.57080,0.00000,-0.14512,-0.38003,0.04560,,,,,,,,,,,,,,,,,,,,,,,,,,0,0,0,0,0
1.8675,1783012242.7426,1,1,1.0000,0.0000,1.44682,0.22969,-2.77840,0.97788,1.57080,0.00000,-0.14512,-0.38003,0.04559,,,,,,,,,,,,,,,,,,,,,,,,,,0,0,0,0,0
1.8760,1783012242.7510,1,1,1.0000,0.0000,1.44682,0.22961,-2.77842,0.97798,1.57080,0.00000,-0.14512,-0.38003,0.04557,,,,,,,,,,,,,,,,,,,,,,,,,,0,0,0,0,0
1.9110,1783012242.7860,1,1,1.0000,0.0000,1.44682,0.22948,-2.77845,0.97815,1.57080,0.00000,-0.14512,-0.38003,0.04554,,,,,,,,,,,,,,,,,,,,,,,,,,0,0,0,0,0
1.9113,1783012242.7864,1,1,1.0000,0.0000,1.44682,0.22948,-2.77845,0.97815,1.57080,0.00000,-0.14512,-0.38003,0.04554,,,,,,,,,,,,,,,,,,,,,,,,,,0,0,0,0,0
1.9119,1783012242.7870,1,1,1.0000,0.0000,1.44682,0.22948,-2.77845,0.97815,1.57080,0.00000,-0.14512,-0.38003,0.04554,,,,,,,,,,,,,,,,,,,,,,,,,,0,0,0,0,0
1.9162,1783012242.7913,1,1,1.0000,0.0000,1.44682,0.22947,-2.77846,0.97815,1.57080,0.00000,-0.14512,-0.38003,0.04553,,,,,,,,,,,,,,,,,,,,,,,,,,0,0,0,0,0
1.9287,1783012242.8038,1,1,1.0000,0.0000,1.44682,0.22942,-2.77847,0.97822,1.57080,0.00000,-0.14512,-0.38003,0.04552,,,,,,,,,,,,,,,,,,,,,,,,,,0,0,0,0,0
1.9400,1783012242.8151,1,1,1.0000,0.0000,1.44682,0.22934,-2.77849,0.97832,1.57080,0.00000,-0.14512,-0.38003,0.04550,,,,,,,,,,,,,,,,,,,,,,,,,,0,0,0,0,0
1.9403,1783012242.8154,1,1,1.0000,0.0000,1.44682,0.22934,-2.77849,0.97832,1.57080,0.00000,-0.14512,-0.38003,0.04550,,,,,,,,,,,,,,,,,,,,,,,,,,0,0,0,0,0
1.9462,1783012242.8212,1,1,1.0000,0.0000,1.44682,0.22934,-2.77849,0.97832,1.57080,0.00000,-0.14512,-0.38003,0.04550,,,,,,,,,,,,,,,,,,,,,,,,,,0,0,0,0,0
1.9679,1783012242.8430,1,1,1.0000,0.0000,1.44682,0.22923,-2.77852,0.97845,1.57080,0.00000,-0.14512,-0.38003,0.04547,,,,,,,,,,,,,,,,,,,,,,,,,,0,0,0,0,0
1.9682,1783012242.8432,1,1,1.0000,0.0000,1.44682,0.22923,-2.77852,0.97845,1.57080,0.00000,-0.14512,-0.38003,0.04547,,,,,,,,,,,,,,,,,,,,,,,,,,0,0,0,0,0
1.9737,1783012242.8488,1,1,1.0000,0.0000,1.44682,0.22923,-2.77852,0.97845,1.57080,0.00000,-0.14512,-0.38003,0.04547,,,,,,,,,,,,,,,,,,,,,,,,,,0,0,0,0,0
1.9742,1783012242.8493,1,1,1.0000,0.0000,1.44682,0.22923,-2.77852,0.97845,1.57080,0.00000,-0.14512,-0.38003,0.04547,,,,,,,,,,,,,,,,,,,,,,,,,,0,0,0,0,0
1.9803,1783012242.8553,1,1,1.0000,0.0000,1.44682,0.22922,-2.77852,0.97847,1.57080,0.00000,-0.14512,-0.38003,0.04547,,,,,,,,,,,,,,,,,,,,,,,,,,0,0,0,0,0
2.0006,1783012242.8757,1,1,1.0000,0.0000,1.44682,0.22910,-2.77855,0.97862,1.57080,0.00000,-0.14512,-0.38003,0.04544,,,,,,,,,,,,,,,,,,,,,,,,,,0,0,0,0,0
2.0011,1783012242.8761,1,1,1.0000,0.0000,1.44682,0.22910,-2.77855,0.97862,1.57080,0.00000,-0.14512,-0.38003,0.04544,,,,,,,,,,,,,,,,,,,,,,,,,,0,0,0,0,0
2.0078,1783012242.8829,1,1,1.0000,0.0000,1.44682,0.22910,-2.77855,0.97862,1.57080,0.00000,-0.14512,-0.38003,0.04544,,,,,,,,,,,,,,,,,,,,,,,,,,0,0,0,0,0
2.0085,1783012242.8836,1,1,1.0000,0.0000,1.44682,0.22909,-2.77855,0.97863,1.57080,0.00000,-0.14512,-0.38003,0.04544,,,,,,,,,,,,,,,,,,,,,,,,,,0,0,0,0,0
2.0185,1783012242.8935,1,1,1.0000,0.0000,1.44682,0.22906,-2.77856,0.97867,1.57080,0.00000,-0.14512,-0.38003,0.04543,,,,,,,,,,,,,,,,,,,,,,,,,,0,0,0,0,0
2.0290,1783012242.9041,1,1,1.0000,0.0000,1.44682,0.22899,-2.77858,0.97876,1.57080,0.00000,-0.14512,-0.38003,0.04541,,,,,,,,,,,,,,,,,,,,,,,,,,0,0,0,0,0
2.0359,1783012242.9110,1,1,1.0000,0.0000,1.44682,0.22898,-2.77858,0.97876,1.57080,0.00000,-0.14512,-0.38003,0.04541,,,,,,,,,,,,,,,,,,,,,,,,,,0,0,0,0,0
2.0363,1783012242.9114,1,1,1.0000,0.0000,1.44682,0.22898,-2.77858,0.97876,1.57080,0.00000,-0.14512,-0.38003,0.04541,,,,,,,,,,,,,,,,,,,,,,,,,,0,0,0,0,0
2.0461,1783012242.9211,1,1,1.0000,0.0000,1.44682,0.22895,-2.77859,0.97880,1.57080,0.00000,-0.14512,-0.38003,0.04540,,,,,,,,,,,,,,,,,,,,,,,,,,0,0,0,0,0
2.0564,1783012242.9315,1,1,1.0000,0.0000,1.44682,0.22888,-2.77861,0.97890,1.57080,0.00000,-0.14512,-0.38003,0.04538,,,,,,,,,,,,,,,,,,,,,,,,,,0,0,0,0,0
2.0566,1783012242.9317,1,1,1.0000,0.0000,1.44682,0.22888,-2.77861,0.97890,1.57080,0.00000,-0.14512,-0.38003,0.04538,,,,,,,,,,,,,,,,,,,,,,,,,,0,0,0,0,0
2.0663,1783012242.9414,1,1,1.0000,0.0000,1.44682,0.22885,-2.77861,0.97893,1.57080,0.00000,-0.14512,-0.38003,0.04537,,,,,,,,,,,,,,,,,,,,,,,,,,0,0,0,0,0
2.0760,1783012242.9511,1,1,1.0000,0.0000,1.44682,0.22882,-2.77862,0.97897,1.57080,0.00000,-0.14512,-0.38003,0.04536,,,,,,,,,,,,,,,,,,,,,,,,,,0,0,0,0,0
2.0867,1783012242.9617,1,1,1.0000,0.0000,1.44682,0.22877,-2.77863,0.97903,1.57080,0.00000,-0.14512,-0.38003,0.04535,,,,,,,,,,,,,,,,,,,,,,,,,,0,0,0,0,0
2.1017,1783012242.9768,1,1,1.0000,0.0000,1.44682,0.22873,-2.77864,0.97909,1.57080,0.00000,-0.14512,-0.38003,0.04534,,,,,,,,,,,,,,,,,,,,,,,,,,0,0,0,0,0
2.1096,1783012242.9847,1,1,1.0000,0.0000,1.44682,0.22869,-2.77866,0.97914,1.57080,0.00000,-0.14512,-0.38003,0.04533,,,,,,,,,,,,,,,,,,,,,,,,,,0,0,0,0,0
2.1159,1783012242.9910,1,1,1.0000,0.0000,1.44682,0.22864,-2.77867,0.97920,1.57080,0.00000,-0.14512,-0.38003,0.04532,,,,,,,,,,,,,,,,,,,,,,,,,,0,0,0,0,0
2.1163,1783012242.9914,1,1,1.0000,0.0000,1.44682,0.22864,-2.77867,0.97920,1.57080,0.00000,-0.14512,-0.38003,0.04532,,,,,,,,,,,,,,,,,,,,,,,,,,0,0,0,0,0
2.1258,1783012243.0009,1,1,1.0000,0.0000,1.44682,0.22861,-2.77867,0.97923,1.57080,0.00000,-0.14512,-0.38003,0.04531,,,,,,,,,,,,,,,,,,,,,,,,,,0,0,0,0,0
2.1372,1783012243.0123,1,1,1.0000,0.0000,1.44682,0.22858,-2.77868,0.97928,1.57080,0.00000,-0.14512,-0.38003,0.04530,,,,,,,,,,,,,,,,,,,,,,,,,,0,0,0,0,0
2.1465,1783012243.0216,1,1,1.0000,0.0000,1.44682,0.22853,-2.77870,0.97934,1.57080,0.00000,-0.14512,-0.38003,0.04529,,,,,,,,,,,,,,,,,,,,,,,,,,0,0,0,0,0
2.1588,1783012243.0339,1,1,1.0000,0.0000,1.44682,0.22848,-2.77871,0.97940,1.57080,0.00000,-0.14512,-0.38003,0.04528,,,,,,,,,,,,,,,,,,,,,,,,,,0,0,0,0,0
2.1658,1783012243.0409,1,1,1.0000,0.0000,1.44682,0.22846,-2.77871,0.97942,1.57080,0.00000,-0.14512,-0.38003,0.04527,,,,,,,,,,,,,,,,,,,,,,,,,,0,0,0,0,0
2.1825,1783012243.0576,1,1,1.0000,0.0000,1.44682,0.22839,-2.77873,0.97951,1.57080,0.00000,-0.14512,-0.38003,0.04525,,,,,,,,,,,,,,,,,,,,,,,,,,0,0,0,0,0
2.1881,1783012243.0632,1,1,1.0000,0.0000,1.44682,0.22838,-2.77873,0.97952,1.57080,0.00000,-0.14512,-0.38003,0.04525,,,,,,,,,,,,,,,,,,,,,,,,,,0,0,0,0,0
2.1885,1783012243.0636,1,1,1.0000,0.0000,1.44682,0.22838,-2.77873,0.97952,1.57080,0.00000,-0.14512,-0.38003,0.04525,,,,,,,,,,,,,,,,,,,,,,,,,,0,0,0,0,0
2.1962,1783012243.0713,1,1,1.0000,0.0000,1.44682,0.22835,-2.77874,0.97956,1.57080,0.00000,-0.14512,-0.38003,0.04524,,,,,,,,,,,,,,,,,,,,,,,,,,0,0,0,0,0
2.2098,1783012243.0849,1,1,1.0000,0.0000,1.44682,0.22828,-2.77876,0.97965,1.57080,0.00000,-0.14512,-0.38003,0.04522,,,,,,,,,,,,,,,,,,,,,,,,,,0,0,0,0,0
2.2227,1783012243.0977,1,1,1.0000,0.0000,1.44682,0.22825,-2.77877,0.97969,1.57080,0.00000,-0.14512,-0.38003,0.04522,,,,,,,,,,,,,,,,,,,,,,,,,,0,0,0,0,0
2.2262,1783012243.1013,1,1,1.0000,0.0000,1.44682,0.22824,-2.77877,0.97970,1.57080,0.00000,-0.14512,-0.38003,0.04521,,,,,,,,,,,,,,,,,,,,,,,,,,0,0,0,0,0
2.2265,1783012243.1016,1,1,1.0000,0.0000,1.44682,0.22824,-2.77877,0.97970,1.57080,0.00000,-0.14512,-0.38003,0.04521,,,,,,,,,,,,,,,,,,,,,,,,,,0,0,0,0,0
2.2363,1783012243.1114,1,1,1.0000,0.0000,1.44682,0.22819,-2.77878,0.97976,1.57080,0.00000,-0.14512,-0.38003,0.04520,,,,,,,,,,,,,,,,,,,,,,,,,,0,0,0,0,0
2.2367,1783012243.1118,1,1,1.0000,0.0000,1.44682,0.22819,-2.77878,0.97976,1.57080,0.00000,-0.14512,-0.38003,0.04520,,,,,,,,,,,,,,,,,,,,,,,,,,0,0,0,0,0
2.2579,1783012243.1329,1,1,1.0000,0.0000,1.44682,0.22813,-2.77880,0.97984,1.57080,0.00000,-0.14512,-0.38003,0.04519,,,,,,,,,,,,,,,,,,,,,,,,,,0,0,0,0,0
2.2605,1783012243.1356,1,1,1.0000,0.0000,1.44682,0.22811,-2.77880,0.97987,1.57080,0.00000,-0.14512,-0.38003,0.04518,,,,,,,,,,,,,,,,,,,,,,,,,,0,0,0,0,0
2.2687,1783012243.1438,1,1,1.0000,0.0000,1.44682,0.22805,-2.77882,0.97993,1.57080,0.00000,-0.14512,-0.38003,0.04517,,,,,,,,,,,,,,,,,,,,,,,,,,0,0,0,0,0
2.2806,1783012243.1557,1,1,1.0000,0.0000,1.44682,0.22802,-2.77882,0.97997,1.57080,0.00000,-0.14512,-0.38003,0.04516,,,,,,,,,,,,,,,,,,,,,,,,,,0,0,0,0,0
2.2860,1783012243.1610,1,1,1.0000,0.0000,1.44682,0.22801,-2.77883,0.97998,1.57080,0.00000,-0.14512,-0.38003,0.04516,,,,,,,,,,,,,,,,,,,,,,,,,,0,0,0,0,0
2.2978,1783012243.1729,1,1,1.0000,0.0000,1.44682,0.22796,-2.77884,0.98004,1.57080,0.00000,-0.14512,-0.38003,0.04514,,,,,,,,,,,,,,,,,,,,,,,,,,0,0,0,0,0
2.3288,1783012243.2039,1,1,1.0000,0.0000,1.44682,0.22783,-2.77887,0.98021,1.57080,0.00000,-0.14512,-0.38003,0.04511,,,,,,,,,,,,,,,,,,,,,,,,,,0,0,0,0,0
2.3292,1783012243.2043,1,1,1.0000,0.0000,1.44682,0.22783,-2.77887,0.98021,1.57080,0.00000,-0.14512,-0.38003,0.04511,,,,,,,,,,,,,,,,,,,,,,,,,,0,0,0,0,0
2.3297,1783012243.2047,1,1,1.0000,0.0000,1.44682,0.22783,-2.77887,0.98021,1.57080,0.00000,-0.14512,-0.38003,0.04511,,,,,,,,,,,,,,,,,,,,,,,,,,0,0,0,0,0
2.3410,1783012243.2161,1,1,1.0000,0.0000,1.44682,0.22780,-2.77888,0.98025,1.57080,0.00000,-0.14512,-0.38003,0.04510,,,,,,,,,,,,,,,,,,,,,,,,,,0,0,0,0,0
2.3413,1783012243.2164,1,1,1.0000,0.0000,1.44682,0.22780,-2.77888,0.98025,1.57080,0.00000,-0.14512,-0.38003,0.04510,,,,,,,,,,,,,,,,,,,,,,,,,,0,0,0,0,0
2.3763,1783012243.2514,1,1,1.0000,0.0000,1.44682,0.22768,-2.77891,0.98040,1.57080,0.00000,-0.14512,-0.38003,0.04507,,,,,,,,,,,,,,,,,,,,,,,,,,0,0,0,0,0
2.3765,1783012243.2516,1,1,1.0000,0.0000,1.44682,0.22768,-2.77891,0.98040,1.57080,0.00000,-0.14512,-0.38003,0.04507,,,,,,,,,,,,,,,,,,,,,,,,,,0,0,0,0,0
2.3768,1783012243.2519,1,1,1.0000,0.0000,1.44682,0.22768,-2.77891,0.98040,1.57080,0.00000,-0.14512,-0.38003,0.04507,,,,,,,,,,,,,,,,,,,,,,,,,,0,0,0,0,0
2.3771,1783012243.2522,1,1,1.0000,0.0000,1.44682,0.22768,-2.77891,0.98040,1.57080,0.00000,-0.14512,-0.38003,0.04507,,,,,,,,,,,,,,,,,,,,,,,,,,0,0,0,0,0
2.4015,1783012243.2766,1,1,1.0000,0.0000,1.44682,0.22758,-2.77894,0.98053,1.57080,0.00000,-0.14512,-0.38003,0.04504,,,,,,,,,,,,,,,,,,,,,,,,,,0,0,0,0,0
2.4018,1783012243.2768,1,1,1.0000,0.0000,1.44682,0.22758,-2.77894,0.98053,1.57080,0.00000,-0.14512,-0.38003,0.04504,,,,,,,,,,,,,,,,,,,,,,,,,,0,0,0,0,0
2.4129,1783012243.2880,1,1,1.0000,0.0000,1.44682,0.22754,-2.77895,0.98058,1.57080,0.00000,-0.14512,-0.38003,0.04503,,,,,,,,,,,,,,,,,,,,,,,,,,0,0,0,0,0
2.4288,1783012243.3039,1,1,1.0000,0.0000,1.44682,0.22749,-2.77896,0.98064,1.57080,0.00000,-0.14512,-0.38003,0.04502,,,,,,,,,,,,,,,,,,,,,,,,,,0,0,0,0,0
2.4293,1783012243.3043,1,1,1.0000,0.0000,1.44682,0.22749,-2.77896,0.98064,1.57080,0.00000,-0.14512,-0.38003,0.04502,,,,,,,,,,,,,,,,,,,,,,,,,,0,0,0,0,0
2.4337,1783012243.3088,1,1,1.0000,0.0000,1.44682,0.22748,-2.77896,0.98066,1.57080,0.00000,-0.14512,-0.38003,0.04502,,,,,,,,,,,,,,,,,,,,,,,,,,0,0,0,0,0
2.4340,1783012243.3090,1,1,1.0000,0.0000,1.44682,0.22748,-2.77896,0.98066,1.57080,0.00000,-0.14512,-0.38003,0.04502,,,,,,,,,,,,,,,,,,,,,,,,,,0,0,0,0,0
2.4359,1783012243.3110,1,1,1.0000,0.0000,1.44682,0.22746,-2.77897,0.98068,1.57080,0.00000,-0.14512,-0.38003,0.04501,,,,,,,,,,,,,,,,,,,,,,,,,,0,0,0,0,0
2.4462,1783012243.3213,1,1,1.0000,0.0000,1.44682,0.22741,-2.77898,0.98074,1.57080,0.00000,-0.14512,-0.38003,0.04500,,,,,,,,,,,,,,,,,,,,,,,,,,0,0,0,0,0
2.4572,1783012243.3323,1,1,1.0000,0.0000,1.44682,0.22735,-2.77899,0.98081,1.57080,0.00000,-0.14512,-0.38003,0.04498,,,,,,,,,,,,,,,,,,,,,,,,,,0,0,0,0,0
2.4656,1783012243.3407,1,1,1.0000,0.0000,1.44682,0.22734,-2.77900,0.98083,1.57080,0.00000,-0.14512,-0.38003,0.04498,,,,,,,,,,,,,,,,,,,,,,,,,,0,0,0,0,0
2.4763,1783012243.3514,1,1,1.0000,0.0000,1.44682,0.22727,-2.77902,0.98091,1.57080,0.00000,-0.14512,-0.38003,0.04496,,,,,,,,,,,,,,,,,,,,,,,,,,0,0,0,0,0
2.4942,1783012243.3693,1,1,1.0000,0.0000,1.44682,0.22723,-2.77903,0.98097,1.57080,0.00000,-0.14512,-0.38003,0.04495,,,,,,,,,,,,,,,,,,,,,,,,,,0,0,0,0,0
2.4961,1783012243.3712,1,1,1.0000,0.0000,1.44682,0.22721,-2.77903,0.98099,1.57080,0.00000,-0.14512,-0.38003,0.04495,,,,,,,,,,,,,,,,,,,,,,,,,,0,0,0,0,0
2.4963,1783012243.3714,1,1,1.0000,0.0000,1.44682,0.22721,-2.77903,0.98099,1.57080,0.00000,-0.14512,-0.38003,0.04495,,,,,,,,,,,,,,,,,,,,,,,,,,0,0,0,0,0
2.5151,1783012243.3902,1,1,1.0000,0.0000,1.44682,0.22711,-2.77906,0.98111,1.57080,0.00001,-0.14512,-0.38003,0.04492,,,,,,,,,,,,,,,,,,,,,,,,,,0,0,0,0,0
2.5170,1783012243.3921,1,1,1.0000,0.0000,1.44682,0.22711,-2.77906,0.98111,1.57080,0.00001,-0.14512,-0.38003,0.04492,,,,,,,,,,,,,,,,,,,,,,,,,,0,0,0,0,0
2.5297,1783012243.4048,1,1,1.0000,0.0000,1.44682,0.22708,-2.77907,0.98116,1.57080,0.00001,-0.14512,-0.38003,0.04491,,,,,,,,,,,,,,,,,,,,,,,,,,0,0,0,0,0
2.5355,1783012243.4106,1,1,1.0000,0.0000,1.44682,0.22705,-2.77907,0.98119,1.57080,0.00001,-0.14512,-0.38003,0.04491,,,,,,,,,,,,,,,,,,,,,,,,,,0,0,0,0,0
2.5361,1783012243.4112,1,1,1.0000,0.0000,1.44682,0.22703,-2.77908,0.98122,1.57080,0.00001,-0.14512,-0.38003,0.04490,,,,,,,,,,,,,,,,,,,,,,,,,,0,0,0,0,0
2.5562,1783012243.4313,1,1,1.0000,0.0000,1.44682,0.22697,-2.77909,0.98130,1.57080,0.00001,-0.14512,-0.38003,0.04488,,,,,,,,,,,,,,,,,,,,,,,,,,0,0,0,0,0
2.5582,1783012243.4332,1,1,1.0000,0.0000,1.44682,0.22697,-2.77909,0.98130,1.57080,0.00001,-0.14512,-0.38003,0.04488,,,,,,,,,,,,,,,,,,,,,,,,,,0,0,0,0,0
2.5686,1783012243.4437,1,1,1.0000,0.0000,1.44682,0.22689,-2.77911,0.98139,1.57080,0.00001,-0.14512,-0.38003,0.04486,,,,,,,,,,,,,,,,,,,,,,,,,,0,0,0,0,0
2.5766,1783012243.4516,1,1,1.0000,0.0000,1.44682,0.22687,-2.77912,0.98142,1.57080,0.00001,-0.14512,-0.38003,0.04486,,,,,,,,,,,,,,,,,,,,,,,,,,0,0,0,0,0
2.5864,1783012243.4615,1,1,1.0000,0.0000,1.44682,0.22685,-2.77912,0.98144,1.57080,0.00001,-0.14512,-0.38003,0.04485,,,,,,,,,,,,,,,,,,,,,,,,,,0,0,0,0,0
2.5960,1783012243.4710,1,1,1.0000,0.0000,1.44682,0.22678,-2.77914,0.98153,1.57080,0.00001,-0.14512,-0.38003,0.04484,,,,,,,,,,,,,,,,,,,,,,,,,,0,0,0,0,0
2.5962,1783012243.4713,1,1,1.0000,0.0000,1.44682,0.22678,-2.77914,0.98153,1.57080,0.00001,-0.14512,-0.38003,0.04484,,,,,,,,,,,,,,,,,,,,,,,,,,0,0,0,0,0
2.6180,1783012243.4931,1,1,1.0000,0.0000,1.44682,0.22672,-2.77916,0.98160,1.57080,0.00001,-0.14512,-0.38003,0.04482,,,,,,,,,,,,,,,,,,,,,,,,,,0,0,0,0,0
2.6184,1783012243.4934,1,1,1.0000,0.0000,1.44682,0.22672,-2.77916,0.98160,1.57080,0.00001,-0.14512,-0.38003,0.04482,,,,,,,,,,,,,,,,,,,,,,,,,,0,0,0,0,0
2.6188,1783012243.4939,1,1,1.0000,0.0000,1.44682,0.22672,-2.77916,0.98160,1.57080,0.00001,-0.14512,-0.38003,0.04482,,,,,,,,,,,,,,,,,,,,,,,,,,0,0,0,0,0
2.6265,1783012243.5016,1,1,1.0000,0.0000,1.44682,0.22667,-2.77917,0.98166,1.57080,0.00001,-0.14512,-0.38003,0.04481,,,,,,,,,,,,,,,,,,,,,,,,,,0,0,0,0,0
2.6269,1783012243.5020,1,1,1.0000,0.0000,1.44682,0.22667,-2.77917,0.98166,1.57080,0.00001,-0.14512,-0.38003,0.04481,,,,,,,,,,,,,,,,,,,,,,,,,,0,0,0,0,0
2.6378,1783012243.5129,1,1,1.0000,0.0000,1.44682,0.22662,-2.77918,0.98173,1.57080,0.00001,-0.14512,-0.38003,0.04479,,,,,,,,,,,,,,,,,,,,,,,,,,0,0,0,0,0
2.6382,1783012243.5133,1,1,1.0000,0.0000,1.44682,0.22662,-2.77918,0.98173,1.57080,0.00001,-0.14512,-0.38003,0.04479,,,,,,,,,,,,,,,,,,,,,,,,,,0,0,0,0,0
2.6472,1783012243.5223,1,1,1.0000,0.0000,1.44682,0.22660,-2.77918,0.98175,1.57080,0.00001,-0.14512,-0.38003,0.04479,,,,,,,,,,,,,,,,,,,,,,,,,,0,0,0,0,0
2.6602,1783012243.5353,1,1,1.0000,0.0000,1.44682,0.22651,-2.77921,0.98187,1.57080,0.00001,-0.14512,-0.38003,0.04477,,,,,,,,,,,,,,,,,,,,,,,,,,0,0,0,0,0
2.6761,1783012243.5512,1,1,1.0000,0.0000,1.44682,0.22648,-2.77922,0.98191,1.57080,0.00001,-0.14512,-0.38003,0.04476,,,,,,,,,,,,,,,,,,,,,,,,,,0,0,0,0,0
2.6823,1783012243.5574,1,1,1.0000,0.0000,1.44682,0.22645,-2.77922,0.98194,1.57080,0.00001,-0.14512,-0.38003,0.04475,,,,,,,,,,,,,,,,,,,,,,,,,,0,0,0,0,0
2.6825,1783012243.5576,1,1,1.0000,0.0000,1.44682,0.22645,-2.77922,0.98194,1.57080,0.00001,-0.14512,-0.38003,0.04475,,,,,,,,,,,,,,,,,,,,,,,,,,0,0,0,0,0
2.6904,1783012243.5654,1,1,1.0000,0.0000,1.44682,0.22640,-2.77924,0.98200,1.57080,0.00001,-0.14512,-0.38003,0.04474,,,,,,,,,,,,,,,,,,,,,,,,,,0,0,0,0,0
2.6908,1783012243.5659,1,1,1.0000,0.0000,1.44682,0.22640,-2.77924,0.98200,1.57080,0.00001,-0.14512,-0.38003,0.04474,,,,,,,,,,,,,,,,,,,,,,,,,,0,0,0,0,0
2.7095,1783012243.5846,1,1,1.0000,0.0000,1.44682,0.22634,-2.77925,0.98208,1.57080,0.00001,-0.14512,-0.38003,0.04472,,,,,,,,,,,,,,,,,,,,,,,,,,0,0,0,0,0
2.7099,1783012243.5850,1,1,1.0000,0.0000,1.44682,0.22634,-2.77925,0.98208,1.57080,0.00001,-0.14512,-0.38003,0.04472,,,,,,,,,,,,,,,,,,,,,,,,,,0,0,0,0,0
2.7185,1783012243.5936,1,1,1.0000,0.0000,1.44682,0.22629,-2.77926,0.98214,1.57080,0.00001,-0.14512,-0.38003,0.04471,,,,,,,,,,,,,,,,,,,,,,,,,,0,0,0,0,0
2.7260,1783012243.6011,1,1,1.0000,0.0000,1.44682,0.22624,-2.77928,0.98220,1.57080,0.00001,-0.14512,-0.38003,0.04470,,,,,,,,,,,,,,,,,,,,,,,,,,0,0,0,0,0
2.7408,1783012243.6159,1,1,1.0000,0.0000,1.44682,0.22622,-2.77928,0.98224,1.57080,0.00001,-0.14512,-0.38003,0.04469,,,,,,,,,,,,,,,,,,,,,,,,,,0,0,0,0,0
2.7481,1783012243.6232,1,1,1.0000,0.0000,1.44682,0.22618,-2.77929,0.98228,1.57080,0.00001,-0.14512,-0.38003,0.04468,,,,,,,,,,,,,,,,,,,,,,,,,,0,0,0,0,0
2.7776,1783012243.6527,1,1,1.0000,0.0000,1.44682,0.22607,-2.77932,0.98242,1.57080,0.00001,-0.14512,-0.38003,0.04465,,,,,,,,,,,,,,,,,,,,,,,,,,0,0,0,0,0
2.7779,1783012243.6530,1,1,1.0000,0.0000,1.44682,0.22607,-2.77932,0.98242,1.57080,0.00001,-0.14512,-0.38003,0.04465,,,,,,,,,,,,,,,,,,,,,,,,,,0,0,0,0,0
2.7859,1783012243.6610,1,1,1.0000,0.0000,1.44682,0.22602,-2.77933,0.98249,1.57080,0.00001,-0.14512,-0.38003,0.04464,,,,,,,,,,,,,,,,,,,,,,,,,,0,0,0,0,0
2.7970,1783012243.6721,1,1,1.0000,0.0000,1.44682,0.22600,-2.77934,0.98250,1.57080,0.00001,-0.14512,-0.38003,0.04463,,,,,,,,,,,,,,,,,,,,,,,,,,0,0,0,0,0
2.8090,1783012243.6841,1,1,1.0000,0.0000,1.44682,0.22595,-2.77935,0.98257,1.57080,0.00001,-0.14512,-0.38003,0.04462,,,,,,,,,,,,,,,,,,,,,,,,,,0,0,0,0,0
2.8437,1783012243.7187,1,1,1.0000,0.0000,1.44682,0.22582,-2.77938,0.98273,1.57080,0.00001,-0.14512,-0.38003,0.04459,,,,,,,,,,,,,,,,,,,,,,,,,,0,0,0,0,0
2.8444,1783012243.7194,1,1,1.0000,0.0000,1.44682,0.22579,-2.77939,0.98277,1.57080,0.00001,-0.14512,-0.38003,0.04458,,,,,,,,,,,,,,,,,,,,,,,,,,0,0,0,0,0
2.8518,1783012243.7268,1,1,1.0000,0.0000,1.44682,0.22579,-2.77939,0.98277,1.57080,0.00001,-0.14512,-0.38003,0.04458,,,,,,,,,,,,,,,,,,,,,,,,,,0,0,0,0,0
2.8744,1783012243.7495,1,1,1.0000,0.0000,1.44682,0.22571,-2.77941,0.98287,1.57080,0.00001,-0.14512,-0.38003,0.04456,,,,,,,,,,,,,,,,,,,,,,,,,,0,0,0,0,0
2.8748,1783012243.7499,1,1,1.0000,0.0000,1.44682,0.22571,-2.77941,0.98287,1.57080,0.00001,-0.14512,-0.38003,0.04456,,,,,,,,,,,,,,,,,,,,,,,,,,0,0,0,0,0
2.8863,1783012243.7614,1,1,1.0000,0.0000,1.44682,0.22569,-2.77942,0.98290,1.57080,0.00001,-0.14512,-0.38003,0.04455,,,,,,,,,,,,,,,,,,,,,,,,,,0,0,0,0,0
2.8904,1783012243.7655,1,1,1.0000,0.0000,1.44682,0.22567,-2.77942,0.98292,1.57080,0.00001,-0.14512,-0.38003,0.04455,,,,,,,,,,,,,,,,,,,,,,,,,,0,0,0,0,0
2.9211,1783012243.7962,1,1,1.0000,0.0000,1.44682,0.22554,-2.77945,0.98308,1.57080,0.00001,-0.14512,-0.38003,0.04451,,,,,,,,,,,,,,,,,,,,,,,,,,0,0,0,0,0
2.9218,1783012243.7968,1,1,1.0000,0.0000,1.44682,0.22554,-2.77945,0.98308,1.57080,0.00001,-0.14512,-0.38003,0.04451,,,,,,,,,,,,,,,,,,,,,,,,,,0,0,0,0,0
2.9322,1783012243.8073,1,1,1.0000,0.0000,1.44682,0.22548,-2.77947,0.98316,1.57080,0.00001,-0.14512,-0.38003,0.04450,,,,,,,,,,,,,,,,,,,,,,,,,,0,0,0,0,0
2.9324,1783012243.8075,1,1,1.0000,0.0000,1.44682,0.22548,-2.77947,0.98316,1.57080,0.00001,-0.14512,-0.38003,0.04450,,,,,,,,,,,,,,,,,,,,,,,,,,0,0,0,0,0
2.9481,1783012243.8232,1,1,1.0000,0.0000,1.44682,0.22544,-2.77948,0.98320,1.57080,0.00001,-0.14512,-0.38003,0.04449,,,,,,,,,,,,,,,,,,,,,,,,,,0,0,0,0,0
2.9541,1783012243.8291,1,1,1.0000,0.0000,1.44682,0.22542,-2.77948,0.98323,1.57080,0.00001,-0.14512,-0.38003,0.04448,,,,,,,,,,,,,,,,,,,,,,,,,,0,0,0,0,0
2.9608,1783012243.8359,1,1,1.0000,0.0000,1.44682,0.22537,-2.77950,0.98330,1.57080,0.00001,-0.14512,-0.38003,0.04447,,,,,,,,,,,,,,,,,,,,,,,,,,0,0,0,0,0
2.9611,1783012243.8362,1,1,1.0000,0.0000,1.44682,0.22537,-2.77950,0.98330,1.57080,0.00001,-0.14512,-0.38003,0.04447,,,,,,,,,,,,,,,,,,,,,,,,,,0,0,0,0,0
2.9733,1783012243.8484,1,1,1.0000,0.0000,1.44682,0.22534,-2.77950,0.98333,1.57080,0.00001,-0.14512,-0.38003,0.04446,,,,,,,,,,,,,,,,,,,,,,,,,,0,0,0,0,0
2.9857,1783012243.8608,1,1,1.0000,0.0000,1.44682,0.22530,-2.77951,0.98338,1.57080,0.00001,-0.14512,-0.38003,0.04445,,,,,,,,,,,,,,,,,,,,,,,,,,0,0,0,0,0
2.9860,1783012243.8611,1,1,1.0000,0.0000,1.44682,0.22530,-2.77951,0.98338,1.57080,0.00001,-0.14512,-0.38003,0.04445,,,,,,,,,,,,,,,,,,,,,,,,,,0,0,0,0,0
2.9988,1783012243.8739,1,1,1.0000,0.0000,1.44682,0.22526,-2.77953,0.98344,1.57080,0.00001,-0.14512,-0.38003,0.04444,,,,,,,,,,,,,,,,,,,,,,,,,,0,0,0,0,0
3.0013,1783012243.8764,1,1,1.0000,0.0000,1.44682,0.22525,-2.77953,0.98344,1.57080,0.00001,-0.14512,-0.38003,0.04444,,,,,,,,,,,,,,,,,,,,,,,,,,0,0,0,0,0
3.0261,1783012243.9012,1,1,1.0000,0.0000,1.44682,0.22512,-2.77956,0.98361,1.57080,0.00001,-0.14512,-0.38003,0.04440,,,,,,,,,,,,,,,,,,,,,,,,,,0,0,0,0,0
3.0264,1783012243.9015,1,1,1.0000,0.0000,1.44682,0.22512,-2.77956,0.98361,1.57080,0.00001,-0.14512,-0.38003,0.04440,,,,,,,,,,,,,,,,,,,,,,,,,,0,0,0,0,0
3.0392,1783012243.9143,1,1,1.0000,0.0000,1.44682,0.22511,-2.77956,0.98363,1.57080,0.00001,-0.14512,-0.38003,0.04440,,,,,,,,,,,,,,,,,,,,,,,,,,0,0,0,0,0
3.0415,1783012243.9165,1,1,1.0000,0.0000,1.44682,0.22509,-2.77957,0.98364,1.57080,0.00001,-0.14512,-0.38003,0.04440,,,,,,,,,,,,,,,,,,,,,,,,,,0,0,0,0,0
3.0524,1783012243.9274,1,1,1.0000,0.0000,1.44682,0.22503,-2.77958,0.98372,1.57080,0.00001,-0.14512,-0.38003,0.04438,,,,,,,,,,,,,,,,,,,,,,,,,,0,0,0,0,0
3.0806,1783012243.9557,1,1,1.0000,0.0000,1.44682,0.22492,-2.77961,0.98386,1.57080,0.00001,-0.14512,-0.38003,0.04435,,,,,,,,,,,,,,,,,,,,,,,,,,0,0,0,0,0
3.0811,1783012243.9562,1,1,1.0000,0.0000,1.44682,0.22492,-2.77961,0.98386,1.57080,0.00001,-0.14512,-0.38003,0.04435,,,,,,,,,,,,,,,,,,,,,,,,,,0,0,0,0,0
3.0939,1783012243.9690,1,1,1.0000,0.0000,1.44682,0.22489,-2.77962,0.98390,1.57080,0.00001,-0.14512,-0.38003,0.04435,,,,,,,,,,,,,,,,,,,,,,,,,,0,0,0,0,0
3.1034,1783012243.9784,1,1,1.0000,0.0000,1.44682,0.22487,-2.77962,0.98393,1.57080,0.00001,-0.14512,-0.38003,0.04434,,,,,,,,,,,,,,,,,,,,,,,,,,0,0,0,0,0
3.1137,1783012243.9888,1,1,1.0000,0.0000,1.44682,0.22481,-2.77964,0.98400,1.57080,0.00001,-0.14512,-0.38003,0.04432,,,,,,,,,,,,,,,,,,,,,,,,,,0,0,0,0,0
3.1291,1783012244.0042,1,1,1.0000,0.0000,1.44682,0.22477,-2.77965,0.98405,1.57080,0.00001,-0.14512,-0.38003,0.04431,,,,,,,,,,,,,,,,,,,,,,,,,,0,0,0,0,0
3.1447,1783012244.0198,1,1,1.0000,0.0000,1.44682,0.22467,-2.77967,0.98418,1.57080,0.00001,-0.14512,-0.38002,0.04429,,,,,,,,,,,,,,,,,,,,,,,,,,0,0,0,0,0
3.1450,1783012244.0201,1,1,1.0000,0.0000,1.44682,0.22467,-2.77967,0.98418,1.57080,0.00001,-0.14512,-0.38002,0.04429,,,,,,,,,,,,,,,,,,,,,,,,,,0,0,0,0,0
3.1461,1783012244.0212,1,1,1.0000,0.0000,1.44682,0.22467,-2.77967,0.98418,1.57080,0.00001,-0.14512,-0.38002,0.04429,,,,,,,,,,,,,,,,,,,,,,,,,,0,0,0,0,0
3.1505,1783012244.0255,1,1,1.0000,0.0000,1.44682,0.22467,-2.77967,0.98418,1.57080,0.00001,-0.14512,-0.38002,0.04429,,,,,,,,,,,,,,,,,,,,,,,,,,0,0,0,0,0
3.1613,1783012244.0364,1,1,1.0000,0.0000,1.44682,0.22463,-2.77968,0.98422,1.57080,0.00001,-0.14512,-0.38002,0.04428,,,,,,,,,,,,,,,,,,,,,,,,,,0,0,0,0,0
3.1710,1783012244.0460,1,1,1.0000,0.0000,1.44682,0.22458,-2.77970,0.98428,1.57080,0.00001,-0.14512,-0.38002,0.04427,,,,,,,,,,,,,,,,,,,,,,,,,,0,0,0,0,0
3.1714,1783012244.0465,1,1,1.0000,0.0000,1.44682,0.22458,-2.77970,0.98428,1.57080,0.00001,-0.14512,-0.38002,0.04427,,,,,,,,,,,,,,,,,,,,,,,,,,0,0,0,0,0
3.1824,1783012244.0574,1,1,1.0000,0.0000,1.44682,0.22455,-2.77970,0.98432,1.57080,0.00001,-0.14512,-0.38002,0.04426,,,,,,,,,,,,,,,,,,,,,,,,,,0,0,0,0,0
3.1902,1783012244.0652,1,1,1.0000,0.0000,1.44682,0.22452,-2.77971,0.98436,1.57080,0.00001,-0.14512,-0.38002,0.04425,,,,,,,,,,,,,,,,,,,,,,,,,,0,0,0,0,0
3.2020,1783012244.0771,1,1,1.0000,0.0000,1.44682,0.22445,-2.77973,0.98445,1.57080,0.00001,-0.14512,-0.38002,0.04423,,,,,,,,,,,,,,,,,,,,,,,,,,0,0,0,0,0
3.2022,1783012244.0773,1,1,1.0000,0.0000,1.44682,0.22445,-2.77973,0.98445,1.57080,0.00001,-0.14512,-0.38002,0.04423,,,,,,,,,,,,,,,,,,,,,,,,,,0,0,0,0,0
3.2133,1783012244.0884,1,1,1.0000,0.0000,1.44682,0.22442,-2.77974,0.98449,1.57080,0.00001,-0.14512,-0.38002,0.04422,,,,,,,,,,,,,,,,,,,,,,,,,,0,0,0,0,0
3.2349,1783012244.1100,1,1,1.0000,0.0000,1.44682,0.22431,-2.77976,0.98462,1.57080,0.00001,-0.14512,-0.38002,0.04420,,,,,,,,,,,,,,,,,,,,,,,,,,0,0,0,0,0
3.2353,1783012244.1104,1,1,1.0000,0.0000,1.44682,0.22431,-2.77976,0.98462,1.57080,0.00001,-0.14512,-0.38002,0.04420,,,,,,,,,,,,,,,,,,,,,,,,,,0,0,0,0,0
3.2406,1783012244.1156,1,1,1.0000,0.0000,1.44682,0.22431,-2.77976,0.98463,1.57080,0.00001,-0.14512,-0.38002,0.04420,,,,,,,,,,,,,,,,,,,,,,,,,,0,0,0,0,0
3.2408,1783012244.1158,1,1,1.0000,0.0000,1.44682,0.22431,-2.77976,0.98463,1.57080,0.00001,-0.14512,-0.38002,0.04420,,,,,,,,,,,,,,,,,,,,,,,,,,0,0,0,0,0
3.2527,1783012244.1278,1,1,1.0000,0.0000,1.44682,0.22425,-2.77978,0.98469,1.57080,0.00001,-0.14512,-0.38002,0.04418,,,,,,,,,,,,,,,,,,,,,,,,,,0,0,0,0,0
3.2533,1783012244.1284,1,1,1.0000,0.0000,1.44682,0.22425,-2.77978,0.98469,1.57080,0.00001,-0.14512,-0.38002,0.04418,,,,,,,,,,,,,,,,,,,,,,,,,,0,0,0,0,0
3.2613,1783012244.1363,1,1,1.0000,0.0000,1.44682,0.22420,-2.77979,0.98476,1.57080,0.00001,-0.14512,-0.38002,0.04417,,,,,,,,,,,,,,,,,,,,,,,,,,0,0,0,0,0
3.2750,1783012244.1501,1,1,1.0000,0.0000,1.44682,0.22417,-2.77980,0.98479,1.57080,0.00001,-0.14512,-0.38002,0.04416,,,,,,,,,,,,,,,,,,,,,,,,,,0,0,0,0,0
3.2823,1783012244.1573,1,1,1.0000,0.0000,1.44682,0.22414,-2.77981,0.98483,1.57080,0.00001,-0.14512,-0.38002,0.04415,,,,,,,,,,,,,,,,,,,,,,,,,,0,0,0,0,0
3.2901,1783012244.1652,1,1,1.0000,0.0000,1.44682,0.22409,-2.77982,0.98489,1.57080,0.00001,-0.14512,-0.38002,0.04414,,,,,,,,,,,,,,,,,,,,,,,,,,0,0,0,0,0
3.3005,1783012244.1756,1,1,1.0000,0.0000,1.44682,0.22406,-2.77983,0.98493,1.57080,0.00001,-0.14512,-0.38002,0.04413,,,,,,,,,,,,,,,,,,,,,,,,,,0,0,0,0,0
3.3107,1783012244.1858,1,1,1.0000,0.0000,1.44682,0.22403,-2.77983,0.98497,1.57080,0.00001,-0.14512,-0.38002,0.04412,,,,,,,,,,,,,,,,,,,,,,,,,,0,0,0,0,0
3.3210,1783012244.1961,1,1,1.0000,0.0000,1.44682,0.22396,-2.77985,0.98506,1.57080,0.00001,-0.14512,-0.38002,0.04410,,,,,,,,,,,,,,,,,,,,,,,,,,0,0,0,0,0
3.3319,1783012244.2070,1,1,1.0000,0.0000,1.44682,0.22393,-2.77986,0.98510,1.57080,0.00001,-0.14512,-0.38002,0.04410,,,,,,,,,,,,,,,,,,,,,,,,,,0,0,0,0,0
3.3444,1783012244.2195,1,1,1.0000,0.0000,1.44682,0.22387,-2.77987,0.98517,1.57080,0.00001,-0.14512,-0.38002,0.04408,,,,,,,,,,,,,,,,,,,,,,,,,,0,0,0,0,0
3.3543,1783012244.2294,1,1,1.0000,0.0000,1.44682,0.22382,-2.77989,0.98523,1.57080,0.00001,-0.14512,-0.38002,0.04407,,,,,,,,,,,,,,,,,,,,,,,,,,0,0,0,0,0
3.3644,1783012244.2394,1,1,1.0000,0.0000,1.44682,0.22379,-2.77989,0.98527,1.57080,0.00001,-0.14512,-0.38002,0.04406,,,,,,,,,,,,,,,,,,,,,,,,,,0,0,0,0,0
3.3755,1783012244.2506,1,1,1.0000,0.0000,1.44682,0.22377,-2.77990,0.98530,1.57080,0.00001,-0.14512,-0.38002,0.04406,,,,,,,,,,,,,,,,,,,,,,,,,,0,0,0,0,0
3.3877,1783012244.2627,1,1,1.0000,0.0000,1.44682,0.22371,-2.77992,0.98538,1.57080,0.00001,-0.14512,-0.38002,0.04404,,,,,,,,,,,,,,,,,,,,,,,,,,0,0,0,0,0
3.3949,1783012244.2699,1,1,1.0000,0.0000,1.44682,0.22370,-2.77992,0.98538,1.57080,0.00001,-0.14512,-0.38002,0.04404,,,,,,,,,,,,,,,,,,,,,,,,,,0,0,0,0,0
3.4063,1783012244.2814,1,1,1.0000,0.0000,1.44682,0.22365,-2.77993,0.98545,1.57080,0.00001,-0.14512,-0.38002,0.04403,,,,,,,,,,,,,,,,,,,,,,,,,,0,0,0,0,0
3.4154,1783012244.2905,1,1,1.0000,0.0000,1.44682,0.22360,-2.77994,0.98552,1.57080,0.00001,-0.14512,-0.38002,0.04401,,,,,,,,,,,,,,,,,,,,,,,,,,0,0,0,0,0
3.4255,1783012244.3006,1,1,1.0000,0.0000,1.44682,0.22357,-2.77995,0.98555,1.57080,0.00001,-0.14512,-0.38002,0.04400,,,,,,,,,,,,,,,,,,,,,,,,,,0,0,0,0,0
3.4365,1783012244.3116,1,1,1.0000,0.0000,1.44682,0.22353,-2.77996,0.98560,1.57080,0.00001,-0.14512,-0.38002,0.04399,,,,,,,,,,,,,,,,,,,,,,,,,,0,0,0,0,0
3.4368,1783012244.3119,1,1,1.0000,0.0000,1.44682,0.22353,-2.77996,0.98560,1.57080,0.00001,-0.14512,-0.38002,0.04399,,,,,,,,,,,,,,,,,,,,,,,,,,0,0,0,0,0
3.4443,1783012244.3194,1,1,1.0000,0.0000,1.44682,0.22348,-2.77997,0.98566,1.57080,0.00001,-0.14512,-0.38002,0.04398,,,,,,,,,,,,,,,,,,,,,,,,,,0,0,0,0,0
3.4554,1783012244.3305,1,1,1.0000,0.0000,1.44682,0.22348,-2.77997,0.98566,1.57080,0.00001,-0.14512,-0.38002,0.04398,,,,,,,,,,,,,,,,,,,,,,,,,,0,0,0,0,0
3.4656,1783012244.3407,1,1,1.0000,0.0000,1.44682,0.22342,-2.77999,0.98573,1.57080,0.00001,-0.14512,-0.38002,0.04397,,,,,,,,,,,,,,,,,,,,,,,,,,0,0,0,0,0
3.4809,1783012244.3560,1,1,1.0000,0.0000,1.44682,0.22334,-2.78001,0.98583,1.57080,0.00001,-0.14512,-0.38002,0.04395,,,,,,,,,,,,,,,,,,,,,,,,,,0,0,0,0,0
3.4855,1783012244.3606,1,1,1.0000,0.0000,1.44682,0.22334,-2.78001,0.98584,1.57080,0.00001,-0.14512,-0.38002,0.04395,,,,,,,,,,,,,,,,,,,,,,,,,,0,0,0,0,0
3.4978,1783012244.3729,1,1,1.0000,0.0000,1.44682,0.22330,-2.78002,0.98589,1.57080,0.00001,-0.14512,-0.38002,0.04394,,,,,,,,,,,,,,,,,,,,,,,,,,0,0,0,0,0
3.5067,1783012244.3818,1,1,1.0000,0.0000,1.44682,0.22326,-2.78003,0.98594,1.57080,0.00001,-0.14512,-0.38002,0.04392,,,,,,,,,,,,,,,,,,,,,,,,,,0,0,0,0,0
3.5073,1783012244.3823,1,1,1.0000,0.0000,1.44682,0.22326,-2.78003,0.98594,1.57080,0.00001,-0.14512,-0.38002,0.04392,,,,,,,,,,,,,,,,,,,,,,,,,,0,0,0,0,0
3.5155,1783012244.3906,1,1,1.0000,0.0000,1.44682,0.22325,-2.78003,0.98594,1.57080,0.00001,-0.14512,-0.38002,0.04392,,,,,,,,,,,,,,,,,,,,,,,,,,0,0,0,0,0
3.5237,1783012244.3988,1,1,1.0000,0.0000,1.44682,0.22322,-2.78004,0.98598,1.57080,0.00001,-0.14512,-0.38002,0.04391,,,,,,,,,,,,,,,,,,,,,,,,,,0,0,0,0,0
3.5382,1783012244.4133,1,1,1.0000,0.0000,1.44682,0.22312,-2.78006,0.98611,1.57080,0.00001,-0.14512,-0.38002,0.04389,,,,,,,,,,,,,,,,,,,,,,,,,,0,0,0,0,0
3.5385,1783012244.4136,1,1,1.0000,0.0000,1.44682,0.22312,-2.78006,0.98611,1.57080,0.00001,-0.14512,-0.38002,0.04389,,,,,,,,,,,,,,,,,,,,,,,,,,0,0,0,0,0
3.5437,1783012244.4188,1,1,1.0000,0.0000,1.44682,0.22312,-2.78006,0.98611,1.57080,0.00001,-0.14512,-0.38002,0.04389,,,,,,,,,,,,,,,,,,,,,,,,,,0,0,0,0,0
3.5445,1783012244.4195,1,1,1.0000,0.0000,1.44682,0.22311,-2.78006,0.98612,1.57080,0.00001,-0.14512,-0.38002,0.04389,,,,,,,,,,,,,,,,,,,,,,,,,,0,0,0,0,0
3.5542,1783012244.4293,1,1,1.0000,0.0000,1.44682,0.22308,-2.78007,0.98616,1.57080,0.00001,-0.14512,-0.38002,0.04388,,,,,,,,,,,,,,,,,,,,,,,,,,0,0,0,0,0
3.5655,1783012244.4406,1,1,1.0000,0.0000,1.44682,0.22301,-2.78009,0.98625,1.57080,0.00001,-0.14512,-0.38002,0.04386,,,,,,,,,,,,,,,,,,,,,,,,,,0,0,0,0,0
3.5775,1783012244.4525,1,1,1.0000,0.0000,1.44682,0.22299,-2.78010,0.98627,1.57080,0.00001,-0.14512,-0.38002,0.04386,,,,,,,,,,,,,,,,,,,,,,,,,,0,0,0,0,0
3.5855,1783012244.4605,1,1,1.0000,0.0000,1.44682,0.22295,-2.78011,0.98632,1.57080,0.00001,-0.14512,-0.38002,0.04384,,,,,,,,,,,,,,,,,,,,,,,,,,0,0,0,0,0
3.5944,1783012244.4695,1,1,1.0000,0.0000,1.44682,0.22290,-2.78012,0.98639,1.57080,0.00001,-0.14512,-0.38002,0.04383,,,,,,,,,,,,,,,,,,,,,,,,,,0,0,0,0,0
3.6048,1783012244.4798,1,1,1.0000,0.0000,1.44682,0.22287,-2.78013,0.98642,1.57080,0.00001,-0.14512,-0.38002,0.04382,,,,,,,,,,,,,,,,,,,,,,,,,,0,0,0,0,0
3.6152,1783012244.4903,1,1,1.0000,0.0000,1.44682,0.22285,-2.78013,0.98645,1.57080,0.00001,-0.14512,-0.38002,0.04382,,,,,,,,,,,,,,,,,,,,,,,,,,0,0,0,0,0
3.6256,1783012244.5007,1,1,1.0000,0.0000,1.44682,0.22279,-2.78015,0.98653,1.57080,0.00001,-0.14512,-0.38002,0.04380,,,,,,,,,,,,,,,,,,,,,,,,,,0,0,0,0,0
3.6396,1783012244.5146,1,1,1.0000,0.0000,1.44682,0.22277,-2.78015,0.98655,1.57080,0.00001,-0.14512,-0.38002,0.04380,,,,,,,,,,,,,,,,,,,,,,,,,,0,0,0,0,0
3.6445,1783012244.5196,1,1,1.0000,0.0000,1.44681,0.22273,-2.78016,0.98660,1.57080,0.00001,-0.14512,-0.38002,0.04379,,,,,,,,,,,,,,,,,,,,,,,,,,0,0,0,0,0
3.6566,1783012244.5317,1,1,1.0000,0.0000,1.44681,0.22265,-2.78018,0.98670,1.57080,0.00001,-0.14512,-0.38002,0.04377,,,,,,,,,,,,,,,,,,,,,,,,,,0,0,0,0,0
3.6636,1783012244.5387,1,1,1.0000,0.0000,1.44681,0.22265,-2.78018,0.98670,1.57080,0.00001,-0.14512,-0.38002,0.04377,,,,,,,,,,,,,,,,,,,,,,,,,,0,0,0,0,0
3.6808,1783012244.5559,1,1,1.0000,0.0000,1.44681,0.22256,-2.78020,0.98681,1.57080,0.00001,-0.14512,-0.38002,0.04374,,,,,,,,,,,,,,,,,,,,,,,,,,0,0,0,0,0
3.6956,1783012244.5707,1,1,1.0000,0.0000,1.44681,0.22253,-2.78021,0.98685,1.57080,0.00001,-0.14512,-0.38002,0.04374,,,,,,,,,,,,,,,,,,,,,,,,,,0,0,0,0,0
3.7074,1783012244.5825,1,1,1.0000,0.0000,1.44681,0.22248,-2.78022,0.98691,1.57080,0.00001,-0.14512,-0.38002,0.04372,,,,,,,,,,,,,,,,,,,,,,,,,,0,0,0,0,0
3.7548,1783012244.6299,1,1,1.0000,0.0000,1.44681,0.22228,-2.78027,0.98716,1.57080,0.00001,-0.14512,-0.38002,0.04367,,,,,,,,,,,,,,,,,,,,,,,,,,0,0,0,0,0
3.7552,1783012244.6302,1,1,1.0000,0.0000,1.44681,0.22228,-2.78027,0.98716,1.57080,0.00001,-0.14512,-0.38002,0.04367,,,,,,,,,,,,,,,,,,,,,,,,,,0,0,0,0,0
3.7555,1783012244.6306,1,1,1.0000,0.0000,1.44681,0.22228,-2.78027,0.98716,1.57080,0.00001,-0.14512,-0.38002,0.04367,,,,,,,,,,,,,,,,,,,,,,,,,,0,0,0,0,0
3.7587,1783012244.6338,1,1,1.0000,0.0000,1.44681,0.22227,-2.78028,0.98717,1.57080,0.00001,-0.14512,-0.38002,0.04367,,,,,,,,,,,,,,,,,,,,,,,,,,0,0,0,0,0
3.7590,1783012244.6341,1,1,1.0000,0.0000,1.44681,0.22227,-2.78028,0.98717,1.57080,0.00001,-0.14512,-0.38002,0.04367,,,,,,,,,,,,,,,,,,,,,,,,,,0,0,0,0,0
3.7634,1783012244.6385,1,1,1.0000,0.0000,1.44681,0.22225,-2.78028,0.98719,1.57080,0.00001,-0.14512,-0.38002,0.04367,,,,,,,,,,,,,,,,,,,,,,,,,,0,0,0,0,0
3.7638,1783012244.6388,1,1,1.0000,0.0000,1.44681,0.22225,-2.78028,0.98719,1.57080,0.00001,-0.14512,-0.38002,0.04367,,,,,,,,,,,,,,,,,,,,,,,,,,0,0,0,0,0
3.7814,1783012244.6565,1,1,1.0000,0.0000,1.44681,0.22215,-2.78031,0.98732,1.57080,0.00001,-0.14512,-0.38002,0.04364,,,,,,,,,,,,,,,,,,,,,,,,,,0,0,0,0,0
3.7851,1783012244.6602,1,1,1.0000,0.0000,1.44681,0.22215,-2.78031,0.98732,1.57080,0.00001,-0.14512,-0.38002,0.04364,,,,,,,,,,,,,,,,,,,,,,,,,,0,0,0,0,0
3.7975,1783012244.6726,1,1,1.0000,0.0000,1.44681,0.22210,-2.78032,0.98739,1.57080,0.00001,-0.14512,-0.38002,0.04362,,,,,,,,,,,,,,,,,,,,,,,,,,0,0,0,0,0
3.8040,1783012244.6791,1,1,1.0000,0.0000,1.44681,0.22207,-2.78033,0.98742,1.57080,0.00001,-0.14512,-0.38002,0.04362,,,,,,,,,,,,,,,,,,,,,,,,,,0,0,0,0,0
3.8150,1783012244.6900,1,1,1.0000,0.0000,1.44681,0.22204,-2.78033,0.98746,1.57080,0.00001,-0.14512,-0.38002,0.04361,,,,,,,,,,,,,,,,,,,,,,,,,,0,0,0,0,0
3.8152,1783012244.6903,1,1,1.0000,0.0000,1.44681,0.22204,-2.78033,0.98746,1.57080,0.00001,-0.14512,-0.38002,0.04361,,,,,,,,,,,,,,,,,,,,,,,,,,0,0,0,0,0
3.8253,1783012244.7004,1,1,1.0000,0.0000,1.44681,0.22199,-2.78035,0.98753,1.57080,0.00001,-0.14512,-0.38002,0.04360,,,,,,,,,,,,,,,,,,,,,,,,,,0,0,0,0,0
3.8447,1783012244.7198,1,1,1.0000,0.0000,1.44681,0.22190,-2.78037,0.98763,1.57080,0.00001,-0.14512,-0.38002,0.04358,,,,,,,,,,,,,,,,,,,,,,,,,,0,0,0,0,0
3.8449,1783012244.7200,1,1,1.0000,0.0000,1.44681,0.22190,-2.78037,0.98763,1.57080,0.00001,-0.14512,-0.38002,0.04358,,,,,,,,,,,,,,,,,,,,,,,,,,0,0,0,0,0
3.8452,1783012244.7202,1,1,1.0000,0.0000,1.44681,0.22190,-2.78037,0.98763,1.57080,0.00001,-0.14512,-0.38002,0.04358,,,,,,,,,,,,,,,,,,,,,,,,,,0,0,0,0,0
3.8566,1783012244.7316,1,1,1.0000,0.0000,1.44681,0.22185,-2.78038,0.98770,1.57080,0.00001,-0.14512,-0.38002,0.04356,,,,,,,,,,,,,,,,,,,,,,,,,,0,0,0,0,0
3.8670,1783012244.7421,1,1,1.0000,0.0000,1.44681,0.22180,-2.78039,0.98777,1.57080,0.00001,-0.14512,-0.38002,0.04355,,,,,,,,,,,,,,,,,,,,,,,,,,0,0,0,0,0
3.8757,1783012244.7508,1,1,1.0000,0.0000,1.44681,0.22177,-2.78040,0.98780,1.57080,0.00001,-0.14512,-0.38002,0.04354,,,,,,,,,,,,,,,,,,,,,,,,,,0,0,0,0,0
3.8844,1783012244.7595,1,1,1.0000,0.0000,1.44681,0.22174,-2.78041,0.98783,1.57080,0.00001,-0.14512,-0.38002,0.04353,,,,,,,,,,,,,,,,,,,,,,,,,,0,0,0,0,0
3.8937,1783012244.7688,1,1,1.0000,0.0000,1.44681,0.22171,-2.78042,0.98788,1.57080,0.00001,-0.14512,-0.38002,0.04352,,,,,,,,,,,,,,,,,,,,,,,,,,0,0,0,0,0
3.9089,1783012244.7839,1,1,1.0000,0.0000,1.44681,0.22167,-2.78043,0.98793,1.57080,0.00001,-0.14512,-0.38002,0.04351,,,,,,,,,,,,,,,,,,,,,,,,,,0,0,0,0,0
3.9093,1783012244.7843,1,1,1.0000,0.0000,1.44681,0.22167,-2.78043,0.98793,1.57080,0.00001,-0.14512,-0.38002,0.04351,,,,,,,,,,,,,,,,,,,,,,,,,,0,0,0,0,0
3.9156,1783012244.7906,1,1,1.0000,0.0000,1.44681,0.22165,-2.78043,0.98795,1.57080,0.00001,-0.14512,-0.38002,0.04351,,,,,,,,,,,,,,,,,,,,,,,,,,0,0,0,0,0
3.9247,1783012244.7998,1,1,1.0000,0.0000,1.44681,0.22157,-2.78045,0.98805,1.57080,0.00001,-0.14512,-0.38002,0.04349,,,,,,,,,,,,,,,,,,,,,,,,,,0,0,0,0,0
3.9337,1783012244.8088,1,1,1.0000,0.0000,1.44681,0.22154,-2.78046,0.98808,1.57080,0.00001,-0.14512,-0.38002,0.04348,,,,,,,,,,,,,,,,,,,,,,,,,,0,0,0,0,0
3.9474,1783012244.8225,1,1,1.0000,0.0000,1.44681,0.22152,-2.78046,0.98811,1.57080,0.00001,-0.14512,-0.38002,0.04348,,,,,,,,,,,,,,,,,,,,,,,,,,0,0,0,0,0
3.9578,1783012244.8329,1,1,1.0000,0.0000,1.44681,0.22146,-2.78048,0.98819,1.57080,0.00001,-0.14512,-0.38002,0.04346,,,,,,,,,,,,,,,,,,,,,,,,,,0,0,0,0,0
3.9674,1783012244.8425,1,1,1.0000,0.0000,1.44681,0.22145,-2.78048,0.98819,1.57080,0.00001,-0.14512,-0.38002,0.04346,,,,,,,,,,,,,,,,,,,,,,,,,,0,0,0,0,0
3.9755,1783012244.8506,1,1,1.0000,0.0000,1.44681,0.22142,-2.78049,0.98823,1.57080,0.00001,-0.14512,-0.38002,0.04345,,,,,,,,,,,,,,,,,,,,,,,,,,0,0,0,0,0
3.9758,1783012244.8509,1,1,1.0000,0.0000,1.44681,0.22142,-2.78049,0.98823,1.57080,0.00001,-0.14512,-0.38002,0.04345,,,,,,,,,,,,,,,,,,,,,,,,,,0,0,0,0,0
3.9920,1783012244.8671,1,1,1.0000,0.0000,1.44681,0.22132,-2.78051,0.98836,1.57080,0.00001,-0.14512,-0.38002,0.04342,,,,,,,,,,,,,,,,,,,,,,,,,,0,0,0,0,0
3.9966,1783012244.8716,1,1,1.0000,0.0000,1.44681,0.22132,-2.78051,0.98837,1.57080,0.00001,-0.14512,-0.38002,0.04342,,,,,,,,,,,,,,,,,,,,,,,,,,0,0,0,0,0
4.0035,1783012244.8786,1,1,1.0000,0.0000,1.44681,0.22131,-2.78052,0.98838,1.57080,0.00001,-0.14512,-0.38002,0.04342,,,,,,,,,,,,,,,,,,,,,,,,,,0,0,0,0,0
4.0145,1783012244.8895,1,1,1.0000,0.0000,1.44681,0.22125,-2.78053,0.98844,1.57080,0.00001,-0.14512,-0.38002,0.04341,,,,,,,,,,,,,,,,,,,,,,,,,,0,0,0,0,0
4.0148,1783012244.8899,1,1,1.0000,0.0000,1.44681,0.22125,-2.78053,0.98844,1.57080,0.00001,-0.14512,-0.38002,0.04341,,,,,,,,,,,,,,,,,,,,,,,,,,0,0,0,0,0
4.0266,1783012244.9017,1,1,1.0000,0.0000,1.44681,0.22123,-2.78054,0.98848,1.57080,0.00001,-0.14512,-0.38002,0.04340,,,,,,,,,,,,,,,,,,,,,,,,,,0,0,0,0,0
4.0376,1783012244.9126,1,1,1.0000,0.0000,1.44681,0.22117,-2.78055,0.98855,1.57080,0.00001,-0.14512,-0.38002,0.04339,,,,,,,,,,,,,,,,,,,,,,,,,,0,0,0,0,0
4.0499,1783012244.9250,1,1,1.0000,0.0000,1.44681,0.22109,-2.78057,0.98865,1.57080,0.00001,-0.14512,-0.38002,0.04337,,,,,,,,,,,,,,,,,,,,,,,,,,0,0,0,0,0
4.1409,1783012245.0159,1,1,1.0000,0.0000,1.44681,0.22078,-2.78065,0.98904,1.57080,0.00001,-0.14512,-0.38002,0.04329,,,,,,,,,,,,,,,,,,,,,,,,,,0,0,0,0,0
4.1414,1783012245.0165,1,1,1.0000,0.0000,1.44681,0.22078,-2.78065,0.98904,1.57080,0.00001,-0.14512,-0.38002,0.04329,,,,,,,,,,,,,,,,,,,,,,,,,,0,0,0,0,0
4.1419,1783012245.0170,1,1,1.0000,0.0000,1.44681,0.22078,-2.78065,0.98904,1.57080,0.00001,-0.14512,-0.38002,0.04329,,,,,,,,,,,,,,,,,,,,,,,,,,0,0,0,0,0
4.1423,1783012245.0174,1,1,1.0000,0.0000,1.44681,0.22078,-2.78065,0.98904,1.57080,0.00001,-0.14512,-0.38002,0.04329,,,,,,,,,,,,,,,,,,,,,,,,,,0,0,0,0,0
4.1568,1783012245.0318,1,1,1.0000,0.0000,1.44681,0.22072,-2.78066,0.98911,1.57080,0.00001,-0.14512,-0.38002,0.04327,,,,,,,,,,,,,,,,,,,,,,,,,,0,0,0,0,0
4.1600,1783012245.0351,1,1,1.0000,0.0000,1.44681,0.22072,-2.78066,0.98911,1.57080,0.00001,-0.14512,-0.38002,0.04327,,,,,,,,,,,,,,,,,,,,,,,,,,0,0,0,0,0
4.1686,1783012245.0437,1,1,1.0000,0.0000,1.44681,0.22064,-2.78068,0.98921,1.57080,0.00001,-0.14512,-0.38002,0.04325,,,,,,,,,,,,,,,,,,,,,,,,,,0,0,0,0,0
4.1737,1783012245.0488,1,1,1.0000,0.0000,1.44681,0.22064,-2.78068,0.98921,1.57080,0.00001,-0.14512,-0.38002,0.04325,,,,,,,,,,,,,,,,,,,,,,,,,,0,0,0,0,0
4.1866,1783012245.0617,1,1,1.0000,0.0000,1.44681,0.22061,-2.78069,0.98924,1.57080,0.00001,-0.14512,-0.38002,0.04324,,,,,,,,,,,,,,,,,,,,,,,,,,0,0,0,0,0
4.1972,1783012245.0723,1,1,1.0000,0.0000,1.44681,0.22055,-2.78070,0.98932,1.57080,0.00001,-0.14512,-0.38002,0.04323,,,,,,,,,,,,,,,,,,,,,,,,,,0,0,0,0,0
4.2069,1783012245.0820,1,1,1.0000,0.0000,1.44681,0.22055,-2.78071,0.98932,1.57080,0.00001,-0.14512,-0.38002,0.04323,,,,,,,,,,,,,,,,,,,,,,,,,,0,0,0,0,0
4.2262,1783012245.1012,1,1,1.0000,0.0000,1.44681,0.22044,-2.78073,0.98946,1.57080,0.00001,-0.14512,-0.38002,0.04320,,,,,,,,,,,,,,,,,,,,,,,,,,0,0,0,0,0
4.2266,1783012245.1017,1,1,1.0000,0.0000,1.44681,0.22044,-2.78073,0.98946,1.57080,0.00001,-0.14512,-0.38002,0.04320,,,,,,,,,,,,,,,,,,,,,,,,,,0,0,0,0,0
4.2399,1783012245.1150,1,1,1.0000,0.0000,1.44681,0.22041,-2.78074,0.98950,1.57080,0.00001,-0.14512,-0.38002,0.04319,,,,,,,,,,,,,,,,,,,,,,,,,,0,0,0,0,0
4.2555,1783012245.1306,1,1,1.0000,0.0000,1.44681,0.22035,-2.78076,0.98957,1.57080,0.00001,-0.14512,-0.38002,0.04318,,,,,,,,,,,,,,,,,,,,,,,,,,0,0,0,0,0
4.2574,1783012245.1325,1,1,1.0000,0.0000,1.44681,0.22033,-2.78076,0.98960,1.57080,0.00001,-0.14512,-0.38002,0.04317,,,,,,,,,,,,,,,,,,,,,,,,,,0,0,0,0,0
4.2639,1783012245.1390,1,1,1.0000,0.0000,1.44681,0.22033,-2.78076,0.98960,1.57080,0.00001,-0.14512,-0.38002,0.04317,,,,,,,,,,,,,,,,,,,,,,,,,,0,0,0,0,0
4.2744,1783012245.1495,1,1,1.0000,0.0000,1.44681,0.22029,-2.78077,0.98965,1.57080,0.00001,-0.14512,-0.38002,0.04316,,,,,,,,,,,,,,,,,,,,,,,,,,0,0,0,0,0
4.2837,1783012245.1588,1,1,1.0000,0.0000,1.44681,0.22024,-2.78078,0.98971,1.57080,0.00001,-0.14512,-0.38002,0.04315,,,,,,,,,,,,,,,,,,,,,,,,,,0,0,0,0,0
4.2935,1783012245.1686,1,1,1.0000,0.0000,1.44681,0.22019,-2.78080,0.98978,1.57080,0.00001,-0.14512,-0.38002,0.04313,,,,,,,,,,,,,,,,,,,,,,,,,,0,0,0,0,0
4.3088,1783012245.1838,1,1,1.0000,0.0000,1.44681,0.22014,-2.78081,0.98983,1.57080,0.00001,-0.14512,-0.38002,0.04312,,,,,,,,,,,,,,,,,,,,,,,,,,0,0,0,0,0
4.3205,1783012245.1955,1,1,1.0000,0.0000,1.44681,0.22010,-2.78082,0.98988,1.57080,0.00001,-0.14512,-0.38002,0.04311,,,,,,,,,,,,,,,,,,,,,,,,,,0,0,0,0,0
4.3295,1783012245.2046,1,1,1.0000,0.0000,1.44681,0.22008,-2.78082,0.98991,1.57080,0.00001,-0.14512,-0.38002,0.04311,,,,,,,,,,,,,,,,,,,,,,,,,,0,0,0,0,0
4.3298,1783012245.2048,1,1,1.0000,0.0000,1.44681,0.22008,-2.78082,0.98991,1.57080,0.00001,-0.14512,-0.38002,0.04311,,,,,,,,,,,,,,,,,,,,,,,,,,0,0,0,0,0
4.3354,1783012245.2105,1,1,1.0000,0.0000,1.44681,0.22006,-2.78083,0.98993,1.57080,0.00001,-0.14512,-0.38002,0.04310,,,,,,,,,,,,,,,,,,,,,,,,,,0,0,0,0,0
4.3475,1783012245.2226,1,1,1.0000,0.0000,1.44681,0.21999,-2.78085,0.99003,1.57080,0.00001,-0.14512,-0.38002,0.04308,,,,,,,,,,,,,,,,,,,,,,,,,,0,0,0,0,0
4.3578,1783012245.2329,1,1,1.0000,0.0000,1.44681,0.21996,-2.78085,0.99006,1.57080,0.00001,-0.14512,-0.38002,0.04307,,,,,,,,,,,,,,,,,,,,,,,,,,0,0,0,0,0
4.3728,1783012245.2479,1,1,1.0000,0.0000,1.44681,0.21988,-2.78087,0.99016,1.57080,0.00001,-0.14512,-0.38002,0.04305,,,,,,,,,,,,,,,,,,,,,,,,,,0,0,0,0,0
4.3732,1783012245.2482,1,1,1.0000,0.0000,1.44681,0.21988,-2.78087,0.99016,1.57080,0.00001,-0.14512,-0.38002,0.04305,,,,,,,,,,,,,,,,,,,,,,,,,,0,0,0,0,0
4.3777,1783012245.2528,1,1,1.0000,0.0000,1.44681,0.21985,-2.78088,0.99020,1.57080,0.00001,-0.14512,-0.38002,0.04305,,,,,,,,,,,,,,,,,,,,,,,,,,0,0,0,0,0
4.3929,1783012245.2680,1,1,1.0000,0.0000,1.44681,0.21981,-2.78089,0.99024,1.57080,0.00001,-0.14512,-0.38002,0.04304,,,,,,,,,,,,,,,,,,,,,,,,,,0,0,0,0,0
4.3997,1783012245.2748,1,1,1.0000,0.0000,1.44681,0.21979,-2.78089,0.99027,1.57080,0.00001,-0.14512,-0.38002,0.04303,,,,,,,,,,,,,,,,,,,,,,,,,,0,0,0,0,0
4.4120,1783012245.2870,1,1,1.0000,0.0000,1.44681,0.21971,-2.78091,0.99037,1.57080,0.00001,-0.14512,-0.38002,0.04301,,,,,,,,,,,,,,,,,,,,,,,,,,0,0,0,0,0
4.4290,1783012245.3041,1,1,1.0000,0.0000,1.44681,0.21965,-2.78093,0.99044,1.57080,0.00001,-0.14512,-0.38002,0.04300,,,,,,,,,,,,,,,,,,,,,,,,,,0,0,0,0,0
4.4297,1783012245.3048,1,1,1.0000,0.0000,1.44681,0.21965,-2.78093,0.99044,1.57080,0.00001,-0.14512,-0.38002,0.04300,,,,,,,,,,,,,,,,,,,,,,,,,,0,0,0,0,0
4.4299,1783012245.3050,1,1,1.0000,0.0000,1.44681,0.21965,-2.78093,0.99044,1.57080,0.00001,-0.14512,-0.38002,0.04300,,,,,,,,,,,,,,,,,,,,,,,,,,0,0,0,0,0
4.4376,1783012245.3126,1,1,1.0000,0.0000,1.44681,0.21960,-2.78094,0.99051,1.57080,0.00001,-0.14512,-0.38002,0.04298,,,,,,,,,,,,,,,,,,,,,,,,,,0,0,0,0,0
4.4379,1783012245.3130,1,1,1.0000,0.0000,1.44681,0.21960,-2.78094,0.99051,1.57080,0.00001,-0.14512,-0.38002,0.04298,,,,,,,,,,,,,,,,,,,,,,,,,,0,0,0,0,0
4.4599,1783012245.3350,1,1,1.0000,0.0000,1.44681,0.21954,-2.78096,0.99058,1.57080,0.00001,-0.14512,-0.38002,0.04297,,,,,,,,,,,,,,,,,,,,,,,,,,0,0,0,0,0
4.4603,1783012245.3353,1,1,1.0000,0.0000,1.44681,0.21954,-2.78096,0.99058,1.57080,0.00001,-0.14512,-0.38002,0.04297,,,,,,,,,,,,,,,,,,,,,,,,,,0,0,0,0,0
4.4610,1783012245.3360,1,1,1.0000,0.0000,1.44681,0.21952,-2.78096,0.99061,1.57080,0.00001,-0.14512,-0.38002,0.04296,,,,,,,,,,,,,,,,,,,,,,,,,,0,0,0,0,0
4.4612,1783012245.3363,1,1,1.0000,0.0000,1.44681,0.21952,-2.78096,0.99061,1.57080,0.00001,-0.14512,-0.38002,0.04296,,,,,,,,,,,,,,,,,,,,,,,,,,0,0,0,0,0
4.4677,1783012245.3428,1,1,1.0000,0.0000,1.44681,0.21949,-2.78097,0.99064,1.57080,0.00001,-0.14512,-0.38002,0.04296,,,,,,,,,,,,,,,,,,,,,,,,,,0,0,0,0,0
4.4796,1783012245.3546,1,1,1.0000,0.0000,1.44681,0.21946,-2.78098,0.99068,1.57080,0.00001,-0.14512,-0.38002,0.04295,,,,,,,,,,,,,,,,,,,,,,,,,,0,0,0,0,0
4.4879,1783012245.3630,1,1,1.0000,0.0000,1.44681,0.21943,-2.78098,0.99072,1.57080,0.00001,-0.14512,-0.38002,0.04294,,,,,,,,,,,,,,,,,,,,,,,,,,0,0,0,0,0
4.4976,1783012245.3727,1,1,1.0000,0.0000,1.44681,0.21935,-2.78100,0.99081,1.57080,0.00001,-0.14512,-0.38002,0.04292,,,,,,,,,,,,,,,,,,,,,,,,,,0,0,0,0,0
4.4980,1783012245.3731,1,1,1.0000,0.0000,1.44681,0.21935,-2.78100,0.99081,1.57080,0.00001,-0.14512,-0.38002,0.04292,,,,,,,,,,,,,,,,,,,,,,,,,,0,0,0,0,0
4.5112,1783012245.3863,1,1,1.0000,0.0000,1.44681,0.21934,-2.78101,0.99084,1.57080,0.00001,-0.14512,-0.38002,0.04292,,,,,,,,,,,,,,,,,,,,,,,,,,0,0,0,0,0
4.5371,1783012245.4121,1,1,1.0000,0.0000,1.44681,0.21921,-2.78104,0.99099,1.57080,0.00001,-0.14512,-0.38002,0.04288,,,,,,,,,,,,,,,,,,,,,,,,,,0,0,0,0,0
4.5401,1783012245.4152,1,1,1.0000,0.0000,1.44681,0.21921,-2.78104,0.99099,1.57080,0.00001,-0.14512,-0.38002,0.04288,,,,,,,,,,,,,,,,,,,,,,,,,,0,0,0,0,0
4.5407,1783012245.4157,1,1,1.0000,0.0000,1.44681,0.21920,-2.78104,0.99101,1.57080,0.00001,-0.14512,-0.38002,0.04288,,,,,,,,,,,,,,,,,,,,,,,,,,0,0,0,0,0
4.5875,1783012245.4626,1,1,1.0000,0.0000,1.44681,0.21902,-2.78109,0.99124,1.57080,0.00001,-0.14512,-0.38002,0.04283,,,,,,,,,,,,,,,,,,,,,,,,,,0,0,0,0,0
4.5883,1783012245.4633,1,1,1.0000,0.0000,1.44681,0.21902,-2.78109,0.99124,1.57080,0.00001,-0.14512,-0.38002,0.04283,,,,,,,,,,,,,,,,,,,,,,,,,,0,0,0,0,0
4.5887,1783012245.4638,1,1,1.0000,0.0000,1.44681,0.21899,-2.78109,0.99126,1.57080,0.00001,-0.14512,-0.38002,0.04283,,,,,,,,,,,,,,,,,,,,,,,,,,0,0,0,0,0
4.5889,1783012245.4640,1,1,1.0000,0.0000,1.44681,0.21899,-2.78109,0.99126,1.57080,0.00001,-0.14512,-0.38002,0.04283,,,,,,,,,,,,,,,,,,,,,,,,,,0,0,0,0,0
4.6009,1783012245.4760,1,1,1.0000,0.0000,1.44681,0.21898,-2.78110,0.99129,1.57080,0.00001,-0.14512,-0.38002,0.04282,,,,,,,,,,,,,,,,,,,,,,,,,,0,0,0,0,0
4.6116,1783012245.4867,1,1,1.0000,0.0000,1.44681,0.21893,-2.78111,0.99134,1.57080,0.00001,-0.14512,-0.38002,0.04281,,,,,,,,,,,,,,,,,,,,,,,,,,0,0,0,0,0
4.6119,1783012245.4870,1,1,1.0000,0.0000,1.44681,0.21893,-2.78111,0.99134,1.57080,0.00001,-0.14512,-0.38002,0.04281,,,,,,,,,,,,,,,,,,,,,,,,,,0,0,0,0,0
4.6174,1783012245.4925,1,1,1.0000,0.0000,1.44681,0.21888,-2.78112,0.99141,1.57080,0.00001,-0.14512,-0.38002,0.04280,,,,,,,,,,,,,,,,,,,,,,,,,,0,0,0,0,0
4.6355,1783012245.5105,1,1,1.0000,0.0000,1.44681,0.21884,-2.78113,0.99145,1.57080,0.00001,-0.14512,-0.38002,0.04279,,,,,,,,,,,,,,,,,,,,,,,,,,0,0,0,0,0
4.6375,1783012245.5126,1,1,1.0000,0.0000,1.44681,0.21883,-2.78113,0.99147,1.57080,0.00001,-0.14512,-0.38002,0.04279,,,,,,,,,,,,,,,,,,,,,,,,,,0,0,0,0,0
4.6495,1783012245.5245,1,1,1.0000,0.0000,1.44681,0.21877,-2.78115,0.99155,1.57080,0.00001,-0.14512,-0.38002,0.04277,,,,,,,,,,,,,,,,,,,,,,,,,,0,0,0,0,0
4.6631,1783012245.5382,1,1,1.0000,0.0000,1.44681,0.21875,-2.78115,0.99157,1.57080,0.00001,-0.14512,-0.38002,0.04277,,,,,,,,,,,,,,,,,,,,,,,,,,0,0,0,0,0
4.6635,1783012245.5385,1,1,1.0000,0.0000,1.44681,0.21875,-2.78115,0.99157,1.57080,0.00001,-0.14512,-0.38002,0.04277,,,,,,,,,,,,,,,,,,,,,,,,,,0,0,0,0,0
4.6687,1783012245.5438,1,1,1.0000,0.0000,1.44681,0.21871,-2.78116,0.99162,1.57080,0.00001,-0.14512,-0.38002,0.04275,,,,,,,,,,,,,,,,,,,,,,,,,,0,0,0,0,0
4.6811,1783012245.5562,1,1,1.0000,0.0000,1.44681,0.21863,-2.78118,0.99172,1.57080,0.00001,-0.14512,-0.38002,0.04273,,,,,,,,,,,,,,,,,,,,,,,,,,0,0,0,0,0
4.6873,1783012245.5623,1,1,1.0000,0.0000,1.44681,0.21863,-2.78118,0.99172,1.57080,0.00001,-0.14512,-0.38002,0.04273,,,,,,,,,,,,,,,,,,,,,,,,,,0,0,0,0,0
4.6876,1783012245.5627,1,1,1.0000,0.0000,1.44681,0.21863,-2.78118,0.99172,1.57080,0.00001,-0.14512,-0.38002,0.04273,,,,,,,,,,,,,,,,,,,,,,,,,,0,0,0,0,0
4.6998,1783012245.5749,1,1,1.0000,0.0000,1.44681,0.21860,-2.78119,0.99175,1.57080,0.00001,-0.14512,-0.38002,0.04273,,,,,,,,,,,,,,,,,,,,,,,,,,0,0,0,0,0
4.7097,1783012245.5848,1,1,1.0000,0.0000,1.44681,0.21854,-2.78120,0.99183,1.57080,0.00001,-0.14512,-0.38002,0.04271,,,,,,,,,,,,,,,,,,,,,,,,,,0,0,0,0,0
4.7193,1783012245.5943,1,1,1.0000,0.0000,1.44681,0.21854,-2.78120,0.99184,1.57080,0.00001,-0.14512,-0.38002,0.04271,,,,,,,,,,,,,,,,,,,,,,,,,,0,0,0,0,0
4.7196,1783012245.5946,1,1,1.0000,0.0000,1.44681,0.21854,-2.78120,0.99184,1.57080,0.00001,-0.14512,-0.38002,0.04271,,,,,,,,,,,,,,,,,,,,,,,,,,0,0,0,0,0
4.7278,1783012245.6029,1,1,1.0000,0.0000,1.44681,0.21850,-2.78121,0.99188,1.57080,0.00001,-0.14512,-0.38002,0.04270,,,,,,,,,,,,,,,,,,,,,,,,,,0,0,0,0,0
4.7282,1783012245.6032,1,1,1.0000,0.0000,1.44681,0.21850,-2.78121,0.99188,1.57080,0.00001,-0.14512,-0.38002,0.04270,,,,,,,,,,,,,,,,,,,,,,,,,,0,0,0,0,0
4.7410,1783012245.6161,1,1,1.0000,0.0000,1.44681,0.21840,-2.78124,0.99201,1.57080,0.00001,-0.14512,-0.38002,0.04268,,,,,,,,,,,,,,,,,,,,,,,,,,0,0,0,0,0
4.7489,1783012245.6239,1,1,1.0000,0.0000,1.44681,0.21840,-2.78124,0.99201,1.57080,0.00001,-0.14512,-0.38002,0.04268,,,,,,,,,,,,,,,,,,,,,,,,,,0,0,0,0,0
4.7687,1783012245.6438,1,1,1.0000,0.0000,1.44681,0.21831,-2.78126,0.99211,1.57080,0.00001,-0.14512,-0.38002,0.04265,,,,,,,,,,,,,,,,,,,,,,,,,,0,0,0,0,0
4.7708,1783012245.6459,1,1,1.0000,0.0000,1.44681,0.21831,-2.78126,0.99211,1.57080,0.00001,-0.14512,-0.38002,0.04265,,,,,,,,,,,,,,,,,,,,,,,,,,0,0,0,0,0
4.7712,1783012245.6462,1,1,1.0000,0.0000,1.44681,0.21831,-2.78126,0.99211,1.57080,0.00001,-0.14512,-0.38002,0.04265,,,,,,,,,,,,,,,,,,,,,,,,,,0,0,0,0,0
4.7889,1783012245.6640,1,1,1.0000,0.0000,1.44681,0.21825,-2.78127,0.99219,1.57080,0.00001,-0.14512,-0.38002,0.04264,,,,,,,,,,,,,,,,,,,,,,,,,,0,0,0,0,0
4.7896,1783012245.6646,1,1,1.0000,0.0000,1.44681,0.21825,-2.78127,0.99219,1.57080,0.00001,-0.14512,-0.38002,0.04264,,,,,,,,,,,,,,,,,,,,,,,,,,0,0,0,0,0
4.7990,1783012245.6740,1,1,1.0000,0.0000,1.44681,0.21820,-2.78129,0.99226,1.57080,0.00001,-0.14512,-0.38002,0.04262,,,,,,,,,,,,,,,,,,,,,,,,,,0,0,0,0,0
4.8098,1783012245.6849,1,1,1.0000,0.0000,1.44681,0.21817,-2.78130,0.99229,1.57080,0.00001,-0.14512,-0.38002,0.04262,,,,,,,,,,,,,,,,,,,,,,,,,,0,0,0,0,0
4.8208,1783012245.6959,1,1,1.0000,0.0000,1.44681,0.21813,-2.78131,0.99234,1.57080,0.00001,-0.14512,-0.38002,0.04261,,,,,,,,,,,,,,,,,,,,,,,,,,0,0,0,0,0
4.8315,1783012245.7066,1,1,1.0000,0.0000,1.44681,0.21809,-2.78132,0.99240,1.57080,0.00001,-0.14512,-0.38002,0.04260,,,,,,,,,,,,,,,,,,,,,,,,,,0,0,0,0,0
4.8374,1783012245.7124,1,1,1.0000,0.0000,1.44681,0.21808,-2.78132,0.99240,1.57080,0.00001,-0.14512,-0.38002,0.04259,,,,,,,,,,,,,,,,,,,,,,,,,,0,0,0,0,0
4.8514,1783012245.7265,1,1,1.0000,0.0000,1.44681,0.21803,-2.78133,0.99247,1.57080,0.00001,-0.14512,-0.38002,0.04258,,,,,,,,,,,,,,,,,,,,,,,,,,0,0,0,0,0
4.8692,1783012245.7443,1,1,1.0000,0.0000,1.44681,0.21794,-2.78135,0.99258,1.57080,0.00001,-0.14512,-0.38002,0.04256,,,,,,,,,,,,,,,,,,,,,,,,,,0,0,0,0,0
4.8748,1783012245.7498,1,1,1.0000,0.0000,1.44681,0.21793,-2.78135,0.99259,1.57080,0.00001,-0.14512,-0.38002,0.04256,,,,,,,,,,,,,,,,,,,,,,,,,,0,0,0,0,0
4.8751,1783012245.7502,1,1,1.0000,0.0000,1.44681,0.21793,-2.78135,0.99259,1.57080,0.00001,-0.14512,-0.38002,0.04256,,,,,,,,,,,,,,,,,,,,,,,,,,0,0,0,0,0
4.8787,1783012245.7538,1,1,1.0000,0.0000,1.44681,0.21792,-2.78136,0.99260,1.57080,0.00001,-0.14512,-0.38002,0.04255,,,,,,,,,,,,,,,,,,,,,,,,,,0,0,0,0,0
4.8791,1783012245.7542,1,1,1.0000,0.0000,1.44681,0.21792,-2.78136,0.99260,1.57080,0.00001,-0.14512,-0.38002,0.04255,,,,,,,,,,,,,,,,,,,,,,,,,,0,0,0,0,0
4.8891,1783012245.7642,1,1,1.0000,0.0000,1.44681,0.21786,-2.78137,0.99268,1.57080,0.00001,-0.14512,-0.38002,0.04254,,,,,,,,,,,,,,,,,,,,,,,,,,0,0,0,0,0
4.8895,1783012245.7646,1,1,1.0000,0.0000,1.44681,0.21786,-2.78137,0.99268,1.57080,0.00001,-0.14512,-0.38002,0.04254,,,,,,,,,,,,,,,,,,,,,,,,,,0,0,0,0,0
4.8976,1783012245.7726,1,1,1.0000,0.0000,1.44681,0.21785,-2.78137,0.99269,1.57080,0.00001,-0.14512,-0.38002,0.04254,,,,,,,,,,,,,,,,,,,,,,,,,,0,0,0,0,0
4.9132,1783012245.7882,1,1,1.0000,0.0000,1.44681,0.21777,-2.78139,0.99279,1.57080,0.00001,-0.14512,-0.38002,0.04252,,,,,,,,,,,,,,,,,,,,,,,,,,0,0,0,0,0
4.9177,1783012245.7928,1,1,1.0000,0.0000,1.44681,0.21774,-2.78140,0.99282,1.57080,0.00001,-0.14512,-0.38002,0.04251,,,,,,,,,,,,,,,,,,,,,,,,,,0,0,0,0,0
4.9296,1783012245.8047,1,1,1.0000,0.0000,1.44681,0.21771,-2.78141,0.99286,1.57080,0.00001,-0.14512,-0.38002,0.04250,,,,,,,,,,,,,,,,,,,,,,,,,,0,0,0,0,0
4.9299,1783012245.8049,1,1,1.0000,0.0000,1.44681,0.21771,-2.78141,0.99286,1.57080,0.00001,-0.14512,-0.38002,0.04250,,,,,,,,,,,,,,,,,,,,,,,,,,0,0,0,0,0
4.9414,1783012245.8165,1,1,1.0000,0.0000,1.44681,0.21767,-2.78142,0.99291,1.57080,0.00001,-0.14512,-0.38002,0.04249,,,,,,,,,,,,,,,,,,,,,,,,,,0,0,0,0,0
4.9418,1783012245.8168,1,1,1.0000,0.0000,1.44681,0.21767,-2.78142,0.99291,1.57080,0.00001,-0.14512,-0.38002,0.04249,,,,,,,,,,,,,,,,,,,,,,,,,,0,0,0,0,0
4.9477,1783012245.8228,1,1,1.0000,0.0000,1.44681,0.21765,-2.78142,0.99294,1.57080,0.00001,-0.14512,-0.38002,0.04249,,,,,,,,,,,,,,,,,,,,,,,,,,0,0,0,0,0
4.9597,1783012245.8348,1,1,1.0000,0.0000,1.44681,0.21763,-2.78143,0.99297,1.57080,0.00001,-0.14512,-0.38002,0.04248,,,,,,,,,,,,,,,,,,,,,,,,,,0,0,0,0,0
4.9705,1783012245.8456,1,1,1.0000,0.0000,1.44681,0.21757,-2.78144,0.99304,1.57080,0.00001,-0.14512,-0.38002,0.04246,,,,,,,,,,,,,,,,,,,,,,,,,,0,0,0,0,0
4.9793,1783012245.8544,1,1,1.0000,0.0000,1.44681,0.21752,-2.78146,0.99311,1.57080,0.00001,-0.14512,-0.38002,0.04245,,,,,,,,,,,,,,,,,,,,,,,,,,0,0,0,0,0
4.9890,1783012245.8641,1,1,1.0000,0.0000,1.44681,0.21749,-2.78146,0.99314,1.57080,0.00001,-0.14512,-0.38002,0.04244,,,,,,,,,,,,,,,,,,,,,,,,,,0,0,0,0,0
4.9894,1783012245.8645,1,1,1.0000,0.0000,1.44681,0.21749,-2.78146,0.99314,1.57080,0.00001,-0.14512,-0.38002,0.04244,,,,,,,,,,,,,,,,,,,,,,,,,,0,0,0,0,0
5.0008,1783012245.8759,1,1,1.0000,0.0000,1.44681,0.21745,-2.78147,0.99319,1.57080,0.00001,-0.14512,-0.38002,0.04243,,,,,,,,,,,,,,,,,,,,,,,,,,0,0,0,0,0
5.0200,1783012245.8950,1,1,1.0000,0.0000,1.44681,0.21740,-2.78149,0.99325,1.57080,0.00001,-0.14512,-0.38002,0.04242,,,,,,,,,,,,,,,,,,,,,,,,,,0,0,0,0,0
5.0203,1783012245.8954,1,1,1.0000,0.0000,1.44681,0.21740,-2.78149,0.99325,1.57080,0.00001,-0.14512,-0.38002,0.04242,,,,,,,,,,,,,,,,,,,,,,,,,,0,0,0,0,0
5.0292,1783012245.9043,1,1,1.0000,0.0000,1.44681,0.21734,-2.78150,0.99332,1.57080,0.00001,-0.14512,-0.38002,0.04241,,,,,,,,,,,,,,,,,,,,,,,,,,0,0,0,0,0
5.0394,1783012245.9145,1,1,1.0000,0.0000,1.44681,0.21729,-2.78151,0.99339,1.57080,0.00001,-0.14512,-0.38002,0.04239,,,,,,,,,,,,,,,,,,,,,,,,,,0,0,0,0,0
5.0484,1783012245.9234,1,1,1.0000,0.0000,1.44681,0.21726,-2.78152,0.99342,1.57080,0.00001,-0.14512,-0.38002,0.04239,,,,,,,,,,,,,,,,,,,,,,,,,,0,0,0,0,0
5.0759,1783012245.9509,1,1,1.0000,0.0000,1.44681,0.21715,-2.78155,0.99356,1.57080,0.00001,-0.14512,-0.38002,0.04236,,,,,,,,,,,,,,,,,,,,,,,,,,0,0,0,0,0
5.0993,1783012245.9744,1,1,1.0000,0.0000,1.44681,0.21704,-2.78157,0.99370,1.57080,0.00001,-0.14512,-0.38002,0.04233,,,,,,,,,,,,,,,,,,,,,,,,,,0,0,0,0,0
5.0999,1783012245.9750,1,1,1.0000,0.0000,1.44681,0.21704,-2.78157,0.99370,1.57080,0.00001,-0.14512,-0.38002,0.04233,,,,,,,,,,,,,,,,,,,,,,,,,,0,0,0,0,0
5.1002,1783012245.9753,1,1,1.0000,0.0000,1.44681,0.21704,-2.78157,0.99370,1.57080,0.00001,-0.14512,-0.38002,0.04233,,,,,,,,,,,,,,,,,,,,,,,,,,0,0,0,0,0
5.1026,1783012245.9777,1,1,1.0000,0.0000,1.44681,0.21702,-2.78158,0.99373,1.57080,0.00001,-0.14512,-0.38002,0.04232,,,,,,,,,,,,,,,,,,,,,,,,,,0,0,0,0,0
5.1031,1783012245.9781,1,1,1.0000,0.0000,1.44681,0.21702,-2.78158,0.99373,1.57080,0.00001,-0.14512,-0.38002,0.04232,,,,,,,,,,,,,,,,,,,,,,,,,,0,0,0,0,0
5.1033,1783012245.9784,1,1,1.0000,0.0000,1.44681,0.21702,-2.78158,0.99373,1.57080,0.00001,-0.14512,-0.38002,0.04232,,,,,,,,,,,,,,,,,,,,,,,,,,0,0,0,0,0
5.1546,1783012246.0296,1,1,1.0000,0.0000,1.44681,0.21682,-2.78163,0.99398,1.57080,0.00001,-0.14512,-0.38002,0.04227,,,,,,,,,,,,,,,,,,,,,,,,,,0,0,0,0,0
5.1550,1783012246.0301,1,1,1.0000,0.0000,1.44681,0.21682,-2.78163,0.99398,1.57080,0.00001,-0.14512,-0.38002,0.04227,,,,,,,,,,,,,,,,,,,,,,,,,,0,0,0,0,0
5.1554,1783012246.0305,1,1,1.0000,0.0000,1.44681,0.21682,-2.78163,0.99398,1.57080,0.00001,-0.14512,-0.38002,0.04227,,,,,,,,,,,,,,,,,,,,,,,,,,0,0,0,0,0
5.1557,1783012246.0307,1,1,1.0000,0.0000,1.44681,0.21682,-2.78163,0.99398,1.57080,0.00001,-0.14512,-0.38002,0.04227,,,,,,,,,,,,,,,,,,,,,,,,,,0,0,0,0,0
5.1560,1783012246.0311,1,1,1.0000,0.0000,1.44681,0.21682,-2.78163,0.99398,1.57080,0.00001,-0.14512,-0.38002,0.04227,,,,,,,,,,,,,,,,,,,,,,,,,,0,0,0,0,0
5.1575,1783012246.0326,1,1,1.0000,0.0000,1.44681,0.21679,-2.78163,0.99401,1.57080,0.00001,-0.14512,-0.38002,0.04227,,,,,,,,,,,,,,,,,,,,,,,,,,0,0,0,0,0
5.1732,1783012246.0482,1,1,1.0000,0.0000,1.44681,0.21675,-2.78165,0.99406,1.57080,0.00001,-0.14512,-0.38002,0.04225,,,,,,,,,,,,,,,,,,,,,,,,,,0,0,0,0,0
5.1735,1783012246.0486,1,1,1.0000,0.0000,1.44681,0.21675,-2.78165,0.99406,1.57080,0.00001,-0.14512,-0.38002,0.04225,,,,,,,,,,,,,,,,,,,,,,,,,,0,0,0,0,0
5.1802,1783012246.0553,1,1,1.0000,0.0000,1.44681,0.21673,-2.78165,0.99409,1.57080,0.00001,-0.14512,-0.38002,0.04225,,,,,,,,,,,,,,,,,,,,,,,,,,0,0,0,0,0
5.1879,1783012246.0629,1,1,1.0000,0.0000,1.44681,0.21668,-2.78166,0.99415,1.57080,0.00001,-0.14512,-0.38002,0.04224,,,,,,,,,,,,,,,,,,,,,,,,,,0,0,0,0,0
5.1978,1783012246.0729,1,1,1.0000,0.0000,1.44681,0.21665,-2.78167,0.99419,1.57080,0.00001,-0.14512,-0.38002,0.04223,,,,,,,,,,,,,,,,,,,,,,,,,,0,0,0,0,0
5.2083,1783012246.0833,1,1,1.0000,0.0000,1.44681,0.21662,-2.78168,0.99422,1.57080,0.00001,-0.14512,-0.38002,0.04222,,,,,,,,,,,,,,,,,,,,,,,,,,0,0,0,0,0
5.2183,1783012246.0933,1,1,1.0000,0.0000,1.44681,0.21654,-2.78170,0.99432,1.57080,0.00001,-0.14512,-0.38002,0.04220,,,,,,,,,,,,,,,,,,,,,,,,,,0,0,0,0,0
5.2312,1783012246.1063,1,1,1.0000,0.0000,1.44681,0.21651,-2.78170,0.99436,1.57080,0.00001,-0.14512,-0.38002,0.04219,,,,,,,,,,,,,,,,,,,,,,,,,,0,0,0,0,0
5.2387,1783012246.1137,1,1,1.0000,0.0000,1.44681,0.21648,-2.78171,0.99439,1.57080,0.00001,-0.14512,-0.38002,0.04219,,,,,,,,,,,,,,,,,,,,,,,,,,0,0,0,0,0
5.2476,1783012246.1227,1,1,1.0000,0.0000,1.44681,0.21643,-2.78172,0.99446,1.57080,0.00001,-0.14512,-0.38002,0.04217,,,,,,,,,,,,,,,,,,,,,,,,,,0,0,0,0,0
5.2581,1783012246.1332,1,1,1.0000,0.0000,1.44681,0.21640,-2.78173,0.99449,1.57080,0.00001,-0.14512,-0.38002,0.04217,,,,,,,,,,,,,,,,,,,,,,,,,,0,0,0,0,0
5.2781,1783012246.1532,1,1,1.0000,0.0000,1.44681,0.21630,-2.78176,0.99463,1.57080,0.00001,-0.14512,-0.38002,0.04214,,,,,,,,,,,,,,,,,,,,,,,,,,0,0,0,0,0
5.2784,1783012246.1535,1,1,1.0000,0.0000,1.44681,0.21630,-2.78176,0.99463,1.57080,0.00001,-0.14512,-0.38002,0.04214,,,,,,,,,,,,,,,,,,,,,,,,,,0,0,0,0,0
5.2799,1783012246.1550,1,1,1.0000,0.0000,1.44681,0.21630,-2.78176,0.99463,1.57080,0.00001,-0.14512,-0.38002,0.04214,,,,,,,,,,,,,,,,,,,,,,,,,,0,0,0,0,0
5.2801,1783012246.1552,1,1,1.0000,0.0000,1.44681,0.21630,-2.78176,0.99463,1.57080,0.00001,-0.14512,-0.38002,0.04214,,,,,,,,,,,,,,,,,,,,,,,,,,0,0,0,0,0
5.2899,1783012246.1650,1,1,1.0000,0.0000,1.44681,0.21627,-2.78176,0.99466,1.57080,0.00001,-0.14512,-0.38002,0.04213,,,,,,,,,,,,,,,,,,,,,,,,,,0,0,0,0,0
5.2999,1783012246.1750,1,1,1.0000,0.0000,1.44681,0.21623,-2.78177,0.99470,1.57080,0.00001,-0.14512,-0.38002,0.04212,,,,,,,,,,,,,,,,,,,,,,,,,,0,0,0,0,0
5.3093,1783012246.1844,1,1,1.0000,0.0000,1.44681,0.21616,-2.78179,0.99480,1.57080,0.00001,-0.14512,-0.38002,0.04210,,,,,,,,,,,,,,,,,,,,,,,,,,0,0,0,0,0
5.3177,1783012246.1928,1,1,1.0000,0.0000,1.44681,0.21615,-2.78179,0.99480,1.57080,0.00001,-0.14512,-0.38002,0.04210,,,,,,,,,,,,,,,,,,,,,,,,,,0,0,0,0,0
5.3282,1783012246.2033,1,1,1.0000,0.0000,1.44681,0.21612,-2.78180,0.99484,1.57080,0.00001,-0.14512,-0.38002,0.04209,,,,,,,,,,,,,,,,,,,,,,,,,,0,0,0,0,0
5.3289,1783012246.2040,1,1,1.0000,0.0000,1.44681,0.21610,-2.78181,0.99487,1.57080,0.00001,-0.14512,-0.38002,0.04209,,,,,,,,,,,,,,,,,,,,,,,,,,0,0,0,0,0
5.3421,1783012246.2171,1,1,1.0000,0.0000,1.44681,0.21602,-2.78182,0.99497,1.57080,0.00001,-0.14512,-0.38002,0.04207,,,,,,,,,,,,,,,,,,,,,,,,,,0,0,0,0,0
5.3490,1783012246.2240,1,1,1.0000,0.0000,1.44681,0.21602,-2.78183,0.99497,1.57080,0.00001,-0.14512,-0.38002,0.04207,,,,,,,,,,,,,,,,,,,,,,,,,,0,0,0,0,0
5.3577,1783012246.2328,1,1,1.0000,0.0000,1.44681,0.21599,-2.78183,0.99501,1.57080,0.00001,-0.14512,-0.38002,0.04206,,,,,,,,,,,,,,,,,,,,,,,,,,0,0,0,0,0
5.3680,1783012246.2431,1,1,1.0000,0.0000,1.44681,0.21594,-2.78185,0.99507,1.57080,0.00001,-0.14512,-0.38002,0.04205,,,,,,,,,,,,,,,,,,,,,,,,,,0,0,0,0,0
5.3829,1783012246.2580,1,1,1.0000,0.0000,1.44681,0.21589,-2.78186,0.99513,1.57080,0.00001,-0.14512,-0.38002,0.04204,,,,,,,,,,,,,,,,,,,,,,,,,,0,0,0,0,0
5.3932,1783012246.2683,1,1,1.0000,0.0000,1.44681,0.21583,-2.78187,0.99521,1.57080,0.00001,-0.14512,-0.38002,0.04202,,,,,,,,,,,,,,,,,,,,,,,,,,0,0,0,0,0
5.3934,1783012246.2685,1,1,1.0000,0.0000,1.44681,0.21583,-2.78187,0.99521,1.57080,0.00001,-0.14512,-0.38002,0.04202,,,,,,,,,,,,,,,,,,,,,,,,,,0,0,0,0,0
5.4023,1783012246.2774,1,1,1.0000,0.0000,1.44681,0.21577,-2.78189,0.99528,1.57080,0.00001,-0.14512,-0.38002,0.04200,,,,,,,,,,,,,,,,,,,,,,,,,,0,0,0,0,0
5.4116,1783012246.2867,1,1,1.0000,0.0000,1.44681,0.21577,-2.78189,0.99528,1.57080,0.00001,-0.14512,-0.38002,0.04200,,,,,,,,,,,,,,,,,,,,,,,,,,0,0,0,0,0
5.4834,1783012246.3585,1,1,1.0000,0.0000,1.44681,0.21547,-2.78196,0.99566,1.57080,0.00001,-0.14512,-0.38002,0.04193,,,,,,,,,,,,,,,,,,,,,,,,,,0,0,0,0,0
5.4837,1783012246.3587,1,1,1.0000,0.0000,1.44681,0.21547,-2.78196,0.99566,1.57080,0.00001,-0.14512,-0.38002,0.04193,,,,,,,,,,,,,,,,,,,,,,,,,,0,0,0,0,0
5.4840,1783012246.3590,1,1,1.0000,0.0000,1.44681,0.21547,-2.78196,0.99566,1.57080,0.00001,-0.14512,-0.38002,0.04193,,,,,,,,,,,,,,,,,,,,,,,,,,0,0,0,0,0
5.4843,1783012246.3593,1,1,1.0000,0.0000,1.44681,0.21547,-2.78196,0.99566,1.57080,0.00001,-0.14512,-0.38002,0.04193,,,,,,,,,,,,,,,,,,,,,,,,,,0,0,0,0,0
5.4848,1783012246.3599,1,1,1.0000,0.0000,1.44681,0.21544,-2.78197,0.99569,1.57080,0.00001,-0.14512,-0.38002,0.04192,,,,,,,,,,,,,,,,,,,,,,,,,,0,0,0,0,0
5.4957,1783012246.3708,1,1,1.0000,0.0000,1.44681,0.21539,-2.78198,0.99576,1.57080,0.00001,-0.14512,-0.38002,0.04191,,,,,,,,,,,,,,,,,,,,,,,,,,0,0,0,0,0
5.5036,1783012246.3787,1,1,1.0000,0.0000,1.44681,0.21538,-2.78198,0.99576,1.57080,0.00001,-0.14512,-0.38002,0.04191,,,,,,,,,,,,,,,,,,,,,,,,,,0,0,0,0,0
5.5119,1783012246.3869,1,1,1.0000,0.0000,1.44681,0.21536,-2.78199,0.99579,1.57080,0.00001,-0.14512,-0.38002,0.04190,,,,,,,,,,,,,,,,,,,,,,,,,,0,0,0,0,0
5.5297,1783012246.4048,1,1,1.0000,0.0000,1.44681,0.21530,-2.78200,0.99587,1.57080,0.00001,-0.14512,-0.38002,0.04188,,,,,,,,,,,,,,,,,,,,,,,,,,0,0,0,0,0
5.5311,1783012246.4062,1,1,1.0000,0.0000,1.44681,0.21529,-2.78200,0.99587,1.57080,0.00001,-0.14512,-0.38002,0.04188,,,,,,,,,,,,,,,,,,,,,,,,,,0,0,0,0,0
5.5338,1783012246.4088,1,1,1.0000,0.0000,1.44681,0.21528,-2.78201,0.99589,1.57080,0.00001,-0.14512,-0.38002,0.04188,,,,,,,,,,,,,,,,,,,,,,,,,,0,0,0,0,0
5.5441,1783012246.4192,1,1,1.0000,0.0000,1.44681,0.21524,-2.78202,0.99594,1.57080,0.00001,-0.14512,-0.38002,0.04187,,,,,,,,,,,,,,,,,,,,,,,,,,0,0,0,0,0
5.5526,1783012246.4277,1,1,1.0000,0.0000,1.44681,0.21518,-2.78203,0.99601,1.57080,0.00001,-0.14512,-0.38002,0.04185,,,,,,,,,,,,,,,,,,,,,,,,,,0,0,0,0,0
5.6886,1783012246.5637,1,1,1.0000,0.0000,1.44681,0.21467,-2.78216,0.99665,1.57080,0.00001,-0.14512,-0.38002,0.04172,,,,,,,,,,,,,,,,,,,,,,,,,,0,0,0,0,0
5.6891,1783012246.5642,1,1,1.0000,0.0000,1.44681,0.21467,-2.78216,0.99665,1.57080,0.00001,-0.14512,-0.38002,0.04172,,,,,,,,,,,,,,,,,,,,,,,,,,0,0,0,0,0
5.6901,1783012246.5652,1,1,1.0000,0.0000,1.44681,0.21466,-2.78216,0.99667,1.57080,0.00001,-0.14512,-0.38002,0.04172,,,,,,,,,,,,,,,,,,,,,,,,,,0,0,0,0,0
5.6904,1783012246.5655,1,1,1.0000,0.0000,1.44681,0.21466,-2.78216,0.99667,1.57080,0.00001,-0.14512,-0.38002,0.04172,,,,,,,,,,,,,,,,,,,,,,,,,,0,0,0,0,0
5.6909,1783012246.5660,1,1,1.0000,0.0000,1.44681,0.21466,-2.78216,0.99667,1.57080,0.00001,-0.14512,-0.38002,0.04172,,,,,,,,,,,,,,,,,,,,,,,,,,0,0,0,0,0
5.6913,1783012246.5663,1,1,1.0000,0.0000,1.44681,0.21466,-2.78216,0.99667,1.57080,0.00001,-0.14512,-0.38002,0.04172,,,,,,,,,,,,,,,,,,,,,,,,,,0,0,0,0,0
5.6916,1783012246.5667,1,1,1.0000,0.0000,1.44681,0.21466,-2.78216,0.99667,1.57080,0.00001,-0.14512,-0.38002,0.04172,,,,,,,,,,,,,,,,,,,,,,,,,,0,0,0,0,0
5.6922,1783012246.5673,1,1,1.0000,0.0000,1.44681,0.21466,-2.78216,0.99667,1.57080,0.00001,-0.14512,-0.38002,0.04172,,,,,,,,,,,,,,,,,,,,,,,,,,0,0,0,0,0
5.6926,1783012246.5676,1,1,1.0000,0.0000,1.44681,0.21466,-2.78216,0.99667,1.57080,0.00001,-0.14512,-0.38002,0.04172,,,,,,,,,,,,,,,,,,,,,,,,,,0,0,0,0,0
5.7018,1783012246.5769,1,1,1.0000,0.0000,1.44681,0.21459,-2.78217,0.99675,1.57080,0.00001,-0.14512,-0.38002,0.04170,,,,,,,,,,,,,,,,,,,,,,,,,,0,0,0,0,0
5.7778,1783012246.6529,1,1,1.0000,0.0000,1.44681,0.21433,-2.78224,0.99708,1.57080,0.00002,-0.14512,-0.38002,0.04164,,,,,,,,,,,,,,,,,,,,,,,,,,0,0,0,0,0
5.7780,1783012246.6531,1,1,1.0000,0.0000,1.44681,0.21433,-2.78224,0.99708,1.57080,0.00002,-0.14512,-0.38002,0.04164,,,,,,,,,,,,,,,,,,,,,,,,,,0,0,0,0,0
5.7786,1783012246.6536,1,1,1.0000,0.0000,1.44681,0.21433,-2.78224,0.99708,1.57080,0.00002,-0.14512,-0.38002,0.04164,,,,,,,,,,,,,,,,,,,,,,,,,,0,0,0,0,0
5.7790,1783012246.6541,1,1,1.0000,0.0000,1.44681,0.21433,-2.78224,0.99708,1.57080,0.00002,-0.14512,-0.38002,0.04164,,,,,,,,,,,,,,,,,,,,,,,,,,0,0,0,0,0
5.7796,1783012246.6547,1,1,1.0000,0.0000,1.44681,0.21433,-2.78224,0.99708,1.57080,0.00002,-0.14512,-0.38002,0.04164,,,,,,,,,,,,,,,,,,,,,,,,,,0,0,0,0,0
5.8154,1783012246.6905,1,1,1.0000,0.0000,1.44681,0.21418,-2.78228,0.99726,1.57080,0.00002,-0.14512,-0.38002,0.04160,,,,,,,,,,,,,,,,,,,,,,,,,,0,0,0,0,0
5.8158,1783012246.6909,1,1,1.0000,0.0000,1.44681,0.21418,-2.78228,0.99726,1.57080,0.00002,-0.14512,-0.38002,0.04160,,,,,,,,,,,,,,,,,,,,,,,,,,0,0,0,0,0
5.8163,1783012246.6914,1,1,1.0000,0.0000,1.44681,0.21418,-2.78228,0.99726,1.57080,0.00002,-0.14512,-0.38002,0.04160,,,,,,,,,,,,,,,,,,,,,,,,,,0,0,0,0,0
5.8233,1783012246.6983,1,1,1.0000,0.0000,1.44681,0.21414,-2.78229,0.99731,1.57080,0.00002,-0.14512,-0.38002,0.04159,,,,,,,,,,,,,,,,,,,,,,,,,,0,0,0,0,0
5.8330,1783012246.7081,1,1,1.0000,0.0000,1.44681,0.21413,-2.78229,0.99732,1.57080,0.00002,-0.14512,-0.38002,0.04159,,,,,,,,,,,,,,,,,,,,,,,,,,0,0,0,0,0
