Martins-Lucaas/twinforge/sensors/Data/20260704_145425__samples.csv
t_rel_s,t_unix,cycle,phase,setpoint_n,force_net_n,q1,q2,q3,q4,q5,q6,tcp_x,tcp_y,tcp_z,taxel_0,taxel_1,taxel_2,taxel_3,taxel_4,taxel_5,taxel_6,taxel_7,taxel_8,taxel_9,taxel_10,taxel_11,taxel_12,taxel_13,taxel_14,taxel_15,taxel_16,taxel_17,taxel_18,taxel_19,taxel_20,taxel_21,taxel_22,taxel_23,taxel_24,n_RA,n_SA,cn_mm,cn_ra,cn_sa
0.0058,1783187665.3177,1,0,1.0000,0.0000,1.44682,0.23328,-2.77748,0.97337,1.57080,-0.00000,-0.14512,-0.38003,0.04653,,,,,,,,,,,,,,,,,,,,,,,,,,0,0,0,0,0
0.0062,1783187665.3182,1,0,1.0000,0.0000,1.44682,0.23328,-2.77748,0.97337,1.57080,-0.00000,-0.14512,-0.38003,0.04653,,,,,,,,,,,,,,,,,,,,,,,,,,0,0,0,0,0
0.0065,1783187665.3185,1,0,1.0000,0.0000,1.44682,0.23328,-2.77748,0.97337,1.57080,-0.00000,-0.14512,-0.38003,0.04653,,,,,,,,,,,,,,,,,,,,,,,,,,0,0,0,0,0
0.0072,1783187665.3191,1,0,1.0000,0.0000,1.44682,0.23328,-2.77748,0.97337,1.57080,0.00000,-0.14512,-0.38003,0.04653,,,,,,,,,,,,,,,,,,,,,,,,,,0,0,0,0,0
0.0152,1783187665.3272,1,0,1.0000,0.0000,1.44682,0.23328,-2.77748,0.97337,1.57080,0.00000,-0.14512,-0.38003,0.04653,,,,,,,,,,,,,,,,,,,,,,,,,,0,0,0,0,0
0.0233,1783187665.3352,1,0,1.0000,0.0000,1.44682,0.23328,-2.77748,0.97337,1.57080,0.00000,-0.14512,-0.38003,0.04653,,,,,,,,,,,,,,,,,,,,,,,,,,0,0,0,0,0
0.0236,1783187665.3355,1,0,1.0000,0.0000,1.44682,0.23328,-2.77748,0.97337,1.57080,0.00000,-0.14512,-0.38003,0.04653,,,,,,,,,,,,,,,,,,,,,,,,,,0,0,0,0,0
0.0383,1783187665.3503,1,0,1.0000,0.0000,1.44682,0.23328,-2.77748,0.97337,1.57080,0.00000,-0.14512,-0.38003,0.04653,,,,,,,,,,,,,,,,,,,,,,,,,,0,0,0,0,0
0.0432,1783187665.3551,1,0,1.0000,0.0000,1.44682,0.23328,-2.77748,0.97337,1.57080,0.00000,-0.14512,-0.38003,0.04653,,,,,,,,,,,,,,,,,,,,,,,,,,0,0,0,0,0
0.0566,1783187665.3685,1,0,1.0000,0.0000,1.44682,0.23328,-2.77748,0.97337,1.57080,0.00000,-0.14512,-0.38003,0.04653,,,,,,,,,,,,,,,,,,,,,,,,,,0,0,0,0,0
0.0568,1783187665.3688,1,0,1.0000,0.0000,1.44682,0.23328,-2.77748,0.97337,1.57080,0.00000,-0.14512,-0.38003,0.04653,,,,,,,,,,,,,,,,,,,,,,,,,,0,0,0,0,0
0.0629,1783187665.3748,1,0,1.0000,0.0000,1.44682,0.23328,-2.77748,0.97337,1.57080,0.00000,-0.14512,-0.38003,0.04653,,,,,,,,,,,,,,,,,,,,,,,,,,0,0,0,0,0
0.0793,1783187665.3912,1,0,1.0000,0.0000,1.44682,0.23328,-2.77748,0.97337,1.57080,0.00000,-0.14512,-0.38003,0.04653,,,,,,,,,,,,,,,,,,,,,,,,,,0,0,0,0,0
0.0849,1783187665.3968,1,0,1.0000,0.0000,1.44682,0.23328,-2.77748,0.97337,1.57080,0.00000,-0.14512,-0.38003,0.04653,,,,,,,,,,,,,,,,,,,,,,,,,,0,0,0,0,0
0.0931,1783187665.4050,1,0,1.0000,0.0000,1.44682,0.23328,-2.77748,0.97337,1.57080,0.00000,-0.14512,-0.38003,0.04653,,,,,,,,,,,,,,,,,,,,,,,,,,0,0,0,0,0
0.1109,1783187665.4229,1,0,1.0000,0.0000,1.44682,0.23328,-2.77748,0.97337,1.57080,0.00000,-0.14512,-0.38003,0.04653,,,,,,,,,,,,,,,,,,,,,,,,,,0,0,0,0,0
0.1140,1783187665.4260,1,0,1.0000,0.0000,1.44682,0.23328,-2.77748,0.97337,1.57080,0.00000,-0.14512,-0.38003,0.04653,,,,,,,,,,,,,,,,,,,,,,,,,,0,0,0,0,0
0.1259,1783187665.4378,1,0,1.0000,0.0000,1.44682,0.23328,-2.77748,0.97337,1.57080,0.00000,-0.14512,-0.38003,0.04653,,,,,,,,,,,,,,,,,,,,,,,,,,0,0,0,0,0
0.1402,1783187665.4521,1,0,1.0000,0.0000,1.44682,0.23328,-2.77748,0.97337,1.57080,0.00000,-0.14512,-0.38003,0.04653,,,,,,,,,,,,,,,,,,,,,,,,,,0,0,0,0,0
0.1452,1783187665.4571,1,0,1.0000,0.0000,1.44682,0.23328,-2.77748,0.97337,1.57080,0.00000,-0.14512,-0.38003,0.04653,,,,,,,,,,,,,,,,,,,,,,,,,,0,0,0,0,0
0.1456,1783187665.4575,1,0,1.0000,0.0000,1.44682,0.23328,-2.77748,0.97337,1.57080,0.00000,-0.14512,-0.38003,0.04653,,,,,,,,,,,,,,,,,,,,,,,,,,0,0,0,0,0
0.1549,1783187665.4668,1,0,1.0000,0.0000,1.44682,0.23328,-2.77748,0.97337,1.57080,0.00000,-0.14512,-0.38003,0.04653,,,,,,,,,,,,,,,,,,,,,,,,,,0,0,0,0,0
0.1669,1783187665.4788,1,0,1.0000,0.0000,1.44682,0.23328,-2.77748,0.97337,1.57080,0.00000,-0.14512,-0.38003,0.04653,,,,,,,,,,,,,,,,,,,,,,,,,,0,0,0,0,0
0.1673,1783187665.4792,1,0,1.0000,0.0000,1.44682,0.23328,-2.77748,0.97337,1.57080,0.00000,-0.14512,-0.38003,0.04653,,,,,,,,,,,,,,,,,,,,,,,,,,0,0,0,0,0
0.1738,1783187665.4857,1,0,1.0000,0.0000,1.44682,0.23328,-2.77748,0.97337,1.57080,0.00000,-0.14512,-0.38003,0.04653,,,,,,,,,,,,,,,,,,,,,,,,,,0,0,0,0,0
0.1845,1783187665.4965,1,0,1.0000,0.0000,1.44682,0.23328,-2.77748,0.97337,1.57080,0.00000,-0.14512,-0.38003,0.04653,,,,,,,,,,,,,,,,,,,,,,,,,,0,0,0,0,0
0.1948,1783187665.5068,1,0,1.0000,0.0000,1.44682,0.23328,-2.77748,0.97337,1.57080,0.00000,-0.14512,-0.38003,0.04653,,,,,,,,,,,,,,,,,,,,,,,,,,0,0,0,0,0
0.2036,1783187665.5155,1,0,1.0000,0.0000,1.44682,0.23328,-2.77748,0.97337,1.57080,0.00000,-0.14512,-0.38003,0.04653,,,,,,,,,,,,,,,,,,,,,,,,,,0,0,0,0,0
0.2135,1783187665.5254,1,0,1.0000,0.0000,1.44682,0.23328,-2.77748,0.97337,1.57080,0.00000,-0.14512,-0.38003,0.04653,,,,,,,,,,,,,,,,,,,,,,,,,,0,0,0,0,0
0.2238,1783187665.5357,1,0,1.0000,0.0000,1.44682,0.23328,-2.77748,0.97337,1.57080,0.00000,-0.14512,-0.38003,0.04653,,,,,,,,,,,,,,,,,,,,,,,,,,0,0,0,0,0
0.2356,1783187665.5475,1,0,1.0000,0.0000,1.44682,0.23328,-2.77748,0.97337,1.57080,0.00000,-0.14512,-0.38003,0.04653,,,,,,,,,,,,,,,,,,,,,,,,,,0,0,0,0,0
0.2427,1783187665.5547,1,0,1.0000,0.0000,1.44682,0.23328,-2.77748,0.97337,1.57080,0.00000,-0.14512,-0.38003,0.04653,,,,,,,,,,,,,,,,,,,,,,,,,,0,0,0,0,0
0.2534,1783187665.5654,1,0,1.0000,0.0000,1.44682,0.23328,-2.77748,0.97337,1.57080,0.00000,-0.14512,-0.38003,0.04653,,,,,,,,,,,,,,,,,,,,,,,,,,0,0,0,0,0
0.2638,1783187665.5757,1,0,1.0000,0.0000,1.44682,0.23328,-2.77748,0.97337,1.57080,0.00000,-0.14512,-0.38003,0.04653,,,,,,,,,,,,,,,,,,,,,,,,,,0,0,0,0,0
0.2751,1783187665.5871,1,0,1.0000,0.0000,1.44682,0.23328,-2.77748,0.97337,1.57080,0.00000,-0.14512,-0.38003,0.04653,,,,,,,,,,,,,,,,,,,,,,,,,,0,0,0,0,0
0.2839,1783187665.5959,1,0,1.0000,0.0000,1.44682,0.23328,-2.77748,0.97337,1.57080,0.00000,-0.14512,-0.38003,0.04653,,,,,,,,,,,,,,,,,,,,,,,,,,0,0,0,0,0
0.2934,1783187665.6053,1,0,1.0000,0.0000,1.44682,0.23328,-2.77748,0.97337,1.57080,0.00000,-0.14512,-0.38003,0.04653,,,,,,,,,,,,,,,,,,,,,,,,,,0,0,0,0,0
0.3028,1783187665.6148,1,0,1.0000,0.0000,1.44682,0.23328,-2.77748,0.97337,1.57080,0.00000,-0.14512,-0.38003,0.04653,,,,,,,,,,,,,,,,,,,,,,,,,,0,0,0,0,0
0.3032,1783187665.6152,1,0,1.0000,0.0000,1.44682,0.23328,-2.77748,0.97337,1.57080,0.00000,-0.14512,-0.38003,0.04653,,,,,,,,,,,,,,,,,,,,,,,,,,0,0,0,0,0
0.3162,1783187665.6282,1,0,1.0000,0.0000,1.44682,0.23328,-2.77748,0.97337,1.57080,0.00000,-0.14512,-0.38003,0.04653,,,,,,,,,,,,,,,,,,,,,,,,,,0,0,0,0,0
0.3227,1783187665.6346,1,0,1.0000,0.0000,1.44682,0.23328,-2.77748,0.97337,1.57080,0.00000,-0.14512,-0.38003,0.04653,,,,,,,,,,,,,,,,,,,,,,,,,,0,0,0,0,0
0.3382,1783187665.6501,1,0,1.0000,0.0000,1.44682,0.23328,-2.77748,0.97337,1.57080,0.00000,-0.14512,-0.38003,0.04653,,,,,,,,,,,,,,,,,,,,,,,,,,0,0,0,0,0
0.3443,1783187665.6562,1,0,1.0000,0.0000,1.44682,0.23328,-2.77748,0.97337,1.57080,0.00000,-0.14512,-0.38003,0.04653,,,,,,,,,,,,,,,,,,,,,,,,,,0,0,0,0,0
0.3446,1783187665.6565,1,0,1.0000,0.0000,1.44682,0.23328,-2.77748,0.97337,1.57080,0.00000,-0.14512,-0.38003,0.04653,,,,,,,,,,,,,,,,,,,,,,,,,,0,0,0,0,0
0.3528,1783187665.6647,1,0,1.0000,0.0000,1.44682,0.23328,-2.77748,0.97337,1.57080,0.00000,-0.14512,-0.38003,0.04653,,,,,,,,,,,,,,,,,,,,,,,,,,0,0,0,0,0
0.3631,1783187665.6750,1,0,1.0000,0.0000,1.44682,0.23328,-2.77748,0.97337,1.57080,0.00000,-0.14512,-0.38003,0.04653,,,,,,,,,,,,,,,,,,,,,,,,,,0,0,0,0,0
0.3635,1783187665.6754,1,0,1.0000,0.0000,1.44682,0.23328,-2.77748,0.97337,1.57080,0.00000,-0.14512,-0.38003,0.04653,,,,,,,,,,,,,,,,,,,,,,,,,,0,0,0,0,0
0.3761,1783187665.6881,1,0,1.0000,0.0000,1.44682,0.23328,-2.77748,0.97337,1.57080,0.00000,-0.14512,-0.38003,0.04653,,,,,,,,,,,,,,,,,,,,,,,,,,0,0,0,0,0
0.3842,1783187665.6961,1,0,1.0000,0.0000,1.44682,0.23328,-2.77748,0.97337,1.57080,0.00000,-0.14512,-0.38003,0.04653,,,,,,,,,,,,,,,,,,,,,,,,,,0,0,0,0,0
0.3846,1783187665.6965,1,0,1.0000,0.0000,1.44682,0.23328,-2.77748,0.97337,1.57080,0.00000,-0.14512,-0.38003,0.04653,,,,,,,,,,,,,,,,,,,,,,,,,,0,0,0,0,0
0.3958,1783187665.7077,1,0,1.0000,0.0000,1.44682,0.23328,-2.77748,0.97337,1.57080,0.00000,-0.14512,-0.38003,0.04653,,,,,,,,,,,,,,,,,,,,,,,,,,0,0,0,0,0
0.4053,1783187665.7173,1,0,1.0000,0.0000,1.44682,0.23328,-2.77748,0.97337,1.57080,0.00000,-0.14512,-0.38003,0.04653,,,,,,,,,,,,,,,,,,,,,,,,,,0,0,0,0,0
0.4137,1783187665.7257,1,0,1.0000,0.0000,1.44682,0.23328,-2.77748,0.97337,1.57080,0.00000,-0.14512,-0.38003,0.04653,,,,,,,,,,,,,,,,,,,,,,,,,,0,0,0,0,0
0.4240,1783187665.7359,1,0,1.0000,0.0000,1.44682,0.23328,-2.77748,0.97337,1.57080,0.00000,-0.14512,-0.38003,0.04653,,,,,,,,,,,,,,,,,,,,,,,,,,0,0,0,0,0
0.4330,1783187665.7450,1,0,1.0000,0.0000,1.44682,0.23328,-2.77748,0.97337,1.57080,0.00000,-0.14512,-0.38003,0.04653,,,,,,,,,,,,,,,,,,,,,,,,,,0,0,0,0,0
0.4531,1783187665.7650,1,0,1.0000,0.0000,1.44682,0.23328,-2.77748,0.97337,1.57080,0.00000,-0.14512,-0.38003,0.04653,,,,,,,,,,,,,,,,,,,,,,,,,,0,0,0,0,0
0.4535,1783187665.7655,1,0,1.0000,0.0000,1.44682,0.23328,-2.77748,0.97337,1.57080,0.00000,-0.14512,-0.38003,0.04653,,,,,,,,,,,,,,,,,,,,,,,,,,0,0,0,0,0
0.4538,1783187665.7658,1,0,1.0000,0.0000,1.44682,0.23328,-2.77748,0.97337,1.57080,0.00000,-0.14512,-0.38003,0.04653,,,,,,,,,,,,,,,,,,,,,,,,,,0,0,0,0,0
0.4637,1783187665.7756,1,0,1.0000,0.0000,1.44682,0.23328,-2.77748,0.97337,1.57080,0.00000,-0.14512,-0.38003,0.04653,,,,,,,,,,,,,,,,,,,,,,,,,,0,0,0,0,0
0.4753,1783187665.7873,1,0,1.0000,0.0000,1.44682,0.23328,-2.77748,0.97337,1.57080,0.00000,-0.14512,-0.38003,0.04653,,,,,,,,,,,,,,,,,,,,,,,,,,0,0,0,0,0
0.4868,1783187665.7987,1,0,1.0000,0.0000,1.44682,0.23328,-2.77748,0.97337,1.57080,0.00000,-0.14512,-0.38003,0.04653,,,,,,,,,,,,,,,,,,,,,,,,,,0,0,0,0,0
0.4986,1783187665.8106,1,0,1.0000,0.0000,1.44682,0.23328,-2.77748,0.97337,1.57080,0.00000,-0.14512,-0.38003,0.04653,,,,,,,,,,,,,,,,,,,,,,,,,,0,0,0,0,0
0.5034,1783187665.8153,1,0,1.0000,0.0000,1.44682,0.23328,-2.77748,0.97337,1.57080,0.00000,-0.14512,-0.38003,0.04653,,,,,,,,,,,,,,,,,,,,,,,,,,0,0,0,0,0
0.5127,1783187665.8247,1,0,1.0000,0.0000,1.44682,0.23328,-2.77748,0.97337,1.57080,0.00000,-0.14512,-0.38003,0.04653,,,,,,,,,,,,,,,,,,,,,,,,,,0,0,0,0,0
0.5260,1783187665.8379,1,0,1.0000,0.0000,1.44682,0.23328,-2.77748,0.97337,1.57080,0.00000,-0.14512,-0.38003,0.04653,,,,,,,,,,,,,,,,,,,,,,,,,,0,0,0,0,0
0.5267,1783187665.8387,1,0,1.0000,0.0000,1.44682,0.23328,-2.77748,0.97337,1.57080,0.00000,-0.14512,-0.38003,0.04653,,,,,,,,,,,,,,,,,,,,,,,,,,0,0,0,0,0
0.5355,1783187665.8474,1,0,1.0000,0.0000,1.44682,0.23328,-2.77748,0.97337,1.57080,0.00000,-0.14512,-0.38003,0.04653,,,,,,,,,,,,,,,,,,,,,,,,,,0,0,0,0,0
0.5361,1783187665.8481,1,0,1.0000,0.0000,1.44682,0.23328,-2.77748,0.97337,1.57080,0.00000,-0.14512,-0.38003,0.04653,,,,,,,,,,,,,,,,,,,,,,,,,,0,0,0,0,0
0.5447,1783187665.8566,1,0,1.0000,0.0000,1.44682,0.23328,-2.77748,0.97337,1.57080,0.00000,-0.14512,-0.38003,0.04653,,,,,,,,,,,,,,,,,,,,,,,,,,0,0,0,0,0
0.6631,1783187665.9751,1,0,1.0000,0.0000,1.44682,0.23328,-2.77748,0.97337,1.57080,0.00000,-0.14512,-0.38003,0.04653,,,,,,,,,,,,,,,,,,,,,,,,,,0,0,0,0,0
0.6635,1783187665.9754,1,0,1.0000,0.0000,1.44682,0.23328,-2.77748,0.97337,1.57080,0.00000,-0.14512,-0.38003,0.04653,,,,,,,,,,,,,,,,,,,,,,,,,,0,0,0,0,0
0.6638,1783187665.9758,1,0,1.0000,0.0000,1.44682,0.23328,-2.77748,0.97337,1.57080,0.00000,-0.14512,-0.38003,0.04653,,,,,,,,,,,,,,,,,,,,,,,,,,0,0,0,0,0
0.6643,1783187665.9762,1,0,1.0000,0.0000,1.44682,0.23328,-2.77748,0.97337,1.57080,0.00000,-0.14512,-0.38003,0.04653,,,,,,,,,,,,,,,,,,,,,,,,,,0,0,0,0,0
0.6648,1783187665.9768,1,0,1.0000,0.0000,1.44682,0.23328,-2.77748,0.97337,1.57080,0.00000,-0.14512,-0.38003,0.04653,,,,,,,,,,,,,,,,,,,,,,,,,,0,0,0,0,0
0.6650,1783187665.9770,1,0,1.0000,0.0000,1.44682,0.23328,-2.77748,0.97337,1.57080,0.00000,-0.14512,-0.38003,0.04653,,,,,,,,,,,,,,,,,,,,,,,,,,0,0,0,0,0
0.6653,1783187665.9772,1,0,1.0000,0.0000,1.44682,0.23328,-2.77748,0.97337,1.57080,0.00000,-0.14512,-0.38003,0.04653,,,,,,,,,,,,,,,,,,,,,,,,,,0,0,0,0,0
0.6666,1783187665.9785,1,0,1.0000,0.0000,1.44682,0.23328,-2.77748,0.97337,1.57080,0.00000,-0.14512,-0.38003,0.04653,,,,,,,,,,,,,,,,,,,,,,,,,,0,0,0,0,0
0.6752,1783187665.9872,1,0,1.0000,0.0000,1.44682,0.23328,-2.77748,0.97337,1.57080,0.00000,-0.14512,-0.38003,0.04653,,,,,,,,,,,,,,,,,,,,,,,,,,0,0,0,0,0
0.6834,1783187665.9954,1,0,1.0000,0.0000,1.44682,0.23328,-2.77748,0.97337,1.57080,0.00000,-0.14512,-0.38003,0.04653,,,,,,,,,,,,,,,,,,,,,,,,,,0,0,0,0,0
0.6837,1783187665.9956,1,0,1.0000,0.0000,1.44682,0.23328,-2.77748,0.97337,1.57080,0.00000,-0.14512,-0.38003,0.04653,,,,,,,,,,,,,,,,,,,,,,,,,,0,0,0,0,0
0.6945,1783187666.0064,1,0,1.0000,0.0000,1.44682,0.23328,-2.77748,0.97337,1.57080,0.00000,-0.14512,-0.38003,0.04653,,,,,,,,,,,,,,,,,,,,,,,,,,0,0,0,0,0
0.7032,1783187666.0151,1,0,1.0000,0.0000,1.44682,0.23328,-2.77748,0.97337,1.57080,0.00000,-0.14512,-0.38003,0.04653,,,,,,,,,,,,,,,,,,,,,,,,,,0,0,0,0,0
0.7127,1783187666.0246,1,0,1.0000,0.0000,1.44682,0.23328,-2.77748,0.97337,1.57080,0.00000,-0.14512,-0.38003,0.04653,,,,,,,,,,,,,,,,,,,,,,,,,,0,0,0,0,0
0.7278,1783187666.0397,1,0,1.0000,0.0000,1.44682,0.23328,-2.77748,0.97337,1.57080,0.00000,-0.14512,-0.38003,0.04653,,,,,,,,,,,,,,,,,,,,,,,,,,0,0,0,0,0
0.7371,1783187666.0491,1,1,1.0000,0.0000,1.44682,0.23328,-2.77748,0.97337,1.57080,0.00000,-0.14512,-0.38003,0.04653,,,,,,,,,,,,,,,,,,,,,,,,,,0,0,0,0,0
0.7468,1783187666.0587,1,1,1.0000,0.0000,1.44682,0.23328,-2.77748,0.97337,1.57080,0.00000,-0.14512,-0.38003,0.04653,,,,,,,,,,,,,,,,,,,,,,,,,,0,0,0,0,0
0.7531,1783187666.0651,1,1,1.0000,0.0000,1.44682,0.23328,-2.77748,0.97337,1.57080,0.00000,-0.14512,-0.38003,0.04653,,,,,,,,,,,,,,,,,,,,,,,,,,0,0,0,0,0
0.7650,1783187666.0769,1,1,1.0000,0.0000,1.44682,0.23328,-2.77748,0.97337,1.57080,0.00000,-0.14512,-0.38003,0.04653,,,,,,,,,,,,,,,,,,,,,,,,,,0,0,0,0,0
0.7752,1783187666.0872,1,1,1.0000,0.0000,1.44682,0.23328,-2.77748,0.97337,1.57080,0.00000,-0.14512,-0.38003,0.04653,,,,,,,,,,,,,,,,,,,,,,,,,,0,0,0,0,0
0.7757,1783187666.0876,1,1,1.0000,0.0000,1.44682,0.23328,-2.77748,0.97337,1.57080,0.00000,-0.14512,-0.38003,0.04653,,,,,,,,,,,,,,,,,,,,,,,,,,0,0,0,0,0
0.8179,1783187666.1298,1,1,1.0000,0.0000,1.44682,0.23328,-2.77748,0.97337,1.57080,0.00000,-0.14512,-0.38003,0.04653,,,,,,,,,,,,,,,,,,,,,,,,,,0,0,0,0,0
0.8182,1783187666.1301,1,1,1.0000,0.0000,1.44682,0.23328,-2.77748,0.97337,1.57080,0.00000,-0.14512,-0.38003,0.04653,,,,,,,,,,,,,,,,,,,,,,,,,,0,0,0,0,0
0.8268,1783187666.1388,1,1,1.0000,0.0000,1.44682,0.23328,-2.77748,0.97337,1.57080,0.00000,-0.14512,-0.38003,0.04653,,,,,,,,,,,,,,,,,,,,,,,,,,0,0,0,0,0
0.8308,1783187666.1427,1,1,1.0000,0.0000,1.44682,0.23328,-2.77748,0.97337,1.57080,0.00000,-0.14512,-0.38003,0.04653,,,,,,,,,,,,,,,,,,,,,,,,,,0,0,0,0,0
0.8310,1783187666.1430,1,1,1.0000,0.0000,1.44682,0.23328,-2.77748,0.97337,1.57080,0.00000,-0.14512,-0.38003,0.04653,,,,,,,,,,,,,,,,,,,,,,,,,,0,0,0,0,0
0.8331,1783187666.1450,1,1,1.0000,0.0000,1.44682,0.23328,-2.77748,0.97337,1.57080,0.00000,-0.14512,-0.38003,0.04653,,,,,,,,,,,,,,,,,,,,,,,,,,0,0,0,0,0
0.8334,1783187666.1453,1,1,1.0000,0.0000,1.44682,0.23328,-2.77748,0.97337,1.57080,0.00000,-0.14512,-0.38003,0.04653,,,,,,,,,,,,,,,,,,,,,,,,,,0,0,0,0,0
0.8433,1783187666.1553,1,1,1.0000,0.0000,1.44682,0.23328,-2.77748,0.97337,1.57080,0.00000,-0.14512,-0.38003,0.04653,,,,,,,,,,,,,,,,,,,,,,,,,,0,0,0,0,0
0.8550,1783187666.1669,1,1,1.0000,0.0000,1.44682,0.23328,-2.77748,0.97337,1.57080,0.00000,-0.14512,-0.38003,0.04653,,,,,,,,,,,,,,,,,,,,,,,,,,0,0,0,0,0
0.8552,1783187666.1672,1,1,1.0000,0.0000,1.44682,0.23328,-2.77748,0.97337,1.57080,0.00000,-0.14512,-0.38003,0.04653,,,,,,,,,,,,,,,,,,,,,,,,,,0,0,0,0,0
0.8637,1783187666.1757,1,1,1.0000,0.0000,1.44682,0.23328,-2.77748,0.97337,1.57080,0.00000,-0.14512,-0.38003,0.04653,,,,,,,,,,,,,,,,,,,,,,,,,,0,0,0,0,0
0.8640,1783187666.1759,1,1,1.0000,0.0000,1.44682,0.23328,-2.77748,0.97337,1.57080,0.00000,-0.14512,-0.38003,0.04653,,,,,,,,,,,,,,,,,,,,,,,,,,0,0,0,0,0
0.8773,1783187666.1893,1,1,1.0000,0.0000,1.44682,0.23328,-2.77748,0.97337,1.57080,0.00000,-0.14512,-0.38003,0.04653,,,,,,,,,,,,,,,,,,,,,,,,,,0,0,0,0,0
0.8829,1783187666.1948,1,1,1.0000,0.0000,1.44682,0.23328,-2.77748,0.97337,1.57080,0.00000,-0.14512,-0.38003,0.04653,,,,,,,,,,,,,,,,,,,,,,,,,,0,0,0,0,0
0.8980,1783187666.2099,1,1,1.0000,0.0000,1.44682,0.23328,-2.77748,0.97337,1.57080,0.00000,-0.14512,-0.38003,0.04653,,,,,,,,,,,,,,,,,,,,,,,,,,0,0,0,0,0
0.9036,1783187666.2155,1,1,1.0000,0.0000,1.44682,0.23328,-2.77748,0.97337,1.57080,0.00000,-0.14512,-0.38003,0.04653,,,,,,,,,,,,,,,,,,,,,,,,,,0,0,0,0,0
0.9217,1783187666.2337,1,1,1.0000,0.0000,1.44682,0.23328,-2.77748,0.97337,1.57080,0.00000,-0.14512,-0.38003,0.04653,,,,,,,,,,,,,,,,,,,,,,,,,,0,0,0,0,0
0.9243,1783187666.2362,1,1,1.0000,0.0000,1.44682,0.23327,-2.77748,0.97338,1.57080,0.00000,-0.14512,-0.38003,0.04652,,,,,,,,,,,,,,,,,,,,,,,,,,0,0,0,0,0
0.9339,1783187666.2459,1,1,1.0000,0.0000,1.44682,0.23319,-2.77750,0.97348,1.57080,0.00000,-0.14512,-0.38003,0.04650,,,,,,,,,,,,,,,,,,,,,,,,,,0,0,0,0,0
0.9430,1783187666.2550,1,1,1.0000,0.0000,1.44682,0.23301,-2.77754,0.97370,1.57080,0.00000,-0.14512,-0.38003,0.04646,,,,,,,,,,,,,,,,,,,,,,,,,,0,0,0,0,0
0.9434,1783187666.2553,1,1,1.0000,0.0000,1.44682,0.23301,-2.77754,0.97370,1.57080,0.00000,-0.14512,-0.38003,0.04646,,,,,,,,,,,,,,,,,,,,,,,,,,0,0,0,0,0
0.9569,1783187666.2688,1,1,1.0000,0.0000,1.44682,0.23295,-2.77756,0.97378,1.57080,0.00000,-0.14512,-0.38003,0.04644,,,,,,,,,,,,,,,,,,,,,,,,,,0,0,0,0,0
0.9628,1783187666.2747,1,1,1.0000,0.0000,1.44682,0.23291,-2.77757,0.97383,1.57080,0.00000,-0.14512,-0.38003,0.04643,,,,,,,,,,,,,,,,,,,,,,,,,,0,0,0,0,0
0.9632,1783187666.2751,1,1,1.0000,0.0000,1.44682,0.23291,-2.77757,0.97383,1.57080,0.00000,-0.14512,-0.38003,0.04643,,,,,,,,,,,,,,,,,,,,,,,,,,0,0,0,0,0
0.9731,1783187666.2851,1,1,1.0000,0.0000,1.44682,0.23284,-2.77759,0.97392,1.57080,0.00000,-0.14512,-0.38003,0.04641,,,,,,,,,,,,,,,,,,,,,,,,,,0,0,0,0,0
0.9848,1783187666.2967,1,1,1.0000,0.0000,1.44682,0.23279,-2.77760,0.97398,1.57080,0.00000,-0.14512,-0.38003,0.04640,,,,,,,,,,,,,,,,,,,,,,,,,,0,0,0,0,0
0.9934,1783187666.3054,1,1,1.0000,0.0000,1.44682,0.23273,-2.77762,0.97406,1.57080,0.00000,-0.14512,-0.38003,0.04638,,,,,,,,,,,,,,,,,,,,,,,,,,0,0,0,0,0
1.0050,1783187666.3170,1,1,1.0000,0.0000,1.44682,0.23257,-2.77766,0.97426,1.57080,0.00000,-0.14512,-0.38003,0.04634,,,,,,,,,,,,,,,,,,,,,,,,,,0,0,0,0,0
1.0131,1783187666.3250,1,1,1.0000,0.0000,1.44682,0.23252,-2.77767,0.97432,1.57080,0.00000,-0.14512,-0.38003,0.04633,,,,,,,,,,,,,,,,,,,,,,,,,,0,0,0,0,0
1.0240,1783187666.3359,1,1,1.0000,0.0000,1.44682,0.23247,-2.77768,0.97438,1.57080,0.00000,-0.14512,-0.38003,0.04632,,,,,,,,,,,,,,,,,,,,,,,,,,0,0,0,0,0
1.0333,1783187666.3453,1,1,1.0000,0.0000,1.44682,0.23240,-2.77770,0.97448,1.57080,0.00000,-0.14512,-0.38003,0.04630,,,,,,,,,,,,,,,,,,,,,,,,,,0,0,0,0,0
1.0430,1783187666.3549,1,1,1.0000,0.0000,1.44682,0.23234,-2.77772,0.97454,1.57080,0.00000,-0.14512,-0.38003,0.04628,,,,,,,,,,,,,,,,,,,,,,,,,,0,0,0,0,0
1.0592,1783187666.3711,1,1,1.0000,0.0000,1.44682,0.23218,-2.77776,0.97475,1.57080,0.00000,-0.14512,-0.38003,0.04624,,,,,,,,,,,,,,,,,,,,,,,,,,0,0,0,0,0
1.0652,1783187666.3772,1,1,1.0000,0.0000,1.44682,0.23213,-2.77777,0.97481,1.57080,0.00000,-0.14512,-0.38003,0.04623,,,,,,,,,,,,,,,,,,,,,,,,,,0,0,0,0,0
1.0655,1783187666.3775,1,1,1.0000,0.0000,1.44682,0.23213,-2.77777,0.97481,1.57080,0.00000,-0.14512,-0.38003,0.04623,,,,,,,,,,,,,,,,,,,,,,,,,,0,0,0,0,0
1.1092,1783187666.4211,1,1,1.0000,0.0000,1.44682,0.23183,-2.77785,0.97519,1.57080,0.00000,-0.14512,-0.38003,0.04615,,,,,,,,,,,,,,,,,,,,,,,,,,0,0,0,0,0
1.1095,1783187666.4214,1,1,1.0000,0.0000,1.44682,0.23183,-2.77785,0.97519,1.57080,0.00000,-0.14512,-0.38003,0.04615,,,,,,,,,,,,,,,,,,,,,,,,,,0,0,0,0,0
1.1099,1783187666.4218,1,1,1.0000,0.0000,1.44682,0.23183,-2.77785,0.97519,1.57080,0.00000,-0.14512,-0.38003,0.04615,,,,,,,,,,,,,,,,,,,,,,,,,,0,0,0,0,0
1.1142,1783187666.4261,1,1,1.0000,0.0000,1.44682,0.23179,-2.77786,0.97524,1.57080,0.00000,-0.14512,-0.38003,0.04614,,,,,,,,,,,,,,,,,,,,,,,,,,0,0,0,0,0
1.1148,1783187666.4267,1,1,1.0000,0.0000,1.44682,0.23175,-2.77787,0.97530,1.57080,0.00000,-0.14512,-0.38003,0.04613,,,,,,,,,,,,,,,,,,,,,,,,,,0,0,0,0,0
1.1155,1783187666.4274,1,1,1.0000,0.0000,1.44682,0.23175,-2.77787,0.97530,1.57080,0.00000,-0.14512,-0.38003,0.04613,,,,,,,,,,,,,,,,,,,,,,,,,,0,0,0,0,0
1.1158,1783187666.4277,1,1,1.0000,0.0000,1.44682,0.23175,-2.77787,0.97530,1.57080,0.00000,-0.14512,-0.38003,0.04613,,,,,,,,,,,,,,,,,,,,,,,,,,0,0,0,0,0
1.1274,1783187666.4394,1,1,1.0000,0.0000,1.44682,0.23159,-2.77791,0.97549,1.57080,0.00000,-0.14512,-0.38003,0.04609,,,,,,,,,,,,,,,,,,,,,,,,,,0,0,0,0,0
1.1356,1783187666.4476,1,1,1.0000,0.0000,1.44682,0.23158,-2.77791,0.97550,1.57080,0.00000,-0.14512,-0.38003,0.04608,,,,,,,,,,,,,,,,,,,,,,,,,,0,0,0,0,0
1.1360,1783187666.4479,1,1,1.0000,0.0000,1.44682,0.23158,-2.77791,0.97550,1.57080,0.00000,-0.14512,-0.38003,0.04608,,,,,,,,,,,,,,,,,,,,,,,,,,0,0,0,0,0
1.1438,1783187666.4558,1,1,1.0000,0.0000,1.44682,0.23152,-2.77793,0.97558,1.57080,0.00000,-0.14512,-0.38003,0.04607,,,,,,,,,,,,,,,,,,,,,,,,,,0,0,0,0,0
1.1680,1783187666.4799,1,1,1.0000,0.0000,1.44682,0.23134,-2.77798,0.97580,1.57080,0.00000,-0.14512,-0.38003,0.04602,,,,,,,,,,,,,,,,,,,,,,,,,,0,0,0,0,0
1.1684,1783187666.4804,1,1,1.0000,0.0000,1.44682,0.23134,-2.77798,0.97580,1.57080,0.00000,-0.14512,-0.38003,0.04602,,,,,,,,,,,,,,,,,,,,,,,,,,0,0,0,0,0
1.1687,1783187666.4806,1,1,1.0000,0.0000,1.44682,0.23134,-2.77798,0.97580,1.57080,0.00000,-0.14512,-0.38003,0.04602,,,,,,,,,,,,,,,,,,,,,,,,,,0,0,0,0,0
1.1747,1783187666.4866,1,1,1.0000,0.0000,1.44682,0.23126,-2.77800,0.97591,1.57080,0.00000,-0.14512,-0.38003,0.04600,,,,,,,,,,,,,,,,,,,,,,,,,,0,0,0,0,0
1.1751,1783187666.4870,1,1,1.0000,0.0000,1.44682,0.23126,-2.77800,0.97591,1.57080,0.00000,-0.14512,-0.38003,0.04600,,,,,,,,,,,,,,,,,,,,,,,,,,0,0,0,0,0
1.1832,1783187666.4951,1,1,1.0000,0.0000,1.44682,0.23116,-2.77802,0.97604,1.57080,0.00000,-0.14512,-0.38003,0.04597,,,,,,,,,,,,,,,,,,,,,,,,,,0,0,0,0,0
1.1836,1783187666.4955,1,1,1.0000,0.0000,1.44682,0.23116,-2.77802,0.97604,1.57080,0.00000,-0.14512,-0.38003,0.04597,,,,,,,,,,,,,,,,,,,,,,,,,,0,0,0,0,0
1.1956,1783187666.5075,1,1,1.0000,0.0000,1.44682,0.23110,-2.77804,0.97611,1.57080,0.00000,-0.14512,-0.38003,0.04596,,,,,,,,,,,,,,,,,,,,,,,,,,0,0,0,0,0
1.1959,1783187666.5078,1,1,1.0000,0.0000,1.44682,0.23110,-2.77804,0.97611,1.57080,0.00000,-0.14512,-0.38003,0.04596,,,,,,,,,,,,,,,,,,,,,,,,,,0,0,0,0,0
1.2085,1783187666.5205,1,1,1.0000,0.0000,1.44682,0.23099,-2.77807,0.97624,1.57080,0.00000,-0.14512,-0.38003,0.04593,,,,,,,,,,,,,,,,,,,,,,,,,,0,0,0,0,0
1.2088,1783187666.5207,1,1,1.0000,0.0000,1.44682,0.23099,-2.77807,0.97624,1.57080,0.00000,-0.14512,-0.38003,0.04593,,,,,,,,,,,,,,,,,,,,,,,,,,0,0,0,0,0
1.2189,1783187666.5309,1,1,1.0000,0.0000,1.44682,0.23084,-2.77811,0.97644,1.57080,0.00000,-0.14512,-0.38003,0.04589,,,,,,,,,,,,,,,,,,,,,,,,,,0,0,0,0,0
1.2274,1783187666.5394,1,1,1.0000,0.0000,1.44682,0.23083,-2.77811,0.97645,1.57080,0.00000,-0.14512,-0.38003,0.04589,,,,,,,,,,,,,,,,,,,,,,,,,,0,0,0,0,0
1.2386,1783187666.5505,1,1,1.0000,0.0000,1.44682,0.23075,-2.77813,0.97655,1.57080,0.00000,-0.14512,-0.38003,0.04587,,,,,,,,,,,,,,,,,,,,,,,,,,0,0,0,0,0
1.2528,1783187666.5647,1,1,1.0000,0.0000,1.44682,0.23067,-2.77815,0.97665,1.57080,0.00000,-0.14512,-0.38003,0.04585,,,,,,,,,,,,,,,,,,,,,,,,,,0,0,0,0,0
1.2638,1783187666.5758,1,1,1.0000,0.0000,1.44682,0.23059,-2.77817,0.97674,1.57080,0.00000,-0.14512,-0.38003,0.04583,,,,,,,,,,,,,,,,,,,,,,,,,,0,0,0,0,0
1.2709,1783187666.5829,1,1,1.0000,0.0000,1.44682,0.23050,-2.77819,0.97687,1.57080,0.00000,-0.14512,-0.38003,0.04580,,,,,,,,,,,,,,,,,,,,,,,,,,0,0,0,0,0
1.2714,1783187666.5833,1,1,1.0000,0.0000,1.44682,0.23050,-2.77819,0.97687,1.57080,0.00000,-0.14512,-0.38003,0.04580,,,,,,,,,,,,,,,,,,,,,,,,,,0,0,0,0,0
1.2767,1783187666.5887,1,1,1.0000,0.0000,1.44682,0.23044,-2.77821,0.97693,1.57080,0.00000,-0.14512,-0.38003,0.04579,,,,,,,,,,,,,,,,,,,,,,,,,,0,0,0,0,0
1.2871,1783187666.5990,1,1,1.0000,0.0000,1.44682,0.23038,-2.77822,0.97701,1.57080,0.00000,-0.14512,-0.38003,0.04577,,,,,,,,,,,,,,,,,,,,,,,,,,0,0,0,0,0
1.2973,1783187666.6093,1,1,1.0000,0.0000,1.44682,0.23034,-2.77823,0.97706,1.57080,0.00000,-0.14512,-0.38003,0.04576,,,,,,,,,,,,,,,,,,,,,,,,,,0,0,0,0,0
1.3091,1783187666.6210,1,1,1.0000,0.0000,1.44682,0.23022,-2.77826,0.97721,1.57080,0.00000,-0.14512,-0.38003,0.04573,,,,,,,,,,,,,,,,,,,,,,,,,,0,0,0,0,0
1.3177,1783187666.6297,1,1,1.0000,0.0000,1.44682,0.23021,-2.77827,0.97722,1.57080,0.00000,-0.14512,-0.38003,0.04573,,,,,,,,,,,,,,,,,,,,,,,,,,0,0,0,0,0
1.3293,1783187666.6412,1,1,1.0000,0.0000,1.44682,0.23010,-2.77829,0.97736,1.57080,0.00000,-0.14512,-0.38003,0.04570,,,,,,,,,,,,,,,,,,,,,,,,,,0,0,0,0,0
1.3420,1783187666.6540,1,1,1.0000,0.0000,1.44682,0.22994,-2.77833,0.97756,1.57080,0.00000,-0.14512,-0.38003,0.04566,,,,,,,,,,,,,,,,,,,,,,,,,,0,0,0,0,0
1.3500,1783187666.6620,1,1,1.0000,0.0000,1.44682,0.22994,-2.77834,0.97757,1.57080,0.00000,-0.14512,-0.38003,0.04566,,,,,,,,,,,,,,,,,,,,,,,,,,0,0,0,0,0
1.3827,1783187666.6946,1,1,1.0000,0.0000,1.44682,0.22970,-2.77840,0.97786,1.57080,0.00000,-0.14512,-0.38003,0.04559,,,,,,,,,,,,,,,,,,,,,,,,,,0,0,0,0,0
1.3830,1783187666.6949,1,1,1.0000,0.0000,1.44682,0.22970,-2.77840,0.97786,1.57080,0.00000,-0.14512,-0.38003,0.04559,,,,,,,,,,,,,,,,,,,,,,,,,,0,0,0,0,0
1.3881,1783187666.7001,1,1,1.0000,0.0000,1.44682,0.22965,-2.77841,0.97792,1.57080,0.00000,-0.14512,-0.38003,0.04558,,,,,,,,,,,,,,,,,,,,,,,,,,0,0,0,0,0
1.4022,1783187666.7141,1,1,1.0000,0.0000,1.44682,0.22950,-2.77845,0.97812,1.57080,0.00000,-0.14512,-0.38003,0.04554,,,,,,,,,,,,,,,,,,,,,,,,,,0,0,0,0,0
1.4028,1783187666.7148,1,1,1.0000,0.0000,1.44682,0.22950,-2.77845,0.97812,1.57080,0.00000,-0.14512,-0.38003,0.04554,,,,,,,,,,,,,,,,,,,,,,,,,,0,0,0,0,0
1.4047,1783187666.7166,1,1,1.0000,0.0000,1.44682,0.22950,-2.77845,0.97812,1.57080,0.00000,-0.14512,-0.38003,0.04554,,,,,,,,,,,,,,,,,,,,,,,,,,0,0,0,0,0
1.4050,1783187666.7170,1,1,1.0000,0.0000,1.44682,0.22950,-2.77845,0.97812,1.57080,0.00000,-0.14512,-0.38003,0.04554,,,,,,,,,,,,,,,,,,,,,,,,,,0,0,0,0,0
1.4088,1783187666.7207,1,1,1.0000,0.0000,1.44682,0.22949,-2.77845,0.97813,1.57080,0.00000,-0.14512,-0.38003,0.04554,,,,,,,,,,,,,,,,,,,,,,,,,,0,0,0,0,0
1.4202,1783187666.7322,1,1,1.0000,0.0000,1.44682,0.22941,-2.77847,0.97823,1.57080,0.00000,-0.14512,-0.38003,0.04552,,,,,,,,,,,,,,,,,,,,,,,,,,0,0,0,0,0
1.4206,1783187666.7326,1,1,1.0000,0.0000,1.44682,0.22941,-2.77847,0.97823,1.57080,0.00000,-0.14512,-0.38003,0.04552,,,,,,,,,,,,,,,,,,,,,,,,,,0,0,0,0,0
1.4310,1783187666.7429,1,1,1.0000,0.0000,1.44682,0.22933,-2.77849,0.97833,1.57080,0.00000,-0.14512,-0.38003,0.04550,,,,,,,,,,,,,,,,,,,,,,,,,,0,0,0,0,0
1.4387,1783187666.7506,1,1,1.0000,0.0000,1.44682,0.22929,-2.77850,0.97838,1.57080,0.00000,-0.14512,-0.38003,0.04549,,,,,,,,,,,,,,,,,,,,,,,,,,0,0,0,0,0
1.4466,1783187666.7586,1,1,1.0000,0.0000,1.44682,0.22921,-2.77852,0.97848,1.57080,0.00000,-0.14512,-0.38003,0.04547,,,,,,,,,,,,,,,,,,,,,,,,,,0,0,0,0,0
1.4469,1783187666.7588,1,1,1.0000,0.0000,1.44682,0.22921,-2.77852,0.97848,1.57080,0.00000,-0.14512,-0.38003,0.04547,,,,,,,,,,,,,,,,,,,,,,,,,,0,0,0,0,0
1.4649,1783187666.7768,1,1,1.0000,0.0000,1.44682,0.22905,-2.77856,0.97868,1.57080,0.00000,-0.14512,-0.38003,0.04542,,,,,,,,,,,,,,,,,,,,,,,,,,0,0,0,0,0
1.4699,1783187666.7819,1,1,1.0000,0.0000,1.44682,0.22904,-2.77856,0.97869,1.57080,0.00000,-0.14512,-0.38003,0.04542,,,,,,,,,,,,,,,,,,,,,,,,,,0,0,0,0,0
1.4769,1783187666.7888,1,1,1.0000,0.0000,1.44682,0.22900,-2.77858,0.97875,1.57080,0.00000,-0.14512,-0.38003,0.04541,,,,,,,,,,,,,,,,,,,,,,,,,,0,0,0,0,0
1.4871,1783187666.7990,1,1,1.0000,0.0000,1.44682,0.22888,-2.77861,0.97890,1.57080,0.00000,-0.14512,-0.38003,0.04538,,,,,,,,,,,,,,,,,,,,,,,,,,0,0,0,0,0
1.4975,1783187666.8094,1,1,1.0000,0.0000,1.44682,0.22887,-2.77861,0.97891,1.57080,0.00000,-0.14512,-0.38003,0.04538,,,,,,,,,,,,,,,,,,,,,,,,,,0,0,0,0,0
1.5109,1783187666.8229,1,1,1.0000,0.0000,1.44682,0.22871,-2.77865,0.97911,1.57080,0.00000,-0.14512,-0.38003,0.04534,,,,,,,,,,,,,,,,,,,,,,,,,,0,0,0,0,0
1.5113,1783187666.8233,1,1,1.0000,0.0000,1.44682,0.22871,-2.77865,0.97911,1.57080,0.00000,-0.14512,-0.38003,0.04534,,,,,,,,,,,,,,,,,,,,,,,,,,0,0,0,0,0
1.5193,1783187666.8312,1,1,1.0000,0.0000,1.44682,0.22860,-2.77868,0.97924,1.57080,0.00000,-0.14512,-0.38003,0.04531,,,,,,,,,,,,,,,,,,,,,,,,,,0,0,0,0,0
1.5335,1783187666.8454,1,1,1.0000,0.0000,1.44682,0.22858,-2.77868,0.97927,1.57080,0.00000,-0.14512,-0.38003,0.04530,,,,,,,,,,,,,,,,,,,,,,,,,,0,0,0,0,0
1.5364,1783187666.8484,1,1,1.0000,0.0000,1.44682,0.22855,-2.77869,0.97931,1.57080,0.00000,-0.14512,-0.38003,0.04529,,,,,,,,,,,,,,,,,,,,,,,,,,0,0,0,0,0
1.5368,1783187666.8488,1,1,1.0000,0.0000,1.44682,0.22855,-2.77869,0.97931,1.57080,0.00000,-0.14512,-0.38003,0.04529,,,,,,,,,,,,,,,,,,,,,,,,,,0,0,0,0,0
1.5469,1783187666.8589,1,1,1.0000,0.0000,1.44682,0.22843,-2.77872,0.97946,1.57080,0.00000,-0.14512,-0.38003,0.04526,,,,,,,,,,,,,,,,,,,,,,,,,,0,0,0,0,0
1.5569,1783187666.8688,1,1,1.0000,0.0000,1.44682,0.22842,-2.77872,0.97947,1.57080,0.00000,-0.14512,-0.38003,0.04526,,,,,,,,,,,,,,,,,,,,,,,,,,0,0,0,0,0
1.5710,1783187666.8829,1,1,1.0000,0.0000,1.44682,0.22826,-2.77876,0.97967,1.57080,0.00000,-0.14512,-0.38003,0.04522,,,,,,,,,,,,,,,,,,,,,,,,,,0,0,0,0,0
1.5712,1783187666.8832,1,1,1.0000,0.0000,1.44682,0.22826,-2.77876,0.97967,1.57080,0.00000,-0.14512,-0.38003,0.04522,,,,,,,,,,,,,,,,,,,,,,,,,,0,0,0,0,0
1.5782,1783187666.8901,1,1,1.0000,0.0000,1.44682,0.22821,-2.77878,0.97974,1.57080,0.00000,-0.14512,-0.38003,0.04521,,,,,,,,,,,,,,,,,,,,,,,,,,0,0,0,0,0
1.5789,1783187666.8909,1,1,1.0000,0.0000,1.44682,0.22816,-2.77879,0.97980,1.57080,0.00000,-0.14512,-0.38003,0.04519,,,,,,,,,,,,,,,,,,,,,,,,,,0,0,0,0,0
1.5897,1783187666.9016,1,1,1.0000,0.0000,1.44682,0.22815,-2.77879,0.97982,1.57080,0.00000,-0.14512,-0.38003,0.04519,,,,,,,,,,,,,,,,,,,,,,,,,,0,0,0,0,0
1.5981,1783187666.9101,1,1,1.0000,0.0000,1.44682,0.22809,-2.77881,0.97989,1.57080,0.00000,-0.14512,-0.38003,0.04517,,,,,,,,,,,,,,,,,,,,,,,,,,0,0,0,0,0
1.6149,1783187666.9268,1,1,1.0000,0.0000,1.44682,0.22793,-2.77885,0.98009,1.57080,0.00000,-0.14512,-0.38003,0.04513,,,,,,,,,,,,,,,,,,,,,,,,,,0,0,0,0,0
1.6174,1783187666.9293,1,1,1.0000,0.0000,1.44682,0.22793,-2.77885,0.98009,1.57080,0.00000,-0.14512,-0.38003,0.04513,,,,,,,,,,,,,,,,,,,,,,,,,,0,0,0,0,0
1.6177,1783187666.9297,1,1,1.0000,0.0000,1.44682,0.22793,-2.77885,0.98009,1.57080,0.00000,-0.14512,-0.38003,0.04513,,,,,,,,,,,,,,,,,,,,,,,,,,0,0,0,0,0
1.6269,1783187666.9388,1,1,1.0000,0.0000,1.44682,0.22782,-2.77888,0.98022,1.57080,0.00000,-0.14512,-0.38003,0.04511,,,,,,,,,,,,,,,,,,,,,,,,,,0,0,0,0,0
1.6392,1783187666.9511,1,1,1.0000,0.0000,1.44682,0.22767,-2.77892,0.98042,1.57080,0.00000,-0.14512,-0.38003,0.04507,,,,,,,,,,,,,,,,,,,,,,,,,,0,0,0,0,0
1.6479,1783187666.9598,1,1,1.0000,0.0000,1.44682,0.22766,-2.77892,0.98043,1.57080,0.00000,-0.14512,-0.38003,0.04506,,,,,,,,,,,,,,,,,,,,,,,,,,0,0,0,0,0
1.6590,1783187666.9710,1,1,1.0000,0.0000,1.44682,0.22755,-2.77894,0.98056,1.57080,0.00000,-0.14512,-0.38003,0.04504,,,,,,,,,,,,,,,,,,,,,,,,,,0,0,0,0,0
1.6751,1783187666.9870,1,1,1.0000,0.0000,1.44682,0.22744,-2.77897,0.98070,1.57080,0.00000,-0.14512,-0.38003,0.04501,,,,,,,,,,,,,,,,,,,,,,,,,,0,0,0,0,0
1.6753,1783187666.9873,1,1,1.0000,0.0000,1.44682,0.22744,-2.77897,0.98070,1.57080,0.00000,-0.14512,-0.38003,0.04501,,,,,,,,,,,,,,,,,,,,,,,,,,0,0,0,0,0
1.6766,1783187666.9886,1,1,1.0000,0.0000,1.44682,0.22744,-2.77897,0.98070,1.57080,0.00000,-0.14512,-0.38003,0.04501,,,,,,,,,,,,,,,,,,,,,,,,,,0,0,0,0,0
1.6771,1783187666.9891,1,1,1.0000,0.0000,1.44682,0.22744,-2.77897,0.98070,1.57080,0.00000,-0.14512,-0.38003,0.04501,,,,,,,,,,,,,,,,,,,,,,,,,,0,0,0,0,0
1.6882,1783187667.0001,1,1,1.0000,0.0000,1.44682,0.22733,-2.77900,0.98084,1.57080,0.00000,-0.14512,-0.38003,0.04498,,,,,,,,,,,,,,,,,,,,,,,,,,0,0,0,0,0
1.6989,1783187667.0108,1,1,1.0000,0.0000,1.44682,0.22718,-2.77904,0.98103,1.57080,0.00000,-0.14512,-0.38003,0.04494,,,,,,,,,,,,,,,,,,,,,,,,,,0,0,0,0,0
1.7097,1783187667.0216,1,1,1.0000,0.0000,1.44682,0.22717,-2.77904,0.98104,1.57080,0.00000,-0.14512,-0.38003,0.04494,,,,,,,,,,,,,,,,,,,,,,,,,,0,0,0,0,0
1.7186,1783187667.0306,1,1,1.0000,0.0000,1.44682,0.22706,-2.77907,0.98117,1.57080,0.00001,-0.14512,-0.38003,0.04491,,,,,,,,,,,,,,,,,,,,,,,,,,0,0,0,0,0
1.7276,1783187667.0395,1,1,1.0000,0.0000,1.44682,0.22696,-2.77910,0.98130,1.57080,0.00001,-0.14512,-0.38003,0.04488,,,,,,,,,,,,,,,,,,,,,,,,,,0,0,0,0,0
1.7389,1783187667.0509,1,1,1.0000,0.0000,1.44682,0.22693,-2.77910,0.98135,1.57080,0.00001,-0.14512,-0.38003,0.04487,,,,,,,,,,,,,,,,,,,,,,,,,,0,0,0,0,0
1.7503,1783187667.0623,1,1,1.0000,0.0000,1.44682,0.22684,-2.77912,0.98145,1.57080,0.00001,-0.14512,-0.38003,0.04485,,,,,,,,,,,,,,,,,,,,,,,,,,0,0,0,0,0
1.7573,1783187667.0692,1,1,1.0000,0.0000,1.44682,0.22674,-2.77915,0.98158,1.57080,0.00001,-0.14512,-0.38003,0.04482,,,,,,,,,,,,,,,,,,,,,,,,,,0,0,0,0,0
1.7798,1783187667.0917,1,1,1.0000,0.0000,1.44682,0.22657,-2.77919,0.98179,1.57080,0.00001,-0.14512,-0.38003,0.04478,,,,,,,,,,,,,,,,,,,,,,,,,,0,0,0,0,0
1.7805,1783187667.0925,1,1,1.0000,0.0000,1.44682,0.22657,-2.77919,0.98179,1.57080,0.00001,-0.14512,-0.38003,0.04478,,,,,,,,,,,,,,,,,,,,,,,,,,0,0,0,0,0
1.7870,1783187667.0990,1,1,1.0000,0.0000,1.44682,0.22647,-2.77922,0.98192,1.57080,0.00001,-0.14512,-0.38003,0.04475,,,,,,,,,,,,,,,,,,,,,,,,,,0,0,0,0,0
1.7966,1783187667.1085,1,1,1.0000,0.0000,1.44682,0.22646,-2.77922,0.98193,1.57080,0.00001,-0.14512,-0.38003,0.04475,,,,,,,,,,,,,,,,,,,,,,,,,,0,0,0,0,0
1.8080,1783187667.1199,1,1,1.0000,0.0000,1.44682,0.22635,-2.77925,0.98206,1.57080,0.00001,-0.14512,-0.38003,0.04472,,,,,,,,,,,,,,,,,,,,,,,,,,0,0,0,0,0
1.8209,1783187667.1329,1,1,1.0000,0.0000,1.44682,0.22620,-2.77929,0.98225,1.57080,0.00001,-0.14512,-0.38003,0.04468,,,,,,,,,,,,,,,,,,,,,,,,,,0,0,0,0,0
1.8297,1783187667.1416,1,1,1.0000,0.0000,1.44682,0.22619,-2.77929,0.98227,1.57080,0.00001,-0.14512,-0.38003,0.04468,,,,,,,,,,,,,,,,,,,,,,,,,,0,0,0,0,0
1.8392,1783187667.1511,1,1,1.0000,0.0000,1.44682,0.22608,-2.77932,0.98240,1.57080,0.00001,-0.14512,-0.38003,0.04465,,,,,,,,,,,,,,,,,,,,,,,,,,0,0,0,0,0
1.8469,1783187667.1588,1,1,1.0000,0.0000,1.44682,0.22598,-2.77934,0.98253,1.57080,0.00001,-0.14512,-0.38003,0.04463,,,,,,,,,,,,,,,,,,,,,,,,,,0,0,0,0,0
1.8571,1783187667.1690,1,1,1.0000,0.0000,1.44682,0.22597,-2.77935,0.98254,1.57080,0.00001,-0.14512,-0.38003,0.04463,,,,,,,,,,,,,,,,,,,,,,,,,,0,0,0,0,0
1.8679,1783187667.1798,1,1,1.0000,0.0000,1.44682,0.22587,-2.77937,0.98268,1.57080,0.00001,-0.14512,-0.38003,0.04460,,,,,,,,,,,,,,,,,,,,,,,,,,0,0,0,0,0
1.8794,1783187667.1913,1,1,1.0000,0.0000,1.44682,0.22571,-2.77941,0.98287,1.57080,0.00001,-0.14512,-0.38003,0.04456,,,,,,,,,,,,,,,,,,,,,,,,,,0,0,0,0,0
1.8915,1783187667.2035,1,1,1.0000,0.0000,1.44682,0.22568,-2.77942,0.98291,1.57080,0.00001,-0.14512,-0.38003,0.04455,,,,,,,,,,,,,,,,,,,,,,,,,,0,0,0,0,0
1.8981,1783187667.2100,1,1,1.0000,0.0000,1.44682,0.22564,-2.77943,0.98296,1.57080,0.00001,-0.14512,-0.38003,0.04454,,,,,,,,,,,,,,,,,,,,,,,,,,0,0,0,0,0
1.9071,1783187667.2191,1,1,1.0000,0.0000,1.44682,0.22549,-2.77947,0.98314,1.57080,0.00001,-0.14512,-0.38003,0.04450,,,,,,,,,,,,,,,,,,,,,,,,,,0,0,0,0,0
1.9205,1783187667.2325,1,1,1.0000,0.0000,1.44682,0.22543,-2.77948,0.98322,1.57080,0.00001,-0.14512,-0.38003,0.04449,,,,,,,,,,,,,,,,,,,,,,,,,,0,0,0,0,0
1.9284,1783187667.2404,1,1,1.0000,0.0000,1.44682,0.22539,-2.77949,0.98327,1.57080,0.00001,-0.14512,-0.38003,0.04447,,,,,,,,,,,,,,,,,,,,,,,,,,0,0,0,0,0
2.0250,1783187667.3369,1,1,1.0000,0.0000,1.44682,0.22464,-2.77968,0.98420,1.57080,0.00001,-0.14512,-0.38002,0.04428,,,,,,,,,,,,,,,,,,,,,,,,,,0,0,0,0,0
2.0307,1783187667.3426,1,1,1.0000,0.0000,1.44682,0.22454,-2.77971,0.98434,1.57080,0.00001,-0.14512,-0.38002,0.04425,,,,,,,,,,,,,,,,,,,,,,,,,,0,0,0,0,0
2.0317,1783187667.3436,1,1,1.0000,0.0000,1.44682,0.22454,-2.77971,0.98434,1.57080,0.00001,-0.14512,-0.38002,0.04425,,,,,,,,,,,,,,,,,,,,,,,,,,0,0,0,0,0
2.0321,1783187667.3440,1,1,1.0000,0.0000,1.44682,0.22454,-2.77971,0.98434,1.57080,0.00001,-0.14512,-0.38002,0.04425,,,,,,,,,,,,,,,,,,,,,,,,,,0,0,0,0,0
2.0351,1783187667.3471,1,1,1.0000,0.0000,1.44682,0.22454,-2.77971,0.98434,1.57080,0.00001,-0.14512,-0.38002,0.04425,,,,,,,,,,,,,,,,,,,,,,,,,,0,0,0,0,0
2.0363,1783187667.3482,1,1,1.0000,0.0000,1.44682,0.22454,-2.77971,0.98434,1.57080,0.00001,-0.14512,-0.38002,0.04425,,,,,,,,,,,,,,,,,,,,,,,,,,0,0,0,0,0
2.0366,1783187667.3485,1,1,1.0000,0.0000,1.44682,0.22454,-2.77971,0.98434,1.57080,0.00001,-0.14512,-0.38002,0.04425,,,,,,,,,,,,,,,,,,,,,,,,,,0,0,0,0,0
2.0381,1783187667.3500,1,1,1.0000,0.0000,1.44682,0.22454,-2.77971,0.98434,1.57080,0.00001,-0.14512,-0.38002,0.04425,,,,,,,,,,,,,,,,,,,,,,,,,,0,0,0,0,0
2.0386,1783187667.3506,1,1,1.0000,0.0000,1.44682,0.22453,-2.77971,0.98434,1.57080,0.00001,-0.14512,-0.38002,0.04425,,,,,,,,,,,,,,,,,,,,,,,,,,0,0,0,0,0
2.0437,1783187667.3557,1,1,1.0000,0.0000,1.44682,0.22451,-2.77971,0.98437,1.57080,0.00001,-0.14512,-0.38002,0.04425,,,,,,,,,,,,,,,,,,,,,,,,,,0,0,0,0,0
2.0509,1783187667.3628,1,1,1.0000,0.0000,1.44682,0.22445,-2.77973,0.98444,1.57080,0.00001,-0.14512,-0.38002,0.04423,,,,,,,,,,,,,,,,,,,,,,,,,,0,0,0,0,0
2.0633,1783187667.3752,1,1,1.0000,0.0000,1.44682,0.22437,-2.77975,0.98455,1.57080,0.00001,-0.14512,-0.38002,0.04421,,,,,,,,,,,,,,,,,,,,,,,,,,0,0,0,0,0
2.0648,1783187667.3767,1,1,1.0000,0.0000,1.44682,0.22437,-2.77975,0.98455,1.57080,0.00001,-0.14512,-0.38002,0.04421,,,,,,,,,,,,,,,,,,,,,,,,,,0,0,0,0,0
2.0650,1783187667.3769,1,1,1.0000,0.0000,1.44682,0.22437,-2.77975,0.98455,1.57080,0.00001,-0.14512,-0.38002,0.04421,,,,,,,,,,,,,,,,,,,,,,,,,,0,0,0,0,0
2.0653,1783187667.3773,1,1,1.0000,0.0000,1.44682,0.22437,-2.77975,0.98455,1.57080,0.00001,-0.14512,-0.38002,0.04421,,,,,,,,,,,,,,,,,,,,,,,,,,0,0,0,0,0
2.0683,1783187667.3803,1,1,1.0000,0.0000,1.44682,0.22436,-2.77975,0.98456,1.57080,0.00001,-0.14512,-0.38002,0.04421,,,,,,,,,,,,,,,,,,,,,,,,,,0,0,0,0,0
2.0688,1783187667.3807,1,1,1.0000,0.0000,1.44682,0.22436,-2.77975,0.98456,1.57080,0.00001,-0.14512,-0.38002,0.04421,,,,,,,,,,,,,,,,,,,,,,,,,,0,0,0,0,0
2.0750,1783187667.3870,1,1,1.0000,0.0000,1.44682,0.22429,-2.77977,0.98464,1.57080,0.00001,-0.14512,-0.38002,0.04419,,,,,,,,,,,,,,,,,,,,,,,,,,0,0,0,0,0
2.0754,1783187667.3873,1,1,1.0000,0.0000,1.44682,0.22429,-2.77977,0.98464,1.57080,0.00001,-0.14512,-0.38002,0.04419,,,,,,,,,,,,,,,,,,,,,,,,,,0,0,0,0,0
2.0869,1783187667.3988,1,1,1.0000,0.0000,1.44682,0.22414,-2.77981,0.98483,1.57080,0.00001,-0.14512,-0.38002,0.04415,,,,,,,,,,,,,,,,,,,,,,,,,,0,0,0,0,0
2.0875,1783187667.3995,1,1,1.0000,0.0000,1.44682,0.22414,-2.77981,0.98483,1.57080,0.00001,-0.14512,-0.38002,0.04415,,,,,,,,,,,,,,,,,,,,,,,,,,0,0,0,0,0
2.0882,1783187667.4002,1,1,1.0000,0.0000,1.44682,0.22414,-2.77981,0.98483,1.57080,0.00001,-0.14512,-0.38002,0.04415,,,,,,,,,,,,,,,,,,,,,,,,,,0,0,0,0,0
2.0887,1783187667.4006,1,1,1.0000,0.0000,1.44682,0.22414,-2.77981,0.98483,1.57080,0.00001,-0.14512,-0.38002,0.04415,,,,,,,,,,,,,,,,,,,,,,,,,,0,0,0,0,0
2.0977,1783187667.4097,1,1,1.0000,0.0000,1.44682,0.22409,-2.77982,0.98490,1.57080,0.00001,-0.14512,-0.38002,0.04414,,,,,,,,,,,,,,,,,,,,,,,,,,0,0,0,0,0
2.1077,1783187667.4197,1,1,1.0000,0.0000,1.44682,0.22404,-2.77983,0.98496,1.57080,0.00001,-0.14512,-0.38002,0.04413,,,,,,,,,,,,,,,,,,,,,,,,,,0,0,0,0,0
2.1167,1783187667.4286,1,1,1.0000,0.0000,1.44682,0.22396,-2.77985,0.98506,1.57080,0.00001,-0.14512,-0.38002,0.04411,,,,,,,,,,,,,,,,,,,,,,,,,,0,0,0,0,0
2.1327,1783187667.4446,1,1,1.0000,0.0000,1.44682,0.22388,-2.77987,0.98516,1.57080,0.00001,-0.14512,-0.38002,0.04409,,,,,,,,,,,,,,,,,,,,,,,,,,0,0,0,0,0
2.1371,1783187667.4490,1,1,1.0000,0.0000,1.44682,0.22384,-2.77988,0.98521,1.57080,0.00001,-0.14512,-0.38002,0.04408,,,,,,,,,,,,,,,,,,,,,,,,,,0,0,0,0,0
2.1374,1783187667.4493,1,1,1.0000,0.0000,1.44682,0.22384,-2.77988,0.98521,1.57080,0.00001,-0.14512,-0.38002,0.04408,,,,,,,,,,,,,,,,,,,,,,,,,,0,0,0,0,0
2.1512,1783187667.4632,1,1,1.0000,0.0000,1.44682,0.22364,-2.77993,0.98546,1.57080,0.00001,-0.14512,-0.38002,0.04402,,,,,,,,,,,,,,,,,,,,,,,,,,0,0,0,0,0
2.1620,1783187667.4739,1,1,1.0000,0.0000,1.44682,0.22363,-2.77994,0.98547,1.57080,0.00001,-0.14512,-0.38002,0.04402,,,,,,,,,,,,,,,,,,,,,,,,,,0,0,0,0,0
2.1675,1783187667.4794,1,1,1.0000,0.0000,1.44682,0.22359,-2.77995,0.98553,1.57080,0.00001,-0.14512,-0.38002,0.04401,,,,,,,,,,,,,,,,,,,,,,,,,,0,0,0,0,0
2.1827,1783187667.4946,1,1,1.0000,0.0000,1.44682,0.22347,-2.77998,0.98568,1.57080,0.00001,-0.14512,-0.38002,0.04398,,,,,,,,,,,,,,,,,,,,,,,,,,0,0,0,0,0
2.1878,1783187667.4998,1,1,1.0000,0.0000,1.44682,0.22346,-2.77998,0.98569,1.57080,0.00001,-0.14512,-0.38002,0.04398,,,,,,,,,,,,,,,,,,,,,,,,,,0,0,0,0,0
2.1976,1783187667.5096,1,1,1.0000,0.0000,1.44682,0.22339,-2.78000,0.98577,1.57080,0.00001,-0.14512,-0.38002,0.04396,,,,,,,,,,,,,,,,,,,,,,,,,,0,0,0,0,0
2.2071,1783187667.5190,1,1,1.0000,0.0000,1.44682,0.22324,-2.78003,0.98596,1.57080,0.00001,-0.14512,-0.38002,0.04392,,,,,,,,,,,,,,,,,,,,,,,,,,0,0,0,0,0
2.2195,1783187667.5314,1,1,1.0000,0.0000,1.44682,0.22318,-2.78005,0.98604,1.57080,0.00001,-0.14512,-0.38002,0.04390,,,,,,,,,,,,,,,,,,,,,,,,,,0,0,0,0,0
2.2422,1783187667.5541,1,1,1.0000,0.0000,1.44682,0.22302,-2.78009,0.98624,1.57080,0.00001,-0.14512,-0.38002,0.04386,,,,,,,,,,,,,,,,,,,,,,,,,,0,0,0,0,0
2.2509,1783187667.5629,1,1,1.0000,0.0000,1.44682,0.22298,-2.78010,0.98629,1.57080,0.00001,-0.14512,-0.38002,0.04385,,,,,,,,,,,,,,,,,,,,,,,,,,0,0,0,0,0
2.2528,1783187667.5648,1,1,1.0000,0.0000,1.44682,0.22298,-2.78010,0.98629,1.57080,0.00001,-0.14512,-0.38002,0.04385,,,,,,,,,,,,,,,,,,,,,,,,,,0,0,0,0,0
2.2620,1783187667.5740,1,1,1.0000,0.0000,1.44682,0.22289,-2.78012,0.98639,1.57080,0.00001,-0.14512,-0.38002,0.04383,,,,,,,,,,,,,,,,,,,,,,,,,,0,0,0,0,0
2.2789,1783187667.5908,1,1,1.0000,0.0000,1.44681,0.22273,-2.78016,0.98660,1.57080,0.00001,-0.14512,-0.38002,0.04379,,,,,,,,,,,,,,,,,,,,,,,,,,0,0,0,0,0
2.2792,1783187667.5912,1,1,1.0000,0.0000,1.44681,0.22273,-2.78016,0.98660,1.57080,0.00001,-0.14512,-0.38002,0.04379,,,,,,,,,,,,,,,,,,,,,,,,,,0,0,0,0,0
2.2925,1783187667.6044,1,1,1.0000,0.0000,1.44681,0.22262,-2.78019,0.98674,1.57080,0.00001,-0.14512,-0.38002,0.04376,,,,,,,,,,,,,,,,,,,,,,,,,,0,0,0,0,0
2.3000,1783187667.6120,1,1,1.0000,0.0000,1.44681,0.22252,-2.78022,0.98687,1.57080,0.00001,-0.14512,-0.38002,0.04373,,,,,,,,,,,,,,,,,,,,,,,,,,0,0,0,0,0
2.3011,1783187667.6130,1,1,1.0000,0.0000,1.44681,0.22252,-2.78022,0.98687,1.57080,0.00001,-0.14512,-0.38002,0.04373,,,,,,,,,,,,,,,,,,,,,,,,,,0,0,0,0,0
2.3014,1783187667.6133,1,1,1.0000,0.0000,1.44681,0.22252,-2.78022,0.98687,1.57080,0.00001,-0.14512,-0.38002,0.04373,,,,,,,,,,,,,,,,,,,,,,,,,,0,0,0,0,0
2.3120,1783187667.6239,1,1,1.0000,0.0000,1.44681,0.22248,-2.78022,0.98691,1.57080,0.00001,-0.14512,-0.38002,0.04372,,,,,,,,,,,,,,,,,,,,,,,,,,0,0,0,0,0
2.3230,1783187667.6349,1,1,1.0000,0.0000,1.44681,0.22235,-2.78026,0.98708,1.57080,0.00001,-0.14512,-0.38002,0.04369,,,,,,,,,,,,,,,,,,,,,,,,,,0,0,0,0,0
2.3387,1783187667.6507,1,1,1.0000,0.0000,1.44681,0.22224,-2.78029,0.98722,1.57080,0.00001,-0.14512,-0.38002,0.04366,,,,,,,,,,,,,,,,,,,,,,,,,,0,0,0,0,0
2.3428,1783187667.6548,1,1,1.0000,0.0000,1.44681,0.22221,-2.78029,0.98725,1.57080,0.00001,-0.14512,-0.38002,0.04365,,,,,,,,,,,,,,,,,,,,,,,,,,0,0,0,0,0
2.3549,1783187667.6668,1,1,1.0000,0.0000,1.44681,0.22208,-2.78033,0.98742,1.57080,0.00001,-0.14512,-0.38002,0.04362,,,,,,,,,,,,,,,,,,,,,,,,,,0,0,0,0,0
2.3552,1783187667.6672,1,1,1.0000,0.0000,1.44681,0.22208,-2.78033,0.98742,1.57080,0.00001,-0.14512,-0.38002,0.04362,,,,,,,,,,,,,,,,,,,,,,,,,,0,0,0,0,0
2.3600,1783187667.6720,1,1,1.0000,0.0000,1.44681,0.22202,-2.78034,0.98748,1.57080,0.00001,-0.14512,-0.38002,0.04361,,,,,,,,,,,,,,,,,,,,,,,,,,0,0,0,0,0
2.3604,1783187667.6724,1,1,1.0000,0.0000,1.44681,0.22202,-2.78034,0.98748,1.57080,0.00001,-0.14512,-0.38002,0.04361,,,,,,,,,,,,,,,,,,,,,,,,,,0,0,0,0,0
2.3760,1783187667.6880,1,1,1.0000,0.0000,1.44681,0.22195,-2.78036,0.98757,1.57080,0.00001,-0.14512,-0.38002,0.04359,,,,,,,,,,,,,,,,,,,,,,,,,,0,0,0,0,0
2.3851,1783187667.6971,1,1,1.0000,0.0000,1.44681,0.22186,-2.78038,0.98769,1.57080,0.00001,-0.14512,-0.38002,0.04356,,,,,,,,,,,,,,,,,,,,,,,,,,0,0,0,0,0
2.3909,1783187667.7029,1,1,1.0000,0.0000,1.44681,0.22175,-2.78041,0.98782,1.57080,0.00001,-0.14512,-0.38002,0.04354,,,,,,,,,,,,,,,,,,,,,,,,,,0,0,0,0,0
2.3913,1783187667.7032,1,1,1.0000,0.0000,1.44681,0.22175,-2.78041,0.98782,1.57080,0.00001,-0.14512,-0.38002,0.04354,,,,,,,,,,,,,,,,,,,,,,,,,,0,0,0,0,0
2.4028,1783187667.7147,1,1,1.0000,0.0000,1.44681,0.22172,-2.78041,0.98786,1.57080,0.00001,-0.14512,-0.38002,0.04353,,,,,,,,,,,,,,,,,,,,,,,,,,0,0,0,0,0
2.4131,1783187667.7250,1,1,1.0000,0.0000,1.44681,0.22163,-2.78044,0.98797,1.57080,0.00001,-0.14512,-0.38002,0.04351,,,,,,,,,,,,,,,,,,,,,,,,,,0,0,0,0,0
2.4238,1783187667.7357,1,1,1.0000,0.0000,1.44681,0.22153,-2.78046,0.98810,1.57080,0.00001,-0.14512,-0.38002,0.04348,,,,,,,,,,,,,,,,,,,,,,,,,,0,0,0,0,0
2.4340,1783187667.7459,1,1,1.0000,0.0000,1.44681,0.22150,-2.78047,0.98814,1.57080,0.00001,-0.14512,-0.38002,0.04347,,,,,,,,,,,,,,,,,,,,,,,,,,0,0,0,0,0
2.4473,1783187667.7593,1,1,1.0000,0.0000,1.44681,0.22131,-2.78052,0.98837,1.57080,0.00001,-0.14512,-0.38002,0.04342,,,,,,,,,,,,,,,,,,,,,,,,,,0,0,0,0,0
2.4510,1783187667.7630,1,1,1.0000,0.0000,1.44681,0.22126,-2.78053,0.98844,1.57080,0.00001,-0.14512,-0.38002,0.04341,,,,,,,,,,,,,,,,,,,,,,,,,,0,0,0,0,0
2.4513,1783187667.7633,1,1,1.0000,0.0000,1.44681,0.22126,-2.78053,0.98844,1.57080,0.00001,-0.14512,-0.38002,0.04341,,,,,,,,,,,,,,,,,,,,,,,,,,0,0,0,0,0
2.4669,1783187667.7788,1,1,1.0000,0.0000,1.44681,0.22119,-2.78055,0.98853,1.57080,0.00001,-0.14512,-0.38002,0.04339,,,,,,,,,,,,,,,,,,,,,,,,,,0,0,0,0,0
2.4703,1783187667.7823,1,1,1.0000,0.0000,1.44681,0.22119,-2.78055,0.98853,1.57080,0.00001,-0.14512,-0.38002,0.04339,,,,,,,,,,,,,,,,,,,,,,,,,,0,0,0,0,0
2.4873,1783187667.7992,1,1,1.0000,0.0000,1.44681,0.22103,-2.78059,0.98873,1.57080,0.00001,-0.14512,-0.38002,0.04335,,,,,,,,,,,,,,,,,,,,,,,,,,0,0,0,0,0
2.4956,1783187667.8075,1,1,1.0000,0.0000,1.44681,0.22097,-2.78060,0.98880,1.57080,0.00001,-0.14512,-0.38002,0.04333,,,,,,,,,,,,,,,,,,,,,,,,,,0,0,0,0,0
2.5018,1783187667.8137,1,1,1.0000,0.0000,1.44681,0.22092,-2.78061,0.98886,1.57080,0.00001,-0.14512,-0.38002,0.04332,,,,,,,,,,,,,,,,,,,,,,,,,,0,0,0,0,0
2.5021,1783187667.8140,1,1,1.0000,0.0000,1.44681,0.22092,-2.78061,0.98886,1.57080,0.00001,-0.14512,-0.38002,0.04332,,,,,,,,,,,,,,,,,,,,,,,,,,0,0,0,0,0
2.5105,1783187667.8224,1,1,1.0000,0.0000,1.44681,0.22082,-2.78064,0.98899,1.57080,0.00001,-0.14512,-0.38002,0.04330,,,,,,,,,,,,,,,,,,,,,,,,,,0,0,0,0,0
2.5212,1783187667.8331,1,1,1.0000,0.0000,1.44681,0.22076,-2.78065,0.98907,1.57080,0.00001,-0.14512,-0.38002,0.04328,,,,,,,,,,,,,,,,,,,,,,,,,,0,0,0,0,0
2.5308,1783187667.8428,1,1,1.0000,0.0000,1.44681,0.22065,-2.78068,0.98920,1.57080,0.00001,-0.14512,-0.38002,0.04325,,,,,,,,,,,,,,,,,,,,,,,,,,0,0,0,0,0
2.5414,1783187667.8533,1,1,1.0000,0.0000,1.44681,0.22054,-2.78071,0.98933,1.57080,0.00001,-0.14512,-0.38002,0.04323,,,,,,,,,,,,,,,,,,,,,,,,,,0,0,0,0,0
2.5508,1783187667.8628,1,1,1.0000,0.0000,1.44681,0.22051,-2.78072,0.98937,1.57080,0.00001,-0.14512,-0.38002,0.04322,,,,,,,,,,,,,,,,,,,,,,,,,,0,0,0,0,0
2.5605,1783187667.8724,1,1,1.0000,0.0000,1.44681,0.22043,-2.78074,0.98948,1.57080,0.00001,-0.14512,-0.38002,0.04320,,,,,,,,,,,,,,,,,,,,,,,,,,0,0,0,0,0
2.5709,1783187667.8828,1,1,1.0000,0.0000,1.44681,0.22032,-2.78076,0.98961,1.57080,0.00001,-0.14512,-0.38002,0.04317,,,,,,,,,,,,,,,,,,,,,,,,,,0,0,0,0,0
2.5839,1783187667.8958,1,1,1.0000,0.0000,1.44681,0.22024,-2.78078,0.98971,1.57080,0.00001,-0.14512,-0.38002,0.04315,,,,,,,,,,,,,,,,,,,,,,,,,,0,0,0,0,0
2.5910,1783187667.9030,1,1,1.0000,0.0000,1.44681,0.22015,-2.78080,0.98982,1.57080,0.00001,-0.14512,-0.38002,0.04313,,,,,,,,,,,,,,,,,,,,,,,,,,0,0,0,0,0
2.6003,1783187667.9123,1,1,1.0000,0.0000,1.44681,0.22005,-2.78083,0.98995,1.57080,0.00001,-0.14512,-0.38002,0.04310,,,,,,,,,,,,,,,,,,,,,,,,,,0,0,0,0,0
2.6007,1783187667.9126,1,1,1.0000,0.0000,1.44681,0.22005,-2.78083,0.98995,1.57080,0.00001,-0.14512,-0.38002,0.04310,,,,,,,,,,,,,,,,,,,,,,,,,,0,0,0,0,0
2.6111,1783187667.9230,1,1,1.0000,0.0000,1.44681,0.21999,-2.78084,0.99002,1.57080,0.00001,-0.14512,-0.38002,0.04308,,,,,,,,,,,,,,,,,,,,,,,,,,0,0,0,0,0
2.6228,1783187667.9348,1,1,1.0000,0.0000,1.44681,0.21991,-2.78086,0.99012,1.57080,0.00001,-0.14512,-0.38002,0.04306,,,,,,,,,,,,,,,,,,,,,,,,,,0,0,0,0,0
2.6310,1783187667.9429,1,1,1.0000,0.0000,1.44681,0.21982,-2.78089,0.99023,1.57080,0.00001,-0.14512,-0.38002,0.04304,,,,,,,,,,,,,,,,,,,,,,,,,,0,0,0,0,0
2.6313,1783187667.9432,1,1,1.0000,0.0000,1.44681,0.21982,-2.78089,0.99023,1.57080,0.00001,-0.14512,-0.38002,0.04304,,,,,,,,,,,,,,,,,,,,,,,,,,0,0,0,0,0
2.6409,1783187667.9528,1,1,1.0000,0.0000,1.44681,0.21981,-2.78089,0.99024,1.57080,0.00001,-0.14512,-0.38002,0.04304,,,,,,,,,,,,,,,,,,,,,,,,,,0,0,0,0,0
2.6412,1783187667.9532,1,1,1.0000,0.0000,1.44681,0.21981,-2.78089,0.99024,1.57080,0.00001,-0.14512,-0.38002,0.04304,,,,,,,,,,,,,,,,,,,,,,,,,,0,0,0,0,0
2.6518,1783187667.9638,1,1,1.0000,0.0000,1.44681,0.21970,-2.78092,0.99038,1.57080,0.00001,-0.14512,-0.38002,0.04301,,,,,,,,,,,,,,,,,,,,,,,,,,0,0,0,0,0
2.6653,1783187667.9772,1,1,1.0000,0.0000,1.44681,0.21954,-2.78096,0.99058,1.57080,0.00001,-0.14512,-0.38002,0.04297,,,,,,,,,,,,,,,,,,,,,,,,,,0,0,0,0,0
2.6748,1783187667.9868,1,1,1.0000,0.0000,1.44681,0.21952,-2.78096,0.99061,1.57080,0.00001,-0.14512,-0.38002,0.04296,,,,,,,,,,,,,,,,,,,,,,,,,,0,0,0,0,0
2.6802,1783187667.9921,1,1,1.0000,0.0000,1.44681,0.21949,-2.78097,0.99064,1.57080,0.00001,-0.14512,-0.38002,0.04296,,,,,,,,,,,,,,,,,,,,,,,,,,0,0,0,0,0
2.7022,1783187668.0142,1,1,1.0000,0.0000,1.44681,0.21936,-2.78100,0.99081,1.57080,0.00001,-0.14512,-0.38002,0.04292,,,,,,,,,,,,,,,,,,,,,,,,,,0,0,0,0,0
2.7029,1783187668.0149,1,1,1.0000,0.0000,1.44681,0.21934,-2.78101,0.99084,1.57080,0.00001,-0.14512,-0.38002,0.04292,,,,,,,,,,,,,,,,,,,,,,,,,,0,0,0,0,0
2.7129,1783187668.0248,1,1,1.0000,0.0000,1.44681,0.21925,-2.78103,0.99095,1.57080,0.00001,-0.14512,-0.38002,0.04289,,,,,,,,,,,,,,,,,,,,,,,,,,0,0,0,0,0
2.7203,1783187668.0322,1,1,1.0000,0.0000,1.44681,0.21914,-2.78106,0.99108,1.57080,0.00001,-0.14512,-0.38002,0.04287,,,,,,,,,,,,,,,,,,,,,,,,,,0,0,0,0,0
2.7334,1783187668.0454,1,1,1.0000,0.0000,1.44681,0.21908,-2.78107,0.99115,1.57080,0.00001,-0.14512,-0.38002,0.04285,,,,,,,,,,,,,,,,,,,,,,,,,,0,0,0,0,0
2.7476,1783187668.0595,1,1,1.0000,0.0000,1.44681,0.21896,-2.78110,0.99131,1.57080,0.00001,-0.14512,-0.38002,0.04282,,,,,,,,,,,,,,,,,,,,,,,,,,0,0,0,0,0
2.7513,1783187668.0633,1,1,1.0000,0.0000,1.44681,0.21892,-2.78111,0.99136,1.57080,0.00001,-0.14512,-0.38002,0.04281,,,,,,,,,,,,,,,,,,,,,,,,,,0,0,0,0,0
2.7638,1783187668.0757,1,1,1.0000,0.0000,1.44681,0.21888,-2.78112,0.99141,1.57080,0.00001,-0.14512,-0.38002,0.04280,,,,,,,,,,,,,,,,,,,,,,,,,,0,0,0,0,0
2.7701,1783187668.0820,1,1,1.0000,0.0000,1.44681,0.21884,-2.78113,0.99145,1.57080,0.00001,-0.14512,-0.38002,0.04279,,,,,,,,,,,,,,,,,,,,,,,,,,0,0,0,0,0
2.7704,1783187668.0824,1,1,1.0000,0.0000,1.44681,0.21884,-2.78113,0.99145,1.57080,0.00001,-0.14512,-0.38002,0.04279,,,,,,,,,,,,,,,,,,,,,,,,,,0,0,0,0,0
2.7822,1783187668.0941,1,1,1.0000,0.0000,1.44681,0.21869,-2.78117,0.99165,1.57080,0.00001,-0.14512,-0.38002,0.04275,,,,,,,,,,,,,,,,,,,,,,,,,,0,0,0,0,0
2.7962,1783187668.1082,1,1,1.0000,0.0000,1.44681,0.21861,-2.78119,0.99174,1.57080,0.00001,-0.14512,-0.38002,0.04273,,,,,,,,,,,,,,,,,,,,,,,,,,0,0,0,0,0
2.8019,1783187668.1138,1,1,1.0000,0.0000,1.44681,0.21858,-2.78119,0.99178,1.57080,0.00001,-0.14512,-0.38002,0.04272,,,,,,,,,,,,,,,,,,,,,,,,,,0,0,0,0,0
2.8113,1783187668.1232,1,1,1.0000,0.0000,1.44681,0.21846,-2.78122,0.99193,1.57080,0.00001,-0.14512,-0.38002,0.04269,,,,,,,,,,,,,,,,,,,,,,,,,,0,0,0,0,0
2.8200,1783187668.1320,1,1,1.0000,0.0000,1.44681,0.21845,-2.78123,0.99194,1.57080,0.00001,-0.14512,-0.38002,0.04269,,,,,,,,,,,,,,,,,,,,,,,,,,0,0,0,0,0
2.8307,1783187668.1426,1,1,1.0000,0.0000,1.44681,0.21839,-2.78124,0.99202,1.57080,0.00001,-0.14512,-0.38002,0.04267,,,,,,,,,,,,,,,,,,,,,,,,,,0,0,0,0,0
2.8440,1783187668.1559,1,1,1.0000,0.0000,1.44681,0.21818,-2.78129,0.99228,1.57080,0.00001,-0.14512,-0.38002,0.04262,,,,,,,,,,,,,,,,,,,,,,,,,,0,0,0,0,0
2.8443,1783187668.1562,1,1,1.0000,0.0000,1.44681,0.21818,-2.78129,0.99228,1.57080,0.00001,-0.14512,-0.38002,0.04262,,,,,,,,,,,,,,,,,,,,,,,,,,0,0,0,0,0
2.8534,1783187668.1653,1,1,1.0000,0.0000,1.44681,0.21818,-2.78129,0.99229,1.57080,0.00001,-0.14512,-0.38002,0.04262,,,,,,,,,,,,,,,,,,,,,,,,,,0,0,0,0,0
2.8538,1783187668.1657,1,1,1.0000,0.0000,1.44681,0.21818,-2.78129,0.99229,1.57080,0.00001,-0.14512,-0.38002,0.04262,,,,,,,,,,,,,,,,,,,,,,,,,,0,0,0,0,0
2.8629,1783187668.1748,1,1,1.0000,0.0000,1.44681,0.21809,-2.78131,0.99239,1.57080,0.00001,-0.14512,-0.38002,0.04260,,,,,,,,,,,,,,,,,,,,,,,,,,0,0,0,0,0
2.8753,1783187668.1872,1,1,1.0000,0.0000,1.44681,0.21801,-2.78134,0.99249,1.57080,0.00001,-0.14512,-0.38002,0.04258,,,,,,,,,,,,,,,,,,,,,,,,,,0,0,0,0,0
2.8798,1783187668.1917,1,1,1.0000,0.0000,1.44681,0.21800,-2.78134,0.99251,1.57080,0.00001,-0.14512,-0.38002,0.04257,,,,,,,,,,,,,,,,,,,,,,,,,,0,0,0,0,0
2.8801,1783187668.1920,1,1,1.0000,0.0000,1.44681,0.21800,-2.78134,0.99251,1.57080,0.00001,-0.14512,-0.38002,0.04257,,,,,,,,,,,,,,,,,,,,,,,,,,0,0,0,0,0
2.8911,1783187668.2030,1,1,1.0000,0.0000,1.44681,0.21789,-2.78137,0.99265,1.57080,0.00001,-0.14512,-0.38002,0.04254,,,,,,,,,,,,,,,,,,,,,,,,,,0,0,0,0,0
2.9051,1783187668.2171,1,1,1.0000,0.0000,1.44681,0.21773,-2.78141,0.99285,1.57080,0.00001,-0.14512,-0.38002,0.04250,,,,,,,,,,,,,,,,,,,,,,,,,,0,0,0,0,0
2.9101,1783187668.2221,1,1,1.0000,0.0000,1.44681,0.21773,-2.78141,0.99285,1.57080,0.00001,-0.14512,-0.38002,0.04250,,,,,,,,,,,,,,,,,,,,,,,,,,0,0,0,0,0
2.9213,1783187668.2333,1,1,1.0000,0.0000,1.44681,0.21767,-2.78142,0.99291,1.57080,0.00001,-0.14512,-0.38002,0.04249,,,,,,,,,,,,,,,,,,,,,,,,,,0,0,0,0,0
2.9379,1783187668.2499,1,1,1.0000,0.0000,1.44681,0.21755,-2.78145,0.99306,1.57080,0.00001,-0.14512,-0.38002,0.04246,,,,,,,,,,,,,,,,,,,,,,,,,,0,0,0,0,0
2.9454,1783187668.2573,1,1,1.0000,0.0000,1.44681,0.21752,-2.78146,0.99311,1.57080,0.00001,-0.14512,-0.38002,0.04245,,,,,,,,,,,,,,,,,,,,,,,,,,0,0,0,0,0
2.9557,1783187668.2676,1,1,1.0000,0.0000,1.44681,0.21738,-2.78149,0.99328,1.57080,0.00001,-0.14512,-0.38002,0.04241,,,,,,,,,,,,,,,,,,,,,,,,,,0,0,0,0,0
2.9649,1783187668.2769,1,1,1.0000,0.0000,1.44681,0.21727,-2.78152,0.99341,1.57080,0.00001,-0.14512,-0.38002,0.04239,,,,,,,,,,,,,,,,,,,,,,,,,,0,0,0,0,0
2.9653,1783187668.2773,1,1,1.0000,0.0000,1.44681,0.21727,-2.78152,0.99341,1.57080,0.00001,-0.14512,-0.38002,0.04239,,,,,,,,,,,,,,,,,,,,,,,,,,0,0,0,0,0
2.9698,1783187668.2817,1,1,1.0000,0.0000,1.44681,0.21727,-2.78152,0.99341,1.57080,0.00001,-0.14512,-0.38002,0.04239,,,,,,,,,,,,,,,,,,,,,,,,,,0,0,0,0,0
2.9701,1783187668.2821,1,1,1.0000,0.0000,1.44681,0.21727,-2.78152,0.99341,1.57080,0.00001,-0.14512,-0.38002,0.04239,,,,,,,,,,,,,,,,,,,,,,,,,,0,0,0,0,0
2.9800,1783187668.2920,1,1,1.0000,0.0000,1.44681,0.21722,-2.78153,0.99348,1.57080,0.00001,-0.14512,-0.38002,0.04237,,,,,,,,,,,,,,,,,,,,,,,,,,0,0,0,0,0
2.9931,1783187668.3051,1,1,1.0000,0.0000,1.44681,0.21710,-2.78156,0.99363,1.57080,0.00001,-0.14512,-0.38002,0.04234,,,,,,,,,,,,,,,,,,,,,,,,,,0,0,0,0,0
3.0052,1783187668.3171,1,1,1.0000,0.0000,1.44681,0.21706,-2.78157,0.99367,1.57080,0.00001,-0.14512,-0.38002,0.04233,,,,,,,,,,,,,,,,,,,,,,,,,,0,0,0,0,0
3.0100,1783187668.3219,1,1,1.0000,0.0000,1.44681,0.21702,-2.78158,0.99372,1.57080,0.00001,-0.14512,-0.38002,0.04232,,,,,,,,,,,,,,,,,,,,,,,,,,0,0,0,0,0
3.0103,1783187668.3222,1,1,1.0000,0.0000,1.44681,0.21702,-2.78158,0.99372,1.57080,0.00001,-0.14512,-0.38002,0.04232,,,,,,,,,,,,,,,,,,,,,,,,,,0,0,0,0,0
3.0221,1783187668.3341,1,1,1.0000,0.0000,1.44681,0.21687,-2.78162,0.99391,1.57080,0.00001,-0.14512,-0.38002,0.04228,,,,,,,,,,,,,,,,,,,,,,,,,,0,0,0,0,0
3.0327,1783187668.3446,1,1,1.0000,0.0000,1.44681,0.21681,-2.78163,0.99399,1.57080,0.00001,-0.14512,-0.38002,0.04227,,,,,,,,,,,,,,,,,,,,,,,,,,0,0,0,0,0
3.0405,1783187668.3524,1,1,1.0000,0.0000,1.44681,0.21675,-2.78165,0.99407,1.57080,0.00001,-0.14512,-0.38002,0.04225,,,,,,,,,,,,,,,,,,,,,,,,,,0,0,0,0,0
3.0409,1783187668.3529,1,1,1.0000,0.0000,1.44681,0.21675,-2.78165,0.99407,1.57080,0.00001,-0.14512,-0.38002,0.04225,,,,,,,,,,,,,,,,,,,,,,,,,,0,0,0,0,0
3.0519,1783187668.3639,1,1,1.0000,0.0000,1.44681,0.21659,-2.78168,0.99426,1.57080,0.00001,-0.14512,-0.38002,0.04221,,,,,,,,,,,,,,,,,,,,,,,,,,0,0,0,0,0
3.0605,1783187668.3724,1,1,1.0000,0.0000,1.44681,0.21659,-2.78169,0.99427,1.57080,0.00001,-0.14512,-0.38002,0.04221,,,,,,,,,,,,,,,,,,,,,,,,,,0,0,0,0,0
3.0752,1783187668.3872,1,1,1.0000,0.0000,1.44681,0.21643,-2.78173,0.99447,1.57080,0.00001,-0.14512,-0.38002,0.04217,,,,,,,,,,,,,,,,,,,,,,,,,,0,0,0,0,0
3.0755,1783187668.3874,1,1,1.0000,0.0000,1.44681,0.21643,-2.78173,0.99447,1.57080,0.00001,-0.14512,-0.38002,0.04217,,,,,,,,,,,,,,,,,,,,,,,,,,0,0,0,0,0
3.0824,1783187668.3943,1,1,1.0000,0.0000,1.44681,0.21637,-2.78174,0.99453,1.57080,0.00001,-0.14512,-0.38002,0.04216,,,,,,,,,,,,,,,,,,,,,,,,,,0,0,0,0,0
3.0902,1783187668.4022,1,1,1.0000,0.0000,1.44681,0.21632,-2.78175,0.99460,1.57080,0.00001,-0.14512,-0.38002,0.04214,,,,,,,,,,,,,,,,,,,,,,,,,,0,0,0,0,0
3.1160,1783187668.4279,1,1,1.0000,0.0000,1.44681,0.21610,-2.78181,0.99488,1.57080,0.00001,-0.14512,-0.38002,0.04209,,,,,,,,,,,,,,,,,,,,,,,,,,0,0,0,0,0
3.1164,1783187668.4283,1,1,1.0000,0.0000,1.44681,0.21610,-2.78181,0.99488,1.57080,0.00001,-0.14512,-0.38002,0.04209,,,,,,,,,,,,,,,,,,,,,,,,,,0,0,0,0,0
3.1240,1783187668.4359,1,1,1.0000,0.0000,1.44681,0.21606,-2.78181,0.99492,1.57080,0.00001,-0.14512,-0.38002,0.04208,,,,,,,,,,,,,,,,,,,,,,,,,,0,0,0,0,0
3.1338,1783187668.4457,1,1,1.0000,0.0000,1.44681,0.21598,-2.78184,0.99502,1.57080,0.00001,-0.14512,-0.38002,0.04206,,,,,,,,,,,,,,,,,,,,,,,,,,0,0,0,0,0
3.1399,1783187668.4519,1,1,1.0000,0.0000,1.44681,0.21588,-2.78186,0.99515,1.57080,0.00001,-0.14512,-0.38002,0.04203,,,,,,,,,,,,,,,,,,,,,,,,,,0,0,0,0,0
3.1546,1783187668.4665,1,1,1.0000,0.0000,1.44681,0.21581,-2.78188,0.99523,1.57080,0.00001,-0.14512,-0.38002,0.04202,,,,,,,,,,,,,,,,,,,,,,,,,,0,0,0,0,0
3.1700,1783187668.4819,1,1,1.0000,0.0000,1.44681,0.21565,-2.78192,0.99543,1.57080,0.00001,-0.14512,-0.38002,0.04197,,,,,,,,,,,,,,,,,,,,,,,,,,0,0,0,0,0
3.1739,1783187668.4858,1,1,1.0000,0.0000,1.44681,0.21560,-2.78193,0.99549,1.57080,0.00001,-0.14512,-0.38002,0.04196,,,,,,,,,,,,,,,,,,,,,,,,,,0,0,0,0,0
3.1743,1783187668.4862,1,1,1.0000,0.0000,1.44681,0.21560,-2.78193,0.99549,1.57080,0.00001,-0.14512,-0.38002,0.04196,,,,,,,,,,,,,,,,,,,,,,,,,,0,0,0,0,0
3.1895,1783187668.5014,1,1,1.0000,0.0000,1.44681,0.21553,-2.78195,0.99558,1.57080,0.00001,-0.14512,-0.38002,0.04194,,,,,,,,,,,,,,,,,,,,,,,,,,0,0,0,0,0
3.1946,1783187668.5066,1,1,1.0000,0.0000,1.44681,0.21548,-2.78196,0.99564,1.57080,0.00001,-0.14512,-0.38002,0.04193,,,,,,,,,,,,,,,,,,,,,,,,,,0,0,0,0,0
3.1955,1783187668.5075,1,1,1.0000,0.0000,1.44681,0.21543,-2.78197,0.99570,1.57080,0.00001,-0.14512,-0.38002,0.04192,,,,,,,,,,,,,,,,,,,,,,,,,,0,0,0,0,0
3.2122,1783187668.5241,1,1,1.0000,0.0000,1.44681,0.21532,-2.78200,0.99585,1.57080,0.00001,-0.14512,-0.38002,0.04189,,,,,,,,,,,,,,,,,,,,,,,,,,0,0,0,0,0
3.2124,1783187668.5243,1,1,1.0000,0.0000,1.44681,0.21532,-2.78200,0.99585,1.57080,0.00001,-0.14512,-0.38002,0.04189,,,,,,,,,,,,,,,,,,,,,,,,,,0,0,0,0,0
3.2163,1783187668.5282,1,1,1.0000,0.0000,1.44681,0.21529,-2.78200,0.99588,1.57080,0.00001,-0.14512,-0.38002,0.04188,,,,,,,,,,,,,,,,,,,,,,,,,,0,0,0,0,0
3.2241,1783187668.5361,1,1,1.0000,0.0000,1.44681,0.21521,-2.78202,0.99598,1.57080,0.00001,-0.14512,-0.38002,0.04186,,,,,,,,,,,,,,,,,,,,,,,,,,0,0,0,0,0
3.2377,1783187668.5497,1,1,1.0000,0.0000,1.44681,0.21510,-2.78205,0.99611,1.57080,0.00001,-0.14512,-0.38002,0.04183,,,,,,,,,,,,,,,,,,,,,,,,,,0,0,0,0,0
3.2451,1783187668.5570,1,1,1.0000,0.0000,1.44681,0.21507,-2.78206,0.99616,1.57080,0.00001,-0.14512,-0.38002,0.04183,,,,,,,,,,,,,,,,,,,,,,,,,,0,0,0,0,0
3.2556,1783187668.5676,1,1,1.0000,0.0000,1.44681,0.21493,-2.78209,0.99632,1.57080,0.00001,-0.14512,-0.38002,0.04179,,,,,,,,,,,,,,,,,,,,,,,,,,0,0,0,0,0
3.2642,1783187668.5761,1,1,1.0000,0.0000,1.44681,0.21483,-2.78212,0.99645,1.57080,0.00001,-0.14512,-0.38002,0.04176,,,,,,,,,,,,,,,,,,,,,,,,,,0,0,0,0,0
3.2751,1783187668.5871,1,1,1.0000,0.0000,1.44681,0.21479,-2.78213,0.99650,1.57080,0.00001,-0.14512,-0.38002,0.04176,,,,,,,,,,,,,,,,,,,,,,,,,,0,0,0,0,0
3.2755,1783187668.5874,1,1,1.0000,0.0000,1.44681,0.21479,-2.78213,0.99650,1.57080,0.00001,-0.14512,-0.38002,0.04176,,,,,,,,,,,,,,,,,,,,,,,,,,0,0,0,0,0
3.2856,1783187668.5976,1,1,1.0000,0.0000,1.44681,0.21471,-2.78215,0.99660,1.57080,0.00001,-0.14512,-0.38002,0.04173,,,,,,,,,,,,,,,,,,,,,,,,,,0,0,0,0,0
3.2942,1783187668.6062,1,1,1.0000,0.0000,1.44681,0.21461,-2.78217,0.99673,1.57080,0.00001,-0.14512,-0.38002,0.04171,,,,,,,,,,,,,,,,,,,,,,,,,,0,0,0,0,0
3.2945,1783187668.6065,1,1,1.0000,0.0000,1.44681,0.21461,-2.78217,0.99673,1.57080,0.00001,-0.14512,-0.38002,0.04171,,,,,,,,,,,,,,,,,,,,,,,,,,0,0,0,0,0
3.3086,1783187668.6205,1,1,1.0000,0.0000,1.44681,0.21453,-2.78219,0.99683,1.57080,0.00001,-0.14512,-0.38002,0.04169,,,,,,,,,,,,,,,,,,,,,,,,,,0,0,0,0,0
3.3178,1783187668.6297,1,1,1.0000,0.0000,1.44681,0.21446,-2.78221,0.99691,1.57080,0.00002,-0.14512,-0.38002,0.04167,,,,,,,,,,,,,,,,,,,,,,,,,,0,0,0,0,0
3.3246,1783187668.6365,1,1,1.0000,0.0000,1.44681,0.21438,-2.78223,0.99702,1.57080,0.00002,-0.14512,-0.38002,0.04165,,,,,,,,,,,,,,,,,,,,,,,,,,0,0,0,0,0
3.3402,1783187668.6522,1,1,1.0000,0.0000,1.44681,0.21430,-2.78225,0.99711,1.57080,0.00002,-0.14512,-0.38002,0.04163,,,,,,,,,,,,,,,,,,,,,,,,,,0,0,0,0,0
3.3405,1783187668.6525,1,1,1.0000,0.0000,1.44681,0.21430,-2.78225,0.99711,1.57080,0.00002,-0.14512,-0.38002,0.04163,,,,,,,,,,,,,,,,,,,,,,,,,,0,0,0,0,0
3.3603,1783187668.6723,1,1,1.0000,0.0000,1.44681,0.21410,-2.78230,0.99737,1.57080,0.00002,-0.14512,-0.38002,0.04158,,,,,,,,,,,,,,,,,,,,,,,,,,0,0,0,0,0
3.3652,1783187668.6771,1,1,1.0000,0.0000,1.44681,0.21409,-2.78230,0.99738,1.57080,0.00002,-0.14512,-0.38002,0.04158,,,,,,,,,,,,,,,,,,,,,,,,,,0,0,0,0,0
3.3657,1783187668.6777,1,1,1.0000,0.0000,1.44681,0.21409,-2.78230,0.99738,1.57080,0.00002,-0.14512,-0.38002,0.04158,,,,,,,,,,,,,,,,,,,,,,,,,,0,0,0,0,0
3.3660,1783187668.6779,1,1,1.0000,0.0000,1.44681,0.21409,-2.78230,0.99738,1.57080,0.00002,-0.14512,-0.38002,0.04158,,,,,,,,,,,,,,,,,,,,,,,,,,0,0,0,0,0
3.3756,1783187668.6875,1,1,1.0000,0.0000,1.44681,0.21401,-2.78232,0.99748,1.57080,0.00002,-0.14512,-0.38002,0.04155,,,,,,,,,,,,,,,,,,,,,,,,,,0,0,0,0,0
3.3841,1783187668.6960,1,1,1.0000,0.0000,1.44681,0.21392,-2.78234,0.99758,1.57080,0.00002,-0.14512,-0.38002,0.04153,,,,,,,,,,,,,,,,,,,,,,,,,,0,0,0,0,0
3.3957,1783187668.7076,1,1,1.0000,0.0000,1.44681,0.21389,-2.78235,0.99763,1.57080,0.00002,-0.14512,-0.38002,0.04152,,,,,,,,,,,,,,,,,,,,,,,,,,0,0,0,0,0
3.4188,1783187668.7308,1,1,1.0000,0.0000,1.44681,0.21364,-2.78241,0.99794,1.57080,0.00002,-0.14512,-0.38002,0.04146,,,,,,,,,,,,,,,,,,,,,,,,,,0,0,0,0,0
3.4198,1783187668.7318,1,1,1.0000,0.0000,1.44681,0.21364,-2.78241,0.99794,1.57080,0.00002,-0.14512,-0.38002,0.04146,,,,,,,,,,,,,,,,,,,,,,,,,,0,0,0,0,0
3.4247,1783187668.7367,1,1,1.0000,0.0000,1.44681,0.21363,-2.78241,0.99794,1.57080,0.00002,-0.14512,-0.38002,0.04146,,,,,,,,,,,,,,,,,,,,,,,,,,0,0,0,0,0
3.4351,1783187668.7470,1,1,1.0000,0.0000,1.44681,0.21355,-2.78243,0.99805,1.57080,0.00002,-0.14512,-0.38002,0.04144,,,,,,,,,,,,,,,,,,,,,,,,,,0,0,0,0,0
3.4445,1783187668.7564,1,1,1.0000,0.0000,1.44681,0.21346,-2.78245,0.99815,1.57080,0.00002,-0.14512,-0.38002,0.04142,,,,,,,,,,,,,,,,,,,,,,,,,,0,0,0,0,0
3.4578,1783187668.7698,1,1,1.0000,0.0000,1.44681,0.21343,-2.78246,0.99820,1.57080,0.00002,-0.14512,-0.38002,0.04141,,,,,,,,,,,,,,,,,,,,,,,,,,0,0,0,0,0
3.4677,1783187668.7796,1,1,1.0000,0.0000,1.44681,0.21329,-2.78249,0.99837,1.57080,0.00002,-0.14512,-0.38002,0.04137,,,,,,,,,,,,,,,,,,,,,,,,,,0,0,0,0,0
3.4772,1783187668.7891,1,1,1.0000,0.0000,1.44681,0.21318,-2.78252,0.99851,1.57080,0.00002,-0.14512,-0.38002,0.04134,,,,,,,,,,,,,,,,,,,,,,,,,,0,0,0,0,0
3.4843,1783187668.7962,1,1,1.0000,0.0000,1.44681,0.21317,-2.78252,0.99851,1.57080,0.00002,-0.14512,-0.38002,0.04134,,,,,,,,,,,,,,,,,,,,,,,,,,0,0,0,0,0
3.4944,1783187668.8064,1,1,1.0000,0.0000,1.44681,0.21313,-2.78253,0.99857,1.57080,0.00002,-0.14512,-0.38002,0.04133,,,,,,,,,,,,,,,,,,,,,,,,,,0,0,0,0,0
3.4952,1783187668.8071,1,1,1.0000,0.0000,1.44681,0.21309,-2.78254,0.99861,1.57080,0.00002,-0.14512,-0.38002,0.04132,,,,,,,,,,,,,,,,,,,,,,,,,,0,0,0,0,0
3.5053,1783187668.8172,1,1,1.0000,0.0000,1.44681,0.21301,-2.78256,0.99872,1.57080,0.00002,-0.14512,-0.38002,0.04130,,,,,,,,,,,,,,,,,,,,,,,,,,0,0,0,0,0
3.5185,1783187668.8304,1,1,1.0000,0.0000,1.44681,0.21297,-2.78257,0.99877,1.57080,0.00002,-0.14512,-0.38002,0.04129,,,,,,,,,,,,,,,,,,,,,,,,,,0,0,0,0,0
3.5254,1783187668.8373,1,1,1.0000,0.0000,1.44681,0.21288,-2.78259,0.99887,1.57080,0.00002,-0.14512,-0.38002,0.04127,,,,,,,,,,,,,,,,,,,,,,,,,,0,0,0,0,0
3.5363,1783187668.8482,1,1,1.0000,0.0000,1.44681,0.21272,-2.78263,0.99907,1.57080,0.00002,-0.14512,-0.38002,0.04123,,,,,,,,,,,,,,,,,,,,,,,,,,0,0,0,0,0
3.5458,1783187668.8578,1,1,1.0000,0.0000,1.44681,0.21272,-2.78263,0.99908,1.57080,0.00002,-0.14512,-0.38002,0.04123,,,,,,,,,,,,,,,,,,,,,,,,,,0,0,0,0,0
3.5544,1783187668.8663,1,1,1.0000,0.0000,1.44681,0.21267,-2.78264,0.99914,1.57080,0.00002,-0.14512,-0.38002,0.04121,,,,,,,,,,,,,,,,,,,,,,,,,,0,0,0,0,0
3.5666,1783187668.8785,1,1,1.0000,0.0000,1.44681,0.21255,-2.78267,0.99929,1.57080,0.00002,-0.14512,-0.38002,0.04118,,,,,,,,,,,,,,,,,,,,,,,,,,0,0,0,0,0
3.5796,1783187668.8915,1,1,1.0000,0.0000,1.44681,0.21247,-2.78269,0.99938,1.57080,0.00002,-0.14512,-0.38002,0.04117,,,,,,,,,,,,,,,,,,,,,,,,,,0,0,0,0,0
3.5799,1783187668.8918,1,1,1.0000,0.0000,1.44681,0.21247,-2.78269,0.99938,1.57080,0.00002,-0.14512,-0.38002,0.04117,,,,,,,,,,,,,,,,,,,,,,,,,,0,0,0,0,0
3.5850,1783187668.8970,1,1,1.0000,0.0000,1.44681,0.21243,-2.78270,0.99944,1.57080,0.00002,-0.14512,-0.38002,0.04115,,,,,,,,,,,,,,,,,,,,,,,,,,0,0,0,0,0
3.5854,1783187668.8973,1,1,1.0000,0.0000,1.44681,0.21243,-2.78270,0.99944,1.57080,0.00002,-0.14512,-0.38002,0.04115,,,,,,,,,,,,,,,,,,,,,,,,,,0,0,0,0,0
3.5944,1783187668.9064,1,1,1.0000,0.0000,1.44681,0.21232,-2.78273,0.99958,1.57080,0.00002,-0.14512,-0.38002,0.04113,,,,,,,,,,,,,,,,,,,,,,,,,,0,0,0,0,0
3.5947,1783187668.9066,1,1,1.0000,0.0000,1.44681,0.21232,-2.78273,0.99958,1.57080,0.00002,-0.14512,-0.38002,0.04113,,,,,,,,,,,,,,,,,,,,,,,,,,0,0,0,0,0
3.6042,1783187668.9162,1,1,1.0000,0.0000,1.44681,0.21226,-2.78274,0.99965,1.57080,0.00002,-0.14512,-0.38002,0.04111,,,,,,,,,,,,,,,,,,,,,,,,,,0,0,0,0,0
3.6045,1783187668.9164,1,1,1.0000,0.0000,1.44681,0.21226,-2.78274,0.99965,1.57080,0.00002,-0.14512,-0.38002,0.04111,,,,,,,,,,,,,,,,,,,,,,,,,,0,0,0,0,0
3.6211,1783187668.9330,1,1,1.0000,0.0000,1.44681,0.21213,-2.78277,0.99980,1.57080,0.00002,-0.14512,-0.38002,0.04108,,,,,,,,,,,,,,,,,,,,,,,,,,0,0,0,0,0
3.6281,1783187668.9401,1,1,1.0000,0.0000,1.44681,0.21209,-2.78278,0.99986,1.57080,0.00002,-0.14512,-0.38002,0.04107,,,,,,,,,,,,,,,,,,,,,,,,,,0,0,0,0,0
3.6346,1783187668.9466,1,1,1.0000,0.0000,1.44681,0.21208,-2.78279,0.99987,1.57080,0.00002,-0.14512,-0.38002,0.04107,,,,,,,,,,,,,,,,,,,,,,,,,,0,0,0,0,0
3.6353,1783187668.9472,1,1,1.0000,0.0000,1.44681,0.21205,-2.78279,0.99991,1.57080,0.00002,-0.14512,-0.38002,0.04106,,,,,,,,,,,,,,,,,,,,,,,,,,0,0,0,0,0
3.6458,1783187668.9577,1,1,1.0000,0.0000,1.44681,0.21197,-2.78281,1.00001,1.57080,0.00002,-0.14512,-0.38002,0.04104,,,,,,,,,,,,,,,,,,,,,,,,,,0,0,0,0,0
3.6553,1783187668.9673,1,1,1.0000,0.0000,1.44681,0.21181,-2.78285,1.00021,1.57080,0.00002,-0.14512,-0.38002,0.04100,,,,,,,,,,,,,,,,,,,,,,,,,,0,0,0,0,0
3.6671,1783187668.9790,1,1,1.0000,0.0000,1.44681,0.21177,-2.78286,1.00026,1.57080,0.00002,-0.14512,-0.38002,0.04099,,,,,,,,,,,,,,,,,,,,,,,,,,0,0,0,0,0
3.6753,1783187668.9873,1,1,1.0000,0.0000,1.44681,0.21169,-2.78288,1.00036,1.57080,0.00002,-0.14512,-0.38002,0.04097,,,,,,,,,,,,,,,,,,,,,,,,,,0,0,0,0,0
3.6757,1783187668.9876,1,1,1.0000,0.0000,1.44681,0.21169,-2.78288,1.00036,1.57080,0.00002,-0.14512,-0.38002,0.04097,,,,,,,,,,,,,,,,,,,,,,,,,,0,0,0,0,0
3.6863,1783187668.9982,1,1,1.0000,0.0000,1.44681,0.21158,-2.78291,1.00049,1.57080,0.00002,-0.14512,-0.38002,0.04094,,,,,,,,,,,,,,,,,,,,,,,,,,0,0,0,0,0
3.6951,1783187669.0070,1,1,1.0000,0.0000,1.44681,0.21155,-2.78292,1.00053,1.57080,0.00002,-0.14512,-0.38002,0.04093,,,,,,,,,,,,,,,,,,,,,,,,,,0,0,0,0,0
3.7041,1783187669.0161,1,1,1.0000,0.0000,1.44681,0.21146,-2.78294,1.00064,1.57080,0.00002,-0.14512,-0.38002,0.04091,,,,,,,,,,,,,,,,,,,,,,,,,,0,0,0,0,0
3.7165,1783187669.0284,1,1,1.0000,0.0000,1.44681,0.21131,-2.78297,1.00083,1.57080,0.00002,-0.14512,-0.38002,0.04087,,,,,,,,,,,,,,,,,,,,,,,,,,0,0,0,0,0
3.7275,1783187669.0395,1,1,1.0000,0.0000,1.44681,0.21127,-2.78298,1.00088,1.57080,0.00002,-0.14512,-0.38002,0.04086,,,,,,,,,,,,,,,,,,,,,,,,,,0,0,0,0,0
3.7353,1783187669.0473,1,1,1.0000,0.0000,1.44681,0.21119,-2.78300,1.00098,1.57080,0.00002,-0.14512,-0.38002,0.04084,,,,,,,,,,,,,,,,,,,,,,,,,,0,0,0,0,0
3.7356,1783187669.0475,1,1,1.0000,0.0000,1.44681,0.21119,-2.78300,1.00098,1.57080,0.00002,-0.14512,-0.38002,0.04084,,,,,,,,,,,,,,,,,,,,,,,,,,0,0,0,0,0
3.7454,1783187669.0573,1,1,1.0000,0.0000,1.44681,0.21108,-2.78303,1.00111,1.57080,0.00002,-0.14512,-0.38002,0.04081,,,,,,,,,,,,,,,,,,,,,,,,,,0,0,0,0,0
3.7546,1783187669.0665,1,1,1.0000,0.0000,1.44681,0.21107,-2.78303,1.00112,1.57080,0.00002,-0.14512,-0.38002,0.04081,,,,,,,,,,,,,,,,,,,,,,,,,,0,0,0,0,0
3.7549,1783187669.0669,1,1,1.0000,0.0000,1.44681,0.21107,-2.78303,1.00112,1.57080,0.00002,-0.14512,-0.38002,0.04081,,,,,,,,,,,,,,,,,,,,,,,,,,0,0,0,0,0
3.7666,1783187669.0785,1,1,1.0000,0.0000,1.44681,0.21096,-2.78306,1.00126,1.57080,0.00002,-0.14512,-0.38002,0.04078,,,,,,,,,,,,,,,,,,,,,,,,,,0,0,0,0,0
3.7673,1783187669.0792,1,1,1.0000,0.0000,1.44681,0.21091,-2.78307,1.00132,1.57080,0.00002,-0.14512,-0.38002,0.04077,,,,,,,,,,,,,,,,,,,,,,,,,,0,0,0,0,0
3.7752,1783187669.0871,1,1,1.0000,0.0000,1.44681,0.21081,-2.78310,1.00146,1.57080,0.00002,-0.14512,-0.38002,0.04074,,,,,,,,,,,,,,,,,,,,,,,,,,0,0,0,0,0
3.7844,1783187669.0964,1,1,1.0000,0.0000,1.44681,0.21080,-2.78310,1.00147,1.57080,0.00002,-0.14512,-0.38002,0.04074,,,,,,,,,,,,,,,,,,,,,,,,,,0,0,0,0,0
3.7984,1783187669.1104,1,1,1.0000,0.0000,1.44681,0.21069,-2.78312,1.00160,1.57080,0.00002,-0.14512,-0.38002,0.04071,,,,,,,,,,,,,,,,,,,,,,,,,,0,0,0,0,0
3.8059,1783187669.1178,1,1,1.0000,0.0000,1.44681,0.21058,-2.78315,1.00173,1.57080,0.00002,-0.14512,-0.38002,0.04069,,,,,,,,,,,,,,,,,,,,,,,,,,0,0,0,0,0
3.8063,1783187669.1182,1,1,1.0000,0.0000,1.44681,0.21058,-2.78315,1.00173,1.57080,0.00002,-0.14512,-0.38002,0.04069,,,,,,,,,,,,,,,,,,,,,,,,,,0,0,0,0,0
3.8186,1783187669.1305,1,1,1.0000,0.0000,1.44681,0.21055,-2.78316,1.00178,1.57080,0.00002,-0.14512,-0.38002,0.04068,,,,,,,,,,,,,,,,,,,,,,,,,,0,0,0,0,0
3.8252,1783187669.1372,1,1,1.0000,0.0000,1.44681,0.21046,-2.78318,1.00188,1.57080,0.00002,-0.14512,-0.38002,0.04066,,,,,,,,,,,,,,,,,,,,,,,,,,0,0,0,0,0
3.8342,1783187669.1461,1,1,1.0000,0.0000,1.44681,0.21036,-2.78320,1.00201,1.57080,0.00002,-0.14512,-0.38002,0.04063,,,,,,,,,,,,,,,,,,,,,,,,,,0,0,0,0,0
3.8513,1783187669.1633,1,1,1.0000,0.0000,1.44681,0.21023,-2.78323,1.00217,1.57080,0.00002,-0.14512,-0.38002,0.04060,,,,,,,,,,,,,,,,,,,,,,,,,,0,0,0,0,0
3.8516,1783187669.1635,1,1,1.0000,0.0000,1.44681,0.21023,-2.78323,1.00217,1.57080,0.00002,-0.14512,-0.38002,0.04060,,,,,,,,,,,,,,,,,,,,,,,,,,0,0,0,0,0
3.8912,1783187669.2032,1,1,1.0000,0.0000,1.44681,0.20986,-2.78333,1.00263,1.57080,0.00002,-0.14512,-0.38002,0.04050,,,,,,,,,,,,,,,,,,,,,,,,,,0,0,0,0,0
3.9562,1783187669.2681,1,1,1.0000,0.0000,1.44680,0.20930,-2.78346,1.00332,1.57079,0.00002,-0.14512,-0.38002,0.04036,,,,,,,,,,,,,,,,,,,,,,,,,,0,0,0,0,0
3.9611,1783187669.2730,1,1,1.0000,0.0000,1.44680,0.20930,-2.78346,1.00332,1.57079,0.00002,-0.14512,-0.38002,0.04036,,,,,,,,,,,,,,,,,,,,,,,,,,0,0,0,0,0
3.9615,1783187669.2734,1,1,1.0000,0.0000,1.44680,0.20930,-2.78346,1.00332,1.57079,0.00002,-0.14512,-0.38002,0.04036,,,,,,,,,,,,,,,,,,,,,,,,,,0,0,0,0,0
3.9619,1783187669.2738,1,1,1.0000,0.0000,1.44680,0.20930,-2.78346,1.00332,1.57079,0.00002,-0.14512,-0.38002,0.04036,,,,,,,,,,,,,,,,,,,,,,,,,,0,0,0,0,0
3.9622,1783187669.2742,1,1,1.0000,0.0000,1.44680,0.20930,-2.78346,1.00332,1.57079,0.00002,-0.14512,-0.38002,0.04036,,,,,,,,,,,,,,,,,,,,,,,,,,0,0,0,0,0
3.9626,1783187669.2746,1,1,1.0000,0.0000,1.44680,0.20930,-2.78346,1.00332,1.57079,0.00002,-0.14512,-0.38002,0.04036,,,,,,,,,,,,,,,,,,,,,,,,,,0,0,0,0,0
3.9633,1783187669.2753,1,1,1.0000,0.0000,1.44680,0.20929,-2.78346,1.00333,1.57079,0.00002,-0.14512,-0.38002,0.04036,,,,,,,,,,,,,,,,,,,,,,,,,,0,0,0,0,0
3.9636,1783187669.2756,1,1,1.0000,0.0000,1.44680,0.20929,-2.78346,1.00333,1.57079,0.00002,-0.14512,-0.38002,0.04036,,,,,,,,,,,,,,,,,,,,,,,,,,0,0,0,0,0
3.9693,1783187669.2812,1,1,1.0000,0.0000,1.44680,0.20927,-2.78347,1.00336,1.57079,0.00002,-0.14512,-0.38002,0.04035,,,,,,,,,,,,,,,,,,,,,,,,,,0,0,0,0,0
3.9761,1783187669.2880,1,1,1.0000,0.0000,1.44680,0.20918,-2.78349,1.00347,1.57079,0.00002,-0.14512,-0.38002,0.04033,,,,,,,,,,,,,,,,,,,,,,,,,,0,0,0,0,0
3.9967,1783187669.3086,1,1,1.0000,0.0000,1.44680,0.20902,-2.78353,1.00367,1.57079,0.00002,-0.14512,-0.38002,0.04029,,,,,,,,,,,,,,,,,,,,,,,,,,0,0,0,0,0
3.9969,1783187669.3089,1,1,1.0000,0.0000,1.44680,0.20902,-2.78353,1.00367,1.57079,0.00002,-0.14512,-0.38002,0.04029,,,,,,,,,,,,,,,,,,,,,,,,,,0,0,0,0,0
4.0020,1783187669.3140,1,1,1.0000,0.0000,1.44680,0.20900,-2.78353,1.00370,1.57079,0.00002,-0.14512,-0.38002,0.04029,,,,,,,,,,,,,,,,,,,,,,,,,,0,0,0,0,0
4.0023,1783187669.3143,1,1,1.0000,0.0000,1.44680,0.20900,-2.78353,1.00370,1.57079,0.00002,-0.14512,-0.38002,0.04029,,,,,,,,,,,,,,,,,,,,,,,,,,0,0,0,0,0
4.0040,1783187669.3159,1,1,1.0000,0.0000,1.44680,0.20897,-2.78354,1.00373,1.57079,0.00002,-0.14512,-0.38002,0.04028,,,,,,,,,,,,,,,,,,,,,,,,,,0,0,0,0,0
4.0043,1783187669.3162,1,1,1.0000,0.0000,1.44680,0.20897,-2.78354,1.00373,1.57079,0.00002,-0.14512,-0.38002,0.04028,,,,,,,,,,,,,,,,,,,,,,,,,,0,0,0,0,0
4.0143,1783187669.3262,1,1,1.0000,0.0000,1.44680,0.20889,-2.78356,1.00383,1.57079,0.00002,-0.14512,-0.38002,0.04026,,,,,,,,,,,,,,,,,,,,,,,,,,0,0,0,0,0
4.0146,1783187669.3265,1,1,1.0000,0.0000,1.44680,0.20889,-2.78356,1.00383,1.57079,0.00002,-0.14512,-0.38002,0.04026,,,,,,,,,,,,,,,,,,,,,,,,,,0,0,0,0,0
4.0312,1783187669.3431,1,1,1.0000,0.0000,1.44680,0.20877,-2.78359,1.00398,1.57079,0.00002,-0.14512,-0.38002,0.04023,,,,,,,,,,,,,,,,,,,,,,,,,,0,0,0,0,0
4.0374,1783187669.3494,1,1,1.0000,0.0000,1.44680,0.20872,-2.78360,1.00404,1.57079,0.00002,-0.14512,-0.38002,0.04022,,,,,,,,,,,,,,,,,,,,,,,,,,0,0,0,0,0
4.0460,1783187669.3580,1,1,1.0000,0.0000,1.44680,0.20861,-2.78362,1.00417,1.57079,0.00002,-0.14512,-0.38002,0.04019,,,,,,,,,,,,,,,,,,,,,,,,,,0,0,0,0,0
4.0553,1783187669.3673,1,1,1.0000,0.0000,1.44680,0.20856,-2.78364,1.00425,1.57079,0.00002,-0.14512,-0.38002,0.04017,,,,,,,,,,,,,,,,,,,,,,,,,,0,0,0,0,0
4.0653,1783187669.3773,1,1,1.0000,0.0000,1.44680,0.20851,-2.78365,1.00430,1.57079,0.00002,-0.14512,-0.38002,0.04016,,,,,,,,,,,,,,,,,,,,,,,,,,0,0,0,0,0
4.0753,1783187669.3872,1,1,1.0000,0.0000,1.44680,0.20839,-2.78368,1.00446,1.57079,0.00002,-0.14512,-0.38002,0.04013,,,,,,,,,,,,,,,,,,,,,,,,,,0,0,0,0,0
4.0847,1783187669.3967,1,1,1.0000,0.0000,1.44680,0.20838,-2.78368,1.00447,1.57079,0.00002,-0.14512,-0.38002,0.04013,,,,,,,,,,,,,,,,,,,,,,,,,,0,0,0,0,0
4.0959,1783187669.4078,1,1,1.0000,0.0000,1.44680,0.20826,-2.78371,1.00461,1.57079,0.00002,-0.14512,-0.38002,0.04010,,,,,,,,,,,,,,,,,,,,,,,,,,0,0,0,0,0
4.1047,1783187669.4166,1,1,1.0000,0.0000,1.44680,0.20815,-2.78373,1.00474,1.57079,0.00002,-0.14512,-0.38002,0.04007,,,,,,,,,,,,,,,,,,,,,,,,,,0,0,0,0,0
4.1143,1783187669.4262,1,1,1.0000,0.0000,1.44680,0.20810,-2.78375,1.00481,1.57079,0.00002,-0.14512,-0.38002,0.04006,,,,,,,,,,,,,,,,,,,,,,,,,,0,0,0,0,0
4.1147,1783187669.4267,1,1,1.0000,0.0000,1.44680,0.20810,-2.78375,1.00481,1.57079,0.00002,-0.14512,-0.38002,0.04006,,,,,,,,,,,,,,,,,,,,,,,,,,0,0,0,0,0
4.1275,1783187669.4394,1,1,1.0000,0.0000,1.44680,0.20801,-2.78377,1.00492,1.57079,0.00002,-0.14512,-0.38002,0.04004,,,,,,,,,,,,,,,,,,,,,,,,,,0,0,0,0,0
4.1343,1783187669.4462,1,1,1.0000,0.0000,1.44680,0.20797,-2.78378,1.00497,1.57079,0.00002,-0.14512,-0.38002,0.04003,,,,,,,,,,,,,,,,,,,,,,,,,,0,0,0,0,0
4.1448,1783187669.4568,1,1,1.0000,0.0000,1.44680,0.20792,-2.78379,1.00504,1.57079,0.00002,-0.14512,-0.38002,0.04001,,,,,,,,,,,,,,,,,,,,,,,,,,0,0,0,0,0
4.1451,1783187669.4570,1,1,1.0000,0.0000,1.44680,0.20792,-2.78379,1.00504,1.57079,0.00002,-0.14512,-0.38002,0.04001,,,,,,,,,,,,,,,,,,,,,,,,,,0,0,0,0,0
4.1576,1783187669.4696,1,1,1.0000,0.0000,1.44680,0.20780,-2.78382,1.00518,1.57079,0.00002,-0.14512,-0.38002,0.03998,,,,,,,,,,,,,,,,,,,,,,,,,,0,0,0,0,0
4.1579,1783187669.4698,1,1,1.0000,0.0000,1.44680,0.20780,-2.78382,1.00518,1.57079,0.00002,-0.14512,-0.38002,0.03998,,,,,,,,,,,,,,,,,,,,,,,,,,0,0,0,0,0
4.1642,1783187669.4761,1,1,1.0000,0.0000,1.44680,0.20769,-2.78384,1.00532,1.57079,0.00002,-0.14512,-0.38002,0.03996,,,,,,,,,,,,,,,,,,,,,,,,,,0,0,0,0,0
4.1646,1783187669.4765,1,1,1.0000,0.0000,1.44680,0.20769,-2.78384,1.00532,1.57079,0.00002,-0.14512,-0.38002,0.03996,,,,,,,,,,,,,,,,,,,,,,,,,,0,0,0,0,0
4.1781,1783187669.4901,1,1,1.0000,0.0000,1.44680,0.20763,-2.78386,1.00539,1.57079,0.00002,-0.14512,-0.38002,0.03994,,,,,,,,,,,,,,,,,,,,,,,,,,0,0,0,0,0
4.1918,1783187669.5038,1,1,1.0000,0.0000,1.44680,0.20751,-2.78389,1.00554,1.57079,0.00002,-0.14512,-0.38002,0.03991,,,,,,,,,,,,,,,,,,,,,,,,,,0,0,0,0,0
4.1981,1783187669.5100,1,1,1.0000,0.0000,1.44680,0.20746,-2.78390,1.00560,1.57079,0.00002,-0.14512,-0.38002,0.03990,,,,,,,,,,,,,,,,,,,,,,,,,,0,0,0,0,0
4.2088,1783187669.5207,1,1,1.0000,0.0000,1.44680,0.20743,-2.78391,1.00564,1.57079,0.00002,-0.14512,-0.38002,0.03989,,,,,,,,,,,,,,,,,,,,,,,,,,0,0,0,0,0
4.2093,1783187669.5212,1,1,1.0000,0.0000,1.44680,0.20743,-2.78391,1.00564,1.57079,0.00002,-0.14512,-0.38002,0.03989,,,,,,,,,,,,,,,,,,,,,,,,,,0,0,0,0,0
4.2187,1783187669.5306,1,1,1.0000,0.0000,1.44680,0.20734,-2.78393,1.00575,1.57079,0.00002,-0.14512,-0.38002,0.03987,,,,,,,,,,,,,,,,,,,,,,,,,,0,0,0,0,0
4.2380,1783187669.5500,1,1,1.0000,0.0000,1.44680,0.20717,-2.78397,1.00596,1.57079,0.00002,-0.14512,-0.38002,0.03982,,,,,,,,,,,,,,,,,,,,,,,,,,0,0,0,0,0
4.2384,1783187669.5504,1,1,1.0000,0.0000,1.44680,0.20717,-2.78397,1.00596,1.57079,0.00002,-0.14512,-0.38002,0.03982,,,,,,,,,,,,,,,,,,,,,,,,,,0,0,0,0,0
4.2387,1783187669.5506,1,1,1.0000,0.0000,1.44680,0.20717,-2.78397,1.00596,1.57079,0.00002,-0.14512,-0.38002,0.03982,,,,,,,,,,,,,,,,,,,,,,,,,,0,0,0,0,0
4.2392,1783187669.5511,1,1,1.0000,0.0000,1.44680,0.20715,-2.78397,1.00598,1.57079,0.00002,-0.14512,-0.38002,0.03982,,,,,,,,,,,,,,,,,,,,,,,,,,0,0,0,0,0
4.2480,1783187669.5599,1,1,1.0000,0.0000,1.44680,0.20709,-2.78399,1.00606,1.57079,0.00002,-0.14512,-0.38002,0.03980,,,,,,,,,,,,,,,,,,,,,,,,,,0,0,0,0,0
4.2484,1783187669.5603,1,1,1.0000,0.0000,1.44680,0.20709,-2.78399,1.00606,1.57079,0.00002,-0.14512,-0.38002,0.03980,,,,,,,,,,,,,,,,,,,,,,,,,,0,0,0,0,0
4.2626,1783187669.5745,1,1,1.0000,0.0000,1.44680,0.20700,-2.78401,1.00617,1.57079,0.00002,-0.14512,-0.38002,0.03978,,,,,,,,,,,,,,,,,,,,,,,,,,0,0,0,0,0
4.2634,1783187669.5753,1,1,1.0000,0.0000,1.44680,0.20699,-2.78401,1.00618,1.57079,0.00002,-0.14512,-0.38002,0.03978,,,,,,,,,,,,,,,,,,,,,,,,,,0,0,0,0,0
4.2713,1783187669.5832,1,1,1.0000,0.0000,1.44680,0.20693,-2.78403,1.00627,1.57079,0.00002,-0.14512,-0.38002,0.03976,,,,,,,,,,,,,,,,,,,,,,,,,,0,0,0,0,0
4.2840,1783187669.5960,1,1,1.0000,0.0000,1.44680,0.20677,-2.78407,1.00646,1.57079,0.00002,-0.14512,-0.38002,0.03972,,,,,,,,,,,,,,,,,,,,,,,,,,0,0,0,0,0
4.2962,1783187669.6082,1,1,1.0000,0.0000,1.44680,0.20671,-2.78408,1.00653,1.57079,0.00002,-0.14512,-0.38002,0.03971,,,,,,,,,,,,,,,,,,,,,,,,,,0,0,0,0,0
4.2965,1783187669.6084,1,1,1.0000,0.0000,1.44680,0.20671,-2.78408,1.00653,1.57079,0.00002,-0.14512,-0.38002,0.03971,,,,,,,,,,,,,,,,,,,,,,,,,,0,0,0,0,0
4.2984,1783187669.6104,1,1,1.0000,0.0000,1.44680,0.20671,-2.78408,1.00653,1.57079,0.00002,-0.14512,-0.38002,0.03971,,,,,,,,,,,,,,,,,,,,,,,,,,0,0,0,0,0
4.2992,1783187669.6111,1,1,1.0000,0.0000,1.44680,0.20669,-2.78408,1.00656,1.57079,0.00002,-0.14512,-0.38002,0.03970,,,,,,,,,,,,,,,,,,,,,,,,,,0,0,0,0,0
4.3095,1783187669.6215,1,1,1.0000,0.0000,1.44680,0.20663,-2.78410,1.00664,1.57079,0.00002,-0.14512,-0.38002,0.03969,,,,,,,,,,,,,,,,,,,,,,,,,,0,0,0,0,0
4.3098,1783187669.6218,1,1,1.0000,0.0000,1.44680,0.20663,-2.78410,1.00664,1.57079,0.00002,-0.14512,-0.38002,0.03969,,,,,,,,,,,,,,,,,,,,,,,,,,0,0,0,0,0
4.3184,1783187669.6303,1,1,1.0000,0.0000,1.44680,0.20654,-2.78412,1.00674,1.57079,0.00002,-0.14512,-0.38002,0.03967,,,,,,,,,,,,,,,,,,,,,,,,,,0,0,0,0,0
4.3318,1783187669.6437,1,1,1.0000,0.0000,1.44680,0.20647,-2.78414,1.00684,1.57079,0.00002,-0.14512,-0.38002,0.03965,,,,,,,,,,,,,,,,,,,,,,,,,,0,0,0,0,0
4.3395,1783187669.6515,1,1,1.0000,0.0000,1.44680,0.20636,-2.78416,1.00696,1.57079,0.00002,-0.14512,-0.38002,0.03962,,,,,,,,,,,,,,,,,,,,,,,,,,0,0,0,0,0
4.3399,1783187669.6519,1,1,1.0000,0.0000,1.44680,0.20636,-2.78416,1.00696,1.57079,0.00002,-0.14512,-0.38002,0.03962,,,,,,,,,,,,,,,,,,,,,,,,,,0,0,0,0,0
4.3484,1783187669.6603,1,1,1.0000,0.0000,1.44680,0.20625,-2.78419,1.00710,1.57079,0.00002,-0.14512,-0.38002,0.03959,,,,,,,,,,,,,,,,,,,,,,,,,,0,0,0,0,0
4.3488,1783187669.6607,1,1,1.0000,0.0000,1.44680,0.20625,-2.78419,1.00710,1.57079,0.00002,-0.14512,-0.38002,0.03959,,,,,,,,,,,,,,,,,,,,,,,,,,0,0,0,0,0
4.3636,1783187669.6755,1,1,1.0000,0.0000,1.44680,0.20618,-2.78421,1.00719,1.57079,0.00002,-0.14512,-0.38002,0.03958,,,,,,,,,,,,,,,,,,,,,,,,,,0,0,0,0,0
4.3692,1783187669.6811,1,1,1.0000,0.0000,1.44680,0.20614,-2.78422,1.00725,1.57079,0.00002,-0.14512,-0.38002,0.03956,,,,,,,,,,,,,,,,,,,,,,,,,,0,0,0,0,0
4.3695,1783187669.6814,1,1,1.0000,0.0000,1.44680,0.20614,-2.78422,1.00725,1.57079,0.00002,-0.14512,-0.38002,0.03956,,,,,,,,,,,,,,,,,,,,,,,,,,0,0,0,0,0
4.3818,1783187669.6937,1,1,1.0000,0.0000,1.44680,0.20603,-2.78424,1.00738,1.57079,0.00002,-0.14512,-0.38002,0.03954,,,,,,,,,,,,,,,,,,,,,,,,,,0,0,0,0,0
4.3888,1783187669.7008,1,1,1.0000,0.0000,1.44680,0.20599,-2.78425,1.00742,1.57079,0.00002,-0.14512,-0.38002,0.03953,,,,,,,,,,,,,,,,,,,,,,,,,,0,0,0,0,0
4.3892,1783187669.7011,1,1,1.0000,0.0000,1.44680,0.20599,-2.78425,1.00742,1.57079,0.00002,-0.14512,-0.38002,0.03953,,,,,,,,,,,,,,,,,,,,,,,,,,0,0,0,0,0
4.3990,1783187669.7109,1,1,1.0000,0.0000,1.44680,0.20586,-2.78428,1.00759,1.57079,0.00002,-0.14512,-0.38002,0.03949,,,,,,,,,,,,,,,,,,,,,,,,,,0,0,0,0,0
4.4122,1783187669.7242,1,1,1.0000,0.0000,1.44680,0.20575,-2.78431,1.00772,1.57079,0.00002,-0.14512,-0.38002,0.03947,,,,,,,,,,,,,,,,,,,,,,,,,,0,0,0,0,0
4.4127,1783187669.7247,1,1,1.0000,0.0000,1.44680,0.20575,-2.78431,1.00772,1.57079,0.00002,-0.14512,-0.38002,0.03947,,,,,,,,,,,,,,,,,,,,,,,,,,0,0,0,0,0
4.4181,1783187669.7301,1,1,1.0000,0.0000,1.44680,0.20574,-2.78431,1.00773,1.57079,0.00002,-0.14512,-0.38002,0.03946,,,,,,,,,,,,,,,,,,,,,,,,,,0,0,0,0,0
4.4281,1783187669.7401,1,1,1.0000,0.0000,1.44680,0.20563,-2.78434,1.00787,1.57079,0.00002,-0.14512,-0.38002,0.03944,,,,,,,,,,,,,,,,,,,,,,,,,,0,0,0,0,0
4.4402,1783187669.7521,1,1,1.0000,0.0000,1.44680,0.20552,-2.78436,1.00800,1.57079,0.00002,-0.14512,-0.38002,0.03941,,,,,,,,,,,,,,,,,,,,,,,,,,0,0,0,0,0
4.4501,1783187669.7620,1,1,1.0000,0.0000,1.44680,0.20549,-2.78437,1.00805,1.57079,0.00002,-0.14512,-0.38002,0.03940,,,,,,,,,,,,,,,,,,,,,,,,,,0,0,0,0,0
4.4680,1783187669.7800,1,1,1.0000,0.0000,1.44680,0.20525,-2.78443,1.00835,1.57079,0.00002,-0.14512,-0.38002,0.03934,,,,,,,,,,,,,,,,,,,,,,,,,,0,0,0,0,0
4.4685,1783187669.7804,1,1,1.0000,0.0000,1.44680,0.20525,-2.78443,1.00835,1.57079,0.00002,-0.14512,-0.38002,0.03934,,,,,,,,,,,,,,,,,,,,,,,,,,0,0,0,0,0
4.4688,1783187669.7807,1,1,1.0000,0.0000,1.44680,0.20525,-2.78443,1.00835,1.57079,0.00002,-0.14512,-0.38002,0.03934,,,,,,,,,,,,,,,,,,,,,,,,,,0,0,0,0,0
4.4814,1783187669.7934,1,1,1.0000,0.0000,1.44680,0.20521,-2.78444,1.00839,1.57079,0.00002,-0.14512,-0.38002,0.03933,,,,,,,,,,,,,,,,,,,,,,,,,,0,0,0,0,0
4.4914,1783187669.8034,1,1,1.0000,0.0000,1.44680,0.20507,-2.78447,1.00856,1.57079,0.00002,-0.14512,-0.38002,0.03930,,,,,,,,,,,,,,,,,,,,,,,,,,0,0,0,0,0
4.4919,1783187669.8039,1,1,1.0000,0.0000,1.44680,0.20507,-2.78447,1.00856,1.57079,0.00002,-0.14512,-0.38002,0.03930,,,,,,,,,,,,,,,,,,,,,,,,,,0,0,0,0,0
4.5012,1783187669.8132,1,1,1.0000,0.0000,1.44680,0.20502,-2.78448,1.00863,1.57079,0.00002,-0.14512,-0.38002,0.03928,,,,,,,,,,,,,,,,,,,,,,,,,,0,0,0,0,0
4.5195,1783187669.8315,1,1,1.0000,0.0000,1.44680,0.20485,-2.78452,1.00884,1.57079,0.00002,-0.14512,-0.38002,0.03924,,,,,,,,,,,,,,,,,,,,,,,,,,0,0,0,0,0
4.5198,1783187669.8318,1,1,1.0000,0.0000,1.44680,0.20485,-2.78452,1.00884,1.57079,0.00002,-0.14512,-0.38002,0.03924,,,,,,,,,,,,,,,,,,,,,,,,,,0,0,0,0,0
4.5365,1783187669.8484,1,1,1.0000,0.0000,1.44680,0.20473,-2.78455,1.00898,1.57079,0.00002,-0.14512,-0.38002,0.03921,,,,,,,,,,,,,,,,,,,,,,,,,,0,0,0,0,0
4.5479,1783187669.8599,1,1,1.0000,0.0000,1.44680,0.20462,-2.78458,1.00912,1.57079,0.00002,-0.14512,-0.38002,0.03918,,,,,,,,,,,,,,,,,,,,,,,,,,0,0,0,0,0
4.5483,1783187669.8603,1,1,1.0000,0.0000,1.44680,0.20462,-2.78458,1.00912,1.57079,0.00002,-0.14512,-0.38002,0.03918,,,,,,,,,,,,,,,,,,,,,,,,,,0,0,0,0,0
4.5607,1783187669.8727,1,1,1.0000,0.0000,1.44680,0.20451,-2.78460,1.00925,1.57079,0.00002,-0.14512,-0.38002,0.03916,,,,,,,,,,,,,,,,,,,,,,,,,,0,0,0,0,0
4.5687,1783187669.8807,1,1,1.0000,0.0000,1.44680,0.20446,-2.78462,1.00932,1.57079,0.00002,-0.14512,-0.38002,0.03914,,,,,,,,,,,,,,,,,,,,,,,,,,0,0,0,0,0
4.5837,1783187669.8957,1,1,1.0000,0.0000,1.44680,0.20437,-2.78464,1.00943,1.57079,0.00002,-0.14512,-0.38002,0.03912,,,,,,,,,,,,,,,,,,,,,,,,,,0,0,0,0,0
4.5908,1783187669.9028,1,1,1.0000,0.0000,1.44680,0.20433,-2.78465,1.00948,1.57079,0.00002,-0.14512,-0.38002,0.03911,,,,,,,,,,,,,,,,,,,,,,,,,,0,0,0,0,0
4.6040,1783187669.9159,1,1,1.0000,0.0000,1.44680,0.20425,-2.78466,1.00958,1.57079,0.00002,-0.14512,-0.38002,0.03909,,,,,,,,,,,,,,,,,,,,,,,,,,0,0,0,0,0
4.6097,1783187669.9217,1,1,1.0000,0.0000,1.44680,0.20420,-2.78468,1.00964,1.57079,0.00002,-0.14512,-0.38002,0.03908,,,,,,,,,,,,,,,,,,,,,,,,,,0,0,0,0,0
4.6223,1783187669.9342,1,1,1.0000,0.0000,1.44680,0.20409,-2.78470,1.00978,1.57079,0.00002,-0.14512,-0.38002,0.03905,,,,,,,,,,,,,,,,,,,,,,,,,,0,0,0,0,0
4.6318,1783187669.9437,1,1,1.0000,0.0000,1.44680,0.20402,-2.78472,1.00987,1.57079,0.00002,-0.14512,-0.38002,0.03903,,,,,,,,,,,,,,,,,,,,,,,,,,0,0,0,0,0
4.6455,1783187669.9574,1,1,1.0000,0.0000,1.44680,0.20387,-2.78476,1.01005,1.57079,0.00002,-0.14512,-0.38002,0.03899,,,,,,,,,,,,,,,,,,,,,,,,,,0,0,0,0,0
4.6483,1783187669.9602,1,1,1.0000,0.0000,1.44680,0.20381,-2.78477,1.01012,1.57079,0.00002,-0.14512,-0.38002,0.03898,,,,,,,,,,,,,,,,,,,,,,,,,,0,0,0,0,0
4.6486,1783187669.9606,1,1,1.0000,0.0000,1.44680,0.20381,-2.78477,1.01012,1.57079,0.00002,-0.14512,-0.38002,0.03898,,,,,,,,,,,,,,,,,,,,,,,,,,0,0,0,0,0
4.6580,1783187669.9700,1,1,1.0000,0.0000,1.44680,0.20380,-2.78477,1.01013,1.57079,0.00002,-0.14512,-0.38002,0.03898,,,,,,,,,,,,,,,,,,,,,,,,,,0,0,0,0,0
4.6696,1783187669.9815,1,1,1.0000,0.0000,1.44680,0.20369,-2.78480,1.01027,1.57079,0.00002,-0.14512,-0.38002,0.03895,,,,,,,,,,,,,,,,,,,,,,,,,,0,0,0,0,0
4.6783,1783187669.9902,1,1,1.0000,0.0000,1.44680,0.20359,-2.78482,1.01040,1.57079,0.00002,-0.14512,-0.38002,0.03892,,,,,,,,,,,,,,,,,,,,,,,,,,0,0,0,0,0
4.6902,1783187670.0022,1,1,1.0000,0.0000,1.44680,0.20355,-2.78483,1.01044,1.57079,0.00002,-0.14512,-0.38002,0.03891,,,,,,,,,,,,,,,,,,,,,,,,,,0,0,0,0,0
4.7287,1783187670.0407,1,1,1.0000,0.0000,1.44680,0.20319,-2.78492,1.01089,1.57079,0.00002,-0.14512,-0.38002,0.03882,,,,,,,,,,,,,,,,,,,,,,,,,,0,0,0,0,0
4.7290,1783187670.0410,1,1,1.0000,0.0000,1.44680,0.20319,-2.78492,1.01089,1.57079,0.00002,-0.14512,-0.38002,0.03882,,,,,,,,,,,,,,,,,,,,,,,,,,0,0,0,0,0
4.7293,1783187670.0413,1,1,1.0000,0.0000,1.44680,0.20319,-2.78492,1.01089,1.57079,0.00002,-0.14512,-0.38002,0.03882,,,,,,,,,,,,,,,,,,,,,,,,,,0,0,0,0,0
4.7488,1783187670.0607,1,1,1.0000,0.0000,1.44680,0.20302,-2.78496,1.01110,1.57079,0.00002,-0.14512,-0.38002,0.03878,,,,,,,,,,,,,,,,,,,,,,,,,,0,0,0,0,0
4.7491,1783187670.0610,1,1,1.0000,0.0000,1.44680,0.20302,-2.78496,1.01110,1.57079,0.00002,-0.14512,-0.38002,0.03878,,,,,,,,,,,,,,,,,,,,,,,,,,0,0,0,0,0
4.7493,1783187670.0613,1,1,1.0000,0.0000,1.44680,0.20302,-2.78496,1.01110,1.57079,0.00002,-0.14512,-0.38002,0.03878,,,,,,,,,,,,,,,,,,,,,,,,,,0,0,0,0,0
4.7496,1783187670.0616,1,1,1.0000,0.0000,1.44680,0.20302,-2.78496,1.01110,1.57079,0.00002,-0.14512,-0.38002,0.03878,,,,,,,,,,,,,,,,,,,,,,,,,,0,0,0,0,0
4.7579,1783187670.0699,1,1,1.0000,0.0000,1.44680,0.20297,-2.78497,1.01116,1.57079,0.00002,-0.14512,-0.38002,0.03877,,,,,,,,,,,,,,,,,,,,,,,,,,0,0,0,0,0
4.7682,1783187670.0801,1,1,1.0000,0.0000,1.44680,0.20285,-2.78500,1.01131,1.57079,0.00002,-0.14512,-0.38002,0.03874,,,,,,,,,,,,,,,,,,,,,,,,,,0,0,0,0,0
4.7787,1783187670.0906,1,1,1.0000,0.0000,1.44680,0.20284,-2.78500,1.01132,1.57079,0.00002,-0.14512,-0.38002,0.03874,,,,,,,,,,,,,,,,,,,,,,,,,,0,0,0,0,0
4.7791,1783187670.0910,1,1,1.0000,0.0000,1.44680,0.20284,-2.78500,1.01132,1.57079,0.00002,-0.14512,-0.38002,0.03874,,,,,,,,,,,,,,,,,,,,,,,,,,0,0,0,0,0
4.7917,1783187670.1036,1,1,1.0000,0.0000,1.44680,0.20267,-2.78504,1.01153,1.57079,0.00002,-0.14512,-0.38002,0.03869,,,,,,,,,,,,,,,,,,,,,,,,,,0,0,0,0,0
4.8085,1783187670.1204,1,1,1.0000,0.0000,1.44680,0.20255,-2.78507,1.01167,1.57079,0.00002,-0.14512,-0.38002,0.03867,,,,,,,,,,,,,,,,,,,,,,,,,,0,0,0,0,0
4.8108,1783187670.1228,1,1,1.0000,0.0000,1.44680,0.20255,-2.78507,1.01167,1.57079,0.00002,-0.14512,-0.38002,0.03867,,,,,,,,,,,,,,,,,,,,,,,,,,0,0,0,0,0
4.8112,1783187670.1232,1,1,1.0000,0.0000,1.44680,0.20255,-2.78507,1.01167,1.57079,0.00002,-0.14512,-0.38002,0.03867,,,,,,,,,,,,,,,,,,,,,,,,,,0,0,0,0,0
4.8215,1783187670.1334,1,1,1.0000,0.0000,1.44680,0.20247,-2.78509,1.01178,1.57079,0.00002,-0.14512,-0.38002,0.03864,,,,,,,,,,,,,,,,,,,,,,,,,,0,0,0,0,0
4.8362,1783187670.1481,1,1,1.0000,0.0000,1.44680,0.20237,-2.78511,1.01190,1.57079,0.00002,-0.14512,-0.38002,0.03862,,,,,,,,,,,,,,,,,,,,,,,,,,0,0,0,0,0
4.8429,1783187670.1549,1,1,1.0000,0.0000,1.44680,0.20235,-2.78511,1.01193,1.57079,0.00002,-0.14512,-0.38002,0.03861,,,,,,,,,,,,,,,,,,,,,,,,,,0,0,0,0,0
4.8515,1783187670.1635,1,1,1.0000,0.0000,1.44680,0.20221,-2.78515,1.01211,1.57079,0.00002,-0.14512,-0.38002,0.03858,,,,,,,,,,,,,,,,,,,,,,,,,,0,0,0,0,0
4.8637,1783187670.1757,1,1,1.0000,0.0000,1.44680,0.20210,-2.78517,1.01224,1.57079,0.00002,-0.14512,-0.38002,0.03855,,,,,,,,,,,,,,,,,,,,,,,,,,0,0,0,0,0
4.8764,1783187670.1883,1,1,1.0000,0.0000,1.44680,0.20204,-2.78519,1.01231,1.57079,0.00002,-0.14512,-0.38002,0.03854,,,,,,,,,,,,,,,,,,,,,,,,,,0,0,0,0,0
4.8817,1783187670.1936,1,1,1.0000,0.0000,1.44680,0.20201,-2.78519,1.01235,1.57079,0.00002,-0.14512,-0.38002,0.03853,,,,,,,,,,,,,,,,,,,,,,,,,,0,0,0,0,0
4.8921,1783187670.2040,1,1,1.0000,0.0000,1.44680,0.20192,-2.78522,1.01246,1.57079,0.00002,-0.14512,-0.38002,0.03851,,,,,,,,,,,,,,,,,,,,,,,,,,0,0,0,0,0
4.8926,1783187670.2046,1,1,1.0000,0.0000,1.44680,0.20192,-2.78522,1.01246,1.57079,0.00002,-0.14512,-0.38002,0.03851,,,,,,,,,,,,,,,,,,,,,,,,,,0,0,0,0,0
4.9168,1783187670.2287,1,1,1.0000,0.0000,1.44680,0.20169,-2.78527,1.01275,1.57079,0.00002,-0.14512,-0.38001,0.03845,,,,,,,,,,,,,,,,,,,,,,,,,,0,0,0,0,0
4.9171,1783187670.2290,1,1,1.0000,0.0000,1.44680,0.20169,-2.78527,1.01275,1.57079,0.00002,-0.14512,-0.38001,0.03845,,,,,,,,,,,,,,,,,,,,,,,,,,0,0,0,0,0
4.9241,1783187670.2360,1,1,1.0000,0.0000,1.44680,0.20163,-2.78528,1.01281,1.57079,0.00002,-0.14512,-0.38001,0.03843,,,,,,,,,,,,,,,,,,,,,,,,,,0,0,0,0,0
4.9244,1783187670.2364,1,1,1.0000,0.0000,1.44680,0.20163,-2.78528,1.01281,1.57079,0.00002,-0.14512,-0.38001,0.03843,,,,,,,,,,,,,,,,,,,,,,,,,,0,0,0,0,0
4.9326,1783187670.2446,1,1,1.0000,0.0000,1.44680,0.20161,-2.78529,1.01285,1.57079,0.00002,-0.14512,-0.38001,0.03843,,,,,,,,,,,,,,,,,,,,,,,,,,0,0,0,0,0
4.9448,1783187670.2567,1,1,1.0000,0.0000,1.44680,0.20150,-2.78531,1.01298,1.57079,0.00003,-0.14512,-0.38001,0.03840,,,,,,,,,,,,,,,,,,,,,,,,,,0,0,0,0,0
4.9806,1783187670.2926,1,1,1.0000,0.0000,1.44680,0.20117,-2.78539,1.01339,1.57079,0.00003,-0.14512,-0.38001,0.03832,,,,,,,,,,,,,,,,,,,,,,,,,,0,0,0,0,0
4.9811,1783187670.2930,1,1,1.0000,0.0000,1.44680,0.20117,-2.78539,1.01339,1.57079,0.00003,-0.14512,-0.38001,0.03832,,,,,,,,,,,,,,,,,,,,,,,,,,0,0,0,0,0
4.9814,1783187670.2934,1,1,1.0000,0.0000,1.44680,0.20117,-2.78539,1.01339,1.57079,0.00003,-0.14512,-0.38001,0.03832,,,,,,,,,,,,,,,,,,,,,,,,,,0,0,0,0,0
5.0133,1783187670.3252,1,1,1.0000,0.0000,1.44680,0.20099,-2.78543,1.01361,1.57079,0.00003,-0.14512,-0.38001,0.03827,,,,,,,,,,,,,,,,,,,,,,,,,,0,0,0,0,0
5.0161,1783187670.3280,1,1,1.0000,0.0000,1.44680,0.20098,-2.78544,1.01362,1.57079,0.00003,-0.14512,-0.38001,0.03827,,,,,,,,,,,,,,,,,,,,,,,,,,0,0,0,0,0
5.0165,1783187670.3284,1,1,1.0000,0.0000,1.44680,0.20098,-2.78544,1.01362,1.57079,0.00003,-0.14512,-0.38001,0.03827,,,,,,,,,,,,,,,,,,,,,,,,,,0,0,0,0,0
5.0231,1783187670.3350,1,1,1.0000,0.0000,1.44680,0.20095,-2.78544,1.01365,1.57079,0.00003,-0.14512,-0.38001,0.03826,,,,,,,,,,,,,,,,,,,,,,,,,,0,0,0,0,0
5.0268,1783187670.3388,1,1,1.0000,0.0000,1.44680,0.20091,-2.78545,1.01370,1.57079,0.00003,-0.14512,-0.38001,0.03825,,,,,,,,,,,,,,,,,,,,,,,,,,0,0,0,0,0
5.0279,1783187670.3399,1,1,1.0000,0.0000,1.44680,0.20086,-2.78546,1.01376,1.57079,0.00003,-0.14512,-0.38001,0.03824,,,,,,,,,,,,,,,,,,,,,,,,,,0,0,0,0,0
5.0338,1783187670.3457,1,1,1.0000,0.0000,1.44680,0.20081,-2.78548,1.01383,1.57079,0.00003,-0.14512,-0.38001,0.03823,,,,,,,,,,,,,,,,,,,,,,,,,,0,0,0,0,0
5.0342,1783187670.3462,1,1,1.0000,0.0000,1.44680,0.20081,-2.78548,1.01383,1.57079,0.00003,-0.14512,-0.38001,0.03823,,,,,,,,,,,,,,,,,,,,,,,,,,0,0,0,0,0
5.0367,1783187670.3486,1,1,1.0000,0.0000,1.44680,0.20075,-2.78549,1.01390,1.57079,0.00003,-0.14512,-0.38001,0.03822,,,,,,,,,,,,,,,,,,,,,,,,,,0,0,0,0,0
5.0416,1783187670.3536,1,1,1.0000,0.0000,1.44680,0.20070,-2.78550,1.01396,1.57079,0.00003,-0.14512,-0.38001,0.03820,,,,,,,,,,,,,,,,,,,,,,,,,,0,0,0,0,0
5.0540,1783187670.3659,1,1,1.0000,0.0000,1.44680,0.20068,-2.78551,1.01400,1.57079,0.00003,-0.14512,-0.38001,0.03820,,,,,,,,,,,,,,,,,,,,,,,,,,0,0,0,0,0
5.0639,1783187670.3758,1,1,1.0000,0.0000,1.44680,0.20057,-2.78553,1.01413,1.57079,0.00003,-0.14512,-0.38001,0.03817,,,,,,,,,,,,,,,,,,,,,,,,,,0,0,0,0,0
5.0762,1783187670.3882,1,1,1.0000,0.0000,1.44680,0.20051,-2.78555,1.01420,1.57079,0.00003,-0.14512,-0.38001,0.03816,,,,,,,,,,,,,,,,,,,,,,,,,,0,0,0,0,0
5.0837,1783187670.3957,1,1,1.0000,0.0000,1.44680,0.20049,-2.78555,1.01423,1.57079,0.00003,-0.14512,-0.38001,0.03815,,,,,,,,,,,,,,,,,,,,,,,,,,0,0,0,0,0
5.0963,1783187670.4082,1,1,1.0000,0.0000,1.44680,0.20029,-2.78560,1.01447,1.57079,0.00003,-0.14512,-0.38001,0.03810,,,,,,,,,,,,,,,,,,,,,,,,,,0,0,0,0,0
5.1025,1783187670.4145,1,1,1.0000,0.0000,1.44680,0.20023,-2.78561,1.01454,1.57079,0.00003,-0.14512,-0.38001,0.03809,,,,,,,,,,,,,,,,,,,,,,,,,,0,0,0,0,0
5.1168,1783187670.4288,1,1,1.0000,0.0000,1.44680,0.20018,-2.78562,1.01461,1.57079,0.00003,-0.14512,-0.38001,0.03807,,,,,,,,,,,,,,,,,,,,,,,,,,0,0,0,0,0
5.1213,1783187670.4332,1,1,1.0000,0.0000,1.44680,0.20014,-2.78563,1.01465,1.57079,0.00003,-0.14512,-0.38001,0.03806,,,,,,,,,,,,,,,,,,,,,,,,,,0,0,0,0,0
5.1215,1783187670.4335,1,1,1.0000,0.0000,1.44680,0.20014,-2.78563,1.01465,1.57079,0.00003,-0.14512,-0.38001,0.03806,,,,,,,,,,,,,,,,,,,,,,,,,,0,0,0,0,0
5.1327,1783187670.4446,1,1,1.0000,0.0000,1.44680,0.20006,-2.78565,1.01476,1.57079,0.00003,-0.14512,-0.38001,0.03804,,,,,,,,,,,,,,,,,,,,,,,,,,0,0,0,0,0
5.1449,1783187670.4568,1,1,1.0000,0.0000,1.44680,0.19998,-2.78567,1.01485,1.57079,0.00003,-0.14512,-0.38001,0.03802,,,,,,,,,,,,,,,,,,,,,,,,,,0,0,0,0,0
5.1570,1783187670.4690,1,1,1.0000,0.0000,1.44680,0.19982,-2.78571,1.01505,1.57079,0.00003,-0.14512,-0.38001,0.03798,,,,,,,,,,,,,,,,,,,,,,,,,,0,0,0,0,0
5.1633,1783187670.4752,1,1,1.0000,0.0000,1.44680,0.19977,-2.78572,1.01512,1.57079,0.00003,-0.14512,-0.38001,0.03797,,,,,,,,,,,,,,,,,,,,,,,,,,0,0,0,0,0
5.1636,1783187670.4756,1,1,1.0000,0.0000,1.44680,0.19977,-2.78572,1.01512,1.57079,0.00003,-0.14512,-0.38001,0.03797,,,,,,,,,,,,,,,,,,,,,,,,,,0,0,0,0,0
5.1717,1783187670.4837,1,1,1.0000,0.0000,1.44680,0.19976,-2.78572,1.01512,1.57079,0.00003,-0.14512,-0.38001,0.03797,,,,,,,,,,,,,,,,,,,,,,,,,,0,0,0,0,0
5.1882,1783187670.5001,1,1,1.0000,0.0000,1.44680,0.19959,-2.78576,1.01533,1.57079,0.00003,-0.14512,-0.38001,0.03792,,,,,,,,,,,,,,,,,,,,,,,,,,0,0,0,0,0
5.1884,1783187670.5004,1,1,1.0000,0.0000,1.44680,0.19959,-2.78576,1.01533,1.57079,0.00003,-0.14512,-0.38001,0.03792,,,,,,,,,,,,,,,,,,,,,,,,,,0,0,0,0,0
5.2043,1783187670.5162,1,1,1.0000,0.0000,1.44680,0.19951,-2.78578,1.01543,1.57079,0.00003,-0.14512,-0.38001,0.03791,,,,,,,,,,,,,,,,,,,,,,,,,,0,0,0,0,0
5.2190,1783187670.5309,1,1,1.0000,0.0000,1.44680,0.19936,-2.78582,1.01562,1.57079,0.00003,-0.14512,-0.38001,0.03787,,,,,,,,,,,,,,,,,,,,,,,,,,0,0,0,0,0
5.2198,1783187670.5317,1,1,1.0000,0.0000,1.44680,0.19930,-2.78583,1.01569,1.57079,0.00003,-0.14512,-0.38001,0.03785,,,,,,,,,,,,,,,,,,,,,,,,,,0,0,0,0,0
5.2200,1783187670.5319,1,1,1.0000,0.0000,1.44680,0.19930,-2.78583,1.01569,1.57079,0.00003,-0.14512,-0.38001,0.03785,,,,,,,,,,,,,,,,,,,,,,,,,,0,0,0,0,0
5.2231,1783187670.5351,1,1,1.0000,0.0000,1.44680,0.19930,-2.78583,1.01569,1.57079,0.00003,-0.14512,-0.38001,0.03785,,,,,,,,,,,,,,,,,,,,,,,,,,0,0,0,0,0
5.2236,1783187670.5355,1,1,1.0000,0.0000,1.44680,0.19930,-2.78583,1.01569,1.57079,0.00003,-0.14512,-0.38001,0.03785,,,,,,,,,,,,,,,,,,,,,,,,,,0,0,0,0,0
5.2323,1783187670.5443,1,1,1.0000,0.0000,1.44680,0.19927,-2.78584,1.01573,1.57079,0.00003,-0.14512,-0.38001,0.03784,,,,,,,,,,,,,,,,,,,,,,,,,,0,0,0,0,0
5.2432,1783187670.5551,1,1,1.0000,0.0000,1.44680,0.19918,-2.78586,1.01584,1.57079,0.00003,-0.14512,-0.38001,0.03782,,,,,,,,,,,,,,,,,,,,,,,,,,0,0,0,0,0
5.2576,1783187670.5695,1,1,1.0000,0.0000,1.44680,0.19906,-2.78588,1.01598,1.57079,0.00003,-0.14512,-0.38001,0.03779,,,,,,,,,,,,,,,,,,,,,,,,,,0,0,0,0,0
5.2579,1783187670.5698,1,1,1.0000,0.0000,1.44680,0.19906,-2.78588,1.01598,1.57079,0.00003,-0.14512,-0.38001,0.03779,,,,,,,,,,,,,,,,,,,,,,,,,,0,0,0,0,0
5.2626,1783187670.5745,1,1,1.0000,0.0000,1.44680,0.19904,-2.78589,1.01601,1.57079,0.00003,-0.14512,-0.38001,0.03779,,,,,,,,,,,,,,,,,,,,,,,,,,0,0,0,0,0
5.2763,1783187670.5882,1,1,1.0000,0.0000,1.44680,0.19885,-2.78594,1.01625,1.57079,0.00003,-0.14512,-0.38001,0.03774,,,,,,,,,,,,,,,,,,,,,,,,,,0,0,0,0,0
5.2766,1783187670.5885,1,1,1.0000,0.0000,1.44680,0.19885,-2.78594,1.01625,1.57079,0.00003,-0.14512,-0.38001,0.03774,,,,,,,,,,,,,,,,,,,,,,,,,,0,0,0,0,0
5.2814,1783187670.5934,1,1,1.0000,0.0000,1.44680,0.19879,-2.78595,1.01632,1.57079,0.00003,-0.14512,-0.38001,0.03773,,,,,,,,,,,,,,,,,,,,,,,,,,0,0,0,0,0
5.2915,1783187670.6035,1,1,1.0000,0.0000,1.44680,0.19878,-2.78595,1.01633,1.57079,0.00003,-0.14512,-0.38001,0.03772,,,,,,,,,,,,,,,,,,,,,,,,,,0,0,0,0,0
5.2923,1783187670.6042,1,1,1.0000,0.0000,1.44680,0.19876,-2.78596,1.01636,1.57079,0.00003,-0.14512,-0.38001,0.03772,,,,,,,,,,,,,,,,,,,,,,,,,,0,0,0,0,0
5.3032,1783187670.6152,1,1,1.0000,0.0000,1.44680,0.19867,-2.78598,1.01647,1.57079,0.00003,-0.14512,-0.38001,0.03770,,,,,,,,,,,,,,,,,,,,,,,,,,0,0,0,0,0
5.3123,1783187670.6242,1,1,1.0000,0.0000,1.44680,0.19856,-2.78600,1.01660,1.57079,0.00003,-0.14512,-0.38001,0.03767,,,,,,,,,,,,,,,,,,,,,,,,,,0,0,0,0,0
5.3224,1783187670.6343,1,1,1.0000,0.0000,1.44680,0.19853,-2.78601,1.01664,1.57079,0.00003,-0.14512,-0.38001,0.03766,,,,,,,,,,,,,,,,,,,,,,,,,,0,0,0,0,0
5.3342,1783187670.6461,1,1,1.0000,0.0000,1.44680,0.19839,-2.78604,1.01681,1.57079,0.00003,-0.14512,-0.38001,0.03763,,,,,,,,,,,,,,,,,,,,,,,,,,0,0,0,0,0
5.3488,1783187670.6608,1,1,1.0000,0.0000,1.44680,0.19827,-2.78607,1.01696,1.57079,0.00003,-0.14512,-0.38001,0.03760,,,,,,,,,,,,,,,,,,,,,,,,,,0,0,0,0,0
5.3615,1783187670.6734,1,1,1.0000,0.0000,1.44680,0.19816,-2.78610,1.01710,1.57079,0.00003,-0.14512,-0.38001,0.03757,,,,,,,,,,,,,,,,,,,,,,,,,,0,0,0,0,0
5.3619,1783187670.6739,1,1,1.0000,0.0000,1.44680,0.19816,-2.78610,1.01710,1.57079,0.00003,-0.14512,-0.38001,0.03757,,,,,,,,,,,,,,,,,,,,,,,,,,0,0,0,0,0
5.3724,1783187670.6843,1,1,1.0000,0.0000,1.44680,0.19805,-2.78612,1.01723,1.57079,0.00003,-0.14512,-0.38001,0.03754,,,,,,,,,,,,,,,,,,,,,,,,,,0,0,0,0,0
5.3815,1783187670.6935,1,1,1.0000,0.0000,1.44680,0.19802,-2.78613,1.01727,1.57079,0.00003,-0.14512,-0.38001,0.03753,,,,,,,,,,,,,,,,,,,,,,,,,,0,0,0,0,0
5.3926,1783187670.7045,1,1,1.0000,0.0000,1.44680,0.19788,-2.78616,1.01744,1.57079,0.00003,-0.14512,-0.38001,0.03750,,,,,,,,,,,,,,,,,,,,,,,,,,0,0,0,0,0
