Martins-Lucaas/twinforge/sensors/Data/20260704_153541__samples.csv
t_rel_s,t_unix,cycle,phase,setpoint_n,force_net_n,q1,q2,q3,q4,q5,q6,tcp_x,tcp_y,tcp_z,taxel_0,taxel_1,taxel_2,taxel_3,taxel_4,taxel_5,taxel_6,taxel_7,taxel_8,taxel_9,taxel_10,taxel_11,taxel_12,taxel_13,taxel_14,taxel_15,taxel_16,taxel_17,taxel_18,taxel_19,taxel_20,taxel_21,taxel_22,taxel_23,taxel_24,n_RA,n_SA,cn_mm,cn_ra,cn_sa
0.0033,1783190141.4287,1,0,3.0000,0.0000,1.44682,0.23328,-2.77748,0.97337,1.57080,-0.00000,-0.14512,-0.38003,0.04653,,,,,,,,,,,,,,,,,,,,,,,,,,0,0,0,0,0
0.0150,1783190141.4405,1,0,3.0000,0.0000,1.44682,0.23328,-2.77748,0.97337,1.57080,-0.00000,-0.14512,-0.38003,0.04653,,,,,,,,,,,,,,,,,,,,,,,,,,0,0,0,0,0
0.0251,1783190141.4506,1,0,3.0000,0.0000,1.44682,0.23328,-2.77748,0.97337,1.57080,-0.00000,-0.14512,-0.38003,0.04653,,,,,,,,,,,,,,,,,,,,,,,,,,0,0,0,0,0
0.0310,1783190141.4564,1,0,3.0000,0.0000,1.44682,0.23328,-2.77748,0.97337,1.57080,-0.00000,-0.14512,-0.38003,0.04653,,,,,,,,,,,,,,,,,,,,,,,,,,0,0,0,0,0
0.0416,1783190141.4671,1,0,3.0000,0.0000,1.44682,0.23328,-2.77748,0.97337,1.57080,-0.00000,-0.14512,-0.38003,0.04653,,,,,,,,,,,,,,,,,,,,,,,,,,0,0,0,0,0
0.0515,1783190141.4770,1,0,3.0000,0.0000,1.44682,0.23328,-2.77748,0.97337,1.57080,-0.00000,-0.14512,-0.38003,0.04653,,,,,,,,,,,,,,,,,,,,,,,,,,0,0,0,0,0
0.0719,1783190141.4974,1,0,3.0000,0.0000,1.44682,0.23328,-2.77748,0.97337,1.57080,-0.00000,-0.14512,-0.38003,0.04653,,,,,,,,,,,,,,,,,,,,,,,,,,0,0,0,0,0
0.0725,1783190141.4979,1,0,3.0000,0.0000,1.44682,0.23328,-2.77748,0.97337,1.57080,-0.00000,-0.14512,-0.38003,0.04653,,,,,,,,,,,,,,,,,,,,,,,,,,0,0,0,0,0
0.0808,1783190141.5062,1,0,3.0000,0.0000,1.44682,0.23328,-2.77748,0.97337,1.57080,-0.00000,-0.14512,-0.38003,0.04653,,,,,,,,,,,,,,,,,,,,,,,,,,0,0,0,0,0
0.0920,1783190141.5175,1,0,3.0000,0.0000,1.44682,0.23328,-2.77748,0.97337,1.57080,-0.00000,-0.14512,-0.38003,0.04653,,,,,,,,,,,,,,,,,,,,,,,,,,0,0,0,0,0
0.1025,1783190141.5279,1,0,3.0000,0.0000,1.44682,0.23328,-2.77748,0.97337,1.57080,-0.00000,-0.14512,-0.38003,0.04653,,,,,,,,,,,,,,,,,,,,,,,,,,0,0,0,0,0
0.1175,1783190141.5429,1,0,3.0000,0.0000,1.44682,0.23328,-2.77748,0.97337,1.57080,0.00000,-0.14512,-0.38003,0.04653,,,,,,,,,,,,,,,,,,,,,,,,,,0,0,0,0,0
0.1227,1783190141.5481,1,0,3.0000,0.0000,1.44682,0.23328,-2.77748,0.97337,1.57080,0.00000,-0.14512,-0.38003,0.04653,,,,,,,,,,,,,,,,,,,,,,,,,,0,0,0,0,0
0.1353,1783190141.5608,1,0,3.0000,0.0000,1.44682,0.23328,-2.77748,0.97337,1.57080,0.00000,-0.14512,-0.38003,0.04653,,,,,,,,,,,,,,,,,,,,,,,,,,0,0,0,0,0
0.1413,1783190141.5667,1,0,3.0000,0.0000,1.44682,0.23328,-2.77748,0.97337,1.57080,0.00000,-0.14512,-0.38003,0.04653,,,,,,,,,,,,,,,,,,,,,,,,,,0,0,0,0,0
0.1417,1783190141.5672,1,0,3.0000,0.0000,1.44682,0.23328,-2.77748,0.97337,1.57080,0.00000,-0.14512,-0.38003,0.04653,,,,,,,,,,,,,,,,,,,,,,,,,,0,0,0,0,0
0.1534,1783190141.5788,1,0,3.0000,0.0000,1.44682,0.23328,-2.77748,0.97337,1.57080,0.00000,-0.14512,-0.38003,0.04653,,,,,,,,,,,,,,,,,,,,,,,,,,0,0,0,0,0
0.1608,1783190141.5862,1,0,3.0000,0.0000,1.44682,0.23328,-2.77748,0.97337,1.57080,0.00000,-0.14512,-0.38003,0.04653,,,,,,,,,,,,,,,,,,,,,,,,,,0,0,0,0,0
0.1785,1783190141.6040,1,0,3.0000,0.0000,1.44682,0.23328,-2.77748,0.97337,1.57080,0.00000,-0.14512,-0.38003,0.04653,,,,,,,,,,,,,,,,,,,,,,,,,,0,0,0,0,0
0.1806,1783190141.6060,1,0,3.0000,0.0000,1.44682,0.23328,-2.77748,0.97337,1.57080,0.00000,-0.14512,-0.38003,0.04653,,,,,,,,,,,,,,,,,,,,,,,,,,0,0,0,0,0
0.1939,1783190141.6193,1,0,3.0000,0.0000,1.44682,0.23328,-2.77748,0.97337,1.57080,0.00000,-0.14512,-0.38003,0.04653,,,,,,,,,,,,,,,,,,,,,,,,,,0,0,0,0,0
0.2025,1783190141.6279,1,0,3.0000,0.0000,1.44682,0.23328,-2.77748,0.97337,1.57080,0.00000,-0.14512,-0.38003,0.04653,,,,,,,,,,,,,,,,,,,,,,,,,,0,0,0,0,0
0.2138,1783190141.6392,1,0,3.0000,0.0000,1.44682,0.23328,-2.77748,0.97337,1.57080,0.00000,-0.14512,-0.38003,0.04653,,,,,,,,,,,,,,,,,,,,,,,,,,0,0,0,0,0
0.2226,1783190141.6481,1,0,3.0000,0.0000,1.44682,0.23328,-2.77748,0.97337,1.57080,0.00000,-0.14512,-0.38003,0.04653,,,,,,,,,,,,,,,,,,,,,,,,,,0,0,0,0,0
0.2358,1783190141.6613,1,0,3.0000,0.0000,1.44682,0.23328,-2.77748,0.97337,1.57080,0.00000,-0.14512,-0.38003,0.04653,,,,,,,,,,,,,,,,,,,,,,,,,,0,0,0,0,0
0.2415,1783190141.6670,1,0,3.0000,0.0000,1.44682,0.23328,-2.77748,0.97337,1.57080,0.00000,-0.14512,-0.38003,0.04653,,,,,,,,,,,,,,,,,,,,,,,,,,0,0,0,0,0
0.2418,1783190141.6673,1,0,3.0000,0.0000,1.44682,0.23328,-2.77748,0.97337,1.57080,0.00000,-0.14512,-0.38003,0.04653,,,,,,,,,,,,,,,,,,,,,,,,,,0,0,0,0,0
0.2506,1783190141.6761,1,0,3.0000,0.0000,1.44682,0.23328,-2.77748,0.97337,1.57080,0.00000,-0.14512,-0.38003,0.04653,,,,,,,,,,,,,,,,,,,,,,,,,,0,0,0,0,0
0.2510,1783190141.6765,1,0,3.0000,0.0000,1.44682,0.23328,-2.77748,0.97337,1.57080,0.00000,-0.14512,-0.38003,0.04653,,,,,,,,,,,,,,,,,,,,,,,,,,0,0,0,0,0
0.2616,1783190141.6870,1,0,3.0000,0.0000,1.44682,0.23328,-2.77748,0.97337,1.57080,0.00000,-0.14512,-0.38003,0.04653,,,,,,,,,,,,,,,,,,,,,,,,,,0,0,0,0,0
0.2813,1783190141.7067,1,0,3.0000,0.0000,1.44682,0.23328,-2.77748,0.97337,1.57080,0.00000,-0.14512,-0.38003,0.04653,,,,,,,,,,,,,,,,,,,,,,,,,,0,0,0,0,0
0.2831,1783190141.7085,1,0,3.0000,0.0000,1.44682,0.23328,-2.77748,0.97337,1.57080,0.00000,-0.14512,-0.38003,0.04653,,,,,,,,,,,,,,,,,,,,,,,,,,0,0,0,0,0
0.2909,1783190141.7164,1,0,3.0000,0.0000,1.44682,0.23328,-2.77748,0.97337,1.57080,0.00000,-0.14512,-0.38003,0.04653,,,,,,,,,,,,,,,,,,,,,,,,,,0,0,0,0,0
0.3021,1783190141.7275,1,0,3.0000,0.0000,1.44682,0.23328,-2.77748,0.97337,1.57080,0.00000,-0.14512,-0.38003,0.04653,,,,,,,,,,,,,,,,,,,,,,,,,,0,0,0,0,0
0.3114,1783190141.7368,1,0,3.0000,0.0000,1.44682,0.23328,-2.77748,0.97337,1.57080,0.00000,-0.14512,-0.38003,0.04653,,,,,,,,,,,,,,,,,,,,,,,,,,0,0,0,0,0
0.3227,1783190141.7481,1,0,3.0000,0.0000,1.44682,0.23328,-2.77748,0.97337,1.57080,0.00000,-0.14512,-0.38003,0.04653,,,,,,,,,,,,,,,,,,,,,,,,,,0,0,0,0,0
0.3315,1783190141.7570,1,0,3.0000,0.0000,1.44682,0.23328,-2.77748,0.97337,1.57080,0.00000,-0.14512,-0.38003,0.04653,,,,,,,,,,,,,,,,,,,,,,,,,,0,0,0,0,0
0.3406,1783190141.7660,1,0,3.0000,0.0000,1.44682,0.23328,-2.77748,0.97337,1.57080,0.00000,-0.14512,-0.38003,0.04653,,,,,,,,,,,,,,,,,,,,,,,,,,0,0,0,0,0
0.3409,1783190141.7664,1,0,3.0000,0.0000,1.44682,0.23328,-2.77748,0.97337,1.57080,0.00000,-0.14512,-0.38003,0.04653,,,,,,,,,,,,,,,,,,,,,,,,,,0,0,0,0,0
0.3535,1783190141.7789,1,0,3.0000,0.0000,1.44682,0.23328,-2.77748,0.97337,1.57080,0.00000,-0.14512,-0.38003,0.04653,,,,,,,,,,,,,,,,,,,,,,,,,,0,0,0,0,0
0.3607,1783190141.7862,1,0,3.0000,0.0000,1.44682,0.23328,-2.77748,0.97337,1.57080,0.00000,-0.14512,-0.38003,0.04653,,,,,,,,,,,,,,,,,,,,,,,,,,0,0,0,0,0
0.3788,1783190141.8042,1,0,3.0000,0.0000,1.44682,0.23328,-2.77748,0.97337,1.57080,0.00000,-0.14512,-0.38003,0.04653,,,,,,,,,,,,,,,,,,,,,,,,,,0,0,0,0,0
0.3790,1783190141.8044,1,0,3.0000,0.0000,1.44682,0.23328,-2.77748,0.97337,1.57080,0.00000,-0.14512,-0.38003,0.04653,,,,,,,,,,,,,,,,,,,,,,,,,,0,0,0,0,0
0.3850,1783190141.8104,1,0,3.0000,0.0000,1.44682,0.23328,-2.77748,0.97337,1.57080,0.00000,-0.14512,-0.38003,0.04653,,,,,,,,,,,,,,,,,,,,,,,,,,0,0,0,0,0
0.3951,1783190141.8206,1,0,3.0000,0.0000,1.44682,0.23328,-2.77748,0.97337,1.57080,0.00000,-0.14512,-0.38003,0.04653,,,,,,,,,,,,,,,,,,,,,,,,,,0,0,0,0,0
0.3962,1783190141.8217,1,0,3.0000,0.0000,1.44682,0.23328,-2.77748,0.97337,1.57080,0.00000,-0.14512,-0.38003,0.04653,,,,,,,,,,,,,,,,,,,,,,,,,,0,0,0,0,0
0.4009,1783190141.8263,1,0,3.0000,0.0000,1.44682,0.23328,-2.77748,0.97337,1.57080,0.00000,-0.14512,-0.38003,0.04653,,,,,,,,,,,,,,,,,,,,,,,,,,0,0,0,0,0
0.4012,1783190141.8266,1,0,3.0000,0.0000,1.44682,0.23328,-2.77748,0.97337,1.57080,0.00000,-0.14512,-0.38003,0.04653,,,,,,,,,,,,,,,,,,,,,,,,,,0,0,0,0,0
0.4247,1783190141.8501,1,0,3.0000,0.0000,1.44682,0.23328,-2.77748,0.97337,1.57080,0.00000,-0.14512,-0.38003,0.04653,,,,,,,,,,,,,,,,,,,,,,,,,,0,0,0,0,0
0.4250,1783190141.8505,1,0,3.0000,0.0000,1.44682,0.23328,-2.77748,0.97337,1.57080,0.00000,-0.14512,-0.38003,0.04653,,,,,,,,,,,,,,,,,,,,,,,,,,0,0,0,0,0
0.4271,1783190141.8525,1,0,3.0000,0.0000,1.44682,0.23328,-2.77748,0.97337,1.57080,0.00000,-0.14512,-0.38003,0.04653,,,,,,,,,,,,,,,,,,,,,,,,,,0,0,0,0,0
0.4275,1783190141.8529,1,0,3.0000,0.0000,1.44682,0.23328,-2.77748,0.97337,1.57080,0.00000,-0.14512,-0.38003,0.04653,,,,,,,,,,,,,,,,,,,,,,,,,,0,0,0,0,0
0.4351,1783190141.8605,1,0,3.0000,0.0000,1.44682,0.23328,-2.77748,0.97337,1.57080,0.00000,-0.14512,-0.38003,0.04653,,,,,,,,,,,,,,,,,,,,,,,,,,0,0,0,0,0
0.4406,1783190141.8660,1,0,3.0000,0.0000,1.44682,0.23328,-2.77748,0.97337,1.57080,0.00000,-0.14512,-0.38003,0.04653,,,,,,,,,,,,,,,,,,,,,,,,,,0,0,0,0,0
0.4605,1783190141.8860,1,0,3.0000,0.0000,1.44682,0.23328,-2.77748,0.97337,1.57080,0.00000,-0.14512,-0.38003,0.04653,,,,,,,,,,,,,,,,,,,,,,,,,,0,0,0,0,0
0.4618,1783190141.8873,1,0,3.0000,0.0000,1.44682,0.23328,-2.77748,0.97337,1.57080,0.00000,-0.14512,-0.38003,0.04653,,,,,,,,,,,,,,,,,,,,,,,,,,0,0,0,0,0
0.4722,1783190141.8976,1,0,3.0000,0.0000,1.44682,0.23328,-2.77748,0.97337,1.57080,0.00000,-0.14512,-0.38003,0.04653,,,,,,,,,,,,,,,,,,,,,,,,,,0,0,0,0,0
0.4725,1783190141.8979,1,0,3.0000,0.0000,1.44682,0.23328,-2.77748,0.97337,1.57080,0.00000,-0.14512,-0.38003,0.04653,,,,,,,,,,,,,,,,,,,,,,,,,,0,0,0,0,0
0.4814,1783190141.9068,1,0,3.0000,0.0000,1.44682,0.23328,-2.77748,0.97337,1.57080,0.00000,-0.14512,-0.38003,0.04653,,,,,,,,,,,,,,,,,,,,,,,,,,0,0,0,0,0
0.4817,1783190141.9072,1,0,3.0000,0.0000,1.44682,0.23328,-2.77748,0.97337,1.57080,0.00000,-0.14512,-0.38003,0.04653,,,,,,,,,,,,,,,,,,,,,,,,,,0,0,0,0,0
0.4916,1783190141.9170,1,0,3.0000,0.0000,1.44682,0.23328,-2.77748,0.97337,1.57080,0.00000,-0.14512,-0.38003,0.04653,,,,,,,,,,,,,,,,,,,,,,,,,,0,0,0,0,0
0.5010,1783190141.9264,1,0,3.0000,0.0000,1.44682,0.23328,-2.77748,0.97337,1.57080,0.00000,-0.14512,-0.38003,0.04653,,,,,,,,,,,,,,,,,,,,,,,,,,0,0,0,0,0
0.5111,1783190141.9365,1,0,3.0000,0.0000,1.44682,0.23328,-2.77748,0.97337,1.57080,0.00000,-0.14512,-0.38003,0.04653,,,,,,,,,,,,,,,,,,,,,,,,,,0,0,0,0,0
0.5274,1783190141.9529,1,0,3.0000,0.0000,1.44682,0.23328,-2.77748,0.97337,1.57080,0.00000,-0.14512,-0.38003,0.04653,,,,,,,,,,,,,,,,,,,,,,,,,,0,0,0,0,0
0.5319,1783190141.9573,1,0,3.0000,0.0000,1.44682,0.23328,-2.77748,0.97337,1.57080,0.00000,-0.14512,-0.38003,0.04653,,,,,,,,,,,,,,,,,,,,,,,,,,0,0,0,0,0
0.5321,1783190141.9576,1,0,3.0000,0.0000,1.44682,0.23328,-2.77748,0.97337,1.57080,0.00000,-0.14512,-0.38003,0.04653,,,,,,,,,,,,,,,,,,,,,,,,,,0,0,0,0,0
0.5429,1783190141.9683,1,0,3.0000,0.0000,1.44682,0.23328,-2.77748,0.97337,1.57080,0.00000,-0.14512,-0.38003,0.04653,,,,,,,,,,,,,,,,,,,,,,,,,,0,0,0,0,0
0.5433,1783190141.9687,1,0,3.0000,0.0000,1.44682,0.23328,-2.77748,0.97337,1.57080,0.00000,-0.14512,-0.38003,0.04653,,,,,,,,,,,,,,,,,,,,,,,,,,0,0,0,0,0
0.5569,1783190141.9824,1,0,3.0000,0.0000,1.44682,0.23328,-2.77748,0.97337,1.57080,0.00000,-0.14512,-0.38003,0.04653,,,,,,,,,,,,,,,,,,,,,,,,,,0,0,0,0,0
0.5633,1783190141.9888,1,0,3.0000,0.0000,1.44682,0.23328,-2.77748,0.97337,1.57080,0.00000,-0.14512,-0.38003,0.04653,,,,,,,,,,,,,,,,,,,,,,,,,,0,0,0,0,0
0.5637,1783190141.9892,1,0,3.0000,0.0000,1.44682,0.23328,-2.77748,0.97337,1.57080,0.00000,-0.14512,-0.38003,0.04653,,,,,,,,,,,,,,,,,,,,,,,,,,0,0,0,0,0
0.5706,1783190141.9961,1,0,3.0000,0.0000,1.44682,0.23328,-2.77748,0.97337,1.57080,0.00000,-0.14512,-0.38003,0.04653,,,,,,,,,,,,,,,,,,,,,,,,,,0,0,0,0,0
0.5709,1783190141.9964,1,0,3.0000,0.0000,1.44682,0.23328,-2.77748,0.97337,1.57080,0.00000,-0.14512,-0.38003,0.04653,,,,,,,,,,,,,,,,,,,,,,,,,,0,0,0,0,0
0.5844,1783190142.0098,1,0,3.0000,0.0000,1.44682,0.23328,-2.77748,0.97337,1.57080,0.00000,-0.14512,-0.38003,0.04653,,,,,,,,,,,,,,,,,,,,,,,,,,0,0,0,0,0
0.5848,1783190142.0103,1,0,3.0000,0.0000,1.44682,0.23328,-2.77748,0.97337,1.57080,0.00000,-0.14512,-0.38003,0.04653,,,,,,,,,,,,,,,,,,,,,,,,,,0,0,0,0,0
0.5925,1783190142.0180,1,0,3.0000,0.0000,1.44682,0.23328,-2.77748,0.97337,1.57080,0.00000,-0.14512,-0.38003,0.04653,,,,,,,,,,,,,,,,,,,,,,,,,,0,0,0,0,0
0.6022,1783190142.0277,1,0,3.0000,0.0000,1.44682,0.23328,-2.77748,0.97337,1.57080,0.00000,-0.14512,-0.38003,0.04653,,,,,,,,,,,,,,,,,,,,,,,,,,0,0,0,0,0
0.6109,1783190142.0364,1,0,3.0000,0.0000,1.44682,0.23328,-2.77748,0.97337,1.57080,0.00000,-0.14512,-0.38003,0.04653,,,,,,,,,,,,,,,,,,,,,,,,,,0,0,0,0,0
0.6208,1783190142.0462,1,0,3.0000,0.0000,1.44682,0.23328,-2.77748,0.97337,1.57080,0.00000,-0.14512,-0.38003,0.04653,,,,,,,,,,,,,,,,,,,,,,,,,,0,0,0,0,0
0.6345,1783190142.0600,1,0,3.0000,0.0000,1.44682,0.23328,-2.77748,0.97337,1.57080,0.00000,-0.14512,-0.38003,0.04653,,,,,,,,,,,,,,,,,,,,,,,,,,0,0,0,0,0
0.6355,1783190142.0609,1,0,3.0000,0.0000,1.44682,0.23328,-2.77748,0.97337,1.57080,0.00000,-0.14512,-0.38003,0.04653,,,,,,,,,,,,,,,,,,,,,,,,,,0,0,0,0,0
0.6408,1783190142.0662,1,0,3.0000,0.0000,1.44682,0.23328,-2.77748,0.97337,1.57080,0.00000,-0.14512,-0.38003,0.04653,,,,,,,,,,,,,,,,,,,,,,,,,,0,0,0,0,0
0.6506,1783190142.0761,1,0,3.0000,0.0000,1.44682,0.23328,-2.77748,0.97337,1.57080,0.00000,-0.14512,-0.38003,0.04653,,,,,,,,,,,,,,,,,,,,,,,,,,0,0,0,0,0
0.6653,1783190142.0908,1,0,3.0000,0.0000,1.44682,0.23328,-2.77748,0.97337,1.57080,0.00000,-0.14512,-0.38003,0.04653,,,,,,,,,,,,,,,,,,,,,,,,,,0,0,0,0,0
0.6715,1783190142.0969,1,0,3.0000,0.0000,1.44682,0.23328,-2.77748,0.97337,1.57080,0.00000,-0.14512,-0.38003,0.04653,,,,,,,,,,,,,,,,,,,,,,,,,,0,0,0,0,0
0.6862,1783190142.1116,1,0,3.0000,0.0000,1.44682,0.23328,-2.77748,0.97337,1.57080,0.00000,-0.14512,-0.38003,0.04653,,,,,,,,,,,,,,,,,,,,,,,,,,0,0,0,0,0
0.6933,1783190142.1188,1,0,3.0000,0.0000,1.44682,0.23328,-2.77748,0.97337,1.57080,0.00000,-0.14512,-0.38003,0.04653,,,,,,,,,,,,,,,,,,,,,,,,,,0,0,0,0,0
0.7007,1783190142.1261,1,0,3.0000,0.0000,1.44682,0.23328,-2.77748,0.97337,1.57080,0.00000,-0.14512,-0.38003,0.04653,,,,,,,,,,,,,,,,,,,,,,,,,,0,0,0,0,0
0.7142,1783190142.1396,1,0,3.0000,0.0000,1.44682,0.23328,-2.77748,0.97337,1.57080,0.00000,-0.14512,-0.38003,0.04653,,,,,,,,,,,,,,,,,,,,,,,,,,0,0,0,0,0
0.7150,1783190142.1404,1,0,3.0000,0.0000,1.44682,0.23328,-2.77748,0.97337,1.57080,0.00000,-0.14512,-0.38003,0.04653,,,,,,,,,,,,,,,,,,,,,,,,,,0,0,0,0,0
0.7212,1783190142.1467,1,0,3.0000,0.0000,1.44682,0.23328,-2.77748,0.97337,1.57080,0.00000,-0.14512,-0.38003,0.04653,,,,,,,,,,,,,,,,,,,,,,,,,,0,0,0,0,0
0.7342,1783190142.1596,1,1,3.0000,0.0000,1.44682,0.23328,-2.77748,0.97337,1.57080,0.00000,-0.14512,-0.38003,0.04653,,,,,,,,,,,,,,,,,,,,,,,,,,0,0,0,0,0
0.7347,1783190142.1602,1,1,3.0000,0.0000,1.44682,0.23328,-2.77748,0.97337,1.57080,0.00000,-0.14512,-0.38003,0.04653,,,,,,,,,,,,,,,,,,,,,,,,,,0,0,0,0,0
0.7478,1783190142.1733,1,1,3.0000,0.0000,1.44682,0.23328,-2.77748,0.97337,1.57080,0.00000,-0.14512,-0.38003,0.04653,,,,,,,,,,,,,,,,,,,,,,,,,,0,0,0,0,0
0.7560,1783190142.1814,1,1,3.0000,0.0000,1.44682,0.23328,-2.77748,0.97337,1.57080,0.00000,-0.14512,-0.38003,0.04653,,,,,,,,,,,,,,,,,,,,,,,,,,0,0,0,0,0
0.7671,1783190142.1926,1,1,3.0000,0.0000,1.44682,0.23328,-2.77748,0.97337,1.57080,0.00000,-0.14512,-0.38003,0.04653,,,,,,,,,,,,,,,,,,,,,,,,,,0,0,0,0,0
0.7675,1783190142.1929,1,1,3.0000,0.0000,1.44682,0.23328,-2.77748,0.97337,1.57080,0.00000,-0.14512,-0.38003,0.04653,,,,,,,,,,,,,,,,,,,,,,,,,,0,0,0,0,0
0.7745,1783190142.2000,1,1,3.0000,0.0000,1.44682,0.23328,-2.77748,0.97337,1.57080,0.00000,-0.14512,-0.38003,0.04653,,,,,,,,,,,,,,,,,,,,,,,,,,0,0,0,0,0
0.7885,1783190142.2139,1,1,3.0000,0.0000,1.44682,0.23328,-2.77748,0.97337,1.57080,0.00000,-0.14512,-0.38003,0.04653,,,,,,,,,,,,,,,,,,,,,,,,,,0,0,0,0,0
0.7977,1783190142.2231,1,1,3.0000,0.0000,1.44682,0.23328,-2.77748,0.97337,1.57080,0.00000,-0.14512,-0.38003,0.04653,,,,,,,,,,,,,,,,,,,,,,,,,,0,0,0,0,0
0.8107,1783190142.2361,1,1,3.0000,0.0000,1.44682,0.23328,-2.77748,0.97337,1.57080,0.00000,-0.14512,-0.38003,0.04653,,,,,,,,,,,,,,,,,,,,,,,,,,0,0,0,0,0
0.8110,1783190142.2364,1,1,3.0000,0.0000,1.44682,0.23328,-2.77748,0.97337,1.57080,0.00000,-0.14512,-0.38003,0.04653,,,,,,,,,,,,,,,,,,,,,,,,,,0,0,0,0,0
0.8191,1783190142.2445,1,1,3.0000,0.0000,1.44682,0.23328,-2.77748,0.97337,1.57080,0.00000,-0.14512,-0.38003,0.04653,,,,,,,,,,,,,,,,,,,,,,,,,,0,0,0,0,0
0.8262,1783190142.2517,1,1,3.0000,0.0000,1.44682,0.23328,-2.77748,0.97337,1.57080,0.00000,-0.14512,-0.38003,0.04653,,,,,,,,,,,,,,,,,,,,,,,,,,0,0,0,0,0
0.8397,1783190142.2651,1,1,3.0000,0.0000,1.44682,0.23328,-2.77748,0.97337,1.57080,0.00000,-0.14512,-0.38003,0.04653,,,,,,,,,,,,,,,,,,,,,,,,,,0,0,0,0,0
0.8507,1783190142.2762,1,1,3.0000,0.0000,1.44682,0.23328,-2.77748,0.97337,1.57080,0.00000,-0.14512,-0.38003,0.04653,,,,,,,,,,,,,,,,,,,,,,,,,,0,0,0,0,0
0.8575,1783190142.2829,1,1,3.0000,0.0000,1.44682,0.23328,-2.77748,0.97337,1.57080,0.00000,-0.14512,-0.38003,0.04653,,,,,,,,,,,,,,,,,,,,,,,,,,0,0,0,0,0
0.8786,1783190142.3040,1,1,3.0000,0.0000,1.44682,0.23328,-2.77748,0.97337,1.57080,0.00000,-0.14512,-0.38003,0.04653,,,,,,,,,,,,,,,,,,,,,,,,,,0,0,0,0,0
0.8802,1783190142.3056,1,1,3.0000,0.0000,1.44682,0.23328,-2.77748,0.97337,1.57080,0.00000,-0.14512,-0.38003,0.04653,,,,,,,,,,,,,,,,,,,,,,,,,,0,0,0,0,0
0.8913,1783190142.3167,1,1,3.0000,0.0000,1.44682,0.23328,-2.77748,0.97337,1.57080,0.00000,-0.14512,-0.38003,0.04653,,,,,,,,,,,,,,,,,,,,,,,,,,0,0,0,0,0
0.8990,1783190142.3245,1,1,3.0000,0.0000,1.44682,0.23328,-2.77748,0.97337,1.57080,0.00000,-0.14512,-0.38003,0.04653,,,,,,,,,,,,,,,,,,,,,,,,,,0,0,0,0,0
0.8993,1783190142.3248,1,1,3.0000,0.0000,1.44682,0.23328,-2.77748,0.97337,1.57080,0.00000,-0.14512,-0.38003,0.04653,,,,,,,,,,,,,,,,,,,,,,,,,,0,0,0,0,0
0.9106,1783190142.3360,1,1,3.0000,0.0000,1.44682,0.23328,-2.77748,0.97337,1.57080,0.00000,-0.14512,-0.38003,0.04653,,,,,,,,,,,,,,,,,,,,,,,,,,0,0,0,0,0
0.9216,1783190142.3470,1,1,3.0000,0.0000,1.44682,0.23328,-2.77748,0.97337,1.57080,0.00000,-0.14512,-0.38003,0.04653,,,,,,,,,,,,,,,,,,,,,,,,,,0,0,0,0,0
0.9295,1783190142.3549,1,1,3.0000,0.0000,1.44682,0.23322,-2.77749,0.97344,1.57080,0.00000,-0.14512,-0.38003,0.04651,,,,,,,,,,,,,,,,,,,,,,,,,,0,0,0,0,0
0.9395,1783190142.3649,1,1,3.0000,0.0000,1.44682,0.23301,-2.77755,0.97371,1.57080,0.00000,-0.14512,-0.38003,0.04646,,,,,,,,,,,,,,,,,,,,,,,,,,0,0,0,0,0
0.9532,1783190142.3786,1,1,3.0000,0.0000,1.44682,0.23285,-2.77759,0.97390,1.57080,0.00000,-0.14512,-0.38003,0.04642,,,,,,,,,,,,,,,,,,,,,,,,,,0,0,0,0,0
0.9618,1783190142.3872,1,1,3.0000,0.0000,1.44682,0.23282,-2.77759,0.97394,1.57080,0.00000,-0.14512,-0.38003,0.04641,,,,,,,,,,,,,,,,,,,,,,,,,,0,0,0,0,0
0.9674,1783190142.3928,1,1,3.0000,0.0000,1.44682,0.23275,-2.77761,0.97404,1.57080,0.00000,-0.14512,-0.38003,0.04639,,,,,,,,,,,,,,,,,,,,,,,,,,0,0,0,0,0
0.9677,1783190142.3932,1,1,3.0000,0.0000,1.44682,0.23275,-2.77761,0.97404,1.57080,0.00000,-0.14512,-0.38003,0.04639,,,,,,,,,,,,,,,,,,,,,,,,,,0,0,0,0,0
0.9789,1783190142.4043,1,1,3.0000,0.0000,1.44682,0.23264,-2.77764,0.97417,1.57080,0.00000,-0.14512,-0.38003,0.04636,,,,,,,,,,,,,,,,,,,,,,,,,,0,0,0,0,0
0.9935,1783190142.4189,1,1,3.0000,0.0000,1.44682,0.23254,-2.77767,0.97429,1.57080,0.00000,-0.14512,-0.38003,0.04634,,,,,,,,,,,,,,,,,,,,,,,,,,0,0,0,0,0
0.9994,1783190142.4248,1,1,3.0000,0.0000,1.44682,0.23241,-2.77770,0.97446,1.57080,0.00000,-0.14512,-0.38003,0.04630,,,,,,,,,,,,,,,,,,,,,,,,,,0,0,0,0,0
1.0089,1783190142.4343,1,1,3.0000,0.0000,1.44682,0.23227,-2.77774,0.97464,1.57080,0.00000,-0.14512,-0.38003,0.04626,,,,,,,,,,,,,,,,,,,,,,,,,,0,0,0,0,0
1.0185,1783190142.4440,1,1,3.0000,0.0000,1.44682,0.23223,-2.77775,0.97469,1.57080,0.00000,-0.14512,-0.38003,0.04625,,,,,,,,,,,,,,,,,,,,,,,,,,0,0,0,0,0
1.0290,1783190142.4544,1,1,3.0000,0.0000,1.44682,0.23212,-2.77778,0.97483,1.57080,0.00000,-0.14512,-0.38003,0.04622,,,,,,,,,,,,,,,,,,,,,,,,,,0,0,0,0,0
1.0400,1783190142.4655,1,1,3.0000,0.0000,1.44682,0.23198,-2.77781,0.97500,1.57080,0.00000,-0.14512,-0.38003,0.04619,,,,,,,,,,,,,,,,,,,,,,,,,,0,0,0,0,0
1.0487,1783190142.4741,1,1,3.0000,0.0000,1.44682,0.23194,-2.77782,0.97506,1.57080,0.00000,-0.14512,-0.38003,0.04618,,,,,,,,,,,,,,,,,,,,,,,,,,0,0,0,0,0
1.0490,1783190142.4744,1,1,3.0000,0.0000,1.44682,0.23194,-2.77782,0.97506,1.57080,0.00000,-0.14512,-0.38003,0.04618,,,,,,,,,,,,,,,,,,,,,,,,,,0,0,0,0,0
1.0576,1783190142.4830,1,1,3.0000,0.0000,1.44682,0.23183,-2.77785,0.97519,1.57080,0.00000,-0.14512,-0.38003,0.04615,,,,,,,,,,,,,,,,,,,,,,,,,,0,0,0,0,0
1.0695,1783190142.4949,1,1,3.0000,0.0000,1.44682,0.23162,-2.77790,0.97545,1.57080,0.00000,-0.14512,-0.38003,0.04610,,,,,,,,,,,,,,,,,,,,,,,,,,0,0,0,0,0
1.0790,1783190142.5044,1,1,3.0000,0.0000,1.44682,0.23158,-2.77791,0.97550,1.57080,0.00000,-0.14512,-0.38003,0.04608,,,,,,,,,,,,,,,,,,,,,,,,,,0,0,0,0,0
1.0794,1783190142.5049,1,1,3.0000,0.0000,1.44682,0.23158,-2.77791,0.97550,1.57080,0.00000,-0.14512,-0.38003,0.04608,,,,,,,,,,,,,,,,,,,,,,,,,,0,0,0,0,0
1.0917,1783190142.5171,1,1,3.0000,0.0000,1.44682,0.23140,-2.77796,0.97573,1.57080,0.00000,-0.14512,-0.38003,0.04604,,,,,,,,,,,,,,,,,,,,,,,,,,0,0,0,0,0
1.1017,1783190142.5272,1,1,3.0000,0.0000,1.44682,0.23127,-2.77800,0.97590,1.57080,0.00000,-0.14512,-0.38003,0.04600,,,,,,,,,,,,,,,,,,,,,,,,,,0,0,0,0,0
1.1021,1783190142.5276,1,1,3.0000,0.0000,1.44682,0.23127,-2.77800,0.97590,1.57080,0.00000,-0.14512,-0.38003,0.04600,,,,,,,,,,,,,,,,,,,,,,,,,,0,0,0,0,0
1.1124,1783190142.5378,1,1,3.0000,0.0000,1.44682,0.23123,-2.77800,0.97594,1.57080,0.00000,-0.14512,-0.38003,0.04599,,,,,,,,,,,,,,,,,,,,,,,,,,0,0,0,0,0
1.1189,1783190142.5444,1,1,3.0000,0.0000,1.44682,0.23115,-2.77803,0.97604,1.57080,0.00000,-0.14512,-0.38003,0.04597,,,,,,,,,,,,,,,,,,,,,,,,,,0,0,0,0,0
1.1193,1783190142.5447,1,1,3.0000,0.0000,1.44682,0.23115,-2.77803,0.97604,1.57080,0.00000,-0.14512,-0.38003,0.04597,,,,,,,,,,,,,,,,,,,,,,,,,,0,0,0,0,0
1.1326,1783190142.5580,1,1,3.0000,0.0000,1.44682,0.23104,-2.77805,0.97619,1.57080,0.00000,-0.14512,-0.38003,0.04594,,,,,,,,,,,,,,,,,,,,,,,,,,0,0,0,0,0
1.1415,1783190142.5669,1,1,3.0000,0.0000,1.44682,0.23099,-2.77807,0.97624,1.57080,0.00000,-0.14512,-0.38003,0.04593,,,,,,,,,,,,,,,,,,,,,,,,,,0,0,0,0,0
1.1419,1783190142.5673,1,1,3.0000,0.0000,1.44682,0.23099,-2.77807,0.97624,1.57080,0.00000,-0.14512,-0.38003,0.04593,,,,,,,,,,,,,,,,,,,,,,,,,,0,0,0,0,0
1.1507,1783190142.5761,1,1,3.0000,0.0000,1.44682,0.23081,-2.77811,0.97647,1.57080,0.00000,-0.14512,-0.38003,0.04588,,,,,,,,,,,,,,,,,,,,,,,,,,0,0,0,0,0
1.1619,1783190142.5874,1,1,3.0000,0.0000,1.44682,0.23067,-2.77815,0.97665,1.57080,0.00000,-0.14512,-0.38003,0.04585,,,,,,,,,,,,,,,,,,,,,,,,,,0,0,0,0,0
1.1623,1783190142.5877,1,1,3.0000,0.0000,1.44682,0.23067,-2.77815,0.97665,1.57080,0.00000,-0.14512,-0.38003,0.04585,,,,,,,,,,,,,,,,,,,,,,,,,,0,0,0,0,0
1.1725,1783190142.5979,1,1,3.0000,0.0000,1.44682,0.23064,-2.77816,0.97669,1.57080,0.00000,-0.14512,-0.38003,0.04584,,,,,,,,,,,,,,,,,,,,,,,,,,0,0,0,0,0
1.1790,1783190142.6044,1,1,3.0000,0.0000,1.44682,0.23056,-2.77818,0.97679,1.57080,0.00000,-0.14512,-0.38003,0.04582,,,,,,,,,,,,,,,,,,,,,,,,,,0,0,0,0,0
1.1873,1783190142.6127,1,1,3.0000,0.0000,1.44682,0.23044,-2.77821,0.97693,1.57080,0.00000,-0.14512,-0.38003,0.04579,,,,,,,,,,,,,,,,,,,,,,,,,,0,0,0,0,0
1.1877,1783190142.6132,1,1,3.0000,0.0000,1.44682,0.23044,-2.77821,0.97693,1.57080,0.00000,-0.14512,-0.38003,0.04579,,,,,,,,,,,,,,,,,,,,,,,,,,0,0,0,0,0
1.1986,1783190142.6240,1,1,3.0000,0.0000,1.44682,0.23040,-2.77822,0.97699,1.57080,0.00000,-0.14512,-0.38003,0.04578,,,,,,,,,,,,,,,,,,,,,,,,,,0,0,0,0,0
1.2085,1783190142.6340,1,1,3.0000,0.0000,1.44682,0.23028,-2.77825,0.97713,1.57080,0.00000,-0.14512,-0.38003,0.04575,,,,,,,,,,,,,,,,,,,,,,,,,,0,0,0,0,0
1.2187,1783190142.6442,1,1,3.0000,0.0000,1.44682,0.23007,-2.77830,0.97740,1.57080,0.00000,-0.14512,-0.38003,0.04569,,,,,,,,,,,,,,,,,,,,,,,,,,0,0,0,0,0
1.2275,1783190142.6530,1,1,3.0000,0.0000,1.44682,0.23007,-2.77830,0.97741,1.57080,0.00000,-0.14512,-0.38003,0.04569,,,,,,,,,,,,,,,,,,,,,,,,,,0,0,0,0,0
1.2457,1783190142.6712,1,1,3.0000,0.0000,1.44682,0.22991,-2.77834,0.97761,1.57080,0.00000,-0.14512,-0.38003,0.04565,,,,,,,,,,,,,,,,,,,,,,,,,,0,0,0,0,0
1.2483,1783190142.6738,1,1,3.0000,0.0000,1.44682,0.22985,-2.77836,0.97768,1.57080,0.00000,-0.14512,-0.38003,0.04563,,,,,,,,,,,,,,,,,,,,,,,,,,0,0,0,0,0
1.2597,1783190142.6851,1,1,3.0000,0.0000,1.44682,0.22980,-2.77837,0.97774,1.57080,0.00000,-0.14512,-0.38003,0.04562,,,,,,,,,,,,,,,,,,,,,,,,,,0,0,0,0,0
1.2740,1783190142.6994,1,1,3.0000,0.0000,1.44682,0.22962,-2.77842,0.97797,1.57080,0.00000,-0.14512,-0.38003,0.04557,,,,,,,,,,,,,,,,,,,,,,,,,,0,0,0,0,0
1.2858,1783190142.7112,1,1,3.0000,0.0000,1.44682,0.22948,-2.77845,0.97814,1.57080,0.00000,-0.14512,-0.38003,0.04554,,,,,,,,,,,,,,,,,,,,,,,,,,0,0,0,0,0
1.2883,1783190142.7137,1,1,3.0000,0.0000,1.44682,0.22947,-2.77846,0.97815,1.57080,0.00000,-0.14512,-0.38003,0.04553,,,,,,,,,,,,,,,,,,,,,,,,,,0,0,0,0,0
1.3008,1783190142.7262,1,1,3.0000,0.0000,1.44682,0.22936,-2.77848,0.97829,1.57080,0.00000,-0.14512,-0.38003,0.04551,,,,,,,,,,,,,,,,,,,,,,,,,,0,0,0,0,0
1.3080,1783190142.7334,1,1,3.0000,0.0000,1.44682,0.22925,-2.77851,0.97843,1.57080,0.00000,-0.14512,-0.38003,0.04548,,,,,,,,,,,,,,,,,,,,,,,,,,0,0,0,0,0
1.3187,1783190142.7441,1,1,3.0000,0.0000,1.44682,0.22921,-2.77852,0.97849,1.57080,0.00000,-0.14512,-0.38003,0.04546,,,,,,,,,,,,,,,,,,,,,,,,,,0,0,0,0,0
1.3298,1783190142.7553,1,1,3.0000,0.0000,1.44682,0.22909,-2.77855,0.97863,1.57080,0.00000,-0.14512,-0.38003,0.04544,,,,,,,,,,,,,,,,,,,,,,,,,,0,0,0,0,0
1.3388,1783190142.7643,1,1,3.0000,0.0000,1.44682,0.22888,-2.77861,0.97889,1.57080,0.00000,-0.14512,-0.38003,0.04538,,,,,,,,,,,,,,,,,,,,,,,,,,0,0,0,0,0
1.3393,1783190142.7647,1,1,3.0000,0.0000,1.44682,0.22888,-2.77861,0.97889,1.57080,0.00000,-0.14512,-0.38003,0.04538,,,,,,,,,,,,,,,,,,,,,,,,,,0,0,0,0,0
1.3495,1783190142.7749,1,1,3.0000,0.0000,1.44682,0.22887,-2.77861,0.97890,1.57080,0.00000,-0.14512,-0.38003,0.04538,,,,,,,,,,,,,,,,,,,,,,,,,,0,0,0,0,0
1.3634,1783190142.7888,1,1,3.0000,0.0000,1.44682,0.22871,-2.77865,0.97910,1.57080,0.00000,-0.14512,-0.38003,0.04534,,,,,,,,,,,,,,,,,,,,,,,,,,0,0,0,0,0
1.3681,1783190142.7935,1,1,3.0000,0.0000,1.44682,0.22866,-2.77866,0.97918,1.57080,0.00000,-0.14512,-0.38003,0.04532,,,,,,,,,,,,,,,,,,,,,,,,,,0,0,0,0,0
1.3684,1783190142.7938,1,1,3.0000,0.0000,1.44682,0.22866,-2.77866,0.97918,1.57080,0.00000,-0.14512,-0.38003,0.04532,,,,,,,,,,,,,,,,,,,,,,,,,,0,0,0,0,0
1.3819,1783190142.8073,1,1,3.0000,0.0000,1.44682,0.22861,-2.77868,0.97924,1.57080,0.00000,-0.14512,-0.38003,0.04531,,,,,,,,,,,,,,,,,,,,,,,,,,0,0,0,0,0
1.3875,1783190142.8130,1,1,3.0000,0.0000,1.44682,0.22850,-2.77870,0.97938,1.57080,0.00000,-0.14512,-0.38003,0.04528,,,,,,,,,,,,,,,,,,,,,,,,,,0,0,0,0,0
1.4028,1783190142.8283,1,1,3.0000,0.0000,1.44682,0.22829,-2.77876,0.97964,1.57080,0.00000,-0.14512,-0.38003,0.04523,,,,,,,,,,,,,,,,,,,,,,,,,,0,0,0,0,0
1.4031,1783190142.8285,1,1,3.0000,0.0000,1.44682,0.22829,-2.77876,0.97964,1.57080,0.00000,-0.14512,-0.38003,0.04523,,,,,,,,,,,,,,,,,,,,,,,,,,0,0,0,0,0
1.4117,1783190142.8372,1,1,3.0000,0.0000,1.44682,0.22825,-2.77877,0.97968,1.57080,0.00000,-0.14512,-0.38003,0.04522,,,,,,,,,,,,,,,,,,,,,,,,,,0,0,0,0,0
1.4120,1783190142.8375,1,1,3.0000,0.0000,1.44682,0.22825,-2.77877,0.97968,1.57080,0.00000,-0.14512,-0.38003,0.04522,,,,,,,,,,,,,,,,,,,,,,,,,,0,0,0,0,0
1.4176,1783190142.8431,1,1,3.0000,0.0000,1.44682,0.22822,-2.77878,0.97973,1.57080,0.00000,-0.14512,-0.38003,0.04521,,,,,,,,,,,,,,,,,,,,,,,,,,0,0,0,0,0
1.4320,1783190142.8575,1,1,3.0000,0.0000,1.44682,0.22806,-2.77882,0.97993,1.57080,0.00000,-0.14512,-0.38003,0.04517,,,,,,,,,,,,,,,,,,,,,,,,,,0,0,0,0,0
1.4495,1783190142.8749,1,1,3.0000,0.0000,1.44682,0.22790,-2.77886,0.98013,1.57080,0.00000,-0.14512,-0.38003,0.04513,,,,,,,,,,,,,,,,,,,,,,,,,,0,0,0,0,0
1.4505,1783190142.8759,1,1,3.0000,0.0000,1.44682,0.22783,-2.77887,0.98021,1.57080,0.00000,-0.14512,-0.38003,0.04511,,,,,,,,,,,,,,,,,,,,,,,,,,0,0,0,0,0
1.4506,1783190142.8761,1,1,3.0000,0.0000,1.44682,0.22783,-2.77887,0.98021,1.57080,0.00000,-0.14512,-0.38003,0.04511,,,,,,,,,,,,,,,,,,,,,,,,,,0,0,0,0,0
1.4593,1783190142.8847,1,1,3.0000,0.0000,1.44682,0.22769,-2.77891,0.98039,1.57080,0.00000,-0.14512,-0.38003,0.04507,,,,,,,,,,,,,,,,,,,,,,,,,,0,0,0,0,0
1.4699,1783190142.8953,1,1,3.0000,0.0000,1.44682,0.22768,-2.77891,0.98040,1.57080,0.00000,-0.14512,-0.38003,0.04507,,,,,,,,,,,,,,,,,,,,,,,,,,0,0,0,0,0
1.4954,1783190142.9208,1,1,3.0000,0.0000,1.44682,0.22745,-2.77897,0.98069,1.57080,0.00000,-0.14512,-0.38003,0.04501,,,,,,,,,,,,,,,,,,,,,,,,,,0,0,0,0,0
1.4958,1783190142.9212,1,1,3.0000,0.0000,1.44682,0.22745,-2.77897,0.98069,1.57080,0.00000,-0.14512,-0.38003,0.04501,,,,,,,,,,,,,,,,,,,,,,,,,,0,0,0,0,0
1.5185,1783190142.9439,1,1,3.0000,0.0000,1.44682,0.22716,-2.77904,0.98105,1.57080,0.00000,-0.14512,-0.38003,0.04493,,,,,,,,,,,,,,,,,,,,,,,,,,0,0,0,0,0
1.5195,1783190142.9449,1,1,3.0000,0.0000,1.44682,0.22709,-2.77906,0.98114,1.57080,0.00001,-0.14512,-0.38003,0.04492,,,,,,,,,,,,,,,,,,,,,,,,,,0,0,0,0,0
1.6460,1783190143.0715,1,1,3.0000,0.0000,1.44682,0.22596,-2.77935,0.98256,1.57080,0.00001,-0.14512,-0.38003,0.04462,,,,,,,,,,,,,,,,,,,,,,,,,,0,0,0,0,0
1.6465,1783190143.0719,1,1,3.0000,0.0000,1.44682,0.22596,-2.77935,0.98256,1.57080,0.00001,-0.14512,-0.38003,0.04462,,,,,,,,,,,,,,,,,,,,,,,,,,0,0,0,0,0
1.6468,1783190143.0723,1,1,3.0000,0.0000,1.44682,0.22596,-2.77935,0.98256,1.57080,0.00001,-0.14512,-0.38003,0.04462,,,,,,,,,,,,,,,,,,,,,,,,,,0,0,0,0,0
1.6472,1783190143.0727,1,1,3.0000,0.0000,1.44682,0.22596,-2.77935,0.98256,1.57080,0.00001,-0.14512,-0.38003,0.04462,,,,,,,,,,,,,,,,,,,,,,,,,,0,0,0,0,0
1.6477,1783190143.0731,1,1,3.0000,0.0000,1.44682,0.22596,-2.77935,0.98256,1.57080,0.00001,-0.14512,-0.38003,0.04462,,,,,,,,,,,,,,,,,,,,,,,,,,0,0,0,0,0
1.6480,1783190143.0734,1,1,3.0000,0.0000,1.44682,0.22596,-2.77935,0.98256,1.57080,0.00001,-0.14512,-0.38003,0.04462,,,,,,,,,,,,,,,,,,,,,,,,,,0,0,0,0,0
1.6487,1783190143.0741,1,1,3.0000,0.0000,1.44682,0.22593,-2.77936,0.98259,1.57080,0.00001,-0.14512,-0.38003,0.04462,,,,,,,,,,,,,,,,,,,,,,,,,,0,0,0,0,0
1.6567,1783190143.0821,1,1,3.0000,0.0000,1.44682,0.22590,-2.77936,0.98264,1.57080,0.00001,-0.14512,-0.38003,0.04461,,,,,,,,,,,,,,,,,,,,,,,,,,0,0,0,0,0
1.6705,1783190143.0959,1,1,3.0000,0.0000,1.44682,0.22568,-2.77942,0.98291,1.57080,0.00001,-0.14512,-0.38003,0.04455,,,,,,,,,,,,,,,,,,,,,,,,,,0,0,0,0,0
1.6724,1783190143.0978,1,1,3.0000,0.0000,1.44682,0.22568,-2.77942,0.98291,1.57080,0.00001,-0.14512,-0.38003,0.04455,,,,,,,,,,,,,,,,,,,,,,,,,,0,0,0,0,0
1.6775,1783190143.1030,1,1,3.0000,0.0000,1.44682,0.22566,-2.77942,0.98293,1.57080,0.00001,-0.14512,-0.38003,0.04455,,,,,,,,,,,,,,,,,,,,,,,,,,0,0,0,0,0
1.6780,1783190143.1034,1,1,3.0000,0.0000,1.44682,0.22566,-2.77942,0.98293,1.57080,0.00001,-0.14512,-0.38003,0.04455,,,,,,,,,,,,,,,,,,,,,,,,,,0,0,0,0,0
1.6918,1783190143.1173,1,1,3.0000,0.0000,1.44682,0.22552,-2.77946,0.98311,1.57080,0.00001,-0.14512,-0.38003,0.04451,,,,,,,,,,,,,,,,,,,,,,,,,,0,0,0,0,0
1.6979,1783190143.1233,1,1,3.0000,0.0000,1.44682,0.22538,-2.77950,0.98329,1.57080,0.00001,-0.14512,-0.38002,0.04447,,,,,,,,,,,,,,,,,,,,,,,,,,0,0,0,0,0
1.7101,1783190143.1355,1,1,3.0000,0.0000,1.44682,0.22533,-2.77951,0.98334,1.57080,0.00001,-0.14512,-0.38002,0.04446,,,,,,,,,,,,,,,,,,,,,,,,,,0,0,0,0,0
1.7184,1783190143.1438,1,1,3.0000,0.0000,1.44682,0.22522,-2.77953,0.98348,1.57080,0.00001,-0.14512,-0.38002,0.04443,,,,,,,,,,,,,,,,,,,,,,,,,,0,0,0,0,0
1.7291,1783190143.1546,1,1,3.0000,0.0000,1.44682,0.22502,-2.77959,0.98374,1.57080,0.00001,-0.14512,-0.38002,0.04438,,,,,,,,,,,,,,,,,,,,,,,,,,0,0,0,0,0
1.7381,1783190143.1635,1,1,3.0000,0.0000,1.44682,0.22500,-2.77959,0.98375,1.57080,0.00001,-0.14512,-0.38002,0.04438,,,,,,,,,,,,,,,,,,,,,,,,,,0,0,0,0,0
1.7492,1783190143.1746,1,1,3.0000,0.0000,1.44682,0.22486,-2.77963,0.98393,1.57080,0.00001,-0.14512,-0.38002,0.04434,,,,,,,,,,,,,,,,,,,,,,,,,,0,0,0,0,0
1.7593,1783190143.1848,1,1,3.0000,0.0000,1.44682,0.22472,-2.77966,0.98411,1.57080,0.00001,-0.14512,-0.38002,0.04430,,,,,,,,,,,,,,,,,,,,,,,,,,0,0,0,0,0
1.7719,1783190143.1973,1,1,3.0000,0.0000,1.44682,0.22465,-2.77968,0.98420,1.57080,0.00001,-0.14512,-0.38002,0.04428,,,,,,,,,,,,,,,,,,,,,,,,,,0,0,0,0,0
1.7814,1783190143.2068,1,1,3.0000,0.0000,1.44682,0.22454,-2.77971,0.98434,1.57080,0.00001,-0.14512,-0.38002,0.04425,,,,,,,,,,,,,,,,,,,,,,,,,,0,0,0,0,0
1.7919,1783190143.2174,1,1,3.0000,0.0000,1.44682,0.22442,-2.77974,0.98448,1.57080,0.00001,-0.14512,-0.38002,0.04422,,,,,,,,,,,,,,,,,,,,,,,,,,0,0,0,0,0
1.8027,1783190143.2281,1,1,3.0000,0.0000,1.44682,0.22438,-2.77975,0.98454,1.57080,0.00001,-0.14512,-0.38002,0.04421,,,,,,,,,,,,,,,,,,,,,,,,,,0,0,0,0,0
1.8128,1783190143.2383,1,1,3.0000,0.0000,1.44682,0.22419,-2.77979,0.98477,1.57080,0.00001,-0.14512,-0.38002,0.04417,,,,,,,,,,,,,,,,,,,,,,,,,,0,0,0,0,0
1.8214,1783190143.2468,1,1,3.0000,0.0000,1.44682,0.22405,-2.77983,0.98495,1.57080,0.00001,-0.14512,-0.38002,0.04413,,,,,,,,,,,,,,,,,,,,,,,,,,0,0,0,0,0
1.8328,1783190143.2583,1,1,3.0000,0.0000,1.44682,0.22402,-2.77984,0.98499,1.57080,0.00001,-0.14512,-0.38002,0.04412,,,,,,,,,,,,,,,,,,,,,,,,,,0,0,0,0,0
1.8373,1783190143.2627,1,1,3.0000,0.0000,1.44682,0.22398,-2.77985,0.98503,1.57080,0.00001,-0.14512,-0.38002,0.04411,,,,,,,,,,,,,,,,,,,,,,,,,,0,0,0,0,0
1.8376,1783190143.2630,1,1,3.0000,0.0000,1.44682,0.22398,-2.77985,0.98503,1.57080,0.00001,-0.14512,-0.38002,0.04411,,,,,,,,,,,,,,,,,,,,,,,,,,0,0,0,0,0
1.8488,1783190143.2742,1,1,3.0000,0.0000,1.44682,0.22382,-2.77989,0.98523,1.57080,0.00001,-0.14512,-0.38002,0.04407,,,,,,,,,,,,,,,,,,,,,,,,,,0,0,0,0,0
1.8491,1783190143.2745,1,1,3.0000,0.0000,1.44682,0.22382,-2.77989,0.98523,1.57080,0.00001,-0.14512,-0.38002,0.04407,,,,,,,,,,,,,,,,,,,,,,,,,,0,0,0,0,0
1.8643,1783190143.2897,1,1,3.0000,0.0000,1.44682,0.22373,-2.77991,0.98535,1.57080,0.00001,-0.14512,-0.38002,0.04404,,,,,,,,,,,,,,,,,,,,,,,,,,0,0,0,0,0
1.8724,1783190143.2978,1,1,3.0000,0.0000,1.44682,0.22359,-2.77995,0.98552,1.57080,0.00001,-0.14512,-0.38002,0.04401,,,,,,,,,,,,,,,,,,,,,,,,,,0,0,0,0,0
1.8846,1783190143.3100,1,1,3.0000,0.0000,1.44682,0.22345,-2.77998,0.98570,1.57080,0.00001,-0.14512,-0.38002,0.04397,,,,,,,,,,,,,,,,,,,,,,,,,,0,0,0,0,0
1.8849,1783190143.3104,1,1,3.0000,0.0000,1.44682,0.22345,-2.77998,0.98570,1.57080,0.00001,-0.14512,-0.38002,0.04397,,,,,,,,,,,,,,,,,,,,,,,,,,0,0,0,0,0
1.8931,1783190143.3186,1,1,3.0000,0.0000,1.44682,0.22342,-2.77999,0.98574,1.57080,0.00001,-0.14512,-0.38002,0.04397,,,,,,,,,,,,,,,,,,,,,,,,,,0,0,0,0,0
1.9048,1783190143.3302,1,1,3.0000,0.0000,1.44682,0.22328,-2.78002,0.98591,1.57080,0.00001,-0.14512,-0.38002,0.04393,,,,,,,,,,,,,,,,,,,,,,,,,,0,0,0,0,0
1.9148,1783190143.3402,1,1,3.0000,0.0000,1.44682,0.22322,-2.78004,0.98598,1.57080,0.00001,-0.14512,-0.38002,0.04391,,,,,,,,,,,,,,,,,,,,,,,,,,0,0,0,0,0
1.9219,1783190143.3474,1,1,3.0000,0.0000,1.44682,0.22318,-2.78005,0.98604,1.57080,0.00001,-0.14512,-0.38002,0.04390,,,,,,,,,,,,,,,,,,,,,,,,,,0,0,0,0,0
1.9223,1783190143.3477,1,1,3.0000,0.0000,1.44682,0.22318,-2.78005,0.98604,1.57080,0.00001,-0.14512,-0.38002,0.04390,,,,,,,,,,,,,,,,,,,,,,,,,,0,0,0,0,0
1.9308,1783190143.3563,1,1,3.0000,0.0000,1.44682,0.22306,-2.78008,0.98618,1.57080,0.00001,-0.14512,-0.38002,0.04387,,,,,,,,,,,,,,,,,,,,,,,,,,0,0,0,0,0
1.9312,1783190143.3566,1,1,3.0000,0.0000,1.44682,0.22306,-2.78008,0.98618,1.57080,0.00001,-0.14512,-0.38002,0.04387,,,,,,,,,,,,,,,,,,,,,,,,,,0,0,0,0,0
1.9431,1783190143.3685,1,1,3.0000,0.0000,1.44682,0.22285,-2.78013,0.98645,1.57080,0.00001,-0.14512,-0.38002,0.04382,,,,,,,,,,,,,,,,,,,,,,,,,,0,0,0,0,0
1.9508,1783190143.3763,1,1,3.0000,0.0000,1.44682,0.22284,-2.78013,0.98646,1.57080,0.00001,-0.14512,-0.38002,0.04382,,,,,,,,,,,,,,,,,,,,,,,,,,0,0,0,0,0
1.9632,1783190143.3886,1,1,3.0000,0.0000,1.44682,0.22273,-2.78016,0.98659,1.57080,0.00001,-0.14512,-0.38002,0.04379,,,,,,,,,,,,,,,,,,,,,,,,,,0,0,0,0,0
1.9785,1783190143.4040,1,1,3.0000,0.0000,1.44681,0.22261,-2.78019,0.98675,1.57080,0.00001,-0.14512,-0.38002,0.04376,,,,,,,,,,,,,,,,,,,,,,,,,,0,0,0,0,0
1.9845,1783190143.4100,1,1,3.0000,0.0000,1.44681,0.22252,-2.78021,0.98686,1.57080,0.00001,-0.14512,-0.38002,0.04373,,,,,,,,,,,,,,,,,,,,,,,,,,0,0,0,0,0
1.9909,1783190143.4163,1,1,3.0000,0.0000,1.44681,0.22246,-2.78023,0.98694,1.57080,0.00001,-0.14512,-0.38002,0.04372,,,,,,,,,,,,,,,,,,,,,,,,,,0,0,0,0,0
1.9914,1783190143.4168,1,1,3.0000,0.0000,1.44681,0.22246,-2.78023,0.98694,1.57080,0.00001,-0.14512,-0.38002,0.04372,,,,,,,,,,,,,,,,,,,,,,,,,,0,0,0,0,0
2.0049,1783190143.4303,1,1,3.0000,0.0000,1.44681,0.22225,-2.78028,0.98720,1.57080,0.00001,-0.14512,-0.38002,0.04366,,,,,,,,,,,,,,,,,,,,,,,,,,0,0,0,0,0
2.0189,1783190143.4443,1,1,3.0000,0.0000,1.44681,0.22215,-2.78031,0.98732,1.57080,0.00001,-0.14512,-0.38002,0.04364,,,,,,,,,,,,,,,,,,,,,,,,,,0,0,0,0,0
2.0227,1783190143.4482,1,1,3.0000,0.0000,1.44681,0.22209,-2.78032,0.98740,1.57080,0.00001,-0.14512,-0.38002,0.04362,,,,,,,,,,,,,,,,,,,,,,,,,,0,0,0,0,0
2.0353,1783190143.4607,1,1,3.0000,0.0000,1.44681,0.22195,-2.78036,0.98757,1.57080,0.00001,-0.14512,-0.38002,0.04359,,,,,,,,,,,,,,,,,,,,,,,,,,0,0,0,0,0
2.0482,1783190143.4736,1,1,3.0000,0.0000,1.44681,0.22180,-2.78039,0.98776,1.57080,0.00001,-0.14512,-0.38002,0.04355,,,,,,,,,,,,,,,,,,,,,,,,,,0,0,0,0,0
2.0574,1783190143.4829,1,1,3.0000,0.0000,1.44681,0.22166,-2.78043,0.98794,1.57080,0.00001,-0.14512,-0.38002,0.04351,,,,,,,,,,,,,,,,,,,,,,,,,,0,0,0,0,0
2.0579,1783190143.4833,1,1,3.0000,0.0000,1.44681,0.22166,-2.78043,0.98794,1.57080,0.00001,-0.14512,-0.38002,0.04351,,,,,,,,,,,,,,,,,,,,,,,,,,0,0,0,0,0
2.0670,1783190143.4924,1,1,3.0000,0.0000,1.44681,0.22159,-2.78045,0.98802,1.57080,0.00001,-0.14512,-0.38002,0.04349,,,,,,,,,,,,,,,,,,,,,,,,,,0,0,0,0,0
2.0854,1783190143.5109,1,1,3.0000,0.0000,1.44681,0.22137,-2.78050,0.98830,1.57080,0.00001,-0.14512,-0.38002,0.04344,,,,,,,,,,,,,,,,,,,,,,,,,,0,0,0,0,0
2.0858,1783190143.5112,1,1,3.0000,0.0000,1.44681,0.22137,-2.78050,0.98830,1.57080,0.00001,-0.14512,-0.38002,0.04344,,,,,,,,,,,,,,,,,,,,,,,,,,0,0,0,0,0
2.0948,1783190143.5202,1,1,3.0000,0.0000,1.44681,0.22130,-2.78052,0.98839,1.57080,0.00001,-0.14512,-0.38002,0.04342,,,,,,,,,,,,,,,,,,,,,,,,,,0,0,0,0,0
2.1218,1783190143.5472,1,1,3.0000,0.0000,1.44681,0.22093,-2.78061,0.98884,1.57080,0.00001,-0.14512,-0.38002,0.04333,,,,,,,,,,,,,,,,,,,,,,,,,,0,0,0,0,0
2.1221,1783190143.5475,1,1,3.0000,0.0000,1.44681,0.22093,-2.78061,0.98884,1.57080,0.00001,-0.14512,-0.38002,0.04333,,,,,,,,,,,,,,,,,,,,,,,,,,0,0,0,0,0
2.1362,1783190143.5617,1,1,3.0000,0.0000,1.44681,0.22084,-2.78063,0.98896,1.57080,0.00001,-0.14512,-0.38002,0.04330,,,,,,,,,,,,,,,,,,,,,,,,,,0,0,0,0,0
2.1365,1783190143.5619,1,1,3.0000,0.0000,1.44681,0.22084,-2.78063,0.98896,1.57080,0.00001,-0.14512,-0.38002,0.04330,,,,,,,,,,,,,,,,,,,,,,,,,,0,0,0,0,0
2.1440,1783190143.5695,1,1,3.0000,0.0000,1.44681,0.22071,-2.78067,0.98912,1.57080,0.00001,-0.14512,-0.38002,0.04327,,,,,,,,,,,,,,,,,,,,,,,,,,0,0,0,0,0
2.1444,1783190143.5698,1,1,3.0000,0.0000,1.44681,0.22071,-2.78067,0.98912,1.57080,0.00001,-0.14512,-0.38002,0.04327,,,,,,,,,,,,,,,,,,,,,,,,,,0,0,0,0,0
2.1555,1783190143.5809,1,1,3.0000,0.0000,1.44681,0.22064,-2.78068,0.98921,1.57080,0.00001,-0.14512,-0.38002,0.04325,,,,,,,,,,,,,,,,,,,,,,,,,,0,0,0,0,0
2.1561,1783190143.5816,1,1,3.0000,0.0000,1.44681,0.22063,-2.78069,0.98923,1.57080,0.00001,-0.14512,-0.38002,0.04325,,,,,,,,,,,,,,,,,,,,,,,,,,0,0,0,0,0
2.1654,1783190143.5909,1,1,3.0000,0.0000,1.44681,0.22054,-2.78071,0.98933,1.57080,0.00001,-0.14512,-0.38002,0.04323,,,,,,,,,,,,,,,,,,,,,,,,,,0,0,0,0,0
2.1658,1783190143.5912,1,1,3.0000,0.0000,1.44681,0.22054,-2.78071,0.98933,1.57080,0.00001,-0.14512,-0.38002,0.04323,,,,,,,,,,,,,,,,,,,,,,,,,,0,0,0,0,0
2.1712,1783190143.5967,1,1,3.0000,0.0000,1.44681,0.22048,-2.78072,0.98941,1.57080,0.00001,-0.14512,-0.38002,0.04321,,,,,,,,,,,,,,,,,,,,,,,,,,0,0,0,0,0
2.1721,1783190143.5976,1,1,3.0000,0.0000,1.44681,0.22042,-2.78074,0.98949,1.57080,0.00001,-0.14512,-0.38002,0.04319,,,,,,,,,,,,,,,,,,,,,,,,,,0,0,0,0,0
2.2317,1783190143.6571,1,1,3.0000,0.0000,1.44681,0.21983,-2.78089,0.99023,1.57080,0.00001,-0.14512,-0.38002,0.04304,,,,,,,,,,,,,,,,,,,,,,,,,,0,0,0,0,0
2.2360,1783190143.6615,1,1,3.0000,0.0000,1.44681,0.21969,-2.78092,0.99040,1.57080,0.00001,-0.14512,-0.38002,0.04301,,,,,,,,,,,,,,,,,,,,,,,,,,0,0,0,0,0
2.2365,1783190143.6619,1,1,3.0000,0.0000,1.44681,0.21969,-2.78092,0.99040,1.57080,0.00001,-0.14512,-0.38002,0.04301,,,,,,,,,,,,,,,,,,,,,,,,,,0,0,0,0,0
2.2367,1783190143.6622,1,1,3.0000,0.0000,1.44681,0.21969,-2.78092,0.99040,1.57080,0.00001,-0.14512,-0.38002,0.04301,,,,,,,,,,,,,,,,,,,,,,,,,,0,0,0,0,0
2.2370,1783190143.6624,1,1,3.0000,0.0000,1.44681,0.21969,-2.78092,0.99040,1.57080,0.00001,-0.14512,-0.38002,0.04301,,,,,,,,,,,,,,,,,,,,,,,,,,0,0,0,0,0
2.2374,1783190143.6628,1,1,3.0000,0.0000,1.44681,0.21969,-2.78092,0.99040,1.57080,0.00001,-0.14512,-0.38002,0.04301,,,,,,,,,,,,,,,,,,,,,,,,,,0,0,0,0,0
2.2378,1783190143.6633,1,1,3.0000,0.0000,1.44681,0.21969,-2.78092,0.99040,1.57080,0.00001,-0.14512,-0.38002,0.04301,,,,,,,,,,,,,,,,,,,,,,,,,,0,0,0,0,0
2.2922,1783190143.7176,1,1,3.0000,0.0000,1.44681,0.21913,-2.78106,0.99109,1.57080,0.00001,-0.14512,-0.38002,0.04286,,,,,,,,,,,,,,,,,,,,,,,,,,0,0,0,0,0
2.2946,1783190143.7200,1,1,3.0000,0.0000,1.44681,0.21913,-2.78106,0.99109,1.57080,0.00001,-0.14512,-0.38002,0.04286,,,,,,,,,,,,,,,,,,,,,,,,,,0,0,0,0,0
2.2948,1783190143.7202,1,1,3.0000,0.0000,1.44681,0.21913,-2.78106,0.99109,1.57080,0.00001,-0.14512,-0.38002,0.04286,,,,,,,,,,,,,,,,,,,,,,,,,,0,0,0,0,0
2.2951,1783190143.7206,1,1,3.0000,0.0000,1.44681,0.21913,-2.78106,0.99109,1.57080,0.00001,-0.14512,-0.38002,0.04286,,,,,,,,,,,,,,,,,,,,,,,,,,0,0,0,0,0
2.2955,1783190143.7209,1,1,3.0000,0.0000,1.44681,0.21913,-2.78106,0.99109,1.57080,0.00001,-0.14512,-0.38002,0.04286,,,,,,,,,,,,,,,,,,,,,,,,,,0,0,0,0,0
2.2962,1783190143.7216,1,1,3.0000,0.0000,1.44681,0.21908,-2.78107,0.99116,1.57080,0.00001,-0.14512,-0.38002,0.04285,,,,,,,,,,,,,,,,,,,,,,,,,,0,0,0,0,0
2.3075,1783190143.7329,1,1,3.0000,0.0000,1.44681,0.21902,-2.78109,0.99123,1.57080,0.00001,-0.14512,-0.38002,0.04283,,,,,,,,,,,,,,,,,,,,,,,,,,0,0,0,0,0
2.3109,1783190143.7363,1,1,3.0000,0.0000,1.44681,0.21901,-2.78109,0.99125,1.57080,0.00001,-0.14512,-0.38002,0.04283,,,,,,,,,,,,,,,,,,,,,,,,,,0,0,0,0,0
2.3112,1783190143.7366,1,1,3.0000,0.0000,1.44681,0.21901,-2.78109,0.99125,1.57080,0.00001,-0.14512,-0.38002,0.04283,,,,,,,,,,,,,,,,,,,,,,,,,,0,0,0,0,0
2.3248,1783190143.7502,1,1,3.0000,0.0000,1.44681,0.21879,-2.78114,0.99152,1.57080,0.00001,-0.14512,-0.38002,0.04278,,,,,,,,,,,,,,,,,,,,,,,,,,0,0,0,0,0
2.3307,1783190143.7561,1,1,3.0000,0.0000,1.44681,0.21872,-2.78116,0.99161,1.57080,0.00001,-0.14512,-0.38002,0.04276,,,,,,,,,,,,,,,,,,,,,,,,,,0,0,0,0,0
2.3408,1783190143.7663,1,1,3.0000,0.0000,1.44681,0.21864,-2.78118,0.99171,1.57080,0.00001,-0.14512,-0.38002,0.04274,,,,,,,,,,,,,,,,,,,,,,,,,,0,0,0,0,0
2.3528,1783190143.7783,1,1,3.0000,0.0000,1.44681,0.21853,-2.78121,0.99185,1.57080,0.00001,-0.14512,-0.38002,0.04271,,,,,,,,,,,,,,,,,,,,,,,,,,0,0,0,0,0
2.3640,1783190143.7894,1,1,3.0000,0.0000,1.44681,0.21841,-2.78124,0.99199,1.57080,0.00001,-0.14512,-0.38002,0.04268,,,,,,,,,,,,,,,,,,,,,,,,,,0,0,0,0,0
2.3721,1783190143.7976,1,1,3.0000,0.0000,1.44681,0.21837,-2.78125,0.99205,1.57080,0.00001,-0.14512,-0.38002,0.04267,,,,,,,,,,,,,,,,,,,,,,,,,,0,0,0,0,0
2.3867,1783190143.8121,1,1,3.0000,0.0000,1.44681,0.21818,-2.78129,0.99228,1.57080,0.00001,-0.14512,-0.38002,0.04262,,,,,,,,,,,,,,,,,,,,,,,,,,0,0,0,0,0
2.3944,1783190143.8198,1,1,3.0000,0.0000,1.44681,0.21804,-2.78133,0.99246,1.57080,0.00001,-0.14512,-0.38002,0.04258,,,,,,,,,,,,,,,,,,,,,,,,,,0,0,0,0,0
2.4185,1783190143.8440,1,1,3.0000,0.0000,1.44681,0.21787,-2.78137,0.99267,1.57080,0.00001,-0.14512,-0.38002,0.04254,,,,,,,,,,,,,,,,,,,,,,,,,,0,0,0,0,0
2.4434,1783190143.8688,1,1,3.0000,0.0000,1.44681,0.21765,-2.78143,0.99295,1.57080,0.00001,-0.14512,-0.38002,0.04248,,,,,,,,,,,,,,,,,,,,,,,,,,0,0,0,0,0
2.4439,1783190143.8693,1,1,3.0000,0.0000,1.44681,0.21758,-2.78144,0.99303,1.57080,0.00001,-0.14512,-0.38002,0.04246,,,,,,,,,,,,,,,,,,,,,,,,,,0,0,0,0,0
2.4520,1783190143.8774,1,1,3.0000,0.0000,1.44681,0.21743,-2.78148,0.99321,1.57080,0.00001,-0.14512,-0.38002,0.04243,,,,,,,,,,,,,,,,,,,,,,,,,,0,0,0,0,0
2.4524,1783190143.8779,1,1,3.0000,0.0000,1.44681,0.21743,-2.78148,0.99321,1.57080,0.00001,-0.14512,-0.38002,0.04243,,,,,,,,,,,,,,,,,,,,,,,,,,0,0,0,0,0
2.4783,1783190143.9037,1,1,3.0000,0.0000,1.44681,0.21726,-2.78152,0.99342,1.57080,0.00001,-0.14512,-0.38002,0.04238,,,,,,,,,,,,,,,,,,,,,,,,,,0,0,0,0,0
2.5014,1783190143.9268,1,1,3.0000,0.0000,1.44681,0.21704,-2.78158,0.99370,1.57080,0.00001,-0.14512,-0.38002,0.04233,,,,,,,,,,,,,,,,,,,,,,,,,,0,0,0,0,0
2.5017,1783190143.9271,1,1,3.0000,0.0000,1.44681,0.21704,-2.78158,0.99370,1.57080,0.00001,-0.14512,-0.38002,0.04233,,,,,,,,,,,,,,,,,,,,,,,,,,0,0,0,0,0
2.5019,1783190143.9274,1,1,3.0000,0.0000,1.44681,0.21704,-2.78158,0.99370,1.57080,0.00001,-0.14512,-0.38002,0.04233,,,,,,,,,,,,,,,,,,,,,,,,,,0,0,0,0,0
2.5022,1783190143.9276,1,1,3.0000,0.0000,1.44681,0.21704,-2.78158,0.99370,1.57080,0.00001,-0.14512,-0.38002,0.04233,,,,,,,,,,,,,,,,,,,,,,,,,,0,0,0,0,0
2.5025,1783190143.9279,1,1,3.0000,0.0000,1.44681,0.21704,-2.78158,0.99370,1.57080,0.00001,-0.14512,-0.38002,0.04233,,,,,,,,,,,,,,,,,,,,,,,,,,0,0,0,0,0
2.5084,1783190143.9338,1,1,3.0000,0.0000,1.44681,0.21690,-2.78161,0.99388,1.57080,0.00001,-0.14512,-0.38002,0.04229,,,,,,,,,,,,,,,,,,,,,,,,,,0,0,0,0,0
2.5483,1783190143.9737,1,1,3.0000,0.0000,1.44681,0.21658,-2.78169,0.99427,1.57080,0.00001,-0.14512,-0.38002,0.04221,,,,,,,,,,,,,,,,,,,,,,,,,,0,0,0,0,0
2.5485,1783190143.9739,1,1,3.0000,0.0000,1.44681,0.21658,-2.78169,0.99427,1.57080,0.00001,-0.14512,-0.38002,0.04221,,,,,,,,,,,,,,,,,,,,,,,,,,0,0,0,0,0
2.5487,1783190143.9742,1,1,3.0000,0.0000,1.44681,0.21658,-2.78169,0.99427,1.57080,0.00001,-0.14512,-0.38002,0.04221,,,,,,,,,,,,,,,,,,,,,,,,,,0,0,0,0,0
2.5490,1783190143.9745,1,1,3.0000,0.0000,1.44681,0.21658,-2.78169,0.99427,1.57080,0.00001,-0.14512,-0.38002,0.04221,,,,,,,,,,,,,,,,,,,,,,,,,,0,0,0,0,0
2.5538,1783190143.9792,1,1,3.0000,0.0000,1.44681,0.21655,-2.78170,0.99431,1.57080,0.00001,-0.14512,-0.38002,0.04220,,,,,,,,,,,,,,,,,,,,,,,,,,0,0,0,0,0
2.5656,1783190143.9911,1,1,3.0000,0.0000,1.44681,0.21636,-2.78174,0.99455,1.57080,0.00001,-0.14512,-0.38002,0.04215,,,,,,,,,,,,,,,,,,,,,,,,,,0,0,0,0,0
2.5789,1783190144.0043,1,1,3.0000,0.0000,1.44681,0.21622,-2.78178,0.99472,1.57080,0.00001,-0.14512,-0.38002,0.04212,,,,,,,,,,,,,,,,,,,,,,,,,,0,0,0,0,0
2.5929,1783190144.0183,1,1,3.0000,0.0000,1.44681,0.21606,-2.78182,0.99492,1.57080,0.00001,-0.14512,-0.38002,0.04208,,,,,,,,,,,,,,,,,,,,,,,,,,0,0,0,0,0
2.5983,1783190144.0237,1,1,3.0000,0.0000,1.44681,0.21599,-2.78183,0.99500,1.57080,0.00001,-0.14512,-0.38002,0.04206,,,,,,,,,,,,,,,,,,,,,,,,,,0,0,0,0,0
2.6067,1783190144.0321,1,1,3.0000,0.0000,1.44681,0.21592,-2.78185,0.99509,1.57080,0.00001,-0.14512,-0.38002,0.04204,,,,,,,,,,,,,,,,,,,,,,,,,,0,0,0,0,0
2.6071,1783190144.0325,1,1,3.0000,0.0000,1.44681,0.21592,-2.78185,0.99509,1.57080,0.00001,-0.14512,-0.38002,0.04204,,,,,,,,,,,,,,,,,,,,,,,,,,0,0,0,0,0
2.6187,1783190144.0441,1,1,3.0000,0.0000,1.44681,0.21583,-2.78187,0.99521,1.57080,0.00001,-0.14512,-0.38002,0.04202,,,,,,,,,,,,,,,,,,,,,,,,,,0,0,0,0,0
2.6321,1783190144.0575,1,1,3.0000,0.0000,1.44681,0.21556,-2.78194,0.99555,1.57080,0.00001,-0.14512,-0.38002,0.04195,,,,,,,,,,,,,,,,,,,,,,,,,,0,0,0,0,0
2.6439,1783190144.0693,1,1,3.0000,0.0000,1.44681,0.21552,-2.78195,0.99559,1.57080,0.00001,-0.14512,-0.38002,0.04194,,,,,,,,,,,,,,,,,,,,,,,,,,0,0,0,0,0
2.6481,1783190144.0736,1,1,3.0000,0.0000,1.44681,0.21549,-2.78196,0.99564,1.57080,0.00001,-0.14512,-0.38002,0.04193,,,,,,,,,,,,,,,,,,,,,,,,,,0,0,0,0,0
2.6601,1783190144.0856,1,1,3.0000,0.0000,1.44681,0.21532,-2.78200,0.99584,1.57080,0.00001,-0.14512,-0.38002,0.04189,,,,,,,,,,,,,,,,,,,,,,,,,,0,0,0,0,0
2.6669,1783190144.0923,1,1,3.0000,0.0000,1.44681,0.21532,-2.78200,0.99584,1.57080,0.00001,-0.14512,-0.38002,0.04189,,,,,,,,,,,,,,,,,,,,,,,,,,0,0,0,0,0
2.6788,1783190144.1043,1,1,3.0000,0.0000,1.44681,0.21522,-2.78202,0.99596,1.57080,0.00001,-0.14512,-0.38002,0.04186,,,,,,,,,,,,,,,,,,,,,,,,,,0,0,0,0,0
2.6880,1783190144.1135,1,1,3.0000,0.0000,1.44681,0.21502,-2.78207,0.99622,1.57080,0.00001,-0.14512,-0.38002,0.04181,,,,,,,,,,,,,,,,,,,,,,,,,,0,0,0,0,0
2.6883,1783190144.1138,1,1,3.0000,0.0000,1.44681,0.21502,-2.78207,0.99622,1.57080,0.00001,-0.14512,-0.38002,0.04181,,,,,,,,,,,,,,,,,,,,,,,,,,0,0,0,0,0
2.6982,1783190144.1236,1,1,3.0000,0.0000,1.44681,0.21495,-2.78209,0.99631,1.57080,0.00001,-0.14512,-0.38002,0.04179,,,,,,,,,,,,,,,,,,,,,,,,,,0,0,0,0,0
2.7089,1783190144.1343,1,1,3.0000,0.0000,1.44681,0.21485,-2.78211,0.99643,1.57080,0.00001,-0.14512,-0.38002,0.04177,,,,,,,,,,,,,,,,,,,,,,,,,,0,0,0,0,0
2.7224,1783190144.1478,1,1,3.0000,0.0000,1.44681,0.21465,-2.78216,0.99668,1.57080,0.00001,-0.14512,-0.38002,0.04172,,,,,,,,,,,,,,,,,,,,,,,,,,0,0,0,0,0
2.7340,1783190144.1595,1,1,3.0000,0.0000,1.44681,0.21457,-2.78218,0.99678,1.57080,0.00001,-0.14512,-0.38002,0.04170,,,,,,,,,,,,,,,,,,,,,,,,,,0,0,0,0,0
2.7393,1783190144.1647,1,1,3.0000,0.0000,1.44681,0.21455,-2.78219,0.99681,1.57080,0.00001,-0.14512,-0.38002,0.04169,,,,,,,,,,,,,,,,,,,,,,,,,,0,0,0,0,0
2.7481,1783190144.1735,1,1,3.0000,0.0000,1.44681,0.21441,-2.78222,0.99698,1.57080,0.00002,-0.14512,-0.38002,0.04166,,,,,,,,,,,,,,,,,,,,,,,,,,0,0,0,0,0
2.7484,1783190144.1738,1,1,3.0000,0.0000,1.44681,0.21441,-2.78222,0.99698,1.57080,0.00002,-0.14512,-0.38002,0.04166,,,,,,,,,,,,,,,,,,,,,,,,,,0,0,0,0,0
2.7574,1783190144.1829,1,1,3.0000,0.0000,1.44681,0.21435,-2.78224,0.99706,1.57080,0.00002,-0.14512,-0.38002,0.04164,,,,,,,,,,,,,,,,,,,,,,,,,,0,0,0,0,0
2.7577,1783190144.1832,1,1,3.0000,0.0000,1.44681,0.21435,-2.78224,0.99706,1.57080,0.00002,-0.14512,-0.38002,0.04164,,,,,,,,,,,,,,,,,,,,,,,,,,0,0,0,0,0
2.7719,1783190144.1973,1,1,3.0000,0.0000,1.44681,0.21418,-2.78228,0.99726,1.57080,0.00002,-0.14512,-0.38002,0.04160,,,,,,,,,,,,,,,,,,,,,,,,,,0,0,0,0,0
2.7939,1783190144.2194,1,1,3.0000,0.0000,1.44681,0.21396,-2.78233,0.99754,1.57080,0.00002,-0.14512,-0.38002,0.04154,,,,,,,,,,,,,,,,,,,,,,,,,,0,0,0,0,0
2.8009,1783190144.2263,1,1,3.0000,0.0000,1.44681,0.21390,-2.78235,0.99761,1.57080,0.00002,-0.14512,-0.38002,0.04153,,,,,,,,,,,,,,,,,,,,,,,,,,0,0,0,0,0
2.8064,1783190144.2318,1,1,3.0000,0.0000,1.44681,0.21385,-2.78236,0.99767,1.57080,0.00002,-0.14512,-0.38002,0.04152,,,,,,,,,,,,,,,,,,,,,,,,,,0,0,0,0,0
2.8067,1783190144.2321,1,1,3.0000,0.0000,1.44681,0.21385,-2.78236,0.99767,1.57080,0.00002,-0.14512,-0.38002,0.04152,,,,,,,,,,,,,,,,,,,,,,,,,,0,0,0,0,0
2.8111,1783190144.2365,1,1,3.0000,0.0000,1.44681,0.21380,-2.78237,0.99774,1.57080,0.00002,-0.14512,-0.38002,0.04150,,,,,,,,,,,,,,,,,,,,,,,,,,0,0,0,0,0
2.8178,1783190144.2433,1,1,3.0000,0.0000,1.44681,0.21374,-2.78238,0.99781,1.57080,0.00002,-0.14512,-0.38002,0.04149,,,,,,,,,,,,,,,,,,,,,,,,,,0,0,0,0,0
2.8376,1783190144.2631,1,1,3.0000,0.0000,1.44681,0.21350,-2.78244,0.99810,1.57080,0.00002,-0.14512,-0.38002,0.04143,,,,,,,,,,,,,,,,,,,,,,,,,,0,0,0,0,0
2.8403,1783190144.2657,1,1,3.0000,0.0000,1.44681,0.21343,-2.78246,0.99820,1.57080,0.00002,-0.14512,-0.38002,0.04141,,,,,,,,,,,,,,,,,,,,,,,,,,0,0,0,0,0
2.8471,1783190144.2725,1,1,3.0000,0.0000,1.44681,0.21336,-2.78248,0.99828,1.57080,0.00002,-0.14512,-0.38002,0.04139,,,,,,,,,,,,,,,,,,,,,,,,,,0,0,0,0,0
2.8589,1783190144.2844,1,1,3.0000,0.0000,1.44681,0.21333,-2.78248,0.99832,1.57080,0.00002,-0.14512,-0.38002,0.04138,,,,,,,,,,,,,,,,,,,,,,,,,,0,0,0,0,0
2.8692,1783190144.2946,1,1,3.0000,0.0000,1.44681,0.21319,-2.78252,0.99850,1.57080,0.00002,-0.14512,-0.38002,0.04135,,,,,,,,,,,,,,,,,,,,,,,,,,0,0,0,0,0
2.8827,1783190144.3081,1,1,3.0000,0.0000,1.44681,0.21311,-2.78254,0.99859,1.57080,0.00002,-0.14512,-0.38002,0.04133,,,,,,,,,,,,,,,,,,,,,,,,,,0,0,0,0,0
2.8874,1783190144.3128,1,1,3.0000,0.0000,1.44681,0.21308,-2.78255,0.99863,1.57080,0.00002,-0.14512,-0.38002,0.04132,,,,,,,,,,,,,,,,,,,,,,,,,,0,0,0,0,0
2.8880,1783190144.3134,1,1,3.0000,0.0000,1.44681,0.21303,-2.78256,0.99870,1.57080,0.00002,-0.14512,-0.38002,0.04131,,,,,,,,,,,,,,,,,,,,,,,,,,0,0,0,0,0
2.9001,1783190144.3256,1,1,3.0000,0.0000,1.44681,0.21282,-2.78261,0.99895,1.57080,0.00002,-0.14512,-0.38002,0.04125,,,,,,,,,,,,,,,,,,,,,,,,,,0,0,0,0,0
2.9006,1783190144.3261,1,1,3.0000,0.0000,1.44681,0.21282,-2.78261,0.99895,1.57080,0.00002,-0.14512,-0.38002,0.04125,,,,,,,,,,,,,,,,,,,,,,,,,,0,0,0,0,0
2.9069,1783190144.3323,1,1,3.0000,0.0000,1.44681,0.21275,-2.78263,0.99904,1.57080,0.00002,-0.14512,-0.38002,0.04123,,,,,,,,,,,,,,,,,,,,,,,,,,0,0,0,0,0
2.9073,1783190144.3327,1,1,3.0000,0.0000,1.44681,0.21275,-2.78263,0.99904,1.57080,0.00002,-0.14512,-0.38002,0.04123,,,,,,,,,,,,,,,,,,,,,,,,,,0,0,0,0,0
2.9169,1783190144.3423,1,1,3.0000,0.0000,1.44681,0.21272,-2.78263,0.99908,1.57080,0.00002,-0.14512,-0.38002,0.04123,,,,,,,,,,,,,,,,,,,,,,,,,,0,0,0,0,0
2.9275,1783190144.3529,1,1,3.0000,0.0000,1.44681,0.21263,-2.78265,0.99919,1.57080,0.00002,-0.14512,-0.38002,0.04121,,,,,,,,,,,,,,,,,,,,,,,,,,0,0,0,0,0
2.9283,1783190144.3537,1,1,3.0000,0.0000,1.44681,0.21258,-2.78267,0.99926,1.57080,0.00002,-0.14512,-0.38002,0.04119,,,,,,,,,,,,,,,,,,,,,,,,,,0,0,0,0,0
2.9391,1783190144.3646,1,1,3.0000,0.0000,1.44681,0.21252,-2.78268,0.99933,1.57080,0.00002,-0.14512,-0.38002,0.04118,,,,,,,,,,,,,,,,,,,,,,,,,,0,0,0,0,0
2.9399,1783190144.3653,1,1,3.0000,0.0000,1.44681,0.21250,-2.78269,0.99935,1.57080,0.00002,-0.14512,-0.38002,0.04117,,,,,,,,,,,,,,,,,,,,,,,,,,0,0,0,0,0
2.9493,1783190144.3747,1,1,3.0000,0.0000,1.44681,0.21242,-2.78271,0.99945,1.57080,0.00002,-0.14512,-0.38002,0.04115,,,,,,,,,,,,,,,,,,,,,,,,,,0,0,0,0,0
2.9497,1783190144.3751,1,1,3.0000,0.0000,1.44681,0.21242,-2.78271,0.99945,1.57080,0.00002,-0.14512,-0.38002,0.04115,,,,,,,,,,,,,,,,,,,,,,,,,,0,0,0,0,0
2.9582,1783190144.3836,1,1,3.0000,0.0000,1.44681,0.21228,-2.78274,0.99962,1.57080,0.00002,-0.14512,-0.38002,0.04112,,,,,,,,,,,,,,,,,,,,,,,,,,0,0,0,0,0
2.9682,1783190144.3936,1,1,3.0000,0.0000,1.44681,0.21214,-2.78277,0.99980,1.57080,0.00002,-0.14512,-0.38002,0.04108,,,,,,,,,,,,,,,,,,,,,,,,,,0,0,0,0,0
2.9685,1783190144.3939,1,1,3.0000,0.0000,1.44681,0.21214,-2.78277,0.99980,1.57080,0.00002,-0.14512,-0.38002,0.04108,,,,,,,,,,,,,,,,,,,,,,,,,,0,0,0,0,0
2.9787,1783190144.4041,1,1,3.0000,0.0000,1.44681,0.21211,-2.78278,0.99984,1.57080,0.00002,-0.14512,-0.38002,0.04107,,,,,,,,,,,,,,,,,,,,,,,,,,0,0,0,0,0
2.9893,1783190144.4147,1,1,3.0000,0.0000,1.44681,0.21197,-2.78282,1.00002,1.57080,0.00002,-0.14512,-0.38002,0.04104,,,,,,,,,,,,,,,,,,,,,,,,,,0,0,0,0,0
3.0086,1783190144.4340,1,1,3.0000,0.0000,1.44681,0.21181,-2.78285,1.00021,1.57080,0.00002,-0.14512,-0.38002,0.04100,,,,,,,,,,,,,,,,,,,,,,,,,,0,0,0,0,0
3.0090,1783190144.4344,1,1,3.0000,0.0000,1.44681,0.21181,-2.78285,1.00021,1.57080,0.00002,-0.14512,-0.38002,0.04100,,,,,,,,,,,,,,,,,,,,,,,,,,0,0,0,0,0
3.0200,1783190144.4454,1,1,3.0000,0.0000,1.44681,0.21160,-2.78290,1.00047,1.57080,0.00002,-0.14512,-0.38002,0.04094,,,,,,,,,,,,,,,,,,,,,,,,,,0,0,0,0,0
3.0202,1783190144.4457,1,1,3.0000,0.0000,1.44681,0.21160,-2.78290,1.00047,1.57080,0.00002,-0.14512,-0.38002,0.04094,,,,,,,,,,,,,,,,,,,,,,,,,,0,0,0,0,0
3.0270,1783190144.4525,1,1,3.0000,0.0000,1.44681,0.21153,-2.78292,1.00056,1.57080,0.00002,-0.14512,-0.38002,0.04092,,,,,,,,,,,,,,,,,,,,,,,,,,0,0,0,0,0
3.0495,1783190144.4749,1,1,3.0000,0.0000,1.44681,0.21130,-2.78298,1.00084,1.57080,0.00002,-0.14512,-0.38002,0.04087,,,,,,,,,,,,,,,,,,,,,,,,,,0,0,0,0,0
3.0497,1783190144.4751,1,1,3.0000,0.0000,1.44681,0.21130,-2.78298,1.00084,1.57080,0.00002,-0.14512,-0.38002,0.04087,,,,,,,,,,,,,,,,,,,,,,,,,,0,0,0,0,0
3.0576,1783190144.4830,1,1,3.0000,0.0000,1.44681,0.21123,-2.78299,1.00093,1.57080,0.00002,-0.14512,-0.38002,0.04085,,,,,,,,,,,,,,,,,,,,,,,,,,0,0,0,0,0
3.0739,1783190144.4994,1,1,3.0000,0.0000,1.44681,0.21107,-2.78303,1.00113,1.57080,0.00002,-0.14512,-0.38002,0.04081,,,,,,,,,,,,,,,,,,,,,,,,,,0,0,0,0,0
3.0800,1783190144.5054,1,1,3.0000,0.0000,1.44681,0.21093,-2.78307,1.00130,1.57080,0.00002,-0.14512,-0.38002,0.04077,,,,,,,,,,,,,,,,,,,,,,,,,,0,0,0,0,0
3.0894,1783190144.5148,1,1,3.0000,0.0000,1.44681,0.21086,-2.78308,1.00139,1.57080,0.00002,-0.14512,-0.38002,0.04076,,,,,,,,,,,,,,,,,,,,,,,,,,0,0,0,0,0
3.0966,1783190144.5220,1,1,3.0000,0.0000,1.44681,0.21081,-2.78309,1.00145,1.57080,0.00002,-0.14512,-0.38002,0.04074,,,,,,,,,,,,,,,,,,,,,,,,,,0,0,0,0,0
3.0970,1783190144.5224,1,1,3.0000,0.0000,1.44681,0.21081,-2.78309,1.00145,1.57080,0.00002,-0.14512,-0.38002,0.04074,,,,,,,,,,,,,,,,,,,,,,,,,,0,0,0,0,0
3.1072,1783190144.5326,1,1,3.0000,0.0000,1.44681,0.21070,-2.78312,1.00158,1.57080,0.00002,-0.14512,-0.38002,0.04072,,,,,,,,,,,,,,,,,,,,,,,,,,0,0,0,0,0
3.1169,1783190144.5423,1,1,3.0000,0.0000,1.44681,0.21056,-2.78316,1.00176,1.57080,0.00002,-0.14512,-0.38002,0.04068,,,,,,,,,,,,,,,,,,,,,,,,,,0,0,0,0,0
3.1284,1783190144.5539,1,1,3.0000,0.0000,1.44681,0.21046,-2.78318,1.00188,1.57080,0.00002,-0.14512,-0.38002,0.04066,,,,,,,,,,,,,,,,,,,,,,,,,,0,0,0,0,0
3.1288,1783190144.5542,1,1,3.0000,0.0000,1.44681,0.21046,-2.78318,1.00188,1.57080,0.00002,-0.14512,-0.38002,0.04066,,,,,,,,,,,,,,,,,,,,,,,,,,0,0,0,0,0
3.1439,1783190144.5693,1,1,3.0000,0.0000,1.44681,0.21019,-2.78324,1.00222,1.57080,0.00002,-0.14512,-0.38002,0.04059,,,,,,,,,,,,,,,,,,,,,,,,,,0,0,0,0,0
3.1502,1783190144.5756,1,1,3.0000,0.0000,1.44681,0.21019,-2.78324,1.00222,1.57080,0.00002,-0.14512,-0.38002,0.04059,,,,,,,,,,,,,,,,,,,,,,,,,,0,0,0,0,0
3.1507,1783190144.5761,1,1,3.0000,0.0000,1.44681,0.21019,-2.78324,1.00222,1.57080,0.00002,-0.14512,-0.38002,0.04059,,,,,,,,,,,,,,,,,,,,,,,,,,0,0,0,0,0
3.1596,1783190144.5850,1,1,3.0000,0.0000,1.44681,0.21015,-2.78326,1.00227,1.57080,0.00002,-0.14512,-0.38002,0.04058,,,,,,,,,,,,,,,,,,,,,,,,,,0,0,0,0,0
3.1604,1783190144.5858,1,1,3.0000,0.0000,1.44681,0.21010,-2.78327,1.00234,1.57080,0.00002,-0.14512,-0.38002,0.04056,,,,,,,,,,,,,,,,,,,,,,,,,,0,0,0,0,0
3.1677,1783190144.5931,1,1,3.0000,0.0000,1.44681,0.21003,-2.78328,1.00241,1.57080,0.00002,-0.14512,-0.38002,0.04055,,,,,,,,,,,,,,,,,,,,,,,,,,0,0,0,0,0
3.1798,1783190144.6053,1,1,3.0000,0.0000,1.44681,0.20988,-2.78332,1.00261,1.57080,0.00002,-0.14512,-0.38002,0.04051,,,,,,,,,,,,,,,,,,,,,,,,,,0,0,0,0,0
3.1895,1783190144.6149,1,1,3.0000,0.0000,1.44680,0.20980,-2.78334,1.00271,1.57080,0.00002,-0.14512,-0.38002,0.04049,,,,,,,,,,,,,,,,,,,,,,,,,,0,0,0,0,0
3.1985,1783190144.6239,1,1,3.0000,0.0000,1.44680,0.20967,-2.78337,1.00287,1.57080,0.00002,-0.14512,-0.38002,0.04045,,,,,,,,,,,,,,,,,,,,,,,,,,0,0,0,0,0
3.2072,1783190144.6327,1,1,3.0000,0.0000,1.44680,0.20952,-2.78341,1.00305,1.57079,0.00002,-0.14512,-0.38002,0.04042,,,,,,,,,,,,,,,,,,,,,,,,,,0,0,0,0,0
3.2201,1783190144.6455,1,1,3.0000,0.0000,1.44680,0.20943,-2.78343,1.00317,1.57079,0.00002,-0.14512,-0.38002,0.04039,,,,,,,,,,,,,,,,,,,,,,,,,,0,0,0,0,0
3.2285,1783190144.6539,1,1,3.0000,0.0000,1.44680,0.20930,-2.78346,1.00333,1.57079,0.00002,-0.14512,-0.38002,0.04036,,,,,,,,,,,,,,,,,,,,,,,,,,0,0,0,0,0
3.2467,1783190144.6722,1,1,3.0000,0.0000,1.44680,0.20918,-2.78349,1.00348,1.57079,0.00002,-0.14512,-0.38002,0.04033,,,,,,,,,,,,,,,,,,,,,,,,,,0,0,0,0,0
3.2473,1783190144.6727,1,1,3.0000,0.0000,1.44680,0.20918,-2.78349,1.00348,1.57079,0.00002,-0.14512,-0.38002,0.04033,,,,,,,,,,,,,,,,,,,,,,,,,,0,0,0,0,0
3.2476,1783190144.6731,1,1,3.0000,0.0000,1.44680,0.20918,-2.78349,1.00348,1.57079,0.00002,-0.14512,-0.38002,0.04033,,,,,,,,,,,,,,,,,,,,,,,,,,0,0,0,0,0
3.2589,1783190144.6844,1,1,3.0000,0.0000,1.44680,0.20900,-2.78353,1.00370,1.57079,0.00002,-0.14512,-0.38002,0.04028,,,,,,,,,,,,,,,,,,,,,,,,,,0,0,0,0,0
3.2676,1783190144.6930,1,1,3.0000,0.0000,1.44680,0.20886,-2.78357,1.00388,1.57079,0.00002,-0.14512,-0.38002,0.04025,,,,,,,,,,,,,,,,,,,,,,,,,,0,0,0,0,0
3.2768,1783190144.7022,1,1,3.0000,0.0000,1.44680,0.20881,-2.78358,1.00393,1.57079,0.00002,-0.14512,-0.38002,0.04024,,,,,,,,,,,,,,,,,,,,,,,,,,0,0,0,0,0
3.2921,1783190144.7176,1,1,3.0000,0.0000,1.44680,0.20855,-2.78364,1.00425,1.57079,0.00002,-0.14512,-0.38002,0.04017,,,,,,,,,,,,,,,,,,,,,,,,,,0,0,0,0,0
3.3000,1783190144.7255,1,1,3.0000,0.0000,1.44680,0.20854,-2.78364,1.00426,1.57079,0.00002,-0.14512,-0.38002,0.04017,,,,,,,,,,,,,,,,,,,,,,,,,,0,0,0,0,0
3.3086,1783190144.7341,1,1,3.0000,0.0000,1.44680,0.20846,-2.78366,1.00437,1.57079,0.00002,-0.14512,-0.38002,0.04015,,,,,,,,,,,,,,,,,,,,,,,,,,0,0,0,0,0
3.3090,1783190144.7345,1,1,3.0000,0.0000,1.44680,0.20846,-2.78366,1.00437,1.57079,0.00002,-0.14512,-0.38002,0.04015,,,,,,,,,,,,,,,,,,,,,,,,,,0,0,0,0,0
3.3168,1783190144.7422,1,1,3.0000,0.0000,1.44680,0.20833,-2.78369,1.00453,1.57079,0.00002,-0.14512,-0.38002,0.04012,,,,,,,,,,,,,,,,,,,,,,,,,,0,0,0,0,0
3.3293,1783190144.7547,1,1,3.0000,0.0000,1.44680,0.20819,-2.78373,1.00471,1.57079,0.00002,-0.14512,-0.38002,0.04008,,,,,,,,,,,,,,,,,,,,,,,,,,0,0,0,0,0
3.3377,1783190144.7631,1,1,3.0000,0.0000,1.44680,0.20814,-2.78374,1.00476,1.57079,0.00002,-0.14512,-0.38002,0.04007,,,,,,,,,,,,,,,,,,,,,,,,,,0,0,0,0,0
3.3492,1783190144.7747,1,1,3.0000,0.0000,1.44680,0.20796,-2.78378,1.00499,1.57079,0.00002,-0.14512,-0.38002,0.04002,,,,,,,,,,,,,,,,,,,,,,,,,,0,0,0,0,0
3.3615,1783190144.7870,1,1,3.0000,0.0000,1.44680,0.20781,-2.78382,1.00517,1.57079,0.00002,-0.14512,-0.38002,0.03999,,,,,,,,,,,,,,,,,,,,,,,,,,0,0,0,0,0
3.3670,1783190144.7925,1,1,3.0000,0.0000,1.44680,0.20781,-2.78382,1.00518,1.57079,0.00002,-0.14512,-0.38002,0.03998,,,,,,,,,,,,,,,,,,,,,,,,,,0,0,0,0,0
3.3786,1783190144.8040,1,1,3.0000,0.0000,1.44680,0.20769,-2.78385,1.00532,1.57079,0.00002,-0.14512,-0.38002,0.03996,,,,,,,,,,,,,,,,,,,,,,,,,,0,0,0,0,0
3.3871,1783190144.8125,1,1,3.0000,0.0000,1.44680,0.20758,-2.78387,1.00546,1.57079,0.00002,-0.14512,-0.38002,0.03993,,,,,,,,,,,,,,,,,,,,,,,,,,0,0,0,0,0
3.3874,1783190144.8129,1,1,3.0000,0.0000,1.44680,0.20758,-2.78387,1.00546,1.57079,0.00002,-0.14512,-0.38002,0.03993,,,,,,,,,,,,,,,,,,,,,,,,,,0,0,0,0,0
3.3992,1783190144.8246,1,1,3.0000,0.0000,1.44680,0.20753,-2.78388,1.00552,1.57079,0.00002,-0.14512,-0.38002,0.03991,,,,,,,,,,,,,,,,,,,,,,,,,,0,0,0,0,0
3.4102,1783190144.8357,1,1,3.0000,0.0000,1.44680,0.20734,-2.78393,1.00575,1.57079,0.00002,-0.14512,-0.38002,0.03987,,,,,,,,,,,,,,,,,,,,,,,,,,0,0,0,0,0
3.4175,1783190144.8429,1,1,3.0000,0.0000,1.44680,0.20727,-2.78395,1.00584,1.57079,0.00002,-0.14512,-0.38002,0.03985,,,,,,,,,,,,,,,,,,,,,,,,,,0,0,0,0,0
3.4308,1783190144.8562,1,1,3.0000,0.0000,1.44680,0.20717,-2.78397,1.00596,1.57079,0.00002,-0.14512,-0.38002,0.03982,,,,,,,,,,,,,,,,,,,,,,,,,,0,0,0,0,0
3.4312,1783190144.8566,1,1,3.0000,0.0000,1.44680,0.20717,-2.78397,1.00596,1.57079,0.00002,-0.14512,-0.38002,0.03982,,,,,,,,,,,,,,,,,,,,,,,,,,0,0,0,0,0
3.4389,1783190144.8643,1,1,3.0000,0.0000,1.44680,0.20704,-2.78400,1.00612,1.57079,0.00002,-0.14512,-0.38002,0.03979,,,,,,,,,,,,,,,,,,,,,,,,,,0,0,0,0,0
3.4521,1783190144.8775,1,1,3.0000,0.0000,1.44680,0.20689,-2.78404,1.00632,1.57079,0.00002,-0.14512,-0.38002,0.03975,,,,,,,,,,,,,,,,,,,,,,,,,,0,0,0,0,0
3.4568,1783190144.8822,1,1,3.0000,0.0000,1.44680,0.20685,-2.78405,1.00636,1.57079,0.00002,-0.14512,-0.38002,0.03974,,,,,,,,,,,,,,,,,,,,,,,,,,0,0,0,0,0
3.4571,1783190144.8825,1,1,3.0000,0.0000,1.44680,0.20685,-2.78405,1.00636,1.57079,0.00002,-0.14512,-0.38002,0.03974,,,,,,,,,,,,,,,,,,,,,,,,,,0,0,0,0,0
3.4788,1783190144.9042,1,1,3.0000,0.0000,1.44680,0.20653,-2.78412,1.00676,1.57079,0.00002,-0.14512,-0.38002,0.03966,,,,,,,,,,,,,,,,,,,,,,,,,,0,0,0,0,0
3.4791,1783190144.9046,1,1,3.0000,0.0000,1.44680,0.20653,-2.78412,1.00676,1.57079,0.00002,-0.14512,-0.38002,0.03966,,,,,,,,,,,,,,,,,,,,,,,,,,0,0,0,0,0
3.4807,1783190144.9062,1,1,3.0000,0.0000,1.44680,0.20653,-2.78412,1.00676,1.57079,0.00002,-0.14512,-0.38002,0.03966,,,,,,,,,,,,,,,,,,,,,,,,,,0,0,0,0,0
3.4811,1783190144.9065,1,1,3.0000,0.0000,1.44680,0.20653,-2.78412,1.00676,1.57079,0.00002,-0.14512,-0.38002,0.03966,,,,,,,,,,,,,,,,,,,,,,,,,,0,0,0,0,0
3.5577,1783190144.9832,1,1,3.0000,0.0000,1.44680,0.20579,-2.78430,1.00767,1.57079,0.00002,-0.14512,-0.38002,0.03948,,,,,,,,,,,,,,,,,,,,,,,,,,0,0,0,0,0
3.5580,1783190144.9834,1,1,3.0000,0.0000,1.44680,0.20579,-2.78430,1.00767,1.57079,0.00002,-0.14512,-0.38002,0.03948,,,,,,,,,,,,,,,,,,,,,,,,,,0,0,0,0,0
3.5583,1783190144.9837,1,1,3.0000,0.0000,1.44680,0.20579,-2.78430,1.00767,1.57079,0.00002,-0.14512,-0.38002,0.03948,,,,,,,,,,,,,,,,,,,,,,,,,,0,0,0,0,0
3.5586,1783190144.9840,1,1,3.0000,0.0000,1.44680,0.20579,-2.78430,1.00767,1.57079,0.00002,-0.14512,-0.38002,0.03948,,,,,,,,,,,,,,,,,,,,,,,,,,0,0,0,0,0
3.5589,1783190144.9844,1,1,3.0000,0.0000,1.44680,0.20579,-2.78430,1.00767,1.57079,0.00002,-0.14512,-0.38002,0.03948,,,,,,,,,,,,,,,,,,,,,,,,,,0,0,0,0,0
3.5593,1783190144.9847,1,1,3.0000,0.0000,1.44680,0.20579,-2.78430,1.00767,1.57079,0.00002,-0.14512,-0.38002,0.03948,,,,,,,,,,,,,,,,,,,,,,,,,,0,0,0,0,0
3.5595,1783190144.9849,1,1,3.0000,0.0000,1.44680,0.20579,-2.78430,1.00767,1.57079,0.00002,-0.14512,-0.38002,0.03948,,,,,,,,,,,,,,,,,,,,,,,,,,0,0,0,0,0
3.5643,1783190144.9897,1,1,3.0000,0.0000,1.44680,0.20567,-2.78433,1.00782,1.57079,0.00002,-0.14512,-0.38002,0.03945,,,,,,,,,,,,,,,,,,,,,,,,,,0,0,0,0,0
3.5646,1783190144.9900,1,1,3.0000,0.0000,1.44680,0.20567,-2.78433,1.00782,1.57079,0.00002,-0.14512,-0.38002,0.03945,,,,,,,,,,,,,,,,,,,,,,,,,,0,0,0,0,0
3.5717,1783190144.9971,1,1,3.0000,0.0000,1.44680,0.20567,-2.78433,1.00782,1.57079,0.00002,-0.14512,-0.38002,0.03945,,,,,,,,,,,,,,,,,,,,,,,,,,0,0,0,0,0
3.5723,1783190144.9977,1,1,3.0000,0.0000,1.44680,0.20566,-2.78433,1.00783,1.57079,0.00002,-0.14512,-0.38002,0.03944,,,,,,,,,,,,,,,,,,,,,,,,,,0,0,0,0,0
3.5783,1783190145.0037,1,1,3.0000,0.0000,1.44680,0.20563,-2.78434,1.00788,1.57079,0.00002,-0.14512,-0.38002,0.03944,,,,,,,,,,,,,,,,,,,,,,,,,,0,0,0,0,0
3.5787,1783190145.0041,1,1,3.0000,0.0000,1.44680,0.20563,-2.78434,1.00788,1.57079,0.00002,-0.14512,-0.38002,0.03944,,,,,,,,,,,,,,,,,,,,,,,,,,0,0,0,0,0
3.5922,1783190145.0176,1,1,3.0000,0.0000,1.44680,0.20536,-2.78440,1.00820,1.57079,0.00002,-0.14512,-0.38002,0.03937,,,,,,,,,,,,,,,,,,,,,,,,,,0,0,0,0,0
3.5988,1783190145.0243,1,1,3.0000,0.0000,1.44680,0.20529,-2.78442,1.00829,1.57079,0.00002,-0.14512,-0.38002,0.03935,,,,,,,,,,,,,,,,,,,,,,,,,,0,0,0,0,0
3.5992,1783190145.0246,1,1,3.0000,0.0000,1.44680,0.20529,-2.78442,1.00829,1.57079,0.00002,-0.14512,-0.38002,0.03935,,,,,,,,,,,,,,,,,,,,,,,,,,0,0,0,0,0
3.6152,1783190145.0407,1,1,3.0000,0.0000,1.44680,0.20522,-2.78444,1.00838,1.57079,0.00002,-0.14512,-0.38002,0.03933,,,,,,,,,,,,,,,,,,,,,,,,,,0,0,0,0,0
3.6180,1783190145.0435,1,1,3.0000,0.0000,1.44680,0.20517,-2.78445,1.00844,1.57079,0.00002,-0.14512,-0.38002,0.03932,,,,,,,,,,,,,,,,,,,,,,,,,,0,0,0,0,0
3.6184,1783190145.0439,1,1,3.0000,0.0000,1.44680,0.20517,-2.78445,1.00844,1.57079,0.00002,-0.14512,-0.38002,0.03932,,,,,,,,,,,,,,,,,,,,,,,,,,0,0,0,0,0
3.6298,1783190145.0553,1,1,3.0000,0.0000,1.44680,0.20506,-2.78447,1.00858,1.57079,0.00002,-0.14512,-0.38002,0.03929,,,,,,,,,,,,,,,,,,,,,,,,,,0,0,0,0,0
3.6303,1783190145.0557,1,1,3.0000,0.0000,1.44680,0.20506,-2.78447,1.00858,1.57079,0.00002,-0.14512,-0.38002,0.03929,,,,,,,,,,,,,,,,,,,,,,,,,,0,0,0,0,0
3.6375,1783190145.0630,1,1,3.0000,0.0000,1.44680,0.20501,-2.78449,1.00864,1.57079,0.00002,-0.14512,-0.38002,0.03928,,,,,,,,,,,,,,,,,,,,,,,,,,0,0,0,0,0
3.6566,1783190145.0821,1,1,3.0000,0.0000,1.44680,0.20468,-2.78457,1.00905,1.57079,0.00002,-0.14512,-0.38002,0.03920,,,,,,,,,,,,,,,,,,,,,,,,,,0,0,0,0,0
3.6604,1783190145.0859,1,1,3.0000,0.0000,1.44680,0.20468,-2.78457,1.00905,1.57079,0.00002,-0.14512,-0.38002,0.03920,,,,,,,,,,,,,,,,,,,,,,,,,,0,0,0,0,0
3.6607,1783190145.0861,1,1,3.0000,0.0000,1.44680,0.20468,-2.78457,1.00905,1.57079,0.00002,-0.14512,-0.38002,0.03920,,,,,,,,,,,,,,,,,,,,,,,,,,0,0,0,0,0
3.6682,1783190145.0937,1,1,3.0000,0.0000,1.44680,0.20464,-2.78457,1.00909,1.57079,0.00002,-0.14512,-0.38002,0.03919,,,,,,,,,,,,,,,,,,,,,,,,,,0,0,0,0,0
3.6685,1783190145.0940,1,1,3.0000,0.0000,1.44680,0.20464,-2.78457,1.00909,1.57079,0.00002,-0.14512,-0.38002,0.03919,,,,,,,,,,,,,,,,,,,,,,,,,,0,0,0,0,0
3.6768,1783190145.1022,1,1,3.0000,0.0000,1.44680,0.20456,-2.78459,1.00920,1.57079,0.00002,-0.14512,-0.38002,0.03917,,,,,,,,,,,,,,,,,,,,,,,,,,0,0,0,0,0
3.6770,1783190145.1025,1,1,3.0000,0.0000,1.44680,0.20456,-2.78459,1.00920,1.57079,0.00002,-0.14512,-0.38002,0.03917,,,,,,,,,,,,,,,,,,,,,,,,,,0,0,0,0,0
3.6894,1783190145.1148,1,1,3.0000,0.0000,1.44680,0.20444,-2.78462,1.00935,1.57079,0.00002,-0.14512,-0.38002,0.03914,,,,,,,,,,,,,,,,,,,,,,,,,,0,0,0,0,0
3.7016,1783190145.1270,1,1,3.0000,0.0000,1.44680,0.20434,-2.78464,1.00947,1.57079,0.00002,-0.14512,-0.38002,0.03911,,,,,,,,,,,,,,,,,,,,,,,,,,0,0,0,0,0
3.7208,1783190145.1462,1,1,3.0000,0.0000,1.44680,0.20406,-2.78471,1.00982,1.57079,0.00002,-0.14512,-0.38002,0.03904,,,,,,,,,,,,,,,,,,,,,,,,,,0,0,0,0,0
3.7211,1783190145.1465,1,1,3.0000,0.0000,1.44680,0.20406,-2.78471,1.00982,1.57079,0.00002,-0.14512,-0.38002,0.03904,,,,,,,,,,,,,,,,,,,,,,,,,,0,0,0,0,0
3.7342,1783190145.1597,1,1,3.0000,0.0000,1.44680,0.20399,-2.78473,1.00991,1.57079,0.00002,-0.14512,-0.38002,0.03902,,,,,,,,,,,,,,,,,,,,,,,,,,0,0,0,0,0
3.7388,1783190145.1642,1,1,3.0000,0.0000,1.44680,0.20394,-2.78474,1.00997,1.57079,0.00002,-0.14512,-0.38002,0.03901,,,,,,,,,,,,,,,,,,,,,,,,,,0,0,0,0,0
3.7585,1783190145.1840,1,1,3.0000,0.0000,1.44680,0.20377,-2.78478,1.01017,1.57079,0.00002,-0.14512,-0.38002,0.03897,,,,,,,,,,,,,,,,,,,,,,,,,,0,0,0,0,0
3.7625,1783190145.1880,1,1,3.0000,0.0000,1.44680,0.20372,-2.78479,1.01023,1.57079,0.00002,-0.14512,-0.38002,0.03896,,,,,,,,,,,,,,,,,,,,,,,,,,0,0,0,0,0
3.7713,1783190145.1967,1,1,3.0000,0.0000,1.44680,0.20358,-2.78482,1.01040,1.57079,0.00002,-0.14512,-0.38002,0.03892,,,,,,,,,,,,,,,,,,,,,,,,,,0,0,0,0,0
3.7785,1783190145.2039,1,1,3.0000,0.0000,1.44680,0.20344,-2.78486,1.01058,1.57079,0.00002,-0.14512,-0.38002,0.03889,,,,,,,,,,,,,,,,,,,,,,,,,,0,0,0,0,0
3.7931,1783190145.2185,1,1,3.0000,0.0000,1.44680,0.20337,-2.78487,1.01067,1.57079,0.00002,-0.14512,-0.38002,0.03887,,,,,,,,,,,,,,,,,,,,,,,,,,0,0,0,0,0
3.7990,1783190145.2245,1,1,3.0000,0.0000,1.44680,0.20332,-2.78489,1.01073,1.57079,0.00002,-0.14512,-0.38002,0.03886,,,,,,,,,,,,,,,,,,,,,,,,,,0,0,0,0,0
3.8112,1783190145.2366,1,1,3.0000,0.0000,1.44680,0.20320,-2.78491,1.01087,1.57079,0.00002,-0.14512,-0.38002,0.03883,,,,,,,,,,,,,,,,,,,,,,,,,,0,0,0,0,0
3.8202,1783190145.2456,1,1,3.0000,0.0000,1.44680,0.20310,-2.78494,1.01100,1.57079,0.00002,-0.14512,-0.38002,0.03880,,,,,,,,,,,,,,,,,,,,,,,,,,0,0,0,0,0
3.8287,1783190145.2542,1,1,3.0000,0.0000,1.44680,0.20297,-2.78497,1.01117,1.57079,0.00002,-0.14512,-0.38001,0.03877,,,,,,,,,,,,,,,,,,,,,,,,,,0,0,0,0,0
3.8385,1783190145.2639,1,1,3.0000,0.0000,1.44680,0.20282,-2.78500,1.01135,1.57079,0.00002,-0.14512,-0.38001,0.03873,,,,,,,,,,,,,,,,,,,,,,,,,,0,0,0,0,0
3.8388,1783190145.2642,1,1,3.0000,0.0000,1.44680,0.20282,-2.78500,1.01135,1.57079,0.00002,-0.14512,-0.38001,0.03873,,,,,,,,,,,,,,,,,,,,,,,,,,0,0,0,0,0
3.8471,1783190145.2725,1,1,3.0000,0.0000,1.44680,0.20281,-2.78501,1.01136,1.57079,0.00002,-0.14512,-0.38001,0.03873,,,,,,,,,,,,,,,,,,,,,,,,,,0,0,0,0,0
3.8602,1783190145.2857,1,1,3.0000,0.0000,1.44680,0.20259,-2.78506,1.01163,1.57079,0.00002,-0.14512,-0.38001,0.03867,,,,,,,,,,,,,,,,,,,,,,,,,,0,0,0,0,0
3.8606,1783190145.2860,1,1,3.0000,0.0000,1.44680,0.20259,-2.78506,1.01163,1.57079,0.00002,-0.14512,-0.38001,0.03867,,,,,,,,,,,,,,,,,,,,,,,,,,0,0,0,0,0
3.8702,1783190145.2957,1,1,3.0000,0.0000,1.44680,0.20252,-2.78508,1.01172,1.57079,0.00002,-0.14512,-0.38001,0.03866,,,,,,,,,,,,,,,,,,,,,,,,,,0,0,0,0,0
3.8778,1783190145.3033,1,1,3.0000,0.0000,1.44680,0.20247,-2.78509,1.01178,1.57079,0.00002,-0.14512,-0.38001,0.03864,,,,,,,,,,,,,,,,,,,,,,,,,,0,0,0,0,0
3.8783,1783190145.3037,1,1,3.0000,0.0000,1.44680,0.20247,-2.78509,1.01178,1.57079,0.00002,-0.14512,-0.38001,0.03864,,,,,,,,,,,,,,,,,,,,,,,,,,0,0,0,0,0
3.8869,1783190145.3123,1,1,3.0000,0.0000,1.44680,0.20236,-2.78511,1.01192,1.57079,0.00002,-0.14512,-0.38001,0.03862,,,,,,,,,,,,,,,,,,,,,,,,,,0,0,0,0,0
3.8871,1783190145.3126,1,1,3.0000,0.0000,1.44680,0.20236,-2.78511,1.01192,1.57079,0.00002,-0.14512,-0.38001,0.03862,,,,,,,,,,,,,,,,,,,,,,,,,,0,0,0,0,0
3.8968,1783190145.3223,1,1,3.0000,0.0000,1.44680,0.20215,-2.78516,1.01218,1.57079,0.00002,-0.14512,-0.38001,0.03856,,,,,,,,,,,,,,,,,,,,,,,,,,0,0,0,0,0
3.9102,1783190145.3357,1,1,3.0000,0.0000,1.44680,0.20210,-2.78517,1.01224,1.57079,0.00002,-0.14512,-0.38001,0.03855,,,,,,,,,,,,,,,,,,,,,,,,,,0,0,0,0,0
3.9258,1783190145.3512,1,1,3.0000,0.0000,1.44680,0.20184,-2.78524,1.01256,1.57079,0.00002,-0.14512,-0.38001,0.03849,,,,,,,,,,,,,,,,,,,,,,,,,,0,0,0,0,0
3.9301,1783190145.3556,1,1,3.0000,0.0000,1.44680,0.20184,-2.78524,1.01256,1.57079,0.00002,-0.14512,-0.38001,0.03849,,,,,,,,,,,,,,,,,,,,,,,,,,0,0,0,0,0
3.9392,1783190145.3646,1,1,3.0000,0.0000,1.44680,0.20180,-2.78525,1.01261,1.57079,0.00002,-0.14512,-0.38001,0.03847,,,,,,,,,,,,,,,,,,,,,,,,,,0,0,0,0,0
3.9509,1783190145.3764,1,1,3.0000,0.0000,1.44680,0.20161,-2.78529,1.01284,1.57079,0.00002,-0.14512,-0.38001,0.03843,,,,,,,,,,,,,,,,,,,,,,,,,,0,0,0,0,0
3.9687,1783190145.3941,1,1,3.0000,0.0000,1.44680,0.20142,-2.78533,1.01307,1.57079,0.00003,-0.14512,-0.38001,0.03838,,,,,,,,,,,,,,,,,,,,,,,,,,0,0,0,0,0
3.9690,1783190145.3944,1,1,3.0000,0.0000,1.44680,0.20142,-2.78533,1.01307,1.57079,0.00003,-0.14512,-0.38001,0.03838,,,,,,,,,,,,,,,,,,,,,,,,,,0,0,0,0,0
3.9693,1783190145.3947,1,1,3.0000,0.0000,1.44680,0.20142,-2.78533,1.01307,1.57079,0.00003,-0.14512,-0.38001,0.03838,,,,,,,,,,,,,,,,,,,,,,,,,,0,0,0,0,0
3.9803,1783190145.4058,1,1,3.0000,0.0000,1.44680,0.20124,-2.78538,1.01330,1.57079,0.00003,-0.14512,-0.38001,0.03834,,,,,,,,,,,,,,,,,,,,,,,,,,0,0,0,0,0
3.9807,1783190145.4061,1,1,3.0000,0.0000,1.44680,0.20124,-2.78538,1.01330,1.57079,0.00003,-0.14512,-0.38001,0.03834,,,,,,,,,,,,,,,,,,,,,,,,,,0,0,0,0,0
3.9932,1783190145.4187,1,1,3.0000,0.0000,1.44680,0.20115,-2.78540,1.01341,1.57079,0.00003,-0.14512,-0.38001,0.03831,,,,,,,,,,,,,,,,,,,,,,,,,,0,0,0,0,0
4.0036,1783190145.4290,1,1,3.0000,0.0000,1.44680,0.20107,-2.78542,1.01351,1.57079,0.00003,-0.14512,-0.38001,0.03829,,,,,,,,,,,,,,,,,,,,,,,,,,0,0,0,0,0
4.0108,1783190145.4363,1,1,3.0000,0.0000,1.44680,0.20094,-2.78545,1.01368,1.57079,0.00003,-0.14512,-0.38001,0.03826,,,,,,,,,,,,,,,,,,,,,,,,,,0,0,0,0,0
4.0177,1783190145.4431,1,1,3.0000,0.0000,1.44680,0.20079,-2.78548,1.01385,1.57079,0.00003,-0.14512,-0.38001,0.03822,,,,,,,,,,,,,,,,,,,,,,,,,,0,0,0,0,0
4.0344,1783190145.4599,1,1,3.0000,0.0000,1.44680,0.20069,-2.78550,1.01397,1.57079,0.00003,-0.14512,-0.38001,0.03820,,,,,,,,,,,,,,,,,,,,,,,,,,0,0,0,0,0
4.0387,1783190145.4641,1,1,3.0000,0.0000,1.44680,0.20063,-2.78552,1.01405,1.57079,0.00003,-0.14512,-0.38001,0.03818,,,,,,,,,,,,,,,,,,,,,,,,,,0,0,0,0,0
4.0487,1783190145.4741,1,1,3.0000,0.0000,1.44680,0.20049,-2.78555,1.01423,1.57079,0.00003,-0.14512,-0.38001,0.03815,,,,,,,,,,,,,,,,,,,,,,,,,,0,0,0,0,0
4.0491,1783190145.4745,1,1,3.0000,0.0000,1.44680,0.20049,-2.78555,1.01423,1.57079,0.00003,-0.14512,-0.38001,0.03815,,,,,,,,,,,,,,,,,,,,,,,,,,0,0,0,0,0
4.0694,1783190145.4948,1,1,3.0000,0.0000,1.44680,0.20026,-2.78561,1.01451,1.57079,0.00003,-0.14512,-0.38001,0.03809,,,,,,,,,,,,,,,,,,,,,,,,,,0,0,0,0,0
4.0696,1783190145.4951,1,1,3.0000,0.0000,1.44680,0.20026,-2.78561,1.01451,1.57079,0.00003,-0.14512,-0.38001,0.03809,,,,,,,,,,,,,,,,,,,,,,,,,,0,0,0,0,0
4.0769,1783190145.5023,1,1,3.0000,0.0000,1.44680,0.20011,-2.78564,1.01469,1.57079,0.00003,-0.14512,-0.38001,0.03806,,,,,,,,,,,,,,,,,,,,,,,,,,0,0,0,0,0
4.0885,1783190145.5140,1,1,3.0000,0.0000,1.44680,0.20007,-2.78565,1.01475,1.57079,0.00003,-0.14512,-0.38001,0.03804,,,,,,,,,,,,,,,,,,,,,,,,,,0,0,0,0,0
4.0991,1783190145.5246,1,1,3.0000,0.0000,1.44680,0.19995,-2.78568,1.01489,1.57079,0.00003,-0.14512,-0.38001,0.03802,,,,,,,,,,,,,,,,,,,,,,,,,,0,0,0,0,0
4.1116,1783190145.5370,1,1,3.0000,0.0000,1.44680,0.19981,-2.78571,1.01506,1.57079,0.00003,-0.14512,-0.38001,0.03798,,,,,,,,,,,,,,,,,,,,,,,,,,0,0,0,0,0
4.1184,1783190145.5439,1,1,3.0000,0.0000,1.44680,0.19976,-2.78572,1.01512,1.57079,0.00003,-0.14512,-0.38001,0.03797,,,,,,,,,,,,,,,,,,,,,,,,,,0,0,0,0,0
4.1311,1783190145.5565,1,1,3.0000,0.0000,1.44680,0.19958,-2.78577,1.01535,1.57079,0.00003,-0.14512,-0.38001,0.03792,,,,,,,,,,,,,,,,,,,,,,,,,,0,0,0,0,0
4.1369,1783190145.5624,1,1,3.0000,0.0000,1.44680,0.19944,-2.78580,1.01552,1.57079,0.00003,-0.14512,-0.38001,0.03789,,,,,,,,,,,,,,,,,,,,,,,,,,0,0,0,0,0
4.1500,1783190145.5755,1,1,3.0000,0.0000,1.44680,0.19939,-2.78581,1.01558,1.57079,0.00003,-0.14512,-0.38001,0.03787,,,,,,,,,,,,,,,,,,,,,,,,,,0,0,0,0,0
4.1582,1783190145.5836,1,1,3.0000,0.0000,1.44680,0.19928,-2.78584,1.01572,1.57079,0.00003,-0.14512,-0.38001,0.03785,,,,,,,,,,,,,,,,,,,,,,,,,,0,0,0,0,0
4.1678,1783190145.5932,1,1,3.0000,0.0000,1.44680,0.19913,-2.78587,1.01590,1.57079,0.00003,-0.14512,-0.38001,0.03781,,,,,,,,,,,,,,,,,,,,,,,,,,0,0,0,0,0
4.1785,1783190145.6040,1,1,3.0000,0.0000,1.44680,0.19909,-2.78588,1.01596,1.57079,0.00003,-0.14512,-0.38001,0.03780,,,,,,,,,,,,,,,,,,,,,,,,,,0,0,0,0,0
4.1888,1783190145.6142,1,1,3.0000,0.0000,1.44680,0.19890,-2.78592,1.01619,1.57079,0.00003,-0.14512,-0.38001,0.03775,,,,,,,,,,,,,,,,,,,,,,,,,,0,0,0,0,0
4.1987,1783190145.6242,1,1,3.0000,0.0000,1.44680,0.19876,-2.78596,1.01636,1.57079,0.00003,-0.14512,-0.38001,0.03772,,,,,,,,,,,,,,,,,,,,,,,,,,0,0,0,0,0
4.2177,1783190145.6432,1,1,3.0000,0.0000,1.44680,0.19860,-2.78600,1.01656,1.57079,0.00003,-0.14512,-0.38001,0.03768,,,,,,,,,,,,,,,,,,,,,,,,,,0,0,0,0,0
4.2185,1783190145.6440,1,1,3.0000,0.0000,1.44680,0.19860,-2.78600,1.01656,1.57079,0.00003,-0.14512,-0.38001,0.03768,,,,,,,,,,,,,,,,,,,,,,,,,,0,0,0,0,0
4.2301,1783190145.6555,1,1,3.0000,0.0000,1.44680,0.19838,-2.78605,1.01683,1.57079,0.00003,-0.14512,-0.38001,0.03762,,,,,,,,,,,,,,,,,,,,,,,,,,0,0,0,0,0
4.2304,1783190145.6558,1,1,3.0000,0.0000,1.44680,0.19838,-2.78605,1.01683,1.57079,0.00003,-0.14512,-0.38001,0.03762,,,,,,,,,,,,,,,,,,,,,,,,,,0,0,0,0,0
4.2448,1783190145.6703,1,1,3.0000,0.0000,1.44680,0.19831,-2.78606,1.01691,1.57079,0.00003,-0.14512,-0.38001,0.03761,,,,,,,,,,,,,,,,,,,,,,,,,,0,0,0,0,0
4.2803,1783190145.7057,1,1,3.0000,0.0000,1.44680,0.19790,-2.78616,1.01742,1.57079,0.00003,-0.14512,-0.38001,0.03750,,,,,,,,,,,,,,,,,,,,,,,,,,0,0,0,0,0
4.2805,1783190145.7060,1,1,3.0000,0.0000,1.44680,0.19790,-2.78616,1.01742,1.57079,0.00003,-0.14512,-0.38001,0.03750,,,,,,,,,,,,,,,,,,,,,,,,,,0,0,0,0,0
4.2808,1783190145.7063,1,1,3.0000,0.0000,1.44680,0.19790,-2.78616,1.01742,1.57079,0.00003,-0.14512,-0.38001,0.03750,,,,,,,,,,,,,,,,,,,,,,,,,,0,0,0,0,0
4.2869,1783190145.7123,1,1,3.0000,0.0000,1.44680,0.19783,-2.78617,1.01751,1.57079,0.00003,-0.14512,-0.38001,0.03749,,,,,,,,,,,,,,,,,,,,,,,,,,0,0,0,0,0
4.2873,1783190145.7127,1,1,3.0000,0.0000,1.44680,0.19783,-2.78617,1.01751,1.57079,0.00003,-0.14512,-0.38001,0.03749,,,,,,,,,,,,,,,,,,,,,,,,,,0,0,0,0,0
4.3585,1783190145.7839,1,1,3.0000,0.0000,1.44680,0.19712,-2.78634,1.01838,1.57079,0.00003,-0.14512,-0.38001,0.03731,,,,,,,,,,,,,,,,,,,,,,,,,,0,0,0,0,0
4.3589,1783190145.7844,1,1,3.0000,0.0000,1.44680,0.19712,-2.78634,1.01838,1.57079,0.00003,-0.14512,-0.38001,0.03731,,,,,,,,,,,,,,,,,,,,,,,,,,0,0,0,0,0
4.3595,1783190145.7850,1,1,3.0000,0.0000,1.44680,0.19712,-2.78634,1.01838,1.57079,0.00003,-0.14512,-0.38001,0.03731,,,,,,,,,,,,,,,,,,,,,,,,,,0,0,0,0,0
4.3724,1783190145.7979,1,1,3.0000,0.0000,1.44680,0.19696,-2.78638,1.01858,1.57079,0.00003,-0.14512,-0.38001,0.03727,,,,,,,,,,,,,,,,,,,,,,,,,,0,0,0,0,0
4.3787,1783190145.8041,1,1,3.0000,0.0000,1.44680,0.19689,-2.78639,1.01866,1.57079,0.00003,-0.14512,-0.38001,0.03725,,,,,,,,,,,,,,,,,,,,,,,,,,0,0,0,0,0
4.3875,1783190145.8130,1,1,3.0000,0.0000,1.44680,0.19688,-2.78639,1.01867,1.57079,0.00003,-0.14512,-0.38001,0.03725,,,,,,,,,,,,,,,,,,,,,,,,,,0,0,0,0,0
4.4009,1783190145.8263,1,1,3.0000,0.0000,1.44680,0.19665,-2.78645,1.01895,1.57079,0.00003,-0.14512,-0.38001,0.03719,,,,,,,,,,,,,,,,,,,,,,,,,,0,0,0,0,0
4.4125,1783190145.8379,1,1,3.0000,0.0000,1.44680,0.19651,-2.78648,1.01913,1.57079,0.00003,-0.14511,-0.38001,0.03716,,,,,,,,,,,,,,,,,,,,,,,,,,0,0,0,0,0
4.4205,1783190145.8459,1,1,3.0000,0.0000,1.44680,0.19647,-2.78649,1.01918,1.57079,0.00003,-0.14511,-0.38001,0.03715,,,,,,,,,,,,,,,,,,,,,,,,,,0,0,0,0,0
4.4210,1783190145.8464,1,1,3.0000,0.0000,1.44680,0.19647,-2.78649,1.01918,1.57079,0.00003,-0.14511,-0.38001,0.03715,,,,,,,,,,,,,,,,,,,,,,,,,,0,0,0,0,0
4.4325,1783190145.8580,1,1,3.0000,0.0000,1.44679,0.19633,-2.78652,1.01935,1.57079,0.00003,-0.14511,-0.38001,0.03711,,,,,,,,,,,,,,,,,,,,,,,,,,0,0,0,0,0
4.4423,1783190145.8677,1,1,3.0000,0.0000,1.44679,0.19627,-2.78654,1.01943,1.57079,0.00003,-0.14511,-0.38001,0.03710,,,,,,,,,,,,,,,,,,,,,,,,,,0,0,0,0,0
4.4535,1783190145.8789,1,1,3.0000,0.0000,1.44679,0.19617,-2.78656,1.01955,1.57079,0.00003,-0.14511,-0.38001,0.03707,,,,,,,,,,,,,,,,,,,,,,,,,,0,0,0,0,0
4.4604,1783190145.8859,1,1,3.0000,0.0000,1.44679,0.19603,-2.78659,1.01972,1.57079,0.00003,-0.14511,-0.38001,0.03704,,,,,,,,,,,,,,,,,,,,,,,,,,0,0,0,0,0
4.4608,1783190145.8862,1,1,3.0000,0.0000,1.44679,0.19603,-2.78659,1.01972,1.57079,0.00003,-0.14511,-0.38001,0.03704,,,,,,,,,,,,,,,,,,,,,,,,,,0,0,0,0,0
4.4750,1783190145.9005,1,1,3.0000,0.0000,1.44679,0.19588,-2.78662,1.01990,1.57079,0.00003,-0.14511,-0.38001,0.03700,,,,,,,,,,,,,,,,,,,,,,,,,,0,0,0,0,0
4.4844,1783190145.9098,1,1,3.0000,0.0000,1.44679,0.19581,-2.78664,1.01999,1.57079,0.00003,-0.14511,-0.38001,0.03699,,,,,,,,,,,,,,,,,,,,,,,,,,0,0,0,0,0
4.4848,1783190145.9102,1,1,3.0000,0.0000,1.44679,0.19581,-2.78664,1.01999,1.57079,0.00003,-0.14511,-0.38001,0.03699,,,,,,,,,,,,,,,,,,,,,,,,,,0,0,0,0,0
4.4911,1783190145.9166,1,1,3.0000,0.0000,1.44679,0.19576,-2.78665,1.02005,1.57079,0.00003,-0.14511,-0.38001,0.03697,,,,,,,,,,,,,,,,,,,,,,,,,,0,0,0,0,0
4.5160,1783190145.9414,1,1,3.0000,0.0000,1.44679,0.19554,-2.78670,1.02032,1.57079,0.00003,-0.14511,-0.38001,0.03692,,,,,,,,,,,,,,,,,,,,,,,,,,0,0,0,0,0
4.5169,1783190145.9423,1,1,3.0000,0.0000,1.44679,0.19548,-2.78672,1.02040,1.57079,0.00003,-0.14511,-0.38001,0.03690,,,,,,,,,,,,,,,,,,,,,,,,,,0,0,0,0,0
4.5230,1783190145.9484,1,1,3.0000,0.0000,1.44679,0.19540,-2.78674,1.02049,1.57079,0.00003,-0.14511,-0.38001,0.03688,,,,,,,,,,,,,,,,,,,,,,,,,,0,0,0,0,0
4.5307,1783190145.9561,1,1,3.0000,0.0000,1.44679,0.19526,-2.78677,1.02067,1.57079,0.00003,-0.14511,-0.38001,0.03685,,,,,,,,,,,,,,,,,,,,,,,,,,0,0,0,0,0
4.5414,1783190145.9669,1,1,3.0000,0.0000,1.44679,0.19522,-2.78678,1.02072,1.57079,0.00003,-0.14511,-0.38001,0.03684,,,,,,,,,,,,,,,,,,,,,,,,,,0,0,0,0,0
4.5505,1783190145.9760,1,1,3.0000,0.0000,1.44679,0.19514,-2.78680,1.02082,1.57079,0.00003,-0.14511,-0.38001,0.03682,,,,,,,,,,,,,,,,,,,,,,,,,,0,0,0,0,0
4.5619,1783190145.9874,1,1,3.0000,0.0000,1.44679,0.19502,-2.78682,1.02097,1.57079,0.00003,-0.14511,-0.38001,0.03679,,,,,,,,,,,,,,,,,,,,,,,,,,0,0,0,0,0
4.5804,1783190146.0059,1,1,3.0000,0.0000,1.44679,0.19478,-2.78688,1.02126,1.57079,0.00003,-0.14511,-0.38001,0.03673,,,,,,,,,,,,,,,,,,,,,,,,,,0,0,0,0,0
4.5821,1783190146.0075,1,1,3.0000,0.0000,1.44679,0.19478,-2.78688,1.02126,1.57079,0.00003,-0.14511,-0.38001,0.03673,,,,,,,,,,,,,,,,,,,,,,,,,,0,0,0,0,0
4.5924,1783190146.0178,1,1,3.0000,0.0000,1.44679,0.19463,-2.78691,1.02144,1.57079,0.00003,-0.14511,-0.38001,0.03669,,,,,,,,,,,,,,,,,,,,,,,,,,0,0,0,0,0
4.5925,1783190146.0180,1,1,3.0000,0.0000,1.44679,0.19463,-2.78691,1.02144,1.57079,0.00003,-0.14511,-0.38001,0.03669,,,,,,,,,,,,,,,,,,,,,,,,,,0,0,0,0,0
4.6010,1783190146.0265,1,1,3.0000,0.0000,1.44679,0.19460,-2.78692,1.02149,1.57079,0.00003,-0.14511,-0.38001,0.03668,,,,,,,,,,,,,,,,,,,,,,,,,,0,0,0,0,0
4.6105,1783190146.0359,1,1,3.0000,0.0000,1.44679,0.19451,-2.78694,1.02159,1.57079,0.00003,-0.14511,-0.38001,0.03666,,,,,,,,,,,,,,,,,,,,,,,,,,0,0,0,0,0
4.6235,1783190146.0489,1,1,3.0000,0.0000,1.44679,0.19439,-2.78697,1.02174,1.57079,0.00003,-0.14511,-0.38001,0.03663,,,,,,,,,,,,,,,,,,,,,,,,,,0,0,0,0,0
4.6323,1783190146.0577,1,1,3.0000,0.0000,1.44679,0.19429,-2.78699,1.02186,1.57079,0.00003,-0.14511,-0.38001,0.03661,,,,,,,,,,,,,,,,,,,,,,,,,,0,0,0,0,0
4.6422,1783190146.0677,1,1,3.0000,0.0000,1.44679,0.19415,-2.78702,1.02203,1.57079,0.00003,-0.14511,-0.38001,0.03657,,,,,,,,,,,,,,,,,,,,,,,,,,0,0,0,0,0
4.6576,1783190146.0830,1,1,3.0000,0.0000,1.44679,0.19399,-2.78706,1.02223,1.57079,0.00003,-0.14511,-0.38001,0.03653,,,,,,,,,,,,,,,,,,,,,,,,,,0,0,0,0,0
4.6620,1783190146.0874,1,1,3.0000,0.0000,1.44679,0.19396,-2.78707,1.02227,1.57079,0.00003,-0.14511,-0.38001,0.03653,,,,,,,,,,,,,,,,,,,,,,,,,,0,0,0,0,0
4.6804,1783190146.1058,1,1,3.0000,0.0000,1.44679,0.19370,-2.78713,1.02259,1.57079,0.00003,-0.14511,-0.38001,0.03646,,,,,,,,,,,,,,,,,,,,,,,,,,0,0,0,0,0
4.6806,1783190146.1060,1,1,3.0000,0.0000,1.44679,0.19370,-2.78713,1.02259,1.57079,0.00003,-0.14511,-0.38001,0.03646,,,,,,,,,,,,,,,,,,,,,,,,,,0,0,0,0,0
4.6809,1783190146.1063,1,1,3.0000,0.0000,1.44679,0.19370,-2.78713,1.02259,1.57079,0.00003,-0.14511,-0.38001,0.03646,,,,,,,,,,,,,,,,,,,,,,,,,,0,0,0,0,0
4.6906,1783190146.1160,1,1,3.0000,0.0000,1.44679,0.19365,-2.78714,1.02265,1.57079,0.00003,-0.14511,-0.38001,0.03645,,,,,,,,,,,,,,,,,,,,,,,,,,0,0,0,0,0
4.7005,1783190146.1259,1,1,3.0000,0.0000,1.44679,0.19347,-2.78718,1.02288,1.57079,0.00003,-0.14511,-0.38001,0.03640,,,,,,,,,,,,,,,,,,,,,,,,,,0,0,0,0,0
4.7008,1783190146.1262,1,1,3.0000,0.0000,1.44679,0.19347,-2.78718,1.02288,1.57079,0.00003,-0.14511,-0.38001,0.03640,,,,,,,,,,,,,,,,,,,,,,,,,,0,0,0,0,0
4.7113,1783190146.1367,1,1,3.0000,0.0000,1.44679,0.19332,-2.78721,1.02305,1.57079,0.00003,-0.14511,-0.38001,0.03637,,,,,,,,,,,,,,,,,,,,,,,,,,0,0,0,0,0
4.7268,1783190146.1522,1,1,3.0000,0.0000,1.44679,0.19322,-2.78724,1.02318,1.57079,0.00003,-0.14511,-0.38001,0.03634,,,,,,,,,,,,,,,,,,,,,,,,,,0,0,0,0,0
4.7325,1783190146.1579,1,1,3.0000,0.0000,1.44679,0.19309,-2.78727,1.02334,1.57079,0.00003,-0.14511,-0.38001,0.03631,,,,,,,,,,,,,,,,,,,,,,,,,,0,0,0,0,0
4.7413,1783190146.1667,1,1,3.0000,0.0000,1.44679,0.19301,-2.78729,1.02343,1.57079,0.00003,-0.14511,-0.38001,0.03629,,,,,,,,,,,,,,,,,,,,,,,,,,0,0,0,0,0
4.7506,1783190146.1760,1,1,3.0000,0.0000,1.44679,0.19297,-2.78730,1.02349,1.57079,0.00003,-0.14511,-0.38001,0.03628,,,,,,,,,,,,,,,,,,,,,,,,,,0,0,0,0,0
4.7511,1783190146.1765,1,1,3.0000,0.0000,1.44679,0.19297,-2.78730,1.02349,1.57079,0.00003,-0.14511,-0.38001,0.03628,,,,,,,,,,,,,,,,,,,,,,,,,,0,0,0,0,0
4.7625,1783190146.1879,1,1,3.0000,0.0000,1.44679,0.19278,-2.78734,1.02372,1.57079,0.00003,-0.14511,-0.38001,0.03624,,,,,,,,,,,,,,,,,,,,,,,,,,0,0,0,0,0
4.7718,1783190146.1973,1,1,3.0000,0.0000,1.44679,0.19264,-2.78737,1.02390,1.57079,0.00003,-0.14511,-0.38001,0.03620,,,,,,,,,,,,,,,,,,,,,,,,,,0,0,0,0,0
4.7838,1783190146.2093,1,1,3.0000,0.0000,1.44679,0.19259,-2.78738,1.02395,1.57079,0.00003,-0.14511,-0.38001,0.03619,,,,,,,,,,,,,,,,,,,,,,,,,,0,0,0,0,0
4.7926,1783190146.2180,1,1,3.0000,0.0000,1.44679,0.19240,-2.78743,1.02418,1.57079,0.00003,-0.14511,-0.38001,0.03614,,,,,,,,,,,,,,,,,,,,,,,,,,0,0,0,0,0
4.8007,1783190146.2262,1,1,3.0000,0.0000,1.44679,0.19233,-2.78744,1.02427,1.57079,0.00003,-0.14511,-0.38001,0.03612,,,,,,,,,,,,,,,,,,,,,,,,,,0,0,0,0,0
4.8117,1783190146.2372,1,1,3.0000,0.0000,1.44679,0.19228,-2.78745,1.02433,1.57079,0.00003,-0.14511,-0.38001,0.03611,,,,,,,,,,,,,,,,,,,,,,,,,,0,0,0,0,0
4.8339,1783190146.2593,1,1,3.0000,0.0000,1.44679,0.19195,-2.78753,1.02474,1.57079,0.00003,-0.14511,-0.38001,0.03603,,,,,,,,,,,,,,,,,,,,,,,,,,0,0,0,0,0
4.8367,1783190146.2621,1,1,3.0000,0.0000,1.44679,0.19194,-2.78753,1.02475,1.57079,0.00003,-0.14511,-0.38001,0.03603,,,,,,,,,,,,,,,,,,,,,,,,,,0,0,0,0,0
4.8438,1783190146.2693,1,1,3.0000,0.0000,1.44679,0.19190,-2.78754,1.02480,1.57079,0.00003,-0.14511,-0.38001,0.03602,,,,,,,,,,,,,,,,,,,,,,,,,,0,0,0,0,0
4.8516,1783190146.2770,1,1,3.0000,0.0000,1.44679,0.19179,-2.78757,1.02494,1.57079,0.00003,-0.14511,-0.38001,0.03599,,,,,,,,,,,,,,,,,,,,,,,,,,0,0,0,0,0
4.8640,1783190146.2894,1,1,3.0000,0.0000,1.44679,0.19164,-2.78760,1.02512,1.57079,0.00003,-0.14511,-0.38001,0.03596,,,,,,,,,,,,,,,,,,,,,,,,,,0,0,0,0,0
4.8704,1783190146.2959,1,1,3.0000,0.0000,1.44679,0.19160,-2.78761,1.02517,1.57079,0.00003,-0.14511,-0.38001,0.03594,,,,,,,,,,,,,,,,,,,,,,,,,,0,0,0,0,0
4.8708,1783190146.2963,1,1,3.0000,0.0000,1.44679,0.19160,-2.78761,1.02517,1.57079,0.00003,-0.14511,-0.38001,0.03594,,,,,,,,,,,,,,,,,,,,,,,,,,0,0,0,0,0
4.8911,1783190146.3165,1,1,3.0000,0.0000,1.44679,0.19127,-2.78769,1.02558,1.57079,0.00003,-0.14511,-0.38001,0.03586,,,,,,,,,,,,,,,,,,,,,,,,,,0,0,0,0,0
4.8915,1783190146.3169,1,1,3.0000,0.0000,1.44679,0.19127,-2.78769,1.02558,1.57079,0.00003,-0.14511,-0.38001,0.03586,,,,,,,,,,,,,,,,,,,,,,,,,,0,0,0,0,0
4.9046,1783190146.3301,1,1,3.0000,0.0000,1.44679,0.19117,-2.78771,1.02570,1.57079,0.00003,-0.14511,-0.38001,0.03584,,,,,,,,,,,,,,,,,,,,,,,,,,0,0,0,0,0
4.9126,1783190146.3381,1,1,3.0000,0.0000,1.44679,0.19103,-2.78774,1.02587,1.57079,0.00003,-0.14511,-0.38001,0.03580,,,,,,,,,,,,,,,,,,,,,,,,,,0,0,0,0,0
4.9219,1783190146.3473,1,1,3.0000,0.0000,1.44679,0.19096,-2.78776,1.02596,1.57079,0.00003,-0.14511,-0.38001,0.03579,,,,,,,,,,,,,,,,,,,,,,,,,,0,0,0,0,0
4.9325,1783190146.3579,1,1,3.0000,0.0000,1.44679,0.19086,-2.78778,1.02608,1.57079,0.00003,-0.14511,-0.38001,0.03576,,,,,,,,,,,,,,,,,,,,,,,,,,0,0,0,0,0
4.9463,1783190146.3718,1,1,3.0000,0.0000,1.44679,0.19065,-2.78783,1.02633,1.57079,0.00003,-0.14511,-0.38001,0.03571,,,,,,,,,,,,,,,,,,,,,,,,,,0,0,0,0,0
4.9503,1783190146.3758,1,1,3.0000,0.0000,1.44679,0.19058,-2.78784,1.02642,1.57079,0.00003,-0.14511,-0.38001,0.03569,,,,,,,,,,,,,,,,,,,,,,,,,,0,0,0,0,0
4.9667,1783190146.3921,1,1,3.0000,0.0000,1.44679,0.19048,-2.78786,1.02654,1.57079,0.00003,-0.14511,-0.38001,0.03567,,,,,,,,,,,,,,,,,,,,,,,,,,0,0,0,0,0
4.9726,1783190146.3980,1,1,3.0000,0.0000,1.44679,0.19034,-2.78789,1.02671,1.57079,0.00003,-0.14511,-0.38001,0.03564,,,,,,,,,,,,,,,,,,,,,,,,,,0,0,0,0,0
4.9872,1783190146.4126,1,1,3.0000,0.0000,1.44679,0.19020,-2.78793,1.02689,1.57079,0.00003,-0.14511,-0.38001,0.03560,,,,,,,,,,,,,,,,,,,,,,,,,,0,0,0,0,0
4.9925,1783190146.4179,1,1,3.0000,0.0000,1.44679,0.19016,-2.78794,1.02693,1.57079,0.00003,-0.14511,-0.38001,0.03559,,,,,,,,,,,,,,,,,,,,,,,,,,0,0,0,0,0
5.0005,1783190146.4260,1,1,3.0000,0.0000,1.44679,0.19008,-2.78796,1.02704,1.57079,0.00003,-0.14511,-0.38001,0.03557,,,,,,,,,,,,,,,,,,,,,,,,,,0,0,0,0,0
5.0009,1783190146.4263,1,1,3.0000,0.0000,1.44679,0.19008,-2.78796,1.02704,1.57079,0.00003,-0.14511,-0.38001,0.03557,,,,,,,,,,,,,,,,,,,,,,,,,,0,0,0,0,0
5.0113,1783190146.4367,1,1,3.0000,0.0000,1.44679,0.18996,-2.78798,1.02719,1.57079,0.00003,-0.14511,-0.38001,0.03554,,,,,,,,,,,,,,,,,,,,,,,,,,0,0,0,0,0
5.0241,1783190146.4496,1,1,3.0000,0.0000,1.44679,0.18991,-2.78799,1.02725,1.57079,0.00003,-0.14511,-0.38001,0.03553,,,,,,,,,,,,,,,,,,,,,,,,,,0,0,0,0,0
5.0247,1783190146.4502,1,1,3.0000,0.0000,1.44679,0.18985,-2.78801,1.02731,1.57079,0.00003,-0.14511,-0.38001,0.03551,,,,,,,,,,,,,,,,,,,,,,,,,,0,0,0,0,0
5.0330,1783190146.4584,1,1,3.0000,0.0000,1.44679,0.18972,-2.78804,1.02748,1.57079,0.00003,-0.14511,-0.38001,0.03548,,,,,,,,,,,,,,,,,,,,,,,,,,0,0,0,0,0
5.0416,1783190146.4670,1,1,3.0000,0.0000,1.44679,0.18957,-2.78807,1.02766,1.57079,0.00003,-0.14511,-0.38001,0.03544,,,,,,,,,,,,,,,,,,,,,,,,,,0,0,0,0,0
5.0422,1783190146.4676,1,1,3.0000,0.0000,1.44679,0.18957,-2.78807,1.02766,1.57079,0.00003,-0.14511,-0.38001,0.03544,,,,,,,,,,,,,,,,,,,,,,,,,,0,0,0,0,0
5.0507,1783190146.4762,1,1,3.0000,0.0000,1.44679,0.18956,-2.78807,1.02768,1.57079,0.00003,-0.14511,-0.38001,0.03544,,,,,,,,,,,,,,,,,,,,,,,,,,0,0,0,0,0
5.0630,1783190146.4884,1,1,3.0000,0.0000,1.44679,0.18945,-2.78810,1.02781,1.57079,0.00003,-0.14511,-0.38001,0.03541,,,,,,,,,,,,,,,,,,,,,,,,,,0,0,0,0,0
5.0708,1783190146.4962,1,1,3.0000,0.0000,1.44679,0.18933,-2.78813,1.02796,1.57079,0.00003,-0.14511,-0.38001,0.03538,,,,,,,,,,,,,,,,,,,,,,,,,,0,0,0,0,0
5.0903,1783190146.5157,1,1,3.0000,0.0000,1.44679,0.18916,-2.78816,1.02817,1.57079,0.00003,-0.14511,-0.38001,0.03534,,,,,,,,,,,,,,,,,,,,,,,,,,0,0,0,0,0
5.0946,1783190146.5200,1,1,3.0000,0.0000,1.44679,0.18908,-2.78818,1.02826,1.57079,0.00003,-0.14511,-0.38001,0.03533,,,,,,,,,,,,,,,,,,,,,,,,,,0,0,0,0,0
5.0950,1783190146.5204,1,1,3.0000,0.0000,1.44679,0.18908,-2.78818,1.02826,1.57079,0.00003,-0.14511,-0.38001,0.03533,,,,,,,,,,,,,,,,,,,,,,,,,,0,0,0,0,0
5.1011,1783190146.5266,1,1,3.0000,0.0000,1.44679,0.18894,-2.78821,1.02844,1.57079,0.00003,-0.14511,-0.38001,0.03529,,,,,,,,,,,,,,,,,,,,,,,,,,0,0,0,0,0
5.1015,1783190146.5269,1,1,3.0000,0.0000,1.44679,0.18894,-2.78821,1.02844,1.57079,0.00003,-0.14511,-0.38001,0.03529,,,,,,,,,,,,,,,,,,,,,,,,,,0,0,0,0,0
5.1112,1783190146.5367,1,1,3.0000,0.0000,1.44679,0.18893,-2.78822,1.02845,1.57079,0.00003,-0.14511,-0.38001,0.03529,,,,,,,,,,,,,,,,,,,,,,,,,,0,0,0,0,0
5.1245,1783190146.5499,1,1,3.0000,0.0000,1.44679,0.18876,-2.78825,1.02866,1.57079,0.00003,-0.14511,-0.38001,0.03525,,,,,,,,,,,,,,,,,,,,,,,,,,0,0,0,0,0
5.1358,1783190146.5612,1,1,3.0000,0.0000,1.44679,0.18870,-2.78827,1.02873,1.57079,0.00003,-0.14511,-0.38001,0.03523,,,,,,,,,,,,,,,,,,,,,,,,,,0,0,0,0,0
5.1414,1783190146.5669,1,1,3.0000,0.0000,1.44679,0.18865,-2.78828,1.02879,1.57079,0.00003,-0.14511,-0.38001,0.03522,,,,,,,,,,,,,,,,,,,,,,,,,,0,0,0,0,0
5.1514,1783190146.5768,1,1,3.0000,0.0000,1.44679,0.18853,-2.78831,1.02894,1.57079,0.00003,-0.14511,-0.38001,0.03519,,,,,,,,,,,,,,,,,,,,,,,,,,0,0,0,0,0
5.2174,1783190146.6429,1,1,3.0000,0.0000,1.44679,0.18775,-2.78848,1.02990,1.57079,0.00004,-0.14511,-0.38001,0.03500,,,,,,,,,,,,,,,,,,,,,,,,,,0,0,0,0,0
5.2178,1783190146.6432,1,1,3.0000,0.0000,1.44679,0.18775,-2.78848,1.02990,1.57079,0.00004,-0.14511,-0.38001,0.03500,,,,,,,,,,,,,,,,,,,,,,,,,,0,0,0,0,0
5.2180,1783190146.6435,1,1,3.0000,0.0000,1.44679,0.18775,-2.78848,1.02990,1.57079,0.00004,-0.14511,-0.38001,0.03500,,,,,,,,,,,,,,,,,,,,,,,,,,0,0,0,0,0
5.2182,1783190146.6437,1,1,3.0000,0.0000,1.44679,0.18775,-2.78848,1.02990,1.57079,0.00004,-0.14511,-0.38001,0.03500,,,,,,,,,,,,,,,,,,,,,,,,,,0,0,0,0,0
5.2186,1783190146.6440,1,1,3.0000,0.0000,1.44679,0.18775,-2.78848,1.02990,1.57079,0.00004,-0.14511,-0.38001,0.03500,,,,,,,,,,,,,,,,,,,,,,,,,,0,0,0,0,0
5.2189,1783190146.6444,1,1,3.0000,0.0000,1.44679,0.18775,-2.78848,1.02990,1.57079,0.00004,-0.14511,-0.38001,0.03500,,,,,,,,,,,,,,,,,,,,,,,,,,0,0,0,0,0
5.2207,1783190146.6461,1,1,3.0000,0.0000,1.44679,0.18767,-2.78850,1.02999,1.57079,0.00004,-0.14511,-0.38001,0.03498,,,,,,,,,,,,,,,,,,,,,,,,,,0,0,0,0,0
5.2210,1783190146.6464,1,1,3.0000,0.0000,1.44679,0.18767,-2.78850,1.02999,1.57079,0.00004,-0.14511,-0.38001,0.03498,,,,,,,,,,,,,,,,,,,,,,,,,,0,0,0,0,0
5.2327,1783190146.6582,1,1,3.0000,0.0000,1.44679,0.18764,-2.78851,1.03003,1.57079,0.00004,-0.14511,-0.38001,0.03497,,,,,,,,,,,,,,,,,,,,,,,,,,0,0,0,0,0
5.2414,1783190146.6669,1,1,3.0000,0.0000,1.44679,0.18755,-2.78853,1.03014,1.57079,0.00004,-0.14511,-0.38001,0.03495,,,,,,,,,,,,,,,,,,,,,,,,,,0,0,0,0,0
5.2417,1783190146.6672,1,1,3.0000,0.0000,1.44679,0.18755,-2.78853,1.03014,1.57079,0.00004,-0.14511,-0.38001,0.03495,,,,,,,,,,,,,,,,,,,,,,,,,,0,0,0,0,0
5.2527,1783190146.6781,1,1,3.0000,0.0000,1.44679,0.18743,-2.78855,1.03028,1.57079,0.00004,-0.14511,-0.38001,0.03492,,,,,,,,,,,,,,,,,,,,,,,,,,0,0,0,0,0
5.2606,1783190146.6860,1,1,3.0000,0.0000,1.44679,0.18738,-2.78857,1.03034,1.57079,0.00004,-0.14511,-0.38001,0.03491,,,,,,,,,,,,,,,,,,,,,,,,,,0,0,0,0,0
5.2737,1783190146.6992,1,1,3.0000,0.0000,1.44679,0.18719,-2.78861,1.03058,1.57079,0.00004,-0.14511,-0.38001,0.03486,,,,,,,,,,,,,,,,,,,,,,,,,,0,0,0,0,0
5.2942,1783190146.7196,1,1,3.0000,0.0000,1.44679,0.18701,-2.78865,1.03080,1.57079,0.00004,-0.14511,-0.38001,0.03482,,,,,,,,,,,,,,,,,,,,,,,,,,0,0,0,0,0
5.2987,1783190146.7241,1,1,3.0000,0.0000,1.44679,0.18697,-2.78866,1.03085,1.57079,0.00004,-0.14511,-0.38001,0.03481,,,,,,,,,,,,,,,,,,,,,,,,,,0,0,0,0,0
5.3009,1783190146.7263,1,1,3.0000,0.0000,1.44679,0.18692,-2.78867,1.03091,1.57079,0.00004,-0.14511,-0.38001,0.03479,,,,,,,,,,,,,,,,,,,,,,,,,,0,0,0,0,0
5.3013,1783190146.7268,1,1,3.0000,0.0000,1.44679,0.18692,-2.78867,1.03091,1.57079,0.00004,-0.14511,-0.38001,0.03479,,,,,,,,,,,,,,,,,,,,,,,,,,0,0,0,0,0
5.3110,1783190146.7364,1,1,3.0000,0.0000,1.44679,0.18680,-2.78870,1.03106,1.57079,0.00004,-0.14511,-0.38001,0.03476,,,,,,,,,,,,,,,,,,,,,,,,,,0,0,0,0,0
5.3253,1783190146.7507,1,1,3.0000,0.0000,1.44679,0.18670,-2.78872,1.03118,1.57079,0.00004,-0.14511,-0.38001,0.03474,,,,,,,,,,,,,,,,,,,,,,,,,,0,0,0,0,0
5.3327,1783190146.7582,1,1,3.0000,0.0000,1.44679,0.18656,-2.78875,1.03136,1.57079,0.00004,-0.14511,-0.38001,0.03471,,,,,,,,,,,,,,,,,,,,,,,,,,0,0,0,0,0
5.3429,1783190146.7683,1,1,3.0000,0.0000,1.44679,0.18641,-2.78879,1.03154,1.57079,0.00004,-0.14511,-0.38001,0.03467,,,,,,,,,,,,,,,,,,,,,,,,,,0,0,0,0,0
5.3558,1783190146.7813,1,1,3.0000,0.0000,1.44679,0.18637,-2.78879,1.03158,1.57079,0.00004,-0.14511,-0.38001,0.03466,,,,,,,,,,,,,,,,,,,,,,,,,,0,0,0,0,0
5.3609,1783190146.7863,1,1,3.0000,0.0000,1.44679,0.18628,-2.78881,1.03169,1.57079,0.00004,-0.14511,-0.38001,0.03464,,,,,,,,,,,,,,,,,,,,,,,,,,0,0,0,0,0
5.3712,1783190146.7966,1,1,3.0000,0.0000,1.44679,0.18617,-2.78884,1.03183,1.57079,0.00004,-0.14511,-0.38001,0.03461,,,,,,,,,,,,,,,,,,,,,,,,,,0,0,0,0,0
5.3715,1783190146.7969,1,1,3.0000,0.0000,1.44679,0.18617,-2.78884,1.03183,1.57079,0.00004,-0.14511,-0.38001,0.03461,,,,,,,,,,,,,,,,,,,,,,,,,,0,0,0,0,0
5.3853,1783190146.8107,1,1,3.0000,0.0000,1.44679,0.18606,-2.78886,1.03196,1.57079,0.00004,-0.14511,-0.38001,0.03458,,,,,,,,,,,,,,,,,,,,,,,,,,0,0,0,0,0
5.3976,1783190146.8230,1,1,3.0000,0.0000,1.44679,0.18585,-2.78891,1.03222,1.57079,0.00004,-0.14511,-0.38001,0.03453,,,,,,,,,,,,,,,,,,,,,,,,,,0,0,0,0,0
5.3978,1783190146.8233,1,1,3.0000,0.0000,1.44679,0.18585,-2.78891,1.03222,1.57079,0.00004,-0.14511,-0.38001,0.03453,,,,,,,,,,,,,,,,,,,,,,,,,,0,0,0,0,0
5.4025,1783190146.8279,1,1,3.0000,0.0000,1.44679,0.18577,-2.78893,1.03231,1.57079,0.00004,-0.14511,-0.38001,0.03451,,,,,,,,,,,,,,,,,,,,,,,,,,0,0,0,0,0
5.4125,1783190146.8380,1,1,3.0000,0.0000,1.44679,0.18574,-2.78894,1.03236,1.57079,0.00004,-0.14511,-0.38001,0.03451,,,,,,,,,,,,,,,,,,,,,,,,,,0,0,0,0,0
5.4215,1783190146.8469,1,1,3.0000,0.0000,1.44679,0.18565,-2.78895,1.03246,1.57079,0.00004,-0.14511,-0.38001,0.03448,,,,,,,,,,,,,,,,,,,,,,,,,,0,0,0,0,0
5.4314,1783190146.8568,1,1,3.0000,0.0000,1.44679,0.18553,-2.78898,1.03261,1.57079,0.00004,-0.14511,-0.38001,0.03445,,,,,,,,,,,,,,,,,,,,,,,,,,0,0,0,0,0
5.4424,1783190146.8679,1,1,3.0000,0.0000,1.44679,0.18548,-2.78899,1.03267,1.57079,0.00004,-0.14511,-0.38001,0.03444,,,,,,,,,,,,,,,,,,,,,,,,,,0,0,0,0,0
5.4509,1783190146.8764,1,1,3.0000,0.0000,1.44679,0.18536,-2.78902,1.03282,1.57079,0.00004,-0.14511,-0.38001,0.03441,,,,,,,,,,,,,,,,,,,,,,,,,,0,0,0,0,0
5.4513,1783190146.8768,1,1,3.0000,0.0000,1.44679,0.18536,-2.78902,1.03282,1.57079,0.00004,-0.14511,-0.38001,0.03441,,,,,,,,,,,,,,,,,,,,,,,,,,0,0,0,0,0
5.4607,1783190146.8861,1,1,3.0000,0.0000,1.44679,0.18514,-2.78907,1.03309,1.57079,0.00004,-0.14511,-0.38001,0.03436,,,,,,,,,,,,,,,,,,,,,,,,,,0,0,0,0,0
5.4734,1783190146.8989,1,1,3.0000,0.0000,1.44679,0.18510,-2.78908,1.03313,1.57079,0.00004,-0.14511,-0.38001,0.03435,,,,,,,,,,,,,,,,,,,,,,,,,,0,0,0,0,0
5.4824,1783190146.9078,1,1,3.0000,0.0000,1.44679,0.18502,-2.78910,1.03324,1.57079,0.00004,-0.14511,-0.38001,0.03433,,,,,,,,,,,,,,,,,,,,,,,,,,0,0,0,0,0
5.4831,1783190146.9085,1,1,3.0000,0.0000,1.44679,0.18502,-2.78910,1.03324,1.57079,0.00004,-0.14511,-0.38001,0.03433,,,,,,,,,,,,,,,,,,,,,,,,,,0,0,0,0,0
5.4990,1783190146.9244,1,1,3.0000,0.0000,1.44679,0.18488,-2.78913,1.03340,1.57079,0.00004,-0.14511,-0.38001,0.03430,,,,,,,,,,,,,,,,,,,,,,,,,,0,0,0,0,0
5.5041,1783190146.9295,1,1,3.0000,0.0000,1.44679,0.18485,-2.78913,1.03345,1.57079,0.00004,-0.14511,-0.38001,0.03429,,,,,,,,,,,,,,,,,,,,,,,,,,0,0,0,0,0
5.5049,1783190146.9303,1,1,3.0000,0.0000,1.44679,0.18479,-2.78915,1.03351,1.57079,0.00004,-0.14511,-0.38001,0.03427,,,,,,,,,,,,,,,,,,,,,,,,,,0,0,0,0,0
5.5106,1783190146.9361,1,1,3.0000,0.0000,1.44679,0.18473,-2.78916,1.03359,1.57079,0.00004,-0.14511,-0.38001,0.03426,,,,,,,,,,,,,,,,,,,,,,,,,,0,0,0,0,0
5.5209,1783190146.9463,1,1,3.0000,0.0000,1.44679,0.18450,-2.78921,1.03387,1.57079,0.00004,-0.14511,-0.38001,0.03420,,,,,,,,,,,,,,,,,,,,,,,,,,0,0,0,0,0
5.5305,1783190146.9559,1,1,3.0000,0.0000,1.44679,0.18449,-2.78921,1.03388,1.57079,0.00004,-0.14511,-0.38001,0.03420,,,,,,,,,,,,,,,,,,,,,,,,,,0,0,0,0,0
5.5448,1783190146.9703,1,1,3.0000,0.0000,1.44679,0.18427,-2.78926,1.03416,1.57079,0.00004,-0.14511,-0.38001,0.03415,,,,,,,,,,,,,,,,,,,,,,,,,,0,0,0,0,0
5.5513,1783190146.9768,1,1,3.0000,0.0000,1.44679,0.18419,-2.78928,1.03425,1.57079,0.00004,-0.14511,-0.38001,0.03413,,,,,,,,,,,,,,,,,,,,,,,,,,0,0,0,0,0
5.5607,1783190146.9861,1,1,3.0000,0.0000,1.44679,0.18415,-2.78929,1.03430,1.57079,0.00004,-0.14511,-0.38001,0.03412,,,,,,,,,,,,,,,,,,,,,,,,,,0,0,0,0,0
5.5786,1783190147.0041,1,1,3.0000,0.0000,1.44679,0.18388,-2.78935,1.03462,1.57079,0.00004,-0.14511,-0.38001,0.03405,,,,,,,,,,,,,,,,,,,,,,,,,,0,0,0,0,0
5.5806,1783190147.0060,1,1,3.0000,0.0000,1.44679,0.18381,-2.78937,1.03471,1.57079,0.00004,-0.14511,-0.38001,0.03403,,,,,,,,,,,,,,,,,,,,,,,,,,0,0,0,0,0
5.5808,1783190147.0063,1,1,3.0000,0.0000,1.44679,0.18381,-2.78937,1.03471,1.57079,0.00004,-0.14511,-0.38001,0.03403,,,,,,,,,,,,,,,,,,,,,,,,,,0,0,0,0,0
