Martins-Lucaas/twinforge/sensors/Data/20260704_154011__samples.csv
t_rel_s,t_unix,cycle,phase,setpoint_n,force_net_n,q1,q2,q3,q4,q5,q6,tcp_x,tcp_y,tcp_z,taxel_0,taxel_1,taxel_2,taxel_3,taxel_4,taxel_5,taxel_6,taxel_7,taxel_8,taxel_9,taxel_10,taxel_11,taxel_12,taxel_13,taxel_14,taxel_15,taxel_16,taxel_17,taxel_18,taxel_19,taxel_20,taxel_21,taxel_22,taxel_23,taxel_24,n_RA,n_SA,cn_mm,cn_ra,cn_sa
0.0076,1783190411.6108,1,0,1.0000,0.0000,1.44682,0.23328,-2.77748,0.97337,1.57080,-0.00000,-0.14512,-0.38003,0.04653,,,,,,,,,,,,,,,,,,,,,,,,,,0,0,0,0,0
0.0287,1783190411.6320,1,0,1.0000,0.0000,1.44682,0.23328,-2.77748,0.97337,1.57080,-0.00000,-0.14512,-0.38003,0.04653,,,,,,,,,,,,,,,,,,,,,,,,,,0,0,0,0,0
0.0306,1783190411.6338,1,0,1.0000,0.0000,1.44682,0.23328,-2.77748,0.97337,1.57080,-0.00000,-0.14512,-0.38003,0.04653,,,,,,,,,,,,,,,,,,,,,,,,,,0,0,0,0,0
0.0369,1783190411.6402,1,0,1.0000,0.0000,1.44682,0.23328,-2.77748,0.97337,1.57080,-0.00000,-0.14512,-0.38003,0.04653,,,,,,,,,,,,,,,,,,,,,,,,,,0,0,0,0,0
0.0467,1783190411.6500,1,0,1.0000,0.0000,1.44682,0.23328,-2.77748,0.97337,1.57080,-0.00000,-0.14512,-0.38003,0.04653,,,,,,,,,,,,,,,,,,,,,,,,,,0,0,0,0,0
0.0569,1783190411.6602,1,0,1.0000,0.0000,1.44682,0.23328,-2.77748,0.97337,1.57080,-0.00000,-0.14512,-0.38003,0.04653,,,,,,,,,,,,,,,,,,,,,,,,,,0,0,0,0,0
0.0739,1783190411.6771,1,0,1.0000,0.0000,1.44682,0.23328,-2.77748,0.97337,1.57080,-0.00000,-0.14512,-0.38003,0.04653,,,,,,,,,,,,,,,,,,,,,,,,,,0,0,0,0,0
0.0781,1783190411.6814,1,0,1.0000,0.0000,1.44682,0.23328,-2.77748,0.97337,1.57080,-0.00000,-0.14512,-0.38003,0.04653,,,,,,,,,,,,,,,,,,,,,,,,,,0,0,0,0,0
0.0894,1783190411.6927,1,0,1.0000,0.0000,1.44682,0.23328,-2.77748,0.97337,1.57080,-0.00000,-0.14512,-0.38003,0.04653,,,,,,,,,,,,,,,,,,,,,,,,,,0,0,0,0,0
0.0993,1783190411.7025,1,0,1.0000,0.0000,1.44682,0.23328,-2.77748,0.97337,1.57080,-0.00000,-0.14512,-0.38003,0.04653,,,,,,,,,,,,,,,,,,,,,,,,,,0,0,0,0,0
0.1097,1783190411.7129,1,0,1.0000,0.0000,1.44682,0.23328,-2.77748,0.97337,1.57080,-0.00000,-0.14512,-0.38003,0.04653,,,,,,,,,,,,,,,,,,,,,,,,,,0,0,0,0,0
0.1099,1783190411.7132,1,0,1.0000,0.0000,1.44682,0.23328,-2.77748,0.97337,1.57080,-0.00000,-0.14512,-0.38003,0.04653,,,,,,,,,,,,,,,,,,,,,,,,,,0,0,0,0,0
0.1170,1783190411.7203,1,0,1.0000,0.0000,1.44682,0.23328,-2.77748,0.97337,1.57080,-0.00000,-0.14512,-0.38003,0.04653,,,,,,,,,,,,,,,,,,,,,,,,,,0,0,0,0,0
0.1298,1783190411.7331,1,0,1.0000,0.0000,1.44682,0.23328,-2.77748,0.97337,1.57080,0.00000,-0.14512,-0.38003,0.04653,,,,,,,,,,,,,,,,,,,,,,,,,,0,0,0,0,0
0.1370,1783190411.7402,1,0,1.0000,0.0000,1.44682,0.23328,-2.77748,0.97337,1.57080,0.00000,-0.14512,-0.38003,0.04653,,,,,,,,,,,,,,,,,,,,,,,,,,0,0,0,0,0
0.1373,1783190411.7405,1,0,1.0000,0.0000,1.44682,0.23328,-2.77748,0.97337,1.57080,0.00000,-0.14512,-0.38003,0.04653,,,,,,,,,,,,,,,,,,,,,,,,,,0,0,0,0,0
0.1489,1783190411.7521,1,0,1.0000,0.0000,1.44682,0.23328,-2.77748,0.97337,1.57080,0.00000,-0.14512,-0.38003,0.04653,,,,,,,,,,,,,,,,,,,,,,,,,,0,0,0,0,0
0.1634,1783190411.7666,1,0,1.0000,0.0000,1.44682,0.23328,-2.77748,0.97337,1.57080,0.00000,-0.14512,-0.38003,0.04653,,,,,,,,,,,,,,,,,,,,,,,,,,0,0,0,0,0
0.1665,1783190411.7698,1,0,1.0000,0.0000,1.44682,0.23328,-2.77748,0.97337,1.57080,0.00000,-0.14512,-0.38003,0.04653,,,,,,,,,,,,,,,,,,,,,,,,,,0,0,0,0,0
0.1668,1783190411.7701,1,0,1.0000,0.0000,1.44682,0.23328,-2.77748,0.97337,1.57080,0.00000,-0.14512,-0.38003,0.04653,,,,,,,,,,,,,,,,,,,,,,,,,,0,0,0,0,0
0.1803,1783190411.7835,1,0,1.0000,0.0000,1.44682,0.23328,-2.77748,0.97337,1.57080,0.00000,-0.14512,-0.38003,0.04653,,,,,,,,,,,,,,,,,,,,,,,,,,0,0,0,0,0
0.2119,1783190411.8151,1,0,1.0000,0.0000,1.44682,0.23328,-2.77748,0.97337,1.57080,0.00000,-0.14512,-0.38003,0.04653,,,,,,,,,,,,,,,,,,,,,,,,,,0,0,0,0,0
0.2278,1783190411.8310,1,0,1.0000,0.0000,1.44682,0.23328,-2.77748,0.97337,1.57080,0.00000,-0.14512,-0.38003,0.04653,,,,,,,,,,,,,,,,,,,,,,,,,,0,0,0,0,0
0.2281,1783190411.8313,1,0,1.0000,0.0000,1.44682,0.23328,-2.77748,0.97337,1.57080,0.00000,-0.14512,-0.38003,0.04653,,,,,,,,,,,,,,,,,,,,,,,,,,0,0,0,0,0
0.2289,1783190411.8321,1,0,1.0000,0.0000,1.44682,0.23328,-2.77748,0.97337,1.57080,0.00000,-0.14512,-0.38003,0.04653,,,,,,,,,,,,,,,,,,,,,,,,,,0,0,0,0,0
0.2443,1783190411.8475,1,0,1.0000,0.0000,1.44682,0.23328,-2.77748,0.97337,1.57080,0.00000,-0.14512,-0.38003,0.04653,,,,,,,,,,,,,,,,,,,,,,,,,,0,0,0,0,0
0.2449,1783190411.8482,1,0,1.0000,0.0000,1.44682,0.23328,-2.77748,0.97337,1.57080,0.00000,-0.14512,-0.38003,0.04653,,,,,,,,,,,,,,,,,,,,,,,,,,0,0,0,0,0
0.2453,1783190411.8486,1,0,1.0000,0.0000,1.44682,0.23328,-2.77748,0.97337,1.57080,0.00000,-0.14512,-0.38003,0.04653,,,,,,,,,,,,,,,,,,,,,,,,,,0,0,0,0,0
0.2840,1783190411.8873,1,0,1.0000,0.0000,1.44682,0.23328,-2.77748,0.97337,1.57080,0.00000,-0.14512,-0.38003,0.04653,,,,,,,,,,,,,,,,,,,,,,,,,,0,0,0,0,0
0.2846,1783190411.8878,1,0,1.0000,0.0000,1.44682,0.23328,-2.77748,0.97337,1.57080,0.00000,-0.14512,-0.38003,0.04653,,,,,,,,,,,,,,,,,,,,,,,,,,0,0,0,0,0
0.2851,1783190411.8884,1,0,1.0000,0.0000,1.44682,0.23328,-2.77748,0.97337,1.57080,-0.00000,-0.14512,-0.38003,0.04653,,,,,,,,,,,,,,,,,,,,,,,,,,0,0,0,0,0
0.2875,1783190411.8907,1,0,1.0000,0.0000,1.44682,0.23328,-2.77748,0.97337,1.57080,-0.00000,-0.14512,-0.38003,0.04653,,,,,,,,,,,,,,,,,,,,,,,,,,0,0,0,0,0
0.2879,1783190411.8911,1,0,1.0000,0.0000,1.44682,0.23328,-2.77748,0.97337,1.57080,-0.00000,-0.14512,-0.38003,0.04653,,,,,,,,,,,,,,,,,,,,,,,,,,0,0,0,0,0
0.2981,1783190411.9013,1,0,1.0000,0.0000,1.44682,0.23328,-2.77748,0.97337,1.57080,0.00000,-0.14512,-0.38003,0.04653,,,,,,,,,,,,,,,,,,,,,,,,,,0,0,0,0,0
0.2985,1783190411.9017,1,0,1.0000,0.0000,1.44682,0.23328,-2.77748,0.97337,1.57080,0.00000,-0.14512,-0.38003,0.04653,,,,,,,,,,,,,,,,,,,,,,,,,,0,0,0,0,0
0.3129,1783190411.9162,1,0,1.0000,0.0000,1.44682,0.23328,-2.77748,0.97337,1.57080,0.00000,-0.14512,-0.38003,0.04653,,,,,,,,,,,,,,,,,,,,,,,,,,0,0,0,0,0
0.3131,1783190411.9163,1,0,1.0000,0.0000,1.44682,0.23328,-2.77748,0.97337,1.57080,0.00000,-0.14512,-0.38003,0.04653,,,,,,,,,,,,,,,,,,,,,,,,,,0,0,0,0,0
0.3190,1783190411.9223,1,0,1.0000,0.0000,1.44682,0.23328,-2.77748,0.97337,1.57080,0.00000,-0.14512,-0.38003,0.04653,,,,,,,,,,,,,,,,,,,,,,,,,,0,0,0,0,0
0.3342,1783190411.9374,1,0,1.0000,0.0000,1.44682,0.23328,-2.77748,0.97337,1.57080,0.00000,-0.14512,-0.38003,0.04653,,,,,,,,,,,,,,,,,,,,,,,,,,0,0,0,0,0
0.3376,1783190411.9409,1,0,1.0000,0.0000,1.44682,0.23328,-2.77748,0.97337,1.57080,-0.00000,-0.14512,-0.38003,0.04653,,,,,,,,,,,,,,,,,,,,,,,,,,0,0,0,0,0
0.3511,1783190411.9544,1,0,1.0000,0.0000,1.44682,0.23328,-2.77748,0.97337,1.57080,-0.00000,-0.14512,-0.38003,0.04653,,,,,,,,,,,,,,,,,,,,,,,,,,0,0,0,0,0
0.3582,1783190411.9614,1,0,1.0000,0.0000,1.44682,0.23328,-2.77748,0.97337,1.57080,-0.00000,-0.14512,-0.38003,0.04653,,,,,,,,,,,,,,,,,,,,,,,,,,0,0,0,0,0
0.3586,1783190411.9618,1,0,1.0000,0.0000,1.44682,0.23328,-2.77748,0.97337,1.57080,-0.00000,-0.14512,-0.38003,0.04653,,,,,,,,,,,,,,,,,,,,,,,,,,0,0,0,0,0
0.3701,1783190411.9734,1,0,1.0000,0.0000,1.44682,0.23328,-2.77748,0.97337,1.57080,-0.00000,-0.14512,-0.38003,0.04653,,,,,,,,,,,,,,,,,,,,,,,,,,0,0,0,0,0
0.3807,1783190411.9839,1,0,1.0000,0.0000,1.44682,0.23328,-2.77748,0.97337,1.57080,-0.00000,-0.14512,-0.38003,0.04653,,,,,,,,,,,,,,,,,,,,,,,,,,0,0,0,0,0
0.3812,1783190411.9845,1,0,1.0000,0.0000,1.44682,0.23328,-2.77748,0.97337,1.57080,-0.00000,-0.14512,-0.38003,0.04653,,,,,,,,,,,,,,,,,,,,,,,,,,0,0,0,0,0
0.3892,1783190411.9924,1,0,1.0000,0.0000,1.44682,0.23328,-2.77748,0.97337,1.57080,-0.00000,-0.14512,-0.38003,0.04653,,,,,,,,,,,,,,,,,,,,,,,,,,0,0,0,0,0
0.3968,1783190412.0000,1,0,1.0000,0.0000,1.44682,0.23328,-2.77748,0.97337,1.57080,-0.00000,-0.14512,-0.38003,0.04653,,,,,,,,,,,,,,,,,,,,,,,,,,0,0,0,0,0
0.4068,1783190412.0100,1,0,1.0000,0.0000,1.44682,0.23328,-2.77748,0.97337,1.57080,0.00000,-0.14512,-0.38003,0.04653,,,,,,,,,,,,,,,,,,,,,,,,,,0,0,0,0,0
0.4170,1783190412.0202,1,0,1.0000,0.0000,1.44682,0.23328,-2.77748,0.97337,1.57080,0.00000,-0.14512,-0.38003,0.04653,,,,,,,,,,,,,,,,,,,,,,,,,,0,0,0,0,0
0.4420,1783190412.0452,1,0,1.0000,0.0000,1.44682,0.23328,-2.77748,0.97337,1.57080,0.00000,-0.14512,-0.38003,0.04653,,,,,,,,,,,,,,,,,,,,,,,,,,0,0,0,0,0
0.4424,1783190412.0456,1,0,1.0000,0.0000,1.44682,0.23328,-2.77748,0.97337,1.57080,0.00000,-0.14512,-0.38003,0.04653,,,,,,,,,,,,,,,,,,,,,,,,,,0,0,0,0,0
0.4493,1783190412.0526,1,0,1.0000,0.0000,1.44682,0.23328,-2.77748,0.97337,1.57080,0.00000,-0.14512,-0.38003,0.04653,,,,,,,,,,,,,,,,,,,,,,,,,,0,0,0,0,0
0.4575,1783190412.0607,1,0,1.0000,0.0000,1.44682,0.23328,-2.77748,0.97337,1.57080,0.00000,-0.14512,-0.38003,0.04653,,,,,,,,,,,,,,,,,,,,,,,,,,0,0,0,0,0
0.4579,1783190412.0611,1,0,1.0000,0.0000,1.44682,0.23328,-2.77748,0.97337,1.57080,0.00000,-0.14512,-0.38003,0.04653,,,,,,,,,,,,,,,,,,,,,,,,,,0,0,0,0,0
0.4670,1783190412.0702,1,0,1.0000,0.0000,1.44682,0.23328,-2.77748,0.97337,1.57080,0.00000,-0.14512,-0.38003,0.04653,,,,,,,,,,,,,,,,,,,,,,,,,,0,0,0,0,0
0.4879,1783190412.0912,1,0,1.0000,0.0000,1.44682,0.23328,-2.77748,0.97337,1.57080,0.00000,-0.14512,-0.38003,0.04653,,,,,,,,,,,,,,,,,,,,,,,,,,0,0,0,0,0
0.4887,1783190412.0920,1,0,1.0000,0.0000,1.44682,0.23328,-2.77748,0.97337,1.57080,0.00000,-0.14512,-0.38003,0.04653,,,,,,,,,,,,,,,,,,,,,,,,,,0,0,0,0,0
0.4893,1783190412.0925,1,0,1.0000,0.0000,1.44682,0.23328,-2.77748,0.97337,1.57080,0.00000,-0.14512,-0.38003,0.04653,,,,,,,,,,,,,,,,,,,,,,,,,,0,0,0,0,0
0.4992,1783190412.1024,1,0,1.0000,0.0000,1.44682,0.23328,-2.77748,0.97337,1.57080,0.00000,-0.14512,-0.38003,0.04653,,,,,,,,,,,,,,,,,,,,,,,,,,0,0,0,0,0
0.5077,1783190412.1109,1,0,1.0000,0.0000,1.44682,0.23328,-2.77748,0.97337,1.57080,0.00000,-0.14512,-0.38003,0.04653,,,,,,,,,,,,,,,,,,,,,,,,,,0,0,0,0,0
0.5080,1783190412.1112,1,0,1.0000,0.0000,1.44682,0.23328,-2.77748,0.97337,1.57080,0.00000,-0.14512,-0.38003,0.04653,,,,,,,,,,,,,,,,,,,,,,,,,,0,0,0,0,0
0.5184,1783190412.1217,1,0,1.0000,0.0000,1.44682,0.23328,-2.77748,0.97337,1.57080,0.00000,-0.14512,-0.38003,0.04653,,,,,,,,,,,,,,,,,,,,,,,,,,0,0,0,0,0
0.5275,1783190412.1307,1,0,1.0000,0.0000,1.44682,0.23328,-2.77748,0.97337,1.57080,0.00000,-0.14512,-0.38003,0.04653,,,,,,,,,,,,,,,,,,,,,,,,,,0,0,0,0,0
0.5414,1783190412.1446,1,0,1.0000,0.0000,1.44682,0.23328,-2.77748,0.97337,1.57080,0.00000,-0.14512,-0.38003,0.04653,,,,,,,,,,,,,,,,,,,,,,,,,,0,0,0,0,0
0.5468,1783190412.1501,1,0,1.0000,0.0000,1.44682,0.23328,-2.77748,0.97337,1.57080,0.00000,-0.14512,-0.38003,0.04653,,,,,,,,,,,,,,,,,,,,,,,,,,0,0,0,0,0
0.5573,1783190412.1605,1,0,1.0000,0.0000,1.44682,0.23328,-2.77748,0.97337,1.57080,0.00000,-0.14512,-0.38003,0.04653,,,,,,,,,,,,,,,,,,,,,,,,,,0,0,0,0,0
0.5575,1783190412.1608,1,0,1.0000,0.0000,1.44682,0.23328,-2.77748,0.97337,1.57080,0.00000,-0.14512,-0.38003,0.04653,,,,,,,,,,,,,,,,,,,,,,,,,,0,0,0,0,0
0.5684,1783190412.1716,1,0,1.0000,0.0000,1.44682,0.23328,-2.77748,0.97337,1.57080,0.00000,-0.14512,-0.38003,0.04653,,,,,,,,,,,,,,,,,,,,,,,,,,0,0,0,0,0
0.5780,1783190412.1812,1,0,1.0000,0.0000,1.44682,0.23328,-2.77748,0.97337,1.57080,0.00000,-0.14512,-0.38003,0.04653,,,,,,,,,,,,,,,,,,,,,,,,,,0,0,0,0,0
0.5784,1783190412.1817,1,0,1.0000,0.0000,1.44682,0.23328,-2.77748,0.97337,1.57080,0.00000,-0.14512,-0.38003,0.04653,,,,,,,,,,,,,,,,,,,,,,,,,,0,0,0,0,0
0.5896,1783190412.1929,1,0,1.0000,0.0000,1.44682,0.23328,-2.77748,0.97337,1.57080,0.00000,-0.14512,-0.38003,0.04653,,,,,,,,,,,,,,,,,,,,,,,,,,0,0,0,0,0
0.5981,1783190412.2014,1,0,1.0000,0.0000,1.44682,0.23328,-2.77748,0.97337,1.57080,0.00000,-0.14512,-0.38003,0.04653,,,,,,,,,,,,,,,,,,,,,,,,,,0,0,0,0,0
0.6087,1783190412.2119,1,0,1.0000,0.0000,1.44682,0.23328,-2.77748,0.97337,1.57080,0.00000,-0.14512,-0.38003,0.04653,,,,,,,,,,,,,,,,,,,,,,,,,,0,0,0,0,0
0.6170,1783190412.2202,1,0,1.0000,0.0000,1.44682,0.23328,-2.77748,0.97337,1.57080,0.00000,-0.14512,-0.38003,0.04653,,,,,,,,,,,,,,,,,,,,,,,,,,0,0,0,0,0
0.6174,1783190412.2207,1,0,1.0000,0.0000,1.44682,0.23328,-2.77748,0.97337,1.57080,0.00000,-0.14512,-0.38003,0.04653,,,,,,,,,,,,,,,,,,,,,,,,,,0,0,0,0,0
0.6281,1783190412.2314,1,0,1.0000,0.0000,1.44682,0.23328,-2.77748,0.97337,1.57080,0.00000,-0.14512,-0.38003,0.04653,,,,,,,,,,,,,,,,,,,,,,,,,,0,0,0,0,0
0.6415,1783190412.2447,1,0,1.0000,0.0000,1.44682,0.23328,-2.77748,0.97337,1.57080,0.00000,-0.14512,-0.38003,0.04653,,,,,,,,,,,,,,,,,,,,,,,,,,0,0,0,0,0
0.6419,1783190412.2451,1,0,1.0000,0.0000,1.44682,0.23328,-2.77748,0.97337,1.57080,0.00000,-0.14512,-0.38003,0.04653,,,,,,,,,,,,,,,,,,,,,,,,,,0,0,0,0,0
0.6471,1783190412.2503,1,0,1.0000,0.0000,1.44682,0.23328,-2.77748,0.97337,1.57080,0.00000,-0.14512,-0.38003,0.04653,,,,,,,,,,,,,,,,,,,,,,,,,,0,0,0,0,0
0.6475,1783190412.2507,1,0,1.0000,0.0000,1.44682,0.23328,-2.77748,0.97337,1.57080,0.00000,-0.14512,-0.38003,0.04653,,,,,,,,,,,,,,,,,,,,,,,,,,0,0,0,0,0
0.6580,1783190412.2613,1,0,1.0000,0.0000,1.44682,0.23328,-2.77748,0.97337,1.57080,0.00000,-0.14512,-0.38003,0.04653,,,,,,,,,,,,,,,,,,,,,,,,,,0,0,0,0,0
0.6694,1783190412.2727,1,0,1.0000,0.0000,1.44682,0.23328,-2.77748,0.97337,1.57080,0.00000,-0.14512,-0.38003,0.04653,,,,,,,,,,,,,,,,,,,,,,,,,,0,0,0,0,0
0.6763,1783190412.2795,1,0,1.0000,0.0000,1.44682,0.23328,-2.77748,0.97337,1.57080,0.00000,-0.14512,-0.38003,0.04653,,,,,,,,,,,,,,,,,,,,,,,,,,0,0,0,0,0
0.6766,1783190412.2799,1,0,1.0000,0.0000,1.44682,0.23328,-2.77748,0.97337,1.57080,0.00000,-0.14512,-0.38003,0.04653,,,,,,,,,,,,,,,,,,,,,,,,,,0,0,0,0,0
0.6888,1783190412.2921,1,0,1.0000,0.0000,1.44682,0.23328,-2.77748,0.97337,1.57080,0.00000,-0.14512,-0.38003,0.04653,,,,,,,,,,,,,,,,,,,,,,,,,,0,0,0,0,0
0.7015,1783190412.3047,1,0,1.0000,0.0000,1.44682,0.23328,-2.77748,0.97337,1.57080,0.00000,-0.14512,-0.38003,0.04653,,,,,,,,,,,,,,,,,,,,,,,,,,0,0,0,0,0
0.7067,1783190412.3099,1,0,1.0000,0.0000,1.44682,0.23328,-2.77748,0.97337,1.57080,0.00000,-0.14512,-0.38003,0.04653,,,,,,,,,,,,,,,,,,,,,,,,,,0,0,0,0,0
0.7184,1783190412.3217,1,0,1.0000,0.0000,1.44682,0.23328,-2.77748,0.97337,1.57080,0.00000,-0.14512,-0.38003,0.04653,,,,,,,,,,,,,,,,,,,,,,,,,,0,0,0,0,0
0.7326,1783190412.3358,1,1,1.0000,0.0000,1.44682,0.23328,-2.77748,0.97337,1.57080,0.00000,-0.14512,-0.38003,0.04653,,,,,,,,,,,,,,,,,,,,,,,,,,0,0,0,0,0
0.7329,1783190412.3362,1,1,1.0000,0.0000,1.44682,0.23328,-2.77748,0.97337,1.57080,0.00000,-0.14512,-0.38003,0.04653,,,,,,,,,,,,,,,,,,,,,,,,,,0,0,0,0,0
0.7551,1783190412.3583,1,1,1.0000,0.0000,1.44682,0.23328,-2.77748,0.97337,1.57080,0.00000,-0.14512,-0.38003,0.04653,,,,,,,,,,,,,,,,,,,,,,,,,,0,0,0,0,0
0.7554,1783190412.3587,1,1,1.0000,0.0000,1.44682,0.23328,-2.77748,0.97337,1.57080,0.00000,-0.14512,-0.38003,0.04653,,,,,,,,,,,,,,,,,,,,,,,,,,0,0,0,0,0
0.7630,1783190412.3662,1,1,1.0000,0.0000,1.44682,0.23328,-2.77748,0.97337,1.57080,0.00000,-0.14512,-0.38003,0.04653,,,,,,,,,,,,,,,,,,,,,,,,,,0,0,0,0,0
0.7633,1783190412.3665,1,1,1.0000,0.0000,1.44682,0.23328,-2.77748,0.97337,1.57080,0.00000,-0.14512,-0.38003,0.04653,,,,,,,,,,,,,,,,,,,,,,,,,,0,0,0,0,0
0.7716,1783190412.3748,1,1,1.0000,0.0000,1.44682,0.23328,-2.77748,0.97337,1.57080,0.00000,-0.14512,-0.38003,0.04653,,,,,,,,,,,,,,,,,,,,,,,,,,0,0,0,0,0
0.7719,1783190412.3752,1,1,1.0000,0.0000,1.44682,0.23328,-2.77748,0.97337,1.57080,0.00000,-0.14512,-0.38003,0.04653,,,,,,,,,,,,,,,,,,,,,,,,,,0,0,0,0,0
0.7787,1783190412.3819,1,1,1.0000,0.0000,1.44682,0.23328,-2.77748,0.97337,1.57080,0.00000,-0.14512,-0.38003,0.04653,,,,,,,,,,,,,,,,,,,,,,,,,,0,0,0,0,0
0.7790,1783190412.3822,1,1,1.0000,0.0000,1.44682,0.23328,-2.77748,0.97337,1.57080,0.00000,-0.14512,-0.38003,0.04653,,,,,,,,,,,,,,,,,,,,,,,,,,0,0,0,0,0
0.7908,1783190412.3941,1,1,1.0000,0.0000,1.44682,0.23328,-2.77748,0.97337,1.57080,0.00000,-0.14512,-0.38003,0.04653,,,,,,,,,,,,,,,,,,,,,,,,,,0,0,0,0,0
0.7976,1783190412.4008,1,1,1.0000,0.0000,1.44682,0.23328,-2.77748,0.97337,1.57080,0.00000,-0.14512,-0.38003,0.04653,,,,,,,,,,,,,,,,,,,,,,,,,,0,0,0,0,0
0.7979,1783190412.4012,1,1,1.0000,0.0000,1.44682,0.23328,-2.77748,0.97337,1.57080,0.00000,-0.14512,-0.38003,0.04653,,,,,,,,,,,,,,,,,,,,,,,,,,0,0,0,0,0
0.8103,1783190412.4135,1,1,1.0000,0.0000,1.44682,0.23328,-2.77748,0.97337,1.57080,0.00000,-0.14512,-0.38003,0.04653,,,,,,,,,,,,,,,,,,,,,,,,,,0,0,0,0,0
0.8230,1783190412.4262,1,1,1.0000,0.0000,1.44682,0.23328,-2.77748,0.97337,1.57080,0.00000,-0.14512,-0.38003,0.04653,,,,,,,,,,,,,,,,,,,,,,,,,,0,0,0,0,0
0.8297,1783190412.4329,1,1,1.0000,0.0000,1.44682,0.23328,-2.77748,0.97337,1.57080,0.00000,-0.14512,-0.38003,0.04653,,,,,,,,,,,,,,,,,,,,,,,,,,0,0,0,0,0
0.8300,1783190412.4333,1,1,1.0000,0.0000,1.44682,0.23328,-2.77748,0.97337,1.57080,0.00000,-0.14512,-0.38003,0.04653,,,,,,,,,,,,,,,,,,,,,,,,,,0,0,0,0,0
0.8487,1783190412.4519,1,1,1.0000,0.0000,1.44682,0.23328,-2.77748,0.97337,1.57080,0.00000,-0.14512,-0.38003,0.04653,,,,,,,,,,,,,,,,,,,,,,,,,,0,0,0,0,0
0.8491,1783190412.4523,1,1,1.0000,0.0000,1.44682,0.23328,-2.77748,0.97337,1.57080,0.00000,-0.14512,-0.38003,0.04653,,,,,,,,,,,,,,,,,,,,,,,,,,0,0,0,0,0
0.8496,1783190412.4528,1,1,1.0000,0.0000,1.44682,0.23328,-2.77748,0.97337,1.57080,0.00000,-0.14512,-0.38003,0.04653,,,,,,,,,,,,,,,,,,,,,,,,,,0,0,0,0,0
0.8576,1783190412.4608,1,1,1.0000,0.0000,1.44682,0.23328,-2.77748,0.97337,1.57080,0.00000,-0.14512,-0.38003,0.04653,,,,,,,,,,,,,,,,,,,,,,,,,,0,0,0,0,0
0.8667,1783190412.4699,1,1,1.0000,0.0000,1.44682,0.23328,-2.77748,0.97337,1.57080,0.00000,-0.14512,-0.38003,0.04653,,,,,,,,,,,,,,,,,,,,,,,,,,0,0,0,0,0
0.8669,1783190412.4702,1,1,1.0000,0.0000,1.44682,0.23328,-2.77748,0.97337,1.57080,0.00000,-0.14512,-0.38003,0.04653,,,,,,,,,,,,,,,,,,,,,,,,,,0,0,0,0,0
0.8788,1783190412.4821,1,1,1.0000,0.0000,1.44682,0.23328,-2.77748,0.97337,1.57080,0.00000,-0.14512,-0.38003,0.04653,,,,,,,,,,,,,,,,,,,,,,,,,,0,0,0,0,0
0.8791,1783190412.4824,1,1,1.0000,0.0000,1.44682,0.23328,-2.77748,0.97337,1.57080,0.00000,-0.14512,-0.38003,0.04653,,,,,,,,,,,,,,,,,,,,,,,,,,0,0,0,0,0
0.8935,1783190412.4968,1,1,1.0000,0.0000,1.44682,0.23328,-2.77748,0.97337,1.57080,0.00000,-0.14512,-0.38003,0.04653,,,,,,,,,,,,,,,,,,,,,,,,,,0,0,0,0,0
0.8999,1783190412.5032,1,1,1.0000,0.0000,1.44682,0.23328,-2.77748,0.97337,1.57080,0.00000,-0.14512,-0.38003,0.04653,,,,,,,,,,,,,,,,,,,,,,,,,,0,0,0,0,0
0.9002,1783190412.5035,1,1,1.0000,0.0000,1.44682,0.23328,-2.77748,0.97337,1.57080,0.00000,-0.14512,-0.38003,0.04653,,,,,,,,,,,,,,,,,,,,,,,,,,0,0,0,0,0
0.9106,1783190412.5139,1,1,1.0000,0.0000,1.44682,0.23328,-2.77748,0.97337,1.57080,0.00000,-0.14512,-0.38003,0.04653,,,,,,,,,,,,,,,,,,,,,,,,,,0,0,0,0,0
0.9180,1783190412.5212,1,1,1.0000,0.0000,1.44682,0.23328,-2.77748,0.97337,1.57080,0.00000,-0.14512,-0.38003,0.04653,,,,,,,,,,,,,,,,,,,,,,,,,,0,0,0,0,0
0.9185,1783190412.5217,1,1,1.0000,0.0000,1.44682,0.23328,-2.77748,0.97337,1.57080,0.00000,-0.14512,-0.38003,0.04653,,,,,,,,,,,,,,,,,,,,,,,,,,0,0,0,0,0
0.9301,1783190412.5334,1,1,1.0000,0.0000,1.44682,0.23322,-2.77749,0.97344,1.57080,0.00000,-0.14512,-0.38003,0.04651,,,,,,,,,,,,,,,,,,,,,,,,,,0,0,0,0,0
0.9387,1783190412.5420,1,1,1.0000,0.0000,1.44682,0.23309,-2.77753,0.97361,1.57080,0.00000,-0.14512,-0.38003,0.04648,,,,,,,,,,,,,,,,,,,,,,,,,,0,0,0,0,0
0.9493,1783190412.5526,1,1,1.0000,0.0000,1.44682,0.23293,-2.77757,0.97381,1.57080,0.00000,-0.14512,-0.38003,0.04644,,,,,,,,,,,,,,,,,,,,,,,,,,0,0,0,0,0
0.9569,1783190412.5602,1,1,1.0000,0.0000,1.44682,0.23291,-2.77757,0.97383,1.57080,0.00000,-0.14512,-0.38003,0.04643,,,,,,,,,,,,,,,,,,,,,,,,,,0,0,0,0,0
0.9668,1783190412.5701,1,1,1.0000,0.0000,1.44682,0.23278,-2.77761,0.97400,1.57080,0.00000,-0.14512,-0.38003,0.04640,,,,,,,,,,,,,,,,,,,,,,,,,,0,0,0,0,0
0.9787,1783190412.5820,1,1,1.0000,0.0000,1.44682,0.23258,-2.77766,0.97425,1.57080,0.00000,-0.14512,-0.38003,0.04635,,,,,,,,,,,,,,,,,,,,,,,,,,0,0,0,0,0
0.9870,1783190412.5903,1,1,1.0000,0.0000,1.44682,0.23257,-2.77766,0.97426,1.57080,0.00000,-0.14512,-0.38003,0.04634,,,,,,,,,,,,,,,,,,,,,,,,,,0,0,0,0,0
0.9875,1783190412.5908,1,1,1.0000,0.0000,1.44682,0.23257,-2.77766,0.97426,1.57080,0.00000,-0.14512,-0.38003,0.04634,,,,,,,,,,,,,,,,,,,,,,,,,,0,0,0,0,0
1.0022,1783190412.6055,1,1,1.0000,0.0000,1.44682,0.23241,-2.77770,0.97446,1.57080,0.00000,-0.14512,-0.38003,0.04630,,,,,,,,,,,,,,,,,,,,,,,,,,0,0,0,0,0
1.0082,1783190412.6114,1,1,1.0000,0.0000,1.44682,0.23235,-2.77772,0.97454,1.57080,0.00000,-0.14512,-0.38003,0.04629,,,,,,,,,,,,,,,,,,,,,,,,,,0,0,0,0,0
1.0185,1783190412.6217,1,1,1.0000,0.0000,1.44682,0.23230,-2.77773,0.97459,1.57080,0.00000,-0.14512,-0.38003,0.04627,,,,,,,,,,,,,,,,,,,,,,,,,,0,0,0,0,0
1.0296,1783190412.6328,1,1,1.0000,0.0000,1.44682,0.23212,-2.77777,0.97482,1.57080,0.00000,-0.14512,-0.38003,0.04623,,,,,,,,,,,,,,,,,,,,,,,,,,0,0,0,0,0
1.0300,1783190412.6333,1,1,1.0000,0.0000,1.44682,0.23212,-2.77777,0.97482,1.57080,0.00000,-0.14512,-0.38003,0.04623,,,,,,,,,,,,,,,,,,,,,,,,,,0,0,0,0,0
1.0508,1783190412.6541,1,1,1.0000,0.0000,1.44682,0.23194,-2.77782,0.97505,1.57080,0.00000,-0.14512,-0.38003,0.04618,,,,,,,,,,,,,,,,,,,,,,,,,,0,0,0,0,0
1.0513,1783190412.6545,1,1,1.0000,0.0000,1.44682,0.23194,-2.77782,0.97505,1.57080,0.00000,-0.14512,-0.38003,0.04618,,,,,,,,,,,,,,,,,,,,,,,,,,0,0,0,0,0
1.0516,1783190412.6548,1,1,1.0000,0.0000,1.44682,0.23194,-2.77782,0.97505,1.57080,0.00000,-0.14512,-0.38003,0.04618,,,,,,,,,,,,,,,,,,,,,,,,,,0,0,0,0,0
1.0577,1783190412.6610,1,1,1.0000,0.0000,1.44682,0.23183,-2.77785,0.97519,1.57080,0.00000,-0.14512,-0.38003,0.04615,,,,,,,,,,,,,,,,,,,,,,,,,,0,0,0,0,0
1.0581,1783190412.6613,1,1,1.0000,0.0000,1.44682,0.23183,-2.77785,0.97519,1.57080,0.00000,-0.14512,-0.38003,0.04615,,,,,,,,,,,,,,,,,,,,,,,,,,0,0,0,0,0
1.0679,1783190412.6711,1,1,1.0000,0.0000,1.44682,0.23169,-2.77789,0.97536,1.57080,0.00000,-0.14512,-0.38003,0.04611,,,,,,,,,,,,,,,,,,,,,,,,,,0,0,0,0,0
1.0684,1783190412.6716,1,1,1.0000,0.0000,1.44682,0.23169,-2.77789,0.97536,1.57080,0.00000,-0.14512,-0.38003,0.04611,,,,,,,,,,,,,,,,,,,,,,,,,,0,0,0,0,0
1.0789,1783190412.6822,1,1,1.0000,0.0000,1.44682,0.23165,-2.77790,0.97542,1.57080,0.00000,-0.14512,-0.38003,0.04610,,,,,,,,,,,,,,,,,,,,,,,,,,0,0,0,0,0
1.0870,1783190412.6902,1,1,1.0000,0.0000,1.44682,0.23154,-2.77792,0.97555,1.57080,0.00000,-0.14512,-0.38003,0.04607,,,,,,,,,,,,,,,,,,,,,,,,,,0,0,0,0,0
1.0994,1783190412.7027,1,1,1.0000,0.0000,1.44682,0.23134,-2.77798,0.97581,1.57080,0.00000,-0.14512,-0.38003,0.04602,,,,,,,,,,,,,,,,,,,,,,,,,,0,0,0,0,0
1.1102,1783190412.7135,1,1,1.0000,0.0000,1.44682,0.23129,-2.77799,0.97587,1.57080,0.00000,-0.14512,-0.38003,0.04601,,,,,,,,,,,,,,,,,,,,,,,,,,0,0,0,0,0
1.1165,1783190412.7198,1,1,1.0000,0.0000,1.44682,0.23124,-2.77800,0.97593,1.57080,0.00000,-0.14512,-0.38003,0.04600,,,,,,,,,,,,,,,,,,,,,,,,,,0,0,0,0,0
1.1169,1783190412.7201,1,1,1.0000,0.0000,1.44682,0.23124,-2.77800,0.97593,1.57080,0.00000,-0.14512,-0.38003,0.04600,,,,,,,,,,,,,,,,,,,,,,,,,,0,0,0,0,0
1.1325,1783190412.7357,1,1,1.0000,0.0000,1.44682,0.23105,-2.77805,0.97618,1.57080,0.00000,-0.14512,-0.38003,0.04594,,,,,,,,,,,,,,,,,,,,,,,,,,0,0,0,0,0
1.1372,1783190412.7404,1,1,1.0000,0.0000,1.44682,0.23103,-2.77805,0.97619,1.57080,0.00000,-0.14512,-0.38003,0.04594,,,,,,,,,,,,,,,,,,,,,,,,,,0,0,0,0,0
1.1378,1783190412.7411,1,1,1.0000,0.0000,1.44682,0.23100,-2.77806,0.97623,1.57080,0.00000,-0.14512,-0.38003,0.04593,,,,,,,,,,,,,,,,,,,,,,,,,,0,0,0,0,0
1.1551,1783190412.7583,1,1,1.0000,0.0000,1.44682,0.23076,-2.77813,0.97654,1.57080,0.00000,-0.14512,-0.38003,0.04587,,,,,,,,,,,,,,,,,,,,,,,,,,0,0,0,0,0
1.1582,1783190412.7615,1,1,1.0000,0.0000,1.44682,0.23069,-2.77814,0.97662,1.57080,0.00000,-0.14512,-0.38003,0.04585,,,,,,,,,,,,,,,,,,,,,,,,,,0,0,0,0,0
1.1702,1783190412.7734,1,1,1.0000,0.0000,1.44682,0.23064,-2.77815,0.97668,1.57080,0.00000,-0.14512,-0.38003,0.04584,,,,,,,,,,,,,,,,,,,,,,,,,,0,0,0,0,0
1.1814,1783190412.7847,1,1,1.0000,0.0000,1.44682,0.23047,-2.77820,0.97690,1.57080,0.00000,-0.14512,-0.38003,0.04579,,,,,,,,,,,,,,,,,,,,,,,,,,0,0,0,0,0
1.1818,1783190412.7850,1,1,1.0000,0.0000,1.44682,0.23047,-2.77820,0.97690,1.57080,0.00000,-0.14512,-0.38003,0.04579,,,,,,,,,,,,,,,,,,,,,,,,,,0,0,0,0,0
1.1874,1783190412.7907,1,1,1.0000,0.0000,1.44682,0.23040,-2.77822,0.97699,1.57080,0.00000,-0.14512,-0.38003,0.04578,,,,,,,,,,,,,,,,,,,,,,,,,,0,0,0,0,0
1.2024,1783190412.8056,1,1,1.0000,0.0000,1.44682,0.23030,-2.77824,0.97711,1.57080,0.00000,-0.14512,-0.38003,0.04575,,,,,,,,,,,,,,,,,,,,,,,,,,0,0,0,0,0
1.2082,1783190412.8114,1,1,1.0000,0.0000,1.44682,0.23024,-2.77826,0.97718,1.57080,0.00000,-0.14512,-0.38003,0.04574,,,,,,,,,,,,,,,,,,,,,,,,,,0,0,0,0,0
1.2087,1783190412.8119,1,1,1.0000,0.0000,1.44682,0.23024,-2.77826,0.97718,1.57080,0.00000,-0.14512,-0.38003,0.04574,,,,,,,,,,,,,,,,,,,,,,,,,,0,0,0,0,0
1.2197,1783190412.8229,1,1,1.0000,0.0000,1.44682,0.23004,-2.77831,0.97744,1.57080,0.00000,-0.14512,-0.38003,0.04568,,,,,,,,,,,,,,,,,,,,,,,,,,0,0,0,0,0
1.2279,1783190412.8312,1,1,1.0000,0.0000,1.44682,0.23003,-2.77831,0.97745,1.57080,0.00000,-0.14512,-0.38003,0.04568,,,,,,,,,,,,,,,,,,,,,,,,,,0,0,0,0,0
1.2416,1783190412.8449,1,1,1.0000,0.0000,1.44682,0.22982,-2.77837,0.97772,1.57080,0.00000,-0.14512,-0.38003,0.04562,,,,,,,,,,,,,,,,,,,,,,,,,,0,0,0,0,0
1.2558,1783190412.8591,1,1,1.0000,0.0000,1.44682,0.22974,-2.77839,0.97782,1.57080,0.00000,-0.14512,-0.38003,0.04560,,,,,,,,,,,,,,,,,,,,,,,,,,0,0,0,0,0
1.2590,1783190412.8622,1,1,1.0000,0.0000,1.44682,0.22970,-2.77840,0.97786,1.57080,0.00000,-0.14512,-0.38003,0.04559,,,,,,,,,,,,,,,,,,,,,,,,,,0,0,0,0,0
1.2594,1783190412.8626,1,1,1.0000,0.0000,1.44682,0.22970,-2.77840,0.97786,1.57080,0.00000,-0.14512,-0.38003,0.04559,,,,,,,,,,,,,,,,,,,,,,,,,,0,0,0,0,0
1.2668,1783190412.8700,1,1,1.0000,0.0000,1.44682,0.22960,-2.77842,0.97800,1.57080,0.00000,-0.14512,-0.38003,0.04557,,,,,,,,,,,,,,,,,,,,,,,,,,0,0,0,0,0
1.2788,1783190412.8820,1,1,1.0000,0.0000,1.44682,0.22939,-2.77848,0.97825,1.57080,0.00000,-0.14512,-0.38003,0.04551,,,,,,,,,,,,,,,,,,,,,,,,,,0,0,0,0,0
1.2868,1783190412.8900,1,1,1.0000,0.0000,1.44682,0.22938,-2.77848,0.97827,1.57080,0.00000,-0.14512,-0.38003,0.04551,,,,,,,,,,,,,,,,,,,,,,,,,,0,0,0,0,0
1.3078,1783190412.9110,1,1,1.0000,0.0000,1.44682,0.22910,-2.77855,0.97862,1.57080,0.00000,-0.14512,-0.38003,0.04544,,,,,,,,,,,,,,,,,,,,,,,,,,0,0,0,0,0
1.3101,1783190412.9133,1,1,1.0000,0.0000,1.44682,0.22910,-2.77855,0.97862,1.57080,0.00000,-0.14512,-0.38003,0.04544,,,,,,,,,,,,,,,,,,,,,,,,,,0,0,0,0,0
1.3104,1783190412.9136,1,1,1.0000,0.0000,1.44682,0.22910,-2.77855,0.97862,1.57080,0.00000,-0.14512,-0.38003,0.04544,,,,,,,,,,,,,,,,,,,,,,,,,,0,0,0,0,0
1.3187,1783190412.9220,1,1,1.0000,0.0000,1.44682,0.22905,-2.77856,0.97868,1.57080,0.00000,-0.14512,-0.38003,0.04543,,,,,,,,,,,,,,,,,,,,,,,,,,0,0,0,0,0
1.3272,1783190412.9304,1,1,1.0000,0.0000,1.44682,0.22895,-2.77859,0.97881,1.57080,0.00000,-0.14512,-0.38003,0.04540,,,,,,,,,,,,,,,,,,,,,,,,,,0,0,0,0,0
1.3275,1783190412.9307,1,1,1.0000,0.0000,1.44682,0.22895,-2.77859,0.97881,1.57080,0.00000,-0.14512,-0.38003,0.04540,,,,,,,,,,,,,,,,,,,,,,,,,,0,0,0,0,0
1.3572,1783190412.9604,1,1,1.0000,0.0000,1.44682,0.22865,-2.77867,0.97919,1.57080,0.00000,-0.14512,-0.38003,0.04532,,,,,,,,,,,,,,,,,,,,,,,,,,0,0,0,0,0
1.3580,1783190412.9612,1,1,1.0000,0.0000,1.44682,0.22859,-2.77868,0.97926,1.57080,0.00000,-0.14512,-0.38003,0.04530,,,,,,,,,,,,,,,,,,,,,,,,,,0,0,0,0,0
1.3619,1783190412.9652,1,1,1.0000,0.0000,1.44682,0.22852,-2.77870,0.97935,1.57080,0.00000,-0.14512,-0.38003,0.04529,,,,,,,,,,,,,,,,,,,,,,,,,,0,0,0,0,0
1.3622,1783190412.9655,1,1,1.0000,0.0000,1.44682,0.22852,-2.77870,0.97935,1.57080,0.00000,-0.14512,-0.38003,0.04529,,,,,,,,,,,,,,,,,,,,,,,,,,0,0,0,0,0
1.3688,1783190412.9720,1,1,1.0000,0.0000,1.44682,0.22845,-2.77872,0.97944,1.57080,0.00000,-0.14512,-0.38003,0.04527,,,,,,,,,,,,,,,,,,,,,,,,,,0,0,0,0,0
1.3804,1783190412.9836,1,1,1.0000,0.0000,1.44682,0.22840,-2.77873,0.97949,1.57080,0.00000,-0.14512,-0.38003,0.04526,,,,,,,,,,,,,,,,,,,,,,,,,,0,0,0,0,0
1.3869,1783190412.9901,1,1,1.0000,0.0000,1.44682,0.22830,-2.77876,0.97963,1.57080,0.00000,-0.14512,-0.38003,0.04523,,,,,,,,,,,,,,,,,,,,,,,,,,0,0,0,0,0
1.3975,1783190413.0008,1,1,1.0000,0.0000,1.44682,0.22809,-2.77881,0.97989,1.57080,0.00000,-0.14512,-0.38003,0.04518,,,,,,,,,,,,,,,,,,,,,,,,,,0,0,0,0,0
1.4079,1783190413.0111,1,1,1.0000,0.0000,1.44682,0.22808,-2.77881,0.97990,1.57080,0.00000,-0.14512,-0.38003,0.04517,,,,,,,,,,,,,,,,,,,,,,,,,,0,0,0,0,0
1.4177,1783190413.0210,1,1,1.0000,0.0000,1.44682,0.22794,-2.77885,0.98008,1.57080,0.00000,-0.14512,-0.38003,0.04513,,,,,,,,,,,,,,,,,,,,,,,,,,0,0,0,0,0
1.4281,1783190413.0313,1,1,1.0000,0.0000,1.44682,0.22780,-2.77888,0.98025,1.57080,0.00000,-0.14512,-0.38003,0.04510,,,,,,,,,,,,,,,,,,,,,,,,,,0,0,0,0,0
1.4394,1783190413.0426,1,1,1.0000,0.0000,1.44682,0.22775,-2.77889,0.98031,1.57080,0.00000,-0.14512,-0.38003,0.04509,,,,,,,,,,,,,,,,,,,,,,,,,,0,0,0,0,0
1.4469,1783190413.0502,1,1,1.0000,0.0000,1.44682,0.22764,-2.77892,0.98045,1.57080,0.00000,-0.14512,-0.38003,0.04506,,,,,,,,,,,,,,,,,,,,,,,,,,0,0,0,0,0
1.4657,1783190413.0690,1,1,1.0000,0.0000,1.44682,0.22743,-2.77898,0.98072,1.57080,0.00000,-0.14512,-0.38003,0.04500,,,,,,,,,,,,,,,,,,,,,,,,,,0,0,0,0,0
1.4686,1783190413.0718,1,1,1.0000,0.0000,1.44682,0.22743,-2.77898,0.98072,1.57080,0.00000,-0.14512,-0.38003,0.04500,,,,,,,,,,,,,,,,,,,,,,,,,,0,0,0,0,0
1.4690,1783190413.0723,1,1,1.0000,0.0000,1.44682,0.22743,-2.77898,0.98072,1.57080,0.00000,-0.14512,-0.38003,0.04500,,,,,,,,,,,,,,,,,,,,,,,,,,0,0,0,0,0
1.4788,1783190413.0820,1,1,1.0000,0.0000,1.44682,0.22728,-2.77901,0.98090,1.57080,0.00000,-0.14512,-0.38003,0.04497,,,,,,,,,,,,,,,,,,,,,,,,,,0,0,0,0,0
1.4887,1783190413.0919,1,1,1.0000,0.0000,1.44682,0.22715,-2.77905,0.98107,1.57080,0.00000,-0.14512,-0.38003,0.04493,,,,,,,,,,,,,,,,,,,,,,,,,,0,0,0,0,0
1.4965,1783190413.0998,1,1,1.0000,0.0000,1.44682,0.22713,-2.77905,0.98108,1.57080,0.00000,-0.14512,-0.38003,0.04493,,,,,,,,,,,,,,,,,,,,,,,,,,0,0,0,0,0
1.4968,1783190413.1001,1,1,1.0000,0.0000,1.44682,0.22713,-2.77905,0.98108,1.57080,0.00000,-0.14512,-0.38003,0.04493,,,,,,,,,,,,,,,,,,,,,,,,,,0,0,0,0,0
1.5091,1783190413.1124,1,1,1.0000,0.0000,1.44682,0.22699,-2.77909,0.98126,1.57080,0.00001,-0.14512,-0.38003,0.04489,,,,,,,,,,,,,,,,,,,,,,,,,,0,0,0,0,0
1.5218,1783190413.1250,1,1,1.0000,0.0000,1.44682,0.22679,-2.77914,0.98152,1.57080,0.00001,-0.14512,-0.38003,0.04484,,,,,,,,,,,,,,,,,,,,,,,,,,0,0,0,0,0
1.5221,1783190413.1253,1,1,1.0000,0.0000,1.44682,0.22679,-2.77914,0.98152,1.57080,0.00001,-0.14512,-0.38003,0.04484,,,,,,,,,,,,,,,,,,,,,,,,,,0,0,0,0,0
1.5265,1783190413.1298,1,1,1.0000,0.0000,1.44682,0.22678,-2.77914,0.98153,1.57080,0.00001,-0.14512,-0.38003,0.04483,,,,,,,,,,,,,,,,,,,,,,,,,,0,0,0,0,0
1.5268,1783190413.1300,1,1,1.0000,0.0000,1.44682,0.22678,-2.77914,0.98153,1.57080,0.00001,-0.14512,-0.38003,0.04483,,,,,,,,,,,,,,,,,,,,,,,,,,0,0,0,0,0
1.5387,1783190413.1420,1,1,1.0000,0.0000,1.44682,0.22663,-2.77918,0.98171,1.57080,0.00001,-0.14512,-0.38003,0.04480,,,,,,,,,,,,,,,,,,,,,,,,,,0,0,0,0,0
1.5490,1783190413.1522,1,1,1.0000,0.0000,1.44682,0.22649,-2.77921,0.98189,1.57080,0.00001,-0.14512,-0.38003,0.04476,,,,,,,,,,,,,,,,,,,,,,,,,,0,0,0,0,0
1.5611,1783190413.1643,1,1,1.0000,0.0000,1.44682,0.22642,-2.77923,0.98198,1.57080,0.00001,-0.14512,-0.38003,0.04474,,,,,,,,,,,,,,,,,,,,,,,,,,0,0,0,0,0
1.5724,1783190413.1757,1,1,1.0000,0.0000,1.44682,0.22631,-2.77926,0.98212,1.57080,0.00001,-0.14512,-0.38003,0.04471,,,,,,,,,,,,,,,,,,,,,,,,,,0,0,0,0,0
1.5729,1783190413.1761,1,1,1.0000,0.0000,1.44682,0.22631,-2.77926,0.98212,1.57080,0.00001,-0.14512,-0.38003,0.04471,,,,,,,,,,,,,,,,,,,,,,,,,,0,0,0,0,0
1.5819,1783190413.1851,1,1,1.0000,0.0000,1.44682,0.22620,-2.77929,0.98226,1.57080,0.00001,-0.14512,-0.38003,0.04468,,,,,,,,,,,,,,,,,,,,,,,,,,0,0,0,0,0
1.5868,1783190413.1901,1,1,1.0000,0.0000,1.44682,0.22618,-2.77929,0.98228,1.57080,0.00001,-0.14512,-0.38003,0.04468,,,,,,,,,,,,,,,,,,,,,,,,,,0,0,0,0,0
1.5967,1783190413.2000,1,1,1.0000,0.0000,1.44682,0.22610,-2.77931,0.98238,1.57080,0.00001,-0.14512,-0.38003,0.04466,,,,,,,,,,,,,,,,,,,,,,,,,,0,0,0,0,0
1.6103,1783190413.2135,1,1,1.0000,0.0000,1.44682,0.22583,-2.77938,0.98272,1.57080,0.00001,-0.14512,-0.38003,0.04459,,,,,,,,,,,,,,,,,,,,,,,,,,0,0,0,0,0
1.6186,1783190413.2219,1,1,1.0000,0.0000,1.44682,0.22582,-2.77938,0.98274,1.57080,0.00001,-0.14512,-0.38003,0.04459,,,,,,,,,,,,,,,,,,,,,,,,,,0,0,0,0,0
1.6269,1783190413.2301,1,1,1.0000,0.0000,1.44682,0.22576,-2.77940,0.98281,1.57080,0.00001,-0.14512,-0.38003,0.04457,,,,,,,,,,,,,,,,,,,,,,,,,,0,0,0,0,0
1.6271,1783190413.2304,1,1,1.0000,0.0000,1.44682,0.22576,-2.77940,0.98281,1.57080,0.00001,-0.14512,-0.38003,0.04457,,,,,,,,,,,,,,,,,,,,,,,,,,0,0,0,0,0
1.6369,1783190413.2402,1,1,1.0000,0.0000,1.44682,0.22566,-2.77943,0.98294,1.57080,0.00001,-0.14512,-0.38003,0.04454,,,,,,,,,,,,,,,,,,,,,,,,,,0,0,0,0,0
1.6470,1783190413.2502,1,1,1.0000,0.0000,1.44682,0.22559,-2.77944,0.98303,1.57080,0.00001,-0.14512,-0.38003,0.04453,,,,,,,,,,,,,,,,,,,,,,,,,,0,0,0,0,0
1.6675,1783190413.2707,1,1,1.0000,0.0000,1.44682,0.22530,-2.77952,0.98339,1.57080,0.00001,-0.14512,-0.38002,0.04445,,,,,,,,,,,,,,,,,,,,,,,,,,0,0,0,0,0
1.6680,1783190413.2713,1,1,1.0000,0.0000,1.44682,0.22530,-2.77952,0.98339,1.57080,0.00001,-0.14512,-0.38002,0.04445,,,,,,,,,,,,,,,,,,,,,,,,,,0,0,0,0,0
1.6770,1783190413.2802,1,1,1.0000,0.0000,1.44682,0.22523,-2.77953,0.98348,1.57080,0.00001,-0.14512,-0.38002,0.04443,,,,,,,,,,,,,,,,,,,,,,,,,,0,0,0,0,0
1.6868,1783190413.2900,1,1,1.0000,0.0000,1.44682,0.22516,-2.77955,0.98356,1.57080,0.00001,-0.14512,-0.38002,0.04441,,,,,,,,,,,,,,,,,,,,,,,,,,0,0,0,0,0
1.7013,1783190413.3046,1,1,1.0000,0.0000,1.44682,0.22500,-2.77959,0.98376,1.57080,0.00001,-0.14512,-0.38002,0.04437,,,,,,,,,,,,,,,,,,,,,,,,,,0,0,0,0,0
1.7189,1783190413.3222,1,1,1.0000,0.0000,1.44682,0.22484,-2.77963,0.98396,1.57080,0.00001,-0.14512,-0.38002,0.04433,,,,,,,,,,,,,,,,,,,,,,,,,,0,0,0,0,0
1.7300,1783190413.3332,1,1,1.0000,0.0000,1.44682,0.22463,-2.77969,0.98423,1.57080,0.00001,-0.14512,-0.38002,0.04428,,,,,,,,,,,,,,,,,,,,,,,,,,0,0,0,0,0
1.7302,1783190413.3335,1,1,1.0000,0.0000,1.44682,0.22463,-2.77969,0.98423,1.57080,0.00001,-0.14512,-0.38002,0.04428,,,,,,,,,,,,,,,,,,,,,,,,,,0,0,0,0,0
1.7371,1783190413.3404,1,1,1.0000,0.0000,1.44682,0.22463,-2.77969,0.98423,1.57080,0.00001,-0.14512,-0.38002,0.04428,,,,,,,,,,,,,,,,,,,,,,,,,,0,0,0,0,0
1.7480,1783190413.3512,1,1,1.0000,0.0000,1.44682,0.22456,-2.77970,0.98431,1.57080,0.00001,-0.14512,-0.38002,0.04426,,,,,,,,,,,,,,,,,,,,,,,,,,0,0,0,0,0
1.7579,1783190413.3612,1,1,1.0000,0.0000,1.44682,0.22440,-2.77974,0.98451,1.57080,0.00001,-0.14512,-0.38002,0.04422,,,,,,,,,,,,,,,,,,,,,,,,,,0,0,0,0,0
1.7583,1783190413.3615,1,1,1.0000,0.0000,1.44682,0.22440,-2.77974,0.98451,1.57080,0.00001,-0.14512,-0.38002,0.04422,,,,,,,,,,,,,,,,,,,,,,,,,,0,0,0,0,0
1.7692,1783190413.3724,1,1,1.0000,0.0000,1.44682,0.22439,-2.77975,0.98453,1.57080,0.00001,-0.14512,-0.38002,0.04422,,,,,,,,,,,,,,,,,,,,,,,,,,0,0,0,0,0
1.7771,1783190413.3804,1,1,1.0000,0.0000,1.44682,0.22430,-2.77977,0.98463,1.57080,0.00001,-0.14512,-0.38002,0.04419,,,,,,,,,,,,,,,,,,,,,,,,,,0,0,0,0,0
1.7869,1783190413.3901,1,1,1.0000,0.0000,1.44682,0.22410,-2.77982,0.98489,1.57080,0.00001,-0.14512,-0.38002,0.04414,,,,,,,,,,,,,,,,,,,,,,,,,,0,0,0,0,0
1.7873,1783190413.3905,1,1,1.0000,0.0000,1.44682,0.22410,-2.77982,0.98489,1.57080,0.00001,-0.14512,-0.38002,0.04414,,,,,,,,,,,,,,,,,,,,,,,,,,0,0,0,0,0
1.7973,1783190413.4005,1,1,1.0000,0.0000,1.44682,0.22403,-2.77984,0.98498,1.57080,0.00001,-0.14512,-0.38002,0.04412,,,,,,,,,,,,,,,,,,,,,,,,,,0,0,0,0,0
1.8072,1783190413.4105,1,1,1.0000,0.0000,1.44682,0.22396,-2.77985,0.98506,1.57080,0.00001,-0.14512,-0.38002,0.04410,,,,,,,,,,,,,,,,,,,,,,,,,,0,0,0,0,0
1.8178,1783190413.4210,1,1,1.0000,0.0000,1.44682,0.22380,-2.77989,0.98526,1.57080,0.00001,-0.14512,-0.38002,0.04406,,,,,,,,,,,,,,,,,,,,,,,,,,0,0,0,0,0
1.8182,1783190413.4214,1,1,1.0000,0.0000,1.44682,0.22380,-2.77989,0.98526,1.57080,0.00001,-0.14512,-0.38002,0.04406,,,,,,,,,,,,,,,,,,,,,,,,,,0,0,0,0,0
1.8269,1783190413.4302,1,1,1.0000,0.0000,1.44682,0.22379,-2.77990,0.98528,1.57080,0.00001,-0.14512,-0.38002,0.04406,,,,,,,,,,,,,,,,,,,,,,,,,,0,0,0,0,0
1.8390,1783190413.4422,1,1,1.0000,0.0000,1.44682,0.22364,-2.77993,0.98547,1.57080,0.00001,-0.14512,-0.38002,0.04402,,,,,,,,,,,,,,,,,,,,,,,,,,0,0,0,0,0
1.8498,1783190413.4531,1,1,1.0000,0.0000,1.44682,0.22343,-2.77999,0.98573,1.57080,0.00001,-0.14512,-0.38002,0.04397,,,,,,,,,,,,,,,,,,,,,,,,,,0,0,0,0,0
1.8502,1783190413.4534,1,1,1.0000,0.0000,1.44682,0.22343,-2.77999,0.98573,1.57080,0.00001,-0.14512,-0.38002,0.04397,,,,,,,,,,,,,,,,,,,,,,,,,,0,0,0,0,0
1.8570,1783190413.4603,1,1,1.0000,0.0000,1.44682,0.22343,-2.77999,0.98573,1.57080,0.00001,-0.14512,-0.38002,0.04397,,,,,,,,,,,,,,,,,,,,,,,,,,0,0,0,0,0
1.8703,1783190413.4736,1,1,1.0000,0.0000,1.44682,0.22331,-2.78002,0.98587,1.57080,0.00001,-0.14512,-0.38002,0.04394,,,,,,,,,,,,,,,,,,,,,,,,,,0,0,0,0,0
1.8808,1783190413.4840,1,1,1.0000,0.0000,1.44682,0.22320,-2.78004,0.98602,1.57080,0.00001,-0.14512,-0.38002,0.04391,,,,,,,,,,,,,,,,,,,,,,,,,,0,0,0,0,0
1.8929,1783190413.4962,1,1,1.0000,0.0000,1.44682,0.22315,-2.78006,0.98607,1.57080,0.00001,-0.14512,-0.38002,0.04390,,,,,,,,,,,,,,,,,,,,,,,,,,0,0,0,0,0
1.8990,1783190413.5022,1,1,1.0000,0.0000,1.44682,0.22304,-2.78009,0.98622,1.57080,0.00001,-0.14512,-0.38002,0.04387,,,,,,,,,,,,,,,,,,,,,,,,,,0,0,0,0,0
1.9088,1783190413.5120,1,1,1.0000,0.0000,1.44682,0.22289,-2.78012,0.98639,1.57080,0.00001,-0.14512,-0.38002,0.04383,,,,,,,,,,,,,,,,,,,,,,,,,,0,0,0,0,0
1.9209,1783190413.5241,1,1,1.0000,0.0000,1.44682,0.22282,-2.78014,0.98649,1.57080,0.00001,-0.14512,-0.38002,0.04381,,,,,,,,,,,,,,,,,,,,,,,,,,0,0,0,0,0
1.9297,1783190413.5329,1,1,1.0000,0.0000,1.44681,0.22271,-2.78017,0.98663,1.57080,0.00001,-0.14512,-0.38002,0.04378,,,,,,,,,,,,,,,,,,,,,,,,,,0,0,0,0,0
1.9381,1783190413.5413,1,1,1.0000,0.0000,1.44681,0.22260,-2.78020,0.98677,1.57080,0.00001,-0.14512,-0.38002,0.04375,,,,,,,,,,,,,,,,,,,,,,,,,,0,0,0,0,0
1.9386,1783190413.5418,1,1,1.0000,0.0000,1.44681,0.22260,-2.78020,0.98677,1.57080,0.00001,-0.14512,-0.38002,0.04375,,,,,,,,,,,,,,,,,,,,,,,,,,0,0,0,0,0
1.9390,1783190413.5422,1,1,1.0000,0.0000,1.44681,0.22260,-2.78020,0.98677,1.57080,0.00001,-0.14512,-0.38002,0.04375,,,,,,,,,,,,,,,,,,,,,,,,,,0,0,0,0,0
1.9469,1783190413.5502,1,1,1.0000,0.0000,1.44681,0.22258,-2.78020,0.98678,1.57080,0.00001,-0.14512,-0.38002,0.04375,,,,,,,,,,,,,,,,,,,,,,,,,,0,0,0,0,0
1.9472,1783190413.5505,1,1,1.0000,0.0000,1.44681,0.22258,-2.78020,0.98678,1.57080,0.00001,-0.14512,-0.38002,0.04375,,,,,,,,,,,,,,,,,,,,,,,,,,0,0,0,0,0
1.9565,1783190413.5597,1,1,1.0000,0.0000,1.44681,0.22250,-2.78022,0.98689,1.57080,0.00001,-0.14512,-0.38002,0.04373,,,,,,,,,,,,,,,,,,,,,,,,,,0,0,0,0,0
1.9568,1783190413.5601,1,1,1.0000,0.0000,1.44681,0.22250,-2.78022,0.98689,1.57080,0.00001,-0.14512,-0.38002,0.04373,,,,,,,,,,,,,,,,,,,,,,,,,,0,0,0,0,0
1.9732,1783190413.5764,1,1,1.0000,0.0000,1.44681,0.22222,-2.78029,0.98723,1.57080,0.00001,-0.14512,-0.38002,0.04366,,,,,,,,,,,,,,,,,,,,,,,,,,0,0,0,0,0
1.9765,1783190413.5797,1,1,1.0000,0.0000,1.44681,0.22222,-2.78029,0.98723,1.57080,0.00001,-0.14512,-0.38002,0.04366,,,,,,,,,,,,,,,,,,,,,,,,,,0,0,0,0,0
1.9769,1783190413.5801,1,1,1.0000,0.0000,1.44681,0.22222,-2.78029,0.98723,1.57080,0.00001,-0.14512,-0.38002,0.04366,,,,,,,,,,,,,,,,,,,,,,,,,,0,0,0,0,0
1.9899,1783190413.5932,1,1,1.0000,0.0000,1.44681,0.22207,-2.78033,0.98743,1.57080,0.00001,-0.14512,-0.38002,0.04362,,,,,,,,,,,,,,,,,,,,,,,,,,0,0,0,0,0
1.9977,1783190413.6010,1,1,1.0000,0.0000,1.44681,0.22193,-2.78036,0.98760,1.57080,0.00001,-0.14512,-0.38002,0.04358,,,,,,,,,,,,,,,,,,,,,,,,,,0,0,0,0,0
1.9980,1783190413.6012,1,1,1.0000,0.0000,1.44681,0.22193,-2.78036,0.98760,1.57080,0.00001,-0.14512,-0.38002,0.04358,,,,,,,,,,,,,,,,,,,,,,,,,,0,0,0,0,0
2.0082,1783190413.6115,1,1,1.0000,0.0000,1.44681,0.22192,-2.78037,0.98762,1.57080,0.00001,-0.14512,-0.38002,0.04358,,,,,,,,,,,,,,,,,,,,,,,,,,0,0,0,0,0
2.0211,1783190413.6244,1,1,1.0000,0.0000,1.44681,0.22177,-2.78040,0.98780,1.57080,0.00001,-0.14512,-0.38002,0.04354,,,,,,,,,,,,,,,,,,,,,,,,,,0,0,0,0,0
2.0320,1783190413.6353,1,1,1.0000,0.0000,1.44681,0.22157,-2.78045,0.98805,1.57080,0.00001,-0.14512,-0.38002,0.04349,,,,,,,,,,,,,,,,,,,,,,,,,,0,0,0,0,0
2.0365,1783190413.6398,1,1,1.0000,0.0000,1.44681,0.22157,-2.78045,0.98805,1.57080,0.00001,-0.14512,-0.38002,0.04349,,,,,,,,,,,,,,,,,,,,,,,,,,0,0,0,0,0
2.0368,1783190413.6400,1,1,1.0000,0.0000,1.44681,0.22157,-2.78045,0.98805,1.57080,0.00001,-0.14512,-0.38002,0.04349,,,,,,,,,,,,,,,,,,,,,,,,,,0,0,0,0,0
2.0531,1783190413.6563,1,1,1.0000,0.0000,1.44681,0.22141,-2.78049,0.98825,1.57080,0.00001,-0.14512,-0.38002,0.04345,,,,,,,,,,,,,,,,,,,,,,,,,,0,0,0,0,0
2.0579,1783190413.6611,1,1,1.0000,0.0000,1.44681,0.22127,-2.78053,0.98842,1.57080,0.00001,-0.14512,-0.38002,0.04341,,,,,,,,,,,,,,,,,,,,,,,,,,0,0,0,0,0
2.0583,1783190413.6615,1,1,1.0000,0.0000,1.44681,0.22127,-2.78053,0.98842,1.57080,0.00001,-0.14512,-0.38002,0.04341,,,,,,,,,,,,,,,,,,,,,,,,,,0,0,0,0,0
2.0822,1783190413.6854,1,1,1.0000,0.0000,1.44681,0.22105,-2.78058,0.98870,1.57080,0.00001,-0.14512,-0.38002,0.04336,,,,,,,,,,,,,,,,,,,,,,,,,,0,0,0,0,0
2.0826,1783190413.6858,1,1,1.0000,0.0000,1.44681,0.22105,-2.78058,0.98870,1.57080,0.00001,-0.14512,-0.38002,0.04336,,,,,,,,,,,,,,,,,,,,,,,,,,0,0,0,0,0
2.0828,1783190413.6861,1,1,1.0000,0.0000,1.44681,0.22105,-2.78058,0.98870,1.57080,0.00001,-0.14512,-0.38002,0.04336,,,,,,,,,,,,,,,,,,,,,,,,,,0,0,0,0,0
2.0867,1783190413.6899,1,1,1.0000,0.0000,1.44681,0.22098,-2.78060,0.98879,1.57080,0.00001,-0.14512,-0.38002,0.04334,,,,,,,,,,,,,,,,,,,,,,,,,,0,0,0,0,0
2.0978,1783190413.7010,1,1,1.0000,0.0000,1.44681,0.22090,-2.78062,0.98889,1.57080,0.00001,-0.14512,-0.38002,0.04332,,,,,,,,,,,,,,,,,,,,,,,,,,0,0,0,0,0
2.1073,1783190413.7106,1,1,1.0000,0.0000,1.44681,0.22081,-2.78064,0.98899,1.57080,0.00001,-0.14512,-0.38002,0.04329,,,,,,,,,,,,,,,,,,,,,,,,,,0,0,0,0,0
2.1219,1783190413.7252,1,1,1.0000,0.0000,1.44681,0.22061,-2.78069,0.98924,1.57080,0.00001,-0.14512,-0.38002,0.04324,,,,,,,,,,,,,,,,,,,,,,,,,,0,0,0,0,0
2.1279,1783190413.7311,1,1,1.0000,0.0000,1.44681,0.22060,-2.78069,0.98926,1.57080,0.00001,-0.14512,-0.38002,0.04324,,,,,,,,,,,,,,,,,,,,,,,,,,0,0,0,0,0
2.1395,1783190413.7427,1,1,1.0000,0.0000,1.44681,0.22046,-2.78073,0.98944,1.57080,0.00001,-0.14512,-0.38002,0.04320,,,,,,,,,,,,,,,,,,,,,,,,,,0,0,0,0,0
2.1478,1783190413.7510,1,1,1.0000,0.0000,1.44681,0.22032,-2.78076,0.98961,1.57080,0.00001,-0.14512,-0.38002,0.04317,,,,,,,,,,,,,,,,,,,,,,,,,,0,0,0,0,0
2.1481,1783190413.7514,1,1,1.0000,0.0000,1.44681,0.22032,-2.78076,0.98961,1.57080,0.00001,-0.14512,-0.38002,0.04317,,,,,,,,,,,,,,,,,,,,,,,,,,0,0,0,0,0
2.1579,1783190413.7611,1,1,1.0000,0.0000,1.44681,0.22024,-2.78078,0.98971,1.57080,0.00001,-0.14512,-0.38002,0.04315,,,,,,,,,,,,,,,,,,,,,,,,,,0,0,0,0,0
2.1798,1783190413.7831,1,1,1.0000,0.0000,1.44681,0.21995,-2.78085,0.99007,1.57080,0.00001,-0.14512,-0.38002,0.04307,,,,,,,,,,,,,,,,,,,,,,,,,,0,0,0,0,0
2.1802,1783190413.7834,1,1,1.0000,0.0000,1.44681,0.21995,-2.78085,0.99007,1.57080,0.00001,-0.14512,-0.38002,0.04307,,,,,,,,,,,,,,,,,,,,,,,,,,0,0,0,0,0
2.1987,1783190413.8019,1,1,1.0000,0.0000,1.44681,0.21982,-2.78089,0.99024,1.57080,0.00001,-0.14512,-0.38002,0.04304,,,,,,,,,,,,,,,,,,,,,,,,,,0,0,0,0,0
2.2082,1783190413.8114,1,1,1.0000,0.0000,1.44681,0.21971,-2.78091,0.99037,1.57080,0.00001,-0.14512,-0.38002,0.04301,,,,,,,,,,,,,,,,,,,,,,,,,,0,0,0,0,0
2.2087,1783190413.8119,1,1,1.0000,0.0000,1.44681,0.21971,-2.78091,0.99037,1.57080,0.00001,-0.14512,-0.38002,0.04301,,,,,,,,,,,,,,,,,,,,,,,,,,0,0,0,0,0
2.2419,1783190413.8452,1,1,1.0000,0.0000,1.44681,0.21928,-2.78102,0.99091,1.57080,0.00001,-0.14512,-0.38002,0.04290,,,,,,,,,,,,,,,,,,,,,,,,,,0,0,0,0,0
2.2423,1783190413.8455,1,1,1.0000,0.0000,1.44681,0.21928,-2.78102,0.99091,1.57080,0.00001,-0.14512,-0.38002,0.04290,,,,,,,,,,,,,,,,,,,,,,,,,,0,0,0,0,0
2.2543,1783190413.8575,1,1,1.0000,0.0000,1.44681,0.21925,-2.78103,0.99095,1.57080,0.00001,-0.14512,-0.38002,0.04289,,,,,,,,,,,,,,,,,,,,,,,,,,0,0,0,0,0
2.2666,1783190413.8698,1,1,1.0000,0.0000,1.44681,0.21911,-2.78106,0.99112,1.57080,0.00001,-0.14512,-0.38002,0.04286,,,,,,,,,,,,,,,,,,,,,,,,,,0,0,0,0,0
2.2825,1783190413.8858,1,1,1.0000,0.0000,1.44681,0.21900,-2.78109,0.99126,1.57080,0.00001,-0.14512,-0.38002,0.04283,,,,,,,,,,,,,,,,,,,,,,,,,,0,0,0,0,0
2.2828,1783190413.8860,1,1,1.0000,0.0000,1.44681,0.21900,-2.78109,0.99126,1.57080,0.00001,-0.14512,-0.38002,0.04283,,,,,,,,,,,,,,,,,,,,,,,,,,0,0,0,0,0
2.2920,1783190413.8953,1,1,1.0000,0.0000,1.44681,0.21889,-2.78112,0.99140,1.57080,0.00001,-0.14512,-0.38002,0.04280,,,,,,,,,,,,,,,,,,,,,,,,,,0,0,0,0,0
2.2925,1783190413.8957,1,1,1.0000,0.0000,1.44681,0.21889,-2.78112,0.99140,1.57080,0.00001,-0.14512,-0.38002,0.04280,,,,,,,,,,,,,,,,,,,,,,,,,,0,0,0,0,0
2.2997,1783190413.9030,1,1,1.0000,0.0000,1.44681,0.21874,-2.78115,0.99158,1.57080,0.00001,-0.14512,-0.38002,0.04276,,,,,,,,,,,,,,,,,,,,,,,,,,0,0,0,0,0
2.3137,1783190413.9170,1,1,1.0000,0.0000,1.44681,0.21864,-2.78118,0.99170,1.57080,0.00001,-0.14512,-0.38002,0.04274,,,,,,,,,,,,,,,,,,,,,,,,,,0,0,0,0,0
2.3348,1783190413.9380,1,1,1.0000,0.0000,1.44681,0.21844,-2.78123,0.99195,1.57080,0.00001,-0.14512,-0.38002,0.04269,,,,,,,,,,,,,,,,,,,,,,,,,,0,0,0,0,0
2.3351,1783190413.9383,1,1,1.0000,0.0000,1.44681,0.21844,-2.78123,0.99195,1.57080,0.00001,-0.14512,-0.38002,0.04269,,,,,,,,,,,,,,,,,,,,,,,,,,0,0,0,0,0
2.3389,1783190413.9421,1,1,1.0000,0.0000,1.44681,0.21843,-2.78123,0.99197,1.57080,0.00001,-0.14512,-0.38002,0.04268,,,,,,,,,,,,,,,,,,,,,,,,,,0,0,0,0,0
2.3472,1783190413.9504,1,1,1.0000,0.0000,1.44681,0.21835,-2.78125,0.99207,1.57080,0.00001,-0.14512,-0.38002,0.04266,,,,,,,,,,,,,,,,,,,,,,,,,,0,0,0,0,0
2.3586,1783190413.9618,1,1,1.0000,0.0000,1.44681,0.21814,-2.78130,0.99233,1.57080,0.00001,-0.14512,-0.38002,0.04261,,,,,,,,,,,,,,,,,,,,,,,,,,0,0,0,0,0
2.3687,1783190413.9719,1,1,1.0000,0.0000,1.44681,0.21807,-2.78132,0.99242,1.57080,0.00001,-0.14512,-0.38002,0.04259,,,,,,,,,,,,,,,,,,,,,,,,,,0,0,0,0,0
2.3837,1783190413.9869,1,1,1.0000,0.0000,1.44681,0.21795,-2.78135,0.99256,1.57080,0.00001,-0.14512,-0.38002,0.04256,,,,,,,,,,,,,,,,,,,,,,,,,,0,0,0,0,0
2.3913,1783190413.9946,1,1,1.0000,0.0000,1.44681,0.21784,-2.78138,0.99271,1.57080,0.00001,-0.14512,-0.38002,0.04253,,,,,,,,,,,,,,,,,,,,,,,,,,0,0,0,0,0
2.4024,1783190414.0056,1,1,1.0000,0.0000,1.44681,0.21779,-2.78139,0.99277,1.57080,0.00001,-0.14512,-0.38002,0.04252,,,,,,,,,,,,,,,,,,,,,,,,,,0,0,0,0,0
2.4116,1783190414.0148,1,1,1.0000,0.0000,1.44681,0.21768,-2.78142,0.99291,1.57080,0.00001,-0.14512,-0.38002,0.04249,,,,,,,,,,,,,,,,,,,,,,,,,,0,0,0,0,0
2.4119,1783190414.0151,1,1,1.0000,0.0000,1.44681,0.21768,-2.78142,0.99291,1.57080,0.00001,-0.14512,-0.38002,0.04249,,,,,,,,,,,,,,,,,,,,,,,,,,0,0,0,0,0
2.4178,1783190414.0210,1,1,1.0000,0.0000,1.44681,0.21753,-2.78145,0.99309,1.57080,0.00001,-0.14512,-0.38002,0.04245,,,,,,,,,,,,,,,,,,,,,,,,,,0,0,0,0,0
2.4309,1783190414.0341,1,1,1.0000,0.0000,1.44681,0.21745,-2.78147,0.99319,1.57080,0.00001,-0.14512,-0.38002,0.04243,,,,,,,,,,,,,,,,,,,,,,,,,,0,0,0,0,0
2.4422,1783190414.0454,1,1,1.0000,0.0000,1.44681,0.21731,-2.78151,0.99337,1.57080,0.00001,-0.14512,-0.38002,0.04240,,,,,,,,,,,,,,,,,,,,,,,,,,0,0,0,0,0
2.4469,1783190414.0502,1,1,1.0000,0.0000,1.44681,0.21724,-2.78153,0.99346,1.57080,0.00001,-0.14512,-0.38002,0.04238,,,,,,,,,,,,,,,,,,,,,,,,,,0,0,0,0,0
2.4598,1783190414.0631,1,1,1.0000,0.0000,1.44681,0.21715,-2.78155,0.99356,1.57080,0.00001,-0.14512,-0.38002,0.04236,,,,,,,,,,,,,,,,,,,,,,,,,,0,0,0,0,0
2.4669,1783190414.0701,1,1,1.0000,0.0000,1.44681,0.21707,-2.78157,0.99366,1.57080,0.00001,-0.14512,-0.38002,0.04234,,,,,,,,,,,,,,,,,,,,,,,,,,0,0,0,0,0
2.4827,1783190414.0859,1,1,1.0000,0.0000,1.44681,0.21680,-2.78163,0.99400,1.57080,0.00001,-0.14512,-0.38002,0.04227,,,,,,,,,,,,,,,,,,,,,,,,,,0,0,0,0,0
2.4867,1783190414.0899,1,1,1.0000,0.0000,1.44681,0.21680,-2.78163,0.99400,1.57080,0.00001,-0.14512,-0.38002,0.04227,,,,,,,,,,,,,,,,,,,,,,,,,,0,0,0,0,0
2.4986,1783190414.1019,1,1,1.0000,0.0000,1.44681,0.21671,-2.78166,0.99412,1.57080,0.00001,-0.14512,-0.38002,0.04224,,,,,,,,,,,,,,,,,,,,,,,,,,0,0,0,0,0
2.5069,1783190414.1101,1,1,1.0000,0.0000,1.44681,0.21658,-2.78169,0.99428,1.57080,0.00001,-0.14512,-0.38002,0.04221,,,,,,,,,,,,,,,,,,,,,,,,,,0,0,0,0,0
2.5186,1783190414.1218,1,1,1.0000,0.0000,1.44681,0.21649,-2.78171,0.99438,1.57080,0.00001,-0.14512,-0.38002,0.04219,,,,,,,,,,,,,,,,,,,,,,,,,,0,0,0,0,0
2.5338,1783190414.1371,1,1,1.0000,0.0000,1.44681,0.21628,-2.78176,0.99465,1.57080,0.00001,-0.14512,-0.38002,0.04213,,,,,,,,,,,,,,,,,,,,,,,,,,0,0,0,0,0
2.5379,1783190414.1411,1,1,1.0000,0.0000,1.44681,0.21621,-2.78178,0.99474,1.57080,0.00001,-0.14512,-0.38002,0.04212,,,,,,,,,,,,,,,,,,,,,,,,,,0,0,0,0,0
2.5382,1783190414.1415,1,1,1.0000,0.0000,1.44681,0.21621,-2.78178,0.99474,1.57080,0.00001,-0.14512,-0.38002,0.04212,,,,,,,,,,,,,,,,,,,,,,,,,,0,0,0,0,0
2.5482,1783190414.1514,1,1,1.0000,0.0000,1.44681,0.21614,-2.78180,0.99482,1.57080,0.00001,-0.14512,-0.38002,0.04210,,,,,,,,,,,,,,,,,,,,,,,,,,0,0,0,0,0
2.5574,1783190414.1606,1,1,1.0000,0.0000,1.44681,0.21609,-2.78181,0.99488,1.57080,0.00001,-0.14512,-0.38002,0.04209,,,,,,,,,,,,,,,,,,,,,,,,,,0,0,0,0,0
2.5668,1783190414.1700,1,1,1.0000,0.0000,1.44681,0.21591,-2.78185,0.99511,1.57080,0.00001,-0.14512,-0.38002,0.04204,,,,,,,,,,,,,,,,,,,,,,,,,,0,0,0,0,0
2.5924,1783190414.1956,1,1,1.0000,0.0000,1.44681,0.21569,-2.78191,0.99539,1.57080,0.00001,-0.14512,-0.38002,0.04198,,,,,,,,,,,,,,,,,,,,,,,,,,0,0,0,0,0
2.5926,1783190414.1958,1,1,1.0000,0.0000,1.44681,0.21569,-2.78191,0.99539,1.57080,0.00001,-0.14512,-0.38002,0.04198,,,,,,,,,,,,,,,,,,,,,,,,,,0,0,0,0,0
2.5969,1783190414.2001,1,1,1.0000,0.0000,1.44681,0.21562,-2.78193,0.99547,1.57080,0.00001,-0.14512,-0.38002,0.04196,,,,,,,,,,,,,,,,,,,,,,,,,,0,0,0,0,0
2.6116,1783190414.2149,1,1,1.0000,0.0000,1.44681,0.21546,-2.78196,0.99566,1.57080,0.00001,-0.14512,-0.38002,0.04193,,,,,,,,,,,,,,,,,,,,,,,,,,0,0,0,0,0
2.6170,1783190414.2203,1,1,1.0000,0.0000,1.44681,0.21543,-2.78197,0.99571,1.57080,0.00001,-0.14512,-0.38002,0.04192,,,,,,,,,,,,,,,,,,,,,,,,,,0,0,0,0,0
2.6270,1783190414.2303,1,1,1.0000,0.0000,1.44681,0.21525,-2.78201,0.99593,1.57080,0.00001,-0.14512,-0.38002,0.04187,,,,,,,,,,,,,,,,,,,,,,,,,,0,0,0,0,0
2.6274,1783190414.2306,1,1,1.0000,0.0000,1.44681,0.21525,-2.78201,0.99593,1.57080,0.00001,-0.14512,-0.38002,0.04187,,,,,,,,,,,,,,,,,,,,,,,,,,0,0,0,0,0
2.6373,1783190414.2405,1,1,1.0000,0.0000,1.44681,0.21518,-2.78203,0.99602,1.57080,0.00001,-0.14512,-0.38002,0.04185,,,,,,,,,,,,,,,,,,,,,,,,,,0,0,0,0,0
2.6378,1783190414.2411,1,1,1.0000,0.0000,1.44681,0.21517,-2.78204,0.99603,1.57080,0.00001,-0.14512,-0.38002,0.04185,,,,,,,,,,,,,,,,,,,,,,,,,,0,0,0,0,0
2.6499,1783190414.2531,1,1,1.0000,0.0000,1.44681,0.21502,-2.78207,0.99621,1.57080,0.00001,-0.14512,-0.38002,0.04181,,,,,,,,,,,,,,,,,,,,,,,,,,0,0,0,0,0
2.6580,1783190414.2612,1,1,1.0000,0.0000,1.44681,0.21488,-2.78210,0.99639,1.57080,0.00001,-0.14512,-0.38002,0.04178,,,,,,,,,,,,,,,,,,,,,,,,,,0,0,0,0,0
2.6705,1783190414.2738,1,1,1.0000,0.0000,1.44681,0.21480,-2.78212,0.99649,1.57080,0.00001,-0.14512,-0.38002,0.04176,,,,,,,,,,,,,,,,,,,,,,,,,,0,0,0,0,0
2.6770,1783190414.2802,1,1,1.0000,0.0000,1.44681,0.21477,-2.78213,0.99653,1.57080,0.00001,-0.14512,-0.38002,0.04175,,,,,,,,,,,,,,,,,,,,,,,,,,0,0,0,0,0
2.6922,1783190414.2955,1,1,1.0000,0.0000,1.44681,0.21452,-2.78219,0.99685,1.57080,0.00002,-0.14512,-0.38002,0.04168,,,,,,,,,,,,,,,,,,,,,,,,,,0,0,0,0,0
2.7015,1783190414.3047,1,1,1.0000,0.0000,1.44681,0.21450,-2.78220,0.99686,1.57080,0.00002,-0.14512,-0.38002,0.04168,,,,,,,,,,,,,,,,,,,,,,,,,,0,0,0,0,0
2.7067,1783190414.3100,1,1,1.0000,0.0000,1.44681,0.21442,-2.78222,0.99696,1.57080,0.00002,-0.14512,-0.38002,0.04166,,,,,,,,,,,,,,,,,,,,,,,,,,0,0,0,0,0
2.7171,1783190414.3203,1,1,1.0000,0.0000,1.44681,0.21429,-2.78225,0.99713,1.57080,0.00002,-0.14512,-0.38002,0.04163,,,,,,,,,,,,,,,,,,,,,,,,,,0,0,0,0,0
2.7178,1783190414.3210,1,1,1.0000,0.0000,1.44681,0.21422,-2.78227,0.99721,1.57080,0.00002,-0.14512,-0.38002,0.04161,,,,,,,,,,,,,,,,,,,,,,,,,,0,0,0,0,0
2.7400,1783190414.3432,1,1,1.0000,0.0000,1.44681,0.21405,-2.78231,0.99742,1.57080,0.00002,-0.14512,-0.38002,0.04157,,,,,,,,,,,,,,,,,,,,,,,,,,0,0,0,0,0
2.7403,1783190414.3435,1,1,1.0000,0.0000,1.44681,0.21405,-2.78231,0.99742,1.57080,0.00002,-0.14512,-0.38002,0.04157,,,,,,,,,,,,,,,,,,,,,,,,,,0,0,0,0,0
2.7418,1783190414.3451,1,1,1.0000,0.0000,1.44681,0.21399,-2.78232,0.99750,1.57080,0.00002,-0.14512,-0.38002,0.04155,,,,,,,,,,,,,,,,,,,,,,,,,,0,0,0,0,0
2.7421,1783190414.3453,1,1,1.0000,0.0000,1.44681,0.21399,-2.78232,0.99750,1.57080,0.00002,-0.14512,-0.38002,0.04155,,,,,,,,,,,,,,,,,,,,,,,,,,0,0,0,0,0
2.7523,1783190414.3556,1,1,1.0000,0.0000,1.44681,0.21385,-2.78236,0.99767,1.57080,0.00002,-0.14512,-0.38002,0.04151,,,,,,,,,,,,,,,,,,,,,,,,,,0,0,0,0,0
2.7604,1783190414.3636,1,1,1.0000,0.0000,1.44681,0.21378,-2.78237,0.99776,1.57080,0.00002,-0.14512,-0.38002,0.04150,,,,,,,,,,,,,,,,,,,,,,,,,,0,0,0,0,0
2.7721,1783190414.3753,1,1,1.0000,0.0000,1.44681,0.21371,-2.78239,0.99785,1.57080,0.00002,-0.14512,-0.38002,0.04148,,,,,,,,,,,,,,,,,,,,,,,,,,0,0,0,0,0
2.7806,1783190414.3839,1,1,1.0000,0.0000,1.44681,0.21361,-2.78242,0.99797,1.57080,0.00002,-0.14512,-0.38002,0.04145,,,,,,,,,,,,,,,,,,,,,,,,,,0,0,0,0,0
2.7810,1783190414.3842,1,1,1.0000,0.0000,1.44681,0.21361,-2.78242,0.99797,1.57080,0.00002,-0.14512,-0.38002,0.04145,,,,,,,,,,,,,,,,,,,,,,,,,,0,0,0,0,0
2.7914,1783190414.3947,1,1,1.0000,0.0000,1.44681,0.21353,-2.78243,0.99807,1.57080,0.00002,-0.14512,-0.38002,0.04143,,,,,,,,,,,,,,,,,,,,,,,,,,0,0,0,0,0
2.8022,1783190414.4055,1,1,1.0000,0.0000,1.44681,0.21338,-2.78247,0.99825,1.57080,0.00002,-0.14512,-0.38002,0.04140,,,,,,,,,,,,,,,,,,,,,,,,,,0,0,0,0,0
2.8027,1783190414.4059,1,1,1.0000,0.0000,1.44681,0.21338,-2.78247,0.99825,1.57080,0.00002,-0.14512,-0.38002,0.04140,,,,,,,,,,,,,,,,,,,,,,,,,,0,0,0,0,0
2.8103,1783190414.4135,1,1,1.0000,0.0000,1.44681,0.21324,-2.78251,0.99843,1.57080,0.00002,-0.14512,-0.38002,0.04136,,,,,,,,,,,,,,,,,,,,,,,,,,0,0,0,0,0
2.8247,1783190414.4279,1,1,1.0000,0.0000,1.44681,0.21316,-2.78253,0.99853,1.57080,0.00002,-0.14512,-0.38002,0.04134,,,,,,,,,,,,,,,,,,,,,,,,,,0,0,0,0,0
2.8384,1783190414.4416,1,1,1.0000,0.0000,1.44681,0.21300,-2.78257,0.99873,1.57080,0.00002,-0.14512,-0.38002,0.04130,,,,,,,,,,,,,,,,,,,,,,,,,,0,0,0,0,0
2.8425,1783190414.4458,1,1,1.0000,0.0000,1.44681,0.21294,-2.78258,0.99881,1.57080,0.00002,-0.14512,-0.38002,0.04128,,,,,,,,,,,,,,,,,,,,,,,,,,0,0,0,0,0
2.8427,1783190414.4459,1,1,1.0000,0.0000,1.44681,0.21294,-2.78258,0.99881,1.57080,0.00002,-0.14512,-0.38002,0.04128,,,,,,,,,,,,,,,,,,,,,,,,,,0,0,0,0,0
2.8511,1783190414.4543,1,1,1.0000,0.0000,1.44681,0.21292,-2.78258,0.99882,1.57080,0.00002,-0.14512,-0.38002,0.04128,,,,,,,,,,,,,,,,,,,,,,,,,,0,0,0,0,0
2.8607,1783190414.4639,1,1,1.0000,0.0000,1.44681,0.21284,-2.78260,0.99893,1.57080,0.00002,-0.14512,-0.38002,0.04126,,,,,,,,,,,,,,,,,,,,,,,,,,0,0,0,0,0
2.8749,1783190414.4782,1,1,1.0000,0.0000,1.44681,0.21256,-2.78267,0.99928,1.57080,0.00002,-0.14512,-0.38002,0.04119,,,,,,,,,,,,,,,,,,,,,,,,,,0,0,0,0,0
2.8809,1783190414.4841,1,1,1.0000,0.0000,1.44681,0.21256,-2.78267,0.99928,1.57080,0.00002,-0.14512,-0.38002,0.04119,,,,,,,,,,,,,,,,,,,,,,,,,,0,0,0,0,0
2.8956,1783190414.4988,1,1,1.0000,0.0000,1.44681,0.21244,-2.78270,0.99942,1.57080,0.00002,-0.14512,-0.38002,0.04116,,,,,,,,,,,,,,,,,,,,,,,,,,0,0,0,0,0
2.9003,1783190414.5035,1,1,1.0000,0.0000,1.44681,0.21239,-2.78271,0.99949,1.57080,0.00002,-0.14512,-0.38002,0.04114,,,,,,,,,,,,,,,,,,,,,,,,,,0,0,0,0,0
2.9008,1783190414.5040,1,1,1.0000,0.0000,1.44681,0.21239,-2.78271,0.99949,1.57080,0.00002,-0.14512,-0.38002,0.04114,,,,,,,,,,,,,,,,,,,,,,,,,,0,0,0,0,0
2.9116,1783190414.5148,1,1,1.0000,0.0000,1.44681,0.21231,-2.78273,0.99958,1.57080,0.00002,-0.14512,-0.38002,0.04112,,,,,,,,,,,,,,,,,,,,,,,,,,0,0,0,0,0
2.9227,1783190414.5259,1,1,1.0000,0.0000,1.44681,0.21216,-2.78277,0.99977,1.57080,0.00002,-0.14512,-0.38002,0.04109,,,,,,,,,,,,,,,,,,,,,,,,,,0,0,0,0,0
2.9305,1783190414.5337,1,1,1.0000,0.0000,1.44681,0.21202,-2.78280,0.99995,1.57080,0.00002,-0.14512,-0.38002,0.04105,,,,,,,,,,,,,,,,,,,,,,,,,,0,0,0,0,0
2.9309,1783190414.5342,1,1,1.0000,0.0000,1.44681,0.21202,-2.78280,0.99995,1.57080,0.00002,-0.14512,-0.38002,0.04105,,,,,,,,,,,,,,,,,,,,,,,,,,0,0,0,0,0
2.9421,1783190414.5453,1,1,1.0000,0.0000,1.44681,0.21194,-2.78282,1.00005,1.57080,0.00002,-0.14512,-0.38002,0.04103,,,,,,,,,,,,,,,,,,,,,,,,,,0,0,0,0,0
2.9423,1783190414.5455,1,1,1.0000,0.0000,1.44681,0.21194,-2.78282,1.00005,1.57080,0.00002,-0.14512,-0.38002,0.04103,,,,,,,,,,,,,,,,,,,,,,,,,,0,0,0,0,0
2.9581,1783190414.5613,1,1,1.0000,0.0000,1.44681,0.21178,-2.78286,1.00025,1.57080,0.00002,-0.14512,-0.38002,0.04099,,,,,,,,,,,,,,,,,,,,,,,,,,0,0,0,0,0
2.9585,1783190414.5617,1,1,1.0000,0.0000,1.44681,0.21178,-2.78286,1.00025,1.57080,0.00002,-0.14512,-0.38002,0.04099,,,,,,,,,,,,,,,,,,,,,,,,,,0,0,0,0,0
2.9606,1783190414.5638,1,1,1.0000,0.0000,1.44681,0.21178,-2.78286,1.00025,1.57080,0.00002,-0.14512,-0.38002,0.04099,,,,,,,,,,,,,,,,,,,,,,,,,,0,0,0,0,0
2.9609,1783190414.5641,1,1,1.0000,0.0000,1.44681,0.21178,-2.78286,1.00025,1.57080,0.00002,-0.14512,-0.38002,0.04099,,,,,,,,,,,,,,,,,,,,,,,,,,0,0,0,0,0
3.0544,1783190414.6576,1,1,1.0000,0.0000,1.44681,0.21072,-2.78312,1.00156,1.57080,0.00002,-0.14512,-0.38002,0.04072,,,,,,,,,,,,,,,,,,,,,,,,,,0,0,0,0,0
3.0549,1783190414.6581,1,1,1.0000,0.0000,1.44681,0.21072,-2.78312,1.00156,1.57080,0.00002,-0.14512,-0.38002,0.04072,,,,,,,,,,,,,,,,,,,,,,,,,,0,0,0,0,0
3.0552,1783190414.6585,1,1,1.0000,0.0000,1.44681,0.21072,-2.78312,1.00156,1.57080,0.00002,-0.14512,-0.38002,0.04072,,,,,,,,,,,,,,,,,,,,,,,,,,0,0,0,0,0
3.0557,1783190414.6590,1,1,1.0000,0.0000,1.44681,0.21072,-2.78312,1.00156,1.57080,0.00002,-0.14512,-0.38002,0.04072,,,,,,,,,,,,,,,,,,,,,,,,,,0,0,0,0,0
3.0561,1783190414.6594,1,1,1.0000,0.0000,1.44681,0.21072,-2.78312,1.00156,1.57080,0.00002,-0.14512,-0.38002,0.04072,,,,,,,,,,,,,,,,,,,,,,,,,,0,0,0,0,0
3.0620,1783190414.6652,1,1,1.0000,0.0000,1.44681,0.21072,-2.78312,1.00157,1.57080,0.00002,-0.14512,-0.38002,0.04072,,,,,,,,,,,,,,,,,,,,,,,,,,0,0,0,0,0
3.0760,1783190414.6792,1,1,1.0000,0.0000,1.44681,0.21061,-2.78314,1.00170,1.57080,0.00002,-0.14512,-0.38002,0.04069,,,,,,,,,,,,,,,,,,,,,,,,,,0,0,0,0,0
3.0814,1783190414.6846,1,1,1.0000,0.0000,1.44681,0.21055,-2.78316,1.00177,1.57080,0.00002,-0.14512,-0.38002,0.04068,,,,,,,,,,,,,,,,,,,,,,,,,,0,0,0,0,0
3.0821,1783190414.6854,1,1,1.0000,0.0000,1.44681,0.21049,-2.78317,1.00185,1.57080,0.00002,-0.14512,-0.38002,0.04066,,,,,,,,,,,,,,,,,,,,,,,,,,0,0,0,0,0
3.1000,1783190414.7033,1,1,1.0000,0.0000,1.44681,0.21039,-2.78320,1.00197,1.57080,0.00002,-0.14512,-0.38002,0.04064,,,,,,,,,,,,,,,,,,,,,,,,,,0,0,0,0,0
3.1051,1783190414.7083,1,1,1.0000,0.0000,1.44681,0.21033,-2.78321,1.00205,1.57080,0.00002,-0.14512,-0.38002,0.04062,,,,,,,,,,,,,,,,,,,,,,,,,,0,0,0,0,0
3.1055,1783190414.7087,1,1,1.0000,0.0000,1.44681,0.21033,-2.78321,1.00205,1.57080,0.00002,-0.14512,-0.38002,0.04062,,,,,,,,,,,,,,,,,,,,,,,,,,0,0,0,0,0
3.1101,1783190414.7133,1,1,1.0000,0.0000,1.44681,0.21018,-2.78325,1.00223,1.57080,0.00002,-0.14512,-0.38002,0.04058,,,,,,,,,,,,,,,,,,,,,,,,,,0,0,0,0,0
3.1104,1783190414.7137,1,1,1.0000,0.0000,1.44681,0.21018,-2.78325,1.00223,1.57080,0.00002,-0.14512,-0.38002,0.04058,,,,,,,,,,,,,,,,,,,,,,,,,,0,0,0,0,0
3.1205,1783190414.7238,1,1,1.0000,0.0000,1.44681,0.21011,-2.78326,1.00232,1.57080,0.00002,-0.14512,-0.38002,0.04057,,,,,,,,,,,,,,,,,,,,,,,,,,0,0,0,0,0
3.1355,1783190414.7388,1,1,1.0000,0.0000,1.44681,0.20995,-2.78330,1.00251,1.57080,0.00002,-0.14512,-0.38002,0.04053,,,,,,,,,,,,,,,,,,,,,,,,,,0,0,0,0,0
3.1478,1783190414.7511,1,1,1.0000,0.0000,1.44681,0.20981,-2.78334,1.00269,1.57080,0.00002,-0.14512,-0.38002,0.04049,,,,,,,,,,,,,,,,,,,,,,,,,,0,0,0,0,0
3.1517,1783190414.7549,1,1,1.0000,0.0000,1.44680,0.20980,-2.78334,1.00270,1.57080,0.00002,-0.14512,-0.38002,0.04049,,,,,,,,,,,,,,,,,,,,,,,,,,0,0,0,0,0
3.1605,1783190414.7638,1,1,1.0000,0.0000,1.44680,0.20972,-2.78336,1.00281,1.57080,0.00002,-0.14512,-0.38002,0.04047,,,,,,,,,,,,,,,,,,,,,,,,,,0,0,0,0,0
3.1707,1783190414.7740,1,1,1.0000,0.0000,1.44680,0.20951,-2.78341,1.00306,1.57079,0.00002,-0.14512,-0.38002,0.04042,,,,,,,,,,,,,,,,,,,,,,,,,,0,0,0,0,0
3.1824,1783190414.7856,1,1,1.0000,0.0000,1.44680,0.20943,-2.78343,1.00316,1.57079,0.00002,-0.14512,-0.38002,0.04039,,,,,,,,,,,,,,,,,,,,,,,,,,0,0,0,0,0
3.2024,1783190414.8057,1,1,1.0000,0.0000,1.44680,0.20914,-2.78350,1.00352,1.57079,0.00002,-0.14512,-0.38002,0.04032,,,,,,,,,,,,,,,,,,,,,,,,,,0,0,0,0,0
3.2027,1783190414.8059,1,1,1.0000,0.0000,1.44680,0.20914,-2.78350,1.00352,1.57079,0.00002,-0.14512,-0.38002,0.04032,,,,,,,,,,,,,,,,,,,,,,,,,,0,0,0,0,0
3.2030,1783190414.8062,1,1,1.0000,0.0000,1.44680,0.20914,-2.78350,1.00352,1.57079,0.00002,-0.14512,-0.38002,0.04032,,,,,,,,,,,,,,,,,,,,,,,,,,0,0,0,0,0
3.2100,1783190414.8132,1,1,1.0000,0.0000,1.44680,0.20913,-2.78350,1.00353,1.57079,0.00002,-0.14512,-0.38002,0.04032,,,,,,,,,,,,,,,,,,,,,,,,,,0,0,0,0,0
3.2104,1783190414.8136,1,1,1.0000,0.0000,1.44680,0.20913,-2.78350,1.00353,1.57079,0.00002,-0.14512,-0.38002,0.04032,,,,,,,,,,,,,,,,,,,,,,,,,,0,0,0,0,0
3.2202,1783190414.8235,1,1,1.0000,0.0000,1.44680,0.20905,-2.78352,1.00364,1.57079,0.00002,-0.14512,-0.38002,0.04030,,,,,,,,,,,,,,,,,,,,,,,,,,0,0,0,0,0
3.2205,1783190414.8238,1,1,1.0000,0.0000,1.44680,0.20905,-2.78352,1.00364,1.57079,0.00002,-0.14512,-0.38002,0.04030,,,,,,,,,,,,,,,,,,,,,,,,,,0,0,0,0,0
3.2315,1783190414.8347,1,1,1.0000,0.0000,1.44680,0.20884,-2.78357,1.00389,1.57079,0.00002,-0.14512,-0.38002,0.04025,,,,,,,,,,,,,,,,,,,,,,,,,,0,0,0,0,0
3.2406,1783190414.8438,1,1,1.0000,0.0000,1.44680,0.20877,-2.78359,1.00398,1.57079,0.00002,-0.14512,-0.38002,0.04023,,,,,,,,,,,,,,,,,,,,,,,,,,0,0,0,0,0
3.2409,1783190414.8441,1,1,1.0000,0.0000,1.44680,0.20877,-2.78359,1.00398,1.57079,0.00002,-0.14512,-0.38002,0.04023,,,,,,,,,,,,,,,,,,,,,,,,,,0,0,0,0,0
3.2539,1783190414.8571,1,1,1.0000,0.0000,1.44680,0.20862,-2.78362,1.00417,1.57079,0.00002,-0.14512,-0.38002,0.04019,,,,,,,,,,,,,,,,,,,,,,,,,,0,0,0,0,0
3.2610,1783190414.8642,1,1,1.0000,0.0000,1.44680,0.20855,-2.78364,1.00426,1.57079,0.00002,-0.14512,-0.38002,0.04017,,,,,,,,,,,,,,,,,,,,,,,,,,0,0,0,0,0
3.2748,1783190414.8780,1,1,1.0000,0.0000,1.44680,0.20843,-2.78367,1.00441,1.57079,0.00002,-0.14512,-0.38002,0.04014,,,,,,,,,,,,,,,,,,,,,,,,,,0,0,0,0,0
3.2920,1783190414.8952,1,1,1.0000,0.0000,1.44680,0.20817,-2.78373,1.00472,1.57079,0.00002,-0.14512,-0.38002,0.04008,,,,,,,,,,,,,,,,,,,,,,,,,,0,0,0,0,0
3.2924,1783190414.8956,1,1,1.0000,0.0000,1.44680,0.20817,-2.78373,1.00472,1.57079,0.00002,-0.14512,-0.38002,0.04008,,,,,,,,,,,,,,,,,,,,,,,,,,0,0,0,0,0
3.3044,1783190414.9076,1,1,1.0000,0.0000,1.44680,0.20809,-2.78375,1.00482,1.57079,0.00002,-0.14512,-0.38002,0.04006,,,,,,,,,,,,,,,,,,,,,,,,,,0,0,0,0,0
3.3148,1783190414.9181,1,1,1.0000,0.0000,1.44680,0.20795,-2.78379,1.00500,1.57079,0.00002,-0.14512,-0.38002,0.04002,,,,,,,,,,,,,,,,,,,,,,,,,,0,0,0,0,0
3.3247,1783190414.9279,1,1,1.0000,0.0000,1.44680,0.20780,-2.78382,1.00518,1.57079,0.00002,-0.14512,-0.38002,0.03998,,,,,,,,,,,,,,,,,,,,,,,,,,0,0,0,0,0
3.3252,1783190414.9284,1,1,1.0000,0.0000,1.44680,0.20780,-2.78382,1.00518,1.57079,0.00002,-0.14512,-0.38002,0.03998,,,,,,,,,,,,,,,,,,,,,,,,,,0,0,0,0,0
3.3322,1783190414.9354,1,1,1.0000,0.0000,1.44680,0.20779,-2.78382,1.00520,1.57079,0.00002,-0.14512,-0.38002,0.03998,,,,,,,,,,,,,,,,,,,,,,,,,,0,0,0,0,0
3.3326,1783190414.9359,1,1,1.0000,0.0000,1.44680,0.20779,-2.78382,1.00520,1.57079,0.00002,-0.14512,-0.38002,0.03998,,,,,,,,,,,,,,,,,,,,,,,,,,0,0,0,0,0
3.3410,1783190414.9442,1,1,1.0000,0.0000,1.44680,0.20771,-2.78384,1.00530,1.57079,0.00002,-0.14512,-0.38002,0.03996,,,,,,,,,,,,,,,,,,,,,,,,,,0,0,0,0,0
3.3528,1783190414.9561,1,1,1.0000,0.0000,1.44680,0.20750,-2.78389,1.00555,1.57079,0.00002,-0.14512,-0.38002,0.03991,,,,,,,,,,,,,,,,,,,,,,,,,,0,0,0,0,0
3.3630,1783190414.9663,1,1,1.0000,0.0000,1.44680,0.20742,-2.78391,1.00565,1.57079,0.00002,-0.14512,-0.38002,0.03989,,,,,,,,,,,,,,,,,,,,,,,,,,0,0,0,0,0
3.3634,1783190414.9667,1,1,1.0000,0.0000,1.44680,0.20742,-2.78391,1.00565,1.57079,0.00002,-0.14512,-0.38002,0.03989,,,,,,,,,,,,,,,,,,,,,,,,,,0,0,0,0,0
3.3712,1783190414.9744,1,1,1.0000,0.0000,1.44680,0.20734,-2.78393,1.00576,1.57079,0.00002,-0.14512,-0.38002,0.03987,,,,,,,,,,,,,,,,,,,,,,,,,,0,0,0,0,0
3.3715,1783190414.9747,1,1,1.0000,0.0000,1.44680,0.20734,-2.78393,1.00576,1.57079,0.00002,-0.14512,-0.38002,0.03987,,,,,,,,,,,,,,,,,,,,,,,,,,0,0,0,0,0
3.3851,1783190414.9883,1,1,1.0000,0.0000,1.44680,0.20713,-2.78398,1.00601,1.57079,0.00002,-0.14512,-0.38002,0.03981,,,,,,,,,,,,,,,,,,,,,,,,,,0,0,0,0,0
3.3950,1783190414.9983,1,1,1.0000,0.0000,1.44680,0.20709,-2.78399,1.00607,1.57079,0.00002,-0.14512,-0.38002,0.03980,,,,,,,,,,,,,,,,,,,,,,,,,,0,0,0,0,0
3.3953,1783190414.9985,1,1,1.0000,0.0000,1.44680,0.20709,-2.78399,1.00607,1.57079,0.00002,-0.14512,-0.38002,0.03980,,,,,,,,,,,,,,,,,,,,,,,,,,0,0,0,0,0
3.4021,1783190415.0054,1,1,1.0000,0.0000,1.44680,0.20697,-2.78402,1.00621,1.57079,0.00002,-0.14512,-0.38002,0.03977,,,,,,,,,,,,,,,,,,,,,,,,,,0,0,0,0,0
3.4024,1783190415.0057,1,1,1.0000,0.0000,1.44680,0.20697,-2.78402,1.00621,1.57079,0.00002,-0.14512,-0.38002,0.03977,,,,,,,,,,,,,,,,,,,,,,,,,,0,0,0,0,0
3.4122,1783190415.0154,1,1,1.0000,0.0000,1.44680,0.20683,-2.78405,1.00638,1.57079,0.00002,-0.14512,-0.38002,0.03974,,,,,,,,,,,,,,,,,,,,,,,,,,0,0,0,0,0
3.4232,1783190415.0264,1,1,1.0000,0.0000,1.44680,0.20675,-2.78407,1.00648,1.57079,0.00002,-0.14512,-0.38002,0.03972,,,,,,,,,,,,,,,,,,,,,,,,,,0,0,0,0,0
3.4301,1783190415.0333,1,1,1.0000,0.0000,1.44680,0.20667,-2.78409,1.00659,1.57079,0.00002,-0.14512,-0.38002,0.03970,,,,,,,,,,,,,,,,,,,,,,,,,,0,0,0,0,0
3.4304,1783190415.0336,1,1,1.0000,0.0000,1.44680,0.20667,-2.78409,1.00659,1.57079,0.00002,-0.14512,-0.38002,0.03970,,,,,,,,,,,,,,,,,,,,,,,,,,0,0,0,0,0
3.4405,1783190415.0437,1,1,1.0000,0.0000,1.44680,0.20653,-2.78412,1.00675,1.57079,0.00002,-0.14512,-0.38002,0.03966,,,,,,,,,,,,,,,,,,,,,,,,,,0,0,0,0,0
3.4408,1783190415.0440,1,1,1.0000,0.0000,1.44680,0.20653,-2.78412,1.00675,1.57079,0.00002,-0.14512,-0.38002,0.03966,,,,,,,,,,,,,,,,,,,,,,,,,,0,0,0,0,0
3.4543,1783190415.0576,1,1,1.0000,0.0000,1.44680,0.20638,-2.78416,1.00694,1.57079,0.00002,-0.14512,-0.38002,0.03963,,,,,,,,,,,,,,,,,,,,,,,,,,0,0,0,0,0
3.4655,1783190415.0687,1,1,1.0000,0.0000,1.44680,0.20632,-2.78417,1.00702,1.57079,0.00002,-0.14512,-0.38002,0.03961,,,,,,,,,,,,,,,,,,,,,,,,,,0,0,0,0,0
3.4660,1783190415.0693,1,1,1.0000,0.0000,1.44680,0.20627,-2.78419,1.00708,1.57079,0.00002,-0.14512,-0.38002,0.03960,,,,,,,,,,,,,,,,,,,,,,,,,,0,0,0,0,0
3.4728,1783190415.0760,1,1,1.0000,0.0000,1.44680,0.20622,-2.78420,1.00715,1.57079,0.00002,-0.14512,-0.38002,0.03958,,,,,,,,,,,,,,,,,,,,,,,,,,0,0,0,0,0
3.4731,1783190415.0763,1,1,1.0000,0.0000,1.44680,0.20622,-2.78420,1.00715,1.57079,0.00002,-0.14512,-0.38002,0.03958,,,,,,,,,,,,,,,,,,,,,,,,,,0,0,0,0,0
3.4805,1783190415.0838,1,1,1.0000,0.0000,1.44680,0.20615,-2.78421,1.00722,1.57079,0.00002,-0.14512,-0.38002,0.03957,,,,,,,,,,,,,,,,,,,,,,,,,,0,0,0,0,0
3.4935,1783190415.0967,1,1,1.0000,0.0000,1.44680,0.20605,-2.78424,1.00735,1.57079,0.00002,-0.14512,-0.38002,0.03954,,,,,,,,,,,,,,,,,,,,,,,,,,0,0,0,0,0
3.4941,1783190415.0973,1,1,1.0000,0.0000,1.44680,0.20599,-2.78425,1.00743,1.57079,0.00002,-0.14512,-0.38002,0.03953,,,,,,,,,,,,,,,,,,,,,,,,,,0,0,0,0,0
3.5134,1783190415.1166,1,1,1.0000,0.0000,1.44680,0.20577,-2.78430,1.00770,1.57079,0.00002,-0.14512,-0.38002,0.03947,,,,,,,,,,,,,,,,,,,,,,,,,,0,0,0,0,0
3.5139,1783190415.1172,1,1,1.0000,0.0000,1.44680,0.20576,-2.78431,1.00771,1.57079,0.00002,-0.14512,-0.38002,0.03947,,,,,,,,,,,,,,,,,,,,,,,,,,0,0,0,0,0
3.5269,1783190415.1301,1,1,1.0000,0.0000,1.44680,0.20565,-2.78433,1.00784,1.57079,0.00002,-0.14512,-0.38002,0.03944,,,,,,,,,,,,,,,,,,,,,,,,,,0,0,0,0,0
3.5317,1783190415.1350,1,1,1.0000,0.0000,1.44680,0.20560,-2.78435,1.00791,1.57079,0.00002,-0.14512,-0.38002,0.03943,,,,,,,,,,,,,,,,,,,,,,,,,,0,0,0,0,0
3.5322,1783190415.1354,1,1,1.0000,0.0000,1.44680,0.20560,-2.78435,1.00791,1.57079,0.00002,-0.14512,-0.38002,0.03943,,,,,,,,,,,,,,,,,,,,,,,,,,0,0,0,0,0
3.5410,1783190415.1443,1,1,1.0000,0.0000,1.44680,0.20554,-2.78436,1.00799,1.57079,0.00002,-0.14512,-0.38002,0.03941,,,,,,,,,,,,,,,,,,,,,,,,,,0,0,0,0,0
3.5415,1783190415.1448,1,1,1.0000,0.0000,1.44680,0.20554,-2.78436,1.00799,1.57079,0.00002,-0.14512,-0.38002,0.03941,,,,,,,,,,,,,,,,,,,,,,,,,,0,0,0,0,0
3.5568,1783190415.1600,1,1,1.0000,0.0000,1.44680,0.20537,-2.78440,1.00819,1.57079,0.00002,-0.14512,-0.38002,0.03937,,,,,,,,,,,,,,,,,,,,,,,,,,0,0,0,0,0
3.5572,1783190415.1605,1,1,1.0000,0.0000,1.44680,0.20537,-2.78440,1.00819,1.57079,0.00002,-0.14512,-0.38002,0.03937,,,,,,,,,,,,,,,,,,,,,,,,,,0,0,0,0,0
3.5612,1783190415.1645,1,1,1.0000,0.0000,1.44680,0.20530,-2.78442,1.00828,1.57079,0.00002,-0.14512,-0.38002,0.03935,,,,,,,,,,,,,,,,,,,,,,,,,,0,0,0,0,0
3.5713,1783190415.1745,1,1,1.0000,0.0000,1.44680,0.20516,-2.78445,1.00846,1.57079,0.00002,-0.14512,-0.38002,0.03932,,,,,,,,,,,,,,,,,,,,,,,,,,0,0,0,0,0
3.5822,1783190415.1854,1,1,1.0000,0.0000,1.44680,0.20509,-2.78447,1.00855,1.57079,0.00002,-0.14512,-0.38002,0.03930,,,,,,,,,,,,,,,,,,,,,,,,,,0,0,0,0,0
3.5903,1783190415.1936,1,1,1.0000,0.0000,1.44680,0.20498,-2.78449,1.00867,1.57079,0.00002,-0.14512,-0.38002,0.03927,,,,,,,,,,,,,,,,,,,,,,,,,,0,0,0,0,0
3.5908,1783190415.1940,1,1,1.0000,0.0000,1.44680,0.20498,-2.78449,1.00867,1.57079,0.00002,-0.14512,-0.38002,0.03927,,,,,,,,,,,,,,,,,,,,,,,,,,0,0,0,0,0
3.6128,1783190415.2160,1,1,1.0000,0.0000,1.44680,0.20482,-2.78453,1.00887,1.57079,0.00002,-0.14512,-0.38002,0.03923,,,,,,,,,,,,,,,,,,,,,,,,,,0,0,0,0,0
3.6133,1783190415.2166,1,1,1.0000,0.0000,1.44680,0.20482,-2.78453,1.00887,1.57079,0.00002,-0.14512,-0.38002,0.03923,,,,,,,,,,,,,,,,,,,,,,,,,,0,0,0,0,0
3.6206,1783190415.2239,1,1,1.0000,0.0000,1.44680,0.20468,-2.78456,1.00904,1.57079,0.00002,-0.14512,-0.38002,0.03920,,,,,,,,,,,,,,,,,,,,,,,,,,0,0,0,0,0
3.6211,1783190415.2243,1,1,1.0000,0.0000,1.44680,0.20468,-2.78456,1.00904,1.57079,0.00002,-0.14512,-0.38002,0.03920,,,,,,,,,,,,,,,,,,,,,,,,,,0,0,0,0,0
3.6336,1783190415.2368,1,1,1.0000,0.0000,1.44680,0.20454,-2.78460,1.00922,1.57079,0.00002,-0.14512,-0.38002,0.03916,,,,,,,,,,,,,,,,,,,,,,,,,,0,0,0,0,0
3.6407,1783190415.2439,1,1,1.0000,0.0000,1.44680,0.20451,-2.78461,1.00926,1.57079,0.00002,-0.14512,-0.38002,0.03915,,,,,,,,,,,,,,,,,,,,,,,,,,0,0,0,0,0
3.6410,1783190415.2442,1,1,1.0000,0.0000,1.44680,0.20451,-2.78461,1.00926,1.57079,0.00002,-0.14512,-0.38002,0.03915,,,,,,,,,,,,,,,,,,,,,,,,,,0,0,0,0,0
3.6509,1783190415.2542,1,1,1.0000,0.0000,1.44680,0.20436,-2.78464,1.00944,1.57079,0.00002,-0.14512,-0.38002,0.03912,,,,,,,,,,,,,,,,,,,,,,,,,,0,0,0,0,0
3.6706,1783190415.2738,1,1,1.0000,0.0000,1.44680,0.20420,-2.78468,1.00964,1.57079,0.00002,-0.14512,-0.38002,0.03908,,,,,,,,,,,,,,,,,,,,,,,,,,0,0,0,0,0
3.6734,1783190415.2766,1,1,1.0000,0.0000,1.44680,0.20420,-2.78468,1.00964,1.57079,0.00002,-0.14512,-0.38002,0.03908,,,,,,,,,,,,,,,,,,,,,,,,,,0,0,0,0,0
3.6833,1783190415.2865,1,1,1.0000,0.0000,1.44680,0.20399,-2.78473,1.00990,1.57079,0.00002,-0.14512,-0.38002,0.03902,,,,,,,,,,,,,,,,,,,,,,,,,,0,0,0,0,0
3.6943,1783190415.2975,1,1,1.0000,0.0000,1.44680,0.20391,-2.78475,1.01000,1.57079,0.00002,-0.14512,-0.38002,0.03900,,,,,,,,,,,,,,,,,,,,,,,,,,0,0,0,0,0
3.6946,1783190415.2978,1,1,1.0000,0.0000,1.44680,0.20391,-2.78475,1.01000,1.57079,0.00002,-0.14512,-0.38002,0.03900,,,,,,,,,,,,,,,,,,,,,,,,,,0,0,0,0,0
3.7004,1783190415.3036,1,1,1.0000,0.0000,1.44680,0.20387,-2.78476,1.01004,1.57079,0.00002,-0.14512,-0.38002,0.03900,,,,,,,,,,,,,,,,,,,,,,,,,,0,0,0,0,0
3.7007,1783190415.3040,1,1,1.0000,0.0000,1.44680,0.20387,-2.78476,1.01004,1.57079,0.00002,-0.14512,-0.38002,0.03900,,,,,,,,,,,,,,,,,,,,,,,,,,0,0,0,0,0
3.7184,1783190415.3217,1,1,1.0000,0.0000,1.44680,0.20362,-2.78482,1.01036,1.57079,0.00002,-0.14512,-0.38002,0.03893,,,,,,,,,,,,,,,,,,,,,,,,,,0,0,0,0,0
3.7216,1783190415.3249,1,1,1.0000,0.0000,1.44680,0.20362,-2.78482,1.01036,1.57079,0.00002,-0.14512,-0.38002,0.03893,,,,,,,,,,,,,,,,,,,,,,,,,,0,0,0,0,0
3.7336,1783190415.3369,1,1,1.0000,0.0000,1.44680,0.20352,-2.78484,1.01048,1.57079,0.00002,-0.14512,-0.38002,0.03891,,,,,,,,,,,,,,,,,,,,,,,,,,0,0,0,0,0
3.7439,1783190415.3472,1,1,1.0000,0.0000,1.44680,0.20332,-2.78489,1.01073,1.57079,0.00002,-0.14512,-0.38002,0.03886,,,,,,,,,,,,,,,,,,,,,,,,,,0,0,0,0,0
3.7507,1783190415.3540,1,1,1.0000,0.0000,1.44680,0.20325,-2.78490,1.01082,1.57079,0.00002,-0.14512,-0.38002,0.03884,,,,,,,,,,,,,,,,,,,,,,,,,,0,0,0,0,0
3.7663,1783190415.3696,1,1,1.0000,0.0000,1.44680,0.20309,-2.78494,1.01102,1.57079,0.00002,-0.14512,-0.38002,0.03880,,,,,,,,,,,,,,,,,,,,,,,,,,0,0,0,0,0
3.7762,1783190415.3794,1,1,1.0000,0.0000,1.44680,0.20294,-2.78498,1.01120,1.57079,0.00002,-0.14512,-0.38001,0.03876,,,,,,,,,,,,,,,,,,,,,,,,,,0,0,0,0,0
3.7820,1783190415.3852,1,1,1.0000,0.0000,1.44680,0.20293,-2.78498,1.01121,1.57079,0.00002,-0.14512,-0.38001,0.03876,,,,,,,,,,,,,,,,,,,,,,,,,,0,0,0,0,0
3.7822,1783190415.3855,1,1,1.0000,0.0000,1.44680,0.20293,-2.78498,1.01121,1.57079,0.00002,-0.14512,-0.38001,0.03876,,,,,,,,,,,,,,,,,,,,,,,,,,0,0,0,0,0
3.7942,1783190415.3974,1,1,1.0000,0.0000,1.44680,0.20278,-2.78501,1.01139,1.57079,0.00002,-0.14512,-0.38001,0.03872,,,,,,,,,,,,,,,,,,,,,,,,,,0,0,0,0,0
3.8030,1783190415.4063,1,1,1.0000,0.0000,1.44680,0.20264,-2.78505,1.01157,1.57079,0.00002,-0.14512,-0.38001,0.03869,,,,,,,,,,,,,,,,,,,,,,,,,,0,0,0,0,0
3.8035,1783190415.4067,1,1,1.0000,0.0000,1.44680,0.20264,-2.78505,1.01157,1.57079,0.00002,-0.14512,-0.38001,0.03869,,,,,,,,,,,,,,,,,,,,,,,,,,0,0,0,0,0
3.8159,1783190415.4191,1,1,1.0000,0.0000,1.44680,0.20256,-2.78507,1.01167,1.57079,0.00002,-0.14512,-0.38001,0.03867,,,,,,,,,,,,,,,,,,,,,,,,,,0,0,0,0,0
3.8222,1783190415.4254,1,1,1.0000,0.0000,1.44680,0.20247,-2.78509,1.01178,1.57079,0.00002,-0.14512,-0.38001,0.03864,,,,,,,,,,,,,,,,,,,,,,,,,,0,0,0,0,0
3.8326,1783190415.4358,1,1,1.0000,0.0000,1.44680,0.20234,-2.78512,1.01194,1.57079,0.00002,-0.14512,-0.38001,0.03861,,,,,,,,,,,,,,,,,,,,,,,,,,0,0,0,0,0
3.8405,1783190415.4437,1,1,1.0000,0.0000,1.44680,0.20220,-2.78515,1.01212,1.57079,0.00002,-0.14512,-0.38001,0.03858,,,,,,,,,,,,,,,,,,,,,,,,,,0,0,0,0,0
3.8536,1783190415.4569,1,1,1.0000,0.0000,1.44680,0.20216,-2.78516,1.01216,1.57079,0.00002,-0.14512,-0.38001,0.03857,,,,,,,,,,,,,,,,,,,,,,,,,,0,0,0,0,0
3.8650,1783190415.4683,1,1,1.0000,0.0000,1.44680,0.20202,-2.78519,1.01234,1.57079,0.00002,-0.14512,-0.38001,0.03853,,,,,,,,,,,,,,,,,,,,,,,,,,0,0,0,0,0
3.8751,1783190415.4783,1,1,1.0000,0.0000,1.44680,0.20195,-2.78521,1.01243,1.57079,0.00002,-0.14512,-0.38001,0.03851,,,,,,,,,,,,,,,,,,,,,,,,,,0,0,0,0,0
3.8945,1783190415.4978,1,1,1.0000,0.0000,1.44680,0.20165,-2.78528,1.01280,1.57079,0.00002,-0.14512,-0.38001,0.03844,,,,,,,,,,,,,,,,,,,,,,,,,,0,0,0,0,0
3.8950,1783190415.4982,1,1,1.0000,0.0000,1.44680,0.20165,-2.78528,1.01280,1.57079,0.00002,-0.14512,-0.38001,0.03844,,,,,,,,,,,,,,,,,,,,,,,,,,0,0,0,0,0
3.9016,1783190415.5048,1,1,1.0000,0.0000,1.44680,0.20158,-2.78530,1.01289,1.57079,0.00002,-0.14512,-0.38001,0.03842,,,,,,,,,,,,,,,,,,,,,,,,,,0,0,0,0,0
3.9022,1783190415.5055,1,1,1.0000,0.0000,1.44680,0.20158,-2.78530,1.01289,1.57079,0.00002,-0.14512,-0.38001,0.03842,,,,,,,,,,,,,,,,,,,,,,,,,,0,0,0,0,0
3.9230,1783190415.5263,1,1,1.0000,0.0000,1.44680,0.20140,-2.78534,1.01310,1.57079,0.00003,-0.14512,-0.38001,0.03838,,,,,,,,,,,,,,,,,,,,,,,,,,0,0,0,0,0
3.9235,1783190415.5268,1,1,1.0000,0.0000,1.44680,0.20140,-2.78534,1.01310,1.57079,0.00003,-0.14512,-0.38001,0.03838,,,,,,,,,,,,,,,,,,,,,,,,,,0,0,0,0,0
3.9239,1783190415.5272,1,1,1.0000,0.0000,1.44680,0.20140,-2.78534,1.01310,1.57079,0.00003,-0.14512,-0.38001,0.03838,,,,,,,,,,,,,,,,,,,,,,,,,,0,0,0,0,0
3.9302,1783190415.5335,1,1,1.0000,0.0000,1.44680,0.20134,-2.78535,1.01318,1.57079,0.00003,-0.14512,-0.38001,0.03836,,,,,,,,,,,,,,,,,,,,,,,,,,0,0,0,0,0
3.9306,1783190415.5338,1,1,1.0000,0.0000,1.44680,0.20134,-2.78535,1.01318,1.57079,0.00003,-0.14512,-0.38001,0.03836,,,,,,,,,,,,,,,,,,,,,,,,,,0,0,0,0,0
3.9410,1783190415.5442,1,1,1.0000,0.0000,1.44680,0.20129,-2.78536,1.01324,1.57079,0.00003,-0.14512,-0.38001,0.03835,,,,,,,,,,,,,,,,,,,,,,,,,,0,0,0,0,0
3.9415,1783190415.5448,1,1,1.0000,0.0000,1.44680,0.20129,-2.78536,1.01324,1.57079,0.00003,-0.14512,-0.38001,0.03835,,,,,,,,,,,,,,,,,,,,,,,,,,0,0,0,0,0
3.9505,1783190415.5538,1,1,1.0000,0.0000,1.44680,0.20110,-2.78541,1.01347,1.57079,0.00003,-0.14512,-0.38001,0.03830,,,,,,,,,,,,,,,,,,,,,,,,,,0,0,0,0,0
3.9653,1783190415.5685,1,1,1.0000,0.0000,1.44680,0.20095,-2.78544,1.01365,1.57079,0.00003,-0.14512,-0.38001,0.03827,,,,,,,,,,,,,,,,,,,,,,,,,,0,0,0,0,0
3.9730,1783190415.5763,1,1,1.0000,0.0000,1.44680,0.20092,-2.78545,1.01369,1.57079,0.00003,-0.14512,-0.38001,0.03826,,,,,,,,,,,,,,,,,,,,,,,,,,0,0,0,0,0
3.9833,1783190415.5865,1,1,1.0000,0.0000,1.44680,0.20078,-2.78548,1.01387,1.57079,0.00003,-0.14512,-0.38001,0.03822,,,,,,,,,,,,,,,,,,,,,,,,,,0,0,0,0,0
3.9902,1783190415.5934,1,1,1.0000,0.0000,1.44680,0.20072,-2.78550,1.01394,1.57079,0.00003,-0.14512,-0.38001,0.03821,,,,,,,,,,,,,,,,,,,,,,,,,,0,0,0,0,0
4.0021,1783190415.6054,1,1,1.0000,0.0000,1.44680,0.20062,-2.78552,1.01407,1.57079,0.00003,-0.14512,-0.38001,0.03818,,,,,,,,,,,,,,,,,,,,,,,,,,0,0,0,0,0
4.0280,1783190415.6313,1,1,1.0000,0.0000,1.44680,0.20032,-2.78559,1.01443,1.57079,0.00003,-0.14512,-0.38001,0.03811,,,,,,,,,,,,,,,,,,,,,,,,,,0,0,0,0,0
4.0372,1783190415.6405,1,1,1.0000,0.0000,1.44680,0.20026,-2.78561,1.01451,1.57079,0.00003,-0.14512,-0.38001,0.03809,,,,,,,,,,,,,,,,,,,,,,,,,,0,0,0,0,0
4.0401,1783190415.6433,1,1,1.0000,0.0000,1.44680,0.20021,-2.78562,1.01457,1.57079,0.00003,-0.14512,-0.38001,0.03808,,,,,,,,,,,,,,,,,,,,,,,,,,0,0,0,0,0
4.0404,1783190415.6437,1,1,1.0000,0.0000,1.44680,0.20021,-2.78562,1.01457,1.57079,0.00003,-0.14512,-0.38001,0.03808,,,,,,,,,,,,,,,,,,,,,,,,,,0,0,0,0,0
4.0512,1783190415.6545,1,1,1.0000,0.0000,1.44680,0.20010,-2.78564,1.01471,1.57079,0.00003,-0.14512,-0.38001,0.03805,,,,,,,,,,,,,,,,,,,,,,,,,,0,0,0,0,0
4.0707,1783190415.6739,1,1,1.0000,0.0000,1.44680,0.19986,-2.78570,1.01501,1.57079,0.00003,-0.14512,-0.38001,0.03799,,,,,,,,,,,,,,,,,,,,,,,,,,0,0,0,0,0
4.0719,1783190415.6751,1,1,1.0000,0.0000,1.44680,0.19986,-2.78570,1.01501,1.57079,0.00003,-0.14512,-0.38001,0.03799,,,,,,,,,,,,,,,,,,,,,,,,,,0,0,0,0,0
4.0810,1783190415.6842,1,1,1.0000,0.0000,1.44680,0.19971,-2.78573,1.01519,1.57079,0.00003,-0.14512,-0.38001,0.03795,,,,,,,,,,,,,,,,,,,,,,,,,,0,0,0,0,0
4.0918,1783190415.6951,1,1,1.0000,0.0000,1.44680,0.19968,-2.78574,1.01523,1.57079,0.00003,-0.14512,-0.38001,0.03795,,,,,,,,,,,,,,,,,,,,,,,,,,0,0,0,0,0
4.1034,1783190415.7067,1,1,1.0000,0.0000,1.44680,0.19954,-2.78578,1.01540,1.57079,0.00003,-0.14512,-0.38001,0.03791,,,,,,,,,,,,,,,,,,,,,,,,,,0,0,0,0,0
4.1103,1783190415.7135,1,1,1.0000,0.0000,1.44680,0.19947,-2.78579,1.01548,1.57079,0.00003,-0.14512,-0.38001,0.03790,,,,,,,,,,,,,,,,,,,,,,,,,,0,0,0,0,0
4.1106,1783190415.7138,1,1,1.0000,0.0000,1.44680,0.19947,-2.78579,1.01548,1.57079,0.00003,-0.14512,-0.38001,0.03790,,,,,,,,,,,,,,,,,,,,,,,,,,0,0,0,0,0
4.1403,1783190415.7435,1,1,1.0000,0.0000,1.44680,0.19909,-2.78588,1.01595,1.57079,0.00003,-0.14512,-0.38001,0.03780,,,,,,,,,,,,,,,,,,,,,,,,,,0,0,0,0,0
4.1407,1783190415.7439,1,1,1.0000,0.0000,1.44680,0.19909,-2.78588,1.01595,1.57079,0.00003,-0.14512,-0.38001,0.03780,,,,,,,,,,,,,,,,,,,,,,,,,,0,0,0,0,0
4.1410,1783190415.7443,1,1,1.0000,0.0000,1.44680,0.19909,-2.78588,1.01595,1.57079,0.00003,-0.14512,-0.38001,0.03780,,,,,,,,,,,,,,,,,,,,,,,,,,0,0,0,0,0
4.1555,1783190415.7587,1,1,1.0000,0.0000,1.44680,0.19902,-2.78590,1.01604,1.57079,0.00003,-0.14512,-0.38001,0.03778,,,,,,,,,,,,,,,,,,,,,,,,,,0,0,0,0,0
4.1607,1783190415.7640,1,1,1.0000,0.0000,1.44680,0.19897,-2.78591,1.01610,1.57079,0.00003,-0.14512,-0.38001,0.03777,,,,,,,,,,,,,,,,,,,,,,,,,,0,0,0,0,0
4.1751,1783190415.7784,1,1,1.0000,0.0000,1.44680,0.19884,-2.78594,1.01626,1.57079,0.00003,-0.14512,-0.38001,0.03774,,,,,,,,,,,,,,,,,,,,,,,,,,0,0,0,0,0
4.1853,1783190415.7886,1,1,1.0000,0.0000,1.44680,0.19875,-2.78596,1.01637,1.57079,0.00003,-0.14512,-0.38001,0.03772,,,,,,,,,,,,,,,,,,,,,,,,,,0,0,0,0,0
4.1856,1783190415.7889,1,1,1.0000,0.0000,1.44680,0.19875,-2.78596,1.01637,1.57079,0.00003,-0.14512,-0.38001,0.03772,,,,,,,,,,,,,,,,,,,,,,,,,,0,0,0,0,0
4.1942,1783190415.7974,1,1,1.0000,0.0000,1.44680,0.19854,-2.78601,1.01663,1.57079,0.00003,-0.14512,-0.38001,0.03766,,,,,,,,,,,,,,,,,,,,,,,,,,0,0,0,0,0
4.2072,1783190415.8105,1,1,1.0000,0.0000,1.44680,0.19846,-2.78603,1.01673,1.57079,0.00003,-0.14512,-0.38001,0.03764,,,,,,,,,,,,,,,,,,,,,,,,,,0,0,0,0,0
4.2133,1783190415.8165,1,1,1.0000,0.0000,1.44680,0.19843,-2.78603,1.01676,1.57079,0.00003,-0.14512,-0.38001,0.03764,,,,,,,,,,,,,,,,,,,,,,,,,,0,0,0,0,0
4.2136,1783190415.8169,1,1,1.0000,0.0000,1.44680,0.19843,-2.78603,1.01676,1.57079,0.00003,-0.14512,-0.38001,0.03764,,,,,,,,,,,,,,,,,,,,,,,,,,0,0,0,0,0
4.2253,1783190415.8285,1,1,1.0000,0.0000,1.44680,0.19829,-2.78607,1.01694,1.57079,0.00003,-0.14512,-0.38001,0.03760,,,,,,,,,,,,,,,,,,,,,,,,,,0,0,0,0,0
4.2256,1783190415.8289,1,1,1.0000,0.0000,1.44680,0.19829,-2.78607,1.01694,1.57079,0.00003,-0.14512,-0.38001,0.03760,,,,,,,,,,,,,,,,,,,,,,,,,,0,0,0,0,0
4.2335,1783190415.8367,1,1,1.0000,0.0000,1.44680,0.19823,-2.78608,1.01701,1.57079,0.00003,-0.14512,-0.38001,0.03759,,,,,,,,,,,,,,,,,,,,,,,,,,0,0,0,0,0
4.2457,1783190415.8489,1,1,1.0000,0.0000,1.44680,0.19813,-2.78610,1.01714,1.57079,0.00003,-0.14512,-0.38001,0.03756,,,,,,,,,,,,,,,,,,,,,,,,,,0,0,0,0,0
4.2533,1783190415.8565,1,1,1.0000,0.0000,1.44680,0.19799,-2.78614,1.01731,1.57079,0.00003,-0.14512,-0.38001,0.03753,,,,,,,,,,,,,,,,,,,,,,,,,,0,0,0,0,0
4.2537,1783190415.8569,1,1,1.0000,0.0000,1.44680,0.19799,-2.78614,1.01731,1.57079,0.00003,-0.14512,-0.38001,0.03753,,,,,,,,,,,,,,,,,,,,,,,,,,0,0,0,0,0
4.2802,1783190415.8835,1,1,1.0000,0.0000,1.44680,0.19768,-2.78621,1.01769,1.57079,0.00003,-0.14512,-0.38001,0.03745,,,,,,,,,,,,,,,,,,,,,,,,,,0,0,0,0,0
4.2806,1783190415.8839,1,1,1.0000,0.0000,1.44680,0.19768,-2.78621,1.01769,1.57079,0.00003,-0.14512,-0.38001,0.03745,,,,,,,,,,,,,,,,,,,,,,,,,,0,0,0,0,0
4.3037,1783190415.9069,1,1,1.0000,0.0000,1.44680,0.19744,-2.78626,1.01798,1.57079,0.00003,-0.14512,-0.38001,0.03739,,,,,,,,,,,,,,,,,,,,,,,,,,0,0,0,0,0
4.3041,1783190415.9073,1,1,1.0000,0.0000,1.44680,0.19744,-2.78626,1.01798,1.57079,0.00003,-0.14512,-0.38001,0.03739,,,,,,,,,,,,,,,,,,,,,,,,,,0,0,0,0,0
4.3069,1783190415.9101,1,1,1.0000,0.0000,1.44680,0.19738,-2.78628,1.01806,1.57079,0.00003,-0.14512,-0.38001,0.03737,,,,,,,,,,,,,,,,,,,,,,,,,,0,0,0,0,0
4.3073,1783190415.9105,1,1,1.0000,0.0000,1.44680,0.19738,-2.78628,1.01806,1.57079,0.00003,-0.14512,-0.38001,0.03737,,,,,,,,,,,,,,,,,,,,,,,,,,0,0,0,0,0
4.3176,1783190415.9209,1,1,1.0000,0.0000,1.44680,0.19723,-2.78631,1.01824,1.57079,0.00003,-0.14512,-0.38001,0.03734,,,,,,,,,,,,,,,,,,,,,,,,,,0,0,0,0,0
4.3181,1783190415.9214,1,1,1.0000,0.0000,1.44680,0.19716,-2.78633,1.01833,1.57079,0.00003,-0.14512,-0.38001,0.03732,,,,,,,,,,,,,,,,,,,,,,,,,,0,0,0,0,0
4.3306,1783190415.9338,1,1,1.0000,0.0000,1.44680,0.19712,-2.78634,1.01838,1.57079,0.00003,-0.14512,-0.38001,0.03731,,,,,,,,,,,,,,,,,,,,,,,,,,0,0,0,0,0
4.3310,1783190415.9342,1,1,1.0000,0.0000,1.44680,0.19712,-2.78634,1.01838,1.57079,0.00003,-0.14512,-0.38001,0.03731,,,,,,,,,,,,,,,,,,,,,,,,,,0,0,0,0,0
4.3334,1783190415.9366,1,1,1.0000,0.0000,1.44680,0.19712,-2.78634,1.01838,1.57079,0.00003,-0.14512,-0.38001,0.03731,,,,,,,,,,,,,,,,,,,,,,,,,,0,0,0,0,0
4.3338,1783190415.9370,1,1,1.0000,0.0000,1.44680,0.19712,-2.78634,1.01838,1.57079,0.00003,-0.14512,-0.38001,0.03731,,,,,,,,,,,,,,,,,,,,,,,,,,0,0,0,0,0
4.3480,1783190415.9512,1,1,1.0000,0.0000,1.44680,0.19686,-2.78640,1.01870,1.57079,0.00003,-0.14512,-0.38001,0.03724,,,,,,,,,,,,,,,,,,,,,,,,,,0,0,0,0,0
4.3557,1783190415.9589,1,1,1.0000,0.0000,1.44680,0.19685,-2.78640,1.01872,1.57079,0.00003,-0.14512,-0.38001,0.03724,,,,,,,,,,,,,,,,,,,,,,,,,,0,0,0,0,0
4.3758,1783190415.9790,1,1,1.0000,0.0000,1.44680,0.19655,-2.78647,1.01908,1.57079,0.00003,-0.14512,-0.38001,0.03717,,,,,,,,,,,,,,,,,,,,,,,,,,0,0,0,0,0
4.3810,1783190415.9843,1,1,1.0000,0.0000,1.44680,0.19648,-2.78649,1.01917,1.57079,0.00003,-0.14511,-0.38001,0.03715,,,,,,,,,,,,,,,,,,,,,,,,,,0,0,0,0,0
4.3814,1783190415.9846,1,1,1.0000,0.0000,1.44680,0.19648,-2.78649,1.01917,1.57079,0.00003,-0.14511,-0.38001,0.03715,,,,,,,,,,,,,,,,,,,,,,,,,,0,0,0,0,0
4.3875,1783190415.9908,1,1,1.0000,0.0000,1.44680,0.19647,-2.78649,1.01918,1.57079,0.00003,-0.14511,-0.38001,0.03715,,,,,,,,,,,,,,,,,,,,,,,,,,0,0,0,0,0
4.3970,1783190416.0002,1,1,1.0000,0.0000,1.44679,0.19641,-2.78650,1.01925,1.57079,0.00003,-0.14511,-0.38001,0.03713,,,,,,,,,,,,,,,,,,,,,,,,,,0,0,0,0,0
4.3973,1783190416.0006,1,1,1.0000,0.0000,1.44679,0.19641,-2.78650,1.01925,1.57079,0.00003,-0.14511,-0.38001,0.03713,,,,,,,,,,,,,,,,,,,,,,,,,,0,0,0,0,0
4.4066,1783190416.0098,1,1,1.0000,0.0000,1.44679,0.19624,-2.78654,1.01946,1.57079,0.00003,-0.14511,-0.38001,0.03709,,,,,,,,,,,,,,,,,,,,,,,,,,0,0,0,0,0
4.4070,1783190416.0102,1,1,1.0000,0.0000,1.44679,0.19624,-2.78654,1.01946,1.57079,0.00003,-0.14511,-0.38001,0.03709,,,,,,,,,,,,,,,,,,,,,,,,,,0,0,0,0,0
4.4183,1783190416.0215,1,1,1.0000,0.0000,1.44679,0.19619,-2.78655,1.01952,1.57079,0.00003,-0.14511,-0.38001,0.03708,,,,,,,,,,,,,,,,,,,,,,,,,,0,0,0,0,0
4.4416,1783190416.0449,1,1,1.0000,0.0000,1.44679,0.19586,-2.78663,1.01994,1.57079,0.00003,-0.14511,-0.38001,0.03700,,,,,,,,,,,,,,,,,,,,,,,,,,0,0,0,0,0
4.4423,1783190416.0455,1,1,1.0000,0.0000,1.44679,0.19586,-2.78663,1.01994,1.57079,0.00003,-0.14511,-0.38001,0.03700,,,,,,,,,,,,,,,,,,,,,,,,,,0,0,0,0,0
4.4477,1783190416.0510,1,1,1.0000,0.0000,1.44679,0.19584,-2.78663,1.01995,1.57079,0.00003,-0.14511,-0.38001,0.03699,,,,,,,,,,,,,,,,,,,,,,,,,,0,0,0,0,0
4.4481,1783190416.0514,1,1,1.0000,0.0000,1.44679,0.19584,-2.78663,1.01995,1.57079,0.00003,-0.14511,-0.38001,0.03699,,,,,,,,,,,,,,,,,,,,,,,,,,0,0,0,0,0
4.4534,1783190416.0566,1,1,1.0000,0.0000,1.44679,0.19581,-2.78664,1.01999,1.57079,0.00003,-0.14511,-0.38001,0.03698,,,,,,,,,,,,,,,,,,,,,,,,,,0,0,0,0,0
4.4538,1783190416.0570,1,1,1.0000,0.0000,1.44679,0.19581,-2.78664,1.01999,1.57079,0.00003,-0.14511,-0.38001,0.03698,,,,,,,,,,,,,,,,,,,,,,,,,,0,0,0,0,0
4.4650,1783190416.0683,1,1,1.0000,0.0000,1.44679,0.19562,-2.78668,1.02022,1.57079,0.00003,-0.14511,-0.38001,0.03694,,,,,,,,,,,,,,,,,,,,,,,,,,0,0,0,0,0
4.4769,1783190416.0801,1,1,1.0000,0.0000,1.44679,0.19554,-2.78670,1.02033,1.57079,0.00003,-0.14511,-0.38001,0.03692,,,,,,,,,,,,,,,,,,,,,,,,,,0,0,0,0,0
4.4946,1783190416.0978,1,1,1.0000,0.0000,1.44679,0.19525,-2.78677,1.02069,1.57079,0.00003,-0.14511,-0.38001,0.03685,,,,,,,,,,,,,,,,,,,,,,,,,,0,0,0,0,0
4.4950,1783190416.0982,1,1,1.0000,0.0000,1.44679,0.19525,-2.78677,1.02069,1.57079,0.00003,-0.14511,-0.38001,0.03685,,,,,,,,,,,,,,,,,,,,,,,,,,0,0,0,0,0
4.5036,1783190416.1068,1,1,1.0000,0.0000,1.44679,0.19517,-2.78679,1.02078,1.57079,0.00003,-0.14511,-0.38001,0.03683,,,,,,,,,,,,,,,,,,,,,,,,,,0,0,0,0,0
4.5038,1783190416.1071,1,1,1.0000,0.0000,1.44679,0.19517,-2.78679,1.02078,1.57079,0.00003,-0.14511,-0.38001,0.03683,,,,,,,,,,,,,,,,,,,,,,,,,,0,0,0,0,0
4.5151,1783190416.1183,1,1,1.0000,0.0000,1.44679,0.19508,-2.78681,1.02090,1.57079,0.00003,-0.14511,-0.38001,0.03680,,,,,,,,,,,,,,,,,,,,,,,,,,0,0,0,0,0
4.5312,1783190416.1345,1,1,1.0000,0.0000,1.44679,0.19480,-2.78688,1.02124,1.57079,0.00003,-0.14511,-0.38001,0.03673,,,,,,,,,,,,,,,,,,,,,,,,,,0,0,0,0,0
4.5334,1783190416.1366,1,1,1.0000,0.0000,1.44679,0.19480,-2.78688,1.02124,1.57079,0.00003,-0.14511,-0.38001,0.03673,,,,,,,,,,,,,,,,,,,,,,,,,,0,0,0,0,0
4.5496,1783190416.1528,1,1,1.0000,0.0000,1.44679,0.19472,-2.78689,1.02133,1.57079,0.00003,-0.14511,-0.38001,0.03672,,,,,,,,,,,,,,,,,,,,,,,,,,0,0,0,0,0
4.5534,1783190416.1566,1,1,1.0000,0.0000,1.44679,0.19467,-2.78690,1.02139,1.57079,0.00003,-0.14511,-0.38001,0.03670,,,,,,,,,,,,,,,,,,,,,,,,,,0,0,0,0,0
4.5652,1783190416.1684,1,1,1.0000,0.0000,1.44679,0.19456,-2.78693,1.02154,1.57079,0.00003,-0.14511,-0.38001,0.03667,,,,,,,,,,,,,,,,,,,,,,,,,,0,0,0,0,0
4.5801,1783190416.1833,1,1,1.0000,0.0000,1.44679,0.19439,-2.78697,1.02174,1.57079,0.00003,-0.14511,-0.38001,0.03663,,,,,,,,,,,,,,,,,,,,,,,,,,0,0,0,0,0
4.5804,1783190416.1836,1,1,1.0000,0.0000,1.44679,0.19439,-2.78697,1.02174,1.57079,0.00003,-0.14511,-0.38001,0.03663,,,,,,,,,,,,,,,,,,,,,,,,,,0,0,0,0,0
4.5840,1783190416.1873,1,1,1.0000,0.0000,1.44679,0.19432,-2.78699,1.02183,1.57079,0.00003,-0.14511,-0.38001,0.03661,,,,,,,,,,,,,,,,,,,,,,,,,,0,0,0,0,0
4.5967,1783190416.1999,1,1,1.0000,0.0000,1.44679,0.19417,-2.78702,1.02201,1.57079,0.00003,-0.14511,-0.38001,0.03658,,,,,,,,,,,,,,,,,,,,,,,,,,0,0,0,0,0
4.6031,1783190416.2063,1,1,1.0000,0.0000,1.44679,0.19413,-2.78703,1.02206,1.57079,0.00003,-0.14511,-0.38001,0.03657,,,,,,,,,,,,,,,,,,,,,,,,,,0,0,0,0,0
4.6035,1783190416.2068,1,1,1.0000,0.0000,1.44679,0.19413,-2.78703,1.02206,1.57079,0.00003,-0.14511,-0.38001,0.03657,,,,,,,,,,,,,,,,,,,,,,,,,,0,0,0,0,0
4.6132,1783190416.2165,1,1,1.0000,0.0000,1.44679,0.19405,-2.78705,1.02216,1.57079,0.00003,-0.14511,-0.38001,0.03655,,,,,,,,,,,,,,,,,,,,,,,,,,0,0,0,0,0
4.6254,1783190416.2286,1,1,1.0000,0.0000,1.44679,0.19393,-2.78708,1.02231,1.57079,0.00003,-0.14511,-0.38001,0.03652,,,,,,,,,,,,,,,,,,,,,,,,,,0,0,0,0,0
4.6338,1783190416.2371,1,1,1.0000,0.0000,1.44679,0.19388,-2.78709,1.02237,1.57079,0.00003,-0.14511,-0.38001,0.03651,,,,,,,,,,,,,,,,,,,,,,,,,,0,0,0,0,0
4.6433,1783190416.2466,1,1,1.0000,0.0000,1.44679,0.19369,-2.78713,1.02260,1.57079,0.00003,-0.14511,-0.38001,0.03646,,,,,,,,,,,,,,,,,,,,,,,,,,0,0,0,0,0
4.6535,1783190416.2567,1,1,1.0000,0.0000,1.44679,0.19354,-2.78716,1.02278,1.57079,0.00003,-0.14511,-0.38001,0.03642,,,,,,,,,,,,,,,,,,,,,,,,,,0,0,0,0,0
4.6633,1783190416.2666,1,1,1.0000,0.0000,1.44679,0.19349,-2.78718,1.02284,1.57079,0.00003,-0.14511,-0.38001,0.03641,,,,,,,,,,,,,,,,,,,,,,,,,,0,0,0,0,0
4.6636,1783190416.2669,1,1,1.0000,0.0000,1.44679,0.19349,-2.78718,1.02284,1.57079,0.00003,-0.14511,-0.38001,0.03641,,,,,,,,,,,,,,,,,,,,,,,,,,0,0,0,0,0
4.6900,1783190416.2932,1,1,1.0000,0.0000,1.44679,0.19322,-2.78724,1.02318,1.57079,0.00003,-0.14511,-0.38001,0.03634,,,,,,,,,,,,,,,,,,,,,,,,,,0,0,0,0,0
4.6944,1783190416.2977,1,1,1.0000,0.0000,1.44679,0.19314,-2.78726,1.02328,1.57079,0.00003,-0.14511,-0.38001,0.03632,,,,,,,,,,,,,,,,,,,,,,,,,,0,0,0,0,0
4.6984,1783190416.3017,1,1,1.0000,0.0000,1.44679,0.19307,-2.78727,1.02336,1.57079,0.00003,-0.14511,-0.38001,0.03631,,,,,,,,,,,,,,,,,,,,,,,,,,0,0,0,0,0
4.7078,1783190416.3110,1,1,1.0000,0.0000,1.44679,0.19293,-2.78730,1.02354,1.57079,0.00003,-0.14511,-0.38001,0.03627,,,,,,,,,,,,,,,,,,,,,,,,,,0,0,0,0,0
4.7080,1783190416.3113,1,1,1.0000,0.0000,1.44679,0.19293,-2.78730,1.02354,1.57079,0.00003,-0.14511,-0.38001,0.03627,,,,,,,,,,,,,,,,,,,,,,,,,,0,0,0,0,0
4.7160,1783190416.3192,1,1,1.0000,0.0000,1.44679,0.19286,-2.78732,1.02362,1.57079,0.00003,-0.14511,-0.38001,0.03625,,,,,,,,,,,,,,,,,,,,,,,,,,0,0,0,0,0
4.7163,1783190416.3195,1,1,1.0000,0.0000,1.44679,0.19286,-2.78732,1.02362,1.57079,0.00003,-0.14511,-0.38001,0.03625,,,,,,,,,,,,,,,,,,,,,,,,,,0,0,0,0,0
4.7251,1783190416.3283,1,1,1.0000,0.0000,1.44679,0.19281,-2.78733,1.02368,1.57079,0.00003,-0.14511,-0.38001,0.03624,,,,,,,,,,,,,,,,,,,,,,,,,,0,0,0,0,0
4.7394,1783190416.3427,1,1,1.0000,0.0000,1.44679,0.19255,-2.78739,1.02400,1.57079,0.00003,-0.14511,-0.38001,0.03618,,,,,,,,,,,,,,,,,,,,,,,,,,0,0,0,0,0
4.7438,1783190416.3470,1,1,1.0000,0.0000,1.44679,0.19255,-2.78739,1.02400,1.57079,0.00003,-0.14511,-0.38001,0.03618,,,,,,,,,,,,,,,,,,,,,,,,,,0,0,0,0,0
4.7561,1783190416.3594,1,1,1.0000,0.0000,1.44679,0.19245,-2.78741,1.02412,1.57079,0.00003,-0.14511,-0.38001,0.03615,,,,,,,,,,,,,,,,,,,,,,,,,,0,0,0,0,0
4.7653,1783190416.3685,1,1,1.0000,0.0000,1.44679,0.19232,-2.78744,1.02429,1.57079,0.00003,-0.14511,-0.38001,0.03612,,,,,,,,,,,,,,,,,,,,,,,,,,0,0,0,0,0
4.7750,1783190416.3782,1,1,1.0000,0.0000,1.44679,0.19217,-2.78748,1.02447,1.57079,0.00003,-0.14511,-0.38001,0.03609,,,,,,,,,,,,,,,,,,,,,,,,,,0,0,0,0,0
4.7864,1783190416.3896,1,1,1.0000,0.0000,1.44679,0.19207,-2.78750,1.02459,1.57079,0.00003,-0.14511,-0.38001,0.03606,,,,,,,,,,,,,,,,,,,,,,,,,,0,0,0,0,0
4.7964,1783190416.3996,1,1,1.0000,0.0000,1.44679,0.19194,-2.78753,1.02475,1.57079,0.00003,-0.14511,-0.38001,0.03603,,,,,,,,,,,,,,,,,,,,,,,,,,0,0,0,0,0
4.7967,1783190416.4000,1,1,1.0000,0.0000,1.44679,0.19194,-2.78753,1.02475,1.57079,0.00003,-0.14511,-0.38001,0.03603,,,,,,,,,,,,,,,,,,,,,,,,,,0,0,0,0,0
4.8048,1783190416.4081,1,1,1.0000,0.0000,1.44679,0.19179,-2.78756,1.02493,1.57079,0.00003,-0.14511,-0.38001,0.03599,,,,,,,,,,,,,,,,,,,,,,,,,,0,0,0,0,0
4.8134,1783190416.4166,1,1,1.0000,0.0000,1.44679,0.19178,-2.78757,1.02494,1.57079,0.00003,-0.14511,-0.38001,0.03599,,,,,,,,,,,,,,,,,,,,,,,,,,0,0,0,0,0
4.8273,1783190416.4305,1,1,1.0000,0.0000,1.44679,0.19161,-2.78761,1.02515,1.57079,0.00003,-0.14511,-0.38001,0.03595,,,,,,,,,,,,,,,,,,,,,,,,,,0,0,0,0,0
4.8401,1783190416.4434,1,1,1.0000,0.0000,1.44679,0.19154,-2.78762,1.02525,1.57079,0.00003,-0.14511,-0.38001,0.03593,,,,,,,,,,,,,,,,,,,,,,,,,,0,0,0,0,0
4.8452,1783190416.4484,1,1,1.0000,0.0000,1.44679,0.19150,-2.78763,1.02529,1.57079,0.00003,-0.14511,-0.38001,0.03592,,,,,,,,,,,,,,,,,,,,,,,,,,0,0,0,0,0
4.8455,1783190416.4487,1,1,1.0000,0.0000,1.44679,0.19150,-2.78763,1.02529,1.57079,0.00003,-0.14511,-0.38001,0.03592,,,,,,,,,,,,,,,,,,,,,,,,,,0,0,0,0,0
4.8565,1783190416.4597,1,1,1.0000,0.0000,1.44679,0.19131,-2.78768,1.02553,1.57079,0.00003,-0.14511,-0.38001,0.03587,,,,,,,,,,,,,,,,,,,,,,,,,,0,0,0,0,0
4.8639,1783190416.4671,1,1,1.0000,0.0000,1.44679,0.19123,-2.78769,1.02562,1.57079,0.00003,-0.14511,-0.38001,0.03585,,,,,,,,,,,,,,,,,,,,,,,,,,0,0,0,0,0
4.8752,1783190416.4784,1,1,1.0000,0.0000,1.44679,0.19114,-2.78771,1.02574,1.57079,0.00003,-0.14511,-0.38001,0.03583,,,,,,,,,,,,,,,,,,,,,,,,,,0,0,0,0,0
4.8885,1783190416.4917,1,1,1.0000,0.0000,1.44679,0.19093,-2.78776,1.02599,1.57079,0.00003,-0.14511,-0.38001,0.03578,,,,,,,,,,,,,,,,,,,,,,,,,,0,0,0,0,0
4.8939,1783190416.4971,1,1,1.0000,0.0000,1.44679,0.19086,-2.78778,1.02608,1.57079,0.00003,-0.14511,-0.38001,0.03576,,,,,,,,,,,,,,,,,,,,,,,,,,0,0,0,0,0
4.8945,1783190416.4977,1,1,1.0000,0.0000,1.44679,0.19086,-2.78778,1.02608,1.57079,0.00003,-0.14511,-0.38001,0.03576,,,,,,,,,,,,,,,,,,,,,,,,,,0,0,0,0,0
4.9067,1783190416.5100,1,1,1.0000,0.0000,1.44679,0.19076,-2.78780,1.02620,1.57079,0.00003,-0.14511,-0.38001,0.03574,,,,,,,,,,,,,,,,,,,,,,,,,,0,0,0,0,0
4.9071,1783190416.5103,1,1,1.0000,0.0000,1.44679,0.19076,-2.78780,1.02620,1.57079,0.00003,-0.14511,-0.38001,0.03574,,,,,,,,,,,,,,,,,,,,,,,,,,0,0,0,0,0
4.9132,1783190416.5164,1,1,1.0000,0.0000,1.44679,0.19069,-2.78782,1.02628,1.57079,0.00003,-0.14511,-0.38001,0.03572,,,,,,,,,,,,,,,,,,,,,,,,,,0,0,0,0,0
4.9136,1783190416.5168,1,1,1.0000,0.0000,1.44679,0.19069,-2.78782,1.02628,1.57079,0.00003,-0.14511,-0.38001,0.03572,,,,,,,,,,,,,,,,,,,,,,,,,,0,0,0,0,0
4.9249,1783190416.5281,1,1,1.0000,0.0000,1.44679,0.19055,-2.78785,1.02646,1.57079,0.00003,-0.14511,-0.38001,0.03569,,,,,,,,,,,,,,,,,,,,,,,,,,0,0,0,0,0
4.9253,1783190416.5285,1,1,1.0000,0.0000,1.44679,0.19055,-2.78785,1.02646,1.57079,0.00003,-0.14511,-0.38001,0.03569,,,,,,,,,,,,,,,,,,,,,,,,,,0,0,0,0,0
4.9468,1783190416.5500,1,1,1.0000,0.0000,1.44679,0.19024,-2.78792,1.02684,1.57079,0.00003,-0.14511,-0.38001,0.03561,,,,,,,,,,,,,,,,,,,,,,,,,,0,0,0,0,0
4.9473,1783190416.5505,1,1,1.0000,0.0000,1.44679,0.19024,-2.78792,1.02684,1.57079,0.00003,-0.14511,-0.38001,0.03561,,,,,,,,,,,,,,,,,,,,,,,,,,0,0,0,0,0
4.9478,1783190416.5510,1,1,1.0000,0.0000,1.44679,0.19024,-2.78792,1.02684,1.57079,0.00003,-0.14511,-0.38001,0.03561,,,,,,,,,,,,,,,,,,,,,,,,,,0,0,0,0,0
4.9547,1783190416.5579,1,1,1.0000,0.0000,1.44679,0.19017,-2.78793,1.02692,1.57079,0.00003,-0.14511,-0.38001,0.03559,,,,,,,,,,,,,,,,,,,,,,,,,,0,0,0,0,0
4.9551,1783190416.5584,1,1,1.0000,0.0000,1.44679,0.19017,-2.78793,1.02692,1.57079,0.00003,-0.14511,-0.38001,0.03559,,,,,,,,,,,,,,,,,,,,,,,,,,0,0,0,0,0
4.9632,1783190416.5665,1,1,1.0000,0.0000,1.44679,0.19012,-2.78795,1.02698,1.57079,0.00003,-0.14511,-0.38001,0.03558,,,,,,,,,,,,,,,,,,,,,,,,,,0,0,0,0,0
4.9735,1783190416.5767,1,1,1.0000,0.0000,1.44679,0.19001,-2.78797,1.02712,1.57079,0.00003,-0.14511,-0.38001,0.03555,,,,,,,,,,,,,,,,,,,,,,,,,,0,0,0,0,0
4.9889,1783190416.5921,1,1,1.0000,0.0000,1.44679,0.18979,-2.78802,1.02739,1.57079,0.00003,-0.14511,-0.38001,0.03550,,,,,,,,,,,,,,,,,,,,,,,,,,0,0,0,0,0
4.9946,1783190416.5978,1,1,1.0000,0.0000,1.44679,0.18976,-2.78803,1.02743,1.57079,0.00003,-0.14511,-0.38001,0.03549,,,,,,,,,,,,,,,,,,,,,,,,,,0,0,0,0,0
5.0071,1783190416.6103,1,1,1.0000,0.0000,1.44679,0.18961,-2.78806,1.02761,1.57079,0.00003,-0.14511,-0.38001,0.03545,,,,,,,,,,,,,,,,,,,,,,,,,,0,0,0,0,0
5.0133,1783190416.6166,1,1,1.0000,0.0000,1.44679,0.18955,-2.78808,1.02769,1.57079,0.00003,-0.14511,-0.38001,0.03544,,,,,,,,,,,,,,,,,,,,,,,,,,0,0,0,0,0
5.0266,1783190416.6299,1,1,1.0000,0.0000,1.44679,0.18945,-2.78810,1.02781,1.57079,0.00003,-0.14511,-0.38001,0.03541,,,,,,,,,,,,,,,,,,,,,,,,,,0,0,0,0,0
5.0433,1783190416.6465,1,1,1.0000,0.0000,1.44679,0.18916,-2.78816,1.02817,1.57079,0.00003,-0.14511,-0.38001,0.03534,,,,,,,,,,,,,,,,,,,,,,,,,,0,0,0,0,0
5.0436,1783190416.6468,1,1,1.0000,0.0000,1.44679,0.18916,-2.78816,1.02817,1.57079,0.00003,-0.14511,-0.38001,0.03534,,,,,,,,,,,,,,,,,,,,,,,,,,0,0,0,0,0
5.0441,1783190416.6474,1,1,1.0000,0.0000,1.44679,0.18916,-2.78816,1.02817,1.57079,0.00003,-0.14511,-0.38001,0.03534,,,,,,,,,,,,,,,,,,,,,,,,,,0,0,0,0,0
5.0444,1783190416.6477,1,1,1.0000,0.0000,1.44679,0.18916,-2.78816,1.02817,1.57079,0.00003,-0.14511,-0.38001,0.03534,,,,,,,,,,,,,,,,,,,,,,,,,,0,0,0,0,0
5.0536,1783190416.6568,1,1,1.0000,0.0000,1.44679,0.18915,-2.78817,1.02818,1.57079,0.00003,-0.14511,-0.38001,0.03534,,,,,,,,,,,,,,,,,,,,,,,,,,0,0,0,0,0
5.0646,1783190416.6678,1,1,1.0000,0.0000,1.44679,0.18904,-2.78819,1.02832,1.57079,0.00003,-0.14511,-0.38001,0.03531,,,,,,,,,,,,,,,,,,,,,,,,,,0,0,0,0,0
5.0649,1783190416.6682,1,1,1.0000,0.0000,1.44679,0.18904,-2.78819,1.02832,1.57079,0.00003,-0.14511,-0.38001,0.03531,,,,,,,,,,,,,,,,,,,,,,,,,,0,0,0,0,0
5.0779,1783190416.6811,1,1,1.0000,0.0000,1.44679,0.18892,-2.78822,1.02846,1.57079,0.00003,-0.14511,-0.38001,0.03528,,,,,,,,,,,,,,,,,,,,,,,,,,0,0,0,0,0
5.0947,1783190416.6980,1,1,1.0000,0.0000,1.44679,0.18868,-2.78827,1.02876,1.57079,0.00003,-0.14511,-0.38001,0.03522,,,,,,,,,,,,,,,,,,,,,,,,,,0,0,0,0,0
5.0955,1783190416.6987,1,1,1.0000,0.0000,1.44679,0.18868,-2.78827,1.02876,1.57079,0.00003,-0.14511,-0.38001,0.03522,,,,,,,,,,,,,,,,,,,,,,,,,,0,0,0,0,0
5.1039,1783190416.7072,1,1,1.0000,0.0000,1.44679,0.18853,-2.78831,1.02894,1.57079,0.00003,-0.14511,-0.38001,0.03519,,,,,,,,,,,,,,,,,,,,,,,,,,0,0,0,0,0
5.1133,1783190416.7166,1,1,1.0000,0.0000,1.44679,0.18852,-2.78831,1.02895,1.57079,0.00003,-0.14511,-0.38001,0.03519,,,,,,,,,,,,,,,,,,,,,,,,,,0,0,0,0,0
5.1273,1783190416.7305,1,1,1.0000,0.0000,1.44679,0.18835,-2.78835,1.02916,1.57079,0.00003,-0.14511,-0.38001,0.03514,,,,,,,,,,,,,,,,,,,,,,,,,,0,0,0,0,0
5.1417,1783190416.7449,1,1,1.0000,0.0000,1.44679,0.18827,-2.78836,1.02925,1.57079,0.00003,-0.14511,-0.38001,0.03513,,,,,,,,,,,,,,,,,,,,,,,,,,0,0,0,0,0
5.1558,1783190416.7591,1,1,1.0000,0.0000,1.44679,0.18804,-2.78842,1.02953,1.57079,0.00004,-0.14511,-0.38001,0.03507,,,,,,,,,,,,,,,,,,,,,,,,,,0,0,0,0,0
5.1564,1783190416.7596,1,1,1.0000,0.0000,1.44679,0.18804,-2.78842,1.02953,1.57079,0.00004,-0.14511,-0.38001,0.03507,,,,,,,,,,,,,,,,,,,,,,,,,,0,0,0,0,0
5.1638,1783190416.7670,1,1,1.0000,0.0000,1.44679,0.18789,-2.78845,1.02972,1.57079,0.00004,-0.14511,-0.38001,0.03503,,,,,,,,,,,,,,,,,,,,,,,,,,0,0,0,0,0
5.1758,1783190416.7790,1,1,1.0000,0.0000,1.44679,0.18786,-2.78846,1.02976,1.57079,0.00004,-0.14511,-0.38001,0.03503,,,,,,,,,,,,,,,,,,,,,,,,,,0,0,0,0,0
5.1872,1783190416.7904,1,1,1.0000,0.0000,1.44679,0.18772,-2.78849,1.02993,1.57079,0.00004,-0.14511,-0.38001,0.03499,,,,,,,,,,,,,,,,,,,,,,,,,,0,0,0,0,0
5.2026,1783190416.8059,1,1,1.0000,0.0000,1.44679,0.18760,-2.78852,1.03007,1.57079,0.00004,-0.14511,-0.38001,0.03496,,,,,,,,,,,,,,,,,,,,,,,,,,0,0,0,0,0
5.2115,1783190416.8147,1,1,1.0000,0.0000,1.44679,0.18748,-2.78854,1.03022,1.57079,0.00004,-0.14511,-0.38001,0.03493,,,,,,,,,,,,,,,,,,,,,,,,,,0,0,0,0,0
5.2205,1783190416.8237,1,1,1.0000,0.0000,1.44679,0.18734,-2.78858,1.03040,1.57079,0.00004,-0.14511,-0.38001,0.03490,,,,,,,,,,,,,,,,,,,,,,,,,,0,0,0,0,0
5.2306,1783190416.8339,1,1,1.0000,0.0000,1.44679,0.18725,-2.78859,1.03050,1.57079,0.00004,-0.14511,-0.38001,0.03488,,,,,,,,,,,,,,,,,,,,,,,,,,0,0,0,0,0
5.2377,1783190416.8410,1,1,1.0000,0.0000,1.44679,0.18723,-2.78860,1.03053,1.57079,0.00004,-0.14511,-0.38001,0.03487,,,,,,,,,,,,,,,,,,,,,,,,,,0,0,0,0,0
5.2514,1783190416.8546,1,1,1.0000,0.0000,1.44679,0.18702,-2.78865,1.03079,1.57079,0.00004,-0.14511,-0.38001,0.03482,,,,,,,,,,,,,,,,,,,,,,,,,,0,0,0,0,0
