Martins-Lucaas/twinforge/sensors/Data/20260704_154137__samples.csv
t_rel_s,t_unix,cycle,phase,setpoint_n,force_net_n,q1,q2,q3,q4,q5,q6,tcp_x,tcp_y,tcp_z,taxel_0,taxel_1,taxel_2,taxel_3,taxel_4,taxel_5,taxel_6,taxel_7,taxel_8,taxel_9,taxel_10,taxel_11,taxel_12,taxel_13,taxel_14,taxel_15,taxel_16,taxel_17,taxel_18,taxel_19,taxel_20,taxel_21,taxel_22,taxel_23,taxel_24,n_RA,n_SA,cn_mm,cn_ra,cn_sa
0.0028,1783190497.3896,1,0,2.0000,0.0000,1.44682,0.23328,-2.77748,0.97337,1.57080,0.00000,-0.14512,-0.38003,0.04653,,,,,,,,,,,,,,,,,,,,,,,,,,0,0,0,0,0
0.0122,1783190497.3990,1,0,2.0000,0.0000,1.44682,0.23328,-2.77748,0.97337,1.57080,0.00000,-0.14512,-0.38003,0.04653,,,,,,,,,,,,,,,,,,,,,,,,,,0,0,0,0,0
0.0233,1783190497.4101,1,0,2.0000,0.0000,1.44682,0.23328,-2.77748,0.97337,1.57080,0.00000,-0.14512,-0.38003,0.04653,,,,,,,,,,,,,,,,,,,,,,,,,,0,0,0,0,0
0.0389,1783190497.4257,1,0,2.0000,0.0000,1.44682,0.23328,-2.77748,0.97337,1.57080,0.00000,-0.14512,-0.38003,0.04653,,,,,,,,,,,,,,,,,,,,,,,,,,0,0,0,0,0
0.0417,1783190497.4285,1,0,2.0000,0.0000,1.44682,0.23328,-2.77748,0.97337,1.57080,0.00000,-0.14512,-0.38003,0.04653,,,,,,,,,,,,,,,,,,,,,,,,,,0,0,0,0,0
0.0421,1783190497.4290,1,0,2.0000,0.0000,1.44682,0.23328,-2.77748,0.97337,1.57080,0.00000,-0.14512,-0.38003,0.04653,,,,,,,,,,,,,,,,,,,,,,,,,,0,0,0,0,0
0.0553,1783190497.4421,1,0,2.0000,0.0000,1.44682,0.23328,-2.77748,0.97337,1.57080,0.00000,-0.14512,-0.38003,0.04653,,,,,,,,,,,,,,,,,,,,,,,,,,0,0,0,0,0
0.0632,1783190497.4501,1,0,2.0000,0.0000,1.44682,0.23328,-2.77748,0.97337,1.57080,0.00000,-0.14512,-0.38003,0.04653,,,,,,,,,,,,,,,,,,,,,,,,,,0,0,0,0,0
0.0635,1783190497.4503,1,0,2.0000,0.0000,1.44682,0.23328,-2.77748,0.97337,1.57080,0.00000,-0.14512,-0.38003,0.04653,,,,,,,,,,,,,,,,,,,,,,,,,,0,0,0,0,0
0.0727,1783190497.4596,1,0,2.0000,0.0000,1.44682,0.23328,-2.77748,0.97337,1.57080,0.00000,-0.14512,-0.38003,0.04653,,,,,,,,,,,,,,,,,,,,,,,,,,0,0,0,0,0
0.0836,1783190497.4705,1,0,2.0000,0.0000,1.44682,0.23328,-2.77748,0.97337,1.57080,0.00000,-0.14512,-0.38003,0.04653,,,,,,,,,,,,,,,,,,,,,,,,,,0,0,0,0,0
0.0841,1783190497.4709,1,0,2.0000,0.0000,1.44682,0.23328,-2.77748,0.97337,1.57080,0.00000,-0.14512,-0.38003,0.04653,,,,,,,,,,,,,,,,,,,,,,,,,,0,0,0,0,0
0.0923,1783190497.4792,1,0,2.0000,0.0000,1.44682,0.23328,-2.77748,0.97337,1.57080,0.00000,-0.14512,-0.38003,0.04653,,,,,,,,,,,,,,,,,,,,,,,,,,0,0,0,0,0
0.1038,1783190497.4907,1,0,2.0000,0.0000,1.44682,0.23328,-2.77748,0.97337,1.57080,0.00000,-0.14512,-0.38003,0.04653,,,,,,,,,,,,,,,,,,,,,,,,,,0,0,0,0,0
0.1141,1783190497.5010,1,0,2.0000,0.0000,1.44682,0.23328,-2.77748,0.97337,1.57080,0.00000,-0.14512,-0.38003,0.04653,,,,,,,,,,,,,,,,,,,,,,,,,,0,0,0,0,0
0.1145,1783190497.5013,1,0,2.0000,0.0000,1.44682,0.23328,-2.77748,0.97337,1.57080,0.00000,-0.14512,-0.38003,0.04653,,,,,,,,,,,,,,,,,,,,,,,,,,0,0,0,0,0
0.1221,1783190497.5089,1,0,2.0000,0.0000,1.44682,0.23328,-2.77748,0.97337,1.57080,0.00000,-0.14512,-0.38003,0.04653,,,,,,,,,,,,,,,,,,,,,,,,,,0,0,0,0,0
0.1382,1783190497.5251,1,0,2.0000,0.0000,1.44682,0.23328,-2.77748,0.97337,1.57080,0.00000,-0.14512,-0.38003,0.04653,,,,,,,,,,,,,,,,,,,,,,,,,,0,0,0,0,0
0.1436,1783190497.5304,1,0,2.0000,0.0000,1.44682,0.23328,-2.77748,0.97337,1.57080,0.00000,-0.14512,-0.38003,0.04653,,,,,,,,,,,,,,,,,,,,,,,,,,0,0,0,0,0
0.1593,1783190497.5461,1,0,2.0000,0.0000,1.44682,0.23328,-2.77748,0.97337,1.57080,0.00000,-0.14512,-0.38003,0.04653,,,,,,,,,,,,,,,,,,,,,,,,,,0,0,0,0,0
0.1634,1783190497.5502,1,0,2.0000,0.0000,1.44682,0.23328,-2.77748,0.97337,1.57080,0.00000,-0.14512,-0.38003,0.04653,,,,,,,,,,,,,,,,,,,,,,,,,,0,0,0,0,0
0.1741,1783190497.5609,1,0,2.0000,0.0000,1.44682,0.23328,-2.77748,0.97337,1.57080,0.00000,-0.14512,-0.38003,0.04653,,,,,,,,,,,,,,,,,,,,,,,,,,0,0,0,0,0
0.1826,1783190497.5694,1,0,2.0000,0.0000,1.44682,0.23328,-2.77748,0.97337,1.57080,0.00000,-0.14512,-0.38003,0.04653,,,,,,,,,,,,,,,,,,,,,,,,,,0,0,0,0,0
0.1945,1783190497.5813,1,0,2.0000,0.0000,1.44682,0.23328,-2.77748,0.97337,1.57080,0.00000,-0.14512,-0.38003,0.04653,,,,,,,,,,,,,,,,,,,,,,,,,,0,0,0,0,0
0.2038,1783190497.5906,1,0,2.0000,0.0000,1.44682,0.23328,-2.77748,0.97337,1.57080,0.00000,-0.14512,-0.38003,0.04653,,,,,,,,,,,,,,,,,,,,,,,,,,0,0,0,0,0
0.2126,1783190497.5994,1,0,2.0000,0.0000,1.44682,0.23328,-2.77748,0.97337,1.57080,0.00000,-0.14512,-0.38003,0.04653,,,,,,,,,,,,,,,,,,,,,,,,,,0,0,0,0,0
0.2222,1783190497.6090,1,0,2.0000,0.0000,1.44682,0.23328,-2.77748,0.97337,1.57080,0.00000,-0.14512,-0.38003,0.04653,,,,,,,,,,,,,,,,,,,,,,,,,,0,0,0,0,0
0.2319,1783190497.6187,1,0,2.0000,0.0000,1.44682,0.23328,-2.77748,0.97337,1.57080,0.00000,-0.14512,-0.38003,0.04653,,,,,,,,,,,,,,,,,,,,,,,,,,0,0,0,0,0
0.2416,1783190497.6284,1,0,2.0000,0.0000,1.44682,0.23328,-2.77748,0.97337,1.57080,0.00000,-0.14512,-0.38003,0.04653,,,,,,,,,,,,,,,,,,,,,,,,,,0,0,0,0,0
0.2423,1783190497.6291,1,0,2.0000,0.0000,1.44682,0.23328,-2.77748,0.97337,1.57080,0.00000,-0.14512,-0.38003,0.04653,,,,,,,,,,,,,,,,,,,,,,,,,,0,0,0,0,0
0.2635,1783190497.6503,1,0,2.0000,0.0000,1.44682,0.23328,-2.77748,0.97337,1.57080,0.00000,-0.14512,-0.38003,0.04653,,,,,,,,,,,,,,,,,,,,,,,,,,0,0,0,0,0
0.2638,1783190497.6506,1,0,2.0000,0.0000,1.44682,0.23328,-2.77748,0.97337,1.57080,0.00000,-0.14512,-0.38003,0.04653,,,,,,,,,,,,,,,,,,,,,,,,,,0,0,0,0,0
0.2717,1783190497.6585,1,0,2.0000,0.0000,1.44682,0.23328,-2.77748,0.97337,1.57080,0.00000,-0.14512,-0.38003,0.04653,,,,,,,,,,,,,,,,,,,,,,,,,,0,0,0,0,0
0.2821,1783190497.6689,1,0,2.0000,0.0000,1.44682,0.23328,-2.77748,0.97337,1.57080,0.00000,-0.14512,-0.38003,0.04653,,,,,,,,,,,,,,,,,,,,,,,,,,0,0,0,0,0
0.2925,1783190497.6793,1,0,2.0000,0.0000,1.44682,0.23328,-2.77748,0.97337,1.57080,0.00000,-0.14512,-0.38003,0.04653,,,,,,,,,,,,,,,,,,,,,,,,,,0,0,0,0,0
0.3079,1783190497.6947,1,0,2.0000,0.0000,1.44682,0.23328,-2.77748,0.97337,1.57080,0.00000,-0.14512,-0.38003,0.04653,,,,,,,,,,,,,,,,,,,,,,,,,,0,0,0,0,0
0.3082,1783190497.6950,1,0,2.0000,0.0000,1.44682,0.23328,-2.77748,0.97337,1.57080,0.00000,-0.14512,-0.38003,0.04653,,,,,,,,,,,,,,,,,,,,,,,,,,0,0,0,0,0
0.3140,1783190497.7009,1,0,2.0000,0.0000,1.44682,0.23328,-2.77748,0.97337,1.57080,0.00000,-0.14512,-0.38003,0.04653,,,,,,,,,,,,,,,,,,,,,,,,,,0,0,0,0,0
0.3226,1783190497.7095,1,0,2.0000,0.0000,1.44682,0.23328,-2.77748,0.97337,1.57080,0.00000,-0.14512,-0.38003,0.04653,,,,,,,,,,,,,,,,,,,,,,,,,,0,0,0,0,0
0.3229,1783190497.7097,1,0,2.0000,0.0000,1.44682,0.23328,-2.77748,0.97337,1.57080,0.00000,-0.14512,-0.38003,0.04653,,,,,,,,,,,,,,,,,,,,,,,,,,0,0,0,0,0
0.3332,1783190497.7200,1,0,2.0000,0.0000,1.44682,0.23328,-2.77748,0.97337,1.57080,0.00000,-0.14512,-0.38003,0.04653,,,,,,,,,,,,,,,,,,,,,,,,,,0,0,0,0,0
0.3447,1783190497.7316,1,0,2.0000,0.0000,1.44682,0.23328,-2.77748,0.97337,1.57080,0.00000,-0.14512,-0.38003,0.04653,,,,,,,,,,,,,,,,,,,,,,,,,,0,0,0,0,0
0.3629,1783190497.7498,1,0,2.0000,0.0000,1.44682,0.23328,-2.77748,0.97337,1.57080,0.00000,-0.14512,-0.38003,0.04653,,,,,,,,,,,,,,,,,,,,,,,,,,0,0,0,0,0
0.3632,1783190497.7500,1,0,2.0000,0.0000,1.44682,0.23328,-2.77748,0.97337,1.57080,0.00000,-0.14512,-0.38003,0.04653,,,,,,,,,,,,,,,,,,,,,,,,,,0,0,0,0,0
0.3821,1783190497.7689,1,0,2.0000,0.0000,1.44682,0.23328,-2.77748,0.97337,1.57080,0.00000,-0.14512,-0.38003,0.04653,,,,,,,,,,,,,,,,,,,,,,,,,,0,0,0,0,0
0.3862,1783190497.7730,1,0,2.0000,0.0000,1.44682,0.23328,-2.77748,0.97337,1.57080,0.00000,-0.14512,-0.38003,0.04653,,,,,,,,,,,,,,,,,,,,,,,,,,0,0,0,0,0
0.3930,1783190497.7798,1,0,2.0000,0.0000,1.44682,0.23328,-2.77748,0.97337,1.57080,0.00000,-0.14512,-0.38003,0.04653,,,,,,,,,,,,,,,,,,,,,,,,,,0,0,0,0,0
0.4254,1783190497.8123,1,0,2.0000,0.0000,1.44682,0.23328,-2.77748,0.97337,1.57080,0.00000,-0.14512,-0.38003,0.04653,,,,,,,,,,,,,,,,,,,,,,,,,,0,0,0,0,0
0.4260,1783190497.8129,1,0,2.0000,0.0000,1.44682,0.23328,-2.77748,0.97337,1.57080,0.00000,-0.14512,-0.38003,0.04653,,,,,,,,,,,,,,,,,,,,,,,,,,0,0,0,0,0
0.4337,1783190497.8205,1,0,2.0000,0.0000,1.44682,0.23328,-2.77748,0.97337,1.57080,0.00000,-0.14512,-0.38003,0.04653,,,,,,,,,,,,,,,,,,,,,,,,,,0,0,0,0,0
0.4453,1783190497.8321,1,0,2.0000,0.0000,1.44682,0.23328,-2.77748,0.97337,1.57080,0.00000,-0.14512,-0.38003,0.04653,,,,,,,,,,,,,,,,,,,,,,,,,,0,0,0,0,0
0.4543,1783190497.8411,1,0,2.0000,0.0000,1.44682,0.23328,-2.77748,0.97337,1.57080,0.00000,-0.14512,-0.38003,0.04653,,,,,,,,,,,,,,,,,,,,,,,,,,0,0,0,0,0
0.4547,1783190497.8415,1,0,2.0000,0.0000,1.44682,0.23328,-2.77748,0.97337,1.57080,0.00000,-0.14512,-0.38003,0.04653,,,,,,,,,,,,,,,,,,,,,,,,,,0,0,0,0,0
0.4664,1783190497.8532,1,0,2.0000,0.0000,1.44682,0.23328,-2.77748,0.97337,1.57080,0.00000,-0.14512,-0.38003,0.04653,,,,,,,,,,,,,,,,,,,,,,,,,,0,0,0,0,0
0.4733,1783190497.8601,1,0,2.0000,0.0000,1.44682,0.23328,-2.77748,0.97337,1.57080,0.00000,-0.14512,-0.38003,0.04653,,,,,,,,,,,,,,,,,,,,,,,,,,0,0,0,0,0
0.4823,1783190497.8691,1,0,2.0000,0.0000,1.44682,0.23328,-2.77748,0.97337,1.57080,0.00000,-0.14512,-0.38003,0.04653,,,,,,,,,,,,,,,,,,,,,,,,,,0,0,0,0,0
0.4958,1783190497.8826,1,0,2.0000,0.0000,1.44682,0.23328,-2.77748,0.97337,1.57080,0.00000,-0.14512,-0.38003,0.04653,,,,,,,,,,,,,,,,,,,,,,,,,,0,0,0,0,0
0.5128,1783190497.8996,1,0,2.0000,0.0000,1.44682,0.23328,-2.77748,0.97337,1.57080,0.00000,-0.14512,-0.38003,0.04653,,,,,,,,,,,,,,,,,,,,,,,,,,0,0,0,0,0
0.5144,1783190497.9012,1,0,2.0000,0.0000,1.44682,0.23328,-2.77748,0.97337,1.57080,0.00000,-0.14512,-0.38003,0.04653,,,,,,,,,,,,,,,,,,,,,,,,,,0,0,0,0,0
0.5149,1783190497.9018,1,0,2.0000,0.0000,1.44682,0.23328,-2.77748,0.97337,1.57080,0.00000,-0.14512,-0.38003,0.04653,,,,,,,,,,,,,,,,,,,,,,,,,,0,0,0,0,0
0.5262,1783190497.9130,1,0,2.0000,0.0000,1.44682,0.23328,-2.77748,0.97337,1.57080,0.00000,-0.14512,-0.38003,0.04653,,,,,,,,,,,,,,,,,,,,,,,,,,0,0,0,0,0
0.5265,1783190497.9133,1,0,2.0000,0.0000,1.44682,0.23328,-2.77748,0.97337,1.57080,0.00000,-0.14512,-0.38003,0.04653,,,,,,,,,,,,,,,,,,,,,,,,,,0,0,0,0,0
0.5316,1783190497.9185,1,0,2.0000,0.0000,1.44682,0.23328,-2.77748,0.97337,1.57080,0.00000,-0.14512,-0.38003,0.04653,,,,,,,,,,,,,,,,,,,,,,,,,,0,0,0,0,0
0.5431,1783190497.9300,1,0,2.0000,0.0000,1.44682,0.23328,-2.77748,0.97337,1.57080,0.00000,-0.14512,-0.38003,0.04653,,,,,,,,,,,,,,,,,,,,,,,,,,0,0,0,0,0
0.5560,1783190497.9428,1,0,2.0000,0.0000,1.44682,0.23328,-2.77748,0.97337,1.57080,0.00000,-0.14512,-0.38003,0.04653,,,,,,,,,,,,,,,,,,,,,,,,,,0,0,0,0,0
0.5717,1783190497.9586,1,0,2.0000,0.0000,1.44682,0.23328,-2.77748,0.97337,1.57080,0.00000,-0.14512,-0.38003,0.04653,,,,,,,,,,,,,,,,,,,,,,,,,,0,0,0,0,0
0.5742,1783190497.9610,1,0,2.0000,0.0000,1.44682,0.23328,-2.77748,0.97337,1.57080,0.00000,-0.14512,-0.38003,0.04653,,,,,,,,,,,,,,,,,,,,,,,,,,0,0,0,0,0
0.5844,1783190497.9713,1,0,2.0000,0.0000,1.44682,0.23328,-2.77748,0.97337,1.57080,0.00000,-0.14512,-0.38003,0.04653,,,,,,,,,,,,,,,,,,,,,,,,,,0,0,0,0,0
0.5916,1783190497.9784,1,0,2.0000,0.0000,1.44682,0.23328,-2.77748,0.97337,1.57080,0.00000,-0.14512,-0.38003,0.04653,,,,,,,,,,,,,,,,,,,,,,,,,,0,0,0,0,0
0.6024,1783190497.9893,1,0,2.0000,0.0000,1.44682,0.23328,-2.77748,0.97337,1.57080,0.00000,-0.14512,-0.38003,0.04653,,,,,,,,,,,,,,,,,,,,,,,,,,0,0,0,0,0
0.6137,1783190498.0006,1,0,2.0000,0.0000,1.44682,0.23328,-2.77748,0.97337,1.57080,0.00000,-0.14512,-0.38003,0.04653,,,,,,,,,,,,,,,,,,,,,,,,,,0,0,0,0,0
0.6223,1783190498.0092,1,0,2.0000,0.0000,1.44682,0.23328,-2.77748,0.97337,1.57080,0.00000,-0.14512,-0.38003,0.04653,,,,,,,,,,,,,,,,,,,,,,,,,,0,0,0,0,0
0.6227,1783190498.0095,1,0,2.0000,0.0000,1.44682,0.23328,-2.77748,0.97337,1.57080,0.00000,-0.14512,-0.38003,0.04653,,,,,,,,,,,,,,,,,,,,,,,,,,0,0,0,0,0
0.6323,1783190498.0192,1,0,2.0000,0.0000,1.44682,0.23328,-2.77748,0.97337,1.57080,0.00000,-0.14512,-0.38003,0.04653,,,,,,,,,,,,,,,,,,,,,,,,,,0,0,0,0,0
0.6534,1783190498.0402,1,0,2.0000,0.0000,1.44682,0.23328,-2.77748,0.97337,1.57080,0.00000,-0.14512,-0.38003,0.04653,,,,,,,,,,,,,,,,,,,,,,,,,,0,0,0,0,0
0.6542,1783190498.0411,1,0,2.0000,0.0000,1.44682,0.23328,-2.77748,0.97337,1.57080,0.00000,-0.14512,-0.38003,0.04653,,,,,,,,,,,,,,,,,,,,,,,,,,0,0,0,0,0
0.6695,1783190498.0563,1,0,2.0000,0.0000,1.44682,0.23328,-2.77748,0.97337,1.57080,0.00000,-0.14512,-0.38003,0.04653,,,,,,,,,,,,,,,,,,,,,,,,,,0,0,0,0,0
0.6698,1783190498.0566,1,0,2.0000,0.0000,1.44682,0.23328,-2.77748,0.97337,1.57080,0.00000,-0.14512,-0.38003,0.04653,,,,,,,,,,,,,,,,,,,,,,,,,,0,0,0,0,0
0.6728,1783190498.0597,1,0,2.0000,0.0000,1.44682,0.23328,-2.77748,0.97337,1.57080,0.00000,-0.14512,-0.38003,0.04653,,,,,,,,,,,,,,,,,,,,,,,,,,0,0,0,0,0
0.6863,1783190498.0732,1,0,2.0000,0.0000,1.44682,0.23328,-2.77748,0.97337,1.57080,0.00000,-0.14512,-0.38003,0.04653,,,,,,,,,,,,,,,,,,,,,,,,,,0,0,0,0,0
0.6933,1783190498.0802,1,0,2.0000,0.0000,1.44682,0.23328,-2.77748,0.97337,1.57080,0.00000,-0.14512,-0.38003,0.04653,,,,,,,,,,,,,,,,,,,,,,,,,,0,0,0,0,0
0.6938,1783190498.0806,1,0,2.0000,0.0000,1.44682,0.23328,-2.77748,0.97337,1.57080,0.00000,-0.14512,-0.38003,0.04653,,,,,,,,,,,,,,,,,,,,,,,,,,0,0,0,0,0
0.7024,1783190498.0892,1,0,2.0000,0.0000,1.44682,0.23328,-2.77748,0.97337,1.57080,0.00000,-0.14512,-0.38003,0.04653,,,,,,,,,,,,,,,,,,,,,,,,,,0,0,0,0,0
0.7195,1783190498.1063,1,0,2.0000,0.0000,1.44682,0.23328,-2.77748,0.97337,1.57080,0.00000,-0.14512,-0.38003,0.04653,,,,,,,,,,,,,,,,,,,,,,,,,,0,0,0,0,0
0.7199,1783190498.1067,1,0,2.0000,0.0000,1.44682,0.23328,-2.77748,0.97337,1.57080,0.00000,-0.14512,-0.38003,0.04653,,,,,,,,,,,,,,,,,,,,,,,,,,0,0,0,0,0
0.7288,1783190498.1157,1,0,2.0000,0.0000,1.44682,0.23328,-2.77748,0.97337,1.57080,0.00000,-0.14512,-0.38003,0.04653,,,,,,,,,,,,,,,,,,,,,,,,,,0,0,0,0,0
0.7291,1783190498.1160,1,0,2.0000,0.0000,1.44682,0.23328,-2.77748,0.97337,1.57080,0.00000,-0.14512,-0.38003,0.04653,,,,,,,,,,,,,,,,,,,,,,,,,,0,0,0,0,0
0.7332,1783190498.1200,1,1,2.0000,0.0000,1.44682,0.23328,-2.77748,0.97337,1.57080,0.00000,-0.14512,-0.38003,0.04653,,,,,,,,,,,,,,,,,,,,,,,,,,0,0,0,0,0
0.7335,1783190498.1203,1,1,2.0000,0.0000,1.44682,0.23328,-2.77748,0.97337,1.57080,0.00000,-0.14512,-0.38003,0.04653,,,,,,,,,,,,,,,,,,,,,,,,,,0,0,0,0,0
0.7465,1783190498.1334,1,1,2.0000,0.0000,1.44682,0.23328,-2.77748,0.97337,1.57080,0.00000,-0.14512,-0.38003,0.04653,,,,,,,,,,,,,,,,,,,,,,,,,,0,0,0,0,0
0.7469,1783190498.1337,1,1,2.0000,0.0000,1.44682,0.23328,-2.77748,0.97337,1.57080,0.00000,-0.14512,-0.38003,0.04653,,,,,,,,,,,,,,,,,,,,,,,,,,0,0,0,0,0
0.7518,1783190498.1386,1,1,2.0000,0.0000,1.44682,0.23328,-2.77748,0.97337,1.57080,0.00000,-0.14512,-0.38003,0.04653,,,,,,,,,,,,,,,,,,,,,,,,,,0,0,0,0,0
0.7624,1783190498.1492,1,1,2.0000,0.0000,1.44682,0.23328,-2.77748,0.97337,1.57080,0.00000,-0.14512,-0.38003,0.04653,,,,,,,,,,,,,,,,,,,,,,,,,,0,0,0,0,0
0.7729,1783190498.1597,1,1,2.0000,0.0000,1.44682,0.23328,-2.77748,0.97337,1.57080,0.00000,-0.14512,-0.38003,0.04653,,,,,,,,,,,,,,,,,,,,,,,,,,0,0,0,0,0
0.7833,1783190498.1701,1,1,2.0000,0.0000,1.44682,0.23328,-2.77748,0.97337,1.57080,0.00000,-0.14512,-0.38003,0.04653,,,,,,,,,,,,,,,,,,,,,,,,,,0,0,0,0,0
0.7836,1783190498.1704,1,1,2.0000,0.0000,1.44682,0.23328,-2.77748,0.97337,1.57080,0.00000,-0.14512,-0.38003,0.04653,,,,,,,,,,,,,,,,,,,,,,,,,,0,0,0,0,0
0.7943,1783190498.1811,1,1,2.0000,0.0000,1.44682,0.23328,-2.77748,0.97337,1.57080,0.00000,-0.14512,-0.38003,0.04653,,,,,,,,,,,,,,,,,,,,,,,,,,0,0,0,0,0
0.8018,1783190498.1886,1,1,2.0000,0.0000,1.44682,0.23328,-2.77748,0.97337,1.57080,0.00000,-0.14512,-0.38003,0.04653,,,,,,,,,,,,,,,,,,,,,,,,,,0,0,0,0,0
0.8232,1783190498.2101,1,1,2.0000,0.0000,1.44682,0.23328,-2.77748,0.97337,1.57080,0.00000,-0.14512,-0.38003,0.04653,,,,,,,,,,,,,,,,,,,,,,,,,,0,0,0,0,0
0.8235,1783190498.2103,1,1,2.0000,0.0000,1.44682,0.23328,-2.77748,0.97337,1.57080,0.00000,-0.14512,-0.38003,0.04653,,,,,,,,,,,,,,,,,,,,,,,,,,0,0,0,0,0
0.8264,1783190498.2132,1,1,2.0000,0.0000,1.44682,0.23328,-2.77748,0.97337,1.57080,0.00000,-0.14512,-0.38003,0.04653,,,,,,,,,,,,,,,,,,,,,,,,,,0,0,0,0,0
0.8267,1783190498.2135,1,1,2.0000,0.0000,1.44682,0.23328,-2.77748,0.97337,1.57080,0.00000,-0.14512,-0.38003,0.04653,,,,,,,,,,,,,,,,,,,,,,,,,,0,0,0,0,0
0.8332,1783190498.2200,1,1,2.0000,0.0000,1.44682,0.23328,-2.77748,0.97337,1.57080,0.00000,-0.14512,-0.38003,0.04653,,,,,,,,,,,,,,,,,,,,,,,,,,0,0,0,0,0
0.8434,1783190498.2302,1,1,2.0000,0.0000,1.44682,0.23328,-2.77748,0.97337,1.57080,0.00000,-0.14512,-0.38003,0.04653,,,,,,,,,,,,,,,,,,,,,,,,,,0,0,0,0,0
0.8555,1783190498.2424,1,1,2.0000,0.0000,1.44682,0.23328,-2.77748,0.97337,1.57080,0.00000,-0.14512,-0.38003,0.04653,,,,,,,,,,,,,,,,,,,,,,,,,,0,0,0,0,0
0.8628,1783190498.2496,1,1,2.0000,0.0000,1.44682,0.23328,-2.77748,0.97337,1.57080,0.00000,-0.14512,-0.38003,0.04653,,,,,,,,,,,,,,,,,,,,,,,,,,0,0,0,0,0
0.8753,1783190498.2621,1,1,2.0000,0.0000,1.44682,0.23328,-2.77748,0.97337,1.57080,0.00000,-0.14512,-0.38003,0.04653,,,,,,,,,,,,,,,,,,,,,,,,,,0,0,0,0,0
0.8863,1783190498.2731,1,1,2.0000,0.0000,1.44682,0.23328,-2.77748,0.97337,1.57080,0.00000,-0.14512,-0.38003,0.04653,,,,,,,,,,,,,,,,,,,,,,,,,,0,0,0,0,0
0.8865,1783190498.2733,1,1,2.0000,0.0000,1.44682,0.23328,-2.77748,0.97337,1.57080,0.00000,-0.14512,-0.38003,0.04653,,,,,,,,,,,,,,,,,,,,,,,,,,0,0,0,0,0
0.8958,1783190498.2827,1,1,2.0000,0.0000,1.44682,0.23328,-2.77748,0.97337,1.57080,0.00000,-0.14512,-0.38003,0.04653,,,,,,,,,,,,,,,,,,,,,,,,,,0,0,0,0,0
0.9030,1783190498.2898,1,1,2.0000,0.0000,1.44682,0.23328,-2.77748,0.97337,1.57080,0.00000,-0.14512,-0.38003,0.04653,,,,,,,,,,,,,,,,,,,,,,,,,,0,0,0,0,0
0.9130,1783190498.2998,1,1,2.0000,0.0000,1.44682,0.23328,-2.77748,0.97337,1.57080,0.00000,-0.14512,-0.38003,0.04653,,,,,,,,,,,,,,,,,,,,,,,,,,0,0,0,0,0
0.9247,1783190498.3115,1,1,2.0000,0.0000,1.44682,0.23328,-2.77748,0.97337,1.57080,0.00000,-0.14512,-0.38003,0.04653,,,,,,,,,,,,,,,,,,,,,,,,,,0,0,0,0,0
0.9364,1783190498.3232,1,1,2.0000,0.0000,1.44682,0.23316,-2.77751,0.97352,1.57080,0.00000,-0.14512,-0.38003,0.04650,,,,,,,,,,,,,,,,,,,,,,,,,,0,0,0,0,0
0.9474,1783190498.3342,1,1,2.0000,0.0000,1.44682,0.23293,-2.77757,0.97381,1.57080,0.00000,-0.14512,-0.38003,0.04644,,,,,,,,,,,,,,,,,,,,,,,,,,0,0,0,0,0
0.9567,1783190498.3435,1,1,2.0000,0.0000,1.44682,0.23291,-2.77757,0.97383,1.57080,0.00000,-0.14512,-0.38003,0.04643,,,,,,,,,,,,,,,,,,,,,,,,,,0,0,0,0,0
0.9672,1783190498.3540,1,1,2.0000,0.0000,1.44682,0.23278,-2.77761,0.97400,1.57080,0.00000,-0.14512,-0.38003,0.04640,,,,,,,,,,,,,,,,,,,,,,,,,,0,0,0,0,0
0.9868,1783190498.3737,1,1,2.0000,0.0000,1.44682,0.23257,-2.77766,0.97426,1.57080,0.00000,-0.14512,-0.38003,0.04634,,,,,,,,,,,,,,,,,,,,,,,,,,0,0,0,0,0
0.9881,1783190498.3750,1,1,2.0000,0.0000,1.44682,0.23257,-2.77766,0.97426,1.57080,0.00000,-0.14512,-0.38003,0.04634,,,,,,,,,,,,,,,,,,,,,,,,,,0,0,0,0,0
0.9886,1783190498.3754,1,1,2.0000,0.0000,1.44682,0.23257,-2.77766,0.97426,1.57080,0.00000,-0.14512,-0.38003,0.04634,,,,,,,,,,,,,,,,,,,,,,,,,,0,0,0,0,0
0.9986,1783190498.3855,1,1,2.0000,0.0000,1.44682,0.23243,-2.77770,0.97444,1.57080,0.00000,-0.14512,-0.38003,0.04631,,,,,,,,,,,,,,,,,,,,,,,,,,0,0,0,0,0
1.0063,1783190498.3931,1,1,2.0000,0.0000,1.44682,0.23229,-2.77773,0.97461,1.57080,0.00000,-0.14512,-0.38003,0.04627,,,,,,,,,,,,,,,,,,,,,,,,,,0,0,0,0,0
1.0066,1783190498.3935,1,1,2.0000,0.0000,1.44682,0.23229,-2.77773,0.97461,1.57080,0.00000,-0.14512,-0.38003,0.04627,,,,,,,,,,,,,,,,,,,,,,,,,,0,0,0,0,0
1.0193,1783190498.4061,1,1,2.0000,0.0000,1.44682,0.23225,-2.77774,0.97467,1.57080,0.00000,-0.14512,-0.38003,0.04626,,,,,,,,,,,,,,,,,,,,,,,,,,0,0,0,0,0
1.0290,1783190498.4158,1,1,2.0000,0.0000,1.44682,0.23214,-2.77777,0.97480,1.57080,0.00000,-0.14512,-0.38003,0.04623,,,,,,,,,,,,,,,,,,,,,,,,,,0,0,0,0,0
1.0293,1783190498.4162,1,1,2.0000,0.0000,1.44682,0.23214,-2.77777,0.97480,1.57080,0.00000,-0.14512,-0.38003,0.04623,,,,,,,,,,,,,,,,,,,,,,,,,,0,0,0,0,0
1.0359,1783190498.4227,1,1,2.0000,0.0000,1.44682,0.23200,-2.77781,0.97498,1.57080,0.00000,-0.14512,-0.38003,0.04619,,,,,,,,,,,,,,,,,,,,,,,,,,0,0,0,0,0
1.0486,1783190498.4354,1,1,2.0000,0.0000,1.44682,0.23192,-2.77783,0.97508,1.57080,0.00000,-0.14512,-0.38003,0.04617,,,,,,,,,,,,,,,,,,,,,,,,,,0,0,0,0,0
1.0596,1783190498.4464,1,1,2.0000,0.0000,1.44682,0.23178,-2.77786,0.97525,1.57080,0.00000,-0.14512,-0.38003,0.04614,,,,,,,,,,,,,,,,,,,,,,,,,,0,0,0,0,0
1.0904,1783190498.4772,1,1,2.0000,0.0000,1.44682,0.23142,-2.77795,0.97570,1.57080,0.00000,-0.14512,-0.38003,0.04604,,,,,,,,,,,,,,,,,,,,,,,,,,0,0,0,0,0
1.0909,1783190498.4777,1,1,2.0000,0.0000,1.44682,0.23142,-2.77795,0.97570,1.57080,0.00000,-0.14512,-0.38003,0.04604,,,,,,,,,,,,,,,,,,,,,,,,,,0,0,0,0,0
1.0912,1783190498.4780,1,1,2.0000,0.0000,1.44682,0.23142,-2.77795,0.97570,1.57080,0.00000,-0.14512,-0.38003,0.04604,,,,,,,,,,,,,,,,,,,,,,,,,,0,0,0,0,0
1.0984,1783190498.4853,1,1,2.0000,0.0000,1.44682,0.23129,-2.77799,0.97587,1.57080,0.00000,-0.14512,-0.38003,0.04601,,,,,,,,,,,,,,,,,,,,,,,,,,0,0,0,0,0
1.0989,1783190498.4858,1,1,2.0000,0.0000,1.44682,0.23129,-2.77799,0.97587,1.57080,0.00000,-0.14512,-0.38003,0.04601,,,,,,,,,,,,,,,,,,,,,,,,,,0,0,0,0,0
1.1115,1783190498.4983,1,1,2.0000,0.0000,1.44682,0.23124,-2.77800,0.97593,1.57080,0.00000,-0.14512,-0.38003,0.04600,,,,,,,,,,,,,,,,,,,,,,,,,,0,0,0,0,0
1.1469,1783190498.5338,1,1,2.0000,0.0000,1.44682,0.23084,-2.77810,0.97643,1.57080,0.00000,-0.14512,-0.38003,0.04589,,,,,,,,,,,,,,,,,,,,,,,,,,0,0,0,0,0
1.1472,1783190498.5341,1,1,2.0000,0.0000,1.44682,0.23084,-2.77810,0.97643,1.57080,0.00000,-0.14512,-0.38003,0.04589,,,,,,,,,,,,,,,,,,,,,,,,,,0,0,0,0,0
1.1475,1783190498.5343,1,1,2.0000,0.0000,1.44682,0.23084,-2.77810,0.97643,1.57080,0.00000,-0.14512,-0.38003,0.04589,,,,,,,,,,,,,,,,,,,,,,,,,,0,0,0,0,0
1.1478,1783190498.5346,1,1,2.0000,0.0000,1.44682,0.23084,-2.77810,0.97643,1.57080,0.00000,-0.14512,-0.38003,0.04589,,,,,,,,,,,,,,,,,,,,,,,,,,0,0,0,0,0
1.1535,1783190498.5403,1,1,2.0000,0.0000,1.44682,0.23077,-2.77812,0.97652,1.57080,0.00000,-0.14512,-0.38003,0.04587,,,,,,,,,,,,,,,,,,,,,,,,,,0,0,0,0,0
1.1893,1783190498.5762,1,1,2.0000,0.0000,1.44682,0.23035,-2.77823,0.97705,1.57080,0.00000,-0.14512,-0.38003,0.04576,,,,,,,,,,,,,,,,,,,,,,,,,,0,0,0,0,0
1.1897,1783190498.5765,1,1,2.0000,0.0000,1.44682,0.23035,-2.77823,0.97705,1.57080,0.00000,-0.14512,-0.38003,0.04576,,,,,,,,,,,,,,,,,,,,,,,,,,0,0,0,0,0
1.1904,1783190498.5772,1,1,2.0000,0.0000,1.44682,0.23028,-2.77825,0.97714,1.57080,0.00000,-0.14512,-0.38003,0.04574,,,,,,,,,,,,,,,,,,,,,,,,,,0,0,0,0,0
1.1906,1783190498.5774,1,1,2.0000,0.0000,1.44682,0.23028,-2.77825,0.97714,1.57080,0.00000,-0.14512,-0.38003,0.04574,,,,,,,,,,,,,,,,,,,,,,,,,,0,0,0,0,0
1.1993,1783190498.5862,1,1,2.0000,0.0000,1.44682,0.23027,-2.77825,0.97715,1.57080,0.00000,-0.14512,-0.38003,0.04574,,,,,,,,,,,,,,,,,,,,,,,,,,0,0,0,0,0
1.2064,1783190498.5933,1,1,2.0000,0.0000,1.44682,0.23021,-2.77827,0.97723,1.57080,0.00000,-0.14512,-0.38003,0.04573,,,,,,,,,,,,,,,,,,,,,,,,,,0,0,0,0,0
1.2191,1783190498.6059,1,1,2.0000,0.0000,1.44682,0.23005,-2.77831,0.97743,1.57080,0.00000,-0.14512,-0.38003,0.04568,,,,,,,,,,,,,,,,,,,,,,,,,,0,0,0,0,0
1.2304,1783190498.6172,1,1,2.0000,0.0000,1.44682,0.23000,-2.77832,0.97749,1.57080,0.00000,-0.14512,-0.38003,0.04567,,,,,,,,,,,,,,,,,,,,,,,,,,0,0,0,0,0
1.2371,1783190498.6240,1,1,2.0000,0.0000,1.44682,0.22995,-2.77833,0.97755,1.57080,0.00000,-0.14512,-0.38003,0.04566,,,,,,,,,,,,,,,,,,,,,,,,,,0,0,0,0,0
1.2457,1783190498.6325,1,1,2.0000,0.0000,1.44682,0.22982,-2.77837,0.97771,1.57080,0.00000,-0.14512,-0.38003,0.04563,,,,,,,,,,,,,,,,,,,,,,,,,,0,0,0,0,0
1.2463,1783190498.6331,1,1,2.0000,0.0000,1.44682,0.22975,-2.77838,0.97780,1.57080,0.00000,-0.14512,-0.38003,0.04561,,,,,,,,,,,,,,,,,,,,,,,,,,0,0,0,0,0
1.2560,1783190498.6428,1,1,2.0000,0.0000,1.44682,0.22968,-2.77840,0.97789,1.57080,0.00000,-0.14512,-0.38003,0.04559,,,,,,,,,,,,,,,,,,,,,,,,,,0,0,0,0,0
1.2704,1783190498.6572,1,1,2.0000,0.0000,1.44682,0.22957,-2.77843,0.97803,1.57080,0.00000,-0.14512,-0.38003,0.04556,,,,,,,,,,,,,,,,,,,,,,,,,,0,0,0,0,0
1.2707,1783190498.6575,1,1,2.0000,0.0000,1.44682,0.22957,-2.77843,0.97803,1.57080,0.00000,-0.14512,-0.38003,0.04556,,,,,,,,,,,,,,,,,,,,,,,,,,0,0,0,0,0
1.2818,1783190498.6687,1,1,2.0000,0.0000,1.44682,0.22945,-2.77846,0.97817,1.57080,0.00000,-0.14512,-0.38003,0.04553,,,,,,,,,,,,,,,,,,,,,,,,,,0,0,0,0,0
1.2824,1783190498.6692,1,1,2.0000,0.0000,1.44682,0.22945,-2.77846,0.97817,1.57080,0.00000,-0.14512,-0.38003,0.04553,,,,,,,,,,,,,,,,,,,,,,,,,,0,0,0,0,0
1.2877,1783190498.6745,1,1,2.0000,0.0000,1.44682,0.22944,-2.77846,0.97819,1.57080,0.00000,-0.14512,-0.38003,0.04553,,,,,,,,,,,,,,,,,,,,,,,,,,0,0,0,0,0
1.2958,1783190498.6827,1,1,2.0000,0.0000,1.44682,0.22936,-2.77848,0.97830,1.57080,0.00000,-0.14512,-0.38003,0.04550,,,,,,,,,,,,,,,,,,,,,,,,,,0,0,0,0,0
1.2961,1783190498.6830,1,1,2.0000,0.0000,1.44682,0.22936,-2.77848,0.97830,1.57080,0.00000,-0.14512,-0.38003,0.04550,,,,,,,,,,,,,,,,,,,,,,,,,,0,0,0,0,0
1.3091,1783190498.6960,1,1,2.0000,0.0000,1.44682,0.22915,-2.77854,0.97855,1.57080,0.00000,-0.14512,-0.38003,0.04545,,,,,,,,,,,,,,,,,,,,,,,,,,0,0,0,0,0
1.3156,1783190498.7024,1,1,2.0000,0.0000,1.44682,0.22909,-2.77855,0.97864,1.57080,0.00000,-0.14512,-0.38003,0.04543,,,,,,,,,,,,,,,,,,,,,,,,,,0,0,0,0,0
1.3158,1783190498.7027,1,1,2.0000,0.0000,1.44682,0.22909,-2.77855,0.97864,1.57080,0.00000,-0.14512,-0.38003,0.04543,,,,,,,,,,,,,,,,,,,,,,,,,,0,0,0,0,0
1.3304,1783190498.7172,1,1,2.0000,0.0000,1.44682,0.22897,-2.77858,0.97878,1.57080,0.00000,-0.14512,-0.38003,0.04540,,,,,,,,,,,,,,,,,,,,,,,,,,0,0,0,0,0
1.3308,1783190498.7176,1,1,2.0000,0.0000,1.44682,0.22897,-2.77858,0.97878,1.57080,0.00000,-0.14512,-0.38003,0.04540,,,,,,,,,,,,,,,,,,,,,,,,,,0,0,0,0,0
1.3375,1783190498.7243,1,1,2.0000,0.0000,1.44682,0.22892,-2.77860,0.97885,1.57080,0.00000,-0.14512,-0.38003,0.04539,,,,,,,,,,,,,,,,,,,,,,,,,,0,0,0,0,0
1.3464,1783190498.7333,1,1,2.0000,0.0000,1.44682,0.22885,-2.77862,0.97894,1.57080,0.00000,-0.14512,-0.38003,0.04537,,,,,,,,,,,,,,,,,,,,,,,,,,0,0,0,0,0
1.3623,1783190498.7491,1,1,2.0000,0.0000,1.44682,0.22863,-2.77867,0.97921,1.57080,0.00000,-0.14512,-0.38003,0.04532,,,,,,,,,,,,,,,,,,,,,,,,,,0,0,0,0,0
1.3684,1783190498.7552,1,1,2.0000,0.0000,1.44682,0.22856,-2.77869,0.97930,1.57080,0.00000,-0.14512,-0.38003,0.04530,,,,,,,,,,,,,,,,,,,,,,,,,,0,0,0,0,0
1.3754,1783190498.7623,1,1,2.0000,0.0000,1.44682,0.22849,-2.77871,0.97939,1.57080,0.00000,-0.14512,-0.38003,0.04528,,,,,,,,,,,,,,,,,,,,,,,,,,0,0,0,0,0
1.3758,1783190498.7626,1,1,2.0000,0.0000,1.44682,0.22849,-2.77871,0.97939,1.57080,0.00000,-0.14512,-0.38003,0.04528,,,,,,,,,,,,,,,,,,,,,,,,,,0,0,0,0,0
1.3988,1783190498.7856,1,1,2.0000,0.0000,1.44682,0.22826,-2.77876,0.97967,1.57080,0.00000,-0.14512,-0.38003,0.04522,,,,,,,,,,,,,,,,,,,,,,,,,,0,0,0,0,0
1.3992,1783190498.7860,1,1,2.0000,0.0000,1.44682,0.22826,-2.77876,0.97967,1.57080,0.00000,-0.14512,-0.38003,0.04522,,,,,,,,,,,,,,,,,,,,,,,,,,0,0,0,0,0
1.3994,1783190498.7863,1,1,2.0000,0.0000,1.44682,0.22826,-2.77876,0.97967,1.57080,0.00000,-0.14512,-0.38003,0.04522,,,,,,,,,,,,,,,,,,,,,,,,,,0,0,0,0,0
1.4076,1783190498.7945,1,1,2.0000,0.0000,1.44682,0.22825,-2.77877,0.97969,1.57080,0.00000,-0.14512,-0.38003,0.04522,,,,,,,,,,,,,,,,,,,,,,,,,,0,0,0,0,0
1.4193,1783190498.8062,1,1,2.0000,0.0000,1.44682,0.22810,-2.77880,0.97987,1.57080,0.00000,-0.14512,-0.38003,0.04518,,,,,,,,,,,,,,,,,,,,,,,,,,0,0,0,0,0
1.4196,1783190498.8064,1,1,2.0000,0.0000,1.44682,0.22810,-2.77880,0.97987,1.57080,0.00000,-0.14512,-0.38003,0.04518,,,,,,,,,,,,,,,,,,,,,,,,,,0,0,0,0,0
1.4399,1783190498.8267,1,1,2.0000,0.0000,1.44682,0.22788,-2.77886,0.98014,1.57080,0.00000,-0.14512,-0.38003,0.04512,,,,,,,,,,,,,,,,,,,,,,,,,,0,0,0,0,0
1.4403,1783190498.8271,1,1,2.0000,0.0000,1.44682,0.22788,-2.77886,0.98014,1.57080,0.00000,-0.14512,-0.38003,0.04512,,,,,,,,,,,,,,,,,,,,,,,,,,0,0,0,0,0
1.4406,1783190498.8274,1,1,2.0000,0.0000,1.44682,0.22788,-2.77886,0.98014,1.57080,0.00000,-0.14512,-0.38003,0.04512,,,,,,,,,,,,,,,,,,,,,,,,,,0,0,0,0,0
1.4506,1783190498.8375,1,1,2.0000,0.0000,1.44682,0.22778,-2.77889,0.98028,1.57080,0.00000,-0.14512,-0.38003,0.04509,,,,,,,,,,,,,,,,,,,,,,,,,,0,0,0,0,0
1.4582,1783190498.8451,1,1,2.0000,0.0000,1.44682,0.22767,-2.77892,0.98042,1.57080,0.00000,-0.14512,-0.38003,0.04506,,,,,,,,,,,,,,,,,,,,,,,,,,0,0,0,0,0
1.4585,1783190498.8453,1,1,2.0000,0.0000,1.44682,0.22767,-2.77892,0.98042,1.57080,0.00000,-0.14512,-0.38003,0.04506,,,,,,,,,,,,,,,,,,,,,,,,,,0,0,0,0,0
1.4675,1783190498.8543,1,1,2.0000,0.0000,1.44682,0.22765,-2.77892,0.98044,1.57080,0.00000,-0.14512,-0.38003,0.04506,,,,,,,,,,,,,,,,,,,,,,,,,,0,0,0,0,0
1.4775,1783190498.8644,1,1,2.0000,0.0000,1.44682,0.22757,-2.77894,0.98054,1.57080,0.00000,-0.14512,-0.38003,0.04504,,,,,,,,,,,,,,,,,,,,,,,,,,0,0,0,0,0
1.4905,1783190498.8773,1,1,2.0000,0.0000,1.44682,0.22730,-2.77901,0.98088,1.57080,0.00000,-0.14512,-0.38003,0.04497,,,,,,,,,,,,,,,,,,,,,,,,,,0,0,0,0,0
1.4909,1783190498.8777,1,1,2.0000,0.0000,1.44682,0.22730,-2.77901,0.98088,1.57080,0.00000,-0.14512,-0.38003,0.04497,,,,,,,,,,,,,,,,,,,,,,,,,,0,0,0,0,0
1.4987,1783190498.8856,1,1,2.0000,0.0000,1.44682,0.22729,-2.77901,0.98089,1.57080,0.00000,-0.14512,-0.38003,0.04497,,,,,,,,,,,,,,,,,,,,,,,,,,0,0,0,0,0
1.5057,1783190498.8925,1,1,2.0000,0.0000,1.44682,0.22726,-2.77902,0.98092,1.57080,0.00000,-0.14512,-0.38003,0.04496,,,,,,,,,,,,,,,,,,,,,,,,,,0,0,0,0,0
1.5171,1783190498.9039,1,1,2.0000,0.0000,1.44682,0.22713,-2.77905,0.98110,1.57080,0.00000,-0.14512,-0.38003,0.04492,,,,,,,,,,,,,,,,,,,,,,,,,,0,0,0,0,0
1.5263,1783190498.9131,1,1,2.0000,0.0000,1.44682,0.22706,-2.77907,0.98118,1.57080,0.00001,-0.14512,-0.38003,0.04491,,,,,,,,,,,,,,,,,,,,,,,,,,0,0,0,0,0
1.5373,1783190498.9242,1,1,2.0000,0.0000,1.44682,0.22697,-2.77909,0.98129,1.57080,0.00001,-0.14512,-0.38003,0.04488,,,,,,,,,,,,,,,,,,,,,,,,,,0,0,0,0,0
1.5377,1783190498.9245,1,1,2.0000,0.0000,1.44682,0.22697,-2.77909,0.98129,1.57080,0.00001,-0.14512,-0.38003,0.04488,,,,,,,,,,,,,,,,,,,,,,,,,,0,0,0,0,0
1.5514,1783190498.9383,1,1,2.0000,0.0000,1.44682,0.22670,-2.77916,0.98163,1.57080,0.00001,-0.14512,-0.38003,0.04481,,,,,,,,,,,,,,,,,,,,,,,,,,0,0,0,0,0
1.5561,1783190498.9429,1,1,2.0000,0.0000,1.44682,0.22670,-2.77916,0.98163,1.57080,0.00001,-0.14512,-0.38003,0.04481,,,,,,,,,,,,,,,,,,,,,,,,,,0,0,0,0,0
1.5564,1783190498.9432,1,1,2.0000,0.0000,1.44682,0.22670,-2.77916,0.98163,1.57080,0.00001,-0.14512,-0.38003,0.04481,,,,,,,,,,,,,,,,,,,,,,,,,,0,0,0,0,0
1.5679,1783190498.9547,1,1,2.0000,0.0000,1.44682,0.22660,-2.77919,0.98175,1.57080,0.00001,-0.14512,-0.38003,0.04479,,,,,,,,,,,,,,,,,,,,,,,,,,0,0,0,0,0
1.5772,1783190498.9640,1,1,2.0000,0.0000,1.44682,0.22648,-2.77922,0.98191,1.57080,0.00001,-0.14512,-0.38003,0.04476,,,,,,,,,,,,,,,,,,,,,,,,,,0,0,0,0,0
1.5775,1783190498.9644,1,1,2.0000,0.0000,1.44682,0.22648,-2.77922,0.98191,1.57080,0.00001,-0.14512,-0.38003,0.04476,,,,,,,,,,,,,,,,,,,,,,,,,,0,0,0,0,0
1.5892,1783190498.9760,1,1,2.0000,0.0000,1.44682,0.22639,-2.77924,0.98201,1.57080,0.00001,-0.14512,-0.38003,0.04473,,,,,,,,,,,,,,,,,,,,,,,,,,0,0,0,0,0
1.5895,1783190498.9764,1,1,2.0000,0.0000,1.44682,0.22639,-2.77924,0.98201,1.57080,0.00001,-0.14512,-0.38003,0.04473,,,,,,,,,,,,,,,,,,,,,,,,,,0,0,0,0,0
1.5957,1783190498.9825,1,1,2.0000,0.0000,1.44682,0.22631,-2.77926,0.98212,1.57080,0.00001,-0.14512,-0.38003,0.04471,,,,,,,,,,,,,,,,,,,,,,,,,,0,0,0,0,0
1.6106,1783190498.9974,1,1,2.0000,0.0000,1.44682,0.22605,-2.77933,0.98245,1.57080,0.00001,-0.14512,-0.38003,0.04464,,,,,,,,,,,,,,,,,,,,,,,,,,0,0,0,0,0
1.6197,1783190499.0065,1,1,2.0000,0.0000,1.44682,0.22603,-2.77933,0.98246,1.57080,0.00001,-0.14512,-0.38003,0.04464,,,,,,,,,,,,,,,,,,,,,,,,,,0,0,0,0,0
1.6278,1783190499.0147,1,1,2.0000,0.0000,1.44682,0.22595,-2.77935,0.98257,1.57080,0.00001,-0.14512,-0.38003,0.04462,,,,,,,,,,,,,,,,,,,,,,,,,,0,0,0,0,0
1.6282,1783190499.0150,1,1,2.0000,0.0000,1.44682,0.22595,-2.77935,0.98257,1.57080,0.00001,-0.14512,-0.38003,0.04462,,,,,,,,,,,,,,,,,,,,,,,,,,0,0,0,0,0
1.6384,1783190499.0253,1,1,2.0000,0.0000,1.44682,0.22575,-2.77940,0.98282,1.57080,0.00001,-0.14512,-0.38003,0.04457,,,,,,,,,,,,,,,,,,,,,,,,,,0,0,0,0,0
1.6504,1783190499.0372,1,1,2.0000,0.0000,1.44682,0.22571,-2.77941,0.98287,1.57080,0.00001,-0.14512,-0.38003,0.04456,,,,,,,,,,,,,,,,,,,,,,,,,,0,0,0,0,0
1.6557,1783190499.0425,1,1,2.0000,0.0000,1.44682,0.22566,-2.77942,0.98293,1.57080,0.00001,-0.14512,-0.38003,0.04454,,,,,,,,,,,,,,,,,,,,,,,,,,0,0,0,0,0
1.6663,1783190499.0532,1,1,2.0000,0.0000,1.44682,0.22546,-2.77947,0.98318,1.57080,0.00001,-0.14512,-0.38002,0.04449,,,,,,,,,,,,,,,,,,,,,,,,,,0,0,0,0,0
1.6758,1783190499.0626,1,1,2.0000,0.0000,1.44682,0.22539,-2.77949,0.98327,1.57080,0.00001,-0.14512,-0.38002,0.04448,,,,,,,,,,,,,,,,,,,,,,,,,,0,0,0,0,0
1.6935,1783190499.0803,1,1,2.0000,0.0000,1.44682,0.22524,-2.77953,0.98346,1.57080,0.00001,-0.14512,-0.38002,0.04444,,,,,,,,,,,,,,,,,,,,,,,,,,0,0,0,0,0
1.6968,1783190499.0836,1,1,2.0000,0.0000,1.44682,0.22517,-2.77955,0.98355,1.57080,0.00001,-0.14512,-0.38002,0.04442,,,,,,,,,,,,,,,,,,,,,,,,,,0,0,0,0,0
1.7113,1783190499.0981,1,1,2.0000,0.0000,1.44682,0.22505,-2.77958,0.98369,1.57080,0.00001,-0.14512,-0.38002,0.04439,,,,,,,,,,,,,,,,,,,,,,,,,,0,0,0,0,0
1.7117,1783190499.0985,1,1,2.0000,0.0000,1.44682,0.22505,-2.77958,0.98369,1.57080,0.00001,-0.14512,-0.38002,0.04439,,,,,,,,,,,,,,,,,,,,,,,,,,0,0,0,0,0
1.7156,1783190499.1024,1,1,2.0000,0.0000,1.44682,0.22501,-2.77959,0.98375,1.57080,0.00001,-0.14512,-0.38002,0.04438,,,,,,,,,,,,,,,,,,,,,,,,,,0,0,0,0,0
1.7160,1783190499.1028,1,1,2.0000,0.0000,1.44682,0.22501,-2.77959,0.98375,1.57080,0.00001,-0.14512,-0.38002,0.04438,,,,,,,,,,,,,,,,,,,,,,,,,,0,0,0,0,0
1.7262,1783190499.1130,1,1,2.0000,0.0000,1.44682,0.22481,-2.77964,0.98400,1.57080,0.00001,-0.14512,-0.38002,0.04432,,,,,,,,,,,,,,,,,,,,,,,,,,0,0,0,0,0
1.7397,1783190499.1266,1,1,2.0000,0.0000,1.44682,0.22473,-2.77966,0.98410,1.57080,0.00001,-0.14512,-0.38002,0.04430,,,,,,,,,,,,,,,,,,,,,,,,,,0,0,0,0,0
1.7466,1783190499.1334,1,1,2.0000,0.0000,1.44682,0.22464,-2.77968,0.98420,1.57080,0.00001,-0.14512,-0.38002,0.04428,,,,,,,,,,,,,,,,,,,,,,,,,,0,0,0,0,0
1.7557,1783190499.1426,1,1,2.0000,0.0000,1.44682,0.22452,-2.77971,0.98437,1.57080,0.00001,-0.14512,-0.38002,0.04425,,,,,,,,,,,,,,,,,,,,,,,,,,0,0,0,0,0
1.7560,1783190499.1428,1,1,2.0000,0.0000,1.44682,0.22452,-2.77971,0.98437,1.57080,0.00001,-0.14512,-0.38002,0.04425,,,,,,,,,,,,,,,,,,,,,,,,,,0,0,0,0,0
1.7676,1783190499.1544,1,1,2.0000,0.0000,1.44682,0.22443,-2.77973,0.98447,1.57080,0.00001,-0.14512,-0.38002,0.04423,,,,,,,,,,,,,,,,,,,,,,,,,,0,0,0,0,0
1.7755,1783190499.1623,1,1,2.0000,0.0000,1.44682,0.22435,-2.77975,0.98457,1.57080,0.00001,-0.14512,-0.38002,0.04421,,,,,,,,,,,,,,,,,,,,,,,,,,0,0,0,0,0
1.7757,1783190499.1626,1,1,2.0000,0.0000,1.44682,0.22435,-2.77975,0.98457,1.57080,0.00001,-0.14512,-0.38002,0.04421,,,,,,,,,,,,,,,,,,,,,,,,,,0,0,0,0,0
1.7858,1783190499.1727,1,1,2.0000,0.0000,1.44682,0.22422,-2.77979,0.98473,1.57080,0.00001,-0.14512,-0.38002,0.04417,,,,,,,,,,,,,,,,,,,,,,,,,,0,0,0,0,0
1.7984,1783190499.1852,1,1,2.0000,0.0000,1.44682,0.22407,-2.77982,0.98492,1.57080,0.00001,-0.14512,-0.38002,0.04413,,,,,,,,,,,,,,,,,,,,,,,,,,0,0,0,0,0
1.8072,1783190499.1940,1,1,2.0000,0.0000,1.44682,0.22399,-2.77985,0.98502,1.57080,0.00001,-0.14512,-0.38002,0.04411,,,,,,,,,,,,,,,,,,,,,,,,,,0,0,0,0,0
1.8195,1783190499.2064,1,1,2.0000,0.0000,1.44682,0.22379,-2.77990,0.98527,1.57080,0.00001,-0.14512,-0.38002,0.04406,,,,,,,,,,,,,,,,,,,,,,,,,,0,0,0,0,0
1.8256,1783190499.2124,1,1,2.0000,0.0000,1.44682,0.22372,-2.77991,0.98536,1.57080,0.00001,-0.14512,-0.38002,0.04404,,,,,,,,,,,,,,,,,,,,,,,,,,0,0,0,0,0
1.8427,1783190499.2295,1,1,2.0000,0.0000,1.44682,0.22360,-2.77994,0.98551,1.57080,0.00001,-0.14512,-0.38002,0.04401,,,,,,,,,,,,,,,,,,,,,,,,,,0,0,0,0,0
1.8507,1783190499.2376,1,1,2.0000,0.0000,1.44682,0.22349,-2.77997,0.98565,1.57080,0.00001,-0.14512,-0.38002,0.04398,,,,,,,,,,,,,,,,,,,,,,,,,,0,0,0,0,0
1.8571,1783190499.2440,1,1,2.0000,0.0000,1.44682,0.22349,-2.77997,0.98565,1.57080,0.00001,-0.14512,-0.38002,0.04398,,,,,,,,,,,,,,,,,,,,,,,,,,0,0,0,0,0
1.8577,1783190499.2445,1,1,2.0000,0.0000,1.44682,0.22349,-2.77997,0.98565,1.57080,0.00001,-0.14512,-0.38002,0.04398,,,,,,,,,,,,,,,,,,,,,,,,,,0,0,0,0,0
1.8701,1783190499.2570,1,1,2.0000,0.0000,1.44682,0.22333,-2.78001,0.98585,1.57080,0.00001,-0.14512,-0.38002,0.04394,,,,,,,,,,,,,,,,,,,,,,,,,,0,0,0,0,0
1.8786,1783190499.2654,1,1,2.0000,0.0000,1.44682,0.22319,-2.78005,0.98603,1.57080,0.00001,-0.14512,-0.38002,0.04391,,,,,,,,,,,,,,,,,,,,,,,,,,0,0,0,0,0
1.8856,1783190499.2725,1,1,2.0000,0.0000,1.44682,0.22312,-2.78006,0.98611,1.57080,0.00001,-0.14512,-0.38002,0.04389,,,,,,,,,,,,,,,,,,,,,,,,,,0,0,0,0,0
1.8862,1783190499.2730,1,1,2.0000,0.0000,1.44682,0.22312,-2.78006,0.98611,1.57080,0.00001,-0.14512,-0.38002,0.04389,,,,,,,,,,,,,,,,,,,,,,,,,,0,0,0,0,0
1.8994,1783190499.2862,1,1,2.0000,0.0000,1.44682,0.22305,-2.78008,0.98620,1.57080,0.00001,-0.14512,-0.38002,0.04387,,,,,,,,,,,,,,,,,,,,,,,,,,0,0,0,0,0
1.8996,1783190499.2865,1,1,2.0000,0.0000,1.44682,0.22305,-2.78008,0.98620,1.57080,0.00001,-0.14512,-0.38002,0.04387,,,,,,,,,,,,,,,,,,,,,,,,,,0,0,0,0,0
1.9072,1783190499.2941,1,1,2.0000,0.0000,1.44682,0.22295,-2.78011,0.98633,1.57080,0.00001,-0.14512,-0.38002,0.04384,,,,,,,,,,,,,,,,,,,,,,,,,,0,0,0,0,0
1.9159,1783190499.3027,1,1,2.0000,0.0000,1.44682,0.22289,-2.78012,0.98640,1.57080,0.00001,-0.14512,-0.38002,0.04383,,,,,,,,,,,,,,,,,,,,,,,,,,0,0,0,0,0
1.9268,1783190499.3137,1,1,2.0000,0.0000,1.44682,0.22279,-2.78015,0.98652,1.57080,0.00001,-0.14512,-0.38002,0.04380,,,,,,,,,,,,,,,,,,,,,,,,,,0,0,0,0,0
1.9359,1783190499.3227,1,1,2.0000,0.0000,1.44681,0.22266,-2.78018,0.98669,1.57080,0.00001,-0.14512,-0.38002,0.04377,,,,,,,,,,,,,,,,,,,,,,,,,,0,0,0,0,0
1.9519,1783190499.3387,1,1,2.0000,0.0000,1.44681,0.22251,-2.78022,0.98688,1.57080,0.00001,-0.14512,-0.38002,0.04373,,,,,,,,,,,,,,,,,,,,,,,,,,0,0,0,0,0
1.9602,1783190499.3470,1,1,2.0000,0.0000,1.44681,0.22245,-2.78023,0.98695,1.57080,0.00001,-0.14512,-0.38002,0.04372,,,,,,,,,,,,,,,,,,,,,,,,,,0,0,0,0,0
1.9701,1783190499.3570,1,1,2.0000,0.0000,1.44681,0.22229,-2.78027,0.98715,1.57080,0.00001,-0.14512,-0.38002,0.04367,,,,,,,,,,,,,,,,,,,,,,,,,,0,0,0,0,0
1.9800,1783190499.3669,1,1,2.0000,0.0000,1.44681,0.22227,-2.78028,0.98717,1.57080,0.00001,-0.14512,-0.38002,0.04367,,,,,,,,,,,,,,,,,,,,,,,,,,0,0,0,0,0
1.9904,1783190499.3773,1,1,2.0000,0.0000,1.44681,0.22213,-2.78031,0.98735,1.57080,0.00001,-0.14512,-0.38002,0.04363,,,,,,,,,,,,,,,,,,,,,,,,,,0,0,0,0,0
1.9907,1783190499.3775,1,1,2.0000,0.0000,1.44681,0.22213,-2.78031,0.98735,1.57080,0.00001,-0.14512,-0.38002,0.04363,,,,,,,,,,,,,,,,,,,,,,,,,,0,0,0,0,0
2.0051,1783190499.3919,1,1,2.0000,0.0000,1.44681,0.22191,-2.78037,0.98762,1.57080,0.00001,-0.14512,-0.38002,0.04358,,,,,,,,,,,,,,,,,,,,,,,,,,0,0,0,0,0
2.0110,1783190499.3979,1,1,2.0000,0.0000,1.44681,0.22191,-2.78037,0.98763,1.57080,0.00001,-0.14512,-0.38002,0.04358,,,,,,,,,,,,,,,,,,,,,,,,,,0,0,0,0,0
2.0241,1783190499.4109,1,1,2.0000,0.0000,1.44681,0.22180,-2.78039,0.98776,1.57080,0.00001,-0.14512,-0.38002,0.04355,,,,,,,,,,,,,,,,,,,,,,,,,,0,0,0,0,0
2.0297,1783190499.4165,1,1,2.0000,0.0000,1.44681,0.22174,-2.78041,0.98783,1.57080,0.00001,-0.14512,-0.38002,0.04353,,,,,,,,,,,,,,,,,,,,,,,,,,0,0,0,0,0
2.0504,1783190499.4373,1,1,2.0000,0.0000,1.44681,0.22152,-2.78046,0.98811,1.57080,0.00001,-0.14512,-0.38002,0.04348,,,,,,,,,,,,,,,,,,,,,,,,,,0,0,0,0,0
2.0529,1783190499.4397,1,1,2.0000,0.0000,1.44681,0.22152,-2.78046,0.98811,1.57080,0.00001,-0.14512,-0.38002,0.04348,,,,,,,,,,,,,,,,,,,,,,,,,,0,0,0,0,0
2.0533,1783190499.4401,1,1,2.0000,0.0000,1.44681,0.22152,-2.78046,0.98811,1.57080,0.00001,-0.14512,-0.38002,0.04348,,,,,,,,,,,,,,,,,,,,,,,,,,0,0,0,0,0
2.0600,1783190499.4469,1,1,2.0000,0.0000,1.44681,0.22138,-2.78050,0.98828,1.57080,0.00001,-0.14512,-0.38002,0.04344,,,,,,,,,,,,,,,,,,,,,,,,,,0,0,0,0,0
2.0711,1783190499.4579,1,1,2.0000,0.0000,1.44681,0.22130,-2.78052,0.98838,1.57080,0.00001,-0.14512,-0.38002,0.04342,,,,,,,,,,,,,,,,,,,,,,,,,,0,0,0,0,0
2.0838,1783190499.4706,1,1,2.0000,0.0000,1.44681,0.22120,-2.78055,0.98852,1.57080,0.00001,-0.14512,-0.38002,0.04339,,,,,,,,,,,,,,,,,,,,,,,,,,0,0,0,0,0
2.1504,1783190499.5373,1,1,2.0000,0.0000,1.44681,0.22048,-2.78072,0.98941,1.57080,0.00001,-0.14512,-0.38002,0.04321,,,,,,,,,,,,,,,,,,,,,,,,,,0,0,0,0,0
2.1547,1783190499.5416,1,1,2.0000,0.0000,1.44681,0.22048,-2.78072,0.98941,1.57080,0.00001,-0.14512,-0.38002,0.04321,,,,,,,,,,,,,,,,,,,,,,,,,,0,0,0,0,0
2.1552,1783190499.5421,1,1,2.0000,0.0000,1.44681,0.22048,-2.78072,0.98941,1.57080,0.00001,-0.14512,-0.38002,0.04321,,,,,,,,,,,,,,,,,,,,,,,,,,0,0,0,0,0
2.1557,1783190499.5425,1,1,2.0000,0.0000,1.44681,0.22048,-2.78072,0.98941,1.57080,0.00001,-0.14512,-0.38002,0.04321,,,,,,,,,,,,,,,,,,,,,,,,,,0,0,0,0,0
2.1560,1783190499.5428,1,1,2.0000,0.0000,1.44681,0.22048,-2.78072,0.98941,1.57080,0.00001,-0.14512,-0.38002,0.04321,,,,,,,,,,,,,,,,,,,,,,,,,,0,0,0,0,0
2.1624,1783190499.5492,1,1,2.0000,0.0000,1.44681,0.22043,-2.78074,0.98947,1.57080,0.00001,-0.14512,-0.38002,0.04320,,,,,,,,,,,,,,,,,,,,,,,,,,0,0,0,0,0
2.1702,1783190499.5570,1,1,2.0000,0.0000,1.44681,0.22032,-2.78076,0.98961,1.57080,0.00001,-0.14512,-0.38002,0.04317,,,,,,,,,,,,,,,,,,,,,,,,,,0,0,0,0,0
2.1704,1783190499.5572,1,1,2.0000,0.0000,1.44681,0.22032,-2.78076,0.98961,1.57080,0.00001,-0.14512,-0.38002,0.04317,,,,,,,,,,,,,,,,,,,,,,,,,,0,0,0,0,0
2.1836,1783190499.5705,1,1,2.0000,0.0000,1.44681,0.22010,-2.78082,0.98988,1.57080,0.00001,-0.14512,-0.38002,0.04311,,,,,,,,,,,,,,,,,,,,,,,,,,0,0,0,0,0
2.1967,1783190499.5835,1,1,2.0000,0.0000,1.44681,0.22006,-2.78083,0.98994,1.57080,0.00001,-0.14512,-0.38002,0.04310,,,,,,,,,,,,,,,,,,,,,,,,,,0,0,0,0,0
2.2070,1783190499.5938,1,1,2.0000,0.0000,1.44681,0.21988,-2.78087,0.99016,1.57080,0.00001,-0.14512,-0.38002,0.04306,,,,,,,,,,,,,,,,,,,,,,,,,,0,0,0,0,0
2.2129,1783190499.5998,1,1,2.0000,0.0000,1.44681,0.21981,-2.78089,0.99025,1.57080,0.00001,-0.14512,-0.38002,0.04304,,,,,,,,,,,,,,,,,,,,,,,,,,0,0,0,0,0
2.2134,1783190499.6002,1,1,2.0000,0.0000,1.44681,0.21981,-2.78089,0.99025,1.57080,0.00001,-0.14512,-0.38002,0.04304,,,,,,,,,,,,,,,,,,,,,,,,,,0,0,0,0,0
2.2298,1783190499.6167,1,1,2.0000,0.0000,1.44681,0.21972,-2.78091,0.99037,1.57080,0.00001,-0.14512,-0.38002,0.04301,,,,,,,,,,,,,,,,,,,,,,,,,,0,0,0,0,0
2.2354,1783190499.6223,1,1,2.0000,0.0000,1.44681,0.21959,-2.78095,0.99053,1.57080,0.00001,-0.14512,-0.38002,0.04298,,,,,,,,,,,,,,,,,,,,,,,,,,0,0,0,0,0
2.2406,1783190499.6275,1,1,2.0000,0.0000,1.44681,0.21952,-2.78096,0.99062,1.57080,0.00001,-0.14512,-0.38002,0.04296,,,,,,,,,,,,,,,,,,,,,,,,,,0,0,0,0,0
2.2560,1783190499.6429,1,1,2.0000,0.0000,1.44681,0.21940,-2.78099,0.99076,1.57080,0.00001,-0.14512,-0.38002,0.04293,,,,,,,,,,,,,,,,,,,,,,,,,,0,0,0,0,0
2.2647,1783190499.6515,1,1,2.0000,0.0000,1.44681,0.21929,-2.78102,0.99090,1.57080,0.00001,-0.14512,-0.38002,0.04290,,,,,,,,,,,,,,,,,,,,,,,,,,0,0,0,0,0
2.2752,1783190499.6620,1,1,2.0000,0.0000,1.44681,0.21915,-2.78105,0.99107,1.57080,0.00001,-0.14512,-0.38002,0.04287,,,,,,,,,,,,,,,,,,,,,,,,,,0,0,0,0,0
2.2834,1783190499.6702,1,1,2.0000,0.0000,1.44681,0.21911,-2.78107,0.99113,1.57080,0.00001,-0.14512,-0.38002,0.04286,,,,,,,,,,,,,,,,,,,,,,,,,,0,0,0,0,0
2.2836,1783190499.6705,1,1,2.0000,0.0000,1.44681,0.21911,-2.78107,0.99113,1.57080,0.00001,-0.14512,-0.38002,0.04286,,,,,,,,,,,,,,,,,,,,,,,,,,0,0,0,0,0
2.2924,1783190499.6792,1,1,2.0000,0.0000,1.44681,0.21899,-2.78109,0.99126,1.57080,0.00001,-0.14512,-0.38002,0.04283,,,,,,,,,,,,,,,,,,,,,,,,,,0,0,0,0,0
2.2927,1783190499.6795,1,1,2.0000,0.0000,1.44681,0.21899,-2.78109,0.99126,1.57080,0.00001,-0.14512,-0.38002,0.04283,,,,,,,,,,,,,,,,,,,,,,,,,,0,0,0,0,0
2.3110,1783190499.6978,1,1,2.0000,0.0000,1.44681,0.21878,-2.78115,0.99154,1.57080,0.00001,-0.14512,-0.38002,0.04277,,,,,,,,,,,,,,,,,,,,,,,,,,0,0,0,0,0
2.3112,1783190499.6981,1,1,2.0000,0.0000,1.44681,0.21878,-2.78115,0.99154,1.57080,0.00001,-0.14512,-0.38002,0.04277,,,,,,,,,,,,,,,,,,,,,,,,,,0,0,0,0,0
2.3198,1783190499.7066,1,1,2.0000,0.0000,1.44681,0.21869,-2.78117,0.99164,1.57080,0.00001,-0.14512,-0.38002,0.04275,,,,,,,,,,,,,,,,,,,,,,,,,,0,0,0,0,0
2.3384,1783190499.7253,1,1,2.0000,0.0000,1.44681,0.21848,-2.78122,0.99191,1.57080,0.00001,-0.14512,-0.38002,0.04270,,,,,,,,,,,,,,,,,,,,,,,,,,0,0,0,0,0
2.3387,1783190499.7255,1,1,2.0000,0.0000,1.44681,0.21848,-2.78122,0.99191,1.57080,0.00001,-0.14512,-0.38002,0.04270,,,,,,,,,,,,,,,,,,,,,,,,,,0,0,0,0,0
2.3467,1783190499.7336,1,1,2.0000,0.0000,1.44681,0.21840,-2.78124,0.99201,1.57080,0.00001,-0.14512,-0.38002,0.04267,,,,,,,,,,,,,,,,,,,,,,,,,,0,0,0,0,0
2.3574,1783190499.7442,1,1,2.0000,0.0000,1.44681,0.21827,-2.78127,0.99217,1.57080,0.00001,-0.14512,-0.38002,0.04264,,,,,,,,,,,,,,,,,,,,,,,,,,0,0,0,0,0
2.3641,1783190499.7509,1,1,2.0000,0.0000,1.44681,0.21813,-2.78131,0.99235,1.57080,0.00001,-0.14512,-0.38002,0.04261,,,,,,,,,,,,,,,,,,,,,,,,,,0,0,0,0,0
2.3702,1783190499.7570,1,1,2.0000,0.0000,1.44681,0.21811,-2.78131,0.99236,1.57080,0.00001,-0.14512,-0.38002,0.04260,,,,,,,,,,,,,,,,,,,,,,,,,,0,0,0,0,0
2.3704,1783190499.7573,1,1,2.0000,0.0000,1.44681,0.21811,-2.78131,0.99236,1.57080,0.00001,-0.14512,-0.38002,0.04260,,,,,,,,,,,,,,,,,,,,,,,,,,0,0,0,0,0
2.3835,1783190499.7703,1,1,2.0000,0.0000,1.44681,0.21797,-2.78135,0.99254,1.57080,0.00001,-0.14512,-0.38002,0.04257,,,,,,,,,,,,,,,,,,,,,,,,,,0,0,0,0,0
2.3838,1783190499.7706,1,1,2.0000,0.0000,1.44681,0.21797,-2.78135,0.99254,1.57080,0.00001,-0.14512,-0.38002,0.04257,,,,,,,,,,,,,,,,,,,,,,,,,,0,0,0,0,0
2.3925,1783190499.7793,1,1,2.0000,0.0000,1.44681,0.21783,-2.78138,0.99272,1.57080,0.00001,-0.14512,-0.38002,0.04253,,,,,,,,,,,,,,,,,,,,,,,,,,0,0,0,0,0
2.4093,1783190499.7961,1,1,2.0000,0.0000,1.44681,0.21774,-2.78140,0.99284,1.57080,0.00001,-0.14512,-0.38002,0.04251,,,,,,,,,,,,,,,,,,,,,,,,,,0,0,0,0,0
2.4102,1783190499.7970,1,1,2.0000,0.0000,1.44681,0.21767,-2.78142,0.99291,1.57080,0.00001,-0.14512,-0.38002,0.04249,,,,,,,,,,,,,,,,,,,,,,,,,,0,0,0,0,0
2.4195,1783190499.8063,1,1,2.0000,0.0000,1.44681,0.21753,-2.78145,0.99309,1.57080,0.00001,-0.14512,-0.38002,0.04245,,,,,,,,,,,,,,,,,,,,,,,,,,0,0,0,0,0
2.4201,1783190499.8069,1,1,2.0000,0.0000,1.44681,0.21753,-2.78145,0.99309,1.57080,0.00001,-0.14512,-0.38002,0.04245,,,,,,,,,,,,,,,,,,,,,,,,,,0,0,0,0,0
2.4302,1783190499.8170,1,1,2.0000,0.0000,1.44681,0.21745,-2.78147,0.99319,1.57080,0.00001,-0.14512,-0.38002,0.04243,,,,,,,,,,,,,,,,,,,,,,,,,,0,0,0,0,0
2.4397,1783190499.8266,1,1,2.0000,0.0000,1.44681,0.21737,-2.78149,0.99329,1.57080,0.00001,-0.14512,-0.38002,0.04241,,,,,,,,,,,,,,,,,,,,,,,,,,0,0,0,0,0
2.4624,1783190499.8493,1,1,2.0000,0.0000,1.44681,0.21709,-2.78156,0.99364,1.57080,0.00001,-0.14512,-0.38002,0.04234,,,,,,,,,,,,,,,,,,,,,,,,,,0,0,0,0,0
2.4628,1783190499.8497,1,1,2.0000,0.0000,1.44681,0.21709,-2.78156,0.99364,1.57080,0.00001,-0.14512,-0.38002,0.04234,,,,,,,,,,,,,,,,,,,,,,,,,,0,0,0,0,0
2.4646,1783190499.8515,1,1,2.0000,0.0000,1.44681,0.21709,-2.78156,0.99364,1.57080,0.00001,-0.14512,-0.38002,0.04234,,,,,,,,,,,,,,,,,,,,,,,,,,0,0,0,0,0
2.4717,1783190499.8586,1,1,2.0000,0.0000,1.44681,0.21703,-2.78158,0.99372,1.57080,0.00001,-0.14512,-0.38002,0.04233,,,,,,,,,,,,,,,,,,,,,,,,,,0,0,0,0,0
2.4801,1783190499.8669,1,1,2.0000,0.0000,1.44681,0.21693,-2.78160,0.99384,1.57080,0.00001,-0.14512,-0.38002,0.04230,,,,,,,,,,,,,,,,,,,,,,,,,,0,0,0,0,0
2.4896,1783190499.8764,1,1,2.0000,0.0000,1.44681,0.21687,-2.78162,0.99392,1.57080,0.00001,-0.14512,-0.38002,0.04228,,,,,,,,,,,,,,,,,,,,,,,,,,0,0,0,0,0
2.5004,1783190499.8872,1,1,2.0000,0.0000,1.44681,0.21677,-2.78164,0.99404,1.57080,0.00001,-0.14512,-0.38002,0.04226,,,,,,,,,,,,,,,,,,,,,,,,,,0,0,0,0,0
2.5008,1783190499.8876,1,1,2.0000,0.0000,1.44681,0.21677,-2.78164,0.99404,1.57080,0.00001,-0.14512,-0.38002,0.04226,,,,,,,,,,,,,,,,,,,,,,,,,,0,0,0,0,0
2.5120,1783190499.8988,1,1,2.0000,0.0000,1.44681,0.21656,-2.78169,0.99430,1.57080,0.00001,-0.14512,-0.38002,0.04221,,,,,,,,,,,,,,,,,,,,,,,,,,0,0,0,0,0
2.5123,1783190499.8991,1,1,2.0000,0.0000,1.44681,0.21656,-2.78169,0.99430,1.57080,0.00001,-0.14512,-0.38002,0.04221,,,,,,,,,,,,,,,,,,,,,,,,,,0,0,0,0,0
2.5248,1783190499.9116,1,1,2.0000,0.0000,1.44681,0.21648,-2.78171,0.99440,1.57080,0.00001,-0.14512,-0.38002,0.04219,,,,,,,,,,,,,,,,,,,,,,,,,,0,0,0,0,0
2.5301,1783190499.9170,1,1,2.0000,0.0000,1.44681,0.21642,-2.78173,0.99447,1.57080,0.00001,-0.14512,-0.38002,0.04217,,,,,,,,,,,,,,,,,,,,,,,,,,0,0,0,0,0
2.5415,1783190499.9283,1,1,2.0000,0.0000,1.44681,0.21632,-2.78175,0.99460,1.57080,0.00001,-0.14512,-0.38002,0.04214,,,,,,,,,,,,,,,,,,,,,,,,,,0,0,0,0,0
2.5516,1783190499.9385,1,1,2.0000,0.0000,1.44681,0.21625,-2.78177,0.99469,1.57080,0.00001,-0.14512,-0.38002,0.04213,,,,,,,,,,,,,,,,,,,,,,,,,,0,0,0,0,0
2.5628,1783190499.9497,1,1,2.0000,0.0000,1.44681,0.21610,-2.78181,0.99488,1.57080,0.00001,-0.14512,-0.38002,0.04209,,,,,,,,,,,,,,,,,,,,,,,,,,0,0,0,0,0
2.5631,1783190499.9500,1,1,2.0000,0.0000,1.44681,0.21610,-2.78181,0.99488,1.57080,0.00001,-0.14512,-0.38002,0.04209,,,,,,,,,,,,,,,,,,,,,,,,,,0,0,0,0,0
2.5745,1783190499.9613,1,1,2.0000,0.0000,1.44681,0.21588,-2.78186,0.99514,1.57080,0.00001,-0.14512,-0.38002,0.04203,,,,,,,,,,,,,,,,,,,,,,,,,,0,0,0,0,0
2.5812,1783190499.9680,1,1,2.0000,0.0000,1.44681,0.21588,-2.78186,0.99514,1.57080,0.00001,-0.14512,-0.38002,0.04203,,,,,,,,,,,,,,,,,,,,,,,,,,0,0,0,0,0
2.5815,1783190499.9684,1,1,2.0000,0.0000,1.44681,0.21588,-2.78186,0.99514,1.57080,0.00001,-0.14512,-0.38002,0.04203,,,,,,,,,,,,,,,,,,,,,,,,,,0,0,0,0,0
2.5896,1783190499.9764,1,1,2.0000,0.0000,1.44681,0.21585,-2.78187,0.99518,1.57080,0.00001,-0.14512,-0.38002,0.04202,,,,,,,,,,,,,,,,,,,,,,,,,,0,0,0,0,0
2.6007,1783190499.9875,1,1,2.0000,0.0000,1.44681,0.21571,-2.78190,0.99536,1.57080,0.00001,-0.14512,-0.38002,0.04199,,,,,,,,,,,,,,,,,,,,,,,,,,0,0,0,0,0
2.6133,1783190500.0001,1,1,2.0000,0.0000,1.44681,0.21564,-2.78192,0.99545,1.57080,0.00001,-0.14512,-0.38002,0.04197,,,,,,,,,,,,,,,,,,,,,,,,,,0,0,0,0,0
2.6214,1783190500.0083,1,1,2.0000,0.0000,1.44681,0.21555,-2.78194,0.99555,1.57080,0.00001,-0.14512,-0.38002,0.04195,,,,,,,,,,,,,,,,,,,,,,,,,,0,0,0,0,0
2.6319,1783190500.0187,1,1,2.0000,0.0000,1.44681,0.21535,-2.78199,0.99581,1.57080,0.00001,-0.14512,-0.38002,0.04190,,,,,,,,,,,,,,,,,,,,,,,,,,0,0,0,0,0
2.6436,1783190500.0304,1,1,2.0000,0.0000,1.44681,0.21527,-2.78201,0.99591,1.57080,0.00001,-0.14512,-0.38002,0.04188,,,,,,,,,,,,,,,,,,,,,,,,,,0,0,0,0,0
2.6504,1783190500.0372,1,1,2.0000,0.0000,1.44681,0.21521,-2.78203,0.99599,1.57080,0.00001,-0.14512,-0.38002,0.04186,,,,,,,,,,,,,,,,,,,,,,,,,,0,0,0,0,0
2.6619,1783190500.0487,1,1,2.0000,0.0000,1.44681,0.21510,-2.78205,0.99611,1.57080,0.00001,-0.14512,-0.38002,0.04183,,,,,,,,,,,,,,,,,,,,,,,,,,0,0,0,0,0
2.6626,1783190500.0495,1,1,2.0000,0.0000,1.44681,0.21504,-2.78207,0.99619,1.57080,0.00001,-0.14512,-0.38002,0.04182,,,,,,,,,,,,,,,,,,,,,,,,,,0,0,0,0,0
2.6743,1783190500.0611,1,1,2.0000,0.0000,1.44681,0.21500,-2.78208,0.99625,1.57080,0.00001,-0.14512,-0.38002,0.04181,,,,,,,,,,,,,,,,,,,,,,,,,,0,0,0,0,0
2.6745,1783190500.0613,1,1,2.0000,0.0000,1.44681,0.21500,-2.78208,0.99625,1.57080,0.00001,-0.14512,-0.38002,0.04181,,,,,,,,,,,,,,,,,,,,,,,,,,0,0,0,0,0
2.6838,1783190500.0706,1,1,2.0000,0.0000,1.44681,0.21488,-2.78211,0.99639,1.57080,0.00001,-0.14512,-0.38002,0.04178,,,,,,,,,,,,,,,,,,,,,,,,,,0,0,0,0,0
2.6840,1783190500.0709,1,1,2.0000,0.0000,1.44681,0.21488,-2.78211,0.99639,1.57080,0.00001,-0.14512,-0.38002,0.04178,,,,,,,,,,,,,,,,,,,,,,,,,,0,0,0,0,0
2.6934,1783190500.0803,1,1,2.0000,0.0000,1.44681,0.21474,-2.78214,0.99657,1.57080,0.00001,-0.14512,-0.38002,0.04174,,,,,,,,,,,,,,,,,,,,,,,,,,0,0,0,0,0
2.6996,1783190500.0864,1,1,2.0000,0.0000,1.44681,0.21467,-2.78216,0.99666,1.57080,0.00001,-0.14512,-0.38002,0.04172,,,,,,,,,,,,,,,,,,,,,,,,,,0,0,0,0,0
2.7201,1783190500.1069,1,1,2.0000,0.0000,1.44681,0.21449,-2.78220,0.99687,1.57080,0.00002,-0.14512,-0.38002,0.04168,,,,,,,,,,,,,,,,,,,,,,,,,,0,0,0,0,0
2.7355,1783190500.1223,1,1,2.0000,0.0000,1.44681,0.21439,-2.78223,0.99701,1.57080,0.00002,-0.14512,-0.38002,0.04165,,,,,,,,,,,,,,,,,,,,,,,,,,0,0,0,0,0
2.7395,1783190500.1263,1,1,2.0000,0.0000,1.44681,0.21434,-2.78224,0.99707,1.57080,0.00002,-0.14512,-0.38002,0.04164,,,,,,,,,,,,,,,,,,,,,,,,,,0,0,0,0,0
2.7399,1783190500.1267,1,1,2.0000,0.0000,1.44681,0.21434,-2.78224,0.99707,1.57080,0.00002,-0.14512,-0.38002,0.04164,,,,,,,,,,,,,,,,,,,,,,,,,,0,0,0,0,0
2.7510,1783190500.1379,1,1,2.0000,0.0000,1.44681,0.21413,-2.78229,0.99733,1.57080,0.00002,-0.14512,-0.38002,0.04159,,,,,,,,,,,,,,,,,,,,,,,,,,0,0,0,0,0
2.7513,1783190500.1382,1,1,2.0000,0.0000,1.44681,0.21413,-2.78229,0.99733,1.57080,0.00002,-0.14512,-0.38002,0.04159,,,,,,,,,,,,,,,,,,,,,,,,,,0,0,0,0,0
2.7711,1783190500.1580,1,1,2.0000,0.0000,1.44681,0.21399,-2.78232,0.99750,1.57080,0.00002,-0.14512,-0.38002,0.04155,,,,,,,,,,,,,,,,,,,,,,,,,,0,0,0,0,0
2.7833,1783190500.1701,1,1,2.0000,0.0000,1.44681,0.21383,-2.78236,0.99770,1.57080,0.00002,-0.14512,-0.38002,0.04151,,,,,,,,,,,,,,,,,,,,,,,,,,0,0,0,0,0
2.7835,1783190500.1704,1,1,2.0000,0.0000,1.44681,0.21383,-2.78236,0.99770,1.57080,0.00002,-0.14512,-0.38002,0.04151,,,,,,,,,,,,,,,,,,,,,,,,,,0,0,0,0,0
2.7905,1783190500.1774,1,1,2.0000,0.0000,1.44681,0.21381,-2.78237,0.99772,1.57080,0.00002,-0.14512,-0.38002,0.04151,,,,,,,,,,,,,,,,,,,,,,,,,,0,0,0,0,0
2.8015,1783190500.1883,1,1,2.0000,0.0000,1.44681,0.21373,-2.78239,0.99783,1.57080,0.00002,-0.14512,-0.38002,0.04148,,,,,,,,,,,,,,,,,,,,,,,,,,0,0,0,0,0
2.8096,1783190500.1964,1,1,2.0000,0.0000,1.44681,0.21359,-2.78242,0.99800,1.57080,0.00002,-0.14512,-0.38002,0.04145,,,,,,,,,,,,,,,,,,,,,,,,,,0,0,0,0,0
2.8230,1783190500.2098,1,1,2.0000,0.0000,1.44681,0.21344,-2.78246,0.99818,1.57080,0.00002,-0.14512,-0.38002,0.04141,,,,,,,,,,,,,,,,,,,,,,,,,,0,0,0,0,0
2.8316,1783190500.2184,1,1,2.0000,0.0000,1.44681,0.21338,-2.78247,0.99826,1.57080,0.00002,-0.14512,-0.38002,0.04139,,,,,,,,,,,,,,,,,,,,,,,,,,0,0,0,0,0
2.8434,1783190500.2302,1,1,2.0000,0.0000,1.44681,0.21322,-2.78251,0.99846,1.57080,0.00002,-0.14512,-0.38002,0.04135,,,,,,,,,,,,,,,,,,,,,,,,,,0,0,0,0,0
2.8497,1783190500.2365,1,1,2.0000,0.0000,1.44681,0.21322,-2.78251,0.99846,1.57080,0.00002,-0.14512,-0.38002,0.04135,,,,,,,,,,,,,,,,,,,,,,,,,,0,0,0,0,0
2.8505,1783190500.2374,1,1,2.0000,0.0000,1.44681,0.21320,-2.78252,0.99848,1.57080,0.00002,-0.14512,-0.38002,0.04135,,,,,,,,,,,,,,,,,,,,,,,,,,0,0,0,0,0
2.8733,1783190500.2601,1,1,2.0000,0.0000,1.44681,0.21291,-2.78259,0.99884,1.57080,0.00002,-0.14512,-0.38002,0.04128,,,,,,,,,,,,,,,,,,,,,,,,,,0,0,0,0,0
2.8736,1783190500.2604,1,1,2.0000,0.0000,1.44681,0.21291,-2.78259,0.99884,1.57080,0.00002,-0.14512,-0.38002,0.04128,,,,,,,,,,,,,,,,,,,,,,,,,,0,0,0,0,0
2.8826,1783190500.2694,1,1,2.0000,0.0000,1.44681,0.21283,-2.78261,0.99895,1.57080,0.00002,-0.14512,-0.38002,0.04125,,,,,,,,,,,,,,,,,,,,,,,,,,0,0,0,0,0
2.8829,1783190500.2697,1,1,2.0000,0.0000,1.44681,0.21283,-2.78261,0.99895,1.57080,0.00002,-0.14512,-0.38002,0.04125,,,,,,,,,,,,,,,,,,,,,,,,,,0,0,0,0,0
2.8909,1783190500.2777,1,1,2.0000,0.0000,1.44681,0.21274,-2.78263,0.99905,1.57080,0.00002,-0.14512,-0.38002,0.04123,,,,,,,,,,,,,,,,,,,,,,,,,,0,0,0,0,0
2.9022,1783190500.2890,1,1,2.0000,0.0000,1.44681,0.21261,-2.78266,0.99921,1.57080,0.00002,-0.14512,-0.38002,0.04120,,,,,,,,,,,,,,,,,,,,,,,,,,0,0,0,0,0
2.9098,1783190500.2966,1,1,2.0000,0.0000,1.44681,0.21254,-2.78268,0.99930,1.57080,0.00002,-0.14512,-0.38002,0.04118,,,,,,,,,,,,,,,,,,,,,,,,,,0,0,0,0,0
2.9209,1783190500.3078,1,1,2.0000,0.0000,1.44681,0.21244,-2.78270,0.99942,1.57080,0.00002,-0.14512,-0.38002,0.04116,,,,,,,,,,,,,,,,,,,,,,,,,,0,0,0,0,0
2.9307,1783190500.3176,1,1,2.0000,0.0000,1.44681,0.21224,-2.78275,0.99967,1.57080,0.00002,-0.14512,-0.38002,0.04111,,,,,,,,,,,,,,,,,,,,,,,,,,0,0,0,0,0
2.9396,1783190500.3264,1,1,2.0000,0.0000,1.44681,0.21217,-2.78277,0.99976,1.57080,0.00002,-0.14512,-0.38002,0.04109,,,,,,,,,,,,,,,,,,,,,,,,,,0,0,0,0,0
2.9539,1783190500.3407,1,1,2.0000,0.0000,1.44681,0.21210,-2.78278,0.99985,1.57080,0.00002,-0.14512,-0.38002,0.04107,,,,,,,,,,,,,,,,,,,,,,,,,,0,0,0,0,0
2.9599,1783190500.3467,1,1,2.0000,0.0000,1.44681,0.21200,-2.78281,0.99998,1.57080,0.00002,-0.14512,-0.38002,0.04104,,,,,,,,,,,,,,,,,,,,,,,,,,0,0,0,0,0
2.9719,1783190500.3587,1,1,2.0000,0.0000,1.44681,0.21192,-2.78283,1.00007,1.57080,0.00002,-0.14512,-0.38002,0.04103,,,,,,,,,,,,,,,,,,,,,,,,,,0,0,0,0,0
2.9851,1783190500.3719,1,1,2.0000,0.0000,1.44681,0.21177,-2.78286,1.00025,1.57080,0.00002,-0.14512,-0.38002,0.04099,,,,,,,,,,,,,,,,,,,,,,,,,,0,0,0,0,0
2.9895,1783190500.3763,1,1,2.0000,0.0000,1.44681,0.21170,-2.78288,1.00034,1.57080,0.00002,-0.14512,-0.38002,0.04097,,,,,,,,,,,,,,,,,,,,,,,,,,0,0,0,0,0
2.9899,1783190500.3767,1,1,2.0000,0.0000,1.44681,0.21170,-2.78288,1.00034,1.57080,0.00002,-0.14512,-0.38002,0.04097,,,,,,,,,,,,,,,,,,,,,,,,,,0,0,0,0,0
3.0005,1783190500.3873,1,1,2.0000,0.0000,1.44681,0.21156,-2.78291,1.00052,1.57080,0.00002,-0.14512,-0.38002,0.04093,,,,,,,,,,,,,,,,,,,,,,,,,,0,0,0,0,0
3.0094,1783190500.3963,1,1,2.0000,0.0000,1.44681,0.21151,-2.78293,1.00058,1.57080,0.00002,-0.14512,-0.38002,0.04092,,,,,,,,,,,,,,,,,,,,,,,,,,0,0,0,0,0
3.0097,1783190500.3966,1,1,2.0000,0.0000,1.44681,0.21151,-2.78293,1.00058,1.57080,0.00002,-0.14512,-0.38002,0.04092,,,,,,,,,,,,,,,,,,,,,,,,,,0,0,0,0,0
3.0231,1783190500.4099,1,1,2.0000,0.0000,1.44681,0.21126,-2.78299,1.00089,1.57080,0.00002,-0.14512,-0.38002,0.04086,,,,,,,,,,,,,,,,,,,,,,,,,,0,0,0,0,0
3.0234,1783190500.4102,1,1,2.0000,0.0000,1.44681,0.21126,-2.78299,1.00089,1.57080,0.00002,-0.14512,-0.38002,0.04086,,,,,,,,,,,,,,,,,,,,,,,,,,0,0,0,0,0
3.0301,1783190500.4169,1,1,2.0000,0.0000,1.44681,0.21126,-2.78299,1.00089,1.57080,0.00002,-0.14512,-0.38002,0.04086,,,,,,,,,,,,,,,,,,,,,,,,,,0,0,0,0,0
3.0411,1783190500.4279,1,1,2.0000,0.0000,1.44681,0.21116,-2.78301,1.00101,1.57080,0.00002,-0.14512,-0.38002,0.04083,,,,,,,,,,,,,,,,,,,,,,,,,,0,0,0,0,0
3.0497,1783190500.4365,1,1,2.0000,0.0000,1.44681,0.21103,-2.78304,1.00117,1.57080,0.00002,-0.14512,-0.38002,0.04080,,,,,,,,,,,,,,,,,,,,,,,,,,0,0,0,0,0
3.0607,1783190500.4475,1,1,2.0000,0.0000,1.44681,0.21089,-2.78308,1.00135,1.57080,0.00002,-0.14512,-0.38002,0.04076,,,,,,,,,,,,,,,,,,,,,,,,,,0,0,0,0,0
3.0716,1783190500.4585,1,1,2.0000,0.0000,1.44681,0.21080,-2.78310,1.00147,1.57080,0.00002,-0.14512,-0.38002,0.04074,,,,,,,,,,,,,,,,,,,,,,,,,,0,0,0,0,0
3.0803,1783190500.4671,1,1,2.0000,0.0000,1.44681,0.21066,-2.78313,1.00163,1.57080,0.00002,-0.14512,-0.38002,0.04071,,,,,,,,,,,,,,,,,,,,,,,,,,0,0,0,0,0
3.0911,1783190500.4779,1,1,2.0000,0.0000,1.44681,0.21058,-2.78315,1.00174,1.57080,0.00002,-0.14512,-0.38002,0.04068,,,,,,,,,,,,,,,,,,,,,,,,,,0,0,0,0,0
3.1021,1783190500.4890,1,1,2.0000,0.0000,1.44681,0.21050,-2.78317,1.00184,1.57080,0.00002,-0.14512,-0.38002,0.04066,,,,,,,,,,,,,,,,,,,,,,,,,,0,0,0,0,0
3.1108,1783190500.4976,1,1,2.0000,0.0000,1.44681,0.21029,-2.78322,1.00209,1.57080,0.00002,-0.14512,-0.38002,0.04061,,,,,,,,,,,,,,,,,,,,,,,,,,0,0,0,0,0
3.1346,1783190500.5214,1,1,2.0000,0.0000,1.44681,0.21007,-2.78328,1.00237,1.57080,0.00002,-0.14512,-0.38002,0.04055,,,,,,,,,,,,,,,,,,,,,,,,,,0,0,0,0,0
3.1349,1783190500.5218,1,1,2.0000,0.0000,1.44681,0.21007,-2.78328,1.00237,1.57080,0.00002,-0.14512,-0.38002,0.04055,,,,,,,,,,,,,,,,,,,,,,,,,,0,0,0,0,0
3.1353,1783190500.5221,1,1,2.0000,0.0000,1.44681,0.21007,-2.78328,1.00237,1.57080,0.00002,-0.14512,-0.38002,0.04055,,,,,,,,,,,,,,,,,,,,,,,,,,0,0,0,0,0
3.1435,1783190500.5303,1,1,2.0000,0.0000,1.44681,0.20992,-2.78331,1.00255,1.57080,0.00002,-0.14512,-0.38002,0.04052,,,,,,,,,,,,,,,,,,,,,,,,,,0,0,0,0,0
3.1439,1783190500.5307,1,1,2.0000,0.0000,1.44681,0.20992,-2.78331,1.00255,1.57080,0.00002,-0.14512,-0.38002,0.04052,,,,,,,,,,,,,,,,,,,,,,,,,,0,0,0,0,0
3.1502,1783190500.5370,1,1,2.0000,0.0000,1.44681,0.20985,-2.78333,1.00264,1.57080,0.00002,-0.14512,-0.38002,0.04050,,,,,,,,,,,,,,,,,,,,,,,,,,0,0,0,0,0
3.1508,1783190500.5377,1,1,2.0000,0.0000,1.44681,0.20985,-2.78333,1.00264,1.57080,0.00002,-0.14512,-0.38002,0.04050,,,,,,,,,,,,,,,,,,,,,,,,,,0,0,0,0,0
3.1597,1783190500.5465,1,1,2.0000,0.0000,1.44681,0.20982,-2.78333,1.00268,1.57080,0.00002,-0.14512,-0.38002,0.04049,,,,,,,,,,,,,,,,,,,,,,,,,,0,0,0,0,0
3.1734,1783190500.5603,1,1,2.0000,0.0000,1.44680,0.20968,-2.78337,1.00285,1.57080,0.00002,-0.14512,-0.38002,0.04046,,,,,,,,,,,,,,,,,,,,,,,,,,0,0,0,0,0
3.1737,1783190500.5606,1,1,2.0000,0.0000,1.44680,0.20968,-2.78337,1.00285,1.57080,0.00002,-0.14512,-0.38002,0.04046,,,,,,,,,,,,,,,,,,,,,,,,,,0,0,0,0,0
3.1810,1783190500.5679,1,1,2.0000,0.0000,1.44680,0.20962,-2.78338,1.00293,1.57080,0.00002,-0.14512,-0.38002,0.04044,,,,,,,,,,,,,,,,,,,,,,,,,,0,0,0,0,0
3.1896,1783190500.5764,1,1,2.0000,0.0000,1.44680,0.20957,-2.78339,1.00299,1.57079,0.00002,-0.14512,-0.38002,0.04043,,,,,,,,,,,,,,,,,,,,,,,,,,0,0,0,0,0
3.2006,1783190500.5874,1,1,2.0000,0.0000,1.44680,0.20938,-2.78344,1.00322,1.57079,0.00002,-0.14512,-0.38002,0.04038,,,,,,,,,,,,,,,,,,,,,,,,,,0,0,0,0,0
3.2141,1783190500.6009,1,1,2.0000,0.0000,1.44680,0.20930,-2.78346,1.00333,1.57079,0.00002,-0.14512,-0.38002,0.04036,,,,,,,,,,,,,,,,,,,,,,,,,,0,0,0,0,0
3.2195,1783190500.6063,1,1,2.0000,0.0000,1.44680,0.20921,-2.78348,1.00343,1.57079,0.00002,-0.14512,-0.38002,0.04034,,,,,,,,,,,,,,,,,,,,,,,,,,0,0,0,0,0
3.2329,1783190500.6197,1,1,2.0000,0.0000,1.44680,0.20901,-2.78353,1.00368,1.57079,0.00002,-0.14512,-0.38002,0.04029,,,,,,,,,,,,,,,,,,,,,,,,,,0,0,0,0,0
3.2410,1783190500.6278,1,1,2.0000,0.0000,1.44680,0.20894,-2.78355,1.00377,1.57079,0.00002,-0.14512,-0.38002,0.04027,,,,,,,,,,,,,,,,,,,,,,,,,,0,0,0,0,0
3.2495,1783190500.6363,1,1,2.0000,0.0000,1.44680,0.20890,-2.78356,1.00382,1.57079,0.00002,-0.14512,-0.38002,0.04026,,,,,,,,,,,,,,,,,,,,,,,,,,0,0,0,0,0
3.2499,1783190500.6368,1,1,2.0000,0.0000,1.44680,0.20890,-2.78356,1.00382,1.57079,0.00002,-0.14512,-0.38002,0.04026,,,,,,,,,,,,,,,,,,,,,,,,,,0,0,0,0,0
3.2601,1783190500.6469,1,1,2.0000,0.0000,1.44680,0.20871,-2.78360,1.00405,1.57079,0.00002,-0.14512,-0.38002,0.04021,,,,,,,,,,,,,,,,,,,,,,,,,,0,0,0,0,0
3.2770,1783190500.6638,1,1,2.0000,0.0000,1.44680,0.20860,-2.78363,1.00420,1.57079,0.00002,-0.14512,-0.38002,0.04018,,,,,,,,,,,,,,,,,,,,,,,,,,0,0,0,0,0
3.2773,1783190500.6641,1,1,2.0000,0.0000,1.44680,0.20860,-2.78363,1.00420,1.57079,0.00002,-0.14512,-0.38002,0.04018,,,,,,,,,,,,,,,,,,,,,,,,,,0,0,0,0,0
3.2805,1783190500.6674,1,1,2.0000,0.0000,1.44680,0.20855,-2.78364,1.00426,1.57079,0.00002,-0.14512,-0.38002,0.04017,,,,,,,,,,,,,,,,,,,,,,,,,,0,0,0,0,0
3.2896,1783190500.6764,1,1,2.0000,0.0000,1.44680,0.20841,-2.78367,1.00442,1.57079,0.00002,-0.14512,-0.38002,0.04014,,,,,,,,,,,,,,,,,,,,,,,,,,0,0,0,0,0
3.2996,1783190500.6864,1,1,2.0000,0.0000,1.44680,0.20827,-2.78371,1.00460,1.57079,0.00002,-0.14512,-0.38002,0.04010,,,,,,,,,,,,,,,,,,,,,,,,,,0,0,0,0,0
3.3132,1783190500.7001,1,1,2.0000,0.0000,1.44680,0.20818,-2.78373,1.00472,1.57079,0.00002,-0.14512,-0.38002,0.04008,,,,,,,,,,,,,,,,,,,,,,,,,,0,0,0,0,0
3.3136,1783190500.7005,1,1,2.0000,0.0000,1.44680,0.20818,-2.78373,1.00472,1.57079,0.00002,-0.14512,-0.38002,0.04008,,,,,,,,,,,,,,,,,,,,,,,,,,0,0,0,0,0
3.3197,1783190500.7066,1,1,2.0000,0.0000,1.44680,0.20804,-2.78376,1.00488,1.57079,0.00002,-0.14512,-0.38002,0.04004,,,,,,,,,,,,,,,,,,,,,,,,,,0,0,0,0,0
3.3334,1783190500.7203,1,1,2.0000,0.0000,1.44680,0.20790,-2.78380,1.00506,1.57079,0.00002,-0.14512,-0.38002,0.04001,,,,,,,,,,,,,,,,,,,,,,,,,,0,0,0,0,0
3.3337,1783190500.7206,1,1,2.0000,0.0000,1.44680,0.20790,-2.78380,1.00506,1.57079,0.00002,-0.14512,-0.38002,0.04001,,,,,,,,,,,,,,,,,,,,,,,,,,0,0,0,0,0
3.3415,1783190500.7283,1,1,2.0000,0.0000,1.44680,0.20787,-2.78380,1.00510,1.57079,0.00002,-0.14512,-0.38002,0.04000,,,,,,,,,,,,,,,,,,,,,,,,,,0,0,0,0,0
3.3509,1783190500.7377,1,1,2.0000,0.0000,1.44680,0.20773,-2.78384,1.00528,1.57079,0.00002,-0.14512,-0.38002,0.03996,,,,,,,,,,,,,,,,,,,,,,,,,,0,0,0,0,0
3.3511,1783190500.7379,1,1,2.0000,0.0000,1.44680,0.20773,-2.78384,1.00528,1.57079,0.00002,-0.14512,-0.38002,0.03996,,,,,,,,,,,,,,,,,,,,,,,,,,0,0,0,0,0
3.3615,1783190500.7483,1,1,2.0000,0.0000,1.44680,0.20767,-2.78385,1.00535,1.57079,0.00002,-0.14512,-0.38002,0.03995,,,,,,,,,,,,,,,,,,,,,,,,,,0,0,0,0,0
3.3620,1783190500.7488,1,1,2.0000,0.0000,1.44680,0.20767,-2.78385,1.00535,1.57079,0.00002,-0.14512,-0.38002,0.03995,,,,,,,,,,,,,,,,,,,,,,,,,,0,0,0,0,0
3.3810,1783190500.7678,1,1,2.0000,0.0000,1.44680,0.20743,-2.78391,1.00564,1.57079,0.00002,-0.14512,-0.38002,0.03989,,,,,,,,,,,,,,,,,,,,,,,,,,0,0,0,0,0
3.3869,1783190500.7737,1,1,2.0000,0.0000,1.44680,0.20728,-2.78394,1.00582,1.57079,0.00002,-0.14512,-0.38002,0.03985,,,,,,,,,,,,,,,,,,,,,,,,,,0,0,0,0,0
3.3936,1783190500.7804,1,1,2.0000,0.0000,1.44680,0.20728,-2.78394,1.00582,1.57079,0.00002,-0.14512,-0.38002,0.03985,,,,,,,,,,,,,,,,,,,,,,,,,,0,0,0,0,0
3.4024,1783190500.7892,1,1,2.0000,0.0000,1.44680,0.20725,-2.78395,1.00586,1.57079,0.00002,-0.14512,-0.38002,0.03984,,,,,,,,,,,,,,,,,,,,,,,,,,0,0,0,0,0
3.4202,1783190500.8071,1,1,2.0000,0.0000,1.44680,0.20705,-2.78400,1.00611,1.57079,0.00002,-0.14512,-0.38002,0.03979,,,,,,,,,,,,,,,,,,,,,,,,,,0,0,0,0,0
3.4209,1783190500.8077,1,1,2.0000,0.0000,1.44680,0.20705,-2.78400,1.00611,1.57079,0.00002,-0.14512,-0.38002,0.03979,,,,,,,,,,,,,,,,,,,,,,,,,,0,0,0,0,0
3.4213,1783190500.8082,1,1,2.0000,0.0000,1.44680,0.20705,-2.78400,1.00611,1.57079,0.00002,-0.14512,-0.38002,0.03979,,,,,,,,,,,,,,,,,,,,,,,,,,0,0,0,0,0
3.4403,1783190500.8271,1,1,2.0000,0.0000,1.44680,0.20681,-2.78406,1.00641,1.57079,0.00002,-0.14512,-0.38002,0.03973,,,,,,,,,,,,,,,,,,,,,,,,,,0,0,0,0,0
3.4420,1783190500.8288,1,1,2.0000,0.0000,1.44680,0.20681,-2.78406,1.00641,1.57079,0.00002,-0.14512,-0.38002,0.03973,,,,,,,,,,,,,,,,,,,,,,,,,,0,0,0,0,0
3.4511,1783190500.8380,1,1,2.0000,0.0000,1.44680,0.20667,-2.78409,1.00659,1.57079,0.00002,-0.14512,-0.38002,0.03970,,,,,,,,,,,,,,,,,,,,,,,,,,0,0,0,0,0
3.4633,1783190500.8502,1,1,2.0000,0.0000,1.44680,0.20660,-2.78411,1.00667,1.57079,0.00002,-0.14512,-0.38002,0.03968,,,,,,,,,,,,,,,,,,,,,,,,,,0,0,0,0,0
3.4817,1783190500.8685,1,1,2.0000,0.0000,1.44680,0.20643,-2.78415,1.00688,1.57079,0.00002,-0.14512,-0.38002,0.03964,,,,,,,,,,,,,,,,,,,,,,,,,,0,0,0,0,0
3.4932,1783190500.8800,1,1,2.0000,0.0000,1.44680,0.20633,-2.78417,1.00700,1.57079,0.00002,-0.14512,-0.38002,0.03961,,,,,,,,,,,,,,,,,,,,,,,,,,0,0,0,0,0
3.4936,1783190500.8804,1,1,2.0000,0.0000,1.44680,0.20633,-2.78417,1.00700,1.57079,0.00002,-0.14512,-0.38002,0.03961,,,,,,,,,,,,,,,,,,,,,,,,,,0,0,0,0,0
3.4943,1783190500.8812,1,1,2.0000,0.0000,1.44680,0.20633,-2.78417,1.00700,1.57079,0.00002,-0.14512,-0.38002,0.03961,,,,,,,,,,,,,,,,,,,,,,,,,,0,0,0,0,0
3.4996,1783190500.8864,1,1,2.0000,0.0000,1.44680,0.20620,-2.78420,1.00717,1.57079,0.00002,-0.14512,-0.38002,0.03958,,,,,,,,,,,,,,,,,,,,,,,,,,0,0,0,0,0
3.4999,1783190500.8867,1,1,2.0000,0.0000,1.44680,0.20620,-2.78420,1.00717,1.57079,0.00002,-0.14512,-0.38002,0.03958,,,,,,,,,,,,,,,,,,,,,,,,,,0,0,0,0,0
3.5150,1783190500.9019,1,1,2.0000,0.0000,1.44680,0.20604,-2.78424,1.00736,1.57079,0.00002,-0.14512,-0.38002,0.03954,,,,,,,,,,,,,,,,,,,,,,,,,,0,0,0,0,0
3.5246,1783190500.9114,1,1,2.0000,0.0000,1.44680,0.20598,-2.78425,1.00744,1.57079,0.00002,-0.14512,-0.38002,0.03952,,,,,,,,,,,,,,,,,,,,,,,,,,0,0,0,0,0
3.5251,1783190500.9120,1,1,2.0000,0.0000,1.44680,0.20598,-2.78425,1.00744,1.57079,0.00002,-0.14512,-0.38002,0.03952,,,,,,,,,,,,,,,,,,,,,,,,,,0,0,0,0,0
3.5401,1783190500.9269,1,1,2.0000,0.0000,1.44680,0.20582,-2.78429,1.00764,1.57079,0.00002,-0.14512,-0.38002,0.03948,,,,,,,,,,,,,,,,,,,,,,,,,,0,0,0,0,0
3.5403,1783190500.9272,1,1,2.0000,0.0000,1.44680,0.20582,-2.78429,1.00764,1.57079,0.00002,-0.14512,-0.38002,0.03948,,,,,,,,,,,,,,,,,,,,,,,,,,0,0,0,0,0
3.5462,1783190500.9330,1,1,2.0000,0.0000,1.44680,0.20581,-2.78430,1.00766,1.57079,0.00002,-0.14512,-0.38002,0.03948,,,,,,,,,,,,,,,,,,,,,,,,,,0,0,0,0,0
3.5467,1783190500.9336,1,1,2.0000,0.0000,1.44680,0.20577,-2.78430,1.00770,1.57079,0.00002,-0.14512,-0.38002,0.03947,,,,,,,,,,,,,,,,,,,,,,,,,,0,0,0,0,0
3.5498,1783190500.9366,1,1,2.0000,0.0000,1.44680,0.20577,-2.78430,1.00770,1.57079,0.00002,-0.14512,-0.38002,0.03947,,,,,,,,,,,,,,,,,,,,,,,,,,0,0,0,0,0
3.5501,1783190500.9369,1,1,2.0000,0.0000,1.44680,0.20577,-2.78430,1.00770,1.57079,0.00002,-0.14512,-0.38002,0.03947,,,,,,,,,,,,,,,,,,,,,,,,,,0,0,0,0,0
3.5615,1783190500.9483,1,1,2.0000,0.0000,1.44680,0.20558,-2.78435,1.00793,1.57079,0.00002,-0.14512,-0.38002,0.03942,,,,,,,,,,,,,,,,,,,,,,,,,,0,0,0,0,0
3.5721,1783190500.9589,1,1,2.0000,0.0000,1.44680,0.20544,-2.78438,1.00811,1.57079,0.00002,-0.14512,-0.38002,0.03939,,,,,,,,,,,,,,,,,,,,,,,,,,0,0,0,0,0
3.5854,1783190500.9722,1,1,2.0000,0.0000,1.44680,0.20534,-2.78441,1.00823,1.57079,0.00002,-0.14512,-0.38002,0.03936,,,,,,,,,,,,,,,,,,,,,,,,,,0,0,0,0,0
3.6012,1783190500.9880,1,1,2.0000,0.0000,1.44680,0.20513,-2.78446,1.00849,1.57079,0.00002,-0.14512,-0.38002,0.03931,,,,,,,,,,,,,,,,,,,,,,,,,,0,0,0,0,0
3.6015,1783190500.9883,1,1,2.0000,0.0000,1.44680,0.20513,-2.78446,1.00849,1.57079,0.00002,-0.14512,-0.38002,0.03931,,,,,,,,,,,,,,,,,,,,,,,,,,0,0,0,0,0
3.6097,1783190500.9965,1,1,2.0000,0.0000,1.44680,0.20509,-2.78447,1.00854,1.57079,0.00002,-0.14512,-0.38002,0.03930,,,,,,,,,,,,,,,,,,,,,,,,,,0,0,0,0,0
3.6231,1783190501.0099,1,1,2.0000,0.0000,1.44680,0.20483,-2.78453,1.00886,1.57079,0.00002,-0.14512,-0.38002,0.03924,,,,,,,,,,,,,,,,,,,,,,,,,,0,0,0,0,0
3.6368,1783190501.0236,1,1,2.0000,0.0000,1.44680,0.20475,-2.78455,1.00896,1.57079,0.00002,-0.14512,-0.38002,0.03922,,,,,,,,,,,,,,,,,,,,,,,,,,0,0,0,0,0
3.6428,1783190501.0297,1,1,2.0000,0.0000,1.44680,0.20467,-2.78457,1.00906,1.57079,0.00002,-0.14512,-0.38002,0.03919,,,,,,,,,,,,,,,,,,,,,,,,,,0,0,0,0,0
3.6431,1783190501.0299,1,1,2.0000,0.0000,1.44680,0.20467,-2.78457,1.00906,1.57079,0.00002,-0.14512,-0.38002,0.03919,,,,,,,,,,,,,,,,,,,,,,,,,,0,0,0,0,0
3.6573,1783190501.0442,1,1,2.0000,0.0000,1.44680,0.20446,-2.78462,1.00932,1.57079,0.00002,-0.14512,-0.38002,0.03914,,,,,,,,,,,,,,,,,,,,,,,,,,0,0,0,0,0
3.6632,1783190501.0500,1,1,2.0000,0.0000,1.44680,0.20439,-2.78463,1.00941,1.57079,0.00002,-0.14512,-0.38002,0.03913,,,,,,,,,,,,,,,,,,,,,,,,,,0,0,0,0,0
3.6697,1783190501.0565,1,1,2.0000,0.0000,1.44680,0.20438,-2.78463,1.00942,1.57079,0.00002,-0.14512,-0.38002,0.03912,,,,,,,,,,,,,,,,,,,,,,,,,,0,0,0,0,0
3.6701,1783190501.0569,1,1,2.0000,0.0000,1.44680,0.20438,-2.78463,1.00942,1.57079,0.00002,-0.14512,-0.38002,0.03912,,,,,,,,,,,,,,,,,,,,,,,,,,0,0,0,0,0
3.6864,1783190501.0732,1,1,2.0000,0.0000,1.44680,0.20421,-2.78467,1.00962,1.57079,0.00002,-0.14512,-0.38002,0.03908,,,,,,,,,,,,,,,,,,,,,,,,,,0,0,0,0,0
3.6944,1783190501.0812,1,1,2.0000,0.0000,1.44680,0.20415,-2.78469,1.00970,1.57079,0.00002,-0.14512,-0.38002,0.03907,,,,,,,,,,,,,,,,,,,,,,,,,,0,0,0,0,0
3.7046,1783190501.0914,1,1,2.0000,0.0000,1.44680,0.20405,-2.78471,1.00982,1.57079,0.00002,-0.14512,-0.38002,0.03904,,,,,,,,,,,,,,,,,,,,,,,,,,0,0,0,0,0
3.7111,1783190501.0979,1,1,2.0000,0.0000,1.44680,0.20392,-2.78475,1.00999,1.57079,0.00002,-0.14512,-0.38002,0.03901,,,,,,,,,,,,,,,,,,,,,,,,,,0,0,0,0,0
3.7114,1783190501.0982,1,1,2.0000,0.0000,1.44680,0.20392,-2.78475,1.00999,1.57079,0.00002,-0.14512,-0.38002,0.03901,,,,,,,,,,,,,,,,,,,,,,,,,,0,0,0,0,0
3.7204,1783190501.1072,1,1,2.0000,0.0000,1.44680,0.20377,-2.78478,1.01017,1.57079,0.00002,-0.14512,-0.38002,0.03897,,,,,,,,,,,,,,,,,,,,,,,,,,0,0,0,0,0
3.7396,1783190501.1265,1,1,2.0000,0.0000,1.44680,0.20365,-2.78481,1.01032,1.57079,0.00002,-0.14512,-0.38002,0.03894,,,,,,,,,,,,,,,,,,,,,,,,,,0,0,0,0,0
3.7399,1783190501.1268,1,1,2.0000,0.0000,1.44680,0.20365,-2.78481,1.01032,1.57079,0.00002,-0.14512,-0.38002,0.03894,,,,,,,,,,,,,,,,,,,,,,,,,,0,0,0,0,0
3.7499,1783190501.1367,1,1,2.0000,0.0000,1.44680,0.20353,-2.78484,1.01046,1.57079,0.00002,-0.14512,-0.38002,0.03891,,,,,,,,,,,,,,,,,,,,,,,,,,0,0,0,0,0
3.7502,1783190501.1371,1,1,2.0000,0.0000,1.44680,0.20353,-2.78484,1.01046,1.57079,0.00002,-0.14512,-0.38002,0.03891,,,,,,,,,,,,,,,,,,,,,,,,,,0,0,0,0,0
3.7611,1783190501.1479,1,1,2.0000,0.0000,1.44680,0.20349,-2.78485,1.01052,1.57079,0.00002,-0.14512,-0.38002,0.03890,,,,,,,,,,,,,,,,,,,,,,,,,,0,0,0,0,0
3.7614,1783190501.1482,1,1,2.0000,0.0000,1.44680,0.20349,-2.78485,1.01052,1.57079,0.00002,-0.14512,-0.38002,0.03890,,,,,,,,,,,,,,,,,,,,,,,,,,0,0,0,0,0
3.7731,1783190501.1599,1,1,2.0000,0.0000,1.44680,0.20330,-2.78489,1.01076,1.57079,0.00002,-0.14512,-0.38002,0.03885,,,,,,,,,,,,,,,,,,,,,,,,,,0,0,0,0,0
3.7939,1783190501.1807,1,1,2.0000,0.0000,1.44680,0.20312,-2.78493,1.01098,1.57079,0.00002,-0.14512,-0.38002,0.03881,,,,,,,,,,,,,,,,,,,,,,,,,,0,0,0,0,0
3.7944,1783190501.1812,1,1,2.0000,0.0000,1.44680,0.20312,-2.78493,1.01098,1.57079,0.00002,-0.14512,-0.38002,0.03881,,,,,,,,,,,,,,,,,,,,,,,,,,0,0,0,0,0
3.8007,1783190501.1875,1,1,2.0000,0.0000,1.44680,0.20303,-2.78495,1.01108,1.57079,0.00002,-0.14512,-0.38002,0.03878,,,,,,,,,,,,,,,,,,,,,,,,,,0,0,0,0,0
3.8101,1783190501.1969,1,1,2.0000,0.0000,1.44680,0.20292,-2.78498,1.01123,1.57079,0.00002,-0.14512,-0.38001,0.03876,,,,,,,,,,,,,,,,,,,,,,,,,,0,0,0,0,0
3.8194,1783190501.2063,1,1,2.0000,0.0000,1.44680,0.20287,-2.78499,1.01129,1.57079,0.00002,-0.14512,-0.38001,0.03874,,,,,,,,,,,,,,,,,,,,,,,,,,0,0,0,0,0
3.8199,1783190501.2067,1,1,2.0000,0.0000,1.44680,0.20287,-2.78499,1.01129,1.57079,0.00002,-0.14512,-0.38001,0.03874,,,,,,,,,,,,,,,,,,,,,,,,,,0,0,0,0,0
3.8296,1783190501.2165,1,1,2.0000,0.0000,1.44680,0.20275,-2.78502,1.01143,1.57079,0.00002,-0.14512,-0.38001,0.03871,,,,,,,,,,,,,,,,,,,,,,,,,,0,0,0,0,0
3.8442,1783190501.2310,1,1,2.0000,0.0000,1.44680,0.20253,-2.78507,1.01170,1.57079,0.00002,-0.14512,-0.38001,0.03866,,,,,,,,,,,,,,,,,,,,,,,,,,0,0,0,0,0
3.8499,1783190501.2367,1,1,2.0000,0.0000,1.44680,0.20252,-2.78507,1.01171,1.57079,0.00002,-0.14512,-0.38001,0.03866,,,,,,,,,,,,,,,,,,,,,,,,,,0,0,0,0,0
3.8623,1783190501.2491,1,1,2.0000,0.0000,1.44680,0.20241,-2.78510,1.01185,1.57079,0.00002,-0.14512,-0.38001,0.03863,,,,,,,,,,,,,,,,,,,,,,,,,,0,0,0,0,0
3.8691,1783190501.2560,1,1,2.0000,0.0000,1.44680,0.20230,-2.78513,1.01199,1.57079,0.00002,-0.14512,-0.38001,0.03860,,,,,,,,,,,,,,,,,,,,,,,,,,0,0,0,0,0
3.8694,1783190501.2563,1,1,2.0000,0.0000,1.44680,0.20230,-2.78513,1.01199,1.57079,0.00002,-0.14512,-0.38001,0.03860,,,,,,,,,,,,,,,,,,,,,,,,,,0,0,0,0,0
3.8838,1783190501.2706,1,1,2.0000,0.0000,1.44680,0.20220,-2.78515,1.01212,1.57079,0.00002,-0.14512,-0.38001,0.03858,,,,,,,,,,,,,,,,,,,,,,,,,,0,0,0,0,0
3.8968,1783190501.2836,1,1,2.0000,0.0000,1.44680,0.20198,-2.78520,1.01238,1.57079,0.00002,-0.14512,-0.38001,0.03852,,,,,,,,,,,,,,,,,,,,,,,,,,0,0,0,0,0
3.8972,1783190501.2841,1,1,2.0000,0.0000,1.44680,0.20198,-2.78520,1.01238,1.57079,0.00002,-0.14512,-0.38001,0.03852,,,,,,,,,,,,,,,,,,,,,,,,,,0,0,0,0,0
3.9060,1783190501.2928,1,1,2.0000,0.0000,1.44680,0.20191,-2.78522,1.01247,1.57079,0.00002,-0.14512,-0.38001,0.03850,,,,,,,,,,,,,,,,,,,,,,,,,,0,0,0,0,0
3.9069,1783190501.2937,1,1,2.0000,0.0000,1.44680,0.20190,-2.78522,1.01248,1.57079,0.00002,-0.14512,-0.38001,0.03850,,,,,,,,,,,,,,,,,,,,,,,,,,0,0,0,0,0
3.9156,1783190501.3025,1,1,2.0000,0.0000,1.44680,0.20184,-2.78523,1.01256,1.57079,0.00002,-0.14512,-0.38001,0.03849,,,,,,,,,,,,,,,,,,,,,,,,,,0,0,0,0,0
3.9161,1783190501.3029,1,1,2.0000,0.0000,1.44680,0.20184,-2.78523,1.01256,1.57079,0.00002,-0.14512,-0.38001,0.03849,,,,,,,,,,,,,,,,,,,,,,,,,,0,0,0,0,0
3.9288,1783190501.3156,1,1,2.0000,0.0000,1.44680,0.20168,-2.78527,1.01276,1.57079,0.00002,-0.14512,-0.38001,0.03845,,,,,,,,,,,,,,,,,,,,,,,,,,0,0,0,0,0
3.9479,1783190501.3348,1,1,2.0000,0.0000,1.44680,0.20151,-2.78531,1.01297,1.57079,0.00003,-0.14512,-0.38001,0.03840,,,,,,,,,,,,,,,,,,,,,,,,,,0,0,0,0,0
3.9483,1783190501.3352,1,1,2.0000,0.0000,1.44680,0.20151,-2.78531,1.01297,1.57079,0.00003,-0.14512,-0.38001,0.03840,,,,,,,,,,,,,,,,,,,,,,,,,,0,0,0,0,0
3.9572,1783190501.3440,1,1,2.0000,0.0000,1.44680,0.20136,-2.78535,1.01315,1.57079,0.00003,-0.14512,-0.38001,0.03837,,,,,,,,,,,,,,,,,,,,,,,,,,0,0,0,0,0
3.9576,1783190501.3444,1,1,2.0000,0.0000,1.44680,0.20136,-2.78535,1.01315,1.57079,0.00003,-0.14512,-0.38001,0.03837,,,,,,,,,,,,,,,,,,,,,,,,,,0,0,0,0,0
3.9671,1783190501.3539,1,1,2.0000,0.0000,1.44680,0.20128,-2.78537,1.01325,1.57079,0.00003,-0.14512,-0.38001,0.03835,,,,,,,,,,,,,,,,,,,,,,,,,,0,0,0,0,0
3.9746,1783190501.3614,1,1,2.0000,0.0000,1.44680,0.20126,-2.78537,1.01328,1.57079,0.00003,-0.14512,-0.38001,0.03834,,,,,,,,,,,,,,,,,,,,,,,,,,0,0,0,0,0
3.9755,1783190501.3623,1,1,2.0000,0.0000,1.44680,0.20122,-2.78538,1.01332,1.57079,0.00003,-0.14512,-0.38001,0.03833,,,,,,,,,,,,,,,,,,,,,,,,,,0,0,0,0,0
3.9985,1783190501.3853,1,1,2.0000,0.0000,1.44680,0.20104,-2.78542,1.01354,1.57079,0.00003,-0.14512,-0.38001,0.03829,,,,,,,,,,,,,,,,,,,,,,,,,,0,0,0,0,0
4.0102,1783190501.3971,1,1,2.0000,0.0000,1.44680,0.20089,-2.78546,1.01373,1.57079,0.00003,-0.14512,-0.38001,0.03825,,,,,,,,,,,,,,,,,,,,,,,,,,0,0,0,0,0
4.0139,1783190501.4008,1,1,2.0000,0.0000,1.44680,0.20082,-2.78548,1.01382,1.57079,0.00003,-0.14512,-0.38001,0.03823,,,,,,,,,,,,,,,,,,,,,,,,,,0,0,0,0,0
4.0142,1783190501.4010,1,1,2.0000,0.0000,1.44680,0.20082,-2.78548,1.01382,1.57079,0.00003,-0.14512,-0.38001,0.03823,,,,,,,,,,,,,,,,,,,,,,,,,,0,0,0,0,0
4.0241,1783190501.4109,1,1,2.0000,0.0000,1.44680,0.20067,-2.78551,1.01400,1.57079,0.00003,-0.14512,-0.38001,0.03819,,,,,,,,,,,,,,,,,,,,,,,,,,0,0,0,0,0
4.0336,1783190501.4204,1,1,2.0000,0.0000,1.44680,0.20063,-2.78552,1.01406,1.57079,0.00003,-0.14512,-0.38001,0.03818,,,,,,,,,,,,,,,,,,,,,,,,,,0,0,0,0,0
4.0340,1783190501.4209,1,1,2.0000,0.0000,1.44680,0.20063,-2.78552,1.01406,1.57079,0.00003,-0.14512,-0.38001,0.03818,,,,,,,,,,,,,,,,,,,,,,,,,,0,0,0,0,0
4.0529,1783190501.4398,1,1,2.0000,0.0000,1.44680,0.20037,-2.78558,1.01438,1.57079,0.00003,-0.14512,-0.38001,0.03812,,,,,,,,,,,,,,,,,,,,,,,,,,0,0,0,0,0
4.0601,1783190501.4469,1,1,2.0000,0.0000,1.44680,0.20032,-2.78559,1.01443,1.57079,0.00003,-0.14512,-0.38001,0.03811,,,,,,,,,,,,,,,,,,,,,,,,,,0,0,0,0,0
4.0605,1783190501.4473,1,1,2.0000,0.0000,1.44680,0.20032,-2.78559,1.01443,1.57079,0.00003,-0.14512,-0.38001,0.03811,,,,,,,,,,,,,,,,,,,,,,,,,,0,0,0,0,0
4.0650,1783190501.4519,1,1,2.0000,0.0000,1.44680,0.20027,-2.78560,1.01450,1.57079,0.00003,-0.14512,-0.38001,0.03809,,,,,,,,,,,,,,,,,,,,,,,,,,0,0,0,0,0
4.0653,1783190501.4522,1,1,2.0000,0.0000,1.44680,0.20027,-2.78560,1.01450,1.57079,0.00003,-0.14512,-0.38001,0.03809,,,,,,,,,,,,,,,,,,,,,,,,,,0,0,0,0,0
4.0743,1783190501.4612,1,1,2.0000,0.0000,1.44680,0.20014,-2.78563,1.01466,1.57079,0.00003,-0.14512,-0.38001,0.03806,,,,,,,,,,,,,,,,,,,,,,,,,,0,0,0,0,0
4.0858,1783190501.4727,1,1,2.0000,0.0000,1.44680,0.19999,-2.78567,1.01484,1.57079,0.00003,-0.14512,-0.38001,0.03803,,,,,,,,,,,,,,,,,,,,,,,,,,0,0,0,0,0
4.0959,1783190501.4827,1,1,2.0000,0.0000,1.44680,0.19990,-2.78569,1.01496,1.57079,0.00003,-0.14512,-0.38001,0.03800,,,,,,,,,,,,,,,,,,,,,,,,,,0,0,0,0,0
4.0962,1783190501.4830,1,1,2.0000,0.0000,1.44680,0.19990,-2.78569,1.01496,1.57079,0.00003,-0.14512,-0.38001,0.03800,,,,,,,,,,,,,,,,,,,,,,,,,,0,0,0,0,0
4.1044,1783190501.4913,1,1,2.0000,0.0000,1.44680,0.19976,-2.78572,1.01512,1.57079,0.00003,-0.14512,-0.38001,0.03797,,,,,,,,,,,,,,,,,,,,,,,,,,0,0,0,0,0
4.1177,1783190501.5046,1,1,2.0000,0.0000,1.44680,0.19968,-2.78574,1.01523,1.57079,0.00003,-0.14512,-0.38001,0.03795,,,,,,,,,,,,,,,,,,,,,,,,,,0,0,0,0,0
4.1235,1783190501.5104,1,1,2.0000,0.0000,1.44680,0.19959,-2.78576,1.01533,1.57079,0.00003,-0.14512,-0.38001,0.03793,,,,,,,,,,,,,,,,,,,,,,,,,,0,0,0,0,0
4.1239,1783190501.5107,1,1,2.0000,0.0000,1.44680,0.19959,-2.78576,1.01533,1.57079,0.00003,-0.14512,-0.38001,0.03793,,,,,,,,,,,,,,,,,,,,,,,,,,0,0,0,0,0
4.1352,1783190501.5220,1,1,2.0000,0.0000,1.44680,0.19939,-2.78581,1.01559,1.57079,0.00003,-0.14512,-0.38001,0.03787,,,,,,,,,,,,,,,,,,,,,,,,,,0,0,0,0,0
4.1544,1783190501.5413,1,1,2.0000,0.0000,1.44680,0.19927,-2.78584,1.01573,1.57079,0.00003,-0.14512,-0.38001,0.03784,,,,,,,,,,,,,,,,,,,,,,,,,,0,0,0,0,0
4.1550,1783190501.5418,1,1,2.0000,0.0000,1.44680,0.19922,-2.78585,1.01579,1.57079,0.00003,-0.14512,-0.38001,0.03783,,,,,,,,,,,,,,,,,,,,,,,,,,0,0,0,0,0
4.1679,1783190501.5547,1,1,2.0000,0.0000,1.44680,0.19901,-2.78590,1.01605,1.57079,0.00003,-0.14512,-0.38001,0.03778,,,,,,,,,,,,,,,,,,,,,,,,,,0,0,0,0,0
4.1749,1783190501.5618,1,1,2.0000,0.0000,1.44680,0.19900,-2.78590,1.01606,1.57079,0.00003,-0.14512,-0.38001,0.03778,,,,,,,,,,,,,,,,,,,,,,,,,,0,0,0,0,0
4.1752,1783190501.5620,1,1,2.0000,0.0000,1.44680,0.19900,-2.78590,1.01606,1.57079,0.00003,-0.14512,-0.38001,0.03778,,,,,,,,,,,,,,,,,,,,,,,,,,0,0,0,0,0
4.1864,1783190501.5732,1,1,2.0000,0.0000,1.44680,0.19891,-2.78592,1.01617,1.57079,0.00003,-0.14512,-0.38001,0.03776,,,,,,,,,,,,,,,,,,,,,,,,,,0,0,0,0,0
4.1978,1783190501.5846,1,1,2.0000,0.0000,1.44680,0.19871,-2.78597,1.01642,1.57079,0.00003,-0.14512,-0.38001,0.03771,,,,,,,,,,,,,,,,,,,,,,,,,,0,0,0,0,0
4.1981,1783190501.5849,1,1,2.0000,0.0000,1.44680,0.19871,-2.78597,1.01642,1.57079,0.00003,-0.14512,-0.38001,0.03771,,,,,,,,,,,,,,,,,,,,,,,,,,0,0,0,0,0
4.2044,1783190501.5913,1,1,2.0000,0.0000,1.44680,0.19864,-2.78599,1.01651,1.57079,0.00003,-0.14512,-0.38001,0.03769,,,,,,,,,,,,,,,,,,,,,,,,,,0,0,0,0,0
4.2141,1783190501.6010,1,1,2.0000,0.0000,1.44680,0.19859,-2.78600,1.01657,1.57079,0.00003,-0.14512,-0.38001,0.03768,,,,,,,,,,,,,,,,,,,,,,,,,,0,0,0,0,0
4.2145,1783190501.6013,1,1,2.0000,0.0000,1.44680,0.19859,-2.78600,1.01657,1.57079,0.00003,-0.14512,-0.38001,0.03768,,,,,,,,,,,,,,,,,,,,,,,,,,0,0,0,0,0
4.2242,1783190501.6110,1,1,2.0000,0.0000,1.44680,0.19841,-2.78604,1.01680,1.57079,0.00003,-0.14512,-0.38001,0.03763,,,,,,,,,,,,,,,,,,,,,,,,,,0,0,0,0,0
4.2339,1783190501.6208,1,1,2.0000,0.0000,1.44680,0.19833,-2.78606,1.01689,1.57079,0.00003,-0.14512,-0.38001,0.03761,,,,,,,,,,,,,,,,,,,,,,,,,,0,0,0,0,0
4.2557,1783190501.6426,1,1,2.0000,0.0000,1.44680,0.19803,-2.78613,1.01726,1.57079,0.00003,-0.14512,-0.38001,0.03754,,,,,,,,,,,,,,,,,,,,,,,,,,0,0,0,0,0
4.2561,1783190501.6429,1,1,2.0000,0.0000,1.44680,0.19803,-2.78613,1.01726,1.57079,0.00003,-0.14512,-0.38001,0.03754,,,,,,,,,,,,,,,,,,,,,,,,,,0,0,0,0,0
4.2639,1783190501.6507,1,1,2.0000,0.0000,1.44680,0.19796,-2.78614,1.01735,1.57079,0.00003,-0.14512,-0.38001,0.03752,,,,,,,,,,,,,,,,,,,,,,,,,,0,0,0,0,0
4.2641,1783190501.6509,1,1,2.0000,0.0000,1.44680,0.19796,-2.78614,1.01735,1.57079,0.00003,-0.14512,-0.38001,0.03752,,,,,,,,,,,,,,,,,,,,,,,,,,0,0,0,0,0
4.2736,1783190501.6604,1,1,2.0000,0.0000,1.44680,0.19791,-2.78615,1.01741,1.57079,0.00003,-0.14512,-0.38001,0.03751,,,,,,,,,,,,,,,,,,,,,,,,,,0,0,0,0,0
4.2862,1783190501.6731,1,1,2.0000,0.0000,1.44680,0.19773,-2.78620,1.01763,1.57079,0.00003,-0.14512,-0.38001,0.03746,,,,,,,,,,,,,,,,,,,,,,,,,,0,0,0,0,0
4.3006,1783190501.6875,1,1,2.0000,0.0000,1.44680,0.19757,-2.78623,1.01782,1.57079,0.00003,-0.14512,-0.38001,0.03742,,,,,,,,,,,,,,,,,,,,,,,,,,0,0,0,0,0
4.3066,1783190501.6934,1,1,2.0000,0.0000,1.44680,0.19755,-2.78624,1.01785,1.57079,0.00003,-0.14512,-0.38001,0.03742,,,,,,,,,,,,,,,,,,,,,,,,,,0,0,0,0,0
4.3153,1783190501.7021,1,1,2.0000,0.0000,1.44680,0.19740,-2.78627,1.01803,1.57079,0.00003,-0.14512,-0.38001,0.03738,,,,,,,,,,,,,,,,,,,,,,,,,,0,0,0,0,0
4.3236,1783190501.7104,1,1,2.0000,0.0000,1.44680,0.19734,-2.78629,1.01811,1.57079,0.00003,-0.14512,-0.38001,0.03737,,,,,,,,,,,,,,,,,,,,,,,,,,0,0,0,0,0
4.3367,1783190501.7235,1,1,2.0000,0.0000,1.44680,0.19724,-2.78631,1.01823,1.57079,0.00003,-0.14512,-0.38001,0.03734,,,,,,,,,,,,,,,,,,,,,,,,,,0,0,0,0,0
4.3561,1783190501.7429,1,1,2.0000,0.0000,1.44680,0.19696,-2.78638,1.01858,1.57079,0.00003,-0.14512,-0.38001,0.03727,,,,,,,,,,,,,,,,,,,,,,,,,,0,0,0,0,0
4.3577,1783190501.7445,1,1,2.0000,0.0000,1.44680,0.19696,-2.78638,1.01858,1.57079,0.00003,-0.14512,-0.38001,0.03727,,,,,,,,,,,,,,,,,,,,,,,,,,0,0,0,0,0
4.3656,1783190501.7525,1,1,2.0000,0.0000,1.44680,0.19692,-2.78638,1.01862,1.57079,0.00003,-0.14512,-0.38001,0.03726,,,,,,,,,,,,,,,,,,,,,,,,,,0,0,0,0,0
4.3737,1783190501.7605,1,1,2.0000,0.0000,1.44680,0.19684,-2.78640,1.01873,1.57079,0.00003,-0.14512,-0.38001,0.03724,,,,,,,,,,,,,,,,,,,,,,,,,,0,0,0,0,0
4.3846,1783190501.7714,1,1,2.0000,0.0000,1.44680,0.19672,-2.78643,1.01888,1.57079,0.00003,-0.14512,-0.38001,0.03721,,,,,,,,,,,,,,,,,,,,,,,,,,0,0,0,0,0
4.3849,1783190501.7717,1,1,2.0000,0.0000,1.44680,0.19672,-2.78643,1.01888,1.57079,0.00003,-0.14512,-0.38001,0.03721,,,,,,,,,,,,,,,,,,,,,,,,,,0,0,0,0,0
4.3936,1783190501.7804,1,1,2.0000,0.0000,1.44680,0.19667,-2.78644,1.01894,1.57079,0.00003,-0.14512,-0.38001,0.03720,,,,,,,,,,,,,,,,,,,,,,,,,,0,0,0,0,0
4.3939,1783190501.7808,1,1,2.0000,0.0000,1.44680,0.19667,-2.78644,1.01894,1.57079,0.00003,-0.14512,-0.38001,0.03720,,,,,,,,,,,,,,,,,,,,,,,,,,0,0,0,0,0
4.4053,1783190501.7921,1,1,2.0000,0.0000,1.44680,0.19648,-2.78649,1.01917,1.57079,0.00003,-0.14511,-0.38001,0.03715,,,,,,,,,,,,,,,,,,,,,,,,,,0,0,0,0,0
4.4056,1783190501.7925,1,1,2.0000,0.0000,1.44680,0.19648,-2.78649,1.01917,1.57079,0.00003,-0.14511,-0.38001,0.03715,,,,,,,,,,,,,,,,,,,,,,,,,,0,0,0,0,0
4.4191,1783190501.8060,1,1,2.0000,0.0000,1.44679,0.19632,-2.78652,1.01936,1.57079,0.00003,-0.14511,-0.38001,0.03711,,,,,,,,,,,,,,,,,,,,,,,,,,0,0,0,0,0
4.4195,1783190501.8063,1,1,2.0000,0.0000,1.44679,0.19632,-2.78652,1.01936,1.57079,0.00003,-0.14511,-0.38001,0.03711,,,,,,,,,,,,,,,,,,,,,,,,,,0,0,0,0,0
4.4236,1783190501.8105,1,1,2.0000,0.0000,1.44679,0.19630,-2.78653,1.01939,1.57079,0.00003,-0.14511,-0.38001,0.03711,,,,,,,,,,,,,,,,,,,,,,,,,,0,0,0,0,0
4.4384,1783190501.8253,1,1,2.0000,0.0000,1.44679,0.19615,-2.78656,1.01957,1.57079,0.00003,-0.14511,-0.38001,0.03707,,,,,,,,,,,,,,,,,,,,,,,,,,0,0,0,0,0
4.4483,1783190501.8351,1,1,2.0000,0.0000,1.44679,0.19608,-2.78658,1.01966,1.57079,0.00003,-0.14511,-0.38001,0.03705,,,,,,,,,,,,,,,,,,,,,,,,,,0,0,0,0,0
4.4605,1783190501.8473,1,1,2.0000,0.0000,1.44679,0.19593,-2.78662,1.01985,1.57079,0.00003,-0.14511,-0.38001,0.03701,,,,,,,,,,,,,,,,,,,,,,,,,,0,0,0,0,0
4.4703,1783190501.8572,1,1,2.0000,0.0000,1.44679,0.19578,-2.78665,1.02003,1.57079,0.00003,-0.14511,-0.38001,0.03698,,,,,,,,,,,,,,,,,,,,,,,,,,0,0,0,0,0
4.4751,1783190501.8619,1,1,2.0000,0.0000,1.44679,0.19571,-2.78667,1.02012,1.57079,0.00003,-0.14511,-0.38001,0.03696,,,,,,,,,,,,,,,,,,,,,,,,,,0,0,0,0,0
4.4753,1783190501.8622,1,1,2.0000,0.0000,1.44679,0.19571,-2.78667,1.02012,1.57079,0.00003,-0.14511,-0.38001,0.03696,,,,,,,,,,,,,,,,,,,,,,,,,,0,0,0,0,0
4.4834,1783190501.8702,1,1,2.0000,0.0000,1.44679,0.19567,-2.78667,1.02016,1.57079,0.00003,-0.14511,-0.38001,0.03695,,,,,,,,,,,,,,,,,,,,,,,,,,0,0,0,0,0
4.4837,1783190501.8705,1,1,2.0000,0.0000,1.44679,0.19567,-2.78667,1.02016,1.57079,0.00003,-0.14511,-0.38001,0.03695,,,,,,,,,,,,,,,,,,,,,,,,,,0,0,0,0,0
4.4840,1783190501.8709,1,1,2.0000,0.0000,1.44679,0.19567,-2.78667,1.02016,1.57079,0.00003,-0.14511,-0.38001,0.03695,,,,,,,,,,,,,,,,,,,,,,,,,,0,0,0,0,0
4.4938,1783190501.8807,1,1,2.0000,0.0000,1.44679,0.19559,-2.78669,1.02027,1.57079,0.00003,-0.14511,-0.38001,0.03693,,,,,,,,,,,,,,,,,,,,,,,,,,0,0,0,0,0
4.5055,1783190501.8923,1,1,2.0000,0.0000,1.44679,0.19547,-2.78672,1.02042,1.57079,0.00003,-0.14511,-0.38001,0.03690,,,,,,,,,,,,,,,,,,,,,,,,,,0,0,0,0,0
4.5197,1783190501.9066,1,1,2.0000,0.0000,1.44679,0.19530,-2.78676,1.02062,1.57079,0.00003,-0.14511,-0.38001,0.03686,,,,,,,,,,,,,,,,,,,,,,,,,,0,0,0,0,0
4.5279,1783190501.9147,1,1,2.0000,0.0000,1.44679,0.19515,-2.78679,1.02080,1.57079,0.00003,-0.14511,-0.38001,0.03682,,,,,,,,,,,,,,,,,,,,,,,,,,0,0,0,0,0
4.5347,1783190501.9215,1,1,2.0000,0.0000,1.44679,0.19508,-2.78681,1.02089,1.57079,0.00003,-0.14511,-0.38001,0.03680,,,,,,,,,,,,,,,,,,,,,,,,,,0,0,0,0,0
4.5355,1783190501.9223,1,1,2.0000,0.0000,1.44679,0.19508,-2.78681,1.02089,1.57079,0.00003,-0.14511,-0.38001,0.03680,,,,,,,,,,,,,,,,,,,,,,,,,,0,0,0,0,0
4.5437,1783190501.9305,1,1,2.0000,0.0000,1.44679,0.19505,-2.78682,1.02093,1.57079,0.00003,-0.14511,-0.38001,0.03680,,,,,,,,,,,,,,,,,,,,,,,,,,0,0,0,0,0
4.5619,1783190501.9487,1,1,2.0000,0.0000,1.44679,0.19484,-2.78687,1.02119,1.57079,0.00003,-0.14511,-0.38001,0.03675,,,,,,,,,,,,,,,,,,,,,,,,,,0,0,0,0,0
4.5682,1783190501.9551,1,1,2.0000,0.0000,1.44679,0.19483,-2.78687,1.02120,1.57079,0.00003,-0.14511,-0.38001,0.03674,,,,,,,,,,,,,,,,,,,,,,,,,,0,0,0,0,0
4.5776,1783190501.9644,1,1,2.0000,0.0000,1.44679,0.19474,-2.78689,1.02131,1.57079,0.00003,-0.14511,-0.38001,0.03672,,,,,,,,,,,,,,,,,,,,,,,,,,0,0,0,0,0
4.5838,1783190501.9706,1,1,2.0000,0.0000,1.44679,0.19460,-2.78692,1.02148,1.57079,0.00003,-0.14511,-0.38001,0.03669,,,,,,,,,,,,,,,,,,,,,,,,,,0,0,0,0,0
4.5950,1783190501.9819,1,1,2.0000,0.0000,1.44679,0.19445,-2.78695,1.02166,1.57079,0.00003,-0.14511,-0.38001,0.03665,,,,,,,,,,,,,,,,,,,,,,,,,,0,0,0,0,0
4.6081,1783190501.9949,1,1,2.0000,0.0000,1.44679,0.19438,-2.78697,1.02175,1.57079,0.00003,-0.14511,-0.38001,0.03663,,,,,,,,,,,,,,,,,,,,,,,,,,0,0,0,0,0
4.6144,1783190502.0013,1,1,2.0000,0.0000,1.44679,0.19433,-2.78698,1.02181,1.57079,0.00003,-0.14511,-0.38001,0.03662,,,,,,,,,,,,,,,,,,,,,,,,,,0,0,0,0,0
4.6246,1783190502.0115,1,1,2.0000,0.0000,1.44679,0.19422,-2.78701,1.02196,1.57079,0.00003,-0.14511,-0.38001,0.03659,,,,,,,,,,,,,,,,,,,,,,,,,,0,0,0,0,0
4.6356,1783190502.0225,1,1,2.0000,0.0000,1.44679,0.19411,-2.78703,1.02208,1.57079,0.00003,-0.14511,-0.38001,0.03656,,,,,,,,,,,,,,,,,,,,,,,,,,0,0,0,0,0
4.6451,1783190502.0320,1,1,2.0000,0.0000,1.44679,0.19397,-2.78706,1.02225,1.57079,0.00003,-0.14511,-0.38001,0.03653,,,,,,,,,,,,,,,,,,,,,,,,,,0,0,0,0,0
4.6664,1783190502.0532,1,1,2.0000,0.0000,1.44679,0.19378,-2.78711,1.02249,1.57079,0.00003,-0.14511,-0.38001,0.03648,,,,,,,,,,,,,,,,,,,,,,,,,,0,0,0,0,0
4.6670,1783190502.0538,1,1,2.0000,0.0000,1.44679,0.19373,-2.78712,1.02255,1.57079,0.00003,-0.14511,-0.38001,0.03647,,,,,,,,,,,,,,,,,,,,,,,,,,0,0,0,0,0
4.6753,1783190502.0622,1,1,2.0000,0.0000,1.44679,0.19359,-2.78715,1.02272,1.57079,0.00003,-0.14511,-0.38001,0.03644,,,,,,,,,,,,,,,,,,,,,,,,,,0,0,0,0,0
4.6757,1783190502.0625,1,1,2.0000,0.0000,1.44679,0.19359,-2.78715,1.02272,1.57079,0.00003,-0.14511,-0.38001,0.03644,,,,,,,,,,,,,,,,,,,,,,,,,,0,0,0,0,0
4.6855,1783190502.0723,1,1,2.0000,0.0000,1.44679,0.19352,-2.78717,1.02281,1.57079,0.00003,-0.14511,-0.38001,0.03642,,,,,,,,,,,,,,,,,,,,,,,,,,0,0,0,0,0
4.6937,1783190502.0806,1,1,2.0000,0.0000,1.44679,0.19347,-2.78718,1.02287,1.57079,0.00003,-0.14511,-0.38001,0.03641,,,,,,,,,,,,,,,,,,,,,,,,,,0,0,0,0,0
4.7095,1783190502.0964,1,1,2.0000,0.0000,1.44679,0.19322,-2.78724,1.02319,1.57079,0.00003,-0.14511,-0.38001,0.03634,,,,,,,,,,,,,,,,,,,,,,,,,,0,0,0,0,0
4.7156,1783190502.1025,1,1,2.0000,0.0000,1.44679,0.19314,-2.78726,1.02327,1.57079,0.00003,-0.14511,-0.38001,0.03633,,,,,,,,,,,,,,,,,,,,,,,,,,0,0,0,0,0
4.7160,1783190502.1028,1,1,2.0000,0.0000,1.44679,0.19314,-2.78726,1.02327,1.57079,0.00003,-0.14511,-0.38001,0.03633,,,,,,,,,,,,,,,,,,,,,,,,,,0,0,0,0,0
4.7248,1783190502.1117,1,1,2.0000,0.0000,1.44679,0.19310,-2.78727,1.02333,1.57079,0.00003,-0.14511,-0.38001,0.03631,,,,,,,,,,,,,,,,,,,,,,,,,,0,0,0,0,0
4.7251,1783190502.1120,1,1,2.0000,0.0000,1.44679,0.19310,-2.78727,1.02333,1.57079,0.00003,-0.14511,-0.38001,0.03631,,,,,,,,,,,,,,,,,,,,,,,,,,0,0,0,0,0
4.7333,1783190502.1202,1,1,2.0000,0.0000,1.44679,0.19298,-2.78729,1.02347,1.57079,0.00003,-0.14511,-0.38001,0.03629,,,,,,,,,,,,,,,,,,,,,,,,,,0,0,0,0,0
4.7336,1783190502.1205,1,1,2.0000,0.0000,1.44679,0.19298,-2.78729,1.02347,1.57079,0.00003,-0.14511,-0.38001,0.03629,,,,,,,,,,,,,,,,,,,,,,,,,,0,0,0,0,0
4.7460,1783190502.1329,1,1,2.0000,0.0000,1.44679,0.19284,-2.78733,1.02365,1.57079,0.00003,-0.14511,-0.38001,0.03625,,,,,,,,,,,,,,,,,,,,,,,,,,0,0,0,0,0
4.7672,1783190502.1540,1,1,2.0000,0.0000,1.44679,0.19253,-2.78740,1.02403,1.57079,0.00003,-0.14511,-0.38001,0.03617,,,,,,,,,,,,,,,,,,,,,,,,,,0,0,0,0,0
4.7676,1783190502.1544,1,1,2.0000,0.0000,1.44679,0.19253,-2.78740,1.02403,1.57079,0.00003,-0.14511,-0.38001,0.03617,,,,,,,,,,,,,,,,,,,,,,,,,,0,0,0,0,0
4.7752,1783190502.1620,1,1,2.0000,0.0000,1.44679,0.19246,-2.78741,1.02411,1.57079,0.00003,-0.14511,-0.38001,0.03616,,,,,,,,,,,,,,,,,,,,,,,,,,0,0,0,0,0
4.7845,1783190502.1714,1,1,2.0000,0.0000,1.44679,0.19241,-2.78742,1.02417,1.57079,0.00003,-0.14511,-0.38001,0.03614,,,,,,,,,,,,,,,,,,,,,,,,,,0,0,0,0,0
4.7951,1783190502.1820,1,1,2.0000,0.0000,1.44679,0.19223,-2.78747,1.02440,1.57079,0.00003,-0.14511,-0.38001,0.03610,,,,,,,,,,,,,,,,,,,,,,,,,,0,0,0,0,0
4.8044,1783190502.1912,1,1,2.0000,0.0000,1.44679,0.19215,-2.78748,1.02449,1.57079,0.00003,-0.14511,-0.38001,0.03608,,,,,,,,,,,,,,,,,,,,,,,,,,0,0,0,0,0
4.8047,1783190502.1915,1,1,2.0000,0.0000,1.44679,0.19215,-2.78748,1.02449,1.57079,0.00003,-0.14511,-0.38001,0.03608,,,,,,,,,,,,,,,,,,,,,,,,,,0,0,0,0,0
4.8191,1783190502.2059,1,1,2.0000,0.0000,1.44679,0.19199,-2.78752,1.02469,1.57079,0.00003,-0.14511,-0.38001,0.03604,,,,,,,,,,,,,,,,,,,,,,,,,,0,0,0,0,0
4.8193,1783190502.2062,1,1,2.0000,0.0000,1.44679,0.19199,-2.78752,1.02469,1.57079,0.00003,-0.14511,-0.38001,0.03604,,,,,,,,,,,,,,,,,,,,,,,,,,0,0,0,0,0
4.8244,1783190502.2112,1,1,2.0000,0.0000,1.44679,0.19192,-2.78754,1.02478,1.57079,0.00003,-0.14511,-0.38001,0.03602,,,,,,,,,,,,,,,,,,,,,,,,,,0,0,0,0,0
4.8247,1783190502.2115,1,1,2.0000,0.0000,1.44679,0.19192,-2.78754,1.02478,1.57079,0.00003,-0.14511,-0.38001,0.03602,,,,,,,,,,,,,,,,,,,,,,,,,,0,0,0,0,0
4.8354,1783190502.2222,1,1,2.0000,0.0000,1.44679,0.19177,-2.78757,1.02496,1.57079,0.00003,-0.14511,-0.38001,0.03599,,,,,,,,,,,,,,,,,,,,,,,,,,0,0,0,0,0
4.8358,1783190502.2226,1,1,2.0000,0.0000,1.44679,0.19177,-2.78757,1.02496,1.57079,0.00003,-0.14511,-0.38001,0.03599,,,,,,,,,,,,,,,,,,,,,,,,,,0,0,0,0,0
4.8464,1783190502.2332,1,1,2.0000,0.0000,1.44679,0.19173,-2.78758,1.02501,1.57079,0.00003,-0.14511,-0.38001,0.03598,,,,,,,,,,,,,,,,,,,,,,,,,,0,0,0,0,0
4.8559,1783190502.2427,1,1,2.0000,0.0000,1.44679,0.19154,-2.78762,1.02524,1.57079,0.00003,-0.14511,-0.38001,0.03593,,,,,,,,,,,,,,,,,,,,,,,,,,0,0,0,0,0
4.8698,1783190502.2566,1,1,2.0000,0.0000,1.44679,0.19145,-2.78764,1.02535,1.57079,0.00003,-0.14511,-0.38001,0.03591,,,,,,,,,,,,,,,,,,,,,,,,,,0,0,0,0,0
4.8753,1783190502.2621,1,1,2.0000,0.0000,1.44679,0.19137,-2.78766,1.02546,1.57079,0.00003,-0.14511,-0.38001,0.03589,,,,,,,,,,,,,,,,,,,,,,,,,,0,0,0,0,0
4.8845,1783190502.2714,1,1,2.0000,0.0000,1.44679,0.19123,-2.78769,1.02562,1.57079,0.00003,-0.14511,-0.38001,0.03585,,,,,,,,,,,,,,,,,,,,,,,,,,0,0,0,0,0
4.8988,1783190502.2856,1,1,2.0000,0.0000,1.44679,0.19109,-2.78773,1.02580,1.57079,0.00003,-0.14511,-0.38001,0.03582,,,,,,,,,,,,,,,,,,,,,,,,,,0,0,0,0,0
4.9073,1783190502.2942,1,1,2.0000,0.0000,1.44679,0.19099,-2.78775,1.02592,1.57079,0.00003,-0.14511,-0.38001,0.03579,,,,,,,,,,,,,,,,,,,,,,,,,,0,0,0,0,0
4.9077,1783190502.2945,1,1,2.0000,0.0000,1.44679,0.19099,-2.78775,1.02592,1.57079,0.00003,-0.14511,-0.38001,0.03579,,,,,,,,,,,,,,,,,,,,,,,,,,0,0,0,0,0
4.9185,1783190502.3053,1,1,2.0000,0.0000,1.44679,0.19085,-2.78778,1.02609,1.57079,0.00003,-0.14511,-0.38001,0.03576,,,,,,,,,,,,,,,,,,,,,,,,,,0,0,0,0,0
4.9193,1783190502.3061,1,1,2.0000,0.0000,1.44679,0.19078,-2.78780,1.02618,1.57079,0.00003,-0.14511,-0.38001,0.03574,,,,,,,,,,,,,,,,,,,,,,,,,,0,0,0,0,0
4.9303,1783190502.3172,1,1,2.0000,0.0000,1.44679,0.19071,-2.78781,1.02627,1.57079,0.00003,-0.14511,-0.38001,0.03572,,,,,,,,,,,,,,,,,,,,,,,,,,0,0,0,0,0
4.9393,1783190502.3261,1,1,2.0000,0.0000,1.44679,0.19063,-2.78783,1.02635,1.57079,0.00003,-0.14511,-0.38001,0.03571,,,,,,,,,,,,,,,,,,,,,,,,,,0,0,0,0,0
4.9397,1783190502.3265,1,1,2.0000,0.0000,1.44679,0.19063,-2.78783,1.02635,1.57079,0.00003,-0.14511,-0.38001,0.03571,,,,,,,,,,,,,,,,,,,,,,,,,,0,0,0,0,0
4.9513,1783190502.3381,1,1,2.0000,0.0000,1.44679,0.19047,-2.78787,1.02656,1.57079,0.00003,-0.14511,-0.38001,0.03566,,,,,,,,,,,,,,,,,,,,,,,,,,0,0,0,0,0
4.9607,1783190502.3475,1,1,2.0000,0.0000,1.44679,0.19045,-2.78787,1.02658,1.57079,0.00003,-0.14511,-0.38001,0.03566,,,,,,,,,,,,,,,,,,,,,,,,,,0,0,0,0,0
4.9792,1783190502.3660,1,1,2.0000,0.0000,1.44679,0.19015,-2.78794,1.02695,1.57079,0.00003,-0.14511,-0.38001,0.03559,,,,,,,,,,,,,,,,,,,,,,,,,,0,0,0,0,0
4.9796,1783190502.3664,1,1,2.0000,0.0000,1.44679,0.19015,-2.78794,1.02695,1.57079,0.00003,-0.14511,-0.38001,0.03559,,,,,,,,,,,,,,,,,,,,,,,,,,0,0,0,0,0
4.9799,1783190502.3667,1,1,2.0000,0.0000,1.44679,0.19015,-2.78794,1.02695,1.57079,0.00003,-0.14511,-0.38001,0.03559,,,,,,,,,,,,,,,,,,,,,,,,,,0,0,0,0,0
4.9935,1783190502.3803,1,1,2.0000,0.0000,1.44679,0.19007,-2.78796,1.02705,1.57079,0.00003,-0.14511,-0.38001,0.03557,,,,,,,,,,,,,,,,,,,,,,,,,,0,0,0,0,0
5.0033,1783190502.3901,1,1,2.0000,0.0000,1.44679,0.18995,-2.78798,1.02719,1.57079,0.00003,-0.14511,-0.38001,0.03554,,,,,,,,,,,,,,,,,,,,,,,,,,0,0,0,0,0
5.0091,1783190502.3959,1,1,2.0000,0.0000,1.44679,0.18990,-2.78800,1.02726,1.57079,0.00003,-0.14511,-0.38001,0.03553,,,,,,,,,,,,,,,,,,,,,,,,,,0,0,0,0,0
5.0244,1783190502.4112,1,1,2.0000,0.0000,1.44679,0.18979,-2.78802,1.02740,1.57079,0.00003,-0.14511,-0.38001,0.03550,,,,,,,,,,,,,,,,,,,,,,,,,,0,0,0,0,0
5.0315,1783190502.4184,1,1,2.0000,0.0000,1.44679,0.18967,-2.78805,1.02754,1.57079,0.00003,-0.14511,-0.38001,0.03547,,,,,,,,,,,,,,,,,,,,,,,,,,0,0,0,0,0
5.0318,1783190502.4186,1,1,2.0000,0.0000,1.44679,0.18967,-2.78805,1.02754,1.57079,0.00003,-0.14511,-0.38001,0.03547,,,,,,,,,,,,,,,,,,,,,,,,,,0,0,0,0,0
5.0431,1783190502.4299,1,1,2.0000,0.0000,1.44679,0.18945,-2.78810,1.02781,1.57079,0.00003,-0.14511,-0.38001,0.03541,,,,,,,,,,,,,,,,,,,,,,,,,,0,0,0,0,0
5.0525,1783190502.4393,1,1,2.0000,0.0000,1.44679,0.18944,-2.78810,1.02782,1.57079,0.00003,-0.14511,-0.38001,0.03541,,,,,,,,,,,,,,,,,,,,,,,,,,0,0,0,0,0
5.0637,1783190502.4505,1,1,2.0000,0.0000,1.44679,0.18932,-2.78813,1.02796,1.57079,0.00003,-0.14511,-0.38001,0.03538,,,,,,,,,,,,,,,,,,,,,,,,,,0,0,0,0,0
5.0714,1783190502.4582,1,1,2.0000,0.0000,1.44679,0.18920,-2.78815,1.02811,1.57079,0.00003,-0.14511,-0.38001,0.03536,,,,,,,,,,,,,,,,,,,,,,,,,,0,0,0,0,0
5.0802,1783190502.4671,1,1,2.0000,0.0000,1.44679,0.18919,-2.78816,1.02813,1.57079,0.00003,-0.14511,-0.38001,0.03535,,,,,,,,,,,,,,,,,,,,,,,,,,0,0,0,0,0
5.0913,1783190502.4781,1,1,2.0000,0.0000,1.44679,0.18904,-2.78819,1.02832,1.57079,0.00003,-0.14511,-0.38001,0.03531,,,,,,,,,,,,,,,,,,,,,,,,,,0,0,0,0,0
5.1034,1783190502.4902,1,1,2.0000,0.0000,1.44679,0.18881,-2.78824,1.02859,1.57079,0.00003,-0.14511,-0.38001,0.03526,,,,,,,,,,,,,,,,,,,,,,,,,,0,0,0,0,0
5.1084,1783190502.4953,1,1,2.0000,0.0000,1.44679,0.18881,-2.78824,1.02859,1.57079,0.00003,-0.14511,-0.38001,0.03526,,,,,,,,,,,,,,,,,,,,,,,,,,0,0,0,0,0
5.1089,1783190502.4957,1,1,2.0000,0.0000,1.44679,0.18881,-2.78824,1.02859,1.57079,0.00003,-0.14511,-0.38001,0.03526,,,,,,,,,,,,,,,,,,,,,,,,,,0,0,0,0,0
5.1220,1783190502.5088,1,1,2.0000,0.0000,1.44679,0.18874,-2.78826,1.02868,1.57079,0.00003,-0.14511,-0.38001,0.03524,,,,,,,,,,,,,,,,,,,,,,,,,,0,0,0,0,0
5.1320,1783190502.5188,1,1,2.0000,0.0000,1.44679,0.18857,-2.78830,1.02888,1.57079,0.00003,-0.14511,-0.38001,0.03520,,,,,,,,,,,,,,,,,,,,,,,,,,0,0,0,0,0
5.1386,1783190502.5254,1,1,2.0000,0.0000,1.44679,0.18857,-2.78830,1.02888,1.57079,0.00003,-0.14511,-0.38001,0.03520,,,,,,,,,,,,,,,,,,,,,,,,,,0,0,0,0,0
5.1392,1783190502.5260,1,1,2.0000,0.0000,1.44679,0.18856,-2.78830,1.02890,1.57079,0.00003,-0.14511,-0.38001,0.03520,,,,,,,,,,,,,,,,,,,,,,,,,,0,0,0,0,0
5.1559,1783190502.5427,1,1,2.0000,0.0000,1.44679,0.18833,-2.78835,1.02918,1.57079,0.00003,-0.14511,-0.38001,0.03514,,,,,,,,,,,,,,,,,,,,,,,,,,0,0,0,0,0
5.1601,1783190502.5469,1,1,2.0000,0.0000,1.44679,0.18826,-2.78837,1.02927,1.57079,0.00003,-0.14511,-0.38001,0.03512,,,,,,,,,,,,,,,,,,,,,,,,,,0,0,0,0,0
5.1762,1783190502.5630,1,1,2.0000,0.0000,1.44679,0.18815,-2.78839,1.02940,1.57079,0.00003,-0.14511,-0.38001,0.03510,,,,,,,,,,,,,,,,,,,,,,,,,,0,0,0,0,0
5.1797,1783190502.5666,1,1,2.0000,0.0000,1.44679,0.18811,-2.78840,1.02945,1.57079,0.00004,-0.14511,-0.38001,0.03509,,,,,,,,,,,,,,,,,,,,,,,,,,0,0,0,0,0
5.1917,1783190502.5786,1,1,2.0000,0.0000,1.44679,0.18794,-2.78844,1.02966,1.57079,0.00004,-0.14511,-0.38001,0.03504,,,,,,,,,,,,,,,,,,,,,,,,,,0,0,0,0,0
5.1999,1783190502.5867,1,1,2.0000,0.0000,1.44679,0.18793,-2.78844,1.02967,1.57079,0.00004,-0.14511,-0.38001,0.03504,,,,,,,,,,,,,,,,,,,,,,,,,,0,0,0,0,0
5.2002,1783190502.5871,1,1,2.0000,0.0000,1.44679,0.18793,-2.78844,1.02967,1.57079,0.00004,-0.14511,-0.38001,0.03504,,,,,,,,,,,,,,,,,,,,,,,,,,0,0,0,0,0
5.2094,1783190502.5963,1,1,2.0000,0.0000,1.44679,0.18784,-2.78846,1.02978,1.57079,0.00004,-0.14511,-0.38001,0.03502,,,,,,,,,,,,,,,,,,,,,,,,,,0,0,0,0,0
5.2099,1783190502.5967,1,1,2.0000,0.0000,1.44679,0.18784,-2.78846,1.02978,1.57079,0.00004,-0.14511,-0.38001,0.03502,,,,,,,,,,,,,,,,,,,,,,,,,,0,0,0,0,0
5.2229,1783190502.6097,1,1,2.0000,0.0000,1.44679,0.18762,-2.78851,1.03005,1.57079,0.00004,-0.14511,-0.38001,0.03497,,,,,,,,,,,,,,,,,,,,,,,,,,0,0,0,0,0
5.2295,1783190502.6163,1,1,2.0000,0.0000,1.44679,0.18755,-2.78853,1.03014,1.57079,0.00004,-0.14511,-0.38001,0.03495,,,,,,,,,,,,,,,,,,,,,,,,,,0,0,0,0,0
5.2299,1783190502.6167,1,1,2.0000,0.0000,1.44679,0.18755,-2.78853,1.03014,1.57079,0.00004,-0.14511,-0.38001,0.03495,,,,,,,,,,,,,,,,,,,,,,,,,,0,0,0,0,0
5.2407,1783190502.6276,1,1,2.0000,0.0000,1.44679,0.18748,-2.78854,1.03023,1.57079,0.00004,-0.14511,-0.38001,0.03493,,,,,,,,,,,,,,,,,,,,,,,,,,0,0,0,0,0
5.2520,1783190502.6389,1,1,2.0000,0.0000,1.44679,0.18731,-2.78858,1.03043,1.57079,0.00004,-0.14511,-0.38001,0.03489,,,,,,,,,,,,,,,,,,,,,,,,,,0,0,0,0,0
5.2601,1783190502.6469,1,1,2.0000,0.0000,1.44679,0.18730,-2.78858,1.03045,1.57079,0.00004,-0.14511,-0.38001,0.03489,,,,,,,,,,,,,,,,,,,,,,,,,,0,0,0,0,0
