Martins-Lucaas/twinforge/sensors/Data/20260713_123209__samples.csv
t_rel_s,t_unix,cycle,phase,setpoint_n,force_net_n,q1,q2,q3,q4,q5,q6,tcp_x,tcp_y,tcp_z,taxel_0,taxel_1,taxel_2,taxel_3,taxel_4,taxel_5,taxel_6,taxel_7,taxel_8,taxel_9,taxel_10,taxel_11,taxel_12,taxel_13,taxel_14,taxel_15,taxel_16,taxel_17,taxel_18,taxel_19,taxel_20,taxel_21,taxel_22,taxel_23,taxel_24,n_RA,n_SA,cn_mm,cn_ra,cn_sa
0.0281,1783956729.5121,1,0,1.0000,-0.0000,1.42244,0.00072,-2.63059,1.05901,1.57082,0.11673,-0.12763,-0.48146,0.03735,,,,,,,,,,,,,,,,,,,,,,,,,,0,0,0,0,0
0.0289,1783956729.5129,1,0,1.0000,-0.0000,1.42244,0.00072,-2.63059,1.05901,1.57082,0.11673,-0.12763,-0.48146,0.03735,,,,,,,,,,,,,,,,,,,,,,,,,,0,0,0,0,0
0.0297,1783956729.5137,1,0,1.0000,-0.0000,1.42244,0.00072,-2.63059,1.05901,1.57082,0.11673,-0.12763,-0.48146,0.03735,,,,,,,,,,,,,,,,,,,,,,,,,,0,0,0,0,0
0.0301,1783956729.5141,1,0,1.0000,-0.0000,1.42244,0.00072,-2.63059,1.05901,1.57082,0.11673,-0.12763,-0.48146,0.03735,,,,,,,,,,,,,,,,,,,,,,,,,,0,0,0,0,0
0.0314,1783956729.5154,1,0,1.0000,-0.0000,1.42244,0.00072,-2.63059,1.05901,1.57082,0.11673,-0.12763,-0.48146,0.03735,,,,,,,,,,,,,,,,,,,,,,,,,,0,0,0,0,0
0.0318,1783956729.5158,1,0,1.0000,-0.0000,1.42244,0.00072,-2.63059,1.05901,1.57082,0.11673,-0.12763,-0.48146,0.03735,,,,,,,,,,,,,,,,,,,,,,,,,,0,0,0,0,0
0.0410,1783956729.5250,1,0,1.0000,-0.0000,1.42244,0.00072,-2.63059,1.05901,1.57082,0.11673,-0.12763,-0.48146,0.03735,,,,,,,,,,,,,,,,,,,,,,,,,,0,0,0,0,0
0.0413,1783956729.5253,1,0,1.0000,-0.0000,1.42244,0.00072,-2.63059,1.05901,1.57082,0.11673,-0.12763,-0.48146,0.03735,,,,,,,,,,,,,,,,,,,,,,,,,,0,0,0,0,0
0.0595,1783956729.5435,1,0,1.0000,-0.0000,1.42244,0.00072,-2.63058,1.05902,1.57082,0.11674,-0.12763,-0.48148,0.03736,,,,,,,,,,,,,,,,,,,,,,,,,,0,0,0,0,0
0.0713,1783956729.5553,1,0,1.0000,-0.0000,1.42244,0.00071,-2.63056,1.05904,1.57081,0.11674,-0.12763,-0.48150,0.03737,,,,,,,,,,,,,,,,,,,,,,,,,,0,0,0,0,0
0.1506,1783956729.6346,1,0,1.0000,-0.0000,1.42244,0.00071,-2.63053,1.05907,1.57080,0.11675,-0.12763,-0.48152,0.03738,,,,,,,,,,,,,,,,,,,,,,,,,,0,0,0,0,0
0.1509,1783956729.6349,1,0,1.0000,-0.0000,1.42244,0.00071,-2.63053,1.05907,1.57080,0.11675,-0.12763,-0.48152,0.03738,,,,,,,,,,,,,,,,,,,,,,,,,,0,0,0,0,0
0.1512,1783956729.6352,1,0,1.0000,-0.0000,1.42244,0.00071,-2.63053,1.05907,1.57080,0.11675,-0.12763,-0.48152,0.03738,,,,,,,,,,,,,,,,,,,,,,,,,,0,0,0,0,0
0.1516,1783956729.6356,1,0,1.0000,-0.0000,1.42244,0.00071,-2.63053,1.05907,1.57080,0.11675,-0.12763,-0.48152,0.03738,,,,,,,,,,,,,,,,,,,,,,,,,,0,0,0,0,0
0.1526,1783956729.6366,1,0,1.0000,-0.0000,1.42244,0.00071,-2.63053,1.05907,1.57080,0.11675,-0.12763,-0.48152,0.03738,,,,,,,,,,,,,,,,,,,,,,,,,,0,0,0,0,0
0.1528,1783956729.6368,1,0,1.0000,-0.0000,1.42244,0.00071,-2.63053,1.05907,1.57080,0.11675,-0.12763,-0.48152,0.03738,,,,,,,,,,,,,,,,,,,,,,,,,,0,0,0,0,0
0.2303,1783956729.7143,1,0,1.0000,-0.0000,1.42244,0.00071,-2.63053,1.05907,1.57080,0.11675,-0.12763,-0.48152,0.03738,,,,,,,,,,,,,,,,,,,,,,,,,,0,0,0,0,0
0.2306,1783956729.7146,1,0,1.0000,-0.0000,1.42244,0.00071,-2.63053,1.05907,1.57080,0.11675,-0.12763,-0.48152,0.03738,,,,,,,,,,,,,,,,,,,,,,,,,,0,0,0,0,0
0.2311,1783956729.7151,1,0,1.0000,-0.0000,1.42244,0.00071,-2.63053,1.05907,1.57080,0.11675,-0.12763,-0.48152,0.03738,,,,,,,,,,,,,,,,,,,,,,,,,,0,0,0,0,0
0.2314,1783956729.7154,1,0,1.0000,-0.0000,1.42244,0.00071,-2.63053,1.05907,1.57080,0.11675,-0.12763,-0.48152,0.03738,,,,,,,,,,,,,,,,,,,,,,,,,,0,0,0,0,0
0.2435,1783956729.7275,1,0,1.0000,-0.0000,1.42244,0.00071,-2.63053,1.05907,1.57080,0.11675,-0.12763,-0.48152,0.03738,,,,,,,,,,,,,,,,,,,,,,,,,,0,0,0,0,0
0.2439,1783956729.7279,1,0,1.0000,-0.0000,1.42244,0.00071,-2.63053,1.05907,1.57080,0.11675,-0.12763,-0.48152,0.03738,,,,,,,,,,,,,,,,,,,,,,,,,,0,0,0,0,0
0.2445,1783956729.7285,1,0,1.0000,-0.0000,1.42244,0.00071,-2.63053,1.05907,1.57080,0.11675,-0.12763,-0.48152,0.03738,,,,,,,,,,,,,,,,,,,,,,,,,,0,0,0,0,0
0.2782,1783956729.7622,1,0,1.0000,-0.0000,1.42244,0.00071,-2.63053,1.05907,1.57080,0.11675,-0.12763,-0.48152,0.03738,,,,,,,,,,,,,,,,,,,,,,,,,,0,0,0,0,0
0.2787,1783956729.7627,1,0,1.0000,-0.0000,1.42244,0.00071,-2.63053,1.05907,1.57080,0.11675,-0.12763,-0.48152,0.03738,,,,,,,,,,,,,,,,,,,,,,,,,,0,0,0,0,0
0.2792,1783956729.7632,1,0,1.0000,-0.0000,1.42244,0.00071,-2.63053,1.05907,1.57080,0.11675,-0.12763,-0.48152,0.03738,,,,,,,,,,,,,,,,,,,,,,,,,,0,0,0,0,0
0.2815,1783956729.7656,1,0,1.0000,-0.0000,1.42244,0.00071,-2.63053,1.05907,1.57080,0.11675,-0.12763,-0.48152,0.03738,,,,,,,,,,,,,,,,,,,,,,,,,,0,0,0,0,0
0.2819,1783956729.7659,1,0,1.0000,-0.0000,1.42244,0.00071,-2.63053,1.05907,1.57080,0.11675,-0.12763,-0.48152,0.03738,,,,,,,,,,,,,,,,,,,,,,,,,,0,0,0,0,0
0.3059,1783956729.7899,1,0,1.0000,-0.0000,1.42244,0.00071,-2.63053,1.05907,1.57080,0.11675,-0.12763,-0.48152,0.03738,,,,,,,,,,,,,,,,,,,,,,,,,,0,0,0,0,0
0.3195,1783956729.8035,1,0,1.0000,-0.0000,1.42244,0.00071,-2.63053,1.05907,1.57080,0.11675,-0.12763,-0.48152,0.03738,,,,,,,,,,,,,,,,,,,,,,,,,,0,0,0,0,0
0.3199,1783956729.8039,1,0,1.0000,-0.0000,1.42244,0.00071,-2.63053,1.05907,1.57080,0.11675,-0.12763,-0.48152,0.03738,,,,,,,,,,,,,,,,,,,,,,,,,,0,0,0,0,0
0.3206,1783956729.8046,1,0,1.0000,-0.0000,1.42244,0.00071,-2.63053,1.05907,1.57080,0.11675,-0.12763,-0.48152,0.03738,,,,,,,,,,,,,,,,,,,,,,,,,,0,0,0,0,0
0.3307,1783956729.8148,1,0,1.0000,-0.0000,1.42244,0.00071,-2.63053,1.05907,1.57080,0.11675,-0.12763,-0.48152,0.03738,,,,,,,,,,,,,,,,,,,,,,,,,,0,0,0,0,0
0.3312,1783956729.8152,1,0,1.0000,-0.0000,1.42244,0.00071,-2.63053,1.05907,1.57080,0.11675,-0.12763,-0.48152,0.03738,,,,,,,,,,,,,,,,,,,,,,,,,,0,0,0,0,0
0.3424,1783956729.8264,1,0,1.0000,-0.0000,1.42244,0.00071,-2.63053,1.05907,1.57080,0.11675,-0.12763,-0.48152,0.03738,,,,,,,,,,,,,,,,,,,,,,,,,,0,0,0,0,0
0.3427,1783956729.8267,1,0,1.0000,-0.0000,1.42244,0.00071,-2.63053,1.05907,1.57080,0.11675,-0.12763,-0.48152,0.03738,,,,,,,,,,,,,,,,,,,,,,,,,,0,0,0,0,0
0.3503,1783956729.8343,1,0,1.0000,-0.0000,1.42244,0.00071,-2.63053,1.05907,1.57080,0.11675,-0.12763,-0.48152,0.03738,,,,,,,,,,,,,,,,,,,,,,,,,,0,0,0,0,0
0.3811,1783956729.8651,1,0,1.0000,-0.0000,1.42244,0.00071,-2.63053,1.05907,1.57080,0.11675,-0.12763,-0.48152,0.03738,,,,,,,,,,,,,,,,,,,,,,,,,,0,0,0,0,0
0.3815,1783956729.8655,1,0,1.0000,-0.0000,1.42244,0.00071,-2.63053,1.05907,1.57080,0.11675,-0.12763,-0.48152,0.03738,,,,,,,,,,,,,,,,,,,,,,,,,,0,0,0,0,0
0.3897,1783956729.8737,1,0,1.0000,-0.0000,1.42244,0.00071,-2.63053,1.05907,1.57080,0.11675,-0.12763,-0.48152,0.03738,,,,,,,,,,,,,,,,,,,,,,,,,,0,0,0,0,0
0.4078,1783956729.8918,1,0,1.0000,-0.0000,1.42244,0.00071,-2.63053,1.05907,1.57080,0.11675,-0.12763,-0.48152,0.03738,,,,,,,,,,,,,,,,,,,,,,,,,,0,0,0,0,0
0.4129,1783956729.8969,1,0,1.0000,-0.0000,1.42244,0.00071,-2.63053,1.05907,1.57080,0.11675,-0.12763,-0.48152,0.03738,,,,,,,,,,,,,,,,,,,,,,,,,,0,0,0,0,0
0.4224,1783956729.9064,1,0,1.0000,-0.0000,1.42244,0.00071,-2.63053,1.05907,1.57080,0.11675,-0.12763,-0.48152,0.03738,,,,,,,,,,,,,,,,,,,,,,,,,,0,0,0,0,0
0.4229,1783956729.9069,1,0,1.0000,-0.0000,1.42244,0.00071,-2.63053,1.05907,1.57080,0.11675,-0.12763,-0.48152,0.03738,,,,,,,,,,,,,,,,,,,,,,,,,,0,0,0,0,0
0.4466,1783956729.9306,1,0,1.0000,-0.0000,1.42244,0.00071,-2.63053,1.05907,1.57080,0.11675,-0.12763,-0.48152,0.03738,,,,,,,,,,,,,,,,,,,,,,,,,,0,0,0,0,0
0.4469,1783956729.9309,1,0,1.0000,-0.0000,1.42244,0.00071,-2.63053,1.05907,1.57080,0.11675,-0.12763,-0.48152,0.03738,,,,,,,,,,,,,,,,,,,,,,,,,,0,0,0,0,0
0.4529,1783956729.9369,1,0,1.0000,-0.0000,1.42244,0.00071,-2.63053,1.05907,1.57080,0.11675,-0.12763,-0.48152,0.03738,,,,,,,,,,,,,,,,,,,,,,,,,,0,0,0,0,0
0.4533,1783956729.9373,1,0,1.0000,-0.0000,1.42244,0.00071,-2.63053,1.05907,1.57080,0.11675,-0.12763,-0.48152,0.03738,,,,,,,,,,,,,,,,,,,,,,,,,,0,0,0,0,0
0.4620,1783956729.9460,1,0,1.0000,-0.0000,1.42244,0.00071,-2.63053,1.05907,1.57080,0.11675,-0.12763,-0.48152,0.03738,,,,,,,,,,,,,,,,,,,,,,,,,,0,0,0,0,0
0.5076,1783956729.9916,1,0,1.0000,-0.0000,1.42244,0.00071,-2.63053,1.05907,1.57080,0.11675,-0.12763,-0.48152,0.03738,,,,,,,,,,,,,,,,,,,,,,,,,,0,0,0,0,0
0.5078,1783956729.9918,1,0,1.0000,-0.0000,1.42244,0.00071,-2.63053,1.05907,1.57080,0.11675,-0.12763,-0.48152,0.03738,,,,,,,,,,,,,,,,,,,,,,,,,,0,0,0,0,0
0.5168,1783956730.0008,1,0,1.0000,-0.0000,1.42244,0.00071,-2.63053,1.05907,1.57080,0.11675,-0.12763,-0.48152,0.03738,,,,,,,,,,,,,,,,,,,,,,,,,,0,0,0,0,0
0.5171,1783956730.0011,1,0,1.0000,-0.0000,1.42244,0.00071,-2.63053,1.05907,1.57080,0.11675,-0.12763,-0.48152,0.03738,,,,,,,,,,,,,,,,,,,,,,,,,,0,0,0,0,0
0.5175,1783956730.0015,1,0,1.0000,-0.0000,1.42244,0.00071,-2.63053,1.05907,1.57080,0.11675,-0.12763,-0.48152,0.03738,,,,,,,,,,,,,,,,,,,,,,,,,,0,0,0,0,0
0.5374,1783956730.0214,1,0,1.0000,-0.0000,1.42244,0.00071,-2.63053,1.05907,1.57080,0.11675,-0.12763,-0.48152,0.03738,,,,,,,,,,,,,,,,,,,,,,,,,,0,0,0,0,0
0.5378,1783956730.0218,1,0,1.0000,-0.0000,1.42244,0.00071,-2.63053,1.05907,1.57080,0.11675,-0.12763,-0.48152,0.03738,,,,,,,,,,,,,,,,,,,,,,,,,,0,0,0,0,0
0.5447,1783956730.0287,1,0,1.0000,-0.0000,1.42244,0.00071,-2.63053,1.05907,1.57080,0.11675,-0.12763,-0.48152,0.03738,,,,,,,,,,,,,,,,,,,,,,,,,,0,0,0,0,0
0.5496,1783956730.0336,1,0,1.0000,-0.0000,1.42244,0.00071,-2.63053,1.05907,1.57080,0.11675,-0.12763,-0.48152,0.03738,,,,,,,,,,,,,,,,,,,,,,,,,,0,0,0,0,0
0.5808,1783956730.0648,1,0,1.0000,-0.0000,1.42244,0.00071,-2.63053,1.05907,1.57080,0.11675,-0.12763,-0.48152,0.03738,,,,,,,,,,,,,,,,,,,,,,,,,,0,0,0,0,0
0.5811,1783956730.0652,1,0,1.0000,-0.0000,1.42244,0.00071,-2.63053,1.05907,1.57080,0.11675,-0.12763,-0.48152,0.03738,,,,,,,,,,,,,,,,,,,,,,,,,,0,0,0,0,0
0.5830,1783956730.0670,1,0,1.0000,-0.0000,1.42244,0.00071,-2.63053,1.05907,1.57080,0.11675,-0.12763,-0.48152,0.03738,,,,,,,,,,,,,,,,,,,,,,,,,,0,0,0,0,0
0.5933,1783956730.0773,1,0,1.0000,-0.0000,1.42244,0.00071,-2.63053,1.05907,1.57080,0.11675,-0.12763,-0.48152,0.03738,,,,,,,,,,,,,,,,,,,,,,,,,,0,0,0,0,0
0.6078,1783956730.0918,1,0,1.0000,-0.0000,1.42244,0.00071,-2.63053,1.05907,1.57080,0.11675,-0.12763,-0.48152,0.03738,,,,,,,,,,,,,,,,,,,,,,,,,,0,0,0,0,0
0.6141,1783956730.0981,1,0,1.0000,-0.0000,1.42244,0.00071,-2.63053,1.05907,1.57080,0.11675,-0.12763,-0.48152,0.03738,,,,,,,,,,,,,,,,,,,,,,,,,,0,0,0,0,0
0.6256,1783956730.1096,1,0,1.0000,-0.0000,1.42244,0.00071,-2.63053,1.05907,1.57080,0.11675,-0.12763,-0.48152,0.03738,,,,,,,,,,,,,,,,,,,,,,,,,,0,0,0,0,0
0.6407,1783956730.1247,1,0,1.0000,-0.0000,1.42244,0.00071,-2.63053,1.05907,1.57080,0.11675,-0.12763,-0.48152,0.03738,,,,,,,,,,,,,,,,,,,,,,,,,,0,0,0,0,0
0.6410,1783956730.1250,1,0,1.0000,-0.0000,1.42244,0.00071,-2.63053,1.05907,1.57080,0.11675,-0.12763,-0.48152,0.03738,,,,,,,,,,,,,,,,,,,,,,,,,,0,0,0,0,0
0.6415,1783956730.1255,1,0,1.0000,-0.0000,1.42244,0.00071,-2.63053,1.05907,1.57080,0.11675,-0.12763,-0.48152,0.03738,,,,,,,,,,,,,,,,,,,,,,,,,,0,0,0,0,0
0.6418,1783956730.1258,1,0,1.0000,-0.0000,1.42244,0.00071,-2.63053,1.05907,1.57080,0.11675,-0.12763,-0.48152,0.03738,,,,,,,,,,,,,,,,,,,,,,,,,,0,0,0,0,0
0.6598,1783956730.1438,1,0,1.0000,-0.0000,1.42244,0.00071,-2.63053,1.05907,1.57080,0.11675,-0.12763,-0.48152,0.03738,,,,,,,,,,,,,,,,,,,,,,,,,,0,0,0,0,0
0.6636,1783956730.1476,1,0,1.0000,-0.0000,1.42244,0.00071,-2.63053,1.05907,1.57080,0.11675,-0.12763,-0.48152,0.03738,,,,,,,,,,,,,,,,,,,,,,,,,,0,0,0,0,0
0.6639,1783956730.1479,1,0,1.0000,-0.0000,1.42244,0.00071,-2.63053,1.05907,1.57080,0.11675,-0.12763,-0.48152,0.03738,,,,,,,,,,,,,,,,,,,,,,,,,,0,0,0,0,0
0.6965,1783956730.1805,1,0,1.0000,-0.0000,1.42244,0.00071,-2.63053,1.05907,1.57080,0.11675,-0.12763,-0.48152,0.03738,,,,,,,,,,,,,,,,,,,,,,,,,,0,0,0,0,0
0.7015,1783956730.1855,1,0,1.0000,-0.0000,1.42244,0.00071,-2.63053,1.05907,1.57080,0.11675,-0.12763,-0.48152,0.03738,,,,,,,,,,,,,,,,,,,,,,,,,,0,0,0,0,0
0.7097,1783956730.1937,1,0,1.0000,-0.0000,1.42244,0.00071,-2.63053,1.05907,1.57080,0.11675,-0.12763,-0.48152,0.03738,,,,,,,,,,,,,,,,,,,,,,,,,,0,0,0,0,0
0.7100,1783956730.1940,1,0,1.0000,-0.0000,1.42244,0.00071,-2.63053,1.05907,1.57080,0.11675,-0.12763,-0.48152,0.03738,,,,,,,,,,,,,,,,,,,,,,,,,,0,0,0,0,0
0.7134,1783956730.1974,1,0,1.0000,-0.0000,1.42244,0.00071,-2.63053,1.05907,1.57080,0.11675,-0.12763,-0.48152,0.03738,,,,,,,,,,,,,,,,,,,,,,,,,,0,0,0,0,0
0.7202,1783956730.2042,1,0,1.0000,-0.0000,1.42244,0.00071,-2.63053,1.05907,1.57080,0.11675,-0.12763,-0.48152,0.03738,,,,,,,,,,,,,,,,,,,,,,,,,,0,0,0,0,0
0.7207,1783956730.2047,1,0,1.0000,-0.0000,1.42244,0.00071,-2.63053,1.05907,1.57080,0.11675,-0.12763,-0.48152,0.03738,,,,,,,,,,,,,,,,,,,,,,,,,,0,0,0,0,0
0.7297,1783956730.2137,1,1,1.0000,-0.0000,1.42244,0.00071,-2.63053,1.05907,1.57080,0.11675,-0.12763,-0.48152,0.03738,,,,,,,,,,,,,,,,,,,,,,,,,,0,0,0,0,0
0.7465,1783956730.2305,1,1,1.0000,-0.0000,1.42244,0.00071,-2.63053,1.05907,1.57080,0.11675,-0.12763,-0.48152,0.03738,,,,,,,,,,,,,,,,,,,,,,,,,,0,0,0,0,0
0.7498,1783956730.2338,1,1,1.0000,-0.0000,1.42244,0.00071,-2.63053,1.05907,1.57080,0.11675,-0.12763,-0.48152,0.03738,,,,,,,,,,,,,,,,,,,,,,,,,,0,0,0,0,0
0.7597,1783956730.2437,1,1,1.0000,-0.0000,1.42244,0.00071,-2.63053,1.05907,1.57080,0.11675,-0.12763,-0.48152,0.03738,,,,,,,,,,,,,,,,,,,,,,,,,,0,0,0,0,0
0.7733,1783956730.2573,1,1,1.0000,-0.0000,1.42244,0.00071,-2.63053,1.05907,1.57080,0.11675,-0.12763,-0.48152,0.03738,,,,,,,,,,,,,,,,,,,,,,,,,,0,0,0,0,0
0.7866,1783956730.2706,1,1,1.0000,-0.0000,1.42244,0.00071,-2.63053,1.05907,1.57080,0.11675,-0.12763,-0.48152,0.03738,,,,,,,,,,,,,,,,,,,,,,,,,,0,0,0,0,0
0.7896,1783956730.2736,1,1,1.0000,-0.0000,1.42244,0.00071,-2.63053,1.05907,1.57080,0.11675,-0.12763,-0.48152,0.03738,,,,,,,,,,,,,,,,,,,,,,,,,,0,0,0,0,0
0.7899,1783956730.2739,1,1,1.0000,-0.0000,1.42244,0.00071,-2.63053,1.05907,1.57080,0.11675,-0.12763,-0.48152,0.03738,,,,,,,,,,,,,,,,,,,,,,,,,,0,0,0,0,0
0.7996,1783956730.2836,1,1,1.0000,-0.0000,1.42244,0.00071,-2.63053,1.05907,1.57080,0.11675,-0.12763,-0.48152,0.03738,,,,,,,,,,,,,,,,,,,,,,,,,,0,0,0,0,0
0.8196,1783956730.3036,1,1,1.0000,-0.0000,1.42244,0.00071,-2.63053,1.05907,1.57080,0.11675,-0.12763,-0.48152,0.03738,,,,,,,,,,,,,,,,,,,,,,,,,,0,0,0,0,0
0.8224,1783956730.3064,1,1,1.0000,-0.0000,1.42244,0.00071,-2.63053,1.05907,1.57080,0.11675,-0.12763,-0.48152,0.03738,,,,,,,,,,,,,,,,,,,,,,,,,,0,0,0,0,0
0.8227,1783956730.3067,1,1,1.0000,-0.0000,1.42244,0.00071,-2.63053,1.05907,1.57080,0.11675,-0.12763,-0.48152,0.03738,,,,,,,,,,,,,,,,,,,,,,,,,,0,0,0,0,0
0.8500,1783956730.3340,1,1,1.0000,-0.0000,1.42244,0.00071,-2.63053,1.05907,1.57080,0.11675,-0.12763,-0.48152,0.03738,,,,,,,,,,,,,,,,,,,,,,,,,,0,0,0,0,0
0.8503,1783956730.3343,1,1,1.0000,-0.0000,1.42244,0.00071,-2.63053,1.05907,1.57080,0.11675,-0.12763,-0.48152,0.03738,,,,,,,,,,,,,,,,,,,,,,,,,,0,0,0,0,0
0.8512,1783956730.3352,1,1,1.0000,-0.0000,1.42244,0.00071,-2.63053,1.05907,1.57080,0.11675,-0.12763,-0.48152,0.03738,,,,,,,,,,,,,,,,,,,,,,,,,,0,0,0,0,0
0.8623,1783956730.3463,1,1,1.0000,-0.0000,1.42244,0.00071,-2.63053,1.05907,1.57080,0.11675,-0.12763,-0.48152,0.03738,,,,,,,,,,,,,,,,,,,,,,,,,,0,0,0,0,0
0.8859,1783956730.3699,1,1,1.0000,-0.0000,1.42244,0.00071,-2.63053,1.05907,1.57080,0.11675,-0.12763,-0.48152,0.03738,,,,,,,,,,,,,,,,,,,,,,,,,,0,0,0,0,0
0.8967,1783956730.3807,1,1,1.0000,-0.0000,1.42244,0.00071,-2.63053,1.05907,1.57080,0.11675,-0.12763,-0.48152,0.03738,,,,,,,,,,,,,,,,,,,,,,,,,,0,0,0,0,0
0.8970,1783956730.3810,1,1,1.0000,-0.0000,1.42244,0.00071,-2.63053,1.05907,1.57080,0.11675,-0.12763,-0.48152,0.03738,,,,,,,,,,,,,,,,,,,,,,,,,,0,0,0,0,0
0.8974,1783956730.3814,1,1,1.0000,-0.0000,1.42244,0.00071,-2.63053,1.05907,1.57080,0.11675,-0.12763,-0.48152,0.03738,,,,,,,,,,,,,,,,,,,,,,,,,,0,0,0,0,0
0.9019,1783956730.3859,1,1,1.0000,-0.0000,1.42244,0.00071,-2.63053,1.05907,1.57080,0.11675,-0.12763,-0.48152,0.03738,,,,,,,,,,,,,,,,,,,,,,,,,,0,0,0,0,0
0.9156,1783956730.3996,1,1,1.0000,-0.0000,1.42244,0.00071,-2.63053,1.05907,1.57080,0.11675,-0.12763,-0.48152,0.03738,,,,,,,,,,,,,,,,,,,,,,,,,,0,0,0,0,0
0.9254,1783956730.4094,1,1,1.0000,-0.0000,1.42244,0.00071,-2.63053,1.05907,1.57080,0.11675,-0.12763,-0.48152,0.03738,,,,,,,,,,,,,,,,,,,,,,,,,,0,0,0,0,0
0.9377,1783956730.4217,1,1,1.0000,-0.0000,1.42244,0.00071,-2.63053,1.05907,1.57080,0.11675,-0.12763,-0.48152,0.03738,,,,,,,,,,,,,,,,,,,,,,,,,,0,0,0,0,0
0.9502,1783956730.4342,1,1,1.0000,-0.0000,1.42244,0.00071,-2.63053,1.05907,1.57080,0.11675,-0.12763,-0.48152,0.03738,,,,,,,,,,,,,,,,,,,,,,,,,,0,0,0,0,0
0.9665,1783956730.4506,1,1,1.0000,-0.0000,1.42244,0.00071,-2.63053,1.05907,1.57080,0.11675,-0.12763,-0.48152,0.03738,,,,,,,,,,,,,,,,,,,,,,,,,,0,0,0,0,0
0.9671,1783956730.4511,1,1,1.0000,-0.0000,1.42244,0.00071,-2.63053,1.05907,1.57080,0.11675,-0.12763,-0.48152,0.03738,,,,,,,,,,,,,,,,,,,,,,,,,,0,0,0,0,0
0.9807,1783956730.4647,1,1,1.0000,-0.0000,1.42244,0.00071,-2.63053,1.05907,1.57080,0.11675,-0.12763,-0.48152,0.03738,,,,,,,,,,,,,,,,,,,,,,,,,,0,0,0,0,0
0.9900,1783956730.4740,1,1,1.0000,-0.0000,1.42244,0.00071,-2.63053,1.05907,1.57080,0.11675,-0.12763,-0.48152,0.03738,,,,,,,,,,,,,,,,,,,,,,,,,,0,0,0,0,0
0.9903,1783956730.4743,1,1,1.0000,-0.0000,1.42244,0.00071,-2.63053,1.05907,1.57080,0.11675,-0.12763,-0.48152,0.03738,,,,,,,,,,,,,,,,,,,,,,,,,,0,0,0,0,0
0.9906,1783956730.4746,1,1,1.0000,-0.0000,1.42244,0.00071,-2.63053,1.05907,1.57080,0.11675,-0.12763,-0.48152,0.03738,,,,,,,,,,,,,,,,,,,,,,,,,,0,0,0,0,0
1.0472,1783956730.5313,1,1,1.0000,-0.0000,1.42244,0.00068,-2.63057,1.05909,1.57080,0.11675,-0.12764,-0.48150,0.03736,,,,,,,,,,,,,,,,,,,,,,,,,,0,0,0,0,0
1.0476,1783956730.5316,1,1,1.0000,-0.0000,1.42244,0.00068,-2.63057,1.05909,1.57080,0.11675,-0.12764,-0.48150,0.03736,,,,,,,,,,,,,,,,,,,,,,,,,,0,0,0,0,0
1.0479,1783956730.5319,1,1,1.0000,-0.0000,1.42244,0.00068,-2.63057,1.05909,1.57080,0.11675,-0.12764,-0.48150,0.03736,,,,,,,,,,,,,,,,,,,,,,,,,,0,0,0,0,0
1.0486,1783956730.5326,1,1,1.0000,-0.0000,1.42244,0.00067,-2.63058,1.05910,1.57080,0.11675,-0.12764,-0.48149,0.03735,,,,,,,,,,,,,,,,,,,,,,,,,,0,0,0,0,0
1.0531,1783956730.5371,1,1,1.0000,-0.0000,1.42244,0.00066,-2.63059,1.05912,1.57080,0.11675,-0.12764,-0.48149,0.03734,,,,,,,,,,,,,,,,,,,,,,,,,,0,0,0,0,0
1.0928,1783956730.5768,1,1,1.0000,-0.0000,1.42244,0.00056,-2.63064,1.05921,1.57080,0.11675,-0.12764,-0.48146,0.03729,,,,,,,,,,,,,,,,,,,,,,,,,,0,0,0,0,0
1.0930,1783956730.5770,1,1,1.0000,-0.0000,1.42244,0.00056,-2.63064,1.05921,1.57080,0.11675,-0.12764,-0.48146,0.03729,,,,,,,,,,,,,,,,,,,,,,,,,,0,0,0,0,0
1.1009,1783956730.5849,1,1,1.0000,-0.0000,1.42244,0.00052,-2.63065,1.05926,1.57080,0.11675,-0.12764,-0.48146,0.03728,,,,,,,,,,,,,,,,,,,,,,,,,,0,0,0,0,0
1.1013,1783956730.5853,1,1,1.0000,-0.0000,1.42244,0.00052,-2.63065,1.05926,1.57080,0.11675,-0.12764,-0.48146,0.03728,,,,,,,,,,,,,,,,,,,,,,,,,,0,0,0,0,0
1.1016,1783956730.5856,1,1,1.0000,-0.0000,1.42244,0.00052,-2.63065,1.05926,1.57080,0.11675,-0.12764,-0.48146,0.03728,,,,,,,,,,,,,,,,,,,,,,,,,,0,0,0,0,0
1.1020,1783956730.5860,1,1,1.0000,-0.0000,1.42244,0.00052,-2.63065,1.05926,1.57080,0.11675,-0.12764,-0.48146,0.03728,,,,,,,,,,,,,,,,,,,,,,,,,,0,0,0,0,0
1.1073,1783956730.5913,1,1,1.0000,-0.0000,1.42244,0.00050,-2.63066,1.05929,1.57080,0.11675,-0.12764,-0.48146,0.03727,,,,,,,,,,,,,,,,,,,,,,,,,,0,0,0,0,0
1.1076,1783956730.5916,1,1,1.0000,-0.0000,1.42244,0.00050,-2.63066,1.05929,1.57080,0.11675,-0.12764,-0.48146,0.03727,,,,,,,,,,,,,,,,,,,,,,,,,,0,0,0,0,0
1.1205,1783956730.6045,1,1,1.0000,-0.0000,1.42244,0.00043,-2.63068,1.05937,1.57080,0.11675,-0.12764,-0.48145,0.03724,,,,,,,,,,,,,,,,,,,,,,,,,,0,0,0,0,0
1.1206,1783956730.6046,1,1,1.0000,-0.0000,1.42244,0.00043,-2.63068,1.05937,1.57080,0.11675,-0.12764,-0.48145,0.03724,,,,,,,,,,,,,,,,,,,,,,,,,,0,0,0,0,0
1.1241,1783956730.6081,1,1,1.0000,-0.0000,1.42244,0.00043,-2.63068,1.05937,1.57080,0.11675,-0.12764,-0.48145,0.03724,,,,,,,,,,,,,,,,,,,,,,,,,,0,0,0,0,0
1.1248,1783956730.6088,1,1,1.0000,-0.0000,1.42244,0.00041,-2.63068,1.05938,1.57080,0.11675,-0.12764,-0.48145,0.03723,,,,,,,,,,,,,,,,,,,,,,,,,,0,0,0,0,0
1.1397,1783956730.6237,1,1,1.0000,-0.0000,1.42244,0.00032,-2.63070,1.05950,1.57080,0.11675,-0.12764,-0.48145,0.03720,,,,,,,,,,,,,,,,,,,,,,,,,,0,0,0,0,0
1.1401,1783956730.6241,1,1,1.0000,-0.0000,1.42244,0.00032,-2.63070,1.05950,1.57080,0.11675,-0.12764,-0.48145,0.03720,,,,,,,,,,,,,,,,,,,,,,,,,,0,0,0,0,0
1.1407,1783956730.6247,1,1,1.0000,-0.0000,1.42244,0.00027,-2.63071,1.05955,1.57080,0.11675,-0.12764,-0.48145,0.03719,,,,,,,,,,,,,,,,,,,,,,,,,,0,0,0,0,0
1.1542,1783956730.6382,1,1,1.0000,-0.0000,1.42244,0.00022,-2.63072,1.05961,1.57080,0.11675,-0.12764,-0.48145,0.03717,,,,,,,,,,,,,,,,,,,,,,,,,,0,0,0,0,0
1.1545,1783956730.6385,1,1,1.0000,-0.0000,1.42244,0.00022,-2.63072,1.05961,1.57080,0.11675,-0.12764,-0.48145,0.03717,,,,,,,,,,,,,,,,,,,,,,,,,,0,0,0,0,0
1.1646,1783956730.6486,1,1,1.0000,-0.0000,1.42244,0.00014,-2.63074,1.05971,1.57080,0.11675,-0.12764,-0.48145,0.03714,,,,,,,,,,,,,,,,,,,,,,,,,,0,0,0,0,0
1.2204,1783956730.7045,1,1,1.0000,-0.0000,1.42244,-0.00019,-2.63078,1.06011,1.57080,0.11675,-0.12764,-0.48148,0.03704,,,,,,,,,,,,,,,,,,,,,,,,,,0,0,0,0,0
1.2207,1783956730.7047,1,1,1.0000,-0.0000,1.42244,-0.00019,-2.63078,1.06011,1.57080,0.11675,-0.12764,-0.48148,0.03704,,,,,,,,,,,,,,,,,,,,,,,,,,0,0,0,0,0
1.2431,1783956730.7271,1,1,1.0000,-0.0000,1.42244,-0.00035,-2.63076,1.06031,1.57080,0.11675,-0.12763,-0.48152,0.03702,,,,,,,,,,,,,,,,,,,,,,,,,,0,0,0,0,0
1.2436,1783956730.7276,1,1,1.0000,-0.0000,1.42244,-0.00035,-2.63076,1.06031,1.57080,0.11675,-0.12763,-0.48152,0.03702,,,,,,,,,,,,,,,,,,,,,,,,,,0,0,0,0,0
1.2441,1783956730.7281,1,1,1.0000,-0.0000,1.42244,-0.00035,-2.63076,1.06031,1.57080,0.11675,-0.12763,-0.48152,0.03702,,,,,,,,,,,,,,,,,,,,,,,,,,0,0,0,0,0
1.2732,1783956730.7572,1,1,1.0000,-0.0000,1.42244,-0.00047,-2.63070,1.06047,1.57080,0.11675,-0.12762,-0.48158,0.03701,,,,,,,,,,,,,,,,,,,,,,,,,,0,0,0,0,0
1.2752,1783956730.7592,1,1,1.0000,-0.0000,1.42244,-0.00047,-2.63070,1.06047,1.57080,0.11675,-0.12762,-0.48158,0.03701,,,,,,,,,,,,,,,,,,,,,,,,,,0,0,0,0,0
1.2756,1783956730.7596,1,1,1.0000,-0.0000,1.42244,-0.00047,-2.63070,1.06047,1.57080,0.11675,-0.12762,-0.48158,0.03701,,,,,,,,,,,,,,,,,,,,,,,,,,0,0,0,0,0
1.2878,1783956730.7718,1,1,1.0000,-0.0000,1.42244,-0.00047,-2.63070,1.06047,1.57080,0.11675,-0.12762,-0.48158,0.03701,,,,,,,,,,,,,,,,,,,,,,,,,,0,0,0,0,0
1.3076,1783956730.7916,1,1,1.0000,-0.0000,1.42244,-0.00047,-2.63070,1.06047,1.57080,0.11675,-0.12762,-0.48158,0.03701,,,,,,,,,,,,,,,,,,,,,,,,,,0,0,0,0,0
1.3142,1783956730.7982,1,1,1.0000,-0.0000,1.42244,-0.00047,-2.63070,1.06047,1.57080,0.11675,-0.12762,-0.48158,0.03701,,,,,,,,,,,,,,,,,,,,,,,,,,0,0,0,0,0
1.3146,1783956730.7986,1,1,1.0000,-0.0000,1.42244,-0.00047,-2.63070,1.06047,1.57080,0.11675,-0.12762,-0.48158,0.03701,,,,,,,,,,,,,,,,,,,,,,,,,,0,0,0,0,0
1.3212,1783956730.8053,1,1,1.0000,-0.0000,1.42244,-0.00047,-2.63070,1.06047,1.57080,0.11675,-0.12762,-0.48158,0.03701,,,,,,,,,,,,,,,,,,,,,,,,,,0,0,0,0,0
1.3218,1783956730.8058,1,1,1.0000,-0.0000,1.42244,-0.00047,-2.63070,1.06047,1.57080,0.11675,-0.12762,-0.48158,0.03701,,,,,,,,,,,,,,,,,,,,,,,,,,0,0,0,0,0
1.3300,1783956730.8140,1,1,1.0000,-0.0000,1.42244,-0.00047,-2.63070,1.06047,1.57080,0.11675,-0.12762,-0.48158,0.03701,,,,,,,,,,,,,,,,,,,,,,,,,,0,0,0,0,0
1.3447,1783956730.8287,1,1,1.0000,-0.0000,1.42244,-0.00047,-2.63070,1.06047,1.57080,0.11675,-0.12762,-0.48158,0.03701,,,,,,,,,,,,,,,,,,,,,,,,,,0,0,0,0,0
1.3451,1783956730.8291,1,1,1.0000,-0.0000,1.42244,-0.00047,-2.63070,1.06047,1.57080,0.11675,-0.12762,-0.48158,0.03701,,,,,,,,,,,,,,,,,,,,,,,,,,0,0,0,0,0
1.3606,1783956730.8446,1,1,1.0000,-0.0000,1.42244,-0.00047,-2.63070,1.06047,1.57080,0.11675,-0.12762,-0.48158,0.03701,,,,,,,,,,,,,,,,,,,,,,,,,,0,0,0,0,0
1.3670,1783956730.8510,1,1,1.0000,-0.0000,1.42244,-0.00047,-2.63070,1.06047,1.57080,0.11675,-0.12762,-0.48158,0.03701,,,,,,,,,,,,,,,,,,,,,,,,,,0,0,0,0,0
1.3674,1783956730.8514,1,1,1.0000,-0.0000,1.42244,-0.00047,-2.63070,1.06047,1.57080,0.11675,-0.12762,-0.48158,0.03701,,,,,,,,,,,,,,,,,,,,,,,,,,0,0,0,0,0
1.3771,1783956730.8611,1,1,1.0000,-0.0000,1.42244,-0.00047,-2.63070,1.06047,1.57080,0.11675,-0.12762,-0.48158,0.03701,,,,,,,,,,,,,,,,,,,,,,,,,,0,0,0,0,0
1.4048,1783956730.8888,1,1,1.0000,-0.0000,1.42244,-0.00047,-2.63070,1.06047,1.57080,0.11675,-0.12762,-0.48158,0.03701,,,,,,,,,,,,,,,,,,,,,,,,,,0,0,0,0,0
1.4052,1783956730.8892,1,1,1.0000,-0.0000,1.42244,-0.00047,-2.63070,1.06047,1.57080,0.11675,-0.12762,-0.48158,0.03701,,,,,,,,,,,,,,,,,,,,,,,,,,0,0,0,0,0
1.4127,1783956730.8967,1,1,1.0000,-0.0000,1.42244,-0.00047,-2.63070,1.06047,1.57080,0.11675,-0.12762,-0.48158,0.03701,,,,,,,,,,,,,,,,,,,,,,,,,,0,0,0,0,0
1.4152,1783956730.8992,1,1,1.0000,-0.0000,1.42244,-0.00047,-2.63070,1.06047,1.57080,0.11675,-0.12762,-0.48158,0.03701,,,,,,,,,,,,,,,,,,,,,,,,,,0,0,0,0,0
1.4194,1783956730.9034,1,1,1.0000,-0.0000,1.42244,-0.00047,-2.63070,1.06047,1.57080,0.11675,-0.12762,-0.48158,0.03701,,,,,,,,,,,,,,,,,,,,,,,,,,0,0,0,0,0
1.4199,1783956730.9039,1,1,1.0000,-0.0000,1.42244,-0.00047,-2.63070,1.06047,1.57080,0.11675,-0.12762,-0.48158,0.03701,,,,,,,,,,,,,,,,,,,,,,,,,,0,0,0,0,0
1.4331,1783956730.9171,1,1,1.0000,-0.0000,1.42244,-0.00048,-2.63072,1.06049,1.57080,0.11675,-0.12762,-0.48157,0.03700,,,,,,,,,,,,,,,,,,,,,,,,,,0,0,0,0,0
1.4335,1783956730.9175,1,1,1.0000,-0.0000,1.42244,-0.00048,-2.63072,1.06049,1.57080,0.11675,-0.12762,-0.48157,0.03700,,,,,,,,,,,,,,,,,,,,,,,,,,0,0,0,0,0
1.4447,1783956730.9287,1,1,1.0000,-0.0000,1.42244,-0.00049,-2.63075,1.06050,1.57080,0.11675,-0.12763,-0.48156,0.03699,,,,,,,,,,,,,,,,,,,,,,,,,,0,0,0,0,0
1.4500,1783956730.9340,1,1,1.0000,-0.0000,1.42244,-0.00049,-2.63075,1.06051,1.57080,0.11675,-0.12763,-0.48156,0.03699,,,,,,,,,,,,,,,,,,,,,,,,,,0,0,0,0,0
1.4505,1783956730.9345,1,1,1.0000,-0.0000,1.42244,-0.00049,-2.63075,1.06051,1.57080,0.11675,-0.12763,-0.48156,0.03699,,,,,,,,,,,,,,,,,,,,,,,,,,0,0,0,0,0
1.4637,1783956730.9477,1,1,1.0000,-0.0000,1.42244,-0.00051,-2.63078,1.06054,1.57080,0.11675,-0.12763,-0.48153,0.03697,,,,,,,,,,,,,,,,,,,,,,,,,,0,0,0,0,0
1.5065,1783956730.9905,1,1,1.0000,-0.0000,1.42244,-0.00067,-2.63093,1.06073,1.57080,0.11675,-0.12764,-0.48145,0.03687,,,,,,,,,,,,,,,,,,,,,,,,,,0,0,0,0,0
1.5069,1783956730.9909,1,1,1.0000,-0.0000,1.42244,-0.00067,-2.63093,1.06073,1.57080,0.11675,-0.12764,-0.48145,0.03687,,,,,,,,,,,,,,,,,,,,,,,,,,0,0,0,0,0
1.5074,1783956730.9914,1,1,1.0000,-0.0000,1.42244,-0.00067,-2.63093,1.06073,1.57080,0.11675,-0.12764,-0.48145,0.03687,,,,,,,,,,,,,,,,,,,,,,,,,,0,0,0,0,0
1.5138,1783956730.9978,1,1,1.0000,-0.0000,1.42244,-0.00067,-2.63093,1.06074,1.57080,0.11675,-0.12764,-0.48145,0.03687,,,,,,,,,,,,,,,,,,,,,,,,,,0,0,0,0,0
1.5142,1783956730.9982,1,1,1.0000,-0.0000,1.42244,-0.00067,-2.63093,1.06074,1.57080,0.11675,-0.12764,-0.48145,0.03687,,,,,,,,,,,,,,,,,,,,,,,,,,0,0,0,0,0
1.5232,1783956731.0072,1,1,1.0000,-0.0000,1.42243,-0.00070,-2.63094,1.06077,1.57080,0.11675,-0.12764,-0.48145,0.03686,,,,,,,,,,,,,,,,,,,,,,,,,,0,0,0,0,0
1.5636,1783956731.0476,1,1,1.0000,-0.0000,1.42243,-0.00101,-2.63101,1.06115,1.57080,0.11675,-0.12764,-0.48145,0.03675,,,,,,,,,,,,,,,,,,,,,,,,,,0,0,0,0,0
1.5639,1783956731.0479,1,1,1.0000,-0.0000,1.42243,-0.00101,-2.63101,1.06115,1.57080,0.11675,-0.12764,-0.48145,0.03675,,,,,,,,,,,,,,,,,,,,,,,,,,0,0,0,0,0
1.5646,1783956731.0486,1,1,1.0000,-0.0000,1.42243,-0.00101,-2.63101,1.06115,1.57080,0.11675,-0.12764,-0.48145,0.03675,,,,,,,,,,,,,,,,,,,,,,,,,,0,0,0,0,0
1.5652,1783956731.0492,1,1,1.0000,-0.0000,1.42243,-0.00101,-2.63101,1.06115,1.57080,0.11675,-0.12764,-0.48145,0.03675,,,,,,,,,,,,,,,,,,,,,,,,,,0,0,0,0,0
1.5654,1783956731.0494,1,1,1.0000,-0.0000,1.42243,-0.00101,-2.63101,1.06115,1.57080,0.11675,-0.12764,-0.48145,0.03675,,,,,,,,,,,,,,,,,,,,,,,,,,0,0,0,0,0
1.5775,1783956731.0615,1,1,1.0000,-0.0000,1.42243,-0.00106,-2.63102,1.06121,1.57080,0.11675,-0.12764,-0.48145,0.03674,,,,,,,,,,,,,,,,,,,,,,,,,,0,0,0,0,0
1.5798,1783956731.0638,1,1,1.0000,-0.0000,1.42243,-0.00106,-2.63102,1.06121,1.57080,0.11675,-0.12764,-0.48145,0.03674,,,,,,,,,,,,,,,,,,,,,,,,,,0,0,0,0,0
1.5801,1783956731.0641,1,1,1.0000,-0.0000,1.42243,-0.00106,-2.63102,1.06121,1.57080,0.11675,-0.12764,-0.48145,0.03674,,,,,,,,,,,,,,,,,,,,,,,,,,0,0,0,0,0
1.6170,1783956731.1010,1,1,1.0000,-0.0000,1.42243,-0.00132,-2.63105,1.06153,1.57080,0.11675,-0.12764,-0.48147,0.03666,,,,,,,,,,,,,,,,,,,,,,,,,,0,0,0,0,0
1.6175,1783956731.1015,1,1,1.0000,-0.0000,1.42243,-0.00132,-2.63105,1.06153,1.57080,0.11675,-0.12764,-0.48147,0.03666,,,,,,,,,,,,,,,,,,,,,,,,,,0,0,0,0,0
1.6178,1783956731.1018,1,1,1.0000,-0.0000,1.42243,-0.00132,-2.63105,1.06153,1.57080,0.11675,-0.12764,-0.48147,0.03666,,,,,,,,,,,,,,,,,,,,,,,,,,0,0,0,0,0
1.6194,1783956731.1034,1,1,1.0000,-0.0000,1.42243,-0.00132,-2.63105,1.06153,1.57080,0.11675,-0.12764,-0.48147,0.03666,,,,,,,,,,,,,,,,,,,,,,,,,,0,0,0,0,0
1.6197,1783956731.1037,1,1,1.0000,-0.0000,1.42243,-0.00132,-2.63105,1.06153,1.57080,0.11675,-0.12764,-0.48147,0.03666,,,,,,,,,,,,,,,,,,,,,,,,,,0,0,0,0,0
1.6343,1783956731.1183,1,1,1.0000,-0.0000,1.42243,-0.00147,-2.63105,1.06172,1.57080,0.11675,-0.12763,-0.48150,0.03662,,,,,,,,,,,,,,,,,,,,,,,,,,0,0,0,0,0
1.6347,1783956731.1187,1,1,1.0000,-0.0000,1.42243,-0.00147,-2.63105,1.06172,1.57080,0.11675,-0.12763,-0.48150,0.03662,,,,,,,,,,,,,,,,,,,,,,,,,,0,0,0,0,0
1.6829,1783956731.1669,1,1,1.0000,-0.0000,1.42243,-0.00165,-2.63102,1.06194,1.57080,0.11675,-0.12763,-0.48155,0.03659,,,,,,,,,,,,,,,,,,,,,,,,,,0,0,0,0,0
1.6835,1783956731.1675,1,1,1.0000,-0.0000,1.42243,-0.00165,-2.63102,1.06194,1.57080,0.11675,-0.12763,-0.48155,0.03659,,,,,,,,,,,,,,,,,,,,,,,,,,0,0,0,0,0
1.6839,1783956731.1679,1,1,1.0000,-0.0000,1.42243,-0.00165,-2.63102,1.06194,1.57080,0.11675,-0.12763,-0.48155,0.03659,,,,,,,,,,,,,,,,,,,,,,,,,,0,0,0,0,0
1.6951,1783956731.1791,1,1,1.0000,-0.0000,1.42243,-0.00165,-2.63102,1.06194,1.57080,0.11675,-0.12763,-0.48155,0.03659,,,,,,,,,,,,,,,,,,,,,,,,,,0,0,0,0,0
1.6969,1783956731.1809,1,1,1.0000,-0.0000,1.42243,-0.00165,-2.63102,1.06194,1.57080,0.11675,-0.12763,-0.48155,0.03659,,,,,,,,,,,,,,,,,,,,,,,,,,0,0,0,0,0
1.7054,1783956731.1894,1,1,1.0000,-0.0000,1.42243,-0.00165,-2.63102,1.06194,1.57080,0.11675,-0.12763,-0.48155,0.03659,,,,,,,,,,,,,,,,,,,,,,,,,,0,0,0,0,0
1.7145,1783956731.1985,1,1,1.0000,-0.0000,1.42243,-0.00165,-2.63102,1.06194,1.57080,0.11675,-0.12763,-0.48155,0.03659,,,,,,,,,,,,,,,,,,,,,,,,,,0,0,0,0,0
1.7240,1783956731.2080,1,1,1.0000,-0.0000,1.42243,-0.00165,-2.63102,1.06194,1.57080,0.11675,-0.12763,-0.48155,0.03659,,,,,,,,,,,,,,,,,,,,,,,,,,0,0,0,0,0
1.7340,1783956731.2180,1,1,1.0000,-0.0000,1.42243,-0.00165,-2.63102,1.06194,1.57080,0.11675,-0.12763,-0.48155,0.03659,,,,,,,,,,,,,,,,,,,,,,,,,,0,0,0,0,0
1.7343,1783956731.2183,1,1,1.0000,-0.0000,1.42243,-0.00165,-2.63102,1.06194,1.57080,0.11675,-0.12763,-0.48155,0.03659,,,,,,,,,,,,,,,,,,,,,,,,,,0,0,0,0,0
1.7440,1783956731.2280,1,1,1.0000,-0.0000,1.42243,-0.00165,-2.63102,1.06194,1.57080,0.11675,-0.12763,-0.48155,0.03659,,,,,,,,,,,,,,,,,,,,,,,,,,0,0,0,0,0
1.7447,1783956731.2287,1,1,1.0000,-0.0000,1.42243,-0.00165,-2.63102,1.06194,1.57080,0.11675,-0.12763,-0.48155,0.03659,,,,,,,,,,,,,,,,,,,,,,,,,,0,0,0,0,0
1.7549,1783956731.2389,1,1,1.0000,-0.0000,1.42243,-0.00165,-2.63102,1.06194,1.57080,0.11675,-0.12763,-0.48155,0.03659,,,,,,,,,,,,,,,,,,,,,,,,,,0,0,0,0,0
1.7627,1783956731.2467,1,1,1.0000,-0.0000,1.42243,-0.00165,-2.63102,1.06194,1.57080,0.11675,-0.12763,-0.48155,0.03659,,,,,,,,,,,,,,,,,,,,,,,,,,0,0,0,0,0
1.7729,1783956731.2569,1,1,1.0000,-0.0000,1.42243,-0.00165,-2.63102,1.06194,1.57080,0.11675,-0.12763,-0.48155,0.03659,,,,,,,,,,,,,,,,,,,,,,,,,,0,0,0,0,0
1.7732,1783956731.2572,1,1,1.0000,-0.0000,1.42243,-0.00165,-2.63102,1.06194,1.57080,0.11675,-0.12763,-0.48155,0.03659,,,,,,,,,,,,,,,,,,,,,,,,,,0,0,0,0,0
1.8078,1783956731.2918,1,1,1.0000,-0.0000,1.42243,-0.00165,-2.63102,1.06194,1.57080,0.11675,-0.12763,-0.48155,0.03659,,,,,,,,,,,,,,,,,,,,,,,,,,0,0,0,0,0
1.8087,1783956731.2927,1,1,1.0000,-0.0000,1.42243,-0.00165,-2.63102,1.06194,1.57080,0.11675,-0.12763,-0.48155,0.03659,,,,,,,,,,,,,,,,,,,,,,,,,,0,0,0,0,0
1.8118,1783956731.2958,1,1,1.0000,-0.0000,1.42243,-0.00165,-2.63102,1.06194,1.57080,0.11675,-0.12763,-0.48155,0.03659,,,,,,,,,,,,,,,,,,,,,,,,,,0,0,0,0,0
1.8126,1783956731.2966,1,1,1.0000,-0.0000,1.42243,-0.00165,-2.63102,1.06194,1.57080,0.11675,-0.12763,-0.48155,0.03659,,,,,,,,,,,,,,,,,,,,,,,,,,0,0,0,0,0
1.8216,1783956731.3056,1,1,1.0000,-0.0000,1.42243,-0.00165,-2.63102,1.06194,1.57080,0.11675,-0.12763,-0.48155,0.03659,,,,,,,,,,,,,,,,,,,,,,,,,,0,0,0,0,0
1.8293,1783956731.3133,1,1,1.0000,-0.0000,1.42243,-0.00165,-2.63102,1.06194,1.57080,0.11675,-0.12763,-0.48155,0.03659,,,,,,,,,,,,,,,,,,,,,,,,,,0,0,0,0,0
1.8296,1783956731.3136,1,1,1.0000,-0.0000,1.42243,-0.00165,-2.63102,1.06194,1.57080,0.11675,-0.12763,-0.48155,0.03659,,,,,,,,,,,,,,,,,,,,,,,,,,0,0,0,0,0
1.8401,1783956731.3241,1,1,1.0000,-0.0000,1.42243,-0.00165,-2.63102,1.06194,1.57080,0.11675,-0.12763,-0.48155,0.03659,,,,,,,,,,,,,,,,,,,,,,,,,,0,0,0,0,0
1.8406,1783956731.3246,1,1,1.0000,-0.0000,1.42243,-0.00165,-2.63102,1.06194,1.57080,0.11675,-0.12763,-0.48155,0.03659,,,,,,,,,,,,,,,,,,,,,,,,,,0,0,0,0,0
1.8576,1783956731.3416,1,1,1.0000,-0.0000,1.42243,-0.00165,-2.63102,1.06194,1.57080,0.11675,-0.12763,-0.48155,0.03659,,,,,,,,,,,,,,,,,,,,,,,,,,0,0,0,0,0
1.8661,1783956731.3501,1,1,1.0000,-0.0000,1.42243,-0.00165,-2.63102,1.06194,1.57080,0.11675,-0.12763,-0.48155,0.03659,,,,,,,,,,,,,,,,,,,,,,,,,,0,0,0,0,0
1.8754,1783956731.3594,1,1,1.0000,-0.0000,1.42243,-0.00165,-2.63103,1.06195,1.57080,0.11675,-0.12763,-0.48155,0.03659,,,,,,,,,,,,,,,,,,,,,,,,,,0,0,0,0,0
1.8797,1783956731.3637,1,1,1.0000,-0.0000,1.42243,-0.00165,-2.63103,1.06195,1.57080,0.11675,-0.12763,-0.48154,0.03659,,,,,,,,,,,,,,,,,,,,,,,,,,0,0,0,0,0
1.8909,1783956731.3749,1,1,1.0000,-0.0000,1.42243,-0.00168,-2.63106,1.06199,1.57080,0.11675,-0.12763,-0.48153,0.03657,,,,,,,,,,,,,,,,,,,,,,,,,,0,0,0,0,0
1.9151,1783956731.3991,1,1,1.0000,-0.0000,1.42243,-0.00180,-2.63119,1.06213,1.57080,0.11675,-0.12764,-0.48145,0.03648,,,,,,,,,,,,,,,,,,,,,,,,,,0,0,0,0,0
1.9154,1783956731.3994,1,1,1.0000,-0.0000,1.42243,-0.00180,-2.63119,1.06213,1.57080,0.11675,-0.12764,-0.48145,0.03648,,,,,,,,,,,,,,,,,,,,,,,,,,0,0,0,0,0
1.9218,1783956731.4058,1,1,1.0000,-0.0000,1.42243,-0.00185,-2.63124,1.06219,1.57080,0.11675,-0.12764,-0.48142,0.03645,,,,,,,,,,,,,,,,,,,,,,,,,,0,0,0,0,0
1.9321,1783956731.4161,1,1,1.0000,-0.0000,1.42243,-0.00186,-2.63124,1.06219,1.57080,0.11675,-0.12764,-0.48142,0.03644,,,,,,,,,,,,,,,,,,,,,,,,,,0,0,0,0,0
1.9397,1783956731.4237,1,1,1.0000,-0.0000,1.42243,-0.00188,-2.63124,1.06222,1.57080,0.11675,-0.12764,-0.48142,0.03644,,,,,,,,,,,,,,,,,,,,,,,,,,0,0,0,0,0
1.9532,1783956731.4372,1,1,1.0000,-0.0000,1.42243,-0.00198,-2.63126,1.06235,1.57080,0.11675,-0.12764,-0.48143,0.03641,,,,,,,,,,,,,,,,,,,,,,,,,,0,0,0,0,0
1.9595,1783956731.4435,1,1,1.0000,-0.0000,1.42243,-0.00202,-2.63126,1.06240,1.57080,0.11675,-0.12764,-0.48143,0.03640,,,,,,,,,,,,,,,,,,,,,,,,,,0,0,0,0,0
1.9599,1783956731.4439,1,1,1.0000,-0.0000,1.42243,-0.00202,-2.63126,1.06240,1.57080,0.11675,-0.12764,-0.48143,0.03640,,,,,,,,,,,,,,,,,,,,,,,,,,0,0,0,0,0
1.9706,1783956731.4546,1,1,1.0000,-0.0000,1.42243,-0.00204,-2.63127,1.06242,1.57080,0.11675,-0.12764,-0.48143,0.03639,,,,,,,,,,,,,,,,,,,,,,,,,,0,0,0,0,0
1.9798,1783956731.4638,1,1,1.0000,-0.0000,1.42243,-0.00209,-2.63127,1.06248,1.57080,0.11675,-0.12764,-0.48144,0.03637,,,,,,,,,,,,,,,,,,,,,,,,,,0,0,0,0,0
1.9927,1783956731.4767,1,1,1.0000,-0.0000,1.42243,-0.00215,-2.63128,1.06255,1.57080,0.11675,-0.12764,-0.48144,0.03636,,,,,,,,,,,,,,,,,,,,,,,,,,0,0,0,0,0
1.9934,1783956731.4774,1,1,1.0000,-0.0000,1.42243,-0.00215,-2.63128,1.06255,1.57080,0.11675,-0.12764,-0.48144,0.03636,,,,,,,,,,,,,,,,,,,,,,,,,,0,0,0,0,0
2.0168,1783956731.5008,1,1,1.0000,-0.0000,1.42243,-0.00236,-2.63131,1.06280,1.57080,0.11675,-0.12764,-0.48145,0.03629,,,,,,,,,,,,,,,,,,,,,,,,,,0,0,0,0,0
2.0242,1783956731.5082,1,1,1.0000,-0.0000,1.42243,-0.00236,-2.63131,1.06281,1.57080,0.11675,-0.12764,-0.48145,0.03629,,,,,,,,,,,,,,,,,,,,,,,,,,0,0,0,0,0
2.0249,1783956731.5089,1,1,1.0000,-0.0000,1.42243,-0.00238,-2.63131,1.06282,1.57080,0.11675,-0.12764,-0.48145,0.03629,,,,,,,,,,,,,,,,,,,,,,,,,,0,0,0,0,0
2.0316,1783956731.5156,1,1,1.0000,-0.0000,1.42243,-0.00240,-2.63131,1.06285,1.57080,0.11675,-0.12764,-0.48146,0.03628,,,,,,,,,,,,,,,,,,,,,,,,,,0,0,0,0,0
2.0396,1783956731.5236,1,1,1.0000,-0.0000,1.42243,-0.00246,-2.63132,1.06293,1.57080,0.11675,-0.12764,-0.48146,0.03627,,,,,,,,,,,,,,,,,,,,,,,,,,0,0,0,0,0
2.0516,1783956731.5356,1,1,1.0000,-0.0000,1.42243,-0.00258,-2.63132,1.06308,1.57080,0.11675,-0.12763,-0.48148,0.03624,,,,,,,,,,,,,,,,,,,,,,,,,,0,0,0,0,0
2.0617,1783956731.5457,1,1,1.0000,-0.0000,1.42243,-0.00271,-2.63132,1.06324,1.57080,0.11675,-0.12763,-0.48150,0.03621,,,,,,,,,,,,,,,,,,,,,,,,,,0,0,0,0,0
2.0928,1783956731.5768,1,1,1.0000,-0.0000,1.42243,-0.00282,-2.63130,1.06339,1.57080,0.11675,-0.12763,-0.48154,0.03619,,,,,,,,,,,,,,,,,,,,,,,,,,0,0,0,0,0
2.0933,1783956731.5773,1,1,1.0000,-0.0000,1.42243,-0.00282,-2.63130,1.06339,1.57080,0.11675,-0.12763,-0.48154,0.03619,,,,,,,,,,,,,,,,,,,,,,,,,,0,0,0,0,0
2.0968,1783956731.5808,1,1,1.0000,-0.0000,1.42243,-0.00282,-2.63130,1.06339,1.57080,0.11675,-0.12763,-0.48154,0.03619,,,,,,,,,,,,,,,,,,,,,,,,,,0,0,0,0,0
2.0971,1783956731.5811,1,1,1.0000,-0.0000,1.42243,-0.00282,-2.63130,1.06339,1.57080,0.11675,-0.12763,-0.48154,0.03619,,,,,,,,,,,,,,,,,,,,,,,,,,0,0,0,0,0
2.1006,1783956731.5846,1,1,1.0000,-0.0000,1.42243,-0.00282,-2.63130,1.06339,1.57080,0.11675,-0.12763,-0.48154,0.03619,,,,,,,,,,,,,,,,,,,,,,,,,,0,0,0,0,0
2.1145,1783956731.5985,1,1,1.0000,-0.0000,1.42243,-0.00282,-2.63130,1.06339,1.57080,0.11675,-0.12763,-0.48154,0.03619,,,,,,,,,,,,,,,,,,,,,,,,,,0,0,0,0,0
2.1255,1783956731.6095,1,1,1.0000,-0.0000,1.42243,-0.00282,-2.63130,1.06339,1.57080,0.11675,-0.12763,-0.48154,0.03619,,,,,,,,,,,,,,,,,,,,,,,,,,0,0,0,0,0
2.1303,1783956731.6143,1,1,1.0000,-0.0000,1.42243,-0.00282,-2.63130,1.06339,1.57080,0.11675,-0.12763,-0.48154,0.03619,,,,,,,,,,,,,,,,,,,,,,,,,,0,0,0,0,0
2.1306,1783956731.6146,1,1,1.0000,-0.0000,1.42243,-0.00282,-2.63130,1.06339,1.57080,0.11675,-0.12763,-0.48154,0.03619,,,,,,,,,,,,,,,,,,,,,,,,,,0,0,0,0,0
2.1407,1783956731.6247,1,1,1.0000,-0.0000,1.42243,-0.00282,-2.63130,1.06339,1.57080,0.11675,-0.12763,-0.48154,0.03619,,,,,,,,,,,,,,,,,,,,,,,,,,0,0,0,0,0
2.1494,1783956731.6334,1,1,1.0000,-0.0000,1.42243,-0.00282,-2.63130,1.06339,1.57080,0.11675,-0.12763,-0.48154,0.03619,,,,,,,,,,,,,,,,,,,,,,,,,,0,0,0,0,0
2.1496,1783956731.6336,1,1,1.0000,-0.0000,1.42243,-0.00282,-2.63130,1.06339,1.57080,0.11675,-0.12763,-0.48154,0.03619,,,,,,,,,,,,,,,,,,,,,,,,,,0,0,0,0,0
2.1630,1783956731.6470,1,1,1.0000,-0.0000,1.42243,-0.00282,-2.63130,1.06339,1.57080,0.11675,-0.12763,-0.48154,0.03619,,,,,,,,,,,,,,,,,,,,,,,,,,0,0,0,0,0
2.1757,1783956731.6597,1,1,1.0000,-0.0000,1.42243,-0.00282,-2.63130,1.06339,1.57080,0.11675,-0.12763,-0.48154,0.03619,,,,,,,,,,,,,,,,,,,,,,,,,,0,0,0,0,0
2.1808,1783956731.6648,1,1,1.0000,-0.0000,1.42243,-0.00282,-2.63130,1.06339,1.57080,0.11675,-0.12763,-0.48154,0.03619,,,,,,,,,,,,,,,,,,,,,,,,,,0,0,0,0,0
2.1898,1783956731.6738,1,1,1.0000,-0.0000,1.42243,-0.00282,-2.63130,1.06339,1.57080,0.11675,-0.12763,-0.48154,0.03619,,,,,,,,,,,,,,,,,,,,,,,,,,0,0,0,0,0
2.2050,1783956731.6890,1,1,1.0000,-0.0000,1.42243,-0.00282,-2.63130,1.06339,1.57080,0.11675,-0.12763,-0.48154,0.03619,,,,,,,,,,,,,,,,,,,,,,,,,,0,0,0,0,0
2.2246,1783956731.7086,1,1,1.0000,-0.0000,1.42243,-0.00282,-2.63130,1.06339,1.57080,0.11675,-0.12763,-0.48154,0.03619,,,,,,,,,,,,,,,,,,,,,,,,,,0,0,0,0,0
2.2273,1783956731.7113,1,1,1.0000,-0.0000,1.42243,-0.00282,-2.63130,1.06339,1.57080,0.11675,-0.12763,-0.48154,0.03619,,,,,,,,,,,,,,,,,,,,,,,,,,0,0,0,0,0
2.2278,1783956731.7118,1,1,1.0000,-0.0000,1.42243,-0.00282,-2.63130,1.06339,1.57080,0.11675,-0.12763,-0.48154,0.03619,,,,,,,,,,,,,,,,,,,,,,,,,,0,0,0,0,0
2.2308,1783956731.7148,1,1,1.0000,-0.0000,1.42243,-0.00282,-2.63130,1.06339,1.57080,0.11675,-0.12763,-0.48154,0.03619,,,,,,,,,,,,,,,,,,,,,,,,,,0,0,0,0,0
2.2442,1783956731.7282,1,1,1.0000,-0.0000,1.42243,-0.00282,-2.63130,1.06339,1.57080,0.11675,-0.12763,-0.48154,0.03619,,,,,,,,,,,,,,,,,,,,,,,,,,0,0,0,0,0
2.2450,1783956731.7290,1,1,1.0000,-0.0000,1.42243,-0.00282,-2.63130,1.06339,1.57080,0.11675,-0.12763,-0.48154,0.03619,,,,,,,,,,,,,,,,,,,,,,,,,,0,0,0,0,0
2.2494,1783956731.7334,1,1,1.0000,-0.0000,1.42243,-0.00282,-2.63130,1.06339,1.57080,0.11675,-0.12763,-0.48154,0.03619,,,,,,,,,,,,,,,,,,,,,,,,,,0,0,0,0,0
2.2498,1783956731.7338,1,1,1.0000,-0.0000,1.42243,-0.00282,-2.63130,1.06339,1.57080,0.11675,-0.12763,-0.48154,0.03619,,,,,,,,,,,,,,,,,,,,,,,,,,0,0,0,0,0
2.2641,1783956731.7481,1,1,1.0000,-0.0000,1.42243,-0.00282,-2.63130,1.06339,1.57080,0.11675,-0.12763,-0.48154,0.03619,,,,,,,,,,,,,,,,,,,,,,,,,,0,0,0,0,0
2.2842,1783956731.7682,1,1,1.0000,-0.0000,1.42243,-0.00282,-2.63130,1.06339,1.57080,0.11675,-0.12763,-0.48154,0.03619,,,,,,,,,,,,,,,,,,,,,,,,,,0,0,0,0,0
2.2847,1783956731.7687,1,1,1.0000,-0.0000,1.42243,-0.00282,-2.63130,1.06339,1.57080,0.11675,-0.12763,-0.48154,0.03619,,,,,,,,,,,,,,,,,,,,,,,,,,0,0,0,0,0
2.2898,1783956731.7738,1,1,1.0000,-0.0000,1.42243,-0.00282,-2.63130,1.06339,1.57080,0.11675,-0.12763,-0.48154,0.03619,,,,,,,,,,,,,,,,,,,,,,,,,,0,0,0,0,0
2.3247,1783956731.8087,1,1,1.0000,-0.0000,1.42243,-0.00288,-2.63136,1.06346,1.57080,0.11675,-0.12763,-0.48151,0.03615,,,,,,,,,,,,,,,,,,,,,,,,,,0,0,0,0,0
2.3251,1783956731.8091,1,1,1.0000,-0.0000,1.42243,-0.00288,-2.63136,1.06346,1.57080,0.11675,-0.12763,-0.48151,0.03615,,,,,,,,,,,,,,,,,,,,,,,,,,0,0,0,0,0
2.3300,1783956731.8140,1,1,1.0000,-0.0000,1.42243,-0.00289,-2.63137,1.06347,1.57080,0.11675,-0.12763,-0.48150,0.03614,,,,,,,,,,,,,,,,,,,,,,,,,,0,0,0,0,0
2.3305,1783956731.8145,1,1,1.0000,-0.0000,1.42243,-0.00289,-2.63137,1.06347,1.57080,0.11675,-0.12763,-0.48150,0.03614,,,,,,,,,,,,,,,,,,,,,,,,,,0,0,0,0,0
2.3408,1783956731.8248,1,1,1.0000,-0.0000,1.42243,-0.00294,-2.63140,1.06353,1.57080,0.11675,-0.12763,-0.48148,0.03611,,,,,,,,,,,,,,,,,,,,,,,,,,0,0,0,0,0
2.3411,1783956731.8251,1,1,1.0000,-0.0000,1.42243,-0.00294,-2.63140,1.06353,1.57080,0.11675,-0.12763,-0.48148,0.03611,,,,,,,,,,,,,,,,,,,,,,,,,,0,0,0,0,0
2.3677,1783956731.8517,1,1,1.0000,-0.0000,1.42243,-0.00303,-2.63144,1.06365,1.57080,0.11675,-0.12763,-0.48147,0.03608,,,,,,,,,,,,,,,,,,,,,,,,,,0,0,0,0,0
2.3681,1783956731.8521,1,1,1.0000,-0.0000,1.42243,-0.00303,-2.63144,1.06365,1.57080,0.11675,-0.12763,-0.48147,0.03608,,,,,,,,,,,,,,,,,,,,,,,,,,0,0,0,0,0
2.3786,1783956731.8626,1,1,1.0000,-0.0000,1.42243,-0.00311,-2.63146,1.06374,1.57080,0.11675,-0.12764,-0.48147,0.03605,,,,,,,,,,,,,,,,,,,,,,,,,,0,0,0,0,0
2.3791,1783956731.8631,1,1,1.0000,-0.0000,1.42243,-0.00311,-2.63146,1.06374,1.57080,0.11675,-0.12764,-0.48147,0.03605,,,,,,,,,,,,,,,,,,,,,,,,,,0,0,0,0,0
2.3841,1783956731.8681,1,1,1.0000,-0.0000,1.42243,-0.00312,-2.63147,1.06374,1.57080,0.11675,-0.12764,-0.48147,0.03604,,,,,,,,,,,,,,,,,,,,,,,,,,0,0,0,0,0
2.3895,1783956731.8735,1,1,1.0000,-0.0000,1.42243,-0.00316,-2.63148,1.06379,1.57080,0.11675,-0.12764,-0.48147,0.03603,,,,,,,,,,,,,,,,,,,,,,,,,,0,0,0,0,0
2.3898,1783956731.8738,1,1,1.0000,-0.0000,1.42243,-0.00316,-2.63148,1.06379,1.57080,0.11675,-0.12764,-0.48147,0.03603,,,,,,,,,,,,,,,,,,,,,,,,,,0,0,0,0,0
2.4227,1783956731.9067,1,1,1.0000,-0.0000,1.42243,-0.00338,-2.63152,1.06405,1.57080,0.11675,-0.12764,-0.48146,0.03595,,,,,,,,,,,,,,,,,,,,,,,,,,0,0,0,0,0
2.4231,1783956731.9071,1,1,1.0000,-0.0000,1.42243,-0.00338,-2.63152,1.06405,1.57080,0.11675,-0.12764,-0.48146,0.03595,,,,,,,,,,,,,,,,,,,,,,,,,,0,0,0,0,0
2.4235,1783956731.9075,1,1,1.0000,-0.0000,1.42243,-0.00338,-2.63152,1.06405,1.57080,0.11675,-0.12764,-0.48146,0.03595,,,,,,,,,,,,,,,,,,,,,,,,,,0,0,0,0,0
2.4305,1783956731.9145,1,1,1.0000,-0.0000,1.42242,-0.00349,-2.63154,1.06418,1.57080,0.11675,-0.12763,-0.48147,0.03592,,,,,,,,,,,,,,,,,,,,,,,,,,0,0,0,0,0
2.4456,1783956731.9296,1,1,1.0000,-0.0000,1.42242,-0.00353,-2.63155,1.06424,1.57080,0.11675,-0.12763,-0.48147,0.03590,,,,,,,,,,,,,,,,,,,,,,,,,,0,0,0,0,0
2.4697,1783956731.9537,1,1,1.0000,-0.0000,1.42242,-0.00378,-2.63158,1.06454,1.57080,0.11675,-0.12763,-0.48149,0.03583,,,,,,,,,,,,,,,,,,,,,,,,,,0,0,0,0,0
2.4699,1783956731.9539,1,1,1.0000,-0.0000,1.42242,-0.00378,-2.63158,1.06454,1.57080,0.11675,-0.12763,-0.48149,0.03583,,,,,,,,,,,,,,,,,,,,,,,,,,0,0,0,0,0
2.4729,1783956731.9569,1,1,1.0000,-0.0000,1.42242,-0.00382,-2.63158,1.06460,1.57080,0.11675,-0.12763,-0.48149,0.03582,,,,,,,,,,,,,,,,,,,,,,,,,,0,0,0,0,0
2.4821,1783956731.9661,1,1,1.0000,-0.0000,1.42242,-0.00391,-2.63159,1.06470,1.57080,0.11675,-0.12763,-0.48150,0.03580,,,,,,,,,,,,,,,,,,,,,,,,,,0,0,0,0,0
2.4922,1783956731.9762,1,1,1.0000,-0.0000,1.42242,-0.00398,-2.63159,1.06479,1.57080,0.11675,-0.12763,-0.48151,0.03578,,,,,,,,,,,,,,,,,,,,,,,,,,0,0,0,0,0
2.5302,1783956732.0142,1,1,1.0000,-0.0000,1.42242,-0.00400,-2.63159,1.06482,1.57080,0.11675,-0.12763,-0.48152,0.03578,,,,,,,,,,,,,,,,,,,,,,,,,,0,0,0,0,0
2.5304,1783956732.0145,1,1,1.0000,-0.0000,1.42242,-0.00400,-2.63159,1.06482,1.57080,0.11675,-0.12763,-0.48152,0.03578,,,,,,,,,,,,,,,,,,,,,,,,,,0,0,0,0,0
2.5347,1783956732.0187,1,1,1.0000,-0.0000,1.42242,-0.00400,-2.63159,1.06482,1.57080,0.11675,-0.12763,-0.48152,0.03578,,,,,,,,,,,,,,,,,,,,,,,,,,0,0,0,0,0
2.5350,1783956732.0190,1,1,1.0000,-0.0000,1.42242,-0.00400,-2.63159,1.06482,1.57080,0.11675,-0.12763,-0.48152,0.03578,,,,,,,,,,,,,,,,,,,,,,,,,,0,0,0,0,0
2.5438,1783956732.0278,1,1,1.0000,-0.0000,1.42242,-0.00400,-2.63159,1.06482,1.57080,0.11675,-0.12763,-0.48152,0.03578,,,,,,,,,,,,,,,,,,,,,,,,,,0,0,0,0,0
2.5519,1783956732.0359,1,1,1.0000,-0.0000,1.42242,-0.00400,-2.63159,1.06482,1.57080,0.11675,-0.12763,-0.48152,0.03578,,,,,,,,,,,,,,,,,,,,,,,,,,0,0,0,0,0
2.5712,1783956732.0552,1,1,1.0000,-0.0000,1.42242,-0.00400,-2.63159,1.06482,1.57080,0.11675,-0.12763,-0.48152,0.03578,,,,,,,,,,,,,,,,,,,,,,,,,,0,0,0,0,0
2.5754,1783956732.0594,1,1,1.0000,-0.0000,1.42242,-0.00400,-2.63159,1.06482,1.57080,0.11675,-0.12763,-0.48152,0.03578,,,,,,,,,,,,,,,,,,,,,,,,,,0,0,0,0,0
2.5856,1783956732.0696,1,1,1.0000,-0.0000,1.42242,-0.00400,-2.63159,1.06482,1.57080,0.11675,-0.12763,-0.48152,0.03578,,,,,,,,,,,,,,,,,,,,,,,,,,0,0,0,0,0
2.5859,1783956732.0699,1,1,1.0000,-0.0000,1.42242,-0.00400,-2.63159,1.06482,1.57080,0.11675,-0.12763,-0.48152,0.03578,,,,,,,,,,,,,,,,,,,,,,,,,,0,0,0,0,0
2.6031,1783956732.0871,1,1,1.0000,-0.0000,1.42242,-0.00400,-2.63159,1.06482,1.57080,0.11675,-0.12763,-0.48152,0.03578,,,,,,,,,,,,,,,,,,,,,,,,,,0,0,0,0,0
2.6034,1783956732.0874,1,1,1.0000,-0.0000,1.42242,-0.00400,-2.63159,1.06482,1.57080,0.11675,-0.12763,-0.48152,0.03578,,,,,,,,,,,,,,,,,,,,,,,,,,0,0,0,0,0
2.6200,1783956732.1040,1,1,1.0000,-0.0000,1.42242,-0.00400,-2.63159,1.06482,1.57080,0.11675,-0.12763,-0.48152,0.03578,,,,,,,,,,,,,,,,,,,,,,,,,,0,0,0,0,0
2.6204,1783956732.1044,1,1,1.0000,-0.0000,1.42242,-0.00400,-2.63159,1.06482,1.57080,0.11675,-0.12763,-0.48152,0.03578,,,,,,,,,,,,,,,,,,,,,,,,,,0,0,0,0,0
2.6379,1783956732.1219,1,1,1.0000,-0.0000,1.42242,-0.00400,-2.63159,1.06482,1.57080,0.11675,-0.12763,-0.48152,0.03578,,,,,,,,,,,,,,,,,,,,,,,,,,0,0,0,0,0
2.6577,1783956732.1417,1,1,1.0000,-0.0000,1.42242,-0.00400,-2.63159,1.06482,1.57080,0.11675,-0.12763,-0.48152,0.03578,,,,,,,,,,,,,,,,,,,,,,,,,,0,0,0,0,0
2.6580,1783956732.1420,1,1,1.0000,-0.0000,1.42242,-0.00400,-2.63159,1.06482,1.57080,0.11675,-0.12763,-0.48152,0.03578,,,,,,,,,,,,,,,,,,,,,,,,,,0,0,0,0,0
2.6600,1783956732.1440,1,1,1.0000,-0.0000,1.42242,-0.00400,-2.63159,1.06482,1.57080,0.11675,-0.12763,-0.48152,0.03578,,,,,,,,,,,,,,,,,,,,,,,,,,0,0,0,0,0
2.6603,1783956732.1443,1,1,1.0000,-0.0000,1.42242,-0.00400,-2.63159,1.06482,1.57080,0.11675,-0.12763,-0.48152,0.03578,,,,,,,,,,,,,,,,,,,,,,,,,,0,0,0,0,0
2.6732,1783956732.1572,1,1,1.0000,-0.0000,1.42242,-0.00400,-2.63159,1.06482,1.57080,0.11675,-0.12763,-0.48152,0.03578,,,,,,,,,,,,,,,,,,,,,,,,,,0,0,0,0,0
2.6735,1783956732.1575,1,1,1.0000,-0.0000,1.42242,-0.00400,-2.63159,1.06482,1.57080,0.11675,-0.12763,-0.48152,0.03578,,,,,,,,,,,,,,,,,,,,,,,,,,0,0,0,0,0
2.6795,1783956732.1635,1,1,1.0000,-0.0000,1.42242,-0.00400,-2.63159,1.06482,1.57080,0.11675,-0.12763,-0.48152,0.03578,,,,,,,,,,,,,,,,,,,,,,,,,,0,0,0,0,0
2.6798,1783956732.1638,1,1,1.0000,-0.0000,1.42242,-0.00400,-2.63159,1.06482,1.57080,0.11675,-0.12763,-0.48152,0.03578,,,,,,,,,,,,,,,,,,,,,,,,,,0,0,0,0,0
2.6907,1783956732.1747,1,1,1.0000,-0.0000,1.42242,-0.00400,-2.63159,1.06482,1.57080,0.11675,-0.12763,-0.48152,0.03578,,,,,,,,,,,,,,,,,,,,,,,,,,0,0,0,0,0
2.6997,1783956732.1837,1,1,1.0000,-0.0000,1.42242,-0.00400,-2.63159,1.06482,1.57080,0.11675,-0.12763,-0.48152,0.03578,,,,,,,,,,,,,,,,,,,,,,,,,,0,0,0,0,0
2.7117,1783956732.1957,1,1,1.0000,-0.0000,1.42242,-0.00400,-2.63159,1.06482,1.57080,0.11675,-0.12763,-0.48152,0.03578,,,,,,,,,,,,,,,,,,,,,,,,,,0,0,0,0,0
2.7356,1783956732.2196,1,1,1.0000,-0.0000,1.42242,-0.00404,-2.63162,1.06487,1.57080,0.11675,-0.12763,-0.48151,0.03576,,,,,,,,,,,,,,,,,,,,,,,,,,0,0,0,0,0
2.7453,1783956732.2293,1,1,1.0000,-0.0000,1.42242,-0.00404,-2.63162,1.06488,1.57080,0.11675,-0.12763,-0.48150,0.03575,,,,,,,,,,,,,,,,,,,,,,,,,,0,0,0,0,0
2.7456,1783956732.2296,1,1,1.0000,-0.0000,1.42242,-0.00404,-2.63162,1.06488,1.57080,0.11675,-0.12763,-0.48150,0.03575,,,,,,,,,,,,,,,,,,,,,,,,,,0,0,0,0,0
2.7509,1783956732.2349,1,1,1.0000,-0.0000,1.42242,-0.00406,-2.63163,1.06489,1.57080,0.11675,-0.12763,-0.48150,0.03574,,,,,,,,,,,,,,,,,,,,,,,,,,0,0,0,0,0
2.7613,1783956732.2453,1,1,1.0000,-0.0000,1.42242,-0.00409,-2.63166,1.06493,1.57080,0.11675,-0.12763,-0.48148,0.03573,,,,,,,,,,,,,,,,,,,,,,,,,,0,0,0,0,0
2.7617,1783956732.2457,1,1,1.0000,-0.0000,1.42242,-0.00409,-2.63166,1.06493,1.57080,0.11675,-0.12763,-0.48148,0.03573,,,,,,,,,,,,,,,,,,,,,,,,,,0,0,0,0,0
2.7819,1783956732.2659,1,1,1.0000,-0.0000,1.42242,-0.00418,-2.63169,1.06504,1.57080,0.11675,-0.12763,-0.48147,0.03569,,,,,,,,,,,,,,,,,,,,,,,,,,0,0,0,0,0
2.7823,1783956732.2663,1,1,1.0000,-0.0000,1.42242,-0.00418,-2.63169,1.06504,1.57080,0.11675,-0.12763,-0.48147,0.03569,,,,,,,,,,,,,,,,,,,,,,,,,,0,0,0,0,0
2.7947,1783956732.2787,1,1,1.0000,-0.0000,1.42242,-0.00424,-2.63172,1.06512,1.57080,0.11675,-0.12763,-0.48146,0.03566,,,,,,,,,,,,,,,,,,,,,,,,,,0,0,0,0,0
2.8032,1783956732.2872,1,1,1.0000,-0.0000,1.42242,-0.00426,-2.63173,1.06514,1.57080,0.11675,-0.12763,-0.48146,0.03565,,,,,,,,,,,,,,,,,,,,,,,,,,0,0,0,0,0
2.8100,1783956732.2940,1,1,1.0000,-0.0000,1.42242,-0.00432,-2.63174,1.06521,1.57080,0.11675,-0.12763,-0.48146,0.03563,,,,,,,,,,,,,,,,,,,,,,,,,,0,0,0,0,0
2.8258,1783956732.3098,1,1,1.0000,-0.0000,1.42242,-0.00450,-2.63179,1.06543,1.57080,0.11675,-0.12763,-0.48145,0.03557,,,,,,,,,,,,,,,,,,,,,,,,,,0,0,0,0,0
2.8358,1783956732.3198,1,1,1.0000,-0.0000,1.42242,-0.00451,-2.63179,1.06543,1.57080,0.11675,-0.12763,-0.48145,0.03557,,,,,,,,,,,,,,,,,,,,,,,,,,0,0,0,0,0
2.8418,1783956732.3258,1,1,1.0000,-0.0000,1.42242,-0.00455,-2.63179,1.06548,1.57080,0.11675,-0.12763,-0.48146,0.03555,,,,,,,,,,,,,,,,,,,,,,,,,,0,0,0,0,0
2.8423,1783956732.3263,1,1,1.0000,-0.0000,1.42242,-0.00455,-2.63179,1.06548,1.57080,0.11675,-0.12763,-0.48146,0.03555,,,,,,,,,,,,,,,,,,,,,,,,,,0,0,0,0,0
2.8574,1783956732.3415,1,1,1.0000,-0.0000,1.42242,-0.00462,-2.63181,1.06557,1.57080,0.11675,-0.12763,-0.48146,0.03553,,,,,,,,,,,,,,,,,,,,,,,,,,0,0,0,0,0
2.8579,1783956732.3419,1,1,1.0000,-0.0000,1.42242,-0.00462,-2.63181,1.06557,1.57080,0.11675,-0.12763,-0.48146,0.03553,,,,,,,,,,,,,,,,,,,,,,,,,,0,0,0,0,0
2.8801,1783956732.3641,1,1,1.0000,-0.0000,1.42242,-0.00478,-2.63183,1.06577,1.57080,0.11675,-0.12763,-0.48146,0.03548,,,,,,,,,,,,,,,,,,,,,,,,,,0,0,0,0,0
2.8803,1783956732.3643,1,1,1.0000,-0.0000,1.42242,-0.00478,-2.63183,1.06577,1.57080,0.11675,-0.12763,-0.48146,0.03548,,,,,,,,,,,,,,,,,,,,,,,,,,0,0,0,0,0
2.8842,1783956732.3682,1,1,1.0000,-0.0000,1.42242,-0.00483,-2.63184,1.06583,1.57080,0.11675,-0.12763,-0.48147,0.03546,,,,,,,,,,,,,,,,,,,,,,,,,,0,0,0,0,0
2.8845,1783956732.3686,1,1,1.0000,-0.0000,1.42242,-0.00483,-2.63184,1.06583,1.57080,0.11675,-0.12763,-0.48147,0.03546,,,,,,,,,,,,,,,,,,,,,,,,,,0,0,0,0,0
2.8947,1783956732.3787,1,1,1.0000,-0.0000,1.42242,-0.00485,-2.63184,1.06585,1.57080,0.11675,-0.12763,-0.48147,0.03546,,,,,,,,,,,,,,,,,,,,,,,,,,0,0,0,0,0
2.8993,1783956732.3833,1,1,1.0000,-0.0000,1.42242,-0.00487,-2.63184,1.06587,1.57080,0.11675,-0.12763,-0.48147,0.03545,,,,,,,,,,,,,,,,,,,,,,,,,,0,0,0,0,0
2.8997,1783956732.3837,1,1,1.0000,-0.0000,1.42242,-0.00487,-2.63184,1.06587,1.57080,0.11675,-0.12763,-0.48147,0.03545,,,,,,,,,,,,,,,,,,,,,,,,,,0,0,0,0,0
2.9097,1783956732.3937,1,1,1.0000,-0.0000,1.42242,-0.00495,-2.63184,1.06598,1.57080,0.11675,-0.12763,-0.48149,0.03544,,,,,,,,,,,,,,,,,,,,,,,,,,0,0,0,0,0
2.9255,1783956732.4095,1,1,1.0000,-0.0000,1.42242,-0.00509,-2.63182,1.06615,1.57080,0.11675,-0.12762,-0.48152,0.03541,,,,,,,,,,,,,,,,,,,,,,,,,,0,0,0,0,0
2.9258,1783956732.4098,1,1,1.0000,-0.0000,1.42242,-0.00509,-2.63182,1.06615,1.57080,0.11675,-0.12762,-0.48152,0.03541,,,,,,,,,,,,,,,,,,,,,,,,,,0,0,0,0,0
2.9338,1783956732.4178,1,1,1.0000,-0.0000,1.42242,-0.00514,-2.63181,1.06622,1.57080,0.11675,-0.12762,-0.48155,0.03541,,,,,,,,,,,,,,,,,,,,,,,,,,0,0,0,0,0
2.9461,1783956732.4301,1,1,1.0000,-0.0000,1.42242,-0.00519,-2.63177,1.06628,1.57080,0.11675,-0.12761,-0.48158,0.03541,,,,,,,,,,,,,,,,,,,,,,,,,,0,0,0,0,0
2.9656,1783956732.4496,1,1,1.0000,-0.0000,1.42242,-0.00519,-2.63177,1.06628,1.57080,0.11675,-0.12761,-0.48158,0.03541,,,,,,,,,,,,,,,,,,,,,,,,,,0,0,0,0,0
2.9661,1783956732.4501,1,1,1.0000,-0.0000,1.42242,-0.00519,-2.63177,1.06628,1.57080,0.11675,-0.12761,-0.48158,0.03541,,,,,,,,,,,,,,,,,,,,,,,,,,0,0,0,0,0
2.9664,1783956732.4504,1,1,1.0000,-0.0000,1.42242,-0.00519,-2.63177,1.06628,1.57080,0.11675,-0.12761,-0.48158,0.03541,,,,,,,,,,,,,,,,,,,,,,,,,,0,0,0,0,0
2.9734,1783956732.4574,1,1,1.0000,-0.0000,1.42242,-0.00519,-2.63177,1.06628,1.57080,0.11675,-0.12761,-0.48158,0.03541,,,,,,,,,,,,,,,,,,,,,,,,,,0,0,0,0,0
2.9976,1783956732.4816,1,1,1.0000,-0.0000,1.42242,-0.00519,-2.63177,1.06628,1.57080,0.11675,-0.12761,-0.48158,0.03541,,,,,,,,,,,,,,,,,,,,,,,,,,0,0,0,0,0
2.9980,1783956732.4820,1,1,1.0000,-0.0000,1.42242,-0.00519,-2.63177,1.06628,1.57080,0.11675,-0.12761,-0.48158,0.03541,,,,,,,,,,,,,,,,,,,,,,,,,,0,0,0,0,0
3.0400,1783956732.5240,1,1,1.0000,-0.0000,1.42242,-0.00519,-2.63177,1.06628,1.57080,0.11675,-0.12761,-0.48158,0.03541,,,,,,,,,,,,,,,,,,,,,,,,,,0,0,0,0,0
3.0405,1783956732.5245,1,1,1.0000,-0.0000,1.42242,-0.00519,-2.63177,1.06628,1.57080,0.11675,-0.12761,-0.48158,0.03541,,,,,,,,,,,,,,,,,,,,,,,,,,0,0,0,0,0
3.0412,1783956732.5252,1,1,1.0000,-0.0000,1.42242,-0.00519,-2.63177,1.06628,1.57080,0.11675,-0.12761,-0.48158,0.03541,,,,,,,,,,,,,,,,,,,,,,,,,,0,0,0,0,0
3.0414,1783956732.5254,1,1,1.0000,-0.0000,1.42242,-0.00519,-2.63177,1.06628,1.57080,0.11675,-0.12761,-0.48158,0.03541,,,,,,,,,,,,,,,,,,,,,,,,,,0,0,0,0,0
3.0576,1783956732.5416,1,1,1.0000,-0.0000,1.42242,-0.00519,-2.63177,1.06628,1.57080,0.11675,-0.12761,-0.48158,0.03541,,,,,,,,,,,,,,,,,,,,,,,,,,0,0,0,0,0
3.0582,1783956732.5422,1,1,1.0000,-0.0000,1.42242,-0.00519,-2.63177,1.06628,1.57080,0.11675,-0.12761,-0.48158,0.03541,,,,,,,,,,,,,,,,,,,,,,,,,,0,0,0,0,0
3.0656,1783956732.5496,1,1,1.0000,-0.0000,1.42242,-0.00519,-2.63177,1.06628,1.57080,0.11675,-0.12761,-0.48158,0.03541,,,,,,,,,,,,,,,,,,,,,,,,,,0,0,0,0,0
3.0660,1783956732.5500,1,1,1.0000,-0.0000,1.42242,-0.00519,-2.63177,1.06628,1.57080,0.11675,-0.12761,-0.48158,0.03541,,,,,,,,,,,,,,,,,,,,,,,,,,0,0,0,0,0
3.0755,1783956732.5595,1,1,1.0000,-0.0000,1.42242,-0.00519,-2.63177,1.06628,1.57080,0.11675,-0.12761,-0.48158,0.03541,,,,,,,,,,,,,,,,,,,,,,,,,,0,0,0,0,0
3.0847,1783956732.5687,1,1,1.0000,-0.0000,1.42242,-0.00519,-2.63177,1.06628,1.57080,0.11675,-0.12761,-0.48158,0.03541,,,,,,,,,,,,,,,,,,,,,,,,,,0,0,0,0,0
3.1151,1783956732.5991,1,1,1.0000,-0.0000,1.42242,-0.00519,-2.63177,1.06628,1.57080,0.11675,-0.12761,-0.48158,0.03541,,,,,,,,,,,,,,,,,,,,,,,,,,0,0,0,0,0
3.1157,1783956732.5997,1,1,1.0000,-0.0000,1.42242,-0.00519,-2.63177,1.06628,1.57080,0.11675,-0.12761,-0.48158,0.03541,,,,,,,,,,,,,,,,,,,,,,,,,,0,0,0,0,0
3.1351,1783956732.6191,1,1,1.0000,-0.0000,1.42242,-0.00520,-2.63178,1.06629,1.57080,0.11675,-0.12762,-0.48157,0.03541,,,,,,,,,,,,,,,,,,,,,,,,,,0,0,0,0,0
3.1435,1783956732.6275,1,1,1.0000,-0.0000,1.42242,-0.00520,-2.63180,1.06630,1.57080,0.11675,-0.12762,-0.48156,0.03539,,,,,,,,,,,,,,,,,,,,,,,,,,0,0,0,0,0
3.1438,1783956732.6278,1,1,1.0000,-0.0000,1.42242,-0.00520,-2.63180,1.06630,1.57080,0.11675,-0.12762,-0.48156,0.03539,,,,,,,,,,,,,,,,,,,,,,,,,,0,0,0,0,0
3.1557,1783956732.6397,1,1,1.0000,-0.0000,1.42242,-0.00522,-2.63184,1.06632,1.57080,0.11675,-0.12762,-0.48154,0.03538,,,,,,,,,,,,,,,,,,,,,,,,,,0,0,0,0,0
3.1610,1783956732.6450,1,1,1.0000,-0.0000,1.42242,-0.00522,-2.63184,1.06632,1.57080,0.11675,-0.12762,-0.48154,0.03538,,,,,,,,,,,,,,,,,,,,,,,,,,0,0,0,0,0
3.1616,1783956732.6456,1,1,1.0000,-0.0000,1.42242,-0.00522,-2.63185,1.06633,1.57080,0.11675,-0.12762,-0.48153,0.03537,,,,,,,,,,,,,,,,,,,,,,,,,,0,0,0,0,0
3.2138,1783956732.6978,1,1,1.0000,-0.0000,1.42242,-0.00542,-2.63198,1.06656,1.57080,0.11675,-0.12763,-0.48146,0.03526,,,,,,,,,,,,,,,,,,,,,,,,,,0,0,0,0,0
3.2143,1783956732.6983,1,1,1.0000,-0.0000,1.42242,-0.00542,-2.63198,1.06656,1.57080,0.11675,-0.12763,-0.48146,0.03526,,,,,,,,,,,,,,,,,,,,,,,,,,0,0,0,0,0
3.2146,1783956732.6986,1,1,1.0000,-0.0000,1.42242,-0.00542,-2.63198,1.06656,1.57080,0.11675,-0.12763,-0.48146,0.03526,,,,,,,,,,,,,,,,,,,,,,,,,,0,0,0,0,0
3.2327,1783956732.7167,1,1,1.0000,-0.0000,1.42242,-0.00550,-2.63200,1.06666,1.57080,0.11675,-0.12763,-0.48146,0.03523,,,,,,,,,,,,,,,,,,,,,,,,,,0,0,0,0,0
3.2330,1783956732.7170,1,1,1.0000,-0.0000,1.42242,-0.00550,-2.63200,1.06666,1.57080,0.11675,-0.12763,-0.48146,0.03523,,,,,,,,,,,,,,,,,,,,,,,,,,0,0,0,0,0
3.2408,1783956732.7248,1,1,1.0000,-0.0000,1.42242,-0.00558,-2.63202,1.06676,1.57080,0.11675,-0.12763,-0.48146,0.03520,,,,,,,,,,,,,,,,,,,,,,,,,,0,0,0,0,0
3.2414,1783956732.7254,1,1,1.0000,-0.0000,1.42242,-0.00563,-2.63204,1.06682,1.57080,0.11675,-0.12763,-0.48146,0.03519,,,,,,,,,,,,,,,,,,,,,,,,,,0,0,0,0,0
3.2474,1783956732.7314,1,1,1.0000,-0.0000,1.42242,-0.00563,-2.63204,1.06682,1.57080,0.11675,-0.12763,-0.48146,0.03519,,,,,,,,,,,,,,,,,,,,,,,,,,0,0,0,0,0
3.2515,1783956732.7355,1,1,1.0000,-0.0000,1.42242,-0.00564,-2.63204,1.06683,1.57080,0.11675,-0.12763,-0.48146,0.03518,,,,,,,,,,,,,,,,,,,,,,,,,,0,0,0,0,0
3.2594,1783956732.7434,1,1,1.0000,-0.0000,1.42242,-0.00568,-2.63205,1.06688,1.57080,0.11675,-0.12763,-0.48146,0.03517,,,,,,,,,,,,,,,,,,,,,,,,,,0,0,0,0,0
3.2598,1783956732.7438,1,1,1.0000,-0.0000,1.42242,-0.00568,-2.63205,1.06688,1.57080,0.11675,-0.12763,-0.48146,0.03517,,,,,,,,,,,,,,,,,,,,,,,,,,0,0,0,0,0
3.2703,1783956732.7543,1,1,1.0000,-0.0000,1.42242,-0.00580,-2.63207,1.06702,1.57080,0.11675,-0.12763,-0.48146,0.03513,,,,,,,,,,,,,,,,,,,,,,,,,,0,0,0,0,0
3.2805,1783956732.7645,1,1,1.0000,-0.0000,1.42242,-0.00585,-2.63208,1.06708,1.57080,0.11675,-0.12763,-0.48146,0.03511,,,,,,,,,,,,,,,,,,,,,,,,,,0,0,0,0,0
3.2937,1783956732.7777,1,1,1.0000,-0.0000,1.42242,-0.00592,-2.63209,1.06717,1.57080,0.11675,-0.12763,-0.48146,0.03509,,,,,,,,,,,,,,,,,,,,,,,,,,0,0,0,0,0
3.3016,1783956732.7856,1,1,1.0000,-0.0000,1.42242,-0.00596,-2.63210,1.06721,1.57080,0.11675,-0.12763,-0.48146,0.03508,,,,,,,,,,,,,,,,,,,,,,,,,,0,0,0,0,0
3.3098,1783956732.7938,1,1,1.0000,-0.0000,1.42242,-0.00598,-2.63210,1.06723,1.57080,0.11675,-0.12763,-0.48147,0.03508,,,,,,,,,,,,,,,,,,,,,,,,,,0,0,0,0,0
3.3102,1783956732.7942,1,1,1.0000,-0.0000,1.42242,-0.00598,-2.63210,1.06723,1.57080,0.11675,-0.12763,-0.48147,0.03508,,,,,,,,,,,,,,,,,,,,,,,,,,0,0,0,0,0
3.3351,1783956732.8191,1,1,1.0000,-0.0000,1.42242,-0.00618,-2.63209,1.06749,1.57080,0.11675,-0.12762,-0.48150,0.03503,,,,,,,,,,,,,,,,,,,,,,,,,,0,0,0,0,0
3.3355,1783956732.8195,1,1,1.0000,-0.0000,1.42242,-0.00618,-2.63209,1.06749,1.57080,0.11675,-0.12762,-0.48150,0.03503,,,,,,,,,,,,,,,,,,,,,,,,,,0,0,0,0,0
3.3358,1783956732.8198,1,1,1.0000,-0.0000,1.42242,-0.00618,-2.63209,1.06749,1.57080,0.11675,-0.12762,-0.48150,0.03503,,,,,,,,,,,,,,,,,,,,,,,,,,0,0,0,0,0
3.3510,1783956732.8350,1,1,1.0000,-0.0000,1.42241,-0.00632,-2.63207,1.06767,1.57080,0.11675,-0.12762,-0.48154,0.03501,,,,,,,,,,,,,,,,,,,,,,,,,,0,0,0,0,0
3.3513,1783956732.8353,1,1,1.0000,-0.0000,1.42241,-0.00632,-2.63207,1.06767,1.57080,0.11675,-0.12762,-0.48154,0.03501,,,,,,,,,,,,,,,,,,,,,,,,,,0,0,0,0,0
3.3637,1783956732.8477,1,1,1.0000,-0.0000,1.42241,-0.00637,-2.63204,1.06773,1.57080,0.11675,-0.12761,-0.48158,0.03501,,,,,,,,,,,,,,,,,,,,,,,,,,0,0,0,0,0
3.3640,1783956732.8480,1,1,1.0000,-0.0000,1.42241,-0.00637,-2.63204,1.06773,1.57080,0.11675,-0.12761,-0.48158,0.03501,,,,,,,,,,,,,,,,,,,,,,,,,,0,0,0,0,0
3.3698,1783956732.8538,1,1,1.0000,-0.0000,1.42241,-0.00637,-2.63204,1.06773,1.57080,0.11675,-0.12761,-0.48158,0.03501,,,,,,,,,,,,,,,,,,,,,,,,,,0,0,0,0,0
3.4857,1783956732.9697,1,1,1.0000,-0.0000,1.42241,-0.00637,-2.63204,1.06773,1.57080,0.11675,-0.12761,-0.48158,0.03501,,,,,,,,,,,,,,,,,,,,,,,,,,0,0,0,0,0
3.4862,1783956732.9702,1,1,1.0000,-0.0000,1.42241,-0.00637,-2.63204,1.06773,1.57080,0.11675,-0.12761,-0.48158,0.03501,,,,,,,,,,,,,,,,,,,,,,,,,,0,0,0,0,0
3.4866,1783956732.9706,1,1,1.0000,-0.0000,1.42241,-0.00637,-2.63204,1.06773,1.57080,0.11675,-0.12761,-0.48158,0.03501,,,,,,,,,,,,,,,,,,,,,,,,,,0,0,0,0,0
3.4871,1783956732.9711,1,1,1.0000,-0.0000,1.42241,-0.00637,-2.63204,1.06773,1.57080,0.11675,-0.12761,-0.48158,0.03501,,,,,,,,,,,,,,,,,,,,,,,,,,0,0,0,0,0
3.4876,1783956732.9716,1,1,1.0000,-0.0000,1.42241,-0.00637,-2.63204,1.06773,1.57080,0.11675,-0.12761,-0.48158,0.03501,,,,,,,,,,,,,,,,,,,,,,,,,,0,0,0,0,0
3.5314,1783956733.0154,1,1,1.0000,-0.0000,1.42241,-0.00637,-2.63204,1.06773,1.57080,0.11675,-0.12761,-0.48158,0.03501,,,,,,,,,,,,,,,,,,,,,,,,,,0,0,0,0,0
3.5316,1783956733.0156,1,1,1.0000,-0.0000,1.42241,-0.00637,-2.63204,1.06773,1.57080,0.11675,-0.12761,-0.48158,0.03501,,,,,,,,,,,,,,,,,,,,,,,,,,0,0,0,0,0
3.5320,1783956733.0160,1,1,1.0000,-0.0000,1.42241,-0.00637,-2.63204,1.06773,1.57080,0.11675,-0.12761,-0.48158,0.03501,,,,,,,,,,,,,,,,,,,,,,,,,,0,0,0,0,0
3.5323,1783956733.0163,1,1,1.0000,-0.0000,1.42241,-0.00637,-2.63204,1.06773,1.57080,0.11675,-0.12761,-0.48158,0.03501,,,,,,,,,,,,,,,,,,,,,,,,,,0,0,0,0,0
3.5325,1783956733.0165,1,1,1.0000,-0.0000,1.42241,-0.00637,-2.63204,1.06773,1.57080,0.11675,-0.12761,-0.48158,0.03501,,,,,,,,,,,,,,,,,,,,,,,,,,0,0,0,0,0
3.5327,1783956733.0168,1,1,1.0000,-0.0000,1.42241,-0.00637,-2.63204,1.06773,1.57080,0.11675,-0.12761,-0.48158,0.03501,,,,,,,,,,,,,,,,,,,,,,,,,,0,0,0,0,0
3.5332,1783956733.0172,1,1,1.0000,-0.0000,1.42241,-0.00637,-2.63204,1.06773,1.57080,0.11675,-0.12761,-0.48158,0.03501,,,,,,,,,,,,,,,,,,,,,,,,,,0,0,0,0,0
3.5338,1783956733.0178,1,1,1.0000,-0.0000,1.42241,-0.00637,-2.63204,1.06773,1.57080,0.11675,-0.12761,-0.48158,0.03501,,,,,,,,,,,,,,,,,,,,,,,,,,0,0,0,0,0
3.5339,1783956733.0179,1,1,1.0000,-0.0000,1.42241,-0.00637,-2.63204,1.06773,1.57080,0.11675,-0.12761,-0.48158,0.03501,,,,,,,,,,,,,,,,,,,,,,,,,,0,0,0,0,0
3.5403,1783956733.0243,1,1,1.0000,-0.0000,1.42241,-0.00637,-2.63204,1.06773,1.57080,0.11675,-0.12761,-0.48158,0.03501,,,,,,,,,,,,,,,,,,,,,,,,,,0,0,0,0,0
3.5508,1783956733.0348,1,1,1.0000,-0.0000,1.42241,-0.00637,-2.63204,1.06773,1.57080,0.11675,-0.12761,-0.48158,0.03501,,,,,,,,,,,,,,,,,,,,,,,,,,0,0,0,0,0
3.5511,1783956733.0351,1,1,1.0000,-0.0000,1.42241,-0.00637,-2.63204,1.06773,1.57080,0.11675,-0.12761,-0.48158,0.03501,,,,,,,,,,,,,,,,,,,,,,,,,,0,0,0,0,0
3.5631,1783956733.0471,1,1,1.0000,-0.0000,1.42241,-0.00638,-2.63205,1.06774,1.57080,0.11675,-0.12761,-0.48157,0.03500,,,,,,,,,,,,,,,,,,,,,,,,,,0,0,0,0,0
3.5634,1783956733.0474,1,1,1.0000,-0.0000,1.42241,-0.00638,-2.63205,1.06774,1.57080,0.11675,-0.12761,-0.48157,0.03500,,,,,,,,,,,,,,,,,,,,,,,,,,0,0,0,0,0
3.5744,1783956733.0585,1,1,1.0000,-0.0000,1.42241,-0.00638,-2.63207,1.06775,1.57080,0.11675,-0.12762,-0.48156,0.03499,,,,,,,,,,,,,,,,,,,,,,,,,,0,0,0,0,0
3.5823,1783956733.0663,1,1,1.0000,-0.0000,1.42241,-0.00639,-2.63208,1.06776,1.57080,0.11675,-0.12762,-0.48155,0.03499,,,,,,,,,,,,,,,,,,,,,,,,,,0,0,0,0,0
3.5947,1783956733.0787,1,1,1.0000,-0.0000,1.42241,-0.00643,-2.63213,1.06781,1.57080,0.11675,-0.12762,-0.48152,0.03495,,,,,,,,,,,,,,,,,,,,,,,,,,0,0,0,0,0
3.5950,1783956733.0790,1,1,1.0000,-0.0000,1.42241,-0.00643,-2.63213,1.06781,1.57080,0.11675,-0.12762,-0.48152,0.03495,,,,,,,,,,,,,,,,,,,,,,,,,,0,0,0,0,0
3.5999,1783956733.0839,1,1,1.0000,-0.0000,1.42241,-0.00645,-2.63215,1.06783,1.57080,0.11675,-0.12762,-0.48151,0.03494,,,,,,,,,,,,,,,,,,,,,,,,,,0,0,0,0,0
3.6139,1783956733.0979,1,1,1.0000,-0.0000,1.42241,-0.00648,-2.63219,1.06787,1.57080,0.11675,-0.12763,-0.48149,0.03492,,,,,,,,,,,,,,,,,,,,,,,,,,0,0,0,0,0
3.6326,1783956733.1166,1,1,1.0000,-0.0000,1.42241,-0.00657,-2.63223,1.06796,1.57080,0.11675,-0.12763,-0.48146,0.03487,,,,,,,,,,,,,,,,,,,,,,,,,,0,0,0,0,0
3.6330,1783956733.1170,1,1,1.0000,-0.0000,1.42241,-0.00657,-2.63223,1.06796,1.57080,0.11675,-0.12763,-0.48146,0.03487,,,,,,,,,,,,,,,,,,,,,,,,,,0,0,0,0,0
3.6575,1783956733.1415,1,1,1.0000,-0.0000,1.42241,-0.00670,-2.63228,1.06813,1.57080,0.11675,-0.12763,-0.48145,0.03482,,,,,,,,,,,,,,,,,,,,,,,,,,0,0,0,0,0
3.6578,1783956733.1418,1,1,1.0000,-0.0000,1.42241,-0.00670,-2.63228,1.06813,1.57080,0.11675,-0.12763,-0.48145,0.03482,,,,,,,,,,,,,,,,,,,,,,,,,,0,0,0,0,0
3.6644,1783956733.1484,1,1,1.0000,-0.0000,1.42241,-0.00670,-2.63228,1.06813,1.57080,0.11675,-0.12763,-0.48145,0.03482,,,,,,,,,,,,,,,,,,,,,,,,,,0,0,0,0,0
3.6864,1783956733.1704,1,1,1.0000,-0.0000,1.42241,-0.00691,-2.63231,1.06837,1.57080,0.11675,-0.12763,-0.48146,0.03476,,,,,,,,,,,,,,,,,,,,,,,,,,0,0,0,0,0
3.6867,1783956733.1707,1,1,1.0000,-0.0000,1.42241,-0.00691,-2.63231,1.06837,1.57080,0.11675,-0.12763,-0.48146,0.03476,,,,,,,,,,,,,,,,,,,,,,,,,,0,0,0,0,0
3.7036,1783956733.1876,1,1,1.0000,-0.0000,1.42241,-0.00699,-2.63233,1.06846,1.57080,0.11675,-0.12763,-0.48146,0.03473,,,,,,,,,,,,,,,,,,,,,,,,,,0,0,0,0,0
3.7040,1783956733.1880,1,1,1.0000,-0.0000,1.42241,-0.00699,-2.63233,1.06846,1.57080,0.11675,-0.12763,-0.48146,0.03473,,,,,,,,,,,,,,,,,,,,,,,,,,0,0,0,0,0
3.7043,1783956733.1883,1,1,1.0000,-0.0000,1.42241,-0.00699,-2.63233,1.06846,1.57080,0.11675,-0.12763,-0.48146,0.03473,,,,,,,,,,,,,,,,,,,,,,,,,,0,0,0,0,0
3.7164,1783956733.2004,1,1,1.0000,-0.0000,1.42241,-0.00708,-2.63234,1.06858,1.57080,0.11675,-0.12763,-0.48146,0.03470,,,,,,,,,,,,,,,,,,,,,,,,,,0,0,0,0,0
3.7236,1783956733.2076,1,1,1.0000,-0.0000,1.42241,-0.00717,-2.63236,1.06869,1.57080,0.11675,-0.12763,-0.48147,0.03467,,,,,,,,,,,,,,,,,,,,,,,,,,0,0,0,0,0
3.7356,1783956733.2196,1,1,1.0000,-0.0000,1.42241,-0.00719,-2.63236,1.06871,1.57080,0.11675,-0.12763,-0.48147,0.03467,,,,,,,,,,,,,,,,,,,,,,,,,,0,0,0,0,0
3.7577,1783956733.2417,1,1,1.0000,-0.0000,1.42241,-0.00737,-2.63235,1.06894,1.57080,0.11675,-0.12762,-0.48151,0.03463,,,,,,,,,,,,,,,,,,,,,,,,,,0,0,0,0,0
3.7581,1783956733.2421,1,1,1.0000,-0.0000,1.42241,-0.00737,-2.63235,1.06894,1.57080,0.11675,-0.12762,-0.48151,0.03463,,,,,,,,,,,,,,,,,,,,,,,,,,0,0,0,0,0
3.7602,1783956733.2442,1,1,1.0000,-0.0000,1.42241,-0.00737,-2.63235,1.06894,1.57080,0.11675,-0.12762,-0.48151,0.03463,,,,,,,,,,,,,,,,,,,,,,,,,,0,0,0,0,0
3.7607,1783956733.2447,1,1,1.0000,-0.0000,1.42241,-0.00737,-2.63235,1.06894,1.57080,0.11675,-0.12762,-0.48151,0.03463,,,,,,,,,,,,,,,,,,,,,,,,,,0,0,0,0,0
3.7717,1783956733.2557,1,1,1.0000,-0.0000,1.42241,-0.00748,-2.63234,1.06907,1.57080,0.11675,-0.12762,-0.48153,0.03461,,,,,,,,,,,,,,,,,,,,,,,,,,0,0,0,0,0
3.7925,1783956733.2765,1,1,1.0000,-0.0000,1.42241,-0.00756,-2.63230,1.06918,1.57080,0.11675,-0.12761,-0.48158,0.03461,,,,,,,,,,,,,,,,,,,,,,,,,,0,0,0,0,0
3.7928,1783956733.2768,1,1,1.0000,-0.0000,1.42241,-0.00756,-2.63230,1.06918,1.57080,0.11675,-0.12761,-0.48158,0.03461,,,,,,,,,,,,,,,,,,,,,,,,,,0,0,0,0,0
3.7963,1783956733.2803,1,1,1.0000,-0.0000,1.42241,-0.00756,-2.63230,1.06918,1.57080,0.11675,-0.12761,-0.48158,0.03461,,,,,,,,,,,,,,,,,,,,,,,,,,0,0,0,0,0
3.7966,1783956733.2806,1,1,1.0000,-0.0000,1.42241,-0.00756,-2.63230,1.06918,1.57080,0.11675,-0.12761,-0.48158,0.03461,,,,,,,,,,,,,,,,,,,,,,,,,,0,0,0,0,0
3.8008,1783956733.2848,1,1,1.0000,-0.0000,1.42241,-0.00756,-2.63230,1.06918,1.57080,0.11675,-0.12761,-0.48158,0.03461,,,,,,,,,,,,,,,,,,,,,,,,,,0,0,0,0,0
3.8015,1783956733.2855,1,1,1.0000,-0.0000,1.42241,-0.00756,-2.63230,1.06918,1.57080,0.11675,-0.12761,-0.48158,0.03461,,,,,,,,,,,,,,,,,,,,,,,,,,0,0,0,0,0
3.8199,1783956733.3039,1,1,1.0000,-0.0000,1.42241,-0.00756,-2.63230,1.06918,1.57080,0.11675,-0.12761,-0.48158,0.03461,,,,,,,,,,,,,,,,,,,,,,,,,,0,0,0,0,0
3.8261,1783956733.3101,1,1,1.0000,-0.0000,1.42241,-0.00756,-2.63230,1.06918,1.57080,0.11675,-0.12761,-0.48158,0.03461,,,,,,,,,,,,,,,,,,,,,,,,,,0,0,0,0,0
3.8266,1783956733.3106,1,1,1.0000,-0.0000,1.42241,-0.00756,-2.63230,1.06918,1.57080,0.11675,-0.12761,-0.48158,0.03461,,,,,,,,,,,,,,,,,,,,,,,,,,0,0,0,0,0
3.8311,1783956733.3151,1,1,1.0000,-0.0000,1.42241,-0.00756,-2.63230,1.06918,1.57080,0.11675,-0.12761,-0.48158,0.03461,,,,,,,,,,,,,,,,,,,,,,,,,,0,0,0,0,0
3.8313,1783956733.3153,1,1,1.0000,-0.0000,1.42241,-0.00756,-2.63230,1.06918,1.57080,0.11675,-0.12761,-0.48158,0.03461,,,,,,,,,,,,,,,,,,,,,,,,,,0,0,0,0,0
3.8576,1783956733.3416,1,1,1.0000,-0.0000,1.42241,-0.00756,-2.63230,1.06918,1.57080,0.11675,-0.12761,-0.48158,0.03461,,,,,,,,,,,,,,,,,,,,,,,,,,0,0,0,0,0
3.8580,1783956733.3420,1,1,1.0000,-0.0000,1.42241,-0.00756,-2.63230,1.06918,1.57080,0.11675,-0.12761,-0.48158,0.03461,,,,,,,,,,,,,,,,,,,,,,,,,,0,0,0,0,0
3.8699,1783956733.3539,1,1,1.0000,-0.0000,1.42241,-0.00756,-2.63230,1.06918,1.57080,0.11675,-0.12761,-0.48158,0.03461,,,,,,,,,,,,,,,,,,,,,,,,,,0,0,0,0,0
3.8704,1783956733.3544,1,1,1.0000,-0.0000,1.42241,-0.00756,-2.63230,1.06918,1.57080,0.11675,-0.12761,-0.48158,0.03461,,,,,,,,,,,,,,,,,,,,,,,,,,0,0,0,0,0
3.8750,1783956733.3590,1,1,1.0000,-0.0000,1.42241,-0.00756,-2.63230,1.06918,1.57080,0.11675,-0.12761,-0.48158,0.03461,,,,,,,,,,,,,,,,,,,,,,,,,,0,0,0,0,0
3.8754,1783956733.3594,1,1,1.0000,-0.0000,1.42241,-0.00756,-2.63230,1.06918,1.57080,0.11675,-0.12761,-0.48158,0.03461,,,,,,,,,,,,,,,,,,,,,,,,,,0,0,0,0,0
3.8816,1783956733.3656,1,1,1.0000,-0.0000,1.42241,-0.00756,-2.63230,1.06918,1.57080,0.11675,-0.12761,-0.48158,0.03461,,,,,,,,,,,,,,,,,,,,,,,,,,0,0,0,0,0
3.8820,1783956733.3660,1,1,1.0000,-0.0000,1.42241,-0.00756,-2.63230,1.06918,1.57080,0.11675,-0.12761,-0.48158,0.03461,,,,,,,,,,,,,,,,,,,,,,,,,,0,0,0,0,0
3.8949,1783956733.3789,1,1,1.0000,-0.0000,1.42241,-0.00756,-2.63230,1.06918,1.57080,0.11675,-0.12761,-0.48158,0.03461,,,,,,,,,,,,,,,,,,,,,,,,,,0,0,0,0,0
3.9049,1783956733.3889,1,1,1.0000,-0.0000,1.42241,-0.00756,-2.63230,1.06918,1.57080,0.11675,-0.12761,-0.48158,0.03461,,,,,,,,,,,,,,,,,,,,,,,,,,0,0,0,0,0
3.9326,1783956733.4166,1,1,1.0000,-0.0000,1.42241,-0.00756,-2.63230,1.06918,1.57080,0.11675,-0.12761,-0.48158,0.03461,,,,,,,,,,,,,,,,,,,,,,,,,,0,0,0,0,0
3.9329,1783956733.4169,1,1,1.0000,-0.0000,1.42241,-0.00756,-2.63230,1.06918,1.57080,0.11675,-0.12761,-0.48158,0.03461,,,,,,,,,,,,,,,,,,,,,,,,,,0,0,0,0,0
3.9499,1783956733.4339,1,1,1.0000,-0.0000,1.42241,-0.00756,-2.63230,1.06918,1.57080,0.11675,-0.12761,-0.48158,0.03461,,,,,,,,,,,,,,,,,,,,,,,,,,0,0,0,0,0
3.9576,1783956733.4416,1,1,1.0000,-0.0000,1.42241,-0.00756,-2.63230,1.06918,1.57080,0.11675,-0.12761,-0.48158,0.03461,,,,,,,,,,,,,,,,,,,,,,,,,,0,0,0,0,0
3.9579,1783956733.4419,1,1,1.0000,-0.0000,1.42241,-0.00756,-2.63230,1.06918,1.57080,0.11675,-0.12761,-0.48158,0.03461,,,,,,,,,,,,,,,,,,,,,,,,,,0,0,0,0,0
3.9629,1783956733.4469,1,1,1.0000,-0.0000,1.42241,-0.00756,-2.63230,1.06918,1.57080,0.11675,-0.12761,-0.48158,0.03461,,,,,,,,,,,,,,,,,,,,,,,,,,0,0,0,0,0
3.9632,1783956733.4472,1,1,1.0000,-0.0000,1.42241,-0.00756,-2.63230,1.06918,1.57080,0.11675,-0.12761,-0.48158,0.03461,,,,,,,,,,,,,,,,,,,,,,,,,,0,0,0,0,0
3.9713,1783956733.4553,1,1,1.0000,-0.0000,1.42241,-0.00756,-2.63230,1.06918,1.57080,0.11675,-0.12761,-0.48158,0.03461,,,,,,,,,,,,,,,,,,,,,,,,,,0,0,0,0,0
3.9978,1783956733.4818,1,1,1.0000,-0.0000,1.42241,-0.00758,-2.63236,1.06922,1.57080,0.11675,-0.12761,-0.48154,0.03458,,,,,,,,,,,,,,,,,,,,,,,,,,0,0,0,0,0
4.0096,1783956733.4936,1,1,1.0000,-0.0000,1.42241,-0.00760,-2.63238,1.06924,1.57080,0.11675,-0.12762,-0.48153,0.03457,,,,,,,,,,,,,,,,,,,,,,,,,,0,0,0,0,0
4.0176,1783956733.5016,1,1,1.0000,-0.0000,1.42241,-0.00763,-2.63241,1.06927,1.57080,0.11675,-0.12762,-0.48151,0.03455,,,,,,,,,,,,,,,,,,,,,,,,,,0,0,0,0,0
4.0233,1783956733.5073,1,1,1.0000,-0.0000,1.42241,-0.00763,-2.63241,1.06927,1.57080,0.11675,-0.12762,-0.48151,0.03455,,,,,,,,,,,,,,,,,,,,,,,,,,0,0,0,0,0
4.0299,1783956733.5139,1,1,1.0000,-0.0000,1.42241,-0.00765,-2.63242,1.06929,1.57080,0.11675,-0.12762,-0.48151,0.03454,,,,,,,,,,,,,,,,,,,,,,,,,,0,0,0,0,0
4.0458,1783956733.5298,1,1,1.0000,-0.0000,1.42241,-0.00774,-2.63247,1.06940,1.57080,0.11675,-0.12762,-0.48148,0.03449,,,,,,,,,,,,,,,,,,,,,,,,,,0,0,0,0,0
4.0462,1783956733.5302,1,1,1.0000,-0.0000,1.42241,-0.00774,-2.63247,1.06940,1.57080,0.11675,-0.12762,-0.48148,0.03449,,,,,,,,,,,,,,,,,,,,,,,,,,0,0,0,0,0
4.0625,1783956733.5465,1,1,1.0000,-0.0000,1.42241,-0.00779,-2.63250,1.06946,1.57080,0.11675,-0.12763,-0.48147,0.03446,,,,,,,,,,,,,,,,,,,,,,,,,,0,0,0,0,0
4.0628,1783956733.5468,1,1,1.0000,-0.0000,1.42241,-0.00779,-2.63250,1.06946,1.57080,0.11675,-0.12763,-0.48147,0.03446,,,,,,,,,,,,,,,,,,,,,,,,,,0,0,0,0,0
4.0631,1783956733.5471,1,1,1.0000,-0.0000,1.42241,-0.00779,-2.63250,1.06946,1.57080,0.11675,-0.12763,-0.48147,0.03446,,,,,,,,,,,,,,,,,,,,,,,,,,0,0,0,0,0
4.0769,1783956733.5609,1,1,1.0000,-0.0000,1.42241,-0.00788,-2.63252,1.06957,1.57080,0.11675,-0.12763,-0.48147,0.03443,,,,,,,,,,,,,,,,,,,,,,,,,,0,0,0,0,0
4.0862,1783956733.5702,1,1,1.0000,-0.0000,1.42241,-0.00802,-2.63256,1.06974,1.57080,0.11675,-0.12763,-0.48146,0.03438,,,,,,,,,,,,,,,,,,,,,,,,,,0,0,0,0,0
4.1137,1783956733.5977,1,1,1.0000,-0.0000,1.42241,-0.00814,-2.63258,1.06988,1.57080,0.11675,-0.12763,-0.48146,0.03434,,,,,,,,,,,,,,,,,,,,,,,,,,0,0,0,0,0
4.1341,1783956733.6181,1,1,1.0000,-0.0000,1.42241,-0.00827,-2.63260,1.07003,1.57080,0.11675,-0.12763,-0.48147,0.03430,,,,,,,,,,,,,,,,,,,,,,,,,,0,0,0,0,0
4.1344,1783956733.6184,1,1,1.0000,-0.0000,1.42241,-0.00827,-2.63260,1.07003,1.57080,0.11675,-0.12763,-0.48147,0.03430,,,,,,,,,,,,,,,,,,,,,,,,,,0,0,0,0,0
4.1347,1783956733.6187,1,1,1.0000,-0.0000,1.42241,-0.00827,-2.63260,1.07003,1.57080,0.11675,-0.12763,-0.48147,0.03430,,,,,,,,,,,,,,,,,,,,,,,,,,0,0,0,0,0
4.3350,1783956733.8190,1,1,1.0000,-0.0000,1.42241,-0.00875,-2.63256,1.07062,1.57080,0.11675,-0.12761,-0.48158,0.03421,,,,,,,,,,,,,,,,,,,,,,,,,,0,0,0,0,0
4.3353,1783956733.8193,1,1,1.0000,-0.0000,1.42241,-0.00875,-2.63256,1.07062,1.57080,0.11675,-0.12761,-0.48158,0.03421,,,,,,,,,,,,,,,,,,,,,,,,,,0,0,0,0,0
4.3817,1783956733.8657,1,1,1.0000,-0.0000,1.42241,-0.00875,-2.63256,1.07062,1.57080,0.11675,-0.12761,-0.48158,0.03421,,,,,,,,,,,,,,,,,,,,,,,,,,0,0,0,0,0
4.3870,1783956733.8710,1,1,1.0000,-0.0000,1.42241,-0.00875,-2.63256,1.07062,1.57080,0.11675,-0.12761,-0.48158,0.03421,,,,,,,,,,,,,,,,,,,,,,,,,,0,0,0,0,0
4.3873,1783956733.8713,1,1,1.0000,-0.0000,1.42241,-0.00875,-2.63256,1.07062,1.57080,0.11675,-0.12761,-0.48158,0.03421,,,,,,,,,,,,,,,,,,,,,,,,,,0,0,0,0,0
4.3876,1783956733.8717,1,1,1.0000,-0.0000,1.42241,-0.00875,-2.63256,1.07062,1.57080,0.11675,-0.12761,-0.48158,0.03421,,,,,,,,,,,,,,,,,,,,,,,,,,0,0,0,0,0
4.3879,1783956733.8719,1,1,1.0000,-0.0000,1.42241,-0.00875,-2.63256,1.07062,1.57080,0.11675,-0.12761,-0.48158,0.03421,,,,,,,,,,,,,,,,,,,,,,,,,,0,0,0,0,0
4.3883,1783956733.8723,1,1,1.0000,-0.0000,1.42241,-0.00875,-2.63256,1.07062,1.57080,0.11675,-0.12761,-0.48158,0.03421,,,,,,,,,,,,,,,,,,,,,,,,,,0,0,0,0,0
4.3885,1783956733.8725,1,1,1.0000,-0.0000,1.42241,-0.00875,-2.63256,1.07062,1.57080,0.11675,-0.12761,-0.48158,0.03421,,,,,,,,,,,,,,,,,,,,,,,,,,0,0,0,0,0
4.3888,1783956733.8728,1,1,1.0000,-0.0000,1.42241,-0.00875,-2.63256,1.07062,1.57080,0.11675,-0.12761,-0.48158,0.03421,,,,,,,,,,,,,,,,,,,,,,,,,,0,0,0,0,0
4.3891,1783956733.8731,1,1,1.0000,-0.0000,1.42241,-0.00875,-2.63256,1.07062,1.57080,0.11675,-0.12761,-0.48158,0.03421,,,,,,,,,,,,,,,,,,,,,,,,,,0,0,0,0,0
4.3896,1783956733.8736,1,1,1.0000,-0.0000,1.42241,-0.00875,-2.63256,1.07062,1.57080,0.11675,-0.12761,-0.48158,0.03421,,,,,,,,,,,,,,,,,,,,,,,,,,0,0,0,0,0
4.3899,1783956733.8739,1,1,1.0000,-0.0000,1.42241,-0.00875,-2.63256,1.07062,1.57080,0.11675,-0.12761,-0.48158,0.03421,,,,,,,,,,,,,,,,,,,,,,,,,,0,0,0,0,0
4.3902,1783956733.8742,1,1,1.0000,-0.0000,1.42241,-0.00875,-2.63256,1.07062,1.57080,0.11675,-0.12761,-0.48158,0.03421,,,,,,,,,,,,,,,,,,,,,,,,,,0,0,0,0,0
4.3905,1783956733.8745,1,1,1.0000,-0.0000,1.42241,-0.00875,-2.63256,1.07062,1.57080,0.11675,-0.12761,-0.48158,0.03421,,,,,,,,,,,,,,,,,,,,,,,,,,0,0,0,0,0
4.3908,1783956733.8748,1,1,1.0000,-0.0000,1.42241,-0.00875,-2.63256,1.07062,1.57080,0.11675,-0.12761,-0.48158,0.03421,,,,,,,,,,,,,,,,,,,,,,,,,,0,0,0,0,0
4.3911,1783956733.8751,1,1,1.0000,-0.0000,1.42241,-0.00875,-2.63256,1.07062,1.57080,0.11675,-0.12761,-0.48158,0.03421,,,,,,,,,,,,,,,,,,,,,,,,,,0,0,0,0,0
4.3914,1783956733.8754,1,1,1.0000,-0.0000,1.42241,-0.00875,-2.63256,1.07062,1.57080,0.11675,-0.12761,-0.48158,0.03421,,,,,,,,,,,,,,,,,,,,,,,,,,0,0,0,0,0
4.3917,1783956733.8757,1,1,1.0000,-0.0000,1.42241,-0.00875,-2.63256,1.07062,1.57080,0.11675,-0.12761,-0.48158,0.03421,,,,,,,,,,,,,,,,,,,,,,,,,,0,0,0,0,0
4.3941,1783956733.8781,1,1,1.0000,-0.0000,1.42241,-0.00875,-2.63257,1.07062,1.57080,0.11675,-0.12761,-0.48157,0.03420,,,,,,,,,,,,,,,,,,,,,,,,,,0,0,0,0,0
4.3946,1783956733.8786,1,1,1.0000,-0.0000,1.42241,-0.00875,-2.63257,1.07062,1.57080,0.11675,-0.12761,-0.48157,0.03420,,,,,,,,,,,,,,,,,,,,,,,,,,0,0,0,0,0
4.3952,1783956733.8792,1,1,1.0000,-0.0000,1.42241,-0.00875,-2.63257,1.07062,1.57080,0.11675,-0.12761,-0.48157,0.03420,,,,,,,,,,,,,,,,,,,,,,,,,,0,0,0,0,0
4.3957,1783956733.8797,1,1,1.0000,-0.0000,1.42241,-0.00875,-2.63257,1.07062,1.57080,0.11675,-0.12761,-0.48157,0.03420,,,,,,,,,,,,,,,,,,,,,,,,,,0,0,0,0,0
4.3962,1783956733.8802,1,1,1.0000,-0.0000,1.42241,-0.00875,-2.63257,1.07062,1.57080,0.11675,-0.12761,-0.48157,0.03420,,,,,,,,,,,,,,,,,,,,,,,,,,0,0,0,0,0
4.3967,1783956733.8807,1,1,1.0000,-0.0000,1.42241,-0.00875,-2.63257,1.07062,1.57080,0.11675,-0.12761,-0.48157,0.03420,,,,,,,,,,,,,,,,,,,,,,,,,,0,0,0,0,0
4.3971,1783956733.8811,1,1,1.0000,-0.0000,1.42241,-0.00875,-2.63257,1.07062,1.57080,0.11675,-0.12761,-0.48157,0.03420,,,,,,,,,,,,,,,,,,,,,,,,,,0,0,0,0,0
4.4027,1783956733.8867,1,1,1.0000,-0.0000,1.42241,-0.00875,-2.63258,1.07063,1.57080,0.11675,-0.12761,-0.48156,0.03420,,,,,,,,,,,,,,,,,,,,,,,,,,0,0,0,0,0
4.4031,1783956733.8871,1,1,1.0000,-0.0000,1.42241,-0.00875,-2.63258,1.07063,1.57080,0.11675,-0.12761,-0.48156,0.03420,,,,,,,,,,,,,,,,,,,,,,,,,,0,0,0,0,0
4.4143,1783956733.8983,1,1,1.0000,-0.0000,1.42241,-0.00876,-2.63262,1.07065,1.57080,0.11675,-0.12761,-0.48154,0.03418,,,,,,,,,,,,,,,,,,,,,,,,,,0,0,0,0,0
4.4199,1783956733.9039,1,1,1.0000,-0.0000,1.42241,-0.00876,-2.63262,1.07065,1.57080,0.11675,-0.12761,-0.48154,0.03418,,,,,,,,,,,,,,,,,,,,,,,,,,0,0,0,0,0
4.4577,1783956733.9417,1,1,1.0000,-0.0000,1.42241,-0.00884,-2.63271,1.07075,1.57080,0.11675,-0.12762,-0.48149,0.03412,,,,,,,,,,,,,,,,,,,,,,,,,,0,0,0,0,0
4.4698,1783956733.9538,1,1,1.0000,-0.0000,1.42241,-0.00890,-2.63274,1.07081,1.57080,0.11675,-0.12762,-0.48147,0.03409,,,,,,,,,,,,,,,,,,,,,,,,,,0,0,0,0,0
4.4702,1783956733.9542,1,1,1.0000,-0.0000,1.42241,-0.00890,-2.63274,1.07081,1.57080,0.11675,-0.12762,-0.48147,0.03409,,,,,,,,,,,,,,,,,,,,,,,,,,0,0,0,0,0
4.4705,1783956733.9545,1,1,1.0000,-0.0000,1.42241,-0.00890,-2.63274,1.07081,1.57080,0.11675,-0.12762,-0.48147,0.03409,,,,,,,,,,,,,,,,,,,,,,,,,,0,0,0,0,0
4.4756,1783956733.9596,1,1,1.0000,-0.0000,1.42241,-0.00890,-2.63274,1.07081,1.57080,0.11675,-0.12762,-0.48147,0.03409,,,,,,,,,,,,,,,,,,,,,,,,,,0,0,0,0,0
4.4802,1783956733.9642,1,1,1.0000,-0.0000,1.42241,-0.00890,-2.63274,1.07082,1.57080,0.11675,-0.12762,-0.48147,0.03409,,,,,,,,,,,,,,,,,,,,,,,,,,0,0,0,0,0
4.4805,1783956733.9645,1,1,1.0000,-0.0000,1.42241,-0.00890,-2.63274,1.07082,1.57080,0.11675,-0.12762,-0.48147,0.03409,,,,,,,,,,,,,,,,,,,,,,,,,,0,0,0,0,0
4.5170,1783956734.0010,1,1,1.0000,-0.0000,1.42240,-0.00912,-2.63280,1.07108,1.57081,0.11675,-0.12762,-0.48146,0.03401,,,,,,,,,,,,,,,,,,,,,,,,,,0,0,0,0,0
4.5177,1783956734.0017,1,1,1.0000,-0.0000,1.42240,-0.00915,-2.63281,1.07111,1.57081,0.11675,-0.12762,-0.48146,0.03400,,,,,,,,,,,,,,,,,,,,,,,,,,0,0,0,0,0
4.5206,1783956734.0046,1,1,1.0000,-0.0000,1.42240,-0.00915,-2.63281,1.07111,1.57081,0.11675,-0.12762,-0.48146,0.03400,,,,,,,,,,,,,,,,,,,,,,,,,,0,0,0,0,0
4.5209,1783956734.0049,1,1,1.0000,-0.0000,1.42240,-0.00915,-2.63281,1.07111,1.57081,0.11675,-0.12762,-0.48146,0.03400,,,,,,,,,,,,,,,,,,,,,,,,,,0,0,0,0,0
4.5339,1783956734.0179,1,1,1.0000,-0.0000,1.42240,-0.00933,-2.63284,1.07132,1.57081,0.11675,-0.12762,-0.48146,0.03394,,,,,,,,,,,,,,,,,,,,,,,,,,0,0,0,0,0
4.5341,1783956734.0181,1,1,1.0000,-0.0000,1.42240,-0.00933,-2.63284,1.07132,1.57081,0.11675,-0.12762,-0.48146,0.03394,,,,,,,,,,,,,,,,,,,,,,,,,,0,0,0,0,0
4.5510,1783956734.0350,1,1,1.0000,-0.0000,1.42240,-0.00938,-2.63285,1.07138,1.57081,0.11675,-0.12762,-0.48146,0.03392,,,,,,,,,,,,,,,,,,,,,,,,,,0,0,0,0,0
4.5513,1783956734.0353,1,1,1.0000,-0.0000,1.42240,-0.00938,-2.63285,1.07138,1.57081,0.11675,-0.12762,-0.48146,0.03392,,,,,,,,,,,,,,,,,,,,,,,,,,0,0,0,0,0
4.5638,1783956734.0478,1,1,1.0000,-0.0000,1.42240,-0.00949,-2.63287,1.07152,1.57081,0.11675,-0.12762,-0.48146,0.03389,,,,,,,,,,,,,,,,,,,,,,,,,,0,0,0,0,0
4.5824,1783956734.0664,1,1,1.0000,-0.0000,1.42240,-0.00974,-2.63291,1.07181,1.57081,0.11675,-0.12762,-0.48148,0.03381,,,,,,,,,,,,,,,,,,,,,,,,,,0,0,0,0,0
4.7182,1783956734.2022,1,1,1.0000,-0.0000,1.42240,-0.00988,-2.63293,1.07199,1.57081,0.11675,-0.12762,-0.48149,0.03377,,,,,,,,,,,,,,,,,,,,,,,,,,0,0,0,0,0
4.7188,1783956734.2028,1,1,1.0000,-0.0000,1.42240,-0.00988,-2.63293,1.07199,1.57081,0.11675,-0.12762,-0.48149,0.03377,,,,,,,,,,,,,,,,,,,,,,,,,,0,0,0,0,0
4.7194,1783956734.2034,1,1,1.0000,-0.0000,1.42240,-0.00988,-2.63293,1.07199,1.57081,0.11675,-0.12762,-0.48149,0.03377,,,,,,,,,,,,,,,,,,,,,,,,,,0,0,0,0,0
4.7199,1783956734.2039,1,1,1.0000,-0.0000,1.42240,-0.00988,-2.63293,1.07199,1.57081,0.11675,-0.12762,-0.48149,0.03377,,,,,,,,,,,,,,,,,,,,,,,,,,0,0,0,0,0
4.7204,1783956734.2044,1,1,1.0000,-0.0000,1.42240,-0.00988,-2.63293,1.07199,1.57081,0.11675,-0.12762,-0.48149,0.03377,,,,,,,,,,,,,,,,,,,,,,,,,,0,0,0,0,0
4.7208,1783956734.2048,1,1,1.0000,-0.0000,1.42240,-0.00988,-2.63293,1.07199,1.57081,0.11675,-0.12762,-0.48149,0.03377,,,,,,,,,,,,,,,,,,,,,,,,,,0,0,0,0,0
4.7215,1783956734.2055,1,1,1.0000,-0.0000,1.42240,-0.00988,-2.63293,1.07199,1.57081,0.11675,-0.12762,-0.48149,0.03377,,,,,,,,,,,,,,,,,,,,,,,,,,0,0,0,0,0
4.7325,1783956734.2165,1,1,1.0000,-0.0000,1.42240,-0.00988,-2.63293,1.07199,1.57081,0.11675,-0.12762,-0.48149,0.03377,,,,,,,,,,,,,,,,,,,,,,,,,,0,0,0,0,0
4.7328,1783956734.2168,1,1,1.0000,-0.0000,1.42240,-0.00988,-2.63293,1.07199,1.57081,0.11675,-0.12762,-0.48149,0.03377,,,,,,,,,,,,,,,,,,,,,,,,,,0,0,0,0,0
4.7330,1783956734.2170,1,1,1.0000,-0.0000,1.42240,-0.00988,-2.63293,1.07199,1.57081,0.11675,-0.12762,-0.48149,0.03377,,,,,,,,,,,,,,,,,,,,,,,,,,0,0,0,0,0
4.7399,1783956734.2240,1,1,1.0000,-0.0000,1.42240,-0.00988,-2.63293,1.07199,1.57081,0.11675,-0.12762,-0.48149,0.03377,,,,,,,,,,,,,,,,,,,,,,,,,,0,0,0,0,0
4.7403,1783956734.2243,1,1,1.0000,-0.0000,1.42240,-0.00988,-2.63293,1.07199,1.57081,0.11675,-0.12762,-0.48149,0.03377,,,,,,,,,,,,,,,,,,,,,,,,,,0,0,0,0,0
4.7409,1783956734.2249,1,1,1.0000,-0.0000,1.42240,-0.00988,-2.63293,1.07199,1.57081,0.11675,-0.12762,-0.48149,0.03377,,,,,,,,,,,,,,,,,,,,,,,,,,0,0,0,0,0
4.7415,1783956734.2255,1,1,1.0000,-0.0000,1.42240,-0.00988,-2.63293,1.07199,1.57081,0.11675,-0.12762,-0.48149,0.03377,,,,,,,,,,,,,,,,,,,,,,,,,,0,0,0,0,0
4.7541,1783956734.2381,1,1,1.0000,-0.0000,1.42240,-0.00988,-2.63293,1.07199,1.57081,0.11675,-0.12762,-0.48149,0.03377,,,,,,,,,,,,,,,,,,,,,,,,,,0,0,0,0,0
4.7926,1783956734.2766,1,1,1.0000,-0.0000,1.42240,-0.00988,-2.63293,1.07199,1.57081,0.11675,-0.12762,-0.48149,0.03377,,,,,,,,,,,,,,,,,,,,,,,,,,0,0,0,0,0
4.7929,1783956734.2770,1,1,1.0000,-0.0000,1.42240,-0.00988,-2.63293,1.07199,1.57081,0.11675,-0.12762,-0.48149,0.03377,,,,,,,,,,,,,,,,,,,,,,,,,,0,0,0,0,0
4.7935,1783956734.2775,1,1,1.0000,-0.0000,1.42240,-0.00988,-2.63293,1.07199,1.57081,0.11675,-0.12762,-0.48149,0.03377,,,,,,,,,,,,,,,,,,,,,,,,,,0,0,0,0,0
4.7938,1783956734.2778,1,1,1.0000,-0.0000,1.42240,-0.00988,-2.63293,1.07199,1.57081,0.11675,-0.12762,-0.48149,0.03377,,,,,,,,,,,,,,,,,,,,,,,,,,0,0,0,0,0
4.8033,1783956734.2873,1,1,1.0000,-0.0000,1.42240,-0.00988,-2.63293,1.07199,1.57081,0.11675,-0.12762,-0.48149,0.03377,,,,,,,,,,,,,,,,,,,,,,,,,,0,0,0,0,0
4.8353,1783956734.3193,1,1,1.0000,-0.0000,1.42240,-0.00990,-2.63293,1.07203,1.57081,0.11675,-0.12762,-0.48149,0.03377,,,,,,,,,,,,,,,,,,,,,,,,,,0,0,0,0,0
4.8357,1783956734.3197,1,1,1.0000,-0.0000,1.42240,-0.00990,-2.63293,1.07203,1.57081,0.11675,-0.12762,-0.48149,0.03377,,,,,,,,,,,,,,,,,,,,,,,,,,0,0,0,0,0
4.8443,1783956734.3283,1,1,1.0000,-0.0000,1.42240,-0.00991,-2.63293,1.07204,1.57081,0.11675,-0.12762,-0.48149,0.03376,,,,,,,,,,,,,,,,,,,,,,,,,,0,0,0,0,0
4.8508,1783956734.3348,1,1,1.0000,-0.0000,1.42240,-0.00994,-2.63295,1.07207,1.57081,0.11675,-0.12762,-0.48148,0.03375,,,,,,,,,,,,,,,,,,,,,,,,,,0,0,0,0,0
4.8616,1783956734.3456,1,1,1.0000,-0.0000,1.42240,-0.01000,-2.63299,1.07214,1.57081,0.11675,-0.12762,-0.48146,0.03371,,,,,,,,,,,,,,,,,,,,,,,,,,0,0,0,0,0
4.8712,1783956734.3552,1,1,1.0000,-0.0000,1.42240,-0.01000,-2.63300,1.07214,1.57081,0.11675,-0.12762,-0.48146,0.03371,,,,,,,,,,,,,,,,,,,,,,,,,,0,0,0,0,0
4.8842,1783956734.3682,1,1,1.0000,-0.0000,1.42240,-0.01004,-2.63302,1.07219,1.57081,0.11675,-0.12762,-0.48145,0.03369,,,,,,,,,,,,,,,,,,,,,,,,,,0,0,0,0,0
4.8920,1783956734.3760,1,1,1.0000,-0.0000,1.42240,-0.01009,-2.63304,1.07225,1.57081,0.11675,-0.12763,-0.48144,0.03367,,,,,,,,,,,,,,,,,,,,,,,,,,0,0,0,0,0
4.9032,1783956734.3872,1,1,1.0000,-0.0000,1.42240,-0.01014,-2.63306,1.07231,1.57081,0.11675,-0.12763,-0.48143,0.03364,,,,,,,,,,,,,,,,,,,,,,,,,,0,0,0,0,0
4.9140,1783956734.3980,1,1,1.0000,-0.0000,1.42240,-0.01018,-2.63307,1.07236,1.57081,0.11675,-0.12763,-0.48143,0.03363,,,,,,,,,,,,,,,,,,,,,,,,,,0,0,0,0,0
4.9416,1783956734.4256,1,1,1.0000,-0.0000,1.42240,-0.01034,-2.63310,1.07254,1.57081,0.11675,-0.12763,-0.48143,0.03358,,,,,,,,,,,,,,,,,,,,,,,,,,0,0,0,0,0
4.9422,1783956734.4262,1,1,1.0000,-0.0000,1.42240,-0.01034,-2.63310,1.07254,1.57081,0.11675,-0.12763,-0.48143,0.03358,,,,,,,,,,,,,,,,,,,,,,,,,,0,0,0,0,0
4.9424,1783956734.4264,1,1,1.0000,-0.0000,1.42240,-0.01034,-2.63310,1.07254,1.57081,0.11675,-0.12763,-0.48143,0.03358,,,,,,,,,,,,,,,,,,,,,,,,,,0,0,0,0,0
4.9508,1783956734.4348,1,1,1.0000,-0.0000,1.42240,-0.01044,-2.63311,1.07267,1.57081,0.11675,-0.12762,-0.48144,0.03355,,,,,,,,,,,,,,,,,,,,,,,,,,0,0,0,0,0
4.9629,1783956734.4469,1,1,1.0000,-0.0000,1.42240,-0.01051,-2.63312,1.07274,1.57081,0.11675,-0.12762,-0.48144,0.03353,,,,,,,,,,,,,,,,,,,,,,,,,,0,0,0,0,0
5.1058,1783956734.5898,1,1,1.0000,-0.0000,1.42240,-0.01105,-2.63319,1.07341,1.57081,0.11675,-0.12762,-0.48148,0.03337,,,,,,,,,,,,,,,,,,,,,,,,,,0,0,0,0,0
5.1063,1783956734.5903,1,1,1.0000,-0.0000,1.42240,-0.01105,-2.63319,1.07341,1.57081,0.11675,-0.12762,-0.48148,0.03337,,,,,,,,,,,,,,,,,,,,,,,,,,0,0,0,0,0
5.1068,1783956734.5908,1,1,1.0000,-0.0000,1.42240,-0.01105,-2.63319,1.07341,1.57081,0.11675,-0.12762,-0.48148,0.03337,,,,,,,,,,,,,,,,,,,,,,,,,,0,0,0,0,0
5.1072,1783956734.5912,1,1,1.0000,-0.0000,1.42240,-0.01105,-2.63319,1.07341,1.57081,0.11675,-0.12762,-0.48148,0.03337,,,,,,,,,,,,,,,,,,,,,,,,,,0,0,0,0,0
5.1077,1783956734.5917,1,1,1.0000,-0.0000,1.42240,-0.01105,-2.63319,1.07341,1.57081,0.11675,-0.12762,-0.48148,0.03337,,,,,,,,,,,,,,,,,,,,,,,,,,0,0,0,0,0
5.1081,1783956734.5921,1,1,1.0000,-0.0000,1.42240,-0.01105,-2.63319,1.07341,1.57081,0.11675,-0.12762,-0.48148,0.03337,,,,,,,,,,,,,,,,,,,,,,,,,,0,0,0,0,0
5.1086,1783956734.5926,1,1,1.0000,-0.0000,1.42240,-0.01105,-2.63319,1.07341,1.57081,0.11675,-0.12762,-0.48148,0.03337,,,,,,,,,,,,,,,,,,,,,,,,,,0,0,0,0,0
5.1312,1783956734.6152,1,1,1.0000,-0.0000,1.42240,-0.01105,-2.63319,1.07341,1.57081,0.11675,-0.12762,-0.48148,0.03337,,,,,,,,,,,,,,,,,,,,,,,,,,0,0,0,0,0
5.1338,1783956734.6178,1,1,1.0000,-0.0000,1.42240,-0.01105,-2.63319,1.07341,1.57081,0.11675,-0.12762,-0.48148,0.03337,,,,,,,,,,,,,,,,,,,,,,,,,,0,0,0,0,0
5.1570,1783956734.6410,1,1,1.0000,-0.0000,1.42240,-0.01105,-2.63319,1.07341,1.57081,0.11675,-0.12762,-0.48148,0.03337,,,,,,,,,,,,,,,,,,,,,,,,,,0,0,0,0,0
5.1575,1783956734.6415,1,1,1.0000,-0.0000,1.42240,-0.01105,-2.63319,1.07341,1.57081,0.11675,-0.12762,-0.48148,0.03337,,,,,,,,,,,,,,,,,,,,,,,,,,0,0,0,0,0
5.1626,1783956734.6466,1,1,1.0000,-0.0000,1.42240,-0.01105,-2.63319,1.07341,1.57081,0.11675,-0.12762,-0.48148,0.03337,,,,,,,,,,,,,,,,,,,,,,,,,,0,0,0,0,0
5.2035,1783956734.6875,1,1,1.0000,-0.0000,1.42240,-0.01105,-2.63319,1.07341,1.57081,0.11675,-0.12762,-0.48148,0.03337,,,,,,,,,,,,,,,,,,,,,,,,,,0,0,0,0,0
5.2038,1783956734.6878,1,1,1.0000,-0.0000,1.42240,-0.01105,-2.63319,1.07341,1.57081,0.11675,-0.12762,-0.48148,0.03337,,,,,,,,,,,,,,,,,,,,,,,,,,0,0,0,0,0
5.2042,1783956734.6882,1,1,1.0000,-0.0000,1.42240,-0.01105,-2.63319,1.07341,1.57081,0.11675,-0.12762,-0.48148,0.03337,,,,,,,,,,,,,,,,,,,,,,,,,,0,0,0,0,0
5.2179,1783956734.7019,1,1,1.0000,-0.0000,1.42240,-0.01105,-2.63319,1.07341,1.57081,0.11675,-0.12762,-0.48148,0.03337,,,,,,,,,,,,,,,,,,,,,,,,,,0,0,0,0,0
5.2182,1783956734.7022,1,1,1.0000,-0.0000,1.42240,-0.01105,-2.63319,1.07341,1.57081,0.11675,-0.12762,-0.48148,0.03337,,,,,,,,,,,,,,,,,,,,,,,,,,0,0,0,0,0
5.3125,1783956734.7965,1,1,1.0000,-0.0000,1.42240,-0.01125,-2.63329,1.07367,1.57081,0.11675,-0.12762,-0.48144,0.03328,,,,,,,,,,,,,,,,,,,,,,,,,,0,0,0,0,0
5.3127,1783956734.7967,1,1,1.0000,-0.0000,1.42240,-0.01125,-2.63329,1.07367,1.57081,0.11675,-0.12762,-0.48144,0.03328,,,,,,,,,,,,,,,,,,,,,,,,,,0,0,0,0,0
5.3132,1783956734.7972,1,1,1.0000,-0.0000,1.42240,-0.01125,-2.63329,1.07367,1.57081,0.11675,-0.12762,-0.48144,0.03328,,,,,,,,,,,,,,,,,,,,,,,,,,0,0,0,0,0
5.3138,1783956734.7978,1,1,1.0000,-0.0000,1.42240,-0.01128,-2.63330,1.07370,1.57081,0.11675,-0.12762,-0.48144,0.03327,,,,,,,,,,,,,,,,,,,,,,,,,,0,0,0,0,0
5.3140,1783956734.7980,1,1,1.0000,-0.0000,1.42240,-0.01128,-2.63330,1.07370,1.57081,0.11675,-0.12762,-0.48144,0.03327,,,,,,,,,,,,,,,,,,,,,,,,,,0,0,0,0,0
5.3143,1783956734.7983,1,1,1.0000,-0.0000,1.42240,-0.01128,-2.63330,1.07370,1.57081,0.11675,-0.12762,-0.48144,0.03327,,,,,,,,,,,,,,,,,,,,,,,,,,0,0,0,0,0
5.3146,1783956734.7986,1,1,1.0000,-0.0000,1.42240,-0.01128,-2.63330,1.07370,1.57081,0.11675,-0.12762,-0.48144,0.03327,,,,,,,,,,,,,,,,,,,,,,,,,,0,0,0,0,0
5.3149,1783956734.7989,1,1,1.0000,-0.0000,1.42240,-0.01128,-2.63330,1.07370,1.57081,0.11675,-0.12762,-0.48144,0.03327,,,,,,,,,,,,,,,,,,,,,,,,,,0,0,0,0,0
5.3152,1783956734.7992,1,1,1.0000,-0.0000,1.42240,-0.01128,-2.63330,1.07370,1.57081,0.11675,-0.12762,-0.48144,0.03327,,,,,,,,,,,,,,,,,,,,,,,,,,0,0,0,0,0
5.3155,1783956734.7995,1,1,1.0000,-0.0000,1.42240,-0.01128,-2.63330,1.07370,1.57081,0.11675,-0.12762,-0.48144,0.03327,,,,,,,,,,,,,,,,,,,,,,,,,,0,0,0,0,0
5.3158,1783956734.7998,1,1,1.0000,-0.0000,1.42240,-0.01128,-2.63330,1.07370,1.57081,0.11675,-0.12762,-0.48144,0.03327,,,,,,,,,,,,,,,,,,,,,,,,,,0,0,0,0,0
5.3161,1783956734.8001,1,1,1.0000,-0.0000,1.42240,-0.01128,-2.63330,1.07370,1.57081,0.11675,-0.12762,-0.48144,0.03327,,,,,,,,,,,,,,,,,,,,,,,,,,0,0,0,0,0
5.3165,1783956734.8005,1,1,1.0000,-0.0000,1.42240,-0.01128,-2.63330,1.07370,1.57081,0.11675,-0.12762,-0.48144,0.03327,,,,,,,,,,,,,,,,,,,,,,,,,,0,0,0,0,0
5.3200,1783956734.8040,1,1,1.0000,-0.0000,1.42240,-0.01128,-2.63330,1.07370,1.57081,0.11675,-0.12762,-0.48144,0.03327,,,,,,,,,,,,,,,,,,,,,,,,,,0,0,0,0,0
5.3205,1783956734.8045,1,1,1.0000,-0.0000,1.42240,-0.01128,-2.63330,1.07370,1.57081,0.11675,-0.12762,-0.48144,0.03327,,,,,,,,,,,,,,,,,,,,,,,,,,0,0,0,0,0
5.3300,1783956734.8140,1,1,1.0000,-0.0000,1.42240,-0.01132,-2.63330,1.07374,1.57081,0.11675,-0.12762,-0.48144,0.03326,,,,,,,,,,,,,,,,,,,,,,,,,,0,0,0,0,0
5.3423,1783956734.8263,1,1,1.0000,-0.0000,1.42240,-0.01137,-2.63332,1.07381,1.57081,0.11675,-0.12762,-0.48144,0.03324,,,,,,,,,,,,,,,,,,,,,,,,,,0,0,0,0,0
5.3599,1783956734.8439,1,1,1.0000,-0.0000,1.42240,-0.01147,-2.63333,1.07393,1.57081,0.11675,-0.12762,-0.48144,0.03321,,,,,,,,,,,,,,,,,,,,,,,,,,0,0,0,0,0
5.3964,1783956734.8804,1,1,1.0000,-0.0000,1.42240,-0.01176,-2.63338,1.07427,1.57081,0.11675,-0.12762,-0.48145,0.03312,,,,,,,,,,,,,,,,,,,,,,,,,,0,0,0,0,0
5.3968,1783956734.8808,1,1,1.0000,-0.0000,1.42240,-0.01176,-2.63338,1.07427,1.57081,0.11675,-0.12762,-0.48145,0.03312,,,,,,,,,,,,,,,,,,,,,,,,,,0,0,0,0,0
5.3971,1783956734.8811,1,1,1.0000,-0.0000,1.42240,-0.01176,-2.63338,1.07427,1.57081,0.11675,-0.12762,-0.48145,0.03312,,,,,,,,,,,,,,,,,,,,,,,,,,0,0,0,0,0
5.4248,1783956734.9088,1,1,1.0000,-0.0000,1.42239,-0.01192,-2.63340,1.07447,1.57081,0.11675,-0.12762,-0.48146,0.03307,,,,,,,,,,,,,,,,,,,,,,,,,,0,0,0,0,0
5.4252,1783956734.9092,1,1,1.0000,-0.0000,1.42239,-0.01192,-2.63340,1.07447,1.57081,0.11675,-0.12762,-0.48146,0.03307,,,,,,,,,,,,,,,,,,,,,,,,,,0,0,0,0,0
5.4306,1783956734.9146,1,1,1.0000,-0.0000,1.42239,-0.01199,-2.63340,1.07456,1.57081,0.11675,-0.12762,-0.48147,0.03305,,,,,,,,,,,,,,,,,,,,,,,,,,0,0,0,0,0
5.4448,1783956734.9288,1,1,1.0000,-0.0000,1.42239,-0.01212,-2.63340,1.07471,1.57081,0.11675,-0.12761,-0.48149,0.03302,,,,,,,,,,,,,,,,,,,,,,,,,,0,0,0,0,0
5.4541,1783956734.9381,1,1,1.0000,-0.0000,1.42239,-0.01223,-2.63340,1.07486,1.57081,0.11675,-0.12761,-0.48151,0.03299,,,,,,,,,,,,,,,,,,,,,,,,,,0,0,0,0,0
5.4710,1783956734.9550,1,1,1.0000,-0.0000,1.42239,-0.01231,-2.63339,1.07495,1.57081,0.11674,-0.12761,-0.48154,0.03298,,,,,,,,,,,,,,,,,,,,,,,,,,0,0,0,0,0
5.4714,1783956734.9554,1,1,1.0000,-0.0000,1.42239,-0.01231,-2.63339,1.07495,1.57081,0.11674,-0.12761,-0.48154,0.03298,,,,,,,,,,,,,,,,,,,,,,,,,,0,0,0,0,0
5.4871,1783956734.9711,1,1,1.0000,-0.0000,1.42239,-0.01231,-2.63339,1.07495,1.57081,0.11674,-0.12761,-0.48154,0.03298,,,,,,,,,,,,,,,,,,,,,,,,,,0,0,0,0,0
5.4961,1783956734.9801,1,1,1.0000,-0.0000,1.42239,-0.01231,-2.63339,1.07495,1.57081,0.11674,-0.12761,-0.48154,0.03298,,,,,,,,,,,,,,,,,,,,,,,,,,0,0,0,0,0
5.5059,1783956734.9899,1,1,1.0000,-0.0000,1.42239,-0.01231,-2.63339,1.07495,1.57081,0.11674,-0.12761,-0.48154,0.03298,,,,,,,,,,,,,,,,,,,,,,,,,,0,0,0,0,0
5.5062,1783956734.9902,1,1,1.0000,-0.0000,1.42239,-0.01231,-2.63339,1.07495,1.57081,0.11674,-0.12761,-0.48154,0.03298,,,,,,,,,,,,,,,,,,,,,,,,,,0,0,0,0,0
5.5114,1783956734.9954,1,1,1.0000,-0.0000,1.42239,-0.01231,-2.63339,1.07495,1.57081,0.11674,-0.12761,-0.48154,0.03298,,,,,,,,,,,,,,,,,,,,,,,,,,0,0,0,0,0
5.5258,1783956735.0098,1,1,1.0000,-0.0000,1.42239,-0.01231,-2.63339,1.07495,1.57081,0.11674,-0.12761,-0.48154,0.03298,,,,,,,,,,,,,,,,,,,,,,,,,,0,0,0,0,0
5.5546,1783956735.0386,1,1,1.0000,-0.0000,1.42239,-0.01231,-2.63339,1.07495,1.57081,0.11674,-0.12761,-0.48154,0.03298,,,,,,,,,,,,,,,,,,,,,,,,,,0,0,0,0,0
5.5610,1783956735.0450,1,1,1.0000,-0.0000,1.42239,-0.01231,-2.63339,1.07495,1.57081,0.11674,-0.12761,-0.48154,0.03298,,,,,,,,,,,,,,,,,,,,,,,,,,0,0,0,0,0
5.5615,1783956735.0455,1,1,1.0000,-0.0000,1.42239,-0.01231,-2.63339,1.07495,1.57081,0.11674,-0.12761,-0.48154,0.03298,,,,,,,,,,,,,,,,,,,,,,,,,,0,0,0,0,0
5.5918,1783956735.0758,1,1,1.0000,-0.0000,1.42239,-0.01231,-2.63339,1.07495,1.57081,0.11674,-0.12761,-0.48154,0.03298,,,,,,,,,,,,,,,,,,,,,,,,,,0,0,0,0,0
5.6085,1783956735.0925,1,1,1.0000,-0.0000,1.42239,-0.01231,-2.63339,1.07495,1.57081,0.11674,-0.12761,-0.48154,0.03298,,,,,,,,,,,,,,,,,,,,,,,,,,0,0,0,0,0
5.6131,1783956735.0971,1,1,1.0000,-0.0000,1.42239,-0.01231,-2.63339,1.07495,1.57081,0.11674,-0.12761,-0.48154,0.03298,,,,,,,,,,,,,,,,,,,,,,,,,,0,0,0,0,0
5.6134,1783956735.0974,1,1,1.0000,-0.0000,1.42239,-0.01231,-2.63339,1.07495,1.57081,0.11674,-0.12761,-0.48154,0.03298,,,,,,,,,,,,,,,,,,,,,,,,,,0,0,0,0,0
5.6142,1783956735.0982,1,1,1.0000,-0.0000,1.42239,-0.01231,-2.63339,1.07495,1.57081,0.11674,-0.12761,-0.48154,0.03298,,,,,,,,,,,,,,,,,,,,,,,,,,0,0,0,0,0
5.6145,1783956735.0985,1,1,1.0000,-0.0000,1.42239,-0.01231,-2.63339,1.07495,1.57081,0.11674,-0.12761,-0.48154,0.03298,,,,,,,,,,,,,,,,,,,,,,,,,,0,0,0,0,0
5.6201,1783956735.1041,1,1,1.0000,-0.0000,1.42239,-0.01231,-2.63339,1.07495,1.57081,0.11674,-0.12761,-0.48154,0.03298,,,,,,,,,,,,,,,,,,,,,,,,,,0,0,0,0,0
5.6320,1783956735.1160,1,1,1.0000,-0.0000,1.42239,-0.01231,-2.63339,1.07495,1.57081,0.11674,-0.12761,-0.48154,0.03298,,,,,,,,,,,,,,,,,,,,,,,,,,0,0,0,0,0
5.6671,1783956735.1511,1,1,1.0000,-0.0000,1.42239,-0.01231,-2.63339,1.07495,1.57081,0.11674,-0.12761,-0.48154,0.03298,,,,,,,,,,,,,,,,,,,,,,,,,,0,0,0,0,0
5.6754,1783956735.1594,1,1,1.0000,-0.0000,1.42239,-0.01231,-2.63339,1.07495,1.57081,0.11674,-0.12761,-0.48154,0.03298,,,,,,,,,,,,,,,,,,,,,,,,,,0,0,0,0,0
5.7124,1783956735.1964,1,1,1.0000,-0.0000,1.42239,-0.01235,-2.63343,1.07501,1.57081,0.11674,-0.12761,-0.48151,0.03296,,,,,,,,,,,,,,,,,,,,,,,,,,0,0,0,0,0
5.7161,1783956735.2001,1,1,1.0000,-0.0000,1.42239,-0.01236,-2.63344,1.07503,1.57081,0.11674,-0.12761,-0.48151,0.03295,,,,,,,,,,,,,,,,,,,,,,,,,,0,0,0,0,0
5.7164,1783956735.2005,1,1,1.0000,-0.0000,1.42239,-0.01236,-2.63344,1.07503,1.57081,0.11674,-0.12761,-0.48151,0.03295,,,,,,,,,,,,,,,,,,,,,,,,,,0,0,0,0,0
5.7168,1783956735.2008,1,1,1.0000,-0.0000,1.42239,-0.01236,-2.63344,1.07503,1.57081,0.11674,-0.12761,-0.48151,0.03295,,,,,,,,,,,,,,,,,,,,,,,,,,0,0,0,0,0
5.7171,1783956735.2011,1,1,1.0000,-0.0000,1.42239,-0.01236,-2.63344,1.07503,1.57081,0.11674,-0.12761,-0.48151,0.03295,,,,,,,,,,,,,,,,,,,,,,,,,,0,0,0,0,0
5.7181,1783956735.2021,1,1,1.0000,-0.0000,1.42239,-0.01238,-2.63346,1.07505,1.57081,0.11674,-0.12761,-0.48150,0.03294,,,,,,,,,,,,,,,,,,,,,,,,,,0,0,0,0,0
5.7184,1783956735.2024,1,1,1.0000,-0.0000,1.42239,-0.01238,-2.63346,1.07505,1.57081,0.11674,-0.12761,-0.48150,0.03294,,,,,,,,,,,,,,,,,,,,,,,,,,0,0,0,0,0
5.7231,1783956735.2071,1,1,1.0000,-0.0000,1.42239,-0.01241,-2.63347,1.07507,1.57081,0.11674,-0.12761,-0.48149,0.03292,,,,,,,,,,,,,,,,,,,,,,,,,,0,0,0,0,0
5.7519,1783956735.2359,1,1,1.0000,-0.0000,1.42239,-0.01252,-2.63353,1.07520,1.57081,0.11674,-0.12762,-0.48147,0.03287,,,,,,,,,,,,,,,,,,,,,,,,,,0,0,0,0,0
5.7662,1783956735.2502,1,1,1.0000,-0.0000,1.42239,-0.01266,-2.63357,1.07538,1.57081,0.11674,-0.12762,-0.48146,0.03282,,,,,,,,,,,,,,,,,,,,,,,,,,0,0,0,0,0
5.7674,1783956735.2514,1,1,1.0000,-0.0000,1.42239,-0.01266,-2.63357,1.07538,1.57081,0.11674,-0.12762,-0.48146,0.03282,,,,,,,,,,,,,,,,,,,,,,,,,,0,0,0,0,0
5.7711,1783956735.2551,1,1,1.0000,-0.0000,1.42239,-0.01266,-2.63357,1.07538,1.57081,0.11674,-0.12762,-0.48146,0.03282,,,,,,,,,,,,,,,,,,,,,,,,,,0,0,0,0,0
5.7785,1783956735.2625,1,1,1.0000,-0.0000,1.42239,-0.01268,-2.63358,1.07540,1.57081,0.11674,-0.12762,-0.48146,0.03281,,,,,,,,,,,,,,,,,,,,,,,,,,0,0,0,0,0
5.7789,1783956735.2629,1,1,1.0000,-0.0000,1.42239,-0.01268,-2.63358,1.07540,1.57081,0.11674,-0.12762,-0.48146,0.03281,,,,,,,,,,,,,,,,,,,,,,,,,,0,0,0,0,0
5.7951,1783956735.2791,1,1,1.0000,-0.0000,1.42239,-0.01278,-2.63359,1.07552,1.57081,0.11674,-0.12762,-0.48146,0.03278,,,,,,,,,,,,,,,,,,,,,,,,,,0,0,0,0,0
5.8062,1783956735.2902,1,1,1.0000,-0.0000,1.42239,-0.01283,-2.63360,1.07558,1.57081,0.11674,-0.12762,-0.48146,0.03276,,,,,,,,,,,,,,,,,,,,,,,,,,0,0,0,0,0
5.8065,1783956735.2905,1,1,1.0000,-0.0000,1.42239,-0.01283,-2.63360,1.07558,1.57081,0.11674,-0.12762,-0.48146,0.03276,,,,,,,,,,,,,,,,,,,,,,,,,,0,0,0,0,0
5.8114,1783956735.2954,1,1,1.0000,-0.0000,1.42239,-0.01287,-2.63361,1.07563,1.57081,0.11674,-0.12762,-0.48146,0.03275,,,,,,,,,,,,,,,,,,,,,,,,,,0,0,0,0,0
5.8117,1783956735.2957,1,1,1.0000,-0.0000,1.42239,-0.01287,-2.63361,1.07563,1.57081,0.11674,-0.12762,-0.48146,0.03275,,,,,,,,,,,,,,,,,,,,,,,,,,0,0,0,0,0
5.8126,1783956735.2966,1,1,1.0000,-0.0000,1.42239,-0.01287,-2.63361,1.07563,1.57081,0.11674,-0.12762,-0.48146,0.03275,,,,,,,,,,,,,,,,,,,,,,,,,,0,0,0,0,0
5.8129,1783956735.2969,1,1,1.0000,-0.0000,1.42239,-0.01287,-2.63361,1.07563,1.57081,0.11674,-0.12762,-0.48146,0.03275,,,,,,,,,,,,,,,,,,,,,,,,,,0,0,0,0,0
5.8222,1783956735.3062,1,1,1.0000,-0.0000,1.42239,-0.01302,-2.63364,1.07581,1.57081,0.11674,-0.12762,-0.48146,0.03270,,,,,,,,,,,,,,,,,,,,,,,,,,0,0,0,0,0
