Martins-Lucaas/twinforge/sensors/Data/20260713_152423__samples.csv
t_rel_s,t_unix,cycle,phase,setpoint_n,force_net_n,q1,q2,q3,q4,q5,q6,tcp_x,tcp_y,tcp_z,taxel_0,taxel_1,taxel_2,taxel_3,taxel_4,taxel_5,taxel_6,taxel_7,taxel_8,taxel_9,taxel_10,taxel_11,taxel_12,taxel_13,taxel_14,taxel_15,taxel_16,taxel_17,taxel_18,taxel_19,taxel_20,taxel_21,taxel_22,taxel_23,taxel_24,n_RA,n_SA,cn_mm,cn_ra,cn_sa
0.0095,1783967063.5830,1,0,5.0000,-0.0000,1.42244,0.00071,-2.63045,1.05904,1.57084,0.11671,-0.12761,-0.48157,0.03741,,,,,,,,,,,,,,,,,,,,,,,,,,0,0,0,0,0
0.0178,1783967063.5913,1,0,5.0000,-0.0000,1.42244,0.00071,-2.63045,1.05904,1.57084,0.11671,-0.12761,-0.48157,0.03741,,,,,,,,,,,,,,,,,,,,,,,,,,0,0,0,0,0
0.0187,1783967063.5922,1,0,5.0000,-0.0000,1.42244,0.00071,-2.63045,1.05904,1.57084,0.11671,-0.12761,-0.48157,0.03741,,,,,,,,,,,,,,,,,,,,,,,,,,0,0,0,0,0
0.0307,1783967063.6041,1,0,5.0000,-0.0000,1.42244,0.00071,-2.63045,1.05904,1.57084,0.11671,-0.12761,-0.48157,0.03741,,,,,,,,,,,,,,,,,,,,,,,,,,0,0,0,0,0
0.0312,1783967063.6047,1,0,5.0000,-0.0000,1.42244,0.00071,-2.63045,1.05904,1.57084,0.11671,-0.12761,-0.48157,0.03741,,,,,,,,,,,,,,,,,,,,,,,,,,0,0,0,0,0
0.0418,1783967063.6153,1,0,5.0000,-0.0000,1.42244,0.00071,-2.63045,1.05904,1.57084,0.11671,-0.12761,-0.48157,0.03741,,,,,,,,,,,,,,,,,,,,,,,,,,0,0,0,0,0
0.0522,1783967063.6257,1,0,5.0000,-0.0000,1.42244,0.00071,-2.63046,1.05904,1.57084,0.11672,-0.12762,-0.48157,0.03741,,,,,,,,,,,,,,,,,,,,,,,,,,0,0,0,0,0
0.0525,1783967063.6259,1,0,5.0000,-0.0000,1.42244,0.00071,-2.63046,1.05904,1.57084,0.11672,-0.12762,-0.48157,0.03741,,,,,,,,,,,,,,,,,,,,,,,,,,0,0,0,0,0
0.0567,1783967063.6302,1,0,5.0000,-0.0000,1.42244,0.00071,-2.63046,1.05905,1.57083,0.11672,-0.12762,-0.48157,0.03741,,,,,,,,,,,,,,,,,,,,,,,,,,0,0,0,0,0
0.0570,1783967063.6304,1,0,5.0000,-0.0000,1.42244,0.00071,-2.63046,1.05905,1.57083,0.11672,-0.12762,-0.48157,0.03741,,,,,,,,,,,,,,,,,,,,,,,,,,0,0,0,0,0
0.0693,1783967063.6428,1,0,5.0000,-0.0000,1.42244,0.00071,-2.63049,1.05905,1.57082,0.11673,-0.12762,-0.48155,0.03740,,,,,,,,,,,,,,,,,,,,,,,,,,0,0,0,0,0
0.1413,1783967063.7148,1,0,5.0000,-0.0000,1.42244,0.00071,-2.63053,1.05907,1.57080,0.11675,-0.12764,-0.48152,0.03738,,,,,,,,,,,,,,,,,,,,,,,,,,0,0,0,0,0
0.1468,1783967063.7202,1,0,5.0000,-0.0000,1.42244,0.00071,-2.63053,1.05907,1.57080,0.11675,-0.12764,-0.48152,0.03738,,,,,,,,,,,,,,,,,,,,,,,,,,0,0,0,0,0
0.1537,1783967063.7271,1,0,5.0000,-0.0000,1.42244,0.00071,-2.63053,1.05907,1.57080,0.11675,-0.12764,-0.48152,0.03738,,,,,,,,,,,,,,,,,,,,,,,,,,0,0,0,0,0
0.1545,1783967063.7279,1,0,5.0000,-0.0000,1.42244,0.00071,-2.63053,1.05907,1.57080,0.11675,-0.12764,-0.48152,0.03738,,,,,,,,,,,,,,,,,,,,,,,,,,0,0,0,0,0
0.1546,1783967063.7281,1,0,5.0000,-0.0000,1.42244,0.00071,-2.63053,1.05907,1.57080,0.11675,-0.12764,-0.48152,0.03738,,,,,,,,,,,,,,,,,,,,,,,,,,0,0,0,0,0
0.1593,1783967063.7327,1,0,5.0000,-0.0000,1.42244,0.00071,-2.63053,1.05907,1.57080,0.11675,-0.12764,-0.48152,0.03738,,,,,,,,,,,,,,,,,,,,,,,,,,0,0,0,0,0
0.1683,1783967063.7417,1,0,5.0000,-0.0000,1.42244,0.00071,-2.63053,1.05907,1.57080,0.11675,-0.12764,-0.48152,0.03738,,,,,,,,,,,,,,,,,,,,,,,,,,0,0,0,0,0
0.1689,1783967063.7423,1,0,5.0000,-0.0000,1.42244,0.00071,-2.63053,1.05907,1.57080,0.11675,-0.12764,-0.48152,0.03738,,,,,,,,,,,,,,,,,,,,,,,,,,0,0,0,0,0
0.1692,1783967063.7426,1,0,5.0000,-0.0000,1.42244,0.00071,-2.63053,1.05907,1.57080,0.11675,-0.12764,-0.48152,0.03738,,,,,,,,,,,,,,,,,,,,,,,,,,0,0,0,0,0
0.1696,1783967063.7431,1,0,5.0000,-0.0000,1.42244,0.00071,-2.63053,1.05907,1.57080,0.11675,-0.12764,-0.48152,0.03738,,,,,,,,,,,,,,,,,,,,,,,,,,0,0,0,0,0
0.1700,1783967063.7434,1,0,5.0000,-0.0000,1.42244,0.00071,-2.63053,1.05907,1.57080,0.11675,-0.12764,-0.48152,0.03738,,,,,,,,,,,,,,,,,,,,,,,,,,0,0,0,0,0
0.1707,1783967063.7441,1,0,5.0000,-0.0000,1.42244,0.00071,-2.63053,1.05907,1.57080,0.11675,-0.12764,-0.48152,0.03738,,,,,,,,,,,,,,,,,,,,,,,,,,0,0,0,0,0
0.1709,1783967063.7443,1,0,5.0000,-0.0000,1.42244,0.00071,-2.63053,1.05907,1.57080,0.11675,-0.12764,-0.48152,0.03738,,,,,,,,,,,,,,,,,,,,,,,,,,0,0,0,0,0
0.1712,1783967063.7447,1,0,5.0000,-0.0000,1.42244,0.00071,-2.63053,1.05907,1.57080,0.11675,-0.12764,-0.48152,0.03738,,,,,,,,,,,,,,,,,,,,,,,,,,0,0,0,0,0
0.1813,1783967063.7547,1,0,5.0000,-0.0000,1.42244,0.00071,-2.63053,1.05907,1.57080,0.11675,-0.12764,-0.48152,0.03738,,,,,,,,,,,,,,,,,,,,,,,,,,0,0,0,0,0
0.1873,1783967063.7608,1,0,5.0000,-0.0000,1.42244,0.00071,-2.63053,1.05907,1.57080,0.11675,-0.12764,-0.48152,0.03738,,,,,,,,,,,,,,,,,,,,,,,,,,0,0,0,0,0
0.1876,1783967063.7610,1,0,5.0000,-0.0000,1.42244,0.00071,-2.63053,1.05907,1.57080,0.11675,-0.12764,-0.48152,0.03738,,,,,,,,,,,,,,,,,,,,,,,,,,0,0,0,0,0
0.1988,1783967063.7722,1,0,5.0000,-0.0000,1.42244,0.00071,-2.63053,1.05907,1.57080,0.11675,-0.12764,-0.48152,0.03738,,,,,,,,,,,,,,,,,,,,,,,,,,0,0,0,0,0
0.2077,1783967063.7811,1,0,5.0000,-0.0000,1.42244,0.00071,-2.63053,1.05907,1.57080,0.11675,-0.12764,-0.48152,0.03738,,,,,,,,,,,,,,,,,,,,,,,,,,0,0,0,0,0
0.2080,1783967063.7815,1,0,5.0000,-0.0000,1.42244,0.00071,-2.63053,1.05907,1.57080,0.11675,-0.12764,-0.48152,0.03738,,,,,,,,,,,,,,,,,,,,,,,,,,0,0,0,0,0
0.2167,1783967063.7902,1,0,5.0000,-0.0000,1.42244,0.00071,-2.63053,1.05907,1.57080,0.11675,-0.12764,-0.48152,0.03738,,,,,,,,,,,,,,,,,,,,,,,,,,0,0,0,0,0
0.2171,1783967063.7905,1,0,5.0000,-0.0000,1.42244,0.00071,-2.63053,1.05907,1.57080,0.11675,-0.12764,-0.48152,0.03738,,,,,,,,,,,,,,,,,,,,,,,,,,0,0,0,0,0
0.2307,1783967063.8042,1,0,5.0000,-0.0000,1.42244,0.00071,-2.63053,1.05907,1.57080,0.11675,-0.12764,-0.48152,0.03738,,,,,,,,,,,,,,,,,,,,,,,,,,0,0,0,0,0
0.2419,1783967063.8153,1,0,5.0000,-0.0000,1.42244,0.00071,-2.63053,1.05907,1.57080,0.11675,-0.12764,-0.48152,0.03738,,,,,,,,,,,,,,,,,,,,,,,,,,0,0,0,0,0
0.2475,1783967063.8209,1,0,5.0000,-0.0000,1.42244,0.00071,-2.63053,1.05907,1.57080,0.11675,-0.12764,-0.48152,0.03738,,,,,,,,,,,,,,,,,,,,,,,,,,0,0,0,0,0
0.2627,1783967063.8362,1,0,5.0000,-0.0000,1.42244,0.00071,-2.63053,1.05907,1.57080,0.11675,-0.12764,-0.48152,0.03738,,,,,,,,,,,,,,,,,,,,,,,,,,0,0,0,0,0
0.2730,1783967063.8464,1,0,5.0000,-0.0000,1.42244,0.00071,-2.63053,1.05907,1.57080,0.11675,-0.12764,-0.48152,0.03738,,,,,,,,,,,,,,,,,,,,,,,,,,0,0,0,0,0
0.2787,1783967063.8522,1,0,5.0000,-0.0000,1.42244,0.00071,-2.63053,1.05907,1.57080,0.11675,-0.12764,-0.48152,0.03738,,,,,,,,,,,,,,,,,,,,,,,,,,0,0,0,0,0
0.2868,1783967063.8602,1,0,5.0000,-0.0000,1.42244,0.00071,-2.63053,1.05907,1.57080,0.11675,-0.12764,-0.48152,0.03738,,,,,,,,,,,,,,,,,,,,,,,,,,0,0,0,0,0
0.2992,1783967063.8726,1,0,5.0000,-0.0000,1.42244,0.00071,-2.63053,1.05907,1.57080,0.11675,-0.12764,-0.48152,0.03738,,,,,,,,,,,,,,,,,,,,,,,,,,0,0,0,0,0
0.3080,1783967063.8814,1,0,5.0000,-0.0000,1.42244,0.00071,-2.63053,1.05907,1.57080,0.11675,-0.12764,-0.48152,0.03738,,,,,,,,,,,,,,,,,,,,,,,,,,0,0,0,0,0
0.3210,1783967063.8945,1,0,5.0000,-0.0000,1.42244,0.00071,-2.63053,1.05907,1.57080,0.11675,-0.12764,-0.48152,0.03738,,,,,,,,,,,,,,,,,,,,,,,,,,0,0,0,0,0
0.3316,1783967063.9050,1,0,5.0000,-0.0000,1.42244,0.00071,-2.63053,1.05907,1.57080,0.11675,-0.12764,-0.48152,0.03738,,,,,,,,,,,,,,,,,,,,,,,,,,0,0,0,0,0
0.3374,1783967063.9108,1,0,5.0000,-0.0000,1.42244,0.00071,-2.63053,1.05907,1.57080,0.11675,-0.12764,-0.48152,0.03738,,,,,,,,,,,,,,,,,,,,,,,,,,0,0,0,0,0
0.3380,1783967063.9114,1,0,5.0000,-0.0000,1.42244,0.00071,-2.63053,1.05907,1.57080,0.11675,-0.12764,-0.48152,0.03738,,,,,,,,,,,,,,,,,,,,,,,,,,0,0,0,0,0
0.3598,1783967063.9333,1,0,5.0000,-0.0000,1.42244,0.00071,-2.63053,1.05907,1.57080,0.11675,-0.12764,-0.48152,0.03738,,,,,,,,,,,,,,,,,,,,,,,,,,0,0,0,0,0
0.3601,1783967063.9335,1,0,5.0000,-0.0000,1.42244,0.00071,-2.63053,1.05907,1.57080,0.11675,-0.12764,-0.48152,0.03738,,,,,,,,,,,,,,,,,,,,,,,,,,0,0,0,0,0
0.3710,1783967063.9444,1,0,5.0000,-0.0000,1.42244,0.00071,-2.63053,1.05907,1.57080,0.11675,-0.12764,-0.48152,0.03738,,,,,,,,,,,,,,,,,,,,,,,,,,0,0,0,0,0
0.3810,1783967063.9545,1,0,5.0000,-0.0000,1.42244,0.00071,-2.63053,1.05907,1.57080,0.11675,-0.12764,-0.48152,0.03738,,,,,,,,,,,,,,,,,,,,,,,,,,0,0,0,0,0
0.3815,1783967063.9549,1,0,5.0000,-0.0000,1.42244,0.00071,-2.63053,1.05907,1.57080,0.11675,-0.12764,-0.48152,0.03738,,,,,,,,,,,,,,,,,,,,,,,,,,0,0,0,0,0
0.3868,1783967063.9602,1,0,5.0000,-0.0000,1.42244,0.00071,-2.63053,1.05907,1.57080,0.11675,-0.12764,-0.48152,0.03738,,,,,,,,,,,,,,,,,,,,,,,,,,0,0,0,0,0
0.4006,1783967063.9741,1,0,5.0000,-0.0000,1.42244,0.00071,-2.63053,1.05907,1.57080,0.11675,-0.12764,-0.48152,0.03738,,,,,,,,,,,,,,,,,,,,,,,,,,0,0,0,0,0
0.4108,1783967063.9843,1,0,5.0000,-0.0000,1.42244,0.00071,-2.63053,1.05907,1.57080,0.11675,-0.12764,-0.48152,0.03738,,,,,,,,,,,,,,,,,,,,,,,,,,0,0,0,0,0
0.4213,1783967063.9948,1,0,5.0000,-0.0000,1.42244,0.00071,-2.63053,1.05907,1.57080,0.11675,-0.12764,-0.48152,0.03738,,,,,,,,,,,,,,,,,,,,,,,,,,0,0,0,0,0
0.4341,1783967064.0076,1,0,5.0000,-0.0000,1.42244,0.00071,-2.63053,1.05907,1.57080,0.11675,-0.12764,-0.48152,0.03738,,,,,,,,,,,,,,,,,,,,,,,,,,0,0,0,0,0
0.4396,1783967064.0130,1,0,5.0000,-0.0000,1.42244,0.00071,-2.63053,1.05907,1.57080,0.11675,-0.12764,-0.48152,0.03738,,,,,,,,,,,,,,,,,,,,,,,,,,0,0,0,0,0
0.4398,1783967064.0132,1,0,5.0000,-0.0000,1.42244,0.00071,-2.63053,1.05907,1.57080,0.11675,-0.12764,-0.48152,0.03738,,,,,,,,,,,,,,,,,,,,,,,,,,0,0,0,0,0
0.4467,1783967064.0201,1,0,5.0000,-0.0000,1.42244,0.00071,-2.63053,1.05907,1.57080,0.11675,-0.12764,-0.48152,0.03738,,,,,,,,,,,,,,,,,,,,,,,,,,0,0,0,0,0
0.4609,1783967064.0343,1,0,5.0000,-0.0000,1.42244,0.00071,-2.63053,1.05907,1.57080,0.11675,-0.12764,-0.48152,0.03738,,,,,,,,,,,,,,,,,,,,,,,,,,0,0,0,0,0
0.4734,1783967064.0469,1,0,5.0000,-0.0000,1.42244,0.00071,-2.63053,1.05907,1.57080,0.11675,-0.12764,-0.48152,0.03738,,,,,,,,,,,,,,,,,,,,,,,,,,0,0,0,0,0
0.4775,1783967064.0509,1,0,5.0000,-0.0000,1.42244,0.00071,-2.63053,1.05907,1.57080,0.11675,-0.12764,-0.48152,0.03738,,,,,,,,,,,,,,,,,,,,,,,,,,0,0,0,0,0
0.4778,1783967064.0512,1,0,5.0000,-0.0000,1.42244,0.00071,-2.63053,1.05907,1.57080,0.11675,-0.12764,-0.48152,0.03738,,,,,,,,,,,,,,,,,,,,,,,,,,0,0,0,0,0
0.4874,1783967064.0608,1,0,5.0000,-0.0000,1.42244,0.00071,-2.63053,1.05907,1.57080,0.11675,-0.12764,-0.48152,0.03738,,,,,,,,,,,,,,,,,,,,,,,,,,0,0,0,0,0
0.4982,1783967064.0716,1,0,5.0000,-0.0000,1.42244,0.00071,-2.63053,1.05907,1.57080,0.11675,-0.12764,-0.48152,0.03738,,,,,,,,,,,,,,,,,,,,,,,,,,0,0,0,0,0
0.5294,1783967064.1029,1,0,5.0000,-0.0000,1.42244,0.00071,-2.63053,1.05907,1.57080,0.11675,-0.12764,-0.48152,0.03738,,,,,,,,,,,,,,,,,,,,,,,,,,0,0,0,0,0
0.5299,1783967064.1033,1,0,5.0000,-0.0000,1.42244,0.00071,-2.63053,1.05907,1.57080,0.11675,-0.12764,-0.48152,0.03738,,,,,,,,,,,,,,,,,,,,,,,,,,0,0,0,0,0
0.5302,1783967064.1037,1,0,5.0000,-0.0000,1.42244,0.00071,-2.63053,1.05907,1.57080,0.11675,-0.12764,-0.48152,0.03738,,,,,,,,,,,,,,,,,,,,,,,,,,0,0,0,0,0
0.5307,1783967064.1041,1,0,5.0000,-0.0000,1.42244,0.00071,-2.63053,1.05907,1.57080,0.11675,-0.12764,-0.48152,0.03738,,,,,,,,,,,,,,,,,,,,,,,,,,0,0,0,0,0
0.5310,1783967064.1044,1,0,5.0000,-0.0000,1.42244,0.00071,-2.63053,1.05907,1.57080,0.11675,-0.12764,-0.48152,0.03738,,,,,,,,,,,,,,,,,,,,,,,,,,0,0,0,0,0
0.5388,1783967064.1122,1,0,5.0000,-0.0000,1.42244,0.00071,-2.63053,1.05907,1.57080,0.11675,-0.12764,-0.48152,0.03738,,,,,,,,,,,,,,,,,,,,,,,,,,0,0,0,0,0
0.5391,1783967064.1126,1,0,5.0000,-0.0000,1.42244,0.00071,-2.63053,1.05907,1.57080,0.11675,-0.12764,-0.48152,0.03738,,,,,,,,,,,,,,,,,,,,,,,,,,0,0,0,0,0
0.5468,1783967064.1202,1,0,5.0000,-0.0000,1.42244,0.00071,-2.63053,1.05907,1.57080,0.11675,-0.12764,-0.48152,0.03738,,,,,,,,,,,,,,,,,,,,,,,,,,0,0,0,0,0
0.5649,1783967064.1384,1,0,5.0000,-0.0000,1.42244,0.00071,-2.63053,1.05907,1.57080,0.11675,-0.12764,-0.48152,0.03738,,,,,,,,,,,,,,,,,,,,,,,,,,0,0,0,0,0
0.5684,1783967064.1418,1,0,5.0000,-0.0000,1.42244,0.00071,-2.63053,1.05907,1.57080,0.11675,-0.12764,-0.48152,0.03738,,,,,,,,,,,,,,,,,,,,,,,,,,0,0,0,0,0
0.5767,1783967064.1501,1,0,5.0000,-0.0000,1.42244,0.00071,-2.63053,1.05907,1.57080,0.11675,-0.12764,-0.48152,0.03738,,,,,,,,,,,,,,,,,,,,,,,,,,0,0,0,0,0
0.5894,1783967064.1628,1,0,5.0000,-0.0000,1.42244,0.00071,-2.63053,1.05907,1.57080,0.11675,-0.12764,-0.48152,0.03738,,,,,,,,,,,,,,,,,,,,,,,,,,0,0,0,0,0
0.6070,1783967064.1805,1,0,5.0000,-0.0000,1.42244,0.00071,-2.63053,1.05907,1.57080,0.11675,-0.12764,-0.48152,0.03738,,,,,,,,,,,,,,,,,,,,,,,,,,0,0,0,0,0
0.6073,1783967064.1808,1,0,5.0000,-0.0000,1.42244,0.00071,-2.63053,1.05907,1.57080,0.11675,-0.12764,-0.48152,0.03738,,,,,,,,,,,,,,,,,,,,,,,,,,0,0,0,0,0
0.6188,1783967064.1923,1,0,5.0000,-0.0000,1.42244,0.00071,-2.63053,1.05907,1.57080,0.11675,-0.12764,-0.48152,0.03738,,,,,,,,,,,,,,,,,,,,,,,,,,0,0,0,0,0
0.6314,1783967064.2049,1,0,5.0000,-0.0000,1.42244,0.00071,-2.63053,1.05907,1.57080,0.11675,-0.12764,-0.48152,0.03738,,,,,,,,,,,,,,,,,,,,,,,,,,0,0,0,0,0
0.6318,1783967064.2052,1,0,5.0000,-0.0000,1.42244,0.00071,-2.63053,1.05907,1.57080,0.11675,-0.12764,-0.48152,0.03738,,,,,,,,,,,,,,,,,,,,,,,,,,0,0,0,0,0
0.6388,1783967064.2123,1,0,5.0000,-0.0000,1.42244,0.00071,-2.63053,1.05907,1.57080,0.11675,-0.12764,-0.48152,0.03738,,,,,,,,,,,,,,,,,,,,,,,,,,0,0,0,0,0
0.6391,1783967064.2125,1,0,5.0000,-0.0000,1.42244,0.00071,-2.63053,1.05907,1.57080,0.11675,-0.12764,-0.48152,0.03738,,,,,,,,,,,,,,,,,,,,,,,,,,0,0,0,0,0
0.6480,1783967064.2215,1,0,5.0000,-0.0000,1.42244,0.00071,-2.63053,1.05907,1.57080,0.11675,-0.12764,-0.48152,0.03738,,,,,,,,,,,,,,,,,,,,,,,,,,0,0,0,0,0
0.6569,1783967064.2304,1,0,5.0000,-0.0000,1.42244,0.00071,-2.63053,1.05907,1.57080,0.11675,-0.12764,-0.48152,0.03738,,,,,,,,,,,,,,,,,,,,,,,,,,0,0,0,0,0
0.6573,1783967064.2307,1,0,5.0000,-0.0000,1.42244,0.00071,-2.63053,1.05907,1.57080,0.11675,-0.12764,-0.48152,0.03738,,,,,,,,,,,,,,,,,,,,,,,,,,0,0,0,0,0
0.6667,1783967064.2401,1,0,5.0000,-0.0000,1.42244,0.00071,-2.63053,1.05907,1.57080,0.11675,-0.12764,-0.48152,0.03738,,,,,,,,,,,,,,,,,,,,,,,,,,0,0,0,0,0
0.6670,1783967064.2405,1,0,5.0000,-0.0000,1.42244,0.00071,-2.63053,1.05907,1.57080,0.11675,-0.12764,-0.48152,0.03738,,,,,,,,,,,,,,,,,,,,,,,,,,0,0,0,0,0
0.6828,1783967064.2562,1,0,5.0000,-0.0000,1.42244,0.00071,-2.63053,1.05907,1.57080,0.11675,-0.12764,-0.48152,0.03738,,,,,,,,,,,,,,,,,,,,,,,,,,0,0,0,0,0
0.6831,1783967064.2565,1,0,5.0000,-0.0000,1.42244,0.00071,-2.63053,1.05907,1.57080,0.11675,-0.12764,-0.48152,0.03738,,,,,,,,,,,,,,,,,,,,,,,,,,0,0,0,0,0
0.6891,1783967064.2626,1,0,5.0000,-0.0000,1.42244,0.00071,-2.63053,1.05907,1.57080,0.11675,-0.12764,-0.48152,0.03738,,,,,,,,,,,,,,,,,,,,,,,,,,0,0,0,0,0
0.6894,1783967064.2629,1,0,5.0000,-0.0000,1.42244,0.00071,-2.63053,1.05907,1.57080,0.11675,-0.12764,-0.48152,0.03738,,,,,,,,,,,,,,,,,,,,,,,,,,0,0,0,0,0
0.7015,1783967064.2749,1,0,5.0000,-0.0000,1.42244,0.00071,-2.63053,1.05907,1.57080,0.11675,-0.12764,-0.48152,0.03738,,,,,,,,,,,,,,,,,,,,,,,,,,0,0,0,0,0
0.7109,1783967064.2843,1,0,5.0000,-0.0000,1.42244,0.00071,-2.63053,1.05907,1.57080,0.11675,-0.12764,-0.48152,0.03738,,,,,,,,,,,,,,,,,,,,,,,,,,0,0,0,0,0
0.7111,1783967064.2845,1,0,5.0000,-0.0000,1.42244,0.00071,-2.63053,1.05907,1.57080,0.11675,-0.12764,-0.48152,0.03738,,,,,,,,,,,,,,,,,,,,,,,,,,0,0,0,0,0
0.7191,1783967064.2926,1,0,5.0000,-0.0000,1.42244,0.00071,-2.63053,1.05907,1.57080,0.11675,-0.12764,-0.48152,0.03738,,,,,,,,,,,,,,,,,,,,,,,,,,0,0,0,0,0
0.7296,1783967064.3031,1,1,5.0000,-0.0000,1.42244,0.00071,-2.63053,1.05907,1.57080,0.11675,-0.12764,-0.48152,0.03738,,,,,,,,,,,,,,,,,,,,,,,,,,0,0,0,0,0
0.7435,1783967064.3169,1,1,5.0000,-0.0000,1.42244,0.00071,-2.63053,1.05907,1.57080,0.11675,-0.12764,-0.48152,0.03738,,,,,,,,,,,,,,,,,,,,,,,,,,0,0,0,0,0
0.7440,1783967064.3174,1,1,5.0000,-0.0000,1.42244,0.00071,-2.63053,1.05907,1.57080,0.11675,-0.12764,-0.48152,0.03738,,,,,,,,,,,,,,,,,,,,,,,,,,0,0,0,0,0
0.7513,1783967064.3247,1,1,5.0000,-0.0000,1.42244,0.00071,-2.63053,1.05907,1.57080,0.11675,-0.12764,-0.48152,0.03738,,,,,,,,,,,,,,,,,,,,,,,,,,0,0,0,0,0
0.7517,1783967064.3251,1,1,5.0000,-0.0000,1.42244,0.00071,-2.63053,1.05907,1.57080,0.11675,-0.12764,-0.48152,0.03738,,,,,,,,,,,,,,,,,,,,,,,,,,0,0,0,0,0
0.7698,1783967064.3432,1,1,5.0000,-0.0000,1.42244,0.00071,-2.63053,1.05907,1.57080,0.11675,-0.12764,-0.48152,0.03738,,,,,,,,,,,,,,,,,,,,,,,,,,0,0,0,0,0
0.7701,1783967064.3436,1,1,5.0000,-0.0000,1.42244,0.00071,-2.63053,1.05907,1.57080,0.11675,-0.12764,-0.48152,0.03738,,,,,,,,,,,,,,,,,,,,,,,,,,0,0,0,0,0
0.7707,1783967064.3441,1,1,5.0000,-0.0000,1.42244,0.00071,-2.63053,1.05907,1.57080,0.11675,-0.12764,-0.48152,0.03738,,,,,,,,,,,,,,,,,,,,,,,,,,0,0,0,0,0
0.7815,1783967064.3549,1,1,5.0000,-0.0000,1.42244,0.00071,-2.63053,1.05907,1.57080,0.11675,-0.12764,-0.48152,0.03738,,,,,,,,,,,,,,,,,,,,,,,,,,0,0,0,0,0
0.7819,1783967064.3554,1,1,5.0000,-0.0000,1.42244,0.00071,-2.63053,1.05907,1.57080,0.11675,-0.12764,-0.48152,0.03738,,,,,,,,,,,,,,,,,,,,,,,,,,0,0,0,0,0
0.8029,1783967064.3763,1,1,5.0000,-0.0000,1.42244,0.00071,-2.63053,1.05907,1.57080,0.11675,-0.12764,-0.48152,0.03738,,,,,,,,,,,,,,,,,,,,,,,,,,0,0,0,0,0
0.8038,1783967064.3773,1,1,5.0000,-0.0000,1.42244,0.00071,-2.63053,1.05907,1.57080,0.11675,-0.12764,-0.48152,0.03738,,,,,,,,,,,,,,,,,,,,,,,,,,0,0,0,0,0
0.8139,1783967064.3873,1,1,5.0000,-0.0000,1.42244,0.00071,-2.63053,1.05907,1.57080,0.11675,-0.12764,-0.48152,0.03738,,,,,,,,,,,,,,,,,,,,,,,,,,0,0,0,0,0
0.8166,1783967064.3900,1,1,5.0000,-0.0000,1.42244,0.00071,-2.63053,1.05907,1.57080,0.11675,-0.12764,-0.48152,0.03738,,,,,,,,,,,,,,,,,,,,,,,,,,0,0,0,0,0
0.8309,1783967064.4043,1,1,5.0000,-0.0000,1.42244,0.00071,-2.63053,1.05907,1.57080,0.11675,-0.12764,-0.48152,0.03738,,,,,,,,,,,,,,,,,,,,,,,,,,0,0,0,0,0
0.8737,1783967064.4471,1,1,5.0000,-0.0000,1.42244,0.00071,-2.63053,1.05907,1.57080,0.11675,-0.12764,-0.48152,0.03738,,,,,,,,,,,,,,,,,,,,,,,,,,0,0,0,0,0
0.9029,1783967064.4764,1,1,5.0000,-0.0000,1.42244,0.00071,-2.63053,1.05907,1.57080,0.11675,-0.12764,-0.48152,0.03738,,,,,,,,,,,,,,,,,,,,,,,,,,0,0,0,0,0
0.9131,1783967064.4865,1,1,5.0000,-0.0000,1.42244,0.00071,-2.63053,1.05907,1.57080,0.11675,-0.12764,-0.48152,0.03738,,,,,,,,,,,,,,,,,,,,,,,,,,0,0,0,0,0
0.9147,1783967064.4882,1,1,5.0000,-0.0000,1.42244,0.00071,-2.63053,1.05907,1.57080,0.11675,-0.12764,-0.48152,0.03738,,,,,,,,,,,,,,,,,,,,,,,,,,0,0,0,0,0
0.9152,1783967064.4886,1,1,5.0000,-0.0000,1.42244,0.00071,-2.63053,1.05907,1.57080,0.11675,-0.12764,-0.48152,0.03738,,,,,,,,,,,,,,,,,,,,,,,,,,0,0,0,0,0
0.9157,1783967064.4891,1,1,5.0000,-0.0000,1.42244,0.00071,-2.63053,1.05907,1.57080,0.11675,-0.12764,-0.48152,0.03738,,,,,,,,,,,,,,,,,,,,,,,,,,0,0,0,0,0
0.9161,1783967064.4895,1,1,5.0000,-0.0000,1.42244,0.00071,-2.63053,1.05907,1.57080,0.11675,-0.12764,-0.48152,0.03738,,,,,,,,,,,,,,,,,,,,,,,,,,0,0,0,0,0
0.9189,1783967064.4923,1,1,5.0000,-0.0000,1.42244,0.00071,-2.63053,1.05907,1.57080,0.11675,-0.12764,-0.48152,0.03738,,,,,,,,,,,,,,,,,,,,,,,,,,0,0,0,0,0
0.9242,1783967064.4976,1,1,5.0000,-0.0000,1.42244,0.00071,-2.63053,1.05907,1.57080,0.11675,-0.12764,-0.48152,0.03738,,,,,,,,,,,,,,,,,,,,,,,,,,0,0,0,0,0
0.9245,1783967064.4979,1,1,5.0000,-0.0000,1.42244,0.00071,-2.63053,1.05907,1.57080,0.11675,-0.12764,-0.48152,0.03738,,,,,,,,,,,,,,,,,,,,,,,,,,0,0,0,0,0
0.9270,1783967064.5004,1,1,5.0000,-0.0000,1.42244,0.00071,-2.63053,1.05907,1.57080,0.11675,-0.12764,-0.48152,0.03738,,,,,,,,,,,,,,,,,,,,,,,,,,0,0,0,0,0
0.9649,1783967064.5383,1,1,5.0000,-0.0000,1.42244,0.00071,-2.63053,1.05907,1.57080,0.11675,-0.12764,-0.48152,0.03738,,,,,,,,,,,,,,,,,,,,,,,,,,0,0,0,0,0
0.9740,1783967064.5475,1,1,5.0000,-0.0000,1.42244,0.00071,-2.63053,1.05907,1.57080,0.11675,-0.12764,-0.48152,0.03738,,,,,,,,,,,,,,,,,,,,,,,,,,0,0,0,0,0
0.9746,1783967064.5481,1,1,5.0000,-0.0000,1.42244,0.00071,-2.63053,1.05907,1.57080,0.11675,-0.12764,-0.48152,0.03738,,,,,,,,,,,,,,,,,,,,,,,,,,0,0,0,0,0
0.9749,1783967064.5483,1,1,5.0000,-0.0000,1.42244,0.00071,-2.63053,1.05907,1.57080,0.11675,-0.12764,-0.48152,0.03738,,,,,,,,,,,,,,,,,,,,,,,,,,0,0,0,0,0
0.9858,1783967064.5592,1,1,5.0000,-0.0000,1.42244,0.00071,-2.63053,1.05907,1.57080,0.11675,-0.12764,-0.48152,0.03738,,,,,,,,,,,,,,,,,,,,,,,,,,0,0,0,0,0
1.0001,1783967064.5735,1,1,5.0000,-0.0000,1.42244,0.00071,-2.63053,1.05907,1.57080,0.11675,-0.12764,-0.48152,0.03738,,,,,,,,,,,,,,,,,,,,,,,,,,0,0,0,0,0
1.0013,1783967064.5747,1,1,5.0000,-0.0000,1.42244,0.00071,-2.63053,1.05907,1.57080,0.11675,-0.12764,-0.48152,0.03738,,,,,,,,,,,,,,,,,,,,,,,,,,0,0,0,0,0
1.0029,1783967064.5764,1,1,5.0000,-0.0000,1.42244,0.00071,-2.63053,1.05907,1.57080,0.11675,-0.12764,-0.48152,0.03738,,,,,,,,,,,,,,,,,,,,,,,,,,0,0,0,0,0
1.0033,1783967064.5767,1,1,5.0000,-0.0000,1.42244,0.00071,-2.63053,1.05907,1.57080,0.11675,-0.12764,-0.48152,0.03738,,,,,,,,,,,,,,,,,,,,,,,,,,0,0,0,0,0
1.0091,1783967064.5826,1,1,5.0000,-0.0000,1.42244,0.00071,-2.63054,1.05907,1.57080,0.11675,-0.12764,-0.48152,0.03738,,,,,,,,,,,,,,,,,,,,,,,,,,0,0,0,0,0
1.0095,1783967064.5829,1,1,5.0000,-0.0000,1.42244,0.00071,-2.63054,1.05907,1.57080,0.11675,-0.12764,-0.48152,0.03738,,,,,,,,,,,,,,,,,,,,,,,,,,0,0,0,0,0
1.0196,1783967064.5930,1,1,5.0000,-0.0000,1.42244,0.00071,-2.63054,1.05907,1.57080,0.11675,-0.12764,-0.48151,0.03737,,,,,,,,,,,,,,,,,,,,,,,,,,0,0,0,0,0
1.0198,1783967064.5933,1,1,5.0000,-0.0000,1.42244,0.00071,-2.63054,1.05907,1.57080,0.11675,-0.12764,-0.48151,0.03737,,,,,,,,,,,,,,,,,,,,,,,,,,0,0,0,0,0
1.0269,1783967064.6003,1,1,5.0000,-0.0000,1.42244,0.00070,-2.63055,1.05907,1.57080,0.11675,-0.12764,-0.48151,0.03737,,,,,,,,,,,,,,,,,,,,,,,,,,0,0,0,0,0
1.0272,1783967064.6006,1,1,5.0000,-0.0000,1.42244,0.00070,-2.63055,1.05907,1.57080,0.11675,-0.12764,-0.48151,0.03737,,,,,,,,,,,,,,,,,,,,,,,,,,0,0,0,0,0
1.0406,1783967064.6140,1,1,5.0000,-0.0000,1.42244,0.00069,-2.63057,1.05908,1.57080,0.11675,-0.12764,-0.48149,0.03735,,,,,,,,,,,,,,,,,,,,,,,,,,0,0,0,0,0
1.0410,1783967064.6144,1,1,5.0000,-0.0000,1.42244,0.00069,-2.63057,1.05908,1.57080,0.11675,-0.12764,-0.48149,0.03735,,,,,,,,,,,,,,,,,,,,,,,,,,0,0,0,0,0
1.0578,1783967064.6312,1,1,5.0000,-0.0000,1.42244,0.00065,-2.63061,1.05909,1.57080,0.11675,-0.12764,-0.48146,0.03732,,,,,,,,,,,,,,,,,,,,,,,,,,0,0,0,0,0
1.0582,1783967064.6316,1,1,5.0000,-0.0000,1.42244,0.00065,-2.63061,1.05909,1.57080,0.11675,-0.12764,-0.48146,0.03732,,,,,,,,,,,,,,,,,,,,,,,,,,0,0,0,0,0
1.0769,1783967064.6503,1,1,5.0000,-0.0000,1.42244,0.00060,-2.63064,1.05912,1.57080,0.11675,-0.12765,-0.48144,0.03729,,,,,,,,,,,,,,,,,,,,,,,,,,0,0,0,0,0
1.0776,1783967064.6510,1,1,5.0000,-0.0000,1.42244,0.00060,-2.63064,1.05912,1.57080,0.11675,-0.12765,-0.48144,0.03729,,,,,,,,,,,,,,,,,,,,,,,,,,0,0,0,0,0
1.0780,1783967064.6514,1,1,5.0000,-0.0000,1.42244,0.00060,-2.63064,1.05912,1.57080,0.11675,-0.12765,-0.48144,0.03729,,,,,,,,,,,,,,,,,,,,,,,,,,0,0,0,0,0
1.0798,1783967064.6532,1,1,5.0000,-0.0000,1.42244,0.00058,-2.63066,1.05913,1.57080,0.11675,-0.12765,-0.48143,0.03728,,,,,,,,,,,,,,,,,,,,,,,,,,0,0,0,0,0
1.0886,1783967064.6620,1,1,5.0000,-0.0000,1.42244,0.00056,-2.63067,1.05915,1.57080,0.11675,-0.12765,-0.48142,0.03726,,,,,,,,,,,,,,,,,,,,,,,,,,0,0,0,0,0
1.1028,1783967064.6763,1,1,5.0000,-0.0000,1.42244,0.00051,-2.63069,1.05920,1.57080,0.11675,-0.12765,-0.48141,0.03724,,,,,,,,,,,,,,,,,,,,,,,,,,0,0,0,0,0
1.1108,1783967064.6843,1,1,5.0000,-0.0000,1.42244,0.00048,-2.63069,1.05923,1.57080,0.11675,-0.12765,-0.48141,0.03723,,,,,,,,,,,,,,,,,,,,,,,,,,0,0,0,0,0
1.1191,1783967064.6925,1,1,5.0000,-0.0000,1.42244,0.00046,-2.63070,1.05925,1.57080,0.11675,-0.12765,-0.48141,0.03722,,,,,,,,,,,,,,,,,,,,,,,,,,0,0,0,0,0
1.1382,1783967064.7117,1,1,5.0000,-0.0000,1.42244,0.00030,-2.63073,1.05944,1.57080,0.11675,-0.12765,-0.48141,0.03717,,,,,,,,,,,,,,,,,,,,,,,,,,0,0,0,0,0
1.2077,1783967064.7811,1,1,5.0000,-0.0000,1.42244,-0.00020,-2.63080,1.06006,1.57080,0.11675,-0.12765,-0.48144,0.03702,,,,,,,,,,,,,,,,,,,,,,,,,,0,0,0,0,0
1.2350,1783967064.8084,1,1,5.0000,-0.0000,1.42244,-0.00046,-2.63081,1.06041,1.57080,0.11675,-0.12764,-0.48149,0.03696,,,,,,,,,,,,,,,,,,,,,,,,,,0,0,0,0,0
1.2393,1783967064.8128,1,1,5.0000,-0.0000,1.42244,-0.00046,-2.63081,1.06041,1.57080,0.11675,-0.12764,-0.48149,0.03696,,,,,,,,,,,,,,,,,,,,,,,,,,0,0,0,0,0
1.2433,1783967064.8167,1,1,5.0000,-0.0000,1.42244,-0.00046,-2.63081,1.06041,1.57080,0.11675,-0.12764,-0.48149,0.03696,,,,,,,,,,,,,,,,,,,,,,,,,,0,0,0,0,0
1.2548,1783967064.8283,1,1,5.0000,-0.0000,1.42244,-0.00046,-2.63081,1.06041,1.57080,0.11675,-0.12764,-0.48149,0.03696,,,,,,,,,,,,,,,,,,,,,,,,,,0,0,0,0,0
1.2733,1783967064.8468,1,1,5.0000,-0.0000,1.42244,-0.00046,-2.63081,1.06041,1.57080,0.11675,-0.12764,-0.48149,0.03696,,,,,,,,,,,,,,,,,,,,,,,,,,0,0,0,0,0
1.2800,1783967064.8534,1,1,5.0000,-0.0000,1.42244,-0.00046,-2.63081,1.06041,1.57080,0.11675,-0.12764,-0.48149,0.03696,,,,,,,,,,,,,,,,,,,,,,,,,,0,0,0,0,0
1.2803,1783967064.8538,1,1,5.0000,-0.0000,1.42244,-0.00046,-2.63081,1.06041,1.57080,0.11675,-0.12764,-0.48149,0.03696,,,,,,,,,,,,,,,,,,,,,,,,,,0,0,0,0,0
1.2810,1783967064.8545,1,1,5.0000,-0.0000,1.42244,-0.00046,-2.63081,1.06041,1.57080,0.11675,-0.12764,-0.48149,0.03696,,,,,,,,,,,,,,,,,,,,,,,,,,0,0,0,0,0
1.2813,1783967064.8547,1,1,5.0000,-0.0000,1.42244,-0.00046,-2.63081,1.06041,1.57080,0.11675,-0.12764,-0.48149,0.03696,,,,,,,,,,,,,,,,,,,,,,,,,,0,0,0,0,0
1.2843,1783967064.8577,1,1,5.0000,-0.0000,1.42244,-0.00046,-2.63081,1.06041,1.57080,0.11675,-0.12764,-0.48149,0.03696,,,,,,,,,,,,,,,,,,,,,,,,,,0,0,0,0,0
1.2847,1783967064.8582,1,1,5.0000,-0.0000,1.42244,-0.00046,-2.63081,1.06041,1.57080,0.11675,-0.12764,-0.48149,0.03696,,,,,,,,,,,,,,,,,,,,,,,,,,0,0,0,0,0
1.2850,1783967064.8585,1,1,5.0000,-0.0000,1.42244,-0.00046,-2.63081,1.06041,1.57080,0.11675,-0.12764,-0.48149,0.03696,,,,,,,,,,,,,,,,,,,,,,,,,,0,0,0,0,0
1.2960,1783967064.8694,1,1,5.0000,-0.0000,1.42244,-0.00046,-2.63081,1.06041,1.57080,0.11675,-0.12764,-0.48149,0.03696,,,,,,,,,,,,,,,,,,,,,,,,,,0,0,0,0,0
1.2963,1783967064.8697,1,1,5.0000,-0.0000,1.42244,-0.00046,-2.63081,1.06041,1.57080,0.11675,-0.12764,-0.48149,0.03696,,,,,,,,,,,,,,,,,,,,,,,,,,0,0,0,0,0
1.2979,1783967064.8713,1,1,5.0000,-0.0000,1.42244,-0.00046,-2.63081,1.06041,1.57080,0.11675,-0.12764,-0.48149,0.03696,,,,,,,,,,,,,,,,,,,,,,,,,,0,0,0,0,0
1.3042,1783967064.8776,1,1,5.0000,-0.0000,1.42244,-0.00046,-2.63081,1.06041,1.57080,0.11675,-0.12764,-0.48149,0.03696,,,,,,,,,,,,,,,,,,,,,,,,,,0,0,0,0,0
1.3691,1783967064.9426,1,1,5.0000,-0.0000,1.42244,-0.00046,-2.63081,1.06041,1.57080,0.11675,-0.12764,-0.48149,0.03696,,,,,,,,,,,,,,,,,,,,,,,,,,0,0,0,0,0
1.3743,1783967064.9478,1,1,5.0000,-0.0000,1.42244,-0.00046,-2.63081,1.06041,1.57080,0.11675,-0.12764,-0.48149,0.03696,,,,,,,,,,,,,,,,,,,,,,,,,,0,0,0,0,0
1.3750,1783967064.9484,1,1,5.0000,-0.0000,1.42244,-0.00046,-2.63081,1.06041,1.57080,0.11675,-0.12764,-0.48149,0.03696,,,,,,,,,,,,,,,,,,,,,,,,,,0,0,0,0,0
1.3828,1783967064.9563,1,1,5.0000,-0.0000,1.42244,-0.00046,-2.63081,1.06041,1.57080,0.11675,-0.12764,-0.48149,0.03696,,,,,,,,,,,,,,,,,,,,,,,,,,0,0,0,0,0
1.3846,1783967064.9580,1,1,5.0000,-0.0000,1.42244,-0.00046,-2.63081,1.06041,1.57080,0.11675,-0.12764,-0.48149,0.03696,,,,,,,,,,,,,,,,,,,,,,,,,,0,0,0,0,0
1.3849,1783967064.9583,1,1,5.0000,-0.0000,1.42244,-0.00046,-2.63081,1.06041,1.57080,0.11675,-0.12764,-0.48149,0.03696,,,,,,,,,,,,,,,,,,,,,,,,,,0,0,0,0,0
1.3862,1783967064.9597,1,1,5.0000,-0.0000,1.42244,-0.00046,-2.63081,1.06041,1.57080,0.11675,-0.12764,-0.48149,0.03696,,,,,,,,,,,,,,,,,,,,,,,,,,0,0,0,0,0
1.3868,1783967064.9602,1,1,5.0000,-0.0000,1.42244,-0.00046,-2.63081,1.06041,1.57080,0.11675,-0.12764,-0.48149,0.03696,,,,,,,,,,,,,,,,,,,,,,,,,,0,0,0,0,0
1.3882,1783967064.9617,1,1,5.0000,-0.0000,1.42244,-0.00046,-2.63081,1.06041,1.57080,0.11675,-0.12764,-0.48149,0.03696,,,,,,,,,,,,,,,,,,,,,,,,,,0,0,0,0,0
1.3886,1783967064.9620,1,1,5.0000,-0.0000,1.42244,-0.00046,-2.63081,1.06041,1.57080,0.11675,-0.12764,-0.48149,0.03696,,,,,,,,,,,,,,,,,,,,,,,,,,0,0,0,0,0
1.3949,1783967064.9684,1,1,5.0000,-0.0000,1.42244,-0.00046,-2.63081,1.06041,1.57080,0.11675,-0.12764,-0.48149,0.03696,,,,,,,,,,,,,,,,,,,,,,,,,,0,0,0,0,0
1.3952,1783967064.9687,1,1,5.0000,-0.0000,1.42244,-0.00046,-2.63081,1.06041,1.57080,0.11675,-0.12764,-0.48149,0.03696,,,,,,,,,,,,,,,,,,,,,,,,,,0,0,0,0,0
1.4052,1783967064.9787,1,1,5.0000,-0.0000,1.42244,-0.00046,-2.63081,1.06041,1.57080,0.11675,-0.12764,-0.48149,0.03696,,,,,,,,,,,,,,,,,,,,,,,,,,0,0,0,0,0
1.4099,1783967064.9834,1,1,5.0000,-0.0000,1.42244,-0.00046,-2.63081,1.06041,1.57080,0.11675,-0.12764,-0.48149,0.03696,,,,,,,,,,,,,,,,,,,,,,,,,,0,0,0,0,0
1.4103,1783967064.9837,1,1,5.0000,-0.0000,1.42244,-0.00046,-2.63081,1.06041,1.57080,0.11675,-0.12764,-0.48149,0.03696,,,,,,,,,,,,,,,,,,,,,,,,,,0,0,0,0,0
1.4176,1783967064.9910,1,1,5.0000,-0.0000,1.42244,-0.00046,-2.63081,1.06041,1.57080,0.11675,-0.12764,-0.48149,0.03696,,,,,,,,,,,,,,,,,,,,,,,,,,0,0,0,0,0
1.4247,1783967064.9981,1,1,5.0000,-0.0000,1.42244,-0.00046,-2.63081,1.06041,1.57080,0.11675,-0.12764,-0.48149,0.03696,,,,,,,,,,,,,,,,,,,,,,,,,,0,0,0,0,0
1.4262,1783967064.9997,1,1,5.0000,-0.0000,1.42244,-0.00046,-2.63081,1.06041,1.57080,0.11675,-0.12764,-0.48149,0.03696,,,,,,,,,,,,,,,,,,,,,,,,,,0,0,0,0,0
1.4268,1783967065.0002,1,1,5.0000,-0.0000,1.42244,-0.00046,-2.63081,1.06041,1.57080,0.11675,-0.12764,-0.48149,0.03696,,,,,,,,,,,,,,,,,,,,,,,,,,0,0,0,0,0
1.5079,1783967065.0814,1,1,5.0000,-0.0000,1.42244,-0.00062,-2.63092,1.06066,1.57080,0.11675,-0.12765,-0.48144,0.03688,,,,,,,,,,,,,,,,,,,,,,,,,,0,0,0,0,0
1.5273,1783967065.1008,1,1,5.0000,-0.0000,1.42244,-0.00071,-2.63095,1.06077,1.57080,0.11675,-0.12765,-0.48144,0.03685,,,,,,,,,,,,,,,,,,,,,,,,,,0,0,0,0,0
1.5300,1783967065.1034,1,1,5.0000,-0.0000,1.42244,-0.00071,-2.63095,1.06077,1.57080,0.11675,-0.12765,-0.48144,0.03685,,,,,,,,,,,,,,,,,,,,,,,,,,0,0,0,0,0
1.5304,1783967065.1039,1,1,5.0000,-0.0000,1.42244,-0.00071,-2.63095,1.06077,1.57080,0.11675,-0.12765,-0.48144,0.03685,,,,,,,,,,,,,,,,,,,,,,,,,,0,0,0,0,0
1.5310,1783967065.1044,1,1,5.0000,-0.0000,1.42244,-0.00071,-2.63095,1.06077,1.57080,0.11675,-0.12765,-0.48144,0.03685,,,,,,,,,,,,,,,,,,,,,,,,,,0,0,0,0,0
1.5313,1783967065.1048,1,1,5.0000,-0.0000,1.42244,-0.00071,-2.63095,1.06077,1.57080,0.11675,-0.12765,-0.48144,0.03685,,,,,,,,,,,,,,,,,,,,,,,,,,0,0,0,0,0
1.5326,1783967065.1060,1,1,5.0000,-0.0000,1.42244,-0.00071,-2.63095,1.06077,1.57080,0.11675,-0.12765,-0.48144,0.03685,,,,,,,,,,,,,,,,,,,,,,,,,,0,0,0,0,0
1.5329,1783967065.1064,1,1,5.0000,-0.0000,1.42244,-0.00071,-2.63095,1.06077,1.57080,0.11675,-0.12765,-0.48144,0.03685,,,,,,,,,,,,,,,,,,,,,,,,,,0,0,0,0,0
1.5376,1783967065.1110,1,1,5.0000,-0.0000,1.42244,-0.00071,-2.63095,1.06078,1.57080,0.11675,-0.12765,-0.48144,0.03684,,,,,,,,,,,,,,,,,,,,,,,,,,0,0,0,0,0
1.5541,1783967065.1275,1,1,5.0000,-0.0000,1.42244,-0.00084,-2.63098,1.06094,1.57080,0.11675,-0.12764,-0.48145,0.03680,,,,,,,,,,,,,,,,,,,,,,,,,,0,0,0,0,0
1.5633,1783967065.1367,1,1,5.0000,-0.0000,1.42244,-0.00095,-2.63100,1.06108,1.57080,0.11675,-0.12764,-0.48145,0.03677,,,,,,,,,,,,,,,,,,,,,,,,,,0,0,0,0,0
1.5638,1783967065.1372,1,1,5.0000,-0.0000,1.42244,-0.00095,-2.63100,1.06108,1.57080,0.11675,-0.12764,-0.48145,0.03677,,,,,,,,,,,,,,,,,,,,,,,,,,0,0,0,0,0
1.5785,1783967065.1519,1,1,5.0000,-0.0000,1.42244,-0.00100,-2.63101,1.06114,1.57080,0.11675,-0.12764,-0.48145,0.03675,,,,,,,,,,,,,,,,,,,,,,,,,,0,0,0,0,0
1.5823,1783967065.1557,1,1,5.0000,-0.0000,1.42244,-0.00104,-2.63101,1.06118,1.57080,0.11675,-0.12764,-0.48145,0.03674,,,,,,,,,,,,,,,,,,,,,,,,,,0,0,0,0,0
1.5873,1783967065.1607,1,1,5.0000,-0.0000,1.42244,-0.00112,-2.63103,1.06129,1.57080,0.11675,-0.12764,-0.48145,0.03671,,,,,,,,,,,,,,,,,,,,,,,,,,0,0,0,0,0
1.5996,1783967065.1730,1,1,5.0000,-0.0000,1.42244,-0.00122,-2.63105,1.06141,1.57080,0.11675,-0.12764,-0.48146,0.03668,,,,,,,,,,,,,,,,,,,,,,,,,,0,0,0,0,0
1.6103,1783967065.1837,1,1,5.0000,-0.0000,1.42244,-0.00124,-2.63105,1.06143,1.57080,0.11675,-0.12764,-0.48146,0.03668,,,,,,,,,,,,,,,,,,,,,,,,,,0,0,0,0,0
1.6201,1783967065.1935,1,1,5.0000,-0.0000,1.42244,-0.00131,-2.63105,1.06152,1.57080,0.11675,-0.12764,-0.48147,0.03666,,,,,,,,,,,,,,,,,,,,,,,,,,0,0,0,0,0
1.6309,1783967065.2043,1,1,5.0000,-0.0000,1.42244,-0.00142,-2.63106,1.06166,1.57080,0.11675,-0.12764,-0.48148,0.03663,,,,,,,,,,,,,,,,,,,,,,,,,,0,0,0,0,0
1.6441,1783967065.2175,1,1,5.0000,-0.0000,1.42244,-0.00153,-2.63106,1.06180,1.57080,0.11675,-0.12763,-0.48150,0.03660,,,,,,,,,,,,,,,,,,,,,,,,,,0,0,0,0,0
1.6517,1783967065.2251,1,1,5.0000,-0.0000,1.42244,-0.00160,-2.63106,1.06189,1.57080,0.11675,-0.12763,-0.48152,0.03659,,,,,,,,,,,,,,,,,,,,,,,,,,0,0,0,0,0
1.6690,1783967065.2424,1,1,5.0000,-0.0000,1.42244,-0.00164,-2.63105,1.06195,1.57080,0.11675,-0.12763,-0.48153,0.03659,,,,,,,,,,,,,,,,,,,,,,,,,,0,0,0,0,0
1.6897,1783967065.2632,1,1,5.0000,-0.0000,1.42244,-0.00164,-2.63105,1.06195,1.57080,0.11675,-0.12763,-0.48153,0.03659,,,,,,,,,,,,,,,,,,,,,,,,,,0,0,0,0,0
1.6929,1783967065.2664,1,1,5.0000,-0.0000,1.42244,-0.00164,-2.63105,1.06195,1.57080,0.11675,-0.12763,-0.48153,0.03659,,,,,,,,,,,,,,,,,,,,,,,,,,0,0,0,0,0
1.6985,1783967065.2719,1,1,5.0000,-0.0000,1.42244,-0.00164,-2.63105,1.06195,1.57080,0.11675,-0.12763,-0.48153,0.03659,,,,,,,,,,,,,,,,,,,,,,,,,,0,0,0,0,0
1.7032,1783967065.2766,1,1,5.0000,-0.0000,1.42244,-0.00164,-2.63105,1.06195,1.57080,0.11675,-0.12763,-0.48153,0.03659,,,,,,,,,,,,,,,,,,,,,,,,,,0,0,0,0,0
1.7193,1783967065.2927,1,1,5.0000,-0.0000,1.42244,-0.00164,-2.63105,1.06195,1.57080,0.11675,-0.12763,-0.48153,0.03659,,,,,,,,,,,,,,,,,,,,,,,,,,0,0,0,0,0
1.7204,1783967065.2938,1,1,5.0000,-0.0000,1.42244,-0.00164,-2.63105,1.06195,1.57080,0.11675,-0.12763,-0.48153,0.03659,,,,,,,,,,,,,,,,,,,,,,,,,,0,0,0,0,0
1.7270,1783967065.3004,1,1,5.0000,-0.0000,1.42244,-0.00164,-2.63105,1.06195,1.57080,0.11675,-0.12763,-0.48153,0.03659,,,,,,,,,,,,,,,,,,,,,,,,,,0,0,0,0,0
1.7371,1783967065.3106,1,1,5.0000,-0.0000,1.42244,-0.00164,-2.63105,1.06195,1.57080,0.11675,-0.12763,-0.48153,0.03659,,,,,,,,,,,,,,,,,,,,,,,,,,0,0,0,0,0
1.7529,1783967065.3264,1,1,5.0000,-0.0000,1.42244,-0.00164,-2.63105,1.06195,1.57080,0.11675,-0.12763,-0.48153,0.03659,,,,,,,,,,,,,,,,,,,,,,,,,,0,0,0,0,0
1.7749,1783967065.3483,1,1,5.0000,-0.0000,1.42244,-0.00164,-2.63105,1.06195,1.57080,0.11675,-0.12763,-0.48153,0.03659,,,,,,,,,,,,,,,,,,,,,,,,,,0,0,0,0,0
1.7795,1783967065.3530,1,1,5.0000,-0.0000,1.42244,-0.00164,-2.63105,1.06195,1.57080,0.11675,-0.12763,-0.48153,0.03659,,,,,,,,,,,,,,,,,,,,,,,,,,0,0,0,0,0
1.7832,1783967065.3567,1,1,5.0000,-0.0000,1.42244,-0.00164,-2.63105,1.06195,1.57080,0.11675,-0.12763,-0.48153,0.03659,,,,,,,,,,,,,,,,,,,,,,,,,,0,0,0,0,0
1.7928,1783967065.3662,1,1,5.0000,-0.0000,1.42244,-0.00164,-2.63105,1.06195,1.57080,0.11675,-0.12763,-0.48153,0.03659,,,,,,,,,,,,,,,,,,,,,,,,,,0,0,0,0,0
1.8001,1783967065.3735,1,1,5.0000,-0.0000,1.42244,-0.00164,-2.63105,1.06195,1.57080,0.11675,-0.12763,-0.48153,0.03659,,,,,,,,,,,,,,,,,,,,,,,,,,0,0,0,0,0
1.8090,1783967065.3825,1,1,5.0000,-0.0000,1.42244,-0.00164,-2.63105,1.06195,1.57080,0.11675,-0.12763,-0.48153,0.03659,,,,,,,,,,,,,,,,,,,,,,,,,,0,0,0,0,0
1.8230,1783967065.3964,1,1,5.0000,-0.0000,1.42244,-0.00164,-2.63105,1.06195,1.57080,0.11675,-0.12763,-0.48153,0.03659,,,,,,,,,,,,,,,,,,,,,,,,,,0,0,0,0,0
1.8351,1783967065.4085,1,1,5.0000,-0.0000,1.42244,-0.00164,-2.63105,1.06195,1.57080,0.11675,-0.12763,-0.48153,0.03659,,,,,,,,,,,,,,,,,,,,,,,,,,0,0,0,0,0
1.8355,1783967065.4089,1,1,5.0000,-0.0000,1.42244,-0.00164,-2.63105,1.06195,1.57080,0.11675,-0.12763,-0.48153,0.03659,,,,,,,,,,,,,,,,,,,,,,,,,,0,0,0,0,0
1.8401,1783967065.4136,1,1,5.0000,-0.0000,1.42244,-0.00164,-2.63105,1.06195,1.57080,0.11675,-0.12763,-0.48153,0.03659,,,,,,,,,,,,,,,,,,,,,,,,,,0,0,0,0,0
1.8473,1783967065.4208,1,1,5.0000,-0.0000,1.42244,-0.00165,-2.63105,1.06195,1.57080,0.11675,-0.12763,-0.48153,0.03659,,,,,,,,,,,,,,,,,,,,,,,,,,0,0,0,0,0
1.8623,1783967065.4358,1,1,5.0000,-0.0000,1.42244,-0.00165,-2.63105,1.06197,1.57080,0.11675,-0.12763,-0.48153,0.03658,,,,,,,,,,,,,,,,,,,,,,,,,,0,0,0,0,0
1.8839,1783967065.4574,1,1,5.0000,-0.0000,1.42243,-0.00167,-2.63108,1.06200,1.57080,0.11675,-0.12763,-0.48152,0.03657,,,,,,,,,,,,,,,,,,,,,,,,,,0,0,0,0,0
1.8871,1783967065.4606,1,1,5.0000,-0.0000,1.42243,-0.00168,-2.63109,1.06201,1.57080,0.11675,-0.12763,-0.48151,0.03656,,,,,,,,,,,,,,,,,,,,,,,,,,0,0,0,0,0
1.8877,1783967065.4611,1,1,5.0000,-0.0000,1.42243,-0.00168,-2.63109,1.06201,1.57080,0.11675,-0.12763,-0.48151,0.03656,,,,,,,,,,,,,,,,,,,,,,,,,,0,0,0,0,0
1.8944,1783967065.4678,1,1,5.0000,-0.0000,1.42243,-0.00168,-2.63109,1.06201,1.57080,0.11675,-0.12763,-0.48151,0.03656,,,,,,,,,,,,,,,,,,,,,,,,,,0,0,0,0,0
1.9091,1783967065.4826,1,1,5.0000,-0.0000,1.42243,-0.00173,-2.63112,1.06206,1.57080,0.11675,-0.12764,-0.48149,0.03653,,,,,,,,,,,,,,,,,,,,,,,,,,0,0,0,0,0
1.9255,1783967065.4989,1,1,5.0000,-0.0000,1.42243,-0.00180,-2.63117,1.06213,1.57080,0.11675,-0.12764,-0.48146,0.03649,,,,,,,,,,,,,,,,,,,,,,,,,,0,0,0,0,0
1.9371,1783967065.5105,1,1,5.0000,-0.0000,1.42243,-0.00183,-2.63118,1.06217,1.57080,0.11675,-0.12764,-0.48146,0.03648,,,,,,,,,,,,,,,,,,,,,,,,,,0,0,0,0,0
1.9408,1783967065.5142,1,1,5.0000,-0.0000,1.42243,-0.00185,-2.63119,1.06220,1.57080,0.11675,-0.12764,-0.48146,0.03647,,,,,,,,,,,,,,,,,,,,,,,,,,0,0,0,0,0
1.9436,1783967065.5171,1,1,5.0000,-0.0000,1.42243,-0.00188,-2.63120,1.06223,1.57080,0.11675,-0.12764,-0.48146,0.03646,,,,,,,,,,,,,,,,,,,,,,,,,,0,0,0,0,0
1.9439,1783967065.5173,1,1,5.0000,-0.0000,1.42243,-0.00188,-2.63120,1.06223,1.57080,0.11675,-0.12764,-0.48146,0.03646,,,,,,,,,,,,,,,,,,,,,,,,,,0,0,0,0,0
1.9464,1783967065.5199,1,1,5.0000,-0.0000,1.42243,-0.00188,-2.63120,1.06223,1.57080,0.11675,-0.12764,-0.48146,0.03646,,,,,,,,,,,,,,,,,,,,,,,,,,0,0,0,0,0
1.9470,1783967065.5204,1,1,5.0000,-0.0000,1.42243,-0.00191,-2.63121,1.06227,1.57080,0.11675,-0.12764,-0.48145,0.03645,,,,,,,,,,,,,,,,,,,,,,,,,,0,0,0,0,0
1.9591,1783967065.5325,1,1,5.0000,-0.0000,1.42243,-0.00198,-2.63123,1.06235,1.57080,0.11675,-0.12764,-0.48145,0.03642,,,,,,,,,,,,,,,,,,,,,,,,,,0,0,0,0,0
1.9594,1783967065.5328,1,1,5.0000,-0.0000,1.42243,-0.00198,-2.63123,1.06235,1.57080,0.11675,-0.12764,-0.48145,0.03642,,,,,,,,,,,,,,,,,,,,,,,,,,0,0,0,0,0
1.9706,1783967065.5440,1,1,5.0000,-0.0000,1.42243,-0.00200,-2.63124,1.06238,1.57080,0.11675,-0.12764,-0.48145,0.03641,,,,,,,,,,,,,,,,,,,,,,,,,,0,0,0,0,0
1.9711,1783967065.5445,1,1,5.0000,-0.0000,1.42243,-0.00202,-2.63124,1.06240,1.57080,0.11675,-0.12764,-0.48145,0.03641,,,,,,,,,,,,,,,,,,,,,,,,,,0,0,0,0,0
1.9842,1783967065.5577,1,1,5.0000,-0.0000,1.42243,-0.00209,-2.63125,1.06249,1.57080,0.11675,-0.12764,-0.48145,0.03638,,,,,,,,,,,,,,,,,,,,,,,,,,0,0,0,0,0
1.9886,1783967065.5620,1,1,5.0000,-0.0000,1.42243,-0.00209,-2.63126,1.06249,1.57080,0.11675,-0.12764,-0.48145,0.03638,,,,,,,,,,,,,,,,,,,,,,,,,,0,0,0,0,0
1.9974,1783967065.5709,1,1,5.0000,-0.0000,1.42243,-0.00214,-2.63126,1.06255,1.57080,0.11675,-0.12764,-0.48145,0.03637,,,,,,,,,,,,,,,,,,,,,,,,,,0,0,0,0,0
1.9978,1783967065.5712,1,1,5.0000,-0.0000,1.42243,-0.00214,-2.63126,1.06255,1.57080,0.11675,-0.12764,-0.48145,0.03637,,,,,,,,,,,,,,,,,,,,,,,,,,0,0,0,0,0
2.0093,1783967065.5827,1,1,5.0000,-0.0000,1.42243,-0.00228,-2.63129,1.06272,1.57080,0.11675,-0.12764,-0.48146,0.03632,,,,,,,,,,,,,,,,,,,,,,,,,,0,0,0,0,0
2.0231,1783967065.5965,1,1,5.0000,-0.0000,1.42243,-0.00236,-2.63130,1.06281,1.57080,0.11675,-0.12764,-0.48146,0.03630,,,,,,,,,,,,,,,,,,,,,,,,,,0,0,0,0,0
2.0311,1783967065.6045,1,1,5.0000,-0.0000,1.42243,-0.00241,-2.63130,1.06287,1.57080,0.11675,-0.12764,-0.48147,0.03628,,,,,,,,,,,,,,,,,,,,,,,,,,0,0,0,0,0
2.0411,1783967065.6145,1,1,5.0000,-0.0000,1.42243,-0.00248,-2.63131,1.06296,1.57080,0.11675,-0.12764,-0.48147,0.03626,,,,,,,,,,,,,,,,,,,,,,,,,,0,0,0,0,0
2.0417,1783967065.6151,1,1,5.0000,-0.0000,1.42243,-0.00248,-2.63131,1.06296,1.57080,0.11675,-0.12764,-0.48147,0.03626,,,,,,,,,,,,,,,,,,,,,,,,,,0,0,0,0,0
2.0635,1783967065.6369,1,1,5.0000,-0.0000,1.42243,-0.00274,-2.63133,1.06329,1.57080,0.11675,-0.12763,-0.48151,0.03620,,,,,,,,,,,,,,,,,,,,,,,,,,0,0,0,0,0
2.0999,1783967065.6733,1,1,5.0000,-0.0000,1.42243,-0.00282,-2.63132,1.06339,1.57080,0.11675,-0.12763,-0.48152,0.03618,,,,,,,,,,,,,,,,,,,,,,,,,,0,0,0,0,0
2.1033,1783967065.6767,1,1,5.0000,-0.0000,1.42243,-0.00282,-2.63132,1.06339,1.57080,0.11675,-0.12763,-0.48152,0.03618,,,,,,,,,,,,,,,,,,,,,,,,,,0,0,0,0,0
2.1126,1783967065.6860,1,1,5.0000,-0.0000,1.42243,-0.00282,-2.63132,1.06339,1.57080,0.11675,-0.12763,-0.48152,0.03618,,,,,,,,,,,,,,,,,,,,,,,,,,0,0,0,0,0
2.1129,1783967065.6864,1,1,5.0000,-0.0000,1.42243,-0.00282,-2.63132,1.06339,1.57080,0.11675,-0.12763,-0.48152,0.03618,,,,,,,,,,,,,,,,,,,,,,,,,,0,0,0,0,0
2.1248,1783967065.6983,1,1,5.0000,-0.0000,1.42243,-0.00282,-2.63132,1.06339,1.57080,0.11675,-0.12763,-0.48152,0.03618,,,,,,,,,,,,,,,,,,,,,,,,,,0,0,0,0,0
2.1276,1783967065.7010,1,1,5.0000,-0.0000,1.42243,-0.00282,-2.63132,1.06339,1.57080,0.11675,-0.12763,-0.48152,0.03618,,,,,,,,,,,,,,,,,,,,,,,,,,0,0,0,0,0
2.1279,1783967065.7014,1,1,5.0000,-0.0000,1.42243,-0.00282,-2.63132,1.06339,1.57080,0.11675,-0.12763,-0.48152,0.03618,,,,,,,,,,,,,,,,,,,,,,,,,,0,0,0,0,0
2.1289,1783967065.7024,1,1,5.0000,-0.0000,1.42243,-0.00282,-2.63132,1.06339,1.57080,0.11675,-0.12763,-0.48152,0.03618,,,,,,,,,,,,,,,,,,,,,,,,,,0,0,0,0,0
2.1292,1783967065.7027,1,1,5.0000,-0.0000,1.42243,-0.00282,-2.63132,1.06339,1.57080,0.11675,-0.12763,-0.48152,0.03618,,,,,,,,,,,,,,,,,,,,,,,,,,0,0,0,0,0
2.1305,1783967065.7039,1,1,5.0000,-0.0000,1.42243,-0.00282,-2.63132,1.06339,1.57080,0.11675,-0.12763,-0.48152,0.03618,,,,,,,,,,,,,,,,,,,,,,,,,,0,0,0,0,0
2.1312,1783967065.7046,1,1,5.0000,-0.0000,1.42243,-0.00282,-2.63132,1.06339,1.57080,0.11675,-0.12763,-0.48152,0.03618,,,,,,,,,,,,,,,,,,,,,,,,,,0,0,0,0,0
2.1402,1783967065.7136,1,1,5.0000,-0.0000,1.42243,-0.00282,-2.63132,1.06339,1.57080,0.11675,-0.12763,-0.48152,0.03618,,,,,,,,,,,,,,,,,,,,,,,,,,0,0,0,0,0
2.1466,1783967065.7200,1,1,5.0000,-0.0000,1.42243,-0.00282,-2.63132,1.06339,1.57080,0.11675,-0.12763,-0.48152,0.03618,,,,,,,,,,,,,,,,,,,,,,,,,,0,0,0,0,0
2.1629,1783967065.7364,1,1,5.0000,-0.0000,1.42243,-0.00282,-2.63132,1.06339,1.57080,0.11675,-0.12763,-0.48152,0.03618,,,,,,,,,,,,,,,,,,,,,,,,,,0,0,0,0,0
2.1686,1783967065.7420,1,1,5.0000,-0.0000,1.42243,-0.00282,-2.63132,1.06339,1.57080,0.11675,-0.12763,-0.48152,0.03618,,,,,,,,,,,,,,,,,,,,,,,,,,0,0,0,0,0
2.1818,1783967065.7552,1,1,5.0000,-0.0000,1.42243,-0.00282,-2.63132,1.06339,1.57080,0.11675,-0.12763,-0.48152,0.03618,,,,,,,,,,,,,,,,,,,,,,,,,,0,0,0,0,0
2.1929,1783967065.7663,1,1,5.0000,-0.0000,1.42243,-0.00282,-2.63132,1.06339,1.57080,0.11675,-0.12763,-0.48152,0.03618,,,,,,,,,,,,,,,,,,,,,,,,,,0,0,0,0,0
2.2030,1783967065.7765,1,1,5.0000,-0.0000,1.42243,-0.00282,-2.63132,1.06339,1.57080,0.11675,-0.12763,-0.48152,0.03618,,,,,,,,,,,,,,,,,,,,,,,,,,0,0,0,0,0
2.2634,1783967065.8369,1,1,5.0000,-0.0000,1.42243,-0.00282,-2.63132,1.06339,1.57080,0.11675,-0.12763,-0.48152,0.03618,,,,,,,,,,,,,,,,,,,,,,,,,,0,0,0,0,0
2.2638,1783967065.8373,1,1,5.0000,-0.0000,1.42243,-0.00282,-2.63132,1.06339,1.57080,0.11675,-0.12763,-0.48152,0.03618,,,,,,,,,,,,,,,,,,,,,,,,,,0,0,0,0,0
2.2892,1783967065.8626,1,1,5.0000,-0.0000,1.42243,-0.00282,-2.63132,1.06339,1.57080,0.11675,-0.12763,-0.48152,0.03618,,,,,,,,,,,,,,,,,,,,,,,,,,0,0,0,0,0
2.2895,1783967065.8630,1,1,5.0000,-0.0000,1.42243,-0.00282,-2.63132,1.06339,1.57080,0.11675,-0.12763,-0.48152,0.03618,,,,,,,,,,,,,,,,,,,,,,,,,,0,0,0,0,0
2.2905,1783967065.8639,1,1,5.0000,-0.0000,1.42243,-0.00282,-2.63132,1.06339,1.57080,0.11675,-0.12763,-0.48152,0.03618,,,,,,,,,,,,,,,,,,,,,,,,,,0,0,0,0,0
2.2909,1783967065.8644,1,1,5.0000,-0.0000,1.42243,-0.00282,-2.63132,1.06340,1.57080,0.11675,-0.12763,-0.48152,0.03618,,,,,,,,,,,,,,,,,,,,,,,,,,0,0,0,0,0
2.2926,1783967065.8660,1,1,5.0000,-0.0000,1.42243,-0.00282,-2.63132,1.06340,1.57080,0.11675,-0.12763,-0.48152,0.03618,,,,,,,,,,,,,,,,,,,,,,,,,,0,0,0,0,0
2.2928,1783967065.8663,1,1,5.0000,-0.0000,1.42243,-0.00282,-2.63132,1.06340,1.57080,0.11675,-0.12763,-0.48152,0.03618,,,,,,,,,,,,,,,,,,,,,,,,,,0,0,0,0,0
2.2977,1783967065.8712,1,1,5.0000,-0.0000,1.42243,-0.00282,-2.63133,1.06340,1.57080,0.11675,-0.12763,-0.48152,0.03618,,,,,,,,,,,,,,,,,,,,,,,,,,0,0,0,0,0
2.2981,1783967065.8716,1,1,5.0000,-0.0000,1.42243,-0.00282,-2.63133,1.06340,1.57080,0.11675,-0.12763,-0.48152,0.03618,,,,,,,,,,,,,,,,,,,,,,,,,,0,0,0,0,0
2.3041,1783967065.8776,1,1,5.0000,-0.0000,1.42243,-0.00284,-2.63134,1.06342,1.57080,0.11675,-0.12763,-0.48152,0.03617,,,,,,,,,,,,,,,,,,,,,,,,,,0,0,0,0,0
2.3047,1783967065.8782,1,1,5.0000,-0.0000,1.42243,-0.00284,-2.63134,1.06342,1.57080,0.11675,-0.12763,-0.48152,0.03617,,,,,,,,,,,,,,,,,,,,,,,,,,0,0,0,0,0
2.3182,1783967065.8917,1,1,5.0000,-0.0000,1.42243,-0.00285,-2.63135,1.06343,1.57080,0.11675,-0.12763,-0.48151,0.03616,,,,,,,,,,,,,,,,,,,,,,,,,,0,0,0,0,0
2.3185,1783967065.8919,1,1,5.0000,-0.0000,1.42243,-0.00285,-2.63135,1.06343,1.57080,0.11675,-0.12763,-0.48151,0.03616,,,,,,,,,,,,,,,,,,,,,,,,,,0,0,0,0,0
2.3220,1783967065.8955,1,1,5.0000,-0.0000,1.42243,-0.00286,-2.63136,1.06344,1.57080,0.11675,-0.12763,-0.48151,0.03616,,,,,,,,,,,,,,,,,,,,,,,,,,0,0,0,0,0
2.3223,1783967065.8957,1,1,5.0000,-0.0000,1.42243,-0.00286,-2.63136,1.06344,1.57080,0.11675,-0.12763,-0.48151,0.03616,,,,,,,,,,,,,,,,,,,,,,,,,,0,0,0,0,0
2.3271,1783967065.9005,1,1,5.0000,-0.0000,1.42243,-0.00289,-2.63138,1.06348,1.57080,0.11675,-0.12763,-0.48149,0.03614,,,,,,,,,,,,,,,,,,,,,,,,,,0,0,0,0,0
2.3274,1783967065.9008,1,1,5.0000,-0.0000,1.42243,-0.00289,-2.63138,1.06348,1.57080,0.11675,-0.12763,-0.48149,0.03614,,,,,,,,,,,,,,,,,,,,,,,,,,0,0,0,0,0
2.3323,1783967065.9057,1,1,5.0000,-0.0000,1.42243,-0.00291,-2.63140,1.06350,1.57080,0.11675,-0.12763,-0.48149,0.03613,,,,,,,,,,,,,,,,,,,,,,,,,,0,0,0,0,0
2.3369,1783967065.9103,1,1,5.0000,-0.0000,1.42243,-0.00293,-2.63141,1.06353,1.57080,0.11675,-0.12764,-0.48148,0.03611,,,,,,,,,,,,,,,,,,,,,,,,,,0,0,0,0,0
2.3373,1783967065.9107,1,1,5.0000,-0.0000,1.42243,-0.00293,-2.63141,1.06353,1.57080,0.11675,-0.12764,-0.48148,0.03611,,,,,,,,,,,,,,,,,,,,,,,,,,0,0,0,0,0
2.3399,1783967065.9134,1,1,5.0000,-0.0000,1.42243,-0.00296,-2.63143,1.06356,1.57080,0.11675,-0.12764,-0.48147,0.03610,,,,,,,,,,,,,,,,,,,,,,,,,,0,0,0,0,0
2.3533,1783967065.9267,1,1,5.0000,-0.0000,1.42243,-0.00297,-2.63144,1.06357,1.57080,0.11675,-0.12764,-0.48147,0.03609,,,,,,,,,,,,,,,,,,,,,,,,,,0,0,0,0,0
2.3544,1783967065.9278,1,1,5.0000,-0.0000,1.42243,-0.00297,-2.63144,1.06357,1.57080,0.11675,-0.12764,-0.48147,0.03609,,,,,,,,,,,,,,,,,,,,,,,,,,0,0,0,0,0
2.3550,1783967065.9284,1,1,5.0000,-0.0000,1.42243,-0.00299,-2.63144,1.06359,1.57080,0.11675,-0.12764,-0.48146,0.03609,,,,,,,,,,,,,,,,,,,,,,,,,,0,0,0,0,0
2.3573,1783967065.9308,1,1,5.0000,-0.0000,1.42243,-0.00299,-2.63144,1.06359,1.57080,0.11675,-0.12764,-0.48146,0.03609,,,,,,,,,,,,,,,,,,,,,,,,,,0,0,0,0,0
2.3577,1783967065.9312,1,1,5.0000,-0.0000,1.42243,-0.00299,-2.63144,1.06359,1.57080,0.11675,-0.12764,-0.48146,0.03609,,,,,,,,,,,,,,,,,,,,,,,,,,0,0,0,0,0
2.4151,1783967065.9886,1,1,5.0000,-0.0000,1.42243,-0.00333,-2.63152,1.06400,1.57080,0.11675,-0.12764,-0.48146,0.03597,,,,,,,,,,,,,,,,,,,,,,,,,,0,0,0,0,0
2.6139,1783967066.1874,1,1,5.0000,-0.0000,1.42243,-0.00399,-2.63160,1.06482,1.57080,0.11675,-0.12763,-0.48151,0.03577,,,,,,,,,,,,,,,,,,,,,,,,,,0,0,0,0,0
2.6151,1783967066.1886,1,1,5.0000,-0.0000,1.42243,-0.00399,-2.63160,1.06482,1.57080,0.11675,-0.12763,-0.48151,0.03577,,,,,,,,,,,,,,,,,,,,,,,,,,0,0,0,0,0
2.6270,1783967066.2005,1,1,5.0000,-0.0000,1.42243,-0.00399,-2.63160,1.06482,1.57080,0.11675,-0.12763,-0.48151,0.03577,,,,,,,,,,,,,,,,,,,,,,,,,,0,0,0,0,0
2.6306,1783967066.2040,1,1,5.0000,-0.0000,1.42243,-0.00399,-2.63160,1.06482,1.57080,0.11675,-0.12763,-0.48151,0.03577,,,,,,,,,,,,,,,,,,,,,,,,,,0,0,0,0,0
2.6310,1783967066.2045,1,1,5.0000,-0.0000,1.42243,-0.00399,-2.63160,1.06482,1.57080,0.11675,-0.12763,-0.48151,0.03577,,,,,,,,,,,,,,,,,,,,,,,,,,0,0,0,0,0
2.6340,1783967066.2074,1,1,5.0000,-0.0000,1.42243,-0.00399,-2.63160,1.06482,1.57080,0.11675,-0.12763,-0.48151,0.03577,,,,,,,,,,,,,,,,,,,,,,,,,,0,0,0,0,0
2.6350,1783967066.2084,1,1,5.0000,-0.0000,1.42243,-0.00399,-2.63160,1.06482,1.57080,0.11675,-0.12763,-0.48151,0.03577,,,,,,,,,,,,,,,,,,,,,,,,,,0,0,0,0,0
2.6403,1783967066.2137,1,1,5.0000,-0.0000,1.42243,-0.00399,-2.63160,1.06482,1.57080,0.11675,-0.12763,-0.48151,0.03577,,,,,,,,,,,,,,,,,,,,,,,,,,0,0,0,0,0
2.6405,1783967066.2140,1,1,5.0000,-0.0000,1.42243,-0.00399,-2.63160,1.06482,1.57080,0.11675,-0.12763,-0.48151,0.03577,,,,,,,,,,,,,,,,,,,,,,,,,,0,0,0,0,0
2.6531,1783967066.2265,1,1,5.0000,-0.0000,1.42243,-0.00399,-2.63160,1.06482,1.57080,0.11675,-0.12763,-0.48151,0.03577,,,,,,,,,,,,,,,,,,,,,,,,,,0,0,0,0,0
2.6538,1783967066.2273,1,1,5.0000,-0.0000,1.42243,-0.00399,-2.63160,1.06482,1.57080,0.11675,-0.12763,-0.48151,0.03577,,,,,,,,,,,,,,,,,,,,,,,,,,0,0,0,0,0
2.6565,1783967066.2300,1,1,5.0000,-0.0000,1.42243,-0.00399,-2.63160,1.06482,1.57080,0.11675,-0.12763,-0.48151,0.03577,,,,,,,,,,,,,,,,,,,,,,,,,,0,0,0,0,0
2.6640,1783967066.2374,1,1,5.0000,-0.0000,1.42243,-0.00399,-2.63160,1.06482,1.57080,0.11675,-0.12763,-0.48151,0.03577,,,,,,,,,,,,,,,,,,,,,,,,,,0,0,0,0,0
2.6663,1783967066.2397,1,1,5.0000,-0.0000,1.42243,-0.00399,-2.63160,1.06482,1.57080,0.11675,-0.12763,-0.48151,0.03577,,,,,,,,,,,,,,,,,,,,,,,,,,0,0,0,0,0
2.6670,1783967066.2404,1,1,5.0000,-0.0000,1.42243,-0.00399,-2.63160,1.06482,1.57080,0.11675,-0.12763,-0.48151,0.03577,,,,,,,,,,,,,,,,,,,,,,,,,,0,0,0,0,0
2.6672,1783967066.2406,1,1,5.0000,-0.0000,1.42243,-0.00399,-2.63160,1.06482,1.57080,0.11675,-0.12763,-0.48151,0.03577,,,,,,,,,,,,,,,,,,,,,,,,,,0,0,0,0,0
2.6700,1783967066.2434,1,1,5.0000,-0.0000,1.42243,-0.00399,-2.63160,1.06482,1.57080,0.11675,-0.12763,-0.48151,0.03577,,,,,,,,,,,,,,,,,,,,,,,,,,0,0,0,0,0
2.6703,1783967066.2437,1,1,5.0000,-0.0000,1.42243,-0.00399,-2.63160,1.06482,1.57080,0.11675,-0.12763,-0.48151,0.03577,,,,,,,,,,,,,,,,,,,,,,,,,,0,0,0,0,0
2.6778,1783967066.2512,1,1,5.0000,-0.0000,1.42243,-0.00399,-2.63160,1.06482,1.57080,0.11675,-0.12763,-0.48151,0.03577,,,,,,,,,,,,,,,,,,,,,,,,,,0,0,0,0,0
2.6812,1783967066.2547,1,1,5.0000,-0.0000,1.42243,-0.00399,-2.63160,1.06482,1.57080,0.11675,-0.12763,-0.48151,0.03577,,,,,,,,,,,,,,,,,,,,,,,,,,0,0,0,0,0
2.6933,1783967066.2667,1,1,5.0000,-0.0000,1.42243,-0.00399,-2.63160,1.06482,1.57080,0.11675,-0.12763,-0.48151,0.03577,,,,,,,,,,,,,,,,,,,,,,,,,,0,0,0,0,0
2.7012,1783967066.2747,1,1,5.0000,-0.0000,1.42243,-0.00399,-2.63160,1.06482,1.57080,0.11675,-0.12763,-0.48151,0.03577,,,,,,,,,,,,,,,,,,,,,,,,,,0,0,0,0,0
2.7016,1783967066.2750,1,1,5.0000,-0.0000,1.42243,-0.00399,-2.63160,1.06482,1.57080,0.11675,-0.12763,-0.48151,0.03577,,,,,,,,,,,,,,,,,,,,,,,,,,0,0,0,0,0
2.7032,1783967066.2766,1,1,5.0000,-0.0000,1.42243,-0.00399,-2.63160,1.06482,1.57080,0.11675,-0.12763,-0.48151,0.03577,,,,,,,,,,,,,,,,,,,,,,,,,,0,0,0,0,0
2.7036,1783967066.2770,1,1,5.0000,-0.0000,1.42243,-0.00399,-2.63160,1.06482,1.57080,0.11675,-0.12763,-0.48151,0.03577,,,,,,,,,,,,,,,,,,,,,,,,,,0,0,0,0,0
2.7039,1783967066.2773,1,1,5.0000,-0.0000,1.42243,-0.00399,-2.63160,1.06482,1.57080,0.11675,-0.12763,-0.48151,0.03577,,,,,,,,,,,,,,,,,,,,,,,,,,0,0,0,0,0
2.7142,1783967066.2877,1,1,5.0000,-0.0000,1.42243,-0.00400,-2.63160,1.06482,1.57080,0.11675,-0.12763,-0.48151,0.03577,,,,,,,,,,,,,,,,,,,,,,,,,,0,0,0,0,0
2.7178,1783967066.2912,1,1,5.0000,-0.0000,1.42243,-0.00400,-2.63161,1.06483,1.57080,0.11675,-0.12763,-0.48151,0.03577,,,,,,,,,,,,,,,,,,,,,,,,,,0,0,0,0,0
2.7182,1783967066.2916,1,1,5.0000,-0.0000,1.42243,-0.00400,-2.63161,1.06483,1.57080,0.11675,-0.12763,-0.48151,0.03577,,,,,,,,,,,,,,,,,,,,,,,,,,0,0,0,0,0
2.7278,1783967066.3012,1,1,5.0000,-0.0000,1.42243,-0.00402,-2.63162,1.06486,1.57080,0.11675,-0.12763,-0.48150,0.03576,,,,,,,,,,,,,,,,,,,,,,,,,,0,0,0,0,0
2.7296,1783967066.3030,1,1,5.0000,-0.0000,1.42243,-0.00402,-2.63162,1.06486,1.57080,0.11675,-0.12763,-0.48150,0.03576,,,,,,,,,,,,,,,,,,,,,,,,,,0,0,0,0,0
2.7302,1783967066.3036,1,1,5.0000,-0.0000,1.42243,-0.00402,-2.63162,1.06486,1.57080,0.11675,-0.12763,-0.48150,0.03576,,,,,,,,,,,,,,,,,,,,,,,,,,0,0,0,0,0
2.7310,1783967066.3044,1,1,5.0000,-0.0000,1.42243,-0.00403,-2.63163,1.06487,1.57080,0.11675,-0.12763,-0.48150,0.03575,,,,,,,,,,,,,,,,,,,,,,,,,,0,0,0,0,0
2.7328,1783967066.3063,1,1,5.0000,-0.0000,1.42243,-0.00403,-2.63163,1.06487,1.57080,0.11675,-0.12763,-0.48150,0.03575,,,,,,,,,,,,,,,,,,,,,,,,,,0,0,0,0,0
2.7376,1783967066.3111,1,1,5.0000,-0.0000,1.42243,-0.00403,-2.63163,1.06487,1.57080,0.11675,-0.12763,-0.48150,0.03575,,,,,,,,,,,,,,,,,,,,,,,,,,0,0,0,0,0
2.7391,1783967066.3125,1,1,5.0000,-0.0000,1.42243,-0.00404,-2.63163,1.06487,1.57080,0.11675,-0.12763,-0.48150,0.03575,,,,,,,,,,,,,,,,,,,,,,,,,,0,0,0,0,0
2.7403,1783967066.3137,1,1,5.0000,-0.0000,1.42243,-0.00404,-2.63163,1.06487,1.57080,0.11675,-0.12763,-0.48150,0.03575,,,,,,,,,,,,,,,,,,,,,,,,,,0,0,0,0,0
2.7451,1783967066.3186,1,1,5.0000,-0.0000,1.42243,-0.00404,-2.63163,1.06488,1.57080,0.11675,-0.12763,-0.48150,0.03575,,,,,,,,,,,,,,,,,,,,,,,,,,0,0,0,0,0
2.7610,1783967066.3345,1,1,5.0000,-0.0000,1.42243,-0.00409,-2.63167,1.06493,1.57080,0.11675,-0.12763,-0.48148,0.03572,,,,,,,,,,,,,,,,,,,,,,,,,,0,0,0,0,0
2.7783,1783967066.3517,1,1,5.0000,-0.0000,1.42243,-0.00414,-2.63169,1.06500,1.57080,0.11675,-0.12763,-0.48147,0.03570,,,,,,,,,,,,,,,,,,,,,,,,,,0,0,0,0,0
2.7812,1783967066.3546,1,1,5.0000,-0.0000,1.42243,-0.00417,-2.63170,1.06503,1.57080,0.11675,-0.12764,-0.48147,0.03569,,,,,,,,,,,,,,,,,,,,,,,,,,0,0,0,0,0
2.7823,1783967066.3557,1,1,5.0000,-0.0000,1.42243,-0.00417,-2.63170,1.06503,1.57080,0.11675,-0.12764,-0.48147,0.03569,,,,,,,,,,,,,,,,,,,,,,,,,,0,0,0,0,0
2.7825,1783967066.3560,1,1,5.0000,-0.0000,1.42243,-0.00417,-2.63170,1.06503,1.57080,0.11675,-0.12764,-0.48147,0.03569,,,,,,,,,,,,,,,,,,,,,,,,,,0,0,0,0,0
2.7889,1783967066.3624,1,1,5.0000,-0.0000,1.42243,-0.00424,-2.63173,1.06512,1.57080,0.11675,-0.12764,-0.48146,0.03566,,,,,,,,,,,,,,,,,,,,,,,,,,0,0,0,0,0
2.7952,1783967066.3687,1,1,5.0000,-0.0000,1.42243,-0.00424,-2.63173,1.06512,1.57080,0.11675,-0.12764,-0.48146,0.03566,,,,,,,,,,,,,,,,,,,,,,,,,,0,0,0,0,0
2.7993,1783967066.3727,1,1,5.0000,-0.0000,1.42243,-0.00426,-2.63173,1.06514,1.57080,0.11675,-0.12764,-0.48146,0.03565,,,,,,,,,,,,,,,,,,,,,,,,,,0,0,0,0,0
2.8011,1783967066.3746,1,1,5.0000,-0.0000,1.42243,-0.00426,-2.63173,1.06514,1.57080,0.11675,-0.12764,-0.48146,0.03565,,,,,,,,,,,,,,,,,,,,,,,,,,0,0,0,0,0
2.8014,1783967066.3749,1,1,5.0000,-0.0000,1.42243,-0.00426,-2.63173,1.06514,1.57080,0.11675,-0.12764,-0.48146,0.03565,,,,,,,,,,,,,,,,,,,,,,,,,,0,0,0,0,0
2.8018,1783967066.3752,1,1,5.0000,-0.0000,1.42243,-0.00426,-2.63173,1.06514,1.57080,0.11675,-0.12764,-0.48146,0.03565,,,,,,,,,,,,,,,,,,,,,,,,,,0,0,0,0,0
2.8021,1783967066.3755,1,1,5.0000,-0.0000,1.42243,-0.00426,-2.63173,1.06514,1.57080,0.11675,-0.12764,-0.48146,0.03565,,,,,,,,,,,,,,,,,,,,,,,,,,0,0,0,0,0
2.8023,1783967066.3758,1,1,5.0000,-0.0000,1.42243,-0.00426,-2.63173,1.06514,1.57080,0.11675,-0.12764,-0.48146,0.03565,,,,,,,,,,,,,,,,,,,,,,,,,,0,0,0,0,0
2.8084,1783967066.3819,1,1,5.0000,-0.0000,1.42243,-0.00431,-2.63175,1.06521,1.57080,0.11675,-0.12764,-0.48145,0.03563,,,,,,,,,,,,,,,,,,,,,,,,,,0,0,0,0,0
2.8193,1783967066.3927,1,1,5.0000,-0.0000,1.42243,-0.00445,-2.63178,1.06537,1.57080,0.11675,-0.12764,-0.48145,0.03559,,,,,,,,,,,,,,,,,,,,,,,,,,0,0,0,0,0
2.8306,1783967066.4040,1,1,5.0000,-0.0000,1.42243,-0.00450,-2.63179,1.06543,1.57080,0.11675,-0.12764,-0.48145,0.03557,,,,,,,,,,,,,,,,,,,,,,,,,,0,0,0,0,0
2.8391,1783967066.4125,1,1,5.0000,-0.0000,1.42243,-0.00455,-2.63180,1.06549,1.57080,0.11675,-0.12764,-0.48145,0.03555,,,,,,,,,,,,,,,,,,,,,,,,,,0,0,0,0,0
2.8577,1783967066.4312,1,1,5.0000,-0.0000,1.42242,-0.00471,-2.63183,1.06568,1.57080,0.11675,-0.12764,-0.48146,0.03550,,,,,,,,,,,,,,,,,,,,,,,,,,0,0,0,0,0
2.8591,1783967066.4325,1,1,5.0000,-0.0000,1.42242,-0.00471,-2.63183,1.06568,1.57080,0.11675,-0.12764,-0.48146,0.03550,,,,,,,,,,,,,,,,,,,,,,,,,,0,0,0,0,0
2.8674,1783967066.4409,1,1,5.0000,-0.0000,1.42242,-0.00473,-2.63183,1.06570,1.57080,0.11675,-0.12764,-0.48146,0.03549,,,,,,,,,,,,,,,,,,,,,,,,,,0,0,0,0,0
2.8679,1783967066.4413,1,1,5.0000,-0.0000,1.42242,-0.00473,-2.63183,1.06570,1.57080,0.11675,-0.12764,-0.48146,0.03549,,,,,,,,,,,,,,,,,,,,,,,,,,0,0,0,0,0
2.8942,1783967066.4676,1,1,5.0000,-0.0000,1.42242,-0.00493,-2.63185,1.06595,1.57080,0.11675,-0.12763,-0.48147,0.03543,,,,,,,,,,,,,,,,,,,,,,,,,,0,0,0,0,0
2.9105,1783967066.4839,1,1,5.0000,-0.0000,1.42242,-0.00509,-2.63187,1.06615,1.57080,0.11675,-0.12763,-0.48149,0.03539,,,,,,,,,,,,,,,,,,,,,,,,,,0,0,0,0,0
2.9112,1783967066.4847,1,1,5.0000,-0.0000,1.42242,-0.00513,-2.63187,1.06620,1.57080,0.11675,-0.12763,-0.48149,0.03538,,,,,,,,,,,,,,,,,,,,,,,,,,0,0,0,0,0
2.9115,1783967066.4849,1,1,5.0000,-0.0000,1.42242,-0.00513,-2.63187,1.06620,1.57080,0.11675,-0.12763,-0.48149,0.03538,,,,,,,,,,,,,,,,,,,,,,,,,,0,0,0,0,0
2.9193,1783967066.4927,1,1,5.0000,-0.0000,1.42242,-0.00518,-2.63187,1.06626,1.57080,0.11675,-0.12763,-0.48150,0.03537,,,,,,,,,,,,,,,,,,,,,,,,,,0,0,0,0,0
2.9231,1783967066.4966,1,1,5.0000,-0.0000,1.42242,-0.00518,-2.63187,1.06626,1.57080,0.11675,-0.12763,-0.48150,0.03537,,,,,,,,,,,,,,,,,,,,,,,,,,0,0,0,0,0
2.9235,1783967066.4969,1,1,5.0000,-0.0000,1.42242,-0.00518,-2.63187,1.06626,1.57080,0.11675,-0.12763,-0.48150,0.03537,,,,,,,,,,,,,,,,,,,,,,,,,,0,0,0,0,0
2.9280,1783967066.5015,1,1,5.0000,-0.0000,1.42242,-0.00518,-2.63187,1.06626,1.57080,0.11675,-0.12763,-0.48150,0.03537,,,,,,,,,,,,,,,,,,,,,,,,,,0,0,0,0,0
2.9418,1783967066.5153,1,1,5.0000,-0.0000,1.42242,-0.00518,-2.63187,1.06626,1.57080,0.11675,-0.12763,-0.48150,0.03537,,,,,,,,,,,,,,,,,,,,,,,,,,0,0,0,0,0
2.9479,1783967066.5214,1,1,5.0000,-0.0000,1.42242,-0.00518,-2.63187,1.06626,1.57080,0.11675,-0.12763,-0.48150,0.03537,,,,,,,,,,,,,,,,,,,,,,,,,,0,0,0,0,0
2.9483,1783967066.5218,1,1,5.0000,-0.0000,1.42242,-0.00518,-2.63187,1.06626,1.57080,0.11675,-0.12763,-0.48150,0.03537,,,,,,,,,,,,,,,,,,,,,,,,,,0,0,0,0,0
2.9940,1783967066.5675,1,1,5.0000,-0.0000,1.42242,-0.00518,-2.63187,1.06626,1.57080,0.11675,-0.12763,-0.48150,0.03537,,,,,,,,,,,,,,,,,,,,,,,,,,0,0,0,0,0
3.0043,1783967066.5777,1,1,5.0000,-0.0000,1.42242,-0.00518,-2.63187,1.06626,1.57080,0.11675,-0.12763,-0.48150,0.03537,,,,,,,,,,,,,,,,,,,,,,,,,,0,0,0,0,0
3.0063,1783967066.5797,1,1,5.0000,-0.0000,1.42242,-0.00518,-2.63187,1.06626,1.57080,0.11675,-0.12763,-0.48150,0.03537,,,,,,,,,,,,,,,,,,,,,,,,,,0,0,0,0,0
3.0067,1783967066.5801,1,1,5.0000,-0.0000,1.42242,-0.00518,-2.63187,1.06626,1.57080,0.11675,-0.12763,-0.48150,0.03537,,,,,,,,,,,,,,,,,,,,,,,,,,0,0,0,0,0
3.0095,1783967066.5829,1,1,5.0000,-0.0000,1.42242,-0.00518,-2.63187,1.06626,1.57080,0.11675,-0.12763,-0.48150,0.03537,,,,,,,,,,,,,,,,,,,,,,,,,,0,0,0,0,0
3.0146,1783967066.5880,1,1,5.0000,-0.0000,1.42242,-0.00518,-2.63187,1.06626,1.57080,0.11675,-0.12763,-0.48150,0.03537,,,,,,,,,,,,,,,,,,,,,,,,,,0,0,0,0,0
3.0312,1783967066.6046,1,1,5.0000,-0.0000,1.42242,-0.00518,-2.63187,1.06626,1.57080,0.11675,-0.12763,-0.48150,0.03537,,,,,,,,,,,,,,,,,,,,,,,,,,0,0,0,0,0
3.0369,1783967066.6104,1,1,5.0000,-0.0000,1.42242,-0.00518,-2.63187,1.06626,1.57080,0.11675,-0.12763,-0.48150,0.03537,,,,,,,,,,,,,,,,,,,,,,,,,,0,0,0,0,0
3.0413,1783967066.6147,1,1,5.0000,-0.0000,1.42242,-0.00518,-2.63187,1.06626,1.57080,0.11675,-0.12763,-0.48150,0.03537,,,,,,,,,,,,,,,,,,,,,,,,,,0,0,0,0,0
3.0417,1783967066.6151,1,1,5.0000,-0.0000,1.42242,-0.00518,-2.63187,1.06626,1.57080,0.11675,-0.12763,-0.48150,0.03537,,,,,,,,,,,,,,,,,,,,,,,,,,0,0,0,0,0
3.0497,1783967066.6231,1,1,5.0000,-0.0000,1.42242,-0.00518,-2.63187,1.06626,1.57080,0.11675,-0.12763,-0.48150,0.03537,,,,,,,,,,,,,,,,,,,,,,,,,,0,0,0,0,0
3.0501,1783967066.6235,1,1,5.0000,-0.0000,1.42242,-0.00518,-2.63187,1.06626,1.57080,0.11675,-0.12763,-0.48150,0.03537,,,,,,,,,,,,,,,,,,,,,,,,,,0,0,0,0,0
3.0564,1783967066.6298,1,1,5.0000,-0.0000,1.42242,-0.00518,-2.63187,1.06626,1.57080,0.11675,-0.12763,-0.48150,0.03537,,,,,,,,,,,,,,,,,,,,,,,,,,0,0,0,0,0
3.0567,1783967066.6301,1,1,5.0000,-0.0000,1.42242,-0.00518,-2.63187,1.06626,1.57080,0.11675,-0.12763,-0.48150,0.03537,,,,,,,,,,,,,,,,,,,,,,,,,,0,0,0,0,0
3.0667,1783967066.6401,1,1,5.0000,-0.0000,1.42242,-0.00518,-2.63187,1.06626,1.57080,0.11675,-0.12763,-0.48150,0.03537,,,,,,,,,,,,,,,,,,,,,,,,,,0,0,0,0,0
3.0768,1783967066.6502,1,1,5.0000,-0.0000,1.42242,-0.00518,-2.63187,1.06626,1.57080,0.11675,-0.12763,-0.48150,0.03537,,,,,,,,,,,,,,,,,,,,,,,,,,0,0,0,0,0
3.0896,1783967066.6630,1,1,5.0000,-0.0000,1.42242,-0.00518,-2.63187,1.06626,1.57080,0.11675,-0.12763,-0.48150,0.03537,,,,,,,,,,,,,,,,,,,,,,,,,,0,0,0,0,0
3.0976,1783967066.6710,1,1,5.0000,-0.0000,1.42242,-0.00518,-2.63187,1.06626,1.57080,0.11675,-0.12763,-0.48150,0.03537,,,,,,,,,,,,,,,,,,,,,,,,,,0,0,0,0,0
3.1102,1783967066.6836,1,1,5.0000,-0.0000,1.42242,-0.00518,-2.63187,1.06626,1.57080,0.11675,-0.12763,-0.48150,0.03537,,,,,,,,,,,,,,,,,,,,,,,,,,0,0,0,0,0
3.1234,1783967066.6968,1,1,5.0000,-0.0000,1.42242,-0.00518,-2.63187,1.06626,1.57080,0.11675,-0.12763,-0.48150,0.03537,,,,,,,,,,,,,,,,,,,,,,,,,,0,0,0,0,0
3.1264,1783967066.6998,1,1,5.0000,-0.0000,1.42242,-0.00518,-2.63187,1.06626,1.57080,0.11675,-0.12763,-0.48150,0.03537,,,,,,,,,,,,,,,,,,,,,,,,,,0,0,0,0,0
3.1268,1783967066.7003,1,1,5.0000,-0.0000,1.42242,-0.00518,-2.63187,1.06626,1.57080,0.11675,-0.12763,-0.48150,0.03537,,,,,,,,,,,,,,,,,,,,,,,,,,0,0,0,0,0
3.1365,1783967066.7099,1,1,5.0000,-0.0000,1.42242,-0.00518,-2.63187,1.06627,1.57080,0.11675,-0.12763,-0.48150,0.03537,,,,,,,,,,,,,,,,,,,,,,,,,,0,0,0,0,0
3.1519,1783967066.7253,1,1,5.0000,-0.0000,1.42242,-0.00520,-2.63188,1.06630,1.57080,0.11675,-0.12763,-0.48150,0.03536,,,,,,,,,,,,,,,,,,,,,,,,,,0,0,0,0,0
3.1576,1783967066.7311,1,1,5.0000,-0.0000,1.42242,-0.00520,-2.63189,1.06630,1.57080,0.11675,-0.12763,-0.48150,0.03536,,,,,,,,,,,,,,,,,,,,,,,,,,0,0,0,0,0
3.1712,1783967066.7447,1,1,5.0000,-0.0000,1.42242,-0.00526,-2.63193,1.06637,1.57080,0.11675,-0.12763,-0.48148,0.03532,,,,,,,,,,,,,,,,,,,,,,,,,,0,0,0,0,0
3.1715,1783967066.7449,1,1,5.0000,-0.0000,1.42242,-0.00526,-2.63193,1.06637,1.57080,0.11675,-0.12763,-0.48148,0.03532,,,,,,,,,,,,,,,,,,,,,,,,,,0,0,0,0,0
3.1838,1783967066.7572,1,1,5.0000,-0.0000,1.42242,-0.00531,-2.63197,1.06642,1.57080,0.11675,-0.12763,-0.48146,0.03530,,,,,,,,,,,,,,,,,,,,,,,,,,0,0,0,0,0
3.1842,1783967066.7577,1,1,5.0000,-0.0000,1.42242,-0.00531,-2.63197,1.06642,1.57080,0.11675,-0.12763,-0.48146,0.03530,,,,,,,,,,,,,,,,,,,,,,,,,,0,0,0,0,0
3.1883,1783967066.7617,1,1,5.0000,-0.0000,1.42242,-0.00531,-2.63197,1.06643,1.57080,0.11675,-0.12763,-0.48145,0.03529,,,,,,,,,,,,,,,,,,,,,,,,,,0,0,0,0,0
3.2207,1783967066.7942,1,1,5.0000,-0.0000,1.42242,-0.00544,-2.63202,1.06659,1.57080,0.11675,-0.12764,-0.48144,0.03524,,,,,,,,,,,,,,,,,,,,,,,,,,0,0,0,0,0
3.2353,1783967066.8088,1,1,5.0000,-0.0000,1.42242,-0.00555,-2.63204,1.06672,1.57080,0.11675,-0.12764,-0.48144,0.03520,,,,,,,,,,,,,,,,,,,,,,,,,,0,0,0,0,0
3.2411,1783967066.8146,1,1,5.0000,-0.0000,1.42242,-0.00559,-2.63205,1.06677,1.57080,0.11675,-0.12764,-0.48144,0.03519,,,,,,,,,,,,,,,,,,,,,,,,,,0,0,0,0,0
3.2442,1783967066.8177,1,1,5.0000,-0.0000,1.42242,-0.00559,-2.63205,1.06677,1.57080,0.11675,-0.12764,-0.48144,0.03519,,,,,,,,,,,,,,,,,,,,,,,,,,0,0,0,0,0
3.2591,1783967066.8326,1,1,5.0000,-0.0000,1.42242,-0.00568,-2.63206,1.06688,1.57080,0.11675,-0.12764,-0.48144,0.03516,,,,,,,,,,,,,,,,,,,,,,,,,,0,0,0,0,0
3.2602,1783967066.8336,1,1,5.0000,-0.0000,1.42242,-0.00568,-2.63206,1.06688,1.57080,0.11675,-0.12764,-0.48144,0.03516,,,,,,,,,,,,,,,,,,,,,,,,,,0,0,0,0,0
3.2605,1783967066.8340,1,1,5.0000,-0.0000,1.42242,-0.00568,-2.63206,1.06688,1.57080,0.11675,-0.12764,-0.48144,0.03516,,,,,,,,,,,,,,,,,,,,,,,,,,0,0,0,0,0
3.2701,1783967066.8435,1,1,5.0000,-0.0000,1.42242,-0.00578,-2.63208,1.06699,1.57080,0.11675,-0.12763,-0.48145,0.03513,,,,,,,,,,,,,,,,,,,,,,,,,,0,0,0,0,0
3.2872,1783967066.8607,1,1,5.0000,-0.0000,1.42242,-0.00587,-2.63209,1.06711,1.57080,0.11675,-0.12763,-0.48145,0.03510,,,,,,,,,,,,,,,,,,,,,,,,,,0,0,0,0,0
3.2917,1783967066.8651,1,1,5.0000,-0.0000,1.42242,-0.00590,-2.63210,1.06714,1.57080,0.11675,-0.12763,-0.48146,0.03509,,,,,,,,,,,,,,,,,,,,,,,,,,0,0,0,0,0
3.2922,1783967066.8656,1,1,5.0000,-0.0000,1.42242,-0.00590,-2.63210,1.06714,1.57080,0.11675,-0.12763,-0.48146,0.03509,,,,,,,,,,,,,,,,,,,,,,,,,,0,0,0,0,0
3.3014,1783967066.8748,1,1,5.0000,-0.0000,1.42242,-0.00598,-2.63211,1.06724,1.57080,0.11675,-0.12763,-0.48146,0.03507,,,,,,,,,,,,,,,,,,,,,,,,,,0,0,0,0,0
3.3073,1783967066.8808,1,1,5.0000,-0.0000,1.42242,-0.00602,-2.63211,1.06729,1.57080,0.11675,-0.12763,-0.48146,0.03506,,,,,,,,,,,,,,,,,,,,,,,,,,0,0,0,0,0
3.3077,1783967066.8811,1,1,5.0000,-0.0000,1.42242,-0.00602,-2.63211,1.06729,1.57080,0.11675,-0.12763,-0.48146,0.03506,,,,,,,,,,,,,,,,,,,,,,,,,,0,0,0,0,0
3.3194,1783967066.8928,1,1,5.0000,-0.0000,1.42242,-0.00606,-2.63211,1.06734,1.57080,0.11675,-0.12763,-0.48147,0.03505,,,,,,,,,,,,,,,,,,,,,,,,,,0,0,0,0,0
3.3285,1783967066.9019,1,1,5.0000,-0.0000,1.42242,-0.00611,-2.63211,1.06740,1.57080,0.11675,-0.12763,-0.48148,0.03504,,,,,,,,,,,,,,,,,,,,,,,,,,0,0,0,0,0
3.3402,1783967066.9137,1,1,5.0000,-0.0000,1.42242,-0.00621,-2.63210,1.06753,1.57080,0.11675,-0.12763,-0.48151,0.03502,,,,,,,,,,,,,,,,,,,,,,,,,,0,0,0,0,0
3.3543,1783967066.9277,1,1,5.0000,-0.0000,1.42242,-0.00630,-2.63208,1.06765,1.57080,0.11675,-0.12762,-0.48154,0.03501,,,,,,,,,,,,,,,,,,,,,,,,,,0,0,0,0,0
3.3575,1783967066.9309,1,1,5.0000,-0.0000,1.42242,-0.00633,-2.63207,1.06768,1.57080,0.11675,-0.12762,-0.48155,0.03501,,,,,,,,,,,,,,,,,,,,,,,,,,0,0,0,0,0
3.3580,1783967066.9314,1,1,5.0000,-0.0000,1.42242,-0.00633,-2.63207,1.06768,1.57080,0.11675,-0.12762,-0.48155,0.03501,,,,,,,,,,,,,,,,,,,,,,,,,,0,0,0,0,0
3.3690,1783967066.9425,1,1,5.0000,-0.0000,1.42242,-0.00637,-2.63204,1.06773,1.57080,0.11675,-0.12761,-0.48158,0.03501,,,,,,,,,,,,,,,,,,,,,,,,,,0,0,0,0,0
3.3818,1783967066.9553,1,1,5.0000,-0.0000,1.42242,-0.00637,-2.63204,1.06773,1.57080,0.11675,-0.12761,-0.48158,0.03501,,,,,,,,,,,,,,,,,,,,,,,,,,0,0,0,0,0
3.3912,1783967066.9647,1,1,5.0000,-0.0000,1.42242,-0.00637,-2.63204,1.06773,1.57080,0.11675,-0.12761,-0.48158,0.03501,,,,,,,,,,,,,,,,,,,,,,,,,,0,0,0,0,0
3.3972,1783967066.9706,1,1,5.0000,-0.0000,1.42242,-0.00637,-2.63204,1.06773,1.57080,0.11675,-0.12761,-0.48158,0.03501,,,,,,,,,,,,,,,,,,,,,,,,,,0,0,0,0,0
3.4096,1783967066.9830,1,1,5.0000,-0.0000,1.42242,-0.00637,-2.63204,1.06773,1.57080,0.11675,-0.12761,-0.48158,0.03501,,,,,,,,,,,,,,,,,,,,,,,,,,0,0,0,0,0
3.4193,1783967066.9927,1,1,5.0000,-0.0000,1.42242,-0.00637,-2.63204,1.06773,1.57080,0.11675,-0.12761,-0.48158,0.03501,,,,,,,,,,,,,,,,,,,,,,,,,,0,0,0,0,0
3.4304,1783967067.0038,1,1,5.0000,-0.0000,1.42242,-0.00637,-2.63204,1.06773,1.57080,0.11675,-0.12761,-0.48158,0.03501,,,,,,,,,,,,,,,,,,,,,,,,,,0,0,0,0,0
3.4312,1783967067.0046,1,1,5.0000,-0.0000,1.42242,-0.00637,-2.63204,1.06773,1.57080,0.11675,-0.12761,-0.48158,0.03501,,,,,,,,,,,,,,,,,,,,,,,,,,0,0,0,0,0
3.4433,1783967067.0167,1,1,5.0000,-0.0000,1.42242,-0.00637,-2.63204,1.06773,1.57080,0.11675,-0.12761,-0.48158,0.03501,,,,,,,,,,,,,,,,,,,,,,,,,,0,0,0,0,0
3.4435,1783967067.0170,1,1,5.0000,-0.0000,1.42242,-0.00637,-2.63204,1.06773,1.57080,0.11675,-0.12761,-0.48158,0.03501,,,,,,,,,,,,,,,,,,,,,,,,,,0,0,0,0,0
3.4473,1783967067.0207,1,1,5.0000,-0.0000,1.42242,-0.00637,-2.63204,1.06773,1.57080,0.11675,-0.12761,-0.48158,0.03501,,,,,,,,,,,,,,,,,,,,,,,,,,0,0,0,0,0
3.4477,1783967067.0211,1,1,5.0000,-0.0000,1.42242,-0.00637,-2.63204,1.06773,1.57080,0.11675,-0.12761,-0.48158,0.03501,,,,,,,,,,,,,,,,,,,,,,,,,,0,0,0,0,0
3.4581,1783967067.0315,1,1,5.0000,-0.0000,1.42242,-0.00637,-2.63204,1.06773,1.57080,0.11675,-0.12761,-0.48158,0.03501,,,,,,,,,,,,,,,,,,,,,,,,,,0,0,0,0,0
3.4671,1783967067.0405,1,1,5.0000,-0.0000,1.42242,-0.00637,-2.63204,1.06773,1.57080,0.11675,-0.12761,-0.48158,0.03501,,,,,,,,,,,,,,,,,,,,,,,,,,0,0,0,0,0
3.4769,1783967067.0504,1,1,5.0000,-0.0000,1.42242,-0.00637,-2.63204,1.06773,1.57080,0.11675,-0.12761,-0.48158,0.03501,,,,,,,,,,,,,,,,,,,,,,,,,,0,0,0,0,0
3.4882,1783967067.0616,1,1,5.0000,-0.0000,1.42242,-0.00637,-2.63204,1.06773,1.57080,0.11675,-0.12761,-0.48158,0.03501,,,,,,,,,,,,,,,,,,,,,,,,,,0,0,0,0,0
3.4997,1783967067.0731,1,1,5.0000,-0.0000,1.42242,-0.00637,-2.63204,1.06773,1.57080,0.11675,-0.12761,-0.48158,0.03501,,,,,,,,,,,,,,,,,,,,,,,,,,0,0,0,0,0
3.5129,1783967067.0864,1,1,5.0000,-0.0000,1.42242,-0.00637,-2.63204,1.06773,1.57080,0.11675,-0.12761,-0.48158,0.03501,,,,,,,,,,,,,,,,,,,,,,,,,,0,0,0,0,0
3.5176,1783967067.0910,1,1,5.0000,-0.0000,1.42242,-0.00637,-2.63204,1.06773,1.57080,0.11675,-0.12761,-0.48158,0.03501,,,,,,,,,,,,,,,,,,,,,,,,,,0,0,0,0,0
3.6592,1783967067.2327,1,1,5.0000,-0.0000,1.42242,-0.00674,-2.63228,1.06817,1.57080,0.11675,-0.12763,-0.48146,0.03481,,,,,,,,,,,,,,,,,,,,,,,,,,0,0,0,0,0
3.6601,1783967067.2335,1,1,5.0000,-0.0000,1.42242,-0.00674,-2.63228,1.06817,1.57080,0.11675,-0.12763,-0.48146,0.03481,,,,,,,,,,,,,,,,,,,,,,,,,,0,0,0,0,0
3.6635,1783967067.2369,1,1,5.0000,-0.0000,1.42242,-0.00678,-2.63229,1.06822,1.57080,0.11675,-0.12763,-0.48145,0.03480,,,,,,,,,,,,,,,,,,,,,,,,,,0,0,0,0,0
3.6640,1783967067.2374,1,1,5.0000,-0.0000,1.42242,-0.00678,-2.63229,1.06822,1.57080,0.11675,-0.12763,-0.48145,0.03480,,,,,,,,,,,,,,,,,,,,,,,,,,0,0,0,0,0
3.6647,1783967067.2381,1,1,5.0000,-0.0000,1.42242,-0.00678,-2.63229,1.06822,1.57080,0.11675,-0.12763,-0.48145,0.03480,,,,,,,,,,,,,,,,,,,,,,,,,,0,0,0,0,0
3.6651,1783967067.2386,1,1,5.0000,-0.0000,1.42242,-0.00678,-2.63229,1.06822,1.57080,0.11675,-0.12763,-0.48145,0.03480,,,,,,,,,,,,,,,,,,,,,,,,,,0,0,0,0,0
3.6697,1783967067.2432,1,1,5.0000,-0.0000,1.42242,-0.00678,-2.63229,1.06822,1.57080,0.11675,-0.12763,-0.48145,0.03480,,,,,,,,,,,,,,,,,,,,,,,,,,0,0,0,0,0
3.6701,1783967067.2435,1,1,5.0000,-0.0000,1.42242,-0.00678,-2.63229,1.06822,1.57080,0.11675,-0.12763,-0.48145,0.03480,,,,,,,,,,,,,,,,,,,,,,,,,,0,0,0,0,0
3.6706,1783967067.2441,1,1,5.0000,-0.0000,1.42242,-0.00678,-2.63229,1.06822,1.57080,0.11675,-0.12763,-0.48145,0.03480,,,,,,,,,,,,,,,,,,,,,,,,,,0,0,0,0,0
3.6711,1783967067.2446,1,1,5.0000,-0.0000,1.42242,-0.00679,-2.63229,1.06823,1.57080,0.11675,-0.12763,-0.48145,0.03479,,,,,,,,,,,,,,,,,,,,,,,,,,0,0,0,0,0
3.6718,1783967067.2453,1,1,5.0000,-0.0000,1.42242,-0.00679,-2.63229,1.06823,1.57080,0.11675,-0.12763,-0.48145,0.03479,,,,,,,,,,,,,,,,,,,,,,,,,,0,0,0,0,0
3.6721,1783967067.2455,1,1,5.0000,-0.0000,1.42242,-0.00679,-2.63229,1.06823,1.57080,0.11675,-0.12763,-0.48145,0.03479,,,,,,,,,,,,,,,,,,,,,,,,,,0,0,0,0,0
3.6793,1783967067.2527,1,1,5.0000,-0.0000,1.42242,-0.00683,-2.63230,1.06828,1.57080,0.11675,-0.12763,-0.48145,0.03478,,,,,,,,,,,,,,,,,,,,,,,,,,0,0,0,0,0
3.6809,1783967067.2544,1,1,5.0000,-0.0000,1.42242,-0.00683,-2.63230,1.06828,1.57080,0.11675,-0.12763,-0.48145,0.03478,,,,,,,,,,,,,,,,,,,,,,,,,,0,0,0,0,0
3.6813,1783967067.2547,1,1,5.0000,-0.0000,1.42242,-0.00683,-2.63230,1.06828,1.57080,0.11675,-0.12763,-0.48145,0.03478,,,,,,,,,,,,,,,,,,,,,,,,,,0,0,0,0,0
3.6816,1783967067.2551,1,1,5.0000,-0.0000,1.42242,-0.00683,-2.63230,1.06828,1.57080,0.11675,-0.12763,-0.48145,0.03478,,,,,,,,,,,,,,,,,,,,,,,,,,0,0,0,0,0
3.6880,1783967067.2614,1,1,5.0000,-0.0000,1.42242,-0.00690,-2.63232,1.06837,1.57080,0.11675,-0.12763,-0.48146,0.03476,,,,,,,,,,,,,,,,,,,,,,,,,,0,0,0,0,0
3.7130,1783967067.2864,1,1,5.0000,-0.0000,1.42242,-0.00704,-2.63234,1.06853,1.57080,0.11675,-0.12763,-0.48146,0.03471,,,,,,,,,,,,,,,,,,,,,,,,,,0,0,0,0,0
3.7201,1783967067.2935,1,1,5.0000,-0.0000,1.42242,-0.00714,-2.63235,1.06866,1.57080,0.11675,-0.12763,-0.48147,0.03468,,,,,,,,,,,,,,,,,,,,,,,,,,0,0,0,0,0
3.7214,1783967067.2949,1,1,5.0000,-0.0000,1.42242,-0.00714,-2.63235,1.06866,1.57080,0.11675,-0.12763,-0.48147,0.03468,,,,,,,,,,,,,,,,,,,,,,,,,,0,0,0,0,0
3.7275,1783967067.3009,1,1,5.0000,-0.0000,1.42242,-0.00725,-2.63237,1.06880,1.57080,0.11675,-0.12763,-0.48147,0.03465,,,,,,,,,,,,,,,,,,,,,,,,,,0,0,0,0,0
3.7279,1783967067.3013,1,1,5.0000,-0.0000,1.42242,-0.00725,-2.63237,1.06880,1.57080,0.11675,-0.12763,-0.48147,0.03465,,,,,,,,,,,,,,,,,,,,,,,,,,0,0,0,0,0
3.7376,1783967067.3110,1,1,5.0000,-0.0000,1.42241,-0.00736,-2.63239,1.06893,1.57080,0.11675,-0.12763,-0.48148,0.03462,,,,,,,,,,,,,,,,,,,,,,,,,,0,0,0,0,0
3.7529,1783967067.3263,1,1,5.0000,-0.0000,1.42241,-0.00751,-2.63240,1.06911,1.57080,0.11675,-0.12762,-0.48149,0.03457,,,,,,,,,,,,,,,,,,,,,,,,,,0,0,0,0,0
3.7631,1783967067.3365,1,1,5.0000,-0.0000,1.42241,-0.00751,-2.63240,1.06911,1.57080,0.11675,-0.12762,-0.48149,0.03457,,,,,,,,,,,,,,,,,,,,,,,,,,0,0,0,0,0
3.7677,1783967067.3411,1,1,5.0000,-0.0000,1.42241,-0.00751,-2.63240,1.06911,1.57080,0.11675,-0.12762,-0.48149,0.03457,,,,,,,,,,,,,,,,,,,,,,,,,,0,0,0,0,0
3.7793,1783967067.3527,1,1,5.0000,-0.0000,1.42241,-0.00751,-2.63240,1.06911,1.57080,0.11675,-0.12762,-0.48149,0.03457,,,,,,,,,,,,,,,,,,,,,,,,,,0,0,0,0,0
3.7936,1783967067.3671,1,1,5.0000,-0.0000,1.42241,-0.00751,-2.63240,1.06911,1.57080,0.11675,-0.12762,-0.48149,0.03457,,,,,,,,,,,,,,,,,,,,,,,,,,0,0,0,0,0
3.7944,1783967067.3679,1,1,5.0000,-0.0000,1.42241,-0.00751,-2.63240,1.06911,1.57080,0.11675,-0.12762,-0.48149,0.03457,,,,,,,,,,,,,,,,,,,,,,,,,,0,0,0,0,0
3.8004,1783967067.3739,1,1,5.0000,-0.0000,1.42241,-0.00751,-2.63240,1.06911,1.57080,0.11675,-0.12762,-0.48149,0.03457,,,,,,,,,,,,,,,,,,,,,,,,,,0,0,0,0,0
3.8072,1783967067.3806,1,1,5.0000,-0.0000,1.42241,-0.00751,-2.63240,1.06911,1.57080,0.11675,-0.12762,-0.48149,0.03457,,,,,,,,,,,,,,,,,,,,,,,,,,0,0,0,0,0
3.8074,1783967067.3809,1,1,5.0000,-0.0000,1.42241,-0.00751,-2.63240,1.06911,1.57080,0.11675,-0.12762,-0.48149,0.03457,,,,,,,,,,,,,,,,,,,,,,,,,,0,0,0,0,0
3.8196,1783967067.3930,1,1,5.0000,-0.0000,1.42241,-0.00751,-2.63240,1.06911,1.57080,0.11675,-0.12762,-0.48149,0.03457,,,,,,,,,,,,,,,,,,,,,,,,,,0,0,0,0,0
3.8199,1783967067.3933,1,1,5.0000,-0.0000,1.42241,-0.00751,-2.63240,1.06911,1.57080,0.11675,-0.12762,-0.48149,0.03457,,,,,,,,,,,,,,,,,,,,,,,,,,0,0,0,0,0
3.8266,1783967067.4001,1,1,5.0000,-0.0000,1.42241,-0.00751,-2.63240,1.06911,1.57080,0.11675,-0.12762,-0.48149,0.03457,,,,,,,,,,,,,,,,,,,,,,,,,,0,0,0,0,0
3.8398,1783967067.4133,1,1,5.0000,-0.0000,1.42241,-0.00751,-2.63240,1.06911,1.57080,0.11675,-0.12762,-0.48149,0.03457,,,,,,,,,,,,,,,,,,,,,,,,,,0,0,0,0,0
3.8481,1783967067.4215,1,1,5.0000,-0.0000,1.42241,-0.00751,-2.63240,1.06911,1.57080,0.11675,-0.12762,-0.48149,0.03457,,,,,,,,,,,,,,,,,,,,,,,,,,0,0,0,0,0
3.8484,1783967067.4218,1,1,5.0000,-0.0000,1.42241,-0.00751,-2.63240,1.06911,1.57080,0.11675,-0.12762,-0.48149,0.03457,,,,,,,,,,,,,,,,,,,,,,,,,,0,0,0,0,0
3.8566,1783967067.4301,1,1,5.0000,-0.0000,1.42241,-0.00751,-2.63240,1.06911,1.57080,0.11675,-0.12762,-0.48149,0.03457,,,,,,,,,,,,,,,,,,,,,,,,,,0,0,0,0,0
3.8570,1783967067.4304,1,1,5.0000,-0.0000,1.42241,-0.00751,-2.63240,1.06911,1.57080,0.11675,-0.12762,-0.48149,0.03457,,,,,,,,,,,,,,,,,,,,,,,,,,0,0,0,0,0
3.8711,1783967067.4446,1,1,5.0000,-0.0000,1.42241,-0.00751,-2.63240,1.06911,1.57080,0.11675,-0.12762,-0.48149,0.03457,,,,,,,,,,,,,,,,,,,,,,,,,,0,0,0,0,0
3.8820,1783967067.4555,1,1,5.0000,-0.0000,1.42241,-0.00751,-2.63240,1.06911,1.57080,0.11675,-0.12762,-0.48149,0.03457,,,,,,,,,,,,,,,,,,,,,,,,,,0,0,0,0,0
3.8825,1783967067.4559,1,1,5.0000,-0.0000,1.42241,-0.00751,-2.63240,1.06911,1.57080,0.11675,-0.12762,-0.48149,0.03457,,,,,,,,,,,,,,,,,,,,,,,,,,0,0,0,0,0
3.8906,1783967067.4640,1,1,5.0000,-0.0000,1.42241,-0.00751,-2.63240,1.06911,1.57080,0.11675,-0.12762,-0.48149,0.03457,,,,,,,,,,,,,,,,,,,,,,,,,,0,0,0,0,0
3.8912,1783967067.4646,1,1,5.0000,-0.0000,1.42241,-0.00751,-2.63240,1.06911,1.57080,0.11675,-0.12762,-0.48149,0.03457,,,,,,,,,,,,,,,,,,,,,,,,,,0,0,0,0,0
3.8992,1783967067.4727,1,1,5.0000,-0.0000,1.42241,-0.00751,-2.63240,1.06911,1.57080,0.11675,-0.12762,-0.48149,0.03457,,,,,,,,,,,,,,,,,,,,,,,,,,0,0,0,0,0
3.9102,1783967067.4836,1,1,5.0000,-0.0000,1.42241,-0.00751,-2.63240,1.06911,1.57080,0.11675,-0.12762,-0.48149,0.03457,,,,,,,,,,,,,,,,,,,,,,,,,,0,0,0,0,0
3.9105,1783967067.4839,1,1,5.0000,-0.0000,1.42241,-0.00751,-2.63240,1.06911,1.57080,0.11675,-0.12762,-0.48149,0.03457,,,,,,,,,,,,,,,,,,,,,,,,,,0,0,0,0,0
3.9216,1783967067.4950,1,1,5.0000,-0.0000,1.42241,-0.00751,-2.63240,1.06911,1.57080,0.11675,-0.12762,-0.48149,0.03457,,,,,,,,,,,,,,,,,,,,,,,,,,0,0,0,0,0
3.9218,1783967067.4953,1,1,5.0000,-0.0000,1.42241,-0.00751,-2.63240,1.06911,1.57080,0.11675,-0.12762,-0.48149,0.03457,,,,,,,,,,,,,,,,,,,,,,,,,,0,0,0,0,0
3.9281,1783967067.5015,1,1,5.0000,-0.0000,1.42241,-0.00751,-2.63240,1.06911,1.57080,0.11675,-0.12762,-0.48149,0.03457,,,,,,,,,,,,,,,,,,,,,,,,,,0,0,0,0,0
3.9284,1783967067.5018,1,1,5.0000,-0.0000,1.42241,-0.00751,-2.63240,1.06911,1.57080,0.11675,-0.12762,-0.48149,0.03457,,,,,,,,,,,,,,,,,,,,,,,,,,0,0,0,0,0
3.9412,1783967067.5147,1,1,5.0000,-0.0000,1.42241,-0.00751,-2.63240,1.06911,1.57080,0.11675,-0.12762,-0.48149,0.03457,,,,,,,,,,,,,,,,,,,,,,,,,,0,0,0,0,0
3.9511,1783967067.5246,1,1,5.0000,-0.0000,1.42241,-0.00751,-2.63240,1.06911,1.57080,0.11675,-0.12762,-0.48149,0.03457,,,,,,,,,,,,,,,,,,,,,,,,,,0,0,0,0,0
3.9569,1783967067.5303,1,1,5.0000,-0.0000,1.42241,-0.00751,-2.63240,1.06911,1.57080,0.11675,-0.12762,-0.48149,0.03457,,,,,,,,,,,,,,,,,,,,,,,,,,0,0,0,0,0
3.9571,1783967067.5306,1,1,5.0000,-0.0000,1.42241,-0.00751,-2.63240,1.06911,1.57080,0.11675,-0.12762,-0.48149,0.03457,,,,,,,,,,,,,,,,,,,,,,,,,,0,0,0,0,0
3.9713,1783967067.5448,1,1,5.0000,-0.0000,1.42241,-0.00751,-2.63240,1.06912,1.57080,0.11675,-0.12762,-0.48149,0.03457,,,,,,,,,,,,,,,,,,,,,,,,,,0,0,0,0,0
3.9767,1783967067.5501,1,1,5.0000,-0.0000,1.42241,-0.00751,-2.63240,1.06912,1.57080,0.11675,-0.12762,-0.48149,0.03457,,,,,,,,,,,,,,,,,,,,,,,,,,0,0,0,0,0
3.9873,1783967067.5607,1,1,5.0000,-0.0000,1.42241,-0.00753,-2.63240,1.06915,1.57080,0.11675,-0.12762,-0.48150,0.03457,,,,,,,,,,,,,,,,,,,,,,,,,,0,0,0,0,0
3.9876,1783967067.5610,1,1,5.0000,-0.0000,1.42241,-0.00753,-2.63240,1.06915,1.57080,0.11675,-0.12762,-0.48150,0.03457,,,,,,,,,,,,,,,,,,,,,,,,,,0,0,0,0,0
3.9965,1783967067.5699,1,1,5.0000,-0.0000,1.42241,-0.00753,-2.63240,1.06915,1.57080,0.11675,-0.12762,-0.48150,0.03457,,,,,,,,,,,,,,,,,,,,,,,,,,0,0,0,0,0
4.0114,1783967067.5849,1,1,5.0000,-0.0000,1.42241,-0.00758,-2.63244,1.06921,1.57080,0.11675,-0.12763,-0.48148,0.03454,,,,,,,,,,,,,,,,,,,,,,,,,,0,0,0,0,0
4.0202,1783967067.5936,1,1,5.0000,-0.0000,1.42241,-0.00763,-2.63247,1.06926,1.57080,0.11675,-0.12763,-0.48147,0.03452,,,,,,,,,,,,,,,,,,,,,,,,,,0,0,0,0,0
4.0306,1783967067.6041,1,1,5.0000,-0.0000,1.42241,-0.00765,-2.63248,1.06929,1.57080,0.11675,-0.12763,-0.48146,0.03450,,,,,,,,,,,,,,,,,,,,,,,,,,0,0,0,0,0
4.0312,1783967067.6046,1,1,5.0000,-0.0000,1.42241,-0.00765,-2.63249,1.06930,1.57080,0.11675,-0.12763,-0.48146,0.03450,,,,,,,,,,,,,,,,,,,,,,,,,,0,0,0,0,0
4.0370,1783967067.6104,1,1,5.0000,-0.0000,1.42241,-0.00766,-2.63249,1.06931,1.57080,0.11675,-0.12763,-0.48146,0.03450,,,,,,,,,,,,,,,,,,,,,,,,,,0,0,0,0,0
4.0473,1783967067.6207,1,1,5.0000,-0.0000,1.42241,-0.00772,-2.63251,1.06937,1.57080,0.11675,-0.12763,-0.48145,0.03448,,,,,,,,,,,,,,,,,,,,,,,,,,0,0,0,0,0
4.0582,1783967067.6316,1,1,5.0000,-0.0000,1.42241,-0.00777,-2.63253,1.06943,1.57080,0.11675,-0.12763,-0.48144,0.03445,,,,,,,,,,,,,,,,,,,,,,,,,,0,0,0,0,0
4.0688,1783967067.6422,1,1,5.0000,-0.0000,1.42241,-0.00779,-2.63254,1.06945,1.57080,0.11675,-0.12763,-0.48144,0.03445,,,,,,,,,,,,,,,,,,,,,,,,,,0,0,0,0,0
4.0787,1783967067.6521,1,1,5.0000,-0.0000,1.42241,-0.00784,-2.63254,1.06951,1.57080,0.11675,-0.12763,-0.48144,0.03443,,,,,,,,,,,,,,,,,,,,,,,,,,0,0,0,0,0
4.0915,1783967067.6649,1,1,5.0000,-0.0000,1.42241,-0.00790,-2.63255,1.06958,1.57080,0.11675,-0.12763,-0.48144,0.03441,,,,,,,,,,,,,,,,,,,,,,,,,,0,0,0,0,0
4.0986,1783967067.6720,1,1,5.0000,-0.0000,1.42241,-0.00793,-2.63256,1.06962,1.57080,0.11675,-0.12763,-0.48144,0.03440,,,,,,,,,,,,,,,,,,,,,,,,,,0,0,0,0,0
4.1098,1783967067.6832,1,1,5.0000,-0.0000,1.42241,-0.00807,-2.63258,1.06979,1.57080,0.11675,-0.12763,-0.48145,0.03436,,,,,,,,,,,,,,,,,,,,,,,,,,0,0,0,0,0
4.1220,1783967067.6954,1,1,5.0000,-0.0000,1.42241,-0.00813,-2.63259,1.06986,1.57080,0.11675,-0.12763,-0.48145,0.03434,,,,,,,,,,,,,,,,,,,,,,,,,,0,0,0,0,0
4.1298,1783967067.7032,1,1,5.0000,-0.0000,1.42241,-0.00818,-2.63260,1.06991,1.57080,0.11675,-0.12763,-0.48146,0.03433,,,,,,,,,,,,,,,,,,,,,,,,,,0,0,0,0,0
4.1365,1783967067.7099,1,1,5.0000,-0.0000,1.42241,-0.00825,-2.63261,1.07000,1.57080,0.11675,-0.12763,-0.48146,0.03430,,,,,,,,,,,,,,,,,,,,,,,,,,0,0,0,0,0
4.1368,1783967067.7103,1,1,5.0000,-0.0000,1.42241,-0.00825,-2.63261,1.07000,1.57080,0.11675,-0.12763,-0.48146,0.03430,,,,,,,,,,,,,,,,,,,,,,,,,,0,0,0,0,0
4.1474,1783967067.7208,1,1,5.0000,-0.0000,1.42241,-0.00839,-2.63262,1.07018,1.57080,0.11675,-0.12763,-0.48147,0.03426,,,,,,,,,,,,,,,,,,,,,,,,,,0,0,0,0,0
4.1620,1783967067.7355,1,1,5.0000,-0.0000,1.42241,-0.00854,-2.63264,1.07036,1.57080,0.11675,-0.12762,-0.48148,0.03422,,,,,,,,,,,,,,,,,,,,,,,,,,0,0,0,0,0
4.1672,1783967067.7407,1,1,5.0000,-0.0000,1.42241,-0.00863,-2.63266,1.07047,1.57080,0.11675,-0.12762,-0.48149,0.03419,,,,,,,,,,,,,,,,,,,,,,,,,,0,0,0,0,0
4.1768,1783967067.7502,1,1,5.0000,-0.0000,1.42241,-0.00869,-2.63266,1.07056,1.57080,0.11675,-0.12762,-0.48149,0.03417,,,,,,,,,,,,,,,,,,,,,,,,,,0,0,0,0,0
4.1896,1783967067.7630,1,1,5.0000,-0.0000,1.42241,-0.00869,-2.63266,1.07056,1.57080,0.11675,-0.12762,-0.48149,0.03417,,,,,,,,,,,,,,,,,,,,,,,,,,0,0,0,0,0
4.1901,1783967067.7635,1,1,5.0000,-0.0000,1.42241,-0.00869,-2.63266,1.07056,1.57080,0.11675,-0.12762,-0.48149,0.03417,,,,,,,,,,,,,,,,,,,,,,,,,,0,0,0,0,0
4.1976,1783967067.7710,1,1,5.0000,-0.0000,1.42241,-0.00869,-2.63266,1.07056,1.57080,0.11675,-0.12762,-0.48149,0.03417,,,,,,,,,,,,,,,,,,,,,,,,,,0,0,0,0,0
4.1981,1783967067.7715,1,1,5.0000,-0.0000,1.42241,-0.00869,-2.63266,1.07056,1.57080,0.11675,-0.12762,-0.48149,0.03417,,,,,,,,,,,,,,,,,,,,,,,,,,0,0,0,0,0
4.2311,1783967067.8045,1,1,5.0000,-0.0000,1.42241,-0.00869,-2.63266,1.07056,1.57080,0.11675,-0.12762,-0.48149,0.03417,,,,,,,,,,,,,,,,,,,,,,,,,,0,0,0,0,0
4.2315,1783967067.8050,1,1,5.0000,-0.0000,1.42241,-0.00869,-2.63266,1.07056,1.57080,0.11675,-0.12762,-0.48149,0.03417,,,,,,,,,,,,,,,,,,,,,,,,,,0,0,0,0,0
4.2387,1783967067.8121,1,1,5.0000,-0.0000,1.42241,-0.00869,-2.63266,1.07056,1.57080,0.11675,-0.12762,-0.48149,0.03417,,,,,,,,,,,,,,,,,,,,,,,,,,0,0,0,0,0
4.2406,1783967067.8140,1,1,5.0000,-0.0000,1.42241,-0.00869,-2.63266,1.07056,1.57080,0.11675,-0.12762,-0.48149,0.03417,,,,,,,,,,,,,,,,,,,,,,,,,,0,0,0,0,0
4.2410,1783967067.8144,1,1,5.0000,-0.0000,1.42241,-0.00869,-2.63266,1.07056,1.57080,0.11675,-0.12762,-0.48149,0.03417,,,,,,,,,,,,,,,,,,,,,,,,,,0,0,0,0,0
4.2496,1783967067.8230,1,1,5.0000,-0.0000,1.42241,-0.00869,-2.63266,1.07056,1.57080,0.11675,-0.12762,-0.48149,0.03417,,,,,,,,,,,,,,,,,,,,,,,,,,0,0,0,0,0
4.2588,1783967067.8322,1,1,5.0000,-0.0000,1.42241,-0.00869,-2.63266,1.07056,1.57080,0.11675,-0.12762,-0.48149,0.03417,,,,,,,,,,,,,,,,,,,,,,,,,,0,0,0,0,0
4.2690,1783967067.8424,1,1,5.0000,-0.0000,1.42241,-0.00869,-2.63266,1.07056,1.57080,0.11675,-0.12762,-0.48149,0.03417,,,,,,,,,,,,,,,,,,,,,,,,,,0,0,0,0,0
4.2694,1783967067.8429,1,1,5.0000,-0.0000,1.42241,-0.00869,-2.63266,1.07056,1.57080,0.11675,-0.12762,-0.48149,0.03417,,,,,,,,,,,,,,,,,,,,,,,,,,0,0,0,0,0
4.2780,1783967067.8514,1,1,5.0000,-0.0000,1.42241,-0.00869,-2.63266,1.07056,1.57080,0.11675,-0.12762,-0.48149,0.03417,,,,,,,,,,,,,,,,,,,,,,,,,,0,0,0,0,0
4.2944,1783967067.8678,1,1,5.0000,-0.0000,1.42241,-0.00869,-2.63266,1.07056,1.57080,0.11675,-0.12762,-0.48149,0.03417,,,,,,,,,,,,,,,,,,,,,,,,,,0,0,0,0,0
4.3033,1783967067.8768,1,1,5.0000,-0.0000,1.42241,-0.00869,-2.63266,1.07056,1.57080,0.11675,-0.12762,-0.48149,0.03417,,,,,,,,,,,,,,,,,,,,,,,,,,0,0,0,0,0
4.3038,1783967067.8773,1,1,5.0000,-0.0000,1.42241,-0.00869,-2.63266,1.07056,1.57080,0.11675,-0.12762,-0.48149,0.03417,,,,,,,,,,,,,,,,,,,,,,,,,,0,0,0,0,0
4.3075,1783967067.8809,1,1,5.0000,-0.0000,1.42241,-0.00869,-2.63266,1.07056,1.57080,0.11675,-0.12762,-0.48149,0.03417,,,,,,,,,,,,,,,,,,,,,,,,,,0,0,0,0,0
4.3187,1783967067.8921,1,1,5.0000,-0.0000,1.42241,-0.00869,-2.63266,1.07056,1.57080,0.11675,-0.12762,-0.48149,0.03417,,,,,,,,,,,,,,,,,,,,,,,,,,0,0,0,0,0
4.3193,1783967067.8928,1,1,5.0000,-0.0000,1.42241,-0.00869,-2.63266,1.07056,1.57080,0.11675,-0.12762,-0.48149,0.03417,,,,,,,,,,,,,,,,,,,,,,,,,,0,0,0,0,0
4.3378,1783967067.9113,1,1,5.0000,-0.0000,1.42241,-0.00869,-2.63266,1.07056,1.57080,0.11675,-0.12762,-0.48149,0.03417,,,,,,,,,,,,,,,,,,,,,,,,,,0,0,0,0,0
4.3381,1783967067.9116,1,1,5.0000,-0.0000,1.42241,-0.00869,-2.63266,1.07056,1.57080,0.11675,-0.12762,-0.48149,0.03417,,,,,,,,,,,,,,,,,,,,,,,,,,0,0,0,0,0
4.3520,1783967067.9254,1,1,5.0000,-0.0000,1.42241,-0.00869,-2.63266,1.07056,1.57080,0.11675,-0.12762,-0.48149,0.03417,,,,,,,,,,,,,,,,,,,,,,,,,,0,0,0,0,0
4.3567,1783967067.9302,1,1,5.0000,-0.0000,1.42241,-0.00869,-2.63266,1.07056,1.57080,0.11675,-0.12762,-0.48149,0.03417,,,,,,,,,,,,,,,,,,,,,,,,,,0,0,0,0,0
4.3713,1783967067.9448,1,1,5.0000,-0.0000,1.42241,-0.00869,-2.63266,1.07056,1.57080,0.11675,-0.12762,-0.48149,0.03417,,,,,,,,,,,,,,,,,,,,,,,,,,0,0,0,0,0
4.3780,1783967067.9514,1,1,5.0000,-0.0000,1.42241,-0.00869,-2.63266,1.07056,1.57080,0.11675,-0.12762,-0.48149,0.03417,,,,,,,,,,,,,,,,,,,,,,,,,,0,0,0,0,0
4.3788,1783967067.9522,1,1,5.0000,-0.0000,1.42241,-0.00869,-2.63266,1.07056,1.57080,0.11675,-0.12762,-0.48149,0.03417,,,,,,,,,,,,,,,,,,,,,,,,,,0,0,0,0,0
4.3873,1783967067.9608,1,1,5.0000,-0.0000,1.42241,-0.00870,-2.63266,1.07056,1.57080,0.11675,-0.12762,-0.48149,0.03417,,,,,,,,,,,,,,,,,,,,,,,,,,0,0,0,0,0
4.3966,1783967067.9700,1,1,5.0000,-0.0000,1.42241,-0.00870,-2.63266,1.07057,1.57080,0.11675,-0.12762,-0.48150,0.03417,,,,,,,,,,,,,,,,,,,,,,,,,,0,0,0,0,0
4.4096,1783967067.9831,1,1,5.0000,-0.0000,1.42241,-0.00872,-2.63266,1.07060,1.57080,0.11675,-0.12762,-0.48150,0.03417,,,,,,,,,,,,,,,,,,,,,,,,,,0,0,0,0,0
4.4101,1783967067.9835,1,1,5.0000,-0.0000,1.42241,-0.00872,-2.63266,1.07060,1.57080,0.11675,-0.12762,-0.48150,0.03417,,,,,,,,,,,,,,,,,,,,,,,,,,0,0,0,0,0
4.4170,1783967067.9904,1,1,5.0000,-0.0000,1.42241,-0.00874,-2.63266,1.07062,1.57081,0.11675,-0.12762,-0.48150,0.03417,,,,,,,,,,,,,,,,,,,,,,,,,,0,0,0,0,0
4.4312,1783967068.0047,1,1,5.0000,-0.0000,1.42241,-0.00875,-2.63267,1.07064,1.57081,0.11675,-0.12762,-0.48150,0.03416,,,,,,,,,,,,,,,,,,,,,,,,,,0,0,0,0,0
4.4375,1783967068.0110,1,1,5.0000,-0.0000,1.42241,-0.00877,-2.63268,1.07066,1.57081,0.11675,-0.12762,-0.48149,0.03415,,,,,,,,,,,,,,,,,,,,,,,,,,0,0,0,0,0
4.4552,1783967068.0286,1,1,5.0000,-0.0000,1.42241,-0.00886,-2.63276,1.07077,1.57081,0.11675,-0.12763,-0.48145,0.03409,,,,,,,,,,,,,,,,,,,,,,,,,,0,0,0,0,0
4.4566,1783967068.0301,1,1,5.0000,-0.0000,1.42241,-0.00886,-2.63276,1.07077,1.57081,0.11675,-0.12763,-0.48145,0.03409,,,,,,,,,,,,,,,,,,,,,,,,,,0,0,0,0,0
4.4569,1783967068.0303,1,1,5.0000,-0.0000,1.42241,-0.00886,-2.63276,1.07077,1.57081,0.11675,-0.12763,-0.48145,0.03409,,,,,,,,,,,,,,,,,,,,,,,,,,0,0,0,0,0
4.4692,1783967068.0427,1,1,5.0000,-0.0000,1.42241,-0.00895,-2.63281,1.07086,1.57081,0.11675,-0.12763,-0.48142,0.03405,,,,,,,,,,,,,,,,,,,,,,,,,,0,0,0,0,0
4.4795,1783967068.0530,1,1,5.0000,-0.0000,1.42241,-0.00898,-2.63283,1.07090,1.57081,0.11675,-0.12763,-0.48141,0.03403,,,,,,,,,,,,,,,,,,,,,,,,,,0,0,0,0,0
4.4798,1783967068.0532,1,1,5.0000,-0.0000,1.42241,-0.00898,-2.63283,1.07090,1.57081,0.11675,-0.12763,-0.48141,0.03403,,,,,,,,,,,,,,,,,,,,,,,,,,0,0,0,0,0
4.4878,1783967068.0612,1,1,5.0000,-0.0000,1.42241,-0.00900,-2.63283,1.07093,1.57081,0.11675,-0.12763,-0.48142,0.03402,,,,,,,,,,,,,,,,,,,,,,,,,,0,0,0,0,0
4.4979,1783967068.0713,1,1,5.0000,-0.0000,1.42241,-0.00905,-2.63284,1.07098,1.57081,0.11675,-0.12763,-0.48142,0.03401,,,,,,,,,,,,,,,,,,,,,,,,,,0,0,0,0,0
4.5071,1783967068.0805,1,1,5.0000,-0.0000,1.42241,-0.00911,-2.63284,1.07106,1.57081,0.11675,-0.12763,-0.48143,0.03399,,,,,,,,,,,,,,,,,,,,,,,,,,0,0,0,0,0
4.5209,1783967068.0943,1,1,5.0000,-0.0000,1.42241,-0.00916,-2.63285,1.07112,1.57081,0.11675,-0.12763,-0.48143,0.03398,,,,,,,,,,,,,,,,,,,,,,,,,,0,0,0,0,0
4.5395,1783967068.1129,1,1,5.0000,-0.0000,1.42241,-0.00926,-2.63286,1.07123,1.57081,0.11675,-0.12763,-0.48144,0.03395,,,,,,,,,,,,,,,,,,,,,,,,,,0,0,0,0,0
4.5399,1783967068.1133,1,1,5.0000,-0.0000,1.42241,-0.00926,-2.63286,1.07123,1.57081,0.11675,-0.12763,-0.48144,0.03395,,,,,,,,,,,,,,,,,,,,,,,,,,0,0,0,0,0
4.5412,1783967068.1147,1,1,5.0000,-0.0000,1.42241,-0.00926,-2.63286,1.07123,1.57081,0.11675,-0.12763,-0.48144,0.03395,,,,,,,,,,,,,,,,,,,,,,,,,,0,0,0,0,0
4.5415,1783967068.1149,1,1,5.0000,-0.0000,1.42241,-0.00926,-2.63286,1.07123,1.57081,0.11675,-0.12763,-0.48144,0.03395,,,,,,,,,,,,,,,,,,,,,,,,,,0,0,0,0,0
4.5490,1783967068.1224,1,1,5.0000,-0.0000,1.42241,-0.00932,-2.63287,1.07131,1.57081,0.11675,-0.12763,-0.48144,0.03393,,,,,,,,,,,,,,,,,,,,,,,,,,0,0,0,0,0
4.5565,1783967068.1299,1,1,5.0000,-0.0000,1.42241,-0.00942,-2.63288,1.07143,1.57081,0.11675,-0.12763,-0.48145,0.03390,,,,,,,,,,,,,,,,,,,,,,,,,,0,0,0,0,0
4.5701,1783967068.1435,1,1,5.0000,-0.0000,1.42241,-0.00948,-2.63288,1.07150,1.57081,0.11675,-0.12763,-0.48145,0.03388,,,,,,,,,,,,,,,,,,,,,,,,,,0,0,0,0,0
4.5797,1783967068.1531,1,1,5.0000,-0.0000,1.42241,-0.00955,-2.63289,1.07158,1.57081,0.11675,-0.12762,-0.48146,0.03387,,,,,,,,,,,,,,,,,,,,,,,,,,0,0,0,0,0
4.5872,1783967068.1606,1,1,5.0000,-0.0000,1.42241,-0.00962,-2.63289,1.07167,1.57081,0.11675,-0.12762,-0.48147,0.03385,,,,,,,,,,,,,,,,,,,,,,,,,,0,0,0,0,0
4.5982,1783967068.1716,1,1,5.0000,-0.0000,1.42241,-0.00970,-2.63289,1.07177,1.57081,0.11675,-0.12762,-0.48149,0.03383,,,,,,,,,,,,,,,,,,,,,,,,,,0,0,0,0,0
4.6115,1783967068.1850,1,1,5.0000,-0.0000,1.42241,-0.00986,-2.63288,1.07197,1.57081,0.11675,-0.12762,-0.48152,0.03380,,,,,,,,,,,,,,,,,,,,,,,,,,0,0,0,0,0
4.6239,1783967068.1974,1,1,5.0000,-0.0000,1.42241,-0.00993,-2.63286,1.07205,1.57081,0.11675,-0.12761,-0.48155,0.03379,,,,,,,,,,,,,,,,,,,,,,,,,,0,0,0,0,0
4.6395,1783967068.2130,1,1,5.0000,-0.0000,1.42241,-0.00993,-2.63286,1.07205,1.57081,0.11675,-0.12761,-0.48155,0.03379,,,,,,,,,,,,,,,,,,,,,,,,,,0,0,0,0,0
4.6414,1783967068.2148,1,1,5.0000,-0.0000,1.42241,-0.00993,-2.63286,1.07205,1.57081,0.11675,-0.12761,-0.48155,0.03379,,,,,,,,,,,,,,,,,,,,,,,,,,0,0,0,0,0
4.6419,1783967068.2153,1,1,5.0000,-0.0000,1.42241,-0.00993,-2.63286,1.07205,1.57081,0.11675,-0.12761,-0.48155,0.03379,,,,,,,,,,,,,,,,,,,,,,,,,,0,0,0,0,0
4.6471,1783967068.2206,1,1,5.0000,-0.0000,1.42241,-0.00993,-2.63286,1.07205,1.57081,0.11675,-0.12761,-0.48155,0.03379,,,,,,,,,,,,,,,,,,,,,,,,,,0,0,0,0,0
4.6576,1783967068.2310,1,1,5.0000,-0.0000,1.42241,-0.00993,-2.63286,1.07205,1.57081,0.11675,-0.12761,-0.48155,0.03379,,,,,,,,,,,,,,,,,,,,,,,,,,0,0,0,0,0
4.6725,1783967068.2460,1,1,5.0000,-0.0000,1.42241,-0.00993,-2.63286,1.07205,1.57081,0.11675,-0.12761,-0.48155,0.03379,,,,,,,,,,,,,,,,,,,,,,,,,,0,0,0,0,0
4.6778,1783967068.2512,1,1,5.0000,-0.0000,1.42241,-0.00993,-2.63286,1.07205,1.57081,0.11675,-0.12761,-0.48155,0.03379,,,,,,,,,,,,,,,,,,,,,,,,,,0,0,0,0,0
4.6889,1783967068.2624,1,1,5.0000,-0.0000,1.42241,-0.00993,-2.63286,1.07205,1.57081,0.11675,-0.12761,-0.48155,0.03379,,,,,,,,,,,,,,,,,,,,,,,,,,0,0,0,0,0
4.7201,1783967068.2936,1,1,5.0000,-0.0000,1.42241,-0.00993,-2.63286,1.07205,1.57081,0.11675,-0.12761,-0.48155,0.03379,,,,,,,,,,,,,,,,,,,,,,,,,,0,0,0,0,0
4.7220,1783967068.2955,1,1,5.0000,-0.0000,1.42241,-0.00993,-2.63286,1.07205,1.57081,0.11675,-0.12761,-0.48155,0.03379,,,,,,,,,,,,,,,,,,,,,,,,,,0,0,0,0,0
4.7224,1783967068.2959,1,1,5.0000,-0.0000,1.42241,-0.00993,-2.63286,1.07205,1.57081,0.11675,-0.12761,-0.48155,0.03379,,,,,,,,,,,,,,,,,,,,,,,,,,0,0,0,0,0
4.7384,1783967068.3118,1,1,5.0000,-0.0000,1.42241,-0.00993,-2.63286,1.07205,1.57081,0.11675,-0.12761,-0.48155,0.03379,,,,,,,,,,,,,,,,,,,,,,,,,,0,0,0,0,0
4.7479,1783967068.3214,1,1,5.0000,-0.0000,1.42241,-0.00993,-2.63286,1.07205,1.57081,0.11675,-0.12761,-0.48155,0.03379,,,,,,,,,,,,,,,,,,,,,,,,,,0,0,0,0,0
4.7490,1783967068.3224,1,1,5.0000,-0.0000,1.42241,-0.00993,-2.63286,1.07205,1.57081,0.11675,-0.12761,-0.48155,0.03379,,,,,,,,,,,,,,,,,,,,,,,,,,0,0,0,0,0
4.7742,1783967068.3477,1,1,5.0000,-0.0000,1.42241,-0.00993,-2.63286,1.07205,1.57081,0.11675,-0.12761,-0.48155,0.03379,,,,,,,,,,,,,,,,,,,,,,,,,,0,0,0,0,0
4.7803,1783967068.3537,1,1,5.0000,-0.0000,1.42241,-0.00993,-2.63286,1.07205,1.57081,0.11675,-0.12761,-0.48155,0.03379,,,,,,,,,,,,,,,,,,,,,,,,,,0,0,0,0,0
4.7847,1783967068.3582,1,1,5.0000,-0.0000,1.42241,-0.00993,-2.63286,1.07205,1.57081,0.11675,-0.12761,-0.48155,0.03379,,,,,,,,,,,,,,,,,,,,,,,,,,0,0,0,0,0
4.7914,1783967068.3648,1,1,5.0000,-0.0000,1.42241,-0.00993,-2.63286,1.07205,1.57081,0.11675,-0.12761,-0.48155,0.03379,,,,,,,,,,,,,,,,,,,,,,,,,,0,0,0,0,0
4.8051,1783967068.3786,1,1,5.0000,-0.0000,1.42241,-0.00993,-2.63286,1.07205,1.57081,0.11675,-0.12761,-0.48155,0.03379,,,,,,,,,,,,,,,,,,,,,,,,,,0,0,0,0,0
4.8072,1783967068.3806,1,1,5.0000,-0.0000,1.42241,-0.00993,-2.63286,1.07206,1.57081,0.11675,-0.12761,-0.48155,0.03379,,,,,,,,,,,,,,,,,,,,,,,,,,0,0,0,0,0
4.8076,1783967068.3810,1,1,5.0000,-0.0000,1.42241,-0.00993,-2.63286,1.07206,1.57081,0.11675,-0.12761,-0.48155,0.03379,,,,,,,,,,,,,,,,,,,,,,,,,,0,0,0,0,0
4.8443,1783967068.4178,1,1,5.0000,-0.0000,1.42241,-0.00994,-2.63288,1.07209,1.57081,0.11675,-0.12761,-0.48153,0.03378,,,,,,,,,,,,,,,,,,,,,,,,,,0,0,0,0,0
4.8446,1783967068.4180,1,1,5.0000,-0.0000,1.42241,-0.00994,-2.63288,1.07209,1.57081,0.11675,-0.12761,-0.48153,0.03378,,,,,,,,,,,,,,,,,,,,,,,,,,0,0,0,0,0
4.8479,1783967068.4213,1,1,5.0000,-0.0000,1.42241,-0.00995,-2.63289,1.07209,1.57081,0.11675,-0.12761,-0.48153,0.03377,,,,,,,,,,,,,,,,,,,,,,,,,,0,0,0,0,0
4.8483,1783967068.4218,1,1,5.0000,-0.0000,1.42241,-0.00995,-2.63289,1.07209,1.57081,0.11675,-0.12761,-0.48153,0.03377,,,,,,,,,,,,,,,,,,,,,,,,,,0,0,0,0,0
4.8550,1783967068.4284,1,1,5.0000,-0.0000,1.42241,-0.00996,-2.63290,1.07211,1.57081,0.11675,-0.12761,-0.48152,0.03376,,,,,,,,,,,,,,,,,,,,,,,,,,0,0,0,0,0
4.8672,1783967068.4407,1,1,5.0000,-0.0000,1.42241,-0.01000,-2.63295,1.07216,1.57081,0.11675,-0.12762,-0.48149,0.03373,,,,,,,,,,,,,,,,,,,,,,,,,,0,0,0,0,0
4.8721,1783967068.4456,1,1,5.0000,-0.0000,1.42241,-0.01001,-2.63295,1.07216,1.57081,0.11675,-0.12762,-0.48149,0.03373,,,,,,,,,,,,,,,,,,,,,,,,,,0,0,0,0,0
4.8724,1783967068.4458,1,1,5.0000,-0.0000,1.42241,-0.01001,-2.63295,1.07216,1.57081,0.11675,-0.12762,-0.48149,0.03373,,,,,,,,,,,,,,,,,,,,,,,,,,0,0,0,0,0
4.8947,1783967068.4681,1,1,5.0000,-0.0000,1.42240,-0.01007,-2.63299,1.07224,1.57081,0.11675,-0.12762,-0.48147,0.03370,,,,,,,,,,,,,,,,,,,,,,,,,,0,0,0,0,0
4.8952,1783967068.4686,1,1,5.0000,-0.0000,1.42240,-0.01008,-2.63300,1.07224,1.57081,0.11675,-0.12762,-0.48147,0.03369,,,,,,,,,,,,,,,,,,,,,,,,,,0,0,0,0,0
4.9000,1783967068.4734,1,1,5.0000,-0.0000,1.42240,-0.01009,-2.63300,1.07226,1.57081,0.11675,-0.12762,-0.48147,0.03369,,,,,,,,,,,,,,,,,,,,,,,,,,0,0,0,0,0
4.9073,1783967068.4807,1,1,5.0000,-0.0000,1.42240,-0.01014,-2.63302,1.07232,1.57081,0.11675,-0.12762,-0.48146,0.03367,,,,,,,,,,,,,,,,,,,,,,,,,,0,0,0,0,0
4.9074,1783967068.4809,1,1,5.0000,-0.0000,1.42240,-0.01014,-2.63302,1.07232,1.57081,0.11675,-0.12762,-0.48146,0.03367,,,,,,,,,,,,,,,,,,,,,,,,,,0,0,0,0,0
4.9084,1783967068.4818,1,1,5.0000,-0.0000,1.42240,-0.01014,-2.63302,1.07232,1.57081,0.11675,-0.12762,-0.48146,0.03367,,,,,,,,,,,,,,,,,,,,,,,,,,0,0,0,0,0
4.9086,1783967068.4820,1,1,5.0000,-0.0000,1.42240,-0.01014,-2.63302,1.07232,1.57081,0.11675,-0.12762,-0.48146,0.03367,,,,,,,,,,,,,,,,,,,,,,,,,,0,0,0,0,0
4.9248,1783967068.4983,1,1,5.0000,-0.0000,1.42240,-0.01027,-2.63305,1.07247,1.57081,0.11675,-0.12762,-0.48145,0.03362,,,,,,,,,,,,,,,,,,,,,,,,,,0,0,0,0,0
4.9496,1783967068.5231,1,1,5.0000,-0.0000,1.42240,-0.01044,-2.63309,1.07267,1.57081,0.11675,-0.12762,-0.48145,0.03356,,,,,,,,,,,,,,,,,,,,,,,,,,0,0,0,0,0
4.9512,1783967068.5246,1,1,5.0000,-0.0000,1.42240,-0.01049,-2.63310,1.07273,1.57081,0.11675,-0.12762,-0.48145,0.03354,,,,,,,,,,,,,,,,,,,,,,,,,,0,0,0,0,0
4.9528,1783967068.5262,1,1,5.0000,-0.0000,1.42240,-0.01049,-2.63310,1.07273,1.57081,0.11675,-0.12762,-0.48145,0.03354,,,,,,,,,,,,,,,,,,,,,,,,,,0,0,0,0,0
4.9579,1783967068.5313,1,1,5.0000,-0.0000,1.42240,-0.01049,-2.63310,1.07273,1.57081,0.11675,-0.12762,-0.48145,0.03354,,,,,,,,,,,,,,,,,,,,,,,,,,0,0,0,0,0
5.0311,1783967068.6045,1,1,5.0000,-0.0000,1.42240,-0.01105,-2.63319,1.07341,1.57081,0.11675,-0.12762,-0.48148,0.03337,,,,,,,,,,,,,,,,,,,,,,,,,,0,0,0,0,0
5.0327,1783967068.6062,1,1,5.0000,-0.0000,1.42240,-0.01105,-2.63319,1.07341,1.57081,0.11675,-0.12762,-0.48148,0.03337,,,,,,,,,,,,,,,,,,,,,,,,,,0,0,0,0,0
5.0330,1783967068.6065,1,1,5.0000,-0.0000,1.42240,-0.01105,-2.63319,1.07341,1.57081,0.11675,-0.12762,-0.48148,0.03337,,,,,,,,,,,,,,,,,,,,,,,,,,0,0,0,0,0
5.0478,1783967068.6213,1,1,5.0000,-0.0000,1.42240,-0.01105,-2.63319,1.07341,1.57081,0.11675,-0.12762,-0.48148,0.03337,,,,,,,,,,,,,,,,,,,,,,,,,,0,0,0,0,0
5.0484,1783967068.6218,1,1,5.0000,-0.0000,1.42240,-0.01105,-2.63319,1.07341,1.57081,0.11675,-0.12762,-0.48148,0.03337,,,,,,,,,,,,,,,,,,,,,,,,,,0,0,0,0,0
5.0494,1783967068.6228,1,1,5.0000,-0.0000,1.42240,-0.01105,-2.63319,1.07341,1.57081,0.11675,-0.12762,-0.48148,0.03337,,,,,,,,,,,,,,,,,,,,,,,,,,0,0,0,0,0
5.0607,1783967068.6341,1,1,5.0000,-0.0000,1.42240,-0.01105,-2.63319,1.07341,1.57081,0.11675,-0.12762,-0.48148,0.03337,,,,,,,,,,,,,,,,,,,,,,,,,,0,0,0,0,0
5.0646,1783967068.6380,1,1,5.0000,-0.0000,1.42240,-0.01105,-2.63319,1.07341,1.57081,0.11675,-0.12762,-0.48148,0.03337,,,,,,,,,,,,,,,,,,,,,,,,,,0,0,0,0,0
5.0703,1783967068.6438,1,1,5.0000,-0.0000,1.42240,-0.01105,-2.63319,1.07341,1.57081,0.11675,-0.12762,-0.48148,0.03337,,,,,,,,,,,,,,,,,,,,,,,,,,0,0,0,0,0
5.0744,1783967068.6479,1,1,5.0000,-0.0000,1.42240,-0.01105,-2.63319,1.07341,1.57081,0.11675,-0.12762,-0.48148,0.03337,,,,,,,,,,,,,,,,,,,,,,,,,,0,0,0,0,0
5.0812,1783967068.6546,1,1,5.0000,-0.0000,1.42240,-0.01105,-2.63319,1.07341,1.57081,0.11675,-0.12762,-0.48148,0.03337,,,,,,,,,,,,,,,,,,,,,,,,,,0,0,0,0,0
5.0815,1783967068.6550,1,1,5.0000,-0.0000,1.42240,-0.01105,-2.63319,1.07341,1.57081,0.11675,-0.12762,-0.48148,0.03337,,,,,,,,,,,,,,,,,,,,,,,,,,0,0,0,0,0
5.0831,1783967068.6565,1,1,5.0000,-0.0000,1.42240,-0.01105,-2.63319,1.07341,1.57081,0.11675,-0.12762,-0.48148,0.03337,,,,,,,,,,,,,,,,,,,,,,,,,,0,0,0,0,0
5.0917,1783967068.6651,1,1,5.0000,-0.0000,1.42240,-0.01105,-2.63319,1.07341,1.57081,0.11675,-0.12762,-0.48148,0.03337,,,,,,,,,,,,,,,,,,,,,,,,,,0,0,0,0,0
5.0932,1783967068.6666,1,1,5.0000,-0.0000,1.42240,-0.01105,-2.63319,1.07341,1.57081,0.11675,-0.12762,-0.48148,0.03337,,,,,,,,,,,,,,,,,,,,,,,,,,0,0,0,0,0
5.0993,1783967068.6727,1,1,5.0000,-0.0000,1.42240,-0.01105,-2.63319,1.07341,1.57081,0.11675,-0.12762,-0.48148,0.03337,,,,,,,,,,,,,,,,,,,,,,,,,,0,0,0,0,0
5.1152,1783967068.6887,1,1,5.0000,-0.0000,1.42240,-0.01105,-2.63319,1.07341,1.57081,0.11675,-0.12762,-0.48148,0.03337,,,,,,,,,,,,,,,,,,,,,,,,,,0,0,0,0,0
5.1233,1783967068.6968,1,1,5.0000,-0.0000,1.42240,-0.01105,-2.63319,1.07341,1.57081,0.11675,-0.12762,-0.48148,0.03337,,,,,,,,,,,,,,,,,,,,,,,,,,0,0,0,0,0
5.1338,1783967068.7072,1,1,5.0000,-0.0000,1.42240,-0.01105,-2.63319,1.07341,1.57081,0.11675,-0.12762,-0.48148,0.03337,,,,,,,,,,,,,,,,,,,,,,,,,,0,0,0,0,0
5.1343,1783967068.7077,1,1,5.0000,-0.0000,1.42240,-0.01105,-2.63319,1.07341,1.57081,0.11675,-0.12762,-0.48148,0.03337,,,,,,,,,,,,,,,,,,,,,,,,,,0,0,0,0,0
5.1392,1783967068.7126,1,1,5.0000,-0.0000,1.42240,-0.01105,-2.63319,1.07341,1.57081,0.11675,-0.12762,-0.48148,0.03337,,,,,,,,,,,,,,,,,,,,,,,,,,0,0,0,0,0
5.1542,1783967068.7277,1,1,5.0000,-0.0000,1.42240,-0.01105,-2.63319,1.07341,1.57081,0.11675,-0.12762,-0.48148,0.03337,,,,,,,,,,,,,,,,,,,,,,,,,,0,0,0,0,0
5.1604,1783967068.7338,1,1,5.0000,-0.0000,1.42240,-0.01105,-2.63319,1.07341,1.57081,0.11675,-0.12762,-0.48148,0.03337,,,,,,,,,,,,,,,,,,,,,,,,,,0,0,0,0,0
5.1727,1783967068.7461,1,1,5.0000,-0.0000,1.42240,-0.01105,-2.63319,1.07341,1.57081,0.11675,-0.12762,-0.48148,0.03337,,,,,,,,,,,,,,,,,,,,,,,,,,0,0,0,0,0
5.1838,1783967068.7572,1,1,5.0000,-0.0000,1.42240,-0.01105,-2.63319,1.07341,1.57081,0.11675,-0.12762,-0.48148,0.03337,,,,,,,,,,,,,,,,,,,,,,,,,,0,0,0,0,0
5.1872,1783967068.7606,1,1,5.0000,-0.0000,1.42240,-0.01105,-2.63319,1.07341,1.57081,0.11675,-0.12762,-0.48148,0.03337,,,,,,,,,,,,,,,,,,,,,,,,,,0,0,0,0,0
5.2002,1783967068.7736,1,1,5.0000,-0.0000,1.42240,-0.01105,-2.63319,1.07341,1.57081,0.11675,-0.12762,-0.48148,0.03337,,,,,,,,,,,,,,,,,,,,,,,,,,0,0,0,0,0
5.2087,1783967068.7822,1,1,5.0000,-0.0000,1.42240,-0.01105,-2.63319,1.07341,1.57081,0.11675,-0.12762,-0.48148,0.03337,,,,,,,,,,,,,,,,,,,,,,,,,,0,0,0,0,0
5.2189,1783967068.7923,1,1,5.0000,-0.0000,1.42240,-0.01105,-2.63319,1.07341,1.57081,0.11675,-0.12762,-0.48148,0.03337,,,,,,,,,,,,,,,,,,,,,,,,,,0,0,0,0,0
