Martins-Lucaas/twinforge/sensors/Data/20260704_153627__samples.csv
t_rel_s,t_unix,cycle,phase,setpoint_n,force_net_n,q1,q2,q3,q4,q5,q6,tcp_x,tcp_y,tcp_z,taxel_0,taxel_1,taxel_2,taxel_3,taxel_4,taxel_5,taxel_6,taxel_7,taxel_8,taxel_9,taxel_10,taxel_11,taxel_12,taxel_13,taxel_14,taxel_15,taxel_16,taxel_17,taxel_18,taxel_19,taxel_20,taxel_21,taxel_22,taxel_23,taxel_24,n_RA,n_SA,cn_mm,cn_ra,cn_sa
0.0143,1783190187.6675,1,0,1.0000,0.0000,1.44682,0.23328,-2.77748,0.97337,1.57080,0.00000,-0.14512,-0.38003,0.04653,,,,,,,,,,,,,,,,,,,,,,,,,,0,0,0,0,0
0.0148,1783190187.6680,1,0,1.0000,0.0000,1.44682,0.23328,-2.77748,0.97337,1.57080,0.00000,-0.14512,-0.38003,0.04653,,,,,,,,,,,,,,,,,,,,,,,,,,0,0,0,0,0
0.0152,1783190187.6685,1,0,1.0000,0.0000,1.44682,0.23328,-2.77748,0.97337,1.57080,0.00000,-0.14512,-0.38003,0.04653,,,,,,,,,,,,,,,,,,,,,,,,,,0,0,0,0,0
0.0157,1783190187.6689,1,0,1.0000,0.0000,1.44682,0.23328,-2.77748,0.97337,1.57080,0.00000,-0.14512,-0.38003,0.04653,,,,,,,,,,,,,,,,,,,,,,,,,,0,0,0,0,0
0.0162,1783190187.6694,1,0,1.0000,0.0000,1.44682,0.23328,-2.77748,0.97337,1.57080,0.00000,-0.14512,-0.38003,0.04653,,,,,,,,,,,,,,,,,,,,,,,,,,0,0,0,0,0
0.0453,1783190187.6985,1,0,1.0000,0.0000,1.44682,0.23328,-2.77748,0.97337,1.57080,0.00000,-0.14512,-0.38003,0.04653,,,,,,,,,,,,,,,,,,,,,,,,,,0,0,0,0,0
0.0456,1783190187.6988,1,0,1.0000,0.0000,1.44682,0.23328,-2.77748,0.97337,1.57080,0.00000,-0.14512,-0.38003,0.04653,,,,,,,,,,,,,,,,,,,,,,,,,,0,0,0,0,0
0.0620,1783190187.7152,1,0,1.0000,0.0000,1.44682,0.23328,-2.77748,0.97337,1.57080,0.00000,-0.14512,-0.38003,0.04653,,,,,,,,,,,,,,,,,,,,,,,,,,0,0,0,0,0
0.0623,1783190187.7155,1,0,1.0000,0.0000,1.44682,0.23328,-2.77748,0.97337,1.57080,0.00000,-0.14512,-0.38003,0.04653,,,,,,,,,,,,,,,,,,,,,,,,,,0,0,0,0,0
0.1050,1783190187.7582,1,0,1.0000,0.0000,1.44682,0.23328,-2.77748,0.97337,1.57080,0.00000,-0.14512,-0.38003,0.04653,,,,,,,,,,,,,,,,,,,,,,,,,,0,0,0,0,0
0.1054,1783190187.7586,1,0,1.0000,0.0000,1.44682,0.23328,-2.77748,0.97337,1.57080,0.00000,-0.14512,-0.38003,0.04653,,,,,,,,,,,,,,,,,,,,,,,,,,0,0,0,0,0
0.1057,1783190187.7590,1,0,1.0000,0.0000,1.44682,0.23328,-2.77748,0.97337,1.57080,0.00000,-0.14512,-0.38003,0.04653,,,,,,,,,,,,,,,,,,,,,,,,,,0,0,0,0,0
0.1060,1783190187.7593,1,0,1.0000,0.0000,1.44682,0.23328,-2.77748,0.97337,1.57080,0.00000,-0.14512,-0.38003,0.04653,,,,,,,,,,,,,,,,,,,,,,,,,,0,0,0,0,0
0.1462,1783190187.7994,1,0,1.0000,0.0000,1.44682,0.23328,-2.77748,0.97337,1.57080,0.00000,-0.14512,-0.38003,0.04653,,,,,,,,,,,,,,,,,,,,,,,,,,0,0,0,0,0
0.1465,1783190187.7997,1,0,1.0000,0.0000,1.44682,0.23328,-2.77748,0.97337,1.57080,0.00000,-0.14512,-0.38003,0.04653,,,,,,,,,,,,,,,,,,,,,,,,,,0,0,0,0,0
0.1469,1783190187.8001,1,0,1.0000,0.0000,1.44682,0.23328,-2.77748,0.97337,1.57080,0.00000,-0.14512,-0.38003,0.04653,,,,,,,,,,,,,,,,,,,,,,,,,,0,0,0,0,0
0.1471,1783190187.8003,1,0,1.0000,0.0000,1.44682,0.23328,-2.77748,0.97337,1.57080,0.00000,-0.14512,-0.38003,0.04653,,,,,,,,,,,,,,,,,,,,,,,,,,0,0,0,0,0
0.1474,1783190187.8006,1,0,1.0000,0.0000,1.44682,0.23328,-2.77748,0.97337,1.57080,0.00000,-0.14512,-0.38003,0.04653,,,,,,,,,,,,,,,,,,,,,,,,,,0,0,0,0,0
0.1953,1783190187.8485,1,0,1.0000,0.0000,1.44682,0.23328,-2.77748,0.97337,1.57080,0.00000,-0.14512,-0.38003,0.04653,,,,,,,,,,,,,,,,,,,,,,,,,,0,0,0,0,0
0.1956,1783190187.8488,1,0,1.0000,0.0000,1.44682,0.23328,-2.77748,0.97337,1.57080,0.00000,-0.14512,-0.38003,0.04653,,,,,,,,,,,,,,,,,,,,,,,,,,0,0,0,0,0
0.1961,1783190187.8493,1,0,1.0000,0.0000,1.44682,0.23328,-2.77748,0.97337,1.57080,0.00000,-0.14512,-0.38003,0.04653,,,,,,,,,,,,,,,,,,,,,,,,,,0,0,0,0,0
0.1970,1783190187.8502,1,0,1.0000,0.0000,1.44682,0.23328,-2.77748,0.97337,1.57080,0.00000,-0.14512,-0.38003,0.04653,,,,,,,,,,,,,,,,,,,,,,,,,,0,0,0,0,0
0.1972,1783190187.8504,1,0,1.0000,0.0000,1.44682,0.23328,-2.77748,0.97337,1.57080,0.00000,-0.14512,-0.38003,0.04653,,,,,,,,,,,,,,,,,,,,,,,,,,0,0,0,0,0
0.1998,1783190187.8530,1,0,1.0000,0.0000,1.44682,0.23328,-2.77748,0.97337,1.57080,0.00000,-0.14512,-0.38003,0.04653,,,,,,,,,,,,,,,,,,,,,,,,,,0,0,0,0,0
0.2001,1783190187.8534,1,0,1.0000,0.0000,1.44682,0.23328,-2.77748,0.97337,1.57080,0.00000,-0.14512,-0.38003,0.04653,,,,,,,,,,,,,,,,,,,,,,,,,,0,0,0,0,0
0.2076,1783190187.8608,1,0,1.0000,0.0000,1.44682,0.23328,-2.77748,0.97337,1.57080,0.00000,-0.14512,-0.38003,0.04653,,,,,,,,,,,,,,,,,,,,,,,,,,0,0,0,0,0
0.2136,1783190187.8668,1,0,1.0000,0.0000,1.44682,0.23328,-2.77748,0.97337,1.57080,0.00000,-0.14512,-0.38003,0.04653,,,,,,,,,,,,,,,,,,,,,,,,,,0,0,0,0,0
0.2560,1783190187.9092,1,0,1.0000,0.0000,1.44682,0.23328,-2.77748,0.97337,1.57080,0.00000,-0.14512,-0.38003,0.04653,,,,,,,,,,,,,,,,,,,,,,,,,,0,0,0,0,0
0.2564,1783190187.9097,1,0,1.0000,0.0000,1.44682,0.23328,-2.77748,0.97337,1.57080,0.00000,-0.14512,-0.38003,0.04653,,,,,,,,,,,,,,,,,,,,,,,,,,0,0,0,0,0
0.2571,1783190187.9104,1,0,1.0000,0.0000,1.44682,0.23328,-2.77748,0.97337,1.57080,0.00000,-0.14512,-0.38003,0.04653,,,,,,,,,,,,,,,,,,,,,,,,,,0,0,0,0,0
0.2574,1783190187.9106,1,0,1.0000,0.0000,1.44682,0.23328,-2.77748,0.97337,1.57080,0.00000,-0.14512,-0.38003,0.04653,,,,,,,,,,,,,,,,,,,,,,,,,,0,0,0,0,0
0.3133,1783190187.9665,1,0,1.0000,0.0000,1.44682,0.23328,-2.77748,0.97337,1.57080,0.00000,-0.14512,-0.38003,0.04653,,,,,,,,,,,,,,,,,,,,,,,,,,0,0,0,0,0
0.3137,1783190187.9670,1,0,1.0000,0.0000,1.44682,0.23328,-2.77748,0.97337,1.57080,0.00000,-0.14512,-0.38003,0.04653,,,,,,,,,,,,,,,,,,,,,,,,,,0,0,0,0,0
0.3140,1783190187.9672,1,0,1.0000,0.0000,1.44682,0.23328,-2.77748,0.97337,1.57080,0.00000,-0.14512,-0.38003,0.04653,,,,,,,,,,,,,,,,,,,,,,,,,,0,0,0,0,0
0.3142,1783190187.9674,1,0,1.0000,0.0000,1.44682,0.23328,-2.77748,0.97337,1.57080,0.00000,-0.14512,-0.38003,0.04653,,,,,,,,,,,,,,,,,,,,,,,,,,0,0,0,0,0
0.3538,1783190188.0070,1,0,1.0000,0.0000,1.44682,0.23328,-2.77748,0.97337,1.57080,0.00000,-0.14512,-0.38003,0.04653,,,,,,,,,,,,,,,,,,,,,,,,,,0,0,0,0,0
0.3558,1783190188.0091,1,0,1.0000,0.0000,1.44682,0.23328,-2.77748,0.97337,1.57080,0.00000,-0.14512,-0.38003,0.04653,,,,,,,,,,,,,,,,,,,,,,,,,,0,0,0,0,0
0.3562,1783190188.0095,1,0,1.0000,0.0000,1.44682,0.23328,-2.77748,0.97337,1.57080,0.00000,-0.14512,-0.38003,0.04653,,,,,,,,,,,,,,,,,,,,,,,,,,0,0,0,0,0
0.3570,1783190188.0103,1,0,1.0000,0.0000,1.44682,0.23328,-2.77748,0.97337,1.57080,0.00000,-0.14512,-0.38003,0.04653,,,,,,,,,,,,,,,,,,,,,,,,,,0,0,0,0,0
0.3620,1783190188.0152,1,0,1.0000,0.0000,1.44682,0.23328,-2.77748,0.97337,1.57080,0.00000,-0.14512,-0.38003,0.04653,,,,,,,,,,,,,,,,,,,,,,,,,,0,0,0,0,0
0.3720,1783190188.0252,1,0,1.0000,0.0000,1.44682,0.23328,-2.77748,0.97337,1.57080,0.00000,-0.14512,-0.38003,0.04653,,,,,,,,,,,,,,,,,,,,,,,,,,0,0,0,0,0
0.3836,1783190188.0369,1,0,1.0000,0.0000,1.44682,0.23328,-2.77748,0.97337,1.57080,0.00000,-0.14512,-0.38003,0.04653,,,,,,,,,,,,,,,,,,,,,,,,,,0,0,0,0,0
0.3953,1783190188.0486,1,0,1.0000,0.0000,1.44682,0.23328,-2.77748,0.97337,1.57080,0.00000,-0.14512,-0.38003,0.04653,,,,,,,,,,,,,,,,,,,,,,,,,,0,0,0,0,0
0.3956,1783190188.0488,1,0,1.0000,0.0000,1.44682,0.23328,-2.77748,0.97337,1.57080,0.00000,-0.14512,-0.38003,0.04653,,,,,,,,,,,,,,,,,,,,,,,,,,0,0,0,0,0
0.4016,1783190188.0548,1,0,1.0000,0.0000,1.44682,0.23328,-2.77748,0.97337,1.57080,0.00000,-0.14512,-0.38003,0.04653,,,,,,,,,,,,,,,,,,,,,,,,,,0,0,0,0,0
0.4115,1783190188.0648,1,0,1.0000,0.0000,1.44682,0.23328,-2.77748,0.97337,1.57080,0.00000,-0.14512,-0.38003,0.04653,,,,,,,,,,,,,,,,,,,,,,,,,,0,0,0,0,0
0.4119,1783190188.0651,1,0,1.0000,0.0000,1.44682,0.23328,-2.77748,0.97337,1.57080,0.00000,-0.14512,-0.38003,0.04653,,,,,,,,,,,,,,,,,,,,,,,,,,0,0,0,0,0
0.4217,1783190188.0749,1,0,1.0000,0.0000,1.44682,0.23328,-2.77748,0.97337,1.57080,0.00000,-0.14512,-0.38003,0.04653,,,,,,,,,,,,,,,,,,,,,,,,,,0,0,0,0,0
0.4374,1783190188.0907,1,0,1.0000,0.0000,1.44682,0.23328,-2.77748,0.97337,1.57080,0.00000,-0.14512,-0.38003,0.04653,,,,,,,,,,,,,,,,,,,,,,,,,,0,0,0,0,0
0.4452,1783190188.0985,1,0,1.0000,0.0000,1.44682,0.23328,-2.77748,0.97337,1.57080,0.00000,-0.14512,-0.38003,0.04653,,,,,,,,,,,,,,,,,,,,,,,,,,0,0,0,0,0
0.4518,1783190188.1050,1,0,1.0000,0.0000,1.44682,0.23328,-2.77748,0.97337,1.57080,0.00000,-0.14512,-0.38003,0.04653,,,,,,,,,,,,,,,,,,,,,,,,,,0,0,0,0,0
0.4521,1783190188.1054,1,0,1.0000,0.0000,1.44682,0.23328,-2.77748,0.97337,1.57080,0.00000,-0.14512,-0.38003,0.04653,,,,,,,,,,,,,,,,,,,,,,,,,,0,0,0,0,0
0.4616,1783190188.1148,1,0,1.0000,0.0000,1.44682,0.23328,-2.77748,0.97337,1.57080,0.00000,-0.14512,-0.38003,0.04653,,,,,,,,,,,,,,,,,,,,,,,,,,0,0,0,0,0
0.4731,1783190188.1263,1,0,1.0000,0.0000,1.44682,0.23328,-2.77748,0.97337,1.57080,0.00000,-0.14512,-0.38003,0.04653,,,,,,,,,,,,,,,,,,,,,,,,,,0,0,0,0,0
0.4734,1783190188.1266,1,0,1.0000,0.0000,1.44682,0.23328,-2.77748,0.97337,1.57080,0.00000,-0.14512,-0.38003,0.04653,,,,,,,,,,,,,,,,,,,,,,,,,,0,0,0,0,0
0.4857,1783190188.1389,1,0,1.0000,0.0000,1.44682,0.23328,-2.77748,0.97337,1.57080,0.00000,-0.14512,-0.38003,0.04653,,,,,,,,,,,,,,,,,,,,,,,,,,0,0,0,0,0
0.4979,1783190188.1511,1,0,1.0000,0.0000,1.44682,0.23328,-2.77748,0.97337,1.57080,0.00000,-0.14512,-0.38003,0.04653,,,,,,,,,,,,,,,,,,,,,,,,,,0,0,0,0,0
0.4981,1783190188.1513,1,0,1.0000,0.0000,1.44682,0.23328,-2.77748,0.97337,1.57080,0.00000,-0.14512,-0.38003,0.04653,,,,,,,,,,,,,,,,,,,,,,,,,,0,0,0,0,0
0.5092,1783190188.1624,1,0,1.0000,0.0000,1.44682,0.23328,-2.77748,0.97337,1.57080,0.00000,-0.14512,-0.38003,0.04653,,,,,,,,,,,,,,,,,,,,,,,,,,0,0,0,0,0
0.5096,1783190188.1628,1,0,1.0000,0.0000,1.44682,0.23328,-2.77748,0.97337,1.57080,0.00000,-0.14512,-0.38003,0.04653,,,,,,,,,,,,,,,,,,,,,,,,,,0,0,0,0,0
0.5257,1783190188.1790,1,0,1.0000,0.0000,1.44682,0.23328,-2.77748,0.97337,1.57080,0.00000,-0.14512,-0.38003,0.04653,,,,,,,,,,,,,,,,,,,,,,,,,,0,0,0,0,0
0.5260,1783190188.1792,1,0,1.0000,0.0000,1.44682,0.23328,-2.77748,0.97337,1.57080,0.00000,-0.14512,-0.38003,0.04653,,,,,,,,,,,,,,,,,,,,,,,,,,0,0,0,0,0
0.5388,1783190188.1920,1,0,1.0000,0.0000,1.44682,0.23328,-2.77748,0.97337,1.57080,0.00000,-0.14512,-0.38003,0.04653,,,,,,,,,,,,,,,,,,,,,,,,,,0,0,0,0,0
0.5459,1783190188.1991,1,0,1.0000,0.0000,1.44682,0.23328,-2.77748,0.97337,1.57080,0.00000,-0.14512,-0.38003,0.04653,,,,,,,,,,,,,,,,,,,,,,,,,,0,0,0,0,0
0.5546,1783190188.2078,1,0,1.0000,0.0000,1.44682,0.23328,-2.77748,0.97337,1.57080,0.00000,-0.14512,-0.38003,0.04653,,,,,,,,,,,,,,,,,,,,,,,,,,0,0,0,0,0
0.5673,1783190188.2205,1,0,1.0000,0.0000,1.44682,0.23328,-2.77748,0.97337,1.57080,0.00000,-0.14512,-0.38003,0.04653,,,,,,,,,,,,,,,,,,,,,,,,,,0,0,0,0,0
0.5754,1783190188.2286,1,0,1.0000,0.0000,1.44682,0.23328,-2.77748,0.97337,1.57080,0.00000,-0.14512,-0.38003,0.04653,,,,,,,,,,,,,,,,,,,,,,,,,,0,0,0,0,0
0.5904,1783190188.2436,1,0,1.0000,0.0000,1.44682,0.23328,-2.77748,0.97337,1.57080,0.00000,-0.14512,-0.38003,0.04653,,,,,,,,,,,,,,,,,,,,,,,,,,0,0,0,0,0
0.6015,1783190188.2547,1,0,1.0000,0.0000,1.44682,0.23328,-2.77748,0.97337,1.57080,0.00000,-0.14512,-0.38003,0.04653,,,,,,,,,,,,,,,,,,,,,,,,,,0,0,0,0,0
0.6018,1783190188.2550,1,0,1.0000,0.0000,1.44682,0.23328,-2.77748,0.97337,1.57080,0.00000,-0.14512,-0.38003,0.04653,,,,,,,,,,,,,,,,,,,,,,,,,,0,0,0,0,0
0.6061,1783190188.2593,1,0,1.0000,0.0000,1.44682,0.23328,-2.77748,0.97337,1.57080,0.00000,-0.14512,-0.38003,0.04653,,,,,,,,,,,,,,,,,,,,,,,,,,0,0,0,0,0
0.6210,1783190188.2743,1,0,1.0000,0.0000,1.44682,0.23328,-2.77748,0.97337,1.57080,0.00000,-0.14512,-0.38003,0.04653,,,,,,,,,,,,,,,,,,,,,,,,,,0,0,0,0,0
0.6265,1783190188.2797,1,0,1.0000,0.0000,1.44682,0.23328,-2.77748,0.97337,1.57080,0.00000,-0.14512,-0.38003,0.04653,,,,,,,,,,,,,,,,,,,,,,,,,,0,0,0,0,0
0.6411,1783190188.2943,1,0,1.0000,0.0000,1.44682,0.23328,-2.77748,0.97337,1.57080,0.00000,-0.14512,-0.38003,0.04653,,,,,,,,,,,,,,,,,,,,,,,,,,0,0,0,0,0
0.6478,1783190188.3011,1,0,1.0000,0.0000,1.44682,0.23328,-2.77748,0.97337,1.57080,0.00000,-0.14512,-0.38003,0.04653,,,,,,,,,,,,,,,,,,,,,,,,,,0,0,0,0,0
0.6481,1783190188.3014,1,0,1.0000,0.0000,1.44682,0.23328,-2.77748,0.97337,1.57080,0.00000,-0.14512,-0.38003,0.04653,,,,,,,,,,,,,,,,,,,,,,,,,,0,0,0,0,0
0.6562,1783190188.3094,1,0,1.0000,0.0000,1.44682,0.23328,-2.77748,0.97337,1.57080,0.00000,-0.14512,-0.38003,0.04653,,,,,,,,,,,,,,,,,,,,,,,,,,0,0,0,0,0
0.6574,1783190188.3106,1,0,1.0000,0.0000,1.44682,0.23328,-2.77748,0.97337,1.57080,0.00000,-0.14512,-0.38003,0.04653,,,,,,,,,,,,,,,,,,,,,,,,,,0,0,0,0,0
0.6577,1783190188.3109,1,0,1.0000,0.0000,1.44682,0.23328,-2.77748,0.97337,1.57080,0.00000,-0.14512,-0.38003,0.04653,,,,,,,,,,,,,,,,,,,,,,,,,,0,0,0,0,0
0.6652,1783190188.3185,1,0,1.0000,0.0000,1.44682,0.23328,-2.77748,0.97337,1.57080,0.00000,-0.14512,-0.38003,0.04653,,,,,,,,,,,,,,,,,,,,,,,,,,0,0,0,0,0
0.6759,1783190188.3292,1,0,1.0000,0.0000,1.44682,0.23328,-2.77748,0.97337,1.57080,0.00000,-0.14512,-0.38003,0.04653,,,,,,,,,,,,,,,,,,,,,,,,,,0,0,0,0,0
0.6869,1783190188.3401,1,0,1.0000,0.0000,1.44682,0.23328,-2.77748,0.97337,1.57080,0.00000,-0.14512,-0.38003,0.04653,,,,,,,,,,,,,,,,,,,,,,,,,,0,0,0,0,0
0.6957,1783190188.3489,1,0,1.0000,0.0000,1.44682,0.23328,-2.77748,0.97337,1.57080,0.00000,-0.14512,-0.38003,0.04653,,,,,,,,,,,,,,,,,,,,,,,,,,0,0,0,0,0
0.7061,1783190188.3593,1,0,1.0000,0.0000,1.44682,0.23328,-2.77748,0.97337,1.57080,0.00000,-0.14512,-0.38003,0.04653,,,,,,,,,,,,,,,,,,,,,,,,,,0,0,0,0,0
0.7235,1783190188.3767,1,0,1.0000,0.0000,1.44682,0.23328,-2.77748,0.97337,1.57080,0.00000,-0.14512,-0.38003,0.04653,,,,,,,,,,,,,,,,,,,,,,,,,,0,0,0,0,0
0.7238,1783190188.3770,1,0,1.0000,0.0000,1.44682,0.23328,-2.77748,0.97337,1.57080,0.00000,-0.14512,-0.38003,0.04653,,,,,,,,,,,,,,,,,,,,,,,,,,0,0,0,0,0
0.7294,1783190188.3826,1,0,1.0000,0.0000,1.44682,0.23328,-2.77748,0.97337,1.57080,0.00000,-0.14512,-0.38003,0.04653,,,,,,,,,,,,,,,,,,,,,,,,,,0,0,0,0,0
0.7298,1783190188.3830,1,0,1.0000,0.0000,1.44682,0.23328,-2.77748,0.97337,1.57080,0.00000,-0.14512,-0.38003,0.04653,,,,,,,,,,,,,,,,,,,,,,,,,,0,0,0,0,0
0.7447,1783190188.3980,1,1,1.0000,0.0000,1.44682,0.23328,-2.77748,0.97337,1.57080,0.00000,-0.14512,-0.38003,0.04653,,,,,,,,,,,,,,,,,,,,,,,,,,0,0,0,0,0
0.7455,1783190188.3987,1,1,1.0000,0.0000,1.44682,0.23328,-2.77748,0.97337,1.57080,0.00000,-0.14512,-0.38003,0.04653,,,,,,,,,,,,,,,,,,,,,,,,,,0,0,0,0,0
0.7467,1783190188.3999,1,1,1.0000,0.0000,1.44682,0.23328,-2.77748,0.97337,1.57080,0.00000,-0.14512,-0.38003,0.04653,,,,,,,,,,,,,,,,,,,,,,,,,,0,0,0,0,0
0.7470,1783190188.4002,1,1,1.0000,0.0000,1.44682,0.23328,-2.77748,0.97337,1.57080,0.00000,-0.14512,-0.38003,0.04653,,,,,,,,,,,,,,,,,,,,,,,,,,0,0,0,0,0
0.7553,1783190188.4085,1,1,1.0000,0.0000,1.44682,0.23328,-2.77748,0.97337,1.57080,0.00000,-0.14512,-0.38003,0.04653,,,,,,,,,,,,,,,,,,,,,,,,,,0,0,0,0,0
0.7655,1783190188.4187,1,1,1.0000,0.0000,1.44682,0.23328,-2.77748,0.97337,1.57080,0.00000,-0.14512,-0.38003,0.04653,,,,,,,,,,,,,,,,,,,,,,,,,,0,0,0,0,0
0.7762,1783190188.4294,1,1,1.0000,0.0000,1.44682,0.23328,-2.77748,0.97337,1.57080,0.00000,-0.14512,-0.38003,0.04653,,,,,,,,,,,,,,,,,,,,,,,,,,0,0,0,0,0
0.7894,1783190188.4427,1,1,1.0000,0.0000,1.44682,0.23328,-2.77748,0.97337,1.57080,0.00000,-0.14512,-0.38003,0.04653,,,,,,,,,,,,,,,,,,,,,,,,,,0,0,0,0,0
0.7974,1783190188.4506,1,1,1.0000,0.0000,1.44682,0.23328,-2.77748,0.97337,1.57080,0.00000,-0.14512,-0.38003,0.04653,,,,,,,,,,,,,,,,,,,,,,,,,,0,0,0,0,0
0.7977,1783190188.4509,1,1,1.0000,0.0000,1.44682,0.23328,-2.77748,0.97337,1.57080,0.00000,-0.14512,-0.38003,0.04653,,,,,,,,,,,,,,,,,,,,,,,,,,0,0,0,0,0
0.8062,1783190188.4594,1,1,1.0000,0.0000,1.44682,0.23328,-2.77748,0.97337,1.57080,0.00000,-0.14512,-0.38003,0.04653,,,,,,,,,,,,,,,,,,,,,,,,,,0,0,0,0,0
0.8770,1783190188.5303,1,1,1.0000,0.0000,1.44682,0.23328,-2.77748,0.97337,1.57080,0.00000,-0.14512,-0.38003,0.04653,,,,,,,,,,,,,,,,,,,,,,,,,,0,0,0,0,0
0.8778,1783190188.5310,1,1,1.0000,0.0000,1.44682,0.23328,-2.77748,0.97337,1.57080,0.00000,-0.14512,-0.38003,0.04653,,,,,,,,,,,,,,,,,,,,,,,,,,0,0,0,0,0
0.8781,1783190188.5313,1,1,1.0000,0.0000,1.44682,0.23328,-2.77748,0.97337,1.57080,0.00000,-0.14512,-0.38003,0.04653,,,,,,,,,,,,,,,,,,,,,,,,,,0,0,0,0,0
0.8783,1783190188.5315,1,1,1.0000,0.0000,1.44682,0.23328,-2.77748,0.97337,1.57080,0.00000,-0.14512,-0.38003,0.04653,,,,,,,,,,,,,,,,,,,,,,,,,,0,0,0,0,0
0.8786,1783190188.5318,1,1,1.0000,0.0000,1.44682,0.23328,-2.77748,0.97337,1.57080,0.00000,-0.14512,-0.38003,0.04653,,,,,,,,,,,,,,,,,,,,,,,,,,0,0,0,0,0
0.8917,1783190188.5449,1,1,1.0000,0.0000,1.44682,0.23328,-2.77748,0.97337,1.57080,0.00000,-0.14512,-0.38003,0.04653,,,,,,,,,,,,,,,,,,,,,,,,,,0,0,0,0,0
0.9002,1783190188.5534,1,1,1.0000,0.0000,1.44682,0.23328,-2.77748,0.97337,1.57080,0.00000,-0.14512,-0.38003,0.04653,,,,,,,,,,,,,,,,,,,,,,,,,,0,0,0,0,0
0.9005,1783190188.5537,1,1,1.0000,0.0000,1.44682,0.23328,-2.77748,0.97337,1.57080,0.00000,-0.14512,-0.38003,0.04653,,,,,,,,,,,,,,,,,,,,,,,,,,0,0,0,0,0
0.9054,1783190188.5587,1,1,1.0000,0.0000,1.44682,0.23328,-2.77748,0.97337,1.57080,0.00000,-0.14512,-0.38003,0.04653,,,,,,,,,,,,,,,,,,,,,,,,,,0,0,0,0,0
0.9179,1783190188.5711,1,1,1.0000,0.0000,1.44682,0.23328,-2.77748,0.97337,1.57080,0.00000,-0.14512,-0.38003,0.04653,,,,,,,,,,,,,,,,,,,,,,,,,,0,0,0,0,0
0.9182,1783190188.5714,1,1,1.0000,0.0000,1.44682,0.23328,-2.77748,0.97337,1.57080,0.00000,-0.14512,-0.38003,0.04653,,,,,,,,,,,,,,,,,,,,,,,,,,0,0,0,0,0
0.9296,1783190188.5829,1,1,1.0000,0.0000,1.44682,0.23322,-2.77749,0.97344,1.57080,0.00000,-0.14512,-0.38003,0.04651,,,,,,,,,,,,,,,,,,,,,,,,,,0,0,0,0,0
0.9299,1783190188.5832,1,1,1.0000,0.0000,1.44682,0.23322,-2.77749,0.97344,1.57080,0.00000,-0.14512,-0.38003,0.04651,,,,,,,,,,,,,,,,,,,,,,,,,,0,0,0,0,0
0.9355,1783190188.5887,1,1,1.0000,0.0000,1.44682,0.23316,-2.77751,0.97352,1.57080,0.00000,-0.14512,-0.38003,0.04650,,,,,,,,,,,,,,,,,,,,,,,,,,0,0,0,0,0
0.9507,1783190188.6039,1,1,1.0000,0.0000,1.44682,0.23285,-2.77759,0.97390,1.57080,0.00000,-0.14512,-0.38003,0.04642,,,,,,,,,,,,,,,,,,,,,,,,,,0,0,0,0,0
0.9615,1783190188.6148,1,1,1.0000,0.0000,1.44682,0.23282,-2.77759,0.97394,1.57080,0.00000,-0.14512,-0.38003,0.04641,,,,,,,,,,,,,,,,,,,,,,,,,,0,0,0,0,0
0.9621,1783190188.6153,1,1,1.0000,0.0000,1.44682,0.23282,-2.77759,0.97394,1.57080,0.00000,-0.14512,-0.38003,0.04641,,,,,,,,,,,,,,,,,,,,,,,,,,0,0,0,0,0
0.9650,1783190188.6182,1,1,1.0000,0.0000,1.44682,0.23282,-2.77759,0.97394,1.57080,0.00000,-0.14512,-0.38003,0.04641,,,,,,,,,,,,,,,,,,,,,,,,,,0,0,0,0,0
0.9656,1783190188.6188,1,1,1.0000,0.0000,1.44682,0.23279,-2.77760,0.97398,1.57080,0.00000,-0.14512,-0.38003,0.04640,,,,,,,,,,,,,,,,,,,,,,,,,,0,0,0,0,0
0.9774,1783190188.6306,1,1,1.0000,0.0000,1.44682,0.23264,-2.77764,0.97417,1.57080,0.00000,-0.14512,-0.38003,0.04636,,,,,,,,,,,,,,,,,,,,,,,,,,0,0,0,0,0
0.9854,1783190188.6387,1,1,1.0000,0.0000,1.44682,0.23263,-2.77764,0.97419,1.57080,0.00000,-0.14512,-0.38003,0.04636,,,,,,,,,,,,,,,,,,,,,,,,,,0,0,0,0,0
0.9964,1783190188.6497,1,1,1.0000,0.0000,1.44682,0.23254,-2.77767,0.97429,1.57080,0.00000,-0.14512,-0.38003,0.04634,,,,,,,,,,,,,,,,,,,,,,,,,,0,0,0,0,0
1.0116,1783190188.6648,1,1,1.0000,0.0000,1.44682,0.23227,-2.77774,0.97464,1.57080,0.00000,-0.14512,-0.38003,0.04626,,,,,,,,,,,,,,,,,,,,,,,,,,0,0,0,0,0
1.0149,1783190188.6681,1,1,1.0000,0.0000,1.44682,0.23227,-2.77774,0.97464,1.57080,0.00000,-0.14512,-0.38003,0.04626,,,,,,,,,,,,,,,,,,,,,,,,,,0,0,0,0,0
1.0153,1783190188.6685,1,1,1.0000,0.0000,1.44682,0.23227,-2.77774,0.97464,1.57080,0.00000,-0.14512,-0.38003,0.04626,,,,,,,,,,,,,,,,,,,,,,,,,,0,0,0,0,0
1.0253,1783190188.6785,1,1,1.0000,0.0000,1.44682,0.23220,-2.77775,0.97472,1.57080,0.00000,-0.14512,-0.38003,0.04625,,,,,,,,,,,,,,,,,,,,,,,,,,0,0,0,0,0
1.0350,1783190188.6882,1,1,1.0000,0.0000,1.44682,0.23210,-2.77778,0.97485,1.57080,0.00000,-0.14512,-0.38003,0.04622,,,,,,,,,,,,,,,,,,,,,,,,,,0,0,0,0,0
1.0559,1783190188.7092,1,1,1.0000,0.0000,1.44682,0.23195,-2.77782,0.97504,1.57080,0.00000,-0.14512,-0.38003,0.04618,,,,,,,,,,,,,,,,,,,,,,,,,,0,0,0,0,0
1.0564,1783190188.7096,1,1,1.0000,0.0000,1.44682,0.23195,-2.77782,0.97504,1.57080,0.00000,-0.14512,-0.38003,0.04618,,,,,,,,,,,,,,,,,,,,,,,,,,0,0,0,0,0
1.0569,1783190188.7101,1,1,1.0000,0.0000,1.44682,0.23195,-2.77782,0.97504,1.57080,0.00000,-0.14512,-0.38003,0.04618,,,,,,,,,,,,,,,,,,,,,,,,,,0,0,0,0,0
1.0649,1783190188.7181,1,1,1.0000,0.0000,1.44682,0.23182,-2.77785,0.97521,1.57080,0.00000,-0.14512,-0.38003,0.04615,,,,,,,,,,,,,,,,,,,,,,,,,,0,0,0,0,0
1.0766,1783190188.7298,1,1,1.0000,0.0000,1.44682,0.23168,-2.77789,0.97538,1.57080,0.00000,-0.14512,-0.38003,0.04611,,,,,,,,,,,,,,,,,,,,,,,,,,0,0,0,0,0
1.0900,1783190188.7432,1,1,1.0000,0.0000,1.44682,0.23156,-2.77792,0.97553,1.57080,0.00000,-0.14512,-0.38003,0.04608,,,,,,,,,,,,,,,,,,,,,,,,,,0,0,0,0,0
1.0988,1783190188.7520,1,1,1.0000,0.0000,1.44682,0.23145,-2.77795,0.97567,1.57080,0.00000,-0.14512,-0.38003,0.04605,,,,,,,,,,,,,,,,,,,,,,,,,,0,0,0,0,0
1.1123,1783190188.7655,1,1,1.0000,0.0000,1.44682,0.23140,-2.77796,0.97572,1.57080,0.00000,-0.14512,-0.38003,0.04604,,,,,,,,,,,,,,,,,,,,,,,,,,0,0,0,0,0
1.1203,1783190188.7735,1,1,1.0000,0.0000,1.44682,0.23129,-2.77799,0.97587,1.57080,0.00000,-0.14512,-0.38003,0.04601,,,,,,,,,,,,,,,,,,,,,,,,,,0,0,0,0,0
1.1340,1783190188.7872,1,1,1.0000,0.0000,1.44682,0.23108,-2.77804,0.97613,1.57080,0.00000,-0.14512,-0.38003,0.04595,,,,,,,,,,,,,,,,,,,,,,,,,,0,0,0,0,0
1.1389,1783190188.7921,1,1,1.0000,0.0000,1.44682,0.23107,-2.77805,0.97614,1.57080,0.00000,-0.14512,-0.38003,0.04595,,,,,,,,,,,,,,,,,,,,,,,,,,0,0,0,0,0
1.1534,1783190188.8067,1,1,1.0000,0.0000,1.44682,0.23086,-2.77810,0.97641,1.57080,0.00000,-0.14512,-0.38003,0.04590,,,,,,,,,,,,,,,,,,,,,,,,,,0,0,0,0,0
1.1537,1783190188.8069,1,1,1.0000,0.0000,1.44682,0.23086,-2.77810,0.97641,1.57080,0.00000,-0.14512,-0.38003,0.04590,,,,,,,,,,,,,,,,,,,,,,,,,,0,0,0,0,0
1.1614,1783190188.8146,1,1,1.0000,0.0000,1.44682,0.23079,-2.77812,0.97649,1.57080,0.00000,-0.14512,-0.38003,0.04588,,,,,,,,,,,,,,,,,,,,,,,,,,0,0,0,0,0
1.1693,1783190188.8226,1,1,1.0000,0.0000,1.44682,0.23075,-2.77813,0.97655,1.57080,0.00000,-0.14512,-0.38003,0.04587,,,,,,,,,,,,,,,,,,,,,,,,,,0,0,0,0,0
1.1695,1783190188.8228,1,1,1.0000,0.0000,1.44682,0.23075,-2.77813,0.97655,1.57080,0.00000,-0.14512,-0.38003,0.04587,,,,,,,,,,,,,,,,,,,,,,,,,,0,0,0,0,0
1.1820,1783190188.8352,1,1,1.0000,0.0000,1.44682,0.23057,-2.77817,0.97677,1.57080,0.00000,-0.14512,-0.38003,0.04582,,,,,,,,,,,,,,,,,,,,,,,,,,0,0,0,0,0
1.1823,1783190188.8356,1,1,1.0000,0.0000,1.44682,0.23057,-2.77817,0.97677,1.57080,0.00000,-0.14512,-0.38003,0.04582,,,,,,,,,,,,,,,,,,,,,,,,,,0,0,0,0,0
1.1897,1783190188.8429,1,1,1.0000,0.0000,1.44682,0.23044,-2.77821,0.97694,1.57080,0.00000,-0.14512,-0.38003,0.04579,,,,,,,,,,,,,,,,,,,,,,,,,,0,0,0,0,0
1.2018,1783190188.8550,1,1,1.0000,0.0000,1.44682,0.23039,-2.77822,0.97700,1.57080,0.00000,-0.14512,-0.38003,0.04577,,,,,,,,,,,,,,,,,,,,,,,,,,0,0,0,0,0
1.2096,1783190188.8628,1,1,1.0000,0.0000,1.44682,0.23028,-2.77825,0.97714,1.57080,0.00000,-0.14512,-0.38003,0.04575,,,,,,,,,,,,,,,,,,,,,,,,,,0,0,0,0,0
1.2098,1783190188.8631,1,1,1.0000,0.0000,1.44682,0.23028,-2.77825,0.97714,1.57080,0.00000,-0.14512,-0.38003,0.04575,,,,,,,,,,,,,,,,,,,,,,,,,,0,0,0,0,0
1.2209,1783190188.8741,1,1,1.0000,0.0000,1.44682,0.23014,-2.77828,0.97731,1.57080,0.00000,-0.14512,-0.38003,0.04571,,,,,,,,,,,,,,,,,,,,,,,,,,0,0,0,0,0
1.2296,1783190188.8829,1,1,1.0000,0.0000,1.44682,0.23010,-2.77829,0.97736,1.57080,0.00000,-0.14512,-0.38003,0.04570,,,,,,,,,,,,,,,,,,,,,,,,,,0,0,0,0,0
1.2389,1783190188.8921,1,1,1.0000,0.0000,1.44682,0.22999,-2.77832,0.97750,1.57080,0.00000,-0.14512,-0.38003,0.04567,,,,,,,,,,,,,,,,,,,,,,,,,,0,0,0,0,0
1.2631,1783190188.9164,1,1,1.0000,0.0000,1.44682,0.22974,-2.77839,0.97781,1.57080,0.00000,-0.14512,-0.38003,0.04560,,,,,,,,,,,,,,,,,,,,,,,,,,0,0,0,0,0
1.2634,1783190188.9166,1,1,1.0000,0.0000,1.44682,0.22974,-2.77839,0.97781,1.57080,0.00000,-0.14512,-0.38003,0.04560,,,,,,,,,,,,,,,,,,,,,,,,,,0,0,0,0,0
1.2697,1783190188.9230,1,1,1.0000,0.0000,1.44682,0.22963,-2.77841,0.97795,1.57080,0.00000,-0.14512,-0.38003,0.04558,,,,,,,,,,,,,,,,,,,,,,,,,,0,0,0,0,0
1.2701,1783190188.9233,1,1,1.0000,0.0000,1.44682,0.22963,-2.77841,0.97795,1.57080,0.00000,-0.14512,-0.38003,0.04558,,,,,,,,,,,,,,,,,,,,,,,,,,0,0,0,0,0
1.2790,1783190188.9322,1,1,1.0000,0.0000,1.44682,0.22950,-2.77845,0.97812,1.57080,0.00000,-0.14512,-0.38003,0.04554,,,,,,,,,,,,,,,,,,,,,,,,,,0,0,0,0,0
1.2793,1783190188.9326,1,1,1.0000,0.0000,1.44682,0.22950,-2.77845,0.97812,1.57080,0.00000,-0.14512,-0.38003,0.04554,,,,,,,,,,,,,,,,,,,,,,,,,,0,0,0,0,0
1.2895,1783190188.9427,1,1,1.0000,0.0000,1.44682,0.22945,-2.77846,0.97818,1.57080,0.00000,-0.14512,-0.38003,0.04553,,,,,,,,,,,,,,,,,,,,,,,,,,0,0,0,0,0
1.3049,1783190188.9581,1,1,1.0000,0.0000,1.44682,0.22927,-2.77851,0.97840,1.57080,0.00000,-0.14512,-0.38003,0.04548,,,,,,,,,,,,,,,,,,,,,,,,,,0,0,0,0,0
1.3101,1783190188.9634,1,1,1.0000,0.0000,1.44682,0.22914,-2.77854,0.97857,1.57080,0.00000,-0.14512,-0.38003,0.04545,,,,,,,,,,,,,,,,,,,,,,,,,,0,0,0,0,0
1.3203,1783190188.9735,1,1,1.0000,0.0000,1.44682,0.22913,-2.77854,0.97859,1.57080,0.00000,-0.14512,-0.38003,0.04544,,,,,,,,,,,,,,,,,,,,,,,,,,0,0,0,0,0
1.3333,1783190188.9865,1,1,1.0000,0.0000,1.44682,0.22898,-2.77858,0.97877,1.57080,0.00000,-0.14512,-0.38003,0.04541,,,,,,,,,,,,,,,,,,,,,,,,,,0,0,0,0,0
1.3344,1783190188.9877,1,1,1.0000,0.0000,1.44682,0.22892,-2.77860,0.97885,1.57080,0.00000,-0.14512,-0.38003,0.04539,,,,,,,,,,,,,,,,,,,,,,,,,,0,0,0,0,0
1.3409,1783190188.9941,1,1,1.0000,0.0000,1.44682,0.22885,-2.77862,0.97894,1.57080,0.00000,-0.14512,-0.38003,0.04537,,,,,,,,,,,,,,,,,,,,,,,,,,0,0,0,0,0
1.3627,1783190189.0159,1,1,1.0000,0.0000,1.44682,0.22866,-2.77866,0.97917,1.57080,0.00000,-0.14512,-0.38003,0.04532,,,,,,,,,,,,,,,,,,,,,,,,,,0,0,0,0,0
1.3631,1783190189.0163,1,1,1.0000,0.0000,1.44682,0.22866,-2.77866,0.97917,1.57080,0.00000,-0.14512,-0.38003,0.04532,,,,,,,,,,,,,,,,,,,,,,,,,,0,0,0,0,0
1.3692,1783190189.0224,1,1,1.0000,0.0000,1.44682,0.22861,-2.77868,0.97924,1.57080,0.00000,-0.14512,-0.38003,0.04531,,,,,,,,,,,,,,,,,,,,,,,,,,0,0,0,0,0
1.3696,1783190189.0228,1,1,1.0000,0.0000,1.44682,0.22855,-2.77869,0.97931,1.57080,0.00000,-0.14512,-0.38003,0.04529,,,,,,,,,,,,,,,,,,,,,,,,,,0,0,0,0,0
1.3808,1783190189.0341,1,1,1.0000,0.0000,1.44682,0.22854,-2.77869,0.97933,1.57080,0.00000,-0.14512,-0.38003,0.04529,,,,,,,,,,,,,,,,,,,,,,,,,,0,0,0,0,0
1.3897,1783190189.0430,1,1,1.0000,0.0000,1.44682,0.22839,-2.77873,0.97951,1.57080,0.00000,-0.14512,-0.38003,0.04525,,,,,,,,,,,,,,,,,,,,,,,,,,0,0,0,0,0
1.4038,1783190189.0571,1,1,1.0000,0.0000,1.44682,0.22825,-2.77877,0.97969,1.57080,0.00000,-0.14512,-0.38003,0.04522,,,,,,,,,,,,,,,,,,,,,,,,,,0,0,0,0,0
1.4114,1783190189.0646,1,1,1.0000,0.0000,1.44682,0.22820,-2.77878,0.97974,1.57080,0.00000,-0.14512,-0.38003,0.04520,,,,,,,,,,,,,,,,,,,,,,,,,,0,0,0,0,0
1.4205,1783190189.0737,1,1,1.0000,0.0000,1.44682,0.22810,-2.77881,0.97988,1.57080,0.00000,-0.14512,-0.38003,0.04518,,,,,,,,,,,,,,,,,,,,,,,,,,0,0,0,0,0
1.4297,1783190189.0830,1,1,1.0000,0.0000,1.44682,0.22789,-2.77886,0.98014,1.57080,0.00000,-0.14512,-0.38003,0.04512,,,,,,,,,,,,,,,,,,,,,,,,,,0,0,0,0,0
1.4411,1783190189.0944,1,1,1.0000,0.0000,1.44682,0.22788,-2.77886,0.98015,1.57080,0.00000,-0.14512,-0.38003,0.04512,,,,,,,,,,,,,,,,,,,,,,,,,,0,0,0,0,0
1.4497,1783190189.1029,1,1,1.0000,0.0000,1.44682,0.22774,-2.77890,0.98033,1.57080,0.00000,-0.14512,-0.38003,0.04508,,,,,,,,,,,,,,,,,,,,,,,,,,0,0,0,0,0
1.4608,1783190189.1140,1,1,1.0000,0.0000,1.44682,0.22760,-2.77893,0.98050,1.57080,0.00000,-0.14512,-0.38003,0.04505,,,,,,,,,,,,,,,,,,,,,,,,,,0,0,0,0,0
1.4611,1783190189.1143,1,1,1.0000,0.0000,1.44682,0.22760,-2.77893,0.98050,1.57080,0.00000,-0.14512,-0.38003,0.04505,,,,,,,,,,,,,,,,,,,,,,,,,,0,0,0,0,0
1.4700,1783190189.1232,1,1,1.0000,0.0000,1.44682,0.22752,-2.77895,0.98060,1.57080,0.00000,-0.14512,-0.38003,0.04503,,,,,,,,,,,,,,,,,,,,,,,,,,0,0,0,0,0
1.4804,1783190189.1336,1,1,1.0000,0.0000,1.44682,0.22746,-2.77897,0.98068,1.57080,0.00000,-0.14512,-0.38003,0.04501,,,,,,,,,,,,,,,,,,,,,,,,,,0,0,0,0,0
1.4904,1783190189.1436,1,1,1.0000,0.0000,1.44682,0.22730,-2.77901,0.98088,1.57080,0.00000,-0.14512,-0.38003,0.04497,,,,,,,,,,,,,,,,,,,,,,,,,,0,0,0,0,0
1.4908,1783190189.1440,1,1,1.0000,0.0000,1.44682,0.22730,-2.77901,0.98088,1.57080,0.00000,-0.14512,-0.38003,0.04497,,,,,,,,,,,,,,,,,,,,,,,,,,0,0,0,0,0
1.4994,1783190189.1526,1,1,1.0000,0.0000,1.44682,0.22729,-2.77901,0.98089,1.57080,0.00000,-0.14512,-0.38003,0.04497,,,,,,,,,,,,,,,,,,,,,,,,,,0,0,0,0,0
1.4997,1783190189.1529,1,1,1.0000,0.0000,1.44682,0.22729,-2.77901,0.98089,1.57080,0.00000,-0.14512,-0.38003,0.04497,,,,,,,,,,,,,,,,,,,,,,,,,,0,0,0,0,0
1.5097,1783190189.1630,1,1,1.0000,0.0000,1.44682,0.22714,-2.77905,0.98108,1.57080,0.00000,-0.14512,-0.38003,0.04493,,,,,,,,,,,,,,,,,,,,,,,,,,0,0,0,0,0
1.5101,1783190189.1633,1,1,1.0000,0.0000,1.44682,0.22714,-2.77905,0.98108,1.57080,0.00000,-0.14512,-0.38003,0.04493,,,,,,,,,,,,,,,,,,,,,,,,,,0,0,0,0,0
1.5215,1783190189.1748,1,1,1.0000,0.0000,1.44682,0.22693,-2.77910,0.98134,1.57080,0.00001,-0.14512,-0.38003,0.04487,,,,,,,,,,,,,,,,,,,,,,,,,,0,0,0,0,0
1.5219,1783190189.1751,1,1,1.0000,0.0000,1.44682,0.22693,-2.77910,0.98134,1.57080,0.00001,-0.14512,-0.38003,0.04487,,,,,,,,,,,,,,,,,,,,,,,,,,0,0,0,0,0
1.5305,1783190189.1837,1,1,1.0000,0.0000,1.44682,0.22692,-2.77910,0.98135,1.57080,0.00001,-0.14512,-0.38003,0.04487,,,,,,,,,,,,,,,,,,,,,,,,,,0,0,0,0,0
1.5308,1783190189.1841,1,1,1.0000,0.0000,1.44682,0.22692,-2.77910,0.98135,1.57080,0.00001,-0.14512,-0.38003,0.04487,,,,,,,,,,,,,,,,,,,,,,,,,,0,0,0,0,0
1.5420,1783190189.1952,1,1,1.0000,0.0000,1.44682,0.22682,-2.77913,0.98148,1.57080,0.00001,-0.14512,-0.38003,0.04484,,,,,,,,,,,,,,,,,,,,,,,,,,0,0,0,0,0
1.5423,1783190189.1955,1,1,1.0000,0.0000,1.44682,0.22682,-2.77913,0.98148,1.57080,0.00001,-0.14512,-0.38003,0.04484,,,,,,,,,,,,,,,,,,,,,,,,,,0,0,0,0,0
1.5516,1783190189.2049,1,1,1.0000,0.0000,1.44682,0.22670,-2.77916,0.98163,1.57080,0.00001,-0.14512,-0.38003,0.04481,,,,,,,,,,,,,,,,,,,,,,,,,,0,0,0,0,0
1.5629,1783190189.2161,1,1,1.0000,0.0000,1.44682,0.22666,-2.77917,0.98168,1.57080,0.00001,-0.14512,-0.38003,0.04480,,,,,,,,,,,,,,,,,,,,,,,,,,0,0,0,0,0
1.5736,1783190189.2268,1,1,1.0000,0.0000,1.44682,0.22647,-2.77922,0.98191,1.57080,0.00001,-0.14512,-0.38003,0.04476,,,,,,,,,,,,,,,,,,,,,,,,,,0,0,0,0,0
1.5802,1783190189.2334,1,1,1.0000,0.0000,1.44682,0.22640,-2.77924,0.98200,1.57080,0.00001,-0.14512,-0.38003,0.04474,,,,,,,,,,,,,,,,,,,,,,,,,,0,0,0,0,0
1.5938,1783190189.2470,1,1,1.0000,0.0000,1.44682,0.22630,-2.77926,0.98213,1.57080,0.00001,-0.14512,-0.38003,0.04471,,,,,,,,,,,,,,,,,,,,,,,,,,0,0,0,0,0
1.5942,1783190189.2474,1,1,1.0000,0.0000,1.44682,0.22630,-2.77926,0.98213,1.57080,0.00001,-0.14512,-0.38003,0.04471,,,,,,,,,,,,,,,,,,,,,,,,,,0,0,0,0,0
1.6011,1783190189.2543,1,1,1.0000,0.0000,1.44682,0.22626,-2.77927,0.98218,1.57080,0.00001,-0.14512,-0.38003,0.04470,,,,,,,,,,,,,,,,,,,,,,,,,,0,0,0,0,0
1.6141,1783190189.2673,1,1,1.0000,0.0000,1.44682,0.22610,-2.77931,0.98238,1.57080,0.00001,-0.14512,-0.38003,0.04466,,,,,,,,,,,,,,,,,,,,,,,,,,0,0,0,0,0
1.6245,1783190189.2777,1,1,1.0000,0.0000,1.44682,0.22606,-2.77932,0.98243,1.57080,0.00001,-0.14512,-0.38003,0.04465,,,,,,,,,,,,,,,,,,,,,,,,,,0,0,0,0,0
1.6294,1783190189.2826,1,1,1.0000,0.0000,1.44682,0.22601,-2.77934,0.98250,1.57080,0.00001,-0.14512,-0.38003,0.04463,,,,,,,,,,,,,,,,,,,,,,,,,,0,0,0,0,0
1.6400,1783190189.2932,1,1,1.0000,0.0000,1.44682,0.22580,-2.77939,0.98275,1.57080,0.00001,-0.14512,-0.38003,0.04458,,,,,,,,,,,,,,,,,,,,,,,,,,0,0,0,0,0
1.6503,1783190189.3035,1,1,1.0000,0.0000,1.44682,0.22573,-2.77941,0.98285,1.57080,0.00001,-0.14512,-0.38003,0.04456,,,,,,,,,,,,,,,,,,,,,,,,,,0,0,0,0,0
1.6658,1783190189.3190,1,1,1.0000,0.0000,1.44682,0.22556,-2.77945,0.98305,1.57080,0.00001,-0.14512,-0.38003,0.04452,,,,,,,,,,,,,,,,,,,,,,,,,,0,0,0,0,0
1.6693,1783190189.3225,1,1,1.0000,0.0000,1.44682,0.22556,-2.77945,0.98305,1.57080,0.00001,-0.14512,-0.38003,0.04452,,,,,,,,,,,,,,,,,,,,,,,,,,0,0,0,0,0
1.6789,1783190189.3321,1,1,1.0000,0.0000,1.44682,0.22549,-2.77947,0.98314,1.57080,0.00001,-0.14512,-0.38003,0.04450,,,,,,,,,,,,,,,,,,,,,,,,,,0,0,0,0,0
1.6892,1783190189.3424,1,1,1.0000,0.0000,1.44682,0.22541,-2.77949,0.98325,1.57080,0.00001,-0.14512,-0.38002,0.04448,,,,,,,,,,,,,,,,,,,,,,,,,,0,0,0,0,0
1.6990,1783190189.3523,1,1,1.0000,0.0000,1.44682,0.22520,-2.77954,0.98350,1.57080,0.00001,-0.14512,-0.38002,0.04443,,,,,,,,,,,,,,,,,,,,,,,,,,0,0,0,0,0
1.7113,1783190189.3645,1,1,1.0000,0.0000,1.44682,0.22513,-2.77956,0.98360,1.57080,0.00001,-0.14512,-0.38002,0.04441,,,,,,,,,,,,,,,,,,,,,,,,,,0,0,0,0,0
1.7207,1783190189.3739,1,1,1.0000,0.0000,1.44682,0.22507,-2.77957,0.98368,1.57080,0.00001,-0.14512,-0.38002,0.04439,,,,,,,,,,,,,,,,,,,,,,,,,,0,0,0,0,0
1.7297,1783190189.3829,1,1,1.0000,0.0000,1.44682,0.22491,-2.77961,0.98388,1.57080,0.00001,-0.14512,-0.38002,0.04435,,,,,,,,,,,,,,,,,,,,,,,,,,0,0,0,0,0
1.7437,1783190189.3969,1,1,1.0000,0.0000,1.44682,0.22486,-2.77963,0.98394,1.57080,0.00001,-0.14512,-0.38002,0.04434,,,,,,,,,,,,,,,,,,,,,,,,,,0,0,0,0,0
1.7507,1783190189.4039,1,1,1.0000,0.0000,1.44682,0.22475,-2.77966,0.98408,1.57080,0.00001,-0.14512,-0.38002,0.04431,,,,,,,,,,,,,,,,,,,,,,,,,,0,0,0,0,0
1.7510,1783190189.4042,1,1,1.0000,0.0000,1.44682,0.22475,-2.77966,0.98408,1.57080,0.00001,-0.14512,-0.38002,0.04431,,,,,,,,,,,,,,,,,,,,,,,,,,0,0,0,0,0
1.7726,1783190189.4258,1,1,1.0000,0.0000,1.44682,0.22453,-2.77971,0.98435,1.57080,0.00001,-0.14512,-0.38002,0.04425,,,,,,,,,,,,,,,,,,,,,,,,,,0,0,0,0,0
1.7731,1783190189.4263,1,1,1.0000,0.0000,1.44682,0.22453,-2.77971,0.98435,1.57080,0.00001,-0.14512,-0.38002,0.04425,,,,,,,,,,,,,,,,,,,,,,,,,,0,0,0,0,0
1.7793,1783190189.4325,1,1,1.0000,0.0000,1.44682,0.22447,-2.77973,0.98443,1.57080,0.00001,-0.14512,-0.38002,0.04424,,,,,,,,,,,,,,,,,,,,,,,,,,0,0,0,0,0
1.7966,1783190189.4498,1,1,1.0000,0.0000,1.44682,0.22431,-2.77977,0.98463,1.57080,0.00001,-0.14512,-0.38002,0.04419,,,,,,,,,,,,,,,,,,,,,,,,,,0,0,0,0,0
1.8000,1783190189.4532,1,1,1.0000,0.0000,1.44682,0.22429,-2.77977,0.98464,1.57080,0.00001,-0.14512,-0.38002,0.04419,,,,,,,,,,,,,,,,,,,,,,,,,,0,0,0,0,0
1.8003,1783190189.4535,1,1,1.0000,0.0000,1.44682,0.22429,-2.77977,0.98464,1.57080,0.00001,-0.14512,-0.38002,0.04419,,,,,,,,,,,,,,,,,,,,,,,,,,0,0,0,0,0
1.8133,1783190189.4665,1,1,1.0000,0.0000,1.44682,0.22415,-2.77981,0.98483,1.57080,0.00001,-0.14512,-0.38002,0.04415,,,,,,,,,,,,,,,,,,,,,,,,,,0,0,0,0,0
1.8236,1783190189.4769,1,1,1.0000,0.0000,1.44682,0.22393,-2.77986,0.98509,1.57080,0.00001,-0.14512,-0.38002,0.04410,,,,,,,,,,,,,,,,,,,,,,,,,,0,0,0,0,0
1.8299,1783190189.4831,1,1,1.0000,0.0000,1.44682,0.22393,-2.77986,0.98510,1.57080,0.00001,-0.14512,-0.38002,0.04410,,,,,,,,,,,,,,,,,,,,,,,,,,0,0,0,0,0
1.8439,1783190189.4971,1,1,1.0000,0.0000,1.44682,0.22382,-2.77989,0.98524,1.57080,0.00001,-0.14512,-0.38002,0.04407,,,,,,,,,,,,,,,,,,,,,,,,,,0,0,0,0,0
1.8515,1783190189.5047,1,1,1.0000,0.0000,1.44682,0.22371,-2.77992,0.98538,1.57080,0.00001,-0.14512,-0.38002,0.04404,,,,,,,,,,,,,,,,,,,,,,,,,,0,0,0,0,0
1.8594,1783190189.5126,1,1,1.0000,0.0000,1.44682,0.22369,-2.77992,0.98540,1.57080,0.00001,-0.14512,-0.38002,0.04404,,,,,,,,,,,,,,,,,,,,,,,,,,0,0,0,0,0
1.8715,1783190189.5247,1,1,1.0000,0.0000,1.44682,0.22354,-2.77996,0.98558,1.57080,0.00001,-0.14512,-0.38002,0.04400,,,,,,,,,,,,,,,,,,,,,,,,,,0,0,0,0,0
1.8796,1783190189.5328,1,1,1.0000,0.0000,1.44682,0.22340,-2.77999,0.98576,1.57080,0.00001,-0.14512,-0.38002,0.04396,,,,,,,,,,,,,,,,,,,,,,,,,,0,0,0,0,0
1.8907,1783190189.5439,1,1,1.0000,0.0000,1.44682,0.22332,-2.78001,0.98586,1.57080,0.00001,-0.14512,-0.38002,0.04394,,,,,,,,,,,,,,,,,,,,,,,,,,0,0,0,0,0
1.8994,1783190189.5526,1,1,1.0000,0.0000,1.44682,0.22326,-2.78003,0.98593,1.57080,0.00001,-0.14512,-0.38002,0.04393,,,,,,,,,,,,,,,,,,,,,,,,,,0,0,0,0,0
1.8996,1783190189.5528,1,1,1.0000,0.0000,1.44682,0.22326,-2.78003,0.98593,1.57080,0.00001,-0.14512,-0.38002,0.04393,,,,,,,,,,,,,,,,,,,,,,,,,,0,0,0,0,0
1.9157,1783190189.5689,1,1,1.0000,0.0000,1.44682,0.22310,-2.78007,0.98613,1.57080,0.00001,-0.14512,-0.38002,0.04388,,,,,,,,,,,,,,,,,,,,,,,,,,0,0,0,0,0
1.9160,1783190189.5692,1,1,1.0000,0.0000,1.44682,0.22310,-2.78007,0.98613,1.57080,0.00001,-0.14512,-0.38002,0.04388,,,,,,,,,,,,,,,,,,,,,,,,,,0,0,0,0,0
1.9206,1783190189.5738,1,1,1.0000,0.0000,1.44682,0.22309,-2.78007,0.98615,1.57080,0.00001,-0.14512,-0.38002,0.04388,,,,,,,,,,,,,,,,,,,,,,,,,,0,0,0,0,0
1.9209,1783190189.5742,1,1,1.0000,0.0000,1.44682,0.22309,-2.78007,0.98615,1.57080,0.00001,-0.14512,-0.38002,0.04388,,,,,,,,,,,,,,,,,,,,,,,,,,0,0,0,0,0
1.9318,1783190189.5851,1,1,1.0000,0.0000,1.44682,0.22294,-2.78011,0.98633,1.57080,0.00001,-0.14512,-0.38002,0.04384,,,,,,,,,,,,,,,,,,,,,,,,,,0,0,0,0,0
1.9323,1783190189.5855,1,1,1.0000,0.0000,1.44682,0.22294,-2.78011,0.98633,1.57080,0.00001,-0.14512,-0.38002,0.04384,,,,,,,,,,,,,,,,,,,,,,,,,,0,0,0,0,0
1.9389,1783190189.5921,1,1,1.0000,0.0000,1.44682,0.22280,-2.78014,0.98651,1.57080,0.00001,-0.14512,-0.38002,0.04381,,,,,,,,,,,,,,,,,,,,,,,,,,0,0,0,0,0
1.9533,1783190189.6065,1,1,1.0000,0.0000,1.44681,0.22272,-2.78016,0.98661,1.57080,0.00001,-0.14512,-0.38002,0.04379,,,,,,,,,,,,,,,,,,,,,,,,,,0,0,0,0,0
1.9602,1783190189.6134,1,1,1.0000,0.0000,1.44681,0.22266,-2.78018,0.98668,1.57080,0.00001,-0.14512,-0.38002,0.04377,,,,,,,,,,,,,,,,,,,,,,,,,,0,0,0,0,0
1.9605,1783190189.6138,1,1,1.0000,0.0000,1.44681,0.22266,-2.78018,0.98668,1.57080,0.00001,-0.14512,-0.38002,0.04377,,,,,,,,,,,,,,,,,,,,,,,,,,0,0,0,0,0
1.9733,1783190189.6265,1,1,1.0000,0.0000,1.44681,0.22250,-2.78022,0.98688,1.57080,0.00001,-0.14512,-0.38002,0.04373,,,,,,,,,,,,,,,,,,,,,,,,,,0,0,0,0,0
1.9805,1783190189.6337,1,1,1.0000,0.0000,1.44681,0.22249,-2.78022,0.98690,1.57080,0.00001,-0.14512,-0.38002,0.04373,,,,,,,,,,,,,,,,,,,,,,,,,,0,0,0,0,0
1.9808,1783190189.6341,1,1,1.0000,0.0000,1.44681,0.22249,-2.78022,0.98690,1.57080,0.00001,-0.14512,-0.38002,0.04373,,,,,,,,,,,,,,,,,,,,,,,,,,0,0,0,0,0
1.9891,1783190189.6423,1,1,1.0000,0.0000,1.44681,0.22240,-2.78024,0.98701,1.57080,0.00001,-0.14512,-0.38002,0.04370,,,,,,,,,,,,,,,,,,,,,,,,,,0,0,0,0,0
2.0024,1783190189.6556,1,1,1.0000,0.0000,1.44681,0.22213,-2.78031,0.98735,1.57080,0.00001,-0.14512,-0.38002,0.04363,,,,,,,,,,,,,,,,,,,,,,,,,,0,0,0,0,0
2.0203,1783190189.6735,1,1,1.0000,0.0000,1.44681,0.22204,-2.78034,0.98747,1.57080,0.00001,-0.14512,-0.38002,0.04361,,,,,,,,,,,,,,,,,,,,,,,,,,0,0,0,0,0
2.0213,1783190189.6746,1,1,1.0000,0.0000,1.44681,0.22204,-2.78034,0.98747,1.57080,0.00001,-0.14512,-0.38002,0.04361,,,,,,,,,,,,,,,,,,,,,,,,,,0,0,0,0,0
2.0340,1783190189.6872,1,1,1.0000,0.0000,1.44681,0.22184,-2.78039,0.98772,1.57080,0.00001,-0.14512,-0.38002,0.04356,,,,,,,,,,,,,,,,,,,,,,,,,,0,0,0,0,0
2.0390,1783190189.6923,1,1,1.0000,0.0000,1.44681,0.22182,-2.78039,0.98773,1.57080,0.00001,-0.14512,-0.38002,0.04355,,,,,,,,,,,,,,,,,,,,,,,,,,0,0,0,0,0
2.0395,1783190189.6927,1,1,1.0000,0.0000,1.44681,0.22182,-2.78039,0.98773,1.57080,0.00001,-0.14512,-0.38002,0.04355,,,,,,,,,,,,,,,,,,,,,,,,,,0,0,0,0,0
2.0598,1783190189.7130,1,1,1.0000,0.0000,1.44681,0.22154,-2.78046,0.98808,1.57080,0.00001,-0.14512,-0.38002,0.04348,,,,,,,,,,,,,,,,,,,,,,,,,,0,0,0,0,0
2.0601,1783190189.7133,1,1,1.0000,0.0000,1.44681,0.22154,-2.78046,0.98808,1.57080,0.00001,-0.14512,-0.38002,0.04348,,,,,,,,,,,,,,,,,,,,,,,,,,0,0,0,0,0
2.0603,1783190189.7136,1,1,1.0000,0.0000,1.44681,0.22154,-2.78046,0.98808,1.57080,0.00001,-0.14512,-0.38002,0.04348,,,,,,,,,,,,,,,,,,,,,,,,,,0,0,0,0,0
2.0803,1783190189.7336,1,1,1.0000,0.0000,1.44681,0.22138,-2.78050,0.98829,1.57080,0.00001,-0.14512,-0.38002,0.04344,,,,,,,,,,,,,,,,,,,,,,,,,,0,0,0,0,0
2.0823,1783190189.7355,1,1,1.0000,0.0000,1.44681,0.22132,-2.78051,0.98837,1.57080,0.00001,-0.14512,-0.38002,0.04342,,,,,,,,,,,,,,,,,,,,,,,,,,0,0,0,0,0
2.0826,1783190189.7358,1,1,1.0000,0.0000,1.44681,0.22132,-2.78051,0.98837,1.57080,0.00001,-0.14512,-0.38002,0.04342,,,,,,,,,,,,,,,,,,,,,,,,,,0,0,0,0,0
2.0965,1783190189.7497,1,1,1.0000,0.0000,1.44681,0.22118,-2.78055,0.98854,1.57080,0.00001,-0.14512,-0.38002,0.04339,,,,,,,,,,,,,,,,,,,,,,,,,,0,0,0,0,0
2.1026,1783190189.7558,1,1,1.0000,0.0000,1.44681,0.22113,-2.78056,0.98860,1.57080,0.00001,-0.14512,-0.38002,0.04338,,,,,,,,,,,,,,,,,,,,,,,,,,0,0,0,0,0
2.1142,1783190189.7674,1,1,1.0000,0.0000,1.44681,0.22095,-2.78061,0.98882,1.57080,0.00001,-0.14512,-0.38002,0.04333,,,,,,,,,,,,,,,,,,,,,,,,,,0,0,0,0,0
2.1146,1783190189.7678,1,1,1.0000,0.0000,1.44681,0.22095,-2.78061,0.98882,1.57080,0.00001,-0.14512,-0.38002,0.04333,,,,,,,,,,,,,,,,,,,,,,,,,,0,0,0,0,0
2.1274,1783190189.7806,1,1,1.0000,0.0000,1.44681,0.22082,-2.78064,0.98899,1.57080,0.00001,-0.14512,-0.38002,0.04330,,,,,,,,,,,,,,,,,,,,,,,,,,0,0,0,0,0
2.1599,1783190189.8131,1,1,1.0000,0.0000,1.44681,0.22051,-2.78072,0.98938,1.57080,0.00001,-0.14512,-0.38002,0.04322,,,,,,,,,,,,,,,,,,,,,,,,,,0,0,0,0,0
2.1602,1783190189.8134,1,1,1.0000,0.0000,1.44681,0.22051,-2.78072,0.98938,1.57080,0.00001,-0.14512,-0.38002,0.04322,,,,,,,,,,,,,,,,,,,,,,,,,,0,0,0,0,0
2.1605,1783190189.8138,1,1,1.0000,0.0000,1.44681,0.22051,-2.78072,0.98938,1.57080,0.00001,-0.14512,-0.38002,0.04322,,,,,,,,,,,,,,,,,,,,,,,,,,0,0,0,0,0
2.1842,1783190189.8375,1,1,1.0000,0.0000,1.44681,0.22016,-2.78080,0.98981,1.57080,0.00001,-0.14512,-0.38002,0.04313,,,,,,,,,,,,,,,,,,,,,,,,,,0,0,0,0,0
2.1846,1783190189.8378,1,1,1.0000,0.0000,1.44681,0.22016,-2.78080,0.98981,1.57080,0.00001,-0.14512,-0.38002,0.04313,,,,,,,,,,,,,,,,,,,,,,,,,,0,0,0,0,0
2.1857,1783190189.8390,1,1,1.0000,0.0000,1.44681,0.22016,-2.78080,0.98981,1.57080,0.00001,-0.14512,-0.38002,0.04313,,,,,,,,,,,,,,,,,,,,,,,,,,0,0,0,0,0
2.1860,1783190189.8392,1,1,1.0000,0.0000,1.44681,0.22016,-2.78080,0.98981,1.57080,0.00001,-0.14512,-0.38002,0.04313,,,,,,,,,,,,,,,,,,,,,,,,,,0,0,0,0,0
2.1979,1783190189.8511,1,1,1.0000,0.0000,1.44681,0.22006,-2.78083,0.98993,1.57080,0.00001,-0.14512,-0.38002,0.04310,,,,,,,,,,,,,,,,,,,,,,,,,,0,0,0,0,0
2.2050,1783190189.8583,1,1,1.0000,0.0000,1.44681,0.22000,-2.78084,0.99001,1.57080,0.00001,-0.14512,-0.38002,0.04309,,,,,,,,,,,,,,,,,,,,,,,,,,0,0,0,0,0
2.2171,1783190189.8703,1,1,1.0000,0.0000,1.44681,0.21986,-2.78088,0.99018,1.57080,0.00001,-0.14512,-0.38002,0.04305,,,,,,,,,,,,,,,,,,,,,,,,,,0,0,0,0,0
2.2289,1783190189.8821,1,1,1.0000,0.0000,1.44681,0.21977,-2.78090,0.99030,1.57080,0.00001,-0.14512,-0.38002,0.04303,,,,,,,,,,,,,,,,,,,,,,,,,,0,0,0,0,0
2.2402,1783190189.8934,1,1,1.0000,0.0000,1.44681,0.21957,-2.78095,0.99055,1.57080,0.00001,-0.14512,-0.38002,0.04297,,,,,,,,,,,,,,,,,,,,,,,,,,0,0,0,0,0
2.2453,1783190189.8986,1,1,1.0000,0.0000,1.44681,0.21950,-2.78097,0.99064,1.57080,0.00001,-0.14512,-0.38002,0.04296,,,,,,,,,,,,,,,,,,,,,,,,,,0,0,0,0,0
2.2586,1783190189.9118,1,1,1.0000,0.0000,1.44681,0.21940,-2.78099,0.99075,1.57080,0.00001,-0.14512,-0.38002,0.04293,,,,,,,,,,,,,,,,,,,,,,,,,,0,0,0,0,0
2.2637,1783190189.9170,1,1,1.0000,0.0000,1.44681,0.21934,-2.78101,0.99083,1.57080,0.00001,-0.14512,-0.38002,0.04292,,,,,,,,,,,,,,,,,,,,,,,,,,0,0,0,0,0
2.2796,1783190189.9328,1,1,1.0000,0.0000,1.44681,0.21913,-2.78106,0.99109,1.57080,0.00001,-0.14512,-0.38002,0.04286,,,,,,,,,,,,,,,,,,,,,,,,,,0,0,0,0,0
2.2860,1783190189.9392,1,1,1.0000,0.0000,1.44681,0.21910,-2.78107,0.99113,1.57080,0.00001,-0.14512,-0.38002,0.04286,,,,,,,,,,,,,,,,,,,,,,,,,,0,0,0,0,0
2.2953,1783190189.9485,1,1,1.0000,0.0000,1.44681,0.21902,-2.78109,0.99124,1.57080,0.00001,-0.14512,-0.38002,0.04283,,,,,,,,,,,,,,,,,,,,,,,,,,0,0,0,0,0
2.3035,1783190189.9567,1,1,1.0000,0.0000,1.44681,0.21890,-2.78112,0.99138,1.57080,0.00001,-0.14512,-0.38002,0.04280,,,,,,,,,,,,,,,,,,,,,,,,,,0,0,0,0,0
2.3136,1783190189.9669,1,1,1.0000,0.0000,1.44681,0.21889,-2.78112,0.99140,1.57080,0.00001,-0.14512,-0.38002,0.04280,,,,,,,,,,,,,,,,,,,,,,,,,,0,0,0,0,0
2.3146,1783190189.9679,1,1,1.0000,0.0000,1.44681,0.21885,-2.78113,0.99144,1.57080,0.00001,-0.14512,-0.38002,0.04279,,,,,,,,,,,,,,,,,,,,,,,,,,0,0,0,0,0
2.3273,1783190189.9805,1,1,1.0000,0.0000,1.44681,0.21867,-2.78117,0.99167,1.57080,0.00001,-0.14512,-0.38002,0.04274,,,,,,,,,,,,,,,,,,,,,,,,,,0,0,0,0,0
2.3354,1783190189.9886,1,1,1.0000,0.0000,1.44681,0.21853,-2.78121,0.99185,1.57080,0.00001,-0.14512,-0.38002,0.04271,,,,,,,,,,,,,,,,,,,,,,,,,,0,0,0,0,0
2.3358,1783190189.9890,1,1,1.0000,0.0000,1.44681,0.21853,-2.78121,0.99185,1.57080,0.00001,-0.14512,-0.38002,0.04271,,,,,,,,,,,,,,,,,,,,,,,,,,0,0,0,0,0
2.3512,1783190190.0044,1,1,1.0000,0.0000,1.44681,0.21846,-2.78123,0.99194,1.57080,0.00001,-0.14512,-0.38002,0.04269,,,,,,,,,,,,,,,,,,,,,,,,,,0,0,0,0,0
2.3569,1783190190.0101,1,1,1.0000,0.0000,1.44681,0.21841,-2.78124,0.99199,1.57080,0.00001,-0.14512,-0.38002,0.04268,,,,,,,,,,,,,,,,,,,,,,,,,,0,0,0,0,0
2.3820,1783190190.0352,1,1,1.0000,0.0000,1.44681,0.21813,-2.78131,0.99234,1.57080,0.00001,-0.14512,-0.38002,0.04261,,,,,,,,,,,,,,,,,,,,,,,,,,0,0,0,0,0
2.3824,1783190190.0356,1,1,1.0000,0.0000,1.44681,0.21813,-2.78131,0.99234,1.57080,0.00001,-0.14512,-0.38002,0.04261,,,,,,,,,,,,,,,,,,,,,,,,,,0,0,0,0,0
2.3883,1783190190.0415,1,1,1.0000,0.0000,1.44681,0.21806,-2.78132,0.99243,1.57080,0.00001,-0.14512,-0.38002,0.04259,,,,,,,,,,,,,,,,,,,,,,,,,,0,0,0,0,0
2.3887,1783190190.0420,1,1,1.0000,0.0000,1.44681,0.21806,-2.78132,0.99243,1.57080,0.00001,-0.14512,-0.38002,0.04259,,,,,,,,,,,,,,,,,,,,,,,,,,0,0,0,0,0
2.3942,1783190190.0475,1,1,1.0000,0.0000,1.44681,0.21792,-2.78136,0.99260,1.57080,0.00001,-0.14512,-0.38002,0.04255,,,,,,,,,,,,,,,,,,,,,,,,,,0,0,0,0,0
2.3946,1783190190.0478,1,1,1.0000,0.0000,1.44681,0.21792,-2.78136,0.99260,1.57080,0.00001,-0.14512,-0.38002,0.04255,,,,,,,,,,,,,,,,,,,,,,,,,,0,0,0,0,0
2.4053,1783190190.0585,1,1,1.0000,0.0000,1.44681,0.21791,-2.78136,0.99261,1.57080,0.00001,-0.14512,-0.38002,0.04255,,,,,,,,,,,,,,,,,,,,,,,,,,0,0,0,0,0
2.4169,1783190190.0702,1,1,1.0000,0.0000,1.44681,0.21780,-2.78139,0.99275,1.57080,0.00001,-0.14512,-0.38002,0.04252,,,,,,,,,,,,,,,,,,,,,,,,,,0,0,0,0,0
2.4278,1783190190.0810,1,1,1.0000,0.0000,1.44681,0.21769,-2.78142,0.99289,1.57080,0.00001,-0.14512,-0.38002,0.04249,,,,,,,,,,,,,,,,,,,,,,,,,,0,0,0,0,0
2.4341,1783190190.0874,1,1,1.0000,0.0000,1.44681,0.21764,-2.78143,0.99295,1.57080,0.00001,-0.14512,-0.38002,0.04248,,,,,,,,,,,,,,,,,,,,,,,,,,0,0,0,0,0
2.4344,1783190190.0876,1,1,1.0000,0.0000,1.44681,0.21764,-2.78143,0.99295,1.57080,0.00001,-0.14512,-0.38002,0.04248,,,,,,,,,,,,,,,,,,,,,,,,,,0,0,0,0,0
2.4448,1783190190.0981,1,1,1.0000,0.0000,1.44681,0.21753,-2.78146,0.99309,1.57080,0.00001,-0.14512,-0.38002,0.04245,,,,,,,,,,,,,,,,,,,,,,,,,,0,0,0,0,0
2.4452,1783190190.0984,1,1,1.0000,0.0000,1.44681,0.21753,-2.78146,0.99309,1.57080,0.00001,-0.14512,-0.38002,0.04245,,,,,,,,,,,,,,,,,,,,,,,,,,0,0,0,0,0
2.4544,1783190190.1077,1,1,1.0000,0.0000,1.44681,0.21731,-2.78151,0.99336,1.57080,0.00001,-0.14512,-0.38002,0.04240,,,,,,,,,,,,,,,,,,,,,,,,,,0,0,0,0,0
2.4644,1783190190.1176,1,1,1.0000,0.0000,1.44681,0.21731,-2.78151,0.99337,1.57080,0.00001,-0.14512,-0.38002,0.04240,,,,,,,,,,,,,,,,,,,,,,,,,,0,0,0,0,0
2.4753,1783190190.1286,1,1,1.0000,0.0000,1.44681,0.21720,-2.78154,0.99351,1.57080,0.00001,-0.14512,-0.38002,0.04237,,,,,,,,,,,,,,,,,,,,,,,,,,0,0,0,0,0
2.4847,1783190190.1380,1,1,1.0000,0.0000,1.44681,0.21708,-2.78156,0.99365,1.57080,0.00001,-0.14512,-0.38002,0.04234,,,,,,,,,,,,,,,,,,,,,,,,,,0,0,0,0,0
2.4934,1783190190.1467,1,1,1.0000,0.0000,1.44681,0.21707,-2.78157,0.99366,1.57080,0.00001,-0.14512,-0.38002,0.04234,,,,,,,,,,,,,,,,,,,,,,,,,,0,0,0,0,0
2.4944,1783190190.1476,1,1,1.0000,0.0000,1.44681,0.21704,-2.78158,0.99371,1.57080,0.00001,-0.14512,-0.38002,0.04233,,,,,,,,,,,,,,,,,,,,,,,,,,0,0,0,0,0
2.5036,1783190190.1568,1,1,1.0000,0.0000,1.44681,0.21692,-2.78160,0.99385,1.57080,0.00001,-0.14512,-0.38002,0.04230,,,,,,,,,,,,,,,,,,,,,,,,,,0,0,0,0,0
2.5135,1783190190.1667,1,1,1.0000,0.0000,1.44681,0.21678,-2.78164,0.99403,1.57080,0.00001,-0.14512,-0.38002,0.04226,,,,,,,,,,,,,,,,,,,,,,,,,,0,0,0,0,0
2.5353,1783190190.1885,1,1,1.0000,0.0000,1.44681,0.21659,-2.78169,0.99426,1.57080,0.00001,-0.14512,-0.38002,0.04221,,,,,,,,,,,,,,,,,,,,,,,,,,0,0,0,0,0
2.5357,1783190190.1889,1,1,1.0000,0.0000,1.44681,0.21659,-2.78169,0.99426,1.57080,0.00001,-0.14512,-0.38002,0.04221,,,,,,,,,,,,,,,,,,,,,,,,,,0,0,0,0,0
2.5387,1783190190.1919,1,1,1.0000,0.0000,1.44681,0.21654,-2.78170,0.99433,1.57080,0.00001,-0.14512,-0.38002,0.04220,,,,,,,,,,,,,,,,,,,,,,,,,,0,0,0,0,0
2.5391,1783190190.1923,1,1,1.0000,0.0000,1.44681,0.21654,-2.78170,0.99433,1.57080,0.00001,-0.14512,-0.38002,0.04220,,,,,,,,,,,,,,,,,,,,,,,,,,0,0,0,0,0
2.5437,1783190190.1970,1,1,1.0000,0.0000,1.44681,0.21648,-2.78171,0.99440,1.57080,0.00001,-0.14512,-0.38002,0.04218,,,,,,,,,,,,,,,,,,,,,,,,,,0,0,0,0,0
2.5441,1783190190.1973,1,1,1.0000,0.0000,1.44681,0.21648,-2.78171,0.99440,1.57080,0.00001,-0.14512,-0.38002,0.04218,,,,,,,,,,,,,,,,,,,,,,,,,,0,0,0,0,0
2.5564,1783190190.2096,1,1,1.0000,0.0000,1.44681,0.21643,-2.78173,0.99446,1.57080,0.00001,-0.14512,-0.38002,0.04217,,,,,,,,,,,,,,,,,,,,,,,,,,0,0,0,0,0
2.5670,1783190190.2203,1,1,1.0000,0.0000,1.44681,0.21624,-2.78177,0.99469,1.57080,0.00001,-0.14512,-0.38002,0.04212,,,,,,,,,,,,,,,,,,,,,,,,,,0,0,0,0,0
2.5869,1783190190.2401,1,1,1.0000,0.0000,1.44681,0.21607,-2.78181,0.99491,1.57080,0.00001,-0.14512,-0.38002,0.04208,,,,,,,,,,,,,,,,,,,,,,,,,,0,0,0,0,0
2.6008,1783190190.2541,1,1,1.0000,0.0000,1.44681,0.21593,-2.78185,0.99509,1.57080,0.00001,-0.14512,-0.38002,0.04204,,,,,,,,,,,,,,,,,,,,,,,,,,0,0,0,0,0
2.6013,1783190190.2545,1,1,1.0000,0.0000,1.44681,0.21593,-2.78185,0.99509,1.57080,0.00001,-0.14512,-0.38002,0.04204,,,,,,,,,,,,,,,,,,,,,,,,,,0,0,0,0,0
2.6742,1783190190.3275,1,1,1.0000,0.0000,1.44681,0.21515,-2.78204,0.99606,1.57080,0.00001,-0.14512,-0.38002,0.04185,,,,,,,,,,,,,,,,,,,,,,,,,,0,0,0,0,0
2.6746,1783190190.3278,1,1,1.0000,0.0000,1.44681,0.21515,-2.78204,0.99606,1.57080,0.00001,-0.14512,-0.38002,0.04185,,,,,,,,,,,,,,,,,,,,,,,,,,0,0,0,0,0
2.6750,1783190190.3282,1,1,1.0000,0.0000,1.44681,0.21515,-2.78204,0.99606,1.57080,0.00001,-0.14512,-0.38002,0.04185,,,,,,,,,,,,,,,,,,,,,,,,,,0,0,0,0,0
2.6752,1783190190.3284,1,1,1.0000,0.0000,1.44681,0.21515,-2.78204,0.99606,1.57080,0.00001,-0.14512,-0.38002,0.04185,,,,,,,,,,,,,,,,,,,,,,,,,,0,0,0,0,0
2.6756,1783190190.3288,1,1,1.0000,0.0000,1.44681,0.21515,-2.78204,0.99606,1.57080,0.00001,-0.14512,-0.38002,0.04185,,,,,,,,,,,,,,,,,,,,,,,,,,0,0,0,0,0
2.6759,1783190190.3291,1,1,1.0000,0.0000,1.44681,0.21515,-2.78204,0.99606,1.57080,0.00001,-0.14512,-0.38002,0.04185,,,,,,,,,,,,,,,,,,,,,,,,,,0,0,0,0,0
2.6762,1783190190.3294,1,1,1.0000,0.0000,1.44681,0.21515,-2.78204,0.99606,1.57080,0.00001,-0.14512,-0.38002,0.04185,,,,,,,,,,,,,,,,,,,,,,,,,,0,0,0,0,0
2.6765,1783190190.3297,1,1,1.0000,0.0000,1.44681,0.21515,-2.78204,0.99606,1.57080,0.00001,-0.14512,-0.38002,0.04185,,,,,,,,,,,,,,,,,,,,,,,,,,0,0,0,0,0
2.6910,1783190190.3443,1,1,1.0000,0.0000,1.44681,0.21490,-2.78210,0.99637,1.57080,0.00001,-0.14512,-0.38002,0.04178,,,,,,,,,,,,,,,,,,,,,,,,,,0,0,0,0,0
2.6949,1783190190.3481,1,1,1.0000,0.0000,1.44681,0.21483,-2.78212,0.99645,1.57080,0.00001,-0.14512,-0.38002,0.04176,,,,,,,,,,,,,,,,,,,,,,,,,,0,0,0,0,0
2.7034,1783190190.3566,1,1,1.0000,0.0000,1.44681,0.21482,-2.78212,0.99647,1.57080,0.00001,-0.14512,-0.38002,0.04176,,,,,,,,,,,,,,,,,,,,,,,,,,0,0,0,0,0
2.7178,1783190190.3711,1,1,1.0000,0.0000,1.44681,0.21460,-2.78217,0.99674,1.57080,0.00001,-0.14512,-0.38002,0.04171,,,,,,,,,,,,,,,,,,,,,,,,,,0,0,0,0,0
2.7248,1783190190.3781,1,1,1.0000,0.0000,1.44681,0.21453,-2.78219,0.99683,1.57080,0.00001,-0.14512,-0.38002,0.04169,,,,,,,,,,,,,,,,,,,,,,,,,,0,0,0,0,0
2.7363,1783190190.3895,1,1,1.0000,0.0000,1.44681,0.21449,-2.78220,0.99688,1.57080,0.00002,-0.14512,-0.38002,0.04168,,,,,,,,,,,,,,,,,,,,,,,,,,0,0,0,0,0
2.7433,1783190190.3965,1,1,1.0000,0.0000,1.44681,0.21437,-2.78223,0.99702,1.57080,0.00002,-0.14512,-0.38002,0.04165,,,,,,,,,,,,,,,,,,,,,,,,,,0,0,0,0,0
2.7436,1783190190.3969,1,1,1.0000,0.0000,1.44681,0.21437,-2.78223,0.99702,1.57080,0.00002,-0.14512,-0.38002,0.04165,,,,,,,,,,,,,,,,,,,,,,,,,,0,0,0,0,0
2.7539,1783190190.4072,1,1,1.0000,0.0000,1.44681,0.21417,-2.78228,0.99728,1.57080,0.00002,-0.14512,-0.38002,0.04159,,,,,,,,,,,,,,,,,,,,,,,,,,0,0,0,0,0
2.7771,1783190190.4303,1,1,1.0000,0.0000,1.44681,0.21401,-2.78232,0.99748,1.57080,0.00002,-0.14512,-0.38002,0.04155,,,,,,,,,,,,,,,,,,,,,,,,,,0,0,0,0,0
2.7956,1783190190.4489,1,1,1.0000,0.0000,1.44681,0.21379,-2.78237,0.99775,1.57080,0.00002,-0.14512,-0.38002,0.04150,,,,,,,,,,,,,,,,,,,,,,,,,,0,0,0,0,0
2.7969,1783190190.4501,1,1,1.0000,0.0000,1.44681,0.21379,-2.78237,0.99775,1.57080,0.00002,-0.14512,-0.38002,0.04150,,,,,,,,,,,,,,,,,,,,,,,,,,0,0,0,0,0
2.8059,1783190190.4591,1,1,1.0000,0.0000,1.44681,0.21368,-2.78240,0.99789,1.57080,0.00002,-0.14512,-0.38002,0.04147,,,,,,,,,,,,,,,,,,,,,,,,,,0,0,0,0,0
2.8148,1783190190.4681,1,1,1.0000,0.0000,1.44681,0.21356,-2.78243,0.99803,1.57080,0.00002,-0.14512,-0.38002,0.04144,,,,,,,,,,,,,,,,,,,,,,,,,,0,0,0,0,0
2.8152,1783190190.4685,1,1,1.0000,0.0000,1.44681,0.21356,-2.78243,0.99803,1.57080,0.00002,-0.14512,-0.38002,0.04144,,,,,,,,,,,,,,,,,,,,,,,,,,0,0,0,0,0
2.8295,1783190190.4827,1,1,1.0000,0.0000,1.44681,0.21352,-2.78244,0.99809,1.57080,0.00002,-0.14512,-0.38002,0.04143,,,,,,,,,,,,,,,,,,,,,,,,,,0,0,0,0,0
2.8371,1783190190.4904,1,1,1.0000,0.0000,1.44681,0.21340,-2.78247,0.99823,1.57080,0.00002,-0.14512,-0.38002,0.04140,,,,,,,,,,,,,,,,,,,,,,,,,,0,0,0,0,0
2.8378,1783190190.4910,1,1,1.0000,0.0000,1.44681,0.21333,-2.78248,0.99832,1.57080,0.00002,-0.14512,-0.38002,0.04138,,,,,,,,,,,,,,,,,,,,,,,,,,0,0,0,0,0
2.8472,1783190190.5005,1,1,1.0000,0.0000,1.44681,0.21319,-2.78252,0.99850,1.57080,0.00002,-0.14512,-0.38002,0.04135,,,,,,,,,,,,,,,,,,,,,,,,,,0,0,0,0,0
2.8541,1783190190.5073,1,1,1.0000,0.0000,1.44681,0.21318,-2.78252,0.99851,1.57080,0.00002,-0.14512,-0.38002,0.04134,,,,,,,,,,,,,,,,,,,,,,,,,,0,0,0,0,0
2.8544,1783190190.5077,1,1,1.0000,0.0000,1.44681,0.21318,-2.78252,0.99851,1.57080,0.00002,-0.14512,-0.38002,0.04134,,,,,,,,,,,,,,,,,,,,,,,,,,0,0,0,0,0
2.8660,1783190190.5192,1,1,1.0000,0.0000,1.44681,0.21312,-2.78254,0.99859,1.57080,0.00002,-0.14512,-0.38002,0.04133,,,,,,,,,,,,,,,,,,,,,,,,,,0,0,0,0,0
2.8767,1783190190.5299,1,1,1.0000,0.0000,1.44681,0.21295,-2.78258,0.99879,1.57080,0.00002,-0.14512,-0.38002,0.04129,,,,,,,,,,,,,,,,,,,,,,,,,,0,0,0,0,0
2.8846,1783190190.5379,1,1,1.0000,0.0000,1.44681,0.21294,-2.78258,0.99880,1.57080,0.00002,-0.14512,-0.38002,0.04128,,,,,,,,,,,,,,,,,,,,,,,,,,0,0,0,0,0
2.8979,1783190190.5512,1,1,1.0000,0.0000,1.44681,0.21276,-2.78262,0.99903,1.57080,0.00002,-0.14512,-0.38002,0.04124,,,,,,,,,,,,,,,,,,,,,,,,,,0,0,0,0,0
2.9067,1783190190.5599,1,1,1.0000,0.0000,1.44681,0.21270,-2.78264,0.99911,1.57080,0.00002,-0.14512,-0.38002,0.04122,,,,,,,,,,,,,,,,,,,,,,,,,,0,0,0,0,0
2.9142,1783190190.5675,1,1,1.0000,0.0000,1.44681,0.21262,-2.78266,0.99920,1.57080,0.00002,-0.14512,-0.38002,0.04120,,,,,,,,,,,,,,,,,,,,,,,,,,0,0,0,0,0
2.9147,1783190190.5679,1,1,1.0000,0.0000,1.44681,0.21262,-2.78266,0.99920,1.57080,0.00002,-0.14512,-0.38002,0.04120,,,,,,,,,,,,,,,,,,,,,,,,,,0,0,0,0,0
2.9244,1783190190.5776,1,1,1.0000,0.0000,1.44681,0.21256,-2.78267,0.99928,1.57080,0.00002,-0.14512,-0.38002,0.04119,,,,,,,,,,,,,,,,,,,,,,,,,,0,0,0,0,0
2.9395,1783190190.5928,1,1,1.0000,0.0000,1.44681,0.21238,-2.78271,0.99949,1.57080,0.00002,-0.14512,-0.38002,0.04114,,,,,,,,,,,,,,,,,,,,,,,,,,0,0,0,0,0
2.9459,1783190190.5991,1,1,1.0000,0.0000,1.44681,0.21234,-2.78273,0.99955,1.57080,0.00002,-0.14512,-0.38002,0.04113,,,,,,,,,,,,,,,,,,,,,,,,,,0,0,0,0,0
2.9461,1783190190.5993,1,1,1.0000,0.0000,1.44681,0.21234,-2.78273,0.99955,1.57080,0.00002,-0.14512,-0.38002,0.04113,,,,,,,,,,,,,,,,,,,,,,,,,,0,0,0,0,0
2.9595,1783190190.6127,1,1,1.0000,0.0000,1.44681,0.21215,-2.78277,0.99978,1.57080,0.00002,-0.14512,-0.38002,0.04108,,,,,,,,,,,,,,,,,,,,,,,,,,0,0,0,0,0
2.9645,1783190190.6177,1,1,1.0000,0.0000,1.44681,0.21208,-2.78279,0.99987,1.57080,0.00002,-0.14512,-0.38002,0.04106,,,,,,,,,,,,,,,,,,,,,,,,,,0,0,0,0,0
2.9758,1783190190.6290,1,1,1.0000,0.0000,1.44681,0.21200,-2.78281,0.99998,1.57080,0.00002,-0.14512,-0.38002,0.04104,,,,,,,,,,,,,,,,,,,,,,,,,,0,0,0,0,0
2.9833,1783190190.6365,1,1,1.0000,0.0000,1.44681,0.21191,-2.78283,1.00008,1.57080,0.00002,-0.14512,-0.38002,0.04102,,,,,,,,,,,,,,,,,,,,,,,,,,0,0,0,0,0
2.9836,1783190190.6369,1,1,1.0000,0.0000,1.44681,0.21191,-2.78283,1.00008,1.57080,0.00002,-0.14512,-0.38002,0.04102,,,,,,,,,,,,,,,,,,,,,,,,,,0,0,0,0,0
2.9985,1783190190.6518,1,1,1.0000,0.0000,1.44681,0.21171,-2.78288,1.00033,1.57080,0.00002,-0.14512,-0.38002,0.04097,,,,,,,,,,,,,,,,,,,,,,,,,,0,0,0,0,0
2.9988,1783190190.6521,1,1,1.0000,0.0000,1.44681,0.21171,-2.78288,1.00033,1.57080,0.00002,-0.14512,-0.38002,0.04097,,,,,,,,,,,,,,,,,,,,,,,,,,0,0,0,0,0
3.0034,1783190190.6567,1,1,1.0000,0.0000,1.44681,0.21170,-2.78288,1.00035,1.57080,0.00002,-0.14512,-0.38002,0.04097,,,,,,,,,,,,,,,,,,,,,,,,,,0,0,0,0,0
3.0144,1783190190.6677,1,1,1.0000,0.0000,1.44681,0.21155,-2.78292,1.00053,1.57080,0.00002,-0.14512,-0.38002,0.04093,,,,,,,,,,,,,,,,,,,,,,,,,,0,0,0,0,0
3.0149,1783190190.6681,1,1,1.0000,0.0000,1.44681,0.21155,-2.78292,1.00053,1.57080,0.00002,-0.14512,-0.38002,0.04093,,,,,,,,,,,,,,,,,,,,,,,,,,0,0,0,0,0
3.0250,1783190190.6783,1,1,1.0000,0.0000,1.44681,0.21141,-2.78295,1.00070,1.57080,0.00002,-0.14512,-0.38002,0.04090,,,,,,,,,,,,,,,,,,,,,,,,,,0,0,0,0,0
3.0258,1783190190.6790,1,1,1.0000,0.0000,1.44681,0.21134,-2.78297,1.00079,1.57080,0.00002,-0.14512,-0.38002,0.04088,,,,,,,,,,,,,,,,,,,,,,,,,,0,0,0,0,0
3.0374,1783190190.6906,1,1,1.0000,0.0000,1.44681,0.21133,-2.78297,1.00080,1.57080,0.00002,-0.14512,-0.38002,0.04087,,,,,,,,,,,,,,,,,,,,,,,,,,0,0,0,0,0
3.0514,1783190190.7046,1,1,1.0000,0.0000,1.44681,0.21111,-2.78302,1.00107,1.57080,0.00002,-0.14512,-0.38002,0.04082,,,,,,,,,,,,,,,,,,,,,,,,,,0,0,0,0,0
3.0581,1783190190.7113,1,1,1.0000,0.0000,1.44681,0.21104,-2.78304,1.00116,1.57080,0.00002,-0.14512,-0.38002,0.04080,,,,,,,,,,,,,,,,,,,,,,,,,,0,0,0,0,0
3.0636,1783190190.7168,1,1,1.0000,0.0000,1.44681,0.21103,-2.78304,1.00118,1.57080,0.00002,-0.14512,-0.38002,0.04080,,,,,,,,,,,,,,,,,,,,,,,,,,0,0,0,0,0
3.0739,1783190190.7272,1,1,1.0000,0.0000,1.44681,0.21089,-2.78308,1.00136,1.57080,0.00002,-0.14512,-0.38002,0.04076,,,,,,,,,,,,,,,,,,,,,,,,,,0,0,0,0,0
3.0880,1783190190.7412,1,1,1.0000,0.0000,1.44681,0.21068,-2.78313,1.00162,1.57080,0.00002,-0.14512,-0.38002,0.04071,,,,,,,,,,,,,,,,,,,,,,,,,,0,0,0,0,0
3.0989,1783190190.7521,1,1,1.0000,0.0000,1.44681,0.21063,-2.78314,1.00168,1.57080,0.00002,-0.14512,-0.38002,0.04070,,,,,,,,,,,,,,,,,,,,,,,,,,0,0,0,0,0
3.1043,1783190190.7576,1,1,1.0000,0.0000,1.44681,0.21058,-2.78315,1.00174,1.57080,0.00002,-0.14512,-0.38002,0.04068,,,,,,,,,,,,,,,,,,,,,,,,,,0,0,0,0,0
3.1048,1783190190.7580,1,1,1.0000,0.0000,1.44681,0.21058,-2.78315,1.00174,1.57080,0.00002,-0.14512,-0.38002,0.04068,,,,,,,,,,,,,,,,,,,,,,,,,,0,0,0,0,0
3.1139,1783190190.7672,1,1,1.0000,0.0000,1.44681,0.21037,-2.78320,1.00199,1.57080,0.00002,-0.14512,-0.38002,0.04063,,,,,,,,,,,,,,,,,,,,,,,,,,0,0,0,0,0
3.1267,1783190190.7799,1,1,1.0000,0.0000,1.44681,0.21033,-2.78321,1.00205,1.57080,0.00002,-0.14512,-0.38002,0.04062,,,,,,,,,,,,,,,,,,,,,,,,,,0,0,0,0,0
3.1461,1783190190.7994,1,1,1.0000,0.0000,1.44681,0.21001,-2.78329,1.00245,1.57080,0.00002,-0.14512,-0.38002,0.04054,,,,,,,,,,,,,,,,,,,,,,,,,,0,0,0,0,0
3.1464,1783190190.7997,1,1,1.0000,0.0000,1.44681,0.21001,-2.78329,1.00245,1.57080,0.00002,-0.14512,-0.38002,0.04054,,,,,,,,,,,,,,,,,,,,,,,,,,0,0,0,0,0
3.1506,1783190190.8039,1,1,1.0000,0.0000,1.44681,0.21001,-2.78329,1.00245,1.57080,0.00002,-0.14512,-0.38002,0.04054,,,,,,,,,,,,,,,,,,,,,,,,,,0,0,0,0,0
3.1509,1783190190.8041,1,1,1.0000,0.0000,1.44681,0.21001,-2.78329,1.00245,1.57080,0.00002,-0.14512,-0.38002,0.04054,,,,,,,,,,,,,,,,,,,,,,,,,,0,0,0,0,0
3.1538,1783190190.8071,1,1,1.0000,0.0000,1.44681,0.20999,-2.78329,1.00246,1.57080,0.00002,-0.14512,-0.38002,0.04054,,,,,,,,,,,,,,,,,,,,,,,,,,0,0,0,0,0
3.1541,1783190190.8073,1,1,1.0000,0.0000,1.44681,0.20999,-2.78329,1.00246,1.57080,0.00002,-0.14512,-0.38002,0.04054,,,,,,,,,,,,,,,,,,,,,,,,,,0,0,0,0,0
3.1654,1783190190.8186,1,1,1.0000,0.0000,1.44681,0.20991,-2.78331,1.00257,1.57080,0.00002,-0.14512,-0.38002,0.04052,,,,,,,,,,,,,,,,,,,,,,,,,,0,0,0,0,0
3.1753,1783190190.8285,1,1,1.0000,0.0000,1.44680,0.20971,-2.78336,1.00282,1.57080,0.00002,-0.14512,-0.38002,0.04046,,,,,,,,,,,,,,,,,,,,,,,,,,0,0,0,0,0
3.1860,1783190190.8392,1,1,1.0000,0.0000,1.44680,0.20966,-2.78337,1.00288,1.57080,0.00002,-0.14512,-0.38002,0.04045,,,,,,,,,,,,,,,,,,,,,,,,,,0,0,0,0,0
3.2013,1783190190.8545,1,1,1.0000,0.0000,1.44680,0.20948,-2.78342,1.00310,1.57079,0.00002,-0.14512,-0.38002,0.04041,,,,,,,,,,,,,,,,,,,,,,,,,,0,0,0,0,0
3.2059,1783190190.8591,1,1,1.0000,0.0000,1.44680,0.20934,-2.78345,1.00328,1.57079,0.00002,-0.14512,-0.38002,0.04037,,,,,,,,,,,,,,,,,,,,,,,,,,0,0,0,0,0
3.2192,1783190190.8725,1,1,1.0000,0.0000,1.44680,0.20929,-2.78346,1.00333,1.57079,0.00002,-0.14512,-0.38002,0.04036,,,,,,,,,,,,,,,,,,,,,,,,,,0,0,0,0,0
3.2237,1783190190.8769,1,1,1.0000,0.0000,1.44680,0.20924,-2.78347,1.00340,1.57079,0.00002,-0.14512,-0.38002,0.04035,,,,,,,,,,,,,,,,,,,,,,,,,,0,0,0,0,0
3.2342,1783190190.8874,1,1,1.0000,0.0000,1.44680,0.20904,-2.78352,1.00365,1.57079,0.00002,-0.14512,-0.38002,0.04029,,,,,,,,,,,,,,,,,,,,,,,,,,0,0,0,0,0
3.2468,1783190190.9000,1,1,1.0000,0.0000,1.44680,0.20899,-2.78353,1.00371,1.57079,0.00002,-0.14512,-0.38002,0.04028,,,,,,,,,,,,,,,,,,,,,,,,,,0,0,0,0,0
3.2470,1783190190.9002,1,1,1.0000,0.0000,1.44680,0.20899,-2.78353,1.00371,1.57079,0.00002,-0.14512,-0.38002,0.04028,,,,,,,,,,,,,,,,,,,,,,,,,,0,0,0,0,0
3.2559,1783190190.9092,1,1,1.0000,0.0000,1.44680,0.20888,-2.78356,1.00385,1.57079,0.00002,-0.14512,-0.38002,0.04026,,,,,,,,,,,,,,,,,,,,,,,,,,0,0,0,0,0
3.2636,1783190190.9168,1,1,1.0000,0.0000,1.44680,0.20874,-2.78359,1.00402,1.57079,0.00002,-0.14512,-0.38002,0.04022,,,,,,,,,,,,,,,,,,,,,,,,,,0,0,0,0,0
3.2642,1783190190.9175,1,1,1.0000,0.0000,1.44680,0.20874,-2.78359,1.00402,1.57079,0.00002,-0.14512,-0.38002,0.04022,,,,,,,,,,,,,,,,,,,,,,,,,,0,0,0,0,0
3.2769,1783190190.9301,1,1,1.0000,0.0000,1.44680,0.20866,-2.78361,1.00412,1.57079,0.00002,-0.14512,-0.38002,0.04020,,,,,,,,,,,,,,,,,,,,,,,,,,0,0,0,0,0
3.2837,1783190190.9369,1,1,1.0000,0.0000,1.44680,0.20857,-2.78363,1.00423,1.57079,0.00002,-0.14512,-0.38002,0.04018,,,,,,,,,,,,,,,,,,,,,,,,,,0,0,0,0,0
3.2946,1783190190.9479,1,1,1.0000,0.0000,1.44680,0.20837,-2.78368,1.00448,1.57079,0.00002,-0.14512,-0.38002,0.04013,,,,,,,,,,,,,,,,,,,,,,,,,,0,0,0,0,0
3.3078,1783190190.9610,1,1,1.0000,0.0000,1.44680,0.20829,-2.78370,1.00458,1.57079,0.00002,-0.14512,-0.38002,0.04011,,,,,,,,,,,,,,,,,,,,,,,,,,0,0,0,0,0
3.3188,1783190190.9720,1,1,1.0000,0.0000,1.44680,0.20818,-2.78373,1.00472,1.57079,0.00002,-0.14512,-0.38002,0.04008,,,,,,,,,,,,,,,,,,,,,,,,,,0,0,0,0,0
3.3248,1783190190.9780,1,1,1.0000,0.0000,1.44680,0.20812,-2.78374,1.00478,1.57079,0.00002,-0.14512,-0.38002,0.04006,,,,,,,,,,,,,,,,,,,,,,,,,,0,0,0,0,0
3.3335,1783190190.9867,1,1,1.0000,0.0000,1.44680,0.20806,-2.78376,1.00486,1.57079,0.00002,-0.14512,-0.38002,0.04005,,,,,,,,,,,,,,,,,,,,,,,,,,0,0,0,0,0
3.3555,1783190191.0088,1,1,1.0000,0.0000,1.44680,0.20775,-2.78383,1.00524,1.57079,0.00002,-0.14512,-0.38002,0.03997,,,,,,,,,,,,,,,,,,,,,,,,,,0,0,0,0,0
3.3566,1783190191.0098,1,1,1.0000,0.0000,1.44680,0.20775,-2.78383,1.00524,1.57079,0.00002,-0.14512,-0.38002,0.03997,,,,,,,,,,,,,,,,,,,,,,,,,,0,0,0,0,0
3.3651,1783190191.0184,1,1,1.0000,0.0000,1.44680,0.20768,-2.78385,1.00533,1.57079,0.00002,-0.14512,-0.38002,0.03995,,,,,,,,,,,,,,,,,,,,,,,,,,0,0,0,0,0
3.3739,1783190191.0271,1,1,1.0000,0.0000,1.44680,0.20765,-2.78386,1.00537,1.57079,0.00002,-0.14512,-0.38002,0.03994,,,,,,,,,,,,,,,,,,,,,,,,,,0,0,0,0,0
3.3943,1783190191.0476,1,1,1.0000,0.0000,1.44680,0.20743,-2.78391,1.00564,1.57079,0.00002,-0.14512,-0.38002,0.03989,,,,,,,,,,,,,,,,,,,,,,,,,,0,0,0,0,0
3.3946,1783190191.0479,1,1,1.0000,0.0000,1.44680,0.20743,-2.78391,1.00564,1.57079,0.00002,-0.14512,-0.38002,0.03989,,,,,,,,,,,,,,,,,,,,,,,,,,0,0,0,0,0
3.3951,1783190191.0483,1,1,1.0000,0.0000,1.44680,0.20743,-2.78391,1.00564,1.57079,0.00002,-0.14512,-0.38002,0.03989,,,,,,,,,,,,,,,,,,,,,,,,,,0,0,0,0,0
3.3954,1783190191.0486,1,1,1.0000,0.0000,1.44680,0.20743,-2.78391,1.00564,1.57079,0.00002,-0.14512,-0.38002,0.03989,,,,,,,,,,,,,,,,,,,,,,,,,,0,0,0,0,0
3.4062,1783190191.0594,1,1,1.0000,0.0000,1.44680,0.20728,-2.78394,1.00583,1.57079,0.00002,-0.14512,-0.38002,0.03985,,,,,,,,,,,,,,,,,,,,,,,,,,0,0,0,0,0
3.4064,1783190191.0596,1,1,1.0000,0.0000,1.44680,0.20728,-2.78394,1.00583,1.57079,0.00002,-0.14512,-0.38002,0.03985,,,,,,,,,,,,,,,,,,,,,,,,,,0,0,0,0,0
3.4135,1783190191.0667,1,1,1.0000,0.0000,1.44680,0.20721,-2.78396,1.00591,1.57079,0.00002,-0.14512,-0.38002,0.03983,,,,,,,,,,,,,,,,,,,,,,,,,,0,0,0,0,0
3.4236,1783190191.0768,1,1,1.0000,0.0000,1.44680,0.20707,-2.78400,1.00609,1.57079,0.00002,-0.14512,-0.38002,0.03980,,,,,,,,,,,,,,,,,,,,,,,,,,0,0,0,0,0
3.4362,1783190191.0894,1,1,1.0000,0.0000,1.44680,0.20702,-2.78401,1.00615,1.57079,0.00002,-0.14512,-0.38002,0.03979,,,,,,,,,,,,,,,,,,,,,,,,,,0,0,0,0,0
3.4450,1783190191.0982,1,1,1.0000,0.0000,1.44680,0.20695,-2.78402,1.00624,1.57079,0.00002,-0.14512,-0.38002,0.03977,,,,,,,,,,,,,,,,,,,,,,,,,,0,0,0,0,0
3.4568,1783190191.1101,1,1,1.0000,0.0000,1.44680,0.20688,-2.78404,1.00632,1.57079,0.00002,-0.14512,-0.38002,0.03975,,,,,,,,,,,,,,,,,,,,,,,,,,0,0,0,0,0
3.4572,1783190191.1105,1,1,1.0000,0.0000,1.44680,0.20688,-2.78404,1.00632,1.57079,0.00002,-0.14512,-0.38002,0.03975,,,,,,,,,,,,,,,,,,,,,,,,,,0,0,0,0,0
3.4671,1783190191.1204,1,1,1.0000,0.0000,1.44680,0.20672,-2.78408,1.00652,1.57079,0.00002,-0.14512,-0.38002,0.03971,,,,,,,,,,,,,,,,,,,,,,,,,,0,0,0,0,0
3.4674,1783190191.1206,1,1,1.0000,0.0000,1.44680,0.20672,-2.78408,1.00652,1.57079,0.00002,-0.14512,-0.38002,0.03971,,,,,,,,,,,,,,,,,,,,,,,,,,0,0,0,0,0
3.4732,1783190191.1264,1,1,1.0000,0.0000,1.44680,0.20665,-2.78409,1.00661,1.57079,0.00002,-0.14512,-0.38002,0.03969,,,,,,,,,,,,,,,,,,,,,,,,,,0,0,0,0,0
3.4735,1783190191.1267,1,1,1.0000,0.0000,1.44680,0.20665,-2.78409,1.00661,1.57079,0.00002,-0.14512,-0.38002,0.03969,,,,,,,,,,,,,,,,,,,,,,,,,,0,0,0,0,0
3.4913,1783190191.1445,1,1,1.0000,0.0000,1.44680,0.20647,-2.78414,1.00683,1.57079,0.00002,-0.14512,-0.38002,0.03965,,,,,,,,,,,,,,,,,,,,,,,,,,0,0,0,0,0
3.4965,1783190191.1498,1,1,1.0000,0.0000,1.44680,0.20643,-2.78415,1.00688,1.57079,0.00002,-0.14512,-0.38002,0.03964,,,,,,,,,,,,,,,,,,,,,,,,,,0,0,0,0,0
3.5085,1783190191.1617,1,1,1.0000,0.0000,1.44680,0.20627,-2.78419,1.00708,1.57079,0.00002,-0.14512,-0.38002,0.03960,,,,,,,,,,,,,,,,,,,,,,,,,,0,0,0,0,0
3.5136,1783190191.1668,1,1,1.0000,0.0000,1.44680,0.20627,-2.78419,1.00708,1.57079,0.00002,-0.14512,-0.38002,0.03960,,,,,,,,,,,,,,,,,,,,,,,,,,0,0,0,0,0
3.5143,1783190191.1675,1,1,1.0000,0.0000,1.44680,0.20626,-2.78419,1.00709,1.57079,0.00002,-0.14512,-0.38002,0.03959,,,,,,,,,,,,,,,,,,,,,,,,,,0,0,0,0,0
3.5235,1783190191.1767,1,1,1.0000,0.0000,1.44680,0.20617,-2.78421,1.00720,1.57079,0.00002,-0.14512,-0.38002,0.03957,,,,,,,,,,,,,,,,,,,,,,,,,,0,0,0,0,0
3.5239,1783190191.1771,1,1,1.0000,0.0000,1.44680,0.20617,-2.78421,1.00720,1.57079,0.00002,-0.14512,-0.38002,0.03957,,,,,,,,,,,,,,,,,,,,,,,,,,0,0,0,0,0
3.5336,1783190191.1868,1,1,1.0000,0.0000,1.44680,0.20603,-2.78424,1.00737,1.57079,0.00002,-0.14512,-0.38002,0.03954,,,,,,,,,,,,,,,,,,,,,,,,,,0,0,0,0,0
3.5442,1783190191.1974,1,1,1.0000,0.0000,1.44680,0.20589,-2.78428,1.00755,1.57079,0.00002,-0.14512,-0.38002,0.03950,,,,,,,,,,,,,,,,,,,,,,,,,,0,0,0,0,0
3.5600,1783190191.2132,1,1,1.0000,0.0000,1.44680,0.20577,-2.78430,1.00770,1.57079,0.00002,-0.14512,-0.38002,0.03947,,,,,,,,,,,,,,,,,,,,,,,,,,0,0,0,0,0
3.5703,1783190191.2236,1,1,1.0000,0.0000,1.44680,0.20565,-2.78433,1.00784,1.57079,0.00002,-0.14512,-0.38002,0.03944,,,,,,,,,,,,,,,,,,,,,,,,,,0,0,0,0,0
3.5785,1783190191.2317,1,1,1.0000,0.0000,1.44680,0.20561,-2.78434,1.00790,1.57079,0.00002,-0.14512,-0.38002,0.03943,,,,,,,,,,,,,,,,,,,,,,,,,,0,0,0,0,0
3.5904,1783190191.2436,1,1,1.0000,0.0000,1.44680,0.20542,-2.78439,1.00814,1.57079,0.00002,-0.14512,-0.38002,0.03938,,,,,,,,,,,,,,,,,,,,,,,,,,0,0,0,0,0
3.5978,1783190191.2510,1,1,1.0000,0.0000,1.44680,0.20534,-2.78441,1.00823,1.57079,0.00002,-0.14512,-0.38002,0.03936,,,,,,,,,,,,,,,,,,,,,,,,,,0,0,0,0,0
3.6144,1783190191.2676,1,1,1.0000,0.0000,1.44680,0.20518,-2.78445,1.00843,1.57079,0.00002,-0.14512,-0.38002,0.03932,,,,,,,,,,,,,,,,,,,,,,,,,,0,0,0,0,0
3.6171,1783190191.2703,1,1,1.0000,0.0000,1.44680,0.20518,-2.78445,1.00843,1.57079,0.00002,-0.14512,-0.38002,0.03932,,,,,,,,,,,,,,,,,,,,,,,,,,0,0,0,0,0
3.6175,1783190191.2707,1,1,1.0000,0.0000,1.44680,0.20518,-2.78445,1.00843,1.57079,0.00002,-0.14512,-0.38002,0.03932,,,,,,,,,,,,,,,,,,,,,,,,,,0,0,0,0,0
3.6268,1783190191.2801,1,1,1.0000,0.0000,1.44680,0.20497,-2.78450,1.00869,1.57079,0.00002,-0.14512,-0.38002,0.03927,,,,,,,,,,,,,,,,,,,,,,,,,,0,0,0,0,0
3.6385,1783190191.2917,1,1,1.0000,0.0000,1.44680,0.20492,-2.78451,1.00875,1.57079,0.00002,-0.14512,-0.38002,0.03926,,,,,,,,,,,,,,,,,,,,,,,,,,0,0,0,0,0
3.6389,1783190191.2921,1,1,1.0000,0.0000,1.44680,0.20492,-2.78451,1.00875,1.57079,0.00002,-0.14512,-0.38002,0.03926,,,,,,,,,,,,,,,,,,,,,,,,,,0,0,0,0,0
3.6503,1783190191.3035,1,1,1.0000,0.0000,1.44680,0.20474,-2.78455,1.00897,1.57079,0.00002,-0.14512,-0.38002,0.03921,,,,,,,,,,,,,,,,,,,,,,,,,,0,0,0,0,0
3.6578,1783190191.3110,1,1,1.0000,0.0000,1.44680,0.20467,-2.78457,1.00906,1.57079,0.00002,-0.14512,-0.38002,0.03920,,,,,,,,,,,,,,,,,,,,,,,,,,0,0,0,0,0
3.6744,1783190191.3276,1,1,1.0000,0.0000,1.44680,0.20450,-2.78461,1.00927,1.57079,0.00002,-0.14512,-0.38002,0.03915,,,,,,,,,,,,,,,,,,,,,,,,,,0,0,0,0,0
3.6801,1783190191.3333,1,1,1.0000,0.0000,1.44680,0.20444,-2.78462,1.00934,1.57079,0.00002,-0.14512,-0.38002,0.03914,,,,,,,,,,,,,,,,,,,,,,,,,,0,0,0,0,0
3.6938,1783190191.3471,1,1,1.0000,0.0000,1.44680,0.20430,-2.78465,1.00952,1.57079,0.00002,-0.14512,-0.38002,0.03910,,,,,,,,,,,,,,,,,,,,,,,,,,0,0,0,0,0
3.6985,1783190191.3517,1,1,1.0000,0.0000,1.44680,0.20425,-2.78467,1.00958,1.57079,0.00002,-0.14512,-0.38002,0.03909,,,,,,,,,,,,,,,,,,,,,,,,,,0,0,0,0,0
3.6989,1783190191.3521,1,1,1.0000,0.0000,1.44680,0.20425,-2.78467,1.00958,1.57079,0.00002,-0.14512,-0.38002,0.03909,,,,,,,,,,,,,,,,,,,,,,,,,,0,0,0,0,0
3.7217,1783190191.3749,1,1,1.0000,0.0000,1.44680,0.20393,-2.78474,1.00998,1.57079,0.00002,-0.14512,-0.38002,0.03901,,,,,,,,,,,,,,,,,,,,,,,,,,0,0,0,0,0
3.7223,1783190191.3755,1,1,1.0000,0.0000,1.44680,0.20393,-2.78474,1.00998,1.57079,0.00002,-0.14512,-0.38002,0.03901,,,,,,,,,,,,,,,,,,,,,,,,,,0,0,0,0,0
3.7268,1783190191.3800,1,1,1.0000,0.0000,1.44680,0.20391,-2.78475,1.01000,1.57079,0.00002,-0.14512,-0.38002,0.03901,,,,,,,,,,,,,,,,,,,,,,,,,,0,0,0,0,0
3.7270,1783190191.3803,1,1,1.0000,0.0000,1.44680,0.20391,-2.78475,1.01000,1.57079,0.00002,-0.14512,-0.38002,0.03901,,,,,,,,,,,,,,,,,,,,,,,,,,0,0,0,0,0
3.7366,1783190191.3899,1,1,1.0000,0.0000,1.44680,0.20383,-2.78477,1.01010,1.57079,0.00002,-0.14512,-0.38002,0.03898,,,,,,,,,,,,,,,,,,,,,,,,,,0,0,0,0,0
3.7515,1783190191.4047,1,1,1.0000,0.0000,1.44680,0.20362,-2.78481,1.01036,1.57079,0.00002,-0.14512,-0.38002,0.03893,,,,,,,,,,,,,,,,,,,,,,,,,,0,0,0,0,0
3.7587,1783190191.4119,1,1,1.0000,0.0000,1.44680,0.20358,-2.78483,1.01041,1.57079,0.00002,-0.14512,-0.38002,0.03892,,,,,,,,,,,,,,,,,,,,,,,,,,0,0,0,0,0
3.7590,1783190191.4122,1,1,1.0000,0.0000,1.44680,0.20358,-2.78483,1.01041,1.57079,0.00002,-0.14512,-0.38002,0.03892,,,,,,,,,,,,,,,,,,,,,,,,,,0,0,0,0,0
3.7682,1783190191.4214,1,1,1.0000,0.0000,1.44680,0.20346,-2.78485,1.01055,1.57079,0.00002,-0.14512,-0.38002,0.03889,,,,,,,,,,,,,,,,,,,,,,,,,,0,0,0,0,0
3.7687,1783190191.4219,1,1,1.0000,0.0000,1.44680,0.20346,-2.78485,1.01055,1.57079,0.00002,-0.14512,-0.38002,0.03889,,,,,,,,,,,,,,,,,,,,,,,,,,0,0,0,0,0
3.7769,1783190191.4301,1,1,1.0000,0.0000,1.44680,0.20332,-2.78489,1.01073,1.57079,0.00002,-0.14512,-0.38002,0.03886,,,,,,,,,,,,,,,,,,,,,,,,,,0,0,0,0,0
3.7905,1783190191.4437,1,1,1.0000,0.0000,1.44680,0.20321,-2.78491,1.01087,1.57079,0.00002,-0.14512,-0.38002,0.03883,,,,,,,,,,,,,,,,,,,,,,,,,,0,0,0,0,0
3.7908,1783190191.4441,1,1,1.0000,0.0000,1.44680,0.20321,-2.78491,1.01087,1.57079,0.00002,-0.14512,-0.38002,0.03883,,,,,,,,,,,,,,,,,,,,,,,,,,0,0,0,0,0
3.7970,1783190191.4502,1,1,1.0000,0.0000,1.44680,0.20315,-2.78493,1.01093,1.57079,0.00002,-0.14512,-0.38002,0.03882,,,,,,,,,,,,,,,,,,,,,,,,,,0,0,0,0,0
3.8211,1783190191.4743,1,1,1.0000,0.0000,1.44680,0.20287,-2.78499,1.01129,1.57079,0.00002,-0.14512,-0.38001,0.03874,,,,,,,,,,,,,,,,,,,,,,,,,,0,0,0,0,0
3.8214,1783190191.4746,1,1,1.0000,0.0000,1.44680,0.20287,-2.78499,1.01129,1.57079,0.00002,-0.14512,-0.38001,0.03874,,,,,,,,,,,,,,,,,,,,,,,,,,0,0,0,0,0
3.8266,1783190191.4799,1,1,1.0000,0.0000,1.44680,0.20281,-2.78501,1.01137,1.57079,0.00002,-0.14512,-0.38001,0.03873,,,,,,,,,,,,,,,,,,,,,,,,,,0,0,0,0,0
3.8271,1783190191.4803,1,1,1.0000,0.0000,1.44680,0.20281,-2.78501,1.01137,1.57079,0.00002,-0.14512,-0.38001,0.03873,,,,,,,,,,,,,,,,,,,,,,,,,,0,0,0,0,0
3.8384,1783190191.4917,1,1,1.0000,0.0000,1.44680,0.20264,-2.78505,1.01157,1.57079,0.00002,-0.14512,-0.38001,0.03869,,,,,,,,,,,,,,,,,,,,,,,,,,0,0,0,0,0
3.8493,1783190191.5026,1,1,1.0000,0.0000,1.44680,0.20263,-2.78505,1.01159,1.57079,0.00002,-0.14512,-0.38001,0.03868,,,,,,,,,,,,,,,,,,,,,,,,,,0,0,0,0,0
3.8615,1783190191.5147,1,1,1.0000,0.0000,1.44680,0.20247,-2.78509,1.01178,1.57079,0.00002,-0.14512,-0.38001,0.03864,,,,,,,,,,,,,,,,,,,,,,,,,,0,0,0,0,0
3.8714,1783190191.5246,1,1,1.0000,0.0000,1.44680,0.20226,-2.78514,1.01204,1.57079,0.00002,-0.14512,-0.38001,0.03859,,,,,,,,,,,,,,,,,,,,,,,,,,0,0,0,0,0
3.8790,1783190191.5322,1,1,1.0000,0.0000,1.44680,0.20225,-2.78514,1.01205,1.57079,0.00002,-0.14512,-0.38001,0.03859,,,,,,,,,,,,,,,,,,,,,,,,,,0,0,0,0,0
3.8946,1783190191.5478,1,1,1.0000,0.0000,1.44680,0.20208,-2.78518,1.01226,1.57079,0.00002,-0.14512,-0.38001,0.03855,,,,,,,,,,,,,,,,,,,,,,,,,,0,0,0,0,0
3.8975,1783190191.5508,1,1,1.0000,0.0000,1.44680,0.20208,-2.78518,1.01226,1.57079,0.00002,-0.14512,-0.38001,0.03855,,,,,,,,,,,,,,,,,,,,,,,,,,0,0,0,0,0
3.8978,1783190191.5511,1,1,1.0000,0.0000,1.44680,0.20208,-2.78518,1.01226,1.57079,0.00002,-0.14512,-0.38001,0.03855,,,,,,,,,,,,,,,,,,,,,,,,,,0,0,0,0,0
3.9075,1783190191.5608,1,1,1.0000,0.0000,1.44680,0.20201,-2.78520,1.01235,1.57079,0.00002,-0.14512,-0.38001,0.03853,,,,,,,,,,,,,,,,,,,,,,,,,,0,0,0,0,0
3.9217,1783190191.5749,1,1,1.0000,0.0000,1.44680,0.20185,-2.78523,1.01254,1.57079,0.00002,-0.14512,-0.38001,0.03849,,,,,,,,,,,,,,,,,,,,,,,,,,0,0,0,0,0
3.9282,1783190191.5814,1,1,1.0000,0.0000,1.44680,0.20171,-2.78527,1.01272,1.57079,0.00002,-0.14512,-0.38001,0.03845,,,,,,,,,,,,,,,,,,,,,,,,,,0,0,0,0,0
3.9376,1783190191.5908,1,1,1.0000,0.0000,1.44680,0.20164,-2.78528,1.01281,1.57079,0.00002,-0.14512,-0.38001,0.03844,,,,,,,,,,,,,,,,,,,,,,,,,,0,0,0,0,0
3.9469,1783190191.6001,1,1,1.0000,0.0000,1.44680,0.20157,-2.78530,1.01290,1.57079,0.00002,-0.14512,-0.38001,0.03842,,,,,,,,,,,,,,,,,,,,,,,,,,0,0,0,0,0
3.9636,1783190191.6168,1,1,1.0000,0.0000,1.44680,0.20140,-2.78534,1.01310,1.57079,0.00003,-0.14512,-0.38001,0.03838,,,,,,,,,,,,,,,,,,,,,,,,,,0,0,0,0,0
3.9688,1783190191.6220,1,1,1.0000,0.0000,1.44680,0.20139,-2.78534,1.01312,1.57079,0.00003,-0.14512,-0.38001,0.03837,,,,,,,,,,,,,,,,,,,,,,,,,,0,0,0,0,0
3.9693,1783190191.6225,1,1,1.0000,0.0000,1.44680,0.20139,-2.78534,1.01312,1.57079,0.00003,-0.14512,-0.38001,0.03837,,,,,,,,,,,,,,,,,,,,,,,,,,0,0,0,0,0
3.9773,1783190191.6306,1,1,1.0000,0.0000,1.44680,0.20130,-2.78536,1.01323,1.57079,0.00003,-0.14512,-0.38001,0.03835,,,,,,,,,,,,,,,,,,,,,,,,,,0,0,0,0,0
3.9865,1783190191.6397,1,1,1.0000,0.0000,1.44680,0.20109,-2.78541,1.01349,1.57079,0.00003,-0.14512,-0.38001,0.03830,,,,,,,,,,,,,,,,,,,,,,,,,,0,0,0,0,0
3.9869,1783190191.6401,1,1,1.0000,0.0000,1.44680,0.20109,-2.78541,1.01349,1.57079,0.00003,-0.14512,-0.38001,0.03830,,,,,,,,,,,,,,,,,,,,,,,,,,0,0,0,0,0
4.0028,1783190191.6560,1,1,1.0000,0.0000,1.44680,0.20098,-2.78544,1.01362,1.57079,0.00003,-0.14512,-0.38001,0.03827,,,,,,,,,,,,,,,,,,,,,,,,,,0,0,0,0,0
4.0234,1783190191.6766,1,1,1.0000,0.0000,1.44680,0.20078,-2.78548,1.01387,1.57079,0.00003,-0.14512,-0.38001,0.03822,,,,,,,,,,,,,,,,,,,,,,,,,,0,0,0,0,0
4.0236,1783190191.6768,1,1,1.0000,0.0000,1.44680,0.20078,-2.78548,1.01387,1.57079,0.00003,-0.14512,-0.38001,0.03822,,,,,,,,,,,,,,,,,,,,,,,,,,0,0,0,0,0
4.0281,1783190191.6813,1,1,1.0000,0.0000,1.44680,0.20077,-2.78549,1.01388,1.57079,0.00003,-0.14512,-0.38001,0.03822,,,,,,,,,,,,,,,,,,,,,,,,,,0,0,0,0,0
4.0284,1783190191.6816,1,1,1.0000,0.0000,1.44680,0.20077,-2.78549,1.01388,1.57079,0.00003,-0.14512,-0.38001,0.03822,,,,,,,,,,,,,,,,,,,,,,,,,,0,0,0,0,0
4.0380,1783190191.6912,1,1,1.0000,0.0000,1.44680,0.20068,-2.78551,1.01399,1.57079,0.00003,-0.14512,-0.38001,0.03820,,,,,,,,,,,,,,,,,,,,,,,,,,0,0,0,0,0
4.0388,1783190191.6920,1,1,1.0000,0.0000,1.44680,0.20061,-2.78552,1.01407,1.57079,0.00003,-0.14512,-0.38001,0.03818,,,,,,,,,,,,,,,,,,,,,,,,,,0,0,0,0,0
4.0514,1783190191.7046,1,1,1.0000,0.0000,1.44680,0.20039,-2.78557,1.01434,1.57079,0.00003,-0.14512,-0.38001,0.03813,,,,,,,,,,,,,,,,,,,,,,,,,,0,0,0,0,0
4.0566,1783190191.7099,1,1,1.0000,0.0000,1.44680,0.20039,-2.78557,1.01434,1.57079,0.00003,-0.14512,-0.38001,0.03813,,,,,,,,,,,,,,,,,,,,,,,,,,0,0,0,0,0
4.0571,1783190191.7104,1,1,1.0000,0.0000,1.44680,0.20039,-2.78557,1.01434,1.57079,0.00003,-0.14512,-0.38001,0.03813,,,,,,,,,,,,,,,,,,,,,,,,,,0,0,0,0,0
4.0682,1783190191.7214,1,1,1.0000,0.0000,1.44680,0.20032,-2.78559,1.01443,1.57079,0.00003,-0.14512,-0.38001,0.03811,,,,,,,,,,,,,,,,,,,,,,,,,,0,0,0,0,0
4.0688,1783190191.7220,1,1,1.0000,0.0000,1.44680,0.20032,-2.78559,1.01443,1.57079,0.00003,-0.14512,-0.38001,0.03811,,,,,,,,,,,,,,,,,,,,,,,,,,0,0,0,0,0
4.0819,1783190191.7351,1,1,1.0000,0.0000,1.44680,0.20016,-2.78563,1.01464,1.57079,0.00003,-0.14512,-0.38001,0.03807,,,,,,,,,,,,,,,,,,,,,,,,,,0,0,0,0,0
4.0867,1783190191.7399,1,1,1.0000,0.0000,1.44680,0.20014,-2.78563,1.01465,1.57079,0.00003,-0.14512,-0.38001,0.03806,,,,,,,,,,,,,,,,,,,,,,,,,,0,0,0,0,0
4.0869,1783190191.7401,1,1,1.0000,0.0000,1.44680,0.20014,-2.78563,1.01465,1.57079,0.00003,-0.14512,-0.38001,0.03806,,,,,,,,,,,,,,,,,,,,,,,,,,0,0,0,0,0
4.0871,1783190191.7403,1,1,1.0000,0.0000,1.44680,0.20014,-2.78563,1.01465,1.57079,0.00003,-0.14512,-0.38001,0.03806,,,,,,,,,,,,,,,,,,,,,,,,,,0,0,0,0,0
4.1011,1783190191.7543,1,1,1.0000,0.0000,1.44680,0.19999,-2.78567,1.01484,1.57079,0.00003,-0.14512,-0.38001,0.03802,,,,,,,,,,,,,,,,,,,,,,,,,,0,0,0,0,0
4.1085,1783190191.7618,1,1,1.0000,0.0000,1.44680,0.19984,-2.78570,1.01502,1.57079,0.00003,-0.14512,-0.38001,0.03799,,,,,,,,,,,,,,,,,,,,,,,,,,0,0,0,0,0
4.1305,1783190191.7838,1,1,1.0000,0.0000,1.44680,0.19965,-2.78575,1.01526,1.57079,0.00003,-0.14512,-0.38001,0.03794,,,,,,,,,,,,,,,,,,,,,,,,,,0,0,0,0,0
4.1308,1783190191.7840,1,1,1.0000,0.0000,1.44680,0.19965,-2.78575,1.01526,1.57079,0.00003,-0.14512,-0.38001,0.03794,,,,,,,,,,,,,,,,,,,,,,,,,,0,0,0,0,0
4.1367,1783190191.7899,1,1,1.0000,0.0000,1.44680,0.19960,-2.78576,1.01533,1.57079,0.00003,-0.14512,-0.38001,0.03793,,,,,,,,,,,,,,,,,,,,,,,,,,0,0,0,0,0
4.1511,1783190191.8043,1,1,1.0000,0.0000,1.44680,0.19949,-2.78579,1.01546,1.57079,0.00003,-0.14512,-0.38001,0.03790,,,,,,,,,,,,,,,,,,,,,,,,,,0,0,0,0,0
4.1515,1783190191.8047,1,1,1.0000,0.0000,1.44680,0.19949,-2.78579,1.01546,1.57079,0.00003,-0.14512,-0.38001,0.03790,,,,,,,,,,,,,,,,,,,,,,,,,,0,0,0,0,0
4.1567,1783190191.8100,1,1,1.0000,0.0000,1.44680,0.19943,-2.78580,1.01553,1.57079,0.00003,-0.14512,-0.38001,0.03789,,,,,,,,,,,,,,,,,,,,,,,,,,0,0,0,0,0
4.1707,1783190191.8239,1,1,1.0000,0.0000,1.44680,0.19915,-2.78587,1.01588,1.57079,0.00003,-0.14512,-0.38001,0.03782,,,,,,,,,,,,,,,,,,,,,,,,,,0,0,0,0,0
4.1785,1783190191.8318,1,1,1.0000,0.0000,1.44680,0.19914,-2.78587,1.01589,1.57079,0.00003,-0.14512,-0.38001,0.03781,,,,,,,,,,,,,,,,,,,,,,,,,,0,0,0,0,0
4.1908,1783190191.8441,1,1,1.0000,0.0000,1.44680,0.19899,-2.78590,1.01608,1.57079,0.00003,-0.14512,-0.38001,0.03778,,,,,,,,,,,,,,,,,,,,,,,,,,0,0,0,0,0
4.2021,1783190191.8553,1,1,1.0000,0.0000,1.44680,0.19885,-2.78594,1.01625,1.57079,0.00003,-0.14512,-0.38001,0.03774,,,,,,,,,,,,,,,,,,,,,,,,,,0,0,0,0,0
4.2081,1783190191.8613,1,1,1.0000,0.0000,1.44680,0.19883,-2.78594,1.01627,1.57079,0.00003,-0.14512,-0.38001,0.03774,,,,,,,,,,,,,,,,,,,,,,,,,,0,0,0,0,0
4.2085,1783190191.8617,1,1,1.0000,0.0000,1.44680,0.19883,-2.78594,1.01627,1.57079,0.00003,-0.14512,-0.38001,0.03774,,,,,,,,,,,,,,,,,,,,,,,,,,0,0,0,0,0
4.2272,1783190191.8804,1,1,1.0000,0.0000,1.44680,0.19854,-2.78601,1.01663,1.57079,0.00003,-0.14512,-0.38001,0.03766,,,,,,,,,,,,,,,,,,,,,,,,,,0,0,0,0,0
4.2276,1783190191.8808,1,1,1.0000,0.0000,1.44680,0.19854,-2.78601,1.01663,1.57079,0.00003,-0.14512,-0.38001,0.03766,,,,,,,,,,,,,,,,,,,,,,,,,,0,0,0,0,0
4.2411,1783190191.8943,1,1,1.0000,0.0000,1.44680,0.19846,-2.78603,1.01673,1.57079,0.00003,-0.14512,-0.38001,0.03764,,,,,,,,,,,,,,,,,,,,,,,,,,0,0,0,0,0
4.2468,1783190191.9001,1,1,1.0000,0.0000,1.44680,0.19837,-2.78605,1.01683,1.57079,0.00003,-0.14512,-0.38001,0.03762,,,,,,,,,,,,,,,,,,,,,,,,,,0,0,0,0,0
4.2568,1783190191.9100,1,1,1.0000,0.0000,1.44680,0.19824,-2.78608,1.01700,1.57079,0.00003,-0.14512,-0.38001,0.03759,,,,,,,,,,,,,,,,,,,,,,,,,,0,0,0,0,0
4.2574,1783190191.9106,1,1,1.0000,0.0000,1.44680,0.19824,-2.78608,1.01700,1.57079,0.00003,-0.14512,-0.38001,0.03759,,,,,,,,,,,,,,,,,,,,,,,,,,0,0,0,0,0
4.2713,1783190191.9245,1,1,1.0000,0.0000,1.44680,0.19812,-2.78611,1.01715,1.57079,0.00003,-0.14512,-0.38001,0.03756,,,,,,,,,,,,,,,,,,,,,,,,,,0,0,0,0,0
4.2790,1783190191.9322,1,1,1.0000,0.0000,1.44680,0.19801,-2.78613,1.01729,1.57079,0.00003,-0.14512,-0.38001,0.03753,,,,,,,,,,,,,,,,,,,,,,,,,,0,0,0,0,0
4.2914,1783190191.9446,1,1,1.0000,0.0000,1.44680,0.19779,-2.78618,1.01755,1.57079,0.00003,-0.14512,-0.38001,0.03748,,,,,,,,,,,,,,,,,,,,,,,,,,0,0,0,0,0
4.2970,1783190191.9503,1,1,1.0000,0.0000,1.44680,0.19779,-2.78618,1.01755,1.57079,0.00003,-0.14512,-0.38001,0.03748,,,,,,,,,,,,,,,,,,,,,,,,,,0,0,0,0,0
4.3083,1783190191.9615,1,1,1.0000,0.0000,1.44680,0.19769,-2.78620,1.01767,1.57079,0.00003,-0.14512,-0.38001,0.03745,,,,,,,,,,,,,,,,,,,,,,,,,,0,0,0,0,0
4.3167,1783190191.9699,1,1,1.0000,0.0000,1.44680,0.19756,-2.78624,1.01784,1.57079,0.00003,-0.14512,-0.38001,0.03742,,,,,,,,,,,,,,,,,,,,,,,,,,0,0,0,0,0
4.3315,1783190191.9848,1,1,1.0000,0.0000,1.44680,0.19741,-2.78627,1.01803,1.57079,0.00003,-0.14512,-0.38001,0.03738,,,,,,,,,,,,,,,,,,,,,,,,,,0,0,0,0,0
4.3438,1783190191.9971,1,1,1.0000,0.0000,1.44680,0.19729,-2.78630,1.01817,1.57079,0.00003,-0.14512,-0.38001,0.03735,,,,,,,,,,,,,,,,,,,,,,,,,,0,0,0,0,0
4.3471,1783190192.0003,1,1,1.0000,0.0000,1.44680,0.19724,-2.78631,1.01824,1.57079,0.00003,-0.14512,-0.38001,0.03734,,,,,,,,,,,,,,,,,,,,,,,,,,0,0,0,0,0
4.3474,1783190192.0007,1,1,1.0000,0.0000,1.44680,0.19724,-2.78631,1.01824,1.57079,0.00003,-0.14512,-0.38001,0.03734,,,,,,,,,,,,,,,,,,,,,,,,,,0,0,0,0,0
4.3567,1783190192.0099,1,1,1.0000,0.0000,1.44680,0.19718,-2.78633,1.01831,1.57079,0.00003,-0.14512,-0.38001,0.03732,,,,,,,,,,,,,,,,,,,,,,,,,,0,0,0,0,0
4.3570,1783190192.0102,1,1,1.0000,0.0000,1.44680,0.19718,-2.78633,1.01831,1.57079,0.00003,-0.14512,-0.38001,0.03732,,,,,,,,,,,,,,,,,,,,,,,,,,0,0,0,0,0
4.3672,1783190192.0204,1,1,1.0000,0.0000,1.44680,0.19707,-2.78635,1.01844,1.57079,0.00003,-0.14512,-0.38001,0.03730,,,,,,,,,,,,,,,,,,,,,,,,,,0,0,0,0,0
4.3675,1783190192.0207,1,1,1.0000,0.0000,1.44680,0.19707,-2.78635,1.01844,1.57079,0.00003,-0.14512,-0.38001,0.03730,,,,,,,,,,,,,,,,,,,,,,,,,,0,0,0,0,0
4.3795,1783190192.0327,1,1,1.0000,0.0000,1.44680,0.19686,-2.78640,1.01870,1.57079,0.00003,-0.14512,-0.38001,0.03725,,,,,,,,,,,,,,,,,,,,,,,,,,0,0,0,0,0
4.3924,1783190192.0456,1,1,1.0000,0.0000,1.44680,0.19678,-2.78642,1.01880,1.57079,0.00003,-0.14512,-0.38001,0.03723,,,,,,,,,,,,,,,,,,,,,,,,,,0,0,0,0,0
4.3992,1783190192.0525,1,1,1.0000,0.0000,1.44680,0.19672,-2.78643,1.01887,1.57079,0.00003,-0.14512,-0.38001,0.03721,,,,,,,,,,,,,,,,,,,,,,,,,,0,0,0,0,0
4.4180,1783190192.0712,1,1,1.0000,0.0000,1.44680,0.19655,-2.78647,1.01908,1.57079,0.00003,-0.14512,-0.38001,0.03717,,,,,,,,,,,,,,,,,,,,,,,,,,0,0,0,0,0
4.4188,1783190192.0720,1,1,1.0000,0.0000,1.44680,0.19654,-2.78647,1.01910,1.57079,0.00003,-0.14511,-0.38001,0.03717,,,,,,,,,,,,,,,,,,,,,,,,,,0,0,0,0,0
4.4191,1783190192.0723,1,1,1.0000,0.0000,1.44680,0.19654,-2.78647,1.01910,1.57079,0.00003,-0.14511,-0.38001,0.03717,,,,,,,,,,,,,,,,,,,,,,,,,,0,0,0,0,0
4.4329,1783190192.0861,1,1,1.0000,0.0000,1.44679,0.19638,-2.78651,1.01929,1.57079,0.00003,-0.14511,-0.38001,0.03713,,,,,,,,,,,,,,,,,,,,,,,,,,0,0,0,0,0
4.4375,1783190192.0908,1,1,1.0000,0.0000,1.44679,0.19631,-2.78653,1.01938,1.57079,0.00003,-0.14511,-0.38001,0.03711,,,,,,,,,,,,,,,,,,,,,,,,,,0,0,0,0,0
4.4497,1783190192.1029,1,1,1.0000,0.0000,1.44679,0.19617,-2.78656,1.01956,1.57079,0.00003,-0.14511,-0.38001,0.03707,,,,,,,,,,,,,,,,,,,,,,,,,,0,0,0,0,0
4.4580,1783190192.1112,1,1,1.0000,0.0000,1.44679,0.19613,-2.78657,1.01960,1.57079,0.00003,-0.14511,-0.38001,0.03706,,,,,,,,,,,,,,,,,,,,,,,,,,0,0,0,0,0
4.4709,1783190192.1241,1,1,1.0000,0.0000,1.44679,0.19593,-2.78661,1.01985,1.57079,0.00003,-0.14511,-0.38001,0.03701,,,,,,,,,,,,,,,,,,,,,,,,,,0,0,0,0,0
4.4797,1783190192.1330,1,1,1.0000,0.0000,1.44679,0.19591,-2.78662,1.01987,1.57079,0.00003,-0.14511,-0.38001,0.03701,,,,,,,,,,,,,,,,,,,,,,,,,,0,0,0,0,0
4.4915,1783190192.1447,1,1,1.0000,0.0000,1.44679,0.19576,-2.78665,1.02006,1.57079,0.00003,-0.14511,-0.38001,0.03697,,,,,,,,,,,,,,,,,,,,,,,,,,0,0,0,0,0
4.4989,1783190192.1521,1,1,1.0000,0.0000,1.44679,0.19561,-2.78669,1.02024,1.57079,0.00003,-0.14511,-0.38001,0.03694,,,,,,,,,,,,,,,,,,,,,,,,,,0,0,0,0,0
4.4997,1783190192.1529,1,1,1.0000,0.0000,1.44679,0.19561,-2.78669,1.02024,1.57079,0.00003,-0.14511,-0.38001,0.03694,,,,,,,,,,,,,,,,,,,,,,,,,,0,0,0,0,0
4.5124,1783190192.1656,1,1,1.0000,0.0000,1.44679,0.19553,-2.78671,1.02034,1.57079,0.00003,-0.14511,-0.38001,0.03692,,,,,,,,,,,,,,,,,,,,,,,,,,0,0,0,0,0
4.5209,1783190192.1741,1,1,1.0000,0.0000,1.44679,0.19547,-2.78672,1.02041,1.57079,0.00003,-0.14511,-0.38001,0.03690,,,,,,,,,,,,,,,,,,,,,,,,,,0,0,0,0,0
4.5348,1783190192.1880,1,1,1.0000,0.0000,1.44679,0.19530,-2.78676,1.02062,1.57079,0.00003,-0.14511,-0.38001,0.03686,,,,,,,,,,,,,,,,,,,,,,,,,,0,0,0,0,0
4.5367,1783190192.1899,1,1,1.0000,0.0000,1.44679,0.19530,-2.78676,1.02062,1.57079,0.00003,-0.14511,-0.38001,0.03686,,,,,,,,,,,,,,,,,,,,,,,,,,0,0,0,0,0
4.5468,1783190192.2000,1,1,1.0000,0.0000,1.44679,0.19520,-2.78678,1.02074,1.57079,0.00003,-0.14511,-0.38001,0.03683,,,,,,,,,,,,,,,,,,,,,,,,,,0,0,0,0,0
4.6222,1783190192.2754,1,1,1.0000,0.0000,1.44679,0.19436,-2.78698,1.02178,1.57079,0.00003,-0.14511,-0.38001,0.03663,,,,,,,,,,,,,,,,,,,,,,,,,,0,0,0,0,0
4.6230,1783190192.2763,1,1,1.0000,0.0000,1.44679,0.19429,-2.78699,1.02187,1.57079,0.00003,-0.14511,-0.38001,0.03661,,,,,,,,,,,,,,,,,,,,,,,,,,0,0,0,0,0
4.6233,1783190192.2766,1,1,1.0000,0.0000,1.44679,0.19429,-2.78699,1.02187,1.57079,0.00003,-0.14511,-0.38001,0.03661,,,,,,,,,,,,,,,,,,,,,,,,,,0,0,0,0,0
4.6352,1783190192.2884,1,1,1.0000,0.0000,1.44679,0.19424,-2.78700,1.02192,1.57079,0.00003,-0.14511,-0.38001,0.03660,,,,,,,,,,,,,,,,,,,,,,,,,,0,0,0,0,0
4.6389,1783190192.2921,1,1,1.0000,0.0000,1.44679,0.19419,-2.78702,1.02199,1.57079,0.00003,-0.14511,-0.38001,0.03658,,,,,,,,,,,,,,,,,,,,,,,,,,0,0,0,0,0
4.6393,1783190192.2925,1,1,1.0000,0.0000,1.44679,0.19419,-2.78702,1.02199,1.57079,0.00003,-0.14511,-0.38001,0.03658,,,,,,,,,,,,,,,,,,,,,,,,,,0,0,0,0,0
4.6485,1783190192.3017,1,1,1.0000,0.0000,1.44679,0.19405,-2.78705,1.02215,1.57079,0.00003,-0.14511,-0.38001,0.03655,,,,,,,,,,,,,,,,,,,,,,,,,,0,0,0,0,0
4.6572,1783190192.3105,1,1,1.0000,0.0000,1.44679,0.19398,-2.78706,1.02224,1.57079,0.00003,-0.14511,-0.38001,0.03653,,,,,,,,,,,,,,,,,,,,,,,,,,0,0,0,0,0
4.6675,1783190192.3208,1,1,1.0000,0.0000,1.44679,0.19388,-2.78709,1.02236,1.57079,0.00003,-0.14511,-0.38001,0.03651,,,,,,,,,,,,,,,,,,,,,,,,,,0,0,0,0,0
4.6682,1783190192.3215,1,1,1.0000,0.0000,1.44679,0.19388,-2.78709,1.02236,1.57079,0.00003,-0.14511,-0.38001,0.03651,,,,,,,,,,,,,,,,,,,,,,,,,,0,0,0,0,0
4.6803,1783190192.3335,1,1,1.0000,0.0000,1.44679,0.19368,-2.78713,1.02262,1.57079,0.00003,-0.14511,-0.38001,0.03646,,,,,,,,,,,,,,,,,,,,,,,,,,0,0,0,0,0
4.6875,1783190192.3407,1,1,1.0000,0.0000,1.44679,0.19360,-2.78715,1.02271,1.57079,0.00003,-0.14511,-0.38001,0.03644,,,,,,,,,,,,,,,,,,,,,,,,,,0,0,0,0,0
4.6984,1783190192.3516,1,1,1.0000,0.0000,1.44679,0.19356,-2.78716,1.02276,1.57079,0.00003,-0.14511,-0.38001,0.03643,,,,,,,,,,,,,,,,,,,,,,,,,,0,0,0,0,0
4.7116,1783190192.3648,1,1,1.0000,0.0000,1.44679,0.19330,-2.78722,1.02308,1.57079,0.00003,-0.14511,-0.38001,0.03636,,,,,,,,,,,,,,,,,,,,,,,,,,0,0,0,0,0
4.7120,1783190192.3652,1,1,1.0000,0.0000,1.44679,0.19330,-2.78722,1.02308,1.57079,0.00003,-0.14511,-0.38001,0.03636,,,,,,,,,,,,,,,,,,,,,,,,,,0,0,0,0,0
4.7196,1783190192.3729,1,1,1.0000,0.0000,1.44679,0.19328,-2.78722,1.02310,1.57079,0.00003,-0.14511,-0.38001,0.03636,,,,,,,,,,,,,,,,,,,,,,,,,,0,0,0,0,0
4.7201,1783190192.3733,1,1,1.0000,0.0000,1.44679,0.19328,-2.78722,1.02310,1.57079,0.00003,-0.14511,-0.38001,0.03636,,,,,,,,,,,,,,,,,,,,,,,,,,0,0,0,0,0
4.7272,1783190192.3805,1,1,1.0000,0.0000,1.44679,0.19320,-2.78724,1.02320,1.57079,0.00003,-0.14511,-0.38001,0.03634,,,,,,,,,,,,,,,,,,,,,,,,,,0,0,0,0,0
4.7277,1783190192.3809,1,1,1.0000,0.0000,1.44679,0.19320,-2.78724,1.02320,1.57079,0.00003,-0.14511,-0.38001,0.03634,,,,,,,,,,,,,,,,,,,,,,,,,,0,0,0,0,0
4.7402,1783190192.3935,1,1,1.0000,0.0000,1.44679,0.19299,-2.78729,1.02346,1.57079,0.00003,-0.14511,-0.38001,0.03629,,,,,,,,,,,,,,,,,,,,,,,,,,0,0,0,0,0
4.7405,1783190192.3938,1,1,1.0000,0.0000,1.44679,0.19299,-2.78729,1.02346,1.57079,0.00003,-0.14511,-0.38001,0.03629,,,,,,,,,,,,,,,,,,,,,,,,,,0,0,0,0,0
4.7468,1783190192.4001,1,1,1.0000,0.0000,1.44679,0.19292,-2.78731,1.02355,1.57079,0.00003,-0.14511,-0.38001,0.03627,,,,,,,,,,,,,,,,,,,,,,,,,,0,0,0,0,0
4.7564,1783190192.4096,1,1,1.0000,0.0000,1.44679,0.19287,-2.78732,1.02361,1.57079,0.00003,-0.14511,-0.38001,0.03626,,,,,,,,,,,,,,,,,,,,,,,,,,0,0,0,0,0
4.7568,1783190192.4100,1,1,1.0000,0.0000,1.44679,0.19287,-2.78732,1.02361,1.57079,0.00003,-0.14511,-0.38001,0.03626,,,,,,,,,,,,,,,,,,,,,,,,,,0,0,0,0,0
4.7700,1783190192.4232,1,1,1.0000,0.0000,1.44679,0.19269,-2.78736,1.02383,1.57079,0.00003,-0.14511,-0.38001,0.03621,,,,,,,,,,,,,,,,,,,,,,,,,,0,0,0,0,0
4.7829,1783190192.4362,1,1,1.0000,0.0000,1.44679,0.19257,-2.78739,1.02398,1.57079,0.00003,-0.14511,-0.38001,0.03618,,,,,,,,,,,,,,,,,,,,,,,,,,0,0,0,0,0
4.7872,1783190192.4405,1,1,1.0000,0.0000,1.44679,0.19251,-2.78740,1.02405,1.57079,0.00003,-0.14511,-0.38001,0.03617,,,,,,,,,,,,,,,,,,,,,,,,,,0,0,0,0,0
4.7876,1783190192.4408,1,1,1.0000,0.0000,1.44679,0.19251,-2.78740,1.02405,1.57079,0.00003,-0.14511,-0.38001,0.03617,,,,,,,,,,,,,,,,,,,,,,,,,,0,0,0,0,0
4.7990,1783190192.4522,1,1,1.0000,0.0000,1.44679,0.19231,-2.78745,1.02430,1.57079,0.00003,-0.14511,-0.38001,0.03612,,,,,,,,,,,,,,,,,,,,,,,,,,0,0,0,0,0
4.8082,1783190192.4615,1,1,1.0000,0.0000,1.44679,0.19224,-2.78746,1.02439,1.57079,0.00003,-0.14511,-0.38001,0.03610,,,,,,,,,,,,,,,,,,,,,,,,,,0,0,0,0,0
4.8086,1783190192.4619,1,1,1.0000,0.0000,1.44679,0.19224,-2.78746,1.02439,1.57079,0.00003,-0.14511,-0.38001,0.03610,,,,,,,,,,,,,,,,,,,,,,,,,,0,0,0,0,0
4.8198,1783190192.4731,1,1,1.0000,0.0000,1.44679,0.19214,-2.78749,1.02451,1.57079,0.00003,-0.14511,-0.38001,0.03608,,,,,,,,,,,,,,,,,,,,,,,,,,0,0,0,0,0
4.8303,1783190192.4835,1,1,1.0000,0.0000,1.44679,0.19200,-2.78752,1.02468,1.57079,0.00003,-0.14511,-0.38001,0.03604,,,,,,,,,,,,,,,,,,,,,,,,,,0,0,0,0,0
4.8310,1783190192.4842,1,1,1.0000,0.0000,1.44679,0.19193,-2.78753,1.02477,1.57079,0.00003,-0.14511,-0.38001,0.03603,,,,,,,,,,,,,,,,,,,,,,,,,,0,0,0,0,0
4.8416,1783190192.4948,1,1,1.0000,0.0000,1.44679,0.19186,-2.78755,1.02486,1.57079,0.00003,-0.14511,-0.38001,0.03601,,,,,,,,,,,,,,,,,,,,,,,,,,0,0,0,0,0
4.8478,1783190192.5010,1,1,1.0000,0.0000,1.44679,0.19182,-2.78756,1.02490,1.57079,0.00003,-0.14511,-0.38001,0.03600,,,,,,,,,,,,,,,,,,,,,,,,,,0,0,0,0,0
4.8591,1783190192.5124,1,1,1.0000,0.0000,1.44679,0.19168,-2.78759,1.02508,1.57079,0.00003,-0.14511,-0.38001,0.03596,,,,,,,,,,,,,,,,,,,,,,,,,,0,0,0,0,0
4.8682,1783190192.5215,1,1,1.0000,0.0000,1.44679,0.19161,-2.78761,1.02515,1.57079,0.00003,-0.14511,-0.38001,0.03595,,,,,,,,,,,,,,,,,,,,,,,,,,0,0,0,0,0
4.8771,1783190192.5304,1,1,1.0000,0.0000,1.44679,0.19157,-2.78762,1.02521,1.57079,0.00003,-0.14511,-0.38001,0.03594,,,,,,,,,,,,,,,,,,,,,,,,,,0,0,0,0,0
4.8886,1783190192.5418,1,1,1.0000,0.0000,1.44679,0.19137,-2.78766,1.02545,1.57079,0.00003,-0.14511,-0.38001,0.03589,,,,,,,,,,,,,,,,,,,,,,,,,,0,0,0,0,0
4.9013,1783190192.5545,1,1,1.0000,0.0000,1.44679,0.19123,-2.78769,1.02563,1.57079,0.00003,-0.14511,-0.38001,0.03585,,,,,,,,,,,,,,,,,,,,,,,,,,0,0,0,0,0
4.9069,1783190192.5602,1,1,1.0000,0.0000,1.44679,0.19119,-2.78770,1.02567,1.57079,0.00003,-0.14511,-0.38001,0.03584,,,,,,,,,,,,,,,,,,,,,,,,,,0,0,0,0,0
4.9072,1783190192.5604,1,1,1.0000,0.0000,1.44679,0.19119,-2.78770,1.02567,1.57079,0.00003,-0.14511,-0.38001,0.03584,,,,,,,,,,,,,,,,,,,,,,,,,,0,0,0,0,0
4.9183,1783190192.5715,1,1,1.0000,0.0000,1.44679,0.19110,-2.78772,1.02578,1.57079,0.00003,-0.14511,-0.38001,0.03582,,,,,,,,,,,,,,,,,,,,,,,,,,0,0,0,0,0
4.9188,1783190192.5720,1,1,1.0000,0.0000,1.44679,0.19105,-2.78773,1.02585,1.57079,0.00003,-0.14511,-0.38001,0.03581,,,,,,,,,,,,,,,,,,,,,,,,,,0,0,0,0,0
4.9310,1783190192.5842,1,1,1.0000,0.0000,1.44679,0.19097,-2.78775,1.02594,1.57079,0.00003,-0.14511,-0.38001,0.03579,,,,,,,,,,,,,,,,,,,,,,,,,,0,0,0,0,0
4.9423,1783190192.5955,1,1,1.0000,0.0000,1.44679,0.19088,-2.78777,1.02605,1.57079,0.00003,-0.14511,-0.38001,0.03577,,,,,,,,,,,,,,,,,,,,,,,,,,0,0,0,0,0
4.9511,1783190192.6043,1,1,1.0000,0.0000,1.44679,0.19067,-2.78782,1.02631,1.57079,0.00003,-0.14511,-0.38001,0.03571,,,,,,,,,,,,,,,,,,,,,,,,,,0,0,0,0,0
4.9612,1783190192.6145,1,1,1.0000,0.0000,1.44679,0.19060,-2.78784,1.02640,1.57079,0.00003,-0.14511,-0.38001,0.03570,,,,,,,,,,,,,,,,,,,,,,,,,,0,0,0,0,0
4.9664,1783190192.6197,1,1,1.0000,0.0000,1.44679,0.19059,-2.78784,1.02641,1.57079,0.00003,-0.14511,-0.38001,0.03569,,,,,,,,,,,,,,,,,,,,,,,,,,0,0,0,0,0
4.9670,1783190192.6202,1,1,1.0000,0.0000,1.44679,0.19056,-2.78785,1.02644,1.57079,0.00003,-0.14511,-0.38001,0.03569,,,,,,,,,,,,,,,,,,,,,,,,,,0,0,0,0,0
4.9817,1783190192.6350,1,1,1.0000,0.0000,1.44679,0.19042,-2.78788,1.02662,1.57079,0.00003,-0.14511,-0.38001,0.03565,,,,,,,,,,,,,,,,,,,,,,,,,,0,0,0,0,0
4.9821,1783190192.6353,1,1,1.0000,0.0000,1.44679,0.19042,-2.78788,1.02662,1.57079,0.00003,-0.14511,-0.38001,0.03565,,,,,,,,,,,,,,,,,,,,,,,,,,0,0,0,0,0
4.9929,1783190192.6461,1,1,1.0000,0.0000,1.44679,0.19034,-2.78790,1.02671,1.57079,0.00003,-0.14511,-0.38001,0.03563,,,,,,,,,,,,,,,,,,,,,,,,,,0,0,0,0,0
5.0032,1783190192.6565,1,1,1.0000,0.0000,1.44679,0.19019,-2.78793,1.02690,1.57079,0.00003,-0.14511,-0.38001,0.03560,,,,,,,,,,,,,,,,,,,,,,,,,,0,0,0,0,0
5.0035,1783190192.6567,1,1,1.0000,0.0000,1.44679,0.19019,-2.78793,1.02690,1.57079,0.00003,-0.14511,-0.38001,0.03560,,,,,,,,,,,,,,,,,,,,,,,,,,0,0,0,0,0
5.0064,1783190192.6597,1,1,1.0000,0.0000,1.44679,0.19019,-2.78793,1.02690,1.57079,0.00003,-0.14511,-0.38001,0.03560,,,,,,,,,,,,,,,,,,,,,,,,,,0,0,0,0,0
5.0069,1783190192.6602,1,1,1.0000,0.0000,1.44679,0.19011,-2.78795,1.02699,1.57079,0.00003,-0.14511,-0.38001,0.03558,,,,,,,,,,,,,,,,,,,,,,,,,,0,0,0,0,0
5.0216,1783190192.6748,1,1,1.0000,0.0000,1.44679,0.18997,-2.78798,1.02718,1.57079,0.00003,-0.14511,-0.38001,0.03554,,,,,,,,,,,,,,,,,,,,,,,,,,0,0,0,0,0
5.0327,1783190192.6859,1,1,1.0000,0.0000,1.44679,0.18989,-2.78800,1.02726,1.57079,0.00003,-0.14511,-0.38001,0.03552,,,,,,,,,,,,,,,,,,,,,,,,,,0,0,0,0,0
5.0450,1783190192.6982,1,1,1.0000,0.0000,1.44679,0.18973,-2.78804,1.02747,1.57079,0.00003,-0.14511,-0.38001,0.03548,,,,,,,,,,,,,,,,,,,,,,,,,,0,0,0,0,0
5.0676,1783190192.7208,1,1,1.0000,0.0000,1.44679,0.18948,-2.78809,1.02777,1.57079,0.00003,-0.14511,-0.38001,0.03542,,,,,,,,,,,,,,,,,,,,,,,,,,0,0,0,0,0
5.0679,1783190192.7211,1,1,1.0000,0.0000,1.44679,0.18948,-2.78809,1.02777,1.57079,0.00003,-0.14511,-0.38001,0.03542,,,,,,,,,,,,,,,,,,,,,,,,,,0,0,0,0,0
5.1118,1783190192.7650,1,1,1.0000,0.0000,1.44679,0.18908,-2.78818,1.02826,1.57079,0.00003,-0.14511,-0.38001,0.03532,,,,,,,,,,,,,,,,,,,,,,,,,,0,0,0,0,0
5.1121,1783190192.7653,1,1,1.0000,0.0000,1.44679,0.18908,-2.78818,1.02826,1.57079,0.00003,-0.14511,-0.38001,0.03532,,,,,,,,,,,,,,,,,,,,,,,,,,0,0,0,0,0
5.1125,1783190192.7658,1,1,1.0000,0.0000,1.44679,0.18908,-2.78818,1.02826,1.57079,0.00003,-0.14511,-0.38001,0.03532,,,,,,,,,,,,,,,,,,,,,,,,,,0,0,0,0,0
5.1129,1783190192.7661,1,1,1.0000,0.0000,1.44679,0.18908,-2.78818,1.02826,1.57079,0.00003,-0.14511,-0.38001,0.03532,,,,,,,,,,,,,,,,,,,,,,,,,,0,0,0,0,0
5.1471,1783190192.8003,1,1,1.0000,0.0000,1.44679,0.18866,-2.78828,1.02878,1.57079,0.00003,-0.14511,-0.38001,0.03522,,,,,,,,,,,,,,,,,,,,,,,,,,0,0,0,0,0
5.1475,1783190192.8007,1,1,1.0000,0.0000,1.44679,0.18866,-2.78828,1.02878,1.57079,0.00003,-0.14511,-0.38001,0.03522,,,,,,,,,,,,,,,,,,,,,,,,,,0,0,0,0,0
5.1512,1783190192.8045,1,1,1.0000,0.0000,1.44679,0.18860,-2.78829,1.02884,1.57079,0.00003,-0.14511,-0.38001,0.03521,,,,,,,,,,,,,,,,,,,,,,,,,,0,0,0,0,0
5.1581,1783190192.8113,1,1,1.0000,0.0000,1.44679,0.18854,-2.78830,1.02892,1.57079,0.00003,-0.14511,-0.38001,0.03519,,,,,,,,,,,,,,,,,,,,,,,,,,0,0,0,0,0
5.1584,1783190192.8117,1,1,1.0000,0.0000,1.44679,0.18854,-2.78830,1.02892,1.57079,0.00003,-0.14511,-0.38001,0.03519,,,,,,,,,,,,,,,,,,,,,,,,,,0,0,0,0,0
5.1708,1783190192.8241,1,1,1.0000,0.0000,1.44679,0.18838,-2.78834,1.02912,1.57079,0.00003,-0.14511,-0.38001,0.03515,,,,,,,,,,,,,,,,,,,,,,,,,,0,0,0,0,0
5.1712,1783190192.8244,1,1,1.0000,0.0000,1.44679,0.18838,-2.78834,1.02912,1.57079,0.00003,-0.14511,-0.38001,0.03515,,,,,,,,,,,,,,,,,,,,,,,,,,0,0,0,0,0
5.1776,1783190192.8309,1,1,1.0000,0.0000,1.44679,0.18835,-2.78835,1.02916,1.57079,0.00003,-0.14511,-0.38001,0.03514,,,,,,,,,,,,,,,,,,,,,,,,,,0,0,0,0,0
5.1941,1783190192.8474,1,1,1.0000,0.0000,1.44679,0.18809,-2.78841,1.02948,1.57079,0.00004,-0.14511,-0.38001,0.03508,,,,,,,,,,,,,,,,,,,,,,,,,,0,0,0,0,0
5.2013,1783190192.8545,1,1,1.0000,0.0000,1.44679,0.18802,-2.78842,1.02957,1.57079,0.00004,-0.14511,-0.38001,0.03506,,,,,,,,,,,,,,,,,,,,,,,,,,0,0,0,0,0
5.2083,1783190192.8615,1,1,1.0000,0.0000,1.44679,0.18797,-2.78843,1.02963,1.57079,0.00004,-0.14511,-0.38001,0.03505,,,,,,,,,,,,,,,,,,,,,,,,,,0,0,0,0,0
5.2168,1783190192.8700,1,1,1.0000,0.0000,1.44679,0.18785,-2.78846,1.02977,1.57079,0.00004,-0.14511,-0.38001,0.03502,,,,,,,,,,,,,,,,,,,,,,,,,,0,0,0,0,0
5.2269,1783190192.8802,1,1,1.0000,0.0000,1.44679,0.18771,-2.78849,1.02995,1.57079,0.00004,-0.14511,-0.38001,0.03499,,,,,,,,,,,,,,,,,,,,,,,,,,0,0,0,0,0
5.2367,1783190192.8899,1,1,1.0000,0.0000,1.44679,0.18766,-2.78850,1.03000,1.57079,0.00004,-0.14511,-0.38001,0.03498,,,,,,,,,,,,,,,,,,,,,,,,,,0,0,0,0,0
5.2516,1783190192.9048,1,1,1.0000,0.0000,1.44679,0.18740,-2.78856,1.03032,1.57079,0.00004,-0.14511,-0.38001,0.03491,,,,,,,,,,,,,,,,,,,,,,,,,,0,0,0,0,0
5.2584,1783190192.9116,1,1,1.0000,0.0000,1.44679,0.18733,-2.78858,1.03041,1.57079,0.00004,-0.14511,-0.38001,0.03489,,,,,,,,,,,,,,,,,,,,,,,,,,0,0,0,0,0
5.2683,1783190192.9215,1,1,1.0000,0.0000,1.44679,0.18728,-2.78859,1.03047,1.57079,0.00004,-0.14511,-0.38001,0.03488,,,,,,,,,,,,,,,,,,,,,,,,,,0,0,0,0,0
5.2782,1783190192.9314,1,1,1.0000,0.0000,1.44679,0.18716,-2.78862,1.03061,1.57079,0.00004,-0.14511,-0.38001,0.03485,,,,,,,,,,,,,,,,,,,,,,,,,,0,0,0,0,0
5.2878,1783190192.9410,1,1,1.0000,0.0000,1.44679,0.18694,-2.78866,1.03088,1.57079,0.00004,-0.14511,-0.38001,0.03480,,,,,,,,,,,,,,,,,,,,,,,,,,0,0,0,0,0
5.2975,1783190192.9508,1,1,1.0000,0.0000,1.44679,0.18694,-2.78867,1.03089,1.57079,0.00004,-0.14511,-0.38001,0.03480,,,,,,,,,,,,,,,,,,,,,,,,,,0,0,0,0,0
5.3092,1783190192.9624,1,1,1.0000,0.0000,1.44679,0.18682,-2.78869,1.03103,1.57079,0.00004,-0.14511,-0.38001,0.03477,,,,,,,,,,,,,,,,,,,,,,,,,,0,0,0,0,0
5.3191,1783190192.9723,1,1,1.0000,0.0000,1.44679,0.18670,-2.78872,1.03118,1.57079,0.00004,-0.14511,-0.38001,0.03474,,,,,,,,,,,,,,,,,,,,,,,,,,0,0,0,0,0
5.3270,1783190192.9802,1,1,1.0000,0.0000,1.44679,0.18665,-2.78873,1.03124,1.57079,0.00004,-0.14511,-0.38001,0.03473,,,,,,,,,,,,,,,,,,,,,,,,,,0,0,0,0,0
5.3402,1783190192.9935,1,1,1.0000,0.0000,1.44679,0.18646,-2.78877,1.03148,1.57079,0.00004,-0.14511,-0.38001,0.03468,,,,,,,,,,,,,,,,,,,,,,,,,,0,0,0,0,0
5.3528,1783190193.0060,1,1,1.0000,0.0000,1.44679,0.18631,-2.78881,1.03166,1.57079,0.00004,-0.14511,-0.38001,0.03465,,,,,,,,,,,,,,,,,,,,,,,,,,0,0,0,0,0
5.3594,1783190193.0126,1,1,1.0000,0.0000,1.44679,0.18628,-2.78881,1.03170,1.57079,0.00004,-0.14511,-0.38001,0.03464,,,,,,,,,,,,,,,,,,,,,,,,,,0,0,0,0,0
5.3683,1783190193.0215,1,1,1.0000,0.0000,1.44679,0.18619,-2.78883,1.03181,1.57079,0.00004,-0.14511,-0.38001,0.03462,,,,,,,,,,,,,,,,,,,,,,,,,,0,0,0,0,0
5.3766,1783190193.0298,1,1,1.0000,0.0000,1.44679,0.18607,-2.78886,1.03195,1.57079,0.00004,-0.14511,-0.38001,0.03459,,,,,,,,,,,,,,,,,,,,,,,,,,0,0,0,0,0
5.3885,1783190193.0417,1,1,1.0000,0.0000,1.44679,0.18602,-2.78887,1.03201,1.57079,0.00004,-0.14511,-0.38001,0.03457,,,,,,,,,,,,,,,,,,,,,,,,,,0,0,0,0,0
