Martins-Lucaas/twinforge/sensors/Data/20260704_153802__samples.csv
t_rel_s,t_unix,cycle,phase,setpoint_n,force_net_n,q1,q2,q3,q4,q5,q6,tcp_x,tcp_y,tcp_z,taxel_0,taxel_1,taxel_2,taxel_3,taxel_4,taxel_5,taxel_6,taxel_7,taxel_8,taxel_9,taxel_10,taxel_11,taxel_12,taxel_13,taxel_14,taxel_15,taxel_16,taxel_17,taxel_18,taxel_19,taxel_20,taxel_21,taxel_22,taxel_23,taxel_24,n_RA,n_SA,cn_mm,cn_ra,cn_sa
0.0066,1783190282.1213,1,0,1.0000,0.0000,1.44682,0.23328,-2.77748,0.97337,1.57080,0.00000,-0.14512,-0.38003,0.04653,,,,,,,,,,,,,,,,,,,,,,,,,,0,0,0,0,0
0.0244,1783190282.1391,1,0,1.0000,0.0000,1.44682,0.23328,-2.77748,0.97337,1.57080,0.00000,-0.14512,-0.38003,0.04653,,,,,,,,,,,,,,,,,,,,,,,,,,0,0,0,0,0
0.0249,1783190282.1395,1,0,1.0000,0.0000,1.44682,0.23328,-2.77748,0.97337,1.57080,0.00000,-0.14512,-0.38003,0.04653,,,,,,,,,,,,,,,,,,,,,,,,,,0,0,0,0,0
0.0288,1783190282.1434,1,0,1.0000,0.0000,1.44682,0.23328,-2.77748,0.97337,1.57080,0.00000,-0.14512,-0.38003,0.04653,,,,,,,,,,,,,,,,,,,,,,,,,,0,0,0,0,0
0.0294,1783190282.1440,1,0,1.0000,0.0000,1.44682,0.23328,-2.77748,0.97337,1.57080,0.00000,-0.14512,-0.38003,0.04653,,,,,,,,,,,,,,,,,,,,,,,,,,0,0,0,0,0
0.0345,1783190282.1492,1,0,1.0000,0.0000,1.44682,0.23328,-2.77748,0.97337,1.57080,0.00000,-0.14512,-0.38003,0.04653,,,,,,,,,,,,,,,,,,,,,,,,,,0,0,0,0,0
0.0440,1783190282.1587,1,0,1.0000,0.0000,1.44682,0.23328,-2.77748,0.97337,1.57080,0.00000,-0.14512,-0.38003,0.04653,,,,,,,,,,,,,,,,,,,,,,,,,,0,0,0,0,0
0.0566,1783190282.1713,1,0,1.0000,0.0000,1.44682,0.23328,-2.77748,0.97337,1.57080,0.00000,-0.14512,-0.38003,0.04653,,,,,,,,,,,,,,,,,,,,,,,,,,0,0,0,0,0
0.0573,1783190282.1720,1,0,1.0000,0.0000,1.44682,0.23328,-2.77748,0.97337,1.57080,0.00000,-0.14512,-0.38003,0.04653,,,,,,,,,,,,,,,,,,,,,,,,,,0,0,0,0,0
0.0703,1783190282.1849,1,0,1.0000,0.0000,1.44682,0.23328,-2.77748,0.97337,1.57080,0.00000,-0.14512,-0.38003,0.04653,,,,,,,,,,,,,,,,,,,,,,,,,,0,0,0,0,0
0.0902,1783190282.2048,1,0,1.0000,0.0000,1.44682,0.23328,-2.77748,0.97337,1.57080,0.00000,-0.14512,-0.38003,0.04653,,,,,,,,,,,,,,,,,,,,,,,,,,0,0,0,0,0
0.0904,1783190282.2051,1,0,1.0000,0.0000,1.44682,0.23328,-2.77748,0.97337,1.57080,0.00000,-0.14512,-0.38003,0.04653,,,,,,,,,,,,,,,,,,,,,,,,,,0,0,0,0,0
0.0968,1783190282.2114,1,0,1.0000,0.0000,1.44682,0.23328,-2.77748,0.97337,1.57080,0.00000,-0.14512,-0.38003,0.04653,,,,,,,,,,,,,,,,,,,,,,,,,,0,0,0,0,0
0.1042,1783190282.2189,1,0,1.0000,0.0000,1.44682,0.23328,-2.77748,0.97337,1.57080,0.00000,-0.14512,-0.38003,0.04653,,,,,,,,,,,,,,,,,,,,,,,,,,0,0,0,0,0
0.1174,1783190282.2321,1,0,1.0000,0.0000,1.44682,0.23328,-2.77748,0.97337,1.57080,0.00000,-0.14512,-0.38003,0.04653,,,,,,,,,,,,,,,,,,,,,,,,,,0,0,0,0,0
0.1178,1783190282.2324,1,0,1.0000,0.0000,1.44682,0.23328,-2.77748,0.97337,1.57080,0.00000,-0.14512,-0.38003,0.04653,,,,,,,,,,,,,,,,,,,,,,,,,,0,0,0,0,0
0.1457,1783190282.2604,1,0,1.0000,0.0000,1.44682,0.23328,-2.77748,0.97337,1.57080,0.00000,-0.14512,-0.38003,0.04653,,,,,,,,,,,,,,,,,,,,,,,,,,0,0,0,0,0
0.1460,1783190282.2607,1,0,1.0000,0.0000,1.44682,0.23328,-2.77748,0.97337,1.57080,0.00000,-0.14512,-0.38003,0.04653,,,,,,,,,,,,,,,,,,,,,,,,,,0,0,0,0,0
0.1463,1783190282.2610,1,0,1.0000,0.0000,1.44682,0.23328,-2.77748,0.97337,1.57080,0.00000,-0.14512,-0.38003,0.04653,,,,,,,,,,,,,,,,,,,,,,,,,,0,0,0,0,0
0.1672,1783190282.2818,1,0,1.0000,0.0000,1.44682,0.23328,-2.77748,0.97337,1.57080,0.00000,-0.14512,-0.38003,0.04653,,,,,,,,,,,,,,,,,,,,,,,,,,0,0,0,0,0
0.1741,1783190282.2888,1,0,1.0000,0.0000,1.44682,0.23328,-2.77748,0.97337,1.57080,0.00000,-0.14512,-0.38003,0.04653,,,,,,,,,,,,,,,,,,,,,,,,,,0,0,0,0,0
0.1744,1783190282.2891,1,0,1.0000,0.0000,1.44682,0.23328,-2.77748,0.97337,1.57080,0.00000,-0.14512,-0.38003,0.04653,,,,,,,,,,,,,,,,,,,,,,,,,,0,0,0,0,0
0.1747,1783190282.2893,1,0,1.0000,0.0000,1.44682,0.23328,-2.77748,0.97337,1.57080,0.00000,-0.14512,-0.38003,0.04653,,,,,,,,,,,,,,,,,,,,,,,,,,0,0,0,0,0
0.1842,1783190282.2989,1,0,1.0000,0.0000,1.44682,0.23328,-2.77748,0.97337,1.57080,0.00000,-0.14512,-0.38003,0.04653,,,,,,,,,,,,,,,,,,,,,,,,,,0,0,0,0,0
0.1957,1783190282.3103,1,0,1.0000,0.0000,1.44682,0.23328,-2.77748,0.97337,1.57080,0.00000,-0.14512,-0.38003,0.04653,,,,,,,,,,,,,,,,,,,,,,,,,,0,0,0,0,0
0.2024,1783190282.3171,1,0,1.0000,0.0000,1.44682,0.23328,-2.77748,0.97337,1.57080,0.00000,-0.14512,-0.38003,0.04653,,,,,,,,,,,,,,,,,,,,,,,,,,0,0,0,0,0
0.2123,1783190282.3270,1,0,1.0000,0.0000,1.44682,0.23328,-2.77748,0.97337,1.57080,0.00000,-0.14512,-0.38003,0.04653,,,,,,,,,,,,,,,,,,,,,,,,,,0,0,0,0,0
0.2294,1783190282.3441,1,0,1.0000,0.0000,1.44682,0.23328,-2.77748,0.97337,1.57080,0.00000,-0.14512,-0.38003,0.04653,,,,,,,,,,,,,,,,,,,,,,,,,,0,0,0,0,0
0.2329,1783190282.3476,1,0,1.0000,0.0000,1.44682,0.23328,-2.77748,0.97337,1.57080,0.00000,-0.14512,-0.38003,0.04653,,,,,,,,,,,,,,,,,,,,,,,,,,0,0,0,0,0
0.2337,1783190282.3483,1,0,1.0000,0.0000,1.44682,0.23328,-2.77748,0.97337,1.57080,0.00000,-0.14512,-0.38003,0.04653,,,,,,,,,,,,,,,,,,,,,,,,,,0,0,0,0,0
0.2444,1783190282.3591,1,0,1.0000,0.0000,1.44682,0.23328,-2.77748,0.97337,1.57080,0.00000,-0.14512,-0.38003,0.04653,,,,,,,,,,,,,,,,,,,,,,,,,,0,0,0,0,0
0.2540,1783190282.3686,1,0,1.0000,0.0000,1.44682,0.23328,-2.77748,0.97337,1.57080,0.00000,-0.14512,-0.38003,0.04653,,,,,,,,,,,,,,,,,,,,,,,,,,0,0,0,0,0
0.2624,1783190282.3770,1,0,1.0000,0.0000,1.44682,0.23328,-2.77748,0.97337,1.57080,0.00000,-0.14512,-0.38003,0.04653,,,,,,,,,,,,,,,,,,,,,,,,,,0,0,0,0,0
0.2628,1783190282.3774,1,0,1.0000,0.0000,1.44682,0.23328,-2.77748,0.97337,1.57080,0.00000,-0.14512,-0.38003,0.04653,,,,,,,,,,,,,,,,,,,,,,,,,,0,0,0,0,0
0.2760,1783190282.3906,1,0,1.0000,0.0000,1.44682,0.23328,-2.77748,0.97337,1.57080,0.00000,-0.14512,-0.38003,0.04653,,,,,,,,,,,,,,,,,,,,,,,,,,0,0,0,0,0
0.2901,1783190282.4048,1,0,1.0000,0.0000,1.44682,0.23328,-2.77748,0.97337,1.57080,0.00000,-0.14512,-0.38003,0.04653,,,,,,,,,,,,,,,,,,,,,,,,,,0,0,0,0,0
0.2929,1783190282.4075,1,0,1.0000,0.0000,1.44682,0.23328,-2.77748,0.97337,1.57080,0.00000,-0.14512,-0.38003,0.04653,,,,,,,,,,,,,,,,,,,,,,,,,,0,0,0,0,0
0.2935,1783190282.4082,1,0,1.0000,0.0000,1.44682,0.23328,-2.77748,0.97337,1.57080,0.00000,-0.14512,-0.38003,0.04653,,,,,,,,,,,,,,,,,,,,,,,,,,0,0,0,0,0
0.3069,1783190282.4215,1,0,1.0000,0.0000,1.44682,0.23328,-2.77748,0.97337,1.57080,0.00000,-0.14512,-0.38003,0.04653,,,,,,,,,,,,,,,,,,,,,,,,,,0,0,0,0,0
0.3145,1783190282.4292,1,0,1.0000,0.0000,1.44682,0.23328,-2.77748,0.97337,1.57080,0.00000,-0.14512,-0.38003,0.04653,,,,,,,,,,,,,,,,,,,,,,,,,,0,0,0,0,0
0.3149,1783190282.4296,1,0,1.0000,0.0000,1.44682,0.23328,-2.77748,0.97337,1.57080,0.00000,-0.14512,-0.38003,0.04653,,,,,,,,,,,,,,,,,,,,,,,,,,0,0,0,0,0
0.3220,1783190282.4367,1,0,1.0000,0.0000,1.44682,0.23328,-2.77748,0.97337,1.57080,0.00000,-0.14512,-0.38003,0.04653,,,,,,,,,,,,,,,,,,,,,,,,,,0,0,0,0,0
0.3388,1783190282.4535,1,0,1.0000,0.0000,1.44682,0.23328,-2.77748,0.97337,1.57080,0.00000,-0.14512,-0.38003,0.04653,,,,,,,,,,,,,,,,,,,,,,,,,,0,0,0,0,0
0.3481,1783190282.4628,1,0,1.0000,0.0000,1.44682,0.23328,-2.77748,0.97337,1.57080,0.00000,-0.14512,-0.38003,0.04653,,,,,,,,,,,,,,,,,,,,,,,,,,0,0,0,0,0
0.3525,1783190282.4671,1,0,1.0000,0.0000,1.44682,0.23328,-2.77748,0.97337,1.57080,0.00000,-0.14512,-0.38003,0.04653,,,,,,,,,,,,,,,,,,,,,,,,,,0,0,0,0,0
0.3634,1783190282.4780,1,0,1.0000,0.0000,1.44682,0.23328,-2.77748,0.97337,1.57080,0.00000,-0.14512,-0.38003,0.04653,,,,,,,,,,,,,,,,,,,,,,,,,,0,0,0,0,0
0.3724,1783190282.4871,1,0,1.0000,0.0000,1.44682,0.23328,-2.77748,0.97337,1.57080,0.00000,-0.14512,-0.38003,0.04653,,,,,,,,,,,,,,,,,,,,,,,,,,0,0,0,0,0
0.3867,1783190282.5014,1,0,1.0000,0.0000,1.44682,0.23328,-2.77748,0.97337,1.57080,0.00000,-0.14512,-0.38003,0.04653,,,,,,,,,,,,,,,,,,,,,,,,,,0,0,0,0,0
0.3920,1783190282.5067,1,0,1.0000,0.0000,1.44682,0.23328,-2.77748,0.97337,1.57080,0.00000,-0.14512,-0.38003,0.04653,,,,,,,,,,,,,,,,,,,,,,,,,,0,0,0,0,0
0.3924,1783190282.5071,1,0,1.0000,0.0000,1.44682,0.23328,-2.77748,0.97337,1.57080,0.00000,-0.14512,-0.38003,0.04653,,,,,,,,,,,,,,,,,,,,,,,,,,0,0,0,0,0
0.4063,1783190282.5210,1,0,1.0000,0.0000,1.44682,0.23328,-2.77748,0.97337,1.57080,0.00000,-0.14512,-0.38003,0.04653,,,,,,,,,,,,,,,,,,,,,,,,,,0,0,0,0,0
0.4135,1783190282.5282,1,0,1.0000,0.0000,1.44682,0.23328,-2.77748,0.97337,1.57080,0.00000,-0.14512,-0.38003,0.04653,,,,,,,,,,,,,,,,,,,,,,,,,,0,0,0,0,0
0.4138,1783190282.5285,1,0,1.0000,0.0000,1.44682,0.23328,-2.77748,0.97337,1.57080,0.00000,-0.14512,-0.38003,0.04653,,,,,,,,,,,,,,,,,,,,,,,,,,0,0,0,0,0
0.4220,1783190282.5367,1,0,1.0000,0.0000,1.44682,0.23328,-2.77748,0.97337,1.57080,0.00000,-0.14512,-0.38003,0.04653,,,,,,,,,,,,,,,,,,,,,,,,,,0,0,0,0,0
0.4224,1783190282.5371,1,0,1.0000,0.0000,1.44682,0.23328,-2.77748,0.97337,1.57080,0.00000,-0.14512,-0.38003,0.04653,,,,,,,,,,,,,,,,,,,,,,,,,,0,0,0,0,0
0.4407,1783190282.5554,1,0,1.0000,0.0000,1.44682,0.23328,-2.77748,0.97337,1.57080,0.00000,-0.14512,-0.38003,0.04653,,,,,,,,,,,,,,,,,,,,,,,,,,0,0,0,0,0
0.4535,1783190282.5682,1,0,1.0000,0.0000,1.44682,0.23328,-2.77748,0.97337,1.57080,0.00000,-0.14512,-0.38003,0.04653,,,,,,,,,,,,,,,,,,,,,,,,,,0,0,0,0,0
0.4538,1783190282.5684,1,0,1.0000,0.0000,1.44682,0.23328,-2.77748,0.97337,1.57080,0.00000,-0.14512,-0.38003,0.04653,,,,,,,,,,,,,,,,,,,,,,,,,,0,0,0,0,0
0.4540,1783190282.5687,1,0,1.0000,0.0000,1.44682,0.23328,-2.77748,0.97337,1.57080,0.00000,-0.14512,-0.38003,0.04653,,,,,,,,,,,,,,,,,,,,,,,,,,0,0,0,0,0
0.4672,1783190282.5818,1,0,1.0000,0.0000,1.44682,0.23328,-2.77748,0.97337,1.57080,0.00000,-0.14512,-0.38003,0.04653,,,,,,,,,,,,,,,,,,,,,,,,,,0,0,0,0,0
0.4727,1783190282.5873,1,0,1.0000,0.0000,1.44682,0.23328,-2.77748,0.97337,1.57080,0.00000,-0.14512,-0.38003,0.04653,,,,,,,,,,,,,,,,,,,,,,,,,,0,0,0,0,0
0.4733,1783190282.5880,1,0,1.0000,0.0000,1.44682,0.23328,-2.77748,0.97337,1.57080,0.00000,-0.14512,-0.38003,0.04653,,,,,,,,,,,,,,,,,,,,,,,,,,0,0,0,0,0
0.4956,1783190282.6103,1,0,1.0000,0.0000,1.44682,0.23328,-2.77748,0.97337,1.57080,0.00000,-0.14512,-0.38003,0.04653,,,,,,,,,,,,,,,,,,,,,,,,,,0,0,0,0,0
0.4960,1783190282.6106,1,0,1.0000,0.0000,1.44682,0.23328,-2.77748,0.97337,1.57080,0.00000,-0.14512,-0.38003,0.04653,,,,,,,,,,,,,,,,,,,,,,,,,,0,0,0,0,0
0.5020,1783190282.6167,1,0,1.0000,0.0000,1.44682,0.23328,-2.77748,0.97337,1.57080,0.00000,-0.14512,-0.38003,0.04653,,,,,,,,,,,,,,,,,,,,,,,,,,0,0,0,0,0
0.5124,1783190282.6271,1,0,1.0000,0.0000,1.44682,0.23328,-2.77748,0.97337,1.57080,0.00000,-0.14512,-0.38003,0.04653,,,,,,,,,,,,,,,,,,,,,,,,,,0,0,0,0,0
0.5267,1783190282.6414,1,0,1.0000,0.0000,1.44682,0.23328,-2.77748,0.97337,1.57080,0.00000,-0.14512,-0.38003,0.04653,,,,,,,,,,,,,,,,,,,,,,,,,,0,0,0,0,0
0.5383,1783190282.6529,1,0,1.0000,0.0000,1.44682,0.23328,-2.77748,0.97337,1.57080,0.00000,-0.14512,-0.38003,0.04653,,,,,,,,,,,,,,,,,,,,,,,,,,0,0,0,0,0
0.5475,1783190282.6621,1,0,1.0000,0.0000,1.44682,0.23328,-2.77748,0.97337,1.57080,0.00000,-0.14512,-0.38003,0.04653,,,,,,,,,,,,,,,,,,,,,,,,,,0,0,0,0,0
0.5528,1783190282.6674,1,0,1.0000,0.0000,1.44682,0.23328,-2.77748,0.97337,1.57080,0.00000,-0.14512,-0.38003,0.04653,,,,,,,,,,,,,,,,,,,,,,,,,,0,0,0,0,0
0.5621,1783190282.6768,1,0,1.0000,0.0000,1.44682,0.23328,-2.77748,0.97337,1.57080,0.00000,-0.14512,-0.38003,0.04653,,,,,,,,,,,,,,,,,,,,,,,,,,0,0,0,0,0
0.5759,1783190282.6906,1,0,1.0000,0.0000,1.44682,0.23328,-2.77748,0.97337,1.57080,0.00000,-0.14512,-0.38003,0.04653,,,,,,,,,,,,,,,,,,,,,,,,,,0,0,0,0,0
0.5825,1783190282.6971,1,0,1.0000,0.0000,1.44682,0.23328,-2.77748,0.97337,1.57080,0.00000,-0.14512,-0.38003,0.04653,,,,,,,,,,,,,,,,,,,,,,,,,,0,0,0,0,0
0.6051,1783190282.7198,1,0,1.0000,0.0000,1.44682,0.23328,-2.77748,0.97337,1.57080,0.00000,-0.14512,-0.38003,0.04653,,,,,,,,,,,,,,,,,,,,,,,,,,0,0,0,0,0
0.6149,1783190282.7296,1,0,1.0000,0.0000,1.44682,0.23328,-2.77748,0.97337,1.57080,0.00000,-0.14512,-0.38003,0.04653,,,,,,,,,,,,,,,,,,,,,,,,,,0,0,0,0,0
0.6250,1783190282.7397,1,0,1.0000,0.0000,1.44682,0.23328,-2.77748,0.97337,1.57080,0.00000,-0.14512,-0.38003,0.04653,,,,,,,,,,,,,,,,,,,,,,,,,,0,0,0,0,0
0.6327,1783190282.7473,1,0,1.0000,0.0000,1.44682,0.23328,-2.77748,0.97337,1.57080,0.00000,-0.14512,-0.38003,0.04653,,,,,,,,,,,,,,,,,,,,,,,,,,0,0,0,0,0
0.6334,1783190282.7480,1,0,1.0000,0.0000,1.44682,0.23328,-2.77748,0.97337,1.57080,0.00000,-0.14512,-0.38003,0.04653,,,,,,,,,,,,,,,,,,,,,,,,,,0,0,0,0,0
0.6456,1783190282.7602,1,0,1.0000,0.0000,1.44682,0.23328,-2.77748,0.97337,1.57080,0.00000,-0.14512,-0.38003,0.04653,,,,,,,,,,,,,,,,,,,,,,,,,,0,0,0,0,0
0.6552,1783190282.7699,1,0,1.0000,0.0000,1.44682,0.23328,-2.77748,0.97337,1.57080,0.00000,-0.14512,-0.38003,0.04653,,,,,,,,,,,,,,,,,,,,,,,,,,0,0,0,0,0
0.6624,1783190282.7771,1,0,1.0000,0.0000,1.44682,0.23328,-2.77748,0.97337,1.57080,0.00000,-0.14512,-0.38003,0.04653,,,,,,,,,,,,,,,,,,,,,,,,,,0,0,0,0,0
0.6628,1783190282.7775,1,0,1.0000,0.0000,1.44682,0.23328,-2.77748,0.97337,1.57080,0.00000,-0.14512,-0.38003,0.04653,,,,,,,,,,,,,,,,,,,,,,,,,,0,0,0,0,0
0.6754,1783190282.7900,1,0,1.0000,0.0000,1.44682,0.23328,-2.77748,0.97337,1.57080,0.00000,-0.14512,-0.38003,0.04653,,,,,,,,,,,,,,,,,,,,,,,,,,0,0,0,0,0
0.6842,1783190282.7988,1,0,1.0000,0.0000,1.44682,0.23328,-2.77748,0.97337,1.57080,0.00000,-0.14512,-0.38003,0.04653,,,,,,,,,,,,,,,,,,,,,,,,,,0,0,0,0,0
0.6975,1783190282.8122,1,0,1.0000,0.0000,1.44682,0.23328,-2.77748,0.97337,1.57080,0.00000,-0.14512,-0.38003,0.04653,,,,,,,,,,,,,,,,,,,,,,,,,,0,0,0,0,0
0.7028,1783190282.8175,1,0,1.0000,0.0000,1.44682,0.23328,-2.77748,0.97337,1.57080,0.00000,-0.14512,-0.38003,0.04653,,,,,,,,,,,,,,,,,,,,,,,,,,0,0,0,0,0
0.7130,1783190282.8277,1,0,1.0000,0.0000,1.44682,0.23328,-2.77748,0.97337,1.57080,0.00000,-0.14512,-0.38003,0.04653,,,,,,,,,,,,,,,,,,,,,,,,,,0,0,0,0,0
0.7256,1783190282.8402,1,0,1.0000,0.0000,1.44682,0.23328,-2.77748,0.97337,1.57080,0.00000,-0.14512,-0.38003,0.04653,,,,,,,,,,,,,,,,,,,,,,,,,,0,0,0,0,0
0.7341,1783190282.8487,1,1,1.0000,0.0000,1.44682,0.23328,-2.77748,0.97337,1.57080,0.00000,-0.14512,-0.38003,0.04653,,,,,,,,,,,,,,,,,,,,,,,,,,0,0,0,0,0
0.7468,1783190282.8615,1,1,1.0000,0.0000,1.44682,0.23328,-2.77748,0.97337,1.57080,0.00000,-0.14512,-0.38003,0.04653,,,,,,,,,,,,,,,,,,,,,,,,,,0,0,0,0,0
0.7575,1783190282.8721,1,1,1.0000,0.0000,1.44682,0.23328,-2.77748,0.97337,1.57080,0.00000,-0.14512,-0.38003,0.04653,,,,,,,,,,,,,,,,,,,,,,,,,,0,0,0,0,0
0.7632,1783190282.8778,1,1,1.0000,0.0000,1.44682,0.23328,-2.77748,0.97337,1.57080,0.00000,-0.14512,-0.38003,0.04653,,,,,,,,,,,,,,,,,,,,,,,,,,0,0,0,0,0
0.7634,1783190282.8781,1,1,1.0000,0.0000,1.44682,0.23328,-2.77748,0.97337,1.57080,0.00000,-0.14512,-0.38003,0.04653,,,,,,,,,,,,,,,,,,,,,,,,,,0,0,0,0,0
0.7733,1783190282.8879,1,1,1.0000,0.0000,1.44682,0.23328,-2.77748,0.97337,1.57080,0.00000,-0.14512,-0.38003,0.04653,,,,,,,,,,,,,,,,,,,,,,,,,,0,0,0,0,0
0.7863,1783190282.9010,1,1,1.0000,0.0000,1.44682,0.23328,-2.77748,0.97337,1.57080,0.00000,-0.14512,-0.38003,0.04653,,,,,,,,,,,,,,,,,,,,,,,,,,0,0,0,0,0
0.8041,1783190282.9187,1,1,1.0000,0.0000,1.44682,0.23328,-2.77748,0.97337,1.57080,0.00000,-0.14512,-0.38003,0.04653,,,,,,,,,,,,,,,,,,,,,,,,,,0,0,0,0,0
0.8128,1783190282.9274,1,1,1.0000,0.0000,1.44682,0.23328,-2.77748,0.97337,1.57080,0.00000,-0.14512,-0.38003,0.04653,,,,,,,,,,,,,,,,,,,,,,,,,,0,0,0,0,0
0.8261,1783190282.9407,1,1,1.0000,0.0000,1.44682,0.23328,-2.77748,0.97337,1.57080,0.00000,-0.14512,-0.38003,0.04653,,,,,,,,,,,,,,,,,,,,,,,,,,0,0,0,0,0
0.8326,1783190282.9472,1,1,1.0000,0.0000,1.44682,0.23328,-2.77748,0.97337,1.57080,0.00000,-0.14512,-0.38003,0.04653,,,,,,,,,,,,,,,,,,,,,,,,,,0,0,0,0,0
0.8456,1783190282.9602,1,1,1.0000,0.0000,1.44682,0.23328,-2.77748,0.97337,1.57080,0.00000,-0.14512,-0.38003,0.04653,,,,,,,,,,,,,,,,,,,,,,,,,,0,0,0,0,0
0.8461,1783190282.9607,1,1,1.0000,0.0000,1.44682,0.23328,-2.77748,0.97337,1.57080,0.00000,-0.14512,-0.38003,0.04653,,,,,,,,,,,,,,,,,,,,,,,,,,0,0,0,0,0
0.8527,1783190282.9674,1,1,1.0000,0.0000,1.44682,0.23328,-2.77748,0.97337,1.57080,0.00000,-0.14512,-0.38003,0.04653,,,,,,,,,,,,,,,,,,,,,,,,,,0,0,0,0,0
0.8533,1783190282.9680,1,1,1.0000,0.0000,1.44682,0.23328,-2.77748,0.97337,1.57080,0.00000,-0.14512,-0.38003,0.04653,,,,,,,,,,,,,,,,,,,,,,,,,,0,0,0,0,0
0.8641,1783190282.9788,1,1,1.0000,0.0000,1.44682,0.23328,-2.77748,0.97337,1.57080,0.00000,-0.14512,-0.38003,0.04653,,,,,,,,,,,,,,,,,,,,,,,,,,0,0,0,0,0
0.8747,1783190282.9893,1,1,1.0000,0.0000,1.44682,0.23328,-2.77748,0.97337,1.57080,0.00000,-0.14512,-0.38003,0.04653,,,,,,,,,,,,,,,,,,,,,,,,,,0,0,0,0,0
0.8822,1783190282.9968,1,1,1.0000,0.0000,1.44682,0.23328,-2.77748,0.97337,1.57080,0.00000,-0.14512,-0.38003,0.04653,,,,,,,,,,,,,,,,,,,,,,,,,,0,0,0,0,0
0.8824,1783190282.9970,1,1,1.0000,0.0000,1.44682,0.23328,-2.77748,0.97337,1.57080,0.00000,-0.14512,-0.38003,0.04653,,,,,,,,,,,,,,,,,,,,,,,,,,0,0,0,0,0
0.9023,1783190283.0169,1,1,1.0000,0.0000,1.44682,0.23328,-2.77748,0.97337,1.57080,0.00000,-0.14512,-0.38003,0.04653,,,,,,,,,,,,,,,,,,,,,,,,,,0,0,0,0,0
0.9049,1783190283.0196,1,1,1.0000,0.0000,1.44682,0.23328,-2.77748,0.97337,1.57080,0.00000,-0.14512,-0.38003,0.04653,,,,,,,,,,,,,,,,,,,,,,,,,,0,0,0,0,0
0.9055,1783190283.0201,1,1,1.0000,0.0000,1.44682,0.23328,-2.77748,0.97337,1.57080,0.00000,-0.14512,-0.38003,0.04653,,,,,,,,,,,,,,,,,,,,,,,,,,0,0,0,0,0
0.9140,1783190283.0287,1,1,1.0000,0.0000,1.44682,0.23328,-2.77748,0.97337,1.57080,0.00000,-0.14512,-0.38003,0.04653,,,,,,,,,,,,,,,,,,,,,,,,,,0,0,0,0,0
0.9228,1783190283.0375,1,1,1.0000,0.0000,1.44682,0.23328,-2.77748,0.97337,1.57080,0.00000,-0.14512,-0.38003,0.04653,,,,,,,,,,,,,,,,,,,,,,,,,,0,0,0,0,0
0.9325,1783190283.0472,1,1,1.0000,0.0000,1.44682,0.23322,-2.77749,0.97344,1.57080,0.00000,-0.14512,-0.38003,0.04651,,,,,,,,,,,,,,,,,,,,,,,,,,0,0,0,0,0
0.9330,1783190283.0477,1,1,1.0000,0.0000,1.44682,0.23322,-2.77749,0.97344,1.57080,0.00000,-0.14512,-0.38003,0.04651,,,,,,,,,,,,,,,,,,,,,,,,,,0,0,0,0,0
0.9488,1783190283.0635,1,1,1.0000,0.0000,1.44682,0.23293,-2.77757,0.97381,1.57080,0.00000,-0.14512,-0.38003,0.04644,,,,,,,,,,,,,,,,,,,,,,,,,,0,0,0,0,0
0.9538,1783190283.0685,1,1,1.0000,0.0000,1.44682,0.23291,-2.77757,0.97383,1.57080,0.00000,-0.14512,-0.38003,0.04643,,,,,,,,,,,,,,,,,,,,,,,,,,0,0,0,0,0
0.9624,1783190283.0771,1,1,1.0000,0.0000,1.44682,0.23284,-2.77759,0.97392,1.57080,0.00000,-0.14512,-0.38003,0.04641,,,,,,,,,,,,,,,,,,,,,,,,,,0,0,0,0,0
0.9743,1783190283.0889,1,1,1.0000,0.0000,1.44682,0.23265,-2.77764,0.97416,1.57080,0.00000,-0.14512,-0.38003,0.04636,,,,,,,,,,,,,,,,,,,,,,,,,,0,0,0,0,0
0.9888,1783190283.1035,1,1,1.0000,0.0000,1.44682,0.23257,-2.77766,0.97426,1.57080,0.00000,-0.14512,-0.38003,0.04634,,,,,,,,,,,,,,,,,,,,,,,,,,0,0,0,0,0
1.0002,1783190283.1148,1,1,1.0000,0.0000,1.44682,0.23243,-2.77770,0.97444,1.57080,0.00000,-0.14512,-0.38003,0.04631,,,,,,,,,,,,,,,,,,,,,,,,,,0,0,0,0,0
1.0041,1783190283.1188,1,1,1.0000,0.0000,1.44682,0.23236,-2.77771,0.97452,1.57080,0.00000,-0.14512,-0.38003,0.04629,,,,,,,,,,,,,,,,,,,,,,,,,,0,0,0,0,0
1.0044,1783190283.1191,1,1,1.0000,0.0000,1.44682,0.23236,-2.77771,0.97452,1.57080,0.00000,-0.14512,-0.38003,0.04629,,,,,,,,,,,,,,,,,,,,,,,,,,0,0,0,0,0
1.0167,1783190283.1314,1,1,1.0000,0.0000,1.44682,0.23222,-2.77775,0.97470,1.57080,0.00000,-0.14512,-0.38003,0.04625,,,,,,,,,,,,,,,,,,,,,,,,,,0,0,0,0,0
1.0225,1783190283.1371,1,1,1.0000,0.0000,1.44682,0.23219,-2.77776,0.97474,1.57080,0.00000,-0.14512,-0.38003,0.04624,,,,,,,,,,,,,,,,,,,,,,,,,,0,0,0,0,0
1.0229,1783190283.1375,1,1,1.0000,0.0000,1.44682,0.23219,-2.77776,0.97474,1.57080,0.00000,-0.14512,-0.38003,0.04624,,,,,,,,,,,,,,,,,,,,,,,,,,0,0,0,0,0
1.0324,1783190283.1470,1,1,1.0000,0.0000,1.44682,0.23211,-2.77778,0.97484,1.57080,0.00000,-0.14512,-0.38003,0.04622,,,,,,,,,,,,,,,,,,,,,,,,,,0,0,0,0,0
1.0329,1783190283.1475,1,1,1.0000,0.0000,1.44682,0.23211,-2.77778,0.97484,1.57080,0.00000,-0.14512,-0.38003,0.04622,,,,,,,,,,,,,,,,,,,,,,,,,,0,0,0,0,0
1.0499,1783190283.1645,1,1,1.0000,0.0000,1.44682,0.23195,-2.77782,0.97504,1.57080,0.00000,-0.14512,-0.38003,0.04618,,,,,,,,,,,,,,,,,,,,,,,,,,0,0,0,0,0
1.0558,1783190283.1705,1,1,1.0000,0.0000,1.44682,0.23190,-2.77783,0.97511,1.57080,0.00000,-0.14512,-0.38003,0.04617,,,,,,,,,,,,,,,,,,,,,,,,,,0,0,0,0,0
1.0639,1783190283.1786,1,1,1.0000,0.0000,1.44682,0.23177,-2.77787,0.97527,1.57080,0.00000,-0.14512,-0.38003,0.04613,,,,,,,,,,,,,,,,,,,,,,,,,,0,0,0,0,0
1.0644,1783190283.1791,1,1,1.0000,0.0000,1.44682,0.23177,-2.77787,0.97527,1.57080,0.00000,-0.14512,-0.38003,0.04613,,,,,,,,,,,,,,,,,,,,,,,,,,0,0,0,0,0
1.0737,1783190283.1883,1,1,1.0000,0.0000,1.44682,0.23163,-2.77790,0.97545,1.57080,0.00000,-0.14512,-0.38003,0.04610,,,,,,,,,,,,,,,,,,,,,,,,,,0,0,0,0,0
1.0824,1783190283.1971,1,1,1.0000,0.0000,1.44682,0.23159,-2.77791,0.97549,1.57080,0.00000,-0.14512,-0.38003,0.04609,,,,,,,,,,,,,,,,,,,,,,,,,,0,0,0,0,0
1.0940,1783190283.2087,1,1,1.0000,0.0000,1.44682,0.23146,-2.77795,0.97566,1.57080,0.00000,-0.14512,-0.38003,0.04605,,,,,,,,,,,,,,,,,,,,,,,,,,0,0,0,0,0
1.0945,1783190283.2091,1,1,1.0000,0.0000,1.44682,0.23146,-2.77795,0.97566,1.57080,0.00000,-0.14512,-0.38003,0.04605,,,,,,,,,,,,,,,,,,,,,,,,,,0,0,0,0,0
1.1066,1783190283.2212,1,1,1.0000,0.0000,1.44682,0.23139,-2.77796,0.97575,1.57080,0.00000,-0.14512,-0.38003,0.04603,,,,,,,,,,,,,,,,,,,,,,,,,,0,0,0,0,0
1.1142,1783190283.2289,1,1,1.0000,0.0000,1.44682,0.23130,-2.77799,0.97585,1.57080,0.00000,-0.14512,-0.38003,0.04601,,,,,,,,,,,,,,,,,,,,,,,,,,0,0,0,0,0
1.1220,1783190283.2367,1,1,1.0000,0.0000,1.44682,0.23117,-2.77802,0.97602,1.57080,0.00000,-0.14512,-0.38003,0.04598,,,,,,,,,,,,,,,,,,,,,,,,,,0,0,0,0,0
1.1223,1783190283.2369,1,1,1.0000,0.0000,1.44682,0.23117,-2.77802,0.97602,1.57080,0.00000,-0.14512,-0.38003,0.04598,,,,,,,,,,,,,,,,,,,,,,,,,,0,0,0,0,0
1.1350,1783190283.2497,1,1,1.0000,0.0000,1.44682,0.23103,-2.77806,0.97619,1.57080,0.00000,-0.14512,-0.38003,0.04594,,,,,,,,,,,,,,,,,,,,,,,,,,0,0,0,0,0
1.1447,1783190283.2593,1,1,1.0000,0.0000,1.44682,0.23100,-2.77806,0.97623,1.57080,0.00000,-0.14512,-0.38003,0.04593,,,,,,,,,,,,,,,,,,,,,,,,,,0,0,0,0,0
1.1598,1783190283.2745,1,1,1.0000,0.0000,1.44682,0.23081,-2.77811,0.97648,1.57080,0.00000,-0.14512,-0.38003,0.04588,,,,,,,,,,,,,,,,,,,,,,,,,,0,0,0,0,0
1.1682,1783190283.2829,1,1,1.0000,0.0000,1.44682,0.23079,-2.77812,0.97649,1.57080,0.00000,-0.14512,-0.38003,0.04588,,,,,,,,,,,,,,,,,,,,,,,,,,0,0,0,0,0
1.1821,1783190283.2968,1,1,1.0000,0.0000,1.44682,0.23058,-2.77817,0.97676,1.57080,0.00000,-0.14512,-0.38003,0.04582,,,,,,,,,,,,,,,,,,,,,,,,,,0,0,0,0,0
1.1875,1783190283.3022,1,1,1.0000,0.0000,1.44682,0.23051,-2.77819,0.97685,1.57080,0.00000,-0.14512,-0.38003,0.04580,,,,,,,,,,,,,,,,,,,,,,,,,,0,0,0,0,0
1.2075,1783190283.3222,1,1,1.0000,0.0000,1.44682,0.23037,-2.77823,0.97702,1.57080,0.00000,-0.14512,-0.38003,0.04577,,,,,,,,,,,,,,,,,,,,,,,,,,0,0,0,0,0
1.2291,1783190283.3437,1,1,1.0000,0.0000,1.44682,0.23020,-2.77827,0.97724,1.57080,0.00000,-0.14512,-0.38003,0.04572,,,,,,,,,,,,,,,,,,,,,,,,,,0,0,0,0,0
1.2293,1783190283.3440,1,1,1.0000,0.0000,1.44682,0.23020,-2.77827,0.97724,1.57080,0.00000,-0.14512,-0.38003,0.04572,,,,,,,,,,,,,,,,,,,,,,,,,,0,0,0,0,0
1.2298,1783190283.3445,1,1,1.0000,0.0000,1.44682,0.23016,-2.77828,0.97728,1.57080,0.00000,-0.14512,-0.38003,0.04571,,,,,,,,,,,,,,,,,,,,,,,,,,0,0,0,0,0
1.2394,1783190283.3540,1,1,1.0000,0.0000,1.44682,0.23005,-2.77831,0.97742,1.57080,0.00000,-0.14512,-0.38003,0.04569,,,,,,,,,,,,,,,,,,,,,,,,,,0,0,0,0,0
1.2548,1783190283.3695,1,1,1.0000,0.0000,1.44682,0.22984,-2.77836,0.97769,1.57080,0.00000,-0.14512,-0.38003,0.04563,,,,,,,,,,,,,,,,,,,,,,,,,,0,0,0,0,0
1.2581,1783190283.3727,1,1,1.0000,0.0000,1.44682,0.22983,-2.77836,0.97770,1.57080,0.00000,-0.14512,-0.38003,0.04563,,,,,,,,,,,,,,,,,,,,,,,,,,0,0,0,0,0
1.2702,1783190283.3849,1,1,1.0000,0.0000,1.44682,0.22973,-2.77839,0.97783,1.57080,0.00000,-0.14512,-0.38003,0.04560,,,,,,,,,,,,,,,,,,,,,,,,,,0,0,0,0,0
1.2705,1783190283.3851,1,1,1.0000,0.0000,1.44682,0.22973,-2.77839,0.97783,1.57080,0.00000,-0.14512,-0.38003,0.04560,,,,,,,,,,,,,,,,,,,,,,,,,,0,0,0,0,0
1.2779,1783190283.3926,1,1,1.0000,0.0000,1.44682,0.22962,-2.77842,0.97797,1.57080,0.00000,-0.14512,-0.38003,0.04557,,,,,,,,,,,,,,,,,,,,,,,,,,0,0,0,0,0
1.2907,1783190283.4054,1,1,1.0000,0.0000,1.44682,0.22957,-2.77843,0.97803,1.57080,0.00000,-0.14512,-0.38003,0.04556,,,,,,,,,,,,,,,,,,,,,,,,,,0,0,0,0,0
1.3141,1783190283.4288,1,1,1.0000,0.0000,1.44682,0.22925,-2.77851,0.97843,1.57080,0.00000,-0.14512,-0.38003,0.04548,,,,,,,,,,,,,,,,,,,,,,,,,,0,0,0,0,0
1.3144,1783190283.4291,1,1,1.0000,0.0000,1.44682,0.22925,-2.77851,0.97843,1.57080,0.00000,-0.14512,-0.38003,0.04548,,,,,,,,,,,,,,,,,,,,,,,,,,0,0,0,0,0
1.3174,1783190283.4320,1,1,1.0000,0.0000,1.44682,0.22925,-2.77851,0.97843,1.57080,0.00000,-0.14512,-0.38003,0.04548,,,,,,,,,,,,,,,,,,,,,,,,,,0,0,0,0,0
1.3179,1783190283.4326,1,1,1.0000,0.0000,1.44682,0.22924,-2.77851,0.97845,1.57080,0.00000,-0.14512,-0.38003,0.04547,,,,,,,,,,,,,,,,,,,,,,,,,,0,0,0,0,0
1.3599,1783190283.4746,1,1,1.0000,0.0000,1.44682,0.22886,-2.77861,0.97892,1.57080,0.00000,-0.14512,-0.38003,0.04538,,,,,,,,,,,,,,,,,,,,,,,,,,0,0,0,0,0
1.3615,1783190283.4761,1,1,1.0000,0.0000,1.44682,0.22886,-2.77861,0.97892,1.57080,0.00000,-0.14512,-0.38003,0.04538,,,,,,,,,,,,,,,,,,,,,,,,,,0,0,0,0,0
1.3620,1783190283.4767,1,1,1.0000,0.0000,1.44682,0.22879,-2.77863,0.97901,1.57080,0.00000,-0.14512,-0.38003,0.04536,,,,,,,,,,,,,,,,,,,,,,,,,,0,0,0,0,0
1.3624,1783190283.4771,1,1,1.0000,0.0000,1.44682,0.22879,-2.77863,0.97901,1.57080,0.00000,-0.14512,-0.38003,0.04536,,,,,,,,,,,,,,,,,,,,,,,,,,0,0,0,0,0
1.3694,1783190283.4840,1,1,1.0000,0.0000,1.44682,0.22872,-2.77865,0.97910,1.57080,0.00000,-0.14512,-0.38003,0.04534,,,,,,,,,,,,,,,,,,,,,,,,,,0,0,0,0,0
1.3824,1783190283.4971,1,1,1.0000,0.0000,1.44682,0.22862,-2.77867,0.97922,1.57080,0.00000,-0.14512,-0.38003,0.04531,,,,,,,,,,,,,,,,,,,,,,,,,,0,0,0,0,0
1.3913,1783190283.5059,1,1,1.0000,0.0000,1.44682,0.22854,-2.77869,0.97933,1.57080,0.00000,-0.14512,-0.38003,0.04529,,,,,,,,,,,,,,,,,,,,,,,,,,0,0,0,0,0
1.4123,1783190283.5270,1,1,1.0000,0.0000,1.44682,0.22838,-2.77873,0.97953,1.57080,0.00000,-0.14512,-0.38003,0.04525,,,,,,,,,,,,,,,,,,,,,,,,,,0,0,0,0,0
1.4128,1783190283.5274,1,1,1.0000,0.0000,1.44682,0.22838,-2.77873,0.97953,1.57080,0.00000,-0.14512,-0.38003,0.04525,,,,,,,,,,,,,,,,,,,,,,,,,,0,0,0,0,0
1.4130,1783190283.5277,1,1,1.0000,0.0000,1.44682,0.22838,-2.77873,0.97953,1.57080,0.00000,-0.14512,-0.38003,0.04525,,,,,,,,,,,,,,,,,,,,,,,,,,0,0,0,0,0
1.4220,1783190283.5367,1,1,1.0000,0.0000,1.44682,0.22819,-2.77878,0.97976,1.57080,0.00000,-0.14512,-0.38003,0.04520,,,,,,,,,,,,,,,,,,,,,,,,,,0,0,0,0,0
1.4274,1783190283.5421,1,1,1.0000,0.0000,1.44682,0.22812,-2.77880,0.97985,1.57080,0.00000,-0.14512,-0.38003,0.04518,,,,,,,,,,,,,,,,,,,,,,,,,,0,0,0,0,0
1.4403,1783190283.5549,1,1,1.0000,0.0000,1.44682,0.22804,-2.77882,0.97995,1.57080,0.00000,-0.14512,-0.38003,0.04516,,,,,,,,,,,,,,,,,,,,,,,,,,0,0,0,0,0
1.4507,1783190283.5653,1,1,1.0000,0.0000,1.44682,0.22790,-2.77886,0.98012,1.57080,0.00000,-0.14512,-0.38003,0.04513,,,,,,,,,,,,,,,,,,,,,,,,,,0,0,0,0,0
1.4594,1783190283.5741,1,1,1.0000,0.0000,1.44682,0.22776,-2.77889,0.98030,1.57080,0.00000,-0.14512,-0.38003,0.04509,,,,,,,,,,,,,,,,,,,,,,,,,,0,0,0,0,0
1.4597,1783190283.5743,1,1,1.0000,0.0000,1.44682,0.22776,-2.77889,0.98030,1.57080,0.00000,-0.14512,-0.38003,0.04509,,,,,,,,,,,,,,,,,,,,,,,,,,0,0,0,0,0
1.4740,1783190283.5887,1,1,1.0000,0.0000,1.44682,0.22767,-2.77891,0.98041,1.57080,0.00000,-0.14512,-0.38003,0.04507,,,,,,,,,,,,,,,,,,,,,,,,,,0,0,0,0,0
1.4773,1783190283.5920,1,1,1.0000,0.0000,1.44682,0.22767,-2.77891,0.98041,1.57080,0.00000,-0.14512,-0.38003,0.04507,,,,,,,,,,,,,,,,,,,,,,,,,,0,0,0,0,0
1.4779,1783190283.5926,1,1,1.0000,0.0000,1.44682,0.22761,-2.77893,0.98049,1.57080,0.00000,-0.14512,-0.38003,0.04505,,,,,,,,,,,,,,,,,,,,,,,,,,0,0,0,0,0
1.4900,1783190283.6046,1,1,1.0000,0.0000,1.44682,0.22740,-2.77898,0.98075,1.57080,0.00000,-0.14512,-0.38003,0.04500,,,,,,,,,,,,,,,,,,,,,,,,,,0,0,0,0,0
1.4903,1783190283.6050,1,1,1.0000,0.0000,1.44682,0.22740,-2.77898,0.98075,1.57080,0.00000,-0.14512,-0.38003,0.04500,,,,,,,,,,,,,,,,,,,,,,,,,,0,0,0,0,0
1.4981,1783190283.6127,1,1,1.0000,0.0000,1.44682,0.22739,-2.77899,0.98076,1.57080,0.00000,-0.14512,-0.38003,0.04499,,,,,,,,,,,,,,,,,,,,,,,,,,0,0,0,0,0
1.4983,1783190283.6130,1,1,1.0000,0.0000,1.44682,0.22739,-2.77899,0.98076,1.57080,0.00000,-0.14512,-0.38003,0.04499,,,,,,,,,,,,,,,,,,,,,,,,,,0,0,0,0,0
1.5195,1783190283.6342,1,1,1.0000,0.0000,1.44682,0.22711,-2.77906,0.98111,1.57080,0.00001,-0.14512,-0.38003,0.04492,,,,,,,,,,,,,,,,,,,,,,,,,,0,0,0,0,0
1.5308,1783190283.6454,1,1,1.0000,0.0000,1.44682,0.22707,-2.77907,0.98117,1.57080,0.00001,-0.14512,-0.38003,0.04491,,,,,,,,,,,,,,,,,,,,,,,,,,0,0,0,0,0
1.5312,1783190283.6458,1,1,1.0000,0.0000,1.44682,0.22707,-2.77907,0.98117,1.57080,0.00001,-0.14512,-0.38003,0.04491,,,,,,,,,,,,,,,,,,,,,,,,,,0,0,0,0,0
1.5315,1783190283.6462,1,1,1.0000,0.0000,1.44682,0.22707,-2.77907,0.98117,1.57080,0.00001,-0.14512,-0.38003,0.04491,,,,,,,,,,,,,,,,,,,,,,,,,,0,0,0,0,0
1.5420,1783190283.6566,1,1,1.0000,0.0000,1.44682,0.22689,-2.77911,0.98139,1.57080,0.00001,-0.14512,-0.38003,0.04486,,,,,,,,,,,,,,,,,,,,,,,,,,0,0,0,0,0
1.5503,1783190283.6650,1,1,1.0000,0.0000,1.44682,0.22675,-2.77915,0.98156,1.57080,0.00001,-0.14512,-0.38003,0.04483,,,,,,,,,,,,,,,,,,,,,,,,,,0,0,0,0,0
1.5680,1783190283.6827,1,1,1.0000,0.0000,1.44682,0.22666,-2.77917,0.98168,1.57080,0.00001,-0.14512,-0.38003,0.04480,,,,,,,,,,,,,,,,,,,,,,,,,,0,0,0,0,0
1.5699,1783190283.6845,1,1,1.0000,0.0000,1.44682,0.22660,-2.77919,0.98176,1.57080,0.00001,-0.14512,-0.38003,0.04479,,,,,,,,,,,,,,,,,,,,,,,,,,0,0,0,0,0
1.5775,1783190283.6922,1,1,1.0000,0.0000,1.44682,0.22653,-2.77920,0.98184,1.57080,0.00001,-0.14512,-0.38003,0.04477,,,,,,,,,,,,,,,,,,,,,,,,,,0,0,0,0,0
1.5880,1783190283.7027,1,1,1.0000,0.0000,1.44682,0.22645,-2.77923,0.98195,1.57080,0.00001,-0.14512,-0.38003,0.04475,,,,,,,,,,,,,,,,,,,,,,,,,,0,0,0,0,0
1.6062,1783190283.7209,1,1,1.0000,0.0000,1.44682,0.22617,-2.77930,0.98230,1.57080,0.00001,-0.14512,-0.38003,0.04468,,,,,,,,,,,,,,,,,,,,,,,,,,0,0,0,0,0
1.6065,1783190283.7212,1,1,1.0000,0.0000,1.44682,0.22617,-2.77930,0.98230,1.57080,0.00001,-0.14512,-0.38003,0.04468,,,,,,,,,,,,,,,,,,,,,,,,,,0,0,0,0,0
1.6150,1783190283.7297,1,1,1.0000,0.0000,1.44682,0.22610,-2.77931,0.98238,1.57080,0.00001,-0.14512,-0.38003,0.04466,,,,,,,,,,,,,,,,,,,,,,,,,,0,0,0,0,0
1.6219,1783190283.7366,1,1,1.0000,0.0000,1.44682,0.22609,-2.77932,0.98240,1.57080,0.00001,-0.14512,-0.38003,0.04466,,,,,,,,,,,,,,,,,,,,,,,,,,0,0,0,0,0
1.6275,1783190283.7422,1,1,1.0000,0.0000,1.44682,0.22601,-2.77934,0.98250,1.57080,0.00001,-0.14512,-0.38003,0.04463,,,,,,,,,,,,,,,,,,,,,,,,,,0,0,0,0,0
1.6375,1783190283.7521,1,1,1.0000,0.0000,1.44682,0.22588,-2.77937,0.98266,1.57080,0.00001,-0.14512,-0.38003,0.04460,,,,,,,,,,,,,,,,,,,,,,,,,,0,0,0,0,0
1.6383,1783190283.7529,1,1,1.0000,0.0000,1.44682,0.22581,-2.77939,0.98275,1.57080,0.00001,-0.14512,-0.38003,0.04458,,,,,,,,,,,,,,,,,,,,,,,,,,0,0,0,0,0
1.6526,1783190283.7673,1,1,1.0000,0.0000,1.44682,0.22573,-2.77941,0.98285,1.57080,0.00001,-0.14512,-0.38003,0.04456,,,,,,,,,,,,,,,,,,,,,,,,,,0,0,0,0,0
1.6707,1783190283.7854,1,1,1.0000,0.0000,1.44682,0.22551,-2.77946,0.98312,1.57080,0.00001,-0.14512,-0.38003,0.04451,,,,,,,,,,,,,,,,,,,,,,,,,,0,0,0,0,0
1.6788,1783190283.7935,1,1,1.0000,0.0000,1.44682,0.22550,-2.77947,0.98314,1.57080,0.00001,-0.14512,-0.38003,0.04450,,,,,,,,,,,,,,,,,,,,,,,,,,0,0,0,0,0
1.6791,1783190283.7938,1,1,1.0000,0.0000,1.44682,0.22550,-2.77947,0.98314,1.57080,0.00001,-0.14512,-0.38003,0.04450,,,,,,,,,,,,,,,,,,,,,,,,,,0,0,0,0,0
1.6796,1783190283.7942,1,1,1.0000,0.0000,1.44682,0.22550,-2.77947,0.98314,1.57080,0.00001,-0.14512,-0.38003,0.04450,,,,,,,,,,,,,,,,,,,,,,,,,,0,0,0,0,0
1.6902,1783190283.8049,1,1,1.0000,0.0000,1.44682,0.22535,-2.77950,0.98332,1.57080,0.00001,-0.14512,-0.38002,0.04446,,,,,,,,,,,,,,,,,,,,,,,,,,0,0,0,0,0
1.7038,1783190283.8185,1,1,1.0000,0.0000,1.44682,0.22514,-2.77956,0.98359,1.57080,0.00001,-0.14512,-0.38002,0.04441,,,,,,,,,,,,,,,,,,,,,,,,,,0,0,0,0,0
1.7092,1783190283.8238,1,1,1.0000,0.0000,1.44682,0.22514,-2.77956,0.98359,1.57080,0.00001,-0.14512,-0.38002,0.04441,,,,,,,,,,,,,,,,,,,,,,,,,,0,0,0,0,0
1.7230,1783190283.8376,1,1,1.0000,0.0000,1.44682,0.22502,-2.77959,0.98373,1.57080,0.00001,-0.14512,-0.38002,0.04438,,,,,,,,,,,,,,,,,,,,,,,,,,0,0,0,0,0
1.7232,1783190283.8379,1,1,1.0000,0.0000,1.44682,0.22502,-2.77959,0.98373,1.57080,0.00001,-0.14512,-0.38002,0.04438,,,,,,,,,,,,,,,,,,,,,,,,,,0,0,0,0,0
1.7320,1783190283.8467,1,1,1.0000,0.0000,1.44682,0.22491,-2.77961,0.98387,1.57080,0.00001,-0.14512,-0.38002,0.04435,,,,,,,,,,,,,,,,,,,,,,,,,,0,0,0,0,0
1.7382,1783190283.8529,1,1,1.0000,0.0000,1.44682,0.22490,-2.77962,0.98389,1.57080,0.00001,-0.14512,-0.38002,0.04435,,,,,,,,,,,,,,,,,,,,,,,,,,0,0,0,0,0
1.7487,1783190283.8634,1,1,1.0000,0.0000,1.44682,0.22481,-2.77964,0.98400,1.57080,0.00001,-0.14512,-0.38002,0.04433,,,,,,,,,,,,,,,,,,,,,,,,,,0,0,0,0,0
1.7700,1783190283.8847,1,1,1.0000,0.0000,1.44682,0.22453,-2.77971,0.98435,1.57080,0.00001,-0.14512,-0.38002,0.04425,,,,,,,,,,,,,,,,,,,,,,,,,,0,0,0,0,0
1.7707,1783190283.8853,1,1,1.0000,0.0000,1.44682,0.22453,-2.77971,0.98435,1.57080,0.00001,-0.14512,-0.38002,0.04425,,,,,,,,,,,,,,,,,,,,,,,,,,0,0,0,0,0
1.7709,1783190283.8856,1,1,1.0000,0.0000,1.44682,0.22453,-2.77971,0.98435,1.57080,0.00001,-0.14512,-0.38002,0.04425,,,,,,,,,,,,,,,,,,,,,,,,,,0,0,0,0,0
1.7810,1783190283.8957,1,1,1.0000,0.0000,1.44682,0.22447,-2.77973,0.98442,1.57080,0.00001,-0.14512,-0.38002,0.04424,,,,,,,,,,,,,,,,,,,,,,,,,,0,0,0,0,0
1.7812,1783190283.8959,1,1,1.0000,0.0000,1.44682,0.22447,-2.77973,0.98442,1.57080,0.00001,-0.14512,-0.38002,0.04424,,,,,,,,,,,,,,,,,,,,,,,,,,0,0,0,0,0
1.7893,1783190283.9039,1,1,1.0000,0.0000,1.44682,0.22437,-2.77975,0.98455,1.57080,0.00001,-0.14512,-0.38002,0.04421,,,,,,,,,,,,,,,,,,,,,,,,,,0,0,0,0,0
1.7896,1783190283.9042,1,1,1.0000,0.0000,1.44682,0.22437,-2.77975,0.98455,1.57080,0.00001,-0.14512,-0.38002,0.04421,,,,,,,,,,,,,,,,,,,,,,,,,,0,0,0,0,0
1.7973,1783190283.9120,1,1,1.0000,0.0000,1.44682,0.22431,-2.77977,0.98463,1.57080,0.00001,-0.14512,-0.38002,0.04420,,,,,,,,,,,,,,,,,,,,,,,,,,0,0,0,0,0
1.7980,1783190283.9126,1,1,1.0000,0.0000,1.44682,0.22430,-2.77977,0.98464,1.57080,0.00001,-0.14512,-0.38002,0.04419,,,,,,,,,,,,,,,,,,,,,,,,,,0,0,0,0,0
1.8079,1783190283.9225,1,1,1.0000,0.0000,1.44682,0.22421,-2.77979,0.98475,1.57080,0.00001,-0.14512,-0.38002,0.04417,,,,,,,,,,,,,,,,,,,,,,,,,,0,0,0,0,0
1.8240,1783190283.9387,1,1,1.0000,0.0000,1.44682,0.22394,-2.77986,0.98509,1.57080,0.00001,-0.14512,-0.38002,0.04410,,,,,,,,,,,,,,,,,,,,,,,,,,0,0,0,0,0
1.8323,1783190283.9470,1,1,1.0000,0.0000,1.44682,0.22393,-2.77986,0.98510,1.57080,0.00001,-0.14512,-0.38002,0.04410,,,,,,,,,,,,,,,,,,,,,,,,,,0,0,0,0,0
1.8374,1783190283.9521,1,1,1.0000,0.0000,1.44682,0.22390,-2.77987,0.98513,1.57080,0.00001,-0.14512,-0.38002,0.04409,,,,,,,,,,,,,,,,,,,,,,,,,,0,0,0,0,0
1.8504,1783190283.9651,1,1,1.0000,0.0000,1.44682,0.22371,-2.77992,0.98538,1.57080,0.00001,-0.14512,-0.38002,0.04404,,,,,,,,,,,,,,,,,,,,,,,,,,0,0,0,0,0
1.8581,1783190283.9728,1,1,1.0000,0.0000,1.44682,0.22365,-2.77993,0.98545,1.57080,0.00001,-0.14512,-0.38002,0.04402,,,,,,,,,,,,,,,,,,,,,,,,,,0,0,0,0,0
1.8704,1783190283.9851,1,1,1.0000,0.0000,1.44682,0.22357,-2.77995,0.98555,1.57080,0.00001,-0.14512,-0.38002,0.04400,,,,,,,,,,,,,,,,,,,,,,,,,,0,0,0,0,0
1.8707,1783190283.9854,1,1,1.0000,0.0000,1.44682,0.22357,-2.77995,0.98555,1.57080,0.00001,-0.14512,-0.38002,0.04400,,,,,,,,,,,,,,,,,,,,,,,,,,0,0,0,0,0
1.8782,1783190283.9928,1,1,1.0000,0.0000,1.44682,0.22346,-2.77998,0.98569,1.57080,0.00001,-0.14512,-0.38002,0.04398,,,,,,,,,,,,,,,,,,,,,,,,,,0,0,0,0,0
1.8784,1783190283.9931,1,1,1.0000,0.0000,1.44682,0.22346,-2.77998,0.98569,1.57080,0.00001,-0.14512,-0.38002,0.04398,,,,,,,,,,,,,,,,,,,,,,,,,,0,0,0,0,0
1.8902,1783190284.0049,1,1,1.0000,0.0000,1.44682,0.22339,-2.78000,0.98578,1.57080,0.00001,-0.14512,-0.38002,0.04396,,,,,,,,,,,,,,,,,,,,,,,,,,0,0,0,0,0
1.8986,1783190284.0133,1,1,1.0000,0.0000,1.44682,0.22330,-2.78002,0.98588,1.57080,0.00001,-0.14512,-0.38002,0.04394,,,,,,,,,,,,,,,,,,,,,,,,,,0,0,0,0,0
1.9089,1783190284.0235,1,1,1.0000,0.0000,1.44682,0.22317,-2.78005,0.98605,1.57080,0.00001,-0.14512,-0.38002,0.04390,,,,,,,,,,,,,,,,,,,,,,,,,,0,0,0,0,0
1.9241,1783190284.0388,1,1,1.0000,0.0000,1.44682,0.22302,-2.78009,0.98624,1.57080,0.00001,-0.14512,-0.38002,0.04386,,,,,,,,,,,,,,,,,,,,,,,,,,0,0,0,0,0
1.9294,1783190284.0440,1,1,1.0000,0.0000,1.44682,0.22300,-2.78009,0.98627,1.57080,0.00001,-0.14512,-0.38002,0.04386,,,,,,,,,,,,,,,,,,,,,,,,,,0,0,0,0,0
1.9421,1783190284.0568,1,1,1.0000,0.0000,1.44682,0.22280,-2.78014,0.98651,1.57080,0.00001,-0.14512,-0.38002,0.04381,,,,,,,,,,,,,,,,,,,,,,,,,,0,0,0,0,0
1.9528,1783190284.0675,1,1,1.0000,0.0000,1.44682,0.22279,-2.78015,0.98653,1.57080,0.00001,-0.14512,-0.38002,0.04380,,,,,,,,,,,,,,,,,,,,,,,,,,0,0,0,0,0
1.9577,1783190284.0723,1,1,1.0000,0.0000,1.44682,0.22275,-2.78016,0.98657,1.57080,0.00001,-0.14512,-0.38002,0.04379,,,,,,,,,,,,,,,,,,,,,,,,,,0,0,0,0,0
1.9583,1783190284.0730,1,1,1.0000,0.0000,1.44681,0.22270,-2.78017,0.98663,1.57080,0.00001,-0.14512,-0.38002,0.04378,,,,,,,,,,,,,,,,,,,,,,,,,,0,0,0,0,0
1.9728,1783190284.0875,1,1,1.0000,0.0000,1.44681,0.22250,-2.78022,0.98689,1.57080,0.00001,-0.14512,-0.38002,0.04373,,,,,,,,,,,,,,,,,,,,,,,,,,0,0,0,0,0
1.9861,1783190284.1008,1,1,1.0000,0.0000,1.44681,0.22239,-2.78025,0.98702,1.57080,0.00001,-0.14512,-0.38002,0.04370,,,,,,,,,,,,,,,,,,,,,,,,,,0,0,0,0,0
1.9882,1783190284.1029,1,1,1.0000,0.0000,1.44681,0.22239,-2.78025,0.98702,1.57080,0.00001,-0.14512,-0.38002,0.04370,,,,,,,,,,,,,,,,,,,,,,,,,,0,0,0,0,0
1.9973,1783190284.1120,1,1,1.0000,0.0000,1.44681,0.22231,-2.78027,0.98712,1.57080,0.00001,-0.14512,-0.38002,0.04368,,,,,,,,,,,,,,,,,,,,,,,,,,0,0,0,0,0
1.9984,1783190284.1131,1,1,1.0000,0.0000,1.44681,0.22226,-2.78028,0.98719,1.57080,0.00001,-0.14512,-0.38002,0.04367,,,,,,,,,,,,,,,,,,,,,,,,,,0,0,0,0,0
2.0078,1783190284.1224,1,1,1.0000,0.0000,1.44681,0.22220,-2.78030,0.98726,1.57080,0.00001,-0.14512,-0.38002,0.04365,,,,,,,,,,,,,,,,,,,,,,,,,,0,0,0,0,0
2.0288,1783190284.1435,1,1,1.0000,0.0000,1.44681,0.22197,-2.78035,0.98755,1.57080,0.00001,-0.14512,-0.38002,0.04359,,,,,,,,,,,,,,,,,,,,,,,,,,0,0,0,0,0
2.0293,1783190284.1440,1,1,1.0000,0.0000,1.44681,0.22197,-2.78035,0.98755,1.57080,0.00001,-0.14512,-0.38002,0.04359,,,,,,,,,,,,,,,,,,,,,,,,,,0,0,0,0,0
2.0393,1783190284.1540,1,1,1.0000,0.0000,1.44681,0.22183,-2.78039,0.98773,1.57080,0.00001,-0.14512,-0.38002,0.04355,,,,,,,,,,,,,,,,,,,,,,,,,,0,0,0,0,0
2.0499,1783190284.1646,1,1,1.0000,0.0000,1.44681,0.22179,-2.78040,0.98777,1.57080,0.00001,-0.14512,-0.38002,0.04355,,,,,,,,,,,,,,,,,,,,,,,,,,0,0,0,0,0
2.0510,1783190284.1657,1,1,1.0000,0.0000,1.44681,0.22176,-2.78041,0.98782,1.57080,0.00001,-0.14512,-0.38002,0.04354,,,,,,,,,,,,,,,,,,,,,,,,,,0,0,0,0,0
2.0614,1783190284.1760,1,1,1.0000,0.0000,1.44681,0.22165,-2.78043,0.98794,1.57080,0.00001,-0.14512,-0.38002,0.04351,,,,,,,,,,,,,,,,,,,,,,,,,,0,0,0,0,0
2.0757,1783190284.1904,1,1,1.0000,0.0000,1.44681,0.22155,-2.78046,0.98808,1.57080,0.00001,-0.14512,-0.38002,0.04348,,,,,,,,,,,,,,,,,,,,,,,,,,0,0,0,0,0
2.0785,1783190284.1932,1,1,1.0000,0.0000,1.44681,0.22150,-2.78047,0.98814,1.57080,0.00001,-0.14512,-0.38002,0.04347,,,,,,,,,,,,,,,,,,,,,,,,,,0,0,0,0,0
2.0788,1783190284.1935,1,1,1.0000,0.0000,1.44681,0.22150,-2.78047,0.98814,1.57080,0.00001,-0.14512,-0.38002,0.04347,,,,,,,,,,,,,,,,,,,,,,,,,,0,0,0,0,0
2.0903,1783190284.2050,1,1,1.0000,0.0000,1.44681,0.22129,-2.78052,0.98840,1.57080,0.00001,-0.14512,-0.38002,0.04342,,,,,,,,,,,,,,,,,,,,,,,,,,0,0,0,0,0
2.0906,1783190284.2052,1,1,1.0000,0.0000,1.44681,0.22129,-2.78052,0.98840,1.57080,0.00001,-0.14512,-0.38002,0.04342,,,,,,,,,,,,,,,,,,,,,,,,,,0,0,0,0,0
2.1050,1783190284.2196,1,1,1.0000,0.0000,1.44681,0.22121,-2.78054,0.98849,1.57080,0.00001,-0.14512,-0.38002,0.04340,,,,,,,,,,,,,,,,,,,,,,,,,,0,0,0,0,0
2.1135,1783190284.2281,1,1,1.0000,0.0000,1.44681,0.22115,-2.78056,0.98857,1.57080,0.00001,-0.14512,-0.38002,0.04338,,,,,,,,,,,,,,,,,,,,,,,,,,0,0,0,0,0
2.1173,1783190284.2320,1,1,1.0000,0.0000,1.44681,0.22111,-2.78057,0.98863,1.57080,0.00001,-0.14512,-0.38002,0.04337,,,,,,,,,,,,,,,,,,,,,,,,,,0,0,0,0,0
2.1176,1783190284.2323,1,1,1.0000,0.0000,1.44681,0.22111,-2.78057,0.98863,1.57080,0.00001,-0.14512,-0.38002,0.04337,,,,,,,,,,,,,,,,,,,,,,,,,,0,0,0,0,0
2.1309,1783190284.2456,1,1,1.0000,0.0000,1.44681,0.22098,-2.78060,0.98879,1.57080,0.00001,-0.14512,-0.38002,0.04334,,,,,,,,,,,,,,,,,,,,,,,,,,0,0,0,0,0
2.1381,1783190284.2528,1,1,1.0000,0.0000,1.44681,0.22089,-2.78062,0.98889,1.57080,0.00001,-0.14512,-0.38002,0.04332,,,,,,,,,,,,,,,,,,,,,,,,,,0,0,0,0,0
2.1474,1783190284.2621,1,1,1.0000,0.0000,1.44681,0.22076,-2.78065,0.98906,1.57080,0.00001,-0.14512,-0.38002,0.04328,,,,,,,,,,,,,,,,,,,,,,,,,,0,0,0,0,0
2.1592,1783190284.2739,1,1,1.0000,0.0000,1.44681,0.22062,-2.78069,0.98924,1.57080,0.00001,-0.14512,-0.38002,0.04324,,,,,,,,,,,,,,,,,,,,,,,,,,0,0,0,0,0
2.1679,1783190284.2825,1,1,1.0000,0.0000,1.44681,0.22059,-2.78070,0.98928,1.57080,0.00001,-0.14512,-0.38002,0.04324,,,,,,,,,,,,,,,,,,,,,,,,,,0,0,0,0,0
2.1804,1783190284.2950,1,1,1.0000,0.0000,1.44681,0.22045,-2.78073,0.98945,1.57080,0.00001,-0.14512,-0.38002,0.04320,,,,,,,,,,,,,,,,,,,,,,,,,,0,0,0,0,0
2.1925,1783190284.3071,1,1,1.0000,0.0000,1.44681,0.22038,-2.78075,0.98954,1.57080,0.00001,-0.14512,-0.38002,0.04318,,,,,,,,,,,,,,,,,,,,,,,,,,0,0,0,0,0
2.2054,1783190284.3201,1,1,1.0000,0.0000,1.44681,0.22023,-2.78079,0.98973,1.57080,0.00001,-0.14512,-0.38002,0.04314,,,,,,,,,,,,,,,,,,,,,,,,,,0,0,0,0,0
2.2149,1783190284.3295,1,1,1.0000,0.0000,1.44681,0.22002,-2.78084,0.98999,1.57080,0.00001,-0.14512,-0.38002,0.04309,,,,,,,,,,,,,,,,,,,,,,,,,,0,0,0,0,0
2.2217,1783190284.3364,1,1,1.0000,0.0000,1.44681,0.22002,-2.78084,0.98999,1.57080,0.00001,-0.14512,-0.38002,0.04309,,,,,,,,,,,,,,,,,,,,,,,,,,0,0,0,0,0
2.2223,1783190284.3370,1,1,1.0000,0.0000,1.44681,0.22000,-2.78084,0.99001,1.57080,0.00001,-0.14512,-0.38002,0.04309,,,,,,,,,,,,,,,,,,,,,,,,,,0,0,0,0,0
2.2327,1783190284.3474,1,1,1.0000,0.0000,1.44681,0.21992,-2.78086,0.99011,1.57080,0.00001,-0.14512,-0.38002,0.04307,,,,,,,,,,,,,,,,,,,,,,,,,,0,0,0,0,0
2.2422,1783190284.3569,1,1,1.0000,0.0000,1.44681,0.21972,-2.78091,0.99036,1.57080,0.00001,-0.14512,-0.38002,0.04301,,,,,,,,,,,,,,,,,,,,,,,,,,0,0,0,0,0
2.2518,1783190284.3664,1,1,1.0000,0.0000,1.44681,0.21971,-2.78092,0.99038,1.57080,0.00001,-0.14512,-0.38002,0.04301,,,,,,,,,,,,,,,,,,,,,,,,,,0,0,0,0,0
2.2521,1783190284.3667,1,1,1.0000,0.0000,1.44681,0.21971,-2.78092,0.99038,1.57080,0.00001,-0.14512,-0.38002,0.04301,,,,,,,,,,,,,,,,,,,,,,,,,,0,0,0,0,0
2.2615,1783190284.3762,1,1,1.0000,0.0000,1.44681,0.21963,-2.78094,0.99048,1.57080,0.00001,-0.14512,-0.38002,0.04299,,,,,,,,,,,,,,,,,,,,,,,,,,0,0,0,0,0
2.2619,1783190284.3766,1,1,1.0000,0.0000,1.44681,0.21963,-2.78094,0.99048,1.57080,0.00001,-0.14512,-0.38002,0.04299,,,,,,,,,,,,,,,,,,,,,,,,,,0,0,0,0,0
2.2905,1783190284.4051,1,1,1.0000,0.0000,1.44681,0.21926,-2.78103,0.99093,1.57080,0.00001,-0.14512,-0.38002,0.04290,,,,,,,,,,,,,,,,,,,,,,,,,,0,0,0,0,0
2.2927,1783190284.4074,1,1,1.0000,0.0000,1.44681,0.21926,-2.78103,0.99093,1.57080,0.00001,-0.14512,-0.38002,0.04290,,,,,,,,,,,,,,,,,,,,,,,,,,0,0,0,0,0
2.2931,1783190284.4078,1,1,1.0000,0.0000,1.44681,0.21926,-2.78103,0.99093,1.57080,0.00001,-0.14512,-0.38002,0.04290,,,,,,,,,,,,,,,,,,,,,,,,,,0,0,0,0,0
2.3052,1783190284.4199,1,1,1.0000,0.0000,1.44681,0.21906,-2.78108,0.99118,1.57080,0.00001,-0.14512,-0.38002,0.04284,,,,,,,,,,,,,,,,,,,,,,,,,,0,0,0,0,0
2.3117,1783190284.4264,1,1,1.0000,0.0000,1.44681,0.21905,-2.78108,0.99120,1.57080,0.00001,-0.14512,-0.38002,0.04284,,,,,,,,,,,,,,,,,,,,,,,,,,0,0,0,0,0
2.3120,1783190284.4266,1,1,1.0000,0.0000,1.44681,0.21905,-2.78108,0.99120,1.57080,0.00001,-0.14512,-0.38002,0.04284,,,,,,,,,,,,,,,,,,,,,,,,,,0,0,0,0,0
2.3227,1783190284.4373,1,1,1.0000,0.0000,1.44681,0.21890,-2.78111,0.99138,1.57080,0.00001,-0.14512,-0.38002,0.04281,,,,,,,,,,,,,,,,,,,,,,,,,,0,0,0,0,0
2.3231,1783190284.4377,1,1,1.0000,0.0000,1.44681,0.21890,-2.78111,0.99138,1.57080,0.00001,-0.14512,-0.38002,0.04281,,,,,,,,,,,,,,,,,,,,,,,,,,0,0,0,0,0
2.3384,1783190284.4531,1,1,1.0000,0.0000,1.44681,0.21870,-2.78117,0.99164,1.57080,0.00001,-0.14512,-0.38002,0.04275,,,,,,,,,,,,,,,,,,,,,,,,,,0,0,0,0,0
2.3388,1783190284.4535,1,1,1.0000,0.0000,1.44681,0.21870,-2.78117,0.99164,1.57080,0.00001,-0.14512,-0.38002,0.04275,,,,,,,,,,,,,,,,,,,,,,,,,,0,0,0,0,0
2.3479,1783190284.4625,1,1,1.0000,0.0000,1.44681,0.21865,-2.78118,0.99169,1.57080,0.00001,-0.14512,-0.38002,0.04274,,,,,,,,,,,,,,,,,,,,,,,,,,0,0,0,0,0
2.3530,1783190284.4676,1,1,1.0000,0.0000,1.44681,0.21860,-2.78119,0.99175,1.57080,0.00001,-0.14512,-0.38002,0.04273,,,,,,,,,,,,,,,,,,,,,,,,,,0,0,0,0,0
2.3670,1783190284.4817,1,1,1.0000,0.0000,1.44681,0.21840,-2.78124,0.99201,1.57080,0.00001,-0.14512,-0.38002,0.04268,,,,,,,,,,,,,,,,,,,,,,,,,,0,0,0,0,0
2.3848,1783190284.4994,1,1,1.0000,0.0000,1.44681,0.21824,-2.78128,0.99220,1.57080,0.00001,-0.14512,-0.38002,0.04264,,,,,,,,,,,,,,,,,,,,,,,,,,0,0,0,0,0
2.3851,1783190284.4997,1,1,1.0000,0.0000,1.44681,0.21824,-2.78128,0.99220,1.57080,0.00001,-0.14512,-0.38002,0.04264,,,,,,,,,,,,,,,,,,,,,,,,,,0,0,0,0,0
2.3857,1783190284.5004,1,1,1.0000,0.0000,1.44681,0.21824,-2.78128,0.99220,1.57080,0.00001,-0.14512,-0.38002,0.04264,,,,,,,,,,,,,,,,,,,,,,,,,,0,0,0,0,0
2.3863,1783190284.5010,1,1,1.0000,0.0000,1.44681,0.21818,-2.78129,0.99229,1.57080,0.00001,-0.14512,-0.38002,0.04262,,,,,,,,,,,,,,,,,,,,,,,,,,0,0,0,0,0
2.3952,1783190284.5098,1,1,1.0000,0.0000,1.44681,0.21804,-2.78133,0.99246,1.57080,0.00001,-0.14512,-0.38002,0.04258,,,,,,,,,,,,,,,,,,,,,,,,,,0,0,0,0,0
2.3956,1783190284.5102,1,1,1.0000,0.0000,1.44681,0.21804,-2.78133,0.99246,1.57080,0.00001,-0.14512,-0.38002,0.04258,,,,,,,,,,,,,,,,,,,,,,,,,,0,0,0,0,0
2.4034,1783190284.5181,1,1,1.0000,0.0000,1.44681,0.21802,-2.78133,0.99247,1.57080,0.00001,-0.14512,-0.38002,0.04258,,,,,,,,,,,,,,,,,,,,,,,,,,0,0,0,0,0
2.4152,1783190284.5298,1,1,1.0000,0.0000,1.44681,0.21788,-2.78137,0.99266,1.57080,0.00001,-0.14512,-0.38002,0.04254,,,,,,,,,,,,,,,,,,,,,,,,,,0,0,0,0,0
2.4223,1783190284.5369,1,1,1.0000,0.0000,1.44681,0.21774,-2.78140,0.99283,1.57080,0.00001,-0.14512,-0.38002,0.04251,,,,,,,,,,,,,,,,,,,,,,,,,,0,0,0,0,0
2.4381,1783190284.5528,1,1,1.0000,0.0000,1.44681,0.21765,-2.78143,0.99295,1.57080,0.00001,-0.14512,-0.38002,0.04248,,,,,,,,,,,,,,,,,,,,,,,,,,0,0,0,0,0
2.4423,1783190284.5569,1,1,1.0000,0.0000,1.44681,0.21758,-2.78144,0.99302,1.57080,0.00001,-0.14512,-0.38002,0.04247,,,,,,,,,,,,,,,,,,,,,,,,,,0,0,0,0,0
2.4519,1783190284.5665,1,1,1.0000,0.0000,1.44681,0.21744,-2.78148,0.99320,1.57080,0.00001,-0.14512,-0.38002,0.04243,,,,,,,,,,,,,,,,,,,,,,,,,,0,0,0,0,0
2.4655,1783190284.5802,1,1,1.0000,0.0000,1.44681,0.21736,-2.78150,0.99330,1.57080,0.00001,-0.14512,-0.38002,0.04241,,,,,,,,,,,,,,,,,,,,,,,,,,0,0,0,0,0
2.4663,1783190284.5809,1,1,1.0000,0.0000,1.44681,0.21733,-2.78150,0.99334,1.57080,0.00001,-0.14512,-0.38002,0.04240,,,,,,,,,,,,,,,,,,,,,,,,,,0,0,0,0,0
2.4718,1783190284.5865,1,1,1.0000,0.0000,1.44681,0.21728,-2.78152,0.99340,1.57080,0.00001,-0.14512,-0.38002,0.04239,,,,,,,,,,,,,,,,,,,,,,,,,,0,0,0,0,0
2.4851,1783190284.5998,1,1,1.0000,0.0000,1.44681,0.21708,-2.78157,0.99365,1.57080,0.00001,-0.14512,-0.38002,0.04234,,,,,,,,,,,,,,,,,,,,,,,,,,0,0,0,0,0
2.4959,1783190284.6106,1,1,1.0000,0.0000,1.44681,0.21703,-2.78158,0.99371,1.57080,0.00001,-0.14512,-0.38002,0.04233,,,,,,,,,,,,,,,,,,,,,,,,,,0,0,0,0,0
2.5028,1783190284.6175,1,1,1.0000,0.0000,1.44681,0.21692,-2.78160,0.99385,1.57080,0.00001,-0.14512,-0.38002,0.04230,,,,,,,,,,,,,,,,,,,,,,,,,,0,0,0,0,0
2.5166,1783190284.6313,1,1,1.0000,0.0000,1.44681,0.21671,-2.78166,0.99411,1.57080,0.00001,-0.14512,-0.38002,0.04224,,,,,,,,,,,,,,,,,,,,,,,,,,0,0,0,0,0
2.5230,1783190284.6377,1,1,1.0000,0.0000,1.44681,0.21670,-2.78166,0.99412,1.57080,0.00001,-0.14512,-0.38002,0.04224,,,,,,,,,,,,,,,,,,,,,,,,,,0,0,0,0,0
2.5388,1783190284.6535,1,1,1.0000,0.0000,1.44681,0.21649,-2.78171,0.99439,1.57080,0.00001,-0.14512,-0.38002,0.04219,,,,,,,,,,,,,,,,,,,,,,,,,,0,0,0,0,0
2.5425,1783190284.6572,1,1,1.0000,0.0000,1.44681,0.21642,-2.78173,0.99448,1.57080,0.00001,-0.14512,-0.38002,0.04217,,,,,,,,,,,,,,,,,,,,,,,,,,0,0,0,0,0
2.5543,1783190284.6690,1,1,1.0000,0.0000,1.44681,0.21637,-2.78174,0.99453,1.57080,0.00001,-0.14512,-0.38002,0.04216,,,,,,,,,,,,,,,,,,,,,,,,,,0,0,0,0,0
2.5636,1783190284.6783,1,1,1.0000,0.0000,1.44681,0.21626,-2.78177,0.99467,1.57080,0.00001,-0.14512,-0.38002,0.04213,,,,,,,,,,,,,,,,,,,,,,,,,,0,0,0,0,0
2.5719,1783190284.6866,1,1,1.0000,0.0000,1.44681,0.21612,-2.78180,0.99485,1.57080,0.00001,-0.14512,-0.38002,0.04209,,,,,,,,,,,,,,,,,,,,,,,,,,0,0,0,0,0
2.5725,1783190284.6871,1,1,1.0000,0.0000,1.44681,0.21612,-2.78180,0.99485,1.57080,0.00001,-0.14512,-0.38002,0.04209,,,,,,,,,,,,,,,,,,,,,,,,,,0,0,0,0,0
2.5844,1783190284.6991,1,1,1.0000,0.0000,1.44681,0.21604,-2.78182,0.99495,1.57080,0.00001,-0.14512,-0.38002,0.04207,,,,,,,,,,,,,,,,,,,,,,,,,,0,0,0,0,0
2.5930,1783190284.7077,1,1,1.0000,0.0000,1.44681,0.21596,-2.78184,0.99505,1.57080,0.00001,-0.14512,-0.38002,0.04205,,,,,,,,,,,,,,,,,,,,,,,,,,0,0,0,0,0
2.5934,1783190284.7081,1,1,1.0000,0.0000,1.44681,0.21596,-2.78184,0.99505,1.57080,0.00001,-0.14512,-0.38002,0.04205,,,,,,,,,,,,,,,,,,,,,,,,,,0,0,0,0,0
2.6076,1783190284.7222,1,1,1.0000,0.0000,1.44681,0.21568,-2.78191,0.99539,1.57080,0.00001,-0.14512,-0.38002,0.04198,,,,,,,,,,,,,,,,,,,,,,,,,,0,0,0,0,0
2.6119,1783190284.7265,1,1,1.0000,0.0000,1.44681,0.21568,-2.78191,0.99539,1.57080,0.00001,-0.14512,-0.38002,0.04198,,,,,,,,,,,,,,,,,,,,,,,,,,0,0,0,0,0
2.6122,1783190284.7269,1,1,1.0000,0.0000,1.44681,0.21568,-2.78191,0.99539,1.57080,0.00001,-0.14512,-0.38002,0.04198,,,,,,,,,,,,,,,,,,,,,,,,,,0,0,0,0,0
2.6244,1783190284.7391,1,1,1.0000,0.0000,1.44681,0.21561,-2.78193,0.99548,1.57080,0.00001,-0.14512,-0.38002,0.04196,,,,,,,,,,,,,,,,,,,,,,,,,,0,0,0,0,0
2.6430,1783190284.7577,1,1,1.0000,0.0000,1.44681,0.21544,-2.78197,0.99570,1.57080,0.00001,-0.14512,-0.38002,0.04192,,,,,,,,,,,,,,,,,,,,,,,,,,0,0,0,0,0
2.6454,1783190284.7601,1,1,1.0000,0.0000,1.44681,0.21544,-2.78197,0.99570,1.57080,0.00001,-0.14512,-0.38002,0.04192,,,,,,,,,,,,,,,,,,,,,,,,,,0,0,0,0,0
2.6458,1783190284.7605,1,1,1.0000,0.0000,1.44681,0.21544,-2.78197,0.99570,1.57080,0.00001,-0.14512,-0.38002,0.04192,,,,,,,,,,,,,,,,,,,,,,,,,,0,0,0,0,0
2.6522,1783190284.7669,1,1,1.0000,0.0000,1.44681,0.21535,-2.78199,0.99580,1.57080,0.00001,-0.14512,-0.38002,0.04190,,,,,,,,,,,,,,,,,,,,,,,,,,0,0,0,0,0
2.6626,1783190284.7772,1,1,1.0000,0.0000,1.44681,0.21514,-2.78204,0.99606,1.57080,0.00001,-0.14512,-0.38002,0.04184,,,,,,,,,,,,,,,,,,,,,,,,,,0,0,0,0,0
2.6734,1783190284.7880,1,1,1.0000,0.0000,1.44681,0.21507,-2.78206,0.99615,1.57080,0.00001,-0.14512,-0.38002,0.04183,,,,,,,,,,,,,,,,,,,,,,,,,,0,0,0,0,0
2.6905,1783190284.8052,1,1,1.0000,0.0000,1.44681,0.21490,-2.78210,0.99636,1.57080,0.00001,-0.14512,-0.38002,0.04178,,,,,,,,,,,,,,,,,,,,,,,,,,0,0,0,0,0
2.6944,1783190284.8091,1,1,1.0000,0.0000,1.44681,0.21484,-2.78211,0.99644,1.57080,0.00001,-0.14512,-0.38002,0.04177,,,,,,,,,,,,,,,,,,,,,,,,,,0,0,0,0,0
2.7028,1783190284.8175,1,1,1.0000,0.0000,1.44681,0.21483,-2.78212,0.99645,1.57080,0.00001,-0.14512,-0.38002,0.04176,,,,,,,,,,,,,,,,,,,,,,,,,,0,0,0,0,0
2.7032,1783190284.8179,1,1,1.0000,0.0000,1.44681,0.21483,-2.78212,0.99645,1.57080,0.00001,-0.14512,-0.38002,0.04176,,,,,,,,,,,,,,,,,,,,,,,,,,0,0,0,0,0
2.7127,1783190284.8274,1,1,1.0000,0.0000,1.44681,0.21474,-2.78214,0.99656,1.57080,0.00001,-0.14512,-0.38002,0.04174,,,,,,,,,,,,,,,,,,,,,,,,,,0,0,0,0,0
2.7220,1783190284.8366,1,1,1.0000,0.0000,1.44681,0.21461,-2.78217,0.99673,1.57080,0.00001,-0.14512,-0.38002,0.04171,,,,,,,,,,,,,,,,,,,,,,,,,,0,0,0,0,0
2.7318,1783190284.8465,1,1,1.0000,0.0000,1.44681,0.21447,-2.78221,0.99691,1.57080,0.00002,-0.14512,-0.38002,0.04167,,,,,,,,,,,,,,,,,,,,,,,,,,0,0,0,0,0
2.7423,1783190284.8570,1,1,1.0000,0.0000,1.44681,0.21440,-2.78222,0.99699,1.57080,0.00002,-0.14512,-0.38002,0.04165,,,,,,,,,,,,,,,,,,,,,,,,,,0,0,0,0,0
2.7537,1783190284.8683,1,1,1.0000,0.0000,1.44681,0.21429,-2.78225,0.99712,1.57080,0.00002,-0.14512,-0.38002,0.04163,,,,,,,,,,,,,,,,,,,,,,,,,,0,0,0,0,0
2.7624,1783190284.8771,1,1,1.0000,0.0000,1.44681,0.21422,-2.78227,0.99721,1.57080,0.00002,-0.14512,-0.38002,0.04161,,,,,,,,,,,,,,,,,,,,,,,,,,0,0,0,0,0
2.7726,1783190284.8873,1,1,1.0000,0.0000,1.44681,0.21413,-2.78229,0.99732,1.57080,0.00002,-0.14512,-0.38002,0.04159,,,,,,,,,,,,,,,,,,,,,,,,,,0,0,0,0,0
2.7825,1783190284.8972,1,1,1.0000,0.0000,1.44681,0.21393,-2.78234,0.99758,1.57080,0.00002,-0.14512,-0.38002,0.04153,,,,,,,,,,,,,,,,,,,,,,,,,,0,0,0,0,0
2.7946,1783190284.9092,1,1,1.0000,0.0000,1.44681,0.21385,-2.78236,0.99768,1.57080,0.00002,-0.14512,-0.38002,0.04151,,,,,,,,,,,,,,,,,,,,,,,,,,0,0,0,0,0
2.7949,1783190284.9096,1,1,1.0000,0.0000,1.44681,0.21385,-2.78236,0.99768,1.57080,0.00002,-0.14512,-0.38002,0.04151,,,,,,,,,,,,,,,,,,,,,,,,,,0,0,0,0,0
2.8027,1783190284.9173,1,1,1.0000,0.0000,1.44681,0.21379,-2.78237,0.99775,1.57080,0.00002,-0.14512,-0.38002,0.04150,,,,,,,,,,,,,,,,,,,,,,,,,,0,0,0,0,0
2.8031,1783190284.9177,1,1,1.0000,0.0000,1.44681,0.21379,-2.78237,0.99775,1.57080,0.00002,-0.14512,-0.38002,0.04150,,,,,,,,,,,,,,,,,,,,,,,,,,0,0,0,0,0
2.8118,1783190284.9265,1,1,1.0000,0.0000,1.44681,0.21368,-2.78240,0.99788,1.57080,0.00002,-0.14512,-0.38002,0.04147,,,,,,,,,,,,,,,,,,,,,,,,,,0,0,0,0,0
2.8123,1783190284.9270,1,1,1.0000,0.0000,1.44681,0.21368,-2.78240,0.99788,1.57080,0.00002,-0.14512,-0.38002,0.04147,,,,,,,,,,,,,,,,,,,,,,,,,,0,0,0,0,0
2.8308,1783190284.9454,1,1,1.0000,0.0000,1.44681,0.21352,-2.78244,0.99808,1.57080,0.00002,-0.14512,-0.38002,0.04143,,,,,,,,,,,,,,,,,,,,,,,,,,0,0,0,0,0
2.8352,1783190284.9499,1,1,1.0000,0.0000,1.44681,0.21346,-2.78245,0.99816,1.57080,0.00002,-0.14512,-0.38002,0.04142,,,,,,,,,,,,,,,,,,,,,,,,,,0,0,0,0,0
2.8355,1783190284.9502,1,1,1.0000,0.0000,1.44681,0.21346,-2.78245,0.99816,1.57080,0.00002,-0.14512,-0.38002,0.04142,,,,,,,,,,,,,,,,,,,,,,,,,,0,0,0,0,0
2.8469,1783190284.9616,1,1,1.0000,0.0000,1.44681,0.21325,-2.78250,0.99842,1.57080,0.00002,-0.14512,-0.38002,0.04136,,,,,,,,,,,,,,,,,,,,,,,,,,0,0,0,0,0
2.8529,1783190284.9675,1,1,1.0000,0.0000,1.44681,0.21325,-2.78250,0.99842,1.57080,0.00002,-0.14512,-0.38002,0.04136,,,,,,,,,,,,,,,,,,,,,,,,,,0,0,0,0,0
2.8533,1783190284.9680,1,1,1.0000,0.0000,1.44681,0.21325,-2.78250,0.99842,1.57080,0.00002,-0.14512,-0.38002,0.04136,,,,,,,,,,,,,,,,,,,,,,,,,,0,0,0,0,0
2.8615,1783190284.9762,1,1,1.0000,0.0000,1.44681,0.21321,-2.78251,0.99846,1.57080,0.00002,-0.14512,-0.38002,0.04135,,,,,,,,,,,,,,,,,,,,,,,,,,0,0,0,0,0
2.8624,1783190284.9770,1,1,1.0000,0.0000,1.44681,0.21318,-2.78252,0.99851,1.57080,0.00002,-0.14512,-0.38002,0.04134,,,,,,,,,,,,,,,,,,,,,,,,,,0,0,0,0,0
2.8759,1783190284.9905,1,1,1.0000,0.0000,1.44681,0.21301,-2.78256,0.99871,1.57080,0.00002,-0.14512,-0.38002,0.04130,,,,,,,,,,,,,,,,,,,,,,,,,,0,0,0,0,0
2.8828,1783190284.9975,1,1,1.0000,0.0000,1.44681,0.21300,-2.78256,0.99873,1.57080,0.00002,-0.14512,-0.38002,0.04130,,,,,,,,,,,,,,,,,,,,,,,,,,0,0,0,0,0
2.8946,1783190285.0092,1,1,1.0000,0.0000,1.44681,0.21285,-2.78260,0.99892,1.57080,0.00002,-0.14512,-0.38002,0.04126,,,,,,,,,,,,,,,,,,,,,,,,,,0,0,0,0,0
2.8951,1783190285.0097,1,1,1.0000,0.0000,1.44681,0.21285,-2.78260,0.99892,1.57080,0.00002,-0.14512,-0.38002,0.04126,,,,,,,,,,,,,,,,,,,,,,,,,,0,0,0,0,0
2.9075,1783190285.0221,1,1,1.0000,0.0000,1.44681,0.21264,-2.78265,0.99918,1.57080,0.00002,-0.14512,-0.38002,0.04121,,,,,,,,,,,,,,,,,,,,,,,,,,0,0,0,0,0
2.9133,1783190285.0280,1,1,1.0000,0.0000,1.44681,0.21264,-2.78265,0.99918,1.57080,0.00002,-0.14512,-0.38002,0.04121,,,,,,,,,,,,,,,,,,,,,,,,,,0,0,0,0,0
2.9283,1783190285.0430,1,1,1.0000,0.0000,1.44681,0.21252,-2.78268,0.99933,1.57080,0.00002,-0.14512,-0.38002,0.04118,,,,,,,,,,,,,,,,,,,,,,,,,,0,0,0,0,0
2.9339,1783190285.0486,1,1,1.0000,0.0000,1.44681,0.21246,-2.78269,0.99940,1.57080,0.00002,-0.14512,-0.38002,0.04116,,,,,,,,,,,,,,,,,,,,,,,,,,0,0,0,0,0
2.9490,1783190285.0636,1,1,1.0000,0.0000,1.44681,0.21236,-2.78272,0.99953,1.57080,0.00002,-0.14512,-0.38002,0.04114,,,,,,,,,,,,,,,,,,,,,,,,,,0,0,0,0,0
2.9531,1783190285.0677,1,1,1.0000,0.0000,1.44681,0.21230,-2.78273,0.99960,1.57080,0.00002,-0.14512,-0.38002,0.04112,,,,,,,,,,,,,,,,,,,,,,,,,,0,0,0,0,0
2.9666,1783190285.0813,1,1,1.0000,0.0000,1.44681,0.21203,-2.78280,0.99994,1.57080,0.00002,-0.14512,-0.38002,0.04105,,,,,,,,,,,,,,,,,,,,,,,,,,0,0,0,0,0
2.9669,1783190285.0816,1,1,1.0000,0.0000,1.44681,0.21203,-2.78280,0.99994,1.57080,0.00002,-0.14512,-0.38002,0.04105,,,,,,,,,,,,,,,,,,,,,,,,,,0,0,0,0,0
2.9768,1783190285.0915,1,1,1.0000,0.0000,1.44681,0.21201,-2.78280,0.99996,1.57080,0.00002,-0.14512,-0.38002,0.04105,,,,,,,,,,,,,,,,,,,,,,,,,,0,0,0,0,0
2.9826,1783190285.0972,1,1,1.0000,0.0000,1.44681,0.21193,-2.78282,1.00006,1.57080,0.00002,-0.14512,-0.38002,0.04103,,,,,,,,,,,,,,,,,,,,,,,,,,0,0,0,0,0
2.9829,1783190285.0975,1,1,1.0000,0.0000,1.44681,0.21193,-2.78282,1.00006,1.57080,0.00002,-0.14512,-0.38002,0.04103,,,,,,,,,,,,,,,,,,,,,,,,,,0,0,0,0,0
2.9983,1783190285.1130,1,1,1.0000,0.0000,1.44681,0.21173,-2.78287,1.00031,1.57080,0.00002,-0.14512,-0.38002,0.04098,,,,,,,,,,,,,,,,,,,,,,,,,,0,0,0,0,0
3.0097,1783190285.1244,1,1,1.0000,0.0000,1.44681,0.21168,-2.78288,1.00037,1.57080,0.00002,-0.14512,-0.38002,0.04096,,,,,,,,,,,,,,,,,,,,,,,,,,0,0,0,0,0
3.0104,1783190285.1251,1,1,1.0000,0.0000,1.44681,0.21163,-2.78290,1.00043,1.57080,0.00002,-0.14512,-0.38002,0.04095,,,,,,,,,,,,,,,,,,,,,,,,,,0,0,0,0,0
3.0125,1783190285.1272,1,1,1.0000,0.0000,1.44681,0.21163,-2.78290,1.00043,1.57080,0.00002,-0.14512,-0.38002,0.04095,,,,,,,,,,,,,,,,,,,,,,,,,,0,0,0,0,0
3.0131,1783190285.1277,1,1,1.0000,0.0000,1.44681,0.21163,-2.78290,1.00043,1.57080,0.00002,-0.14512,-0.38002,0.04095,,,,,,,,,,,,,,,,,,,,,,,,,,0,0,0,0,0
3.0264,1783190285.1410,1,1,1.0000,0.0000,1.44681,0.21136,-2.78296,1.00077,1.57080,0.00002,-0.14512,-0.38002,0.04088,,,,,,,,,,,,,,,,,,,,,,,,,,0,0,0,0,0
3.0316,1783190285.1463,1,1,1.0000,0.0000,1.44681,0.21136,-2.78296,1.00077,1.57080,0.00002,-0.14512,-0.38002,0.04088,,,,,,,,,,,,,,,,,,,,,,,,,,0,0,0,0,0
3.0320,1783190285.1467,1,1,1.0000,0.0000,1.44681,0.21136,-2.78296,1.00077,1.57080,0.00002,-0.14512,-0.38002,0.04088,,,,,,,,,,,,,,,,,,,,,,,,,,0,0,0,0,0
3.0591,1783190285.1737,1,1,1.0000,0.0000,1.44681,0.21106,-2.78304,1.00114,1.57080,0.00002,-0.14512,-0.38002,0.04081,,,,,,,,,,,,,,,,,,,,,,,,,,0,0,0,0,0
3.0595,1783190285.1742,1,1,1.0000,0.0000,1.44681,0.21106,-2.78304,1.00114,1.57080,0.00002,-0.14512,-0.38002,0.04081,,,,,,,,,,,,,,,,,,,,,,,,,,0,0,0,0,0
3.0637,1783190285.1784,1,1,1.0000,0.0000,1.44681,0.21105,-2.78304,1.00116,1.57080,0.00002,-0.14512,-0.38002,0.04080,,,,,,,,,,,,,,,,,,,,,,,,,,0,0,0,0,0
3.0745,1783190285.1891,1,1,1.0000,0.0000,1.44681,0.21090,-2.78307,1.00134,1.57080,0.00002,-0.14512,-0.38002,0.04077,,,,,,,,,,,,,,,,,,,,,,,,,,0,0,0,0,0
3.0817,1783190285.1963,1,1,1.0000,0.0000,1.44681,0.21083,-2.78309,1.00142,1.57080,0.00002,-0.14512,-0.38002,0.04075,,,,,,,,,,,,,,,,,,,,,,,,,,0,0,0,0,0
3.0822,1783190285.1968,1,1,1.0000,0.0000,1.44681,0.21083,-2.78309,1.00142,1.57080,0.00002,-0.14512,-0.38002,0.04075,,,,,,,,,,,,,,,,,,,,,,,,,,0,0,0,0,0
3.1042,1783190285.2188,1,1,1.0000,0.0000,1.44681,0.21060,-2.78315,1.00172,1.57080,0.00002,-0.14512,-0.38002,0.04069,,,,,,,,,,,,,,,,,,,,,,,,,,0,0,0,0,0
3.1048,1783190285.2195,1,1,1.0000,0.0000,1.44681,0.21060,-2.78315,1.00172,1.57080,0.00002,-0.14512,-0.38002,0.04069,,,,,,,,,,,,,,,,,,,,,,,,,,0,0,0,0,0
3.1052,1783190285.2199,1,1,1.0000,0.0000,1.44681,0.21060,-2.78315,1.00172,1.57080,0.00002,-0.14512,-0.38002,0.04069,,,,,,,,,,,,,,,,,,,,,,,,,,0,0,0,0,0
3.1135,1783190285.2281,1,1,1.0000,0.0000,1.44681,0.21046,-2.78318,1.00188,1.57080,0.00002,-0.14512,-0.38002,0.04066,,,,,,,,,,,,,,,,,,,,,,,,,,0,0,0,0,0
3.1140,1783190285.2286,1,1,1.0000,0.0000,1.44681,0.21046,-2.78318,1.00188,1.57080,0.00002,-0.14512,-0.38002,0.04066,,,,,,,,,,,,,,,,,,,,,,,,,,0,0,0,0,0
3.1218,1783190285.2365,1,1,1.0000,0.0000,1.44681,0.21039,-2.78320,1.00197,1.57080,0.00002,-0.14512,-0.38002,0.04064,,,,,,,,,,,,,,,,,,,,,,,,,,0,0,0,0,0
3.1345,1783190285.2492,1,1,1.0000,0.0000,1.44681,0.21023,-2.78323,1.00217,1.57080,0.00002,-0.14512,-0.38002,0.04060,,,,,,,,,,,,,,,,,,,,,,,,,,0,0,0,0,0
3.1420,1783190285.2566,1,1,1.0000,0.0000,1.44681,0.21017,-2.78325,1.00225,1.57080,0.00002,-0.14512,-0.38002,0.04058,,,,,,,,,,,,,,,,,,,,,,,,,,0,0,0,0,0
3.1428,1783190285.2575,1,1,1.0000,0.0000,1.44681,0.21009,-2.78327,1.00234,1.57080,0.00002,-0.14512,-0.38002,0.04056,,,,,,,,,,,,,,,,,,,,,,,,,,0,0,0,0,0
3.1548,1783190285.2695,1,1,1.0000,0.0000,1.44681,0.21001,-2.78329,1.00244,1.57080,0.00002,-0.14512,-0.38002,0.04054,,,,,,,,,,,,,,,,,,,,,,,,,,0,0,0,0,0
3.1617,1783190285.2763,1,1,1.0000,0.0000,1.44681,0.20998,-2.78330,1.00248,1.57080,0.00002,-0.14512,-0.38002,0.04053,,,,,,,,,,,,,,,,,,,,,,,,,,0,0,0,0,0
3.1627,1783190285.2773,1,1,1.0000,0.0000,1.44681,0.20993,-2.78331,1.00255,1.57080,0.00002,-0.14512,-0.38002,0.04052,,,,,,,,,,,,,,,,,,,,,,,,,,0,0,0,0,0
3.1769,1783190285.2916,1,1,1.0000,0.0000,1.44680,0.20972,-2.78336,1.00280,1.57080,0.00002,-0.14512,-0.38002,0.04047,,,,,,,,,,,,,,,,,,,,,,,,,,0,0,0,0,0
3.1775,1783190285.2921,1,1,1.0000,0.0000,1.44680,0.20972,-2.78336,1.00280,1.57080,0.00002,-0.14512,-0.38002,0.04047,,,,,,,,,,,,,,,,,,,,,,,,,,0,0,0,0,0
3.1818,1783190285.2965,1,1,1.0000,0.0000,1.44680,0.20972,-2.78336,1.00280,1.57080,0.00002,-0.14512,-0.38002,0.04047,,,,,,,,,,,,,,,,,,,,,,,,,,0,0,0,0,0
3.1822,1783190285.2968,1,1,1.0000,0.0000,1.44680,0.20972,-2.78336,1.00280,1.57080,0.00002,-0.14512,-0.38002,0.04047,,,,,,,,,,,,,,,,,,,,,,,,,,0,0,0,0,0
3.2025,1783190285.3172,1,1,1.0000,0.0000,1.44680,0.20942,-2.78343,1.00317,1.57079,0.00002,-0.14512,-0.38002,0.04039,,,,,,,,,,,,,,,,,,,,,,,,,,0,0,0,0,0
3.2048,1783190285.3194,1,1,1.0000,0.0000,1.44680,0.20942,-2.78343,1.00317,1.57079,0.00002,-0.14512,-0.38002,0.04039,,,,,,,,,,,,,,,,,,,,,,,,,,0,0,0,0,0
3.2167,1783190285.3313,1,1,1.0000,0.0000,1.44680,0.20934,-2.78345,1.00327,1.57079,0.00002,-0.14512,-0.38002,0.04037,,,,,,,,,,,,,,,,,,,,,,,,,,0,0,0,0,0
3.2305,1783190285.3451,1,1,1.0000,0.0000,1.44680,0.20913,-2.78350,1.00354,1.57079,0.00002,-0.14512,-0.38002,0.04032,,,,,,,,,,,,,,,,,,,,,,,,,,0,0,0,0,0
3.2360,1783190285.3507,1,1,1.0000,0.0000,1.44680,0.20905,-2.78352,1.00363,1.57079,0.00002,-0.14512,-0.38002,0.04030,,,,,,,,,,,,,,,,,,,,,,,,,,0,0,0,0,0
3.2574,1783190285.3721,1,1,1.0000,0.0000,1.44680,0.20890,-2.78356,1.00382,1.57079,0.00002,-0.14512,-0.38002,0.04026,,,,,,,,,,,,,,,,,,,,,,,,,,0,0,0,0,0
3.2577,1783190285.3724,1,1,1.0000,0.0000,1.44680,0.20890,-2.78356,1.00382,1.57079,0.00002,-0.14512,-0.38002,0.04026,,,,,,,,,,,,,,,,,,,,,,,,,,0,0,0,0,0
3.2666,1783190285.3813,1,1,1.0000,0.0000,1.44680,0.20869,-2.78361,1.00409,1.57079,0.00002,-0.14512,-0.38002,0.04021,,,,,,,,,,,,,,,,,,,,,,,,,,0,0,0,0,0
3.2671,1783190285.3817,1,1,1.0000,0.0000,1.44680,0.20869,-2.78361,1.00409,1.57079,0.00002,-0.14512,-0.38002,0.04021,,,,,,,,,,,,,,,,,,,,,,,,,,0,0,0,0,0
3.2773,1783190285.3920,1,1,1.0000,0.0000,1.44680,0.20867,-2.78361,1.00410,1.57079,0.00002,-0.14512,-0.38002,0.04020,,,,,,,,,,,,,,,,,,,,,,,,,,0,0,0,0,0
3.2869,1783190285.4016,1,1,1.0000,0.0000,1.44680,0.20853,-2.78365,1.00428,1.57079,0.00002,-0.14512,-0.38002,0.04017,,,,,,,,,,,,,,,,,,,,,,,,,,0,0,0,0,0
3.3042,1783190285.4188,1,1,1.0000,0.0000,1.44680,0.20831,-2.78370,1.00455,1.57079,0.00002,-0.14512,-0.38002,0.04011,,,,,,,,,,,,,,,,,,,,,,,,,,0,0,0,0,0
3.3081,1783190285.4227,1,1,1.0000,0.0000,1.44680,0.20831,-2.78370,1.00456,1.57079,0.00002,-0.14512,-0.38002,0.04011,,,,,,,,,,,,,,,,,,,,,,,,,,0,0,0,0,0
3.3195,1783190285.4342,1,1,1.0000,0.0000,1.44680,0.20820,-2.78373,1.00469,1.57079,0.00002,-0.14512,-0.38002,0.04008,,,,,,,,,,,,,,,,,,,,,,,,,,0,0,0,0,0
3.3275,1783190285.4422,1,1,1.0000,0.0000,1.44680,0.20808,-2.78375,1.00484,1.57079,0.00002,-0.14512,-0.38002,0.04005,,,,,,,,,,,,,,,,,,,,,,,,,,0,0,0,0,0
3.3377,1783190285.4524,1,1,1.0000,0.0000,1.44680,0.20807,-2.78376,1.00486,1.57079,0.00002,-0.14512,-0.38002,0.04005,,,,,,,,,,,,,,,,,,,,,,,,,,0,0,0,0,0
3.3578,1783190285.4724,1,1,1.0000,0.0000,1.44680,0.20777,-2.78383,1.00522,1.57079,0.00002,-0.14512,-0.38002,0.03997,,,,,,,,,,,,,,,,,,,,,,,,,,0,0,0,0,0
3.3597,1783190285.4744,1,1,1.0000,0.0000,1.44680,0.20770,-2.78384,1.00531,1.57079,0.00002,-0.14512,-0.38002,0.03996,,,,,,,,,,,,,,,,,,,,,,,,,,0,0,0,0,0
3.3678,1783190285.4825,1,1,1.0000,0.0000,1.44680,0.20769,-2.78385,1.00532,1.57079,0.00002,-0.14512,-0.38002,0.03995,,,,,,,,,,,,,,,,,,,,,,,,,,0,0,0,0,0
3.3760,1783190285.4907,1,1,1.0000,0.0000,1.44680,0.20763,-2.78386,1.00540,1.57079,0.00002,-0.14512,-0.38002,0.03994,,,,,,,,,,,,,,,,,,,,,,,,,,0,0,0,0,0
3.3860,1783190285.5007,1,1,1.0000,0.0000,1.44680,0.20752,-2.78389,1.00553,1.57079,0.00002,-0.14512,-0.38002,0.03991,,,,,,,,,,,,,,,,,,,,,,,,,,0,0,0,0,0
3.3868,1783190285.5015,1,1,1.0000,0.0000,1.44680,0.20746,-2.78390,1.00560,1.57079,0.00002,-0.14512,-0.38002,0.03990,,,,,,,,,,,,,,,,,,,,,,,,,,0,0,0,0,0
3.3978,1783190285.5125,1,1,1.0000,0.0000,1.44680,0.20745,-2.78390,1.00562,1.57079,0.00002,-0.14512,-0.38002,0.03989,,,,,,,,,,,,,,,,,,,,,,,,,,0,0,0,0,0
3.4085,1783190285.5231,1,1,1.0000,0.0000,1.44680,0.20730,-2.78394,1.00580,1.57079,0.00002,-0.14512,-0.38002,0.03986,,,,,,,,,,,,,,,,,,,,,,,,,,0,0,0,0,0
3.4171,1783190285.5317,1,1,1.0000,0.0000,1.44680,0.20715,-2.78397,1.00599,1.57079,0.00002,-0.14512,-0.38002,0.03982,,,,,,,,,,,,,,,,,,,,,,,,,,0,0,0,0,0
3.4173,1783190285.5320,1,1,1.0000,0.0000,1.44680,0.20715,-2.78397,1.00599,1.57079,0.00002,-0.14512,-0.38002,0.03982,,,,,,,,,,,,,,,,,,,,,,,,,,0,0,0,0,0
3.4324,1783190285.5471,1,1,1.0000,0.0000,1.44680,0.20705,-2.78400,1.00611,1.57079,0.00002,-0.14512,-0.38002,0.03979,,,,,,,,,,,,,,,,,,,,,,,,,,0,0,0,0,0
3.4358,1783190285.5504,1,1,1.0000,0.0000,1.44680,0.20701,-2.78401,1.00616,1.57079,0.00002,-0.14512,-0.38002,0.03978,,,,,,,,,,,,,,,,,,,,,,,,,,0,0,0,0,0
3.4361,1783190285.5507,1,1,1.0000,0.0000,1.44680,0.20701,-2.78401,1.00616,1.57079,0.00002,-0.14512,-0.38002,0.03978,,,,,,,,,,,,,,,,,,,,,,,,,,0,0,0,0,0
3.4497,1783190285.5644,1,1,1.0000,0.0000,1.44680,0.20685,-2.78405,1.00636,1.57079,0.00002,-0.14512,-0.38002,0.03974,,,,,,,,,,,,,,,,,,,,,,,,,,0,0,0,0,0
3.4618,1783190285.5764,1,1,1.0000,0.0000,1.44680,0.20680,-2.78406,1.00642,1.57079,0.00002,-0.14512,-0.38002,0.03973,,,,,,,,,,,,,,,,,,,,,,,,,,0,0,0,0,0
3.4674,1783190285.5820,1,1,1.0000,0.0000,1.44680,0.20668,-2.78409,1.00657,1.57079,0.00002,-0.14512,-0.38002,0.03970,,,,,,,,,,,,,,,,,,,,,,,,,,0,0,0,0,0
3.4676,1783190285.5823,1,1,1.0000,0.0000,1.44680,0.20668,-2.78409,1.00657,1.57079,0.00002,-0.14512,-0.38002,0.03970,,,,,,,,,,,,,,,,,,,,,,,,,,0,0,0,0,0
3.4757,1783190285.5903,1,1,1.0000,0.0000,1.44680,0.20654,-2.78412,1.00675,1.57079,0.00002,-0.14512,-0.38002,0.03966,,,,,,,,,,,,,,,,,,,,,,,,,,0,0,0,0,0
3.4760,1783190285.5906,1,1,1.0000,0.0000,1.44680,0.20654,-2.78412,1.00675,1.57079,0.00002,-0.14512,-0.38002,0.03966,,,,,,,,,,,,,,,,,,,,,,,,,,0,0,0,0,0
3.4906,1783190285.6052,1,1,1.0000,0.0000,1.44680,0.20643,-2.78415,1.00688,1.57079,0.00002,-0.14512,-0.38002,0.03964,,,,,,,,,,,,,,,,,,,,,,,,,,0,0,0,0,0
3.4908,1783190285.6055,1,1,1.0000,0.0000,1.44680,0.20643,-2.78415,1.00688,1.57079,0.00002,-0.14512,-0.38002,0.03964,,,,,,,,,,,,,,,,,,,,,,,,,,0,0,0,0,0
3.4989,1783190285.6135,1,1,1.0000,0.0000,1.44680,0.20635,-2.78417,1.00698,1.57079,0.00002,-0.14512,-0.38002,0.03962,,,,,,,,,,,,,,,,,,,,,,,,,,0,0,0,0,0
3.5092,1783190285.6239,1,1,1.0000,0.0000,1.44680,0.20623,-2.78419,1.00713,1.57079,0.00002,-0.14512,-0.38002,0.03959,,,,,,,,,,,,,,,,,,,,,,,,,,0,0,0,0,0
3.5222,1783190285.6368,1,1,1.0000,0.0000,1.44680,0.20618,-2.78421,1.00719,1.57079,0.00002,-0.14512,-0.38002,0.03958,,,,,,,,,,,,,,,,,,,,,,,,,,0,0,0,0,0
3.5298,1783190285.6444,1,1,1.0000,0.0000,1.44680,0.20607,-2.78423,1.00733,1.57079,0.00002,-0.14512,-0.38002,0.03955,,,,,,,,,,,,,,,,,,,,,,,,,,0,0,0,0,0
3.5301,1783190285.6448,1,1,1.0000,0.0000,1.44680,0.20607,-2.78423,1.00733,1.57079,0.00002,-0.14512,-0.38002,0.03955,,,,,,,,,,,,,,,,,,,,,,,,,,0,0,0,0,0
3.5368,1783190285.6515,1,1,1.0000,0.0000,1.44680,0.20592,-2.78427,1.00751,1.57079,0.00002,-0.14512,-0.38002,0.03951,,,,,,,,,,,,,,,,,,,,,,,,,,0,0,0,0,0
3.5507,1783190285.6654,1,1,1.0000,0.0000,1.44680,0.20582,-2.78429,1.00764,1.57079,0.00002,-0.14512,-0.38002,0.03948,,,,,,,,,,,,,,,,,,,,,,,,,,0,0,0,0,0
3.5636,1783190285.6783,1,1,1.0000,0.0000,1.44680,0.20568,-2.78433,1.00781,1.57079,0.00002,-0.14512,-0.38002,0.03945,,,,,,,,,,,,,,,,,,,,,,,,,,0,0,0,0,0
3.5679,1783190285.6826,1,1,1.0000,0.0000,1.44680,0.20562,-2.78434,1.00789,1.57079,0.00002,-0.14512,-0.38002,0.03943,,,,,,,,,,,,,,,,,,,,,,,,,,0,0,0,0,0
3.5759,1783190285.6905,1,1,1.0000,0.0000,1.44680,0.20560,-2.78434,1.00791,1.57079,0.00002,-0.14512,-0.38002,0.03943,,,,,,,,,,,,,,,,,,,,,,,,,,0,0,0,0,0
3.5761,1783190285.6908,1,1,1.0000,0.0000,1.44680,0.20560,-2.78434,1.00791,1.57079,0.00002,-0.14512,-0.38002,0.03943,,,,,,,,,,,,,,,,,,,,,,,,,,0,0,0,0,0
3.5859,1783190285.7006,1,1,1.0000,0.0000,1.44680,0.20552,-2.78437,1.00801,1.57079,0.00002,-0.14512,-0.38002,0.03941,,,,,,,,,,,,,,,,,,,,,,,,,,0,0,0,0,0
3.5980,1783190285.7127,1,1,1.0000,0.0000,1.44680,0.20530,-2.78442,1.00827,1.57079,0.00002,-0.14512,-0.38002,0.03935,,,,,,,,,,,,,,,,,,,,,,,,,,0,0,0,0,0
3.5983,1783190285.7130,1,1,1.0000,0.0000,1.44680,0.20530,-2.78442,1.00827,1.57079,0.00002,-0.14512,-0.38002,0.03935,,,,,,,,,,,,,,,,,,,,,,,,,,0,0,0,0,0
3.6108,1783190285.7254,1,1,1.0000,0.0000,1.44680,0.20520,-2.78444,1.00840,1.57079,0.00002,-0.14512,-0.38002,0.03933,,,,,,,,,,,,,,,,,,,,,,,,,,0,0,0,0,0
3.6177,1783190285.7324,1,1,1.0000,0.0000,1.44680,0.20516,-2.78445,1.00845,1.57079,0.00002,-0.14512,-0.38002,0.03932,,,,,,,,,,,,,,,,,,,,,,,,,,0,0,0,0,0
3.6261,1783190285.7407,1,1,1.0000,0.0000,1.44680,0.20506,-2.78447,1.00858,1.57079,0.00002,-0.14512,-0.38002,0.03929,,,,,,,,,,,,,,,,,,,,,,,,,,0,0,0,0,0
3.6267,1783190285.7414,1,1,1.0000,0.0000,1.44680,0.20500,-2.78449,1.00865,1.57079,0.00002,-0.14512,-0.38002,0.03928,,,,,,,,,,,,,,,,,,,,,,,,,,0,0,0,0,0
3.6419,1783190285.7565,1,1,1.0000,0.0000,1.44680,0.20495,-2.78450,1.00871,1.57079,0.00002,-0.14512,-0.38002,0.03927,,,,,,,,,,,,,,,,,,,,,,,,,,0,0,0,0,0
3.6422,1783190285.7569,1,1,1.0000,0.0000,1.44680,0.20495,-2.78450,1.00871,1.57079,0.00002,-0.14512,-0.38002,0.03927,,,,,,,,,,,,,,,,,,,,,,,,,,0,0,0,0,0
3.6460,1783190285.7607,1,1,1.0000,0.0000,1.44680,0.20490,-2.78451,1.00878,1.57079,0.00002,-0.14512,-0.38002,0.03925,,,,,,,,,,,,,,,,,,,,,,,,,,0,0,0,0,0
3.6467,1783190285.7614,1,1,1.0000,0.0000,1.44680,0.20483,-2.78453,1.00886,1.57079,0.00002,-0.14512,-0.38002,0.03924,,,,,,,,,,,,,,,,,,,,,,,,,,0,0,0,0,0
3.6643,1783190285.7790,1,1,1.0000,0.0000,1.44680,0.20462,-2.78458,1.00913,1.57079,0.00002,-0.14512,-0.38002,0.03918,,,,,,,,,,,,,,,,,,,,,,,,,,0,0,0,0,0
3.6645,1783190285.7792,1,1,1.0000,0.0000,1.44680,0.20462,-2.78458,1.00913,1.57079,0.00002,-0.14512,-0.38002,0.03918,,,,,,,,,,,,,,,,,,,,,,,,,,0,0,0,0,0
3.6705,1783190285.7852,1,1,1.0000,0.0000,1.44680,0.20458,-2.78459,1.00917,1.57079,0.00002,-0.14512,-0.38002,0.03917,,,,,,,,,,,,,,,,,,,,,,,,,,0,0,0,0,0
3.6707,1783190285.7853,1,1,1.0000,0.0000,1.44680,0.20458,-2.78459,1.00917,1.57079,0.00002,-0.14512,-0.38002,0.03917,,,,,,,,,,,,,,,,,,,,,,,,,,0,0,0,0,0
3.6760,1783190285.7907,1,1,1.0000,0.0000,1.44680,0.20455,-2.78460,1.00921,1.57079,0.00002,-0.14512,-0.38002,0.03916,,,,,,,,,,,,,,,,,,,,,,,,,,0,0,0,0,0
3.6763,1783190285.7909,1,1,1.0000,0.0000,1.44680,0.20455,-2.78460,1.00921,1.57079,0.00002,-0.14512,-0.38002,0.03916,,,,,,,,,,,,,,,,,,,,,,,,,,0,0,0,0,0
3.6858,1783190285.8005,1,1,1.0000,0.0000,1.44680,0.20444,-2.78462,1.00934,1.57079,0.00002,-0.14512,-0.38002,0.03914,,,,,,,,,,,,,,,,,,,,,,,,,,0,0,0,0,0
3.6861,1783190285.8008,1,1,1.0000,0.0000,1.44680,0.20444,-2.78462,1.00934,1.57079,0.00002,-0.14512,-0.38002,0.03914,,,,,,,,,,,,,,,,,,,,,,,,,,0,0,0,0,0
3.6986,1783190285.8132,1,1,1.0000,0.0000,1.44680,0.20433,-2.78465,1.00948,1.57079,0.00002,-0.14512,-0.38002,0.03911,,,,,,,,,,,,,,,,,,,,,,,,,,0,0,0,0,0
3.7137,1783190285.8284,1,1,1.0000,0.0000,1.44680,0.20414,-2.78469,1.00971,1.57079,0.00002,-0.14512,-0.38002,0.03906,,,,,,,,,,,,,,,,,,,,,,,,,,0,0,0,0,0
3.7141,1783190285.8288,1,1,1.0000,0.0000,1.44680,0.20414,-2.78469,1.00971,1.57079,0.00002,-0.14512,-0.38002,0.03906,,,,,,,,,,,,,,,,,,,,,,,,,,0,0,0,0,0
3.7179,1783190285.8326,1,1,1.0000,0.0000,1.44680,0.20407,-2.78471,1.00980,1.57079,0.00002,-0.14512,-0.38002,0.03904,,,,,,,,,,,,,,,,,,,,,,,,,,0,0,0,0,0
3.7182,1783190285.8329,1,1,1.0000,0.0000,1.44680,0.20407,-2.78471,1.00980,1.57079,0.00002,-0.14512,-0.38002,0.03904,,,,,,,,,,,,,,,,,,,,,,,,,,0,0,0,0,0
3.7268,1783190285.8415,1,1,1.0000,0.0000,1.44680,0.20399,-2.78473,1.00990,1.57079,0.00002,-0.14512,-0.38002,0.03902,,,,,,,,,,,,,,,,,,,,,,,,,,0,0,0,0,0
3.7368,1783190285.8514,1,1,1.0000,0.0000,1.44680,0.20393,-2.78474,1.00998,1.57079,0.00002,-0.14512,-0.38002,0.03901,,,,,,,,,,,,,,,,,,,,,,,,,,0,0,0,0,0
3.7511,1783190285.8658,1,1,1.0000,0.0000,1.44680,0.20376,-2.78478,1.01018,1.57079,0.00002,-0.14512,-0.38002,0.03897,,,,,,,,,,,,,,,,,,,,,,,,,,0,0,0,0,0
3.7566,1783190285.8713,1,1,1.0000,0.0000,1.44680,0.20375,-2.78478,1.01020,1.57079,0.00002,-0.14512,-0.38002,0.03896,,,,,,,,,,,,,,,,,,,,,,,,,,0,0,0,0,0
3.7569,1783190285.8716,1,1,1.0000,0.0000,1.44680,0.20375,-2.78478,1.01020,1.57079,0.00002,-0.14512,-0.38002,0.03896,,,,,,,,,,,,,,,,,,,,,,,,,,0,0,0,0,0
3.7683,1783190285.8829,1,1,1.0000,0.0000,1.44680,0.20360,-2.78482,1.01039,1.57079,0.00002,-0.14512,-0.38002,0.03893,,,,,,,,,,,,,,,,,,,,,,,,,,0,0,0,0,0
3.7777,1783190285.8924,1,1,1.0000,0.0000,1.44680,0.20345,-2.78486,1.01057,1.57079,0.00002,-0.14512,-0.38002,0.03889,,,,,,,,,,,,,,,,,,,,,,,,,,0,0,0,0,0
3.7891,1783190285.9038,1,1,1.0000,0.0000,1.44680,0.20337,-2.78487,1.01067,1.57079,0.00002,-0.14512,-0.38002,0.03887,,,,,,,,,,,,,,,,,,,,,,,,,,0,0,0,0,0
3.7973,1783190285.9120,1,1,1.0000,0.0000,1.44680,0.20328,-2.78489,1.01078,1.57079,0.00002,-0.14512,-0.38002,0.03885,,,,,,,,,,,,,,,,,,,,,,,,,,0,0,0,0,0
3.8075,1783190285.9221,1,1,1.0000,0.0000,1.44680,0.20308,-2.78494,1.01103,1.57079,0.00002,-0.14512,-0.38002,0.03880,,,,,,,,,,,,,,,,,,,,,,,,,,0,0,0,0,0
3.8169,1783190285.9315,1,1,1.0000,0.0000,1.44680,0.20307,-2.78495,1.01104,1.57079,0.00002,-0.14512,-0.38002,0.03879,,,,,,,,,,,,,,,,,,,,,,,,,,0,0,0,0,0
3.8289,1783190285.9436,1,1,1.0000,0.0000,1.44680,0.20292,-2.78498,1.01123,1.57079,0.00002,-0.14512,-0.38001,0.03876,,,,,,,,,,,,,,,,,,,,,,,,,,0,0,0,0,0
3.8507,1783190285.9654,1,1,1.0000,0.0000,1.44680,0.20266,-2.78504,1.01155,1.57079,0.00002,-0.14512,-0.38001,0.03869,,,,,,,,,,,,,,,,,,,,,,,,,,0,0,0,0,0
3.8511,1783190285.9657,1,1,1.0000,0.0000,1.44680,0.20266,-2.78504,1.01155,1.57079,0.00002,-0.14512,-0.38001,0.03869,,,,,,,,,,,,,,,,,,,,,,,,,,0,0,0,0,0
3.8562,1783190285.9708,1,1,1.0000,0.0000,1.44680,0.20261,-2.78505,1.01161,1.57079,0.00002,-0.14512,-0.38001,0.03868,,,,,,,,,,,,,,,,,,,,,,,,,,0,0,0,0,0
3.8672,1783190285.9819,1,1,1.0000,0.0000,1.44680,0.20240,-2.78510,1.01186,1.57079,0.00002,-0.14512,-0.38001,0.03863,,,,,,,,,,,,,,,,,,,,,,,,,,0,0,0,0,0
3.8677,1783190285.9823,1,1,1.0000,0.0000,1.44680,0.20240,-2.78510,1.01186,1.57079,0.00002,-0.14512,-0.38001,0.03863,,,,,,,,,,,,,,,,,,,,,,,,,,0,0,0,0,0
3.8758,1783190285.9905,1,1,1.0000,0.0000,1.44680,0.20239,-2.78511,1.01188,1.57079,0.00002,-0.14512,-0.38001,0.03862,,,,,,,,,,,,,,,,,,,,,,,,,,0,0,0,0,0
3.8861,1783190286.0008,1,1,1.0000,0.0000,1.44680,0.20231,-2.78513,1.01198,1.57079,0.00002,-0.14512,-0.38001,0.03860,,,,,,,,,,,,,,,,,,,,,,,,,,0,0,0,0,0
3.8978,1783190286.0125,1,1,1.0000,0.0000,1.44680,0.20210,-2.78517,1.01224,1.57079,0.00002,-0.14512,-0.38001,0.03855,,,,,,,,,,,,,,,,,,,,,,,,,,0,0,0,0,0
3.9076,1783190286.0223,1,1,1.0000,0.0000,1.44680,0.20202,-2.78519,1.01234,1.57079,0.00002,-0.14512,-0.38001,0.03853,,,,,,,,,,,,,,,,,,,,,,,,,,0,0,0,0,0
3.9205,1783190286.0351,1,1,1.0000,0.0000,1.44680,0.20187,-2.78523,1.01252,1.57079,0.00002,-0.14512,-0.38001,0.03849,,,,,,,,,,,,,,,,,,,,,,,,,,0,0,0,0,0
3.9293,1783190286.0440,1,1,1.0000,0.0000,1.44680,0.20173,-2.78526,1.01270,1.57079,0.00002,-0.14512,-0.38001,0.03846,,,,,,,,,,,,,,,,,,,,,,,,,,0,0,0,0,0
3.9404,1783190286.0551,1,1,1.0000,0.0000,1.44680,0.20168,-2.78527,1.01276,1.57079,0.00002,-0.14512,-0.38001,0.03845,,,,,,,,,,,,,,,,,,,,,,,,,,0,0,0,0,0
3.9473,1783190286.0619,1,1,1.0000,0.0000,1.44680,0.20157,-2.78530,1.01290,1.57079,0.00002,-0.14512,-0.38001,0.03842,,,,,,,,,,,,,,,,,,,,,,,,,,0,0,0,0,0
3.9477,1783190286.0624,1,1,1.0000,0.0000,1.44680,0.20157,-2.78530,1.01290,1.57079,0.00002,-0.14512,-0.38001,0.03842,,,,,,,,,,,,,,,,,,,,,,,,,,0,0,0,0,0
3.9561,1783190286.0708,1,1,1.0000,0.0000,1.44680,0.20142,-2.78533,1.01307,1.57079,0.00003,-0.14512,-0.38001,0.03838,,,,,,,,,,,,,,,,,,,,,,,,,,0,0,0,0,0
3.9719,1783190286.0865,1,1,1.0000,0.0000,1.44680,0.20131,-2.78536,1.01322,1.57079,0.00003,-0.14512,-0.38001,0.03835,,,,,,,,,,,,,,,,,,,,,,,,,,0,0,0,0,0
3.9757,1783190286.0904,1,1,1.0000,0.0000,1.44680,0.20126,-2.78537,1.01328,1.57079,0.00003,-0.14512,-0.38001,0.03834,,,,,,,,,,,,,,,,,,,,,,,,,,0,0,0,0,0
3.9860,1783190286.1007,1,1,1.0000,0.0000,1.44680,0.20112,-2.78540,1.01344,1.57079,0.00003,-0.14512,-0.38001,0.03831,,,,,,,,,,,,,,,,,,,,,,,,,,0,0,0,0,0
3.9869,1783190286.1015,1,1,1.0000,0.0000,1.44680,0.20105,-2.78542,1.01353,1.57079,0.00003,-0.14512,-0.38001,0.03829,,,,,,,,,,,,,,,,,,,,,,,,,,0,0,0,0,0
3.9960,1783190286.1107,1,1,1.0000,0.0000,1.44680,0.20104,-2.78542,1.01355,1.57079,0.00003,-0.14512,-0.38001,0.03829,,,,,,,,,,,,,,,,,,,,,,,,,,0,0,0,0,0
4.0060,1783190286.1207,1,1,1.0000,0.0000,1.44680,0.20095,-2.78544,1.01365,1.57079,0.00003,-0.14512,-0.38001,0.03826,,,,,,,,,,,,,,,,,,,,,,,,,,0,0,0,0,0
4.0214,1783190286.1361,1,1,1.0000,0.0000,1.44680,0.20068,-2.78551,1.01399,1.57079,0.00003,-0.14512,-0.38001,0.03820,,,,,,,,,,,,,,,,,,,,,,,,,,0,0,0,0,0
4.0277,1783190286.1424,1,1,1.0000,0.0000,1.44680,0.20066,-2.78551,1.01401,1.57079,0.00003,-0.14512,-0.38001,0.03819,,,,,,,,,,,,,,,,,,,,,,,,,,0,0,0,0,0
4.0409,1783190286.1556,1,1,1.0000,0.0000,1.44680,0.20052,-2.78555,1.01419,1.57079,0.00003,-0.14512,-0.38001,0.03816,,,,,,,,,,,,,,,,,,,,,,,,,,0,0,0,0,0
4.0413,1783190286.1560,1,1,1.0000,0.0000,1.44680,0.20052,-2.78555,1.01419,1.57079,0.00003,-0.14512,-0.38001,0.03816,,,,,,,,,,,,,,,,,,,,,,,,,,0,0,0,0,0
4.0499,1783190286.1645,1,1,1.0000,0.0000,1.44680,0.20037,-2.78558,1.01437,1.57079,0.00003,-0.14512,-0.38001,0.03812,,,,,,,,,,,,,,,,,,,,,,,,,,0,0,0,0,0
4.0559,1783190286.1706,1,1,1.0000,0.0000,1.44680,0.20030,-2.78560,1.01446,1.57079,0.00003,-0.14512,-0.38001,0.03810,,,,,,,,,,,,,,,,,,,,,,,,,,0,0,0,0,0
4.0803,1783190286.1950,1,1,1.0000,0.0000,1.44680,0.20006,-2.78565,1.01475,1.57079,0.00003,-0.14512,-0.38001,0.03804,,,,,,,,,,,,,,,,,,,,,,,,,,0,0,0,0,0
4.0830,1783190286.1976,1,1,1.0000,0.0000,1.44680,0.20006,-2.78565,1.01475,1.57079,0.00003,-0.14512,-0.38001,0.03804,,,,,,,,,,,,,,,,,,,,,,,,,,0,0,0,0,0
4.0859,1783190286.2006,1,1,1.0000,0.0000,1.44680,0.20006,-2.78565,1.01475,1.57079,0.00003,-0.14512,-0.38001,0.03804,,,,,,,,,,,,,,,,,,,,,,,,,,0,0,0,0,0
4.0965,1783190286.2111,1,1,1.0000,0.0000,1.44680,0.19996,-2.78568,1.01488,1.57079,0.00003,-0.14512,-0.38001,0.03802,,,,,,,,,,,,,,,,,,,,,,,,,,0,0,0,0,0
4.1072,1783190286.2219,1,1,1.0000,0.0000,1.44680,0.19975,-2.78573,1.01514,1.57079,0.00003,-0.14512,-0.38001,0.03796,,,,,,,,,,,,,,,,,,,,,,,,,,0,0,0,0,0
4.1276,1783190286.2422,1,1,1.0000,0.0000,1.44680,0.19961,-2.78576,1.01532,1.57079,0.00003,-0.14512,-0.38001,0.03793,,,,,,,,,,,,,,,,,,,,,,,,,,0,0,0,0,0
4.1284,1783190286.2431,1,1,1.0000,0.0000,1.44680,0.19961,-2.78576,1.01532,1.57079,0.00003,-0.14512,-0.38001,0.03793,,,,,,,,,,,,,,,,,,,,,,,,,,0,0,0,0,0
4.1287,1783190286.2433,1,1,1.0000,0.0000,1.44680,0.19961,-2.78576,1.01532,1.57079,0.00003,-0.14512,-0.38001,0.03793,,,,,,,,,,,,,,,,,,,,,,,,,,0,0,0,0,0
4.1359,1783190286.2506,1,1,1.0000,0.0000,1.44680,0.19950,-2.78578,1.01544,1.57079,0.00003,-0.14512,-0.38001,0.03790,,,,,,,,,,,,,,,,,,,,,,,,,,0,0,0,0,0
4.1363,1783190286.2510,1,1,1.0000,0.0000,1.44680,0.19950,-2.78578,1.01544,1.57079,0.00003,-0.14512,-0.38001,0.03790,,,,,,,,,,,,,,,,,,,,,,,,,,0,0,0,0,0
4.1456,1783190286.2602,1,1,1.0000,0.0000,1.44680,0.19944,-2.78580,1.01552,1.57079,0.00003,-0.14512,-0.38001,0.03789,,,,,,,,,,,,,,,,,,,,,,,,,,0,0,0,0,0
4.1459,1783190286.2605,1,1,1.0000,0.0000,1.44680,0.19944,-2.78580,1.01552,1.57079,0.00003,-0.14512,-0.38001,0.03789,,,,,,,,,,,,,,,,,,,,,,,,,,0,0,0,0,0
4.1578,1783190286.2724,1,1,1.0000,0.0000,1.44680,0.19934,-2.78582,1.01564,1.57079,0.00003,-0.14512,-0.38001,0.03786,,,,,,,,,,,,,,,,,,,,,,,,,,0,0,0,0,0
4.1581,1783190286.2728,1,1,1.0000,0.0000,1.44680,0.19934,-2.78582,1.01564,1.57079,0.00003,-0.14512,-0.38001,0.03786,,,,,,,,,,,,,,,,,,,,,,,,,,0,0,0,0,0
4.1773,1783190286.2920,1,1,1.0000,0.0000,1.44680,0.19906,-2.78589,1.01599,1.57079,0.00003,-0.14512,-0.38001,0.03779,,,,,,,,,,,,,,,,,,,,,,,,,,0,0,0,0,0
4.1776,1783190286.2923,1,1,1.0000,0.0000,1.44680,0.19906,-2.78589,1.01599,1.57079,0.00003,-0.14512,-0.38001,0.03779,,,,,,,,,,,,,,,,,,,,,,,,,,0,0,0,0,0
4.1873,1783190286.3020,1,1,1.0000,0.0000,1.44680,0.19898,-2.78590,1.01608,1.57079,0.00003,-0.14512,-0.38001,0.03777,,,,,,,,,,,,,,,,,,,,,,,,,,0,0,0,0,0
4.1979,1783190286.3126,1,1,1.0000,0.0000,1.44680,0.19888,-2.78593,1.01621,1.57079,0.00003,-0.14512,-0.38001,0.03775,,,,,,,,,,,,,,,,,,,,,,,,,,0,0,0,0,0
4.2059,1783190286.3206,1,1,1.0000,0.0000,1.44680,0.19882,-2.78594,1.01629,1.57079,0.00003,-0.14512,-0.38001,0.03773,,,,,,,,,,,,,,,,,,,,,,,,,,0,0,0,0,0
4.2269,1783190286.3415,1,1,1.0000,0.0000,1.44680,0.19850,-2.78602,1.01667,1.57079,0.00003,-0.14512,-0.38001,0.03765,,,,,,,,,,,,,,,,,,,,,,,,,,0,0,0,0,0
4.2275,1783190286.3421,1,1,1.0000,0.0000,1.44680,0.19850,-2.78602,1.01667,1.57079,0.00003,-0.14512,-0.38001,0.03765,,,,,,,,,,,,,,,,,,,,,,,,,,0,0,0,0,0
4.2296,1783190286.3443,1,1,1.0000,0.0000,1.44680,0.19850,-2.78602,1.01667,1.57079,0.00003,-0.14512,-0.38001,0.03765,,,,,,,,,,,,,,,,,,,,,,,,,,0,0,0,0,0
4.2357,1783190286.3504,1,1,1.0000,0.0000,1.44680,0.19843,-2.78603,1.01676,1.57079,0.00003,-0.14512,-0.38001,0.03764,,,,,,,,,,,,,,,,,,,,,,,,,,0,0,0,0,0
4.2360,1783190286.3506,1,1,1.0000,0.0000,1.44680,0.19843,-2.78603,1.01676,1.57079,0.00003,-0.14512,-0.38001,0.03764,,,,,,,,,,,,,,,,,,,,,,,,,,0,0,0,0,0
4.2508,1783190286.3655,1,1,1.0000,0.0000,1.44680,0.19831,-2.78606,1.01691,1.57079,0.00003,-0.14512,-0.38001,0.03761,,,,,,,,,,,,,,,,,,,,,,,,,,0,0,0,0,0
4.2589,1783190286.3736,1,1,1.0000,0.0000,1.44680,0.19820,-2.78609,1.01706,1.57079,0.00003,-0.14512,-0.38001,0.03758,,,,,,,,,,,,,,,,,,,,,,,,,,0,0,0,0,0
4.2592,1783190286.3739,1,1,1.0000,0.0000,1.44680,0.19820,-2.78609,1.01706,1.57079,0.00003,-0.14512,-0.38001,0.03758,,,,,,,,,,,,,,,,,,,,,,,,,,0,0,0,0,0
4.2701,1783190286.3847,1,1,1.0000,0.0000,1.44680,0.19818,-2.78609,1.01707,1.57079,0.00003,-0.14512,-0.38001,0.03757,,,,,,,,,,,,,,,,,,,,,,,,,,0,0,0,0,0
4.2707,1783190286.3854,1,1,1.0000,0.0000,1.44680,0.19815,-2.78610,1.01712,1.57079,0.00003,-0.14512,-0.38001,0.03757,,,,,,,,,,,,,,,,,,,,,,,,,,0,0,0,0,0
4.2809,1783190286.3956,1,1,1.0000,0.0000,1.44680,0.19803,-2.78613,1.01726,1.57079,0.00003,-0.14512,-0.38001,0.03754,,,,,,,,,,,,,,,,,,,,,,,,,,0,0,0,0,0
4.2814,1783190286.3960,1,1,1.0000,0.0000,1.44680,0.19803,-2.78613,1.01726,1.57079,0.00003,-0.14512,-0.38001,0.03754,,,,,,,,,,,,,,,,,,,,,,,,,,0,0,0,0,0
4.2903,1783190286.4050,1,1,1.0000,0.0000,1.44680,0.19788,-2.78616,1.01744,1.57079,0.00003,-0.14512,-0.38001,0.03750,,,,,,,,,,,,,,,,,,,,,,,,,,0,0,0,0,0
4.2959,1783190286.4105,1,1,1.0000,0.0000,1.44680,0.19781,-2.78618,1.01753,1.57079,0.00003,-0.14512,-0.38001,0.03748,,,,,,,,,,,,,,,,,,,,,,,,,,0,0,0,0,0
4.3077,1783190286.4223,1,1,1.0000,0.0000,1.44680,0.19774,-2.78619,1.01762,1.57079,0.00003,-0.14512,-0.38001,0.03746,,,,,,,,,,,,,,,,,,,,,,,,,,0,0,0,0,0
4.3161,1783190286.4307,1,1,1.0000,0.0000,1.44680,0.19763,-2.78622,1.01775,1.57079,0.00003,-0.14512,-0.38001,0.03744,,,,,,,,,,,,,,,,,,,,,,,,,,0,0,0,0,0
4.3295,1783190286.4442,1,1,1.0000,0.0000,1.44680,0.19756,-2.78624,1.01784,1.57079,0.00003,-0.14512,-0.38001,0.03742,,,,,,,,,,,,,,,,,,,,,,,,,,0,0,0,0,0
4.3300,1783190286.4446,1,1,1.0000,0.0000,1.44680,0.19756,-2.78624,1.01784,1.57079,0.00003,-0.14512,-0.38001,0.03742,,,,,,,,,,,,,,,,,,,,,,,,,,0,0,0,0,0
4.3389,1783190286.4536,1,1,1.0000,0.0000,1.44680,0.19740,-2.78627,1.01803,1.57079,0.00003,-0.14512,-0.38001,0.03738,,,,,,,,,,,,,,,,,,,,,,,,,,0,0,0,0,0
4.3480,1783190286.4627,1,1,1.0000,0.0000,1.44680,0.19726,-2.78631,1.01821,1.57079,0.00003,-0.14512,-0.38001,0.03734,,,,,,,,,,,,,,,,,,,,,,,,,,0,0,0,0,0
4.3562,1783190286.4708,1,1,1.0000,0.0000,1.44680,0.19719,-2.78632,1.01830,1.57079,0.00003,-0.14512,-0.38001,0.03733,,,,,,,,,,,,,,,,,,,,,,,,,,0,0,0,0,0
4.3708,1783190286.4855,1,1,1.0000,0.0000,1.44680,0.19702,-2.78636,1.01850,1.57079,0.00003,-0.14512,-0.38001,0.03729,,,,,,,,,,,,,,,,,,,,,,,,,,0,0,0,0,0
4.3710,1783190286.4856,1,1,1.0000,0.0000,1.44680,0.19702,-2.78636,1.01850,1.57079,0.00003,-0.14512,-0.38001,0.03729,,,,,,,,,,,,,,,,,,,,,,,,,,0,0,0,0,0
4.3832,1783190286.4979,1,1,1.0000,0.0000,1.44680,0.19688,-2.78639,1.01868,1.57079,0.00003,-0.14512,-0.38001,0.03725,,,,,,,,,,,,,,,,,,,,,,,,,,0,0,0,0,0
4.3859,1783190286.5006,1,1,1.0000,0.0000,1.44680,0.19688,-2.78639,1.01868,1.57079,0.00003,-0.14512,-0.38001,0.03725,,,,,,,,,,,,,,,,,,,,,,,,,,0,0,0,0,0
4.3862,1783190286.5009,1,1,1.0000,0.0000,1.44680,0.19688,-2.78639,1.01868,1.57079,0.00003,-0.14512,-0.38001,0.03725,,,,,,,,,,,,,,,,,,,,,,,,,,0,0,0,0,0
4.3964,1783190286.5111,1,1,1.0000,0.0000,1.44680,0.19678,-2.78642,1.01880,1.57079,0.00003,-0.14512,-0.38001,0.03723,,,,,,,,,,,,,,,,,,,,,,,,,,0,0,0,0,0
4.3969,1783190286.5115,1,1,1.0000,0.0000,1.44680,0.19678,-2.78642,1.01880,1.57079,0.00003,-0.14512,-0.38001,0.03723,,,,,,,,,,,,,,,,,,,,,,,,,,0,0,0,0,0
4.4108,1783190286.5254,1,1,1.0000,0.0000,1.44680,0.19651,-2.78648,1.01914,1.57079,0.00003,-0.14511,-0.38001,0.03716,,,,,,,,,,,,,,,,,,,,,,,,,,0,0,0,0,0
4.4167,1783190286.5313,1,1,1.0000,0.0000,1.44680,0.19651,-2.78648,1.01914,1.57079,0.00003,-0.14511,-0.38001,0.03716,,,,,,,,,,,,,,,,,,,,,,,,,,0,0,0,0,0
4.4170,1783190286.5317,1,1,1.0000,0.0000,1.44680,0.19651,-2.78648,1.01914,1.57079,0.00003,-0.14511,-0.38001,0.03716,,,,,,,,,,,,,,,,,,,,,,,,,,0,0,0,0,0
4.4293,1783190286.5439,1,1,1.0000,0.0000,1.44679,0.19641,-2.78650,1.01926,1.57079,0.00003,-0.14511,-0.38001,0.03713,,,,,,,,,,,,,,,,,,,,,,,,,,0,0,0,0,0
4.4372,1783190286.5519,1,1,1.0000,0.0000,1.44679,0.19627,-2.78653,1.01942,1.57079,0.00003,-0.14511,-0.38001,0.03710,,,,,,,,,,,,,,,,,,,,,,,,,,0,0,0,0,0
4.4458,1783190286.5605,1,1,1.0000,0.0000,1.44679,0.19620,-2.78655,1.01951,1.57079,0.00003,-0.14511,-0.38001,0.03708,,,,,,,,,,,,,,,,,,,,,,,,,,0,0,0,0,0
4.4463,1783190286.5609,1,1,1.0000,0.0000,1.44679,0.19620,-2.78655,1.01951,1.57079,0.00003,-0.14511,-0.38001,0.03708,,,,,,,,,,,,,,,,,,,,,,,,,,0,0,0,0,0
4.4609,1783190286.5756,1,1,1.0000,0.0000,1.44679,0.19604,-2.78659,1.01971,1.57079,0.00003,-0.14511,-0.38001,0.03704,,,,,,,,,,,,,,,,,,,,,,,,,,0,0,0,0,0
4.4661,1783190286.5808,1,1,1.0000,0.0000,1.44679,0.19597,-2.78661,1.01980,1.57079,0.00003,-0.14511,-0.38001,0.03702,,,,,,,,,,,,,,,,,,,,,,,,,,0,0,0,0,0
4.4858,1783190286.6005,1,1,1.0000,0.0000,1.44679,0.19578,-2.78665,1.02003,1.57079,0.00003,-0.14511,-0.38001,0.03698,,,,,,,,,,,,,,,,,,,,,,,,,,0,0,0,0,0
4.4901,1783190286.6048,1,1,1.0000,0.0000,1.44679,0.19573,-2.78666,1.02010,1.57079,0.00003,-0.14511,-0.38001,0.03696,,,,,,,,,,,,,,,,,,,,,,,,,,0,0,0,0,0
4.4959,1783190286.6106,1,1,1.0000,0.0000,1.44679,0.19559,-2.78669,1.02026,1.57079,0.00003,-0.14511,-0.38001,0.03693,,,,,,,,,,,,,,,,,,,,,,,,,,0,0,0,0,0
4.5059,1783190286.6206,1,1,1.0000,0.0000,1.44679,0.19552,-2.78671,1.02035,1.57079,0.00003,-0.14511,-0.38001,0.03691,,,,,,,,,,,,,,,,,,,,,,,,,,0,0,0,0,0
4.5181,1783190286.6328,1,1,1.0000,0.0000,1.44679,0.19542,-2.78673,1.02047,1.57079,0.00003,-0.14511,-0.38001,0.03689,,,,,,,,,,,,,,,,,,,,,,,,,,0,0,0,0,0
4.5375,1783190286.6522,1,1,1.0000,0.0000,1.44679,0.19514,-2.78680,1.02082,1.57079,0.00003,-0.14511,-0.38001,0.03682,,,,,,,,,,,,,,,,,,,,,,,,,,0,0,0,0,0
4.5384,1783190286.6531,1,1,1.0000,0.0000,1.44679,0.19514,-2.78680,1.02082,1.57079,0.00003,-0.14511,-0.38001,0.03682,,,,,,,,,,,,,,,,,,,,,,,,,,0,0,0,0,0
4.5389,1783190286.6536,1,1,1.0000,0.0000,1.44679,0.19513,-2.78680,1.02083,1.57079,0.00003,-0.14511,-0.38001,0.03682,,,,,,,,,,,,,,,,,,,,,,,,,,0,0,0,0,0
4.5461,1783190286.6607,1,1,1.0000,0.0000,1.44679,0.19509,-2.78681,1.02087,1.57079,0.00003,-0.14511,-0.38001,0.03681,,,,,,,,,,,,,,,,,,,,,,,,,,0,0,0,0,0
4.5563,1783190286.6710,1,1,1.0000,0.0000,1.44679,0.19491,-2.78685,1.02110,1.57079,0.00003,-0.14511,-0.38001,0.03676,,,,,,,,,,,,,,,,,,,,,,,,,,0,0,0,0,0
4.5676,1783190286.6822,1,1,1.0000,0.0000,1.44679,0.19482,-2.78687,1.02121,1.57079,0.00003,-0.14511,-0.38001,0.03674,,,,,,,,,,,,,,,,,,,,,,,,,,0,0,0,0,0
4.5837,1783190286.6984,1,1,1.0000,0.0000,1.44679,0.19460,-2.78692,1.02148,1.57079,0.00003,-0.14511,-0.38001,0.03669,,,,,,,,,,,,,,,,,,,,,,,,,,0,0,0,0,0
4.5841,1783190286.6987,1,1,1.0000,0.0000,1.44679,0.19460,-2.78692,1.02148,1.57079,0.00003,-0.14511,-0.38001,0.03669,,,,,,,,,,,,,,,,,,,,,,,,,,0,0,0,0,0
4.5882,1783190286.7028,1,1,1.0000,0.0000,1.44679,0.19453,-2.78694,1.02157,1.57079,0.00003,-0.14511,-0.38001,0.03667,,,,,,,,,,,,,,,,,,,,,,,,,,0,0,0,0,0
4.5988,1783190286.7134,1,1,1.0000,0.0000,1.44679,0.19445,-2.78696,1.02167,1.57079,0.00003,-0.14511,-0.38001,0.03665,,,,,,,,,,,,,,,,,,,,,,,,,,0,0,0,0,0
4.6063,1783190286.7209,1,1,1.0000,0.0000,1.44679,0.19441,-2.78696,1.02171,1.57079,0.00003,-0.14511,-0.38001,0.03664,,,,,,,,,,,,,,,,,,,,,,,,,,0,0,0,0,0
4.6069,1783190286.7216,1,1,1.0000,0.0000,1.44679,0.19436,-2.78698,1.02178,1.57079,0.00003,-0.14511,-0.38001,0.03663,,,,,,,,,,,,,,,,,,,,,,,,,,0,0,0,0,0
4.6195,1783190286.7342,1,1,1.0000,0.0000,1.44679,0.19415,-2.78702,1.02203,1.57079,0.00003,-0.14511,-0.38001,0.03657,,,,,,,,,,,,,,,,,,,,,,,,,,0,0,0,0,0
4.6198,1783190286.7345,1,1,1.0000,0.0000,1.44679,0.19415,-2.78702,1.02203,1.57079,0.00003,-0.14511,-0.38001,0.03657,,,,,,,,,,,,,,,,,,,,,,,,,,0,0,0,0,0
4.6329,1783190286.7476,1,1,1.0000,0.0000,1.44679,0.19407,-2.78704,1.02213,1.57079,0.00003,-0.14511,-0.38001,0.03655,,,,,,,,,,,,,,,,,,,,,,,,,,0,0,0,0,0
4.6504,1783190286.7650,1,1,1.0000,0.0000,1.44679,0.19390,-2.78708,1.02234,1.57079,0.00003,-0.14511,-0.38001,0.03651,,,,,,,,,,,,,,,,,,,,,,,,,,0,0,0,0,0
4.6509,1783190286.7656,1,1,1.0000,0.0000,1.44679,0.19384,-2.78710,1.02242,1.57079,0.00003,-0.14511,-0.38001,0.03650,,,,,,,,,,,,,,,,,,,,,,,,,,0,0,0,0,0
4.6568,1783190286.7714,1,1,1.0000,0.0000,1.44679,0.19384,-2.78710,1.02242,1.57079,0.00003,-0.14511,-0.38001,0.03650,,,,,,,,,,,,,,,,,,,,,,,,,,0,0,0,0,0
4.6697,1783190286.7844,1,1,1.0000,0.0000,1.44679,0.19374,-2.78712,1.02254,1.57079,0.00003,-0.14511,-0.38001,0.03647,,,,,,,,,,,,,,,,,,,,,,,,,,0,0,0,0,0
4.6701,1783190286.7848,1,1,1.0000,0.0000,1.44679,0.19374,-2.78712,1.02254,1.57079,0.00003,-0.14511,-0.38001,0.03647,,,,,,,,,,,,,,,,,,,,,,,,,,0,0,0,0,0
4.6784,1783190286.7931,1,1,1.0000,0.0000,1.44679,0.19360,-2.78715,1.02271,1.57079,0.00003,-0.14511,-0.38001,0.03644,,,,,,,,,,,,,,,,,,,,,,,,,,0,0,0,0,0
4.6790,1783190286.7936,1,1,1.0000,0.0000,1.44679,0.19352,-2.78717,1.02281,1.57079,0.00003,-0.14511,-0.38001,0.03642,,,,,,,,,,,,,,,,,,,,,,,,,,0,0,0,0,0
4.6925,1783190286.8071,1,1,1.0000,0.0000,1.44679,0.19348,-2.78718,1.02286,1.57079,0.00003,-0.14511,-0.38001,0.03641,,,,,,,,,,,,,,,,,,,,,,,,,,0,0,0,0,0
4.6995,1783190286.8142,1,1,1.0000,0.0000,1.44679,0.19336,-2.78721,1.02300,1.57079,0.00003,-0.14511,-0.38001,0.03638,,,,,,,,,,,,,,,,,,,,,,,,,,0,0,0,0,0
4.7000,1783190286.8146,1,1,1.0000,0.0000,1.44679,0.19336,-2.78721,1.02300,1.57079,0.00003,-0.14511,-0.38001,0.03638,,,,,,,,,,,,,,,,,,,,,,,,,,0,0,0,0,0
4.7080,1783190286.8226,1,1,1.0000,0.0000,1.44679,0.19322,-2.78724,1.02318,1.57079,0.00003,-0.14511,-0.38001,0.03634,,,,,,,,,,,,,,,,,,,,,,,,,,0,0,0,0,0
4.7174,1783190286.8321,1,1,1.0000,0.0000,1.44679,0.19315,-2.78725,1.02327,1.57079,0.00003,-0.14511,-0.38001,0.03633,,,,,,,,,,,,,,,,,,,,,,,,,,0,0,0,0,0
4.7259,1783190286.8406,1,1,1.0000,0.0000,1.44679,0.19310,-2.78727,1.02332,1.57079,0.00003,-0.14511,-0.38001,0.03631,,,,,,,,,,,,,,,,,,,,,,,,,,0,0,0,0,0
4.7264,1783190286.8410,1,1,1.0000,0.0000,1.44679,0.19310,-2.78727,1.02332,1.57079,0.00003,-0.14511,-0.38001,0.03631,,,,,,,,,,,,,,,,,,,,,,,,,,0,0,0,0,0
4.7447,1783190286.8594,1,1,1.0000,0.0000,1.44679,0.19284,-2.78733,1.02365,1.57079,0.00003,-0.14511,-0.38001,0.03625,,,,,,,,,,,,,,,,,,,,,,,,,,0,0,0,0,0
4.7510,1783190286.8657,1,1,1.0000,0.0000,1.44679,0.19279,-2.78734,1.02370,1.57079,0.00003,-0.14511,-0.38001,0.03624,,,,,,,,,,,,,,,,,,,,,,,,,,0,0,0,0,0
4.7613,1783190286.8760,1,1,1.0000,0.0000,1.44679,0.19268,-2.78736,1.02384,1.57079,0.00003,-0.14511,-0.38001,0.03621,,,,,,,,,,,,,,,,,,,,,,,,,,0,0,0,0,0
4.7718,1783190286.8864,1,1,1.0000,0.0000,1.44679,0.19246,-2.78741,1.02411,1.57079,0.00003,-0.14511,-0.38001,0.03616,,,,,,,,,,,,,,,,,,,,,,,,,,0,0,0,0,0
4.7799,1783190286.8946,1,1,1.0000,0.0000,1.44679,0.19245,-2.78741,1.02412,1.57079,0.00003,-0.14511,-0.38001,0.03615,,,,,,,,,,,,,,,,,,,,,,,,,,0,0,0,0,0
4.7950,1783190286.9097,1,1,1.0000,0.0000,1.44679,0.19223,-2.78746,1.02440,1.57079,0.00003,-0.14511,-0.38001,0.03610,,,,,,,,,,,,,,,,,,,,,,,,,,0,0,0,0,0
4.8054,1783190286.9201,1,1,1.0000,0.0000,1.44679,0.19208,-2.78750,1.02457,1.57079,0.00003,-0.14511,-0.38001,0.03606,,,,,,,,,,,,,,,,,,,,,,,,,,0,0,0,0,0
4.8113,1783190286.9259,1,1,1.0000,0.0000,1.44679,0.19208,-2.78750,1.02459,1.57079,0.00003,-0.14511,-0.38001,0.03606,,,,,,,,,,,,,,,,,,,,,,,,,,0,0,0,0,0
4.8117,1783190286.9263,1,1,1.0000,0.0000,1.44679,0.19208,-2.78750,1.02459,1.57079,0.00003,-0.14511,-0.38001,0.03606,,,,,,,,,,,,,,,,,,,,,,,,,,0,0,0,0,0
4.8216,1783190286.9363,1,1,1.0000,0.0000,1.44679,0.19201,-2.78751,1.02466,1.57079,0.00003,-0.14511,-0.38001,0.03605,,,,,,,,,,,,,,,,,,,,,,,,,,0,0,0,0,0
4.8301,1783190286.9448,1,1,1.0000,0.0000,1.44679,0.19191,-2.78754,1.02480,1.57079,0.00003,-0.14511,-0.38001,0.03602,,,,,,,,,,,,,,,,,,,,,,,,,,0,0,0,0,0
4.8411,1783190286.9558,1,1,1.0000,0.0000,1.44679,0.19183,-2.78756,1.02489,1.57079,0.00003,-0.14511,-0.38001,0.03600,,,,,,,,,,,,,,,,,,,,,,,,,,0,0,0,0,0
4.8512,1783190286.9659,1,1,1.0000,0.0000,1.44679,0.19167,-2.78759,1.02508,1.57079,0.00003,-0.14511,-0.38001,0.03596,,,,,,,,,,,,,,,,,,,,,,,,,,0,0,0,0,0
4.8618,1783190286.9764,1,1,1.0000,0.0000,1.44679,0.19153,-2.78763,1.02526,1.57079,0.00003,-0.14511,-0.38001,0.03593,,,,,,,,,,,,,,,,,,,,,,,,,,0,0,0,0,0
4.8744,1783190286.9890,1,1,1.0000,0.0000,1.44679,0.19144,-2.78764,1.02536,1.57079,0.00003,-0.14511,-0.38001,0.03591,,,,,,,,,,,,,,,,,,,,,,,,,,0,0,0,0,0
4.8799,1783190286.9946,1,1,1.0000,0.0000,1.44679,0.19138,-2.78766,1.02544,1.57079,0.00003,-0.14511,-0.38001,0.03589,,,,,,,,,,,,,,,,,,,,,,,,,,0,0,0,0,0
4.8942,1783190287.0088,1,1,1.0000,0.0000,1.44679,0.19121,-2.78770,1.02564,1.57079,0.00003,-0.14511,-0.38001,0.03585,,,,,,,,,,,,,,,,,,,,,,,,,,0,0,0,0,0
4.9006,1783190287.0152,1,1,1.0000,0.0000,1.44679,0.19120,-2.78770,1.02566,1.57079,0.00003,-0.14511,-0.38001,0.03585,,,,,,,,,,,,,,,,,,,,,,,,,,0,0,0,0,0
4.9104,1783190287.0251,1,1,1.0000,0.0000,1.44679,0.19111,-2.78772,1.02577,1.57079,0.00003,-0.14511,-0.38001,0.03582,,,,,,,,,,,,,,,,,,,,,,,,,,0,0,0,0,0
4.9234,1783190287.0380,1,1,1.0000,0.0000,1.44679,0.19082,-2.78779,1.02612,1.57079,0.00003,-0.14511,-0.38001,0.03575,,,,,,,,,,,,,,,,,,,,,,,,,,0,0,0,0,0
4.9298,1783190287.0444,1,1,1.0000,0.0000,1.44679,0.19082,-2.78779,1.02612,1.57079,0.00003,-0.14511,-0.38001,0.03575,,,,,,,,,,,,,,,,,,,,,,,,,,0,0,0,0,0
4.9423,1783190287.0569,1,1,1.0000,0.0000,1.44679,0.19075,-2.78780,1.02621,1.57079,0.00003,-0.14511,-0.38001,0.03574,,,,,,,,,,,,,,,,,,,,,,,,,,0,0,0,0,0
4.9538,1783190287.0684,1,1,1.0000,0.0000,1.44679,0.19058,-2.78784,1.02642,1.57079,0.00003,-0.14511,-0.38001,0.03569,,,,,,,,,,,,,,,,,,,,,,,,,,0,0,0,0,0
4.9602,1783190287.0748,1,1,1.0000,0.0000,1.44679,0.19057,-2.78784,1.02643,1.57079,0.00003,-0.14511,-0.38001,0.03569,,,,,,,,,,,,,,,,,,,,,,,,,,0,0,0,0,0
4.9710,1783190287.0857,1,1,1.0000,0.0000,1.44679,0.19042,-2.78788,1.02662,1.57079,0.00003,-0.14511,-0.38001,0.03565,,,,,,,,,,,,,,,,,,,,,,,,,,0,0,0,0,0
4.9841,1783190287.0988,1,1,1.0000,0.0000,1.44679,0.19019,-2.78793,1.02689,1.57079,0.00003,-0.14511,-0.38001,0.03560,,,,,,,,,,,,,,,,,,,,,,,,,,0,0,0,0,0
5.0024,1783190287.1170,1,1,1.0000,0.0000,1.44679,0.19012,-2.78795,1.02698,1.57079,0.00003,-0.14511,-0.38001,0.03558,,,,,,,,,,,,,,,,,,,,,,,,,,0,0,0,0,0
5.0032,1783190287.1178,1,1,1.0000,0.0000,1.44679,0.19007,-2.78796,1.02704,1.57079,0.00003,-0.14511,-0.38001,0.03557,,,,,,,,,,,,,,,,,,,,,,,,,,0,0,0,0,0
5.0098,1783190287.1244,1,1,1.0000,0.0000,1.44679,0.19002,-2.78797,1.02711,1.57079,0.00003,-0.14511,-0.38001,0.03555,,,,,,,,,,,,,,,,,,,,,,,,,,0,0,0,0,0
5.0212,1783190287.1359,1,1,1.0000,0.0000,1.44679,0.18994,-2.78799,1.02721,1.57079,0.00003,-0.14511,-0.38001,0.03554,,,,,,,,,,,,,,,,,,,,,,,,,,0,0,0,0,0
5.0310,1783190287.1457,1,1,1.0000,0.0000,1.44679,0.18979,-2.78802,1.02740,1.57079,0.00003,-0.14511,-0.38001,0.03550,,,,,,,,,,,,,,,,,,,,,,,,,,0,0,0,0,0
5.0314,1783190287.1460,1,1,1.0000,0.0000,1.44679,0.18979,-2.78802,1.02740,1.57079,0.00003,-0.14511,-0.38001,0.03550,,,,,,,,,,,,,,,,,,,,,,,,,,0,0,0,0,0
5.0479,1783190287.1626,1,1,1.0000,0.0000,1.44679,0.18956,-2.78807,1.02767,1.57079,0.00003,-0.14511,-0.38001,0.03544,,,,,,,,,,,,,,,,,,,,,,,,,,0,0,0,0,0
5.0505,1783190287.1652,1,1,1.0000,0.0000,1.44679,0.18956,-2.78807,1.02767,1.57079,0.00003,-0.14511,-0.38001,0.03544,,,,,,,,,,,,,,,,,,,,,,,,,,0,0,0,0,0
5.0510,1783190287.1657,1,1,1.0000,0.0000,1.44679,0.18956,-2.78807,1.02768,1.57079,0.00003,-0.14511,-0.38001,0.03544,,,,,,,,,,,,,,,,,,,,,,,,,,0,0,0,0,0
5.0601,1783190287.1747,1,1,1.0000,0.0000,1.44679,0.18949,-2.78809,1.02776,1.57079,0.00003,-0.14511,-0.38001,0.03543,,,,,,,,,,,,,,,,,,,,,,,,,,0,0,0,0,0
5.0762,1783190287.1909,1,1,1.0000,0.0000,1.44679,0.18932,-2.78813,1.02796,1.57079,0.00003,-0.14511,-0.38001,0.03538,,,,,,,,,,,,,,,,,,,,,,,,,,0,0,0,0,0
5.0809,1783190287.1955,1,1,1.0000,0.0000,1.44679,0.18931,-2.78813,1.02798,1.57079,0.00003,-0.14511,-0.38001,0.03538,,,,,,,,,,,,,,,,,,,,,,,,,,0,0,0,0,0
5.0979,1783190287.2126,1,1,1.0000,0.0000,1.44679,0.18908,-2.78818,1.02826,1.57079,0.00003,-0.14511,-0.38001,0.03532,,,,,,,,,,,,,,,,,,,,,,,,,,0,0,0,0,0
5.0984,1783190287.2131,1,1,1.0000,0.0000,1.44679,0.18908,-2.78818,1.02826,1.57079,0.00003,-0.14511,-0.38001,0.03532,,,,,,,,,,,,,,,,,,,,,,,,,,0,0,0,0,0
5.1051,1783190287.2197,1,1,1.0000,0.0000,1.44679,0.18893,-2.78822,1.02844,1.57079,0.00003,-0.14511,-0.38001,0.03529,,,,,,,,,,,,,,,,,,,,,,,,,,0,0,0,0,0
5.1055,1783190287.2202,1,1,1.0000,0.0000,1.44679,0.18893,-2.78822,1.02844,1.57079,0.00003,-0.14511,-0.38001,0.03529,,,,,,,,,,,,,,,,,,,,,,,,,,0,0,0,0,0
5.1142,1783190287.2289,1,1,1.0000,0.0000,1.44679,0.18892,-2.78822,1.02845,1.57079,0.00003,-0.14511,-0.38001,0.03529,,,,,,,,,,,,,,,,,,,,,,,,,,0,0,0,0,0
5.1147,1783190287.2294,1,1,1.0000,0.0000,1.44679,0.18892,-2.78822,1.02845,1.57079,0.00003,-0.14511,-0.38001,0.03529,,,,,,,,,,,,,,,,,,,,,,,,,,0,0,0,0,0
5.1237,1783190287.2384,1,1,1.0000,0.0000,1.44679,0.18881,-2.78824,1.02859,1.57079,0.00003,-0.14511,-0.38001,0.03526,,,,,,,,,,,,,,,,,,,,,,,,,,0,0,0,0,0
5.1351,1783190287.2498,1,1,1.0000,0.0000,1.44679,0.18869,-2.78827,1.02874,1.57079,0.00003,-0.14511,-0.38001,0.03523,,,,,,,,,,,,,,,,,,,,,,,,,,0,0,0,0,0
5.1519,1783190287.2666,1,1,1.0000,0.0000,1.44679,0.18852,-2.78831,1.02894,1.57079,0.00003,-0.14511,-0.38001,0.03519,,,,,,,,,,,,,,,,,,,,,,,,,,0,0,0,0,0
5.1545,1783190287.2692,1,1,1.0000,0.0000,1.44679,0.18852,-2.78831,1.02894,1.57079,0.00003,-0.14511,-0.38001,0.03519,,,,,,,,,,,,,,,,,,,,,,,,,,0,0,0,0,0
5.1600,1783190287.2747,1,1,1.0000,0.0000,1.44679,0.18837,-2.78834,1.02913,1.57079,0.00003,-0.14511,-0.38001,0.03515,,,,,,,,,,,,,,,,,,,,,,,,,,0,0,0,0,0
5.1603,1783190287.2749,1,1,1.0000,0.0000,1.44679,0.18837,-2.78834,1.02913,1.57079,0.00003,-0.14511,-0.38001,0.03515,,,,,,,,,,,,,,,,,,,,,,,,,,0,0,0,0,0
5.1698,1783190287.2844,1,1,1.0000,0.0000,1.44679,0.18830,-2.78836,1.02922,1.57079,0.00003,-0.14511,-0.38001,0.03513,,,,,,,,,,,,,,,,,,,,,,,,,,0,0,0,0,0
5.1816,1783190287.2963,1,1,1.0000,0.0000,1.44679,0.18820,-2.78838,1.02934,1.57079,0.00003,-0.14511,-0.38001,0.03511,,,,,,,,,,,,,,,,,,,,,,,,,,0,0,0,0,0
5.1904,1783190287.3051,1,1,1.0000,0.0000,1.44679,0.18807,-2.78841,1.02950,1.57079,0.00004,-0.14511,-0.38001,0.03508,,,,,,,,,,,,,,,,,,,,,,,,,,0,0,0,0,0
5.1909,1783190287.3056,1,1,1.0000,0.0000,1.44679,0.18799,-2.78843,1.02960,1.57079,0.00004,-0.14511,-0.38001,0.03506,,,,,,,,,,,,,,,,,,,,,,,,,,0,0,0,0,0
5.2075,1783190287.3222,1,1,1.0000,0.0000,1.44679,0.18789,-2.78845,1.02972,1.57079,0.00004,-0.14511,-0.38001,0.03503,,,,,,,,,,,,,,,,,,,,,,,,,,0,0,0,0,0
5.2118,1783190287.3265,1,1,1.0000,0.0000,1.44679,0.18783,-2.78846,1.02979,1.57079,0.00004,-0.14511,-0.38001,0.03502,,,,,,,,,,,,,,,,,,,,,,,,,,0,0,0,0,0
5.2214,1783190287.3360,1,1,1.0000,0.0000,1.44679,0.18769,-2.78850,1.02997,1.57079,0.00004,-0.14511,-0.38001,0.03498,,,,,,,,,,,,,,,,,,,,,,,,,,0,0,0,0,0
