Martins-Lucaas/twinforge/sensors/Data/20260704_152234__samples.csv
t_rel_s,t_unix,cycle,phase,setpoint_n,force_net_n,q1,q2,q3,q4,q5,q6,tcp_x,tcp_y,tcp_z,taxel_0,taxel_1,taxel_2,taxel_3,taxel_4,taxel_5,taxel_6,taxel_7,taxel_8,taxel_9,taxel_10,taxel_11,taxel_12,taxel_13,taxel_14,taxel_15,taxel_16,taxel_17,taxel_18,taxel_19,taxel_20,taxel_21,taxel_22,taxel_23,taxel_24,n_RA,n_SA,cn_mm,cn_ra,cn_sa
0.0119,1783189354.2223,1,0,1.0000,0.0000,1.44682,0.23328,-2.77748,0.97337,1.57080,-0.00000,-0.14512,-0.38003,0.04653,,,,,,,,,,,,,,,,,,,,,,,,,,0,0,0,0,0
0.0171,1783189354.2275,1,0,1.0000,0.0000,1.44682,0.23328,-2.77748,0.97337,1.57080,-0.00000,-0.14512,-0.38003,0.04653,,,,,,,,,,,,,,,,,,,,,,,,,,0,0,0,0,0
0.0350,1783189354.2454,1,0,1.0000,0.0000,1.44682,0.23328,-2.77748,0.97337,1.57080,-0.00000,-0.14512,-0.38003,0.04653,,,,,,,,,,,,,,,,,,,,,,,,,,0,0,0,0,0
0.0367,1783189354.2471,1,0,1.0000,0.0000,1.44682,0.23328,-2.77748,0.97337,1.57080,-0.00000,-0.14512,-0.38003,0.04653,,,,,,,,,,,,,,,,,,,,,,,,,,0,0,0,0,0
0.0371,1783189354.2475,1,0,1.0000,0.0000,1.44682,0.23328,-2.77748,0.97337,1.57080,-0.00000,-0.14512,-0.38003,0.04653,,,,,,,,,,,,,,,,,,,,,,,,,,0,0,0,0,0
0.0469,1783189354.2573,1,0,1.0000,0.0000,1.44682,0.23328,-2.77748,0.97337,1.57080,-0.00000,-0.14512,-0.38003,0.04653,,,,,,,,,,,,,,,,,,,,,,,,,,0,0,0,0,0
0.0571,1783189354.2674,1,0,1.0000,0.0000,1.44682,0.23328,-2.77748,0.97337,1.57080,0.00000,-0.14512,-0.38003,0.04653,,,,,,,,,,,,,,,,,,,,,,,,,,0,0,0,0,0
0.0678,1783189354.2781,1,0,1.0000,0.0000,1.44682,0.23328,-2.77748,0.97337,1.57080,0.00000,-0.14512,-0.38003,0.04653,,,,,,,,,,,,,,,,,,,,,,,,,,0,0,0,0,0
0.0796,1783189354.2900,1,0,1.0000,0.0000,1.44682,0.23328,-2.77748,0.97337,1.57080,0.00000,-0.14512,-0.38003,0.04653,,,,,,,,,,,,,,,,,,,,,,,,,,0,0,0,0,0
0.0870,1783189354.2973,1,0,1.0000,0.0000,1.44682,0.23328,-2.77748,0.97337,1.57080,-0.00000,-0.14512,-0.38003,0.04653,,,,,,,,,,,,,,,,,,,,,,,,,,0,0,0,0,0
0.0969,1783189354.3072,1,0,1.0000,0.0000,1.44682,0.23328,-2.77748,0.97337,1.57080,0.00000,-0.14512,-0.38003,0.04653,,,,,,,,,,,,,,,,,,,,,,,,,,0,0,0,0,0
0.1070,1783189354.3173,1,0,1.0000,0.0000,1.44682,0.23328,-2.77748,0.97337,1.57080,-0.00000,-0.14512,-0.38003,0.04653,,,,,,,,,,,,,,,,,,,,,,,,,,0,0,0,0,0
0.1181,1783189354.3284,1,0,1.0000,0.0000,1.44682,0.23328,-2.77748,0.97337,1.57080,-0.00000,-0.14512,-0.38003,0.04653,,,,,,,,,,,,,,,,,,,,,,,,,,0,0,0,0,0
0.1184,1783189354.3288,1,0,1.0000,0.0000,1.44682,0.23328,-2.77748,0.97337,1.57080,-0.00000,-0.14512,-0.38003,0.04653,,,,,,,,,,,,,,,,,,,,,,,,,,0,0,0,0,0
0.1669,1783189354.3772,1,0,1.0000,0.0000,1.44682,0.23328,-2.77748,0.97337,1.57080,0.00000,-0.14512,-0.38003,0.04653,,,,,,,,,,,,,,,,,,,,,,,,,,0,0,0,0,0
0.1700,1783189354.3803,1,0,1.0000,0.0000,1.44682,0.23328,-2.77748,0.97337,1.57080,-0.00000,-0.14512,-0.38003,0.04653,,,,,,,,,,,,,,,,,,,,,,,,,,0,0,0,0,0
0.1704,1783189354.3807,1,0,1.0000,0.0000,1.44682,0.23328,-2.77748,0.97337,1.57080,-0.00000,-0.14512,-0.38003,0.04653,,,,,,,,,,,,,,,,,,,,,,,,,,0,0,0,0,0
0.1708,1783189354.3811,1,0,1.0000,0.0000,1.44682,0.23328,-2.77748,0.97337,1.57080,-0.00000,-0.14512,-0.38003,0.04653,,,,,,,,,,,,,,,,,,,,,,,,,,0,0,0,0,0
0.1829,1783189354.3932,1,0,1.0000,0.0000,1.44682,0.23328,-2.77748,0.97337,1.57080,0.00000,-0.14512,-0.38003,0.04653,,,,,,,,,,,,,,,,,,,,,,,,,,0,0,0,0,0
0.1967,1783189354.4070,1,0,1.0000,0.0000,1.44682,0.23328,-2.77748,0.97337,1.57080,0.00000,-0.14512,-0.38003,0.04653,,,,,,,,,,,,,,,,,,,,,,,,,,0,0,0,0,0
0.2013,1783189354.4117,1,0,1.0000,0.0000,1.44682,0.23328,-2.77748,0.97337,1.57080,0.00000,-0.14512,-0.38003,0.04653,,,,,,,,,,,,,,,,,,,,,,,,,,0,0,0,0,0
0.2020,1783189354.4123,1,0,1.0000,0.0000,1.44682,0.23328,-2.77748,0.97337,1.57080,0.00000,-0.14512,-0.38003,0.04653,,,,,,,,,,,,,,,,,,,,,,,,,,0,0,0,0,0
0.2070,1783189354.4173,1,0,1.0000,0.0000,1.44682,0.23328,-2.77748,0.97337,1.57080,0.00000,-0.14512,-0.38003,0.04653,,,,,,,,,,,,,,,,,,,,,,,,,,0,0,0,0,0
0.2168,1783189354.4271,1,0,1.0000,0.0000,1.44682,0.23328,-2.77748,0.97337,1.57080,0.00000,-0.14512,-0.38003,0.04653,,,,,,,,,,,,,,,,,,,,,,,,,,0,0,0,0,0
0.2430,1783189354.4534,1,0,1.0000,0.0000,1.44682,0.23328,-2.77748,0.97337,1.57080,0.00000,-0.14512,-0.38003,0.04653,,,,,,,,,,,,,,,,,,,,,,,,,,0,0,0,0,0
0.2433,1783189354.4536,1,0,1.0000,0.0000,1.44682,0.23328,-2.77748,0.97337,1.57080,0.00000,-0.14512,-0.38003,0.04653,,,,,,,,,,,,,,,,,,,,,,,,,,0,0,0,0,0
0.2464,1783189354.4567,1,0,1.0000,0.0000,1.44682,0.23328,-2.77748,0.97337,1.57080,0.00000,-0.14512,-0.38003,0.04653,,,,,,,,,,,,,,,,,,,,,,,,,,0,0,0,0,0
0.2467,1783189354.4570,1,0,1.0000,0.0000,1.44682,0.23328,-2.77748,0.97337,1.57080,0.00000,-0.14512,-0.38003,0.04653,,,,,,,,,,,,,,,,,,,,,,,,,,0,0,0,0,0
0.2570,1783189354.4673,1,0,1.0000,0.0000,1.44682,0.23328,-2.77748,0.97337,1.57080,0.00000,-0.14512,-0.38003,0.04653,,,,,,,,,,,,,,,,,,,,,,,,,,0,0,0,0,0
0.3099,1783189354.5202,1,0,1.0000,0.0000,1.44682,0.23328,-2.77748,0.97337,1.57080,0.00000,-0.14512,-0.38003,0.04653,,,,,,,,,,,,,,,,,,,,,,,,,,0,0,0,0,0
0.3118,1783189354.5222,1,0,1.0000,0.0000,1.44682,0.23328,-2.77748,0.97337,1.57080,0.00000,-0.14512,-0.38003,0.04653,,,,,,,,,,,,,,,,,,,,,,,,,,0,0,0,0,0
0.3122,1783189354.5225,1,0,1.0000,0.0000,1.44682,0.23328,-2.77748,0.97337,1.57080,0.00000,-0.14512,-0.38003,0.04653,,,,,,,,,,,,,,,,,,,,,,,,,,0,0,0,0,0
0.3126,1783189354.5229,1,0,1.0000,0.0000,1.44682,0.23328,-2.77748,0.97337,1.57080,0.00000,-0.14512,-0.38003,0.04653,,,,,,,,,,,,,,,,,,,,,,,,,,0,0,0,0,0
0.3129,1783189354.5232,1,0,1.0000,0.0000,1.44682,0.23328,-2.77748,0.97337,1.57080,0.00000,-0.14512,-0.38003,0.04653,,,,,,,,,,,,,,,,,,,,,,,,,,0,0,0,0,0
0.3227,1783189354.5331,1,0,1.0000,0.0000,1.44682,0.23328,-2.77748,0.97337,1.57080,0.00000,-0.14512,-0.38003,0.04653,,,,,,,,,,,,,,,,,,,,,,,,,,0,0,0,0,0
0.3396,1783189354.5499,1,0,1.0000,0.0000,1.44682,0.23328,-2.77748,0.97337,1.57080,0.00000,-0.14512,-0.38003,0.04653,,,,,,,,,,,,,,,,,,,,,,,,,,0,0,0,0,0
0.3448,1783189354.5551,1,0,1.0000,0.0000,1.44682,0.23328,-2.77748,0.97337,1.57080,0.00000,-0.14512,-0.38003,0.04653,,,,,,,,,,,,,,,,,,,,,,,,,,0,0,0,0,0
0.3509,1783189354.5612,1,0,1.0000,0.0000,1.44682,0.23328,-2.77748,0.97337,1.57080,0.00000,-0.14512,-0.38003,0.04653,,,,,,,,,,,,,,,,,,,,,,,,,,0,0,0,0,0
0.3512,1783189354.5616,1,0,1.0000,0.0000,1.44682,0.23328,-2.77748,0.97337,1.57080,0.00000,-0.14512,-0.38003,0.04653,,,,,,,,,,,,,,,,,,,,,,,,,,0,0,0,0,0
0.3588,1783189354.5692,1,0,1.0000,0.0000,1.44682,0.23328,-2.77748,0.97337,1.57080,0.00000,-0.14512,-0.38003,0.04653,,,,,,,,,,,,,,,,,,,,,,,,,,0,0,0,0,0
0.3690,1783189354.5793,1,0,1.0000,0.0000,1.44682,0.23328,-2.77748,0.97337,1.57080,0.00000,-0.14512,-0.38003,0.04653,,,,,,,,,,,,,,,,,,,,,,,,,,0,0,0,0,0
0.3778,1783189354.5882,1,0,1.0000,0.0000,1.44682,0.23328,-2.77748,0.97337,1.57080,0.00000,-0.14512,-0.38003,0.04653,,,,,,,,,,,,,,,,,,,,,,,,,,0,0,0,0,0
0.3898,1783189354.6001,1,0,1.0000,0.0000,1.44682,0.23328,-2.77748,0.97337,1.57080,0.00000,-0.14512,-0.38003,0.04653,,,,,,,,,,,,,,,,,,,,,,,,,,0,0,0,0,0
0.4010,1783189354.6113,1,0,1.0000,0.0000,1.44682,0.23328,-2.77748,0.97337,1.57080,0.00000,-0.14512,-0.38003,0.04653,,,,,,,,,,,,,,,,,,,,,,,,,,0,0,0,0,0
0.4128,1783189354.6232,1,0,1.0000,0.0000,1.44682,0.23328,-2.77748,0.97337,1.57080,0.00000,-0.14512,-0.38003,0.04653,,,,,,,,,,,,,,,,,,,,,,,,,,0,0,0,0,0
0.4133,1783189354.6236,1,0,1.0000,0.0000,1.44682,0.23328,-2.77748,0.97337,1.57080,0.00000,-0.14512,-0.38003,0.04653,,,,,,,,,,,,,,,,,,,,,,,,,,0,0,0,0,0
0.4214,1783189354.6317,1,0,1.0000,0.0000,1.44682,0.23328,-2.77748,0.97337,1.57080,0.00000,-0.14512,-0.38003,0.04653,,,,,,,,,,,,,,,,,,,,,,,,,,0,0,0,0,0
0.4277,1783189354.6380,1,0,1.0000,0.0000,1.44682,0.23328,-2.77748,0.97337,1.57080,0.00000,-0.14512,-0.38003,0.04653,,,,,,,,,,,,,,,,,,,,,,,,,,0,0,0,0,0
0.4388,1783189354.6491,1,0,1.0000,0.0000,1.44682,0.23328,-2.77748,0.97337,1.57080,0.00000,-0.14512,-0.38003,0.04653,,,,,,,,,,,,,,,,,,,,,,,,,,0,0,0,0,0
0.4390,1783189354.6494,1,0,1.0000,0.0000,1.44682,0.23328,-2.77748,0.97337,1.57080,0.00000,-0.14512,-0.38003,0.04653,,,,,,,,,,,,,,,,,,,,,,,,,,0,0,0,0,0
0.4469,1783189354.6573,1,0,1.0000,0.0000,1.44682,0.23328,-2.77748,0.97337,1.57080,0.00000,-0.14512,-0.38003,0.04653,,,,,,,,,,,,,,,,,,,,,,,,,,0,0,0,0,0
0.4472,1783189354.6576,1,0,1.0000,0.0000,1.44682,0.23328,-2.77748,0.97337,1.57080,0.00000,-0.14512,-0.38003,0.04653,,,,,,,,,,,,,,,,,,,,,,,,,,0,0,0,0,0
0.4614,1783189354.6717,1,0,1.0000,0.0000,1.44682,0.23328,-2.77748,0.97337,1.57080,0.00000,-0.14512,-0.38003,0.04653,,,,,,,,,,,,,,,,,,,,,,,,,,0,0,0,0,0
0.4691,1783189354.6795,1,0,1.0000,0.0000,1.44682,0.23328,-2.77748,0.97337,1.57080,0.00000,-0.14512,-0.38003,0.04653,,,,,,,,,,,,,,,,,,,,,,,,,,0,0,0,0,0
0.4698,1783189354.6802,1,0,1.0000,0.0000,1.44682,0.23328,-2.77748,0.97337,1.57080,0.00000,-0.14512,-0.38003,0.04653,,,,,,,,,,,,,,,,,,,,,,,,,,0,0,0,0,0
0.4774,1783189354.6877,1,0,1.0000,0.0000,1.44682,0.23328,-2.77748,0.97337,1.57080,0.00000,-0.14512,-0.38003,0.04653,,,,,,,,,,,,,,,,,,,,,,,,,,0,0,0,0,0
0.4780,1783189354.6883,1,0,1.0000,0.0000,1.44682,0.23328,-2.77748,0.97337,1.57080,0.00000,-0.14512,-0.38003,0.04653,,,,,,,,,,,,,,,,,,,,,,,,,,0,0,0,0,0
0.4890,1783189354.6993,1,0,1.0000,0.0000,1.44682,0.23328,-2.77748,0.97337,1.57080,0.00000,-0.14512,-0.38003,0.04653,,,,,,,,,,,,,,,,,,,,,,,,,,0,0,0,0,0
0.4971,1783189354.7075,1,0,1.0000,0.0000,1.44682,0.23328,-2.77748,0.97337,1.57080,0.00000,-0.14512,-0.38003,0.04653,,,,,,,,,,,,,,,,,,,,,,,,,,0,0,0,0,0
0.5071,1783189354.7175,1,0,1.0000,0.0000,1.44682,0.23328,-2.77748,0.97337,1.57080,0.00000,-0.14512,-0.38003,0.04653,,,,,,,,,,,,,,,,,,,,,,,,,,0,0,0,0,0
0.5170,1783189354.7273,1,0,1.0000,0.0000,1.44682,0.23328,-2.77748,0.97337,1.57080,0.00000,-0.14512,-0.38003,0.04653,,,,,,,,,,,,,,,,,,,,,,,,,,0,0,0,0,0
0.5287,1783189354.7390,1,0,1.0000,0.0000,1.44682,0.23328,-2.77748,0.97337,1.57080,0.00000,-0.14512,-0.38003,0.04653,,,,,,,,,,,,,,,,,,,,,,,,,,0,0,0,0,0
0.5517,1783189354.7620,1,0,1.0000,0.0000,1.44682,0.23328,-2.77748,0.97337,1.57080,0.00000,-0.14512,-0.38003,0.04653,,,,,,,,,,,,,,,,,,,,,,,,,,0,0,0,0,0
0.5524,1783189354.7627,1,0,1.0000,0.0000,1.44682,0.23328,-2.77748,0.97337,1.57080,0.00000,-0.14512,-0.38003,0.04653,,,,,,,,,,,,,,,,,,,,,,,,,,0,0,0,0,0
0.5527,1783189354.7630,1,0,1.0000,0.0000,1.44682,0.23328,-2.77748,0.97337,1.57080,0.00000,-0.14512,-0.38003,0.04653,,,,,,,,,,,,,,,,,,,,,,,,,,0,0,0,0,0
0.5568,1783189354.7672,1,0,1.0000,0.0000,1.44682,0.23328,-2.77748,0.97337,1.57080,0.00000,-0.14512,-0.38003,0.04653,,,,,,,,,,,,,,,,,,,,,,,,,,0,0,0,0,0
0.5686,1783189354.7789,1,0,1.0000,0.0000,1.44682,0.23328,-2.77748,0.97337,1.57080,0.00000,-0.14512,-0.38003,0.04653,,,,,,,,,,,,,,,,,,,,,,,,,,0,0,0,0,0
0.5804,1783189354.7907,1,0,1.0000,0.0000,1.44682,0.23328,-2.77748,0.97337,1.57080,0.00000,-0.14512,-0.38003,0.04653,,,,,,,,,,,,,,,,,,,,,,,,,,0,0,0,0,0
0.5914,1783189354.8017,1,0,1.0000,0.0000,1.44682,0.23328,-2.77748,0.97337,1.57080,0.00000,-0.14512,-0.38003,0.04653,,,,,,,,,,,,,,,,,,,,,,,,,,0,0,0,0,0
0.5990,1783189354.8093,1,0,1.0000,0.0000,1.44682,0.23328,-2.77748,0.97337,1.57080,0.00000,-0.14512,-0.38003,0.04653,,,,,,,,,,,,,,,,,,,,,,,,,,0,0,0,0,0
0.5993,1783189354.8097,1,0,1.0000,0.0000,1.44682,0.23328,-2.77748,0.97337,1.57080,0.00000,-0.14512,-0.38003,0.04653,,,,,,,,,,,,,,,,,,,,,,,,,,0,0,0,0,0
0.6071,1783189354.8175,1,0,1.0000,0.0000,1.44682,0.23328,-2.77748,0.97337,1.57080,0.00000,-0.14512,-0.38003,0.04653,,,,,,,,,,,,,,,,,,,,,,,,,,0,0,0,0,0
0.6210,1783189354.8314,1,0,1.0000,0.0000,1.44682,0.23328,-2.77748,0.97337,1.57080,0.00000,-0.14512,-0.38003,0.04653,,,,,,,,,,,,,,,,,,,,,,,,,,0,0,0,0,0
0.6213,1783189354.8316,1,0,1.0000,0.0000,1.44682,0.23328,-2.77748,0.97337,1.57080,0.00000,-0.14512,-0.38003,0.04653,,,,,,,,,,,,,,,,,,,,,,,,,,0,0,0,0,0
0.6268,1783189354.8372,1,0,1.0000,0.0000,1.44682,0.23328,-2.77748,0.97337,1.57080,0.00000,-0.14512,-0.38003,0.04653,,,,,,,,,,,,,,,,,,,,,,,,,,0,0,0,0,0
0.6376,1783189354.8479,1,0,1.0000,0.0000,1.44682,0.23328,-2.77748,0.97337,1.57080,0.00000,-0.14512,-0.38003,0.04653,,,,,,,,,,,,,,,,,,,,,,,,,,0,0,0,0,0
0.6489,1783189354.8593,1,0,1.0000,0.0000,1.44682,0.23328,-2.77748,0.97337,1.57080,0.00000,-0.14512,-0.38003,0.04653,,,,,,,,,,,,,,,,,,,,,,,,,,0,0,0,0,0
0.6579,1783189354.8683,1,0,1.0000,0.0000,1.44682,0.23328,-2.77748,0.97337,1.57080,0.00000,-0.14512,-0.38003,0.04653,,,,,,,,,,,,,,,,,,,,,,,,,,0,0,0,0,0
0.6735,1783189354.8838,1,0,1.0000,0.0000,1.44682,0.23328,-2.77748,0.97337,1.57080,0.00000,-0.14512,-0.38003,0.04653,,,,,,,,,,,,,,,,,,,,,,,,,,0,0,0,0,0
0.6781,1783189354.8884,1,0,1.0000,0.0000,1.44682,0.23328,-2.77748,0.97337,1.57080,0.00000,-0.14512,-0.38003,0.04653,,,,,,,,,,,,,,,,,,,,,,,,,,0,0,0,0,0
0.6784,1783189354.8888,1,0,1.0000,0.0000,1.44682,0.23328,-2.77748,0.97337,1.57080,0.00000,-0.14512,-0.38003,0.04653,,,,,,,,,,,,,,,,,,,,,,,,,,0,0,0,0,0
0.6975,1783189354.9079,1,0,1.0000,0.0000,1.44682,0.23328,-2.77748,0.97337,1.57080,0.00000,-0.14512,-0.38003,0.04653,,,,,,,,,,,,,,,,,,,,,,,,,,0,0,0,0,0
0.7027,1783189354.9130,1,0,1.0000,0.0000,1.44682,0.23328,-2.77748,0.97337,1.57080,0.00000,-0.14512,-0.38003,0.04653,,,,,,,,,,,,,,,,,,,,,,,,,,0,0,0,0,0
0.7114,1783189354.9217,1,0,1.0000,0.0000,1.44682,0.23328,-2.77748,0.97337,1.57080,0.00000,-0.14512,-0.38003,0.04653,,,,,,,,,,,,,,,,,,,,,,,,,,0,0,0,0,0
0.7186,1783189354.9289,1,0,1.0000,0.0000,1.44682,0.23328,-2.77748,0.97337,1.57080,0.00000,-0.14512,-0.38003,0.04653,,,,,,,,,,,,,,,,,,,,,,,,,,0,0,0,0,0
0.7190,1783189354.9293,1,0,1.0000,0.0000,1.44682,0.23328,-2.77748,0.97337,1.57080,0.00000,-0.14512,-0.38003,0.04653,,,,,,,,,,,,,,,,,,,,,,,,,,0,0,0,0,0
0.7270,1783189354.9373,1,0,1.0000,0.0000,1.44682,0.23328,-2.77748,0.97337,1.57080,0.00000,-0.14512,-0.38003,0.04653,,,,,,,,,,,,,,,,,,,,,,,,,,0,0,0,0,0
0.7488,1783189354.9592,1,1,1.0000,0.0000,1.44682,0.23328,-2.77748,0.97337,1.57080,-0.00000,-0.14512,-0.38003,0.04653,,,,,,,,,,,,,,,,,,,,,,,,,,0,0,0,0,0
0.7511,1783189354.9614,1,1,1.0000,0.0000,1.44682,0.23328,-2.77748,0.97337,1.57080,-0.00000,-0.14512,-0.38003,0.04653,,,,,,,,,,,,,,,,,,,,,,,,,,0,0,0,0,0
0.7592,1783189354.9695,1,1,1.0000,0.0000,1.44682,0.23328,-2.77748,0.97337,1.57080,-0.00000,-0.14512,-0.38003,0.04653,,,,,,,,,,,,,,,,,,,,,,,,,,0,0,0,0,0
0.7667,1783189354.9771,1,1,1.0000,0.0000,1.44682,0.23328,-2.77748,0.97337,1.57080,-0.00000,-0.14512,-0.38003,0.04653,,,,,,,,,,,,,,,,,,,,,,,,,,0,0,0,0,0
0.7671,1783189354.9774,1,1,1.0000,0.0000,1.44682,0.23328,-2.77748,0.97337,1.57080,-0.00000,-0.14512,-0.38003,0.04653,,,,,,,,,,,,,,,,,,,,,,,,,,0,0,0,0,0
0.7782,1783189354.9885,1,1,1.0000,0.0000,1.44682,0.23328,-2.77748,0.97337,1.57080,-0.00000,-0.14512,-0.38003,0.04653,,,,,,,,,,,,,,,,,,,,,,,,,,0,0,0,0,0
0.7930,1783189355.0033,1,1,1.0000,0.0000,1.44682,0.23328,-2.77748,0.97337,1.57080,-0.00000,-0.14512,-0.38003,0.04653,,,,,,,,,,,,,,,,,,,,,,,,,,0,0,0,0,0
0.7978,1783189355.0081,1,1,1.0000,0.0000,1.44682,0.23328,-2.77748,0.97337,1.57080,-0.00000,-0.14512,-0.38003,0.04653,,,,,,,,,,,,,,,,,,,,,,,,,,0,0,0,0,0
0.7986,1783189355.0089,1,1,1.0000,0.0000,1.44682,0.23328,-2.77748,0.97337,1.57080,-0.00000,-0.14512,-0.38003,0.04653,,,,,,,,,,,,,,,,,,,,,,,,,,0,0,0,0,0
0.8107,1783189355.0211,1,1,1.0000,0.0000,1.44682,0.23328,-2.77748,0.97337,1.57080,-0.00000,-0.14512,-0.38003,0.04653,,,,,,,,,,,,,,,,,,,,,,,,,,0,0,0,0,0
0.8203,1783189355.0306,1,1,1.0000,0.0000,1.44682,0.23328,-2.77748,0.97337,1.57080,-0.00000,-0.14512,-0.38003,0.04653,,,,,,,,,,,,,,,,,,,,,,,,,,0,0,0,0,0
0.8283,1783189355.0387,1,1,1.0000,0.0000,1.44682,0.23328,-2.77748,0.97337,1.57080,-0.00000,-0.14512,-0.38003,0.04653,,,,,,,,,,,,,,,,,,,,,,,,,,0,0,0,0,0
0.8370,1783189355.0473,1,1,1.0000,0.0000,1.44682,0.23328,-2.77748,0.97337,1.57080,-0.00000,-0.14512,-0.38003,0.04653,,,,,,,,,,,,,,,,,,,,,,,,,,0,0,0,0,0
0.8509,1783189355.0613,1,1,1.0000,0.0000,1.44682,0.23328,-2.77748,0.97337,1.57080,-0.00000,-0.14512,-0.38003,0.04653,,,,,,,,,,,,,,,,,,,,,,,,,,0,0,0,0,0
0.8566,1783189355.0670,1,1,1.0000,0.0000,1.44682,0.23328,-2.77748,0.97337,1.57080,-0.00000,-0.14512,-0.38003,0.04653,,,,,,,,,,,,,,,,,,,,,,,,,,0,0,0,0,0
0.8571,1783189355.0675,1,1,1.0000,0.0000,1.44682,0.23328,-2.77748,0.97337,1.57080,-0.00000,-0.14512,-0.38003,0.04653,,,,,,,,,,,,,,,,,,,,,,,,,,0,0,0,0,0
0.8670,1783189355.0773,1,1,1.0000,0.0000,1.44682,0.23328,-2.77748,0.97337,1.57080,-0.00000,-0.14512,-0.38003,0.04653,,,,,,,,,,,,,,,,,,,,,,,,,,0,0,0,0,0
0.8797,1783189355.0900,1,1,1.0000,0.0000,1.44682,0.23328,-2.77748,0.97337,1.57080,-0.00000,-0.14512,-0.38003,0.04653,,,,,,,,,,,,,,,,,,,,,,,,,,0,0,0,0,0
0.8878,1783189355.0982,1,1,1.0000,0.0000,1.44682,0.23328,-2.77748,0.97337,1.57080,-0.00000,-0.14512,-0.38003,0.04653,,,,,,,,,,,,,,,,,,,,,,,,,,0,0,0,0,0
0.9021,1783189355.1124,1,1,1.0000,0.0000,1.44682,0.23328,-2.77748,0.97337,1.57080,-0.00000,-0.14512,-0.38003,0.04653,,,,,,,,,,,,,,,,,,,,,,,,,,0,0,0,0,0
0.9024,1783189355.1128,1,1,1.0000,0.0000,1.44682,0.23328,-2.77748,0.97337,1.57080,-0.00000,-0.14512,-0.38003,0.04653,,,,,,,,,,,,,,,,,,,,,,,,,,0,0,0,0,0
0.9074,1783189355.1177,1,1,1.0000,0.0000,1.44682,0.23328,-2.77748,0.97337,1.57080,-0.00000,-0.14512,-0.38003,0.04653,,,,,,,,,,,,,,,,,,,,,,,,,,0,0,0,0,0
0.9170,1783189355.1273,1,1,1.0000,0.0000,1.44682,0.23328,-2.77748,0.97337,1.57080,-0.00000,-0.14512,-0.38003,0.04653,,,,,,,,,,,,,,,,,,,,,,,,,,0,0,0,0,0
0.9316,1783189355.1419,1,1,1.0000,0.0000,1.44682,0.23326,-2.77748,0.97339,1.57080,0.00000,-0.14512,-0.38003,0.04652,,,,,,,,,,,,,,,,,,,,,,,,,,0,0,0,0,0
0.9370,1783189355.1474,1,1,1.0000,0.0000,1.44682,0.23325,-2.77748,0.97340,1.57080,0.00000,-0.14512,-0.38003,0.04652,,,,,,,,,,,,,,,,,,,,,,,,,,0,0,0,0,0
0.9571,1783189355.1674,1,1,1.0000,0.0000,1.44682,0.23322,-2.77749,0.97344,1.57080,0.00000,-0.14512,-0.38003,0.04651,,,,,,,,,,,,,,,,,,,,,,,,,,0,0,0,0,0
0.9592,1783189355.1695,1,1,1.0000,0.0000,1.44682,0.23322,-2.77749,0.97344,1.57080,0.00000,-0.14512,-0.38003,0.04651,,,,,,,,,,,,,,,,,,,,,,,,,,0,0,0,0,0
0.9668,1783189355.1772,1,1,1.0000,0.0000,1.44682,0.23320,-2.77750,0.97346,1.57080,0.00000,-0.14512,-0.38003,0.04651,,,,,,,,,,,,,,,,,,,,,,,,,,0,0,0,0,0
0.9816,1783189355.1919,1,1,1.0000,0.0000,1.44682,0.23318,-2.77750,0.97349,1.57080,0.00000,-0.14512,-0.38003,0.04650,,,,,,,,,,,,,,,,,,,,,,,,,,0,0,0,0,0
0.9905,1783189355.2009,1,1,1.0000,0.0000,1.44682,0.23318,-2.77750,0.97350,1.57080,0.00000,-0.14512,-0.38003,0.04650,,,,,,,,,,,,,,,,,,,,,,,,,,0,0,0,0,0
1.0011,1783189355.2114,1,1,1.0000,0.0000,1.44682,0.23317,-2.77751,0.97351,1.57080,0.00000,-0.14512,-0.38003,0.04650,,,,,,,,,,,,,,,,,,,,,,,,,,0,0,0,0,0
1.0156,1783189355.2260,1,1,1.0000,0.0000,1.44682,0.23315,-2.77751,0.97353,1.57080,0.00000,-0.14512,-0.38003,0.04649,,,,,,,,,,,,,,,,,,,,,,,,,,0,0,0,0,0
1.0206,1783189355.2309,1,1,1.0000,0.0000,1.44682,0.23315,-2.77751,0.97354,1.57080,0.00000,-0.14512,-0.38003,0.04649,,,,,,,,,,,,,,,,,,,,,,,,,,0,0,0,0,0
1.0346,1783189355.2449,1,1,1.0000,0.0000,1.44682,0.23311,-2.77752,0.97358,1.57080,0.00000,-0.14512,-0.38003,0.04648,,,,,,,,,,,,,,,,,,,,,,,,,,0,0,0,0,0
1.0422,1783189355.2525,1,1,1.0000,0.0000,1.44682,0.23311,-2.77752,0.97359,1.57080,0.00000,-0.14512,-0.38003,0.04648,,,,,,,,,,,,,,,,,,,,,,,,,,0,0,0,0,0
1.0424,1783189355.2527,1,1,1.0000,0.0000,1.44682,0.23311,-2.77752,0.97359,1.57080,0.00000,-0.14512,-0.38003,0.04648,,,,,,,,,,,,,,,,,,,,,,,,,,0,0,0,0,0
1.0559,1783189355.2663,1,1,1.0000,0.0000,1.44682,0.23310,-2.77752,0.97360,1.57080,0.00000,-0.14512,-0.38003,0.04648,,,,,,,,,,,,,,,,,,,,,,,,,,0,0,0,0,0
1.0622,1783189355.2726,1,1,1.0000,0.0000,1.44682,0.23308,-2.77753,0.97361,1.57080,0.00000,-0.14512,-0.38003,0.04648,,,,,,,,,,,,,,,,,,,,,,,,,,0,0,0,0,0
1.0626,1783189355.2729,1,1,1.0000,0.0000,1.44682,0.23308,-2.77753,0.97361,1.57080,0.00000,-0.14512,-0.38003,0.04648,,,,,,,,,,,,,,,,,,,,,,,,,,0,0,0,0,0
1.0709,1783189355.2812,1,1,1.0000,0.0000,1.44682,0.23308,-2.77753,0.97362,1.57080,0.00000,-0.14512,-0.38003,0.04648,,,,,,,,,,,,,,,,,,,,,,,,,,0,0,0,0,0
1.0808,1783189355.2912,1,1,1.0000,0.0000,1.44682,0.23307,-2.77753,0.97363,1.57080,0.00000,-0.14512,-0.38003,0.04647,,,,,,,,,,,,,,,,,,,,,,,,,,0,0,0,0,0
1.0922,1783189355.3025,1,1,1.0000,0.0000,1.44682,0.23305,-2.77754,0.97366,1.57080,0.00000,-0.14512,-0.38003,0.04647,,,,,,,,,,,,,,,,,,,,,,,,,,0,0,0,0,0
1.1036,1783189355.3139,1,1,1.0000,0.0000,1.44682,0.23303,-2.77754,0.97368,1.57080,0.00000,-0.14512,-0.38003,0.04646,,,,,,,,,,,,,,,,,,,,,,,,,,0,0,0,0,0
1.1123,1783189355.3227,1,1,1.0000,0.0000,1.44682,0.23303,-2.77754,0.97368,1.57080,0.00000,-0.14512,-0.38003,0.04646,,,,,,,,,,,,,,,,,,,,,,,,,,0,0,0,0,0
1.1247,1783189355.3350,1,1,1.0000,0.0000,1.44682,0.23301,-2.77755,0.97371,1.57080,0.00000,-0.14512,-0.38003,0.04646,,,,,,,,,,,,,,,,,,,,,,,,,,0,0,0,0,0
1.1362,1783189355.3465,1,1,1.0000,0.0000,1.44682,0.23300,-2.77755,0.97372,1.57080,0.00000,-0.14512,-0.38003,0.04646,,,,,,,,,,,,,,,,,,,,,,,,,,0,0,0,0,0
1.1424,1783189355.3527,1,1,1.0000,0.0000,1.44682,0.23299,-2.77755,0.97373,1.57080,0.00000,-0.14512,-0.38003,0.04645,,,,,,,,,,,,,,,,,,,,,,,,,,0,0,0,0,0
1.1618,1783189355.3721,1,1,1.0000,0.0000,1.44682,0.23296,-2.77756,0.97377,1.57080,0.00000,-0.14512,-0.38003,0.04644,,,,,,,,,,,,,,,,,,,,,,,,,,0,0,0,0,0
1.1622,1783189355.3726,1,1,1.0000,0.0000,1.44682,0.23296,-2.77756,0.97377,1.57080,0.00000,-0.14512,-0.38003,0.04644,,,,,,,,,,,,,,,,,,,,,,,,,,0,0,0,0,0
1.1715,1783189355.3818,1,1,1.0000,0.0000,1.44682,0.23295,-2.77756,0.97378,1.57080,0.00000,-0.14512,-0.38003,0.04644,,,,,,,,,,,,,,,,,,,,,,,,,,0,0,0,0,0
1.1903,1783189355.4006,1,1,1.0000,0.0000,1.44682,0.23293,-2.77757,0.97381,1.57080,0.00000,-0.14512,-0.38003,0.04644,,,,,,,,,,,,,,,,,,,,,,,,,,0,0,0,0,0
1.1906,1783189355.4009,1,1,1.0000,0.0000,1.44682,0.23293,-2.77757,0.97381,1.57080,0.00000,-0.14512,-0.38003,0.04644,,,,,,,,,,,,,,,,,,,,,,,,,,0,0,0,0,0
1.1908,1783189355.4011,1,1,1.0000,0.0000,1.44682,0.23293,-2.77757,0.97381,1.57080,0.00000,-0.14512,-0.38003,0.04644,,,,,,,,,,,,,,,,,,,,,,,,,,0,0,0,0,0
1.2035,1783189355.4138,1,1,1.0000,0.0000,1.44682,0.23292,-2.77757,0.97382,1.57080,0.00000,-0.14512,-0.38003,0.04643,,,,,,,,,,,,,,,,,,,,,,,,,,0,0,0,0,0
1.2112,1783189355.4215,1,1,1.0000,0.0000,1.44682,0.23290,-2.77757,0.97384,1.57080,0.00000,-0.14512,-0.38003,0.04643,,,,,,,,,,,,,,,,,,,,,,,,,,0,0,0,0,0
1.2217,1783189355.4320,1,1,1.0000,0.0000,1.44682,0.23288,-2.77758,0.97387,1.57080,0.00000,-0.14512,-0.38003,0.04642,,,,,,,,,,,,,,,,,,,,,,,,,,0,0,0,0,0
1.2310,1783189355.4414,1,1,1.0000,0.0000,1.44682,0.23288,-2.77758,0.97387,1.57080,0.00000,-0.14512,-0.38003,0.04642,,,,,,,,,,,,,,,,,,,,,,,,,,0,0,0,0,0
1.2407,1783189355.4510,1,1,1.0000,0.0000,1.44682,0.23287,-2.77758,0.97388,1.57080,0.00000,-0.14512,-0.38003,0.04642,,,,,,,,,,,,,,,,,,,,,,,,,,0,0,0,0,0
1.2509,1783189355.4613,1,1,1.0000,0.0000,1.44682,0.23285,-2.77759,0.97390,1.57080,0.00000,-0.14512,-0.38003,0.04642,,,,,,,,,,,,,,,,,,,,,,,,,,0,0,0,0,0
1.2627,1783189355.4730,1,1,1.0000,0.0000,1.44682,0.23284,-2.77759,0.97392,1.57080,0.00000,-0.14512,-0.38003,0.04641,,,,,,,,,,,,,,,,,,,,,,,,,,0,0,0,0,0
1.2629,1783189355.4733,1,1,1.0000,0.0000,1.44682,0.23284,-2.77759,0.97392,1.57080,0.00000,-0.14512,-0.38003,0.04641,,,,,,,,,,,,,,,,,,,,,,,,,,0,0,0,0,0
1.2727,1783189355.4831,1,1,1.0000,0.0000,1.44682,0.23283,-2.77759,0.97394,1.57080,0.00000,-0.14512,-0.38003,0.04641,,,,,,,,,,,,,,,,,,,,,,,,,,0,0,0,0,0
1.2825,1783189355.4928,1,1,1.0000,0.0000,1.44682,0.23281,-2.77760,0.97396,1.57080,0.00000,-0.14512,-0.38003,0.04641,,,,,,,,,,,,,,,,,,,,,,,,,,0,0,0,0,0
1.2829,1783189355.4932,1,1,1.0000,0.0000,1.44682,0.23281,-2.77760,0.97396,1.57080,0.00000,-0.14512,-0.38003,0.04641,,,,,,,,,,,,,,,,,,,,,,,,,,0,0,0,0,0
1.2908,1783189355.5011,1,1,1.0000,0.0000,1.44682,0.23280,-2.77760,0.97396,1.57080,0.00000,-0.14512,-0.38003,0.04640,,,,,,,,,,,,,,,,,,,,,,,,,,0,0,0,0,0
1.3050,1783189355.5153,1,1,1.0000,0.0000,1.44682,0.23279,-2.77760,0.97398,1.57080,0.00000,-0.14512,-0.38003,0.04640,,,,,,,,,,,,,,,,,,,,,,,,,,0,0,0,0,0
1.3119,1783189355.5223,1,1,1.0000,0.0000,1.44682,0.23278,-2.77760,0.97399,1.57080,0.00000,-0.14512,-0.38003,0.04640,,,,,,,,,,,,,,,,,,,,,,,,,,0,0,0,0,0
1.3247,1783189355.5350,1,1,1.0000,0.0000,1.44682,0.23277,-2.77761,0.97401,1.57080,0.00000,-0.14512,-0.38003,0.04639,,,,,,,,,,,,,,,,,,,,,,,,,,0,0,0,0,0
1.3343,1783189355.5447,1,1,1.0000,0.0000,1.44682,0.23274,-2.77761,0.97404,1.57080,0.00000,-0.14512,-0.38003,0.04639,,,,,,,,,,,,,,,,,,,,,,,,,,0,0,0,0,0
1.3348,1783189355.5451,1,1,1.0000,0.0000,1.44682,0.23274,-2.77761,0.97404,1.57080,0.00000,-0.14512,-0.38003,0.04639,,,,,,,,,,,,,,,,,,,,,,,,,,0,0,0,0,0
1.3413,1783189355.5517,1,1,1.0000,0.0000,1.44682,0.23273,-2.77762,0.97405,1.57080,0.00000,-0.14512,-0.38003,0.04639,,,,,,,,,,,,,,,,,,,,,,,,,,0,0,0,0,0
1.3505,1783189355.5608,1,1,1.0000,0.0000,1.44682,0.23273,-2.77762,0.97406,1.57080,0.00000,-0.14512,-0.38003,0.04638,,,,,,,,,,,,,,,,,,,,,,,,,,0,0,0,0,0
1.3631,1783189355.5735,1,1,1.0000,0.0000,1.44682,0.23271,-2.77762,0.97409,1.57080,0.00000,-0.14512,-0.38003,0.04638,,,,,,,,,,,,,,,,,,,,,,,,,,0,0,0,0,0
1.3707,1783189355.5811,1,1,1.0000,0.0000,1.44682,0.23270,-2.77763,0.97410,1.57080,0.00000,-0.14512,-0.38003,0.04638,,,,,,,,,,,,,,,,,,,,,,,,,,0,0,0,0,0
1.3854,1783189355.5957,1,1,1.0000,0.0000,1.44682,0.23269,-2.77763,0.97411,1.57080,0.00000,-0.14512,-0.38003,0.04637,,,,,,,,,,,,,,,,,,,,,,,,,,0,0,0,0,0
1.3918,1783189355.6021,1,1,1.0000,0.0000,1.44682,0.23267,-2.77763,0.97413,1.57080,0.00000,-0.14512,-0.38003,0.04637,,,,,,,,,,,,,,,,,,,,,,,,,,0,0,0,0,0
1.4110,1783189355.6213,1,1,1.0000,0.0000,1.44682,0.23265,-2.77764,0.97416,1.57080,0.00000,-0.14512,-0.38003,0.04636,,,,,,,,,,,,,,,,,,,,,,,,,,0,0,0,0,0
1.4153,1783189355.6257,1,1,1.0000,0.0000,1.44682,0.23264,-2.77764,0.97417,1.57080,0.00000,-0.14512,-0.38003,0.04636,,,,,,,,,,,,,,,,,,,,,,,,,,0,0,0,0,0
1.4156,1783189355.6259,1,1,1.0000,0.0000,1.44682,0.23264,-2.77764,0.97417,1.57080,0.00000,-0.14512,-0.38003,0.04636,,,,,,,,,,,,,,,,,,,,,,,,,,0,0,0,0,0
1.4268,1783189355.6371,1,1,1.0000,0.0000,1.44682,0.23262,-2.77765,0.97420,1.57080,0.00000,-0.14512,-0.38003,0.04636,,,,,,,,,,,,,,,,,,,,,,,,,,0,0,0,0,0
1.4270,1783189355.6374,1,1,1.0000,0.0000,1.44682,0.23262,-2.77765,0.97420,1.57080,0.00000,-0.14512,-0.38003,0.04636,,,,,,,,,,,,,,,,,,,,,,,,,,0,0,0,0,0
1.4387,1783189355.6490,1,1,1.0000,0.0000,1.44682,0.23261,-2.77765,0.97421,1.57080,0.00000,-0.14512,-0.38003,0.04635,,,,,,,,,,,,,,,,,,,,,,,,,,0,0,0,0,0
1.4437,1783189355.6540,1,1,1.0000,0.0000,1.44682,0.23261,-2.77765,0.97421,1.57080,0.00000,-0.14512,-0.38003,0.04635,,,,,,,,,,,,,,,,,,,,,,,,,,0,0,0,0,0
1.4440,1783189355.6543,1,1,1.0000,0.0000,1.44682,0.23261,-2.77765,0.97421,1.57080,0.00000,-0.14512,-0.38003,0.04635,,,,,,,,,,,,,,,,,,,,,,,,,,0,0,0,0,0
1.4675,1783189355.6778,1,1,1.0000,0.0000,1.44682,0.23257,-2.77766,0.97426,1.57080,0.00000,-0.14512,-0.38003,0.04634,,,,,,,,,,,,,,,,,,,,,,,,,,0,0,0,0,0
1.4709,1783189355.6812,1,1,1.0000,0.0000,1.44682,0.23257,-2.77766,0.97426,1.57080,0.00000,-0.14512,-0.38003,0.04634,,,,,,,,,,,,,,,,,,,,,,,,,,0,0,0,0,0
1.4712,1783189355.6815,1,1,1.0000,0.0000,1.44682,0.23257,-2.77766,0.97426,1.57080,0.00000,-0.14512,-0.38003,0.04634,,,,,,,,,,,,,,,,,,,,,,,,,,0,0,0,0,0
1.4715,1783189355.6819,1,1,1.0000,0.0000,1.44682,0.23257,-2.77766,0.97426,1.57080,0.00000,-0.14512,-0.38003,0.04634,,,,,,,,,,,,,,,,,,,,,,,,,,0,0,0,0,0
1.4824,1783189355.6927,1,1,1.0000,0.0000,1.44682,0.23255,-2.77767,0.97429,1.57080,0.00000,-0.14512,-0.38003,0.04634,,,,,,,,,,,,,,,,,,,,,,,,,,0,0,0,0,0
1.4827,1783189355.6931,1,1,1.0000,0.0000,1.44682,0.23255,-2.77767,0.97429,1.57080,0.00000,-0.14512,-0.38003,0.04634,,,,,,,,,,,,,,,,,,,,,,,,,,0,0,0,0,0
1.4913,1783189355.7016,1,1,1.0000,0.0000,1.44682,0.23254,-2.77767,0.97430,1.57080,0.00000,-0.14512,-0.38003,0.04633,,,,,,,,,,,,,,,,,,,,,,,,,,0,0,0,0,0
1.5019,1783189355.7123,1,1,1.0000,0.0000,1.44682,0.23253,-2.77767,0.97431,1.57080,0.00000,-0.14512,-0.38003,0.04633,,,,,,,,,,,,,,,,,,,,,,,,,,0,0,0,0,0
1.5137,1783189355.7241,1,1,1.0000,0.0000,1.44682,0.23251,-2.77767,0.97434,1.57080,0.00000,-0.14512,-0.38003,0.04633,,,,,,,,,,,,,,,,,,,,,,,,,,0,0,0,0,0
1.5224,1783189355.7327,1,1,1.0000,0.0000,1.44682,0.23249,-2.77768,0.97436,1.57080,0.00000,-0.14512,-0.38003,0.04632,,,,,,,,,,,,,,,,,,,,,,,,,,0,0,0,0,0
1.5313,1783189355.7416,1,1,1.0000,0.0000,1.44682,0.23249,-2.77768,0.97436,1.57080,0.00000,-0.14512,-0.38003,0.04632,,,,,,,,,,,,,,,,,,,,,,,,,,0,0,0,0,0
1.5408,1783189355.7511,1,1,1.0000,0.0000,1.44682,0.23247,-2.77768,0.97438,1.57080,0.00000,-0.14512,-0.38003,0.04632,,,,,,,,,,,,,,,,,,,,,,,,,,0,0,0,0,0
1.5526,1783189355.7629,1,1,1.0000,0.0000,1.44682,0.23246,-2.77769,0.97440,1.57080,0.00000,-0.14512,-0.38003,0.04631,,,,,,,,,,,,,,,,,,,,,,,,,,0,0,0,0,0
1.5674,1783189355.7778,1,1,1.0000,0.0000,1.44682,0.23244,-2.77769,0.97443,1.57080,0.00000,-0.14512,-0.38003,0.04631,,,,,,,,,,,,,,,,,,,,,,,,,,0,0,0,0,0
1.5741,1783189355.7845,1,1,1.0000,0.0000,1.44682,0.23242,-2.77770,0.97445,1.57080,0.00000,-0.14512,-0.38003,0.04630,,,,,,,,,,,,,,,,,,,,,,,,,,0,0,0,0,0
1.5807,1783189355.7911,1,1,1.0000,0.0000,1.44682,0.23241,-2.77770,0.97446,1.57080,0.00000,-0.14512,-0.38003,0.04630,,,,,,,,,,,,,,,,,,,,,,,,,,0,0,0,0,0
1.5924,1783189355.8028,1,1,1.0000,0.0000,1.44682,0.23241,-2.77770,0.97447,1.57080,0.00000,-0.14512,-0.38003,0.04630,,,,,,,,,,,,,,,,,,,,,,,,,,0,0,0,0,0
1.6015,1783189355.8119,1,1,1.0000,0.0000,1.44682,0.23239,-2.77771,0.97448,1.57080,0.00000,-0.14512,-0.38003,0.04630,,,,,,,,,,,,,,,,,,,,,,,,,,0,0,0,0,0
1.6170,1783189355.8273,1,1,1.0000,0.0000,1.44682,0.23237,-2.77771,0.97451,1.57080,0.00000,-0.14512,-0.38003,0.04629,,,,,,,,,,,,,,,,,,,,,,,,,,0,0,0,0,0
1.6211,1783189355.8314,1,1,1.0000,0.0000,1.44682,0.23237,-2.77771,0.97451,1.57080,0.00000,-0.14512,-0.38003,0.04629,,,,,,,,,,,,,,,,,,,,,,,,,,0,0,0,0,0
1.6216,1783189355.8319,1,1,1.0000,0.0000,1.44682,0.23237,-2.77771,0.97451,1.57080,0.00000,-0.14512,-0.38003,0.04629,,,,,,,,,,,,,,,,,,,,,,,,,,0,0,0,0,0
1.6313,1783189355.8417,1,1,1.0000,0.0000,1.44682,0.23235,-2.77772,0.97454,1.57080,0.00000,-0.14512,-0.38003,0.04628,,,,,,,,,,,,,,,,,,,,,,,,,,0,0,0,0,0
1.6411,1783189355.8514,1,1,1.0000,0.0000,1.44682,0.23233,-2.77772,0.97456,1.57080,0.00000,-0.14512,-0.38003,0.04628,,,,,,,,,,,,,,,,,,,,,,,,,,0,0,0,0,0
1.6415,1783189355.8518,1,1,1.0000,0.0000,1.44682,0.23233,-2.77772,0.97456,1.57080,0.00000,-0.14512,-0.38003,0.04628,,,,,,,,,,,,,,,,,,,,,,,,,,0,0,0,0,0
1.6512,1783189355.8615,1,1,1.0000,0.0000,1.44682,0.23233,-2.77772,0.97457,1.57080,0.00000,-0.14512,-0.38003,0.04628,,,,,,,,,,,,,,,,,,,,,,,,,,0,0,0,0,0
1.6722,1783189355.8825,1,1,1.0000,0.0000,1.44682,0.23229,-2.77773,0.97461,1.57080,0.00000,-0.14512,-0.38003,0.04627,,,,,,,,,,,,,,,,,,,,,,,,,,0,0,0,0,0
1.6726,1783189355.8830,1,1,1.0000,0.0000,1.44682,0.23229,-2.77773,0.97461,1.57080,0.00000,-0.14512,-0.38003,0.04627,,,,,,,,,,,,,,,,,,,,,,,,,,0,0,0,0,0
1.6731,1783189355.8834,1,1,1.0000,0.0000,1.44682,0.23229,-2.77773,0.97461,1.57080,0.00000,-0.14512,-0.38003,0.04627,,,,,,,,,,,,,,,,,,,,,,,,,,0,0,0,0,0
1.6856,1783189355.8960,1,1,1.0000,0.0000,1.44682,0.23228,-2.77773,0.97462,1.57080,0.00000,-0.14512,-0.38003,0.04627,,,,,,,,,,,,,,,,,,,,,,,,,,0,0,0,0,0
1.6903,1783189355.9007,1,1,1.0000,0.0000,1.44682,0.23227,-2.77774,0.97464,1.57080,0.00000,-0.14512,-0.38003,0.04626,,,,,,,,,,,,,,,,,,,,,,,,,,0,0,0,0,0
1.6908,1783189355.9011,1,1,1.0000,0.0000,1.44682,0.23227,-2.77774,0.97464,1.57080,0.00000,-0.14512,-0.38003,0.04626,,,,,,,,,,,,,,,,,,,,,,,,,,0,0,0,0,0
1.7009,1783189355.9113,1,1,1.0000,0.0000,1.44682,0.23225,-2.77774,0.97466,1.57080,0.00000,-0.14512,-0.38003,0.04626,,,,,,,,,,,,,,,,,,,,,,,,,,0,0,0,0,0
1.7108,1783189355.9212,1,1,1.0000,0.0000,1.44682,0.23224,-2.77774,0.97467,1.57080,0.00000,-0.14512,-0.38003,0.04626,,,,,,,,,,,,,,,,,,,,,,,,,,0,0,0,0,0
1.7217,1783189355.9321,1,1,1.0000,0.0000,1.44682,0.23223,-2.77775,0.97469,1.57080,0.00000,-0.14512,-0.38003,0.04625,,,,,,,,,,,,,,,,,,,,,,,,,,0,0,0,0,0
1.7324,1783189355.9427,1,1,1.0000,0.0000,1.44682,0.23221,-2.77775,0.97472,1.57080,0.00000,-0.14512,-0.38003,0.04625,,,,,,,,,,,,,,,,,,,,,,,,,,0,0,0,0,0
1.7424,1783189355.9527,1,1,1.0000,0.0000,1.44682,0.23220,-2.77775,0.97472,1.57080,0.00000,-0.14512,-0.38003,0.04625,,,,,,,,,,,,,,,,,,,,,,,,,,0,0,0,0,0
1.7429,1783189355.9532,1,1,1.0000,0.0000,1.44682,0.23220,-2.77775,0.97472,1.57080,0.00000,-0.14512,-0.38003,0.04625,,,,,,,,,,,,,,,,,,,,,,,,,,0,0,0,0,0
1.7516,1783189355.9619,1,1,1.0000,0.0000,1.44682,0.23219,-2.77776,0.97474,1.57080,0.00000,-0.14512,-0.38003,0.04624,,,,,,,,,,,,,,,,,,,,,,,,,,0,0,0,0,0
1.7607,1783189355.9710,1,1,1.0000,0.0000,1.44682,0.23218,-2.77776,0.97475,1.57080,0.00000,-0.14512,-0.38003,0.04624,,,,,,,,,,,,,,,,,,,,,,,,,,0,0,0,0,0
1.7786,1783189355.9890,1,1,1.0000,0.0000,1.44682,0.23216,-2.77777,0.97478,1.57080,0.00000,-0.14512,-0.38003,0.04623,,,,,,,,,,,,,,,,,,,,,,,,,,0,0,0,0,0
1.8466,1783189356.0569,1,1,1.0000,0.0000,1.44682,0.23207,-2.77779,0.97489,1.57080,0.00000,-0.14512,-0.38003,0.04621,,,,,,,,,,,,,,,,,,,,,,,,,,0,0,0,0,0
1.8470,1783189356.0573,1,1,1.0000,0.0000,1.44682,0.23207,-2.77779,0.97489,1.57080,0.00000,-0.14512,-0.38003,0.04621,,,,,,,,,,,,,,,,,,,,,,,,,,0,0,0,0,0
1.8473,1783189356.0577,1,1,1.0000,0.0000,1.44682,0.23207,-2.77779,0.97489,1.57080,0.00000,-0.14512,-0.38003,0.04621,,,,,,,,,,,,,,,,,,,,,,,,,,0,0,0,0,0
1.8476,1783189356.0579,1,1,1.0000,0.0000,1.44682,0.23207,-2.77779,0.97489,1.57080,0.00000,-0.14512,-0.38003,0.04621,,,,,,,,,,,,,,,,,,,,,,,,,,0,0,0,0,0
1.8520,1783189356.0624,1,1,1.0000,0.0000,1.44682,0.23206,-2.77779,0.97490,1.57080,0.00000,-0.14512,-0.38003,0.04621,,,,,,,,,,,,,,,,,,,,,,,,,,0,0,0,0,0
1.8524,1783189356.0627,1,1,1.0000,0.0000,1.44682,0.23206,-2.77779,0.97490,1.57080,0.00000,-0.14512,-0.38003,0.04621,,,,,,,,,,,,,,,,,,,,,,,,,,0,0,0,0,0
1.8605,1783189356.0709,1,1,1.0000,0.0000,1.44682,0.23206,-2.77779,0.97491,1.57080,0.00000,-0.14512,-0.38003,0.04621,,,,,,,,,,,,,,,,,,,,,,,,,,0,0,0,0,0
1.8786,1783189356.0890,1,1,1.0000,0.0000,1.44682,0.23203,-2.77780,0.97494,1.57080,0.00000,-0.14512,-0.38003,0.04620,,,,,,,,,,,,,,,,,,,,,,,,,,0,0,0,0,0
1.8790,1783189356.0893,1,1,1.0000,0.0000,1.44682,0.23203,-2.77780,0.97494,1.57080,0.00000,-0.14512,-0.38003,0.04620,,,,,,,,,,,,,,,,,,,,,,,,,,0,0,0,0,0
1.8805,1783189356.0909,1,1,1.0000,0.0000,1.44682,0.23203,-2.77780,0.97494,1.57080,0.00000,-0.14512,-0.38003,0.04620,,,,,,,,,,,,,,,,,,,,,,,,,,0,0,0,0,0
1.8808,1783189356.0911,1,1,1.0000,0.0000,1.44682,0.23203,-2.77780,0.97494,1.57080,0.00000,-0.14512,-0.38003,0.04620,,,,,,,,,,,,,,,,,,,,,,,,,,0,0,0,0,0
1.9104,1783189356.1208,1,1,1.0000,0.0000,1.44682,0.23198,-2.77781,0.97500,1.57080,0.00000,-0.14512,-0.38003,0.04619,,,,,,,,,,,,,,,,,,,,,,,,,,0,0,0,0,0
1.9107,1783189356.1211,1,1,1.0000,0.0000,1.44682,0.23198,-2.77781,0.97500,1.57080,0.00000,-0.14512,-0.38003,0.04619,,,,,,,,,,,,,,,,,,,,,,,,,,0,0,0,0,0
1.9290,1783189356.1393,1,1,1.0000,0.0000,1.44682,0.23197,-2.77781,0.97501,1.57080,0.00000,-0.14512,-0.38003,0.04619,,,,,,,,,,,,,,,,,,,,,,,,,,0,0,0,0,0
1.9292,1783189356.1396,1,1,1.0000,0.0000,1.44682,0.23197,-2.77781,0.97501,1.57080,0.00000,-0.14512,-0.38003,0.04619,,,,,,,,,,,,,,,,,,,,,,,,,,0,0,0,0,0
1.9351,1783189356.1454,1,1,1.0000,0.0000,1.44682,0.23196,-2.77782,0.97502,1.57080,0.00000,-0.14512,-0.38003,0.04618,,,,,,,,,,,,,,,,,,,,,,,,,,0,0,0,0,0
1.9423,1783189356.1527,1,1,1.0000,0.0000,1.44682,0.23195,-2.77782,0.97503,1.57080,0.00000,-0.14512,-0.38003,0.04618,,,,,,,,,,,,,,,,,,,,,,,,,,0,0,0,0,0
1.9430,1783189356.1533,1,1,1.0000,0.0000,1.44682,0.23195,-2.77782,0.97503,1.57080,0.00000,-0.14512,-0.38003,0.04618,,,,,,,,,,,,,,,,,,,,,,,,,,0,0,0,0,0
1.9435,1783189356.1538,1,1,1.0000,0.0000,1.44682,0.23195,-2.77782,0.97503,1.57080,0.00000,-0.14512,-0.38003,0.04618,,,,,,,,,,,,,,,,,,,,,,,,,,0,0,0,0,0
1.9437,1783189356.1541,1,1,1.0000,0.0000,1.44682,0.23195,-2.77782,0.97503,1.57080,0.00000,-0.14512,-0.38003,0.04618,,,,,,,,,,,,,,,,,,,,,,,,,,0,0,0,0,0
1.9505,1783189356.1609,1,1,1.0000,0.0000,1.44682,0.23195,-2.77782,0.97504,1.57080,0.00000,-0.14512,-0.38003,0.04618,,,,,,,,,,,,,,,,,,,,,,,,,,0,0,0,0,0
1.9510,1783189356.1613,1,1,1.0000,0.0000,1.44682,0.23195,-2.77782,0.97504,1.57080,0.00000,-0.14512,-0.38003,0.04618,,,,,,,,,,,,,,,,,,,,,,,,,,0,0,0,0,0
1.9631,1783189356.1735,1,1,1.0000,0.0000,1.44682,0.23193,-2.77783,0.97507,1.57080,0.00000,-0.14512,-0.38003,0.04617,,,,,,,,,,,,,,,,,,,,,,,,,,0,0,0,0,0
1.9823,1783189356.1926,1,1,1.0000,0.0000,1.44682,0.23190,-2.77783,0.97510,1.57080,0.00000,-0.14512,-0.38003,0.04617,,,,,,,,,,,,,,,,,,,,,,,,,,0,0,0,0,0
1.9827,1783189356.1931,1,1,1.0000,0.0000,1.44682,0.23190,-2.77783,0.97510,1.57080,0.00000,-0.14512,-0.38003,0.04617,,,,,,,,,,,,,,,,,,,,,,,,,,0,0,0,0,0
1.9937,1783189356.2040,1,1,1.0000,0.0000,1.44682,0.23189,-2.77783,0.97511,1.57080,0.00000,-0.14512,-0.38003,0.04617,,,,,,,,,,,,,,,,,,,,,,,,,,0,0,0,0,0
2.0247,1783189356.2351,1,1,1.0000,0.0000,1.44682,0.23185,-2.77784,0.97516,1.57080,0.00000,-0.14512,-0.38003,0.04615,,,,,,,,,,,,,,,,,,,,,,,,,,0,0,0,0,0
2.0276,1783189356.2380,1,1,1.0000,0.0000,1.44682,0.23184,-2.77785,0.97517,1.57080,0.00000,-0.14512,-0.38003,0.04615,,,,,,,,,,,,,,,,,,,,,,,,,,0,0,0,0,0
2.0281,1783189356.2384,1,1,1.0000,0.0000,1.44682,0.23184,-2.77785,0.97517,1.57080,0.00000,-0.14512,-0.38003,0.04615,,,,,,,,,,,,,,,,,,,,,,,,,,0,0,0,0,0
2.0312,1783189356.2415,1,1,1.0000,0.0000,1.44682,0.23183,-2.77785,0.97518,1.57080,0.00000,-0.14512,-0.38003,0.04615,,,,,,,,,,,,,,,,,,,,,,,,,,0,0,0,0,0
2.0316,1783189356.2420,1,1,1.0000,0.0000,1.44682,0.23183,-2.77785,0.97518,1.57080,0.00000,-0.14512,-0.38003,0.04615,,,,,,,,,,,,,,,,,,,,,,,,,,0,0,0,0,0
2.0410,1783189356.2514,1,1,1.0000,0.0000,1.44682,0.23183,-2.77785,0.97519,1.57080,0.00000,-0.14512,-0.38003,0.04615,,,,,,,,,,,,,,,,,,,,,,,,,,0,0,0,0,0
2.0413,1783189356.2517,1,1,1.0000,0.0000,1.44682,0.23183,-2.77785,0.97519,1.57080,0.00000,-0.14512,-0.38003,0.04615,,,,,,,,,,,,,,,,,,,,,,,,,,0,0,0,0,0
2.0524,1783189356.2628,1,1,1.0000,0.0000,1.44682,0.23182,-2.77785,0.97520,1.57080,0.00000,-0.14512,-0.38003,0.04615,,,,,,,,,,,,,,,,,,,,,,,,,,0,0,0,0,0
2.0529,1783189356.2632,1,1,1.0000,0.0000,1.44682,0.23182,-2.77785,0.97520,1.57080,0.00000,-0.14512,-0.38003,0.04615,,,,,,,,,,,,,,,,,,,,,,,,,,0,0,0,0,0
2.0609,1783189356.2713,1,1,1.0000,0.0000,1.44682,0.23181,-2.77786,0.97522,1.57080,0.00000,-0.14512,-0.38003,0.04614,,,,,,,,,,,,,,,,,,,,,,,,,,0,0,0,0,0
2.0828,1783189356.2931,1,1,1.0000,0.0000,1.44682,0.23178,-2.77786,0.97526,1.57080,0.00000,-0.14512,-0.38003,0.04614,,,,,,,,,,,,,,,,,,,,,,,,,,0,0,0,0,0
2.0831,1783189356.2935,1,1,1.0000,0.0000,1.44682,0.23178,-2.77786,0.97526,1.57080,0.00000,-0.14512,-0.38003,0.04614,,,,,,,,,,,,,,,,,,,,,,,,,,0,0,0,0,0
2.0863,1783189356.2967,1,1,1.0000,0.0000,1.44682,0.23177,-2.77787,0.97527,1.57080,0.00000,-0.14512,-0.38003,0.04613,,,,,,,,,,,,,,,,,,,,,,,,,,0,0,0,0,0
2.0915,1783189356.3018,1,1,1.0000,0.0000,1.44682,0.23176,-2.77787,0.97528,1.57080,0.00000,-0.14512,-0.38003,0.04613,,,,,,,,,,,,,,,,,,,,,,,,,,0,0,0,0,0
2.1007,1783189356.3110,1,1,1.0000,0.0000,1.44682,0.23176,-2.77787,0.97528,1.57080,0.00000,-0.14512,-0.38003,0.04613,,,,,,,,,,,,,,,,,,,,,,,,,,0,0,0,0,0
2.1105,1783189356.3209,1,1,1.0000,0.0000,1.44682,0.23174,-2.77787,0.97530,1.57080,0.00000,-0.14512,-0.38003,0.04613,,,,,,,,,,,,,,,,,,,,,,,,,,0,0,0,0,0
2.1273,1783189356.3376,1,1,1.0000,0.0000,1.44682,0.23172,-2.77788,0.97533,1.57080,0.00000,-0.14512,-0.38003,0.04612,,,,,,,,,,,,,,,,,,,,,,,,,,0,0,0,0,0
2.1310,1783189356.3414,1,1,1.0000,0.0000,1.44682,0.23172,-2.77788,0.97533,1.57080,0.00000,-0.14512,-0.38003,0.04612,,,,,,,,,,,,,,,,,,,,,,,,,,0,0,0,0,0
2.1314,1783189356.3418,1,1,1.0000,0.0000,1.44682,0.23172,-2.77788,0.97533,1.57080,0.00000,-0.14512,-0.38003,0.04612,,,,,,,,,,,,,,,,,,,,,,,,,,0,0,0,0,0
2.1436,1783189356.3539,1,1,1.0000,0.0000,1.44682,0.23170,-2.77788,0.97536,1.57080,0.00000,-0.14512,-0.38003,0.04611,,,,,,,,,,,,,,,,,,,,,,,,,,0,0,0,0,0
2.1537,1783189356.3641,1,1,1.0000,0.0000,1.44682,0.23168,-2.77789,0.97538,1.57080,0.00000,-0.14512,-0.38003,0.04611,,,,,,,,,,,,,,,,,,,,,,,,,,0,0,0,0,0
2.1544,1783189356.3647,1,1,1.0000,0.0000,1.44682,0.23168,-2.77789,0.97538,1.57080,0.00000,-0.14512,-0.38003,0.04611,,,,,,,,,,,,,,,,,,,,,,,,,,0,0,0,0,0
2.1613,1783189356.3717,1,1,1.0000,0.0000,1.44682,0.23168,-2.77789,0.97538,1.57080,0.00000,-0.14512,-0.38003,0.04611,,,,,,,,,,,,,,,,,,,,,,,,,,0,0,0,0,0
2.1897,1783189356.4001,1,1,1.0000,0.0000,1.44682,0.23164,-2.77790,0.97543,1.57080,0.00000,-0.14512,-0.38003,0.04610,,,,,,,,,,,,,,,,,,,,,,,,,,0,0,0,0,0
2.1903,1783189356.4007,1,1,1.0000,0.0000,1.44682,0.23164,-2.77790,0.97543,1.57080,0.00000,-0.14512,-0.38003,0.04610,,,,,,,,,,,,,,,,,,,,,,,,,,0,0,0,0,0
2.1935,1783189356.4039,1,1,1.0000,0.0000,1.44682,0.23164,-2.77790,0.97543,1.57080,0.00000,-0.14512,-0.38003,0.04610,,,,,,,,,,,,,,,,,,,,,,,,,,0,0,0,0,0
2.1942,1783189356.4046,1,1,1.0000,0.0000,1.44682,0.23163,-2.77790,0.97544,1.57080,0.00000,-0.14512,-0.38003,0.04610,,,,,,,,,,,,,,,,,,,,,,,,,,0,0,0,0,0
2.2040,1783189356.4144,1,1,1.0000,0.0000,1.44682,0.23162,-2.77791,0.97546,1.57080,0.00000,-0.14512,-0.38003,0.04609,,,,,,,,,,,,,,,,,,,,,,,,,,0,0,0,0,0
2.2108,1783189356.4211,1,1,1.0000,0.0000,1.44682,0.23160,-2.77791,0.97548,1.57080,0.00000,-0.14512,-0.38003,0.04609,,,,,,,,,,,,,,,,,,,,,,,,,,0,0,0,0,0
2.2225,1783189356.4329,1,1,1.0000,0.0000,1.44682,0.23159,-2.77791,0.97549,1.57080,0.00000,-0.14512,-0.38003,0.04609,,,,,,,,,,,,,,,,,,,,,,,,,,0,0,0,0,0
2.2315,1783189356.4418,1,1,1.0000,0.0000,1.44682,0.23158,-2.77791,0.97551,1.57080,0.00000,-0.14512,-0.38003,0.04608,,,,,,,,,,,,,,,,,,,,,,,,,,0,0,0,0,0
2.2424,1783189356.4528,1,1,1.0000,0.0000,1.44682,0.23156,-2.77792,0.97553,1.57080,0.00000,-0.14512,-0.38003,0.04608,,,,,,,,,,,,,,,,,,,,,,,,,,0,0,0,0,0
2.2632,1783189356.4736,1,1,1.0000,0.0000,1.44682,0.23153,-2.77793,0.97556,1.57080,0.00000,-0.14512,-0.38003,0.04607,,,,,,,,,,,,,,,,,,,,,,,,,,0,0,0,0,0
2.2635,1783189356.4738,1,1,1.0000,0.0000,1.44682,0.23153,-2.77793,0.97556,1.57080,0.00000,-0.14512,-0.38003,0.04607,,,,,,,,,,,,,,,,,,,,,,,,,,0,0,0,0,0
2.2748,1783189356.4852,1,1,1.0000,0.0000,1.44682,0.23152,-2.77793,0.97558,1.57080,0.00000,-0.14512,-0.38003,0.04607,,,,,,,,,,,,,,,,,,,,,,,,,,0,0,0,0,0
2.2873,1783189356.4977,1,1,1.0000,0.0000,1.44682,0.23151,-2.77793,0.97560,1.57080,0.00000,-0.14512,-0.38003,0.04606,,,,,,,,,,,,,,,,,,,,,,,,,,0,0,0,0,0
2.2905,1783189356.5008,1,1,1.0000,0.0000,1.44682,0.23150,-2.77794,0.97561,1.57080,0.00000,-0.14512,-0.38003,0.04606,,,,,,,,,,,,,,,,,,,,,,,,,,0,0,0,0,0
2.2908,1783189356.5011,1,1,1.0000,0.0000,1.44682,0.23150,-2.77794,0.97561,1.57080,0.00000,-0.14512,-0.38003,0.04606,,,,,,,,,,,,,,,,,,,,,,,,,,0,0,0,0,0
2.3022,1783189356.5125,1,1,1.0000,0.0000,1.44682,0.23148,-2.77794,0.97563,1.57080,0.00000,-0.14512,-0.38003,0.04606,,,,,,,,,,,,,,,,,,,,,,,,,,0,0,0,0,0
2.3126,1783189356.5230,1,1,1.0000,0.0000,1.44682,0.23148,-2.77794,0.97564,1.57080,0.00000,-0.14512,-0.38003,0.04606,,,,,,,,,,,,,,,,,,,,,,,,,,0,0,0,0,0
2.3129,1783189356.5232,1,1,1.0000,0.0000,1.44682,0.23148,-2.77794,0.97564,1.57080,0.00000,-0.14512,-0.38003,0.04606,,,,,,,,,,,,,,,,,,,,,,,,,,0,0,0,0,0
2.3247,1783189356.5350,1,1,1.0000,0.0000,1.44682,0.23145,-2.77795,0.97566,1.57080,0.00000,-0.14512,-0.38003,0.04605,,,,,,,,,,,,,,,,,,,,,,,,,,0,0,0,0,0
2.3323,1783189356.5427,1,1,1.0000,0.0000,1.44682,0.23144,-2.77795,0.97568,1.57080,0.00000,-0.14512,-0.38003,0.04605,,,,,,,,,,,,,,,,,,,,,,,,,,0,0,0,0,0
2.3465,1783189356.5568,1,1,1.0000,0.0000,1.44682,0.23142,-2.77795,0.97570,1.57080,0.00000,-0.14512,-0.38003,0.04604,,,,,,,,,,,,,,,,,,,,,,,,,,0,0,0,0,0
2.3469,1783189356.5572,1,1,1.0000,0.0000,1.44682,0.23142,-2.77795,0.97570,1.57080,0.00000,-0.14512,-0.38003,0.04604,,,,,,,,,,,,,,,,,,,,,,,,,,0,0,0,0,0
2.3506,1783189356.5609,1,1,1.0000,0.0000,1.44682,0.23142,-2.77796,0.97571,1.57080,0.00000,-0.14512,-0.38003,0.04604,,,,,,,,,,,,,,,,,,,,,,,,,,0,0,0,0,0
2.3509,1783189356.5612,1,1,1.0000,0.0000,1.44682,0.23142,-2.77796,0.97571,1.57080,0.00000,-0.14512,-0.38003,0.04604,,,,,,,,,,,,,,,,,,,,,,,,,,0,0,0,0,0
2.3658,1783189356.5761,1,1,1.0000,0.0000,1.44682,0.23140,-2.77796,0.97573,1.57080,0.00000,-0.14512,-0.38003,0.04604,,,,,,,,,,,,,,,,,,,,,,,,,,0,0,0,0,0
2.3705,1783189356.5808,1,1,1.0000,0.0000,1.44682,0.23139,-2.77796,0.97574,1.57080,0.00000,-0.14512,-0.38003,0.04604,,,,,,,,,,,,,,,,,,,,,,,,,,0,0,0,0,0
2.3708,1783189356.5811,1,1,1.0000,0.0000,1.44682,0.23139,-2.77796,0.97574,1.57080,0.00000,-0.14512,-0.38003,0.04604,,,,,,,,,,,,,,,,,,,,,,,,,,0,0,0,0,0
2.3896,1783189356.6000,1,1,1.0000,0.0000,1.44682,0.23136,-2.77797,0.97578,1.57080,0.00000,-0.14512,-0.38003,0.04603,,,,,,,,,,,,,,,,,,,,,,,,,,0,0,0,0,0
2.3908,1783189356.6011,1,1,1.0000,0.0000,1.44682,0.23136,-2.77797,0.97579,1.57080,0.00000,-0.14512,-0.38003,0.04603,,,,,,,,,,,,,,,,,,,,,,,,,,0,0,0,0,0
2.3911,1783189356.6014,1,1,1.0000,0.0000,1.44682,0.23136,-2.77797,0.97579,1.57080,0.00000,-0.14512,-0.38003,0.04603,,,,,,,,,,,,,,,,,,,,,,,,,,0,0,0,0,0
2.4023,1783189356.6126,1,1,1.0000,0.0000,1.44682,0.23135,-2.77797,0.97579,1.57080,0.00000,-0.14512,-0.38003,0.04602,,,,,,,,,,,,,,,,,,,,,,,,,,0,0,0,0,0
2.4127,1783189356.6230,1,1,1.0000,0.0000,1.44682,0.23134,-2.77798,0.97581,1.57080,0.00000,-0.14512,-0.38003,0.04602,,,,,,,,,,,,,,,,,,,,,,,,,,0,0,0,0,0
2.4218,1783189356.6321,1,1,1.0000,0.0000,1.44682,0.23132,-2.77798,0.97583,1.57080,0.00000,-0.14512,-0.38003,0.04602,,,,,,,,,,,,,,,,,,,,,,,,,,0,0,0,0,0
2.4345,1783189356.6448,1,1,1.0000,0.0000,1.44682,0.23131,-2.77798,0.97585,1.57080,0.00000,-0.14512,-0.38003,0.04601,,,,,,,,,,,,,,,,,,,,,,,,,,0,0,0,0,0
2.4348,1783189356.6451,1,1,1.0000,0.0000,1.44682,0.23131,-2.77798,0.97585,1.57080,0.00000,-0.14512,-0.38003,0.04601,,,,,,,,,,,,,,,,,,,,,,,,,,0,0,0,0,0
2.4427,1783189356.6531,1,1,1.0000,0.0000,1.44682,0.23129,-2.77799,0.97587,1.57080,0.00000,-0.14512,-0.38003,0.04601,,,,,,,,,,,,,,,,,,,,,,,,,,0,0,0,0,0
2.4431,1783189356.6535,1,1,1.0000,0.0000,1.44682,0.23129,-2.77799,0.97587,1.57080,0.00000,-0.14512,-0.38003,0.04601,,,,,,,,,,,,,,,,,,,,,,,,,,0,0,0,0,0
2.4506,1783189356.6610,1,1,1.0000,0.0000,1.44682,0.23127,-2.77799,0.97589,1.57080,0.00000,-0.14512,-0.38003,0.04600,,,,,,,,,,,,,,,,,,,,,,,,,,0,0,0,0,0
2.4604,1783189356.6708,1,1,1.0000,0.0000,1.44682,0.23127,-2.77799,0.97589,1.57080,0.00000,-0.14512,-0.38003,0.04600,,,,,,,,,,,,,,,,,,,,,,,,,,0,0,0,0,0
2.4712,1783189356.6816,1,1,1.0000,0.0000,1.44682,0.23125,-2.77800,0.97591,1.57080,0.00000,-0.14512,-0.38003,0.04600,,,,,,,,,,,,,,,,,,,,,,,,,,0,0,0,0,0
2.4906,1783189356.7009,1,1,1.0000,0.0000,1.44682,0.23123,-2.77800,0.97595,1.57080,0.00000,-0.14512,-0.38003,0.04599,,,,,,,,,,,,,,,,,,,,,,,,,,0,0,0,0,0
2.4910,1783189356.7013,1,1,1.0000,0.0000,1.44682,0.23123,-2.77800,0.97595,1.57080,0.00000,-0.14512,-0.38003,0.04599,,,,,,,,,,,,,,,,,,,,,,,,,,0,0,0,0,0
2.4912,1783189356.7016,1,1,1.0000,0.0000,1.44682,0.23123,-2.77800,0.97595,1.57080,0.00000,-0.14512,-0.38003,0.04599,,,,,,,,,,,,,,,,,,,,,,,,,,0,0,0,0,0
2.5014,1783189356.7117,1,1,1.0000,0.0000,1.44682,0.23122,-2.77801,0.97596,1.57080,0.00000,-0.14512,-0.38003,0.04599,,,,,,,,,,,,,,,,,,,,,,,,,,0,0,0,0,0
2.5017,1783189356.7120,1,1,1.0000,0.0000,1.44682,0.23122,-2.77801,0.97596,1.57080,0.00000,-0.14512,-0.38003,0.04599,,,,,,,,,,,,,,,,,,,,,,,,,,0,0,0,0,0
2.5139,1783189356.7242,1,1,1.0000,0.0000,1.44682,0.23120,-2.77801,0.97598,1.57080,0.00000,-0.14512,-0.38003,0.04598,,,,,,,,,,,,,,,,,,,,,,,,,,0,0,0,0,0
2.5212,1783189356.7315,1,1,1.0000,0.0000,1.44682,0.23120,-2.77801,0.97598,1.57080,0.00000,-0.14512,-0.38003,0.04598,,,,,,,,,,,,,,,,,,,,,,,,,,0,0,0,0,0
2.5677,1783189356.7780,1,1,1.0000,0.0000,1.44682,0.23113,-2.77803,0.97606,1.57080,0.00000,-0.14512,-0.38003,0.04597,,,,,,,,,,,,,,,,,,,,,,,,,,0,0,0,0,0
2.6185,1783189356.8288,1,1,1.0000,0.0000,1.44682,0.23107,-2.77804,0.97614,1.57080,0.00000,-0.14512,-0.38003,0.04595,,,,,,,,,,,,,,,,,,,,,,,,,,0,0,0,0,0
2.6188,1783189356.8292,1,1,1.0000,0.0000,1.44682,0.23107,-2.77804,0.97614,1.57080,0.00000,-0.14512,-0.38003,0.04595,,,,,,,,,,,,,,,,,,,,,,,,,,0,0,0,0,0
2.6193,1783189356.8296,1,1,1.0000,0.0000,1.44682,0.23107,-2.77804,0.97614,1.57080,0.00000,-0.14512,-0.38003,0.04595,,,,,,,,,,,,,,,,,,,,,,,,,,0,0,0,0,0
2.6443,1783189356.8546,1,1,1.0000,0.0000,1.44682,0.23105,-2.77805,0.97617,1.57080,0.00000,-0.14512,-0.38003,0.04594,,,,,,,,,,,,,,,,,,,,,,,,,,0,0,0,0,0
2.6446,1783189356.8549,1,1,1.0000,0.0000,1.44682,0.23105,-2.77805,0.97617,1.57080,0.00000,-0.14512,-0.38003,0.04594,,,,,,,,,,,,,,,,,,,,,,,,,,0,0,0,0,0
2.6454,1783189356.8558,1,1,1.0000,0.0000,1.44682,0.23105,-2.77805,0.97617,1.57080,0.00000,-0.14512,-0.38003,0.04594,,,,,,,,,,,,,,,,,,,,,,,,,,0,0,0,0,0
2.6539,1783189356.8643,1,1,1.0000,0.0000,1.44682,0.23103,-2.77806,0.97619,1.57080,0.00000,-0.14512,-0.38003,0.04594,,,,,,,,,,,,,,,,,,,,,,,,,,0,0,0,0,0
2.6625,1783189356.8729,1,1,1.0000,0.0000,1.44682,0.23101,-2.77806,0.97623,1.57080,0.00000,-0.14512,-0.38003,0.04593,,,,,,,,,,,,,,,,,,,,,,,,,,0,0,0,0,0
2.6706,1783189356.8810,1,1,1.0000,0.0000,1.44682,0.23101,-2.77806,0.97623,1.57080,0.00000,-0.14512,-0.38003,0.04593,,,,,,,,,,,,,,,,,,,,,,,,,,0,0,0,0,0
2.6709,1783189356.8812,1,1,1.0000,0.0000,1.44682,0.23101,-2.77806,0.97623,1.57080,0.00000,-0.14512,-0.38003,0.04593,,,,,,,,,,,,,,,,,,,,,,,,,,0,0,0,0,0
2.6852,1783189356.8955,1,1,1.0000,0.0000,1.44682,0.23099,-2.77807,0.97624,1.57080,0.00000,-0.14512,-0.38003,0.04593,,,,,,,,,,,,,,,,,,,,,,,,,,0,0,0,0,0
2.6979,1783189356.9082,1,1,1.0000,0.0000,1.44682,0.23098,-2.77807,0.97626,1.57080,0.00000,-0.14512,-0.38003,0.04593,,,,,,,,,,,,,,,,,,,,,,,,,,0,0,0,0,0
2.7025,1783189356.9128,1,1,1.0000,0.0000,1.44682,0.23097,-2.77807,0.97627,1.57080,0.00000,-0.14512,-0.38003,0.04593,,,,,,,,,,,,,,,,,,,,,,,,,,0,0,0,0,0
2.7120,1783189356.9224,1,1,1.0000,0.0000,1.44682,0.23096,-2.77807,0.97629,1.57080,0.00000,-0.14512,-0.38003,0.04592,,,,,,,,,,,,,,,,,,,,,,,,,,0,0,0,0,0
2.7123,1783189356.9227,1,1,1.0000,0.0000,1.44682,0.23096,-2.77807,0.97629,1.57080,0.00000,-0.14512,-0.38003,0.04592,,,,,,,,,,,,,,,,,,,,,,,,,,0,0,0,0,0
2.7211,1783189356.9314,1,1,1.0000,0.0000,1.44682,0.23094,-2.77808,0.97631,1.57080,0.00000,-0.14512,-0.38003,0.04592,,,,,,,,,,,,,,,,,,,,,,,,,,0,0,0,0,0
2.7307,1783189356.9410,1,1,1.0000,0.0000,1.44682,0.23093,-2.77808,0.97632,1.57080,0.00000,-0.14512,-0.38003,0.04591,,,,,,,,,,,,,,,,,,,,,,,,,,0,0,0,0,0
2.7439,1783189356.9542,1,1,1.0000,0.0000,1.44682,0.23092,-2.77808,0.97634,1.57080,0.00000,-0.14512,-0.38003,0.04591,,,,,,,,,,,,,,,,,,,,,,,,,,0,0,0,0,0
2.7549,1783189356.9653,1,1,1.0000,0.0000,1.44682,0.23090,-2.77809,0.97635,1.57080,0.00000,-0.14512,-0.38003,0.04591,,,,,,,,,,,,,,,,,,,,,,,,,,0,0,0,0,0
2.7624,1783189356.9727,1,1,1.0000,0.0000,1.44682,0.23090,-2.77809,0.97636,1.57080,0.00000,-0.14512,-0.38003,0.04591,,,,,,,,,,,,,,,,,,,,,,,,,,0,0,0,0,0
2.7627,1783189356.9731,1,1,1.0000,0.0000,1.44682,0.23090,-2.77809,0.97636,1.57080,0.00000,-0.14512,-0.38003,0.04591,,,,,,,,,,,,,,,,,,,,,,,,,,0,0,0,0,0
2.7736,1783189356.9839,1,1,1.0000,0.0000,1.44682,0.23088,-2.77809,0.97638,1.57080,0.00000,-0.14512,-0.38003,0.04590,,,,,,,,,,,,,,,,,,,,,,,,,,0,0,0,0,0
2.7740,1783189356.9844,1,1,1.0000,0.0000,1.44682,0.23088,-2.77809,0.97638,1.57080,0.00000,-0.14512,-0.38003,0.04590,,,,,,,,,,,,,,,,,,,,,,,,,,0,0,0,0,0
2.7810,1783189356.9914,1,1,1.0000,0.0000,1.44682,0.23087,-2.77810,0.97640,1.57080,0.00000,-0.14512,-0.38003,0.04590,,,,,,,,,,,,,,,,,,,,,,,,,,0,0,0,0,0
2.7987,1783189357.0091,1,1,1.0000,0.0000,1.44682,0.23085,-2.77810,0.97642,1.57080,0.00000,-0.14512,-0.38003,0.04589,,,,,,,,,,,,,,,,,,,,,,,,,,0,0,0,0,0
2.7990,1783189357.0093,1,1,1.0000,0.0000,1.44682,0.23085,-2.77810,0.97642,1.57080,0.00000,-0.14512,-0.38003,0.04589,,,,,,,,,,,,,,,,,,,,,,,,,,0,0,0,0,0
2.8029,1783189357.0132,1,1,1.0000,0.0000,1.44682,0.23084,-2.77810,0.97643,1.57080,0.00000,-0.14512,-0.38003,0.04589,,,,,,,,,,,,,,,,,,,,,,,,,,0,0,0,0,0
2.8033,1783189357.0136,1,1,1.0000,0.0000,1.44682,0.23084,-2.77810,0.97643,1.57080,0.00000,-0.14512,-0.38003,0.04589,,,,,,,,,,,,,,,,,,,,,,,,,,0,0,0,0,0
2.8123,1783189357.0227,1,1,1.0000,0.0000,1.44682,0.23083,-2.77811,0.97645,1.57080,0.00000,-0.14512,-0.38003,0.04589,,,,,,,,,,,,,,,,,,,,,,,,,,0,0,0,0,0
2.8205,1783189357.0308,1,1,1.0000,0.0000,1.44682,0.23083,-2.77811,0.97645,1.57080,0.00000,-0.14512,-0.38003,0.04589,,,,,,,,,,,,,,,,,,,,,,,,,,0,0,0,0,0
2.8305,1783189357.0409,1,1,1.0000,0.0000,1.44682,0.23081,-2.77811,0.97647,1.57080,0.00000,-0.14512,-0.38003,0.04588,,,,,,,,,,,,,,,,,,,,,,,,,,0,0,0,0,0
2.8308,1783189357.0412,1,1,1.0000,0.0000,1.44682,0.23081,-2.77811,0.97647,1.57080,0.00000,-0.14512,-0.38003,0.04588,,,,,,,,,,,,,,,,,,,,,,,,,,0,0,0,0,0
2.8440,1783189357.0544,1,1,1.0000,0.0000,1.44682,0.23078,-2.77812,0.97651,1.57080,0.00000,-0.14512,-0.38003,0.04588,,,,,,,,,,,,,,,,,,,,,,,,,,0,0,0,0,0
2.8444,1783189357.0547,1,1,1.0000,0.0000,1.44682,0.23078,-2.77812,0.97651,1.57080,0.00000,-0.14512,-0.38003,0.04588,,,,,,,,,,,,,,,,,,,,,,,,,,0,0,0,0,0
2.8505,1783189357.0609,1,1,1.0000,0.0000,1.44682,0.23078,-2.77812,0.97651,1.57080,0.00000,-0.14512,-0.38003,0.04588,,,,,,,,,,,,,,,,,,,,,,,,,,0,0,0,0,0
2.8605,1783189357.0709,1,1,1.0000,0.0000,1.44682,0.23077,-2.77812,0.97652,1.57080,0.00000,-0.14512,-0.38003,0.04587,,,,,,,,,,,,,,,,,,,,,,,,,,0,0,0,0,0
2.8716,1783189357.0819,1,1,1.0000,0.0000,1.44682,0.23075,-2.77813,0.97655,1.57080,0.00000,-0.14512,-0.38003,0.04587,,,,,,,,,,,,,,,,,,,,,,,,,,0,0,0,0,0
2.8808,1783189357.0911,1,1,1.0000,0.0000,1.44682,0.23075,-2.77813,0.97655,1.57080,0.00000,-0.14512,-0.38003,0.04587,,,,,,,,,,,,,,,,,,,,,,,,,,0,0,0,0,0
2.9048,1783189357.1152,1,1,1.0000,0.0000,1.44682,0.23070,-2.77814,0.97661,1.57080,0.00000,-0.14512,-0.38003,0.04585,,,,,,,,,,,,,,,,,,,,,,,,,,0,0,0,0,0
2.9051,1783189357.1154,1,1,1.0000,0.0000,1.44682,0.23070,-2.77814,0.97661,1.57080,0.00000,-0.14512,-0.38003,0.04585,,,,,,,,,,,,,,,,,,,,,,,,,,0,0,0,0,0
2.9107,1783189357.1210,1,1,1.0000,0.0000,1.44682,0.23070,-2.77814,0.97661,1.57080,0.00000,-0.14512,-0.38003,0.04585,,,,,,,,,,,,,,,,,,,,,,,,,,0,0,0,0,0
2.9110,1783189357.1213,1,1,1.0000,0.0000,1.44682,0.23070,-2.77814,0.97661,1.57080,0.00000,-0.14512,-0.38003,0.04585,,,,,,,,,,,,,,,,,,,,,,,,,,0,0,0,0,0
2.9114,1783189357.1217,1,1,1.0000,0.0000,1.44682,0.23070,-2.77814,0.97661,1.57080,0.00000,-0.14512,-0.38003,0.04585,,,,,,,,,,,,,,,,,,,,,,,,,,0,0,0,0,0
2.9273,1783189357.1376,1,1,1.0000,0.0000,1.44682,0.23067,-2.77815,0.97664,1.57080,0.00000,-0.14512,-0.38003,0.04585,,,,,,,,,,,,,,,,,,,,,,,,,,0,0,0,0,0
2.9325,1783189357.1428,1,1,1.0000,0.0000,1.44682,0.23067,-2.77815,0.97665,1.57080,0.00000,-0.14512,-0.38003,0.04585,,,,,,,,,,,,,,,,,,,,,,,,,,0,0,0,0,0
2.9328,1783189357.1431,1,1,1.0000,0.0000,1.44682,0.23067,-2.77815,0.97665,1.57080,0.00000,-0.14512,-0.38003,0.04585,,,,,,,,,,,,,,,,,,,,,,,,,,0,0,0,0,0
2.9527,1783189357.1630,1,1,1.0000,0.0000,1.44682,0.23065,-2.77815,0.97668,1.57080,0.00000,-0.14512,-0.38003,0.04584,,,,,,,,,,,,,,,,,,,,,,,,,,0,0,0,0,0
2.9539,1783189357.1642,1,1,1.0000,0.0000,1.44682,0.23065,-2.77815,0.97668,1.57080,0.00000,-0.14512,-0.38003,0.04584,,,,,,,,,,,,,,,,,,,,,,,,,,0,0,0,0,0
2.9627,1783189357.1731,1,1,1.0000,0.0000,1.44682,0.23062,-2.77816,0.97671,1.57080,0.00000,-0.14512,-0.38003,0.04583,,,,,,,,,,,,,,,,,,,,,,,,,,0,0,0,0,0
2.9705,1783189357.1808,1,1,1.0000,0.0000,1.44682,0.23062,-2.77816,0.97671,1.57080,0.00000,-0.14512,-0.38003,0.04583,,,,,,,,,,,,,,,,,,,,,,,,,,0,0,0,0,0
2.9710,1783189357.1813,1,1,1.0000,0.0000,1.44682,0.23062,-2.77816,0.97671,1.57080,0.00000,-0.14512,-0.38003,0.04583,,,,,,,,,,,,,,,,,,,,,,,,,,0,0,0,0,0
2.9813,1783189357.1917,1,1,1.0000,0.0000,1.44682,0.23061,-2.77816,0.97672,1.57080,0.00000,-0.14512,-0.38003,0.04583,,,,,,,,,,,,,,,,,,,,,,,,,,0,0,0,0,0
3.0048,1783189357.2151,1,1,1.0000,0.0000,1.44682,0.23058,-2.77817,0.97677,1.57080,0.00000,-0.14512,-0.38003,0.04582,,,,,,,,,,,,,,,,,,,,,,,,,,0,0,0,0,0
3.0051,1783189357.2155,1,1,1.0000,0.0000,1.44682,0.23058,-2.77817,0.97677,1.57080,0.00000,-0.14512,-0.38003,0.04582,,,,,,,,,,,,,,,,,,,,,,,,,,0,0,0,0,0
3.0106,1783189357.2209,1,1,1.0000,0.0000,1.44682,0.23057,-2.77817,0.97678,1.57080,0.00000,-0.14512,-0.38003,0.04582,,,,,,,,,,,,,,,,,,,,,,,,,,0,0,0,0,0
3.0110,1783189357.2214,1,1,1.0000,0.0000,1.44682,0.23057,-2.77817,0.97678,1.57080,0.00000,-0.14512,-0.38003,0.04582,,,,,,,,,,,,,,,,,,,,,,,,,,0,0,0,0,0
3.0205,1783189357.2308,1,1,1.0000,0.0000,1.44682,0.23056,-2.77818,0.97679,1.57080,0.00000,-0.14512,-0.38003,0.04582,,,,,,,,,,,,,,,,,,,,,,,,,,0,0,0,0,0
3.0207,1783189357.2311,1,1,1.0000,0.0000,1.44682,0.23056,-2.77818,0.97679,1.57080,0.00000,-0.14512,-0.38003,0.04582,,,,,,,,,,,,,,,,,,,,,,,,,,0,0,0,0,0
3.0376,1783189357.2480,1,1,1.0000,0.0000,1.44682,0.23054,-2.77818,0.97681,1.57080,0.00000,-0.14512,-0.38003,0.04581,,,,,,,,,,,,,,,,,,,,,,,,,,0,0,0,0,0
3.0450,1783189357.2554,1,1,1.0000,0.0000,1.44682,0.23053,-2.77818,0.97683,1.57080,0.00000,-0.14512,-0.38003,0.04581,,,,,,,,,,,,,,,,,,,,,,,,,,0,0,0,0,0
3.0453,1783189357.2557,1,1,1.0000,0.0000,1.44682,0.23053,-2.77818,0.97683,1.57080,0.00000,-0.14512,-0.38003,0.04581,,,,,,,,,,,,,,,,,,,,,,,,,,0,0,0,0,0
3.0517,1783189357.2620,1,1,1.0000,0.0000,1.44682,0.23051,-2.77819,0.97685,1.57080,0.00000,-0.14512,-0.38003,0.04580,,,,,,,,,,,,,,,,,,,,,,,,,,0,0,0,0,0
3.0669,1783189357.2773,1,1,1.0000,0.0000,1.44682,0.23050,-2.77819,0.97686,1.57080,0.00000,-0.14512,-0.38003,0.04580,,,,,,,,,,,,,,,,,,,,,,,,,,0,0,0,0,0
3.0728,1783189357.2832,1,1,1.0000,0.0000,1.44682,0.23049,-2.77819,0.97687,1.57080,0.00000,-0.14512,-0.38003,0.04580,,,,,,,,,,,,,,,,,,,,,,,,,,0,0,0,0,0
3.0733,1783189357.2837,1,1,1.0000,0.0000,1.44682,0.23049,-2.77819,0.97687,1.57080,0.00000,-0.14512,-0.38003,0.04580,,,,,,,,,,,,,,,,,,,,,,,,,,0,0,0,0,0
3.0816,1783189357.2919,1,1,1.0000,0.0000,1.44682,0.23047,-2.77820,0.97689,1.57080,0.00000,-0.14512,-0.38003,0.04580,,,,,,,,,,,,,,,,,,,,,,,,,,0,0,0,0,0
3.0936,1783189357.3040,1,1,1.0000,0.0000,1.44682,0.23046,-2.77820,0.97691,1.57080,0.00000,-0.14512,-0.38003,0.04579,,,,,,,,,,,,,,,,,,,,,,,,,,0,0,0,0,0
3.1037,1783189357.3141,1,1,1.0000,0.0000,1.44682,0.23045,-2.77821,0.97693,1.57080,0.00000,-0.14512,-0.38003,0.04579,,,,,,,,,,,,,,,,,,,,,,,,,,0,0,0,0,0
3.1040,1783189357.3143,1,1,1.0000,0.0000,1.44682,0.23045,-2.77821,0.97693,1.57080,0.00000,-0.14512,-0.38003,0.04579,,,,,,,,,,,,,,,,,,,,,,,,,,0,0,0,0,0
3.1146,1783189357.3250,1,1,1.0000,0.0000,1.44682,0.23042,-2.77821,0.97696,1.57080,0.00000,-0.14512,-0.38003,0.04578,,,,,,,,,,,,,,,,,,,,,,,,,,0,0,0,0,0
3.1207,1783189357.3310,1,1,1.0000,0.0000,1.44682,0.23042,-2.77821,0.97696,1.57080,0.00000,-0.14512,-0.38003,0.04578,,,,,,,,,,,,,,,,,,,,,,,,,,0,0,0,0,0
3.1318,1783189357.3421,1,1,1.0000,0.0000,1.44682,0.23041,-2.77821,0.97697,1.57080,0.00000,-0.14512,-0.38003,0.04578,,,,,,,,,,,,,,,,,,,,,,,,,,0,0,0,0,0
3.1420,1783189357.3524,1,1,1.0000,0.0000,1.44682,0.23040,-2.77822,0.97699,1.57080,0.00000,-0.14512,-0.38003,0.04578,,,,,,,,,,,,,,,,,,,,,,,,,,0,0,0,0,0
3.1427,1783189357.3530,1,1,1.0000,0.0000,1.44682,0.23039,-2.77822,0.97700,1.57080,0.00000,-0.14512,-0.38003,0.04577,,,,,,,,,,,,,,,,,,,,,,,,,,0,0,0,0,0
3.1537,1783189357.3640,1,1,1.0000,0.0000,1.44682,0.23039,-2.77822,0.97700,1.57080,0.00000,-0.14512,-0.38003,0.04577,,,,,,,,,,,,,,,,,,,,,,,,,,0,0,0,0,0
3.1659,1783189357.3762,1,1,1.0000,0.0000,1.44682,0.23037,-2.77822,0.97702,1.57080,0.00000,-0.14512,-0.38003,0.04577,,,,,,,,,,,,,,,,,,,,,,,,,,0,0,0,0,0
3.1723,1783189357.3826,1,1,1.0000,0.0000,1.44682,0.23035,-2.77823,0.97704,1.57080,0.00000,-0.14512,-0.38003,0.04576,,,,,,,,,,,,,,,,,,,,,,,,,,0,0,0,0,0
3.1834,1783189357.3938,1,1,1.0000,0.0000,1.44682,0.23035,-2.77823,0.97706,1.57080,0.00000,-0.14512,-0.38003,0.04576,,,,,,,,,,,,,,,,,,,,,,,,,,0,0,0,0,0
3.1906,1783189357.4010,1,1,1.0000,0.0000,1.44682,0.23034,-2.77823,0.97706,1.57080,0.00000,-0.14512,-0.38003,0.04576,,,,,,,,,,,,,,,,,,,,,,,,,,0,0,0,0,0
3.1910,1783189357.4014,1,1,1.0000,0.0000,1.44682,0.23034,-2.77823,0.97706,1.57080,0.00000,-0.14512,-0.38003,0.04576,,,,,,,,,,,,,,,,,,,,,,,,,,0,0,0,0,0
3.2089,1783189357.4193,1,1,1.0000,0.0000,1.44682,0.23032,-2.77824,0.97709,1.57080,0.00000,-0.14512,-0.38003,0.04575,,,,,,,,,,,,,,,,,,,,,,,,,,0,0,0,0,0
3.2109,1783189357.4212,1,1,1.0000,0.0000,1.44682,0.23032,-2.77824,0.97709,1.57080,0.00000,-0.14512,-0.38003,0.04575,,,,,,,,,,,,,,,,,,,,,,,,,,0,0,0,0,0
3.2113,1783189357.4216,1,1,1.0000,0.0000,1.44682,0.23032,-2.77824,0.97709,1.57080,0.00000,-0.14512,-0.38003,0.04575,,,,,,,,,,,,,,,,,,,,,,,,,,0,0,0,0,0
3.2211,1783189357.4315,1,1,1.0000,0.0000,1.44682,0.23031,-2.77824,0.97710,1.57080,0.00000,-0.14512,-0.38003,0.04575,,,,,,,,,,,,,,,,,,,,,,,,,,0,0,0,0,0
3.2345,1783189357.4448,1,1,1.0000,0.0000,1.44682,0.23027,-2.77825,0.97715,1.57080,0.00000,-0.14512,-0.38003,0.04574,,,,,,,,,,,,,,,,,,,,,,,,,,0,0,0,0,0
3.2410,1783189357.4514,1,1,1.0000,0.0000,1.44682,0.23027,-2.77825,0.97715,1.57080,0.00000,-0.14512,-0.38003,0.04574,,,,,,,,,,,,,,,,,,,,,,,,,,0,0,0,0,0
3.2539,1783189357.4642,1,1,1.0000,0.0000,1.44682,0.23026,-2.77825,0.97716,1.57080,0.00000,-0.14512,-0.38003,0.04574,,,,,,,,,,,,,,,,,,,,,,,,,,0,0,0,0,0
3.2681,1783189357.4785,1,1,1.0000,0.0000,1.44682,0.23024,-2.77826,0.97718,1.57080,0.00000,-0.14512,-0.38003,0.04574,,,,,,,,,,,,,,,,,,,,,,,,,,0,0,0,0,0
3.2704,1783189357.4808,1,1,1.0000,0.0000,1.44682,0.23024,-2.77826,0.97719,1.57080,0.00000,-0.14512,-0.38003,0.04573,,,,,,,,,,,,,,,,,,,,,,,,,,0,0,0,0,0
3.2707,1783189357.4811,1,1,1.0000,0.0000,1.44682,0.23024,-2.77826,0.97719,1.57080,0.00000,-0.14512,-0.38003,0.04573,,,,,,,,,,,,,,,,,,,,,,,,,,0,0,0,0,0
3.2802,1783189357.4906,1,1,1.0000,0.0000,1.44682,0.23023,-2.77826,0.97720,1.57080,0.00000,-0.14512,-0.38003,0.04573,,,,,,,,,,,,,,,,,,,,,,,,,,0,0,0,0,0
3.2807,1783189357.4910,1,1,1.0000,0.0000,1.44682,0.23023,-2.77826,0.97720,1.57080,0.00000,-0.14512,-0.38003,0.04573,,,,,,,,,,,,,,,,,,,,,,,,,,0,0,0,0,0
3.2906,1783189357.5009,1,1,1.0000,0.0000,1.44682,0.23021,-2.77827,0.97723,1.57080,0.00000,-0.14512,-0.38003,0.04573,,,,,,,,,,,,,,,,,,,,,,,,,,0,0,0,0,0
3.3123,1783189357.5227,1,1,1.0000,0.0000,1.44682,0.23019,-2.77827,0.97725,1.57080,0.00000,-0.14512,-0.38003,0.04572,,,,,,,,,,,,,,,,,,,,,,,,,,0,0,0,0,0
3.3204,1783189357.5307,1,1,1.0000,0.0000,1.44682,0.23018,-2.77827,0.97727,1.57080,0.00000,-0.14512,-0.38003,0.04572,,,,,,,,,,,,,,,,,,,,,,,,,,0,0,0,0,0
3.3207,1783189357.5310,1,1,1.0000,0.0000,1.44682,0.23018,-2.77827,0.97727,1.57080,0.00000,-0.14512,-0.38003,0.04572,,,,,,,,,,,,,,,,,,,,,,,,,,0,0,0,0,0
3.3311,1783189357.5414,1,1,1.0000,0.0000,1.44682,0.23017,-2.77828,0.97728,1.57080,0.00000,-0.14512,-0.38003,0.04572,,,,,,,,,,,,,,,,,,,,,,,,,,0,0,0,0,0
3.3406,1783189357.5510,1,1,1.0000,0.0000,1.44682,0.23016,-2.77828,0.97729,1.57080,0.00000,-0.14512,-0.38003,0.04571,,,,,,,,,,,,,,,,,,,,,,,,,,0,0,0,0,0
3.3561,1783189357.5665,1,1,1.0000,0.0000,1.44682,0.23012,-2.77829,0.97733,1.57080,0.00000,-0.14512,-0.38003,0.04570,,,,,,,,,,,,,,,,,,,,,,,,,,0,0,0,0,0
3.3619,1783189357.5723,1,1,1.0000,0.0000,1.44682,0.23012,-2.77829,0.97733,1.57080,0.00000,-0.14512,-0.38003,0.04570,,,,,,,,,,,,,,,,,,,,,,,,,,0,0,0,0,0
3.3626,1783189357.5729,1,1,1.0000,0.0000,1.44682,0.23012,-2.77829,0.97734,1.57080,0.00000,-0.14512,-0.38003,0.04570,,,,,,,,,,,,,,,,,,,,,,,,,,0,0,0,0,0
3.3716,1783189357.5819,1,1,1.0000,0.0000,1.44682,0.23011,-2.77829,0.97735,1.57080,0.00000,-0.14512,-0.38003,0.04570,,,,,,,,,,,,,,,,,,,,,,,,,,0,0,0,0,0
3.3826,1783189357.5929,1,1,1.0000,0.0000,1.44682,0.23009,-2.77830,0.97737,1.57080,0.00000,-0.14512,-0.38003,0.04570,,,,,,,,,,,,,,,,,,,,,,,,,,0,0,0,0,0
3.3915,1783189357.6018,1,1,1.0000,0.0000,1.44682,0.23009,-2.77830,0.97737,1.57080,0.00000,-0.14512,-0.38003,0.04570,,,,,,,,,,,,,,,,,,,,,,,,,,0,0,0,0,0
3.4003,1783189357.6107,1,1,1.0000,0.0000,1.44682,0.23008,-2.77830,0.97739,1.57080,0.00000,-0.14512,-0.38003,0.04569,,,,,,,,,,,,,,,,,,,,,,,,,,0,0,0,0,0
3.4148,1783189357.6251,1,1,1.0000,0.0000,1.44682,0.23005,-2.77831,0.97743,1.57080,0.00000,-0.14512,-0.38003,0.04568,,,,,,,,,,,,,,,,,,,,,,,,,,0,0,0,0,0
3.4248,1783189357.6352,1,1,1.0000,0.0000,1.44682,0.23005,-2.77831,0.97743,1.57080,0.00000,-0.14512,-0.38003,0.04568,,,,,,,,,,,,,,,,,,,,,,,,,,0,0,0,0,0
3.4326,1783189357.6429,1,1,1.0000,0.0000,1.44682,0.23004,-2.77831,0.97744,1.57080,0.00000,-0.14512,-0.38003,0.04568,,,,,,,,,,,,,,,,,,,,,,,,,,0,0,0,0,0
3.4420,1783189357.6524,1,1,1.0000,0.0000,1.44682,0.23003,-2.77831,0.97745,1.57080,0.00000,-0.14512,-0.38003,0.04568,,,,,,,,,,,,,,,,,,,,,,,,,,0,0,0,0,0
3.4759,1783189357.6863,1,1,1.0000,0.0000,1.44682,0.22997,-2.77833,0.97752,1.57080,0.00000,-0.14512,-0.38003,0.04567,,,,,,,,,,,,,,,,,,,,,,,,,,0,0,0,0,0
3.4764,1783189357.6867,1,1,1.0000,0.0000,1.44682,0.22997,-2.77833,0.97752,1.57080,0.00000,-0.14512,-0.38003,0.04567,,,,,,,,,,,,,,,,,,,,,,,,,,0,0,0,0,0
3.4818,1783189357.6921,1,1,1.0000,0.0000,1.44682,0.22997,-2.77833,0.97752,1.57080,0.00000,-0.14512,-0.38003,0.04567,,,,,,,,,,,,,,,,,,,,,,,,,,0,0,0,0,0
3.4822,1783189357.6925,1,1,1.0000,0.0000,1.44682,0.22997,-2.77833,0.97752,1.57080,0.00000,-0.14512,-0.38003,0.04567,,,,,,,,,,,,,,,,,,,,,,,,,,0,0,0,0,0
3.4854,1783189357.6957,1,1,1.0000,0.0000,1.44682,0.22997,-2.77833,0.97752,1.57080,0.00000,-0.14512,-0.38003,0.04566,,,,,,,,,,,,,,,,,,,,,,,,,,0,0,0,0,0
3.4947,1783189357.7051,1,1,1.0000,0.0000,1.44682,0.22996,-2.77833,0.97755,1.57080,0.00000,-0.14512,-0.38003,0.04566,,,,,,,,,,,,,,,,,,,,,,,,,,0,0,0,0,0
3.4951,1783189357.7055,1,1,1.0000,0.0000,1.44682,0.22996,-2.77833,0.97755,1.57080,0.00000,-0.14512,-0.38003,0.04566,,,,,,,,,,,,,,,,,,,,,,,,,,0,0,0,0,0
3.5004,1783189357.7107,1,1,1.0000,0.0000,1.44682,0.22995,-2.77833,0.97756,1.57080,0.00000,-0.14512,-0.38003,0.04566,,,,,,,,,,,,,,,,,,,,,,,,,,0,0,0,0,0
3.5137,1783189357.7241,1,1,1.0000,0.0000,1.44682,0.22994,-2.77834,0.97757,1.57080,0.00000,-0.14512,-0.38003,0.04566,,,,,,,,,,,,,,,,,,,,,,,,,,0,0,0,0,0
3.5220,1783189357.7323,1,1,1.0000,0.0000,1.44682,0.22993,-2.77834,0.97758,1.57080,0.00000,-0.14512,-0.38003,0.04565,,,,,,,,,,,,,,,,,,,,,,,,,,0,0,0,0,0
3.5307,1783189357.7410,1,1,1.0000,0.0000,1.44682,0.22990,-2.77834,0.97761,1.57080,0.00000,-0.14512,-0.38003,0.04565,,,,,,,,,,,,,,,,,,,,,,,,,,0,0,0,0,0
3.5310,1783189357.7414,1,1,1.0000,0.0000,1.44682,0.22990,-2.77834,0.97761,1.57080,0.00000,-0.14512,-0.38003,0.04565,,,,,,,,,,,,,,,,,,,,,,,,,,0,0,0,0,0
3.5406,1783189357.7510,1,1,1.0000,0.0000,1.44682,0.22989,-2.77835,0.97762,1.57080,0.00000,-0.14512,-0.38003,0.04564,,,,,,,,,,,,,,,,,,,,,,,,,,0,0,0,0,0
3.5507,1783189357.7611,1,1,1.0000,0.0000,1.44682,0.22988,-2.77835,0.97764,1.57080,0.00000,-0.14512,-0.38003,0.04564,,,,,,,,,,,,,,,,,,,,,,,,,,0,0,0,0,0
3.5510,1783189357.7614,1,1,1.0000,0.0000,1.44682,0.22988,-2.77835,0.97764,1.57080,0.00000,-0.14512,-0.38003,0.04564,,,,,,,,,,,,,,,,,,,,,,,,,,0,0,0,0,0
3.5616,1783189357.7719,1,1,1.0000,0.0000,1.44682,0.22987,-2.77835,0.97766,1.57080,0.00000,-0.14512,-0.38003,0.04564,,,,,,,,,,,,,,,,,,,,,,,,,,0,0,0,0,0
3.5848,1783189357.7951,1,1,1.0000,0.0000,1.44682,0.22984,-2.77836,0.97769,1.57080,0.00000,-0.14512,-0.38003,0.04563,,,,,,,,,,,,,,,,,,,,,,,,,,0,0,0,0,0
3.5853,1783189357.7956,1,1,1.0000,0.0000,1.44682,0.22984,-2.77836,0.97769,1.57080,0.00000,-0.14512,-0.38003,0.04563,,,,,,,,,,,,,,,,,,,,,,,,,,0,0,0,0,0
3.5857,1783189357.7960,1,1,1.0000,0.0000,1.44682,0.22984,-2.77836,0.97769,1.57080,0.00000,-0.14512,-0.38003,0.04563,,,,,,,,,,,,,,,,,,,,,,,,,,0,0,0,0,0
3.5859,1783189357.7963,1,1,1.0000,0.0000,1.44682,0.22984,-2.77836,0.97769,1.57080,0.00000,-0.14512,-0.38003,0.04563,,,,,,,,,,,,,,,,,,,,,,,,,,0,0,0,0,0
3.5938,1783189357.8042,1,1,1.0000,0.0000,1.44682,0.22983,-2.77836,0.97771,1.57080,0.00000,-0.14512,-0.38003,0.04563,,,,,,,,,,,,,,,,,,,,,,,,,,0,0,0,0,0
3.5941,1783189357.8044,1,1,1.0000,0.0000,1.44682,0.22983,-2.77836,0.97771,1.57080,0.00000,-0.14512,-0.38003,0.04563,,,,,,,,,,,,,,,,,,,,,,,,,,0,0,0,0,0
3.6015,1783189357.8118,1,1,1.0000,0.0000,1.44682,0.22982,-2.77837,0.97772,1.57080,0.00000,-0.14512,-0.38003,0.04562,,,,,,,,,,,,,,,,,,,,,,,,,,0,0,0,0,0
3.6250,1783189357.8353,1,1,1.0000,0.0000,1.44682,0.22978,-2.77838,0.97776,1.57080,0.00000,-0.14512,-0.38003,0.04562,,,,,,,,,,,,,,,,,,,,,,,,,,0,0,0,0,0
3.6253,1783189357.8357,1,1,1.0000,0.0000,1.44682,0.22978,-2.77838,0.97776,1.57080,0.00000,-0.14512,-0.38003,0.04562,,,,,,,,,,,,,,,,,,,,,,,,,,0,0,0,0,0
3.6309,1783189357.8412,1,1,1.0000,0.0000,1.44682,0.22977,-2.77838,0.97777,1.57080,0.00000,-0.14512,-0.38003,0.04561,,,,,,,,,,,,,,,,,,,,,,,,,,0,0,0,0,0
3.6313,1783189357.8416,1,1,1.0000,0.0000,1.44682,0.22977,-2.77838,0.97777,1.57080,0.00000,-0.14512,-0.38003,0.04561,,,,,,,,,,,,,,,,,,,,,,,,,,0,0,0,0,0
3.6405,1783189357.8509,1,1,1.0000,0.0000,1.44682,0.22977,-2.77838,0.97778,1.57080,0.00000,-0.14512,-0.38003,0.04561,,,,,,,,,,,,,,,,,,,,,,,,,,0,0,0,0,0
3.6522,1783189357.8625,1,1,1.0000,0.0000,1.44682,0.22975,-2.77838,0.97780,1.57080,0.00000,-0.14512,-0.38003,0.04561,,,,,,,,,,,,,,,,,,,,,,,,,,0,0,0,0,0
3.6658,1783189357.8761,1,1,1.0000,0.0000,1.44682,0.22974,-2.77839,0.97781,1.57080,0.00000,-0.14512,-0.38003,0.04561,,,,,,,,,,,,,,,,,,,,,,,,,,0,0,0,0,0
3.6718,1783189357.8821,1,1,1.0000,0.0000,1.44682,0.22973,-2.77839,0.97782,1.57080,0.00000,-0.14512,-0.38003,0.04560,,,,,,,,,,,,,,,,,,,,,,,,,,0,0,0,0,0
3.6831,1783189357.8934,1,1,1.0000,0.0000,1.44682,0.22971,-2.77839,0.97786,1.57080,0.00000,-0.14512,-0.38003,0.04560,,,,,,,,,,,,,,,,,,,,,,,,,,0,0,0,0,0
3.6908,1783189357.9012,1,1,1.0000,0.0000,1.44682,0.22970,-2.77840,0.97787,1.57080,0.00000,-0.14512,-0.38003,0.04559,,,,,,,,,,,,,,,,,,,,,,,,,,0,0,0,0,0
3.7005,1783189357.9108,1,1,1.0000,0.0000,1.44682,0.22970,-2.77840,0.97787,1.57080,0.00000,-0.14512,-0.38003,0.04559,,,,,,,,,,,,,,,,,,,,,,,,,,0,0,0,0,0
3.7008,1783189357.9111,1,1,1.0000,0.0000,1.44682,0.22970,-2.77840,0.97787,1.57080,0.00000,-0.14512,-0.38003,0.04559,,,,,,,,,,,,,,,,,,,,,,,,,,0,0,0,0,0
3.7208,1783189357.9311,1,1,1.0000,0.0000,1.44682,0.22967,-2.77840,0.97790,1.57080,0.00000,-0.14512,-0.38003,0.04559,,,,,,,,,,,,,,,,,,,,,,,,,,0,0,0,0,0
3.7210,1783189357.9314,1,1,1.0000,0.0000,1.44682,0.22967,-2.77840,0.97790,1.57080,0.00000,-0.14512,-0.38003,0.04559,,,,,,,,,,,,,,,,,,,,,,,,,,0,0,0,0,0
3.7229,1783189357.9332,1,1,1.0000,0.0000,1.44682,0.22967,-2.77840,0.97790,1.57080,0.00000,-0.14512,-0.38003,0.04559,,,,,,,,,,,,,,,,,,,,,,,,,,0,0,0,0,0
3.7232,1783189357.9336,1,1,1.0000,0.0000,1.44682,0.22967,-2.77840,0.97790,1.57080,0.00000,-0.14512,-0.38003,0.04559,,,,,,,,,,,,,,,,,,,,,,,,,,0,0,0,0,0
3.7308,1783189357.9411,1,1,1.0000,0.0000,1.44682,0.22966,-2.77841,0.97792,1.57080,0.00000,-0.14512,-0.38003,0.04558,,,,,,,,,,,,,,,,,,,,,,,,,,0,0,0,0,0
3.7406,1783189357.9509,1,1,1.0000,0.0000,1.44682,0.22964,-2.77841,0.97794,1.57080,0.00000,-0.14512,-0.38003,0.04558,,,,,,,,,,,,,,,,,,,,,,,,,,0,0,0,0,0
3.7534,1783189357.9638,1,1,1.0000,0.0000,1.44682,0.22962,-2.77842,0.97796,1.57080,0.00000,-0.14512,-0.38003,0.04557,,,,,,,,,,,,,,,,,,,,,,,,,,0,0,0,0,0
3.7657,1783189357.9760,1,1,1.0000,0.0000,1.44682,0.22962,-2.77842,0.97797,1.57080,0.00000,-0.14512,-0.38003,0.04557,,,,,,,,,,,,,,,,,,,,,,,,,,0,0,0,0,0
3.7725,1783189357.9829,1,1,1.0000,0.0000,1.44682,0.22960,-2.77842,0.97799,1.57080,0.00000,-0.14512,-0.38003,0.04557,,,,,,,,,,,,,,,,,,,,,,,,,,0,0,0,0,0
3.7803,1783189357.9906,1,1,1.0000,0.0000,1.44682,0.22960,-2.77842,0.97800,1.57080,0.00000,-0.14512,-0.38003,0.04557,,,,,,,,,,,,,,,,,,,,,,,,,,0,0,0,0,0
3.7806,1783189357.9909,1,1,1.0000,0.0000,1.44682,0.22960,-2.77842,0.97800,1.57080,0.00000,-0.14512,-0.38003,0.04557,,,,,,,,,,,,,,,,,,,,,,,,,,0,0,0,0,0
3.7908,1783189358.0012,1,1,1.0000,0.0000,1.44682,0.22958,-2.77843,0.97801,1.57080,0.00000,-0.14512,-0.38003,0.04556,,,,,,,,,,,,,,,,,,,,,,,,,,0,0,0,0,0
3.8005,1783189358.0109,1,1,1.0000,0.0000,1.44682,0.22957,-2.77843,0.97803,1.57080,0.00000,-0.14512,-0.38003,0.04556,,,,,,,,,,,,,,,,,,,,,,,,,,0,0,0,0,0
3.8009,1783189358.0113,1,1,1.0000,0.0000,1.44682,0.22957,-2.77843,0.97803,1.57080,0.00000,-0.14512,-0.38003,0.04556,,,,,,,,,,,,,,,,,,,,,,,,,,0,0,0,0,0
3.8108,1783189358.0212,1,1,1.0000,0.0000,1.44682,0.22955,-2.77843,0.97805,1.57080,0.00000,-0.14512,-0.38003,0.04555,,,,,,,,,,,,,,,,,,,,,,,,,,0,0,0,0,0
3.8242,1783189358.0345,1,1,1.0000,0.0000,1.44682,0.22954,-2.77844,0.97806,1.57080,0.00000,-0.14512,-0.38003,0.04555,,,,,,,,,,,,,,,,,,,,,,,,,,0,0,0,0,0
3.8309,1783189358.0412,1,1,1.0000,0.0000,1.44682,0.22953,-2.77844,0.97808,1.57080,0.00000,-0.14512,-0.38003,0.04555,,,,,,,,,,,,,,,,,,,,,,,,,,0,0,0,0,0
3.8420,1783189358.0523,1,1,1.0000,0.0000,1.44682,0.22952,-2.77844,0.97809,1.57080,0.00000,-0.14512,-0.38003,0.04555,,,,,,,,,,,,,,,,,,,,,,,,,,0,0,0,0,0
3.8513,1783189358.0617,1,1,1.0000,0.0000,1.44682,0.22951,-2.77845,0.97810,1.57080,0.00000,-0.14512,-0.38003,0.04554,,,,,,,,,,,,,,,,,,,,,,,,,,0,0,0,0,0
3.8518,1783189358.0622,1,1,1.0000,0.0000,1.44682,0.22951,-2.77845,0.97810,1.57080,0.00000,-0.14512,-0.38003,0.04554,,,,,,,,,,,,,,,,,,,,,,,,,,0,0,0,0,0
3.8689,1783189358.0792,1,1,1.0000,0.0000,1.44682,0.22948,-2.77845,0.97815,1.57080,0.00000,-0.14512,-0.38003,0.04554,,,,,,,,,,,,,,,,,,,,,,,,,,0,0,0,0,0
3.8739,1783189358.0842,1,1,1.0000,0.0000,1.44682,0.22948,-2.77845,0.97815,1.57080,0.00000,-0.14512,-0.38003,0.04554,,,,,,,,,,,,,,,,,,,,,,,,,,0,0,0,0,0
3.8806,1783189358.0910,1,1,1.0000,0.0000,1.44682,0.22947,-2.77845,0.97815,1.57080,0.00000,-0.14512,-0.38003,0.04553,,,,,,,,,,,,,,,,,,,,,,,,,,0,0,0,0,0
3.8926,1783189358.1030,1,1,1.0000,0.0000,1.44682,0.22945,-2.77846,0.97817,1.57080,0.00000,-0.14512,-0.38003,0.04553,,,,,,,,,,,,,,,,,,,,,,,,,,0,0,0,0,0
3.8934,1783189358.1038,1,1,1.0000,0.0000,1.44682,0.22945,-2.77846,0.97817,1.57080,0.00000,-0.14512,-0.38003,0.04553,,,,,,,,,,,,,,,,,,,,,,,,,,0,0,0,0,0
3.9007,1783189358.1111,1,1,1.0000,0.0000,1.44682,0.22945,-2.77846,0.97818,1.57080,0.00000,-0.14512,-0.38003,0.04553,,,,,,,,,,,,,,,,,,,,,,,,,,0,0,0,0,0
3.9121,1783189358.1224,1,1,1.0000,0.0000,1.44682,0.22944,-2.77846,0.97820,1.57080,0.00000,-0.14512,-0.38003,0.04552,,,,,,,,,,,,,,,,,,,,,,,,,,0,0,0,0,0
3.9279,1783189358.1383,1,1,1.0000,0.0000,1.44682,0.22940,-2.77847,0.97824,1.57080,0.00000,-0.14512,-0.38003,0.04552,,,,,,,,,,,,,,,,,,,,,,,,,,0,0,0,0,0
3.9336,1783189358.1440,1,1,1.0000,0.0000,1.44682,0.22940,-2.77847,0.97824,1.57080,0.00000,-0.14512,-0.38003,0.04552,,,,,,,,,,,,,,,,,,,,,,,,,,0,0,0,0,0
3.9403,1783189358.1506,1,1,1.0000,0.0000,1.44682,0.22940,-2.77847,0.97825,1.57080,0.00000,-0.14512,-0.38003,0.04551,,,,,,,,,,,,,,,,,,,,,,,,,,0,0,0,0,0
3.9509,1783189358.1613,1,1,1.0000,0.0000,1.44682,0.22938,-2.77848,0.97827,1.57080,0.00000,-0.14512,-0.38003,0.04551,,,,,,,,,,,,,,,,,,,,,,,,,,0,0,0,0,0
3.9512,1783189358.1616,1,1,1.0000,0.0000,1.44682,0.22938,-2.77848,0.97827,1.57080,0.00000,-0.14512,-0.38003,0.04551,,,,,,,,,,,,,,,,,,,,,,,,,,0,0,0,0,0
3.9616,1783189358.1719,1,1,1.0000,0.0000,1.44682,0.22937,-2.77848,0.97828,1.57080,0.00000,-0.14512,-0.38003,0.04551,,,,,,,,,,,,,,,,,,,,,,,,,,0,0,0,0,0
3.9619,1783189358.1723,1,1,1.0000,0.0000,1.44682,0.22937,-2.77848,0.97828,1.57080,0.00000,-0.14512,-0.38003,0.04551,,,,,,,,,,,,,,,,,,,,,,,,,,0,0,0,0,0
3.9767,1783189358.1870,1,1,1.0000,0.0000,1.44682,0.22935,-2.77849,0.97830,1.57080,0.00000,-0.14512,-0.38003,0.04550,,,,,,,,,,,,,,,,,,,,,,,,,,0,0,0,0,0
3.9896,1783189358.1999,1,1,1.0000,0.0000,1.44682,0.22933,-2.77849,0.97833,1.57080,0.00000,-0.14512,-0.38003,0.04550,,,,,,,,,,,,,,,,,,,,,,,,,,0,0,0,0,0
3.9989,1783189358.2093,1,1,1.0000,0.0000,1.44682,0.22932,-2.77849,0.97834,1.57080,0.00000,-0.14512,-0.38003,0.04550,,,,,,,,,,,,,,,,,,,,,,,,,,0,0,0,0,0
3.9991,1783189358.2094,1,1,1.0000,0.0000,1.44682,0.22932,-2.77849,0.97834,1.57080,0.00000,-0.14512,-0.38003,0.04550,,,,,,,,,,,,,,,,,,,,,,,,,,0,0,0,0,0
4.0040,1783189358.2143,1,1,1.0000,0.0000,1.44682,0.22932,-2.77849,0.97835,1.57080,0.00000,-0.14512,-0.38003,0.04549,,,,,,,,,,,,,,,,,,,,,,,,,,0,0,0,0,0
4.0043,1783189358.2146,1,1,1.0000,0.0000,1.44682,0.22932,-2.77849,0.97835,1.57080,0.00000,-0.14512,-0.38003,0.04549,,,,,,,,,,,,,,,,,,,,,,,,,,0,0,0,0,0
4.0115,1783189358.2219,1,1,1.0000,0.0000,1.44682,0.22930,-2.77850,0.97837,1.57080,0.00000,-0.14512,-0.38003,0.04549,,,,,,,,,,,,,,,,,,,,,,,,,,0,0,0,0,0
4.0257,1783189358.2360,1,1,1.0000,0.0000,1.44682,0.22929,-2.77850,0.97838,1.57080,0.00000,-0.14512,-0.38003,0.04549,,,,,,,,,,,,,,,,,,,,,,,,,,0,0,0,0,0
4.0371,1783189358.2474,1,1,1.0000,0.0000,1.44682,0.22927,-2.77851,0.97840,1.57080,0.00000,-0.14512,-0.38003,0.04548,,,,,,,,,,,,,,,,,,,,,,,,,,0,0,0,0,0
4.0450,1783189358.2553,1,1,1.0000,0.0000,1.44682,0.22925,-2.77851,0.97843,1.57080,0.00000,-0.14512,-0.38003,0.04548,,,,,,,,,,,,,,,,,,,,,,,,,,0,0,0,0,0
4.0503,1783189358.2607,1,1,1.0000,0.0000,1.44682,0.22925,-2.77851,0.97844,1.57080,0.00000,-0.14512,-0.38003,0.04548,,,,,,,,,,,,,,,,,,,,,,,,,,0,0,0,0,0
4.0511,1783189358.2615,1,1,1.0000,0.0000,1.44682,0.22925,-2.77851,0.97844,1.57080,0.00000,-0.14512,-0.38003,0.04548,,,,,,,,,,,,,,,,,,,,,,,,,,0,0,0,0,0
4.0623,1783189358.2727,1,1,1.0000,0.0000,1.44682,0.22924,-2.77851,0.97844,1.57080,0.00000,-0.14512,-0.38003,0.04547,,,,,,,,,,,,,,,,,,,,,,,,,,0,0,0,0,0
4.0729,1783189358.2833,1,1,1.0000,0.0000,1.44682,0.22922,-2.77852,0.97847,1.57080,0.00000,-0.14512,-0.38003,0.04547,,,,,,,,,,,,,,,,,,,,,,,,,,0,0,0,0,0
4.0734,1783189358.2838,1,1,1.0000,0.0000,1.44682,0.22922,-2.77852,0.97847,1.57080,0.00000,-0.14512,-0.38003,0.04547,,,,,,,,,,,,,,,,,,,,,,,,,,0,0,0,0,0
4.0820,1783189358.2924,1,1,1.0000,0.0000,1.44682,0.22921,-2.77852,0.97848,1.57080,0.00000,-0.14512,-0.38003,0.04547,,,,,,,,,,,,,,,,,,,,,,,,,,0,0,0,0,0
4.0918,1783189358.3021,1,1,1.0000,0.0000,1.44682,0.22920,-2.77852,0.97850,1.57080,0.00000,-0.14512,-0.38003,0.04546,,,,,,,,,,,,,,,,,,,,,,,,,,0,0,0,0,0
4.0920,1783189358.3024,1,1,1.0000,0.0000,1.44682,0.22920,-2.77852,0.97850,1.57080,0.00000,-0.14512,-0.38003,0.04546,,,,,,,,,,,,,,,,,,,,,,,,,,0,0,0,0,0
4.1049,1783189358.3153,1,1,1.0000,0.0000,1.44682,0.22917,-2.77853,0.97853,1.57080,0.00000,-0.14512,-0.38003,0.04546,,,,,,,,,,,,,,,,,,,,,,,,,,0,0,0,0,0
4.1106,1783189358.3210,1,1,1.0000,0.0000,1.44682,0.22916,-2.77853,0.97854,1.57080,0.00000,-0.14512,-0.38003,0.04545,,,,,,,,,,,,,,,,,,,,,,,,,,0,0,0,0,0
4.1108,1783189358.3212,1,1,1.0000,0.0000,1.44682,0.22916,-2.77853,0.97854,1.57080,0.00000,-0.14512,-0.38003,0.04545,,,,,,,,,,,,,,,,,,,,,,,,,,0,0,0,0,0
4.1278,1783189358.3382,1,1,1.0000,0.0000,1.44682,0.22915,-2.77854,0.97856,1.57080,0.00000,-0.14512,-0.38003,0.04545,,,,,,,,,,,,,,,,,,,,,,,,,,0,0,0,0,0
4.1320,1783189358.3423,1,1,1.0000,0.0000,1.44682,0.22914,-2.77854,0.97857,1.57080,0.00000,-0.14512,-0.38003,0.04545,,,,,,,,,,,,,,,,,,,,,,,,,,0,0,0,0,0
4.1406,1783189358.3509,1,1,1.0000,0.0000,1.44682,0.22913,-2.77854,0.97858,1.57080,0.00000,-0.14512,-0.38003,0.04544,,,,,,,,,,,,,,,,,,,,,,,,,,0,0,0,0,0
4.1519,1783189358.3622,1,1,1.0000,0.0000,1.44682,0.22912,-2.77855,0.97860,1.57080,0.00000,-0.14512,-0.38003,0.04544,,,,,,,,,,,,,,,,,,,,,,,,,,0,0,0,0,0
4.1640,1783189358.3744,1,1,1.0000,0.0000,1.44682,0.22909,-2.77855,0.97863,1.57080,0.00000,-0.14512,-0.38003,0.04544,,,,,,,,,,,,,,,,,,,,,,,,,,0,0,0,0,0
4.1750,1783189358.3853,1,1,1.0000,0.0000,1.44682,0.22908,-2.77855,0.97864,1.57080,0.00000,-0.14512,-0.38003,0.04543,,,,,,,,,,,,,,,,,,,,,,,,,,0,0,0,0,0
4.1842,1783189358.3945,1,1,1.0000,0.0000,1.44682,0.22907,-2.77856,0.97865,1.57080,0.00000,-0.14512,-0.38003,0.04543,,,,,,,,,,,,,,,,,,,,,,,,,,0,0,0,0,0
4.1910,1783189358.4013,1,1,1.0000,0.0000,1.44682,0.22906,-2.77856,0.97867,1.57080,0.00000,-0.14512,-0.38003,0.04543,,,,,,,,,,,,,,,,,,,,,,,,,,0,0,0,0,0
4.1914,1783189358.4017,1,1,1.0000,0.0000,1.44682,0.22906,-2.77856,0.97867,1.57080,0.00000,-0.14512,-0.38003,0.04543,,,,,,,,,,,,,,,,,,,,,,,,,,0,0,0,0,0
4.2004,1783189358.4107,1,1,1.0000,0.0000,1.44682,0.22904,-2.77857,0.97870,1.57080,0.00000,-0.14512,-0.38003,0.04542,,,,,,,,,,,,,,,,,,,,,,,,,,0,0,0,0,0
4.2006,1783189358.4110,1,1,1.0000,0.0000,1.44682,0.22904,-2.77857,0.97870,1.57080,0.00000,-0.14512,-0.38003,0.04542,,,,,,,,,,,,,,,,,,,,,,,,,,0,0,0,0,0
4.2110,1783189358.4214,1,1,1.0000,0.0000,1.44682,0.22903,-2.77857,0.97870,1.57080,0.00000,-0.14512,-0.38003,0.04542,,,,,,,,,,,,,,,,,,,,,,,,,,0,0,0,0,0
4.2207,1783189358.4310,1,1,1.0000,0.0000,1.44682,0.22902,-2.77857,0.97871,1.57080,0.00000,-0.14512,-0.38003,0.04542,,,,,,,,,,,,,,,,,,,,,,,,,,0,0,0,0,0
4.2322,1783189358.4426,1,1,1.0000,0.0000,1.44682,0.22901,-2.77857,0.97873,1.57080,0.00000,-0.14512,-0.38003,0.04541,,,,,,,,,,,,,,,,,,,,,,,,,,0,0,0,0,0
4.2407,1783189358.4510,1,1,1.0000,0.0000,1.44682,0.22900,-2.77857,0.97874,1.57080,0.00000,-0.14512,-0.38003,0.04541,,,,,,,,,,,,,,,,,,,,,,,,,,0,0,0,0,0
4.2514,1783189358.4617,1,1,1.0000,0.0000,1.44682,0.22898,-2.77858,0.97877,1.57080,0.00000,-0.14512,-0.38003,0.04541,,,,,,,,,,,,,,,,,,,,,,,,,,0,0,0,0,0
4.2606,1783189358.4710,1,1,1.0000,0.0000,1.44682,0.22896,-2.77858,0.97879,1.57080,0.00000,-0.14512,-0.38003,0.04540,,,,,,,,,,,,,,,,,,,,,,,,,,0,0,0,0,0
4.2742,1783189358.4845,1,1,1.0000,0.0000,1.44682,0.22896,-2.77859,0.97880,1.57080,0.00000,-0.14512,-0.38003,0.04540,,,,,,,,,,,,,,,,,,,,,,,,,,0,0,0,0,0
4.2811,1783189358.4915,1,1,1.0000,0.0000,1.44682,0.22895,-2.77859,0.97881,1.57080,0.00000,-0.14512,-0.38003,0.04540,,,,,,,,,,,,,,,,,,,,,,,,,,0,0,0,0,0
4.2921,1783189358.5024,1,1,1.0000,0.0000,1.44682,0.22894,-2.77859,0.97883,1.57080,0.00000,-0.14512,-0.38003,0.04539,,,,,,,,,,,,,,,,,,,,,,,,,,0,0,0,0,0
4.3005,1783189358.5108,1,1,1.0000,0.0000,1.44682,0.22893,-2.77859,0.97883,1.57080,0.00000,-0.14512,-0.38003,0.04539,,,,,,,,,,,,,,,,,,,,,,,,,,0,0,0,0,0
4.3110,1783189358.5214,1,1,1.0000,0.0000,1.44682,0.22891,-2.77860,0.97886,1.57080,0.00000,-0.14512,-0.38003,0.04539,,,,,,,,,,,,,,,,,,,,,,,,,,0,0,0,0,0
4.3215,1783189358.5319,1,1,1.0000,0.0000,1.44682,0.22889,-2.77860,0.97888,1.57080,0.00000,-0.14512,-0.38003,0.04538,,,,,,,,,,,,,,,,,,,,,,,,,,0,0,0,0,0
4.3359,1783189358.5462,1,1,1.0000,0.0000,1.44682,0.22888,-2.77861,0.97889,1.57080,0.00000,-0.14512,-0.38003,0.04538,,,,,,,,,,,,,,,,,,,,,,,,,,0,0,0,0,0
4.3416,1783189358.5519,1,1,1.0000,0.0000,1.44682,0.22887,-2.77861,0.97890,1.57080,0.00000,-0.14512,-0.38003,0.04538,,,,,,,,,,,,,,,,,,,,,,,,,,0,0,0,0,0
4.3510,1783189358.5613,1,1,1.0000,0.0000,1.44682,0.22886,-2.77861,0.97892,1.57080,0.00000,-0.14512,-0.38003,0.04538,,,,,,,,,,,,,,,,,,,,,,,,,,0,0,0,0,0
4.3618,1783189358.5721,1,1,1.0000,0.0000,1.44682,0.22885,-2.77861,0.97893,1.57080,0.00000,-0.14512,-0.38003,0.04537,,,,,,,,,,,,,,,,,,,,,,,,,,0,0,0,0,0
4.3709,1783189358.5812,1,1,1.0000,0.0000,1.44682,0.22883,-2.77862,0.97896,1.57080,0.00000,-0.14512,-0.38003,0.04537,,,,,,,,,,,,,,,,,,,,,,,,,,0,0,0,0,0
4.3712,1783189358.5815,1,1,1.0000,0.0000,1.44682,0.22883,-2.77862,0.97896,1.57080,0.00000,-0.14512,-0.38003,0.04537,,,,,,,,,,,,,,,,,,,,,,,,,,0,0,0,0,0
4.3815,1783189358.5918,1,1,1.0000,0.0000,1.44682,0.22881,-2.77862,0.97898,1.57080,0.00000,-0.14512,-0.38003,0.04536,,,,,,,,,,,,,,,,,,,,,,,,,,0,0,0,0,0
4.3947,1783189358.6050,1,1,1.0000,0.0000,1.44682,0.22881,-2.77862,0.97899,1.57080,0.00000,-0.14512,-0.38003,0.04536,,,,,,,,,,,,,,,,,,,,,,,,,,0,0,0,0,0
4.4006,1783189358.6109,1,1,1.0000,0.0000,1.44682,0.22880,-2.77863,0.97900,1.57080,0.00000,-0.14512,-0.38003,0.04536,,,,,,,,,,,,,,,,,,,,,,,,,,0,0,0,0,0
4.4138,1783189358.6241,1,1,1.0000,0.0000,1.44682,0.22879,-2.77863,0.97901,1.57080,0.00000,-0.14512,-0.38003,0.04536,,,,,,,,,,,,,,,,,,,,,,,,,,0,0,0,0,0
4.4141,1783189358.6244,1,1,1.0000,0.0000,1.44682,0.22879,-2.77863,0.97901,1.57080,0.00000,-0.14512,-0.38003,0.04536,,,,,,,,,,,,,,,,,,,,,,,,,,0,0,0,0,0
4.4227,1783189358.6331,1,1,1.0000,0.0000,1.44682,0.22877,-2.77863,0.97903,1.57080,0.00000,-0.14512,-0.38003,0.04535,,,,,,,,,,,,,,,,,,,,,,,,,,0,0,0,0,0
4.4230,1783189358.6333,1,1,1.0000,0.0000,1.44682,0.22877,-2.77863,0.97903,1.57080,0.00000,-0.14512,-0.38003,0.04535,,,,,,,,,,,,,,,,,,,,,,,,,,0,0,0,0,0
4.4366,1783189358.6469,1,1,1.0000,0.0000,1.44682,0.22875,-2.77864,0.97906,1.57080,0.00000,-0.14512,-0.38003,0.04535,,,,,,,,,,,,,,,,,,,,,,,,,,0,0,0,0,0
4.4369,1783189358.6472,1,1,1.0000,0.0000,1.44682,0.22875,-2.77864,0.97906,1.57080,0.00000,-0.14512,-0.38003,0.04535,,,,,,,,,,,,,,,,,,,,,,,,,,0,0,0,0,0
4.4415,1783189358.6518,1,1,1.0000,0.0000,1.44682,0.22874,-2.77864,0.97907,1.57080,0.00000,-0.14512,-0.38003,0.04534,,,,,,,,,,,,,,,,,,,,,,,,,,0,0,0,0,0
4.4508,1783189358.6611,1,1,1.0000,0.0000,1.44682,0.22874,-2.77864,0.97908,1.57080,0.00000,-0.14512,-0.38003,0.04534,,,,,,,,,,,,,,,,,,,,,,,,,,0,0,0,0,0
4.4605,1783189358.6709,1,1,1.0000,0.0000,1.44682,0.22873,-2.77865,0.97909,1.57080,0.00000,-0.14512,-0.38003,0.04534,,,,,,,,,,,,,,,,,,,,,,,,,,0,0,0,0,0
4.4715,1783189358.6818,1,1,1.0000,0.0000,1.44682,0.22871,-2.77865,0.97911,1.57080,0.00000,-0.14512,-0.38003,0.04534,,,,,,,,,,,,,,,,,,,,,,,,,,0,0,0,0,0
4.4830,1783189358.6933,1,1,1.0000,0.0000,1.44682,0.22870,-2.77865,0.97912,1.57080,0.00000,-0.14512,-0.38003,0.04533,,,,,,,,,,,,,,,,,,,,,,,,,,0,0,0,0,0
4.4989,1783189358.7093,1,1,1.0000,0.0000,1.44682,0.22867,-2.77866,0.97916,1.57080,0.00000,-0.14512,-0.38003,0.04532,,,,,,,,,,,,,,,,,,,,,,,,,,0,0,0,0,0
4.5017,1783189358.7121,1,1,1.0000,0.0000,1.44682,0.22867,-2.77866,0.97916,1.57080,0.00000,-0.14512,-0.38003,0.04532,,,,,,,,,,,,,,,,,,,,,,,,,,0,0,0,0,0
4.5110,1783189358.7213,1,1,1.0000,0.0000,1.44682,0.22866,-2.77866,0.97917,1.57080,0.00000,-0.14512,-0.38003,0.04532,,,,,,,,,,,,,,,,,,,,,,,,,,0,0,0,0,0
4.5214,1783189358.7317,1,1,1.0000,0.0000,1.44682,0.22865,-2.77866,0.97918,1.57080,0.00000,-0.14512,-0.38003,0.04532,,,,,,,,,,,,,,,,,,,,,,,,,,0,0,0,0,0
4.5421,1783189358.7524,1,1,1.0000,0.0000,1.44682,0.22863,-2.77867,0.97921,1.57080,0.00000,-0.14512,-0.38003,0.04532,,,,,,,,,,,,,,,,,,,,,,,,,,0,0,0,0,0
4.5427,1783189358.7531,1,1,1.0000,0.0000,1.44682,0.22862,-2.77867,0.97922,1.57080,0.00000,-0.14512,-0.38003,0.04531,,,,,,,,,,,,,,,,,,,,,,,,,,0,0,0,0,0
4.5507,1783189358.7611,1,1,1.0000,0.0000,1.44682,0.22861,-2.77868,0.97924,1.57080,0.00000,-0.14512,-0.38003,0.04531,,,,,,,,,,,,,,,,,,,,,,,,,,0,0,0,0,0
4.5610,1783189358.7713,1,1,1.0000,0.0000,1.44682,0.22859,-2.77868,0.97926,1.57080,0.00000,-0.14512,-0.38003,0.04531,,,,,,,,,,,,,,,,,,,,,,,,,,0,0,0,0,0
4.5613,1783189358.7717,1,1,1.0000,0.0000,1.44682,0.22859,-2.77868,0.97926,1.57080,0.00000,-0.14512,-0.38003,0.04531,,,,,,,,,,,,,,,,,,,,,,,,,,0,0,0,0,0
4.5733,1783189358.7836,1,1,1.0000,0.0000,1.44682,0.22859,-2.77868,0.97927,1.57080,0.00000,-0.14512,-0.38003,0.04530,,,,,,,,,,,,,,,,,,,,,,,,,,0,0,0,0,0
4.5847,1783189358.7950,1,1,1.0000,0.0000,1.44682,0.22856,-2.77869,0.97929,1.57080,0.00000,-0.14512,-0.38003,0.04530,,,,,,,,,,,,,,,,,,,,,,,,,,0,0,0,0,0
4.5974,1783189358.8078,1,1,1.0000,0.0000,1.44682,0.22855,-2.77869,0.97931,1.57080,0.00000,-0.14512,-0.38003,0.04530,,,,,,,,,,,,,,,,,,,,,,,,,,0,0,0,0,0
4.6046,1783189358.8149,1,1,1.0000,0.0000,1.44682,0.22854,-2.77869,0.97932,1.57080,0.00000,-0.14512,-0.38003,0.04529,,,,,,,,,,,,,,,,,,,,,,,,,,0,0,0,0,0
4.6178,1783189358.8282,1,1,1.0000,0.0000,1.44682,0.22852,-2.77870,0.97935,1.57080,0.00000,-0.14512,-0.38003,0.04529,,,,,,,,,,,,,,,,,,,,,,,,,,0,0,0,0,0
4.6246,1783189358.8350,1,1,1.0000,0.0000,1.44682,0.22851,-2.77870,0.97936,1.57080,0.00000,-0.14512,-0.38003,0.04528,,,,,,,,,,,,,,,,,,,,,,,,,,0,0,0,0,0
4.6427,1783189358.8531,1,1,1.0000,0.0000,1.44682,0.22848,-2.77871,0.97939,1.57080,0.00000,-0.14512,-0.38003,0.04528,,,,,,,,,,,,,,,,,,,,,,,,,,0,0,0,0,0
4.6431,1783189358.8534,1,1,1.0000,0.0000,1.44682,0.22848,-2.77871,0.97939,1.57080,0.00000,-0.14512,-0.38003,0.04528,,,,,,,,,,,,,,,,,,,,,,,,,,0,0,0,0,0
4.6473,1783189358.8576,1,1,1.0000,0.0000,1.44682,0.22847,-2.77871,0.97941,1.57080,0.00000,-0.14512,-0.38003,0.04527,,,,,,,,,,,,,,,,,,,,,,,,,,0,0,0,0,0
4.6548,1783189358.8651,1,1,1.0000,0.0000,1.44682,0.22847,-2.77871,0.97941,1.57080,0.00000,-0.14512,-0.38003,0.04527,,,,,,,,,,,,,,,,,,,,,,,,,,0,0,0,0,0
4.6678,1783189358.8782,1,1,1.0000,0.0000,1.44682,0.22845,-2.77871,0.97943,1.57080,0.00000,-0.14512,-0.38003,0.04527,,,,,,,,,,,,,,,,,,,,,,,,,,0,0,0,0,0
4.6756,1783189358.8859,1,1,1.0000,0.0000,1.44682,0.22844,-2.77872,0.97945,1.57080,0.00000,-0.14512,-0.38003,0.04527,,,,,,,,,,,,,,,,,,,,,,,,,,0,0,0,0,0
4.6891,1783189358.8995,1,1,1.0000,0.0000,1.44682,0.22843,-2.77872,0.97946,1.57080,0.00000,-0.14512,-0.38003,0.04526,,,,,,,,,,,,,,,,,,,,,,,,,,0,0,0,0,0
4.7027,1783189358.9130,1,1,1.0000,0.0000,1.44682,0.22840,-2.77873,0.97950,1.57080,0.00000,-0.14512,-0.38003,0.04526,,,,,,,,,,,,,,,,,,,,,,,,,,0,0,0,0,0
4.7044,1783189358.9148,1,1,1.0000,0.0000,1.44682,0.22840,-2.77873,0.97950,1.57080,0.00000,-0.14512,-0.38003,0.04526,,,,,,,,,,,,,,,,,,,,,,,,,,0,0,0,0,0
4.7179,1783189358.9283,1,1,1.0000,0.0000,1.44682,0.22839,-2.77873,0.97951,1.57080,0.00000,-0.14512,-0.38003,0.04525,,,,,,,,,,,,,,,,,,,,,,,,,,0,0,0,0,0
4.7245,1783189358.9348,1,1,1.0000,0.0000,1.44682,0.22838,-2.77873,0.97952,1.57080,0.00000,-0.14512,-0.38003,0.04525,,,,,,,,,,,,,,,,,,,,,,,,,,0,0,0,0,0
4.7249,1783189358.9353,1,1,1.0000,0.0000,1.44682,0.22838,-2.77873,0.97952,1.57080,0.00000,-0.14512,-0.38003,0.04525,,,,,,,,,,,,,,,,,,,,,,,,,,0,0,0,0,0
4.7458,1783189358.9561,1,1,1.0000,0.0000,1.44682,0.22835,-2.77874,0.97956,1.57080,0.00000,-0.14512,-0.38003,0.04524,,,,,,,,,,,,,,,,,,,,,,,,,,0,0,0,0,0
4.7467,1783189358.9571,1,1,1.0000,0.0000,1.44682,0.22835,-2.77874,0.97957,1.57080,0.00000,-0.14512,-0.38003,0.04524,,,,,,,,,,,,,,,,,,,,,,,,,,0,0,0,0,0
4.7547,1783189358.9651,1,1,1.0000,0.0000,1.44682,0.22834,-2.77874,0.97958,1.57080,0.00000,-0.14512,-0.38003,0.04524,,,,,,,,,,,,,,,,,,,,,,,,,,0,0,0,0,0
4.7651,1783189358.9754,1,1,1.0000,0.0000,1.44682,0.22832,-2.77875,0.97960,1.57080,0.00000,-0.14512,-0.38003,0.04523,,,,,,,,,,,,,,,,,,,,,,,,,,0,0,0,0,0
4.7747,1783189358.9851,1,1,1.0000,0.0000,1.44682,0.22831,-2.77875,0.97961,1.57080,0.00000,-0.14512,-0.38003,0.04523,,,,,,,,,,,,,,,,,,,,,,,,,,0,0,0,0,0
4.7897,1783189359.0000,1,1,1.0000,0.0000,1.44682,0.22829,-2.77876,0.97963,1.57080,0.00000,-0.14512,-0.38003,0.04523,,,,,,,,,,,,,,,,,,,,,,,,,,0,0,0,0,0
4.7968,1783189359.0071,1,1,1.0000,0.0000,1.44682,0.22827,-2.77876,0.97966,1.57080,0.00000,-0.14512,-0.38003,0.04522,,,,,,,,,,,,,,,,,,,,,,,,,,0,0,0,0,0
4.8043,1783189359.0146,1,1,1.0000,0.0000,1.44682,0.22827,-2.77876,0.97967,1.57080,0.00000,-0.14512,-0.38003,0.04522,,,,,,,,,,,,,,,,,,,,,,,,,,0,0,0,0,0
4.8046,1783189359.0149,1,1,1.0000,0.0000,1.44682,0.22827,-2.77876,0.97967,1.57080,0.00000,-0.14512,-0.38003,0.04522,,,,,,,,,,,,,,,,,,,,,,,,,,0,0,0,0,0
4.8209,1783189359.0312,1,1,1.0000,0.0000,1.44682,0.22825,-2.77877,0.97969,1.57080,0.00000,-0.14512,-0.38003,0.04522,,,,,,,,,,,,,,,,,,,,,,,,,,0,0,0,0,0
4.8212,1783189359.0316,1,1,1.0000,0.0000,1.44682,0.22825,-2.77877,0.97969,1.57080,0.00000,-0.14512,-0.38003,0.04522,,,,,,,,,,,,,,,,,,,,,,,,,,0,0,0,0,0
4.8250,1783189359.0354,1,1,1.0000,0.0000,1.44682,0.22824,-2.77877,0.97970,1.57080,0.00000,-0.14512,-0.38003,0.04521,,,,,,,,,,,,,,,,,,,,,,,,,,0,0,0,0,0
4.8253,1783189359.0357,1,1,1.0000,0.0000,1.44682,0.22824,-2.77877,0.97970,1.57080,0.00000,-0.14512,-0.38003,0.04521,,,,,,,,,,,,,,,,,,,,,,,,,,0,0,0,0,0
4.8354,1783189359.0457,1,1,1.0000,0.0000,1.44682,0.22822,-2.77877,0.97972,1.57080,0.00000,-0.14512,-0.38003,0.04521,,,,,,,,,,,,,,,,,,,,,,,,,,0,0,0,0,0
4.8483,1783189359.0587,1,1,1.0000,0.0000,1.44682,0.22821,-2.77878,0.97973,1.57080,0.00000,-0.14512,-0.38003,0.04521,,,,,,,,,,,,,,,,,,,,,,,,,,0,0,0,0,0
4.8548,1783189359.0651,1,1,1.0000,0.0000,1.44682,0.22820,-2.77878,0.97975,1.57080,0.00000,-0.14512,-0.38003,0.04520,,,,,,,,,,,,,,,,,,,,,,,,,,0,0,0,0,0
4.8549,1783189359.0653,1,1,1.0000,0.0000,1.44682,0.22820,-2.77878,0.97975,1.57080,0.00000,-0.14512,-0.38003,0.04520,,,,,,,,,,,,,,,,,,,,,,,,,,0,0,0,0,0
4.8645,1783189359.0748,1,1,1.0000,0.0000,1.44682,0.22819,-2.77878,0.97976,1.57080,0.00000,-0.14512,-0.38003,0.04520,,,,,,,,,,,,,,,,,,,,,,,,,,0,0,0,0,0
4.8747,1783189359.0851,1,1,1.0000,0.0000,1.44682,0.22818,-2.77878,0.97977,1.57080,0.00000,-0.14512,-0.38003,0.04520,,,,,,,,,,,,,,,,,,,,,,,,,,0,0,0,0,0
4.8750,1783189359.0853,1,1,1.0000,0.0000,1.44682,0.22818,-2.77878,0.97977,1.57080,0.00000,-0.14512,-0.38003,0.04520,,,,,,,,,,,,,,,,,,,,,,,,,,0,0,0,0,0
4.8961,1783189359.1065,1,1,1.0000,0.0000,1.44682,0.22815,-2.77879,0.97982,1.57080,0.00000,-0.14512,-0.38003,0.04519,,,,,,,,,,,,,,,,,,,,,,,,,,0,0,0,0,0
4.8970,1783189359.1074,1,1,1.0000,0.0000,1.44682,0.22815,-2.77879,0.97982,1.57080,0.00000,-0.14512,-0.38003,0.04519,,,,,,,,,,,,,,,,,,,,,,,,,,0,0,0,0,0
4.8974,1783189359.1077,1,1,1.0000,0.0000,1.44682,0.22815,-2.77879,0.97982,1.57080,0.00000,-0.14512,-0.38003,0.04519,,,,,,,,,,,,,,,,,,,,,,,,,,0,0,0,0,0
4.9070,1783189359.1174,1,1,1.0000,0.0000,1.44682,0.22814,-2.77880,0.97983,1.57080,0.00000,-0.14512,-0.38003,0.04519,,,,,,,,,,,,,,,,,,,,,,,,,,0,0,0,0,0
4.9161,1783189359.1265,1,1,1.0000,0.0000,1.44682,0.22812,-2.77880,0.97984,1.57080,0.00000,-0.14512,-0.38003,0.04518,,,,,,,,,,,,,,,,,,,,,,,,,,0,0,0,0,0
4.9246,1783189359.1349,1,1,1.0000,0.0000,1.44682,0.22812,-2.77880,0.97985,1.57080,0.00000,-0.14512,-0.38003,0.04518,,,,,,,,,,,,,,,,,,,,,,,,,,0,0,0,0,0
4.9357,1783189359.1460,1,1,1.0000,0.0000,1.44682,0.22811,-2.77880,0.97987,1.57080,0.00000,-0.14512,-0.38003,0.04518,,,,,,,,,,,,,,,,,,,,,,,,,,0,0,0,0,0
4.9509,1783189359.1612,1,1,1.0000,0.0000,1.44682,0.22807,-2.77881,0.97991,1.57080,0.00000,-0.14512,-0.38003,0.04517,,,,,,,,,,,,,,,,,,,,,,,,,,0,0,0,0,0
4.9559,1783189359.1662,1,1,1.0000,0.0000,1.44682,0.22807,-2.77881,0.97991,1.57080,0.00000,-0.14512,-0.38003,0.04517,,,,,,,,,,,,,,,,,,,,,,,,,,0,0,0,0,0
4.9562,1783189359.1666,1,1,1.0000,0.0000,1.44682,0.22807,-2.77881,0.97991,1.57080,0.00000,-0.14512,-0.38003,0.04517,,,,,,,,,,,,,,,,,,,,,,,,,,0,0,0,0,0
4.9642,1783189359.1746,1,1,1.0000,0.0000,1.44682,0.22807,-2.77881,0.97992,1.57080,0.00000,-0.14512,-0.38003,0.04517,,,,,,,,,,,,,,,,,,,,,,,,,,0,0,0,0,0
4.9646,1783189359.1749,1,1,1.0000,0.0000,1.44682,0.22807,-2.77881,0.97992,1.57080,0.00000,-0.14512,-0.38003,0.04517,,,,,,,,,,,,,,,,,,,,,,,,,,0,0,0,0,0
4.9759,1783189359.1863,1,1,1.0000,0.0000,1.44682,0.22805,-2.77882,0.97994,1.57080,0.00000,-0.14512,-0.38003,0.04516,,,,,,,,,,,,,,,,,,,,,,,,,,0,0,0,0,0
4.9896,1783189359.2000,1,1,1.0000,0.0000,1.44682,0.22804,-2.77882,0.97995,1.57080,0.00000,-0.14512,-0.38003,0.04516,,,,,,,,,,,,,,,,,,,,,,,,,,0,0,0,0,0
4.9958,1783189359.2061,1,1,1.0000,0.0000,1.44682,0.22803,-2.77882,0.97996,1.57080,0.00000,-0.14512,-0.38003,0.04516,,,,,,,,,,,,,,,,,,,,,,,,,,0,0,0,0,0
4.9961,1783189359.2065,1,1,1.0000,0.0000,1.44682,0.22803,-2.77882,0.97996,1.57080,0.00000,-0.14512,-0.38003,0.04516,,,,,,,,,,,,,,,,,,,,,,,,,,0,0,0,0,0
5.0092,1783189359.2195,1,1,1.0000,0.0000,1.44682,0.22800,-2.77883,0.97999,1.57080,0.00000,-0.14512,-0.38003,0.04515,,,,,,,,,,,,,,,,,,,,,,,,,,0,0,0,0,0
5.0148,1783189359.2251,1,1,1.0000,0.0000,1.44682,0.22800,-2.77883,0.98000,1.57080,0.00000,-0.14512,-0.38003,0.04515,,,,,,,,,,,,,,,,,,,,,,,,,,0,0,0,0,0
5.0249,1783189359.2352,1,1,1.0000,0.0000,1.44682,0.22799,-2.77883,0.98001,1.57080,0.00000,-0.14512,-0.38003,0.04515,,,,,,,,,,,,,,,,,,,,,,,,,,0,0,0,0,0
5.0355,1783189359.2458,1,1,1.0000,0.0000,1.44682,0.22798,-2.77884,0.98003,1.57080,0.00000,-0.14512,-0.38003,0.04515,,,,,,,,,,,,,,,,,,,,,,,,,,0,0,0,0,0
5.0514,1783189359.2618,1,1,1.0000,0.0000,1.44682,0.22796,-2.77884,0.98005,1.57080,0.00000,-0.14512,-0.38003,0.04514,,,,,,,,,,,,,,,,,,,,,,,,,,0,0,0,0,0
5.0558,1783189359.2662,1,1,1.0000,0.0000,1.44682,0.22796,-2.77884,0.98005,1.57080,0.00000,-0.14512,-0.38003,0.04514,,,,,,,,,,,,,,,,,,,,,,,,,,0,0,0,0,0
5.0646,1783189359.2750,1,1,1.0000,0.0000,1.44682,0.22794,-2.77885,0.98008,1.57080,0.00000,-0.14512,-0.38003,0.04514,,,,,,,,,,,,,,,,,,,,,,,,,,0,0,0,0,0
5.0796,1783189359.2899,1,1,1.0000,0.0000,1.44682,0.22792,-2.77885,0.98010,1.57080,0.00000,-0.14512,-0.38003,0.04513,,,,,,,,,,,,,,,,,,,,,,,,,,0,0,0,0,0
5.0856,1783189359.2959,1,1,1.0000,0.0000,1.44682,0.22792,-2.77885,0.98010,1.57080,0.00000,-0.14512,-0.38003,0.04513,,,,,,,,,,,,,,,,,,,,,,,,,,0,0,0,0,0
5.0989,1783189359.3092,1,1,1.0000,0.0000,1.44682,0.22789,-2.77886,0.98014,1.57080,0.00000,-0.14512,-0.38003,0.04512,,,,,,,,,,,,,,,,,,,,,,,,,,0,0,0,0,0
5.1051,1783189359.3155,1,1,1.0000,0.0000,1.44682,0.22789,-2.77886,0.98014,1.57080,0.00000,-0.14512,-0.38003,0.04512,,,,,,,,,,,,,,,,,,,,,,,,,,0,0,0,0,0
5.1166,1783189359.3270,1,1,1.0000,0.0000,1.44682,0.22787,-2.77886,0.98016,1.57080,0.00000,-0.14512,-0.38003,0.04512,,,,,,,,,,,,,,,,,,,,,,,,,,0,0,0,0,0
5.1245,1783189359.3348,1,1,1.0000,0.0000,1.44682,0.22786,-2.77887,0.98018,1.57080,0.00000,-0.14512,-0.38003,0.04511,,,,,,,,,,,,,,,,,,,,,,,,,,0,0,0,0,0
5.1362,1783189359.3466,1,1,1.0000,0.0000,1.44682,0.22784,-2.77887,0.98020,1.57080,0.00000,-0.14512,-0.38003,0.04511,,,,,,,,,,,,,,,,,,,,,,,,,,0,0,0,0,0
5.1553,1783189359.3657,1,1,1.0000,0.0000,1.44682,0.22781,-2.77888,0.98023,1.57080,0.00000,-0.14512,-0.38003,0.04510,,,,,,,,,,,,,,,,,,,,,,,,,,0,0,0,0,0
5.1558,1783189359.3661,1,1,1.0000,0.0000,1.44682,0.22781,-2.77888,0.98023,1.57080,0.00000,-0.14512,-0.38003,0.04510,,,,,,,,,,,,,,,,,,,,,,,,,,0,0,0,0,0
5.1561,1783189359.3664,1,1,1.0000,0.0000,1.44682,0.22781,-2.77888,0.98023,1.57080,0.00000,-0.14512,-0.38003,0.04510,,,,,,,,,,,,,,,,,,,,,,,,,,0,0,0,0,0
5.1659,1783189359.3763,1,1,1.0000,0.0000,1.44682,0.22780,-2.77888,0.98025,1.57080,0.00000,-0.14512,-0.38003,0.04510,,,,,,,,,,,,,,,,,,,,,,,,,,0,0,0,0,0
5.1747,1783189359.3850,1,1,1.0000,0.0000,1.44682,0.22779,-2.77888,0.98026,1.57080,0.00000,-0.14512,-0.38003,0.04510,,,,,,,,,,,,,,,,,,,,,,,,,,0,0,0,0,0
5.1845,1783189359.3948,1,1,1.0000,0.0000,1.44682,0.22778,-2.77889,0.98028,1.57080,0.00000,-0.14512,-0.38003,0.04509,,,,,,,,,,,,,,,,,,,,,,,,,,0,0,0,0,0
5.1991,1783189359.4095,1,1,1.0000,0.0000,1.44682,0.22776,-2.77889,0.98030,1.57080,0.00000,-0.14512,-0.38003,0.04509,,,,,,,,,,,,,,,,,,,,,,,,,,0,0,0,0,0
5.2058,1783189359.4161,1,1,1.0000,0.0000,1.44682,0.22775,-2.77889,0.98031,1.57080,0.00000,-0.14512,-0.38003,0.04509,,,,,,,,,,,,,,,,,,,,,,,,,,0,0,0,0,0
5.2062,1783189359.4165,1,1,1.0000,0.0000,1.44682,0.22775,-2.77889,0.98031,1.57080,0.00000,-0.14512,-0.38003,0.04509,,,,,,,,,,,,,,,,,,,,,,,,,,0,0,0,0,0
5.2163,1783189359.4266,1,1,1.0000,0.0000,1.44682,0.22773,-2.77890,0.98034,1.57080,0.00000,-0.14512,-0.38003,0.04508,,,,,,,,,,,,,,,,,,,,,,,,,,0,0,0,0,0
5.2247,1783189359.4351,1,1,1.0000,0.0000,1.44682,0.22772,-2.77890,0.98035,1.57080,0.00000,-0.14512,-0.38003,0.04508,,,,,,,,,,,,,,,,,,,,,,,,,,0,0,0,0,0
5.2349,1783189359.4452,1,1,1.0000,0.0000,1.44682,0.22771,-2.77890,0.98036,1.57080,0.00000,-0.14512,-0.38003,0.04508,,,,,,,,,,,,,,,,,,,,,,,,,,0,0,0,0,0
5.2591,1783189359.4694,1,1,1.0000,0.0000,1.44682,0.22768,-2.77891,0.98041,1.57080,0.00000,-0.14512,-0.38003,0.04507,,,,,,,,,,,,,,,,,,,,,,,,,,0,0,0,0,0
5.2596,1783189359.4700,1,1,1.0000,0.0000,1.44682,0.22768,-2.77891,0.98041,1.57080,0.00000,-0.14512,-0.38003,0.04507,,,,,,,,,,,,,,,,,,,,,,,,,,0,0,0,0,0
5.2680,1783189359.4784,1,1,1.0000,0.0000,1.44682,0.22767,-2.77892,0.98042,1.57080,0.00000,-0.14512,-0.38003,0.04506,,,,,,,,,,,,,,,,,,,,,,,,,,0,0,0,0,0
5.2769,1783189359.4873,1,1,1.0000,0.0000,1.44682,0.22765,-2.77892,0.98044,1.57080,0.00000,-0.14512,-0.38003,0.04506,,,,,,,,,,,,,,,,,,,,,,,,,,0,0,0,0,0
5.2847,1783189359.4951,1,1,1.0000,0.0000,1.44682,0.22763,-2.77892,0.98046,1.57080,0.00000,-0.14512,-0.38003,0.04506,,,,,,,,,,,,,,,,,,,,,,,,,,0,0,0,0,0
5.2976,1783189359.5080,1,1,1.0000,0.0000,1.44682,0.22763,-2.77892,0.98047,1.57080,0.00000,-0.14512,-0.38003,0.04506,,,,,,,,,,,,,,,,,,,,,,,,,,0,0,0,0,0
5.3045,1783189359.5148,1,1,1.0000,0.0000,1.44682,0.22762,-2.77893,0.98048,1.57080,0.00000,-0.14512,-0.38003,0.04505,,,,,,,,,,,,,,,,,,,,,,,,,,0,0,0,0,0
5.3161,1783189359.5264,1,1,1.0000,0.0000,1.44682,0.22760,-2.77893,0.98050,1.57080,0.00000,-0.14512,-0.38003,0.04505,,,,,,,,,,,,,,,,,,,,,,,,,,0,0,0,0,0
5.3266,1783189359.5370,1,1,1.0000,0.0000,1.44682,0.22759,-2.77893,0.98051,1.57080,0.00000,-0.14512,-0.38003,0.04505,,,,,,,,,,,,,,,,,,,,,,,,,,0,0,0,0,0
5.3384,1783189359.5488,1,1,1.0000,0.0000,1.44682,0.22758,-2.77894,0.98053,1.57080,0.00000,-0.14512,-0.38003,0.04504,,,,,,,,,,,,,,,,,,,,,,,,,,0,0,0,0,0
5.3447,1783189359.5551,1,1,1.0000,0.0000,1.44682,0.22756,-2.77894,0.98055,1.57080,0.00000,-0.14512,-0.38003,0.04504,,,,,,,,,,,,,,,,,,,,,,,,,,0,0,0,0,0
5.3602,1783189359.5705,1,1,1.0000,0.0000,1.44682,0.22755,-2.77894,0.98056,1.57080,0.00000,-0.14512,-0.38003,0.04503,,,,,,,,,,,,,,,,,,,,,,,,,,0,0,0,0,0
5.3650,1783189359.5753,1,1,1.0000,0.0000,1.44682,0.22754,-2.77895,0.98057,1.57080,0.00000,-0.14512,-0.38003,0.04503,,,,,,,,,,,,,,,,,,,,,,,,,,0,0,0,0,0
5.3795,1783189359.5898,1,1,1.0000,0.0000,1.44682,0.22753,-2.77895,0.98059,1.57080,0.00000,-0.14512,-0.38003,0.04503,,,,,,,,,,,,,,,,,,,,,,,,,,0,0,0,0,0
5.3893,1783189359.5996,1,1,1.0000,0.0000,1.44682,0.22752,-2.77895,0.98060,1.57080,0.00000,-0.14512,-0.38003,0.04503,,,,,,,,,,,,,,,,,,,,,,,,,,0,0,0,0,0
5.3896,1783189359.5999,1,1,1.0000,0.0000,1.44682,0.22752,-2.77895,0.98060,1.57080,0.00000,-0.14512,-0.38003,0.04503,,,,,,,,,,,,,,,,,,,,,,,,,,0,0,0,0,0
5.4014,1783189359.6117,1,1,1.0000,0.0000,1.44682,0.22749,-2.77896,0.98064,1.57080,0.00000,-0.14512,-0.38003,0.04502,,,,,,,,,,,,,,,,,,,,,,,,,,0,0,0,0,0
5.4054,1783189359.6158,1,1,1.0000,0.0000,1.44682,0.22748,-2.77896,0.98065,1.57080,0.00000,-0.14512,-0.38003,0.04502,,,,,,,,,,,,,,,,,,,,,,,,,,0,0,0,0,0
5.4190,1783189359.6293,1,1,1.0000,0.0000,1.44682,0.22747,-2.77896,0.98066,1.57080,0.00000,-0.14512,-0.38003,0.04502,,,,,,,,,,,,,,,,,,,,,,,,,,0,0,0,0,0
5.4288,1783189359.6391,1,1,1.0000,0.0000,1.44682,0.22746,-2.77897,0.98067,1.57080,0.00000,-0.14512,-0.38003,0.04501,,,,,,,,,,,,,,,,,,,,,,,,,,0,0,0,0,0
