Martins-Lucaas/twinforge/sensors/Data/20260706_173532__samples.csv
t_rel_s,t_unix,cycle,phase,setpoint_n,force_net_n,q1,q2,q3,q4,q5,q6,tcp_x,tcp_y,tcp_z,taxel_0,taxel_1,taxel_2,taxel_3,taxel_4,taxel_5,taxel_6,taxel_7,taxel_8,taxel_9,taxel_10,taxel_11,taxel_12,taxel_13,taxel_14,taxel_15,taxel_16,taxel_17,taxel_18,taxel_19,taxel_20,taxel_21,taxel_22,taxel_23,taxel_24,n_RA,n_SA,cn_mm,cn_ra,cn_sa
0.0085,1783370133.0064,1,0,1.0000,0.0000,1.42056,0.14184,-2.66678,1.00216,1.56169,0.11671,-0.13246,-0.45913,0.07210,,,,,,,,,,,,,,,,,,,,,,,,,,0,0,0,0,0
0.0162,1783370133.0141,1,0,1.0000,0.0000,1.42056,0.14184,-2.66678,1.00216,1.56169,0.11671,-0.13246,-0.45913,0.07210,,,,,,,,,,,,,,,,,,,,,,,,,,0,0,0,0,0
0.0321,1783370133.0300,1,0,1.0000,0.0000,1.42056,0.14184,-2.66678,1.00217,1.56168,0.11671,-0.13247,-0.45913,0.07210,,,,,,,,,,,,,,,,,,,,,,,,,,0,0,0,0,0
0.0375,1783370133.0354,1,0,1.0000,0.0000,1.42047,0.14185,-2.66680,1.00194,1.56192,0.11690,-0.13239,-0.45907,0.07205,,,,,,,,,,,,,,,,,,,,,,,,,,0,0,0,0,0
0.0385,1783370133.0364,1,0,1.0000,0.0000,1.42047,0.14185,-2.66680,1.00194,1.56192,0.11690,-0.13239,-0.45907,0.07205,,,,,,,,,,,,,,,,,,,,,,,,,,0,0,0,0,0
0.0558,1783370133.0537,1,0,1.0000,0.0000,1.42056,0.14187,-2.66678,1.00221,1.56170,0.11672,-0.13246,-0.45914,0.07212,,,,,,,,,,,,,,,,,,,,,,,,,,0,0,0,0,0
0.0564,1783370133.0543,1,0,1.0000,0.0000,1.42056,0.14187,-2.66678,1.00221,1.56170,0.11672,-0.13246,-0.45914,0.07212,,,,,,,,,,,,,,,,,,,,,,,,,,0,0,0,0,0
0.0573,1783370133.0553,1,0,1.0000,0.0000,1.42056,0.14187,-2.66678,1.00221,1.56170,0.11672,-0.13246,-0.45914,0.07212,,,,,,,,,,,,,,,,,,,,,,,,,,0,0,0,0,0
0.0808,1783370133.0787,1,0,1.0000,0.0000,1.42056,0.14185,-2.66684,1.00240,1.56170,0.11672,-0.13246,-0.45914,0.07212,,,,,,,,,,,,,,,,,,,,,,,,,,0,0,0,0,0
0.0812,1783370133.0791,1,0,1.0000,0.0000,1.42056,0.14185,-2.66684,1.00240,1.56170,0.11672,-0.13246,-0.45914,0.07212,,,,,,,,,,,,,,,,,,,,,,,,,,0,0,0,0,0
0.0857,1783370133.0837,1,0,1.0000,0.0000,1.42047,0.14185,-2.66688,1.00222,1.56194,0.11691,-0.13238,-0.45907,0.07206,,,,,,,,,,,,,,,,,,,,,,,,,,0,0,0,0,0
0.0945,1783370133.0924,1,0,1.0000,0.0000,1.42048,0.14185,-2.66689,1.00224,1.56193,0.11691,-0.13238,-0.45907,0.07206,,,,,,,,,,,,,,,,,,,,,,,,,,0,0,0,0,0
0.1090,1783370133.1069,1,0,1.0000,0.0000,1.42047,0.14185,-2.66689,1.00223,1.56194,0.11691,-0.13238,-0.45907,0.07206,,,,,,,,,,,,,,,,,,,,,,,,,,0,0,0,0,0
0.1234,1783370133.1213,1,0,1.0000,0.0000,1.42047,0.14185,-2.66689,1.00224,1.56194,0.11691,-0.13238,-0.45907,0.07206,,,,,,,,,,,,,,,,,,,,,,,,,,0,0,0,0,0
0.1303,1783370133.1282,1,0,1.0000,0.0000,1.42056,0.14185,-2.66686,1.00244,1.56170,0.11672,-0.13246,-0.45914,0.07211,,,,,,,,,,,,,,,,,,,,,,,,,,0,0,0,0,0
0.1417,1783370133.1397,1,0,1.0000,0.0000,1.42048,0.14185,-2.66689,1.00224,1.56193,0.11691,-0.13238,-0.45907,0.07206,,,,,,,,,,,,,,,,,,,,,,,,,,0,0,0,0,0
0.1492,1783370133.1471,1,0,1.0000,0.0000,1.42047,0.14185,-2.66689,1.00224,1.56193,0.11691,-0.13238,-0.45907,0.07206,,,,,,,,,,,,,,,,,,,,,,,,,,0,0,0,0,0
0.1569,1783370133.1549,1,0,1.0000,0.0000,1.42047,0.14185,-2.66689,1.00224,1.56193,0.11691,-0.13238,-0.45907,0.07206,,,,,,,,,,,,,,,,,,,,,,,,,,0,0,0,0,0
0.1657,1783370133.1636,1,0,1.0000,0.0000,1.42047,0.14185,-2.66689,1.00223,1.56194,0.11691,-0.13238,-0.45907,0.07206,,,,,,,,,,,,,,,,,,,,,,,,,,0,0,0,0,0
0.1894,1783370133.1874,1,0,1.0000,0.0000,1.42048,0.14185,-2.66689,1.00224,1.56193,0.11690,-0.13238,-0.45907,0.07206,,,,,,,,,,,,,,,,,,,,,,,,,,0,0,0,0,0
0.1902,1783370133.1881,1,0,1.0000,0.0000,1.42048,0.14185,-2.66689,1.00224,1.56193,0.11690,-0.13238,-0.45907,0.07206,,,,,,,,,,,,,,,,,,,,,,,,,,0,0,0,0,0
0.1970,1783370133.1949,1,0,1.0000,0.0000,1.42047,0.14185,-2.66689,1.00223,1.56194,0.11691,-0.13238,-0.45907,0.07206,,,,,,,,,,,,,,,,,,,,,,,,,,0,0,0,0,0
0.2163,1783370133.2143,1,0,1.0000,0.0000,1.42056,0.14185,-2.66686,1.00244,1.56170,0.11672,-0.13246,-0.45914,0.07211,,,,,,,,,,,,,,,,,,,,,,,,,,0,0,0,0,0
0.2171,1783370133.2150,1,0,1.0000,0.0000,1.42056,0.14185,-2.66686,1.00244,1.56170,0.11672,-0.13246,-0.45914,0.07211,,,,,,,,,,,,,,,,,,,,,,,,,,0,0,0,0,0
0.2182,1783370133.2161,1,0,1.0000,0.0000,1.42056,0.14185,-2.66686,1.00244,1.56170,0.11672,-0.13246,-0.45914,0.07211,,,,,,,,,,,,,,,,,,,,,,,,,,0,0,0,0,0
0.2248,1783370133.2227,1,0,1.0000,0.0000,1.42056,0.14185,-2.66686,1.00244,1.56170,0.11672,-0.13246,-0.45914,0.07211,,,,,,,,,,,,,,,,,,,,,,,,,,0,0,0,0,0
0.2382,1783370133.2362,1,0,1.0000,0.0000,1.42047,0.14185,-2.66689,1.00224,1.56193,0.11691,-0.13238,-0.45907,0.07206,,,,,,,,,,,,,,,,,,,,,,,,,,0,0,0,0,0
0.2457,1783370133.2437,1,0,1.0000,0.0000,1.42048,0.14185,-2.66689,1.00224,1.56193,0.11691,-0.13238,-0.45907,0.07206,,,,,,,,,,,,,,,,,,,,,,,,,,0,0,0,0,0
0.2583,1783370133.2563,1,0,1.0000,0.0000,1.42056,0.14185,-2.66686,1.00244,1.56170,0.11672,-0.13246,-0.45914,0.07211,,,,,,,,,,,,,,,,,,,,,,,,,,0,0,0,0,0
0.2655,1783370133.2634,1,0,1.0000,0.0000,1.42056,0.14185,-2.66686,1.00244,1.56170,0.11672,-0.13246,-0.45914,0.07211,,,,,,,,,,,,,,,,,,,,,,,,,,0,0,0,0,0
0.2753,1783370133.2733,1,0,1.0000,0.0000,1.42048,0.14185,-2.66689,1.00224,1.56193,0.11690,-0.13238,-0.45907,0.07206,,,,,,,,,,,,,,,,,,,,,,,,,,0,0,0,0,0
0.2843,1783370133.2822,1,0,1.0000,0.0000,1.42047,0.14185,-2.66689,1.00223,1.56194,0.11691,-0.13238,-0.45907,0.07206,,,,,,,,,,,,,,,,,,,,,,,,,,0,0,0,0,0
0.2998,1783370133.2978,1,0,1.0000,0.0000,1.42047,0.14185,-2.66689,1.00224,1.56194,0.11691,-0.13238,-0.45907,0.07206,,,,,,,,,,,,,,,,,,,,,,,,,,0,0,0,0,0
0.3176,1783370133.3156,1,0,1.0000,0.0000,1.42047,0.14185,-2.66689,1.00224,1.56194,0.11691,-0.13238,-0.45907,0.07206,,,,,,,,,,,,,,,,,,,,,,,,,,0,0,0,0,0
0.3209,1783370133.3189,1,0,1.0000,0.0000,1.42056,0.14185,-2.66686,1.00244,1.56170,0.11672,-0.13246,-0.45914,0.07212,,,,,,,,,,,,,,,,,,,,,,,,,,0,0,0,0,0
0.3245,1783370133.3224,1,0,1.0000,0.0000,1.42047,0.14185,-2.66689,1.00223,1.56194,0.11691,-0.13238,-0.45907,0.07206,,,,,,,,,,,,,,,,,,,,,,,,,,0,0,0,0,0
0.3365,1783370133.3344,1,0,1.0000,0.0000,1.42056,0.14185,-2.66686,1.00244,1.56170,0.11672,-0.13246,-0.45914,0.07211,,,,,,,,,,,,,,,,,,,,,,,,,,0,0,0,0,0
0.3371,1783370133.3350,1,0,1.0000,0.0000,1.42056,0.14185,-2.66686,1.00244,1.56170,0.11672,-0.13246,-0.45914,0.07211,,,,,,,,,,,,,,,,,,,,,,,,,,0,0,0,0,0
0.3451,1783370133.3430,1,0,1.0000,0.0000,1.42056,0.14185,-2.66686,1.00244,1.56170,0.11672,-0.13246,-0.45914,0.07211,,,,,,,,,,,,,,,,,,,,,,,,,,0,0,0,0,0
0.3643,1783370133.3623,1,0,1.0000,0.0000,1.42047,0.14185,-2.66689,1.00223,1.56194,0.11691,-0.13238,-0.45907,0.07206,,,,,,,,,,,,,,,,,,,,,,,,,,0,0,0,0,0
0.3697,1783370133.3676,1,0,1.0000,0.0000,1.42056,0.14185,-2.66686,1.00244,1.56171,0.11673,-0.13246,-0.45914,0.07211,,,,,,,,,,,,,,,,,,,,,,,,,,0,0,0,0,0
0.3760,1783370133.3739,1,0,1.0000,0.0000,1.42056,0.14185,-2.66686,1.00244,1.56170,0.11672,-0.13246,-0.45914,0.07211,,,,,,,,,,,,,,,,,,,,,,,,,,0,0,0,0,0
0.3764,1783370133.3743,1,0,1.0000,0.0000,1.42056,0.14185,-2.66686,1.00244,1.56170,0.11672,-0.13246,-0.45914,0.07211,,,,,,,,,,,,,,,,,,,,,,,,,,0,0,0,0,0
0.3885,1783370133.3864,1,0,1.0000,0.0000,1.42047,0.14185,-2.66689,1.00223,1.56194,0.11691,-0.13238,-0.45907,0.07206,,,,,,,,,,,,,,,,,,,,,,,,,,0,0,0,0,0
0.3951,1783370133.3930,1,0,1.0000,0.0000,1.42056,0.14185,-2.66686,1.00245,1.56169,0.11672,-0.13246,-0.45914,0.07212,,,,,,,,,,,,,,,,,,,,,,,,,,0,0,0,0,0
0.4050,1783370133.4029,1,0,1.0000,0.0000,1.42048,0.14185,-2.66689,1.00224,1.56193,0.11691,-0.13238,-0.45907,0.07206,,,,,,,,,,,,,,,,,,,,,,,,,,0,0,0,0,0
0.4198,1783370133.4177,1,0,1.0000,0.0000,1.42047,0.14185,-2.66689,1.00224,1.56194,0.11691,-0.13238,-0.45907,0.07206,,,,,,,,,,,,,,,,,,,,,,,,,,0,0,0,0,0
0.4450,1783370133.4429,1,0,1.0000,0.0000,1.42048,0.14185,-2.66689,1.00224,1.56193,0.11691,-0.13238,-0.45907,0.07206,,,,,,,,,,,,,,,,,,,,,,,,,,0,0,0,0,0
0.4515,1783370133.4494,1,0,1.0000,0.0000,1.42047,0.14185,-2.66689,1.00224,1.56193,0.11691,-0.13238,-0.45907,0.07206,,,,,,,,,,,,,,,,,,,,,,,,,,0,0,0,0,0
0.4519,1783370133.4498,1,0,1.0000,0.0000,1.42047,0.14185,-2.66689,1.00224,1.56193,0.11691,-0.13238,-0.45907,0.07206,,,,,,,,,,,,,,,,,,,,,,,,,,0,0,0,0,0
0.4655,1783370133.4634,1,0,1.0000,0.0000,1.42056,0.14185,-2.66686,1.00244,1.56170,0.11672,-0.13246,-0.45914,0.07211,,,,,,,,,,,,,,,,,,,,,,,,,,0,0,0,0,0
0.4720,1783370133.4699,1,0,1.0000,0.0000,1.42056,0.14185,-2.66686,1.00244,1.56170,0.11672,-0.13246,-0.45914,0.07211,,,,,,,,,,,,,,,,,,,,,,,,,,0,0,0,0,0
0.4836,1783370133.4815,1,0,1.0000,0.0000,1.42047,0.14185,-2.66689,1.00223,1.56194,0.11691,-0.13238,-0.45907,0.07206,,,,,,,,,,,,,,,,,,,,,,,,,,0,0,0,0,0
0.4880,1783370133.4860,1,0,1.0000,0.0000,1.42056,0.14185,-2.66686,1.00244,1.56171,0.11673,-0.13246,-0.45914,0.07211,,,,,,,,,,,,,,,,,,,,,,,,,,0,0,0,0,0
0.4886,1783370133.4865,1,0,1.0000,0.0000,1.42056,0.14185,-2.66686,1.00244,1.56171,0.11673,-0.13246,-0.45914,0.07211,,,,,,,,,,,,,,,,,,,,,,,,,,0,0,0,0,0
0.4980,1783370133.4959,1,0,1.0000,0.0000,1.42056,0.14185,-2.66686,1.00244,1.56170,0.11672,-0.13246,-0.45914,0.07211,,,,,,,,,,,,,,,,,,,,,,,,,,0,0,0,0,0
0.4996,1783370133.4975,1,0,1.0000,0.0000,1.42056,0.14185,-2.66686,1.00244,1.56170,0.11672,-0.13246,-0.45914,0.07211,,,,,,,,,,,,,,,,,,,,,,,,,,0,0,0,0,0
0.5125,1783370133.5104,1,0,1.0000,0.0000,1.42056,0.14185,-2.66686,1.00244,1.56170,0.11672,-0.13246,-0.45914,0.07211,,,,,,,,,,,,,,,,,,,,,,,,,,0,0,0,0,0
0.5245,1783370133.5224,1,0,1.0000,0.0000,1.42047,0.14185,-2.66689,1.00223,1.56194,0.11691,-0.13238,-0.45907,0.07206,,,,,,,,,,,,,,,,,,,,,,,,,,0,0,0,0,0
0.5342,1783370133.5321,1,0,1.0000,0.0000,1.42047,0.14185,-2.66689,1.00223,1.56194,0.11691,-0.13238,-0.45907,0.07206,,,,,,,,,,,,,,,,,,,,,,,,,,0,0,0,0,0
0.5397,1783370133.5376,1,0,1.0000,0.0000,1.42047,0.14185,-2.66689,1.00224,1.56193,0.11691,-0.13238,-0.45907,0.07206,,,,,,,,,,,,,,,,,,,,,,,,,,0,0,0,0,0
0.5651,1783370133.5631,1,0,1.0000,0.0000,1.42047,0.14185,-2.66689,1.00223,1.56194,0.11691,-0.13238,-0.45907,0.07206,,,,,,,,,,,,,,,,,,,,,,,,,,0,0,0,0,0
0.5660,1783370133.5639,1,0,1.0000,0.0000,1.42047,0.14185,-2.66689,1.00223,1.56194,0.11691,-0.13238,-0.45907,0.07206,,,,,,,,,,,,,,,,,,,,,,,,,,0,0,0,0,0
0.5685,1783370133.5664,1,0,1.0000,0.0000,1.42056,0.14185,-2.66686,1.00243,1.56171,0.11673,-0.13246,-0.45914,0.07211,,,,,,,,,,,,,,,,,,,,,,,,,,0,0,0,0,0
0.5843,1783370133.5822,1,0,1.0000,0.0000,1.42056,0.14185,-2.66686,1.00244,1.56170,0.11672,-0.13246,-0.45914,0.07211,,,,,,,,,,,,,,,,,,,,,,,,,,0,0,0,0,0
0.5893,1783370133.5872,1,0,1.0000,0.0000,1.42048,0.14185,-2.66689,1.00224,1.56193,0.11690,-0.13238,-0.45907,0.07206,,,,,,,,,,,,,,,,,,,,,,,,,,0,0,0,0,0
0.5998,1783370133.5978,1,0,1.0000,0.0000,1.42056,0.14185,-2.66686,1.00244,1.56170,0.11672,-0.13246,-0.45914,0.07211,,,,,,,,,,,,,,,,,,,,,,,,,,0,0,0,0,0
0.6009,1783370133.5988,1,0,1.0000,0.0000,1.42056,0.14185,-2.66686,1.00244,1.56170,0.11672,-0.13246,-0.45914,0.07211,,,,,,,,,,,,,,,,,,,,,,,,,,0,0,0,0,0
0.6083,1783370133.6062,1,0,1.0000,0.0000,1.42056,0.14185,-2.66686,1.00244,1.56171,0.11673,-0.13246,-0.45914,0.07211,,,,,,,,,,,,,,,,,,,,,,,,,,0,0,0,0,0
0.6257,1783370133.6236,1,0,1.0000,0.0000,1.42056,0.14185,-2.66686,1.00244,1.56170,0.11672,-0.13246,-0.45914,0.07211,,,,,,,,,,,,,,,,,,,,,,,,,,0,0,0,0,0
0.6348,1783370133.6327,1,0,1.0000,0.0000,1.42056,0.14185,-2.66686,1.00244,1.56170,0.11672,-0.13246,-0.45914,0.07211,,,,,,,,,,,,,,,,,,,,,,,,,,0,0,0,0,0
0.6432,1783370133.6411,1,0,1.0000,0.0000,1.42047,0.14185,-2.66689,1.00224,1.56193,0.11691,-0.13238,-0.45907,0.07206,,,,,,,,,,,,,,,,,,,,,,,,,,0,0,0,0,0
0.6566,1783370133.6546,1,0,1.0000,0.0000,1.42056,0.14185,-2.66686,1.00244,1.56170,0.11672,-0.13246,-0.45914,0.07211,,,,,,,,,,,,,,,,,,,,,,,,,,0,0,0,0,0
0.6825,1783370133.6805,1,0,1.0000,0.0000,1.42040,0.14187,-2.66696,1.00224,1.56193,0.11696,-0.13236,-0.45903,0.07203,,,,,,,,,,,,,,,,,,,,,,,,,,0,0,0,0,0
0.6834,1783370133.6813,1,0,1.0000,0.0000,1.42040,0.14187,-2.66696,1.00224,1.56193,0.11696,-0.13236,-0.45903,0.07203,,,,,,,,,,,,,,,,,,,,,,,,,,0,0,0,0,0
0.6880,1783370133.6860,1,0,1.0000,0.0000,1.42049,0.14187,-2.66693,1.00244,1.56170,0.11678,-0.13244,-0.45910,0.07208,,,,,,,,,,,,,,,,,,,,,,,,,,0,0,0,0,0
0.7001,1783370133.6981,1,0,1.0000,0.0000,1.42032,0.14189,-2.66701,1.00223,1.56193,0.11704,-0.13233,-0.45901,0.07201,,,,,,,,,,,,,,,,,,,,,,,,,,0,0,0,0,0
0.7007,1783370133.6986,1,0,1.0000,0.0000,1.42032,0.14189,-2.66701,1.00223,1.56193,0.11704,-0.13233,-0.45901,0.07201,,,,,,,,,,,,,,,,,,,,,,,,,,0,0,0,0,0
0.7089,1783370133.7069,1,0,1.0000,0.0000,1.42022,0.14191,-2.66705,1.00223,1.56193,0.11712,-0.13230,-0.45900,0.07200,,,,,,,,,,,,,,,,,,,,,,,,,,0,0,0,0,0
0.7182,1783370133.7161,1,0,1.0000,0.0000,1.42011,0.14195,-2.66710,1.00223,1.56193,0.11723,-0.13225,-0.45899,0.07199,,,,,,,,,,,,,,,,,,,,,,,,,,0,0,0,0,0
0.7189,1783370133.7168,1,0,1.0000,0.0000,1.42019,0.14194,-2.66707,1.00243,1.56170,0.11705,-0.13233,-0.45905,0.07205,,,,,,,,,,,,,,,,,,,,,,,,,,0,0,0,0,0
0.7338,1783370133.7317,1,0,1.0000,0.0000,1.41985,0.14202,-2.66716,1.00221,1.56193,0.11749,-0.13215,-0.45898,0.07199,,,,,,,,,,,,,,,,,,,,,,,,,,0,0,0,0,0
0.7514,1783370133.7493,1,0,1.0000,0.0000,1.41942,0.14216,-2.66723,1.00239,1.56169,0.11780,-0.13204,-0.45905,0.07205,,,,,,,,,,,,,,,,,,,,,,,,,,0,0,0,0,0
0.7528,1783370133.7508,1,0,1.0000,0.0000,1.41942,0.14216,-2.66723,1.00239,1.56169,0.11780,-0.13204,-0.45905,0.07205,,,,,,,,,,,,,,,,,,,,,,,,,,0,0,0,0,0
0.7654,1783370133.7633,1,0,1.0000,0.0000,1.41881,0.14231,-2.66735,1.00216,1.56191,0.11851,-0.13176,-0.45900,0.07200,,,,,,,,,,,,,,,,,,,,,,,,,,0,0,0,0,0
0.7838,1783370133.7818,1,0,1.0000,0.0000,1.41799,0.14256,-2.66748,1.00230,1.56165,0.11923,-0.13149,-0.45909,0.07207,,,,,,,,,,,,,,,,,,,,,,,,,,0,0,0,0,0
0.7845,1783370133.7824,1,0,1.0000,0.0000,1.41799,0.14256,-2.66748,1.00230,1.56165,0.11923,-0.13149,-0.45909,0.07207,,,,,,,,,,,,,,,,,,,,,,,,,,0,0,0,0,0
0.7955,1783370133.7935,1,0,1.0000,0.0000,1.41703,0.14280,-2.66767,1.00204,1.56185,0.12029,-0.13108,-0.45904,0.07203,,,,,,,,,,,,,,,,,,,,,,,,,,0,0,0,0,0
0.7969,1783370133.7948,1,0,1.0000,0.0000,1.41703,0.14280,-2.66767,1.00204,1.56185,0.12029,-0.13108,-0.45904,0.07203,,,,,,,,,,,,,,,,,,,,,,,,,,0,0,0,0,0
0.8134,1783370133.8113,1,0,1.0000,0.0000,1.41606,0.14307,-2.66785,1.00196,1.56182,0.12126,-0.13072,-0.45905,0.07204,,,,,,,,,,,,,,,,,,,,,,,,,,0,0,0,0,0
0.8140,1783370133.8119,1,0,1.0000,0.0000,1.41606,0.14307,-2.66785,1.00196,1.56182,0.12126,-0.13072,-0.45905,0.07204,,,,,,,,,,,,,,,,,,,,,,,,,,0,0,0,0,0
0.8295,1783370133.8275,1,0,1.0000,0.0000,1.41467,0.14345,-2.66812,1.00186,1.56175,0.12266,-0.13020,-0.45907,0.07204,,,,,,,,,,,,,,,,,,,,,,,,,,0,0,0,0,0
0.8327,1783370133.8306,1,0,1.0000,0.0000,1.41475,0.14345,-2.66809,1.00206,1.56153,0.12248,-0.13027,-0.45914,0.07210,,,,,,,,,,,,,,,,,,,,,,,,,,0,0,0,0,0
0.8531,1783370133.8511,1,0,1.0000,0.0000,1.41269,0.14399,-2.66849,1.00170,1.56167,0.12464,-0.12946,-0.45909,0.07205,,,,,,,,,,,,,,,,,,,,,,,,,,0,0,0,0,0
0.8655,1783370133.8634,1,0,1.0000,0.0000,1.41195,0.14421,-2.66862,1.00184,1.56141,0.12528,-0.12922,-0.45916,0.07211,,,,,,,,,,,,,,,,,,,,,,,,,,0,0,0,0,0
0.8757,1783370133.8736,1,0,1.0000,0.0000,1.41074,0.14451,-2.66886,1.00155,1.56158,0.12658,-0.12873,-0.45911,0.07206,,,,,,,,,,,,,,,,,,,,,,,,,,0,0,0,0,0
0.8884,1783370133.8863,1,0,1.0000,0.0000,1.40989,0.14476,-2.66901,1.00168,1.56130,0.12734,-0.12846,-0.45918,0.07212,,,,,,,,,,,,,,,,,,,,,,,,,,0,0,0,0,0
0.8893,1783370133.8872,1,0,1.0000,0.0000,1.40989,0.14476,-2.66901,1.00168,1.56130,0.12734,-0.12846,-0.45918,0.07212,,,,,,,,,,,,,,,,,,,,,,,,,,0,0,0,0,0
0.8903,1783370133.8882,1,0,1.0000,0.0000,1.40989,0.14476,-2.66901,1.00168,1.56130,0.12734,-0.12846,-0.45918,0.07212,,,,,,,,,,,,,,,,,,,,,,,,,,0,0,0,0,0
0.8999,1783370133.8978,1,0,1.0000,0.0000,1.40926,0.14491,-2.66915,1.00143,1.56152,0.12807,-0.12818,-0.45912,0.07206,,,,,,,,,,,,,,,,,,,,,,,,,,0,0,0,0,0
0.9143,1783370133.9123,1,0,1.0000,0.0000,1.40868,0.14509,-2.66925,1.00158,1.56124,0.12854,-0.12801,-0.45919,0.07212,,,,,,,,,,,,,,,,,,,,,,,,,,0,0,0,0,0
0.9233,1783370133.9213,1,0,1.0000,0.0000,1.40808,0.14523,-2.66938,1.00133,1.56145,0.12924,-0.12774,-0.45912,0.07206,,,,,,,,,,,,,,,,,,,,,,,,,,0,0,0,0,0
0.9364,1783370133.9343,1,0,1.0000,0.0000,1.40790,0.14530,-2.66940,1.00151,1.56120,0.12932,-0.12772,-0.45919,0.07212,,,,,,,,,,,,,,,,,,,,,,,,,,0,0,0,0,0
0.9402,1783370133.9381,1,0,1.0000,0.0000,1.40769,0.14534,-2.66945,1.00128,1.56144,0.12963,-0.12759,-0.45912,0.07206,,,,,,,,,,,,,,,,,,,,,,,,,,0,0,0,0,0
0.9411,1783370133.9390,1,0,1.0000,0.0000,1.40769,0.14534,-2.66945,1.00128,1.56144,0.12963,-0.12759,-0.45912,0.07206,,,,,,,,,,,,,,,,,,,,,,,,,,0,0,0,0,0
0.9511,1783370133.9490,1,0,1.0000,0.0000,1.40749,0.14541,-2.66948,1.00147,1.56118,0.12972,-0.12757,-0.45919,0.07212,,,,,,,,,,,,,,,,,,,,,,,,,,0,0,0,0,0
0.9580,1783370133.9559,1,0,1.0000,0.0000,1.40740,0.14541,-2.66950,1.00126,1.56142,0.12991,-0.12749,-0.45913,0.07206,,,,,,,,,,,,,,,,,,,,,,,,,,0,0,0,0,0
0.9844,1783370133.9823,1,0,1.0000,0.0000,1.40712,0.14551,-2.66951,1.00141,1.56117,0.13010,-0.12743,-0.45921,0.07213,,,,,,,,,,,,,,,,,,,,,,,,,,0,0,0,0,0
0.9848,1783370133.9827,1,0,1.0000,0.0000,1.40712,0.14551,-2.66951,1.00141,1.56117,0.13010,-0.12743,-0.45921,0.07213,,,,,,,,,,,,,,,,,,,,,,,,,,0,0,0,0,0
0.9856,1783370133.9836,1,0,1.0000,0.0000,1.40712,0.14551,-2.66951,1.00141,1.56117,0.13010,-0.12743,-0.45921,0.07213,,,,,,,,,,,,,,,,,,,,,,,,,,0,0,0,0,0
0.9928,1783370133.9907,1,0,1.0000,0.0000,1.40708,0.14552,-2.66950,1.00141,1.56116,0.13014,-0.12741,-0.45923,0.07214,,,,,,,,,,,,,,,,,,,,,,,,,,0,0,0,0,0
1.0132,1783370134.0111,1,0,1.0000,0.0000,1.40695,0.14553,-2.66948,1.00120,1.56138,0.13038,-0.12732,-0.45920,0.07212,,,,,,,,,,,,,,,,,,,,,,,,,,0,0,0,0,0
1.0135,1783370134.0115,1,0,1.0000,0.0000,1.40695,0.14553,-2.66948,1.00120,1.56138,0.13038,-0.12732,-0.45920,0.07212,,,,,,,,,,,,,,,,,,,,,,,,,,0,0,0,0,0
1.0408,1783370134.0387,1,1,1.0000,0.0000,1.40704,0.14554,-2.66944,1.00139,1.56116,0.13020,-0.12739,-0.45928,0.07218,,,,,,,,,,,,,,,,,,,,,,,,,,0,0,0,0,0
1.0422,1783370134.0402,1,1,1.0000,0.0000,1.40704,0.14554,-2.66944,1.00139,1.56116,0.13020,-0.12739,-0.45928,0.07218,,,,,,,,,,,,,,,,,,,,,,,,,,0,0,0,0,0
1.0533,1783370134.0512,1,1,1.0000,0.0000,1.40695,0.14553,-2.66946,1.00119,1.56138,0.13039,-0.12731,-0.45921,0.07212,,,,,,,,,,,,,,,,,,,,,,,,,,0,0,0,0,0
1.0817,1783370134.0796,1,1,1.0000,0.0000,1.40704,0.14554,-2.66944,1.00139,1.56116,0.13020,-0.12739,-0.45928,0.07218,,,,,,,,,,,,,,,,,,,,,,,,,,0,0,0,0,0
1.0834,1783370134.0813,1,1,1.0000,0.0000,1.40695,0.14553,-2.66946,1.00120,1.56138,0.13038,-0.12732,-0.45921,0.07212,,,,,,,,,,,,,,,,,,,,,,,,,,0,0,0,0,0
1.0959,1783370134.0939,1,1,1.0000,0.0000,1.40704,0.14554,-2.66944,1.00140,1.56115,0.13020,-0.12739,-0.45928,0.07218,,,,,,,,,,,,,,,,,,,,,,,,,,0,0,0,0,0
1.0965,1783370134.0945,1,1,1.0000,0.0000,1.40704,0.14554,-2.66944,1.00140,1.56115,0.13020,-0.12739,-0.45928,0.07218,,,,,,,,,,,,,,,,,,,,,,,,,,0,0,0,0,0
1.1108,1783370134.1087,1,1,1.0000,0.0000,1.40695,0.14553,-2.66946,1.00120,1.56138,0.13039,-0.12731,-0.45921,0.07212,,,,,,,,,,,,,,,,,,,,,,,,,,0,0,0,0,0
1.1114,1783370134.1093,1,1,1.0000,0.0000,1.40695,0.14553,-2.66946,1.00120,1.56138,0.13039,-0.12731,-0.45921,0.07212,,,,,,,,,,,,,,,,,,,,,,,,,,0,0,0,0,0
1.1200,1783370134.1180,1,1,1.0000,0.0000,1.40704,0.14553,-2.66944,1.00140,1.56114,0.13019,-0.12739,-0.45928,0.07218,,,,,,,,,,,,,,,,,,,,,,,,,,0,0,0,0,0
1.1208,1783370134.1187,1,1,1.0000,0.0000,1.40704,0.14553,-2.66944,1.00140,1.56114,0.13019,-0.12739,-0.45928,0.07218,,,,,,,,,,,,,,,,,,,,,,,,,,0,0,0,0,0
1.1331,1783370134.1310,1,1,1.0000,0.0000,1.40695,0.14554,-2.66946,1.00119,1.56139,0.13039,-0.12731,-0.45921,0.07212,,,,,,,,,,,,,,,,,,,,,,,,,,0,0,0,0,0
1.1438,1783370134.1417,1,1,1.0000,0.0000,1.40704,0.14553,-2.66944,1.00140,1.56114,0.13020,-0.12739,-0.45928,0.07218,,,,,,,,,,,,,,,,,,,,,,,,,,0,0,0,0,0
1.1582,1783370134.1562,1,1,1.0000,0.0000,1.40695,0.14554,-2.66947,1.00119,1.56139,0.13039,-0.12731,-0.45921,0.07212,,,,,,,,,,,,,,,,,,,,,,,,,,0,0,0,0,0
1.1612,1783370134.1591,1,1,1.0000,0.0000,1.40704,0.14554,-2.66944,1.00139,1.56115,0.13020,-0.12739,-0.45928,0.07218,,,,,,,,,,,,,,,,,,,,,,,,,,0,0,0,0,0
1.1742,1783370134.1721,1,1,1.0000,0.0000,1.40695,0.14554,-2.66946,1.00119,1.56138,0.13039,-0.12731,-0.45921,0.07212,,,,,,,,,,,,,,,,,,,,,,,,,,0,0,0,0,0
1.1852,1783370134.1831,1,1,1.0000,0.0000,1.40704,0.14553,-2.66944,1.00140,1.56115,0.13020,-0.12739,-0.45928,0.07218,,,,,,,,,,,,,,,,,,,,,,,,,,0,0,0,0,0
1.1881,1783370134.1860,1,1,1.0000,0.0000,1.40695,0.14554,-2.66947,1.00119,1.56139,0.13039,-0.12731,-0.45921,0.07212,,,,,,,,,,,,,,,,,,,,,,,,,,0,0,0,0,0
1.2931,1783370134.2910,1,1,1.0000,0.0000,1.40695,0.14554,-2.66946,1.00119,1.56138,0.13039,-0.12731,-0.45921,0.07212,,,,,,,,,,,,,,,,,,,,,,,,,,0,0,0,0,0
1.2938,1783370134.2917,1,1,1.0000,0.0000,1.40695,0.14554,-2.66946,1.00119,1.56138,0.13039,-0.12731,-0.45921,0.07212,,,,,,,,,,,,,,,,,,,,,,,,,,0,0,0,0,0
1.2967,1783370134.2947,1,1,1.0000,0.0000,1.40704,0.14554,-2.66944,1.00140,1.56115,0.13020,-0.12739,-0.45928,0.07218,,,,,,,,,,,,,,,,,,,,,,,,,,0,0,0,0,0
1.2984,1783370134.2963,1,1,1.0000,0.0000,1.40704,0.14554,-2.66944,1.00140,1.56115,0.13020,-0.12739,-0.45928,0.07218,,,,,,,,,,,,,,,,,,,,,,,,,,0,0,0,0,0
1.3038,1783370134.3017,1,1,1.0000,0.0000,1.40695,0.14554,-2.66946,1.00119,1.56138,0.13039,-0.12731,-0.45921,0.07212,,,,,,,,,,,,,,,,,,,,,,,,,,0,0,0,0,0
1.3082,1783370134.3061,1,1,1.0000,0.0000,1.40695,0.14553,-2.66946,1.00120,1.56138,0.13038,-0.12732,-0.45921,0.07212,,,,,,,,,,,,,,,,,,,,,,,,,,0,0,0,0,0
1.3088,1783370134.3068,1,1,1.0000,0.0000,1.40695,0.14553,-2.66946,1.00120,1.56138,0.13038,-0.12732,-0.45921,0.07212,,,,,,,,,,,,,,,,,,,,,,,,,,0,0,0,0,0
1.3260,1783370134.3239,1,1,1.0000,0.0000,1.40695,0.14553,-2.66946,1.00119,1.56138,0.13039,-0.12731,-0.45921,0.07212,,,,,,,,,,,,,,,,,,,,,,,,,,0,0,0,0,0
1.3502,1783370134.3481,1,1,1.0000,0.0000,1.40695,0.14554,-2.66946,1.00119,1.56138,0.13039,-0.12731,-0.45921,0.07212,,,,,,,,,,,,,,,,,,,,,,,,,,0,0,0,0,0
1.3518,1783370134.3497,1,1,1.0000,0.0000,1.40704,0.14554,-2.66944,1.00140,1.56115,0.13020,-0.12739,-0.45928,0.07218,,,,,,,,,,,,,,,,,,,,,,,,,,0,0,0,0,0
1.3525,1783370134.3504,1,1,1.0000,0.0000,1.40704,0.14554,-2.66944,1.00140,1.56115,0.13020,-0.12739,-0.45928,0.07218,,,,,,,,,,,,,,,,,,,,,,,,,,0,0,0,0,0
1.3660,1783370134.3640,1,1,1.0000,0.0000,1.40695,0.14553,-2.66946,1.00120,1.56138,0.13038,-0.12732,-0.45921,0.07212,,,,,,,,,,,,,,,,,,,,,,,,,,0,0,0,0,0
1.3717,1783370134.3697,1,1,1.0000,0.0000,1.40695,0.14553,-2.66946,1.00119,1.56138,0.13039,-0.12731,-0.45921,0.07212,,,,,,,,,,,,,,,,,,,,,,,,,,0,0,0,0,0
1.4000,1783370134.3980,1,1,1.0000,0.0000,1.40704,0.14554,-2.66944,1.00140,1.56115,0.13020,-0.12739,-0.45928,0.07218,,,,,,,,,,,,,,,,,,,,,,,,,,0,0,0,0,0
1.4006,1783370134.3986,1,1,1.0000,0.0000,1.40704,0.14554,-2.66944,1.00140,1.56115,0.13020,-0.12739,-0.45928,0.07218,,,,,,,,,,,,,,,,,,,,,,,,,,0,0,0,0,0
1.4017,1783370134.3997,1,1,1.0000,0.0000,1.40704,0.14554,-2.66944,1.00140,1.56115,0.13020,-0.12739,-0.45928,0.07218,,,,,,,,,,,,,,,,,,,,,,,,,,0,0,0,0,0
1.4035,1783370134.4015,1,1,1.0000,0.0000,1.40704,0.14554,-2.66944,1.00140,1.56115,0.13020,-0.12739,-0.45928,0.07218,,,,,,,,,,,,,,,,,,,,,,,,,,0,0,0,0,0
1.4043,1783370134.4022,1,1,1.0000,0.0000,1.40695,0.14554,-2.66946,1.00119,1.56138,0.13039,-0.12731,-0.45921,0.07212,,,,,,,,,,,,,,,,,,,,,,,,,,0,0,0,0,0
1.4129,1783370134.4108,1,1,1.0000,0.0000,1.40695,0.14553,-2.66945,1.00120,1.56138,0.13038,-0.12732,-0.45922,0.07213,,,,,,,,,,,,,,,,,,,,,,,,,,0,0,0,0,0
1.4187,1783370134.4167,1,1,1.0000,0.0000,1.40704,0.14554,-2.66942,1.00139,1.56115,0.13020,-0.12739,-0.45929,0.07219,,,,,,,,,,,,,,,,,,,,,,,,,,0,0,0,0,0
1.4325,1783370134.4304,1,1,1.0000,0.0000,1.40708,0.14552,-2.66942,1.00139,1.56112,0.13019,-0.12741,-0.45929,0.07218,,,,,,,,,,,,,,,,,,,,,,,,,,0,0,0,0,0
1.4542,1783370134.4521,1,1,1.0000,0.0000,1.40705,0.14551,-2.66946,1.00117,1.56136,0.13037,-0.12737,-0.45920,0.07211,,,,,,,,,,,,,,,,,,,,,,,,,,0,0,0,0,0
1.5014,1783370134.4994,1,1,1.0000,0.0000,1.40801,0.14526,-2.66927,1.00119,1.56136,0.12953,-0.12774,-0.45918,0.07210,,,,,,,,,,,,,,,,,,,,,,,,,,0,0,0,0,0
1.5020,1783370134.4999,1,1,1.0000,0.0000,1.40801,0.14526,-2.66927,1.00119,1.56136,0.12953,-0.12774,-0.45918,0.07210,,,,,,,,,,,,,,,,,,,,,,,,,,0,0,0,0,0
1.5040,1783370134.5019,1,1,1.0000,0.0000,1.40809,0.14526,-2.66924,1.00140,1.56112,0.12934,-0.12782,-0.45925,0.07216,,,,,,,,,,,,,,,,,,,,,,,,,,0,0,0,0,0
1.5045,1783370134.5024,1,1,1.0000,0.0000,1.40809,0.14526,-2.66924,1.00140,1.56112,0.12934,-0.12782,-0.45925,0.07216,,,,,,,,,,,,,,,,,,,,,,,,,,0,0,0,0,0
1.5181,1783370134.5160,1,1,1.0000,0.0000,1.40845,0.14514,-2.66919,1.00121,1.56136,0.12910,-0.12791,-0.45918,0.07210,,,,,,,,,,,,,,,,,,,,,,,,,,0,0,0,0,0
1.5186,1783370134.5166,1,1,1.0000,0.0000,1.40845,0.14514,-2.66919,1.00121,1.56136,0.12910,-0.12791,-0.45918,0.07210,,,,,,,,,,,,,,,,,,,,,,,,,,0,0,0,0,0
1.5228,1783370134.5207,1,1,1.0000,0.0000,1.40870,0.14509,-2.66913,1.00142,1.56113,0.12875,-0.12805,-0.45924,0.07215,,,,,,,,,,,,,,,,,,,,,,,,,,0,0,0,0,0
1.5355,1783370134.5334,1,1,1.0000,0.0000,1.40934,0.14492,-2.66901,1.00146,1.56115,0.12811,-0.12829,-0.45923,0.07215,,,,,,,,,,,,,,,,,,,,,,,,,,0,0,0,0,0
1.5361,1783370134.5340,1,1,1.0000,0.0000,1.40934,0.14492,-2.66901,1.00146,1.56115,0.12811,-0.12829,-0.45923,0.07215,,,,,,,,,,,,,,,,,,,,,,,,,,0,0,0,0,0
1.5487,1783370134.5467,1,1,1.0000,0.0000,1.41017,0.14467,-2.66887,1.00132,1.56141,0.12738,-0.12856,-0.45915,0.07208,,,,,,,,,,,,,,,,,,,,,,,,,,0,0,0,0,0
1.5527,1783370134.5507,1,1,1.0000,0.0000,1.41061,0.14457,-2.66878,1.00156,1.56118,0.12684,-0.12877,-0.45921,0.07214,,,,,,,,,,,,,,,,,,,,,,,,,,0,0,0,0,0
1.5789,1783370134.5768,1,1,1.0000,0.0000,1.41241,0.14409,-2.66845,1.00168,1.56127,0.12504,-0.12945,-0.45918,0.07212,,,,,,,,,,,,,,,,,,,,,,,,,,0,0,0,0,0
1.5843,1783370134.5823,1,1,1.0000,0.0000,1.41278,0.14398,-2.66837,1.00172,1.56127,0.12467,-0.12959,-0.45918,0.07212,,,,,,,,,,,,,,,,,,,,,,,,,,0,0,0,0,0
1.5930,1783370134.5909,1,1,1.0000,0.0000,1.41352,0.14378,-2.66824,1.00176,1.56131,0.12392,-0.12986,-0.45917,0.07211,,,,,,,,,,,,,,,,,,,,,,,,,,0,0,0,0,0
1.6125,1783370134.6104,1,1,1.0000,0.0000,1.41542,0.14324,-2.66788,1.00172,1.56162,0.12212,-0.13053,-0.45908,0.07205,,,,,,,,,,,,,,,,,,,,,,,,,,0,0,0,0,0
1.6368,1783370134.6347,1,1,1.0000,0.0000,1.41713,0.14277,-2.66755,1.00186,1.56170,0.12041,-0.13117,-0.45907,0.07204,,,,,,,,,,,,,,,,,,,,,,,,,,0,0,0,0,0
1.6385,1783370134.6364,1,1,1.0000,0.0000,1.41713,0.14277,-2.66755,1.00186,1.56170,0.12041,-0.13117,-0.45907,0.07204,,,,,,,,,,,,,,,,,,,,,,,,,,0,0,0,0,0
1.6531,1783370134.6511,1,1,1.0000,0.0000,1.41790,0.14256,-2.66740,1.00192,1.56174,0.11963,-0.13146,-0.45906,0.07204,,,,,,,,,,,,,,,,,,,,,,,,,,0,0,0,0,0
1.6537,1783370134.6516,1,1,1.0000,0.0000,1.41790,0.14256,-2.66740,1.00192,1.56174,0.11963,-0.13146,-0.45906,0.07204,,,,,,,,,,,,,,,,,,,,,,,,,,0,0,0,0,0
1.6543,1783370134.6522,1,1,1.0000,0.0000,1.41790,0.14256,-2.66740,1.00192,1.56174,0.11963,-0.13146,-0.45906,0.07204,,,,,,,,,,,,,,,,,,,,,,,,,,0,0,0,0,0
1.6718,1783370134.6698,1,1,1.0000,0.0000,1.41903,0.14227,-2.66716,1.00222,1.56155,0.11840,-0.13192,-0.45913,0.07210,,,,,,,,,,,,,,,,,,,,,,,,,,0,0,0,0,0
1.6726,1783370134.6706,1,1,1.0000,0.0000,1.41903,0.14227,-2.66716,1.00222,1.56155,0.11840,-0.13192,-0.45913,0.07210,,,,,,,,,,,,,,,,,,,,,,,,,,0,0,0,0,0
1.6963,1783370134.6942,1,1,1.0000,0.0000,1.41982,0.14205,-2.66701,1.00230,1.56158,0.11761,-0.13221,-0.45913,0.07210,,,,,,,,,,,,,,,,,,,,,,,,,,0,0,0,0,0
1.6974,1783370134.6953,1,1,1.0000,0.0000,1.41982,0.14205,-2.66701,1.00230,1.56158,0.11761,-0.13221,-0.45913,0.07210,,,,,,,,,,,,,,,,,,,,,,,,,,0,0,0,0,0
1.7641,1783370134.7620,1,1,1.0000,0.0000,1.42049,0.14184,-2.66698,1.00219,1.56188,0.11700,-0.13242,-0.45899,0.07200,,,,,,,,,,,,,,,,,,,,,,,,,,0,0,0,0,0
1.7655,1783370134.7634,1,1,1.0000,0.0000,1.42049,0.14184,-2.66698,1.00219,1.56188,0.11700,-0.13242,-0.45899,0.07200,,,,,,,,,,,,,,,,,,,,,,,,,,0,0,0,0,0
1.7844,1783370134.7823,1,1,1.0000,0.0000,1.42058,0.14184,-2.66697,1.00240,1.56164,0.11681,-0.13250,-0.45905,0.07205,,,,,,,,,,,,,,,,,,,,,,,,,,0,0,0,0,0
1.7915,1783370134.7894,1,1,1.0000,0.0000,1.42058,0.14184,-2.66697,1.00239,1.56165,0.11681,-0.13250,-0.45905,0.07205,,,,,,,,,,,,,,,,,,,,,,,,,,0,0,0,0,0
1.8133,1783370134.8112,1,1,1.0000,0.0000,1.42049,0.14184,-2.66700,1.00219,1.56188,0.11700,-0.13242,-0.45898,0.07199,,,,,,,,,,,,,,,,,,,,,,,,,,0,0,0,0,0
1.8320,1783370134.8299,1,1,1.0000,0.0000,1.42058,0.14185,-2.66697,1.00239,1.56165,0.11681,-0.13250,-0.45905,0.07205,,,,,,,,,,,,,,,,,,,,,,,,,,0,0,0,0,0
1.8724,1783370134.8703,1,1,1.0000,0.0000,1.42058,0.14184,-2.66697,1.00239,1.56165,0.11681,-0.13250,-0.45905,0.07205,,,,,,,,,,,,,,,,,,,,,,,,,,0,0,0,0,0
1.8732,1783370134.8711,1,1,1.0000,0.0000,1.42058,0.14184,-2.66697,1.00239,1.56165,0.11681,-0.13250,-0.45905,0.07205,,,,,,,,,,,,,,,,,,,,,,,,,,0,0,0,0,0
1.8740,1783370134.8719,1,1,1.0000,0.0000,1.42058,0.14184,-2.66697,1.00239,1.56165,0.11681,-0.13250,-0.45905,0.07205,,,,,,,,,,,,,,,,,,,,,,,,,,0,0,0,0,0
1.8917,1783370134.8897,1,1,1.0000,0.0000,1.42049,0.14184,-2.66700,1.00219,1.56188,0.11700,-0.13242,-0.45898,0.07199,,,,,,,,,,,,,,,,,,,,,,,,,,0,0,0,0,0
1.8922,1783370134.8901,1,1,1.0000,0.0000,1.42049,0.14184,-2.66700,1.00219,1.56188,0.11700,-0.13242,-0.45898,0.07199,,,,,,,,,,,,,,,,,,,,,,,,,,0,0,0,0,0
1.9011,1783370134.8990,1,1,1.0000,0.0000,1.42050,0.14184,-2.66700,1.00219,1.56187,0.11699,-0.13243,-0.45898,0.07199,,,,,,,,,,,,,,,,,,,,,,,,,,0,0,0,0,0
1.9082,1783370134.9061,1,1,1.0000,0.0000,1.42049,0.14184,-2.66700,1.00219,1.56188,0.11700,-0.13242,-0.45898,0.07199,,,,,,,,,,,,,,,,,,,,,,,,,,0,0,0,0,0
1.9526,1783370134.9506,1,1,1.0000,0.0000,1.42058,0.14184,-2.66697,1.00239,1.56164,0.11681,-0.13250,-0.45905,0.07205,,,,,,,,,,,,,,,,,,,,,,,,,,0,0,0,0,0
1.9533,1783370134.9512,1,1,1.0000,0.0000,1.42058,0.14184,-2.66697,1.00239,1.56164,0.11681,-0.13250,-0.45905,0.07205,,,,,,,,,,,,,,,,,,,,,,,,,,0,0,0,0,0
1.9610,1783370134.9589,1,1,1.0000,0.0000,1.42058,0.14185,-2.66697,1.00239,1.56165,0.11681,-0.13250,-0.45905,0.07205,,,,,,,,,,,,,,,,,,,,,,,,,,0,0,0,0,0
1.9619,1783370134.9599,1,1,1.0000,0.0000,1.42058,0.14185,-2.66697,1.00239,1.56165,0.11681,-0.13250,-0.45905,0.07205,,,,,,,,,,,,,,,,,,,,,,,,,,0,0,0,0,0
1.9626,1783370134.9605,1,1,1.0000,0.0000,1.42058,0.14185,-2.66697,1.00239,1.56165,0.11681,-0.13250,-0.45905,0.07205,,,,,,,,,,,,,,,,,,,,,,,,,,0,0,0,0,0
1.9855,1783370134.9834,1,1,1.0000,0.0000,1.42058,0.14184,-2.66697,1.00240,1.56163,0.11680,-0.13250,-0.45905,0.07205,,,,,,,,,,,,,,,,,,,,,,,,,,0,0,0,0,0
1.9860,1783370134.9840,1,1,1.0000,0.0000,1.42058,0.14184,-2.66697,1.00240,1.56163,0.11680,-0.13250,-0.45905,0.07205,,,,,,,,,,,,,,,,,,,,,,,,,,0,0,0,0,0
2.0017,1783370134.9996,1,1,1.0000,0.0000,1.42058,0.14185,-2.66697,1.00239,1.56165,0.11681,-0.13250,-0.45905,0.07205,,,,,,,,,,,,,,,,,,,,,,,,,,0,0,0,0,0
2.0023,1783370135.0002,1,1,1.0000,0.0000,1.42058,0.14185,-2.66697,1.00239,1.56165,0.11681,-0.13250,-0.45905,0.07205,,,,,,,,,,,,,,,,,,,,,,,,,,0,0,0,0,0
2.0164,1783370135.0143,1,1,1.0000,0.0000,1.42058,0.14184,-2.66697,1.00240,1.56164,0.11681,-0.13250,-0.45905,0.07205,,,,,,,,,,,,,,,,,,,,,,,,,,0,0,0,0,0
2.0204,1783370135.0183,1,1,1.0000,0.0000,1.42049,0.14184,-2.66700,1.00219,1.56188,0.11700,-0.13242,-0.45898,0.07199,,,,,,,,,,,,,,,,,,,,,,,,,,0,0,0,0,0
2.0209,1783370135.0188,1,1,1.0000,0.0000,1.42049,0.14184,-2.66700,1.00219,1.56188,0.11700,-0.13242,-0.45898,0.07199,,,,,,,,,,,,,,,,,,,,,,,,,,0,0,0,0,0
2.0328,1783370135.0308,1,1,1.0000,0.0000,1.42058,0.14184,-2.66697,1.00239,1.56165,0.11681,-0.13250,-0.45905,0.07205,,,,,,,,,,,,,,,,,,,,,,,,,,0,0,0,0,0
2.0408,1783370135.0387,1,1,1.0000,0.0000,1.42058,0.14184,-2.66697,1.00240,1.56164,0.11681,-0.13250,-0.45905,0.07205,,,,,,,,,,,,,,,,,,,,,,,,,,0,0,0,0,0
2.0495,1783370135.0475,1,1,1.0000,0.0000,1.42058,0.14184,-2.66697,1.00239,1.56165,0.11681,-0.13250,-0.45905,0.07205,,,,,,,,,,,,,,,,,,,,,,,,,,0,0,0,0,0
2.0598,1783370135.0577,1,1,1.0000,0.0000,1.42049,0.14184,-2.66700,1.00219,1.56188,0.11699,-0.13242,-0.45898,0.07199,,,,,,,,,,,,,,,,,,,,,,,,,,0,0,0,0,0
2.0610,1783370135.0589,1,1,1.0000,0.0000,1.42049,0.14184,-2.66700,1.00219,1.56188,0.11699,-0.13242,-0.45898,0.07199,,,,,,,,,,,,,,,,,,,,,,,,,,0,0,0,0,0
2.0701,1783370135.0680,1,1,1.0000,0.0000,1.42049,0.14184,-2.66700,1.00219,1.56188,0.11700,-0.13242,-0.45898,0.07199,,,,,,,,,,,,,,,,,,,,,,,,,,0,0,0,0,0
2.0924,1783370135.0903,1,1,1.0000,0.0000,1.42050,0.14184,-2.66700,1.00219,1.56187,0.11699,-0.13242,-0.45898,0.07199,,,,,,,,,,,,,,,,,,,,,,,,,,0,0,0,0,0
2.1110,1783370135.1090,1,1,1.0000,0.0000,1.42058,0.14185,-2.66697,1.00239,1.56166,0.11682,-0.13250,-0.45905,0.07205,,,,,,,,,,,,,,,,,,,,,,,,,,0,0,0,0,0
2.1156,1783370135.1135,1,1,1.0000,0.0000,1.42050,0.14184,-2.66700,1.00219,1.56188,0.11699,-0.13242,-0.45898,0.07199,,,,,,,,,,,,,,,,,,,,,,,,,,0,0,0,0,0
2.1681,1783370135.1660,1,1,1.0000,0.0000,1.42058,0.14184,-2.66697,1.00239,1.56165,0.11681,-0.13250,-0.45905,0.07205,,,,,,,,,,,,,,,,,,,,,,,,,,0,0,0,0,0
2.1717,1783370135.1696,1,1,1.0000,0.0000,1.42049,0.14184,-2.66700,1.00219,1.56188,0.11700,-0.13242,-0.45898,0.07199,,,,,,,,,,,,,,,,,,,,,,,,,,0,0,0,0,0
2.1802,1783370135.1781,1,1,1.0000,0.0000,1.42049,0.14184,-2.66700,1.00219,1.56188,0.11699,-0.13242,-0.45898,0.07199,,,,,,,,,,,,,,,,,,,,,,,,,,0,0,0,0,0
2.2132,1783370135.2111,1,1,1.0000,0.0000,1.42048,0.14191,-2.66709,1.00220,1.56189,0.11697,-0.13242,-0.45893,0.07198,,,,,,,,,,,,,,,,,,,,,,,,,,0,0,0,0,0
2.2141,1783370135.2121,1,1,1.0000,0.0000,1.42048,0.14191,-2.66709,1.00220,1.56189,0.11697,-0.13242,-0.45893,0.07198,,,,,,,,,,,,,,,,,,,,,,,,,,0,0,0,0,0
2.2157,1783370135.2136,1,1,1.0000,0.0000,1.42057,0.14191,-2.66706,1.00240,1.56166,0.11679,-0.13250,-0.45900,0.07203,,,,,,,,,,,,,,,,,,,,,,,,,,0,0,0,0,0
2.2182,1783370135.2162,1,1,1.0000,0.0000,1.42057,0.14191,-2.66706,1.00240,1.56166,0.11679,-0.13250,-0.45900,0.07203,,,,,,,,,,,,,,,,,,,,,,,,,,0,0,0,0,0
2.2379,1783370135.2358,1,1,1.0000,0.0000,1.42044,0.14206,-2.66720,1.00220,1.56190,0.11696,-0.13241,-0.45887,0.07198,,,,,,,,,,,,,,,,,,,,,,,,,,0,0,0,0,0
2.2450,1783370135.2429,1,1,1.0000,0.0000,1.42042,0.14215,-2.66725,1.00219,1.56190,0.11696,-0.13241,-0.45885,0.07199,,,,,,,,,,,,,,,,,,,,,,,,,,0,0,0,0,0
2.2503,1783370135.2482,1,1,1.0000,0.0000,1.42051,0.14215,-2.66723,1.00240,1.56167,0.11677,-0.13248,-0.45891,0.07205,,,,,,,,,,,,,,,,,,,,,,,,,,0,0,0,0,0
2.2634,1783370135.2613,1,1,1.0000,0.0000,1.42046,0.14241,-2.66740,1.00235,1.56168,0.11679,-0.13247,-0.45882,0.07206,,,,,,,,,,,,,,,,,,,,,,,,,,0,0,0,0,0
2.2758,1783370135.2738,1,1,1.0000,0.0000,1.42032,0.14268,-2.66761,1.00210,1.56191,0.11700,-0.13239,-0.45865,0.07202,,,,,,,,,,,,,,,,,,,,,,,,,,0,0,0,0,0
2.2845,1783370135.2824,1,1,1.0000,0.0000,1.42030,0.14278,-2.66768,1.00208,1.56191,0.11701,-0.13239,-0.45860,0.07202,,,,,,,,,,,,,,,,,,,,,,,,,,0,0,0,0,0
2.2942,1783370135.2921,1,1,1.0000,0.0000,1.42025,0.14304,-2.66786,1.00202,1.56191,0.11705,-0.13238,-0.45850,0.07203,,,,,,,,,,,,,,,,,,,,,,,,,,0,0,0,0,0
2.3281,1783370135.3261,1,1,1.0000,0.0000,1.41999,0.14481,-2.66909,1.00178,1.56169,0.11717,-0.13244,-0.45781,0.07211,,,,,,,,,,,,,,,,,,,,,,,,,,0,0,0,0,0
2.3289,1783370135.3268,1,1,1.0000,0.0000,1.41999,0.14481,-2.66909,1.00178,1.56169,0.11717,-0.13244,-0.45781,0.07211,,,,,,,,,,,,,,,,,,,,,,,,,,0,0,0,0,0
2.3397,1783370135.3377,1,1,1.0000,0.0000,1.41988,0.14540,-2.66952,1.00163,1.56168,0.11728,-0.13244,-0.45755,0.07211,,,,,,,,,,,,,,,,,,,,,,,,,,0,0,0,0,0
2.3414,1783370135.3393,1,1,1.0000,0.0000,1.41980,0.14540,-2.66955,1.00143,1.56191,0.11746,-0.13236,-0.45748,0.07206,,,,,,,,,,,,,,,,,,,,,,,,,,0,0,0,0,0
2.3490,1783370135.3469,1,1,1.0000,0.0000,1.41968,0.14599,-2.66998,1.00128,1.56191,0.11757,-0.13236,-0.45722,0.07206,,,,,,,,,,,,,,,,,,,,,,,,,,0,0,0,0,0
2.3684,1783370135.3663,1,1,1.0000,0.0000,1.41956,0.14709,-2.67074,1.00120,1.56167,0.11759,-0.13243,-0.45681,0.07212,,,,,,,,,,,,,,,,,,,,,,,,,,0,0,0,0,0
2.3694,1783370135.3674,1,1,1.0000,0.0000,1.41956,0.14709,-2.67074,1.00120,1.56167,0.11759,-0.13243,-0.45681,0.07212,,,,,,,,,,,,,,,,,,,,,,,,,,0,0,0,0,0
2.3753,1783370135.3732,1,1,1.0000,0.0000,1.41942,0.14737,-2.67098,1.00091,1.56191,0.11784,-0.13235,-0.45662,0.07207,,,,,,,,,,,,,,,,,,,,,,,,,,0,0,0,0,0
2.3759,1783370135.3738,1,1,1.0000,0.0000,1.41945,0.14767,-2.67116,1.00104,1.56167,0.11770,-0.13243,-0.45655,0.07213,,,,,,,,,,,,,,,,,,,,,,,,,,0,0,0,0,0
2.3844,1783370135.3823,1,1,1.0000,0.0000,1.41933,0.14828,-2.67161,1.00087,1.56168,0.11783,-0.13242,-0.45628,0.07213,,,,,,,,,,,,,,,,,,,,,,,,,,0,0,0,0,0
2.4240,1783370135.4219,1,1,1.0000,0.0000,1.41886,0.15075,-2.67339,1.00018,1.56167,0.11830,-0.13241,-0.45519,0.07213,,,,,,,,,,,,,,,,,,,,,,,,,,0,0,0,0,0
2.4245,1783370135.4225,1,1,1.0000,0.0000,1.41886,0.15075,-2.67339,1.00018,1.56167,0.11830,-0.13241,-0.45519,0.07213,,,,,,,,,,,,,,,,,,,,,,,,,,0,0,0,0,0
2.4252,1783370135.4231,1,1,1.0000,0.0000,1.41886,0.15075,-2.67339,1.00018,1.56167,0.11830,-0.13241,-0.45519,0.07213,,,,,,,,,,,,,,,,,,,,,,,,,,0,0,0,0,0
2.4265,1783370135.4244,1,1,1.0000,0.0000,1.41886,0.15075,-2.67339,1.00018,1.56167,0.11830,-0.13241,-0.45519,0.07213,,,,,,,,,,,,,,,,,,,,,,,,,,0,0,0,0,0
2.4409,1783370135.4388,1,1,1.0000,0.0000,1.41874,0.15138,-2.67385,1.00000,1.56168,0.11842,-0.13241,-0.45492,0.07213,,,,,,,,,,,,,,,,,,,,,,,,,,0,0,0,0,0
2.4565,1783370135.4544,1,1,1.0000,0.0000,1.41861,0.15204,-2.67433,0.99981,1.56167,0.11855,-0.13241,-0.45462,0.07212,,,,,,,,,,,,,,,,,,,,,,,,,,0,0,0,0,0
2.4569,1783370135.4549,1,1,1.0000,0.0000,1.41861,0.15204,-2.67433,0.99981,1.56167,0.11855,-0.13241,-0.45462,0.07212,,,,,,,,,,,,,,,,,,,,,,,,,,0,0,0,0,0
2.4656,1783370135.4635,1,1,1.0000,0.0000,1.41858,0.15218,-2.67443,0.99976,1.56168,0.11858,-0.13240,-0.45456,0.07212,,,,,,,,,,,,,,,,,,,,,,,,,,0,0,0,0,0
2.4748,1783370135.4728,1,1,1.0000,0.0000,1.41854,0.15242,-2.67460,0.99969,1.56167,0.11863,-0.13240,-0.45445,0.07212,,,,,,,,,,,,,,,,,,,,,,,,,,0,0,0,0,0
2.4920,1783370135.4900,1,1,1.0000,0.0000,1.41838,0.15276,-2.67488,0.99937,1.56191,0.11889,-0.13232,-0.45423,0.07206,,,,,,,,,,,,,,,,,,,,,,,,,,0,0,0,0,0
2.4963,1783370135.4942,1,1,1.0000,0.0000,1.41838,0.15276,-2.67488,0.99937,1.56191,0.11889,-0.13232,-0.45423,0.07206,,,,,,,,,,,,,,,,,,,,,,,,,,0,0,0,0,0
2.5042,1783370135.5021,1,1,1.0000,0.0000,1.41844,0.15293,-2.67495,0.99952,1.56167,0.11874,-0.13240,-0.45423,0.07212,,,,,,,,,,,,,,,,,,,,,,,,,,0,0,0,0,0
2.5259,1783370135.5239,1,1,1.0000,0.0000,1.41832,0.15305,-2.67504,0.99926,1.56191,0.11896,-0.13232,-0.45413,0.07208,,,,,,,,,,,,,,,,,,,,,,,,,,0,0,0,0,0
2.5281,1783370135.5261,1,1,1.0000,0.0000,1.41841,0.15307,-2.67501,0.99946,1.56168,0.11878,-0.13239,-0.45419,0.07214,,,,,,,,,,,,,,,,,,,,,,,,,,0,0,0,0,0
2.5333,1783370135.5312,1,1,1.0000,0.0000,1.41832,0.15307,-2.67503,0.99925,1.56190,0.11897,-0.13232,-0.45414,0.07209,,,,,,,,,,,,,,,,,,,,,,,,,,0,0,0,0,0
2.5489,1783370135.5468,1,1,1.0000,0.0000,1.41832,0.15308,-2.67500,0.99924,1.56191,0.11897,-0.13231,-0.45416,0.07211,,,,,,,,,,,,,,,,,,,,,,,,,,0,0,0,0,0
2.5539,1783370135.5518,1,1,1.0000,0.0000,1.41841,0.15308,-2.67497,0.99944,1.56167,0.11879,-0.13239,-0.45422,0.07217,,,,,,,,,,,,,,,,,,,,,,,,,,0,0,0,0,0
2.5660,1783370135.5639,1,1,1.0000,0.0000,1.41832,0.15308,-2.67500,0.99924,1.56191,0.11898,-0.13231,-0.45416,0.07211,,,,,,,,,,,,,,,,,,,,,,,,,,0,0,0,0,0
2.5774,1783370135.5753,1,1,1.0000,0.0000,1.41841,0.15308,-2.67497,0.99944,1.56168,0.11879,-0.13239,-0.45422,0.07217,,,,,,,,,,,,,,,,,,,,,,,,,,0,0,0,0,0
2.5887,1783370135.5867,1,1,1.0000,0.0000,1.41832,0.15307,-2.67499,0.99924,1.56190,0.11897,-0.13231,-0.45416,0.07211,,,,,,,,,,,,,,,,,,,,,,,,,,0,0,0,0,0
2.5901,1783370135.5880,1,1,1.0000,0.0000,1.41832,0.15307,-2.67499,0.99924,1.56190,0.11897,-0.13231,-0.45416,0.07211,,,,,,,,,,,,,,,,,,,,,,,,,,0,0,0,0,0
2.5950,1783370135.5930,1,1,1.0000,0.0000,1.41841,0.15308,-2.67497,0.99945,1.56167,0.11878,-0.13239,-0.45422,0.07217,,,,,,,,,,,,,,,,,,,,,,,,,,0,0,0,0,0
2.6071,1783370135.6050,1,1,1.0000,0.0000,1.41832,0.15308,-2.67500,0.99924,1.56191,0.11897,-0.13231,-0.45416,0.07211,,,,,,,,,,,,,,,,,,,,,,,,,,0,0,0,0,0
2.6166,1783370135.6146,1,1,1.0000,0.0000,1.41841,0.15308,-2.67497,0.99944,1.56168,0.11879,-0.13239,-0.45422,0.07217,,,,,,,,,,,,,,,,,,,,,,,,,,0,0,0,0,0
2.6172,1783370135.6151,1,1,1.0000,0.0000,1.41841,0.15308,-2.67497,0.99944,1.56168,0.11879,-0.13239,-0.45422,0.07217,,,,,,,,,,,,,,,,,,,,,,,,,,0,0,0,0,0
2.6464,1783370135.6443,1,1,1.0000,0.0000,1.41832,0.15308,-2.67500,0.99924,1.56191,0.11898,-0.13231,-0.45416,0.07211,,,,,,,,,,,,,,,,,,,,,,,,,,0,0,0,0,0
2.6469,1783370135.6448,1,1,1.0000,0.0000,1.41832,0.15308,-2.67500,0.99924,1.56191,0.11898,-0.13231,-0.45416,0.07211,,,,,,,,,,,,,,,,,,,,,,,,,,0,0,0,0,0
2.7253,1783370135.7232,1,1,1.0000,0.0000,1.41832,0.15308,-2.67500,0.99924,1.56191,0.11897,-0.13231,-0.45416,0.07211,,,,,,,,,,,,,,,,,,,,,,,,,,0,0,0,0,0
2.7259,1783370135.7238,1,1,1.0000,0.0000,1.41832,0.15308,-2.67500,0.99924,1.56191,0.11897,-0.13231,-0.45416,0.07211,,,,,,,,,,,,,,,,,,,,,,,,,,0,0,0,0,0
2.7265,1783370135.7244,1,1,1.0000,0.0000,1.41832,0.15308,-2.67500,0.99924,1.56191,0.11897,-0.13231,-0.45416,0.07211,,,,,,,,,,,,,,,,,,,,,,,,,,0,0,0,0,0
2.7270,1783370135.7250,1,1,1.0000,0.0000,1.41832,0.15308,-2.67500,0.99924,1.56191,0.11897,-0.13231,-0.45416,0.07211,,,,,,,,,,,,,,,,,,,,,,,,,,0,0,0,0,0
2.7282,1783370135.7261,1,1,1.0000,0.0000,1.41841,0.15308,-2.67497,0.99945,1.56167,0.11878,-0.13239,-0.45422,0.07217,,,,,,,,,,,,,,,,,,,,,,,,,,0,0,0,0,0
2.7288,1783370135.7268,1,1,1.0000,0.0000,1.41841,0.15308,-2.67497,0.99945,1.56167,0.11878,-0.13239,-0.45422,0.07217,,,,,,,,,,,,,,,,,,,,,,,,,,0,0,0,0,0
2.7356,1783370135.7335,1,1,1.0000,0.0000,1.41832,0.15308,-2.67500,0.99924,1.56191,0.11897,-0.13231,-0.45416,0.07211,,,,,,,,,,,,,,,,,,,,,,,,,,0,0,0,0,0
2.7533,1783370135.7512,1,1,1.0000,0.0000,1.41841,0.15308,-2.67497,0.99945,1.56167,0.11878,-0.13239,-0.45422,0.07217,,,,,,,,,,,,,,,,,,,,,,,,,,0,0,0,0,0
2.7716,1783370135.7695,1,1,1.0000,0.0000,1.41841,0.15308,-2.67497,0.99945,1.56167,0.11878,-0.13239,-0.45422,0.07217,,,,,,,,,,,,,,,,,,,,,,,,,,0,0,0,0,0
2.8132,1783370135.8111,1,1,1.0000,0.0000,1.41832,0.15308,-2.67500,0.99924,1.56191,0.11897,-0.13231,-0.45416,0.07211,,,,,,,,,,,,,,,,,,,,,,,,,,0,0,0,0,0
2.8146,1783370135.8125,1,1,1.0000,0.0000,1.41832,0.15308,-2.67500,0.99924,1.56191,0.11897,-0.13231,-0.45416,0.07211,,,,,,,,,,,,,,,,,,,,,,,,,,0,0,0,0,0
2.8189,1783370135.8169,1,1,1.0000,0.0000,1.41841,0.15308,-2.67497,0.99945,1.56167,0.11878,-0.13239,-0.45422,0.07217,,,,,,,,,,,,,,,,,,,,,,,,,,0,0,0,0,0
2.8272,1783370135.8251,1,1,1.0000,0.0000,1.41841,0.15308,-2.67497,0.99945,1.56167,0.11878,-0.13239,-0.45422,0.07217,,,,,,,,,,,,,,,,,,,,,,,,,,0,0,0,0,0
2.8372,1783370135.8351,1,1,1.0000,0.0000,1.41832,0.15308,-2.67500,0.99924,1.56191,0.11898,-0.13231,-0.45416,0.07211,,,,,,,,,,,,,,,,,,,,,,,,,,0,0,0,0,0
2.8439,1783370135.8419,1,1,1.0000,0.0000,1.41840,0.15308,-2.67497,0.99944,1.56168,0.11879,-0.13239,-0.45422,0.07217,,,,,,,,,,,,,,,,,,,,,,,,,,0,0,0,0,0
2.8567,1783370135.8547,1,1,1.0000,0.0000,1.41841,0.15308,-2.67497,0.99945,1.56167,0.11878,-0.13239,-0.45422,0.07217,,,,,,,,,,,,,,,,,,,,,,,,,,0,0,0,0,0
2.8654,1783370135.8633,1,1,1.0000,0.0000,1.41841,0.15308,-2.67497,0.99945,1.56167,0.11878,-0.13239,-0.45422,0.07217,,,,,,,,,,,,,,,,,,,,,,,,,,0,0,0,0,0
2.8806,1783370135.8786,1,1,1.0000,0.0000,1.41841,0.15308,-2.67497,0.99945,1.56167,0.11878,-0.13239,-0.45422,0.07217,,,,,,,,,,,,,,,,,,,,,,,,,,0,0,0,0,0
2.8897,1783370135.8876,1,1,1.0000,0.0000,1.41841,0.15308,-2.67497,0.99945,1.56167,0.11878,-0.13239,-0.45422,0.07217,,,,,,,,,,,,,,,,,,,,,,,,,,0,0,0,0,0
2.9013,1783370135.8992,1,1,1.0000,0.0000,1.41832,0.15308,-2.67500,0.99924,1.56191,0.11897,-0.13231,-0.45416,0.07211,,,,,,,,,,,,,,,,,,,,,,,,,,0,0,0,0,0
2.9100,1783370135.9080,1,1,1.0000,0.0000,1.41832,0.15308,-2.67500,0.99924,1.56191,0.11897,-0.13231,-0.45416,0.07211,,,,,,,,,,,,,,,,,,,,,,,,,,0,0,0,0,0
2.9144,1783370135.9123,1,1,1.0000,0.0000,1.41840,0.15308,-2.67497,0.99944,1.56168,0.11879,-0.13239,-0.45422,0.07217,,,,,,,,,,,,,,,,,,,,,,,,,,0,0,0,0,0
2.9323,1783370135.9302,1,1,1.0000,0.0000,1.41832,0.15308,-2.67500,0.99924,1.56191,0.11897,-0.13231,-0.45416,0.07211,,,,,,,,,,,,,,,,,,,,,,,,,,0,0,0,0,0
2.9378,1783370135.9357,1,1,1.0000,0.0000,1.41841,0.15308,-2.67497,0.99945,1.56167,0.11878,-0.13239,-0.45422,0.07217,,,,,,,,,,,,,,,,,,,,,,,,,,0,0,0,0,0
2.9483,1783370135.9462,1,1,1.0000,0.0000,1.41841,0.15308,-2.67497,0.99945,1.56167,0.11878,-0.13239,-0.45422,0.07217,,,,,,,,,,,,,,,,,,,,,,,,,,0,0,0,0,0
2.9569,1783370135.9548,1,1,1.0000,0.0000,1.41832,0.15308,-2.67500,0.99924,1.56191,0.11897,-0.13231,-0.45416,0.07211,,,,,,,,,,,,,,,,,,,,,,,,,,0,0,0,0,0
2.9690,1783370135.9669,1,1,1.0000,0.0000,1.41841,0.15308,-2.67497,0.99944,1.56168,0.11879,-0.13239,-0.45422,0.07217,,,,,,,,,,,,,,,,,,,,,,,,,,0,0,0,0,0
2.9841,1783370135.9821,1,1,1.0000,0.0000,1.41841,0.15308,-2.67494,0.99944,1.56167,0.11880,-0.13239,-0.45424,0.07218,,,,,,,,,,,,,,,,,,,,,,,,,,0,0,0,0,0
2.9851,1783370135.9830,1,1,1.0000,0.0000,1.41841,0.15308,-2.67494,0.99944,1.56167,0.11880,-0.13239,-0.45424,0.07218,,,,,,,,,,,,,,,,,,,,,,,,,,0,0,0,0,0
2.9858,1783370135.9837,1,1,1.0000,0.0000,1.41841,0.15308,-2.67494,0.99944,1.56167,0.11880,-0.13239,-0.45424,0.07218,,,,,,,,,,,,,,,,,,,,,,,,,,0,0,0,0,0
2.9966,1783370135.9945,1,1,1.0000,0.0000,1.41832,0.15306,-2.67498,0.99922,1.56191,0.11900,-0.13232,-0.45416,0.07211,,,,,,,,,,,,,,,,,,,,,,,,,,0,0,0,0,0
3.0051,1783370136.0030,1,1,1.0000,0.0000,1.41832,0.15306,-2.67498,0.99922,1.56191,0.11901,-0.13232,-0.45416,0.07211,,,,,,,,,,,,,,,,,,,,,,,,,,0,0,0,0,0
3.0313,1783370136.0292,1,1,1.0000,0.0000,1.41833,0.15301,-2.67496,0.99922,1.56191,0.11902,-0.13232,-0.45416,0.07209,,,,,,,,,,,,,,,,,,,,,,,,,,0,0,0,0,0
3.0576,1783370136.0555,1,1,1.0000,0.0000,1.41846,0.15279,-2.67477,0.99945,1.56167,0.11883,-0.13240,-0.45432,0.07215,,,,,,,,,,,,,,,,,,,,,,,,,,0,0,0,0,0
3.0586,1783370136.0565,1,1,1.0000,0.0000,1.41846,0.15279,-2.67477,0.99945,1.56167,0.11883,-0.13240,-0.45432,0.07215,,,,,,,,,,,,,,,,,,,,,,,,,,0,0,0,0,0
3.0603,1783370136.0582,1,1,1.0000,0.0000,1.41846,0.15279,-2.67477,0.99945,1.56167,0.11883,-0.13240,-0.45432,0.07215,,,,,,,,,,,,,,,,,,,,,,,,,,0,0,0,0,0
3.0653,1783370136.0633,1,1,1.0000,0.0000,1.41849,0.15267,-2.67468,0.99947,1.56167,0.11882,-0.13240,-0.45438,0.07215,,,,,,,,,,,,,,,,,,,,,,,,,,0,0,0,0,0
3.0658,1783370136.0637,1,1,1.0000,0.0000,1.41849,0.15267,-2.67468,0.99947,1.56167,0.11882,-0.13240,-0.45438,0.07215,,,,,,,,,,,,,,,,,,,,,,,,,,0,0,0,0,0
3.0779,1783370136.0758,1,1,1.0000,0.0000,1.41845,0.15241,-2.67453,0.99932,1.56191,0.11899,-0.13233,-0.45442,0.07208,,,,,,,,,,,,,,,,,,,,,,,,,,0,0,0,0,0
3.0784,1783370136.0763,1,1,1.0000,0.0000,1.41845,0.15241,-2.67453,0.99932,1.56191,0.11899,-0.13233,-0.45442,0.07208,,,,,,,,,,,,,,,,,,,,,,,,,,0,0,0,0,0
3.0859,1783370136.0839,1,1,1.0000,0.0000,1.41849,0.15220,-2.67438,0.99936,1.56191,0.11897,-0.13233,-0.45450,0.07208,,,,,,,,,,,,,,,,,,,,,,,,,,0,0,0,0,0
3.1062,1783370136.1042,1,1,1.0000,0.0000,1.41869,0.15163,-2.67395,0.99971,1.56167,0.11869,-0.13242,-0.45480,0.07212,,,,,,,,,,,,,,,,,,,,,,,,,,0,0,0,0,0
3.1171,1783370136.1150,1,1,1.0000,0.0000,1.41867,0.15126,-2.67372,0.99960,1.56190,0.11882,-0.13235,-0.45489,0.07206,,,,,,,,,,,,,,,,,,,,,,,,,,0,0,0,0,0
3.1268,1783370136.1247,1,1,1.0000,0.0000,1.41875,0.15084,-2.67343,0.99970,1.56191,0.11875,-0.13235,-0.45507,0.07206,,,,,,,,,,,,,,,,,,,,,,,,,,0,0,0,0,0
3.1400,1783370136.1380,1,1,1.0000,0.0000,1.41894,0.14985,-2.67272,0.99996,1.56191,0.11857,-0.13235,-0.45550,0.07205,,,,,,,,,,,,,,,,,,,,,,,,,,0,0,0,0,0
3.1408,1783370136.1387,1,1,1.0000,0.0000,1.41894,0.14985,-2.67272,0.99996,1.56191,0.11857,-0.13235,-0.45550,0.07205,,,,,,,,,,,,,,,,,,,,,,,,,,0,0,0,0,0
3.1513,1783370136.1492,1,1,1.0000,0.0000,1.41899,0.14958,-2.67252,1.00004,1.56191,0.11852,-0.13236,-0.45562,0.07205,,,,,,,,,,,,,,,,,,,,,,,,,,0,0,0,0,0
3.1550,1783370136.1530,1,1,1.0000,0.0000,1.41913,0.14931,-2.67230,1.00031,1.56168,0.11829,-0.13243,-0.45580,0.07210,,,,,,,,,,,,,,,,,,,,,,,,,,0,0,0,0,0
3.1668,1783370136.1647,1,1,1.0000,0.0000,1.41920,0.14848,-2.67173,1.00033,1.56190,0.11831,-0.13236,-0.45610,0.07205,,,,,,,,,,,,,,,,,,,,,,,,,,0,0,0,0,0
3.1913,1783370136.1892,1,1,1.0000,0.0000,1.41948,0.14706,-2.67070,1.00072,1.56190,0.11804,-0.13237,-0.45673,0.07204,,,,,,,,,,,,,,,,,,,,,,,,,,0,0,0,0,0
3.2044,1783370136.2024,1,1,1.0000,0.0000,1.41965,0.14617,-2.67005,1.00095,1.56190,0.11787,-0.13238,-0.45712,0.07204,,,,,,,,,,,,,,,,,,,,,,,,,,0,0,0,0,0
3.2130,1783370136.2110,1,1,1.0000,0.0000,1.41976,0.14557,-2.66961,1.00111,1.56191,0.11776,-0.13238,-0.45738,0.07204,,,,,,,,,,,,,,,,,,,,,,,,,,0,0,0,0,0
3.2189,1783370136.2168,1,1,1.0000,0.0000,1.41991,0.14527,-2.66936,1.00140,1.56167,0.11751,-0.13246,-0.45759,0.07209,,,,,,,,,,,,,,,,,,,,,,,,,,0,0,0,0,0
3.2286,1783370136.2265,1,1,1.0000,0.0000,1.41999,0.14438,-2.66874,1.00143,1.56191,0.11752,-0.13238,-0.45792,0.07204,,,,,,,,,,,,,,,,,,,,,,,,,,0,0,0,0,0
3.2450,1783370136.2429,1,1,1.0000,0.0000,1.42014,0.14360,-2.66817,1.00164,1.56191,0.11737,-0.13239,-0.45826,0.07204,,,,,,,,,,,,,,,,,,,,,,,,,,0,0,0,0,0
3.2453,1783370136.2432,1,1,1.0000,0.0000,1.42014,0.14360,-2.66817,1.00164,1.56191,0.11737,-0.13239,-0.45826,0.07204,,,,,,,,,,,,,,,,,,,,,,,,,,0,0,0,0,0
3.2607,1783370136.2586,1,1,1.0000,0.0000,1.42028,0.14286,-2.66763,1.00185,1.56191,0.11723,-0.13239,-0.45860,0.07204,,,,,,,,,,,,,,,,,,,,,,,,,,0,0,0,0,0
3.2706,1783370136.2685,1,1,1.0000,0.0000,1.42033,0.14259,-2.66743,1.00192,1.56191,0.11717,-0.13239,-0.45872,0.07204,,,,,,,,,,,,,,,,,,,,,,,,,,0,0,0,0,0
3.2873,1783370136.2853,1,1,1.0000,0.0000,1.42039,0.14229,-2.66721,1.00201,1.56191,0.11711,-0.13240,-0.45885,0.07204,,,,,,,,,,,,,,,,,,,,,,,,,,0,0,0,0,0
3.2924,1783370136.2904,1,1,1.0000,0.0000,1.42042,0.14215,-2.66711,1.00206,1.56191,0.11708,-0.13240,-0.45892,0.07204,,,,,,,,,,,,,,,,,,,,,,,,,,0,0,0,0,0
3.2942,1783370136.2921,1,1,1.0000,0.0000,1.42042,0.14215,-2.66711,1.00206,1.56191,0.11708,-0.13240,-0.45892,0.07204,,,,,,,,,,,,,,,,,,,,,,,,,,0,0,0,0,0
3.3183,1783370136.3162,1,1,1.0000,0.0000,1.42046,0.14193,-2.66696,1.00213,1.56191,0.11703,-0.13240,-0.45901,0.07204,,,,,,,,,,,,,,,,,,,,,,,,,,0,0,0,0,0
3.3208,1783370136.3188,1,1,1.0000,0.0000,1.42055,0.14190,-2.66692,1.00235,1.56167,0.11684,-0.13248,-0.45908,0.07209,,,,,,,,,,,,,,,,,,,,,,,,,,0,0,0,0,0
3.3309,1783370136.3288,1,1,1.0000,0.0000,1.42056,0.14187,-2.66691,1.00236,1.56168,0.11683,-0.13248,-0.45909,0.07208,,,,,,,,,,,,,,,,,,,,,,,,,,0,0,0,0,0
3.3445,1783370136.3425,1,1,1.0000,0.0000,1.42056,0.14184,-2.66692,1.00238,1.56168,0.11682,-0.13248,-0.45908,0.07207,,,,,,,,,,,,,,,,,,,,,,,,,,0,0,0,0,0
3.3460,1783370136.3440,1,1,1.0000,0.0000,1.42056,0.14184,-2.66692,1.00238,1.56168,0.11682,-0.13248,-0.45908,0.07207,,,,,,,,,,,,,,,,,,,,,,,,,,0,0,0,0,0
3.3477,1783370136.3456,1,1,1.0000,0.0000,1.42048,0.14184,-2.66696,1.00218,1.56191,0.11700,-0.13241,-0.45901,0.07201,,,,,,,,,,,,,,,,,,,,,,,,,,0,0,0,0,0
3.3626,1783370136.3605,1,1,1.0000,0.0000,1.42056,0.14184,-2.66696,1.00239,1.56168,0.11682,-0.13248,-0.45905,0.07205,,,,,,,,,,,,,,,,,,,,,,,,,,0,0,0,0,0
3.3738,1783370136.3717,1,1,1.0000,0.0000,1.42048,0.14184,-2.66699,1.00219,1.56191,0.11700,-0.13241,-0.45899,0.07199,,,,,,,,,,,,,,,,,,,,,,,,,,0,0,0,0,0
3.3807,1783370136.3787,1,1,1.0000,0.0000,1.42048,0.14183,-2.66699,1.00219,1.56191,0.11700,-0.13241,-0.45899,0.07199,,,,,,,,,,,,,,,,,,,,,,,,,,0,0,0,0,0
3.3988,1783370136.3968,1,1,1.0000,0.0000,1.42048,0.14184,-2.66699,1.00219,1.56191,0.11700,-0.13241,-0.45899,0.07199,,,,,,,,,,,,,,,,,,,,,,,,,,0,0,0,0,0
3.4021,1783370136.4000,1,1,1.0000,0.0000,1.42056,0.14184,-2.66696,1.00239,1.56169,0.11682,-0.13248,-0.45905,0.07205,,,,,,,,,,,,,,,,,,,,,,,,,,0,0,0,0,0
3.4142,1783370136.4121,1,1,1.0000,0.0000,1.42048,0.14184,-2.66699,1.00219,1.56191,0.11700,-0.13241,-0.45899,0.07199,,,,,,,,,,,,,,,,,,,,,,,,,,0,0,0,0,0
3.4320,1783370136.4299,1,1,1.0000,0.0000,1.42057,0.14183,-2.66696,1.00240,1.56167,0.11681,-0.13249,-0.45906,0.07205,,,,,,,,,,,,,,,,,,,,,,,,,,0,0,0,0,0
3.4326,1783370136.4306,1,1,1.0000,0.0000,1.42057,0.14183,-2.66696,1.00240,1.56167,0.11681,-0.13249,-0.45906,0.07205,,,,,,,,,,,,,,,,,,,,,,,,,,0,0,0,0,0
3.4450,1783370136.4429,1,1,1.0000,0.0000,1.42048,0.14183,-2.66699,1.00220,1.56190,0.11699,-0.13241,-0.45899,0.07199,,,,,,,,,,,,,,,,,,,,,,,,,,0,0,0,0,0
3.4458,1783370136.4437,1,1,1.0000,0.0000,1.42048,0.14183,-2.66699,1.00220,1.56190,0.11699,-0.13241,-0.45899,0.07199,,,,,,,,,,,,,,,,,,,,,,,,,,0,0,0,0,0
3.4489,1783370136.4468,1,1,1.0000,0.0000,1.42057,0.14183,-2.66696,1.00239,1.56168,0.11681,-0.13248,-0.45906,0.07205,,,,,,,,,,,,,,,,,,,,,,,,,,0,0,0,0,0
3.4645,1783370136.4624,1,1,1.0000,0.0000,1.42056,0.14183,-2.66696,1.00239,1.56168,0.11682,-0.13248,-0.45905,0.07205,,,,,,,,,,,,,,,,,,,,,,,,,,0,0,0,0,0
3.4902,1783370136.4881,1,1,1.0000,0.0000,1.42056,0.14184,-2.66696,1.00239,1.56169,0.11682,-0.13248,-0.45905,0.07205,,,,,,,,,,,,,,,,,,,,,,,,,,0,0,0,0,0
3.4937,1783370136.4917,1,1,1.0000,0.0000,1.42048,0.14184,-2.66699,1.00219,1.56191,0.11700,-0.13241,-0.45899,0.07199,,,,,,,,,,,,,,,,,,,,,,,,,,0,0,0,0,0
3.4946,1783370136.4925,1,1,1.0000,0.0000,1.42048,0.14184,-2.66699,1.00219,1.56191,0.11700,-0.13241,-0.45899,0.07199,,,,,,,,,,,,,,,,,,,,,,,,,,0,0,0,0,0
3.4992,1783370136.4972,1,1,1.0000,0.0000,1.42057,0.14183,-2.66696,1.00240,1.56167,0.11681,-0.13249,-0.45906,0.07205,,,,,,,,,,,,,,,,,,,,,,,,,,0,0,0,0,0
3.5006,1783370136.4986,1,1,1.0000,0.0000,1.42048,0.14184,-2.66699,1.00219,1.56192,0.11700,-0.13241,-0.45899,0.07199,,,,,,,,,,,,,,,,,,,,,,,,,,0,0,0,0,0
3.5132,1783370136.5111,1,1,1.0000,0.0000,1.42057,0.14183,-2.66696,1.00239,1.56168,0.11681,-0.13248,-0.45906,0.07205,,,,,,,,,,,,,,,,,,,,,,,,,,0,0,0,0,0
3.5212,1783370136.5191,1,1,1.0000,0.0000,1.42057,0.14183,-2.66696,1.00240,1.56167,0.11681,-0.13249,-0.45906,0.07205,,,,,,,,,,,,,,,,,,,,,,,,,,0,0,0,0,0
3.5291,1783370136.5270,1,1,1.0000,0.0000,1.42056,0.14184,-2.66696,1.00239,1.56168,0.11682,-0.13248,-0.45905,0.07205,,,,,,,,,,,,,,,,,,,,,,,,,,0,0,0,0,0
3.5375,1783370136.5354,1,1,1.0000,0.0000,1.42056,0.14183,-2.66696,1.00239,1.56168,0.11682,-0.13248,-0.45905,0.07205,,,,,,,,,,,,,,,,,,,,,,,,,,0,0,0,0,0
3.5502,1783370136.5482,1,1,1.0000,0.0000,1.42048,0.14184,-2.66699,1.00219,1.56191,0.11700,-0.13241,-0.45899,0.07199,,,,,,,,,,,,,,,,,,,,,,,,,,0,0,0,0,0
3.5575,1783370136.5554,1,1,1.0000,0.0000,1.42048,0.14184,-2.66699,1.00219,1.56191,0.11700,-0.13241,-0.45899,0.07199,,,,,,,,,,,,,,,,,,,,,,,,,,0,0,0,0,0
3.5701,1783370136.5680,1,1,1.0000,0.0000,1.42056,0.14184,-2.66696,1.00239,1.56169,0.11682,-0.13248,-0.45905,0.07205,,,,,,,,,,,,,,,,,,,,,,,,,,0,0,0,0,0
3.5920,1783370136.5899,1,1,1.0000,0.0000,1.42057,0.14183,-2.66696,1.00240,1.56167,0.11681,-0.13249,-0.45906,0.07205,,,,,,,,,,,,,,,,,,,,,,,,,,0,0,0,0,0
3.6145,1783370136.6124,1,1,1.0000,0.0000,1.42048,0.14184,-2.66699,1.00219,1.56191,0.11700,-0.13241,-0.45899,0.07199,,,,,,,,,,,,,,,,,,,,,,,,,,0,0,0,0,0
3.6185,1783370136.6165,1,1,1.0000,0.0000,1.42056,0.14184,-2.66696,1.00239,1.56169,0.11682,-0.13248,-0.45905,0.07205,,,,,,,,,,,,,,,,,,,,,,,,,,0,0,0,0,0
3.6286,1783370136.6266,1,1,1.0000,0.0000,1.42048,0.14183,-2.66699,1.00219,1.56191,0.11700,-0.13241,-0.45899,0.07199,,,,,,,,,,,,,,,,,,,,,,,,,,0,0,0,0,0
3.6387,1783370136.6366,1,1,1.0000,0.0000,1.42048,0.14184,-2.66699,1.00219,1.56191,0.11700,-0.13241,-0.45899,0.07199,,,,,,,,,,,,,,,,,,,,,,,,,,0,0,0,0,0
3.6395,1783370136.6374,1,1,1.0000,0.0000,1.42048,0.14184,-2.66699,1.00219,1.56191,0.11700,-0.13241,-0.45899,0.07199,,,,,,,,,,,,,,,,,,,,,,,,,,0,0,0,0,0
3.6509,1783370136.6489,1,1,1.0000,0.0000,1.42056,0.14183,-2.66696,1.00239,1.56168,0.11681,-0.13248,-0.45906,0.07205,,,,,,,,,,,,,,,,,,,,,,,,,,0,0,0,0,0
3.6577,1783370136.6556,1,1,1.0000,0.0000,1.42057,0.14183,-2.66696,1.00239,1.56168,0.11681,-0.13248,-0.45906,0.07205,,,,,,,,,,,,,,,,,,,,,,,,,,0,0,0,0,0
3.6789,1783370136.6769,1,1,1.0000,0.0000,1.42048,0.14184,-2.66699,1.00219,1.56192,0.11700,-0.13241,-0.45899,0.07199,,,,,,,,,,,,,,,,,,,,,,,,,,0,0,0,0,0
3.6823,1783370136.6802,1,1,1.0000,0.0000,1.42056,0.14184,-2.66696,1.00239,1.56168,0.11682,-0.13248,-0.45905,0.07205,,,,,,,,,,,,,,,,,,,,,,,,,,0,0,0,0,0
3.7048,1783370136.7028,1,1,1.0000,0.0000,1.42056,0.14184,-2.66696,1.00239,1.56168,0.11681,-0.13248,-0.45905,0.07205,,,,,,,,,,,,,,,,,,,,,,,,,,0,0,0,0,0
3.7054,1783370136.7033,1,1,1.0000,0.0000,1.42056,0.14184,-2.66696,1.00239,1.56168,0.11681,-0.13248,-0.45905,0.07205,,,,,,,,,,,,,,,,,,,,,,,,,,0,0,0,0,0
3.7080,1783370136.7060,1,1,1.0000,0.0000,1.42056,0.14184,-2.66696,1.00239,1.56168,0.11681,-0.13248,-0.45905,0.07205,,,,,,,,,,,,,,,,,,,,,,,,,,0,0,0,0,0
3.7092,1783370136.7071,1,1,1.0000,0.0000,1.42048,0.14184,-2.66699,1.00219,1.56191,0.11700,-0.13241,-0.45899,0.07199,,,,,,,,,,,,,,,,,,,,,,,,,,0,0,0,0,0
3.7243,1783370136.7222,1,1,1.0000,0.0000,1.42048,0.14184,-2.66699,1.00219,1.56191,0.11700,-0.13241,-0.45899,0.07199,,,,,,,,,,,,,,,,,,,,,,,,,,0,0,0,0,0
3.7250,1783370136.7229,1,1,1.0000,0.0000,1.42048,0.14184,-2.66699,1.00219,1.56191,0.11700,-0.13241,-0.45899,0.07199,,,,,,,,,,,,,,,,,,,,,,,,,,0,0,0,0,0
3.7287,1783370136.7266,1,1,1.0000,0.0000,1.42057,0.14183,-2.66696,1.00240,1.56167,0.11681,-0.13249,-0.45906,0.07205,,,,,,,,,,,,,,,,,,,,,,,,,,0,0,0,0,0
3.7443,1783370136.7423,1,1,1.0000,0.0000,1.42056,0.14184,-2.66696,1.00239,1.56169,0.11682,-0.13248,-0.45905,0.07205,,,,,,,,,,,,,,,,,,,,,,,,,,0,0,0,0,0
3.7491,1783370136.7470,1,1,1.0000,0.0000,1.42048,0.14184,-2.66699,1.00219,1.56191,0.11700,-0.13241,-0.45899,0.07199,,,,,,,,,,,,,,,,,,,,,,,,,,0,0,0,0,0
3.7640,1783370136.7619,1,1,1.0000,0.0000,1.42048,0.14184,-2.66699,1.00219,1.56191,0.11700,-0.13241,-0.45899,0.07199,,,,,,,,,,,,,,,,,,,,,,,,,,0,0,0,0,0
3.7688,1783370136.7667,1,1,1.0000,0.0000,1.42057,0.14183,-2.66696,1.00239,1.56168,0.11681,-0.13248,-0.45906,0.07205,,,,,,,,,,,,,,,,,,,,,,,,,,0,0,0,0,0
3.7696,1783370136.7676,1,1,1.0000,0.0000,1.42057,0.14183,-2.66696,1.00239,1.56168,0.11681,-0.13248,-0.45906,0.07205,,,,,,,,,,,,,,,,,,,,,,,,,,0,0,0,0,0
3.7785,1783370136.7765,1,1,1.0000,0.0000,1.42057,0.14183,-2.66696,1.00240,1.56167,0.11681,-0.13249,-0.45906,0.07205,,,,,,,,,,,,,,,,,,,,,,,,,,0,0,0,0,0
3.7942,1783370136.7921,1,1,1.0000,0.0000,1.42057,0.14181,-2.66700,1.00244,1.56168,0.11680,-0.13249,-0.45904,0.07202,,,,,,,,,,,,,,,,,,,,,,,,,,0,0,0,0,0
3.8015,1783370136.7994,1,1,1.0000,0.0000,1.42056,0.14179,-2.66701,1.00249,1.56168,0.11679,-0.13248,-0.45904,0.07202,,,,,,,,,,,,,,,,,,,,,,,,,,0,0,0,0,0
3.8087,1783370136.8066,1,1,1.0000,0.0000,1.42056,0.14176,-2.66702,1.00253,1.56169,0.11678,-0.13248,-0.45904,0.07201,,,,,,,,,,,,,,,,,,,,,,,,,,0,0,0,0,0
3.8176,1783370136.8155,1,1,1.0000,0.0000,1.42056,0.14174,-2.66702,1.00256,1.56169,0.11678,-0.13248,-0.45904,0.07201,,,,,,,,,,,,,,,,,,,,,,,,,,0,0,0,0,0
3.8292,1783370136.8271,1,1,1.0000,0.0000,1.42047,0.14168,-2.66706,1.00245,1.56192,0.11695,-0.13240,-0.45899,0.07194,,,,,,,,,,,,,,,,,,,,,,,,,,0,0,0,0,0
3.8373,1783370136.8353,1,1,1.0000,0.0000,1.42047,0.14165,-2.66707,1.00249,1.56193,0.11695,-0.13240,-0.45899,0.07193,,,,,,,,,,,,,,,,,,,,,,,,,,0,0,0,0,0
3.8524,1783370136.8504,1,1,1.0000,0.0000,1.42048,0.14143,-2.66712,1.00277,1.56192,0.11694,-0.13240,-0.45900,0.07186,,,,,,,,,,,,,,,,,,,,,,,,,,0,0,0,0,0
3.8573,1783370136.8553,1,1,1.0000,0.0000,1.42056,0.14134,-2.66711,1.00308,1.56168,0.11675,-0.13248,-0.45907,0.07189,,,,,,,,,,,,,,,,,,,,,,,,,,0,0,0,0,0
3.8681,1783370136.8661,1,1,1.0000,0.0000,1.42047,0.14117,-2.66718,1.00308,1.56193,0.11694,-0.13240,-0.45900,0.07177,,,,,,,,,,,,,,,,,,,,,,,,,,0,0,0,0,0
3.8848,1783370136.8827,1,1,1.0000,0.0000,1.42047,0.14073,-2.66728,1.00362,1.56193,0.11693,-0.13239,-0.45901,0.07163,,,,,,,,,,,,,,,,,,,,,,,,,,0,0,0,0,0
3.8888,1783370136.8867,1,1,1.0000,0.0000,1.42056,0.14060,-2.66728,1.00399,1.56170,0.11675,-0.13247,-0.45908,0.07165,,,,,,,,,,,,,,,,,,,,,,,,,,0,0,0,0,0
3.8893,1783370136.8873,1,1,1.0000,0.0000,1.42056,0.14060,-2.66728,1.00399,1.56170,0.11675,-0.13247,-0.45908,0.07165,,,,,,,,,,,,,,,,,,,,,,,,,,0,0,0,0,0
3.9052,1783370136.9031,1,1,1.0000,0.0000,1.42056,0.14018,-2.66738,1.00450,1.56169,0.11674,-0.13247,-0.45910,0.07151,,,,,,,,,,,,,,,,,,,,,,,,,,0,0,0,0,0
3.9135,1783370136.9114,1,1,1.0000,0.0000,1.42056,0.13987,-2.66745,1.00489,1.56170,0.11674,-0.13247,-0.45910,0.07142,,,,,,,,,,,,,,,,,,,,,,,,,,0,0,0,0,0
3.9292,1783370136.9271,1,1,1.0000,0.0000,1.42056,0.13936,-2.66757,1.00553,1.56170,0.11674,-0.13247,-0.45912,0.07125,,,,,,,,,,,,,,,,,,,,,,,,,,0,0,0,0,0
3.9297,1783370136.9277,1,1,1.0000,0.0000,1.42056,0.13936,-2.66757,1.00553,1.56170,0.11674,-0.13247,-0.45912,0.07125,,,,,,,,,,,,,,,,,,,,,,,,,,0,0,0,0,0
3.9539,1783370136.9518,1,1,1.0000,0.0000,1.42057,0.13818,-2.66785,1.00699,1.56170,0.11673,-0.13246,-0.45915,0.07088,,,,,,,,,,,,,,,,,,,,,,,,,,0,0,0,0,0
3.9550,1783370136.9530,1,1,1.0000,0.0000,1.42057,0.13818,-2.66785,1.00699,1.56170,0.11673,-0.13246,-0.45915,0.07088,,,,,,,,,,,,,,,,,,,,,,,,,,0,0,0,0,0
3.9604,1783370136.9583,1,1,1.0000,0.0000,1.42057,0.13799,-2.66790,1.00722,1.56171,0.11673,-0.13246,-0.45916,0.07082,,,,,,,,,,,,,,,,,,,,,,,,,,0,0,0,0,0
3.9734,1783370136.9713,1,1,1.0000,0.0000,1.42049,0.13747,-2.66805,1.00767,1.56193,0.11690,-0.13238,-0.45910,0.07060,,,,,,,,,,,,,,,,,,,,,,,,,,0,0,0,0,0
3.9737,1783370136.9716,1,1,1.0000,0.0000,1.42049,0.13747,-2.66805,1.00767,1.56193,0.11690,-0.13238,-0.45910,0.07060,,,,,,,,,,,,,,,,,,,,,,,,,,0,0,0,0,0
3.9816,1783370136.9795,1,1,1.0000,0.0000,1.42049,0.13716,-2.66812,1.00806,1.56193,0.11690,-0.13238,-0.45911,0.07050,,,,,,,,,,,,,,,,,,,,,,,,,,0,0,0,0,0
3.9879,1783370136.9858,1,1,1.0000,0.0000,1.42049,0.13688,-2.66819,1.00840,1.56193,0.11690,-0.13238,-0.45912,0.07041,,,,,,,,,,,,,,,,,,,,,,,,,,0,0,0,0,0
3.9891,1783370136.9871,1,1,1.0000,0.0000,1.42049,0.13688,-2.66819,1.00840,1.56193,0.11690,-0.13238,-0.45912,0.07041,,,,,,,,,,,,,,,,,,,,,,,,,,0,0,0,0,0
4.0129,1783370137.0108,1,1,1.0000,0.0000,1.42049,0.13635,-2.66833,1.00908,1.56194,0.11689,-0.13238,-0.45913,0.07024,,,,,,,,,,,,,,,,,,,,,,,,,,0,0,0,0,0
4.0282,1783370137.0261,1,1,1.0000,0.0000,1.42049,0.13606,-2.66840,1.00946,1.56193,0.11689,-0.13238,-0.45914,0.07015,,,,,,,,,,,,,,,,,,,,,,,,,,0,0,0,0,0
4.0293,1783370137.0272,1,1,1.0000,0.0000,1.42049,0.13606,-2.66840,1.00946,1.56193,0.11689,-0.13238,-0.45914,0.07015,,,,,,,,,,,,,,,,,,,,,,,,,,0,0,0,0,0
4.0329,1783370137.0308,1,1,1.0000,0.0000,1.42058,0.13600,-2.66838,1.00974,1.56170,0.11670,-0.13245,-0.45921,0.07018,,,,,,,,,,,,,,,,,,,,,,,,,,0,0,0,0,0
4.0434,1783370137.0413,1,1,1.0000,0.0000,1.42058,0.13589,-2.66841,1.00989,1.56170,0.11670,-0.13246,-0.45921,0.07015,,,,,,,,,,,,,,,,,,,,,,,,,,0,0,0,0,0
4.0493,1783370137.0472,1,1,1.0000,0.0000,1.42058,0.13584,-2.66842,1.00995,1.56171,0.11670,-0.13245,-0.45921,0.07013,,,,,,,,,,,,,,,,,,,,,,,,,,0,0,0,0,0
4.0498,1783370137.0477,1,1,1.0000,0.0000,1.42058,0.13584,-2.66842,1.00995,1.56171,0.11670,-0.13245,-0.45921,0.07013,,,,,,,,,,,,,,,,,,,,,,,,,,0,0,0,0,0
4.0607,1783370137.0586,1,1,1.0000,0.0000,1.42049,0.13573,-2.66847,1.00991,1.56193,0.11688,-0.13238,-0.45916,0.07005,,,,,,,,,,,,,,,,,,,,,,,,,,0,0,0,0,0
4.0691,1783370137.0670,1,1,1.0000,0.0000,1.42049,0.13569,-2.66847,1.00997,1.56193,0.11688,-0.13238,-0.45917,0.07004,,,,,,,,,,,,,,,,,,,,,,,,,,0,0,0,0,0
4.0790,1783370137.0769,1,1,1.0000,0.0000,1.42049,0.13566,-2.66847,1.01001,1.56193,0.11688,-0.13237,-0.45918,0.07004,,,,,,,,,,,,,,,,,,,,,,,,,,0,0,0,0,0
4.0884,1783370137.0863,1,1,1.0000,0.0000,1.42058,0.13564,-2.66844,1.01025,1.56171,0.11670,-0.13245,-0.45925,0.07009,,,,,,,,,,,,,,,,,,,,,,,,,,0,0,0,0,0
4.0890,1783370137.0869,1,1,1.0000,0.0000,1.42058,0.13564,-2.66844,1.01025,1.56171,0.11670,-0.13245,-0.45925,0.07009,,,,,,,,,,,,,,,,,,,,,,,,,,0,0,0,0,0
4.1050,1783370137.1030,1,1,1.0000,0.0000,1.42058,0.13557,-2.66846,1.01035,1.56171,0.11670,-0.13245,-0.45925,0.07007,,,,,,,,,,,,,,,,,,,,,,,,,,0,0,0,0,0
4.1084,1783370137.1063,1,1,1.0000,0.0000,1.42050,0.13553,-2.66850,1.01020,1.56193,0.11688,-0.13237,-0.45919,0.07001,,,,,,,,,,,,,,,,,,,,,,,,,,0,0,0,0,0
4.1291,1783370137.1270,1,1,1.0000,0.0000,1.42058,0.13522,-2.66857,1.01079,1.56170,0.11669,-0.13245,-0.45925,0.06995,,,,,,,,,,,,,,,,,,,,,,,,,,0,0,0,0,0
4.1299,1783370137.1279,1,1,1.0000,0.0000,1.42058,0.13522,-2.66857,1.01079,1.56170,0.11669,-0.13245,-0.45925,0.06995,,,,,,,,,,,,,,,,,,,,,,,,,,0,0,0,0,0
4.1304,1783370137.1284,1,1,1.0000,0.0000,1.42058,0.13522,-2.66857,1.01079,1.56170,0.11669,-0.13245,-0.45925,0.06995,,,,,,,,,,,,,,,,,,,,,,,,,,0,0,0,0,0
4.1424,1783370137.1403,1,1,1.0000,0.0000,1.42050,0.13506,-2.66865,1.01079,1.56194,0.11687,-0.13237,-0.45918,0.06984,,,,,,,,,,,,,,,,,,,,,,,,,,0,0,0,0,0
4.1492,1783370137.1471,1,1,1.0000,0.0000,1.42050,0.13488,-2.66870,1.01102,1.56194,0.11687,-0.13237,-0.45918,0.06977,,,,,,,,,,,,,,,,,,,,,,,,,,0,0,0,0,0
4.1583,1783370137.1562,1,1,1.0000,0.0000,1.42050,0.13468,-2.66875,1.01126,1.56194,0.11687,-0.13237,-0.45918,0.06971,,,,,,,,,,,,,,,,,,,,,,,,,,0,0,0,0,0
4.1588,1783370137.1568,1,1,1.0000,0.0000,1.42050,0.13468,-2.66875,1.01126,1.56194,0.11687,-0.13237,-0.45918,0.06971,,,,,,,,,,,,,,,,,,,,,,,,,,0,0,0,0,0
4.1743,1783370137.1722,1,1,1.0000,0.0000,1.42050,0.13435,-2.66884,1.01166,1.56193,0.11686,-0.13237,-0.45918,0.06960,,,,,,,,,,,,,,,,,,,,,,,,,,0,0,0,0,0
4.1850,1783370137.1829,1,1,1.0000,0.0000,1.42058,0.13396,-2.66890,1.01235,1.56171,0.11668,-0.13245,-0.45925,0.06953,,,,,,,,,,,,,,,,,,,,,,,,,,0,0,0,0,0
4.1905,1783370137.1884,1,1,1.0000,0.0000,1.42050,0.13382,-2.66897,1.01232,1.56194,0.11686,-0.13237,-0.45919,0.06943,,,,,,,,,,,,,,,,,,,,,,,,,,0,0,0,0,0
4.1910,1783370137.1889,1,1,1.0000,0.0000,1.42050,0.13382,-2.66897,1.01232,1.56194,0.11686,-0.13237,-0.45919,0.06943,,,,,,,,,,,,,,,,,,,,,,,,,,0,0,0,0,0
4.2056,1783370137.2035,1,1,1.0000,0.0000,1.42050,0.13333,-2.66909,1.01293,1.56194,0.11686,-0.13237,-0.45920,0.06927,,,,,,,,,,,,,,,,,,,,,,,,,,0,0,0,0,0
4.2148,1783370137.2127,1,1,1.0000,0.0000,1.42050,0.13295,-2.66918,1.01339,1.56194,0.11686,-0.13237,-0.45920,0.06915,,,,,,,,,,,,,,,,,,,,,,,,,,0,0,0,0,0
4.2294,1783370137.2273,1,1,1.0000,0.0000,1.42050,0.13235,-2.66933,1.01414,1.56194,0.11685,-0.13237,-0.45921,0.06895,,,,,,,,,,,,,,,,,,,,,,,,,,0,0,0,0,0
4.2301,1783370137.2280,1,1,1.0000,0.0000,1.42050,0.13235,-2.66933,1.01414,1.56194,0.11685,-0.13237,-0.45921,0.06895,,,,,,,,,,,,,,,,,,,,,,,,,,0,0,0,0,0
4.2429,1783370137.2408,1,1,1.0000,0.0000,1.42059,0.13177,-2.66945,1.01506,1.56170,0.11666,-0.13245,-0.45928,0.06881,,,,,,,,,,,,,,,,,,,,,,,,,,0,0,0,0,0
4.2501,1783370137.2480,1,1,1.0000,0.0000,1.42059,0.13143,-2.66954,1.01548,1.56172,0.11666,-0.13244,-0.45928,0.06870,,,,,,,,,,,,,,,,,,,,,,,,,,0,0,0,0,0
4.2614,1783370137.2593,1,1,1.0000,0.0000,1.42051,0.13111,-2.66965,1.01567,1.56195,0.11684,-0.13237,-0.45922,0.06854,,,,,,,,,,,,,,,,,,,,,,,,,,0,0,0,0,0
4.2622,1783370137.2601,1,1,1.0000,0.0000,1.42051,0.13111,-2.66965,1.01567,1.56195,0.11684,-0.13237,-0.45922,0.06854,,,,,,,,,,,,,,,,,,,,,,,,,,0,0,0,0,0
4.2710,1783370137.2689,1,1,1.0000,0.0000,1.42051,0.13081,-2.66972,1.01604,1.56195,0.11684,-0.13237,-0.45923,0.06845,,,,,,,,,,,,,,,,,,,,,,,,,,0,0,0,0,0
4.2900,1783370137.2879,1,1,1.0000,0.0000,1.42059,0.13032,-2.66981,1.01686,1.56172,0.11665,-0.13244,-0.45931,0.06834,,,,,,,,,,,,,,,,,,,,,,,,,,0,0,0,0,0
4.2974,1783370137.2953,1,1,1.0000,0.0000,1.42060,0.13012,-2.66986,1.01713,1.56171,0.11664,-0.13244,-0.45932,0.06829,,,,,,,,,,,,,,,,,,,,,,,,,,0,0,0,0,0
4.2982,1783370137.2961,1,1,1.0000,0.0000,1.42060,0.13012,-2.66986,1.01713,1.56171,0.11664,-0.13244,-0.45932,0.06829,,,,,,,,,,,,,,,,,,,,,,,,,,0,0,0,0,0
4.3181,1783370137.3161,1,1,1.0000,0.0000,1.42051,0.12982,-2.66995,1.01731,1.56194,0.11682,-0.13236,-0.45927,0.06814,,,,,,,,,,,,,,,,,,,,,,,,,,0,0,0,0,0
4.3194,1783370137.3173,1,1,1.0000,0.0000,1.42051,0.12982,-2.66995,1.01731,1.56194,0.11682,-0.13236,-0.45927,0.06814,,,,,,,,,,,,,,,,,,,,,,,,,,0,0,0,0,0
4.3293,1783370137.3272,1,1,1.0000,0.0000,1.42059,0.12967,-2.66995,1.01771,1.56173,0.11665,-0.13243,-0.45934,0.06816,,,,,,,,,,,,,,,,,,,,,,,,,,0,0,0,0,0
4.3416,1783370137.3395,1,1,1.0000,0.0000,1.42051,0.12959,-2.66998,1.01763,1.56195,0.11682,-0.13236,-0.45929,0.06809,,,,,,,,,,,,,,,,,,,,,,,,,,0,0,0,0,0
4.3460,1783370137.3439,1,1,1.0000,0.0000,1.42060,0.12956,-2.66996,1.01787,1.56171,0.11663,-0.13244,-0.45936,0.06813,,,,,,,,,,,,,,,,,,,,,,,,,,0,0,0,0,0
4.3543,1783370137.3523,1,1,1.0000,0.0000,1.42060,0.12955,-2.66996,1.01789,1.56172,0.11664,-0.13243,-0.45936,0.06813,,,,,,,,,,,,,,,,,,,,,,,,,,0,0,0,0,0
4.3635,1783370137.3614,1,1,1.0000,0.0000,1.42060,0.12951,-2.66997,1.01795,1.56173,0.11664,-0.13243,-0.45937,0.06812,,,,,,,,,,,,,,,,,,,,,,,,,,0,0,0,0,0
4.3732,1783370137.3711,1,1,1.0000,0.0000,1.42052,0.12947,-2.67001,1.01781,1.56195,0.11681,-0.13236,-0.45931,0.06806,,,,,,,,,,,,,,,,,,,,,,,,,,0,0,0,0,0
4.3929,1783370137.3908,1,1,1.0000,0.0000,1.42060,0.12922,-2.67006,1.01833,1.56172,0.11664,-0.13243,-0.45936,0.06802,,,,,,,,,,,,,,,,,,,,,,,,,,0,0,0,0,0
4.3935,1783370137.3914,1,1,1.0000,0.0000,1.42060,0.12922,-2.67006,1.01833,1.56172,0.11664,-0.13243,-0.45936,0.06802,,,,,,,,,,,,,,,,,,,,,,,,,,0,0,0,0,0
4.3980,1783370137.3960,1,1,1.0000,0.0000,1.42052,0.12916,-2.67011,1.01821,1.56195,0.11681,-0.13236,-0.45929,0.06794,,,,,,,,,,,,,,,,,,,,,,,,,,0,0,0,0,0
4.4059,1783370137.4038,1,1,1.0000,0.0000,1.42051,0.12900,-2.67016,1.01840,1.56195,0.11681,-0.13236,-0.45929,0.06789,,,,,,,,,,,,,,,,,,,,,,,,,,0,0,0,0,0
4.4131,1783370137.4110,1,1,1.0000,0.0000,1.42052,0.12892,-2.67019,1.01850,1.56195,0.11681,-0.13236,-0.45928,0.06786,,,,,,,,,,,,,,,,,,,,,,,,,,0,0,0,0,0
4.4142,1783370137.4122,1,1,1.0000,0.0000,1.42052,0.12892,-2.67019,1.01850,1.56195,0.11681,-0.13236,-0.45928,0.06786,,,,,,,,,,,,,,,,,,,,,,,,,,0,0,0,0,0
4.4249,1783370137.4228,1,1,1.0000,0.0000,1.42060,0.12863,-2.67024,1.01906,1.56172,0.11663,-0.13244,-0.45935,0.06781,,,,,,,,,,,,,,,,,,,,,,,,,,0,0,0,0,0
4.4318,1783370137.4297,1,1,1.0000,0.0000,1.42051,0.12853,-2.67030,1.01897,1.56196,0.11681,-0.13236,-0.45928,0.06772,,,,,,,,,,,,,,,,,,,,,,,,,,0,0,0,0,0
4.4453,1783370137.4433,1,1,1.0000,0.0000,1.42052,0.12819,-2.67039,1.01939,1.56195,0.11681,-0.13236,-0.45928,0.06761,,,,,,,,,,,,,,,,,,,,,,,,,,0,0,0,0,0
4.4568,1783370137.4548,1,1,1.0000,0.0000,1.42060,0.12777,-2.67046,1.02010,1.56173,0.11663,-0.13243,-0.45935,0.06753,,,,,,,,,,,,,,,,,,,,,,,,,,0,0,0,0,0
4.4677,1783370137.4656,1,1,1.0000,0.0000,1.42060,0.12762,-2.67050,1.02029,1.56173,0.11662,-0.13243,-0.45935,0.06748,,,,,,,,,,,,,,,,,,,,,,,,,,0,0,0,0,0
4.4726,1783370137.4706,1,1,1.0000,0.0000,1.42060,0.12729,-2.67058,1.02070,1.56174,0.11663,-0.13243,-0.45936,0.06737,,,,,,,,,,,,,,,,,,,,,,,,,,0,0,0,0,0
4.4747,1783370137.4726,1,1,1.0000,0.0000,1.42060,0.12729,-2.67058,1.02070,1.56174,0.11663,-0.13243,-0.45936,0.06737,,,,,,,,,,,,,,,,,,,,,,,,,,0,0,0,0,0
4.4823,1783370137.4802,1,1,1.0000,0.0000,1.42060,0.12692,-2.67067,1.02116,1.56174,0.11662,-0.13243,-0.45936,0.06725,,,,,,,,,,,,,,,,,,,,,,,,,,0,0,0,0,0
4.4931,1783370137.4910,1,1,1.0000,0.0000,1.42052,0.12632,-2.67084,1.02169,1.56195,0.11679,-0.13236,-0.45931,0.06701,,,,,,,,,,,,,,,,,,,,,,,,,,0,0,0,0,0
4.5211,1783370137.5190,1,1,1.0000,0.0000,1.42061,0.12539,-2.67104,1.02303,1.56174,0.11661,-0.13243,-0.45938,0.06676,,,,,,,,,,,,,,,,,,,,,,,,,,0,0,0,0,0
4.5220,1783370137.5200,1,1,1.0000,0.0000,1.42061,0.12539,-2.67104,1.02303,1.56174,0.11661,-0.13243,-0.45938,0.06676,,,,,,,,,,,,,,,,,,,,,,,,,,0,0,0,0,0
4.5263,1783370137.5242,1,1,1.0000,0.0000,1.42053,0.12523,-2.67110,1.02304,1.56195,0.11678,-0.13236,-0.45932,0.06665,,,,,,,,,,,,,,,,,,,,,,,,,,0,0,0,0,0
4.5346,1783370137.5326,1,1,1.0000,0.0000,1.42053,0.12490,-2.67118,1.02343,1.56196,0.11678,-0.13235,-0.45933,0.06655,,,,,,,,,,,,,,,,,,,,,,,,,,0,0,0,0,0
4.5462,1783370137.5442,1,1,1.0000,0.0000,1.42061,0.12444,-2.67127,1.02421,1.56174,0.11660,-0.13242,-0.45940,0.06645,,,,,,,,,,,,,,,,,,,,,,,,,,0,0,0,0,0
4.5595,1783370137.5574,1,1,1.0000,0.0000,1.42053,0.12418,-2.67136,1.02434,1.56196,0.11677,-0.13235,-0.45934,0.06632,,,,,,,,,,,,,,,,,,,,,,,,,,0,0,0,0,0
4.5820,1783370137.5799,1,1,1.0000,0.0000,1.42053,0.12364,-2.67148,1.02502,1.56196,0.11677,-0.13235,-0.45936,0.06615,,,,,,,,,,,,,,,,,,,,,,,,,,0,0,0,0,0
4.5827,1783370137.5806,1,1,1.0000,0.0000,1.42053,0.12364,-2.67148,1.02502,1.56196,0.11677,-0.13235,-0.45936,0.06615,,,,,,,,,,,,,,,,,,,,,,,,,,0,0,0,0,0
4.5882,1783370137.5861,1,1,1.0000,0.0000,1.42061,0.12358,-2.67147,1.02530,1.56174,0.11659,-0.13242,-0.45943,0.06619,,,,,,,,,,,,,,,,,,,,,,,,,,0,0,0,0,0
4.5957,1783370137.5937,1,1,1.0000,0.0000,1.42062,0.12349,-2.67148,1.02542,1.56173,0.11658,-0.13242,-0.45943,0.06616,,,,,,,,,,,,,,,,,,,,,,,,,,0,0,0,0,0
4.6079,1783370137.6058,1,1,1.0000,0.0000,1.42053,0.12341,-2.67153,1.02533,1.56197,0.11677,-0.13235,-0.45938,0.06609,,,,,,,,,,,,,,,,,,,,,,,,,,0,0,0,0,0
4.6205,1783370137.6184,1,1,1.0000,0.0000,1.42062,0.12333,-2.67151,1.02564,1.56173,0.11658,-0.13242,-0.45945,0.06612,,,,,,,,,,,,,,,,,,,,,,,,,,0,0,0,0,0
4.6264,1783370137.6244,1,1,1.0000,0.0000,1.42062,0.12331,-2.67151,1.02567,1.56174,0.11659,-0.13242,-0.45945,0.06612,,,,,,,,,,,,,,,,,,,,,,,,,,0,0,0,0,0
4.6382,1783370137.6362,1,1,1.0000,0.0000,1.42053,0.12326,-2.67155,1.02554,1.56197,0.11676,-0.13234,-0.45940,0.06605,,,,,,,,,,,,,,,,,,,,,,,,,,0,0,0,0,0
4.6462,1783370137.6442,1,1,1.0000,0.0000,1.42053,0.12324,-2.67155,1.02557,1.56196,0.11676,-0.13234,-0.45940,0.06605,,,,,,,,,,,,,,,,,,,,,,,,,,0,0,0,0,0
4.6618,1783370137.6597,1,1,1.0000,0.0000,1.42054,0.12309,-2.67160,1.02577,1.56196,0.11675,-0.13235,-0.45940,0.06600,,,,,,,,,,,,,,,,,,,,,,,,,,0,0,0,0,0
4.6710,1783370137.6690,1,1,1.0000,0.0000,1.42053,0.12298,-2.67164,1.02590,1.56197,0.11676,-0.13234,-0.45939,0.06595,,,,,,,,,,,,,,,,,,,,,,,,,,0,0,0,0,0
4.6769,1783370137.6749,1,1,1.0000,0.0000,1.42053,0.12291,-2.67166,1.02598,1.56197,0.11676,-0.13234,-0.45939,0.06593,,,,,,,,,,,,,,,,,,,,,,,,,,0,0,0,0,0
4.6927,1783370137.6906,1,1,1.0000,0.0000,1.42062,0.12266,-2.67170,1.02650,1.56174,0.11658,-0.13242,-0.45945,0.06589,,,,,,,,,,,,,,,,,,,,,,,,,,0,0,0,0,0
4.6995,1783370137.6974,1,1,1.0000,0.0000,1.42062,0.12246,-2.67176,1.02674,1.56174,0.11658,-0.13242,-0.45944,0.06583,,,,,,,,,,,,,,,,,,,,,,,,,,0,0,0,0,0
4.7119,1783370137.7099,1,1,1.0000,0.0000,1.42053,0.12225,-2.67184,1.02679,1.56197,0.11676,-0.13235,-0.45938,0.06570,,,,,,,,,,,,,,,,,,,,,,,,,,0,0,0,0,0
4.7181,1783370137.7160,1,1,1.0000,0.0000,1.42054,0.12200,-2.67190,1.02710,1.56196,0.11675,-0.13235,-0.45938,0.06562,,,,,,,,,,,,,,,,,,,,,,,,,,0,0,0,0,0
4.7389,1783370137.7368,1,1,1.0000,0.0000,1.42062,0.12139,-2.67202,1.02805,1.56173,0.11656,-0.13242,-0.45946,0.06548,,,,,,,,,,,,,,,,,,,,,,,,,,0,0,0,0,0
4.7437,1783370137.7416,1,1,1.0000,0.0000,1.42054,0.12123,-2.67208,1.02804,1.56197,0.11675,-0.13234,-0.45939,0.06537,,,,,,,,,,,,,,,,,,,,,,,,,,0,0,0,0,0
4.7494,1783370137.7473,1,1,1.0000,0.0000,1.42054,0.12085,-2.67217,1.02851,1.56196,0.11674,-0.13235,-0.45940,0.06525,,,,,,,,,,,,,,,,,,,,,,,,,,0,0,0,0,0
4.7497,1783370137.7476,1,1,1.0000,0.0000,1.42054,0.12085,-2.67217,1.02851,1.56196,0.11674,-0.13235,-0.45940,0.06525,,,,,,,,,,,,,,,,,,,,,,,,,,0,0,0,0,0
4.7639,1783370137.7618,1,1,1.0000,0.0000,1.42062,0.12024,-2.67229,1.02945,1.56175,0.11657,-0.13241,-0.45947,0.06511,,,,,,,,,,,,,,,,,,,,,,,,,,0,0,0,0,0
4.7735,1783370137.7714,1,1,1.0000,0.0000,1.42054,0.11984,-2.67241,1.02974,1.56196,0.11673,-0.13234,-0.45941,0.06493,,,,,,,,,,,,,,,,,,,,,,,,,,0,0,0,0,0
4.7737,1783370137.7717,1,1,1.0000,0.0000,1.42054,0.11984,-2.67241,1.02974,1.56196,0.11673,-0.13234,-0.45941,0.06493,,,,,,,,,,,,,,,,,,,,,,,,,,0,0,0,0,0
4.7782,1783370137.7761,1,1,1.0000,0.0000,1.42062,0.11965,-2.67244,1.03018,1.56175,0.11656,-0.13241,-0.45948,0.06492,,,,,,,,,,,,,,,,,,,,,,,,,,0,0,0,0,0
4.7791,1783370137.7770,1,1,1.0000,0.0000,1.42062,0.11965,-2.67244,1.03018,1.56175,0.11656,-0.13241,-0.45948,0.06492,,,,,,,,,,,,,,,,,,,,,,,,,,0,0,0,0,0
4.7890,1783370137.7870,1,1,1.0000,0.0000,1.42063,0.11930,-2.67252,1.03061,1.56174,0.11655,-0.13242,-0.45948,0.06481,,,,,,,,,,,,,,,,,,,,,,,,,,0,0,0,0,0
4.8032,1783370137.8012,1,1,1.0000,0.0000,1.42063,0.11885,-2.67263,1.03116,1.56175,0.11655,-0.13241,-0.45948,0.06466,,,,,,,,,,,,,,,,,,,,,,,,,,0,0,0,0,0
4.8132,1783370137.8111,1,1,1.0000,0.0000,1.42055,0.11845,-2.67275,1.03146,1.56197,0.11672,-0.13234,-0.45943,0.06448,,,,,,,,,,,,,,,,,,,,,,,,,,0,0,0,0,0
4.8222,1783370137.8201,1,1,1.0000,0.0000,1.42055,0.11820,-2.67281,1.03176,1.56197,0.11672,-0.13234,-0.45943,0.06440,,,,,,,,,,,,,,,,,,,,,,,,,,0,0,0,0,0
4.8335,1783370137.8314,1,1,1.0000,0.0000,1.42063,0.11796,-2.67284,1.03227,1.56175,0.11654,-0.13241,-0.45950,0.06438,,,,,,,,,,,,,,,,,,,,,,,,,,0,0,0,0,0
4.8429,1783370137.8409,1,1,1.0000,0.0000,1.42063,0.11775,-2.67289,1.03253,1.56175,0.11654,-0.13241,-0.45951,0.06432,,,,,,,,,,,,,,,,,,,,,,,,,,0,0,0,0,0
4.8537,1783370137.8517,1,1,1.0000,0.0000,1.42055,0.11750,-2.67297,1.03265,1.56197,0.11671,-0.13234,-0.45945,0.06419,,,,,,,,,,,,,,,,,,,,,,,,,,0,0,0,0,0
4.8812,1783370137.8791,1,1,1.0000,0.0000,1.42064,0.11713,-2.67303,1.03333,1.56174,0.11653,-0.13241,-0.45953,0.06413,,,,,,,,,,,,,,,,,,,,,,,,,,0,0,0,0,0
4.8922,1783370137.8901,1,1,1.0000,0.0000,1.42064,0.11708,-2.67304,1.03341,1.56175,0.11653,-0.13241,-0.45954,0.06411,,,,,,,,,,,,,,,,,,,,,,,,,,0,0,0,0,0
4.8981,1783370137.8960,1,1,1.0000,0.0000,1.42063,0.11704,-2.67305,1.03346,1.56176,0.11654,-0.13240,-0.45954,0.06410,,,,,,,,,,,,,,,,,,,,,,,,,,0,0,0,0,0
4.8984,1783370137.8963,1,1,1.0000,0.0000,1.42063,0.11704,-2.67305,1.03346,1.56176,0.11654,-0.13240,-0.45954,0.06410,,,,,,,,,,,,,,,,,,,,,,,,,,0,0,0,0,0
4.9017,1783370137.8997,1,1,1.0000,0.0000,1.42055,0.11703,-2.67307,1.03328,1.56197,0.11670,-0.13234,-0.45948,0.06405,,,,,,,,,,,,,,,,,,,,,,,,,,0,0,0,0,0
4.9299,1783370137.9278,1,1,1.0000,0.0000,1.42063,0.11692,-2.67306,1.03364,1.56176,0.11653,-0.13240,-0.45956,0.06408,,,,,,,,,,,,,,,,,,,,,,,,,,0,0,0,0,0
4.9306,1783370137.9285,1,1,1.0000,0.0000,1.42063,0.11692,-2.67306,1.03364,1.56176,0.11653,-0.13240,-0.45956,0.06408,,,,,,,,,,,,,,,,,,,,,,,,,,0,0,0,0,0
4.9457,1783370137.9436,1,1,1.0000,0.0000,1.42064,0.11675,-2.67311,1.03385,1.56175,0.11653,-0.13241,-0.45956,0.06402,,,,,,,,,,,,,,,,,,,,,,,,,,0,0,0,0,0
4.9499,1783370137.9479,1,1,1.0000,0.0000,1.42055,0.11676,-2.67314,1.03364,1.56197,0.11670,-0.13233,-0.45949,0.06397,,,,,,,,,,,,,,,,,,,,,,,,,,0,0,0,0,0
4.9537,1783370137.9516,1,1,1.0000,0.0000,1.42064,0.11670,-2.67313,1.03392,1.56175,0.11653,-0.13241,-0.45955,0.06400,,,,,,,,,,,,,,,,,,,,,,,,,,0,0,0,0,0
4.9639,1783370137.9619,1,1,1.0000,0.0000,1.42063,0.11657,-2.67317,1.03407,1.56176,0.11653,-0.13240,-0.45955,0.06395,,,,,,,,,,,,,,,,,,,,,,,,,,0,0,0,0,0
4.9764,1783370137.9743,1,1,1.0000,0.0000,1.42056,0.11632,-2.67327,1.03418,1.56197,0.11670,-0.13234,-0.45948,0.06382,,,,,,,,,,,,,,,,,,,,,,,,,,0,0,0,0,0
4.9833,1783370137.9813,1,1,1.0000,0.0000,1.42055,0.11622,-2.67329,1.03429,1.56198,0.11670,-0.13233,-0.45948,0.06378,,,,,,,,,,,,,,,,,,,,,,,,,,0,0,0,0,0
4.9940,1783370137.9919,1,1,1.0000,0.0000,1.42064,0.11586,-2.67336,1.03494,1.56175,0.11652,-0.13241,-0.45954,0.06372,,,,,,,,,,,,,,,,,,,,,,,,,,0,0,0,0,0
5.0034,1783370138.0013,1,1,1.0000,0.0000,1.42064,0.11558,-2.67343,1.03528,1.56176,0.11652,-0.13241,-0.45954,0.06363,,,,,,,,,,,,,,,,,,,,,,,,,,0,0,0,0,0
5.0161,1783370138.0140,1,1,1.0000,0.0000,1.42056,0.11526,-2.67353,1.03546,1.56198,0.11669,-0.13233,-0.45948,0.06347,,,,,,,,,,,,,,,,,,,,,,,,,,0,0,0,0,0
5.0345,1783370138.0324,1,1,1.0000,0.0000,1.42064,0.11429,-2.67373,1.03685,1.56175,0.11651,-0.13241,-0.45956,0.06322,,,,,,,,,,,,,,,,,,,,,,,,,,0,0,0,0,0
5.0351,1783370138.0330,1,1,1.0000,0.0000,1.42064,0.11429,-2.67373,1.03685,1.56175,0.11651,-0.13241,-0.45956,0.06322,,,,,,,,,,,,,,,,,,,,,,,,,,0,0,0,0,0
5.0557,1783370138.0536,1,1,1.0000,0.0000,1.42056,0.11353,-2.67393,1.03758,1.56197,0.11668,-0.13233,-0.45951,0.06292,,,,,,,,,,,,,,,,,,,,,,,,,,0,0,0,0,0
5.0582,1783370138.0561,1,1,1.0000,0.0000,1.42064,0.11333,-2.67395,1.03802,1.56176,0.11651,-0.13240,-0.45957,0.06291,,,,,,,,,,,,,,,,,,,,,,,,,,0,0,0,0,0
5.0618,1783370138.0597,1,1,1.0000,0.0000,1.42056,0.11334,-2.67397,1.03781,1.56198,0.11668,-0.13233,-0.45951,0.06286,,,,,,,,,,,,,,,,,,,,,,,,,,0,0,0,0,0
5.0740,1783370138.0719,1,1,1.0000,0.0000,1.42065,0.11278,-2.67408,1.03869,1.56175,0.11650,-0.13240,-0.45958,0.06274,,,,,,,,,,,,,,,,,,,,,,,,,,0,0,0,0,0
5.0863,1783370138.0843,1,1,1.0000,0.0000,1.42057,0.11228,-2.67422,1.03911,1.56198,0.11667,-0.13233,-0.45953,0.06252,,,,,,,,,,,,,,,,,,,,,,,,,,0,0,0,0,0
5.0919,1783370138.0898,1,1,1.0000,0.0000,1.42065,0.11210,-2.67424,1.03951,1.56176,0.11650,-0.13240,-0.45959,0.06252,,,,,,,,,,,,,,,,,,,,,,,,,,0,0,0,0,0
5.1028,1783370138.1007,1,1,1.0000,0.0000,1.42057,0.11182,-2.67433,1.03967,1.56198,0.11666,-0.13233,-0.45953,0.06238,,,,,,,,,,,,,,,,,,,,,,,,,,0,0,0,0,0
5.1352,1783370138.1331,1,1,1.0000,0.0000,1.42057,0.11109,-2.67450,1.04057,1.56198,0.11666,-0.13233,-0.45955,0.06215,,,,,,,,,,,,,,,,,,,,,,,,,,0,0,0,0,0
5.1360,1783370138.1339,1,1,1.0000,0.0000,1.42057,0.11109,-2.67450,1.04057,1.56198,0.11666,-0.13233,-0.45955,0.06215,,,,,,,,,,,,,,,,,,,,,,,,,,0,0,0,0,0
5.1373,1783370138.1352,1,1,1.0000,0.0000,1.42057,0.11109,-2.67450,1.04057,1.56198,0.11666,-0.13233,-0.45955,0.06215,,,,,,,,,,,,,,,,,,,,,,,,,,0,0,0,0,0
5.1531,1783370138.1510,1,1,1.0000,0.0000,1.42065,0.11087,-2.67452,1.04105,1.56177,0.11648,-0.13240,-0.45961,0.06214,,,,,,,,,,,,,,,,,,,,,,,,,,0,0,0,0,0
5.1553,1783370138.1532,1,1,1.0000,0.0000,1.42065,0.11087,-2.67452,1.04105,1.56177,0.11648,-0.13240,-0.45961,0.06214,,,,,,,,,,,,,,,,,,,,,,,,,,0,0,0,0,0
5.1656,1783370138.1635,1,1,1.0000,0.0000,1.42057,0.11078,-2.67456,1.04099,1.56198,0.11665,-0.13233,-0.45956,0.06206,,,,,,,,,,,,,,,,,,,,,,,,,,0,0,0,0,0
5.1735,1783370138.1714,1,1,1.0000,0.0000,1.42057,0.11073,-2.67456,1.04105,1.56198,0.11665,-0.13232,-0.45957,0.06205,,,,,,,,,,,,,,,,,,,,,,,,,,0,0,0,0,0
5.1825,1783370138.1804,1,1,1.0000,0.0000,1.42057,0.11071,-2.67456,1.04109,1.56198,0.11665,-0.13232,-0.45958,0.06205,,,,,,,,,,,,,,,,,,,,,,,,,,0,0,0,0,0
5.1934,1783370138.1913,1,1,1.0000,0.0000,1.42065,0.11068,-2.67454,1.04133,1.56178,0.11649,-0.13239,-0.45965,0.06210,,,,,,,,,,,,,,,,,,,,,,,,,,0,0,0,0,0
5.2039,1783370138.2018,1,1,1.0000,0.0000,1.42065,0.11063,-2.67455,1.04140,1.56177,0.11648,-0.13239,-0.45966,0.06209,,,,,,,,,,,,,,,,,,,,,,,,,,0,0,0,0,0
5.2157,1783370138.2136,1,1,1.0000,0.0000,1.42057,0.11054,-2.67460,1.04132,1.56198,0.11665,-0.13232,-0.45959,0.06200,,,,,,,,,,,,,,,,,,,,,,,,,,0,0,0,0,0
5.2220,1783370138.2199,1,1,1.0000,0.0000,1.42058,0.11050,-2.67462,1.04138,1.56198,0.11665,-0.13232,-0.45959,0.06199,,,,,,,,,,,,,,,,,,,,,,,,,,0,0,0,0,0
5.2378,1783370138.2357,1,1,1.0000,0.0000,1.42058,0.11022,-2.67470,1.04172,1.56198,0.11665,-0.13232,-0.45958,0.06189,,,,,,,,,,,,,,,,,,,,,,,,,,0,0,0,0,0
5.2437,1783370138.2416,1,1,1.0000,0.0000,1.42066,0.11020,-2.67468,1.04193,1.56176,0.11647,-0.13240,-0.45964,0.06194,,,,,,,,,,,,,,,,,,,,,,,,,,0,0,0,0,0
5.2517,1783370138.2496,1,1,1.0000,0.0000,1.42065,0.11000,-2.67473,1.04217,1.56178,0.11648,-0.13239,-0.45964,0.06187,,,,,,,,,,,,,,,,,,,,,,,,,,0,0,0,0,0
5.2619,1783370138.2598,1,1,1.0000,0.0000,1.42058,0.10961,-2.67485,1.04245,1.56198,0.11664,-0.13232,-0.45958,0.06169,,,,,,,,,,,,,,,,,,,,,,,,,,0,0,0,0,0
5.2959,1783370138.2938,1,1,1.0000,0.0000,1.42058,0.10852,-2.67510,1.04377,1.56199,0.11664,-0.13232,-0.45959,0.06134,,,,,,,,,,,,,,,,,,,,,,,,,,0,0,0,0,0
5.2967,1783370138.2947,1,1,1.0000,0.0000,1.42058,0.10852,-2.67510,1.04377,1.56199,0.11664,-0.13232,-0.45959,0.06134,,,,,,,,,,,,,,,,,,,,,,,,,,0,0,0,0,0
5.2981,1783370138.2960,1,1,1.0000,0.0000,1.42066,0.10834,-2.67512,1.04418,1.56176,0.11646,-0.13239,-0.45966,0.06134,,,,,,,,,,,,,,,,,,,,,,,,,,0,0,0,0,0
5.3067,1783370138.3046,1,1,1.0000,0.0000,1.42066,0.10803,-2.67519,1.04457,1.56177,0.11646,-0.13239,-0.45966,0.06124,,,,,,,,,,,,,,,,,,,,,,,,,,0,0,0,0,0
5.3175,1783370138.3154,1,1,1.0000,0.0000,1.42066,0.10787,-2.67522,1.04476,1.56177,0.11646,-0.13239,-0.45966,0.06119,,,,,,,,,,,,,,,,,,,,,,,,,,0,0,0,0,0
5.3239,1783370138.3218,1,1,1.0000,0.0000,1.42066,0.10753,-2.67530,1.04517,1.56178,0.11646,-0.13239,-0.45967,0.06108,,,,,,,,,,,,,,,,,,,,,,,,,,0,0,0,0,0
5.3399,1783370138.3379,1,1,1.0000,0.0000,1.42067,0.10682,-2.67547,1.04603,1.56177,0.11645,-0.13239,-0.45967,0.06086,,,,,,,,,,,,,,,,,,,,,,,,,,0,0,0,0,0
5.3403,1783370138.3382,1,1,1.0000,0.0000,1.42067,0.10682,-2.67547,1.04603,1.56177,0.11645,-0.13239,-0.45967,0.06086,,,,,,,,,,,,,,,,,,,,,,,,,,0,0,0,0,0
5.3595,1783370138.3574,1,1,1.0000,0.0000,1.42059,0.10615,-2.67565,1.04664,1.56199,0.11662,-0.13232,-0.45962,0.06059,,,,,,,,,,,,,,,,,,,,,,,,,,0,0,0,0,0
5.3618,1783370138.3598,1,1,1.0000,0.0000,1.42067,0.10598,-2.67566,1.04706,1.56177,0.11645,-0.13239,-0.45968,0.06059,,,,,,,,,,,,,,,,,,,,,,,,,,0,0,0,0,0
5.3755,1783370138.3734,1,1,1.0000,0.0000,1.42059,0.10569,-2.67575,1.04720,1.56199,0.11661,-0.13232,-0.45962,0.06045,,,,,,,,,,,,,,,,,,,,,,,,,,0,0,0,0,0
5.3878,1783370138.3858,1,1,1.0000,0.0000,1.42067,0.10528,-2.67582,1.04792,1.56177,0.11644,-0.13239,-0.45969,0.06037,,,,,,,,,,,,,,,,,,,,,,,,,,0,0,0,0,0
5.3944,1783370138.3923,1,1,1.0000,0.0000,1.42067,0.10504,-2.67587,1.04821,1.56177,0.11644,-0.13239,-0.45970,0.06030,,,,,,,,,,,,,,,,,,,,,,,,,,0,0,0,0,0
5.4135,1783370138.4115,1,1,1.0000,0.0000,1.42059,0.10462,-2.67600,1.04855,1.56199,0.11660,-0.13231,-0.45965,0.06012,,,,,,,,,,,,,,,,,,,,,,,,,,0,0,0,0,0
5.4299,1783370138.4278,1,1,1.0000,0.0000,1.42059,0.10446,-2.67603,1.04876,1.56200,0.11660,-0.13231,-0.45966,0.06007,,,,,,,,,,,,,,,,,,,,,,,,,,0,0,0,0,0
5.5595,1783370138.5574,1,1,1.0000,0.0000,1.42060,0.10264,-2.67646,1.05102,1.56200,0.11659,-0.13231,-0.45968,0.05950,,,,,,,,,,,,,,,,,,,,,,,,,,0,0,0,0,0
5.5600,1783370138.5579,1,1,1.0000,0.0000,1.42060,0.10264,-2.67646,1.05102,1.56200,0.11659,-0.13231,-0.45968,0.05950,,,,,,,,,,,,,,,,,,,,,,,,,,0,0,0,0,0
5.5607,1783370138.5586,1,1,1.0000,0.0000,1.42060,0.10264,-2.67646,1.05102,1.56200,0.11659,-0.13231,-0.45968,0.05950,,,,,,,,,,,,,,,,,,,,,,,,,,0,0,0,0,0
5.5622,1783370138.5601,1,1,1.0000,0.0000,1.42068,0.10245,-2.67648,1.05144,1.56178,0.11642,-0.13238,-0.45974,0.05949,,,,,,,,,,,,,,,,,,,,,,,,,,0,0,0,0,0
5.5630,1783370138.5609,1,1,1.0000,0.0000,1.42068,0.10245,-2.67648,1.05144,1.56178,0.11642,-0.13238,-0.45974,0.05949,,,,,,,,,,,,,,,,,,,,,,,,,,0,0,0,0,0
5.5636,1783370138.5615,1,1,1.0000,0.0000,1.42068,0.10245,-2.67648,1.05144,1.56178,0.11642,-0.13238,-0.45974,0.05949,,,,,,,,,,,,,,,,,,,,,,,,,,0,0,0,0,0
5.5649,1783370138.5629,1,1,1.0000,0.0000,1.42068,0.10245,-2.67648,1.05144,1.56178,0.11642,-0.13238,-0.45974,0.05949,,,,,,,,,,,,,,,,,,,,,,,,,,0,0,0,0,0
5.5742,1783370138.5721,1,1,1.0000,0.0000,1.42060,0.10195,-2.67661,1.05186,1.56199,0.11658,-0.13231,-0.45969,0.05928,,,,,,,,,,,,,,,,,,,,,,,,,,0,0,0,0,0
5.5748,1783370138.5727,1,1,1.0000,0.0000,1.42060,0.10195,-2.67661,1.05186,1.56199,0.11658,-0.13231,-0.45969,0.05928,,,,,,,,,,,,,,,,,,,,,,,,,,0,0,0,0,0
5.5782,1783370138.5762,1,1,1.0000,0.0000,1.42068,0.10193,-2.67659,1.05207,1.56179,0.11642,-0.13238,-0.45975,0.05933,,,,,,,,,,,,,,,,,,,,,,,,,,0,0,0,0,0
5.5832,1783370138.5811,1,1,1.0000,0.0000,1.42060,0.10177,-2.67666,1.05208,1.56200,0.11658,-0.13231,-0.45969,0.05922,,,,,,,,,,,,,,,,,,,,,,,,,,0,0,0,0,0
5.5962,1783370138.5941,1,1,1.0000,0.0000,1.42068,0.10118,-2.67676,1.05298,1.56178,0.11641,-0.13238,-0.45976,0.05909,,,,,,,,,,,,,,,,,,,,,,,,,,0,0,0,0,0
5.6043,1783370138.6022,1,1,1.0000,0.0000,1.42068,0.10080,-2.67685,1.05344,1.56179,0.11641,-0.13238,-0.45977,0.05897,,,,,,,,,,,,,,,,,,,,,,,,,,0,0,0,0,0
5.6048,1783370138.6027,1,1,1.0000,0.0000,1.42068,0.10080,-2.67685,1.05344,1.56179,0.11641,-0.13238,-0.45977,0.05897,,,,,,,,,,,,,,,,,,,,,,,,,,0,0,0,0,0
5.6212,1783370138.6191,1,1,1.0000,0.0000,1.42069,0.10022,-2.67697,1.05413,1.56178,0.11640,-0.13238,-0.45977,0.05879,,,,,,,,,,,,,,,,,,,,,,,,,,0,0,0,0,0
5.6265,1783370138.6245,1,1,1.0000,0.0000,1.42069,0.09987,-2.67705,1.05456,1.56178,0.11640,-0.13238,-0.45978,0.05868,,,,,,,,,,,,,,,,,,,,,,,,,,0,0,0,0,0
5.6487,1783370138.6466,1,1,1.0000,0.0000,1.42061,0.09926,-2.67721,1.05511,1.56200,0.11656,-0.13231,-0.45973,0.05844,,,,,,,,,,,,,,,,,,,,,,,,,,0,0,0,0,0
5.6493,1783370138.6472,1,1,1.0000,0.0000,1.42061,0.09926,-2.67721,1.05511,1.56200,0.11656,-0.13231,-0.45973,0.05844,,,,,,,,,,,,,,,,,,,,,,,,,,0,0,0,0,0
5.6539,1783370138.6519,1,1,1.0000,0.0000,1.42061,0.09900,-2.67727,1.05542,1.56200,0.11656,-0.13231,-0.45973,0.05836,,,,,,,,,,,,,,,,,,,,,,,,,,0,0,0,0,0
5.6547,1783370138.6526,1,1,1.0000,0.0000,1.42061,0.09900,-2.67727,1.05542,1.56200,0.11656,-0.13231,-0.45973,0.05836,,,,,,,,,,,,,,,,,,,,,,,,,,0,0,0,0,0
5.6704,1783370138.6683,1,1,1.0000,0.0000,1.42061,0.09867,-2.67734,1.05583,1.56200,0.11655,-0.13230,-0.45974,0.05826,,,,,,,,,,,,,,,,,,,,,,,,,,0,0,0,0,0
5.6896,1783370138.6875,1,1,1.0000,0.0000,1.42069,0.09828,-2.67739,1.05651,1.56180,0.11639,-0.13237,-0.45982,0.05820,,,,,,,,,,,,,,,,,,,,,,,,,,0,0,0,0,0
5.6909,1783370138.6888,1,1,1.0000,0.0000,1.42069,0.09828,-2.67739,1.05651,1.56180,0.11639,-0.13237,-0.45982,0.05820,,,,,,,,,,,,,,,,,,,,,,,,,,0,0,0,0,0
5.6967,1783370138.6946,1,1,1.0000,0.0000,1.42061,0.09825,-2.67742,1.05637,1.56200,0.11655,-0.13230,-0.45976,0.05814,,,,,,,,,,,,,,,,,,,,,,,,,,0,0,0,0,0
5.7076,1783370138.7056,1,1,1.0000,0.0000,1.42069,0.09810,-2.67741,1.05675,1.56179,0.11639,-0.13237,-0.45984,0.05815,,,,,,,,,,,,,,,,,,,,,,,,,,0,0,0,0,0
5.7128,1783370138.7107,1,1,1.0000,0.0000,1.42061,0.09809,-2.67743,1.05657,1.56200,0.11655,-0.13230,-0.45979,0.05810,,,,,,,,,,,,,,,,,,,,,,,,,,0,0,0,0,0
5.7280,1783370138.7259,1,1,1.0000,0.0000,1.42061,0.09802,-2.67742,1.05667,1.56201,0.11655,-0.13229,-0.45981,0.05810,,,,,,,,,,,,,,,,,,,,,,,,,,0,0,0,0,0
5.7333,1783370138.7312,1,1,1.0000,0.0000,1.42070,0.09798,-2.67740,1.05693,1.56178,0.11638,-0.13237,-0.45988,0.05814,,,,,,,,,,,,,,,,,,,,,,,,,,0,0,0,0,0
5.7440,1783370138.7419,1,1,1.0000,0.0000,1.42061,0.09794,-2.67743,1.05678,1.56201,0.11655,-0.13229,-0.45982,0.05808,,,,,,,,,,,,,,,,,,,,,,,,,,0,0,0,0,0
5.7521,1783370138.7500,1,1,1.0000,0.0000,1.42061,0.09790,-2.67744,1.05685,1.56201,0.11654,-0.13229,-0.45982,0.05806,,,,,,,,,,,,,,,,,,,,,,,,,,0,0,0,0,0
5.7677,1783370138.7656,1,1,1.0000,0.0000,1.42062,0.09781,-2.67748,1.05697,1.56200,0.11654,-0.13230,-0.45981,0.05803,,,,,,,,,,,,,,,,,,,,,,,,,,0,0,0,0,0
5.7832,1783370138.7811,1,1,1.0000,0.0000,1.42062,0.09765,-2.67754,1.05716,1.56201,0.11654,-0.13230,-0.45979,0.05797,,,,,,,,,,,,,,,,,,,,,,,,,,0,0,0,0,0
5.7837,1783370138.7817,1,1,1.0000,0.0000,1.42062,0.09765,-2.67754,1.05716,1.56201,0.11654,-0.13230,-0.45979,0.05797,,,,,,,,,,,,,,,,,,,,,,,,,,0,0,0,0,0
5.7848,1783370138.7827,1,1,1.0000,0.0000,1.42062,0.09765,-2.67754,1.05716,1.56201,0.11654,-0.13230,-0.45979,0.05797,,,,,,,,,,,,,,,,,,,,,,,,,,0,0,0,0,0
5.8000,1783370138.7979,1,1,1.0000,0.0000,1.42062,0.09731,-2.67765,1.05757,1.56201,0.11654,-0.13230,-0.45978,0.05785,,,,,,,,,,,,,,,,,,,,,,,,,,0,0,0,0,0
5.8032,1783370138.8011,1,1,1.0000,0.0000,1.42069,0.09718,-2.67766,1.05792,1.56180,0.11638,-0.13237,-0.45983,0.05785,,,,,,,,,,,,,,,,,,,,,,,,,,0,0,0,0,0
5.8130,1783370138.8109,1,1,1.0000,0.0000,1.42069,0.09694,-2.67772,1.05820,1.56180,0.11638,-0.13237,-0.45983,0.05777,,,,,,,,,,,,,,,,,,,,,,,,,,0,0,0,0,0
5.8245,1783370138.8224,1,1,1.0000,0.0000,1.42062,0.09669,-2.67780,1.05831,1.56200,0.11653,-0.13230,-0.45977,0.05764,,,,,,,,,,,,,,,,,,,,,,,,,,0,0,0,0,0
5.8347,1783370138.8327,1,1,1.0000,0.0000,1.42070,0.09622,-2.67788,1.05907,1.56179,0.11637,-0.13237,-0.45984,0.05755,,,,,,,,,,,,,,,,,,,,,,,,,,0,0,0,0,0
5.8521,1783370138.8500,1,1,1.0000,0.0000,1.42070,0.09572,-2.67799,1.05966,1.56180,0.11637,-0.13237,-0.45984,0.05739,,,,,,,,,,,,,,,,,,,,,,,,,,0,0,0,0,0
5.8527,1783370138.8506,1,1,1.0000,0.0000,1.42070,0.09572,-2.67799,1.05966,1.56180,0.11637,-0.13237,-0.45984,0.05739,,,,,,,,,,,,,,,,,,,,,,,,,,0,0,0,0,0
5.8763,1783370138.8742,1,1,1.0000,0.0000,1.42070,0.09482,-2.67818,1.06075,1.56180,0.11636,-0.13237,-0.45986,0.05711,,,,,,,,,,,,,,,,,,,,,,,,,,0,0,0,0,0
5.8771,1783370138.8751,1,1,1.0000,0.0000,1.42070,0.09482,-2.67818,1.06075,1.56180,0.11636,-0.13237,-0.45986,0.05711,,,,,,,,,,,,,,,,,,,,,,,,,,0,0,0,0,0
5.8950,1783370138.8929,1,1,1.0000,0.0000,1.42063,0.09388,-2.67841,1.06170,1.56201,0.11651,-0.13230,-0.45981,0.05677,,,,,,,,,,,,,,,,,,,,,,,,,,0,0,0,0,0
5.9006,1783370138.8986,1,1,1.0000,0.0000,1.42070,0.09366,-2.67844,1.06215,1.56181,0.11636,-0.13236,-0.45987,0.05675,,,,,,,,,,,,,,,,,,,,,,,,,,0,0,0,0,0
5.9044,1783370138.9024,1,1,1.0000,0.0000,1.42070,0.09366,-2.67844,1.06215,1.56181,0.11636,-0.13236,-0.45987,0.05675,,,,,,,,,,,,,,,,,,,,,,,,,,0,0,0,0,0
5.9053,1783370138.9033,1,1,1.0000,0.0000,1.42063,0.09349,-2.67850,1.06216,1.56201,0.11651,-0.13230,-0.45981,0.05664,,,,,,,,,,,,,,,,,,,,,,,,,,0,0,0,0,0
5.9156,1783370138.9135,1,1,1.0000,0.0000,1.42071,0.09311,-2.67856,1.06282,1.56179,0.11634,-0.13237,-0.45988,0.05658,,,,,,,,,,,,,,,,,,,,,,,,,,0,0,0,0,0
5.9236,1783370138.9215,1,1,1.0000,0.0000,1.42070,0.09281,-2.67863,1.06318,1.56181,0.11635,-0.13236,-0.45988,0.05648,,,,,,,,,,,,,,,,,,,,,,,,,,0,0,0,0,0
5.9247,1783370138.9226,1,1,1.0000,0.0000,1.42070,0.09281,-2.67863,1.06318,1.56181,0.11635,-0.13236,-0.45988,0.05648,,,,,,,,,,,,,,,,,,,,,,,,,,0,0,0,0,0
5.9251,1783370138.9230,1,1,1.0000,0.0000,1.42070,0.09281,-2.67863,1.06318,1.56181,0.11635,-0.13236,-0.45988,0.05648,,,,,,,,,,,,,,,,,,,,,,,,,,0,0,0,0,0
5.9317,1783370138.9297,1,1,1.0000,0.0000,1.42071,0.09254,-2.67868,1.06352,1.56180,0.11634,-0.13237,-0.45989,0.05640,,,,,,,,,,,,,,,,,,,,,,,,,,0,0,0,0,0
5.9553,1783370138.9532,1,1,1.0000,0.0000,1.42071,0.09204,-2.67879,1.06414,1.56181,0.11634,-0.13236,-0.45990,0.05625,,,,,,,,,,,,,,,,,,,,,,,,,,0,0,0,0,0
5.9564,1783370138.9543,1,1,1.0000,0.0000,1.42071,0.09204,-2.67879,1.06414,1.56181,0.11634,-0.13236,-0.45990,0.05625,,,,,,,,,,,,,,,,,,,,,,,,,,0,0,0,0,0
5.9679,1783370138.9658,1,1,1.0000,0.0000,1.42063,0.09186,-2.67885,1.06418,1.56202,0.11650,-0.13229,-0.45985,0.05615,,,,,,,,,,,,,,,,,,,,,,,,,,0,0,0,0,0
5.9685,1783370138.9664,1,1,1.0000,0.0000,1.42063,0.09186,-2.67885,1.06418,1.56202,0.11650,-0.13229,-0.45985,0.05615,,,,,,,,,,,,,,,,,,,,,,,,,,0,0,0,0,0
5.9787,1783370138.9767,1,1,1.0000,0.0000,1.42071,0.09169,-2.67885,1.06459,1.56181,0.11634,-0.13236,-0.45993,0.05616,,,,,,,,,,,,,,,,,,,,,,,,,,0,0,0,0,0
5.9874,1783370138.9853,1,1,1.0000,0.0000,1.42071,0.09161,-2.67885,1.06469,1.56181,0.11633,-0.13236,-0.45994,0.05614,,,,,,,,,,,,,,,,,,,,,,,,,,0,0,0,0,0
6.0078,1783370139.0057,1,1,1.0000,0.0000,1.42064,0.09153,-2.67887,1.06461,1.56202,0.11649,-0.13228,-0.45990,0.05608,,,,,,,,,,,,,,,,,,,,,,,,,,0,0,0,0,0
6.0087,1783370139.0066,1,1,1.0000,0.0000,1.42064,0.09153,-2.67887,1.06461,1.56202,0.11649,-0.13228,-0.45990,0.05608,,,,,,,,,,,,,,,,,,,,,,,,,,0,0,0,0,0
6.0208,1783370139.0187,1,1,1.0000,0.0000,1.42071,0.09144,-2.67886,1.06492,1.56180,0.11633,-0.13235,-0.45997,0.05611,,,,,,,,,,,,,,,,,,,,,,,,,,0,0,0,0,0
6.0346,1783370139.0326,1,1,1.0000,0.0000,1.42071,0.09138,-2.67888,1.06500,1.56180,0.11633,-0.13235,-0.45996,0.05609,,,,,,,,,,,,,,,,,,,,,,,,,,0,0,0,0,0
6.0586,1783370139.0565,1,1,1.0000,0.0000,1.42071,0.09116,-2.67896,1.06528,1.56181,0.11633,-0.13235,-0.45995,0.05600,,,,,,,,,,,,,,,,,,,,,,,,,,0,0,0,0,0
6.0591,1783370139.0570,1,1,1.0000,0.0000,1.42071,0.09116,-2.67896,1.06528,1.56181,0.11633,-0.13235,-0.45995,0.05600,,,,,,,,,,,,,,,,,,,,,,,,,,0,0,0,0,0
6.0691,1783370139.0670,1,1,1.0000,0.0000,1.42071,0.09100,-2.67901,1.06547,1.56182,0.11633,-0.13235,-0.45994,0.05595,,,,,,,,,,,,,,,,,,,,,,,,,,0,0,0,0,0
6.0799,1783370139.0778,1,1,1.0000,0.0000,1.42064,0.09072,-2.67911,1.06562,1.56202,0.11649,-0.13229,-0.45987,0.05580,,,,,,,,,,,,,,,,,,,,,,,,,,0,0,0,0,0
6.0820,1783370139.0799,1,1,1.0000,0.0000,1.42072,0.09058,-2.67912,1.06598,1.56181,0.11633,-0.13236,-0.45993,0.05581,,,,,,,,,,,,,,,,,,,,,,,,,,0,0,0,0,0
6.1164,1783370139.1143,1,1,1.0000,0.0000,1.42072,0.08968,-2.67932,1.06706,1.56180,0.11632,-0.13236,-0.45994,0.05552,,,,,,,,,,,,,,,,,,,,,,,,,,0,0,0,0,0
6.1185,1783370139.1164,1,1,1.0000,0.0000,1.42072,0.08968,-2.67932,1.06706,1.56180,0.11632,-0.13236,-0.45994,0.05552,,,,,,,,,,,,,,,,,,,,,,,,,,0,0,0,0,0
6.1194,1783370139.1173,1,1,1.0000,0.0000,1.42064,0.08957,-2.67937,1.06700,1.56203,0.11648,-0.13229,-0.45988,0.05544,,,,,,,,,,,,,,,,,,,,,,,,,,0,0,0,0,0
6.1263,1783370139.1242,1,1,1.0000,0.0000,1.42064,0.08942,-2.67940,1.06718,1.56202,0.11648,-0.13229,-0.45988,0.05539,,,,,,,,,,,,,,,,,,,,,,,,,,0,0,0,0,0
6.1373,1783370139.1352,1,1,1.0000,0.0000,1.42064,0.08909,-2.67946,1.06757,1.56202,0.11648,-0.13229,-0.45989,0.05529,,,,,,,,,,,,,,,,,,,,,,,,,,0,0,0,0,0
6.1500,1783370139.1479,1,1,1.0000,0.0000,1.42064,0.08854,-2.67958,1.06823,1.56202,0.11647,-0.13229,-0.45990,0.05512,,,,,,,,,,,,,,,,,,,,,,,,,,0,0,0,0,0
6.1511,1783370139.1490,1,1,1.0000,0.0000,1.42064,0.08854,-2.67958,1.06823,1.56202,0.11647,-0.13229,-0.45990,0.05512,,,,,,,,,,,,,,,,,,,,,,,,,,0,0,0,0,0
6.1515,1783370139.1494,1,1,1.0000,0.0000,1.42064,0.08854,-2.67958,1.06823,1.56202,0.11647,-0.13229,-0.45990,0.05512,,,,,,,,,,,,,,,,,,,,,,,,,,0,0,0,0,0
6.1592,1783370139.1571,1,1,1.0000,0.0000,1.42064,0.08813,-2.67967,1.06872,1.56202,0.11647,-0.13229,-0.45990,0.05500,,,,,,,,,,,,,,,,,,,,,,,,,,0,0,0,0,0
6.1663,1783370139.1643,1,1,1.0000,0.0000,1.42065,0.08770,-2.67976,1.06925,1.56202,0.11647,-0.13229,-0.45991,0.05486,,,,,,,,,,,,,,,,,,,,,,,,,,0,0,0,0,0
6.1773,1783370139.1752,1,1,1.0000,0.0000,1.42065,0.08726,-2.67986,1.06978,1.56202,0.11646,-0.13229,-0.45991,0.05473,,,,,,,,,,,,,,,,,,,,,,,,,,0,0,0,0,0
6.1843,1783370139.1822,1,1,1.0000,0.0000,1.42065,0.08706,-2.67991,1.07002,1.56203,0.11646,-0.13228,-0.45991,0.05466,,,,,,,,,,,,,,,,,,,,,,,,,,0,0,0,0,0
6.2130,1783370139.2109,1,1,1.0000,0.0000,1.42073,0.08606,-2.68009,1.07142,1.56181,0.11629,-0.13235,-0.45999,0.05441,,,,,,,,,,,,,,,,,,,,,,,,,,0,0,0,0,0
6.1684,1783370139.1749,1,1,1.0000,0.0000,1.42065,0.08726,-2.67986,1.06978,1.56202,0.11646,-0.13229,-0.45991,0.05473,,,,,,,,,,,,,,,,,,,,,,,,,,0,0,0,0,0
6.1756,1783370139.1821,1,1,1.0000,0.0000,1.42065,0.08706,-2.67991,1.07002,1.56203,0.11646,-0.13228,-0.45991,0.05466,,,,,,,,,,,,,,,,,,,,,,,,,,0,0,0,0,0
6.2043,1783370139.2108,1,1,1.0000,0.0000,1.42073,0.08606,-2.68009,1.07142,1.56181,0.11629,-0.13235,-0.45999,0.05441,,,,,,,,,,,,,,,,,,,,,,,,,,0,0,0,0,0
6.2059,1783370139.2124,1,1,1.0000,0.0000,1.42065,0.08596,-2.68014,1.07134,1.56203,0.11645,-0.13228,-0.45993,0.05432,,,,,,,,,,,,,,,,,,,,,,,,,,0,0,0,0,0
6.2070,1783370139.2135,1,1,1.0000,0.0000,1.42065,0.08596,-2.68014,1.07134,1.56203,0.11645,-0.13228,-0.45993,0.05432,,,,,,,,,,,,,,,,,,,,,,,,,,0,0,0,0,0
6.2251,1783370139.2315,1,1,1.0000,0.0000,1.42073,0.08546,-2.68021,1.07215,1.56182,0.11629,-0.13235,-0.46001,0.05423,,,,,,,,,,,,,,,,,,,,,,,,,,0,0,0,0,0
6.2258,1783370139.2323,1,1,1.0000,0.0000,1.42073,0.08546,-2.68021,1.07215,1.56182,0.11629,-0.13235,-0.46001,0.05423,,,,,,,,,,,,,,,,,,,,,,,,,,0,0,0,0,0
6.2474,1783370139.2539,1,1,1.0000,0.0000,1.42065,0.08520,-2.68028,1.07228,1.56203,0.11644,-0.13228,-0.45996,0.05411,,,,,,,,,,,,,,,,,,,,,,,,,,0,0,0,0,0
6.2542,1783370139.2607,1,1,1.0000,0.0000,1.42065,0.08512,-2.68028,1.07238,1.56203,0.11645,-0.13227,-0.45997,0.05409,,,,,,,,,,,,,,,,,,,,,,,,,,0,0,0,0,0
6.2613,1783370139.2678,1,1,1.0000,0.0000,1.42066,0.08509,-2.68029,1.07243,1.56203,0.11644,-0.13228,-0.45997,0.05408,,,,,,,,,,,,,,,,,,,,,,,,,,0,0,0,0,0
6.2621,1783370139.2686,1,1,1.0000,0.0000,1.42066,0.08509,-2.68029,1.07243,1.56203,0.11644,-0.13228,-0.45997,0.05408,,,,,,,,,,,,,,,,,,,,,,,,,,0,0,0,0,0
6.2707,1783370139.2772,1,1,1.0000,0.0000,1.42066,0.08503,-2.68029,1.07251,1.56203,0.11644,-0.13228,-0.45998,0.05407,,,,,,,,,,,,,,,,,,,,,,,,,,0,0,0,0,0
6.3010,1783370139.3075,1,1,1.0000,0.0000,1.42066,0.08489,-2.68032,1.07270,1.56203,0.11644,-0.13227,-0.45999,0.05403,,,,,,,,,,,,,,,,,,,,,,,,,,0,0,0,0,0
6.3057,1783370139.3122,1,1,1.0000,0.0000,1.42073,0.08484,-2.68032,1.07297,1.56183,0.11628,-0.13234,-0.46005,0.05406,,,,,,,,,,,,,,,,,,,,,,,,,,0,0,0,0,0
6.3107,1783370139.3172,1,1,1.0000,0.0000,1.42066,0.08482,-2.68035,1.07280,1.56203,0.11644,-0.13227,-0.45999,0.05401,,,,,,,,,,,,,,,,,,,,,,,,,,0,0,0,0,0
6.3177,1783370139.3241,1,1,1.0000,0.0000,1.42066,0.08478,-2.68036,1.07285,1.56203,0.11644,-0.13228,-0.45999,0.05399,,,,,,,,,,,,,,,,,,,,,,,,,,0,0,0,0,0
6.3350,1783370139.3415,1,1,1.0000,0.0000,1.42066,0.08449,-2.68044,1.07320,1.56203,0.11643,-0.13228,-0.45997,0.05389,,,,,,,,,,,,,,,,,,,,,,,,,,0,0,0,0,0
6.3381,1783370139.3446,1,1,1.0000,0.0000,1.42074,0.08437,-2.68045,1.07354,1.56182,0.11628,-0.13235,-0.46003,0.05390,,,,,,,,,,,,,,,,,,,,,,,,,,0,0,0,0,0
6.3388,1783370139.3453,1,1,1.0000,0.0000,1.42074,0.08437,-2.68045,1.07354,1.56182,0.11628,-0.13235,-0.46003,0.05390,,,,,,,,,,,,,,,,,,,,,,,,,,0,0,0,0,0
6.3575,1783370139.3640,1,1,1.0000,0.0000,1.42066,0.08395,-2.68058,1.07384,1.56203,0.11643,-0.13228,-0.45996,0.05371,,,,,,,,,,,,,,,,,,,,,,,,,,0,0,0,0,0
6.3689,1783370139.3754,1,1,1.0000,0.0000,1.42074,0.08351,-2.68065,1.07455,1.56183,0.11628,-0.13235,-0.46002,0.05363,,,,,,,,,,,,,,,,,,,,,,,,,,0,0,0,0,0
6.3745,1783370139.3810,1,1,1.0000,0.0000,1.42066,0.08339,-2.68070,1.07451,1.56203,0.11643,-0.13228,-0.45997,0.05354,,,,,,,,,,,,,,,,,,,,,,,,,,0,0,0,0,0
6.3859,1783370139.3923,1,1,1.0000,0.0000,1.42074,0.08303,-2.68075,1.07513,1.56183,0.11627,-0.13235,-0.46003,0.05348,,,,,,,,,,,,,,,,,,,,,,,,,,0,0,0,0,0
6.3946,1783370139.4011,1,1,1.0000,0.0000,1.42074,0.08268,-2.68083,1.07555,1.56183,0.11627,-0.13234,-0.46004,0.05337,,,,,,,,,,,,,,,,,,,,,,,,,,0,0,0,0,0
6.4057,1783370139.4122,1,1,1.0000,0.0000,1.42066,0.08233,-2.68092,1.07578,1.56203,0.11642,-0.13228,-0.45998,0.05321,,,,,,,,,,,,,,,,,,,,,,,,,,0,0,0,0,0
6.4160,1783370139.4225,1,1,1.0000,0.0000,1.42066,0.08192,-2.68101,1.07627,1.56204,0.11642,-0.13227,-0.45999,0.05309,,,,,,,,,,,,,,,,,,,,,,,,,,0,0,0,0,0
