Martins-Lucaas/twinforge/sensors/Data/20260702_134006__samples.csv
t_rel_s,t_unix,cycle,phase,setpoint_n,force_net_n,q1,q2,q3,q4,q5,q6,tcp_x,tcp_y,tcp_z,taxel_0,taxel_1,taxel_2,taxel_3,taxel_4,taxel_5,taxel_6,taxel_7,taxel_8,taxel_9,taxel_10,taxel_11,taxel_12,taxel_13,taxel_14,taxel_15,taxel_16,taxel_17,taxel_18,taxel_19,taxel_20,taxel_21,taxel_22,taxel_23,taxel_24,n_RA,n_SA,cn_mm,cn_ra,cn_sa
0.0038,1783010406.5161,1,0,1.0000,0.0000,1.44682,0.23328,-2.77748,0.97337,1.57080,0.00000,-0.14512,-0.38003,0.04653,,,,,,,,,,,,,,,,,,,,,,,,,,0,0,0,0,0
0.0042,1783010406.5165,1,0,1.0000,0.0000,1.44682,0.23328,-2.77748,0.97337,1.57080,0.00000,-0.14512,-0.38003,0.04653,,,,,,,,,,,,,,,,,,,,,,,,,,0,0,0,0,0
0.0044,1783010406.5168,1,0,1.0000,0.0000,1.44682,0.23328,-2.77748,0.97337,1.57080,0.00000,-0.14512,-0.38003,0.04653,,,,,,,,,,,,,,,,,,,,,,,,,,0,0,0,0,0
0.0347,1783010406.5470,1,0,1.0000,0.0000,1.44682,0.23328,-2.77748,0.97337,1.57080,0.00000,-0.14512,-0.38003,0.04653,,,,,,,,,,,,,,,,,,,,,,,,,,0,0,0,0,0
0.0350,1783010406.5473,1,0,1.0000,0.0000,1.44682,0.23328,-2.77748,0.97337,1.57080,0.00000,-0.14512,-0.38003,0.04653,,,,,,,,,,,,,,,,,,,,,,,,,,0,0,0,0,0
0.0353,1783010406.5476,1,0,1.0000,0.0000,1.44682,0.23328,-2.77748,0.97337,1.57080,0.00000,-0.14512,-0.38003,0.04653,,,,,,,,,,,,,,,,,,,,,,,,,,0,0,0,0,0
0.0400,1783010406.5523,1,0,1.0000,0.0000,1.44682,0.23328,-2.77748,0.97337,1.57080,0.00000,-0.14512,-0.38003,0.04653,,,,,,,,,,,,,,,,,,,,,,,,,,0,0,0,0,0
0.0404,1783010406.5527,1,0,1.0000,0.0000,1.44682,0.23328,-2.77748,0.97337,1.57080,0.00000,-0.14512,-0.38003,0.04653,,,,,,,,,,,,,,,,,,,,,,,,,,0,0,0,0,0
0.0557,1783010406.5680,1,0,1.0000,0.0000,1.44682,0.23328,-2.77748,0.97337,1.57080,0.00000,-0.14512,-0.38003,0.04653,,,,,,,,,,,,,,,,,,,,,,,,,,0,0,0,0,0
0.0738,1783010406.5861,1,0,1.0000,0.0000,1.44682,0.23328,-2.77748,0.97337,1.57080,0.00000,-0.14512,-0.38003,0.04653,,,,,,,,,,,,,,,,,,,,,,,,,,0,0,0,0,0
0.0743,1783010406.5866,1,0,1.0000,0.0000,1.44682,0.23328,-2.77748,0.97337,1.57080,0.00000,-0.14512,-0.38003,0.04653,,,,,,,,,,,,,,,,,,,,,,,,,,0,0,0,0,0
0.0789,1783010406.5913,1,0,1.0000,0.0000,1.44682,0.23328,-2.77748,0.97337,1.57080,0.00000,-0.14512,-0.38003,0.04653,,,,,,,,,,,,,,,,,,,,,,,,,,0,0,0,0,0
0.0792,1783010406.5916,1,0,1.0000,0.0000,1.44682,0.23328,-2.77748,0.97337,1.57080,0.00000,-0.14512,-0.38003,0.04653,,,,,,,,,,,,,,,,,,,,,,,,,,0,0,0,0,0
0.0922,1783010406.6045,1,0,1.0000,0.0000,1.44682,0.23328,-2.77748,0.97337,1.57080,0.00000,-0.14512,-0.38003,0.04653,,,,,,,,,,,,,,,,,,,,,,,,,,0,0,0,0,0
0.1267,1783010406.6390,1,0,1.0000,0.0000,1.44682,0.23328,-2.77748,0.97337,1.57080,0.00000,-0.14512,-0.38003,0.04653,,,,,,,,,,,,,,,,,,,,,,,,,,0,0,0,0,0
0.1271,1783010406.6394,1,0,1.0000,0.0000,1.44682,0.23328,-2.77748,0.97337,1.57080,0.00000,-0.14512,-0.38003,0.04653,,,,,,,,,,,,,,,,,,,,,,,,,,0,0,0,0,0
0.1273,1783010406.6397,1,0,1.0000,0.0000,1.44682,0.23328,-2.77748,0.97337,1.57080,0.00000,-0.14512,-0.38003,0.04653,,,,,,,,,,,,,,,,,,,,,,,,,,0,0,0,0,0
0.1309,1783010406.6432,1,0,1.0000,0.0000,1.44682,0.23328,-2.77748,0.97337,1.57080,0.00000,-0.14512,-0.38003,0.04653,,,,,,,,,,,,,,,,,,,,,,,,,,0,0,0,0,0
0.1312,1783010406.6436,1,0,1.0000,0.0000,1.44682,0.23328,-2.77748,0.97337,1.57080,0.00000,-0.14512,-0.38003,0.04653,,,,,,,,,,,,,,,,,,,,,,,,,,0,0,0,0,0
0.1567,1783010406.6691,1,0,1.0000,0.0000,1.44682,0.23328,-2.77748,0.97337,1.57080,0.00000,-0.14512,-0.38003,0.04653,,,,,,,,,,,,,,,,,,,,,,,,,,0,0,0,0,0
0.1571,1783010406.6694,1,0,1.0000,0.0000,1.44682,0.23328,-2.77748,0.97337,1.57080,0.00000,-0.14512,-0.38003,0.04653,,,,,,,,,,,,,,,,,,,,,,,,,,0,0,0,0,0
0.1666,1783010406.6789,1,0,1.0000,0.0000,1.44682,0.23328,-2.77748,0.97337,1.57080,0.00000,-0.14512,-0.38003,0.04653,,,,,,,,,,,,,,,,,,,,,,,,,,0,0,0,0,0
0.1693,1783010406.6816,1,0,1.0000,0.0000,1.44682,0.23328,-2.77748,0.97337,1.57080,0.00000,-0.14512,-0.38003,0.04653,,,,,,,,,,,,,,,,,,,,,,,,,,0,0,0,0,0
0.2399,1783010406.7523,1,0,1.0000,0.0000,1.44682,0.23328,-2.77748,0.97337,1.57080,0.00000,-0.14512,-0.38003,0.04653,,,,,,,,,,,,,,,,,,,,,,,,,,0,0,0,0,0
0.2403,1783010406.7527,1,0,1.0000,0.0000,1.44682,0.23328,-2.77748,0.97337,1.57080,0.00000,-0.14512,-0.38003,0.04653,,,,,,,,,,,,,,,,,,,,,,,,,,0,0,0,0,0
0.2407,1783010406.7531,1,0,1.0000,0.0000,1.44682,0.23328,-2.77748,0.97337,1.57080,0.00000,-0.14512,-0.38003,0.04653,,,,,,,,,,,,,,,,,,,,,,,,,,0,0,0,0,0
0.2411,1783010406.7535,1,0,1.0000,0.0000,1.44682,0.23328,-2.77748,0.97337,1.57080,0.00000,-0.14512,-0.38003,0.04653,,,,,,,,,,,,,,,,,,,,,,,,,,0,0,0,0,0
0.2416,1783010406.7540,1,0,1.0000,0.0000,1.44682,0.23328,-2.77748,0.97337,1.57080,0.00000,-0.14512,-0.38003,0.04653,,,,,,,,,,,,,,,,,,,,,,,,,,0,0,0,0,0
0.2420,1783010406.7543,1,0,1.0000,0.0000,1.44682,0.23328,-2.77748,0.97337,1.57080,0.00000,-0.14512,-0.38003,0.04653,,,,,,,,,,,,,,,,,,,,,,,,,,0,0,0,0,0
0.2426,1783010406.7549,1,0,1.0000,0.0000,1.44682,0.23328,-2.77748,0.97337,1.57080,0.00000,-0.14512,-0.38003,0.04653,,,,,,,,,,,,,,,,,,,,,,,,,,0,0,0,0,0
0.2511,1783010406.7634,1,0,1.0000,0.0000,1.44682,0.23328,-2.77748,0.97337,1.57080,0.00000,-0.14512,-0.38003,0.04653,,,,,,,,,,,,,,,,,,,,,,,,,,0,0,0,0,0
0.2595,1783010406.7718,1,0,1.0000,0.0000,1.44682,0.23328,-2.77748,0.97337,1.57080,0.00000,-0.14512,-0.38003,0.04653,,,,,,,,,,,,,,,,,,,,,,,,,,0,0,0,0,0
0.2719,1783010406.7842,1,0,1.0000,0.0000,1.44682,0.23328,-2.77748,0.97337,1.57080,0.00000,-0.14512,-0.38003,0.04653,,,,,,,,,,,,,,,,,,,,,,,,,,0,0,0,0,0
0.2791,1783010406.7914,1,0,1.0000,0.0000,1.44682,0.23328,-2.77748,0.97337,1.57080,0.00000,-0.14512,-0.38003,0.04653,,,,,,,,,,,,,,,,,,,,,,,,,,0,0,0,0,0
0.2795,1783010406.7919,1,0,1.0000,0.0000,1.44682,0.23328,-2.77748,0.97337,1.57080,0.00000,-0.14512,-0.38003,0.04653,,,,,,,,,,,,,,,,,,,,,,,,,,0,0,0,0,0
0.2891,1783010406.8014,1,0,1.0000,0.0000,1.44682,0.23328,-2.77748,0.97337,1.57080,0.00000,-0.14512,-0.38003,0.04653,,,,,,,,,,,,,,,,,,,,,,,,,,0,0,0,0,0
0.2992,1783010406.8115,1,0,1.0000,0.0000,1.44682,0.23328,-2.77748,0.97337,1.57080,0.00000,-0.14512,-0.38003,0.04653,,,,,,,,,,,,,,,,,,,,,,,,,,0,0,0,0,0
0.3137,1783010406.8260,1,0,1.0000,0.0000,1.44682,0.23328,-2.77748,0.97337,1.57080,0.00000,-0.14512,-0.38003,0.04653,,,,,,,,,,,,,,,,,,,,,,,,,,0,0,0,0,0
0.3237,1783010406.8360,1,0,1.0000,0.0000,1.44682,0.23328,-2.77748,0.97337,1.57080,0.00000,-0.14512,-0.38003,0.04653,,,,,,,,,,,,,,,,,,,,,,,,,,0,0,0,0,0
0.3292,1783010406.8415,1,0,1.0000,0.0000,1.44682,0.23328,-2.77748,0.97337,1.57080,0.00000,-0.14512,-0.38003,0.04653,,,,,,,,,,,,,,,,,,,,,,,,,,0,0,0,0,0
0.3397,1783010406.8520,1,0,1.0000,0.0000,1.44682,0.23328,-2.77748,0.97337,1.57080,0.00000,-0.14512,-0.38003,0.04653,,,,,,,,,,,,,,,,,,,,,,,,,,0,0,0,0,0
0.3572,1783010406.8695,1,0,1.0000,0.0000,1.44682,0.23328,-2.77748,0.97337,1.57080,0.00000,-0.14512,-0.38003,0.04653,,,,,,,,,,,,,,,,,,,,,,,,,,0,0,0,0,0
0.3630,1783010406.8753,1,0,1.0000,0.0000,1.44682,0.23328,-2.77748,0.97337,1.57080,0.00000,-0.14512,-0.38003,0.04653,,,,,,,,,,,,,,,,,,,,,,,,,,0,0,0,0,0
0.3747,1783010406.8870,1,0,1.0000,0.0000,1.44682,0.23328,-2.77748,0.97337,1.57080,0.00000,-0.14512,-0.38003,0.04653,,,,,,,,,,,,,,,,,,,,,,,,,,0,0,0,0,0
0.3827,1783010406.8950,1,0,1.0000,0.0000,1.44682,0.23328,-2.77748,0.97337,1.57080,0.00000,-0.14512,-0.38003,0.04653,,,,,,,,,,,,,,,,,,,,,,,,,,0,0,0,0,0
0.3910,1783010406.9034,1,0,1.0000,0.0000,1.44682,0.23328,-2.77748,0.97337,1.57080,0.00000,-0.14512,-0.38003,0.04653,,,,,,,,,,,,,,,,,,,,,,,,,,0,0,0,0,0
0.4030,1783010406.9153,1,0,1.0000,0.0000,1.44682,0.23328,-2.77748,0.97337,1.57080,0.00000,-0.14512,-0.38003,0.04653,,,,,,,,,,,,,,,,,,,,,,,,,,0,0,0,0,0
0.4034,1783010406.9158,1,0,1.0000,0.0000,1.44682,0.23328,-2.77748,0.97337,1.57080,0.00000,-0.14512,-0.38003,0.04653,,,,,,,,,,,,,,,,,,,,,,,,,,0,0,0,0,0
0.4256,1783010406.9379,1,0,1.0000,0.0000,1.44682,0.23328,-2.77748,0.97337,1.57080,0.00000,-0.14512,-0.38003,0.04653,,,,,,,,,,,,,,,,,,,,,,,,,,0,0,0,0,0
0.4259,1783010406.9383,1,0,1.0000,0.0000,1.44682,0.23328,-2.77748,0.97337,1.57080,0.00000,-0.14512,-0.38003,0.04653,,,,,,,,,,,,,,,,,,,,,,,,,,0,0,0,0,0
0.4402,1783010406.9525,1,0,1.0000,0.0000,1.44682,0.23328,-2.77748,0.97337,1.57080,0.00000,-0.14512,-0.38003,0.04653,,,,,,,,,,,,,,,,,,,,,,,,,,0,0,0,0,0
0.4459,1783010406.9583,1,0,1.0000,0.0000,1.44682,0.23328,-2.77748,0.97337,1.57080,0.00000,-0.14512,-0.38003,0.04653,,,,,,,,,,,,,,,,,,,,,,,,,,0,0,0,0,0
0.4463,1783010406.9587,1,0,1.0000,0.0000,1.44682,0.23328,-2.77748,0.97337,1.57080,0.00000,-0.14512,-0.38003,0.04653,,,,,,,,,,,,,,,,,,,,,,,,,,0,0,0,0,0
0.4507,1783010406.9631,1,0,1.0000,0.0000,1.44682,0.23328,-2.77748,0.97337,1.57080,0.00000,-0.14512,-0.38003,0.04653,,,,,,,,,,,,,,,,,,,,,,,,,,0,0,0,0,0
0.4614,1783010406.9738,1,0,1.0000,0.0000,1.44682,0.23328,-2.77748,0.97337,1.57080,0.00000,-0.14512,-0.38003,0.04653,,,,,,,,,,,,,,,,,,,,,,,,,,0,0,0,0,0
0.4707,1783010406.9831,1,0,1.0000,0.0000,1.44682,0.23328,-2.77748,0.97337,1.57080,0.00000,-0.14512,-0.38003,0.04653,,,,,,,,,,,,,,,,,,,,,,,,,,0,0,0,0,0
0.4923,1783010407.0046,1,0,1.0000,0.0000,1.44682,0.23328,-2.77748,0.97337,1.57080,0.00000,-0.14512,-0.38003,0.04653,,,,,,,,,,,,,,,,,,,,,,,,,,0,0,0,0,0
0.4925,1783010407.0049,1,0,1.0000,0.0000,1.44682,0.23328,-2.77748,0.97337,1.57080,0.00000,-0.14512,-0.38003,0.04653,,,,,,,,,,,,,,,,,,,,,,,,,,0,0,0,0,0
0.5055,1783010407.0178,1,0,1.0000,0.0000,1.44682,0.23328,-2.77748,0.97337,1.57080,0.00000,-0.14512,-0.38003,0.04653,,,,,,,,,,,,,,,,,,,,,,,,,,0,0,0,0,0
0.5246,1783010407.0370,1,0,1.0000,0.0000,1.44682,0.23328,-2.77748,0.97337,1.57080,0.00000,-0.14512,-0.38003,0.04653,,,,,,,,,,,,,,,,,,,,,,,,,,0,0,0,0,0
0.5250,1783010407.0374,1,0,1.0000,0.0000,1.44682,0.23328,-2.77748,0.97337,1.57080,0.00000,-0.14512,-0.38003,0.04653,,,,,,,,,,,,,,,,,,,,,,,,,,0,0,0,0,0
0.5359,1783010407.0483,1,0,1.0000,0.0000,1.44682,0.23328,-2.77748,0.97337,1.57080,0.00000,-0.14512,-0.38003,0.04653,,,,,,,,,,,,,,,,,,,,,,,,,,0,0,0,0,0
0.5424,1783010407.0547,1,0,1.0000,0.0000,1.44682,0.23328,-2.77748,0.97337,1.57080,0.00000,-0.14512,-0.38003,0.04653,,,,,,,,,,,,,,,,,,,,,,,,,,0,0,0,0,0
0.5523,1783010407.0647,1,0,1.0000,0.0000,1.44682,0.23328,-2.77748,0.97337,1.57080,0.00000,-0.14512,-0.38003,0.04653,,,,,,,,,,,,,,,,,,,,,,,,,,0,0,0,0,0
0.5526,1783010407.0650,1,0,1.0000,0.0000,1.44682,0.23328,-2.77748,0.97337,1.57080,0.00000,-0.14512,-0.38003,0.04653,,,,,,,,,,,,,,,,,,,,,,,,,,0,0,0,0,0
0.5621,1783010407.0744,1,0,1.0000,0.0000,1.44682,0.23328,-2.77748,0.97337,1.57080,0.00000,-0.14512,-0.38003,0.04653,,,,,,,,,,,,,,,,,,,,,,,,,,0,0,0,0,0
0.5627,1783010407.0750,1,0,1.0000,0.0000,1.44682,0.23328,-2.77748,0.97337,1.57080,0.00000,-0.14512,-0.38003,0.04653,,,,,,,,,,,,,,,,,,,,,,,,,,0,0,0,0,0
0.5762,1783010407.0885,1,0,1.0000,0.0000,1.44682,0.23328,-2.77748,0.97337,1.57080,0.00000,-0.14512,-0.38003,0.04653,,,,,,,,,,,,,,,,,,,,,,,,,,0,0,0,0,0
0.5766,1783010407.0889,1,0,1.0000,0.0000,1.44682,0.23328,-2.77748,0.97337,1.57080,0.00000,-0.14512,-0.38003,0.04653,,,,,,,,,,,,,,,,,,,,,,,,,,0,0,0,0,0
0.5881,1783010407.1004,1,0,1.0000,0.0000,1.44682,0.23328,-2.77748,0.97337,1.57080,0.00000,-0.14512,-0.38003,0.04653,,,,,,,,,,,,,,,,,,,,,,,,,,0,0,0,0,0
0.5941,1783010407.1064,1,0,1.0000,0.0000,1.44682,0.23328,-2.77748,0.97337,1.57080,0.00000,-0.14512,-0.38003,0.04653,,,,,,,,,,,,,,,,,,,,,,,,,,0,0,0,0,0
0.5945,1783010407.1068,1,0,1.0000,0.0000,1.44682,0.23328,-2.77748,0.97337,1.57080,0.00000,-0.14512,-0.38003,0.04653,,,,,,,,,,,,,,,,,,,,,,,,,,0,0,0,0,0
0.6031,1783010407.1155,1,0,1.0000,0.0000,1.44682,0.23328,-2.77748,0.97337,1.57080,0.00000,-0.14512,-0.38003,0.04653,,,,,,,,,,,,,,,,,,,,,,,,,,0,0,0,0,0
0.6034,1783010407.1158,1,0,1.0000,0.0000,1.44682,0.23328,-2.77748,0.97337,1.57080,0.00000,-0.14512,-0.38003,0.04653,,,,,,,,,,,,,,,,,,,,,,,,,,0,0,0,0,0
0.6254,1783010407.1377,1,0,1.0000,0.0000,1.44682,0.23328,-2.77748,0.97337,1.57080,0.00000,-0.14512,-0.38003,0.04653,,,,,,,,,,,,,,,,,,,,,,,,,,0,0,0,0,0
0.6258,1783010407.1381,1,0,1.0000,0.0000,1.44682,0.23328,-2.77748,0.97337,1.57080,0.00000,-0.14512,-0.38003,0.04653,,,,,,,,,,,,,,,,,,,,,,,,,,0,0,0,0,0
0.6333,1783010407.1457,1,0,1.0000,0.0000,1.44682,0.23328,-2.77748,0.97337,1.57080,0.00000,-0.14512,-0.38003,0.04653,,,,,,,,,,,,,,,,,,,,,,,,,,0,0,0,0,0
0.6433,1783010407.1557,1,0,1.0000,0.0000,1.44682,0.23328,-2.77748,0.97337,1.57080,0.00000,-0.14512,-0.38003,0.04653,,,,,,,,,,,,,,,,,,,,,,,,,,0,0,0,0,0
0.6670,1783010407.1793,1,0,1.0000,0.0000,1.44682,0.23328,-2.77748,0.97337,1.57080,0.00000,-0.14512,-0.38003,0.04653,,,,,,,,,,,,,,,,,,,,,,,,,,0,0,0,0,0
0.6673,1783010407.1796,1,0,1.0000,0.0000,1.44682,0.23328,-2.77748,0.97337,1.57080,0.00000,-0.14512,-0.38003,0.04653,,,,,,,,,,,,,,,,,,,,,,,,,,0,0,0,0,0
0.6763,1783010407.1887,1,0,1.0000,0.0000,1.44682,0.23328,-2.77748,0.97337,1.57080,0.00000,-0.14512,-0.38003,0.04653,,,,,,,,,,,,,,,,,,,,,,,,,,0,0,0,0,0
0.6852,1783010407.1976,1,0,1.0000,0.0000,1.44682,0.23328,-2.77748,0.97337,1.57080,0.00000,-0.14512,-0.38003,0.04653,,,,,,,,,,,,,,,,,,,,,,,,,,0,0,0,0,0
0.6929,1783010407.2052,1,0,1.0000,0.0000,1.44682,0.23328,-2.77748,0.97337,1.57080,0.00000,-0.14512,-0.38003,0.04653,,,,,,,,,,,,,,,,,,,,,,,,,,0,0,0,0,0
0.7019,1783010407.2142,1,0,1.0000,0.0000,1.44682,0.23328,-2.77748,0.97337,1.57080,0.00000,-0.14512,-0.38003,0.04653,,,,,,,,,,,,,,,,,,,,,,,,,,0,0,0,0,0
0.7022,1783010407.2146,1,0,1.0000,0.0000,1.44682,0.23328,-2.77748,0.97337,1.57080,0.00000,-0.14512,-0.38003,0.04653,,,,,,,,,,,,,,,,,,,,,,,,,,0,0,0,0,0
0.7158,1783010407.2282,1,0,1.0000,0.0000,1.44682,0.23328,-2.77748,0.97337,1.57080,0.00000,-0.14512,-0.38003,0.04653,,,,,,,,,,,,,,,,,,,,,,,,,,0,0,0,0,0
0.7275,1783010407.2398,1,0,1.0000,0.0000,1.44682,0.23328,-2.77748,0.97337,1.57080,0.00000,-0.14512,-0.38003,0.04653,,,,,,,,,,,,,,,,,,,,,,,,,,0,0,0,0,0
0.7279,1783010407.2402,1,0,1.0000,0.0000,1.44682,0.23328,-2.77748,0.97337,1.57080,0.00000,-0.14512,-0.38003,0.04653,,,,,,,,,,,,,,,,,,,,,,,,,,0,0,0,0,0
0.7337,1783010407.2460,1,1,1.0000,0.0000,1.44682,0.23328,-2.77748,0.97337,1.57080,0.00000,-0.14512,-0.38003,0.04653,,,,,,,,,,,,,,,,,,,,,,,,,,0,0,0,0,0
0.7437,1783010407.2561,1,1,1.0000,0.0000,1.44682,0.23328,-2.77748,0.97337,1.57080,0.00000,-0.14512,-0.38003,0.04653,,,,,,,,,,,,,,,,,,,,,,,,,,0,0,0,0,0
0.7440,1783010407.2564,1,1,1.0000,0.0000,1.44682,0.23328,-2.77748,0.97337,1.57080,0.00000,-0.14512,-0.38003,0.04653,,,,,,,,,,,,,,,,,,,,,,,,,,0,0,0,0,0
0.7520,1783010407.2643,1,1,1.0000,0.0000,1.44682,0.23328,-2.77748,0.97337,1.57080,0.00000,-0.14512,-0.38003,0.04653,,,,,,,,,,,,,,,,,,,,,,,,,,0,0,0,0,0
0.7631,1783010407.2754,1,1,1.0000,0.0000,1.44682,0.23328,-2.77748,0.97337,1.57080,0.00000,-0.14512,-0.38003,0.04653,,,,,,,,,,,,,,,,,,,,,,,,,,0,0,0,0,0
0.7726,1783010407.2850,1,1,1.0000,0.0000,1.44682,0.23328,-2.77748,0.97337,1.57080,0.00000,-0.14512,-0.38003,0.04653,,,,,,,,,,,,,,,,,,,,,,,,,,0,0,0,0,0
0.7729,1783010407.2853,1,1,1.0000,0.0000,1.44682,0.23328,-2.77748,0.97337,1.57080,0.00000,-0.14512,-0.38003,0.04653,,,,,,,,,,,,,,,,,,,,,,,,,,0,0,0,0,0
0.7823,1783010407.2946,1,1,1.0000,0.0000,1.44682,0.23328,-2.77748,0.97337,1.57080,0.00000,-0.14512,-0.38003,0.04653,,,,,,,,,,,,,,,,,,,,,,,,,,0,0,0,0,0
0.7970,1783010407.3094,1,1,1.0000,0.0000,1.44682,0.23328,-2.77748,0.97337,1.57080,0.00000,-0.14512,-0.38003,0.04653,,,,,,,,,,,,,,,,,,,,,,,,,,0,0,0,0,0
0.8018,1783010407.3141,1,1,1.0000,0.0000,1.44682,0.23328,-2.77748,0.97337,1.57080,0.00000,-0.14512,-0.38003,0.04653,,,,,,,,,,,,,,,,,,,,,,,,,,0,0,0,0,0
0.8022,1783010407.3146,1,1,1.0000,0.0000,1.44682,0.23328,-2.77748,0.97337,1.57080,0.00000,-0.14512,-0.38003,0.04653,,,,,,,,,,,,,,,,,,,,,,,,,,0,0,0,0,0
0.8127,1783010407.3250,1,1,1.0000,0.0000,1.44682,0.23328,-2.77748,0.97337,1.57080,0.00000,-0.14512,-0.38003,0.04653,,,,,,,,,,,,,,,,,,,,,,,,,,0,0,0,0,0
0.8286,1783010407.3409,1,1,1.0000,0.0000,1.44682,0.23328,-2.77748,0.97337,1.57080,0.00000,-0.14512,-0.38003,0.04653,,,,,,,,,,,,,,,,,,,,,,,,,,0,0,0,0,0
0.8329,1783010407.3452,1,1,1.0000,0.0000,1.44682,0.23328,-2.77748,0.97337,1.57080,0.00000,-0.14512,-0.38003,0.04653,,,,,,,,,,,,,,,,,,,,,,,,,,0,0,0,0,0
0.8532,1783010407.3656,1,1,1.0000,0.0000,1.44682,0.23328,-2.77748,0.97337,1.57080,0.00000,-0.14512,-0.38003,0.04653,,,,,,,,,,,,,,,,,,,,,,,,,,0,0,0,0,0
0.8653,1783010407.3776,1,1,1.0000,0.0000,1.44682,0.23328,-2.77748,0.97337,1.57080,0.00000,-0.14512,-0.38003,0.04653,,,,,,,,,,,,,,,,,,,,,,,,,,0,0,0,0,0
0.8656,1783010407.3779,1,1,1.0000,0.0000,1.44682,0.23328,-2.77748,0.97337,1.57080,0.00000,-0.14512,-0.38003,0.04653,,,,,,,,,,,,,,,,,,,,,,,,,,0,0,0,0,0
0.8721,1783010407.3844,1,1,1.0000,0.0000,1.44682,0.23328,-2.77748,0.97337,1.57080,0.00000,-0.14512,-0.38003,0.04653,,,,,,,,,,,,,,,,,,,,,,,,,,0,0,0,0,0
0.9396,1783010407.4519,1,1,1.0000,0.0000,1.44682,0.23307,-2.77753,0.97363,1.57080,0.00000,-0.14512,-0.38003,0.04647,,,,,,,,,,,,,,,,,,,,,,,,,,0,0,0,0,0
0.9398,1783010407.4522,1,1,1.0000,0.0000,1.44682,0.23307,-2.77753,0.97363,1.57080,0.00000,-0.14512,-0.38003,0.04647,,,,,,,,,,,,,,,,,,,,,,,,,,0,0,0,0,0
0.9411,1783010407.4535,1,1,1.0000,0.0000,1.44682,0.23307,-2.77753,0.97363,1.57080,0.00000,-0.14512,-0.38003,0.04647,,,,,,,,,,,,,,,,,,,,,,,,,,0,0,0,0,0
0.9414,1783010407.4537,1,1,1.0000,0.0000,1.44682,0.23307,-2.77753,0.97363,1.57080,0.00000,-0.14512,-0.38003,0.04647,,,,,,,,,,,,,,,,,,,,,,,,,,0,0,0,0,0
0.9417,1783010407.4541,1,1,1.0000,0.0000,1.44682,0.23307,-2.77753,0.97363,1.57080,0.00000,-0.14512,-0.38003,0.04647,,,,,,,,,,,,,,,,,,,,,,,,,,0,0,0,0,0
0.9556,1783010407.4679,1,1,1.0000,0.0000,1.44682,0.23295,-2.77756,0.97378,1.57080,0.00000,-0.14512,-0.38003,0.04644,,,,,,,,,,,,,,,,,,,,,,,,,,0,0,0,0,0
0.9560,1783010407.4683,1,1,1.0000,0.0000,1.44682,0.23295,-2.77756,0.97378,1.57080,0.00000,-0.14512,-0.38003,0.04644,,,,,,,,,,,,,,,,,,,,,,,,,,0,0,0,0,0
0.9658,1783010407.4782,1,1,1.0000,0.0000,1.44682,0.23291,-2.77757,0.97383,1.57080,0.00000,-0.14512,-0.38003,0.04643,,,,,,,,,,,,,,,,,,,,,,,,,,0,0,0,0,0
0.9726,1783010407.4849,1,1,1.0000,0.0000,1.44682,0.23284,-2.77759,0.97392,1.57080,0.00000,-0.14512,-0.38003,0.04641,,,,,,,,,,,,,,,,,,,,,,,,,,0,0,0,0,0
0.9993,1783010407.5117,1,1,1.0000,0.0000,1.44682,0.23263,-2.77764,0.97419,1.57080,0.00000,-0.14512,-0.38003,0.04636,,,,,,,,,,,,,,,,,,,,,,,,,,0,0,0,0,0
1.0073,1783010407.5197,1,1,1.0000,0.0000,1.44682,0.23252,-2.77767,0.97432,1.57080,0.00000,-0.14512,-0.38003,0.04633,,,,,,,,,,,,,,,,,,,,,,,,,,0,0,0,0,0
1.0077,1783010407.5201,1,1,1.0000,0.0000,1.44682,0.23252,-2.77767,0.97432,1.57080,0.00000,-0.14512,-0.38003,0.04633,,,,,,,,,,,,,,,,,,,,,,,,,,0,0,0,0,0
1.0430,1783010407.5553,1,1,1.0000,0.0000,1.44682,0.23230,-2.77773,0.97460,1.57080,0.00000,-0.14512,-0.38003,0.04627,,,,,,,,,,,,,,,,,,,,,,,,,,0,0,0,0,0
1.0435,1783010407.5558,1,1,1.0000,0.0000,1.44682,0.23230,-2.77773,0.97460,1.57080,0.00000,-0.14512,-0.38003,0.04627,,,,,,,,,,,,,,,,,,,,,,,,,,0,0,0,0,0
1.0439,1783010407.5562,1,1,1.0000,0.0000,1.44682,0.23230,-2.77773,0.97460,1.57080,0.00000,-0.14512,-0.38003,0.04627,,,,,,,,,,,,,,,,,,,,,,,,,,0,0,0,0,0
1.0542,1783010407.5666,1,1,1.0000,0.0000,1.44682,0.23224,-2.77775,0.97468,1.57080,0.00000,-0.14512,-0.38003,0.04626,,,,,,,,,,,,,,,,,,,,,,,,,,0,0,0,0,0
1.0630,1783010407.5753,1,1,1.0000,0.0000,1.44682,0.23209,-2.77778,0.97487,1.57080,0.00000,-0.14512,-0.38003,0.04622,,,,,,,,,,,,,,,,,,,,,,,,,,0,0,0,0,0
1.0743,1783010407.5866,1,1,1.0000,0.0000,1.44682,0.23204,-2.77780,0.97493,1.57080,0.00000,-0.14512,-0.38003,0.04620,,,,,,,,,,,,,,,,,,,,,,,,,,0,0,0,0,0
1.0829,1783010407.5952,1,1,1.0000,0.0000,1.44682,0.23197,-2.77781,0.97502,1.57080,0.00000,-0.14512,-0.38003,0.04619,,,,,,,,,,,,,,,,,,,,,,,,,,0,0,0,0,0
1.0950,1783010407.6073,1,1,1.0000,0.0000,1.44682,0.23182,-2.77785,0.97520,1.57080,0.00000,-0.14512,-0.38003,0.04615,,,,,,,,,,,,,,,,,,,,,,,,,,0,0,0,0,0
1.1017,1783010407.6140,1,1,1.0000,0.0000,1.44682,0.23182,-2.77785,0.97520,1.57080,0.00000,-0.14512,-0.38003,0.04615,,,,,,,,,,,,,,,,,,,,,,,,,,0,0,0,0,0
1.1020,1783010407.6144,1,1,1.0000,0.0000,1.44682,0.23182,-2.77785,0.97520,1.57080,0.00000,-0.14512,-0.38003,0.04615,,,,,,,,,,,,,,,,,,,,,,,,,,0,0,0,0,0
1.1155,1783010407.6278,1,1,1.0000,0.0000,1.44682,0.23170,-2.77788,0.97535,1.57080,0.00000,-0.14512,-0.38003,0.04612,,,,,,,,,,,,,,,,,,,,,,,,,,0,0,0,0,0
1.1389,1783010407.6513,1,1,1.0000,0.0000,1.44682,0.23152,-2.77793,0.97558,1.57080,0.00000,-0.14512,-0.38003,0.04607,,,,,,,,,,,,,,,,,,,,,,,,,,0,0,0,0,0
1.1500,1783010407.6624,1,1,1.0000,0.0000,1.44682,0.23144,-2.77795,0.97568,1.57080,0.00000,-0.14512,-0.38003,0.04605,,,,,,,,,,,,,,,,,,,,,,,,,,0,0,0,0,0
1.1503,1783010407.6627,1,1,1.0000,0.0000,1.44682,0.23144,-2.77795,0.97568,1.57080,0.00000,-0.14512,-0.38003,0.04605,,,,,,,,,,,,,,,,,,,,,,,,,,0,0,0,0,0
1.1531,1783010407.6655,1,1,1.0000,0.0000,1.44682,0.23139,-2.77796,0.97575,1.57080,0.00000,-0.14512,-0.38003,0.04603,,,,,,,,,,,,,,,,,,,,,,,,,,0,0,0,0,0
1.1534,1783010407.6658,1,1,1.0000,0.0000,1.44682,0.23139,-2.77796,0.97575,1.57080,0.00000,-0.14512,-0.38003,0.04603,,,,,,,,,,,,,,,,,,,,,,,,,,0,0,0,0,0
1.1651,1783010407.6774,1,1,1.0000,0.0000,1.44682,0.23128,-2.77799,0.97588,1.57080,0.00000,-0.14512,-0.38003,0.04601,,,,,,,,,,,,,,,,,,,,,,,,,,0,0,0,0,0
1.1729,1783010407.6853,1,1,1.0000,0.0000,1.44682,0.23126,-2.77800,0.97591,1.57080,0.00000,-0.14512,-0.38003,0.04600,,,,,,,,,,,,,,,,,,,,,,,,,,0,0,0,0,0
1.1875,1783010407.6999,1,1,1.0000,0.0000,1.44682,0.23111,-2.77803,0.97609,1.57080,0.00000,-0.14512,-0.38003,0.04596,,,,,,,,,,,,,,,,,,,,,,,,,,0,0,0,0,0
1.1922,1783010407.7045,1,1,1.0000,0.0000,1.44682,0.23111,-2.77803,0.97609,1.57080,0.00000,-0.14512,-0.38003,0.04596,,,,,,,,,,,,,,,,,,,,,,,,,,0,0,0,0,0
1.2038,1783010407.7162,1,1,1.0000,0.0000,1.44682,0.23104,-2.77805,0.97618,1.57080,0.00000,-0.14512,-0.38003,0.04594,,,,,,,,,,,,,,,,,,,,,,,,,,0,0,0,0,0
1.2121,1783010407.7245,1,1,1.0000,0.0000,1.44682,0.23094,-2.77808,0.97631,1.57080,0.00000,-0.14512,-0.38003,0.04592,,,,,,,,,,,,,,,,,,,,,,,,,,0,0,0,0,0
1.2244,1783010407.7368,1,1,1.0000,0.0000,1.44682,0.23088,-2.77809,0.97639,1.57080,0.00000,-0.14512,-0.38003,0.04590,,,,,,,,,,,,,,,,,,,,,,,,,,0,0,0,0,0
1.2337,1783010407.7461,1,1,1.0000,0.0000,1.44682,0.23082,-2.77811,0.97646,1.57080,0.00000,-0.14512,-0.38003,0.04589,,,,,,,,,,,,,,,,,,,,,,,,,,0,0,0,0,0
1.2342,1783010407.7466,1,1,1.0000,0.0000,1.44682,0.23082,-2.77811,0.97646,1.57080,0.00000,-0.14512,-0.38003,0.04589,,,,,,,,,,,,,,,,,,,,,,,,,,0,0,0,0,0
1.2427,1783010407.7551,1,1,1.0000,0.0000,1.44682,0.23072,-2.77813,0.97658,1.57080,0.00000,-0.14512,-0.38003,0.04586,,,,,,,,,,,,,,,,,,,,,,,,,,0,0,0,0,0
1.2435,1783010407.7559,1,1,1.0000,0.0000,1.44682,0.23067,-2.77815,0.97665,1.57080,0.00000,-0.14512,-0.38003,0.04585,,,,,,,,,,,,,,,,,,,,,,,,,,0,0,0,0,0
1.2568,1783010407.7691,1,1,1.0000,0.0000,1.44682,0.23061,-2.77816,0.97672,1.57080,0.00000,-0.14512,-0.38003,0.04583,,,,,,,,,,,,,,,,,,,,,,,,,,0,0,0,0,0
1.2674,1783010407.7798,1,1,1.0000,0.0000,1.44682,0.23051,-2.77819,0.97685,1.57080,0.00000,-0.14512,-0.38003,0.04580,,,,,,,,,,,,,,,,,,,,,,,,,,0,0,0,0,0
1.2747,1783010407.7871,1,1,1.0000,0.0000,1.44682,0.23045,-2.77820,0.97692,1.57080,0.00000,-0.14512,-0.38003,0.04579,,,,,,,,,,,,,,,,,,,,,,,,,,0,0,0,0,0
1.2871,1783010407.7995,1,1,1.0000,0.0000,1.44682,0.23034,-2.77823,0.97706,1.57080,0.00000,-0.14512,-0.38003,0.04576,,,,,,,,,,,,,,,,,,,,,,,,,,0,0,0,0,0
1.2931,1783010407.8054,1,1,1.0000,0.0000,1.44682,0.23033,-2.77824,0.97708,1.57080,0.00000,-0.14512,-0.38003,0.04576,,,,,,,,,,,,,,,,,,,,,,,,,,0,0,0,0,0
1.3059,1783010407.8182,1,1,1.0000,0.0000,1.44682,0.23022,-2.77826,0.97721,1.57080,0.00000,-0.14512,-0.38003,0.04573,,,,,,,,,,,,,,,,,,,,,,,,,,0,0,0,0,0
1.3132,1783010407.8256,1,1,1.0000,0.0000,1.44682,0.23018,-2.77827,0.97726,1.57080,0.00000,-0.14512,-0.38003,0.04572,,,,,,,,,,,,,,,,,,,,,,,,,,0,0,0,0,0
1.3235,1783010407.8359,1,1,1.0000,0.0000,1.44682,0.23011,-2.77829,0.97735,1.57080,0.00000,-0.14512,-0.38003,0.04570,,,,,,,,,,,,,,,,,,,,,,,,,,0,0,0,0,0
1.3344,1783010407.8468,1,1,1.0000,0.0000,1.44682,0.23001,-2.77832,0.97748,1.57080,0.00000,-0.14512,-0.38003,0.04567,,,,,,,,,,,,,,,,,,,,,,,,,,0,0,0,0,0
1.3436,1783010407.8560,1,1,1.0000,0.0000,1.44682,0.22990,-2.77834,0.97761,1.57080,0.00000,-0.14512,-0.38003,0.04565,,,,,,,,,,,,,,,,,,,,,,,,,,0,0,0,0,0
1.3581,1783010407.8705,1,1,1.0000,0.0000,1.44682,0.22985,-2.77836,0.97767,1.57080,0.00000,-0.14512,-0.38003,0.04563,,,,,,,,,,,,,,,,,,,,,,,,,,0,0,0,0,0
1.3693,1783010407.8817,1,1,1.0000,0.0000,1.44682,0.22973,-2.77839,0.97782,1.57080,0.00000,-0.14512,-0.38003,0.04560,,,,,,,,,,,,,,,,,,,,,,,,,,0,0,0,0,0
1.3789,1783010407.8912,1,1,1.0000,0.0000,1.44682,0.22970,-2.77840,0.97787,1.57080,0.00000,-0.14512,-0.38003,0.04559,,,,,,,,,,,,,,,,,,,,,,,,,,0,0,0,0,0
1.3821,1783010407.8945,1,1,1.0000,0.0000,1.44682,0.22970,-2.77840,0.97787,1.57080,0.00000,-0.14512,-0.38003,0.04559,,,,,,,,,,,,,,,,,,,,,,,,,,0,0,0,0,0
1.3825,1783010407.8948,1,1,1.0000,0.0000,1.44682,0.22970,-2.77840,0.97787,1.57080,0.00000,-0.14512,-0.38003,0.04559,,,,,,,,,,,,,,,,,,,,,,,,,,0,0,0,0,0
1.3943,1783010407.9066,1,1,1.0000,0.0000,1.44682,0.22956,-2.77843,0.97804,1.57080,0.00000,-0.14512,-0.38003,0.04556,,,,,,,,,,,,,,,,,,,,,,,,,,0,0,0,0,0
1.4020,1783010407.9143,1,1,1.0000,0.0000,1.44682,0.22946,-2.77846,0.97817,1.57080,0.00000,-0.14512,-0.38003,0.04553,,,,,,,,,,,,,,,,,,,,,,,,,,0,0,0,0,0
1.4023,1783010407.9147,1,1,1.0000,0.0000,1.44682,0.22946,-2.77846,0.97817,1.57080,0.00000,-0.14512,-0.38003,0.04553,,,,,,,,,,,,,,,,,,,,,,,,,,0,0,0,0,0
1.4133,1783010407.9256,1,1,1.0000,0.0000,1.44682,0.22943,-2.77847,0.97820,1.57080,0.00000,-0.14512,-0.38003,0.04552,,,,,,,,,,,,,,,,,,,,,,,,,,0,0,0,0,0
1.4220,1783010407.9344,1,1,1.0000,0.0000,1.44682,0.22937,-2.77848,0.97828,1.57080,0.00000,-0.14512,-0.38003,0.04551,,,,,,,,,,,,,,,,,,,,,,,,,,0,0,0,0,0
1.4470,1783010407.9594,1,1,1.0000,0.0000,1.44682,0.22917,-2.77853,0.97853,1.57080,0.00000,-0.14512,-0.38003,0.04545,,,,,,,,,,,,,,,,,,,,,,,,,,0,0,0,0,0
1.4476,1783010407.9599,1,1,1.0000,0.0000,1.44682,0.22917,-2.77853,0.97853,1.57080,0.00000,-0.14512,-0.38003,0.04545,,,,,,,,,,,,,,,,,,,,,,,,,,0,0,0,0,0
1.4631,1783010407.9755,1,1,1.0000,0.0000,1.44682,0.22901,-2.77857,0.97873,1.57080,0.00000,-0.14512,-0.38003,0.04541,,,,,,,,,,,,,,,,,,,,,,,,,,0,0,0,0,0
1.4689,1783010407.9812,1,1,1.0000,0.0000,1.44682,0.22900,-2.77857,0.97874,1.57080,0.00000,-0.14512,-0.38003,0.04541,,,,,,,,,,,,,,,,,,,,,,,,,,0,0,0,0,0
1.4732,1783010407.9856,1,1,1.0000,0.0000,1.44682,0.22899,-2.77858,0.97876,1.57080,0.00000,-0.14512,-0.38003,0.04541,,,,,,,,,,,,,,,,,,,,,,,,,,0,0,0,0,0
1.4735,1783010407.9859,1,1,1.0000,0.0000,1.44682,0.22899,-2.77858,0.97876,1.57080,0.00000,-0.14512,-0.38003,0.04541,,,,,,,,,,,,,,,,,,,,,,,,,,0,0,0,0,0
1.4884,1783010408.0007,1,1,1.0000,0.0000,1.44682,0.22884,-2.77862,0.97895,1.57080,0.00000,-0.14512,-0.38003,0.04537,,,,,,,,,,,,,,,,,,,,,,,,,,0,0,0,0,0
1.5082,1783010408.0205,1,1,1.0000,0.0000,1.44682,0.22872,-2.77865,0.97910,1.57080,0.00000,-0.14512,-0.38003,0.04534,,,,,,,,,,,,,,,,,,,,,,,,,,0,0,0,0,0
1.5086,1783010408.0210,1,1,1.0000,0.0000,1.44682,0.22872,-2.77865,0.97910,1.57080,0.00000,-0.14512,-0.38003,0.04534,,,,,,,,,,,,,,,,,,,,,,,,,,0,0,0,0,0
1.5118,1783010408.0241,1,1,1.0000,0.0000,1.44682,0.22867,-2.77866,0.97916,1.57080,0.00000,-0.14512,-0.38003,0.04533,,,,,,,,,,,,,,,,,,,,,,,,,,0,0,0,0,0
1.5120,1783010408.0244,1,1,1.0000,0.0000,1.44682,0.22867,-2.77866,0.97916,1.57080,0.00000,-0.14512,-0.38003,0.04533,,,,,,,,,,,,,,,,,,,,,,,,,,0,0,0,0,0
1.5155,1783010408.0278,1,1,1.0000,0.0000,1.44682,0.22861,-2.77867,0.97923,1.57080,0.00000,-0.14512,-0.38003,0.04531,,,,,,,,,,,,,,,,,,,,,,,,,,0,0,0,0,0
1.5235,1783010408.0359,1,1,1.0000,0.0000,1.44682,0.22856,-2.77869,0.97929,1.57080,0.00000,-0.14512,-0.38003,0.04530,,,,,,,,,,,,,,,,,,,,,,,,,,0,0,0,0,0
1.5239,1783010408.0362,1,1,1.0000,0.0000,1.44682,0.22856,-2.77869,0.97929,1.57080,0.00000,-0.14512,-0.38003,0.04530,,,,,,,,,,,,,,,,,,,,,,,,,,0,0,0,0,0
1.5389,1783010408.0512,1,1,1.0000,0.0000,1.44682,0.22848,-2.77871,0.97940,1.57080,0.00000,-0.14512,-0.38003,0.04528,,,,,,,,,,,,,,,,,,,,,,,,,,0,0,0,0,0
1.5454,1783010408.0578,1,1,1.0000,0.0000,1.44682,0.22844,-2.77872,0.97945,1.57080,0.00000,-0.14512,-0.38003,0.04526,,,,,,,,,,,,,,,,,,,,,,,,,,0,0,0,0,0
1.5543,1783010408.0667,1,1,1.0000,0.0000,1.44682,0.22839,-2.77873,0.97951,1.57080,0.00000,-0.14512,-0.38003,0.04525,,,,,,,,,,,,,,,,,,,,,,,,,,0,0,0,0,0
1.5631,1783010408.0754,1,1,1.0000,0.0000,1.44682,0.22832,-2.77875,0.97960,1.57080,0.00000,-0.14512,-0.38003,0.04523,,,,,,,,,,,,,,,,,,,,,,,,,,0,0,0,0,0
1.5634,1783010408.0758,1,1,1.0000,0.0000,1.44682,0.22832,-2.77875,0.97960,1.57080,0.00000,-0.14512,-0.38003,0.04523,,,,,,,,,,,,,,,,,,,,,,,,,,0,0,0,0,0
1.5746,1783010408.0870,1,1,1.0000,0.0000,1.44682,0.22822,-2.77877,0.97972,1.57080,0.00000,-0.14512,-0.38003,0.04521,,,,,,,,,,,,,,,,,,,,,,,,,,0,0,0,0,0
1.5821,1783010408.0945,1,1,1.0000,0.0000,1.44682,0.22812,-2.77880,0.97985,1.57080,0.00000,-0.14512,-0.38003,0.04518,,,,,,,,,,,,,,,,,,,,,,,,,,0,0,0,0,0
1.5943,1783010408.1066,1,1,1.0000,0.0000,1.44682,0.22809,-2.77881,0.97989,1.57080,0.00000,-0.14512,-0.38003,0.04518,,,,,,,,,,,,,,,,,,,,,,,,,,0,0,0,0,0
1.6022,1783010408.1145,1,1,1.0000,0.0000,1.44682,0.22803,-2.77882,0.97996,1.57080,0.00000,-0.14512,-0.38003,0.04516,,,,,,,,,,,,,,,,,,,,,,,,,,0,0,0,0,0
1.6121,1783010408.1244,1,1,1.0000,0.0000,1.44682,0.22794,-2.77884,0.98007,1.57080,0.00000,-0.14512,-0.38003,0.04514,,,,,,,,,,,,,,,,,,,,,,,,,,0,0,0,0,0
1.6221,1783010408.1345,1,1,1.0000,0.0000,1.44682,0.22791,-2.77885,0.98011,1.57080,0.00000,-0.14512,-0.38003,0.04513,,,,,,,,,,,,,,,,,,,,,,,,,,0,0,0,0,0
1.6333,1783010408.1457,1,1,1.0000,0.0000,1.44682,0.22777,-2.77889,0.98028,1.57080,0.00000,-0.14512,-0.38003,0.04509,,,,,,,,,,,,,,,,,,,,,,,,,,0,0,0,0,0
1.6478,1783010408.1601,1,1,1.0000,0.0000,1.44682,0.22766,-2.77892,0.98043,1.57080,0.00000,-0.14512,-0.38003,0.04506,,,,,,,,,,,,,,,,,,,,,,,,,,0,0,0,0,0
1.6523,1783010408.1646,1,1,1.0000,0.0000,1.44682,0.22763,-2.77892,0.98046,1.57080,0.00000,-0.14512,-0.38003,0.04506,,,,,,,,,,,,,,,,,,,,,,,,,,0,0,0,0,0
1.6653,1783010408.1777,1,1,1.0000,0.0000,1.44682,0.22750,-2.77896,0.98063,1.57080,0.00000,-0.14512,-0.38003,0.04502,,,,,,,,,,,,,,,,,,,,,,,,,,0,0,0,0,0
1.6721,1783010408.1844,1,1,1.0000,0.0000,1.44682,0.22745,-2.77897,0.98069,1.57080,0.00000,-0.14512,-0.38003,0.04501,,,,,,,,,,,,,,,,,,,,,,,,,,0,0,0,0,0
1.6841,1783010408.1964,1,1,1.0000,0.0000,1.44682,0.22738,-2.77899,0.98078,1.57080,0.00000,-0.14512,-0.38003,0.04499,,,,,,,,,,,,,,,,,,,,,,,,,,0,0,0,0,0
1.6843,1783010408.1966,1,1,1.0000,0.0000,1.44682,0.22738,-2.77899,0.98078,1.57080,0.00000,-0.14512,-0.38003,0.04499,,,,,,,,,,,,,,,,,,,,,,,,,,0,0,0,0,0
1.6923,1783010408.2046,1,1,1.0000,0.0000,1.44682,0.22728,-2.77901,0.98090,1.57080,0.00000,-0.14512,-0.38003,0.04497,,,,,,,,,,,,,,,,,,,,,,,,,,0,0,0,0,0
1.7022,1783010408.2146,1,1,1.0000,0.0000,1.44682,0.22718,-2.77904,0.98103,1.57080,0.00000,-0.14512,-0.38003,0.04494,,,,,,,,,,,,,,,,,,,,,,,,,,0,0,0,0,0
1.7161,1783010408.2284,1,1,1.0000,0.0000,1.44682,0.22711,-2.77906,0.98112,1.57080,0.00001,-0.14512,-0.38003,0.04492,,,,,,,,,,,,,,,,,,,,,,,,,,0,0,0,0,0
1.7272,1783010408.2396,1,1,1.0000,0.0000,1.44682,0.22696,-2.77910,0.98130,1.57080,0.00001,-0.14512,-0.38003,0.04488,,,,,,,,,,,,,,,,,,,,,,,,,,0,0,0,0,0
1.7275,1783010408.2399,1,1,1.0000,0.0000,1.44682,0.22696,-2.77910,0.98130,1.57080,0.00001,-0.14512,-0.38003,0.04488,,,,,,,,,,,,,,,,,,,,,,,,,,0,0,0,0,0
1.7346,1783010408.2470,1,1,1.0000,0.0000,1.44682,0.22696,-2.77910,0.98130,1.57080,0.00001,-0.14512,-0.38003,0.04488,,,,,,,,,,,,,,,,,,,,,,,,,,0,0,0,0,0
1.7505,1783010408.2628,1,1,1.0000,0.0000,1.44682,0.22684,-2.77912,0.98145,1.57080,0.00001,-0.14512,-0.38003,0.04485,,,,,,,,,,,,,,,,,,,,,,,,,,0,0,0,0,0
1.7526,1783010408.2650,1,1,1.0000,0.0000,1.44682,0.22679,-2.77914,0.98151,1.57080,0.00001,-0.14512,-0.38003,0.04484,,,,,,,,,,,,,,,,,,,,,,,,,,0,0,0,0,0
1.7529,1783010408.2653,1,1,1.0000,0.0000,1.44682,0.22679,-2.77914,0.98151,1.57080,0.00001,-0.14512,-0.38003,0.04484,,,,,,,,,,,,,,,,,,,,,,,,,,0,0,0,0,0
1.7645,1783010408.2768,1,1,1.0000,0.0000,1.44682,0.22669,-2.77916,0.98164,1.57080,0.00001,-0.14512,-0.38003,0.04481,,,,,,,,,,,,,,,,,,,,,,,,,,0,0,0,0,0
1.7733,1783010408.2857,1,1,1.0000,0.0000,1.44682,0.22666,-2.77917,0.98168,1.57080,0.00001,-0.14512,-0.38003,0.04480,,,,,,,,,,,,,,,,,,,,,,,,,,0,0,0,0,0
1.7826,1783010408.2949,1,1,1.0000,0.0000,1.44682,0.22657,-2.77919,0.98179,1.57080,0.00001,-0.14512,-0.38003,0.04478,,,,,,,,,,,,,,,,,,,,,,,,,,0,0,0,0,0
1.7833,1783010408.2956,1,1,1.0000,0.0000,1.44682,0.22652,-2.77921,0.98185,1.57080,0.00001,-0.14512,-0.38003,0.04477,,,,,,,,,,,,,,,,,,,,,,,,,,0,0,0,0,0
1.7958,1783010408.3081,1,1,1.0000,0.0000,1.44682,0.22646,-2.77922,0.98193,1.57080,0.00001,-0.14512,-0.38003,0.04475,,,,,,,,,,,,,,,,,,,,,,,,,,0,0,0,0,0
1.8024,1783010408.3147,1,1,1.0000,0.0000,1.44682,0.22644,-2.77923,0.98196,1.57080,0.00001,-0.14512,-0.38003,0.04475,,,,,,,,,,,,,,,,,,,,,,,,,,0,0,0,0,0
1.8140,1783010408.3263,1,1,1.0000,0.0000,1.44682,0.22630,-2.77926,0.98213,1.57080,0.00001,-0.14512,-0.38003,0.04471,,,,,,,,,,,,,,,,,,,,,,,,,,0,0,0,0,0
1.8235,1783010408.3358,1,1,1.0000,0.0000,1.44682,0.22620,-2.77929,0.98225,1.57080,0.00001,-0.14512,-0.38003,0.04468,,,,,,,,,,,,,,,,,,,,,,,,,,0,0,0,0,0
1.8238,1783010408.3361,1,1,1.0000,0.0000,1.44682,0.22620,-2.77929,0.98225,1.57080,0.00001,-0.14512,-0.38003,0.04468,,,,,,,,,,,,,,,,,,,,,,,,,,0,0,0,0,0
1.8486,1783010408.3610,1,1,1.0000,0.0000,1.44682,0.22598,-2.77934,0.98253,1.57080,0.00001,-0.14512,-0.38003,0.04463,,,,,,,,,,,,,,,,,,,,,,,,,,0,0,0,0,0
1.8490,1783010408.3613,1,1,1.0000,0.0000,1.44682,0.22598,-2.77934,0.98253,1.57080,0.00001,-0.14512,-0.38003,0.04463,,,,,,,,,,,,,,,,,,,,,,,,,,0,0,0,0,0
1.8840,1783010408.3964,1,1,1.0000,0.0000,1.44682,0.22571,-2.77941,0.98287,1.57080,0.00001,-0.14512,-0.38003,0.04456,,,,,,,,,,,,,,,,,,,,,,,,,,0,0,0,0,0
1.8843,1783010408.3966,1,1,1.0000,0.0000,1.44682,0.22571,-2.77941,0.98287,1.57080,0.00001,-0.14512,-0.38003,0.04456,,,,,,,,,,,,,,,,,,,,,,,,,,0,0,0,0,0
1.8846,1783010408.3970,1,1,1.0000,0.0000,1.44682,0.22571,-2.77941,0.98287,1.57080,0.00001,-0.14512,-0.38003,0.04456,,,,,,,,,,,,,,,,,,,,,,,,,,0,0,0,0,0
1.8849,1783010408.3972,1,1,1.0000,0.0000,1.44682,0.22571,-2.77941,0.98287,1.57080,0.00001,-0.14512,-0.38003,0.04456,,,,,,,,,,,,,,,,,,,,,,,,,,0,0,0,0,0
1.8934,1783010408.4057,1,1,1.0000,0.0000,1.44682,0.22568,-2.77942,0.98291,1.57080,0.00001,-0.14512,-0.38003,0.04455,,,,,,,,,,,,,,,,,,,,,,,,,,0,0,0,0,0
1.9053,1783010408.4176,1,1,1.0000,0.0000,1.44682,0.22554,-2.77945,0.98308,1.57080,0.00001,-0.14512,-0.38003,0.04451,,,,,,,,,,,,,,,,,,,,,,,,,,0,0,0,0,0
1.9159,1783010408.4283,1,1,1.0000,0.0000,1.44682,0.22544,-2.77948,0.98321,1.57080,0.00001,-0.14512,-0.38003,0.04449,,,,,,,,,,,,,,,,,,,,,,,,,,0,0,0,0,0
1.9247,1783010408.4371,1,1,1.0000,0.0000,1.44682,0.22542,-2.77948,0.98323,1.57080,0.00001,-0.14512,-0.38003,0.04448,,,,,,,,,,,,,,,,,,,,,,,,,,0,0,0,0,0
1.9369,1783010408.4492,1,1,1.0000,0.0000,1.44682,0.22535,-2.77950,0.98332,1.57080,0.00001,-0.14512,-0.38003,0.04446,,,,,,,,,,,,,,,,,,,,,,,,,,0,0,0,0,0
1.9371,1783010408.4495,1,1,1.0000,0.0000,1.44682,0.22535,-2.77950,0.98332,1.57080,0.00001,-0.14512,-0.38003,0.04446,,,,,,,,,,,,,,,,,,,,,,,,,,0,0,0,0,0
1.9432,1783010408.4556,1,1,1.0000,0.0000,1.44682,0.22531,-2.77951,0.98337,1.57080,0.00001,-0.14512,-0.38003,0.04445,,,,,,,,,,,,,,,,,,,,,,,,,,0,0,0,0,0
1.9528,1783010408.4652,1,1,1.0000,0.0000,1.44682,0.22528,-2.77952,0.98341,1.57080,0.00001,-0.14512,-0.38003,0.04445,,,,,,,,,,,,,,,,,,,,,,,,,,0,0,0,0,0
1.9534,1783010408.4657,1,1,1.0000,0.0000,1.44682,0.22528,-2.77952,0.98341,1.57080,0.00001,-0.14512,-0.38003,0.04445,,,,,,,,,,,,,,,,,,,,,,,,,,0,0,0,0,0
1.9624,1783010408.4748,1,1,1.0000,0.0000,1.44682,0.22519,-2.77954,0.98352,1.57080,0.00001,-0.14512,-0.38002,0.04442,,,,,,,,,,,,,,,,,,,,,,,,,,0,0,0,0,0
1.9743,1783010408.4867,1,1,1.0000,0.0000,1.44682,0.22503,-2.77958,0.98373,1.57080,0.00001,-0.14512,-0.38002,0.04438,,,,,,,,,,,,,,,,,,,,,,,,,,0,0,0,0,0
1.9905,1783010408.5029,1,1,1.0000,0.0000,1.44682,0.22498,-2.77960,0.98379,1.57080,0.00001,-0.14512,-0.38002,0.04437,,,,,,,,,,,,,,,,,,,,,,,,,,0,0,0,0,0
1.9923,1783010408.5046,1,1,1.0000,0.0000,1.44682,0.22494,-2.77961,0.98383,1.57080,0.00001,-0.14512,-0.38002,0.04436,,,,,,,,,,,,,,,,,,,,,,,,,,0,0,0,0,0
1.9925,1783010408.5048,1,1,1.0000,0.0000,1.44682,0.22494,-2.77961,0.98383,1.57080,0.00001,-0.14512,-0.38002,0.04436,,,,,,,,,,,,,,,,,,,,,,,,,,0,0,0,0,0
2.0020,1783010408.5143,1,1,1.0000,0.0000,1.44682,0.22486,-2.77963,0.98394,1.57080,0.00001,-0.14512,-0.38002,0.04434,,,,,,,,,,,,,,,,,,,,,,,,,,0,0,0,0,0
2.0163,1783010408.5287,1,1,1.0000,0.0000,1.44682,0.22478,-2.77965,0.98403,1.57080,0.00001,-0.14512,-0.38002,0.04432,,,,,,,,,,,,,,,,,,,,,,,,,,0,0,0,0,0
2.0219,1783010408.5342,1,1,1.0000,0.0000,1.44682,0.22474,-2.77966,0.98409,1.57080,0.00001,-0.14512,-0.38002,0.04431,,,,,,,,,,,,,,,,,,,,,,,,,,0,0,0,0,0
2.0224,1783010408.5347,1,1,1.0000,0.0000,1.44682,0.22474,-2.77966,0.98409,1.57080,0.00001,-0.14512,-0.38002,0.04431,,,,,,,,,,,,,,,,,,,,,,,,,,0,0,0,0,0
2.0334,1783010408.5457,1,1,1.0000,0.0000,1.44682,0.22458,-2.77970,0.98429,1.57080,0.00001,-0.14512,-0.38002,0.04427,,,,,,,,,,,,,,,,,,,,,,,,,,0,0,0,0,0
2.0524,1783010408.5647,1,1,1.0000,0.0000,1.44682,0.22449,-2.77972,0.98440,1.57080,0.00001,-0.14512,-0.38002,0.04424,,,,,,,,,,,,,,,,,,,,,,,,,,0,0,0,0,0
2.0531,1783010408.5654,1,1,1.0000,0.0000,1.44682,0.22449,-2.77972,0.98440,1.57080,0.00001,-0.14512,-0.38002,0.04424,,,,,,,,,,,,,,,,,,,,,,,,,,0,0,0,0,0
2.0535,1783010408.5658,1,1,1.0000,0.0000,1.44682,0.22449,-2.77972,0.98440,1.57080,0.00001,-0.14512,-0.38002,0.04424,,,,,,,,,,,,,,,,,,,,,,,,,,0,0,0,0,0
2.0627,1783010408.5750,1,1,1.0000,0.0000,1.44682,0.22441,-2.77974,0.98450,1.57080,0.00001,-0.14512,-0.38002,0.04422,,,,,,,,,,,,,,,,,,,,,,,,,,0,0,0,0,0
2.0762,1783010408.5886,1,1,1.0000,0.0000,1.44682,0.22433,-2.77976,0.98459,1.57080,0.00001,-0.14512,-0.38002,0.04420,,,,,,,,,,,,,,,,,,,,,,,,,,0,0,0,0,0
2.0823,1783010408.5946,1,1,1.0000,0.0000,1.44682,0.22429,-2.77977,0.98465,1.57080,0.00001,-0.14512,-0.38002,0.04419,,,,,,,,,,,,,,,,,,,,,,,,,,0,0,0,0,0
2.0937,1783010408.6061,1,1,1.0000,0.0000,1.44682,0.22413,-2.77981,0.98485,1.57080,0.00001,-0.14512,-0.38002,0.04415,,,,,,,,,,,,,,,,,,,,,,,,,,0,0,0,0,0
2.1030,1783010408.6153,1,1,1.0000,0.0000,1.44682,0.22410,-2.77982,0.98488,1.57080,0.00001,-0.14512,-0.38002,0.04414,,,,,,,,,,,,,,,,,,,,,,,,,,0,0,0,0,0
2.1120,1783010408.6244,1,1,1.0000,0.0000,1.44682,0.22404,-2.77983,0.98496,1.57080,0.00001,-0.14512,-0.38002,0.04413,,,,,,,,,,,,,,,,,,,,,,,,,,0,0,0,0,0
2.1244,1783010408.6368,1,1,1.0000,0.0000,1.44682,0.22396,-2.77985,0.98507,1.57080,0.00001,-0.14512,-0.38002,0.04410,,,,,,,,,,,,,,,,,,,,,,,,,,0,0,0,0,0
2.1337,1783010408.6460,1,1,1.0000,0.0000,1.44682,0.22392,-2.77986,0.98511,1.57080,0.00001,-0.14512,-0.38002,0.04410,,,,,,,,,,,,,,,,,,,,,,,,,,0,0,0,0,0
2.1430,1783010408.6554,1,1,1.0000,0.0000,1.44682,0.22378,-2.77990,0.98528,1.57080,0.00001,-0.14512,-0.38002,0.04406,,,,,,,,,,,,,,,,,,,,,,,,,,0,0,0,0,0
2.1554,1783010408.6678,1,1,1.0000,0.0000,1.44682,0.22368,-2.77992,0.98541,1.57080,0.00001,-0.14512,-0.38002,0.04403,,,,,,,,,,,,,,,,,,,,,,,,,,0,0,0,0,0
2.1558,1783010408.6681,1,1,1.0000,0.0000,1.44682,0.22368,-2.77992,0.98541,1.57080,0.00001,-0.14512,-0.38002,0.04403,,,,,,,,,,,,,,,,,,,,,,,,,,0,0,0,0,0
2.1655,1783010408.6778,1,1,1.0000,0.0000,1.44682,0.22365,-2.77993,0.98544,1.57080,0.00001,-0.14512,-0.38002,0.04403,,,,,,,,,,,,,,,,,,,,,,,,,,0,0,0,0,0
2.1750,1783010408.6873,1,1,1.0000,0.0000,1.44682,0.22355,-2.77996,0.98557,1.57080,0.00001,-0.14512,-0.38002,0.04400,,,,,,,,,,,,,,,,,,,,,,,,,,0,0,0,0,0
2.1751,1783010408.6875,1,1,1.0000,0.0000,1.44682,0.22355,-2.77996,0.98557,1.57080,0.00001,-0.14512,-0.38002,0.04400,,,,,,,,,,,,,,,,,,,,,,,,,,0,0,0,0,0
2.1834,1783010408.6957,1,1,1.0000,0.0000,1.44682,0.22351,-2.77997,0.98563,1.57080,0.00001,-0.14512,-0.38002,0.04399,,,,,,,,,,,,,,,,,,,,,,,,,,0,0,0,0,0
2.2034,1783010408.7157,1,1,1.0000,0.0000,1.44682,0.22333,-2.78001,0.98585,1.57080,0.00001,-0.14512,-0.38002,0.04394,,,,,,,,,,,,,,,,,,,,,,,,,,0,0,0,0,0
2.2038,1783010408.7161,1,1,1.0000,0.0000,1.44682,0.22333,-2.78001,0.98585,1.57080,0.00001,-0.14512,-0.38002,0.04394,,,,,,,,,,,,,,,,,,,,,,,,,,0,0,0,0,0
2.2041,1783010408.7164,1,1,1.0000,0.0000,1.44682,0.22333,-2.78001,0.98585,1.57080,0.00001,-0.14512,-0.38002,0.04394,,,,,,,,,,,,,,,,,,,,,,,,,,0,0,0,0,0
2.2118,1783010408.7242,1,1,1.0000,0.0000,1.44682,0.22323,-2.78004,0.98598,1.57080,0.00001,-0.14512,-0.38002,0.04392,,,,,,,,,,,,,,,,,,,,,,,,,,0,0,0,0,0
2.2123,1783010408.7247,1,1,1.0000,0.0000,1.44682,0.22323,-2.78004,0.98598,1.57080,0.00001,-0.14512,-0.38002,0.04392,,,,,,,,,,,,,,,,,,,,,,,,,,0,0,0,0,0
2.2220,1783010408.7344,1,1,1.0000,0.0000,1.44682,0.22322,-2.78004,0.98599,1.57080,0.00001,-0.14512,-0.38002,0.04391,,,,,,,,,,,,,,,,,,,,,,,,,,0,0,0,0,0
2.2333,1783010408.7457,1,1,1.0000,0.0000,1.44682,0.22314,-2.78006,0.98609,1.57080,0.00001,-0.14512,-0.38002,0.04389,,,,,,,,,,,,,,,,,,,,,,,,,,0,0,0,0,0
2.2421,1783010408.7545,1,1,1.0000,0.0000,1.44682,0.22305,-2.78008,0.98619,1.57080,0.00001,-0.14512,-0.38002,0.04387,,,,,,,,,,,,,,,,,,,,,,,,,,0,0,0,0,0
2.2556,1783010408.7680,1,1,1.0000,0.0000,1.44682,0.22298,-2.78010,0.98628,1.57080,0.00001,-0.14512,-0.38002,0.04385,,,,,,,,,,,,,,,,,,,,,,,,,,0,0,0,0,0
2.2630,1783010408.7754,1,1,1.0000,0.0000,1.44682,0.22288,-2.78012,0.98641,1.57080,0.00001,-0.14512,-0.38002,0.04383,,,,,,,,,,,,,,,,,,,,,,,,,,0,0,0,0,0
2.2721,1783010408.7845,1,1,1.0000,0.0000,1.44682,0.22278,-2.78015,0.98654,1.57080,0.00001,-0.14512,-0.38002,0.04380,,,,,,,,,,,,,,,,,,,,,,,,,,0,0,0,0,0
2.2818,1783010408.7941,1,1,1.0000,0.0000,1.44682,0.22277,-2.78015,0.98655,1.57080,0.00001,-0.14512,-0.38002,0.04380,,,,,,,,,,,,,,,,,,,,,,,,,,0,0,0,0,0
2.2821,1783010408.7945,1,1,1.0000,0.0000,1.44682,0.22277,-2.78015,0.98655,1.57080,0.00001,-0.14512,-0.38002,0.04380,,,,,,,,,,,,,,,,,,,,,,,,,,0,0,0,0,0
2.2930,1783010408.8054,1,1,1.0000,0.0000,1.44681,0.22269,-2.78017,0.98665,1.57080,0.00001,-0.14512,-0.38002,0.04378,,,,,,,,,,,,,,,,,,,,,,,,,,0,0,0,0,0
2.3100,1783010408.8223,1,1,1.0000,0.0000,1.44681,0.22259,-2.78020,0.98677,1.57080,0.00001,-0.14512,-0.38002,0.04375,,,,,,,,,,,,,,,,,,,,,,,,,,0,0,0,0,0
2.3142,1783010408.8265,1,1,1.0000,0.0000,1.44681,0.22257,-2.78020,0.98680,1.57080,0.00001,-0.14512,-0.38002,0.04375,,,,,,,,,,,,,,,,,,,,,,,,,,0,0,0,0,0
2.3235,1783010408.8358,1,1,1.0000,0.0000,1.44681,0.22243,-2.78024,0.98697,1.57080,0.00001,-0.14512,-0.38002,0.04371,,,,,,,,,,,,,,,,,,,,,,,,,,0,0,0,0,0
2.3238,1783010408.8362,1,1,1.0000,0.0000,1.44681,0.22243,-2.78024,0.98697,1.57080,0.00001,-0.14512,-0.38002,0.04371,,,,,,,,,,,,,,,,,,,,,,,,,,0,0,0,0,0
2.3326,1783010408.8449,1,1,1.0000,0.0000,1.44681,0.22232,-2.78026,0.98711,1.57080,0.00001,-0.14512,-0.38002,0.04368,,,,,,,,,,,,,,,,,,,,,,,,,,0,0,0,0,0
2.3434,1783010408.8557,1,1,1.0000,0.0000,1.44681,0.22229,-2.78027,0.98715,1.57080,0.00001,-0.14512,-0.38002,0.04367,,,,,,,,,,,,,,,,,,,,,,,,,,0,0,0,0,0
2.3437,1783010408.8560,1,1,1.0000,0.0000,1.44681,0.22229,-2.78027,0.98715,1.57080,0.00001,-0.14512,-0.38002,0.04367,,,,,,,,,,,,,,,,,,,,,,,,,,0,0,0,0,0
2.3823,1783010408.8946,1,1,1.0000,0.0000,1.44681,0.22199,-2.78035,0.98753,1.57080,0.00001,-0.14512,-0.38002,0.04360,,,,,,,,,,,,,,,,,,,,,,,,,,0,0,0,0,0
2.3833,1783010408.8956,1,1,1.0000,0.0000,1.44681,0.22194,-2.78036,0.98759,1.57080,0.00001,-0.14512,-0.38002,0.04358,,,,,,,,,,,,,,,,,,,,,,,,,,0,0,0,0,0
2.3835,1783010408.8958,1,1,1.0000,0.0000,1.44681,0.22194,-2.78036,0.98759,1.57080,0.00001,-0.14512,-0.38002,0.04358,,,,,,,,,,,,,,,,,,,,,,,,,,0,0,0,0,0
2.3837,1783010408.8961,1,1,1.0000,0.0000,1.44681,0.22194,-2.78036,0.98759,1.57080,0.00001,-0.14512,-0.38002,0.04358,,,,,,,,,,,,,,,,,,,,,,,,,,0,0,0,0,0
2.3841,1783010408.8964,1,1,1.0000,0.0000,1.44681,0.22194,-2.78036,0.98759,1.57080,0.00001,-0.14512,-0.38002,0.04358,,,,,,,,,,,,,,,,,,,,,,,,,,0,0,0,0,0
2.3937,1783010408.9060,1,1,1.0000,0.0000,1.44681,0.22183,-2.78039,0.98772,1.57080,0.00001,-0.14512,-0.38002,0.04356,,,,,,,,,,,,,,,,,,,,,,,,,,0,0,0,0,0
2.3940,1783010408.9063,1,1,1.0000,0.0000,1.44681,0.22183,-2.78039,0.98772,1.57080,0.00001,-0.14512,-0.38002,0.04356,,,,,,,,,,,,,,,,,,,,,,,,,,0,0,0,0,0
2.4071,1783010408.9194,1,1,1.0000,0.0000,1.44681,0.22176,-2.78040,0.98781,1.57080,0.00001,-0.14512,-0.38002,0.04354,,,,,,,,,,,,,,,,,,,,,,,,,,0,0,0,0,0
2.4118,1783010408.9242,1,1,1.0000,0.0000,1.44681,0.22171,-2.78042,0.98787,1.57080,0.00001,-0.14512,-0.38002,0.04353,,,,,,,,,,,,,,,,,,,,,,,,,,0,0,0,0,0
2.4122,1783010408.9246,1,1,1.0000,0.0000,1.44681,0.22171,-2.78042,0.98787,1.57080,0.00001,-0.14512,-0.38002,0.04353,,,,,,,,,,,,,,,,,,,,,,,,,,0,0,0,0,0
2.4278,1783010408.9402,1,1,1.0000,0.0000,1.44681,0.22160,-2.78044,0.98801,1.57080,0.00001,-0.14512,-0.38002,0.04350,,,,,,,,,,,,,,,,,,,,,,,,,,0,0,0,0,0
2.4335,1783010408.9458,1,1,1.0000,0.0000,1.44681,0.22158,-2.78045,0.98804,1.57080,0.00001,-0.14512,-0.38002,0.04349,,,,,,,,,,,,,,,,,,,,,,,,,,0,0,0,0,0
2.4339,1783010408.9462,1,1,1.0000,0.0000,1.44681,0.22158,-2.78045,0.98804,1.57080,0.00001,-0.14512,-0.38002,0.04349,,,,,,,,,,,,,,,,,,,,,,,,,,0,0,0,0,0
2.4441,1783010408.9565,1,1,1.0000,0.0000,1.44681,0.22144,-2.78048,0.98821,1.57080,0.00001,-0.14512,-0.38002,0.04346,,,,,,,,,,,,,,,,,,,,,,,,,,0,0,0,0,0
2.4559,1783010408.9683,1,1,1.0000,0.0000,1.44681,0.22134,-2.78051,0.98834,1.57080,0.00001,-0.14512,-0.38002,0.04343,,,,,,,,,,,,,,,,,,,,,,,,,,0,0,0,0,0
2.4630,1783010408.9753,1,1,1.0000,0.0000,1.44681,0.22131,-2.78052,0.98838,1.57080,0.00001,-0.14512,-0.38002,0.04342,,,,,,,,,,,,,,,,,,,,,,,,,,0,0,0,0,0
2.4721,1783010408.9844,1,1,1.0000,0.0000,1.44681,0.22122,-2.78054,0.98848,1.57080,0.00001,-0.14512,-0.38002,0.04340,,,,,,,,,,,,,,,,,,,,,,,,,,0,0,0,0,0
2.4821,1783010408.9944,1,1,1.0000,0.0000,1.44681,0.22112,-2.78056,0.98861,1.57080,0.00001,-0.14512,-0.38002,0.04337,,,,,,,,,,,,,,,,,,,,,,,,,,0,0,0,0,0
2.4980,1783010409.0103,1,1,1.0000,0.0000,1.44681,0.22105,-2.78058,0.98870,1.57080,0.00001,-0.14512,-0.38002,0.04335,,,,,,,,,,,,,,,,,,,,,,,,,,0,0,0,0,0
2.4983,1783010409.0107,1,1,1.0000,0.0000,1.44681,0.22105,-2.78058,0.98870,1.57080,0.00001,-0.14512,-0.38002,0.04335,,,,,,,,,,,,,,,,,,,,,,,,,,0,0,0,0,0
2.5052,1783010409.0175,1,1,1.0000,0.0000,1.44681,0.22095,-2.78061,0.98882,1.57080,0.00001,-0.14512,-0.38002,0.04333,,,,,,,,,,,,,,,,,,,,,,,,,,0,0,0,0,0
2.5238,1783010409.0361,1,1,1.0000,0.0000,1.44681,0.22081,-2.78064,0.98900,1.57080,0.00001,-0.14512,-0.38002,0.04329,,,,,,,,,,,,,,,,,,,,,,,,,,0,0,0,0,0
2.5244,1783010409.0368,1,1,1.0000,0.0000,1.44681,0.22081,-2.78064,0.98900,1.57080,0.00001,-0.14512,-0.38002,0.04329,,,,,,,,,,,,,,,,,,,,,,,,,,0,0,0,0,0
2.5321,1783010409.0444,1,1,1.0000,0.0000,1.44681,0.22073,-2.78066,0.98910,1.57080,0.00001,-0.14512,-0.38002,0.04327,,,,,,,,,,,,,,,,,,,,,,,,,,0,0,0,0,0
2.5540,1783010409.0663,1,1,1.0000,0.0000,1.44681,0.22059,-2.78070,0.98927,1.57080,0.00001,-0.14512,-0.38002,0.04324,,,,,,,,,,,,,,,,,,,,,,,,,,0,0,0,0,0
2.5543,1783010409.0667,1,1,1.0000,0.0000,1.44681,0.22059,-2.78070,0.98927,1.57080,0.00001,-0.14512,-0.38002,0.04324,,,,,,,,,,,,,,,,,,,,,,,,,,0,0,0,0,0
2.5693,1783010409.0816,1,1,1.0000,0.0000,1.44681,0.22040,-2.78074,0.98951,1.57080,0.00001,-0.14512,-0.38002,0.04319,,,,,,,,,,,,,,,,,,,,,,,,,,0,0,0,0,0
2.5741,1783010409.0864,1,1,1.0000,0.0000,1.44681,0.22035,-2.78075,0.98957,1.57080,0.00001,-0.14512,-0.38002,0.04318,,,,,,,,,,,,,,,,,,,,,,,,,,0,0,0,0,0
2.5846,1783010409.0969,1,1,1.0000,0.0000,1.44681,0.22032,-2.78076,0.98961,1.57080,0.00001,-0.14512,-0.38002,0.04317,,,,,,,,,,,,,,,,,,,,,,,,,,0,0,0,0,0
2.5849,1783010409.0973,1,1,1.0000,0.0000,1.44681,0.22032,-2.78076,0.98961,1.57080,0.00001,-0.14512,-0.38002,0.04317,,,,,,,,,,,,,,,,,,,,,,,,,,0,0,0,0,0
2.5920,1783010409.1044,1,1,1.0000,0.0000,1.44681,0.22023,-2.78078,0.98972,1.57080,0.00001,-0.14512,-0.38002,0.04315,,,,,,,,,,,,,,,,,,,,,,,,,,0,0,0,0,0
2.6098,1783010409.1222,1,1,1.0000,0.0000,1.44681,0.22012,-2.78081,0.98986,1.57080,0.00001,-0.14512,-0.38002,0.04312,,,,,,,,,,,,,,,,,,,,,,,,,,0,0,0,0,0
2.6226,1783010409.1350,1,1,1.0000,0.0000,1.44681,0.22001,-2.78084,0.98999,1.57080,0.00001,-0.14512,-0.38002,0.04309,,,,,,,,,,,,,,,,,,,,,,,,,,0,0,0,0,0
2.6251,1783010409.1374,1,1,1.0000,0.0000,1.44681,0.21996,-2.78085,0.99006,1.57080,0.00001,-0.14512,-0.38002,0.04308,,,,,,,,,,,,,,,,,,,,,,,,,,0,0,0,0,0
2.6254,1783010409.1377,1,1,1.0000,0.0000,1.44681,0.21996,-2.78085,0.99006,1.57080,0.00001,-0.14512,-0.38002,0.04308,,,,,,,,,,,,,,,,,,,,,,,,,,0,0,0,0,0
2.6333,1783010409.1456,1,1,1.0000,0.0000,1.44681,0.21986,-2.78088,0.99019,1.57080,0.00001,-0.14512,-0.38002,0.04305,,,,,,,,,,,,,,,,,,,,,,,,,,0,0,0,0,0
2.6471,1783010409.1595,1,1,1.0000,0.0000,1.44681,0.21979,-2.78090,0.99028,1.57080,0.00001,-0.14512,-0.38002,0.04303,,,,,,,,,,,,,,,,,,,,,,,,,,0,0,0,0,0
2.6566,1783010409.1689,1,1,1.0000,0.0000,1.44681,0.21969,-2.78092,0.99040,1.57080,0.00001,-0.14512,-0.38002,0.04301,,,,,,,,,,,,,,,,,,,,,,,,,,0,0,0,0,0
2.6653,1783010409.1776,1,1,1.0000,0.0000,1.44681,0.21964,-2.78093,0.99046,1.57080,0.00001,-0.14512,-0.38002,0.04299,,,,,,,,,,,,,,,,,,,,,,,,,,0,0,0,0,0
2.6739,1783010409.1863,1,1,1.0000,0.0000,1.44681,0.21960,-2.78094,0.99051,1.57080,0.00001,-0.14512,-0.38002,0.04298,,,,,,,,,,,,,,,,,,,,,,,,,,0,0,0,0,0
2.6864,1783010409.1987,1,1,1.0000,0.0000,1.44681,0.21947,-2.78097,0.99067,1.57080,0.00001,-0.14512,-0.38002,0.04295,,,,,,,,,,,,,,,,,,,,,,,,,,0,0,0,0,0
2.6920,1783010409.2044,1,1,1.0000,0.0000,1.44681,0.21936,-2.78100,0.99080,1.57080,0.00001,-0.14512,-0.38002,0.04292,,,,,,,,,,,,,,,,,,,,,,,,,,0,0,0,0,0
2.7021,1783010409.2144,1,1,1.0000,0.0000,1.44681,0.21935,-2.78100,0.99081,1.57080,0.00001,-0.14512,-0.38002,0.04292,,,,,,,,,,,,,,,,,,,,,,,,,,0,0,0,0,0
2.7123,1783010409.2246,1,1,1.0000,0.0000,1.44681,0.21925,-2.78103,0.99095,1.57080,0.00001,-0.14512,-0.38002,0.04289,,,,,,,,,,,,,,,,,,,,,,,,,,0,0,0,0,0
2.7265,1783010409.2389,1,1,1.0000,0.0000,1.44681,0.21914,-2.78106,0.99108,1.57080,0.00001,-0.14512,-0.38002,0.04287,,,,,,,,,,,,,,,,,,,,,,,,,,0,0,0,0,0
2.7331,1783010409.2455,1,1,1.0000,0.0000,1.44681,0.21911,-2.78106,0.99112,1.57080,0.00001,-0.14512,-0.38002,0.04286,,,,,,,,,,,,,,,,,,,,,,,,,,0,0,0,0,0
2.7433,1783010409.2557,1,1,1.0000,0.0000,1.44681,0.21897,-2.78110,0.99129,1.57080,0.00001,-0.14512,-0.38002,0.04282,,,,,,,,,,,,,,,,,,,,,,,,,,0,0,0,0,0
2.7540,1783010409.2664,1,1,1.0000,0.0000,1.44681,0.21887,-2.78112,0.99142,1.57080,0.00001,-0.14512,-0.38002,0.04280,,,,,,,,,,,,,,,,,,,,,,,,,,0,0,0,0,0
2.7692,1783010409.2815,1,1,1.0000,0.0000,1.44681,0.21880,-2.78114,0.99151,1.57080,0.00001,-0.14512,-0.38002,0.04278,,,,,,,,,,,,,,,,,,,,,,,,,,0,0,0,0,0
2.7795,1783010409.2918,1,1,1.0000,0.0000,1.44681,0.21865,-2.78118,0.99170,1.57080,0.00001,-0.14512,-0.38002,0.04274,,,,,,,,,,,,,,,,,,,,,,,,,,0,0,0,0,0
2.7934,1783010409.3057,1,1,1.0000,0.0000,1.44681,0.21859,-2.78119,0.99177,1.57080,0.00001,-0.14512,-0.38002,0.04272,,,,,,,,,,,,,,,,,,,,,,,,,,0,0,0,0,0
2.7981,1783010409.3104,1,1,1.0000,0.0000,1.44681,0.21857,-2.78120,0.99179,1.57080,0.00001,-0.14512,-0.38002,0.04272,,,,,,,,,,,,,,,,,,,,,,,,,,0,0,0,0,0
2.8092,1783010409.3216,1,1,1.0000,0.0000,1.44681,0.21847,-2.78122,0.99192,1.57080,0.00001,-0.14512,-0.38002,0.04269,,,,,,,,,,,,,,,,,,,,,,,,,,0,0,0,0,0
2.8096,1783010409.3220,1,1,1.0000,0.0000,1.44681,0.21847,-2.78122,0.99192,1.57080,0.00001,-0.14512,-0.38002,0.04269,,,,,,,,,,,,,,,,,,,,,,,,,,0,0,0,0,0
2.8191,1783010409.3314,1,1,1.0000,0.0000,1.44681,0.21841,-2.78124,0.99199,1.57080,0.00001,-0.14512,-0.38002,0.04268,,,,,,,,,,,,,,,,,,,,,,,,,,0,0,0,0,0
2.8275,1783010409.3399,1,1,1.0000,0.0000,1.44681,0.21835,-2.78125,0.99207,1.57080,0.00001,-0.14512,-0.38002,0.04266,,,,,,,,,,,,,,,,,,,,,,,,,,0,0,0,0,0
2.8363,1783010409.3487,1,1,1.0000,0.0000,1.44681,0.21825,-2.78128,0.99220,1.57080,0.00001,-0.14512,-0.38002,0.04264,,,,,,,,,,,,,,,,,,,,,,,,,,0,0,0,0,0
2.8471,1783010409.3594,1,1,1.0000,0.0000,1.44681,0.21814,-2.78130,0.99233,1.57080,0.00001,-0.14512,-0.38002,0.04261,,,,,,,,,,,,,,,,,,,,,,,,,,0,0,0,0,0
2.8565,1783010409.3688,1,1,1.0000,0.0000,1.44681,0.21811,-2.78131,0.99236,1.57080,0.00001,-0.14512,-0.38002,0.04260,,,,,,,,,,,,,,,,,,,,,,,,,,0,0,0,0,0
2.8705,1783010409.3828,1,1,1.0000,0.0000,1.44681,0.21801,-2.78134,0.99249,1.57080,0.00001,-0.14512,-0.38002,0.04258,,,,,,,,,,,,,,,,,,,,,,,,,,0,0,0,0,0
2.8770,1783010409.3894,1,1,1.0000,0.0000,1.44681,0.21797,-2.78135,0.99255,1.57080,0.00001,-0.14512,-0.38002,0.04256,,,,,,,,,,,,,,,,,,,,,,,,,,0,0,0,0,0
2.8774,1783010409.3897,1,1,1.0000,0.0000,1.44681,0.21797,-2.78135,0.99255,1.57080,0.00001,-0.14512,-0.38002,0.04256,,,,,,,,,,,,,,,,,,,,,,,,,,0,0,0,0,0
2.8910,1783010409.4034,1,1,1.0000,0.0000,1.44681,0.21784,-2.78138,0.99270,1.57080,0.00001,-0.14512,-0.38002,0.04253,,,,,,,,,,,,,,,,,,,,,,,,,,0,0,0,0,0
2.8956,1783010409.4080,1,1,1.0000,0.0000,1.44681,0.21779,-2.78139,0.99276,1.57080,0.00001,-0.14512,-0.38002,0.04252,,,,,,,,,,,,,,,,,,,,,,,,,,0,0,0,0,0
2.8961,1783010409.4084,1,1,1.0000,0.0000,1.44681,0.21779,-2.78139,0.99276,1.57080,0.00001,-0.14512,-0.38002,0.04252,,,,,,,,,,,,,,,,,,,,,,,,,,0,0,0,0,0
2.9193,1783010409.4317,1,1,1.0000,0.0000,1.44681,0.21763,-2.78143,0.99296,1.57080,0.00001,-0.14512,-0.38002,0.04248,,,,,,,,,,,,,,,,,,,,,,,,,,0,0,0,0,0
2.9196,1783010409.4320,1,1,1.0000,0.0000,1.44681,0.21763,-2.78143,0.99296,1.57080,0.00001,-0.14512,-0.38002,0.04248,,,,,,,,,,,,,,,,,,,,,,,,,,0,0,0,0,0
2.9281,1783010409.4404,1,1,1.0000,0.0000,1.44681,0.21756,-2.78145,0.99306,1.57080,0.00001,-0.14512,-0.38002,0.04246,,,,,,,,,,,,,,,,,,,,,,,,,,0,0,0,0,0
2.9363,1783010409.4487,1,1,1.0000,0.0000,1.44681,0.21751,-2.78146,0.99311,1.57080,0.00001,-0.14512,-0.38002,0.04245,,,,,,,,,,,,,,,,,,,,,,,,,,0,0,0,0,0
2.9454,1783010409.4578,1,1,1.0000,0.0000,1.44681,0.21748,-2.78147,0.99316,1.57080,0.00001,-0.14512,-0.38002,0.04244,,,,,,,,,,,,,,,,,,,,,,,,,,0,0,0,0,0
2.9458,1783010409.4581,1,1,1.0000,0.0000,1.44681,0.21748,-2.78147,0.99316,1.57080,0.00001,-0.14512,-0.38002,0.04244,,,,,,,,,,,,,,,,,,,,,,,,,,0,0,0,0,0
2.9576,1783010409.4700,1,1,1.0000,0.0000,1.44681,0.21734,-2.78150,0.99333,1.57080,0.00001,-0.14512,-0.38002,0.04240,,,,,,,,,,,,,,,,,,,,,,,,,,0,0,0,0,0
2.9679,1783010409.4802,1,1,1.0000,0.0000,1.44681,0.21723,-2.78153,0.99346,1.57080,0.00001,-0.14512,-0.38002,0.04238,,,,,,,,,,,,,,,,,,,,,,,,,,0,0,0,0,0
2.9791,1783010409.4915,1,1,1.0000,0.0000,1.44681,0.21718,-2.78154,0.99353,1.57080,0.00001,-0.14512,-0.38002,0.04236,,,,,,,,,,,,,,,,,,,,,,,,,,0,0,0,0,0
2.9794,1783010409.4918,1,1,1.0000,0.0000,1.44681,0.21718,-2.78154,0.99353,1.57080,0.00001,-0.14512,-0.38002,0.04236,,,,,,,,,,,,,,,,,,,,,,,,,,0,0,0,0,0
2.9870,1783010409.4994,1,1,1.0000,0.0000,1.44681,0.21710,-2.78156,0.99362,1.57080,0.00001,-0.14512,-0.38002,0.04234,,,,,,,,,,,,,,,,,,,,,,,,,,0,0,0,0,0
2.9983,1783010409.5106,1,1,1.0000,0.0000,1.44681,0.21706,-2.78157,0.99368,1.57080,0.00001,-0.14512,-0.38002,0.04233,,,,,,,,,,,,,,,,,,,,,,,,,,0,0,0,0,0
3.0077,1783010409.5201,1,1,1.0000,0.0000,1.44681,0.21698,-2.78159,0.99377,1.57080,0.00001,-0.14512,-0.38002,0.04231,,,,,,,,,,,,,,,,,,,,,,,,,,0,0,0,0,0
3.0194,1783010409.5317,1,1,1.0000,0.0000,1.44681,0.21683,-2.78163,0.99397,1.57080,0.00001,-0.14512,-0.38002,0.04227,,,,,,,,,,,,,,,,,,,,,,,,,,0,0,0,0,0
3.0198,1783010409.5322,1,1,1.0000,0.0000,1.44681,0.21683,-2.78163,0.99397,1.57080,0.00001,-0.14512,-0.38002,0.04227,,,,,,,,,,,,,,,,,,,,,,,,,,0,0,0,0,0
3.0332,1783010409.5456,1,1,1.0000,0.0000,1.44681,0.21677,-2.78164,0.99404,1.57080,0.00001,-0.14512,-0.38002,0.04226,,,,,,,,,,,,,,,,,,,,,,,,,,0,0,0,0,0
3.0359,1783010409.5482,1,1,1.0000,0.0000,1.44681,0.21674,-2.78165,0.99407,1.57080,0.00001,-0.14512,-0.38002,0.04225,,,,,,,,,,,,,,,,,,,,,,,,,,0,0,0,0,0
3.0464,1783010409.5588,1,1,1.0000,0.0000,1.44681,0.21666,-2.78167,0.99418,1.57080,0.00001,-0.14512,-0.38002,0.04223,,,,,,,,,,,,,,,,,,,,,,,,,,0,0,0,0,0
3.0559,1783010409.5683,1,1,1.0000,0.0000,1.44681,0.21655,-2.78169,0.99431,1.57080,0.00001,-0.14512,-0.38002,0.04220,,,,,,,,,,,,,,,,,,,,,,,,,,0,0,0,0,0
3.0821,1783010409.5944,1,1,1.0000,0.0000,1.44681,0.21633,-2.78175,0.99459,1.57080,0.00001,-0.14512,-0.38002,0.04215,,,,,,,,,,,,,,,,,,,,,,,,,,0,0,0,0,0
3.0833,1783010409.5956,1,1,1.0000,0.0000,1.44681,0.21628,-2.78176,0.99465,1.57080,0.00001,-0.14512,-0.38002,0.04213,,,,,,,,,,,,,,,,,,,,,,,,,,0,0,0,0,0
3.0836,1783010409.5960,1,1,1.0000,0.0000,1.44681,0.21628,-2.78176,0.99465,1.57080,0.00001,-0.14512,-0.38002,0.04213,,,,,,,,,,,,,,,,,,,,,,,,,,0,0,0,0,0
3.0996,1783010409.6119,1,1,1.0000,0.0000,1.44681,0.21621,-2.78178,0.99474,1.57080,0.00001,-0.14512,-0.38002,0.04212,,,,,,,,,,,,,,,,,,,,,,,,,,0,0,0,0,0
3.0999,1783010409.6123,1,1,1.0000,0.0000,1.44681,0.21621,-2.78178,0.99474,1.57080,0.00001,-0.14512,-0.38002,0.04212,,,,,,,,,,,,,,,,,,,,,,,,,,0,0,0,0,0
3.1063,1783010409.6186,1,1,1.0000,0.0000,1.44681,0.21616,-2.78179,0.99480,1.57080,0.00001,-0.14512,-0.38002,0.04210,,,,,,,,,,,,,,,,,,,,,,,,,,0,0,0,0,0
3.1069,1783010409.6192,1,1,1.0000,0.0000,1.44681,0.21611,-2.78180,0.99486,1.57080,0.00001,-0.14512,-0.38002,0.04209,,,,,,,,,,,,,,,,,,,,,,,,,,0,0,0,0,0
3.1186,1783010409.6309,1,1,1.0000,0.0000,1.44681,0.21606,-2.78182,0.99493,1.57080,0.00001,-0.14512,-0.38002,0.04208,,,,,,,,,,,,,,,,,,,,,,,,,,0,0,0,0,0
3.1291,1783010409.6415,1,1,1.0000,0.0000,1.44681,0.21598,-2.78183,0.99502,1.57080,0.00001,-0.14512,-0.38002,0.04206,,,,,,,,,,,,,,,,,,,,,,,,,,0,0,0,0,0
3.1382,1783010409.6506,1,1,1.0000,0.0000,1.44681,0.21589,-2.78186,0.99514,1.57080,0.00001,-0.14512,-0.38002,0.04203,,,,,,,,,,,,,,,,,,,,,,,,,,0,0,0,0,0
3.1388,1783010409.6512,1,1,1.0000,0.0000,1.44681,0.21583,-2.78187,0.99520,1.57080,0.00001,-0.14512,-0.38002,0.04202,,,,,,,,,,,,,,,,,,,,,,,,,,0,0,0,0,0
3.1459,1783010409.6582,1,1,1.0000,0.0000,1.44681,0.21578,-2.78188,0.99527,1.57080,0.00001,-0.14512,-0.38002,0.04201,,,,,,,,,,,,,,,,,,,,,,,,,,0,0,0,0,0
3.1614,1783010409.6738,1,1,1.0000,0.0000,1.44681,0.21571,-2.78190,0.99536,1.57080,0.00001,-0.14512,-0.38002,0.04199,,,,,,,,,,,,,,,,,,,,,,,,,,0,0,0,0,0
3.1618,1783010409.6742,1,1,1.0000,0.0000,1.44681,0.21571,-2.78190,0.99536,1.57080,0.00001,-0.14512,-0.38002,0.04199,,,,,,,,,,,,,,,,,,,,,,,,,,0,0,0,0,0
3.1871,1783010409.6995,1,1,1.0000,0.0000,1.44681,0.21549,-2.78196,0.99564,1.57080,0.00001,-0.14512,-0.38002,0.04193,,,,,,,,,,,,,,,,,,,,,,,,,,0,0,0,0,0
3.1874,1783010409.6998,1,1,1.0000,0.0000,1.44681,0.21549,-2.78196,0.99564,1.57080,0.00001,-0.14512,-0.38002,0.04193,,,,,,,,,,,,,,,,,,,,,,,,,,0,0,0,0,0
3.2014,1783010409.7138,1,1,1.0000,0.0000,1.44681,0.21534,-2.78199,0.99582,1.57080,0.00001,-0.14512,-0.38002,0.04189,,,,,,,,,,,,,,,,,,,,,,,,,,0,0,0,0,0
3.2018,1783010409.7142,1,1,1.0000,0.0000,1.44681,0.21534,-2.78199,0.99582,1.57080,0.00001,-0.14512,-0.38002,0.04189,,,,,,,,,,,,,,,,,,,,,,,,,,0,0,0,0,0
3.2022,1783010409.7146,1,1,1.0000,0.0000,1.44681,0.21534,-2.78199,0.99582,1.57080,0.00001,-0.14512,-0.38002,0.04189,,,,,,,,,,,,,,,,,,,,,,,,,,0,0,0,0,0
3.2058,1783010409.7181,1,1,1.0000,0.0000,1.44681,0.21528,-2.78201,0.99589,1.57080,0.00001,-0.14512,-0.38002,0.04188,,,,,,,,,,,,,,,,,,,,,,,,,,0,0,0,0,0
3.2061,1783010409.7185,1,1,1.0000,0.0000,1.44681,0.21528,-2.78201,0.99589,1.57080,0.00001,-0.14512,-0.38002,0.04188,,,,,,,,,,,,,,,,,,,,,,,,,,0,0,0,0,0
3.2487,1783010409.7610,1,1,1.0000,0.0000,1.44681,0.21499,-2.78208,0.99625,1.57080,0.00001,-0.14512,-0.38002,0.04180,,,,,,,,,,,,,,,,,,,,,,,,,,0,0,0,0,0
3.2566,1783010409.7689,1,1,1.0000,0.0000,1.44681,0.21489,-2.78210,0.99638,1.57080,0.00001,-0.14512,-0.38002,0.04178,,,,,,,,,,,,,,,,,,,,,,,,,,0,0,0,0,0
3.2571,1783010409.7694,1,1,1.0000,0.0000,1.44681,0.21489,-2.78210,0.99638,1.57080,0.00001,-0.14512,-0.38002,0.04178,,,,,,,,,,,,,,,,,,,,,,,,,,0,0,0,0,0
3.2658,1783010409.7781,1,1,1.0000,0.0000,1.44681,0.21479,-2.78213,0.99651,1.57080,0.00001,-0.14512,-0.38002,0.04175,,,,,,,,,,,,,,,,,,,,,,,,,,0,0,0,0,0
3.2661,1783010409.7784,1,1,1.0000,0.0000,1.44681,0.21479,-2.78213,0.99651,1.57080,0.00001,-0.14512,-0.38002,0.04175,,,,,,,,,,,,,,,,,,,,,,,,,,0,0,0,0,0
3.2796,1783010409.7920,1,1,1.0000,0.0000,1.44681,0.21471,-2.78215,0.99660,1.57080,0.00001,-0.14512,-0.38002,0.04173,,,,,,,,,,,,,,,,,,,,,,,,,,0,0,0,0,0
3.2799,1783010409.7922,1,1,1.0000,0.0000,1.44681,0.21471,-2.78215,0.99660,1.57080,0.00001,-0.14512,-0.38002,0.04173,,,,,,,,,,,,,,,,,,,,,,,,,,0,0,0,0,0
3.2889,1783010409.8013,1,1,1.0000,0.0000,1.44681,0.21462,-2.78217,0.99672,1.57080,0.00001,-0.14512,-0.38002,0.04171,,,,,,,,,,,,,,,,,,,,,,,,,,0,0,0,0,0
3.2991,1783010409.8115,1,1,1.0000,0.0000,1.44681,0.21455,-2.78218,0.99680,1.57080,0.00001,-0.14512,-0.38002,0.04169,,,,,,,,,,,,,,,,,,,,,,,,,,0,0,0,0,0
3.3106,1783010409.8229,1,1,1.0000,0.0000,1.44681,0.21449,-2.78220,0.99687,1.57080,0.00002,-0.14512,-0.38002,0.04168,,,,,,,,,,,,,,,,,,,,,,,,,,0,0,0,0,0
3.3193,1783010409.8317,1,1,1.0000,0.0000,1.44681,0.21434,-2.78224,0.99706,1.57080,0.00002,-0.14512,-0.38002,0.04164,,,,,,,,,,,,,,,,,,,,,,,,,,0,0,0,0,0
3.3196,1783010409.8319,1,1,1.0000,0.0000,1.44681,0.21434,-2.78224,0.99706,1.57080,0.00002,-0.14512,-0.38002,0.04164,,,,,,,,,,,,,,,,,,,,,,,,,,0,0,0,0,0
3.3318,1783010409.8441,1,1,1.0000,0.0000,1.44681,0.21428,-2.78225,0.99714,1.57080,0.00002,-0.14512,-0.38002,0.04162,,,,,,,,,,,,,,,,,,,,,,,,,,0,0,0,0,0
3.3397,1783010409.8520,1,1,1.0000,0.0000,1.44681,0.21422,-2.78227,0.99722,1.57080,0.00002,-0.14512,-0.38002,0.04161,,,,,,,,,,,,,,,,,,,,,,,,,,0,0,0,0,0
3.3493,1783010409.8616,1,1,1.0000,0.0000,1.44681,0.21412,-2.78229,0.99734,1.57080,0.00002,-0.14512,-0.38002,0.04158,,,,,,,,,,,,,,,,,,,,,,,,,,0,0,0,0,0
3.3596,1783010409.8719,1,1,1.0000,0.0000,1.44681,0.21401,-2.78232,0.99747,1.57080,0.00002,-0.14512,-0.38002,0.04156,,,,,,,,,,,,,,,,,,,,,,,,,,0,0,0,0,0
3.3712,1783010409.8835,1,1,1.0000,0.0000,1.44681,0.21396,-2.78233,0.99754,1.57080,0.00002,-0.14512,-0.38002,0.04154,,,,,,,,,,,,,,,,,,,,,,,,,,0,0,0,0,0
3.3715,1783010409.8838,1,1,1.0000,0.0000,1.44681,0.21396,-2.78233,0.99754,1.57080,0.00002,-0.14512,-0.38002,0.04154,,,,,,,,,,,,,,,,,,,,,,,,,,0,0,0,0,0
3.3822,1783010409.8946,1,1,1.0000,0.0000,1.44681,0.21388,-2.78235,0.99763,1.57080,0.00002,-0.14512,-0.38002,0.04152,,,,,,,,,,,,,,,,,,,,,,,,,,0,0,0,0,0
3.3891,1783010409.9015,1,1,1.0000,0.0000,1.44681,0.21384,-2.78236,0.99769,1.57080,0.00002,-0.14512,-0.38002,0.04151,,,,,,,,,,,,,,,,,,,,,,,,,,0,0,0,0,0
3.3894,1783010409.9018,1,1,1.0000,0.0000,1.44681,0.21384,-2.78236,0.99769,1.57080,0.00002,-0.14512,-0.38002,0.04151,,,,,,,,,,,,,,,,,,,,,,,,,,0,0,0,0,0
3.4033,1783010409.9157,1,1,1.0000,0.0000,1.44681,0.21371,-2.78239,0.99784,1.57080,0.00002,-0.14512,-0.38002,0.04148,,,,,,,,,,,,,,,,,,,,,,,,,,0,0,0,0,0
3.4037,1783010409.9161,1,1,1.0000,0.0000,1.44681,0.21371,-2.78239,0.99784,1.57080,0.00002,-0.14512,-0.38002,0.04148,,,,,,,,,,,,,,,,,,,,,,,,,,0,0,0,0,0
3.4114,1783010409.9238,1,1,1.0000,0.0000,1.44681,0.21361,-2.78242,0.99797,1.57080,0.00002,-0.14512,-0.38002,0.04145,,,,,,,,,,,,,,,,,,,,,,,,,,0,0,0,0,0
3.4117,1783010409.9241,1,1,1.0000,0.0000,1.44681,0.21361,-2.78242,0.99797,1.57080,0.00002,-0.14512,-0.38002,0.04145,,,,,,,,,,,,,,,,,,,,,,,,,,0,0,0,0,0
3.4197,1783010409.9321,1,1,1.0000,0.0000,1.44681,0.21355,-2.78243,0.99804,1.57080,0.00002,-0.14512,-0.38002,0.04144,,,,,,,,,,,,,,,,,,,,,,,,,,0,0,0,0,0
3.4292,1783010409.9415,1,1,1.0000,0.0000,1.44681,0.21353,-2.78243,0.99807,1.57080,0.00002,-0.14512,-0.38002,0.04143,,,,,,,,,,,,,,,,,,,,,,,,,,0,0,0,0,0
3.4406,1783010409.9529,1,1,1.0000,0.0000,1.44681,0.21342,-2.78246,0.99820,1.57080,0.00002,-0.14512,-0.38002,0.04141,,,,,,,,,,,,,,,,,,,,,,,,,,0,0,0,0,0
3.4550,1783010409.9673,1,1,1.0000,0.0000,1.44681,0.21334,-2.78248,0.99830,1.57080,0.00002,-0.14512,-0.38002,0.04139,,,,,,,,,,,,,,,,,,,,,,,,,,0,0,0,0,0
3.4604,1783010409.9727,1,1,1.0000,0.0000,1.44681,0.21331,-2.78249,0.99835,1.57080,0.00002,-0.14512,-0.38002,0.04138,,,,,,,,,,,,,,,,,,,,,,,,,,0,0,0,0,0
3.4606,1783010409.9729,1,1,1.0000,0.0000,1.44681,0.21331,-2.78249,0.99835,1.57080,0.00002,-0.14512,-0.38002,0.04138,,,,,,,,,,,,,,,,,,,,,,,,,,0,0,0,0,0
3.4705,1783010409.9829,1,1,1.0000,0.0000,1.44681,0.21320,-2.78251,0.99848,1.57080,0.00002,-0.14512,-0.38002,0.04135,,,,,,,,,,,,,,,,,,,,,,,,,,0,0,0,0,0
3.4931,1783010410.0054,1,1,1.0000,0.0000,1.44681,0.21304,-2.78255,0.99867,1.57080,0.00002,-0.14512,-0.38002,0.04131,,,,,,,,,,,,,,,,,,,,,,,,,,0,0,0,0,0
3.4941,1783010410.0065,1,1,1.0000,0.0000,1.44681,0.21304,-2.78255,0.99867,1.57080,0.00002,-0.14512,-0.38002,0.04131,,,,,,,,,,,,,,,,,,,,,,,,,,0,0,0,0,0
3.4944,1783010410.0068,1,1,1.0000,0.0000,1.44681,0.21304,-2.78255,0.99867,1.57080,0.00002,-0.14512,-0.38002,0.04131,,,,,,,,,,,,,,,,,,,,,,,,,,0,0,0,0,0
3.5091,1783010410.0215,1,1,1.0000,0.0000,1.44681,0.21292,-2.78258,0.99883,1.57080,0.00002,-0.14512,-0.38002,0.04128,,,,,,,,,,,,,,,,,,,,,,,,,,0,0,0,0,0
3.5185,1783010410.0309,1,1,1.0000,0.0000,1.44681,0.21289,-2.78259,0.99887,1.57080,0.00002,-0.14512,-0.38002,0.04127,,,,,,,,,,,,,,,,,,,,,,,,,,0,0,0,0,0
3.5191,1783010410.0314,1,1,1.0000,0.0000,1.44681,0.21285,-2.78260,0.99892,1.57080,0.00002,-0.14512,-0.38002,0.04126,,,,,,,,,,,,,,,,,,,,,,,,,,0,0,0,0,0
3.5765,1783010410.0889,1,1,1.0000,0.0000,1.44681,0.21243,-2.78270,0.99944,1.57080,0.00002,-0.14512,-0.38002,0.04115,,,,,,,,,,,,,,,,,,,,,,,,,,0,0,0,0,0
3.5769,1783010410.0892,1,1,1.0000,0.0000,1.44681,0.21243,-2.78270,0.99944,1.57080,0.00002,-0.14512,-0.38002,0.04115,,,,,,,,,,,,,,,,,,,,,,,,,,0,0,0,0,0
3.5772,1783010410.0895,1,1,1.0000,0.0000,1.44681,0.21243,-2.78270,0.99944,1.57080,0.00002,-0.14512,-0.38002,0.04115,,,,,,,,,,,,,,,,,,,,,,,,,,0,0,0,0,0
3.5775,1783010410.0898,1,1,1.0000,0.0000,1.44681,0.21243,-2.78270,0.99944,1.57080,0.00002,-0.14512,-0.38002,0.04115,,,,,,,,,,,,,,,,,,,,,,,,,,0,0,0,0,0
3.5778,1783010410.0901,1,1,1.0000,0.0000,1.44681,0.21243,-2.78270,0.99944,1.57080,0.00002,-0.14512,-0.38002,0.04115,,,,,,,,,,,,,,,,,,,,,,,,,,0,0,0,0,0
3.5780,1783010410.0904,1,1,1.0000,0.0000,1.44681,0.21243,-2.78270,0.99944,1.57080,0.00002,-0.14512,-0.38002,0.04115,,,,,,,,,,,,,,,,,,,,,,,,,,0,0,0,0,0
3.5933,1783010410.1056,1,1,1.0000,0.0000,1.44681,0.21223,-2.78275,0.99968,1.57080,0.00002,-0.14512,-0.38002,0.04110,,,,,,,,,,,,,,,,,,,,,,,,,,0,0,0,0,0
3.5970,1783010410.1094,1,1,1.0000,0.0000,1.44681,0.21218,-2.78276,0.99975,1.57080,0.00002,-0.14512,-0.38002,0.04109,,,,,,,,,,,,,,,,,,,,,,,,,,0,0,0,0,0
3.6155,1783010410.1279,1,1,1.0000,0.0000,1.44681,0.21209,-2.78278,0.99986,1.57080,0.00002,-0.14512,-0.38002,0.04107,,,,,,,,,,,,,,,,,,,,,,,,,,0,0,0,0,0
3.6457,1783010410.1580,1,1,1.0000,0.0000,1.44681,0.21188,-2.78284,1.00012,1.57080,0.00002,-0.14512,-0.38002,0.04102,,,,,,,,,,,,,,,,,,,,,,,,,,0,0,0,0,0
3.6462,1783010410.1585,1,1,1.0000,0.0000,1.44681,0.21188,-2.78284,1.00012,1.57080,0.00002,-0.14512,-0.38002,0.04102,,,,,,,,,,,,,,,,,,,,,,,,,,0,0,0,0,0
3.6465,1783010410.1589,1,1,1.0000,0.0000,1.44681,0.21188,-2.78284,1.00012,1.57080,0.00002,-0.14512,-0.38002,0.04102,,,,,,,,,,,,,,,,,,,,,,,,,,0,0,0,0,0
3.6470,1783010410.1593,1,1,1.0000,0.0000,1.44681,0.21183,-2.78285,1.00018,1.57080,0.00002,-0.14512,-0.38002,0.04100,,,,,,,,,,,,,,,,,,,,,,,,,,0,0,0,0,0
3.6600,1783010410.1724,1,1,1.0000,0.0000,1.44681,0.21172,-2.78287,1.00032,1.57080,0.00002,-0.14512,-0.38002,0.04097,,,,,,,,,,,,,,,,,,,,,,,,,,0,0,0,0,0
3.6631,1783010410.1755,1,1,1.0000,0.0000,1.44681,0.21172,-2.78288,1.00033,1.57080,0.00002,-0.14512,-0.38002,0.04097,,,,,,,,,,,,,,,,,,,,,,,,,,0,0,0,0,0
3.6635,1783010410.1758,1,1,1.0000,0.0000,1.44681,0.21172,-2.78288,1.00033,1.57080,0.00002,-0.14512,-0.38002,0.04097,,,,,,,,,,,,,,,,,,,,,,,,,,0,0,0,0,0
3.6764,1783010410.1888,1,1,1.0000,0.0000,1.44681,0.21163,-2.78290,1.00043,1.57080,0.00002,-0.14512,-0.38002,0.04095,,,,,,,,,,,,,,,,,,,,,,,,,,0,0,0,0,0
3.6854,1783010410.1977,1,1,1.0000,0.0000,1.44681,0.21155,-2.78292,1.00053,1.57080,0.00002,-0.14512,-0.38002,0.04093,,,,,,,,,,,,,,,,,,,,,,,,,,0,0,0,0,0
3.6986,1783010410.2110,1,1,1.0000,0.0000,1.44681,0.21151,-2.78293,1.00058,1.57080,0.00002,-0.14512,-0.38002,0.04092,,,,,,,,,,,,,,,,,,,,,,,,,,0,0,0,0,0
3.6992,1783010410.2115,1,1,1.0000,0.0000,1.44681,0.21147,-2.78293,1.00063,1.57080,0.00002,-0.14512,-0.38002,0.04091,,,,,,,,,,,,,,,,,,,,,,,,,,0,0,0,0,0
3.7054,1783010410.2178,1,1,1.0000,0.0000,1.44681,0.21142,-2.78295,1.00069,1.57080,0.00002,-0.14512,-0.38002,0.04090,,,,,,,,,,,,,,,,,,,,,,,,,,0,0,0,0,0
3.7120,1783010410.2243,1,1,1.0000,0.0000,1.44681,0.21132,-2.78297,1.00082,1.57080,0.00002,-0.14512,-0.38002,0.04087,,,,,,,,,,,,,,,,,,,,,,,,,,0,0,0,0,0
3.7266,1783010410.2389,1,1,1.0000,0.0000,1.44681,0.21126,-2.78299,1.00090,1.57080,0.00002,-0.14512,-0.38002,0.04086,,,,,,,,,,,,,,,,,,,,,,,,,,0,0,0,0,0
3.7323,1783010410.2447,1,1,1.0000,0.0000,1.44681,0.21121,-2.78300,1.00095,1.57080,0.00002,-0.14512,-0.38002,0.04084,,,,,,,,,,,,,,,,,,,,,,,,,,0,0,0,0,0
3.7416,1783010410.2540,1,1,1.0000,0.0000,1.44681,0.21113,-2.78302,1.00105,1.57080,0.00002,-0.14512,-0.38002,0.04083,,,,,,,,,,,,,,,,,,,,,,,,,,0,0,0,0,0
3.7421,1783010410.2544,1,1,1.0000,0.0000,1.44681,0.21113,-2.78302,1.00105,1.57080,0.00002,-0.14512,-0.38002,0.04083,,,,,,,,,,,,,,,,,,,,,,,,,,0,0,0,0,0
3.7521,1783010410.2644,1,1,1.0000,0.0000,1.44681,0.21108,-2.78303,1.00112,1.57080,0.00002,-0.14512,-0.38002,0.04081,,,,,,,,,,,,,,,,,,,,,,,,,,0,0,0,0,0
3.7649,1783010410.2772,1,1,1.0000,0.0000,1.44681,0.21097,-2.78306,1.00126,1.57080,0.00002,-0.14512,-0.38002,0.04078,,,,,,,,,,,,,,,,,,,,,,,,,,0,0,0,0,0
3.7722,1783010410.2845,1,1,1.0000,0.0000,1.44681,0.21086,-2.78308,1.00139,1.57080,0.00002,-0.14512,-0.38002,0.04076,,,,,,,,,,,,,,,,,,,,,,,,,,0,0,0,0,0
3.8132,1783010410.3256,1,1,1.0000,0.0000,1.44681,0.21057,-2.78315,1.00175,1.57080,0.00002,-0.14512,-0.38002,0.04068,,,,,,,,,,,,,,,,,,,,,,,,,,0,0,0,0,0
3.8501,1783010410.3625,1,1,1.0000,0.0000,1.44681,0.21027,-2.78323,1.00212,1.57080,0.00002,-0.14512,-0.38002,0.04061,,,,,,,,,,,,,,,,,,,,,,,,,,0,0,0,0,0
3.8506,1783010410.3629,1,1,1.0000,0.0000,1.44681,0.21027,-2.78323,1.00212,1.57080,0.00002,-0.14512,-0.38002,0.04061,,,,,,,,,,,,,,,,,,,,,,,,,,0,0,0,0,0
3.8512,1783010410.3636,1,1,1.0000,0.0000,1.44681,0.21023,-2.78323,1.00217,1.57080,0.00002,-0.14512,-0.38002,0.04060,,,,,,,,,,,,,,,,,,,,,,,,,,0,0,0,0,0
3.8540,1783010410.3664,1,1,1.0000,0.0000,1.44681,0.21023,-2.78323,1.00217,1.57080,0.00002,-0.14512,-0.38002,0.04060,,,,,,,,,,,,,,,,,,,,,,,,,,0,0,0,0,0
3.8545,1783010410.3669,1,1,1.0000,0.0000,1.44681,0.21023,-2.78323,1.00217,1.57080,0.00002,-0.14512,-0.38002,0.04060,,,,,,,,,,,,,,,,,,,,,,,,,,0,0,0,0,0
3.8637,1783010410.3761,1,1,1.0000,0.0000,1.44681,0.21008,-2.78327,1.00236,1.57080,0.00002,-0.14512,-0.38002,0.04056,,,,,,,,,,,,,,,,,,,,,,,,,,0,0,0,0,0
3.8744,1783010410.3867,1,1,1.0000,0.0000,1.44681,0.21007,-2.78327,1.00237,1.57080,0.00002,-0.14512,-0.38002,0.04056,,,,,,,,,,,,,,,,,,,,,,,,,,0,0,0,0,0
3.9090,1783010410.4213,1,1,1.0000,0.0000,1.44680,0.20977,-2.78335,1.00274,1.57080,0.00002,-0.14512,-0.38002,0.04048,,,,,,,,,,,,,,,,,,,,,,,,,,0,0,0,0,0
3.9094,1783010410.4218,1,1,1.0000,0.0000,1.44680,0.20977,-2.78335,1.00274,1.57080,0.00002,-0.14512,-0.38002,0.04048,,,,,,,,,,,,,,,,,,,,,,,,,,0,0,0,0,0
3.9751,1783010410.4874,1,1,1.0000,0.0000,1.44680,0.20918,-2.78349,1.00347,1.57079,0.00002,-0.14512,-0.38002,0.04033,,,,,,,,,,,,,,,,,,,,,,,,,,0,0,0,0,0
3.9754,1783010410.4878,1,1,1.0000,0.0000,1.44680,0.20918,-2.78349,1.00347,1.57079,0.00002,-0.14512,-0.38002,0.04033,,,,,,,,,,,,,,,,,,,,,,,,,,0,0,0,0,0
3.9757,1783010410.4881,1,1,1.0000,0.0000,1.44680,0.20918,-2.78349,1.00347,1.57079,0.00002,-0.14512,-0.38002,0.04033,,,,,,,,,,,,,,,,,,,,,,,,,,0,0,0,0,0
3.9760,1783010410.4883,1,1,1.0000,0.0000,1.44680,0.20918,-2.78349,1.00347,1.57079,0.00002,-0.14512,-0.38002,0.04033,,,,,,,,,,,,,,,,,,,,,,,,,,0,0,0,0,0
3.9978,1783010410.5101,1,1,1.0000,0.0000,1.44680,0.20904,-2.78352,1.00365,1.57079,0.00002,-0.14512,-0.38002,0.04030,,,,,,,,,,,,,,,,,,,,,,,,,,0,0,0,0,0
3.9983,1783010410.5107,1,1,1.0000,0.0000,1.44680,0.20904,-2.78352,1.00365,1.57079,0.00002,-0.14512,-0.38002,0.04030,,,,,,,,,,,,,,,,,,,,,,,,,,0,0,0,0,0
3.9989,1783010410.5113,1,1,1.0000,0.0000,1.44680,0.20900,-2.78353,1.00369,1.57079,0.00002,-0.14512,-0.38002,0.04029,,,,,,,,,,,,,,,,,,,,,,,,,,0,0,0,0,0
4.0032,1783010410.5156,1,1,1.0000,0.0000,1.44680,0.20896,-2.78354,1.00375,1.57079,0.00002,-0.14512,-0.38002,0.04027,,,,,,,,,,,,,,,,,,,,,,,,,,0,0,0,0,0
4.0185,1783010410.5309,1,1,1.0000,0.0000,1.44680,0.20880,-2.78358,1.00395,1.57079,0.00002,-0.14512,-0.38002,0.04023,,,,,,,,,,,,,,,,,,,,,,,,,,0,0,0,0,0
4.0218,1783010410.5341,1,1,1.0000,0.0000,1.44680,0.20880,-2.78358,1.00395,1.57079,0.00002,-0.14512,-0.38002,0.04023,,,,,,,,,,,,,,,,,,,,,,,,,,0,0,0,0,0
4.0221,1783010410.5344,1,1,1.0000,0.0000,1.44680,0.20880,-2.78358,1.00395,1.57079,0.00002,-0.14512,-0.38002,0.04023,,,,,,,,,,,,,,,,,,,,,,,,,,0,0,0,0,0
4.0334,1783010410.5458,1,1,1.0000,0.0000,1.44680,0.20873,-2.78360,1.00404,1.57079,0.00002,-0.14512,-0.38002,0.04022,,,,,,,,,,,,,,,,,,,,,,,,,,0,0,0,0,0
4.0435,1783010410.5558,1,1,1.0000,0.0000,1.44680,0.20857,-2.78363,1.00423,1.57079,0.00002,-0.14512,-0.38002,0.04018,,,,,,,,,,,,,,,,,,,,,,,,,,0,0,0,0,0
4.0437,1783010410.5561,1,1,1.0000,0.0000,1.44680,0.20857,-2.78363,1.00423,1.57079,0.00002,-0.14512,-0.38002,0.04018,,,,,,,,,,,,,,,,,,,,,,,,,,0,0,0,0,0
4.0566,1783010410.5690,1,1,1.0000,0.0000,1.44680,0.20854,-2.78364,1.00427,1.57079,0.00002,-0.14512,-0.38002,0.04017,,,,,,,,,,,,,,,,,,,,,,,,,,0,0,0,0,0
4.0629,1783010410.5753,1,1,1.0000,0.0000,1.44680,0.20845,-2.78366,1.00437,1.57079,0.00002,-0.14512,-0.38002,0.04015,,,,,,,,,,,,,,,,,,,,,,,,,,0,0,0,0,0
4.0718,1783010410.5841,1,1,1.0000,0.0000,1.44680,0.20835,-2.78369,1.00450,1.57079,0.00002,-0.14512,-0.38002,0.04012,,,,,,,,,,,,,,,,,,,,,,,,,,0,0,0,0,0
4.0899,1783010410.6023,1,1,1.0000,0.0000,1.44680,0.20826,-2.78371,1.00461,1.57079,0.00002,-0.14512,-0.38002,0.04010,,,,,,,,,,,,,,,,,,,,,,,,,,0,0,0,0,0
4.0989,1783010410.6113,1,1,1.0000,0.0000,1.44680,0.20812,-2.78374,1.00478,1.57079,0.00002,-0.14512,-0.38002,0.04006,,,,,,,,,,,,,,,,,,,,,,,,,,0,0,0,0,0
4.0992,1783010410.6116,1,1,1.0000,0.0000,1.44680,0.20812,-2.78374,1.00478,1.57079,0.00002,-0.14512,-0.38002,0.04006,,,,,,,,,,,,,,,,,,,,,,,,,,0,0,0,0,0
4.1095,1783010410.6219,1,1,1.0000,0.0000,1.44680,0.20802,-2.78377,1.00491,1.57079,0.00002,-0.14512,-0.38002,0.04004,,,,,,,,,,,,,,,,,,,,,,,,,,0,0,0,0,0
4.1192,1783010410.6315,1,1,1.0000,0.0000,1.44680,0.20799,-2.78377,1.00494,1.57079,0.00002,-0.14512,-0.38002,0.04003,,,,,,,,,,,,,,,,,,,,,,,,,,0,0,0,0,0
4.1196,1783010410.6319,1,1,1.0000,0.0000,1.44680,0.20799,-2.78377,1.00494,1.57079,0.00002,-0.14512,-0.38002,0.04003,,,,,,,,,,,,,,,,,,,,,,,,,,0,0,0,0,0
4.1232,1783010410.6355,1,1,1.0000,0.0000,1.44680,0.20796,-2.78378,1.00498,1.57079,0.00002,-0.14512,-0.38002,0.04002,,,,,,,,,,,,,,,,,,,,,,,,,,0,0,0,0,0
4.1363,1783010410.6486,1,1,1.0000,0.0000,1.44680,0.20784,-2.78381,1.00513,1.57079,0.00002,-0.14512,-0.38002,0.03999,,,,,,,,,,,,,,,,,,,,,,,,,,0,0,0,0,0
4.1430,1783010410.6554,1,1,1.0000,0.0000,1.44680,0.20783,-2.78381,1.00515,1.57079,0.00002,-0.14512,-0.38002,0.03999,,,,,,,,,,,,,,,,,,,,,,,,,,0,0,0,0,0
4.1692,1783010410.6816,1,1,1.0000,0.0000,1.44680,0.20756,-2.78388,1.00549,1.57079,0.00002,-0.14512,-0.38002,0.03992,,,,,,,,,,,,,,,,,,,,,,,,,,0,0,0,0,0
4.1696,1783010410.6820,1,1,1.0000,0.0000,1.44680,0.20756,-2.78388,1.00549,1.57079,0.00002,-0.14512,-0.38002,0.03992,,,,,,,,,,,,,,,,,,,,,,,,,,0,0,0,0,0
4.1744,1783010410.6867,1,1,1.0000,0.0000,1.44680,0.20756,-2.78388,1.00549,1.57079,0.00002,-0.14512,-0.38002,0.03992,,,,,,,,,,,,,,,,,,,,,,,,,,0,0,0,0,0
4.1750,1783010410.6873,1,1,1.0000,0.0000,1.44680,0.20755,-2.78388,1.00549,1.57079,0.00002,-0.14512,-0.38002,0.03992,,,,,,,,,,,,,,,,,,,,,,,,,,0,0,0,0,0
4.2095,1783010410.7218,1,1,1.0000,0.0000,1.44680,0.20734,-2.78393,1.00575,1.57079,0.00002,-0.14512,-0.38002,0.03987,,,,,,,,,,,,,,,,,,,,,,,,,,0,0,0,0,0
4.2100,1783010410.7223,1,1,1.0000,0.0000,1.44680,0.20734,-2.78393,1.00575,1.57079,0.00002,-0.14512,-0.38002,0.03987,,,,,,,,,,,,,,,,,,,,,,,,,,0,0,0,0,0
4.2170,1783010410.7294,1,1,1.0000,0.0000,1.44680,0.20726,-2.78395,1.00586,1.57079,0.00002,-0.14512,-0.38002,0.03985,,,,,,,,,,,,,,,,,,,,,,,,,,0,0,0,0,0
4.2252,1783010410.7376,1,1,1.0000,0.0000,1.44680,0.20715,-2.78398,1.00599,1.57079,0.00002,-0.14512,-0.38002,0.03982,,,,,,,,,,,,,,,,,,,,,,,,,,0,0,0,0,0
4.2332,1783010410.7456,1,1,1.0000,0.0000,1.44680,0.20709,-2.78399,1.00606,1.57079,0.00002,-0.14512,-0.38002,0.03980,,,,,,,,,,,,,,,,,,,,,,,,,,0,0,0,0,0
4.2490,1783010410.7614,1,1,1.0000,0.0000,1.44680,0.20700,-2.78401,1.00617,1.57079,0.00002,-0.14512,-0.38002,0.03978,,,,,,,,,,,,,,,,,,,,,,,,,,0,0,0,0,0
4.2496,1783010410.7619,1,1,1.0000,0.0000,1.44680,0.20700,-2.78401,1.00617,1.57079,0.00002,-0.14512,-0.38002,0.03978,,,,,,,,,,,,,,,,,,,,,,,,,,0,0,0,0,0
4.2598,1783010410.7722,1,1,1.0000,0.0000,1.44680,0.20692,-2.78403,1.00628,1.57079,0.00002,-0.14512,-0.38002,0.03976,,,,,,,,,,,,,,,,,,,,,,,,,,0,0,0,0,0
4.2617,1783010410.7740,1,1,1.0000,0.0000,1.44680,0.20692,-2.78403,1.00628,1.57079,0.00002,-0.14512,-0.38002,0.03976,,,,,,,,,,,,,,,,,,,,,,,,,,0,0,0,0,0
4.2621,1783010410.7744,1,1,1.0000,0.0000,1.44680,0.20692,-2.78403,1.00628,1.57079,0.00002,-0.14512,-0.38002,0.03976,,,,,,,,,,,,,,,,,,,,,,,,,,0,0,0,0,0
4.2720,1783010410.7844,1,1,1.0000,0.0000,1.44680,0.20684,-2.78405,1.00637,1.57079,0.00002,-0.14512,-0.38002,0.03974,,,,,,,,,,,,,,,,,,,,,,,,,,0,0,0,0,0
4.2844,1783010410.7968,1,1,1.0000,0.0000,1.44680,0.20669,-2.78409,1.00656,1.57079,0.00002,-0.14512,-0.38002,0.03970,,,,,,,,,,,,,,,,,,,,,,,,,,0,0,0,0,0
4.2848,1783010410.7971,1,1,1.0000,0.0000,1.44680,0.20669,-2.78409,1.00656,1.57079,0.00002,-0.14512,-0.38002,0.03970,,,,,,,,,,,,,,,,,,,,,,,,,,0,0,0,0,0
4.2932,1783010410.8055,1,1,1.0000,0.0000,1.44680,0.20663,-2.78410,1.00663,1.57079,0.00002,-0.14512,-0.38002,0.03969,,,,,,,,,,,,,,,,,,,,,,,,,,0,0,0,0,0
4.2936,1783010410.8060,1,1,1.0000,0.0000,1.44680,0.20663,-2.78410,1.00663,1.57079,0.00002,-0.14512,-0.38002,0.03969,,,,,,,,,,,,,,,,,,,,,,,,,,0,0,0,0,0
4.3035,1783010410.8158,1,1,1.0000,0.0000,1.44680,0.20658,-2.78411,1.00670,1.57079,0.00002,-0.14512,-0.38002,0.03968,,,,,,,,,,,,,,,,,,,,,,,,,,0,0,0,0,0
4.3136,1783010410.8259,1,1,1.0000,0.0000,1.44680,0.20650,-2.78413,1.00679,1.57079,0.00002,-0.14512,-0.38002,0.03966,,,,,,,,,,,,,,,,,,,,,,,,,,0,0,0,0,0
4.3139,1783010410.8262,1,1,1.0000,0.0000,1.44680,0.20650,-2.78413,1.00679,1.57079,0.00002,-0.14512,-0.38002,0.03966,,,,,,,,,,,,,,,,,,,,,,,,,,0,0,0,0,0
4.3230,1783010410.8353,1,1,1.0000,0.0000,1.44680,0.20645,-2.78414,1.00686,1.57079,0.00002,-0.14512,-0.38002,0.03964,,,,,,,,,,,,,,,,,,,,,,,,,,0,0,0,0,0
4.3319,1783010410.8443,1,1,1.0000,0.0000,1.44680,0.20638,-2.78416,1.00694,1.57079,0.00002,-0.14512,-0.38002,0.03963,,,,,,,,,,,,,,,,,,,,,,,,,,0,0,0,0,0
4.3476,1783010410.8600,1,1,1.0000,0.0000,1.44680,0.20617,-2.78421,1.00720,1.57079,0.00002,-0.14512,-0.38002,0.03957,,,,,,,,,,,,,,,,,,,,,,,,,,0,0,0,0,0
4.3624,1783010410.8748,1,1,1.0000,0.0000,1.44680,0.20614,-2.78421,1.00723,1.57079,0.00002,-0.14512,-0.38002,0.03957,,,,,,,,,,,,,,,,,,,,,,,,,,0,0,0,0,0
4.3631,1783010410.8754,1,1,1.0000,0.0000,1.44680,0.20612,-2.78422,1.00727,1.57079,0.00002,-0.14512,-0.38002,0.03956,,,,,,,,,,,,,,,,,,,,,,,,,,0,0,0,0,0
4.3640,1783010410.8763,1,1,1.0000,0.0000,1.44680,0.20612,-2.78422,1.00727,1.57079,0.00002,-0.14512,-0.38002,0.03956,,,,,,,,,,,,,,,,,,,,,,,,,,0,0,0,0,0
4.3644,1783010410.8767,1,1,1.0000,0.0000,1.44680,0.20612,-2.78422,1.00727,1.57079,0.00002,-0.14512,-0.38002,0.03956,,,,,,,,,,,,,,,,,,,,,,,,,,0,0,0,0,0
4.3750,1783010410.8874,1,1,1.0000,0.0000,1.44680,0.20599,-2.78425,1.00742,1.57079,0.00002,-0.14512,-0.38002,0.03953,,,,,,,,,,,,,,,,,,,,,,,,,,0,0,0,0,0
4.3753,1783010410.8876,1,1,1.0000,0.0000,1.44680,0.20599,-2.78425,1.00742,1.57079,0.00002,-0.14512,-0.38002,0.03953,,,,,,,,,,,,,,,,,,,,,,,,,,0,0,0,0,0
4.3826,1783010410.8949,1,1,1.0000,0.0000,1.44680,0.20599,-2.78425,1.00742,1.57079,0.00002,-0.14512,-0.38002,0.03953,,,,,,,,,,,,,,,,,,,,,,,,,,0,0,0,0,0
4.3832,1783010410.8956,1,1,1.0000,0.0000,1.44680,0.20598,-2.78425,1.00743,1.57079,0.00002,-0.14512,-0.38002,0.03953,,,,,,,,,,,,,,,,,,,,,,,,,,0,0,0,0,0
4.3918,1783010410.9041,1,1,1.0000,0.0000,1.44680,0.20592,-2.78427,1.00751,1.57079,0.00002,-0.14512,-0.38002,0.03951,,,,,,,,,,,,,,,,,,,,,,,,,,0,0,0,0,0
4.4079,1783010410.9202,1,1,1.0000,0.0000,1.44680,0.20571,-2.78432,1.00778,1.57079,0.00002,-0.14512,-0.38002,0.03946,,,,,,,,,,,,,,,,,,,,,,,,,,0,0,0,0,0
4.4125,1783010410.9249,1,1,1.0000,0.0000,1.44680,0.20571,-2.78432,1.00778,1.57079,0.00002,-0.14512,-0.38002,0.03946,,,,,,,,,,,,,,,,,,,,,,,,,,0,0,0,0,0
4.4334,1783010410.9458,1,1,1.0000,0.0000,1.44680,0.20558,-2.78435,1.00794,1.57079,0.00002,-0.14512,-0.38002,0.03942,,,,,,,,,,,,,,,,,,,,,,,,,,0,0,0,0,0
4.4338,1783010410.9462,1,1,1.0000,0.0000,1.44680,0.20558,-2.78435,1.00794,1.57079,0.00002,-0.14512,-0.38002,0.03942,,,,,,,,,,,,,,,,,,,,,,,,,,0,0,0,0,0
4.4533,1783010410.9656,1,1,1.0000,0.0000,1.44680,0.20546,-2.78438,1.00809,1.57079,0.00002,-0.14512,-0.38002,0.03939,,,,,,,,,,,,,,,,,,,,,,,,,,0,0,0,0,0
4.4539,1783010410.9662,1,1,1.0000,0.0000,1.44680,0.20546,-2.78438,1.00809,1.57079,0.00002,-0.14512,-0.38002,0.03939,,,,,,,,,,,,,,,,,,,,,,,,,,0,0,0,0,0
4.4542,1783010410.9666,1,1,1.0000,0.0000,1.44680,0.20546,-2.78438,1.00809,1.57079,0.00002,-0.14512,-0.38002,0.03939,,,,,,,,,,,,,,,,,,,,,,,,,,0,0,0,0,0
4.4671,1783010410.9795,1,1,1.0000,0.0000,1.44680,0.20524,-2.78443,1.00835,1.57079,0.00002,-0.14512,-0.38002,0.03934,,,,,,,,,,,,,,,,,,,,,,,,,,0,0,0,0,0
4.4675,1783010410.9798,1,1,1.0000,0.0000,1.44680,0.20524,-2.78443,1.00835,1.57079,0.00002,-0.14512,-0.38002,0.03934,,,,,,,,,,,,,,,,,,,,,,,,,,0,0,0,0,0
4.4758,1783010410.9881,1,1,1.0000,0.0000,1.44680,0.20524,-2.78443,1.00836,1.57079,0.00002,-0.14512,-0.38002,0.03934,,,,,,,,,,,,,,,,,,,,,,,,,,0,0,0,0,0
4.4837,1783010410.9961,1,1,1.0000,0.0000,1.44680,0.20517,-2.78445,1.00844,1.57079,0.00002,-0.14512,-0.38002,0.03932,,,,,,,,,,,,,,,,,,,,,,,,,,0,0,0,0,0
4.4994,1783010411.0117,1,1,1.0000,0.0000,1.44680,0.20502,-2.78448,1.00863,1.57079,0.00002,-0.14512,-0.38002,0.03928,,,,,,,,,,,,,,,,,,,,,,,,,,0,0,0,0,0
4.4996,1783010411.0119,1,1,1.0000,0.0000,1.44680,0.20502,-2.78448,1.00863,1.57079,0.00002,-0.14512,-0.38002,0.03928,,,,,,,,,,,,,,,,,,,,,,,,,,0,0,0,0,0
4.5038,1783010411.0161,1,1,1.0000,0.0000,1.44680,0.20501,-2.78448,1.00864,1.57079,0.00002,-0.14512,-0.38002,0.03928,,,,,,,,,,,,,,,,,,,,,,,,,,0,0,0,0,0
4.5040,1783010411.0164,1,1,1.0000,0.0000,1.44680,0.20501,-2.78448,1.00864,1.57079,0.00002,-0.14512,-0.38002,0.03928,,,,,,,,,,,,,,,,,,,,,,,,,,0,0,0,0,0
4.5154,1783010411.0278,1,1,1.0000,0.0000,1.44680,0.20490,-2.78451,1.00878,1.57079,0.00002,-0.14512,-0.38002,0.03925,,,,,,,,,,,,,,,,,,,,,,,,,,0,0,0,0,0
4.5215,1783010411.0339,1,1,1.0000,0.0000,1.44680,0.20485,-2.78452,1.00884,1.57079,0.00002,-0.14512,-0.38002,0.03924,,,,,,,,,,,,,,,,,,,,,,,,,,0,0,0,0,0
4.5219,1783010411.0343,1,1,1.0000,0.0000,1.44680,0.20485,-2.78452,1.00884,1.57079,0.00002,-0.14512,-0.38002,0.03924,,,,,,,,,,,,,,,,,,,,,,,,,,0,0,0,0,0
4.5326,1783010411.0449,1,1,1.0000,0.0000,1.44680,0.20474,-2.78455,1.00897,1.57079,0.00002,-0.14512,-0.38002,0.03921,,,,,,,,,,,,,,,,,,,,,,,,,,0,0,0,0,0
4.5461,1783010411.0584,1,1,1.0000,0.0000,1.44680,0.20467,-2.78457,1.00906,1.57079,0.00002,-0.14512,-0.38002,0.03919,,,,,,,,,,,,,,,,,,,,,,,,,,0,0,0,0,0
4.5464,1783010411.0587,1,1,1.0000,0.0000,1.44680,0.20467,-2.78457,1.00906,1.57079,0.00002,-0.14512,-0.38002,0.03919,,,,,,,,,,,,,,,,,,,,,,,,,,0,0,0,0,0
4.5552,1783010411.0676,1,1,1.0000,0.0000,1.44680,0.20451,-2.78460,1.00925,1.57079,0.00002,-0.14512,-0.38002,0.03916,,,,,,,,,,,,,,,,,,,,,,,,,,0,0,0,0,0
4.5555,1783010411.0679,1,1,1.0000,0.0000,1.44680,0.20451,-2.78460,1.00925,1.57079,0.00002,-0.14512,-0.38002,0.03916,,,,,,,,,,,,,,,,,,,,,,,,,,0,0,0,0,0
4.5622,1783010411.0745,1,1,1.0000,0.0000,1.44680,0.20451,-2.78460,1.00925,1.57079,0.00002,-0.14512,-0.38002,0.03916,,,,,,,,,,,,,,,,,,,,,,,,,,0,0,0,0,0
4.5783,1783010411.0906,1,1,1.0000,0.0000,1.44680,0.20439,-2.78463,1.00940,1.57079,0.00002,-0.14512,-0.38002,0.03913,,,,,,,,,,,,,,,,,,,,,,,,,,0,0,0,0,0
4.5821,1783010411.0944,1,1,1.0000,0.0000,1.44680,0.20434,-2.78464,1.00947,1.57079,0.00002,-0.14512,-0.38002,0.03911,,,,,,,,,,,,,,,,,,,,,,,,,,0,0,0,0,0
4.5824,1783010411.0948,1,1,1.0000,0.0000,1.44680,0.20434,-2.78464,1.00947,1.57079,0.00002,-0.14512,-0.38002,0.03911,,,,,,,,,,,,,,,,,,,,,,,,,,0,0,0,0,0
4.5918,1783010411.1042,1,1,1.0000,0.0000,1.44680,0.20423,-2.78467,1.00960,1.57079,0.00002,-0.14512,-0.38002,0.03909,,,,,,,,,,,,,,,,,,,,,,,,,,0,0,0,0,0
4.6065,1783010411.1188,1,1,1.0000,0.0000,1.44680,0.20416,-2.78469,1.00969,1.57079,0.00002,-0.14512,-0.38002,0.03907,,,,,,,,,,,,,,,,,,,,,,,,,,0,0,0,0,0
4.6126,1783010411.1249,1,1,1.0000,0.0000,1.44680,0.20406,-2.78471,1.00981,1.57079,0.00002,-0.14512,-0.38002,0.03904,,,,,,,,,,,,,,,,,,,,,,,,,,0,0,0,0,0
4.6239,1783010411.1362,1,1,1.0000,0.0000,1.44680,0.20400,-2.78472,1.00989,1.57079,0.00002,-0.14512,-0.38002,0.03903,,,,,,,,,,,,,,,,,,,,,,,,,,0,0,0,0,0
4.6335,1783010411.1458,1,1,1.0000,0.0000,1.44680,0.20394,-2.78474,1.00997,1.57079,0.00002,-0.14512,-0.38002,0.03901,,,,,,,,,,,,,,,,,,,,,,,,,,0,0,0,0,0
4.6419,1783010411.1543,1,1,1.0000,0.0000,1.44680,0.20384,-2.78476,1.01009,1.57079,0.00002,-0.14512,-0.38002,0.03899,,,,,,,,,,,,,,,,,,,,,,,,,,0,0,0,0,0
4.6570,1783010411.1694,1,1,1.0000,0.0000,1.44680,0.20372,-2.78479,1.01023,1.57079,0.00002,-0.14512,-0.38002,0.03896,,,,,,,,,,,,,,,,,,,,,,,,,,0,0,0,0,0
4.6621,1783010411.1745,1,1,1.0000,0.0000,1.44680,0.20369,-2.78480,1.01027,1.57079,0.00002,-0.14512,-0.38002,0.03895,,,,,,,,,,,,,,,,,,,,,,,,,,0,0,0,0,0
4.6742,1783010411.1865,1,1,1.0000,0.0000,1.44680,0.20356,-2.78483,1.01044,1.57079,0.00002,-0.14512,-0.38002,0.03892,,,,,,,,,,,,,,,,,,,,,,,,,,0,0,0,0,0
4.6840,1783010411.1963,1,1,1.0000,0.0000,1.44680,0.20345,-2.78485,1.01057,1.57079,0.00002,-0.14512,-0.38002,0.03889,,,,,,,,,,,,,,,,,,,,,,,,,,0,0,0,0,0
4.6844,1783010411.1967,1,1,1.0000,0.0000,1.44680,0.20345,-2.78485,1.01057,1.57079,0.00002,-0.14512,-0.38002,0.03889,,,,,,,,,,,,,,,,,,,,,,,,,,0,0,0,0,0
4.6921,1783010411.2044,1,1,1.0000,0.0000,1.44680,0.20342,-2.78486,1.01060,1.57079,0.00002,-0.14512,-0.38002,0.03888,,,,,,,,,,,,,,,,,,,,,,,,,,0,0,0,0,0
4.7037,1783010411.2160,1,1,1.0000,0.0000,1.44680,0.20332,-2.78489,1.01073,1.57079,0.00002,-0.14512,-0.38002,0.03886,,,,,,,,,,,,,,,,,,,,,,,,,,0,0,0,0,0
4.7132,1783010411.2255,1,1,1.0000,0.0000,1.44680,0.20327,-2.78490,1.01079,1.57079,0.00002,-0.14512,-0.38002,0.03884,,,,,,,,,,,,,,,,,,,,,,,,,,0,0,0,0,0
4.7237,1783010411.2360,1,1,1.0000,0.0000,1.44680,0.20320,-2.78491,1.01088,1.57079,0.00002,-0.14512,-0.38002,0.03883,,,,,,,,,,,,,,,,,,,,,,,,,,0,0,0,0,0
4.7371,1783010411.2494,1,1,1.0000,0.0000,1.44680,0.20304,-2.78495,1.01108,1.57079,0.00002,-0.14512,-0.38002,0.03879,,,,,,,,,,,,,,,,,,,,,,,,,,0,0,0,0,0
4.7374,1783010411.2498,1,1,1.0000,0.0000,1.44680,0.20304,-2.78495,1.01108,1.57079,0.00002,-0.14512,-0.38002,0.03879,,,,,,,,,,,,,,,,,,,,,,,,,,0,0,0,0,0
4.7419,1783010411.2543,1,1,1.0000,0.0000,1.44680,0.20298,-2.78496,1.01114,1.57079,0.00002,-0.14512,-0.38002,0.03877,,,,,,,,,,,,,,,,,,,,,,,,,,0,0,0,0,0
4.7422,1783010411.2546,1,1,1.0000,0.0000,1.44680,0.20298,-2.78496,1.01114,1.57079,0.00002,-0.14512,-0.38002,0.03877,,,,,,,,,,,,,,,,,,,,,,,,,,0,0,0,0,0
4.7551,1783010411.2674,1,1,1.0000,0.0000,1.44680,0.20293,-2.78498,1.01121,1.57079,0.00002,-0.14512,-0.38002,0.03876,,,,,,,,,,,,,,,,,,,,,,,,,,0,0,0,0,0
4.7554,1783010411.2678,1,1,1.0000,0.0000,1.44680,0.20293,-2.78498,1.01121,1.57079,0.00002,-0.14512,-0.38002,0.03876,,,,,,,,,,,,,,,,,,,,,,,,,,0,0,0,0,0
4.7631,1783010411.2754,1,1,1.0000,0.0000,1.44680,0.20285,-2.78500,1.01131,1.57079,0.00002,-0.14512,-0.38002,0.03874,,,,,,,,,,,,,,,,,,,,,,,,,,0,0,0,0,0
4.7733,1783010411.2857,1,1,1.0000,0.0000,1.44680,0.20281,-2.78501,1.01136,1.57079,0.00002,-0.14512,-0.38002,0.03873,,,,,,,,,,,,,,,,,,,,,,,,,,0,0,0,0,0
4.7837,1783010411.2960,1,1,1.0000,0.0000,1.44680,0.20273,-2.78502,1.01146,1.57079,0.00002,-0.14512,-0.38002,0.03871,,,,,,,,,,,,,,,,,,,,,,,,,,0,0,0,0,0
4.7916,1783010411.3039,1,1,1.0000,0.0000,1.44680,0.20263,-2.78505,1.01158,1.57079,0.00002,-0.14512,-0.38002,0.03868,,,,,,,,,,,,,,,,,,,,,,,,,,0,0,0,0,0
4.7919,1783010411.3043,1,1,1.0000,0.0000,1.44680,0.20263,-2.78505,1.01158,1.57079,0.00002,-0.14512,-0.38002,0.03868,,,,,,,,,,,,,,,,,,,,,,,,,,0,0,0,0,0
4.8052,1783010411.3175,1,1,1.0000,0.0000,1.44680,0.20252,-2.78507,1.01172,1.57079,0.00002,-0.14512,-0.38002,0.03866,,,,,,,,,,,,,,,,,,,,,,,,,,0,0,0,0,0
4.8169,1783010411.3293,1,1,1.0000,0.0000,1.44680,0.20247,-2.78509,1.01178,1.57079,0.00002,-0.14512,-0.38002,0.03864,,,,,,,,,,,,,,,,,,,,,,,,,,0,0,0,0,0
4.8254,1783010411.3378,1,1,1.0000,0.0000,1.44680,0.20239,-2.78511,1.01188,1.57079,0.00002,-0.14512,-0.38002,0.03862,,,,,,,,,,,,,,,,,,,,,,,,,,0,0,0,0,0
4.8258,1783010411.3381,1,1,1.0000,0.0000,1.44680,0.20239,-2.78511,1.01188,1.57079,0.00002,-0.14512,-0.38002,0.03862,,,,,,,,,,,,,,,,,,,,,,,,,,0,0,0,0,0
4.8414,1783010411.3537,1,1,1.0000,0.0000,1.44680,0.20231,-2.78512,1.01198,1.57079,0.00002,-0.14512,-0.38002,0.03860,,,,,,,,,,,,,,,,,,,,,,,,,,0,0,0,0,0
4.8418,1783010411.3541,1,1,1.0000,0.0000,1.44680,0.20231,-2.78512,1.01198,1.57079,0.00002,-0.14512,-0.38002,0.03860,,,,,,,,,,,,,,,,,,,,,,,,,,0,0,0,0,0
4.8503,1783010411.3626,1,1,1.0000,0.0000,1.44680,0.20222,-2.78515,1.01209,1.57079,0.00002,-0.14512,-0.38002,0.03858,,,,,,,,,,,,,,,,,,,,,,,,,,0,0,0,0,0
4.8552,1783010411.3676,1,1,1.0000,0.0000,1.44680,0.20211,-2.78517,1.01223,1.57079,0.00002,-0.14512,-0.38002,0.03855,,,,,,,,,,,,,,,,,,,,,,,,,,0,0,0,0,0
4.8555,1783010411.3679,1,1,1.0000,0.0000,1.44680,0.20211,-2.78517,1.01223,1.57079,0.00002,-0.14512,-0.38002,0.03855,,,,,,,,,,,,,,,,,,,,,,,,,,0,0,0,0,0
4.8655,1783010411.3779,1,1,1.0000,0.0000,1.44680,0.20205,-2.78518,1.01229,1.57079,0.00002,-0.14512,-0.38002,0.03854,,,,,,,,,,,,,,,,,,,,,,,,,,0,0,0,0,0
4.8752,1783010411.3875,1,1,1.0000,0.0000,1.44680,0.20200,-2.78520,1.01236,1.57079,0.00002,-0.14512,-0.38002,0.03853,,,,,,,,,,,,,,,,,,,,,,,,,,0,0,0,0,0
4.8756,1783010411.3879,1,1,1.0000,0.0000,1.44680,0.20200,-2.78520,1.01236,1.57079,0.00002,-0.14512,-0.38002,0.03853,,,,,,,,,,,,,,,,,,,,,,,,,,0,0,0,0,0
4.8930,1783010411.4054,1,1,1.0000,0.0000,1.44680,0.20188,-2.78523,1.01251,1.57079,0.00002,-0.14512,-0.38001,0.03850,,,,,,,,,,,,,,,,,,,,,,,,,,0,0,0,0,0
4.8951,1783010411.4075,1,1,1.0000,0.0000,1.44680,0.20187,-2.78523,1.01252,1.57079,0.00002,-0.14512,-0.38001,0.03849,,,,,,,,,,,,,,,,,,,,,,,,,,0,0,0,0,0
4.8954,1783010411.4077,1,1,1.0000,0.0000,1.44680,0.20187,-2.78523,1.01252,1.57079,0.00002,-0.14512,-0.38001,0.03849,,,,,,,,,,,,,,,,,,,,,,,,,,0,0,0,0,0
4.9252,1783010411.4375,1,1,1.0000,0.0000,1.44680,0.20159,-2.78529,1.01287,1.57079,0.00002,-0.14512,-0.38001,0.03842,,,,,,,,,,,,,,,,,,,,,,,,,,0,0,0,0,0
4.9255,1783010411.4379,1,1,1.0000,0.0000,1.44680,0.20159,-2.78529,1.01287,1.57079,0.00002,-0.14512,-0.38001,0.03842,,,,,,,,,,,,,,,,,,,,,,,,,,0,0,0,0,0
4.9259,1783010411.4382,1,1,1.0000,0.0000,1.44680,0.20159,-2.78529,1.01287,1.57079,0.00002,-0.14512,-0.38001,0.03842,,,,,,,,,,,,,,,,,,,,,,,,,,0,0,0,0,0
4.9262,1783010411.4385,1,1,1.0000,0.0000,1.44680,0.20159,-2.78529,1.01287,1.57079,0.00002,-0.14512,-0.38001,0.03842,,,,,,,,,,,,,,,,,,,,,,,,,,0,0,0,0,0
4.9422,1783010411.4545,1,1,1.0000,0.0000,1.44680,0.20150,-2.78531,1.01298,1.57079,0.00003,-0.14512,-0.38001,0.03840,,,,,,,,,,,,,,,,,,,,,,,,,,0,0,0,0,0
4.9449,1783010411.4572,1,1,1.0000,0.0000,1.44680,0.20146,-2.78532,1.01303,1.57079,0.00003,-0.14512,-0.38001,0.03839,,,,,,,,,,,,,,,,,,,,,,,,,,0,0,0,0,0
4.9454,1783010411.4577,1,1,1.0000,0.0000,1.44680,0.20146,-2.78532,1.01303,1.57079,0.00003,-0.14512,-0.38001,0.03839,,,,,,,,,,,,,,,,,,,,,,,,,,0,0,0,0,0
4.9601,1783010411.4724,1,1,1.0000,0.0000,1.44680,0.20138,-2.78534,1.01313,1.57079,0.00003,-0.14512,-0.38001,0.03837,,,,,,,,,,,,,,,,,,,,,,,,,,0,0,0,0,0
4.9685,1783010411.4808,1,1,1.0000,0.0000,1.44680,0.20129,-2.78536,1.01324,1.57079,0.00003,-0.14512,-0.38001,0.03835,,,,,,,,,,,,,,,,,,,,,,,,,,0,0,0,0,0
4.9760,1783010411.4883,1,1,1.0000,0.0000,1.44680,0.20118,-2.78539,1.01338,1.57079,0.00003,-0.14512,-0.38001,0.03832,,,,,,,,,,,,,,,,,,,,,,,,,,0,0,0,0,0
4.9763,1783010411.4886,1,1,1.0000,0.0000,1.44680,0.20118,-2.78539,1.01338,1.57079,0.00003,-0.14512,-0.38001,0.03832,,,,,,,,,,,,,,,,,,,,,,,,,,0,0,0,0,0
4.9862,1783010411.4985,1,1,1.0000,0.0000,1.44680,0.20112,-2.78540,1.01344,1.57079,0.00003,-0.14512,-0.38001,0.03831,,,,,,,,,,,,,,,,,,,,,,,,,,0,0,0,0,0
4.9866,1783010411.4990,1,1,1.0000,0.0000,1.44680,0.20112,-2.78540,1.01344,1.57079,0.00003,-0.14512,-0.38001,0.03831,,,,,,,,,,,,,,,,,,,,,,,,,,0,0,0,0,0
4.9951,1783010411.5075,1,1,1.0000,0.0000,1.44680,0.20105,-2.78542,1.01353,1.57079,0.00003,-0.14512,-0.38001,0.03829,,,,,,,,,,,,,,,,,,,,,,,,,,0,0,0,0,0
5.0062,1783010411.5185,1,1,1.0000,0.0000,1.44680,0.20095,-2.78544,1.01366,1.57079,0.00003,-0.14512,-0.38001,0.03826,,,,,,,,,,,,,,,,,,,,,,,,,,0,0,0,0,0
5.0222,1783010411.5346,1,1,1.0000,0.0000,1.44680,0.20086,-2.78546,1.01377,1.57079,0.00003,-0.14512,-0.38001,0.03824,,,,,,,,,,,,,,,,,,,,,,,,,,0,0,0,0,0
5.0336,1783010411.5459,1,1,1.0000,0.0000,1.44680,0.20072,-2.78550,1.01394,1.57079,0.00003,-0.14512,-0.38001,0.03821,,,,,,,,,,,,,,,,,,,,,,,,,,0,0,0,0,0
5.0394,1783010411.5517,1,1,1.0000,0.0000,1.44680,0.20062,-2.78552,1.01407,1.57079,0.00003,-0.14512,-0.38001,0.03818,,,,,,,,,,,,,,,,,,,,,,,,,,0,0,0,0,0
5.0397,1783010411.5521,1,1,1.0000,0.0000,1.44680,0.20062,-2.78552,1.01407,1.57079,0.00003,-0.14512,-0.38001,0.03818,,,,,,,,,,,,,,,,,,,,,,,,,,0,0,0,0,0
5.0487,1783010411.5611,1,1,1.0000,0.0000,1.44680,0.20061,-2.78552,1.01408,1.57079,0.00003,-0.14512,-0.38001,0.03818,,,,,,,,,,,,,,,,,,,,,,,,,,0,0,0,0,0
5.0493,1783010411.5616,1,1,1.0000,0.0000,1.44680,0.20061,-2.78552,1.01408,1.57079,0.00003,-0.14512,-0.38001,0.03818,,,,,,,,,,,,,,,,,,,,,,,,,,0,0,0,0,0
5.0702,1783010411.5825,1,1,1.0000,0.0000,1.44680,0.20039,-2.78558,1.01435,1.57079,0.00003,-0.14512,-0.38001,0.03812,,,,,,,,,,,,,,,,,,,,,,,,,,0,0,0,0,0
5.0705,1783010411.5828,1,1,1.0000,0.0000,1.44680,0.20039,-2.78558,1.01435,1.57079,0.00003,-0.14512,-0.38001,0.03812,,,,,,,,,,,,,,,,,,,,,,,,,,0,0,0,0,0
5.0799,1783010411.5922,1,1,1.0000,0.0000,1.44680,0.20035,-2.78558,1.01439,1.57079,0.00003,-0.14512,-0.38001,0.03812,,,,,,,,,,,,,,,,,,,,,,,,,,0,0,0,0,0
5.0913,1783010411.6036,1,1,1.0000,0.0000,1.44680,0.20022,-2.78562,1.01456,1.57079,0.00003,-0.14512,-0.38001,0.03808,,,,,,,,,,,,,,,,,,,,,,,,,,0,0,0,0,0
5.0917,1783010411.6041,1,1,1.0000,0.0000,1.44680,0.20022,-2.78562,1.01456,1.57079,0.00003,-0.14512,-0.38001,0.03808,,,,,,,,,,,,,,,,,,,,,,,,,,0,0,0,0,0
5.1017,1783010411.6140,1,1,1.0000,0.0000,1.44680,0.20011,-2.78564,1.01470,1.57079,0.00003,-0.14512,-0.38001,0.03805,,,,,,,,,,,,,,,,,,,,,,,,,,0,0,0,0,0
5.1331,1783010411.6455,1,1,1.0000,0.0000,1.44680,0.19988,-2.78569,1.01498,1.57079,0.00003,-0.14512,-0.38001,0.03800,,,,,,,,,,,,,,,,,,,,,,,,,,0,0,0,0,0
5.1814,1783010411.6937,1,1,1.0000,0.0000,1.44680,0.19948,-2.78579,1.01547,1.57079,0.00003,-0.14512,-0.38001,0.03790,,,,,,,,,,,,,,,,,,,,,,,,,,0,0,0,0,0
5.1817,1783010411.6940,1,1,1.0000,0.0000,1.44680,0.19948,-2.78579,1.01547,1.57079,0.00003,-0.14512,-0.38001,0.03790,,,,,,,,,,,,,,,,,,,,,,,,,,0,0,0,0,0
5.1819,1783010411.6943,1,1,1.0000,0.0000,1.44680,0.19948,-2.78579,1.01547,1.57079,0.00003,-0.14512,-0.38001,0.03790,,,,,,,,,,,,,,,,,,,,,,,,,,0,0,0,0,0
5.1823,1783010411.6947,1,1,1.0000,0.0000,1.44680,0.19948,-2.78579,1.01547,1.57079,0.00003,-0.14512,-0.38001,0.03790,,,,,,,,,,,,,,,,,,,,,,,,,,0,0,0,0,0
5.1826,1783010411.6949,1,1,1.0000,0.0000,1.44680,0.19948,-2.78579,1.01547,1.57079,0.00003,-0.14512,-0.38001,0.03790,,,,,,,,,,,,,,,,,,,,,,,,,,0,0,0,0,0
5.1831,1783010411.6955,1,1,1.0000,0.0000,1.44680,0.19943,-2.78580,1.01554,1.57079,0.00003,-0.14512,-0.38001,0.03788,,,,,,,,,,,,,,,,,,,,,,,,,,0,0,0,0,0
5.2092,1783010411.7216,1,1,1.0000,0.0000,1.44680,0.19925,-2.78584,1.01575,1.57079,0.00003,-0.14512,-0.38001,0.03784,,,,,,,,,,,,,,,,,,,,,,,,,,0,0,0,0,0
5.2097,1783010411.7221,1,1,1.0000,0.0000,1.44680,0.19925,-2.78584,1.01575,1.57079,0.00003,-0.14512,-0.38001,0.03784,,,,,,,,,,,,,,,,,,,,,,,,,,0,0,0,0,0
5.2102,1783010411.7225,1,1,1.0000,0.0000,1.44680,0.19925,-2.78584,1.01575,1.57079,0.00003,-0.14512,-0.38001,0.03784,,,,,,,,,,,,,,,,,,,,,,,,,,0,0,0,0,0
5.2108,1783010411.7232,1,1,1.0000,0.0000,1.44680,0.19920,-2.78585,1.01582,1.57079,0.00003,-0.14512,-0.38001,0.03783,,,,,,,,,,,,,,,,,,,,,,,,,,0,0,0,0,0
5.2111,1783010411.7235,1,1,1.0000,0.0000,1.44680,0.19920,-2.78585,1.01582,1.57079,0.00003,-0.14512,-0.38001,0.03783,,,,,,,,,,,,,,,,,,,,,,,,,,0,0,0,0,0
5.2214,1783010411.7338,1,1,1.0000,0.0000,1.44680,0.19909,-2.78588,1.01595,1.57079,0.00003,-0.14512,-0.38001,0.03780,,,,,,,,,,,,,,,,,,,,,,,,,,0,0,0,0,0
5.2333,1783010411.7457,1,1,1.0000,0.0000,1.44680,0.19906,-2.78589,1.01599,1.57079,0.00003,-0.14512,-0.38001,0.03779,,,,,,,,,,,,,,,,,,,,,,,,,,0,0,0,0,0
5.2337,1783010411.7460,1,1,1.0000,0.0000,1.44680,0.19906,-2.78589,1.01599,1.57079,0.00003,-0.14512,-0.38001,0.03779,,,,,,,,,,,,,,,,,,,,,,,,,,0,0,0,0,0
5.2390,1783010411.7513,1,1,1.0000,0.0000,1.44680,0.19897,-2.78591,1.01610,1.57079,0.00003,-0.14512,-0.38001,0.03777,,,,,,,,,,,,,,,,,,,,,,,,,,0,0,0,0,0
5.2550,1783010411.7674,1,1,1.0000,0.0000,1.44680,0.19885,-2.78593,1.01624,1.57079,0.00003,-0.14512,-0.38001,0.03774,,,,,,,,,,,,,,,,,,,,,,,,,,0,0,0,0,0
5.2553,1783010411.7677,1,1,1.0000,0.0000,1.44680,0.19885,-2.78593,1.01624,1.57079,0.00003,-0.14512,-0.38001,0.03774,,,,,,,,,,,,,,,,,,,,,,,,,,0,0,0,0,0
5.2725,1783010411.7848,1,1,1.0000,0.0000,1.44680,0.19869,-2.78597,1.01645,1.57079,0.00003,-0.14512,-0.38001,0.03770,,,,,,,,,,,,,,,,,,,,,,,,,,0,0,0,0,0
5.2728,1783010411.7852,1,1,1.0000,0.0000,1.44680,0.19869,-2.78597,1.01645,1.57079,0.00003,-0.14512,-0.38001,0.03770,,,,,,,,,,,,,,,,,,,,,,,,,,0,0,0,0,0
5.2850,1783010411.7973,1,1,1.0000,0.0000,1.44680,0.19858,-2.78600,1.01658,1.57079,0.00003,-0.14512,-0.38001,0.03767,,,,,,,,,,,,,,,,,,,,,,,,,,0,0,0,0,0
5.2895,1783010411.8019,1,1,1.0000,0.0000,1.44680,0.19857,-2.78600,1.01659,1.57079,0.00003,-0.14512,-0.38001,0.03767,,,,,,,,,,,,,,,,,,,,,,,,,,0,0,0,0,0
5.2898,1783010411.8022,1,1,1.0000,0.0000,1.44680,0.19857,-2.78600,1.01659,1.57079,0.00003,-0.14512,-0.38001,0.03767,,,,,,,,,,,,,,,,,,,,,,,,,,0,0,0,0,0
5.3197,1783010411.8321,1,1,1.0000,0.0000,1.44680,0.19832,-2.78606,1.01690,1.57079,0.00003,-0.14512,-0.38001,0.03761,,,,,,,,,,,,,,,,,,,,,,,,,,0,0,0,0,0
5.3201,1783010411.8324,1,1,1.0000,0.0000,1.44680,0.19832,-2.78606,1.01690,1.57079,0.00003,-0.14512,-0.38001,0.03761,,,,,,,,,,,,,,,,,,,,,,,,,,0,0,0,0,0
5.3234,1783010411.8357,1,1,1.0000,0.0000,1.44680,0.19828,-2.78607,1.01695,1.57079,0.00003,-0.14512,-0.38001,0.03760,,,,,,,,,,,,,,,,,,,,,,,,,,0,0,0,0,0
5.3238,1783010411.8362,1,1,1.0000,0.0000,1.44680,0.19828,-2.78607,1.01695,1.57079,0.00003,-0.14512,-0.38001,0.03760,,,,,,,,,,,,,,,,,,,,,,,,,,0,0,0,0,0
5.3304,1783010411.8428,1,1,1.0000,0.0000,1.44680,0.19823,-2.78608,1.01701,1.57079,0.00003,-0.14512,-0.38001,0.03759,,,,,,,,,,,,,,,,,,,,,,,,,,0,0,0,0,0
5.3447,1783010411.8571,1,1,1.0000,0.0000,1.44680,0.19807,-2.78612,1.01721,1.57079,0.00003,-0.14512,-0.38001,0.03755,,,,,,,,,,,,,,,,,,,,,,,,,,0,0,0,0,0
5.3551,1783010411.8674,1,1,1.0000,0.0000,1.44680,0.19800,-2.78613,1.01730,1.57079,0.00003,-0.14512,-0.38001,0.03753,,,,,,,,,,,,,,,,,,,,,,,,,,0,0,0,0,0
5.3554,1783010411.8677,1,1,1.0000,0.0000,1.44680,0.19800,-2.78613,1.01730,1.57079,0.00003,-0.14512,-0.38001,0.03753,,,,,,,,,,,,,,,,,,,,,,,,,,0,0,0,0,0
5.3766,1783010411.8890,1,1,1.0000,0.0000,1.44680,0.19779,-2.78618,1.01755,1.57079,0.00003,-0.14512,-0.38001,0.03748,,,,,,,,,,,,,,,,,,,,,,,,,,0,0,0,0,0
5.4197,1783010411.9321,1,1,1.0000,0.0000,1.44680,0.19748,-2.78625,1.01793,1.57079,0.00003,-0.14512,-0.38001,0.03740,,,,,,,,,,,,,,,,,,,,,,,,,,0,0,0,0,0
5.4200,1783010411.9324,1,1,1.0000,0.0000,1.44680,0.19748,-2.78625,1.01793,1.57079,0.00003,-0.14512,-0.38001,0.03740,,,,,,,,,,,,,,,,,,,,,,,,,,0,0,0,0,0
5.4204,1783010411.9328,1,1,1.0000,0.0000,1.44680,0.19748,-2.78625,1.01793,1.57079,0.00003,-0.14512,-0.38001,0.03740,,,,,,,,,,,,,,,,,,,,,,,,,,0,0,0,0,0
5.4206,1783010411.9329,1,1,1.0000,0.0000,1.44680,0.19748,-2.78625,1.01793,1.57079,0.00003,-0.14512,-0.38001,0.03740,,,,,,,,,,,,,,,,,,,,,,,,,,0,0,0,0,0
5.4746,1783010411.9869,1,1,1.0000,0.0000,1.44680,0.19711,-2.78634,1.01840,1.57079,0.00003,-0.14512,-0.38001,0.03731,,,,,,,,,,,,,,,,,,,,,,,,,,0,0,0,0,0
5.4753,1783010411.9877,1,1,1.0000,0.0000,1.44680,0.19707,-2.78635,1.01845,1.57079,0.00003,-0.14512,-0.38001,0.03730,,,,,,,,,,,,,,,,,,,,,,,,,,0,0,0,0,0
5.4757,1783010411.9881,1,1,1.0000,0.0000,1.44680,0.19707,-2.78635,1.01845,1.57079,0.00003,-0.14512,-0.38001,0.03730,,,,,,,,,,,,,,,,,,,,,,,,,,0,0,0,0,0
5.4761,1783010411.9884,1,1,1.0000,0.0000,1.44680,0.19707,-2.78635,1.01845,1.57079,0.00003,-0.14512,-0.38001,0.03730,,,,,,,,,,,,,,,,,,,,,,,,,,0,0,0,0,0
5.4764,1783010411.9888,1,1,1.0000,0.0000,1.44680,0.19707,-2.78635,1.01845,1.57079,0.00003,-0.14512,-0.38001,0.03730,,,,,,,,,,,,,,,,,,,,,,,,,,0,0,0,0,0
5.4768,1783010411.9891,1,1,1.0000,0.0000,1.44680,0.19707,-2.78635,1.01845,1.57079,0.00003,-0.14512,-0.38001,0.03730,,,,,,,,,,,,,,,,,,,,,,,,,,0,0,0,0,0
5.4792,1783010411.9915,1,1,1.0000,0.0000,1.44680,0.19702,-2.78636,1.01851,1.57079,0.00003,-0.14512,-0.38001,0.03728,,,,,,,,,,,,,,,,,,,,,,,,,,0,0,0,0,0
5.5002,1783010412.0126,1,1,1.0000,0.0000,1.44680,0.19685,-2.78640,1.01872,1.57079,0.00003,-0.14511,-0.38001,0.03724,,,,,,,,,,,,,,,,,,,,,,,,,,0,0,0,0,0
