Martins-Lucaas/twinforge/sensors/Data/20260704_154224__samples.csv
t_rel_s,t_unix,cycle,phase,setpoint_n,force_net_n,q1,q2,q3,q4,q5,q6,tcp_x,tcp_y,tcp_z,taxel_0,taxel_1,taxel_2,taxel_3,taxel_4,taxel_5,taxel_6,taxel_7,taxel_8,taxel_9,taxel_10,taxel_11,taxel_12,taxel_13,taxel_14,taxel_15,taxel_16,taxel_17,taxel_18,taxel_19,taxel_20,taxel_21,taxel_22,taxel_23,taxel_24,n_RA,n_SA,cn_mm,cn_ra,cn_sa
0.0008,1783190544.2197,0,-1,3.0000,0.0000,1.44682,0.23328,-2.77748,0.97337,1.57080,0.00000,-0.14512,-0.38003,0.04653,,,,,,,,,,,,,,,,,,,,,,,,,,0,0,0,0,0
0.0061,1783190544.2251,1,0,3.0000,0.0000,1.44682,0.23328,-2.77748,0.97337,1.57080,-0.00000,-0.14512,-0.38003,0.04653,,,,,,,,,,,,,,,,,,,,,,,,,,0,0,0,0,0
0.0211,1783190544.2401,1,0,3.0000,0.0000,1.44682,0.23328,-2.77748,0.97337,1.57080,-0.00000,-0.14512,-0.38003,0.04653,,,,,,,,,,,,,,,,,,,,,,,,,,0,0,0,0,0
0.0270,1783190544.2459,1,0,3.0000,0.0000,1.44682,0.23328,-2.77748,0.97337,1.57080,-0.00000,-0.14512,-0.38003,0.04653,,,,,,,,,,,,,,,,,,,,,,,,,,0,0,0,0,0
0.0397,1783190544.2586,1,0,3.0000,0.0000,1.44682,0.23328,-2.77748,0.97337,1.57080,-0.00000,-0.14512,-0.38003,0.04653,,,,,,,,,,,,,,,,,,,,,,,,,,0,0,0,0,0
0.0481,1783190544.2670,1,0,3.0000,0.0000,1.44682,0.23328,-2.77748,0.97337,1.57080,-0.00000,-0.14512,-0.38003,0.04653,,,,,,,,,,,,,,,,,,,,,,,,,,0,0,0,0,0
0.0560,1783190544.2749,1,0,3.0000,0.0000,1.44682,0.23328,-2.77748,0.97337,1.57080,-0.00000,-0.14512,-0.38003,0.04653,,,,,,,,,,,,,,,,,,,,,,,,,,0,0,0,0,0
0.0705,1783190544.2895,1,0,3.0000,0.0000,1.44682,0.23328,-2.77748,0.97337,1.57080,-0.00000,-0.14512,-0.38003,0.04653,,,,,,,,,,,,,,,,,,,,,,,,,,0,0,0,0,0
0.0826,1783190544.3015,1,0,3.0000,0.0000,1.44682,0.23328,-2.77748,0.97337,1.57080,0.00000,-0.14512,-0.38003,0.04653,,,,,,,,,,,,,,,,,,,,,,,,,,0,0,0,0,0
0.0908,1783190544.3097,1,0,3.0000,0.0000,1.44682,0.23328,-2.77748,0.97337,1.57080,0.00000,-0.14512,-0.38003,0.04653,,,,,,,,,,,,,,,,,,,,,,,,,,0,0,0,0,0
0.0912,1783190544.3101,1,0,3.0000,0.0000,1.44682,0.23328,-2.77748,0.97337,1.57080,0.00000,-0.14512,-0.38003,0.04653,,,,,,,,,,,,,,,,,,,,,,,,,,0,0,0,0,0
0.1031,1783190544.3220,1,0,3.0000,0.0000,1.44682,0.23328,-2.77748,0.97337,1.57080,0.00000,-0.14512,-0.38003,0.04653,,,,,,,,,,,,,,,,,,,,,,,,,,0,0,0,0,0
0.1229,1783190544.3418,1,0,3.0000,0.0000,1.44682,0.23328,-2.77748,0.97337,1.57080,0.00000,-0.14512,-0.38003,0.04653,,,,,,,,,,,,,,,,,,,,,,,,,,0,0,0,0,0
0.1311,1783190544.3501,1,0,3.0000,0.0000,1.44682,0.23328,-2.77748,0.97337,1.57080,0.00000,-0.14512,-0.38003,0.04653,,,,,,,,,,,,,,,,,,,,,,,,,,0,0,0,0,0
0.1425,1783190544.3614,1,0,3.0000,0.0000,1.44682,0.23328,-2.77748,0.97337,1.57080,0.00000,-0.14512,-0.38003,0.04653,,,,,,,,,,,,,,,,,,,,,,,,,,0,0,0,0,0
0.1532,1783190544.3721,1,0,3.0000,0.0000,1.44682,0.23328,-2.77748,0.97337,1.57080,0.00000,-0.14512,-0.38003,0.04653,,,,,,,,,,,,,,,,,,,,,,,,,,0,0,0,0,0
0.1535,1783190544.3724,1,0,3.0000,0.0000,1.44682,0.23328,-2.77748,0.97337,1.57080,0.00000,-0.14512,-0.38003,0.04653,,,,,,,,,,,,,,,,,,,,,,,,,,0,0,0,0,0
0.1721,1783190544.3911,1,0,3.0000,0.0000,1.44682,0.23328,-2.77748,0.97337,1.57080,0.00000,-0.14512,-0.38003,0.04653,,,,,,,,,,,,,,,,,,,,,,,,,,0,0,0,0,0
0.1749,1783190544.3938,1,0,3.0000,0.0000,1.44682,0.23328,-2.77748,0.97337,1.57080,0.00000,-0.14512,-0.38003,0.04653,,,,,,,,,,,,,,,,,,,,,,,,,,0,0,0,0,0
0.1817,1783190544.4006,1,0,3.0000,0.0000,1.44682,0.23328,-2.77748,0.97337,1.57080,0.00000,-0.14512,-0.38003,0.04653,,,,,,,,,,,,,,,,,,,,,,,,,,0,0,0,0,0
0.1953,1783190544.4142,1,0,3.0000,0.0000,1.44682,0.23328,-2.77748,0.97337,1.57080,0.00000,-0.14512,-0.38003,0.04653,,,,,,,,,,,,,,,,,,,,,,,,,,0,0,0,0,0
0.1957,1783190544.4146,1,0,3.0000,0.0000,1.44682,0.23328,-2.77748,0.97337,1.57080,0.00000,-0.14512,-0.38003,0.04653,,,,,,,,,,,,,,,,,,,,,,,,,,0,0,0,0,0
0.2053,1783190544.4242,1,0,3.0000,0.0000,1.44682,0.23328,-2.77748,0.97337,1.57080,0.00000,-0.14512,-0.38003,0.04653,,,,,,,,,,,,,,,,,,,,,,,,,,0,0,0,0,0
0.2057,1783190544.4246,1,0,3.0000,0.0000,1.44682,0.23328,-2.77748,0.97337,1.57080,0.00000,-0.14512,-0.38003,0.04653,,,,,,,,,,,,,,,,,,,,,,,,,,0,0,0,0,0
0.2121,1783190544.4310,1,0,3.0000,0.0000,1.44682,0.23328,-2.77748,0.97337,1.57080,0.00000,-0.14512,-0.38003,0.04653,,,,,,,,,,,,,,,,,,,,,,,,,,0,0,0,0,0
0.2258,1783190544.4447,1,0,3.0000,0.0000,1.44682,0.23328,-2.77748,0.97337,1.57080,0.00000,-0.14512,-0.38003,0.04653,,,,,,,,,,,,,,,,,,,,,,,,,,0,0,0,0,0
0.2262,1783190544.4451,1,0,3.0000,0.0000,1.44682,0.23328,-2.77748,0.97337,1.57080,0.00000,-0.14512,-0.38003,0.04653,,,,,,,,,,,,,,,,,,,,,,,,,,0,0,0,0,0
0.2329,1783190544.4518,1,0,3.0000,0.0000,1.44682,0.23328,-2.77748,0.97337,1.57080,0.00000,-0.14512,-0.38003,0.04653,,,,,,,,,,,,,,,,,,,,,,,,,,0,0,0,0,0
0.2331,1783190544.4520,1,0,3.0000,0.0000,1.44682,0.23328,-2.77748,0.97337,1.57080,0.00000,-0.14512,-0.38003,0.04653,,,,,,,,,,,,,,,,,,,,,,,,,,0,0,0,0,0
0.2414,1783190544.4603,1,0,3.0000,0.0000,1.44682,0.23328,-2.77748,0.97337,1.57080,0.00000,-0.14512,-0.38003,0.04653,,,,,,,,,,,,,,,,,,,,,,,,,,0,0,0,0,0
0.2417,1783190544.4606,1,0,3.0000,0.0000,1.44682,0.23328,-2.77748,0.97337,1.57080,0.00000,-0.14512,-0.38003,0.04653,,,,,,,,,,,,,,,,,,,,,,,,,,0,0,0,0,0
0.2530,1783190544.4720,1,0,3.0000,0.0000,1.44682,0.23328,-2.77748,0.97337,1.57080,0.00000,-0.14512,-0.38003,0.04653,,,,,,,,,,,,,,,,,,,,,,,,,,0,0,0,0,0
0.2742,1783190544.4931,1,0,3.0000,0.0000,1.44682,0.23328,-2.77748,0.97337,1.57080,0.00000,-0.14512,-0.38003,0.04653,,,,,,,,,,,,,,,,,,,,,,,,,,0,0,0,0,0
0.2864,1783190544.5053,1,0,3.0000,0.0000,1.44682,0.23328,-2.77748,0.97337,1.57080,0.00000,-0.14512,-0.38003,0.04653,,,,,,,,,,,,,,,,,,,,,,,,,,0,0,0,0,0
0.2870,1783190544.5060,1,0,3.0000,0.0000,1.44682,0.23328,-2.77748,0.97337,1.57080,0.00000,-0.14512,-0.38003,0.04653,,,,,,,,,,,,,,,,,,,,,,,,,,0,0,0,0,0
0.2913,1783190544.5102,1,0,3.0000,0.0000,1.44682,0.23328,-2.77748,0.97337,1.57080,0.00000,-0.14512,-0.38003,0.04653,,,,,,,,,,,,,,,,,,,,,,,,,,0,0,0,0,0
0.2916,1783190544.5105,1,0,3.0000,0.0000,1.44682,0.23328,-2.77748,0.97337,1.57080,0.00000,-0.14512,-0.38003,0.04653,,,,,,,,,,,,,,,,,,,,,,,,,,0,0,0,0,0
0.3072,1783190544.5261,1,0,3.0000,0.0000,1.44682,0.23328,-2.77748,0.97337,1.57080,0.00000,-0.14512,-0.38003,0.04653,,,,,,,,,,,,,,,,,,,,,,,,,,0,0,0,0,0
0.3121,1783190544.5310,1,0,3.0000,0.0000,1.44682,0.23328,-2.77748,0.97337,1.57080,0.00000,-0.14512,-0.38003,0.04653,,,,,,,,,,,,,,,,,,,,,,,,,,0,0,0,0,0
0.3257,1783190544.5446,1,0,3.0000,0.0000,1.44682,0.23328,-2.77748,0.97337,1.57080,0.00000,-0.14512,-0.38003,0.04653,,,,,,,,,,,,,,,,,,,,,,,,,,0,0,0,0,0
0.3308,1783190544.5498,1,0,3.0000,0.0000,1.44682,0.23328,-2.77748,0.97337,1.57080,0.00000,-0.14512,-0.38003,0.04653,,,,,,,,,,,,,,,,,,,,,,,,,,0,0,0,0,0
0.3422,1783190544.5612,1,0,3.0000,0.0000,1.44682,0.23328,-2.77748,0.97337,1.57080,0.00000,-0.14512,-0.38003,0.04653,,,,,,,,,,,,,,,,,,,,,,,,,,0,0,0,0,0
0.3426,1783190544.5615,1,0,3.0000,0.0000,1.44682,0.23328,-2.77748,0.97337,1.57080,0.00000,-0.14512,-0.38003,0.04653,,,,,,,,,,,,,,,,,,,,,,,,,,0,0,0,0,0
0.3509,1783190544.5698,1,0,3.0000,0.0000,1.44682,0.23328,-2.77748,0.97337,1.57080,0.00000,-0.14512,-0.38003,0.04653,,,,,,,,,,,,,,,,,,,,,,,,,,0,0,0,0,0
0.3512,1783190544.5701,1,0,3.0000,0.0000,1.44682,0.23328,-2.77748,0.97337,1.57080,0.00000,-0.14512,-0.38003,0.04653,,,,,,,,,,,,,,,,,,,,,,,,,,0,0,0,0,0
0.3644,1783190544.5833,1,0,3.0000,0.0000,1.44682,0.23328,-2.77748,0.97337,1.57080,0.00000,-0.14512,-0.38003,0.04653,,,,,,,,,,,,,,,,,,,,,,,,,,0,0,0,0,0
0.3734,1783190544.5923,1,0,3.0000,0.0000,1.44682,0.23328,-2.77748,0.97337,1.57080,0.00000,-0.14512,-0.38003,0.04653,,,,,,,,,,,,,,,,,,,,,,,,,,0,0,0,0,0
0.3738,1783190544.5927,1,0,3.0000,0.0000,1.44682,0.23328,-2.77748,0.97337,1.57080,0.00000,-0.14512,-0.38003,0.04653,,,,,,,,,,,,,,,,,,,,,,,,,,0,0,0,0,0
0.3817,1783190544.6006,1,0,3.0000,0.0000,1.44682,0.23328,-2.77748,0.97337,1.57080,0.00000,-0.14512,-0.38003,0.04653,,,,,,,,,,,,,,,,,,,,,,,,,,0,0,0,0,0
0.3820,1783190544.6010,1,0,3.0000,0.0000,1.44682,0.23328,-2.77748,0.97337,1.57080,0.00000,-0.14512,-0.38003,0.04653,,,,,,,,,,,,,,,,,,,,,,,,,,0,0,0,0,0
0.3921,1783190544.6110,1,0,3.0000,0.0000,1.44682,0.23328,-2.77748,0.97337,1.57080,0.00000,-0.14512,-0.38003,0.04653,,,,,,,,,,,,,,,,,,,,,,,,,,0,0,0,0,0
0.4012,1783190544.6202,1,0,3.0000,0.0000,1.44682,0.23328,-2.77748,0.97337,1.57080,0.00000,-0.14512,-0.38003,0.04653,,,,,,,,,,,,,,,,,,,,,,,,,,0,0,0,0,0
0.4110,1783190544.6300,1,0,3.0000,0.0000,1.44682,0.23328,-2.77748,0.97337,1.57080,0.00000,-0.14512,-0.38003,0.04653,,,,,,,,,,,,,,,,,,,,,,,,,,0,0,0,0,0
0.4114,1783190544.6303,1,0,3.0000,0.0000,1.44682,0.23328,-2.77748,0.97337,1.57080,0.00000,-0.14512,-0.38003,0.04653,,,,,,,,,,,,,,,,,,,,,,,,,,0,0,0,0,0
0.4336,1783190544.6525,1,0,3.0000,0.0000,1.44682,0.23328,-2.77748,0.97337,1.57080,0.00000,-0.14512,-0.38003,0.04653,,,,,,,,,,,,,,,,,,,,,,,,,,0,0,0,0,0
0.4340,1783190544.6529,1,0,3.0000,0.0000,1.44682,0.23328,-2.77748,0.97337,1.57080,0.00000,-0.14512,-0.38003,0.04653,,,,,,,,,,,,,,,,,,,,,,,,,,0,0,0,0,0
0.4462,1783190544.6652,1,0,3.0000,0.0000,1.44682,0.23328,-2.77748,0.97337,1.57080,0.00000,-0.14512,-0.38003,0.04653,,,,,,,,,,,,,,,,,,,,,,,,,,0,0,0,0,0
0.4516,1783190544.6705,1,0,3.0000,0.0000,1.44682,0.23328,-2.77748,0.97337,1.57080,0.00000,-0.14512,-0.38003,0.04653,,,,,,,,,,,,,,,,,,,,,,,,,,0,0,0,0,0
0.4612,1783190544.6801,1,0,3.0000,0.0000,1.44682,0.23328,-2.77748,0.97337,1.57080,0.00000,-0.14512,-0.38003,0.04653,,,,,,,,,,,,,,,,,,,,,,,,,,0,0,0,0,0
0.4774,1783190544.6963,1,0,3.0000,0.0000,1.44682,0.23328,-2.77748,0.97337,1.57080,0.00000,-0.14512,-0.38003,0.04653,,,,,,,,,,,,,,,,,,,,,,,,,,0,0,0,0,0
0.4820,1783190544.7009,1,0,3.0000,0.0000,1.44682,0.23328,-2.77748,0.97337,1.57080,0.00000,-0.14512,-0.38003,0.04653,,,,,,,,,,,,,,,,,,,,,,,,,,0,0,0,0,0
0.4922,1783190544.7111,1,0,3.0000,0.0000,1.44682,0.23328,-2.77748,0.97337,1.57080,0.00000,-0.14512,-0.38003,0.04653,,,,,,,,,,,,,,,,,,,,,,,,,,0,0,0,0,0
0.5014,1783190544.7203,1,0,3.0000,0.0000,1.44682,0.23328,-2.77748,0.97337,1.57080,0.00000,-0.14512,-0.38003,0.04653,,,,,,,,,,,,,,,,,,,,,,,,,,0,0,0,0,0
0.5179,1783190544.7369,1,0,3.0000,0.0000,1.44682,0.23328,-2.77748,0.97337,1.57080,0.00000,-0.14512,-0.38003,0.04653,,,,,,,,,,,,,,,,,,,,,,,,,,0,0,0,0,0
0.5182,1783190544.7371,1,0,3.0000,0.0000,1.44682,0.23328,-2.77748,0.97337,1.57080,0.00000,-0.14512,-0.38003,0.04653,,,,,,,,,,,,,,,,,,,,,,,,,,0,0,0,0,0
0.5307,1783190544.7496,1,0,3.0000,0.0000,1.44682,0.23328,-2.77748,0.97337,1.57080,0.00000,-0.14512,-0.38003,0.04653,,,,,,,,,,,,,,,,,,,,,,,,,,0,0,0,0,0
0.5312,1783190544.7501,1,0,3.0000,0.0000,1.44682,0.23328,-2.77748,0.97337,1.57080,0.00000,-0.14512,-0.38003,0.04653,,,,,,,,,,,,,,,,,,,,,,,,,,0,0,0,0,0
0.5315,1783190544.7505,1,0,3.0000,0.0000,1.44682,0.23328,-2.77748,0.97337,1.57080,0.00000,-0.14512,-0.38003,0.04653,,,,,,,,,,,,,,,,,,,,,,,,,,0,0,0,0,0
0.5451,1783190544.7640,1,0,3.0000,0.0000,1.44682,0.23328,-2.77748,0.97337,1.57080,0.00000,-0.14512,-0.38003,0.04653,,,,,,,,,,,,,,,,,,,,,,,,,,0,0,0,0,0
0.5454,1783190544.7644,1,0,3.0000,0.0000,1.44682,0.23328,-2.77748,0.97337,1.57080,0.00000,-0.14512,-0.38003,0.04653,,,,,,,,,,,,,,,,,,,,,,,,,,0,0,0,0,0
0.5509,1783190544.7699,1,0,3.0000,0.0000,1.44682,0.23328,-2.77748,0.97337,1.57080,0.00000,-0.14512,-0.38003,0.04653,,,,,,,,,,,,,,,,,,,,,,,,,,0,0,0,0,0
0.5647,1783190544.7836,1,0,3.0000,0.0000,1.44682,0.23328,-2.77748,0.97337,1.57080,0.00000,-0.14512,-0.38003,0.04653,,,,,,,,,,,,,,,,,,,,,,,,,,0,0,0,0,0
0.5864,1783190544.8054,1,0,3.0000,0.0000,1.44682,0.23328,-2.77748,0.97337,1.57080,0.00000,-0.14512,-0.38003,0.04653,,,,,,,,,,,,,,,,,,,,,,,,,,0,0,0,0,0
0.5882,1783190544.8071,1,0,3.0000,0.0000,1.44682,0.23328,-2.77748,0.97337,1.57080,0.00000,-0.14512,-0.38003,0.04653,,,,,,,,,,,,,,,,,,,,,,,,,,0,0,0,0,0
0.5889,1783190544.8078,1,0,3.0000,0.0000,1.44682,0.23328,-2.77748,0.97337,1.57080,0.00000,-0.14512,-0.38003,0.04653,,,,,,,,,,,,,,,,,,,,,,,,,,0,0,0,0,0
0.5957,1783190544.8147,1,0,3.0000,0.0000,1.44682,0.23328,-2.77748,0.97337,1.57080,0.00000,-0.14512,-0.38003,0.04653,,,,,,,,,,,,,,,,,,,,,,,,,,0,0,0,0,0
0.6036,1783190544.8225,1,0,3.0000,0.0000,1.44682,0.23328,-2.77748,0.97337,1.57080,0.00000,-0.14512,-0.38003,0.04653,,,,,,,,,,,,,,,,,,,,,,,,,,0,0,0,0,0
0.6158,1783190544.8347,1,0,3.0000,0.0000,1.44682,0.23328,-2.77748,0.97337,1.57080,0.00000,-0.14512,-0.38003,0.04653,,,,,,,,,,,,,,,,,,,,,,,,,,0,0,0,0,0
0.6258,1783190544.8448,1,0,3.0000,0.0000,1.44682,0.23328,-2.77748,0.97337,1.57080,0.00000,-0.14512,-0.38003,0.04653,,,,,,,,,,,,,,,,,,,,,,,,,,0,0,0,0,0
0.6355,1783190544.8544,1,0,3.0000,0.0000,1.44682,0.23328,-2.77748,0.97337,1.57080,0.00000,-0.14512,-0.38003,0.04653,,,,,,,,,,,,,,,,,,,,,,,,,,0,0,0,0,0
0.6360,1783190544.8549,1,0,3.0000,0.0000,1.44682,0.23328,-2.77748,0.97337,1.57080,0.00000,-0.14512,-0.38003,0.04653,,,,,,,,,,,,,,,,,,,,,,,,,,0,0,0,0,0
0.6413,1783190544.8603,1,0,3.0000,0.0000,1.44682,0.23328,-2.77748,0.97337,1.57080,0.00000,-0.14512,-0.38003,0.04653,,,,,,,,,,,,,,,,,,,,,,,,,,0,0,0,0,0
0.6520,1783190544.8710,1,0,3.0000,0.0000,1.44682,0.23328,-2.77748,0.97337,1.57080,0.00000,-0.14512,-0.38003,0.04653,,,,,,,,,,,,,,,,,,,,,,,,,,0,0,0,0,0
0.6625,1783190544.8815,1,0,3.0000,0.0000,1.44682,0.23328,-2.77748,0.97337,1.57080,0.00000,-0.14512,-0.38003,0.04653,,,,,,,,,,,,,,,,,,,,,,,,,,0,0,0,0,0
0.6824,1783190544.9013,1,0,3.0000,0.0000,1.44682,0.23328,-2.77748,0.97337,1.57080,0.00000,-0.14512,-0.38003,0.04653,,,,,,,,,,,,,,,,,,,,,,,,,,0,0,0,0,0
0.6826,1783190544.9015,1,0,3.0000,0.0000,1.44682,0.23328,-2.77748,0.97337,1.57080,0.00000,-0.14512,-0.38003,0.04653,,,,,,,,,,,,,,,,,,,,,,,,,,0,0,0,0,0
0.6833,1783190544.9023,1,0,3.0000,0.0000,1.44682,0.23328,-2.77748,0.97337,1.57080,0.00000,-0.14512,-0.38003,0.04653,,,,,,,,,,,,,,,,,,,,,,,,,,0,0,0,0,0
0.6838,1783190544.9027,1,0,3.0000,0.0000,1.44682,0.23328,-2.77748,0.97337,1.57080,0.00000,-0.14512,-0.38003,0.04653,,,,,,,,,,,,,,,,,,,,,,,,,,0,0,0,0,0
0.6936,1783190544.9125,1,0,3.0000,0.0000,1.44682,0.23328,-2.77748,0.97337,1.57080,0.00000,-0.14512,-0.38003,0.04653,,,,,,,,,,,,,,,,,,,,,,,,,,0,0,0,0,0
0.6941,1783190544.9130,1,0,3.0000,0.0000,1.44682,0.23328,-2.77748,0.97337,1.57080,0.00000,-0.14512,-0.38003,0.04653,,,,,,,,,,,,,,,,,,,,,,,,,,0,0,0,0,0
0.7017,1783190544.9206,1,0,3.0000,0.0000,1.44682,0.23328,-2.77748,0.97337,1.57080,0.00000,-0.14512,-0.38003,0.04653,,,,,,,,,,,,,,,,,,,,,,,,,,0,0,0,0,0
0.7134,1783190544.9323,1,0,3.0000,0.0000,1.44682,0.23328,-2.77748,0.97337,1.57080,0.00000,-0.14512,-0.38003,0.04653,,,,,,,,,,,,,,,,,,,,,,,,,,0,0,0,0,0
0.7227,1783190544.9416,1,0,3.0000,0.0000,1.44682,0.23328,-2.77748,0.97337,1.57080,0.00000,-0.14512,-0.38003,0.04653,,,,,,,,,,,,,,,,,,,,,,,,,,0,0,0,0,0
0.7231,1783190544.9420,1,0,3.0000,0.0000,1.44682,0.23328,-2.77748,0.97337,1.57080,0.00000,-0.14512,-0.38003,0.04653,,,,,,,,,,,,,,,,,,,,,,,,,,0,0,0,0,0
0.7374,1783190544.9563,1,1,3.0000,0.0000,1.44682,0.23328,-2.77748,0.97337,1.57080,0.00000,-0.14512,-0.38003,0.04653,,,,,,,,,,,,,,,,,,,,,,,,,,0,0,0,0,0
0.7421,1783190544.9610,1,1,3.0000,0.0000,1.44682,0.23328,-2.77748,0.97337,1.57080,0.00000,-0.14512,-0.38003,0.04653,,,,,,,,,,,,,,,,,,,,,,,,,,0,0,0,0,0
0.7424,1783190544.9613,1,1,3.0000,0.0000,1.44682,0.23328,-2.77748,0.97337,1.57080,0.00000,-0.14512,-0.38003,0.04653,,,,,,,,,,,,,,,,,,,,,,,,,,0,0,0,0,0
0.7530,1783190544.9719,1,1,3.0000,0.0000,1.44682,0.23328,-2.77748,0.97337,1.57080,0.00000,-0.14512,-0.38003,0.04653,,,,,,,,,,,,,,,,,,,,,,,,,,0,0,0,0,0
0.7618,1783190544.9807,1,1,3.0000,0.0000,1.44682,0.23328,-2.77748,0.97337,1.57080,0.00000,-0.14512,-0.38003,0.04653,,,,,,,,,,,,,,,,,,,,,,,,,,0,0,0,0,0
0.7621,1783190544.9810,1,1,3.0000,0.0000,1.44682,0.23328,-2.77748,0.97337,1.57080,0.00000,-0.14512,-0.38003,0.04653,,,,,,,,,,,,,,,,,,,,,,,,,,0,0,0,0,0
0.7708,1783190544.9897,1,1,3.0000,0.0000,1.44682,0.23328,-2.77748,0.97337,1.57080,0.00000,-0.14512,-0.38003,0.04653,,,,,,,,,,,,,,,,,,,,,,,,,,0,0,0,0,0
0.7711,1783190544.9900,1,1,3.0000,0.0000,1.44682,0.23328,-2.77748,0.97337,1.57080,0.00000,-0.14512,-0.38003,0.04653,,,,,,,,,,,,,,,,,,,,,,,,,,0,0,0,0,0
0.7831,1783190545.0020,1,1,3.0000,0.0000,1.44682,0.23328,-2.77748,0.97337,1.57080,0.00000,-0.14512,-0.38003,0.04653,,,,,,,,,,,,,,,,,,,,,,,,,,0,0,0,0,0
0.7919,1783190545.0108,1,1,3.0000,0.0000,1.44682,0.23328,-2.77748,0.97337,1.57080,0.00000,-0.14512,-0.38003,0.04653,,,,,,,,,,,,,,,,,,,,,,,,,,0,0,0,0,0
0.8020,1783190545.0209,1,1,3.0000,0.0000,1.44682,0.23328,-2.77748,0.97337,1.57080,0.00000,-0.14512,-0.38003,0.04653,,,,,,,,,,,,,,,,,,,,,,,,,,0,0,0,0,0
0.8147,1783190545.0336,1,1,3.0000,0.0000,1.44682,0.23328,-2.77748,0.97337,1.57080,0.00000,-0.14512,-0.38003,0.04653,,,,,,,,,,,,,,,,,,,,,,,,,,0,0,0,0,0
0.8224,1783190545.0414,1,1,3.0000,0.0000,1.44682,0.23328,-2.77748,0.97337,1.57080,0.00000,-0.14512,-0.38003,0.04653,,,,,,,,,,,,,,,,,,,,,,,,,,0,0,0,0,0
0.8337,1783190545.0527,1,1,3.0000,0.0000,1.44682,0.23328,-2.77748,0.97337,1.57080,0.00000,-0.14512,-0.38003,0.04653,,,,,,,,,,,,,,,,,,,,,,,,,,0,0,0,0,0
0.8414,1783190545.0603,1,1,3.0000,0.0000,1.44682,0.23328,-2.77748,0.97337,1.57080,0.00000,-0.14512,-0.38003,0.04653,,,,,,,,,,,,,,,,,,,,,,,,,,0,0,0,0,0
0.8555,1783190545.0745,1,1,3.0000,0.0000,1.44682,0.23328,-2.77748,0.97337,1.57080,0.00000,-0.14512,-0.38003,0.04653,,,,,,,,,,,,,,,,,,,,,,,,,,0,0,0,0,0
0.8612,1783190545.0801,1,1,3.0000,0.0000,1.44682,0.23328,-2.77748,0.97337,1.57080,0.00000,-0.14512,-0.38003,0.04653,,,,,,,,,,,,,,,,,,,,,,,,,,0,0,0,0,0
0.8722,1783190545.0911,1,1,3.0000,0.0000,1.44682,0.23328,-2.77748,0.97337,1.57080,0.00000,-0.14512,-0.38003,0.04653,,,,,,,,,,,,,,,,,,,,,,,,,,0,0,0,0,0
0.8854,1783190545.1043,1,1,3.0000,0.0000,1.44682,0.23328,-2.77748,0.97337,1.57080,0.00000,-0.14512,-0.38003,0.04653,,,,,,,,,,,,,,,,,,,,,,,,,,0,0,0,0,0
0.8858,1783190545.1047,1,1,3.0000,0.0000,1.44682,0.23328,-2.77748,0.97337,1.57080,0.00000,-0.14512,-0.38003,0.04653,,,,,,,,,,,,,,,,,,,,,,,,,,0,0,0,0,0
0.8936,1783190545.1125,1,1,3.0000,0.0000,1.44682,0.23328,-2.77748,0.97337,1.57080,0.00000,-0.14512,-0.38003,0.04653,,,,,,,,,,,,,,,,,,,,,,,,,,0,0,0,0,0
0.9012,1783190545.1202,1,1,3.0000,0.0000,1.44682,0.23328,-2.77748,0.97337,1.57080,0.00000,-0.14512,-0.38003,0.04653,,,,,,,,,,,,,,,,,,,,,,,,,,0,0,0,0,0
0.9017,1783190545.1206,1,1,3.0000,0.0000,1.44682,0.23328,-2.77748,0.97337,1.57080,0.00000,-0.14512,-0.38003,0.04653,,,,,,,,,,,,,,,,,,,,,,,,,,0,0,0,0,0
0.9120,1783190545.1309,1,1,3.0000,0.0000,1.44682,0.23328,-2.77748,0.97337,1.57080,0.00000,-0.14512,-0.38003,0.04653,,,,,,,,,,,,,,,,,,,,,,,,,,0,0,0,0,0
0.9124,1783190545.1313,1,1,3.0000,0.0000,1.44682,0.23328,-2.77748,0.97337,1.57080,0.00000,-0.14512,-0.38003,0.04653,,,,,,,,,,,,,,,,,,,,,,,,,,0,0,0,0,0
0.9218,1783190545.1407,1,1,3.0000,0.0000,1.44682,0.23328,-2.77748,0.97337,1.57080,0.00000,-0.14512,-0.38003,0.04653,,,,,,,,,,,,,,,,,,,,,,,,,,0,0,0,0,0
0.9222,1783190545.1411,1,1,3.0000,0.0000,1.44682,0.23328,-2.77748,0.97337,1.57080,0.00000,-0.14512,-0.38003,0.04653,,,,,,,,,,,,,,,,,,,,,,,,,,0,0,0,0,0
0.9415,1783190545.1604,1,1,3.0000,0.0000,1.44682,0.23301,-2.77755,0.97371,1.57080,0.00000,-0.14512,-0.38003,0.04646,,,,,,,,,,,,,,,,,,,,,,,,,,0,0,0,0,0
0.9430,1783190545.1619,1,1,3.0000,0.0000,1.44682,0.23301,-2.77755,0.97371,1.57080,0.00000,-0.14512,-0.38003,0.04646,,,,,,,,,,,,,,,,,,,,,,,,,,0,0,0,0,0
0.9433,1783190545.1622,1,1,3.0000,0.0000,1.44682,0.23301,-2.77755,0.97371,1.57080,0.00000,-0.14512,-0.38003,0.04646,,,,,,,,,,,,,,,,,,,,,,,,,,0,0,0,0,0
0.9522,1783190545.1711,1,1,3.0000,0.0000,1.44682,0.23293,-2.77757,0.97381,1.57080,0.00000,-0.14512,-0.38003,0.04644,,,,,,,,,,,,,,,,,,,,,,,,,,0,0,0,0,0
0.9636,1783190545.1825,1,1,3.0000,0.0000,1.44682,0.23284,-2.77759,0.97392,1.57080,0.00000,-0.14512,-0.38003,0.04641,,,,,,,,,,,,,,,,,,,,,,,,,,0,0,0,0,0
0.9711,1783190545.1900,1,1,3.0000,0.0000,1.44682,0.23271,-2.77762,0.97408,1.57080,0.00000,-0.14512,-0.38003,0.04638,,,,,,,,,,,,,,,,,,,,,,,,,,0,0,0,0,0
0.9883,1783190545.2073,1,1,3.0000,0.0000,1.44682,0.23257,-2.77766,0.97426,1.57080,0.00000,-0.14512,-0.38003,0.04634,,,,,,,,,,,,,,,,,,,,,,,,,,0,0,0,0,0
0.9893,1783190545.2082,1,1,3.0000,0.0000,1.44682,0.23254,-2.77767,0.97430,1.57080,0.00000,-0.14512,-0.38003,0.04633,,,,,,,,,,,,,,,,,,,,,,,,,,0,0,0,0,0
0.9932,1783190545.2121,1,1,3.0000,0.0000,1.44682,0.23249,-2.77768,0.97436,1.57080,0.00000,-0.14512,-0.38003,0.04632,,,,,,,,,,,,,,,,,,,,,,,,,,0,0,0,0,0
0.9937,1783190545.2127,1,1,3.0000,0.0000,1.44682,0.23249,-2.77768,0.97436,1.57080,0.00000,-0.14512,-0.38003,0.04632,,,,,,,,,,,,,,,,,,,,,,,,,,0,0,0,0,0
1.0014,1783190545.2203,1,1,3.0000,0.0000,1.44682,0.23236,-2.77771,0.97452,1.57080,0.00000,-0.14512,-0.38003,0.04629,,,,,,,,,,,,,,,,,,,,,,,,,,0,0,0,0,0
1.0017,1783190545.2206,1,1,3.0000,0.0000,1.44682,0.23236,-2.77771,0.97452,1.57080,0.00000,-0.14512,-0.38003,0.04629,,,,,,,,,,,,,,,,,,,,,,,,,,0,0,0,0,0
1.0109,1783190545.2299,1,1,3.0000,0.0000,1.44682,0.23222,-2.77775,0.97470,1.57080,0.00000,-0.14512,-0.38003,0.04625,,,,,,,,,,,,,,,,,,,,,,,,,,0,0,0,0,0
1.0256,1783190545.2445,1,1,3.0000,0.0000,1.44682,0.23215,-2.77777,0.97478,1.57080,0.00000,-0.14512,-0.38003,0.04623,,,,,,,,,,,,,,,,,,,,,,,,,,0,0,0,0,0
1.0318,1783190545.2507,1,1,3.0000,0.0000,1.44682,0.23211,-2.77778,0.97484,1.57080,0.00000,-0.14512,-0.38003,0.04622,,,,,,,,,,,,,,,,,,,,,,,,,,0,0,0,0,0
1.0422,1783190545.2611,1,1,3.0000,0.0000,1.44682,0.23199,-2.77781,0.97498,1.57080,0.00000,-0.14512,-0.38003,0.04619,,,,,,,,,,,,,,,,,,,,,,,,,,0,0,0,0,0
1.0425,1783190545.2615,1,1,3.0000,0.0000,1.44682,0.23199,-2.77781,0.97498,1.57080,0.00000,-0.14512,-0.38003,0.04619,,,,,,,,,,,,,,,,,,,,,,,,,,0,0,0,0,0
1.0515,1783190545.2704,1,1,3.0000,0.0000,1.44682,0.23195,-2.77782,0.97504,1.57080,0.00000,-0.14512,-0.38003,0.04618,,,,,,,,,,,,,,,,,,,,,,,,,,0,0,0,0,0
1.0518,1783190545.2707,1,1,3.0000,0.0000,1.44682,0.23195,-2.77782,0.97504,1.57080,0.00000,-0.14512,-0.38003,0.04618,,,,,,,,,,,,,,,,,,,,,,,,,,0,0,0,0,0
1.0624,1783190545.2813,1,1,3.0000,0.0000,1.44682,0.23177,-2.77787,0.97527,1.57080,0.00000,-0.14512,-0.38003,0.04613,,,,,,,,,,,,,,,,,,,,,,,,,,0,0,0,0,0
1.0732,1783190545.2921,1,1,3.0000,0.0000,1.44682,0.23163,-2.77790,0.97545,1.57080,0.00000,-0.14512,-0.38003,0.04610,,,,,,,,,,,,,,,,,,,,,,,,,,0,0,0,0,0
1.0925,1783190545.3114,1,1,3.0000,0.0000,1.44682,0.23151,-2.77793,0.97559,1.57080,0.00000,-0.14512,-0.38003,0.04607,,,,,,,,,,,,,,,,,,,,,,,,,,0,0,0,0,0
1.0948,1783190545.3137,1,1,3.0000,0.0000,1.44682,0.23146,-2.77795,0.97566,1.57080,0.00000,-0.14512,-0.38003,0.04605,,,,,,,,,,,,,,,,,,,,,,,,,,0,0,0,0,0
1.0952,1783190545.3141,1,1,3.0000,0.0000,1.44682,0.23146,-2.77795,0.97566,1.57080,0.00000,-0.14512,-0.38003,0.04605,,,,,,,,,,,,,,,,,,,,,,,,,,0,0,0,0,0
1.1037,1783190545.3226,1,1,3.0000,0.0000,1.44682,0.23140,-2.77796,0.97573,1.57080,0.00000,-0.14512,-0.38003,0.04604,,,,,,,,,,,,,,,,,,,,,,,,,,0,0,0,0,0
1.1155,1783190545.3344,1,1,3.0000,0.0000,1.44682,0.23130,-2.77799,0.97585,1.57080,0.00000,-0.14512,-0.38003,0.04601,,,,,,,,,,,,,,,,,,,,,,,,,,0,0,0,0,0
1.1211,1783190545.3401,1,1,3.0000,0.0000,1.44682,0.23117,-2.77802,0.97602,1.57080,0.00000,-0.14512,-0.38003,0.04598,,,,,,,,,,,,,,,,,,,,,,,,,,0,0,0,0,0
1.1213,1783190545.3402,1,1,3.0000,0.0000,1.44682,0.23117,-2.77802,0.97602,1.57080,0.00000,-0.14512,-0.38003,0.04598,,,,,,,,,,,,,,,,,,,,,,,,,,0,0,0,0,0
1.1359,1783190545.3548,1,1,3.0000,0.0000,1.44682,0.23103,-2.77806,0.97619,1.57080,0.00000,-0.14512,-0.38003,0.04594,,,,,,,,,,,,,,,,,,,,,,,,,,0,0,0,0,0
1.1463,1783190545.3652,1,1,3.0000,0.0000,1.44682,0.23096,-2.77807,0.97628,1.57080,0.00000,-0.14512,-0.38003,0.04592,,,,,,,,,,,,,,,,,,,,,,,,,,0,0,0,0,0
1.1512,1783190545.3701,1,1,3.0000,0.0000,1.44682,0.23092,-2.77808,0.97634,1.57080,0.00000,-0.14512,-0.38003,0.04591,,,,,,,,,,,,,,,,,,,,,,,,,,0,0,0,0,0
1.1624,1783190545.3813,1,1,3.0000,0.0000,1.44682,0.23081,-2.77811,0.97648,1.57080,0.00000,-0.14512,-0.38003,0.04588,,,,,,,,,,,,,,,,,,,,,,,,,,0,0,0,0,0
1.1717,1783190545.3906,1,1,3.0000,0.0000,1.44682,0.23076,-2.77813,0.97654,1.57080,0.00000,-0.14512,-0.38003,0.04587,,,,,,,,,,,,,,,,,,,,,,,,,,0,0,0,0,0
1.1721,1783190545.3910,1,1,3.0000,0.0000,1.44682,0.23076,-2.77813,0.97654,1.57080,0.00000,-0.14512,-0.38003,0.04587,,,,,,,,,,,,,,,,,,,,,,,,,,0,0,0,0,0
1.1813,1783190545.4002,1,1,3.0000,0.0000,1.44682,0.23058,-2.77817,0.97676,1.57080,0.00000,-0.14512,-0.38003,0.04582,,,,,,,,,,,,,,,,,,,,,,,,,,0,0,0,0,0
1.1983,1783190545.4172,1,1,3.0000,0.0000,1.44682,0.23043,-2.77821,0.97695,1.57080,0.00000,-0.14512,-0.38003,0.04578,,,,,,,,,,,,,,,,,,,,,,,,,,0,0,0,0,0
1.2054,1783190545.4243,1,1,3.0000,0.0000,1.44682,0.23037,-2.77823,0.97702,1.57080,0.00000,-0.14512,-0.38003,0.04577,,,,,,,,,,,,,,,,,,,,,,,,,,0,0,0,0,0
1.2057,1783190545.4246,1,1,3.0000,0.0000,1.44682,0.23037,-2.77823,0.97702,1.57080,0.00000,-0.14512,-0.38003,0.04577,,,,,,,,,,,,,,,,,,,,,,,,,,0,0,0,0,0
1.2109,1783190545.4298,1,1,3.0000,0.0000,1.44682,0.23032,-2.77824,0.97708,1.57080,0.00000,-0.14512,-0.38003,0.04576,,,,,,,,,,,,,,,,,,,,,,,,,,0,0,0,0,0
1.2213,1783190545.4402,1,1,3.0000,0.0000,1.44682,0.23021,-2.77827,0.97722,1.57080,0.00000,-0.14512,-0.38003,0.04573,,,,,,,,,,,,,,,,,,,,,,,,,,0,0,0,0,0
1.2312,1783190545.4501,1,1,3.0000,0.0000,1.44682,0.23016,-2.77828,0.97728,1.57080,0.00000,-0.14512,-0.38003,0.04571,,,,,,,,,,,,,,,,,,,,,,,,,,0,0,0,0,0
1.2472,1783190545.4661,1,1,3.0000,0.0000,1.44682,0.22991,-2.77834,0.97760,1.57080,0.00000,-0.14512,-0.38003,0.04565,,,,,,,,,,,,,,,,,,,,,,,,,,0,0,0,0,0
1.2546,1783190545.4736,1,1,3.0000,0.0000,1.44682,0.22984,-2.77836,0.97769,1.57080,0.00000,-0.14512,-0.38003,0.04563,,,,,,,,,,,,,,,,,,,,,,,,,,0,0,0,0,0
1.2610,1783190545.4800,1,1,3.0000,0.0000,1.44682,0.22980,-2.77837,0.97774,1.57080,0.00000,-0.14512,-0.38003,0.04562,,,,,,,,,,,,,,,,,,,,,,,,,,0,0,0,0,0
1.2614,1783190545.4803,1,1,3.0000,0.0000,1.44682,0.22980,-2.77837,0.97774,1.57080,0.00000,-0.14512,-0.38003,0.04562,,,,,,,,,,,,,,,,,,,,,,,,,,0,0,0,0,0
1.2722,1783190545.4911,1,1,3.0000,0.0000,1.44682,0.22969,-2.77840,0.97788,1.57080,0.00000,-0.14512,-0.38003,0.04559,,,,,,,,,,,,,,,,,,,,,,,,,,0,0,0,0,0
1.2827,1783190545.5016,1,1,3.0000,0.0000,1.44682,0.22955,-2.77843,0.97805,1.57080,0.00000,-0.14512,-0.38003,0.04556,,,,,,,,,,,,,,,,,,,,,,,,,,0,0,0,0,0
1.2990,1783190545.5179,1,1,3.0000,0.0000,1.44682,0.22940,-2.77847,0.97824,1.57080,0.00000,-0.14512,-0.38003,0.04552,,,,,,,,,,,,,,,,,,,,,,,,,,0,0,0,0,0
1.3041,1783190545.5230,1,1,3.0000,0.0000,1.44682,0.22933,-2.77849,0.97833,1.57080,0.00000,-0.14512,-0.38003,0.04550,,,,,,,,,,,,,,,,,,,,,,,,,,0,0,0,0,0
1.3113,1783190545.5302,1,1,3.0000,0.0000,1.44682,0.22919,-2.77853,0.97850,1.57080,0.00000,-0.14512,-0.38003,0.04546,,,,,,,,,,,,,,,,,,,,,,,,,,0,0,0,0,0
1.3117,1783190545.5306,1,1,3.0000,0.0000,1.44682,0.22919,-2.77853,0.97850,1.57080,0.00000,-0.14512,-0.38003,0.04546,,,,,,,,,,,,,,,,,,,,,,,,,,0,0,0,0,0
1.3213,1783190545.5402,1,1,3.0000,0.0000,1.44682,0.22915,-2.77854,0.97856,1.57080,0.00000,-0.14512,-0.38003,0.04545,,,,,,,,,,,,,,,,,,,,,,,,,,0,0,0,0,0
1.3337,1783190545.5526,1,1,3.0000,0.0000,1.44682,0.22897,-2.77858,0.97878,1.57080,0.00000,-0.14512,-0.38003,0.04540,,,,,,,,,,,,,,,,,,,,,,,,,,0,0,0,0,0
1.3516,1783190545.5705,1,1,3.0000,0.0000,1.44682,0.22886,-2.77861,0.97892,1.57080,0.00000,-0.14512,-0.38003,0.04537,,,,,,,,,,,,,,,,,,,,,,,,,,0,0,0,0,0
1.3520,1783190545.5709,1,1,3.0000,0.0000,1.44682,0.22886,-2.77861,0.97892,1.57080,0.00000,-0.14512,-0.38003,0.04537,,,,,,,,,,,,,,,,,,,,,,,,,,0,0,0,0,0
1.3612,1783190545.5801,1,1,3.0000,0.0000,1.44682,0.22868,-2.77866,0.97914,1.57080,0.00000,-0.14512,-0.38003,0.04533,,,,,,,,,,,,,,,,,,,,,,,,,,0,0,0,0,0
1.3709,1783190545.5898,1,1,3.0000,0.0000,1.44682,0.22854,-2.77869,0.97932,1.57080,0.00000,-0.14512,-0.38003,0.04529,,,,,,,,,,,,,,,,,,,,,,,,,,0,0,0,0,0
1.3876,1783190545.6065,1,1,3.0000,0.0000,1.44682,0.22845,-2.77872,0.97943,1.57080,0.00000,-0.14512,-0.38003,0.04527,,,,,,,,,,,,,,,,,,,,,,,,,,0,0,0,0,0
1.3974,1783190545.6163,1,1,3.0000,0.0000,1.44682,0.22825,-2.77877,0.97968,1.57080,0.00000,-0.14512,-0.38003,0.04522,,,,,,,,,,,,,,,,,,,,,,,,,,0,0,0,0,0
1.3977,1783190545.6166,1,1,3.0000,0.0000,1.44682,0.22825,-2.77877,0.97968,1.57080,0.00000,-0.14512,-0.38003,0.04522,,,,,,,,,,,,,,,,,,,,,,,,,,0,0,0,0,0
1.4032,1783190545.6221,1,1,3.0000,0.0000,1.44682,0.22825,-2.77877,0.97968,1.57080,0.00000,-0.14512,-0.38003,0.04522,,,,,,,,,,,,,,,,,,,,,,,,,,0,0,0,0,0
1.4036,1783190545.6225,1,1,3.0000,0.0000,1.44682,0.22825,-2.77877,0.97968,1.57080,0.00000,-0.14512,-0.38003,0.04522,,,,,,,,,,,,,,,,,,,,,,,,,,0,0,0,0,0
1.4162,1783190545.6351,1,1,3.0000,0.0000,1.44682,0.22816,-2.77879,0.97980,1.57080,0.00000,-0.14512,-0.38003,0.04519,,,,,,,,,,,,,,,,,,,,,,,,,,0,0,0,0,0
1.4234,1783190545.6423,1,1,3.0000,0.0000,1.44682,0.22803,-2.77882,0.97996,1.57080,0.00000,-0.14512,-0.38003,0.04516,,,,,,,,,,,,,,,,,,,,,,,,,,0,0,0,0,0
1.4348,1783190545.6537,1,1,3.0000,0.0000,1.44682,0.22789,-2.77886,0.98013,1.57080,0.00000,-0.14512,-0.38003,0.04512,,,,,,,,,,,,,,,,,,,,,,,,,,0,0,0,0,0
1.4413,1783190545.6602,1,1,3.0000,0.0000,1.44682,0.22785,-2.77887,0.98019,1.57080,0.00000,-0.14512,-0.38003,0.04511,,,,,,,,,,,,,,,,,,,,,,,,,,0,0,0,0,0
1.4417,1783190545.6606,1,1,3.0000,0.0000,1.44682,0.22785,-2.77887,0.98019,1.57080,0.00000,-0.14512,-0.38003,0.04511,,,,,,,,,,,,,,,,,,,,,,,,,,0,0,0,0,0
1.4536,1783190545.6725,1,1,3.0000,0.0000,1.44682,0.22767,-2.77891,0.98041,1.57080,0.00000,-0.14512,-0.38003,0.04507,,,,,,,,,,,,,,,,,,,,,,,,,,0,0,0,0,0
1.4539,1783190545.6728,1,1,3.0000,0.0000,1.44682,0.22767,-2.77891,0.98041,1.57080,0.00000,-0.14512,-0.38003,0.04507,,,,,,,,,,,,,,,,,,,,,,,,,,0,0,0,0,0
1.4620,1783190545.6809,1,1,3.0000,0.0000,1.44682,0.22760,-2.77893,0.98050,1.57080,0.00000,-0.14512,-0.38003,0.04505,,,,,,,,,,,,,,,,,,,,,,,,,,0,0,0,0,0
1.4623,1783190545.6812,1,1,3.0000,0.0000,1.44682,0.22760,-2.77893,0.98050,1.57080,0.00000,-0.14512,-0.38003,0.04505,,,,,,,,,,,,,,,,,,,,,,,,,,0,0,0,0,0
1.4708,1783190545.6898,1,1,3.0000,0.0000,1.44682,0.22756,-2.77894,0.98056,1.57080,0.00000,-0.14512,-0.38003,0.04504,,,,,,,,,,,,,,,,,,,,,,,,,,0,0,0,0,0
1.4713,1783190545.6902,1,1,3.0000,0.0000,1.44682,0.22756,-2.77894,0.98056,1.57080,0.00000,-0.14512,-0.38003,0.04504,,,,,,,,,,,,,,,,,,,,,,,,,,0,0,0,0,0
1.4814,1783190545.7003,1,1,3.0000,0.0000,1.44682,0.22738,-2.77899,0.98078,1.57080,0.00000,-0.14512,-0.38003,0.04499,,,,,,,,,,,,,,,,,,,,,,,,,,0,0,0,0,0
1.4818,1783190545.7007,1,1,3.0000,0.0000,1.44682,0.22738,-2.77899,0.98078,1.57080,0.00000,-0.14512,-0.38003,0.04499,,,,,,,,,,,,,,,,,,,,,,,,,,0,0,0,0,0
1.5014,1783190545.7203,1,1,3.0000,0.0000,1.44682,0.22720,-2.77903,0.98101,1.57080,0.00000,-0.14512,-0.38003,0.04494,,,,,,,,,,,,,,,,,,,,,,,,,,0,0,0,0,0
1.5018,1783190545.7208,1,1,3.0000,0.0000,1.44682,0.22720,-2.77903,0.98101,1.57080,0.00000,-0.14512,-0.38003,0.04494,,,,,,,,,,,,,,,,,,,,,,,,,,0,0,0,0,0
1.5027,1783190545.7216,1,1,3.0000,0.0000,1.44682,0.22720,-2.77903,0.98101,1.57080,0.00000,-0.14512,-0.38003,0.04494,,,,,,,,,,,,,,,,,,,,,,,,,,0,0,0,0,0
1.5032,1783190545.7221,1,1,3.0000,0.0000,1.44682,0.22720,-2.77903,0.98101,1.57080,0.00000,-0.14512,-0.38003,0.04494,,,,,,,,,,,,,,,,,,,,,,,,,,0,0,0,0,0
1.5134,1783190545.7323,1,1,3.0000,0.0000,1.44682,0.22702,-2.77908,0.98123,1.57080,0.00001,-0.14512,-0.38003,0.04490,,,,,,,,,,,,,,,,,,,,,,,,,,0,0,0,0,0
1.5212,1783190545.7401,1,1,3.0000,0.0000,1.44682,0.22695,-2.77910,0.98132,1.57080,0.00001,-0.14512,-0.38003,0.04488,,,,,,,,,,,,,,,,,,,,,,,,,,0,0,0,0,0
1.5348,1783190545.7537,1,1,3.0000,0.0000,1.44682,0.22686,-2.77912,0.98143,1.57080,0.00001,-0.14512,-0.38003,0.04485,,,,,,,,,,,,,,,,,,,,,,,,,,0,0,0,0,0
1.5428,1783190545.7617,1,1,3.0000,0.0000,1.44682,0.22673,-2.77915,0.98159,1.57080,0.00001,-0.14512,-0.38003,0.04482,,,,,,,,,,,,,,,,,,,,,,,,,,0,0,0,0,0
1.5543,1783190545.7732,1,1,3.0000,0.0000,1.44682,0.22659,-2.77919,0.98177,1.57080,0.00001,-0.14512,-0.38003,0.04479,,,,,,,,,,,,,,,,,,,,,,,,,,0,0,0,0,0
1.5632,1783190545.7821,1,1,3.0000,0.0000,1.44682,0.22655,-2.77920,0.98182,1.57080,0.00001,-0.14512,-0.38003,0.04477,,,,,,,,,,,,,,,,,,,,,,,,,,0,0,0,0,0
1.5743,1783190545.7932,1,1,3.0000,0.0000,1.44682,0.22637,-2.77925,0.98205,1.57080,0.00001,-0.14512,-0.38003,0.04473,,,,,,,,,,,,,,,,,,,,,,,,,,0,0,0,0,0
1.5932,1783190545.8121,1,1,3.0000,0.0000,1.44682,0.22620,-2.77929,0.98226,1.57080,0.00001,-0.14512,-0.38003,0.04468,,,,,,,,,,,,,,,,,,,,,,,,,,0,0,0,0,0
1.6133,1783190545.8322,1,1,3.0000,0.0000,1.44682,0.22600,-2.77934,0.98251,1.57080,0.00001,-0.14512,-0.38003,0.04463,,,,,,,,,,,,,,,,,,,,,,,,,,0,0,0,0,0
1.6135,1783190545.8324,1,1,3.0000,0.0000,1.44682,0.22600,-2.77934,0.98251,1.57080,0.00001,-0.14512,-0.38003,0.04463,,,,,,,,,,,,,,,,,,,,,,,,,,0,0,0,0,0
1.6232,1783190545.8421,1,1,3.0000,0.0000,1.44682,0.22595,-2.77935,0.98257,1.57080,0.00001,-0.14512,-0.38003,0.04462,,,,,,,,,,,,,,,,,,,,,,,,,,0,0,0,0,0
1.6492,1783190545.8682,1,1,3.0000,0.0000,1.44682,0.22562,-2.77943,0.98298,1.57080,0.00001,-0.14512,-0.38003,0.04453,,,,,,,,,,,,,,,,,,,,,,,,,,0,0,0,0,0
1.6497,1783190545.8686,1,1,3.0000,0.0000,1.44682,0.22562,-2.77943,0.98298,1.57080,0.00001,-0.14512,-0.38003,0.04453,,,,,,,,,,,,,,,,,,,,,,,,,,0,0,0,0,0
1.6502,1783190545.8692,1,1,3.0000,0.0000,1.44682,0.22562,-2.77943,0.98298,1.57080,0.00001,-0.14512,-0.38003,0.04453,,,,,,,,,,,,,,,,,,,,,,,,,,0,0,0,0,0
1.6767,1783190545.8956,1,1,3.0000,0.0000,1.44682,0.22540,-2.77949,0.98326,1.57080,0.00001,-0.14512,-0.38002,0.04448,,,,,,,,,,,,,,,,,,,,,,,,,,0,0,0,0,0
1.6950,1783190545.9139,1,1,3.0000,0.0000,1.44682,0.22517,-2.77955,0.98355,1.57080,0.00001,-0.14512,-0.38002,0.04442,,,,,,,,,,,,,,,,,,,,,,,,,,0,0,0,0,0
1.6954,1783190545.9144,1,1,3.0000,0.0000,1.44682,0.22517,-2.77955,0.98355,1.57080,0.00001,-0.14512,-0.38002,0.04442,,,,,,,,,,,,,,,,,,,,,,,,,,0,0,0,0,0
1.6959,1783190545.9148,1,1,3.0000,0.0000,1.44682,0.22517,-2.77955,0.98355,1.57080,0.00001,-0.14512,-0.38002,0.04442,,,,,,,,,,,,,,,,,,,,,,,,,,0,0,0,0,0
1.7214,1783190545.9403,1,1,3.0000,0.0000,1.44682,0.22491,-2.77961,0.98387,1.57080,0.00001,-0.14512,-0.38002,0.04435,,,,,,,,,,,,,,,,,,,,,,,,,,0,0,0,0,0
1.7258,1783190545.9447,1,1,3.0000,0.0000,1.44682,0.22486,-2.77963,0.98394,1.57080,0.00001,-0.14512,-0.38002,0.04434,,,,,,,,,,,,,,,,,,,,,,,,,,0,0,0,0,0
1.7263,1783190545.9452,1,1,3.0000,0.0000,1.44682,0.22486,-2.77963,0.98394,1.57080,0.00001,-0.14512,-0.38002,0.04434,,,,,,,,,,,,,,,,,,,,,,,,,,0,0,0,0,0
1.7308,1783190545.9497,1,1,3.0000,0.0000,1.44682,0.22480,-2.77964,0.98401,1.57080,0.00001,-0.14512,-0.38002,0.04432,,,,,,,,,,,,,,,,,,,,,,,,,,0,0,0,0,0
1.7511,1783190545.9701,1,1,3.0000,0.0000,1.44682,0.22464,-2.77968,0.98421,1.57080,0.00001,-0.14512,-0.38002,0.04428,,,,,,,,,,,,,,,,,,,,,,,,,,0,0,0,0,0
1.7558,1783190545.9747,1,1,3.0000,0.0000,1.44682,0.22457,-2.77970,0.98430,1.57080,0.00001,-0.14512,-0.38002,0.04426,,,,,,,,,,,,,,,,,,,,,,,,,,0,0,0,0,0
1.7691,1783190545.9880,1,1,3.0000,0.0000,1.44682,0.22442,-2.77974,0.98449,1.57080,0.00001,-0.14512,-0.38002,0.04422,,,,,,,,,,,,,,,,,,,,,,,,,,0,0,0,0,0
1.7777,1783190545.9966,1,1,3.0000,0.0000,1.44682,0.22436,-2.77975,0.98456,1.57080,0.00001,-0.14512,-0.38002,0.04421,,,,,,,,,,,,,,,,,,,,,,,,,,0,0,0,0,0
1.7814,1783190546.0003,1,1,3.0000,0.0000,1.44682,0.22431,-2.77976,0.98462,1.57080,0.00001,-0.14512,-0.38002,0.04420,,,,,,,,,,,,,,,,,,,,,,,,,,0,0,0,0,0
1.7818,1783190546.0007,1,1,3.0000,0.0000,1.44682,0.22431,-2.77976,0.98462,1.57080,0.00001,-0.14512,-0.38002,0.04420,,,,,,,,,,,,,,,,,,,,,,,,,,0,0,0,0,0
1.7925,1783190546.0115,1,1,3.0000,0.0000,1.44682,0.22420,-2.77979,0.98476,1.57080,0.00001,-0.14512,-0.38002,0.04417,,,,,,,,,,,,,,,,,,,,,,,,,,0,0,0,0,0
1.7932,1783190546.0121,1,1,3.0000,0.0000,1.44682,0.22420,-2.77979,0.98476,1.57080,0.00001,-0.14512,-0.38002,0.04417,,,,,,,,,,,,,,,,,,,,,,,,,,0,0,0,0,0
1.8070,1783190546.0259,1,1,3.0000,0.0000,1.44682,0.22410,-2.77982,0.98488,1.57080,0.00001,-0.14512,-0.38002,0.04414,,,,,,,,,,,,,,,,,,,,,,,,,,0,0,0,0,0
1.8114,1783190546.0303,1,1,3.0000,0.0000,1.44682,0.22404,-2.77983,0.98496,1.57080,0.00001,-0.14512,-0.38002,0.04413,,,,,,,,,,,,,,,,,,,,,,,,,,0,0,0,0,0
1.8117,1783190546.0306,1,1,3.0000,0.0000,1.44682,0.22404,-2.77983,0.98496,1.57080,0.00001,-0.14512,-0.38002,0.04413,,,,,,,,,,,,,,,,,,,,,,,,,,0,0,0,0,0
1.8222,1783190546.0411,1,1,3.0000,0.0000,1.44682,0.22383,-2.77989,0.98523,1.57080,0.00001,-0.14512,-0.38002,0.04407,,,,,,,,,,,,,,,,,,,,,,,,,,0,0,0,0,0
1.8322,1783190546.0511,1,1,3.0000,0.0000,1.44682,0.22382,-2.77989,0.98524,1.57080,0.00001,-0.14512,-0.38002,0.04407,,,,,,,,,,,,,,,,,,,,,,,,,,0,0,0,0,0
1.8437,1783190546.0626,1,1,3.0000,0.0000,1.44682,0.22371,-2.77992,0.98537,1.57080,0.00001,-0.14512,-0.38002,0.04404,,,,,,,,,,,,,,,,,,,,,,,,,,0,0,0,0,0
1.8510,1783190546.0699,1,1,3.0000,0.0000,1.44682,0.22360,-2.77994,0.98551,1.57080,0.00001,-0.14512,-0.38002,0.04401,,,,,,,,,,,,,,,,,,,,,,,,,,0,0,0,0,0
1.8642,1783190546.0832,1,1,3.0000,0.0000,1.44682,0.22355,-2.77996,0.98557,1.57080,0.00001,-0.14512,-0.38002,0.04400,,,,,,,,,,,,,,,,,,,,,,,,,,0,0,0,0,0
1.8740,1783190546.0929,1,1,3.0000,0.0000,1.44682,0.22337,-2.78000,0.98580,1.57080,0.00001,-0.14512,-0.38002,0.04395,,,,,,,,,,,,,,,,,,,,,,,,,,0,0,0,0,0
1.8822,1783190546.1011,1,1,3.0000,0.0000,1.44682,0.22323,-2.78004,0.98598,1.57080,0.00001,-0.14512,-0.38002,0.04392,,,,,,,,,,,,,,,,,,,,,,,,,,0,0,0,0,0
1.8924,1783190546.1113,1,1,3.0000,0.0000,1.44682,0.22322,-2.78004,0.98599,1.57080,0.00001,-0.14512,-0.38002,0.04391,,,,,,,,,,,,,,,,,,,,,,,,,,0,0,0,0,0
1.9020,1783190546.1209,1,1,3.0000,0.0000,1.44682,0.22307,-2.78008,0.98617,1.57080,0.00001,-0.14512,-0.38002,0.04388,,,,,,,,,,,,,,,,,,,,,,,,,,0,0,0,0,0
1.9122,1783190546.1311,1,1,3.0000,0.0000,1.44682,0.22293,-2.78011,0.98635,1.57080,0.00001,-0.14512,-0.38002,0.04384,,,,,,,,,,,,,,,,,,,,,,,,,,0,0,0,0,0
1.9288,1783190546.1477,1,1,3.0000,0.0000,1.44682,0.22284,-2.78013,0.98646,1.57080,0.00001,-0.14512,-0.38002,0.04382,,,,,,,,,,,,,,,,,,,,,,,,,,0,0,0,0,0
1.9366,1783190546.1555,1,1,3.0000,0.0000,1.44681,0.22271,-2.78017,0.98662,1.57080,0.00001,-0.14512,-0.38002,0.04378,,,,,,,,,,,,,,,,,,,,,,,,,,0,0,0,0,0
1.9481,1783190546.1670,1,1,3.0000,0.0000,1.44681,0.22257,-2.78020,0.98680,1.57080,0.00001,-0.14512,-0.38002,0.04375,,,,,,,,,,,,,,,,,,,,,,,,,,0,0,0,0,0
1.9510,1783190546.1699,1,1,3.0000,0.0000,1.44681,0.22256,-2.78020,0.98681,1.57080,0.00001,-0.14512,-0.38002,0.04374,,,,,,,,,,,,,,,,,,,,,,,,,,0,0,0,0,0
1.9712,1783190546.1901,1,1,3.0000,0.0000,1.44681,0.22228,-2.78028,0.98717,1.57080,0.00001,-0.14512,-0.38002,0.04367,,,,,,,,,,,,,,,,,,,,,,,,,,0,0,0,0,0
1.9717,1783190546.1906,1,1,3.0000,0.0000,1.44681,0.22228,-2.78028,0.98717,1.57080,0.00001,-0.14512,-0.38002,0.04367,,,,,,,,,,,,,,,,,,,,,,,,,,0,0,0,0,0
1.9721,1783190546.1910,1,1,3.0000,0.0000,1.44681,0.22228,-2.78028,0.98717,1.57080,0.00001,-0.14512,-0.38002,0.04367,,,,,,,,,,,,,,,,,,,,,,,,,,0,0,0,0,0
1.9817,1783190546.2006,1,1,3.0000,0.0000,1.44681,0.22223,-2.78029,0.98722,1.57080,0.00001,-0.14512,-0.38002,0.04366,,,,,,,,,,,,,,,,,,,,,,,,,,0,0,0,0,0
1.9946,1783190546.2135,1,1,3.0000,0.0000,1.44681,0.22205,-2.78033,0.98744,1.57080,0.00001,-0.14512,-0.38002,0.04361,,,,,,,,,,,,,,,,,,,,,,,,,,0,0,0,0,0
2.0041,1783190546.2231,1,1,3.0000,0.0000,1.44681,0.22192,-2.78037,0.98762,1.57080,0.00001,-0.14512,-0.38002,0.04358,,,,,,,,,,,,,,,,,,,,,,,,,,0,0,0,0,0
2.0046,1783190546.2235,1,1,3.0000,0.0000,1.44681,0.22192,-2.78037,0.98762,1.57080,0.00001,-0.14512,-0.38002,0.04358,,,,,,,,,,,,,,,,,,,,,,,,,,0,0,0,0,0
2.0151,1783190546.2340,1,1,3.0000,0.0000,1.44681,0.22187,-2.78038,0.98767,1.57080,0.00001,-0.14512,-0.38002,0.04357,,,,,,,,,,,,,,,,,,,,,,,,,,0,0,0,0,0
2.0253,1783190546.2442,1,1,3.0000,0.0000,1.44681,0.22169,-2.78042,0.98790,1.57080,0.00001,-0.14512,-0.38002,0.04352,,,,,,,,,,,,,,,,,,,,,,,,,,0,0,0,0,0
2.0340,1783190546.2529,1,1,3.0000,0.0000,1.44681,0.22162,-2.78044,0.98799,1.57080,0.00001,-0.14512,-0.38002,0.04350,,,,,,,,,,,,,,,,,,,,,,,,,,0,0,0,0,0
2.0487,1783190546.2677,1,1,3.0000,0.0000,1.44681,0.22153,-2.78046,0.98810,1.57080,0.00001,-0.14512,-0.38002,0.04348,,,,,,,,,,,,,,,,,,,,,,,,,,0,0,0,0,0
2.0542,1783190546.2731,1,1,3.0000,0.0000,1.44681,0.22140,-2.78050,0.98827,1.57080,0.00001,-0.14512,-0.38002,0.04344,,,,,,,,,,,,,,,,,,,,,,,,,,0,0,0,0,0
2.0544,1783190546.2733,1,1,3.0000,0.0000,1.44681,0.22140,-2.78050,0.98827,1.57080,0.00001,-0.14512,-0.38002,0.04344,,,,,,,,,,,,,,,,,,,,,,,,,,0,0,0,0,0
2.0699,1783190546.2888,1,1,3.0000,0.0000,1.44681,0.22125,-2.78053,0.98845,1.57080,0.00001,-0.14512,-0.38002,0.04341,,,,,,,,,,,,,,,,,,,,,,,,,,0,0,0,0,0
2.0705,1783190546.2894,1,1,3.0000,0.0000,1.44681,0.22125,-2.78053,0.98845,1.57080,0.00001,-0.14512,-0.38002,0.04341,,,,,,,,,,,,,,,,,,,,,,,,,,0,0,0,0,0
2.0708,1783190546.2897,1,1,3.0000,0.0000,1.44681,0.22125,-2.78053,0.98845,1.57080,0.00001,-0.14512,-0.38002,0.04341,,,,,,,,,,,,,,,,,,,,,,,,,,0,0,0,0,0
2.0777,1783190546.2967,1,1,3.0000,0.0000,1.44681,0.22116,-2.78055,0.98856,1.57080,0.00001,-0.14512,-0.38002,0.04338,,,,,,,,,,,,,,,,,,,,,,,,,,0,0,0,0,0
2.0782,1783190546.2971,1,1,3.0000,0.0000,1.44681,0.22116,-2.78055,0.98856,1.57080,0.00001,-0.14512,-0.38002,0.04338,,,,,,,,,,,,,,,,,,,,,,,,,,0,0,0,0,0
2.0871,1783190546.3060,1,1,3.0000,0.0000,1.44681,0.22103,-2.78059,0.98872,1.57080,0.00001,-0.14512,-0.38002,0.04335,,,,,,,,,,,,,,,,,,,,,,,,,,0,0,0,0,0
2.0962,1783190546.3151,1,1,3.0000,0.0000,1.44681,0.22096,-2.78060,0.98881,1.57080,0.00001,-0.14512,-0.38002,0.04333,,,,,,,,,,,,,,,,,,,,,,,,,,0,0,0,0,0
2.1040,1783190546.3229,1,1,3.0000,0.0000,1.44681,0.22092,-2.78061,0.98886,1.57080,0.00001,-0.14512,-0.38002,0.04332,,,,,,,,,,,,,,,,,,,,,,,,,,0,0,0,0,0
2.1193,1783190546.3382,1,1,3.0000,0.0000,1.44681,0.22067,-2.78068,0.98917,1.57080,0.00001,-0.14512,-0.38002,0.04326,,,,,,,,,,,,,,,,,,,,,,,,,,0,0,0,0,0
2.1305,1783190546.3494,1,1,3.0000,0.0000,1.44681,0.22059,-2.78070,0.98928,1.57080,0.00001,-0.14512,-0.38002,0.04324,,,,,,,,,,,,,,,,,,,,,,,,,,0,0,0,0,0
2.1393,1783190546.3582,1,1,3.0000,0.0000,1.44681,0.22051,-2.78072,0.98938,1.57080,0.00001,-0.14512,-0.38002,0.04322,,,,,,,,,,,,,,,,,,,,,,,,,,0,0,0,0,0
2.1516,1783190546.3706,1,1,3.0000,0.0000,1.44681,0.22030,-2.78077,0.98963,1.57080,0.00001,-0.14512,-0.38002,0.04316,,,,,,,,,,,,,,,,,,,,,,,,,,0,0,0,0,0
2.1705,1783190546.3894,1,1,3.0000,0.0000,1.44681,0.22015,-2.78081,0.98982,1.57080,0.00001,-0.14512,-0.38002,0.04312,,,,,,,,,,,,,,,,,,,,,,,,,,0,0,0,0,0
2.1741,1783190546.3930,1,1,3.0000,0.0000,1.44681,0.22008,-2.78082,0.98991,1.57080,0.00001,-0.14512,-0.38002,0.04311,,,,,,,,,,,,,,,,,,,,,,,,,,0,0,0,0,0
2.1878,1783190546.4067,1,1,3.0000,0.0000,1.44681,0.21994,-2.78086,0.99008,1.57080,0.00001,-0.14512,-0.38002,0.04307,,,,,,,,,,,,,,,,,,,,,,,,,,0,0,0,0,0
2.1907,1783190546.4096,1,1,3.0000,0.0000,1.44681,0.21993,-2.78086,0.99010,1.57080,0.00001,-0.14512,-0.38002,0.04307,,,,,,,,,,,,,,,,,,,,,,,,,,0,0,0,0,0
2.2015,1783190546.4204,1,1,3.0000,0.0000,1.44681,0.21979,-2.78090,0.99028,1.57080,0.00001,-0.14512,-0.38002,0.04303,,,,,,,,,,,,,,,,,,,,,,,,,,0,0,0,0,0
2.2207,1783190546.4396,1,1,3.0000,0.0000,1.44681,0.21963,-2.78093,0.99047,1.57080,0.00001,-0.14512,-0.38002,0.04299,,,,,,,,,,,,,,,,,,,,,,,,,,0,0,0,0,0
2.2227,1783190546.4416,1,1,3.0000,0.0000,1.44681,0.21960,-2.78094,0.99051,1.57080,0.00001,-0.14512,-0.38002,0.04298,,,,,,,,,,,,,,,,,,,,,,,,,,0,0,0,0,0
2.2231,1783190546.4420,1,1,3.0000,0.0000,1.44681,0.21960,-2.78094,0.99051,1.57080,0.00001,-0.14512,-0.38002,0.04298,,,,,,,,,,,,,,,,,,,,,,,,,,0,0,0,0,0
2.2296,1783190546.4485,1,1,3.0000,0.0000,1.44681,0.21949,-2.78097,0.99065,1.57080,0.00001,-0.14512,-0.38002,0.04296,,,,,,,,,,,,,,,,,,,,,,,,,,0,0,0,0,0
2.2412,1783190546.4601,1,1,3.0000,0.0000,1.44681,0.21935,-2.78100,0.99082,1.57080,0.00001,-0.14512,-0.38002,0.04292,,,,,,,,,,,,,,,,,,,,,,,,,,0,0,0,0,0
2.2564,1783190546.4753,1,1,3.0000,0.0000,1.44681,0.21924,-2.78103,0.99096,1.57080,0.00001,-0.14512,-0.38002,0.04289,,,,,,,,,,,,,,,,,,,,,,,,,,0,0,0,0,0
2.2595,1783190546.4784,1,1,3.0000,0.0000,1.44681,0.21919,-2.78104,0.99102,1.57080,0.00001,-0.14512,-0.38002,0.04288,,,,,,,,,,,,,,,,,,,,,,,,,,0,0,0,0,0
2.2750,1783190546.4939,1,1,3.0000,0.0000,1.44681,0.21892,-2.78111,0.99136,1.57080,0.00001,-0.14512,-0.38002,0.04281,,,,,,,,,,,,,,,,,,,,,,,,,,0,0,0,0,0
2.2811,1783190546.5001,1,1,3.0000,0.0000,1.44681,0.21892,-2.78111,0.99136,1.57080,0.00001,-0.14512,-0.38002,0.04281,,,,,,,,,,,,,,,,,,,,,,,,,,0,0,0,0,0
2.2920,1783190546.5109,1,1,3.0000,0.0000,1.44681,0.21885,-2.78113,0.99145,1.57080,0.00001,-0.14512,-0.38002,0.04279,,,,,,,,,,,,,,,,,,,,,,,,,,0,0,0,0,0
2.2925,1783190546.5114,1,1,3.0000,0.0000,1.44681,0.21885,-2.78113,0.99145,1.57080,0.00001,-0.14512,-0.38002,0.04279,,,,,,,,,,,,,,,,,,,,,,,,,,0,0,0,0,0
2.3015,1783190546.5204,1,1,3.0000,0.0000,1.44681,0.21868,-2.78117,0.99165,1.57080,0.00001,-0.14512,-0.38002,0.04275,,,,,,,,,,,,,,,,,,,,,,,,,,0,0,0,0,0
2.3019,1783190546.5208,1,1,3.0000,0.0000,1.44681,0.21868,-2.78117,0.99165,1.57080,0.00001,-0.14512,-0.38002,0.04275,,,,,,,,,,,,,,,,,,,,,,,,,,0,0,0,0,0
2.3210,1783190546.5400,1,1,3.0000,0.0000,1.44681,0.21859,-2.78119,0.99177,1.57080,0.00001,-0.14512,-0.38002,0.04272,,,,,,,,,,,,,,,,,,,,,,,,,,0,0,0,0,0
2.3218,1783190546.5407,1,1,3.0000,0.0000,1.44681,0.21852,-2.78121,0.99185,1.57080,0.00001,-0.14512,-0.38002,0.04271,,,,,,,,,,,,,,,,,,,,,,,,,,0,0,0,0,0
2.3263,1783190546.5452,1,1,3.0000,0.0000,1.44681,0.21845,-2.78123,0.99194,1.57080,0.00001,-0.14512,-0.38002,0.04269,,,,,,,,,,,,,,,,,,,,,,,,,,0,0,0,0,0
2.3266,1783190546.5455,1,1,3.0000,0.0000,1.44681,0.21845,-2.78123,0.99194,1.57080,0.00001,-0.14512,-0.38002,0.04269,,,,,,,,,,,,,,,,,,,,,,,,,,0,0,0,0,0
2.3320,1783190546.5509,1,1,3.0000,0.0000,1.44681,0.21838,-2.78124,0.99203,1.57080,0.00001,-0.14512,-0.38002,0.04267,,,,,,,,,,,,,,,,,,,,,,,,,,0,0,0,0,0
2.3419,1783190546.5608,1,1,3.0000,0.0000,1.44681,0.21830,-2.78126,0.99213,1.57080,0.00001,-0.14512,-0.38002,0.04265,,,,,,,,,,,,,,,,,,,,,,,,,,0,0,0,0,0
2.3423,1783190546.5612,1,1,3.0000,0.0000,1.44681,0.21830,-2.78126,0.99213,1.57080,0.00001,-0.14512,-0.38002,0.04265,,,,,,,,,,,,,,,,,,,,,,,,,,0,0,0,0,0
2.3499,1783190546.5688,1,1,3.0000,0.0000,1.44681,0.21824,-2.78128,0.99220,1.57080,0.00001,-0.14512,-0.38002,0.04264,,,,,,,,,,,,,,,,,,,,,,,,,,0,0,0,0,0
2.3611,1783190546.5800,1,1,3.0000,0.0000,1.44681,0.21814,-2.78130,0.99233,1.57080,0.00001,-0.14512,-0.38002,0.04261,,,,,,,,,,,,,,,,,,,,,,,,,,0,0,0,0,0
2.3772,1783190546.5961,1,1,3.0000,0.0000,1.44681,0.21803,-2.78133,0.99247,1.57080,0.00001,-0.14512,-0.38002,0.04258,,,,,,,,,,,,,,,,,,,,,,,,,,0,0,0,0,0
2.3965,1783190546.6154,1,1,3.0000,0.0000,1.44681,0.21770,-2.78141,0.99287,1.57080,0.00001,-0.14512,-0.38002,0.04250,,,,,,,,,,,,,,,,,,,,,,,,,,0,0,0,0,0
2.3968,1783190546.6157,1,1,3.0000,0.0000,1.44681,0.21770,-2.78141,0.99287,1.57080,0.00001,-0.14512,-0.38002,0.04250,,,,,,,,,,,,,,,,,,,,,,,,,,0,0,0,0,0
2.4030,1783190546.6219,1,1,3.0000,0.0000,1.44681,0.21770,-2.78141,0.99288,1.57080,0.00001,-0.14512,-0.38002,0.04250,,,,,,,,,,,,,,,,,,,,,,,,,,0,0,0,0,0
2.4033,1783190546.6223,1,1,3.0000,0.0000,1.44681,0.21770,-2.78141,0.99288,1.57080,0.00001,-0.14512,-0.38002,0.04250,,,,,,,,,,,,,,,,,,,,,,,,,,0,0,0,0,0
2.4119,1783190546.6308,1,1,3.0000,0.0000,1.44681,0.21763,-2.78143,0.99296,1.57080,0.00001,-0.14512,-0.38002,0.04248,,,,,,,,,,,,,,,,,,,,,,,,,,0,0,0,0,0
2.4230,1783190546.6419,1,1,3.0000,0.0000,1.44681,0.21747,-2.78147,0.99316,1.57080,0.00001,-0.14512,-0.38002,0.04244,,,,,,,,,,,,,,,,,,,,,,,,,,0,0,0,0,0
2.4302,1783190546.6492,1,1,3.0000,0.0000,1.44681,0.21746,-2.78147,0.99318,1.57080,0.00001,-0.14512,-0.38002,0.04244,,,,,,,,,,,,,,,,,,,,,,,,,,0,0,0,0,0
2.4395,1783190546.6584,1,1,3.0000,0.0000,1.44681,0.21737,-2.78149,0.99328,1.57080,0.00001,-0.14512,-0.38002,0.04241,,,,,,,,,,,,,,,,,,,,,,,,,,0,0,0,0,0
2.4555,1783190546.6744,1,1,3.0000,0.0000,1.44681,0.21710,-2.78156,0.99363,1.57080,0.00001,-0.14512,-0.38002,0.04234,,,,,,,,,,,,,,,,,,,,,,,,,,0,0,0,0,0
2.4626,1783190546.6815,1,1,3.0000,0.0000,1.44681,0.21709,-2.78156,0.99364,1.57080,0.00001,-0.14512,-0.38002,0.04234,,,,,,,,,,,,,,,,,,,,,,,,,,0,0,0,0,0
2.4631,1783190546.6820,1,1,3.0000,0.0000,1.44681,0.21709,-2.78156,0.99364,1.57080,0.00001,-0.14512,-0.38002,0.04234,,,,,,,,,,,,,,,,,,,,,,,,,,0,0,0,0,0
2.4760,1783190546.6949,1,1,3.0000,0.0000,1.44681,0.21698,-2.78159,0.99378,1.57080,0.00001,-0.14512,-0.38002,0.04231,,,,,,,,,,,,,,,,,,,,,,,,,,0,0,0,0,0
2.4829,1783190546.7018,1,1,3.0000,0.0000,1.44681,0.21687,-2.78162,0.99392,1.57080,0.00001,-0.14512,-0.38002,0.04228,,,,,,,,,,,,,,,,,,,,,,,,,,0,0,0,0,0
2.4897,1783190546.7086,1,1,3.0000,0.0000,1.44681,0.21685,-2.78162,0.99393,1.57080,0.00001,-0.14512,-0.38002,0.04228,,,,,,,,,,,,,,,,,,,,,,,,,,0,0,0,0,0
2.4992,1783190546.7181,1,1,3.0000,0.0000,1.44681,0.21677,-2.78164,0.99404,1.57080,0.00001,-0.14512,-0.38002,0.04226,,,,,,,,,,,,,,,,,,,,,,,,,,0,0,0,0,0
2.5139,1783190546.7328,1,1,3.0000,0.0000,1.44681,0.21649,-2.78171,0.99439,1.57080,0.00001,-0.14512,-0.38002,0.04219,,,,,,,,,,,,,,,,,,,,,,,,,,0,0,0,0,0
2.5142,1783190546.7331,1,1,3.0000,0.0000,1.44681,0.21649,-2.78171,0.99439,1.57080,0.00001,-0.14512,-0.38002,0.04219,,,,,,,,,,,,,,,,,,,,,,,,,,0,0,0,0,0
2.5308,1783190546.7497,1,1,3.0000,0.0000,1.44681,0.21642,-2.78173,0.99447,1.57080,0.00001,-0.14512,-0.38002,0.04217,,,,,,,,,,,,,,,,,,,,,,,,,,0,0,0,0,0
2.5337,1783190546.7526,1,1,3.0000,0.0000,1.44681,0.21637,-2.78174,0.99453,1.57080,0.00001,-0.14512,-0.38002,0.04216,,,,,,,,,,,,,,,,,,,,,,,,,,0,0,0,0,0
2.5424,1783190546.7613,1,1,3.0000,0.0000,1.44681,0.21626,-2.78177,0.99467,1.57080,0.00001,-0.14512,-0.38002,0.04213,,,,,,,,,,,,,,,,,,,,,,,,,,0,0,0,0,0
2.5516,1783190546.7705,1,1,3.0000,0.0000,1.44681,0.21625,-2.78177,0.99469,1.57080,0.00001,-0.14512,-0.38002,0.04213,,,,,,,,,,,,,,,,,,,,,,,,,,0,0,0,0,0
2.5615,1783190546.7804,1,1,3.0000,0.0000,1.44681,0.21610,-2.78181,0.99488,1.57080,0.00001,-0.14512,-0.38002,0.04209,,,,,,,,,,,,,,,,,,,,,,,,,,0,0,0,0,0
2.5820,1783190546.8010,1,1,3.0000,0.0000,1.44681,0.21587,-2.78186,0.99515,1.57080,0.00001,-0.14512,-0.38002,0.04203,,,,,,,,,,,,,,,,,,,,,,,,,,0,0,0,0,0
2.5824,1783190546.8013,1,1,3.0000,0.0000,1.44681,0.21587,-2.78186,0.99515,1.57080,0.00001,-0.14512,-0.38002,0.04203,,,,,,,,,,,,,,,,,,,,,,,,,,0,0,0,0,0
2.5963,1783190546.8153,1,1,3.0000,0.0000,1.44681,0.21577,-2.78189,0.99529,1.57080,0.00001,-0.14512,-0.38002,0.04200,,,,,,,,,,,,,,,,,,,,,,,,,,0,0,0,0,0
2.5968,1783190546.8157,1,1,3.0000,0.0000,1.44681,0.21577,-2.78189,0.99529,1.57080,0.00001,-0.14512,-0.38002,0.04200,,,,,,,,,,,,,,,,,,,,,,,,,,0,0,0,0,0
2.6015,1783190546.8204,1,1,3.0000,0.0000,1.44681,0.21565,-2.78192,0.99543,1.57080,0.00001,-0.14512,-0.38002,0.04197,,,,,,,,,,,,,,,,,,,,,,,,,,0,0,0,0,0
2.6179,1783190546.8368,1,1,3.0000,0.0000,1.44681,0.21555,-2.78194,0.99555,1.57080,0.00001,-0.14512,-0.38002,0.04195,,,,,,,,,,,,,,,,,,,,,,,,,,0,0,0,0,0
2.6347,1783190546.8537,1,1,3.0000,0.0000,1.44681,0.21528,-2.78201,0.99590,1.57080,0.00001,-0.14512,-0.38002,0.04188,,,,,,,,,,,,,,,,,,,,,,,,,,0,0,0,0,0
2.6351,1783190546.8540,1,1,3.0000,0.0000,1.44681,0.21528,-2.78201,0.99590,1.57080,0.00001,-0.14512,-0.38002,0.04188,,,,,,,,,,,,,,,,,,,,,,,,,,0,0,0,0,0
2.6420,1783190546.8610,1,1,3.0000,0.0000,1.44681,0.21527,-2.78201,0.99591,1.57080,0.00001,-0.14512,-0.38002,0.04188,,,,,,,,,,,,,,,,,,,,,,,,,,0,0,0,0,0
2.6425,1783190546.8614,1,1,3.0000,0.0000,1.44681,0.21527,-2.78201,0.99591,1.57080,0.00001,-0.14512,-0.38002,0.04188,,,,,,,,,,,,,,,,,,,,,,,,,,0,0,0,0,0
2.6516,1783190546.8705,1,1,3.0000,0.0000,1.44681,0.21521,-2.78203,0.99599,1.57080,0.00001,-0.14512,-0.38002,0.04186,,,,,,,,,,,,,,,,,,,,,,,,,,0,0,0,0,0
2.6617,1783190546.8806,1,1,3.0000,0.0000,1.44681,0.21504,-2.78207,0.99619,1.57080,0.00001,-0.14512,-0.38002,0.04182,,,,,,,,,,,,,,,,,,,,,,,,,,0,0,0,0,0
2.6696,1783190546.8885,1,1,3.0000,0.0000,1.44681,0.21503,-2.78207,0.99620,1.57080,0.00001,-0.14512,-0.38002,0.04182,,,,,,,,,,,,,,,,,,,,,,,,,,0,0,0,0,0
2.6697,1783190546.8886,1,1,3.0000,0.0000,1.44681,0.21503,-2.78207,0.99620,1.57080,0.00001,-0.14512,-0.38002,0.04182,,,,,,,,,,,,,,,,,,,,,,,,,,0,0,0,0,0
2.6812,1783190546.9001,1,1,3.0000,0.0000,1.44681,0.21494,-2.78209,0.99631,1.57080,0.00001,-0.14512,-0.38002,0.04179,,,,,,,,,,,,,,,,,,,,,,,,,,0,0,0,0,0
2.6921,1783190546.9110,1,1,3.0000,0.0000,1.44681,0.21474,-2.78214,0.99657,1.57080,0.00001,-0.14512,-0.38002,0.04174,,,,,,,,,,,,,,,,,,,,,,,,,,0,0,0,0,0
2.7057,1783190546.9246,1,1,3.0000,0.0000,1.44681,0.21462,-2.78217,0.99671,1.57080,0.00001,-0.14512,-0.38002,0.04171,,,,,,,,,,,,,,,,,,,,,,,,,,0,0,0,0,0
2.7137,1783190546.9326,1,1,3.0000,0.0000,1.44681,0.21451,-2.78220,0.99685,1.57080,0.00002,-0.14512,-0.38002,0.04168,,,,,,,,,,,,,,,,,,,,,,,,,,0,0,0,0,0
2.7305,1783190546.9494,1,1,3.0000,0.0000,1.44681,0.21436,-2.78223,0.99704,1.57080,0.00002,-0.14512,-0.38002,0.04164,,,,,,,,,,,,,,,,,,,,,,,,,,0,0,0,0,0
2.7406,1783190546.9595,1,1,3.0000,0.0000,1.44681,0.21427,-2.78225,0.99715,1.57080,0.00002,-0.14512,-0.38002,0.04162,,,,,,,,,,,,,,,,,,,,,,,,,,0,0,0,0,0
2.7461,1783190546.9651,1,1,3.0000,0.0000,1.44681,0.21414,-2.78229,0.99731,1.57080,0.00002,-0.14512,-0.38002,0.04159,,,,,,,,,,,,,,,,,,,,,,,,,,0,0,0,0,0
2.7465,1783190546.9654,1,1,3.0000,0.0000,1.44681,0.21414,-2.78229,0.99731,1.57080,0.00002,-0.14512,-0.38002,0.04159,,,,,,,,,,,,,,,,,,,,,,,,,,0,0,0,0,0
2.7549,1783190546.9738,1,1,3.0000,0.0000,1.44681,0.21400,-2.78232,0.99748,1.57080,0.00002,-0.14512,-0.38002,0.04155,,,,,,,,,,,,,,,,,,,,,,,,,,0,0,0,0,0
2.7605,1783190546.9795,1,1,3.0000,0.0000,1.44681,0.21400,-2.78232,0.99748,1.57080,0.00002,-0.14512,-0.38002,0.04155,,,,,,,,,,,,,,,,,,,,,,,,,,0,0,0,0,0
2.7762,1783190546.9951,1,1,3.0000,0.0000,1.44681,0.21385,-2.78236,0.99768,1.57080,0.00002,-0.14512,-0.38002,0.04151,,,,,,,,,,,,,,,,,,,,,,,,,,0,0,0,0,0
2.7922,1783190547.0111,1,1,3.0000,0.0000,1.44681,0.21369,-2.78240,0.99787,1.57080,0.00002,-0.14512,-0.38002,0.04147,,,,,,,,,,,,,,,,,,,,,,,,,,0,0,0,0,0
2.7926,1783190547.0115,1,1,3.0000,0.0000,1.44681,0.21369,-2.78240,0.99787,1.57080,0.00002,-0.14512,-0.38002,0.04147,,,,,,,,,,,,,,,,,,,,,,,,,,0,0,0,0,0
2.8018,1783190547.0207,1,1,3.0000,0.0000,1.44681,0.21355,-2.78243,0.99805,1.57080,0.00002,-0.14512,-0.38002,0.04144,,,,,,,,,,,,,,,,,,,,,,,,,,0,0,0,0,0
2.8021,1783190547.0210,1,1,3.0000,0.0000,1.44681,0.21355,-2.78243,0.99805,1.57080,0.00002,-0.14512,-0.38002,0.04144,,,,,,,,,,,,,,,,,,,,,,,,,,0,0,0,0,0
2.8099,1783190547.0288,1,1,3.0000,0.0000,1.44681,0.21341,-2.78247,0.99822,1.57080,0.00002,-0.14512,-0.38002,0.04140,,,,,,,,,,,,,,,,,,,,,,,,,,0,0,0,0,0
2.8102,1783190547.0292,1,1,3.0000,0.0000,1.44681,0.21341,-2.78247,0.99822,1.57080,0.00002,-0.14512,-0.38002,0.04140,,,,,,,,,,,,,,,,,,,,,,,,,,0,0,0,0,0
2.8204,1783190547.0394,1,1,3.0000,0.0000,1.44681,0.21334,-2.78248,0.99831,1.57080,0.00002,-0.14512,-0.38002,0.04138,,,,,,,,,,,,,,,,,,,,,,,,,,0,0,0,0,0
2.8314,1783190547.0503,1,1,3.0000,0.0000,1.44681,0.21324,-2.78251,0.99843,1.57080,0.00002,-0.14512,-0.38002,0.04136,,,,,,,,,,,,,,,,,,,,,,,,,,0,0,0,0,0
2.8413,1783190547.0603,1,1,3.0000,0.0000,1.44681,0.21311,-2.78254,0.99859,1.57080,0.00002,-0.14512,-0.38002,0.04133,,,,,,,,,,,,,,,,,,,,,,,,,,0,0,0,0,0
2.8500,1783190547.0689,1,1,3.0000,0.0000,1.44681,0.21303,-2.78256,0.99870,1.57080,0.00002,-0.14512,-0.38002,0.04131,,,,,,,,,,,,,,,,,,,,,,,,,,0,0,0,0,0
2.8636,1783190547.0825,1,1,3.0000,0.0000,1.44681,0.21288,-2.78259,0.99888,1.57080,0.00002,-0.14512,-0.38002,0.04127,,,,,,,,,,,,,,,,,,,,,,,,,,0,0,0,0,0
2.8697,1783190547.0886,1,1,3.0000,0.0000,1.44681,0.21274,-2.78263,0.99905,1.57080,0.00002,-0.14512,-0.38002,0.04123,,,,,,,,,,,,,,,,,,,,,,,,,,0,0,0,0,0
2.8701,1783190547.0890,1,1,3.0000,0.0000,1.44681,0.21274,-2.78263,0.99905,1.57080,0.00002,-0.14512,-0.38002,0.04123,,,,,,,,,,,,,,,,,,,,,,,,,,0,0,0,0,0
2.8860,1783190547.1049,1,1,3.0000,0.0000,1.44681,0.21263,-2.78266,0.99919,1.57080,0.00002,-0.14512,-0.38002,0.04120,,,,,,,,,,,,,,,,,,,,,,,,,,0,0,0,0,0
2.8897,1783190547.1086,1,1,3.0000,0.0000,1.44681,0.21258,-2.78267,0.99926,1.57080,0.00002,-0.14512,-0.38002,0.04119,,,,,,,,,,,,,,,,,,,,,,,,,,0,0,0,0,0
2.9058,1783190547.1247,1,1,3.0000,0.0000,1.44681,0.21237,-2.78272,0.99951,1.57080,0.00002,-0.14512,-0.38002,0.04114,,,,,,,,,,,,,,,,,,,,,,,,,,0,0,0,0,0
2.9152,1783190547.1341,1,1,3.0000,0.0000,1.44681,0.21233,-2.78273,0.99957,1.57080,0.00002,-0.14512,-0.38002,0.04113,,,,,,,,,,,,,,,,,,,,,,,,,,0,0,0,0,0
2.9196,1783190547.1385,1,1,3.0000,0.0000,1.44681,0.21228,-2.78274,0.99963,1.57080,0.00002,-0.14512,-0.38002,0.04112,,,,,,,,,,,,,,,,,,,,,,,,,,0,0,0,0,0
2.9420,1783190547.1609,1,1,3.0000,0.0000,1.44681,0.21199,-2.78281,0.99998,1.57080,0.00002,-0.14512,-0.38002,0.04104,,,,,,,,,,,,,,,,,,,,,,,,,,0,0,0,0,0
2.9423,1783190547.1612,1,1,3.0000,0.0000,1.44681,0.21199,-2.78281,0.99998,1.57080,0.00002,-0.14512,-0.38002,0.04104,,,,,,,,,,,,,,,,,,,,,,,,,,0,0,0,0,0
2.9430,1783190547.1619,1,1,3.0000,0.0000,1.44681,0.21199,-2.78281,0.99998,1.57080,0.00002,-0.14512,-0.38002,0.04104,,,,,,,,,,,,,,,,,,,,,,,,,,0,0,0,0,0
2.9533,1783190547.1723,1,1,3.0000,0.0000,1.44681,0.21191,-2.78283,1.00008,1.57080,0.00002,-0.14512,-0.38002,0.04102,,,,,,,,,,,,,,,,,,,,,,,,,,0,0,0,0,0
2.9599,1783190547.1788,1,1,3.0000,0.0000,1.44681,0.21178,-2.78286,1.00025,1.57080,0.00002,-0.14512,-0.38002,0.04099,,,,,,,,,,,,,,,,,,,,,,,,,,0,0,0,0,0
2.9604,1783190547.1793,1,1,3.0000,0.0000,1.44681,0.21178,-2.78286,1.00025,1.57080,0.00002,-0.14512,-0.38002,0.04099,,,,,,,,,,,,,,,,,,,,,,,,,,0,0,0,0,0
2.9711,1783190547.1900,1,1,3.0000,0.0000,1.44681,0.21169,-2.78288,1.00035,1.57080,0.00002,-0.14512,-0.38002,0.04097,,,,,,,,,,,,,,,,,,,,,,,,,,0,0,0,0,0
2.9801,1783190547.1990,1,1,3.0000,0.0000,1.44681,0.21161,-2.78290,1.00046,1.57080,0.00002,-0.14512,-0.38002,0.04095,,,,,,,,,,,,,,,,,,,,,,,,,,0,0,0,0,0
2.9804,1783190547.1993,1,1,3.0000,0.0000,1.44681,0.21161,-2.78290,1.00046,1.57080,0.00002,-0.14512,-0.38002,0.04095,,,,,,,,,,,,,,,,,,,,,,,,,,0,0,0,0,0
2.9940,1783190547.2129,1,1,3.0000,0.0000,1.44681,0.21134,-2.78297,1.00079,1.57080,0.00002,-0.14512,-0.38002,0.04088,,,,,,,,,,,,,,,,,,,,,,,,,,0,0,0,0,0
2.9942,1783190547.2131,1,1,3.0000,0.0000,1.44681,0.21134,-2.78297,1.00079,1.57080,0.00002,-0.14512,-0.38002,0.04088,,,,,,,,,,,,,,,,,,,,,,,,,,0,0,0,0,0
3.0009,1783190547.2198,1,1,3.0000,0.0000,1.44681,0.21134,-2.78297,1.00079,1.57080,0.00002,-0.14512,-0.38002,0.04088,,,,,,,,,,,,,,,,,,,,,,,,,,0,0,0,0,0
3.0098,1783190547.2287,1,1,3.0000,0.0000,1.44681,0.21124,-2.78299,1.00091,1.57080,0.00002,-0.14512,-0.38002,0.04085,,,,,,,,,,,,,,,,,,,,,,,,,,0,0,0,0,0
3.0100,1783190547.2290,1,1,3.0000,0.0000,1.44681,0.21124,-2.78299,1.00091,1.57080,0.00002,-0.14512,-0.38002,0.04085,,,,,,,,,,,,,,,,,,,,,,,,,,0,0,0,0,0
3.0410,1783190547.2599,1,1,3.0000,0.0000,1.44681,0.21094,-2.78306,1.00128,1.57080,0.00002,-0.14512,-0.38002,0.04078,,,,,,,,,,,,,,,,,,,,,,,,,,0,0,0,0,0
3.0650,1783190547.2839,1,1,3.0000,0.0000,1.44681,0.21066,-2.78313,1.00164,1.57080,0.00002,-0.14512,-0.38002,0.04071,,,,,,,,,,,,,,,,,,,,,,,,,,0,0,0,0,0
3.0654,1783190547.2843,1,1,3.0000,0.0000,1.44681,0.21066,-2.78313,1.00164,1.57080,0.00002,-0.14512,-0.38002,0.04071,,,,,,,,,,,,,,,,,,,,,,,,,,0,0,0,0,0
3.1441,1783190547.3630,1,1,3.0000,0.0000,1.44680,0.20976,-2.78335,1.00276,1.57080,0.00002,-0.14512,-0.38002,0.04048,,,,,,,,,,,,,,,,,,,,,,,,,,0,0,0,0,0
3.1444,1783190547.3633,1,1,3.0000,0.0000,1.44680,0.20976,-2.78335,1.00276,1.57080,0.00002,-0.14512,-0.38002,0.04048,,,,,,,,,,,,,,,,,,,,,,,,,,0,0,0,0,0
3.1448,1783190547.3637,1,1,3.0000,0.0000,1.44680,0.20976,-2.78335,1.00276,1.57080,0.00002,-0.14512,-0.38002,0.04048,,,,,,,,,,,,,,,,,,,,,,,,,,0,0,0,0,0
3.1451,1783190547.3640,1,1,3.0000,0.0000,1.44680,0.20976,-2.78335,1.00276,1.57080,0.00002,-0.14512,-0.38002,0.04048,,,,,,,,,,,,,,,,,,,,,,,,,,0,0,0,0,0
3.1457,1783190547.3646,1,1,3.0000,0.0000,1.44680,0.20969,-2.78337,1.00284,1.57080,0.00002,-0.14512,-0.38002,0.04046,,,,,,,,,,,,,,,,,,,,,,,,,,0,0,0,0,0
3.2212,1783190547.4401,1,1,3.0000,0.0000,1.44680,0.20904,-2.78352,1.00365,1.57079,0.00002,-0.14512,-0.38002,0.04030,,,,,,,,,,,,,,,,,,,,,,,,,,0,0,0,0,0
3.2219,1783190547.4408,1,1,3.0000,0.0000,1.44680,0.20900,-2.78353,1.00369,1.57079,0.00002,-0.14512,-0.38002,0.04029,,,,,,,,,,,,,,,,,,,,,,,,,,0,0,0,0,0
3.2222,1783190547.4411,1,1,3.0000,0.0000,1.44680,0.20900,-2.78353,1.00369,1.57079,0.00002,-0.14512,-0.38002,0.04029,,,,,,,,,,,,,,,,,,,,,,,,,,0,0,0,0,0
3.2226,1783190547.4415,1,1,3.0000,0.0000,1.44680,0.20900,-2.78353,1.00369,1.57079,0.00002,-0.14512,-0.38002,0.04029,,,,,,,,,,,,,,,,,,,,,,,,,,0,0,0,0,0
3.2229,1783190547.4419,1,1,3.0000,0.0000,1.44680,0.20900,-2.78353,1.00369,1.57079,0.00002,-0.14512,-0.38002,0.04029,,,,,,,,,,,,,,,,,,,,,,,,,,0,0,0,0,0
3.2232,1783190547.4421,1,1,3.0000,0.0000,1.44680,0.20900,-2.78353,1.00369,1.57079,0.00002,-0.14512,-0.38002,0.04029,,,,,,,,,,,,,,,,,,,,,,,,,,0,0,0,0,0
3.2235,1783190547.4425,1,1,3.0000,0.0000,1.44680,0.20900,-2.78353,1.00369,1.57079,0.00002,-0.14512,-0.38002,0.04029,,,,,,,,,,,,,,,,,,,,,,,,,,0,0,0,0,0
3.2238,1783190547.4427,1,1,3.0000,0.0000,1.44680,0.20900,-2.78353,1.00369,1.57079,0.00002,-0.14512,-0.38002,0.04029,,,,,,,,,,,,,,,,,,,,,,,,,,0,0,0,0,0
3.2298,1783190547.4487,1,1,3.0000,0.0000,1.44680,0.20890,-2.78356,1.00382,1.57079,0.00002,-0.14512,-0.38002,0.04026,,,,,,,,,,,,,,,,,,,,,,,,,,0,0,0,0,0
3.2299,1783190547.4488,1,1,3.0000,0.0000,1.44680,0.20890,-2.78356,1.00382,1.57079,0.00002,-0.14512,-0.38002,0.04026,,,,,,,,,,,,,,,,,,,,,,,,,,0,0,0,0,0
3.2444,1783190547.4633,1,1,3.0000,0.0000,1.44680,0.20883,-2.78357,1.00391,1.57079,0.00002,-0.14512,-0.38002,0.04024,,,,,,,,,,,,,,,,,,,,,,,,,,0,0,0,0,0
3.2500,1783190547.4689,1,1,3.0000,0.0000,1.44680,0.20874,-2.78359,1.00402,1.57079,0.00002,-0.14512,-0.38002,0.04022,,,,,,,,,,,,,,,,,,,,,,,,,,0,0,0,0,0
3.2504,1783190547.4693,1,1,3.0000,0.0000,1.44680,0.20874,-2.78359,1.00402,1.57079,0.00002,-0.14512,-0.38002,0.04022,,,,,,,,,,,,,,,,,,,,,,,,,,0,0,0,0,0
3.2595,1783190547.4784,1,1,3.0000,0.0000,1.44680,0.20860,-2.78363,1.00419,1.57079,0.00002,-0.14512,-0.38002,0.04019,,,,,,,,,,,,,,,,,,,,,,,,,,0,0,0,0,0
3.2739,1783190547.4928,1,1,3.0000,0.0000,1.44680,0.20845,-2.78366,1.00438,1.57079,0.00002,-0.14512,-0.38002,0.04015,,,,,,,,,,,,,,,,,,,,,,,,,,0,0,0,0,0
3.2818,1783190547.5007,1,1,3.0000,0.0000,1.44680,0.20839,-2.78368,1.00445,1.57079,0.00002,-0.14512,-0.38002,0.04013,,,,,,,,,,,,,,,,,,,,,,,,,,0,0,0,0,0
3.2953,1783190547.5142,1,1,3.0000,0.0000,1.44680,0.20823,-2.78372,1.00466,1.57079,0.00002,-0.14512,-0.38002,0.04009,,,,,,,,,,,,,,,,,,,,,,,,,,0,0,0,0,0
3.2994,1783190547.5184,1,1,3.0000,0.0000,1.44680,0.20823,-2.78372,1.00466,1.57079,0.00002,-0.14512,-0.38002,0.04009,,,,,,,,,,,,,,,,,,,,,,,,,,0,0,0,0,0
3.3258,1783190547.5447,1,1,3.0000,0.0000,1.44680,0.20785,-2.78381,1.00513,1.57079,0.00002,-0.14512,-0.38002,0.03999,,,,,,,,,,,,,,,,,,,,,,,,,,0,0,0,0,0
3.3300,1783190547.5489,1,1,3.0000,0.0000,1.44680,0.20785,-2.78381,1.00513,1.57079,0.00002,-0.14512,-0.38002,0.03999,,,,,,,,,,,,,,,,,,,,,,,,,,0,0,0,0,0
3.3302,1783190547.5491,1,1,3.0000,0.0000,1.44680,0.20785,-2.78381,1.00513,1.57079,0.00002,-0.14512,-0.38002,0.03999,,,,,,,,,,,,,,,,,,,,,,,,,,0,0,0,0,0
3.3528,1783190547.5718,1,1,3.0000,0.0000,1.44680,0.20767,-2.78385,1.00534,1.57079,0.00002,-0.14512,-0.38002,0.03995,,,,,,,,,,,,,,,,,,,,,,,,,,0,0,0,0,0
3.3531,1783190547.5721,1,1,3.0000,0.0000,1.44680,0.20767,-2.78385,1.00534,1.57079,0.00002,-0.14512,-0.38002,0.03995,,,,,,,,,,,,,,,,,,,,,,,,,,0,0,0,0,0
3.3768,1783190547.5957,1,1,3.0000,0.0000,1.44680,0.20745,-2.78390,1.00562,1.57079,0.00002,-0.14512,-0.38002,0.03989,,,,,,,,,,,,,,,,,,,,,,,,,,0,0,0,0,0
3.3772,1783190547.5961,1,1,3.0000,0.0000,1.44680,0.20745,-2.78390,1.00562,1.57079,0.00002,-0.14512,-0.38002,0.03989,,,,,,,,,,,,,,,,,,,,,,,,,,0,0,0,0,0
3.3778,1783190547.5967,1,1,3.0000,0.0000,1.44680,0.20737,-2.78392,1.00571,1.57079,0.00002,-0.14512,-0.38002,0.03988,,,,,,,,,,,,,,,,,,,,,,,,,,0,0,0,0,0
3.4259,1783190547.6448,1,1,3.0000,0.0000,1.44680,0.20695,-2.78402,1.00624,1.57079,0.00002,-0.14512,-0.38002,0.03977,,,,,,,,,,,,,,,,,,,,,,,,,,0,0,0,0,0
3.4263,1783190547.6452,1,1,3.0000,0.0000,1.44680,0.20695,-2.78402,1.00624,1.57079,0.00002,-0.14512,-0.38002,0.03977,,,,,,,,,,,,,,,,,,,,,,,,,,0,0,0,0,0
3.4267,1783190547.6456,1,1,3.0000,0.0000,1.44680,0.20695,-2.78402,1.00624,1.57079,0.00002,-0.14512,-0.38002,0.03977,,,,,,,,,,,,,,,,,,,,,,,,,,0,0,0,0,0
3.4269,1783190547.6458,1,1,3.0000,0.0000,1.44680,0.20695,-2.78402,1.00624,1.57079,0.00002,-0.14512,-0.38002,0.03977,,,,,,,,,,,,,,,,,,,,,,,,,,0,0,0,0,0
3.4273,1783190547.6462,1,1,3.0000,0.0000,1.44680,0.20695,-2.78402,1.00624,1.57079,0.00002,-0.14512,-0.38002,0.03977,,,,,,,,,,,,,,,,,,,,,,,,,,0,0,0,0,0
3.4332,1783190547.6521,1,1,3.0000,0.0000,1.44680,0.20690,-2.78404,1.00631,1.57079,0.00002,-0.14512,-0.38002,0.03975,,,,,,,,,,,,,,,,,,,,,,,,,,0,0,0,0,0
3.4334,1783190547.6523,1,1,3.0000,0.0000,1.44680,0.20690,-2.78404,1.00631,1.57079,0.00002,-0.14512,-0.38002,0.03975,,,,,,,,,,,,,,,,,,,,,,,,,,0,0,0,0,0
3.4338,1783190547.6527,1,1,3.0000,0.0000,1.44680,0.20683,-2.78405,1.00639,1.57079,0.00002,-0.14512,-0.38002,0.03974,,,,,,,,,,,,,,,,,,,,,,,,,,0,0,0,0,0
3.4458,1783190547.6647,1,1,3.0000,0.0000,1.44680,0.20661,-2.78410,1.00665,1.57079,0.00002,-0.14512,-0.38002,0.03968,,,,,,,,,,,,,,,,,,,,,,,,,,0,0,0,0,0
3.4526,1783190547.6715,1,1,3.0000,0.0000,1.44680,0.20661,-2.78410,1.00665,1.57079,0.00002,-0.14512,-0.38002,0.03968,,,,,,,,,,,,,,,,,,,,,,,,,,0,0,0,0,0
3.4531,1783190547.6720,1,1,3.0000,0.0000,1.44680,0.20661,-2.78410,1.00665,1.57079,0.00002,-0.14512,-0.38002,0.03968,,,,,,,,,,,,,,,,,,,,,,,,,,0,0,0,0,0
3.4641,1783190547.6830,1,1,3.0000,0.0000,1.44680,0.20652,-2.78413,1.00677,1.57079,0.00002,-0.14512,-0.38002,0.03966,,,,,,,,,,,,,,,,,,,,,,,,,,0,0,0,0,0
3.4724,1783190547.6914,1,1,3.0000,0.0000,1.44680,0.20639,-2.78416,1.00694,1.57079,0.00002,-0.14512,-0.38002,0.03963,,,,,,,,,,,,,,,,,,,,,,,,,,0,0,0,0,0
3.4858,1783190547.7047,1,1,3.0000,0.0000,1.44680,0.20627,-2.78419,1.00708,1.57079,0.00002,-0.14512,-0.38002,0.03960,,,,,,,,,,,,,,,,,,,,,,,,,,0,0,0,0,0
3.4897,1783190547.7086,1,1,3.0000,0.0000,1.44680,0.20622,-2.78420,1.00715,1.57079,0.00002,-0.14512,-0.38002,0.03958,,,,,,,,,,,,,,,,,,,,,,,,,,0,0,0,0,0
3.4999,1783190547.7189,1,1,3.0000,0.0000,1.44680,0.20609,-2.78423,1.00731,1.57079,0.00002,-0.14512,-0.38002,0.03955,,,,,,,,,,,,,,,,,,,,,,,,,,0,0,0,0,0
3.5114,1783190547.7304,1,1,3.0000,0.0000,1.44680,0.20594,-2.78426,1.00748,1.57079,0.00002,-0.14512,-0.38002,0.03952,,,,,,,,,,,,,,,,,,,,,,,,,,0,0,0,0,0
3.5205,1783190547.7394,1,1,3.0000,0.0000,1.44680,0.20590,-2.78427,1.00754,1.57079,0.00002,-0.14512,-0.38002,0.03950,,,,,,,,,,,,,,,,,,,,,,,,,,0,0,0,0,0
3.5300,1783190547.7489,1,1,3.0000,0.0000,1.44680,0.20571,-2.78432,1.00777,1.57079,0.00002,-0.14512,-0.38002,0.03946,,,,,,,,,,,,,,,,,,,,,,,,,,0,0,0,0,0
3.5402,1783190547.7591,1,1,3.0000,0.0000,1.44680,0.20564,-2.78434,1.00786,1.57079,0.00002,-0.14512,-0.38002,0.03944,,,,,,,,,,,,,,,,,,,,,,,,,,0,0,0,0,0
3.5407,1783190547.7596,1,1,3.0000,0.0000,1.44680,0.20564,-2.78434,1.00786,1.57079,0.00002,-0.14512,-0.38002,0.03944,,,,,,,,,,,,,,,,,,,,,,,,,,0,0,0,0,0
3.5532,1783190547.7721,1,1,3.0000,0.0000,1.44680,0.20554,-2.78436,1.00798,1.57079,0.00002,-0.14512,-0.38002,0.03941,,,,,,,,,,,,,,,,,,,,,,,,,,0,0,0,0,0
3.5614,1783190547.7803,1,1,3.0000,0.0000,1.44680,0.20541,-2.78439,1.00814,1.57079,0.00002,-0.14512,-0.38002,0.03938,,,,,,,,,,,,,,,,,,,,,,,,,,0,0,0,0,0
3.5714,1783190547.7904,1,1,3.0000,0.0000,1.44680,0.20527,-2.78442,1.00832,1.57079,0.00002,-0.14512,-0.38002,0.03935,,,,,,,,,,,,,,,,,,,,,,,,,,0,0,0,0,0
3.5813,1783190547.8002,1,1,3.0000,0.0000,1.44680,0.20522,-2.78443,1.00837,1.57079,0.00002,-0.14512,-0.38002,0.03933,,,,,,,,,,,,,,,,,,,,,,,,,,0,0,0,0,0
3.5913,1783190547.8102,1,1,3.0000,0.0000,1.44680,0.20504,-2.78448,1.00860,1.57079,0.00002,-0.14512,-0.38002,0.03929,,,,,,,,,,,,,,,,,,,,,,,,,,0,0,0,0,0
3.5999,1783190547.8188,1,1,3.0000,0.0000,1.44680,0.20497,-2.78450,1.00869,1.57079,0.00002,-0.14512,-0.38002,0.03927,,,,,,,,,,,,,,,,,,,,,,,,,,0,0,0,0,0
3.6002,1783190547.8191,1,1,3.0000,0.0000,1.44680,0.20497,-2.78450,1.00869,1.57079,0.00002,-0.14512,-0.38002,0.03927,,,,,,,,,,,,,,,,,,,,,,,,,,0,0,0,0,0
3.6099,1783190547.8288,1,1,3.0000,0.0000,1.44680,0.20487,-2.78452,1.00881,1.57079,0.00002,-0.14512,-0.38002,0.03925,,,,,,,,,,,,,,,,,,,,,,,,,,0,0,0,0,0
3.6229,1783190547.8418,1,1,3.0000,0.0000,1.44680,0.20467,-2.78457,1.00906,1.57079,0.00002,-0.14512,-0.38002,0.03919,,,,,,,,,,,,,,,,,,,,,,,,,,0,0,0,0,0
3.6322,1783190547.8511,1,1,3.0000,0.0000,1.44680,0.20460,-2.78458,1.00915,1.57079,0.00002,-0.14512,-0.38002,0.03918,,,,,,,,,,,,,,,,,,,,,,,,,,0,0,0,0,0
3.6407,1783190547.8596,1,1,3.0000,0.0000,1.44680,0.20455,-2.78459,1.00921,1.57079,0.00002,-0.14512,-0.38002,0.03917,,,,,,,,,,,,,,,,,,,,,,,,,,0,0,0,0,0
3.6529,1783190547.8718,1,1,3.0000,0.0000,1.44680,0.20437,-2.78464,1.00943,1.57079,0.00002,-0.14512,-0.38002,0.03912,,,,,,,,,,,,,,,,,,,,,,,,,,0,0,0,0,0
3.6533,1783190547.8722,1,1,3.0000,0.0000,1.44680,0.20437,-2.78464,1.00943,1.57079,0.00002,-0.14512,-0.38002,0.03912,,,,,,,,,,,,,,,,,,,,,,,,,,0,0,0,0,0
3.6670,1783190547.8859,1,1,3.0000,0.0000,1.44680,0.20422,-2.78467,1.00962,1.57079,0.00002,-0.14512,-0.38002,0.03908,,,,,,,,,,,,,,,,,,,,,,,,,,0,0,0,0,0
3.6744,1783190547.8933,1,1,3.0000,0.0000,1.44680,0.20415,-2.78469,1.00970,1.57079,0.00002,-0.14512,-0.38002,0.03907,,,,,,,,,,,,,,,,,,,,,,,,,,0,0,0,0,0
3.6748,1783190547.8937,1,1,3.0000,0.0000,1.44680,0.20415,-2.78469,1.00970,1.57079,0.00002,-0.14512,-0.38002,0.03907,,,,,,,,,,,,,,,,,,,,,,,,,,0,0,0,0,0
3.6859,1783190547.9048,1,1,3.0000,0.0000,1.44680,0.20399,-2.78473,1.00991,1.57079,0.00002,-0.14512,-0.38002,0.03902,,,,,,,,,,,,,,,,,,,,,,,,,,0,0,0,0,0
3.6948,1783190547.9138,1,1,3.0000,0.0000,1.44680,0.20397,-2.78473,1.00992,1.57079,0.00002,-0.14512,-0.38002,0.03902,,,,,,,,,,,,,,,,,,,,,,,,,,0,0,0,0,0
3.7144,1783190547.9334,1,1,3.0000,0.0000,1.44680,0.20368,-2.78480,1.01029,1.57079,0.00002,-0.14512,-0.38002,0.03895,,,,,,,,,,,,,,,,,,,,,,,,,,0,0,0,0,0
3.7149,1783190547.9338,1,1,3.0000,0.0000,1.44680,0.20368,-2.78480,1.01029,1.57079,0.00002,-0.14512,-0.38002,0.03895,,,,,,,,,,,,,,,,,,,,,,,,,,0,0,0,0,0
3.7153,1783190547.9342,1,1,3.0000,0.0000,1.44680,0.20368,-2.78480,1.01029,1.57079,0.00002,-0.14512,-0.38002,0.03895,,,,,,,,,,,,,,,,,,,,,,,,,,0,0,0,0,0
3.7157,1783190547.9346,1,1,3.0000,0.0000,1.44680,0.20368,-2.78480,1.01029,1.57079,0.00002,-0.14512,-0.38002,0.03895,,,,,,,,,,,,,,,,,,,,,,,,,,0,0,0,0,0
3.7233,1783190547.9422,1,1,3.0000,0.0000,1.44680,0.20366,-2.78481,1.01031,1.57079,0.00002,-0.14512,-0.38002,0.03894,,,,,,,,,,,,,,,,,,,,,,,,,,0,0,0,0,0
3.7237,1783190547.9426,1,1,3.0000,0.0000,1.44680,0.20366,-2.78481,1.01031,1.57079,0.00002,-0.14512,-0.38002,0.03894,,,,,,,,,,,,,,,,,,,,,,,,,,0,0,0,0,0
3.7349,1783190547.9538,1,1,3.0000,0.0000,1.44680,0.20352,-2.78484,1.01049,1.57079,0.00002,-0.14512,-0.38002,0.03891,,,,,,,,,,,,,,,,,,,,,,,,,,0,0,0,0,0
3.7424,1783190547.9613,1,1,3.0000,0.0000,1.44680,0.20338,-2.78487,1.01066,1.57079,0.00002,-0.14512,-0.38002,0.03887,,,,,,,,,,,,,,,,,,,,,,,,,,0,0,0,0,0
3.7551,1783190547.9740,1,1,3.0000,0.0000,1.44680,0.20329,-2.78489,1.01076,1.57079,0.00002,-0.14512,-0.38002,0.03885,,,,,,,,,,,,,,,,,,,,,,,,,,0,0,0,0,0
3.7661,1783190547.9850,1,1,3.0000,0.0000,1.44680,0.20315,-2.78493,1.01095,1.57079,0.00002,-0.14512,-0.38002,0.03881,,,,,,,,,,,,,,,,,,,,,,,,,,0,0,0,0,0
3.7741,1783190547.9930,1,1,3.0000,0.0000,1.44680,0.20300,-2.78496,1.01112,1.57079,0.00002,-0.14512,-0.38001,0.03878,,,,,,,,,,,,,,,,,,,,,,,,,,0,0,0,0,0
3.7840,1783190548.0029,1,1,3.0000,0.0000,1.44680,0.20293,-2.78498,1.01121,1.57079,0.00002,-0.14512,-0.38001,0.03876,,,,,,,,,,,,,,,,,,,,,,,,,,0,0,0,0,0
3.7939,1783190548.0128,1,1,3.0000,0.0000,1.44680,0.20286,-2.78499,1.01130,1.57079,0.00002,-0.14512,-0.38001,0.03874,,,,,,,,,,,,,,,,,,,,,,,,,,0,0,0,0,0
3.8110,1783190548.0299,1,1,3.0000,0.0000,1.44680,0.20269,-2.78503,1.01150,1.57079,0.00002,-0.14512,-0.38001,0.03870,,,,,,,,,,,,,,,,,,,,,,,,,,0,0,0,0,0
3.8165,1783190548.0354,1,1,3.0000,0.0000,1.44680,0.20268,-2.78504,1.01152,1.57079,0.00002,-0.14512,-0.38001,0.03870,,,,,,,,,,,,,,,,,,,,,,,,,,0,0,0,0,0
3.8233,1783190548.0422,1,1,3.0000,0.0000,1.44680,0.20259,-2.78506,1.01163,1.57079,0.00002,-0.14512,-0.38001,0.03867,,,,,,,,,,,,,,,,,,,,,,,,,,0,0,0,0,0
3.8237,1783190548.0426,1,1,3.0000,0.0000,1.44680,0.20259,-2.78506,1.01163,1.57079,0.00002,-0.14512,-0.38001,0.03867,,,,,,,,,,,,,,,,,,,,,,,,,,0,0,0,0,0
3.8368,1783190548.0558,1,1,3.0000,0.0000,1.44680,0.20238,-2.78511,1.01189,1.57079,0.00002,-0.14512,-0.38001,0.03862,,,,,,,,,,,,,,,,,,,,,,,,,,0,0,0,0,0
3.8431,1783190548.0620,1,1,3.0000,0.0000,1.44680,0.20231,-2.78512,1.01198,1.57079,0.00002,-0.14512,-0.38001,0.03860,,,,,,,,,,,,,,,,,,,,,,,,,,0,0,0,0,0
3.8433,1783190548.0623,1,1,3.0000,0.0000,1.44680,0.20231,-2.78512,1.01198,1.57079,0.00002,-0.14512,-0.38001,0.03860,,,,,,,,,,,,,,,,,,,,,,,,,,0,0,0,0,0
3.8561,1783190548.0750,1,1,3.0000,0.0000,1.44680,0.20224,-2.78514,1.01207,1.57079,0.00002,-0.14512,-0.38001,0.03859,,,,,,,,,,,,,,,,,,,,,,,,,,0,0,0,0,0
3.8682,1783190548.0872,1,1,3.0000,0.0000,1.44680,0.20207,-2.78518,1.01227,1.57079,0.00002,-0.14512,-0.38001,0.03854,,,,,,,,,,,,,,,,,,,,,,,,,,0,0,0,0,0
3.8733,1783190548.0922,1,1,3.0000,0.0000,1.44680,0.20207,-2.78518,1.01227,1.57079,0.00002,-0.14512,-0.38001,0.03854,,,,,,,,,,,,,,,,,,,,,,,,,,0,0,0,0,0
3.8839,1783190548.1028,1,1,3.0000,0.0000,1.44680,0.20197,-2.78520,1.01239,1.57079,0.00002,-0.14512,-0.38001,0.03852,,,,,,,,,,,,,,,,,,,,,,,,,,0,0,0,0,0
3.8842,1783190548.1032,1,1,3.0000,0.0000,1.44680,0.20197,-2.78520,1.01239,1.57079,0.00002,-0.14512,-0.38001,0.03852,,,,,,,,,,,,,,,,,,,,,,,,,,0,0,0,0,0
3.8944,1783190548.1133,1,1,3.0000,0.0000,1.44680,0.20176,-2.78525,1.01266,1.57079,0.00002,-0.14512,-0.38001,0.03847,,,,,,,,,,,,,,,,,,,,,,,,,,0,0,0,0,0
3.9145,1783190548.1334,1,1,3.0000,0.0000,1.44680,0.20162,-2.78529,1.01283,1.57079,0.00002,-0.14512,-0.38001,0.03843,,,,,,,,,,,,,,,,,,,,,,,,,,0,0,0,0,0
3.9149,1783190548.1338,1,1,3.0000,0.0000,1.44680,0.20162,-2.78529,1.01283,1.57079,0.00002,-0.14512,-0.38001,0.03843,,,,,,,,,,,,,,,,,,,,,,,,,,0,0,0,0,0
3.9151,1783190548.1341,1,1,3.0000,0.0000,1.44680,0.20162,-2.78529,1.01283,1.57079,0.00002,-0.14512,-0.38001,0.03843,,,,,,,,,,,,,,,,,,,,,,,,,,0,0,0,0,0
3.9255,1783190548.1444,1,1,3.0000,0.0000,1.44680,0.20151,-2.78531,1.01296,1.57079,0.00003,-0.14512,-0.38001,0.03840,,,,,,,,,,,,,,,,,,,,,,,,,,0,0,0,0,0
3.9356,1783190548.1545,1,1,3.0000,0.0000,1.44680,0.20144,-2.78533,1.01305,1.57079,0.00003,-0.14512,-0.38001,0.03839,,,,,,,,,,,,,,,,,,,,,,,,,,0,0,0,0,0
3.9427,1783190548.1616,1,1,3.0000,0.0000,1.44680,0.20135,-2.78535,1.01316,1.57079,0.00003,-0.14512,-0.38001,0.03836,,,,,,,,,,,,,,,,,,,,,,,,,,0,0,0,0,0
3.9531,1783190548.1720,1,1,3.0000,0.0000,1.44680,0.20122,-2.78538,1.01333,1.57079,0.00003,-0.14512,-0.38001,0.03833,,,,,,,,,,,,,,,,,,,,,,,,,,0,0,0,0,0
3.9535,1783190548.1724,1,1,3.0000,0.0000,1.44680,0.20122,-2.78538,1.01333,1.57079,0.00003,-0.14512,-0.38001,0.03833,,,,,,,,,,,,,,,,,,,,,,,,,,0,0,0,0,0
3.9678,1783190548.1867,1,1,3.0000,0.0000,1.44680,0.20106,-2.78542,1.01352,1.57079,0.00003,-0.14512,-0.38001,0.03829,,,,,,,,,,,,,,,,,,,,,,,,,,0,0,0,0,0
3.9742,1783190548.1931,1,1,3.0000,0.0000,1.44680,0.20100,-2.78543,1.01360,1.57079,0.00003,-0.14512,-0.38001,0.03828,,,,,,,,,,,,,,,,,,,,,,,,,,0,0,0,0,0
3.9827,1783190548.2016,1,1,3.0000,0.0000,1.44680,0.20089,-2.78546,1.01373,1.57079,0.00003,-0.14512,-0.38001,0.03825,,,,,,,,,,,,,,,,,,,,,,,,,,0,0,0,0,0
3.9942,1783190548.2132,1,1,3.0000,0.0000,1.44680,0.20082,-2.78547,1.01382,1.57079,0.00003,-0.14512,-0.38001,0.03823,,,,,,,,,,,,,,,,,,,,,,,,,,0,0,0,0,0
3.9946,1783190548.2135,1,1,3.0000,0.0000,1.44680,0.20082,-2.78547,1.01382,1.57079,0.00003,-0.14512,-0.38001,0.03823,,,,,,,,,,,,,,,,,,,,,,,,,,0,0,0,0,0
4.0050,1783190548.2239,1,1,3.0000,0.0000,1.44680,0.20073,-2.78550,1.01393,1.57079,0.00003,-0.14512,-0.38001,0.03821,,,,,,,,,,,,,,,,,,,,,,,,,,0,0,0,0,0
4.0284,1783190548.2473,1,1,3.0000,0.0000,1.44680,0.20044,-2.78556,1.01429,1.57079,0.00003,-0.14512,-0.38001,0.03814,,,,,,,,,,,,,,,,,,,,,,,,,,0,0,0,0,0
4.0324,1783190548.2513,1,1,3.0000,0.0000,1.44680,0.20042,-2.78557,1.01432,1.57079,0.00003,-0.14512,-0.38001,0.03813,,,,,,,,,,,,,,,,,,,,,,,,,,0,0,0,0,0
4.0327,1783190548.2516,1,1,3.0000,0.0000,1.44680,0.20042,-2.78557,1.01432,1.57079,0.00003,-0.14512,-0.38001,0.03813,,,,,,,,,,,,,,,,,,,,,,,,,,0,0,0,0,0
4.0349,1783190548.2539,1,1,3.0000,0.0000,1.44680,0.20038,-2.78558,1.01436,1.57079,0.00003,-0.14512,-0.38001,0.03812,,,,,,,,,,,,,,,,,,,,,,,,,,0,0,0,0,0
4.0352,1783190548.2541,1,1,3.0000,0.0000,1.44680,0.20038,-2.78558,1.01436,1.57079,0.00003,-0.14512,-0.38001,0.03812,,,,,,,,,,,,,,,,,,,,,,,,,,0,0,0,0,0
4.0425,1783190548.2614,1,1,3.0000,0.0000,1.44680,0.20027,-2.78560,1.01449,1.57079,0.00003,-0.14512,-0.38001,0.03809,,,,,,,,,,,,,,,,,,,,,,,,,,0,0,0,0,0
4.0641,1783190548.2831,1,1,3.0000,0.0000,1.44680,0.20011,-2.78564,1.01469,1.57079,0.00003,-0.14512,-0.38001,0.03805,,,,,,,,,,,,,,,,,,,,,,,,,,0,0,0,0,0
4.0653,1783190548.2842,1,1,3.0000,0.0000,1.44680,0.20011,-2.78564,1.01469,1.57079,0.00003,-0.14512,-0.38001,0.03805,,,,,,,,,,,,,,,,,,,,,,,,,,0,0,0,0,0
4.0729,1783190548.2918,1,1,3.0000,0.0000,1.44680,0.19997,-2.78567,1.01486,1.57079,0.00003,-0.14512,-0.38001,0.03802,,,,,,,,,,,,,,,,,,,,,,,,,,0,0,0,0,0
4.0733,1783190548.2922,1,1,3.0000,0.0000,1.44680,0.19997,-2.78567,1.01486,1.57079,0.00003,-0.14512,-0.38001,0.03802,,,,,,,,,,,,,,,,,,,,,,,,,,0,0,0,0,0
4.0826,1783190548.3015,1,1,3.0000,0.0000,1.44680,0.19983,-2.78571,1.01504,1.57079,0.00003,-0.14512,-0.38001,0.03798,,,,,,,,,,,,,,,,,,,,,,,,,,0,0,0,0,0
4.0830,1783190548.3019,1,1,3.0000,0.0000,1.44680,0.19983,-2.78571,1.01504,1.57079,0.00003,-0.14512,-0.38001,0.03798,,,,,,,,,,,,,,,,,,,,,,,,,,0,0,0,0,0
4.0964,1783190548.3153,1,1,3.0000,0.0000,1.44680,0.19973,-2.78573,1.01516,1.57079,0.00003,-0.14512,-0.38001,0.03796,,,,,,,,,,,,,,,,,,,,,,,,,,0,0,0,0,0
4.1035,1783190548.3224,1,1,3.0000,0.0000,1.44680,0.19960,-2.78576,1.01533,1.57079,0.00003,-0.14512,-0.38001,0.03793,,,,,,,,,,,,,,,,,,,,,,,,,,0,0,0,0,0
4.1039,1783190548.3228,1,1,3.0000,0.0000,1.44680,0.19960,-2.78576,1.01533,1.57079,0.00003,-0.14512,-0.38001,0.03793,,,,,,,,,,,,,,,,,,,,,,,,,,0,0,0,0,0
4.1141,1783190548.3330,1,1,3.0000,0.0000,1.44680,0.19951,-2.78578,1.01543,1.57079,0.00003,-0.14512,-0.38001,0.03790,,,,,,,,,,,,,,,,,,,,,,,,,,0,0,0,0,0
4.1144,1783190548.3333,1,1,3.0000,0.0000,1.44680,0.19951,-2.78578,1.01543,1.57079,0.00003,-0.14512,-0.38001,0.03790,,,,,,,,,,,,,,,,,,,,,,,,,,0,0,0,0,0
4.1236,1783190548.3426,1,1,3.0000,0.0000,1.44680,0.19943,-2.78580,1.01554,1.57079,0.00003,-0.14512,-0.38001,0.03788,,,,,,,,,,,,,,,,,,,,,,,,,,0,0,0,0,0
4.1343,1783190548.3532,1,1,3.0000,0.0000,1.44680,0.19922,-2.78585,1.01579,1.57079,0.00003,-0.14512,-0.38001,0.03783,,,,,,,,,,,,,,,,,,,,,,,,,,0,0,0,0,0
4.1347,1783190548.3536,1,1,3.0000,0.0000,1.44680,0.19922,-2.78585,1.01579,1.57079,0.00003,-0.14512,-0.38001,0.03783,,,,,,,,,,,,,,,,,,,,,,,,,,0,0,0,0,0
4.1473,1783190548.3662,1,1,3.0000,0.0000,1.44680,0.19914,-2.78587,1.01589,1.57079,0.00003,-0.14512,-0.38001,0.03781,,,,,,,,,,,,,,,,,,,,,,,,,,0,0,0,0,0
4.1643,1783190548.3832,1,1,3.0000,0.0000,1.44680,0.19897,-2.78591,1.01610,1.57079,0.00003,-0.14512,-0.38001,0.03777,,,,,,,,,,,,,,,,,,,,,,,,,,0,0,0,0,0
4.1657,1783190548.3847,1,1,3.0000,0.0000,1.44680,0.19897,-2.78591,1.01610,1.57079,0.00003,-0.14512,-0.38001,0.03777,,,,,,,,,,,,,,,,,,,,,,,,,,0,0,0,0,0
4.1664,1783190548.3853,1,1,3.0000,0.0000,1.44680,0.19891,-2.78592,1.01617,1.57079,0.00003,-0.14512,-0.38001,0.03776,,,,,,,,,,,,,,,,,,,,,,,,,,0,0,0,0,0
4.1788,1783190548.3977,1,1,3.0000,0.0000,1.44680,0.19886,-2.78593,1.01623,1.57079,0.00003,-0.14512,-0.38001,0.03774,,,,,,,,,,,,,,,,,,,,,,,,,,0,0,0,0,0
4.1829,1783190548.4018,1,1,3.0000,0.0000,1.44680,0.19881,-2.78595,1.01630,1.57079,0.00003,-0.14512,-0.38001,0.03773,,,,,,,,,,,,,,,,,,,,,,,,,,0,0,0,0,0
4.1940,1783190548.4129,1,1,3.0000,0.0000,1.44680,0.19860,-2.78600,1.01656,1.57079,0.00003,-0.14512,-0.38001,0.03768,,,,,,,,,,,,,,,,,,,,,,,,,,0,0,0,0,0
4.2027,1783190548.4216,1,1,3.0000,0.0000,1.44680,0.19852,-2.78601,1.01665,1.57079,0.00003,-0.14512,-0.38001,0.03766,,,,,,,,,,,,,,,,,,,,,,,,,,0,0,0,0,0
4.2281,1783190548.4470,1,1,3.0000,0.0000,1.44680,0.19822,-2.78608,1.01703,1.57079,0.00003,-0.14512,-0.38001,0.03758,,,,,,,,,,,,,,,,,,,,,,,,,,0,0,0,0,0
4.2284,1783190548.4474,1,1,3.0000,0.0000,1.44680,0.19822,-2.78608,1.01703,1.57079,0.00003,-0.14512,-0.38001,0.03758,,,,,,,,,,,,,,,,,,,,,,,,,,0,0,0,0,0
4.2352,1783190548.4541,1,1,3.0000,0.0000,1.44680,0.19821,-2.78609,1.01704,1.57079,0.00003,-0.14512,-0.38001,0.03758,,,,,,,,,,,,,,,,,,,,,,,,,,0,0,0,0,0
4.2354,1783190548.4543,1,1,3.0000,0.0000,1.44680,0.19821,-2.78609,1.01704,1.57079,0.00003,-0.14512,-0.38001,0.03758,,,,,,,,,,,,,,,,,,,,,,,,,,0,0,0,0,0
4.2424,1783190548.4613,1,1,3.0000,0.0000,1.44680,0.19812,-2.78611,1.01714,1.57079,0.00003,-0.14512,-0.38001,0.03756,,,,,,,,,,,,,,,,,,,,,,,,,,0,0,0,0,0
4.2427,1783190548.4617,1,1,3.0000,0.0000,1.44680,0.19812,-2.78611,1.01714,1.57079,0.00003,-0.14512,-0.38001,0.03756,,,,,,,,,,,,,,,,,,,,,,,,,,0,0,0,0,0
4.2525,1783190548.4714,1,1,3.0000,0.0000,1.44680,0.19799,-2.78614,1.01731,1.57079,0.00003,-0.14512,-0.38001,0.03753,,,,,,,,,,,,,,,,,,,,,,,,,,0,0,0,0,0
4.2651,1783190548.4840,1,1,3.0000,0.0000,1.44680,0.19785,-2.78617,1.01749,1.57079,0.00003,-0.14512,-0.38001,0.03749,,,,,,,,,,,,,,,,,,,,,,,,,,0,0,0,0,0
4.2804,1783190548.4993,1,1,3.0000,0.0000,1.44680,0.19768,-2.78621,1.01769,1.57079,0.00003,-0.14512,-0.38001,0.03745,,,,,,,,,,,,,,,,,,,,,,,,,,0,0,0,0,0
4.2843,1783190548.5032,1,1,3.0000,0.0000,1.44680,0.19761,-2.78622,1.01777,1.57079,0.00003,-0.14512,-0.38001,0.03743,,,,,,,,,,,,,,,,,,,,,,,,,,0,0,0,0,0
4.2846,1783190548.5035,1,1,3.0000,0.0000,1.44680,0.19761,-2.78622,1.01777,1.57079,0.00003,-0.14512,-0.38001,0.03743,,,,,,,,,,,,,,,,,,,,,,,,,,0,0,0,0,0
4.2928,1783190548.5117,1,1,3.0000,0.0000,1.44680,0.19747,-2.78626,1.01795,1.57079,0.00003,-0.14512,-0.38001,0.03740,,,,,,,,,,,,,,,,,,,,,,,,,,0,0,0,0,0
4.2932,1783190548.5121,1,1,3.0000,0.0000,1.44680,0.19747,-2.78626,1.01795,1.57079,0.00003,-0.14512,-0.38001,0.03740,,,,,,,,,,,,,,,,,,,,,,,,,,0,0,0,0,0
4.3066,1783190548.5255,1,1,3.0000,0.0000,1.44680,0.19740,-2.78627,1.01804,1.57079,0.00003,-0.14512,-0.38001,0.03738,,,,,,,,,,,,,,,,,,,,,,,,,,0,0,0,0,0
4.3210,1783190548.5399,1,1,3.0000,0.0000,1.44680,0.19723,-2.78631,1.01825,1.57079,0.00003,-0.14512,-0.38001,0.03734,,,,,,,,,,,,,,,,,,,,,,,,,,0,0,0,0,0
4.3213,1783190548.5402,1,1,3.0000,0.0000,1.44680,0.19723,-2.78631,1.01825,1.57079,0.00003,-0.14512,-0.38001,0.03734,,,,,,,,,,,,,,,,,,,,,,,,,,0,0,0,0,0
4.3255,1783190548.5444,1,1,3.0000,0.0000,1.44680,0.19723,-2.78631,1.01825,1.57079,0.00003,-0.14512,-0.38001,0.03734,,,,,,,,,,,,,,,,,,,,,,,,,,0,0,0,0,0
4.3261,1783190548.5450,1,1,3.0000,0.0000,1.44680,0.19722,-2.78632,1.01826,1.57079,0.00003,-0.14512,-0.38001,0.03733,,,,,,,,,,,,,,,,,,,,,,,,,,0,0,0,0,0
4.3326,1783190548.5516,1,1,3.0000,0.0000,1.44680,0.19718,-2.78632,1.01831,1.57079,0.00003,-0.14512,-0.38001,0.03733,,,,,,,,,,,,,,,,,,,,,,,,,,0,0,0,0,0
4.3329,1783190548.5519,1,1,3.0000,0.0000,1.44680,0.19718,-2.78632,1.01831,1.57079,0.00003,-0.14512,-0.38001,0.03733,,,,,,,,,,,,,,,,,,,,,,,,,,0,0,0,0,0
4.3440,1783190548.5629,1,1,3.0000,0.0000,1.44680,0.19699,-2.78637,1.01854,1.57079,0.00003,-0.14512,-0.38001,0.03728,,,,,,,,,,,,,,,,,,,,,,,,,,0,0,0,0,0
4.3443,1783190548.5632,1,1,3.0000,0.0000,1.44680,0.19699,-2.78637,1.01854,1.57079,0.00003,-0.14512,-0.38001,0.03728,,,,,,,,,,,,,,,,,,,,,,,,,,0,0,0,0,0
4.3543,1783190548.5732,1,1,3.0000,0.0000,1.44680,0.19684,-2.78640,1.01872,1.57079,0.00003,-0.14512,-0.38001,0.03724,,,,,,,,,,,,,,,,,,,,,,,,,,0,0,0,0,0
4.3547,1783190548.5736,1,1,3.0000,0.0000,1.44680,0.19684,-2.78640,1.01872,1.57079,0.00003,-0.14512,-0.38001,0.03724,,,,,,,,,,,,,,,,,,,,,,,,,,0,0,0,0,0
4.3671,1783190548.5861,1,1,3.0000,0.0000,1.44680,0.19677,-2.78642,1.01881,1.57079,0.00003,-0.14512,-0.38001,0.03722,,,,,,,,,,,,,,,,,,,,,,,,,,0,0,0,0,0
4.3753,1783190548.5942,1,1,3.0000,0.0000,1.44680,0.19667,-2.78644,1.01894,1.57079,0.00003,-0.14512,-0.38001,0.03720,,,,,,,,,,,,,,,,,,,,,,,,,,0,0,0,0,0
4.3830,1783190548.6019,1,1,3.0000,0.0000,1.44680,0.19660,-2.78646,1.01901,1.57079,0.00003,-0.14512,-0.38001,0.03718,,,,,,,,,,,,,,,,,,,,,,,,,,0,0,0,0,0
4.3986,1783190548.6175,1,1,3.0000,0.0000,1.44679,0.19644,-2.78650,1.01922,1.57079,0.00003,-0.14511,-0.38001,0.03714,,,,,,,,,,,,,,,,,,,,,,,,,,0,0,0,0,0
4.4044,1783190548.6233,1,1,3.0000,0.0000,1.44679,0.19637,-2.78651,1.01931,1.57079,0.00003,-0.14511,-0.38001,0.03712,,,,,,,,,,,,,,,,,,,,,,,,,,0,0,0,0,0
4.4048,1783190548.6237,1,1,3.0000,0.0000,1.44679,0.19637,-2.78651,1.01931,1.57079,0.00003,-0.14511,-0.38001,0.03712,,,,,,,,,,,,,,,,,,,,,,,,,,0,0,0,0,0
4.4129,1783190548.6318,1,1,3.0000,0.0000,1.44679,0.19622,-2.78655,1.01949,1.57079,0.00003,-0.14511,-0.38001,0.03709,,,,,,,,,,,,,,,,,,,,,,,,,,0,0,0,0,0
4.4282,1783190548.6471,1,1,3.0000,0.0000,1.44679,0.19615,-2.78656,1.01958,1.57079,0.00003,-0.14511,-0.38001,0.03707,,,,,,,,,,,,,,,,,,,,,,,,,,0,0,0,0,0
4.4382,1783190548.6571,1,1,3.0000,0.0000,1.44679,0.19598,-2.78660,1.01978,1.57079,0.00003,-0.14511,-0.38001,0.03703,,,,,,,,,,,,,,,,,,,,,,,,,,0,0,0,0,0
4.4386,1783190548.6575,1,1,3.0000,0.0000,1.44679,0.19598,-2.78660,1.01978,1.57079,0.00003,-0.14511,-0.38001,0.03703,,,,,,,,,,,,,,,,,,,,,,,,,,0,0,0,0,0
4.4466,1783190548.6655,1,1,3.0000,0.0000,1.44679,0.19597,-2.78661,1.01980,1.57079,0.00003,-0.14511,-0.38001,0.03702,,,,,,,,,,,,,,,,,,,,,,,,,,0,0,0,0,0
4.4561,1783190548.6751,1,1,3.0000,0.0000,1.44679,0.19588,-2.78663,1.01991,1.57079,0.00003,-0.14511,-0.38001,0.03700,,,,,,,,,,,,,,,,,,,,,,,,,,0,0,0,0,0
4.4763,1783190548.6952,1,1,3.0000,0.0000,1.44679,0.19559,-2.78669,1.02026,1.57079,0.00003,-0.14511,-0.38001,0.03693,,,,,,,,,,,,,,,,,,,,,,,,,,0,0,0,0,0
4.4766,1783190548.6955,1,1,3.0000,0.0000,1.44679,0.19559,-2.78669,1.02026,1.57079,0.00003,-0.14511,-0.38001,0.03693,,,,,,,,,,,,,,,,,,,,,,,,,,0,0,0,0,0
4.4883,1783190548.7072,1,1,3.0000,0.0000,1.44679,0.19552,-2.78671,1.02035,1.57079,0.00003,-0.14511,-0.38001,0.03691,,,,,,,,,,,,,,,,,,,,,,,,,,0,0,0,0,0
4.4886,1783190548.7076,1,1,3.0000,0.0000,1.44679,0.19552,-2.78671,1.02035,1.57079,0.00003,-0.14511,-0.38001,0.03691,,,,,,,,,,,,,,,,,,,,,,,,,,0,0,0,0,0
4.4977,1783190548.7166,1,1,3.0000,0.0000,1.44679,0.19542,-2.78673,1.02048,1.57079,0.00003,-0.14511,-0.38001,0.03689,,,,,,,,,,,,,,,,,,,,,,,,,,0,0,0,0,0
4.4981,1783190548.7170,1,1,3.0000,0.0000,1.44679,0.19535,-2.78675,1.02055,1.57079,0.00003,-0.14511,-0.38001,0.03687,,,,,,,,,,,,,,,,,,,,,,,,,,0,0,0,0,0
4.5070,1783190548.7259,1,1,3.0000,0.0000,1.44679,0.19534,-2.78675,1.02057,1.57079,0.00003,-0.14511,-0.38001,0.03687,,,,,,,,,,,,,,,,,,,,,,,,,,0,0,0,0,0
4.5130,1783190548.7320,1,1,3.0000,0.0000,1.44679,0.19531,-2.78676,1.02061,1.57079,0.00003,-0.14511,-0.38001,0.03686,,,,,,,,,,,,,,,,,,,,,,,,,,0,0,0,0,0
4.5134,1783190548.7323,1,1,3.0000,0.0000,1.44679,0.19531,-2.78676,1.02061,1.57079,0.00003,-0.14511,-0.38001,0.03686,,,,,,,,,,,,,,,,,,,,,,,,,,0,0,0,0,0
4.5270,1783190548.7459,1,1,3.0000,0.0000,1.44679,0.19504,-2.78682,1.02094,1.57079,0.00003,-0.14511,-0.38001,0.03679,,,,,,,,,,,,,,,,,,,,,,,,,,0,0,0,0,0
4.5272,1783190548.7462,1,1,3.0000,0.0000,1.44679,0.19504,-2.78682,1.02094,1.57079,0.00003,-0.14511,-0.38001,0.03679,,,,,,,,,,,,,,,,,,,,,,,,,,0,0,0,0,0
4.5334,1783190548.7523,1,1,3.0000,0.0000,1.44679,0.19497,-2.78684,1.02103,1.57079,0.00003,-0.14511,-0.38001,0.03678,,,,,,,,,,,,,,,,,,,,,,,,,,0,0,0,0,0
4.5341,1783190548.7530,1,1,3.0000,0.0000,1.44679,0.19497,-2.78684,1.02103,1.57079,0.00003,-0.14511,-0.38001,0.03678,,,,,,,,,,,,,,,,,,,,,,,,,,0,0,0,0,0
4.5444,1783190548.7633,1,1,3.0000,0.0000,1.44679,0.19493,-2.78684,1.02107,1.57079,0.00003,-0.14511,-0.38001,0.03677,,,,,,,,,,,,,,,,,,,,,,,,,,0,0,0,0,0
4.5543,1783190548.7732,1,1,3.0000,0.0000,1.44679,0.19479,-2.78688,1.02125,1.57079,0.00003,-0.14511,-0.38001,0.03673,,,,,,,,,,,,,,,,,,,,,,,,,,0,0,0,0,0
4.5644,1783190548.7833,1,1,3.0000,0.0000,1.44679,0.19473,-2.78689,1.02132,1.57079,0.00003,-0.14511,-0.38001,0.03672,,,,,,,,,,,,,,,,,,,,,,,,,,0,0,0,0,0
4.5649,1783190548.7838,1,1,3.0000,0.0000,1.44679,0.19473,-2.78689,1.02132,1.57079,0.00003,-0.14511,-0.38001,0.03672,,,,,,,,,,,,,,,,,,,,,,,,,,0,0,0,0,0
4.5753,1783190548.7942,1,1,3.0000,0.0000,1.44679,0.19463,-2.78691,1.02145,1.57079,0.00003,-0.14511,-0.38001,0.03669,,,,,,,,,,,,,,,,,,,,,,,,,,0,0,0,0,0
4.5875,1783190548.8064,1,1,3.0000,0.0000,1.44679,0.19441,-2.78696,1.02171,1.57079,0.00003,-0.14511,-0.38001,0.03664,,,,,,,,,,,,,,,,,,,,,,,,,,0,0,0,0,0
4.5879,1783190548.8068,1,1,3.0000,0.0000,1.44679,0.19441,-2.78696,1.02171,1.57079,0.00003,-0.14511,-0.38001,0.03664,,,,,,,,,,,,,,,,,,,,,,,,,,0,0,0,0,0
4.5956,1783190548.8145,1,1,3.0000,0.0000,1.44679,0.19434,-2.78698,1.02180,1.57079,0.00003,-0.14511,-0.38001,0.03662,,,,,,,,,,,,,,,,,,,,,,,,,,0,0,0,0,0
4.5960,1783190548.8149,1,1,3.0000,0.0000,1.44679,0.19434,-2.78698,1.02180,1.57079,0.00003,-0.14511,-0.38001,0.03662,,,,,,,,,,,,,,,,,,,,,,,,,,0,0,0,0,0
4.6064,1783190548.8253,1,1,3.0000,0.0000,1.44679,0.19427,-2.78700,1.02189,1.57079,0.00003,-0.14511,-0.38001,0.03660,,,,,,,,,,,,,,,,,,,,,,,,,,0,0,0,0,0
4.6068,1783190548.8257,1,1,3.0000,0.0000,1.44679,0.19427,-2.78700,1.02189,1.57079,0.00003,-0.14511,-0.38001,0.03660,,,,,,,,,,,,,,,,,,,,,,,,,,0,0,0,0,0
4.6161,1783190548.8350,1,1,3.0000,0.0000,1.44679,0.19416,-2.78702,1.02202,1.57079,0.00003,-0.14511,-0.38001,0.03658,,,,,,,,,,,,,,,,,,,,,,,,,,0,0,0,0,0
4.6299,1783190548.8489,1,1,3.0000,0.0000,1.44679,0.19409,-2.78704,1.02211,1.57079,0.00003,-0.14511,-0.38001,0.03656,,,,,,,,,,,,,,,,,,,,,,,,,,0,0,0,0,0
4.6307,1783190548.8496,1,1,3.0000,0.0000,1.44679,0.19405,-2.78705,1.02216,1.57079,0.00003,-0.14511,-0.38001,0.03655,,,,,,,,,,,,,,,,,,,,,,,,,,0,0,0,0,0
4.6382,1783190548.8571,1,1,3.0000,0.0000,1.44679,0.19393,-2.78707,1.02230,1.57079,0.00003,-0.14511,-0.38001,0.03652,,,,,,,,,,,,,,,,,,,,,,,,,,0,0,0,0,0
4.6385,1783190548.8574,1,1,3.0000,0.0000,1.44679,0.19393,-2.78707,1.02230,1.57079,0.00003,-0.14511,-0.38001,0.03652,,,,,,,,,,,,,,,,,,,,,,,,,,0,0,0,0,0
4.6388,1783190548.8578,1,1,3.0000,0.0000,1.44679,0.19393,-2.78707,1.02230,1.57079,0.00003,-0.14511,-0.38001,0.03652,,,,,,,,,,,,,,,,,,,,,,,,,,0,0,0,0,0
4.6481,1783190548.8670,1,1,3.0000,0.0000,1.44679,0.19379,-2.78711,1.02248,1.57079,0.00003,-0.14511,-0.38001,0.03648,,,,,,,,,,,,,,,,,,,,,,,,,,0,0,0,0,0
4.6557,1783190548.8746,1,1,3.0000,0.0000,1.44679,0.19371,-2.78712,1.02257,1.57079,0.00003,-0.14511,-0.38001,0.03647,,,,,,,,,,,,,,,,,,,,,,,,,,0,0,0,0,0
4.6564,1783190548.8754,1,1,3.0000,0.0000,1.44679,0.19371,-2.78712,1.02257,1.57079,0.00003,-0.14511,-0.38001,0.03647,,,,,,,,,,,,,,,,,,,,,,,,,,0,0,0,0,0
4.6662,1783190548.8851,1,1,3.0000,0.0000,1.44679,0.19364,-2.78714,1.02266,1.57079,0.00003,-0.14511,-0.38001,0.03645,,,,,,,,,,,,,,,,,,,,,,,,,,0,0,0,0,0
4.6767,1783190548.8956,1,1,3.0000,0.0000,1.44679,0.19354,-2.78717,1.02279,1.57079,0.00003,-0.14511,-0.38001,0.03642,,,,,,,,,,,,,,,,,,,,,,,,,,0,0,0,0,0
4.6772,1783190548.8961,1,1,3.0000,0.0000,1.44679,0.19354,-2.78717,1.02279,1.57079,0.00003,-0.14511,-0.38001,0.03642,,,,,,,,,,,,,,,,,,,,,,,,,,0,0,0,0,0
4.6873,1783190548.9062,1,1,3.0000,0.0000,1.44679,0.19346,-2.78718,1.02288,1.57079,0.00003,-0.14511,-0.38001,0.03640,,,,,,,,,,,,,,,,,,,,,,,,,,0,0,0,0,0
4.7263,1783190548.9452,1,1,3.0000,0.0000,1.44679,0.19299,-2.78729,1.02346,1.57079,0.00003,-0.14511,-0.38001,0.03629,,,,,,,,,,,,,,,,,,,,,,,,,,0,0,0,0,0
4.7266,1783190548.9455,1,1,3.0000,0.0000,1.44679,0.19299,-2.78729,1.02346,1.57079,0.00003,-0.14511,-0.38001,0.03629,,,,,,,,,,,,,,,,,,,,,,,,,,0,0,0,0,0
4.7389,1783190548.9579,1,1,3.0000,0.0000,1.44679,0.19278,-2.78734,1.02372,1.57079,0.00003,-0.14511,-0.38001,0.03624,,,,,,,,,,,,,,,,,,,,,,,,,,0,0,0,0,0
4.7392,1783190548.9581,1,1,3.0000,0.0000,1.44679,0.19278,-2.78734,1.02372,1.57079,0.00003,-0.14511,-0.38001,0.03624,,,,,,,,,,,,,,,,,,,,,,,,,,0,0,0,0,0
4.7395,1783190548.9585,1,1,3.0000,0.0000,1.44679,0.19278,-2.78734,1.02372,1.57079,0.00003,-0.14511,-0.38001,0.03624,,,,,,,,,,,,,,,,,,,,,,,,,,0,0,0,0,0
4.7399,1783190548.9588,1,1,3.0000,0.0000,1.44679,0.19278,-2.78734,1.02372,1.57079,0.00003,-0.14511,-0.38001,0.03624,,,,,,,,,,,,,,,,,,,,,,,,,,0,0,0,0,0
4.7402,1783190548.9591,1,1,3.0000,0.0000,1.44679,0.19278,-2.78734,1.02372,1.57079,0.00003,-0.14511,-0.38001,0.03624,,,,,,,,,,,,,,,,,,,,,,,,,,0,0,0,0,0
4.7473,1783190548.9663,1,1,3.0000,0.0000,1.44679,0.19277,-2.78734,1.02374,1.57079,0.00003,-0.14511,-0.38001,0.03623,,,,,,,,,,,,,,,,,,,,,,,,,,0,0,0,0,0
4.7584,1783190548.9773,1,1,3.0000,0.0000,1.44679,0.19262,-2.78738,1.02392,1.57079,0.00003,-0.14511,-0.38001,0.03620,,,,,,,,,,,,,,,,,,,,,,,,,,0,0,0,0,0
4.7587,1783190548.9776,1,1,3.0000,0.0000,1.44679,0.19262,-2.78738,1.02392,1.57079,0.00003,-0.14511,-0.38001,0.03620,,,,,,,,,,,,,,,,,,,,,,,,,,0,0,0,0,0
4.7683,1783190548.9872,1,1,3.0000,0.0000,1.44679,0.19247,-2.78741,1.02410,1.57079,0.00003,-0.14511,-0.38001,0.03616,,,,,,,,,,,,,,,,,,,,,,,,,,0,0,0,0,0
4.7782,1783190548.9971,1,1,3.0000,0.0000,1.44679,0.19239,-2.78743,1.02420,1.57079,0.00003,-0.14511,-0.38001,0.03614,,,,,,,,,,,,,,,,,,,,,,,,,,0,0,0,0,0
4.7901,1783190549.0090,1,1,3.0000,0.0000,1.44679,0.19224,-2.78746,1.02438,1.57079,0.00003,-0.14511,-0.38001,0.03610,,,,,,,,,,,,,,,,,,,,,,,,,,0,0,0,0,0
4.7980,1783190549.0169,1,1,3.0000,0.0000,1.44679,0.19209,-2.78750,1.02456,1.57079,0.00003,-0.14511,-0.38001,0.03607,,,,,,,,,,,,,,,,,,,,,,,,,,0,0,0,0,0
4.8101,1783190549.0291,1,1,3.0000,0.0000,1.44679,0.19205,-2.78751,1.02462,1.57079,0.00003,-0.14511,-0.38001,0.03605,,,,,,,,,,,,,,,,,,,,,,,,,,0,0,0,0,0
4.8104,1783190549.0293,1,1,3.0000,0.0000,1.44679,0.19205,-2.78751,1.02462,1.57079,0.00003,-0.14511,-0.38001,0.03605,,,,,,,,,,,,,,,,,,,,,,,,,,0,0,0,0,0
4.8210,1783190549.0399,1,1,3.0000,0.0000,1.44679,0.19193,-2.78753,1.02476,1.57079,0.00003,-0.14511,-0.38001,0.03603,,,,,,,,,,,,,,,,,,,,,,,,,,0,0,0,0,0
4.8308,1783190549.0497,1,1,3.0000,0.0000,1.44679,0.19172,-2.78758,1.02503,1.57079,0.00003,-0.14511,-0.38001,0.03597,,,,,,,,,,,,,,,,,,,,,,,,,,0,0,0,0,0
4.8311,1783190549.0500,1,1,3.0000,0.0000,1.44679,0.19172,-2.78758,1.02503,1.57079,0.00003,-0.14511,-0.38001,0.03597,,,,,,,,,,,,,,,,,,,,,,,,,,0,0,0,0,0
4.8412,1783190549.0601,1,1,3.0000,0.0000,1.44679,0.19170,-2.78758,1.02504,1.57079,0.00003,-0.14511,-0.38001,0.03597,,,,,,,,,,,,,,,,,,,,,,,,,,0,0,0,0,0
4.8502,1783190549.0692,1,1,3.0000,0.0000,1.44679,0.19155,-2.78762,1.02523,1.57079,0.00003,-0.14511,-0.38001,0.03593,,,,,,,,,,,,,,,,,,,,,,,,,,0,0,0,0,0
4.8583,1783190549.0772,1,1,3.0000,0.0000,1.44679,0.19141,-2.78765,1.02540,1.57079,0.00003,-0.14511,-0.38001,0.03590,,,,,,,,,,,,,,,,,,,,,,,,,,0,0,0,0,0
4.8656,1783190549.0845,1,1,3.0000,0.0000,1.44679,0.19141,-2.78765,1.02540,1.57079,0.00003,-0.14511,-0.38001,0.03590,,,,,,,,,,,,,,,,,,,,,,,,,,0,0,0,0,0
4.8661,1783190549.0851,1,1,3.0000,0.0000,1.44679,0.19140,-2.78766,1.02542,1.57079,0.00003,-0.14511,-0.38001,0.03589,,,,,,,,,,,,,,,,,,,,,,,,,,0,0,0,0,0
4.8791,1783190549.0981,1,1,3.0000,0.0000,1.44679,0.19125,-2.78769,1.02560,1.57079,0.00003,-0.14511,-0.38001,0.03586,,,,,,,,,,,,,,,,,,,,,,,,,,0,0,0,0,0
4.8921,1783190549.1111,1,1,3.0000,0.0000,1.44679,0.19103,-2.78774,1.02587,1.57079,0.00003,-0.14511,-0.38001,0.03580,,,,,,,,,,,,,,,,,,,,,,,,,,0,0,0,0,0
4.8981,1783190549.1170,1,1,3.0000,0.0000,1.44679,0.19102,-2.78774,1.02588,1.57079,0.00003,-0.14511,-0.38001,0.03580,,,,,,,,,,,,,,,,,,,,,,,,,,0,0,0,0,0
4.9061,1783190549.1251,1,1,3.0000,0.0000,1.44679,0.19093,-2.78776,1.02599,1.57079,0.00003,-0.14511,-0.38001,0.03578,,,,,,,,,,,,,,,,,,,,,,,,,,0,0,0,0,0
4.9169,1783190549.1359,1,1,3.0000,0.0000,1.44679,0.19080,-2.78779,1.02616,1.57079,0.00003,-0.14511,-0.38001,0.03575,,,,,,,,,,,,,,,,,,,,,,,,,,0,0,0,0,0
4.9408,1783190549.1597,1,1,3.0000,0.0000,1.44679,0.19056,-2.78785,1.02645,1.57079,0.00003,-0.14511,-0.38001,0.03569,,,,,,,,,,,,,,,,,,,,,,,,,,0,0,0,0,0
4.9413,1783190549.1602,1,1,3.0000,0.0000,1.44679,0.19056,-2.78785,1.02645,1.57079,0.00003,-0.14511,-0.38001,0.03569,,,,,,,,,,,,,,,,,,,,,,,,,,0,0,0,0,0
4.9462,1783190549.1651,1,1,3.0000,0.0000,1.44679,0.19042,-2.78788,1.02662,1.57079,0.00003,-0.14511,-0.38001,0.03565,,,,,,,,,,,,,,,,,,,,,,,,,,0,0,0,0,0
4.9632,1783190549.1821,1,1,3.0000,0.0000,1.44679,0.19030,-2.78791,1.02677,1.57079,0.00003,-0.14511,-0.38001,0.03562,,,,,,,,,,,,,,,,,,,,,,,,,,0,0,0,0,0
4.9657,1783190549.1846,1,1,3.0000,0.0000,1.44679,0.19030,-2.78791,1.02677,1.57079,0.00003,-0.14511,-0.38001,0.03562,,,,,,,,,,,,,,,,,,,,,,,,,,0,0,0,0,0
4.9663,1783190549.1852,1,1,3.0000,0.0000,1.44679,0.19025,-2.78792,1.02683,1.57079,0.00003,-0.14511,-0.38001,0.03561,,,,,,,,,,,,,,,,,,,,,,,,,,0,0,0,0,0
4.9825,1783190549.2014,1,1,3.0000,0.0000,1.44679,0.19004,-2.78797,1.02709,1.57079,0.00003,-0.14511,-0.38001,0.03556,,,,,,,,,,,,,,,,,,,,,,,,,,0,0,0,0,0
4.9902,1783190549.2091,1,1,3.0000,0.0000,1.44679,0.18999,-2.78798,1.02715,1.57079,0.00003,-0.14511,-0.38001,0.03555,,,,,,,,,,,,,,,,,,,,,,,,,,0,0,0,0,0
4.9905,1783190549.2095,1,1,3.0000,0.0000,1.44679,0.18999,-2.78798,1.02715,1.57079,0.00003,-0.14511,-0.38001,0.03555,,,,,,,,,,,,,,,,,,,,,,,,,,0,0,0,0,0
4.9971,1783190549.2160,1,1,3.0000,0.0000,1.44679,0.18994,-2.78799,1.02721,1.57079,0.00003,-0.14511,-0.38001,0.03554,,,,,,,,,,,,,,,,,,,,,,,,,,0,0,0,0,0
5.0067,1783190549.2256,1,1,3.0000,0.0000,1.44679,0.18973,-2.78803,1.02747,1.57079,0.00003,-0.14511,-0.38001,0.03548,,,,,,,,,,,,,,,,,,,,,,,,,,0,0,0,0,0
5.0071,1783190549.2260,1,1,3.0000,0.0000,1.44679,0.18973,-2.78803,1.02747,1.57079,0.00003,-0.14511,-0.38001,0.03548,,,,,,,,,,,,,,,,,,,,,,,,,,0,0,0,0,0
5.0191,1783190549.2380,1,1,3.0000,0.0000,1.44679,0.18964,-2.78805,1.02757,1.57079,0.00003,-0.14511,-0.38001,0.03546,,,,,,,,,,,,,,,,,,,,,,,,,,0,0,0,0,0
5.0398,1783190549.2587,1,1,3.0000,0.0000,1.44679,0.18935,-2.78812,1.02793,1.57079,0.00003,-0.14511,-0.38001,0.03539,,,,,,,,,,,,,,,,,,,,,,,,,,0,0,0,0,0
5.0402,1783190549.2591,1,1,3.0000,0.0000,1.44679,0.18935,-2.78812,1.02793,1.57079,0.00003,-0.14511,-0.38001,0.03539,,,,,,,,,,,,,,,,,,,,,,,,,,0,0,0,0,0
5.0477,1783190549.2666,1,1,3.0000,0.0000,1.44679,0.18928,-2.78814,1.02802,1.57079,0.00003,-0.14511,-0.38001,0.03537,,,,,,,,,,,,,,,,,,,,,,,,,,0,0,0,0,0
5.0559,1783190549.2748,1,1,3.0000,0.0000,1.44679,0.18924,-2.78815,1.02806,1.57079,0.00003,-0.14511,-0.38001,0.03536,,,,,,,,,,,,,,,,,,,,,,,,,,0,0,0,0,0
5.0662,1783190549.2852,1,1,3.0000,0.0000,1.44679,0.18910,-2.78818,1.02824,1.57079,0.00003,-0.14511,-0.38001,0.03533,,,,,,,,,,,,,,,,,,,,,,,,,,0,0,0,0,0
5.0891,1783190549.3080,1,1,3.0000,0.0000,1.44679,0.18893,-2.78822,1.02844,1.57079,0.00003,-0.14511,-0.38001,0.03529,,,,,,,,,,,,,,,,,,,,,,,,,,0,0,0,0,0
5.0908,1783190549.3097,1,1,3.0000,0.0000,1.44679,0.18887,-2.78823,1.02853,1.57079,0.00003,-0.14511,-0.38001,0.03527,,,,,,,,,,,,,,,,,,,,,,,,,,0,0,0,0,0
5.0910,1783190549.3099,1,1,3.0000,0.0000,1.44679,0.18887,-2.78823,1.02853,1.57079,0.00003,-0.14511,-0.38001,0.03527,,,,,,,,,,,,,,,,,,,,,,,,,,0,0,0,0,0
5.0971,1783190549.3160,1,1,3.0000,0.0000,1.44679,0.18879,-2.78825,1.02862,1.57079,0.00003,-0.14511,-0.38001,0.03525,,,,,,,,,,,,,,,,,,,,,,,,,,0,0,0,0,0
5.1080,1783190549.3269,1,1,3.0000,0.0000,1.44679,0.18864,-2.78828,1.02880,1.57079,0.00003,-0.14511,-0.38001,0.03522,,,,,,,,,,,,,,,,,,,,,,,,,,0,0,0,0,0
5.1201,1783190549.3391,1,1,3.0000,0.0000,1.44679,0.18857,-2.78830,1.02889,1.57079,0.00003,-0.14511,-0.38001,0.03520,,,,,,,,,,,,,,,,,,,,,,,,,,0,0,0,0,0
5.1262,1783190549.3451,1,1,3.0000,0.0000,1.44679,0.18846,-2.78832,1.02902,1.57079,0.00003,-0.14511,-0.38001,0.03517,,,,,,,,,,,,,,,,,,,,,,,,,,0,0,0,0,0
5.1382,1783190549.3571,1,1,3.0000,0.0000,1.44679,0.18839,-2.78834,1.02911,1.57079,0.00003,-0.14511,-0.38001,0.03515,,,,,,,,,,,,,,,,,,,,,,,,,,0,0,0,0,0
5.1461,1783190549.3650,1,1,3.0000,0.0000,1.44679,0.18830,-2.78836,1.02922,1.57079,0.00003,-0.14511,-0.38001,0.03513,,,,,,,,,,,,,,,,,,,,,,,,,,0,0,0,0,0
5.1598,1783190549.3788,1,1,3.0000,0.0000,1.44679,0.18808,-2.78841,1.02948,1.57079,0.00004,-0.14511,-0.38001,0.03508,,,,,,,,,,,,,,,,,,,,,,,,,,0,0,0,0,0
5.1691,1783190549.3880,1,1,3.0000,0.0000,1.44679,0.18801,-2.78842,1.02957,1.57079,0.00004,-0.14511,-0.38001,0.03506,,,,,,,,,,,,,,,,,,,,,,,,,,0,0,0,0,0
5.1694,1783190549.3883,1,1,3.0000,0.0000,1.44679,0.18801,-2.78842,1.02957,1.57079,0.00004,-0.14511,-0.38001,0.03506,,,,,,,,,,,,,,,,,,,,,,,,,,0,0,0,0,0
5.1797,1783190549.3986,1,1,3.0000,0.0000,1.44679,0.18794,-2.78844,1.02966,1.57079,0.00004,-0.14511,-0.38001,0.03504,,,,,,,,,,,,,,,,,,,,,,,,,,0,0,0,0,0
5.1921,1783190549.4111,1,1,3.0000,0.0000,1.44679,0.18777,-2.78848,1.02987,1.57079,0.00004,-0.14511,-0.38001,0.03500,,,,,,,,,,,,,,,,,,,,,,,,,,0,0,0,0,0
5.1925,1783190549.4114,1,1,3.0000,0.0000,1.44679,0.18777,-2.78848,1.02987,1.57079,0.00004,-0.14511,-0.38001,0.03500,,,,,,,,,,,,,,,,,,,,,,,,,,0,0,0,0,0
5.2016,1783190549.4205,1,1,3.0000,0.0000,1.44679,0.18776,-2.78848,1.02988,1.57079,0.00004,-0.14511,-0.38001,0.03500,,,,,,,,,,,,,,,,,,,,,,,,,,0,0,0,0,0
5.2057,1783190549.4246,1,1,3.0000,0.0000,1.44679,0.18772,-2.78849,1.02993,1.57079,0.00004,-0.14511,-0.38001,0.03499,,,,,,,,,,,,,,,,,,,,,,,,,,0,0,0,0,0
5.2062,1783190549.4251,1,1,3.0000,0.0000,1.44679,0.18767,-2.78850,1.02999,1.57079,0.00004,-0.14511,-0.38001,0.03498,,,,,,,,,,,,,,,,,,,,,,,,,,0,0,0,0,0
5.2232,1783190549.4421,1,1,3.0000,0.0000,1.44679,0.18738,-2.78857,1.03035,1.57079,0.00004,-0.14511,-0.38001,0.03491,,,,,,,,,,,,,,,,,,,,,,,,,,0,0,0,0,0
5.2304,1783190549.4493,1,1,3.0000,0.0000,1.44679,0.18737,-2.78857,1.03036,1.57079,0.00004,-0.14511,-0.38001,0.03490,,,,,,,,,,,,,,,,,,,,,,,,,,0,0,0,0,0
