Martins-Lucaas/twinforge/sensors/Data/20260704_152952__samples.csv
t_rel_s,t_unix,cycle,phase,setpoint_n,force_net_n,q1,q2,q3,q4,q5,q6,tcp_x,tcp_y,tcp_z,taxel_0,taxel_1,taxel_2,taxel_3,taxel_4,taxel_5,taxel_6,taxel_7,taxel_8,taxel_9,taxel_10,taxel_11,taxel_12,taxel_13,taxel_14,taxel_15,taxel_16,taxel_17,taxel_18,taxel_19,taxel_20,taxel_21,taxel_22,taxel_23,taxel_24,n_RA,n_SA,cn_mm,cn_ra,cn_sa
0.0015,1783189792.7415,0,-1,4.0000,0.0000,1.44682,0.23328,-2.77748,0.97337,1.57080,0.00000,-0.14512,-0.38003,0.04653,,,,,,,,,,,,,,,,,,,,,,,,,,0,0,0,0,0
0.0073,1783189792.7473,1,0,4.0000,0.0000,1.44682,0.23328,-2.77748,0.97337,1.57080,0.00000,-0.14512,-0.38003,0.04653,,,,,,,,,,,,,,,,,,,,,,,,,,0,0,0,0,0
0.0076,1783189792.7476,1,0,4.0000,0.0000,1.44682,0.23328,-2.77748,0.97337,1.57080,0.00000,-0.14512,-0.38003,0.04653,,,,,,,,,,,,,,,,,,,,,,,,,,0,0,0,0,0
0.0279,1783189792.7679,1,0,4.0000,0.0000,1.44682,0.23328,-2.77748,0.97337,1.57080,0.00000,-0.14512,-0.38003,0.04653,,,,,,,,,,,,,,,,,,,,,,,,,,0,0,0,0,0
0.0297,1783189792.7697,1,0,4.0000,0.0000,1.44682,0.23328,-2.77748,0.97337,1.57080,0.00000,-0.14512,-0.38003,0.04653,,,,,,,,,,,,,,,,,,,,,,,,,,0,0,0,0,0
0.0302,1783189792.7702,1,0,4.0000,0.0000,1.44682,0.23328,-2.77748,0.97337,1.57080,0.00000,-0.14512,-0.38003,0.04653,,,,,,,,,,,,,,,,,,,,,,,,,,0,0,0,0,0
0.0429,1783189792.7829,1,0,4.0000,0.0000,1.44682,0.23328,-2.77748,0.97337,1.57080,0.00000,-0.14512,-0.38003,0.04653,,,,,,,,,,,,,,,,,,,,,,,,,,0,0,0,0,0
0.0510,1783189792.7911,1,0,4.0000,0.0000,1.44682,0.23328,-2.77748,0.97337,1.57080,0.00000,-0.14512,-0.38003,0.04653,,,,,,,,,,,,,,,,,,,,,,,,,,0,0,0,0,0
0.0514,1783189792.7914,1,0,4.0000,0.0000,1.44682,0.23328,-2.77748,0.97337,1.57080,0.00000,-0.14512,-0.38003,0.04653,,,,,,,,,,,,,,,,,,,,,,,,,,0,0,0,0,0
0.0620,1783189792.8020,1,0,4.0000,0.0000,1.44682,0.23328,-2.77748,0.97337,1.57080,0.00000,-0.14512,-0.38003,0.04653,,,,,,,,,,,,,,,,,,,,,,,,,,0,0,0,0,0
0.0675,1783189792.8075,1,0,4.0000,0.0000,1.44682,0.23328,-2.77748,0.97337,1.57080,0.00000,-0.14512,-0.38003,0.04653,,,,,,,,,,,,,,,,,,,,,,,,,,0,0,0,0,0
0.0869,1783189792.8269,1,0,4.0000,0.0000,1.44682,0.23328,-2.77748,0.97337,1.57080,0.00000,-0.14512,-0.38003,0.04653,,,,,,,,,,,,,,,,,,,,,,,,,,0,0,0,0,0
0.0988,1783189792.8388,1,0,4.0000,0.0000,1.44682,0.23328,-2.77748,0.97337,1.57080,0.00000,-0.14512,-0.38003,0.04653,,,,,,,,,,,,,,,,,,,,,,,,,,0,0,0,0,0
0.1216,1783189792.8616,1,0,4.0000,0.0000,1.44682,0.23328,-2.77748,0.97337,1.57080,0.00000,-0.14512,-0.38003,0.04653,,,,,,,,,,,,,,,,,,,,,,,,,,0,0,0,0,0
0.1220,1783189792.8620,1,0,4.0000,0.0000,1.44682,0.23328,-2.77748,0.97337,1.57080,0.00000,-0.14512,-0.38003,0.04653,,,,,,,,,,,,,,,,,,,,,,,,,,0,0,0,0,0
0.1293,1783189792.8694,1,0,4.0000,0.0000,1.44682,0.23328,-2.77748,0.97337,1.57080,0.00000,-0.14512,-0.38003,0.04653,,,,,,,,,,,,,,,,,,,,,,,,,,0,0,0,0,0
0.1311,1783189792.8712,1,0,4.0000,0.0000,1.44682,0.23328,-2.77748,0.97337,1.57080,0.00000,-0.14512,-0.38003,0.04653,,,,,,,,,,,,,,,,,,,,,,,,,,0,0,0,0,0
0.1314,1783189792.8714,1,0,4.0000,0.0000,1.44682,0.23328,-2.77748,0.97337,1.57080,0.00000,-0.14512,-0.38003,0.04653,,,,,,,,,,,,,,,,,,,,,,,,,,0,0,0,0,0
0.1452,1783189792.8852,1,0,4.0000,0.0000,1.44682,0.23328,-2.77748,0.97337,1.57080,0.00000,-0.14512,-0.38003,0.04653,,,,,,,,,,,,,,,,,,,,,,,,,,0,0,0,0,0
0.1516,1783189792.8916,1,0,4.0000,0.0000,1.44682,0.23328,-2.77748,0.97337,1.57080,0.00000,-0.14512,-0.38003,0.04653,,,,,,,,,,,,,,,,,,,,,,,,,,0,0,0,0,0
0.1519,1783189792.8920,1,0,4.0000,0.0000,1.44682,0.23328,-2.77748,0.97337,1.57080,0.00000,-0.14512,-0.38003,0.04653,,,,,,,,,,,,,,,,,,,,,,,,,,0,0,0,0,0
0.1595,1783189792.8995,1,0,4.0000,0.0000,1.44682,0.23328,-2.77748,0.97337,1.57080,0.00000,-0.14512,-0.38003,0.04653,,,,,,,,,,,,,,,,,,,,,,,,,,0,0,0,0,0
0.1713,1783189792.9113,1,0,4.0000,0.0000,1.44682,0.23328,-2.77748,0.97337,1.57080,0.00000,-0.14512,-0.38003,0.04653,,,,,,,,,,,,,,,,,,,,,,,,,,0,0,0,0,0
0.1717,1783189792.9118,1,0,4.0000,0.0000,1.44682,0.23328,-2.77748,0.97337,1.57080,0.00000,-0.14512,-0.38003,0.04653,,,,,,,,,,,,,,,,,,,,,,,,,,0,0,0,0,0
0.1929,1783189792.9329,1,0,4.0000,0.0000,1.44682,0.23328,-2.77748,0.97337,1.57080,0.00000,-0.14512,-0.38003,0.04653,,,,,,,,,,,,,,,,,,,,,,,,,,0,0,0,0,0
0.1932,1783189792.9332,1,0,4.0000,0.0000,1.44682,0.23328,-2.77748,0.97337,1.57080,0.00000,-0.14512,-0.38003,0.04653,,,,,,,,,,,,,,,,,,,,,,,,,,0,0,0,0,0
0.1979,1783189792.9379,1,0,4.0000,0.0000,1.44682,0.23328,-2.77748,0.97337,1.57080,0.00000,-0.14512,-0.38003,0.04653,,,,,,,,,,,,,,,,,,,,,,,,,,0,0,0,0,0
0.2143,1783189792.9543,1,0,4.0000,0.0000,1.44682,0.23328,-2.77748,0.97337,1.57080,0.00000,-0.14512,-0.38003,0.04653,,,,,,,,,,,,,,,,,,,,,,,,,,0,0,0,0,0
0.2173,1783189792.9573,1,0,4.0000,0.0000,1.44682,0.23328,-2.77748,0.97337,1.57080,0.00000,-0.14512,-0.38003,0.04653,,,,,,,,,,,,,,,,,,,,,,,,,,0,0,0,0,0
0.2178,1783189792.9579,1,0,4.0000,0.0000,1.44682,0.23328,-2.77748,0.97337,1.57080,0.00000,-0.14512,-0.38003,0.04653,,,,,,,,,,,,,,,,,,,,,,,,,,0,0,0,0,0
0.2312,1783189792.9712,1,0,4.0000,0.0000,1.44682,0.23328,-2.77748,0.97337,1.57080,0.00000,-0.14512,-0.38003,0.04653,,,,,,,,,,,,,,,,,,,,,,,,,,0,0,0,0,0
0.2314,1783189792.9715,1,0,4.0000,0.0000,1.44682,0.23328,-2.77748,0.97337,1.57080,0.00000,-0.14512,-0.38003,0.04653,,,,,,,,,,,,,,,,,,,,,,,,,,0,0,0,0,0
0.2380,1783189792.9780,1,0,4.0000,0.0000,1.44682,0.23328,-2.77748,0.97337,1.57080,0.00000,-0.14512,-0.38003,0.04653,,,,,,,,,,,,,,,,,,,,,,,,,,0,0,0,0,0
0.2384,1783189792.9785,1,0,4.0000,0.0000,1.44682,0.23328,-2.77748,0.97337,1.57080,0.00000,-0.14512,-0.38003,0.04653,,,,,,,,,,,,,,,,,,,,,,,,,,0,0,0,0,0
0.2485,1783189792.9885,1,0,4.0000,0.0000,1.44682,0.23328,-2.77748,0.97337,1.57080,0.00000,-0.14512,-0.38003,0.04653,,,,,,,,,,,,,,,,,,,,,,,,,,0,0,0,0,0
0.2617,1783189793.0017,1,0,4.0000,0.0000,1.44682,0.23328,-2.77748,0.97337,1.57080,0.00000,-0.14512,-0.38003,0.04653,,,,,,,,,,,,,,,,,,,,,,,,,,0,0,0,0,0
0.2620,1783189793.0021,1,0,4.0000,0.0000,1.44682,0.23328,-2.77748,0.97337,1.57080,0.00000,-0.14512,-0.38003,0.04653,,,,,,,,,,,,,,,,,,,,,,,,,,0,0,0,0,0
0.2682,1783189793.0082,1,0,4.0000,0.0000,1.44682,0.23328,-2.77748,0.97337,1.57080,0.00000,-0.14512,-0.38003,0.04653,,,,,,,,,,,,,,,,,,,,,,,,,,0,0,0,0,0
0.2684,1783189793.0084,1,0,4.0000,0.0000,1.44682,0.23328,-2.77748,0.97337,1.57080,0.00000,-0.14512,-0.38003,0.04653,,,,,,,,,,,,,,,,,,,,,,,,,,0,0,0,0,0
0.2770,1783189793.0171,1,0,4.0000,0.0000,1.44682,0.23328,-2.77748,0.97337,1.57080,0.00000,-0.14512,-0.38003,0.04653,,,,,,,,,,,,,,,,,,,,,,,,,,0,0,0,0,0
0.2773,1783189793.0173,1,0,4.0000,0.0000,1.44682,0.23328,-2.77748,0.97337,1.57080,0.00000,-0.14512,-0.38003,0.04653,,,,,,,,,,,,,,,,,,,,,,,,,,0,0,0,0,0
0.2897,1783189793.0297,1,0,4.0000,0.0000,1.44682,0.23328,-2.77748,0.97337,1.57080,0.00000,-0.14512,-0.38003,0.04653,,,,,,,,,,,,,,,,,,,,,,,,,,0,0,0,0,0
0.3009,1783189793.0409,1,0,4.0000,0.0000,1.44682,0.23328,-2.77748,0.97337,1.57080,0.00000,-0.14512,-0.38003,0.04653,,,,,,,,,,,,,,,,,,,,,,,,,,0,0,0,0,0
0.3114,1783189793.0514,1,0,4.0000,0.0000,1.44682,0.23328,-2.77748,0.97337,1.57080,0.00000,-0.14512,-0.38003,0.04653,,,,,,,,,,,,,,,,,,,,,,,,,,0,0,0,0,0
0.3118,1783189793.0518,1,0,4.0000,0.0000,1.44682,0.23328,-2.77748,0.97337,1.57080,0.00000,-0.14512,-0.38003,0.04653,,,,,,,,,,,,,,,,,,,,,,,,,,0,0,0,0,0
0.3186,1783189793.0586,1,0,4.0000,0.0000,1.44682,0.23328,-2.77748,0.97337,1.57080,0.00000,-0.14512,-0.38003,0.04653,,,,,,,,,,,,,,,,,,,,,,,,,,0,0,0,0,0
0.3279,1783189793.0679,1,0,4.0000,0.0000,1.44682,0.23328,-2.77748,0.97337,1.57080,0.00000,-0.14512,-0.38003,0.04653,,,,,,,,,,,,,,,,,,,,,,,,,,0,0,0,0,0
0.3398,1783189793.0798,1,0,4.0000,0.0000,1.44682,0.23328,-2.77748,0.97337,1.57080,0.00000,-0.14512,-0.38003,0.04653,,,,,,,,,,,,,,,,,,,,,,,,,,0,0,0,0,0
0.3501,1783189793.0901,1,0,4.0000,0.0000,1.44682,0.23328,-2.77748,0.97337,1.57080,0.00000,-0.14512,-0.38003,0.04653,,,,,,,,,,,,,,,,,,,,,,,,,,0,0,0,0,0
0.3584,1783189793.0985,1,0,4.0000,0.0000,1.44682,0.23328,-2.77748,0.97337,1.57080,0.00000,-0.14512,-0.38003,0.04653,,,,,,,,,,,,,,,,,,,,,,,,,,0,0,0,0,0
0.3699,1783189793.1099,1,0,4.0000,0.0000,1.44682,0.23328,-2.77748,0.97337,1.57080,0.00000,-0.14512,-0.38003,0.04653,,,,,,,,,,,,,,,,,,,,,,,,,,0,0,0,0,0
0.3945,1783189793.1345,1,0,4.0000,0.0000,1.44682,0.23328,-2.77748,0.97337,1.57080,0.00000,-0.14512,-0.38003,0.04653,,,,,,,,,,,,,,,,,,,,,,,,,,0,0,0,0,0
0.3954,1783189793.1354,1,0,4.0000,0.0000,1.44682,0.23328,-2.77748,0.97337,1.57080,0.00000,-0.14512,-0.38003,0.04653,,,,,,,,,,,,,,,,,,,,,,,,,,0,0,0,0,0
0.3976,1783189793.1376,1,0,4.0000,0.0000,1.44682,0.23328,-2.77748,0.97337,1.57080,0.00000,-0.14512,-0.38003,0.04653,,,,,,,,,,,,,,,,,,,,,,,,,,0,0,0,0,0
0.4075,1783189793.1475,1,0,4.0000,0.0000,1.44682,0.23328,-2.77748,0.97337,1.57080,0.00000,-0.14512,-0.38003,0.04653,,,,,,,,,,,,,,,,,,,,,,,,,,0,0,0,0,0
0.4193,1783189793.1593,1,0,4.0000,0.0000,1.44682,0.23328,-2.77748,0.97337,1.57080,0.00000,-0.14512,-0.38003,0.04653,,,,,,,,,,,,,,,,,,,,,,,,,,0,0,0,0,0
0.4196,1783189793.1596,1,0,4.0000,0.0000,1.44682,0.23328,-2.77748,0.97337,1.57080,0.00000,-0.14512,-0.38003,0.04653,,,,,,,,,,,,,,,,,,,,,,,,,,0,0,0,0,0
0.4273,1783189793.1673,1,0,4.0000,0.0000,1.44682,0.23328,-2.77748,0.97337,1.57080,0.00000,-0.14512,-0.38003,0.04653,,,,,,,,,,,,,,,,,,,,,,,,,,0,0,0,0,0
0.4385,1783189793.1785,1,0,4.0000,0.0000,1.44682,0.23328,-2.77748,0.97337,1.57080,0.00000,-0.14512,-0.38003,0.04653,,,,,,,,,,,,,,,,,,,,,,,,,,0,0,0,0,0
0.4391,1783189793.1791,1,0,4.0000,0.0000,1.44682,0.23328,-2.77748,0.97337,1.57080,0.00000,-0.14512,-0.38003,0.04653,,,,,,,,,,,,,,,,,,,,,,,,,,0,0,0,0,0
0.4563,1783189793.1963,1,0,4.0000,0.0000,1.44682,0.23328,-2.77748,0.97337,1.57080,0.00000,-0.14512,-0.38003,0.04653,,,,,,,,,,,,,,,,,,,,,,,,,,0,0,0,0,0
0.4619,1783189793.2020,1,0,4.0000,0.0000,1.44682,0.23328,-2.77748,0.97337,1.57080,0.00000,-0.14512,-0.38003,0.04653,,,,,,,,,,,,,,,,,,,,,,,,,,0,0,0,0,0
0.4623,1783189793.2024,1,0,4.0000,0.0000,1.44682,0.23328,-2.77748,0.97337,1.57080,0.00000,-0.14512,-0.38003,0.04653,,,,,,,,,,,,,,,,,,,,,,,,,,0,0,0,0,0
0.4712,1783189793.2112,1,0,4.0000,0.0000,1.44682,0.23328,-2.77748,0.97337,1.57080,0.00000,-0.14512,-0.38003,0.04653,,,,,,,,,,,,,,,,,,,,,,,,,,0,0,0,0,0
0.4821,1783189793.2222,1,0,4.0000,0.0000,1.44682,0.23328,-2.77748,0.97337,1.57080,0.00000,-0.14512,-0.38003,0.04653,,,,,,,,,,,,,,,,,,,,,,,,,,0,0,0,0,0
0.4925,1783189793.2326,1,0,4.0000,0.0000,1.44682,0.23328,-2.77748,0.97337,1.57080,0.00000,-0.14512,-0.38003,0.04653,,,,,,,,,,,,,,,,,,,,,,,,,,0,0,0,0,0
0.4929,1783189793.2330,1,0,4.0000,0.0000,1.44682,0.23328,-2.77748,0.97337,1.57080,0.00000,-0.14512,-0.38003,0.04653,,,,,,,,,,,,,,,,,,,,,,,,,,0,0,0,0,0
0.5031,1783189793.2431,1,0,4.0000,0.0000,1.44682,0.23328,-2.77748,0.97337,1.57080,0.00000,-0.14512,-0.38003,0.04653,,,,,,,,,,,,,,,,,,,,,,,,,,0,0,0,0,0
0.5113,1783189793.2513,1,0,4.0000,0.0000,1.44682,0.23328,-2.77748,0.97337,1.57080,0.00000,-0.14512,-0.38003,0.04653,,,,,,,,,,,,,,,,,,,,,,,,,,0,0,0,0,0
0.5116,1783189793.2516,1,0,4.0000,0.0000,1.44682,0.23328,-2.77748,0.97337,1.57080,0.00000,-0.14512,-0.38003,0.04653,,,,,,,,,,,,,,,,,,,,,,,,,,0,0,0,0,0
0.5252,1783189793.2652,1,0,4.0000,0.0000,1.44682,0.23328,-2.77748,0.97337,1.57080,0.00000,-0.14512,-0.38003,0.04653,,,,,,,,,,,,,,,,,,,,,,,,,,0,0,0,0,0
0.5256,1783189793.2657,1,0,4.0000,0.0000,1.44682,0.23328,-2.77748,0.97337,1.57080,0.00000,-0.14512,-0.38003,0.04653,,,,,,,,,,,,,,,,,,,,,,,,,,0,0,0,0,0
0.5385,1783189793.2785,1,0,4.0000,0.0000,1.44682,0.23328,-2.77748,0.97337,1.57080,0.00000,-0.14512,-0.38003,0.04653,,,,,,,,,,,,,,,,,,,,,,,,,,0,0,0,0,0
0.5421,1783189793.2822,1,0,4.0000,0.0000,1.44682,0.23328,-2.77748,0.97337,1.57080,0.00000,-0.14512,-0.38003,0.04653,,,,,,,,,,,,,,,,,,,,,,,,,,0,0,0,0,0
0.5425,1783189793.2825,1,0,4.0000,0.0000,1.44682,0.23328,-2.77748,0.97337,1.57080,0.00000,-0.14512,-0.38003,0.04653,,,,,,,,,,,,,,,,,,,,,,,,,,0,0,0,0,0
0.5545,1783189793.2945,1,0,4.0000,0.0000,1.44682,0.23328,-2.77748,0.97337,1.57080,0.00000,-0.14512,-0.38003,0.04653,,,,,,,,,,,,,,,,,,,,,,,,,,0,0,0,0,0
0.5551,1783189793.2951,1,0,4.0000,0.0000,1.44682,0.23328,-2.77748,0.97337,1.57080,0.00000,-0.14512,-0.38003,0.04653,,,,,,,,,,,,,,,,,,,,,,,,,,0,0,0,0,0
0.5608,1783189793.3008,1,0,4.0000,0.0000,1.44682,0.23328,-2.77748,0.97337,1.57080,0.00000,-0.14512,-0.38003,0.04653,,,,,,,,,,,,,,,,,,,,,,,,,,0,0,0,0,0
0.5612,1783189793.3013,1,0,4.0000,0.0000,1.44682,0.23328,-2.77748,0.97337,1.57080,0.00000,-0.14512,-0.38003,0.04653,,,,,,,,,,,,,,,,,,,,,,,,,,0,0,0,0,0
0.5753,1783189793.3154,1,0,4.0000,0.0000,1.44682,0.23328,-2.77748,0.97337,1.57080,0.00000,-0.14512,-0.38003,0.04653,,,,,,,,,,,,,,,,,,,,,,,,,,0,0,0,0,0
0.5813,1783189793.3213,1,0,4.0000,0.0000,1.44682,0.23328,-2.77748,0.97337,1.57080,0.00000,-0.14512,-0.38003,0.04653,,,,,,,,,,,,,,,,,,,,,,,,,,0,0,0,0,0
0.5993,1783189793.3393,1,0,4.0000,0.0000,1.44682,0.23328,-2.77748,0.97337,1.57080,0.00000,-0.14512,-0.38003,0.04653,,,,,,,,,,,,,,,,,,,,,,,,,,0,0,0,0,0
0.6044,1783189793.3444,1,0,4.0000,0.0000,1.44682,0.23328,-2.77748,0.97337,1.57080,0.00000,-0.14512,-0.38003,0.04653,,,,,,,,,,,,,,,,,,,,,,,,,,0,0,0,0,0
0.6050,1783189793.3450,1,0,4.0000,0.0000,1.44682,0.23328,-2.77748,0.97337,1.57080,0.00000,-0.14512,-0.38003,0.04653,,,,,,,,,,,,,,,,,,,,,,,,,,0,0,0,0,0
0.6152,1783189793.3552,1,0,4.0000,0.0000,1.44682,0.23328,-2.77748,0.97337,1.57080,0.00000,-0.14512,-0.38003,0.04653,,,,,,,,,,,,,,,,,,,,,,,,,,0,0,0,0,0
0.6272,1783189793.3672,1,0,4.0000,0.0000,1.44682,0.23328,-2.77748,0.97337,1.57080,0.00000,-0.14512,-0.38003,0.04653,,,,,,,,,,,,,,,,,,,,,,,,,,0,0,0,0,0
0.6363,1783189793.3763,1,0,4.0000,0.0000,1.44682,0.23328,-2.77748,0.97337,1.57080,0.00000,-0.14512,-0.38003,0.04653,,,,,,,,,,,,,,,,,,,,,,,,,,0,0,0,0,0
0.6368,1783189793.3768,1,0,4.0000,0.0000,1.44682,0.23328,-2.77748,0.97337,1.57080,0.00000,-0.14512,-0.38003,0.04653,,,,,,,,,,,,,,,,,,,,,,,,,,0,0,0,0,0
0.6447,1783189793.3847,1,0,4.0000,0.0000,1.44682,0.23328,-2.77748,0.97337,1.57080,0.00000,-0.14512,-0.38003,0.04653,,,,,,,,,,,,,,,,,,,,,,,,,,0,0,0,0,0
0.6618,1783189793.4018,1,0,4.0000,0.0000,1.44682,0.23328,-2.77748,0.97337,1.57080,0.00000,-0.14512,-0.38003,0.04653,,,,,,,,,,,,,,,,,,,,,,,,,,0,0,0,0,0
0.6621,1783189793.4021,1,0,4.0000,0.0000,1.44682,0.23328,-2.77748,0.97337,1.57080,0.00000,-0.14512,-0.38003,0.04653,,,,,,,,,,,,,,,,,,,,,,,,,,0,0,0,0,0
0.6624,1783189793.4024,1,0,4.0000,0.0000,1.44682,0.23328,-2.77748,0.97337,1.57080,0.00000,-0.14512,-0.38003,0.04653,,,,,,,,,,,,,,,,,,,,,,,,,,0,0,0,0,0
0.6761,1783189793.4161,1,0,4.0000,0.0000,1.44682,0.23328,-2.77748,0.97337,1.57080,0.00000,-0.14512,-0.38003,0.04653,,,,,,,,,,,,,,,,,,,,,,,,,,0,0,0,0,0
0.6889,1783189793.4289,1,0,4.0000,0.0000,1.44682,0.23328,-2.77748,0.97337,1.57080,0.00000,-0.14512,-0.38003,0.04653,,,,,,,,,,,,,,,,,,,,,,,,,,0,0,0,0,0
0.7031,1783189793.4431,1,0,4.0000,0.0000,1.44682,0.23328,-2.77748,0.97337,1.57080,0.00000,-0.14512,-0.38003,0.04653,,,,,,,,,,,,,,,,,,,,,,,,,,0,0,0,0,0
0.7048,1783189793.4449,1,0,4.0000,0.0000,1.44682,0.23328,-2.77748,0.97337,1.57080,0.00000,-0.14512,-0.38003,0.04653,,,,,,,,,,,,,,,,,,,,,,,,,,0,0,0,0,0
0.7051,1783189793.4452,1,0,4.0000,0.0000,1.44682,0.23328,-2.77748,0.97337,1.57080,0.00000,-0.14512,-0.38003,0.04653,,,,,,,,,,,,,,,,,,,,,,,,,,0,0,0,0,0
0.7125,1783189793.4525,1,0,4.0000,0.0000,1.44682,0.23328,-2.77748,0.97337,1.57080,0.00000,-0.14512,-0.38003,0.04653,,,,,,,,,,,,,,,,,,,,,,,,,,0,0,0,0,0
0.7128,1783189793.4529,1,0,4.0000,0.0000,1.44682,0.23328,-2.77748,0.97337,1.57080,0.00000,-0.14512,-0.38003,0.04653,,,,,,,,,,,,,,,,,,,,,,,,,,0,0,0,0,0
0.7210,1783189793.4610,1,0,4.0000,0.0000,1.44682,0.23328,-2.77748,0.97337,1.57080,0.00000,-0.14512,-0.38003,0.04653,,,,,,,,,,,,,,,,,,,,,,,,,,0,0,0,0,0
0.7213,1783189793.4613,1,0,4.0000,0.0000,1.44682,0.23328,-2.77748,0.97337,1.57080,0.00000,-0.14512,-0.38003,0.04653,,,,,,,,,,,,,,,,,,,,,,,,,,0,0,0,0,0
0.7312,1783189793.4712,1,1,4.0000,0.0000,1.44682,0.23328,-2.77748,0.97337,1.57080,0.00000,-0.14512,-0.38003,0.04653,,,,,,,,,,,,,,,,,,,,,,,,,,0,0,0,0,0
0.7453,1783189793.4853,1,1,4.0000,0.0000,1.44682,0.23328,-2.77748,0.97337,1.57080,0.00000,-0.14512,-0.38003,0.04653,,,,,,,,,,,,,,,,,,,,,,,,,,0,0,0,0,0
0.7521,1783189793.4921,1,1,4.0000,0.0000,1.44682,0.23328,-2.77748,0.97337,1.57080,0.00000,-0.14512,-0.38003,0.04653,,,,,,,,,,,,,,,,,,,,,,,,,,0,0,0,0,0
0.7608,1783189793.5009,1,1,4.0000,0.0000,1.44682,0.23328,-2.77748,0.97337,1.57080,0.00000,-0.14512,-0.38003,0.04653,,,,,,,,,,,,,,,,,,,,,,,,,,0,0,0,0,0
0.7726,1783189793.5126,1,1,4.0000,0.0000,1.44682,0.23328,-2.77748,0.97337,1.57080,0.00000,-0.14512,-0.38003,0.04653,,,,,,,,,,,,,,,,,,,,,,,,,,0,0,0,0,0
0.7818,1783189793.5218,1,1,4.0000,0.0000,1.44682,0.23328,-2.77748,0.97337,1.57080,0.00000,-0.14512,-0.38003,0.04653,,,,,,,,,,,,,,,,,,,,,,,,,,0,0,0,0,0
0.7907,1783189793.5307,1,1,4.0000,0.0000,1.44682,0.23328,-2.77748,0.97337,1.57080,0.00000,-0.14512,-0.38003,0.04653,,,,,,,,,,,,,,,,,,,,,,,,,,0,0,0,0,0
0.7911,1783189793.5311,1,1,4.0000,0.0000,1.44682,0.23328,-2.77748,0.97337,1.57080,0.00000,-0.14512,-0.38003,0.04653,,,,,,,,,,,,,,,,,,,,,,,,,,0,0,0,0,0
0.8040,1783189793.5440,1,1,4.0000,0.0000,1.44682,0.23328,-2.77748,0.97337,1.57080,0.00000,-0.14512,-0.38003,0.04653,,,,,,,,,,,,,,,,,,,,,,,,,,0,0,0,0,0
0.8128,1783189793.5529,1,1,4.0000,0.0000,1.44682,0.23328,-2.77748,0.97337,1.57080,0.00000,-0.14512,-0.38003,0.04653,,,,,,,,,,,,,,,,,,,,,,,,,,0,0,0,0,0
0.8261,1783189793.5661,1,1,4.0000,0.0000,1.44682,0.23328,-2.77748,0.97337,1.57080,0.00000,-0.14512,-0.38003,0.04653,,,,,,,,,,,,,,,,,,,,,,,,,,0,0,0,0,0
0.8320,1783189793.5720,1,1,4.0000,0.0000,1.44682,0.23328,-2.77748,0.97337,1.57080,0.00000,-0.14512,-0.38003,0.04653,,,,,,,,,,,,,,,,,,,,,,,,,,0,0,0,0,0
0.8455,1783189793.5856,1,1,4.0000,0.0000,1.44682,0.23328,-2.77748,0.97337,1.57080,0.00000,-0.14512,-0.38003,0.04653,,,,,,,,,,,,,,,,,,,,,,,,,,0,0,0,0,0
0.8559,1783189793.5959,1,1,4.0000,0.0000,1.44682,0.23328,-2.77748,0.97337,1.57080,0.00000,-0.14512,-0.38003,0.04653,,,,,,,,,,,,,,,,,,,,,,,,,,0,0,0,0,0
0.8629,1783189793.6029,1,1,4.0000,0.0000,1.44682,0.23328,-2.77748,0.97337,1.57080,0.00000,-0.14512,-0.38003,0.04653,,,,,,,,,,,,,,,,,,,,,,,,,,0,0,0,0,0
0.8706,1783189793.6106,1,1,4.0000,0.0000,1.44682,0.23328,-2.77748,0.97337,1.57080,0.00000,-0.14512,-0.38003,0.04653,,,,,,,,,,,,,,,,,,,,,,,,,,0,0,0,0,0
0.8709,1783189793.6110,1,1,4.0000,0.0000,1.44682,0.23328,-2.77748,0.97337,1.57080,0.00000,-0.14512,-0.38003,0.04653,,,,,,,,,,,,,,,,,,,,,,,,,,0,0,0,0,0
0.8808,1783189793.6208,1,1,4.0000,0.0000,1.44682,0.23328,-2.77748,0.97337,1.57080,0.00000,-0.14512,-0.38003,0.04653,,,,,,,,,,,,,,,,,,,,,,,,,,0,0,0,0,0
0.8921,1783189793.6321,1,1,4.0000,0.0000,1.44682,0.23328,-2.77748,0.97337,1.57080,0.00000,-0.14512,-0.38003,0.04653,,,,,,,,,,,,,,,,,,,,,,,,,,0,0,0,0,0
0.8923,1783189793.6324,1,1,4.0000,0.0000,1.44682,0.23328,-2.77748,0.97337,1.57080,0.00000,-0.14512,-0.38003,0.04653,,,,,,,,,,,,,,,,,,,,,,,,,,0,0,0,0,0
0.9064,1783189793.6464,1,1,4.0000,0.0000,1.44682,0.23328,-2.77748,0.97337,1.57080,0.00000,-0.14512,-0.38003,0.04653,,,,,,,,,,,,,,,,,,,,,,,,,,0,0,0,0,0
0.9123,1783189793.6523,1,1,4.0000,0.0000,1.44682,0.23328,-2.77748,0.97337,1.57080,0.00000,-0.14512,-0.38003,0.04653,,,,,,,,,,,,,,,,,,,,,,,,,,0,0,0,0,0
0.9221,1783189793.6621,1,1,4.0000,0.0000,1.44682,0.23328,-2.77748,0.97337,1.57080,0.00000,-0.14512,-0.38003,0.04653,,,,,,,,,,,,,,,,,,,,,,,,,,0,0,0,0,0
0.9314,1783189793.6714,1,1,4.0000,0.0000,1.44682,0.23322,-2.77749,0.97344,1.57080,0.00000,-0.14512,-0.38003,0.04651,,,,,,,,,,,,,,,,,,,,,,,,,,0,0,0,0,0
0.9414,1783189793.6814,1,1,4.0000,0.0000,1.44682,0.23301,-2.77755,0.97371,1.57080,0.00000,-0.14512,-0.38003,0.04646,,,,,,,,,,,,,,,,,,,,,,,,,,0,0,0,0,0
0.9519,1783189793.6919,1,1,4.0000,0.0000,1.44682,0.23285,-2.77759,0.97390,1.57080,0.00000,-0.14512,-0.38003,0.04642,,,,,,,,,,,,,,,,,,,,,,,,,,0,0,0,0,0
0.9643,1783189793.7043,1,1,4.0000,0.0000,1.44682,0.23279,-2.77760,0.97398,1.57080,0.00000,-0.14512,-0.38003,0.04640,,,,,,,,,,,,,,,,,,,,,,,,,,0,0,0,0,0
0.9728,1783189793.7128,1,1,4.0000,0.0000,1.44682,0.23270,-2.77763,0.97410,1.57080,0.00000,-0.14512,-0.38003,0.04638,,,,,,,,,,,,,,,,,,,,,,,,,,0,0,0,0,0
0.9810,1783189793.7210,1,1,4.0000,0.0000,1.44682,0.23264,-2.77764,0.97417,1.57080,0.00000,-0.14512,-0.38003,0.04636,,,,,,,,,,,,,,,,,,,,,,,,,,0,0,0,0,0
0.9912,1783189793.7312,1,1,4.0000,0.0000,1.44682,0.23259,-2.77765,0.97423,1.57080,0.00000,-0.14512,-0.38003,0.04635,,,,,,,,,,,,,,,,,,,,,,,,,,0,0,0,0,0
1.0068,1783189793.7468,1,1,4.0000,0.0000,1.44682,0.23234,-2.77772,0.97455,1.57080,0.00000,-0.14512,-0.38003,0.04628,,,,,,,,,,,,,,,,,,,,,,,,,,0,0,0,0,0
1.0107,1783189793.7507,1,1,4.0000,0.0000,1.44682,0.23227,-2.77774,0.97464,1.57080,0.00000,-0.14512,-0.38003,0.04626,,,,,,,,,,,,,,,,,,,,,,,,,,0,0,0,0,0
1.0110,1783189793.7510,1,1,4.0000,0.0000,1.44682,0.23227,-2.77774,0.97464,1.57080,0.00000,-0.14512,-0.38003,0.04626,,,,,,,,,,,,,,,,,,,,,,,,,,0,0,0,0,0
1.0210,1783189793.7610,1,1,4.0000,0.0000,1.44682,0.23223,-2.77775,0.97469,1.57080,0.00000,-0.14512,-0.38003,0.04625,,,,,,,,,,,,,,,,,,,,,,,,,,0,0,0,0,0
1.0213,1783189793.7613,1,1,4.0000,0.0000,1.44682,0.23223,-2.77775,0.97469,1.57080,0.00000,-0.14512,-0.38003,0.04625,,,,,,,,,,,,,,,,,,,,,,,,,,0,0,0,0,0
1.0341,1783189793.7741,1,1,4.0000,0.0000,1.44682,0.23205,-2.77779,0.97491,1.57080,0.00000,-0.14512,-0.38003,0.04621,,,,,,,,,,,,,,,,,,,,,,,,,,0,0,0,0,0
1.0410,1783189793.7810,1,1,4.0000,0.0000,1.44682,0.23198,-2.77781,0.97500,1.57080,0.00000,-0.14512,-0.38003,0.04619,,,,,,,,,,,,,,,,,,,,,,,,,,0,0,0,0,0
1.0412,1783189793.7813,1,1,4.0000,0.0000,1.44682,0.23198,-2.77781,0.97500,1.57080,0.00000,-0.14512,-0.38003,0.04619,,,,,,,,,,,,,,,,,,,,,,,,,,0,0,0,0,0
1.0529,1783189793.7930,1,1,4.0000,0.0000,1.44682,0.23189,-2.77784,0.97512,1.57080,0.00000,-0.14512,-0.38003,0.04616,,,,,,,,,,,,,,,,,,,,,,,,,,0,0,0,0,0
1.0667,1783189793.8067,1,1,4.0000,0.0000,1.44682,0.23169,-2.77789,0.97536,1.57080,0.00000,-0.14512,-0.38003,0.04611,,,,,,,,,,,,,,,,,,,,,,,,,,0,0,0,0,0
1.0709,1783189793.8109,1,1,4.0000,0.0000,1.44682,0.23162,-2.77790,0.97545,1.57080,0.00000,-0.14512,-0.38003,0.04610,,,,,,,,,,,,,,,,,,,,,,,,,,0,0,0,0,0
1.0838,1783189793.8238,1,1,4.0000,0.0000,1.44682,0.23153,-2.77793,0.97557,1.57080,0.00000,-0.14512,-0.38003,0.04607,,,,,,,,,,,,,,,,,,,,,,,,,,0,0,0,0,0
1.0958,1783189793.8358,1,1,4.0000,0.0000,1.44682,0.23133,-2.77798,0.97581,1.57080,0.00000,-0.14512,-0.38003,0.04602,,,,,,,,,,,,,,,,,,,,,,,,,,0,0,0,0,0
1.0960,1783189793.8360,1,1,4.0000,0.0000,1.44682,0.23133,-2.77798,0.97581,1.57080,0.00000,-0.14512,-0.38003,0.04602,,,,,,,,,,,,,,,,,,,,,,,,,,0,0,0,0,0
1.1245,1783189793.8645,1,1,4.0000,0.0000,1.44682,0.23104,-2.77805,0.97618,1.57080,0.00000,-0.14512,-0.38003,0.04594,,,,,,,,,,,,,,,,,,,,,,,,,,0,0,0,0,0
1.1248,1783189793.8649,1,1,4.0000,0.0000,1.44682,0.23104,-2.77805,0.97618,1.57080,0.00000,-0.14512,-0.38003,0.04594,,,,,,,,,,,,,,,,,,,,,,,,,,0,0,0,0,0
1.1685,1783189793.9085,1,1,4.0000,0.0000,1.44682,0.23061,-2.77816,0.97672,1.57080,0.00000,-0.14512,-0.38003,0.04583,,,,,,,,,,,,,,,,,,,,,,,,,,0,0,0,0,0
1.1687,1783189793.9087,1,1,4.0000,0.0000,1.44682,0.23061,-2.77816,0.97672,1.57080,0.00000,-0.14512,-0.38003,0.04583,,,,,,,,,,,,,,,,,,,,,,,,,,0,0,0,0,0
1.1735,1783189793.9135,1,1,4.0000,0.0000,1.44682,0.23058,-2.77817,0.97675,1.57080,0.00000,-0.14512,-0.38003,0.04582,,,,,,,,,,,,,,,,,,,,,,,,,,0,0,0,0,0
1.1737,1783189793.9138,1,1,4.0000,0.0000,1.44682,0.23058,-2.77817,0.97675,1.57080,0.00000,-0.14512,-0.38003,0.04582,,,,,,,,,,,,,,,,,,,,,,,,,,0,0,0,0,0
1.1741,1783189793.9141,1,1,4.0000,0.0000,1.44682,0.23058,-2.77817,0.97675,1.57080,0.00000,-0.14512,-0.38003,0.04582,,,,,,,,,,,,,,,,,,,,,,,,,,0,0,0,0,0
1.1743,1783189793.9143,1,1,4.0000,0.0000,1.44682,0.23058,-2.77817,0.97675,1.57080,0.00000,-0.14512,-0.38003,0.04582,,,,,,,,,,,,,,,,,,,,,,,,,,0,0,0,0,0
1.1760,1783189793.9161,1,1,4.0000,0.0000,1.44682,0.23055,-2.77818,0.97680,1.57080,0.00000,-0.14512,-0.38003,0.04581,,,,,,,,,,,,,,,,,,,,,,,,,,0,0,0,0,0
1.1813,1783189793.9213,1,1,4.0000,0.0000,1.44682,0.23050,-2.77819,0.97686,1.57080,0.00000,-0.14512,-0.38003,0.04580,,,,,,,,,,,,,,,,,,,,,,,,,,0,0,0,0,0
1.1816,1783189793.9216,1,1,4.0000,0.0000,1.44682,0.23050,-2.77819,0.97686,1.57080,0.00000,-0.14512,-0.38003,0.04580,,,,,,,,,,,,,,,,,,,,,,,,,,0,0,0,0,0
1.1908,1783189793.9309,1,1,4.0000,0.0000,1.44682,0.23039,-2.77822,0.97700,1.57080,0.00000,-0.14512,-0.38003,0.04577,,,,,,,,,,,,,,,,,,,,,,,,,,0,0,0,0,0
1.2314,1783189793.9715,1,1,4.0000,0.0000,1.44682,0.23001,-2.77832,0.97747,1.57080,0.00000,-0.14512,-0.38003,0.04567,,,,,,,,,,,,,,,,,,,,,,,,,,0,0,0,0,0
1.2374,1783189793.9774,1,1,4.0000,0.0000,1.44682,0.22995,-2.77833,0.97755,1.57080,0.00000,-0.14512,-0.38003,0.04566,,,,,,,,,,,,,,,,,,,,,,,,,,0,0,0,0,0
1.2377,1783189793.9777,1,1,4.0000,0.0000,1.44682,0.22995,-2.77833,0.97755,1.57080,0.00000,-0.14512,-0.38003,0.04566,,,,,,,,,,,,,,,,,,,,,,,,,,0,0,0,0,0
1.2381,1783189793.9781,1,1,4.0000,0.0000,1.44682,0.22995,-2.77833,0.97755,1.57080,0.00000,-0.14512,-0.38003,0.04566,,,,,,,,,,,,,,,,,,,,,,,,,,0,0,0,0,0
1.2383,1783189793.9784,1,1,4.0000,0.0000,1.44682,0.22995,-2.77833,0.97755,1.57080,0.00000,-0.14512,-0.38003,0.04566,,,,,,,,,,,,,,,,,,,,,,,,,,0,0,0,0,0
1.2408,1783189793.9809,1,1,4.0000,0.0000,1.44682,0.22991,-2.77834,0.97761,1.57080,0.00000,-0.14512,-0.38003,0.04565,,,,,,,,,,,,,,,,,,,,,,,,,,0,0,0,0,0
1.2411,1783189793.9811,1,1,4.0000,0.0000,1.44682,0.22991,-2.77834,0.97761,1.57080,0.00000,-0.14512,-0.38003,0.04565,,,,,,,,,,,,,,,,,,,,,,,,,,0,0,0,0,0
1.2559,1783189793.9959,1,1,4.0000,0.0000,1.44682,0.22978,-2.77838,0.97776,1.57080,0.00000,-0.14512,-0.38003,0.04561,,,,,,,,,,,,,,,,,,,,,,,,,,0,0,0,0,0
1.2631,1783189794.0031,1,1,4.0000,0.0000,1.44682,0.22975,-2.77838,0.97781,1.57080,0.00000,-0.14512,-0.38003,0.04561,,,,,,,,,,,,,,,,,,,,,,,,,,0,0,0,0,0
1.2638,1783189794.0038,1,1,4.0000,0.0000,1.44682,0.22970,-2.77840,0.97787,1.57080,0.00000,-0.14512,-0.38003,0.04559,,,,,,,,,,,,,,,,,,,,,,,,,,0,0,0,0,0
1.2713,1783189794.0113,1,1,4.0000,0.0000,1.44682,0.22963,-2.77841,0.97795,1.57080,0.00000,-0.14512,-0.38003,0.04558,,,,,,,,,,,,,,,,,,,,,,,,,,0,0,0,0,0
1.2720,1783189794.0120,1,1,4.0000,0.0000,1.44682,0.22957,-2.77843,0.97804,1.57080,0.00000,-0.14512,-0.38003,0.04556,,,,,,,,,,,,,,,,,,,,,,,,,,0,0,0,0,0
1.2814,1783189794.0214,1,1,4.0000,0.0000,1.44682,0.22943,-2.77847,0.97821,1.57080,0.00000,-0.14512,-0.38003,0.04552,,,,,,,,,,,,,,,,,,,,,,,,,,0,0,0,0,0
1.2817,1783189794.0217,1,1,4.0000,0.0000,1.44682,0.22943,-2.77847,0.97821,1.57080,0.00000,-0.14512,-0.38003,0.04552,,,,,,,,,,,,,,,,,,,,,,,,,,0,0,0,0,0
1.2956,1783189794.0357,1,1,4.0000,0.0000,1.44682,0.22936,-2.77848,0.97830,1.57080,0.00000,-0.14512,-0.38003,0.04550,,,,,,,,,,,,,,,,,,,,,,,,,,0,0,0,0,0
1.2958,1783189794.0359,1,1,4.0000,0.0000,1.44682,0.22936,-2.77848,0.97830,1.57080,0.00000,-0.14512,-0.38003,0.04550,,,,,,,,,,,,,,,,,,,,,,,,,,0,0,0,0,0
1.3277,1783189794.0677,1,1,4.0000,0.0000,1.44682,0.22904,-2.77857,0.97870,1.57080,0.00000,-0.14512,-0.38003,0.04542,,,,,,,,,,,,,,,,,,,,,,,,,,0,0,0,0,0
1.3279,1783189794.0680,1,1,4.0000,0.0000,1.44682,0.22904,-2.77857,0.97870,1.57080,0.00000,-0.14512,-0.38003,0.04542,,,,,,,,,,,,,,,,,,,,,,,,,,0,0,0,0,0
1.3321,1783189794.0721,1,1,4.0000,0.0000,1.44682,0.22897,-2.77858,0.97878,1.57080,0.00000,-0.14512,-0.38003,0.04540,,,,,,,,,,,,,,,,,,,,,,,,,,0,0,0,0,0
1.3411,1783189794.0811,1,1,4.0000,0.0000,1.44682,0.22883,-2.77862,0.97896,1.57080,0.00000,-0.14512,-0.38003,0.04537,,,,,,,,,,,,,,,,,,,,,,,,,,0,0,0,0,0
1.3579,1783189794.0979,1,1,4.0000,0.0000,1.44682,0.22876,-2.77864,0.97904,1.57080,0.00000,-0.14512,-0.38003,0.04535,,,,,,,,,,,,,,,,,,,,,,,,,,0,0,0,0,0
1.3636,1783189794.1037,1,1,4.0000,0.0000,1.44682,0.22866,-2.77866,0.97917,1.57080,0.00000,-0.14512,-0.38003,0.04532,,,,,,,,,,,,,,,,,,,,,,,,,,0,0,0,0,0
1.3741,1783189794.1141,1,1,4.0000,0.0000,1.44682,0.22860,-2.77868,0.97924,1.57080,0.00000,-0.14512,-0.38003,0.04531,,,,,,,,,,,,,,,,,,,,,,,,,,0,0,0,0,0
1.3807,1783189794.1207,1,1,4.0000,0.0000,1.44682,0.22856,-2.77869,0.97930,1.57080,0.00000,-0.14512,-0.38003,0.04530,,,,,,,,,,,,,,,,,,,,,,,,,,0,0,0,0,0
1.3810,1783189794.1210,1,1,4.0000,0.0000,1.44682,0.22856,-2.77869,0.97930,1.57080,0.00000,-0.14512,-0.38003,0.04530,,,,,,,,,,,,,,,,,,,,,,,,,,0,0,0,0,0
1.3926,1783189794.1326,1,1,4.0000,0.0000,1.44682,0.22837,-2.77874,0.97953,1.57080,0.00000,-0.14512,-0.38003,0.04525,,,,,,,,,,,,,,,,,,,,,,,,,,0,0,0,0,0
1.4009,1783189794.1410,1,1,4.0000,0.0000,1.44682,0.22823,-2.77877,0.97971,1.57080,0.00000,-0.14512,-0.38003,0.04521,,,,,,,,,,,,,,,,,,,,,,,,,,0,0,0,0,0
1.4167,1783189794.1567,1,1,4.0000,0.0000,1.44682,0.22816,-2.77879,0.97979,1.57080,0.00000,-0.14512,-0.38003,0.04519,,,,,,,,,,,,,,,,,,,,,,,,,,0,0,0,0,0
1.4209,1783189794.1610,1,1,4.0000,0.0000,1.44682,0.22812,-2.77880,0.97985,1.57080,0.00000,-0.14512,-0.38003,0.04518,,,,,,,,,,,,,,,,,,,,,,,,,,0,0,0,0,0
1.4344,1783189794.1744,1,1,4.0000,0.0000,1.44682,0.22801,-2.77883,0.97999,1.57080,0.00000,-0.14512,-0.38003,0.04515,,,,,,,,,,,,,,,,,,,,,,,,,,0,0,0,0,0
1.4428,1783189794.1829,1,1,4.0000,0.0000,1.44682,0.22796,-2.77884,0.98005,1.57080,0.00000,-0.14512,-0.38003,0.04514,,,,,,,,,,,,,,,,,,,,,,,,,,0,0,0,0,0
1.4534,1783189794.1934,1,1,4.0000,0.0000,1.44682,0.22778,-2.77889,0.98028,1.57080,0.00000,-0.14512,-0.38003,0.04509,,,,,,,,,,,,,,,,,,,,,,,,,,0,0,0,0,0
1.4631,1783189794.2031,1,1,4.0000,0.0000,1.44682,0.22764,-2.77892,0.98046,1.57080,0.00000,-0.14512,-0.38003,0.04506,,,,,,,,,,,,,,,,,,,,,,,,,,0,0,0,0,0
1.4637,1783189794.2037,1,1,4.0000,0.0000,1.44682,0.22764,-2.77892,0.98046,1.57080,0.00000,-0.14512,-0.38003,0.04506,,,,,,,,,,,,,,,,,,,,,,,,,,0,0,0,0,0
1.4764,1783189794.2165,1,1,4.0000,0.0000,1.44682,0.22754,-2.77895,0.98057,1.57080,0.00000,-0.14512,-0.38003,0.04503,,,,,,,,,,,,,,,,,,,,,,,,,,0,0,0,0,0
1.4809,1783189794.2209,1,1,4.0000,0.0000,1.44682,0.22748,-2.77896,0.98065,1.57080,0.00000,-0.14512,-0.38003,0.04502,,,,,,,,,,,,,,,,,,,,,,,,,,0,0,0,0,0
1.4909,1783189794.2309,1,1,4.0000,0.0000,1.44682,0.22734,-2.77900,0.98082,1.57080,0.00000,-0.14512,-0.38003,0.04498,,,,,,,,,,,,,,,,,,,,,,,,,,0,0,0,0,0
1.5027,1783189794.2427,1,1,4.0000,0.0000,1.44682,0.22730,-2.77901,0.98088,1.57080,0.00000,-0.14512,-0.38003,0.04497,,,,,,,,,,,,,,,,,,,,,,,,,,0,0,0,0,0
1.5030,1783189794.2431,1,1,4.0000,0.0000,1.44682,0.22730,-2.77901,0.98088,1.57080,0.00000,-0.14512,-0.38003,0.04497,,,,,,,,,,,,,,,,,,,,,,,,,,0,0,0,0,0
1.5190,1783189794.2590,1,1,4.0000,0.0000,1.44682,0.22705,-2.77907,0.98119,1.57080,0.00001,-0.14512,-0.38003,0.04491,,,,,,,,,,,,,,,,,,,,,,,,,,0,0,0,0,0
1.5254,1783189794.2654,1,1,4.0000,0.0000,1.44682,0.22698,-2.77909,0.98127,1.57080,0.00001,-0.14512,-0.38003,0.04489,,,,,,,,,,,,,,,,,,,,,,,,,,0,0,0,0,0
1.5320,1783189794.2720,1,1,4.0000,0.0000,1.44682,0.22694,-2.77910,0.98133,1.57080,0.00001,-0.14512,-0.38003,0.04488,,,,,,,,,,,,,,,,,,,,,,,,,,0,0,0,0,0
1.5325,1783189794.2725,1,1,4.0000,0.0000,1.44682,0.22694,-2.77910,0.98133,1.57080,0.00001,-0.14512,-0.38003,0.04488,,,,,,,,,,,,,,,,,,,,,,,,,,0,0,0,0,0
1.5411,1783189794.2811,1,1,4.0000,0.0000,1.44682,0.22683,-2.77913,0.98147,1.57080,0.00001,-0.14512,-0.38003,0.04485,,,,,,,,,,,,,,,,,,,,,,,,,,0,0,0,0,0
1.5512,1783189794.2912,1,1,4.0000,0.0000,1.44682,0.22669,-2.77916,0.98164,1.57080,0.00001,-0.14512,-0.38003,0.04481,,,,,,,,,,,,,,,,,,,,,,,,,,0,0,0,0,0
1.5637,1783189794.3037,1,1,4.0000,0.0000,1.44682,0.22660,-2.77919,0.98176,1.57080,0.00001,-0.14512,-0.38003,0.04479,,,,,,,,,,,,,,,,,,,,,,,,,,0,0,0,0,0
1.5728,1783189794.3128,1,1,4.0000,0.0000,1.44682,0.22647,-2.77922,0.98192,1.57080,0.00001,-0.14512,-0.38003,0.04475,,,,,,,,,,,,,,,,,,,,,,,,,,0,0,0,0,0
1.5812,1783189794.3213,1,1,4.0000,0.0000,1.44682,0.22633,-2.77925,0.98209,1.57080,0.00001,-0.14512,-0.38003,0.04472,,,,,,,,,,,,,,,,,,,,,,,,,,0,0,0,0,0
1.5909,1783189794.3310,1,1,4.0000,0.0000,1.44682,0.22632,-2.77926,0.98211,1.57080,0.00001,-0.14512,-0.38003,0.04472,,,,,,,,,,,,,,,,,,,,,,,,,,0,0,0,0,0
1.6040,1783189794.3440,1,1,4.0000,0.0000,1.44682,0.22611,-2.77931,0.98237,1.57080,0.00001,-0.14512,-0.38003,0.04466,,,,,,,,,,,,,,,,,,,,,,,,,,0,0,0,0,0
1.6246,1783189794.3646,1,1,4.0000,0.0000,1.44682,0.22595,-2.77935,0.98257,1.57080,0.00001,-0.14512,-0.38003,0.04462,,,,,,,,,,,,,,,,,,,,,,,,,,0,0,0,0,0
1.6264,1783189794.3664,1,1,4.0000,0.0000,1.44682,0.22595,-2.77935,0.98257,1.57080,0.00001,-0.14512,-0.38003,0.04462,,,,,,,,,,,,,,,,,,,,,,,,,,0,0,0,0,0
1.6308,1783189794.3708,1,1,4.0000,0.0000,1.44682,0.22589,-2.77937,0.98265,1.57080,0.00001,-0.14512,-0.38003,0.04460,,,,,,,,,,,,,,,,,,,,,,,,,,0,0,0,0,0
1.6313,1783189794.3713,1,1,4.0000,0.0000,1.44682,0.22589,-2.77937,0.98265,1.57080,0.00001,-0.14512,-0.38003,0.04460,,,,,,,,,,,,,,,,,,,,,,,,,,0,0,0,0,0
1.6408,1783189794.3808,1,1,4.0000,0.0000,1.44682,0.22568,-2.77942,0.98291,1.57080,0.00001,-0.14512,-0.38003,0.04455,,,,,,,,,,,,,,,,,,,,,,,,,,0,0,0,0,0
1.6511,1783189794.3911,1,1,4.0000,0.0000,1.44682,0.22567,-2.77942,0.98292,1.57080,0.00001,-0.14512,-0.38003,0.04455,,,,,,,,,,,,,,,,,,,,,,,,,,0,0,0,0,0
1.6647,1783189794.4047,1,1,4.0000,0.0000,1.44682,0.22546,-2.77948,0.98319,1.57080,0.00001,-0.14512,-0.38002,0.04449,,,,,,,,,,,,,,,,,,,,,,,,,,0,0,0,0,0
1.6650,1783189794.4051,1,1,4.0000,0.0000,1.44682,0.22546,-2.77948,0.98319,1.57080,0.00001,-0.14512,-0.38002,0.04449,,,,,,,,,,,,,,,,,,,,,,,,,,0,0,0,0,0
1.6719,1783189794.4119,1,1,4.0000,0.0000,1.44682,0.22539,-2.77949,0.98328,1.57080,0.00001,-0.14512,-0.38002,0.04447,,,,,,,,,,,,,,,,,,,,,,,,,,0,0,0,0,0
1.6810,1783189794.4210,1,1,4.0000,0.0000,1.44682,0.22534,-2.77950,0.98333,1.57080,0.00001,-0.14512,-0.38002,0.04446,,,,,,,,,,,,,,,,,,,,,,,,,,0,0,0,0,0
1.6910,1783189794.4310,1,1,4.0000,0.0000,1.44682,0.22523,-2.77953,0.98347,1.57080,0.00001,-0.14512,-0.38002,0.04443,,,,,,,,,,,,,,,,,,,,,,,,,,0,0,0,0,0
1.7051,1783189794.4451,1,1,4.0000,0.0000,1.44682,0.22503,-2.77958,0.98373,1.57080,0.00001,-0.14512,-0.38002,0.04438,,,,,,,,,,,,,,,,,,,,,,,,,,0,0,0,0,0
1.7119,1783189794.4520,1,1,4.0000,0.0000,1.44682,0.22498,-2.77960,0.98378,1.57080,0.00001,-0.14512,-0.38002,0.04437,,,,,,,,,,,,,,,,,,,,,,,,,,0,0,0,0,0
1.7237,1783189794.4637,1,1,4.0000,0.0000,1.44682,0.22480,-2.77964,0.98401,1.57080,0.00001,-0.14512,-0.38002,0.04432,,,,,,,,,,,,,,,,,,,,,,,,,,0,0,0,0,0
1.7239,1783189794.4640,1,1,4.0000,0.0000,1.44682,0.22480,-2.77964,0.98401,1.57080,0.00001,-0.14512,-0.38002,0.04432,,,,,,,,,,,,,,,,,,,,,,,,,,0,0,0,0,0
1.7348,1783189794.4749,1,1,4.0000,0.0000,1.44682,0.22466,-2.77968,0.98418,1.57080,0.00001,-0.14512,-0.38002,0.04429,,,,,,,,,,,,,,,,,,,,,,,,,,0,0,0,0,0
1.7351,1783189794.4751,1,1,4.0000,0.0000,1.44682,0.22466,-2.77968,0.98418,1.57080,0.00001,-0.14512,-0.38002,0.04429,,,,,,,,,,,,,,,,,,,,,,,,,,0,0,0,0,0
1.7411,1783189794.4811,1,1,4.0000,0.0000,1.44682,0.22466,-2.77968,0.98419,1.57080,0.00001,-0.14512,-0.38002,0.04428,,,,,,,,,,,,,,,,,,,,,,,,,,0,0,0,0,0
1.7528,1783189794.4928,1,1,4.0000,0.0000,1.44682,0.22455,-2.77971,0.98433,1.57080,0.00001,-0.14512,-0.38002,0.04426,,,,,,,,,,,,,,,,,,,,,,,,,,0,0,0,0,0
1.7674,1783189794.5074,1,1,4.0000,0.0000,1.44682,0.22443,-2.77973,0.98447,1.57080,0.00001,-0.14512,-0.38002,0.04423,,,,,,,,,,,,,,,,,,,,,,,,,,0,0,0,0,0
1.7719,1783189794.5119,1,1,4.0000,0.0000,1.44682,0.22442,-2.77974,0.98448,1.57080,0.00001,-0.14512,-0.38002,0.04422,,,,,,,,,,,,,,,,,,,,,,,,,,0,0,0,0,0
1.7725,1783189794.5125,1,1,4.0000,0.0000,1.44682,0.22439,-2.77975,0.98453,1.57080,0.00001,-0.14512,-0.38002,0.04422,,,,,,,,,,,,,,,,,,,,,,,,,,0,0,0,0,0
1.7837,1783189794.5237,1,1,4.0000,0.0000,1.44682,0.22420,-2.77979,0.98476,1.57080,0.00001,-0.14512,-0.38002,0.04417,,,,,,,,,,,,,,,,,,,,,,,,,,0,0,0,0,0
1.7921,1783189794.5322,1,1,4.0000,0.0000,1.44682,0.22406,-2.77983,0.98493,1.57080,0.00001,-0.14512,-0.38002,0.04413,,,,,,,,,,,,,,,,,,,,,,,,,,0,0,0,0,0
1.8047,1783189794.5447,1,1,4.0000,0.0000,1.44682,0.22403,-2.77984,0.98497,1.57080,0.00001,-0.14512,-0.38002,0.04412,,,,,,,,,,,,,,,,,,,,,,,,,,0,0,0,0,0
1.8107,1783189794.5507,1,1,4.0000,0.0000,1.44682,0.22399,-2.77984,0.98502,1.57080,0.00001,-0.14512,-0.38002,0.04411,,,,,,,,,,,,,,,,,,,,,,,,,,0,0,0,0,0
1.8110,1783189794.5511,1,1,4.0000,0.0000,1.44682,0.22399,-2.77984,0.98502,1.57080,0.00001,-0.14512,-0.38002,0.04411,,,,,,,,,,,,,,,,,,,,,,,,,,0,0,0,0,0
1.8278,1783189794.5678,1,1,4.0000,0.0000,1.44682,0.22382,-2.77989,0.98524,1.57080,0.00001,-0.14512,-0.38002,0.04407,,,,,,,,,,,,,,,,,,,,,,,,,,0,0,0,0,0
1.8308,1783189794.5708,1,1,4.0000,0.0000,1.44682,0.22382,-2.77989,0.98524,1.57080,0.00001,-0.14512,-0.38002,0.04407,,,,,,,,,,,,,,,,,,,,,,,,,,0,0,0,0,0
1.8312,1783189794.5712,1,1,4.0000,0.0000,1.44682,0.22382,-2.77989,0.98524,1.57080,0.00001,-0.14512,-0.38002,0.04407,,,,,,,,,,,,,,,,,,,,,,,,,,0,0,0,0,0
1.8410,1783189794.5811,1,1,4.0000,0.0000,1.44682,0.22367,-2.77993,0.98542,1.57080,0.00001,-0.14512,-0.38002,0.04403,,,,,,,,,,,,,,,,,,,,,,,,,,0,0,0,0,0
1.8544,1783189794.5944,1,1,4.0000,0.0000,1.44682,0.22346,-2.77998,0.98569,1.57080,0.00001,-0.14512,-0.38002,0.04398,,,,,,,,,,,,,,,,,,,,,,,,,,0,0,0,0,0
1.8730,1783189794.6130,1,1,4.0000,0.0000,1.44682,0.22335,-2.78001,0.98583,1.57080,0.00001,-0.14512,-0.38002,0.04395,,,,,,,,,,,,,,,,,,,,,,,,,,0,0,0,0,0
1.8782,1783189794.6182,1,1,4.0000,0.0000,1.44682,0.22329,-2.78002,0.98590,1.57080,0.00001,-0.14512,-0.38002,0.04393,,,,,,,,,,,,,,,,,,,,,,,,,,0,0,0,0,0
1.8785,1783189794.6185,1,1,4.0000,0.0000,1.44682,0.22329,-2.78002,0.98590,1.57080,0.00001,-0.14512,-0.38002,0.04393,,,,,,,,,,,,,,,,,,,,,,,,,,0,0,0,0,0
1.8859,1783189794.6260,1,1,4.0000,0.0000,1.44682,0.22323,-2.78004,0.98597,1.57080,0.00001,-0.14512,-0.38002,0.04392,,,,,,,,,,,,,,,,,,,,,,,,,,0,0,0,0,0
1.8863,1783189794.6263,1,1,4.0000,0.0000,1.44682,0.22323,-2.78004,0.98597,1.57080,0.00001,-0.14512,-0.38002,0.04392,,,,,,,,,,,,,,,,,,,,,,,,,,0,0,0,0,0
1.8909,1783189794.6309,1,1,4.0000,0.0000,1.44682,0.22322,-2.78004,0.98599,1.57080,0.00001,-0.14512,-0.38002,0.04391,,,,,,,,,,,,,,,,,,,,,,,,,,0,0,0,0,0
1.9031,1783189794.6432,1,1,4.0000,0.0000,1.44682,0.22307,-2.78008,0.98617,1.57080,0.00001,-0.14512,-0.38002,0.04388,,,,,,,,,,,,,,,,,,,,,,,,,,0,0,0,0,0
1.9165,1783189794.6566,1,1,4.0000,0.0000,1.44682,0.22286,-2.78013,0.98644,1.57080,0.00001,-0.14512,-0.38002,0.04382,,,,,,,,,,,,,,,,,,,,,,,,,,0,0,0,0,0
1.9271,1783189794.6671,1,1,4.0000,0.0000,1.44682,0.22283,-2.78014,0.98648,1.57080,0.00001,-0.14512,-0.38002,0.04381,,,,,,,,,,,,,,,,,,,,,,,,,,0,0,0,0,0
1.9340,1783189794.6740,1,1,4.0000,0.0000,1.44682,0.22274,-2.78016,0.98658,1.57080,0.00001,-0.14512,-0.38002,0.04379,,,,,,,,,,,,,,,,,,,,,,,,,,0,0,0,0,0
1.9457,1783189794.6857,1,1,4.0000,0.0000,1.44681,0.22263,-2.78019,0.98672,1.57080,0.00001,-0.14512,-0.38002,0.04376,,,,,,,,,,,,,,,,,,,,,,,,,,0,0,0,0,0
1.9510,1783189794.6910,1,1,4.0000,0.0000,1.44681,0.22262,-2.78019,0.98674,1.57080,0.00001,-0.14512,-0.38002,0.04376,,,,,,,,,,,,,,,,,,,,,,,,,,0,0,0,0,0
1.9609,1783189794.7009,1,1,4.0000,0.0000,1.44681,0.22247,-2.78023,0.98693,1.57080,0.00001,-0.14512,-0.38002,0.04372,,,,,,,,,,,,,,,,,,,,,,,,,,0,0,0,0,0
1.9780,1783189794.7181,1,1,4.0000,0.0000,1.44681,0.22226,-2.78028,0.98719,1.57080,0.00001,-0.14512,-0.38002,0.04367,,,,,,,,,,,,,,,,,,,,,,,,,,0,0,0,0,0
1.9913,1783189794.7313,1,1,4.0000,0.0000,1.44681,0.22219,-2.78030,0.98728,1.57080,0.00001,-0.14512,-0.38002,0.04365,,,,,,,,,,,,,,,,,,,,,,,,,,0,0,0,0,0
2.0003,1783189794.7404,1,1,4.0000,0.0000,1.44681,0.22203,-2.78034,0.98748,1.57080,0.00001,-0.14512,-0.38002,0.04361,,,,,,,,,,,,,,,,,,,,,,,,,,0,0,0,0,0
2.0007,1783189794.7407,1,1,4.0000,0.0000,1.44681,0.22203,-2.78034,0.98748,1.57080,0.00001,-0.14512,-0.38002,0.04361,,,,,,,,,,,,,,,,,,,,,,,,,,0,0,0,0,0
2.0122,1783189794.7522,1,1,4.0000,0.0000,1.44681,0.22198,-2.78035,0.98754,1.57080,0.00001,-0.14512,-0.38002,0.04360,,,,,,,,,,,,,,,,,,,,,,,,,,0,0,0,0,0
2.0126,1783189794.7526,1,1,4.0000,0.0000,1.44681,0.22198,-2.78035,0.98754,1.57080,0.00001,-0.14512,-0.38002,0.04360,,,,,,,,,,,,,,,,,,,,,,,,,,0,0,0,0,0
2.0370,1783189794.7770,1,1,4.0000,0.0000,1.44681,0.22166,-2.78043,0.98794,1.57080,0.00001,-0.14512,-0.38002,0.04351,,,,,,,,,,,,,,,,,,,,,,,,,,0,0,0,0,0
2.0879,1783189794.8279,1,1,4.0000,0.0000,1.44681,0.22112,-2.78056,0.98861,1.57080,0.00001,-0.14512,-0.38002,0.04337,,,,,,,,,,,,,,,,,,,,,,,,,,0,0,0,0,0
2.0882,1783189794.8282,1,1,4.0000,0.0000,1.44681,0.22112,-2.78056,0.98861,1.57080,0.00001,-0.14512,-0.38002,0.04337,,,,,,,,,,,,,,,,,,,,,,,,,,0,0,0,0,0
2.0887,1783189794.8287,1,1,4.0000,0.0000,1.44681,0.22112,-2.78056,0.98861,1.57080,0.00001,-0.14512,-0.38002,0.04337,,,,,,,,,,,,,,,,,,,,,,,,,,0,0,0,0,0
2.0896,1783189794.8296,1,1,4.0000,0.0000,1.44681,0.22112,-2.78056,0.98861,1.57080,0.00001,-0.14512,-0.38002,0.04337,,,,,,,,,,,,,,,,,,,,,,,,,,0,0,0,0,0
2.0899,1783189794.8299,1,1,4.0000,0.0000,1.44681,0.22112,-2.78056,0.98861,1.57080,0.00001,-0.14512,-0.38002,0.04337,,,,,,,,,,,,,,,,,,,,,,,,,,0,0,0,0,0
2.0943,1783189794.8343,1,1,4.0000,0.0000,1.44681,0.22105,-2.78058,0.98870,1.57080,0.00001,-0.14512,-0.38002,0.04336,,,,,,,,,,,,,,,,,,,,,,,,,,0,0,0,0,0
2.0947,1783189794.8347,1,1,4.0000,0.0000,1.44681,0.22105,-2.78058,0.98870,1.57080,0.00001,-0.14512,-0.38002,0.04336,,,,,,,,,,,,,,,,,,,,,,,,,,0,0,0,0,0
2.1094,1783189794.8494,1,1,4.0000,0.0000,1.44681,0.22096,-2.78060,0.98881,1.57080,0.00001,-0.14512,-0.38002,0.04333,,,,,,,,,,,,,,,,,,,,,,,,,,0,0,0,0,0
2.1142,1783189794.8542,1,1,4.0000,0.0000,1.44681,0.22090,-2.78062,0.98889,1.57080,0.00001,-0.14512,-0.38002,0.04332,,,,,,,,,,,,,,,,,,,,,,,,,,0,0,0,0,0
2.1268,1783189794.8668,1,1,4.0000,0.0000,1.44681,0.22069,-2.78067,0.98915,1.57080,0.00001,-0.14512,-0.38002,0.04326,,,,,,,,,,,,,,,,,,,,,,,,,,0,0,0,0,0
2.1351,1783189794.8752,1,1,4.0000,0.0000,1.44681,0.22068,-2.78067,0.98916,1.57080,0.00001,-0.14512,-0.38002,0.04326,,,,,,,,,,,,,,,,,,,,,,,,,,0,0,0,0,0
2.1355,1783189794.8755,1,1,4.0000,0.0000,1.44681,0.22068,-2.78067,0.98916,1.57080,0.00001,-0.14512,-0.38002,0.04326,,,,,,,,,,,,,,,,,,,,,,,,,,0,0,0,0,0
2.1479,1783189794.8879,1,1,4.0000,0.0000,1.44681,0.22052,-2.78071,0.98937,1.57080,0.00001,-0.14512,-0.38002,0.04322,,,,,,,,,,,,,,,,,,,,,,,,,,0,0,0,0,0
2.1541,1783189794.8942,1,1,4.0000,0.0000,1.44681,0.22046,-2.78073,0.98944,1.57080,0.00001,-0.14512,-0.38002,0.04320,,,,,,,,,,,,,,,,,,,,,,,,,,0,0,0,0,0
2.1659,1783189794.9060,1,1,4.0000,0.0000,1.44681,0.22041,-2.78074,0.98950,1.57080,0.00001,-0.14512,-0.38002,0.04319,,,,,,,,,,,,,,,,,,,,,,,,,,0,0,0,0,0
2.1768,1783189794.9168,1,1,4.0000,0.0000,1.44681,0.22023,-2.78079,0.98973,1.57080,0.00001,-0.14512,-0.38002,0.04314,,,,,,,,,,,,,,,,,,,,,,,,,,0,0,0,0,0
2.1845,1783189794.9245,1,1,4.0000,0.0000,1.44681,0.22008,-2.78082,0.98991,1.57080,0.00001,-0.14512,-0.38002,0.04311,,,,,,,,,,,,,,,,,,,,,,,,,,0,0,0,0,0
2.1848,1783189794.9248,1,1,4.0000,0.0000,1.44681,0.22008,-2.78082,0.98991,1.57080,0.00001,-0.14512,-0.38002,0.04311,,,,,,,,,,,,,,,,,,,,,,,,,,0,0,0,0,0
2.1943,1783189794.9343,1,1,4.0000,0.0000,1.44681,0.22007,-2.78082,0.98992,1.57080,0.00001,-0.14512,-0.38002,0.04311,,,,,,,,,,,,,,,,,,,,,,,,,,0,0,0,0,0
2.2098,1783189794.9498,1,1,4.0000,0.0000,1.44681,0.21991,-2.78086,0.99012,1.57080,0.00001,-0.14512,-0.38002,0.04306,,,,,,,,,,,,,,,,,,,,,,,,,,0,0,0,0,0
2.2140,1783189794.9540,1,1,4.0000,0.0000,1.44681,0.21985,-2.78088,0.99019,1.57080,0.00001,-0.14512,-0.38002,0.04305,,,,,,,,,,,,,,,,,,,,,,,,,,0,0,0,0,0
2.2143,1783189794.9544,1,1,4.0000,0.0000,1.44681,0.21985,-2.78088,0.99019,1.57080,0.00001,-0.14512,-0.38002,0.04305,,,,,,,,,,,,,,,,,,,,,,,,,,0,0,0,0,0
2.2240,1783189794.9641,1,1,4.0000,0.0000,1.44681,0.21981,-2.78089,0.99025,1.57080,0.00001,-0.14512,-0.38002,0.04304,,,,,,,,,,,,,,,,,,,,,,,,,,0,0,0,0,0
2.2243,1783189794.9643,1,1,4.0000,0.0000,1.44681,0.21981,-2.78089,0.99025,1.57080,0.00001,-0.14512,-0.38002,0.04304,,,,,,,,,,,,,,,,,,,,,,,,,,0,0,0,0,0
2.2342,1783189794.9742,1,1,4.0000,0.0000,1.44681,0.21969,-2.78092,0.99040,1.57080,0.00001,-0.14512,-0.38002,0.04301,,,,,,,,,,,,,,,,,,,,,,,,,,0,0,0,0,0
2.2465,1783189794.9865,1,1,4.0000,0.0000,1.44681,0.21948,-2.78097,0.99066,1.57080,0.00001,-0.14512,-0.38002,0.04295,,,,,,,,,,,,,,,,,,,,,,,,,,0,0,0,0,0
2.2554,1783189794.9955,1,1,4.0000,0.0000,1.44681,0.21947,-2.78098,0.99068,1.57080,0.00001,-0.14512,-0.38002,0.04295,,,,,,,,,,,,,,,,,,,,,,,,,,0,0,0,0,0
2.2640,1783189795.0040,1,1,4.0000,0.0000,1.44681,0.21932,-2.78101,0.99086,1.57080,0.00001,-0.14512,-0.38002,0.04291,,,,,,,,,,,,,,,,,,,,,,,,,,0,0,0,0,0
2.2793,1783189795.0193,1,1,4.0000,0.0000,1.44681,0.21918,-2.78105,0.99103,1.57080,0.00001,-0.14512,-0.38002,0.04288,,,,,,,,,,,,,,,,,,,,,,,,,,0,0,0,0,0
2.2846,1783189795.0247,1,1,4.0000,0.0000,1.44681,0.21914,-2.78106,0.99109,1.57080,0.00001,-0.14512,-0.38002,0.04286,,,,,,,,,,,,,,,,,,,,,,,,,,0,0,0,0,0
2.2963,1783189795.0363,1,1,4.0000,0.0000,1.44681,0.21896,-2.78110,0.99131,1.57080,0.00001,-0.14512,-0.38002,0.04282,,,,,,,,,,,,,,,,,,,,,,,,,,0,0,0,0,0
2.3041,1783189795.0442,1,1,4.0000,0.0000,1.44681,0.21882,-2.78114,0.99148,1.57080,0.00001,-0.14512,-0.38002,0.04278,,,,,,,,,,,,,,,,,,,,,,,,,,0,0,0,0,0
2.3044,1783189795.0444,1,1,4.0000,0.0000,1.44681,0.21882,-2.78114,0.99148,1.57080,0.00001,-0.14512,-0.38002,0.04278,,,,,,,,,,,,,,,,,,,,,,,,,,0,0,0,0,0
2.3159,1783189795.0559,1,1,4.0000,0.0000,1.44681,0.21877,-2.78115,0.99154,1.57080,0.00001,-0.14512,-0.38002,0.04277,,,,,,,,,,,,,,,,,,,,,,,,,,0,0,0,0,0
2.3252,1783189795.0652,1,1,4.0000,0.0000,1.44681,0.21866,-2.78117,0.99168,1.57080,0.00001,-0.14512,-0.38002,0.04274,,,,,,,,,,,,,,,,,,,,,,,,,,0,0,0,0,0
2.3383,1783189795.0783,1,1,4.0000,0.0000,1.44681,0.21852,-2.78121,0.99185,1.57080,0.00001,-0.14512,-0.38002,0.04271,,,,,,,,,,,,,,,,,,,,,,,,,,0,0,0,0,0
2.3454,1783189795.0855,1,1,4.0000,0.0000,1.44681,0.21848,-2.78122,0.99191,1.57080,0.00001,-0.14512,-0.38002,0.04270,,,,,,,,,,,,,,,,,,,,,,,,,,0,0,0,0,0
2.3459,1783189795.0860,1,1,4.0000,0.0000,1.44681,0.21848,-2.78122,0.99191,1.57080,0.00001,-0.14512,-0.38002,0.04270,,,,,,,,,,,,,,,,,,,,,,,,,,0,0,0,0,0
2.3548,1783189795.0949,1,1,4.0000,0.0000,1.44681,0.21837,-2.78125,0.99205,1.57080,0.00001,-0.14512,-0.38002,0.04267,,,,,,,,,,,,,,,,,,,,,,,,,,0,0,0,0,0
2.3658,1783189795.1058,1,1,4.0000,0.0000,1.44681,0.21816,-2.78130,0.99231,1.57080,0.00001,-0.14512,-0.38002,0.04261,,,,,,,,,,,,,,,,,,,,,,,,,,0,0,0,0,0
2.4118,1783189795.1518,1,1,4.0000,0.0000,1.44681,0.21771,-2.78141,0.99287,1.57080,0.00001,-0.14512,-0.38002,0.04250,,,,,,,,,,,,,,,,,,,,,,,,,,0,0,0,0,0
2.4213,1783189795.1613,1,1,4.0000,0.0000,1.44681,0.21757,-2.78145,0.99304,1.57080,0.00001,-0.14512,-0.38002,0.04246,,,,,,,,,,,,,,,,,,,,,,,,,,0,0,0,0,0
2.4218,1783189795.1618,1,1,4.0000,0.0000,1.44681,0.21757,-2.78145,0.99304,1.57080,0.00001,-0.14512,-0.38002,0.04246,,,,,,,,,,,,,,,,,,,,,,,,,,0,0,0,0,0
2.4223,1783189795.1623,1,1,4.0000,0.0000,1.44681,0.21757,-2.78145,0.99304,1.57080,0.00001,-0.14512,-0.38002,0.04246,,,,,,,,,,,,,,,,,,,,,,,,,,0,0,0,0,0
2.4253,1783189795.1653,1,1,4.0000,0.0000,1.44681,0.21750,-2.78146,0.99313,1.57080,0.00001,-0.14512,-0.38002,0.04245,,,,,,,,,,,,,,,,,,,,,,,,,,0,0,0,0,0
2.4256,1783189795.1656,1,1,4.0000,0.0000,1.44681,0.21750,-2.78146,0.99313,1.57080,0.00001,-0.14512,-0.38002,0.04245,,,,,,,,,,,,,,,,,,,,,,,,,,0,0,0,0,0
2.4409,1783189795.1809,1,1,4.0000,0.0000,1.44681,0.21740,-2.78149,0.99325,1.57080,0.00001,-0.14512,-0.38002,0.04242,,,,,,,,,,,,,,,,,,,,,,,,,,0,0,0,0,0
2.4486,1783189795.1886,1,1,4.0000,0.0000,1.44681,0.21727,-2.78152,0.99341,1.57080,0.00001,-0.14512,-0.38002,0.04239,,,,,,,,,,,,,,,,,,,,,,,,,,0,0,0,0,0
2.4540,1783189795.1941,1,1,4.0000,0.0000,1.44681,0.21720,-2.78154,0.99350,1.57080,0.00001,-0.14512,-0.38002,0.04237,,,,,,,,,,,,,,,,,,,,,,,,,,0,0,0,0,0
2.4642,1783189795.2042,1,1,4.0000,0.0000,1.44681,0.21716,-2.78155,0.99356,1.57080,0.00001,-0.14512,-0.38002,0.04236,,,,,,,,,,,,,,,,,,,,,,,,,,0,0,0,0,0
2.4646,1783189795.2047,1,1,4.0000,0.0000,1.44681,0.21716,-2.78155,0.99356,1.57080,0.00001,-0.14512,-0.38002,0.04236,,,,,,,,,,,,,,,,,,,,,,,,,,0,0,0,0,0
2.4743,1783189795.2143,1,1,4.0000,0.0000,1.44681,0.21705,-2.78157,0.99369,1.57080,0.00001,-0.14512,-0.38002,0.04233,,,,,,,,,,,,,,,,,,,,,,,,,,0,0,0,0,0
2.4891,1783189795.2291,1,1,4.0000,0.0000,1.44681,0.21684,-2.78163,0.99395,1.57080,0.00001,-0.14512,-0.38002,0.04228,,,,,,,,,,,,,,,,,,,,,,,,,,0,0,0,0,0
2.5004,1783189795.2404,1,1,4.0000,0.0000,1.44681,0.21674,-2.78165,0.99407,1.57080,0.00001,-0.14512,-0.38002,0.04225,,,,,,,,,,,,,,,,,,,,,,,,,,0,0,0,0,0
2.5127,1783189795.2528,1,1,4.0000,0.0000,1.44681,0.21654,-2.78170,0.99432,1.57080,0.00001,-0.14512,-0.38002,0.04220,,,,,,,,,,,,,,,,,,,,,,,,,,0,0,0,0,0
2.5200,1783189795.2600,1,1,4.0000,0.0000,1.44681,0.21647,-2.78172,0.99441,1.57080,0.00001,-0.14512,-0.38002,0.04218,,,,,,,,,,,,,,,,,,,,,,,,,,0,0,0,0,0
2.5272,1783189795.2672,1,1,4.0000,0.0000,1.44681,0.21646,-2.78172,0.99442,1.57080,0.00001,-0.14512,-0.38002,0.04218,,,,,,,,,,,,,,,,,,,,,,,,,,0,0,0,0,0
2.5435,1783189795.2836,1,1,4.0000,0.0000,1.44681,0.21630,-2.78176,0.99463,1.57080,0.00001,-0.14512,-0.38002,0.04214,,,,,,,,,,,,,,,,,,,,,,,,,,0,0,0,0,0
2.5483,1783189795.2883,1,1,4.0000,0.0000,1.44681,0.21624,-2.78177,0.99470,1.57080,0.00001,-0.14512,-0.38002,0.04212,,,,,,,,,,,,,,,,,,,,,,,,,,0,0,0,0,0
2.5487,1783189795.2887,1,1,4.0000,0.0000,1.44681,0.21624,-2.78177,0.99470,1.57080,0.00001,-0.14512,-0.38002,0.04212,,,,,,,,,,,,,,,,,,,,,,,,,,0,0,0,0,0
2.5582,1783189795.2982,1,1,4.0000,0.0000,1.44681,0.21619,-2.78178,0.99476,1.57080,0.00001,-0.14512,-0.38002,0.04211,,,,,,,,,,,,,,,,,,,,,,,,,,0,0,0,0,0
2.5694,1783189795.3094,1,1,4.0000,0.0000,1.44681,0.21600,-2.78183,0.99499,1.57080,0.00001,-0.14512,-0.38002,0.04206,,,,,,,,,,,,,,,,,,,,,,,,,,0,0,0,0,0
2.5697,1783189795.3097,1,1,4.0000,0.0000,1.44681,0.21600,-2.78183,0.99499,1.57080,0.00001,-0.14512,-0.38002,0.04206,,,,,,,,,,,,,,,,,,,,,,,,,,0,0,0,0,0
2.5769,1783189795.3169,1,1,4.0000,0.0000,1.44681,0.21586,-2.78187,0.99517,1.57080,0.00001,-0.14512,-0.38002,0.04203,,,,,,,,,,,,,,,,,,,,,,,,,,0,0,0,0,0
2.5886,1783189795.3286,1,1,4.0000,0.0000,1.44681,0.21583,-2.78187,0.99521,1.57080,0.00001,-0.14512,-0.38002,0.04202,,,,,,,,,,,,,,,,,,,,,,,,,,0,0,0,0,0
2.6026,1783189795.3426,1,1,4.0000,0.0000,1.44681,0.21569,-2.78191,0.99538,1.57080,0.00001,-0.14512,-0.38002,0.04198,,,,,,,,,,,,,,,,,,,,,,,,,,0,0,0,0,0
2.6105,1783189795.3505,1,1,4.0000,0.0000,1.44681,0.21563,-2.78192,0.99546,1.57080,0.00001,-0.14512,-0.38002,0.04197,,,,,,,,,,,,,,,,,,,,,,,,,,0,0,0,0,0
2.6208,1783189795.3608,1,1,4.0000,0.0000,1.44681,0.21553,-2.78195,0.99558,1.57080,0.00001,-0.14512,-0.38002,0.04194,,,,,,,,,,,,,,,,,,,,,,,,,,0,0,0,0,0
2.6290,1783189795.3690,1,1,4.0000,0.0000,1.44681,0.21540,-2.78198,0.99575,1.57080,0.00001,-0.14512,-0.38002,0.04191,,,,,,,,,,,,,,,,,,,,,,,,,,0,0,0,0,0
2.6454,1783189795.3855,1,1,4.0000,0.0000,1.44681,0.21524,-2.78202,0.99594,1.57080,0.00001,-0.14512,-0.38002,0.04187,,,,,,,,,,,,,,,,,,,,,,,,,,0,0,0,0,0
2.6512,1783189795.3912,1,1,4.0000,0.0000,1.44681,0.21522,-2.78202,0.99597,1.57080,0.00001,-0.14512,-0.38002,0.04186,,,,,,,,,,,,,,,,,,,,,,,,,,0,0,0,0,0
2.6519,1783189795.3919,1,1,4.0000,0.0000,1.44681,0.21518,-2.78203,0.99601,1.57080,0.00001,-0.14512,-0.38002,0.04185,,,,,,,,,,,,,,,,,,,,,,,,,,0,0,0,0,0
2.6621,1783189795.4021,1,1,4.0000,0.0000,1.44681,0.21508,-2.78206,0.99614,1.57080,0.00001,-0.14512,-0.38002,0.04183,,,,,,,,,,,,,,,,,,,,,,,,,,0,0,0,0,0
2.6722,1783189795.4122,1,1,4.0000,0.0000,1.44681,0.21501,-2.78207,0.99623,1.57080,0.00001,-0.14512,-0.38002,0.04181,,,,,,,,,,,,,,,,,,,,,,,,,,0,0,0,0,0
2.6806,1783189795.4206,1,1,4.0000,0.0000,1.44681,0.21492,-2.78210,0.99634,1.57080,0.00001,-0.14512,-0.38002,0.04179,,,,,,,,,,,,,,,,,,,,,,,,,,0,0,0,0,0
2.6915,1783189795.4315,1,1,4.0000,0.0000,1.44681,0.21479,-2.78213,0.99651,1.57080,0.00001,-0.14512,-0.38002,0.04175,,,,,,,,,,,,,,,,,,,,,,,,,,0,0,0,0,0
2.7053,1783189795.4453,1,1,4.0000,0.0000,1.44681,0.21464,-2.78217,0.99670,1.57080,0.00001,-0.14512,-0.38002,0.04171,,,,,,,,,,,,,,,,,,,,,,,,,,0,0,0,0,0
2.7102,1783189795.4503,1,1,4.0000,0.0000,1.44681,0.21461,-2.78217,0.99673,1.57080,0.00001,-0.14512,-0.38002,0.04171,,,,,,,,,,,,,,,,,,,,,,,,,,0,0,0,0,0
2.7246,1783189795.4646,1,1,4.0000,0.0000,1.44681,0.21441,-2.78222,0.99697,1.57080,0.00002,-0.14512,-0.38002,0.04166,,,,,,,,,,,,,,,,,,,,,,,,,,0,0,0,0,0
2.7302,1783189795.4702,1,1,4.0000,0.0000,1.44681,0.21441,-2.78222,0.99697,1.57080,0.00002,-0.14512,-0.38002,0.04166,,,,,,,,,,,,,,,,,,,,,,,,,,0,0,0,0,0
2.7306,1783189795.4707,1,1,4.0000,0.0000,1.44681,0.21441,-2.78222,0.99697,1.57080,0.00002,-0.14512,-0.38002,0.04166,,,,,,,,,,,,,,,,,,,,,,,,,,0,0,0,0,0
2.7459,1783189795.4859,1,1,4.0000,0.0000,1.44681,0.21425,-2.78226,0.99718,1.57080,0.00002,-0.14512,-0.38002,0.04162,,,,,,,,,,,,,,,,,,,,,,,,,,0,0,0,0,0
2.7536,1783189795.4937,1,1,4.0000,0.0000,1.44681,0.21411,-2.78229,0.99736,1.57080,0.00002,-0.14512,-0.38002,0.04158,,,,,,,,,,,,,,,,,,,,,,,,,,0,0,0,0,0
2.7603,1783189795.5003,1,1,4.0000,0.0000,1.44681,0.21404,-2.78231,0.99744,1.57080,0.00002,-0.14512,-0.38002,0.04156,,,,,,,,,,,,,,,,,,,,,,,,,,0,0,0,0,0
2.7701,1783189795.5101,1,1,4.0000,0.0000,1.44681,0.21400,-2.78232,0.99748,1.57080,0.00002,-0.14512,-0.38002,0.04155,,,,,,,,,,,,,,,,,,,,,,,,,,0,0,0,0,0
2.7803,1783189795.5203,1,1,4.0000,0.0000,1.44681,0.21386,-2.78235,0.99766,1.57080,0.00002,-0.14512,-0.38002,0.04152,,,,,,,,,,,,,,,,,,,,,,,,,,0,0,0,0,0
2.7805,1783189795.5205,1,1,4.0000,0.0000,1.44681,0.21386,-2.78235,0.99766,1.57080,0.00002,-0.14512,-0.38002,0.04152,,,,,,,,,,,,,,,,,,,,,,,,,,0,0,0,0,0
2.7922,1783189795.5323,1,1,4.0000,0.0000,1.44681,0.21379,-2.78237,0.99775,1.57080,0.00002,-0.14512,-0.38002,0.04150,,,,,,,,,,,,,,,,,,,,,,,,,,0,0,0,0,0
2.7926,1783189795.5326,1,1,4.0000,0.0000,1.44681,0.21379,-2.78237,0.99775,1.57080,0.00002,-0.14512,-0.38002,0.04150,,,,,,,,,,,,,,,,,,,,,,,,,,0,0,0,0,0
2.8003,1783189795.5404,1,1,4.0000,0.0000,1.44681,0.21370,-2.78239,0.99785,1.57080,0.00002,-0.14512,-0.38002,0.04148,,,,,,,,,,,,,,,,,,,,,,,,,,0,0,0,0,0
2.8100,1783189795.5501,1,1,4.0000,0.0000,1.44681,0.21357,-2.78243,0.99802,1.57080,0.00002,-0.14512,-0.38002,0.04144,,,,,,,,,,,,,,,,,,,,,,,,,,0,0,0,0,0
2.8105,1783189795.5505,1,1,4.0000,0.0000,1.44681,0.21357,-2.78243,0.99802,1.57080,0.00002,-0.14512,-0.38002,0.04144,,,,,,,,,,,,,,,,,,,,,,,,,,0,0,0,0,0
2.8248,1783189795.5648,1,1,4.0000,0.0000,1.44681,0.21342,-2.78246,0.99821,1.57080,0.00002,-0.14512,-0.38002,0.04140,,,,,,,,,,,,,,,,,,,,,,,,,,0,0,0,0,0
2.8304,1783189795.5705,1,1,4.0000,0.0000,1.44681,0.21339,-2.78247,0.99824,1.57080,0.00002,-0.14512,-0.38002,0.04140,,,,,,,,,,,,,,,,,,,,,,,,,,0,0,0,0,0
2.8498,1783189795.5898,1,1,4.0000,0.0000,1.44681,0.21319,-2.78252,0.99849,1.57080,0.00002,-0.14512,-0.38002,0.04135,,,,,,,,,,,,,,,,,,,,,,,,,,0,0,0,0,0
2.8546,1783189795.5947,1,1,4.0000,0.0000,1.44681,0.21318,-2.78252,0.99851,1.57080,0.00002,-0.14512,-0.38002,0.04134,,,,,,,,,,,,,,,,,,,,,,,,,,0,0,0,0,0
2.8549,1783189795.5949,1,1,4.0000,0.0000,1.44681,0.21318,-2.78252,0.99851,1.57080,0.00002,-0.14512,-0.38002,0.04134,,,,,,,,,,,,,,,,,,,,,,,,,,0,0,0,0,0
2.8621,1783189795.6021,1,1,4.0000,0.0000,1.44681,0.21309,-2.78254,0.99861,1.57080,0.00002,-0.14512,-0.38002,0.04132,,,,,,,,,,,,,,,,,,,,,,,,,,0,0,0,0,0
2.8722,1783189795.6122,1,1,4.0000,0.0000,1.44681,0.21289,-2.78259,0.99887,1.57080,0.00002,-0.14512,-0.38002,0.04127,,,,,,,,,,,,,,,,,,,,,,,,,,0,0,0,0,0
2.8802,1783189795.6202,1,1,4.0000,0.0000,1.44681,0.21282,-2.78261,0.99896,1.57080,0.00002,-0.14512,-0.38002,0.04125,,,,,,,,,,,,,,,,,,,,,,,,,,0,0,0,0,0
2.8806,1783189795.6206,1,1,4.0000,0.0000,1.44681,0.21282,-2.78261,0.99896,1.57080,0.00002,-0.14512,-0.38002,0.04125,,,,,,,,,,,,,,,,,,,,,,,,,,0,0,0,0,0
2.8940,1783189795.6340,1,1,4.0000,0.0000,1.44681,0.21275,-2.78263,0.99905,1.57080,0.00002,-0.14512,-0.38002,0.04123,,,,,,,,,,,,,,,,,,,,,,,,,,0,0,0,0,0
2.9008,1783189795.6408,1,1,4.0000,0.0000,1.44681,0.21264,-2.78265,0.99917,1.57080,0.00002,-0.14512,-0.38002,0.04121,,,,,,,,,,,,,,,,,,,,,,,,,,0,0,0,0,0
2.9107,1783189795.6507,1,1,4.0000,0.0000,1.44681,0.21258,-2.78267,0.99925,1.57080,0.00002,-0.14512,-0.38002,0.04119,,,,,,,,,,,,,,,,,,,,,,,,,,0,0,0,0,0
2.9111,1783189795.6511,1,1,4.0000,0.0000,1.44681,0.21258,-2.78267,0.99925,1.57080,0.00002,-0.14512,-0.38002,0.04119,,,,,,,,,,,,,,,,,,,,,,,,,,0,0,0,0,0
2.9230,1783189795.6630,1,1,4.0000,0.0000,1.44681,0.21248,-2.78269,0.99937,1.57080,0.00002,-0.14512,-0.38002,0.04117,,,,,,,,,,,,,,,,,,,,,,,,,,0,0,0,0,0
2.9325,1783189795.6725,1,1,4.0000,0.0000,1.44681,0.21228,-2.78274,0.99963,1.57080,0.00002,-0.14512,-0.38002,0.04111,,,,,,,,,,,,,,,,,,,,,,,,,,0,0,0,0,0
2.9401,1783189795.6801,1,1,4.0000,0.0000,1.44681,0.21220,-2.78276,0.99972,1.57080,0.00002,-0.14512,-0.38002,0.04110,,,,,,,,,,,,,,,,,,,,,,,,,,0,0,0,0,0
2.9406,1783189795.6806,1,1,4.0000,0.0000,1.44681,0.21220,-2.78276,0.99972,1.57080,0.00002,-0.14512,-0.38002,0.04110,,,,,,,,,,,,,,,,,,,,,,,,,,0,0,0,0,0
2.9589,1783189795.6989,1,1,4.0000,0.0000,1.44681,0.21205,-2.78280,0.99991,1.57080,0.00002,-0.14512,-0.38002,0.04106,,,,,,,,,,,,,,,,,,,,,,,,,,0,0,0,0,0
2.9617,1783189795.7017,1,1,4.0000,0.0000,1.44681,0.21198,-2.78281,1.00000,1.57080,0.00002,-0.14512,-0.38002,0.04104,,,,,,,,,,,,,,,,,,,,,,,,,,0,0,0,0,0
2.9623,1783189795.7023,1,1,4.0000,0.0000,1.44681,0.21198,-2.78281,1.00000,1.57080,0.00002,-0.14512,-0.38002,0.04104,,,,,,,,,,,,,,,,,,,,,,,,,,0,0,0,0,0
2.9750,1783189795.7150,1,1,4.0000,0.0000,1.44681,0.21189,-2.78283,1.00010,1.57080,0.00002,-0.14512,-0.38002,0.04102,,,,,,,,,,,,,,,,,,,,,,,,,,0,0,0,0,0
2.9841,1783189795.7241,1,1,4.0000,0.0000,1.44681,0.21175,-2.78287,1.00028,1.57080,0.00002,-0.14512,-0.38002,0.04098,,,,,,,,,,,,,,,,,,,,,,,,,,0,0,0,0,0
2.9844,1783189795.7244,1,1,4.0000,0.0000,1.44681,0.21175,-2.78287,1.00028,1.57080,0.00002,-0.14512,-0.38002,0.04098,,,,,,,,,,,,,,,,,,,,,,,,,,0,0,0,0,0
2.9978,1783189795.7378,1,1,4.0000,0.0000,1.44681,0.21154,-2.78292,1.00055,1.57080,0.00002,-0.14512,-0.38002,0.04093,,,,,,,,,,,,,,,,,,,,,,,,,,0,0,0,0,0
3.0014,1783189795.7414,1,1,4.0000,0.0000,1.44681,0.21154,-2.78292,1.00055,1.57080,0.00002,-0.14512,-0.38002,0.04093,,,,,,,,,,,,,,,,,,,,,,,,,,0,0,0,0,0
3.0125,1783189795.7525,1,1,4.0000,0.0000,1.44681,0.21144,-2.78294,1.00067,1.57080,0.00002,-0.14512,-0.38002,0.04090,,,,,,,,,,,,,,,,,,,,,,,,,,0,0,0,0,0
3.0242,1783189795.7642,1,1,4.0000,0.0000,1.44681,0.21124,-2.78299,1.00092,1.57080,0.00002,-0.14512,-0.38002,0.04085,,,,,,,,,,,,,,,,,,,,,,,,,,0,0,0,0,0
3.0316,1783189795.7716,1,1,4.0000,0.0000,1.44681,0.21124,-2.78299,1.00092,1.57080,0.00002,-0.14512,-0.38002,0.04085,,,,,,,,,,,,,,,,,,,,,,,,,,0,0,0,0,0
3.0324,1783189795.7724,1,1,4.0000,0.0000,1.44681,0.21123,-2.78299,1.00093,1.57080,0.00002,-0.14512,-0.38002,0.04085,,,,,,,,,,,,,,,,,,,,,,,,,,0,0,0,0,0
3.0432,1783189795.7833,1,1,4.0000,0.0000,1.44681,0.21114,-2.78301,1.00104,1.57080,0.00002,-0.14512,-0.38002,0.04083,,,,,,,,,,,,,,,,,,,,,,,,,,0,0,0,0,0
3.0530,1783189795.7930,1,1,4.0000,0.0000,1.44681,0.21094,-2.78306,1.00129,1.57080,0.00002,-0.14512,-0.38002,0.04078,,,,,,,,,,,,,,,,,,,,,,,,,,0,0,0,0,0
3.0618,1783189795.8018,1,1,4.0000,0.0000,1.44681,0.21087,-2.78308,1.00137,1.57080,0.00002,-0.14512,-0.38002,0.04076,,,,,,,,,,,,,,,,,,,,,,,,,,0,0,0,0,0
3.0744,1783189795.8144,1,1,4.0000,0.0000,1.44681,0.21078,-2.78310,1.00149,1.57080,0.00002,-0.14512,-0.38002,0.04073,,,,,,,,,,,,,,,,,,,,,,,,,,0,0,0,0,0
3.0828,1783189795.8228,1,1,4.0000,0.0000,1.44681,0.21064,-2.78314,1.00166,1.57080,0.00002,-0.14512,-0.38002,0.04070,,,,,,,,,,,,,,,,,,,,,,,,,,0,0,0,0,0
3.0985,1783189795.8385,1,1,4.0000,0.0000,1.44681,0.21053,-2.78316,1.00180,1.57080,0.00002,-0.14512,-0.38002,0.04067,,,,,,,,,,,,,,,,,,,,,,,,,,0,0,0,0,0
3.1033,1783189795.8433,1,1,4.0000,0.0000,1.44681,0.21048,-2.78318,1.00187,1.57080,0.00002,-0.14512,-0.38002,0.04066,,,,,,,,,,,,,,,,,,,,,,,,,,0,0,0,0,0
3.1146,1783189795.8546,1,1,4.0000,0.0000,1.44681,0.21027,-2.78323,1.00212,1.57080,0.00002,-0.14512,-0.38002,0.04061,,,,,,,,,,,,,,,,,,,,,,,,,,0,0,0,0,0
3.1202,1783189795.8603,1,1,4.0000,0.0000,1.44681,0.21020,-2.78324,1.00220,1.57080,0.00002,-0.14512,-0.38002,0.04059,,,,,,,,,,,,,,,,,,,,,,,,,,0,0,0,0,0
3.1367,1783189795.8767,1,1,4.0000,0.0000,1.44681,0.21005,-2.78328,1.00240,1.57080,0.00002,-0.14512,-0.38002,0.04055,,,,,,,,,,,,,,,,,,,,,,,,,,0,0,0,0,0
3.1402,1783189795.8802,1,1,4.0000,0.0000,1.44681,0.20998,-2.78330,1.00249,1.57080,0.00002,-0.14512,-0.38002,0.04053,,,,,,,,,,,,,,,,,,,,,,,,,,0,0,0,0,0
3.1405,1783189795.8805,1,1,4.0000,0.0000,1.44681,0.20998,-2.78330,1.00249,1.57080,0.00002,-0.14512,-0.38002,0.04053,,,,,,,,,,,,,,,,,,,,,,,,,,0,0,0,0,0
3.1574,1783189795.8975,1,1,4.0000,0.0000,1.44681,0.20986,-2.78333,1.00263,1.57080,0.00002,-0.14512,-0.38002,0.04050,,,,,,,,,,,,,,,,,,,,,,,,,,0,0,0,0,0
3.1640,1783189795.9040,1,1,4.0000,0.0000,1.44680,0.20975,-2.78335,1.00277,1.57080,0.00002,-0.14512,-0.38002,0.04047,,,,,,,,,,,,,,,,,,,,,,,,,,0,0,0,0,0
3.1721,1783189795.9121,1,1,4.0000,0.0000,1.44680,0.20960,-2.78339,1.00295,1.57080,0.00002,-0.14512,-0.38002,0.04044,,,,,,,,,,,,,,,,,,,,,,,,,,0,0,0,0,0
3.1807,1783189795.9207,1,1,4.0000,0.0000,1.44680,0.20954,-2.78340,1.00303,1.57079,0.00002,-0.14512,-0.38002,0.04042,,,,,,,,,,,,,,,,,,,,,,,,,,0,0,0,0,0
3.1811,1783189795.9211,1,1,4.0000,0.0000,1.44680,0.20954,-2.78340,1.00303,1.57079,0.00002,-0.14512,-0.38002,0.04042,,,,,,,,,,,,,,,,,,,,,,,,,,0,0,0,0,0
3.1904,1783189795.9304,1,1,4.0000,0.0000,1.44680,0.20949,-2.78341,1.00309,1.57079,0.00002,-0.14512,-0.38002,0.04041,,,,,,,,,,,,,,,,,,,,,,,,,,0,0,0,0,0
3.2018,1783189795.9418,1,1,4.0000,0.0000,1.44680,0.20931,-2.78346,1.00332,1.57079,0.00002,-0.14512,-0.38002,0.04036,,,,,,,,,,,,,,,,,,,,,,,,,,0,0,0,0,0
3.2108,1783189795.9508,1,1,4.0000,0.0000,1.44680,0.20923,-2.78348,1.00341,1.57079,0.00002,-0.14512,-0.38002,0.04034,,,,,,,,,,,,,,,,,,,,,,,,,,0,0,0,0,0
3.2112,1783189795.9512,1,1,4.0000,0.0000,1.44680,0.20923,-2.78348,1.00341,1.57079,0.00002,-0.14512,-0.38002,0.04034,,,,,,,,,,,,,,,,,,,,,,,,,,0,0,0,0,0
3.2201,1783189795.9601,1,1,4.0000,0.0000,1.44680,0.20914,-2.78350,1.00352,1.57079,0.00002,-0.14512,-0.38002,0.04032,,,,,,,,,,,,,,,,,,,,,,,,,,0,0,0,0,0
3.2321,1783189795.9721,1,1,4.0000,0.0000,1.44680,0.20894,-2.78355,1.00378,1.57079,0.00002,-0.14512,-0.38002,0.04027,,,,,,,,,,,,,,,,,,,,,,,,,,0,0,0,0,0
3.2404,1783189795.9804,1,1,4.0000,0.0000,1.44680,0.20887,-2.78356,1.00386,1.57079,0.00002,-0.14512,-0.38002,0.04025,,,,,,,,,,,,,,,,,,,,,,,,,,0,0,0,0,0
3.2628,1783189796.0028,1,1,4.0000,0.0000,1.44680,0.20864,-2.78362,1.00415,1.57079,0.00002,-0.14512,-0.38002,0.04019,,,,,,,,,,,,,,,,,,,,,,,,,,0,0,0,0,0
3.2631,1783189796.0031,1,1,4.0000,0.0000,1.44680,0.20864,-2.78362,1.00415,1.57079,0.00002,-0.14512,-0.38002,0.04019,,,,,,,,,,,,,,,,,,,,,,,,,,0,0,0,0,0
3.2715,1783189796.0115,1,1,4.0000,0.0000,1.44680,0.20850,-2.78365,1.00432,1.57079,0.00002,-0.14512,-0.38002,0.04016,,,,,,,,,,,,,,,,,,,,,,,,,,0,0,0,0,0
3.2721,1783189796.0121,1,1,4.0000,0.0000,1.44680,0.20850,-2.78365,1.00432,1.57079,0.00002,-0.14512,-0.38002,0.04016,,,,,,,,,,,,,,,,,,,,,,,,,,0,0,0,0,0
3.2804,1783189796.0204,1,1,4.0000,0.0000,1.44680,0.20846,-2.78366,1.00436,1.57079,0.00002,-0.14512,-0.38002,0.04015,,,,,,,,,,,,,,,,,,,,,,,,,,0,0,0,0,0
3.2807,1783189796.0207,1,1,4.0000,0.0000,1.44680,0.20846,-2.78366,1.00436,1.57079,0.00002,-0.14512,-0.38002,0.04015,,,,,,,,,,,,,,,,,,,,,,,,,,0,0,0,0,0
3.2913,1783189796.0313,1,1,4.0000,0.0000,1.44680,0.20838,-2.78368,1.00447,1.57079,0.00002,-0.14512,-0.38002,0.04013,,,,,,,,,,,,,,,,,,,,,,,,,,0,0,0,0,0
3.2916,1783189796.0317,1,1,4.0000,0.0000,1.44680,0.20838,-2.78368,1.00447,1.57079,0.00002,-0.14512,-0.38002,0.04013,,,,,,,,,,,,,,,,,,,,,,,,,,0,0,0,0,0
3.3034,1783189796.0434,1,1,4.0000,0.0000,1.44680,0.20826,-2.78371,1.00462,1.57079,0.00002,-0.14512,-0.38002,0.04010,,,,,,,,,,,,,,,,,,,,,,,,,,0,0,0,0,0
3.3109,1783189796.0509,1,1,4.0000,0.0000,1.44680,0.20821,-2.78372,1.00467,1.57079,0.00002,-0.14512,-0.38002,0.04009,,,,,,,,,,,,,,,,,,,,,,,,,,0,0,0,0,0
3.3681,1783189796.1081,1,1,4.0000,0.0000,1.44680,0.20760,-2.78387,1.00544,1.57079,0.00002,-0.14512,-0.38002,0.03993,,,,,,,,,,,,,,,,,,,,,,,,,,0,0,0,0,0
3.3685,1783189796.1085,1,1,4.0000,0.0000,1.44680,0.20760,-2.78387,1.00544,1.57079,0.00002,-0.14512,-0.38002,0.03993,,,,,,,,,,,,,,,,,,,,,,,,,,0,0,0,0,0
3.3690,1783189796.1090,1,1,4.0000,0.0000,1.44680,0.20760,-2.78387,1.00544,1.57079,0.00002,-0.14512,-0.38002,0.03993,,,,,,,,,,,,,,,,,,,,,,,,,,0,0,0,0,0
3.4171,1783189796.1571,1,1,4.0000,0.0000,1.44680,0.20703,-2.78400,1.00614,1.57079,0.00002,-0.14512,-0.38002,0.03979,,,,,,,,,,,,,,,,,,,,,,,,,,0,0,0,0,0
3.4504,1783189796.1905,1,1,4.0000,0.0000,1.44680,0.20665,-2.78410,1.00661,1.57079,0.00002,-0.14512,-0.38002,0.03969,,,,,,,,,,,,,,,,,,,,,,,,,,0,0,0,0,0
3.4508,1783189796.1908,1,1,4.0000,0.0000,1.44680,0.20665,-2.78410,1.00661,1.57079,0.00002,-0.14512,-0.38002,0.03969,,,,,,,,,,,,,,,,,,,,,,,,,,0,0,0,0,0
3.4512,1783189796.1912,1,1,4.0000,0.0000,1.44680,0.20665,-2.78410,1.00661,1.57079,0.00002,-0.14512,-0.38002,0.03969,,,,,,,,,,,,,,,,,,,,,,,,,,0,0,0,0,0
3.4515,1783189796.1915,1,1,4.0000,0.0000,1.44680,0.20665,-2.78410,1.00661,1.57079,0.00002,-0.14512,-0.38002,0.03969,,,,,,,,,,,,,,,,,,,,,,,,,,0,0,0,0,0
3.4519,1783189796.1920,1,1,4.0000,0.0000,1.44680,0.20665,-2.78410,1.00661,1.57079,0.00002,-0.14512,-0.38002,0.03969,,,,,,,,,,,,,,,,,,,,,,,,,,0,0,0,0,0
3.4740,1783189796.2141,1,1,4.0000,0.0000,1.44680,0.20647,-2.78414,1.00683,1.57079,0.00002,-0.14512,-0.38002,0.03965,,,,,,,,,,,,,,,,,,,,,,,,,,0,0,0,0,0
3.4745,1783189796.2145,1,1,4.0000,0.0000,1.44680,0.20647,-2.78414,1.00683,1.57079,0.00002,-0.14512,-0.38002,0.03965,,,,,,,,,,,,,,,,,,,,,,,,,,0,0,0,0,0
3.5145,1783189796.2545,1,1,4.0000,0.0000,1.44680,0.20603,-2.78424,1.00737,1.57079,0.00002,-0.14512,-0.38002,0.03954,,,,,,,,,,,,,,,,,,,,,,,,,,0,0,0,0,0
3.5149,1783189796.2549,1,1,4.0000,0.0000,1.44680,0.20603,-2.78424,1.00737,1.57079,0.00002,-0.14512,-0.38002,0.03954,,,,,,,,,,,,,,,,,,,,,,,,,,0,0,0,0,0
3.5153,1783189796.2553,1,1,4.0000,0.0000,1.44680,0.20603,-2.78424,1.00737,1.57079,0.00002,-0.14512,-0.38002,0.03954,,,,,,,,,,,,,,,,,,,,,,,,,,0,0,0,0,0
3.5155,1783189796.2555,1,1,4.0000,0.0000,1.44680,0.20603,-2.78424,1.00737,1.57079,0.00002,-0.14512,-0.38002,0.03954,,,,,,,,,,,,,,,,,,,,,,,,,,0,0,0,0,0
3.5161,1783189796.2561,1,1,4.0000,0.0000,1.44680,0.20602,-2.78424,1.00739,1.57079,0.00002,-0.14512,-0.38002,0.03954,,,,,,,,,,,,,,,,,,,,,,,,,,0,0,0,0,0
3.5242,1783189796.2642,1,1,4.0000,0.0000,1.44680,0.20596,-2.78426,1.00746,1.57079,0.00002,-0.14512,-0.38002,0.03952,,,,,,,,,,,,,,,,,,,,,,,,,,0,0,0,0,0
3.5306,1783189796.2706,1,1,4.0000,0.0000,1.44680,0.20591,-2.78427,1.00752,1.57079,0.00002,-0.14512,-0.38002,0.03951,,,,,,,,,,,,,,,,,,,,,,,,,,0,0,0,0,0
3.5310,1783189796.2710,1,1,4.0000,0.0000,1.44680,0.20591,-2.78427,1.00752,1.57079,0.00002,-0.14512,-0.38002,0.03951,,,,,,,,,,,,,,,,,,,,,,,,,,0,0,0,0,0
3.5443,1783189796.2843,1,1,4.0000,0.0000,1.44680,0.20578,-2.78430,1.00768,1.57079,0.00002,-0.14512,-0.38002,0.03947,,,,,,,,,,,,,,,,,,,,,,,,,,0,0,0,0,0
3.5446,1783189796.2846,1,1,4.0000,0.0000,1.44680,0.20578,-2.78430,1.00768,1.57079,0.00002,-0.14512,-0.38002,0.03947,,,,,,,,,,,,,,,,,,,,,,,,,,0,0,0,0,0
3.5502,1783189796.2902,1,1,4.0000,0.0000,1.44680,0.20575,-2.78431,1.00773,1.57079,0.00002,-0.14512,-0.38002,0.03947,,,,,,,,,,,,,,,,,,,,,,,,,,0,0,0,0,0
3.5675,1783189796.3075,1,1,4.0000,0.0000,1.44680,0.20549,-2.78437,1.00805,1.57079,0.00002,-0.14512,-0.38002,0.03940,,,,,,,,,,,,,,,,,,,,,,,,,,0,0,0,0,0
3.5703,1783189796.3103,1,1,4.0000,0.0000,1.44680,0.20542,-2.78439,1.00814,1.57079,0.00002,-0.14512,-0.38002,0.03938,,,,,,,,,,,,,,,,,,,,,,,,,,0,0,0,0,0
3.5705,1783189796.3106,1,1,4.0000,0.0000,1.44680,0.20542,-2.78439,1.00814,1.57079,0.00002,-0.14512,-0.38002,0.03938,,,,,,,,,,,,,,,,,,,,,,,,,,0,0,0,0,0
3.5805,1783189796.3205,1,1,4.0000,0.0000,1.44680,0.20538,-2.78440,1.00818,1.57079,0.00002,-0.14512,-0.38002,0.03937,,,,,,,,,,,,,,,,,,,,,,,,,,0,0,0,0,0
3.5904,1783189796.3304,1,1,4.0000,0.0000,1.44680,0.20530,-2.78442,1.00829,1.57079,0.00002,-0.14512,-0.38002,0.03935,,,,,,,,,,,,,,,,,,,,,,,,,,0,0,0,0,0
3.6021,1783189796.3421,1,1,4.0000,0.0000,1.44680,0.20518,-2.78445,1.00843,1.57079,0.00002,-0.14512,-0.38002,0.03932,,,,,,,,,,,,,,,,,,,,,,,,,,0,0,0,0,0
3.6111,1783189796.3511,1,1,4.0000,0.0000,1.44680,0.20513,-2.78446,1.00849,1.57079,0.00002,-0.14512,-0.38002,0.03931,,,,,,,,,,,,,,,,,,,,,,,,,,0,0,0,0,0
3.6114,1783189796.3514,1,1,4.0000,0.0000,1.44680,0.20513,-2.78446,1.00849,1.57079,0.00002,-0.14512,-0.38002,0.03931,,,,,,,,,,,,,,,,,,,,,,,,,,0,0,0,0,0
3.6220,1783189796.3620,1,1,4.0000,0.0000,1.44680,0.20494,-2.78450,1.00872,1.57079,0.00002,-0.14512,-0.38002,0.03926,,,,,,,,,,,,,,,,,,,,,,,,,,0,0,0,0,0
3.6313,1783189796.3714,1,1,4.0000,0.0000,1.44680,0.20480,-2.78454,1.00890,1.57079,0.00002,-0.14512,-0.38002,0.03923,,,,,,,,,,,,,,,,,,,,,,,,,,0,0,0,0,0
3.6402,1783189796.3802,1,1,4.0000,0.0000,1.44680,0.20475,-2.78455,1.00896,1.57079,0.00002,-0.14512,-0.38002,0.03922,,,,,,,,,,,,,,,,,,,,,,,,,,0,0,0,0,0
3.6407,1783189796.3807,1,1,4.0000,0.0000,1.44680,0.20475,-2.78455,1.00896,1.57079,0.00002,-0.14512,-0.38002,0.03922,,,,,,,,,,,,,,,,,,,,,,,,,,0,0,0,0,0
3.6521,1783189796.3922,1,1,4.0000,0.0000,1.44680,0.20457,-2.78459,1.00919,1.57079,0.00002,-0.14512,-0.38002,0.03917,,,,,,,,,,,,,,,,,,,,,,,,,,0,0,0,0,0
3.6677,1783189796.4077,1,1,4.0000,0.0000,1.44680,0.20448,-2.78461,1.00929,1.57079,0.00002,-0.14512,-0.38002,0.03915,,,,,,,,,,,,,,,,,,,,,,,,,,0,0,0,0,0
3.6703,1783189796.4103,1,1,4.0000,0.0000,1.44680,0.20445,-2.78462,1.00933,1.57079,0.00002,-0.14512,-0.38002,0.03914,,,,,,,,,,,,,,,,,,,,,,,,,,0,0,0,0,0
3.6844,1783189796.4244,1,1,4.0000,0.0000,1.44680,0.20419,-2.78468,1.00965,1.57079,0.00002,-0.14512,-0.38002,0.03908,,,,,,,,,,,,,,,,,,,,,,,,,,0,0,0,0,0
3.6902,1783189796.4302,1,1,4.0000,0.0000,1.44680,0.20412,-2.78470,1.00973,1.57079,0.00002,-0.14512,-0.38002,0.03906,,,,,,,,,,,,,,,,,,,,,,,,,,0,0,0,0,0
3.6907,1783189796.4307,1,1,4.0000,0.0000,1.44680,0.20412,-2.78470,1.00973,1.57079,0.00002,-0.14512,-0.38002,0.03906,,,,,,,,,,,,,,,,,,,,,,,,,,0,0,0,0,0
3.7003,1783189796.4403,1,1,4.0000,0.0000,1.44680,0.20408,-2.78471,1.00979,1.57079,0.00002,-0.14512,-0.38002,0.03905,,,,,,,,,,,,,,,,,,,,,,,,,,0,0,0,0,0
3.7006,1783189796.4406,1,1,4.0000,0.0000,1.44680,0.20408,-2.78471,1.00979,1.57079,0.00002,-0.14512,-0.38002,0.03905,,,,,,,,,,,,,,,,,,,,,,,,,,0,0,0,0,0
3.7128,1783189796.4529,1,1,4.0000,0.0000,1.44680,0.20389,-2.78475,1.01002,1.57079,0.00002,-0.14512,-0.38002,0.03900,,,,,,,,,,,,,,,,,,,,,,,,,,0,0,0,0,0
3.7214,1783189796.4614,1,1,4.0000,0.0000,1.44680,0.20382,-2.78477,1.01011,1.57079,0.00002,-0.14512,-0.38002,0.03898,,,,,,,,,,,,,,,,,,,,,,,,,,0,0,0,0,0
3.7301,1783189796.4702,1,1,4.0000,0.0000,1.44680,0.20378,-2.78478,1.01017,1.57079,0.00002,-0.14512,-0.38002,0.03897,,,,,,,,,,,,,,,,,,,,,,,,,,0,0,0,0,0
3.7305,1783189796.4705,1,1,4.0000,0.0000,1.44680,0.20378,-2.78478,1.01017,1.57079,0.00002,-0.14512,-0.38002,0.03897,,,,,,,,,,,,,,,,,,,,,,,,,,0,0,0,0,0
3.7501,1783189796.4901,1,1,4.0000,0.0000,1.44680,0.20345,-2.78486,1.01057,1.57079,0.00002,-0.14512,-0.38002,0.03889,,,,,,,,,,,,,,,,,,,,,,,,,,0,0,0,0,0
3.7553,1783189796.4953,1,1,4.0000,0.0000,1.44680,0.20345,-2.78486,1.01057,1.57079,0.00002,-0.14512,-0.38002,0.03889,,,,,,,,,,,,,,,,,,,,,,,,,,0,0,0,0,0
3.7744,1783189796.5144,1,1,4.0000,0.0000,1.44680,0.20322,-2.78491,1.01085,1.57079,0.00002,-0.14512,-0.38002,0.03883,,,,,,,,,,,,,,,,,,,,,,,,,,0,0,0,0,0
3.7812,1783189796.5212,1,1,4.0000,0.0000,1.44680,0.20308,-2.78494,1.01103,1.57079,0.00002,-0.14512,-0.38002,0.03880,,,,,,,,,,,,,,,,,,,,,,,,,,0,0,0,0,0
3.7905,1783189796.5305,1,1,4.0000,0.0000,1.44680,0.20307,-2.78495,1.01104,1.57079,0.00002,-0.14512,-0.38002,0.03879,,,,,,,,,,,,,,,,,,,,,,,,,,0,0,0,0,0
3.8012,1783189796.5412,1,1,4.0000,0.0000,1.44680,0.20296,-2.78497,1.01118,1.57079,0.00002,-0.14512,-0.38001,0.03877,,,,,,,,,,,,,,,,,,,,,,,,,,0,0,0,0,0
3.8152,1783189796.5552,1,1,4.0000,0.0000,1.44680,0.20284,-2.78500,1.01132,1.57079,0.00002,-0.14512,-0.38001,0.03874,,,,,,,,,,,,,,,,,,,,,,,,,,0,0,0,0,0
3.8221,1783189796.5621,1,1,4.0000,0.0000,1.44680,0.20279,-2.78501,1.01138,1.57079,0.00002,-0.14512,-0.38001,0.03872,,,,,,,,,,,,,,,,,,,,,,,,,,0,0,0,0,0
3.8314,1783189796.5714,1,1,4.0000,0.0000,1.44680,0.20267,-2.78504,1.01153,1.57079,0.00002,-0.14512,-0.38001,0.03869,,,,,,,,,,,,,,,,,,,,,,,,,,0,0,0,0,0
3.8462,1783189796.5862,1,1,4.0000,0.0000,1.44680,0.20246,-2.78509,1.01180,1.57079,0.00002,-0.14512,-0.38001,0.03864,,,,,,,,,,,,,,,,,,,,,,,,,,0,0,0,0,0
3.8550,1783189796.5951,1,1,4.0000,0.0000,1.44680,0.20242,-2.78510,1.01184,1.57079,0.00002,-0.14512,-0.38001,0.03863,,,,,,,,,,,,,,,,,,,,,,,,,,0,0,0,0,0
3.8618,1783189796.6018,1,1,4.0000,0.0000,1.44680,0.20234,-2.78512,1.01195,1.57079,0.00002,-0.14512,-0.38001,0.03861,,,,,,,,,,,,,,,,,,,,,,,,,,0,0,0,0,0
3.8746,1783189796.6146,1,1,4.0000,0.0000,1.44680,0.20222,-2.78515,1.01209,1.57079,0.00002,-0.14512,-0.38001,0.03858,,,,,,,,,,,,,,,,,,,,,,,,,,0,0,0,0,0
3.8805,1783189796.6205,1,1,4.0000,0.0000,1.44680,0.20217,-2.78516,1.01215,1.57079,0.00002,-0.14512,-0.38001,0.03857,,,,,,,,,,,,,,,,,,,,,,,,,,0,0,0,0,0
3.8809,1783189796.6209,1,1,4.0000,0.0000,1.44680,0.20217,-2.78516,1.01215,1.57079,0.00002,-0.14512,-0.38001,0.03857,,,,,,,,,,,,,,,,,,,,,,,,,,0,0,0,0,0
3.8917,1783189796.6317,1,1,4.0000,0.0000,1.44680,0.20205,-2.78519,1.01229,1.57079,0.00002,-0.14512,-0.38001,0.03854,,,,,,,,,,,,,,,,,,,,,,,,,,0,0,0,0,0
3.8923,1783189796.6323,1,1,4.0000,0.0000,1.44680,0.20198,-2.78520,1.01238,1.57079,0.00002,-0.14512,-0.38001,0.03852,,,,,,,,,,,,,,,,,,,,,,,,,,0,0,0,0,0
3.9042,1783189796.6442,1,1,4.0000,0.0000,1.44680,0.20184,-2.78524,1.01256,1.57079,0.00002,-0.14512,-0.38001,0.03849,,,,,,,,,,,,,,,,,,,,,,,,,,0,0,0,0,0
3.9216,1783189796.6617,1,1,4.0000,0.0000,1.44680,0.20172,-2.78526,1.01271,1.57079,0.00002,-0.14512,-0.38001,0.03846,,,,,,,,,,,,,,,,,,,,,,,,,,0,0,0,0,0
3.9239,1783189796.6639,1,1,4.0000,0.0000,1.44680,0.20166,-2.78528,1.01278,1.57079,0.00002,-0.14512,-0.38001,0.03844,,,,,,,,,,,,,,,,,,,,,,,,,,0,0,0,0,0
3.9242,1783189796.6642,1,1,4.0000,0.0000,1.44680,0.20166,-2.78528,1.01278,1.57079,0.00002,-0.14512,-0.38001,0.03844,,,,,,,,,,,,,,,,,,,,,,,,,,0,0,0,0,0
3.9342,1783189796.6742,1,1,4.0000,0.0000,1.44680,0.20160,-2.78529,1.01286,1.57079,0.00002,-0.14512,-0.38001,0.03843,,,,,,,,,,,,,,,,,,,,,,,,,,0,0,0,0,0
3.9403,1783189796.6804,1,1,4.0000,0.0000,1.44680,0.20155,-2.78530,1.01292,1.57079,0.00002,-0.14512,-0.38001,0.03841,,,,,,,,,,,,,,,,,,,,,,,,,,0,0,0,0,0
3.9407,1783189796.6808,1,1,4.0000,0.0000,1.44680,0.20155,-2.78530,1.01292,1.57079,0.00002,-0.14512,-0.38001,0.03841,,,,,,,,,,,,,,,,,,,,,,,,,,0,0,0,0,0
3.9533,1783189796.6933,1,1,4.0000,0.0000,1.44680,0.20136,-2.78535,1.01315,1.57079,0.00003,-0.14512,-0.38001,0.03837,,,,,,,,,,,,,,,,,,,,,,,,,,0,0,0,0,0
3.9610,1783189796.7010,1,1,4.0000,0.0000,1.44680,0.20122,-2.78538,1.01333,1.57079,0.00003,-0.14512,-0.38001,0.03833,,,,,,,,,,,,,,,,,,,,,,,,,,0,0,0,0,0
3.9812,1783189796.7212,1,1,4.0000,0.0000,1.44680,0.20110,-2.78541,1.01348,1.57079,0.00003,-0.14512,-0.38001,0.03830,,,,,,,,,,,,,,,,,,,,,,,,,,0,0,0,0,0
3.9815,1783189796.7215,1,1,4.0000,0.0000,1.44680,0.20110,-2.78541,1.01348,1.57079,0.00003,-0.14512,-0.38001,0.03830,,,,,,,,,,,,,,,,,,,,,,,,,,0,0,0,0,0
3.9818,1783189796.7218,1,1,4.0000,0.0000,1.44680,0.20110,-2.78541,1.01348,1.57079,0.00003,-0.14512,-0.38001,0.03830,,,,,,,,,,,,,,,,,,,,,,,,,,0,0,0,0,0
3.9920,1783189796.7320,1,1,4.0000,0.0000,1.44680,0.20098,-2.78544,1.01362,1.57079,0.00003,-0.14512,-0.38001,0.03827,,,,,,,,,,,,,,,,,,,,,,,,,,0,0,0,0,0
4.0030,1783189796.7430,1,1,4.0000,0.0000,1.44680,0.20093,-2.78545,1.01368,1.57079,0.00003,-0.14512,-0.38001,0.03826,,,,,,,,,,,,,,,,,,,,,,,,,,0,0,0,0,0
4.0033,1783189796.7434,1,1,4.0000,0.0000,1.44680,0.20093,-2.78545,1.01368,1.57079,0.00003,-0.14512,-0.38001,0.03826,,,,,,,,,,,,,,,,,,,,,,,,,,0,0,0,0,0
4.0106,1783189796.7506,1,1,4.0000,0.0000,1.44680,0.20081,-2.78548,1.01383,1.57079,0.00003,-0.14512,-0.38001,0.03823,,,,,,,,,,,,,,,,,,,,,,,,,,0,0,0,0,0
4.0254,1783189796.7654,1,1,4.0000,0.0000,1.44680,0.20059,-2.78553,1.01410,1.57079,0.00003,-0.14512,-0.38001,0.03818,,,,,,,,,,,,,,,,,,,,,,,,,,0,0,0,0,0
4.0308,1783189796.7708,1,1,4.0000,0.0000,1.44680,0.20059,-2.78553,1.01411,1.57079,0.00003,-0.14512,-0.38001,0.03817,,,,,,,,,,,,,,,,,,,,,,,,,,0,0,0,0,0
4.0402,1783189796.7802,1,1,4.0000,0.0000,1.44680,0.20047,-2.78556,1.01424,1.57079,0.00003,-0.14512,-0.38001,0.03815,,,,,,,,,,,,,,,,,,,,,,,,,,0,0,0,0,0
4.0535,1783189796.7935,1,1,4.0000,0.0000,1.44680,0.20036,-2.78558,1.01439,1.57079,0.00003,-0.14512,-0.38001,0.03812,,,,,,,,,,,,,,,,,,,,,,,,,,0,0,0,0,0
4.0645,1783189796.8045,1,1,4.0000,0.0000,1.44680,0.20026,-2.78561,1.01451,1.57079,0.00003,-0.14512,-0.38001,0.03809,,,,,,,,,,,,,,,,,,,,,,,,,,0,0,0,0,0
4.0648,1783189796.8048,1,1,4.0000,0.0000,1.44680,0.20026,-2.78561,1.01451,1.57079,0.00003,-0.14512,-0.38001,0.03809,,,,,,,,,,,,,,,,,,,,,,,,,,0,0,0,0,0
4.0809,1783189796.8209,1,1,4.0000,0.0000,1.44680,0.19997,-2.78567,1.01486,1.57079,0.00003,-0.14512,-0.38001,0.03802,,,,,,,,,,,,,,,,,,,,,,,,,,0,0,0,0,0
4.0815,1783189796.8215,1,1,4.0000,0.0000,1.44680,0.19997,-2.78567,1.01486,1.57079,0.00003,-0.14512,-0.38001,0.03802,,,,,,,,,,,,,,,,,,,,,,,,,,0,0,0,0,0
4.0817,1783189796.8218,1,1,4.0000,0.0000,1.44680,0.19997,-2.78567,1.01486,1.57079,0.00003,-0.14512,-0.38001,0.03802,,,,,,,,,,,,,,,,,,,,,,,,,,0,0,0,0,0
4.0901,1783189796.8301,1,1,4.0000,0.0000,1.44680,0.19996,-2.78568,1.01487,1.57079,0.00003,-0.14512,-0.38001,0.03802,,,,,,,,,,,,,,,,,,,,,,,,,,0,0,0,0,0
4.0904,1783189796.8305,1,1,4.0000,0.0000,1.44680,0.19996,-2.78568,1.01487,1.57079,0.00003,-0.14512,-0.38001,0.03802,,,,,,,,,,,,,,,,,,,,,,,,,,0,0,0,0,0
4.1005,1783189796.8405,1,1,4.0000,0.0000,1.44680,0.19985,-2.78570,1.01501,1.57079,0.00003,-0.14512,-0.38001,0.03799,,,,,,,,,,,,,,,,,,,,,,,,,,0,0,0,0,0
4.1117,1783189796.8517,1,1,4.0000,0.0000,1.44680,0.19974,-2.78573,1.01516,1.57079,0.00003,-0.14512,-0.38001,0.03796,,,,,,,,,,,,,,,,,,,,,,,,,,0,0,0,0,0
4.1224,1783189796.8624,1,1,4.0000,0.0000,1.44680,0.19969,-2.78574,1.01522,1.57079,0.00003,-0.14512,-0.38001,0.03795,,,,,,,,,,,,,,,,,,,,,,,,,,0,0,0,0,0
4.1310,1783189796.8710,1,1,4.0000,0.0000,1.44680,0.19957,-2.78577,1.01536,1.57079,0.00003,-0.14512,-0.38001,0.03792,,,,,,,,,,,,,,,,,,,,,,,,,,0,0,0,0,0
4.1313,1783189796.8713,1,1,4.0000,0.0000,1.44680,0.19957,-2.78577,1.01536,1.57079,0.00003,-0.14512,-0.38001,0.03792,,,,,,,,,,,,,,,,,,,,,,,,,,0,0,0,0,0
4.1414,1783189796.8814,1,1,4.0000,0.0000,1.44680,0.19935,-2.78582,1.01563,1.57079,0.00003,-0.14512,-0.38001,0.03786,,,,,,,,,,,,,,,,,,,,,,,,,,0,0,0,0,0
4.1521,1783189796.8921,1,1,4.0000,0.0000,1.44680,0.19932,-2.78583,1.01567,1.57079,0.00003,-0.14512,-0.38001,0.03786,,,,,,,,,,,,,,,,,,,,,,,,,,0,0,0,0,0
4.1643,1783189796.9044,1,1,4.0000,0.0000,1.44680,0.19917,-2.78586,1.01585,1.57079,0.00003,-0.14512,-0.38001,0.03782,,,,,,,,,,,,,,,,,,,,,,,,,,0,0,0,0,0
4.1647,1783189796.9048,1,1,4.0000,0.0000,1.44680,0.19917,-2.78586,1.01585,1.57079,0.00003,-0.14512,-0.38001,0.03782,,,,,,,,,,,,,,,,,,,,,,,,,,0,0,0,0,0
4.1815,1783189796.9215,1,1,4.0000,0.0000,1.44680,0.19907,-2.78589,1.01598,1.57079,0.00003,-0.14512,-0.38001,0.03779,,,,,,,,,,,,,,,,,,,,,,,,,,0,0,0,0,0
4.1818,1783189796.9218,1,1,4.0000,0.0000,1.44680,0.19907,-2.78589,1.01598,1.57079,0.00003,-0.14512,-0.38001,0.03779,,,,,,,,,,,,,,,,,,,,,,,,,,0,0,0,0,0
4.1907,1783189796.9307,1,1,4.0000,0.0000,1.44680,0.19895,-2.78591,1.01613,1.57079,0.00003,-0.14512,-0.38001,0.03776,,,,,,,,,,,,,,,,,,,,,,,,,,0,0,0,0,0
4.2043,1783189796.9443,1,1,4.0000,0.0000,1.44680,0.19873,-2.78596,1.01640,1.57079,0.00003,-0.14512,-0.38001,0.03771,,,,,,,,,,,,,,,,,,,,,,,,,,0,0,0,0,0
4.2114,1783189796.9515,1,1,4.0000,0.0000,1.44680,0.19872,-2.78597,1.01641,1.57079,0.00003,-0.14512,-0.38001,0.03771,,,,,,,,,,,,,,,,,,,,,,,,,,0,0,0,0,0
4.2122,1783189796.9522,1,1,4.0000,0.0000,1.44680,0.19869,-2.78597,1.01644,1.57079,0.00003,-0.14512,-0.38001,0.03770,,,,,,,,,,,,,,,,,,,,,,,,,,0,0,0,0,0
4.2249,1783189796.9649,1,1,4.0000,0.0000,1.44680,0.19855,-2.78601,1.01662,1.57079,0.00003,-0.14512,-0.38001,0.03767,,,,,,,,,,,,,,,,,,,,,,,,,,0,0,0,0,0
4.2309,1783189796.9710,1,1,4.0000,0.0000,1.44680,0.19849,-2.78602,1.01669,1.57079,0.00003,-0.14512,-0.38001,0.03765,,,,,,,,,,,,,,,,,,,,,,,,,,0,0,0,0,0
4.2417,1783189796.9818,1,1,4.0000,0.0000,1.44680,0.19844,-2.78603,1.01675,1.57079,0.00003,-0.14512,-0.38001,0.03764,,,,,,,,,,,,,,,,,,,,,,,,,,0,0,0,0,0
4.2523,1783189796.9923,1,1,4.0000,0.0000,1.44680,0.19825,-2.78608,1.01699,1.57079,0.00003,-0.14512,-0.38001,0.03759,,,,,,,,,,,,,,,,,,,,,,,,,,0,0,0,0,0
4.2621,1783189797.0021,1,1,4.0000,0.0000,1.44680,0.19811,-2.78611,1.01717,1.57079,0.00003,-0.14512,-0.38001,0.03755,,,,,,,,,,,,,,,,,,,,,,,,,,0,0,0,0,0
4.2709,1783189797.0109,1,1,4.0000,0.0000,1.44680,0.19809,-2.78611,1.01718,1.57079,0.00003,-0.14512,-0.38001,0.03755,,,,,,,,,,,,,,,,,,,,,,,,,,0,0,0,0,0
4.2820,1783189797.0220,1,1,4.0000,0.0000,1.44680,0.19794,-2.78615,1.01737,1.57079,0.00003,-0.14512,-0.38001,0.03751,,,,,,,,,,,,,,,,,,,,,,,,,,0,0,0,0,0
4.2904,1783189797.0305,1,1,4.0000,0.0000,1.44680,0.19780,-2.78618,1.01754,1.57079,0.00003,-0.14512,-0.38001,0.03748,,,,,,,,,,,,,,,,,,,,,,,,,,0,0,0,0,0
4.3049,1783189797.0449,1,1,4.0000,0.0000,1.44680,0.19770,-2.78620,1.01766,1.57079,0.00003,-0.14512,-0.38001,0.03745,,,,,,,,,,,,,,,,,,,,,,,,,,0,0,0,0,0
4.3113,1783189797.0514,1,1,4.0000,0.0000,1.44680,0.19764,-2.78622,1.01774,1.57079,0.00003,-0.14512,-0.38001,0.03744,,,,,,,,,,,,,,,,,,,,,,,,,,0,0,0,0,0
4.3121,1783189797.0521,1,1,4.0000,0.0000,1.44680,0.19757,-2.78623,1.01783,1.57079,0.00003,-0.14512,-0.38001,0.03742,,,,,,,,,,,,,,,,,,,,,,,,,,0,0,0,0,0
4.3273,1783189797.0673,1,1,4.0000,0.0000,1.44680,0.19743,-2.78627,1.01800,1.57079,0.00003,-0.14512,-0.38001,0.03739,,,,,,,,,,,,,,,,,,,,,,,,,,0,0,0,0,0
4.3322,1783189797.0722,1,1,4.0000,0.0000,1.44680,0.19738,-2.78628,1.01806,1.57079,0.00003,-0.14512,-0.38001,0.03737,,,,,,,,,,,,,,,,,,,,,,,,,,0,0,0,0,0
4.3325,1783189797.0726,1,1,4.0000,0.0000,1.44680,0.19738,-2.78628,1.01806,1.57079,0.00003,-0.14512,-0.38001,0.03737,,,,,,,,,,,,,,,,,,,,,,,,,,0,0,0,0,0
4.3451,1783189797.0851,1,1,4.0000,0.0000,1.44680,0.19719,-2.78632,1.01829,1.57079,0.00003,-0.14512,-0.38001,0.03733,,,,,,,,,,,,,,,,,,,,,,,,,,0,0,0,0,0
4.3454,1783189797.0854,1,1,4.0000,0.0000,1.44680,0.19719,-2.78632,1.01829,1.57079,0.00003,-0.14512,-0.38001,0.03733,,,,,,,,,,,,,,,,,,,,,,,,,,0,0,0,0,0
4.3500,1783189797.0901,1,1,4.0000,0.0000,1.44680,0.19712,-2.78634,1.01838,1.57079,0.00003,-0.14512,-0.38001,0.03731,,,,,,,,,,,,,,,,,,,,,,,,,,0,0,0,0,0
4.3504,1783189797.0904,1,1,4.0000,0.0000,1.44680,0.19712,-2.78634,1.01838,1.57079,0.00003,-0.14512,-0.38001,0.03731,,,,,,,,,,,,,,,,,,,,,,,,,,0,0,0,0,0
4.3602,1783189797.1003,1,1,4.0000,0.0000,1.44680,0.19707,-2.78635,1.01844,1.57079,0.00003,-0.14512,-0.38001,0.03730,,,,,,,,,,,,,,,,,,,,,,,,,,0,0,0,0,0
4.3609,1783189797.1009,1,1,4.0000,0.0000,1.44680,0.19707,-2.78635,1.01844,1.57079,0.00003,-0.14512,-0.38001,0.03730,,,,,,,,,,,,,,,,,,,,,,,,,,0,0,0,0,0
4.3706,1783189797.1106,1,1,4.0000,0.0000,1.44680,0.19696,-2.78638,1.01858,1.57079,0.00003,-0.14512,-0.38001,0.03727,,,,,,,,,,,,,,,,,,,,,,,,,,0,0,0,0,0
4.3864,1783189797.1264,1,1,4.0000,0.0000,1.44680,0.19675,-2.78643,1.01884,1.57079,0.00003,-0.14512,-0.38001,0.03722,,,,,,,,,,,,,,,,,,,,,,,,,,0,0,0,0,0
4.3913,1783189797.1314,1,1,4.0000,0.0000,1.44680,0.19673,-2.78643,1.01886,1.57079,0.00003,-0.14512,-0.38001,0.03721,,,,,,,,,,,,,,,,,,,,,,,,,,0,0,0,0,0
4.4024,1783189797.1425,1,1,4.0000,0.0000,1.44680,0.19658,-2.78646,1.01904,1.57079,0.00003,-0.14512,-0.38001,0.03718,,,,,,,,,,,,,,,,,,,,,,,,,,0,0,0,0,0
4.4146,1783189797.1546,1,1,4.0000,0.0000,1.44679,0.19637,-2.78651,1.01931,1.57079,0.00003,-0.14511,-0.38001,0.03712,,,,,,,,,,,,,,,,,,,,,,,,,,0,0,0,0,0
4.4203,1783189797.1603,1,1,4.0000,0.0000,1.44679,0.19636,-2.78651,1.01932,1.57079,0.00003,-0.14511,-0.38001,0.03712,,,,,,,,,,,,,,,,,,,,,,,,,,0,0,0,0,0
4.4205,1783189797.1606,1,1,4.0000,0.0000,1.44679,0.19636,-2.78651,1.01932,1.57079,0.00003,-0.14511,-0.38001,0.03712,,,,,,,,,,,,,,,,,,,,,,,,,,0,0,0,0,0
4.4360,1783189797.1760,1,1,4.0000,0.0000,1.44679,0.19619,-2.78655,1.01953,1.57079,0.00003,-0.14511,-0.38001,0.03708,,,,,,,,,,,,,,,,,,,,,,,,,,0,0,0,0,0
4.4459,1783189797.1859,1,1,4.0000,0.0000,1.44679,0.19613,-2.78657,1.01960,1.57079,0.00003,-0.14511,-0.38001,0.03706,,,,,,,,,,,,,,,,,,,,,,,,,,0,0,0,0,0
4.4517,1783189797.1917,1,1,4.0000,0.0000,1.44679,0.19611,-2.78657,1.01962,1.57079,0.00003,-0.14511,-0.38001,0.03706,,,,,,,,,,,,,,,,,,,,,,,,,,0,0,0,0,0
4.4523,1783189797.1923,1,1,4.0000,0.0000,1.44679,0.19608,-2.78658,1.01966,1.57079,0.00003,-0.14511,-0.38001,0.03705,,,,,,,,,,,,,,,,,,,,,,,,,,0,0,0,0,0
4.4642,1783189797.2042,1,1,4.0000,0.0000,1.44679,0.19589,-2.78662,1.01990,1.57079,0.00003,-0.14511,-0.38001,0.03700,,,,,,,,,,,,,,,,,,,,,,,,,,0,0,0,0,0
4.4644,1783189797.2044,1,1,4.0000,0.0000,1.44679,0.19589,-2.78662,1.01990,1.57079,0.00003,-0.14511,-0.38001,0.03700,,,,,,,,,,,,,,,,,,,,,,,,,,0,0,0,0,0
4.4729,1783189797.2129,1,1,4.0000,0.0000,1.44679,0.19574,-2.78666,1.02008,1.57079,0.00003,-0.14511,-0.38001,0.03697,,,,,,,,,,,,,,,,,,,,,,,,,,0,0,0,0,0
4.4897,1783189797.2298,1,1,4.0000,0.0000,1.44679,0.19567,-2.78667,1.02017,1.57079,0.00003,-0.14511,-0.38001,0.03695,,,,,,,,,,,,,,,,,,,,,,,,,,0,0,0,0,0
4.4921,1783189797.2321,1,1,4.0000,0.0000,1.44679,0.19562,-2.78669,1.02023,1.57079,0.00003,-0.14511,-0.38001,0.03694,,,,,,,,,,,,,,,,,,,,,,,,,,0,0,0,0,0
4.4924,1783189797.2324,1,1,4.0000,0.0000,1.44679,0.19562,-2.78669,1.02023,1.57079,0.00003,-0.14511,-0.38001,0.03694,,,,,,,,,,,,,,,,,,,,,,,,,,0,0,0,0,0
4.5002,1783189797.2403,1,1,4.0000,0.0000,1.44679,0.19550,-2.78671,1.02037,1.57079,0.00003,-0.14511,-0.38001,0.03691,,,,,,,,,,,,,,,,,,,,,,,,,,0,0,0,0,0
4.5005,1783189797.2406,1,1,4.0000,0.0000,1.44679,0.19550,-2.78671,1.02037,1.57079,0.00003,-0.14511,-0.38001,0.03691,,,,,,,,,,,,,,,,,,,,,,,,,,0,0,0,0,0
4.5110,1783189797.2511,1,1,4.0000,0.0000,1.44679,0.19549,-2.78672,1.02039,1.57079,0.00003,-0.14511,-0.38001,0.03691,,,,,,,,,,,,,,,,,,,,,,,,,,0,0,0,0,0
4.5201,1783189797.2601,1,1,4.0000,0.0000,1.44679,0.19534,-2.78675,1.02058,1.57079,0.00003,-0.14511,-0.38001,0.03687,,,,,,,,,,,,,,,,,,,,,,,,,,0,0,0,0,0
4.5205,1783189797.2605,1,1,4.0000,0.0000,1.44679,0.19534,-2.78675,1.02058,1.57079,0.00003,-0.14511,-0.38001,0.03687,,,,,,,,,,,,,,,,,,,,,,,,,,0,0,0,0,0
4.5323,1783189797.2723,1,1,4.0000,0.0000,1.44679,0.19512,-2.78680,1.02085,1.57079,0.00003,-0.14511,-0.38001,0.03681,,,,,,,,,,,,,,,,,,,,,,,,,,0,0,0,0,0
4.5326,1783189797.2727,1,1,4.0000,0.0000,1.44679,0.19512,-2.78680,1.02085,1.57079,0.00003,-0.14511,-0.38001,0.03681,,,,,,,,,,,,,,,,,,,,,,,,,,0,0,0,0,0
4.5411,1783189797.2812,1,1,4.0000,0.0000,1.44679,0.19511,-2.78680,1.02086,1.57079,0.00003,-0.14511,-0.38001,0.03681,,,,,,,,,,,,,,,,,,,,,,,,,,0,0,0,0,0
4.5415,1783189797.2815,1,1,4.0000,0.0000,1.44679,0.19511,-2.78680,1.02086,1.57079,0.00003,-0.14511,-0.38001,0.03681,,,,,,,,,,,,,,,,,,,,,,,,,,0,0,0,0,0
4.5513,1783189797.2914,1,1,4.0000,0.0000,1.44679,0.19504,-2.78682,1.02094,1.57079,0.00003,-0.14511,-0.38001,0.03680,,,,,,,,,,,,,,,,,,,,,,,,,,0,0,0,0,0
4.5601,1783189797.3002,1,1,4.0000,0.0000,1.44679,0.19488,-2.78686,1.02114,1.57079,0.00003,-0.14511,-0.38001,0.03675,,,,,,,,,,,,,,,,,,,,,,,,,,0,0,0,0,0
4.5604,1783189797.3005,1,1,4.0000,0.0000,1.44679,0.19488,-2.78686,1.02114,1.57079,0.00003,-0.14511,-0.38001,0.03675,,,,,,,,,,,,,,,,,,,,,,,,,,0,0,0,0,0
4.5733,1783189797.3134,1,1,4.0000,0.0000,1.44679,0.19483,-2.78687,1.02120,1.57079,0.00003,-0.14511,-0.38001,0.03674,,,,,,,,,,,,,,,,,,,,,,,,,,0,0,0,0,0
4.5736,1783189797.3136,1,1,4.0000,0.0000,1.44679,0.19483,-2.78687,1.02120,1.57079,0.00003,-0.14511,-0.38001,0.03674,,,,,,,,,,,,,,,,,,,,,,,,,,0,0,0,0,0
4.6015,1783189797.3415,1,1,4.0000,0.0000,1.44679,0.19448,-2.78695,1.02163,1.57079,0.00003,-0.14511,-0.38001,0.03666,,,,,,,,,,,,,,,,,,,,,,,,,,0,0,0,0,0
4.6019,1783189797.3419,1,1,4.0000,0.0000,1.44679,0.19448,-2.78695,1.02163,1.57079,0.00003,-0.14511,-0.38001,0.03666,,,,,,,,,,,,,,,,,,,,,,,,,,0,0,0,0,0
4.6024,1783189797.3424,1,1,4.0000,0.0000,1.44679,0.19448,-2.78695,1.02163,1.57079,0.00003,-0.14511,-0.38001,0.03666,,,,,,,,,,,,,,,,,,,,,,,,,,0,0,0,0,0
4.6053,1783189797.3453,1,1,4.0000,0.0000,1.44679,0.19446,-2.78695,1.02166,1.57079,0.00003,-0.14511,-0.38001,0.03665,,,,,,,,,,,,,,,,,,,,,,,,,,0,0,0,0,0
4.6055,1783189797.3456,1,1,4.0000,0.0000,1.44679,0.19446,-2.78695,1.02166,1.57079,0.00003,-0.14511,-0.38001,0.03665,,,,,,,,,,,,,,,,,,,,,,,,,,0,0,0,0,0
4.6103,1783189797.3503,1,1,4.0000,0.0000,1.44679,0.19442,-2.78696,1.02171,1.57079,0.00003,-0.14511,-0.38001,0.03664,,,,,,,,,,,,,,,,,,,,,,,,,,0,0,0,0,0
4.6106,1783189797.3507,1,1,4.0000,0.0000,1.44679,0.19442,-2.78696,1.02171,1.57079,0.00003,-0.14511,-0.38001,0.03664,,,,,,,,,,,,,,,,,,,,,,,,,,0,0,0,0,0
4.6242,1783189797.3642,1,1,4.0000,0.0000,1.44679,0.19425,-2.78700,1.02191,1.57079,0.00003,-0.14511,-0.38001,0.03660,,,,,,,,,,,,,,,,,,,,,,,,,,0,0,0,0,0
4.6344,1783189797.3744,1,1,4.0000,0.0000,1.44679,0.19420,-2.78701,1.02197,1.57079,0.00003,-0.14511,-0.38001,0.03659,,,,,,,,,,,,,,,,,,,,,,,,,,0,0,0,0,0
4.6407,1783189797.3807,1,1,4.0000,0.0000,1.44679,0.19408,-2.78704,1.02212,1.57079,0.00003,-0.14511,-0.38001,0.03656,,,,,,,,,,,,,,,,,,,,,,,,,,0,0,0,0,0
4.6411,1783189797.3811,1,1,4.0000,0.0000,1.44679,0.19408,-2.78704,1.02212,1.57079,0.00003,-0.14511,-0.38001,0.03656,,,,,,,,,,,,,,,,,,,,,,,,,,0,0,0,0,0
4.6522,1783189797.3922,1,1,4.0000,0.0000,1.44679,0.19386,-2.78709,1.02239,1.57079,0.00003,-0.14511,-0.38001,0.03650,,,,,,,,,,,,,,,,,,,,,,,,,,0,0,0,0,0
4.6527,1783189797.3927,1,1,4.0000,0.0000,1.44679,0.19386,-2.78709,1.02239,1.57079,0.00003,-0.14511,-0.38001,0.03650,,,,,,,,,,,,,,,,,,,,,,,,,,0,0,0,0,0
4.6645,1783189797.4045,1,1,4.0000,0.0000,1.44679,0.19383,-2.78710,1.02243,1.57079,0.00003,-0.14511,-0.38001,0.03649,,,,,,,,,,,,,,,,,,,,,,,,,,0,0,0,0,0
4.6705,1783189797.4105,1,1,4.0000,0.0000,1.44679,0.19379,-2.78711,1.02248,1.57079,0.00003,-0.14511,-0.38001,0.03649,,,,,,,,,,,,,,,,,,,,,,,,,,0,0,0,0,0
4.6954,1783189797.4355,1,1,4.0000,0.0000,1.44679,0.19357,-2.78716,1.02274,1.57079,0.00003,-0.14511,-0.38001,0.03643,,,,,,,,,,,,,,,,,,,,,,,,,,0,0,0,0,0
4.6960,1783189797.4360,1,1,4.0000,0.0000,1.44679,0.19352,-2.78717,1.02281,1.57079,0.00003,-0.14511,-0.38001,0.03642,,,,,,,,,,,,,,,,,,,,,,,,,,0,0,0,0,0
4.7047,1783189797.4448,1,1,4.0000,0.0000,1.44679,0.19338,-2.78720,1.02298,1.57079,0.00003,-0.14511,-0.38001,0.03638,,,,,,,,,,,,,,,,,,,,,,,,,,0,0,0,0,0
4.7101,1783189797.4501,1,1,4.0000,0.0000,1.44679,0.19331,-2.78722,1.02307,1.57079,0.00003,-0.14511,-0.38001,0.03637,,,,,,,,,,,,,,,,,,,,,,,,,,0,0,0,0,0
4.7216,1783189797.4616,1,1,4.0000,0.0000,1.44679,0.19323,-2.78724,1.02317,1.57079,0.00003,-0.14511,-0.38001,0.03635,,,,,,,,,,,,,,,,,,,,,,,,,,0,0,0,0,0
4.7368,1783189797.4768,1,1,4.0000,0.0000,1.44679,0.19306,-2.78728,1.02338,1.57079,0.00003,-0.14511,-0.38001,0.03630,,,,,,,,,,,,,,,,,,,,,,,,,,0,0,0,0,0
4.7448,1783189797.4849,1,1,4.0000,0.0000,1.44679,0.19300,-2.78729,1.02346,1.57079,0.00003,-0.14511,-0.38001,0.03629,,,,,,,,,,,,,,,,,,,,,,,,,,0,0,0,0,0
4.7529,1783189797.4929,1,1,4.0000,0.0000,1.44679,0.19295,-2.78730,1.02352,1.57079,0.00003,-0.14511,-0.38001,0.03628,,,,,,,,,,,,,,,,,,,,,,,,,,0,0,0,0,0
4.7617,1783189797.5017,1,1,4.0000,0.0000,1.44679,0.19283,-2.78733,1.02366,1.57079,0.00003,-0.14511,-0.38001,0.03625,,,,,,,,,,,,,,,,,,,,,,,,,,0,0,0,0,0
4.7744,1783189797.5144,1,1,4.0000,0.0000,1.44679,0.19261,-2.78738,1.02393,1.57079,0.00003,-0.14511,-0.38001,0.03619,,,,,,,,,,,,,,,,,,,,,,,,,,0,0,0,0,0
4.7812,1783189797.5213,1,1,4.0000,0.0000,1.44679,0.19259,-2.78738,1.02395,1.57079,0.00003,-0.14511,-0.38001,0.03619,,,,,,,,,,,,,,,,,,,,,,,,,,0,0,0,0,0
4.7988,1783189797.5388,1,1,4.0000,0.0000,1.44679,0.19237,-2.78743,1.02422,1.57079,0.00003,-0.14511,-0.38001,0.03614,,,,,,,,,,,,,,,,,,,,,,,,,,0,0,0,0,0
4.8061,1783189797.5462,1,1,4.0000,0.0000,1.44679,0.19230,-2.78745,1.02431,1.57079,0.00003,-0.14511,-0.38001,0.03612,,,,,,,,,,,,,,,,,,,,,,,,,,0,0,0,0,0
4.8065,1783189797.5465,1,1,4.0000,0.0000,1.44679,0.19230,-2.78745,1.02431,1.57079,0.00003,-0.14511,-0.38001,0.03612,,,,,,,,,,,,,,,,,,,,,,,,,,0,0,0,0,0
4.8137,1783189797.5537,1,1,4.0000,0.0000,1.44679,0.19225,-2.78746,1.02437,1.57079,0.00003,-0.14511,-0.38001,0.03611,,,,,,,,,,,,,,,,,,,,,,,,,,0,0,0,0,0
4.8201,1783189797.5602,1,1,4.0000,0.0000,1.44679,0.19214,-2.78749,1.02451,1.57079,0.00003,-0.14511,-0.38001,0.03608,,,,,,,,,,,,,,,,,,,,,,,,,,0,0,0,0,0
4.8204,1783189797.5605,1,1,4.0000,0.0000,1.44679,0.19214,-2.78749,1.02451,1.57079,0.00003,-0.14511,-0.38001,0.03608,,,,,,,,,,,,,,,,,,,,,,,,,,0,0,0,0,0
4.8320,1783189797.5720,1,1,4.0000,0.0000,1.44679,0.19192,-2.78754,1.02477,1.57079,0.00003,-0.14511,-0.38001,0.03602,,,,,,,,,,,,,,,,,,,,,,,,,,0,0,0,0,0
4.8410,1783189797.5811,1,1,4.0000,0.0000,1.44679,0.19191,-2.78754,1.02479,1.57079,0.00003,-0.14511,-0.38001,0.03602,,,,,,,,,,,,,,,,,,,,,,,,,,0,0,0,0,0
4.8551,1783189797.5951,1,1,4.0000,0.0000,1.44679,0.19176,-2.78757,1.02497,1.57079,0.00003,-0.14511,-0.38001,0.03598,,,,,,,,,,,,,,,,,,,,,,,,,,0,0,0,0,0
4.8556,1783189797.5956,1,1,4.0000,0.0000,1.44679,0.19176,-2.78757,1.02497,1.57079,0.00003,-0.14511,-0.38001,0.03598,,,,,,,,,,,,,,,,,,,,,,,,,,0,0,0,0,0
4.8643,1783189797.6043,1,1,4.0000,0.0000,1.44679,0.19161,-2.78761,1.02515,1.57079,0.00003,-0.14511,-0.38001,0.03595,,,,,,,,,,,,,,,,,,,,,,,,,,0,0,0,0,0
4.8645,1783189797.6045,1,1,4.0000,0.0000,1.44679,0.19161,-2.78761,1.02515,1.57079,0.00003,-0.14511,-0.38001,0.03595,,,,,,,,,,,,,,,,,,,,,,,,,,0,0,0,0,0
4.8702,1783189797.6103,1,1,4.0000,0.0000,1.44679,0.19160,-2.78761,1.02517,1.57079,0.00003,-0.14511,-0.38001,0.03594,,,,,,,,,,,,,,,,,,,,,,,,,,0,0,0,0,0
4.8826,1783189797.6227,1,1,4.0000,0.0000,1.44679,0.19145,-2.78764,1.02535,1.57079,0.00003,-0.14511,-0.38001,0.03591,,,,,,,,,,,,,,,,,,,,,,,,,,0,0,0,0,0
4.8962,1783189797.6362,1,1,4.0000,0.0000,1.44679,0.19124,-2.78769,1.02562,1.57079,0.00003,-0.14511,-0.38001,0.03585,,,,,,,,,,,,,,,,,,,,,,,,,,0,0,0,0,0
4.8967,1783189797.6367,1,1,4.0000,0.0000,1.44679,0.19124,-2.78769,1.02562,1.57079,0.00003,-0.14511,-0.38001,0.03585,,,,,,,,,,,,,,,,,,,,,,,,,,0,0,0,0,0
4.9076,1783189797.6476,1,1,4.0000,0.0000,1.44679,0.19119,-2.78770,1.02567,1.57079,0.00003,-0.14511,-0.38001,0.03584,,,,,,,,,,,,,,,,,,,,,,,,,,0,0,0,0,0
4.9104,1783189797.6504,1,1,4.0000,0.0000,1.44679,0.19114,-2.78771,1.02574,1.57079,0.00003,-0.14511,-0.38001,0.03583,,,,,,,,,,,,,,,,,,,,,,,,,,0,0,0,0,0
4.9209,1783189797.6609,1,1,4.0000,0.0000,1.44679,0.19093,-2.78776,1.02599,1.57079,0.00003,-0.14511,-0.38001,0.03578,,,,,,,,,,,,,,,,,,,,,,,,,,0,0,0,0,0
4.9302,1783189797.6703,1,1,4.0000,0.0000,1.44679,0.19092,-2.78776,1.02601,1.57079,0.00003,-0.14511,-0.38001,0.03578,,,,,,,,,,,,,,,,,,,,,,,,,,0,0,0,0,0
4.9429,1783189797.6829,1,1,4.0000,0.0000,1.44679,0.19077,-2.78780,1.02619,1.57079,0.00003,-0.14511,-0.38001,0.03574,,,,,,,,,,,,,,,,,,,,,,,,,,0,0,0,0,0
4.9589,1783189797.6989,1,1,4.0000,0.0000,1.44679,0.19055,-2.78785,1.02646,1.57079,0.00003,-0.14511,-0.38001,0.03569,,,,,,,,,,,,,,,,,,,,,,,,,,0,0,0,0,0
4.9640,1783189797.7040,1,1,4.0000,0.0000,1.44679,0.19050,-2.78786,1.02652,1.57079,0.00003,-0.14511,-0.38001,0.03567,,,,,,,,,,,,,,,,,,,,,,,,,,0,0,0,0,0
4.9736,1783189797.7136,1,1,4.0000,0.0000,1.44679,0.19039,-2.78789,1.02666,1.57079,0.00003,-0.14511,-0.38001,0.03565,,,,,,,,,,,,,,,,,,,,,,,,,,0,0,0,0,0
4.9738,1783189797.7139,1,1,4.0000,0.0000,1.44679,0.19039,-2.78789,1.02666,1.57079,0.00003,-0.14511,-0.38001,0.03565,,,,,,,,,,,,,,,,,,,,,,,,,,0,0,0,0,0
4.9834,1783189797.7234,1,1,4.0000,0.0000,1.44679,0.19024,-2.78792,1.02684,1.57079,0.00003,-0.14511,-0.38001,0.03561,,,,,,,,,,,,,,,,,,,,,,,,,,0,0,0,0,0
5.0048,1783189797.7448,1,1,4.0000,0.0000,1.44679,0.19001,-2.78797,1.02712,1.57079,0.00003,-0.14511,-0.38001,0.03555,,,,,,,,,,,,,,,,,,,,,,,,,,0,0,0,0,0
5.0099,1783189797.7500,1,1,4.0000,0.0000,1.44679,0.18994,-2.78799,1.02721,1.57079,0.00003,-0.14511,-0.38001,0.03553,,,,,,,,,,,,,,,,,,,,,,,,,,0,0,0,0,0
5.0173,1783189797.7574,1,1,4.0000,0.0000,1.44679,0.18986,-2.78800,1.02730,1.57079,0.00003,-0.14511,-0.38001,0.03552,,,,,,,,,,,,,,,,,,,,,,,,,,0,0,0,0,0
5.0178,1783189797.7578,1,1,4.0000,0.0000,1.44679,0.18986,-2.78800,1.02730,1.57079,0.00003,-0.14511,-0.38001,0.03552,,,,,,,,,,,,,,,,,,,,,,,,,,0,0,0,0,0
5.0235,1783189797.7635,1,1,4.0000,0.0000,1.44679,0.18985,-2.78801,1.02732,1.57079,0.00003,-0.14511,-0.38001,0.03551,,,,,,,,,,,,,,,,,,,,,,,,,,0,0,0,0,0
5.0333,1783189797.7733,1,1,4.0000,0.0000,1.44679,0.18970,-2.78804,1.02750,1.57079,0.00003,-0.14511,-0.38001,0.03548,,,,,,,,,,,,,,,,,,,,,,,,,,0,0,0,0,0
5.0453,1783189797.7853,1,1,4.0000,0.0000,1.44679,0.18948,-2.78809,1.02777,1.57079,0.00003,-0.14511,-0.38001,0.03542,,,,,,,,,,,,,,,,,,,,,,,,,,0,0,0,0,0
5.0541,1783189797.7941,1,1,4.0000,0.0000,1.44679,0.18947,-2.78809,1.02778,1.57079,0.00003,-0.14511,-0.38001,0.03542,,,,,,,,,,,,,,,,,,,,,,,,,,0,0,0,0,0
5.0631,1783189797.8031,1,1,4.0000,0.0000,1.44679,0.18941,-2.78811,1.02786,1.57079,0.00003,-0.14511,-0.38001,0.03541,,,,,,,,,,,,,,,,,,,,,,,,,,0,0,0,0,0
5.0634,1783189797.8034,1,1,4.0000,0.0000,1.44679,0.18941,-2.78811,1.02786,1.57079,0.00003,-0.14511,-0.38001,0.03541,,,,,,,,,,,,,,,,,,,,,,,,,,0,0,0,0,0
5.0734,1783189797.8134,1,1,4.0000,0.0000,1.44679,0.18924,-2.78815,1.02807,1.57079,0.00003,-0.14511,-0.38001,0.03536,,,,,,,,,,,,,,,,,,,,,,,,,,0,0,0,0,0
5.0737,1783189797.8137,1,1,4.0000,0.0000,1.44679,0.18924,-2.78815,1.02807,1.57079,0.00003,-0.14511,-0.38001,0.03536,,,,,,,,,,,,,,,,,,,,,,,,,,0,0,0,0,0
5.0842,1783189797.8242,1,1,4.0000,0.0000,1.44679,0.18919,-2.78816,1.02813,1.57079,0.00003,-0.14511,-0.38001,0.03535,,,,,,,,,,,,,,,,,,,,,,,,,,0,0,0,0,0
5.1075,1783189797.8475,1,1,4.0000,0.0000,1.44679,0.18892,-2.78822,1.02846,1.57079,0.00003,-0.14511,-0.38001,0.03529,,,,,,,,,,,,,,,,,,,,,,,,,,0,0,0,0,0
5.1085,1783189797.8486,1,1,4.0000,0.0000,1.44679,0.18891,-2.78822,1.02847,1.57079,0.00003,-0.14511,-0.38001,0.03528,,,,,,,,,,,,,,,,,,,,,,,,,,0,0,0,0,0
5.1161,1783189797.8561,1,1,4.0000,0.0000,1.44679,0.18882,-2.78824,1.02858,1.57079,0.00003,-0.14511,-0.38001,0.03526,,,,,,,,,,,,,,,,,,,,,,,,,,0,0,0,0,0
5.1232,1783189797.8632,1,1,4.0000,0.0000,1.44679,0.18876,-2.78825,1.02865,1.57079,0.00003,-0.14511,-0.38001,0.03525,,,,,,,,,,,,,,,,,,,,,,,,,,0,0,0,0,0
5.1235,1783189797.8635,1,1,4.0000,0.0000,1.44679,0.18876,-2.78825,1.02865,1.57079,0.00003,-0.14511,-0.38001,0.03525,,,,,,,,,,,,,,,,,,,,,,,,,,0,0,0,0,0
5.1333,1783189797.8733,1,1,4.0000,0.0000,1.44679,0.18855,-2.78830,1.02892,1.57079,0.00003,-0.14511,-0.38001,0.03519,,,,,,,,,,,,,,,,,,,,,,,,,,0,0,0,0,0
5.1336,1783189797.8736,1,1,4.0000,0.0000,1.44679,0.18855,-2.78830,1.02892,1.57079,0.00003,-0.14511,-0.38001,0.03519,,,,,,,,,,,,,,,,,,,,,,,,,,0,0,0,0,0
5.1464,1783189797.8865,1,1,4.0000,0.0000,1.44679,0.18850,-2.78831,1.02898,1.57079,0.00003,-0.14511,-0.38001,0.03518,,,,,,,,,,,,,,,,,,,,,,,,,,0,0,0,0,0
5.1586,1783189797.8986,1,1,4.0000,0.0000,1.44679,0.18831,-2.78836,1.02921,1.57079,0.00003,-0.14511,-0.38001,0.03514,,,,,,,,,,,,,,,,,,,,,,,,,,0,0,0,0,0
5.1679,1783189797.9080,1,1,4.0000,0.0000,1.44679,0.18816,-2.78839,1.02939,1.57079,0.00003,-0.14511,-0.38001,0.03510,,,,,,,,,,,,,,,,,,,,,,,,,,0,0,0,0,0
5.1752,1783189797.9152,1,1,4.0000,0.0000,1.44679,0.18815,-2.78839,1.02940,1.57079,0.00003,-0.14511,-0.38001,0.03510,,,,,,,,,,,,,,,,,,,,,,,,,,0,0,0,0,0
5.1757,1783189797.9157,1,1,4.0000,0.0000,1.44679,0.18815,-2.78839,1.02940,1.57079,0.00003,-0.14511,-0.38001,0.03510,,,,,,,,,,,,,,,,,,,,,,,,,,0,0,0,0,0
5.1851,1783189797.9251,1,1,4.0000,0.0000,1.44679,0.18804,-2.78842,1.02954,1.57079,0.00004,-0.14511,-0.38001,0.03507,,,,,,,,,,,,,,,,,,,,,,,,,,0,0,0,0,0
5.1855,1783189797.9255,1,1,4.0000,0.0000,1.44679,0.18804,-2.78842,1.02954,1.57079,0.00004,-0.14511,-0.38001,0.03507,,,,,,,,,,,,,,,,,,,,,,,,,,0,0,0,0,0
5.1931,1783189797.9331,1,1,4.0000,0.0000,1.44679,0.18792,-2.78844,1.02968,1.57079,0.00004,-0.14511,-0.38001,0.03504,,,,,,,,,,,,,,,,,,,,,,,,,,0,0,0,0,0
5.1935,1783189797.9336,1,1,4.0000,0.0000,1.44679,0.18792,-2.78844,1.02968,1.57079,0.00004,-0.14511,-0.38001,0.03504,,,,,,,,,,,,,,,,,,,,,,,,,,0,0,0,0,0
5.2062,1783189797.9462,1,1,4.0000,0.0000,1.44679,0.18787,-2.78846,1.02974,1.57079,0.00004,-0.14511,-0.38001,0.03503,,,,,,,,,,,,,,,,,,,,,,,,,,0,0,0,0,0
5.2066,1783189797.9467,1,1,4.0000,0.0000,1.44679,0.18787,-2.78846,1.02974,1.57079,0.00004,-0.14511,-0.38001,0.03503,,,,,,,,,,,,,,,,,,,,,,,,,,0,0,0,0,0
5.2138,1783189797.9539,1,1,4.0000,0.0000,1.44679,0.18775,-2.78848,1.02989,1.57079,0.00004,-0.14511,-0.38001,0.03500,,,,,,,,,,,,,,,,,,,,,,,,,,0,0,0,0,0
5.2144,1783189797.9545,1,1,4.0000,0.0000,1.44679,0.18775,-2.78848,1.02989,1.57079,0.00004,-0.14511,-0.38001,0.03500,,,,,,,,,,,,,,,,,,,,,,,,,,0,0,0,0,0
5.2241,1783189797.9641,1,1,4.0000,0.0000,1.44679,0.18753,-2.78853,1.03016,1.57079,0.00004,-0.14511,-0.38001,0.03494,,,,,,,,,,,,,,,,,,,,,,,,,,0,0,0,0,0
5.2340,1783189797.9740,1,1,4.0000,0.0000,1.44679,0.18752,-2.78853,1.03017,1.57079,0.00004,-0.14511,-0.38001,0.03494,,,,,,,,,,,,,,,,,,,,,,,,,,0,0,0,0,0
5.2441,1783189797.9841,1,1,4.0000,0.0000,1.44679,0.18741,-2.78856,1.03031,1.57079,0.00004,-0.14511,-0.38001,0.03491,,,,,,,,,,,,,,,,,,,,,,,,,,0,0,0,0,0
5.2561,1783189797.9961,1,1,4.0000,0.0000,1.44679,0.18729,-2.78859,1.03046,1.57079,0.00004,-0.14511,-0.38001,0.03488,,,,,,,,,,,,,,,,,,,,,,,,,,0,0,0,0,0
5.2565,1783189797.9965,1,1,4.0000,0.0000,1.44679,0.18729,-2.78859,1.03046,1.57079,0.00004,-0.14511,-0.38001,0.03488,,,,,,,,,,,,,,,,,,,,,,,,,,0,0,0,0,0
