Martins-Lucaas/twinforge/sensors/Data/20260707_131944__samples.csv
t_rel_s,t_unix,cycle,phase,setpoint_n,force_net_n,q1,q2,q3,q4,q5,q6,tcp_x,tcp_y,tcp_z,taxel_0,taxel_1,taxel_2,taxel_3,taxel_4,taxel_5,taxel_6,taxel_7,taxel_8,taxel_9,taxel_10,taxel_11,taxel_12,taxel_13,taxel_14,taxel_15,taxel_16,taxel_17,taxel_18,taxel_19,taxel_20,taxel_21,taxel_22,taxel_23,taxel_24,n_RA,n_SA,cn_mm,cn_ra,cn_sa
0.0199,1783441184.5212,1,0,1.0000,0.0000,1.42052,0.14185,-2.66686,1.00219,1.56183,0.11681,-0.13242,-0.45908,0.07207,,,,,,,,,,,,,,,,,,,,,,,,,,0,0,0,0,0
0.0204,1783441184.5216,1,0,1.0000,0.0000,1.42052,0.14185,-2.66686,1.00219,1.56183,0.11681,-0.13242,-0.45908,0.07207,,,,,,,,,,,,,,,,,,,,,,,,,,0,0,0,0,0
0.0282,1783441184.5294,1,0,1.0000,0.0000,1.42052,0.14185,-2.66686,1.00219,1.56183,0.11681,-0.13242,-0.45908,0.07207,,,,,,,,,,,,,,,,,,,,,,,,,,0,0,0,0,0
0.0285,1783441184.5298,1,0,1.0000,0.0000,1.42052,0.14185,-2.66686,1.00219,1.56183,0.11681,-0.13242,-0.45908,0.07207,,,,,,,,,,,,,,,,,,,,,,,,,,0,0,0,0,0
0.0391,1783441184.5404,1,0,1.0000,0.0000,1.42052,0.14185,-2.66686,1.00221,1.56183,0.11681,-0.13242,-0.45908,0.07207,,,,,,,,,,,,,,,,,,,,,,,,,,0,0,0,0,0
0.0395,1783441184.5408,1,0,1.0000,0.0000,1.42052,0.14185,-2.66686,1.00221,1.56183,0.11681,-0.13242,-0.45908,0.07207,,,,,,,,,,,,,,,,,,,,,,,,,,0,0,0,0,0
0.0601,1783441184.5614,1,0,1.0000,0.0000,1.42052,0.14185,-2.66687,1.00227,1.56182,0.11682,-0.13242,-0.45909,0.07208,,,,,,,,,,,,,,,,,,,,,,,,,,0,0,0,0,0
0.0606,1783441184.5619,1,0,1.0000,0.0000,1.42052,0.14185,-2.66687,1.00227,1.56182,0.11682,-0.13242,-0.45909,0.07208,,,,,,,,,,,,,,,,,,,,,,,,,,0,0,0,0,0
0.0709,1783441184.5722,1,0,1.0000,0.0000,1.42052,0.14185,-2.66687,1.00231,1.56182,0.11682,-0.13242,-0.45910,0.07208,,,,,,,,,,,,,,,,,,,,,,,,,,0,0,0,0,0
0.0714,1783441184.5727,1,0,1.0000,0.0000,1.42052,0.14185,-2.66687,1.00231,1.56182,0.11682,-0.13242,-0.45910,0.07208,,,,,,,,,,,,,,,,,,,,,,,,,,0,0,0,0,0
0.0770,1783441184.5783,1,0,1.0000,0.0000,1.42052,0.14185,-2.66687,1.00232,1.56182,0.11682,-0.13242,-0.45910,0.07208,,,,,,,,,,,,,,,,,,,,,,,,,,0,0,0,0,0
0.0870,1783441184.5883,1,0,1.0000,0.0000,1.42052,0.14185,-2.66687,1.00234,1.56182,0.11682,-0.13242,-0.45910,0.07209,,,,,,,,,,,,,,,,,,,,,,,,,,0,0,0,0,0
0.0875,1783441184.5887,1,0,1.0000,0.0000,1.42052,0.14185,-2.66687,1.00234,1.56182,0.11682,-0.13242,-0.45910,0.07209,,,,,,,,,,,,,,,,,,,,,,,,,,0,0,0,0,0
0.0997,1783441184.6010,1,0,1.0000,0.0000,1.42052,0.14185,-2.66687,1.00234,1.56182,0.11682,-0.13242,-0.45910,0.07209,,,,,,,,,,,,,,,,,,,,,,,,,,0,0,0,0,0
0.1002,1783441184.6014,1,0,1.0000,0.0000,1.42052,0.14185,-2.66687,1.00234,1.56182,0.11682,-0.13242,-0.45910,0.07209,,,,,,,,,,,,,,,,,,,,,,,,,,0,0,0,0,0
0.1087,1783441184.6100,1,0,1.0000,0.0000,1.42052,0.14185,-2.66687,1.00234,1.56182,0.11682,-0.13242,-0.45910,0.07209,,,,,,,,,,,,,,,,,,,,,,,,,,0,0,0,0,0
0.1091,1783441184.6104,1,0,1.0000,0.0000,1.42052,0.14185,-2.66687,1.00234,1.56182,0.11682,-0.13242,-0.45910,0.07209,,,,,,,,,,,,,,,,,,,,,,,,,,0,0,0,0,0
0.1258,1783441184.6271,1,0,1.0000,0.0000,1.42052,0.14185,-2.66687,1.00234,1.56182,0.11682,-0.13242,-0.45910,0.07209,,,,,,,,,,,,,,,,,,,,,,,,,,0,0,0,0,0
0.1310,1783441184.6323,1,0,1.0000,0.0000,1.42052,0.14185,-2.66687,1.00234,1.56182,0.11682,-0.13242,-0.45910,0.07209,,,,,,,,,,,,,,,,,,,,,,,,,,0,0,0,0,0
0.1313,1783441184.6326,1,0,1.0000,0.0000,1.42052,0.14185,-2.66687,1.00234,1.56182,0.11682,-0.13242,-0.45910,0.07209,,,,,,,,,,,,,,,,,,,,,,,,,,0,0,0,0,0
0.1373,1783441184.6386,1,0,1.0000,0.0000,1.42052,0.14185,-2.66687,1.00234,1.56182,0.11682,-0.13242,-0.45910,0.07209,,,,,,,,,,,,,,,,,,,,,,,,,,0,0,0,0,0
0.1476,1783441184.6489,1,0,1.0000,0.0000,1.42052,0.14185,-2.66687,1.00234,1.56182,0.11682,-0.13242,-0.45910,0.07209,,,,,,,,,,,,,,,,,,,,,,,,,,0,0,0,0,0
0.1594,1783441184.6607,1,0,1.0000,0.0000,1.42052,0.14185,-2.66687,1.00234,1.56182,0.11682,-0.13242,-0.45910,0.07209,,,,,,,,,,,,,,,,,,,,,,,,,,0,0,0,0,0
0.1667,1783441184.6680,1,0,1.0000,0.0000,1.42052,0.14185,-2.66687,1.00234,1.56182,0.11682,-0.13242,-0.45910,0.07209,,,,,,,,,,,,,,,,,,,,,,,,,,0,0,0,0,0
0.1779,1783441184.6792,1,0,1.0000,0.0000,1.42052,0.14185,-2.66687,1.00234,1.56182,0.11682,-0.13242,-0.45910,0.07209,,,,,,,,,,,,,,,,,,,,,,,,,,0,0,0,0,0
0.1872,1783441184.6885,1,0,1.0000,0.0000,1.42052,0.14185,-2.66687,1.00234,1.56182,0.11682,-0.13242,-0.45910,0.07209,,,,,,,,,,,,,,,,,,,,,,,,,,0,0,0,0,0
0.2020,1783441184.7033,1,0,1.0000,0.0000,1.42052,0.14185,-2.66687,1.00234,1.56182,0.11682,-0.13242,-0.45910,0.07209,,,,,,,,,,,,,,,,,,,,,,,,,,0,0,0,0,0
0.2027,1783441184.7040,1,0,1.0000,0.0000,1.42052,0.14185,-2.66687,1.00234,1.56182,0.11682,-0.13242,-0.45910,0.07209,,,,,,,,,,,,,,,,,,,,,,,,,,0,0,0,0,0
0.2077,1783441184.7089,1,0,1.0000,0.0000,1.42052,0.14185,-2.66687,1.00234,1.56182,0.11682,-0.13242,-0.45910,0.07209,,,,,,,,,,,,,,,,,,,,,,,,,,0,0,0,0,0
0.2174,1783441184.7187,1,0,1.0000,0.0000,1.42052,0.14185,-2.66687,1.00234,1.56182,0.11682,-0.13242,-0.45910,0.07209,,,,,,,,,,,,,,,,,,,,,,,,,,0,0,0,0,0
0.2180,1783441184.7193,1,0,1.0000,0.0000,1.42052,0.14185,-2.66687,1.00234,1.56182,0.11682,-0.13242,-0.45910,0.07209,,,,,,,,,,,,,,,,,,,,,,,,,,0,0,0,0,0
0.2274,1783441184.7287,1,0,1.0000,0.0000,1.42052,0.14185,-2.66687,1.00234,1.56182,0.11682,-0.13242,-0.45910,0.07209,,,,,,,,,,,,,,,,,,,,,,,,,,0,0,0,0,0
0.2378,1783441184.7391,1,0,1.0000,0.0000,1.42052,0.14185,-2.66687,1.00234,1.56182,0.11682,-0.13242,-0.45910,0.07209,,,,,,,,,,,,,,,,,,,,,,,,,,0,0,0,0,0
0.2486,1783441184.7498,1,0,1.0000,0.0000,1.42052,0.14185,-2.66687,1.00234,1.56182,0.11682,-0.13242,-0.45910,0.07209,,,,,,,,,,,,,,,,,,,,,,,,,,0,0,0,0,0
0.2489,1783441184.7502,1,0,1.0000,0.0000,1.42052,0.14185,-2.66687,1.00234,1.56182,0.11682,-0.13242,-0.45910,0.07209,,,,,,,,,,,,,,,,,,,,,,,,,,0,0,0,0,0
0.2628,1783441184.7641,1,0,1.0000,0.0000,1.42052,0.14185,-2.66687,1.00234,1.56182,0.11682,-0.13242,-0.45910,0.07209,,,,,,,,,,,,,,,,,,,,,,,,,,0,0,0,0,0
0.2671,1783441184.7684,1,0,1.0000,0.0000,1.42052,0.14185,-2.66687,1.00234,1.56182,0.11682,-0.13242,-0.45910,0.07209,,,,,,,,,,,,,,,,,,,,,,,,,,0,0,0,0,0
0.2778,1783441184.7791,1,0,1.0000,0.0000,1.42052,0.14185,-2.66687,1.00234,1.56182,0.11682,-0.13242,-0.45910,0.07209,,,,,,,,,,,,,,,,,,,,,,,,,,0,0,0,0,0
0.2878,1783441184.7891,1,0,1.0000,0.0000,1.42052,0.14185,-2.66687,1.00234,1.56182,0.11682,-0.13242,-0.45910,0.07209,,,,,,,,,,,,,,,,,,,,,,,,,,0,0,0,0,0
0.3067,1783441184.8079,1,0,1.0000,0.0000,1.42052,0.14185,-2.66687,1.00234,1.56182,0.11682,-0.13242,-0.45910,0.07209,,,,,,,,,,,,,,,,,,,,,,,,,,0,0,0,0,0
0.3310,1783441184.8323,1,0,1.0000,0.0000,1.42052,0.14185,-2.66687,1.00234,1.56182,0.11682,-0.13242,-0.45910,0.07209,,,,,,,,,,,,,,,,,,,,,,,,,,0,0,0,0,0
0.3315,1783441184.8328,1,0,1.0000,0.0000,1.42052,0.14185,-2.66687,1.00234,1.56182,0.11682,-0.13242,-0.45910,0.07209,,,,,,,,,,,,,,,,,,,,,,,,,,0,0,0,0,0
0.3433,1783441184.8446,1,0,1.0000,0.0000,1.42052,0.14185,-2.66687,1.00234,1.56182,0.11682,-0.13242,-0.45910,0.07209,,,,,,,,,,,,,,,,,,,,,,,,,,0,0,0,0,0
0.3436,1783441184.8449,1,0,1.0000,0.0000,1.42052,0.14185,-2.66687,1.00234,1.56182,0.11682,-0.13242,-0.45910,0.07209,,,,,,,,,,,,,,,,,,,,,,,,,,0,0,0,0,0
0.3508,1783441184.8521,1,0,1.0000,0.0000,1.42052,0.14185,-2.66687,1.00234,1.56182,0.11682,-0.13242,-0.45910,0.07209,,,,,,,,,,,,,,,,,,,,,,,,,,0,0,0,0,0
0.3513,1783441184.8526,1,0,1.0000,0.0000,1.42052,0.14185,-2.66687,1.00234,1.56182,0.11682,-0.13242,-0.45910,0.07209,,,,,,,,,,,,,,,,,,,,,,,,,,0,0,0,0,0
0.3618,1783441184.8631,1,0,1.0000,0.0000,1.42052,0.14185,-2.66687,1.00234,1.56182,0.11682,-0.13242,-0.45910,0.07209,,,,,,,,,,,,,,,,,,,,,,,,,,0,0,0,0,0
0.3688,1783441184.8701,1,0,1.0000,0.0000,1.42052,0.14185,-2.66687,1.00234,1.56182,0.11682,-0.13242,-0.45910,0.07209,,,,,,,,,,,,,,,,,,,,,,,,,,0,0,0,0,0
0.3772,1783441184.8785,1,0,1.0000,0.0000,1.42052,0.14185,-2.66687,1.00234,1.56182,0.11682,-0.13242,-0.45910,0.07209,,,,,,,,,,,,,,,,,,,,,,,,,,0,0,0,0,0
0.3869,1783441184.8882,1,0,1.0000,0.0000,1.42052,0.14185,-2.66687,1.00234,1.56182,0.11682,-0.13242,-0.45910,0.07209,,,,,,,,,,,,,,,,,,,,,,,,,,0,0,0,0,0
0.3994,1783441184.9007,1,0,1.0000,0.0000,1.42052,0.14185,-2.66687,1.00234,1.56182,0.11682,-0.13242,-0.45910,0.07209,,,,,,,,,,,,,,,,,,,,,,,,,,0,0,0,0,0
0.3998,1783441184.9011,1,0,1.0000,0.0000,1.42052,0.14185,-2.66687,1.00234,1.56182,0.11682,-0.13242,-0.45910,0.07209,,,,,,,,,,,,,,,,,,,,,,,,,,0,0,0,0,0
0.4076,1783441184.9089,1,0,1.0000,0.0000,1.42052,0.14185,-2.66687,1.00234,1.56182,0.11682,-0.13242,-0.45910,0.07209,,,,,,,,,,,,,,,,,,,,,,,,,,0,0,0,0,0
0.4170,1783441184.9183,1,0,1.0000,0.0000,1.42052,0.14185,-2.66687,1.00234,1.56182,0.11682,-0.13242,-0.45910,0.07209,,,,,,,,,,,,,,,,,,,,,,,,,,0,0,0,0,0
0.4316,1783441184.9329,1,0,1.0000,0.0000,1.42052,0.14185,-2.66687,1.00234,1.56182,0.11682,-0.13242,-0.45910,0.07209,,,,,,,,,,,,,,,,,,,,,,,,,,0,0,0,0,0
0.4382,1783441184.9395,1,0,1.0000,0.0000,1.42052,0.14185,-2.66687,1.00234,1.56182,0.11682,-0.13242,-0.45910,0.07209,,,,,,,,,,,,,,,,,,,,,,,,,,0,0,0,0,0
0.4489,1783441184.9502,1,0,1.0000,0.0000,1.42052,0.14185,-2.66687,1.00234,1.56182,0.11682,-0.13242,-0.45910,0.07209,,,,,,,,,,,,,,,,,,,,,,,,,,0,0,0,0,0
0.4611,1783441184.9624,1,0,1.0000,0.0000,1.42052,0.14185,-2.66687,1.00234,1.56182,0.11682,-0.13242,-0.45910,0.07209,,,,,,,,,,,,,,,,,,,,,,,,,,0,0,0,0,0
0.4678,1783441184.9691,1,0,1.0000,0.0000,1.42052,0.14185,-2.66687,1.00234,1.56182,0.11682,-0.13242,-0.45910,0.07209,,,,,,,,,,,,,,,,,,,,,,,,,,0,0,0,0,0
0.4789,1783441184.9802,1,0,1.0000,0.0000,1.42052,0.14185,-2.66687,1.00234,1.56182,0.11682,-0.13242,-0.45910,0.07209,,,,,,,,,,,,,,,,,,,,,,,,,,0,0,0,0,0
0.5110,1783441185.0123,1,0,1.0000,0.0000,1.42052,0.14185,-2.66687,1.00234,1.56182,0.11682,-0.13242,-0.45910,0.07209,,,,,,,,,,,,,,,,,,,,,,,,,,0,0,0,0,0
0.5172,1783441185.0185,1,0,1.0000,0.0000,1.42052,0.14185,-2.66687,1.00234,1.56182,0.11682,-0.13242,-0.45910,0.07209,,,,,,,,,,,,,,,,,,,,,,,,,,0,0,0,0,0
0.5177,1783441185.0190,1,0,1.0000,0.0000,1.42052,0.14185,-2.66687,1.00234,1.56182,0.11682,-0.13242,-0.45910,0.07209,,,,,,,,,,,,,,,,,,,,,,,,,,0,0,0,0,0
0.5319,1783441185.0332,1,0,1.0000,0.0000,1.42052,0.14185,-2.66687,1.00234,1.56182,0.11682,-0.13242,-0.45910,0.07209,,,,,,,,,,,,,,,,,,,,,,,,,,0,0,0,0,0
0.5395,1783441185.0408,1,0,1.0000,0.0000,1.42052,0.14185,-2.66687,1.00234,1.56182,0.11682,-0.13242,-0.45911,0.07209,,,,,,,,,,,,,,,,,,,,,,,,,,0,0,0,0,0
0.5468,1783441185.0481,1,0,1.0000,0.0000,1.42052,0.14185,-2.66687,1.00234,1.56182,0.11682,-0.13242,-0.45911,0.07209,,,,,,,,,,,,,,,,,,,,,,,,,,0,0,0,0,0
0.5582,1783441185.0595,1,0,1.0000,0.0000,1.42052,0.14185,-2.66687,1.00234,1.56182,0.11682,-0.13242,-0.45911,0.07209,,,,,,,,,,,,,,,,,,,,,,,,,,0,0,0,0,0
0.5705,1783441185.0718,1,0,1.0000,0.0000,1.42052,0.14185,-2.66687,1.00234,1.56182,0.11682,-0.13242,-0.45911,0.07209,,,,,,,,,,,,,,,,,,,,,,,,,,0,0,0,0,0
0.5806,1783441185.0819,1,0,1.0000,0.0000,1.42052,0.14185,-2.66687,1.00234,1.56182,0.11682,-0.13242,-0.45911,0.07209,,,,,,,,,,,,,,,,,,,,,,,,,,0,0,0,0,0
0.5868,1783441185.0881,1,0,1.0000,0.0000,1.42052,0.14185,-2.66687,1.00234,1.56182,0.11682,-0.13242,-0.45911,0.07209,,,,,,,,,,,,,,,,,,,,,,,,,,0,0,0,0,0
0.5993,1783441185.1006,1,0,1.0000,0.0000,1.42052,0.14185,-2.66687,1.00234,1.56182,0.11682,-0.13242,-0.45911,0.07209,,,,,,,,,,,,,,,,,,,,,,,,,,0,0,0,0,0
0.5997,1783441185.1010,1,0,1.0000,0.0000,1.42052,0.14185,-2.66687,1.00234,1.56182,0.11682,-0.13242,-0.45911,0.07209,,,,,,,,,,,,,,,,,,,,,,,,,,0,0,0,0,0
0.6118,1783441185.1131,1,0,1.0000,0.0000,1.42052,0.14185,-2.66687,1.00234,1.56182,0.11682,-0.13242,-0.45911,0.07209,,,,,,,,,,,,,,,,,,,,,,,,,,0,0,0,0,0
0.6163,1783441185.1176,1,0,1.0000,0.0000,1.42052,0.14185,-2.66687,1.00234,1.56182,0.11682,-0.13242,-0.45911,0.07209,,,,,,,,,,,,,,,,,,,,,,,,,,0,0,0,0,0
0.6169,1783441185.1182,1,0,1.0000,0.0000,1.42052,0.14185,-2.66687,1.00234,1.56182,0.11682,-0.13242,-0.45911,0.07209,,,,,,,,,,,,,,,,,,,,,,,,,,0,0,0,0,0
0.6279,1783441185.1292,1,0,1.0000,0.0000,1.42052,0.14185,-2.66687,1.00234,1.56182,0.11682,-0.13242,-0.45911,0.07209,,,,,,,,,,,,,,,,,,,,,,,,,,0,0,0,0,0
0.6283,1783441185.1296,1,0,1.0000,0.0000,1.42052,0.14185,-2.66687,1.00234,1.56182,0.11682,-0.13242,-0.45911,0.07209,,,,,,,,,,,,,,,,,,,,,,,,,,0,0,0,0,0
0.6367,1783441185.1380,1,0,1.0000,0.0000,1.42052,0.14185,-2.66687,1.00234,1.56182,0.11682,-0.13242,-0.45911,0.07209,,,,,,,,,,,,,,,,,,,,,,,,,,0,0,0,0,0
0.6539,1783441185.1553,1,0,1.0000,0.0000,1.42052,0.14185,-2.66687,1.00234,1.56182,0.11682,-0.13242,-0.45911,0.07209,,,,,,,,,,,,,,,,,,,,,,,,,,0,0,0,0,0
0.6607,1783441185.1620,1,0,1.0000,0.0000,1.42052,0.14185,-2.66687,1.00234,1.56182,0.11682,-0.13242,-0.45910,0.07209,,,,,,,,,,,,,,,,,,,,,,,,,,0,0,0,0,0
0.6689,1783441185.1702,1,0,1.0000,0.0000,1.42051,0.14185,-2.66688,1.00234,1.56182,0.11682,-0.13242,-0.45910,0.07208,,,,,,,,,,,,,,,,,,,,,,,,,,0,0,0,0,0
0.6775,1783441185.1788,1,0,1.0000,0.0000,1.42050,0.14185,-2.66690,1.00234,1.56182,0.11683,-0.13242,-0.45909,0.07207,,,,,,,,,,,,,,,,,,,,,,,,,,0,0,0,0,0
0.6913,1783441185.1926,1,0,1.0000,0.0000,1.42046,0.14186,-2.66695,1.00234,1.56182,0.11685,-0.13240,-0.45906,0.07205,,,,,,,,,,,,,,,,,,,,,,,,,,0,0,0,0,0
0.6990,1783441185.2003,1,0,1.0000,0.0000,1.42045,0.14187,-2.66697,1.00234,1.56182,0.11686,-0.13240,-0.45905,0.07204,,,,,,,,,,,,,,,,,,,,,,,,,,0,0,0,0,0
0.7110,1783441185.2123,1,0,1.0000,0.0000,1.42040,0.14188,-2.66699,1.00233,1.56182,0.11691,-0.13238,-0.45904,0.07204,,,,,,,,,,,,,,,,,,,,,,,,,,0,0,0,0,0
0.7167,1783441185.2180,1,0,1.0000,0.0000,1.42036,0.14189,-2.66700,1.00233,1.56182,0.11694,-0.13237,-0.45904,0.07204,,,,,,,,,,,,,,,,,,,,,,,,,,0,0,0,0,0
0.7288,1783441185.2301,1,0,1.0000,0.0000,1.42029,0.14191,-2.66702,1.00233,1.56181,0.11701,-0.13234,-0.45904,0.07203,,,,,,,,,,,,,,,,,,,,,,,,,,0,0,0,0,0
0.7374,1783441185.2387,1,0,1.0000,0.0000,1.42016,0.14194,-2.66705,1.00232,1.56181,0.11714,-0.13229,-0.45904,0.07203,,,,,,,,,,,,,,,,,,,,,,,,,,0,0,0,0,0
0.7481,1783441185.2494,1,0,1.0000,0.0000,1.41977,0.14205,-2.66714,1.00231,1.56180,0.11751,-0.13215,-0.45903,0.07203,,,,,,,,,,,,,,,,,,,,,,,,,,0,0,0,0,0
0.7488,1783441185.2501,1,0,1.0000,0.0000,1.41977,0.14205,-2.66714,1.00231,1.56180,0.11751,-0.13215,-0.45903,0.07203,,,,,,,,,,,,,,,,,,,,,,,,,,0,0,0,0,0
0.7592,1783441185.2605,1,0,1.0000,0.0000,1.41958,0.14210,-2.66718,1.00230,1.56179,0.11770,-0.13208,-0.45903,0.07203,,,,,,,,,,,,,,,,,,,,,,,,,,0,0,0,0,0
0.7792,1783441185.2805,1,0,1.0000,0.0000,1.41898,0.14227,-2.66730,1.00226,1.56177,0.11829,-0.13185,-0.45904,0.07203,,,,,,,,,,,,,,,,,,,,,,,,,,0,0,0,0,0
0.7795,1783441185.2809,1,0,1.0000,0.0000,1.41898,0.14227,-2.66730,1.00226,1.56177,0.11829,-0.13185,-0.45904,0.07203,,,,,,,,,,,,,,,,,,,,,,,,,,0,0,0,0,0
0.7890,1783441185.2903,1,0,1.0000,0.0000,1.41880,0.14232,-2.66733,1.00225,1.56176,0.11848,-0.13178,-0.45904,0.07204,,,,,,,,,,,,,,,,,,,,,,,,,,0,0,0,0,0
0.7969,1783441185.2982,1,0,1.0000,0.0000,1.41830,0.14246,-2.66743,1.00221,1.56174,0.11897,-0.13159,-0.45905,0.07204,,,,,,,,,,,,,,,,,,,,,,,,,,0,0,0,0,0
0.8097,1783441185.3110,1,0,1.0000,0.0000,1.41716,0.14277,-2.66764,1.00214,1.56169,0.12011,-0.13117,-0.45907,0.07205,,,,,,,,,,,,,,,,,,,,,,,,,,0,0,0,0,0
0.8169,1783441185.3182,1,0,1.0000,0.0000,1.41710,0.14279,-2.66765,1.00213,1.56169,0.12017,-0.13114,-0.45907,0.07205,,,,,,,,,,,,,,,,,,,,,,,,,,0,0,0,0,0
0.8325,1783441185.3338,1,0,1.0000,0.0000,1.41601,0.14309,-2.66786,1.00205,1.56164,0.12126,-0.13074,-0.45908,0.07206,,,,,,,,,,,,,,,,,,,,,,,,,,0,0,0,0,0
0.8402,1783441185.3415,1,0,1.0000,0.0000,1.41594,0.14311,-2.66787,1.00205,1.56164,0.12133,-0.13071,-0.45909,0.07206,,,,,,,,,,,,,,,,,,,,,,,,,,0,0,0,0,0
0.8488,1783441185.3502,1,0,1.0000,0.0000,1.41543,0.14325,-2.66797,1.00201,1.56162,0.12184,-0.13052,-0.45909,0.07206,,,,,,,,,,,,,,,,,,,,,,,,,,0,0,0,0,0
0.8494,1783441185.3507,1,0,1.0000,0.0000,1.41543,0.14325,-2.66797,1.00201,1.56162,0.12184,-0.13052,-0.45909,0.07206,,,,,,,,,,,,,,,,,,,,,,,,,,0,0,0,0,0
0.8567,1783441185.3580,1,0,1.0000,0.0000,1.41454,0.14349,-2.66814,1.00194,1.56158,0.12273,-0.13019,-0.45910,0.07207,,,,,,,,,,,,,,,,,,,,,,,,,,0,0,0,0,0
0.8709,1783441185.3722,1,0,1.0000,0.0000,1.41280,0.14396,-2.66847,1.00181,1.56150,0.12447,-0.12953,-0.45912,0.07208,,,,,,,,,,,,,,,,,,,,,,,,,,0,0,0,0,0
0.8885,1783441185.3898,1,0,1.0000,0.0000,1.41207,0.14416,-2.66861,1.00175,1.56147,0.12521,-0.12926,-0.45913,0.07208,,,,,,,,,,,,,,,,,,,,,,,,,,0,0,0,0,0
0.8951,1783441185.3964,1,0,1.0000,0.0000,1.41131,0.14437,-2.66876,1.00169,1.56144,0.12597,-0.12898,-0.45913,0.07208,,,,,,,,,,,,,,,,,,,,,,,,,,0,0,0,0,0
0.9356,1783441185.4369,1,0,1.0000,0.0000,1.40986,0.14476,-2.66903,1.00157,1.56137,0.12741,-0.12844,-0.45914,0.07208,,,,,,,,,,,,,,,,,,,,,,,,,,0,0,0,0,0
0.9360,1783441185.4373,1,0,1.0000,0.0000,1.40986,0.14476,-2.66903,1.00157,1.56137,0.12741,-0.12844,-0.45914,0.07208,,,,,,,,,,,,,,,,,,,,,,,,,,0,0,0,0,0
0.9389,1783441185.4402,1,0,1.0000,0.0000,1.40970,0.14480,-2.66906,1.00155,1.56136,0.12757,-0.12838,-0.45914,0.07208,,,,,,,,,,,,,,,,,,,,,,,,,,0,0,0,0,0
0.9488,1783441185.4501,1,0,1.0000,0.0000,1.40925,0.14492,-2.66915,1.00151,1.56134,0.12802,-0.12821,-0.45915,0.07208,,,,,,,,,,,,,,,,,,,,,,,,,,0,0,0,0,0
0.9567,1783441185.4580,1,0,1.0000,0.0000,1.40869,0.14508,-2.66926,1.00146,1.56131,0.12858,-0.12800,-0.45915,0.07208,,,,,,,,,,,,,,,,,,,,,,,,,,0,0,0,0,0
0.9875,1783441185.4888,1,0,1.0000,0.0000,1.40793,0.14528,-2.66937,1.00139,1.56127,0.12935,-0.12772,-0.45917,0.07210,,,,,,,,,,,,,,,,,,,,,,,,,,0,0,0,0,0
0.9937,1783441185.4950,1,0,1.0000,0.0000,1.40776,0.14533,-2.66940,1.00138,1.56127,0.12952,-0.12766,-0.45918,0.07210,,,,,,,,,,,,,,,,,,,,,,,,,,0,0,0,0,0
0.9942,1783441185.4955,1,0,1.0000,0.0000,1.40776,0.14533,-2.66940,1.00138,1.56127,0.12952,-0.12766,-0.45918,0.07210,,,,,,,,,,,,,,,,,,,,,,,,,,0,0,0,0,0
0.9949,1783441185.4962,1,0,1.0000,0.0000,1.40759,0.14537,-2.66942,1.00136,1.56126,0.12968,-0.12759,-0.45919,0.07211,,,,,,,,,,,,,,,,,,,,,,,,,,0,0,0,0,0
1.0037,1783441185.5050,1,0,1.0000,0.0000,1.40729,0.14545,-2.66945,1.00133,1.56124,0.12999,-0.12748,-0.45920,0.07212,,,,,,,,,,,,,,,,,,,,,,,,,,0,0,0,0,0
1.0132,1783441185.5145,1,0,1.0000,0.0000,1.40708,0.14551,-2.66947,1.00131,1.56123,0.13021,-0.12740,-0.45922,0.07214,,,,,,,,,,,,,,,,,,,,,,,,,,0,0,0,0,0
1.0182,1783441185.5195,1,0,1.0000,0.0000,1.40702,0.14553,-2.66946,1.00130,1.56123,0.13027,-0.12737,-0.45923,0.07214,,,,,,,,,,,,,,,,,,,,,,,,,,0,0,0,0,0
1.0192,1783441185.5205,1,0,1.0000,0.0000,1.40699,0.14554,-2.66945,1.00130,1.56122,0.13030,-0.12736,-0.45925,0.07215,,,,,,,,,,,,,,,,,,,,,,,,,,0,0,0,0,0
1.0273,1783441185.5286,1,1,1.0000,0.0000,1.40699,0.14554,-2.66945,1.00130,1.56122,0.13030,-0.12736,-0.45925,0.07215,,,,,,,,,,,,,,,,,,,,,,,,,,0,0,0,0,0
1.0277,1783441185.5290,1,1,1.0000,0.0000,1.40699,0.14554,-2.66945,1.00130,1.56122,0.13030,-0.12736,-0.45925,0.07215,,,,,,,,,,,,,,,,,,,,,,,,,,0,0,0,0,0
1.0367,1783441185.5380,1,1,1.0000,0.0000,1.40699,0.14554,-2.66945,1.00130,1.56122,0.13030,-0.12736,-0.45925,0.07215,,,,,,,,,,,,,,,,,,,,,,,,,,0,0,0,0,0
1.0515,1783441185.5528,1,1,1.0000,0.0000,1.40699,0.14554,-2.66945,1.00130,1.56122,0.13030,-0.12736,-0.45925,0.07215,,,,,,,,,,,,,,,,,,,,,,,,,,0,0,0,0,0
1.0579,1783441185.5592,1,1,1.0000,0.0000,1.40699,0.14554,-2.66945,1.00130,1.56122,0.13030,-0.12736,-0.45925,0.07215,,,,,,,,,,,,,,,,,,,,,,,,,,0,0,0,0,0
1.0589,1783441185.5602,1,1,1.0000,0.0000,1.40699,0.14554,-2.66945,1.00130,1.56122,0.13030,-0.12736,-0.45925,0.07215,,,,,,,,,,,,,,,,,,,,,,,,,,0,0,0,0,0
1.0685,1783441185.5699,1,1,1.0000,0.0000,1.40699,0.14554,-2.66945,1.00130,1.56122,0.13030,-0.12736,-0.45925,0.07215,,,,,,,,,,,,,,,,,,,,,,,,,,0,0,0,0,0
1.0804,1783441185.5817,1,1,1.0000,0.0000,1.40699,0.14554,-2.66945,1.00130,1.56122,0.13030,-0.12736,-0.45925,0.07215,,,,,,,,,,,,,,,,,,,,,,,,,,0,0,0,0,0
1.0925,1783441185.5938,1,1,1.0000,0.0000,1.40699,0.14554,-2.66945,1.00130,1.56122,0.13030,-0.12736,-0.45925,0.07215,,,,,,,,,,,,,,,,,,,,,,,,,,0,0,0,0,0
1.0977,1783441185.5990,1,1,1.0000,0.0000,1.40699,0.14554,-2.66945,1.00130,1.56122,0.13030,-0.12736,-0.45925,0.07215,,,,,,,,,,,,,,,,,,,,,,,,,,0,0,0,0,0
1.0983,1783441185.5996,1,1,1.0000,0.0000,1.40699,0.14554,-2.66945,1.00130,1.56122,0.13030,-0.12736,-0.45925,0.07215,,,,,,,,,,,,,,,,,,,,,,,,,,0,0,0,0,0
1.1076,1783441185.6089,1,1,1.0000,0.0000,1.40699,0.14554,-2.66945,1.00130,1.56122,0.13030,-0.12736,-0.45925,0.07215,,,,,,,,,,,,,,,,,,,,,,,,,,0,0,0,0,0
1.1194,1783441185.6208,1,1,1.0000,0.0000,1.40699,0.14554,-2.66945,1.00130,1.56122,0.13030,-0.12736,-0.45925,0.07215,,,,,,,,,,,,,,,,,,,,,,,,,,0,0,0,0,0
1.1284,1783441185.6297,1,1,1.0000,0.0000,1.40699,0.14554,-2.66945,1.00130,1.56122,0.13030,-0.12736,-0.45925,0.07215,,,,,,,,,,,,,,,,,,,,,,,,,,0,0,0,0,0
1.1390,1783441185.6403,1,1,1.0000,0.0000,1.40699,0.14554,-2.66945,1.00130,1.56122,0.13030,-0.12736,-0.45925,0.07215,,,,,,,,,,,,,,,,,,,,,,,,,,0,0,0,0,0
1.1495,1783441185.6508,1,1,1.0000,0.0000,1.40699,0.14554,-2.66945,1.00130,1.56122,0.13030,-0.12736,-0.45925,0.07215,,,,,,,,,,,,,,,,,,,,,,,,,,0,0,0,0,0
1.1588,1783441185.6601,1,1,1.0000,0.0000,1.40699,0.14554,-2.66945,1.00130,1.56122,0.13030,-0.12736,-0.45925,0.07215,,,,,,,,,,,,,,,,,,,,,,,,,,0,0,0,0,0
1.1679,1783441185.6693,1,1,1.0000,0.0000,1.40699,0.14554,-2.66945,1.00130,1.56122,0.13030,-0.12736,-0.45925,0.07215,,,,,,,,,,,,,,,,,,,,,,,,,,0,0,0,0,0
1.1813,1783441185.6826,1,1,1.0000,0.0000,1.40699,0.14554,-2.66945,1.00130,1.56122,0.13030,-0.12736,-0.45925,0.07215,,,,,,,,,,,,,,,,,,,,,,,,,,0,0,0,0,0
1.1885,1783441185.6898,1,1,1.0000,0.0000,1.40699,0.14554,-2.66945,1.00130,1.56122,0.13030,-0.12736,-0.45925,0.07215,,,,,,,,,,,,,,,,,,,,,,,,,,0,0,0,0,0
1.2022,1783441185.7035,1,1,1.0000,0.0000,1.40699,0.14554,-2.66945,1.00130,1.56122,0.13030,-0.12736,-0.45925,0.07215,,,,,,,,,,,,,,,,,,,,,,,,,,0,0,0,0,0
1.2088,1783441185.7101,1,1,1.0000,0.0000,1.40699,0.14554,-2.66945,1.00130,1.56122,0.13030,-0.12736,-0.45925,0.07215,,,,,,,,,,,,,,,,,,,,,,,,,,0,0,0,0,0
1.2092,1783441185.7105,1,1,1.0000,0.0000,1.40699,0.14554,-2.66945,1.00130,1.56122,0.13030,-0.12736,-0.45925,0.07215,,,,,,,,,,,,,,,,,,,,,,,,,,0,0,0,0,0
1.2231,1783441185.7244,1,1,1.0000,0.0000,1.40699,0.14554,-2.66945,1.00130,1.56122,0.13030,-0.12736,-0.45925,0.07215,,,,,,,,,,,,,,,,,,,,,,,,,,0,0,0,0,0
1.2415,1783441185.7428,1,1,1.0000,0.0000,1.40699,0.14554,-2.66945,1.00130,1.56122,0.13030,-0.12736,-0.45925,0.07215,,,,,,,,,,,,,,,,,,,,,,,,,,0,0,0,0,0
1.2420,1783441185.7433,1,1,1.0000,0.0000,1.40699,0.14554,-2.66945,1.00130,1.56122,0.13030,-0.12736,-0.45925,0.07215,,,,,,,,,,,,,,,,,,,,,,,,,,0,0,0,0,0
1.2486,1783441185.7499,1,1,1.0000,0.0000,1.40699,0.14554,-2.66945,1.00130,1.56122,0.13030,-0.12736,-0.45925,0.07215,,,,,,,,,,,,,,,,,,,,,,,,,,0,0,0,0,0
1.2493,1783441185.7506,1,1,1.0000,0.0000,1.40699,0.14554,-2.66945,1.00130,1.56122,0.13030,-0.12736,-0.45925,0.07215,,,,,,,,,,,,,,,,,,,,,,,,,,0,0,0,0,0
1.2575,1783441185.7588,1,1,1.0000,0.0000,1.40699,0.14554,-2.66945,1.00130,1.56122,0.13030,-0.12736,-0.45925,0.07215,,,,,,,,,,,,,,,,,,,,,,,,,,0,0,0,0,0
1.2670,1783441185.7683,1,1,1.0000,0.0000,1.40699,0.14554,-2.66945,1.00130,1.56122,0.13030,-0.12736,-0.45925,0.07215,,,,,,,,,,,,,,,,,,,,,,,,,,0,0,0,0,0
1.2804,1783441185.7817,1,1,1.0000,0.0000,1.40699,0.14554,-2.66945,1.00130,1.56122,0.13030,-0.12736,-0.45925,0.07215,,,,,,,,,,,,,,,,,,,,,,,,,,0,0,0,0,0
1.2885,1783441185.7898,1,1,1.0000,0.0000,1.40699,0.14554,-2.66945,1.00130,1.56122,0.13030,-0.12736,-0.45925,0.07215,,,,,,,,,,,,,,,,,,,,,,,,,,0,0,0,0,0
1.2974,1783441185.7987,1,1,1.0000,0.0000,1.40699,0.14554,-2.66945,1.00130,1.56122,0.13030,-0.12736,-0.45925,0.07215,,,,,,,,,,,,,,,,,,,,,,,,,,0,0,0,0,0
1.3076,1783441185.8089,1,1,1.0000,0.0000,1.40699,0.14554,-2.66945,1.00130,1.56122,0.13030,-0.12736,-0.45925,0.07215,,,,,,,,,,,,,,,,,,,,,,,,,,0,0,0,0,0
1.3165,1783441185.8178,1,1,1.0000,0.0000,1.40699,0.14554,-2.66945,1.00130,1.56122,0.13030,-0.12736,-0.45925,0.07215,,,,,,,,,,,,,,,,,,,,,,,,,,0,0,0,0,0
1.3269,1783441185.8282,1,1,1.0000,0.0000,1.40699,0.14554,-2.66945,1.00130,1.56122,0.13030,-0.12736,-0.45925,0.07215,,,,,,,,,,,,,,,,,,,,,,,,,,0,0,0,0,0
1.3432,1783441185.8446,1,1,1.0000,0.0000,1.40699,0.14554,-2.66945,1.00130,1.56122,0.13030,-0.12736,-0.45925,0.07215,,,,,,,,,,,,,,,,,,,,,,,,,,0,0,0,0,0
1.3473,1783441185.8486,1,1,1.0000,0.0000,1.40699,0.14554,-2.66945,1.00130,1.56122,0.13030,-0.12736,-0.45925,0.07215,,,,,,,,,,,,,,,,,,,,,,,,,,0,0,0,0,0
1.3588,1783441185.8601,1,1,1.0000,0.0000,1.40699,0.14554,-2.66945,1.00130,1.56122,0.13030,-0.12736,-0.45925,0.07215,,,,,,,,,,,,,,,,,,,,,,,,,,0,0,0,0,0
1.3677,1783441185.8690,1,1,1.0000,0.0000,1.40699,0.14554,-2.66945,1.00130,1.56122,0.13030,-0.12736,-0.45925,0.07215,,,,,,,,,,,,,,,,,,,,,,,,,,0,0,0,0,0
1.3782,1783441185.8795,1,1,1.0000,0.0000,1.40699,0.14554,-2.66945,1.00130,1.56122,0.13030,-0.12736,-0.45925,0.07215,,,,,,,,,,,,,,,,,,,,,,,,,,0,0,0,0,0
1.3875,1783441185.8888,1,1,1.0000,0.0000,1.40699,0.14554,-2.66945,1.00130,1.56122,0.13030,-0.12736,-0.45925,0.07215,,,,,,,,,,,,,,,,,,,,,,,,,,0,0,0,0,0
1.4042,1783441185.9055,1,1,1.0000,0.0000,1.40699,0.14554,-2.66945,1.00130,1.56122,0.13030,-0.12736,-0.45925,0.07215,,,,,,,,,,,,,,,,,,,,,,,,,,0,0,0,0,0
1.4097,1783441185.9110,1,1,1.0000,0.0000,1.40699,0.14554,-2.66945,1.00130,1.56122,0.13030,-0.12736,-0.45925,0.07215,,,,,,,,,,,,,,,,,,,,,,,,,,0,0,0,0,0
1.4400,1783441185.9413,1,1,1.0000,0.0000,1.40699,0.14554,-2.66945,1.00130,1.56122,0.13030,-0.12736,-0.45925,0.07215,,,,,,,,,,,,,,,,,,,,,,,,,,0,0,0,0,0
1.4487,1783441185.9500,1,1,1.0000,0.0000,1.40699,0.14554,-2.66945,1.00130,1.56122,0.13030,-0.12736,-0.45925,0.07215,,,,,,,,,,,,,,,,,,,,,,,,,,0,0,0,0,0
1.4491,1783441185.9504,1,1,1.0000,0.0000,1.40699,0.14554,-2.66945,1.00130,1.56122,0.13030,-0.12736,-0.45925,0.07215,,,,,,,,,,,,,,,,,,,,,,,,,,0,0,0,0,0
1.4497,1783441185.9510,1,1,1.0000,0.0000,1.40699,0.14554,-2.66945,1.00130,1.56122,0.13030,-0.12736,-0.45925,0.07215,,,,,,,,,,,,,,,,,,,,,,,,,,0,0,0,0,0
1.4530,1783441185.9543,1,1,1.0000,0.0000,1.40699,0.14554,-2.66945,1.00130,1.56122,0.13030,-0.12736,-0.45925,0.07215,,,,,,,,,,,,,,,,,,,,,,,,,,0,0,0,0,0
1.4536,1783441185.9549,1,1,1.0000,0.0000,1.40699,0.14554,-2.66945,1.00130,1.56122,0.13030,-0.12736,-0.45925,0.07215,,,,,,,,,,,,,,,,,,,,,,,,,,0,0,0,0,0
1.4566,1783441185.9579,1,1,1.0000,0.0000,1.40699,0.14554,-2.66945,1.00130,1.56122,0.13030,-0.12736,-0.45925,0.07215,,,,,,,,,,,,,,,,,,,,,,,,,,0,0,0,0,0
1.4571,1783441185.9584,1,1,1.0000,0.0000,1.40699,0.14554,-2.66945,1.00130,1.56122,0.13030,-0.12736,-0.45925,0.07215,,,,,,,,,,,,,,,,,,,,,,,,,,0,0,0,0,0
1.4691,1783441185.9704,1,1,1.0000,0.0000,1.40699,0.14554,-2.66945,1.00130,1.56122,0.13030,-0.12736,-0.45925,0.07215,,,,,,,,,,,,,,,,,,,,,,,,,,0,0,0,0,0
1.4879,1783441185.9892,1,1,1.0000,0.0000,1.40705,0.14552,-2.66944,1.00129,1.56122,0.13029,-0.12739,-0.45924,0.07215,,,,,,,,,,,,,,,,,,,,,,,,,,0,0,0,0,0
1.4885,1783441185.9898,1,1,1.0000,0.0000,1.40705,0.14552,-2.66944,1.00129,1.56122,0.13029,-0.12739,-0.45924,0.07215,,,,,,,,,,,,,,,,,,,,,,,,,,0,0,0,0,0
1.5150,1783441186.0163,1,1,1.0000,0.0000,1.40715,0.14550,-2.66942,1.00128,1.56122,0.13025,-0.12743,-0.45924,0.07215,,,,,,,,,,,,,,,,,,,,,,,,,,0,0,0,0,0
1.5209,1783441186.0222,1,1,1.0000,0.0000,1.40718,0.14549,-2.66941,1.00128,1.56122,0.13023,-0.12744,-0.45924,0.07215,,,,,,,,,,,,,,,,,,,,,,,,,,0,0,0,0,0
1.5337,1783441186.0350,1,1,1.0000,0.0000,1.40726,0.14547,-2.66940,1.00128,1.56122,0.13015,-0.12748,-0.45924,0.07215,,,,,,,,,,,,,,,,,,,,,,,,,,0,0,0,0,0
1.5374,1783441186.0387,1,1,1.0000,0.0000,1.40728,0.14546,-2.66939,1.00128,1.56122,0.13014,-0.12748,-0.45924,0.07215,,,,,,,,,,,,,,,,,,,,,,,,,,0,0,0,0,0
1.5378,1783441186.0391,1,1,1.0000,0.0000,1.40728,0.14546,-2.66939,1.00128,1.56122,0.13014,-0.12748,-0.45924,0.07215,,,,,,,,,,,,,,,,,,,,,,,,,,0,0,0,0,0
1.5481,1783441186.0494,1,1,1.0000,0.0000,1.40751,0.14540,-2.66935,1.00129,1.56122,0.12992,-0.12757,-0.45923,0.07214,,,,,,,,,,,,,,,,,,,,,,,,,,0,0,0,0,0
1.5603,1783441186.0616,1,1,1.0000,0.0000,1.40795,0.14528,-2.66927,1.00130,1.56122,0.12951,-0.12774,-0.45922,0.07214,,,,,,,,,,,,,,,,,,,,,,,,,,0,0,0,0,0
1.5692,1783441186.0705,1,1,1.0000,0.0000,1.40798,0.14528,-2.66927,1.00130,1.56122,0.12948,-0.12775,-0.45922,0.07214,,,,,,,,,,,,,,,,,,,,,,,,,,0,0,0,0,0
1.6390,1783441186.1403,1,1,1.0000,0.0000,1.41147,0.14433,-2.66862,1.00153,1.56134,0.12602,-0.12907,-0.45917,0.07210,,,,,,,,,,,,,,,,,,,,,,,,,,0,0,0,0,0
1.6395,1783441186.1408,1,1,1.0000,0.0000,1.41147,0.14433,-2.66862,1.00153,1.56134,0.12602,-0.12907,-0.45917,0.07210,,,,,,,,,,,,,,,,,,,,,,,,,,0,0,0,0,0
1.6400,1783441186.1413,1,1,1.0000,0.0000,1.41147,0.14433,-2.66862,1.00153,1.56134,0.12602,-0.12907,-0.45917,0.07210,,,,,,,,,,,,,,,,,,,,,,,,,,0,0,0,0,0
1.6407,1783441186.1420,1,1,1.0000,0.0000,1.41147,0.14433,-2.66862,1.00153,1.56134,0.12602,-0.12907,-0.45917,0.07210,,,,,,,,,,,,,,,,,,,,,,,,,,0,0,0,0,0
1.6411,1783441186.1424,1,1,1.0000,0.0000,1.41147,0.14433,-2.66862,1.00153,1.56134,0.12602,-0.12907,-0.45917,0.07210,,,,,,,,,,,,,,,,,,,,,,,,,,0,0,0,0,0
1.6517,1783441186.1530,1,1,1.0000,0.0000,1.41275,0.14398,-2.66838,1.00163,1.56139,0.12474,-0.12955,-0.45915,0.07209,,,,,,,,,,,,,,,,,,,,,,,,,,0,0,0,0,0
1.6587,1783441186.1600,1,1,1.0000,0.0000,1.41281,0.14396,-2.66837,1.00163,1.56139,0.12468,-0.12958,-0.45915,0.07209,,,,,,,,,,,,,,,,,,,,,,,,,,0,0,0,0,0
1.6674,1783441186.1687,1,1,1.0000,0.0000,1.41324,0.14384,-2.66829,1.00166,1.56141,0.12425,-0.12974,-0.45915,0.07209,,,,,,,,,,,,,,,,,,,,,,,,,,0,0,0,0,0
1.6767,1783441186.1780,1,1,1.0000,0.0000,1.41400,0.14364,-2.66814,1.00172,1.56144,0.12349,-0.13002,-0.45914,0.07209,,,,,,,,,,,,,,,,,,,,,,,,,,0,0,0,0,0
1.6901,1783441186.1914,1,1,1.0000,0.0000,1.41425,0.14357,-2.66810,1.00174,1.56145,0.12324,-0.13011,-0.45914,0.07209,,,,,,,,,,,,,,,,,,,,,,,,,,0,0,0,0,0
1.6993,1783441186.2006,1,1,1.0000,0.0000,1.41535,0.14327,-2.66788,1.00183,1.56150,0.12214,-0.13052,-0.45913,0.07208,,,,,,,,,,,,,,,,,,,,,,,,,,0,0,0,0,0
1.7111,1783441186.2124,1,1,1.0000,0.0000,1.41636,0.14299,-2.66768,1.00191,1.56155,0.12112,-0.13090,-0.45912,0.07208,,,,,,,,,,,,,,,,,,,,,,,,,,0,0,0,0,0
1.7114,1783441186.2127,1,1,1.0000,0.0000,1.41636,0.14299,-2.66768,1.00191,1.56155,0.12112,-0.13090,-0.45912,0.07208,,,,,,,,,,,,,,,,,,,,,,,,,,0,0,0,0,0
1.7179,1783441186.2192,1,1,1.0000,0.0000,1.41641,0.14298,-2.66767,1.00191,1.56155,0.12108,-0.13092,-0.45912,0.07208,,,,,,,,,,,,,,,,,,,,,,,,,,0,0,0,0,0
1.7346,1783441186.2359,1,1,1.0000,0.0000,1.41731,0.14273,-2.66750,1.00199,1.56159,0.12017,-0.13126,-0.45911,0.07208,,,,,,,,,,,,,,,,,,,,,,,,,,0,0,0,0,0
1.7392,1783441186.2405,1,1,1.0000,0.0000,1.41735,0.14272,-2.66749,1.00199,1.56159,0.12013,-0.13127,-0.45911,0.07208,,,,,,,,,,,,,,,,,,,,,,,,,,0,0,0,0,0
1.7635,1783441186.2649,1,1,1.0000,0.0000,1.41873,0.14234,-2.66722,1.00211,1.56166,0.11874,-0.13178,-0.45910,0.07208,,,,,,,,,,,,,,,,,,,,,,,,,,0,0,0,0,0
1.7640,1783441186.2653,1,1,1.0000,0.0000,1.41873,0.14234,-2.66722,1.00211,1.56166,0.11874,-0.13178,-0.45910,0.07208,,,,,,,,,,,,,,,,,,,,,,,,,,0,0,0,0,0
1.7701,1783441186.2714,1,1,1.0000,0.0000,1.41873,0.14234,-2.66722,1.00211,1.56166,0.11874,-0.13178,-0.45910,0.07208,,,,,,,,,,,,,,,,,,,,,,,,,,0,0,0,0,0
1.7710,1783441186.2723,1,1,1.0000,0.0000,1.41876,0.14233,-2.66722,1.00211,1.56166,0.11872,-0.13179,-0.45910,0.07208,,,,,,,,,,,,,,,,,,,,,,,,,,0,0,0,0,0
1.7789,1783441186.2802,1,1,1.0000,0.0000,1.41892,0.14229,-2.66719,1.00213,1.56167,0.11855,-0.13185,-0.45910,0.07207,,,,,,,,,,,,,,,,,,,,,,,,,,0,0,0,0,0
1.7911,1783441186.2924,1,1,1.0000,0.0000,1.41937,0.14216,-2.66712,1.00217,1.56169,0.11809,-0.13202,-0.45909,0.07207,,,,,,,,,,,,,,,,,,,,,,,,,,0,0,0,0,0
1.8001,1783441186.3014,1,1,1.0000,0.0000,1.41972,0.14207,-2.66706,1.00221,1.56171,0.11773,-0.13215,-0.45907,0.07206,,,,,,,,,,,,,,,,,,,,,,,,,,0,0,0,0,0
1.8107,1783441186.3120,1,1,1.0000,0.0000,1.42022,0.14193,-2.66700,1.00225,1.56174,0.11722,-0.13234,-0.45905,0.07204,,,,,,,,,,,,,,,,,,,,,,,,,,0,0,0,0,0
1.8165,1783441186.3178,1,1,1.0000,0.0000,1.42035,0.14190,-2.66698,1.00227,1.56175,0.11709,-0.13239,-0.45904,0.07204,,,,,,,,,,,,,,,,,,,,,,,,,,0,0,0,0,0
1.8268,1783441186.3281,1,1,1.0000,0.0000,1.42054,0.14184,-2.66699,1.00229,1.56176,0.11689,-0.13246,-0.45901,0.07202,,,,,,,,,,,,,,,,,,,,,,,,,,0,0,0,0,0
1.8273,1783441186.3286,1,1,1.0000,0.0000,1.42054,0.14184,-2.66699,1.00229,1.56176,0.11689,-0.13246,-0.45901,0.07202,,,,,,,,,,,,,,,,,,,,,,,,,,0,0,0,0,0
1.8410,1783441186.3423,1,1,1.0000,0.0000,1.42054,0.14184,-2.66699,1.00229,1.56176,0.11689,-0.13246,-0.45901,0.07202,,,,,,,,,,,,,,,,,,,,,,,,,,0,0,0,0,0
1.8516,1783441186.3529,1,1,1.0000,0.0000,1.42054,0.14184,-2.66699,1.00229,1.56176,0.11689,-0.13246,-0.45901,0.07202,,,,,,,,,,,,,,,,,,,,,,,,,,0,0,0,0,0
1.8572,1783441186.3585,1,1,1.0000,0.0000,1.42054,0.14184,-2.66699,1.00229,1.56176,0.11689,-0.13246,-0.45901,0.07202,,,,,,,,,,,,,,,,,,,,,,,,,,0,0,0,0,0
1.8667,1783441186.3680,1,1,1.0000,0.0000,1.42054,0.14184,-2.66699,1.00229,1.56176,0.11689,-0.13246,-0.45901,0.07202,,,,,,,,,,,,,,,,,,,,,,,,,,0,0,0,0,0
1.8836,1783441186.3849,1,1,1.0000,0.0000,1.42054,0.14184,-2.66699,1.00229,1.56176,0.11689,-0.13246,-0.45901,0.07202,,,,,,,,,,,,,,,,,,,,,,,,,,0,0,0,0,0
1.8881,1783441186.3894,1,1,1.0000,0.0000,1.42054,0.14184,-2.66699,1.00229,1.56176,0.11689,-0.13246,-0.45901,0.07202,,,,,,,,,,,,,,,,,,,,,,,,,,0,0,0,0,0
1.8987,1783441186.4001,1,1,1.0000,0.0000,1.42054,0.14184,-2.66699,1.00229,1.56176,0.11689,-0.13246,-0.45901,0.07202,,,,,,,,,,,,,,,,,,,,,,,,,,0,0,0,0,0
1.8990,1783441186.4003,1,1,1.0000,0.0000,1.42054,0.14184,-2.66699,1.00229,1.56176,0.11689,-0.13246,-0.45901,0.07202,,,,,,,,,,,,,,,,,,,,,,,,,,0,0,0,0,0
1.9116,1783441186.4129,1,1,1.0000,0.0000,1.42054,0.14184,-2.66699,1.00229,1.56176,0.11689,-0.13246,-0.45901,0.07202,,,,,,,,,,,,,,,,,,,,,,,,,,0,0,0,0,0
1.9176,1783441186.4189,1,1,1.0000,0.0000,1.42054,0.14184,-2.66699,1.00229,1.56176,0.11689,-0.13246,-0.45901,0.07202,,,,,,,,,,,,,,,,,,,,,,,,,,0,0,0,0,0
1.9273,1783441186.4286,1,1,1.0000,0.0000,1.42054,0.14184,-2.66699,1.00229,1.56176,0.11689,-0.13246,-0.45901,0.07202,,,,,,,,,,,,,,,,,,,,,,,,,,0,0,0,0,0
1.9366,1783441186.4379,1,1,1.0000,0.0000,1.42054,0.14184,-2.66699,1.00229,1.56176,0.11689,-0.13246,-0.45901,0.07202,,,,,,,,,,,,,,,,,,,,,,,,,,0,0,0,0,0
1.9371,1783441186.4384,1,1,1.0000,0.0000,1.42054,0.14184,-2.66699,1.00229,1.56176,0.11689,-0.13246,-0.45901,0.07202,,,,,,,,,,,,,,,,,,,,,,,,,,0,0,0,0,0
1.9465,1783441186.4478,1,1,1.0000,0.0000,1.42054,0.14184,-2.66699,1.00229,1.56176,0.11689,-0.13246,-0.45901,0.07202,,,,,,,,,,,,,,,,,,,,,,,,,,0,0,0,0,0
1.9578,1783441186.4591,1,1,1.0000,0.0000,1.42054,0.14184,-2.66699,1.00229,1.56176,0.11689,-0.13246,-0.45901,0.07202,,,,,,,,,,,,,,,,,,,,,,,,,,0,0,0,0,0
1.9669,1783441186.4682,1,1,1.0000,0.0000,1.42054,0.14184,-2.66699,1.00229,1.56176,0.11689,-0.13246,-0.45901,0.07202,,,,,,,,,,,,,,,,,,,,,,,,,,0,0,0,0,0
1.9775,1783441186.4788,1,1,1.0000,0.0000,1.42054,0.14184,-2.66699,1.00229,1.56176,0.11689,-0.13246,-0.45901,0.07202,,,,,,,,,,,,,,,,,,,,,,,,,,0,0,0,0,0
1.9886,1783441186.4899,1,1,1.0000,0.0000,1.42054,0.14184,-2.66699,1.00229,1.56176,0.11689,-0.13246,-0.45901,0.07202,,,,,,,,,,,,,,,,,,,,,,,,,,0,0,0,0,0
2.0000,1783441186.5013,1,1,1.0000,0.0000,1.42054,0.14184,-2.66699,1.00229,1.56176,0.11689,-0.13246,-0.45901,0.07202,,,,,,,,,,,,,,,,,,,,,,,,,,0,0,0,0,0
2.0067,1783441186.5080,1,1,1.0000,0.0000,1.42054,0.14184,-2.66699,1.00229,1.56176,0.11689,-0.13246,-0.45901,0.07202,,,,,,,,,,,,,,,,,,,,,,,,,,0,0,0,0,0
2.0205,1783441186.5218,1,1,1.0000,0.0000,1.42054,0.14184,-2.66699,1.00229,1.56176,0.11689,-0.13246,-0.45901,0.07202,,,,,,,,,,,,,,,,,,,,,,,,,,0,0,0,0,0
2.0416,1783441186.5429,1,1,1.0000,0.0000,1.42054,0.14184,-2.66699,1.00229,1.56176,0.11689,-0.13246,-0.45901,0.07202,,,,,,,,,,,,,,,,,,,,,,,,,,0,0,0,0,0
2.0489,1783441186.5502,1,1,1.0000,0.0000,1.42054,0.14184,-2.66699,1.00229,1.56176,0.11689,-0.13246,-0.45901,0.07202,,,,,,,,,,,,,,,,,,,,,,,,,,0,0,0,0,0
2.0605,1783441186.5618,1,1,1.0000,0.0000,1.42054,0.14184,-2.66699,1.00229,1.56176,0.11689,-0.13246,-0.45901,0.07202,,,,,,,,,,,,,,,,,,,,,,,,,,0,0,0,0,0
2.0713,1783441186.5726,1,1,1.0000,0.0000,1.42054,0.14184,-2.66699,1.00229,1.56176,0.11689,-0.13246,-0.45901,0.07202,,,,,,,,,,,,,,,,,,,,,,,,,,0,0,0,0,0
2.0772,1783441186.5785,1,1,1.0000,0.0000,1.42054,0.14184,-2.66699,1.00229,1.56176,0.11689,-0.13246,-0.45901,0.07202,,,,,,,,,,,,,,,,,,,,,,,,,,0,0,0,0,0
2.0914,1783441186.5927,1,1,1.0000,0.0000,1.42054,0.14184,-2.66699,1.00229,1.56176,0.11689,-0.13246,-0.45901,0.07202,,,,,,,,,,,,,,,,,,,,,,,,,,0,0,0,0,0
2.1005,1783441186.6018,1,1,1.0000,0.0000,1.42054,0.14184,-2.66699,1.00229,1.56176,0.11689,-0.13246,-0.45901,0.07202,,,,,,,,,,,,,,,,,,,,,,,,,,0,0,0,0,0
2.1108,1783441186.6121,1,1,1.0000,0.0000,1.42054,0.14184,-2.66699,1.00229,1.56176,0.11689,-0.13246,-0.45901,0.07202,,,,,,,,,,,,,,,,,,,,,,,,,,0,0,0,0,0
2.1111,1783441186.6124,1,1,1.0000,0.0000,1.42054,0.14184,-2.66699,1.00229,1.56176,0.11689,-0.13246,-0.45901,0.07202,,,,,,,,,,,,,,,,,,,,,,,,,,0,0,0,0,0
2.1170,1783441186.6183,1,1,1.0000,0.0000,1.42054,0.14184,-2.66699,1.00229,1.56176,0.11689,-0.13246,-0.45901,0.07202,,,,,,,,,,,,,,,,,,,,,,,,,,0,0,0,0,0
2.1263,1783441186.6276,1,1,1.0000,0.0000,1.42054,0.14184,-2.66699,1.00229,1.56176,0.11689,-0.13246,-0.45901,0.07202,,,,,,,,,,,,,,,,,,,,,,,,,,0,0,0,0,0
2.1452,1783441186.6465,1,1,1.0000,0.0000,1.42054,0.14184,-2.66699,1.00229,1.56176,0.11689,-0.13246,-0.45901,0.07202,,,,,,,,,,,,,,,,,,,,,,,,,,0,0,0,0,0
2.1457,1783441186.6470,1,1,1.0000,0.0000,1.42054,0.14184,-2.66699,1.00229,1.56176,0.11689,-0.13246,-0.45901,0.07202,,,,,,,,,,,,,,,,,,,,,,,,,,0,0,0,0,0
2.1496,1783441186.6509,1,1,1.0000,0.0000,1.42054,0.14184,-2.66699,1.00229,1.56176,0.11689,-0.13246,-0.45901,0.07202,,,,,,,,,,,,,,,,,,,,,,,,,,0,0,0,0,0
2.1501,1783441186.6514,1,1,1.0000,0.0000,1.42054,0.14184,-2.66699,1.00229,1.56176,0.11689,-0.13246,-0.45901,0.07202,,,,,,,,,,,,,,,,,,,,,,,,,,0,0,0,0,0
2.1581,1783441186.6594,1,1,1.0000,0.0000,1.42054,0.14184,-2.66699,1.00229,1.56176,0.11689,-0.13246,-0.45901,0.07202,,,,,,,,,,,,,,,,,,,,,,,,,,0,0,0,0,0
2.1586,1783441186.6599,1,1,1.0000,0.0000,1.42054,0.14184,-2.66699,1.00229,1.56176,0.11689,-0.13246,-0.45901,0.07202,,,,,,,,,,,,,,,,,,,,,,,,,,0,0,0,0,0
2.1676,1783441186.6690,1,1,1.0000,0.0000,1.42054,0.14184,-2.66699,1.00229,1.56176,0.11689,-0.13246,-0.45901,0.07202,,,,,,,,,,,,,,,,,,,,,,,,,,0,0,0,0,0
2.1789,1783441186.6802,1,1,1.0000,0.0000,1.42054,0.14184,-2.66699,1.00229,1.56176,0.11689,-0.13246,-0.45901,0.07202,,,,,,,,,,,,,,,,,,,,,,,,,,0,0,0,0,0
2.1881,1783441186.6894,1,1,1.0000,0.0000,1.42054,0.14184,-2.66699,1.00229,1.56176,0.11689,-0.13246,-0.45901,0.07202,,,,,,,,,,,,,,,,,,,,,,,,,,0,0,0,0,0
2.2031,1783441186.7044,1,1,1.0000,0.0000,1.42054,0.14184,-2.66699,1.00229,1.56176,0.11689,-0.13246,-0.45901,0.07202,,,,,,,,,,,,,,,,,,,,,,,,,,0,0,0,0,0
2.2078,1783441186.7091,1,1,1.0000,0.0000,1.42054,0.14184,-2.66699,1.00229,1.56176,0.11689,-0.13246,-0.45901,0.07202,,,,,,,,,,,,,,,,,,,,,,,,,,0,0,0,0,0
2.2274,1783441186.7287,1,1,1.0000,0.0000,1.42054,0.14184,-2.66699,1.00229,1.56176,0.11689,-0.13246,-0.45901,0.07202,,,,,,,,,,,,,,,,,,,,,,,,,,0,0,0,0,0
2.2279,1783441186.7292,1,1,1.0000,0.0000,1.42054,0.14184,-2.66699,1.00229,1.56176,0.11689,-0.13246,-0.45901,0.07202,,,,,,,,,,,,,,,,,,,,,,,,,,0,0,0,0,0
2.2283,1783441186.7296,1,1,1.0000,0.0000,1.42054,0.14184,-2.66699,1.00229,1.56176,0.11689,-0.13246,-0.45901,0.07202,,,,,,,,,,,,,,,,,,,,,,,,,,0,0,0,0,0
2.2366,1783441186.7379,1,1,1.0000,0.0000,1.42054,0.14184,-2.66699,1.00229,1.56176,0.11689,-0.13246,-0.45901,0.07202,,,,,,,,,,,,,,,,,,,,,,,,,,0,0,0,0,0
2.2488,1783441186.7501,1,1,1.0000,0.0000,1.42054,0.14184,-2.66699,1.00229,1.56176,0.11689,-0.13246,-0.45901,0.07202,,,,,,,,,,,,,,,,,,,,,,,,,,0,0,0,0,0
2.2607,1783441186.7620,1,1,1.0000,0.0000,1.42053,0.14185,-2.66699,1.00229,1.56176,0.11689,-0.13246,-0.45901,0.07202,,,,,,,,,,,,,,,,,,,,,,,,,,0,0,0,0,0
2.2673,1783441186.7686,1,1,1.0000,0.0000,1.42053,0.14186,-2.66701,1.00230,1.56177,0.11689,-0.13246,-0.45901,0.07202,,,,,,,,,,,,,,,,,,,,,,,,,,0,0,0,0,0
2.2681,1783441186.7694,1,1,1.0000,0.0000,1.42053,0.14186,-2.66701,1.00230,1.56177,0.11689,-0.13246,-0.45901,0.07202,,,,,,,,,,,,,,,,,,,,,,,,,,0,0,0,0,0
2.2773,1783441186.7786,1,1,1.0000,0.0000,1.42052,0.14188,-2.66702,1.00230,1.56177,0.11688,-0.13245,-0.45900,0.07202,,,,,,,,,,,,,,,,,,,,,,,,,,0,0,0,0,0
2.2867,1783441186.7880,1,1,1.0000,0.0000,1.42052,0.14189,-2.66703,1.00231,1.56178,0.11687,-0.13245,-0.45899,0.07202,,,,,,,,,,,,,,,,,,,,,,,,,,0,0,0,0,0
2.2993,1783441186.8006,1,1,1.0000,0.0000,1.42051,0.14195,-2.66707,1.00230,1.56178,0.11687,-0.13245,-0.45897,0.07202,,,,,,,,,,,,,,,,,,,,,,,,,,0,0,0,0,0
2.3127,1783441186.8140,1,1,1.0000,0.0000,1.42050,0.14200,-2.66710,1.00230,1.56178,0.11687,-0.13245,-0.45895,0.07202,,,,,,,,,,,,,,,,,,,,,,,,,,0,0,0,0,0
2.3132,1783441186.8145,1,1,1.0000,0.0000,1.42050,0.14200,-2.66710,1.00230,1.56178,0.11687,-0.13245,-0.45895,0.07202,,,,,,,,,,,,,,,,,,,,,,,,,,0,0,0,0,0
2.3168,1783441186.8181,1,1,1.0000,0.0000,1.42049,0.14203,-2.66713,1.00229,1.56178,0.11687,-0.13245,-0.45894,0.07202,,,,,,,,,,,,,,,,,,,,,,,,,,0,0,0,0,0
2.3284,1783441186.8297,1,1,1.0000,0.0000,1.42045,0.14224,-2.66727,1.00226,1.56179,0.11689,-0.13244,-0.45886,0.07203,,,,,,,,,,,,,,,,,,,,,,,,,,0,0,0,0,0
2.3380,1783441186.8393,1,1,1.0000,0.0000,1.42041,0.14245,-2.66742,1.00223,1.56179,0.11690,-0.13243,-0.45878,0.07204,,,,,,,,,,,,,,,,,,,,,,,,,,0,0,0,0,0
2.3492,1783441186.8505,1,1,1.0000,0.0000,1.42039,0.14252,-2.66747,1.00221,1.56179,0.11691,-0.13243,-0.45874,0.07204,,,,,,,,,,,,,,,,,,,,,,,,,,0,0,0,0,0
2.3496,1783441186.8509,1,1,1.0000,0.0000,1.42039,0.14252,-2.66747,1.00221,1.56179,0.11691,-0.13243,-0.45874,0.07204,,,,,,,,,,,,,,,,,,,,,,,,,,0,0,0,0,0
2.3580,1783441186.8593,1,1,1.0000,0.0000,1.42035,0.14274,-2.66763,1.00216,1.56179,0.11694,-0.13243,-0.45865,0.07205,,,,,,,,,,,,,,,,,,,,,,,,,,0,0,0,0,0
2.3678,1783441186.8691,1,1,1.0000,0.0000,1.42025,0.14326,-2.66799,1.00205,1.56179,0.11702,-0.13242,-0.45844,0.07206,,,,,,,,,,,,,,,,,,,,,,,,,,0,0,0,0,0
2.3682,1783441186.8695,1,1,1.0000,0.0000,1.42025,0.14326,-2.66799,1.00205,1.56179,0.11702,-0.13242,-0.45844,0.07206,,,,,,,,,,,,,,,,,,,,,,,,,,0,0,0,0,0
2.3763,1783441186.8776,1,1,1.0000,0.0000,1.42021,0.14347,-2.66814,1.00200,1.56179,0.11705,-0.13242,-0.45835,0.07206,,,,,,,,,,,,,,,,,,,,,,,,,,0,0,0,0,0
2.3767,1783441186.8780,1,1,1.0000,0.0000,1.42021,0.14347,-2.66814,1.00200,1.56179,0.11705,-0.13242,-0.45835,0.07206,,,,,,,,,,,,,,,,,,,,,,,,,,0,0,0,0,0
2.3885,1783441186.8898,1,1,1.0000,0.0000,1.42016,0.14373,-2.66833,1.00194,1.56179,0.11709,-0.13242,-0.45824,0.07207,,,,,,,,,,,,,,,,,,,,,,,,,,0,0,0,0,0
2.3965,1783441186.8978,1,1,1.0000,0.0000,1.42008,0.14414,-2.66863,1.00184,1.56179,0.11716,-0.13241,-0.45806,0.07207,,,,,,,,,,,,,,,,,,,,,,,,,,0,0,0,0,0
2.4093,1783441186.9106,1,1,1.0000,0.0000,1.42005,0.14433,-2.66876,1.00179,1.56179,0.11720,-0.13241,-0.45798,0.07207,,,,,,,,,,,,,,,,,,,,,,,,,,0,0,0,0,0
2.4173,1783441186.9186,1,1,1.0000,0.0000,1.41995,0.14482,-2.66912,1.00166,1.56179,0.11729,-0.13241,-0.45776,0.07208,,,,,,,,,,,,,,,,,,,,,,,,,,0,0,0,0,0
2.4319,1783441186.9332,1,1,1.0000,0.0000,1.41974,0.14595,-2.66993,1.00137,1.56180,0.11749,-0.13240,-0.45727,0.07209,,,,,,,,,,,,,,,,,,,,,,,,,,0,0,0,0,0
2.4387,1783441186.9400,1,1,1.0000,0.0000,1.41973,0.14600,-2.66997,1.00136,1.56180,0.11750,-0.13240,-0.45725,0.07209,,,,,,,,,,,,,,,,,,,,,,,,,,0,0,0,0,0
2.4562,1783441186.9575,1,1,1.0000,0.0000,1.41946,0.14738,-2.67097,1.00099,1.56180,0.11776,-0.13239,-0.45664,0.07209,,,,,,,,,,,,,,,,,,,,,,,,,,0,0,0,0,0
2.4567,1783441186.9580,1,1,1.0000,0.0000,1.41946,0.14738,-2.67097,1.00099,1.56180,0.11776,-0.13239,-0.45664,0.07209,,,,,,,,,,,,,,,,,,,,,,,,,,0,0,0,0,0
2.4574,1783441186.9587,1,1,1.0000,0.0000,1.41946,0.14738,-2.67097,1.00099,1.56180,0.11776,-0.13239,-0.45664,0.07209,,,,,,,,,,,,,,,,,,,,,,,,,,0,0,0,0,0
2.4708,1783441186.9721,1,1,1.0000,0.0000,1.41937,0.14786,-2.67131,1.00087,1.56180,0.11785,-0.13239,-0.45643,0.07210,,,,,,,,,,,,,,,,,,,,,,,,,,0,0,0,0,0
2.4843,1783441186.9856,1,1,1.0000,0.0000,1.41918,0.14883,-2.67202,1.00060,1.56180,0.11804,-0.13238,-0.45600,0.07210,,,,,,,,,,,,,,,,,,,,,,,,,,0,0,0,0,0
2.4848,1783441186.9861,1,1,1.0000,0.0000,1.41918,0.14883,-2.67202,1.00060,1.56180,0.11804,-0.13238,-0.45600,0.07210,,,,,,,,,,,,,,,,,,,,,,,,,,0,0,0,0,0
2.4876,1783441186.9889,1,1,1.0000,0.0000,1.41918,0.14883,-2.67202,1.00060,1.56180,0.11804,-0.13238,-0.45600,0.07210,,,,,,,,,,,,,,,,,,,,,,,,,,0,0,0,0,0
2.4878,1783441186.9891,1,1,1.0000,0.0000,1.41918,0.14883,-2.67202,1.00060,1.56180,0.11804,-0.13238,-0.45600,0.07210,,,,,,,,,,,,,,,,,,,,,,,,,,0,0,0,0,0
2.4979,1783441186.9992,1,1,1.0000,0.0000,1.41915,0.14901,-2.67215,1.00055,1.56180,0.11807,-0.13238,-0.45592,0.07210,,,,,,,,,,,,,,,,,,,,,,,,,,0,0,0,0,0
2.5134,1783441187.0147,1,1,1.0000,0.0000,1.41893,0.15016,-2.67298,1.00022,1.56179,0.11829,-0.13237,-0.45542,0.07210,,,,,,,,,,,,,,,,,,,,,,,,,,0,0,0,0,0
2.5171,1783441187.0184,1,1,1.0000,0.0000,1.41885,0.15054,-2.67325,1.00012,1.56179,0.11837,-0.13237,-0.45525,0.07210,,,,,,,,,,,,,,,,,,,,,,,,,,0,0,0,0,0
2.5176,1783441187.0189,1,1,1.0000,0.0000,1.41885,0.15054,-2.67325,1.00012,1.56179,0.11837,-0.13237,-0.45525,0.07210,,,,,,,,,,,,,,,,,,,,,,,,,,0,0,0,0,0
2.5270,1783441187.0283,1,1,1.0000,0.0000,1.41885,0.15057,-2.67327,1.00011,1.56179,0.11837,-0.13237,-0.45524,0.07210,,,,,,,,,,,,,,,,,,,,,,,,,,0,0,0,0,0
2.5385,1783441187.0398,1,1,1.0000,0.0000,1.41877,0.15096,-2.67356,0.99999,1.56179,0.11845,-0.13237,-0.45506,0.07209,,,,,,,,,,,,,,,,,,,,,,,,,,0,0,0,0,0
2.5533,1783441187.0546,1,1,1.0000,0.0000,1.41864,0.15162,-2.67404,0.99980,1.56179,0.11858,-0.13237,-0.45477,0.07209,,,,,,,,,,,,,,,,,,,,,,,,,,0,0,0,0,0
2.5576,1783441187.0589,1,1,1.0000,0.0000,1.41864,0.15164,-2.67405,0.99979,1.56179,0.11858,-0.13237,-0.45476,0.07209,,,,,,,,,,,,,,,,,,,,,,,,,,0,0,0,0,0
2.5668,1783441187.0681,1,1,1.0000,0.0000,1.41862,0.15177,-2.67414,0.99975,1.56179,0.11861,-0.13237,-0.45470,0.07209,,,,,,,,,,,,,,,,,,,,,,,,,,0,0,0,0,0
2.5776,1783441187.0789,1,1,1.0000,0.0000,1.41855,0.15213,-2.67439,0.99964,1.56179,0.11868,-0.13236,-0.45455,0.07210,,,,,,,,,,,,,,,,,,,,,,,,,,0,0,0,0,0
2.5885,1783441187.0898,1,1,1.0000,0.0000,1.41846,0.15256,-2.67468,0.99951,1.56179,0.11877,-0.13236,-0.45437,0.07211,,,,,,,,,,,,,,,,,,,,,,,,,,0,0,0,0,0
2.6040,1783441187.1053,1,1,1.0000,0.0000,1.41838,0.15301,-2.67495,0.99937,1.56179,0.11887,-0.13235,-0.45421,0.07213,,,,,,,,,,,,,,,,,,,,,,,,,,0,0,0,0,0
2.6103,1783441187.1116,1,1,1.0000,0.0000,1.41837,0.15306,-2.67497,0.99935,1.56179,0.11888,-0.13235,-0.45419,0.07213,,,,,,,,,,,,,,,,,,,,,,,,,,0,0,0,0,0
2.6171,1783441187.1184,1,1,1.0000,0.0000,1.41836,0.15308,-2.67497,0.99934,1.56179,0.11888,-0.13235,-0.45419,0.07214,,,,,,,,,,,,,,,,,,,,,,,,,,0,0,0,0,0
2.6288,1783441187.1301,1,1,1.0000,0.0000,1.41836,0.15308,-2.67497,0.99934,1.56179,0.11888,-0.13235,-0.45419,0.07214,,,,,,,,,,,,,,,,,,,,,,,,,,0,0,0,0,0
2.6361,1783441187.1374,1,1,1.0000,0.0000,1.41836,0.15308,-2.67497,0.99934,1.56179,0.11888,-0.13235,-0.45419,0.07214,,,,,,,,,,,,,,,,,,,,,,,,,,0,0,0,0,0
2.6364,1783441187.1377,1,1,1.0000,0.0000,1.41836,0.15308,-2.67497,0.99934,1.56179,0.11888,-0.13235,-0.45419,0.07214,,,,,,,,,,,,,,,,,,,,,,,,,,0,0,0,0,0
2.6487,1783441187.1500,1,1,1.0000,0.0000,1.41836,0.15308,-2.67497,0.99934,1.56179,0.11888,-0.13235,-0.45419,0.07214,,,,,,,,,,,,,,,,,,,,,,,,,,0,0,0,0,0
2.6599,1783441187.1612,1,1,1.0000,0.0000,1.41836,0.15308,-2.67497,0.99934,1.56179,0.11888,-0.13235,-0.45419,0.07214,,,,,,,,,,,,,,,,,,,,,,,,,,0,0,0,0,0
2.6706,1783441187.1719,1,1,1.0000,0.0000,1.41836,0.15308,-2.67497,0.99934,1.56179,0.11888,-0.13235,-0.45419,0.07214,,,,,,,,,,,,,,,,,,,,,,,,,,0,0,0,0,0
2.6842,1783441187.1855,1,1,1.0000,0.0000,1.41836,0.15308,-2.67497,0.99934,1.56179,0.11888,-0.13235,-0.45419,0.07214,,,,,,,,,,,,,,,,,,,,,,,,,,0,0,0,0,0
2.6894,1783441187.1907,1,1,1.0000,0.0000,1.41836,0.15308,-2.67497,0.99934,1.56179,0.11888,-0.13235,-0.45419,0.07214,,,,,,,,,,,,,,,,,,,,,,,,,,0,0,0,0,0
2.6970,1783441187.1983,1,1,1.0000,0.0000,1.41836,0.15308,-2.67497,0.99934,1.56179,0.11888,-0.13235,-0.45419,0.07214,,,,,,,,,,,,,,,,,,,,,,,,,,0,0,0,0,0
2.6976,1783441187.1989,1,1,1.0000,0.0000,1.41836,0.15308,-2.67497,0.99934,1.56179,0.11888,-0.13235,-0.45419,0.07214,,,,,,,,,,,,,,,,,,,,,,,,,,0,0,0,0,0
2.7076,1783441187.2089,1,1,1.0000,0.0000,1.41836,0.15308,-2.67497,0.99934,1.56179,0.11888,-0.13235,-0.45419,0.07214,,,,,,,,,,,,,,,,,,,,,,,,,,0,0,0,0,0
2.7212,1783441187.2225,1,1,1.0000,0.0000,1.41836,0.15308,-2.67497,0.99934,1.56179,0.11888,-0.13235,-0.45419,0.07214,,,,,,,,,,,,,,,,,,,,,,,,,,0,0,0,0,0
2.7217,1783441187.2230,1,1,1.0000,0.0000,1.41836,0.15308,-2.67497,0.99934,1.56179,0.11888,-0.13235,-0.45419,0.07214,,,,,,,,,,,,,,,,,,,,,,,,,,0,0,0,0,0
2.7268,1783441187.2281,1,1,1.0000,0.0000,1.41836,0.15308,-2.67497,0.99934,1.56179,0.11888,-0.13235,-0.45419,0.07214,,,,,,,,,,,,,,,,,,,,,,,,,,0,0,0,0,0
2.7457,1783441187.2470,1,1,1.0000,0.0000,1.41836,0.15308,-2.67497,0.99934,1.56179,0.11888,-0.13235,-0.45419,0.07214,,,,,,,,,,,,,,,,,,,,,,,,,,0,0,0,0,0
2.7462,1783441187.2475,1,1,1.0000,0.0000,1.41836,0.15308,-2.67497,0.99934,1.56179,0.11888,-0.13235,-0.45419,0.07214,,,,,,,,,,,,,,,,,,,,,,,,,,0,0,0,0,0
2.7465,1783441187.2478,1,1,1.0000,0.0000,1.41836,0.15308,-2.67497,0.99934,1.56179,0.11888,-0.13235,-0.45419,0.07214,,,,,,,,,,,,,,,,,,,,,,,,,,0,0,0,0,0
2.7602,1783441187.2615,1,1,1.0000,0.0000,1.41836,0.15308,-2.67497,0.99934,1.56179,0.11888,-0.13235,-0.45419,0.07214,,,,,,,,,,,,,,,,,,,,,,,,,,0,0,0,0,0
2.7727,1783441187.2740,1,1,1.0000,0.0000,1.41836,0.15308,-2.67497,0.99934,1.56179,0.11888,-0.13235,-0.45419,0.07214,,,,,,,,,,,,,,,,,,,,,,,,,,0,0,0,0,0
2.7768,1783441187.2781,1,1,1.0000,0.0000,1.41836,0.15308,-2.67497,0.99934,1.56179,0.11888,-0.13235,-0.45419,0.07214,,,,,,,,,,,,,,,,,,,,,,,,,,0,0,0,0,0
2.7882,1783441187.2895,1,1,1.0000,0.0000,1.41836,0.15308,-2.67497,0.99934,1.56179,0.11888,-0.13235,-0.45419,0.07214,,,,,,,,,,,,,,,,,,,,,,,,,,0,0,0,0,0
2.7969,1783441187.2983,1,1,1.0000,0.0000,1.41836,0.15308,-2.67497,0.99934,1.56179,0.11888,-0.13235,-0.45419,0.07214,,,,,,,,,,,,,,,,,,,,,,,,,,0,0,0,0,0
2.8077,1783441187.3090,1,1,1.0000,0.0000,1.41836,0.15308,-2.67497,0.99934,1.56179,0.11888,-0.13235,-0.45419,0.07214,,,,,,,,,,,,,,,,,,,,,,,,,,0,0,0,0,0
2.8178,1783441187.3191,1,1,1.0000,0.0000,1.41836,0.15308,-2.67497,0.99934,1.56179,0.11888,-0.13235,-0.45419,0.07214,,,,,,,,,,,,,,,,,,,,,,,,,,0,0,0,0,0
2.8271,1783441187.3284,1,1,1.0000,0.0000,1.41836,0.15308,-2.67497,0.99934,1.56179,0.11888,-0.13235,-0.45419,0.07214,,,,,,,,,,,,,,,,,,,,,,,,,,0,0,0,0,0
2.8363,1783441187.3376,1,1,1.0000,0.0000,1.41836,0.15308,-2.67497,0.99934,1.56179,0.11888,-0.13235,-0.45419,0.07214,,,,,,,,,,,,,,,,,,,,,,,,,,0,0,0,0,0
2.8504,1783441187.3517,1,1,1.0000,0.0000,1.41836,0.15308,-2.67497,0.99934,1.56179,0.11888,-0.13235,-0.45419,0.07214,,,,,,,,,,,,,,,,,,,,,,,,,,0,0,0,0,0
2.8565,1783441187.3579,1,1,1.0000,0.0000,1.41836,0.15308,-2.67497,0.99934,1.56179,0.11888,-0.13235,-0.45419,0.07214,,,,,,,,,,,,,,,,,,,,,,,,,,0,0,0,0,0
2.8666,1783441187.3679,1,1,1.0000,0.0000,1.41836,0.15308,-2.67497,0.99934,1.56179,0.11888,-0.13235,-0.45419,0.07214,,,,,,,,,,,,,,,,,,,,,,,,,,0,0,0,0,0
2.8797,1783441187.3810,1,1,1.0000,0.0000,1.41836,0.15308,-2.67497,0.99934,1.56179,0.11888,-0.13235,-0.45419,0.07214,,,,,,,,,,,,,,,,,,,,,,,,,,0,0,0,0,0
2.8869,1783441187.3882,1,1,1.0000,0.0000,1.41836,0.15308,-2.67497,0.99934,1.56179,0.11888,-0.13235,-0.45419,0.07214,,,,,,,,,,,,,,,,,,,,,,,,,,0,0,0,0,0
2.8967,1783441187.3980,1,1,1.0000,0.0000,1.41836,0.15308,-2.67497,0.99934,1.56179,0.11888,-0.13235,-0.45419,0.07214,,,,,,,,,,,,,,,,,,,,,,,,,,0,0,0,0,0
2.8971,1783441187.3984,1,1,1.0000,0.0000,1.41836,0.15308,-2.67497,0.99934,1.56179,0.11888,-0.13235,-0.45419,0.07214,,,,,,,,,,,,,,,,,,,,,,,,,,0,0,0,0,0
2.9077,1783441187.4090,1,1,1.0000,0.0000,1.41836,0.15308,-2.67497,0.99934,1.56179,0.11888,-0.13235,-0.45419,0.07214,,,,,,,,,,,,,,,,,,,,,,,,,,0,0,0,0,0
2.9199,1783441187.4212,1,1,1.0000,0.0000,1.41836,0.15308,-2.67497,0.99934,1.56179,0.11888,-0.13235,-0.45419,0.07214,,,,,,,,,,,,,,,,,,,,,,,,,,0,0,0,0,0
2.9303,1783441187.4316,1,1,1.0000,0.0000,1.41836,0.15308,-2.67497,0.99934,1.56179,0.11888,-0.13235,-0.45419,0.07214,,,,,,,,,,,,,,,,,,,,,,,,,,0,0,0,0,0
2.9398,1783441187.4411,1,1,1.0000,0.0000,1.41836,0.15308,-2.67497,0.99934,1.56179,0.11888,-0.13235,-0.45419,0.07214,,,,,,,,,,,,,,,,,,,,,,,,,,0,0,0,0,0
2.9501,1783441187.4514,1,1,1.0000,0.0000,1.41836,0.15308,-2.67497,0.99934,1.56179,0.11888,-0.13235,-0.45419,0.07214,,,,,,,,,,,,,,,,,,,,,,,,,,0,0,0,0,0
2.9628,1783441187.4641,1,1,1.0000,0.0000,1.41836,0.15308,-2.67497,0.99934,1.56179,0.11888,-0.13235,-0.45419,0.07214,,,,,,,,,,,,,,,,,,,,,,,,,,0,0,0,0,0
2.9708,1783441187.4721,1,1,1.0000,0.0000,1.41836,0.15308,-2.67497,0.99934,1.56179,0.11888,-0.13235,-0.45419,0.07214,,,,,,,,,,,,,,,,,,,,,,,,,,0,0,0,0,0
2.9846,1783441187.4859,1,1,1.0000,0.0000,1.41836,0.15308,-2.67497,0.99934,1.56179,0.11888,-0.13235,-0.45419,0.07214,,,,,,,,,,,,,,,,,,,,,,,,,,0,0,0,0,0
2.9907,1783441187.4920,1,1,1.0000,0.0000,1.41836,0.15308,-2.67497,0.99934,1.56179,0.11888,-0.13235,-0.45419,0.07214,,,,,,,,,,,,,,,,,,,,,,,,,,0,0,0,0,0
3.0013,1783441187.5026,1,1,1.0000,0.0000,1.41836,0.15308,-2.67497,0.99934,1.56179,0.11888,-0.13235,-0.45419,0.07214,,,,,,,,,,,,,,,,,,,,,,,,,,0,0,0,0,0
3.0097,1783441187.5110,1,1,1.0000,0.0000,1.41836,0.15308,-2.67497,0.99934,1.56179,0.11888,-0.13235,-0.45419,0.07214,,,,,,,,,,,,,,,,,,,,,,,,,,0,0,0,0,0
3.0224,1783441187.5237,1,1,1.0000,0.0000,1.41836,0.15308,-2.67497,0.99934,1.56179,0.11888,-0.13235,-0.45419,0.07214,,,,,,,,,,,,,,,,,,,,,,,,,,0,0,0,0,0
3.0401,1783441187.5414,1,1,1.0000,0.0000,1.41836,0.15308,-2.67497,0.99934,1.56179,0.11888,-0.13235,-0.45420,0.07214,,,,,,,,,,,,,,,,,,,,,,,,,,0,0,0,0,0
3.0485,1783441187.5498,1,1,1.0000,0.0000,1.41836,0.15307,-2.67497,0.99934,1.56179,0.11889,-0.13235,-0.45420,0.07214,,,,,,,,,,,,,,,,,,,,,,,,,,0,0,0,0,0
3.0489,1783441187.5502,1,1,1.0000,0.0000,1.41836,0.15307,-2.67497,0.99934,1.56179,0.11889,-0.13235,-0.45420,0.07214,,,,,,,,,,,,,,,,,,,,,,,,,,0,0,0,0,0
3.0547,1783441187.5560,1,1,1.0000,0.0000,1.41837,0.15307,-2.67497,0.99933,1.56179,0.11889,-0.13235,-0.45420,0.07214,,,,,,,,,,,,,,,,,,,,,,,,,,0,0,0,0,0
3.0718,1783441187.5731,1,1,1.0000,0.0000,1.41837,0.15305,-2.67496,0.99933,1.56179,0.11890,-0.13235,-0.45420,0.07214,,,,,,,,,,,,,,,,,,,,,,,,,,0,0,0,0,0
3.0769,1783441187.5782,1,1,1.0000,0.0000,1.41837,0.15304,-2.67495,0.99933,1.56179,0.11890,-0.13235,-0.45420,0.07214,,,,,,,,,,,,,,,,,,,,,,,,,,0,0,0,0,0
3.0878,1783441187.5891,1,1,1.0000,0.0000,1.41838,0.15300,-2.67492,0.99933,1.56179,0.11891,-0.13236,-0.45422,0.07213,,,,,,,,,,,,,,,,,,,,,,,,,,0,0,0,0,0
3.1011,1783441187.6024,1,1,1.0000,0.0000,1.41838,0.15298,-2.67490,0.99933,1.56179,0.11891,-0.13236,-0.45423,0.07213,,,,,,,,,,,,,,,,,,,,,,,,,,0,0,0,0,0
3.1058,1783441187.6071,1,1,1.0000,0.0000,1.41839,0.15295,-2.67488,0.99934,1.56179,0.11891,-0.13236,-0.45424,0.07213,,,,,,,,,,,,,,,,,,,,,,,,,,0,0,0,0,0
3.1061,1783441187.6074,1,1,1.0000,0.0000,1.41839,0.15295,-2.67488,0.99934,1.56179,0.11891,-0.13236,-0.45424,0.07213,,,,,,,,,,,,,,,,,,,,,,,,,,0,0,0,0,0
3.1066,1783441187.6079,1,1,1.0000,0.0000,1.41839,0.15295,-2.67488,0.99934,1.56179,0.11891,-0.13236,-0.45424,0.07213,,,,,,,,,,,,,,,,,,,,,,,,,,0,0,0,0,0
3.1152,1783441187.6165,1,1,1.0000,0.0000,1.41840,0.15287,-2.67482,0.99935,1.56179,0.11891,-0.13236,-0.45427,0.07213,,,,,,,,,,,,,,,,,,,,,,,,,,0,0,0,0,0
3.1261,1783441187.6275,1,1,1.0000,0.0000,1.41841,0.15281,-2.67478,0.99936,1.56179,0.11891,-0.13236,-0.45430,0.07213,,,,,,,,,,,,,,,,,,,,,,,,,,0,0,0,0,0
3.1365,1783441187.6378,1,1,1.0000,0.0000,1.41847,0.15255,-2.67460,0.99941,1.56179,0.11888,-0.13236,-0.45440,0.07212,,,,,,,,,,,,,,,,,,,,,,,,,,0,0,0,0,0
3.1466,1783441187.6479,1,1,1.0000,0.0000,1.41852,0.15229,-2.67443,0.99947,1.56179,0.11886,-0.13237,-0.45450,0.07211,,,,,,,,,,,,,,,,,,,,,,,,,,0,0,0,0,0
3.1564,1783441187.6577,1,1,1.0000,0.0000,1.41855,0.15212,-2.67431,0.99950,1.56179,0.11884,-0.13237,-0.45457,0.07211,,,,,,,,,,,,,,,,,,,,,,,,,,0,0,0,0,0
3.1569,1783441187.6582,1,1,1.0000,0.0000,1.41855,0.15212,-2.67431,0.99950,1.56179,0.11884,-0.13237,-0.45457,0.07211,,,,,,,,,,,,,,,,,,,,,,,,,,0,0,0,0,0
3.1677,1783441187.6690,1,1,1.0000,0.0000,1.41860,0.15182,-2.67410,0.99958,1.56179,0.11879,-0.13237,-0.45469,0.07210,,,,,,,,,,,,,,,,,,,,,,,,,,0,0,0,0,0
3.1776,1783441187.6789,1,1,1.0000,0.0000,1.41867,0.15147,-2.67386,0.99966,1.56179,0.11874,-0.13238,-0.45484,0.07210,,,,,,,,,,,,,,,,,,,,,,,,,,0,0,0,0,0
3.1922,1783441187.6935,1,1,1.0000,0.0000,1.41874,0.15111,-2.67360,0.99975,1.56179,0.11868,-0.13238,-0.45499,0.07209,,,,,,,,,,,,,,,,,,,,,,,,,,0,0,0,0,0
3.1968,1783441187.6981,1,1,1.0000,0.0000,1.41877,0.15094,-2.67348,0.99980,1.56179,0.11865,-0.13238,-0.45507,0.07209,,,,,,,,,,,,,,,,,,,,,,,,,,0,0,0,0,0
3.2058,1783441187.7071,1,1,1.0000,0.0000,1.41887,0.15045,-2.67312,0.99993,1.56179,0.11856,-0.13239,-0.45528,0.07209,,,,,,,,,,,,,,,,,,,,,,,,,,0,0,0,0,0
3.2157,1783441187.7170,1,1,1.0000,0.0000,1.41891,0.15023,-2.67297,0.99998,1.56179,0.11852,-0.13239,-0.45538,0.07209,,,,,,,,,,,,,,,,,,,,,,,,,,0,0,0,0,0
3.2267,1783441187.7280,1,1,1.0000,0.0000,1.41902,0.14967,-2.67256,1.00013,1.56179,0.11842,-0.13239,-0.45562,0.07208,,,,,,,,,,,,,,,,,,,,,,,,,,0,0,0,0,0
3.2368,1783441187.7381,1,1,1.0000,0.0000,1.41926,0.14839,-2.67164,1.00047,1.56179,0.11818,-0.13240,-0.45618,0.07208,,,,,,,,,,,,,,,,,,,,,,,,,,0,0,0,0,0
3.2444,1783441187.7457,1,1,1.0000,0.0000,1.41927,0.14834,-2.67161,1.00048,1.56179,0.11817,-0.13240,-0.45620,0.07208,,,,,,,,,,,,,,,,,,,,,,,,,,0,0,0,0,0
3.2567,1783441187.7580,1,1,1.0000,0.0000,1.41940,0.14768,-2.67113,1.00066,1.56179,0.11805,-0.13240,-0.45649,0.07208,,,,,,,,,,,,,,,,,,,,,,,,,,0,0,0,0,0
3.2678,1783441187.7691,1,1,1.0000,0.0000,1.41962,0.14650,-2.67027,1.00097,1.56179,0.11782,-0.13241,-0.45701,0.07207,,,,,,,,,,,,,,,,,,,,,,,,,,0,0,0,0,0
3.2751,1783441187.7764,1,1,1.0000,0.0000,1.41962,0.14650,-2.67027,1.00097,1.56179,0.11782,-0.13241,-0.45701,0.07207,,,,,,,,,,,,,,,,,,,,,,,,,,0,0,0,0,0
3.2847,1783441187.7860,1,1,1.0000,0.0000,1.41970,0.14613,-2.66999,1.00107,1.56179,0.11775,-0.13241,-0.45718,0.07207,,,,,,,,,,,,,,,,,,,,,,,,,,0,0,0,0,0
3.2975,1783441187.7988,1,1,1.0000,0.0000,1.41981,0.14556,-2.66958,1.00122,1.56179,0.11765,-0.13242,-0.45743,0.07207,,,,,,,,,,,,,,,,,,,,,,,,,,0,0,0,0,0
3.3118,1783441187.8131,1,1,1.0000,0.0000,1.41992,0.14496,-2.66915,1.00139,1.56179,0.11753,-0.13242,-0.45770,0.07207,,,,,,,,,,,,,,,,,,,,,,,,,,0,0,0,0,0
3.3149,1783441187.8162,1,1,1.0000,0.0000,1.41992,0.14496,-2.66915,1.00139,1.56179,0.11753,-0.13242,-0.45770,0.07207,,,,,,,,,,,,,,,,,,,,,,,,,,0,0,0,0,0
3.3361,1783441187.8374,1,1,1.0000,0.0000,1.42017,0.14365,-2.66819,1.00174,1.56179,0.11728,-0.13243,-0.45828,0.07207,,,,,,,,,,,,,,,,,,,,,,,,,,0,0,0,0,0
3.3451,1783441187.8464,1,1,1.0000,0.0000,1.42020,0.14349,-2.66807,1.00179,1.56179,0.11725,-0.13243,-0.45835,0.07207,,,,,,,,,,,,,,,,,,,,,,,,,,0,0,0,0,0
3.3550,1783441187.8563,1,1,1.0000,0.0000,1.42025,0.14322,-2.66787,1.00187,1.56179,0.11719,-0.13243,-0.45847,0.07207,,,,,,,,,,,,,,,,,,,,,,,,,,0,0,0,0,0
3.3770,1783441187.8783,1,1,1.0000,0.0000,1.42034,0.14277,-2.66755,1.00200,1.56179,0.11710,-0.13243,-0.45867,0.07207,,,,,,,,,,,,,,,,,,,,,,,,,,0,0,0,0,0
3.3775,1783441187.8788,1,1,1.0000,0.0000,1.42034,0.14277,-2.66755,1.00200,1.56179,0.11710,-0.13243,-0.45867,0.07207,,,,,,,,,,,,,,,,,,,,,,,,,,0,0,0,0,0
3.3779,1783441187.8792,1,1,1.0000,0.0000,1.42034,0.14277,-2.66755,1.00200,1.56179,0.11710,-0.13243,-0.45867,0.07207,,,,,,,,,,,,,,,,,,,,,,,,,,0,0,0,0,0
3.3844,1783441187.8857,1,1,1.0000,0.0000,1.42037,0.14261,-2.66744,1.00205,1.56179,0.11707,-0.13243,-0.45874,0.07207,,,,,,,,,,,,,,,,,,,,,,,,,,0,0,0,0,0
3.3848,1783441187.8861,1,1,1.0000,0.0000,1.42037,0.14261,-2.66744,1.00205,1.56179,0.11707,-0.13243,-0.45874,0.07207,,,,,,,,,,,,,,,,,,,,,,,,,,0,0,0,0,0
3.3945,1783441187.8958,1,1,1.0000,0.0000,1.42041,0.14241,-2.66731,1.00211,1.56179,0.11702,-0.13243,-0.45882,0.07206,,,,,,,,,,,,,,,,,,,,,,,,,,0,0,0,0,0
3.4046,1783441187.9059,1,1,1.0000,0.0000,1.42047,0.14211,-2.66712,1.00220,1.56180,0.11696,-0.13244,-0.45894,0.07205,,,,,,,,,,,,,,,,,,,,,,,,,,0,0,0,0,0
3.4193,1783441187.9206,1,1,1.0000,0.0000,1.42051,0.14189,-2.66700,1.00228,1.56180,0.11691,-0.13244,-0.45901,0.07203,,,,,,,,,,,,,,,,,,,,,,,,,,0,0,0,0,0
3.4249,1783441187.9262,1,1,1.0000,0.0000,1.42052,0.14184,-2.66700,1.00230,1.56180,0.11690,-0.13245,-0.45901,0.07201,,,,,,,,,,,,,,,,,,,,,,,,,,0,0,0,0,0
3.4373,1783441187.9386,1,1,1.0000,0.0000,1.42052,0.14184,-2.66700,1.00230,1.56180,0.11690,-0.13245,-0.45901,0.07201,,,,,,,,,,,,,,,,,,,,,,,,,,0,0,0,0,0
3.4489,1783441187.9502,1,1,1.0000,0.0000,1.42052,0.14184,-2.66700,1.00230,1.56180,0.11690,-0.13245,-0.45901,0.07201,,,,,,,,,,,,,,,,,,,,,,,,,,0,0,0,0,0
3.4544,1783441187.9557,1,1,1.0000,0.0000,1.42052,0.14184,-2.66700,1.00230,1.56180,0.11690,-0.13245,-0.45901,0.07201,,,,,,,,,,,,,,,,,,,,,,,,,,0,0,0,0,0
3.4661,1783441187.9674,1,1,1.0000,0.0000,1.42052,0.14184,-2.66700,1.00230,1.56180,0.11690,-0.13245,-0.45901,0.07201,,,,,,,,,,,,,,,,,,,,,,,,,,0,0,0,0,0
3.4796,1783441187.9809,1,1,1.0000,0.0000,1.42052,0.14184,-2.66700,1.00230,1.56180,0.11690,-0.13245,-0.45901,0.07201,,,,,,,,,,,,,,,,,,,,,,,,,,0,0,0,0,0
3.4896,1783441187.9909,1,1,1.0000,0.0000,1.42052,0.14184,-2.66700,1.00230,1.56180,0.11690,-0.13245,-0.45901,0.07201,,,,,,,,,,,,,,,,,,,,,,,,,,0,0,0,0,0
3.4956,1783441187.9969,1,1,1.0000,0.0000,1.42052,0.14184,-2.66700,1.00230,1.56180,0.11690,-0.13245,-0.45901,0.07201,,,,,,,,,,,,,,,,,,,,,,,,,,0,0,0,0,0
3.4963,1783441187.9976,1,1,1.0000,0.0000,1.42052,0.14184,-2.66700,1.00230,1.56180,0.11690,-0.13245,-0.45901,0.07201,,,,,,,,,,,,,,,,,,,,,,,,,,0,0,0,0,0
3.5053,1783441188.0066,1,1,1.0000,0.0000,1.42052,0.14184,-2.66700,1.00230,1.56180,0.11690,-0.13245,-0.45901,0.07201,,,,,,,,,,,,,,,,,,,,,,,,,,0,0,0,0,0
3.5162,1783441188.0175,1,1,1.0000,0.0000,1.42052,0.14184,-2.66700,1.00230,1.56180,0.11690,-0.13245,-0.45901,0.07201,,,,,,,,,,,,,,,,,,,,,,,,,,0,0,0,0,0
3.5269,1783441188.0282,1,1,1.0000,0.0000,1.42052,0.14184,-2.66700,1.00230,1.56180,0.11690,-0.13245,-0.45901,0.07201,,,,,,,,,,,,,,,,,,,,,,,,,,0,0,0,0,0
3.5352,1783441188.0365,1,1,1.0000,0.0000,1.42052,0.14184,-2.66700,1.00230,1.56180,0.11690,-0.13245,-0.45901,0.07201,,,,,,,,,,,,,,,,,,,,,,,,,,0,0,0,0,0
3.5505,1783441188.0518,1,1,1.0000,0.0000,1.42052,0.14184,-2.66700,1.00230,1.56180,0.11690,-0.13245,-0.45901,0.07201,,,,,,,,,,,,,,,,,,,,,,,,,,0,0,0,0,0
3.5563,1783441188.0576,1,1,1.0000,0.0000,1.42052,0.14184,-2.66700,1.00230,1.56180,0.11690,-0.13245,-0.45901,0.07201,,,,,,,,,,,,,,,,,,,,,,,,,,0,0,0,0,0
3.5669,1783441188.0682,1,1,1.0000,0.0000,1.42052,0.14184,-2.66700,1.00230,1.56180,0.11690,-0.13245,-0.45901,0.07201,,,,,,,,,,,,,,,,,,,,,,,,,,0,0,0,0,0
3.5784,1783441188.0797,1,1,1.0000,0.0000,1.42052,0.14184,-2.66700,1.00230,1.56180,0.11690,-0.13245,-0.45901,0.07201,,,,,,,,,,,,,,,,,,,,,,,,,,0,0,0,0,0
3.5836,1783441188.0850,1,1,1.0000,0.0000,1.42052,0.14184,-2.66700,1.00230,1.56180,0.11690,-0.13245,-0.45901,0.07201,,,,,,,,,,,,,,,,,,,,,,,,,,0,0,0,0,0
3.5844,1783441188.0857,1,1,1.0000,0.0000,1.42052,0.14184,-2.66700,1.00230,1.56180,0.11690,-0.13245,-0.45901,0.07201,,,,,,,,,,,,,,,,,,,,,,,,,,0,0,0,0,0
3.5948,1783441188.0961,1,1,1.0000,0.0000,1.42052,0.14184,-2.66700,1.00230,1.56180,0.11690,-0.13245,-0.45901,0.07201,,,,,,,,,,,,,,,,,,,,,,,,,,0,0,0,0,0
3.6066,1783441188.1079,1,1,1.0000,0.0000,1.42052,0.14184,-2.66700,1.00230,1.56180,0.11690,-0.13245,-0.45901,0.07201,,,,,,,,,,,,,,,,,,,,,,,,,,0,0,0,0,0
3.6070,1783441188.1083,1,1,1.0000,0.0000,1.42052,0.14184,-2.66700,1.00230,1.56180,0.11690,-0.13245,-0.45901,0.07201,,,,,,,,,,,,,,,,,,,,,,,,,,0,0,0,0,0
3.6142,1783441188.1155,1,1,1.0000,0.0000,1.42052,0.14184,-2.66700,1.00230,1.56180,0.11690,-0.13245,-0.45901,0.07201,,,,,,,,,,,,,,,,,,,,,,,,,,0,0,0,0,0
3.6254,1783441188.1267,1,1,1.0000,0.0000,1.42052,0.14184,-2.66700,1.00230,1.56180,0.11690,-0.13245,-0.45901,0.07201,,,,,,,,,,,,,,,,,,,,,,,,,,0,0,0,0,0
3.6258,1783441188.1271,1,1,1.0000,0.0000,1.42052,0.14184,-2.66700,1.00230,1.56180,0.11690,-0.13245,-0.45901,0.07201,,,,,,,,,,,,,,,,,,,,,,,,,,0,0,0,0,0
3.6366,1783441188.1379,1,1,1.0000,0.0000,1.42052,0.14184,-2.66700,1.00230,1.56180,0.11690,-0.13245,-0.45901,0.07201,,,,,,,,,,,,,,,,,,,,,,,,,,0,0,0,0,0
3.6370,1783441188.1383,1,1,1.0000,0.0000,1.42052,0.14184,-2.66700,1.00230,1.56180,0.11690,-0.13245,-0.45901,0.07201,,,,,,,,,,,,,,,,,,,,,,,,,,0,0,0,0,0
3.6487,1783441188.1500,1,1,1.0000,0.0000,1.42052,0.14184,-2.66700,1.00230,1.56180,0.11690,-0.13245,-0.45901,0.07201,,,,,,,,,,,,,,,,,,,,,,,,,,0,0,0,0,0
3.6552,1783441188.1565,1,1,1.0000,0.0000,1.42052,0.14184,-2.66700,1.00230,1.56180,0.11690,-0.13245,-0.45901,0.07201,,,,,,,,,,,,,,,,,,,,,,,,,,0,0,0,0,0
3.6685,1783441188.1698,1,1,1.0000,0.0000,1.42052,0.14184,-2.66700,1.00230,1.56180,0.11690,-0.13245,-0.45901,0.07201,,,,,,,,,,,,,,,,,,,,,,,,,,0,0,0,0,0
3.6690,1783441188.1703,1,1,1.0000,0.0000,1.42052,0.14184,-2.66700,1.00230,1.56180,0.11690,-0.13245,-0.45901,0.07201,,,,,,,,,,,,,,,,,,,,,,,,,,0,0,0,0,0
3.6805,1783441188.1818,1,1,1.0000,0.0000,1.42052,0.14184,-2.66700,1.00230,1.56180,0.11690,-0.13245,-0.45901,0.07201,,,,,,,,,,,,,,,,,,,,,,,,,,0,0,0,0,0
3.6864,1783441188.1877,1,1,1.0000,0.0000,1.42052,0.14184,-2.66700,1.00230,1.56180,0.11690,-0.13245,-0.45901,0.07201,,,,,,,,,,,,,,,,,,,,,,,,,,0,0,0,0,0
3.6947,1783441188.1960,1,1,1.0000,0.0000,1.42052,0.14184,-2.66700,1.00230,1.56180,0.11690,-0.13245,-0.45901,0.07201,,,,,,,,,,,,,,,,,,,,,,,,,,0,0,0,0,0
3.7105,1783441188.2118,1,1,1.0000,0.0000,1.42052,0.14184,-2.66700,1.00230,1.56180,0.11690,-0.13245,-0.45901,0.07201,,,,,,,,,,,,,,,,,,,,,,,,,,0,0,0,0,0
3.7136,1783441188.2149,1,1,1.0000,0.0000,1.42052,0.14184,-2.66700,1.00230,1.56180,0.11690,-0.13245,-0.45901,0.07201,,,,,,,,,,,,,,,,,,,,,,,,,,0,0,0,0,0
3.7141,1783441188.2154,1,1,1.0000,0.0000,1.42052,0.14184,-2.66700,1.00230,1.56180,0.11690,-0.13245,-0.45901,0.07201,,,,,,,,,,,,,,,,,,,,,,,,,,0,0,0,0,0
3.7148,1783441188.2161,1,1,1.0000,0.0000,1.42052,0.14184,-2.66700,1.00230,1.56180,0.11690,-0.13245,-0.45901,0.07201,,,,,,,,,,,,,,,,,,,,,,,,,,0,0,0,0,0
3.7300,1783441188.2313,1,1,1.0000,0.0000,1.42052,0.14184,-2.66700,1.00230,1.56180,0.11690,-0.13245,-0.45901,0.07201,,,,,,,,,,,,,,,,,,,,,,,,,,0,0,0,0,0
3.7415,1783441188.2428,1,1,1.0000,0.0000,1.42052,0.14184,-2.66700,1.00230,1.56180,0.11690,-0.13245,-0.45901,0.07201,,,,,,,,,,,,,,,,,,,,,,,,,,0,0,0,0,0
3.7493,1783441188.2506,1,1,1.0000,0.0000,1.42052,0.14184,-2.66700,1.00230,1.56180,0.11690,-0.13245,-0.45901,0.07201,,,,,,,,,,,,,,,,,,,,,,,,,,0,0,0,0,0
3.7610,1783441188.2623,1,1,1.0000,0.0000,1.42052,0.14184,-2.66700,1.00230,1.56180,0.11690,-0.13245,-0.45901,0.07201,,,,,,,,,,,,,,,,,,,,,,,,,,0,0,0,0,0
3.7684,1783441188.2697,1,1,1.0000,0.0000,1.42052,0.14184,-2.66700,1.00230,1.56180,0.11690,-0.13245,-0.45901,0.07201,,,,,,,,,,,,,,,,,,,,,,,,,,0,0,0,0,0
3.7784,1783441188.2797,1,1,1.0000,0.0000,1.42052,0.14184,-2.66700,1.00230,1.56180,0.11690,-0.13245,-0.45901,0.07201,,,,,,,,,,,,,,,,,,,,,,,,,,0,0,0,0,0
3.7857,1783441188.2870,1,1,1.0000,0.0000,1.42052,0.14184,-2.66700,1.00230,1.56180,0.11690,-0.13245,-0.45901,0.07201,,,,,,,,,,,,,,,,,,,,,,,,,,0,0,0,0,0
3.7862,1783441188.2875,1,1,1.0000,0.0000,1.42052,0.14184,-2.66700,1.00230,1.56180,0.11690,-0.13245,-0.45901,0.07201,,,,,,,,,,,,,,,,,,,,,,,,,,0,0,0,0,0
3.7967,1783441188.2980,1,1,1.0000,0.0000,1.42052,0.14184,-2.66700,1.00230,1.56180,0.11690,-0.13245,-0.45901,0.07201,,,,,,,,,,,,,,,,,,,,,,,,,,0,0,0,0,0
3.8048,1783441188.3061,1,1,1.0000,0.0000,1.42052,0.14184,-2.66700,1.00230,1.56180,0.11690,-0.13245,-0.45901,0.07201,,,,,,,,,,,,,,,,,,,,,,,,,,0,0,0,0,0
3.8166,1783441188.3179,1,1,1.0000,0.0000,1.42052,0.14184,-2.66700,1.00230,1.56180,0.11690,-0.13245,-0.45901,0.07201,,,,,,,,,,,,,,,,,,,,,,,,,,0,0,0,0,0
3.8258,1783441188.3271,1,1,1.0000,0.0000,1.42052,0.14183,-2.66699,1.00230,1.56180,0.11689,-0.13245,-0.45901,0.07201,,,,,,,,,,,,,,,,,,,,,,,,,,0,0,0,0,0
3.8351,1783441188.3364,1,1,1.0000,0.0000,1.42052,0.14183,-2.66698,1.00232,1.56180,0.11689,-0.13244,-0.45902,0.07202,,,,,,,,,,,,,,,,,,,,,,,,,,0,0,0,0,0
3.8486,1783441188.3499,1,1,1.0000,0.0000,1.42052,0.14181,-2.66699,1.00235,1.56180,0.11688,-0.13244,-0.45903,0.07201,,,,,,,,,,,,,,,,,,,,,,,,,,0,0,0,0,0
3.8490,1783441188.3503,1,1,1.0000,0.0000,1.42052,0.14181,-2.66699,1.00235,1.56180,0.11688,-0.13244,-0.45903,0.07201,,,,,,,,,,,,,,,,,,,,,,,,,,0,0,0,0,0
3.8871,1783441188.3884,1,1,1.0000,0.0000,1.42052,0.14163,-2.66704,1.00260,1.56180,0.11686,-0.13244,-0.45903,0.07195,,,,,,,,,,,,,,,,,,,,,,,,,,0,0,0,0,0
3.8875,1783441188.3888,1,1,1.0000,0.0000,1.42052,0.14163,-2.66704,1.00260,1.56180,0.11686,-0.13244,-0.45903,0.07195,,,,,,,,,,,,,,,,,,,,,,,,,,0,0,0,0,0
3.8891,1783441188.3904,1,1,1.0000,0.0000,1.42052,0.14157,-2.66706,1.00266,1.56180,0.11686,-0.13244,-0.45903,0.07194,,,,,,,,,,,,,,,,,,,,,,,,,,0,0,0,0,0
3.8991,1783441188.4004,1,1,1.0000,0.0000,1.42052,0.14144,-2.66709,1.00284,1.56180,0.11686,-0.13244,-0.45903,0.07189,,,,,,,,,,,,,,,,,,,,,,,,,,0,0,0,0,0
3.9045,1783441188.4058,1,1,1.0000,0.0000,1.42052,0.14136,-2.66711,1.00294,1.56181,0.11685,-0.13244,-0.45903,0.07186,,,,,,,,,,,,,,,,,,,,,,,,,,0,0,0,0,0
3.9159,1783441188.4172,1,1,1.0000,0.0000,1.42052,0.14130,-2.66713,1.00300,1.56181,0.11685,-0.13244,-0.45903,0.07185,,,,,,,,,,,,,,,,,,,,,,,,,,0,0,0,0,0
3.9288,1783441188.4301,1,1,1.0000,0.0000,1.42052,0.14106,-2.66718,1.00331,1.56181,0.11685,-0.13244,-0.45904,0.07177,,,,,,,,,,,,,,,,,,,,,,,,,,0,0,0,0,0
3.9361,1783441188.4374,1,1,1.0000,0.0000,1.42052,0.14103,-2.66719,1.00334,1.56181,0.11685,-0.13244,-0.45904,0.07176,,,,,,,,,,,,,,,,,,,,,,,,,,0,0,0,0,0
3.9459,1783441188.4472,1,1,1.0000,0.0000,1.42052,0.14073,-2.66726,1.00372,1.56181,0.11684,-0.13243,-0.45905,0.07166,,,,,,,,,,,,,,,,,,,,,,,,,,0,0,0,0,0
3.9624,1783441188.4637,1,1,1.0000,0.0000,1.42052,0.14018,-2.66739,1.00440,1.56181,0.11684,-0.13243,-0.45907,0.07149,,,,,,,,,,,,,,,,,,,,,,,,,,0,0,0,0,0
3.9660,1783441188.4673,1,1,1.0000,0.0000,1.42052,0.14015,-2.66739,1.00444,1.56181,0.11684,-0.13243,-0.45907,0.07148,,,,,,,,,,,,,,,,,,,,,,,,,,0,0,0,0,0
3.9751,1783441188.4764,1,1,1.0000,0.0000,1.42052,0.13995,-2.66744,1.00469,1.56181,0.11684,-0.13243,-0.45907,0.07142,,,,,,,,,,,,,,,,,,,,,,,,,,0,0,0,0,0
3.9909,1783441188.4922,1,1,1.0000,0.0000,1.42052,0.13913,-2.66764,1.00570,1.56181,0.11683,-0.13243,-0.45910,0.07116,,,,,,,,,,,,,,,,,,,,,,,,,,0,0,0,0,0
3.9944,1783441188.4957,1,1,1.0000,0.0000,1.42052,0.13913,-2.66764,1.00570,1.56181,0.11683,-0.13243,-0.45910,0.07116,,,,,,,,,,,,,,,,,,,,,,,,,,0,0,0,0,0
4.0065,1783441188.5079,1,1,1.0000,0.0000,1.42052,0.13888,-2.66770,1.00601,1.56181,0.11682,-0.13243,-0.45910,0.07108,,,,,,,,,,,,,,,,,,,,,,,,,,0,0,0,0,0
4.0140,1783441188.5153,1,1,1.0000,0.0000,1.42053,0.13851,-2.66779,1.00648,1.56181,0.11682,-0.13243,-0.45911,0.07096,,,,,,,,,,,,,,,,,,,,,,,,,,0,0,0,0,0
4.0245,1783441188.5258,1,1,1.0000,0.0000,1.42053,0.13839,-2.66782,1.00663,1.56181,0.11682,-0.13242,-0.45911,0.07092,,,,,,,,,,,,,,,,,,,,,,,,,,0,0,0,0,0
4.0341,1783441188.5354,1,1,1.0000,0.0000,1.42053,0.13808,-2.66789,1.00701,1.56181,0.11682,-0.13242,-0.45912,0.07082,,,,,,,,,,,,,,,,,,,,,,,,,,0,0,0,0,0
4.0346,1783441188.5359,1,1,1.0000,0.0000,1.42053,0.13808,-2.66789,1.00701,1.56181,0.11682,-0.13242,-0.45912,0.07082,,,,,,,,,,,,,,,,,,,,,,,,,,0,0,0,0,0
4.0491,1783441188.5504,1,1,1.0000,0.0000,1.42053,0.13716,-2.66811,1.00817,1.56181,0.11681,-0.13242,-0.45915,0.07052,,,,,,,,,,,,,,,,,,,,,,,,,,0,0,0,0,0
4.0626,1783441188.5639,1,1,1.0000,0.0000,1.42053,0.13709,-2.66813,1.00826,1.56182,0.11681,-0.13242,-0.45915,0.07050,,,,,,,,,,,,,,,,,,,,,,,,,,0,0,0,0,0
4.1239,1783441188.6252,1,1,1.0000,0.0000,1.42054,0.13579,-2.66842,1.00993,1.56182,0.11679,-0.13241,-0.45921,0.07011,,,,,,,,,,,,,,,,,,,,,,,,,,0,0,0,0,0
4.1273,1783441188.6286,1,1,1.0000,0.0000,1.42054,0.13578,-2.66842,1.00996,1.56182,0.11679,-0.13241,-0.45921,0.07011,,,,,,,,,,,,,,,,,,,,,,,,,,0,0,0,0,0
4.1281,1783441188.6294,1,1,1.0000,0.0000,1.42054,0.13578,-2.66842,1.00996,1.56182,0.11679,-0.13241,-0.45921,0.07011,,,,,,,,,,,,,,,,,,,,,,,,,,0,0,0,0,0
4.1286,1783441188.6299,1,1,1.0000,0.0000,1.42054,0.13575,-2.66843,1.00999,1.56182,0.11679,-0.13241,-0.45921,0.07010,,,,,,,,,,,,,,,,,,,,,,,,,,0,0,0,0,0
4.1290,1783441188.6303,1,1,1.0000,0.0000,1.42054,0.13575,-2.66843,1.00999,1.56182,0.11679,-0.13241,-0.45921,0.07010,,,,,,,,,,,,,,,,,,,,,,,,,,0,0,0,0,0
4.1326,1783441188.6339,1,1,1.0000,0.0000,1.42054,0.13573,-2.66843,1.01003,1.56182,0.11679,-0.13241,-0.45921,0.07009,,,,,,,,,,,,,,,,,,,,,,,,,,0,0,0,0,0
4.1330,1783441188.6343,1,1,1.0000,0.0000,1.42054,0.13573,-2.66843,1.01003,1.56182,0.11679,-0.13241,-0.45921,0.07009,,,,,,,,,,,,,,,,,,,,,,,,,,0,0,0,0,0
4.1334,1783441188.6348,1,1,1.0000,0.0000,1.42054,0.13573,-2.66843,1.01003,1.56182,0.11679,-0.13241,-0.45921,0.07009,,,,,,,,,,,,,,,,,,,,,,,,,,0,0,0,0,0
4.1431,1783441188.6444,1,1,1.0000,0.0000,1.42054,0.13570,-2.66844,1.01007,1.56182,0.11679,-0.13241,-0.45922,0.07008,,,,,,,,,,,,,,,,,,,,,,,,,,0,0,0,0,0
4.1515,1783441188.6528,1,1,1.0000,0.0000,1.42054,0.13567,-2.66845,1.01011,1.56182,0.11679,-0.13241,-0.45922,0.07007,,,,,,,,,,,,,,,,,,,,,,,,,,0,0,0,0,0
4.1664,1783441188.6677,1,1,1.0000,0.0000,1.42054,0.13547,-2.66851,1.01037,1.56182,0.11679,-0.13241,-0.45921,0.07000,,,,,,,,,,,,,,,,,,,,,,,,,,0,0,0,0,0
4.1752,1783441188.6765,1,1,1.0000,0.0000,1.42054,0.13545,-2.66852,1.01038,1.56182,0.11679,-0.13241,-0.45921,0.07000,,,,,,,,,,,,,,,,,,,,,,,,,,0,0,0,0,0
4.1838,1783441188.6851,1,1,1.0000,0.0000,1.42054,0.13535,-2.66855,1.01051,1.56182,0.11679,-0.13241,-0.45921,0.06997,,,,,,,,,,,,,,,,,,,,,,,,,,0,0,0,0,0
4.1966,1783441188.6979,1,1,1.0000,0.0000,1.42054,0.13494,-2.66866,1.01102,1.56182,0.11678,-0.13241,-0.45921,0.06983,,,,,,,,,,,,,,,,,,,,,,,,,,0,0,0,0,0
4.2013,1783441188.7026,1,1,1.0000,0.0000,1.42054,0.13494,-2.66866,1.01102,1.56182,0.11678,-0.13241,-0.45921,0.06983,,,,,,,,,,,,,,,,,,,,,,,,,,0,0,0,0,0
4.2016,1783441188.7030,1,1,1.0000,0.0000,1.42054,0.13494,-2.66866,1.01102,1.56182,0.11678,-0.13241,-0.45921,0.06983,,,,,,,,,,,,,,,,,,,,,,,,,,0,0,0,0,0
4.2112,1783441188.7125,1,1,1.0000,0.0000,1.42054,0.13487,-2.66868,1.01112,1.56182,0.11678,-0.13241,-0.45921,0.06980,,,,,,,,,,,,,,,,,,,,,,,,,,0,0,0,0,0
4.2219,1783441188.7232,1,1,1.0000,0.0000,1.42054,0.13453,-2.66876,1.01154,1.56182,0.11678,-0.13241,-0.45922,0.06969,,,,,,,,,,,,,,,,,,,,,,,,,,0,0,0,0,0
4.2327,1783441188.7340,1,1,1.0000,0.0000,1.42054,0.13419,-2.66885,1.01196,1.56182,0.11678,-0.13241,-0.45922,0.06958,,,,,,,,,,,,,,,,,,,,,,,,,,0,0,0,0,0
4.2446,1783441188.7459,1,1,1.0000,0.0000,1.42054,0.13396,-2.66891,1.01223,1.56182,0.11677,-0.13241,-0.45922,0.06951,,,,,,,,,,,,,,,,,,,,,,,,,,0,0,0,0,0
4.2519,1783441188.7532,1,1,1.0000,0.0000,1.42054,0.13380,-2.66895,1.01243,1.56182,0.11677,-0.13241,-0.45923,0.06945,,,,,,,,,,,,,,,,,,,,,,,,,,0,0,0,0,0
4.2682,1783441188.7695,1,1,1.0000,0.0000,1.42054,0.13347,-2.66903,1.01284,1.56182,0.11677,-0.13241,-0.45923,0.06935,,,,,,,,,,,,,,,,,,,,,,,,,,0,0,0,0,0
4.2704,1783441188.7717,1,1,1.0000,0.0000,1.42054,0.13332,-2.66907,1.01304,1.56182,0.11677,-0.13241,-0.45923,0.06929,,,,,,,,,,,,,,,,,,,,,,,,,,0,0,0,0,0
4.2812,1783441188.7825,1,1,1.0000,0.0000,1.42055,0.13260,-2.66925,1.01393,1.56183,0.11676,-0.13241,-0.45924,0.06906,,,,,,,,,,,,,,,,,,,,,,,,,,0,0,0,0,0
4.2991,1783441188.8005,1,1,1.0000,0.0000,1.42055,0.13220,-2.66935,1.01442,1.56183,0.11676,-0.13241,-0.45924,0.06893,,,,,,,,,,,,,,,,,,,,,,,,,,0,0,0,0,0
4.3040,1783441188.8053,1,1,1.0000,0.0000,1.42055,0.13208,-2.66938,1.01457,1.56183,0.11676,-0.13241,-0.45925,0.06889,,,,,,,,,,,,,,,,,,,,,,,,,,0,0,0,0,0
4.3046,1783441188.8059,1,1,1.0000,0.0000,1.42055,0.13192,-2.66942,1.01477,1.56183,0.11676,-0.13241,-0.45925,0.06884,,,,,,,,,,,,,,,,,,,,,,,,,,0,0,0,0,0
4.3163,1783441188.8176,1,1,1.0000,0.0000,1.42055,0.13152,-2.66952,1.01527,1.56183,0.11675,-0.13241,-0.45926,0.06871,,,,,,,,,,,,,,,,,,,,,,,,,,0,0,0,0,0
4.3169,1783441188.8182,1,1,1.0000,0.0000,1.42055,0.13152,-2.66952,1.01527,1.56183,0.11675,-0.13241,-0.45926,0.06871,,,,,,,,,,,,,,,,,,,,,,,,,,0,0,0,0,0
4.3219,1783441188.8232,1,1,1.0000,0.0000,1.42055,0.13149,-2.66953,1.01530,1.56183,0.11675,-0.13241,-0.45926,0.06870,,,,,,,,,,,,,,,,,,,,,,,,,,0,0,0,0,0
4.3223,1783441188.8236,1,1,1.0000,0.0000,1.42055,0.13149,-2.66953,1.01530,1.56183,0.11675,-0.13241,-0.45926,0.06870,,,,,,,,,,,,,,,,,,,,,,,,,,0,0,0,0,0
4.3319,1783441188.8332,1,1,1.0000,0.0000,1.42055,0.13133,-2.66957,1.01551,1.56183,0.11675,-0.13240,-0.45926,0.06865,,,,,,,,,,,,,,,,,,,,,,,,,,0,0,0,0,0
4.3327,1783441188.8340,1,1,1.0000,0.0000,1.42055,0.13119,-2.66960,1.01567,1.56183,0.11675,-0.13240,-0.45927,0.06861,,,,,,,,,,,,,,,,,,,,,,,,,,0,0,0,0,0
4.3407,1783441188.8420,1,1,1.0000,0.0000,1.42055,0.13087,-2.66968,1.01609,1.56183,0.11675,-0.13240,-0.45927,0.06850,,,,,,,,,,,,,,,,,,,,,,,,,,0,0,0,0,0
4.3409,1783441188.8422,1,1,1.0000,0.0000,1.42055,0.13087,-2.66968,1.01609,1.56183,0.11675,-0.13240,-0.45927,0.06850,,,,,,,,,,,,,,,,,,,,,,,,,,0,0,0,0,0
4.3532,1783441188.8545,1,1,1.0000,0.0000,1.42055,0.13031,-2.66982,1.01680,1.56183,0.11674,-0.13240,-0.45929,0.06832,,,,,,,,,,,,,,,,,,,,,,,,,,0,0,0,0,0
4.3654,1783441188.8667,1,1,1.0000,0.0000,1.42055,0.12996,-2.66990,1.01724,1.56183,0.11674,-0.13240,-0.45929,0.06821,,,,,,,,,,,,,,,,,,,,,,,,,,0,0,0,0,0
4.3660,1783441188.8673,1,1,1.0000,0.0000,1.42056,0.12982,-2.66994,1.01743,1.56183,0.11674,-0.13240,-0.45930,0.06817,,,,,,,,,,,,,,,,,,,,,,,,,,0,0,0,0,0
4.3702,1783441188.8715,1,1,1.0000,0.0000,1.42056,0.12970,-2.66997,1.01758,1.56183,0.11673,-0.13240,-0.45930,0.06813,,,,,,,,,,,,,,,,,,,,,,,,,,0,0,0,0,0
4.3708,1783441188.8721,1,1,1.0000,0.0000,1.42056,0.12970,-2.66997,1.01758,1.56183,0.11673,-0.13240,-0.45930,0.06813,,,,,,,,,,,,,,,,,,,,,,,,,,0,0,0,0,0
4.3809,1783441188.8822,1,1,1.0000,0.0000,1.42056,0.12956,-2.67001,1.01776,1.56183,0.11673,-0.13240,-0.45930,0.06809,,,,,,,,,,,,,,,,,,,,,,,,,,0,0,0,0,0
4.3813,1783441188.8826,1,1,1.0000,0.0000,1.42056,0.12956,-2.67001,1.01776,1.56183,0.11673,-0.13240,-0.45930,0.06809,,,,,,,,,,,,,,,,,,,,,,,,,,0,0,0,0,0
4.3816,1783441188.8829,1,1,1.0000,0.0000,1.42056,0.12956,-2.67001,1.01776,1.56183,0.11673,-0.13240,-0.45930,0.06809,,,,,,,,,,,,,,,,,,,,,,,,,,0,0,0,0,0
4.4018,1783441188.9031,1,1,1.0000,0.0000,1.42056,0.12953,-2.67000,1.01781,1.56183,0.11673,-0.13240,-0.45932,0.06808,,,,,,,,,,,,,,,,,,,,,,,,,,0,0,0,0,0
4.4021,1783441188.9034,1,1,1.0000,0.0000,1.42056,0.12953,-2.67000,1.01781,1.56183,0.11673,-0.13240,-0.45932,0.06808,,,,,,,,,,,,,,,,,,,,,,,,,,0,0,0,0,0
4.4025,1783441188.9038,1,1,1.0000,0.0000,1.42056,0.12953,-2.67000,1.01781,1.56183,0.11673,-0.13240,-0.45932,0.06808,,,,,,,,,,,,,,,,,,,,,,,,,,0,0,0,0,0
4.4170,1783441188.9183,1,1,1.0000,0.0000,1.42056,0.12948,-2.67002,1.01788,1.56183,0.11673,-0.13240,-0.45932,0.06807,,,,,,,,,,,,,,,,,,,,,,,,,,0,0,0,0,0
4.4174,1783441188.9187,1,1,1.0000,0.0000,1.42056,0.12948,-2.67002,1.01788,1.56183,0.11673,-0.13240,-0.45932,0.06807,,,,,,,,,,,,,,,,,,,,,,,,,,0,0,0,0,0
4.4248,1783441188.9261,1,1,1.0000,0.0000,1.42056,0.12941,-2.67004,1.01797,1.56183,0.11673,-0.13240,-0.45931,0.06804,,,,,,,,,,,,,,,,,,,,,,,,,,0,0,0,0,0
4.4352,1783441188.9365,1,1,1.0000,0.0000,1.42056,0.12931,-2.67007,1.01811,1.56183,0.11673,-0.13240,-0.45931,0.06801,,,,,,,,,,,,,,,,,,,,,,,,,,0,0,0,0,0
4.4432,1783441188.9445,1,1,1.0000,0.0000,1.42056,0.12925,-2.67009,1.01818,1.56183,0.11673,-0.13240,-0.45931,0.06799,,,,,,,,,,,,,,,,,,,,,,,,,,0,0,0,0,0
4.4624,1783441188.9637,1,1,1.0000,0.0000,1.42056,0.12902,-2.67015,1.01846,1.56184,0.11673,-0.13240,-0.45931,0.06791,,,,,,,,,,,,,,,,,,,,,,,,,,0,0,0,0,0
4.4631,1783441188.9644,1,1,1.0000,0.0000,1.42056,0.12902,-2.67015,1.01846,1.56184,0.11673,-0.13240,-0.45931,0.06791,,,,,,,,,,,,,,,,,,,,,,,,,,0,0,0,0,0
4.4720,1783441188.9733,1,1,1.0000,0.0000,1.42056,0.12884,-2.67020,1.01869,1.56184,0.11672,-0.13240,-0.45931,0.06785,,,,,,,,,,,,,,,,,,,,,,,,,,0,0,0,0,0
4.4728,1783441188.9741,1,1,1.0000,0.0000,1.42056,0.12884,-2.67020,1.01869,1.56184,0.11672,-0.13240,-0.45931,0.06785,,,,,,,,,,,,,,,,,,,,,,,,,,0,0,0,0,0
4.4810,1783441188.9823,1,1,1.0000,0.0000,1.42056,0.12876,-2.67022,1.01878,1.56184,0.11672,-0.13240,-0.45931,0.06783,,,,,,,,,,,,,,,,,,,,,,,,,,0,0,0,0,0
4.4905,1783441188.9918,1,1,1.0000,0.0000,1.42056,0.12856,-2.67027,1.01902,1.56184,0.11672,-0.13240,-0.45931,0.06776,,,,,,,,,,,,,,,,,,,,,,,,,,0,0,0,0,0
4.5060,1783441189.0073,1,1,1.0000,0.0000,1.42056,0.12831,-2.67033,1.01934,1.56184,0.11672,-0.13240,-0.45932,0.06768,,,,,,,,,,,,,,,,,,,,,,,,,,0,0,0,0,0
4.5110,1783441189.0123,1,1,1.0000,0.0000,1.42056,0.12817,-2.67036,1.01950,1.56184,0.11672,-0.13240,-0.45932,0.06763,,,,,,,,,,,,,,,,,,,,,,,,,,0,0,0,0,0
4.5114,1783441189.0128,1,1,1.0000,0.0000,1.42056,0.12817,-2.67036,1.01950,1.56184,0.11672,-0.13240,-0.45932,0.06763,,,,,,,,,,,,,,,,,,,,,,,,,,0,0,0,0,0
4.5211,1783441189.0224,1,1,1.0000,0.0000,1.42056,0.12755,-2.67052,1.02027,1.56184,0.11671,-0.13240,-0.45933,0.06743,,,,,,,,,,,,,,,,,,,,,,,,,,0,0,0,0,0
4.5330,1783441189.0343,1,1,1.0000,0.0000,1.42056,0.12726,-2.67059,1.02063,1.56184,0.11671,-0.13240,-0.45933,0.06734,,,,,,,,,,,,,,,,,,,,,,,,,,0,0,0,0,0
4.5335,1783441189.0348,1,1,1.0000,0.0000,1.42056,0.12726,-2.67059,1.02063,1.56184,0.11671,-0.13240,-0.45933,0.06734,,,,,,,,,,,,,,,,,,,,,,,,,,0,0,0,0,0
4.5422,1783441189.0435,1,1,1.0000,0.0000,1.42056,0.12704,-2.67064,1.02089,1.56184,0.11671,-0.13240,-0.45933,0.06727,,,,,,,,,,,,,,,,,,,,,,,,,,0,0,0,0,0
4.5521,1783441189.0535,1,1,1.0000,0.0000,1.42056,0.12666,-2.67073,1.02136,1.56184,0.11671,-0.13239,-0.45934,0.06715,,,,,,,,,,,,,,,,,,,,,,,,,,0,0,0,0,0
4.5625,1783441189.0638,1,1,1.0000,0.0000,1.42057,0.12617,-2.67085,1.02196,1.56184,0.11670,-0.13239,-0.45935,0.06699,,,,,,,,,,,,,,,,,,,,,,,,,,0,0,0,0,0
4.5752,1783441189.0765,1,1,1.0000,0.0000,1.42057,0.12595,-2.67091,1.02224,1.56184,0.11670,-0.13239,-0.45935,0.06691,,,,,,,,,,,,,,,,,,,,,,,,,,0,0,0,0,0
4.5808,1783441189.0821,1,1,1.0000,0.0000,1.42057,0.12560,-2.67099,1.02267,1.56184,0.11670,-0.13239,-0.45936,0.06680,,,,,,,,,,,,,,,,,,,,,,,,,,0,0,0,0,0
4.5810,1783441189.0823,1,1,1.0000,0.0000,1.42057,0.12560,-2.67099,1.02267,1.56184,0.11670,-0.13239,-0.45936,0.06680,,,,,,,,,,,,,,,,,,,,,,,,,,0,0,0,0,0
4.5930,1783441189.0943,1,1,1.0000,0.0000,1.42057,0.12550,-2.67102,1.02280,1.56184,0.11670,-0.13239,-0.45936,0.06677,,,,,,,,,,,,,,,,,,,,,,,,,,0,0,0,0,0
4.5939,1783441189.0952,1,1,1.0000,0.0000,1.42057,0.12550,-2.67102,1.02280,1.56184,0.11670,-0.13239,-0.45936,0.06677,,,,,,,,,,,,,,,,,,,,,,,,,,0,0,0,0,0
4.5998,1783441189.1011,1,1,1.0000,0.0000,1.42057,0.12538,-2.67105,1.02294,1.56184,0.11669,-0.13239,-0.45936,0.06673,,,,,,,,,,,,,,,,,,,,,,,,,,0,0,0,0,0
4.6008,1783441189.1021,1,1,1.0000,0.0000,1.42057,0.12538,-2.67105,1.02294,1.56184,0.11669,-0.13239,-0.45936,0.06673,,,,,,,,,,,,,,,,,,,,,,,,,,0,0,0,0,0
4.6118,1783441189.1131,1,1,1.0000,0.0000,1.42057,0.12486,-2.67117,1.02360,1.56184,0.11669,-0.13239,-0.45937,0.06657,,,,,,,,,,,,,,,,,,,,,,,,,,0,0,0,0,0
4.6217,1783441189.1230,1,1,1.0000,0.0000,1.42057,0.12422,-2.67133,1.02440,1.56184,0.11668,-0.13239,-0.45938,0.06636,,,,,,,,,,,,,,,,,,,,,,,,,,0,0,0,0,0
4.6309,1783441189.1322,1,1,1.0000,0.0000,1.42057,0.12383,-2.67142,1.02489,1.56184,0.11668,-0.13239,-0.45939,0.06624,,,,,,,,,,,,,,,,,,,,,,,,,,0,0,0,0,0
4.6313,1783441189.1326,1,1,1.0000,0.0000,1.42057,0.12383,-2.67142,1.02489,1.56184,0.11668,-0.13239,-0.45939,0.06624,,,,,,,,,,,,,,,,,,,,,,,,,,0,0,0,0,0
4.6411,1783441189.1424,1,1,1.0000,0.0000,1.42057,0.12343,-2.67152,1.02540,1.56185,0.11667,-0.13239,-0.45940,0.06611,,,,,,,,,,,,,,,,,,,,,,,,,,0,0,0,0,0
4.6553,1783441189.1566,1,1,1.0000,0.0000,1.42057,0.12337,-2.67154,1.02547,1.56185,0.11667,-0.13239,-0.45940,0.06609,,,,,,,,,,,,,,,,,,,,,,,,,,0,0,0,0,0
4.6688,1783441189.1701,1,1,1.0000,0.0000,1.42058,0.12335,-2.67153,1.02551,1.56185,0.11667,-0.13239,-0.45941,0.06609,,,,,,,,,,,,,,,,,,,,,,,,,,0,0,0,0,0
4.6721,1783441189.1734,1,1,1.0000,0.0000,1.42058,0.12335,-2.67153,1.02551,1.56185,0.11667,-0.13239,-0.45941,0.06609,,,,,,,,,,,,,,,,,,,,,,,,,,0,0,0,0,0
4.6825,1783441189.1838,1,1,1.0000,0.0000,1.42058,0.12333,-2.67153,1.02553,1.56185,0.11667,-0.13238,-0.45941,0.06609,,,,,,,,,,,,,,,,,,,,,,,,,,0,0,0,0,0
4.6835,1783441189.1848,1,1,1.0000,0.0000,1.42058,0.12333,-2.67153,1.02553,1.56185,0.11667,-0.13238,-0.45941,0.06609,,,,,,,,,,,,,,,,,,,,,,,,,,0,0,0,0,0
4.6915,1783441189.1928,1,1,1.0000,0.0000,1.42058,0.12330,-2.67154,1.02558,1.56185,0.11667,-0.13238,-0.45941,0.06608,,,,,,,,,,,,,,,,,,,,,,,,,,0,0,0,0,0
4.7013,1783441189.2026,1,1,1.0000,0.0000,1.42058,0.12318,-2.67158,1.02573,1.56185,0.11667,-0.13238,-0.45941,0.06604,,,,,,,,,,,,,,,,,,,,,,,,,,0,0,0,0,0
4.7017,1783441189.2030,1,1,1.0000,0.0000,1.42058,0.12318,-2.67158,1.02573,1.56185,0.11667,-0.13238,-0.45941,0.06604,,,,,,,,,,,,,,,,,,,,,,,,,,0,0,0,0,0
4.7109,1783441189.2122,1,1,1.0000,0.0000,1.42058,0.12314,-2.67159,1.02580,1.56185,0.11667,-0.13238,-0.45941,0.06602,,,,,,,,,,,,,,,,,,,,,,,,,,0,0,0,0,0
4.7231,1783441189.2244,1,1,1.0000,0.0000,1.42058,0.12305,-2.67161,1.02590,1.56185,0.11667,-0.13239,-0.45941,0.06600,,,,,,,,,,,,,,,,,,,,,,,,,,0,0,0,0,0
4.7234,1783441189.2247,1,1,1.0000,0.0000,1.42058,0.12305,-2.67161,1.02590,1.56185,0.11667,-0.13239,-0.45941,0.06600,,,,,,,,,,,,,,,,,,,,,,,,,,0,0,0,0,0
4.7346,1783441189.2359,1,1,1.0000,0.0000,1.42058,0.12282,-2.67167,1.02618,1.56185,0.11667,-0.13239,-0.45941,0.06592,,,,,,,,,,,,,,,,,,,,,,,,,,0,0,0,0,0
4.7398,1783441189.2411,1,1,1.0000,0.0000,1.42058,0.12273,-2.67170,1.02630,1.56185,0.11667,-0.13239,-0.45941,0.06589,,,,,,,,,,,,,,,,,,,,,,,,,,0,0,0,0,0
4.7402,1783441189.2415,1,1,1.0000,0.0000,1.42058,0.12273,-2.67170,1.02630,1.56185,0.11667,-0.13239,-0.45941,0.06589,,,,,,,,,,,,,,,,,,,,,,,,,,0,0,0,0,0
4.7409,1783441189.2422,1,1,1.0000,0.0000,1.42058,0.12273,-2.67170,1.02630,1.56185,0.11667,-0.13239,-0.45941,0.06589,,,,,,,,,,,,,,,,,,,,,,,,,,0,0,0,0,0
4.7555,1783441189.2568,1,1,1.0000,0.0000,1.42058,0.12257,-2.67174,1.02649,1.56185,0.11667,-0.13239,-0.45941,0.06584,,,,,,,,,,,,,,,,,,,,,,,,,,0,0,0,0,0
4.7560,1783441189.2573,1,1,1.0000,0.0000,1.42058,0.12257,-2.67174,1.02649,1.56185,0.11667,-0.13239,-0.45941,0.06584,,,,,,,,,,,,,,,,,,,,,,,,,,0,0,0,0,0
4.7637,1783441189.2650,1,1,1.0000,0.0000,1.42058,0.12232,-2.67180,1.02679,1.56185,0.11666,-0.13238,-0.45941,0.06576,,,,,,,,,,,,,,,,,,,,,,,,,,0,0,0,0,0
4.7642,1783441189.2655,1,1,1.0000,0.0000,1.42058,0.12232,-2.67180,1.02679,1.56185,0.11666,-0.13238,-0.45941,0.06576,,,,,,,,,,,,,,,,,,,,,,,,,,0,0,0,0,0
4.7709,1783441189.2722,1,1,1.0000,0.0000,1.42058,0.12229,-2.67180,1.02683,1.56185,0.11666,-0.13238,-0.45942,0.06575,,,,,,,,,,,,,,,,,,,,,,,,,,0,0,0,0,0
4.7714,1783441189.2727,1,1,1.0000,0.0000,1.42058,0.12229,-2.67180,1.02683,1.56185,0.11666,-0.13238,-0.45942,0.06575,,,,,,,,,,,,,,,,,,,,,,,,,,0,0,0,0,0
4.7810,1783441189.2823,1,1,1.0000,0.0000,1.42058,0.12190,-2.67190,1.02731,1.56185,0.11666,-0.13238,-0.45942,0.06562,,,,,,,,,,,,,,,,,,,,,,,,,,0,0,0,0,0
4.7943,1783441189.2956,1,1,1.0000,0.0000,1.42058,0.12120,-2.67206,1.02816,1.56185,0.11666,-0.13238,-0.45943,0.06540,,,,,,,,,,,,,,,,,,,,,,,,,,0,0,0,0,0
4.8023,1783441189.3036,1,1,1.0000,0.0000,1.42058,0.12093,-2.67213,1.02849,1.56185,0.11665,-0.13238,-0.45944,0.06531,,,,,,,,,,,,,,,,,,,,,,,,,,0,0,0,0,0
4.8029,1783441189.3042,1,1,1.0000,0.0000,1.42058,0.12093,-2.67213,1.02849,1.56185,0.11665,-0.13238,-0.45944,0.06531,,,,,,,,,,,,,,,,,,,,,,,,,,0,0,0,0,0
4.8106,1783441189.3119,1,1,1.0000,0.0000,1.42058,0.12083,-2.67215,1.02862,1.56185,0.11665,-0.13238,-0.45944,0.06528,,,,,,,,,,,,,,,,,,,,,,,,,,0,0,0,0,0
4.8210,1783441189.3223,1,1,1.0000,0.0000,1.42058,0.12037,-2.67226,1.02918,1.56185,0.11665,-0.13238,-0.45944,0.06513,,,,,,,,,,,,,,,,,,,,,,,,,,0,0,0,0,0
4.8330,1783441189.3343,1,1,1.0000,0.0000,1.42059,0.11993,-2.67237,1.02972,1.56185,0.11665,-0.13238,-0.45945,0.06499,,,,,,,,,,,,,,,,,,,,,,,,,,0,0,0,0,0
4.8410,1783441189.3423,1,1,1.0000,0.0000,1.42059,0.11983,-2.67240,1.02985,1.56185,0.11664,-0.13238,-0.45945,0.06495,,,,,,,,,,,,,,,,,,,,,,,,,,0,0,0,0,0
4.8413,1783441189.3426,1,1,1.0000,0.0000,1.42059,0.11983,-2.67240,1.02985,1.56185,0.11664,-0.13238,-0.45945,0.06495,,,,,,,,,,,,,,,,,,,,,,,,,,0,0,0,0,0
4.8520,1783441189.3533,1,1,1.0000,0.0000,1.42059,0.11955,-2.67246,1.03019,1.56185,0.11664,-0.13238,-0.45945,0.06487,,,,,,,,,,,,,,,,,,,,,,,,,,0,0,0,0,0
4.8647,1783441189.3660,1,1,1.0000,0.0000,1.42059,0.11895,-2.67261,1.03094,1.56185,0.11664,-0.13238,-0.45946,0.06467,,,,,,,,,,,,,,,,,,,,,,,,,,0,0,0,0,0
4.8758,1783441189.3771,1,1,1.0000,0.0000,1.42059,0.11886,-2.67263,1.03104,1.56185,0.11664,-0.13238,-0.45946,0.06465,,,,,,,,,,,,,,,,,,,,,,,,,,0,0,0,0,0
4.8762,1783441189.3775,1,1,1.0000,0.0000,1.42059,0.11886,-2.67263,1.03104,1.56185,0.11664,-0.13238,-0.45946,0.06465,,,,,,,,,,,,,,,,,,,,,,,,,,0,0,0,0,0
4.8819,1783441189.3832,1,1,1.0000,0.0000,1.42059,0.11865,-2.67268,1.03131,1.56185,0.11663,-0.13238,-0.45947,0.06458,,,,,,,,,,,,,,,,,,,,,,,,,,0,0,0,0,0
4.9013,1783441189.4026,1,1,1.0000,0.0000,1.42059,0.11784,-2.67287,1.03233,1.56186,0.11663,-0.13238,-0.45949,0.06433,,,,,,,,,,,,,,,,,,,,,,,,,,0,0,0,0,0
4.9052,1783441189.4065,1,1,1.0000,0.0000,1.42059,0.11767,-2.67291,1.03254,1.56186,0.11663,-0.13238,-0.45949,0.06427,,,,,,,,,,,,,,,,,,,,,,,,,,0,0,0,0,0
4.9128,1783441189.4141,1,1,1.0000,0.0000,1.42059,0.11737,-2.67298,1.03291,1.56186,0.11662,-0.13237,-0.45950,0.06418,,,,,,,,,,,,,,,,,,,,,,,,,,0,0,0,0,0
4.9132,1783441189.4145,1,1,1.0000,0.0000,1.42059,0.11737,-2.67298,1.03291,1.56186,0.11662,-0.13237,-0.45950,0.06418,,,,,,,,,,,,,,,,,,,,,,,,,,0,0,0,0,0
4.9232,1783441189.4245,1,1,1.0000,0.0000,1.42059,0.11725,-2.67301,1.03306,1.56186,0.11662,-0.13237,-0.45950,0.06414,,,,,,,,,,,,,,,,,,,,,,,,,,0,0,0,0,0
4.9236,1783441189.4249,1,1,1.0000,0.0000,1.42059,0.11725,-2.67301,1.03306,1.56186,0.11662,-0.13237,-0.45950,0.06414,,,,,,,,,,,,,,,,,,,,,,,,,,0,0,0,0,0
4.9306,1783441189.4319,1,1,1.0000,0.0000,1.42059,0.11724,-2.67301,1.03308,1.56186,0.11662,-0.13237,-0.45950,0.06414,,,,,,,,,,,,,,,,,,,,,,,,,,0,0,0,0,0
4.9448,1783441189.4461,1,1,1.0000,0.0000,1.42059,0.11719,-2.67301,1.03315,1.56186,0.11662,-0.13237,-0.45951,0.06413,,,,,,,,,,,,,,,,,,,,,,,,,,0,0,0,0,0
4.9454,1783441189.4467,1,1,1.0000,0.0000,1.42059,0.11719,-2.67301,1.03315,1.56186,0.11662,-0.13237,-0.45951,0.06413,,,,,,,,,,,,,,,,,,,,,,,,,,0,0,0,0,0
4.9520,1783441189.4533,1,1,1.0000,0.0000,1.42059,0.11719,-2.67301,1.03316,1.56186,0.11662,-0.13237,-0.45951,0.06413,,,,,,,,,,,,,,,,,,,,,,,,,,0,0,0,0,0
4.9611,1783441189.4624,1,1,1.0000,0.0000,1.42060,0.11712,-2.67303,1.03325,1.56186,0.11662,-0.13237,-0.45952,0.06411,,,,,,,,,,,,,,,,,,,,,,,,,,0,0,0,0,0
4.9729,1783441189.4742,1,1,1.0000,0.0000,1.42060,0.11700,-2.67306,1.03342,1.56186,0.11662,-0.13237,-0.45952,0.06407,,,,,,,,,,,,,,,,,,,,,,,,,,0,0,0,0,0
4.9847,1783441189.4860,1,1,1.0000,0.0000,1.42060,0.11696,-2.67307,1.03346,1.56186,0.11662,-0.13237,-0.45952,0.06406,,,,,,,,,,,,,,,,,,,,,,,,,,0,0,0,0,0
4.9933,1783441189.4946,1,1,1.0000,0.0000,1.42060,0.11686,-2.67310,1.03359,1.56186,0.11662,-0.13237,-0.45951,0.06403,,,,,,,,,,,,,,,,,,,,,,,,,,0,0,0,0,0
5.0024,1783441189.5037,1,1,1.0000,0.0000,1.42060,0.11671,-2.67314,1.03377,1.56186,0.11661,-0.13237,-0.45951,0.06397,,,,,,,,,,,,,,,,,,,,,,,,,,0,0,0,0,0
5.0154,1783441189.5167,1,1,1.0000,0.0000,1.42060,0.11652,-2.67319,1.03400,1.56186,0.11661,-0.13237,-0.45951,0.06391,,,,,,,,,,,,,,,,,,,,,,,,,,0,0,0,0,0
5.0202,1783441189.5215,1,1,1.0000,0.0000,1.42060,0.11651,-2.67320,1.03402,1.56186,0.11661,-0.13237,-0.45951,0.06391,,,,,,,,,,,,,,,,,,,,,,,,,,0,0,0,0,0
5.0210,1783441189.5223,1,1,1.0000,0.0000,1.42060,0.11646,-2.67321,1.03408,1.56186,0.11661,-0.13237,-0.45951,0.06389,,,,,,,,,,,,,,,,,,,,,,,,,,0,0,0,0,0
5.0321,1783441189.5334,1,1,1.0000,0.0000,1.42060,0.11629,-2.67325,1.03429,1.56186,0.11661,-0.13237,-0.45951,0.06384,,,,,,,,,,,,,,,,,,,,,,,,,,0,0,0,0,0
5.0452,1783441189.5465,1,1,1.0000,0.0000,1.42060,0.11588,-2.67335,1.03479,1.56186,0.11661,-0.13237,-0.45951,0.06370,,,,,,,,,,,,,,,,,,,,,,,,,,0,0,0,0,0
5.0501,1783441189.5514,1,1,1.0000,0.0000,1.42060,0.11586,-2.67336,1.03482,1.56186,0.11661,-0.13237,-0.45951,0.06369,,,,,,,,,,,,,,,,,,,,,,,,,,0,0,0,0,0
5.0505,1783441189.5518,1,1,1.0000,0.0000,1.42060,0.11586,-2.67336,1.03482,1.56186,0.11661,-0.13237,-0.45951,0.06369,,,,,,,,,,,,,,,,,,,,,,,,,,0,0,0,0,0
5.0607,1783441189.5620,1,1,1.0000,0.0000,1.42060,0.11552,-2.67344,1.03523,1.56186,0.11661,-0.13237,-0.45952,0.06359,,,,,,,,,,,,,,,,,,,,,,,,,,0,0,0,0,0
5.0797,1783441189.5810,1,1,1.0000,0.0000,1.42060,0.11521,-2.67351,1.03561,1.56186,0.11660,-0.13237,-0.45952,0.06349,,,,,,,,,,,,,,,,,,,,,,,,,,0,0,0,0,0
5.0801,1783441189.5814,1,1,1.0000,0.0000,1.42060,0.11521,-2.67351,1.03561,1.56186,0.11660,-0.13237,-0.45952,0.06349,,,,,,,,,,,,,,,,,,,,,,,,,,0,0,0,0,0
5.0870,1783441189.5883,1,1,1.0000,0.0000,1.42060,0.11486,-2.67359,1.03604,1.56186,0.11660,-0.13237,-0.45953,0.06338,,,,,,,,,,,,,,,,,,,,,,,,,,0,0,0,0,0
5.0874,1783441189.5887,1,1,1.0000,0.0000,1.42060,0.11486,-2.67359,1.03604,1.56186,0.11660,-0.13237,-0.45953,0.06338,,,,,,,,,,,,,,,,,,,,,,,,,,0,0,0,0,0
5.0952,1783441189.5965,1,1,1.0000,0.0000,1.42060,0.11436,-2.67371,1.03665,1.56186,0.11660,-0.13237,-0.45953,0.06322,,,,,,,,,,,,,,,,,,,,,,,,,,0,0,0,0,0
5.1183,1783441189.6196,1,1,1.0000,0.0000,1.42061,0.11365,-2.67388,1.03751,1.56186,0.11659,-0.13237,-0.45954,0.06299,,,,,,,,,,,,,,,,,,,,,,,,,,0,0,0,0,0
5.1241,1783441189.6254,1,1,1.0000,0.0000,1.42061,0.11345,-2.67392,1.03776,1.56186,0.11659,-0.13237,-0.45955,0.06293,,,,,,,,,,,,,,,,,,,,,,,,,,0,0,0,0,0
5.1254,1783441189.6267,1,1,1.0000,0.0000,1.42061,0.11322,-2.67398,1.03804,1.56187,0.11659,-0.13237,-0.45955,0.06285,,,,,,,,,,,,,,,,,,,,,,,,,,0,0,0,0,0
5.1258,1783441189.6271,1,1,1.0000,0.0000,1.42061,0.11322,-2.67398,1.03804,1.56187,0.11659,-0.13237,-0.45955,0.06285,,,,,,,,,,,,,,,,,,,,,,,,,,0,0,0,0,0
5.1343,1783441189.6356,1,1,1.0000,0.0000,1.42061,0.11297,-2.67404,1.03834,1.56187,0.11659,-0.13237,-0.45955,0.06277,,,,,,,,,,,,,,,,,,,,,,,,,,0,0,0,0,0
5.1449,1783441189.6462,1,1,1.0000,0.0000,1.42061,0.11277,-2.67408,1.03859,1.56187,0.11658,-0.13237,-0.45956,0.06271,,,,,,,,,,,,,,,,,,,,,,,,,,0,0,0,0,0
5.1453,1783441189.6467,1,1,1.0000,0.0000,1.42061,0.11277,-2.67408,1.03859,1.56187,0.11658,-0.13237,-0.45956,0.06271,,,,,,,,,,,,,,,,,,,,,,,,,,0,0,0,0,0
5.1614,1783441189.6627,1,1,1.0000,0.0000,1.42061,0.11245,-2.67416,1.03899,1.56187,0.11658,-0.13237,-0.45956,0.06261,,,,,,,,,,,,,,,,,,,,,,,,,,0,0,0,0,0
5.1899,1783441189.6912,1,1,1.0000,0.0000,1.42061,0.11154,-2.67435,1.04013,1.56187,0.11657,-0.13236,-0.45960,0.06234,,,,,,,,,,,,,,,,,,,,,,,,,,0,0,0,0,0
5.1919,1783441189.6932,1,1,1.0000,0.0000,1.42061,0.11154,-2.67435,1.04013,1.56187,0.11657,-0.13236,-0.45960,0.06234,,,,,,,,,,,,,,,,,,,,,,,,,,0,0,0,0,0
5.1931,1783441189.6945,1,1,1.0000,0.0000,1.42061,0.11154,-2.67435,1.04013,1.56187,0.11657,-0.13236,-0.45960,0.06234,,,,,,,,,,,,,,,,,,,,,,,,,,0,0,0,0,0
5.2010,1783441189.7023,1,1,1.0000,0.0000,1.42061,0.11150,-2.67436,1.04018,1.56187,0.11657,-0.13236,-0.45960,0.06232,,,,,,,,,,,,,,,,,,,,,,,,,,0,0,0,0,0
5.2014,1783441189.7027,1,1,1.0000,0.0000,1.42061,0.11150,-2.67436,1.04018,1.56187,0.11657,-0.13236,-0.45960,0.06232,,,,,,,,,,,,,,,,,,,,,,,,,,0,0,0,0,0
5.2127,1783441189.7140,1,1,1.0000,0.0000,1.42061,0.11133,-2.67439,1.04040,1.56187,0.11657,-0.13236,-0.45961,0.06227,,,,,,,,,,,,,,,,,,,,,,,,,,0,0,0,0,0
5.2182,1783441189.7195,1,1,1.0000,0.0000,1.42061,0.11133,-2.67439,1.04040,1.56187,0.11657,-0.13236,-0.45961,0.06227,,,,,,,,,,,,,,,,,,,,,,,,,,0,0,0,0,0
5.2186,1783441189.7199,1,1,1.0000,0.0000,1.42061,0.11133,-2.67439,1.04040,1.56187,0.11657,-0.13236,-0.45961,0.06227,,,,,,,,,,,,,,,,,,,,,,,,,,0,0,0,0,0
5.2350,1783441189.7363,1,1,1.0000,0.0000,1.42061,0.11119,-2.67443,1.04058,1.56187,0.11657,-0.13236,-0.45961,0.06223,,,,,,,,,,,,,,,,,,,,,,,,,,0,0,0,0,0
5.2369,1783441189.7382,1,1,1.0000,0.0000,1.42061,0.11112,-2.67444,1.04067,1.56187,0.11657,-0.13236,-0.45961,0.06221,,,,,,,,,,,,,,,,,,,,,,,,,,0,0,0,0,0
5.2377,1783441189.7391,1,1,1.0000,0.0000,1.42061,0.11112,-2.67444,1.04067,1.56187,0.11657,-0.13236,-0.45961,0.06221,,,,,,,,,,,,,,,,,,,,,,,,,,0,0,0,0,0
5.2492,1783441189.7505,1,1,1.0000,0.0000,1.42062,0.11096,-2.67449,1.04088,1.56187,0.11657,-0.13236,-0.45961,0.06216,,,,,,,,,,,,,,,,,,,,,,,,,,0,0,0,0,0
5.2586,1783441189.7599,1,1,1.0000,0.0000,1.42062,0.11091,-2.67450,1.04094,1.56187,0.11657,-0.13236,-0.45961,0.06214,,,,,,,,,,,,,,,,,,,,,,,,,,0,0,0,0,0
5.2694,1783441189.7707,1,1,1.0000,0.0000,1.42062,0.11071,-2.67456,1.04119,1.56187,0.11656,-0.13236,-0.45961,0.06207,,,,,,,,,,,,,,,,,,,,,,,,,,0,0,0,0,0
5.2814,1783441189.7827,1,1,1.0000,0.0000,1.42062,0.11050,-2.67461,1.04144,1.56187,0.11656,-0.13236,-0.45961,0.06200,,,,,,,,,,,,,,,,,,,,,,,,,,0,0,0,0,0
5.2929,1783441189.7943,1,1,1.0000,0.0000,1.42062,0.11036,-2.67465,1.04162,1.56187,0.11656,-0.13236,-0.45961,0.06196,,,,,,,,,,,,,,,,,,,,,,,,,,0,0,0,0,0
5.2983,1783441189.7996,1,1,1.0000,0.0000,1.42062,0.11025,-2.67467,1.04175,1.56187,0.11656,-0.13236,-0.45961,0.06192,,,,,,,,,,,,,,,,,,,,,,,,,,0,0,0,0,0
5.2986,1783441189.8000,1,1,1.0000,0.0000,1.42062,0.11025,-2.67467,1.04175,1.56187,0.11656,-0.13236,-0.45961,0.06192,,,,,,,,,,,,,,,,,,,,,,,,,,0,0,0,0,0
5.3195,1783441189.8208,1,1,1.0000,0.0000,1.42062,0.10990,-2.67476,1.04218,1.56187,0.11656,-0.13236,-0.45961,0.06181,,,,,,,,,,,,,,,,,,,,,,,,,,0,0,0,0,0
5.3278,1783441189.8291,1,1,1.0000,0.0000,1.42062,0.10954,-2.67484,1.04261,1.56187,0.11656,-0.13236,-0.45962,0.06170,,,,,,,,,,,,,,,,,,,,,,,,,,0,0,0,0,0
5.3290,1783441189.8303,1,1,1.0000,0.0000,1.42062,0.10932,-2.67489,1.04288,1.56187,0.11655,-0.13236,-0.45962,0.06163,,,,,,,,,,,,,,,,,,,,,,,,,,0,0,0,0,0
5.3392,1783441189.8405,1,1,1.0000,0.0000,1.42062,0.10883,-2.67500,1.04348,1.56187,0.11655,-0.13236,-0.45963,0.06147,,,,,,,,,,,,,,,,,,,,,,,,,,0,0,0,0,0
5.3486,1783441189.8499,1,1,1.0000,0.0000,1.42062,0.10873,-2.67502,1.04360,1.56187,0.11655,-0.13236,-0.45963,0.06144,,,,,,,,,,,,,,,,,,,,,,,,,,0,0,0,0,0
5.3597,1783441189.8610,1,1,1.0000,0.0000,1.42062,0.10844,-2.67509,1.04395,1.56188,0.11655,-0.13236,-0.45963,0.06135,,,,,,,,,,,,,,,,,,,,,,,,,,0,0,0,0,0
5.3678,1783441189.8691,1,1,1.0000,0.0000,1.42062,0.10803,-2.67518,1.04445,1.56188,0.11655,-0.13236,-0.45964,0.06122,,,,,,,,,,,,,,,,,,,,,,,,,,0,0,0,0,0
5.3685,1783441189.8698,1,1,1.0000,0.0000,1.42062,0.10779,-2.67524,1.04474,1.56188,0.11654,-0.13236,-0.45964,0.06114,,,,,,,,,,,,,,,,,,,,,,,,,,0,0,0,0,0
5.3810,1783441189.8823,1,1,1.0000,0.0000,1.42062,0.10768,-2.67527,1.04488,1.56188,0.11654,-0.13236,-0.45964,0.06111,,,,,,,,,,,,,,,,,,,,,,,,,,0,0,0,0,0
5.3817,1783441189.8830,1,1,1.0000,0.0000,1.42062,0.10768,-2.67527,1.04488,1.56188,0.11654,-0.13236,-0.45964,0.06111,,,,,,,,,,,,,,,,,,,,,,,,,,0,0,0,0,0
5.3900,1783441189.8913,1,1,1.0000,0.0000,1.42063,0.10738,-2.67534,1.04524,1.56188,0.11654,-0.13236,-0.45964,0.06101,,,,,,,,,,,,,,,,,,,,,,,,,,0,0,0,0,0
5.3985,1783441189.8998,1,1,1.0000,0.0000,1.42063,0.10718,-2.67538,1.04548,1.56188,0.11654,-0.13236,-0.45964,0.06095,,,,,,,,,,,,,,,,,,,,,,,,,,0,0,0,0,0
5.4088,1783441189.9101,1,1,1.0000,0.0000,1.42063,0.10693,-2.67544,1.04579,1.56188,0.11654,-0.13236,-0.45965,0.06087,,,,,,,,,,,,,,,,,,,,,,,,,,0,0,0,0,0
5.4092,1783441189.9105,1,1,1.0000,0.0000,1.42063,0.10693,-2.67544,1.04579,1.56188,0.11654,-0.13236,-0.45965,0.06087,,,,,,,,,,,,,,,,,,,,,,,,,,0,0,0,0,0
5.4218,1783441189.9231,1,1,1.0000,0.0000,1.42063,0.10633,-2.67558,1.04652,1.56188,0.11653,-0.13236,-0.45966,0.06068,,,,,,,,,,,,,,,,,,,,,,,,,,0,0,0,0,0
5.4224,1783441189.9237,1,1,1.0000,0.0000,1.42063,0.10633,-2.67558,1.04652,1.56188,0.11653,-0.13236,-0.45966,0.06068,,,,,,,,,,,,,,,,,,,,,,,,,,0,0,0,0,0
5.4299,1783441189.9312,1,1,1.0000,0.0000,1.42063,0.10609,-2.67563,1.04682,1.56188,0.11653,-0.13235,-0.45966,0.06060,,,,,,,,,,,,,,,,,,,,,,,,,,0,0,0,0,0
5.4399,1783441189.9412,1,1,1.0000,0.0000,1.42063,0.10601,-2.67565,1.04692,1.56188,0.11653,-0.13235,-0.45966,0.06058,,,,,,,,,,,,,,,,,,,,,,,,,,0,0,0,0,0
5.4490,1783441189.9503,1,1,1.0000,0.0000,1.42063,0.10567,-2.67572,1.04734,1.56188,0.11653,-0.13235,-0.45967,0.06048,,,,,,,,,,,,,,,,,,,,,,,,,,0,0,0,0,0
5.4608,1783441189.9621,1,1,1.0000,0.0000,1.42063,0.10520,-2.67583,1.04793,1.56188,0.11652,-0.13235,-0.45969,0.06033,,,,,,,,,,,,,,,,,,,,,,,,,,0,0,0,0,0
5.4613,1783441189.9626,1,1,1.0000,0.0000,1.42063,0.10520,-2.67583,1.04793,1.56188,0.11652,-0.13235,-0.45969,0.06033,,,,,,,,,,,,,,,,,,,,,,,,,,0,0,0,0,0
5.4712,1783441189.9725,1,1,1.0000,0.0000,1.42063,0.10488,-2.67589,1.04832,1.56188,0.11652,-0.13235,-0.45970,0.06024,,,,,,,,,,,,,,,,,,,,,,,,,,0,0,0,0,0
5.4836,1783441189.9849,1,1,1.0000,0.0000,1.42064,0.10451,-2.67597,1.04879,1.56188,0.11651,-0.13235,-0.45971,0.06013,,,,,,,,,,,,,,,,,,,,,,,,,,0,0,0,0,0
5.4840,1783441189.9853,1,1,1.0000,0.0000,1.42064,0.10451,-2.67597,1.04879,1.56188,0.11651,-0.13235,-0.45971,0.06013,,,,,,,,,,,,,,,,,,,,,,,,,,0,0,0,0,0
5.4910,1783441189.9923,1,1,1.0000,0.0000,1.42064,0.10450,-2.67597,1.04880,1.56188,0.11651,-0.13235,-0.45971,0.06013,,,,,,,,,,,,,,,,,,,,,,,,,,0,0,0,0,0
5.4914,1783441189.9927,1,1,1.0000,0.0000,1.42064,0.10450,-2.67597,1.04880,1.56188,0.11651,-0.13235,-0.45971,0.06013,,,,,,,,,,,,,,,,,,,,,,,,,,0,0,0,0,0
5.4985,1783441189.9998,1,1,1.0000,0.0000,1.42064,0.10448,-2.67597,1.04883,1.56188,0.11651,-0.13235,-0.45971,0.06012,,,,,,,,,,,,,,,,,,,,,,,,,,0,0,0,0,0
5.5110,1783441190.0123,1,1,1.0000,0.0000,1.42064,0.10442,-2.67599,1.04893,1.56188,0.11651,-0.13235,-0.45972,0.06010,,,,,,,,,,,,,,,,,,,,,,,,,,0,0,0,0,0
