Martins-Lucaas/twinforge/sensors/Data/20260713_150402__samples.csv
t_rel_s,t_unix,cycle,phase,setpoint_n,force_net_n,q1,q2,q3,q4,q5,q6,tcp_x,tcp_y,tcp_z,taxel_0,taxel_1,taxel_2,taxel_3,taxel_4,taxel_5,taxel_6,taxel_7,taxel_8,taxel_9,taxel_10,taxel_11,taxel_12,taxel_13,taxel_14,taxel_15,taxel_16,taxel_17,taxel_18,taxel_19,taxel_20,taxel_21,taxel_22,taxel_23,taxel_24,n_RA,n_SA,cn_mm,cn_ra,cn_sa
0.0235,1783965842.8563,1,0,2.0000,-0.0000,1.42244,0.00072,-2.63046,1.05902,1.57084,0.11672,-0.12762,-0.48157,0.03741,,,,,,,,,,,,,,,,,,,,,,,,,,0,0,0,0,0
0.0238,1783965842.8566,1,0,2.0000,-0.0000,1.42244,0.00072,-2.63046,1.05902,1.57084,0.11672,-0.12762,-0.48157,0.03741,,,,,,,,,,,,,,,,,,,,,,,,,,0,0,0,0,0
0.0402,1783965842.8730,1,0,2.0000,-0.0000,1.42244,0.00072,-2.63047,1.05903,1.57083,0.11672,-0.12762,-0.48156,0.03741,,,,,,,,,,,,,,,,,,,,,,,,,,0,0,0,0,0
0.0455,1783965842.8783,1,0,2.0000,-0.0000,1.42244,0.00072,-2.63048,1.05903,1.57083,0.11673,-0.12762,-0.48155,0.03740,,,,,,,,,,,,,,,,,,,,,,,,,,0,0,0,0,0
0.0490,1783965842.8818,1,0,2.0000,-0.0000,1.42244,0.00072,-2.63048,1.05903,1.57083,0.11673,-0.12762,-0.48155,0.03740,,,,,,,,,,,,,,,,,,,,,,,,,,0,0,0,0,0
0.0535,1783965842.8863,1,0,2.0000,-0.0000,1.42244,0.00072,-2.63049,1.05904,1.57082,0.11673,-0.12762,-0.48155,0.03740,,,,,,,,,,,,,,,,,,,,,,,,,,0,0,0,0,0
0.0550,1783965842.8878,1,0,2.0000,-0.0000,1.42244,0.00072,-2.63049,1.05904,1.57082,0.11673,-0.12762,-0.48155,0.03740,,,,,,,,,,,,,,,,,,,,,,,,,,0,0,0,0,0
0.0553,1783965842.8881,1,0,2.0000,-0.0000,1.42244,0.00072,-2.63049,1.05904,1.57082,0.11673,-0.12762,-0.48155,0.03740,,,,,,,,,,,,,,,,,,,,,,,,,,0,0,0,0,0
0.0557,1783965842.8885,1,0,2.0000,-0.0000,1.42244,0.00072,-2.63049,1.05904,1.57082,0.11673,-0.12762,-0.48155,0.03740,,,,,,,,,,,,,,,,,,,,,,,,,,0,0,0,0,0
0.0559,1783965842.8888,1,0,2.0000,-0.0000,1.42244,0.00072,-2.63049,1.05904,1.57082,0.11673,-0.12762,-0.48155,0.03740,,,,,,,,,,,,,,,,,,,,,,,,,,0,0,0,0,0
0.0786,1783965842.9114,1,0,2.0000,-0.0000,1.42244,0.00071,-2.63053,1.05906,1.57080,0.11675,-0.12763,-0.48152,0.03738,,,,,,,,,,,,,,,,,,,,,,,,,,0,0,0,0,0
0.0872,1783965842.9200,1,0,2.0000,-0.0000,1.42244,0.00071,-2.63053,1.05907,1.57080,0.11675,-0.12764,-0.48152,0.03738,,,,,,,,,,,,,,,,,,,,,,,,,,0,0,0,0,0
0.0883,1783965842.9211,1,0,2.0000,-0.0000,1.42244,0.00071,-2.63053,1.05907,1.57080,0.11675,-0.12764,-0.48152,0.03738,,,,,,,,,,,,,,,,,,,,,,,,,,0,0,0,0,0
0.0888,1783965842.9216,1,0,2.0000,-0.0000,1.42244,0.00071,-2.63053,1.05907,1.57080,0.11675,-0.12764,-0.48152,0.03738,,,,,,,,,,,,,,,,,,,,,,,,,,0,0,0,0,0
0.0897,1783965842.9225,1,0,2.0000,-0.0000,1.42244,0.00071,-2.63053,1.05907,1.57080,0.11675,-0.12764,-0.48152,0.03738,,,,,,,,,,,,,,,,,,,,,,,,,,0,0,0,0,0
0.0901,1783965842.9229,1,0,2.0000,-0.0000,1.42244,0.00071,-2.63053,1.05907,1.57080,0.11675,-0.12764,-0.48152,0.03738,,,,,,,,,,,,,,,,,,,,,,,,,,0,0,0,0,0
0.0906,1783965842.9234,1,0,2.0000,-0.0000,1.42244,0.00071,-2.63053,1.05907,1.57080,0.11675,-0.12764,-0.48152,0.03738,,,,,,,,,,,,,,,,,,,,,,,,,,0,0,0,0,0
0.1018,1783965842.9346,1,0,2.0000,-0.0000,1.42244,0.00071,-2.63053,1.05907,1.57080,0.11675,-0.12764,-0.48152,0.03738,,,,,,,,,,,,,,,,,,,,,,,,,,0,0,0,0,0
0.1077,1783965842.9405,1,0,2.0000,-0.0000,1.42244,0.00071,-2.63053,1.05907,1.57080,0.11675,-0.12764,-0.48152,0.03738,,,,,,,,,,,,,,,,,,,,,,,,,,0,0,0,0,0
0.1081,1783965842.9409,1,0,2.0000,-0.0000,1.42244,0.00071,-2.63053,1.05907,1.57080,0.11675,-0.12764,-0.48152,0.03738,,,,,,,,,,,,,,,,,,,,,,,,,,0,0,0,0,0
0.1189,1783965842.9517,1,0,2.0000,-0.0000,1.42244,0.00071,-2.63053,1.05907,1.57080,0.11675,-0.12764,-0.48152,0.03738,,,,,,,,,,,,,,,,,,,,,,,,,,0,0,0,0,0
0.1270,1783965842.9598,1,0,2.0000,-0.0000,1.42244,0.00071,-2.63053,1.05907,1.57080,0.11675,-0.12764,-0.48152,0.03738,,,,,,,,,,,,,,,,,,,,,,,,,,0,0,0,0,0
0.1383,1783965842.9711,1,0,2.0000,-0.0000,1.42244,0.00071,-2.63053,1.05907,1.57080,0.11675,-0.12764,-0.48152,0.03738,,,,,,,,,,,,,,,,,,,,,,,,,,0,0,0,0,0
0.1583,1783965842.9911,1,0,2.0000,-0.0000,1.42244,0.00071,-2.63053,1.05907,1.57080,0.11675,-0.12764,-0.48152,0.03738,,,,,,,,,,,,,,,,,,,,,,,,,,0,0,0,0,0
0.1622,1783965842.9950,1,0,2.0000,-0.0000,1.42244,0.00071,-2.63053,1.05907,1.57080,0.11675,-0.12764,-0.48152,0.03738,,,,,,,,,,,,,,,,,,,,,,,,,,0,0,0,0,0
0.1834,1783965843.0162,1,0,2.0000,-0.0000,1.42244,0.00071,-2.63053,1.05907,1.57080,0.11675,-0.12764,-0.48152,0.03738,,,,,,,,,,,,,,,,,,,,,,,,,,0,0,0,0,0
0.1878,1783965843.0206,1,0,2.0000,-0.0000,1.42244,0.00071,-2.63053,1.05907,1.57080,0.11675,-0.12764,-0.48152,0.03738,,,,,,,,,,,,,,,,,,,,,,,,,,0,0,0,0,0
0.1931,1783965843.0259,1,0,2.0000,-0.0000,1.42244,0.00071,-2.63053,1.05907,1.57080,0.11675,-0.12764,-0.48152,0.03738,,,,,,,,,,,,,,,,,,,,,,,,,,0,0,0,0,0
0.1936,1783965843.0264,1,0,2.0000,-0.0000,1.42244,0.00071,-2.63053,1.05907,1.57080,0.11675,-0.12764,-0.48152,0.03738,,,,,,,,,,,,,,,,,,,,,,,,,,0,0,0,0,0
0.1966,1783965843.0294,1,0,2.0000,-0.0000,1.42244,0.00071,-2.63053,1.05907,1.57080,0.11675,-0.12764,-0.48152,0.03738,,,,,,,,,,,,,,,,,,,,,,,,,,0,0,0,0,0
0.1970,1783965843.0298,1,0,2.0000,-0.0000,1.42244,0.00071,-2.63053,1.05907,1.57080,0.11675,-0.12764,-0.48152,0.03738,,,,,,,,,,,,,,,,,,,,,,,,,,0,0,0,0,0
0.2069,1783965843.0397,1,0,2.0000,-0.0000,1.42244,0.00071,-2.63053,1.05907,1.57080,0.11675,-0.12764,-0.48152,0.03738,,,,,,,,,,,,,,,,,,,,,,,,,,0,0,0,0,0
0.2292,1783965843.0620,1,0,2.0000,-0.0000,1.42244,0.00071,-2.63053,1.05907,1.57080,0.11675,-0.12764,-0.48152,0.03738,,,,,,,,,,,,,,,,,,,,,,,,,,0,0,0,0,0
0.2297,1783965843.0625,1,0,2.0000,-0.0000,1.42244,0.00071,-2.63053,1.05907,1.57080,0.11675,-0.12764,-0.48152,0.03738,,,,,,,,,,,,,,,,,,,,,,,,,,0,0,0,0,0
0.2389,1783965843.0717,1,0,2.0000,-0.0000,1.42244,0.00071,-2.63053,1.05907,1.57080,0.11675,-0.12764,-0.48152,0.03738,,,,,,,,,,,,,,,,,,,,,,,,,,0,0,0,0,0
0.2524,1783965843.0852,1,0,2.0000,-0.0000,1.42244,0.00071,-2.63053,1.05907,1.57080,0.11675,-0.12764,-0.48152,0.03738,,,,,,,,,,,,,,,,,,,,,,,,,,0,0,0,0,0
0.2632,1783965843.0960,1,0,2.0000,-0.0000,1.42244,0.00071,-2.63053,1.05907,1.57080,0.11675,-0.12764,-0.48152,0.03738,,,,,,,,,,,,,,,,,,,,,,,,,,0,0,0,0,0
0.2666,1783965843.0994,1,0,2.0000,-0.0000,1.42244,0.00071,-2.63053,1.05907,1.57080,0.11675,-0.12764,-0.48152,0.03738,,,,,,,,,,,,,,,,,,,,,,,,,,0,0,0,0,0
0.2670,1783965843.0998,1,0,2.0000,-0.0000,1.42244,0.00071,-2.63053,1.05907,1.57080,0.11675,-0.12764,-0.48152,0.03738,,,,,,,,,,,,,,,,,,,,,,,,,,0,0,0,0,0
0.2768,1783965843.1096,1,0,2.0000,-0.0000,1.42244,0.00071,-2.63053,1.05907,1.57080,0.11675,-0.12764,-0.48152,0.03738,,,,,,,,,,,,,,,,,,,,,,,,,,0,0,0,0,0
0.2903,1783965843.1231,1,0,2.0000,-0.0000,1.42244,0.00071,-2.63053,1.05907,1.57080,0.11675,-0.12764,-0.48152,0.03738,,,,,,,,,,,,,,,,,,,,,,,,,,0,0,0,0,0
0.2906,1783965843.1234,1,0,2.0000,-0.0000,1.42244,0.00071,-2.63053,1.05907,1.57080,0.11675,-0.12764,-0.48152,0.03738,,,,,,,,,,,,,,,,,,,,,,,,,,0,0,0,0,0
0.3238,1783965843.1566,1,0,2.0000,-0.0000,1.42244,0.00071,-2.63053,1.05907,1.57080,0.11675,-0.12764,-0.48152,0.03738,,,,,,,,,,,,,,,,,,,,,,,,,,0,0,0,0,0
0.3243,1783965843.1571,1,0,2.0000,-0.0000,1.42244,0.00071,-2.63053,1.05907,1.57080,0.11675,-0.12764,-0.48152,0.03738,,,,,,,,,,,,,,,,,,,,,,,,,,0,0,0,0,0
0.3289,1783965843.1617,1,0,2.0000,-0.0000,1.42244,0.00071,-2.63053,1.05907,1.57080,0.11675,-0.12764,-0.48152,0.03738,,,,,,,,,,,,,,,,,,,,,,,,,,0,0,0,0,0
0.3298,1783965843.1626,1,0,2.0000,-0.0000,1.42244,0.00071,-2.63053,1.05907,1.57080,0.11675,-0.12764,-0.48152,0.03738,,,,,,,,,,,,,,,,,,,,,,,,,,0,0,0,0,0
0.3302,1783965843.1630,1,0,2.0000,-0.0000,1.42244,0.00071,-2.63053,1.05907,1.57080,0.11675,-0.12764,-0.48152,0.03738,,,,,,,,,,,,,,,,,,,,,,,,,,0,0,0,0,0
0.3361,1783965843.1689,1,0,2.0000,-0.0000,1.42244,0.00071,-2.63053,1.05907,1.57080,0.11675,-0.12764,-0.48152,0.03738,,,,,,,,,,,,,,,,,,,,,,,,,,0,0,0,0,0
0.3366,1783965843.1694,1,0,2.0000,-0.0000,1.42244,0.00071,-2.63053,1.05907,1.57080,0.11675,-0.12764,-0.48152,0.03738,,,,,,,,,,,,,,,,,,,,,,,,,,0,0,0,0,0
0.3547,1783965843.1875,1,0,2.0000,-0.0000,1.42244,0.00071,-2.63053,1.05907,1.57080,0.11675,-0.12764,-0.48152,0.03738,,,,,,,,,,,,,,,,,,,,,,,,,,0,0,0,0,0
0.3618,1783965843.1946,1,0,2.0000,-0.0000,1.42244,0.00071,-2.63053,1.05907,1.57080,0.11675,-0.12764,-0.48152,0.03738,,,,,,,,,,,,,,,,,,,,,,,,,,0,0,0,0,0
0.3621,1783965843.1949,1,0,2.0000,-0.0000,1.42244,0.00071,-2.63053,1.05907,1.57080,0.11675,-0.12764,-0.48152,0.03738,,,,,,,,,,,,,,,,,,,,,,,,,,0,0,0,0,0
0.3685,1783965843.2013,1,0,2.0000,-0.0000,1.42244,0.00071,-2.63053,1.05907,1.57080,0.11675,-0.12764,-0.48152,0.03738,,,,,,,,,,,,,,,,,,,,,,,,,,0,0,0,0,0
0.3691,1783965843.2019,1,0,2.0000,-0.0000,1.42244,0.00071,-2.63053,1.05907,1.57080,0.11675,-0.12764,-0.48152,0.03738,,,,,,,,,,,,,,,,,,,,,,,,,,0,0,0,0,0
0.3788,1783965843.2116,1,0,2.0000,-0.0000,1.42244,0.00071,-2.63053,1.05907,1.57080,0.11675,-0.12764,-0.48152,0.03738,,,,,,,,,,,,,,,,,,,,,,,,,,0,0,0,0,0
0.3792,1783965843.2120,1,0,2.0000,-0.0000,1.42244,0.00071,-2.63053,1.05907,1.57080,0.11675,-0.12764,-0.48152,0.03738,,,,,,,,,,,,,,,,,,,,,,,,,,0,0,0,0,0
0.3895,1783965843.2223,1,0,2.0000,-0.0000,1.42244,0.00071,-2.63053,1.05907,1.57080,0.11675,-0.12764,-0.48152,0.03738,,,,,,,,,,,,,,,,,,,,,,,,,,0,0,0,0,0
0.3978,1783965843.2306,1,0,2.0000,-0.0000,1.42244,0.00071,-2.63053,1.05907,1.57080,0.11675,-0.12764,-0.48152,0.03738,,,,,,,,,,,,,,,,,,,,,,,,,,0,0,0,0,0
0.3981,1783965843.2309,1,0,2.0000,-0.0000,1.42244,0.00071,-2.63053,1.05907,1.57080,0.11675,-0.12764,-0.48152,0.03738,,,,,,,,,,,,,,,,,,,,,,,,,,0,0,0,0,0
0.4256,1783965843.2584,1,0,2.0000,-0.0000,1.42244,0.00071,-2.63053,1.05907,1.57080,0.11675,-0.12764,-0.48152,0.03738,,,,,,,,,,,,,,,,,,,,,,,,,,0,0,0,0,0
0.4346,1783965843.2674,1,0,2.0000,-0.0000,1.42244,0.00071,-2.63053,1.05907,1.57080,0.11675,-0.12764,-0.48152,0.03738,,,,,,,,,,,,,,,,,,,,,,,,,,0,0,0,0,0
0.4350,1783965843.2678,1,0,2.0000,-0.0000,1.42244,0.00071,-2.63053,1.05907,1.57080,0.11675,-0.12764,-0.48152,0.03738,,,,,,,,,,,,,,,,,,,,,,,,,,0,0,0,0,0
0.4364,1783965843.2692,1,0,2.0000,-0.0000,1.42244,0.00071,-2.63053,1.05907,1.57080,0.11675,-0.12764,-0.48152,0.03738,,,,,,,,,,,,,,,,,,,,,,,,,,0,0,0,0,0
0.4367,1783965843.2695,1,0,2.0000,-0.0000,1.42244,0.00071,-2.63053,1.05907,1.57080,0.11675,-0.12764,-0.48152,0.03738,,,,,,,,,,,,,,,,,,,,,,,,,,0,0,0,0,0
0.4396,1783965843.2724,1,0,2.0000,-0.0000,1.42244,0.00071,-2.63053,1.05907,1.57080,0.11675,-0.12764,-0.48152,0.03738,,,,,,,,,,,,,,,,,,,,,,,,,,0,0,0,0,0
0.4400,1783965843.2728,1,0,2.0000,-0.0000,1.42244,0.00071,-2.63053,1.05907,1.57080,0.11675,-0.12764,-0.48152,0.03738,,,,,,,,,,,,,,,,,,,,,,,,,,0,0,0,0,0
0.4657,1783965843.2985,1,0,2.0000,-0.0000,1.42244,0.00071,-2.63053,1.05907,1.57080,0.11675,-0.12764,-0.48152,0.03738,,,,,,,,,,,,,,,,,,,,,,,,,,0,0,0,0,0
0.4701,1783965843.3029,1,0,2.0000,-0.0000,1.42244,0.00071,-2.63053,1.05907,1.57080,0.11675,-0.12764,-0.48152,0.03738,,,,,,,,,,,,,,,,,,,,,,,,,,0,0,0,0,0
0.4706,1783965843.3034,1,0,2.0000,-0.0000,1.42244,0.00071,-2.63053,1.05907,1.57080,0.11675,-0.12764,-0.48152,0.03738,,,,,,,,,,,,,,,,,,,,,,,,,,0,0,0,0,0
0.4815,1783965843.3143,1,0,2.0000,-0.0000,1.42244,0.00071,-2.63053,1.05907,1.57080,0.11675,-0.12764,-0.48152,0.03738,,,,,,,,,,,,,,,,,,,,,,,,,,0,0,0,0,0
0.4955,1783965843.3283,1,0,2.0000,-0.0000,1.42244,0.00071,-2.63053,1.05907,1.57080,0.11675,-0.12764,-0.48152,0.03738,,,,,,,,,,,,,,,,,,,,,,,,,,0,0,0,0,0
0.5021,1783965843.3349,1,0,2.0000,-0.0000,1.42244,0.00071,-2.63053,1.05907,1.57080,0.11675,-0.12764,-0.48152,0.03738,,,,,,,,,,,,,,,,,,,,,,,,,,0,0,0,0,0
0.5198,1783965843.3526,1,0,2.0000,-0.0000,1.42244,0.00071,-2.63053,1.05907,1.57080,0.11675,-0.12764,-0.48152,0.03738,,,,,,,,,,,,,,,,,,,,,,,,,,0,0,0,0,0
0.5203,1783965843.3531,1,0,2.0000,-0.0000,1.42244,0.00071,-2.63053,1.05907,1.57080,0.11675,-0.12764,-0.48152,0.03738,,,,,,,,,,,,,,,,,,,,,,,,,,0,0,0,0,0
0.5314,1783965843.3642,1,0,2.0000,-0.0000,1.42244,0.00071,-2.63053,1.05907,1.57080,0.11675,-0.12764,-0.48152,0.03738,,,,,,,,,,,,,,,,,,,,,,,,,,0,0,0,0,0
0.5381,1783965843.3709,1,0,2.0000,-0.0000,1.42244,0.00071,-2.63053,1.05907,1.57080,0.11675,-0.12764,-0.48152,0.03738,,,,,,,,,,,,,,,,,,,,,,,,,,0,0,0,0,0
0.5623,1783965843.3951,1,0,2.0000,-0.0000,1.42244,0.00071,-2.63053,1.05907,1.57080,0.11675,-0.12764,-0.48152,0.03738,,,,,,,,,,,,,,,,,,,,,,,,,,0,0,0,0,0
0.5626,1783965843.3954,1,0,2.0000,-0.0000,1.42244,0.00071,-2.63053,1.05907,1.57080,0.11675,-0.12764,-0.48152,0.03738,,,,,,,,,,,,,,,,,,,,,,,,,,0,0,0,0,0
0.5695,1783965843.4023,1,0,2.0000,-0.0000,1.42244,0.00071,-2.63053,1.05907,1.57080,0.11675,-0.12764,-0.48152,0.03738,,,,,,,,,,,,,,,,,,,,,,,,,,0,0,0,0,0
0.5852,1783965843.4180,1,0,2.0000,-0.0000,1.42244,0.00071,-2.63053,1.05907,1.57080,0.11675,-0.12764,-0.48152,0.03738,,,,,,,,,,,,,,,,,,,,,,,,,,0,0,0,0,0
0.5908,1783965843.4236,1,0,2.0000,-0.0000,1.42244,0.00071,-2.63053,1.05907,1.57080,0.11675,-0.12764,-0.48152,0.03738,,,,,,,,,,,,,,,,,,,,,,,,,,0,0,0,0,0
0.6005,1783965843.4333,1,0,2.0000,-0.0000,1.42244,0.00071,-2.63053,1.05907,1.57080,0.11675,-0.12764,-0.48152,0.03738,,,,,,,,,,,,,,,,,,,,,,,,,,0,0,0,0,0
0.6095,1783965843.4423,1,0,2.0000,-0.0000,1.42244,0.00071,-2.63053,1.05907,1.57080,0.11675,-0.12764,-0.48152,0.03738,,,,,,,,,,,,,,,,,,,,,,,,,,0,0,0,0,0
0.6098,1783965843.4426,1,0,2.0000,-0.0000,1.42244,0.00071,-2.63053,1.05907,1.57080,0.11675,-0.12764,-0.48152,0.03738,,,,,,,,,,,,,,,,,,,,,,,,,,0,0,0,0,0
0.6200,1783965843.4528,1,0,2.0000,-0.0000,1.42244,0.00071,-2.63053,1.05907,1.57080,0.11675,-0.12764,-0.48152,0.03738,,,,,,,,,,,,,,,,,,,,,,,,,,0,0,0,0,0
0.6600,1783965843.4928,1,0,2.0000,-0.0000,1.42244,0.00071,-2.63053,1.05907,1.57080,0.11675,-0.12764,-0.48152,0.03738,,,,,,,,,,,,,,,,,,,,,,,,,,0,0,0,0,0
0.6771,1783965843.5099,1,0,2.0000,-0.0000,1.42244,0.00071,-2.63053,1.05907,1.57080,0.11675,-0.12764,-0.48152,0.03738,,,,,,,,,,,,,,,,,,,,,,,,,,0,0,0,0,0
0.6783,1783965843.5111,1,0,2.0000,-0.0000,1.42244,0.00071,-2.63053,1.05907,1.57080,0.11675,-0.12764,-0.48152,0.03738,,,,,,,,,,,,,,,,,,,,,,,,,,0,0,0,0,0
0.6790,1783965843.5118,1,0,2.0000,-0.0000,1.42244,0.00071,-2.63053,1.05907,1.57080,0.11675,-0.12764,-0.48152,0.03738,,,,,,,,,,,,,,,,,,,,,,,,,,0,0,0,0,0
0.6794,1783965843.5122,1,0,2.0000,-0.0000,1.42244,0.00071,-2.63053,1.05907,1.57080,0.11675,-0.12764,-0.48152,0.03738,,,,,,,,,,,,,,,,,,,,,,,,,,0,0,0,0,0
0.6820,1783965843.5148,1,0,2.0000,-0.0000,1.42244,0.00071,-2.63053,1.05907,1.57080,0.11675,-0.12764,-0.48152,0.03738,,,,,,,,,,,,,,,,,,,,,,,,,,0,0,0,0,0
0.6823,1783965843.5151,1,0,2.0000,-0.0000,1.42244,0.00071,-2.63053,1.05907,1.57080,0.11675,-0.12764,-0.48152,0.03738,,,,,,,,,,,,,,,,,,,,,,,,,,0,0,0,0,0
0.6852,1783965843.5180,1,0,2.0000,-0.0000,1.42244,0.00071,-2.63053,1.05907,1.57080,0.11675,-0.12764,-0.48152,0.03738,,,,,,,,,,,,,,,,,,,,,,,,,,0,0,0,0,0
0.6858,1783965843.5186,1,0,2.0000,-0.0000,1.42244,0.00071,-2.63053,1.05907,1.57080,0.11675,-0.12764,-0.48152,0.03738,,,,,,,,,,,,,,,,,,,,,,,,,,0,0,0,0,0
0.7040,1783965843.5368,1,0,2.0000,-0.0000,1.42244,0.00071,-2.63053,1.05907,1.57080,0.11675,-0.12764,-0.48152,0.03738,,,,,,,,,,,,,,,,,,,,,,,,,,0,0,0,0,0
0.7087,1783965843.5415,1,0,2.0000,-0.0000,1.42244,0.00071,-2.63053,1.05907,1.57080,0.11675,-0.12764,-0.48152,0.03738,,,,,,,,,,,,,,,,,,,,,,,,,,0,0,0,0,0
0.7330,1783965843.5658,1,1,2.0000,-0.0000,1.42244,0.00071,-2.63053,1.05907,1.57080,0.11675,-0.12764,-0.48152,0.03738,,,,,,,,,,,,,,,,,,,,,,,,,,0,0,0,0,0
0.7352,1783965843.5680,1,1,2.0000,-0.0000,1.42244,0.00071,-2.63053,1.05907,1.57080,0.11675,-0.12764,-0.48152,0.03738,,,,,,,,,,,,,,,,,,,,,,,,,,0,0,0,0,0
0.7426,1783965843.5754,1,1,2.0000,-0.0000,1.42244,0.00071,-2.63053,1.05907,1.57080,0.11675,-0.12764,-0.48152,0.03738,,,,,,,,,,,,,,,,,,,,,,,,,,0,0,0,0,0
0.7434,1783965843.5762,1,1,2.0000,-0.0000,1.42244,0.00071,-2.63053,1.05907,1.57080,0.11675,-0.12764,-0.48152,0.03738,,,,,,,,,,,,,,,,,,,,,,,,,,0,0,0,0,0
0.7438,1783965843.5766,1,1,2.0000,-0.0000,1.42244,0.00071,-2.63053,1.05907,1.57080,0.11675,-0.12764,-0.48152,0.03738,,,,,,,,,,,,,,,,,,,,,,,,,,0,0,0,0,0
0.7489,1783965843.5817,1,1,2.0000,-0.0000,1.42244,0.00071,-2.63053,1.05907,1.57080,0.11675,-0.12764,-0.48152,0.03738,,,,,,,,,,,,,,,,,,,,,,,,,,0,0,0,0,0
0.7784,1783965843.6112,1,1,2.0000,-0.0000,1.42244,0.00071,-2.63053,1.05907,1.57080,0.11675,-0.12764,-0.48152,0.03738,,,,,,,,,,,,,,,,,,,,,,,,,,0,0,0,0,0
0.7852,1783965843.6180,1,1,2.0000,-0.0000,1.42244,0.00071,-2.63053,1.05907,1.57080,0.11675,-0.12764,-0.48152,0.03738,,,,,,,,,,,,,,,,,,,,,,,,,,0,0,0,0,0
0.7879,1783965843.6207,1,1,2.0000,-0.0000,1.42244,0.00071,-2.63053,1.05907,1.57080,0.11675,-0.12764,-0.48152,0.03738,,,,,,,,,,,,,,,,,,,,,,,,,,0,0,0,0,0
0.8023,1783965843.6351,1,1,2.0000,-0.0000,1.42244,0.00071,-2.63053,1.05907,1.57080,0.11675,-0.12764,-0.48152,0.03738,,,,,,,,,,,,,,,,,,,,,,,,,,0,0,0,0,0
0.8108,1783965843.6436,1,1,2.0000,-0.0000,1.42244,0.00071,-2.63053,1.05907,1.57080,0.11675,-0.12764,-0.48152,0.03738,,,,,,,,,,,,,,,,,,,,,,,,,,0,0,0,0,0
0.8138,1783965843.6466,1,1,2.0000,-0.0000,1.42244,0.00071,-2.63053,1.05907,1.57080,0.11675,-0.12764,-0.48152,0.03738,,,,,,,,,,,,,,,,,,,,,,,,,,0,0,0,0,0
0.8212,1783965843.6540,1,1,2.0000,-0.0000,1.42244,0.00071,-2.63053,1.05907,1.57080,0.11675,-0.12764,-0.48152,0.03738,,,,,,,,,,,,,,,,,,,,,,,,,,0,0,0,0,0
0.8218,1783965843.6546,1,1,2.0000,-0.0000,1.42244,0.00071,-2.63053,1.05907,1.57080,0.11675,-0.12764,-0.48152,0.03738,,,,,,,,,,,,,,,,,,,,,,,,,,0,0,0,0,0
0.8272,1783965843.6600,1,1,2.0000,-0.0000,1.42244,0.00071,-2.63053,1.05907,1.57080,0.11675,-0.12764,-0.48152,0.03738,,,,,,,,,,,,,,,,,,,,,,,,,,0,0,0,0,0
0.8406,1783965843.6734,1,1,2.0000,-0.0000,1.42244,0.00071,-2.63053,1.05907,1.57080,0.11675,-0.12764,-0.48152,0.03738,,,,,,,,,,,,,,,,,,,,,,,,,,0,0,0,0,0
0.8497,1783965843.6825,1,1,2.0000,-0.0000,1.42244,0.00071,-2.63053,1.05907,1.57080,0.11675,-0.12764,-0.48152,0.03738,,,,,,,,,,,,,,,,,,,,,,,,,,0,0,0,0,0
0.8899,1783965843.7227,1,1,2.0000,-0.0000,1.42244,0.00071,-2.63053,1.05907,1.57080,0.11675,-0.12764,-0.48152,0.03738,,,,,,,,,,,,,,,,,,,,,,,,,,0,0,0,0,0
0.8903,1783965843.7231,1,1,2.0000,-0.0000,1.42244,0.00071,-2.63053,1.05907,1.57080,0.11675,-0.12764,-0.48152,0.03738,,,,,,,,,,,,,,,,,,,,,,,,,,0,0,0,0,0
0.8916,1783965843.7244,1,1,2.0000,-0.0000,1.42244,0.00071,-2.63053,1.05907,1.57080,0.11675,-0.12764,-0.48152,0.03738,,,,,,,,,,,,,,,,,,,,,,,,,,0,0,0,0,0
0.8918,1783965843.7246,1,1,2.0000,-0.0000,1.42244,0.00071,-2.63053,1.05907,1.57080,0.11675,-0.12764,-0.48152,0.03738,,,,,,,,,,,,,,,,,,,,,,,,,,0,0,0,0,0
0.8927,1783965843.7255,1,1,2.0000,-0.0000,1.42244,0.00071,-2.63053,1.05907,1.57080,0.11675,-0.12764,-0.48152,0.03738,,,,,,,,,,,,,,,,,,,,,,,,,,0,0,0,0,0
0.8930,1783965843.7258,1,1,2.0000,-0.0000,1.42244,0.00071,-2.63053,1.05907,1.57080,0.11675,-0.12764,-0.48152,0.03738,,,,,,,,,,,,,,,,,,,,,,,,,,0,0,0,0,0
0.8977,1783965843.7305,1,1,2.0000,-0.0000,1.42244,0.00071,-2.63053,1.05907,1.57080,0.11675,-0.12764,-0.48152,0.03738,,,,,,,,,,,,,,,,,,,,,,,,,,0,0,0,0,0
0.8981,1783965843.7309,1,1,2.0000,-0.0000,1.42244,0.00071,-2.63053,1.05907,1.57080,0.11675,-0.12764,-0.48152,0.03738,,,,,,,,,,,,,,,,,,,,,,,,,,0,0,0,0,0
0.9133,1783965843.7461,1,1,2.0000,-0.0000,1.42244,0.00071,-2.63053,1.05907,1.57080,0.11675,-0.12764,-0.48152,0.03738,,,,,,,,,,,,,,,,,,,,,,,,,,0,0,0,0,0
0.9376,1783965843.7704,1,1,2.0000,-0.0000,1.42244,0.00071,-2.63053,1.05907,1.57080,0.11675,-0.12764,-0.48152,0.03738,,,,,,,,,,,,,,,,,,,,,,,,,,0,0,0,0,0
0.9789,1783965843.8117,1,1,2.0000,-0.0000,1.42244,0.00071,-2.63053,1.05907,1.57080,0.11675,-0.12764,-0.48152,0.03738,,,,,,,,,,,,,,,,,,,,,,,,,,0,0,0,0,0
0.9903,1783965843.8231,1,1,2.0000,-0.0000,1.42244,0.00071,-2.63053,1.05907,1.57080,0.11675,-0.12764,-0.48152,0.03738,,,,,,,,,,,,,,,,,,,,,,,,,,0,0,0,0,0
0.9916,1783965843.8244,1,1,2.0000,-0.0000,1.42244,0.00071,-2.63053,1.05907,1.57080,0.11675,-0.12764,-0.48152,0.03738,,,,,,,,,,,,,,,,,,,,,,,,,,0,0,0,0,0
0.9940,1783965843.8268,1,1,2.0000,-0.0000,1.42244,0.00071,-2.63053,1.05907,1.57080,0.11675,-0.12764,-0.48152,0.03738,,,,,,,,,,,,,,,,,,,,,,,,,,0,0,0,0,0
0.9943,1783965843.8271,1,1,2.0000,-0.0000,1.42244,0.00071,-2.63053,1.05907,1.57080,0.11675,-0.12764,-0.48152,0.03738,,,,,,,,,,,,,,,,,,,,,,,,,,0,0,0,0,0
0.9947,1783965843.8275,1,1,2.0000,-0.0000,1.42244,0.00071,-2.63053,1.05907,1.57080,0.11675,-0.12764,-0.48152,0.03738,,,,,,,,,,,,,,,,,,,,,,,,,,0,0,0,0,0
0.9950,1783965843.8278,1,1,2.0000,-0.0000,1.42244,0.00071,-2.63053,1.05907,1.57080,0.11675,-0.12764,-0.48152,0.03738,,,,,,,,,,,,,,,,,,,,,,,,,,0,0,0,0,0
1.0140,1783965843.8468,1,1,2.0000,-0.0000,1.42244,0.00070,-2.63055,1.05907,1.57080,0.11675,-0.12764,-0.48151,0.03737,,,,,,,,,,,,,,,,,,,,,,,,,,0,0,0,0,0
1.0921,1783965843.9249,1,1,2.0000,-0.0000,1.42244,0.00052,-2.63069,1.05918,1.57080,0.11675,-0.12765,-0.48141,0.03724,,,,,,,,,,,,,,,,,,,,,,,,,,0,0,0,0,0
1.1197,1783965843.9525,1,1,2.0000,-0.0000,1.42244,0.00040,-2.63073,1.05930,1.57080,0.11675,-0.12765,-0.48139,0.03719,,,,,,,,,,,,,,,,,,,,,,,,,,0,0,0,0,0
1.2621,1783965844.0949,1,1,2.0000,-0.0000,1.42244,-0.00047,-2.63071,1.06043,1.57080,0.11675,-0.12763,-0.48156,0.03700,,,,,,,,,,,,,,,,,,,,,,,,,,0,0,0,0,0
1.5060,1783965844.3388,1,1,2.0000,-0.0000,1.42244,-0.00061,-2.63087,1.06064,1.57080,0.11675,-0.12764,-0.48148,0.03691,,,,,,,,,,,,,,,,,,,,,,,,,,0,0,0,0,0
1.5064,1783965844.3392,1,1,2.0000,-0.0000,1.42244,-0.00061,-2.63087,1.06064,1.57080,0.11675,-0.12764,-0.48148,0.03691,,,,,,,,,,,,,,,,,,,,,,,,,,0,0,0,0,0
1.5845,1783965844.4173,1,1,2.0000,-0.0000,1.42244,-0.00112,-2.63102,1.06128,1.57080,0.11675,-0.12764,-0.48146,0.03672,,,,,,,,,,,,,,,,,,,,,,,,,,0,0,0,0,0
1.5932,1783965844.4260,1,1,2.0000,-0.0000,1.42244,-0.00112,-2.63102,1.06128,1.57080,0.11675,-0.12764,-0.48146,0.03672,,,,,,,,,,,,,,,,,,,,,,,,,,0,0,0,0,0
1.5968,1783965844.4296,1,1,2.0000,-0.0000,1.42244,-0.00114,-2.63102,1.06130,1.57080,0.11675,-0.12764,-0.48146,0.03671,,,,,,,,,,,,,,,,,,,,,,,,,,0,0,0,0,0
1.5971,1783965844.4299,1,1,2.0000,-0.0000,1.42244,-0.00114,-2.63102,1.06130,1.57080,0.11675,-0.12764,-0.48146,0.03671,,,,,,,,,,,,,,,,,,,,,,,,,,0,0,0,0,0
1.6027,1783965844.4355,1,1,2.0000,-0.0000,1.42244,-0.00119,-2.63103,1.06138,1.57080,0.11675,-0.12764,-0.48146,0.03670,,,,,,,,,,,,,,,,,,,,,,,,,,0,0,0,0,0
1.6030,1783965844.4358,1,1,2.0000,-0.0000,1.42244,-0.00119,-2.63103,1.06138,1.57080,0.11675,-0.12764,-0.48146,0.03670,,,,,,,,,,,,,,,,,,,,,,,,,,0,0,0,0,0
1.6076,1783965844.4404,1,1,2.0000,-0.0000,1.42244,-0.00123,-2.63104,1.06142,1.57080,0.11675,-0.12764,-0.48147,0.03668,,,,,,,,,,,,,,,,,,,,,,,,,,0,0,0,0,0
1.6117,1783965844.4445,1,1,2.0000,-0.0000,1.42244,-0.00128,-2.63104,1.06148,1.57080,0.11675,-0.12764,-0.48147,0.03667,,,,,,,,,,,,,,,,,,,,,,,,,,0,0,0,0,0
1.6119,1783965844.4447,1,1,2.0000,-0.0000,1.42244,-0.00128,-2.63104,1.06148,1.57080,0.11675,-0.12764,-0.48147,0.03667,,,,,,,,,,,,,,,,,,,,,,,,,,0,0,0,0,0
1.6322,1783965844.4650,1,1,2.0000,-0.0000,1.42244,-0.00136,-2.63105,1.06158,1.57080,0.11675,-0.12764,-0.48148,0.03665,,,,,,,,,,,,,,,,,,,,,,,,,,0,0,0,0,0
1.6378,1783965844.4706,1,1,2.0000,-0.0000,1.42244,-0.00141,-2.63105,1.06164,1.57080,0.11675,-0.12764,-0.48149,0.03664,,,,,,,,,,,,,,,,,,,,,,,,,,0,0,0,0,0
1.6379,1783965844.4707,1,1,2.0000,-0.0000,1.42244,-0.00141,-2.63105,1.06164,1.57080,0.11675,-0.12764,-0.48149,0.03664,,,,,,,,,,,,,,,,,,,,,,,,,,0,0,0,0,0
1.6484,1783965844.4812,1,1,2.0000,-0.0000,1.42244,-0.00147,-2.63104,1.06172,1.57080,0.11675,-0.12763,-0.48150,0.03663,,,,,,,,,,,,,,,,,,,,,,,,,,0,0,0,0,0
1.6488,1783965844.4816,1,1,2.0000,-0.0000,1.42244,-0.00147,-2.63104,1.06172,1.57080,0.11675,-0.12763,-0.48150,0.03663,,,,,,,,,,,,,,,,,,,,,,,,,,0,0,0,0,0
1.6611,1783965844.4939,1,1,2.0000,-0.0000,1.42244,-0.00156,-2.63103,1.06184,1.57080,0.11675,-0.12763,-0.48153,0.03661,,,,,,,,,,,,,,,,,,,,,,,,,,0,0,0,0,0
1.6620,1783965844.4948,1,1,2.0000,-0.0000,1.42244,-0.00159,-2.63102,1.06188,1.57080,0.11675,-0.12763,-0.48154,0.03661,,,,,,,,,,,,,,,,,,,,,,,,,,0,0,0,0,0
1.6625,1783965844.4953,1,1,2.0000,-0.0000,1.42244,-0.00159,-2.63102,1.06188,1.57080,0.11675,-0.12763,-0.48154,0.03661,,,,,,,,,,,,,,,,,,,,,,,,,,0,0,0,0,0
1.6629,1783965844.4957,1,1,2.0000,-0.0000,1.42244,-0.00159,-2.63102,1.06188,1.57080,0.11675,-0.12763,-0.48154,0.03661,,,,,,,,,,,,,,,,,,,,,,,,,,0,0,0,0,0
1.6667,1783965844.4995,1,1,2.0000,-0.0000,1.42244,-0.00161,-2.63101,1.06191,1.57080,0.11675,-0.12763,-0.48155,0.03661,,,,,,,,,,,,,,,,,,,,,,,,,,0,0,0,0,0
1.6671,1783965844.4999,1,1,2.0000,-0.0000,1.42244,-0.00161,-2.63101,1.06191,1.57080,0.11675,-0.12763,-0.48155,0.03661,,,,,,,,,,,,,,,,,,,,,,,,,,0,0,0,0,0
1.6689,1783965844.5017,1,1,2.0000,-0.0000,1.42244,-0.00161,-2.63101,1.06191,1.57080,0.11675,-0.12763,-0.48155,0.03661,,,,,,,,,,,,,,,,,,,,,,,,,,0,0,0,0,0
1.6692,1783965844.5020,1,1,2.0000,-0.0000,1.42244,-0.00161,-2.63101,1.06191,1.57080,0.11675,-0.12763,-0.48155,0.03661,,,,,,,,,,,,,,,,,,,,,,,,,,0,0,0,0,0
1.6709,1783965844.5037,1,1,2.0000,-0.0000,1.42244,-0.00163,-2.63100,1.06193,1.57080,0.11675,-0.12763,-0.48156,0.03661,,,,,,,,,,,,,,,,,,,,,,,,,,0,0,0,0,0
1.6712,1783965844.5040,1,1,2.0000,-0.0000,1.42244,-0.00163,-2.63100,1.06193,1.57080,0.11675,-0.12763,-0.48156,0.03661,,,,,,,,,,,,,,,,,,,,,,,,,,0,0,0,0,0
1.6715,1783965844.5043,1,1,2.0000,-0.0000,1.42244,-0.00163,-2.63100,1.06193,1.57080,0.11675,-0.12763,-0.48156,0.03661,,,,,,,,,,,,,,,,,,,,,,,,,,0,0,0,0,0
1.6724,1783965844.5052,1,1,2.0000,-0.0000,1.42244,-0.00163,-2.63100,1.06193,1.57080,0.11675,-0.12763,-0.48156,0.03661,,,,,,,,,,,,,,,,,,,,,,,,,,0,0,0,0,0
1.6726,1783965844.5054,1,1,2.0000,-0.0000,1.42244,-0.00163,-2.63100,1.06193,1.57080,0.11675,-0.12763,-0.48156,0.03661,,,,,,,,,,,,,,,,,,,,,,,,,,0,0,0,0,0
1.6742,1783965844.5070,1,1,2.0000,-0.0000,1.42243,-0.00165,-2.63099,1.06195,1.57080,0.11675,-0.12762,-0.48157,0.03661,,,,,,,,,,,,,,,,,,,,,,,,,,0,0,0,0,0
1.6977,1783965844.5305,1,1,2.0000,-0.0000,1.42243,-0.00165,-2.63098,1.06195,1.57080,0.11675,-0.12762,-0.48158,0.03661,,,,,,,,,,,,,,,,,,,,,,,,,,0,0,0,0,0
1.7020,1783965844.5348,1,1,2.0000,-0.0000,1.42243,-0.00165,-2.63098,1.06195,1.57080,0.11675,-0.12762,-0.48158,0.03661,,,,,,,,,,,,,,,,,,,,,,,,,,0,0,0,0,0
1.7024,1783965844.5352,1,1,2.0000,-0.0000,1.42243,-0.00165,-2.63098,1.06195,1.57080,0.11675,-0.12762,-0.48158,0.03661,,,,,,,,,,,,,,,,,,,,,,,,,,0,0,0,0,0
1.7026,1783965844.5354,1,1,2.0000,-0.0000,1.42243,-0.00165,-2.63098,1.06195,1.57080,0.11675,-0.12762,-0.48158,0.03661,,,,,,,,,,,,,,,,,,,,,,,,,,0,0,0,0,0
1.7028,1783965844.5356,1,1,2.0000,-0.0000,1.42243,-0.00165,-2.63098,1.06195,1.57080,0.11675,-0.12762,-0.48158,0.03661,,,,,,,,,,,,,,,,,,,,,,,,,,0,0,0,0,0
1.7082,1783965844.5410,1,1,2.0000,-0.0000,1.42243,-0.00165,-2.63098,1.06195,1.57080,0.11675,-0.12762,-0.48158,0.03661,,,,,,,,,,,,,,,,,,,,,,,,,,0,0,0,0,0
1.7086,1783965844.5414,1,1,2.0000,-0.0000,1.42243,-0.00165,-2.63098,1.06195,1.57080,0.11675,-0.12762,-0.48158,0.03661,,,,,,,,,,,,,,,,,,,,,,,,,,0,0,0,0,0
1.7100,1783965844.5428,1,1,2.0000,-0.0000,1.42243,-0.00165,-2.63098,1.06195,1.57080,0.11675,-0.12762,-0.48158,0.03661,,,,,,,,,,,,,,,,,,,,,,,,,,0,0,0,0,0
1.7103,1783965844.5431,1,1,2.0000,-0.0000,1.42243,-0.00165,-2.63098,1.06195,1.57080,0.11675,-0.12762,-0.48158,0.03661,,,,,,,,,,,,,,,,,,,,,,,,,,0,0,0,0,0
1.7112,1783965844.5440,1,1,2.0000,-0.0000,1.42243,-0.00165,-2.63098,1.06195,1.57080,0.11675,-0.12762,-0.48158,0.03661,,,,,,,,,,,,,,,,,,,,,,,,,,0,0,0,0,0
1.7115,1783965844.5443,1,1,2.0000,-0.0000,1.42243,-0.00165,-2.63098,1.06195,1.57080,0.11675,-0.12762,-0.48158,0.03661,,,,,,,,,,,,,,,,,,,,,,,,,,0,0,0,0,0
1.7130,1783965844.5458,1,1,2.0000,-0.0000,1.42243,-0.00165,-2.63098,1.06195,1.57080,0.11675,-0.12762,-0.48158,0.03661,,,,,,,,,,,,,,,,,,,,,,,,,,0,0,0,0,0
1.7134,1783965844.5462,1,1,2.0000,-0.0000,1.42243,-0.00165,-2.63098,1.06195,1.57080,0.11675,-0.12762,-0.48158,0.03661,,,,,,,,,,,,,,,,,,,,,,,,,,0,0,0,0,0
1.7138,1783965844.5466,1,1,2.0000,-0.0000,1.42243,-0.00165,-2.63098,1.06195,1.57080,0.11675,-0.12762,-0.48158,0.03661,,,,,,,,,,,,,,,,,,,,,,,,,,0,0,0,0,0
1.7242,1783965844.5570,1,1,2.0000,-0.0000,1.42243,-0.00165,-2.63098,1.06195,1.57080,0.11675,-0.12762,-0.48158,0.03661,,,,,,,,,,,,,,,,,,,,,,,,,,0,0,0,0,0
1.7320,1783965844.5648,1,1,2.0000,-0.0000,1.42243,-0.00165,-2.63098,1.06195,1.57080,0.11675,-0.12762,-0.48158,0.03661,,,,,,,,,,,,,,,,,,,,,,,,,,0,0,0,0,0
1.7324,1783965844.5652,1,1,2.0000,-0.0000,1.42243,-0.00165,-2.63098,1.06195,1.57080,0.11675,-0.12762,-0.48158,0.03661,,,,,,,,,,,,,,,,,,,,,,,,,,0,0,0,0,0
1.7328,1783965844.5656,1,1,2.0000,-0.0000,1.42243,-0.00165,-2.63098,1.06195,1.57080,0.11675,-0.12762,-0.48158,0.03661,,,,,,,,,,,,,,,,,,,,,,,,,,0,0,0,0,0
1.7334,1783965844.5662,1,1,2.0000,-0.0000,1.42243,-0.00165,-2.63098,1.06195,1.57080,0.11675,-0.12762,-0.48158,0.03661,,,,,,,,,,,,,,,,,,,,,,,,,,0,0,0,0,0
1.7340,1783965844.5668,1,1,2.0000,-0.0000,1.42243,-0.00165,-2.63098,1.06195,1.57080,0.11675,-0.12762,-0.48158,0.03661,,,,,,,,,,,,,,,,,,,,,,,,,,0,0,0,0,0
1.7466,1783965844.5794,1,1,2.0000,-0.0000,1.42243,-0.00165,-2.63098,1.06195,1.57080,0.11675,-0.12762,-0.48158,0.03661,,,,,,,,,,,,,,,,,,,,,,,,,,0,0,0,0,0
1.7499,1783965844.5827,1,1,2.0000,-0.0000,1.42243,-0.00165,-2.63098,1.06195,1.57080,0.11675,-0.12762,-0.48158,0.03661,,,,,,,,,,,,,,,,,,,,,,,,,,0,0,0,0,0
1.7578,1783965844.5906,1,1,2.0000,-0.0000,1.42243,-0.00165,-2.63098,1.06195,1.57080,0.11675,-0.12762,-0.48158,0.03661,,,,,,,,,,,,,,,,,,,,,,,,,,0,0,0,0,0
1.7583,1783965844.5911,1,1,2.0000,-0.0000,1.42243,-0.00165,-2.63098,1.06195,1.57080,0.11675,-0.12762,-0.48158,0.03661,,,,,,,,,,,,,,,,,,,,,,,,,,0,0,0,0,0
1.7629,1783965844.5957,1,1,2.0000,-0.0000,1.42243,-0.00165,-2.63098,1.06195,1.57080,0.11675,-0.12762,-0.48158,0.03661,,,,,,,,,,,,,,,,,,,,,,,,,,0,0,0,0,0
1.7644,1783965844.5972,1,1,2.0000,-0.0000,1.42243,-0.00165,-2.63098,1.06195,1.57080,0.11675,-0.12762,-0.48158,0.03661,,,,,,,,,,,,,,,,,,,,,,,,,,0,0,0,0,0
1.7647,1783965844.5975,1,1,2.0000,-0.0000,1.42243,-0.00165,-2.63098,1.06195,1.57080,0.11675,-0.12762,-0.48158,0.03661,,,,,,,,,,,,,,,,,,,,,,,,,,0,0,0,0,0
1.7650,1783965844.5978,1,1,2.0000,-0.0000,1.42243,-0.00165,-2.63098,1.06195,1.57080,0.11675,-0.12762,-0.48158,0.03661,,,,,,,,,,,,,,,,,,,,,,,,,,0,0,0,0,0
1.7654,1783965844.5982,1,1,2.0000,-0.0000,1.42243,-0.00165,-2.63098,1.06195,1.57080,0.11675,-0.12762,-0.48158,0.03661,,,,,,,,,,,,,,,,,,,,,,,,,,0,0,0,0,0
1.7674,1783965844.6002,1,1,2.0000,-0.0000,1.42243,-0.00165,-2.63098,1.06195,1.57080,0.11675,-0.12762,-0.48158,0.03661,,,,,,,,,,,,,,,,,,,,,,,,,,0,0,0,0,0
1.7676,1783965844.6004,1,1,2.0000,-0.0000,1.42243,-0.00165,-2.63098,1.06195,1.57080,0.11675,-0.12762,-0.48158,0.03661,,,,,,,,,,,,,,,,,,,,,,,,,,0,0,0,0,0
1.7690,1783965844.6018,1,1,2.0000,-0.0000,1.42243,-0.00165,-2.63098,1.06195,1.57080,0.11675,-0.12762,-0.48158,0.03661,,,,,,,,,,,,,,,,,,,,,,,,,,0,0,0,0,0
1.7693,1783965844.6021,1,1,2.0000,-0.0000,1.42243,-0.00165,-2.63098,1.06195,1.57080,0.11675,-0.12762,-0.48158,0.03661,,,,,,,,,,,,,,,,,,,,,,,,,,0,0,0,0,0
1.7907,1783965844.6235,1,1,2.0000,-0.0000,1.42243,-0.00165,-2.63098,1.06195,1.57080,0.11675,-0.12762,-0.48158,0.03661,,,,,,,,,,,,,,,,,,,,,,,,,,0,0,0,0,0
1.7946,1783965844.6274,1,1,2.0000,-0.0000,1.42243,-0.00165,-2.63098,1.06195,1.57080,0.11675,-0.12762,-0.48158,0.03661,,,,,,,,,,,,,,,,,,,,,,,,,,0,0,0,0,0
1.7949,1783965844.6277,1,1,2.0000,-0.0000,1.42243,-0.00165,-2.63098,1.06195,1.57080,0.11675,-0.12762,-0.48158,0.03661,,,,,,,,,,,,,,,,,,,,,,,,,,0,0,0,0,0
1.8040,1783965844.6368,1,1,2.0000,-0.0000,1.42243,-0.00165,-2.63098,1.06195,1.57080,0.11675,-0.12762,-0.48158,0.03661,,,,,,,,,,,,,,,,,,,,,,,,,,0,0,0,0,0
1.8044,1783965844.6372,1,1,2.0000,-0.0000,1.42243,-0.00165,-2.63098,1.06195,1.57080,0.11675,-0.12762,-0.48158,0.03661,,,,,,,,,,,,,,,,,,,,,,,,,,0,0,0,0,0
1.8115,1783965844.6443,1,1,2.0000,-0.0000,1.42243,-0.00165,-2.63098,1.06195,1.57080,0.11675,-0.12762,-0.48158,0.03661,,,,,,,,,,,,,,,,,,,,,,,,,,0,0,0,0,0
1.8129,1783965844.6457,1,1,2.0000,-0.0000,1.42243,-0.00165,-2.63098,1.06195,1.57080,0.11675,-0.12762,-0.48158,0.03661,,,,,,,,,,,,,,,,,,,,,,,,,,0,0,0,0,0
1.8132,1783965844.6460,1,1,2.0000,-0.0000,1.42243,-0.00165,-2.63098,1.06195,1.57080,0.11675,-0.12762,-0.48158,0.03661,,,,,,,,,,,,,,,,,,,,,,,,,,0,0,0,0,0
1.8138,1783965844.6466,1,1,2.0000,-0.0000,1.42243,-0.00165,-2.63098,1.06195,1.57080,0.11675,-0.12762,-0.48158,0.03661,,,,,,,,,,,,,,,,,,,,,,,,,,0,0,0,0,0
1.8144,1783965844.6472,1,1,2.0000,-0.0000,1.42243,-0.00165,-2.63098,1.06195,1.57080,0.11675,-0.12762,-0.48158,0.03661,,,,,,,,,,,,,,,,,,,,,,,,,,0,0,0,0,0
1.8193,1783965844.6521,1,1,2.0000,-0.0000,1.42243,-0.00165,-2.63098,1.06195,1.57080,0.11675,-0.12762,-0.48158,0.03661,,,,,,,,,,,,,,,,,,,,,,,,,,0,0,0,0,0
1.8197,1783965844.6525,1,1,2.0000,-0.0000,1.42243,-0.00165,-2.63098,1.06195,1.57080,0.11675,-0.12762,-0.48158,0.03661,,,,,,,,,,,,,,,,,,,,,,,,,,0,0,0,0,0
1.8337,1783965844.6665,1,1,2.0000,-0.0000,1.42243,-0.00165,-2.63098,1.06195,1.57080,0.11675,-0.12762,-0.48158,0.03661,,,,,,,,,,,,,,,,,,,,,,,,,,0,0,0,0,0
1.8340,1783965844.6668,1,1,2.0000,-0.0000,1.42243,-0.00165,-2.63098,1.06195,1.57080,0.11675,-0.12762,-0.48158,0.03661,,,,,,,,,,,,,,,,,,,,,,,,,,0,0,0,0,0
1.8410,1783965844.6738,1,1,2.0000,-0.0000,1.42243,-0.00165,-2.63098,1.06195,1.57080,0.11675,-0.12762,-0.48158,0.03661,,,,,,,,,,,,,,,,,,,,,,,,,,0,0,0,0,0
1.8414,1783965844.6742,1,1,2.0000,-0.0000,1.42243,-0.00165,-2.63098,1.06195,1.57080,0.11675,-0.12762,-0.48158,0.03661,,,,,,,,,,,,,,,,,,,,,,,,,,0,0,0,0,0
1.8500,1783965844.6828,1,1,2.0000,-0.0000,1.42243,-0.00165,-2.63098,1.06195,1.57080,0.11675,-0.12762,-0.48158,0.03661,,,,,,,,,,,,,,,,,,,,,,,,,,0,0,0,0,0
1.8502,1783965844.6830,1,1,2.0000,-0.0000,1.42243,-0.00165,-2.63098,1.06195,1.57080,0.11675,-0.12762,-0.48158,0.03661,,,,,,,,,,,,,,,,,,,,,,,,,,0,0,0,0,0
1.8598,1783965844.6926,1,1,2.0000,-0.0000,1.42243,-0.00165,-2.63098,1.06196,1.57080,0.11675,-0.12762,-0.48158,0.03661,,,,,,,,,,,,,,,,,,,,,,,,,,0,0,0,0,0
1.8601,1783965844.6929,1,1,2.0000,-0.0000,1.42243,-0.00165,-2.63098,1.06196,1.57080,0.11675,-0.12762,-0.48158,0.03661,,,,,,,,,,,,,,,,,,,,,,,,,,0,0,0,0,0
1.8700,1783965844.7028,1,1,2.0000,-0.0000,1.42243,-0.00167,-2.63101,1.06197,1.57080,0.11675,-0.12762,-0.48157,0.03660,,,,,,,,,,,,,,,,,,,,,,,,,,0,0,0,0,0
1.8917,1783965844.7245,1,1,2.0000,-0.0000,1.42243,-0.00169,-2.63106,1.06201,1.57080,0.11675,-0.12763,-0.48153,0.03657,,,,,,,,,,,,,,,,,,,,,,,,,,0,0,0,0,0
1.8946,1783965844.7274,1,1,2.0000,-0.0000,1.42243,-0.00170,-2.63107,1.06202,1.57080,0.11675,-0.12763,-0.48153,0.03656,,,,,,,,,,,,,,,,,,,,,,,,,,0,0,0,0,0
1.9099,1783965844.7427,1,1,2.0000,-0.0000,1.42243,-0.00177,-2.63113,1.06209,1.57080,0.11675,-0.12764,-0.48149,0.03652,,,,,,,,,,,,,,,,,,,,,,,,,,0,0,0,0,0
1.9119,1783965844.7447,1,1,2.0000,-0.0000,1.42243,-0.00177,-2.63113,1.06209,1.57080,0.11675,-0.12764,-0.48149,0.03652,,,,,,,,,,,,,,,,,,,,,,,,,,0,0,0,0,0
1.9122,1783965844.7450,1,1,2.0000,-0.0000,1.42243,-0.00177,-2.63113,1.06209,1.57080,0.11675,-0.12764,-0.48149,0.03652,,,,,,,,,,,,,,,,,,,,,,,,,,0,0,0,0,0
1.9189,1783965844.7517,1,1,2.0000,-0.0000,1.42243,-0.00181,-2.63117,1.06215,1.57080,0.11675,-0.12764,-0.48147,0.03649,,,,,,,,,,,,,,,,,,,,,,,,,,0,0,0,0,0
1.9300,1783965844.7628,1,1,2.0000,-0.0000,1.42243,-0.00183,-2.63118,1.06216,1.57080,0.11675,-0.12764,-0.48147,0.03648,,,,,,,,,,,,,,,,,,,,,,,,,,0,0,0,0,0
1.9542,1783965844.7870,1,1,2.0000,-0.0000,1.42243,-0.00191,-2.63120,1.06227,1.57080,0.11675,-0.12764,-0.48146,0.03645,,,,,,,,,,,,,,,,,,,,,,,,,,0,0,0,0,0
1.9639,1783965844.7967,1,1,2.0000,-0.0000,1.42243,-0.00197,-2.63122,1.06234,1.57080,0.11675,-0.12764,-0.48146,0.03643,,,,,,,,,,,,,,,,,,,,,,,,,,0,0,0,0,0
1.9664,1783965844.7992,1,1,2.0000,-0.0000,1.42243,-0.00201,-2.63123,1.06239,1.57080,0.11675,-0.12764,-0.48146,0.03641,,,,,,,,,,,,,,,,,,,,,,,,,,0,0,0,0,0
1.9667,1783965844.7995,1,1,2.0000,-0.0000,1.42243,-0.00201,-2.63123,1.06239,1.57080,0.11675,-0.12764,-0.48146,0.03641,,,,,,,,,,,,,,,,,,,,,,,,,,0,0,0,0,0
1.9700,1783965844.8028,1,1,2.0000,-0.0000,1.42243,-0.00206,-2.63124,1.06245,1.57080,0.11675,-0.12764,-0.48146,0.03640,,,,,,,,,,,,,,,,,,,,,,,,,,0,0,0,0,0
1.9799,1783965844.8127,1,1,2.0000,-0.0000,1.42243,-0.00211,-2.63125,1.06252,1.57080,0.11675,-0.12764,-0.48146,0.03638,,,,,,,,,,,,,,,,,,,,,,,,,,0,0,0,0,0
2.0017,1783965844.8345,1,1,2.0000,-0.0000,1.42243,-0.00228,-2.63128,1.06272,1.57080,0.11675,-0.12764,-0.48146,0.03632,,,,,,,,,,,,,,,,,,,,,,,,,,0,0,0,0,0
2.0040,1783965844.8368,1,1,2.0000,-0.0000,1.42243,-0.00228,-2.63128,1.06272,1.57080,0.11675,-0.12764,-0.48146,0.03632,,,,,,,,,,,,,,,,,,,,,,,,,,0,0,0,0,0
2.0086,1783965844.8414,1,1,2.0000,-0.0000,1.42243,-0.00233,-2.63129,1.06278,1.57080,0.11675,-0.12764,-0.48146,0.03631,,,,,,,,,,,,,,,,,,,,,,,,,,0,0,0,0,0
2.0204,1783965844.8532,1,1,2.0000,-0.0000,1.42243,-0.00235,-2.63130,1.06280,1.57080,0.11675,-0.12764,-0.48146,0.03630,,,,,,,,,,,,,,,,,,,,,,,,,,0,0,0,0,0
2.0315,1783965844.8643,1,1,2.0000,-0.0000,1.42243,-0.00244,-2.63131,1.06291,1.57080,0.11675,-0.12764,-0.48147,0.03628,,,,,,,,,,,,,,,,,,,,,,,,,,0,0,0,0,0
2.0404,1783965844.8732,1,1,2.0000,-0.0000,1.42243,-0.00252,-2.63131,1.06301,1.57080,0.11675,-0.12764,-0.48148,0.03625,,,,,,,,,,,,,,,,,,,,,,,,,,0,0,0,0,0
2.0517,1783965844.8845,1,1,2.0000,-0.0000,1.42243,-0.00265,-2.63132,1.06317,1.57080,0.11675,-0.12763,-0.48149,0.03622,,,,,,,,,,,,,,,,,,,,,,,,,,0,0,0,0,0
2.1069,1783965844.9397,1,1,2.0000,-0.0000,1.42243,-0.00282,-2.63132,1.06339,1.57080,0.11675,-0.12763,-0.48152,0.03618,,,,,,,,,,,,,,,,,,,,,,,,,,0,0,0,0,0
2.1115,1783965844.9443,1,1,2.0000,-0.0000,1.42243,-0.00282,-2.63132,1.06339,1.57080,0.11675,-0.12763,-0.48152,0.03618,,,,,,,,,,,,,,,,,,,,,,,,,,0,0,0,0,0
2.1208,1783965844.9536,1,1,2.0000,-0.0000,1.42243,-0.00282,-2.63132,1.06339,1.57080,0.11675,-0.12763,-0.48152,0.03618,,,,,,,,,,,,,,,,,,,,,,,,,,0,0,0,0,0
2.1302,1783965844.9630,1,1,2.0000,-0.0000,1.42243,-0.00282,-2.63132,1.06339,1.57080,0.11675,-0.12763,-0.48152,0.03618,,,,,,,,,,,,,,,,,,,,,,,,,,0,0,0,0,0
2.1305,1783965844.9633,1,1,2.0000,-0.0000,1.42243,-0.00282,-2.63132,1.06339,1.57080,0.11675,-0.12763,-0.48152,0.03618,,,,,,,,,,,,,,,,,,,,,,,,,,0,0,0,0,0
2.1311,1783965844.9639,1,1,2.0000,-0.0000,1.42243,-0.00282,-2.63132,1.06339,1.57080,0.11675,-0.12763,-0.48152,0.03618,,,,,,,,,,,,,,,,,,,,,,,,,,0,0,0,0,0
2.1314,1783965844.9642,1,1,2.0000,-0.0000,1.42243,-0.00282,-2.63132,1.06339,1.57080,0.11675,-0.12763,-0.48152,0.03618,,,,,,,,,,,,,,,,,,,,,,,,,,0,0,0,0,0
2.1338,1783965844.9666,1,1,2.0000,-0.0000,1.42243,-0.00282,-2.63132,1.06339,1.57080,0.11675,-0.12763,-0.48152,0.03618,,,,,,,,,,,,,,,,,,,,,,,,,,0,0,0,0,0
2.1339,1783965844.9667,1,1,2.0000,-0.0000,1.42243,-0.00282,-2.63132,1.06339,1.57080,0.11675,-0.12763,-0.48152,0.03618,,,,,,,,,,,,,,,,,,,,,,,,,,0,0,0,0,0
2.1382,1783965844.9710,1,1,2.0000,-0.0000,1.42243,-0.00282,-2.63132,1.06339,1.57080,0.11675,-0.12763,-0.48152,0.03618,,,,,,,,,,,,,,,,,,,,,,,,,,0,0,0,0,0
2.1386,1783965844.9714,1,1,2.0000,-0.0000,1.42243,-0.00282,-2.63132,1.06339,1.57080,0.11675,-0.12763,-0.48152,0.03618,,,,,,,,,,,,,,,,,,,,,,,,,,0,0,0,0,0
2.1410,1783965844.9738,1,1,2.0000,-0.0000,1.42243,-0.00282,-2.63132,1.06339,1.57080,0.11675,-0.12763,-0.48152,0.03618,,,,,,,,,,,,,,,,,,,,,,,,,,0,0,0,0,0
2.1417,1783965844.9745,1,1,2.0000,-0.0000,1.42243,-0.00282,-2.63132,1.06339,1.57080,0.11675,-0.12763,-0.48152,0.03618,,,,,,,,,,,,,,,,,,,,,,,,,,0,0,0,0,0
2.1540,1783965844.9868,1,1,2.0000,-0.0000,1.42243,-0.00282,-2.63132,1.06339,1.57080,0.11675,-0.12763,-0.48152,0.03618,,,,,,,,,,,,,,,,,,,,,,,,,,0,0,0,0,0
2.1545,1783965844.9873,1,1,2.0000,-0.0000,1.42243,-0.00282,-2.63132,1.06339,1.57080,0.11675,-0.12763,-0.48152,0.03618,,,,,,,,,,,,,,,,,,,,,,,,,,0,0,0,0,0
2.1579,1783965844.9907,1,1,2.0000,-0.0000,1.42243,-0.00282,-2.63132,1.06339,1.57080,0.11675,-0.12763,-0.48152,0.03618,,,,,,,,,,,,,,,,,,,,,,,,,,0,0,0,0,0
2.1683,1783965845.0011,1,1,2.0000,-0.0000,1.42243,-0.00282,-2.63132,1.06339,1.57080,0.11675,-0.12763,-0.48152,0.03618,,,,,,,,,,,,,,,,,,,,,,,,,,0,0,0,0,0
2.1770,1783965845.0098,1,1,2.0000,-0.0000,1.42243,-0.00282,-2.63132,1.06339,1.57080,0.11675,-0.12763,-0.48152,0.03618,,,,,,,,,,,,,,,,,,,,,,,,,,0,0,0,0,0
2.1933,1783965845.0261,1,1,2.0000,-0.0000,1.42243,-0.00282,-2.63132,1.06339,1.57080,0.11675,-0.12763,-0.48152,0.03618,,,,,,,,,,,,,,,,,,,,,,,,,,0,0,0,0,0
2.2098,1783965845.0426,1,1,2.0000,-0.0000,1.42243,-0.00282,-2.63132,1.06339,1.57080,0.11675,-0.12763,-0.48152,0.03618,,,,,,,,,,,,,,,,,,,,,,,,,,0,0,0,0,0
2.2101,1783965845.0429,1,1,2.0000,-0.0000,1.42243,-0.00282,-2.63132,1.06339,1.57080,0.11675,-0.12763,-0.48152,0.03618,,,,,,,,,,,,,,,,,,,,,,,,,,0,0,0,0,0
2.2186,1783965845.0514,1,1,2.0000,-0.0000,1.42243,-0.00282,-2.63132,1.06339,1.57080,0.11675,-0.12763,-0.48152,0.03618,,,,,,,,,,,,,,,,,,,,,,,,,,0,0,0,0,0
2.2197,1783965845.0525,1,1,2.0000,-0.0000,1.42243,-0.00282,-2.63132,1.06339,1.57080,0.11675,-0.12763,-0.48152,0.03618,,,,,,,,,,,,,,,,,,,,,,,,,,0,0,0,0,0
2.2201,1783965845.0529,1,1,2.0000,-0.0000,1.42243,-0.00282,-2.63132,1.06339,1.57080,0.11675,-0.12763,-0.48152,0.03618,,,,,,,,,,,,,,,,,,,,,,,,,,0,0,0,0,0
2.2438,1783965845.0766,1,1,2.0000,-0.0000,1.42243,-0.00282,-2.63132,1.06339,1.57080,0.11675,-0.12763,-0.48152,0.03618,,,,,,,,,,,,,,,,,,,,,,,,,,0,0,0,0,0
2.2442,1783965845.0770,1,1,2.0000,-0.0000,1.42243,-0.00282,-2.63132,1.06339,1.57080,0.11675,-0.12763,-0.48152,0.03618,,,,,,,,,,,,,,,,,,,,,,,,,,0,0,0,0,0
2.2445,1783965845.0773,1,1,2.0000,-0.0000,1.42243,-0.00282,-2.63132,1.06339,1.57080,0.11675,-0.12763,-0.48152,0.03618,,,,,,,,,,,,,,,,,,,,,,,,,,0,0,0,0,0
2.2586,1783965845.0914,1,1,2.0000,-0.0000,1.42243,-0.00282,-2.63132,1.06339,1.57080,0.11675,-0.12763,-0.48152,0.03618,,,,,,,,,,,,,,,,,,,,,,,,,,0,0,0,0,0
2.2590,1783965845.0918,1,1,2.0000,-0.0000,1.42243,-0.00282,-2.63132,1.06339,1.57080,0.11675,-0.12763,-0.48152,0.03618,,,,,,,,,,,,,,,,,,,,,,,,,,0,0,0,0,0
2.2595,1783965845.0923,1,1,2.0000,-0.0000,1.42243,-0.00282,-2.63132,1.06339,1.57080,0.11675,-0.12763,-0.48152,0.03618,,,,,,,,,,,,,,,,,,,,,,,,,,0,0,0,0,0
2.2724,1783965845.1052,1,1,2.0000,-0.0000,1.42243,-0.00282,-2.63132,1.06339,1.57080,0.11675,-0.12763,-0.48152,0.03618,,,,,,,,,,,,,,,,,,,,,,,,,,0,0,0,0,0
2.2778,1783965845.1106,1,1,2.0000,-0.0000,1.42243,-0.00282,-2.63132,1.06339,1.57080,0.11675,-0.12763,-0.48152,0.03618,,,,,,,,,,,,,,,,,,,,,,,,,,0,0,0,0,0
2.2899,1783965845.1227,1,1,2.0000,-0.0000,1.42243,-0.00282,-2.63133,1.06340,1.57080,0.11675,-0.12763,-0.48152,0.03618,,,,,,,,,,,,,,,,,,,,,,,,,,0,0,0,0,0
2.3085,1783965845.1413,1,1,2.0000,-0.0000,1.42243,-0.00284,-2.63134,1.06342,1.57080,0.11675,-0.12763,-0.48152,0.03617,,,,,,,,,,,,,,,,,,,,,,,,,,0,0,0,0,0
2.3114,1783965845.1442,1,1,2.0000,-0.0000,1.42243,-0.00284,-2.63134,1.06343,1.57080,0.11675,-0.12763,-0.48151,0.03617,,,,,,,,,,,,,,,,,,,,,,,,,,0,0,0,0,0
2.3206,1783965845.1534,1,1,2.0000,-0.0000,1.42243,-0.00286,-2.63136,1.06345,1.57080,0.11675,-0.12763,-0.48150,0.03615,,,,,,,,,,,,,,,,,,,,,,,,,,0,0,0,0,0
2.3212,1783965845.1540,1,1,2.0000,-0.0000,1.42243,-0.00286,-2.63136,1.06345,1.57080,0.11675,-0.12763,-0.48150,0.03615,,,,,,,,,,,,,,,,,,,,,,,,,,0,0,0,0,0
2.3269,1783965845.1597,1,1,2.0000,-0.0000,1.42243,-0.00290,-2.63139,1.06349,1.57080,0.11675,-0.12763,-0.48149,0.03613,,,,,,,,,,,,,,,,,,,,,,,,,,0,0,0,0,0
2.3408,1783965845.1737,1,1,2.0000,-0.0000,1.42243,-0.00295,-2.63143,1.06354,1.57080,0.11675,-0.12764,-0.48147,0.03610,,,,,,,,,,,,,,,,,,,,,,,,,,0,0,0,0,0
2.3489,1783965845.1817,1,1,2.0000,-0.0000,1.42243,-0.00296,-2.63143,1.06356,1.57080,0.11675,-0.12764,-0.48146,0.03610,,,,,,,,,,,,,,,,,,,,,,,,,,0,0,0,0,0
2.3498,1783965845.1826,1,1,2.0000,-0.0000,1.42243,-0.00297,-2.63144,1.06358,1.57080,0.11675,-0.12764,-0.48146,0.03609,,,,,,,,,,,,,,,,,,,,,,,,,,0,0,0,0,0
2.3564,1783965845.1892,1,1,2.0000,-0.0000,1.42243,-0.00300,-2.63145,1.06360,1.57080,0.11675,-0.12764,-0.48146,0.03608,,,,,,,,,,,,,,,,,,,,,,,,,,0,0,0,0,0
2.3567,1783965845.1895,1,1,2.0000,-0.0000,1.42243,-0.00300,-2.63145,1.06360,1.57080,0.11675,-0.12764,-0.48146,0.03608,,,,,,,,,,,,,,,,,,,,,,,,,,0,0,0,0,0
2.3699,1783965845.2027,1,1,2.0000,-0.0000,1.42243,-0.00304,-2.63146,1.06366,1.57080,0.11675,-0.12764,-0.48146,0.03606,,,,,,,,,,,,,,,,,,,,,,,,,,0,0,0,0,0
2.3791,1783965845.2119,1,1,2.0000,-0.0000,1.42243,-0.00310,-2.63148,1.06372,1.57080,0.11675,-0.12764,-0.48146,0.03604,,,,,,,,,,,,,,,,,,,,,,,,,,0,0,0,0,0
2.3908,1783965845.2236,1,1,2.0000,-0.0000,1.42243,-0.00323,-2.63151,1.06388,1.57080,0.11675,-0.12764,-0.48145,0.03600,,,,,,,,,,,,,,,,,,,,,,,,,,0,0,0,0,0
2.4037,1783965845.2365,1,1,2.0000,-0.0000,1.42243,-0.00325,-2.63151,1.06391,1.57080,0.11675,-0.12764,-0.48145,0.03599,,,,,,,,,,,,,,,,,,,,,,,,,,0,0,0,0,0
2.4097,1783965845.2425,1,1,2.0000,-0.0000,1.42243,-0.00331,-2.63152,1.06398,1.57080,0.11675,-0.12764,-0.48146,0.03597,,,,,,,,,,,,,,,,,,,,,,,,,,0,0,0,0,0
2.4232,1783965845.2560,1,1,2.0000,-0.0000,1.42243,-0.00345,-2.63155,1.06415,1.57080,0.11675,-0.12764,-0.48146,0.03593,,,,,,,,,,,,,,,,,,,,,,,,,,0,0,0,0,0
2.4290,1783965845.2618,1,1,2.0000,-0.0000,1.42243,-0.00350,-2.63156,1.06421,1.57080,0.11675,-0.12764,-0.48146,0.03591,,,,,,,,,,,,,,,,,,,,,,,,,,0,0,0,0,0
2.4293,1783965845.2621,1,1,2.0000,-0.0000,1.42243,-0.00350,-2.63156,1.06421,1.57080,0.11675,-0.12764,-0.48146,0.03591,,,,,,,,,,,,,,,,,,,,,,,,,,0,0,0,0,0
2.4510,1783965845.2838,1,1,2.0000,-0.0000,1.42243,-0.00360,-2.63157,1.06433,1.57080,0.11675,-0.12764,-0.48147,0.03588,,,,,,,,,,,,,,,,,,,,,,,,,,0,0,0,0,0
2.4814,1783965845.3142,1,1,2.0000,-0.0000,1.42243,-0.00374,-2.63158,1.06449,1.57080,0.11675,-0.12763,-0.48148,0.03584,,,,,,,,,,,,,,,,,,,,,,,,,,0,0,0,0,0
2.4840,1783965845.3168,1,1,2.0000,-0.0000,1.42243,-0.00376,-2.63158,1.06453,1.57080,0.11675,-0.12763,-0.48149,0.03584,,,,,,,,,,,,,,,,,,,,,,,,,,0,0,0,0,0
2.4844,1783965845.3172,1,1,2.0000,-0.0000,1.42243,-0.00376,-2.63158,1.06453,1.57080,0.11675,-0.12763,-0.48149,0.03584,,,,,,,,,,,,,,,,,,,,,,,,,,0,0,0,0,0
2.5119,1783965845.3447,1,1,2.0000,-0.0000,1.42243,-0.00397,-2.63154,1.06478,1.57080,0.11675,-0.12762,-0.48155,0.03581,,,,,,,,,,,,,,,,,,,,,,,,,,0,0,0,0,0
2.5131,1783965845.3459,1,1,2.0000,-0.0000,1.42243,-0.00397,-2.63154,1.06478,1.57080,0.11675,-0.12762,-0.48155,0.03581,,,,,,,,,,,,,,,,,,,,,,,,,,0,0,0,0,0
2.5143,1783965845.3471,1,1,2.0000,-0.0000,1.42243,-0.00399,-2.63153,1.06481,1.57080,0.11675,-0.12762,-0.48156,0.03581,,,,,,,,,,,,,,,,,,,,,,,,,,0,0,0,0,0
2.5191,1783965845.3519,1,1,2.0000,-0.0000,1.42243,-0.00400,-2.63152,1.06482,1.57080,0.11675,-0.12762,-0.48157,0.03581,,,,,,,,,,,,,,,,,,,,,,,,,,0,0,0,0,0
2.5194,1783965845.3522,1,1,2.0000,-0.0000,1.42243,-0.00400,-2.63152,1.06482,1.57080,0.11675,-0.12762,-0.48157,0.03581,,,,,,,,,,,,,,,,,,,,,,,,,,0,0,0,0,0
2.5219,1783965845.3547,1,1,2.0000,-0.0000,1.42243,-0.00401,-2.63151,1.06483,1.57080,0.11675,-0.12762,-0.48158,0.03581,,,,,,,,,,,,,,,,,,,,,,,,,,0,0,0,0,0
2.5222,1783965845.3550,1,1,2.0000,-0.0000,1.42243,-0.00401,-2.63151,1.06483,1.57080,0.11675,-0.12762,-0.48158,0.03581,,,,,,,,,,,,,,,,,,,,,,,,,,0,0,0,0,0
2.5244,1783965845.3572,1,1,2.0000,-0.0000,1.42243,-0.00401,-2.63151,1.06483,1.57080,0.11675,-0.12762,-0.48158,0.03581,,,,,,,,,,,,,,,,,,,,,,,,,,0,0,0,0,0
2.5408,1783965845.3736,1,1,2.0000,-0.0000,1.42243,-0.00401,-2.63151,1.06483,1.57080,0.11675,-0.12762,-0.48158,0.03581,,,,,,,,,,,,,,,,,,,,,,,,,,0,0,0,0,0
2.5479,1783965845.3807,1,1,2.0000,-0.0000,1.42243,-0.00401,-2.63151,1.06483,1.57080,0.11675,-0.12762,-0.48158,0.03581,,,,,,,,,,,,,,,,,,,,,,,,,,0,0,0,0,0
2.5483,1783965845.3811,1,1,2.0000,-0.0000,1.42243,-0.00401,-2.63151,1.06483,1.57080,0.11675,-0.12762,-0.48158,0.03581,,,,,,,,,,,,,,,,,,,,,,,,,,0,0,0,0,0
2.5498,1783965845.3826,1,1,2.0000,-0.0000,1.42243,-0.00401,-2.63151,1.06483,1.57080,0.11675,-0.12762,-0.48158,0.03581,,,,,,,,,,,,,,,,,,,,,,,,,,0,0,0,0,0
2.5646,1783965845.3974,1,1,2.0000,-0.0000,1.42243,-0.00401,-2.63151,1.06483,1.57080,0.11675,-0.12762,-0.48158,0.03581,,,,,,,,,,,,,,,,,,,,,,,,,,0,0,0,0,0
2.5790,1783965845.4118,1,1,2.0000,-0.0000,1.42243,-0.00401,-2.63151,1.06483,1.57080,0.11675,-0.12762,-0.48158,0.03581,,,,,,,,,,,,,,,,,,,,,,,,,,0,0,0,0,0
2.5804,1783965845.4132,1,1,2.0000,-0.0000,1.42243,-0.00401,-2.63151,1.06483,1.57080,0.11675,-0.12762,-0.48158,0.03581,,,,,,,,,,,,,,,,,,,,,,,,,,0,0,0,0,0
2.5809,1783965845.4137,1,1,2.0000,-0.0000,1.42243,-0.00401,-2.63151,1.06483,1.57080,0.11675,-0.12762,-0.48158,0.03581,,,,,,,,,,,,,,,,,,,,,,,,,,0,0,0,0,0
2.5873,1783965845.4201,1,1,2.0000,-0.0000,1.42243,-0.00401,-2.63151,1.06483,1.57080,0.11675,-0.12762,-0.48158,0.03581,,,,,,,,,,,,,,,,,,,,,,,,,,0,0,0,0,0
2.5994,1783965845.4322,1,1,2.0000,-0.0000,1.42243,-0.00401,-2.63151,1.06483,1.57080,0.11675,-0.12762,-0.48158,0.03581,,,,,,,,,,,,,,,,,,,,,,,,,,0,0,0,0,0
2.6210,1783965845.4538,1,1,2.0000,-0.0000,1.42243,-0.00401,-2.63151,1.06483,1.57080,0.11675,-0.12762,-0.48158,0.03581,,,,,,,,,,,,,,,,,,,,,,,,,,0,0,0,0,0
2.6218,1783965845.4546,1,1,2.0000,-0.0000,1.42243,-0.00401,-2.63151,1.06483,1.57080,0.11675,-0.12762,-0.48158,0.03581,,,,,,,,,,,,,,,,,,,,,,,,,,0,0,0,0,0
2.6220,1783965845.4548,1,1,2.0000,-0.0000,1.42243,-0.00401,-2.63151,1.06483,1.57080,0.11675,-0.12762,-0.48158,0.03581,,,,,,,,,,,,,,,,,,,,,,,,,,0,0,0,0,0
2.6287,1783965845.4615,1,1,2.0000,-0.0000,1.42243,-0.00401,-2.63151,1.06483,1.57080,0.11675,-0.12762,-0.48158,0.03581,,,,,,,,,,,,,,,,,,,,,,,,,,0,0,0,0,0
2.6290,1783965845.4618,1,1,2.0000,-0.0000,1.42243,-0.00401,-2.63151,1.06483,1.57080,0.11675,-0.12762,-0.48158,0.03581,,,,,,,,,,,,,,,,,,,,,,,,,,0,0,0,0,0
2.6481,1783965845.4809,1,1,2.0000,-0.0000,1.42243,-0.00401,-2.63151,1.06483,1.57080,0.11675,-0.12762,-0.48158,0.03581,,,,,,,,,,,,,,,,,,,,,,,,,,0,0,0,0,0
2.6538,1783965845.4866,1,1,2.0000,-0.0000,1.42243,-0.00401,-2.63151,1.06483,1.57080,0.11675,-0.12762,-0.48158,0.03581,,,,,,,,,,,,,,,,,,,,,,,,,,0,0,0,0,0
2.6539,1783965845.4867,1,1,2.0000,-0.0000,1.42243,-0.00401,-2.63151,1.06483,1.57080,0.11675,-0.12762,-0.48158,0.03581,,,,,,,,,,,,,,,,,,,,,,,,,,0,0,0,0,0
2.6676,1783965845.5004,1,1,2.0000,-0.0000,1.42243,-0.00401,-2.63151,1.06483,1.57080,0.11675,-0.12762,-0.48158,0.03581,,,,,,,,,,,,,,,,,,,,,,,,,,0,0,0,0,0
2.6717,1783965845.5045,1,1,2.0000,-0.0000,1.42243,-0.00401,-2.63151,1.06483,1.57080,0.11675,-0.12762,-0.48158,0.03581,,,,,,,,,,,,,,,,,,,,,,,,,,0,0,0,0,0
2.6783,1783965845.5111,1,1,2.0000,-0.0000,1.42243,-0.00401,-2.63151,1.06483,1.57080,0.11675,-0.12762,-0.48158,0.03581,,,,,,,,,,,,,,,,,,,,,,,,,,0,0,0,0,0
2.6789,1783965845.5117,1,1,2.0000,-0.0000,1.42243,-0.00401,-2.63151,1.06483,1.57080,0.11675,-0.12762,-0.48158,0.03581,,,,,,,,,,,,,,,,,,,,,,,,,,0,0,0,0,0
2.7280,1783965845.5608,1,1,2.0000,-0.0000,1.42243,-0.00402,-2.63154,1.06485,1.57080,0.11675,-0.12762,-0.48156,0.03580,,,,,,,,,,,,,,,,,,,,,,,,,,0,0,0,0,0
2.7544,1783965845.5872,1,1,2.0000,-0.0000,1.42243,-0.00410,-2.63164,1.06495,1.57080,0.11675,-0.12763,-0.48150,0.03573,,,,,,,,,,,,,,,,,,,,,,,,,,0,0,0,0,0
2.7730,1783965845.6058,1,1,2.0000,-0.0000,1.42243,-0.00412,-2.63166,1.06498,1.57080,0.11675,-0.12763,-0.48149,0.03572,,,,,,,,,,,,,,,,,,,,,,,,,,0,0,0,0,0
2.7749,1783965845.6077,1,1,2.0000,-0.0000,1.42243,-0.00414,-2.63167,1.06500,1.57080,0.11675,-0.12763,-0.48148,0.03571,,,,,,,,,,,,,,,,,,,,,,,,,,0,0,0,0,0
2.7752,1783965845.6080,1,1,2.0000,-0.0000,1.42243,-0.00414,-2.63167,1.06500,1.57080,0.11675,-0.12763,-0.48148,0.03571,,,,,,,,,,,,,,,,,,,,,,,,,,0,0,0,0,0
2.7755,1783965845.6083,1,1,2.0000,-0.0000,1.42243,-0.00414,-2.63167,1.06500,1.57080,0.11675,-0.12763,-0.48148,0.03571,,,,,,,,,,,,,,,,,,,,,,,,,,0,0,0,0,0
2.7758,1783965845.6086,1,1,2.0000,-0.0000,1.42243,-0.00414,-2.63167,1.06500,1.57080,0.11675,-0.12763,-0.48148,0.03571,,,,,,,,,,,,,,,,,,,,,,,,,,0,0,0,0,0
2.7762,1783965845.6090,1,1,2.0000,-0.0000,1.42243,-0.00414,-2.63167,1.06500,1.57080,0.11675,-0.12763,-0.48148,0.03571,,,,,,,,,,,,,,,,,,,,,,,,,,0,0,0,0,0
2.7840,1783965845.6168,1,1,2.0000,-0.0000,1.42243,-0.00419,-2.63170,1.06505,1.57080,0.11675,-0.12763,-0.48147,0.03568,,,,,,,,,,,,,,,,,,,,,,,,,,0,0,0,0,0
2.7844,1783965845.6172,1,1,2.0000,-0.0000,1.42243,-0.00419,-2.63170,1.06505,1.57080,0.11675,-0.12763,-0.48147,0.03568,,,,,,,,,,,,,,,,,,,,,,,,,,0,0,0,0,0
2.7931,1783965845.6259,1,1,2.0000,-0.0000,1.42243,-0.00422,-2.63172,1.06509,1.57080,0.11675,-0.12764,-0.48146,0.03567,,,,,,,,,,,,,,,,,,,,,,,,,,0,0,0,0,0
2.7946,1783965845.6274,1,1,2.0000,-0.0000,1.42243,-0.00422,-2.63172,1.06509,1.57080,0.11675,-0.12764,-0.48146,0.03567,,,,,,,,,,,,,,,,,,,,,,,,,,0,0,0,0,0
2.7950,1783965845.6278,1,1,2.0000,-0.0000,1.42243,-0.00422,-2.63172,1.06509,1.57080,0.11675,-0.12764,-0.48146,0.03567,,,,,,,,,,,,,,,,,,,,,,,,,,0,0,0,0,0
2.7986,1783965845.6314,1,1,2.0000,-0.0000,1.42243,-0.00424,-2.63172,1.06511,1.57080,0.11675,-0.12764,-0.48146,0.03566,,,,,,,,,,,,,,,,,,,,,,,,,,0,0,0,0,0
2.7989,1783965845.6317,1,1,2.0000,-0.0000,1.42243,-0.00424,-2.63172,1.06511,1.57080,0.11675,-0.12764,-0.48146,0.03566,,,,,,,,,,,,,,,,,,,,,,,,,,0,0,0,0,0
2.8132,1783965845.6460,1,1,2.0000,-0.0000,1.42243,-0.00432,-2.63175,1.06521,1.57080,0.11675,-0.12764,-0.48145,0.03563,,,,,,,,,,,,,,,,,,,,,,,,,,0,0,0,0,0
2.8321,1783965845.6649,1,1,2.0000,-0.0000,1.42243,-0.00442,-2.63177,1.06532,1.57080,0.11675,-0.12764,-0.48146,0.03560,,,,,,,,,,,,,,,,,,,,,,,,,,0,0,0,0,0
2.8396,1783965845.6724,1,1,2.0000,-0.0000,1.42243,-0.00452,-2.63179,1.06545,1.57080,0.11675,-0.12764,-0.48146,0.03556,,,,,,,,,,,,,,,,,,,,,,,,,,0,0,0,0,0
2.8619,1783965845.6947,1,1,2.0000,-0.0000,1.42242,-0.00465,-2.63181,1.06561,1.57080,0.11675,-0.12764,-0.48146,0.03552,,,,,,,,,,,,,,,,,,,,,,,,,,0,0,0,0,0
2.8622,1783965845.6950,1,1,2.0000,-0.0000,1.42242,-0.00465,-2.63181,1.06561,1.57080,0.11675,-0.12764,-0.48146,0.03552,,,,,,,,,,,,,,,,,,,,,,,,,,0,0,0,0,0
2.8731,1783965845.7060,1,1,2.0000,-0.0000,1.42242,-0.00474,-2.63182,1.06571,1.57080,0.11675,-0.12763,-0.48146,0.03549,,,,,,,,,,,,,,,,,,,,,,,,,,0,0,0,0,0
2.8748,1783965845.7076,1,1,2.0000,-0.0000,1.42242,-0.00479,-2.63183,1.06577,1.57080,0.11675,-0.12763,-0.48147,0.03548,,,,,,,,,,,,,,,,,,,,,,,,,,0,0,0,0,0
2.8763,1783965845.7091,1,1,2.0000,-0.0000,1.42242,-0.00479,-2.63183,1.06577,1.57080,0.11675,-0.12763,-0.48147,0.03548,,,,,,,,,,,,,,,,,,,,,,,,,,0,0,0,0,0
2.8766,1783965845.7094,1,1,2.0000,-0.0000,1.42242,-0.00479,-2.63183,1.06577,1.57080,0.11675,-0.12763,-0.48147,0.03548,,,,,,,,,,,,,,,,,,,,,,,,,,0,0,0,0,0
2.8829,1783965845.7157,1,1,2.0000,-0.0000,1.42242,-0.00484,-2.63184,1.06583,1.57080,0.11675,-0.12763,-0.48147,0.03546,,,,,,,,,,,,,,,,,,,,,,,,,,0,0,0,0,0
2.8932,1783965845.7260,1,1,2.0000,-0.0000,1.42242,-0.00485,-2.63184,1.06585,1.57080,0.11675,-0.12763,-0.48147,0.03546,,,,,,,,,,,,,,,,,,,,,,,,,,0,0,0,0,0
2.9026,1783965845.7354,1,1,2.0000,-0.0000,1.42242,-0.00492,-2.63184,1.06594,1.57080,0.11675,-0.12763,-0.48148,0.03544,,,,,,,,,,,,,,,,,,,,,,,,,,0,0,0,0,0
2.9030,1783965845.7358,1,1,2.0000,-0.0000,1.42242,-0.00492,-2.63184,1.06594,1.57080,0.11675,-0.12763,-0.48148,0.03544,,,,,,,,,,,,,,,,,,,,,,,,,,0,0,0,0,0
2.9247,1783965845.7575,1,1,2.0000,-0.0000,1.42242,-0.00508,-2.63183,1.06614,1.57080,0.11675,-0.12763,-0.48152,0.03541,,,,,,,,,,,,,,,,,,,,,,,,,,0,0,0,0,0
2.9289,1783965845.7617,1,1,2.0000,-0.0000,1.42242,-0.00511,-2.63182,1.06618,1.57080,0.11675,-0.12762,-0.48153,0.03541,,,,,,,,,,,,,,,,,,,,,,,,,,0,0,0,0,0
2.9293,1783965845.7621,1,1,2.0000,-0.0000,1.42242,-0.00511,-2.63182,1.06618,1.57080,0.11675,-0.12762,-0.48153,0.03541,,,,,,,,,,,,,,,,,,,,,,,,,,0,0,0,0,0
2.9319,1783965845.7647,1,1,2.0000,-0.0000,1.42242,-0.00514,-2.63182,1.06621,1.57080,0.11675,-0.12762,-0.48154,0.03540,,,,,,,,,,,,,,,,,,,,,,,,,,0,0,0,0,0
2.9322,1783965845.7650,1,1,2.0000,-0.0000,1.42242,-0.00514,-2.63182,1.06621,1.57080,0.11675,-0.12762,-0.48154,0.03540,,,,,,,,,,,,,,,,,,,,,,,,,,0,0,0,0,0
2.9387,1783965845.7715,1,1,2.0000,-0.0000,1.42242,-0.00518,-2.63180,1.06626,1.57080,0.11675,-0.12762,-0.48156,0.03540,,,,,,,,,,,,,,,,,,,,,,,,,,0,0,0,0,0
2.9547,1783965845.7875,1,1,2.0000,-0.0000,1.42242,-0.00519,-2.63178,1.06628,1.57080,0.11675,-0.12762,-0.48157,0.03541,,,,,,,,,,,,,,,,,,,,,,,,,,0,0,0,0,0
2.9620,1783965845.7948,1,1,2.0000,-0.0000,1.42242,-0.00519,-2.63178,1.06628,1.57080,0.11675,-0.12762,-0.48157,0.03541,,,,,,,,,,,,,,,,,,,,,,,,,,0,0,0,0,0
2.9740,1783965845.8068,1,1,2.0000,-0.0000,1.42242,-0.00519,-2.63178,1.06628,1.57080,0.11675,-0.12762,-0.48157,0.03541,,,,,,,,,,,,,,,,,,,,,,,,,,0,0,0,0,0
2.9889,1783965845.8218,1,1,2.0000,-0.0000,1.42242,-0.00519,-2.63178,1.06628,1.57080,0.11675,-0.12762,-0.48157,0.03541,,,,,,,,,,,,,,,,,,,,,,,,,,0,0,0,0,0
2.9905,1783965845.8233,1,1,2.0000,-0.0000,1.42242,-0.00519,-2.63178,1.06628,1.57080,0.11675,-0.12762,-0.48157,0.03541,,,,,,,,,,,,,,,,,,,,,,,,,,0,0,0,0,0
3.0020,1783965845.8348,1,1,2.0000,-0.0000,1.42242,-0.00519,-2.63178,1.06628,1.57080,0.11675,-0.12762,-0.48157,0.03541,,,,,,,,,,,,,,,,,,,,,,,,,,0,0,0,0,0
3.0240,1783965845.8568,1,1,2.0000,-0.0000,1.42242,-0.00519,-2.63178,1.06628,1.57080,0.11675,-0.12762,-0.48157,0.03541,,,,,,,,,,,,,,,,,,,,,,,,,,0,0,0,0,0
3.0267,1783965845.8595,1,1,2.0000,-0.0000,1.42242,-0.00519,-2.63178,1.06628,1.57080,0.11675,-0.12762,-0.48157,0.03541,,,,,,,,,,,,,,,,,,,,,,,,,,0,0,0,0,0
3.0285,1783965845.8613,1,1,2.0000,-0.0000,1.42242,-0.00519,-2.63178,1.06628,1.57080,0.11675,-0.12762,-0.48157,0.03541,,,,,,,,,,,,,,,,,,,,,,,,,,0,0,0,0,0
3.0290,1783965845.8618,1,1,2.0000,-0.0000,1.42242,-0.00519,-2.63178,1.06628,1.57080,0.11675,-0.12762,-0.48157,0.03541,,,,,,,,,,,,,,,,,,,,,,,,,,0,0,0,0,0
3.0409,1783965845.8737,1,1,2.0000,-0.0000,1.42242,-0.00519,-2.63178,1.06628,1.57080,0.11675,-0.12762,-0.48157,0.03541,,,,,,,,,,,,,,,,,,,,,,,,,,0,0,0,0,0
3.0577,1783965845.8905,1,1,2.0000,-0.0000,1.42242,-0.00519,-2.63178,1.06628,1.57080,0.11675,-0.12762,-0.48157,0.03541,,,,,,,,,,,,,,,,,,,,,,,,,,0,0,0,0,0
3.0608,1783965845.8936,1,1,2.0000,-0.0000,1.42242,-0.00519,-2.63178,1.06628,1.57080,0.11675,-0.12762,-0.48157,0.03541,,,,,,,,,,,,,,,,,,,,,,,,,,0,0,0,0,0
3.0613,1783965845.8941,1,1,2.0000,-0.0000,1.42242,-0.00519,-2.63178,1.06628,1.57080,0.11675,-0.12762,-0.48157,0.03541,,,,,,,,,,,,,,,,,,,,,,,,,,0,0,0,0,0
3.0910,1783965845.9238,1,1,2.0000,-0.0000,1.42242,-0.00519,-2.63178,1.06628,1.57080,0.11675,-0.12762,-0.48157,0.03541,,,,,,,,,,,,,,,,,,,,,,,,,,0,0,0,0,0
3.0942,1783965845.9270,1,1,2.0000,-0.0000,1.42242,-0.00519,-2.63178,1.06628,1.57080,0.11675,-0.12762,-0.48157,0.03541,,,,,,,,,,,,,,,,,,,,,,,,,,0,0,0,0,0
3.0946,1783965845.9274,1,1,2.0000,-0.0000,1.42242,-0.00519,-2.63178,1.06628,1.57080,0.11675,-0.12762,-0.48157,0.03541,,,,,,,,,,,,,,,,,,,,,,,,,,0,0,0,0,0
3.0988,1783965845.9316,1,1,2.0000,-0.0000,1.42242,-0.00519,-2.63178,1.06628,1.57080,0.11675,-0.12762,-0.48157,0.03541,,,,,,,,,,,,,,,,,,,,,,,,,,0,0,0,0,0
3.0992,1783965845.9320,1,1,2.0000,-0.0000,1.42242,-0.00519,-2.63178,1.06628,1.57080,0.11675,-0.12762,-0.48157,0.03541,,,,,,,,,,,,,,,,,,,,,,,,,,0,0,0,0,0
3.1203,1783965845.9531,1,1,2.0000,-0.0000,1.42242,-0.00519,-2.63178,1.06628,1.57080,0.11675,-0.12762,-0.48157,0.03541,,,,,,,,,,,,,,,,,,,,,,,,,,0,0,0,0,0
3.1288,1783965845.9616,1,1,2.0000,-0.0000,1.42242,-0.00519,-2.63179,1.06628,1.57080,0.11675,-0.12762,-0.48157,0.03540,,,,,,,,,,,,,,,,,,,,,,,,,,0,0,0,0,0
3.1293,1783965845.9621,1,1,2.0000,-0.0000,1.42242,-0.00519,-2.63179,1.06628,1.57080,0.11675,-0.12762,-0.48157,0.03540,,,,,,,,,,,,,,,,,,,,,,,,,,0,0,0,0,0
3.1384,1783965845.9712,1,1,2.0000,-0.0000,1.42242,-0.00520,-2.63181,1.06630,1.57080,0.11675,-0.12762,-0.48155,0.03539,,,,,,,,,,,,,,,,,,,,,,,,,,0,0,0,0,0
3.1388,1783965845.9716,1,1,2.0000,-0.0000,1.42242,-0.00520,-2.63181,1.06630,1.57080,0.11675,-0.12762,-0.48155,0.03539,,,,,,,,,,,,,,,,,,,,,,,,,,0,0,0,0,0
3.1670,1783965845.9998,1,1,2.0000,-0.0000,1.42242,-0.00527,-2.63189,1.06638,1.57080,0.11675,-0.12763,-0.48150,0.03534,,,,,,,,,,,,,,,,,,,,,,,,,,0,0,0,0,0
3.1813,1783965846.0141,1,1,2.0000,-0.0000,1.42242,-0.00529,-2.63192,1.06641,1.57080,0.11675,-0.12763,-0.48149,0.03532,,,,,,,,,,,,,,,,,,,,,,,,,,0,0,0,0,0
3.1841,1783965846.0169,1,1,2.0000,-0.0000,1.42242,-0.00530,-2.63193,1.06642,1.57080,0.11675,-0.12763,-0.48149,0.03532,,,,,,,,,,,,,,,,,,,,,,,,,,0,0,0,0,0
3.1845,1783965846.0173,1,1,2.0000,-0.0000,1.42242,-0.00530,-2.63193,1.06642,1.57080,0.11675,-0.12763,-0.48149,0.03532,,,,,,,,,,,,,,,,,,,,,,,,,,0,0,0,0,0
3.1912,1783965846.0240,1,1,2.0000,-0.0000,1.42242,-0.00533,-2.63195,1.06645,1.57080,0.11675,-0.12763,-0.48147,0.03530,,,,,,,,,,,,,,,,,,,,,,,,,,0,0,0,0,0
3.1978,1783965846.0306,1,1,2.0000,-0.0000,1.42242,-0.00538,-2.63198,1.06651,1.57080,0.11675,-0.12763,-0.48146,0.03528,,,,,,,,,,,,,,,,,,,,,,,,,,0,0,0,0,0
3.2099,1783965846.0427,1,1,2.0000,-0.0000,1.42242,-0.00543,-2.63201,1.06657,1.57080,0.11675,-0.12764,-0.48145,0.03525,,,,,,,,,,,,,,,,,,,,,,,,,,0,0,0,0,0
3.2299,1783965846.0627,1,1,2.0000,-0.0000,1.42242,-0.00552,-2.63203,1.06668,1.57080,0.11675,-0.12764,-0.48144,0.03522,,,,,,,,,,,,,,,,,,,,,,,,,,0,0,0,0,0
3.2315,1783965846.0643,1,1,2.0000,-0.0000,1.42242,-0.00552,-2.63203,1.06668,1.57080,0.11675,-0.12764,-0.48144,0.03522,,,,,,,,,,,,,,,,,,,,,,,,,,0,0,0,0,0
3.2318,1783965846.0646,1,1,2.0000,-0.0000,1.42242,-0.00552,-2.63203,1.06668,1.57080,0.11675,-0.12764,-0.48144,0.03522,,,,,,,,,,,,,,,,,,,,,,,,,,0,0,0,0,0
3.2401,1783965846.0729,1,1,2.0000,-0.0000,1.42242,-0.00559,-2.63205,1.06677,1.57080,0.11675,-0.12764,-0.48144,0.03519,,,,,,,,,,,,,,,,,,,,,,,,,,0,0,0,0,0
3.2624,1783965846.0952,1,1,2.0000,-0.0000,1.42242,-0.00571,-2.63207,1.06691,1.57080,0.11675,-0.12764,-0.48145,0.03515,,,,,,,,,,,,,,,,,,,,,,,,,,0,0,0,0,0
3.2634,1783965846.0962,1,1,2.0000,-0.0000,1.42242,-0.00571,-2.63207,1.06691,1.57080,0.11675,-0.12764,-0.48145,0.03515,,,,,,,,,,,,,,,,,,,,,,,,,,0,0,0,0,0
3.2637,1783965846.0965,1,1,2.0000,-0.0000,1.42242,-0.00571,-2.63207,1.06691,1.57080,0.11675,-0.12764,-0.48145,0.03515,,,,,,,,,,,,,,,,,,,,,,,,,,0,0,0,0,0
3.2671,1783965846.0999,1,1,2.0000,-0.0000,1.42242,-0.00571,-2.63207,1.06691,1.57080,0.11675,-0.12764,-0.48145,0.03515,,,,,,,,,,,,,,,,,,,,,,,,,,0,0,0,0,0
3.2675,1783965846.1003,1,1,2.0000,-0.0000,1.42242,-0.00571,-2.63207,1.06691,1.57080,0.11675,-0.12764,-0.48145,0.03515,,,,,,,,,,,,,,,,,,,,,,,,,,0,0,0,0,0
3.2807,1783965846.1135,1,1,2.0000,-0.0000,1.42242,-0.00576,-2.63207,1.06698,1.57080,0.11675,-0.12763,-0.48145,0.03514,,,,,,,,,,,,,,,,,,,,,,,,,,0,0,0,0,0
3.3019,1783965846.1347,1,1,2.0000,-0.0000,1.42242,-0.00606,-2.63212,1.06733,1.57080,0.11675,-0.12763,-0.48147,0.03505,,,,,,,,,,,,,,,,,,,,,,,,,,0,0,0,0,0
3.3080,1783965846.1408,1,1,2.0000,-0.0000,1.42242,-0.00611,-2.63212,1.06740,1.57080,0.11675,-0.12763,-0.48147,0.03503,,,,,,,,,,,,,,,,,,,,,,,,,,0,0,0,0,0
3.3085,1783965846.1413,1,1,2.0000,-0.0000,1.42242,-0.00611,-2.63212,1.06740,1.57080,0.11675,-0.12763,-0.48147,0.03503,,,,,,,,,,,,,,,,,,,,,,,,,,0,0,0,0,0
3.3101,1783965846.1429,1,1,2.0000,-0.0000,1.42242,-0.00616,-2.63213,1.06746,1.57080,0.11675,-0.12763,-0.48147,0.03502,,,,,,,,,,,,,,,,,,,,,,,,,,0,0,0,0,0
3.3104,1783965846.1432,1,1,2.0000,-0.0000,1.42242,-0.00616,-2.63213,1.06746,1.57080,0.11675,-0.12763,-0.48147,0.03502,,,,,,,,,,,,,,,,,,,,,,,,,,0,0,0,0,0
3.3318,1783965846.1646,1,1,2.0000,-0.0000,1.42242,-0.00630,-2.63215,1.06764,1.57080,0.11675,-0.12763,-0.48148,0.03498,,,,,,,,,,,,,,,,,,,,,,,,,,0,0,0,0,0
3.3347,1783965846.1675,1,1,2.0000,-0.0000,1.42242,-0.00630,-2.63215,1.06764,1.57080,0.11675,-0.12763,-0.48148,0.03498,,,,,,,,,,,,,,,,,,,,,,,,,,0,0,0,0,0
3.3419,1783965846.1747,1,1,2.0000,-0.0000,1.42242,-0.00630,-2.63215,1.06764,1.57080,0.11675,-0.12763,-0.48148,0.03498,,,,,,,,,,,,,,,,,,,,,,,,,,0,0,0,0,0
3.3422,1783965846.1750,1,1,2.0000,-0.0000,1.42242,-0.00630,-2.63215,1.06764,1.57080,0.11675,-0.12763,-0.48148,0.03498,,,,,,,,,,,,,,,,,,,,,,,,,,0,0,0,0,0
3.3486,1783965846.1814,1,1,2.0000,-0.0000,1.42242,-0.00630,-2.63215,1.06764,1.57080,0.11675,-0.12763,-0.48148,0.03498,,,,,,,,,,,,,,,,,,,,,,,,,,0,0,0,0,0
3.3490,1783965846.1818,1,1,2.0000,-0.0000,1.42242,-0.00630,-2.63215,1.06764,1.57080,0.11675,-0.12763,-0.48148,0.03498,,,,,,,,,,,,,,,,,,,,,,,,,,0,0,0,0,0
3.3690,1783965846.2018,1,1,2.0000,-0.0000,1.42242,-0.00630,-2.63215,1.06764,1.57080,0.11675,-0.12763,-0.48148,0.03498,,,,,,,,,,,,,,,,,,,,,,,,,,0,0,0,0,0
3.3742,1783965846.2070,1,1,2.0000,-0.0000,1.42242,-0.00630,-2.63215,1.06764,1.57080,0.11675,-0.12763,-0.48148,0.03498,,,,,,,,,,,,,,,,,,,,,,,,,,0,0,0,0,0
3.4022,1783965846.2350,1,1,2.0000,-0.0000,1.42242,-0.00630,-2.63215,1.06764,1.57080,0.11675,-0.12763,-0.48148,0.03498,,,,,,,,,,,,,,,,,,,,,,,,,,0,0,0,0,0
3.4102,1783965846.2430,1,1,2.0000,-0.0000,1.42242,-0.00630,-2.63215,1.06764,1.57080,0.11675,-0.12763,-0.48148,0.03498,,,,,,,,,,,,,,,,,,,,,,,,,,0,0,0,0,0
3.4300,1783965846.2628,1,1,2.0000,-0.0000,1.42242,-0.00630,-2.63215,1.06764,1.57080,0.11675,-0.12763,-0.48148,0.03498,,,,,,,,,,,,,,,,,,,,,,,,,,0,0,0,0,0
3.4414,1783965846.2742,1,1,2.0000,-0.0000,1.42242,-0.00630,-2.63215,1.06764,1.57080,0.11675,-0.12763,-0.48148,0.03498,,,,,,,,,,,,,,,,,,,,,,,,,,0,0,0,0,0
3.4438,1783965846.2766,1,1,2.0000,-0.0000,1.42242,-0.00630,-2.63215,1.06764,1.57080,0.11675,-0.12763,-0.48148,0.03498,,,,,,,,,,,,,,,,,,,,,,,,,,0,0,0,0,0
3.4441,1783965846.2769,1,1,2.0000,-0.0000,1.42242,-0.00630,-2.63215,1.06764,1.57080,0.11675,-0.12763,-0.48148,0.03498,,,,,,,,,,,,,,,,,,,,,,,,,,0,0,0,0,0
3.4502,1783965846.2830,1,1,2.0000,-0.0000,1.42242,-0.00630,-2.63215,1.06764,1.57080,0.11675,-0.12763,-0.48148,0.03498,,,,,,,,,,,,,,,,,,,,,,,,,,0,0,0,0,0
3.4514,1783965846.2842,1,1,2.0000,-0.0000,1.42242,-0.00630,-2.63215,1.06764,1.57080,0.11675,-0.12763,-0.48148,0.03498,,,,,,,,,,,,,,,,,,,,,,,,,,0,0,0,0,0
3.4517,1783965846.2845,1,1,2.0000,-0.0000,1.42242,-0.00630,-2.63215,1.06764,1.57080,0.11675,-0.12763,-0.48148,0.03498,,,,,,,,,,,,,,,,,,,,,,,,,,0,0,0,0,0
3.4530,1783965846.2858,1,1,2.0000,-0.0000,1.42242,-0.00630,-2.63215,1.06764,1.57080,0.11675,-0.12763,-0.48148,0.03498,,,,,,,,,,,,,,,,,,,,,,,,,,0,0,0,0,0
3.4533,1783965846.2861,1,1,2.0000,-0.0000,1.42242,-0.00630,-2.63215,1.06764,1.57080,0.11675,-0.12763,-0.48148,0.03498,,,,,,,,,,,,,,,,,,,,,,,,,,0,0,0,0,0
3.4673,1783965846.3001,1,1,2.0000,-0.0000,1.42242,-0.00630,-2.63215,1.06764,1.57080,0.11675,-0.12763,-0.48148,0.03498,,,,,,,,,,,,,,,,,,,,,,,,,,0,0,0,0,0
3.4692,1783965846.3020,1,1,2.0000,-0.0000,1.42242,-0.00630,-2.63215,1.06764,1.57080,0.11675,-0.12763,-0.48148,0.03498,,,,,,,,,,,,,,,,,,,,,,,,,,0,0,0,0,0
3.4697,1783965846.3025,1,1,2.0000,-0.0000,1.42242,-0.00630,-2.63215,1.06764,1.57080,0.11675,-0.12763,-0.48148,0.03498,,,,,,,,,,,,,,,,,,,,,,,,,,0,0,0,0,0
3.4864,1783965846.3192,1,1,2.0000,-0.0000,1.42242,-0.00630,-2.63215,1.06764,1.57080,0.11675,-0.12763,-0.48148,0.03498,,,,,,,,,,,,,,,,,,,,,,,,,,0,0,0,0,0
3.4924,1783965846.3252,1,1,2.0000,-0.0000,1.42242,-0.00630,-2.63215,1.06764,1.57080,0.11675,-0.12763,-0.48148,0.03498,,,,,,,,,,,,,,,,,,,,,,,,,,0,0,0,0,0
3.4998,1783965846.3326,1,1,2.0000,-0.0000,1.42242,-0.00630,-2.63215,1.06764,1.57080,0.11675,-0.12763,-0.48148,0.03498,,,,,,,,,,,,,,,,,,,,,,,,,,0,0,0,0,0
3.5088,1783965846.3416,1,1,2.0000,-0.0000,1.42242,-0.00630,-2.63215,1.06764,1.57080,0.11675,-0.12763,-0.48148,0.03498,,,,,,,,,,,,,,,,,,,,,,,,,,0,0,0,0,0
3.5378,1783965846.3706,1,1,2.0000,-0.0000,1.42242,-0.00630,-2.63215,1.06764,1.57080,0.11675,-0.12763,-0.48148,0.03498,,,,,,,,,,,,,,,,,,,,,,,,,,0,0,0,0,0
3.5434,1783965846.3762,1,1,2.0000,-0.0000,1.42242,-0.00631,-2.63215,1.06765,1.57080,0.11675,-0.12763,-0.48149,0.03498,,,,,,,,,,,,,,,,,,,,,,,,,,0,0,0,0,0
3.5473,1783965846.3801,1,1,2.0000,-0.0000,1.42242,-0.00631,-2.63215,1.06765,1.57080,0.11675,-0.12763,-0.48149,0.03498,,,,,,,,,,,,,,,,,,,,,,,,,,0,0,0,0,0
3.5477,1783965846.3805,1,1,2.0000,-0.0000,1.42242,-0.00631,-2.63215,1.06765,1.57080,0.11675,-0.12763,-0.48149,0.03498,,,,,,,,,,,,,,,,,,,,,,,,,,0,0,0,0,0
3.5541,1783965846.3869,1,1,2.0000,-0.0000,1.42242,-0.00633,-2.63214,1.06768,1.57080,0.11675,-0.12763,-0.48149,0.03497,,,,,,,,,,,,,,,,,,,,,,,,,,0,0,0,0,0
3.5621,1783965846.3949,1,1,2.0000,-0.0000,1.42242,-0.00634,-2.63214,1.06769,1.57080,0.11675,-0.12763,-0.48149,0.03497,,,,,,,,,,,,,,,,,,,,,,,,,,0,0,0,0,0
3.5625,1783965846.3953,1,1,2.0000,-0.0000,1.42242,-0.00634,-2.63214,1.06769,1.57080,0.11675,-0.12763,-0.48149,0.03497,,,,,,,,,,,,,,,,,,,,,,,,,,0,0,0,0,0
3.5903,1783965846.4231,1,1,2.0000,-0.0000,1.42242,-0.00642,-2.63220,1.06779,1.57080,0.11675,-0.12763,-0.48146,0.03493,,,,,,,,,,,,,,,,,,,,,,,,,,0,0,0,0,0
3.5924,1783965846.4252,1,1,2.0000,-0.0000,1.42242,-0.00642,-2.63220,1.06779,1.57080,0.11675,-0.12763,-0.48146,0.03493,,,,,,,,,,,,,,,,,,,,,,,,,,0,0,0,0,0
3.5928,1783965846.4256,1,1,2.0000,-0.0000,1.42242,-0.00642,-2.63220,1.06779,1.57080,0.11675,-0.12763,-0.48146,0.03493,,,,,,,,,,,,,,,,,,,,,,,,,,0,0,0,0,0
3.5988,1783965846.4316,1,1,2.0000,-0.0000,1.42242,-0.00644,-2.63222,1.06782,1.57080,0.11675,-0.12763,-0.48146,0.03491,,,,,,,,,,,,,,,,,,,,,,,,,,0,0,0,0,0
3.6034,1783965846.4362,1,1,2.0000,-0.0000,1.42242,-0.00644,-2.63222,1.06782,1.57080,0.11675,-0.12763,-0.48146,0.03491,,,,,,,,,,,,,,,,,,,,,,,,,,0,0,0,0,0
3.6098,1783965846.4426,1,1,2.0000,-0.0000,1.42242,-0.00647,-2.63223,1.06785,1.57080,0.11675,-0.12763,-0.48145,0.03490,,,,,,,,,,,,,,,,,,,,,,,,,,0,0,0,0,0
3.6101,1783965846.4429,1,1,2.0000,-0.0000,1.42242,-0.00647,-2.63223,1.06785,1.57080,0.11675,-0.12763,-0.48145,0.03490,,,,,,,,,,,,,,,,,,,,,,,,,,0,0,0,0,0
3.6211,1783965846.4539,1,1,2.0000,-0.0000,1.42242,-0.00650,-2.63225,1.06789,1.57080,0.11675,-0.12763,-0.48144,0.03488,,,,,,,,,,,,,,,,,,,,,,,,,,0,0,0,0,0
3.6214,1783965846.4542,1,1,2.0000,-0.0000,1.42242,-0.00650,-2.63225,1.06789,1.57080,0.11675,-0.12763,-0.48144,0.03488,,,,,,,,,,,,,,,,,,,,,,,,,,0,0,0,0,0
3.6323,1783965846.4651,1,1,2.0000,-0.0000,1.42242,-0.00653,-2.63226,1.06792,1.57080,0.11675,-0.12763,-0.48144,0.03487,,,,,,,,,,,,,,,,,,,,,,,,,,0,0,0,0,0
3.6327,1783965846.4655,1,1,2.0000,-0.0000,1.42242,-0.00653,-2.63226,1.06792,1.57080,0.11675,-0.12763,-0.48144,0.03487,,,,,,,,,,,,,,,,,,,,,,,,,,0,0,0,0,0
3.6382,1783965846.4710,1,1,2.0000,-0.0000,1.42242,-0.00656,-2.63227,1.06796,1.57080,0.11675,-0.12763,-0.48144,0.03486,,,,,,,,,,,,,,,,,,,,,,,,,,0,0,0,0,0
3.6386,1783965846.4714,1,1,2.0000,-0.0000,1.42242,-0.00656,-2.63227,1.06796,1.57080,0.11675,-0.12763,-0.48144,0.03486,,,,,,,,,,,,,,,,,,,,,,,,,,0,0,0,0,0
3.6468,1783965846.4796,1,1,2.0000,-0.0000,1.42242,-0.00662,-2.63228,1.06803,1.57080,0.11675,-0.12763,-0.48144,0.03484,,,,,,,,,,,,,,,,,,,,,,,,,,0,0,0,0,0
3.6634,1783965846.4962,1,1,2.0000,-0.0000,1.42242,-0.00674,-2.63230,1.06817,1.57080,0.11675,-0.12763,-0.48144,0.03480,,,,,,,,,,,,,,,,,,,,,,,,,,0,0,0,0,0
3.6718,1783965846.5046,1,1,2.0000,-0.0000,1.42242,-0.00676,-2.63231,1.06819,1.57080,0.11675,-0.12763,-0.48144,0.03480,,,,,,,,,,,,,,,,,,,,,,,,,,0,0,0,0,0
3.6790,1783965846.5118,1,1,2.0000,-0.0000,1.42242,-0.00681,-2.63232,1.06826,1.57080,0.11675,-0.12763,-0.48144,0.03478,,,,,,,,,,,,,,,,,,,,,,,,,,0,0,0,0,0
3.6899,1783965846.5227,1,1,2.0000,-0.0000,1.42242,-0.00686,-2.63232,1.06831,1.57080,0.11675,-0.12763,-0.48144,0.03476,,,,,,,,,,,,,,,,,,,,,,,,,,0,0,0,0,0
3.7023,1783965846.5351,1,1,2.0000,-0.0000,1.42242,-0.00695,-2.63233,1.06842,1.57080,0.11675,-0.12763,-0.48145,0.03474,,,,,,,,,,,,,,,,,,,,,,,,,,0,0,0,0,0
3.7028,1783965846.5356,1,1,2.0000,-0.0000,1.42242,-0.00695,-2.63233,1.06842,1.57080,0.11675,-0.12763,-0.48145,0.03474,,,,,,,,,,,,,,,,,,,,,,,,,,0,0,0,0,0
3.7064,1783965846.5392,1,1,2.0000,-0.0000,1.42242,-0.00699,-2.63234,1.06848,1.57080,0.11675,-0.12763,-0.48145,0.03472,,,,,,,,,,,,,,,,,,,,,,,,,,0,0,0,0,0
3.7068,1783965846.5396,1,1,2.0000,-0.0000,1.42242,-0.00699,-2.63234,1.06848,1.57080,0.11675,-0.12763,-0.48145,0.03472,,,,,,,,,,,,,,,,,,,,,,,,,,0,0,0,0,0
3.7198,1783965846.5526,1,1,2.0000,-0.0000,1.42242,-0.00716,-2.63236,1.06868,1.57080,0.11675,-0.12763,-0.48146,0.03467,,,,,,,,,,,,,,,,,,,,,,,,,,0,0,0,0,0
3.7426,1783965846.5754,1,1,2.0000,-0.0000,1.42241,-0.00725,-2.63236,1.06879,1.57080,0.11675,-0.12763,-0.48148,0.03465,,,,,,,,,,,,,,,,,,,,,,,,,,0,0,0,0,0
3.7480,1783965846.5808,1,1,2.0000,-0.0000,1.42241,-0.00728,-2.63236,1.06883,1.57080,0.11675,-0.12763,-0.48148,0.03464,,,,,,,,,,,,,,,,,,,,,,,,,,0,0,0,0,0
3.7483,1783965846.5811,1,1,2.0000,-0.0000,1.42241,-0.00728,-2.63236,1.06883,1.57080,0.11675,-0.12763,-0.48148,0.03464,,,,,,,,,,,,,,,,,,,,,,,,,,0,0,0,0,0
3.7492,1783965846.5820,1,1,2.0000,-0.0000,1.42241,-0.00728,-2.63236,1.06883,1.57080,0.11675,-0.12763,-0.48148,0.03464,,,,,,,,,,,,,,,,,,,,,,,,,,0,0,0,0,0
3.7583,1783965846.5911,1,1,2.0000,-0.0000,1.42241,-0.00739,-2.63236,1.06897,1.57080,0.11675,-0.12762,-0.48151,0.03462,,,,,,,,,,,,,,,,,,,,,,,,,,0,0,0,0,0
3.7587,1783965846.5915,1,1,2.0000,-0.0000,1.42241,-0.00739,-2.63236,1.06897,1.57080,0.11675,-0.12762,-0.48151,0.03462,,,,,,,,,,,,,,,,,,,,,,,,,,0,0,0,0,0
3.7744,1783965846.6072,1,1,2.0000,-0.0000,1.42241,-0.00752,-2.63234,1.06913,1.57080,0.11675,-0.12762,-0.48154,0.03460,,,,,,,,,,,,,,,,,,,,,,,,,,0,0,0,0,0
3.7786,1783965846.6114,1,1,2.0000,-0.0000,1.42241,-0.00754,-2.63233,1.06916,1.57080,0.11675,-0.12762,-0.48155,0.03460,,,,,,,,,,,,,,,,,,,,,,,,,,0,0,0,0,0
3.7791,1783965846.6119,1,1,2.0000,-0.0000,1.42241,-0.00754,-2.63233,1.06916,1.57080,0.11675,-0.12762,-0.48155,0.03460,,,,,,,,,,,,,,,,,,,,,,,,,,0,0,0,0,0
3.7892,1783965846.6220,1,1,2.0000,-0.0000,1.42241,-0.00756,-2.63232,1.06918,1.57080,0.11675,-0.12761,-0.48156,0.03460,,,,,,,,,,,,,,,,,,,,,,,,,,0,0,0,0,0
3.8142,1783965846.6470,1,1,2.0000,-0.0000,1.42241,-0.00756,-2.63232,1.06918,1.57080,0.11675,-0.12761,-0.48156,0.03460,,,,,,,,,,,,,,,,,,,,,,,,,,0,0,0,0,0
3.8228,1783965846.6556,1,1,2.0000,-0.0000,1.42241,-0.00756,-2.63232,1.06918,1.57080,0.11675,-0.12761,-0.48156,0.03460,,,,,,,,,,,,,,,,,,,,,,,,,,0,0,0,0,0
3.8232,1783965846.6560,1,1,2.0000,-0.0000,1.42241,-0.00756,-2.63232,1.06918,1.57080,0.11675,-0.12761,-0.48156,0.03460,,,,,,,,,,,,,,,,,,,,,,,,,,0,0,0,0,0
3.8332,1783965846.6660,1,1,2.0000,-0.0000,1.42241,-0.00756,-2.63232,1.06918,1.57080,0.11675,-0.12761,-0.48156,0.03460,,,,,,,,,,,,,,,,,,,,,,,,,,0,0,0,0,0
3.8503,1783965846.6831,1,1,2.0000,-0.0000,1.42241,-0.00756,-2.63232,1.06918,1.57080,0.11675,-0.12761,-0.48156,0.03460,,,,,,,,,,,,,,,,,,,,,,,,,,0,0,0,0,0
3.8505,1783965846.6833,1,1,2.0000,-0.0000,1.42241,-0.00756,-2.63232,1.06918,1.57080,0.11675,-0.12761,-0.48156,0.03460,,,,,,,,,,,,,,,,,,,,,,,,,,0,0,0,0,0
3.8519,1783965846.6847,1,1,2.0000,-0.0000,1.42241,-0.00756,-2.63232,1.06918,1.57080,0.11675,-0.12761,-0.48156,0.03460,,,,,,,,,,,,,,,,,,,,,,,,,,0,0,0,0,0
3.8522,1783965846.6850,1,1,2.0000,-0.0000,1.42241,-0.00756,-2.63232,1.06918,1.57080,0.11675,-0.12761,-0.48156,0.03460,,,,,,,,,,,,,,,,,,,,,,,,,,0,0,0,0,0
3.8610,1783965846.6938,1,1,2.0000,-0.0000,1.42241,-0.00756,-2.63232,1.06918,1.57080,0.11675,-0.12761,-0.48156,0.03460,,,,,,,,,,,,,,,,,,,,,,,,,,0,0,0,0,0
3.8786,1783965846.7114,1,1,2.0000,-0.0000,1.42241,-0.00756,-2.63232,1.06918,1.57080,0.11675,-0.12761,-0.48156,0.03460,,,,,,,,,,,,,,,,,,,,,,,,,,0,0,0,0,0
3.8789,1783965846.7117,1,1,2.0000,-0.0000,1.42241,-0.00756,-2.63232,1.06918,1.57080,0.11675,-0.12761,-0.48156,0.03460,,,,,,,,,,,,,,,,,,,,,,,,,,0,0,0,0,0
3.8905,1783965846.7233,1,1,2.0000,-0.0000,1.42241,-0.00756,-2.63232,1.06918,1.57080,0.11675,-0.12761,-0.48156,0.03460,,,,,,,,,,,,,,,,,,,,,,,,,,0,0,0,0,0
3.8944,1783965846.7272,1,1,2.0000,-0.0000,1.42241,-0.00756,-2.63232,1.06918,1.57080,0.11675,-0.12761,-0.48156,0.03460,,,,,,,,,,,,,,,,,,,,,,,,,,0,0,0,0,0
3.8993,1783965846.7321,1,1,2.0000,-0.0000,1.42241,-0.00756,-2.63232,1.06918,1.57080,0.11675,-0.12761,-0.48156,0.03460,,,,,,,,,,,,,,,,,,,,,,,,,,0,0,0,0,0
3.9084,1783965846.7412,1,1,2.0000,-0.0000,1.42241,-0.00756,-2.63232,1.06918,1.57080,0.11675,-0.12761,-0.48156,0.03460,,,,,,,,,,,,,,,,,,,,,,,,,,0,0,0,0,0
3.9229,1783965846.7557,1,1,2.0000,-0.0000,1.42241,-0.00756,-2.63232,1.06918,1.57080,0.11675,-0.12761,-0.48156,0.03460,,,,,,,,,,,,,,,,,,,,,,,,,,0,0,0,0,0
3.9383,1783965846.7711,1,1,2.0000,-0.0000,1.42241,-0.00756,-2.63232,1.06918,1.57080,0.11675,-0.12761,-0.48156,0.03460,,,,,,,,,,,,,,,,,,,,,,,,,,0,0,0,0,0
3.9411,1783965846.7739,1,1,2.0000,-0.0000,1.42241,-0.00756,-2.63232,1.06918,1.57080,0.11675,-0.12761,-0.48156,0.03460,,,,,,,,,,,,,,,,,,,,,,,,,,0,0,0,0,0
3.9416,1783965846.7744,1,1,2.0000,-0.0000,1.42241,-0.00756,-2.63232,1.06918,1.57080,0.11675,-0.12761,-0.48156,0.03460,,,,,,,,,,,,,,,,,,,,,,,,,,0,0,0,0,0
3.9519,1783965846.7847,1,1,2.0000,-0.0000,1.42241,-0.00756,-2.63232,1.06918,1.57080,0.11675,-0.12761,-0.48156,0.03460,,,,,,,,,,,,,,,,,,,,,,,,,,0,0,0,0,0
3.9624,1783965846.7952,1,1,2.0000,-0.0000,1.42241,-0.00756,-2.63232,1.06918,1.57080,0.11675,-0.12761,-0.48156,0.03460,,,,,,,,,,,,,,,,,,,,,,,,,,0,0,0,0,0
3.9732,1783965846.8060,1,1,2.0000,-0.0000,1.42241,-0.00756,-2.63233,1.06918,1.57080,0.11675,-0.12761,-0.48156,0.03460,,,,,,,,,,,,,,,,,,,,,,,,,,0,0,0,0,0
3.9736,1783965846.8064,1,1,2.0000,-0.0000,1.42241,-0.00756,-2.63233,1.06918,1.57080,0.11675,-0.12761,-0.48156,0.03460,,,,,,,,,,,,,,,,,,,,,,,,,,0,0,0,0,0
3.9783,1783965846.8111,1,1,2.0000,-0.0000,1.42241,-0.00756,-2.63233,1.06919,1.57080,0.11675,-0.12761,-0.48156,0.03459,,,,,,,,,,,,,,,,,,,,,,,,,,0,0,0,0,0
3.9786,1783965846.8114,1,1,2.0000,-0.0000,1.42241,-0.00756,-2.63233,1.06919,1.57080,0.11675,-0.12761,-0.48156,0.03459,,,,,,,,,,,,,,,,,,,,,,,,,,0,0,0,0,0
4.0008,1783965846.8337,1,1,2.0000,-0.0000,1.42241,-0.00757,-2.63235,1.06921,1.57080,0.11675,-0.12762,-0.48154,0.03458,,,,,,,,,,,,,,,,,,,,,,,,,,0,0,0,0,0
4.0175,1783965846.8503,1,1,2.0000,-0.0000,1.42241,-0.00761,-2.63240,1.06925,1.57080,0.11675,-0.12762,-0.48151,0.03455,,,,,,,,,,,,,,,,,,,,,,,,,,0,0,0,0,0
4.0184,1783965846.8512,1,1,2.0000,-0.0000,1.42241,-0.00763,-2.63242,1.06927,1.57080,0.11675,-0.12762,-0.48150,0.03454,,,,,,,,,,,,,,,,,,,,,,,,,,0,0,0,0,0
4.0209,1783965846.8537,1,1,2.0000,-0.0000,1.42241,-0.00763,-2.63242,1.06927,1.57080,0.11675,-0.12762,-0.48150,0.03454,,,,,,,,,,,,,,,,,,,,,,,,,,0,0,0,0,0
4.0293,1783965846.8621,1,1,2.0000,-0.0000,1.42241,-0.00767,-2.63246,1.06932,1.57080,0.11675,-0.12763,-0.48148,0.03451,,,,,,,,,,,,,,,,,,,,,,,,,,0,0,0,0,0
4.0408,1783965846.8736,1,1,2.0000,-0.0000,1.42241,-0.00774,-2.63253,1.06940,1.57080,0.11675,-0.12763,-0.48144,0.03446,,,,,,,,,,,,,,,,,,,,,,,,,,0,0,0,0,0
4.0483,1783965846.8811,1,1,2.0000,-0.0000,1.42241,-0.00777,-2.63255,1.06943,1.57080,0.11675,-0.12763,-0.48142,0.03444,,,,,,,,,,,,,,,,,,,,,,,,,,0,0,0,0,0
4.0587,1783965846.8915,1,1,2.0000,-0.0000,1.42241,-0.00780,-2.63256,1.06946,1.57080,0.11675,-0.12763,-0.48143,0.03444,,,,,,,,,,,,,,,,,,,,,,,,,,0,0,0,0,0
4.0592,1783965846.8920,1,1,2.0000,-0.0000,1.42241,-0.00780,-2.63256,1.06946,1.57080,0.11675,-0.12763,-0.48143,0.03444,,,,,,,,,,,,,,,,,,,,,,,,,,0,0,0,0,0
4.0677,1783965846.9005,1,1,2.0000,-0.0000,1.42241,-0.00784,-2.63256,1.06951,1.57080,0.11675,-0.12763,-0.48143,0.03442,,,,,,,,,,,,,,,,,,,,,,,,,,0,0,0,0,0
4.1699,1783965847.0027,1,1,2.0000,-0.0000,1.42241,-0.00847,-2.63263,1.07027,1.57080,0.11675,-0.12762,-0.48148,0.03424,,,,,,,,,,,,,,,,,,,,,,,,,,0,0,0,0,0
4.1783,1783965847.0111,1,1,2.0000,-0.0000,1.42241,-0.00859,-2.63263,1.07043,1.57080,0.11675,-0.12762,-0.48150,0.03421,,,,,,,,,,,,,,,,,,,,,,,,,,0,0,0,0,0
4.1897,1783965847.0225,1,1,2.0000,-0.0000,1.42241,-0.00867,-2.63263,1.07052,1.57080,0.11675,-0.12762,-0.48151,0.03420,,,,,,,,,,,,,,,,,,,,,,,,,,0,0,0,0,0
4.1903,1783965847.0231,1,1,2.0000,-0.0000,1.42241,-0.00870,-2.63262,1.07056,1.57080,0.11675,-0.12762,-0.48152,0.03419,,,,,,,,,,,,,,,,,,,,,,,,,,0,0,0,0,0
4.1917,1783965847.0245,1,1,2.0000,-0.0000,1.42241,-0.00870,-2.63262,1.07056,1.57080,0.11675,-0.12762,-0.48152,0.03419,,,,,,,,,,,,,,,,,,,,,,,,,,0,0,0,0,0
4.1921,1783965847.0249,1,1,2.0000,-0.0000,1.42241,-0.00870,-2.63262,1.07056,1.57080,0.11675,-0.12762,-0.48152,0.03419,,,,,,,,,,,,,,,,,,,,,,,,,,0,0,0,0,0
4.2019,1783965847.0347,1,1,2.0000,-0.0000,1.42241,-0.00874,-2.63261,1.07061,1.57080,0.11675,-0.12762,-0.48154,0.03419,,,,,,,,,,,,,,,,,,,,,,,,,,0,0,0,0,0
4.2028,1783965847.0356,1,1,2.0000,-0.0000,1.42241,-0.00874,-2.63261,1.07061,1.57080,0.11675,-0.12762,-0.48154,0.03419,,,,,,,,,,,,,,,,,,,,,,,,,,0,0,0,0,0
4.2031,1783965847.0359,1,1,2.0000,-0.0000,1.42241,-0.00874,-2.63261,1.07061,1.57080,0.11675,-0.12762,-0.48154,0.03419,,,,,,,,,,,,,,,,,,,,,,,,,,0,0,0,0,0
4.2051,1783965847.0379,1,1,2.0000,-0.0000,1.42241,-0.00874,-2.63261,1.07061,1.57080,0.11675,-0.12762,-0.48154,0.03419,,,,,,,,,,,,,,,,,,,,,,,,,,0,0,0,0,0
4.2085,1783965847.0413,1,1,2.0000,-0.0000,1.42241,-0.00874,-2.63261,1.07061,1.57080,0.11675,-0.12762,-0.48154,0.03419,,,,,,,,,,,,,,,,,,,,,,,,,,0,0,0,0,0
4.2088,1783965847.0416,1,1,2.0000,-0.0000,1.42241,-0.00874,-2.63261,1.07061,1.57080,0.11675,-0.12762,-0.48154,0.03419,,,,,,,,,,,,,,,,,,,,,,,,,,0,0,0,0,0
4.2090,1783965847.0418,1,1,2.0000,-0.0000,1.42241,-0.00874,-2.63261,1.07061,1.57080,0.11675,-0.12762,-0.48154,0.03419,,,,,,,,,,,,,,,,,,,,,,,,,,0,0,0,0,0
4.2184,1783965847.0512,1,1,2.0000,-0.0000,1.42241,-0.00874,-2.63261,1.07061,1.57080,0.11675,-0.12762,-0.48154,0.03419,,,,,,,,,,,,,,,,,,,,,,,,,,0,0,0,0,0
4.2187,1783965847.0515,1,1,2.0000,-0.0000,1.42241,-0.00874,-2.63261,1.07061,1.57080,0.11675,-0.12762,-0.48154,0.03419,,,,,,,,,,,,,,,,,,,,,,,,,,0,0,0,0,0
4.2219,1783965847.0547,1,1,2.0000,-0.0000,1.42241,-0.00874,-2.63261,1.07061,1.57080,0.11675,-0.12762,-0.48154,0.03419,,,,,,,,,,,,,,,,,,,,,,,,,,0,0,0,0,0
4.2224,1783965847.0552,1,1,2.0000,-0.0000,1.42241,-0.00874,-2.63261,1.07061,1.57080,0.11675,-0.12762,-0.48154,0.03419,,,,,,,,,,,,,,,,,,,,,,,,,,0,0,0,0,0
4.2235,1783965847.0563,1,1,2.0000,-0.0000,1.42241,-0.00874,-2.63261,1.07061,1.57080,0.11675,-0.12762,-0.48154,0.03419,,,,,,,,,,,,,,,,,,,,,,,,,,0,0,0,0,0
4.2238,1783965847.0566,1,1,2.0000,-0.0000,1.42241,-0.00874,-2.63261,1.07061,1.57080,0.11675,-0.12762,-0.48154,0.03419,,,,,,,,,,,,,,,,,,,,,,,,,,0,0,0,0,0
4.2279,1783965847.0607,1,1,2.0000,-0.0000,1.42241,-0.00874,-2.63261,1.07061,1.57080,0.11675,-0.12762,-0.48154,0.03419,,,,,,,,,,,,,,,,,,,,,,,,,,0,0,0,0,0
4.2282,1783965847.0610,1,1,2.0000,-0.0000,1.42241,-0.00874,-2.63261,1.07061,1.57080,0.11675,-0.12762,-0.48154,0.03419,,,,,,,,,,,,,,,,,,,,,,,,,,0,0,0,0,0
4.2417,1783965847.0745,1,1,2.0000,-0.0000,1.42241,-0.00874,-2.63261,1.07061,1.57080,0.11675,-0.12762,-0.48154,0.03419,,,,,,,,,,,,,,,,,,,,,,,,,,0,0,0,0,0
4.2533,1783965847.0861,1,1,2.0000,-0.0000,1.42241,-0.00874,-2.63261,1.07061,1.57080,0.11675,-0.12762,-0.48154,0.03419,,,,,,,,,,,,,,,,,,,,,,,,,,0,0,0,0,0
4.2686,1783965847.1014,1,1,2.0000,-0.0000,1.42241,-0.00874,-2.63261,1.07061,1.57080,0.11675,-0.12762,-0.48154,0.03419,,,,,,,,,,,,,,,,,,,,,,,,,,0,0,0,0,0
4.2713,1783965847.1041,1,1,2.0000,-0.0000,1.42241,-0.00874,-2.63261,1.07061,1.57080,0.11675,-0.12762,-0.48154,0.03419,,,,,,,,,,,,,,,,,,,,,,,,,,0,0,0,0,0
4.2718,1783965847.1046,1,1,2.0000,-0.0000,1.42241,-0.00874,-2.63261,1.07061,1.57080,0.11675,-0.12762,-0.48154,0.03419,,,,,,,,,,,,,,,,,,,,,,,,,,0,0,0,0,0
4.2815,1783965847.1143,1,1,2.0000,-0.0000,1.42241,-0.00874,-2.63261,1.07061,1.57080,0.11675,-0.12762,-0.48154,0.03419,,,,,,,,,,,,,,,,,,,,,,,,,,0,0,0,0,0
4.2905,1783965847.1233,1,1,2.0000,-0.0000,1.42241,-0.00874,-2.63261,1.07061,1.57080,0.11675,-0.12762,-0.48154,0.03419,,,,,,,,,,,,,,,,,,,,,,,,,,0,0,0,0,0
4.3038,1783965847.1366,1,1,2.0000,-0.0000,1.42241,-0.00874,-2.63261,1.07061,1.57080,0.11675,-0.12762,-0.48154,0.03419,,,,,,,,,,,,,,,,,,,,,,,,,,0,0,0,0,0
4.3114,1783965847.1442,1,1,2.0000,-0.0000,1.42241,-0.00874,-2.63261,1.07061,1.57080,0.11675,-0.12762,-0.48154,0.03419,,,,,,,,,,,,,,,,,,,,,,,,,,0,0,0,0,0
4.3202,1783965847.1530,1,1,2.0000,-0.0000,1.42241,-0.00874,-2.63261,1.07061,1.57080,0.11675,-0.12762,-0.48154,0.03419,,,,,,,,,,,,,,,,,,,,,,,,,,0,0,0,0,0
4.3206,1783965847.1534,1,1,2.0000,-0.0000,1.42241,-0.00874,-2.63261,1.07061,1.57080,0.11675,-0.12762,-0.48154,0.03419,,,,,,,,,,,,,,,,,,,,,,,,,,0,0,0,0,0
4.3320,1783965847.1648,1,1,2.0000,-0.0000,1.42241,-0.00874,-2.63261,1.07061,1.57080,0.11675,-0.12762,-0.48154,0.03419,,,,,,,,,,,,,,,,,,,,,,,,,,0,0,0,0,0
4.3496,1783965847.1824,1,1,2.0000,-0.0000,1.42241,-0.00874,-2.63261,1.07061,1.57080,0.11675,-0.12762,-0.48154,0.03419,,,,,,,,,,,,,,,,,,,,,,,,,,0,0,0,0,0
4.3579,1783965847.1907,1,1,2.0000,-0.0000,1.42241,-0.00874,-2.63261,1.07061,1.57080,0.11675,-0.12762,-0.48154,0.03419,,,,,,,,,,,,,,,,,,,,,,,,,,0,0,0,0,0
4.3644,1783965847.1972,1,1,2.0000,-0.0000,1.42241,-0.00874,-2.63261,1.07061,1.57080,0.11675,-0.12762,-0.48154,0.03419,,,,,,,,,,,,,,,,,,,,,,,,,,0,0,0,0,0
4.3649,1783965847.1977,1,1,2.0000,-0.0000,1.42241,-0.00874,-2.63261,1.07061,1.57080,0.11675,-0.12762,-0.48154,0.03419,,,,,,,,,,,,,,,,,,,,,,,,,,0,0,0,0,0
4.3684,1783965847.2012,1,1,2.0000,-0.0000,1.42241,-0.00874,-2.63261,1.07061,1.57080,0.11675,-0.12762,-0.48154,0.03419,,,,,,,,,,,,,,,,,,,,,,,,,,0,0,0,0,0
4.3689,1783965847.2017,1,1,2.0000,-0.0000,1.42241,-0.00874,-2.63261,1.07061,1.57080,0.11675,-0.12762,-0.48154,0.03419,,,,,,,,,,,,,,,,,,,,,,,,,,0,0,0,0,0
4.3792,1783965847.2120,1,1,2.0000,-0.0000,1.42241,-0.00874,-2.63261,1.07061,1.57080,0.11675,-0.12762,-0.48154,0.03419,,,,,,,,,,,,,,,,,,,,,,,,,,0,0,0,0,0
4.3876,1783965847.2204,1,1,2.0000,-0.0000,1.42241,-0.00874,-2.63261,1.07062,1.57080,0.11675,-0.12762,-0.48154,0.03419,,,,,,,,,,,,,,,,,,,,,,,,,,0,0,0,0,0
4.4094,1783965847.2422,1,1,2.0000,-0.0000,1.42241,-0.00875,-2.63262,1.07063,1.57080,0.11675,-0.12762,-0.48154,0.03418,,,,,,,,,,,,,,,,,,,,,,,,,,0,0,0,0,0
4.4099,1783965847.2427,1,1,2.0000,-0.0000,1.42241,-0.00875,-2.63262,1.07063,1.57080,0.11675,-0.12762,-0.48154,0.03418,,,,,,,,,,,,,,,,,,,,,,,,,,0,0,0,0,0
4.4106,1783965847.2434,1,1,2.0000,-0.0000,1.42241,-0.00875,-2.63262,1.07063,1.57080,0.11675,-0.12762,-0.48153,0.03418,,,,,,,,,,,,,,,,,,,,,,,,,,0,0,0,0,0
4.4220,1783965847.2548,1,1,2.0000,-0.0000,1.42241,-0.00876,-2.63263,1.07065,1.57080,0.11675,-0.12762,-0.48153,0.03417,,,,,,,,,,,,,,,,,,,,,,,,,,0,0,0,0,0
4.4225,1783965847.2553,1,1,2.0000,-0.0000,1.42241,-0.00877,-2.63264,1.07066,1.57080,0.11675,-0.12762,-0.48152,0.03417,,,,,,,,,,,,,,,,,,,,,,,,,,0,0,0,0,0
4.4306,1783965847.2634,1,1,2.0000,-0.0000,1.42241,-0.00879,-2.63267,1.07068,1.57081,0.11675,-0.12762,-0.48150,0.03415,,,,,,,,,,,,,,,,,,,,,,,,,,0,0,0,0,0
4.4592,1783965847.2920,1,1,2.0000,-0.0000,1.42241,-0.00886,-2.63273,1.07076,1.57081,0.11675,-0.12762,-0.48147,0.03411,,,,,,,,,,,,,,,,,,,,,,,,,,0,0,0,0,0
4.4618,1783965847.2946,1,1,2.0000,-0.0000,1.42241,-0.00886,-2.63273,1.07076,1.57081,0.11675,-0.12762,-0.48147,0.03411,,,,,,,,,,,,,,,,,,,,,,,,,,0,0,0,0,0
4.4626,1783965847.2954,1,1,2.0000,-0.0000,1.42241,-0.00888,-2.63274,1.07078,1.57081,0.11675,-0.12763,-0.48146,0.03410,,,,,,,,,,,,,,,,,,,,,,,,,,0,0,0,0,0
4.4684,1783965847.3012,1,1,2.0000,-0.0000,1.42241,-0.00888,-2.63274,1.07078,1.57081,0.11675,-0.12763,-0.48146,0.03410,,,,,,,,,,,,,,,,,,,,,,,,,,0,0,0,0,0
4.4689,1783965847.3017,1,1,2.0000,-0.0000,1.42241,-0.00888,-2.63274,1.07078,1.57081,0.11675,-0.12763,-0.48146,0.03410,,,,,,,,,,,,,,,,,,,,,,,,,,0,0,0,0,0
4.4820,1783965847.3148,1,1,2.0000,-0.0000,1.42241,-0.00891,-2.63275,1.07082,1.57081,0.11675,-0.12763,-0.48146,0.03408,,,,,,,,,,,,,,,,,,,,,,,,,,0,0,0,0,0
4.5038,1783965847.3366,1,1,2.0000,-0.0000,1.42241,-0.00903,-2.63279,1.07096,1.57081,0.11675,-0.12763,-0.48145,0.03404,,,,,,,,,,,,,,,,,,,,,,,,,,0,0,0,0,0
4.5041,1783965847.3369,1,1,2.0000,-0.0000,1.42241,-0.00903,-2.63279,1.07096,1.57081,0.11675,-0.12763,-0.48145,0.03404,,,,,,,,,,,,,,,,,,,,,,,,,,0,0,0,0,0
4.5087,1783965847.3415,1,1,2.0000,-0.0000,1.42241,-0.00904,-2.63279,1.07098,1.57081,0.11675,-0.12763,-0.48145,0.03403,,,,,,,,,,,,,,,,,,,,,,,,,,0,0,0,0,0
4.5134,1783965847.3462,1,1,2.0000,-0.0000,1.42241,-0.00907,-2.63280,1.07101,1.57081,0.11675,-0.12763,-0.48145,0.03402,,,,,,,,,,,,,,,,,,,,,,,,,,0,0,0,0,0
4.5200,1783965847.3528,1,1,2.0000,-0.0000,1.42241,-0.00914,-2.63281,1.07110,1.57081,0.11675,-0.12763,-0.48145,0.03400,,,,,,,,,,,,,,,,,,,,,,,,,,0,0,0,0,0
4.5203,1783965847.3531,1,1,2.0000,-0.0000,1.42241,-0.00914,-2.63281,1.07110,1.57081,0.11675,-0.12763,-0.48145,0.03400,,,,,,,,,,,,,,,,,,,,,,,,,,0,0,0,0,0
4.5368,1783965847.3696,1,1,2.0000,-0.0000,1.42241,-0.00921,-2.63283,1.07118,1.57081,0.11675,-0.12763,-0.48145,0.03397,,,,,,,,,,,,,,,,,,,,,,,,,,0,0,0,0,0
4.5384,1783965847.3712,1,1,2.0000,-0.0000,1.42241,-0.00924,-2.63283,1.07122,1.57081,0.11675,-0.12763,-0.48145,0.03396,,,,,,,,,,,,,,,,,,,,,,,,,,0,0,0,0,0
4.5385,1783965847.3713,1,1,2.0000,-0.0000,1.42241,-0.00924,-2.63283,1.07122,1.57081,0.11675,-0.12763,-0.48145,0.03396,,,,,,,,,,,,,,,,,,,,,,,,,,0,0,0,0,0
4.5508,1783965847.3836,1,1,2.0000,-0.0000,1.42241,-0.00938,-2.63286,1.07138,1.57081,0.11675,-0.12763,-0.48146,0.03392,,,,,,,,,,,,,,,,,,,,,,,,,,0,0,0,0,0
4.5625,1783965847.3953,1,1,2.0000,-0.0000,1.42241,-0.00940,-2.63286,1.07141,1.57081,0.11675,-0.12763,-0.48146,0.03391,,,,,,,,,,,,,,,,,,,,,,,,,,0,0,0,0,0
4.5837,1783965847.4165,1,1,2.0000,-0.0000,1.42241,-0.00959,-2.63289,1.07164,1.57081,0.11675,-0.12762,-0.48147,0.03386,,,,,,,,,,,,,,,,,,,,,,,,,,0,0,0,0,0
4.5917,1783965847.4245,1,1,2.0000,-0.0000,1.42241,-0.00960,-2.63289,1.07164,1.57081,0.11675,-0.12762,-0.48147,0.03385,,,,,,,,,,,,,,,,,,,,,,,,,,0,0,0,0,0
4.5921,1783965847.4249,1,1,2.0000,-0.0000,1.42241,-0.00960,-2.63289,1.07164,1.57081,0.11675,-0.12762,-0.48147,0.03385,,,,,,,,,,,,,,,,,,,,,,,,,,0,0,0,0,0
4.5933,1783965847.4261,1,1,2.0000,-0.0000,1.42241,-0.00960,-2.63289,1.07164,1.57081,0.11675,-0.12762,-0.48147,0.03385,,,,,,,,,,,,,,,,,,,,,,,,,,0,0,0,0,0
4.5996,1783965847.4324,1,1,2.0000,-0.0000,1.42241,-0.00963,-2.63288,1.07168,1.57081,0.11675,-0.12762,-0.48148,0.03385,,,,,,,,,,,,,,,,,,,,,,,,,,0,0,0,0,0
4.6069,1783965847.4397,1,1,2.0000,-0.0000,1.42241,-0.00968,-2.63288,1.07175,1.57081,0.11675,-0.12762,-0.48149,0.03384,,,,,,,,,,,,,,,,,,,,,,,,,,0,0,0,0,0
4.6169,1783965847.4497,1,1,2.0000,-0.0000,1.42241,-0.00974,-2.63287,1.07182,1.57081,0.11675,-0.12762,-0.48150,0.03383,,,,,,,,,,,,,,,,,,,,,,,,,,0,0,0,0,0
4.6172,1783965847.4500,1,1,2.0000,-0.0000,1.42241,-0.00974,-2.63287,1.07182,1.57081,0.11675,-0.12762,-0.48150,0.03383,,,,,,,,,,,,,,,,,,,,,,,,,,0,0,0,0,0
4.6286,1783965847.4614,1,1,2.0000,-0.0000,1.42241,-0.00984,-2.63286,1.07194,1.57081,0.11675,-0.12761,-0.48153,0.03381,,,,,,,,,,,,,,,,,,,,,,,,,,0,0,0,0,0
4.6532,1783965847.4860,1,1,2.0000,-0.0000,1.42241,-0.00993,-2.63281,1.07206,1.57081,0.11675,-0.12761,-0.48159,0.03381,,,,,,,,,,,,,,,,,,,,,,,,,,0,0,0,0,0
4.6681,1783965847.5009,1,1,2.0000,-0.0000,1.42241,-0.00993,-2.63281,1.07206,1.57081,0.11675,-0.12761,-0.48159,0.03381,,,,,,,,,,,,,,,,,,,,,,,,,,0,0,0,0,0
4.6685,1783965847.5013,1,1,2.0000,-0.0000,1.42241,-0.00993,-2.63281,1.07206,1.57081,0.11675,-0.12761,-0.48159,0.03381,,,,,,,,,,,,,,,,,,,,,,,,,,0,0,0,0,0
4.6696,1783965847.5024,1,1,2.0000,-0.0000,1.42241,-0.00993,-2.63281,1.07206,1.57081,0.11675,-0.12761,-0.48159,0.03381,,,,,,,,,,,,,,,,,,,,,,,,,,0,0,0,0,0
4.6700,1783965847.5028,1,1,2.0000,-0.0000,1.42241,-0.00993,-2.63281,1.07206,1.57081,0.11675,-0.12761,-0.48159,0.03381,,,,,,,,,,,,,,,,,,,,,,,,,,0,0,0,0,0
4.6710,1783965847.5038,1,1,2.0000,-0.0000,1.42241,-0.00993,-2.63281,1.07206,1.57081,0.11675,-0.12761,-0.48159,0.03381,,,,,,,,,,,,,,,,,,,,,,,,,,0,0,0,0,0
4.6713,1783965847.5041,1,1,2.0000,-0.0000,1.42241,-0.00993,-2.63281,1.07206,1.57081,0.11675,-0.12761,-0.48159,0.03381,,,,,,,,,,,,,,,,,,,,,,,,,,0,0,0,0,0
4.6767,1783965847.5095,1,1,2.0000,-0.0000,1.42241,-0.00993,-2.63281,1.07206,1.57081,0.11675,-0.12761,-0.48159,0.03381,,,,,,,,,,,,,,,,,,,,,,,,,,0,0,0,0,0
4.6988,1783965847.5316,1,1,2.0000,-0.0000,1.42241,-0.00993,-2.63281,1.07206,1.57081,0.11675,-0.12761,-0.48159,0.03381,,,,,,,,,,,,,,,,,,,,,,,,,,0,0,0,0,0
4.6991,1783965847.5319,1,1,2.0000,-0.0000,1.42241,-0.00993,-2.63281,1.07206,1.57081,0.11675,-0.12761,-0.48159,0.03381,,,,,,,,,,,,,,,,,,,,,,,,,,0,0,0,0,0
4.7020,1783965847.5348,1,1,2.0000,-0.0000,1.42241,-0.00993,-2.63281,1.07206,1.57081,0.11675,-0.12761,-0.48159,0.03381,,,,,,,,,,,,,,,,,,,,,,,,,,0,0,0,0,0
4.7026,1783965847.5354,1,1,2.0000,-0.0000,1.42241,-0.00993,-2.63281,1.07206,1.57081,0.11675,-0.12761,-0.48159,0.03381,,,,,,,,,,,,,,,,,,,,,,,,,,0,0,0,0,0
4.7396,1783965847.5724,1,1,2.0000,-0.0000,1.42241,-0.00993,-2.63281,1.07206,1.57081,0.11675,-0.12761,-0.48159,0.03381,,,,,,,,,,,,,,,,,,,,,,,,,,0,0,0,0,0
4.8402,1783965847.6730,1,1,2.0000,-0.0000,1.42241,-0.00994,-2.63283,1.07208,1.57081,0.11675,-0.12761,-0.48157,0.03380,,,,,,,,,,,,,,,,,,,,,,,,,,0,0,0,0,0
4.8410,1783965847.6738,1,1,2.0000,-0.0000,1.42241,-0.00994,-2.63283,1.07208,1.57081,0.11675,-0.12761,-0.48157,0.03380,,,,,,,,,,,,,,,,,,,,,,,,,,0,0,0,0,0
4.8413,1783965847.6741,1,1,2.0000,-0.0000,1.42241,-0.00994,-2.63283,1.07208,1.57081,0.11675,-0.12761,-0.48157,0.03380,,,,,,,,,,,,,,,,,,,,,,,,,,0,0,0,0,0
4.8431,1783965847.6759,1,1,2.0000,-0.0000,1.42241,-0.00995,-2.63285,1.07209,1.57081,0.11675,-0.12761,-0.48156,0.03379,,,,,,,,,,,,,,,,,,,,,,,,,,0,0,0,0,0
4.8434,1783965847.6762,1,1,2.0000,-0.0000,1.42241,-0.00995,-2.63285,1.07209,1.57081,0.11675,-0.12761,-0.48156,0.03379,,,,,,,,,,,,,,,,,,,,,,,,,,0,0,0,0,0
4.8437,1783965847.6765,1,1,2.0000,-0.0000,1.42241,-0.00995,-2.63285,1.07209,1.57081,0.11675,-0.12761,-0.48156,0.03379,,,,,,,,,,,,,,,,,,,,,,,,,,0,0,0,0,0
4.8482,1783965847.6810,1,1,2.0000,-0.0000,1.42241,-0.00996,-2.63287,1.07210,1.57081,0.11675,-0.12761,-0.48155,0.03378,,,,,,,,,,,,,,,,,,,,,,,,,,0,0,0,0,0
4.8489,1783965847.6817,1,1,2.0000,-0.0000,1.42241,-0.00996,-2.63287,1.07210,1.57081,0.11675,-0.12761,-0.48155,0.03378,,,,,,,,,,,,,,,,,,,,,,,,,,0,0,0,0,0
4.8606,1783965847.6934,1,1,2.0000,-0.0000,1.42241,-0.00997,-2.63289,1.07211,1.57081,0.11675,-0.12761,-0.48153,0.03377,,,,,,,,,,,,,,,,,,,,,,,,,,0,0,0,0,0
4.8636,1783965847.6964,1,1,2.0000,-0.0000,1.42240,-0.00998,-2.63289,1.07212,1.57081,0.11675,-0.12761,-0.48153,0.03376,,,,,,,,,,,,,,,,,,,,,,,,,,0,0,0,0,0
4.8639,1783965847.6967,1,1,2.0000,-0.0000,1.42240,-0.00998,-2.63289,1.07212,1.57081,0.11675,-0.12761,-0.48153,0.03376,,,,,,,,,,,,,,,,,,,,,,,,,,0,0,0,0,0
4.8687,1783965847.7015,1,1,2.0000,-0.0000,1.42240,-0.00999,-2.63291,1.07213,1.57081,0.11675,-0.12761,-0.48152,0.03376,,,,,,,,,,,,,,,,,,,,,,,,,,0,0,0,0,0
4.8708,1783965847.7036,1,1,2.0000,-0.0000,1.42240,-0.01000,-2.63292,1.07215,1.57081,0.11675,-0.12762,-0.48151,0.03375,,,,,,,,,,,,,,,,,,,,,,,,,,0,0,0,0,0
4.8713,1783965847.7041,1,1,2.0000,-0.0000,1.42240,-0.01000,-2.63292,1.07215,1.57081,0.11675,-0.12762,-0.48151,0.03375,,,,,,,,,,,,,,,,,,,,,,,,,,0,0,0,0,0
4.8750,1783965847.7078,1,1,2.0000,-0.0000,1.42240,-0.01002,-2.63294,1.07217,1.57081,0.11675,-0.12762,-0.48150,0.03373,,,,,,,,,,,,,,,,,,,,,,,,,,0,0,0,0,0
4.8754,1783965847.7082,1,1,2.0000,-0.0000,1.42240,-0.01002,-2.63294,1.07217,1.57081,0.11675,-0.12762,-0.48150,0.03373,,,,,,,,,,,,,,,,,,,,,,,,,,0,0,0,0,0
4.8805,1783965847.7133,1,1,2.0000,-0.0000,1.42240,-0.01004,-2.63296,1.07219,1.57081,0.11675,-0.12762,-0.48149,0.03372,,,,,,,,,,,,,,,,,,,,,,,,,,0,0,0,0,0
4.8810,1783965847.7138,1,1,2.0000,-0.0000,1.42240,-0.01004,-2.63296,1.07219,1.57081,0.11675,-0.12762,-0.48149,0.03372,,,,,,,,,,,,,,,,,,,,,,,,,,0,0,0,0,0
4.8813,1783965847.7141,1,1,2.0000,-0.0000,1.42240,-0.01004,-2.63296,1.07219,1.57081,0.11675,-0.12762,-0.48149,0.03372,,,,,,,,,,,,,,,,,,,,,,,,,,0,0,0,0,0
4.8866,1783965847.7194,1,1,2.0000,-0.0000,1.42240,-0.01006,-2.63298,1.07222,1.57081,0.11675,-0.12762,-0.48148,0.03371,,,,,,,,,,,,,,,,,,,,,,,,,,0,0,0,0,0
4.9068,1783965847.7396,1,1,2.0000,-0.0000,1.42240,-0.01015,-2.63301,1.07232,1.57081,0.11675,-0.12762,-0.48147,0.03367,,,,,,,,,,,,,,,,,,,,,,,,,,0,0,0,0,0
4.9170,1783965847.7498,1,1,2.0000,-0.0000,1.42240,-0.01018,-2.63302,1.07236,1.57081,0.11675,-0.12762,-0.48146,0.03365,,,,,,,,,,,,,,,,,,,,,,,,,,0,0,0,0,0
4.9228,1783965847.7556,1,1,2.0000,-0.0000,1.42240,-0.01020,-2.63303,1.07239,1.57081,0.11675,-0.12762,-0.48146,0.03365,,,,,,,,,,,,,,,,,,,,,,,,,,0,0,0,0,0
4.9232,1783965847.7560,1,1,2.0000,-0.0000,1.42240,-0.01020,-2.63303,1.07239,1.57081,0.11675,-0.12762,-0.48146,0.03365,,,,,,,,,,,,,,,,,,,,,,,,,,0,0,0,0,0
4.9308,1783965847.7636,1,1,2.0000,-0.0000,1.42240,-0.01026,-2.63305,1.07246,1.57081,0.11675,-0.12762,-0.48146,0.03362,,,,,,,,,,,,,,,,,,,,,,,,,,0,0,0,0,0
4.9312,1783965847.7640,1,1,2.0000,-0.0000,1.42240,-0.01026,-2.63305,1.07246,1.57081,0.11675,-0.12762,-0.48146,0.03362,,,,,,,,,,,,,,,,,,,,,,,,,,0,0,0,0,0
4.9376,1783965847.7704,1,1,2.0000,-0.0000,1.42240,-0.01031,-2.63306,1.07251,1.57081,0.11675,-0.12762,-0.48146,0.03361,,,,,,,,,,,,,,,,,,,,,,,,,,0,0,0,0,0
4.9379,1783965847.7707,1,1,2.0000,-0.0000,1.42240,-0.01031,-2.63306,1.07251,1.57081,0.11675,-0.12762,-0.48146,0.03361,,,,,,,,,,,,,,,,,,,,,,,,,,0,0,0,0,0
4.9626,1783965847.7954,1,1,2.0000,-0.0000,1.42240,-0.01049,-2.63310,1.07273,1.57081,0.11675,-0.12762,-0.48146,0.03355,,,,,,,,,,,,,,,,,,,,,,,,,,0,0,0,0,0
4.9708,1783965847.8036,1,1,2.0000,-0.0000,1.42240,-0.01057,-2.63311,1.07283,1.57081,0.11675,-0.12762,-0.48146,0.03352,,,,,,,,,,,,,,,,,,,,,,,,,,0,0,0,0,0
4.9716,1783965847.8044,1,1,2.0000,-0.0000,1.42240,-0.01057,-2.63311,1.07283,1.57081,0.11675,-0.12762,-0.48146,0.03352,,,,,,,,,,,,,,,,,,,,,,,,,,0,0,0,0,0
4.9940,1783965847.8268,1,1,2.0000,-0.0000,1.42240,-0.01067,-2.63313,1.07294,1.57081,0.11675,-0.12762,-0.48146,0.03349,,,,,,,,,,,,,,,,,,,,,,,,,,0,0,0,0,0
5.0034,1783965847.8362,1,1,2.0000,-0.0000,1.42240,-0.01077,-2.63314,1.07306,1.57081,0.11675,-0.12762,-0.48147,0.03346,,,,,,,,,,,,,,,,,,,,,,,,,,0,0,0,0,0
5.0168,1783965847.8496,1,1,2.0000,-0.0000,1.42240,-0.01090,-2.63315,1.07322,1.57081,0.11675,-0.12762,-0.48148,0.03342,,,,,,,,,,,,,,,,,,,,,,,,,,0,0,0,0,0
5.0176,1783965847.8504,1,1,2.0000,-0.0000,1.42240,-0.01090,-2.63315,1.07322,1.57081,0.11675,-0.12762,-0.48148,0.03342,,,,,,,,,,,,,,,,,,,,,,,,,,0,0,0,0,0
5.0179,1783965847.8507,1,1,2.0000,-0.0000,1.42240,-0.01090,-2.63315,1.07322,1.57081,0.11675,-0.12762,-0.48148,0.03342,,,,,,,,,,,,,,,,,,,,,,,,,,0,0,0,0,0
5.0237,1783965847.8565,1,1,2.0000,-0.0000,1.42240,-0.01099,-2.63316,1.07333,1.57081,0.11675,-0.12762,-0.48149,0.03340,,,,,,,,,,,,,,,,,,,,,,,,,,0,0,0,0,0
5.0347,1783965847.8676,1,1,2.0000,-0.0000,1.42240,-0.01109,-2.63316,1.07346,1.57081,0.11675,-0.12761,-0.48151,0.03338,,,,,,,,,,,,,,,,,,,,,,,,,,0,0,0,0,0
5.0405,1783965847.8733,1,1,2.0000,-0.0000,1.42240,-0.01111,-2.63315,1.07349,1.57081,0.11675,-0.12761,-0.48152,0.03337,,,,,,,,,,,,,,,,,,,,,,,,,,0,0,0,0,0
5.0408,1783965847.8736,1,1,2.0000,-0.0000,1.42240,-0.01111,-2.63315,1.07349,1.57081,0.11675,-0.12761,-0.48152,0.03337,,,,,,,,,,,,,,,,,,,,,,,,,,0,0,0,0,0
5.1141,1783965847.9469,1,1,2.0000,-0.0000,1.42240,-0.01111,-2.63315,1.07349,1.57081,0.11675,-0.12761,-0.48152,0.03337,,,,,,,,,,,,,,,,,,,,,,,,,,0,0,0,0,0
5.1748,1783965848.0076,1,1,2.0000,-0.0000,1.42240,-0.01111,-2.63315,1.07349,1.57081,0.11675,-0.12761,-0.48152,0.03337,,,,,,,,,,,,,,,,,,,,,,,,,,0,0,0,0,0
5.1750,1783965848.0078,1,1,2.0000,-0.0000,1.42240,-0.01111,-2.63315,1.07349,1.57081,0.11675,-0.12761,-0.48152,0.03337,,,,,,,,,,,,,,,,,,,,,,,,,,0,0,0,0,0
5.1800,1783965848.0128,1,1,2.0000,-0.0000,1.42240,-0.01111,-2.63315,1.07349,1.57081,0.11675,-0.12761,-0.48152,0.03337,,,,,,,,,,,,,,,,,,,,,,,,,,0,0,0,0,0
5.1815,1783965848.0143,1,1,2.0000,-0.0000,1.42240,-0.01111,-2.63315,1.07349,1.57081,0.11675,-0.12761,-0.48152,0.03337,,,,,,,,,,,,,,,,,,,,,,,,,,0,0,0,0,0
5.1826,1783965848.0154,1,1,2.0000,-0.0000,1.42240,-0.01111,-2.63315,1.07349,1.57081,0.11675,-0.12761,-0.48152,0.03337,,,,,,,,,,,,,,,,,,,,,,,,,,0,0,0,0,0
5.1829,1783965848.0157,1,1,2.0000,-0.0000,1.42240,-0.01111,-2.63315,1.07349,1.57081,0.11675,-0.12761,-0.48152,0.03337,,,,,,,,,,,,,,,,,,,,,,,,,,0,0,0,0,0
5.1907,1783965848.0235,1,1,2.0000,-0.0000,1.42240,-0.01111,-2.63315,1.07349,1.57081,0.11675,-0.12761,-0.48152,0.03337,,,,,,,,,,,,,,,,,,,,,,,,,,0,0,0,0,0
5.1951,1783965848.0279,1,1,2.0000,-0.0000,1.42240,-0.01111,-2.63315,1.07349,1.57081,0.11675,-0.12761,-0.48152,0.03337,,,,,,,,,,,,,,,,,,,,,,,,,,0,0,0,0,0
5.1955,1783965848.0283,1,1,2.0000,-0.0000,1.42240,-0.01111,-2.63315,1.07349,1.57081,0.11675,-0.12761,-0.48152,0.03337,,,,,,,,,,,,,,,,,,,,,,,,,,0,0,0,0,0
5.1987,1783965848.0315,1,1,2.0000,-0.0000,1.42240,-0.01111,-2.63315,1.07349,1.57081,0.11675,-0.12761,-0.48152,0.03337,,,,,,,,,,,,,,,,,,,,,,,,,,0,0,0,0,0
5.2078,1783965848.0406,1,1,2.0000,-0.0000,1.42240,-0.01111,-2.63315,1.07349,1.57081,0.11675,-0.12761,-0.48152,0.03337,,,,,,,,,,,,,,,,,,,,,,,,,,0,0,0,0,0
5.2108,1783965848.0436,1,1,2.0000,-0.0000,1.42240,-0.01111,-2.63315,1.07349,1.57081,0.11675,-0.12761,-0.48152,0.03337,,,,,,,,,,,,,,,,,,,,,,,,,,0,0,0,0,0
5.2113,1783965848.0441,1,1,2.0000,-0.0000,1.42240,-0.01111,-2.63315,1.07349,1.57081,0.11675,-0.12761,-0.48152,0.03337,,,,,,,,,,,,,,,,,,,,,,,,,,0,0,0,0,0
5.2128,1783965848.0456,1,1,2.0000,-0.0000,1.42240,-0.01111,-2.63315,1.07349,1.57081,0.11675,-0.12761,-0.48152,0.03337,,,,,,,,,,,,,,,,,,,,,,,,,,0,0,0,0,0
5.2148,1783965848.0476,1,1,2.0000,-0.0000,1.42240,-0.01111,-2.63315,1.07349,1.57081,0.11675,-0.12761,-0.48152,0.03337,,,,,,,,,,,,,,,,,,,,,,,,,,0,0,0,0,0
5.2151,1783965848.0479,1,1,2.0000,-0.0000,1.42240,-0.01111,-2.63315,1.07349,1.57081,0.11675,-0.12761,-0.48152,0.03337,,,,,,,,,,,,,,,,,,,,,,,,,,0,0,0,0,0
5.2327,1783965848.0655,1,1,2.0000,-0.0000,1.42240,-0.01111,-2.63315,1.07349,1.57081,0.11675,-0.12761,-0.48152,0.03337,,,,,,,,,,,,,,,,,,,,,,,,,,0,0,0,0,0
