Martins-Lucaas/twinforge/sensors/Data/20260707_131755__samples.csv
t_rel_s,t_unix,cycle,phase,setpoint_n,force_net_n,q1,q2,q3,q4,q5,q6,tcp_x,tcp_y,tcp_z,taxel_0,taxel_1,taxel_2,taxel_3,taxel_4,taxel_5,taxel_6,taxel_7,taxel_8,taxel_9,taxel_10,taxel_11,taxel_12,taxel_13,taxel_14,taxel_15,taxel_16,taxel_17,taxel_18,taxel_19,taxel_20,taxel_21,taxel_22,taxel_23,taxel_24,n_RA,n_SA,cn_mm,cn_ra,cn_sa
0.0009,1783441075.6226,0,-1,1.0000,0.0000,1.42052,0.14186,-2.66680,1.00202,1.56183,0.11681,-0.13242,-0.45908,0.07207,,,,,,,,,,,,,,,,,,,,,,,,,,0,0,0,0,0
0.0042,1783441075.6259,1,0,1.0000,0.0000,1.42052,0.14186,-2.66680,1.00202,1.56183,0.11681,-0.13242,-0.45908,0.07207,,,,,,,,,,,,,,,,,,,,,,,,,,0,0,0,0,0
0.0123,1783441075.6340,1,0,1.0000,0.0000,1.42052,0.14186,-2.66680,1.00202,1.56183,0.11681,-0.13242,-0.45908,0.07207,,,,,,,,,,,,,,,,,,,,,,,,,,0,0,0,0,0
0.0226,1783441075.6443,1,0,1.0000,0.0000,1.42052,0.14186,-2.66680,1.00202,1.56183,0.11681,-0.13242,-0.45908,0.07207,,,,,,,,,,,,,,,,,,,,,,,,,,0,0,0,0,0
0.0299,1783441075.6516,1,0,1.0000,0.0000,1.42052,0.14186,-2.66680,1.00202,1.56183,0.11681,-0.13242,-0.45908,0.07207,,,,,,,,,,,,,,,,,,,,,,,,,,0,0,0,0,0
0.0417,1783441075.6633,1,0,1.0000,0.0000,1.42052,0.14186,-2.66680,1.00202,1.56183,0.11681,-0.13242,-0.45908,0.07207,,,,,,,,,,,,,,,,,,,,,,,,,,0,0,0,0,0
0.0522,1783441075.6739,1,0,1.0000,0.0000,1.42052,0.14186,-2.66681,1.00206,1.56183,0.11681,-0.13242,-0.45908,0.07207,,,,,,,,,,,,,,,,,,,,,,,,,,0,0,0,0,0
0.0603,1783441075.6820,1,0,1.0000,0.0000,1.42052,0.14186,-2.66682,1.00210,1.56183,0.11681,-0.13242,-0.45909,0.07207,,,,,,,,,,,,,,,,,,,,,,,,,,0,0,0,0,0
0.0702,1783441075.6919,1,0,1.0000,0.0000,1.42052,0.14185,-2.66683,1.00216,1.56183,0.11681,-0.13242,-0.45909,0.07208,,,,,,,,,,,,,,,,,,,,,,,,,,0,0,0,0,0
0.0850,1783441075.7067,1,0,1.0000,0.0000,1.42052,0.14185,-2.66686,1.00228,1.56182,0.11681,-0.13242,-0.45910,0.07208,,,,,,,,,,,,,,,,,,,,,,,,,,0,0,0,0,0
0.0952,1783441075.7169,1,0,1.0000,0.0000,1.42052,0.14185,-2.66687,1.00232,1.56182,0.11682,-0.13242,-0.45910,0.07209,,,,,,,,,,,,,,,,,,,,,,,,,,0,0,0,0,0
0.1061,1783441075.7278,1,0,1.0000,0.0000,1.42052,0.14185,-2.66687,1.00234,1.56182,0.11682,-0.13242,-0.45910,0.07209,,,,,,,,,,,,,,,,,,,,,,,,,,0,0,0,0,0
0.1132,1783441075.7349,1,0,1.0000,0.0000,1.42052,0.14185,-2.66687,1.00234,1.56182,0.11682,-0.13242,-0.45910,0.07209,,,,,,,,,,,,,,,,,,,,,,,,,,0,0,0,0,0
0.1311,1783441075.7528,1,0,1.0000,0.0000,1.42052,0.14185,-2.66687,1.00234,1.56182,0.11682,-0.13242,-0.45910,0.07209,,,,,,,,,,,,,,,,,,,,,,,,,,0,0,0,0,0
0.1345,1783441075.7562,1,0,1.0000,0.0000,1.42052,0.14185,-2.66687,1.00234,1.56182,0.11682,-0.13242,-0.45910,0.07209,,,,,,,,,,,,,,,,,,,,,,,,,,0,0,0,0,0
0.1443,1783441075.7660,1,0,1.0000,0.0000,1.42052,0.14185,-2.66687,1.00234,1.56182,0.11682,-0.13242,-0.45910,0.07209,,,,,,,,,,,,,,,,,,,,,,,,,,0,0,0,0,0
0.1549,1783441075.7766,1,0,1.0000,0.0000,1.42052,0.14185,-2.66687,1.00234,1.56182,0.11682,-0.13242,-0.45910,0.07209,,,,,,,,,,,,,,,,,,,,,,,,,,0,0,0,0,0
0.1665,1783441075.7882,1,0,1.0000,0.0000,1.42052,0.14185,-2.66687,1.00234,1.56182,0.11682,-0.13242,-0.45910,0.07209,,,,,,,,,,,,,,,,,,,,,,,,,,0,0,0,0,0
0.1747,1783441075.7964,1,0,1.0000,0.0000,1.42052,0.14185,-2.66687,1.00234,1.56182,0.11682,-0.13242,-0.45910,0.07209,,,,,,,,,,,,,,,,,,,,,,,,,,0,0,0,0,0
0.1755,1783441075.7972,1,0,1.0000,0.0000,1.42052,0.14185,-2.66687,1.00234,1.56182,0.11682,-0.13242,-0.45910,0.07209,,,,,,,,,,,,,,,,,,,,,,,,,,0,0,0,0,0
0.1854,1783441075.8071,1,0,1.0000,0.0000,1.42052,0.14185,-2.66687,1.00234,1.56182,0.11682,-0.13242,-0.45910,0.07209,,,,,,,,,,,,,,,,,,,,,,,,,,0,0,0,0,0
0.1966,1783441075.8183,1,0,1.0000,0.0000,1.42052,0.14185,-2.66687,1.00234,1.56182,0.11682,-0.13242,-0.45910,0.07209,,,,,,,,,,,,,,,,,,,,,,,,,,0,0,0,0,0
0.1972,1783441075.8189,1,0,1.0000,0.0000,1.42052,0.14185,-2.66687,1.00234,1.56182,0.11682,-0.13242,-0.45910,0.07209,,,,,,,,,,,,,,,,,,,,,,,,,,0,0,0,0,0
0.2047,1783441075.8264,1,0,1.0000,0.0000,1.42052,0.14185,-2.66687,1.00234,1.56182,0.11682,-0.13242,-0.45910,0.07209,,,,,,,,,,,,,,,,,,,,,,,,,,0,0,0,0,0
0.2142,1783441075.8359,1,0,1.0000,0.0000,1.42052,0.14185,-2.66687,1.00234,1.56182,0.11682,-0.13242,-0.45910,0.07209,,,,,,,,,,,,,,,,,,,,,,,,,,0,0,0,0,0
0.2149,1783441075.8366,1,0,1.0000,0.0000,1.42052,0.14185,-2.66687,1.00234,1.56182,0.11682,-0.13242,-0.45910,0.07209,,,,,,,,,,,,,,,,,,,,,,,,,,0,0,0,0,0
0.2312,1783441075.8529,1,0,1.0000,0.0000,1.42052,0.14185,-2.66687,1.00234,1.56182,0.11682,-0.13242,-0.45910,0.07209,,,,,,,,,,,,,,,,,,,,,,,,,,0,0,0,0,0
0.2332,1783441075.8549,1,0,1.0000,0.0000,1.42052,0.14185,-2.66687,1.00234,1.56182,0.11682,-0.13242,-0.45910,0.07209,,,,,,,,,,,,,,,,,,,,,,,,,,0,0,0,0,0
0.2337,1783441075.8554,1,0,1.0000,0.0000,1.42052,0.14185,-2.66687,1.00234,1.56182,0.11682,-0.13242,-0.45910,0.07209,,,,,,,,,,,,,,,,,,,,,,,,,,0,0,0,0,0
0.2450,1783441075.8667,1,0,1.0000,0.0000,1.42052,0.14185,-2.66687,1.00234,1.56182,0.11682,-0.13242,-0.45910,0.07209,,,,,,,,,,,,,,,,,,,,,,,,,,0,0,0,0,0
0.2539,1783441075.8756,1,0,1.0000,0.0000,1.42052,0.14185,-2.66687,1.00234,1.56182,0.11682,-0.13242,-0.45910,0.07209,,,,,,,,,,,,,,,,,,,,,,,,,,0,0,0,0,0
0.2803,1783441075.9020,1,0,1.0000,0.0000,1.42052,0.14185,-2.66687,1.00234,1.56182,0.11682,-0.13242,-0.45910,0.07209,,,,,,,,,,,,,,,,,,,,,,,,,,0,0,0,0,0
0.2808,1783441075.9025,1,0,1.0000,0.0000,1.42052,0.14185,-2.66687,1.00234,1.56182,0.11682,-0.13242,-0.45910,0.07209,,,,,,,,,,,,,,,,,,,,,,,,,,0,0,0,0,0
0.3098,1783441075.9315,1,0,1.0000,0.0000,1.42052,0.14185,-2.66687,1.00234,1.56182,0.11682,-0.13242,-0.45910,0.07209,,,,,,,,,,,,,,,,,,,,,,,,,,0,0,0,0,0
0.3178,1783441075.9394,1,0,1.0000,0.0000,1.42052,0.14185,-2.66687,1.00234,1.56182,0.11682,-0.13242,-0.45910,0.07209,,,,,,,,,,,,,,,,,,,,,,,,,,0,0,0,0,0
0.3191,1783441075.9408,1,0,1.0000,0.0000,1.42052,0.14185,-2.66687,1.00234,1.56182,0.11682,-0.13242,-0.45910,0.07209,,,,,,,,,,,,,,,,,,,,,,,,,,0,0,0,0,0
0.3194,1783441075.9411,1,0,1.0000,0.0000,1.42052,0.14185,-2.66687,1.00234,1.56182,0.11682,-0.13242,-0.45910,0.07209,,,,,,,,,,,,,,,,,,,,,,,,,,0,0,0,0,0
0.3284,1783441075.9501,1,0,1.0000,0.0000,1.42052,0.14185,-2.66687,1.00234,1.56182,0.11682,-0.13242,-0.45910,0.07209,,,,,,,,,,,,,,,,,,,,,,,,,,0,0,0,0,0
0.3289,1783441075.9506,1,0,1.0000,0.0000,1.42052,0.14185,-2.66687,1.00234,1.56182,0.11682,-0.13242,-0.45910,0.07209,,,,,,,,,,,,,,,,,,,,,,,,,,0,0,0,0,0
0.3364,1783441075.9580,1,0,1.0000,0.0000,1.42052,0.14185,-2.66687,1.00234,1.56182,0.11682,-0.13242,-0.45910,0.07209,,,,,,,,,,,,,,,,,,,,,,,,,,0,0,0,0,0
0.3437,1783441075.9654,1,0,1.0000,0.0000,1.42052,0.14185,-2.66687,1.00234,1.56182,0.11682,-0.13242,-0.45910,0.07209,,,,,,,,,,,,,,,,,,,,,,,,,,0,0,0,0,0
0.3535,1783441075.9752,1,0,1.0000,0.0000,1.42052,0.14185,-2.66687,1.00234,1.56182,0.11682,-0.13242,-0.45910,0.07209,,,,,,,,,,,,,,,,,,,,,,,,,,0,0,0,0,0
0.3646,1783441075.9863,1,0,1.0000,0.0000,1.42052,0.14185,-2.66687,1.00234,1.56182,0.11682,-0.13242,-0.45910,0.07209,,,,,,,,,,,,,,,,,,,,,,,,,,0,0,0,0,0
0.3748,1783441075.9965,1,0,1.0000,0.0000,1.42052,0.14185,-2.66687,1.00234,1.56182,0.11682,-0.13242,-0.45910,0.07209,,,,,,,,,,,,,,,,,,,,,,,,,,0,0,0,0,0
0.3754,1783441075.9971,1,0,1.0000,0.0000,1.42052,0.14185,-2.66687,1.00234,1.56182,0.11682,-0.13242,-0.45910,0.07209,,,,,,,,,,,,,,,,,,,,,,,,,,0,0,0,0,0
0.3889,1783441076.0106,1,0,1.0000,0.0000,1.42052,0.14185,-2.66687,1.00234,1.56182,0.11682,-0.13242,-0.45910,0.07209,,,,,,,,,,,,,,,,,,,,,,,,,,0,0,0,0,0
0.3940,1783441076.0157,1,0,1.0000,0.0000,1.42052,0.14185,-2.66687,1.00234,1.56182,0.11682,-0.13242,-0.45910,0.07209,,,,,,,,,,,,,,,,,,,,,,,,,,0,0,0,0,0
0.4035,1783441076.0252,1,0,1.0000,0.0000,1.42052,0.14185,-2.66687,1.00234,1.56182,0.11682,-0.13242,-0.45910,0.07209,,,,,,,,,,,,,,,,,,,,,,,,,,0,0,0,0,0
0.4150,1783441076.0367,1,0,1.0000,0.0000,1.42052,0.14185,-2.66687,1.00234,1.56182,0.11682,-0.13242,-0.45910,0.07209,,,,,,,,,,,,,,,,,,,,,,,,,,0,0,0,0,0
0.4233,1783441076.0450,1,0,1.0000,0.0000,1.42052,0.14185,-2.66687,1.00234,1.56182,0.11682,-0.13242,-0.45910,0.07209,,,,,,,,,,,,,,,,,,,,,,,,,,0,0,0,0,0
0.4236,1783441076.0453,1,0,1.0000,0.0000,1.42052,0.14185,-2.66687,1.00234,1.56182,0.11682,-0.13242,-0.45910,0.07209,,,,,,,,,,,,,,,,,,,,,,,,,,0,0,0,0,0
0.4367,1783441076.0584,1,0,1.0000,0.0000,1.42052,0.14185,-2.66687,1.00234,1.56182,0.11682,-0.13242,-0.45910,0.07209,,,,,,,,,,,,,,,,,,,,,,,,,,0,0,0,0,0
0.4469,1783441076.0686,1,0,1.0000,0.0000,1.42052,0.14185,-2.66687,1.00234,1.56182,0.11682,-0.13242,-0.45910,0.07209,,,,,,,,,,,,,,,,,,,,,,,,,,0,0,0,0,0
0.4564,1783441076.0780,1,0,1.0000,0.0000,1.42052,0.14185,-2.66687,1.00234,1.56182,0.11682,-0.13242,-0.45910,0.07209,,,,,,,,,,,,,,,,,,,,,,,,,,0,0,0,0,0
0.4683,1783441076.0900,1,0,1.0000,0.0000,1.42052,0.14185,-2.66687,1.00234,1.56182,0.11682,-0.13242,-0.45910,0.07209,,,,,,,,,,,,,,,,,,,,,,,,,,0,0,0,0,0
0.4736,1783441076.0953,1,0,1.0000,0.0000,1.42052,0.14185,-2.66687,1.00234,1.56182,0.11682,-0.13242,-0.45910,0.07209,,,,,,,,,,,,,,,,,,,,,,,,,,0,0,0,0,0
0.4904,1783441076.1121,1,0,1.0000,0.0000,1.42052,0.14185,-2.66687,1.00234,1.56182,0.11682,-0.13242,-0.45910,0.07209,,,,,,,,,,,,,,,,,,,,,,,,,,0,0,0,0,0
0.4943,1783441076.1160,1,0,1.0000,0.0000,1.42052,0.14185,-2.66687,1.00234,1.56182,0.11682,-0.13242,-0.45910,0.07209,,,,,,,,,,,,,,,,,,,,,,,,,,0,0,0,0,0
0.5044,1783441076.1261,1,0,1.0000,0.0000,1.42052,0.14185,-2.66687,1.00234,1.56182,0.11682,-0.13242,-0.45910,0.07209,,,,,,,,,,,,,,,,,,,,,,,,,,0,0,0,0,0
0.5048,1783441076.1264,1,0,1.0000,0.0000,1.42052,0.14185,-2.66687,1.00234,1.56182,0.11682,-0.13242,-0.45910,0.07209,,,,,,,,,,,,,,,,,,,,,,,,,,0,0,0,0,0
0.5134,1783441076.1351,1,0,1.0000,0.0000,1.42052,0.14185,-2.66687,1.00234,1.56182,0.11682,-0.13242,-0.45910,0.07209,,,,,,,,,,,,,,,,,,,,,,,,,,0,0,0,0,0
0.5234,1783441076.1451,1,0,1.0000,0.0000,1.42052,0.14185,-2.66687,1.00234,1.56182,0.11682,-0.13242,-0.45910,0.07209,,,,,,,,,,,,,,,,,,,,,,,,,,0,0,0,0,0
0.5399,1783441076.1616,1,0,1.0000,0.0000,1.42052,0.14185,-2.66687,1.00234,1.56182,0.11682,-0.13242,-0.45910,0.07209,,,,,,,,,,,,,,,,,,,,,,,,,,0,0,0,0,0
0.5473,1783441076.1690,1,0,1.0000,0.0000,1.42052,0.14185,-2.66687,1.00234,1.56182,0.11682,-0.13242,-0.45910,0.07209,,,,,,,,,,,,,,,,,,,,,,,,,,0,0,0,0,0
0.5537,1783441076.1754,1,0,1.0000,0.0000,1.42052,0.14185,-2.66687,1.00234,1.56182,0.11682,-0.13242,-0.45910,0.07209,,,,,,,,,,,,,,,,,,,,,,,,,,0,0,0,0,0
0.5646,1783441076.1863,1,0,1.0000,0.0000,1.42052,0.14185,-2.66687,1.00234,1.56182,0.11682,-0.13242,-0.45910,0.07209,,,,,,,,,,,,,,,,,,,,,,,,,,0,0,0,0,0
0.5652,1783441076.1868,1,0,1.0000,0.0000,1.42052,0.14185,-2.66687,1.00234,1.56182,0.11682,-0.13242,-0.45910,0.07209,,,,,,,,,,,,,,,,,,,,,,,,,,0,0,0,0,0
0.5783,1783441076.2000,1,0,1.0000,0.0000,1.42052,0.14185,-2.66687,1.00234,1.56182,0.11682,-0.13242,-0.45910,0.07209,,,,,,,,,,,,,,,,,,,,,,,,,,0,0,0,0,0
0.5834,1783441076.2051,1,0,1.0000,0.0000,1.42052,0.14185,-2.66687,1.00234,1.56182,0.11682,-0.13242,-0.45910,0.07209,,,,,,,,,,,,,,,,,,,,,,,,,,0,0,0,0,0
0.5955,1783441076.2172,1,0,1.0000,0.0000,1.42052,0.14185,-2.66687,1.00234,1.56182,0.11682,-0.13242,-0.45910,0.07209,,,,,,,,,,,,,,,,,,,,,,,,,,0,0,0,0,0
0.6034,1783441076.2251,1,0,1.0000,0.0000,1.42052,0.14185,-2.66687,1.00234,1.56182,0.11682,-0.13242,-0.45910,0.07209,,,,,,,,,,,,,,,,,,,,,,,,,,0,0,0,0,0
0.6038,1783441076.2255,1,0,1.0000,0.0000,1.42052,0.14185,-2.66687,1.00234,1.56182,0.11682,-0.13242,-0.45910,0.07209,,,,,,,,,,,,,,,,,,,,,,,,,,0,0,0,0,0
0.6142,1783441076.2359,1,0,1.0000,0.0000,1.42052,0.14185,-2.66687,1.00234,1.56182,0.11682,-0.13242,-0.45910,0.07209,,,,,,,,,,,,,,,,,,,,,,,,,,0,0,0,0,0
0.6245,1783441076.2462,1,0,1.0000,0.0000,1.42052,0.14185,-2.66687,1.00234,1.56182,0.11682,-0.13242,-0.45910,0.07209,,,,,,,,,,,,,,,,,,,,,,,,,,0,0,0,0,0
0.6336,1783441076.2553,1,0,1.0000,0.0000,1.42052,0.14185,-2.66687,1.00234,1.56182,0.11682,-0.13242,-0.45910,0.07209,,,,,,,,,,,,,,,,,,,,,,,,,,0,0,0,0,0
0.6437,1783441076.2654,1,0,1.0000,0.0000,1.42052,0.14185,-2.66687,1.00234,1.56182,0.11682,-0.13242,-0.45910,0.07209,,,,,,,,,,,,,,,,,,,,,,,,,,0,0,0,0,0
0.6565,1783441076.2782,1,0,1.0000,0.0000,1.42052,0.14185,-2.66687,1.00234,1.56182,0.11682,-0.13242,-0.45910,0.07209,,,,,,,,,,,,,,,,,,,,,,,,,,0,0,0,0,0
0.6642,1783441076.2859,1,0,1.0000,0.0000,1.42052,0.14185,-2.66687,1.00234,1.56182,0.11682,-0.13242,-0.45910,0.07209,,,,,,,,,,,,,,,,,,,,,,,,,,0,0,0,0,0
0.6736,1783441076.2953,1,0,1.0000,0.0000,1.42052,0.14185,-2.66687,1.00234,1.56182,0.11682,-0.13242,-0.45910,0.07209,,,,,,,,,,,,,,,,,,,,,,,,,,0,0,0,0,0
0.6834,1783441076.3051,1,0,1.0000,0.0000,1.42051,0.14185,-2.66688,1.00234,1.56182,0.11682,-0.13242,-0.45910,0.07208,,,,,,,,,,,,,,,,,,,,,,,,,,0,0,0,0,0
0.6965,1783441076.3182,1,0,1.0000,0.0000,1.42049,0.14186,-2.66691,1.00234,1.56182,0.11684,-0.13241,-0.45909,0.07207,,,,,,,,,,,,,,,,,,,,,,,,,,0,0,0,0,0
0.7045,1783441076.3262,1,0,1.0000,0.0000,1.42048,0.14186,-2.66692,1.00234,1.56182,0.11684,-0.13241,-0.45908,0.07207,,,,,,,,,,,,,,,,,,,,,,,,,,0,0,0,0,0
0.7173,1783441076.3390,1,0,1.0000,0.0000,1.42043,0.14187,-2.66694,1.00233,1.56182,0.11689,-0.13239,-0.45907,0.07206,,,,,,,,,,,,,,,,,,,,,,,,,,0,0,0,0,0
0.7233,1783441076.3450,1,0,1.0000,0.0000,1.42040,0.14188,-2.66696,1.00233,1.56182,0.11692,-0.13238,-0.45906,0.07205,,,,,,,,,,,,,,,,,,,,,,,,,,0,0,0,0,0
0.7443,1783441076.3660,1,0,1.0000,0.0000,1.42015,0.14195,-2.66704,1.00232,1.56181,0.11715,-0.13229,-0.45905,0.07204,,,,,,,,,,,,,,,,,,,,,,,,,,0,0,0,0,0
0.7448,1783441076.3665,1,0,1.0000,0.0000,1.42015,0.14195,-2.66704,1.00232,1.56181,0.11715,-0.13229,-0.45905,0.07204,,,,,,,,,,,,,,,,,,,,,,,,,,0,0,0,0,0
0.7538,1783441076.3755,1,0,1.0000,0.0000,1.41993,0.14201,-2.66709,1.00231,1.56181,0.11737,-0.13220,-0.45904,0.07204,,,,,,,,,,,,,,,,,,,,,,,,,,0,0,0,0,0
0.7543,1783441076.3760,1,0,1.0000,0.0000,1.41993,0.14201,-2.66709,1.00231,1.56181,0.11737,-0.13220,-0.45904,0.07204,,,,,,,,,,,,,,,,,,,,,,,,,,0,0,0,0,0
0.7685,1783441076.3902,1,0,1.0000,0.0000,1.41969,0.14207,-2.66715,1.00230,1.56180,0.11760,-0.13212,-0.45904,0.07203,,,,,,,,,,,,,,,,,,,,,,,,,,0,0,0,0,0
0.7690,1783441076.3907,1,0,1.0000,0.0000,1.41969,0.14207,-2.66715,1.00230,1.56180,0.11760,-0.13212,-0.45904,0.07203,,,,,,,,,,,,,,,,,,,,,,,,,,0,0,0,0,0
0.7746,1783441076.3963,1,0,1.0000,0.0000,1.41957,0.14211,-2.66717,1.00230,1.56180,0.11771,-0.13207,-0.45904,0.07204,,,,,,,,,,,,,,,,,,,,,,,,,,0,0,0,0,0
0.7844,1783441076.4061,1,0,1.0000,0.0000,1.41899,0.14227,-2.66729,1.00226,1.56177,0.11829,-0.13185,-0.45905,0.07204,,,,,,,,,,,,,,,,,,,,,,,,,,0,0,0,0,0
0.7849,1783441076.4066,1,0,1.0000,0.0000,1.41899,0.14227,-2.66729,1.00226,1.56177,0.11829,-0.13185,-0.45905,0.07204,,,,,,,,,,,,,,,,,,,,,,,,,,0,0,0,0,0
0.7981,1783441076.4198,1,0,1.0000,0.0000,1.41869,0.14235,-2.66735,1.00224,1.56176,0.11858,-0.13174,-0.45905,0.07204,,,,,,,,,,,,,,,,,,,,,,,,,,0,0,0,0,0
0.7986,1783441076.4203,1,0,1.0000,0.0000,1.41869,0.14235,-2.66735,1.00224,1.56176,0.11858,-0.13174,-0.45905,0.07204,,,,,,,,,,,,,,,,,,,,,,,,,,0,0,0,0,0
0.8044,1783441076.4261,1,0,1.0000,0.0000,1.41837,0.14244,-2.66741,1.00222,1.56175,0.11891,-0.13162,-0.45905,0.07204,,,,,,,,,,,,,,,,,,,,,,,,,,0,0,0,0,0
0.8135,1783441076.4352,1,0,1.0000,0.0000,1.41779,0.14260,-2.66752,1.00218,1.56173,0.11948,-0.13140,-0.45906,0.07205,,,,,,,,,,,,,,,,,,,,,,,,,,0,0,0,0,0
0.8251,1783441076.4468,1,0,1.0000,0.0000,1.41755,0.14267,-2.66757,1.00216,1.56172,0.11972,-0.13131,-0.45906,0.07205,,,,,,,,,,,,,,,,,,,,,,,,,,0,0,0,0,0
0.8255,1783441076.4472,1,0,1.0000,0.0000,1.41755,0.14267,-2.66757,1.00216,1.56172,0.11972,-0.13131,-0.45906,0.07205,,,,,,,,,,,,,,,,,,,,,,,,,,0,0,0,0,0
0.8339,1783441076.4556,1,0,1.0000,0.0000,1.41690,0.14284,-2.66769,1.00212,1.56169,0.12037,-0.13107,-0.45907,0.07205,,,,,,,,,,,,,,,,,,,,,,,,,,0,0,0,0,0
0.8460,1783441076.4677,1,0,1.0000,0.0000,1.41544,0.14324,-2.66797,1.00201,1.56162,0.12183,-0.13052,-0.45909,0.07206,,,,,,,,,,,,,,,,,,,,,,,,,,0,0,0,0,0
0.8463,1783441076.4680,1,0,1.0000,0.0000,1.41544,0.14324,-2.66797,1.00201,1.56162,0.12183,-0.13052,-0.45909,0.07206,,,,,,,,,,,,,,,,,,,,,,,,,,0,0,0,0,0
0.8544,1783441076.4761,1,0,1.0000,0.0000,1.41538,0.14326,-2.66798,1.00200,1.56162,0.12189,-0.13050,-0.45909,0.07206,,,,,,,,,,,,,,,,,,,,,,,,,,0,0,0,0,0
0.8644,1783441076.4861,1,0,1.0000,0.0000,1.41459,0.14348,-2.66813,1.00194,1.56159,0.12268,-0.13020,-0.45910,0.07207,,,,,,,,,,,,,,,,,,,,,,,,,,0,0,0,0,0
0.8648,1783441076.4865,1,0,1.0000,0.0000,1.41459,0.14348,-2.66813,1.00194,1.56159,0.12268,-0.13020,-0.45910,0.07207,,,,,,,,,,,,,,,,,,,,,,,,,,0,0,0,0,0
0.8776,1783441076.4993,1,0,1.0000,0.0000,1.41318,0.14386,-2.66840,1.00184,1.56153,0.12410,-0.12967,-0.45912,0.07208,,,,,,,,,,,,,,,,,,,,,,,,,,0,0,0,0,0
0.8779,1783441076.4996,1,0,1.0000,0.0000,1.41318,0.14386,-2.66840,1.00184,1.56153,0.12410,-0.12967,-0.45912,0.07208,,,,,,,,,,,,,,,,,,,,,,,,,,0,0,0,0,0
0.8842,1783441076.5059,1,0,1.0000,0.0000,1.41263,0.14401,-2.66850,1.00179,1.56150,0.12464,-0.12947,-0.45912,0.07208,,,,,,,,,,,,,,,,,,,,,,,,,,0,0,0,0,0
0.8947,1783441076.5163,1,0,1.0000,0.0000,1.41244,0.14406,-2.66854,1.00178,1.56149,0.12483,-0.12940,-0.45913,0.07208,,,,,,,,,,,,,,,,,,,,,,,,,,0,0,0,0,0
0.9047,1783441076.5264,1,0,1.0000,0.0000,1.41158,0.14429,-2.66870,1.00171,1.56145,0.12569,-0.12908,-0.45913,0.07208,,,,,,,,,,,,,,,,,,,,,,,,,,0,0,0,0,0
0.9052,1783441076.5269,1,0,1.0000,0.0000,1.41158,0.14429,-2.66870,1.00171,1.56145,0.12569,-0.12908,-0.45913,0.07208,,,,,,,,,,,,,,,,,,,,,,,,,,0,0,0,0,0
0.9140,1783441076.5357,1,0,1.0000,0.0000,1.41153,0.14431,-2.66871,1.00171,1.56145,0.12574,-0.12906,-0.45913,0.07208,,,,,,,,,,,,,,,,,,,,,,,,,,0,0,0,0,0
0.9234,1783441076.5451,1,0,1.0000,0.0000,1.41117,0.14441,-2.66878,1.00168,1.56143,0.12610,-0.12892,-0.45914,0.07208,,,,,,,,,,,,,,,,,,,,,,,,,,0,0,0,0,0
0.9462,1783441076.5679,1,0,1.0000,0.0000,1.40972,0.14480,-2.66906,1.00155,1.56137,0.12755,-0.12839,-0.45914,0.07208,,,,,,,,,,,,,,,,,,,,,,,,,,0,0,0,0,0
0.9483,1783441076.5699,1,0,1.0000,0.0000,1.40962,0.14482,-2.66908,1.00155,1.56136,0.12764,-0.12835,-0.45915,0.07208,,,,,,,,,,,,,,,,,,,,,,,,,,0,0,0,0,0
0.9543,1783441076.5760,1,0,1.0000,0.0000,1.40948,0.14486,-2.66911,1.00153,1.56136,0.12779,-0.12830,-0.45915,0.07208,,,,,,,,,,,,,,,,,,,,,,,,,,0,0,0,0,0
0.9637,1783441076.5854,1,0,1.0000,0.0000,1.40907,0.14497,-2.66918,1.00150,1.56134,0.12820,-0.12814,-0.45915,0.07209,,,,,,,,,,,,,,,,,,,,,,,,,,0,0,0,0,0
0.9736,1783441076.5952,1,0,1.0000,0.0000,1.40856,0.14511,-2.66928,1.00145,1.56131,0.12871,-0.12795,-0.45915,0.07209,,,,,,,,,,,,,,,,,,,,,,,,,,0,0,0,0,0
0.9832,1783441076.6048,1,0,1.0000,0.0000,1.40848,0.14513,-2.66929,1.00145,1.56131,0.12878,-0.12793,-0.45915,0.07209,,,,,,,,,,,,,,,,,,,,,,,,,,0,0,0,0,0
0.9836,1783441076.6053,1,0,1.0000,0.0000,1.40848,0.14513,-2.66929,1.00145,1.56131,0.12878,-0.12793,-0.45915,0.07209,,,,,,,,,,,,,,,,,,,,,,,,,,0,0,0,0,0
0.9843,1783441076.6060,1,0,1.0000,0.0000,1.40840,0.14515,-2.66930,1.00144,1.56130,0.12887,-0.12789,-0.45916,0.07209,,,,,,,,,,,,,,,,,,,,,,,,,,0,0,0,0,0
0.9954,1783441076.6170,1,0,1.0000,0.0000,1.40816,0.14522,-2.66934,1.00141,1.56129,0.12912,-0.12780,-0.45916,0.07209,,,,,,,,,,,,,,,,,,,,,,,,,,0,0,0,0,0
1.0067,1783441076.6284,1,0,1.0000,0.0000,1.40770,0.14534,-2.66941,1.00137,1.56127,0.12958,-0.12763,-0.45918,0.07211,,,,,,,,,,,,,,,,,,,,,,,,,,0,0,0,0,0
1.0163,1783441076.6380,1,0,1.0000,0.0000,1.40727,0.14546,-2.66945,1.00133,1.56124,0.13001,-0.12747,-0.45921,0.07212,,,,,,,,,,,,,,,,,,,,,,,,,,0,0,0,0,0
1.0262,1783441076.6479,1,0,1.0000,0.0000,1.40707,0.14551,-2.66947,1.00131,1.56123,0.13022,-0.12739,-0.45923,0.07214,,,,,,,,,,,,,,,,,,,,,,,,,,0,0,0,0,0
1.0359,1783441076.6576,1,1,1.0000,0.0000,1.40699,0.14554,-2.66945,1.00130,1.56123,0.13030,-0.12736,-0.45925,0.07215,,,,,,,,,,,,,,,,,,,,,,,,,,0,0,0,0,0
1.0437,1783441076.6654,1,1,1.0000,0.0000,1.40699,0.14554,-2.66945,1.00130,1.56123,0.13030,-0.12736,-0.45925,0.07215,,,,,,,,,,,,,,,,,,,,,,,,,,0,0,0,0,0
1.0544,1783441076.6761,1,1,1.0000,0.0000,1.40699,0.14554,-2.66945,1.00130,1.56123,0.13030,-0.12736,-0.45925,0.07215,,,,,,,,,,,,,,,,,,,,,,,,,,0,0,0,0,0
1.0661,1783441076.6878,1,1,1.0000,0.0000,1.40699,0.14554,-2.66945,1.00130,1.56123,0.13030,-0.12736,-0.45925,0.07215,,,,,,,,,,,,,,,,,,,,,,,,,,0,0,0,0,0
1.0742,1783441076.6959,1,1,1.0000,0.0000,1.40699,0.14554,-2.66945,1.00130,1.56123,0.13030,-0.12736,-0.45925,0.07215,,,,,,,,,,,,,,,,,,,,,,,,,,0,0,0,0,0
1.0833,1783441076.7049,1,1,1.0000,0.0000,1.40699,0.14554,-2.66945,1.00130,1.56123,0.13030,-0.12736,-0.45925,0.07215,,,,,,,,,,,,,,,,,,,,,,,,,,0,0,0,0,0
1.0838,1783441076.7055,1,1,1.0000,0.0000,1.40699,0.14554,-2.66945,1.00130,1.56123,0.13030,-0.12736,-0.45925,0.07215,,,,,,,,,,,,,,,,,,,,,,,,,,0,0,0,0,0
1.0934,1783441076.7150,1,1,1.0000,0.0000,1.40699,0.14554,-2.66945,1.00130,1.56123,0.13030,-0.12736,-0.45925,0.07215,,,,,,,,,,,,,,,,,,,,,,,,,,0,0,0,0,0
1.1070,1783441076.7287,1,1,1.0000,0.0000,1.40699,0.14554,-2.66945,1.00130,1.56123,0.13030,-0.12736,-0.45925,0.07215,,,,,,,,,,,,,,,,,,,,,,,,,,0,0,0,0,0
1.1155,1783441076.7372,1,1,1.0000,0.0000,1.40699,0.14554,-2.66945,1.00130,1.56123,0.13030,-0.12736,-0.45925,0.07215,,,,,,,,,,,,,,,,,,,,,,,,,,0,0,0,0,0
1.1288,1783441076.7505,1,1,1.0000,0.0000,1.40699,0.14554,-2.66945,1.00130,1.56123,0.13030,-0.12736,-0.45925,0.07215,,,,,,,,,,,,,,,,,,,,,,,,,,0,0,0,0,0
1.1342,1783441076.7559,1,1,1.0000,0.0000,1.40699,0.14554,-2.66945,1.00130,1.56123,0.13030,-0.12736,-0.45925,0.07215,,,,,,,,,,,,,,,,,,,,,,,,,,0,0,0,0,0
1.1510,1783441076.7727,1,1,1.0000,0.0000,1.40699,0.14554,-2.66945,1.00130,1.56123,0.13030,-0.12736,-0.45925,0.07215,,,,,,,,,,,,,,,,,,,,,,,,,,0,0,0,0,0
1.1536,1783441076.7753,1,1,1.0000,0.0000,1.40699,0.14554,-2.66945,1.00130,1.56123,0.13030,-0.12736,-0.45925,0.07215,,,,,,,,,,,,,,,,,,,,,,,,,,0,0,0,0,0
1.1663,1783441076.7880,1,1,1.0000,0.0000,1.40699,0.14554,-2.66945,1.00130,1.56123,0.13030,-0.12736,-0.45925,0.07215,,,,,,,,,,,,,,,,,,,,,,,,,,0,0,0,0,0
1.1740,1783441076.7957,1,1,1.0000,0.0000,1.40699,0.14554,-2.66945,1.00130,1.56123,0.13030,-0.12736,-0.45925,0.07215,,,,,,,,,,,,,,,,,,,,,,,,,,0,0,0,0,0
1.1844,1783441076.8061,1,1,1.0000,0.0000,1.40699,0.14554,-2.66945,1.00130,1.56123,0.13030,-0.12736,-0.45925,0.07215,,,,,,,,,,,,,,,,,,,,,,,,,,0,0,0,0,0
1.1934,1783441076.8151,1,1,1.0000,0.0000,1.40699,0.14554,-2.66945,1.00130,1.56123,0.13030,-0.12736,-0.45925,0.07215,,,,,,,,,,,,,,,,,,,,,,,,,,0,0,0,0,0
1.2071,1783441076.8287,1,1,1.0000,0.0000,1.40699,0.14554,-2.66945,1.00130,1.56123,0.13030,-0.12736,-0.45925,0.07215,,,,,,,,,,,,,,,,,,,,,,,,,,0,0,0,0,0
1.2142,1783441076.8359,1,1,1.0000,0.0000,1.40699,0.14554,-2.66945,1.00130,1.56123,0.13030,-0.12736,-0.45925,0.07215,,,,,,,,,,,,,,,,,,,,,,,,,,0,0,0,0,0
1.2147,1783441076.8364,1,1,1.0000,0.0000,1.40699,0.14554,-2.66945,1.00130,1.56123,0.13030,-0.12736,-0.45925,0.07215,,,,,,,,,,,,,,,,,,,,,,,,,,0,0,0,0,0
1.2252,1783441076.8469,1,1,1.0000,0.0000,1.40699,0.14554,-2.66945,1.00130,1.56123,0.13030,-0.12736,-0.45925,0.07215,,,,,,,,,,,,,,,,,,,,,,,,,,0,0,0,0,0
1.2335,1783441076.8552,1,1,1.0000,0.0000,1.40699,0.14554,-2.66945,1.00130,1.56123,0.13030,-0.12736,-0.45925,0.07215,,,,,,,,,,,,,,,,,,,,,,,,,,0,0,0,0,0
1.2434,1783441076.8651,1,1,1.0000,0.0000,1.40699,0.14554,-2.66945,1.00130,1.56123,0.13030,-0.12736,-0.45925,0.07215,,,,,,,,,,,,,,,,,,,,,,,,,,0,0,0,0,0
1.2566,1783441076.8783,1,1,1.0000,0.0000,1.40699,0.14554,-2.66945,1.00130,1.56123,0.13030,-0.12736,-0.45925,0.07215,,,,,,,,,,,,,,,,,,,,,,,,,,0,0,0,0,0
1.2707,1783441076.8924,1,1,1.0000,0.0000,1.40699,0.14554,-2.66945,1.00130,1.56123,0.13030,-0.12736,-0.45925,0.07215,,,,,,,,,,,,,,,,,,,,,,,,,,0,0,0,0,0
1.2733,1783441076.8950,1,1,1.0000,0.0000,1.40699,0.14554,-2.66945,1.00130,1.56123,0.13030,-0.12736,-0.45925,0.07215,,,,,,,,,,,,,,,,,,,,,,,,,,0,0,0,0,0
1.2853,1783441076.9070,1,1,1.0000,0.0000,1.40699,0.14554,-2.66945,1.00130,1.56123,0.13030,-0.12736,-0.45925,0.07215,,,,,,,,,,,,,,,,,,,,,,,,,,0,0,0,0,0
1.2944,1783441076.9161,1,1,1.0000,0.0000,1.40699,0.14554,-2.66945,1.00130,1.56123,0.13030,-0.12736,-0.45925,0.07215,,,,,,,,,,,,,,,,,,,,,,,,,,0,0,0,0,0
1.3046,1783441076.9263,1,1,1.0000,0.0000,1.40699,0.14554,-2.66945,1.00130,1.56123,0.13030,-0.12736,-0.45925,0.07215,,,,,,,,,,,,,,,,,,,,,,,,,,0,0,0,0,0
1.3051,1783441076.9267,1,1,1.0000,0.0000,1.40699,0.14554,-2.66945,1.00130,1.56123,0.13030,-0.12736,-0.45925,0.07215,,,,,,,,,,,,,,,,,,,,,,,,,,0,0,0,0,0
1.3150,1783441076.9367,1,1,1.0000,0.0000,1.40699,0.14554,-2.66945,1.00130,1.56123,0.13030,-0.12736,-0.45925,0.07215,,,,,,,,,,,,,,,,,,,,,,,,,,0,0,0,0,0
1.3150,1783441076.9367,1,1,1.0000,0.0000,1.40699,0.14554,-2.66945,1.00130,1.56123,0.13030,-0.12736,-0.45925,0.07215,,,,,,,,,,,,,,,,,,,,,,,,,,0,0,0,0,0
1.3245,1783441076.9462,1,1,1.0000,0.0000,1.40699,0.14554,-2.66945,1.00130,1.56123,0.13030,-0.12736,-0.45925,0.07215,,,,,,,,,,,,,,,,,,,,,,,,,,0,0,0,0,0
1.3250,1783441076.9467,1,1,1.0000,0.0000,1.40699,0.14554,-2.66945,1.00130,1.56123,0.13030,-0.12736,-0.45925,0.07215,,,,,,,,,,,,,,,,,,,,,,,,,,0,0,0,0,0
1.3347,1783441076.9564,1,1,1.0000,0.0000,1.40699,0.14554,-2.66945,1.00130,1.56123,0.13030,-0.12736,-0.45925,0.07215,,,,,,,,,,,,,,,,,,,,,,,,,,0,0,0,0,0
1.3352,1783441076.9568,1,1,1.0000,0.0000,1.40699,0.14554,-2.66945,1.00130,1.56123,0.13030,-0.12736,-0.45925,0.07215,,,,,,,,,,,,,,,,,,,,,,,,,,0,0,0,0,0
1.3356,1783441076.9573,1,1,1.0000,0.0000,1.40699,0.14554,-2.66945,1.00130,1.56123,0.13030,-0.12736,-0.45925,0.07215,,,,,,,,,,,,,,,,,,,,,,,,,,0,0,0,0,0
1.3448,1783441076.9665,1,1,1.0000,0.0000,1.40699,0.14554,-2.66945,1.00130,1.56123,0.13030,-0.12736,-0.45925,0.07215,,,,,,,,,,,,,,,,,,,,,,,,,,0,0,0,0,0
1.3581,1783441076.9798,1,1,1.0000,0.0000,1.40699,0.14554,-2.66945,1.00130,1.56123,0.13030,-0.12736,-0.45925,0.07215,,,,,,,,,,,,,,,,,,,,,,,,,,0,0,0,0,0
1.3634,1783441076.9851,1,1,1.0000,0.0000,1.40699,0.14554,-2.66945,1.00130,1.56123,0.13030,-0.12736,-0.45925,0.07215,,,,,,,,,,,,,,,,,,,,,,,,,,0,0,0,0,0
1.3638,1783441076.9855,1,1,1.0000,0.0000,1.40699,0.14554,-2.66945,1.00130,1.56123,0.13030,-0.12736,-0.45925,0.07215,,,,,,,,,,,,,,,,,,,,,,,,,,0,0,0,0,0
1.3736,1783441076.9953,1,1,1.0000,0.0000,1.40699,0.14554,-2.66945,1.00130,1.56123,0.13030,-0.12736,-0.45925,0.07215,,,,,,,,,,,,,,,,,,,,,,,,,,0,0,0,0,0
1.3839,1783441077.0056,1,1,1.0000,0.0000,1.40699,0.14554,-2.66945,1.00130,1.56123,0.13030,-0.12736,-0.45925,0.07215,,,,,,,,,,,,,,,,,,,,,,,,,,0,0,0,0,0
1.3931,1783441077.0148,1,1,1.0000,0.0000,1.40699,0.14554,-2.66945,1.00130,1.56123,0.13030,-0.12736,-0.45925,0.07215,,,,,,,,,,,,,,,,,,,,,,,,,,0,0,0,0,0
1.3934,1783441077.0151,1,1,1.0000,0.0000,1.40699,0.14554,-2.66945,1.00130,1.56123,0.13030,-0.12736,-0.45925,0.07215,,,,,,,,,,,,,,,,,,,,,,,,,,0,0,0,0,0
1.3939,1783441077.0156,1,1,1.0000,0.0000,1.40699,0.14554,-2.66945,1.00130,1.56123,0.13030,-0.12736,-0.45925,0.07215,,,,,,,,,,,,,,,,,,,,,,,,,,0,0,0,0,0
1.4050,1783441077.0267,1,1,1.0000,0.0000,1.40699,0.14554,-2.66945,1.00130,1.56123,0.13030,-0.12736,-0.45925,0.07215,,,,,,,,,,,,,,,,,,,,,,,,,,0,0,0,0,0
1.4055,1783441077.0272,1,1,1.0000,0.0000,1.40699,0.14554,-2.66945,1.00130,1.56123,0.13030,-0.12736,-0.45925,0.07215,,,,,,,,,,,,,,,,,,,,,,,,,,0,0,0,0,0
1.4148,1783441077.0365,1,1,1.0000,0.0000,1.40699,0.14554,-2.66945,1.00130,1.56123,0.13030,-0.12736,-0.45925,0.07215,,,,,,,,,,,,,,,,,,,,,,,,,,0,0,0,0,0
1.4266,1783441077.0483,1,1,1.0000,0.0000,1.40700,0.14553,-2.66945,1.00129,1.56123,0.13030,-0.12736,-0.45925,0.07215,,,,,,,,,,,,,,,,,,,,,,,,,,0,0,0,0,0
1.4353,1783441077.0570,1,1,1.0000,0.0000,1.40701,0.14553,-2.66945,1.00129,1.56123,0.13029,-0.12737,-0.45924,0.07215,,,,,,,,,,,,,,,,,,,,,,,,,,0,0,0,0,0
1.4436,1783441077.0653,1,1,1.0000,0.0000,1.40704,0.14552,-2.66945,1.00129,1.56122,0.13029,-0.12738,-0.45924,0.07215,,,,,,,,,,,,,,,,,,,,,,,,,,0,0,0,0,0
1.4444,1783441077.0661,1,1,1.0000,0.0000,1.40705,0.14552,-2.66945,1.00128,1.56122,0.13029,-0.12739,-0.45923,0.07214,,,,,,,,,,,,,,,,,,,,,,,,,,0,0,0,0,0
1.4610,1783441077.0827,1,1,1.0000,0.0000,1.40709,0.14551,-2.66944,1.00128,1.56122,0.13028,-0.12741,-0.45923,0.07214,,,,,,,,,,,,,,,,,,,,,,,,,,0,0,0,0,0
1.4643,1783441077.0860,1,1,1.0000,0.0000,1.40711,0.14551,-2.66944,1.00128,1.56122,0.13026,-0.12742,-0.45923,0.07214,,,,,,,,,,,,,,,,,,,,,,,,,,0,0,0,0,0
1.4764,1783441077.0981,1,1,1.0000,0.0000,1.40723,0.14547,-2.66941,1.00128,1.56122,0.13016,-0.12746,-0.45923,0.07214,,,,,,,,,,,,,,,,,,,,,,,,,,0,0,0,0,0
1.4848,1783441077.1065,1,1,1.0000,0.0000,1.40725,0.14547,-2.66941,1.00128,1.56122,0.13015,-0.12747,-0.45923,0.07214,,,,,,,,,,,,,,,,,,,,,,,,,,0,0,0,0,0
1.4951,1783441077.1167,1,1,1.0000,0.0000,1.40739,0.14543,-2.66938,1.00128,1.56122,0.13002,-0.12752,-0.45923,0.07214,,,,,,,,,,,,,,,,,,,,,,,,,,0,0,0,0,0
1.5064,1783441077.1280,1,1,1.0000,0.0000,1.40780,0.14532,-2.66930,1.00130,1.56123,0.12963,-0.12768,-0.45922,0.07214,,,,,,,,,,,,,,,,,,,,,,,,,,0,0,0,0,0
1.5174,1783441077.1391,1,1,1.0000,0.0000,1.40817,0.14522,-2.66923,1.00131,1.56123,0.12928,-0.12783,-0.45921,0.07213,,,,,,,,,,,,,,,,,,,,,,,,,,0,0,0,0,0
1.5323,1783441077.1540,1,1,1.0000,0.0000,1.40859,0.14511,-2.66916,1.00134,1.56124,0.12888,-0.12799,-0.45921,0.07213,,,,,,,,,,,,,,,,,,,,,,,,,,0,0,0,0,0
1.5365,1783441077.1582,1,1,1.0000,0.0000,1.40881,0.14505,-2.66912,1.00135,1.56125,0.12867,-0.12807,-0.45920,0.07212,,,,,,,,,,,,,,,,,,,,,,,,,,0,0,0,0,0
1.5485,1783441077.1702,1,1,1.0000,0.0000,1.40900,0.14500,-2.66909,1.00136,1.56125,0.12848,-0.12814,-0.45920,0.07212,,,,,,,,,,,,,,,,,,,,,,,,,,0,0,0,0,0
1.5554,1783441077.1771,1,1,1.0000,0.0000,1.40922,0.14494,-2.66904,1.00138,1.56126,0.12826,-0.12822,-0.45920,0.07212,,,,,,,,,,,,,,,,,,,,,,,,,,0,0,0,0,0
1.5674,1783441077.1891,1,1,1.0000,0.0000,1.41024,0.14466,-2.66885,1.00145,1.56130,0.12724,-0.12861,-0.45918,0.07211,,,,,,,,,,,,,,,,,,,,,,,,,,0,0,0,0,0
1.5679,1783441077.1896,1,1,1.0000,0.0000,1.41024,0.14466,-2.66885,1.00145,1.56130,0.12724,-0.12861,-0.45918,0.07211,,,,,,,,,,,,,,,,,,,,,,,,,,0,0,0,0,0
1.5734,1783441077.1951,1,1,1.0000,0.0000,1.41067,0.14455,-2.66877,1.00148,1.56131,0.12682,-0.12877,-0.45918,0.07211,,,,,,,,,,,,,,,,,,,,,,,,,,0,0,0,0,0
1.5862,1783441077.2079,1,1,1.0000,0.0000,1.41112,0.14442,-2.66869,1.00151,1.56133,0.12637,-0.12894,-0.45917,0.07211,,,,,,,,,,,,,,,,,,,,,,,,,,0,0,0,0,0
1.5964,1783441077.2181,1,1,1.0000,0.0000,1.41183,0.14423,-2.66856,1.00156,1.56136,0.12566,-0.12920,-0.45916,0.07210,,,,,,,,,,,,,,,,,,,,,,,,,,0,0,0,0,0
1.6044,1783441077.2260,1,1,1.0000,0.0000,1.41209,0.14416,-2.66851,1.00158,1.56137,0.12540,-0.12930,-0.45916,0.07210,,,,,,,,,,,,,,,,,,,,,,,,,,0,0,0,0,0
1.6046,1783441077.2263,1,1,1.0000,0.0000,1.41209,0.14416,-2.66851,1.00158,1.56137,0.12540,-0.12930,-0.45916,0.07210,,,,,,,,,,,,,,,,,,,,,,,,,,0,0,0,0,0
1.6172,1783441077.2389,1,1,1.0000,0.0000,1.41326,0.14384,-2.66828,1.00167,1.56142,0.12423,-0.12974,-0.45915,0.07209,,,,,,,,,,,,,,,,,,,,,,,,,,0,0,0,0,0
1.6179,1783441077.2395,1,1,1.0000,0.0000,1.41326,0.14384,-2.66828,1.00167,1.56142,0.12423,-0.12974,-0.45915,0.07209,,,,,,,,,,,,,,,,,,,,,,,,,,0,0,0,0,0
1.6245,1783441077.2462,1,1,1.0000,0.0000,1.41437,0.14354,-2.66807,1.00175,1.56146,0.12312,-0.13016,-0.45914,0.07209,,,,,,,,,,,,,,,,,,,,,,,,,,0,0,0,0,0
1.6250,1783441077.2467,1,1,1.0000,0.0000,1.41437,0.14354,-2.66807,1.00175,1.56146,0.12312,-0.13016,-0.45914,0.07209,,,,,,,,,,,,,,,,,,,,,,,,,,0,0,0,0,0
1.6364,1783441077.2581,1,1,1.0000,0.0000,1.41458,0.14348,-2.66803,1.00177,1.56147,0.12291,-0.13024,-0.45913,0.07209,,,,,,,,,,,,,,,,,,,,,,,,,,0,0,0,0,0
1.6368,1783441077.2584,1,1,1.0000,0.0000,1.41458,0.14348,-2.66803,1.00177,1.56147,0.12291,-0.13024,-0.45913,0.07209,,,,,,,,,,,,,,,,,,,,,,,,,,0,0,0,0,0
1.6449,1783441077.2666,1,1,1.0000,0.0000,1.41515,0.14332,-2.66792,1.00181,1.56149,0.12233,-0.13045,-0.45913,0.07208,,,,,,,,,,,,,,,,,,,,,,,,,,0,0,0,0,0
1.6453,1783441077.2670,1,1,1.0000,0.0000,1.41515,0.14332,-2.66792,1.00181,1.56149,0.12233,-0.13045,-0.45913,0.07208,,,,,,,,,,,,,,,,,,,,,,,,,,0,0,0,0,0
1.6567,1783441077.2784,1,1,1.0000,0.0000,1.41643,0.14297,-2.66767,1.00192,1.56155,0.12105,-0.13093,-0.45912,0.07208,,,,,,,,,,,,,,,,,,,,,,,,,,0,0,0,0,0
1.6573,1783441077.2790,1,1,1.0000,0.0000,1.41643,0.14297,-2.66767,1.00192,1.56155,0.12105,-0.13093,-0.45912,0.07208,,,,,,,,,,,,,,,,,,,,,,,,,,0,0,0,0,0
1.6675,1783441077.2892,1,1,1.0000,0.0000,1.41648,0.14296,-2.66766,1.00192,1.56155,0.12101,-0.13094,-0.45912,0.07208,,,,,,,,,,,,,,,,,,,,,,,,,,0,0,0,0,0
1.6735,1783441077.2952,1,1,1.0000,0.0000,1.41679,0.14287,-2.66760,1.00195,1.56157,0.12069,-0.13106,-0.45912,0.07208,,,,,,,,,,,,,,,,,,,,,,,,,,0,0,0,0,0
1.6844,1783441077.3061,1,1,1.0000,0.0000,1.41734,0.14272,-2.66749,1.00199,1.56159,0.12014,-0.13127,-0.45911,0.07208,,,,,,,,,,,,,,,,,,,,,,,,,,0,0,0,0,0
1.6953,1783441077.3170,1,1,1.0000,0.0000,1.41749,0.14268,-2.66746,1.00200,1.56160,0.11999,-0.13132,-0.45911,0.07208,,,,,,,,,,,,,,,,,,,,,,,,,,0,0,0,0,0
1.7038,1783441077.3255,1,1,1.0000,0.0000,1.41788,0.14257,-2.66739,1.00204,1.56162,0.11960,-0.13147,-0.45911,0.07208,,,,,,,,,,,,,,,,,,,,,,,,,,0,0,0,0,0
1.7045,1783441077.3261,1,1,1.0000,0.0000,1.41814,0.14250,-2.66733,1.00206,1.56163,0.11933,-0.13157,-0.45911,0.07208,,,,,,,,,,,,,,,,,,,,,,,,,,0,0,0,0,0
1.7139,1783441077.3356,1,1,1.0000,0.0000,1.41874,0.14234,-2.66722,1.00211,1.56166,0.11873,-0.13179,-0.45911,0.07208,,,,,,,,,,,,,,,,,,,,,,,,,,0,0,0,0,0
1.7289,1783441077.3506,1,1,1.0000,0.0000,1.41912,0.14223,-2.66714,1.00215,1.56168,0.11835,-0.13193,-0.45910,0.07208,,,,,,,,,,,,,,,,,,,,,,,,,,0,0,0,0,0
1.7333,1783441077.3550,1,1,1.0000,0.0000,1.41921,0.14221,-2.66713,1.00215,1.56168,0.11826,-0.13196,-0.45910,0.07208,,,,,,,,,,,,,,,,,,,,,,,,,,0,0,0,0,0
1.7336,1783441077.3553,1,1,1.0000,0.0000,1.41921,0.14221,-2.66713,1.00215,1.56168,0.11826,-0.13196,-0.45910,0.07208,,,,,,,,,,,,,,,,,,,,,,,,,,0,0,0,0,0
1.7435,1783441077.3652,1,1,1.0000,0.0000,1.41943,0.14215,-2.66709,1.00218,1.56170,0.11803,-0.13205,-0.45909,0.07207,,,,,,,,,,,,,,,,,,,,,,,,,,0,0,0,0,0
1.7597,1783441077.3814,1,1,1.0000,0.0000,1.42001,0.14199,-2.66701,1.00223,1.56173,0.11744,-0.13226,-0.45907,0.07206,,,,,,,,,,,,,,,,,,,,,,,,,,0,0,0,0,0
1.7643,1783441077.3860,1,1,1.0000,0.0000,1.42027,0.14192,-2.66698,1.00226,1.56174,0.11717,-0.13236,-0.45905,0.07205,,,,,,,,,,,,,,,,,,,,,,,,,,0,0,0,0,0
1.7843,1783441077.4060,1,1,1.0000,0.0000,1.42054,0.14184,-2.66698,1.00229,1.56176,0.11689,-0.13246,-0.45902,0.07202,,,,,,,,,,,,,,,,,,,,,,,,,,0,0,0,0,0
1.7848,1783441077.4065,1,1,1.0000,0.0000,1.42054,0.14184,-2.66698,1.00229,1.56176,0.11689,-0.13246,-0.45902,0.07202,,,,,,,,,,,,,,,,,,,,,,,,,,0,0,0,0,0
1.7853,1783441077.4070,1,1,1.0000,0.0000,1.42054,0.14184,-2.66698,1.00229,1.56176,0.11689,-0.13246,-0.45902,0.07202,,,,,,,,,,,,,,,,,,,,,,,,,,0,0,0,0,0
1.7934,1783441077.4151,1,1,1.0000,0.0000,1.42054,0.14184,-2.66698,1.00229,1.56176,0.11689,-0.13246,-0.45902,0.07202,,,,,,,,,,,,,,,,,,,,,,,,,,0,0,0,0,0
1.8037,1783441077.4254,1,1,1.0000,0.0000,1.42054,0.14184,-2.66698,1.00229,1.56176,0.11689,-0.13246,-0.45902,0.07202,,,,,,,,,,,,,,,,,,,,,,,,,,0,0,0,0,0
1.8148,1783441077.4365,1,1,1.0000,0.0000,1.42054,0.14184,-2.66698,1.00229,1.56176,0.11689,-0.13246,-0.45902,0.07202,,,,,,,,,,,,,,,,,,,,,,,,,,0,0,0,0,0
1.8246,1783441077.4463,1,1,1.0000,0.0000,1.42054,0.14184,-2.66698,1.00229,1.56176,0.11689,-0.13246,-0.45902,0.07202,,,,,,,,,,,,,,,,,,,,,,,,,,0,0,0,0,0
1.8359,1783441077.4576,1,1,1.0000,0.0000,1.42054,0.14184,-2.66698,1.00229,1.56176,0.11689,-0.13246,-0.45902,0.07202,,,,,,,,,,,,,,,,,,,,,,,,,,0,0,0,0,0
1.8434,1783441077.4651,1,1,1.0000,0.0000,1.42054,0.14184,-2.66698,1.00229,1.56176,0.11689,-0.13246,-0.45902,0.07202,,,,,,,,,,,,,,,,,,,,,,,,,,0,0,0,0,0
1.8439,1783441077.4656,1,1,1.0000,0.0000,1.42054,0.14184,-2.66698,1.00229,1.56176,0.11689,-0.13246,-0.45902,0.07202,,,,,,,,,,,,,,,,,,,,,,,,,,0,0,0,0,0
1.8545,1783441077.4762,1,1,1.0000,0.0000,1.42054,0.14184,-2.66698,1.00229,1.56176,0.11689,-0.13246,-0.45902,0.07202,,,,,,,,,,,,,,,,,,,,,,,,,,0,0,0,0,0
1.8642,1783441077.4859,1,1,1.0000,0.0000,1.42054,0.14184,-2.66698,1.00229,1.56176,0.11689,-0.13246,-0.45902,0.07202,,,,,,,,,,,,,,,,,,,,,,,,,,0,0,0,0,0
1.8734,1783441077.4951,1,1,1.0000,0.0000,1.42054,0.14184,-2.66698,1.00229,1.56176,0.11689,-0.13246,-0.45902,0.07202,,,,,,,,,,,,,,,,,,,,,,,,,,0,0,0,0,0
1.8848,1783441077.5065,1,1,1.0000,0.0000,1.42054,0.14184,-2.66698,1.00229,1.56176,0.11689,-0.13246,-0.45902,0.07202,,,,,,,,,,,,,,,,,,,,,,,,,,0,0,0,0,0
1.8854,1783441077.5071,1,1,1.0000,0.0000,1.42054,0.14184,-2.66698,1.00229,1.56176,0.11689,-0.13246,-0.45902,0.07202,,,,,,,,,,,,,,,,,,,,,,,,,,0,0,0,0,0
1.8934,1783441077.5151,1,1,1.0000,0.0000,1.42054,0.14184,-2.66698,1.00229,1.56176,0.11689,-0.13246,-0.45902,0.07202,,,,,,,,,,,,,,,,,,,,,,,,,,0,0,0,0,0
1.9034,1783441077.5251,1,1,1.0000,0.0000,1.42054,0.14184,-2.66698,1.00229,1.56176,0.11689,-0.13246,-0.45902,0.07202,,,,,,,,,,,,,,,,,,,,,,,,,,0,0,0,0,0
1.9143,1783441077.5360,1,1,1.0000,0.0000,1.42054,0.14184,-2.66698,1.00229,1.56176,0.11689,-0.13246,-0.45902,0.07202,,,,,,,,,,,,,,,,,,,,,,,,,,0,0,0,0,0
1.9289,1783441077.5506,1,1,1.0000,0.0000,1.42054,0.14184,-2.66698,1.00229,1.56176,0.11689,-0.13246,-0.45902,0.07202,,,,,,,,,,,,,,,,,,,,,,,,,,0,0,0,0,0
1.9387,1783441077.5604,1,1,1.0000,0.0000,1.42054,0.14184,-2.66698,1.00229,1.56176,0.11689,-0.13246,-0.45902,0.07202,,,,,,,,,,,,,,,,,,,,,,,,,,0,0,0,0,0
1.9477,1783441077.5694,1,1,1.0000,0.0000,1.42054,0.14184,-2.66698,1.00229,1.56176,0.11689,-0.13246,-0.45902,0.07202,,,,,,,,,,,,,,,,,,,,,,,,,,0,0,0,0,0
1.9484,1783441077.5701,1,1,1.0000,0.0000,1.42054,0.14184,-2.66698,1.00229,1.56176,0.11689,-0.13246,-0.45902,0.07202,,,,,,,,,,,,,,,,,,,,,,,,,,0,0,0,0,0
1.9579,1783441077.5796,1,1,1.0000,0.0000,1.42054,0.14184,-2.66698,1.00229,1.56176,0.11689,-0.13246,-0.45902,0.07202,,,,,,,,,,,,,,,,,,,,,,,,,,0,0,0,0,0
1.9688,1783441077.5905,1,1,1.0000,0.0000,1.42054,0.14184,-2.66698,1.00229,1.56176,0.11689,-0.13246,-0.45902,0.07202,,,,,,,,,,,,,,,,,,,,,,,,,,0,0,0,0,0
1.9782,1783441077.5999,1,1,1.0000,0.0000,1.42054,0.14184,-2.66698,1.00229,1.56176,0.11689,-0.13246,-0.45902,0.07202,,,,,,,,,,,,,,,,,,,,,,,,,,0,0,0,0,0
1.9886,1783441077.6103,1,1,1.0000,0.0000,1.42054,0.14184,-2.66698,1.00229,1.56176,0.11689,-0.13246,-0.45902,0.07202,,,,,,,,,,,,,,,,,,,,,,,,,,0,0,0,0,0
1.9980,1783441077.6197,1,1,1.0000,0.0000,1.42054,0.14184,-2.66698,1.00229,1.56176,0.11689,-0.13246,-0.45902,0.07202,,,,,,,,,,,,,,,,,,,,,,,,,,0,0,0,0,0
2.0086,1783441077.6303,1,1,1.0000,0.0000,1.42054,0.14184,-2.66698,1.00229,1.56176,0.11689,-0.13246,-0.45902,0.07202,,,,,,,,,,,,,,,,,,,,,,,,,,0,0,0,0,0
2.0263,1783441077.6480,1,1,1.0000,0.0000,1.42054,0.14184,-2.66698,1.00229,1.56176,0.11689,-0.13246,-0.45902,0.07202,,,,,,,,,,,,,,,,,,,,,,,,,,0,0,0,0,0
2.0293,1783441077.6510,1,1,1.0000,0.0000,1.42054,0.14184,-2.66698,1.00229,1.56176,0.11689,-0.13246,-0.45902,0.07202,,,,,,,,,,,,,,,,,,,,,,,,,,0,0,0,0,0
2.0404,1783441077.6621,1,1,1.0000,0.0000,1.42054,0.14184,-2.66698,1.00229,1.56176,0.11689,-0.13246,-0.45902,0.07202,,,,,,,,,,,,,,,,,,,,,,,,,,0,0,0,0,0
2.0485,1783441077.6702,1,1,1.0000,0.0000,1.42054,0.14184,-2.66698,1.00229,1.56176,0.11689,-0.13246,-0.45902,0.07202,,,,,,,,,,,,,,,,,,,,,,,,,,0,0,0,0,0
2.0488,1783441077.6705,1,1,1.0000,0.0000,1.42054,0.14184,-2.66698,1.00229,1.56176,0.11689,-0.13246,-0.45902,0.07202,,,,,,,,,,,,,,,,,,,,,,,,,,0,0,0,0,0
2.0578,1783441077.6795,1,1,1.0000,0.0000,1.42054,0.14184,-2.66698,1.00229,1.56176,0.11689,-0.13246,-0.45902,0.07202,,,,,,,,,,,,,,,,,,,,,,,,,,0,0,0,0,0
2.0583,1783441077.6800,1,1,1.0000,0.0000,1.42054,0.14184,-2.66698,1.00229,1.56176,0.11689,-0.13246,-0.45902,0.07202,,,,,,,,,,,,,,,,,,,,,,,,,,0,0,0,0,0
2.0711,1783441077.6928,1,1,1.0000,0.0000,1.42054,0.14184,-2.66698,1.00229,1.56176,0.11689,-0.13246,-0.45902,0.07202,,,,,,,,,,,,,,,,,,,,,,,,,,0,0,0,0,0
2.0784,1783441077.7001,1,1,1.0000,0.0000,1.42054,0.14184,-2.66698,1.00229,1.56176,0.11689,-0.13246,-0.45902,0.07202,,,,,,,,,,,,,,,,,,,,,,,,,,0,0,0,0,0
2.0897,1783441077.7114,1,1,1.0000,0.0000,1.42054,0.14184,-2.66698,1.00229,1.56176,0.11689,-0.13246,-0.45902,0.07202,,,,,,,,,,,,,,,,,,,,,,,,,,0,0,0,0,0
2.0982,1783441077.7198,1,1,1.0000,0.0000,1.42054,0.14184,-2.66698,1.00229,1.56176,0.11689,-0.13246,-0.45902,0.07202,,,,,,,,,,,,,,,,,,,,,,,,,,0,0,0,0,0
2.1084,1783441077.7301,1,1,1.0000,0.0000,1.42054,0.14184,-2.66698,1.00229,1.56176,0.11689,-0.13246,-0.45902,0.07202,,,,,,,,,,,,,,,,,,,,,,,,,,0,0,0,0,0
2.1176,1783441077.7393,1,1,1.0000,0.0000,1.42054,0.14184,-2.66698,1.00229,1.56176,0.11689,-0.13246,-0.45902,0.07202,,,,,,,,,,,,,,,,,,,,,,,,,,0,0,0,0,0
2.1181,1783441077.7398,1,1,1.0000,0.0000,1.42054,0.14184,-2.66698,1.00229,1.56176,0.11689,-0.13246,-0.45902,0.07202,,,,,,,,,,,,,,,,,,,,,,,,,,0,0,0,0,0
2.1305,1783441077.7522,1,1,1.0000,0.0000,1.42054,0.14184,-2.66698,1.00229,1.56176,0.11689,-0.13246,-0.45902,0.07202,,,,,,,,,,,,,,,,,,,,,,,,,,0,0,0,0,0
2.1430,1783441077.7646,1,1,1.0000,0.0000,1.42054,0.14184,-2.66698,1.00229,1.56176,0.11689,-0.13246,-0.45902,0.07202,,,,,,,,,,,,,,,,,,,,,,,,,,0,0,0,0,0
2.1477,1783441077.7694,1,1,1.0000,0.0000,1.42054,0.14184,-2.66698,1.00229,1.56176,0.11689,-0.13246,-0.45902,0.07202,,,,,,,,,,,,,,,,,,,,,,,,,,0,0,0,0,0
2.1485,1783441077.7702,1,1,1.0000,0.0000,1.42054,0.14184,-2.66698,1.00229,1.56176,0.11689,-0.13246,-0.45902,0.07202,,,,,,,,,,,,,,,,,,,,,,,,,,0,0,0,0,0
2.1594,1783441077.7811,1,1,1.0000,0.0000,1.42054,0.14184,-2.66698,1.00229,1.56176,0.11689,-0.13246,-0.45902,0.07202,,,,,,,,,,,,,,,,,,,,,,,,,,0,0,0,0,0
2.1697,1783441077.7914,1,1,1.0000,0.0000,1.42054,0.14184,-2.66698,1.00229,1.56176,0.11689,-0.13246,-0.45902,0.07202,,,,,,,,,,,,,,,,,,,,,,,,,,0,0,0,0,0
2.1781,1783441077.7998,1,1,1.0000,0.0000,1.42054,0.14184,-2.66698,1.00229,1.56176,0.11689,-0.13246,-0.45902,0.07202,,,,,,,,,,,,,,,,,,,,,,,,,,0,0,0,0,0
2.1896,1783441077.8113,1,1,1.0000,0.0000,1.42054,0.14184,-2.66698,1.00229,1.56176,0.11689,-0.13246,-0.45902,0.07202,,,,,,,,,,,,,,,,,,,,,,,,,,0,0,0,0,0
2.2003,1783441077.8220,1,1,1.0000,0.0000,1.42054,0.14184,-2.66698,1.00229,1.56176,0.11689,-0.13246,-0.45902,0.07202,,,,,,,,,,,,,,,,,,,,,,,,,,0,0,0,0,0
2.2084,1783441077.8301,1,1,1.0000,0.0000,1.42053,0.14185,-2.66699,1.00229,1.56176,0.11689,-0.13246,-0.45901,0.07202,,,,,,,,,,,,,,,,,,,,,,,,,,0,0,0,0,0
2.2178,1783441077.8395,1,1,1.0000,0.0000,1.42053,0.14187,-2.66701,1.00230,1.56177,0.11689,-0.13246,-0.45900,0.07202,,,,,,,,,,,,,,,,,,,,,,,,,,0,0,0,0,0
2.2183,1783441077.8400,1,1,1.0000,0.0000,1.42053,0.14187,-2.66701,1.00230,1.56177,0.11689,-0.13246,-0.45900,0.07202,,,,,,,,,,,,,,,,,,,,,,,,,,0,0,0,0,0
2.2322,1783441077.8539,1,1,1.0000,0.0000,1.42052,0.14190,-2.66703,1.00230,1.56177,0.11688,-0.13246,-0.45899,0.07202,,,,,,,,,,,,,,,,,,,,,,,,,,0,0,0,0,0
2.2391,1783441077.8608,1,1,1.0000,0.0000,1.42052,0.14192,-2.66705,1.00230,1.56177,0.11688,-0.13245,-0.45899,0.07202,,,,,,,,,,,,,,,,,,,,,,,,,,0,0,0,0,0
2.2401,1783441077.8618,1,1,1.0000,0.0000,1.42051,0.14194,-2.66706,1.00230,1.56177,0.11688,-0.13245,-0.45898,0.07202,,,,,,,,,,,,,,,,,,,,,,,,,,0,0,0,0,0
2.2496,1783441077.8713,1,1,1.0000,0.0000,1.42050,0.14201,-2.66711,1.00230,1.56178,0.11688,-0.13245,-0.45895,0.07202,,,,,,,,,,,,,,,,,,,,,,,,,,0,0,0,0,0
2.2582,1783441077.8799,1,1,1.0000,0.0000,1.42048,0.14209,-2.66718,1.00229,1.56178,0.11687,-0.13244,-0.45891,0.07203,,,,,,,,,,,,,,,,,,,,,,,,,,0,0,0,0,0
2.2721,1783441077.8938,1,1,1.0000,0.0000,1.42047,0.14213,-2.66720,1.00228,1.56178,0.11687,-0.13244,-0.45890,0.07203,,,,,,,,,,,,,,,,,,,,,,,,,,0,0,0,0,0
2.2798,1783441077.9015,1,1,1.0000,0.0000,1.42045,0.14224,-2.66728,1.00226,1.56179,0.11688,-0.13244,-0.45885,0.07203,,,,,,,,,,,,,,,,,,,,,,,,,,0,0,0,0,0
2.2804,1783441077.9021,1,1,1.0000,0.0000,1.42043,0.14232,-2.66734,1.00225,1.56179,0.11689,-0.13244,-0.45882,0.07203,,,,,,,,,,,,,,,,,,,,,,,,,,0,0,0,0,0
2.2884,1783441077.9101,1,1,1.0000,0.0000,1.42039,0.14252,-2.66747,1.00222,1.56179,0.11691,-0.13243,-0.45875,0.07204,,,,,,,,,,,,,,,,,,,,,,,,,,0,0,0,0,0
2.2989,1783441077.9206,1,1,1.0000,0.0000,1.42035,0.14275,-2.66764,1.00217,1.56179,0.11693,-0.13243,-0.45865,0.07205,,,,,,,,,,,,,,,,,,,,,,,,,,0,0,0,0,0
2.3089,1783441077.9306,1,1,1.0000,0.0000,1.42033,0.14284,-2.66770,1.00215,1.56179,0.11694,-0.13243,-0.45862,0.07205,,,,,,,,,,,,,,,,,,,,,,,,,,0,0,0,0,0
2.3178,1783441077.9395,1,1,1.0000,0.0000,1.42031,0.14293,-2.66777,1.00213,1.56179,0.11696,-0.13243,-0.45857,0.07205,,,,,,,,,,,,,,,,,,,,,,,,,,0,0,0,0,0
2.3327,1783441077.9544,1,1,1.0000,0.0000,1.42020,0.14354,-2.66820,1.00198,1.56179,0.11706,-0.13242,-0.45831,0.07206,,,,,,,,,,,,,,,,,,,,,,,,,,0,0,0,0,0
2.3387,1783441077.9604,1,1,1.0000,0.0000,1.42014,0.14384,-2.66841,1.00191,1.56179,0.11712,-0.13242,-0.45818,0.07206,,,,,,,,,,,,,,,,,,,,,,,,,,0,0,0,0,0
2.3478,1783441077.9695,1,1,1.0000,0.0000,1.42001,0.14453,-2.66891,1.00174,1.56179,0.11724,-0.13241,-0.45789,0.07207,,,,,,,,,,,,,,,,,,,,,,,,,,0,0,0,0,0
2.3579,1783441077.9796,1,1,1.0000,0.0000,1.41986,0.14528,-2.66945,1.00155,1.56179,0.11737,-0.13241,-0.45756,0.07208,,,,,,,,,,,,,,,,,,,,,,,,,,0,0,0,0,0
2.3676,1783441077.9893,1,1,1.0000,0.0000,1.41984,0.14541,-2.66955,1.00151,1.56179,0.11739,-0.13240,-0.45750,0.07208,,,,,,,,,,,,,,,,,,,,,,,,,,0,0,0,0,0
2.3688,1783441077.9905,1,1,1.0000,0.0000,1.41981,0.14557,-2.66967,1.00147,1.56179,0.11742,-0.13240,-0.45743,0.07208,,,,,,,,,,,,,,,,,,,,,,,,,,0,0,0,0,0
2.3776,1783441077.9993,1,1,1.0000,0.0000,1.41972,0.14605,-2.67001,1.00135,1.56179,0.11751,-0.13240,-0.45722,0.07209,,,,,,,,,,,,,,,,,,,,,,,,,,0,0,0,0,0
2.3780,1783441077.9997,1,1,1.0000,0.0000,1.41972,0.14605,-2.67001,1.00135,1.56179,0.11751,-0.13240,-0.45722,0.07209,,,,,,,,,,,,,,,,,,,,,,,,,,0,0,0,0,0
2.3877,1783441078.0094,1,1,1.0000,0.0000,1.41971,0.14610,-2.67005,1.00134,1.56179,0.11752,-0.13240,-0.45720,0.07209,,,,,,,,,,,,,,,,,,,,,,,,,,0,0,0,0,0
2.4020,1783441078.0237,1,1,1.0000,0.0000,1.41949,0.14721,-2.67085,1.00104,1.56179,0.11773,-0.13239,-0.45672,0.07209,,,,,,,,,,,,,,,,,,,,,,,,,,0,0,0,0,0
2.4086,1783441078.0303,1,1,1.0000,0.0000,1.41932,0.14810,-2.67149,1.00080,1.56179,0.11790,-0.13239,-0.45632,0.07209,,,,,,,,,,,,,,,,,,,,,,,,,,0,0,0,0,0
2.4178,1783441078.0395,1,1,1.0000,0.0000,1.41931,0.14815,-2.67153,1.00079,1.56179,0.11791,-0.13239,-0.45630,0.07209,,,,,,,,,,,,,,,,,,,,,,,,,,0,0,0,0,0
2.4348,1783441078.0565,1,1,1.0000,0.0000,1.41914,0.14907,-2.67220,1.00053,1.56179,0.11808,-0.13238,-0.45590,0.07209,,,,,,,,,,,,,,,,,,,,,,,,,,0,0,0,0,0
2.4383,1783441078.0600,1,1,1.0000,0.0000,1.41907,0.14943,-2.67245,1.00043,1.56179,0.11815,-0.13238,-0.45574,0.07210,,,,,,,,,,,,,,,,,,,,,,,,,,0,0,0,0,0
2.4385,1783441078.0602,1,1,1.0000,0.0000,1.41907,0.14943,-2.67245,1.00043,1.56179,0.11815,-0.13238,-0.45574,0.07210,,,,,,,,,,,,,,,,,,,,,,,,,,0,0,0,0,0
2.4494,1783441078.0711,1,1,1.0000,0.0000,1.41904,0.14958,-2.67256,1.00039,1.56179,0.11818,-0.13238,-0.45567,0.07210,,,,,,,,,,,,,,,,,,,,,,,,,,0,0,0,0,0
2.4590,1783441078.0806,1,1,1.0000,0.0000,1.41896,0.14998,-2.67285,1.00028,1.56179,0.11826,-0.13238,-0.45549,0.07209,,,,,,,,,,,,,,,,,,,,,,,,,,0,0,0,0,0
2.4686,1783441078.0903,1,1,1.0000,0.0000,1.41879,0.15087,-2.67349,1.00002,1.56179,0.11843,-0.13237,-0.45510,0.07209,,,,,,,,,,,,,,,,,,,,,,,,,,0,0,0,0,0
2.4797,1783441078.1014,1,1,1.0000,0.0000,1.41879,0.15089,-2.67351,1.00002,1.56179,0.11844,-0.13237,-0.45509,0.07209,,,,,,,,,,,,,,,,,,,,,,,,,,0,0,0,0,0
2.4879,1783441078.1096,1,1,1.0000,0.0000,1.41875,0.15108,-2.67365,0.99996,1.56179,0.11847,-0.13237,-0.45501,0.07209,,,,,,,,,,,,,,,,,,,,,,,,,,0,0,0,0,0
2.4988,1783441078.1205,1,1,1.0000,0.0000,1.41865,0.15160,-2.67402,0.99981,1.56179,0.11858,-0.13237,-0.45478,0.07209,,,,,,,,,,,,,,,,,,,,,,,,,,0,0,0,0,0
2.5096,1783441078.1313,1,1,1.0000,0.0000,1.41853,0.15223,-2.67448,0.99962,1.56179,0.11870,-0.13237,-0.45449,0.07209,,,,,,,,,,,,,,,,,,,,,,,,,,0,0,0,0,0
2.5198,1783441078.1415,1,1,1.0000,0.0000,1.41845,0.15262,-2.67476,0.99950,1.56179,0.11878,-0.13236,-0.45432,0.07209,,,,,,,,,,,,,,,,,,,,,,,,,,0,0,0,0,0
2.5205,1783441078.1422,1,1,1.0000,0.0000,1.41845,0.15262,-2.67476,0.99950,1.56179,0.11878,-0.13236,-0.45432,0.07209,,,,,,,,,,,,,,,,,,,,,,,,,,0,0,0,0,0
2.5440,1783441078.1657,1,1,1.0000,0.0000,1.41836,0.15307,-2.67509,0.99936,1.56179,0.11887,-0.13236,-0.45411,0.07208,,,,,,,,,,,,,,,,,,,,,,,,,,0,0,0,0,0
2.5447,1783441078.1664,1,1,1.0000,0.0000,1.41836,0.15307,-2.67509,0.99936,1.56179,0.11887,-0.13236,-0.45411,0.07208,,,,,,,,,,,,,,,,,,,,,,,,,,0,0,0,0,0
2.5516,1783441078.1733,1,1,1.0000,0.0000,1.41836,0.15307,-2.67509,0.99936,1.56179,0.11887,-0.13236,-0.45411,0.07208,,,,,,,,,,,,,,,,,,,,,,,,,,0,0,0,0,0
2.5520,1783441078.1737,1,1,1.0000,0.0000,1.41836,0.15307,-2.67509,0.99936,1.56179,0.11887,-0.13236,-0.45411,0.07208,,,,,,,,,,,,,,,,,,,,,,,,,,0,0,0,0,0
2.5580,1783441078.1797,1,1,1.0000,0.0000,1.41836,0.15307,-2.67509,0.99936,1.56179,0.11887,-0.13236,-0.45411,0.07208,,,,,,,,,,,,,,,,,,,,,,,,,,0,0,0,0,0
2.5674,1783441078.1891,1,1,1.0000,0.0000,1.41836,0.15307,-2.67509,0.99936,1.56179,0.11887,-0.13236,-0.45411,0.07208,,,,,,,,,,,,,,,,,,,,,,,,,,0,0,0,0,0
2.5679,1783441078.1896,1,1,1.0000,0.0000,1.41836,0.15307,-2.67509,0.99936,1.56179,0.11887,-0.13236,-0.45411,0.07208,,,,,,,,,,,,,,,,,,,,,,,,,,0,0,0,0,0
2.5789,1783441078.2006,1,1,1.0000,0.0000,1.41836,0.15307,-2.67509,0.99936,1.56179,0.11887,-0.13236,-0.45411,0.07208,,,,,,,,,,,,,,,,,,,,,,,,,,0,0,0,0,0
2.5794,1783441078.2011,1,1,1.0000,0.0000,1.41836,0.15307,-2.67509,0.99936,1.56179,0.11887,-0.13236,-0.45411,0.07208,,,,,,,,,,,,,,,,,,,,,,,,,,0,0,0,0,0
2.5899,1783441078.2116,1,1,1.0000,0.0000,1.41836,0.15307,-2.67509,0.99936,1.56179,0.11887,-0.13236,-0.45411,0.07208,,,,,,,,,,,,,,,,,,,,,,,,,,0,0,0,0,0
2.6027,1783441078.2244,1,1,1.0000,0.0000,1.41836,0.15307,-2.67509,0.99936,1.56179,0.11887,-0.13236,-0.45411,0.07208,,,,,,,,,,,,,,,,,,,,,,,,,,0,0,0,0,0
2.6032,1783441078.2249,1,1,1.0000,0.0000,1.41836,0.15307,-2.67509,0.99936,1.56179,0.11887,-0.13236,-0.45411,0.07208,,,,,,,,,,,,,,,,,,,,,,,,,,0,0,0,0,0
2.6097,1783441078.2314,1,1,1.0000,0.0000,1.41836,0.15307,-2.67509,0.99936,1.56179,0.11887,-0.13236,-0.45411,0.07208,,,,,,,,,,,,,,,,,,,,,,,,,,0,0,0,0,0
2.6250,1783441078.2467,1,1,1.0000,0.0000,1.41836,0.15307,-2.67509,0.99936,1.56179,0.11887,-0.13236,-0.45411,0.07208,,,,,,,,,,,,,,,,,,,,,,,,,,0,0,0,0,0
2.6280,1783441078.2496,1,1,1.0000,0.0000,1.41836,0.15307,-2.67509,0.99936,1.56179,0.11887,-0.13236,-0.45411,0.07208,,,,,,,,,,,,,,,,,,,,,,,,,,0,0,0,0,0
2.6282,1783441078.2499,1,1,1.0000,0.0000,1.41836,0.15307,-2.67509,0.99936,1.56179,0.11887,-0.13236,-0.45411,0.07208,,,,,,,,,,,,,,,,,,,,,,,,,,0,0,0,0,0
2.6428,1783441078.2645,1,1,1.0000,0.0000,1.41836,0.15307,-2.67509,0.99936,1.56179,0.11887,-0.13236,-0.45411,0.07208,,,,,,,,,,,,,,,,,,,,,,,,,,0,0,0,0,0
2.6482,1783441078.2699,1,1,1.0000,0.0000,1.41836,0.15307,-2.67509,0.99936,1.56179,0.11887,-0.13236,-0.45411,0.07208,,,,,,,,,,,,,,,,,,,,,,,,,,0,0,0,0,0
2.6490,1783441078.2707,1,1,1.0000,0.0000,1.41836,0.15307,-2.67509,0.99936,1.56179,0.11887,-0.13236,-0.45411,0.07208,,,,,,,,,,,,,,,,,,,,,,,,,,0,0,0,0,0
2.6626,1783441078.2842,1,1,1.0000,0.0000,1.41836,0.15307,-2.67509,0.99936,1.56179,0.11887,-0.13236,-0.45411,0.07208,,,,,,,,,,,,,,,,,,,,,,,,,,0,0,0,0,0
2.6717,1783441078.2934,1,1,1.0000,0.0000,1.41836,0.15307,-2.67509,0.99936,1.56179,0.11887,-0.13236,-0.45411,0.07208,,,,,,,,,,,,,,,,,,,,,,,,,,0,0,0,0,0
2.6820,1783441078.3037,1,1,1.0000,0.0000,1.41836,0.15307,-2.67509,0.99936,1.56179,0.11887,-0.13236,-0.45411,0.07208,,,,,,,,,,,,,,,,,,,,,,,,,,0,0,0,0,0
2.6905,1783441078.3122,1,1,1.0000,0.0000,1.41836,0.15307,-2.67509,0.99936,1.56179,0.11887,-0.13236,-0.45411,0.07208,,,,,,,,,,,,,,,,,,,,,,,,,,0,0,0,0,0
2.7000,1783441078.3217,1,1,1.0000,0.0000,1.41836,0.15307,-2.67509,0.99936,1.56179,0.11887,-0.13236,-0.45411,0.07208,,,,,,,,,,,,,,,,,,,,,,,,,,0,0,0,0,0
2.7120,1783441078.3337,1,1,1.0000,0.0000,1.41836,0.15307,-2.67509,0.99936,1.56179,0.11887,-0.13236,-0.45411,0.07208,,,,,,,,,,,,,,,,,,,,,,,,,,0,0,0,0,0
2.7193,1783441078.3409,1,1,1.0000,0.0000,1.41836,0.15307,-2.67509,0.99936,1.56179,0.11887,-0.13236,-0.45411,0.07208,,,,,,,,,,,,,,,,,,,,,,,,,,0,0,0,0,0
2.7291,1783441078.3508,1,1,1.0000,0.0000,1.41836,0.15307,-2.67509,0.99936,1.56179,0.11887,-0.13236,-0.45411,0.07208,,,,,,,,,,,,,,,,,,,,,,,,,,0,0,0,0,0
2.7295,1783441078.3512,1,1,1.0000,0.0000,1.41836,0.15307,-2.67509,0.99936,1.56179,0.11887,-0.13236,-0.45411,0.07208,,,,,,,,,,,,,,,,,,,,,,,,,,0,0,0,0,0
2.7482,1783441078.3699,1,1,1.0000,0.0000,1.41836,0.15307,-2.67509,0.99936,1.56179,0.11887,-0.13236,-0.45411,0.07208,,,,,,,,,,,,,,,,,,,,,,,,,,0,0,0,0,0
2.7497,1783441078.3714,1,1,1.0000,0.0000,1.41836,0.15307,-2.67509,0.99936,1.56179,0.11887,-0.13236,-0.45411,0.07208,,,,,,,,,,,,,,,,,,,,,,,,,,0,0,0,0,0
2.7578,1783441078.3795,1,1,1.0000,0.0000,1.41836,0.15307,-2.67509,0.99936,1.56179,0.11887,-0.13236,-0.45411,0.07208,,,,,,,,,,,,,,,,,,,,,,,,,,0,0,0,0,0
2.7582,1783441078.3799,1,1,1.0000,0.0000,1.41836,0.15307,-2.67509,0.99936,1.56179,0.11887,-0.13236,-0.45411,0.07208,,,,,,,,,,,,,,,,,,,,,,,,,,0,0,0,0,0
2.7698,1783441078.3915,1,1,1.0000,0.0000,1.41836,0.15307,-2.67509,0.99936,1.56179,0.11887,-0.13236,-0.45411,0.07208,,,,,,,,,,,,,,,,,,,,,,,,,,0,0,0,0,0
2.7779,1783441078.3996,1,1,1.0000,0.0000,1.41836,0.15307,-2.67509,0.99936,1.56179,0.11887,-0.13236,-0.45411,0.07208,,,,,,,,,,,,,,,,,,,,,,,,,,0,0,0,0,0
2.7925,1783441078.4142,1,1,1.0000,0.0000,1.41836,0.15307,-2.67509,0.99936,1.56179,0.11887,-0.13236,-0.45411,0.07208,,,,,,,,,,,,,,,,,,,,,,,,,,0,0,0,0,0
2.7997,1783441078.4214,1,1,1.0000,0.0000,1.41836,0.15307,-2.67509,0.99936,1.56179,0.11887,-0.13236,-0.45411,0.07208,,,,,,,,,,,,,,,,,,,,,,,,,,0,0,0,0,0
2.8074,1783441078.4291,1,1,1.0000,0.0000,1.41836,0.15307,-2.67509,0.99936,1.56179,0.11887,-0.13236,-0.45411,0.07208,,,,,,,,,,,,,,,,,,,,,,,,,,0,0,0,0,0
2.8079,1783441078.4296,1,1,1.0000,0.0000,1.41836,0.15307,-2.67509,0.99936,1.56179,0.11887,-0.13236,-0.45411,0.07208,,,,,,,,,,,,,,,,,,,,,,,,,,0,0,0,0,0
2.8537,1783441078.4754,1,1,1.0000,0.0000,1.41836,0.15307,-2.67509,0.99936,1.56179,0.11887,-0.13236,-0.45411,0.07208,,,,,,,,,,,,,,,,,,,,,,,,,,0,0,0,0,0
2.8541,1783441078.4758,1,1,1.0000,0.0000,1.41836,0.15307,-2.67509,0.99936,1.56179,0.11887,-0.13236,-0.45411,0.07208,,,,,,,,,,,,,,,,,,,,,,,,,,0,0,0,0,0
2.8545,1783441078.4762,1,1,1.0000,0.0000,1.41836,0.15307,-2.67509,0.99936,1.56179,0.11887,-0.13236,-0.45411,0.07208,,,,,,,,,,,,,,,,,,,,,,,,,,0,0,0,0,0
2.8678,1783441078.4895,1,1,1.0000,0.0000,1.41836,0.15307,-2.67509,0.99936,1.56179,0.11887,-0.13236,-0.45411,0.07208,,,,,,,,,,,,,,,,,,,,,,,,,,0,0,0,0,0
2.8691,1783441078.4908,1,1,1.0000,0.0000,1.41836,0.15307,-2.67509,0.99936,1.56179,0.11887,-0.13236,-0.45411,0.07208,,,,,,,,,,,,,,,,,,,,,,,,,,0,0,0,0,0
2.8781,1783441078.4998,1,1,1.0000,0.0000,1.41836,0.15307,-2.67509,0.99936,1.56179,0.11887,-0.13236,-0.45411,0.07208,,,,,,,,,,,,,,,,,,,,,,,,,,0,0,0,0,0
2.8785,1783441078.5002,1,1,1.0000,0.0000,1.41836,0.15307,-2.67509,0.99936,1.56179,0.11887,-0.13236,-0.45411,0.07208,,,,,,,,,,,,,,,,,,,,,,,,,,0,0,0,0,0
2.9542,1783441078.5759,1,1,1.0000,0.0000,1.41836,0.15307,-2.67509,0.99935,1.56179,0.11888,-0.13236,-0.45411,0.07208,,,,,,,,,,,,,,,,,,,,,,,,,,0,0,0,0,0
2.9546,1783441078.5763,1,1,1.0000,0.0000,1.41836,0.15307,-2.67509,0.99935,1.56179,0.11888,-0.13236,-0.45411,0.07208,,,,,,,,,,,,,,,,,,,,,,,,,,0,0,0,0,0
2.9552,1783441078.5769,1,1,1.0000,0.0000,1.41836,0.15307,-2.67509,0.99935,1.56179,0.11888,-0.13236,-0.45411,0.07208,,,,,,,,,,,,,,,,,,,,,,,,,,0,0,0,0,0
2.9556,1783441078.5773,1,1,1.0000,0.0000,1.41836,0.15307,-2.67509,0.99935,1.56179,0.11888,-0.13236,-0.45411,0.07208,,,,,,,,,,,,,,,,,,,,,,,,,,0,0,0,0,0
2.9561,1783441078.5778,1,1,1.0000,0.0000,1.41836,0.15307,-2.67509,0.99935,1.56179,0.11888,-0.13236,-0.45411,0.07208,,,,,,,,,,,,,,,,,,,,,,,,,,0,0,0,0,0
2.9625,1783441078.5841,1,1,1.0000,0.0000,1.41836,0.15307,-2.67509,0.99935,1.56179,0.11888,-0.13236,-0.45412,0.07208,,,,,,,,,,,,,,,,,,,,,,,,,,0,0,0,0,0
2.9711,1783441078.5928,1,1,1.0000,0.0000,1.41837,0.15307,-2.67508,0.99934,1.56179,0.11890,-0.13236,-0.45412,0.07208,,,,,,,,,,,,,,,,,,,,,,,,,,0,0,0,0,0
2.9833,1783441078.6050,1,1,1.0000,0.0000,1.41837,0.15307,-2.67507,0.99934,1.56179,0.11890,-0.13236,-0.45412,0.07208,,,,,,,,,,,,,,,,,,,,,,,,,,0,0,0,0,0
2.9973,1783441078.6190,1,1,1.0000,0.0000,1.41837,0.15305,-2.67504,0.99933,1.56179,0.11891,-0.13236,-0.45414,0.07209,,,,,,,,,,,,,,,,,,,,,,,,,,0,0,0,0,0
2.9976,1783441078.6193,1,1,1.0000,0.0000,1.41837,0.15305,-2.67504,0.99933,1.56179,0.11891,-0.13236,-0.45414,0.07209,,,,,,,,,,,,,,,,,,,,,,,,,,0,0,0,0,0
3.0012,1783441078.6229,1,1,1.0000,0.0000,1.41837,0.15304,-2.67503,0.99933,1.56179,0.11891,-0.13236,-0.45415,0.07209,,,,,,,,,,,,,,,,,,,,,,,,,,0,0,0,0,0
3.0014,1783441078.6231,1,1,1.0000,0.0000,1.41837,0.15304,-2.67503,0.99933,1.56179,0.11891,-0.13236,-0.45415,0.07209,,,,,,,,,,,,,,,,,,,,,,,,,,0,0,0,0,0
3.0137,1783441078.6354,1,1,1.0000,0.0000,1.41838,0.15301,-2.67498,0.99932,1.56179,0.11892,-0.13236,-0.45418,0.07211,,,,,,,,,,,,,,,,,,,,,,,,,,0,0,0,0,0
3.0215,1783441078.6432,1,1,1.0000,0.0000,1.41838,0.15300,-2.67496,0.99932,1.56179,0.11892,-0.13236,-0.45419,0.07211,,,,,,,,,,,,,,,,,,,,,,,,,,0,0,0,0,0
3.0321,1783441078.6538,1,1,1.0000,0.0000,1.41838,0.15298,-2.67494,0.99933,1.56179,0.11892,-0.13236,-0.45420,0.07211,,,,,,,,,,,,,,,,,,,,,,,,,,0,0,0,0,0
3.0452,1783441078.6669,1,1,1.0000,0.0000,1.41840,0.15290,-2.67488,0.99934,1.56179,0.11892,-0.13236,-0.45423,0.07211,,,,,,,,,,,,,,,,,,,,,,,,,,0,0,0,0,0
3.0457,1783441078.6674,1,1,1.0000,0.0000,1.41840,0.15290,-2.67488,0.99934,1.56179,0.11892,-0.13236,-0.45423,0.07211,,,,,,,,,,,,,,,,,,,,,,,,,,0,0,0,0,0
3.0527,1783441078.6744,1,1,1.0000,0.0000,1.41841,0.15283,-2.67484,0.99935,1.56179,0.11891,-0.13236,-0.45426,0.07211,,,,,,,,,,,,,,,,,,,,,,,,,,0,0,0,0,0
3.0536,1783441078.6753,1,1,1.0000,0.0000,1.41843,0.15275,-2.67478,0.99937,1.56179,0.11891,-0.13236,-0.45429,0.07211,,,,,,,,,,,,,,,,,,,,,,,,,,0,0,0,0,0
3.0645,1783441078.6862,1,1,1.0000,0.0000,1.41847,0.15254,-2.67462,0.99941,1.56179,0.11889,-0.13237,-0.45438,0.07211,,,,,,,,,,,,,,,,,,,,,,,,,,0,0,0,0,0
3.0725,1783441078.6942,1,1,1.0000,0.0000,1.41852,0.15228,-2.67444,0.99946,1.56179,0.11887,-0.13237,-0.45449,0.07210,,,,,,,,,,,,,,,,,,,,,,,,,,0,0,0,0,0
3.0837,1783441078.7054,1,1,1.0000,0.0000,1.41855,0.15213,-2.67433,0.99950,1.56179,0.11885,-0.13237,-0.45456,0.07210,,,,,,,,,,,,,,,,,,,,,,,,,,0,0,0,0,0
3.1033,1783441078.7250,1,1,1.0000,0.0000,1.41863,0.15169,-2.67402,0.99961,1.56179,0.11878,-0.13238,-0.45475,0.07209,,,,,,,,,,,,,,,,,,,,,,,,,,0,0,0,0,0
3.1037,1783441078.7254,1,1,1.0000,0.0000,1.41863,0.15169,-2.67402,0.99961,1.56179,0.11878,-0.13238,-0.45475,0.07209,,,,,,,,,,,,,,,,,,,,,,,,,,0,0,0,0,0
3.1042,1783441078.7259,1,1,1.0000,0.0000,1.41863,0.15169,-2.67402,0.99961,1.56179,0.11878,-0.13238,-0.45475,0.07209,,,,,,,,,,,,,,,,,,,,,,,,,,0,0,0,0,0
3.1052,1783441078.7269,1,1,1.0000,0.0000,1.41864,0.15164,-2.67399,0.99962,1.56179,0.11877,-0.13238,-0.45476,0.07209,,,,,,,,,,,,,,,,,,,,,,,,,,0,0,0,0,0
3.1134,1783441078.7351,1,1,1.0000,0.0000,1.41870,0.15133,-2.67376,0.99970,1.56179,0.11872,-0.13238,-0.45490,0.07209,,,,,,,,,,,,,,,,,,,,,,,,,,0,0,0,0,0
3.1215,1783441078.7432,1,1,1.0000,0.0000,1.41880,0.15078,-2.67337,0.99984,1.56179,0.11862,-0.13238,-0.45514,0.07209,,,,,,,,,,,,,,,,,,,,,,,,,,0,0,0,0,0
3.1219,1783441078.7436,1,1,1.0000,0.0000,1.41880,0.15078,-2.67337,0.99984,1.56179,0.11862,-0.13238,-0.45514,0.07209,,,,,,,,,,,,,,,,,,,,,,,,,,0,0,0,0,0
3.1309,1783441078.7526,1,1,1.0000,0.0000,1.41894,0.15008,-2.67286,1.00003,1.56179,0.11849,-0.13239,-0.45544,0.07209,,,,,,,,,,,,,,,,,,,,,,,,,,0,0,0,0,0
3.1456,1783441078.7673,1,1,1.0000,0.0000,1.41901,0.14970,-2.67258,1.00013,1.56179,0.11842,-0.13239,-0.45561,0.07209,,,,,,,,,,,,,,,,,,,,,,,,,,0,0,0,0,0
3.1546,1783441078.7763,1,1,1.0000,0.0000,1.41913,0.14910,-2.67215,1.00028,1.56179,0.11831,-0.13239,-0.45587,0.07208,,,,,,,,,,,,,,,,,,,,,,,,,,0,0,0,0,0
3.1669,1783441078.7886,1,1,1.0000,0.0000,1.41917,0.14888,-2.67199,1.00034,1.56179,0.11827,-0.13240,-0.45597,0.07208,,,,,,,,,,,,,,,,,,,,,,,,,,0,0,0,0,0
3.1748,1783441078.7965,1,1,1.0000,0.0000,1.41928,0.14829,-2.67156,1.00050,1.56179,0.11816,-0.13240,-0.45623,0.07208,,,,,,,,,,,,,,,,,,,,,,,,,,0,0,0,0,0
3.1854,1783441078.8070,1,1,1.0000,0.0000,1.41953,0.14697,-2.67061,1.00085,1.56179,0.11791,-0.13241,-0.45681,0.07208,,,,,,,,,,,,,,,,,,,,,,,,,,0,0,0,0,0
3.1949,1783441078.8166,1,1,1.0000,0.0000,1.41954,0.14692,-2.67057,1.00086,1.56179,0.11790,-0.13241,-0.45683,0.07208,,,,,,,,,,,,,,,,,,,,,,,,,,0,0,0,0,0
3.2063,1783441078.8280,1,1,1.0000,0.0000,1.41966,0.14630,-2.67012,1.00102,1.56179,0.11779,-0.13241,-0.45710,0.07208,,,,,,,,,,,,,,,,,,,,,,,,,,0,0,0,0,0
3.2157,1783441078.8374,1,1,1.0000,0.0000,1.41972,0.14598,-2.66988,1.00111,1.56179,0.11772,-0.13241,-0.45725,0.07207,,,,,,,,,,,,,,,,,,,,,,,,,,0,0,0,0,0
3.2256,1783441078.8473,1,1,1.0000,0.0000,1.41980,0.14560,-2.66960,1.00122,1.56179,0.11765,-0.13241,-0.45742,0.07207,,,,,,,,,,,,,,,,,,,,,,,,,,0,0,0,0,0
3.2350,1783441078.8567,1,1,1.0000,0.0000,1.41991,0.14502,-2.66918,1.00137,1.56179,0.11754,-0.13242,-0.45767,0.07207,,,,,,,,,,,,,,,,,,,,,,,,,,0,0,0,0,0
3.2455,1783441078.8672,1,1,1.0000,0.0000,1.42012,0.14392,-2.66839,1.00167,1.56179,0.11733,-0.13242,-0.45816,0.07207,,,,,,,,,,,,,,,,,,,,,,,,,,0,0,0,0,0
3.2576,1783441078.8793,1,1,1.0000,0.0000,1.42014,0.14383,-2.66832,1.00170,1.56179,0.11731,-0.13242,-0.45820,0.07207,,,,,,,,,,,,,,,,,,,,,,,,,,0,0,0,0,0
3.2686,1783441078.8903,1,1,1.0000,0.0000,1.42019,0.14357,-2.66813,1.00177,1.56179,0.11726,-0.13243,-0.45832,0.07207,,,,,,,,,,,,,,,,,,,,,,,,,,0,0,0,0,0
3.2764,1783441078.8981,1,1,1.0000,0.0000,1.42025,0.14322,-2.66787,1.00187,1.56179,0.11719,-0.13243,-0.45847,0.07207,,,,,,,,,,,,,,,,,,,,,,,,,,0,0,0,0,0
3.2854,1783441078.9071,1,1,1.0000,0.0000,1.42029,0.14301,-2.66772,1.00193,1.56179,0.11715,-0.13243,-0.45857,0.07207,,,,,,,,,,,,,,,,,,,,,,,,,,0,0,0,0,0
3.2964,1783441078.9181,1,1,1.0000,0.0000,1.42032,0.14290,-2.66764,1.00196,1.56179,0.11713,-0.13243,-0.45861,0.07207,,,,,,,,,,,,,,,,,,,,,,,,,,0,0,0,0,0
3.3070,1783441078.9287,1,1,1.0000,0.0000,1.42037,0.14261,-2.66744,1.00205,1.56179,0.11706,-0.13243,-0.45874,0.07206,,,,,,,,,,,,,,,,,,,,,,,,,,0,0,0,0,0
3.3180,1783441078.9397,1,1,1.0000,0.0000,1.42044,0.14225,-2.66721,1.00216,1.56179,0.11699,-0.13244,-0.45888,0.07205,,,,,,,,,,,,,,,,,,,,,,,,,,0,0,0,0,0
3.3185,1783441078.9402,1,1,1.0000,0.0000,1.42044,0.14225,-2.66721,1.00216,1.56179,0.11699,-0.13244,-0.45888,0.07205,,,,,,,,,,,,,,,,,,,,,,,,,,0,0,0,0,0
3.3287,1783441078.9503,1,1,1.0000,0.0000,1.42048,0.14204,-2.66708,1.00222,1.56180,0.11695,-0.13244,-0.45896,0.07204,,,,,,,,,,,,,,,,,,,,,,,,,,0,0,0,0,0
3.3293,1783441078.9510,1,1,1.0000,0.0000,1.42050,0.14196,-2.66703,1.00225,1.56180,0.11693,-0.13244,-0.45899,0.07204,,,,,,,,,,,,,,,,,,,,,,,,,,0,0,0,0,0
3.3365,1783441078.9582,1,1,1.0000,0.0000,1.42051,0.14189,-2.66699,1.00227,1.56180,0.11691,-0.13244,-0.45901,0.07203,,,,,,,,,,,,,,,,,,,,,,,,,,0,0,0,0,0
3.3446,1783441078.9663,1,1,1.0000,0.0000,1.42052,0.14184,-2.66698,1.00229,1.56180,0.11690,-0.13245,-0.45902,0.07202,,,,,,,,,,,,,,,,,,,,,,,,,,0,0,0,0,0
3.3452,1783441078.9669,1,1,1.0000,0.0000,1.42052,0.14184,-2.66698,1.00229,1.56180,0.11690,-0.13245,-0.45902,0.07202,,,,,,,,,,,,,,,,,,,,,,,,,,0,0,0,0,0
3.3579,1783441078.9796,1,1,1.0000,0.0000,1.42052,0.14184,-2.66698,1.00229,1.56180,0.11690,-0.13245,-0.45902,0.07202,,,,,,,,,,,,,,,,,,,,,,,,,,0,0,0,0,0
3.3654,1783441078.9871,1,1,1.0000,0.0000,1.42052,0.14184,-2.66698,1.00229,1.56180,0.11690,-0.13245,-0.45902,0.07202,,,,,,,,,,,,,,,,,,,,,,,,,,0,0,0,0,0
3.3658,1783441078.9875,1,1,1.0000,0.0000,1.42052,0.14184,-2.66698,1.00229,1.56180,0.11690,-0.13245,-0.45902,0.07202,,,,,,,,,,,,,,,,,,,,,,,,,,0,0,0,0,0
3.3788,1783441079.0005,1,1,1.0000,0.0000,1.42052,0.14184,-2.66698,1.00229,1.56180,0.11690,-0.13245,-0.45902,0.07202,,,,,,,,,,,,,,,,,,,,,,,,,,0,0,0,0,0
3.3861,1783441079.0078,1,1,1.0000,0.0000,1.42052,0.14184,-2.66698,1.00229,1.56180,0.11690,-0.13245,-0.45902,0.07202,,,,,,,,,,,,,,,,,,,,,,,,,,0,0,0,0,0
3.3976,1783441079.0193,1,1,1.0000,0.0000,1.42052,0.14184,-2.66698,1.00229,1.56180,0.11690,-0.13245,-0.45902,0.07202,,,,,,,,,,,,,,,,,,,,,,,,,,0,0,0,0,0
3.3981,1783441079.0198,1,1,1.0000,0.0000,1.42052,0.14184,-2.66698,1.00229,1.56180,0.11690,-0.13245,-0.45902,0.07202,,,,,,,,,,,,,,,,,,,,,,,,,,0,0,0,0,0
3.4060,1783441079.0277,1,1,1.0000,0.0000,1.42052,0.14184,-2.66698,1.00229,1.56180,0.11690,-0.13245,-0.45902,0.07202,,,,,,,,,,,,,,,,,,,,,,,,,,0,0,0,0,0
3.4168,1783441079.0385,1,1,1.0000,0.0000,1.42052,0.14184,-2.66698,1.00229,1.56180,0.11690,-0.13245,-0.45902,0.07202,,,,,,,,,,,,,,,,,,,,,,,,,,0,0,0,0,0
3.4397,1783441079.0614,1,1,1.0000,0.0000,1.42052,0.14184,-2.66698,1.00229,1.56180,0.11690,-0.13245,-0.45902,0.07202,,,,,,,,,,,,,,,,,,,,,,,,,,0,0,0,0,0
3.4401,1783441079.0618,1,1,1.0000,0.0000,1.42052,0.14184,-2.66698,1.00229,1.56180,0.11690,-0.13245,-0.45902,0.07202,,,,,,,,,,,,,,,,,,,,,,,,,,0,0,0,0,0
3.4463,1783441079.0680,1,1,1.0000,0.0000,1.42052,0.14184,-2.66698,1.00229,1.56180,0.11690,-0.13245,-0.45902,0.07202,,,,,,,,,,,,,,,,,,,,,,,,,,0,0,0,0,0
3.4593,1783441079.0809,1,1,1.0000,0.0000,1.42052,0.14184,-2.66698,1.00229,1.56180,0.11690,-0.13245,-0.45902,0.07202,,,,,,,,,,,,,,,,,,,,,,,,,,0,0,0,0,0
3.4655,1783441079.0871,1,1,1.0000,0.0000,1.42052,0.14184,-2.66698,1.00229,1.56180,0.11690,-0.13245,-0.45902,0.07202,,,,,,,,,,,,,,,,,,,,,,,,,,0,0,0,0,0
3.4790,1783441079.1007,1,1,1.0000,0.0000,1.42052,0.14184,-2.66698,1.00229,1.56180,0.11690,-0.13245,-0.45902,0.07202,,,,,,,,,,,,,,,,,,,,,,,,,,0,0,0,0,0
3.4860,1783441079.1077,1,1,1.0000,0.0000,1.42052,0.14184,-2.66698,1.00229,1.56180,0.11690,-0.13245,-0.45902,0.07202,,,,,,,,,,,,,,,,,,,,,,,,,,0,0,0,0,0
3.4955,1783441079.1172,1,1,1.0000,0.0000,1.42052,0.14184,-2.66698,1.00229,1.56180,0.11690,-0.13245,-0.45902,0.07202,,,,,,,,,,,,,,,,,,,,,,,,,,0,0,0,0,0
3.5080,1783441079.1297,1,1,1.0000,0.0000,1.42052,0.14184,-2.66698,1.00229,1.56180,0.11690,-0.13245,-0.45902,0.07202,,,,,,,,,,,,,,,,,,,,,,,,,,0,0,0,0,0
3.5164,1783441079.1381,1,1,1.0000,0.0000,1.42052,0.14184,-2.66698,1.00229,1.56180,0.11690,-0.13245,-0.45902,0.07202,,,,,,,,,,,,,,,,,,,,,,,,,,0,0,0,0,0
3.5283,1783441079.1499,1,1,1.0000,0.0000,1.42052,0.14184,-2.66698,1.00229,1.56180,0.11690,-0.13245,-0.45902,0.07202,,,,,,,,,,,,,,,,,,,,,,,,,,0,0,0,0,0
3.5286,1783441079.1503,1,1,1.0000,0.0000,1.42052,0.14184,-2.66698,1.00229,1.56180,0.11690,-0.13245,-0.45902,0.07202,,,,,,,,,,,,,,,,,,,,,,,,,,0,0,0,0,0
3.5350,1783441079.1567,1,1,1.0000,0.0000,1.42052,0.14184,-2.66698,1.00229,1.56180,0.11690,-0.13245,-0.45902,0.07202,,,,,,,,,,,,,,,,,,,,,,,,,,0,0,0,0,0
3.5467,1783441079.1683,1,1,1.0000,0.0000,1.42052,0.14184,-2.66698,1.00229,1.56180,0.11690,-0.13245,-0.45902,0.07202,,,,,,,,,,,,,,,,,,,,,,,,,,0,0,0,0,0
3.5554,1783441079.1771,1,1,1.0000,0.0000,1.42052,0.14184,-2.66698,1.00229,1.56180,0.11690,-0.13245,-0.45902,0.07202,,,,,,,,,,,,,,,,,,,,,,,,,,0,0,0,0,0
3.5558,1783441079.1775,1,1,1.0000,0.0000,1.42052,0.14184,-2.66698,1.00229,1.56180,0.11690,-0.13245,-0.45902,0.07202,,,,,,,,,,,,,,,,,,,,,,,,,,0,0,0,0,0
3.5670,1783441079.1886,1,1,1.0000,0.0000,1.42052,0.14184,-2.66698,1.00229,1.56180,0.11690,-0.13245,-0.45902,0.07202,,,,,,,,,,,,,,,,,,,,,,,,,,0,0,0,0,0
3.5761,1783441079.1978,1,1,1.0000,0.0000,1.42052,0.14184,-2.66698,1.00229,1.56180,0.11690,-0.13245,-0.45902,0.07202,,,,,,,,,,,,,,,,,,,,,,,,,,0,0,0,0,0
3.5882,1783441079.2099,1,1,1.0000,0.0000,1.42052,0.14184,-2.66698,1.00229,1.56180,0.11690,-0.13245,-0.45902,0.07202,,,,,,,,,,,,,,,,,,,,,,,,,,0,0,0,0,0
3.5951,1783441079.2168,1,1,1.0000,0.0000,1.42052,0.14184,-2.66698,1.00229,1.56180,0.11690,-0.13245,-0.45902,0.07202,,,,,,,,,,,,,,,,,,,,,,,,,,0,0,0,0,0
3.6123,1783441079.2340,1,1,1.0000,0.0000,1.42052,0.14184,-2.66698,1.00229,1.56180,0.11690,-0.13245,-0.45902,0.07202,,,,,,,,,,,,,,,,,,,,,,,,,,0,0,0,0,0
3.6186,1783441079.2403,1,1,1.0000,0.0000,1.42052,0.14184,-2.66698,1.00229,1.56180,0.11690,-0.13245,-0.45902,0.07202,,,,,,,,,,,,,,,,,,,,,,,,,,0,0,0,0,0
3.6254,1783441079.2471,1,1,1.0000,0.0000,1.42052,0.14184,-2.66698,1.00229,1.56180,0.11690,-0.13245,-0.45902,0.07202,,,,,,,,,,,,,,,,,,,,,,,,,,0,0,0,0,0
3.6259,1783441079.2476,1,1,1.0000,0.0000,1.42052,0.14184,-2.66698,1.00229,1.56180,0.11690,-0.13245,-0.45902,0.07202,,,,,,,,,,,,,,,,,,,,,,,,,,0,0,0,0,0
3.6352,1783441079.2569,1,1,1.0000,0.0000,1.42052,0.14184,-2.66698,1.00229,1.56180,0.11690,-0.13245,-0.45902,0.07202,,,,,,,,,,,,,,,,,,,,,,,,,,0,0,0,0,0
3.6460,1783441079.2677,1,1,1.0000,0.0000,1.42052,0.14184,-2.66698,1.00229,1.56180,0.11690,-0.13245,-0.45902,0.07202,,,,,,,,,,,,,,,,,,,,,,,,,,0,0,0,0,0
3.6656,1783441079.2873,1,1,1.0000,0.0000,1.42052,0.14184,-2.66698,1.00229,1.56180,0.11690,-0.13245,-0.45902,0.07202,,,,,,,,,,,,,,,,,,,,,,,,,,0,0,0,0,0
3.6659,1783441079.2876,1,1,1.0000,0.0000,1.42052,0.14184,-2.66698,1.00229,1.56180,0.11690,-0.13245,-0.45902,0.07202,,,,,,,,,,,,,,,,,,,,,,,,,,0,0,0,0,0
3.6669,1783441079.2886,1,1,1.0000,0.0000,1.42052,0.14184,-2.66698,1.00229,1.56180,0.11690,-0.13245,-0.45902,0.07202,,,,,,,,,,,,,,,,,,,,,,,,,,0,0,0,0,0
3.6673,1783441079.2890,1,1,1.0000,0.0000,1.42052,0.14184,-2.66698,1.00229,1.56180,0.11690,-0.13245,-0.45902,0.07202,,,,,,,,,,,,,,,,,,,,,,,,,,0,0,0,0,0
3.6774,1783441079.2991,1,1,1.0000,0.0000,1.42052,0.14184,-2.66698,1.00229,1.56180,0.11690,-0.13245,-0.45902,0.07202,,,,,,,,,,,,,,,,,,,,,,,,,,0,0,0,0,0
3.6858,1783441079.3075,1,1,1.0000,0.0000,1.42052,0.14184,-2.66698,1.00229,1.56180,0.11690,-0.13245,-0.45902,0.07202,,,,,,,,,,,,,,,,,,,,,,,,,,0,0,0,0,0
3.6863,1783441079.3080,1,1,1.0000,0.0000,1.42052,0.14184,-2.66698,1.00229,1.56180,0.11690,-0.13245,-0.45902,0.07202,,,,,,,,,,,,,,,,,,,,,,,,,,0,0,0,0,0
3.6950,1783441079.3167,1,1,1.0000,0.0000,1.42052,0.14184,-2.66698,1.00229,1.56180,0.11690,-0.13245,-0.45902,0.07202,,,,,,,,,,,,,,,,,,,,,,,,,,0,0,0,0,0
3.7053,1783441079.3270,1,1,1.0000,0.0000,1.42052,0.14184,-2.66698,1.00229,1.56180,0.11690,-0.13245,-0.45902,0.07202,,,,,,,,,,,,,,,,,,,,,,,,,,0,0,0,0,0
3.7156,1783441079.3373,1,1,1.0000,0.0000,1.42052,0.14184,-2.66698,1.00229,1.56180,0.11690,-0.13245,-0.45902,0.07202,,,,,,,,,,,,,,,,,,,,,,,,,,0,0,0,0,0
3.7293,1783441079.3510,1,1,1.0000,0.0000,1.42052,0.14184,-2.66698,1.00229,1.56180,0.11690,-0.13245,-0.45902,0.07202,,,,,,,,,,,,,,,,,,,,,,,,,,0,0,0,0,0
3.7354,1783441079.3571,1,1,1.0000,0.0000,1.42052,0.14184,-2.66698,1.00229,1.56180,0.11690,-0.13245,-0.45902,0.07202,,,,,,,,,,,,,,,,,,,,,,,,,,0,0,0,0,0
3.7498,1783441079.3715,1,1,1.0000,0.0000,1.42052,0.14183,-2.66698,1.00231,1.56180,0.11689,-0.13244,-0.45903,0.07202,,,,,,,,,,,,,,,,,,,,,,,,,,0,0,0,0,0
3.7561,1783441079.3778,1,1,1.0000,0.0000,1.42052,0.14183,-2.66697,1.00232,1.56180,0.11689,-0.13244,-0.45903,0.07202,,,,,,,,,,,,,,,,,,,,,,,,,,0,0,0,0,0
3.7567,1783441079.3784,1,1,1.0000,0.0000,1.42052,0.14183,-2.66697,1.00232,1.56180,0.11689,-0.13244,-0.45903,0.07202,,,,,,,,,,,,,,,,,,,,,,,,,,0,0,0,0,0
3.7726,1783441079.3943,1,1,1.0000,0.0000,1.42052,0.14180,-2.66698,1.00236,1.56180,0.11688,-0.13244,-0.45903,0.07201,,,,,,,,,,,,,,,,,,,,,,,,,,0,0,0,0,0
3.7808,1783441079.4025,1,1,1.0000,0.0000,1.42052,0.14176,-2.66700,1.00242,1.56180,0.11688,-0.13244,-0.45903,0.07200,,,,,,,,,,,,,,,,,,,,,,,,,,0,0,0,0,0
3.7890,1783441079.4107,1,1,1.0000,0.0000,1.42052,0.14170,-2.66702,1.00250,1.56180,0.11687,-0.13244,-0.45903,0.07198,,,,,,,,,,,,,,,,,,,,,,,,,,0,0,0,0,0
3.7986,1783441079.4203,1,1,1.0000,0.0000,1.42052,0.14167,-2.66703,1.00254,1.56180,0.11687,-0.13244,-0.45903,0.07197,,,,,,,,,,,,,,,,,,,,,,,,,,0,0,0,0,0
3.8093,1783441079.4310,1,1,1.0000,0.0000,1.42052,0.14153,-2.66707,1.00272,1.56180,0.11686,-0.13244,-0.45903,0.07192,,,,,,,,,,,,,,,,,,,,,,,,,,0,0,0,0,0
3.8207,1783441079.4424,1,1,1.0000,0.0000,1.42052,0.14138,-2.66711,1.00291,1.56180,0.11686,-0.13244,-0.45903,0.07187,,,,,,,,,,,,,,,,,,,,,,,,,,0,0,0,0,0
3.8294,1783441079.4511,1,1,1.0000,0.0000,1.42052,0.14131,-2.66712,1.00298,1.56180,0.11685,-0.13244,-0.45903,0.07185,,,,,,,,,,,,,,,,,,,,,,,,,,0,0,0,0,0
3.8297,1783441079.4514,1,1,1.0000,0.0000,1.42052,0.14131,-2.66712,1.00298,1.56180,0.11685,-0.13244,-0.45903,0.07185,,,,,,,,,,,,,,,,,,,,,,,,,,0,0,0,0,0
3.8383,1783441079.4600,1,1,1.0000,0.0000,1.42052,0.14114,-2.66716,1.00320,1.56181,0.11685,-0.13244,-0.45904,0.07179,,,,,,,,,,,,,,,,,,,,,,,,,,0,0,0,0,0
3.8387,1783441079.4604,1,1,1.0000,0.0000,1.42052,0.14114,-2.66716,1.00320,1.56181,0.11685,-0.13244,-0.45904,0.07179,,,,,,,,,,,,,,,,,,,,,,,,,,0,0,0,0,0
3.8493,1783441079.4709,1,1,1.0000,0.0000,1.42052,0.14099,-2.66720,1.00338,1.56181,0.11685,-0.13244,-0.45904,0.07175,,,,,,,,,,,,,,,,,,,,,,,,,,0,0,0,0,0
3.8602,1783441079.4819,1,1,1.0000,0.0000,1.42052,0.14080,-2.66724,1.00363,1.56181,0.11685,-0.13244,-0.45905,0.07168,,,,,,,,,,,,,,,,,,,,,,,,,,0,0,0,0,0
3.8711,1783441079.4928,1,1,1.0000,0.0000,1.42052,0.14023,-2.66738,1.00433,1.56181,0.11684,-0.13243,-0.45906,0.07151,,,,,,,,,,,,,,,,,,,,,,,,,,0,0,0,0,0
3.8796,1783441079.5013,1,1,1.0000,0.0000,1.42052,0.14000,-2.66743,1.00462,1.56181,0.11684,-0.13243,-0.45907,0.07143,,,,,,,,,,,,,,,,,,,,,,,,,,0,0,0,0,0
3.8909,1783441079.5126,1,1,1.0000,0.0000,1.42052,0.13977,-2.66749,1.00491,1.56181,0.11683,-0.13243,-0.45908,0.07136,,,,,,,,,,,,,,,,,,,,,,,,,,0,0,0,0,0
3.8988,1783441079.5205,1,1,1.0000,0.0000,1.42052,0.13940,-2.66757,1.00536,1.56181,0.11683,-0.13243,-0.45909,0.07124,,,,,,,,,,,,,,,,,,,,,,,,,,0,0,0,0,0
3.9241,1783441079.5458,1,1,1.0000,0.0000,1.42053,0.13857,-2.66777,1.00640,1.56181,0.11682,-0.13243,-0.45911,0.07097,,,,,,,,,,,,,,,,,,,,,,,,,,0,0,0,0,0
3.9245,1783441079.5462,1,1,1.0000,0.0000,1.42053,0.13857,-2.66777,1.00640,1.56181,0.11682,-0.13243,-0.45911,0.07097,,,,,,,,,,,,,,,,,,,,,,,,,,0,0,0,0,0
3.9251,1783441079.5468,1,1,1.0000,0.0000,1.42053,0.13846,-2.66780,1.00654,1.56181,0.11682,-0.13243,-0.45911,0.07094,,,,,,,,,,,,,,,,,,,,,,,,,,0,0,0,0,0
3.9334,1783441079.5551,1,1,1.0000,0.0000,1.42053,0.13814,-2.66788,1.00693,1.56181,0.11682,-0.13242,-0.45912,0.07084,,,,,,,,,,,,,,,,,,,,,,,,,,0,0,0,0,0
3.9413,1783441079.5630,1,1,1.0000,0.0000,1.42053,0.13811,-2.66788,1.00696,1.56181,0.11682,-0.13242,-0.45912,0.07083,,,,,,,,,,,,,,,,,,,,,,,,,,0,0,0,0,0
3.9482,1783441079.5699,1,1,1.0000,0.0000,1.42053,0.13804,-2.66790,1.00706,1.56181,0.11682,-0.13242,-0.45912,0.07080,,,,,,,,,,,,,,,,,,,,,,,,,,0,0,0,0,0
3.9487,1783441079.5704,1,1,1.0000,0.0000,1.42053,0.13804,-2.66790,1.00706,1.56181,0.11682,-0.13242,-0.45912,0.07080,,,,,,,,,,,,,,,,,,,,,,,,,,0,0,0,0,0
3.9608,1783441079.5825,1,1,1.0000,0.0000,1.42053,0.13761,-2.66801,1.00760,1.56181,0.11681,-0.13242,-0.45913,0.07067,,,,,,,,,,,,,,,,,,,,,,,,,,0,0,0,0,0
3.9921,1783441079.6138,1,1,1.0000,0.0000,1.42053,0.13684,-2.66818,1.00857,1.56182,0.11681,-0.13242,-0.45916,0.07043,,,,,,,,,,,,,,,,,,,,,,,,,,0,0,0,0,0
4.0277,1783441079.6494,1,1,1.0000,0.0000,1.42053,0.13635,-2.66829,1.00922,1.56182,0.11680,-0.13242,-0.45919,0.07028,,,,,,,,,,,,,,,,,,,,,,,,,,0,0,0,0,0
4.0282,1783441079.6499,1,1,1.0000,0.0000,1.42053,0.13635,-2.66829,1.00922,1.56182,0.11680,-0.13242,-0.45919,0.07028,,,,,,,,,,,,,,,,,,,,,,,,,,0,0,0,0,0
4.0287,1783441079.6504,1,1,1.0000,0.0000,1.42053,0.13635,-2.66829,1.00922,1.56182,0.11680,-0.13242,-0.45919,0.07028,,,,,,,,,,,,,,,,,,,,,,,,,,0,0,0,0,0
4.0446,1783441079.6662,1,1,1.0000,0.0000,1.42053,0.13621,-2.66833,1.00941,1.56182,0.11680,-0.13241,-0.45919,0.07024,,,,,,,,,,,,,,,,,,,,,,,,,,0,0,0,0,0
4.0452,1783441079.6669,1,1,1.0000,0.0000,1.42053,0.13614,-2.66834,1.00950,1.56182,0.11680,-0.13241,-0.45919,0.07022,,,,,,,,,,,,,,,,,,,,,,,,,,0,0,0,0,0
4.0533,1783441079.6750,1,1,1.0000,0.0000,1.42054,0.13598,-2.66838,1.00971,1.56182,0.11679,-0.13241,-0.45920,0.07017,,,,,,,,,,,,,,,,,,,,,,,,,,0,0,0,0,0
4.0537,1783441079.6754,1,1,1.0000,0.0000,1.42054,0.13598,-2.66838,1.00971,1.56182,0.11679,-0.13241,-0.45920,0.07017,,,,,,,,,,,,,,,,,,,,,,,,,,0,0,0,0,0
4.1493,1783441079.7710,1,1,1.0000,0.0000,1.42054,0.13413,-2.66886,1.01202,1.56182,0.11678,-0.13241,-0.45922,0.06956,,,,,,,,,,,,,,,,,,,,,,,,,,0,0,0,0,0
4.1498,1783441079.7715,1,1,1.0000,0.0000,1.42054,0.13413,-2.66886,1.01202,1.56182,0.11678,-0.13241,-0.45922,0.06956,,,,,,,,,,,,,,,,,,,,,,,,,,0,0,0,0,0
4.1502,1783441079.7718,1,1,1.0000,0.0000,1.42054,0.13413,-2.66886,1.01202,1.56182,0.11678,-0.13241,-0.45922,0.06956,,,,,,,,,,,,,,,,,,,,,,,,,,0,0,0,0,0
4.1506,1783441079.7723,1,1,1.0000,0.0000,1.42054,0.13413,-2.66886,1.01202,1.56182,0.11678,-0.13241,-0.45922,0.06956,,,,,,,,,,,,,,,,,,,,,,,,,,0,0,0,0,0
4.1512,1783441079.7729,1,1,1.0000,0.0000,1.42054,0.13413,-2.66886,1.01202,1.56182,0.11678,-0.13241,-0.45922,0.06956,,,,,,,,,,,,,,,,,,,,,,,,,,0,0,0,0,0
4.1516,1783441079.7733,1,1,1.0000,0.0000,1.42054,0.13413,-2.66886,1.01202,1.56182,0.11678,-0.13241,-0.45922,0.06956,,,,,,,,,,,,,,,,,,,,,,,,,,0,0,0,0,0
4.1520,1783441079.7737,1,1,1.0000,0.0000,1.42054,0.13413,-2.66886,1.01202,1.56182,0.11678,-0.13241,-0.45922,0.06956,,,,,,,,,,,,,,,,,,,,,,,,,,0,0,0,0,0
4.1527,1783441079.7744,1,1,1.0000,0.0000,1.42054,0.13413,-2.66886,1.01202,1.56182,0.11678,-0.13241,-0.45922,0.06956,,,,,,,,,,,,,,,,,,,,,,,,,,0,0,0,0,0
4.1533,1783441079.7750,1,1,1.0000,0.0000,1.42054,0.13411,-2.66887,1.01206,1.56182,0.11678,-0.13241,-0.45922,0.06955,,,,,,,,,,,,,,,,,,,,,,,,,,0,0,0,0,0
4.1595,1783441079.7812,1,1,1.0000,0.0000,1.42054,0.13403,-2.66889,1.01216,1.56182,0.11678,-0.13241,-0.45922,0.06953,,,,,,,,,,,,,,,,,,,,,,,,,,0,0,0,0,0
4.1600,1783441079.7817,1,1,1.0000,0.0000,1.42054,0.13403,-2.66889,1.01216,1.56182,0.11678,-0.13241,-0.45922,0.06953,,,,,,,,,,,,,,,,,,,,,,,,,,0,0,0,0,0
4.1795,1783441079.8012,1,1,1.0000,0.0000,1.42054,0.13307,-2.66913,1.01334,1.56183,0.11677,-0.13241,-0.45924,0.06921,,,,,,,,,,,,,,,,,,,,,,,,,,0,0,0,0,0
4.1805,1783441079.8022,1,1,1.0000,0.0000,1.42054,0.13307,-2.66913,1.01334,1.56183,0.11677,-0.13241,-0.45924,0.06921,,,,,,,,,,,,,,,,,,,,,,,,,,0,0,0,0,0
4.1808,1783441079.8025,1,1,1.0000,0.0000,1.42054,0.13307,-2.66913,1.01334,1.56183,0.11677,-0.13241,-0.45924,0.06921,,,,,,,,,,,,,,,,,,,,,,,,,,0,0,0,0,0
4.1901,1783441079.8118,1,1,1.0000,0.0000,1.42054,0.13296,-2.66916,1.01348,1.56183,0.11677,-0.13241,-0.45924,0.06918,,,,,,,,,,,,,,,,,,,,,,,,,,0,0,0,0,0
4.2000,1783441079.8217,1,1,1.0000,0.0000,1.42055,0.13266,-2.66924,1.01385,1.56183,0.11676,-0.13241,-0.45924,0.06908,,,,,,,,,,,,,,,,,,,,,,,,,,0,0,0,0,0
4.2004,1783441079.8221,1,1,1.0000,0.0000,1.42055,0.13266,-2.66924,1.01385,1.56183,0.11676,-0.13241,-0.45924,0.06908,,,,,,,,,,,,,,,,,,,,,,,,,,0,0,0,0,0
4.2133,1783441079.8350,1,1,1.0000,0.0000,1.42055,0.13233,-2.66932,1.01425,1.56183,0.11676,-0.13241,-0.45924,0.06897,,,,,,,,,,,,,,,,,,,,,,,,,,0,0,0,0,0
4.2247,1783441079.8464,1,1,1.0000,0.0000,1.42055,0.13202,-2.66939,1.01464,1.56183,0.11676,-0.13241,-0.45925,0.06887,,,,,,,,,,,,,,,,,,,,,,,,,,0,0,0,0,0
4.2282,1783441079.8499,1,1,1.0000,0.0000,1.42055,0.13181,-2.66945,1.01490,1.56183,0.11676,-0.13241,-0.45925,0.06880,,,,,,,,,,,,,,,,,,,,,,,,,,0,0,0,0,0
4.2292,1783441079.8509,1,1,1.0000,0.0000,1.42055,0.13158,-2.66950,1.01519,1.56183,0.11675,-0.13240,-0.45926,0.06873,,,,,,,,,,,,,,,,,,,,,,,,,,0,0,0,0,0
4.2398,1783441079.8615,1,1,1.0000,0.0000,1.42055,0.13133,-2.66956,1.01550,1.56183,0.11675,-0.13240,-0.45926,0.06865,,,,,,,,,,,,,,,,,,,,,,,,,,0,0,0,0,0
4.2560,1783441079.8777,1,1,1.0000,0.0000,1.42055,0.13104,-2.66963,1.01587,1.56183,0.11675,-0.13240,-0.45927,0.06856,,,,,,,,,,,,,,,,,,,,,,,,,,0,0,0,0,0
4.2587,1783441079.8804,1,1,1.0000,0.0000,1.42055,0.13090,-2.66967,1.01605,1.56183,0.11675,-0.13240,-0.45928,0.06852,,,,,,,,,,,,,,,,,,,,,,,,,,0,0,0,0,0
4.2689,1783441079.8906,1,1,1.0000,0.0000,1.42055,0.13058,-2.66974,1.01646,1.56183,0.11674,-0.13240,-0.45929,0.06841,,,,,,,,,,,,,,,,,,,,,,,,,,0,0,0,0,0
4.2815,1783441079.9032,1,1,1.0000,0.0000,1.42055,0.12992,-2.66990,1.01730,1.56183,0.11674,-0.13240,-0.45931,0.06821,,,,,,,,,,,,,,,,,,,,,,,,,,0,0,0,0,0
4.2987,1783441079.9204,1,1,1.0000,0.0000,1.42056,0.12959,-2.66997,1.01772,1.56184,0.11673,-0.13240,-0.45932,0.06811,,,,,,,,,,,,,,,,,,,,,,,,,,0,0,0,0,0
4.3024,1783441079.9241,1,1,1.0000,0.0000,1.42056,0.12959,-2.66997,1.01772,1.56184,0.11673,-0.13240,-0.45932,0.06811,,,,,,,,,,,,,,,,,,,,,,,,,,0,0,0,0,0
4.3133,1783441079.9350,1,1,1.0000,0.0000,1.42056,0.12956,-2.66997,1.01777,1.56184,0.11673,-0.13239,-0.45933,0.06811,,,,,,,,,,,,,,,,,,,,,,,,,,0,0,0,0,0
4.3201,1783441079.9418,1,1,1.0000,0.0000,1.42056,0.12955,-2.66998,1.01779,1.56184,0.11673,-0.13239,-0.45933,0.06810,,,,,,,,,,,,,,,,,,,,,,,,,,0,0,0,0,0
4.3320,1783441079.9537,1,1,1.0000,0.0000,1.42056,0.12951,-2.66999,1.01785,1.56184,0.11673,-0.13239,-0.45933,0.06809,,,,,,,,,,,,,,,,,,,,,,,,,,0,0,0,0,0
4.3438,1783441079.9655,1,1,1.0000,0.0000,1.42056,0.12946,-2.67001,1.01792,1.56184,0.11673,-0.13239,-0.45933,0.06807,,,,,,,,,,,,,,,,,,,,,,,,,,0,0,0,0,0
4.3576,1783441079.9792,1,1,1.0000,0.0000,1.42056,0.12925,-2.67007,1.01818,1.56184,0.11673,-0.13240,-0.45932,0.06800,,,,,,,,,,,,,,,,,,,,,,,,,,0,0,0,0,0
4.3580,1783441079.9797,1,1,1.0000,0.0000,1.42056,0.12925,-2.67007,1.01818,1.56184,0.11673,-0.13240,-0.45932,0.06800,,,,,,,,,,,,,,,,,,,,,,,,,,0,0,0,0,0
4.3618,1783441079.9835,1,1,1.0000,0.0000,1.42056,0.12925,-2.67007,1.01818,1.56184,0.11673,-0.13240,-0.45932,0.06800,,,,,,,,,,,,,,,,,,,,,,,,,,0,0,0,0,0
4.3695,1783441079.9911,1,1,1.0000,0.0000,1.42056,0.12920,-2.67009,1.01824,1.56184,0.11673,-0.13240,-0.45932,0.06798,,,,,,,,,,,,,,,,,,,,,,,,,,0,0,0,0,0
4.3698,1783441079.9915,1,1,1.0000,0.0000,1.42056,0.12920,-2.67009,1.01824,1.56184,0.11673,-0.13240,-0.45932,0.06798,,,,,,,,,,,,,,,,,,,,,,,,,,0,0,0,0,0
4.3792,1783441080.0009,1,1,1.0000,0.0000,1.42056,0.12906,-2.67013,1.01841,1.56184,0.11673,-0.13240,-0.45932,0.06793,,,,,,,,,,,,,,,,,,,,,,,,,,0,0,0,0,0
4.3927,1783441080.0143,1,1,1.0000,0.0000,1.42056,0.12894,-2.67016,1.01856,1.56184,0.11673,-0.13240,-0.45932,0.06789,,,,,,,,,,,,,,,,,,,,,,,,,,0,0,0,0,0
4.4009,1783441080.0226,1,1,1.0000,0.0000,1.42056,0.12878,-2.67020,1.01877,1.56184,0.11672,-0.13240,-0.45932,0.06784,,,,,,,,,,,,,,,,,,,,,,,,,,0,0,0,0,0
4.4220,1783441080.0437,1,1,1.0000,0.0000,1.42056,0.12787,-2.67043,1.01988,1.56184,0.11672,-0.13240,-0.45933,0.06754,,,,,,,,,,,,,,,,,,,,,,,,,,0,0,0,0,0
4.4253,1783441080.0470,1,1,1.0000,0.0000,1.42056,0.12784,-2.67044,1.01991,1.56184,0.11672,-0.13240,-0.45933,0.06753,,,,,,,,,,,,,,,,,,,,,,,,,,0,0,0,0,0
4.4300,1783441080.0517,1,1,1.0000,0.0000,1.42056,0.12777,-2.67046,1.02000,1.56184,0.11672,-0.13240,-0.45933,0.06751,,,,,,,,,,,,,,,,,,,,,,,,,,0,0,0,0,0
4.4446,1783441080.0663,1,1,1.0000,0.0000,1.42056,0.12734,-2.67056,1.02053,1.56184,0.11671,-0.13239,-0.45933,0.06737,,,,,,,,,,,,,,,,,,,,,,,,,,0,0,0,0,0
4.4534,1783441080.0751,1,1,1.0000,0.0000,1.42056,0.12691,-2.67067,1.02106,1.56184,0.11671,-0.13239,-0.45934,0.06723,,,,,,,,,,,,,,,,,,,,,,,,,,0,0,0,0,0
4.4657,1783441080.0874,1,1,1.0000,0.0000,1.42056,0.12668,-2.67073,1.02135,1.56184,0.11671,-0.13239,-0.45934,0.06715,,,,,,,,,,,,,,,,,,,,,,,,,,0,0,0,0,0
4.4737,1783441080.0954,1,1,1.0000,0.0000,1.42057,0.12631,-2.67082,1.02179,1.56184,0.11670,-0.13239,-0.45935,0.06703,,,,,,,,,,,,,,,,,,,,,,,,,,0,0,0,0,0
4.4979,1783441080.1196,1,1,1.0000,0.0000,1.42057,0.12567,-2.67097,1.02259,1.56184,0.11670,-0.13239,-0.45936,0.06683,,,,,,,,,,,,,,,,,,,,,,,,,,0,0,0,0,0
4.4985,1783441080.1202,1,1,1.0000,0.0000,1.42057,0.12567,-2.67097,1.02259,1.56184,0.11670,-0.13239,-0.45936,0.06683,,,,,,,,,,,,,,,,,,,,,,,,,,0,0,0,0,0
4.5059,1783441080.1276,1,1,1.0000,0.0000,1.42057,0.12519,-2.67109,1.02318,1.56184,0.11669,-0.13239,-0.45936,0.06667,,,,,,,,,,,,,,,,,,,,,,,,,,0,0,0,0,0
4.5064,1783441080.1281,1,1,1.0000,0.0000,1.42057,0.12519,-2.67109,1.02318,1.56184,0.11669,-0.13239,-0.45936,0.06667,,,,,,,,,,,,,,,,,,,,,,,,,,0,0,0,0,0
4.5068,1783441080.1285,1,1,1.0000,0.0000,1.42057,0.12519,-2.67109,1.02318,1.56184,0.11669,-0.13239,-0.45936,0.06667,,,,,,,,,,,,,,,,,,,,,,,,,,0,0,0,0,0
4.5103,1783441080.1320,1,1,1.0000,0.0000,1.42057,0.12519,-2.67109,1.02318,1.56184,0.11669,-0.13239,-0.45936,0.06667,,,,,,,,,,,,,,,,,,,,,,,,,,0,0,0,0,0
4.5107,1783441080.1324,1,1,1.0000,0.0000,1.42057,0.12519,-2.67109,1.02318,1.56184,0.11669,-0.13239,-0.45936,0.06667,,,,,,,,,,,,,,,,,,,,,,,,,,0,0,0,0,0
4.5184,1783441080.1401,1,1,1.0000,0.0000,1.42057,0.12511,-2.67111,1.02329,1.56184,0.11669,-0.13239,-0.45937,0.06665,,,,,,,,,,,,,,,,,,,,,,,,,,0,0,0,0,0
4.5294,1783441080.1511,1,1,1.0000,0.0000,1.42057,0.12475,-2.67120,1.02374,1.56184,0.11669,-0.13239,-0.45937,0.06653,,,,,,,,,,,,,,,,,,,,,,,,,,0,0,0,0,0
4.5301,1783441080.1518,1,1,1.0000,0.0000,1.42057,0.12475,-2.67120,1.02374,1.56184,0.11669,-0.13239,-0.45937,0.06653,,,,,,,,,,,,,,,,,,,,,,,,,,0,0,0,0,0
4.5417,1783441080.1634,1,1,1.0000,0.0000,1.42057,0.12424,-2.67132,1.02437,1.56185,0.11668,-0.13239,-0.45938,0.06637,,,,,,,,,,,,,,,,,,,,,,,,,,0,0,0,0,0
4.5421,1783441080.1638,1,1,1.0000,0.0000,1.42057,0.12424,-2.67132,1.02437,1.56185,0.11668,-0.13239,-0.45938,0.06637,,,,,,,,,,,,,,,,,,,,,,,,,,0,0,0,0,0
4.5497,1783441080.1714,1,1,1.0000,0.0000,1.42057,0.12390,-2.67140,1.02481,1.56185,0.11668,-0.13239,-0.45939,0.06626,,,,,,,,,,,,,,,,,,,,,,,,,,0,0,0,0,0
4.5500,1783441080.1717,1,1,1.0000,0.0000,1.42057,0.12390,-2.67140,1.02481,1.56185,0.11668,-0.13239,-0.45939,0.06626,,,,,,,,,,,,,,,,,,,,,,,,,,0,0,0,0,0
4.5635,1783441080.1852,1,1,1.0000,0.0000,1.42057,0.12348,-2.67151,1.02533,1.56185,0.11668,-0.13239,-0.45940,0.06613,,,,,,,,,,,,,,,,,,,,,,,,,,0,0,0,0,0
4.5680,1783441080.1897,1,1,1.0000,0.0000,1.42057,0.12348,-2.67151,1.02533,1.56185,0.11668,-0.13239,-0.45940,0.06613,,,,,,,,,,,,,,,,,,,,,,,,,,0,0,0,0,0
4.5792,1783441080.2009,1,1,1.0000,0.0000,1.42057,0.12346,-2.67151,1.02537,1.56185,0.11667,-0.13239,-0.45940,0.06613,,,,,,,,,,,,,,,,,,,,,,,,,,0,0,0,0,0
4.5898,1783441080.2115,1,1,1.0000,0.0000,1.42058,0.12339,-2.67151,1.02546,1.56185,0.11667,-0.13238,-0.45942,0.06611,,,,,,,,,,,,,,,,,,,,,,,,,,0,0,0,0,0
4.5902,1783441080.2119,1,1,1.0000,0.0000,1.42058,0.12339,-2.67151,1.02546,1.56185,0.11667,-0.13238,-0.45942,0.06611,,,,,,,,,,,,,,,,,,,,,,,,,,0,0,0,0,0
4.5995,1783441080.2212,1,1,1.0000,0.0000,1.42058,0.12334,-2.67152,1.02555,1.56185,0.11667,-0.13238,-0.45942,0.06610,,,,,,,,,,,,,,,,,,,,,,,,,,0,0,0,0,0
4.5999,1783441080.2216,1,1,1.0000,0.0000,1.42058,0.12334,-2.67152,1.02555,1.56185,0.11667,-0.13238,-0.45942,0.06610,,,,,,,,,,,,,,,,,,,,,,,,,,0,0,0,0,0
4.6080,1783441080.2297,1,1,1.0000,0.0000,1.42058,0.12333,-2.67152,1.02556,1.56185,0.11667,-0.13238,-0.45942,0.06610,,,,,,,,,,,,,,,,,,,,,,,,,,0,0,0,0,0
4.6263,1783441080.2480,1,1,1.0000,0.0000,1.42058,0.12315,-2.67158,1.02578,1.56185,0.11667,-0.13238,-0.45942,0.06604,,,,,,,,,,,,,,,,,,,,,,,,,,0,0,0,0,0
4.6306,1783441080.2523,1,1,1.0000,0.0000,1.42058,0.12309,-2.67160,1.02586,1.56185,0.11667,-0.13238,-0.45942,0.06602,,,,,,,,,,,,,,,,,,,,,,,,,,0,0,0,0,0
4.6310,1783441080.2527,1,1,1.0000,0.0000,1.42058,0.12309,-2.67160,1.02586,1.56185,0.11667,-0.13238,-0.45942,0.06602,,,,,,,,,,,,,,,,,,,,,,,,,,0,0,0,0,0
4.6397,1783441080.2614,1,1,1.0000,0.0000,1.42058,0.12308,-2.67160,1.02587,1.56185,0.11667,-0.13238,-0.45942,0.06601,,,,,,,,,,,,,,,,,,,,,,,,,,0,0,0,0,0
4.6510,1783441080.2727,1,1,1.0000,0.0000,1.42058,0.12291,-2.67164,1.02608,1.56185,0.11667,-0.13238,-0.45942,0.06595,,,,,,,,,,,,,,,,,,,,,,,,,,0,0,0,0,0
4.6520,1783441080.2737,1,1,1.0000,0.0000,1.42058,0.12291,-2.67164,1.02608,1.56185,0.11667,-0.13238,-0.45942,0.06595,,,,,,,,,,,,,,,,,,,,,,,,,,0,0,0,0,0
4.6597,1783441080.2814,1,1,1.0000,0.0000,1.42058,0.12282,-2.67167,1.02619,1.56185,0.11667,-0.13238,-0.45942,0.06592,,,,,,,,,,,,,,,,,,,,,,,,,,0,0,0,0,0
4.6703,1783441080.2920,1,1,1.0000,0.0000,1.42058,0.12264,-2.67171,1.02640,1.56185,0.11667,-0.13238,-0.45942,0.06587,,,,,,,,,,,,,,,,,,,,,,,,,,0,0,0,0,0
4.6813,1783441080.3030,1,1,1.0000,0.0000,1.42058,0.12220,-2.67182,1.02695,1.56185,0.11666,-0.13238,-0.45942,0.06572,,,,,,,,,,,,,,,,,,,,,,,,,,0,0,0,0,0
4.6935,1783441080.3152,1,1,1.0000,0.0000,1.42058,0.12198,-2.67187,1.02721,1.56185,0.11666,-0.13238,-0.45942,0.06565,,,,,,,,,,,,,,,,,,,,,,,,,,0,0,0,0,0
4.6939,1783441080.3156,1,1,1.0000,0.0000,1.42058,0.12198,-2.67187,1.02721,1.56185,0.11666,-0.13238,-0.45942,0.06565,,,,,,,,,,,,,,,,,,,,,,,,,,0,0,0,0,0
4.7025,1783441080.3242,1,1,1.0000,0.0000,1.42058,0.12180,-2.67192,1.02744,1.56185,0.11666,-0.13238,-0.45943,0.06559,,,,,,,,,,,,,,,,,,,,,,,,,,0,0,0,0,0
4.7120,1783441080.3337,1,1,1.0000,0.0000,1.42058,0.12146,-2.67200,1.02784,1.56185,0.11666,-0.13238,-0.45943,0.06548,,,,,,,,,,,,,,,,,,,,,,,,,,0,0,0,0,0
4.7351,1783441080.3568,1,1,1.0000,0.0000,1.42058,0.12078,-2.67216,1.02868,1.56185,0.11665,-0.13238,-0.45944,0.06526,,,,,,,,,,,,,,,,,,,,,,,,,,0,0,0,0,0
4.7355,1783441080.3572,1,1,1.0000,0.0000,1.42058,0.12078,-2.67216,1.02868,1.56185,0.11665,-0.13238,-0.45944,0.06526,,,,,,,,,,,,,,,,,,,,,,,,,,0,0,0,0,0
4.7429,1783441080.3646,1,1,1.0000,0.0000,1.42058,0.12041,-2.67225,1.02914,1.56185,0.11665,-0.13238,-0.45944,0.06514,,,,,,,,,,,,,,,,,,,,,,,,,,0,0,0,0,0
4.7434,1783441080.3651,1,1,1.0000,0.0000,1.42058,0.12041,-2.67225,1.02914,1.56185,0.11665,-0.13238,-0.45944,0.06514,,,,,,,,,,,,,,,,,,,,,,,,,,0,0,0,0,0
4.7516,1783441080.3733,1,1,1.0000,0.0000,1.42058,0.12037,-2.67226,1.02918,1.56185,0.11665,-0.13238,-0.45944,0.06513,,,,,,,,,,,,,,,,,,,,,,,,,,0,0,0,0,0
4.7636,1783441080.3853,1,1,1.0000,0.0000,1.42059,0.11994,-2.67237,1.02971,1.56185,0.11665,-0.13238,-0.45945,0.06499,,,,,,,,,,,,,,,,,,,,,,,,,,0,0,0,0,0
4.7704,1783441080.3921,1,1,1.0000,0.0000,1.42059,0.11946,-2.67248,1.03030,1.56186,0.11664,-0.13238,-0.45946,0.06484,,,,,,,,,,,,,,,,,,,,,,,,,,0,0,0,0,0
4.7785,1783441080.4002,1,1,1.0000,0.0000,1.42059,0.11892,-2.67261,1.03098,1.56186,0.11664,-0.13238,-0.45946,0.06467,,,,,,,,,,,,,,,,,,,,,,,,,,0,0,0,0,0
4.7968,1783441080.4184,1,1,1.0000,0.0000,1.42059,0.11875,-2.67265,1.03118,1.56186,0.11664,-0.13238,-0.45947,0.06461,,,,,,,,,,,,,,,,,,,,,,,,,,0,0,0,0,0
4.8048,1783441080.4265,1,1,1.0000,0.0000,1.42059,0.11850,-2.67271,1.03150,1.56186,0.11663,-0.13238,-0.45947,0.06453,,,,,,,,,,,,,,,,,,,,,,,,,,0,0,0,0,0
4.8145,1783441080.4362,1,1,1.0000,0.0000,1.42059,0.11802,-2.67283,1.03210,1.56186,0.11663,-0.13238,-0.45948,0.06438,,,,,,,,,,,,,,,,,,,,,,,,,,0,0,0,0,0
4.8230,1783441080.4447,1,1,1.0000,0.0000,1.42059,0.11768,-2.67291,1.03252,1.56186,0.11663,-0.13238,-0.45949,0.06428,,,,,,,,,,,,,,,,,,,,,,,,,,0,0,0,0,0
4.8337,1783441080.4554,1,1,1.0000,0.0000,1.42059,0.11726,-2.67300,1.03305,1.56186,0.11662,-0.13237,-0.45950,0.06415,,,,,,,,,,,,,,,,,,,,,,,,,,0,0,0,0,0
4.8405,1783441080.4622,1,1,1.0000,0.0000,1.42059,0.11726,-2.67300,1.03305,1.56186,0.11662,-0.13237,-0.45950,0.06415,,,,,,,,,,,,,,,,,,,,,,,,,,0,0,0,0,0
4.8412,1783441080.4629,1,1,1.0000,0.0000,1.42059,0.11726,-2.67300,1.03305,1.56186,0.11662,-0.13237,-0.45950,0.06415,,,,,,,,,,,,,,,,,,,,,,,,,,0,0,0,0,0
4.8494,1783441080.4711,1,1,1.0000,0.0000,1.42059,0.11724,-2.67300,1.03309,1.56186,0.11662,-0.13237,-0.45951,0.06414,,,,,,,,,,,,,,,,,,,,,,,,,,0,0,0,0,0
4.8496,1783441080.4713,1,1,1.0000,0.0000,1.42059,0.11724,-2.67300,1.03309,1.56186,0.11662,-0.13237,-0.45951,0.06414,,,,,,,,,,,,,,,,,,,,,,,,,,0,0,0,0,0
4.8586,1783441080.4803,1,1,1.0000,0.0000,1.42059,0.11720,-2.67300,1.03314,1.56186,0.11662,-0.13237,-0.45951,0.06414,,,,,,,,,,,,,,,,,,,,,,,,,,0,0,0,0,0
4.8591,1783441080.4808,1,1,1.0000,0.0000,1.42059,0.11720,-2.67300,1.03314,1.56186,0.11662,-0.13237,-0.45951,0.06414,,,,,,,,,,,,,,,,,,,,,,,,,,0,0,0,0,0
4.8703,1783441080.4920,1,1,1.0000,0.0000,1.42060,0.11715,-2.67301,1.03322,1.56186,0.11662,-0.13237,-0.45953,0.06413,,,,,,,,,,,,,,,,,,,,,,,,,,0,0,0,0,0
4.8824,1783441080.5041,1,1,1.0000,0.0000,1.42060,0.11711,-2.67302,1.03328,1.56186,0.11662,-0.13237,-0.45953,0.06411,,,,,,,,,,,,,,,,,,,,,,,,,,0,0,0,0,0
4.8966,1783441080.5183,1,1,1.0000,0.0000,1.42060,0.11699,-2.67305,1.03343,1.56186,0.11662,-0.13237,-0.45952,0.06407,,,,,,,,,,,,,,,,,,,,,,,,,,0,0,0,0,0
4.9015,1783441080.5232,1,1,1.0000,0.0000,1.42060,0.11693,-2.67307,1.03350,1.56186,0.11662,-0.13237,-0.45952,0.06406,,,,,,,,,,,,,,,,,,,,,,,,,,0,0,0,0,0
4.9131,1783441080.5348,1,1,1.0000,0.0000,1.42060,0.11684,-2.67310,1.03362,1.56186,0.11662,-0.13237,-0.45952,0.06402,,,,,,,,,,,,,,,,,,,,,,,,,,0,0,0,0,0
4.9202,1783441080.5419,1,1,1.0000,0.0000,1.42060,0.11677,-2.67312,1.03370,1.56186,0.11662,-0.13237,-0.45952,0.06400,,,,,,,,,,,,,,,,,,,,,,,,,,0,0,0,0,0
4.9213,1783441080.5430,1,1,1.0000,0.0000,1.42060,0.11669,-2.67314,1.03380,1.56186,0.11661,-0.13237,-0.45952,0.06397,,,,,,,,,,,,,,,,,,,,,,,,,,0,0,0,0,0
4.9310,1783441080.5527,1,1,1.0000,0.0000,1.42060,0.11667,-2.67314,1.03382,1.56186,0.11661,-0.13237,-0.45952,0.06397,,,,,,,,,,,,,,,,,,,,,,,,,,0,0,0,0,0
4.9428,1783441080.5645,1,1,1.0000,0.0000,1.42060,0.11642,-2.67321,1.03413,1.56186,0.11661,-0.13237,-0.45952,0.06388,,,,,,,,,,,,,,,,,,,,,,,,,,0,0,0,0,0
4.9526,1783441080.5743,1,1,1.0000,0.0000,1.42060,0.11612,-2.67328,1.03449,1.56186,0.11661,-0.13237,-0.45952,0.06378,,,,,,,,,,,,,,,,,,,,,,,,,,0,0,0,0,0
4.9661,1783441080.5878,1,1,1.0000,0.0000,1.42060,0.11575,-2.67338,1.03495,1.56186,0.11661,-0.13237,-0.45952,0.06366,,,,,,,,,,,,,,,,,,,,,,,,,,0,0,0,0,0
4.9665,1783441080.5882,1,1,1.0000,0.0000,1.42060,0.11575,-2.67338,1.03495,1.56186,0.11661,-0.13237,-0.45952,0.06366,,,,,,,,,,,,,,,,,,,,,,,,,,0,0,0,0,0
4.9694,1783441080.5911,1,1,1.0000,0.0000,1.42060,0.11569,-2.67339,1.03503,1.56186,0.11661,-0.13237,-0.45952,0.06364,,,,,,,,,,,,,,,,,,,,,,,,,,0,0,0,0,0
4.9805,1783441080.6022,1,1,1.0000,0.0000,1.42060,0.11546,-2.67345,1.03530,1.56186,0.11661,-0.13237,-0.45952,0.06357,,,,,,,,,,,,,,,,,,,,,,,,,,0,0,0,0,0
4.9813,1783441080.6030,1,1,1.0000,0.0000,1.42060,0.11530,-2.67348,1.03549,1.56186,0.11660,-0.13237,-0.45952,0.06352,,,,,,,,,,,,,,,,,,,,,,,,,,0,0,0,0,0
4.9908,1783441080.6125,1,1,1.0000,0.0000,1.42060,0.11492,-2.67357,1.03596,1.56186,0.11660,-0.13237,-0.45953,0.06340,,,,,,,,,,,,,,,,,,,,,,,,,,0,0,0,0,0
4.9912,1783441080.6129,1,1,1.0000,0.0000,1.42060,0.11492,-2.67357,1.03596,1.56186,0.11660,-0.13237,-0.45953,0.06340,,,,,,,,,,,,,,,,,,,,,,,,,,0,0,0,0,0
4.9996,1783441080.6213,1,1,1.0000,0.0000,1.42060,0.11490,-2.67358,1.03599,1.56186,0.11660,-0.13237,-0.45953,0.06339,,,,,,,,,,,,,,,,,,,,,,,,,,0,0,0,0,0
5.0096,1783441080.6313,1,1,1.0000,0.0000,1.42060,0.11452,-2.67367,1.03645,1.56187,0.11660,-0.13237,-0.45953,0.06327,,,,,,,,,,,,,,,,,,,,,,,,,,0,0,0,0,0
5.0101,1783441080.6317,1,1,1.0000,0.0000,1.42060,0.11452,-2.67367,1.03645,1.56187,0.11660,-0.13237,-0.45953,0.06327,,,,,,,,,,,,,,,,,,,,,,,,,,0,0,0,0,0
5.0225,1783441080.6442,1,1,1.0000,0.0000,1.42060,0.11428,-2.67373,1.03674,1.56187,0.11660,-0.13237,-0.45954,0.06319,,,,,,,,,,,,,,,,,,,,,,,,,,0,0,0,0,0
5.0305,1783441080.6522,1,1,1.0000,0.0000,1.42060,0.11403,-2.67379,1.03705,1.56187,0.11659,-0.13237,-0.45954,0.06311,,,,,,,,,,,,,,,,,,,,,,,,,,0,0,0,0,0
5.0438,1783441080.6655,1,1,1.0000,0.0000,1.42061,0.11333,-2.67395,1.03791,1.56187,0.11659,-0.13237,-0.45955,0.06289,,,,,,,,,,,,,,,,,,,,,,,,,,0,0,0,0,0
5.0499,1783441080.6716,1,1,1.0000,0.0000,1.42061,0.11305,-2.67402,1.03825,1.56187,0.11659,-0.13237,-0.45955,0.06280,,,,,,,,,,,,,,,,,,,,,,,,,,0,0,0,0,0
5.0591,1783441080.6808,1,1,1.0000,0.0000,1.42061,0.11295,-2.67404,1.03837,1.56187,0.11659,-0.13237,-0.45955,0.06277,,,,,,,,,,,,,,,,,,,,,,,,,,0,0,0,0,0
5.0687,1783441080.6904,1,1,1.0000,0.0000,1.42061,0.11270,-2.67410,1.03868,1.56187,0.11658,-0.13237,-0.45956,0.06269,,,,,,,,,,,,,,,,,,,,,,,,,,0,0,0,0,0
5.0829,1783441080.7046,1,1,1.0000,0.0000,1.42061,0.11213,-2.67423,1.03938,1.56187,0.11658,-0.13237,-0.45957,0.06251,,,,,,,,,,,,,,,,,,,,,,,,,,0,0,0,0,0
5.0896,1783441080.7113,1,1,1.0000,0.0000,1.42061,0.11207,-2.67424,1.03946,1.56187,0.11658,-0.13237,-0.45957,0.06249,,,,,,,,,,,,,,,,,,,,,,,,,,0,0,0,0,0
5.0990,1783441080.7207,1,1,1.0000,0.0000,1.42061,0.11190,-2.67428,1.03967,1.56187,0.11658,-0.13236,-0.45958,0.06244,,,,,,,,,,,,,,,,,,,,,,,,,,0,0,0,0,0
5.1203,1783441080.7420,1,1,1.0000,0.0000,1.42061,0.11125,-2.67440,1.04048,1.56187,0.11657,-0.13236,-0.45961,0.06225,,,,,,,,,,,,,,,,,,,,,,,,,,0,0,0,0,0
5.1218,1783441080.7435,1,1,1.0000,0.0000,1.42061,0.11112,-2.67442,1.04065,1.56187,0.11657,-0.13236,-0.45962,0.06222,,,,,,,,,,,,,,,,,,,,,,,,,,0,0,0,0,0
5.1298,1783441080.7515,1,1,1.0000,0.0000,1.42061,0.11091,-2.67446,1.04092,1.56187,0.11657,-0.13236,-0.45964,0.06216,,,,,,,,,,,,,,,,,,,,,,,,,,0,0,0,0,0
5.1424,1783441080.7641,1,1,1.0000,0.0000,1.42062,0.11077,-2.67447,1.04110,1.56187,0.11656,-0.13235,-0.45966,0.06213,,,,,,,,,,,,,,,,,,,,,,,,,,0,0,0,0,0
5.1489,1783441080.7706,1,1,1.0000,0.0000,1.42062,0.11077,-2.67447,1.04110,1.56187,0.11656,-0.13235,-0.45966,0.06213,,,,,,,,,,,,,,,,,,,,,,,,,,0,0,0,0,0
5.1615,1783441080.7832,1,1,1.0000,0.0000,1.42062,0.11069,-2.67450,1.04121,1.56187,0.11656,-0.13235,-0.45965,0.06210,,,,,,,,,,,,,,,,,,,,,,,,,,0,0,0,0,0
5.1697,1783441080.7914,1,1,1.0000,0.0000,1.42062,0.11062,-2.67453,1.04130,1.56187,0.11656,-0.13235,-0.45964,0.06207,,,,,,,,,,,,,,,,,,,,,,,,,,0,0,0,0,0
5.1701,1783441080.7918,1,1,1.0000,0.0000,1.42062,0.11062,-2.67453,1.04130,1.56187,0.11656,-0.13235,-0.45964,0.06207,,,,,,,,,,,,,,,,,,,,,,,,,,0,0,0,0,0
5.1822,1783441080.8039,1,1,1.0000,0.0000,1.42062,0.11058,-2.67454,1.04135,1.56187,0.11656,-0.13236,-0.45964,0.06205,,,,,,,,,,,,,,,,,,,,,,,,,,0,0,0,0,0
5.1826,1783441080.8043,1,1,1.0000,0.0000,1.42062,0.11058,-2.67454,1.04135,1.56187,0.11656,-0.13236,-0.45964,0.06205,,,,,,,,,,,,,,,,,,,,,,,,,,0,0,0,0,0
5.1907,1783441080.8124,1,1,1.0000,0.0000,1.42062,0.11048,-2.67458,1.04148,1.56187,0.11656,-0.13236,-0.45963,0.06202,,,,,,,,,,,,,,,,,,,,,,,,,,0,0,0,0,0
5.2031,1783441080.8248,1,1,1.0000,0.0000,1.42062,0.11039,-2.67461,1.04159,1.56187,0.11656,-0.13236,-0.45963,0.06198,,,,,,,,,,,,,,,,,,,,,,,,,,0,0,0,0,0
5.2147,1783441080.8364,1,1,1.0000,0.0000,1.42062,0.11015,-2.67467,1.04188,1.56187,0.11656,-0.13236,-0.45963,0.06190,,,,,,,,,,,,,,,,,,,,,,,,,,0,0,0,0,0
5.2221,1783441080.8438,1,1,1.0000,0.0000,1.42062,0.10987,-2.67474,1.04221,1.56187,0.11656,-0.13236,-0.45962,0.06181,,,,,,,,,,,,,,,,,,,,,,,,,,0,0,0,0,0
5.2225,1783441080.8442,1,1,1.0000,0.0000,1.42062,0.10987,-2.67474,1.04221,1.56187,0.11656,-0.13236,-0.45962,0.06181,,,,,,,,,,,,,,,,,,,,,,,,,,0,0,0,0,0
5.2299,1783441080.8515,1,1,1.0000,0.0000,1.42062,0.10971,-2.67478,1.04241,1.56188,0.11656,-0.13236,-0.45962,0.06176,,,,,,,,,,,,,,,,,,,,,,,,,,0,0,0,0,0
5.2460,1783441080.8676,1,1,1.0000,0.0000,1.42062,0.10938,-2.67486,1.04281,1.56188,0.11655,-0.13236,-0.45963,0.06165,,,,,,,,,,,,,,,,,,,,,,,,,,0,0,0,0,0
5.2485,1783441080.8701,1,1,1.0000,0.0000,1.42062,0.10938,-2.67486,1.04281,1.56188,0.11655,-0.13236,-0.45963,0.06165,,,,,,,,,,,,,,,,,,,,,,,,,,0,0,0,0,0
5.2494,1783441080.8711,1,1,1.0000,0.0000,1.42062,0.10922,-2.67490,1.04301,1.56188,0.11655,-0.13236,-0.45963,0.06160,,,,,,,,,,,,,,,,,,,,,,,,,,0,0,0,0,0
5.2653,1783441080.8870,1,1,1.0000,0.0000,1.42062,0.10879,-2.67500,1.04353,1.56188,0.11655,-0.13236,-0.45963,0.06146,,,,,,,,,,,,,,,,,,,,,,,,,,0,0,0,0,0
5.2682,1783441080.8899,1,1,1.0000,0.0000,1.42062,0.10879,-2.67500,1.04353,1.56188,0.11655,-0.13236,-0.45963,0.06146,,,,,,,,,,,,,,,,,,,,,,,,,,0,0,0,0,0
5.2690,1783441080.8907,1,1,1.0000,0.0000,1.42062,0.10879,-2.67500,1.04353,1.56188,0.11655,-0.13236,-0.45963,0.06146,,,,,,,,,,,,,,,,,,,,,,,,,,0,0,0,0,0
5.2812,1783441080.9029,1,1,1.0000,0.0000,1.42062,0.10820,-2.67514,1.04424,1.56188,0.11655,-0.13236,-0.45964,0.06128,,,,,,,,,,,,,,,,,,,,,,,,,,0,0,0,0,0
5.2885,1783441080.9102,1,1,1.0000,0.0000,1.42062,0.10820,-2.67514,1.04424,1.56188,0.11655,-0.13236,-0.45964,0.06128,,,,,,,,,,,,,,,,,,,,,,,,,,0,0,0,0,0
5.3037,1783441080.9254,1,1,1.0000,0.0000,1.42062,0.10770,-2.67526,1.04485,1.56188,0.11654,-0.13236,-0.45964,0.06112,,,,,,,,,,,,,,,,,,,,,,,,,,0,0,0,0,0
5.3100,1783441080.9317,1,1,1.0000,0.0000,1.42063,0.10719,-2.67538,1.04547,1.56188,0.11654,-0.13236,-0.45965,0.06095,,,,,,,,,,,,,,,,,,,,,,,,,,0,0,0,0,0
5.3194,1783441080.9411,1,1,1.0000,0.0000,1.42063,0.10660,-2.67552,1.04619,1.56188,0.11653,-0.13236,-0.45965,0.06076,,,,,,,,,,,,,,,,,,,,,,,,,,0,0,0,0,0
5.3292,1783441080.9509,1,1,1.0000,0.0000,1.42063,0.10651,-2.67554,1.04630,1.56188,0.11653,-0.13236,-0.45965,0.06073,,,,,,,,,,,,,,,,,,,,,,,,,,0,0,0,0,0
5.3386,1783441080.9603,1,1,1.0000,0.0000,1.42063,0.10627,-2.67559,1.04659,1.56188,0.11653,-0.13236,-0.45966,0.06066,,,,,,,,,,,,,,,,,,,,,,,,,,0,0,0,0,0
5.3533,1783441080.9750,1,1,1.0000,0.0000,1.42063,0.10575,-2.67571,1.04723,1.56188,0.11653,-0.13235,-0.45966,0.06050,,,,,,,,,,,,,,,,,,,,,,,,,,0,0,0,0,0
5.3604,1783441080.9821,1,1,1.0000,0.0000,1.42063,0.10573,-2.67572,1.04725,1.56188,0.11653,-0.13235,-0.45966,0.06049,,,,,,,,,,,,,,,,,,,,,,,,,,0,0,0,0,0
5.3685,1783441080.9902,1,1,1.0000,0.0000,1.42063,0.10561,-2.67574,1.04740,1.56188,0.11653,-0.13235,-0.45967,0.06046,,,,,,,,,,,,,,,,,,,,,,,,,,0,0,0,0,0
5.3816,1783441081.0033,1,1,1.0000,0.0000,1.42063,0.10516,-2.67583,1.04798,1.56188,0.11652,-0.13235,-0.45969,0.06032,,,,,,,,,,,,,,,,,,,,,,,,,,0,0,0,0,0
5.3888,1783441081.0104,1,1,1.0000,0.0000,1.42063,0.10503,-2.67586,1.04814,1.56188,0.11652,-0.13235,-0.45970,0.06028,,,,,,,,,,,,,,,,,,,,,,,,,,0,0,0,0,0
5.3897,1783441081.0114,1,1,1.0000,0.0000,1.42063,0.10489,-2.67588,1.04831,1.56188,0.11652,-0.13235,-0.45970,0.06025,,,,,,,,,,,,,,,,,,,,,,,,,,0,0,0,0,0
5.4093,1783441081.0310,1,1,1.0000,0.0000,1.42064,0.10447,-2.67595,1.04885,1.56188,0.11651,-0.13234,-0.45974,0.06013,,,,,,,,,,,,,,,,,,,,,,,,,,0,0,0,0,0
5.4127,1783441081.0344,1,1,1.0000,0.0000,1.42064,0.10447,-2.67595,1.04885,1.56188,0.11651,-0.13234,-0.45974,0.06013,,,,,,,,,,,,,,,,,,,,,,,,,,0,0,0,0,0
5.4133,1783441081.0350,1,1,1.0000,0.0000,1.42064,0.10447,-2.67595,1.04885,1.56188,0.11651,-0.13234,-0.45974,0.06013,,,,,,,,,,,,,,,,,,,,,,,,,,0,0,0,0,0
5.4255,1783441081.0472,1,1,1.0000,0.0000,1.42064,0.10442,-2.67596,1.04891,1.56189,0.11651,-0.13234,-0.45974,0.06012,,,,,,,,,,,,,,,,,,,,,,,,,,0,0,0,0,0
