Martins-Lucaas/twinforge/sensors/Data/20260706_173334__samples.csv
t_rel_s,t_unix,cycle,phase,setpoint_n,force_net_n,q1,q2,q3,q4,q5,q6,tcp_x,tcp_y,tcp_z,taxel_0,taxel_1,taxel_2,taxel_3,taxel_4,taxel_5,taxel_6,taxel_7,taxel_8,taxel_9,taxel_10,taxel_11,taxel_12,taxel_13,taxel_14,taxel_15,taxel_16,taxel_17,taxel_18,taxel_19,taxel_20,taxel_21,taxel_22,taxel_23,taxel_24,n_RA,n_SA,cn_mm,cn_ra,cn_sa
0.0014,1783370014.3493,0,-1,1.0000,0.0000,1.42056,0.14182,-2.66687,1.00221,1.56171,0.11671,-0.13247,-0.45907,0.07205,,,,,,,,,,,,,,,,,,,,,,,,,,0,0,0,0,0
0.0049,1783370014.3528,0,-1,1.0000,0.0000,1.42047,0.14182,-2.66690,1.00200,1.56194,0.11690,-0.13239,-0.45901,0.07200,,,,,,,,,,,,,,,,,,,,,,,,,,0,0,0,0,0
0.0163,1783370014.3642,1,0,1.0000,0.0000,1.42056,0.14182,-2.66687,1.00220,1.56172,0.11672,-0.13246,-0.45907,0.07205,,,,,,,,,,,,,,,,,,,,,,,,,,0,0,0,0,0
0.0242,1783370014.3721,1,0,1.0000,0.0000,1.42056,0.14182,-2.66687,1.00221,1.56170,0.11671,-0.13247,-0.45907,0.07205,,,,,,,,,,,,,,,,,,,,,,,,,,0,0,0,0,0
0.0393,1783370014.3872,1,0,1.0000,0.0000,1.42056,0.14187,-2.66686,1.00216,1.56171,0.11671,-0.13247,-0.45907,0.07207,,,,,,,,,,,,,,,,,,,,,,,,,,0,0,0,0,0
0.0888,1783370014.4367,1,0,1.0000,0.0000,1.42056,0.14185,-2.66686,1.00243,1.56171,0.11673,-0.13246,-0.45914,0.07211,,,,,,,,,,,,,,,,,,,,,,,,,,0,0,0,0,0
0.0894,1783370014.4373,1,0,1.0000,0.0000,1.42056,0.14185,-2.66686,1.00243,1.56171,0.11673,-0.13246,-0.45914,0.07211,,,,,,,,,,,,,,,,,,,,,,,,,,0,0,0,0,0
0.0964,1783370014.4443,1,0,1.0000,0.0000,1.42056,0.14184,-2.66686,1.00244,1.56169,0.11672,-0.13246,-0.45914,0.07211,,,,,,,,,,,,,,,,,,,,,,,,,,0,0,0,0,0
0.0971,1783370014.4450,1,0,1.0000,0.0000,1.42056,0.14184,-2.66686,1.00244,1.56169,0.11672,-0.13246,-0.45914,0.07211,,,,,,,,,,,,,,,,,,,,,,,,,,0,0,0,0,0
0.1031,1783370014.4510,1,0,1.0000,0.0000,1.42056,0.14185,-2.66686,1.00243,1.56171,0.11673,-0.13246,-0.45914,0.07211,,,,,,,,,,,,,,,,,,,,,,,,,,0,0,0,0,0
0.1063,1783370014.4542,1,0,1.0000,0.0000,1.42056,0.14185,-2.66686,1.00243,1.56171,0.11673,-0.13246,-0.45914,0.07211,,,,,,,,,,,,,,,,,,,,,,,,,,0,0,0,0,0
0.1143,1783370014.4622,1,0,1.0000,0.0000,1.42056,0.14185,-2.66686,1.00244,1.56170,0.11672,-0.13246,-0.45914,0.07211,,,,,,,,,,,,,,,,,,,,,,,,,,0,0,0,0,0
0.1354,1783370014.4833,1,0,1.0000,0.0000,1.42056,0.14185,-2.66686,1.00244,1.56170,0.11672,-0.13246,-0.45914,0.07211,,,,,,,,,,,,,,,,,,,,,,,,,,0,0,0,0,0
0.1435,1783370014.4914,1,0,1.0000,0.0000,1.42056,0.14185,-2.66686,1.00244,1.56170,0.11672,-0.13246,-0.45914,0.07211,,,,,,,,,,,,,,,,,,,,,,,,,,0,0,0,0,0
0.1550,1783370014.5029,1,0,1.0000,0.0000,1.42048,0.14185,-2.66689,1.00224,1.56193,0.11690,-0.13238,-0.45907,0.07206,,,,,,,,,,,,,,,,,,,,,,,,,,0,0,0,0,0
0.1646,1783370014.5125,1,0,1.0000,0.0000,1.42047,0.14185,-2.66689,1.00223,1.56194,0.11691,-0.13238,-0.45907,0.07206,,,,,,,,,,,,,,,,,,,,,,,,,,0,0,0,0,0
0.1853,1783370014.5332,1,0,1.0000,0.0000,1.42056,0.14185,-2.66686,1.00244,1.56170,0.11672,-0.13246,-0.45914,0.07211,,,,,,,,,,,,,,,,,,,,,,,,,,0,0,0,0,0
0.2352,1783370014.5831,1,0,1.0000,0.0000,1.42048,0.14185,-2.66689,1.00224,1.56193,0.11691,-0.13238,-0.45907,0.07206,,,,,,,,,,,,,,,,,,,,,,,,,,0,0,0,0,0
0.2364,1783370014.5843,1,0,1.0000,0.0000,1.42048,0.14185,-2.66689,1.00224,1.56193,0.11691,-0.13238,-0.45907,0.07206,,,,,,,,,,,,,,,,,,,,,,,,,,0,0,0,0,0
0.2374,1783370014.5853,1,0,1.0000,0.0000,1.42048,0.14185,-2.66689,1.00224,1.56193,0.11691,-0.13238,-0.45907,0.07206,,,,,,,,,,,,,,,,,,,,,,,,,,0,0,0,0,0
0.2472,1783370014.5951,1,0,1.0000,0.0000,1.42056,0.14185,-2.66686,1.00244,1.56170,0.11672,-0.13246,-0.45914,0.07211,,,,,,,,,,,,,,,,,,,,,,,,,,0,0,0,0,0
0.2574,1783370014.6053,1,0,1.0000,0.0000,1.42056,0.14185,-2.66686,1.00243,1.56171,0.11673,-0.13246,-0.45914,0.07211,,,,,,,,,,,,,,,,,,,,,,,,,,0,0,0,0,0
0.2675,1783370014.6154,1,0,1.0000,0.0000,1.42048,0.14185,-2.66689,1.00224,1.56193,0.11690,-0.13238,-0.45907,0.07206,,,,,,,,,,,,,,,,,,,,,,,,,,0,0,0,0,0
0.2956,1783370014.6435,1,0,1.0000,0.0000,1.42056,0.14185,-2.66686,1.00244,1.56170,0.11672,-0.13246,-0.45914,0.07211,,,,,,,,,,,,,,,,,,,,,,,,,,0,0,0,0,0
0.3054,1783370014.6533,1,0,1.0000,0.0000,1.42047,0.14185,-2.66689,1.00224,1.56193,0.11691,-0.13238,-0.45907,0.07206,,,,,,,,,,,,,,,,,,,,,,,,,,0,0,0,0,0
0.3114,1783370014.6593,1,0,1.0000,0.0000,1.42056,0.14185,-2.66686,1.00244,1.56170,0.11672,-0.13246,-0.45914,0.07211,,,,,,,,,,,,,,,,,,,,,,,,,,0,0,0,0,0
0.3176,1783370014.6655,1,0,1.0000,0.0000,1.42047,0.14185,-2.66689,1.00223,1.56194,0.11691,-0.13238,-0.45907,0.07206,,,,,,,,,,,,,,,,,,,,,,,,,,0,0,0,0,0
0.3237,1783370014.6716,1,0,1.0000,0.0000,1.42047,0.14185,-2.66689,1.00224,1.56193,0.11691,-0.13238,-0.45907,0.07206,,,,,,,,,,,,,,,,,,,,,,,,,,0,0,0,0,0
0.3510,1783370014.6989,1,0,1.0000,0.0000,1.42056,0.14185,-2.66686,1.00244,1.56171,0.11672,-0.13246,-0.45914,0.07211,,,,,,,,,,,,,,,,,,,,,,,,,,0,0,0,0,0
0.3521,1783370014.7000,1,0,1.0000,0.0000,1.42056,0.14185,-2.66686,1.00244,1.56171,0.11672,-0.13246,-0.45914,0.07211,,,,,,,,,,,,,,,,,,,,,,,,,,0,0,0,0,0
0.3592,1783370014.7071,1,0,1.0000,0.0000,1.42056,0.14185,-2.66686,1.00244,1.56170,0.11672,-0.13246,-0.45914,0.07211,,,,,,,,,,,,,,,,,,,,,,,,,,0,0,0,0,0
0.3758,1783370014.7237,1,0,1.0000,0.0000,1.42056,0.14185,-2.66686,1.00243,1.56171,0.11673,-0.13246,-0.45914,0.07211,,,,,,,,,,,,,,,,,,,,,,,,,,0,0,0,0,0
0.3842,1783370014.7321,1,0,1.0000,0.0000,1.42056,0.14185,-2.66686,1.00244,1.56171,0.11673,-0.13246,-0.45914,0.07211,,,,,,,,,,,,,,,,,,,,,,,,,,0,0,0,0,0
0.3884,1783370014.7363,1,0,1.0000,0.0000,1.42047,0.14185,-2.66689,1.00223,1.56193,0.11691,-0.13238,-0.45907,0.07206,,,,,,,,,,,,,,,,,,,,,,,,,,0,0,0,0,0
0.3996,1783370014.7475,1,0,1.0000,0.0000,1.42056,0.14185,-2.66686,1.00244,1.56170,0.11672,-0.13246,-0.45914,0.07211,,,,,,,,,,,,,,,,,,,,,,,,,,0,0,0,0,0
0.4091,1783370014.7570,1,0,1.0000,0.0000,1.42056,0.14185,-2.66686,1.00244,1.56170,0.11672,-0.13246,-0.45914,0.07211,,,,,,,,,,,,,,,,,,,,,,,,,,0,0,0,0,0
0.4238,1783370014.7717,1,0,1.0000,0.0000,1.42056,0.14185,-2.66686,1.00244,1.56170,0.11672,-0.13246,-0.45914,0.07211,,,,,,,,,,,,,,,,,,,,,,,,,,0,0,0,0,0
0.4308,1783370014.7787,1,0,1.0000,0.0000,1.42048,0.14185,-2.66689,1.00224,1.56193,0.11690,-0.13238,-0.45907,0.07206,,,,,,,,,,,,,,,,,,,,,,,,,,0,0,0,0,0
0.4400,1783370014.7879,1,0,1.0000,0.0000,1.42056,0.14185,-2.66686,1.00244,1.56170,0.11672,-0.13246,-0.45914,0.07211,,,,,,,,,,,,,,,,,,,,,,,,,,0,0,0,0,0
0.4486,1783370014.7965,1,0,1.0000,0.0000,1.42056,0.14185,-2.66686,1.00243,1.56171,0.11673,-0.13246,-0.45914,0.07211,,,,,,,,,,,,,,,,,,,,,,,,,,0,0,0,0,0
0.4565,1783370014.8044,1,0,1.0000,0.0000,1.42056,0.14185,-2.66686,1.00244,1.56170,0.11672,-0.13246,-0.45914,0.07211,,,,,,,,,,,,,,,,,,,,,,,,,,0,0,0,0,0
0.4675,1783370014.8154,1,0,1.0000,0.0000,1.42047,0.14185,-2.66689,1.00223,1.56194,0.11691,-0.13238,-0.45907,0.07206,,,,,,,,,,,,,,,,,,,,,,,,,,0,0,0,0,0
0.4799,1783370014.8278,1,0,1.0000,0.0000,1.42056,0.14185,-2.66686,1.00244,1.56170,0.11672,-0.13246,-0.45914,0.07211,,,,,,,,,,,,,,,,,,,,,,,,,,0,0,0,0,0
0.4881,1783370014.8360,1,0,1.0000,0.0000,1.42056,0.14185,-2.66686,1.00244,1.56170,0.11672,-0.13246,-0.45914,0.07211,,,,,,,,,,,,,,,,,,,,,,,,,,0,0,0,0,0
0.4991,1783370014.8470,1,0,1.0000,0.0000,1.42047,0.14185,-2.66689,1.00223,1.56193,0.11691,-0.13238,-0.45907,0.07206,,,,,,,,,,,,,,,,,,,,,,,,,,0,0,0,0,0
0.5085,1783370014.8564,1,0,1.0000,0.0000,1.42048,0.14185,-2.66689,1.00224,1.56193,0.11690,-0.13239,-0.45907,0.07206,,,,,,,,,,,,,,,,,,,,,,,,,,0,0,0,0,0
0.5176,1783370014.8655,1,0,1.0000,0.0000,1.42047,0.14185,-2.66689,1.00223,1.56194,0.11691,-0.13238,-0.45907,0.07206,,,,,,,,,,,,,,,,,,,,,,,,,,0,0,0,0,0
0.5326,1783370014.8805,1,0,1.0000,0.0000,1.42047,0.14185,-2.66689,1.00223,1.56194,0.11691,-0.13238,-0.45907,0.07206,,,,,,,,,,,,,,,,,,,,,,,,,,0,0,0,0,0
0.5424,1783370014.8903,1,0,1.0000,0.0000,1.42047,0.14185,-2.66689,1.00223,1.56194,0.11691,-0.13238,-0.45907,0.07206,,,,,,,,,,,,,,,,,,,,,,,,,,0,0,0,0,0
0.5481,1783370014.8960,1,0,1.0000,0.0000,1.42048,0.14185,-2.66689,1.00224,1.56193,0.11691,-0.13238,-0.45907,0.07206,,,,,,,,,,,,,,,,,,,,,,,,,,0,0,0,0,0
0.5596,1783370014.9075,1,0,1.0000,0.0000,1.42056,0.14185,-2.66686,1.00244,1.56170,0.11672,-0.13246,-0.45914,0.07211,,,,,,,,,,,,,,,,,,,,,,,,,,0,0,0,0,0
0.5601,1783370014.9080,1,0,1.0000,0.0000,1.42056,0.14185,-2.66686,1.00244,1.56170,0.11672,-0.13246,-0.45914,0.07211,,,,,,,,,,,,,,,,,,,,,,,,,,0,0,0,0,0
0.5943,1783370014.9422,1,0,1.0000,0.0000,1.42056,0.14185,-2.66686,1.00244,1.56170,0.11672,-0.13246,-0.45914,0.07211,,,,,,,,,,,,,,,,,,,,,,,,,,0,0,0,0,0
0.5956,1783370014.9435,1,0,1.0000,0.0000,1.42047,0.14185,-2.66689,1.00223,1.56194,0.11691,-0.13238,-0.45907,0.07206,,,,,,,,,,,,,,,,,,,,,,,,,,0,0,0,0,0
0.6013,1783370014.9492,1,0,1.0000,0.0000,1.42056,0.14185,-2.66686,1.00244,1.56170,0.11672,-0.13246,-0.45914,0.07211,,,,,,,,,,,,,,,,,,,,,,,,,,0,0,0,0,0
0.6101,1783370014.9580,1,0,1.0000,0.0000,1.42056,0.14185,-2.66686,1.00243,1.56171,0.11673,-0.13246,-0.45914,0.07211,,,,,,,,,,,,,,,,,,,,,,,,,,0,0,0,0,0
0.6265,1783370014.9744,1,0,1.0000,0.0000,1.42047,0.14185,-2.66689,1.00223,1.56194,0.11691,-0.13238,-0.45907,0.07206,,,,,,,,,,,,,,,,,,,,,,,,,,0,0,0,0,0
0.6352,1783370014.9831,1,0,1.0000,0.0000,1.42048,0.14185,-2.66689,1.00224,1.56193,0.11691,-0.13238,-0.45907,0.07206,,,,,,,,,,,,,,,,,,,,,,,,,,0,0,0,0,0
0.6483,1783370014.9962,1,0,1.0000,0.0000,1.42056,0.14185,-2.66686,1.00244,1.56171,0.11673,-0.13246,-0.45914,0.07211,,,,,,,,,,,,,,,,,,,,,,,,,,0,0,0,0,0
0.6550,1783370015.0029,1,0,1.0000,0.0000,1.42056,0.14185,-2.66686,1.00244,1.56170,0.11672,-0.13246,-0.45914,0.07211,,,,,,,,,,,,,,,,,,,,,,,,,,0,0,0,0,0
0.6620,1783370015.0100,1,0,1.0000,0.0000,1.42047,0.14185,-2.66689,1.00223,1.56194,0.11691,-0.13238,-0.45907,0.07206,,,,,,,,,,,,,,,,,,,,,,,,,,0,0,0,0,0
0.6727,1783370015.0206,1,0,1.0000,0.0000,1.42056,0.14185,-2.66686,1.00244,1.56170,0.11672,-0.13246,-0.45914,0.07211,,,,,,,,,,,,,,,,,,,,,,,,,,0,0,0,0,0
0.6738,1783370015.0217,1,0,1.0000,0.0000,1.42056,0.14185,-2.66686,1.00244,1.56170,0.11672,-0.13246,-0.45914,0.07211,,,,,,,,,,,,,,,,,,,,,,,,,,0,0,0,0,0
0.6842,1783370015.0321,1,0,1.0000,0.0000,1.42047,0.14185,-2.66689,1.00224,1.56193,0.11691,-0.13238,-0.45907,0.07206,,,,,,,,,,,,,,,,,,,,,,,,,,0,0,0,0,0
0.6936,1783370015.0415,1,0,1.0000,0.0000,1.42047,0.14185,-2.66690,1.00223,1.56194,0.11692,-0.13238,-0.45907,0.07206,,,,,,,,,,,,,,,,,,,,,,,,,,0,0,0,0,0
0.7021,1783370015.0500,1,0,1.0000,0.0000,1.42045,0.14186,-2.66692,1.00224,1.56193,0.11693,-0.13237,-0.45906,0.07205,,,,,,,,,,,,,,,,,,,,,,,,,,0,0,0,0,0
0.7129,1783370015.0608,1,0,1.0000,0.0000,1.42048,0.14187,-2.66693,1.00244,1.56170,0.11678,-0.13243,-0.45910,0.07208,,,,,,,,,,,,,,,,,,,,,,,,,,0,0,0,0,0
0.7238,1783370015.0717,1,0,1.0000,0.0000,1.42033,0.14189,-2.66700,1.00223,1.56194,0.11702,-0.13233,-0.45901,0.07201,,,,,,,,,,,,,,,,,,,,,,,,,,0,0,0,0,0
0.7305,1783370015.0784,1,0,1.0000,0.0000,1.42038,0.14189,-2.66700,1.00244,1.56170,0.11688,-0.13240,-0.45907,0.07206,,,,,,,,,,,,,,,,,,,,,,,,,,0,0,0,0,0
0.7462,1783370015.0941,1,0,1.0000,0.0000,1.42011,0.14197,-2.66709,1.00243,1.56169,0.11713,-0.13230,-0.45905,0.07204,,,,,,,,,,,,,,,,,,,,,,,,,,0,0,0,0,0
0.7554,1783370015.1033,1,0,1.0000,0.0000,1.41982,0.14203,-2.66717,1.00221,1.56193,0.11751,-0.13214,-0.45898,0.07198,,,,,,,,,,,,,,,,,,,,,,,,,,0,0,0,0,0
0.7602,1783370015.1081,1,0,1.0000,0.0000,1.41978,0.14206,-2.66717,1.00241,1.56169,0.11745,-0.13217,-0.45904,0.07204,,,,,,,,,,,,,,,,,,,,,,,,,,0,0,0,0,0
0.7727,1783370015.1206,1,0,1.0000,0.0000,1.41940,0.14214,-2.66726,1.00219,1.56192,0.11793,-0.13198,-0.45898,0.07199,,,,,,,,,,,,,,,,,,,,,,,,,,0,0,0,0,0
0.7851,1783370015.1330,1,0,1.0000,0.0000,1.41890,0.14230,-2.66734,1.00236,1.56165,0.11832,-0.13184,-0.45906,0.07205,,,,,,,,,,,,,,,,,,,,,,,,,,0,0,0,0,0
0.7967,1783370015.1446,1,0,1.0000,0.0000,1.41805,0.14252,-2.66750,1.00211,1.56186,0.11926,-0.13148,-0.45901,0.07201,,,,,,,,,,,,,,,,,,,,,,,,,,0,0,0,0,0
0.8057,1783370015.1536,1,0,1.0000,0.0000,1.41749,0.14267,-2.66760,1.00208,1.56183,0.11982,-0.13127,-0.45902,0.07201,,,,,,,,,,,,,,,,,,,,,,,,,,0,0,0,0,0
0.8173,1783370015.1652,1,0,1.0000,0.0000,1.41700,0.14283,-2.66768,1.00223,1.56158,0.12022,-0.13112,-0.45910,0.07208,,,,,,,,,,,,,,,,,,,,,,,,,,0,0,0,0,0
0.8258,1783370015.1737,1,0,1.0000,0.0000,1.41641,0.14299,-2.66778,1.00220,1.56155,0.12080,-0.13091,-0.45911,0.07208,,,,,,,,,,,,,,,,,,,,,,,,,,0,0,0,0,0
0.8399,1783370015.1878,1,0,1.0000,0.0000,1.41541,0.14326,-2.66797,1.00213,1.56150,0.12180,-0.13053,-0.45913,0.07209,,,,,,,,,,,,,,,,,,,,,,,,,,0,0,0,0,0
0.8437,1783370015.1916,1,0,1.0000,0.0000,1.41494,0.14337,-2.66807,1.00188,1.56173,0.12238,-0.13031,-0.45907,0.07204,,,,,,,,,,,,,,,,,,,,,,,,,,0,0,0,0,0
0.8615,1783370015.2094,1,0,1.0000,0.0000,1.41334,0.14381,-2.66837,1.00176,1.56166,0.12398,-0.12971,-0.45909,0.07205,,,,,,,,,,,,,,,,,,,,,,,,,,0,0,0,0,0
0.8635,1783370015.2114,1,0,1.0000,0.0000,1.41343,0.14381,-2.66834,1.00196,1.56143,0.12379,-0.12979,-0.45915,0.07211,,,,,,,,,,,,,,,,,,,,,,,,,,0,0,0,0,0
0.8732,1783370015.2211,1,0,1.0000,0.0000,1.41266,0.14402,-2.66849,1.00190,1.56139,0.12457,-0.12950,-0.45916,0.07211,,,,,,,,,,,,,,,,,,,,,,,,,,0,0,0,0,0
0.8841,1783370015.2320,1,0,1.0000,0.0000,1.41153,0.14430,-2.66871,1.00162,1.56158,0.12579,-0.12904,-0.45910,0.07206,,,,,,,,,,,,,,,,,,,,,,,,,,0,0,0,0,0
0.8961,1783370015.2440,1,0,1.0000,0.0000,1.41099,0.14447,-2.66881,1.00177,1.56132,0.12624,-0.12888,-0.45917,0.07212,,,,,,,,,,,,,,,,,,,,,,,,,,0,0,0,0,0
0.9127,1783370015.2606,1,0,1.0000,0.0000,1.40983,0.14478,-2.66903,1.00168,1.56125,0.12739,-0.12845,-0.45918,0.07212,,,,,,,,,,,,,,,,,,,,,,,,,,0,0,0,0,0
0.9238,1783370015.2717,1,0,1.0000,0.0000,1.40898,0.14499,-2.66920,1.00141,1.56146,0.12834,-0.12809,-0.45912,0.07206,,,,,,,,,,,,,,,,,,,,,,,,,,0,0,0,0,0
0.9526,1783370015.3005,1,0,1.0000,0.0000,1.40810,0.14525,-2.66936,1.00153,1.56117,0.12912,-0.12780,-0.45919,0.07212,,,,,,,,,,,,,,,,,,,,,,,,,,0,0,0,0,0
0.9532,1783370015.3011,1,0,1.0000,0.0000,1.40810,0.14525,-2.66936,1.00153,1.56117,0.12912,-0.12780,-0.45919,0.07212,,,,,,,,,,,,,,,,,,,,,,,,,,0,0,0,0,0
0.9537,1783370015.3016,1,0,1.0000,0.0000,1.40810,0.14525,-2.66936,1.00153,1.56117,0.12912,-0.12780,-0.45919,0.07212,,,,,,,,,,,,,,,,,,,,,,,,,,0,0,0,0,0
0.9611,1783370015.3090,1,0,1.0000,0.0000,1.40782,0.14533,-2.66942,1.00150,1.56116,0.12940,-0.12770,-0.45919,0.07212,,,,,,,,,,,,,,,,,,,,,,,,,,0,0,0,0,0
0.9698,1783370015.3177,1,0,1.0000,0.0000,1.40759,0.14539,-2.66946,1.00147,1.56115,0.12963,-0.12761,-0.45919,0.07212,,,,,,,,,,,,,,,,,,,,,,,,,,0,0,0,0,0
0.9805,1783370015.3284,1,0,1.0000,0.0000,1.40724,0.14545,-2.66953,1.00124,1.56137,0.13007,-0.12744,-0.45913,0.07206,,,,,,,,,,,,,,,,,,,,,,,,,,0,0,0,0,0
0.9907,1783370015.3386,1,0,1.0000,0.0000,1.40718,0.14547,-2.66954,1.00124,1.56136,0.13013,-0.12742,-0.45913,0.07206,,,,,,,,,,,,,,,,,,,,,,,,,,0,0,0,0,0
1.0017,1783370015.3496,1,0,1.0000,0.0000,1.40713,0.14551,-2.66953,1.00142,1.56113,0.13009,-0.12744,-0.45921,0.07213,,,,,,,,,,,,,,,,,,,,,,,,,,0,0,0,0,0
1.0125,1783370015.3604,1,0,1.0000,0.0000,1.40698,0.14553,-2.66955,1.00121,1.56135,0.13035,-0.12734,-0.45915,0.07208,,,,,,,,,,,,,,,,,,,,,,,,,,0,0,0,0,0
1.0197,1783370015.3676,1,0,1.0000,0.0000,1.40696,0.14553,-2.66953,1.00121,1.56135,0.13037,-0.12733,-0.45917,0.07209,,,,,,,,,,,,,,,,,,,,,,,,,,0,0,0,0,0
1.0208,1783370015.3687,1,0,1.0000,0.0000,1.40696,0.14553,-2.66953,1.00121,1.56135,0.13037,-0.12733,-0.45917,0.07209,,,,,,,,,,,,,,,,,,,,,,,,,,0,0,0,0,0
1.0323,1783370015.3802,1,0,1.0000,0.0000,1.40704,0.14553,-2.66947,1.00140,1.56111,0.13019,-0.12740,-0.45926,0.07216,,,,,,,,,,,,,,,,,,,,,,,,,,0,0,0,0,0
1.0407,1783370015.3886,1,1,1.0000,0.0000,1.40704,0.14553,-2.66945,1.00140,1.56111,0.13020,-0.12740,-0.45927,0.07217,,,,,,,,,,,,,,,,,,,,,,,,,,0,0,0,0,0
1.0412,1783370015.3891,1,1,1.0000,0.0000,1.40704,0.14553,-2.66945,1.00140,1.56111,0.13020,-0.12740,-0.45927,0.07217,,,,,,,,,,,,,,,,,,,,,,,,,,0,0,0,0,0
1.0482,1783370015.3961,1,1,1.0000,0.0000,1.40704,0.14553,-2.66943,1.00140,1.56110,0.13019,-0.12740,-0.45928,0.07218,,,,,,,,,,,,,,,,,,,,,,,,,,0,0,0,0,0
1.0623,1783370015.4102,1,1,1.0000,0.0000,1.40695,0.14554,-2.66946,1.00119,1.56135,0.13039,-0.12732,-0.45921,0.07213,,,,,,,,,,,,,,,,,,,,,,,,,,0,0,0,0,0
1.0699,1783370015.4178,1,1,1.0000,0.0000,1.40695,0.14554,-2.66946,1.00119,1.56135,0.13039,-0.12732,-0.45921,0.07213,,,,,,,,,,,,,,,,,,,,,,,,,,0,0,0,0,0
1.0810,1783370015.4289,1,1,1.0000,0.0000,1.40704,0.14554,-2.66944,1.00139,1.56112,0.13021,-0.12740,-0.45928,0.07218,,,,,,,,,,,,,,,,,,,,,,,,,,0,0,0,0,0
1.0883,1783370015.4362,1,1,1.0000,0.0000,1.40704,0.14553,-2.66943,1.00140,1.56111,0.13019,-0.12740,-0.45928,0.07218,,,,,,,,,,,,,,,,,,,,,,,,,,0,0,0,0,0
1.0893,1783370015.4372,1,1,1.0000,0.0000,1.40704,0.14553,-2.66943,1.00140,1.56111,0.13019,-0.12740,-0.45928,0.07218,,,,,,,,,,,,,,,,,,,,,,,,,,0,0,0,0,0
1.1054,1783370015.4533,1,1,1.0000,0.0000,1.40704,0.14554,-2.66943,1.00139,1.56112,0.13020,-0.12740,-0.45928,0.07218,,,,,,,,,,,,,,,,,,,,,,,,,,0,0,0,0,0
1.1120,1783370015.4599,1,1,1.0000,0.0000,1.40704,0.14554,-2.66943,1.00139,1.56112,0.13020,-0.12740,-0.45928,0.07218,,,,,,,,,,,,,,,,,,,,,,,,,,0,0,0,0,0
1.1125,1783370015.4604,1,1,1.0000,0.0000,1.40704,0.14554,-2.66943,1.00139,1.56112,0.13020,-0.12740,-0.45928,0.07218,,,,,,,,,,,,,,,,,,,,,,,,,,0,0,0,0,0
1.1203,1783370015.4682,1,1,1.0000,0.0000,1.40704,0.14553,-2.66943,1.00140,1.56111,0.13020,-0.12740,-0.45928,0.07218,,,,,,,,,,,,,,,,,,,,,,,,,,0,0,0,0,0
1.1281,1783370015.4760,1,1,1.0000,0.0000,1.40704,0.14553,-2.66943,1.00141,1.56110,0.13019,-0.12740,-0.45928,0.07218,,,,,,,,,,,,,,,,,,,,,,,,,,0,0,0,0,0
1.1393,1783370015.4872,1,1,1.0000,0.0000,1.40695,0.14554,-2.66946,1.00119,1.56135,0.13039,-0.12732,-0.45921,0.07213,,,,,,,,,,,,,,,,,,,,,,,,,,0,0,0,0,0
1.1493,1783370015.4972,1,1,1.0000,0.0000,1.40695,0.14554,-2.66946,1.00120,1.56135,0.13039,-0.12732,-0.45921,0.07213,,,,,,,,,,,,,,,,,,,,,,,,,,0,0,0,0,0
1.1634,1783370015.5113,1,1,1.0000,0.0000,1.40695,0.14554,-2.66946,1.00119,1.56135,0.13039,-0.12732,-0.45921,0.07213,,,,,,,,,,,,,,,,,,,,,,,,,,0,0,0,0,0
1.1727,1783370015.5206,1,1,1.0000,0.0000,1.40695,0.14554,-2.66946,1.00120,1.56134,0.13038,-0.12732,-0.45922,0.07213,,,,,,,,,,,,,,,,,,,,,,,,,,0,0,0,0,0
1.1803,1783370015.5282,1,1,1.0000,0.0000,1.40695,0.14553,-2.66946,1.00119,1.56135,0.13039,-0.12732,-0.45921,0.07212,,,,,,,,,,,,,,,,,,,,,,,,,,0,0,0,0,0
1.1966,1783370015.5445,1,1,1.0000,0.0000,1.40695,0.14554,-2.66946,1.00119,1.56135,0.13039,-0.12732,-0.45921,0.07213,,,,,,,,,,,,,,,,,,,,,,,,,,0,0,0,0,0
1.2007,1783370015.5486,1,1,1.0000,0.0000,1.40704,0.14554,-2.66944,1.00139,1.56112,0.13021,-0.12740,-0.45928,0.07218,,,,,,,,,,,,,,,,,,,,,,,,,,0,0,0,0,0
1.2085,1783370015.5564,1,1,1.0000,0.0000,1.40704,0.14553,-2.66943,1.00141,1.56110,0.13019,-0.12740,-0.45928,0.07218,,,,,,,,,,,,,,,,,,,,,,,,,,0,0,0,0,0
1.2178,1783370015.5657,1,1,1.0000,0.0000,1.40704,0.14553,-2.66943,1.00140,1.56111,0.13020,-0.12740,-0.45928,0.07218,,,,,,,,,,,,,,,,,,,,,,,,,,0,0,0,0,0
1.2185,1783370015.5664,1,1,1.0000,0.0000,1.40704,0.14553,-2.66943,1.00140,1.56111,0.13020,-0.12740,-0.45928,0.07218,,,,,,,,,,,,,,,,,,,,,,,,,,0,0,0,0,0
1.2200,1783370015.5679,1,1,1.0000,0.0000,1.40695,0.14554,-2.66946,1.00119,1.56135,0.13039,-0.12732,-0.45921,0.07213,,,,,,,,,,,,,,,,,,,,,,,,,,0,0,0,0,0
1.2295,1783370015.5774,1,1,1.0000,0.0000,1.40695,0.14554,-2.66946,1.00119,1.56135,0.13039,-0.12732,-0.45921,0.07213,,,,,,,,,,,,,,,,,,,,,,,,,,0,0,0,0,0
1.2405,1783370015.5884,1,1,1.0000,0.0000,1.40704,0.14554,-2.66943,1.00140,1.56111,0.13020,-0.12740,-0.45928,0.07218,,,,,,,,,,,,,,,,,,,,,,,,,,0,0,0,0,0
1.2519,1783370015.5998,1,1,1.0000,0.0000,1.40695,0.14553,-2.66946,1.00120,1.56134,0.13038,-0.12733,-0.45922,0.07213,,,,,,,,,,,,,,,,,,,,,,,,,,0,0,0,0,0
1.2614,1783370015.6093,1,1,1.0000,0.0000,1.40695,0.14553,-2.66946,1.00120,1.56134,0.13038,-0.12733,-0.45922,0.07213,,,,,,,,,,,,,,,,,,,,,,,,,,0,0,0,0,0
1.2687,1783370015.6166,1,1,1.0000,0.0000,1.40695,0.14553,-2.66946,1.00120,1.56134,0.13038,-0.12732,-0.45922,0.07213,,,,,,,,,,,,,,,,,,,,,,,,,,0,0,0,0,0
1.2794,1783370015.6273,1,1,1.0000,0.0000,1.40704,0.14554,-2.66943,1.00139,1.56112,0.13020,-0.12740,-0.45928,0.07218,,,,,,,,,,,,,,,,,,,,,,,,,,0,0,0,0,0
1.2911,1783370015.6390,1,1,1.0000,0.0000,1.40695,0.14554,-2.66946,1.00119,1.56135,0.13039,-0.12732,-0.45921,0.07213,,,,,,,,,,,,,,,,,,,,,,,,,,0,0,0,0,0
1.3121,1783370015.6600,1,1,1.0000,0.0000,1.40704,0.14553,-2.66943,1.00140,1.56111,0.13020,-0.12740,-0.45928,0.07218,,,,,,,,,,,,,,,,,,,,,,,,,,0,0,0,0,0
1.3131,1783370015.6610,1,1,1.0000,0.0000,1.40704,0.14553,-2.66943,1.00140,1.56111,0.13020,-0.12740,-0.45928,0.07218,,,,,,,,,,,,,,,,,,,,,,,,,,0,0,0,0,0
1.3207,1783370015.6686,1,1,1.0000,0.0000,1.40704,0.14554,-2.66943,1.00139,1.56112,0.13020,-0.12740,-0.45928,0.07218,,,,,,,,,,,,,,,,,,,,,,,,,,0,0,0,0,0
1.3334,1783370015.6813,1,1,1.0000,0.0000,1.40695,0.14553,-2.66946,1.00120,1.56134,0.13038,-0.12732,-0.45922,0.07213,,,,,,,,,,,,,,,,,,,,,,,,,,0,0,0,0,0
1.3432,1783370015.6911,1,1,1.0000,0.0000,1.40704,0.14554,-2.66943,1.00139,1.56112,0.13020,-0.12740,-0.45928,0.07218,,,,,,,,,,,,,,,,,,,,,,,,,,0,0,0,0,0
1.3485,1783370015.6964,1,1,1.0000,0.0000,1.40695,0.14553,-2.66946,1.00120,1.56134,0.13038,-0.12733,-0.45922,0.07213,,,,,,,,,,,,,,,,,,,,,,,,,,0,0,0,0,0
1.3604,1783370015.7083,1,1,1.0000,0.0000,1.40704,0.14553,-2.66943,1.00140,1.56111,0.13020,-0.12740,-0.45928,0.07218,,,,,,,,,,,,,,,,,,,,,,,,,,0,0,0,0,0
1.3686,1783370015.7165,1,1,1.0000,0.0000,1.40704,0.14554,-2.66943,1.00139,1.56112,0.13020,-0.12740,-0.45928,0.07218,,,,,,,,,,,,,,,,,,,,,,,,,,0,0,0,0,0
1.3804,1783370015.7283,1,1,1.0000,0.0000,1.40695,0.14554,-2.66946,1.00119,1.56135,0.13039,-0.12732,-0.45921,0.07212,,,,,,,,,,,,,,,,,,,,,,,,,,0,0,0,0,0
1.3938,1783370015.7417,1,1,1.0000,0.0000,1.40704,0.14553,-2.66943,1.00140,1.56110,0.13019,-0.12740,-0.45928,0.07218,,,,,,,,,,,,,,,,,,,,,,,,,,0,0,0,0,0
1.4003,1783370015.7482,1,1,1.0000,0.0000,1.40704,0.14554,-2.66943,1.00140,1.56111,0.13020,-0.12740,-0.45928,0.07218,,,,,,,,,,,,,,,,,,,,,,,,,,0,0,0,0,0
1.4133,1783370015.7612,1,1,1.0000,0.0000,1.40695,0.14554,-2.66946,1.00119,1.56135,0.13039,-0.12732,-0.45921,0.07212,,,,,,,,,,,,,,,,,,,,,,,,,,0,0,0,0,0
1.4193,1783370015.7672,1,1,1.0000,0.0000,1.40695,0.14554,-2.66946,1.00119,1.56135,0.13039,-0.12732,-0.45921,0.07212,,,,,,,,,,,,,,,,,,,,,,,,,,0,0,0,0,0
1.4293,1783370015.7772,1,1,1.0000,0.0000,1.40695,0.14554,-2.66946,1.00119,1.56135,0.13039,-0.12732,-0.45921,0.07212,,,,,,,,,,,,,,,,,,,,,,,,,,0,0,0,0,0
1.4414,1783370015.7893,1,1,1.0000,0.0000,1.40704,0.14553,-2.66943,1.00140,1.56111,0.13020,-0.12740,-0.45928,0.07218,,,,,,,,,,,,,,,,,,,,,,,,,,0,0,0,0,0
1.4563,1783370015.8042,1,1,1.0000,0.0000,1.40704,0.14554,-2.66943,1.00139,1.56112,0.13020,-0.12740,-0.45928,0.07218,,,,,,,,,,,,,,,,,,,,,,,,,,0,0,0,0,0
1.4632,1783370015.8111,1,1,1.0000,0.0000,1.40704,0.14553,-2.66943,1.00140,1.56111,0.13020,-0.12740,-0.45928,0.07218,,,,,,,,,,,,,,,,,,,,,,,,,,0,0,0,0,0
1.4644,1783370015.8123,1,1,1.0000,0.0000,1.40704,0.14553,-2.66943,1.00140,1.56111,0.13020,-0.12740,-0.45928,0.07218,,,,,,,,,,,,,,,,,,,,,,,,,,0,0,0,0,0
1.4700,1783370015.8179,1,1,1.0000,0.0000,1.40695,0.14554,-2.66946,1.00120,1.56134,0.13039,-0.12732,-0.45922,0.07213,,,,,,,,,,,,,,,,,,,,,,,,,,0,0,0,0,0
1.4791,1783370015.8270,1,1,1.0000,0.0000,1.40708,0.14552,-2.66940,1.00139,1.56111,0.13018,-0.12742,-0.45930,0.07219,,,,,,,,,,,,,,,,,,,,,,,,,,0,0,0,0,0
1.4897,1783370015.8376,1,1,1.0000,0.0000,1.40715,0.14551,-2.66938,1.00139,1.56111,0.13015,-0.12744,-0.45930,0.07220,,,,,,,,,,,,,,,,,,,,,,,,,,0,0,0,0,0
1.5001,1783370015.8480,1,1,1.0000,0.0000,1.40714,0.14549,-2.66939,1.00118,1.56134,0.13029,-0.12740,-0.45923,0.07214,,,,,,,,,,,,,,,,,,,,,,,,,,0,0,0,0,0
1.5008,1783370015.8487,1,1,1.0000,0.0000,1.40714,0.14549,-2.66939,1.00118,1.56134,0.13029,-0.12740,-0.45923,0.07214,,,,,,,,,,,,,,,,,,,,,,,,,,0,0,0,0,0
1.5266,1783370015.8745,1,1,1.0000,0.0000,1.40742,0.14542,-2.66935,1.00118,1.56134,0.13008,-0.12751,-0.45922,0.07213,,,,,,,,,,,,,,,,,,,,,,,,,,0,0,0,0,0
1.6161,1783370015.9640,1,1,1.0000,0.0000,1.41171,0.14428,-2.66858,1.00162,1.56122,0.12574,-0.12919,-0.45919,0.07212,,,,,,,,,,,,,,,,,,,,,,,,,,0,0,0,0,0
1.6173,1783370015.9652,1,1,1.0000,0.0000,1.41171,0.14428,-2.66858,1.00162,1.56122,0.12574,-0.12919,-0.45919,0.07212,,,,,,,,,,,,,,,,,,,,,,,,,,0,0,0,0,0
1.6179,1783370015.9658,1,1,1.0000,0.0000,1.41171,0.14428,-2.66858,1.00162,1.56122,0.12574,-0.12919,-0.45919,0.07212,,,,,,,,,,,,,,,,,,,,,,,,,,0,0,0,0,0
1.6189,1783370015.9668,1,1,1.0000,0.0000,1.41198,0.14418,-2.66854,1.00145,1.56146,0.12557,-0.12925,-0.45912,0.07206,,,,,,,,,,,,,,,,,,,,,,,,,,0,0,0,0,0
1.6194,1783370015.9673,1,1,1.0000,0.0000,1.41198,0.14418,-2.66854,1.00145,1.56146,0.12557,-0.12925,-0.45912,0.07206,,,,,,,,,,,,,,,,,,,,,,,,,,0,0,0,0,0
1.6199,1783370015.9678,1,1,1.0000,0.0000,1.41198,0.14418,-2.66854,1.00145,1.56146,0.12557,-0.12925,-0.45912,0.07206,,,,,,,,,,,,,,,,,,,,,,,,,,0,0,0,0,0
1.6216,1783370015.9695,1,1,1.0000,0.0000,1.41198,0.14418,-2.66854,1.00145,1.56146,0.12557,-0.12925,-0.45912,0.07206,,,,,,,,,,,,,,,,,,,,,,,,,,0,0,0,0,0
1.6326,1783370015.9805,1,1,1.0000,0.0000,1.41311,0.14390,-2.66832,1.00173,1.56127,0.12434,-0.12972,-0.45917,0.07211,,,,,,,,,,,,,,,,,,,,,,,,,,0,0,0,0,0
1.6336,1783370015.9815,1,1,1.0000,0.0000,1.41311,0.14390,-2.66832,1.00173,1.56127,0.12434,-0.12972,-0.45917,0.07211,,,,,,,,,,,,,,,,,,,,,,,,,,0,0,0,0,0
1.6381,1783370015.9860,1,1,1.0000,0.0000,1.41336,0.14380,-2.66828,1.00155,1.56152,0.12419,-0.12976,-0.45910,0.07206,,,,,,,,,,,,,,,,,,,,,,,,,,0,0,0,0,0
1.6447,1783370015.9926,1,1,1.0000,0.0000,1.41404,0.14362,-2.66815,1.00160,1.56155,0.12351,-0.13002,-0.45909,0.07205,,,,,,,,,,,,,,,,,,,,,,,,,,0,0,0,0,0
1.6553,1783370016.0032,1,1,1.0000,0.0000,1.41438,0.14353,-2.66809,1.00163,1.56157,0.12317,-0.13014,-0.45909,0.07205,,,,,,,,,,,,,,,,,,,,,,,,,,0,0,0,0,0
1.6681,1783370016.0160,1,1,1.0000,0.0000,1.41576,0.14314,-2.66782,1.00174,1.56162,0.12178,-0.13066,-0.45908,0.07205,,,,,,,,,,,,,,,,,,,,,,,,,,0,0,0,0,0
1.6741,1783370016.0220,1,1,1.0000,0.0000,1.41585,0.14314,-2.66779,1.00195,1.56139,0.12159,-0.13074,-0.45914,0.07210,,,,,,,,,,,,,,,,,,,,,,,,,,0,0,0,0,0
1.6841,1783370016.0320,1,1,1.0000,0.0000,1.41679,0.14286,-2.66762,1.00182,1.56167,0.12075,-0.13104,-0.45907,0.07204,,,,,,,,,,,,,,,,,,,,,,,,,,0,0,0,0,0
1.6933,1783370016.0412,1,1,1.0000,0.0000,1.41745,0.14268,-2.66749,1.00188,1.56170,0.12008,-0.13129,-0.45907,0.07204,,,,,,,,,,,,,,,,,,,,,,,,,,0,0,0,0,0
1.6939,1783370016.0418,1,1,1.0000,0.0000,1.41745,0.14268,-2.66749,1.00188,1.56170,0.12008,-0.13129,-0.45907,0.07204,,,,,,,,,,,,,,,,,,,,,,,,,,0,0,0,0,0
1.7021,1783370016.0500,1,1,1.0000,0.0000,1.41807,0.14251,-2.66737,1.00194,1.56173,0.11946,-0.13152,-0.45907,0.07204,,,,,,,,,,,,,,,,,,,,,,,,,,0,0,0,0,0
1.7160,1783370016.0639,1,1,1.0000,0.0000,1.41884,0.14230,-2.66721,1.00200,1.56176,0.11869,-0.13181,-0.45906,0.07204,,,,,,,,,,,,,,,,,,,,,,,,,,0,0,0,0,0
1.7222,1783370016.0701,1,1,1.0000,0.0000,1.41914,0.14224,-2.66714,1.00222,1.56154,0.11829,-0.13196,-0.45913,0.07210,,,,,,,,,,,,,,,,,,,,,,,,,,0,0,0,0,0
1.7236,1783370016.0715,1,1,1.0000,0.0000,1.41914,0.14224,-2.66714,1.00222,1.56154,0.11829,-0.13196,-0.45913,0.07210,,,,,,,,,,,,,,,,,,,,,,,,,,0,0,0,0,0
1.7368,1783370016.0847,1,1,1.0000,0.0000,1.41965,0.14210,-2.66704,1.00227,1.56157,0.11778,-0.13215,-0.45912,0.07210,,,,,,,,,,,,,,,,,,,,,,,,,,0,0,0,0,0
1.7373,1783370016.0852,1,1,1.0000,0.0000,1.41965,0.14210,-2.66704,1.00227,1.56157,0.11778,-0.13215,-0.45912,0.07210,,,,,,,,,,,,,,,,,,,,,,,,,,0,0,0,0,0
1.7443,1783370016.0922,1,1,1.0000,0.0000,1.41992,0.14203,-2.66699,1.00229,1.56159,0.11751,-0.13225,-0.45912,0.07210,,,,,,,,,,,,,,,,,,,,,,,,,,0,0,0,0,0
1.7549,1783370016.1028,1,1,1.0000,0.0000,1.42013,0.14194,-2.66696,1.00212,1.56184,0.11739,-0.13229,-0.45906,0.07204,,,,,,,,,,,,,,,,,,,,,,,,,,0,0,0,0,0
1.7661,1783370016.1140,1,1,1.0000,0.0000,1.42021,0.14192,-2.66694,1.00213,1.56184,0.11731,-0.13231,-0.45906,0.07204,,,,,,,,,,,,,,,,,,,,,,,,,,0,0,0,0,0
1.7767,1783370016.1246,1,1,1.0000,0.0000,1.42046,0.14188,-2.66689,1.00235,1.56162,0.11696,-0.13245,-0.45911,0.07209,,,,,,,,,,,,,,,,,,,,,,,,,,0,0,0,0,0
1.7818,1783370016.1297,1,1,1.0000,0.0000,1.42041,0.14187,-2.66692,1.00215,1.56186,0.11711,-0.13239,-0.45905,0.07204,,,,,,,,,,,,,,,,,,,,,,,,,,0,0,0,0,0
1.8063,1783370016.1542,1,1,1.0000,0.0000,1.42049,0.14185,-2.66695,1.00217,1.56187,0.11701,-0.13242,-0.45901,0.07201,,,,,,,,,,,,,,,,,,,,,,,,,,0,0,0,0,0
1.8069,1783370016.1548,1,1,1.0000,0.0000,1.42049,0.14185,-2.66695,1.00217,1.56187,0.11701,-0.13242,-0.45901,0.07201,,,,,,,,,,,,,,,,,,,,,,,,,,0,0,0,0,0
1.8166,1783370016.1645,1,1,1.0000,0.0000,1.42058,0.14185,-2.66696,1.00238,1.56164,0.11681,-0.13250,-0.45905,0.07205,,,,,,,,,,,,,,,,,,,,,,,,,,0,0,0,0,0
1.8239,1783370016.1718,1,1,1.0000,0.0000,1.42058,0.14184,-2.66698,1.00239,1.56164,0.11681,-0.13250,-0.45904,0.07204,,,,,,,,,,,,,,,,,,,,,,,,,,0,0,0,0,0
1.8245,1783370016.1724,1,1,1.0000,0.0000,1.42058,0.14184,-2.66698,1.00239,1.56164,0.11681,-0.13250,-0.45904,0.07204,,,,,,,,,,,,,,,,,,,,,,,,,,0,0,0,0,0
1.8391,1783370016.1870,1,1,1.0000,0.0000,1.42049,0.14184,-2.66700,1.00219,1.56187,0.11699,-0.13243,-0.45898,0.07199,,,,,,,,,,,,,,,,,,,,,,,,,,0,0,0,0,0
1.8401,1783370016.1880,1,1,1.0000,0.0000,1.42058,0.14185,-2.66698,1.00238,1.56165,0.11681,-0.13250,-0.45904,0.07204,,,,,,,,,,,,,,,,,,,,,,,,,,0,0,0,0,0
1.8410,1783370016.1889,1,1,1.0000,0.0000,1.42058,0.14185,-2.66698,1.00238,1.56165,0.11681,-0.13250,-0.45904,0.07204,,,,,,,,,,,,,,,,,,,,,,,,,,0,0,0,0,0
1.8487,1783370016.1966,1,1,1.0000,0.0000,1.42058,0.14184,-2.66698,1.00239,1.56163,0.11680,-0.13250,-0.45905,0.07204,,,,,,,,,,,,,,,,,,,,,,,,,,0,0,0,0,0
1.8554,1783370016.2033,1,1,1.0000,0.0000,1.42058,0.14184,-2.66698,1.00239,1.56164,0.11681,-0.13250,-0.45904,0.07204,,,,,,,,,,,,,,,,,,,,,,,,,,0,0,0,0,0
1.8566,1783370016.2045,1,1,1.0000,0.0000,1.42058,0.14184,-2.66698,1.00239,1.56164,0.11681,-0.13250,-0.45904,0.07204,,,,,,,,,,,,,,,,,,,,,,,,,,0,0,0,0,0
1.8639,1783370016.2118,1,1,1.0000,0.0000,1.42058,0.14184,-2.66698,1.00239,1.56164,0.11681,-0.13250,-0.45904,0.07204,,,,,,,,,,,,,,,,,,,,,,,,,,0,0,0,0,0
1.8645,1783370016.2124,1,1,1.0000,0.0000,1.42058,0.14184,-2.66698,1.00239,1.56164,0.11681,-0.13250,-0.45904,0.07204,,,,,,,,,,,,,,,,,,,,,,,,,,0,0,0,0,0
1.8730,1783370016.2209,1,1,1.0000,0.0000,1.42058,0.14184,-2.66698,1.00239,1.56163,0.11681,-0.13250,-0.45904,0.07204,,,,,,,,,,,,,,,,,,,,,,,,,,0,0,0,0,0
1.8733,1783370016.2212,1,1,1.0000,0.0000,1.42058,0.14184,-2.66698,1.00239,1.56163,0.11681,-0.13250,-0.45904,0.07204,,,,,,,,,,,,,,,,,,,,,,,,,,0,0,0,0,0
1.8738,1783370016.2217,1,1,1.0000,0.0000,1.42058,0.14184,-2.66698,1.00239,1.56163,0.11681,-0.13250,-0.45904,0.07204,,,,,,,,,,,,,,,,,,,,,,,,,,0,0,0,0,0
1.8848,1783370016.2327,1,1,1.0000,0.0000,1.42049,0.14185,-2.66700,1.00218,1.56187,0.11699,-0.13242,-0.45898,0.07199,,,,,,,,,,,,,,,,,,,,,,,,,,0,0,0,0,0
1.8930,1783370016.2409,1,1,1.0000,0.0000,1.42049,0.14185,-2.66700,1.00218,1.56187,0.11699,-0.13242,-0.45898,0.07199,,,,,,,,,,,,,,,,,,,,,,,,,,0,0,0,0,0
1.9051,1783370016.2530,1,1,1.0000,0.0000,1.42058,0.14184,-2.66698,1.00239,1.56164,0.11681,-0.13250,-0.45904,0.07204,,,,,,,,,,,,,,,,,,,,,,,,,,0,0,0,0,0
1.9243,1783370016.2722,1,1,1.0000,0.0000,1.42049,0.14184,-2.66700,1.00218,1.56187,0.11699,-0.13243,-0.45898,0.07199,,,,,,,,,,,,,,,,,,,,,,,,,,0,0,0,0,0
1.9257,1783370016.2736,1,1,1.0000,0.0000,1.42049,0.14184,-2.66700,1.00218,1.56187,0.11699,-0.13243,-0.45898,0.07199,,,,,,,,,,,,,,,,,,,,,,,,,,0,0,0,0,0
1.9270,1783370016.2749,1,1,1.0000,0.0000,1.42049,0.14184,-2.66700,1.00218,1.56187,0.11699,-0.13243,-0.45898,0.07199,,,,,,,,,,,,,,,,,,,,,,,,,,0,0,0,0,0
1.9455,1783370016.2934,1,1,1.0000,0.0000,1.42058,0.14184,-2.66698,1.00239,1.56163,0.11680,-0.13250,-0.45904,0.07204,,,,,,,,,,,,,,,,,,,,,,,,,,0,0,0,0,0
1.9488,1783370016.2967,1,1,1.0000,0.0000,1.42049,0.14184,-2.66700,1.00218,1.56187,0.11699,-0.13242,-0.45898,0.07199,,,,,,,,,,,,,,,,,,,,,,,,,,0,0,0,0,0
1.9491,1783370016.2970,1,1,1.0000,0.0000,1.42049,0.14184,-2.66700,1.00218,1.56187,0.11699,-0.13242,-0.45898,0.07199,,,,,,,,,,,,,,,,,,,,,,,,,,0,0,0,0,0
1.9593,1783370016.3072,1,1,1.0000,0.0000,1.42058,0.14184,-2.66697,1.00240,1.56163,0.11680,-0.13251,-0.45905,0.07204,,,,,,,,,,,,,,,,,,,,,,,,,,0,0,0,0,0
1.9601,1783370016.3080,1,1,1.0000,0.0000,1.42058,0.14184,-2.66697,1.00240,1.56163,0.11680,-0.13251,-0.45905,0.07204,,,,,,,,,,,,,,,,,,,,,,,,,,0,0,0,0,0
1.9664,1783370016.3143,1,1,1.0000,0.0000,1.42049,0.14184,-2.66700,1.00218,1.56188,0.11700,-0.13242,-0.45898,0.07199,,,,,,,,,,,,,,,,,,,,,,,,,,0,0,0,0,0
1.9762,1783370016.3241,1,1,1.0000,0.0000,1.42058,0.14184,-2.66698,1.00239,1.56163,0.11681,-0.13250,-0.45904,0.07204,,,,,,,,,,,,,,,,,,,,,,,,,,0,0,0,0,0
1.9841,1783370016.3320,1,1,1.0000,0.0000,1.42058,0.14184,-2.66698,1.00239,1.56164,0.11681,-0.13250,-0.45904,0.07204,,,,,,,,,,,,,,,,,,,,,,,,,,0,0,0,0,0
1.9846,1783370016.3325,1,1,1.0000,0.0000,1.42058,0.14184,-2.66698,1.00239,1.56164,0.11681,-0.13250,-0.45904,0.07204,,,,,,,,,,,,,,,,,,,,,,,,,,0,0,0,0,0
1.9917,1783370016.3396,1,1,1.0000,0.0000,1.42058,0.14184,-2.66698,1.00239,1.56164,0.11681,-0.13250,-0.45904,0.07204,,,,,,,,,,,,,,,,,,,,,,,,,,0,0,0,0,0
1.9923,1783370016.3402,1,1,1.0000,0.0000,1.42058,0.14184,-2.66698,1.00239,1.56164,0.11681,-0.13250,-0.45904,0.07204,,,,,,,,,,,,,,,,,,,,,,,,,,0,0,0,0,0
2.0046,1783370016.3525,1,1,1.0000,0.0000,1.42049,0.14184,-2.66700,1.00219,1.56187,0.11699,-0.13243,-0.45898,0.07199,,,,,,,,,,,,,,,,,,,,,,,,,,0,0,0,0,0
2.0153,1783370016.3632,1,1,1.0000,0.0000,1.42049,0.14184,-2.66700,1.00219,1.56187,0.11699,-0.13243,-0.45898,0.07199,,,,,,,,,,,,,,,,,,,,,,,,,,0,0,0,0,0
2.0264,1783370016.3743,1,1,1.0000,0.0000,1.42058,0.14184,-2.66698,1.00238,1.56164,0.11681,-0.13250,-0.45904,0.07204,,,,,,,,,,,,,,,,,,,,,,,,,,0,0,0,0,0
2.0344,1783370016.3823,1,1,1.0000,0.0000,1.42058,0.14184,-2.66698,1.00239,1.56164,0.11681,-0.13250,-0.45904,0.07204,,,,,,,,,,,,,,,,,,,,,,,,,,0,0,0,0,0
2.0356,1783370016.3835,1,1,1.0000,0.0000,1.42049,0.14184,-2.66700,1.00219,1.56187,0.11699,-0.13243,-0.45898,0.07199,,,,,,,,,,,,,,,,,,,,,,,,,,0,0,0,0,0
2.0437,1783370016.3916,1,1,1.0000,0.0000,1.42058,0.14184,-2.66698,1.00239,1.56164,0.11681,-0.13250,-0.45904,0.07204,,,,,,,,,,,,,,,,,,,,,,,,,,0,0,0,0,0
2.0566,1783370016.4045,1,1,1.0000,0.0000,1.42058,0.14184,-2.66698,1.00239,1.56164,0.11681,-0.13250,-0.45904,0.07204,,,,,,,,,,,,,,,,,,,,,,,,,,0,0,0,0,0
2.0570,1783370016.4049,1,1,1.0000,0.0000,1.42058,0.14184,-2.66698,1.00239,1.56164,0.11681,-0.13250,-0.45904,0.07204,,,,,,,,,,,,,,,,,,,,,,,,,,0,0,0,0,0
2.0638,1783370016.4117,1,1,1.0000,0.0000,1.42049,0.14184,-2.66700,1.00219,1.56187,0.11699,-0.13243,-0.45898,0.07199,,,,,,,,,,,,,,,,,,,,,,,,,,0,0,0,0,0
2.0646,1783370016.4125,1,1,1.0000,0.0000,1.42058,0.14184,-2.66698,1.00239,1.56164,0.11681,-0.13250,-0.45904,0.07204,,,,,,,,,,,,,,,,,,,,,,,,,,0,0,0,0,0
2.0802,1783370016.4281,1,1,1.0000,0.0000,1.42058,0.14184,-2.66698,1.00239,1.56163,0.11680,-0.13250,-0.45905,0.07204,,,,,,,,,,,,,,,,,,,,,,,,,,0,0,0,0,0
2.0809,1783370016.4288,1,1,1.0000,0.0000,1.42058,0.14184,-2.66698,1.00239,1.56163,0.11680,-0.13250,-0.45905,0.07204,,,,,,,,,,,,,,,,,,,,,,,,,,0,0,0,0,0
2.0841,1783370016.4320,1,1,1.0000,0.0000,1.42049,0.14184,-2.66700,1.00218,1.56187,0.11699,-0.13242,-0.45898,0.07199,,,,,,,,,,,,,,,,,,,,,,,,,,0,0,0,0,0
2.0929,1783370016.4408,1,1,1.0000,0.0000,1.42049,0.14184,-2.66700,1.00219,1.56187,0.11699,-0.13243,-0.45898,0.07199,,,,,,,,,,,,,,,,,,,,,,,,,,0,0,0,0,0
2.1063,1783370016.4542,1,1,1.0000,0.0000,1.42058,0.14184,-2.66698,1.00239,1.56164,0.11681,-0.13250,-0.45904,0.07204,,,,,,,,,,,,,,,,,,,,,,,,,,0,0,0,0,0
2.1135,1783370016.4614,1,1,1.0000,0.0000,1.42058,0.14184,-2.66698,1.00239,1.56163,0.11680,-0.13250,-0.45905,0.07204,,,,,,,,,,,,,,,,,,,,,,,,,,0,0,0,0,0
2.1239,1783370016.4718,1,1,1.0000,0.0000,1.42049,0.14184,-2.66700,1.00218,1.56187,0.11699,-0.13242,-0.45898,0.07199,,,,,,,,,,,,,,,,,,,,,,,,,,0,0,0,0,0
2.1242,1783370016.4721,1,1,1.0000,0.0000,1.42049,0.14184,-2.66700,1.00218,1.56187,0.11699,-0.13242,-0.45898,0.07199,,,,,,,,,,,,,,,,,,,,,,,,,,0,0,0,0,0
2.1363,1783370016.4842,1,1,1.0000,0.0000,1.42058,0.14184,-2.66697,1.00240,1.56163,0.11680,-0.13251,-0.45905,0.07204,,,,,,,,,,,,,,,,,,,,,,,,,,0,0,0,0,0
2.1449,1783370016.4928,1,1,1.0000,0.0000,1.42058,0.14185,-2.66698,1.00239,1.56164,0.11681,-0.13250,-0.45904,0.07204,,,,,,,,,,,,,,,,,,,,,,,,,,0,0,0,0,0
2.1455,1783370016.4934,1,1,1.0000,0.0000,1.42058,0.14185,-2.66698,1.00239,1.56164,0.11681,-0.13250,-0.45904,0.07204,,,,,,,,,,,,,,,,,,,,,,,,,,0,0,0,0,0
2.1533,1783370016.5012,1,1,1.0000,0.0000,1.42058,0.14185,-2.66698,1.00238,1.56165,0.11681,-0.13250,-0.45904,0.07204,,,,,,,,,,,,,,,,,,,,,,,,,,0,0,0,0,0
2.1621,1783370016.5100,1,1,1.0000,0.0000,1.42058,0.14184,-2.66698,1.00239,1.56163,0.11680,-0.13250,-0.45905,0.07204,,,,,,,,,,,,,,,,,,,,,,,,,,0,0,0,0,0
2.1900,1783370016.5379,1,1,1.0000,0.0000,1.42049,0.14185,-2.66702,1.00219,1.56187,0.11698,-0.13243,-0.45897,0.07198,,,,,,,,,,,,,,,,,,,,,,,,,,0,0,0,0,0
2.1904,1783370016.5383,1,1,1.0000,0.0000,1.42049,0.14185,-2.66702,1.00219,1.56187,0.11698,-0.13243,-0.45897,0.07198,,,,,,,,,,,,,,,,,,,,,,,,,,0,0,0,0,0
2.2008,1783370016.5487,1,1,1.0000,0.0000,1.42058,0.14185,-2.66700,1.00241,1.56164,0.11679,-0.13250,-0.45904,0.07204,,,,,,,,,,,,,,,,,,,,,,,,,,0,0,0,0,0
2.2062,1783370016.5541,1,1,1.0000,0.0000,1.42049,0.14185,-2.66702,1.00221,1.56188,0.11697,-0.13242,-0.45897,0.07199,,,,,,,,,,,,,,,,,,,,,,,,,,0,0,0,0,0
2.2167,1783370016.5646,1,1,1.0000,0.0000,1.42057,0.14186,-2.66699,1.00241,1.56166,0.11678,-0.13249,-0.45904,0.07205,,,,,,,,,,,,,,,,,,,,,,,,,,0,0,0,0,0
2.2261,1783370016.5740,1,1,1.0000,0.0000,1.42056,0.14189,-2.66700,1.00242,1.56167,0.11677,-0.13248,-0.45904,0.07206,,,,,,,,,,,,,,,,,,,,,,,,,,0,0,0,0,0
2.2558,1783370016.6037,1,1,1.0000,0.0000,1.42044,0.14206,-2.66715,1.00221,1.56191,0.11696,-0.13240,-0.45891,0.07201,,,,,,,,,,,,,,,,,,,,,,,,,,0,0,0,0,0
2.2570,1783370016.6049,1,1,1.0000,0.0000,1.42051,0.14212,-2.66717,1.00239,1.56169,0.11678,-0.13247,-0.45895,0.07206,,,,,,,,,,,,,,,,,,,,,,,,,,0,0,0,0,0
2.2678,1783370016.6157,1,1,1.0000,0.0000,1.42038,0.14234,-2.66735,1.00216,1.56191,0.11698,-0.13239,-0.45879,0.07202,,,,,,,,,,,,,,,,,,,,,,,,,,0,0,0,0,0
2.2686,1783370016.6165,1,1,1.0000,0.0000,1.42038,0.14234,-2.66735,1.00216,1.56191,0.11698,-0.13239,-0.45879,0.07202,,,,,,,,,,,,,,,,,,,,,,,,,,0,0,0,0,0
2.2770,1783370016.6249,1,1,1.0000,0.0000,1.42036,0.14244,-2.66742,1.00214,1.56191,0.11699,-0.13239,-0.45875,0.07202,,,,,,,,,,,,,,,,,,,,,,,,,,0,0,0,0,0
2.2852,1783370016.6331,1,1,1.0000,0.0000,1.42032,0.14266,-2.66758,1.00210,1.56191,0.11701,-0.13239,-0.45866,0.07202,,,,,,,,,,,,,,,,,,,,,,,,,,0,0,0,0,0
2.2973,1783370016.6452,1,1,1.0000,0.0000,1.42032,0.14310,-2.66786,1.00221,1.56168,0.11689,-0.13246,-0.45854,0.07209,,,,,,,,,,,,,,,,,,,,,,,,,,0,0,0,0,0
2.3073,1783370016.6552,1,1,1.0000,0.0000,1.42029,0.14327,-2.66799,1.00217,1.56168,0.11691,-0.13246,-0.45847,0.07209,,,,,,,,,,,,,,,,,,,,,,,,,,0,0,0,0,0
2.3154,1783370016.6633,1,1,1.0000,0.0000,1.42008,0.14392,-2.66848,1.00181,1.56191,0.11720,-0.13237,-0.45813,0.07205,,,,,,,,,,,,,,,,,,,,,,,,,,0,0,0,0,0
2.3282,1783370016.6761,1,1,1.0000,0.0000,1.42002,0.14469,-2.66901,1.00183,1.56167,0.11715,-0.13245,-0.45786,0.07211,,,,,,,,,,,,,,,,,,,,,,,,,,0,0,0,0,0
2.3291,1783370016.6770,1,1,1.0000,0.0000,1.42002,0.14469,-2.66901,1.00183,1.56167,0.11715,-0.13245,-0.45786,0.07211,,,,,,,,,,,,,,,,,,,,,,,,,,0,0,0,0,0
2.3333,1783370016.6812,1,1,1.0000,0.0000,1.41988,0.14497,-2.66923,1.00155,1.56191,0.11739,-0.13237,-0.45767,0.07206,,,,,,,,,,,,,,,,,,,,,,,,,,0,0,0,0,0
2.3443,1783370016.6922,1,1,1.0000,0.0000,1.41987,0.14550,-2.66959,1.00162,1.56167,0.11730,-0.13244,-0.45751,0.07212,,,,,,,,,,,,,,,,,,,,,,,,,,0,0,0,0,0
2.3773,1783370016.7252,1,1,1.0000,0.0000,1.41951,0.14735,-2.67093,1.00113,1.56169,0.11765,-0.13242,-0.45670,0.07213,,,,,,,,,,,,,,,,,,,,,,,,,,0,0,0,0,0
2.3800,1783370016.7279,1,1,1.0000,0.0000,1.41937,0.14762,-2.67115,1.00086,1.56190,0.11788,-0.13235,-0.45651,0.07207,,,,,,,,,,,,,,,,,,,,,,,,,,0,0,0,0,0
2.3803,1783370016.7282,1,1,1.0000,0.0000,1.41937,0.14762,-2.67115,1.00086,1.56190,0.11788,-0.13235,-0.45651,0.07207,,,,,,,,,,,,,,,,,,,,,,,,,,0,0,0,0,0
2.3837,1783370016.7316,1,1,1.0000,0.0000,1.41937,0.14762,-2.67115,1.00086,1.56190,0.11788,-0.13235,-0.45651,0.07207,,,,,,,,,,,,,,,,,,,,,,,,,,0,0,0,0,0
2.3927,1783370016.7406,1,1,1.0000,0.0000,1.41935,0.14819,-2.67153,1.00090,1.56168,0.11781,-0.13242,-0.45633,0.07213,,,,,,,,,,,,,,,,,,,,,,,,,,0,0,0,0,0
2.3933,1783370016.7412,1,1,1.0000,0.0000,1.41935,0.14819,-2.67153,1.00090,1.56168,0.11781,-0.13242,-0.45633,0.07213,,,,,,,,,,,,,,,,,,,,,,,,,,0,0,0,0,0
2.4067,1783370016.7546,1,1,1.0000,0.0000,1.41909,0.14908,-2.67221,1.00045,1.56191,0.11817,-0.13234,-0.45587,0.07207,,,,,,,,,,,,,,,,,,,,,,,,,,0,0,0,0,0
2.4121,1783370016.7600,1,1,1.0000,0.0000,1.41897,0.14969,-2.67265,1.00028,1.56191,0.11829,-0.13234,-0.45560,0.07207,,,,,,,,,,,,,,,,,,,,,,,,,,0,0,0,0,0
2.4469,1783370016.7948,1,1,1.0000,0.0000,1.41863,0.15151,-2.67397,0.99977,1.56190,0.11864,-0.13233,-0.45479,0.07207,,,,,,,,,,,,,,,,,,,,,,,,,,0,0,0,0,0
2.4576,1783370016.8055,1,1,1.0000,0.0000,1.41864,0.15188,-2.67421,0.99986,1.56167,0.11853,-0.13240,-0.45470,0.07213,,,,,,,,,,,,,,,,,,,,,,,,,,0,0,0,0,0
2.4583,1783370016.8062,1,1,1.0000,0.0000,1.41864,0.15188,-2.67421,0.99986,1.56167,0.11853,-0.13240,-0.45470,0.07213,,,,,,,,,,,,,,,,,,,,,,,,,,0,0,0,0,0
2.4662,1783370016.8141,1,1,1.0000,0.0000,1.41858,0.15218,-2.67442,0.99977,1.56167,0.11859,-0.13240,-0.45456,0.07213,,,,,,,,,,,,,,,,,,,,,,,,,,0,0,0,0,0
2.4738,1783370016.8217,1,1,1.0000,0.0000,1.41854,0.15242,-2.67460,0.99970,1.56167,0.11863,-0.13240,-0.45445,0.07212,,,,,,,,,,,,,,,,,,,,,,,,,,0,0,0,0,0
2.4892,1783370016.8371,1,1,1.0000,0.0000,1.41847,0.15277,-2.67485,0.99958,1.56168,0.11871,-0.13240,-0.45430,0.07212,,,,,,,,,,,,,,,,,,,,,,,,,,0,0,0,0,0
2.4981,1783370016.8460,1,1,1.0000,0.0000,1.41845,0.15288,-2.67493,0.99954,1.56168,0.11873,-0.13240,-0.45424,0.07212,,,,,,,,,,,,,,,,,,,,,,,,,,0,0,0,0,0
2.6164,1783370016.9643,1,1,1.0000,0.0000,1.41841,0.15307,-2.67507,0.99947,1.56168,0.11878,-0.13240,-0.45416,0.07211,,,,,,,,,,,,,,,,,,,,,,,,,,0,0,0,0,0
2.6169,1783370016.9648,1,1,1.0000,0.0000,1.41841,0.15307,-2.67507,0.99947,1.56168,0.11878,-0.13240,-0.45416,0.07211,,,,,,,,,,,,,,,,,,,,,,,,,,0,0,0,0,0
2.6181,1783370016.9660,1,1,1.0000,0.0000,1.41841,0.15307,-2.67507,0.99947,1.56168,0.11878,-0.13240,-0.45416,0.07211,,,,,,,,,,,,,,,,,,,,,,,,,,0,0,0,0,0
2.6187,1783370016.9666,1,1,1.0000,0.0000,1.41841,0.15307,-2.67507,0.99947,1.56168,0.11878,-0.13240,-0.45416,0.07211,,,,,,,,,,,,,,,,,,,,,,,,,,0,0,0,0,0
2.6243,1783370016.9722,1,1,1.0000,0.0000,1.41841,0.15307,-2.67507,0.99948,1.56166,0.11877,-0.13240,-0.45416,0.07212,,,,,,,,,,,,,,,,,,,,,,,,,,0,0,0,0,0
2.6249,1783370016.9728,1,1,1.0000,0.0000,1.41841,0.15307,-2.67507,0.99948,1.56166,0.11877,-0.13240,-0.45416,0.07212,,,,,,,,,,,,,,,,,,,,,,,,,,0,0,0,0,0
2.6370,1783370016.9849,1,1,1.0000,0.0000,1.41832,0.15306,-2.67509,0.99927,1.56190,0.11896,-0.13233,-0.45409,0.07206,,,,,,,,,,,,,,,,,,,,,,,,,,0,0,0,0,0
2.6447,1783370016.9926,1,1,1.0000,0.0000,1.41832,0.15306,-2.67510,0.99927,1.56191,0.11897,-0.13232,-0.45409,0.07206,,,,,,,,,,,,,,,,,,,,,,,,,,0,0,0,0,0
2.6694,1783370017.0173,1,1,1.0000,0.0000,1.41832,0.15306,-2.67510,0.99927,1.56191,0.11896,-0.13232,-0.45409,0.07206,,,,,,,,,,,,,,,,,,,,,,,,,,0,0,0,0,0
2.6705,1783370017.0184,1,1,1.0000,0.0000,1.41832,0.15306,-2.67510,0.99927,1.56191,0.11896,-0.13232,-0.45409,0.07206,,,,,,,,,,,,,,,,,,,,,,,,,,0,0,0,0,0
2.6777,1783370017.0256,1,1,1.0000,0.0000,1.41832,0.15306,-2.67510,0.99927,1.56191,0.11896,-0.13232,-0.45409,0.07206,,,,,,,,,,,,,,,,,,,,,,,,,,0,0,0,0,0
2.6846,1783370017.0325,1,1,1.0000,0.0000,1.41832,0.15306,-2.67510,0.99927,1.56190,0.11896,-0.13232,-0.45409,0.07206,,,,,,,,,,,,,,,,,,,,,,,,,,0,0,0,0,0
2.6851,1783370017.0330,1,1,1.0000,0.0000,1.41832,0.15306,-2.67510,0.99927,1.56190,0.11896,-0.13232,-0.45409,0.07206,,,,,,,,,,,,,,,,,,,,,,,,,,0,0,0,0,0
2.6861,1783370017.0340,1,1,1.0000,0.0000,1.41832,0.15306,-2.67510,0.99927,1.56190,0.11896,-0.13232,-0.45409,0.07206,,,,,,,,,,,,,,,,,,,,,,,,,,0,0,0,0,0
2.7024,1783370017.0503,1,1,1.0000,0.0000,1.41832,0.15306,-2.67510,0.99927,1.56190,0.11896,-0.13232,-0.45409,0.07206,,,,,,,,,,,,,,,,,,,,,,,,,,0,0,0,0,0
2.7218,1783370017.0697,1,1,1.0000,0.0000,1.41841,0.15307,-2.67507,0.99948,1.56166,0.11877,-0.13240,-0.45416,0.07212,,,,,,,,,,,,,,,,,,,,,,,,,,0,0,0,0,0
2.7223,1783370017.0702,1,1,1.0000,0.0000,1.41841,0.15307,-2.67507,0.99948,1.56166,0.11877,-0.13240,-0.45416,0.07212,,,,,,,,,,,,,,,,,,,,,,,,,,0,0,0,0,0
2.7806,1783370017.1285,1,1,1.0000,0.0000,1.41832,0.15306,-2.67510,0.99927,1.56190,0.11896,-0.13232,-0.45409,0.07206,,,,,,,,,,,,,,,,,,,,,,,,,,0,0,0,0,0
2.7811,1783370017.1290,1,1,1.0000,0.0000,1.41832,0.15306,-2.67510,0.99927,1.56190,0.11896,-0.13232,-0.45409,0.07206,,,,,,,,,,,,,,,,,,,,,,,,,,0,0,0,0,0
2.7819,1783370017.1298,1,1,1.0000,0.0000,1.41832,0.15306,-2.67510,0.99927,1.56190,0.11896,-0.13232,-0.45409,0.07206,,,,,,,,,,,,,,,,,,,,,,,,,,0,0,0,0,0
2.7831,1783370017.1310,1,1,1.0000,0.0000,1.41832,0.15306,-2.67510,0.99927,1.56190,0.11896,-0.13232,-0.45409,0.07206,,,,,,,,,,,,,,,,,,,,,,,,,,0,0,0,0,0
2.7862,1783370017.1341,1,1,1.0000,0.0000,1.41841,0.15307,-2.67507,0.99947,1.56167,0.11877,-0.13240,-0.45416,0.07212,,,,,,,,,,,,,,,,,,,,,,,,,,0,0,0,0,0
2.7969,1783370017.1448,1,1,1.0000,0.0000,1.41832,0.15306,-2.67510,0.99927,1.56191,0.11897,-0.13232,-0.45409,0.07206,,,,,,,,,,,,,,,,,,,,,,,,,,0,0,0,0,0
2.7974,1783370017.1453,1,1,1.0000,0.0000,1.41832,0.15306,-2.67510,0.99927,1.56191,0.11897,-0.13232,-0.45409,0.07206,,,,,,,,,,,,,,,,,,,,,,,,,,0,0,0,0,0
2.8770,1783370017.2249,1,1,1.0000,0.0000,1.41832,0.15306,-2.67510,0.99927,1.56190,0.11896,-0.13232,-0.45409,0.07206,,,,,,,,,,,,,,,,,,,,,,,,,,0,0,0,0,0
2.8777,1783370017.2256,1,1,1.0000,0.0000,1.41832,0.15306,-2.67510,0.99927,1.56190,0.11896,-0.13232,-0.45409,0.07206,,,,,,,,,,,,,,,,,,,,,,,,,,0,0,0,0,0
2.8789,1783370017.2268,1,1,1.0000,0.0000,1.41832,0.15306,-2.67510,0.99927,1.56190,0.11896,-0.13232,-0.45409,0.07206,,,,,,,,,,,,,,,,,,,,,,,,,,0,0,0,0,0
2.8822,1783370017.2301,1,1,1.0000,0.0000,1.41841,0.15307,-2.67507,0.99947,1.56167,0.11877,-0.13240,-0.45416,0.07212,,,,,,,,,,,,,,,,,,,,,,,,,,0,0,0,0,0
2.8891,1783370017.2370,1,1,1.0000,0.0000,1.41841,0.15307,-2.67507,0.99948,1.56167,0.11877,-0.13240,-0.45416,0.07212,,,,,,,,,,,,,,,,,,,,,,,,,,0,0,0,0,0
2.8894,1783370017.2373,1,1,1.0000,0.0000,1.41841,0.15307,-2.67507,0.99948,1.56167,0.11877,-0.13240,-0.45416,0.07212,,,,,,,,,,,,,,,,,,,,,,,,,,0,0,0,0,0
2.8981,1783370017.2460,1,1,1.0000,0.0000,1.41841,0.15307,-2.67507,0.99947,1.56168,0.11878,-0.13240,-0.45415,0.07211,,,,,,,,,,,,,,,,,,,,,,,,,,0,0,0,0,0
2.9038,1783370017.2517,1,1,1.0000,0.0000,1.41832,0.15306,-2.67510,0.99927,1.56190,0.11896,-0.13232,-0.45409,0.07206,,,,,,,,,,,,,,,,,,,,,,,,,,0,0,0,0,0
2.9143,1783370017.2622,1,1,1.0000,0.0000,1.41841,0.15307,-2.67507,0.99948,1.56167,0.11877,-0.13240,-0.45416,0.07212,,,,,,,,,,,,,,,,,,,,,,,,,,0,0,0,0,0
2.9259,1783370017.2738,1,1,1.0000,0.0000,1.41832,0.15306,-2.67510,0.99927,1.56191,0.11897,-0.13232,-0.45409,0.07206,,,,,,,,,,,,,,,,,,,,,,,,,,0,0,0,0,0
2.9318,1783370017.2797,1,1,1.0000,0.0000,1.41841,0.15307,-2.67507,0.99947,1.56168,0.11878,-0.13240,-0.45416,0.07211,,,,,,,,,,,,,,,,,,,,,,,,,,0,0,0,0,0
2.9497,1783370017.2976,1,1,1.0000,0.0000,1.41831,0.15313,-2.67514,0.99924,1.56190,0.11899,-0.13233,-0.45406,0.07205,,,,,,,,,,,,,,,,,,,,,,,,,,0,0,0,0,0
2.9505,1783370017.2984,1,1,1.0000,0.0000,1.41831,0.15313,-2.67514,0.99924,1.56190,0.11899,-0.13233,-0.45406,0.07205,,,,,,,,,,,,,,,,,,,,,,,,,,0,0,0,0,0
2.9658,1783370017.3137,1,1,1.0000,0.0000,1.41831,0.15312,-2.67513,0.99922,1.56190,0.11901,-0.13233,-0.45406,0.07205,,,,,,,,,,,,,,,,,,,,,,,,,,0,0,0,0,0
2.9693,1783370017.3172,1,1,1.0000,0.0000,1.41840,0.15312,-2.67510,0.99942,1.56166,0.11882,-0.13241,-0.45413,0.07211,,,,,,,,,,,,,,,,,,,,,,,,,,0,0,0,0,0
2.9781,1783370017.3260,1,1,1.0000,0.0000,1.41840,0.15311,-2.67508,0.99942,1.56167,0.11883,-0.13240,-0.45414,0.07211,,,,,,,,,,,,,,,,,,,,,,,,,,0,0,0,0,0
2.9789,1783370017.3268,1,1,1.0000,0.0000,1.41840,0.15311,-2.67508,0.99942,1.56167,0.11883,-0.13240,-0.45414,0.07211,,,,,,,,,,,,,,,,,,,,,,,,,,0,0,0,0,0
2.9900,1783370017.3379,1,1,1.0000,0.0000,1.41832,0.15309,-2.67509,0.99921,1.56191,0.11903,-0.13233,-0.45408,0.07206,,,,,,,,,,,,,,,,,,,,,,,,,,0,0,0,0,0
2.9904,1783370017.3383,1,1,1.0000,0.0000,1.41832,0.15309,-2.67509,0.99921,1.56191,0.11903,-0.13233,-0.45408,0.07206,,,,,,,,,,,,,,,,,,,,,,,,,,0,0,0,0,0
2.9997,1783370017.3476,1,1,1.0000,0.0000,1.41832,0.15307,-2.67507,0.99921,1.56191,0.11903,-0.13233,-0.45410,0.07206,,,,,,,,,,,,,,,,,,,,,,,,,,0,0,0,0,0
3.0081,1783370017.3560,1,1,1.0000,0.0000,1.41833,0.15304,-2.67503,0.99921,1.56190,0.11902,-0.13233,-0.45412,0.07207,,,,,,,,,,,,,,,,,,,,,,,,,,0,0,0,0,0
3.0188,1783370017.3667,1,1,1.0000,0.0000,1.41843,0.15298,-2.67493,0.99942,1.56167,0.11884,-0.13240,-0.45423,0.07214,,,,,,,,,,,,,,,,,,,,,,,,,,0,0,0,0,0
3.0300,1783370017.3779,1,1,1.0000,0.0000,1.41835,0.15291,-2.67490,0.99922,1.56190,0.11903,-0.13232,-0.45420,0.07209,,,,,,,,,,,,,,,,,,,,,,,,,,0,0,0,0,0
3.0404,1783370017.3883,1,1,1.0000,0.0000,1.41837,0.15282,-2.67482,0.99924,1.56190,0.11902,-0.13232,-0.45424,0.07209,,,,,,,,,,,,,,,,,,,,,,,,,,0,0,0,0,0
3.0496,1783370017.3975,1,1,1.0000,0.0000,1.41850,0.15262,-2.67464,0.99948,1.56167,0.11881,-0.13240,-0.45440,0.07215,,,,,,,,,,,,,,,,,,,,,,,,,,0,0,0,0,0
3.0617,1783370017.4096,1,1,1.0000,0.0000,1.41844,0.15243,-2.67454,0.99931,1.56191,0.11899,-0.13233,-0.45441,0.07208,,,,,,,,,,,,,,,,,,,,,,,,,,0,0,0,0,0
3.0629,1783370017.4108,1,1,1.0000,0.0000,1.41844,0.15243,-2.67454,0.99931,1.56191,0.11899,-0.13233,-0.45441,0.07208,,,,,,,,,,,,,,,,,,,,,,,,,,0,0,0,0,0
3.0678,1783370017.4157,1,1,1.0000,0.0000,1.41855,0.15232,-2.67443,0.99954,1.56168,0.11879,-0.13241,-0.45452,0.07214,,,,,,,,,,,,,,,,,,,,,,,,,,0,0,0,0,0
3.0778,1783370017.4257,1,1,1.0000,0.0000,1.41852,0.15205,-2.67427,0.99940,1.56190,0.11893,-0.13234,-0.45457,0.07208,,,,,,,,,,,,,,,,,,,,,,,,,,0,0,0,0,0
3.0878,1783370017.4357,1,1,1.0000,0.0000,1.41858,0.15171,-2.67404,0.99948,1.56190,0.11889,-0.13234,-0.45471,0.07207,,,,,,,,,,,,,,,,,,,,,,,,,,0,0,0,0,0
3.0892,1783370017.4371,1,1,1.0000,0.0000,1.41871,0.15152,-2.67387,0.99973,1.56167,0.11867,-0.13242,-0.45485,0.07212,,,,,,,,,,,,,,,,,,,,,,,,,,0,0,0,0,0
3.1118,1783370017.4597,1,1,1.0000,0.0000,1.41884,0.15036,-2.67308,0.99983,1.56190,0.11866,-0.13235,-0.45528,0.07205,,,,,,,,,,,,,,,,,,,,,,,,,,0,0,0,0,0
3.1301,1783370017.4780,1,1,1.0000,0.0000,1.41912,0.14936,-2.67233,1.00029,1.56167,0.11829,-0.13243,-0.45578,0.07210,,,,,,,,,,,,,,,,,,,,,,,,,,0,0,0,0,0
3.1309,1783370017.4788,1,1,1.0000,0.0000,1.41912,0.14936,-2.67233,1.00029,1.56167,0.11829,-0.13243,-0.45578,0.07210,,,,,,,,,,,,,,,,,,,,,,,,,,0,0,0,0,0
3.1353,1783370017.4832,1,1,1.0000,0.0000,1.41908,0.14910,-2.67218,1.00016,1.56190,0.11843,-0.13236,-0.45583,0.07204,,,,,,,,,,,,,,,,,,,,,,,,,,0,0,0,0,0
3.1363,1783370017.4842,1,1,1.0000,0.0000,1.41908,0.14910,-2.67218,1.00016,1.56190,0.11843,-0.13236,-0.45583,0.07204,,,,,,,,,,,,,,,,,,,,,,,,,,0,0,0,0,0
3.1520,1783370017.4999,1,1,1.0000,0.0000,1.41923,0.14833,-2.67162,1.00036,1.56190,0.11828,-0.13236,-0.45616,0.07204,,,,,,,,,,,,,,,,,,,,,,,,,,0,0,0,0,0
3.1526,1783370017.5005,1,1,1.0000,0.0000,1.41923,0.14833,-2.67162,1.00036,1.56190,0.11828,-0.13236,-0.45616,0.07204,,,,,,,,,,,,,,,,,,,,,,,,,,0,0,0,0,0
3.1630,1783370017.5109,1,1,1.0000,0.0000,1.41948,0.14750,-2.67099,1.00079,1.56168,0.11794,-0.13244,-0.45659,0.07210,,,,,,,,,,,,,,,,,,,,,,,,,,0,0,0,0,0
3.1705,1783370017.5184,1,1,1.0000,0.0000,1.41953,0.14721,-2.67078,1.00086,1.56168,0.11789,-0.13245,-0.45672,0.07209,,,,,,,,,,,,,,,,,,,,,,,,,,0,0,0,0,0
3.1893,1783370017.5372,1,1,1.0000,0.0000,1.41974,0.14567,-2.66968,1.00108,1.56191,0.11777,-0.13238,-0.45734,0.07204,,,,,,,,,,,,,,,,,,,,,,,,,,0,0,0,0,0
3.1951,1783370017.5430,1,1,1.0000,0.0000,1.41989,0.14535,-2.66942,1.00137,1.56167,0.11752,-0.13246,-0.45755,0.07209,,,,,,,,,,,,,,,,,,,,,,,,,,0,0,0,0,0
3.1985,1783370017.5464,1,1,1.0000,0.0000,1.41986,0.14504,-2.66922,1.00125,1.56191,0.11765,-0.13238,-0.45762,0.07204,,,,,,,,,,,,,,,,,,,,,,,,,,0,0,0,0,0
3.2101,1783370017.5580,1,1,1.0000,0.0000,1.42006,0.14446,-2.66877,1.00161,1.56167,0.11735,-0.13246,-0.45795,0.07209,,,,,,,,,,,,,,,,,,,,,,,,,,0,0,0,0,0
3.2197,1783370017.5676,1,1,1.0000,0.0000,1.42016,0.14395,-2.66840,1.00174,1.56167,0.11725,-0.13246,-0.45817,0.07209,,,,,,,,,,,,,,,,,,,,,,,,,,0,0,0,0,0
3.2294,1783370017.5773,1,1,1.0000,0.0000,1.42019,0.14332,-2.66796,1.00172,1.56190,0.11731,-0.13239,-0.45839,0.07204,,,,,,,,,,,,,,,,,,,,,,,,,,0,0,0,0,0
3.2398,1783370017.5877,1,1,1.0000,0.0000,1.42026,0.14297,-2.66770,1.00181,1.56191,0.11725,-0.13239,-0.45855,0.07204,,,,,,,,,,,,,,,,,,,,,,,,,,0,0,0,0,0
3.2623,1783370017.6102,1,1,1.0000,0.0000,1.42038,0.14236,-2.66726,1.00199,1.56191,0.11712,-0.13240,-0.45882,0.07204,,,,,,,,,,,,,,,,,,,,,,,,,,0,0,0,0,0
3.2783,1783370017.6262,1,1,1.0000,0.0000,1.42043,0.14210,-2.66707,1.00207,1.56190,0.11707,-0.13240,-0.45894,0.07204,,,,,,,,,,,,,,,,,,,,,,,,,,0,0,0,0,0
3.2930,1783370017.6409,1,1,1.0000,0.0000,1.42046,0.14193,-2.66694,1.00213,1.56190,0.11703,-0.13240,-0.45902,0.07204,,,,,,,,,,,,,,,,,,,,,,,,,,0,0,0,0,0
3.3079,1783370017.6558,1,1,1.0000,0.0000,1.42056,0.14186,-2.66686,1.00235,1.56168,0.11683,-0.13247,-0.45912,0.07210,,,,,,,,,,,,,,,,,,,,,,,,,,0,0,0,0,0
3.3088,1783370017.6567,1,1,1.0000,0.0000,1.42048,0.14183,-2.66687,1.00217,1.56190,0.11701,-0.13240,-0.45907,0.07205,,,,,,,,,,,,,,,,,,,,,,,,,,0,0,0,0,0
3.3099,1783370017.6578,1,1,1.0000,0.0000,1.42048,0.14183,-2.66687,1.00217,1.56190,0.11701,-0.13240,-0.45907,0.07205,,,,,,,,,,,,,,,,,,,,,,,,,,0,0,0,0,0
3.3105,1783370017.6584,1,1,1.0000,0.0000,1.42048,0.14183,-2.66687,1.00217,1.56190,0.11701,-0.13240,-0.45907,0.07205,,,,,,,,,,,,,,,,,,,,,,,,,,0,0,0,0,0
3.3238,1783370017.6717,1,1,1.0000,0.0000,1.42057,0.14179,-2.66683,1.00238,1.56168,0.11681,-0.13247,-0.45914,0.07210,,,,,,,,,,,,,,,,,,,,,,,,,,0,0,0,0,0
3.3302,1783370017.6781,1,1,1.0000,0.0000,1.42058,0.14179,-2.66684,1.00239,1.56167,0.11681,-0.13248,-0.45913,0.07209,,,,,,,,,,,,,,,,,,,,,,,,,,0,0,0,0,0
3.3386,1783370017.6865,1,1,1.0000,0.0000,1.42057,0.14180,-2.66687,1.00239,1.56168,0.11681,-0.13248,-0.45911,0.07208,,,,,,,,,,,,,,,,,,,,,,,,,,0,0,0,0,0
3.3535,1783370017.7014,1,1,1.0000,0.0000,1.42048,0.14182,-2.66696,1.00219,1.56191,0.11699,-0.13241,-0.45901,0.07200,,,,,,,,,,,,,,,,,,,,,,,,,,0,0,0,0,0
3.3589,1783370017.7068,1,1,1.0000,0.0000,1.42048,0.14184,-2.66700,1.00219,1.56191,0.11700,-0.13241,-0.45899,0.07199,,,,,,,,,,,,,,,,,,,,,,,,,,0,0,0,0,0
3.3755,1783370017.7234,1,1,1.0000,0.0000,1.42048,0.14184,-2.66701,1.00219,1.56191,0.11699,-0.13241,-0.45897,0.07198,,,,,,,,,,,,,,,,,,,,,,,,,,0,0,0,0,0
3.3859,1783370017.7338,1,1,1.0000,0.0000,1.42056,0.14184,-2.66699,1.00239,1.56168,0.11681,-0.13248,-0.45904,0.07203,,,,,,,,,,,,,,,,,,,,,,,,,,0,0,0,0,0
3.3908,1783370017.7387,1,1,1.0000,0.0000,1.42048,0.14184,-2.66701,1.00219,1.56191,0.11699,-0.13241,-0.45897,0.07198,,,,,,,,,,,,,,,,,,,,,,,,,,0,0,0,0,0
3.4028,1783370017.7507,1,1,1.0000,0.0000,1.42056,0.14184,-2.66699,1.00239,1.56169,0.11681,-0.13248,-0.45904,0.07203,,,,,,,,,,,,,,,,,,,,,,,,,,0,0,0,0,0
3.4034,1783370017.7513,1,1,1.0000,0.0000,1.42056,0.14184,-2.66699,1.00239,1.56169,0.11681,-0.13248,-0.45904,0.07203,,,,,,,,,,,,,,,,,,,,,,,,,,0,0,0,0,0
3.4093,1783370017.7572,1,1,1.0000,0.0000,1.42057,0.14183,-2.66698,1.00240,1.56167,0.11681,-0.13249,-0.45904,0.07204,,,,,,,,,,,,,,,,,,,,,,,,,,0,0,0,0,0
3.4098,1783370017.7577,1,1,1.0000,0.0000,1.42057,0.14183,-2.66698,1.00240,1.56167,0.11681,-0.13249,-0.45904,0.07204,,,,,,,,,,,,,,,,,,,,,,,,,,0,0,0,0,0
3.4365,1783370017.7844,1,1,1.0000,0.0000,1.42057,0.14183,-2.66698,1.00240,1.56167,0.11680,-0.13249,-0.45904,0.07204,,,,,,,,,,,,,,,,,,,,,,,,,,0,0,0,0,0
3.5706,1783370017.9185,1,1,1.0000,0.0000,1.42056,0.14184,-2.66699,1.00239,1.56169,0.11681,-0.13248,-0.45904,0.07203,,,,,,,,,,,,,,,,,,,,,,,,,,0,0,0,0,0
3.5718,1783370017.9197,1,1,1.0000,0.0000,1.42056,0.14184,-2.66699,1.00239,1.56169,0.11681,-0.13248,-0.45904,0.07203,,,,,,,,,,,,,,,,,,,,,,,,,,0,0,0,0,0
3.5728,1783370017.9207,1,1,1.0000,0.0000,1.42048,0.14184,-2.66701,1.00219,1.56191,0.11699,-0.13241,-0.45897,0.07198,,,,,,,,,,,,,,,,,,,,,,,,,,0,0,0,0,0
3.5873,1783370017.9352,1,1,1.0000,0.0000,1.42056,0.14184,-2.66699,1.00239,1.56168,0.11681,-0.13248,-0.45904,0.07203,,,,,,,,,,,,,,,,,,,,,,,,,,0,0,0,0,0
3.5880,1783370017.9359,1,1,1.0000,0.0000,1.42056,0.14184,-2.66699,1.00239,1.56168,0.11681,-0.13248,-0.45904,0.07203,,,,,,,,,,,,,,,,,,,,,,,,,,0,0,0,0,0
3.5894,1783370017.9373,1,1,1.0000,0.0000,1.42048,0.14184,-2.66701,1.00219,1.56191,0.11699,-0.13241,-0.45897,0.07198,,,,,,,,,,,,,,,,,,,,,,,,,,0,0,0,0,0
3.5898,1783370017.9377,1,1,1.0000,0.0000,1.42048,0.14184,-2.66701,1.00219,1.56191,0.11699,-0.13241,-0.45897,0.07198,,,,,,,,,,,,,,,,,,,,,,,,,,0,0,0,0,0
3.6014,1783370017.9493,1,1,1.0000,0.0000,1.42056,0.14184,-2.66699,1.00239,1.56168,0.11681,-0.13249,-0.45904,0.07204,,,,,,,,,,,,,,,,,,,,,,,,,,0,0,0,0,0
3.6020,1783370017.9499,1,1,1.0000,0.0000,1.42056,0.14184,-2.66699,1.00239,1.56168,0.11681,-0.13249,-0.45904,0.07204,,,,,,,,,,,,,,,,,,,,,,,,,,0,0,0,0,0
3.6138,1783370017.9617,1,1,1.0000,0.0000,1.42048,0.14184,-2.66701,1.00219,1.56191,0.11700,-0.13241,-0.45897,0.07198,,,,,,,,,,,,,,,,,,,,,,,,,,0,0,0,0,0
3.6256,1783370017.9735,1,1,1.0000,0.0000,1.42057,0.14184,-2.66698,1.00240,1.56167,0.11681,-0.13249,-0.45904,0.07204,,,,,,,,,,,,,,,,,,,,,,,,,,0,0,0,0,0
3.6384,1783370017.9863,1,1,1.0000,0.0000,1.42048,0.14184,-2.66701,1.00219,1.56191,0.11700,-0.13241,-0.45897,0.07198,,,,,,,,,,,,,,,,,,,,,,,,,,0,0,0,0,0
3.6393,1783370017.9872,1,1,1.0000,0.0000,1.42048,0.14184,-2.66701,1.00219,1.56191,0.11700,-0.13241,-0.45897,0.07198,,,,,,,,,,,,,,,,,,,,,,,,,,0,0,0,0,0
3.6409,1783370017.9888,1,1,1.0000,0.0000,1.42056,0.14184,-2.66699,1.00239,1.56168,0.11681,-0.13249,-0.45904,0.07204,,,,,,,,,,,,,,,,,,,,,,,,,,0,0,0,0,0
3.6661,1783370018.0140,1,1,1.0000,0.0000,1.42056,0.14184,-2.66699,1.00239,1.56168,0.11681,-0.13249,-0.45904,0.07204,,,,,,,,,,,,,,,,,,,,,,,,,,0,0,0,0,0
3.6664,1783370018.0143,1,1,1.0000,0.0000,1.42056,0.14184,-2.66699,1.00239,1.56168,0.11681,-0.13249,-0.45904,0.07204,,,,,,,,,,,,,,,,,,,,,,,,,,0,0,0,0,0
3.6700,1783370018.0179,1,1,1.0000,0.0000,1.42048,0.14184,-2.66701,1.00220,1.56190,0.11699,-0.13241,-0.45898,0.07198,,,,,,,,,,,,,,,,,,,,,,,,,,0,0,0,0,0
3.6828,1783370018.0307,1,1,1.0000,0.0000,1.42056,0.14184,-2.66699,1.00239,1.56168,0.11681,-0.13249,-0.45904,0.07204,,,,,,,,,,,,,,,,,,,,,,,,,,0,0,0,0,0
3.6932,1783370018.0411,1,1,1.0000,0.0000,1.42048,0.14184,-2.66701,1.00219,1.56191,0.11700,-0.13241,-0.45897,0.07198,,,,,,,,,,,,,,,,,,,,,,,,,,0,0,0,0,0
3.7084,1783370018.0563,1,1,1.0000,0.0000,1.42048,0.14184,-2.66701,1.00219,1.56191,0.11699,-0.13241,-0.45897,0.07198,,,,,,,,,,,,,,,,,,,,,,,,,,0,0,0,0,0
3.7094,1783370018.0573,1,1,1.0000,0.0000,1.42048,0.14184,-2.66701,1.00219,1.56191,0.11699,-0.13241,-0.45897,0.07198,,,,,,,,,,,,,,,,,,,,,,,,,,0,0,0,0,0
3.7274,1783370018.0753,1,1,1.0000,0.0000,1.42048,0.14184,-2.66701,1.00219,1.56191,0.11699,-0.13241,-0.45897,0.07198,,,,,,,,,,,,,,,,,,,,,,,,,,0,0,0,0,0
3.7294,1783370018.0773,1,1,1.0000,0.0000,1.42056,0.14184,-2.66699,1.00239,1.56168,0.11681,-0.13249,-0.45904,0.07204,,,,,,,,,,,,,,,,,,,,,,,,,,0,0,0,0,0
3.7352,1783370018.0831,1,1,1.0000,0.0000,1.42048,0.14184,-2.66701,1.00219,1.56191,0.11700,-0.13241,-0.45897,0.07198,,,,,,,,,,,,,,,,,,,,,,,,,,0,0,0,0,0
3.7534,1783370018.1013,1,1,1.0000,0.0000,1.42056,0.14183,-2.66701,1.00241,1.56168,0.11681,-0.13249,-0.45902,0.07202,,,,,,,,,,,,,,,,,,,,,,,,,,0,0,0,0,0
3.7539,1783370018.1018,1,1,1.0000,0.0000,1.42056,0.14183,-2.66701,1.00241,1.56168,0.11681,-0.13249,-0.45902,0.07202,,,,,,,,,,,,,,,,,,,,,,,,,,0,0,0,0,0
3.7593,1783370018.1072,1,1,1.0000,0.0000,1.42048,0.14183,-2.66704,1.00222,1.56191,0.11699,-0.13241,-0.45896,0.07196,,,,,,,,,,,,,,,,,,,,,,,,,,0,0,0,0,0
3.7614,1783370018.1093,1,1,1.0000,0.0000,1.42048,0.14183,-2.66704,1.00222,1.56191,0.11699,-0.13241,-0.45896,0.07196,,,,,,,,,,,,,,,,,,,,,,,,,,0,0,0,0,0
3.7686,1783370018.1165,1,1,1.0000,0.0000,1.42056,0.14179,-2.66702,1.00248,1.56168,0.11679,-0.13248,-0.45903,0.07201,,,,,,,,,,,,,,,,,,,,,,,,,,0,0,0,0,0
3.7696,1783370018.1175,1,1,1.0000,0.0000,1.42056,0.14179,-2.66702,1.00248,1.56168,0.11679,-0.13248,-0.45903,0.07201,,,,,,,,,,,,,,,,,,,,,,,,,,0,0,0,0,0
3.7850,1783370018.1329,1,1,1.0000,0.0000,1.42056,0.14171,-2.66702,1.00260,1.56168,0.11677,-0.13248,-0.45905,0.07200,,,,,,,,,,,,,,,,,,,,,,,,,,0,0,0,0,0
3.7889,1783370018.1368,1,1,1.0000,0.0000,1.42047,0.14168,-2.66705,1.00244,1.56192,0.11696,-0.13240,-0.45899,0.07194,,,,,,,,,,,,,,,,,,,,,,,,,,0,0,0,0,0
3.8007,1783370018.1486,1,1,1.0000,0.0000,1.42056,0.14157,-2.66705,1.00278,1.56169,0.11676,-0.13248,-0.45906,0.07196,,,,,,,,,,,,,,,,,,,,,,,,,,0,0,0,0,0
3.8017,1783370018.1496,1,1,1.0000,0.0000,1.42056,0.14157,-2.66705,1.00278,1.56169,0.11676,-0.13248,-0.45906,0.07196,,,,,,,,,,,,,,,,,,,,,,,,,,0,0,0,0,0
3.8103,1783370018.1582,1,1,1.0000,0.0000,1.42056,0.14144,-2.66708,1.00294,1.56170,0.11676,-0.13247,-0.45906,0.07192,,,,,,,,,,,,,,,,,,,,,,,,,,0,0,0,0,0
3.8236,1783370018.1715,1,1,1.0000,0.0000,1.42048,0.14117,-2.66717,1.00308,1.56191,0.11693,-0.13240,-0.45901,0.07178,,,,,,,,,,,,,,,,,,,,,,,,,,0,0,0,0,0
3.8320,1783370018.1799,1,1,1.0000,0.0000,1.42048,0.14095,-2.66722,1.00334,1.56192,0.11694,-0.13240,-0.45901,0.07171,,,,,,,,,,,,,,,,,,,,,,,,,,0,0,0,0,0
3.8386,1783370018.1865,1,1,1.0000,0.0000,1.42048,0.14084,-2.66725,1.00348,1.56192,0.11693,-0.13240,-0.45902,0.07167,,,,,,,,,,,,,,,,,,,,,,,,,,0,0,0,0,0
3.8518,1783370018.1997,1,1,1.0000,0.0000,1.42057,0.14045,-2.66731,1.00416,1.56168,0.11674,-0.13247,-0.45909,0.07161,,,,,,,,,,,,,,,,,,,,,,,,,,0,0,0,0,0
3.8614,1783370018.2094,1,1,1.0000,0.0000,1.42048,0.14003,-2.66744,1.00448,1.56193,0.11693,-0.13239,-0.45904,0.07142,,,,,,,,,,,,,,,,,,,,,,,,,,0,0,0,0,0
3.8715,1783370018.2194,1,1,1.0000,0.0000,1.42048,0.13988,-2.66747,1.00467,1.56193,0.11693,-0.13239,-0.45904,0.07137,,,,,,,,,,,,,,,,,,,,,,,,,,0,0,0,0,0
3.8792,1783370018.2271,1,1,1.0000,0.0000,1.42048,0.13956,-2.66755,1.00507,1.56192,0.11692,-0.13239,-0.45905,0.07127,,,,,,,,,,,,,,,,,,,,,,,,,,0,0,0,0,0
3.8917,1783370018.2396,1,1,1.0000,0.0000,1.42056,0.13923,-2.66760,1.00569,1.56170,0.11674,-0.13246,-0.45913,0.07121,,,,,,,,,,,,,,,,,,,,,,,,,,0,0,0,0,0
3.8982,1783370018.2461,1,1,1.0000,0.0000,1.42057,0.13886,-2.66769,1.00615,1.56170,0.11674,-0.13246,-0.45914,0.07110,,,,,,,,,,,,,,,,,,,,,,,,,,0,0,0,0,0
3.9133,1783370018.2612,1,1,1.0000,0.0000,1.42057,0.13806,-2.66788,1.00715,1.56169,0.11672,-0.13246,-0.45916,0.07084,,,,,,,,,,,,,,,,,,,,,,,,,,0,0,0,0,0
3.9221,1783370018.2700,1,1,1.0000,0.0000,1.42057,0.13765,-2.66798,1.00765,1.56169,0.11672,-0.13246,-0.45917,0.07071,,,,,,,,,,,,,,,,,,,,,,,,,,0,0,0,0,0
3.9304,1783370018.2783,1,1,1.0000,0.0000,1.42057,0.13746,-2.66802,1.00788,1.56170,0.11672,-0.13246,-0.45917,0.07065,,,,,,,,,,,,,,,,,,,,,,,,,,0,0,0,0,0
3.9386,1783370018.2865,1,1,1.0000,0.0000,1.42057,0.13713,-2.66811,1.00830,1.56170,0.11672,-0.13246,-0.45918,0.07054,,,,,,,,,,,,,,,,,,,,,,,,,,0,0,0,0,0
3.9496,1783370018.2975,1,1,1.0000,0.0000,1.42049,0.13673,-2.66823,1.00859,1.56193,0.11690,-0.13238,-0.45912,0.07036,,,,,,,,,,,,,,,,,,,,,,,,,,0,0,0,0,0
3.9689,1783370018.3168,1,1,1.0000,0.0000,1.42058,0.13633,-2.66830,1.00931,1.56170,0.11671,-0.13246,-0.45920,0.07029,,,,,,,,,,,,,,,,,,,,,,,,,,0,0,0,0,0
3.9695,1783370018.3175,1,1,1.0000,0.0000,1.42058,0.13633,-2.66830,1.00931,1.56170,0.11671,-0.13246,-0.45920,0.07029,,,,,,,,,,,,,,,,,,,,,,,,,,0,0,0,0,0
3.9726,1783370018.3205,1,1,1.0000,0.0000,1.42049,0.13625,-2.66835,1.00921,1.56193,0.11689,-0.13238,-0.45914,0.07021,,,,,,,,,,,,,,,,,,,,,,,,,,0,0,0,0,0
3.9736,1783370018.3215,1,1,1.0000,0.0000,1.42049,0.13625,-2.66835,1.00921,1.56193,0.11689,-0.13238,-0.45914,0.07021,,,,,,,,,,,,,,,,,,,,,,,,,,0,0,0,0,0
3.9787,1783370018.3266,1,1,1.0000,0.0000,1.42058,0.13617,-2.66833,1.00952,1.56169,0.11670,-0.13246,-0.45921,0.07024,,,,,,,,,,,,,,,,,,,,,,,,,,0,0,0,0,0
3.9904,1783370018.3383,1,1,1.0000,0.0000,1.42049,0.13599,-2.66841,1.00955,1.56193,0.11689,-0.13238,-0.45915,0.07013,,,,,,,,,,,,,,,,,,,,,,,,,,0,0,0,0,0
4.0014,1783370018.3493,1,1,1.0000,0.0000,1.42058,0.13585,-2.66841,1.00994,1.56170,0.11670,-0.13245,-0.45922,0.07014,,,,,,,,,,,,,,,,,,,,,,,,,,0,0,0,0,0
4.0084,1783370018.3563,1,1,1.0000,0.0000,1.42058,0.13578,-2.66843,1.01004,1.56170,0.11670,-0.13245,-0.45922,0.07012,,,,,,,,,,,,,,,,,,,,,,,,,,0,0,0,0,0
4.0183,1783370018.3662,1,1,1.0000,0.0000,1.42058,0.13575,-2.66843,1.01008,1.56170,0.11670,-0.13245,-0.45923,0.07011,,,,,,,,,,,,,,,,,,,,,,,,,,0,0,0,0,0
4.0308,1783370018.3787,1,1,1.0000,0.0000,1.42049,0.13569,-2.66847,1.00997,1.56193,0.11688,-0.13237,-0.45917,0.07005,,,,,,,,,,,,,,,,,,,,,,,,,,0,0,0,0,0
4.0389,1783370018.3868,1,1,1.0000,0.0000,1.42050,0.13566,-2.66847,1.01002,1.56193,0.11688,-0.13237,-0.45918,0.07004,,,,,,,,,,,,,,,,,,,,,,,,,,0,0,0,0,0
4.0487,1783370018.3966,1,1,1.0000,0.0000,1.42058,0.13562,-2.66844,1.01027,1.56170,0.11669,-0.13245,-0.45925,0.07009,,,,,,,,,,,,,,,,,,,,,,,,,,0,0,0,0,0
4.0576,1783370018.4055,1,1,1.0000,0.0000,1.42058,0.13557,-2.66846,1.01034,1.56171,0.11670,-0.13245,-0.45925,0.07007,,,,,,,,,,,,,,,,,,,,,,,,,,0,0,0,0,0
4.0694,1783370018.4173,1,1,1.0000,0.0000,1.42049,0.13550,-2.66851,1.01024,1.56194,0.11688,-0.13237,-0.45919,0.06999,,,,,,,,,,,,,,,,,,,,,,,,,,0,0,0,0,0
4.0827,1783370018.4306,1,1,1.0000,0.0000,1.42058,0.13530,-2.66854,1.01069,1.56171,0.11669,-0.13245,-0.45925,0.06998,,,,,,,,,,,,,,,,,,,,,,,,,,0,0,0,0,0
4.0932,1783370018.4411,1,1,1.0000,0.0000,1.42050,0.13503,-2.66865,1.01083,1.56193,0.11687,-0.13237,-0.45918,0.06983,,,,,,,,,,,,,,,,,,,,,,,,,,0,0,0,0,0
4.0976,1783370018.4455,1,1,1.0000,0.0000,1.42058,0.13492,-2.66865,1.01117,1.56170,0.11669,-0.13245,-0.45925,0.06985,,,,,,,,,,,,,,,,,,,,,,,,,,0,0,0,0,0
4.1075,1783370018.4554,1,1,1.0000,0.0000,1.42058,0.13481,-2.66868,1.01129,1.56171,0.11669,-0.13245,-0.45924,0.06981,,,,,,,,,,,,,,,,,,,,,,,,,,0,0,0,0,0
4.1185,1783370018.4664,1,1,1.0000,0.0000,1.42050,0.13447,-2.66880,1.01151,1.56194,0.11687,-0.13237,-0.45918,0.06964,,,,,,,,,,,,,,,,,,,,,,,,,,0,0,0,0,0
4.1308,1783370018.4787,1,1,1.0000,0.0000,1.42058,0.13410,-2.66887,1.01217,1.56171,0.11668,-0.13245,-0.45925,0.06957,,,,,,,,,,,,,,,,,,,,,,,,,,0,0,0,0,0
4.1383,1783370018.4862,1,1,1.0000,0.0000,1.42058,0.13397,-2.66890,1.01233,1.56171,0.11668,-0.13245,-0.45925,0.06953,,,,,,,,,,,,,,,,,,,,,,,,,,0,0,0,0,0
4.1490,1783370018.4969,1,1,1.0000,0.0000,1.42050,0.13354,-2.66903,1.01267,1.56194,0.11686,-0.13237,-0.45920,0.06934,,,,,,,,,,,,,,,,,,,,,,,,,,0,0,0,0,0
4.1588,1783370018.5067,1,1,1.0000,0.0000,1.42050,0.13322,-2.66911,1.01307,1.56193,0.11686,-0.13237,-0.45920,0.06924,,,,,,,,,,,,,,,,,,,,,,,,,,0,0,0,0,0
4.1595,1783370018.5074,1,1,1.0000,0.0000,1.42050,0.13322,-2.66911,1.01307,1.56193,0.11686,-0.13237,-0.45920,0.06924,,,,,,,,,,,,,,,,,,,,,,,,,,0,0,0,0,0
4.1705,1783370018.5184,1,1,1.0000,0.0000,1.42059,0.13286,-2.66917,1.01371,1.56171,0.11667,-0.13245,-0.45927,0.06917,,,,,,,,,,,,,,,,,,,,,,,,,,0,0,0,0,0
4.1800,1783370018.5279,1,1,1.0000,0.0000,1.42059,0.13248,-2.66927,1.01419,1.56170,0.11666,-0.13245,-0.45928,0.06905,,,,,,,,,,,,,,,,,,,,,,,,,,0,0,0,0,0
4.1812,1783370018.5291,1,1,1.0000,0.0000,1.42050,0.13229,-2.66934,1.01421,1.56194,0.11685,-0.13237,-0.45921,0.06893,,,,,,,,,,,,,,,,,,,,,,,,,,0,0,0,0,0
4.1872,1783370018.5351,1,1,1.0000,0.0000,1.42059,0.13209,-2.66937,1.01466,1.56171,0.11667,-0.13244,-0.45928,0.06892,,,,,,,,,,,,,,,,,,,,,,,,,,0,0,0,0,0
4.1886,1783370018.5365,1,1,1.0000,0.0000,1.42051,0.13190,-2.66944,1.01469,1.56194,0.11685,-0.13237,-0.45922,0.06880,,,,,,,,,,,,,,,,,,,,,,,,,,0,0,0,0,0
4.2016,1783370018.5495,1,1,1.0000,0.0000,1.42059,0.13153,-2.66951,1.01535,1.56171,0.11666,-0.13245,-0.45928,0.06874,,,,,,,,,,,,,,,,,,,,,,,,,,0,0,0,0,0
4.2099,1783370018.5578,1,1,1.0000,0.0000,1.42059,0.13121,-2.66959,1.01574,1.56172,0.11666,-0.13244,-0.45929,0.06863,,,,,,,,,,,,,,,,,,,,,,,,,,0,0,0,0,0
4.2195,1783370018.5674,1,1,1.0000,0.0000,1.42060,0.13091,-2.66966,1.01612,1.56170,0.11665,-0.13245,-0.45930,0.06854,,,,,,,,,,,,,,,,,,,,,,,,,,0,0,0,0,0
4.2340,1783370018.5819,1,1,1.0000,0.0000,1.42059,0.13053,-2.66976,1.01659,1.56172,0.11665,-0.13244,-0.45930,0.06841,,,,,,,,,,,,,,,,,,,,,,,,,,0,0,0,0,0
4.2384,1783370018.5863,1,1,1.0000,0.0000,1.42051,0.13043,-2.66981,1.01653,1.56194,0.11683,-0.13237,-0.45924,0.06833,,,,,,,,,,,,,,,,,,,,,,,,,,0,0,0,0,0
4.2508,1783370018.5987,1,1,1.0000,0.0000,1.42060,0.13013,-2.66985,1.01711,1.56171,0.11665,-0.13244,-0.45932,0.06829,,,,,,,,,,,,,,,,,,,,,,,,,,0,0,0,0,0
4.2665,1783370018.6144,1,1,1.0000,0.0000,1.42060,0.12983,-2.66992,1.01750,1.56172,0.11664,-0.13244,-0.45933,0.06820,,,,,,,,,,,,,,,,,,,,,,,,,,0,0,0,0,0
4.2756,1783370018.6235,1,1,1.0000,0.0000,1.42060,0.12971,-2.66995,1.01765,1.56172,0.11664,-0.13244,-0.45933,0.06816,,,,,,,,,,,,,,,,,,,,,,,,,,0,0,0,0,0
4.2797,1783370018.6276,1,1,1.0000,0.0000,1.42051,0.12966,-2.66999,1.01751,1.56194,0.11682,-0.13236,-0.45927,0.06809,,,,,,,,,,,,,,,,,,,,,,,,,,0,0,0,0,0
4.2903,1783370018.6382,1,1,1.0000,0.0000,1.42060,0.12957,-2.66999,1.01784,1.56171,0.11664,-0.13244,-0.45934,0.06812,,,,,,,,,,,,,,,,,,,,,,,,,,0,0,0,0,0
4.2909,1783370018.6388,1,1,1.0000,0.0000,1.42060,0.12957,-2.66999,1.01784,1.56171,0.11664,-0.13244,-0.45934,0.06812,,,,,,,,,,,,,,,,,,,,,,,,,,0,0,0,0,0
4.3029,1783370018.6508,1,1,1.0000,0.0000,1.42051,0.12950,-2.67002,1.01773,1.56195,0.11682,-0.13236,-0.45928,0.06805,,,,,,,,,,,,,,,,,,,,,,,,,,0,0,0,0,0
4.3082,1783370018.6561,1,1,1.0000,0.0000,1.42060,0.12948,-2.66999,1.01797,1.56172,0.11664,-0.13243,-0.45935,0.06810,,,,,,,,,,,,,,,,,,,,,,,,,,0,0,0,0,0
4.3311,1783370018.6790,1,1,1.0000,0.0000,1.42060,0.12943,-2.66999,1.01805,1.56172,0.11664,-0.13243,-0.45937,0.06810,,,,,,,,,,,,,,,,,,,,,,,,,,0,0,0,0,0
4.3320,1783370018.6799,1,1,1.0000,0.0000,1.42060,0.12943,-2.66999,1.01805,1.56172,0.11664,-0.13243,-0.45937,0.06810,,,,,,,,,,,,,,,,,,,,,,,,,,0,0,0,0,0
4.3351,1783370018.6830,1,1,1.0000,0.0000,1.42052,0.12941,-2.67002,1.01788,1.56194,0.11681,-0.13236,-0.45930,0.06804,,,,,,,,,,,,,,,,,,,,,,,,,,0,0,0,0,0
4.3387,1783370018.6866,1,1,1.0000,0.0000,1.42060,0.12938,-2.67001,1.01813,1.56172,0.11663,-0.13243,-0.45937,0.06808,,,,,,,,,,,,,,,,,,,,,,,,,,0,0,0,0,0
4.3479,1783370018.6958,1,1,1.0000,0.0000,1.42060,0.12934,-2.67002,1.01818,1.56172,0.11663,-0.13243,-0.45937,0.06807,,,,,,,,,,,,,,,,,,,,,,,,,,0,0,0,0,0
4.3594,1783370018.7073,1,1,1.0000,0.0000,1.42051,0.12919,-2.67010,1.01816,1.56195,0.11682,-0.13236,-0.45930,0.06796,,,,,,,,,,,,,,,,,,,,,,,,,,0,0,0,0,0
4.3673,1783370018.7152,1,1,1.0000,0.0000,1.42051,0.12905,-2.67014,1.01834,1.56195,0.11681,-0.13236,-0.45929,0.06790,,,,,,,,,,,,,,,,,,,,,,,,,,0,0,0,0,0
4.3825,1783370018.7305,1,1,1.0000,0.0000,1.42051,0.12877,-2.67022,1.01867,1.56195,0.11681,-0.13236,-0.45929,0.06781,,,,,,,,,,,,,,,,,,,,,,,,,,0,0,0,0,0
4.3829,1783370018.7308,1,1,1.0000,0.0000,1.42051,0.12877,-2.67022,1.01867,1.56195,0.11681,-0.13236,-0.45929,0.06781,,,,,,,,,,,,,,,,,,,,,,,,,,0,0,0,0,0
4.3902,1783370018.7381,1,1,1.0000,0.0000,1.42052,0.12855,-2.67028,1.01895,1.56195,0.11681,-0.13236,-0.45928,0.06773,,,,,,,,,,,,,,,,,,,,,,,,,,0,0,0,0,0
4.4009,1783370018.7488,1,1,1.0000,0.0000,1.42052,0.12829,-2.67035,1.01926,1.56195,0.11681,-0.13236,-0.45928,0.06764,,,,,,,,,,,,,,,,,,,,,,,,,,0,0,0,0,0
4.4027,1783370018.7506,1,1,1.0000,0.0000,1.42060,0.12815,-2.67036,1.01964,1.56173,0.11663,-0.13243,-0.45935,0.06765,,,,,,,,,,,,,,,,,,,,,,,,,,0,0,0,0,0
4.4287,1783370018.7766,1,1,1.0000,0.0000,1.42060,0.12737,-2.67055,1.02059,1.56173,0.11663,-0.13243,-0.45936,0.06740,,,,,,,,,,,,,,,,,,,,,,,,,,0,0,0,0,0
4.4419,1783370018.7898,1,1,1.0000,0.0000,1.42060,0.12681,-2.67069,1.02128,1.56173,0.11662,-0.13243,-0.45937,0.06722,,,,,,,,,,,,,,,,,,,,,,,,,,0,0,0,0,0
4.4424,1783370018.7903,1,1,1.0000,0.0000,1.42060,0.12681,-2.67069,1.02128,1.56173,0.11662,-0.13243,-0.45937,0.06722,,,,,,,,,,,,,,,,,,,,,,,,,,0,0,0,0,0
4.4502,1783370018.7981,1,1,1.0000,0.0000,1.42061,0.12640,-2.67079,1.02178,1.56173,0.11661,-0.13243,-0.45937,0.06709,,,,,,,,,,,,,,,,,,,,,,,,,,0,0,0,0,0
4.4621,1783370018.8100,1,1,1.0000,0.0000,1.42053,0.12599,-2.67091,1.02208,1.56195,0.11679,-0.13236,-0.45932,0.06690,,,,,,,,,,,,,,,,,,,,,,,,,,0,0,0,0,0
4.4741,1783370018.8220,1,1,1.0000,0.0000,1.42061,0.12541,-2.67103,1.02301,1.56172,0.11660,-0.13243,-0.45939,0.06677,,,,,,,,,,,,,,,,,,,,,,,,,,0,0,0,0,0
4.4810,1783370018.8289,1,1,1.0000,0.0000,1.42061,0.12507,-2.67111,1.02343,1.56173,0.11660,-0.13243,-0.45939,0.06666,,,,,,,,,,,,,,,,,,,,,,,,,,0,0,0,0,0
4.4945,1783370018.8424,1,1,1.0000,0.0000,1.42053,0.12462,-2.67125,1.02379,1.56195,0.11678,-0.13235,-0.45934,0.06646,,,,,,,,,,,,,,,,,,,,,,,,,,0,0,0,0,0
4.5010,1783370018.8489,1,1,1.0000,0.0000,1.42053,0.12448,-2.67128,1.02396,1.56196,0.11678,-0.13235,-0.45934,0.06641,,,,,,,,,,,,,,,,,,,,,,,,,,0,0,0,0,0
4.5096,1783370018.8575,1,1,1.0000,0.0000,1.42053,0.12423,-2.67134,1.02426,1.56196,0.11677,-0.13235,-0.45934,0.06634,,,,,,,,,,,,,,,,,,,,,,,,,,0,0,0,0,0
4.5176,1783370018.8655,1,1,1.0000,0.0000,1.42053,0.12403,-2.67139,1.02452,1.56195,0.11677,-0.13235,-0.45935,0.06627,,,,,,,,,,,,,,,,,,,,,,,,,,0,0,0,0,0
4.5186,1783370018.8665,1,1,1.0000,0.0000,1.42053,0.12403,-2.67139,1.02452,1.56195,0.11677,-0.13235,-0.45935,0.06627,,,,,,,,,,,,,,,,,,,,,,,,,,0,0,0,0,0
4.5351,1783370018.8830,1,1,1.0000,0.0000,1.42053,0.12371,-2.67147,1.02493,1.56196,0.11677,-0.13235,-0.45936,0.06617,,,,,,,,,,,,,,,,,,,,,,,,,,0,0,0,0,0
4.5386,1783370018.8865,1,1,1.0000,0.0000,1.42062,0.12363,-2.67146,1.02523,1.56173,0.11659,-0.13243,-0.45942,0.06620,,,,,,,,,,,,,,,,,,,,,,,,,,0,0,0,0,0
4.5493,1783370018.8972,1,1,1.0000,0.0000,1.42053,0.12347,-2.67152,1.02523,1.56196,0.11676,-0.13235,-0.45936,0.06610,,,,,,,,,,,,,,,,,,,,,,,,,,0,0,0,0,0
4.6229,1783370018.9708,1,1,1.0000,0.0000,1.42054,0.12306,-2.67160,1.02580,1.56196,0.11676,-0.13235,-0.45940,0.06599,,,,,,,,,,,,,,,,,,,,,,,,,,0,0,0,0,0
4.6234,1783370018.9713,1,1,1.0000,0.0000,1.42054,0.12306,-2.67160,1.02580,1.56196,0.11676,-0.13235,-0.45940,0.06599,,,,,,,,,,,,,,,,,,,,,,,,,,0,0,0,0,0
4.6246,1783370018.9725,1,1,1.0000,0.0000,1.42062,0.12298,-2.67160,1.02609,1.56173,0.11658,-0.13242,-0.45946,0.06601,,,,,,,,,,,,,,,,,,,,,,,,,,0,0,0,0,0
4.6257,1783370018.9736,1,1,1.0000,0.0000,1.42062,0.12298,-2.67160,1.02609,1.56173,0.11658,-0.13242,-0.45946,0.06601,,,,,,,,,,,,,,,,,,,,,,,,,,0,0,0,0,0
4.6316,1783370018.9795,1,1,1.0000,0.0000,1.42054,0.12292,-2.67165,1.02597,1.56196,0.11676,-0.13235,-0.45939,0.06594,,,,,,,,,,,,,,,,,,,,,,,,,,0,0,0,0,0
4.6431,1783370018.9910,1,1,1.0000,0.0000,1.42062,0.12266,-2.67170,1.02649,1.56174,0.11658,-0.13242,-0.45945,0.06590,,,,,,,,,,,,,,,,,,,,,,,,,,0,0,0,0,0
4.6622,1783370019.0101,1,1,1.0000,0.0000,1.42054,0.12227,-2.67183,1.02676,1.56195,0.11675,-0.13235,-0.45938,0.06571,,,,,,,,,,,,,,,,,,,,,,,,,,0,0,0,0,0
4.6704,1783370019.0183,1,1,1.0000,0.0000,1.42054,0.12205,-2.67188,1.02702,1.56196,0.11675,-0.13235,-0.45938,0.06564,,,,,,,,,,,,,,,,,,,,,,,,,,0,0,0,0,0
4.6939,1783370019.0418,1,1,1.0000,0.0000,1.42054,0.12140,-2.67204,1.02782,1.56196,0.11674,-0.13235,-0.45939,0.06543,,,,,,,,,,,,,,,,,,,,,,,,,,0,0,0,0,0
4.6984,1783370019.0463,1,1,1.0000,0.0000,1.42062,0.12123,-2.67205,1.02822,1.56174,0.11657,-0.13242,-0.45946,0.06543,,,,,,,,,,,,,,,,,,,,,,,,,,0,0,0,0,0
4.7236,1783370019.0715,1,1,1.0000,0.0000,1.42063,0.12031,-2.67227,1.02935,1.56174,0.11656,-0.13242,-0.45947,0.06514,,,,,,,,,,,,,,,,,,,,,,,,,,0,0,0,0,0
4.7241,1783370019.0720,1,1,1.0000,0.0000,1.42063,0.12031,-2.67227,1.02935,1.56174,0.11656,-0.13242,-0.45947,0.06514,,,,,,,,,,,,,,,,,,,,,,,,,,0,0,0,0,0
4.7350,1783370019.0829,1,1,1.0000,0.0000,1.42054,0.11991,-2.67239,1.02964,1.56196,0.11673,-0.13234,-0.45942,0.06496,,,,,,,,,,,,,,,,,,,,,,,,,,0,0,0,0,0
4.7386,1783370019.0865,1,1,1.0000,0.0000,1.42063,0.11970,-2.67241,1.03010,1.56174,0.11656,-0.13242,-0.45948,0.06494,,,,,,,,,,,,,,,,,,,,,,,,,,0,0,0,0,0
4.7390,1783370019.0869,1,1,1.0000,0.0000,1.42063,0.11970,-2.67241,1.03010,1.56174,0.11656,-0.13242,-0.45948,0.06494,,,,,,,,,,,,,,,,,,,,,,,,,,0,0,0,0,0
4.7495,1783370019.0974,1,1,1.0000,0.0000,1.42055,0.11916,-2.67257,1.03057,1.56197,0.11673,-0.13234,-0.45942,0.06471,,,,,,,,,,,,,,,,,,,,,,,,,,0,0,0,0,0
4.7580,1783370019.1059,1,1,1.0000,0.0000,1.42055,0.11882,-2.67266,1.03098,1.56197,0.11673,-0.13234,-0.45943,0.06460,,,,,,,,,,,,,,,,,,,,,,,,,,0,0,0,0,0
4.7696,1783370019.1175,1,1,1.0000,0.0000,1.42063,0.11851,-2.67271,1.03158,1.56175,0.11655,-0.13242,-0.45949,0.06456,,,,,,,,,,,,,,,,,,,,,,,,,,0,0,0,0,0
4.7787,1783370019.1266,1,1,1.0000,0.0000,1.42063,0.11823,-2.67277,1.03192,1.56174,0.11654,-0.13242,-0.45950,0.06447,,,,,,,,,,,,,,,,,,,,,,,,,,0,0,0,0,0
4.8015,1783370019.1494,1,1,1.0000,0.0000,1.42063,0.11758,-2.67292,1.03274,1.56175,0.11654,-0.13241,-0.45952,0.06427,,,,,,,,,,,,,,,,,,,,,,,,,,0,0,0,0,0
4.8022,1783370019.1501,1,1,1.0000,0.0000,1.42063,0.11758,-2.67292,1.03274,1.56175,0.11654,-0.13241,-0.45952,0.06427,,,,,,,,,,,,,,,,,,,,,,,,,,0,0,0,0,0
4.8028,1783370019.1507,1,1,1.0000,0.0000,1.42063,0.11758,-2.67292,1.03274,1.56175,0.11654,-0.13241,-0.45952,0.06427,,,,,,,,,,,,,,,,,,,,,,,,,,0,0,0,0,0
4.8097,1783370019.1576,1,1,1.0000,0.0000,1.42064,0.11741,-2.67296,1.03296,1.56174,0.11654,-0.13241,-0.45952,0.06421,,,,,,,,,,,,,,,,,,,,,,,,,,0,0,0,0,0
4.8217,1783370019.1696,1,1,1.0000,0.0000,1.42056,0.11720,-2.67303,1.03303,1.56196,0.11670,-0.13234,-0.45947,0.06410,,,,,,,,,,,,,,,,,,,,,,,,,,0,0,0,0,0
4.8295,1783370019.1774,1,1,1.0000,0.0000,1.42055,0.11713,-2.67305,1.03311,1.56197,0.11671,-0.13234,-0.45947,0.06408,,,,,,,,,,,,,,,,,,,,,,,,,,0,0,0,0,0
4.8421,1783370019.1900,1,1,1.0000,0.0000,1.42063,0.11713,-2.67302,1.03332,1.56175,0.11654,-0.13241,-0.45953,0.06413,,,,,,,,,,,,,,,,,,,,,,,,,,0,0,0,0,0
4.8567,1783370019.2046,1,1,1.0000,0.0000,1.42063,0.11712,-2.67302,1.03332,1.56175,0.11654,-0.13241,-0.45953,0.06413,,,,,,,,,,,,,,,,,,,,,,,,,,0,0,0,0,0
4.8665,1783370019.2145,1,1,1.0000,0.0000,1.42064,0.11701,-2.67304,1.03347,1.56174,0.11653,-0.13241,-0.45954,0.06410,,,,,,,,,,,,,,,,,,,,,,,,,,0,0,0,0,0
4.9052,1783370019.2531,1,1,1.0000,0.0000,1.42064,0.11665,-2.67313,1.03395,1.56175,0.11653,-0.13241,-0.45955,0.06399,,,,,,,,,,,,,,,,,,,,,,,,,,0,0,0,0,0
4.9634,1783370019.3113,1,1,1.0000,0.0000,1.42064,0.11542,-2.67346,1.03546,1.56175,0.11652,-0.13241,-0.45955,0.06358,,,,,,,,,,,,,,,,,,,,,,,,,,0,0,0,0,0
4.9653,1783370019.3132,1,1,1.0000,0.0000,1.42056,0.11528,-2.67351,1.03543,1.56197,0.11669,-0.13234,-0.45949,0.06348,,,,,,,,,,,,,,,,,,,,,,,,,,0,0,0,0,0
4.9662,1783370019.3141,1,1,1.0000,0.0000,1.42056,0.11528,-2.67351,1.03543,1.56197,0.11669,-0.13234,-0.45949,0.06348,,,,,,,,,,,,,,,,,,,,,,,,,,0,0,0,0,0
4.9675,1783370019.3154,1,1,1.0000,0.0000,1.42056,0.11528,-2.67351,1.03543,1.56197,0.11669,-0.13234,-0.45949,0.06348,,,,,,,,,,,,,,,,,,,,,,,,,,0,0,0,0,0
4.9693,1783370019.3172,1,1,1.0000,0.0000,1.42064,0.11511,-2.67353,1.03584,1.56175,0.11651,-0.13241,-0.45955,0.06348,,,,,,,,,,,,,,,,,,,,,,,,,,0,0,0,0,0
4.9699,1783370019.3178,1,1,1.0000,0.0000,1.42064,0.11511,-2.67353,1.03584,1.56175,0.11651,-0.13241,-0.45955,0.06348,,,,,,,,,,,,,,,,,,,,,,,,,,0,0,0,0,0
4.9821,1783370019.3300,1,1,1.0000,0.0000,1.42056,0.11478,-2.67363,1.03603,1.56197,0.11669,-0.13233,-0.45949,0.06332,,,,,,,,,,,,,,,,,,,,,,,,,,0,0,0,0,0
4.9922,1783370019.3401,1,1,1.0000,0.0000,1.42056,0.11442,-2.67371,1.03648,1.56197,0.11668,-0.13233,-0.45950,0.06321,,,,,,,,,,,,,,,,,,,,,,,,,,0,0,0,0,0
4.9999,1783370019.3478,1,1,1.0000,0.0000,1.42056,0.11405,-2.67380,1.03694,1.56197,0.11668,-0.13233,-0.45951,0.06309,,,,,,,,,,,,,,,,,,,,,,,,,,0,0,0,0,0
5.0139,1783370019.3618,1,1,1.0000,0.0000,1.42057,0.11349,-2.67393,1.03762,1.56197,0.11668,-0.13233,-0.45951,0.06291,,,,,,,,,,,,,,,,,,,,,,,,,,0,0,0,0,0
5.0264,1783370019.3743,1,1,1.0000,0.0000,1.42065,0.11296,-2.67403,1.03846,1.56176,0.11650,-0.13240,-0.45958,0.06280,,,,,,,,,,,,,,,,,,,,,,,,,,0,0,0,0,0
5.0312,1783370019.3791,1,1,1.0000,0.0000,1.42057,0.11280,-2.67409,1.03845,1.56197,0.11667,-0.13233,-0.45952,0.06269,,,,,,,,,,,,,,,,,,,,,,,,,,0,0,0,0,0
5.0631,1783370019.4110,1,1,1.0000,0.0000,1.42057,0.11192,-2.67429,1.03953,1.56197,0.11666,-0.13233,-0.45954,0.06241,,,,,,,,,,,,,,,,,,,,,,,,,,0,0,0,0,0
5.0638,1783370019.4117,1,1,1.0000,0.0000,1.42057,0.11192,-2.67429,1.03953,1.56197,0.11666,-0.13233,-0.45954,0.06241,,,,,,,,,,,,,,,,,,,,,,,,,,0,0,0,0,0
5.0674,1783370019.4153,1,1,1.0000,0.0000,1.42065,0.11178,-2.67430,1.03991,1.56175,0.11649,-0.13240,-0.45960,0.06242,,,,,,,,,,,,,,,,,,,,,,,,,,0,0,0,0,0
5.0805,1783370019.4284,1,1,1.0000,0.0000,1.42065,0.11134,-2.67440,1.04045,1.56176,0.11649,-0.13240,-0.45961,0.06229,,,,,,,,,,,,,,,,,,,,,,,,,,0,0,0,0,0
5.1101,1783370019.4580,1,1,1.0000,0.0000,1.42057,0.11086,-2.67453,1.04086,1.56198,0.11665,-0.13233,-0.45956,0.06209,,,,,,,,,,,,,,,,,,,,,,,,,,0,0,0,0,0
5.1435,1783370019.4914,1,1,1.0000,0.0000,1.42057,0.11068,-2.67456,1.04110,1.56198,0.11665,-0.13232,-0.45958,0.06204,,,,,,,,,,,,,,,,,,,,,,,,,,0,0,0,0,0
5.1557,1783370019.5036,1,1,1.0000,0.0000,1.42066,0.11063,-2.67454,1.04138,1.56175,0.11647,-0.13240,-0.45965,0.06208,,,,,,,,,,,,,,,,,,,,,,,,,,0,0,0,0,0
5.1573,1783370019.5052,1,1,1.0000,0.0000,1.42057,0.11063,-2.67457,1.04118,1.56198,0.11665,-0.13232,-0.45959,0.06203,,,,,,,,,,,,,,,,,,,,,,,,,,0,0,0,0,0
5.1673,1783370019.5152,1,1,1.0000,0.0000,1.42058,0.11057,-2.67459,1.04126,1.56198,0.11665,-0.13232,-0.45959,0.06201,,,,,,,,,,,,,,,,,,,,,,,,,,0,0,0,0,0
5.1702,1783370019.5181,1,1,1.0000,0.0000,1.42066,0.11052,-2.67457,1.04153,1.56176,0.11647,-0.13240,-0.45965,0.06205,,,,,,,,,,,,,,,,,,,,,,,,,,0,0,0,0,0
5.1708,1783370019.5187,1,1,1.0000,0.0000,1.42066,0.11052,-2.67457,1.04153,1.56176,0.11647,-0.13240,-0.45965,0.06205,,,,,,,,,,,,,,,,,,,,,,,,,,0,0,0,0,0
5.1783,1783370019.5262,1,1,1.0000,0.0000,1.42066,0.11043,-2.67460,1.04164,1.56176,0.11648,-0.13239,-0.45965,0.06202,,,,,,,,,,,,,,,,,,,,,,,,,,0,0,0,0,0
5.2007,1783370019.5486,1,1,1.0000,0.0000,1.42058,0.11019,-2.67470,1.04175,1.56198,0.11664,-0.13233,-0.45958,0.06188,,,,,,,,,,,,,,,,,,,,,,,,,,0,0,0,0,0
5.2061,1783370019.5540,1,1,1.0000,0.0000,1.42058,0.11001,-2.67475,1.04196,1.56197,0.11664,-0.13233,-0.45958,0.06182,,,,,,,,,,,,,,,,,,,,,,,,,,0,0,0,0,0
5.2064,1783370019.5543,1,1,1.0000,0.0000,1.42058,0.11001,-2.67475,1.04196,1.56197,0.11664,-0.13233,-0.45958,0.06182,,,,,,,,,,,,,,,,,,,,,,,,,,0,0,0,0,0
5.2083,1783370019.5562,1,1,1.0000,0.0000,1.42058,0.11001,-2.67475,1.04196,1.56197,0.11664,-0.13233,-0.45958,0.06182,,,,,,,,,,,,,,,,,,,,,,,,,,0,0,0,0,0
5.2194,1783370019.5673,1,1,1.0000,0.0000,1.42066,0.10979,-2.67478,1.04242,1.56177,0.11648,-0.13239,-0.45964,0.06180,,,,,,,,,,,,,,,,,,,,,,,,,,0,0,0,0,0
5.2284,1783370019.5763,1,1,1.0000,0.0000,1.42066,0.10954,-2.67484,1.04272,1.56177,0.11647,-0.13240,-0.45964,0.06172,,,,,,,,,,,,,,,,,,,,,,,,,,0,0,0,0,0
5.2383,1783370019.5862,1,1,1.0000,0.0000,1.42058,0.10913,-2.67496,1.04302,1.56198,0.11664,-0.13232,-0.45958,0.06153,,,,,,,,,,,,,,,,,,,,,,,,,,0,0,0,0,0
5.2484,1783370019.5963,1,1,1.0000,0.0000,1.42058,0.10897,-2.67499,1.04322,1.56198,0.11664,-0.13232,-0.45959,0.06148,,,,,,,,,,,,,,,,,,,,,,,,,,0,0,0,0,0
5.2577,1783370019.6056,1,1,1.0000,0.0000,1.42058,0.10861,-2.67507,1.04366,1.56198,0.11663,-0.13232,-0.45959,0.06137,,,,,,,,,,,,,,,,,,,,,,,,,,0,0,0,0,0
5.2734,1783370019.6213,1,1,1.0000,0.0000,1.42058,0.10780,-2.67525,1.04463,1.56198,0.11663,-0.13232,-0.45960,0.06112,,,,,,,,,,,,,,,,,,,,,,,,,,0,0,0,0,0
5.2843,1783370019.6322,1,1,1.0000,0.0000,1.42067,0.10738,-2.67532,1.04534,1.56176,0.11645,-0.13239,-0.45967,0.06104,,,,,,,,,,,,,,,,,,,,,,,,,,0,0,0,0,0
5.2908,1783370019.6387,1,1,1.0000,0.0000,1.42067,0.10700,-2.67541,1.04580,1.56177,0.11646,-0.13239,-0.45968,0.06092,,,,,,,,,,,,,,,,,,,,,,,,,,0,0,0,0,0
5.2919,1783370019.6398,1,1,1.0000,0.0000,1.42067,0.10700,-2.67541,1.04580,1.56177,0.11646,-0.13239,-0.45968,0.06092,,,,,,,,,,,,,,,,,,,,,,,,,,0,0,0,0,0
5.3063,1783370019.6542,1,1,1.0000,0.0000,1.42067,0.10646,-2.67554,1.04646,1.56176,0.11645,-0.13239,-0.45968,0.06075,,,,,,,,,,,,,,,,,,,,,,,,,,0,0,0,0,0
5.3271,1783370019.6750,1,1,1.0000,0.0000,1.42059,0.10569,-2.67574,1.04719,1.56198,0.11661,-0.13232,-0.45963,0.06045,,,,,,,,,,,,,,,,,,,,,,,,,,0,0,0,0,0
5.3276,1783370019.6755,1,1,1.0000,0.0000,1.42059,0.10569,-2.67574,1.04719,1.56198,0.11661,-0.13232,-0.45963,0.06045,,,,,,,,,,,,,,,,,,,,,,,,,,0,0,0,0,0
5.3280,1783370019.6759,1,1,1.0000,0.0000,1.42059,0.10569,-2.67574,1.04719,1.56198,0.11661,-0.13232,-0.45963,0.06045,,,,,,,,,,,,,,,,,,,,,,,,,,0,0,0,0,0
5.3359,1783370019.6838,1,1,1.0000,0.0000,1.42059,0.10556,-2.67577,1.04736,1.56198,0.11661,-0.13232,-0.45963,0.06041,,,,,,,,,,,,,,,,,,,,,,,,,,0,0,0,0,0
5.3465,1783370019.6944,1,1,1.0000,0.0000,1.42067,0.10518,-2.67584,1.04803,1.56178,0.11644,-0.13239,-0.45970,0.06034,,,,,,,,,,,,,,,,,,,,,,,,,,0,0,0,0,0
5.3668,1783370019.7147,1,1,1.0000,0.0000,1.42059,0.10472,-2.67596,1.04840,1.56199,0.11660,-0.13232,-0.45965,0.06015,,,,,,,,,,,,,,,,,,,,,,,,,,0,0,0,0,0
5.3748,1783370019.7227,1,1,1.0000,0.0000,1.42059,0.10459,-2.67599,1.04858,1.56199,0.11660,-0.13232,-0.45966,0.06011,,,,,,,,,,,,,,,,,,,,,,,,,,0,0,0,0,0
5.3753,1783370019.7232,1,1,1.0000,0.0000,1.42059,0.10459,-2.67599,1.04858,1.56199,0.11660,-0.13232,-0.45966,0.06011,,,,,,,,,,,,,,,,,,,,,,,,,,0,0,0,0,0
5.3829,1783370019.7308,1,1,1.0000,0.0000,1.42059,0.10449,-2.67601,1.04871,1.56199,0.11660,-0.13232,-0.45966,0.06008,,,,,,,,,,,,,,,,,,,,,,,,,,0,0,0,0,0
5.3916,1783370019.7395,1,1,1.0000,0.0000,1.42059,0.10441,-2.67603,1.04881,1.56199,0.11660,-0.13231,-0.45966,0.06006,,,,,,,,,,,,,,,,,,,,,,,,,,0,0,0,0,0
5.4126,1783370019.7605,1,1,1.0000,0.0000,1.42068,0.10432,-2.67602,1.04912,1.56177,0.11643,-0.13239,-0.45973,0.06009,,,,,,,,,,,,,,,,,,,,,,,,,,0,0,0,0,0
5.4159,1783370019.7638,1,1,1.0000,0.0000,1.42060,0.10433,-2.67604,1.04893,1.56199,0.11660,-0.13231,-0.45967,0.06004,,,,,,,,,,,,,,,,,,,,,,,,,,0,0,0,0,0
5.4299,1783370019.7778,1,1,1.0000,0.0000,1.42060,0.10427,-2.67605,1.04901,1.56199,0.11659,-0.13231,-0.45968,0.06003,,,,,,,,,,,,,,,,,,,,,,,,,,0,0,0,0,0
5.4330,1783370019.7809,1,1,1.0000,0.0000,1.42060,0.10427,-2.67605,1.04901,1.56199,0.11659,-0.13231,-0.45968,0.06003,,,,,,,,,,,,,,,,,,,,,,,,,,0,0,0,0,0
5.4424,1783370019.7903,1,1,1.0000,0.0000,1.42068,0.10415,-2.67605,1.04936,1.56177,0.11642,-0.13238,-0.45975,0.06004,,,,,,,,,,,,,,,,,,,,,,,,,,0,0,0,0,0
5.4551,1783370019.8030,1,1,1.0000,0.0000,1.42060,0.10409,-2.67610,1.04925,1.56199,0.11659,-0.13231,-0.45968,0.05997,,,,,,,,,,,,,,,,,,,,,,,,,,0,0,0,0,0
5.4643,1783370019.8122,1,1,1.0000,0.0000,1.42060,0.10397,-2.67613,1.04939,1.56200,0.11659,-0.13231,-0.45968,0.05993,,,,,,,,,,,,,,,,,,,,,,,,,,0,0,0,0,0
5.4722,1783370019.8201,1,1,1.0000,0.0000,1.42060,0.10383,-2.67617,1.04957,1.56199,0.11659,-0.13231,-0.45968,0.05988,,,,,,,,,,,,,,,,,,,,,,,,,,0,0,0,0,0
5.4838,1783370019.8317,1,1,1.0000,0.0000,1.42068,0.10356,-2.67621,1.05010,1.56179,0.11643,-0.13238,-0.45974,0.05984,,,,,,,,,,,,,,,,,,,,,,,,,,0,0,0,0,0
5.4840,1783370019.8319,1,1,1.0000,0.0000,1.42068,0.10356,-2.67621,1.05010,1.56179,0.11643,-0.13238,-0.45974,0.05984,,,,,,,,,,,,,,,,,,,,,,,,,,0,0,0,0,0
5.5101,1783370019.8580,1,1,1.0000,0.0000,1.42060,0.10296,-2.67638,1.05063,1.56199,0.11659,-0.13231,-0.45968,0.05960,,,,,,,,,,,,,,,,,,,,,,,,,,0,0,0,0,0
5.5186,1783370019.8665,1,1,1.0000,0.0000,1.42060,0.10263,-2.67645,1.05102,1.56199,0.11658,-0.13232,-0.45969,0.05950,,,,,,,,,,,,,,,,,,,,,,,,,,0,0,0,0,0
5.5265,1783370019.8744,1,1,1.0000,0.0000,1.42060,0.10225,-2.67653,1.05148,1.56199,0.11658,-0.13231,-0.45969,0.05938,,,,,,,,,,,,,,,,,,,,,,,,,,0,0,0,0,0
5.5272,1783370019.8751,1,1,1.0000,0.0000,1.42060,0.10225,-2.67653,1.05148,1.56199,0.11658,-0.13231,-0.45969,0.05938,,,,,,,,,,,,,,,,,,,,,,,,,,0,0,0,0,0
5.5280,1783370019.8759,1,1,1.0000,0.0000,1.42060,0.10225,-2.67653,1.05148,1.56199,0.11658,-0.13231,-0.45969,0.05938,,,,,,,,,,,,,,,,,,,,,,,,,,0,0,0,0,0
5.5362,1783370019.8841,1,1,1.0000,0.0000,1.42061,0.10184,-2.67663,1.05198,1.56199,0.11657,-0.13231,-0.45970,0.05925,,,,,,,,,,,,,,,,,,,,,,,,,,0,0,0,0,0
5.5418,1783370019.8897,1,1,1.0000,0.0000,1.42061,0.10141,-2.67672,1.05249,1.56199,0.11657,-0.13231,-0.45970,0.05912,,,,,,,,,,,,,,,,,,,,,,,,,,0,0,0,0,0
5.5640,1783370019.9119,1,1,1.0000,0.0000,1.42069,0.10062,-2.67687,1.05365,1.56178,0.11640,-0.13238,-0.45978,0.05892,,,,,,,,,,,,,,,,,,,,,,,,,,0,0,0,0,0
5.5646,1783370019.9125,1,1,1.0000,0.0000,1.42069,0.10062,-2.67687,1.05365,1.56178,0.11640,-0.13238,-0.45978,0.05892,,,,,,,,,,,,,,,,,,,,,,,,,,0,0,0,0,0
5.5651,1783370019.9130,1,1,1.0000,0.0000,1.42069,0.10062,-2.67687,1.05365,1.56178,0.11640,-0.13238,-0.45978,0.05892,,,,,,,,,,,,,,,,,,,,,,,,,,0,0,0,0,0
5.5719,1783370019.9198,1,1,1.0000,0.0000,1.42069,0.10027,-2.67695,1.05406,1.56178,0.11640,-0.13238,-0.45978,0.05881,,,,,,,,,,,,,,,,,,,,,,,,,,0,0,0,0,0
5.5724,1783370019.9203,1,1,1.0000,0.0000,1.42069,0.10027,-2.67695,1.05406,1.56178,0.11640,-0.13238,-0.45978,0.05881,,,,,,,,,,,,,,,,,,,,,,,,,,0,0,0,0,0
5.5844,1783370019.9323,1,1,1.0000,0.0000,1.42061,0.09982,-2.67708,1.05441,1.56200,0.11656,-0.13231,-0.45972,0.05861,,,,,,,,,,,,,,,,,,,,,,,,,,0,0,0,0,0
5.5920,1783370019.9399,1,1,1.0000,0.0000,1.42061,0.09952,-2.67714,1.05477,1.56200,0.11656,-0.13231,-0.45973,0.05852,,,,,,,,,,,,,,,,,,,,,,,,,,0,0,0,0,0
5.6065,1783370019.9544,1,1,1.0000,0.0000,1.42061,0.09890,-2.67727,1.05552,1.56200,0.11655,-0.13231,-0.45974,0.05833,,,,,,,,,,,,,,,,,,,,,,,,,,0,0,0,0,0
5.6134,1783370019.9613,1,1,1.0000,0.0000,1.42069,0.09888,-2.67725,1.05573,1.56179,0.11639,-0.13237,-0.45980,0.05837,,,,,,,,,,,,,,,,,,,,,,,,,,0,0,0,0,0
5.6286,1783370019.9765,1,1,1.0000,0.0000,1.42070,0.09842,-2.67735,1.05629,1.56178,0.11638,-0.13238,-0.45981,0.05823,,,,,,,,,,,,,,,,,,,,,,,,,,0,0,0,0,0
5.6387,1783370019.9866,1,1,1.0000,0.0000,1.42062,0.09828,-2.67741,1.05629,1.56200,0.11655,-0.13231,-0.45975,0.05814,,,,,,,,,,,,,,,,,,,,,,,,,,0,0,0,0,0
5.6433,1783370019.9912,1,1,1.0000,0.0000,1.42070,0.09823,-2.67740,1.05656,1.56178,0.11638,-0.13238,-0.45982,0.05817,,,,,,,,,,,,,,,,,,,,,,,,,,0,0,0,0,0
5.6533,1783370020.0012,1,1,1.0000,0.0000,1.42069,0.09817,-2.67741,1.05663,1.56179,0.11639,-0.13237,-0.45982,0.05816,,,,,,,,,,,,,,,,,,,,,,,,,,0,0,0,0,0
5.6682,1783370020.0161,1,1,1.0000,0.0000,1.42069,0.09808,-2.67744,1.05676,1.56180,0.11639,-0.13237,-0.45982,0.05813,,,,,,,,,,,,,,,,,,,,,,,,,,0,0,0,0,0
5.6745,1783370020.0224,1,1,1.0000,0.0000,1.42069,0.09801,-2.67745,1.05685,1.56179,0.11638,-0.13237,-0.45983,0.05811,,,,,,,,,,,,,,,,,,,,,,,,,,0,0,0,0,0
5.6835,1783370020.0314,1,1,1.0000,0.0000,1.42070,0.09797,-2.67745,1.05692,1.56179,0.11638,-0.13237,-0.45983,0.05811,,,,,,,,,,,,,,,,,,,,,,,,,,0,0,0,0,0
5.6953,1783370020.0432,1,1,1.0000,0.0000,1.42062,0.09794,-2.67747,1.05677,1.56200,0.11654,-0.13230,-0.45978,0.05805,,,,,,,,,,,,,,,,,,,,,,,,,,0,0,0,0,0
5.7104,1783370020.0583,1,1,1.0000,0.0000,1.42062,0.09783,-2.67750,1.05692,1.56201,0.11654,-0.13230,-0.45979,0.05802,,,,,,,,,,,,,,,,,,,,,,,,,,0,0,0,0,0
5.7130,1783370020.0609,1,1,1.0000,0.0000,1.42062,0.09783,-2.67750,1.05692,1.56201,0.11654,-0.13230,-0.45979,0.05802,,,,,,,,,,,,,,,,,,,,,,,,,,0,0,0,0,0
5.7222,1783370020.0701,1,1,1.0000,0.0000,1.42070,0.09774,-2.67750,1.05724,1.56179,0.11637,-0.13237,-0.45985,0.05804,,,,,,,,,,,,,,,,,,,,,,,,,,0,0,0,0,0
5.7361,1783370020.0840,1,1,1.0000,0.0000,1.42062,0.09761,-2.67757,1.05720,1.56200,0.11654,-0.13230,-0.45978,0.05795,,,,,,,,,,,,,,,,,,,,,,,,,,0,0,0,0,0
5.7428,1783370020.0907,1,1,1.0000,0.0000,1.42062,0.09748,-2.67760,1.05736,1.56200,0.11654,-0.13230,-0.45978,0.05790,,,,,,,,,,,,,,,,,,,,,,,,,,0,0,0,0,0
5.7545,1783370020.1024,1,1,1.0000,0.0000,1.42070,0.09722,-2.67765,1.05786,1.56179,0.11637,-0.13237,-0.45983,0.05786,,,,,,,,,,,,,,,,,,,,,,,,,,0,0,0,0,0
5.7629,1783370020.1108,1,1,1.0000,0.0000,1.42070,0.09713,-2.67767,1.05797,1.56179,0.11637,-0.13237,-0.45983,0.05784,,,,,,,,,,,,,,,,,,,,,,,,,,0,0,0,0,0
5.7714,1783370020.1193,1,1,1.0000,0.0000,1.42070,0.09692,-2.67772,1.05822,1.56180,0.11637,-0.13237,-0.45983,0.05777,,,,,,,,,,,,,,,,,,,,,,,,,,0,0,0,0,0
5.7902,1783370020.1381,1,1,1.0000,0.0000,1.42062,0.09641,-2.67785,1.05863,1.56201,0.11653,-0.13230,-0.45977,0.05756,,,,,,,,,,,,,,,,,,,,,,,,,,0,0,0,0,0
5.7964,1783370020.1443,1,1,1.0000,0.0000,1.42070,0.09622,-2.67787,1.05905,1.56179,0.11637,-0.13237,-0.45984,0.05755,,,,,,,,,,,,,,,,,,,,,,,,,,0,0,0,0,0
5.8025,1783370020.1504,1,1,1.0000,0.0000,1.42070,0.09586,-2.67795,1.05949,1.56179,0.11636,-0.13237,-0.45985,0.05744,,,,,,,,,,,,,,,,,,,,,,,,,,0,0,0,0,0
5.8031,1783370020.1510,1,1,1.0000,0.0000,1.42070,0.09586,-2.67795,1.05949,1.56179,0.11636,-0.13237,-0.45985,0.05744,,,,,,,,,,,,,,,,,,,,,,,,,,0,0,0,0,0
5.8155,1783370020.1634,1,1,1.0000,0.0000,1.42062,0.09549,-2.67805,1.05974,1.56201,0.11653,-0.13230,-0.45979,0.05727,,,,,,,,,,,,,,,,,,,,,,,,,,0,0,0,0,0
5.8354,1783370020.1833,1,1,1.0000,0.0000,1.42063,0.09470,-2.67822,1.06069,1.56201,0.11652,-0.13230,-0.45981,0.05703,,,,,,,,,,,,,,,,,,,,,,,,,,0,0,0,0,0
5.8433,1783370020.1912,1,1,1.0000,0.0000,1.42070,0.09412,-2.67832,1.06158,1.56181,0.11636,-0.13236,-0.45987,0.05690,,,,,,,,,,,,,,,,,,,,,,,,,,0,0,0,0,0
5.8526,1783370020.2005,1,1,1.0000,0.0000,1.42071,0.09393,-2.67836,1.06181,1.56180,0.11635,-0.13237,-0.45988,0.05684,,,,,,,,,,,,,,,,,,,,,,,,,,0,0,0,0,0
5.8708,1783370020.2187,1,1,1.0000,0.0000,1.42063,0.09327,-2.67853,1.06242,1.56201,0.11651,-0.13230,-0.45982,0.05658,,,,,,,,,,,,,,,,,,,,,,,,,,0,0,0,0,0
5.8728,1783370020.2207,1,1,1.0000,0.0000,1.42063,0.09327,-2.67853,1.06242,1.56201,0.11651,-0.13230,-0.45982,0.05658,,,,,,,,,,,,,,,,,,,,,,,,,,0,0,0,0,0
5.8873,1783370020.2352,1,1,1.0000,0.0000,1.42063,0.09267,-2.67866,1.06315,1.56201,0.11650,-0.13230,-0.45983,0.05639,,,,,,,,,,,,,,,,,,,,,,,,,,0,0,0,0,0
5.8919,1783370020.2398,1,1,1.0000,0.0000,1.42071,0.09251,-2.67867,1.06355,1.56179,0.11634,-0.13237,-0.45990,0.05640,,,,,,,,,,,,,,,,,,,,,,,,,,0,0,0,0,0
5.9185,1783370020.2664,1,1,1.0000,0.0000,1.42064,0.09191,-2.67882,1.06409,1.56201,0.11649,-0.13229,-0.45985,0.05617,,,,,,,,,,,,,,,,,,,,,,,,,,0,0,0,0,0
5.9238,1783370020.2717,1,1,1.0000,0.0000,1.42071,0.09183,-2.67881,1.06439,1.56181,0.11634,-0.13236,-0.45992,0.05620,,,,,,,,,,,,,,,,,,,,,,,,,,0,0,0,0,0
5.9281,1783370020.2760,1,1,1.0000,0.0000,1.42064,0.09179,-2.67884,1.06425,1.56201,0.11649,-0.13229,-0.45986,0.05614,,,,,,,,,,,,,,,,,,,,,,,,,,0,0,0,0,0
5.9375,1783370020.2854,1,1,1.0000,0.0000,1.42064,0.09170,-2.67885,1.06437,1.56201,0.11649,-0.13229,-0.45987,0.05611,,,,,,,,,,,,,,,,,,,,,,,,,,0,0,0,0,0
5.9382,1783370020.2861,1,1,1.0000,0.0000,1.42071,0.09168,-2.67883,1.06459,1.56181,0.11633,-0.13236,-0.45994,0.05616,,,,,,,,,,,,,,,,,,,,,,,,,,0,0,0,0,0
5.9465,1783370020.2944,1,1,1.0000,0.0000,1.42071,0.09161,-2.67884,1.06468,1.56181,0.11634,-0.13235,-0.45994,0.05614,,,,,,,,,,,,,,,,,,,,,,,,,,0,0,0,0,0
5.9469,1783370020.2948,1,1,1.0000,0.0000,1.42071,0.09161,-2.67884,1.06468,1.56181,0.11634,-0.13235,-0.45994,0.05614,,,,,,,,,,,,,,,,,,,,,,,,,,0,0,0,0,0
5.9600,1783370020.3079,1,1,1.0000,0.0000,1.42064,0.09156,-2.67886,1.06456,1.56201,0.11649,-0.13229,-0.45990,0.05609,,,,,,,,,,,,,,,,,,,,,,,,,,0,0,0,0,0
5.9701,1783370020.3180,1,1,1.0000,0.0000,1.42072,0.09149,-2.67885,1.06484,1.56181,0.11633,-0.13235,-0.45996,0.05612,,,,,,,,,,,,,,,,,,,,,,,,,,0,0,0,0,0
5.9761,1783370020.3240,1,1,1.0000,0.0000,1.42064,0.09149,-2.67887,1.06466,1.56201,0.11649,-0.13229,-0.45990,0.05607,,,,,,,,,,,,,,,,,,,,,,,,,,0,0,0,0,0
5.9882,1783370020.3361,1,1,1.0000,0.0000,1.42072,0.09138,-2.67888,1.06499,1.56181,0.11633,-0.13235,-0.45996,0.05608,,,,,,,,,,,,,,,,,,,,,,,,,,0,0,0,0,0
5.9965,1783370020.3444,1,1,1.0000,0.0000,1.42072,0.09134,-2.67889,1.06504,1.56180,0.11633,-0.13236,-0.45996,0.05607,,,,,,,,,,,,,,,,,,,,,,,,,,0,0,0,0,0
6.0185,1783370020.3664,1,1,1.0000,0.0000,1.42072,0.09101,-2.67900,1.06545,1.56181,0.11633,-0.13236,-0.45994,0.05595,,,,,,,,,,,,,,,,,,,,,,,,,,0,0,0,0,0
6.0320,1783370020.3799,1,1,1.0000,0.0000,1.42064,0.09087,-2.67906,1.06542,1.56202,0.11648,-0.13229,-0.45988,0.05585,,,,,,,,,,,,,,,,,,,,,,,,,,0,0,0,0,0
6.0376,1783370020.3855,1,1,1.0000,0.0000,1.42064,0.09067,-2.67911,1.06566,1.56202,0.11648,-0.13229,-0.45987,0.05579,,,,,,,,,,,,,,,,,,,,,,,,,,0,0,0,0,0
6.0487,1783370020.3966,1,1,1.0000,0.0000,1.42064,0.09043,-2.67916,1.06595,1.56202,0.11648,-0.13229,-0.45988,0.05571,,,,,,,,,,,,,,,,,,,,,,,,,,0,0,0,0,0
6.0559,1783370020.4038,1,1,1.0000,0.0000,1.42064,0.09029,-2.67919,1.06611,1.56202,0.11648,-0.13229,-0.45988,0.05567,,,,,,,,,,,,,,,,,,,,,,,,,,0,0,0,0,0
6.0666,1783370020.4145,1,1,1.0000,0.0000,1.42072,0.08976,-2.67928,1.06694,1.56181,0.11632,-0.13236,-0.45995,0.05556,,,,,,,,,,,,,,,,,,,,,,,,,,0,0,0,0,0
6.0805,1783370020.4284,1,1,1.0000,0.0000,1.42065,0.08920,-2.67942,1.06742,1.56202,0.11647,-0.13229,-0.45989,0.05533,,,,,,,,,,,,,,,,,,,,,,,,,,0,0,0,0,0
6.0866,1783370020.4345,1,1,1.0000,0.0000,1.42065,0.08900,-2.67947,1.06767,1.56202,0.11647,-0.13229,-0.45990,0.05527,,,,,,,,,,,,,,,,,,,,,,,,,,0,0,0,0,0
6.0983,1783370020.4462,1,1,1.0000,0.0000,1.42073,0.08838,-2.67957,1.06860,1.56181,0.11631,-0.13236,-0.45997,0.05513,,,,,,,,,,,,,,,,,,,,,,,,,,0,0,0,0,0
6.0991,1783370020.4470,1,1,1.0000,0.0000,1.42073,0.08838,-2.67957,1.06860,1.56181,0.11631,-0.13236,-0.45997,0.05513,,,,,,,,,,,,,,,,,,,,,,,,,,0,0,0,0,0
6.1057,1783370020.4536,1,1,1.0000,0.0000,1.42072,0.08800,-2.67965,1.06906,1.56181,0.11631,-0.13235,-0.45997,0.05501,,,,,,,,,,,,,,,,,,,,,,,,,,0,0,0,0,0
6.1063,1783370020.4542,1,1,1.0000,0.0000,1.42072,0.08800,-2.67965,1.06906,1.56181,0.11631,-0.13235,-0.45997,0.05501,,,,,,,,,,,,,,,,,,,,,,,,,,0,0,0,0,0
6.1202,1783370020.4681,1,1,1.0000,0.0000,1.42065,0.08764,-2.67976,1.06929,1.56202,0.11646,-0.13228,-0.45991,0.05485,,,,,,,,,,,,,,,,,,,,,,,,,,0,0,0,0,0
6.1266,1783370020.4745,1,1,1.0000,0.0000,1.42065,0.08728,-2.67983,1.06973,1.56202,0.11646,-0.13229,-0.45992,0.05474,,,,,,,,,,,,,,,,,,,,,,,,,,0,0,0,0,0
6.1391,1783370020.4870,1,1,1.0000,0.0000,1.42073,0.08677,-2.67992,1.07054,1.56181,0.11630,-0.13235,-0.45999,0.05463,,,,,,,,,,,,,,,,,,,,,,,,,,0,0,0,0,0
6.1478,1783370020.4957,1,1,1.0000,0.0000,1.42073,0.08662,-2.67996,1.07071,1.56182,0.11630,-0.13235,-0.45999,0.05458,,,,,,,,,,,,,,,,,,,,,,,,,,0,0,0,0,0
6.1565,1783370020.5044,1,1,1.0000,0.0000,1.42073,0.08633,-2.68002,1.07107,1.56181,0.11629,-0.13236,-0.45999,0.05449,,,,,,,,,,,,,,,,,,,,,,,,,,0,0,0,0,0
6.1791,1783370020.5270,1,1,1.0000,0.0000,1.42073,0.08571,-2.68015,1.07182,1.56182,0.11629,-0.13235,-0.46000,0.05431,,,,,,,,,,,,,,,,,,,,,,,,,,0,0,0,0,0
6.1872,1783370020.5351,1,1,1.0000,0.0000,1.42073,0.08552,-2.68018,1.07205,1.56183,0.11629,-0.13235,-0.46001,0.05425,,,,,,,,,,,,,,,,,,,,,,,,,,0,0,0,0,0
6.1964,1783370020.5443,1,1,1.0000,0.0000,1.42073,0.08537,-2.68021,1.07224,1.56182,0.11629,-0.13235,-0.46002,0.05421,,,,,,,,,,,,,,,,,,,,,,,,,,0,0,0,0,0
6.1973,1783370020.5452,1,1,1.0000,0.0000,1.42073,0.08537,-2.68021,1.07224,1.56182,0.11629,-0.13235,-0.46002,0.05421,,,,,,,,,,,,,,,,,,,,,,,,,,0,0,0,0,0
6.2075,1783370020.5554,1,1,1.0000,0.0000,1.42066,0.08528,-2.68025,1.07216,1.56202,0.11644,-0.13228,-0.45996,0.05413,,,,,,,,,,,,,,,,,,,,,,,,,,0,0,0,0,0
6.2205,1783370020.5684,1,1,1.0000,0.0000,1.42073,0.08514,-2.68024,1.07254,1.56183,0.11629,-0.13234,-0.46003,0.05415,,,,,,,,,,,,,,,,,,,,,,,,,,0,0,0,0,0
6.2309,1783370020.5788,1,1,1.0000,0.0000,1.42066,0.08510,-2.68027,1.07240,1.56202,0.11643,-0.13228,-0.45999,0.05409,,,,,,,,,,,,,,,,,,,,,,,,,,0,0,0,0,0
6.2424,1783370020.5903,1,1,1.0000,0.0000,1.42073,0.08501,-2.68026,1.07271,1.56183,0.11629,-0.13234,-0.46005,0.05412,,,,,,,,,,,,,,,,,,,,,,,,,,0,0,0,0,0
6.2492,1783370020.5971,1,1,1.0000,0.0000,1.42066,0.08501,-2.68028,1.07253,1.56203,0.11643,-0.13228,-0.45999,0.05407,,,,,,,,,,,,,,,,,,,,,,,,,,0,0,0,0,0
6.2624,1783370020.6103,1,1,1.0000,0.0000,1.42066,0.08493,-2.68030,1.07264,1.56202,0.11643,-0.13228,-0.46000,0.05405,,,,,,,,,,,,,,,,,,,,,,,,,,0,0,0,0,0
6.2635,1783370020.6114,1,1,1.0000,0.0000,1.42066,0.08493,-2.68030,1.07264,1.56202,0.11643,-0.13228,-0.46000,0.05405,,,,,,,,,,,,,,,,,,,,,,,,,,0,0,0,0,0
6.2789,1783370020.6269,1,1,1.0000,0.0000,1.42066,0.08478,-2.68035,1.07282,1.56203,0.11644,-0.13227,-0.45999,0.05399,,,,,,,,,,,,,,,,,,,,,,,,,,0,0,0,0,0
6.2829,1783370020.6308,1,1,1.0000,0.0000,1.42074,0.08470,-2.68034,1.07312,1.56182,0.11627,-0.13235,-0.46005,0.05402,,,,,,,,,,,,,,,,,,,,,,,,,,0,0,0,0,0
6.2885,1783370020.6364,1,1,1.0000,0.0000,1.42066,0.08467,-2.68038,1.07296,1.56203,0.11644,-0.13227,-0.45998,0.05396,,,,,,,,,,,,,,,,,,,,,,,,,,0,0,0,0,0
6.2973,1783370020.6452,1,1,1.0000,0.0000,1.42066,0.08454,-2.68042,1.07312,1.56203,0.11643,-0.13228,-0.45998,0.05391,,,,,,,,,,,,,,,,,,,,,,,,,,0,0,0,0,0
6.3089,1783370020.6568,1,1,1.0000,0.0000,1.42074,0.08435,-2.68044,1.07354,1.56182,0.11627,-0.13235,-0.46004,0.05390,,,,,,,,,,,,,,,,,,,,,,,,,,0,0,0,0,0
6.3241,1783370020.6720,1,1,1.0000,0.0000,1.42074,0.08406,-2.68051,1.07389,1.56182,0.11627,-0.13235,-0.46003,0.05380,,,,,,,,,,,,,,,,,,,,,,,,,,0,0,0,0,0
6.3298,1783370020.6777,1,1,1.0000,0.0000,1.42066,0.08395,-2.68056,1.07382,1.56203,0.11643,-0.13228,-0.45997,0.05372,,,,,,,,,,,,,,,,,,,,,,,,,,0,0,0,0,0
6.3384,1783370020.6863,1,1,1.0000,0.0000,1.42074,0.08345,-2.68065,1.07461,1.56183,0.11627,-0.13235,-0.46004,0.05361,,,,,,,,,,,,,,,,,,,,,,,,,,0,0,0,0,0
