Martins-Lucaas/twinforge/sensors/Data/20260704_142435__samples.csv
t_rel_s,t_unix,cycle,phase,setpoint_n,force_net_n,q1,q2,q3,q4,q5,q6,tcp_x,tcp_y,tcp_z,taxel_0,taxel_1,taxel_2,taxel_3,taxel_4,taxel_5,taxel_6,taxel_7,taxel_8,taxel_9,taxel_10,taxel_11,taxel_12,taxel_13,taxel_14,taxel_15,taxel_16,taxel_17,taxel_18,taxel_19,taxel_20,taxel_21,taxel_22,taxel_23,taxel_24,n_RA,n_SA,cn_mm,cn_ra,cn_sa
0.0040,1783185875.7177,1,0,1.0000,-0.0000,1.44682,0.23328,-2.77748,0.97337,1.57080,0.00000,-0.14512,-0.38003,0.04653,,,,,,,,,,,,,,,,,,,,,,,,,,0,0,0,0,0
0.0133,1783185875.7269,1,0,1.0000,-0.0000,1.44682,0.23328,-2.77748,0.97337,1.57080,-0.00000,-0.14512,-0.38003,0.04653,,,,,,,,,,,,,,,,,,,,,,,,,,0,0,0,0,0
0.0240,1783185875.7377,1,0,1.0000,-0.0000,1.44682,0.23328,-2.77748,0.97337,1.57080,0.00000,-0.14512,-0.38003,0.04653,,,,,,,,,,,,,,,,,,,,,,,,,,0,0,0,0,0
0.0346,1783185875.7482,1,0,1.0000,-0.0000,1.44682,0.23328,-2.77748,0.97337,1.57080,-0.00000,-0.14512,-0.38003,0.04653,,,,,,,,,,,,,,,,,,,,,,,,,,0,0,0,0,0
0.0349,1783185875.7485,1,0,1.0000,-0.0000,1.44682,0.23328,-2.77748,0.97337,1.57080,-0.00000,-0.14512,-0.38003,0.04653,,,,,,,,,,,,,,,,,,,,,,,,,,0,0,0,0,0
0.0424,1783185875.7560,1,0,1.0000,-0.0000,1.44682,0.23328,-2.77748,0.97337,1.57080,0.00000,-0.14512,-0.38003,0.04653,,,,,,,,,,,,,,,,,,,,,,,,,,0,0,0,0,0
0.0523,1783185875.7659,1,0,1.0000,-0.0000,1.44682,0.23328,-2.77748,0.97337,1.57080,0.00000,-0.14512,-0.38003,0.04653,,,,,,,,,,,,,,,,,,,,,,,,,,0,0,0,0,0
0.0656,1783185875.7792,1,0,1.0000,-0.0000,1.44682,0.23328,-2.77748,0.97337,1.57080,0.00000,-0.14512,-0.38003,0.04653,,,,,,,,,,,,,,,,,,,,,,,,,,0,0,0,0,0
0.0659,1783185875.7795,1,0,1.0000,-0.0000,1.44682,0.23328,-2.77748,0.97337,1.57080,0.00000,-0.14512,-0.38003,0.04653,,,,,,,,,,,,,,,,,,,,,,,,,,0,0,0,0,0
0.0723,1783185875.7859,1,0,1.0000,-0.0000,1.44682,0.23328,-2.77748,0.97337,1.57080,0.00000,-0.14512,-0.38003,0.04653,,,,,,,,,,,,,,,,,,,,,,,,,,0,0,0,0,0
0.0726,1783185875.7862,1,0,1.0000,-0.0000,1.44682,0.23328,-2.77748,0.97337,1.57080,0.00000,-0.14512,-0.38003,0.04653,,,,,,,,,,,,,,,,,,,,,,,,,,0,0,0,0,0
0.0822,1783185875.7958,1,0,1.0000,-0.0000,1.44682,0.23328,-2.77748,0.97337,1.57080,0.00000,-0.14512,-0.38003,0.04653,,,,,,,,,,,,,,,,,,,,,,,,,,0,0,0,0,0
0.0967,1783185875.8103,1,0,1.0000,-0.0000,1.44682,0.23328,-2.77748,0.97337,1.57080,0.00000,-0.14512,-0.38003,0.04653,,,,,,,,,,,,,,,,,,,,,,,,,,0,0,0,0,0
0.1018,1783185875.8154,1,0,1.0000,-0.0000,1.44682,0.23328,-2.77748,0.97337,1.57080,0.00000,-0.14512,-0.38003,0.04653,,,,,,,,,,,,,,,,,,,,,,,,,,0,0,0,0,0
0.1022,1783185875.8158,1,0,1.0000,-0.0000,1.44682,0.23328,-2.77748,0.97337,1.57080,0.00000,-0.14512,-0.38003,0.04653,,,,,,,,,,,,,,,,,,,,,,,,,,0,0,0,0,0
0.1176,1783185875.8313,1,0,1.0000,-0.0000,1.44682,0.23328,-2.77748,0.97337,1.57080,0.00000,-0.14512,-0.38003,0.04653,,,,,,,,,,,,,,,,,,,,,,,,,,0,0,0,0,0
0.1181,1783185875.8317,1,0,1.0000,-0.0000,1.44682,0.23328,-2.77748,0.97337,1.57080,0.00000,-0.14512,-0.38003,0.04653,,,,,,,,,,,,,,,,,,,,,,,,,,0,0,0,0,0
0.1229,1783185875.8365,1,0,1.0000,-0.0000,1.44682,0.23328,-2.77748,0.97337,1.57080,0.00000,-0.14512,-0.38003,0.04653,,,,,,,,,,,,,,,,,,,,,,,,,,0,0,0,0,0
0.1363,1783185875.8499,1,0,1.0000,-0.0000,1.44682,0.23328,-2.77748,0.97337,1.57080,0.00000,-0.14512,-0.38003,0.04653,,,,,,,,,,,,,,,,,,,,,,,,,,0,0,0,0,0
0.1432,1783185875.8568,1,0,1.0000,-0.0000,1.44682,0.23328,-2.77748,0.97337,1.57080,0.00000,-0.14512,-0.38003,0.04653,,,,,,,,,,,,,,,,,,,,,,,,,,0,0,0,0,0
0.1644,1783185875.8780,1,0,1.0000,-0.0000,1.44682,0.23328,-2.77748,0.97337,1.57080,0.00000,-0.14512,-0.38003,0.04653,,,,,,,,,,,,,,,,,,,,,,,,,,0,0,0,0,0
0.1652,1783185875.8788,1,0,1.0000,-0.0000,1.44682,0.23328,-2.77748,0.97337,1.57080,0.00000,-0.14512,-0.38003,0.04653,,,,,,,,,,,,,,,,,,,,,,,,,,0,0,0,0,0
0.1750,1783185875.8886,1,0,1.0000,-0.0000,1.44682,0.23328,-2.77748,0.97337,1.57080,0.00000,-0.14512,-0.38003,0.04653,,,,,,,,,,,,,,,,,,,,,,,,,,0,0,0,0,0
0.1819,1783185875.8955,1,0,1.0000,-0.0000,1.44682,0.23328,-2.77748,0.97337,1.57080,0.00000,-0.14512,-0.38003,0.04653,,,,,,,,,,,,,,,,,,,,,,,,,,0,0,0,0,0
0.1824,1783185875.8960,1,0,1.0000,-0.0000,1.44682,0.23328,-2.77748,0.97337,1.57080,0.00000,-0.14512,-0.38003,0.04653,,,,,,,,,,,,,,,,,,,,,,,,,,0,0,0,0,0
0.1920,1783185875.9056,1,0,1.0000,-0.0000,1.44682,0.23328,-2.77748,0.97337,1.57080,0.00000,-0.14512,-0.38003,0.04653,,,,,,,,,,,,,,,,,,,,,,,,,,0,0,0,0,0
0.1922,1783185875.9058,1,0,1.0000,-0.0000,1.44682,0.23328,-2.77748,0.97337,1.57080,0.00000,-0.14512,-0.38003,0.04653,,,,,,,,,,,,,,,,,,,,,,,,,,0,0,0,0,0
0.2021,1783185875.9157,1,0,1.0000,-0.0000,1.44682,0.23328,-2.77748,0.97337,1.57080,0.00000,-0.14512,-0.38003,0.04653,,,,,,,,,,,,,,,,,,,,,,,,,,0,0,0,0,0
0.2025,1783185875.9161,1,0,1.0000,-0.0000,1.44682,0.23328,-2.77748,0.97337,1.57080,0.00000,-0.14512,-0.38003,0.04653,,,,,,,,,,,,,,,,,,,,,,,,,,0,0,0,0,0
0.2123,1783185875.9259,1,0,1.0000,-0.0000,1.44682,0.23328,-2.77748,0.97337,1.57080,0.00000,-0.14512,-0.38003,0.04653,,,,,,,,,,,,,,,,,,,,,,,,,,0,0,0,0,0
0.2272,1783185875.9409,1,0,1.0000,-0.0000,1.44682,0.23328,-2.77748,0.97337,1.57080,0.00000,-0.14512,-0.38003,0.04653,,,,,,,,,,,,,,,,,,,,,,,,,,0,0,0,0,0
0.2353,1783185875.9489,1,0,1.0000,-0.0000,1.44682,0.23328,-2.77748,0.97337,1.57080,0.00000,-0.14512,-0.38003,0.04653,,,,,,,,,,,,,,,,,,,,,,,,,,0,0,0,0,0
0.2469,1783185875.9605,1,0,1.0000,-0.0000,1.44682,0.23328,-2.77748,0.97337,1.57080,0.00000,-0.14512,-0.38003,0.04653,,,,,,,,,,,,,,,,,,,,,,,,,,0,0,0,0,0
0.2672,1783185875.9808,1,0,1.0000,-0.0000,1.44682,0.23328,-2.77748,0.97337,1.57080,0.00000,-0.14512,-0.38003,0.04653,,,,,,,,,,,,,,,,,,,,,,,,,,0,0,0,0,0
0.3886,1783185876.1022,1,0,1.0000,-0.0000,1.44682,0.23328,-2.77748,0.97337,1.57080,0.00000,-0.14512,-0.38003,0.04653,,,,,,,,,,,,,,,,,,,,,,,,,,0,0,0,0,0
0.3900,1783185876.1036,1,0,1.0000,-0.0000,1.44682,0.23328,-2.77748,0.97337,1.57080,0.00000,-0.14512,-0.38003,0.04653,,,,,,,,,,,,,,,,,,,,,,,,,,0,0,0,0,0
0.3902,1783185876.1038,1,0,1.0000,-0.0000,1.44682,0.23328,-2.77748,0.97337,1.57080,0.00000,-0.14512,-0.38003,0.04653,,,,,,,,,,,,,,,,,,,,,,,,,,0,0,0,0,0
0.3906,1783185876.1042,1,0,1.0000,-0.0000,1.44682,0.23328,-2.77748,0.97337,1.57080,0.00000,-0.14512,-0.38003,0.04653,,,,,,,,,,,,,,,,,,,,,,,,,,0,0,0,0,0
0.3908,1783185876.1044,1,0,1.0000,-0.0000,1.44682,0.23328,-2.77748,0.97337,1.57080,0.00000,-0.14512,-0.38003,0.04653,,,,,,,,,,,,,,,,,,,,,,,,,,0,0,0,0,0
0.3911,1783185876.1048,1,0,1.0000,-0.0000,1.44682,0.23328,-2.77748,0.97337,1.57080,0.00000,-0.14512,-0.38003,0.04653,,,,,,,,,,,,,,,,,,,,,,,,,,0,0,0,0,0
0.3914,1783185876.1050,1,0,1.0000,-0.0000,1.44682,0.23328,-2.77748,0.97337,1.57080,0.00000,-0.14512,-0.38003,0.04653,,,,,,,,,,,,,,,,,,,,,,,,,,0,0,0,0,0
0.3916,1783185876.1052,1,0,1.0000,-0.0000,1.44682,0.23328,-2.77748,0.97337,1.57080,0.00000,-0.14512,-0.38003,0.04653,,,,,,,,,,,,,,,,,,,,,,,,,,0,0,0,0,0
0.3918,1783185876.1054,1,0,1.0000,-0.0000,1.44682,0.23328,-2.77748,0.97337,1.57080,0.00000,-0.14512,-0.38003,0.04653,,,,,,,,,,,,,,,,,,,,,,,,,,0,0,0,0,0
0.3921,1783185876.1057,1,0,1.0000,-0.0000,1.44682,0.23328,-2.77748,0.97337,1.57080,0.00000,-0.14512,-0.38003,0.04653,,,,,,,,,,,,,,,,,,,,,,,,,,0,0,0,0,0
0.3923,1783185876.1059,1,0,1.0000,-0.0000,1.44682,0.23328,-2.77748,0.97337,1.57080,0.00000,-0.14512,-0.38003,0.04653,,,,,,,,,,,,,,,,,,,,,,,,,,0,0,0,0,0
0.3927,1783185876.1063,1,0,1.0000,-0.0000,1.44682,0.23328,-2.77748,0.97337,1.57080,0.00000,-0.14512,-0.38003,0.04653,,,,,,,,,,,,,,,,,,,,,,,,,,0,0,0,0,0
0.3929,1783185876.1065,1,0,1.0000,-0.0000,1.44682,0.23328,-2.77748,0.97337,1.57080,0.00000,-0.14512,-0.38003,0.04653,,,,,,,,,,,,,,,,,,,,,,,,,,0,0,0,0,0
0.3935,1783185876.1071,1,0,1.0000,-0.0000,1.44682,0.23328,-2.77748,0.97337,1.57080,0.00000,-0.14512,-0.38003,0.04653,,,,,,,,,,,,,,,,,,,,,,,,,,0,0,0,0,0
0.3938,1783185876.1074,1,0,1.0000,-0.0000,1.44682,0.23328,-2.77748,0.97337,1.57080,0.00000,-0.14512,-0.38003,0.04653,,,,,,,,,,,,,,,,,,,,,,,,,,0,0,0,0,0
0.4032,1783185876.1168,1,0,1.0000,-0.0000,1.44682,0.23328,-2.77748,0.97337,1.57080,0.00000,-0.14512,-0.38003,0.04653,,,,,,,,,,,,,,,,,,,,,,,,,,0,0,0,0,0
0.4125,1783185876.1261,1,0,1.0000,-0.0000,1.44682,0.23328,-2.77748,0.97337,1.57080,0.00000,-0.14512,-0.38003,0.04653,,,,,,,,,,,,,,,,,,,,,,,,,,0,0,0,0,0
0.4128,1783185876.1264,1,0,1.0000,-0.0000,1.44682,0.23328,-2.77748,0.97337,1.57080,0.00000,-0.14512,-0.38003,0.04653,,,,,,,,,,,,,,,,,,,,,,,,,,0,0,0,0,0
0.4239,1783185876.1375,1,0,1.0000,-0.0000,1.44682,0.23328,-2.77748,0.97337,1.57080,0.00000,-0.14512,-0.38003,0.04653,,,,,,,,,,,,,,,,,,,,,,,,,,0,0,0,0,0
0.4363,1783185876.1499,1,0,1.0000,-0.0000,1.44682,0.23328,-2.77748,0.97337,1.57080,0.00000,-0.14512,-0.38003,0.04653,,,,,,,,,,,,,,,,,,,,,,,,,,0,0,0,0,0
0.4455,1783185876.1591,1,0,1.0000,-0.0000,1.44682,0.23328,-2.77748,0.97337,1.57080,0.00000,-0.14512,-0.38003,0.04653,,,,,,,,,,,,,,,,,,,,,,,,,,0,0,0,0,0
0.4569,1783185876.1705,1,0,1.0000,-0.0000,1.44682,0.23328,-2.77748,0.97337,1.57080,0.00000,-0.14512,-0.38003,0.04653,,,,,,,,,,,,,,,,,,,,,,,,,,0,0,0,0,0
0.4625,1783185876.1761,1,0,1.0000,-0.0000,1.44682,0.23328,-2.77748,0.97337,1.57080,0.00000,-0.14512,-0.38003,0.04653,,,,,,,,,,,,,,,,,,,,,,,,,,0,0,0,0,0
0.4628,1783185876.1764,1,0,1.0000,-0.0000,1.44682,0.23328,-2.77748,0.97337,1.57080,0.00000,-0.14512,-0.38003,0.04653,,,,,,,,,,,,,,,,,,,,,,,,,,0,0,0,0,0
0.4751,1783185876.1888,1,0,1.0000,-0.0000,1.44682,0.23328,-2.77748,0.97337,1.57080,0.00000,-0.14512,-0.38003,0.04653,,,,,,,,,,,,,,,,,,,,,,,,,,0,0,0,0,0
0.4754,1783185876.1890,1,0,1.0000,-0.0000,1.44682,0.23328,-2.77748,0.97337,1.57080,0.00000,-0.14512,-0.38003,0.04653,,,,,,,,,,,,,,,,,,,,,,,,,,0,0,0,0,0
0.4819,1783185876.1955,1,0,1.0000,-0.0000,1.44682,0.23328,-2.77748,0.97337,1.57080,0.00000,-0.14512,-0.38003,0.04653,,,,,,,,,,,,,,,,,,,,,,,,,,0,0,0,0,0
0.4822,1783185876.1958,1,0,1.0000,-0.0000,1.44682,0.23328,-2.77748,0.97337,1.57080,0.00000,-0.14512,-0.38003,0.04653,,,,,,,,,,,,,,,,,,,,,,,,,,0,0,0,0,0
0.4935,1783185876.2071,1,0,1.0000,-0.0000,1.44682,0.23328,-2.77748,0.97337,1.57080,0.00000,-0.14512,-0.38003,0.04653,,,,,,,,,,,,,,,,,,,,,,,,,,0,0,0,0,0
0.5062,1783185876.2198,1,0,1.0000,-0.0000,1.44682,0.23328,-2.77748,0.97337,1.57080,0.00000,-0.14512,-0.38003,0.04653,,,,,,,,,,,,,,,,,,,,,,,,,,0,0,0,0,0
0.5137,1783185876.2273,1,0,1.0000,-0.0000,1.44682,0.23328,-2.77748,0.97337,1.57080,0.00000,-0.14512,-0.38003,0.04653,,,,,,,,,,,,,,,,,,,,,,,,,,0,0,0,0,0
0.5141,1783185876.2277,1,0,1.0000,-0.0000,1.44682,0.23328,-2.77748,0.97337,1.57080,0.00000,-0.14512,-0.38003,0.04653,,,,,,,,,,,,,,,,,,,,,,,,,,0,0,0,0,0
0.5237,1783185876.2373,1,0,1.0000,-0.0000,1.44682,0.23328,-2.77748,0.97337,1.57080,0.00000,-0.14512,-0.38003,0.04653,,,,,,,,,,,,,,,,,,,,,,,,,,0,0,0,0,0
0.5240,1783185876.2377,1,0,1.0000,-0.0000,1.44682,0.23328,-2.77748,0.97337,1.57080,0.00000,-0.14512,-0.38003,0.04653,,,,,,,,,,,,,,,,,,,,,,,,,,0,0,0,0,0
0.5329,1783185876.2465,1,0,1.0000,-0.0000,1.44682,0.23328,-2.77748,0.97337,1.57080,0.00000,-0.14512,-0.38003,0.04653,,,,,,,,,,,,,,,,,,,,,,,,,,0,0,0,0,0
0.5464,1783185876.2600,1,0,1.0000,-0.0000,1.44682,0.23328,-2.77748,0.97337,1.57080,0.00000,-0.14512,-0.38003,0.04653,,,,,,,,,,,,,,,,,,,,,,,,,,0,0,0,0,0
0.5557,1783185876.2693,1,0,1.0000,-0.0000,1.44682,0.23328,-2.77748,0.97337,1.57080,0.00000,-0.14512,-0.38003,0.04653,,,,,,,,,,,,,,,,,,,,,,,,,,0,0,0,0,0
0.5628,1783185876.2765,1,0,1.0000,-0.0000,1.44682,0.23328,-2.77748,0.97337,1.57080,0.00000,-0.14512,-0.38003,0.04653,,,,,,,,,,,,,,,,,,,,,,,,,,0,0,0,0,0
0.5746,1783185876.2882,1,0,1.0000,-0.0000,1.44682,0.23328,-2.77748,0.97337,1.57080,0.00000,-0.14512,-0.38003,0.04653,,,,,,,,,,,,,,,,,,,,,,,,,,0,0,0,0,0
0.5849,1783185876.2985,1,0,1.0000,-0.0000,1.44682,0.23328,-2.77748,0.97337,1.57080,0.00000,-0.14512,-0.38003,0.04653,,,,,,,,,,,,,,,,,,,,,,,,,,0,0,0,0,0
0.5922,1783185876.3058,1,0,1.0000,-0.0000,1.44682,0.23328,-2.77748,0.97337,1.57080,0.00000,-0.14512,-0.38003,0.04653,,,,,,,,,,,,,,,,,,,,,,,,,,0,0,0,0,0
0.6060,1783185876.3196,1,0,1.0000,-0.0000,1.44682,0.23328,-2.77748,0.97337,1.57080,0.00000,-0.14512,-0.38003,0.04653,,,,,,,,,,,,,,,,,,,,,,,,,,0,0,0,0,0
0.6088,1783185876.3224,1,0,1.0000,-0.0000,1.44682,0.23328,-2.77748,0.97337,1.57080,0.00000,-0.14512,-0.38003,0.04653,,,,,,,,,,,,,,,,,,,,,,,,,,0,0,0,0,0
0.6125,1783185876.3261,1,0,1.0000,-0.0000,1.44682,0.23328,-2.77748,0.97337,1.57080,0.00000,-0.14512,-0.38003,0.04653,,,,,,,,,,,,,,,,,,,,,,,,,,0,0,0,0,0
0.6281,1783185876.3417,1,0,1.0000,-0.0000,1.44682,0.23328,-2.77748,0.97337,1.57080,0.00000,-0.14512,-0.38003,0.04653,,,,,,,,,,,,,,,,,,,,,,,,,,0,0,0,0,0
0.6340,1783185876.3476,1,0,1.0000,-0.0000,1.44682,0.23328,-2.77748,0.97337,1.57080,0.00000,-0.14512,-0.38003,0.04653,,,,,,,,,,,,,,,,,,,,,,,,,,0,0,0,0,0
0.6487,1783185876.3623,1,0,1.0000,-0.0000,1.44682,0.23328,-2.77748,0.97337,1.57080,0.00000,-0.14512,-0.38003,0.04653,,,,,,,,,,,,,,,,,,,,,,,,,,0,0,0,0,0
0.6520,1783185876.3656,1,0,1.0000,-0.0000,1.44682,0.23328,-2.77748,0.97337,1.57080,0.00000,-0.14512,-0.38003,0.04653,,,,,,,,,,,,,,,,,,,,,,,,,,0,0,0,0,0
0.6657,1783185876.3793,1,0,1.0000,-0.0000,1.44682,0.23328,-2.77748,0.97337,1.57080,0.00000,-0.14512,-0.38003,0.04653,,,,,,,,,,,,,,,,,,,,,,,,,,0,0,0,0,0
0.6661,1783185876.3797,1,0,1.0000,-0.0000,1.44682,0.23328,-2.77748,0.97337,1.57080,0.00000,-0.14512,-0.38003,0.04653,,,,,,,,,,,,,,,,,,,,,,,,,,0,0,0,0,0
0.6719,1783185876.3855,1,0,1.0000,-0.0000,1.44682,0.23328,-2.77748,0.97337,1.57080,0.00000,-0.14512,-0.38003,0.04653,,,,,,,,,,,,,,,,,,,,,,,,,,0,0,0,0,0
0.6723,1783185876.3859,1,0,1.0000,-0.0000,1.44682,0.23328,-2.77748,0.97337,1.57080,0.00000,-0.14512,-0.38003,0.04653,,,,,,,,,,,,,,,,,,,,,,,,,,0,0,0,0,0
0.6816,1783185876.3953,1,0,1.0000,-0.0000,1.44682,0.23328,-2.77748,0.97337,1.57080,0.00000,-0.14512,-0.38003,0.04653,,,,,,,,,,,,,,,,,,,,,,,,,,0,0,0,0,0
0.6819,1783185876.3955,1,0,1.0000,-0.0000,1.44682,0.23328,-2.77748,0.97337,1.57080,0.00000,-0.14512,-0.38003,0.04653,,,,,,,,,,,,,,,,,,,,,,,,,,0,0,0,0,0
0.6937,1783185876.4074,1,0,1.0000,-0.0000,1.44682,0.23328,-2.77748,0.97337,1.57080,0.00000,-0.14512,-0.38003,0.04653,,,,,,,,,,,,,,,,,,,,,,,,,,0,0,0,0,0
0.7022,1783185876.4158,1,0,1.0000,-0.0000,1.44682,0.23328,-2.77748,0.97337,1.57080,0.00000,-0.14512,-0.38003,0.04653,,,,,,,,,,,,,,,,,,,,,,,,,,0,0,0,0,0
0.7026,1783185876.4162,1,0,1.0000,-0.0000,1.44682,0.23328,-2.77748,0.97337,1.57080,0.00000,-0.14512,-0.38003,0.04653,,,,,,,,,,,,,,,,,,,,,,,,,,0,0,0,0,0
0.7188,1783185876.4324,1,0,1.0000,-0.0000,1.44682,0.23328,-2.77748,0.97337,1.57080,0.00000,-0.14512,-0.38003,0.04653,,,,,,,,,,,,,,,,,,,,,,,,,,0,0,0,0,0
0.7229,1783185876.4365,1,0,1.0000,-0.0000,1.44682,0.23328,-2.77748,0.97337,1.57080,0.00000,-0.14512,-0.38003,0.04653,,,,,,,,,,,,,,,,,,,,,,,,,,0,0,0,0,0
0.7361,1783185876.4497,1,1,1.0000,-0.0000,1.44682,0.23328,-2.77748,0.97337,1.57080,0.00000,-0.14512,-0.38003,0.04653,,,,,,,,,,,,,,,,,,,,,,,,,,0,0,0,0,0
0.7426,1783185876.4562,1,1,1.0000,-0.0000,1.44682,0.23328,-2.77748,0.97337,1.57080,0.00000,-0.14512,-0.38003,0.04653,,,,,,,,,,,,,,,,,,,,,,,,,,0,0,0,0,0
0.7428,1783185876.4564,1,1,1.0000,-0.0000,1.44682,0.23328,-2.77748,0.97337,1.57080,0.00000,-0.14512,-0.38003,0.04653,,,,,,,,,,,,,,,,,,,,,,,,,,0,0,0,0,0
0.7554,1783185876.4691,1,1,1.0000,-0.0000,1.44682,0.23328,-2.77748,0.97337,1.57080,0.00000,-0.14512,-0.38003,0.04653,,,,,,,,,,,,,,,,,,,,,,,,,,0,0,0,0,0
0.7634,1783185876.4770,1,1,1.0000,-0.0000,1.44682,0.23328,-2.77748,0.97337,1.57080,0.00000,-0.14512,-0.38003,0.04653,,,,,,,,,,,,,,,,,,,,,,,,,,0,0,0,0,0
0.7740,1783185876.4876,1,1,1.0000,-0.0000,1.44682,0.23328,-2.77748,0.97337,1.57080,0.00000,-0.14512,-0.38003,0.04653,,,,,,,,,,,,,,,,,,,,,,,,,,0,0,0,0,0
0.7744,1783185876.4880,1,1,1.0000,-0.0000,1.44682,0.23328,-2.77748,0.97337,1.57080,0.00000,-0.14512,-0.38003,0.04653,,,,,,,,,,,,,,,,,,,,,,,,,,0,0,0,0,0
0.7896,1783185876.5032,1,1,1.0000,-0.0000,1.44682,0.23328,-2.77748,0.97337,1.57080,0.00000,-0.14512,-0.38003,0.04653,,,,,,,,,,,,,,,,,,,,,,,,,,0,0,0,0,0
0.7899,1783185876.5035,1,1,1.0000,-0.0000,1.44682,0.23328,-2.77748,0.97337,1.57080,0.00000,-0.14512,-0.38003,0.04653,,,,,,,,,,,,,,,,,,,,,,,,,,0,0,0,0,0
0.7919,1783185876.5055,1,1,1.0000,-0.0000,1.44682,0.23328,-2.77748,0.97337,1.57080,0.00000,-0.14512,-0.38003,0.04653,,,,,,,,,,,,,,,,,,,,,,,,,,0,0,0,0,0
0.7923,1783185876.5059,1,1,1.0000,-0.0000,1.44682,0.23328,-2.77748,0.97337,1.57080,0.00000,-0.14512,-0.38003,0.04653,,,,,,,,,,,,,,,,,,,,,,,,,,0,0,0,0,0
0.8038,1783185876.5174,1,1,1.0000,-0.0000,1.44682,0.23328,-2.77748,0.97337,1.57080,0.00000,-0.14512,-0.38003,0.04653,,,,,,,,,,,,,,,,,,,,,,,,,,0,0,0,0,0
0.8137,1783185876.5273,1,1,1.0000,-0.0000,1.44682,0.23328,-2.77748,0.97337,1.57080,0.00000,-0.14512,-0.38003,0.04653,,,,,,,,,,,,,,,,,,,,,,,,,,0,0,0,0,0
0.8221,1783185876.5357,1,1,1.0000,-0.0000,1.44682,0.23328,-2.77748,0.97337,1.57080,0.00000,-0.14512,-0.38003,0.04653,,,,,,,,,,,,,,,,,,,,,,,,,,0,0,0,0,0
0.8368,1783185876.5505,1,1,1.0000,-0.0000,1.44682,0.23328,-2.77748,0.97337,1.57080,0.00000,-0.14512,-0.38003,0.04653,,,,,,,,,,,,,,,,,,,,,,,,,,0,0,0,0,0
0.8455,1783185876.5592,1,1,1.0000,-0.0000,1.44682,0.23328,-2.77748,0.97337,1.57080,0.00000,-0.14512,-0.38003,0.04653,,,,,,,,,,,,,,,,,,,,,,,,,,0,0,0,0,0
0.8563,1783185876.5699,1,1,1.0000,-0.0000,1.44682,0.23328,-2.77748,0.97337,1.57080,0.00000,-0.14512,-0.38003,0.04653,,,,,,,,,,,,,,,,,,,,,,,,,,0,0,0,0,0
0.8648,1783185876.5784,1,1,1.0000,-0.0000,1.44682,0.23328,-2.77748,0.97337,1.57080,0.00000,-0.14512,-0.38003,0.04653,,,,,,,,,,,,,,,,,,,,,,,,,,0,0,0,0,0
0.8653,1783185876.5789,1,1,1.0000,-0.0000,1.44682,0.23328,-2.77748,0.97337,1.57080,0.00000,-0.14512,-0.38003,0.04653,,,,,,,,,,,,,,,,,,,,,,,,,,0,0,0,0,0
0.8757,1783185876.5893,1,1,1.0000,-0.0000,1.44682,0.23328,-2.77748,0.97337,1.57080,0.00000,-0.14512,-0.38003,0.04653,,,,,,,,,,,,,,,,,,,,,,,,,,0,0,0,0,0
0.8823,1783185876.5959,1,1,1.0000,-0.0000,1.44682,0.23328,-2.77748,0.97337,1.57080,0.00000,-0.14512,-0.38003,0.04653,,,,,,,,,,,,,,,,,,,,,,,,,,0,0,0,0,0
0.8940,1783185876.6076,1,1,1.0000,-0.0000,1.44682,0.23328,-2.77748,0.97337,1.57080,0.00000,-0.14512,-0.38003,0.04653,,,,,,,,,,,,,,,,,,,,,,,,,,0,0,0,0,0
0.9025,1783185876.6161,1,1,1.0000,-0.0000,1.44682,0.23328,-2.77748,0.97337,1.57080,0.00000,-0.14512,-0.38003,0.04653,,,,,,,,,,,,,,,,,,,,,,,,,,0,0,0,0,0
0.9030,1783185876.6166,1,1,1.0000,-0.0000,1.44682,0.23328,-2.77748,0.97337,1.57080,0.00000,-0.14512,-0.38003,0.04653,,,,,,,,,,,,,,,,,,,,,,,,,,0,0,0,0,0
0.9121,1783185876.6257,1,1,1.0000,-0.0000,1.44682,0.23328,-2.77748,0.97337,1.57080,0.00000,-0.14512,-0.38003,0.04653,,,,,,,,,,,,,,,,,,,,,,,,,,0,0,0,0,0
0.9125,1783185876.6261,1,1,1.0000,-0.0000,1.44682,0.23328,-2.77748,0.97337,1.57080,0.00000,-0.14512,-0.38003,0.04653,,,,,,,,,,,,,,,,,,,,,,,,,,0,0,0,0,0
0.9223,1783185876.6359,1,1,1.0000,-0.0000,1.44682,0.23328,-2.77748,0.97337,1.57080,0.00000,-0.14512,-0.38003,0.04653,,,,,,,,,,,,,,,,,,,,,,,,,,0,0,0,0,0
0.9342,1783185876.6478,1,1,1.0000,-0.0000,1.44682,0.23319,-2.77750,0.97348,1.57080,0.00000,-0.14512,-0.38003,0.04650,,,,,,,,,,,,,,,,,,,,,,,,,,0,0,0,0,0
0.9345,1783185876.6481,1,1,1.0000,-0.0000,1.44682,0.23319,-2.77750,0.97348,1.57080,0.00000,-0.14512,-0.38003,0.04650,,,,,,,,,,,,,,,,,,,,,,,,,,0,0,0,0,0
0.9487,1783185876.6623,1,1,1.0000,-0.0000,1.44682,0.23301,-2.77754,0.97370,1.57080,0.00000,-0.14512,-0.38003,0.04646,,,,,,,,,,,,,,,,,,,,,,,,,,0,0,0,0,0
0.9579,1783185876.6715,1,1,1.0000,-0.0000,1.44682,0.23298,-2.77755,0.97374,1.57080,0.00000,-0.14512,-0.38003,0.04645,,,,,,,,,,,,,,,,,,,,,,,,,,0,0,0,0,0
0.9677,1783185876.6813,1,1,1.0000,-0.0000,1.44682,0.23290,-2.77757,0.97384,1.57080,0.00000,-0.14512,-0.38003,0.04643,,,,,,,,,,,,,,,,,,,,,,,,,,0,0,0,0,0
0.9731,1783185876.6867,1,1,1.0000,-0.0000,1.44682,0.23286,-2.77759,0.97390,1.57080,0.00000,-0.14512,-0.38003,0.04642,,,,,,,,,,,,,,,,,,,,,,,,,,0,0,0,0,0
0.9821,1783185876.6957,1,1,1.0000,-0.0000,1.44682,0.23275,-2.77761,0.97403,1.57080,0.00000,-0.14512,-0.38003,0.04639,,,,,,,,,,,,,,,,,,,,,,,,,,0,0,0,0,0
0.9824,1783185876.6960,1,1,1.0000,-0.0000,1.44682,0.23275,-2.77761,0.97403,1.57080,0.00000,-0.14512,-0.38003,0.04639,,,,,,,,,,,,,,,,,,,,,,,,,,0,0,0,0,0
0.9940,1783185876.7076,1,1,1.0000,-0.0000,1.44682,0.23268,-2.77763,0.97412,1.57080,0.00000,-0.14512,-0.38003,0.04637,,,,,,,,,,,,,,,,,,,,,,,,,,0,0,0,0,0
0.9943,1783185876.7079,1,1,1.0000,-0.0000,1.44682,0.23268,-2.77763,0.97412,1.57080,0.00000,-0.14512,-0.38003,0.04637,,,,,,,,,,,,,,,,,,,,,,,,,,0,0,0,0,0
1.0058,1783185876.7194,1,1,1.0000,-0.0000,1.44682,0.23254,-2.77767,0.97430,1.57080,0.00000,-0.14512,-0.38003,0.04633,,,,,,,,,,,,,,,,,,,,,,,,,,0,0,0,0,0
1.0061,1783185876.7198,1,1,1.0000,-0.0000,1.44682,0.23254,-2.77767,0.97430,1.57080,0.00000,-0.14512,-0.38003,0.04633,,,,,,,,,,,,,,,,,,,,,,,,,,0,0,0,0,0
1.0177,1783185876.7314,1,1,1.0000,-0.0000,1.44682,0.23250,-2.77768,0.97434,1.57080,0.00000,-0.14512,-0.38003,0.04633,,,,,,,,,,,,,,,,,,,,,,,,,,0,0,0,0,0
1.0180,1783185876.7316,1,1,1.0000,-0.0000,1.44682,0.23250,-2.77768,0.97434,1.57080,0.00000,-0.14512,-0.38003,0.04633,,,,,,,,,,,,,,,,,,,,,,,,,,0,0,0,0,0
1.0219,1783185876.7355,1,1,1.0000,-0.0000,1.44682,0.23247,-2.77769,0.97439,1.57080,0.00000,-0.14512,-0.38003,0.04632,,,,,,,,,,,,,,,,,,,,,,,,,,0,0,0,0,0
1.0223,1783185876.7359,1,1,1.0000,-0.0000,1.44682,0.23247,-2.77769,0.97439,1.57080,0.00000,-0.14512,-0.38003,0.04632,,,,,,,,,,,,,,,,,,,,,,,,,,0,0,0,0,0
1.0368,1783185876.7504,1,1,1.0000,-0.0000,1.44682,0.23232,-2.77772,0.97457,1.57080,0.00000,-0.14512,-0.38003,0.04628,,,,,,,,,,,,,,,,,,,,,,,,,,0,0,0,0,0
1.0438,1783185876.7574,1,1,1.0000,-0.0000,1.44682,0.23227,-2.77774,0.97464,1.57080,0.00000,-0.14512,-0.38003,0.04626,,,,,,,,,,,,,,,,,,,,,,,,,,0,0,0,0,0
1.0658,1783185876.7794,1,1,1.0000,-0.0000,1.44682,0.23205,-2.77779,0.97491,1.57080,0.00000,-0.14512,-0.38003,0.04621,,,,,,,,,,,,,,,,,,,,,,,,,,0,0,0,0,0
1.0661,1783185876.7797,1,1,1.0000,-0.0000,1.44682,0.23205,-2.77779,0.97491,1.57080,0.00000,-0.14512,-0.38003,0.04621,,,,,,,,,,,,,,,,,,,,,,,,,,0,0,0,0,0
1.0741,1783185876.7877,1,1,1.0000,-0.0000,1.44682,0.23204,-2.77780,0.97492,1.57080,0.00000,-0.14512,-0.38003,0.04620,,,,,,,,,,,,,,,,,,,,,,,,,,0,0,0,0,0
1.0745,1783185876.7881,1,1,1.0000,-0.0000,1.44682,0.23204,-2.77780,0.97492,1.57080,0.00000,-0.14512,-0.38003,0.04620,,,,,,,,,,,,,,,,,,,,,,,,,,0,0,0,0,0
1.0749,1783185876.7885,1,1,1.0000,-0.0000,1.44682,0.23204,-2.77780,0.97492,1.57080,0.00000,-0.14512,-0.38003,0.04620,,,,,,,,,,,,,,,,,,,,,,,,,,0,0,0,0,0
1.0835,1783185876.7971,1,1,1.0000,-0.0000,1.44682,0.23198,-2.77781,0.97500,1.57080,0.00000,-0.14512,-0.38003,0.04619,,,,,,,,,,,,,,,,,,,,,,,,,,0,0,0,0,0
1.0839,1783185876.7976,1,1,1.0000,-0.0000,1.44682,0.23198,-2.77781,0.97500,1.57080,0.00000,-0.14512,-0.38003,0.04619,,,,,,,,,,,,,,,,,,,,,,,,,,0,0,0,0,0
1.0989,1783185876.8125,1,1,1.0000,-0.0000,1.44682,0.23178,-2.77786,0.97525,1.57080,0.00000,-0.14512,-0.38003,0.04614,,,,,,,,,,,,,,,,,,,,,,,,,,0,0,0,0,0
1.1050,1783185876.8186,1,1,1.0000,-0.0000,1.44682,0.23178,-2.77786,0.97525,1.57080,0.00000,-0.14512,-0.38003,0.04614,,,,,,,,,,,,,,,,,,,,,,,,,,0,0,0,0,0
1.1138,1783185876.8274,1,1,1.0000,-0.0000,1.44682,0.23171,-2.77788,0.97534,1.57080,0.00000,-0.14512,-0.38003,0.04612,,,,,,,,,,,,,,,,,,,,,,,,,,0,0,0,0,0
1.1140,1783185876.8276,1,1,1.0000,-0.0000,1.44682,0.23171,-2.77788,0.97534,1.57080,0.00000,-0.14512,-0.38003,0.04612,,,,,,,,,,,,,,,,,,,,,,,,,,0,0,0,0,0
1.1240,1783185876.8376,1,1,1.0000,-0.0000,1.44682,0.23162,-2.77790,0.97546,1.57080,0.00000,-0.14512,-0.38003,0.04609,,,,,,,,,,,,,,,,,,,,,,,,,,0,0,0,0,0
1.1243,1783185876.8379,1,1,1.0000,-0.0000,1.44682,0.23162,-2.77790,0.97546,1.57080,0.00000,-0.14512,-0.38003,0.04609,,,,,,,,,,,,,,,,,,,,,,,,,,0,0,0,0,0
1.1395,1783185876.8531,1,1,1.0000,-0.0000,1.44682,0.23153,-2.77793,0.97556,1.57080,0.00000,-0.14512,-0.38003,0.04607,,,,,,,,,,,,,,,,,,,,,,,,,,0,0,0,0,0
1.1426,1783185876.8562,1,1,1.0000,-0.0000,1.44682,0.23150,-2.77794,0.97561,1.57080,0.00000,-0.14512,-0.38003,0.04606,,,,,,,,,,,,,,,,,,,,,,,,,,0,0,0,0,0
1.1430,1783185876.8566,1,1,1.0000,-0.0000,1.44682,0.23150,-2.77794,0.97561,1.57080,0.00000,-0.14512,-0.38003,0.04606,,,,,,,,,,,,,,,,,,,,,,,,,,0,0,0,0,0
1.1521,1783185876.8657,1,1,1.0000,-0.0000,1.44682,0.23140,-2.77796,0.97573,1.57080,0.00000,-0.14512,-0.38003,0.04604,,,,,,,,,,,,,,,,,,,,,,,,,,0,0,0,0,0
1.1657,1783185876.8793,1,1,1.0000,-0.0000,1.44682,0.23129,-2.77799,0.97587,1.57080,0.00000,-0.14512,-0.38003,0.04601,,,,,,,,,,,,,,,,,,,,,,,,,,0,0,0,0,0
1.1742,1783185876.8878,1,1,1.0000,-0.0000,1.44682,0.23123,-2.77800,0.97595,1.57080,0.00000,-0.14512,-0.38003,0.04599,,,,,,,,,,,,,,,,,,,,,,,,,,0,0,0,0,0
1.1831,1783185876.8967,1,1,1.0000,-0.0000,1.44682,0.23113,-2.77803,0.97607,1.57080,0.00000,-0.14512,-0.38003,0.04597,,,,,,,,,,,,,,,,,,,,,,,,,,0,0,0,0,0
1.1833,1783185876.8969,1,1,1.0000,-0.0000,1.44682,0.23113,-2.77803,0.97607,1.57080,0.00000,-0.14512,-0.38003,0.04597,,,,,,,,,,,,,,,,,,,,,,,,,,0,0,0,0,0
1.1989,1783185876.9125,1,1,1.0000,-0.0000,1.44682,0.23102,-2.77806,0.97620,1.57080,0.00000,-0.14512,-0.38003,0.04594,,,,,,,,,,,,,,,,,,,,,,,,,,0,0,0,0,0
1.2035,1783185876.9171,1,1,1.0000,-0.0000,1.44682,0.23100,-2.77806,0.97623,1.57080,0.00000,-0.14512,-0.38003,0.04593,,,,,,,,,,,,,,,,,,,,,,,,,,0,0,0,0,0
1.2127,1783185876.9263,1,1,1.0000,-0.0000,1.44682,0.23094,-2.77808,0.97631,1.57080,0.00000,-0.14512,-0.38003,0.04592,,,,,,,,,,,,,,,,,,,,,,,,,,0,0,0,0,0
1.2264,1783185876.9400,1,1,1.0000,-0.0000,1.44682,0.23085,-2.77810,0.97642,1.57080,0.00000,-0.14512,-0.38003,0.04589,,,,,,,,,,,,,,,,,,,,,,,,,,0,0,0,0,0
1.2344,1783185876.9480,1,1,1.0000,-0.0000,1.44682,0.23079,-2.77812,0.97650,1.57080,0.00000,-0.14512,-0.38003,0.04588,,,,,,,,,,,,,,,,,,,,,,,,,,0,0,0,0,0
1.2433,1783185876.9569,1,1,1.0000,-0.0000,1.44682,0.23069,-2.77814,0.97663,1.57080,0.00000,-0.14512,-0.38003,0.04585,,,,,,,,,,,,,,,,,,,,,,,,,,0,0,0,0,0
1.2524,1783185876.9660,1,1,1.0000,-0.0000,1.44682,0.23058,-2.77817,0.97676,1.57080,0.00000,-0.14512,-0.38003,0.04582,,,,,,,,,,,,,,,,,,,,,,,,,,0,0,0,0,0
1.2626,1783185876.9762,1,1,1.0000,-0.0000,1.44682,0.23056,-2.77818,0.97679,1.57080,0.00000,-0.14512,-0.38003,0.04582,,,,,,,,,,,,,,,,,,,,,,,,,,0,0,0,0,0
1.2629,1783185876.9765,1,1,1.0000,-0.0000,1.44682,0.23056,-2.77818,0.97679,1.57080,0.00000,-0.14512,-0.38003,0.04582,,,,,,,,,,,,,,,,,,,,,,,,,,0,0,0,0,0
1.2749,1783185876.9885,1,1,1.0000,-0.0000,1.44682,0.23046,-2.77820,0.97692,1.57080,0.00000,-0.14512,-0.38003,0.04579,,,,,,,,,,,,,,,,,,,,,,,,,,0,0,0,0,0
1.2822,1783185876.9958,1,1,1.0000,-0.0000,1.44682,0.23041,-2.77821,0.97697,1.57080,0.00000,-0.14512,-0.38003,0.04578,,,,,,,,,,,,,,,,,,,,,,,,,,0,0,0,0,0
1.2824,1783185876.9961,1,1,1.0000,-0.0000,1.44682,0.23041,-2.77821,0.97697,1.57080,0.00000,-0.14512,-0.38003,0.04578,,,,,,,,,,,,,,,,,,,,,,,,,,0,0,0,0,0
1.2945,1783185877.0081,1,1,1.0000,-0.0000,1.44682,0.23034,-2.77823,0.97706,1.57080,0.00000,-0.14512,-0.38003,0.04576,,,,,,,,,,,,,,,,,,,,,,,,,,0,0,0,0,0
1.2948,1783185877.0084,1,1,1.0000,-0.0000,1.44682,0.23034,-2.77823,0.97706,1.57080,0.00000,-0.14512,-0.38003,0.04576,,,,,,,,,,,,,,,,,,,,,,,,,,0,0,0,0,0
1.3029,1783185877.0165,1,1,1.0000,-0.0000,1.44682,0.23024,-2.77826,0.97719,1.57080,0.00000,-0.14512,-0.38003,0.04573,,,,,,,,,,,,,,,,,,,,,,,,,,0,0,0,0,0
1.3128,1783185877.0264,1,1,1.0000,-0.0000,1.44682,0.23014,-2.77829,0.97732,1.57080,0.00000,-0.14512,-0.38003,0.04571,,,,,,,,,,,,,,,,,,,,,,,,,,0,0,0,0,0
1.3233,1783185877.0369,1,1,1.0000,-0.0000,1.44682,0.23011,-2.77829,0.97735,1.57080,0.00000,-0.14512,-0.38003,0.04570,,,,,,,,,,,,,,,,,,,,,,,,,,0,0,0,0,0
1.3322,1783185877.0458,1,1,1.0000,-0.0000,1.44682,0.23005,-2.77831,0.97743,1.57080,0.00000,-0.14512,-0.38003,0.04568,,,,,,,,,,,,,,,,,,,,,,,,,,0,0,0,0,0
1.3471,1783185877.0607,1,1,1.0000,-0.0000,1.44682,0.22996,-2.77833,0.97754,1.57080,0.00000,-0.14512,-0.38003,0.04566,,,,,,,,,,,,,,,,,,,,,,,,,,0,0,0,0,0
1.3578,1783185877.0714,1,1,1.0000,-0.0000,1.44682,0.22985,-2.77836,0.97768,1.57080,0.00000,-0.14512,-0.38003,0.04563,,,,,,,,,,,,,,,,,,,,,,,,,,0,0,0,0,0
1.3581,1783185877.0717,1,1,1.0000,-0.0000,1.44682,0.22985,-2.77836,0.97768,1.57080,0.00000,-0.14512,-0.38003,0.04563,,,,,,,,,,,,,,,,,,,,,,,,,,0,0,0,0,0
1.3677,1783185877.0813,1,1,1.0000,-0.0000,1.44682,0.22974,-2.77839,0.97781,1.57080,0.00000,-0.14512,-0.38003,0.04560,,,,,,,,,,,,,,,,,,,,,,,,,,0,0,0,0,0
1.3725,1783185877.0861,1,1,1.0000,-0.0000,1.44682,0.22969,-2.77840,0.97788,1.57080,0.00000,-0.14512,-0.38003,0.04559,,,,,,,,,,,,,,,,,,,,,,,,,,0,0,0,0,0
1.3919,1783185877.1055,1,1,1.0000,-0.0000,1.44682,0.22960,-2.77842,0.97799,1.57080,0.00000,-0.14512,-0.38003,0.04557,,,,,,,,,,,,,,,,,,,,,,,,,,0,0,0,0,0
1.3926,1783185877.1062,1,1,1.0000,-0.0000,1.44682,0.22960,-2.77842,0.97799,1.57080,0.00000,-0.14512,-0.38003,0.04557,,,,,,,,,,,,,,,,,,,,,,,,,,0,0,0,0,0
1.3928,1783185877.1064,1,1,1.0000,-0.0000,1.44682,0.22960,-2.77842,0.97799,1.57080,0.00000,-0.14512,-0.38003,0.04557,,,,,,,,,,,,,,,,,,,,,,,,,,0,0,0,0,0
1.4051,1783185877.1187,1,1,1.0000,-0.0000,1.44682,0.22952,-2.77844,0.97809,1.57080,0.00000,-0.14512,-0.38003,0.04555,,,,,,,,,,,,,,,,,,,,,,,,,,0,0,0,0,0
1.4127,1783185877.1264,1,1,1.0000,-0.0000,1.44682,0.22948,-2.77845,0.97814,1.57080,0.00000,-0.14512,-0.38003,0.04554,,,,,,,,,,,,,,,,,,,,,,,,,,0,0,0,0,0
1.4242,1783185877.1378,1,1,1.0000,-0.0000,1.44682,0.22935,-2.77849,0.97831,1.57080,0.00000,-0.14512,-0.38003,0.04550,,,,,,,,,,,,,,,,,,,,,,,,,,0,0,0,0,0
1.4324,1783185877.1460,1,1,1.0000,-0.0000,1.44682,0.22924,-2.77851,0.97844,1.57080,0.00000,-0.14512,-0.38003,0.04547,,,,,,,,,,,,,,,,,,,,,,,,,,0,0,0,0,0
1.4468,1783185877.1604,1,1,1.0000,-0.0000,1.44682,0.22919,-2.77853,0.97850,1.57080,0.00000,-0.14512,-0.38003,0.04546,,,,,,,,,,,,,,,,,,,,,,,,,,0,0,0,0,0
1.4563,1783185877.1699,1,1,1.0000,-0.0000,1.44682,0.22912,-2.77855,0.97860,1.57080,0.00000,-0.14512,-0.38003,0.04544,,,,,,,,,,,,,,,,,,,,,,,,,,0,0,0,0,0
1.4675,1783185877.1812,1,1,1.0000,-0.0000,1.44682,0.22906,-2.77856,0.97867,1.57080,0.00000,-0.14512,-0.38003,0.04543,,,,,,,,,,,,,,,,,,,,,,,,,,0,0,0,0,0
1.4727,1783185877.1863,1,1,1.0000,-0.0000,1.44682,0.22904,-2.77857,0.97870,1.57080,0.00000,-0.14512,-0.38003,0.04542,,,,,,,,,,,,,,,,,,,,,,,,,,0,0,0,0,0
1.4818,1783185877.1954,1,1,1.0000,-0.0000,1.44682,0.22890,-2.77860,0.97887,1.57080,0.00000,-0.14512,-0.38003,0.04539,,,,,,,,,,,,,,,,,,,,,,,,,,0,0,0,0,0
1.4938,1783185877.2074,1,1,1.0000,-0.0000,1.44682,0.22880,-2.77863,0.97900,1.57080,0.00000,-0.14512,-0.38003,0.04536,,,,,,,,,,,,,,,,,,,,,,,,,,0,0,0,0,0
1.5062,1783185877.2198,1,1,1.0000,-0.0000,1.44682,0.22874,-2.77864,0.97907,1.57080,0.00000,-0.14512,-0.38003,0.04534,,,,,,,,,,,,,,,,,,,,,,,,,,0,0,0,0,0
1.5121,1783185877.2257,1,1,1.0000,-0.0000,1.44682,0.22871,-2.77865,0.97911,1.57080,0.00000,-0.14512,-0.38003,0.04534,,,,,,,,,,,,,,,,,,,,,,,,,,0,0,0,0,0
1.5234,1783185877.2371,1,1,1.0000,-0.0000,1.44682,0.22862,-2.77867,0.97922,1.57080,0.00000,-0.14512,-0.38003,0.04531,,,,,,,,,,,,,,,,,,,,,,,,,,0,0,0,0,0
1.5334,1783185877.2470,1,1,1.0000,-0.0000,1.44682,0.22859,-2.77868,0.97926,1.57080,0.00000,-0.14512,-0.38003,0.04530,,,,,,,,,,,,,,,,,,,,,,,,,,0,0,0,0,0
1.5441,1783185877.2577,1,1,1.0000,-0.0000,1.44682,0.22845,-2.77872,0.97943,1.57080,0.00000,-0.14512,-0.38003,0.04527,,,,,,,,,,,,,,,,,,,,,,,,,,0,0,0,0,0
1.5549,1783185877.2685,1,1,1.0000,-0.0000,1.44682,0.22835,-2.77874,0.97956,1.57080,0.00000,-0.14512,-0.38003,0.04524,,,,,,,,,,,,,,,,,,,,,,,,,,0,0,0,0,0
1.5552,1783185877.2688,1,1,1.0000,-0.0000,1.44682,0.22835,-2.77874,0.97956,1.57080,0.00000,-0.14512,-0.38003,0.04524,,,,,,,,,,,,,,,,,,,,,,,,,,0,0,0,0,0
1.5738,1783185877.2874,1,1,1.0000,-0.0000,1.44682,0.22818,-2.77878,0.97977,1.57080,0.00000,-0.14512,-0.38003,0.04520,,,,,,,,,,,,,,,,,,,,,,,,,,0,0,0,0,0
1.5740,1783185877.2876,1,1,1.0000,-0.0000,1.44682,0.22818,-2.77878,0.97977,1.57080,0.00000,-0.14512,-0.38003,0.04520,,,,,,,,,,,,,,,,,,,,,,,,,,0,0,0,0,0
1.5830,1783185877.2966,1,1,1.0000,-0.0000,1.44682,0.22813,-2.77880,0.97984,1.57080,0.00000,-0.14512,-0.38003,0.04519,,,,,,,,,,,,,,,,,,,,,,,,,,0,0,0,0,0
1.5929,1783185877.3065,1,1,1.0000,-0.0000,1.44682,0.22810,-2.77881,0.97988,1.57080,0.00000,-0.14512,-0.38003,0.04518,,,,,,,,,,,,,,,,,,,,,,,,,,0,0,0,0,0
1.6391,1783185877.3527,1,1,1.0000,-0.0000,1.44682,0.22764,-2.77892,0.98045,1.57080,0.00000,-0.14512,-0.38003,0.04506,,,,,,,,,,,,,,,,,,,,,,,,,,0,0,0,0,0
1.6395,1783185877.3531,1,1,1.0000,-0.0000,1.44682,0.22764,-2.77892,0.98045,1.57080,0.00000,-0.14512,-0.38003,0.04506,,,,,,,,,,,,,,,,,,,,,,,,,,0,0,0,0,0
1.6400,1783185877.3536,1,1,1.0000,-0.0000,1.44682,0.22764,-2.77892,0.98045,1.57080,0.00000,-0.14512,-0.38003,0.04506,,,,,,,,,,,,,,,,,,,,,,,,,,0,0,0,0,0
1.6426,1783185877.3563,1,1,1.0000,-0.0000,1.44682,0.22764,-2.77892,0.98045,1.57080,0.00000,-0.14512,-0.38003,0.04506,,,,,,,,,,,,,,,,,,,,,,,,,,0,0,0,0,0
1.6431,1783185877.3567,1,1,1.0000,-0.0000,1.44682,0.22764,-2.77892,0.98045,1.57080,0.00000,-0.14512,-0.38003,0.04506,,,,,,,,,,,,,,,,,,,,,,,,,,0,0,0,0,0
1.6561,1783185877.3697,1,1,1.0000,-0.0000,1.44682,0.22757,-2.77894,0.98054,1.57080,0.00000,-0.14512,-0.38003,0.04504,,,,,,,,,,,,,,,,,,,,,,,,,,0,0,0,0,0
1.6565,1783185877.3701,1,1,1.0000,-0.0000,1.44682,0.22757,-2.77894,0.98054,1.57080,0.00000,-0.14512,-0.38003,0.04504,,,,,,,,,,,,,,,,,,,,,,,,,,0,0,0,0,0
1.6637,1783185877.3774,1,1,1.0000,-0.0000,1.44682,0.22748,-2.77896,0.98066,1.57080,0.00000,-0.14512,-0.38003,0.04502,,,,,,,,,,,,,,,,,,,,,,,,,,0,0,0,0,0
1.6724,1783185877.3860,1,1,1.0000,-0.0000,1.44682,0.22737,-2.77899,0.98079,1.57080,0.00000,-0.14512,-0.38003,0.04499,,,,,,,,,,,,,,,,,,,,,,,,,,0,0,0,0,0
1.6844,1783185877.3980,1,1,1.0000,-0.0000,1.44682,0.22734,-2.77900,0.98083,1.57080,0.00000,-0.14512,-0.38003,0.04498,,,,,,,,,,,,,,,,,,,,,,,,,,0,0,0,0,0
1.6962,1783185877.4098,1,1,1.0000,-0.0000,1.44682,0.22720,-2.77903,0.98100,1.57080,0.00000,-0.14512,-0.38003,0.04495,,,,,,,,,,,,,,,,,,,,,,,,,,0,0,0,0,0
1.7020,1783185877.4156,1,1,1.0000,-0.0000,1.44682,0.22715,-2.77905,0.98106,1.57080,0.00000,-0.14512,-0.38003,0.04493,,,,,,,,,,,,,,,,,,,,,,,,,,0,0,0,0,0
1.7024,1783185877.4160,1,1,1.0000,-0.0000,1.44682,0.22715,-2.77905,0.98106,1.57080,0.00000,-0.14512,-0.38003,0.04493,,,,,,,,,,,,,,,,,,,,,,,,,,0,0,0,0,0
1.7131,1783185877.4267,1,1,1.0000,-0.0000,1.44682,0.22712,-2.77905,0.98110,1.57080,0.00000,-0.14512,-0.38003,0.04492,,,,,,,,,,,,,,,,,,,,,,,,,,0,0,0,0,0
1.7222,1783185877.4358,1,1,1.0000,-0.0000,1.44682,0.22699,-2.77909,0.98127,1.57080,0.00001,-0.14512,-0.38003,0.04489,,,,,,,,,,,,,,,,,,,,,,,,,,0,0,0,0,0
1.7225,1783185877.4361,1,1,1.0000,-0.0000,1.44682,0.22699,-2.77909,0.98127,1.57080,0.00001,-0.14512,-0.38003,0.04489,,,,,,,,,,,,,,,,,,,,,,,,,,0,0,0,0,0
1.7320,1783185877.4456,1,1,1.0000,-0.0000,1.44682,0.22688,-2.77911,0.98140,1.57080,0.00001,-0.14512,-0.38003,0.04486,,,,,,,,,,,,,,,,,,,,,,,,,,0,0,0,0,0
1.7442,1783185877.4578,1,1,1.0000,-0.0000,1.44682,0.22685,-2.77912,0.98144,1.57080,0.00001,-0.14512,-0.38003,0.04485,,,,,,,,,,,,,,,,,,,,,,,,,,0,0,0,0,0
1.7559,1783185877.4695,1,1,1.0000,-0.0000,1.44682,0.22672,-2.77916,0.98161,1.57080,0.00001,-0.14512,-0.38003,0.04482,,,,,,,,,,,,,,,,,,,,,,,,,,0,0,0,0,0
1.7625,1783185877.4761,1,1,1.0000,-0.0000,1.44682,0.22666,-2.77917,0.98168,1.57080,0.00001,-0.14512,-0.38003,0.04480,,,,,,,,,,,,,,,,,,,,,,,,,,0,0,0,0,0
1.7749,1783185877.4885,1,1,1.0000,-0.0000,1.44682,0.22659,-2.77919,0.98176,1.57080,0.00001,-0.14512,-0.38003,0.04479,,,,,,,,,,,,,,,,,,,,,,,,,,0,0,0,0,0
1.7841,1783185877.4977,1,1,1.0000,-0.0000,1.44682,0.22650,-2.77921,0.98188,1.57080,0.00001,-0.14512,-0.38003,0.04476,,,,,,,,,,,,,,,,,,,,,,,,,,0,0,0,0,0
1.7926,1783185877.5063,1,1,1.0000,-0.0000,1.44682,0.22639,-2.77924,0.98201,1.57080,0.00001,-0.14512,-0.38003,0.04473,,,,,,,,,,,,,,,,,,,,,,,,,,0,0,0,0,0
1.8067,1783185877.5203,1,1,1.0000,-0.0000,1.44682,0.22632,-2.77926,0.98210,1.57080,0.00001,-0.14512,-0.38003,0.04472,,,,,,,,,,,,,,,,,,,,,,,,,,0,0,0,0,0
1.8133,1783185877.5270,1,1,1.0000,-0.0000,1.44682,0.22628,-2.77927,0.98216,1.57080,0.00001,-0.14512,-0.38003,0.04470,,,,,,,,,,,,,,,,,,,,,,,,,,0,0,0,0,0
1.8260,1783185877.5396,1,1,1.0000,-0.0000,1.44682,0.22616,-2.77930,0.98230,1.57080,0.00001,-0.14512,-0.38003,0.04468,,,,,,,,,,,,,,,,,,,,,,,,,,0,0,0,0,0
1.8452,1783185877.5588,1,1,1.0000,-0.0000,1.44682,0.22601,-2.77934,0.98250,1.57080,0.00001,-0.14512,-0.38003,0.04463,,,,,,,,,,,,,,,,,,,,,,,,,,0,0,0,0,0
1.8571,1783185877.5707,1,1,1.0000,-0.0000,1.44682,0.22590,-2.77936,0.98263,1.57080,0.00001,-0.14512,-0.38003,0.04461,,,,,,,,,,,,,,,,,,,,,,,,,,0,0,0,0,0
1.8696,1783185877.5832,1,1,1.0000,-0.0000,1.44682,0.22583,-2.77938,0.98272,1.57080,0.00001,-0.14512,-0.38003,0.04459,,,,,,,,,,,,,,,,,,,,,,,,,,0,0,0,0,0
1.8801,1783185877.5937,1,1,1.0000,-0.0000,1.44682,0.22568,-2.77942,0.98290,1.57080,0.00001,-0.14512,-0.38003,0.04455,,,,,,,,,,,,,,,,,,,,,,,,,,0,0,0,0,0
1.8869,1783185877.6005,1,1,1.0000,-0.0000,1.44682,0.22568,-2.77942,0.98291,1.57080,0.00001,-0.14512,-0.38003,0.04455,,,,,,,,,,,,,,,,,,,,,,,,,,0,0,0,0,0
1.8925,1783185877.6062,1,1,1.0000,-0.0000,1.44682,0.22565,-2.77943,0.98294,1.57080,0.00001,-0.14512,-0.38003,0.04454,,,,,,,,,,,,,,,,,,,,,,,,,,0,0,0,0,0
1.8930,1783185877.6066,1,1,1.0000,-0.0000,1.44682,0.22565,-2.77943,0.98294,1.57080,0.00001,-0.14512,-0.38003,0.04454,,,,,,,,,,,,,,,,,,,,,,,,,,0,0,0,0,0
1.9021,1783185877.6157,1,1,1.0000,-0.0000,1.44682,0.22552,-2.77946,0.98311,1.57080,0.00001,-0.14512,-0.38003,0.04451,,,,,,,,,,,,,,,,,,,,,,,,,,0,0,0,0,0
1.9184,1783185877.6320,1,1,1.0000,-0.0000,1.44682,0.22541,-2.77949,0.98325,1.57080,0.00001,-0.14512,-0.38003,0.04448,,,,,,,,,,,,,,,,,,,,,,,,,,0,0,0,0,0
1.9224,1783185877.6360,1,1,1.0000,-0.0000,1.44682,0.22538,-2.77949,0.98328,1.57080,0.00001,-0.14512,-0.38003,0.04447,,,,,,,,,,,,,,,,,,,,,,,,,,0,0,0,0,0
1.9321,1783185877.6457,1,1,1.0000,-0.0000,1.44682,0.22530,-2.77952,0.98339,1.57080,0.00001,-0.14512,-0.38003,0.04445,,,,,,,,,,,,,,,,,,,,,,,,,,0,0,0,0,0
1.9324,1783185877.6461,1,1,1.0000,-0.0000,1.44682,0.22530,-2.77952,0.98339,1.57080,0.00001,-0.14512,-0.38003,0.04445,,,,,,,,,,,,,,,,,,,,,,,,,,0,0,0,0,0
1.9461,1783185877.6597,1,1,1.0000,-0.0000,1.44682,0.22514,-2.77955,0.98358,1.57080,0.00001,-0.14512,-0.38002,0.04441,,,,,,,,,,,,,,,,,,,,,,,,,,0,0,0,0,0
1.9464,1783185877.6600,1,1,1.0000,-0.0000,1.44682,0.22514,-2.77955,0.98358,1.57080,0.00001,-0.14512,-0.38002,0.04441,,,,,,,,,,,,,,,,,,,,,,,,,,0,0,0,0,0
1.9587,1783185877.6723,1,1,1.0000,-0.0000,1.44682,0.22509,-2.77957,0.98365,1.57080,0.00001,-0.14512,-0.38002,0.04440,,,,,,,,,,,,,,,,,,,,,,,,,,0,0,0,0,0
1.9624,1783185877.6760,1,1,1.0000,-0.0000,1.44682,0.22506,-2.77958,0.98369,1.57080,0.00001,-0.14512,-0.38002,0.04439,,,,,,,,,,,,,,,,,,,,,,,,,,0,0,0,0,0
1.9627,1783185877.6763,1,1,1.0000,-0.0000,1.44682,0.22506,-2.77958,0.98369,1.57080,0.00001,-0.14512,-0.38002,0.04439,,,,,,,,,,,,,,,,,,,,,,,,,,0,0,0,0,0
1.9791,1783185877.6927,1,1,1.0000,-0.0000,1.44682,0.22496,-2.77960,0.98381,1.57080,0.00001,-0.14512,-0.38002,0.04436,,,,,,,,,,,,,,,,,,,,,,,,,,0,0,0,0,0
1.9821,1783185877.6957,1,1,1.0000,-0.0000,1.44682,0.22493,-2.77961,0.98384,1.57080,0.00001,-0.14512,-0.38002,0.04436,,,,,,,,,,,,,,,,,,,,,,,,,,0,0,0,0,0
1.9824,1783185877.6960,1,1,1.0000,-0.0000,1.44682,0.22493,-2.77961,0.98384,1.57080,0.00001,-0.14512,-0.38002,0.04436,,,,,,,,,,,,,,,,,,,,,,,,,,0,0,0,0,0
1.9920,1783185877.7056,1,1,1.0000,-0.0000,1.44682,0.22485,-2.77963,0.98395,1.57080,0.00001,-0.14512,-0.38002,0.04434,,,,,,,,,,,,,,,,,,,,,,,,,,0,0,0,0,0
2.0023,1783185877.7159,1,1,1.0000,-0.0000,1.44682,0.22469,-2.77967,0.98415,1.57080,0.00001,-0.14512,-0.38002,0.04429,,,,,,,,,,,,,,,,,,,,,,,,,,0,0,0,0,0
2.0026,1783185877.7162,1,1,1.0000,-0.0000,1.44682,0.22469,-2.77967,0.98415,1.57080,0.00001,-0.14512,-0.38002,0.04429,,,,,,,,,,,,,,,,,,,,,,,,,,0,0,0,0,0
2.0122,1783185877.7259,1,1,1.0000,-0.0000,1.44682,0.22469,-2.77967,0.98415,1.57080,0.00001,-0.14512,-0.38002,0.04429,,,,,,,,,,,,,,,,,,,,,,,,,,0,0,0,0,0
2.0241,1783185877.7377,1,1,1.0000,-0.0000,1.44682,0.22461,-2.77969,0.98425,1.57080,0.00001,-0.14512,-0.38002,0.04427,,,,,,,,,,,,,,,,,,,,,,,,,,0,0,0,0,0
2.0333,1783185877.7469,1,1,1.0000,-0.0000,1.44682,0.22452,-2.77971,0.98436,1.57080,0.00001,-0.14512,-0.38002,0.04425,,,,,,,,,,,,,,,,,,,,,,,,,,0,0,0,0,0
2.0415,1783185877.7551,1,1,1.0000,-0.0000,1.44682,0.22451,-2.77971,0.98437,1.57080,0.00001,-0.14512,-0.38002,0.04425,,,,,,,,,,,,,,,,,,,,,,,,,,0,0,0,0,0
2.0520,1783185877.7657,1,1,1.0000,-0.0000,1.44682,0.22440,-2.77974,0.98451,1.57080,0.00001,-0.14512,-0.38002,0.04422,,,,,,,,,,,,,,,,,,,,,,,,,,0,0,0,0,0
2.0629,1783185877.7765,1,1,1.0000,-0.0000,1.44682,0.22424,-2.77978,0.98471,1.57080,0.00001,-0.14512,-0.38002,0.04418,,,,,,,,,,,,,,,,,,,,,,,,,,0,0,0,0,0
2.0730,1783185877.7866,1,1,1.0000,-0.0000,1.44682,0.22424,-2.77978,0.98472,1.57080,0.00001,-0.14512,-0.38002,0.04418,,,,,,,,,,,,,,,,,,,,,,,,,,0,0,0,0,0
2.0821,1783185877.7957,1,1,1.0000,-0.0000,1.44682,0.22415,-2.77980,0.98482,1.57080,0.00001,-0.14512,-0.38002,0.04416,,,,,,,,,,,,,,,,,,,,,,,,,,0,0,0,0,0
2.0920,1783185877.8056,1,1,1.0000,-0.0000,1.44682,0.22407,-2.77983,0.98492,1.57080,0.00001,-0.14512,-0.38002,0.04413,,,,,,,,,,,,,,,,,,,,,,,,,,0,0,0,0,0
2.1047,1783185877.8183,1,1,1.0000,-0.0000,1.44682,0.22403,-2.77983,0.98497,1.57080,0.00001,-0.14512,-0.38002,0.04412,,,,,,,,,,,,,,,,,,,,,,,,,,0,0,0,0,0
2.1144,1783185877.8280,1,1,1.0000,-0.0000,1.44682,0.22390,-2.77987,0.98514,1.57080,0.00001,-0.14512,-0.38002,0.04409,,,,,,,,,,,,,,,,,,,,,,,,,,0,0,0,0,0
2.1147,1783185877.8283,1,1,1.0000,-0.0000,1.44682,0.22390,-2.77987,0.98514,1.57080,0.00001,-0.14512,-0.38002,0.04409,,,,,,,,,,,,,,,,,,,,,,,,,,0,0,0,0,0
2.1238,1783185877.8374,1,1,1.0000,-0.0000,1.44682,0.22379,-2.77990,0.98527,1.57080,0.00001,-0.14512,-0.38002,0.04406,,,,,,,,,,,,,,,,,,,,,,,,,,0,0,0,0,0
2.1368,1783185877.8504,1,1,1.0000,-0.0000,1.44682,0.22377,-2.77990,0.98530,1.57080,0.00001,-0.14512,-0.38002,0.04406,,,,,,,,,,,,,,,,,,,,,,,,,,0,0,0,0,0
2.1371,1783185877.8507,1,1,1.0000,-0.0000,1.44682,0.22377,-2.77990,0.98530,1.57080,0.00001,-0.14512,-0.38002,0.04406,,,,,,,,,,,,,,,,,,,,,,,,,,0,0,0,0,0
2.1429,1783185877.8565,1,1,1.0000,-0.0000,1.44682,0.22370,-2.77992,0.98538,1.57080,0.00001,-0.14512,-0.38002,0.04404,,,,,,,,,,,,,,,,,,,,,,,,,,0,0,0,0,0
2.1433,1783185877.8569,1,1,1.0000,-0.0000,1.44682,0.22370,-2.77992,0.98538,1.57080,0.00001,-0.14512,-0.38002,0.04404,,,,,,,,,,,,,,,,,,,,,,,,,,0,0,0,0,0
2.1541,1783185877.8677,1,1,1.0000,-0.0000,1.44682,0.22362,-2.77994,0.98549,1.57080,0.00001,-0.14512,-0.38002,0.04402,,,,,,,,,,,,,,,,,,,,,,,,,,0,0,0,0,0
2.1679,1783185877.8815,1,1,1.0000,-0.0000,1.44682,0.22355,-2.77996,0.98558,1.57080,0.00001,-0.14512,-0.38002,0.04400,,,,,,,,,,,,,,,,,,,,,,,,,,0,0,0,0,0
2.1743,1783185877.8879,1,1,1.0000,-0.0000,1.44682,0.22345,-2.77998,0.98570,1.57080,0.00001,-0.14512,-0.38002,0.04397,,,,,,,,,,,,,,,,,,,,,,,,,,0,0,0,0,0
2.1843,1783185877.8979,1,1,1.0000,-0.0000,1.44682,0.22334,-2.78001,0.98584,1.57080,0.00001,-0.14512,-0.38002,0.04395,,,,,,,,,,,,,,,,,,,,,,,,,,0,0,0,0,0
2.1919,1783185877.9055,1,1,1.0000,-0.0000,1.44682,0.22333,-2.78001,0.98584,1.57080,0.00001,-0.14512,-0.38002,0.04394,,,,,,,,,,,,,,,,,,,,,,,,,,0,0,0,0,0
2.2034,1783185877.9170,1,1,1.0000,-0.0000,1.44682,0.22325,-2.78003,0.98594,1.57080,0.00001,-0.14512,-0.38002,0.04392,,,,,,,,,,,,,,,,,,,,,,,,,,0,0,0,0,0
2.2161,1783185877.9298,1,1,1.0000,-0.0000,1.44682,0.22317,-2.78005,0.98605,1.57080,0.00001,-0.14512,-0.38002,0.04390,,,,,,,,,,,,,,,,,,,,,,,,,,0,0,0,0,0
2.2230,1783185877.9366,1,1,1.0000,-0.0000,1.44682,0.22313,-2.78006,0.98609,1.57080,0.00001,-0.14512,-0.38002,0.04389,,,,,,,,,,,,,,,,,,,,,,,,,,0,0,0,0,0
2.2330,1783185877.9466,1,1,1.0000,-0.0000,1.44682,0.22305,-2.78008,0.98620,1.57080,0.00001,-0.14512,-0.38002,0.04387,,,,,,,,,,,,,,,,,,,,,,,,,,0,0,0,0,0
2.2333,1783185877.9470,1,1,1.0000,-0.0000,1.44682,0.22305,-2.78008,0.98620,1.57080,0.00001,-0.14512,-0.38002,0.04387,,,,,,,,,,,,,,,,,,,,,,,,,,0,0,0,0,0
2.2420,1783185877.9556,1,1,1.0000,-0.0000,1.44682,0.22289,-2.78012,0.98640,1.57080,0.00001,-0.14512,-0.38002,0.04383,,,,,,,,,,,,,,,,,,,,,,,,,,0,0,0,0,0
2.2520,1783185877.9656,1,1,1.0000,-0.0000,1.44682,0.22288,-2.78012,0.98641,1.57080,0.00001,-0.14512,-0.38002,0.04383,,,,,,,,,,,,,,,,,,,,,,,,,,0,0,0,0,0
2.2524,1783185877.9661,1,1,1.0000,-0.0000,1.44682,0.22288,-2.78012,0.98641,1.57080,0.00001,-0.14512,-0.38002,0.04383,,,,,,,,,,,,,,,,,,,,,,,,,,0,0,0,0,0
2.2649,1783185877.9785,1,1,1.0000,-0.0000,1.44682,0.22280,-2.78014,0.98651,1.57080,0.00001,-0.14512,-0.38002,0.04381,,,,,,,,,,,,,,,,,,,,,,,,,,0,0,0,0,0
2.2728,1783185877.9865,1,1,1.0000,-0.0000,1.44681,0.22272,-2.78016,0.98662,1.57080,0.00001,-0.14512,-0.38002,0.04378,,,,,,,,,,,,,,,,,,,,,,,,,,0,0,0,0,0
2.2893,1783185878.0029,1,1,1.0000,-0.0000,1.44681,0.22264,-2.78018,0.98671,1.57080,0.00001,-0.14512,-0.38002,0.04377,,,,,,,,,,,,,,,,,,,,,,,,,,0,0,0,0,0
2.2917,1783185878.0053,1,1,1.0000,-0.0000,1.44681,0.22260,-2.78019,0.98677,1.57080,0.00001,-0.14512,-0.38002,0.04375,,,,,,,,,,,,,,,,,,,,,,,,,,0,0,0,0,0
2.2921,1783185878.0057,1,1,1.0000,-0.0000,1.44681,0.22260,-2.78019,0.98677,1.57080,0.00001,-0.14512,-0.38002,0.04375,,,,,,,,,,,,,,,,,,,,,,,,,,0,0,0,0,0
2.3037,1783185878.0173,1,1,1.0000,-0.0000,1.44681,0.22244,-2.78023,0.98696,1.57080,0.00001,-0.14512,-0.38002,0.04371,,,,,,,,,,,,,,,,,,,,,,,,,,0,0,0,0,0
2.3041,1783185878.0177,1,1,1.0000,-0.0000,1.44681,0.22244,-2.78023,0.98696,1.57080,0.00001,-0.14512,-0.38002,0.04371,,,,,,,,,,,,,,,,,,,,,,,,,,0,0,0,0,0
2.3128,1783185878.0264,1,1,1.0000,-0.0000,1.44681,0.22243,-2.78024,0.98697,1.57080,0.00001,-0.14512,-0.38002,0.04371,,,,,,,,,,,,,,,,,,,,,,,,,,0,0,0,0,0
2.3131,1783185878.0267,1,1,1.0000,-0.0000,1.44681,0.22243,-2.78024,0.98697,1.57080,0.00001,-0.14512,-0.38002,0.04371,,,,,,,,,,,,,,,,,,,,,,,,,,0,0,0,0,0
2.3253,1783185878.0389,1,1,1.0000,-0.0000,1.44681,0.22235,-2.78026,0.98707,1.57080,0.00001,-0.14512,-0.38002,0.04369,,,,,,,,,,,,,,,,,,,,,,,,,,0,0,0,0,0
2.3259,1783185878.0395,1,1,1.0000,-0.0000,1.44681,0.22231,-2.78027,0.98712,1.57080,0.00001,-0.14512,-0.38002,0.04368,,,,,,,,,,,,,,,,,,,,,,,,,,0,0,0,0,0
2.3356,1783185878.0493,1,1,1.0000,-0.0000,1.44681,0.22227,-2.78028,0.98718,1.57080,0.00001,-0.14512,-0.38002,0.04367,,,,,,,,,,,,,,,,,,,,,,,,,,0,0,0,0,0
2.3361,1783185878.0497,1,1,1.0000,-0.0000,1.44681,0.22227,-2.78028,0.98718,1.57080,0.00001,-0.14512,-0.38002,0.04367,,,,,,,,,,,,,,,,,,,,,,,,,,0,0,0,0,0
2.3436,1783185878.0573,1,1,1.0000,-0.0000,1.44681,0.22223,-2.78029,0.98722,1.57080,0.00001,-0.14512,-0.38002,0.04366,,,,,,,,,,,,,,,,,,,,,,,,,,0,0,0,0,0
2.3441,1783185878.0577,1,1,1.0000,-0.0000,1.44681,0.22223,-2.78029,0.98722,1.57080,0.00001,-0.14512,-0.38002,0.04366,,,,,,,,,,,,,,,,,,,,,,,,,,0,0,0,0,0
2.3531,1783185878.0667,1,1,1.0000,-0.0000,1.44681,0.22214,-2.78031,0.98733,1.57080,0.00001,-0.14512,-0.38002,0.04364,,,,,,,,,,,,,,,,,,,,,,,,,,0,0,0,0,0
2.3627,1783185878.0763,1,1,1.0000,-0.0000,1.44681,0.22199,-2.78035,0.98753,1.57080,0.00001,-0.14512,-0.38002,0.04360,,,,,,,,,,,,,,,,,,,,,,,,,,0,0,0,0,0
2.3734,1783185878.0870,1,1,1.0000,-0.0000,1.44681,0.22198,-2.78035,0.98754,1.57080,0.00001,-0.14512,-0.38002,0.04359,,,,,,,,,,,,,,,,,,,,,,,,,,0,0,0,0,0
2.3863,1783185878.0999,1,1,1.0000,-0.0000,1.44681,0.22182,-2.78039,0.98774,1.57080,0.00001,-0.14512,-0.38002,0.04355,,,,,,,,,,,,,,,,,,,,,,,,,,0,0,0,0,0
2.3917,1783185878.1053,1,1,1.0000,-0.0000,1.44681,0.22177,-2.78040,0.98781,1.57080,0.00001,-0.14512,-0.38002,0.04354,,,,,,,,,,,,,,,,,,,,,,,,,,0,0,0,0,0
2.3921,1783185878.1057,1,1,1.0000,-0.0000,1.44681,0.22177,-2.78040,0.98781,1.57080,0.00001,-0.14512,-0.38002,0.04354,,,,,,,,,,,,,,,,,,,,,,,,,,0,0,0,0,0
2.4034,1783185878.1171,1,1,1.0000,-0.0000,1.44681,0.22173,-2.78041,0.98785,1.57080,0.00001,-0.14512,-0.38002,0.04353,,,,,,,,,,,,,,,,,,,,,,,,,,0,0,0,0,0
2.4128,1783185878.1264,1,1,1.0000,-0.0000,1.44681,0.22165,-2.78043,0.98795,1.57080,0.00001,-0.14512,-0.38002,0.04351,,,,,,,,,,,,,,,,,,,,,,,,,,0,0,0,0,0
2.4132,1783185878.1268,1,1,1.0000,-0.0000,1.44681,0.22165,-2.78043,0.98795,1.57080,0.00001,-0.14512,-0.38002,0.04351,,,,,,,,,,,,,,,,,,,,,,,,,,0,0,0,0,0
2.4221,1783185878.1357,1,1,1.0000,-0.0000,1.44681,0.22149,-2.78047,0.98814,1.57080,0.00001,-0.14512,-0.38002,0.04347,,,,,,,,,,,,,,,,,,,,,,,,,,0,0,0,0,0
2.4364,1783185878.1500,1,1,1.0000,-0.0000,1.44681,0.22146,-2.78048,0.98819,1.57080,0.00001,-0.14512,-0.38002,0.04346,,,,,,,,,,,,,,,,,,,,,,,,,,0,0,0,0,0
2.4468,1783185878.1604,1,1,1.0000,-0.0000,1.44681,0.22133,-2.78051,0.98835,1.57080,0.00001,-0.14512,-0.38002,0.04343,,,,,,,,,,,,,,,,,,,,,,,,,,0,0,0,0,0
2.4559,1783185878.1695,1,1,1.0000,-0.0000,1.44681,0.22127,-2.78053,0.98842,1.57080,0.00001,-0.14512,-0.38002,0.04341,,,,,,,,,,,,,,,,,,,,,,,,,,0,0,0,0,0
2.4753,1783185878.1889,1,1,1.0000,-0.0000,1.44681,0.22110,-2.78057,0.98863,1.57080,0.00001,-0.14512,-0.38002,0.04337,,,,,,,,,,,,,,,,,,,,,,,,,,0,0,0,0,0
2.4760,1783185878.1896,1,1,1.0000,-0.0000,1.44681,0.22110,-2.78057,0.98863,1.57080,0.00001,-0.14512,-0.38002,0.04337,,,,,,,,,,,,,,,,,,,,,,,,,,0,0,0,0,0
2.4763,1783185878.1899,1,1,1.0000,-0.0000,1.44681,0.22110,-2.78057,0.98863,1.57080,0.00001,-0.14512,-0.38002,0.04337,,,,,,,,,,,,,,,,,,,,,,,,,,0,0,0,0,0
2.4861,1783185878.1997,1,1,1.0000,-0.0000,1.44681,0.22100,-2.78059,0.98876,1.57080,0.00001,-0.14512,-0.38002,0.04334,,,,,,,,,,,,,,,,,,,,,,,,,,0,0,0,0,0
2.4958,1783185878.2095,1,1,1.0000,-0.0000,1.44681,0.22097,-2.78060,0.98880,1.57080,0.00001,-0.14512,-0.38002,0.04333,,,,,,,,,,,,,,,,,,,,,,,,,,0,0,0,0,0
2.5026,1783185878.2162,1,1,1.0000,-0.0000,1.44681,0.22088,-2.78062,0.98891,1.57080,0.00001,-0.14512,-0.38002,0.04331,,,,,,,,,,,,,,,,,,,,,,,,,,0,0,0,0,0
2.5144,1783185878.2280,1,1,1.0000,-0.0000,1.44681,0.22078,-2.78065,0.98904,1.57080,0.00001,-0.14512,-0.38002,0.04329,,,,,,,,,,,,,,,,,,,,,,,,,,0,0,0,0,0
2.5234,1783185878.2370,1,1,1.0000,-0.0000,1.44681,0.22075,-2.78066,0.98908,1.57080,0.00001,-0.14512,-0.38002,0.04328,,,,,,,,,,,,,,,,,,,,,,,,,,0,0,0,0,0
2.5237,1783185878.2373,1,1,1.0000,-0.0000,1.44681,0.22075,-2.78066,0.98908,1.57080,0.00001,-0.14512,-0.38002,0.04328,,,,,,,,,,,,,,,,,,,,,,,,,,0,0,0,0,0
2.5342,1783185878.2478,1,1,1.0000,-0.0000,1.44681,0.22061,-2.78069,0.98925,1.57080,0.00001,-0.14512,-0.38002,0.04324,,,,,,,,,,,,,,,,,,,,,,,,,,0,0,0,0,0
2.5445,1783185878.2581,1,1,1.0000,-0.0000,1.44681,0.22051,-2.78072,0.98938,1.57080,0.00001,-0.14512,-0.38002,0.04322,,,,,,,,,,,,,,,,,,,,,,,,,,0,0,0,0,0
2.5448,1783185878.2584,1,1,1.0000,-0.0000,1.44681,0.22051,-2.78072,0.98938,1.57080,0.00001,-0.14512,-0.38002,0.04322,,,,,,,,,,,,,,,,,,,,,,,,,,0,0,0,0,0
2.5537,1783185878.2673,1,1,1.0000,-0.0000,1.44681,0.22050,-2.78072,0.98939,1.57080,0.00001,-0.14512,-0.38002,0.04321,,,,,,,,,,,,,,,,,,,,,,,,,,0,0,0,0,0
2.5643,1783185878.2779,1,1,1.0000,-0.0000,1.44681,0.22039,-2.78075,0.98952,1.57080,0.00001,-0.14512,-0.38002,0.04319,,,,,,,,,,,,,,,,,,,,,,,,,,0,0,0,0,0
2.5742,1783185878.2878,1,1,1.0000,-0.0000,1.44681,0.22029,-2.78077,0.98965,1.57080,0.00001,-0.14512,-0.38002,0.04316,,,,,,,,,,,,,,,,,,,,,,,,,,0,0,0,0,0
2.5861,1783185878.2997,1,1,1.0000,-0.0000,1.44681,0.22021,-2.78079,0.98974,1.57080,0.00001,-0.14512,-0.38002,0.04314,,,,,,,,,,,,,,,,,,,,,,,,,,0,0,0,0,0
2.5967,1783185878.3103,1,1,1.0000,-0.0000,1.44681,0.22012,-2.78081,0.98986,1.57080,0.00001,-0.14512,-0.38002,0.04312,,,,,,,,,,,,,,,,,,,,,,,,,,0,0,0,0,0
2.6028,1783185878.3164,1,1,1.0000,-0.0000,1.44681,0.22001,-2.78084,0.98999,1.57080,0.00001,-0.14512,-0.38002,0.04309,,,,,,,,,,,,,,,,,,,,,,,,,,0,0,0,0,0
2.6031,1783185878.3167,1,1,1.0000,-0.0000,1.44681,0.22001,-2.78084,0.98999,1.57080,0.00001,-0.14512,-0.38002,0.04309,,,,,,,,,,,,,,,,,,,,,,,,,,0,0,0,0,0
2.6126,1783185878.3262,1,1,1.0000,-0.0000,1.44681,0.22000,-2.78084,0.99000,1.57080,0.00001,-0.14512,-0.38002,0.04309,,,,,,,,,,,,,,,,,,,,,,,,,,0,0,0,0,0
2.6130,1783185878.3266,1,1,1.0000,-0.0000,1.44681,0.22000,-2.78084,0.99000,1.57080,0.00001,-0.14512,-0.38002,0.04309,,,,,,,,,,,,,,,,,,,,,,,,,,0,0,0,0,0
2.6221,1783185878.3357,1,1,1.0000,-0.0000,1.44681,0.21990,-2.78087,0.99014,1.57080,0.00001,-0.14512,-0.38002,0.04306,,,,,,,,,,,,,,,,,,,,,,,,,,0,0,0,0,0
2.6349,1783185878.3485,1,1,1.0000,-0.0000,1.44681,0.21979,-2.78089,0.99027,1.57080,0.00001,-0.14512,-0.38002,0.04303,,,,,,,,,,,,,,,,,,,,,,,,,,0,0,0,0,0
2.6422,1783185878.3558,1,1,1.0000,-0.0000,1.44681,0.21976,-2.78090,0.99031,1.57080,0.00001,-0.14512,-0.38002,0.04302,,,,,,,,,,,,,,,,,,,,,,,,,,0,0,0,0,0
2.6518,1783185878.3655,1,1,1.0000,-0.0000,1.44681,0.21967,-2.78092,0.99042,1.57080,0.00001,-0.14512,-0.38002,0.04300,,,,,,,,,,,,,,,,,,,,,,,,,,0,0,0,0,0
2.6522,1783185878.3659,1,1,1.0000,-0.0000,1.44681,0.21967,-2.78092,0.99042,1.57080,0.00001,-0.14512,-0.38002,0.04300,,,,,,,,,,,,,,,,,,,,,,,,,,0,0,0,0,0
2.6636,1783185878.3772,1,1,1.0000,-0.0000,1.44681,0.21952,-2.78096,0.99061,1.57080,0.00001,-0.14512,-0.38002,0.04296,,,,,,,,,,,,,,,,,,,,,,,,,,0,0,0,0,0
2.6757,1783185878.3893,1,1,1.0000,-0.0000,1.44681,0.21948,-2.78097,0.99065,1.57080,0.00001,-0.14512,-0.38002,0.04295,,,,,,,,,,,,,,,,,,,,,,,,,,0,0,0,0,0
2.6856,1783185878.3992,1,1,1.0000,-0.0000,1.44681,0.21940,-2.78099,0.99076,1.57080,0.00001,-0.14512,-0.38002,0.04293,,,,,,,,,,,,,,,,,,,,,,,,,,0,0,0,0,0
2.6862,1783185878.3998,1,1,1.0000,-0.0000,1.44681,0.21935,-2.78100,0.99082,1.57080,0.00001,-0.14512,-0.38002,0.04292,,,,,,,,,,,,,,,,,,,,,,,,,,0,0,0,0,0
2.6993,1783185878.4129,1,1,1.0000,-0.0000,1.44681,0.21925,-2.78103,0.99095,1.57080,0.00001,-0.14512,-0.38002,0.04289,,,,,,,,,,,,,,,,,,,,,,,,,,0,0,0,0,0
2.7037,1783185878.4173,1,1,1.0000,-0.0000,1.44681,0.21924,-2.78103,0.99096,1.57080,0.00001,-0.14512,-0.38002,0.04289,,,,,,,,,,,,,,,,,,,,,,,,,,0,0,0,0,0
2.7117,1783185878.4254,1,1,1.0000,-0.0000,1.44681,0.21919,-2.78104,0.99102,1.57080,0.00001,-0.14512,-0.38002,0.04288,,,,,,,,,,,,,,,,,,,,,,,,,,0,0,0,0,0
2.7121,1783185878.4257,1,1,1.0000,-0.0000,1.44681,0.21919,-2.78104,0.99102,1.57080,0.00001,-0.14512,-0.38002,0.04288,,,,,,,,,,,,,,,,,,,,,,,,,,0,0,0,0,0
2.7243,1783185878.4379,1,1,1.0000,-0.0000,1.44681,0.21907,-2.78107,0.99117,1.57080,0.00001,-0.14512,-0.38002,0.04285,,,,,,,,,,,,,,,,,,,,,,,,,,0,0,0,0,0
2.7375,1783185878.4511,1,1,1.0000,-0.0000,1.44681,0.21904,-2.78108,0.99121,1.57080,0.00001,-0.14512,-0.38002,0.04284,,,,,,,,,,,,,,,,,,,,,,,,,,0,0,0,0,0
2.7425,1783185878.4561,1,1,1.0000,-0.0000,1.44681,0.21895,-2.78110,0.99132,1.57080,0.00001,-0.14512,-0.38002,0.04282,,,,,,,,,,,,,,,,,,,,,,,,,,0,0,0,0,0
2.7428,1783185878.4564,1,1,1.0000,-0.0000,1.44681,0.21895,-2.78110,0.99132,1.57080,0.00001,-0.14512,-0.38002,0.04282,,,,,,,,,,,,,,,,,,,,,,,,,,0,0,0,0,0
2.7521,1783185878.4657,1,1,1.0000,-0.0000,1.44681,0.21884,-2.78113,0.99145,1.57080,0.00001,-0.14512,-0.38002,0.04279,,,,,,,,,,,,,,,,,,,,,,,,,,0,0,0,0,0
2.7636,1783185878.4772,1,1,1.0000,-0.0000,1.44681,0.21881,-2.78114,0.99150,1.57080,0.00001,-0.14512,-0.38002,0.04278,,,,,,,,,,,,,,,,,,,,,,,,,,0,0,0,0,0
2.7722,1783185878.4858,1,1,1.0000,-0.0000,1.44681,0.21873,-2.78116,0.99160,1.57080,0.00001,-0.14512,-0.38002,0.04276,,,,,,,,,,,,,,,,,,,,,,,,,,0,0,0,0,0
2.7828,1783185878.4964,1,1,1.0000,-0.0000,1.44681,0.21857,-2.78120,0.99179,1.57080,0.00001,-0.14512,-0.38002,0.04272,,,,,,,,,,,,,,,,,,,,,,,,,,0,0,0,0,0
2.7989,1783185878.5125,1,1,1.0000,-0.0000,1.44681,0.21850,-2.78121,0.99188,1.57080,0.00001,-0.14512,-0.38002,0.04270,,,,,,,,,,,,,,,,,,,,,,,,,,0,0,0,0,0
2.8026,1783185878.5162,1,1,1.0000,-0.0000,1.44681,0.21845,-2.78123,0.99194,1.57080,0.00001,-0.14512,-0.38002,0.04269,,,,,,,,,,,,,,,,,,,,,,,,,,0,0,0,0,0
2.8119,1783185878.5255,1,1,1.0000,-0.0000,1.44681,0.21835,-2.78125,0.99207,1.57080,0.00001,-0.14512,-0.38002,0.04266,,,,,,,,,,,,,,,,,,,,,,,,,,0,0,0,0,0
2.8238,1783185878.5374,1,1,1.0000,-0.0000,1.44681,0.21829,-2.78127,0.99214,1.57080,0.00001,-0.14512,-0.38002,0.04265,,,,,,,,,,,,,,,,,,,,,,,,,,0,0,0,0,0
2.8373,1783185878.5510,1,1,1.0000,-0.0000,1.44681,0.21821,-2.78129,0.99225,1.57080,0.00001,-0.14512,-0.38002,0.04263,,,,,,,,,,,,,,,,,,,,,,,,,,0,0,0,0,0
2.8443,1783185878.5579,1,1,1.0000,-0.0000,1.44681,0.21812,-2.78131,0.99235,1.57080,0.00001,-0.14512,-0.38002,0.04260,,,,,,,,,,,,,,,,,,,,,,,,,,0,0,0,0,0
2.8561,1783185878.5697,1,1,1.0000,-0.0000,1.44681,0.21809,-2.78132,0.99240,1.57080,0.00001,-0.14512,-0.38002,0.04260,,,,,,,,,,,,,,,,,,,,,,,,,,0,0,0,0,0
2.8566,1783185878.5702,1,1,1.0000,-0.0000,1.44681,0.21809,-2.78132,0.99240,1.57080,0.00001,-0.14512,-0.38002,0.04260,,,,,,,,,,,,,,,,,,,,,,,,,,0,0,0,0,0
2.8649,1783185878.5785,1,1,1.0000,-0.0000,1.44681,0.21800,-2.78134,0.99250,1.57080,0.00001,-0.14512,-0.38002,0.04257,,,,,,,,,,,,,,,,,,,,,,,,,,0,0,0,0,0
2.8715,1783185878.5851,1,1,1.0000,-0.0000,1.44681,0.21789,-2.78136,0.99264,1.57080,0.00001,-0.14512,-0.38002,0.04255,,,,,,,,,,,,,,,,,,,,,,,,,,0,0,0,0,0
2.8827,1783185878.5963,1,1,1.0000,-0.0000,1.44681,0.21783,-2.78138,0.99271,1.57080,0.00001,-0.14512,-0.38002,0.04253,,,,,,,,,,,,,,,,,,,,,,,,,,0,0,0,0,0
2.8831,1783185878.5967,1,1,1.0000,-0.0000,1.44681,0.21783,-2.78138,0.99271,1.57080,0.00001,-0.14512,-0.38002,0.04253,,,,,,,,,,,,,,,,,,,,,,,,,,0,0,0,0,0
2.8956,1783185878.6092,1,1,1.0000,-0.0000,1.44681,0.21775,-2.78140,0.99281,1.57080,0.00001,-0.14512,-0.38002,0.04251,,,,,,,,,,,,,,,,,,,,,,,,,,0,0,0,0,0
2.8959,1783185878.6095,1,1,1.0000,-0.0000,1.44681,0.21775,-2.78140,0.99281,1.57080,0.00001,-0.14512,-0.38002,0.04251,,,,,,,,,,,,,,,,,,,,,,,,,,0,0,0,0,0
2.9029,1783185878.6165,1,1,1.0000,-0.0000,1.44681,0.21767,-2.78142,0.99292,1.57080,0.00001,-0.14512,-0.38002,0.04249,,,,,,,,,,,,,,,,,,,,,,,,,,0,0,0,0,0
2.9032,1783185878.6168,1,1,1.0000,-0.0000,1.44681,0.21767,-2.78142,0.99292,1.57080,0.00001,-0.14512,-0.38002,0.04249,,,,,,,,,,,,,,,,,,,,,,,,,,0,0,0,0,0
2.9129,1783185878.6265,1,1,1.0000,-0.0000,1.44681,0.21766,-2.78142,0.99293,1.57080,0.00001,-0.14512,-0.38002,0.04249,,,,,,,,,,,,,,,,,,,,,,,,,,0,0,0,0,0
2.9133,1783185878.6269,1,1,1.0000,-0.0000,1.44681,0.21766,-2.78142,0.99293,1.57080,0.00001,-0.14512,-0.38002,0.04249,,,,,,,,,,,,,,,,,,,,,,,,,,0,0,0,0,0
2.9239,1783185878.6376,1,1,1.0000,-0.0000,1.44681,0.21755,-2.78145,0.99307,1.57080,0.00001,-0.14512,-0.38002,0.04246,,,,,,,,,,,,,,,,,,,,,,,,,,0,0,0,0,0
2.9243,1783185878.6379,1,1,1.0000,-0.0000,1.44681,0.21755,-2.78145,0.99307,1.57080,0.00001,-0.14512,-0.38002,0.04246,,,,,,,,,,,,,,,,,,,,,,,,,,0,0,0,0,0
2.9344,1783185878.6480,1,1,1.0000,-0.0000,1.44681,0.21739,-2.78149,0.99327,1.57080,0.00001,-0.14512,-0.38002,0.04242,,,,,,,,,,,,,,,,,,,,,,,,,,0,0,0,0,0
2.9423,1783185878.6559,1,1,1.0000,-0.0000,1.44681,0.21738,-2.78149,0.99328,1.57080,0.00001,-0.14512,-0.38002,0.04241,,,,,,,,,,,,,,,,,,,,,,,,,,0,0,0,0,0
2.9428,1783185878.6564,1,1,1.0000,-0.0000,1.44681,0.21738,-2.78149,0.99328,1.57080,0.00001,-0.14512,-0.38002,0.04241,,,,,,,,,,,,,,,,,,,,,,,,,,0,0,0,0,0
2.9543,1783185878.6679,1,1,1.0000,-0.0000,1.44681,0.21730,-2.78151,0.99338,1.57080,0.00001,-0.14512,-0.38002,0.04239,,,,,,,,,,,,,,,,,,,,,,,,,,0,0,0,0,0
2.9632,1783185878.6768,1,1,1.0000,-0.0000,1.44681,0.21721,-2.78153,0.99349,1.57080,0.00001,-0.14512,-0.38002,0.04237,,,,,,,,,,,,,,,,,,,,,,,,,,0,0,0,0,0
2.9734,1783185878.6871,1,1,1.0000,-0.0000,1.44681,0.21720,-2.78153,0.99350,1.57080,0.00001,-0.14512,-0.38002,0.04237,,,,,,,,,,,,,,,,,,,,,,,,,,0,0,0,0,0
2.9742,1783185878.6878,1,1,1.0000,-0.0000,1.44681,0.21718,-2.78154,0.99353,1.57080,0.00001,-0.14512,-0.38002,0.04236,,,,,,,,,,,,,,,,,,,,,,,,,,0,0,0,0,0
2.9872,1783185878.7008,1,1,1.0000,-0.0000,1.44681,0.21704,-2.78158,0.99370,1.57080,0.00001,-0.14512,-0.38002,0.04233,,,,,,,,,,,,,,,,,,,,,,,,,,0,0,0,0,0
2.9935,1783185878.7071,1,1,1.0000,-0.0000,1.44681,0.21698,-2.78159,0.99377,1.57080,0.00001,-0.14512,-0.38002,0.04231,,,,,,,,,,,,,,,,,,,,,,,,,,0,0,0,0,0
3.0050,1783185878.7186,1,1,1.0000,-0.0000,1.44681,0.21692,-2.78160,0.99385,1.57080,0.00001,-0.14512,-0.38002,0.04230,,,,,,,,,,,,,,,,,,,,,,,,,,0,0,0,0,0
3.0054,1783185878.7190,1,1,1.0000,-0.0000,1.44681,0.21692,-2.78160,0.99385,1.57080,0.00001,-0.14512,-0.38002,0.04230,,,,,,,,,,,,,,,,,,,,,,,,,,0,0,0,0,0
3.0277,1783185878.7413,1,1,1.0000,-0.0000,1.44681,0.21676,-2.78164,0.99405,1.57080,0.00001,-0.14512,-0.38002,0.04226,,,,,,,,,,,,,,,,,,,,,,,,,,0,0,0,0,0
3.0281,1783185878.7417,1,1,1.0000,-0.0000,1.44681,0.21676,-2.78164,0.99405,1.57080,0.00001,-0.14512,-0.38002,0.04226,,,,,,,,,,,,,,,,,,,,,,,,,,0,0,0,0,0
3.0358,1783185878.7494,1,1,1.0000,-0.0000,1.44681,0.21672,-2.78165,0.99410,1.57080,0.00001,-0.14512,-0.38002,0.04225,,,,,,,,,,,,,,,,,,,,,,,,,,0,0,0,0,0
3.0424,1783185878.7560,1,1,1.0000,-0.0000,1.44681,0.21664,-2.78167,0.99421,1.57080,0.00001,-0.14512,-0.38002,0.04222,,,,,,,,,,,,,,,,,,,,,,,,,,0,0,0,0,0
3.0522,1783185878.7658,1,1,1.0000,-0.0000,1.44681,0.21653,-2.78170,0.99434,1.57080,0.00001,-0.14512,-0.38002,0.04220,,,,,,,,,,,,,,,,,,,,,,,,,,0,0,0,0,0
3.0525,1783185878.7661,1,1,1.0000,-0.0000,1.44681,0.21653,-2.78170,0.99434,1.57080,0.00001,-0.14512,-0.38002,0.04220,,,,,,,,,,,,,,,,,,,,,,,,,,0,0,0,0,0
3.0663,1783185878.7799,1,1,1.0000,-0.0000,1.44681,0.21645,-2.78172,0.99444,1.57080,0.00001,-0.14512,-0.38002,0.04218,,,,,,,,,,,,,,,,,,,,,,,,,,0,0,0,0,0
3.0728,1783185878.7864,1,1,1.0000,-0.0000,1.44681,0.21642,-2.78173,0.99447,1.57080,0.00001,-0.14512,-0.38002,0.04217,,,,,,,,,,,,,,,,,,,,,,,,,,0,0,0,0,0
3.0732,1783185878.7868,1,1,1.0000,-0.0000,1.44681,0.21642,-2.78173,0.99447,1.57080,0.00001,-0.14512,-0.38002,0.04217,,,,,,,,,,,,,,,,,,,,,,,,,,0,0,0,0,0
3.0850,1783185878.7986,1,1,1.0000,-0.0000,1.44681,0.21630,-2.78176,0.99462,1.57080,0.00001,-0.14512,-0.38002,0.04214,,,,,,,,,,,,,,,,,,,,,,,,,,0,0,0,0,0
3.0927,1783185878.8063,1,1,1.0000,-0.0000,1.44681,0.21629,-2.78176,0.99463,1.57080,0.00001,-0.14512,-0.38002,0.04214,,,,,,,,,,,,,,,,,,,,,,,,,,0,0,0,0,0
3.1062,1783185878.8199,1,1,1.0000,-0.0000,1.44681,0.21613,-2.78180,0.99484,1.57080,0.00001,-0.14512,-0.38002,0.04209,,,,,,,,,,,,,,,,,,,,,,,,,,0,0,0,0,0
3.1120,1783185878.8257,1,1,1.0000,-0.0000,1.44681,0.21607,-2.78181,0.99491,1.57080,0.00001,-0.14512,-0.38002,0.04208,,,,,,,,,,,,,,,,,,,,,,,,,,0,0,0,0,0
3.1123,1783185878.8259,1,1,1.0000,-0.0000,1.44681,0.21607,-2.78181,0.99491,1.57080,0.00001,-0.14512,-0.38002,0.04208,,,,,,,,,,,,,,,,,,,,,,,,,,0,0,0,0,0
3.1239,1783185878.8375,1,1,1.0000,-0.0000,1.44681,0.21601,-2.78183,0.99498,1.57080,0.00001,-0.14512,-0.38002,0.04207,,,,,,,,,,,,,,,,,,,,,,,,,,0,0,0,0,0
3.1243,1783185878.8379,1,1,1.0000,-0.0000,1.44681,0.21601,-2.78183,0.99498,1.57080,0.00001,-0.14512,-0.38002,0.04207,,,,,,,,,,,,,,,,,,,,,,,,,,0,0,0,0,0
3.1330,1783185878.8466,1,1,1.0000,-0.0000,1.44681,0.21597,-2.78184,0.99504,1.57080,0.00001,-0.14512,-0.38002,0.04205,,,,,,,,,,,,,,,,,,,,,,,,,,0,0,0,0,0
3.1334,1783185878.8470,1,1,1.0000,-0.0000,1.44681,0.21597,-2.78184,0.99504,1.57080,0.00001,-0.14512,-0.38002,0.04205,,,,,,,,,,,,,,,,,,,,,,,,,,0,0,0,0,0
3.1445,1783185878.8581,1,1,1.0000,-0.0000,1.44681,0.21585,-2.78187,0.99519,1.57080,0.00001,-0.14512,-0.38002,0.04202,,,,,,,,,,,,,,,,,,,,,,,,,,0,0,0,0,0
3.1449,1783185878.8585,1,1,1.0000,-0.0000,1.44681,0.21585,-2.78187,0.99519,1.57080,0.00001,-0.14512,-0.38002,0.04202,,,,,,,,,,,,,,,,,,,,,,,,,,0,0,0,0,0
3.1519,1783185878.8655,1,1,1.0000,-0.0000,1.44681,0.21584,-2.78187,0.99520,1.57080,0.00001,-0.14512,-0.38002,0.04202,,,,,,,,,,,,,,,,,,,,,,,,,,0,0,0,0,0
3.1692,1783185878.8828,1,1,1.0000,-0.0000,1.44681,0.21567,-2.78191,0.99541,1.57080,0.00001,-0.14512,-0.38002,0.04198,,,,,,,,,,,,,,,,,,,,,,,,,,0,0,0,0,0
3.1730,1783185878.8866,1,1,1.0000,-0.0000,1.44681,0.21562,-2.78192,0.99547,1.57080,0.00001,-0.14512,-0.38002,0.04196,,,,,,,,,,,,,,,,,,,,,,,,,,0,0,0,0,0
3.1823,1783185878.8959,1,1,1.0000,-0.0000,1.44681,0.21555,-2.78194,0.99555,1.57080,0.00001,-0.14512,-0.38002,0.04195,,,,,,,,,,,,,,,,,,,,,,,,,,0,0,0,0,0
3.1930,1783185878.9066,1,1,1.0000,-0.0000,1.44681,0.21549,-2.78196,0.99563,1.57080,0.00001,-0.14512,-0.38002,0.04193,,,,,,,,,,,,,,,,,,,,,,,,,,0,0,0,0,0
3.2104,1783185878.9240,1,1,1.0000,-0.0000,1.44681,0.21533,-2.78199,0.99583,1.57080,0.00001,-0.14512,-0.38002,0.04189,,,,,,,,,,,,,,,,,,,,,,,,,,0,0,0,0,0
3.2135,1783185878.9271,1,1,1.0000,-0.0000,1.44681,0.21533,-2.78199,0.99583,1.57080,0.00001,-0.14512,-0.38002,0.04189,,,,,,,,,,,,,,,,,,,,,,,,,,0,0,0,0,0
3.2221,1783185878.9357,1,1,1.0000,-0.0000,1.44681,0.21522,-2.78202,0.99596,1.57080,0.00001,-0.14512,-0.38002,0.04186,,,,,,,,,,,,,,,,,,,,,,,,,,0,0,0,0,0
3.2472,1783185878.9608,1,1,1.0000,-0.0000,1.44681,0.21503,-2.78207,0.99620,1.57080,0.00001,-0.14512,-0.38002,0.04182,,,,,,,,,,,,,,,,,,,,,,,,,,0,0,0,0,0
3.2476,1783185878.9612,1,1,1.0000,-0.0000,1.44681,0.21503,-2.78207,0.99620,1.57080,0.00001,-0.14512,-0.38002,0.04182,,,,,,,,,,,,,,,,,,,,,,,,,,0,0,0,0,0
3.2563,1783185878.9699,1,1,1.0000,-0.0000,1.44681,0.21495,-2.78209,0.99631,1.57080,0.00001,-0.14512,-0.38002,0.04179,,,,,,,,,,,,,,,,,,,,,,,,,,0,0,0,0,0
3.2665,1783185878.9801,1,1,1.0000,-0.0000,1.44681,0.21484,-2.78211,0.99644,1.57080,0.00001,-0.14512,-0.38002,0.04177,,,,,,,,,,,,,,,,,,,,,,,,,,0,0,0,0,0
3.2783,1783185878.9919,1,1,1.0000,-0.0000,1.44681,0.21477,-2.78213,0.99653,1.57080,0.00001,-0.14512,-0.38002,0.04175,,,,,,,,,,,,,,,,,,,,,,,,,,0,0,0,0,0
3.2788,1783185878.9924,1,1,1.0000,-0.0000,1.44681,0.21477,-2.78213,0.99653,1.57080,0.00001,-0.14512,-0.38002,0.04175,,,,,,,,,,,,,,,,,,,,,,,,,,0,0,0,0,0
3.2823,1783185878.9959,1,1,1.0000,-0.0000,1.44681,0.21473,-2.78214,0.99658,1.57080,0.00001,-0.14512,-0.38002,0.04174,,,,,,,,,,,,,,,,,,,,,,,,,,0,0,0,0,0
3.2826,1783185878.9962,1,1,1.0000,-0.0000,1.44681,0.21473,-2.78214,0.99658,1.57080,0.00001,-0.14512,-0.38002,0.04174,,,,,,,,,,,,,,,,,,,,,,,,,,0,0,0,0,0
3.2965,1783185879.0101,1,1,1.0000,-0.0000,1.44681,0.21457,-2.78218,0.99678,1.57080,0.00001,-0.14512,-0.38002,0.04170,,,,,,,,,,,,,,,,,,,,,,,,,,0,0,0,0,0
3.2970,1783185879.0106,1,1,1.0000,-0.0000,1.44681,0.21457,-2.78218,0.99678,1.57080,0.00001,-0.14512,-0.38002,0.04170,,,,,,,,,,,,,,,,,,,,,,,,,,0,0,0,0,0
3.3049,1783185879.0185,1,1,1.0000,-0.0000,1.44681,0.21456,-2.78218,0.99679,1.57080,0.00001,-0.14512,-0.38002,0.04170,,,,,,,,,,,,,,,,,,,,,,,,,,0,0,0,0,0
3.3186,1783185879.0322,1,1,1.0000,-0.0000,1.44681,0.21440,-2.78222,0.99699,1.57080,0.00002,-0.14512,-0.38002,0.04165,,,,,,,,,,,,,,,,,,,,,,,,,,0,0,0,0,0
3.3190,1783185879.0326,1,1,1.0000,-0.0000,1.44681,0.21440,-2.78222,0.99699,1.57080,0.00002,-0.14512,-0.38002,0.04165,,,,,,,,,,,,,,,,,,,,,,,,,,0,0,0,0,0
3.3221,1783185879.0357,1,1,1.0000,-0.0000,1.44681,0.21435,-2.78224,0.99706,1.57080,0.00002,-0.14512,-0.38002,0.04164,,,,,,,,,,,,,,,,,,,,,,,,,,0,0,0,0,0
3.3342,1783185879.0479,1,1,1.0000,-0.0000,1.44681,0.21431,-2.78224,0.99710,1.57080,0.00002,-0.14512,-0.38002,0.04163,,,,,,,,,,,,,,,,,,,,,,,,,,0,0,0,0,0
3.3493,1783185879.0629,1,1,1.0000,-0.0000,1.44681,0.21418,-2.78228,0.99727,1.57080,0.00002,-0.14512,-0.38002,0.04160,,,,,,,,,,,,,,,,,,,,,,,,,,0,0,0,0,0
3.3523,1783185879.0659,1,1,1.0000,-0.0000,1.44681,0.21412,-2.78229,0.99733,1.57080,0.00002,-0.14512,-0.38002,0.04158,,,,,,,,,,,,,,,,,,,,,,,,,,0,0,0,0,0
3.3627,1783185879.0763,1,1,1.0000,-0.0000,1.44681,0.21406,-2.78231,0.99741,1.57080,0.00002,-0.14512,-0.38002,0.04157,,,,,,,,,,,,,,,,,,,,,,,,,,0,0,0,0,0
3.3728,1783185879.0864,1,1,1.0000,-0.0000,1.44681,0.21400,-2.78232,0.99749,1.57080,0.00002,-0.14512,-0.38002,0.04155,,,,,,,,,,,,,,,,,,,,,,,,,,0,0,0,0,0
3.3836,1783185879.0972,1,1,1.0000,-0.0000,1.44681,0.21385,-2.78236,0.99768,1.57080,0.00002,-0.14512,-0.38002,0.04151,,,,,,,,,,,,,,,,,,,,,,,,,,0,0,0,0,0
3.3946,1783185879.1082,1,1,1.0000,-0.0000,1.44681,0.21381,-2.78237,0.99772,1.57080,0.00002,-0.14512,-0.38002,0.04151,,,,,,,,,,,,,,,,,,,,,,,,,,0,0,0,0,0
3.4037,1783185879.1173,1,1,1.0000,-0.0000,1.44681,0.21373,-2.78239,0.99782,1.57080,0.00002,-0.14512,-0.38002,0.04148,,,,,,,,,,,,,,,,,,,,,,,,,,0,0,0,0,0
3.4127,1783185879.1263,1,1,1.0000,-0.0000,1.44681,0.21362,-2.78241,0.99795,1.57080,0.00002,-0.14512,-0.38002,0.04146,,,,,,,,,,,,,,,,,,,,,,,,,,0,0,0,0,0
3.4223,1783185879.1359,1,1,1.0000,-0.0000,1.44681,0.21356,-2.78243,0.99803,1.57080,0.00002,-0.14512,-0.38002,0.04144,,,,,,,,,,,,,,,,,,,,,,,,,,0,0,0,0,0
3.4226,1783185879.1362,1,1,1.0000,-0.0000,1.44681,0.21356,-2.78243,0.99803,1.57080,0.00002,-0.14512,-0.38002,0.04144,,,,,,,,,,,,,,,,,,,,,,,,,,0,0,0,0,0
3.4359,1783185879.1495,1,1,1.0000,-0.0000,1.44681,0.21345,-2.78245,0.99817,1.57080,0.00002,-0.14512,-0.38002,0.04141,,,,,,,,,,,,,,,,,,,,,,,,,,0,0,0,0,0
3.4423,1783185879.1560,1,1,1.0000,-0.0000,1.44681,0.21335,-2.78248,0.99830,1.57080,0.00002,-0.14512,-0.38002,0.04139,,,,,,,,,,,,,,,,,,,,,,,,,,0,0,0,0,0
3.4426,1783185879.1562,1,1,1.0000,-0.0000,1.44681,0.21335,-2.78248,0.99830,1.57080,0.00002,-0.14512,-0.38002,0.04139,,,,,,,,,,,,,,,,,,,,,,,,,,0,0,0,0,0
3.4517,1783185879.1653,1,1,1.0000,-0.0000,1.44681,0.21334,-2.78248,0.99831,1.57080,0.00002,-0.14512,-0.38002,0.04138,,,,,,,,,,,,,,,,,,,,,,,,,,0,0,0,0,0
3.4520,1783185879.1656,1,1,1.0000,-0.0000,1.44681,0.21334,-2.78248,0.99831,1.57080,0.00002,-0.14512,-0.38002,0.04138,,,,,,,,,,,,,,,,,,,,,,,,,,0,0,0,0,0
3.4628,1783185879.1764,1,1,1.0000,-0.0000,1.44681,0.21323,-2.78251,0.99844,1.57080,0.00002,-0.14512,-0.38002,0.04136,,,,,,,,,,,,,,,,,,,,,,,,,,0,0,0,0,0
3.4631,1783185879.1767,1,1,1.0000,-0.0000,1.44681,0.21323,-2.78251,0.99844,1.57080,0.00002,-0.14512,-0.38002,0.04136,,,,,,,,,,,,,,,,,,,,,,,,,,0,0,0,0,0
3.4721,1783185879.1857,1,1,1.0000,-0.0000,1.44681,0.21313,-2.78253,0.99857,1.57080,0.00002,-0.14512,-0.38002,0.04133,,,,,,,,,,,,,,,,,,,,,,,,,,0,0,0,0,0
3.4817,1783185879.1953,1,1,1.0000,-0.0000,1.44681,0.21307,-2.78255,0.99864,1.57080,0.00002,-0.14512,-0.38002,0.04132,,,,,,,,,,,,,,,,,,,,,,,,,,0,0,0,0,0
3.4822,1783185879.1958,1,1,1.0000,-0.0000,1.44681,0.21306,-2.78255,0.99865,1.57080,0.00002,-0.14512,-0.38002,0.04132,,,,,,,,,,,,,,,,,,,,,,,,,,0,0,0,0,0
3.4942,1783185879.2078,1,1,1.0000,-0.0000,1.44681,0.21295,-2.78257,0.99879,1.57080,0.00002,-0.14512,-0.38002,0.04129,,,,,,,,,,,,,,,,,,,,,,,,,,0,0,0,0,0
3.4945,1783185879.2081,1,1,1.0000,-0.0000,1.44681,0.21295,-2.78257,0.99879,1.57080,0.00002,-0.14512,-0.38002,0.04129,,,,,,,,,,,,,,,,,,,,,,,,,,0,0,0,0,0
3.5159,1783185879.2295,1,1,1.0000,-0.0000,1.44681,0.21281,-2.78261,0.99896,1.57080,0.00002,-0.14512,-0.38002,0.04125,,,,,,,,,,,,,,,,,,,,,,,,,,0,0,0,0,0
3.5200,1783185879.2336,1,1,1.0000,-0.0000,1.44681,0.21278,-2.78262,0.99901,1.57080,0.00002,-0.14512,-0.38002,0.04124,,,,,,,,,,,,,,,,,,,,,,,,,,0,0,0,0,0
3.5229,1783185879.2365,1,1,1.0000,-0.0000,1.44681,0.21273,-2.78263,0.99906,1.57080,0.00002,-0.14512,-0.38002,0.04123,,,,,,,,,,,,,,,,,,,,,,,,,,0,0,0,0,0
3.5317,1783185879.2453,1,1,1.0000,-0.0000,1.44681,0.21263,-2.78265,0.99919,1.57080,0.00002,-0.14512,-0.38002,0.04120,,,,,,,,,,,,,,,,,,,,,,,,,,0,0,0,0,0
3.5321,1783185879.2457,1,1,1.0000,-0.0000,1.44681,0.21263,-2.78265,0.99919,1.57080,0.00002,-0.14512,-0.38002,0.04120,,,,,,,,,,,,,,,,,,,,,,,,,,0,0,0,0,0
3.5444,1783185879.2580,1,1,1.0000,-0.0000,1.44681,0.21256,-2.78267,0.99927,1.57080,0.00002,-0.14512,-0.38002,0.04119,,,,,,,,,,,,,,,,,,,,,,,,,,0,0,0,0,0
3.5446,1783185879.2583,1,1,1.0000,-0.0000,1.44681,0.21256,-2.78267,0.99927,1.57080,0.00002,-0.14512,-0.38002,0.04119,,,,,,,,,,,,,,,,,,,,,,,,,,0,0,0,0,0
3.5548,1783185879.2684,1,1,1.0000,-0.0000,1.44681,0.21246,-2.78270,0.99941,1.57080,0.00002,-0.14512,-0.38002,0.04116,,,,,,,,,,,,,,,,,,,,,,,,,,0,0,0,0,0
3.5552,1783185879.2688,1,1,1.0000,-0.0000,1.44681,0.21246,-2.78270,0.99941,1.57080,0.00002,-0.14512,-0.38002,0.04116,,,,,,,,,,,,,,,,,,,,,,,,,,0,0,0,0,0
3.5617,1783185879.2753,1,1,1.0000,-0.0000,1.44681,0.21240,-2.78271,0.99947,1.57080,0.00002,-0.14512,-0.38002,0.04115,,,,,,,,,,,,,,,,,,,,,,,,,,0,0,0,0,0
3.5627,1783185879.2763,1,1,1.0000,-0.0000,1.44681,0.21235,-2.78272,0.99954,1.57080,0.00002,-0.14512,-0.38002,0.04113,,,,,,,,,,,,,,,,,,,,,,,,,,0,0,0,0,0
3.5721,1783185879.2857,1,1,1.0000,-0.0000,1.44681,0.21230,-2.78273,0.99960,1.57080,0.00002,-0.14512,-0.38002,0.04112,,,,,,,,,,,,,,,,,,,,,,,,,,0,0,0,0,0
3.5825,1783185879.2962,1,1,1.0000,-0.0000,1.44681,0.21224,-2.78275,0.99967,1.57080,0.00002,-0.14512,-0.38002,0.04111,,,,,,,,,,,,,,,,,,,,,,,,,,0,0,0,0,0
3.5830,1783185879.2966,1,1,1.0000,-0.0000,1.44681,0.21224,-2.78275,0.99967,1.57080,0.00002,-0.14512,-0.38002,0.04111,,,,,,,,,,,,,,,,,,,,,,,,,,0,0,0,0,0
3.5915,1783185879.3051,1,1,1.0000,-0.0000,1.44681,0.21217,-2.78277,0.99977,1.57080,0.00002,-0.14512,-0.38002,0.04109,,,,,,,,,,,,,,,,,,,,,,,,,,0,0,0,0,0
3.5919,1783185879.3055,1,1,1.0000,-0.0000,1.44681,0.21217,-2.78277,0.99977,1.57080,0.00002,-0.14512,-0.38002,0.04109,,,,,,,,,,,,,,,,,,,,,,,,,,0,0,0,0,0
3.6077,1783185879.3213,1,1,1.0000,-0.0000,1.44681,0.21209,-2.78279,0.99987,1.57080,0.00002,-0.14512,-0.38002,0.04107,,,,,,,,,,,,,,,,,,,,,,,,,,0,0,0,0,0
3.6119,1783185879.3256,1,1,1.0000,-0.0000,1.44681,0.21205,-2.78280,0.99991,1.57080,0.00002,-0.14512,-0.38002,0.04106,,,,,,,,,,,,,,,,,,,,,,,,,,0,0,0,0,0
3.6236,1783185879.3372,1,1,1.0000,-0.0000,1.44681,0.21189,-2.78283,1.00011,1.57080,0.00002,-0.14512,-0.38002,0.04102,,,,,,,,,,,,,,,,,,,,,,,,,,0,0,0,0,0
3.6317,1783185879.3453,1,1,1.0000,-0.0000,1.44681,0.21184,-2.78285,1.00017,1.57080,0.00002,-0.14512,-0.38002,0.04100,,,,,,,,,,,,,,,,,,,,,,,,,,0,0,0,0,0
3.6321,1783185879.3457,1,1,1.0000,-0.0000,1.44681,0.21184,-2.78285,1.00017,1.57080,0.00002,-0.14512,-0.38002,0.04100,,,,,,,,,,,,,,,,,,,,,,,,,,0,0,0,0,0
3.6424,1783185879.3560,1,1,1.0000,-0.0000,1.44681,0.21179,-2.78286,1.00024,1.57080,0.00002,-0.14512,-0.38002,0.04099,,,,,,,,,,,,,,,,,,,,,,,,,,0,0,0,0,0
3.6567,1783185879.3703,1,1,1.0000,-0.0000,1.44681,0.21166,-2.78289,1.00039,1.57080,0.00002,-0.14512,-0.38002,0.04096,,,,,,,,,,,,,,,,,,,,,,,,,,0,0,0,0,0
3.6686,1783185879.3822,1,1,1.0000,-0.0000,1.44681,0.21163,-2.78290,1.00044,1.57080,0.00002,-0.14512,-0.38002,0.04095,,,,,,,,,,,,,,,,,,,,,,,,,,0,0,0,0,0
3.6728,1783185879.3864,1,1,1.0000,-0.0000,1.44681,0.21159,-2.78291,1.00048,1.57080,0.00002,-0.14512,-0.38002,0.04094,,,,,,,,,,,,,,,,,,,,,,,,,,0,0,0,0,0
3.6841,1783185879.3977,1,1,1.0000,-0.0000,1.44681,0.21143,-2.78294,1.00068,1.57080,0.00002,-0.14512,-0.38002,0.04090,,,,,,,,,,,,,,,,,,,,,,,,,,0,0,0,0,0
3.6931,1783185879.4067,1,1,1.0000,-0.0000,1.44681,0.21138,-2.78296,1.00074,1.57080,0.00002,-0.14512,-0.38002,0.04089,,,,,,,,,,,,,,,,,,,,,,,,,,0,0,0,0,0
3.7034,1783185879.4170,1,1,1.0000,-0.0000,1.44681,0.21133,-2.78297,1.00081,1.57080,0.00002,-0.14512,-0.38002,0.04087,,,,,,,,,,,,,,,,,,,,,,,,,,0,0,0,0,0
3.7133,1783185879.4269,1,1,1.0000,-0.0000,1.44681,0.21125,-2.78299,1.00090,1.57080,0.00002,-0.14512,-0.38002,0.04085,,,,,,,,,,,,,,,,,,,,,,,,,,0,0,0,0,0
3.7237,1783185879.4373,1,1,1.0000,-0.0000,1.44681,0.21119,-2.78300,1.00097,1.57080,0.00002,-0.14512,-0.38002,0.04084,,,,,,,,,,,,,,,,,,,,,,,,,,0,0,0,0,0
3.7334,1783185879.4470,1,1,1.0000,-0.0000,1.44681,0.21113,-2.78302,1.00105,1.57080,0.00002,-0.14512,-0.38002,0.04082,,,,,,,,,,,,,,,,,,,,,,,,,,0,0,0,0,0
3.7436,1783185879.4572,1,1,1.0000,-0.0000,1.44681,0.21097,-2.78306,1.00125,1.57080,0.00002,-0.14512,-0.38002,0.04078,,,,,,,,,,,,,,,,,,,,,,,,,,0,0,0,0,0
3.7439,1783185879.4575,1,1,1.0000,-0.0000,1.44681,0.21097,-2.78306,1.00125,1.57080,0.00002,-0.14512,-0.38002,0.04078,,,,,,,,,,,,,,,,,,,,,,,,,,0,0,0,0,0
3.7645,1783185879.4781,1,1,1.0000,-0.0000,1.44681,0.21087,-2.78308,1.00138,1.57080,0.00002,-0.14512,-0.38002,0.04076,,,,,,,,,,,,,,,,,,,,,,,,,,0,0,0,0,0
3.7648,1783185879.4784,1,1,1.0000,-0.0000,1.44681,0.21087,-2.78308,1.00138,1.57080,0.00002,-0.14512,-0.38002,0.04076,,,,,,,,,,,,,,,,,,,,,,,,,,0,0,0,0,0
3.7720,1783185879.4856,1,1,1.0000,-0.0000,1.44681,0.21079,-2.78310,1.00147,1.57080,0.00002,-0.14512,-0.38002,0.04074,,,,,,,,,,,,,,,,,,,,,,,,,,0,0,0,0,0
3.7865,1783185879.5001,1,1,1.0000,-0.0000,1.44681,0.21071,-2.78312,1.00158,1.57080,0.00002,-0.14512,-0.38002,0.04072,,,,,,,,,,,,,,,,,,,,,,,,,,0,0,0,0,0
3.7933,1783185879.5069,1,1,1.0000,-0.0000,1.44681,0.21067,-2.78313,1.00162,1.57080,0.00002,-0.14512,-0.38002,0.04071,,,,,,,,,,,,,,,,,,,,,,,,,,0,0,0,0,0
3.8044,1783185879.5180,1,1,1.0000,-0.0000,1.44681,0.21051,-2.78317,1.00182,1.57080,0.00002,-0.14512,-0.38002,0.04067,,,,,,,,,,,,,,,,,,,,,,,,,,0,0,0,0,0
3.8160,1783185879.5296,1,1,1.0000,-0.0000,1.44681,0.21045,-2.78318,1.00189,1.57080,0.00002,-0.14512,-0.38002,0.04065,,,,,,,,,,,,,,,,,,,,,,,,,,0,0,0,0,0
3.8229,1783185879.5365,1,1,1.0000,-0.0000,1.44681,0.21041,-2.78319,1.00195,1.57080,0.00002,-0.14512,-0.38002,0.04064,,,,,,,,,,,,,,,,,,,,,,,,,,0,0,0,0,0
3.8329,1783185879.5465,1,1,1.0000,-0.0000,1.44681,0.21033,-2.78321,1.00205,1.57080,0.00002,-0.14512,-0.38002,0.04062,,,,,,,,,,,,,,,,,,,,,,,,,,0,0,0,0,0
3.8423,1783185879.5559,1,1,1.0000,-0.0000,1.44681,0.21028,-2.78322,1.00211,1.57080,0.00002,-0.14512,-0.38002,0.04061,,,,,,,,,,,,,,,,,,,,,,,,,,0,0,0,0,0
3.8623,1783185879.5759,1,1,1.0000,-0.0000,1.44681,0.21005,-2.78328,1.00239,1.57080,0.00002,-0.14512,-0.38002,0.04055,,,,,,,,,,,,,,,,,,,,,,,,,,0,0,0,0,0
3.8671,1783185879.5807,1,1,1.0000,-0.0000,1.44681,0.21000,-2.78329,1.00245,1.57080,0.00002,-0.14512,-0.38002,0.04054,,,,,,,,,,,,,,,,,,,,,,,,,,0,0,0,0,0
3.8675,1783185879.5811,1,1,1.0000,-0.0000,1.44681,0.21000,-2.78329,1.00245,1.57080,0.00002,-0.14512,-0.38002,0.04054,,,,,,,,,,,,,,,,,,,,,,,,,,0,0,0,0,0
3.8721,1783185879.5857,1,1,1.0000,-0.0000,1.44681,0.21000,-2.78329,1.00245,1.57080,0.00002,-0.14512,-0.38002,0.04054,,,,,,,,,,,,,,,,,,,,,,,,,,0,0,0,0,0
3.8840,1783185879.5976,1,1,1.0000,-0.0000,1.44681,0.20995,-2.78330,1.00252,1.57080,0.00002,-0.14512,-0.38002,0.04053,,,,,,,,,,,,,,,,,,,,,,,,,,0,0,0,0,0
3.8942,1783185879.6078,1,1,1.0000,-0.0000,1.44681,0.20983,-2.78333,1.00267,1.57080,0.00002,-0.14512,-0.38002,0.04049,,,,,,,,,,,,,,,,,,,,,,,,,,0,0,0,0,0
3.9092,1783185879.6228,1,1,1.0000,-0.0000,1.44680,0.20979,-2.78334,1.00272,1.57080,0.00002,-0.14512,-0.38002,0.04049,,,,,,,,,,,,,,,,,,,,,,,,,,0,0,0,0,0
3.9136,1783185879.6273,1,1,1.0000,-0.0000,1.44680,0.20975,-2.78335,1.00276,1.57080,0.00002,-0.14512,-0.38002,0.04048,,,,,,,,,,,,,,,,,,,,,,,,,,0,0,0,0,0
3.9266,1783185879.6402,1,1,1.0000,-0.0000,1.44680,0.20954,-2.78340,1.00302,1.57079,0.00002,-0.14512,-0.38002,0.04042,,,,,,,,,,,,,,,,,,,,,,,,,,0,0,0,0,0
3.9269,1783185879.6405,1,1,1.0000,-0.0000,1.44680,0.20954,-2.78340,1.00302,1.57079,0.00002,-0.14512,-0.38002,0.04042,,,,,,,,,,,,,,,,,,,,,,,,,,0,0,0,0,0
3.9354,1783185879.6490,1,1,1.0000,-0.0000,1.44680,0.20953,-2.78340,1.00304,1.57079,0.00002,-0.14512,-0.38002,0.04042,,,,,,,,,,,,,,,,,,,,,,,,,,0,0,0,0,0
3.9417,1783185879.6553,1,1,1.0000,-0.0000,1.44680,0.20951,-2.78341,1.00307,1.57079,0.00002,-0.14512,-0.38002,0.04041,,,,,,,,,,,,,,,,,,,,,,,,,,0,0,0,0,0
3.9423,1783185879.6559,1,1,1.0000,-0.0000,1.44680,0.20947,-2.78342,1.00311,1.57079,0.00002,-0.14512,-0.38002,0.04040,,,,,,,,,,,,,,,,,,,,,,,,,,0,0,0,0,0
3.9647,1783185879.6783,1,1,1.0000,-0.0000,1.44680,0.20931,-2.78346,1.00332,1.57079,0.00002,-0.14512,-0.38002,0.04036,,,,,,,,,,,,,,,,,,,,,,,,,,0,0,0,0,0
3.9664,1783185879.6801,1,1,1.0000,-0.0000,1.44680,0.20928,-2.78346,1.00335,1.57079,0.00002,-0.14512,-0.38002,0.04036,,,,,,,,,,,,,,,,,,,,,,,,,,0,0,0,0,0
3.9746,1783185879.6882,1,1,1.0000,-0.0000,1.44680,0.20920,-2.78348,1.00345,1.57079,0.00002,-0.14512,-0.38002,0.04034,,,,,,,,,,,,,,,,,,,,,,,,,,0,0,0,0,0
3.9750,1783185879.6886,1,1,1.0000,-0.0000,1.44680,0.20920,-2.78348,1.00345,1.57079,0.00002,-0.14512,-0.38002,0.04034,,,,,,,,,,,,,,,,,,,,,,,,,,0,0,0,0,0
3.9829,1783185879.6965,1,1,1.0000,-0.0000,1.44680,0.20909,-2.78351,1.00358,1.57079,0.00002,-0.14512,-0.38002,0.04031,,,,,,,,,,,,,,,,,,,,,,,,,,0,0,0,0,0
3.9833,1783185879.6969,1,1,1.0000,-0.0000,1.44680,0.20909,-2.78351,1.00358,1.57079,0.00002,-0.14512,-0.38002,0.04031,,,,,,,,,,,,,,,,,,,,,,,,,,0,0,0,0,0
3.9951,1783185879.7087,1,1,1.0000,-0.0000,1.44680,0.20903,-2.78352,1.00366,1.57079,0.00002,-0.14512,-0.38002,0.04029,,,,,,,,,,,,,,,,,,,,,,,,,,0,0,0,0,0
4.0072,1783185879.7208,1,1,1.0000,-0.0000,1.44680,0.20892,-2.78355,1.00379,1.57079,0.00002,-0.14512,-0.38002,0.04027,,,,,,,,,,,,,,,,,,,,,,,,,,0,0,0,0,0
4.0076,1783185879.7212,1,1,1.0000,-0.0000,1.44680,0.20892,-2.78355,1.00379,1.57079,0.00002,-0.14512,-0.38002,0.04027,,,,,,,,,,,,,,,,,,,,,,,,,,0,0,0,0,0
4.0154,1783185879.7290,1,1,1.0000,-0.0000,1.44680,0.20881,-2.78358,1.00393,1.57079,0.00002,-0.14512,-0.38002,0.04024,,,,,,,,,,,,,,,,,,,,,,,,,,0,0,0,0,0
4.0304,1783185879.7440,1,1,1.0000,-0.0000,1.44680,0.20874,-2.78359,1.00402,1.57079,0.00002,-0.14512,-0.38002,0.04022,,,,,,,,,,,,,,,,,,,,,,,,,,0,0,0,0,0
4.0334,1783185879.7470,1,1,1.0000,-0.0000,1.44680,0.20874,-2.78359,1.00402,1.57079,0.00002,-0.14512,-0.38002,0.04022,,,,,,,,,,,,,,,,,,,,,,,,,,0,0,0,0,0
4.0418,1783185879.7554,1,1,1.0000,-0.0000,1.44680,0.20864,-2.78362,1.00414,1.57079,0.00002,-0.14512,-0.38002,0.04020,,,,,,,,,,,,,,,,,,,,,,,,,,0,0,0,0,0
4.0423,1783185879.7560,1,1,1.0000,-0.0000,1.44680,0.20859,-2.78363,1.00420,1.57079,0.00002,-0.14512,-0.38002,0.04018,,,,,,,,,,,,,,,,,,,,,,,,,,0,0,0,0,0
4.0558,1783185879.7694,1,1,1.0000,-0.0000,1.44680,0.20853,-2.78364,1.00428,1.57079,0.00002,-0.14512,-0.38002,0.04017,,,,,,,,,,,,,,,,,,,,,,,,,,0,0,0,0,0
4.0667,1783185879.7803,1,1,1.0000,-0.0000,1.44680,0.20842,-2.78367,1.00442,1.57079,0.00002,-0.14512,-0.38002,0.04014,,,,,,,,,,,,,,,,,,,,,,,,,,0,0,0,0,0
4.0737,1783185879.7873,1,1,1.0000,-0.0000,1.44680,0.20837,-2.78368,1.00448,1.57079,0.00002,-0.14512,-0.38002,0.04013,,,,,,,,,,,,,,,,,,,,,,,,,,0,0,0,0,0
4.0853,1783185879.7990,1,1,1.0000,-0.0000,1.44680,0.20830,-2.78370,1.00456,1.57079,0.00002,-0.14512,-0.38002,0.04011,,,,,,,,,,,,,,,,,,,,,,,,,,0,0,0,0,0
4.0933,1783185879.8069,1,1,1.0000,-0.0000,1.44680,0.20824,-2.78371,1.00464,1.57079,0.00002,-0.14512,-0.38002,0.04009,,,,,,,,,,,,,,,,,,,,,,,,,,0,0,0,0,0
4.0936,1783185879.8072,1,1,1.0000,-0.0000,1.44680,0.20824,-2.78371,1.00464,1.57079,0.00002,-0.14512,-0.38002,0.04009,,,,,,,,,,,,,,,,,,,,,,,,,,0,0,0,0,0
4.1031,1783185879.8167,1,1,1.0000,-0.0000,1.44680,0.20809,-2.78375,1.00483,1.57079,0.00002,-0.14512,-0.38002,0.04006,,,,,,,,,,,,,,,,,,,,,,,,,,0,0,0,0,0
4.1146,1783185879.8282,1,1,1.0000,-0.0000,1.44680,0.20803,-2.78377,1.00490,1.57079,0.00002,-0.14512,-0.38002,0.04004,,,,,,,,,,,,,,,,,,,,,,,,,,0,0,0,0,0
4.1234,1783185879.8370,1,1,1.0000,-0.0000,1.44680,0.20796,-2.78378,1.00498,1.57079,0.00002,-0.14512,-0.38002,0.04002,,,,,,,,,,,,,,,,,,,,,,,,,,0,0,0,0,0
4.1344,1783185879.8480,1,1,1.0000,-0.0000,1.44680,0.20781,-2.78382,1.00517,1.57079,0.00002,-0.14512,-0.38002,0.03999,,,,,,,,,,,,,,,,,,,,,,,,,,0,0,0,0,0
4.1416,1783185879.8552,1,1,1.0000,-0.0000,1.44680,0.20781,-2.78382,1.00517,1.57079,0.00002,-0.14512,-0.38002,0.03999,,,,,,,,,,,,,,,,,,,,,,,,,,0,0,0,0,0
4.1420,1783185879.8556,1,1,1.0000,-0.0000,1.44680,0.20781,-2.78382,1.00517,1.57079,0.00002,-0.14512,-0.38002,0.03999,,,,,,,,,,,,,,,,,,,,,,,,,,0,0,0,0,0
4.1526,1783185879.8662,1,1,1.0000,-0.0000,1.44680,0.20774,-2.78383,1.00526,1.57079,0.00002,-0.14512,-0.38002,0.03997,,,,,,,,,,,,,,,,,,,,,,,,,,0,0,0,0,0
4.1628,1783185879.8765,1,1,1.0000,-0.0000,1.44680,0.20758,-2.78387,1.00545,1.57079,0.00002,-0.14512,-0.38002,0.03993,,,,,,,,,,,,,,,,,,,,,,,,,,0,0,0,0,0
4.1731,1783185879.8868,1,1,1.0000,-0.0000,1.44680,0.20753,-2.78388,1.00552,1.57079,0.00002,-0.14512,-0.38002,0.03992,,,,,,,,,,,,,,,,,,,,,,,,,,0,0,0,0,0
4.1826,1783185879.8963,1,1,1.0000,-0.0000,1.44680,0.20746,-2.78390,1.00561,1.57079,0.00002,-0.14512,-0.38002,0.03990,,,,,,,,,,,,,,,,,,,,,,,,,,0,0,0,0,0
4.1962,1783185879.9098,1,1,1.0000,-0.0000,1.44680,0.20731,-2.78394,1.00580,1.57079,0.00002,-0.14512,-0.38002,0.03986,,,,,,,,,,,,,,,,,,,,,,,,,,0,0,0,0,0
4.2139,1783185879.9275,1,1,1.0000,-0.0000,1.44680,0.20723,-2.78395,1.00589,1.57079,0.00002,-0.14512,-0.38002,0.03984,,,,,,,,,,,,,,,,,,,,,,,,,,0,0,0,0,0
4.2157,1783185879.9293,1,1,1.0000,-0.0000,1.44680,0.20719,-2.78397,1.00594,1.57079,0.00002,-0.14512,-0.38002,0.03983,,,,,,,,,,,,,,,,,,,,,,,,,,0,0,0,0,0
4.2160,1783185879.9297,1,1,1.0000,-0.0000,1.44680,0.20719,-2.78397,1.00594,1.57079,0.00002,-0.14512,-0.38002,0.03983,,,,,,,,,,,,,,,,,,,,,,,,,,0,0,0,0,0
4.2249,1783185879.9385,1,1,1.0000,-0.0000,1.44680,0.20708,-2.78399,1.00607,1.57079,0.00002,-0.14512,-0.38002,0.03980,,,,,,,,,,,,,,,,,,,,,,,,,,0,0,0,0,0
4.2252,1783185879.9388,1,1,1.0000,-0.0000,1.44680,0.20708,-2.78399,1.00607,1.57079,0.00002,-0.14512,-0.38002,0.03980,,,,,,,,,,,,,,,,,,,,,,,,,,0,0,0,0,0
4.2351,1783185879.9487,1,1,1.0000,-0.0000,1.44680,0.20702,-2.78401,1.00615,1.57079,0.00002,-0.14512,-0.38002,0.03979,,,,,,,,,,,,,,,,,,,,,,,,,,0,0,0,0,0
4.2485,1783185879.9621,1,1,1.0000,-0.0000,1.44680,0.20691,-2.78403,1.00629,1.57079,0.00002,-0.14512,-0.38002,0.03976,,,,,,,,,,,,,,,,,,,,,,,,,,0,0,0,0,0
4.2561,1783185879.9697,1,1,1.0000,-0.0000,1.44680,0.20680,-2.78406,1.00642,1.57079,0.00002,-0.14512,-0.38002,0.03973,,,,,,,,,,,,,,,,,,,,,,,,,,0,0,0,0,0
4.2566,1783185879.9702,1,1,1.0000,-0.0000,1.44680,0.20680,-2.78406,1.00642,1.57079,0.00002,-0.14512,-0.38002,0.03973,,,,,,,,,,,,,,,,,,,,,,,,,,0,0,0,0,0
4.2644,1783185879.9780,1,1,1.0000,-0.0000,1.44680,0.20679,-2.78406,1.00643,1.57079,0.00002,-0.14512,-0.38002,0.03973,,,,,,,,,,,,,,,,,,,,,,,,,,0,0,0,0,0
4.2720,1783185879.9856,1,1,1.0000,-0.0000,1.44680,0.20673,-2.78408,1.00651,1.57079,0.00002,-0.14512,-0.38002,0.03971,,,,,,,,,,,,,,,,,,,,,,,,,,0,0,0,0,0
4.2837,1783185879.9973,1,1,1.0000,-0.0000,1.44680,0.20658,-2.78411,1.00670,1.57079,0.00002,-0.14512,-0.38002,0.03967,,,,,,,,,,,,,,,,,,,,,,,,,,0,0,0,0,0
4.2917,1783185880.0053,1,1,1.0000,-0.0000,1.44680,0.20653,-2.78412,1.00676,1.57079,0.00002,-0.14512,-0.38002,0.03966,,,,,,,,,,,,,,,,,,,,,,,,,,0,0,0,0,0
4.3073,1783185880.0209,1,1,1.0000,-0.0000,1.44680,0.20641,-2.78415,1.00691,1.57079,0.00002,-0.14512,-0.38002,0.03963,,,,,,,,,,,,,,,,,,,,,,,,,,0,0,0,0,0
4.3136,1783185880.0272,1,1,1.0000,-0.0000,1.44680,0.20635,-2.78417,1.00698,1.57079,0.00002,-0.14512,-0.38002,0.03962,,,,,,,,,,,,,,,,,,,,,,,,,,0,0,0,0,0
4.3266,1783185880.0402,1,1,1.0000,-0.0000,1.44680,0.20624,-2.78419,1.00712,1.57079,0.00002,-0.14512,-0.38002,0.03959,,,,,,,,,,,,,,,,,,,,,,,,,,0,0,0,0,0
4.3356,1783185880.0492,1,1,1.0000,-0.0000,1.44680,0.20619,-2.78420,1.00718,1.57079,0.00002,-0.14512,-0.38002,0.03958,,,,,,,,,,,,,,,,,,,,,,,,,,0,0,0,0,0
4.3427,1783185880.0563,1,1,1.0000,-0.0000,1.44680,0.20611,-2.78422,1.00727,1.57079,0.00002,-0.14512,-0.38002,0.03956,,,,,,,,,,,,,,,,,,,,,,,,,,0,0,0,0,0
4.3431,1783185880.0567,1,1,1.0000,-0.0000,1.44680,0.20611,-2.78422,1.00727,1.57079,0.00002,-0.14512,-0.38002,0.03956,,,,,,,,,,,,,,,,,,,,,,,,,,0,0,0,0,0
4.3575,1783185880.0711,1,1,1.0000,-0.0000,1.44680,0.20606,-2.78424,1.00734,1.57079,0.00002,-0.14512,-0.38002,0.03954,,,,,,,,,,,,,,,,,,,,,,,,,,0,0,0,0,0
4.3626,1783185880.0762,1,1,1.0000,-0.0000,1.44680,0.20599,-2.78425,1.00742,1.57079,0.00002,-0.14512,-0.38002,0.03953,,,,,,,,,,,,,,,,,,,,,,,,,,0,0,0,0,0
4.3630,1783185880.0766,1,1,1.0000,-0.0000,1.44680,0.20599,-2.78425,1.00742,1.57079,0.00002,-0.14512,-0.38002,0.03953,,,,,,,,,,,,,,,,,,,,,,,,,,0,0,0,0,0
4.3735,1783185880.0871,1,1,1.0000,-0.0000,1.44680,0.20589,-2.78428,1.00755,1.57079,0.00002,-0.14512,-0.38002,0.03950,,,,,,,,,,,,,,,,,,,,,,,,,,0,0,0,0,0
4.3885,1783185880.1021,1,1,1.0000,-0.0000,1.44680,0.20578,-2.78430,1.00769,1.57079,0.00002,-0.14512,-0.38002,0.03947,,,,,,,,,,,,,,,,,,,,,,,,,,0,0,0,0,0
4.3920,1783185880.1056,1,1,1.0000,-0.0000,1.44680,0.20576,-2.78431,1.00771,1.57079,0.00002,-0.14512,-0.38002,0.03947,,,,,,,,,,,,,,,,,,,,,,,,,,0,0,0,0,0
4.4029,1783185880.1165,1,1,1.0000,-0.0000,1.44680,0.20565,-2.78433,1.00784,1.57079,0.00002,-0.14512,-0.38002,0.03944,,,,,,,,,,,,,,,,,,,,,,,,,,0,0,0,0,0
4.4168,1783185880.1304,1,1,1.0000,-0.0000,1.44680,0.20560,-2.78435,1.00791,1.57079,0.00002,-0.14512,-0.38002,0.03943,,,,,,,,,,,,,,,,,,,,,,,,,,0,0,0,0,0
4.4247,1783185880.1383,1,1,1.0000,-0.0000,1.44680,0.20553,-2.78436,1.00799,1.57079,0.00002,-0.14512,-0.38002,0.03941,,,,,,,,,,,,,,,,,,,,,,,,,,0,0,0,0,0
4.4252,1783185880.1388,1,1,1.0000,-0.0000,1.44680,0.20553,-2.78436,1.00799,1.57079,0.00002,-0.14512,-0.38002,0.03941,,,,,,,,,,,,,,,,,,,,,,,,,,0,0,0,0,0
4.4370,1783185880.1507,1,1,1.0000,-0.0000,1.44680,0.20537,-2.78440,1.00819,1.57079,0.00002,-0.14512,-0.38002,0.03937,,,,,,,,,,,,,,,,,,,,,,,,,,0,0,0,0,0
4.4374,1783185880.1510,1,1,1.0000,-0.0000,1.44680,0.20537,-2.78440,1.00819,1.57079,0.00002,-0.14512,-0.38002,0.03937,,,,,,,,,,,,,,,,,,,,,,,,,,0,0,0,0,0
4.4466,1783185880.1602,1,1,1.0000,-0.0000,1.44680,0.20531,-2.78441,1.00826,1.57079,0.00002,-0.14512,-0.38002,0.03936,,,,,,,,,,,,,,,,,,,,,,,,,,0,0,0,0,0
4.4564,1783185880.1700,1,1,1.0000,-0.0000,1.44680,0.20527,-2.78442,1.00832,1.57079,0.00002,-0.14512,-0.38002,0.03935,,,,,,,,,,,,,,,,,,,,,,,,,,0,0,0,0,0
4.4636,1783185880.1772,1,1,1.0000,-0.0000,1.44680,0.20519,-2.78444,1.00842,1.57079,0.00002,-0.14512,-0.38002,0.03933,,,,,,,,,,,,,,,,,,,,,,,,,,0,0,0,0,0
4.4762,1783185880.1898,1,1,1.0000,-0.0000,1.44680,0.20513,-2.78446,1.00849,1.57079,0.00002,-0.14512,-0.38002,0.03931,,,,,,,,,,,,,,,,,,,,,,,,,,0,0,0,0,0
4.4827,1783185880.1963,1,1,1.0000,-0.0000,1.44680,0.20507,-2.78447,1.00857,1.57079,0.00002,-0.14512,-0.38002,0.03930,,,,,,,,,,,,,,,,,,,,,,,,,,0,0,0,0,0
4.4831,1783185880.1967,1,1,1.0000,-0.0000,1.44680,0.20507,-2.78447,1.00857,1.57079,0.00002,-0.14512,-0.38002,0.03930,,,,,,,,,,,,,,,,,,,,,,,,,,0,0,0,0,0
4.4935,1783185880.2071,1,1,1.0000,-0.0000,1.44680,0.20497,-2.78450,1.00869,1.57079,0.00002,-0.14512,-0.38002,0.03927,,,,,,,,,,,,,,,,,,,,,,,,,,0,0,0,0,0
4.4939,1783185880.2075,1,1,1.0000,-0.0000,1.44680,0.20497,-2.78450,1.00869,1.57079,0.00002,-0.14512,-0.38002,0.03927,,,,,,,,,,,,,,,,,,,,,,,,,,0,0,0,0,0
4.5031,1783185880.2167,1,1,1.0000,-0.0000,1.44680,0.20486,-2.78452,1.00883,1.57079,0.00002,-0.14512,-0.38002,0.03924,,,,,,,,,,,,,,,,,,,,,,,,,,0,0,0,0,0
4.5138,1783185880.2274,1,1,1.0000,-0.0000,1.44680,0.20483,-2.78453,1.00886,1.57079,0.00002,-0.14512,-0.38002,0.03924,,,,,,,,,,,,,,,,,,,,,,,,,,0,0,0,0,0
4.5265,1783185880.2401,1,1,1.0000,-0.0000,1.44680,0.20468,-2.78456,1.00905,1.57079,0.00002,-0.14512,-0.38002,0.03920,,,,,,,,,,,,,,,,,,,,,,,,,,0,0,0,0,0
4.5328,1783185880.2464,1,1,1.0000,-0.0000,1.44680,0.20468,-2.78456,1.00905,1.57079,0.00002,-0.14512,-0.38002,0.03920,,,,,,,,,,,,,,,,,,,,,,,,,,0,0,0,0,0
4.5431,1783185880.2567,1,1,1.0000,-0.0000,1.44680,0.20460,-2.78458,1.00914,1.57079,0.00002,-0.14512,-0.38002,0.03918,,,,,,,,,,,,,,,,,,,,,,,,,,0,0,0,0,0
4.5533,1783185880.2669,1,1,1.0000,-0.0000,1.44680,0.20450,-2.78461,1.00927,1.57079,0.00002,-0.14512,-0.38002,0.03915,,,,,,,,,,,,,,,,,,,,,,,,,,0,0,0,0,0
4.5536,1783185880.2672,1,1,1.0000,-0.0000,1.44680,0.20450,-2.78461,1.00927,1.57079,0.00002,-0.14512,-0.38002,0.03915,,,,,,,,,,,,,,,,,,,,,,,,,,0,0,0,0,0
4.5636,1783185880.2772,1,1,1.0000,-0.0000,1.44680,0.20439,-2.78463,1.00940,1.57079,0.00002,-0.14512,-0.38002,0.03913,,,,,,,,,,,,,,,,,,,,,,,,,,0,0,0,0,0
4.5719,1783185880.2855,1,1,1.0000,-0.0000,1.44680,0.20436,-2.78464,1.00944,1.57079,0.00002,-0.14512,-0.38002,0.03912,,,,,,,,,,,,,,,,,,,,,,,,,,0,0,0,0,0
4.5723,1783185880.2859,1,1,1.0000,-0.0000,1.44680,0.20436,-2.78464,1.00944,1.57079,0.00002,-0.14512,-0.38002,0.03912,,,,,,,,,,,,,,,,,,,,,,,,,,0,0,0,0,0
4.5828,1783185880.2964,1,1,1.0000,-0.0000,1.44680,0.20422,-2.78467,1.00961,1.57079,0.00002,-0.14512,-0.38002,0.03908,,,,,,,,,,,,,,,,,,,,,,,,,,0,0,0,0,0
4.5948,1783185880.3084,1,1,1.0000,-0.0000,1.44680,0.20416,-2.78469,1.00969,1.57079,0.00002,-0.14512,-0.38002,0.03907,,,,,,,,,,,,,,,,,,,,,,,,,,0,0,0,0,0
4.5951,1783185880.3087,1,1,1.0000,-0.0000,1.44680,0.20416,-2.78469,1.00969,1.57079,0.00002,-0.14512,-0.38002,0.03907,,,,,,,,,,,,,,,,,,,,,,,,,,0,0,0,0,0
4.6026,1783185880.3162,1,1,1.0000,-0.0000,1.44680,0.20409,-2.78470,1.00977,1.57079,0.00002,-0.14512,-0.38002,0.03905,,,,,,,,,,,,,,,,,,,,,,,,,,0,0,0,0,0
4.6028,1783185880.3164,1,1,1.0000,-0.0000,1.44680,0.20409,-2.78470,1.00977,1.57079,0.00002,-0.14512,-0.38002,0.03905,,,,,,,,,,,,,,,,,,,,,,,,,,0,0,0,0,0
4.6269,1783185880.3405,1,1,1.0000,-0.0000,1.44680,0.20388,-2.78475,1.01004,1.57079,0.00002,-0.14512,-0.38002,0.03900,,,,,,,,,,,,,,,,,,,,,,,,,,0,0,0,0,0
4.6428,1783185880.3564,1,1,1.0000,-0.0000,1.44680,0.20372,-2.78479,1.01024,1.57079,0.00002,-0.14512,-0.38002,0.03896,,,,,,,,,,,,,,,,,,,,,,,,,,0,0,0,0,0
4.6431,1783185880.3567,1,1,1.0000,-0.0000,1.44680,0.20372,-2.78479,1.01024,1.57079,0.00002,-0.14512,-0.38002,0.03896,,,,,,,,,,,,,,,,,,,,,,,,,,0,0,0,0,0
4.6560,1783185880.3696,1,1,1.0000,-0.0000,1.44680,0.20365,-2.78481,1.01032,1.57079,0.00002,-0.14512,-0.38002,0.03894,,,,,,,,,,,,,,,,,,,,,,,,,,0,0,0,0,0
4.6620,1783185880.3756,1,1,1.0000,-0.0000,1.44680,0.20363,-2.78481,1.01035,1.57079,0.00002,-0.14512,-0.38002,0.03893,,,,,,,,,,,,,,,,,,,,,,,,,,0,0,0,0,0
4.6740,1783185880.3876,1,1,1.0000,-0.0000,1.44680,0.20349,-2.78485,1.01052,1.57079,0.00002,-0.14512,-0.38002,0.03890,,,,,,,,,,,,,,,,,,,,,,,,,,0,0,0,0,0
4.6846,1783185880.3982,1,1,1.0000,-0.0000,1.44680,0.20338,-2.78487,1.01065,1.57079,0.00002,-0.14512,-0.38002,0.03887,,,,,,,,,,,,,,,,,,,,,,,,,,0,0,0,0,0
4.6851,1783185880.3987,1,1,1.0000,-0.0000,1.44680,0.20338,-2.78487,1.01065,1.57079,0.00002,-0.14512,-0.38002,0.03887,,,,,,,,,,,,,,,,,,,,,,,,,,0,0,0,0,0
4.6920,1783185880.4056,1,1,1.0000,-0.0000,1.44680,0.20335,-2.78488,1.01069,1.57079,0.00002,-0.14512,-0.38002,0.03886,,,,,,,,,,,,,,,,,,,,,,,,,,0,0,0,0,0
4.6926,1783185880.4062,1,1,1.0000,-0.0000,1.44680,0.20335,-2.78488,1.01069,1.57079,0.00002,-0.14512,-0.38002,0.03886,,,,,,,,,,,,,,,,,,,,,,,,,,0,0,0,0,0
4.7024,1783185880.4160,1,1,1.0000,-0.0000,1.44680,0.20321,-2.78491,1.01087,1.57079,0.00002,-0.14512,-0.38002,0.03883,,,,,,,,,,,,,,,,,,,,,,,,,,0,0,0,0,0
4.7120,1783185880.4256,1,1,1.0000,-0.0000,1.44680,0.20315,-2.78492,1.01093,1.57079,0.00002,-0.14512,-0.38002,0.03882,,,,,,,,,,,,,,,,,,,,,,,,,,0,0,0,0,0
4.7365,1783185880.4501,1,1,1.0000,-0.0000,1.44680,0.20293,-2.78498,1.01121,1.57079,0.00002,-0.14512,-0.38002,0.03876,,,,,,,,,,,,,,,,,,,,,,,,,,0,0,0,0,0
4.7369,1783185880.4505,1,1,1.0000,-0.0000,1.44680,0.20293,-2.78498,1.01121,1.57079,0.00002,-0.14512,-0.38002,0.03876,,,,,,,,,,,,,,,,,,,,,,,,,,0,0,0,0,0
4.7465,1783185880.4602,1,1,1.0000,-0.0000,1.44680,0.20287,-2.78499,1.01129,1.57079,0.00002,-0.14512,-0.38002,0.03874,,,,,,,,,,,,,,,,,,,,,,,,,,0,0,0,0,0
4.7470,1783185880.4606,1,1,1.0000,-0.0000,1.44680,0.20287,-2.78499,1.01129,1.57079,0.00002,-0.14512,-0.38002,0.03874,,,,,,,,,,,,,,,,,,,,,,,,,,0,0,0,0,0
4.7563,1783185880.4699,1,1,1.0000,-0.0000,1.44680,0.20280,-2.78501,1.01137,1.57079,0.00002,-0.14512,-0.38002,0.03873,,,,,,,,,,,,,,,,,,,,,,,,,,0,0,0,0,0
4.7672,1783185880.4808,1,1,1.0000,-0.0000,1.44680,0.20265,-2.78504,1.01156,1.57079,0.00002,-0.14512,-0.38002,0.03869,,,,,,,,,,,,,,,,,,,,,,,,,,0,0,0,0,0
4.7675,1783185880.4811,1,1,1.0000,-0.0000,1.44680,0.20265,-2.78504,1.01156,1.57079,0.00002,-0.14512,-0.38002,0.03869,,,,,,,,,,,,,,,,,,,,,,,,,,0,0,0,0,0
4.7771,1783185880.4907,1,1,1.0000,-0.0000,1.44680,0.20264,-2.78505,1.01157,1.57079,0.00002,-0.14512,-0.38002,0.03869,,,,,,,,,,,,,,,,,,,,,,,,,,0,0,0,0,0
4.7860,1783185880.4996,1,1,1.0000,-0.0000,1.44680,0.20258,-2.78506,1.01165,1.57079,0.00002,-0.14512,-0.38002,0.03867,,,,,,,,,,,,,,,,,,,,,,,,,,0,0,0,0,0
4.7991,1783185880.5127,1,1,1.0000,-0.0000,1.44680,0.20237,-2.78511,1.01190,1.57079,0.00002,-0.14512,-0.38002,0.03862,,,,,,,,,,,,,,,,,,,,,,,,,,0,0,0,0,0
4.8049,1783185880.5185,1,1,1.0000,-0.0000,1.44680,0.20237,-2.78511,1.01190,1.57079,0.00002,-0.14512,-0.38002,0.03862,,,,,,,,,,,,,,,,,,,,,,,,,,0,0,0,0,0
4.8175,1783185880.5311,1,1,1.0000,-0.0000,1.44680,0.20230,-2.78513,1.01199,1.57079,0.00002,-0.14512,-0.38002,0.03860,,,,,,,,,,,,,,,,,,,,,,,,,,0,0,0,0,0
4.8179,1783185880.5315,1,1,1.0000,-0.0000,1.44680,0.20230,-2.78513,1.01199,1.57079,0.00002,-0.14512,-0.38002,0.03860,,,,,,,,,,,,,,,,,,,,,,,,,,0,0,0,0,0
4.8280,1783185880.5416,1,1,1.0000,-0.0000,1.44680,0.20214,-2.78516,1.01218,1.57079,0.00002,-0.14512,-0.38002,0.03856,,,,,,,,,,,,,,,,,,,,,,,,,,0,0,0,0,0
4.8372,1783185880.5508,1,1,1.0000,-0.0000,1.44680,0.20213,-2.78517,1.01220,1.57079,0.00002,-0.14512,-0.38002,0.03856,,,,,,,,,,,,,,,,,,,,,,,,,,0,0,0,0,0
4.8469,1783185880.5605,1,1,1.0000,-0.0000,1.44680,0.20202,-2.78519,1.01233,1.57079,0.00002,-0.14512,-0.38002,0.03853,,,,,,,,,,,,,,,,,,,,,,,,,,0,0,0,0,0
4.8564,1783185880.5701,1,1,1.0000,-0.0000,1.44680,0.20192,-2.78522,1.01246,1.57079,0.00002,-0.14512,-0.38002,0.03851,,,,,,,,,,,,,,,,,,,,,,,,,,0,0,0,0,0
4.8567,1783185880.5703,1,1,1.0000,-0.0000,1.44680,0.20192,-2.78522,1.01246,1.57079,0.00002,-0.14512,-0.38002,0.03851,,,,,,,,,,,,,,,,,,,,,,,,,,0,0,0,0,0
4.8660,1783185880.5796,1,1,1.0000,-0.0000,1.44680,0.20186,-2.78523,1.01253,1.57079,0.00002,-0.14512,-0.38001,0.03849,,,,,,,,,,,,,,,,,,,,,,,,,,0,0,0,0,0
4.8756,1783185880.5892,1,1,1.0000,-0.0000,1.44680,0.20179,-2.78525,1.01262,1.57079,0.00002,-0.14512,-0.38001,0.03847,,,,,,,,,,,,,,,,,,,,,,,,,,0,0,0,0,0
4.8868,1783185880.6004,1,1,1.0000,-0.0000,1.44680,0.20163,-2.78528,1.01281,1.57079,0.00002,-0.14512,-0.38001,0.03844,,,,,,,,,,,,,,,,,,,,,,,,,,0,0,0,0,0
4.8872,1783185880.6008,1,1,1.0000,-0.0000,1.44680,0.20163,-2.78528,1.01281,1.57079,0.00002,-0.14512,-0.38001,0.03844,,,,,,,,,,,,,,,,,,,,,,,,,,0,0,0,0,0
4.8967,1783185880.6103,1,1,1.0000,-0.0000,1.44680,0.20158,-2.78530,1.01288,1.57079,0.00002,-0.14512,-0.38001,0.03842,,,,,,,,,,,,,,,,,,,,,,,,,,0,0,0,0,0
4.8972,1783185880.6108,1,1,1.0000,-0.0000,1.44680,0.20158,-2.78530,1.01288,1.57079,0.00002,-0.14512,-0.38001,0.03842,,,,,,,,,,,,,,,,,,,,,,,,,,0,0,0,0,0
4.9051,1783185880.6187,1,1,1.0000,-0.0000,1.44680,0.20156,-2.78530,1.01291,1.57079,0.00002,-0.14512,-0.38001,0.03842,,,,,,,,,,,,,,,,,,,,,,,,,,0,0,0,0,0
4.9193,1783185880.6329,1,1,1.0000,-0.0000,1.44680,0.20140,-2.78534,1.01310,1.57079,0.00003,-0.14512,-0.38001,0.03838,,,,,,,,,,,,,,,,,,,,,,,,,,0,0,0,0,0
4.9278,1783185880.6414,1,1,1.0000,-0.0000,1.44680,0.20139,-2.78534,1.01311,1.57079,0.00003,-0.14512,-0.38001,0.03837,,,,,,,,,,,,,,,,,,,,,,,,,,0,0,0,0,0
4.9357,1783185880.6493,1,1,1.0000,-0.0000,1.44680,0.20133,-2.78535,1.01319,1.57079,0.00003,-0.14512,-0.38001,0.03836,,,,,,,,,,,,,,,,,,,,,,,,,,0,0,0,0,0
4.9492,1783185880.6628,1,1,1.0000,-0.0000,1.44680,0.20117,-2.78539,1.01339,1.57079,0.00003,-0.14512,-0.38001,0.03832,,,,,,,,,,,,,,,,,,,,,,,,,,0,0,0,0,0
4.9591,1783185880.6727,1,1,1.0000,-0.0000,1.44680,0.20111,-2.78541,1.01346,1.57079,0.00003,-0.14512,-0.38001,0.03830,,,,,,,,,,,,,,,,,,,,,,,,,,0,0,0,0,0
4.9596,1783185880.6732,1,1,1.0000,-0.0000,1.44680,0.20111,-2.78541,1.01346,1.57079,0.00003,-0.14512,-0.38001,0.03830,,,,,,,,,,,,,,,,,,,,,,,,,,0,0,0,0,0
4.9658,1783185880.6794,1,1,1.0000,-0.0000,1.44680,0.20109,-2.78541,1.01348,1.57079,0.00003,-0.14512,-0.38001,0.03830,,,,,,,,,,,,,,,,,,,,,,,,,,0,0,0,0,0
4.9664,1783185880.6801,1,1,1.0000,-0.0000,1.44680,0.20106,-2.78542,1.01352,1.57079,0.00003,-0.14512,-0.38001,0.03829,,,,,,,,,,,,,,,,,,,,,,,,,,0,0,0,0,0
4.9748,1783185880.6885,1,1,1.0000,-0.0000,1.44680,0.20098,-2.78544,1.01362,1.57079,0.00003,-0.14512,-0.38001,0.03827,,,,,,,,,,,,,,,,,,,,,,,,,,0,0,0,0,0
4.9753,1783185880.6889,1,1,1.0000,-0.0000,1.44680,0.20098,-2.78544,1.01362,1.57079,0.00003,-0.14512,-0.38001,0.03827,,,,,,,,,,,,,,,,,,,,,,,,,,0,0,0,0,0
4.9877,1783185880.7013,1,1,1.0000,-0.0000,1.44680,0.20093,-2.78545,1.01368,1.57079,0.00003,-0.14512,-0.38001,0.03826,,,,,,,,,,,,,,,,,,,,,,,,,,0,0,0,0,0
4.9881,1783185880.7017,1,1,1.0000,-0.0000,1.44680,0.20093,-2.78545,1.01368,1.57079,0.00003,-0.14512,-0.38001,0.03826,,,,,,,,,,,,,,,,,,,,,,,,,,0,0,0,0,0
4.9968,1783185880.7104,1,1,1.0000,-0.0000,1.44680,0.20086,-2.78546,1.01377,1.57079,0.00003,-0.14512,-0.38001,0.03824,,,,,,,,,,,,,,,,,,,,,,,,,,0,0,0,0,0
4.9973,1783185880.7109,1,1,1.0000,-0.0000,1.44680,0.20086,-2.78546,1.01377,1.57079,0.00003,-0.14512,-0.38001,0.03824,,,,,,,,,,,,,,,,,,,,,,,,,,0,0,0,0,0
5.0066,1783185880.7202,1,1,1.0000,-0.0000,1.44680,0.20070,-2.78550,1.01396,1.57079,0.00003,-0.14512,-0.38001,0.03820,,,,,,,,,,,,,,,,,,,,,,,,,,0,0,0,0,0
5.0161,1783185880.7297,1,1,1.0000,-0.0000,1.44680,0.20065,-2.78551,1.01403,1.57079,0.00003,-0.14512,-0.38001,0.03819,,,,,,,,,,,,,,,,,,,,,,,,,,0,0,0,0,0
5.0307,1783185880.7443,1,1,1.0000,-0.0000,1.44680,0.20056,-2.78554,1.01414,1.57079,0.00003,-0.14512,-0.38001,0.03817,,,,,,,,,,,,,,,,,,,,,,,,,,0,0,0,0,0
5.0309,1783185880.7445,1,1,1.0000,-0.0000,1.44680,0.20056,-2.78554,1.01414,1.57079,0.00003,-0.14512,-0.38001,0.03817,,,,,,,,,,,,,,,,,,,,,,,,,,0,0,0,0,0
5.0367,1783185880.7504,1,1,1.0000,-0.0000,1.44680,0.20052,-2.78554,1.01419,1.57079,0.00003,-0.14512,-0.38001,0.03816,,,,,,,,,,,,,,,,,,,,,,,,,,0,0,0,0,0
5.0456,1783185880.7593,1,1,1.0000,-0.0000,1.44680,0.20047,-2.78556,1.01425,1.57079,0.00003,-0.14512,-0.38001,0.03814,,,,,,,,,,,,,,,,,,,,,,,,,,0,0,0,0,0
5.0464,1783185880.7600,1,1,1.0000,-0.0000,1.44680,0.20046,-2.78556,1.01426,1.57079,0.00003,-0.14512,-0.38001,0.03814,,,,,,,,,,,,,,,,,,,,,,,,,,0,0,0,0,0
5.0566,1783185880.7702,1,1,1.0000,-0.0000,1.44680,0.20040,-2.78557,1.01434,1.57079,0.00003,-0.14512,-0.38001,0.03813,,,,,,,,,,,,,,,,,,,,,,,,,,0,0,0,0,0
5.0570,1783185880.7706,1,1,1.0000,-0.0000,1.44680,0.20040,-2.78557,1.01434,1.57079,0.00003,-0.14512,-0.38001,0.03813,,,,,,,,,,,,,,,,,,,,,,,,,,0,0,0,0,0
5.0695,1783185880.7831,1,1,1.0000,-0.0000,1.44680,0.20024,-2.78561,1.01454,1.57079,0.00003,-0.14512,-0.38001,0.03809,,,,,,,,,,,,,,,,,,,,,,,,,,0,0,0,0,0
5.0757,1783185880.7893,1,1,1.0000,-0.0000,1.44680,0.20018,-2.78562,1.01460,1.57079,0.00003,-0.14512,-0.38001,0.03807,,,,,,,,,,,,,,,,,,,,,,,,,,0,0,0,0,0
5.0910,1783185880.8046,1,1,1.0000,-0.0000,1.44680,0.20009,-2.78564,1.01471,1.57079,0.00003,-0.14512,-0.38001,0.03805,,,,,,,,,,,,,,,,,,,,,,,,,,0,0,0,0,0
