Martins-Lucaas/twinforge/sensors/Data/20260713_124313__samples.csv
t_rel_s,t_unix,cycle,phase,setpoint_n,force_net_n,q1,q2,q3,q4,q5,q6,tcp_x,tcp_y,tcp_z,taxel_0,taxel_1,taxel_2,taxel_3,taxel_4,taxel_5,taxel_6,taxel_7,taxel_8,taxel_9,taxel_10,taxel_11,taxel_12,taxel_13,taxel_14,taxel_15,taxel_16,taxel_17,taxel_18,taxel_19,taxel_20,taxel_21,taxel_22,taxel_23,taxel_24,n_RA,n_SA,cn_mm,cn_ra,cn_sa
0.0314,1783957393.5563,1,0,3.0000,0.0000,1.42244,0.00071,-2.63056,1.05904,1.57082,0.11674,-0.12763,-0.48149,0.03736,,,,,,,,,,,,,,,,,,,,,,,,,,0,0,0,0,0
0.0318,1783957393.5567,1,0,3.0000,0.0000,1.42244,0.00071,-2.63056,1.05904,1.57082,0.11674,-0.12763,-0.48149,0.03736,,,,,,,,,,,,,,,,,,,,,,,,,,0,0,0,0,0
0.0322,1783957393.5571,1,0,3.0000,0.0000,1.42244,0.00071,-2.63056,1.05904,1.57082,0.11674,-0.12763,-0.48149,0.03736,,,,,,,,,,,,,,,,,,,,,,,,,,0,0,0,0,0
0.0331,1783957393.5579,1,0,3.0000,0.0000,1.42244,0.00071,-2.63056,1.05904,1.57082,0.11674,-0.12763,-0.48150,0.03736,,,,,,,,,,,,,,,,,,,,,,,,,,0,0,0,0,0
0.0410,1783957393.5658,1,0,3.0000,0.0000,1.42244,0.00071,-2.63055,1.05905,1.57081,0.11674,-0.12763,-0.48150,0.03737,,,,,,,,,,,,,,,,,,,,,,,,,,0,0,0,0,0
0.1148,1783957393.6397,1,0,3.0000,0.0000,1.42244,0.00071,-2.63053,1.05907,1.57080,0.11675,-0.12763,-0.48152,0.03738,,,,,,,,,,,,,,,,,,,,,,,,,,0,0,0,0,0
0.1689,1783957393.6938,1,0,3.0000,0.0000,1.42244,0.00071,-2.63053,1.05907,1.57080,0.11675,-0.12763,-0.48152,0.03738,,,,,,,,,,,,,,,,,,,,,,,,,,0,0,0,0,0
0.1693,1783957393.6942,1,0,3.0000,0.0000,1.42244,0.00071,-2.63053,1.05907,1.57080,0.11675,-0.12763,-0.48152,0.03738,,,,,,,,,,,,,,,,,,,,,,,,,,0,0,0,0,0
0.1696,1783957393.6945,1,0,3.0000,0.0000,1.42244,0.00071,-2.63053,1.05907,1.57080,0.11675,-0.12763,-0.48152,0.03738,,,,,,,,,,,,,,,,,,,,,,,,,,0,0,0,0,0
0.1698,1783957393.6947,1,0,3.0000,0.0000,1.42244,0.00071,-2.63053,1.05907,1.57080,0.11675,-0.12763,-0.48152,0.03738,,,,,,,,,,,,,,,,,,,,,,,,,,0,0,0,0,0
0.1701,1783957393.6950,1,0,3.0000,0.0000,1.42244,0.00071,-2.63053,1.05907,1.57080,0.11675,-0.12763,-0.48152,0.03738,,,,,,,,,,,,,,,,,,,,,,,,,,0,0,0,0,0
0.1704,1783957393.6953,1,0,3.0000,0.0000,1.42244,0.00071,-2.63053,1.05907,1.57080,0.11675,-0.12763,-0.48152,0.03738,,,,,,,,,,,,,,,,,,,,,,,,,,0,0,0,0,0
0.1707,1783957393.6955,1,0,3.0000,0.0000,1.42244,0.00071,-2.63053,1.05907,1.57080,0.11675,-0.12763,-0.48152,0.03738,,,,,,,,,,,,,,,,,,,,,,,,,,0,0,0,0,0
0.1709,1783957393.6958,1,0,3.0000,0.0000,1.42244,0.00071,-2.63053,1.05907,1.57080,0.11675,-0.12763,-0.48152,0.03738,,,,,,,,,,,,,,,,,,,,,,,,,,0,0,0,0,0
0.1717,1783957393.6966,1,0,3.0000,0.0000,1.42244,0.00071,-2.63053,1.05907,1.57080,0.11675,-0.12763,-0.48152,0.03738,,,,,,,,,,,,,,,,,,,,,,,,,,0,0,0,0,0
0.1737,1783957393.6985,1,0,3.0000,0.0000,1.42244,0.00071,-2.63053,1.05907,1.57080,0.11675,-0.12763,-0.48152,0.03738,,,,,,,,,,,,,,,,,,,,,,,,,,0,0,0,0,0
0.1741,1783957393.6989,1,0,3.0000,0.0000,1.42244,0.00071,-2.63053,1.05907,1.57080,0.11675,-0.12763,-0.48152,0.03738,,,,,,,,,,,,,,,,,,,,,,,,,,0,0,0,0,0
0.1767,1783957393.7016,1,0,3.0000,0.0000,1.42244,0.00071,-2.63053,1.05907,1.57080,0.11675,-0.12763,-0.48152,0.03738,,,,,,,,,,,,,,,,,,,,,,,,,,0,0,0,0,0
0.1978,1783957393.7227,1,0,3.0000,0.0000,1.42244,0.00071,-2.63053,1.05907,1.57080,0.11675,-0.12763,-0.48152,0.03738,,,,,,,,,,,,,,,,,,,,,,,,,,0,0,0,0,0
0.2018,1783957393.7267,1,0,3.0000,0.0000,1.42244,0.00071,-2.63053,1.05907,1.57080,0.11675,-0.12763,-0.48152,0.03738,,,,,,,,,,,,,,,,,,,,,,,,,,0,0,0,0,0
0.2101,1783957393.7350,1,0,3.0000,0.0000,1.42244,0.00071,-2.63053,1.05907,1.57080,0.11675,-0.12763,-0.48152,0.03738,,,,,,,,,,,,,,,,,,,,,,,,,,0,0,0,0,0
0.2103,1783957393.7352,1,0,3.0000,0.0000,1.42244,0.00071,-2.63053,1.05907,1.57080,0.11675,-0.12763,-0.48152,0.03738,,,,,,,,,,,,,,,,,,,,,,,,,,0,0,0,0,0
0.2108,1783957393.7357,1,0,3.0000,0.0000,1.42244,0.00071,-2.63053,1.05907,1.57080,0.11675,-0.12763,-0.48152,0.03738,,,,,,,,,,,,,,,,,,,,,,,,,,0,0,0,0,0
0.2208,1783957393.7457,1,0,3.0000,0.0000,1.42244,0.00071,-2.63053,1.05907,1.57080,0.11675,-0.12763,-0.48152,0.03738,,,,,,,,,,,,,,,,,,,,,,,,,,0,0,0,0,0
0.2358,1783957393.7607,1,0,3.0000,0.0000,1.42244,0.00071,-2.63053,1.05907,1.57080,0.11675,-0.12763,-0.48152,0.03738,,,,,,,,,,,,,,,,,,,,,,,,,,0,0,0,0,0
0.2461,1783957393.7710,1,0,3.0000,0.0000,1.42244,0.00071,-2.63053,1.05907,1.57080,0.11675,-0.12763,-0.48152,0.03738,,,,,,,,,,,,,,,,,,,,,,,,,,0,0,0,0,0
0.2510,1783957393.7758,1,0,3.0000,0.0000,1.42244,0.00071,-2.63053,1.05907,1.57080,0.11675,-0.12763,-0.48152,0.03738,,,,,,,,,,,,,,,,,,,,,,,,,,0,0,0,0,0
0.2628,1783957393.7877,1,0,3.0000,0.0000,1.42244,0.00071,-2.63053,1.05907,1.57080,0.11675,-0.12763,-0.48152,0.03738,,,,,,,,,,,,,,,,,,,,,,,,,,0,0,0,0,0
0.2755,1783957393.8004,1,0,3.0000,0.0000,1.42244,0.00071,-2.63053,1.05907,1.57080,0.11675,-0.12763,-0.48152,0.03738,,,,,,,,,,,,,,,,,,,,,,,,,,0,0,0,0,0
0.2841,1783957393.8090,1,0,3.0000,0.0000,1.42244,0.00071,-2.63053,1.05907,1.57080,0.11675,-0.12763,-0.48152,0.03738,,,,,,,,,,,,,,,,,,,,,,,,,,0,0,0,0,0
0.2925,1783957393.8174,1,0,3.0000,0.0000,1.42244,0.00071,-2.63053,1.05907,1.57080,0.11675,-0.12763,-0.48152,0.03738,,,,,,,,,,,,,,,,,,,,,,,,,,0,0,0,0,0
0.3043,1783957393.8292,1,0,3.0000,0.0000,1.42244,0.00071,-2.63053,1.05907,1.57080,0.11675,-0.12763,-0.48152,0.03738,,,,,,,,,,,,,,,,,,,,,,,,,,0,0,0,0,0
0.3373,1783957393.8622,1,0,3.0000,0.0000,1.42244,0.00071,-2.63053,1.05907,1.57080,0.11675,-0.12763,-0.48152,0.03738,,,,,,,,,,,,,,,,,,,,,,,,,,0,0,0,0,0
0.3377,1783957393.8626,1,0,3.0000,0.0000,1.42244,0.00071,-2.63053,1.05907,1.57080,0.11675,-0.12763,-0.48152,0.03738,,,,,,,,,,,,,,,,,,,,,,,,,,0,0,0,0,0
0.3526,1783957393.8775,1,0,3.0000,0.0000,1.42244,0.00071,-2.63053,1.05907,1.57080,0.11675,-0.12763,-0.48152,0.03738,,,,,,,,,,,,,,,,,,,,,,,,,,0,0,0,0,0
0.3534,1783957393.8783,1,0,3.0000,0.0000,1.42244,0.00071,-2.63053,1.05907,1.57080,0.11675,-0.12763,-0.48152,0.03738,,,,,,,,,,,,,,,,,,,,,,,,,,0,0,0,0,0
0.3658,1783957393.8907,1,0,3.0000,0.0000,1.42244,0.00071,-2.63053,1.05907,1.57080,0.11675,-0.12763,-0.48152,0.03738,,,,,,,,,,,,,,,,,,,,,,,,,,0,0,0,0,0
0.3765,1783957393.9013,1,0,3.0000,0.0000,1.42244,0.00071,-2.63053,1.05907,1.57080,0.11675,-0.12763,-0.48152,0.03738,,,,,,,,,,,,,,,,,,,,,,,,,,0,0,0,0,0
0.3818,1783957393.9067,1,0,3.0000,0.0000,1.42244,0.00071,-2.63053,1.05907,1.57080,0.11675,-0.12763,-0.48152,0.03738,,,,,,,,,,,,,,,,,,,,,,,,,,0,0,0,0,0
0.3823,1783957393.9072,1,0,3.0000,0.0000,1.42244,0.00071,-2.63053,1.05907,1.57080,0.11675,-0.12763,-0.48152,0.03738,,,,,,,,,,,,,,,,,,,,,,,,,,0,0,0,0,0
0.4235,1783957393.9484,1,0,3.0000,0.0000,1.42244,0.00071,-2.63053,1.05907,1.57080,0.11675,-0.12763,-0.48152,0.03738,,,,,,,,,,,,,,,,,,,,,,,,,,0,0,0,0,0
0.4240,1783957393.9489,1,0,3.0000,0.0000,1.42244,0.00071,-2.63053,1.05907,1.57080,0.11675,-0.12763,-0.48152,0.03738,,,,,,,,,,,,,,,,,,,,,,,,,,0,0,0,0,0
0.4245,1783957393.9493,1,0,3.0000,0.0000,1.42244,0.00071,-2.63053,1.05907,1.57080,0.11675,-0.12763,-0.48152,0.03738,,,,,,,,,,,,,,,,,,,,,,,,,,0,0,0,0,0
0.4332,1783957393.9581,1,0,3.0000,0.0000,1.42244,0.00071,-2.63053,1.05907,1.57080,0.11675,-0.12763,-0.48152,0.03738,,,,,,,,,,,,,,,,,,,,,,,,,,0,0,0,0,0
0.4507,1783957393.9756,1,0,3.0000,0.0000,1.42244,0.00071,-2.63053,1.05907,1.57080,0.11675,-0.12763,-0.48152,0.03738,,,,,,,,,,,,,,,,,,,,,,,,,,0,0,0,0,0
0.4510,1783957393.9759,1,0,3.0000,0.0000,1.42244,0.00071,-2.63053,1.05907,1.57080,0.11675,-0.12763,-0.48152,0.03738,,,,,,,,,,,,,,,,,,,,,,,,,,0,0,0,0,0
0.4680,1783957393.9929,1,0,3.0000,0.0000,1.42244,0.00071,-2.63053,1.05907,1.57080,0.11675,-0.12763,-0.48152,0.03738,,,,,,,,,,,,,,,,,,,,,,,,,,0,0,0,0,0
0.4732,1783957393.9981,1,0,3.0000,0.0000,1.42244,0.00071,-2.63053,1.05907,1.57080,0.11675,-0.12763,-0.48152,0.03738,,,,,,,,,,,,,,,,,,,,,,,,,,0,0,0,0,0
0.4761,1783957394.0010,1,0,3.0000,0.0000,1.42244,0.00071,-2.63053,1.05907,1.57080,0.11675,-0.12763,-0.48152,0.03738,,,,,,,,,,,,,,,,,,,,,,,,,,0,0,0,0,0
0.4764,1783957394.0013,1,0,3.0000,0.0000,1.42244,0.00071,-2.63053,1.05907,1.57080,0.11675,-0.12763,-0.48152,0.03738,,,,,,,,,,,,,,,,,,,,,,,,,,0,0,0,0,0
0.4813,1783957394.0062,1,0,3.0000,0.0000,1.42244,0.00071,-2.63053,1.05907,1.57080,0.11675,-0.12763,-0.48152,0.03738,,,,,,,,,,,,,,,,,,,,,,,,,,0,0,0,0,0
0.4816,1783957394.0065,1,0,3.0000,0.0000,1.42244,0.00071,-2.63053,1.05907,1.57080,0.11675,-0.12763,-0.48152,0.03738,,,,,,,,,,,,,,,,,,,,,,,,,,0,0,0,0,0
0.4820,1783957394.0069,1,0,3.0000,0.0000,1.42244,0.00071,-2.63053,1.05907,1.57080,0.11675,-0.12763,-0.48152,0.03738,,,,,,,,,,,,,,,,,,,,,,,,,,0,0,0,0,0
0.4935,1783957394.0184,1,0,3.0000,0.0000,1.42244,0.00071,-2.63053,1.05907,1.57080,0.11675,-0.12763,-0.48152,0.03738,,,,,,,,,,,,,,,,,,,,,,,,,,0,0,0,0,0
0.5080,1783957394.0329,1,0,3.0000,0.0000,1.42244,0.00071,-2.63053,1.05907,1.57080,0.11675,-0.12763,-0.48152,0.03738,,,,,,,,,,,,,,,,,,,,,,,,,,0,0,0,0,0
0.5120,1783957394.0369,1,0,3.0000,0.0000,1.42244,0.00071,-2.63053,1.05907,1.57080,0.11675,-0.12763,-0.48152,0.03738,,,,,,,,,,,,,,,,,,,,,,,,,,0,0,0,0,0
0.5213,1783957394.0461,1,0,3.0000,0.0000,1.42244,0.00071,-2.63053,1.05907,1.57080,0.11675,-0.12763,-0.48152,0.03738,,,,,,,,,,,,,,,,,,,,,,,,,,0,0,0,0,0
0.5318,1783957394.0567,1,0,3.0000,0.0000,1.42244,0.00071,-2.63053,1.05907,1.57080,0.11675,-0.12763,-0.48152,0.03738,,,,,,,,,,,,,,,,,,,,,,,,,,0,0,0,0,0
0.5405,1783957394.0654,1,0,3.0000,0.0000,1.42244,0.00071,-2.63053,1.05907,1.57080,0.11675,-0.12763,-0.48152,0.03738,,,,,,,,,,,,,,,,,,,,,,,,,,0,0,0,0,0
0.5528,1783957394.0777,1,0,3.0000,0.0000,1.42244,0.00071,-2.63053,1.05907,1.57080,0.11675,-0.12763,-0.48152,0.03738,,,,,,,,,,,,,,,,,,,,,,,,,,0,0,0,0,0
0.5637,1783957394.0885,1,0,3.0000,0.0000,1.42244,0.00071,-2.63053,1.05907,1.57080,0.11675,-0.12763,-0.48152,0.03738,,,,,,,,,,,,,,,,,,,,,,,,,,0,0,0,0,0
0.5727,1783957394.0976,1,0,3.0000,0.0000,1.42244,0.00071,-2.63053,1.05907,1.57080,0.11675,-0.12763,-0.48152,0.03738,,,,,,,,,,,,,,,,,,,,,,,,,,0,0,0,0,0
0.5733,1783957394.0981,1,0,3.0000,0.0000,1.42244,0.00071,-2.63053,1.05907,1.57080,0.11675,-0.12763,-0.48152,0.03738,,,,,,,,,,,,,,,,,,,,,,,,,,0,0,0,0,0
0.5822,1783957394.1071,1,0,3.0000,0.0000,1.42244,0.00071,-2.63053,1.05907,1.57080,0.11675,-0.12763,-0.48152,0.03738,,,,,,,,,,,,,,,,,,,,,,,,,,0,0,0,0,0
0.5910,1783957394.1159,1,0,3.0000,0.0000,1.42244,0.00071,-2.63053,1.05907,1.57080,0.11675,-0.12763,-0.48152,0.03738,,,,,,,,,,,,,,,,,,,,,,,,,,0,0,0,0,0
0.5915,1783957394.1164,1,0,3.0000,0.0000,1.42244,0.00071,-2.63053,1.05907,1.57080,0.11675,-0.12763,-0.48152,0.03738,,,,,,,,,,,,,,,,,,,,,,,,,,0,0,0,0,0
0.6114,1783957394.1363,1,0,3.0000,0.0000,1.42244,0.00071,-2.63053,1.05907,1.57080,0.11675,-0.12763,-0.48152,0.03738,,,,,,,,,,,,,,,,,,,,,,,,,,0,0,0,0,0
0.6118,1783957394.1367,1,0,3.0000,0.0000,1.42244,0.00071,-2.63053,1.05907,1.57080,0.11675,-0.12763,-0.48152,0.03738,,,,,,,,,,,,,,,,,,,,,,,,,,0,0,0,0,0
0.6123,1783957394.1372,1,0,3.0000,0.0000,1.42244,0.00071,-2.63053,1.05907,1.57080,0.11675,-0.12763,-0.48152,0.03738,,,,,,,,,,,,,,,,,,,,,,,,,,0,0,0,0,0
0.6201,1783957394.1450,1,0,3.0000,0.0000,1.42244,0.00071,-2.63053,1.05907,1.57080,0.11675,-0.12763,-0.48152,0.03738,,,,,,,,,,,,,,,,,,,,,,,,,,0,0,0,0,0
0.6204,1783957394.1453,1,0,3.0000,0.0000,1.42244,0.00071,-2.63053,1.05907,1.57080,0.11675,-0.12763,-0.48152,0.03738,,,,,,,,,,,,,,,,,,,,,,,,,,0,0,0,0,0
0.6461,1783957394.1710,1,0,3.0000,0.0000,1.42244,0.00071,-2.63053,1.05907,1.57080,0.11675,-0.12763,-0.48152,0.03738,,,,,,,,,,,,,,,,,,,,,,,,,,0,0,0,0,0
0.6464,1783957394.1713,1,0,3.0000,0.0000,1.42244,0.00071,-2.63053,1.05907,1.57080,0.11675,-0.12763,-0.48152,0.03738,,,,,,,,,,,,,,,,,,,,,,,,,,0,0,0,0,0
0.6560,1783957394.1809,1,0,3.0000,0.0000,1.42244,0.00071,-2.63053,1.05907,1.57080,0.11675,-0.12763,-0.48152,0.03738,,,,,,,,,,,,,,,,,,,,,,,,,,0,0,0,0,0
0.6609,1783957394.1858,1,0,3.0000,0.0000,1.42244,0.00071,-2.63053,1.05907,1.57080,0.11675,-0.12763,-0.48152,0.03738,,,,,,,,,,,,,,,,,,,,,,,,,,0,0,0,0,0
0.6728,1783957394.1977,1,0,3.0000,0.0000,1.42244,0.00071,-2.63053,1.05907,1.57080,0.11675,-0.12763,-0.48152,0.03738,,,,,,,,,,,,,,,,,,,,,,,,,,0,0,0,0,0
0.6734,1783957394.1983,1,0,3.0000,0.0000,1.42244,0.00071,-2.63053,1.05907,1.57080,0.11675,-0.12763,-0.48152,0.03738,,,,,,,,,,,,,,,,,,,,,,,,,,0,0,0,0,0
0.6853,1783957394.2101,1,0,3.0000,0.0000,1.42244,0.00071,-2.63053,1.05907,1.57080,0.11675,-0.12763,-0.48152,0.03738,,,,,,,,,,,,,,,,,,,,,,,,,,0,0,0,0,0
0.7025,1783957394.2274,1,0,3.0000,0.0000,1.42244,0.00071,-2.63053,1.05907,1.57080,0.11675,-0.12763,-0.48152,0.03738,,,,,,,,,,,,,,,,,,,,,,,,,,0,0,0,0,0
0.7107,1783957394.2356,1,0,3.0000,0.0000,1.42244,0.00071,-2.63053,1.05907,1.57080,0.11675,-0.12763,-0.48152,0.03738,,,,,,,,,,,,,,,,,,,,,,,,,,0,0,0,0,0
0.7115,1783957394.2364,1,0,3.0000,0.0000,1.42244,0.00071,-2.63053,1.05907,1.57080,0.11675,-0.12763,-0.48152,0.03738,,,,,,,,,,,,,,,,,,,,,,,,,,0,0,0,0,0
0.7118,1783957394.2367,1,0,3.0000,0.0000,1.42244,0.00071,-2.63053,1.05907,1.57080,0.11675,-0.12763,-0.48152,0.03738,,,,,,,,,,,,,,,,,,,,,,,,,,0,0,0,0,0
0.7201,1783957394.2450,1,0,3.0000,0.0000,1.42244,0.00071,-2.63053,1.05907,1.57080,0.11675,-0.12763,-0.48152,0.03738,,,,,,,,,,,,,,,,,,,,,,,,,,0,0,0,0,0
0.7204,1783957394.2453,1,0,3.0000,0.0000,1.42244,0.00071,-2.63053,1.05907,1.57080,0.11675,-0.12763,-0.48152,0.03738,,,,,,,,,,,,,,,,,,,,,,,,,,0,0,0,0,0
0.7348,1783957394.2597,1,1,3.0000,0.0000,1.42244,0.00071,-2.63053,1.05907,1.57080,0.11675,-0.12763,-0.48152,0.03738,,,,,,,,,,,,,,,,,,,,,,,,,,0,0,0,0,0
0.7406,1783957394.2655,1,1,3.0000,0.0000,1.42244,0.00071,-2.63053,1.05907,1.57080,0.11675,-0.12763,-0.48152,0.03738,,,,,,,,,,,,,,,,,,,,,,,,,,0,0,0,0,0
0.7581,1783957394.2829,1,1,3.0000,0.0000,1.42244,0.00071,-2.63053,1.05907,1.57080,0.11675,-0.12763,-0.48152,0.03738,,,,,,,,,,,,,,,,,,,,,,,,,,0,0,0,0,0
0.7617,1783957394.2866,1,1,3.0000,0.0000,1.42244,0.00071,-2.63053,1.05907,1.57080,0.11675,-0.12763,-0.48152,0.03738,,,,,,,,,,,,,,,,,,,,,,,,,,0,0,0,0,0
0.7748,1783957394.2997,1,1,3.0000,0.0000,1.42244,0.00071,-2.63053,1.05907,1.57080,0.11675,-0.12763,-0.48152,0.03738,,,,,,,,,,,,,,,,,,,,,,,,,,0,0,0,0,0
0.7805,1783957394.3053,1,1,3.0000,0.0000,1.42244,0.00071,-2.63053,1.05907,1.57080,0.11675,-0.12763,-0.48152,0.03738,,,,,,,,,,,,,,,,,,,,,,,,,,0,0,0,0,0
0.7903,1783957394.3152,1,1,3.0000,0.0000,1.42244,0.00071,-2.63053,1.05907,1.57080,0.11675,-0.12763,-0.48152,0.03738,,,,,,,,,,,,,,,,,,,,,,,,,,0,0,0,0,0
0.8010,1783957394.3259,1,1,3.0000,0.0000,1.42244,0.00071,-2.63053,1.05907,1.57080,0.11675,-0.12763,-0.48152,0.03738,,,,,,,,,,,,,,,,,,,,,,,,,,0,0,0,0,0
0.8186,1783957394.3435,1,1,3.0000,0.0000,1.42244,0.00071,-2.63053,1.05907,1.57080,0.11675,-0.12763,-0.48152,0.03738,,,,,,,,,,,,,,,,,,,,,,,,,,0,0,0,0,0
0.8226,1783957394.3475,1,1,3.0000,0.0000,1.42244,0.00071,-2.63053,1.05907,1.57080,0.11675,-0.12763,-0.48152,0.03738,,,,,,,,,,,,,,,,,,,,,,,,,,0,0,0,0,0
0.8229,1783957394.3477,1,1,3.0000,0.0000,1.42244,0.00071,-2.63053,1.05907,1.57080,0.11675,-0.12763,-0.48152,0.03738,,,,,,,,,,,,,,,,,,,,,,,,,,0,0,0,0,0
0.8303,1783957394.3552,1,1,3.0000,0.0000,1.42244,0.00071,-2.63053,1.05907,1.57080,0.11675,-0.12763,-0.48152,0.03738,,,,,,,,,,,,,,,,,,,,,,,,,,0,0,0,0,0
0.8403,1783957394.3652,1,1,3.0000,0.0000,1.42244,0.00071,-2.63053,1.05907,1.57080,0.11675,-0.12763,-0.48152,0.03738,,,,,,,,,,,,,,,,,,,,,,,,,,0,0,0,0,0
0.8738,1783957394.3987,1,1,3.0000,0.0000,1.42244,0.00071,-2.63053,1.05907,1.57080,0.11675,-0.12763,-0.48152,0.03738,,,,,,,,,,,,,,,,,,,,,,,,,,0,0,0,0,0
0.8741,1783957394.3990,1,1,3.0000,0.0000,1.42244,0.00071,-2.63053,1.05907,1.57080,0.11675,-0.12763,-0.48152,0.03738,,,,,,,,,,,,,,,,,,,,,,,,,,0,0,0,0,0
0.8744,1783957394.3993,1,1,3.0000,0.0000,1.42244,0.00071,-2.63053,1.05907,1.57080,0.11675,-0.12763,-0.48152,0.03738,,,,,,,,,,,,,,,,,,,,,,,,,,0,0,0,0,0
0.8764,1783957394.4013,1,1,3.0000,0.0000,1.42244,0.00071,-2.63053,1.05907,1.57080,0.11675,-0.12763,-0.48152,0.03738,,,,,,,,,,,,,,,,,,,,,,,,,,0,0,0,0,0
0.8767,1783957394.4016,1,1,3.0000,0.0000,1.42244,0.00071,-2.63053,1.05907,1.57080,0.11675,-0.12763,-0.48152,0.03738,,,,,,,,,,,,,,,,,,,,,,,,,,0,0,0,0,0
0.8883,1783957394.4132,1,1,3.0000,0.0000,1.42244,0.00071,-2.63053,1.05907,1.57080,0.11675,-0.12763,-0.48152,0.03738,,,,,,,,,,,,,,,,,,,,,,,,,,0,0,0,0,0
0.8909,1783957394.4158,1,1,3.0000,0.0000,1.42244,0.00071,-2.63053,1.05907,1.57080,0.11675,-0.12763,-0.48152,0.03738,,,,,,,,,,,,,,,,,,,,,,,,,,0,0,0,0,0
0.9045,1783957394.4294,1,1,3.0000,0.0000,1.42244,0.00071,-2.63053,1.05907,1.57080,0.11675,-0.12763,-0.48152,0.03738,,,,,,,,,,,,,,,,,,,,,,,,,,0,0,0,0,0
0.9108,1783957394.4357,1,1,3.0000,0.0000,1.42244,0.00071,-2.63053,1.05907,1.57080,0.11675,-0.12763,-0.48152,0.03738,,,,,,,,,,,,,,,,,,,,,,,,,,0,0,0,0,0
0.9111,1783957394.4360,1,1,3.0000,0.0000,1.42244,0.00071,-2.63053,1.05907,1.57080,0.11675,-0.12763,-0.48152,0.03738,,,,,,,,,,,,,,,,,,,,,,,,,,0,0,0,0,0
0.9244,1783957394.4493,1,1,3.0000,0.0000,1.42244,0.00071,-2.63053,1.05907,1.57080,0.11675,-0.12763,-0.48152,0.03738,,,,,,,,,,,,,,,,,,,,,,,,,,0,0,0,0,0
0.9303,1783957394.4552,1,1,3.0000,0.0000,1.42244,0.00071,-2.63053,1.05907,1.57080,0.11675,-0.12763,-0.48152,0.03738,,,,,,,,,,,,,,,,,,,,,,,,,,0,0,0,0,0
0.9414,1783957394.4663,1,1,3.0000,0.0000,1.42244,0.00071,-2.63053,1.05907,1.57080,0.11675,-0.12763,-0.48152,0.03738,,,,,,,,,,,,,,,,,,,,,,,,,,0,0,0,0,0
0.9417,1783957394.4666,1,1,3.0000,0.0000,1.42244,0.00071,-2.63053,1.05907,1.57080,0.11675,-0.12763,-0.48152,0.03738,,,,,,,,,,,,,,,,,,,,,,,,,,0,0,0,0,0
0.9517,1783957394.4766,1,1,3.0000,0.0000,1.42244,0.00071,-2.63053,1.05907,1.57080,0.11675,-0.12763,-0.48152,0.03738,,,,,,,,,,,,,,,,,,,,,,,,,,0,0,0,0,0
0.9521,1783957394.4770,1,1,3.0000,0.0000,1.42244,0.00071,-2.63053,1.05907,1.57080,0.11675,-0.12763,-0.48152,0.03738,,,,,,,,,,,,,,,,,,,,,,,,,,0,0,0,0,0
0.9881,1783957394.5130,1,1,3.0000,0.0000,1.42244,0.00071,-2.63053,1.05907,1.57080,0.11675,-0.12763,-0.48152,0.03738,,,,,,,,,,,,,,,,,,,,,,,,,,0,0,0,0,0
1.0483,1783957394.5732,1,1,3.0000,0.0000,1.42244,0.00068,-2.63057,1.05909,1.57080,0.11675,-0.12764,-0.48150,0.03735,,,,,,,,,,,,,,,,,,,,,,,,,,0,0,0,0,0
1.0555,1783957394.5804,1,1,3.0000,0.0000,1.42244,0.00066,-2.63059,1.05911,1.57080,0.11675,-0.12764,-0.48149,0.03734,,,,,,,,,,,,,,,,,,,,,,,,,,0,0,0,0,0
1.0560,1783957394.5809,1,1,3.0000,0.0000,1.42244,0.00066,-2.63059,1.05911,1.57080,0.11675,-0.12764,-0.48149,0.03734,,,,,,,,,,,,,,,,,,,,,,,,,,0,0,0,0,0
1.0566,1783957394.5815,1,1,3.0000,0.0000,1.42244,0.00066,-2.63059,1.05911,1.57080,0.11675,-0.12764,-0.48149,0.03734,,,,,,,,,,,,,,,,,,,,,,,,,,0,0,0,0,0
1.0572,1783957394.5821,1,1,3.0000,0.0000,1.42244,0.00066,-2.63059,1.05911,1.57080,0.11675,-0.12764,-0.48149,0.03734,,,,,,,,,,,,,,,,,,,,,,,,,,0,0,0,0,0
1.0777,1783957394.6026,1,1,3.0000,0.0000,1.42244,0.00060,-2.63063,1.05917,1.57080,0.11675,-0.12764,-0.48146,0.03730,,,,,,,,,,,,,,,,,,,,,,,,,,0,0,0,0,0
1.0781,1783957394.6030,1,1,3.0000,0.0000,1.42244,0.00060,-2.63063,1.05917,1.57080,0.11675,-0.12764,-0.48146,0.03730,,,,,,,,,,,,,,,,,,,,,,,,,,0,0,0,0,0
1.0835,1783957394.6084,1,1,3.0000,0.0000,1.42244,0.00058,-2.63064,1.05919,1.57080,0.11675,-0.12764,-0.48146,0.03730,,,,,,,,,,,,,,,,,,,,,,,,,,0,0,0,0,0
1.0930,1783957394.6179,1,1,3.0000,0.0000,1.42244,0.00053,-2.63066,1.05924,1.57080,0.11675,-0.12764,-0.48145,0.03727,,,,,,,,,,,,,,,,,,,,,,,,,,0,0,0,0,0
1.1033,1783957394.6282,1,1,3.0000,0.0000,1.42244,0.00051,-2.63066,1.05926,1.57080,0.11675,-0.12764,-0.48145,0.03727,,,,,,,,,,,,,,,,,,,,,,,,,,0,0,0,0,0
1.1120,1783957394.6369,1,1,3.0000,0.0000,1.42244,0.00046,-2.63067,1.05932,1.57080,0.11675,-0.12764,-0.48145,0.03725,,,,,,,,,,,,,,,,,,,,,,,,,,0,0,0,0,0
1.1251,1783957394.6500,1,1,3.0000,0.0000,1.42244,0.00035,-2.63070,1.05946,1.57080,0.11675,-0.12764,-0.48144,0.03721,,,,,,,,,,,,,,,,,,,,,,,,,,0,0,0,0,0
1.1310,1783957394.6559,1,1,3.0000,0.0000,1.42244,0.00034,-2.63070,1.05946,1.57080,0.11675,-0.12764,-0.48144,0.03720,,,,,,,,,,,,,,,,,,,,,,,,,,0,0,0,0,0
1.1313,1783957394.6562,1,1,3.0000,0.0000,1.42244,0.00034,-2.63070,1.05946,1.57080,0.11675,-0.12764,-0.48144,0.03720,,,,,,,,,,,,,,,,,,,,,,,,,,0,0,0,0,0
1.1474,1783957394.6723,1,1,3.0000,0.0000,1.42244,0.00022,-2.63072,1.05960,1.57080,0.11675,-0.12764,-0.48145,0.03716,,,,,,,,,,,,,,,,,,,,,,,,,,0,0,0,0,0
1.1545,1783957394.6794,1,1,3.0000,0.0000,1.42244,0.00012,-2.63074,1.05972,1.57080,0.11675,-0.12764,-0.48145,0.03713,,,,,,,,,,,,,,,,,,,,,,,,,,0,0,0,0,0
1.1548,1783957394.6797,1,1,3.0000,0.0000,1.42244,0.00012,-2.63074,1.05972,1.57080,0.11675,-0.12764,-0.48145,0.03713,,,,,,,,,,,,,,,,,,,,,,,,,,0,0,0,0,0
1.1777,1783957394.7026,1,1,3.0000,0.0000,1.42244,0.00000,-2.63076,1.05986,1.57080,0.11675,-0.12764,-0.48145,0.03710,,,,,,,,,,,,,,,,,,,,,,,,,,0,0,0,0,0
1.1783,1783957394.7032,1,1,3.0000,0.0000,1.42244,0.00000,-2.63076,1.05986,1.57080,0.11675,-0.12764,-0.48145,0.03710,,,,,,,,,,,,,,,,,,,,,,,,,,0,0,0,0,0
1.1787,1783957394.7036,1,1,3.0000,0.0000,1.42244,0.00000,-2.63076,1.05986,1.57080,0.11675,-0.12764,-0.48145,0.03710,,,,,,,,,,,,,,,,,,,,,,,,,,0,0,0,0,0
1.1842,1783957394.7091,1,1,3.0000,0.0000,1.42244,-0.00004,-2.63077,1.05991,1.57080,0.11675,-0.12764,-0.48146,0.03708,,,,,,,,,,,,,,,,,,,,,,,,,,0,0,0,0,0
1.1847,1783957394.7096,1,1,3.0000,0.0000,1.42244,-0.00004,-2.63077,1.05991,1.57080,0.11675,-0.12764,-0.48146,0.03708,,,,,,,,,,,,,,,,,,,,,,,,,,0,0,0,0,0
1.1930,1783957394.7179,1,1,3.0000,0.0000,1.42244,-0.00013,-2.63078,1.06003,1.57080,0.11675,-0.12764,-0.48146,0.03705,,,,,,,,,,,,,,,,,,,,,,,,,,0,0,0,0,0
1.2005,1783957394.7254,1,1,3.0000,0.0000,1.42244,-0.00023,-2.63080,1.06015,1.57080,0.11675,-0.12764,-0.48146,0.03702,,,,,,,,,,,,,,,,,,,,,,,,,,0,0,0,0,0
1.2105,1783957394.7353,1,1,3.0000,0.0000,1.42244,-0.00036,-2.63082,1.06031,1.57080,0.11675,-0.12764,-0.48147,0.03698,,,,,,,,,,,,,,,,,,,,,,,,,,0,0,0,0,0
1.2235,1783957394.7484,1,1,3.0000,0.0000,1.42244,-0.00042,-2.63083,1.06039,1.57080,0.11675,-0.12764,-0.48148,0.03697,,,,,,,,,,,,,,,,,,,,,,,,,,0,0,0,0,0
1.2239,1783957394.7488,1,1,3.0000,0.0000,1.42244,-0.00042,-2.63083,1.06039,1.57080,0.11675,-0.12764,-0.48148,0.03697,,,,,,,,,,,,,,,,,,,,,,,,,,0,0,0,0,0
1.2326,1783957394.7575,1,1,3.0000,0.0000,1.42244,-0.00042,-2.63083,1.06039,1.57080,0.11675,-0.12764,-0.48148,0.03697,,,,,,,,,,,,,,,,,,,,,,,,,,0,0,0,0,0
1.2331,1783957394.7580,1,1,3.0000,0.0000,1.42244,-0.00042,-2.63083,1.06039,1.57080,0.11675,-0.12764,-0.48148,0.03697,,,,,,,,,,,,,,,,,,,,,,,,,,0,0,0,0,0
1.2402,1783957394.7651,1,1,3.0000,0.0000,1.42244,-0.00042,-2.63083,1.06039,1.57080,0.11675,-0.12764,-0.48148,0.03697,,,,,,,,,,,,,,,,,,,,,,,,,,0,0,0,0,0
1.2406,1783957394.7655,1,1,3.0000,0.0000,1.42244,-0.00042,-2.63083,1.06039,1.57080,0.11675,-0.12764,-0.48148,0.03697,,,,,,,,,,,,,,,,,,,,,,,,,,0,0,0,0,0
1.2551,1783957394.7800,1,1,3.0000,0.0000,1.42244,-0.00042,-2.63083,1.06039,1.57080,0.11675,-0.12764,-0.48148,0.03697,,,,,,,,,,,,,,,,,,,,,,,,,,0,0,0,0,0
1.2707,1783957394.7956,1,1,3.0000,0.0000,1.42244,-0.00042,-2.63083,1.06039,1.57080,0.11675,-0.12764,-0.48148,0.03697,,,,,,,,,,,,,,,,,,,,,,,,,,0,0,0,0,0
1.2750,1783957394.7998,1,1,3.0000,0.0000,1.42244,-0.00042,-2.63083,1.06039,1.57080,0.11675,-0.12764,-0.48148,0.03697,,,,,,,,,,,,,,,,,,,,,,,,,,0,0,0,0,0
1.2845,1783957394.8093,1,1,3.0000,0.0000,1.42244,-0.00042,-2.63083,1.06040,1.57080,0.11675,-0.12764,-0.48148,0.03697,,,,,,,,,,,,,,,,,,,,,,,,,,0,0,0,0,0
1.2904,1783957394.8152,1,1,3.0000,0.0000,1.42244,-0.00043,-2.63082,1.06042,1.57080,0.11675,-0.12764,-0.48149,0.03697,,,,,,,,,,,,,,,,,,,,,,,,,,0,0,0,0,0
1.3043,1783957394.8292,1,1,3.0000,0.0000,1.42244,-0.00046,-2.63081,1.06046,1.57080,0.11675,-0.12763,-0.48151,0.03697,,,,,,,,,,,,,,,,,,,,,,,,,,0,0,0,0,0
1.3129,1783957394.8378,1,1,3.0000,0.0000,1.42244,-0.00047,-2.63081,1.06047,1.57080,0.11675,-0.12763,-0.48151,0.03697,,,,,,,,,,,,,,,,,,,,,,,,,,0,0,0,0,0
1.3259,1783957394.8508,1,1,3.0000,0.0000,1.42244,-0.00051,-2.63083,1.06053,1.57080,0.11675,-0.12764,-0.48150,0.03695,,,,,,,,,,,,,,,,,,,,,,,,,,0,0,0,0,0
1.3262,1783957394.8511,1,1,3.0000,0.0000,1.42244,-0.00051,-2.63083,1.06053,1.57080,0.11675,-0.12764,-0.48150,0.03695,,,,,,,,,,,,,,,,,,,,,,,,,,0,0,0,0,0
1.3264,1783957394.8513,1,1,3.0000,0.0000,1.42244,-0.00051,-2.63083,1.06053,1.57080,0.11675,-0.12764,-0.48150,0.03695,,,,,,,,,,,,,,,,,,,,,,,,,,0,0,0,0,0
1.3339,1783957394.8587,1,1,3.0000,0.0000,1.42244,-0.00056,-2.63085,1.06058,1.57080,0.11675,-0.12764,-0.48149,0.03693,,,,,,,,,,,,,,,,,,,,,,,,,,0,0,0,0,0
1.3418,1783957394.8667,1,1,3.0000,0.0000,1.42244,-0.00056,-2.63085,1.06059,1.57080,0.11675,-0.12764,-0.48149,0.03693,,,,,,,,,,,,,,,,,,,,,,,,,,0,0,0,0,0
1.4160,1783957394.9409,1,1,3.0000,0.0000,1.42243,-0.00096,-2.63096,1.06109,1.57080,0.11675,-0.12764,-0.48148,0.03679,,,,,,,,,,,,,,,,,,,,,,,,,,0,0,0,0,0
1.4164,1783957394.9413,1,1,3.0000,0.0000,1.42243,-0.00096,-2.63096,1.06109,1.57080,0.11675,-0.12764,-0.48148,0.03679,,,,,,,,,,,,,,,,,,,,,,,,,,0,0,0,0,0
1.4168,1783957394.9417,1,1,3.0000,0.0000,1.42243,-0.00096,-2.63096,1.06109,1.57080,0.11675,-0.12764,-0.48148,0.03679,,,,,,,,,,,,,,,,,,,,,,,,,,0,0,0,0,0
1.4171,1783957394.9420,1,1,3.0000,0.0000,1.42243,-0.00096,-2.63096,1.06109,1.57080,0.11675,-0.12764,-0.48148,0.03679,,,,,,,,,,,,,,,,,,,,,,,,,,0,0,0,0,0
1.4379,1783957394.9628,1,1,3.0000,0.0000,1.42243,-0.00111,-2.63099,1.06127,1.57080,0.11675,-0.12764,-0.48148,0.03674,,,,,,,,,,,,,,,,,,,,,,,,,,0,0,0,0,0
1.4383,1783957394.9632,1,1,3.0000,0.0000,1.42243,-0.00111,-2.63099,1.06127,1.57080,0.11675,-0.12764,-0.48148,0.03674,,,,,,,,,,,,,,,,,,,,,,,,,,0,0,0,0,0
1.4458,1783957394.9706,1,1,3.0000,0.0000,1.42243,-0.00118,-2.63100,1.06136,1.57080,0.11675,-0.12764,-0.48148,0.03671,,,,,,,,,,,,,,,,,,,,,,,,,,0,0,0,0,0
1.4548,1783957394.9797,1,1,3.0000,0.0000,1.42243,-0.00127,-2.63102,1.06147,1.57080,0.11675,-0.12764,-0.48149,0.03668,,,,,,,,,,,,,,,,,,,,,,,,,,0,0,0,0,0
1.4553,1783957394.9802,1,1,3.0000,0.0000,1.42243,-0.00127,-2.63102,1.06147,1.57080,0.11675,-0.12764,-0.48149,0.03668,,,,,,,,,,,,,,,,,,,,,,,,,,0,0,0,0,0
1.4622,1783957394.9870,1,1,3.0000,0.0000,1.42243,-0.00137,-2.63104,1.06159,1.57080,0.11675,-0.12764,-0.48149,0.03665,,,,,,,,,,,,,,,,,,,,,,,,,,0,0,0,0,0
1.4790,1783957395.0039,1,1,3.0000,0.0000,1.42243,-0.00156,-2.63107,1.06182,1.57080,0.11675,-0.12763,-0.48150,0.03659,,,,,,,,,,,,,,,,,,,,,,,,,,0,0,0,0,0
1.4888,1783957395.0136,1,1,3.0000,0.0000,1.42243,-0.00161,-2.63108,1.06190,1.57080,0.11675,-0.12763,-0.48150,0.03658,,,,,,,,,,,,,,,,,,,,,,,,,,0,0,0,0,0
1.4908,1783957395.0157,1,1,3.0000,0.0000,1.42243,-0.00161,-2.63108,1.06190,1.57080,0.11675,-0.12763,-0.48150,0.03658,,,,,,,,,,,,,,,,,,,,,,,,,,0,0,0,0,0
1.4911,1783957395.0160,1,1,3.0000,0.0000,1.42243,-0.00161,-2.63108,1.06190,1.57080,0.11675,-0.12763,-0.48150,0.03658,,,,,,,,,,,,,,,,,,,,,,,,,,0,0,0,0,0
1.5035,1783957395.0283,1,1,3.0000,0.0000,1.42243,-0.00161,-2.63108,1.06190,1.57080,0.11675,-0.12763,-0.48150,0.03658,,,,,,,,,,,,,,,,,,,,,,,,,,0,0,0,0,0
1.5038,1783957395.0287,1,1,3.0000,0.0000,1.42243,-0.00161,-2.63108,1.06190,1.57080,0.11675,-0.12763,-0.48150,0.03658,,,,,,,,,,,,,,,,,,,,,,,,,,0,0,0,0,0
1.5104,1783957395.0353,1,1,3.0000,0.0000,1.42243,-0.00161,-2.63108,1.06190,1.57080,0.11675,-0.12763,-0.48150,0.03658,,,,,,,,,,,,,,,,,,,,,,,,,,0,0,0,0,0
1.5332,1783957395.0581,1,1,3.0000,0.0000,1.42243,-0.00161,-2.63108,1.06190,1.57080,0.11675,-0.12763,-0.48150,0.03658,,,,,,,,,,,,,,,,,,,,,,,,,,0,0,0,0,0
1.5339,1783957395.0588,1,1,3.0000,0.0000,1.42243,-0.00161,-2.63108,1.06190,1.57080,0.11675,-0.12763,-0.48150,0.03658,,,,,,,,,,,,,,,,,,,,,,,,,,0,0,0,0,0
1.5424,1783957395.0673,1,1,3.0000,0.0000,1.42243,-0.00161,-2.63108,1.06190,1.57080,0.11675,-0.12763,-0.48150,0.03658,,,,,,,,,,,,,,,,,,,,,,,,,,0,0,0,0,0
1.5427,1783957395.0676,1,1,3.0000,0.0000,1.42243,-0.00161,-2.63108,1.06190,1.57080,0.11675,-0.12763,-0.48150,0.03658,,,,,,,,,,,,,,,,,,,,,,,,,,0,0,0,0,0
1.5545,1783957395.0794,1,1,3.0000,0.0000,1.42243,-0.00162,-2.63107,1.06191,1.57080,0.11675,-0.12763,-0.48151,0.03658,,,,,,,,,,,,,,,,,,,,,,,,,,0,0,0,0,0
1.5648,1783957395.0897,1,1,3.0000,0.0000,1.42243,-0.00163,-2.63106,1.06193,1.57080,0.11675,-0.12763,-0.48152,0.03658,,,,,,,,,,,,,,,,,,,,,,,,,,0,0,0,0,0
1.5727,1783957395.0976,1,1,3.0000,0.0000,1.42243,-0.00164,-2.63105,1.06195,1.57080,0.11675,-0.12763,-0.48153,0.03658,,,,,,,,,,,,,,,,,,,,,,,,,,0,0,0,0,0
1.5732,1783957395.0981,1,1,3.0000,0.0000,1.42243,-0.00164,-2.63105,1.06195,1.57080,0.11675,-0.12763,-0.48153,0.03658,,,,,,,,,,,,,,,,,,,,,,,,,,0,0,0,0,0
1.6020,1783957395.1269,1,1,3.0000,0.0000,1.42243,-0.00173,-2.63110,1.06205,1.57080,0.11675,-0.12763,-0.48151,0.03654,,,,,,,,,,,,,,,,,,,,,,,,,,0,0,0,0,0
1.6084,1783957395.1332,1,1,3.0000,0.0000,1.42243,-0.00175,-2.63111,1.06208,1.57080,0.11675,-0.12763,-0.48150,0.03653,,,,,,,,,,,,,,,,,,,,,,,,,,0,0,0,0,0
1.6104,1783957395.1353,1,1,3.0000,0.0000,1.42243,-0.00175,-2.63111,1.06208,1.57080,0.11675,-0.12763,-0.48150,0.03653,,,,,,,,,,,,,,,,,,,,,,,,,,0,0,0,0,0
1.6404,1783957395.1653,1,1,3.0000,0.0000,1.42243,-0.00182,-2.63114,1.06216,1.57080,0.11675,-0.12763,-0.48150,0.03650,,,,,,,,,,,,,,,,,,,,,,,,,,0,0,0,0,0
1.6548,1783957395.1797,1,1,3.0000,0.0000,1.42243,-0.00191,-2.63116,1.06228,1.57080,0.11675,-0.12763,-0.48149,0.03647,,,,,,,,,,,,,,,,,,,,,,,,,,0,0,0,0,0
1.6550,1783957395.1799,1,1,3.0000,0.0000,1.42243,-0.00191,-2.63116,1.06228,1.57080,0.11675,-0.12763,-0.48149,0.03647,,,,,,,,,,,,,,,,,,,,,,,,,,0,0,0,0,0
1.6672,1783957395.1921,1,1,3.0000,0.0000,1.42243,-0.00199,-2.63118,1.06238,1.57080,0.11675,-0.12763,-0.48149,0.03644,,,,,,,,,,,,,,,,,,,,,,,,,,0,0,0,0,0
1.7344,1783957395.2593,1,1,3.0000,0.0000,1.42243,-0.00253,-2.63129,1.06303,1.57080,0.11675,-0.12763,-0.48150,0.03626,,,,,,,,,,,,,,,,,,,,,,,,,,0,0,0,0,0
1.7348,1783957395.2597,1,1,3.0000,0.0000,1.42243,-0.00253,-2.63129,1.06303,1.57080,0.11675,-0.12763,-0.48150,0.03626,,,,,,,,,,,,,,,,,,,,,,,,,,0,0,0,0,0
1.7352,1783957395.2601,1,1,3.0000,0.0000,1.42243,-0.00253,-2.63129,1.06303,1.57080,0.11675,-0.12763,-0.48150,0.03626,,,,,,,,,,,,,,,,,,,,,,,,,,0,0,0,0,0
1.7379,1783957395.2628,1,1,3.0000,0.0000,1.42243,-0.00258,-2.63130,1.06309,1.57080,0.11675,-0.12763,-0.48150,0.03624,,,,,,,,,,,,,,,,,,,,,,,,,,0,0,0,0,0
1.7382,1783957395.2631,1,1,3.0000,0.0000,1.42243,-0.00258,-2.63130,1.06309,1.57080,0.11675,-0.12763,-0.48150,0.03624,,,,,,,,,,,,,,,,,,,,,,,,,,0,0,0,0,0
1.7432,1783957395.2681,1,1,3.0000,0.0000,1.42243,-0.00263,-2.63131,1.06315,1.57080,0.11675,-0.12763,-0.48150,0.03623,,,,,,,,,,,,,,,,,,,,,,,,,,0,0,0,0,0
1.7831,1783957395.3079,1,1,3.0000,0.0000,1.42243,-0.00278,-2.63134,1.06333,1.57080,0.11675,-0.12763,-0.48150,0.03618,,,,,,,,,,,,,,,,,,,,,,,,,,0,0,0,0,0
1.7834,1783957395.3083,1,1,3.0000,0.0000,1.42243,-0.00278,-2.63134,1.06333,1.57080,0.11675,-0.12763,-0.48150,0.03618,,,,,,,,,,,,,,,,,,,,,,,,,,0,0,0,0,0
1.7838,1783957395.3087,1,1,3.0000,0.0000,1.42243,-0.00278,-2.63134,1.06333,1.57080,0.11675,-0.12763,-0.48150,0.03618,,,,,,,,,,,,,,,,,,,,,,,,,,0,0,0,0,0
1.7840,1783957395.3089,1,1,3.0000,0.0000,1.42243,-0.00278,-2.63134,1.06333,1.57080,0.11675,-0.12763,-0.48150,0.03618,,,,,,,,,,,,,,,,,,,,,,,,,,0,0,0,0,0
1.8075,1783957395.3324,1,1,3.0000,0.0000,1.42243,-0.00278,-2.63134,1.06333,1.57080,0.11675,-0.12763,-0.48150,0.03618,,,,,,,,,,,,,,,,,,,,,,,,,,0,0,0,0,0
1.8364,1783957395.3613,1,1,3.0000,0.0000,1.42243,-0.00280,-2.63132,1.06337,1.57080,0.11675,-0.12763,-0.48152,0.03619,,,,,,,,,,,,,,,,,,,,,,,,,,0,0,0,0,0
1.8366,1783957395.3615,1,1,3.0000,0.0000,1.42243,-0.00280,-2.63132,1.06337,1.57080,0.11675,-0.12763,-0.48152,0.03619,,,,,,,,,,,,,,,,,,,,,,,,,,0,0,0,0,0
1.8370,1783957395.3618,1,1,3.0000,0.0000,1.42243,-0.00280,-2.63132,1.06337,1.57080,0.11675,-0.12763,-0.48152,0.03619,,,,,,,,,,,,,,,,,,,,,,,,,,0,0,0,0,0
1.8373,1783957395.3622,1,1,3.0000,0.0000,1.42243,-0.00280,-2.63132,1.06337,1.57080,0.11675,-0.12763,-0.48152,0.03619,,,,,,,,,,,,,,,,,,,,,,,,,,0,0,0,0,0
1.8418,1783957395.3667,1,1,3.0000,0.0000,1.42243,-0.00281,-2.63132,1.06339,1.57080,0.11675,-0.12763,-0.48153,0.03619,,,,,,,,,,,,,,,,,,,,,,,,,,0,0,0,0,0
1.8421,1783957395.3670,1,1,3.0000,0.0000,1.42243,-0.00281,-2.63132,1.06339,1.57080,0.11675,-0.12763,-0.48153,0.03619,,,,,,,,,,,,,,,,,,,,,,,,,,0,0,0,0,0
1.8550,1783957395.3799,1,1,3.0000,0.0000,1.42243,-0.00282,-2.63132,1.06340,1.57080,0.11675,-0.12763,-0.48153,0.03618,,,,,,,,,,,,,,,,,,,,,,,,,,0,0,0,0,0
1.8622,1783957395.3871,1,1,3.0000,0.0000,1.42243,-0.00284,-2.63133,1.06343,1.57080,0.11675,-0.12763,-0.48152,0.03617,,,,,,,,,,,,,,,,,,,,,,,,,,0,0,0,0,0
1.8626,1783957395.3875,1,1,3.0000,0.0000,1.42243,-0.00284,-2.63133,1.06343,1.57080,0.11675,-0.12763,-0.48152,0.03617,,,,,,,,,,,,,,,,,,,,,,,,,,0,0,0,0,0
1.8714,1783957395.3963,1,1,3.0000,0.0000,1.42243,-0.00288,-2.63135,1.06347,1.57080,0.11675,-0.12763,-0.48152,0.03616,,,,,,,,,,,,,,,,,,,,,,,,,,0,0,0,0,0
1.8956,1783957395.4205,1,1,3.0000,0.0000,1.42243,-0.00295,-2.63138,1.06355,1.57080,0.11675,-0.12763,-0.48150,0.03613,,,,,,,,,,,,,,,,,,,,,,,,,,0,0,0,0,0
1.8963,1783957395.4212,1,1,3.0000,0.0000,1.42243,-0.00295,-2.63138,1.06355,1.57080,0.11675,-0.12763,-0.48150,0.03613,,,,,,,,,,,,,,,,,,,,,,,,,,0,0,0,0,0
1.9058,1783957395.4307,1,1,3.0000,0.0000,1.42243,-0.00298,-2.63139,1.06359,1.57080,0.11675,-0.12763,-0.48150,0.03611,,,,,,,,,,,,,,,,,,,,,,,,,,0,0,0,0,0
1.9142,1783957395.4391,1,1,3.0000,0.0000,1.42243,-0.00301,-2.63140,1.06363,1.57080,0.11675,-0.12763,-0.48150,0.03610,,,,,,,,,,,,,,,,,,,,,,,,,,0,0,0,0,0
1.9146,1783957395.4395,1,1,3.0000,0.0000,1.42243,-0.00301,-2.63140,1.06363,1.57080,0.11675,-0.12763,-0.48150,0.03610,,,,,,,,,,,,,,,,,,,,,,,,,,0,0,0,0,0
1.9224,1783957395.4473,1,1,3.0000,0.0000,1.42243,-0.00308,-2.63142,1.06371,1.57080,0.11675,-0.12763,-0.48150,0.03608,,,,,,,,,,,,,,,,,,,,,,,,,,0,0,0,0,0
1.9228,1783957395.4477,1,1,3.0000,0.0000,1.42243,-0.00308,-2.63142,1.06371,1.57080,0.11675,-0.12763,-0.48150,0.03608,,,,,,,,,,,,,,,,,,,,,,,,,,0,0,0,0,0
1.9379,1783957395.4628,1,1,3.0000,0.0000,1.42243,-0.00317,-2.63144,1.06382,1.57080,0.11675,-0.12763,-0.48149,0.03604,,,,,,,,,,,,,,,,,,,,,,,,,,0,0,0,0,0
1.9381,1783957395.4630,1,1,3.0000,0.0000,1.42243,-0.00317,-2.63144,1.06382,1.57080,0.11675,-0.12763,-0.48149,0.03604,,,,,,,,,,,,,,,,,,,,,,,,,,0,0,0,0,0
1.9407,1783957395.4656,1,1,3.0000,0.0000,1.42243,-0.00317,-2.63144,1.06382,1.57080,0.11675,-0.12763,-0.48149,0.03604,,,,,,,,,,,,,,,,,,,,,,,,,,0,0,0,0,0
1.9410,1783957395.4659,1,1,3.0000,0.0000,1.42243,-0.00317,-2.63144,1.06382,1.57080,0.11675,-0.12763,-0.48149,0.03604,,,,,,,,,,,,,,,,,,,,,,,,,,0,0,0,0,0
1.9537,1783957395.4786,1,1,3.0000,0.0000,1.42243,-0.00329,-2.63147,1.06397,1.57080,0.11675,-0.12763,-0.48149,0.03600,,,,,,,,,,,,,,,,,,,,,,,,,,0,0,0,0,0
1.9662,1783957395.4911,1,1,3.0000,0.0000,1.42243,-0.00339,-2.63149,1.06409,1.57080,0.11675,-0.12763,-0.48149,0.03597,,,,,,,,,,,,,,,,,,,,,,,,,,0,0,0,0,0
1.9667,1783957395.4916,1,1,3.0000,0.0000,1.42243,-0.00339,-2.63149,1.06409,1.57080,0.11675,-0.12763,-0.48149,0.03597,,,,,,,,,,,,,,,,,,,,,,,,,,0,0,0,0,0
1.9709,1783957395.4958,1,1,3.0000,0.0000,1.42243,-0.00340,-2.63149,1.06409,1.57080,0.11675,-0.12763,-0.48149,0.03597,,,,,,,,,,,,,,,,,,,,,,,,,,0,0,0,0,0
1.9809,1783957395.5058,1,1,3.0000,0.0000,1.42243,-0.00344,-2.63150,1.06414,1.57080,0.11675,-0.12763,-0.48149,0.03595,,,,,,,,,,,,,,,,,,,,,,,,,,0,0,0,0,0
1.9918,1783957395.5167,1,1,3.0000,0.0000,1.42242,-0.00356,-2.63152,1.06429,1.57080,0.11675,-0.12763,-0.48150,0.03591,,,,,,,,,,,,,,,,,,,,,,,,,,0,0,0,0,0
2.0019,1783957395.5267,1,1,3.0000,0.0000,1.42242,-0.00371,-2.63155,1.06447,1.57080,0.11675,-0.12763,-0.48150,0.03586,,,,,,,,,,,,,,,,,,,,,,,,,,0,0,0,0,0
2.0021,1783957395.5269,1,1,3.0000,0.0000,1.42242,-0.00371,-2.63155,1.06447,1.57080,0.11675,-0.12763,-0.48150,0.03586,,,,,,,,,,,,,,,,,,,,,,,,,,0,0,0,0,0
2.0102,1783957395.5351,1,1,3.0000,0.0000,1.42242,-0.00381,-2.63157,1.06459,1.57080,0.11675,-0.12763,-0.48150,0.03583,,,,,,,,,,,,,,,,,,,,,,,,,,0,0,0,0,0
2.0105,1783957395.5354,1,1,3.0000,0.0000,1.42242,-0.00381,-2.63157,1.06459,1.57080,0.11675,-0.12763,-0.48150,0.03583,,,,,,,,,,,,,,,,,,,,,,,,,,0,0,0,0,0
2.0250,1783957395.5499,1,1,3.0000,0.0000,1.42242,-0.00393,-2.63159,1.06474,1.57080,0.11675,-0.12763,-0.48151,0.03579,,,,,,,,,,,,,,,,,,,,,,,,,,0,0,0,0,0
2.0331,1783957395.5580,1,1,3.0000,0.0000,1.42242,-0.00396,-2.63160,1.06477,1.57080,0.11675,-0.12763,-0.48151,0.03578,,,,,,,,,,,,,,,,,,,,,,,,,,0,0,0,0,0
2.0410,1783957395.5659,1,1,3.0000,0.0000,1.42242,-0.00396,-2.63160,1.06477,1.57080,0.11675,-0.12763,-0.48151,0.03578,,,,,,,,,,,,,,,,,,,,,,,,,,0,0,0,0,0
2.0550,1783957395.5799,1,1,3.0000,0.0000,1.42242,-0.00396,-2.63160,1.06477,1.57080,0.11675,-0.12763,-0.48151,0.03578,,,,,,,,,,,,,,,,,,,,,,,,,,0,0,0,0,0
2.0985,1783957395.6234,1,1,3.0000,0.0000,1.42242,-0.00397,-2.63159,1.06479,1.57080,0.11675,-0.12763,-0.48152,0.03579,,,,,,,,,,,,,,,,,,,,,,,,,,0,0,0,0,0
2.0988,1783957395.6237,1,1,3.0000,0.0000,1.42242,-0.00397,-2.63159,1.06479,1.57080,0.11675,-0.12763,-0.48152,0.03579,,,,,,,,,,,,,,,,,,,,,,,,,,0,0,0,0,0
2.0991,1783957395.6240,1,1,3.0000,0.0000,1.42242,-0.00397,-2.63159,1.06479,1.57080,0.11675,-0.12763,-0.48152,0.03579,,,,,,,,,,,,,,,,,,,,,,,,,,0,0,0,0,0
2.1205,1783957395.6454,1,1,3.0000,0.0000,1.42242,-0.00399,-2.63157,1.06482,1.57080,0.11675,-0.12762,-0.48153,0.03579,,,,,,,,,,,,,,,,,,,,,,,,,,0,0,0,0,0
2.1208,1783957395.6457,1,1,3.0000,0.0000,1.42242,-0.00399,-2.63157,1.06482,1.57080,0.11675,-0.12762,-0.48153,0.03579,,,,,,,,,,,,,,,,,,,,,,,,,,0,0,0,0,0
2.1223,1783957395.6472,1,1,3.0000,0.0000,1.42242,-0.00400,-2.63157,1.06483,1.57080,0.11675,-0.12762,-0.48153,0.03579,,,,,,,,,,,,,,,,,,,,,,,,,,0,0,0,0,0
2.1226,1783957395.6475,1,1,3.0000,0.0000,1.42242,-0.00400,-2.63157,1.06483,1.57080,0.11675,-0.12762,-0.48153,0.03579,,,,,,,,,,,,,,,,,,,,,,,,,,0,0,0,0,0
2.1321,1783957395.6570,1,1,3.0000,0.0000,1.42242,-0.00402,-2.63158,1.06486,1.57080,0.11675,-0.12762,-0.48153,0.03578,,,,,,,,,,,,,,,,,,,,,,,,,,0,0,0,0,0
2.1437,1783957395.6686,1,1,3.0000,0.0000,1.42242,-0.00407,-2.63161,1.06492,1.57080,0.11675,-0.12763,-0.48152,0.03575,,,,,,,,,,,,,,,,,,,,,,,,,,0,0,0,0,0
2.1517,1783957395.6766,1,1,3.0000,0.0000,1.42242,-0.00408,-2.63161,1.06493,1.57080,0.11675,-0.12763,-0.48152,0.03575,,,,,,,,,,,,,,,,,,,,,,,,,,0,0,0,0,0
2.1681,1783957395.6930,1,1,3.0000,0.0000,1.42242,-0.00415,-2.63164,1.06501,1.57080,0.11675,-0.12763,-0.48151,0.03572,,,,,,,,,,,,,,,,,,,,,,,,,,0,0,0,0,0
2.1716,1783957395.6965,1,1,3.0000,0.0000,1.42242,-0.00417,-2.63166,1.06504,1.57080,0.11675,-0.12763,-0.48150,0.03571,,,,,,,,,,,,,,,,,,,,,,,,,,0,0,0,0,0
2.1720,1783957395.6969,1,1,3.0000,0.0000,1.42242,-0.00417,-2.63166,1.06504,1.57080,0.11675,-0.12763,-0.48150,0.03571,,,,,,,,,,,,,,,,,,,,,,,,,,0,0,0,0,0
2.1920,1783957395.7169,1,1,3.0000,0.0000,1.42242,-0.00424,-2.63167,1.06512,1.57080,0.11675,-0.12763,-0.48150,0.03568,,,,,,,,,,,,,,,,,,,,,,,,,,0,0,0,0,0
2.1923,1783957395.7172,1,1,3.0000,0.0000,1.42242,-0.00424,-2.63167,1.06512,1.57080,0.11675,-0.12763,-0.48150,0.03568,,,,,,,,,,,,,,,,,,,,,,,,,,0,0,0,0,0
2.2029,1783957395.7278,1,1,3.0000,0.0000,1.42242,-0.00435,-2.63171,1.06526,1.57080,0.11675,-0.12763,-0.48149,0.03564,,,,,,,,,,,,,,,,,,,,,,,,,,0,0,0,0,0
2.2115,1783957395.7364,1,1,3.0000,0.0000,1.42242,-0.00436,-2.63171,1.06527,1.57080,0.11675,-0.12763,-0.48149,0.03564,,,,,,,,,,,,,,,,,,,,,,,,,,0,0,0,0,0
2.2213,1783957395.7462,1,1,3.0000,0.0000,1.42242,-0.00440,-2.63172,1.06532,1.57080,0.11675,-0.12763,-0.48149,0.03562,,,,,,,,,,,,,,,,,,,,,,,,,,0,0,0,0,0
2.2343,1783957395.7591,1,1,3.0000,0.0000,1.42242,-0.00457,-2.63176,1.06552,1.57080,0.11675,-0.12763,-0.48149,0.03556,,,,,,,,,,,,,,,,,,,,,,,,,,0,0,0,0,0
2.2422,1783957395.7671,1,1,3.0000,0.0000,1.42242,-0.00458,-2.63176,1.06553,1.57080,0.11675,-0.12763,-0.48149,0.03556,,,,,,,,,,,,,,,,,,,,,,,,,,0,0,0,0,0
2.2426,1783957395.7675,1,1,3.0000,0.0000,1.42242,-0.00458,-2.63176,1.06553,1.57080,0.11675,-0.12763,-0.48149,0.03556,,,,,,,,,,,,,,,,,,,,,,,,,,0,0,0,0,0
2.2550,1783957395.7799,1,1,3.0000,0.0000,1.42242,-0.00465,-2.63177,1.06562,1.57080,0.11675,-0.12763,-0.48149,0.03554,,,,,,,,,,,,,,,,,,,,,,,,,,0,0,0,0,0
2.2610,1783957395.7859,1,1,3.0000,0.0000,1.42242,-0.00469,-2.63178,1.06567,1.57080,0.11675,-0.12763,-0.48149,0.03552,,,,,,,,,,,,,,,,,,,,,,,,,,0,0,0,0,0
2.2614,1783957395.7863,1,1,3.0000,0.0000,1.42242,-0.00469,-2.63178,1.06567,1.57080,0.11675,-0.12763,-0.48149,0.03552,,,,,,,,,,,,,,,,,,,,,,,,,,0,0,0,0,0
2.2741,1783957395.7990,1,1,3.0000,0.0000,1.42242,-0.00489,-2.63182,1.06590,1.57080,0.11675,-0.12763,-0.48149,0.03546,,,,,,,,,,,,,,,,,,,,,,,,,,0,0,0,0,0
2.2942,1783957395.8191,1,1,3.0000,0.0000,1.42242,-0.00511,-2.63186,1.06618,1.57080,0.11675,-0.12763,-0.48150,0.03539,,,,,,,,,,,,,,,,,,,,,,,,,,0,0,0,0,0
2.3033,1783957395.8282,1,1,3.0000,0.0000,1.42242,-0.00514,-2.63187,1.06622,1.57080,0.11675,-0.12763,-0.48150,0.03538,,,,,,,,,,,,,,,,,,,,,,,,,,0,0,0,0,0
2.3159,1783957395.8408,1,1,3.0000,0.0000,1.42242,-0.00514,-2.63187,1.06622,1.57080,0.11675,-0.12763,-0.48150,0.03538,,,,,,,,,,,,,,,,,,,,,,,,,,0,0,0,0,0
2.3220,1783957395.8469,1,1,3.0000,0.0000,1.42242,-0.00514,-2.63187,1.06622,1.57080,0.11675,-0.12763,-0.48150,0.03538,,,,,,,,,,,,,,,,,,,,,,,,,,0,0,0,0,0
2.3382,1783957395.8631,1,1,3.0000,0.0000,1.42242,-0.00514,-2.63187,1.06622,1.57080,0.11675,-0.12763,-0.48150,0.03538,,,,,,,,,,,,,,,,,,,,,,,,,,0,0,0,0,0
2.3483,1783957395.8732,1,1,3.0000,0.0000,1.42242,-0.00514,-2.63187,1.06622,1.57080,0.11675,-0.12763,-0.48150,0.03538,,,,,,,,,,,,,,,,,,,,,,,,,,0,0,0,0,0
2.3487,1783957395.8736,1,1,3.0000,0.0000,1.42242,-0.00514,-2.63187,1.06622,1.57080,0.11675,-0.12763,-0.48150,0.03538,,,,,,,,,,,,,,,,,,,,,,,,,,0,0,0,0,0
2.3510,1783957395.8759,1,1,3.0000,0.0000,1.42242,-0.00514,-2.63187,1.06622,1.57080,0.11675,-0.12763,-0.48150,0.03538,,,,,,,,,,,,,,,,,,,,,,,,,,0,0,0,0,0
2.3646,1783957395.8895,1,1,3.0000,0.0000,1.42242,-0.00514,-2.63187,1.06622,1.57080,0.11675,-0.12763,-0.48150,0.03538,,,,,,,,,,,,,,,,,,,,,,,,,,0,0,0,0,0
2.3716,1783957395.8965,1,1,3.0000,0.0000,1.42242,-0.00514,-2.63187,1.06622,1.57080,0.11675,-0.12763,-0.48150,0.03538,,,,,,,,,,,,,,,,,,,,,,,,,,0,0,0,0,0
2.3805,1783957395.9054,1,1,3.0000,0.0000,1.42242,-0.00514,-2.63187,1.06622,1.57080,0.11675,-0.12763,-0.48150,0.03538,,,,,,,,,,,,,,,,,,,,,,,,,,0,0,0,0,0
2.3905,1783957395.9154,1,1,3.0000,0.0000,1.42242,-0.00514,-2.63187,1.06622,1.57080,0.11675,-0.12763,-0.48150,0.03538,,,,,,,,,,,,,,,,,,,,,,,,,,0,0,0,0,0
2.4007,1783957395.9255,1,1,3.0000,0.0000,1.42242,-0.00516,-2.63187,1.06624,1.57080,0.11675,-0.12763,-0.48150,0.03538,,,,,,,,,,,,,,,,,,,,,,,,,,0,0,0,0,0
2.4116,1783957395.9365,1,1,3.0000,0.0000,1.42242,-0.00520,-2.63188,1.06630,1.57080,0.11675,-0.12763,-0.48150,0.03536,,,,,,,,,,,,,,,,,,,,,,,,,,0,0,0,0,0
2.4212,1783957395.9461,1,1,3.0000,0.0000,1.42242,-0.00522,-2.63188,1.06632,1.57080,0.11675,-0.12763,-0.48150,0.03535,,,,,,,,,,,,,,,,,,,,,,,,,,0,0,0,0,0
2.4302,1783957395.9551,1,1,3.0000,0.0000,1.42242,-0.00525,-2.63190,1.06636,1.57080,0.11675,-0.12763,-0.48150,0.03534,,,,,,,,,,,,,,,,,,,,,,,,,,0,0,0,0,0
2.4421,1783957395.9670,1,1,3.0000,0.0000,1.42242,-0.00529,-2.63191,1.06641,1.57080,0.11675,-0.12763,-0.48149,0.03532,,,,,,,,,,,,,,,,,,,,,,,,,,0,0,0,0,0
2.4552,1783957395.9801,1,1,3.0000,0.0000,1.42242,-0.00533,-2.63193,1.06646,1.57080,0.11675,-0.12763,-0.48149,0.03531,,,,,,,,,,,,,,,,,,,,,,,,,,0,0,0,0,0
2.4622,1783957395.9871,1,1,3.0000,0.0000,1.42242,-0.00540,-2.63194,1.06654,1.57080,0.11675,-0.12763,-0.48149,0.03529,,,,,,,,,,,,,,,,,,,,,,,,,,0,0,0,0,0
2.4625,1783957395.9874,1,1,3.0000,0.0000,1.42242,-0.00540,-2.63194,1.06654,1.57080,0.11675,-0.12763,-0.48149,0.03529,,,,,,,,,,,,,,,,,,,,,,,,,,0,0,0,0,0
2.4809,1783957396.0058,1,1,3.0000,0.0000,1.42242,-0.00549,-2.63197,1.06665,1.57080,0.11675,-0.12763,-0.48149,0.03525,,,,,,,,,,,,,,,,,,,,,,,,,,0,0,0,0,0
2.5018,1783957396.0267,1,1,3.0000,0.0000,1.42242,-0.00571,-2.63202,1.06692,1.57080,0.11675,-0.12763,-0.48148,0.03518,,,,,,,,,,,,,,,,,,,,,,,,,,0,0,0,0,0
2.5120,1783957396.0369,1,1,3.0000,0.0000,1.42242,-0.00572,-2.63202,1.06693,1.57080,0.11675,-0.12763,-0.48148,0.03517,,,,,,,,,,,,,,,,,,,,,,,,,,0,0,0,0,0
2.5129,1783957396.0378,1,1,3.0000,0.0000,1.42242,-0.00572,-2.63202,1.06693,1.57080,0.11675,-0.12763,-0.48148,0.03517,,,,,,,,,,,,,,,,,,,,,,,,,,0,0,0,0,0
2.5308,1783957396.0557,1,1,3.0000,0.0000,1.42242,-0.00584,-2.63205,1.06707,1.57080,0.11675,-0.12763,-0.48149,0.03513,,,,,,,,,,,,,,,,,,,,,,,,,,0,0,0,0,0
2.5372,1783957396.0621,1,1,3.0000,0.0000,1.42242,-0.00584,-2.63205,1.06708,1.57080,0.11675,-0.12763,-0.48149,0.03513,,,,,,,,,,,,,,,,,,,,,,,,,,0,0,0,0,0
2.5379,1783957396.0628,1,1,3.0000,0.0000,1.42242,-0.00586,-2.63205,1.06710,1.57080,0.11675,-0.12763,-0.48149,0.03513,,,,,,,,,,,,,,,,,,,,,,,,,,0,0,0,0,0
2.5429,1783957396.0678,1,1,3.0000,0.0000,1.42242,-0.00589,-2.63205,1.06713,1.57080,0.11675,-0.12763,-0.48149,0.03512,,,,,,,,,,,,,,,,,,,,,,,,,,0,0,0,0,0
2.5627,1783957396.0876,1,1,3.0000,0.0000,1.42242,-0.00611,-2.63208,1.06740,1.57080,0.11675,-0.12762,-0.48151,0.03506,,,,,,,,,,,,,,,,,,,,,,,,,,0,0,0,0,0
2.5675,1783957396.0924,1,1,3.0000,0.0000,1.42242,-0.00616,-2.63208,1.06747,1.57080,0.11675,-0.12762,-0.48151,0.03504,,,,,,,,,,,,,,,,,,,,,,,,,,0,0,0,0,0
2.5678,1783957396.0927,1,1,3.0000,0.0000,1.42242,-0.00616,-2.63208,1.06747,1.57080,0.11675,-0.12762,-0.48151,0.03504,,,,,,,,,,,,,,,,,,,,,,,,,,0,0,0,0,0
2.5701,1783957396.0950,1,1,3.0000,0.0000,1.42241,-0.00620,-2.63209,1.06753,1.57080,0.11675,-0.12762,-0.48152,0.03503,,,,,,,,,,,,,,,,,,,,,,,,,,0,0,0,0,0
2.5704,1783957396.0953,1,1,3.0000,0.0000,1.42241,-0.00620,-2.63209,1.06753,1.57080,0.11675,-0.12762,-0.48152,0.03503,,,,,,,,,,,,,,,,,,,,,,,,,,0,0,0,0,0
2.5806,1783957396.1054,1,1,3.0000,0.0000,1.42241,-0.00629,-2.63209,1.06763,1.57080,0.11675,-0.12762,-0.48153,0.03501,,,,,,,,,,,,,,,,,,,,,,,,,,0,0,0,0,0
2.5968,1783957396.1217,1,1,3.0000,0.0000,1.42241,-0.00637,-2.63208,1.06773,1.57080,0.11675,-0.12762,-0.48155,0.03499,,,,,,,,,,,,,,,,,,,,,,,,,,0,0,0,0,0
2.6133,1783957396.1382,1,1,3.0000,0.0000,1.42241,-0.00637,-2.63208,1.06773,1.57080,0.11675,-0.12762,-0.48155,0.03499,,,,,,,,,,,,,,,,,,,,,,,,,,0,0,0,0,0
2.6155,1783957396.1404,1,1,3.0000,0.0000,1.42241,-0.00637,-2.63208,1.06773,1.57080,0.11675,-0.12762,-0.48155,0.03499,,,,,,,,,,,,,,,,,,,,,,,,,,0,0,0,0,0
2.6331,1783957396.1580,1,1,3.0000,0.0000,1.42241,-0.00637,-2.63208,1.06773,1.57080,0.11675,-0.12762,-0.48155,0.03499,,,,,,,,,,,,,,,,,,,,,,,,,,0,0,0,0,0
2.6334,1783957396.1583,1,1,3.0000,0.0000,1.42241,-0.00637,-2.63208,1.06773,1.57080,0.11675,-0.12762,-0.48155,0.03499,,,,,,,,,,,,,,,,,,,,,,,,,,0,0,0,0,0
2.6440,1783957396.1689,1,1,3.0000,0.0000,1.42241,-0.00637,-2.63208,1.06773,1.57080,0.11675,-0.12762,-0.48155,0.03499,,,,,,,,,,,,,,,,,,,,,,,,,,0,0,0,0,0
2.6607,1783957396.1855,1,1,3.0000,0.0000,1.42241,-0.00637,-2.63208,1.06773,1.57080,0.11675,-0.12762,-0.48155,0.03499,,,,,,,,,,,,,,,,,,,,,,,,,,0,0,0,0,0
2.6611,1783957396.1860,1,1,3.0000,0.0000,1.42241,-0.00637,-2.63208,1.06773,1.57080,0.11675,-0.12762,-0.48155,0.03499,,,,,,,,,,,,,,,,,,,,,,,,,,0,0,0,0,0
2.6703,1783957396.1952,1,1,3.0000,0.0000,1.42241,-0.00639,-2.63209,1.06776,1.57080,0.11675,-0.12762,-0.48154,0.03498,,,,,,,,,,,,,,,,,,,,,,,,,,0,0,0,0,0
2.6706,1783957396.1955,1,1,3.0000,0.0000,1.42241,-0.00639,-2.63209,1.06776,1.57080,0.11675,-0.12762,-0.48154,0.03498,,,,,,,,,,,,,,,,,,,,,,,,,,0,0,0,0,0
2.6820,1783957396.2069,1,1,3.0000,0.0000,1.42241,-0.00643,-2.63212,1.06782,1.57080,0.11675,-0.12762,-0.48153,0.03496,,,,,,,,,,,,,,,,,,,,,,,,,,0,0,0,0,0
2.6921,1783957396.2170,1,1,3.0000,0.0000,1.42241,-0.00644,-2.63212,1.06782,1.57080,0.11675,-0.12762,-0.48153,0.03496,,,,,,,,,,,,,,,,,,,,,,,,,,0,0,0,0,0
2.6925,1783957396.2174,1,1,3.0000,0.0000,1.42241,-0.00644,-2.63212,1.06782,1.57080,0.11675,-0.12762,-0.48153,0.03496,,,,,,,,,,,,,,,,,,,,,,,,,,0,0,0,0,0
2.7075,1783957396.2324,1,1,3.0000,0.0000,1.42241,-0.00650,-2.63216,1.06790,1.57080,0.11675,-0.12762,-0.48151,0.03493,,,,,,,,,,,,,,,,,,,,,,,,,,0,0,0,0,0
2.7171,1783957396.2420,1,1,3.0000,0.0000,1.42241,-0.00653,-2.63217,1.06793,1.57080,0.11675,-0.12762,-0.48151,0.03491,,,,,,,,,,,,,,,,,,,,,,,,,,0,0,0,0,0
2.7233,1783957396.2482,1,1,3.0000,0.0000,1.42241,-0.00654,-2.63218,1.06795,1.57080,0.11675,-0.12762,-0.48151,0.03491,,,,,,,,,,,,,,,,,,,,,,,,,,0,0,0,0,0
2.7237,1783957396.2486,1,1,3.0000,0.0000,1.42241,-0.00654,-2.63218,1.06795,1.57080,0.11675,-0.12762,-0.48151,0.03491,,,,,,,,,,,,,,,,,,,,,,,,,,0,0,0,0,0
2.7313,1783957396.2561,1,1,3.0000,0.0000,1.42241,-0.00659,-2.63219,1.06800,1.57080,0.11675,-0.12762,-0.48150,0.03489,,,,,,,,,,,,,,,,,,,,,,,,,,0,0,0,0,0
2.7317,1783957396.2566,1,1,3.0000,0.0000,1.42241,-0.00659,-2.63219,1.06800,1.57080,0.11675,-0.12762,-0.48150,0.03489,,,,,,,,,,,,,,,,,,,,,,,,,,0,0,0,0,0
2.7479,1783957396.2728,1,1,3.0000,0.0000,1.42241,-0.00670,-2.63222,1.06813,1.57080,0.11675,-0.12762,-0.48150,0.03485,,,,,,,,,,,,,,,,,,,,,,,,,,0,0,0,0,0
2.7484,1783957396.2733,1,1,3.0000,0.0000,1.42241,-0.00670,-2.63222,1.06813,1.57080,0.11675,-0.12762,-0.48150,0.03485,,,,,,,,,,,,,,,,,,,,,,,,,,0,0,0,0,0
2.7580,1783957396.2829,1,1,3.0000,0.0000,1.42241,-0.00674,-2.63224,1.06819,1.57080,0.11675,-0.12762,-0.48149,0.03483,,,,,,,,,,,,,,,,,,,,,,,,,,0,0,0,0,0
2.7631,1783957396.2880,1,1,3.0000,0.0000,1.42241,-0.00678,-2.63224,1.06823,1.57080,0.11675,-0.12762,-0.48149,0.03482,,,,,,,,,,,,,,,,,,,,,,,,,,0,0,0,0,0
2.7634,1783957396.2883,1,1,3.0000,0.0000,1.42241,-0.00678,-2.63224,1.06823,1.57080,0.11675,-0.12762,-0.48149,0.03482,,,,,,,,,,,,,,,,,,,,,,,,,,0,0,0,0,0
2.7811,1783957396.3059,1,1,3.0000,0.0000,1.42241,-0.00691,-2.63228,1.06839,1.57080,0.11675,-0.12762,-0.48149,0.03477,,,,,,,,,,,,,,,,,,,,,,,,,,0,0,0,0,0
2.7813,1783957396.3062,1,1,3.0000,0.0000,1.42241,-0.00691,-2.63228,1.06839,1.57080,0.11675,-0.12762,-0.48149,0.03477,,,,,,,,,,,,,,,,,,,,,,,,,,0,0,0,0,0
2.7948,1783957396.3197,1,1,3.0000,0.0000,1.42241,-0.00699,-2.63229,1.06849,1.57080,0.11675,-0.12762,-0.48149,0.03475,,,,,,,,,,,,,,,,,,,,,,,,,,0,0,0,0,0
2.8009,1783957396.3258,1,1,3.0000,0.0000,1.42241,-0.00704,-2.63230,1.06854,1.57080,0.11675,-0.12762,-0.48149,0.03473,,,,,,,,,,,,,,,,,,,,,,,,,,0,0,0,0,0
2.8013,1783957396.3262,1,1,3.0000,0.0000,1.42241,-0.00704,-2.63230,1.06854,1.57080,0.11675,-0.12762,-0.48149,0.03473,,,,,,,,,,,,,,,,,,,,,,,,,,0,0,0,0,0
2.8176,1783957396.3425,1,1,3.0000,0.0000,1.42241,-0.00724,-2.63234,1.06878,1.57080,0.11675,-0.12762,-0.48149,0.03467,,,,,,,,,,,,,,,,,,,,,,,,,,0,0,0,0,0
2.8250,1783957396.3499,1,1,3.0000,0.0000,1.42241,-0.00734,-2.63236,1.06891,1.57080,0.11675,-0.12762,-0.48150,0.03463,,,,,,,,,,,,,,,,,,,,,,,,,,0,0,0,0,0
2.8339,1783957396.3588,1,1,3.0000,0.0000,1.42241,-0.00746,-2.63238,1.06906,1.57080,0.11675,-0.12762,-0.48150,0.03460,,,,,,,,,,,,,,,,,,,,,,,,,,0,0,0,0,0
2.8548,1783957396.3797,1,1,3.0000,0.0000,1.42241,-0.00749,-2.63239,1.06910,1.57080,0.11675,-0.12762,-0.48151,0.03459,,,,,,,,,,,,,,,,,,,,,,,,,,0,0,0,0,0
2.8638,1783957396.3887,1,1,3.0000,0.0000,1.42241,-0.00749,-2.63239,1.06910,1.57080,0.11675,-0.12762,-0.48151,0.03459,,,,,,,,,,,,,,,,,,,,,,,,,,0,0,0,0,0
2.8641,1783957396.3890,1,1,3.0000,0.0000,1.42241,-0.00749,-2.63239,1.06910,1.57080,0.11675,-0.12762,-0.48151,0.03459,,,,,,,,,,,,,,,,,,,,,,,,,,0,0,0,0,0
2.8763,1783957396.4012,1,1,3.0000,0.0000,1.42241,-0.00749,-2.63239,1.06910,1.57080,0.11675,-0.12762,-0.48151,0.03459,,,,,,,,,,,,,,,,,,,,,,,,,,0,0,0,0,0
2.8861,1783957396.4110,1,1,3.0000,0.0000,1.42241,-0.00749,-2.63239,1.06910,1.57080,0.11675,-0.12762,-0.48151,0.03459,,,,,,,,,,,,,,,,,,,,,,,,,,0,0,0,0,0
2.9081,1783957396.4330,1,1,3.0000,0.0000,1.42241,-0.00749,-2.63239,1.06910,1.57080,0.11675,-0.12762,-0.48151,0.03459,,,,,,,,,,,,,,,,,,,,,,,,,,0,0,0,0,0
2.9187,1783957396.4436,1,1,3.0000,0.0000,1.42241,-0.00749,-2.63239,1.06910,1.57080,0.11675,-0.12762,-0.48151,0.03459,,,,,,,,,,,,,,,,,,,,,,,,,,0,0,0,0,0
2.9193,1783957396.4442,1,1,3.0000,0.0000,1.42241,-0.00749,-2.63239,1.06910,1.57080,0.11675,-0.12762,-0.48151,0.03459,,,,,,,,,,,,,,,,,,,,,,,,,,0,0,0,0,0
2.9325,1783957396.4574,1,1,3.0000,0.0000,1.42241,-0.00749,-2.63239,1.06910,1.57080,0.11675,-0.12762,-0.48151,0.03459,,,,,,,,,,,,,,,,,,,,,,,,,,0,0,0,0,0
2.9333,1783957396.4582,1,1,3.0000,0.0000,1.42241,-0.00749,-2.63239,1.06910,1.57080,0.11675,-0.12762,-0.48151,0.03459,,,,,,,,,,,,,,,,,,,,,,,,,,0,0,0,0,0
2.9423,1783957396.4672,1,1,3.0000,0.0000,1.42241,-0.00752,-2.63239,1.06914,1.57080,0.11675,-0.12762,-0.48151,0.03458,,,,,,,,,,,,,,,,,,,,,,,,,,0,0,0,0,0
2.9513,1783957396.4762,1,1,3.0000,0.0000,1.42241,-0.00756,-2.63240,1.06919,1.57080,0.11675,-0.12762,-0.48151,0.03457,,,,,,,,,,,,,,,,,,,,,,,,,,0,0,0,0,0
2.9730,1783957396.4979,1,1,3.0000,0.0000,1.42241,-0.00761,-2.63241,1.06925,1.57080,0.11675,-0.12762,-0.48150,0.03455,,,,,,,,,,,,,,,,,,,,,,,,,,0,0,0,0,0
2.9733,1783957396.4982,1,1,3.0000,0.0000,1.42241,-0.00761,-2.63241,1.06925,1.57080,0.11675,-0.12762,-0.48150,0.03455,,,,,,,,,,,,,,,,,,,,,,,,,,0,0,0,0,0
2.9736,1783957396.4985,1,1,3.0000,0.0000,1.42241,-0.00761,-2.63241,1.06925,1.57080,0.11675,-0.12762,-0.48150,0.03455,,,,,,,,,,,,,,,,,,,,,,,,,,0,0,0,0,0
2.9741,1783957396.4990,1,1,3.0000,0.0000,1.42241,-0.00763,-2.63242,1.06927,1.57080,0.11675,-0.12762,-0.48150,0.03454,,,,,,,,,,,,,,,,,,,,,,,,,,0,0,0,0,0
2.9807,1783957396.5056,1,1,3.0000,0.0000,1.42241,-0.00765,-2.63243,1.06930,1.57080,0.11675,-0.12762,-0.48150,0.03453,,,,,,,,,,,,,,,,,,,,,,,,,,0,0,0,0,0
2.9903,1783957396.5152,1,1,3.0000,0.0000,1.42241,-0.00767,-2.63244,1.06933,1.57080,0.11675,-0.12762,-0.48150,0.03452,,,,,,,,,,,,,,,,,,,,,,,,,,0,0,0,0,0
2.9906,1783957396.5155,1,1,3.0000,0.0000,1.42241,-0.00767,-2.63244,1.06933,1.57080,0.11675,-0.12762,-0.48150,0.03452,,,,,,,,,,,,,,,,,,,,,,,,,,0,0,0,0,0
3.0023,1783957396.5271,1,1,3.0000,0.0000,1.42241,-0.00776,-2.63246,1.06944,1.57080,0.11675,-0.12762,-0.48150,0.03449,,,,,,,,,,,,,,,,,,,,,,,,,,0,0,0,0,0
3.0144,1783957396.5393,1,1,3.0000,0.0000,1.42241,-0.00785,-2.63248,1.06954,1.57080,0.11675,-0.12762,-0.48149,0.03446,,,,,,,,,,,,,,,,,,,,,,,,,,0,0,0,0,0
3.0147,1783957396.5396,1,1,3.0000,0.0000,1.42241,-0.00785,-2.63248,1.06954,1.57080,0.11675,-0.12762,-0.48149,0.03446,,,,,,,,,,,,,,,,,,,,,,,,,,0,0,0,0,0
3.0245,1783957396.5494,1,1,3.0000,0.0000,1.42241,-0.00787,-2.63249,1.06957,1.57080,0.11675,-0.12762,-0.48149,0.03445,,,,,,,,,,,,,,,,,,,,,,,,,,0,0,0,0,0
3.0249,1783957396.5498,1,1,3.0000,0.0000,1.42241,-0.00787,-2.63249,1.06957,1.57080,0.11675,-0.12762,-0.48149,0.03445,,,,,,,,,,,,,,,,,,,,,,,,,,0,0,0,0,0
3.0315,1783957396.5564,1,1,3.0000,0.0000,1.42241,-0.00793,-2.63250,1.06964,1.57080,0.11675,-0.12762,-0.48149,0.03443,,,,,,,,,,,,,,,,,,,,,,,,,,0,0,0,0,0
3.0437,1783957396.5686,1,1,3.0000,0.0000,1.42241,-0.00803,-2.63252,1.06975,1.57080,0.11675,-0.12762,-0.48149,0.03440,,,,,,,,,,,,,,,,,,,,,,,,,,0,0,0,0,0
3.0568,1783957396.5817,1,1,3.0000,0.0000,1.42241,-0.00808,-2.63253,1.06982,1.57080,0.11675,-0.12762,-0.48149,0.03438,,,,,,,,,,,,,,,,,,,,,,,,,,0,0,0,0,0
3.0573,1783957396.5822,1,1,3.0000,0.0000,1.42241,-0.00808,-2.63253,1.06982,1.57080,0.11675,-0.12762,-0.48149,0.03438,,,,,,,,,,,,,,,,,,,,,,,,,,0,0,0,0,0
3.0741,1783957396.5990,1,1,3.0000,0.0000,1.42241,-0.00826,-2.63257,1.07004,1.57080,0.11675,-0.12762,-0.48149,0.03432,,,,,,,,,,,,,,,,,,,,,,,,,,0,0,0,0,0
3.0745,1783957396.5994,1,1,3.0000,0.0000,1.42241,-0.00826,-2.63257,1.07004,1.57080,0.11675,-0.12762,-0.48149,0.03432,,,,,,,,,,,,,,,,,,,,,,,,,,0,0,0,0,0
3.0828,1783957396.6077,1,1,3.0000,0.0000,1.42241,-0.00828,-2.63257,1.07006,1.57080,0.11675,-0.12762,-0.48149,0.03431,,,,,,,,,,,,,,,,,,,,,,,,,,0,0,0,0,0
3.0904,1783957396.6153,1,1,3.0000,0.0000,1.42241,-0.00833,-2.63258,1.07012,1.57080,0.11675,-0.12762,-0.48149,0.03430,,,,,,,,,,,,,,,,,,,,,,,,,,0,0,0,0,0
3.1064,1783957396.6313,1,1,3.0000,0.0000,1.42241,-0.00845,-2.63260,1.07026,1.57080,0.11675,-0.12762,-0.48150,0.03426,,,,,,,,,,,,,,,,,,,,,,,,,,0,0,0,0,0
3.1068,1783957396.6317,1,1,3.0000,0.0000,1.42241,-0.00845,-2.63260,1.07026,1.57080,0.11675,-0.12762,-0.48150,0.03426,,,,,,,,,,,,,,,,,,,,,,,,,,0,0,0,0,0
3.1105,1783957396.6354,1,1,3.0000,0.0000,1.42241,-0.00845,-2.63260,1.07026,1.57080,0.11675,-0.12762,-0.48150,0.03426,,,,,,,,,,,,,,,,,,,,,,,,,,0,0,0,0,0
3.1233,1783957396.6482,1,1,3.0000,0.0000,1.42241,-0.00850,-2.63260,1.07032,1.57080,0.11675,-0.12762,-0.48151,0.03425,,,,,,,,,,,,,,,,,,,,,,,,,,0,0,0,0,0
3.1450,1783957396.6699,1,1,3.0000,0.0000,1.42241,-0.00864,-2.63258,1.07049,1.57080,0.11675,-0.12761,-0.48155,0.03423,,,,,,,,,,,,,,,,,,,,,,,,,,0,0,0,0,0
3.1849,1783957396.7098,1,1,3.0000,0.0000,1.42241,-0.00875,-2.63252,1.07063,1.57080,0.11675,-0.12760,-0.48161,0.03423,,,,,,,,,,,,,,,,,,,,,,,,,,0,0,0,0,0
3.1853,1783957396.7102,1,1,3.0000,0.0000,1.42241,-0.00875,-2.63252,1.07063,1.57080,0.11675,-0.12760,-0.48161,0.03423,,,,,,,,,,,,,,,,,,,,,,,,,,0,0,0,0,0
3.1856,1783957396.7105,1,1,3.0000,0.0000,1.42241,-0.00875,-2.63252,1.07063,1.57080,0.11675,-0.12760,-0.48161,0.03423,,,,,,,,,,,,,,,,,,,,,,,,,,0,0,0,0,0
3.1861,1783957396.7110,1,1,3.0000,0.0000,1.42241,-0.00875,-2.63252,1.07063,1.57080,0.11675,-0.12760,-0.48161,0.03423,,,,,,,,,,,,,,,,,,,,,,,,,,0,0,0,0,0
3.2343,1783957396.7591,1,1,3.0000,0.0000,1.42241,-0.00881,-2.63261,1.07072,1.57080,0.11675,-0.12761,-0.48156,0.03417,,,,,,,,,,,,,,,,,,,,,,,,,,0,0,0,0,0
3.2346,1783957396.7595,1,1,3.0000,0.0000,1.42241,-0.00881,-2.63261,1.07072,1.57080,0.11675,-0.12761,-0.48156,0.03417,,,,,,,,,,,,,,,,,,,,,,,,,,0,0,0,0,0
3.2382,1783957396.7631,1,1,3.0000,0.0000,1.42241,-0.00882,-2.63261,1.07073,1.57080,0.11675,-0.12761,-0.48155,0.03417,,,,,,,,,,,,,,,,,,,,,,,,,,0,0,0,0,0
3.2479,1783957396.7727,1,1,3.0000,0.0000,1.42241,-0.00885,-2.63263,1.07076,1.57080,0.11675,-0.12761,-0.48154,0.03415,,,,,,,,,,,,,,,,,,,,,,,,,,0,0,0,0,0
3.2481,1783957396.7730,1,1,3.0000,0.0000,1.42241,-0.00885,-2.63263,1.07076,1.57080,0.11675,-0.12761,-0.48154,0.03415,,,,,,,,,,,,,,,,,,,,,,,,,,0,0,0,0,0
3.2485,1783957396.7734,1,1,3.0000,0.0000,1.42241,-0.00885,-2.63263,1.07076,1.57080,0.11675,-0.12761,-0.48154,0.03415,,,,,,,,,,,,,,,,,,,,,,,,,,0,0,0,0,0
3.2487,1783957396.7736,1,1,3.0000,0.0000,1.42241,-0.00885,-2.63263,1.07076,1.57080,0.11675,-0.12761,-0.48154,0.03415,,,,,,,,,,,,,,,,,,,,,,,,,,0,0,0,0,0
3.2548,1783957396.7797,1,1,3.0000,0.0000,1.42241,-0.00887,-2.63265,1.07078,1.57080,0.11675,-0.12761,-0.48154,0.03414,,,,,,,,,,,,,,,,,,,,,,,,,,0,0,0,0,0
3.2552,1783957396.7801,1,1,3.0000,0.0000,1.42241,-0.00887,-2.63265,1.07078,1.57080,0.11675,-0.12761,-0.48154,0.03414,,,,,,,,,,,,,,,,,,,,,,,,,,0,0,0,0,0
3.2624,1783957396.7873,1,1,3.0000,0.0000,1.42241,-0.00888,-2.63265,1.07080,1.57080,0.11675,-0.12761,-0.48153,0.03414,,,,,,,,,,,,,,,,,,,,,,,,,,0,0,0,0,0
3.2628,1783957396.7877,1,1,3.0000,0.0000,1.42241,-0.00888,-2.63265,1.07080,1.57080,0.11675,-0.12761,-0.48153,0.03414,,,,,,,,,,,,,,,,,,,,,,,,,,0,0,0,0,0
3.2765,1783957396.8014,1,1,3.0000,0.0000,1.42241,-0.00896,-2.63268,1.07089,1.57080,0.11675,-0.12762,-0.48152,0.03410,,,,,,,,,,,,,,,,,,,,,,,,,,0,0,0,0,0
3.2864,1783957396.8113,1,1,3.0000,0.0000,1.42240,-0.00903,-2.63271,1.07098,1.57080,0.11675,-0.12762,-0.48151,0.03407,,,,,,,,,,,,,,,,,,,,,,,,,,0,0,0,0,0
3.2942,1783957396.8190,1,1,3.0000,0.0000,1.42240,-0.00905,-2.63272,1.07101,1.57080,0.11675,-0.12762,-0.48151,0.03406,,,,,,,,,,,,,,,,,,,,,,,,,,0,0,0,0,0
3.2945,1783957396.8194,1,1,3.0000,0.0000,1.42240,-0.00905,-2.63272,1.07101,1.57080,0.11675,-0.12762,-0.48151,0.03406,,,,,,,,,,,,,,,,,,,,,,,,,,0,0,0,0,0
3.3082,1783957396.8330,1,1,3.0000,0.0000,1.42240,-0.00915,-2.63275,1.07112,1.57080,0.11675,-0.12762,-0.48151,0.03403,,,,,,,,,,,,,,,,,,,,,,,,,,0,0,0,0,0
3.3208,1783957396.8457,1,1,3.0000,0.0000,1.42240,-0.00925,-2.63278,1.07124,1.57080,0.11675,-0.12762,-0.48150,0.03399,,,,,,,,,,,,,,,,,,,,,,,,,,0,0,0,0,0
3.3484,1783957396.8733,1,1,3.0000,0.0000,1.42240,-0.00938,-2.63281,1.07139,1.57080,0.11675,-0.12762,-0.48150,0.03394,,,,,,,,,,,,,,,,,,,,,,,,,,0,0,0,0,0
3.3616,1783957396.8865,1,1,3.0000,0.0000,1.42240,-0.00946,-2.63282,1.07149,1.57080,0.11675,-0.12762,-0.48150,0.03392,,,,,,,,,,,,,,,,,,,,,,,,,,0,0,0,0,0
3.3622,1783957396.8871,1,1,3.0000,0.0000,1.42240,-0.00950,-2.63283,1.07154,1.57080,0.11675,-0.12762,-0.48150,0.03391,,,,,,,,,,,,,,,,,,,,,,,,,,0,0,0,0,0
3.3762,1783957396.9011,1,1,3.0000,0.0000,1.42240,-0.00965,-2.63285,1.07172,1.57080,0.11675,-0.12762,-0.48151,0.03386,,,,,,,,,,,,,,,,,,,,,,,,,,0,0,0,0,0
3.3765,1783957396.9014,1,1,3.0000,0.0000,1.42240,-0.00965,-2.63285,1.07172,1.57080,0.11675,-0.12762,-0.48151,0.03386,,,,,,,,,,,,,,,,,,,,,,,,,,0,0,0,0,0
3.3771,1783957396.9020,1,1,3.0000,0.0000,1.42240,-0.00965,-2.63285,1.07172,1.57080,0.11675,-0.12762,-0.48151,0.03386,,,,,,,,,,,,,,,,,,,,,,,,,,0,0,0,0,0
3.3775,1783957396.9024,1,1,3.0000,0.0000,1.42240,-0.00965,-2.63285,1.07172,1.57080,0.11675,-0.12762,-0.48151,0.03386,,,,,,,,,,,,,,,,,,,,,,,,,,0,0,0,0,0
3.3782,1783957396.9031,1,1,3.0000,0.0000,1.42240,-0.00970,-2.63286,1.07178,1.57080,0.11675,-0.12762,-0.48151,0.03384,,,,,,,,,,,,,,,,,,,,,,,,,,0,0,0,0,0
3.3871,1783957396.9120,1,1,3.0000,0.0000,1.42240,-0.00980,-2.63287,1.07190,1.57080,0.11675,-0.12762,-0.48151,0.03381,,,,,,,,,,,,,,,,,,,,,,,,,,0,0,0,0,0
3.3983,1783957396.9231,1,1,3.0000,0.0000,1.42240,-0.00990,-2.63288,1.07203,1.57080,0.11675,-0.12761,-0.48153,0.03379,,,,,,,,,,,,,,,,,,,,,,,,,,0,0,0,0,0
3.4007,1783957396.9255,1,1,3.0000,0.0000,1.42240,-0.00990,-2.63288,1.07203,1.57080,0.11675,-0.12761,-0.48153,0.03379,,,,,,,,,,,,,,,,,,,,,,,,,,0,0,0,0,0
3.4104,1783957396.9353,1,1,3.0000,0.0000,1.42240,-0.00992,-2.63288,1.07205,1.57080,0.11675,-0.12761,-0.48153,0.03378,,,,,,,,,,,,,,,,,,,,,,,,,,0,0,0,0,0
3.4108,1783957396.9357,1,1,3.0000,0.0000,1.42240,-0.00992,-2.63288,1.07205,1.57080,0.11675,-0.12761,-0.48153,0.03378,,,,,,,,,,,,,,,,,,,,,,,,,,0,0,0,0,0
3.4203,1783957396.9452,1,1,3.0000,0.0000,1.42240,-0.00992,-2.63288,1.07205,1.57080,0.11675,-0.12761,-0.48153,0.03378,,,,,,,,,,,,,,,,,,,,,,,,,,0,0,0,0,0
3.4345,1783957396.9594,1,1,3.0000,0.0000,1.42240,-0.00992,-2.63288,1.07205,1.57080,0.11675,-0.12761,-0.48153,0.03378,,,,,,,,,,,,,,,,,,,,,,,,,,0,0,0,0,0
3.4349,1783957396.9598,1,1,3.0000,0.0000,1.42240,-0.00992,-2.63288,1.07205,1.57080,0.11675,-0.12761,-0.48153,0.03378,,,,,,,,,,,,,,,,,,,,,,,,,,0,0,0,0,0
3.4502,1783957396.9751,1,1,3.0000,0.0000,1.42240,-0.00992,-2.63288,1.07205,1.57080,0.11675,-0.12761,-0.48153,0.03378,,,,,,,,,,,,,,,,,,,,,,,,,,0,0,0,0,0
3.4505,1783957396.9754,1,1,3.0000,0.0000,1.42240,-0.00992,-2.63288,1.07205,1.57080,0.11675,-0.12761,-0.48153,0.03378,,,,,,,,,,,,,,,,,,,,,,,,,,0,0,0,0,0
3.4808,1783957397.0056,1,1,3.0000,0.0000,1.42240,-0.00993,-2.63288,1.07207,1.57080,0.11675,-0.12761,-0.48153,0.03378,,,,,,,,,,,,,,,,,,,,,,,,,,0,0,0,0,0
3.4811,1783957397.0060,1,1,3.0000,0.0000,1.42240,-0.00993,-2.63288,1.07207,1.57080,0.11675,-0.12761,-0.48153,0.03378,,,,,,,,,,,,,,,,,,,,,,,,,,0,0,0,0,0
3.4814,1783957397.0063,1,1,3.0000,0.0000,1.42240,-0.00993,-2.63288,1.07207,1.57080,0.11675,-0.12761,-0.48153,0.03378,,,,,,,,,,,,,,,,,,,,,,,,,,0,0,0,0,0
3.4817,1783957397.0066,1,1,3.0000,0.0000,1.42240,-0.00993,-2.63288,1.07207,1.57080,0.11675,-0.12761,-0.48153,0.03378,,,,,,,,,,,,,,,,,,,,,,,,,,0,0,0,0,0
3.4823,1783957397.0072,1,1,3.0000,0.0000,1.42240,-0.00994,-2.63288,1.07208,1.57080,0.11675,-0.12761,-0.48153,0.03378,,,,,,,,,,,,,,,,,,,,,,,,,,0,0,0,0,0
3.4982,1783957397.0231,1,1,3.0000,0.0000,1.42240,-0.00998,-2.63290,1.07213,1.57080,0.11675,-0.12761,-0.48153,0.03376,,,,,,,,,,,,,,,,,,,,,,,,,,0,0,0,0,0
3.8333,1783957397.3582,1,1,3.0000,0.0000,1.42240,-0.01141,-2.63324,1.07387,1.57081,0.11675,-0.12761,-0.48150,0.03326,,,,,,,,,,,,,,,,,,,,,,,,,,0,0,0,0,0
3.8338,1783957397.3586,1,1,3.0000,0.0000,1.42240,-0.01141,-2.63324,1.07387,1.57081,0.11675,-0.12761,-0.48150,0.03326,,,,,,,,,,,,,,,,,,,,,,,,,,0,0,0,0,0
3.8343,1783957397.3591,1,1,3.0000,0.0000,1.42240,-0.01143,-2.63324,1.07389,1.57081,0.11675,-0.12761,-0.48150,0.03326,,,,,,,,,,,,,,,,,,,,,,,,,,0,0,0,0,0
3.8345,1783957397.3594,1,1,3.0000,0.0000,1.42240,-0.01143,-2.63324,1.07389,1.57081,0.11675,-0.12761,-0.48150,0.03326,,,,,,,,,,,,,,,,,,,,,,,,,,0,0,0,0,0
3.8348,1783957397.3597,1,1,3.0000,0.0000,1.42240,-0.01143,-2.63324,1.07389,1.57081,0.11675,-0.12761,-0.48150,0.03326,,,,,,,,,,,,,,,,,,,,,,,,,,0,0,0,0,0
3.8352,1783957397.3601,1,1,3.0000,0.0000,1.42240,-0.01143,-2.63324,1.07389,1.57081,0.11675,-0.12761,-0.48150,0.03326,,,,,,,,,,,,,,,,,,,,,,,,,,0,0,0,0,0
3.8355,1783957397.3604,1,1,3.0000,0.0000,1.42240,-0.01143,-2.63324,1.07389,1.57081,0.11675,-0.12761,-0.48150,0.03326,,,,,,,,,,,,,,,,,,,,,,,,,,0,0,0,0,0
3.8357,1783957397.3606,1,1,3.0000,0.0000,1.42240,-0.01143,-2.63324,1.07389,1.57081,0.11675,-0.12761,-0.48150,0.03326,,,,,,,,,,,,,,,,,,,,,,,,,,0,0,0,0,0
3.8361,1783957397.3609,1,1,3.0000,0.0000,1.42240,-0.01143,-2.63324,1.07389,1.57081,0.11675,-0.12761,-0.48150,0.03326,,,,,,,,,,,,,,,,,,,,,,,,,,0,0,0,0,0
3.8364,1783957397.3613,1,1,3.0000,0.0000,1.42240,-0.01143,-2.63324,1.07389,1.57081,0.11675,-0.12761,-0.48150,0.03326,,,,,,,,,,,,,,,,,,,,,,,,,,0,0,0,0,0
3.8368,1783957397.3616,1,1,3.0000,0.0000,1.42240,-0.01143,-2.63324,1.07389,1.57081,0.11675,-0.12761,-0.48150,0.03326,,,,,,,,,,,,,,,,,,,,,,,,,,0,0,0,0,0
3.8370,1783957397.3619,1,1,3.0000,0.0000,1.42240,-0.01143,-2.63324,1.07389,1.57081,0.11675,-0.12761,-0.48150,0.03326,,,,,,,,,,,,,,,,,,,,,,,,,,0,0,0,0,0
3.8373,1783957397.3622,1,1,3.0000,0.0000,1.42240,-0.01143,-2.63324,1.07389,1.57081,0.11675,-0.12761,-0.48150,0.03326,,,,,,,,,,,,,,,,,,,,,,,,,,0,0,0,0,0
3.8377,1783957397.3626,1,1,3.0000,0.0000,1.42240,-0.01143,-2.63324,1.07389,1.57081,0.11675,-0.12761,-0.48150,0.03326,,,,,,,,,,,,,,,,,,,,,,,,,,0,0,0,0,0
3.8383,1783957397.3632,1,1,3.0000,0.0000,1.42240,-0.01146,-2.63325,1.07392,1.57081,0.11675,-0.12761,-0.48150,0.03325,,,,,,,,,,,,,,,,,,,,,,,,,,0,0,0,0,0
3.8386,1783957397.3635,1,1,3.0000,0.0000,1.42240,-0.01146,-2.63325,1.07392,1.57081,0.11675,-0.12761,-0.48150,0.03325,,,,,,,,,,,,,,,,,,,,,,,,,,0,0,0,0,0
3.8388,1783957397.3637,1,1,3.0000,0.0000,1.42240,-0.01146,-2.63325,1.07392,1.57081,0.11675,-0.12761,-0.48150,0.03325,,,,,,,,,,,,,,,,,,,,,,,,,,0,0,0,0,0
3.8391,1783957397.3640,1,1,3.0000,0.0000,1.42240,-0.01146,-2.63325,1.07392,1.57081,0.11675,-0.12761,-0.48150,0.03325,,,,,,,,,,,,,,,,,,,,,,,,,,0,0,0,0,0
3.8393,1783957397.3642,1,1,3.0000,0.0000,1.42240,-0.01146,-2.63325,1.07392,1.57081,0.11675,-0.12761,-0.48150,0.03325,,,,,,,,,,,,,,,,,,,,,,,,,,0,0,0,0,0
3.8463,1783957397.3712,1,1,3.0000,0.0000,1.42240,-0.01153,-2.63327,1.07401,1.57081,0.11675,-0.12761,-0.48150,0.03322,,,,,,,,,,,,,,,,,,,,,,,,,,0,0,0,0,0
3.8466,1783957397.3714,1,1,3.0000,0.0000,1.42240,-0.01153,-2.63327,1.07401,1.57081,0.11675,-0.12761,-0.48150,0.03322,,,,,,,,,,,,,,,,,,,,,,,,,,0,0,0,0,0
3.8469,1783957397.3717,1,1,3.0000,0.0000,1.42240,-0.01153,-2.63327,1.07401,1.57081,0.11675,-0.12761,-0.48150,0.03322,,,,,,,,,,,,,,,,,,,,,,,,,,0,0,0,0,0
3.8634,1783957397.3883,1,1,3.0000,0.0000,1.42240,-0.01159,-2.63328,1.07408,1.57081,0.11675,-0.12761,-0.48150,0.03320,,,,,,,,,,,,,,,,,,,,,,,,,,0,0,0,0,0
3.8637,1783957397.3886,1,1,3.0000,0.0000,1.42240,-0.01159,-2.63328,1.07408,1.57081,0.11675,-0.12761,-0.48150,0.03320,,,,,,,,,,,,,,,,,,,,,,,,,,0,0,0,0,0
3.8764,1783957397.4013,1,1,3.0000,0.0000,1.42240,-0.01173,-2.63332,1.07425,1.57081,0.11675,-0.12761,-0.48149,0.03315,,,,,,,,,,,,,,,,,,,,,,,,,,0,0,0,0,0
3.8908,1783957397.4157,1,1,3.0000,0.0000,1.42239,-0.01185,-2.63335,1.07439,1.57081,0.11675,-0.12761,-0.48149,0.03311,,,,,,,,,,,,,,,,,,,,,,,,,,0,0,0,0,0
3.8950,1783957397.4199,1,1,3.0000,0.0000,1.42239,-0.01187,-2.63335,1.07441,1.57081,0.11675,-0.12761,-0.48149,0.03311,,,,,,,,,,,,,,,,,,,,,,,,,,0,0,0,0,0
3.9222,1783957397.4471,1,1,3.0000,0.0000,1.42239,-0.01202,-2.63337,1.07460,1.57081,0.11675,-0.12761,-0.48150,0.03306,,,,,,,,,,,,,,,,,,,,,,,,,,0,0,0,0,0
3.9226,1783957397.4475,1,1,3.0000,0.0000,1.42239,-0.01202,-2.63337,1.07460,1.57081,0.11675,-0.12761,-0.48150,0.03306,,,,,,,,,,,,,,,,,,,,,,,,,,0,0,0,0,0
3.9632,1783957397.4881,1,1,3.0000,0.0000,1.42239,-0.01226,-2.63335,1.07490,1.57081,0.11675,-0.12760,-0.48156,0.03302,,,,,,,,,,,,,,,,,,,,,,,,,,0,0,0,0,0
3.9636,1783957397.4885,1,1,3.0000,0.0000,1.42239,-0.01226,-2.63335,1.07490,1.57081,0.11675,-0.12760,-0.48156,0.03302,,,,,,,,,,,,,,,,,,,,,,,,,,0,0,0,0,0
3.9639,1783957397.4887,1,1,3.0000,0.0000,1.42239,-0.01226,-2.63335,1.07490,1.57081,0.11675,-0.12760,-0.48156,0.03302,,,,,,,,,,,,,,,,,,,,,,,,,,0,0,0,0,0
3.9641,1783957397.4890,1,1,3.0000,0.0000,1.42239,-0.01226,-2.63335,1.07490,1.57081,0.11675,-0.12760,-0.48156,0.03302,,,,,,,,,,,,,,,,,,,,,,,,,,0,0,0,0,0
4.0263,1783957397.5512,1,1,3.0000,0.0000,1.42239,-0.01233,-2.63333,1.07500,1.57081,0.11675,-0.12760,-0.48158,0.03300,,,,,,,,,,,,,,,,,,,,,,,,,,0,0,0,0,0
4.0266,1783957397.5515,1,1,3.0000,0.0000,1.42239,-0.01233,-2.63333,1.07500,1.57081,0.11675,-0.12760,-0.48158,0.03300,,,,,,,,,,,,,,,,,,,,,,,,,,0,0,0,0,0
4.0269,1783957397.5518,1,1,3.0000,0.0000,1.42239,-0.01233,-2.63333,1.07500,1.57081,0.11675,-0.12760,-0.48158,0.03300,,,,,,,,,,,,,,,,,,,,,,,,,,0,0,0,0,0
4.0272,1783957397.5521,1,1,3.0000,0.0000,1.42239,-0.01233,-2.63333,1.07500,1.57081,0.11675,-0.12760,-0.48158,0.03300,,,,,,,,,,,,,,,,,,,,,,,,,,0,0,0,0,0
4.0275,1783957397.5524,1,1,3.0000,0.0000,1.42239,-0.01233,-2.63333,1.07500,1.57081,0.11675,-0.12760,-0.48158,0.03300,,,,,,,,,,,,,,,,,,,,,,,,,,0,0,0,0,0
4.0277,1783957397.5526,1,1,3.0000,0.0000,1.42239,-0.01233,-2.63333,1.07500,1.57081,0.11675,-0.12760,-0.48158,0.03300,,,,,,,,,,,,,,,,,,,,,,,,,,0,0,0,0,0
4.0693,1783957397.5942,1,1,3.0000,0.0000,1.42239,-0.01244,-2.63343,1.07513,1.57081,0.11675,-0.12761,-0.48153,0.03293,,,,,,,,,,,,,,,,,,,,,,,,,,0,0,0,0,0
4.0697,1783957397.5946,1,1,3.0000,0.0000,1.42239,-0.01244,-2.63343,1.07513,1.57081,0.11675,-0.12761,-0.48153,0.03293,,,,,,,,,,,,,,,,,,,,,,,,,,0,0,0,0,0
4.0703,1783957397.5952,1,1,3.0000,0.0000,1.42239,-0.01245,-2.63343,1.07514,1.57081,0.11675,-0.12761,-0.48153,0.03293,,,,,,,,,,,,,,,,,,,,,,,,,,0,0,0,0,0
4.0794,1783957397.6043,1,1,3.0000,0.0000,1.42239,-0.01249,-2.63345,1.07518,1.57081,0.11675,-0.12761,-0.48152,0.03291,,,,,,,,,,,,,,,,,,,,,,,,,,0,0,0,0,0
4.0816,1783957397.6065,1,1,3.0000,0.0000,1.42239,-0.01249,-2.63345,1.07518,1.57081,0.11675,-0.12761,-0.48152,0.03291,,,,,,,,,,,,,,,,,,,,,,,,,,0,0,0,0,0
4.0960,1783957397.6209,1,1,3.0000,0.0000,1.42239,-0.01262,-2.63351,1.07534,1.57081,0.11675,-0.12761,-0.48150,0.03286,,,,,,,,,,,,,,,,,,,,,,,,,,0,0,0,0,0
4.1005,1783957397.6254,1,1,3.0000,0.0000,1.42239,-0.01262,-2.63351,1.07534,1.57081,0.11675,-0.12761,-0.48150,0.03286,,,,,,,,,,,,,,,,,,,,,,,,,,0,0,0,0,0
4.1122,1783957397.6371,1,1,3.0000,0.0000,1.42239,-0.01266,-2.63352,1.07539,1.57081,0.11675,-0.12761,-0.48150,0.03284,,,,,,,,,,,,,,,,,,,,,,,,,,0,0,0,0,0
4.1483,1783957397.6732,1,1,3.0000,0.0000,1.42239,-0.01292,-2.63358,1.07570,1.57081,0.11675,-0.12761,-0.48150,0.03275,,,,,,,,,,,,,,,,,,,,,,,,,,0,0,0,0,0
4.1487,1783957397.6736,1,1,3.0000,0.0000,1.42239,-0.01292,-2.63358,1.07570,1.57081,0.11675,-0.12761,-0.48150,0.03275,,,,,,,,,,,,,,,,,,,,,,,,,,0,0,0,0,0
4.1490,1783957397.6739,1,1,3.0000,0.0000,1.42239,-0.01292,-2.63358,1.07570,1.57081,0.11675,-0.12761,-0.48150,0.03275,,,,,,,,,,,,,,,,,,,,,,,,,,0,0,0,0,0
4.1543,1783957397.6792,1,1,3.0000,0.0000,1.42239,-0.01297,-2.63359,1.07577,1.57081,0.11675,-0.12761,-0.48149,0.03274,,,,,,,,,,,,,,,,,,,,,,,,,,0,0,0,0,0
4.1653,1783957397.6902,1,1,3.0000,0.0000,1.42239,-0.01299,-2.63359,1.07579,1.57081,0.11675,-0.12761,-0.48150,0.03273,,,,,,,,,,,,,,,,,,,,,,,,,,0,0,0,0,0
4.1720,1783957397.6969,1,1,3.0000,0.0000,1.42239,-0.01305,-2.63360,1.07586,1.57081,0.11675,-0.12761,-0.48150,0.03271,,,,,,,,,,,,,,,,,,,,,,,,,,0,0,0,0,0
4.1838,1783957397.7087,1,1,3.0000,0.0000,1.42239,-0.01317,-2.63362,1.07600,1.57081,0.11675,-0.12761,-0.48150,0.03267,,,,,,,,,,,,,,,,,,,,,,,,,,0,0,0,0,0
4.2010,1783957397.7259,1,1,3.0000,0.0000,1.42239,-0.01320,-2.63362,1.07605,1.57081,0.11675,-0.12761,-0.48150,0.03266,,,,,,,,,,,,,,,,,,,,,,,,,,0,0,0,0,0
4.2057,1783957397.7306,1,1,3.0000,0.0000,1.42239,-0.01322,-2.63362,1.07607,1.57081,0.11675,-0.12761,-0.48151,0.03266,,,,,,,,,,,,,,,,,,,,,,,,,,0,0,0,0,0
4.2064,1783957397.7313,1,1,3.0000,0.0000,1.42239,-0.01325,-2.63362,1.07611,1.57081,0.11675,-0.12761,-0.48151,0.03265,,,,,,,,,,,,,,,,,,,,,,,,,,0,0,0,0,0
4.2154,1783957397.7403,1,1,3.0000,0.0000,1.42239,-0.01331,-2.63362,1.07619,1.57081,0.11675,-0.12761,-0.48153,0.03264,,,,,,,,,,,,,,,,,,,,,,,,,,0,0,0,0,0
4.2228,1783957397.7477,1,1,3.0000,0.0000,1.42239,-0.01338,-2.63362,1.07627,1.57081,0.11675,-0.12760,-0.48154,0.03263,,,,,,,,,,,,,,,,,,,,,,,,,,0,0,0,0,0
4.2230,1783957397.7479,1,1,3.0000,0.0000,1.42239,-0.01338,-2.63362,1.07627,1.57081,0.11675,-0.12760,-0.48154,0.03263,,,,,,,,,,,,,,,,,,,,,,,,,,0,0,0,0,0
4.2337,1783957397.7586,1,1,3.0000,0.0000,1.42239,-0.01344,-2.63360,1.07635,1.57081,0.11675,-0.12760,-0.48156,0.03262,,,,,,,,,,,,,,,,,,,,,,,,,,0,0,0,0,0
4.2566,1783957397.7815,1,1,3.0000,0.0000,1.42239,-0.01351,-2.63356,1.07643,1.57081,0.11674,-0.12759,-0.48161,0.03262,,,,,,,,,,,,,,,,,,,,,,,,,,0,0,0,0,0
4.2570,1783957397.7819,1,1,3.0000,0.0000,1.42239,-0.01351,-2.63356,1.07643,1.57081,0.11674,-0.12759,-0.48161,0.03262,,,,,,,,,,,,,,,,,,,,,,,,,,0,0,0,0,0
4.2604,1783957397.7853,1,1,3.0000,0.0000,1.42239,-0.01351,-2.63356,1.07643,1.57081,0.11674,-0.12759,-0.48161,0.03262,,,,,,,,,,,,,,,,,,,,,,,,,,0,0,0,0,0
4.2608,1783957397.7857,1,1,3.0000,0.0000,1.42239,-0.01351,-2.63356,1.07643,1.57081,0.11674,-0.12759,-0.48161,0.03262,,,,,,,,,,,,,,,,,,,,,,,,,,0,0,0,0,0
4.2783,1783957397.8032,1,1,3.0000,0.0000,1.42239,-0.01351,-2.63356,1.07643,1.57081,0.11674,-0.12759,-0.48161,0.03262,,,,,,,,,,,,,,,,,,,,,,,,,,0,0,0,0,0
4.3036,1783957397.8285,1,1,3.0000,0.0000,1.42239,-0.01353,-2.63359,1.07646,1.57081,0.11674,-0.12760,-0.48159,0.03261,,,,,,,,,,,,,,,,,,,,,,,,,,0,0,0,0,0
4.3039,1783957397.8288,1,1,3.0000,0.0000,1.42239,-0.01353,-2.63359,1.07646,1.57081,0.11674,-0.12760,-0.48159,0.03261,,,,,,,,,,,,,,,,,,,,,,,,,,0,0,0,0,0
4.3105,1783957397.8354,1,1,3.0000,0.0000,1.42239,-0.01354,-2.63360,1.07647,1.57081,0.11674,-0.12760,-0.48158,0.03260,,,,,,,,,,,,,,,,,,,,,,,,,,0,0,0,0,0
4.3108,1783957397.8357,1,1,3.0000,0.0000,1.42239,-0.01354,-2.63360,1.07647,1.57081,0.11674,-0.12760,-0.48158,0.03260,,,,,,,,,,,,,,,,,,,,,,,,,,0,0,0,0,0
4.4135,1783957397.9384,1,1,3.0000,0.0000,1.42239,-0.01403,-2.63381,1.07705,1.57081,0.11674,-0.12761,-0.48150,0.03238,,,,,,,,,,,,,,,,,,,,,,,,,,0,0,0,0,0
4.4139,1783957397.9388,1,1,3.0000,0.0000,1.42239,-0.01403,-2.63381,1.07705,1.57081,0.11674,-0.12761,-0.48150,0.03238,,,,,,,,,,,,,,,,,,,,,,,,,,0,0,0,0,0
4.4146,1783957397.9395,1,1,3.0000,0.0000,1.42239,-0.01408,-2.63383,1.07712,1.57081,0.11674,-0.12761,-0.48150,0.03236,,,,,,,,,,,,,,,,,,,,,,,,,,0,0,0,0,0
4.4155,1783957397.9404,1,1,3.0000,0.0000,1.42239,-0.01408,-2.63383,1.07712,1.57081,0.11674,-0.12761,-0.48150,0.03236,,,,,,,,,,,,,,,,,,,,,,,,,,0,0,0,0,0
4.4158,1783957397.9407,1,1,3.0000,0.0000,1.42239,-0.01408,-2.63383,1.07712,1.57081,0.11674,-0.12761,-0.48150,0.03236,,,,,,,,,,,,,,,,,,,,,,,,,,0,0,0,0,0
4.4161,1783957397.9410,1,1,3.0000,0.0000,1.42239,-0.01408,-2.63383,1.07712,1.57081,0.11674,-0.12761,-0.48150,0.03236,,,,,,,,,,,,,,,,,,,,,,,,,,0,0,0,0,0
4.4163,1783957397.9412,1,1,3.0000,0.0000,1.42239,-0.01408,-2.63383,1.07712,1.57081,0.11674,-0.12761,-0.48150,0.03236,,,,,,,,,,,,,,,,,,,,,,,,,,0,0,0,0,0
4.4166,1783957397.9415,1,1,3.0000,0.0000,1.42239,-0.01408,-2.63383,1.07712,1.57081,0.11674,-0.12761,-0.48150,0.03236,,,,,,,,,,,,,,,,,,,,,,,,,,0,0,0,0,0
4.4169,1783957397.9418,1,1,3.0000,0.0000,1.42239,-0.01408,-2.63383,1.07712,1.57081,0.11674,-0.12761,-0.48150,0.03236,,,,,,,,,,,,,,,,,,,,,,,,,,0,0,0,0,0
4.4172,1783957397.9421,1,1,3.0000,0.0000,1.42239,-0.01408,-2.63383,1.07712,1.57081,0.11674,-0.12761,-0.48150,0.03236,,,,,,,,,,,,,,,,,,,,,,,,,,0,0,0,0,0
4.4225,1783957397.9474,1,1,3.0000,0.0000,1.42239,-0.01414,-2.63384,1.07719,1.57081,0.11674,-0.12761,-0.48150,0.03234,,,,,,,,,,,,,,,,,,,,,,,,,,0,0,0,0,0
4.4316,1783957397.9565,1,1,3.0000,0.0000,1.42239,-0.01416,-2.63384,1.07722,1.57081,0.11674,-0.12761,-0.48150,0.03234,,,,,,,,,,,,,,,,,,,,,,,,,,0,0,0,0,0
4.4445,1783957397.9693,1,1,3.0000,0.0000,1.42239,-0.01426,-2.63386,1.07733,1.57081,0.11674,-0.12761,-0.48150,0.03231,,,,,,,,,,,,,,,,,,,,,,,,,,0,0,0,0,0
4.4556,1783957397.9805,1,1,3.0000,0.0000,1.42239,-0.01440,-2.63389,1.07750,1.57081,0.11674,-0.12761,-0.48150,0.03226,,,,,,,,,,,,,,,,,,,,,,,,,,0,0,0,0,0
4.4620,1783957397.9869,1,1,3.0000,0.0000,1.42239,-0.01440,-2.63389,1.07750,1.57081,0.11674,-0.12761,-0.48150,0.03226,,,,,,,,,,,,,,,,,,,,,,,,,,0,0,0,0,0
4.5736,1783957398.0985,1,1,3.0000,0.0000,1.42238,-0.01472,-2.63384,1.07790,1.57081,0.11674,-0.12759,-0.48159,0.03220,,,,,,,,,,,,,,,,,,,,,,,,,,0,0,0,0,0
4.5784,1783957398.1033,1,1,3.0000,0.0000,1.42238,-0.01473,-2.63385,1.07791,1.57081,0.11674,-0.12759,-0.48158,0.03220,,,,,,,,,,,,,,,,,,,,,,,,,,0,0,0,0,0
4.5788,1783957398.1037,1,1,3.0000,0.0000,1.42238,-0.01473,-2.63385,1.07791,1.57081,0.11674,-0.12759,-0.48158,0.03220,,,,,,,,,,,,,,,,,,,,,,,,,,0,0,0,0,0
4.5790,1783957398.1039,1,1,3.0000,0.0000,1.42238,-0.01473,-2.63385,1.07791,1.57081,0.11674,-0.12759,-0.48158,0.03220,,,,,,,,,,,,,,,,,,,,,,,,,,0,0,0,0,0
4.5793,1783957398.1042,1,1,3.0000,0.0000,1.42238,-0.01473,-2.63385,1.07791,1.57081,0.11674,-0.12759,-0.48158,0.03220,,,,,,,,,,,,,,,,,,,,,,,,,,0,0,0,0,0
4.5797,1783957398.1046,1,1,3.0000,0.0000,1.42238,-0.01473,-2.63385,1.07791,1.57081,0.11674,-0.12759,-0.48158,0.03220,,,,,,,,,,,,,,,,,,,,,,,,,,0,0,0,0,0
4.5801,1783957398.1050,1,1,3.0000,0.0000,1.42238,-0.01473,-2.63385,1.07791,1.57081,0.11674,-0.12759,-0.48158,0.03220,,,,,,,,,,,,,,,,,,,,,,,,,,0,0,0,0,0
4.5806,1783957398.1055,1,1,3.0000,0.0000,1.42238,-0.01473,-2.63385,1.07791,1.57081,0.11674,-0.12759,-0.48158,0.03220,,,,,,,,,,,,,,,,,,,,,,,,,,0,0,0,0,0
4.5864,1783957398.1113,1,1,3.0000,0.0000,1.42238,-0.01476,-2.63388,1.07795,1.57081,0.11674,-0.12760,-0.48157,0.03218,,,,,,,,,,,,,,,,,,,,,,,,,,0,0,0,0,0
4.6065,1783957398.1314,1,1,3.0000,0.0000,1.42238,-0.01485,-2.63396,1.07805,1.57081,0.11674,-0.12760,-0.48152,0.03212,,,,,,,,,,,,,,,,,,,,,,,,,,0,0,0,0,0
4.6069,1783957398.1318,1,1,3.0000,0.0000,1.42238,-0.01485,-2.63396,1.07805,1.57081,0.11674,-0.12760,-0.48152,0.03212,,,,,,,,,,,,,,,,,,,,,,,,,,0,0,0,0,0
4.6154,1783957398.1403,1,1,3.0000,0.0000,1.42238,-0.01486,-2.63397,1.07807,1.57081,0.11674,-0.12760,-0.48152,0.03212,,,,,,,,,,,,,,,,,,,,,,,,,,0,0,0,0,0
4.6237,1783957398.1485,1,1,3.0000,0.0000,1.42238,-0.01489,-2.63398,1.07810,1.57081,0.11674,-0.12760,-0.48151,0.03210,,,,,,,,,,,,,,,,,,,,,,,,,,0,0,0,0,0
4.6335,1783957398.1583,1,1,3.0000,0.0000,1.42238,-0.01493,-2.63400,1.07815,1.57081,0.11674,-0.12761,-0.48150,0.03208,,,,,,,,,,,,,,,,,,,,,,,,,,0,0,0,0,0
4.6433,1783957398.1682,1,1,3.0000,0.0000,1.42238,-0.01496,-2.63401,1.07819,1.57081,0.11674,-0.12761,-0.48150,0.03207,,,,,,,,,,,,,,,,,,,,,,,,,,0,0,0,0,0
4.6547,1783957398.1796,1,1,3.0000,0.0000,1.42238,-0.01502,-2.63403,1.07827,1.57081,0.11674,-0.12761,-0.48150,0.03205,,,,,,,,,,,,,,,,,,,,,,,,,,0,0,0,0,0
4.6553,1783957398.1802,1,1,3.0000,0.0000,1.42238,-0.01502,-2.63403,1.07827,1.57081,0.11674,-0.12761,-0.48150,0.03205,,,,,,,,,,,,,,,,,,,,,,,,,,0,0,0,0,0
4.6617,1783957398.1866,1,1,3.0000,0.0000,1.42238,-0.01506,-2.63404,1.07831,1.57081,0.11674,-0.12761,-0.48149,0.03204,,,,,,,,,,,,,,,,,,,,,,,,,,0,0,0,0,0
4.6704,1783957398.1953,1,1,3.0000,0.0000,1.42238,-0.01509,-2.63405,1.07834,1.57081,0.11674,-0.12761,-0.48149,0.03203,,,,,,,,,,,,,,,,,,,,,,,,,,0,0,0,0,0
4.6708,1783957398.1957,1,1,3.0000,0.0000,1.42238,-0.01509,-2.63405,1.07834,1.57081,0.11674,-0.12761,-0.48149,0.03203,,,,,,,,,,,,,,,,,,,,,,,,,,0,0,0,0,0
4.6816,1783957398.2065,1,1,3.0000,0.0000,1.42238,-0.01516,-2.63406,1.07843,1.57081,0.11674,-0.12761,-0.48149,0.03200,,,,,,,,,,,,,,,,,,,,,,,,,,0,0,0,0,0
4.6920,1783957398.2169,1,1,3.0000,0.0000,1.42238,-0.01532,-2.63409,1.07862,1.57082,0.11674,-0.12761,-0.48149,0.03195,,,,,,,,,,,,,,,,,,,,,,,,,,0,0,0,0,0
4.7071,1783957398.2320,1,1,3.0000,0.0000,1.42238,-0.01537,-2.63410,1.07868,1.57082,0.11674,-0.12761,-0.48150,0.03193,,,,,,,,,,,,,,,,,,,,,,,,,,0,0,0,0,0
4.7074,1783957398.2323,1,1,3.0000,0.0000,1.42238,-0.01537,-2.63410,1.07868,1.57082,0.11674,-0.12761,-0.48150,0.03193,,,,,,,,,,,,,,,,,,,,,,,,,,0,0,0,0,0
4.7106,1783957398.2355,1,1,3.0000,0.0000,1.42238,-0.01540,-2.63411,1.07872,1.57082,0.11674,-0.12761,-0.48150,0.03192,,,,,,,,,,,,,,,,,,,,,,,,,,0,0,0,0,0
4.7112,1783957398.2360,1,1,3.0000,0.0000,1.42238,-0.01540,-2.63411,1.07872,1.57082,0.11674,-0.12761,-0.48150,0.03192,,,,,,,,,,,,,,,,,,,,,,,,,,0,0,0,0,0
4.7406,1783957398.2655,1,1,3.0000,0.0000,1.42238,-0.01555,-2.63413,1.07890,1.57082,0.11674,-0.12760,-0.48151,0.03188,,,,,,,,,,,,,,,,,,,,,,,,,,0,0,0,0,0
4.7411,1783957398.2660,1,1,3.0000,0.0000,1.42238,-0.01555,-2.63413,1.07890,1.57082,0.11674,-0.12760,-0.48151,0.03188,,,,,,,,,,,,,,,,,,,,,,,,,,0,0,0,0,0
4.7417,1783957398.2666,1,1,3.0000,0.0000,1.42238,-0.01555,-2.63413,1.07890,1.57082,0.11674,-0.12760,-0.48151,0.03188,,,,,,,,,,,,,,,,,,,,,,,,,,0,0,0,0,0
4.7517,1783957398.2766,1,1,3.0000,0.0000,1.42238,-0.01566,-2.63413,1.07904,1.57082,0.11674,-0.12760,-0.48152,0.03185,,,,,,,,,,,,,,,,,,,,,,,,,,0,0,0,0,0
4.7638,1783957398.2887,1,1,3.0000,0.0000,1.42238,-0.01577,-2.63413,1.07918,1.57082,0.11674,-0.12760,-0.48154,0.03183,,,,,,,,,,,,,,,,,,,,,,,,,,0,0,0,0,0
4.7641,1783957398.2890,1,1,3.0000,0.0000,1.42238,-0.01577,-2.63413,1.07918,1.57082,0.11674,-0.12760,-0.48154,0.03183,,,,,,,,,,,,,,,,,,,,,,,,,,0,0,0,0,0
4.8063,1783957398.3312,1,1,3.0000,0.0000,1.42238,-0.01589,-2.63408,1.07933,1.57082,0.11674,-0.12759,-0.48159,0.03182,,,,,,,,,,,,,,,,,,,,,,,,,,0,0,0,0,0
4.9323,1783957398.4572,1,1,3.0000,0.0000,1.42238,-0.01630,-2.63430,1.07982,1.57082,0.11674,-0.12760,-0.48150,0.03162,,,,,,,,,,,,,,,,,,,,,,,,,,0,0,0,0,0
4.9328,1783957398.4577,1,1,3.0000,0.0000,1.42238,-0.01630,-2.63430,1.07982,1.57082,0.11674,-0.12760,-0.48150,0.03162,,,,,,,,,,,,,,,,,,,,,,,,,,0,0,0,0,0
4.9333,1783957398.4582,1,1,3.0000,0.0000,1.42238,-0.01630,-2.63430,1.07982,1.57082,0.11674,-0.12760,-0.48150,0.03162,,,,,,,,,,,,,,,,,,,,,,,,,,0,0,0,0,0
4.9338,1783957398.4587,1,1,3.0000,0.0000,1.42238,-0.01630,-2.63430,1.07982,1.57082,0.11674,-0.12760,-0.48150,0.03162,,,,,,,,,,,,,,,,,,,,,,,,,,0,0,0,0,0
4.9346,1783957398.4595,1,1,3.0000,0.0000,1.42238,-0.01630,-2.63430,1.07982,1.57082,0.11674,-0.12760,-0.48150,0.03162,,,,,,,,,,,,,,,,,,,,,,,,,,0,0,0,0,0
4.9350,1783957398.4599,1,1,3.0000,0.0000,1.42238,-0.01630,-2.63430,1.07982,1.57082,0.11674,-0.12760,-0.48150,0.03162,,,,,,,,,,,,,,,,,,,,,,,,,,0,0,0,0,0
4.9353,1783957398.4602,1,1,3.0000,0.0000,1.42238,-0.01630,-2.63430,1.07982,1.57082,0.11674,-0.12760,-0.48150,0.03162,,,,,,,,,,,,,,,,,,,,,,,,,,0,0,0,0,0
4.9356,1783957398.4605,1,1,3.0000,0.0000,1.42238,-0.01630,-2.63430,1.07982,1.57082,0.11674,-0.12760,-0.48150,0.03162,,,,,,,,,,,,,,,,,,,,,,,,,,0,0,0,0,0
4.9359,1783957398.4608,1,1,3.0000,0.0266,1.42238,-0.01630,-2.63430,1.07982,1.57082,0.11674,-0.12760,-0.48150,0.03162,,,,,,,,,,,,,,,,,,,,,,,,,,0,0,0,0,0
4.9362,1783957398.4611,1,1,3.0000,0.5602,1.42238,-0.01630,-2.63430,1.07982,1.57082,0.11674,-0.12760,-0.48150,0.03162,,,,,,,,,,,,,,,,,,,,,,,,,,0,0,0,0,0
4.9365,1783957398.4614,1,1,3.0000,1.3247,1.42238,-0.01630,-2.63430,1.07982,1.57082,0.11674,-0.12760,-0.48150,0.03162,,,,,,,,,,,,,,,,,,,,,,,,,,0,0,0,0,0
4.9368,1783957398.4616,1,1,3.0000,1.9203,1.42238,-0.01630,-2.63430,1.07982,1.57082,0.11674,-0.12760,-0.48150,0.03162,,,,,,,,,,,,,,,,,,,,,,,,,,0,0,0,0,0
4.9370,1783957398.4619,1,1,3.0000,2.0599,1.42238,-0.01630,-2.63430,1.07982,1.57082,0.11674,-0.12760,-0.48150,0.03162,,,,,,,,,,,,,,,,,,,,,,,,,,0,0,0,0,0
5.0220,1783957398.5468,1,1,3.0000,0.6804,1.42238,-0.01683,-2.63438,1.08046,1.57082,0.11674,-0.12760,-0.48152,0.03146,,,,,,,,,,,,,,,,,,,,,,,,,,0,0,0,0,0
5.0399,1783957398.5648,1,1,3.0000,0.5067,1.42238,-0.01703,-2.63437,1.08070,1.57082,0.11674,-0.12759,-0.48156,0.03141,,,,,,,,,,,,,,,,,,,,,,,,,,0,0,0,0,0
5.0405,1783957398.5654,1,1,3.0000,0.6108,1.42238,-0.01703,-2.63437,1.08070,1.57082,0.11674,-0.12759,-0.48156,0.03141,,,,,,,,,,,,,,,,,,,,,,,,,,0,0,0,0,0
5.0567,1783957398.5816,1,1,3.0000,0.8939,1.42238,-0.01709,-2.63434,1.08077,1.57082,0.11674,-0.12759,-0.48159,0.03141,,,,,,,,,,,,,,,,,,,,,,,,,,0,0,0,0,0
5.1192,1783957398.6441,1,1,3.0000,1.7612,1.42238,-0.01709,-2.63434,1.08077,1.57082,0.11674,-0.12759,-0.48159,0.03141,,,,,,,,,,,,,,,,,,,,,,,,,,0,0,0,0,0
5.1196,1783957398.6445,1,1,3.0000,1.5040,1.42238,-0.01709,-2.63434,1.08077,1.57082,0.11674,-0.12759,-0.48159,0.03141,,,,,,,,,,,,,,,,,,,,,,,,,,0,0,0,0,0
5.1201,1783957398.6450,1,1,3.0000,0.6240,1.42238,-0.01709,-2.63434,1.08077,1.57082,0.11674,-0.12759,-0.48159,0.03141,,,,,,,,,,,,,,,,,,,,,,,,,,0,0,0,0,0
5.1274,1783957398.6523,1,1,3.0000,0.7109,1.42238,-0.01709,-2.63434,1.08077,1.57082,0.11674,-0.12759,-0.48159,0.03141,,,,,,,,,,,,,,,,,,,,,,,,,,0,0,0,0,0
5.2339,1783957398.7588,1,1,3.0000,0.8593,1.42238,-0.01709,-2.63434,1.08077,1.57082,0.11674,-0.12759,-0.48159,0.03141,,,,,,,,,,,,,,,,,,,,,,,,,,0,0,0,0,0
5.2427,1783957398.7676,1,1,3.0000,1.2079,1.42238,-0.01709,-2.63434,1.08077,1.57082,0.11674,-0.12759,-0.48159,0.03141,,,,,,,,,,,,,,,,,,,,,,,,,,0,0,0,0,0
5.2430,1783957398.7679,1,1,3.0000,1.2356,1.42238,-0.01709,-2.63434,1.08077,1.57082,0.11674,-0.12759,-0.48159,0.03141,,,,,,,,,,,,,,,,,,,,,,,,,,0,0,0,0,0
5.2444,1783957398.7693,1,1,3.0000,1.3146,1.42238,-0.01709,-2.63434,1.08077,1.57082,0.11674,-0.12759,-0.48159,0.03141,,,,,,,,,,,,,,,,,,,,,,,,,,0,0,0,0,0
5.2447,1783957398.7696,1,1,3.0000,1.1611,1.42238,-0.01709,-2.63434,1.08077,1.57082,0.11674,-0.12759,-0.48159,0.03141,,,,,,,,,,,,,,,,,,,,,,,,,,0,0,0,0,0
5.2450,1783957398.7699,1,1,3.0000,0.7966,1.42238,-0.01709,-2.63434,1.08077,1.57082,0.11674,-0.12759,-0.48159,0.03141,,,,,,,,,,,,,,,,,,,,,,,,,,0,0,0,0,0
5.2453,1783957398.7702,1,1,3.0000,0.7590,1.42238,-0.01709,-2.63434,1.08077,1.57082,0.11674,-0.12759,-0.48159,0.03141,,,,,,,,,,,,,,,,,,,,,,,,,,0,0,0,0,0
5.2456,1783957398.7705,1,1,3.0000,1.0511,1.42238,-0.01709,-2.63434,1.08077,1.57082,0.11674,-0.12759,-0.48159,0.03141,,,,,,,,,,,,,,,,,,,,,,,,,,0,0,0,0,0
5.2472,1783957398.7721,1,1,3.0000,1.5221,1.42238,-0.01709,-2.63434,1.08077,1.57082,0.11674,-0.12759,-0.48159,0.03141,,,,,,,,,,,,,,,,,,,,,,,,,,0,0,0,0,0
5.2551,1783957398.7800,1,1,3.0000,1.5948,1.42238,-0.01709,-2.63434,1.08077,1.57082,0.11674,-0.12759,-0.48159,0.03141,,,,,,,,,,,,,,,,,,,,,,,,,,0,0,0,0,0
5.2555,1783957398.7804,1,1,3.0000,1.5657,1.42238,-0.01709,-2.63434,1.08077,1.57082,0.11674,-0.12759,-0.48159,0.03141,,,,,,,,,,,,,,,,,,,,,,,,,,0,0,0,0,0
5.2585,1783957398.7834,1,1,3.0000,1.2527,1.42238,-0.01709,-2.63434,1.08077,1.57082,0.11674,-0.12759,-0.48159,0.03141,,,,,,,,,,,,,,,,,,,,,,,,,,0,0,0,0,0
5.2589,1783957398.7838,1,1,3.0000,0.8861,1.42238,-0.01709,-2.63434,1.08077,1.57082,0.11674,-0.12759,-0.48159,0.03141,,,,,,,,,,,,,,,,,,,,,,,,,,0,0,0,0,0
5.2637,1783957398.7886,1,1,3.0000,0.6968,1.42238,-0.01709,-2.63434,1.08077,1.57082,0.11674,-0.12759,-0.48159,0.03141,,,,,,,,,,,,,,,,,,,,,,,,,,0,0,0,0,0
5.2746,1783957398.7995,1,1,3.0000,0.7704,1.42238,-0.01709,-2.63434,1.08077,1.57082,0.11674,-0.12759,-0.48159,0.03141,,,,,,,,,,,,,,,,,,,,,,,,,,0,0,0,0,0
5.2825,1783957398.8074,1,1,3.0000,0.8217,1.42238,-0.01709,-2.63434,1.08077,1.57082,0.11674,-0.12759,-0.48159,0.03141,,,,,,,,,,,,,,,,,,,,,,,,,,0,0,0,0,0
5.2826,1783957398.8075,1,1,3.0000,0.8852,1.42238,-0.01709,-2.63434,1.08077,1.57082,0.11674,-0.12759,-0.48159,0.03141,,,,,,,,,,,,,,,,,,,,,,,,,,0,0,0,0,0
5.2932,1783957398.8181,1,1,3.0000,0.9492,1.42238,-0.01709,-2.63434,1.08077,1.57082,0.11674,-0.12759,-0.48159,0.03141,,,,,,,,,,,,,,,,,,,,,,,,,,0,0,0,0,0
5.2935,1783957398.8184,1,1,3.0000,1.1626,1.42238,-0.01709,-2.63434,1.08077,1.57082,0.11674,-0.12759,-0.48159,0.03141,,,,,,,,,,,,,,,,,,,,,,,,,,0,0,0,0,0
5.3187,1783957398.8436,1,1,3.0000,1.3634,1.42238,-0.01709,-2.63434,1.08077,1.57082,0.11674,-0.12759,-0.48159,0.03141,,,,,,,,,,,,,,,,,,,,,,,,,,0,0,0,0,0
5.3369,1783957398.8618,1,1,3.0000,1.2935,1.42238,-0.01709,-2.63434,1.08077,1.57082,0.11674,-0.12759,-0.48159,0.03141,,,,,,,,,,,,,,,,,,,,,,,,,,0,0,0,0,0
5.3424,1783957398.8673,1,1,3.0000,1.1725,1.42238,-0.01709,-2.63434,1.08077,1.57082,0.11674,-0.12759,-0.48159,0.03141,,,,,,,,,,,,,,,,,,,,,,,,,,0,0,0,0,0
5.3686,1783957398.8935,1,1,3.0000,0.9793,1.42238,-0.01709,-2.63434,1.08077,1.57082,0.11674,-0.12759,-0.48159,0.03141,,,,,,,,,,,,,,,,,,,,,,,,,,0,0,0,0,0
5.3773,1783957398.9022,1,1,3.0000,0.9736,1.42238,-0.01709,-2.63434,1.08077,1.57082,0.11674,-0.12759,-0.48159,0.03141,,,,,,,,,,,,,,,,,,,,,,,,,,0,0,0,0,0
5.3779,1783957398.9028,1,1,3.0000,0.9861,1.42238,-0.01709,-2.63434,1.08077,1.57082,0.11674,-0.12759,-0.48159,0.03141,,,,,,,,,,,,,,,,,,,,,,,,,,0,0,0,0,0
5.3790,1783957398.9039,1,1,3.0000,1.0579,1.42238,-0.01709,-2.63434,1.08077,1.57082,0.11674,-0.12759,-0.48159,0.03141,,,,,,,,,,,,,,,,,,,,,,,,,,0,0,0,0,0
5.3795,1783957398.9044,1,1,3.0000,1.4649,1.42238,-0.01709,-2.63434,1.08077,1.57082,0.11674,-0.12759,-0.48159,0.03141,,,,,,,,,,,,,,,,,,,,,,,,,,0,0,0,0,0
5.3830,1783957398.9079,1,1,3.0000,1.3665,1.42238,-0.01709,-2.63434,1.08077,1.57082,0.11674,-0.12759,-0.48159,0.03141,,,,,,,,,,,,,,,,,,,,,,,,,,0,0,0,0,0
5.3834,1783957398.9083,1,1,3.0000,1.3430,1.42238,-0.01709,-2.63434,1.08077,1.57082,0.11674,-0.12759,-0.48159,0.03141,,,,,,,,,,,,,,,,,,,,,,,,,,0,0,0,0,0
5.3911,1783957398.9160,1,1,3.0000,1.3114,1.42238,-0.01709,-2.63434,1.08077,1.57082,0.11674,-0.12759,-0.48159,0.03141,,,,,,,,,,,,,,,,,,,,,,,,,,0,0,0,0,0
5.3915,1783957398.9164,1,1,3.0000,1.1518,1.42238,-0.01709,-2.63434,1.08077,1.57082,0.11674,-0.12759,-0.48159,0.03141,,,,,,,,,,,,,,,,,,,,,,,,,,0,0,0,0,0
5.4005,1783957398.9254,1,1,3.0000,0.9324,1.42238,-0.01709,-2.63434,1.08077,1.57082,0.11674,-0.12759,-0.48159,0.03141,,,,,,,,,,,,,,,,,,,,,,,,,,0,0,0,0,0
5.4011,1783957398.9259,1,1,3.0000,0.8444,1.42238,-0.01709,-2.63434,1.08077,1.57082,0.11674,-0.12759,-0.48159,0.03141,,,,,,,,,,,,,,,,,,,,,,,,,,0,0,0,0,0
5.4129,1783957398.9378,1,1,3.0000,0.6892,1.42238,-0.01709,-2.63434,1.08077,1.57082,0.11674,-0.12759,-0.48159,0.03141,,,,,,,,,,,,,,,,,,,,,,,,,,0,0,0,0,0
5.4232,1783957398.9481,1,1,3.0000,0.6992,1.42238,-0.01709,-2.63434,1.08077,1.57082,0.11674,-0.12759,-0.48159,0.03141,,,,,,,,,,,,,,,,,,,,,,,,,,0,0,0,0,0
5.4235,1783957398.9484,1,1,3.0000,0.7606,1.42238,-0.01709,-2.63434,1.08077,1.57082,0.11674,-0.12759,-0.48159,0.03141,,,,,,,,,,,,,,,,,,,,,,,,,,0,0,0,0,0
5.4325,1783957398.9574,1,1,3.0000,0.8557,1.42238,-0.01709,-2.63434,1.08077,1.57082,0.11674,-0.12759,-0.48159,0.03141,,,,,,,,,,,,,,,,,,,,,,,,,,0,0,0,0,0
5.4445,1783957398.9694,1,1,3.0000,0.9705,1.42238,-0.01709,-2.63434,1.08077,1.57082,0.11674,-0.12759,-0.48159,0.03141,,,,,,,,,,,,,,,,,,,,,,,,,,0,0,0,0,0
5.4449,1783957398.9698,1,1,3.0000,1.1000,1.42238,-0.01709,-2.63434,1.08077,1.57082,0.11674,-0.12759,-0.48159,0.03141,,,,,,,,,,,,,,,,,,,,,,,,,,0,0,0,0,0
5.4551,1783957398.9799,1,1,3.0000,1.2628,1.42238,-0.01709,-2.63434,1.08077,1.57082,0.11674,-0.12759,-0.48159,0.03141,,,,,,,,,,,,,,,,,,,,,,,,,,0,0,0,0,0
5.5627,1783957399.0876,1,1,3.0000,1.2116,1.42238,-0.01708,-2.63443,1.08078,1.57082,0.11674,-0.12760,-0.48153,0.03138,,,,,,,,,,,,,,,,,,,,,,,,,,0,0,0,0,0
5.5741,1783957399.0990,1,1,3.0000,1.1588,1.42238,-0.01708,-2.63443,1.08078,1.57082,0.11674,-0.12760,-0.48153,0.03138,,,,,,,,,,,,,,,,,,,,,,,,,,0,0,0,0,0
5.5762,1783957399.1011,1,1,3.0000,1.1388,1.42238,-0.01708,-2.63443,1.08078,1.57082,0.11674,-0.12760,-0.48153,0.03138,,,,,,,,,,,,,,,,,,,,,,,,,,0,0,0,0,0
5.5767,1783957399.1016,1,1,3.0000,1.0214,1.42238,-0.01708,-2.63443,1.08078,1.57082,0.11674,-0.12760,-0.48153,0.03138,,,,,,,,,,,,,,,,,,,,,,,,,,0,0,0,0,0
5.5845,1783957399.1094,1,1,3.0000,1.0566,1.42238,-0.01708,-2.63443,1.08078,1.57082,0.11674,-0.12760,-0.48153,0.03138,,,,,,,,,,,,,,,,,,,,,,,,,,0,0,0,0,0
5.5886,1783957399.1135,1,1,3.0000,1.1635,1.42238,-0.01708,-2.63443,1.08078,1.57082,0.11674,-0.12760,-0.48153,0.03138,,,,,,,,,,,,,,,,,,,,,,,,,,0,0,0,0,0
5.5893,1783957399.1142,1,1,3.0000,0.8163,1.42238,-0.01708,-2.63443,1.08078,1.57082,0.11674,-0.12760,-0.48153,0.03138,,,,,,,,,,,,,,,,,,,,,,,,,,0,0,0,0,0
5.5895,1783957399.1144,1,1,3.0000,0.7233,1.42238,-0.01708,-2.63443,1.08078,1.57082,0.11674,-0.12760,-0.48153,0.03138,,,,,,,,,,,,,,,,,,,,,,,,,,0,0,0,0,0
5.5914,1783957399.1162,1,1,3.0000,0.7512,1.42238,-0.01708,-2.63443,1.08078,1.57082,0.11674,-0.12760,-0.48153,0.03138,,,,,,,,,,,,,,,,,,,,,,,,,,0,0,0,0,0
5.5917,1783957399.1166,1,1,3.0000,0.7714,1.42238,-0.01708,-2.63443,1.08078,1.57082,0.11674,-0.12760,-0.48153,0.03138,,,,,,,,,,,,,,,,,,,,,,,,,,0,0,0,0,0
5.7317,1783957399.2566,1,1,3.0000,0.8783,1.42238,-0.01708,-2.63443,1.08078,1.57082,0.11674,-0.12760,-0.48153,0.03138,,,,,,,,,,,,,,,,,,,,,,,,,,0,0,0,0,0
5.7330,1783957399.2579,1,1,3.0000,0.9718,1.42238,-0.01708,-2.63443,1.08078,1.57082,0.11674,-0.12760,-0.48153,0.03138,,,,,,,,,,,,,,,,,,,,,,,,,,0,0,0,0,0
5.7334,1783957399.2583,1,1,3.0000,1.2464,1.42238,-0.01708,-2.63443,1.08078,1.57082,0.11674,-0.12760,-0.48153,0.03138,,,,,,,,,,,,,,,,,,,,,,,,,,0,0,0,0,0
5.7337,1783957399.2586,1,1,3.0000,1.2347,1.42238,-0.01708,-2.63443,1.08078,1.57082,0.11674,-0.12760,-0.48153,0.03138,,,,,,,,,,,,,,,,,,,,,,,,,,0,0,0,0,0
5.7341,1783957399.2590,1,1,3.0000,1.1624,1.42238,-0.01708,-2.63443,1.08078,1.57082,0.11674,-0.12760,-0.48153,0.03138,,,,,,,,,,,,,,,,,,,,,,,,,,0,0,0,0,0
5.7348,1783957399.2597,1,1,3.0000,1.1100,1.42238,-0.01708,-2.63443,1.08078,1.57082,0.11674,-0.12760,-0.48153,0.03138,,,,,,,,,,,,,,,,,,,,,,,,,,0,0,0,0,0
5.7351,1783957399.2600,1,1,3.0000,0.9884,1.42238,-0.01708,-2.63443,1.08078,1.57082,0.11674,-0.12760,-0.48153,0.03138,,,,,,,,,,,,,,,,,,,,,,,,,,0,0,0,0,0
5.7385,1783957399.2634,1,1,3.0000,1.0023,1.42238,-0.01708,-2.63443,1.08078,1.57082,0.11674,-0.12760,-0.48153,0.03138,,,,,,,,,,,,,,,,,,,,,,,,,,0,0,0,0,0
5.7388,1783957399.2637,1,1,3.0000,1.0441,1.42238,-0.01708,-2.63443,1.08078,1.57082,0.11674,-0.12760,-0.48153,0.03138,,,,,,,,,,,,,,,,,,,,,,,,,,0,0,0,0,0
5.7392,1783957399.2641,1,1,3.0000,1.0419,1.42238,-0.01708,-2.63443,1.08078,1.57082,0.11674,-0.12760,-0.48153,0.03138,,,,,,,,,,,,,,,,,,,,,,,,,,0,0,0,0,0
5.7396,1783957399.2645,1,1,3.0000,0.9903,1.42238,-0.01708,-2.63443,1.08078,1.57082,0.11674,-0.12760,-0.48153,0.03138,,,,,,,,,,,,,,,,,,,,,,,,,,0,0,0,0,0
5.7409,1783957399.2658,1,1,3.0000,0.8756,1.42238,-0.01708,-2.63443,1.08078,1.57082,0.11674,-0.12760,-0.48153,0.03138,,,,,,,,,,,,,,,,,,,,,,,,,,0,0,0,0,0
5.7413,1783957399.2662,1,1,3.0000,0.8533,1.42238,-0.01708,-2.63443,1.08078,1.57082,0.11674,-0.12760,-0.48153,0.03138,,,,,,,,,,,,,,,,,,,,,,,,,,0,0,0,0,0
5.7437,1783957399.2686,1,1,3.0000,0.8293,1.42238,-0.01708,-2.63443,1.08078,1.57082,0.11674,-0.12760,-0.48153,0.03138,,,,,,,,,,,,,,,,,,,,,,,,,,0,0,0,0,0
5.7441,1783957399.2690,1,1,3.0000,0.9744,1.42238,-0.01708,-2.63443,1.08078,1.57082,0.11674,-0.12760,-0.48153,0.03138,,,,,,,,,,,,,,,,,,,,,,,,,,0,0,0,0,0
5.7445,1783957399.2694,1,1,3.0000,1.0797,1.42238,-0.01708,-2.63443,1.08078,1.57082,0.11674,-0.12760,-0.48153,0.03138,,,,,,,,,,,,,,,,,,,,,,,,,,0,0,0,0,0
5.7525,1783957399.2774,1,1,3.0000,1.2123,1.42238,-0.01708,-2.63443,1.08078,1.57082,0.11674,-0.12760,-0.48153,0.03138,,,,,,,,,,,,,,,,,,,,,,,,,,0,0,0,0,0
5.8328,1783957399.3577,1,1,3.0000,1.1540,1.42238,-0.01708,-2.63443,1.08078,1.57082,0.11674,-0.12760,-0.48153,0.03138,,,,,,,,,,,,,,,,,,,,,,,,,,0,0,0,0,0
5.8348,1783957399.3597,1,1,3.0000,1.1389,1.42238,-0.01708,-2.63443,1.08078,1.57082,0.11674,-0.12760,-0.48153,0.03138,,,,,,,,,,,,,,,,,,,,,,,,,,0,0,0,0,0
5.8351,1783957399.3600,1,1,3.0000,1.0944,1.42238,-0.01708,-2.63443,1.08078,1.57082,0.11674,-0.12760,-0.48153,0.03138,,,,,,,,,,,,,,,,,,,,,,,,,,0,0,0,0,0
5.8356,1783957399.3605,1,1,3.0000,0.9722,1.42238,-0.01708,-2.63443,1.08078,1.57082,0.11674,-0.12760,-0.48153,0.03138,,,,,,,,,,,,,,,,,,,,,,,,,,0,0,0,0,0
5.8360,1783957399.3609,1,1,3.0000,0.8335,1.42238,-0.01708,-2.63443,1.08078,1.57082,0.11674,-0.12760,-0.48153,0.03138,,,,,,,,,,,,,,,,,,,,,,,,,,0,0,0,0,0
5.8362,1783957399.3611,1,1,3.0000,0.8637,1.42238,-0.01708,-2.63443,1.08078,1.57082,0.11674,-0.12760,-0.48153,0.03138,,,,,,,,,,,,,,,,,,,,,,,,,,0,0,0,0,0
5.8366,1783957399.3615,1,1,3.0000,0.8955,1.42238,-0.01708,-2.63443,1.08078,1.57082,0.11674,-0.12760,-0.48153,0.03138,,,,,,,,,,,,,,,,,,,,,,,,,,0,0,0,0,0
5.8369,1783957399.3617,1,1,3.0000,0.9179,1.42238,-0.01708,-2.63443,1.08078,1.57082,0.11674,-0.12760,-0.48153,0.03138,,,,,,,,,,,,,,,,,,,,,,,,,,0,0,0,0,0
5.8372,1783957399.3621,1,1,3.0000,0.9225,1.42238,-0.01708,-2.63443,1.08078,1.57082,0.11674,-0.12760,-0.48153,0.03138,,,,,,,,,,,,,,,,,,,,,,,,,,0,0,0,0,0
5.8375,1783957399.3623,1,1,3.0000,0.9355,1.42238,-0.01708,-2.63443,1.08078,1.57082,0.11674,-0.12760,-0.48153,0.03138,,,,,,,,,,,,,,,,,,,,,,,,,,0,0,0,0,0
5.8466,1783957399.3715,1,1,3.0000,0.9067,1.42238,-0.01708,-2.63443,1.08078,1.57082,0.11674,-0.12760,-0.48153,0.03138,,,,,,,,,,,,,,,,,,,,,,,,,,0,0,0,0,0
5.8551,1783957399.3800,1,1,3.0000,0.8707,1.42238,-0.01708,-2.63443,1.08078,1.57082,0.11674,-0.12760,-0.48153,0.03138,,,,,,,,,,,,,,,,,,,,,,,,,,0,0,0,0,0
5.8676,1783957399.3925,1,1,3.0000,0.8709,1.42238,-0.01708,-2.63443,1.08078,1.57082,0.11674,-0.12760,-0.48153,0.03138,,,,,,,,,,,,,,,,,,,,,,,,,,0,0,0,0,0
5.8790,1783957399.4039,1,1,3.0000,0.9125,1.42238,-0.01708,-2.63443,1.08078,1.57082,0.11674,-0.12760,-0.48153,0.03138,,,,,,,,,,,,,,,,,,,,,,,,,,0,0,0,0,0
5.8889,1783957399.4138,1,1,3.0000,1.0493,1.42238,-0.01708,-2.63443,1.08078,1.57082,0.11674,-0.12760,-0.48153,0.03138,,,,,,,,,,,,,,,,,,,,,,,,,,0,0,0,0,0
5.8939,1783957399.4188,1,1,3.0000,1.0811,1.42238,-0.01708,-2.63443,1.08078,1.57082,0.11674,-0.12760,-0.48153,0.03138,,,,,,,,,,,,,,,,,,,,,,,,,,0,0,0,0,0
5.9082,1783957399.4331,1,1,3.0000,1.1031,1.42238,-0.01708,-2.63443,1.08078,1.57082,0.11674,-0.12760,-0.48153,0.03138,,,,,,,,,,,,,,,,,,,,,,,,,,0,0,0,0,0
5.9126,1783957399.4374,1,1,3.0000,1.0640,1.42238,-0.01708,-2.63443,1.08078,1.57082,0.11674,-0.12760,-0.48153,0.03138,,,,,,,,,,,,,,,,,,,,,,,,,,0,0,0,0,0
5.9210,1783957399.4459,1,1,3.0000,1.0473,1.42238,-0.01708,-2.63443,1.08078,1.57082,0.11674,-0.12760,-0.48153,0.03138,,,,,,,,,,,,,,,,,,,,,,,,,,0,0,0,0,0
5.9214,1783957399.4463,1,1,3.0000,0.9914,1.42238,-0.01708,-2.63443,1.08078,1.57082,0.11674,-0.12760,-0.48153,0.03138,,,,,,,,,,,,,,,,,,,,,,,,,,0,0,0,0,0
5.9335,1783957399.4584,1,1,3.0000,0.9566,1.42238,-0.01708,-2.63443,1.08078,1.57082,0.11674,-0.12760,-0.48153,0.03138,,,,,,,,,,,,,,,,,,,,,,,,,,0,0,0,0,0
5.9339,1783957399.4587,1,1,3.0000,0.8997,1.42238,-0.01708,-2.63443,1.08078,1.57082,0.11674,-0.12760,-0.48153,0.03138,,,,,,,,,,,,,,,,,,,,,,,,,,0,0,0,0,0
5.9438,1783957399.4687,1,1,3.0000,0.8094,1.42238,-0.01708,-2.63443,1.08078,1.57082,0.11674,-0.12760,-0.48153,0.03138,,,,,,,,,,,,,,,,,,,,,,,,,,0,0,0,0,0
5.9560,1783957399.4809,1,1,3.0000,0.8342,1.42238,-0.01708,-2.63443,1.08078,1.57082,0.11674,-0.12760,-0.48153,0.03138,,,,,,,,,,,,,,,,,,,,,,,,,,0,0,0,0,0
5.9614,1783957399.4863,1,1,3.0000,0.8700,1.42238,-0.01708,-2.63443,1.08078,1.57082,0.11674,-0.12760,-0.48153,0.03138,,,,,,,,,,,,,,,,,,,,,,,,,,0,0,0,0,0
5.9708,1783957399.4957,1,1,3.0000,0.9021,1.42238,-0.01709,-2.63443,1.08078,1.57082,0.11674,-0.12760,-0.48153,0.03138,,,,,,,,,,,,,,,,,,,,,,,,,,0,0,0,0,0
5.9829,1783957399.5078,1,1,3.0000,0.9456,1.42238,-0.01709,-2.63443,1.08078,1.57082,0.11674,-0.12760,-0.48153,0.03138,,,,,,,,,,,,,,,,,,,,,,,,,,0,0,0,0,0
5.9989,1783957399.5237,1,1,3.0000,0.9368,1.42238,-0.01710,-2.63443,1.08078,1.57082,0.11674,-0.12760,-0.48152,0.03137,,,,,,,,,,,,,,,,,,,,,,,,,,0,0,0,0,0
5.9993,1783957399.5242,1,1,3.0000,0.9353,1.42238,-0.01710,-2.63443,1.08078,1.57082,0.11674,-0.12760,-0.48152,0.03137,,,,,,,,,,,,,,,,,,,,,,,,,,0,0,0,0,0
6.0051,1783957399.5300,1,1,3.0000,0.9542,1.42238,-0.01710,-2.63443,1.08078,1.57082,0.11674,-0.12760,-0.48152,0.03137,,,,,,,,,,,,,,,,,,,,,,,,,,0,0,0,0,0
6.0120,1783957399.5369,1,1,3.0000,0.9576,1.42238,-0.01710,-2.63444,1.08078,1.57082,0.11674,-0.12760,-0.48152,0.03137,,,,,,,,,,,,,,,,,,,,,,,,,,0,0,0,0,0
6.0124,1783957399.5373,1,1,3.0000,0.9620,1.42238,-0.01710,-2.63444,1.08078,1.57082,0.11674,-0.12760,-0.48152,0.03137,,,,,,,,,,,,,,,,,,,,,,,,,,0,0,0,0,0
6.0273,1783957399.5522,1,1,3.0000,1.0031,1.42238,-0.01710,-2.63444,1.08078,1.57082,0.11674,-0.12760,-0.48152,0.03137,,,,,,,,,,,,,,,,,,,,,,,,,,0,0,0,0,0
6.0364,1783957399.5613,1,1,3.0000,1.0524,1.42238,-0.01710,-2.63444,1.08078,1.57082,0.11674,-0.12760,-0.48152,0.03137,,,,,,,,,,,,,,,,,,,,,,,,,,0,0,0,0,0
6.0407,1783957399.5656,1,1,3.0000,1.0581,1.42238,-0.01710,-2.63444,1.08078,1.57082,0.11674,-0.12760,-0.48152,0.03137,,,,,,,,,,,,,,,,,,,,,,,,,,0,0,0,0,0
6.0550,1783957399.5799,1,1,3.0000,1.0381,1.42238,-0.01710,-2.63444,1.08078,1.57082,0.11674,-0.12760,-0.48152,0.03137,,,,,,,,,,,,,,,,,,,,,,,,,,0,0,0,0,0
6.0620,1783957399.5869,1,1,3.0000,0.9718,1.42238,-0.01710,-2.63444,1.08078,1.57082,0.11674,-0.12760,-0.48152,0.03137,,,,,,,,,,,,,,,,,,,,,,,,,,0,0,0,0,0
6.0735,1783957399.5984,1,1,3.0000,0.8521,1.42238,-0.01710,-2.63444,1.08078,1.57082,0.11674,-0.12760,-0.48152,0.03137,,,,,,,,,,,,,,,,,,,,,,,,,,0,0,0,0,0
