Martins-Lucaas/twinforge/sensors/Data/20260713_125210__samples.csv
t_rel_s,t_unix,cycle,phase,setpoint_n,force_net_n,q1,q2,q3,q4,q5,q6,tcp_x,tcp_y,tcp_z,taxel_0,taxel_1,taxel_2,taxel_3,taxel_4,taxel_5,taxel_6,taxel_7,taxel_8,taxel_9,taxel_10,taxel_11,taxel_12,taxel_13,taxel_14,taxel_15,taxel_16,taxel_17,taxel_18,taxel_19,taxel_20,taxel_21,taxel_22,taxel_23,taxel_24,n_RA,n_SA,cn_mm,cn_ra,cn_sa
0.0021,1783957930.2350,0,-1,6.0000,0.0000,1.42244,0.00068,-2.63054,1.05909,1.57082,0.11673,-0.12763,-0.48152,0.03737,,,,,,,,,,,,,,,,,,,,,,,,,,0,0,0,0,0
0.0132,1783957930.2461,1,0,6.0000,0.0000,1.42244,0.00068,-2.63054,1.05909,1.57082,0.11673,-0.12763,-0.48152,0.03737,,,,,,,,,,,,,,,,,,,,,,,,,,0,0,0,0,0
0.0391,1783957930.2720,1,0,6.0000,0.0000,1.42244,0.00068,-2.63054,1.05909,1.57082,0.11673,-0.12763,-0.48152,0.03737,,,,,,,,,,,,,,,,,,,,,,,,,,0,0,0,0,0
0.0394,1783957930.2723,1,0,6.0000,0.0000,1.42244,0.00068,-2.63054,1.05909,1.57082,0.11673,-0.12763,-0.48152,0.03737,,,,,,,,,,,,,,,,,,,,,,,,,,0,0,0,0,0
0.0502,1783957930.2831,1,0,6.0000,0.0000,1.42244,0.00069,-2.63054,1.05909,1.57082,0.11673,-0.12763,-0.48152,0.03737,,,,,,,,,,,,,,,,,,,,,,,,,,0,0,0,0,0
0.0566,1783957930.2895,1,0,6.0000,0.0000,1.42244,0.00069,-2.63054,1.05908,1.57082,0.11674,-0.12763,-0.48152,0.03737,,,,,,,,,,,,,,,,,,,,,,,,,,0,0,0,0,0
0.0569,1783957930.2898,1,0,6.0000,0.0000,1.42244,0.00069,-2.63054,1.05908,1.57082,0.11674,-0.12763,-0.48152,0.03737,,,,,,,,,,,,,,,,,,,,,,,,,,0,0,0,0,0
0.0732,1783957930.3061,1,0,6.0000,0.0000,1.42244,0.00070,-2.63053,1.05907,1.57081,0.11675,-0.12763,-0.48152,0.03738,,,,,,,,,,,,,,,,,,,,,,,,,,0,0,0,0,0
0.0758,1783957930.3088,1,0,6.0000,0.0000,1.42244,0.00070,-2.63053,1.05907,1.57081,0.11675,-0.12763,-0.48152,0.03738,,,,,,,,,,,,,,,,,,,,,,,,,,0,0,0,0,0
0.0857,1783957930.3186,1,0,6.0000,0.0000,1.42244,0.00071,-2.63053,1.05907,1.57080,0.11675,-0.12763,-0.48152,0.03738,,,,,,,,,,,,,,,,,,,,,,,,,,0,0,0,0,0
0.1026,1783957930.3356,1,0,6.0000,0.0000,1.42244,0.00071,-2.63053,1.05907,1.57080,0.11675,-0.12763,-0.48152,0.03738,,,,,,,,,,,,,,,,,,,,,,,,,,0,0,0,0,0
0.1080,1783957930.3409,1,0,6.0000,0.0000,1.42244,0.00071,-2.63053,1.05907,1.57080,0.11675,-0.12763,-0.48152,0.03738,,,,,,,,,,,,,,,,,,,,,,,,,,0,0,0,0,0
0.1161,1783957930.3490,1,0,6.0000,0.0000,1.42244,0.00071,-2.63053,1.05907,1.57080,0.11675,-0.12763,-0.48152,0.03738,,,,,,,,,,,,,,,,,,,,,,,,,,0,0,0,0,0
0.1294,1783957930.3623,1,0,6.0000,0.0000,1.42244,0.00071,-2.63053,1.05907,1.57080,0.11675,-0.12763,-0.48152,0.03738,,,,,,,,,,,,,,,,,,,,,,,,,,0,0,0,0,0
0.1299,1783957930.3628,1,0,6.0000,0.0000,1.42244,0.00071,-2.63053,1.05907,1.57080,0.11675,-0.12763,-0.48152,0.03738,,,,,,,,,,,,,,,,,,,,,,,,,,0,0,0,0,0
0.1368,1783957930.3697,1,0,6.0000,0.0000,1.42244,0.00071,-2.63053,1.05907,1.57080,0.11675,-0.12763,-0.48152,0.03738,,,,,,,,,,,,,,,,,,,,,,,,,,0,0,0,0,0
0.1458,1783957930.3787,1,0,6.0000,0.0000,1.42244,0.00071,-2.63053,1.05907,1.57080,0.11675,-0.12763,-0.48152,0.03738,,,,,,,,,,,,,,,,,,,,,,,,,,0,0,0,0,0
0.1461,1783957930.3790,1,0,6.0000,0.0000,1.42244,0.00071,-2.63053,1.05907,1.57080,0.11675,-0.12763,-0.48152,0.03738,,,,,,,,,,,,,,,,,,,,,,,,,,0,0,0,0,0
0.1608,1783957930.3937,1,0,6.0000,0.0000,1.42244,0.00071,-2.63053,1.05907,1.57080,0.11675,-0.12763,-0.48152,0.03738,,,,,,,,,,,,,,,,,,,,,,,,,,0,0,0,0,0
0.1789,1783957930.4118,1,0,6.0000,0.0000,1.42244,0.00071,-2.63053,1.05907,1.57080,0.11675,-0.12763,-0.48152,0.03738,,,,,,,,,,,,,,,,,,,,,,,,,,0,0,0,0,0
0.1791,1783957930.4120,1,0,6.0000,0.0000,1.42244,0.00071,-2.63053,1.05907,1.57080,0.11675,-0.12763,-0.48152,0.03738,,,,,,,,,,,,,,,,,,,,,,,,,,0,0,0,0,0
0.1794,1783957930.4124,1,0,6.0000,0.0000,1.42244,0.00071,-2.63053,1.05907,1.57080,0.11675,-0.12763,-0.48152,0.03738,,,,,,,,,,,,,,,,,,,,,,,,,,0,0,0,0,0
0.1858,1783957930.4187,1,0,6.0000,0.0000,1.42244,0.00071,-2.63053,1.05907,1.57080,0.11675,-0.12763,-0.48152,0.03738,,,,,,,,,,,,,,,,,,,,,,,,,,0,0,0,0,0
0.1985,1783957930.4314,1,0,6.0000,0.0000,1.42244,0.00071,-2.63053,1.05907,1.57080,0.11675,-0.12763,-0.48152,0.03738,,,,,,,,,,,,,,,,,,,,,,,,,,0,0,0,0,0
0.1988,1783957930.4317,1,0,6.0000,0.0000,1.42244,0.00071,-2.63053,1.05907,1.57080,0.11675,-0.12763,-0.48152,0.03738,,,,,,,,,,,,,,,,,,,,,,,,,,0,0,0,0,0
0.2057,1783957930.4386,1,0,6.0000,0.0000,1.42244,0.00071,-2.63053,1.05907,1.57080,0.11675,-0.12763,-0.48152,0.03738,,,,,,,,,,,,,,,,,,,,,,,,,,0,0,0,0,0
0.2208,1783957930.4537,1,0,6.0000,0.0000,1.42244,0.00071,-2.63053,1.05907,1.57080,0.11675,-0.12763,-0.48152,0.03738,,,,,,,,,,,,,,,,,,,,,,,,,,0,0,0,0,0
0.2337,1783957930.4666,1,0,6.0000,0.0000,1.42244,0.00071,-2.63053,1.05907,1.57080,0.11675,-0.12763,-0.48152,0.03738,,,,,,,,,,,,,,,,,,,,,,,,,,0,0,0,0,0
0.2360,1783957930.4690,1,0,6.0000,0.0000,1.42244,0.00071,-2.63053,1.05907,1.57080,0.11675,-0.12763,-0.48152,0.03738,,,,,,,,,,,,,,,,,,,,,,,,,,0,0,0,0,0
0.2368,1783957930.4697,1,0,6.0000,0.0000,1.42244,0.00071,-2.63053,1.05907,1.57080,0.11675,-0.12763,-0.48152,0.03738,,,,,,,,,,,,,,,,,,,,,,,,,,0,0,0,0,0
0.2478,1783957930.4807,1,0,6.0000,0.0000,1.42244,0.00071,-2.63053,1.05907,1.57080,0.11675,-0.12763,-0.48152,0.03738,,,,,,,,,,,,,,,,,,,,,,,,,,0,0,0,0,0
0.2741,1783957930.5071,1,0,6.0000,0.0000,1.42244,0.00071,-2.63053,1.05907,1.57080,0.11675,-0.12763,-0.48152,0.03738,,,,,,,,,,,,,,,,,,,,,,,,,,0,0,0,0,0
0.2745,1783957930.5074,1,0,6.0000,0.0000,1.42244,0.00071,-2.63053,1.05907,1.57080,0.11675,-0.12763,-0.48152,0.03738,,,,,,,,,,,,,,,,,,,,,,,,,,0,0,0,0,0
0.2747,1783957930.5076,1,0,6.0000,0.0000,1.42244,0.00071,-2.63053,1.05907,1.57080,0.11675,-0.12763,-0.48152,0.03738,,,,,,,,,,,,,,,,,,,,,,,,,,0,0,0,0,0
0.2893,1783957930.5222,1,0,6.0000,0.0000,1.42244,0.00071,-2.63053,1.05907,1.57080,0.11675,-0.12763,-0.48152,0.03738,,,,,,,,,,,,,,,,,,,,,,,,,,0,0,0,0,0
0.2898,1783957930.5227,1,0,6.0000,0.0000,1.42244,0.00071,-2.63053,1.05907,1.57080,0.11675,-0.12763,-0.48152,0.03738,,,,,,,,,,,,,,,,,,,,,,,,,,0,0,0,0,0
0.2966,1783957930.5296,1,0,6.0000,0.0000,1.42244,0.00071,-2.63053,1.05907,1.57080,0.11675,-0.12763,-0.48152,0.03738,,,,,,,,,,,,,,,,,,,,,,,,,,0,0,0,0,0
0.2970,1783957930.5299,1,0,6.0000,0.0000,1.42244,0.00071,-2.63053,1.05907,1.57080,0.11675,-0.12763,-0.48152,0.03738,,,,,,,,,,,,,,,,,,,,,,,,,,0,0,0,0,0
0.3076,1783957930.5405,1,0,6.0000,0.0000,1.42244,0.00071,-2.63053,1.05907,1.57080,0.11675,-0.12763,-0.48152,0.03738,,,,,,,,,,,,,,,,,,,,,,,,,,0,0,0,0,0
0.3257,1783957930.5586,1,0,6.0000,0.0000,1.42244,0.00071,-2.63053,1.05907,1.57080,0.11675,-0.12763,-0.48152,0.03738,,,,,,,,,,,,,,,,,,,,,,,,,,0,0,0,0,0
0.3370,1783957930.5699,1,0,6.0000,0.0000,1.42244,0.00071,-2.63053,1.05907,1.57080,0.11675,-0.12763,-0.48152,0.03738,,,,,,,,,,,,,,,,,,,,,,,,,,0,0,0,0,0
0.3373,1783957930.5702,1,0,6.0000,0.0000,1.42244,0.00071,-2.63053,1.05907,1.57080,0.11675,-0.12763,-0.48152,0.03738,,,,,,,,,,,,,,,,,,,,,,,,,,0,0,0,0,0
0.3376,1783957930.5706,1,0,6.0000,0.0000,1.42244,0.00071,-2.63053,1.05907,1.57080,0.11675,-0.12763,-0.48152,0.03738,,,,,,,,,,,,,,,,,,,,,,,,,,0,0,0,0,0
0.3999,1783957930.6329,1,0,6.0000,0.0000,1.42244,0.00071,-2.63053,1.05907,1.57080,0.11675,-0.12763,-0.48152,0.03738,,,,,,,,,,,,,,,,,,,,,,,,,,0,0,0,0,0
0.4007,1783957930.6336,1,0,6.0000,0.0000,1.42244,0.00071,-2.63053,1.05907,1.57080,0.11675,-0.12763,-0.48152,0.03738,,,,,,,,,,,,,,,,,,,,,,,,,,0,0,0,0,0
0.4009,1783957930.6338,1,0,6.0000,0.0000,1.42244,0.00071,-2.63053,1.05907,1.57080,0.11675,-0.12763,-0.48152,0.03738,,,,,,,,,,,,,,,,,,,,,,,,,,0,0,0,0,0
0.4055,1783957930.6384,1,0,6.0000,0.0000,1.42244,0.00071,-2.63053,1.05907,1.57080,0.11675,-0.12763,-0.48152,0.03738,,,,,,,,,,,,,,,,,,,,,,,,,,0,0,0,0,0
0.4057,1783957930.6387,1,0,6.0000,0.0000,1.42244,0.00071,-2.63053,1.05907,1.57080,0.11675,-0.12763,-0.48152,0.03738,,,,,,,,,,,,,,,,,,,,,,,,,,0,0,0,0,0
0.4235,1783957930.6564,1,0,6.0000,0.0000,1.42244,0.00071,-2.63053,1.05907,1.57080,0.11675,-0.12763,-0.48152,0.03738,,,,,,,,,,,,,,,,,,,,,,,,,,0,0,0,0,0
0.4238,1783957930.6568,1,0,6.0000,0.0000,1.42244,0.00071,-2.63053,1.05907,1.57080,0.11675,-0.12763,-0.48152,0.03738,,,,,,,,,,,,,,,,,,,,,,,,,,0,0,0,0,0
0.4269,1783957930.6598,1,0,6.0000,0.0000,1.42244,0.00071,-2.63053,1.05907,1.57080,0.11675,-0.12763,-0.48152,0.03738,,,,,,,,,,,,,,,,,,,,,,,,,,0,0,0,0,0
0.4272,1783957930.6602,1,0,6.0000,0.0000,1.42244,0.00071,-2.63053,1.05907,1.57080,0.11675,-0.12763,-0.48152,0.03738,,,,,,,,,,,,,,,,,,,,,,,,,,0,0,0,0,0
0.4407,1783957930.6736,1,0,6.0000,0.0000,1.42244,0.00071,-2.63053,1.05907,1.57080,0.11675,-0.12763,-0.48152,0.03738,,,,,,,,,,,,,,,,,,,,,,,,,,0,0,0,0,0
0.4488,1783957930.6817,1,0,6.0000,0.0000,1.42244,0.00071,-2.63053,1.05907,1.57080,0.11675,-0.12763,-0.48152,0.03738,,,,,,,,,,,,,,,,,,,,,,,,,,0,0,0,0,0
0.4580,1783957930.6909,1,0,6.0000,0.0000,1.42244,0.00071,-2.63053,1.05907,1.57080,0.11675,-0.12763,-0.48152,0.03738,,,,,,,,,,,,,,,,,,,,,,,,,,0,0,0,0,0
0.4582,1783957930.6911,1,0,6.0000,0.0000,1.42244,0.00071,-2.63053,1.05907,1.57080,0.11675,-0.12763,-0.48152,0.03738,,,,,,,,,,,,,,,,,,,,,,,,,,0,0,0,0,0
0.4676,1783957930.7005,1,0,6.0000,0.0000,1.42244,0.00071,-2.63053,1.05907,1.57080,0.11675,-0.12763,-0.48152,0.03738,,,,,,,,,,,,,,,,,,,,,,,,,,0,0,0,0,0
0.4679,1783957930.7008,1,0,6.0000,0.0000,1.42244,0.00071,-2.63053,1.05907,1.57080,0.11675,-0.12763,-0.48152,0.03738,,,,,,,,,,,,,,,,,,,,,,,,,,0,0,0,0,0
0.4897,1783957930.7226,1,0,6.0000,0.0000,1.42244,0.00071,-2.63053,1.05907,1.57080,0.11675,-0.12763,-0.48152,0.03738,,,,,,,,,,,,,,,,,,,,,,,,,,0,0,0,0,0
0.4900,1783957930.7229,1,0,6.0000,0.0000,1.42244,0.00071,-2.63053,1.05907,1.57080,0.11675,-0.12763,-0.48152,0.03738,,,,,,,,,,,,,,,,,,,,,,,,,,0,0,0,0,0
0.4910,1783957930.7239,1,0,6.0000,0.0000,1.42244,0.00071,-2.63053,1.05907,1.57080,0.11675,-0.12763,-0.48152,0.03738,,,,,,,,,,,,,,,,,,,,,,,,,,0,0,0,0,0
0.4913,1783957930.7242,1,0,6.0000,0.0000,1.42244,0.00071,-2.63053,1.05907,1.57080,0.11675,-0.12763,-0.48152,0.03738,,,,,,,,,,,,,,,,,,,,,,,,,,0,0,0,0,0
0.4956,1783957930.7285,1,0,6.0000,0.0000,1.42244,0.00071,-2.63053,1.05907,1.57080,0.11675,-0.12763,-0.48152,0.03738,,,,,,,,,,,,,,,,,,,,,,,,,,0,0,0,0,0
0.4959,1783957930.7288,1,0,6.0000,0.0000,1.42244,0.00071,-2.63053,1.05907,1.57080,0.11675,-0.12763,-0.48152,0.03738,,,,,,,,,,,,,,,,,,,,,,,,,,0,0,0,0,0
0.5053,1783957930.7382,1,0,6.0000,0.0000,1.42244,0.00071,-2.63053,1.05907,1.57080,0.11675,-0.12763,-0.48152,0.03738,,,,,,,,,,,,,,,,,,,,,,,,,,0,0,0,0,0
0.5056,1783957930.7385,1,0,6.0000,0.0000,1.42244,0.00071,-2.63053,1.05907,1.57080,0.11675,-0.12763,-0.48152,0.03738,,,,,,,,,,,,,,,,,,,,,,,,,,0,0,0,0,0
0.5157,1783957930.7486,1,0,6.0000,0.0000,1.42244,0.00071,-2.63053,1.05907,1.57080,0.11675,-0.12763,-0.48152,0.03738,,,,,,,,,,,,,,,,,,,,,,,,,,0,0,0,0,0
0.5276,1783957930.7605,1,0,6.0000,0.0000,1.42244,0.00071,-2.63053,1.05907,1.57080,0.11675,-0.12763,-0.48152,0.03738,,,,,,,,,,,,,,,,,,,,,,,,,,0,0,0,0,0
0.5389,1783957930.7718,1,0,6.0000,0.0000,1.42244,0.00071,-2.63053,1.05907,1.57080,0.11675,-0.12763,-0.48152,0.03738,,,,,,,,,,,,,,,,,,,,,,,,,,0,0,0,0,0
0.5487,1783957930.7816,1,0,6.0000,0.0000,1.42244,0.00071,-2.63053,1.05907,1.57080,0.11675,-0.12763,-0.48152,0.03738,,,,,,,,,,,,,,,,,,,,,,,,,,0,0,0,0,0
0.5617,1783957930.7946,1,0,6.0000,0.0000,1.42244,0.00071,-2.63053,1.05907,1.57080,0.11675,-0.12763,-0.48152,0.03738,,,,,,,,,,,,,,,,,,,,,,,,,,0,0,0,0,0
0.5754,1783957930.8083,1,0,6.0000,0.0000,1.42244,0.00071,-2.63053,1.05907,1.57080,0.11675,-0.12763,-0.48152,0.03738,,,,,,,,,,,,,,,,,,,,,,,,,,0,0,0,0,0
0.5840,1783957930.8170,1,0,6.0000,0.0000,1.42244,0.00071,-2.63053,1.05907,1.57080,0.11675,-0.12763,-0.48152,0.03738,,,,,,,,,,,,,,,,,,,,,,,,,,0,0,0,0,0
0.5847,1783957930.8176,1,0,6.0000,0.0000,1.42244,0.00071,-2.63053,1.05907,1.57080,0.11675,-0.12763,-0.48152,0.03738,,,,,,,,,,,,,,,,,,,,,,,,,,0,0,0,0,0
0.5957,1783957930.8286,1,0,6.0000,0.0000,1.42244,0.00071,-2.63053,1.05907,1.57080,0.11675,-0.12763,-0.48152,0.03738,,,,,,,,,,,,,,,,,,,,,,,,,,0,0,0,0,0
0.5972,1783957930.8301,1,0,6.0000,0.0000,1.42244,0.00071,-2.63053,1.05907,1.57080,0.11675,-0.12763,-0.48152,0.03738,,,,,,,,,,,,,,,,,,,,,,,,,,0,0,0,0,0
0.5976,1783957930.8305,1,0,6.0000,0.0000,1.42244,0.00071,-2.63053,1.05907,1.57080,0.11675,-0.12763,-0.48152,0.03738,,,,,,,,,,,,,,,,,,,,,,,,,,0,0,0,0,0
0.6097,1783957930.8426,1,0,6.0000,0.0000,1.42244,0.00071,-2.63053,1.05907,1.57080,0.11675,-0.12763,-0.48152,0.03738,,,,,,,,,,,,,,,,,,,,,,,,,,0,0,0,0,0
0.6317,1783957930.8646,1,0,6.0000,0.0000,1.42244,0.00071,-2.63053,1.05907,1.57080,0.11675,-0.12763,-0.48152,0.03738,,,,,,,,,,,,,,,,,,,,,,,,,,0,0,0,0,0
0.6402,1783957930.8731,1,0,6.0000,0.0000,1.42244,0.00071,-2.63053,1.05907,1.57080,0.11675,-0.12763,-0.48152,0.03738,,,,,,,,,,,,,,,,,,,,,,,,,,0,0,0,0,0
0.6408,1783957930.8737,1,0,6.0000,0.0000,1.42244,0.00071,-2.63053,1.05907,1.57080,0.11675,-0.12763,-0.48152,0.03738,,,,,,,,,,,,,,,,,,,,,,,,,,0,0,0,0,0
0.6476,1783957930.8805,1,0,6.0000,0.0000,1.42244,0.00071,-2.63053,1.05907,1.57080,0.11675,-0.12763,-0.48152,0.03738,,,,,,,,,,,,,,,,,,,,,,,,,,0,0,0,0,0
0.6578,1783957930.8907,1,0,6.0000,0.0000,1.42244,0.00071,-2.63053,1.05907,1.57080,0.11675,-0.12763,-0.48152,0.03738,,,,,,,,,,,,,,,,,,,,,,,,,,0,0,0,0,0
0.6583,1783957930.8912,1,0,6.0000,0.0000,1.42244,0.00071,-2.63053,1.05907,1.57080,0.11675,-0.12763,-0.48152,0.03738,,,,,,,,,,,,,,,,,,,,,,,,,,0,0,0,0,0
0.6656,1783957930.8985,1,0,6.0000,0.0000,1.42244,0.00071,-2.63053,1.05907,1.57080,0.11675,-0.12763,-0.48152,0.03738,,,,,,,,,,,,,,,,,,,,,,,,,,0,0,0,0,0
0.6659,1783957930.8988,1,0,6.0000,0.0000,1.42244,0.00071,-2.63053,1.05907,1.57080,0.11675,-0.12763,-0.48152,0.03738,,,,,,,,,,,,,,,,,,,,,,,,,,0,0,0,0,0
0.6872,1783957930.9201,1,0,6.0000,0.0000,1.42244,0.00071,-2.63053,1.05907,1.57080,0.11675,-0.12763,-0.48152,0.03738,,,,,,,,,,,,,,,,,,,,,,,,,,0,0,0,0,0
0.6908,1783957930.9237,1,0,6.0000,0.0000,1.42244,0.00071,-2.63053,1.05907,1.57080,0.11675,-0.12763,-0.48152,0.03738,,,,,,,,,,,,,,,,,,,,,,,,,,0,0,0,0,0
0.6968,1783957930.9297,1,0,6.0000,0.0000,1.42244,0.00071,-2.63053,1.05907,1.57080,0.11675,-0.12763,-0.48152,0.03738,,,,,,,,,,,,,,,,,,,,,,,,,,0,0,0,0,0
0.6971,1783957930.9300,1,0,6.0000,0.0000,1.42244,0.00071,-2.63053,1.05907,1.57080,0.11675,-0.12763,-0.48152,0.03738,,,,,,,,,,,,,,,,,,,,,,,,,,0,0,0,0,0
0.7062,1783957930.9391,1,0,6.0000,0.0000,1.42244,0.00071,-2.63053,1.05907,1.57080,0.11675,-0.12763,-0.48152,0.03738,,,,,,,,,,,,,,,,,,,,,,,,,,0,0,0,0,0
0.7066,1783957930.9395,1,0,6.0000,0.0000,1.42244,0.00071,-2.63053,1.05907,1.57080,0.11675,-0.12763,-0.48152,0.03738,,,,,,,,,,,,,,,,,,,,,,,,,,0,0,0,0,0
0.7186,1783957930.9515,1,0,6.0000,0.0000,1.42244,0.00071,-2.63053,1.05907,1.57080,0.11675,-0.12763,-0.48152,0.03738,,,,,,,,,,,,,,,,,,,,,,,,,,0,0,0,0,0
0.7189,1783957930.9518,1,0,6.0000,0.0000,1.42244,0.00071,-2.63053,1.05907,1.57080,0.11675,-0.12763,-0.48152,0.03738,,,,,,,,,,,,,,,,,,,,,,,,,,0,0,0,0,0
0.7300,1783957930.9629,1,1,6.0000,0.0000,1.42244,0.00071,-2.63053,1.05907,1.57080,0.11675,-0.12763,-0.48152,0.03738,,,,,,,,,,,,,,,,,,,,,,,,,,0,0,0,0,0
0.7305,1783957930.9634,1,1,6.0000,0.0000,1.42244,0.00071,-2.63053,1.05907,1.57080,0.11675,-0.12763,-0.48152,0.03738,,,,,,,,,,,,,,,,,,,,,,,,,,0,0,0,0,0
0.7360,1783957930.9689,1,1,6.0000,0.0000,1.42244,0.00071,-2.63053,1.05907,1.57080,0.11675,-0.12763,-0.48152,0.03738,,,,,,,,,,,,,,,,,,,,,,,,,,0,0,0,0,0
0.7369,1783957930.9698,1,1,6.0000,0.0000,1.42244,0.00071,-2.63053,1.05907,1.57080,0.11675,-0.12763,-0.48152,0.03738,,,,,,,,,,,,,,,,,,,,,,,,,,0,0,0,0,0
0.7476,1783957930.9805,1,1,6.0000,0.0000,1.42244,0.00071,-2.63053,1.05907,1.57080,0.11675,-0.12763,-0.48152,0.03738,,,,,,,,,,,,,,,,,,,,,,,,,,0,0,0,0,0
0.7568,1783957930.9897,1,1,6.0000,0.0000,1.42244,0.00071,-2.63053,1.05907,1.57080,0.11675,-0.12763,-0.48152,0.03738,,,,,,,,,,,,,,,,,,,,,,,,,,0,0,0,0,0
0.7665,1783957930.9994,1,1,6.0000,0.0000,1.42244,0.00071,-2.63053,1.05907,1.57080,0.11675,-0.12763,-0.48152,0.03738,,,,,,,,,,,,,,,,,,,,,,,,,,0,0,0,0,0
0.7668,1783957930.9997,1,1,6.0000,0.0000,1.42244,0.00071,-2.63053,1.05907,1.57080,0.11675,-0.12763,-0.48152,0.03738,,,,,,,,,,,,,,,,,,,,,,,,,,0,0,0,0,0
0.7796,1783957931.0125,1,1,6.0000,0.0000,1.42244,0.00071,-2.63053,1.05907,1.57080,0.11675,-0.12763,-0.48152,0.03738,,,,,,,,,,,,,,,,,,,,,,,,,,0,0,0,0,0
0.7986,1783957931.0315,1,1,6.0000,0.0000,1.42244,0.00071,-2.63053,1.05907,1.57080,0.11675,-0.12763,-0.48152,0.03738,,,,,,,,,,,,,,,,,,,,,,,,,,0,0,0,0,0
0.8014,1783957931.0344,1,1,6.0000,0.0000,1.42244,0.00071,-2.63053,1.05907,1.57080,0.11675,-0.12763,-0.48152,0.03738,,,,,,,,,,,,,,,,,,,,,,,,,,0,0,0,0,0
0.8018,1783957931.0347,1,1,6.0000,0.0000,1.42244,0.00071,-2.63053,1.05907,1.57080,0.11675,-0.12763,-0.48152,0.03738,,,,,,,,,,,,,,,,,,,,,,,,,,0,0,0,0,0
0.8130,1783957931.0459,1,1,6.0000,0.0000,1.42244,0.00071,-2.63053,1.05907,1.57080,0.11675,-0.12763,-0.48152,0.03738,,,,,,,,,,,,,,,,,,,,,,,,,,0,0,0,0,0
0.8175,1783957931.0504,1,1,6.0000,0.0000,1.42244,0.00071,-2.63053,1.05907,1.57080,0.11675,-0.12763,-0.48152,0.03738,,,,,,,,,,,,,,,,,,,,,,,,,,0,0,0,0,0
0.8347,1783957931.0676,1,1,6.0000,0.0000,1.42244,0.00071,-2.63053,1.05907,1.57080,0.11675,-0.12763,-0.48152,0.03738,,,,,,,,,,,,,,,,,,,,,,,,,,0,0,0,0,0
0.8379,1783957931.0708,1,1,6.0000,0.0000,1.42244,0.00071,-2.63053,1.05907,1.57080,0.11675,-0.12763,-0.48152,0.03738,,,,,,,,,,,,,,,,,,,,,,,,,,0,0,0,0,0
0.8383,1783957931.0712,1,1,6.0000,0.0000,1.42244,0.00071,-2.63053,1.05907,1.57080,0.11675,-0.12763,-0.48152,0.03738,,,,,,,,,,,,,,,,,,,,,,,,,,0,0,0,0,0
0.8470,1783957931.0799,1,1,6.0000,0.0000,1.42244,0.00071,-2.63053,1.05907,1.57080,0.11675,-0.12763,-0.48152,0.03738,,,,,,,,,,,,,,,,,,,,,,,,,,0,0,0,0,0
0.8621,1783957931.0950,1,1,6.0000,0.0000,1.42244,0.00071,-2.63053,1.05907,1.57080,0.11675,-0.12763,-0.48152,0.03738,,,,,,,,,,,,,,,,,,,,,,,,,,0,0,0,0,0
0.8693,1783957931.1022,1,1,6.0000,0.0000,1.42244,0.00071,-2.63053,1.05907,1.57080,0.11675,-0.12763,-0.48152,0.03738,,,,,,,,,,,,,,,,,,,,,,,,,,0,0,0,0,0
0.8696,1783957931.1025,1,1,6.0000,0.0000,1.42244,0.00071,-2.63053,1.05907,1.57080,0.11675,-0.12763,-0.48152,0.03738,,,,,,,,,,,,,,,,,,,,,,,,,,0,0,0,0,0
0.9009,1783957931.1338,1,1,6.0000,0.0000,1.42244,0.00071,-2.63053,1.05907,1.57080,0.11675,-0.12763,-0.48152,0.03738,,,,,,,,,,,,,,,,,,,,,,,,,,0,0,0,0,0
0.9012,1783957931.1341,1,1,6.0000,0.0000,1.42244,0.00071,-2.63053,1.05907,1.57080,0.11675,-0.12763,-0.48152,0.03738,,,,,,,,,,,,,,,,,,,,,,,,,,0,0,0,0,0
0.9220,1783957931.1549,1,1,6.0000,0.0000,1.42244,0.00071,-2.63053,1.05907,1.57080,0.11675,-0.12763,-0.48152,0.03738,,,,,,,,,,,,,,,,,,,,,,,,,,0,0,0,0,0
0.9223,1783957931.1553,1,1,6.0000,0.0000,1.42244,0.00071,-2.63053,1.05907,1.57080,0.11675,-0.12763,-0.48152,0.03738,,,,,,,,,,,,,,,,,,,,,,,,,,0,0,0,0,0
0.9226,1783957931.1555,1,1,6.0000,0.0000,1.42244,0.00071,-2.63053,1.05907,1.57080,0.11675,-0.12763,-0.48152,0.03738,,,,,,,,,,,,,,,,,,,,,,,,,,0,0,0,0,0
0.9432,1783957931.1761,1,1,6.0000,0.0000,1.42244,0.00071,-2.63053,1.05907,1.57080,0.11675,-0.12763,-0.48152,0.03738,,,,,,,,,,,,,,,,,,,,,,,,,,0,0,0,0,0
0.9436,1783957931.1765,1,1,6.0000,0.0000,1.42244,0.00071,-2.63053,1.05907,1.57080,0.11675,-0.12763,-0.48152,0.03738,,,,,,,,,,,,,,,,,,,,,,,,,,0,0,0,0,0
0.9571,1783957931.1900,1,1,6.0000,0.0000,1.42244,0.00071,-2.63053,1.05907,1.57080,0.11675,-0.12763,-0.48152,0.03738,,,,,,,,,,,,,,,,,,,,,,,,,,0,0,0,0,0
0.9575,1783957931.1904,1,1,6.0000,0.0000,1.42244,0.00071,-2.63053,1.05907,1.57080,0.11675,-0.12763,-0.48152,0.03738,,,,,,,,,,,,,,,,,,,,,,,,,,0,0,0,0,0
0.9597,1783957931.1926,1,1,6.0000,0.0000,1.42244,0.00071,-2.63053,1.05907,1.57080,0.11675,-0.12763,-0.48152,0.03738,,,,,,,,,,,,,,,,,,,,,,,,,,0,0,0,0,0
0.9662,1783957931.1992,1,1,6.0000,0.0000,1.42244,0.00071,-2.63053,1.05907,1.57080,0.11675,-0.12763,-0.48152,0.03738,,,,,,,,,,,,,,,,,,,,,,,,,,0,0,0,0,0
0.9847,1783957931.2176,1,1,6.0000,0.0000,1.42244,0.00071,-2.63053,1.05907,1.57080,0.11675,-0.12763,-0.48152,0.03738,,,,,,,,,,,,,,,,,,,,,,,,,,0,0,0,0,0
0.9928,1783957931.2257,1,1,6.0000,0.0000,1.42244,0.00071,-2.63053,1.05907,1.57080,0.11675,-0.12763,-0.48152,0.03738,,,,,,,,,,,,,,,,,,,,,,,,,,0,0,0,0,0
0.9976,1783957931.2305,1,1,6.0000,0.0000,1.42244,0.00071,-2.63053,1.05907,1.57080,0.11675,-0.12763,-0.48152,0.03738,,,,,,,,,,,,,,,,,,,,,,,,,,0,0,0,0,0
1.0089,1783957931.2418,1,1,6.0000,0.0000,1.42244,0.00071,-2.63053,1.05907,1.57080,0.11675,-0.12763,-0.48152,0.03738,,,,,,,,,,,,,,,,,,,,,,,,,,0,0,0,0,0
1.0190,1783957931.2519,1,1,6.0000,0.0000,1.42244,0.00071,-2.63054,1.05907,1.57080,0.11675,-0.12763,-0.48152,0.03737,,,,,,,,,,,,,,,,,,,,,,,,,,0,0,0,0,0
1.0279,1783957931.2608,1,1,6.0000,0.0000,1.42244,0.00070,-2.63054,1.05907,1.57080,0.11675,-0.12764,-0.48151,0.03737,,,,,,,,,,,,,,,,,,,,,,,,,,0,0,0,0,0
1.0395,1783957931.2724,1,1,6.0000,0.0000,1.42244,0.00070,-2.63055,1.05907,1.57080,0.11675,-0.12764,-0.48151,0.03737,,,,,,,,,,,,,,,,,,,,,,,,,,0,0,0,0,0
1.0571,1783957931.2900,1,1,6.0000,0.0000,1.42244,0.00066,-2.63059,1.05910,1.57080,0.11675,-0.12764,-0.48148,0.03734,,,,,,,,,,,,,,,,,,,,,,,,,,0,0,0,0,0
1.0575,1783957931.2905,1,1,6.0000,0.0000,1.42244,0.00066,-2.63059,1.05910,1.57080,0.11675,-0.12764,-0.48148,0.03734,,,,,,,,,,,,,,,,,,,,,,,,,,0,0,0,0,0
1.0597,1783957931.2926,1,1,6.0000,0.0000,1.42244,0.00066,-2.63059,1.05910,1.57080,0.11675,-0.12764,-0.48148,0.03734,,,,,,,,,,,,,,,,,,,,,,,,,,0,0,0,0,0
1.0677,1783957931.3006,1,1,6.0000,0.0000,1.42244,0.00065,-2.63059,1.05911,1.57080,0.11675,-0.12764,-0.48148,0.03733,,,,,,,,,,,,,,,,,,,,,,,,,,0,0,0,0,0
1.0681,1783957931.3011,1,1,6.0000,0.0000,1.42244,0.00065,-2.63059,1.05911,1.57080,0.11675,-0.12764,-0.48148,0.03733,,,,,,,,,,,,,,,,,,,,,,,,,,0,0,0,0,0
1.0829,1783957931.3158,1,1,6.0000,0.0000,1.42244,0.00059,-2.63063,1.05917,1.57080,0.11675,-0.12764,-0.48146,0.03730,,,,,,,,,,,,,,,,,,,,,,,,,,0,0,0,0,0
1.1238,1783957931.3567,1,1,6.0000,0.0000,1.42244,0.00046,-2.63067,1.05931,1.57080,0.11675,-0.12765,-0.48145,0.03725,,,,,,,,,,,,,,,,,,,,,,,,,,0,0,0,0,0
1.1242,1783957931.3571,1,1,6.0000,0.0000,1.42244,0.00046,-2.63067,1.05931,1.57080,0.11675,-0.12765,-0.48145,0.03725,,,,,,,,,,,,,,,,,,,,,,,,,,0,0,0,0,0
1.1248,1783957931.3577,1,1,6.0000,0.0000,1.42244,0.00043,-2.63068,1.05934,1.57080,0.11675,-0.12764,-0.48145,0.03724,,,,,,,,,,,,,,,,,,,,,,,,,,0,0,0,0,0
1.1299,1783957931.3629,1,1,6.0000,0.0000,1.42244,0.00040,-2.63068,1.05938,1.57080,0.11675,-0.12764,-0.48145,0.03722,,,,,,,,,,,,,,,,,,,,,,,,,,0,0,0,0,0
1.1303,1783957931.3633,1,1,6.0000,0.0000,1.42244,0.00040,-2.63068,1.05938,1.57080,0.11675,-0.12764,-0.48145,0.03722,,,,,,,,,,,,,,,,,,,,,,,,,,0,0,0,0,0
1.1392,1783957931.3721,1,1,6.0000,0.0000,1.42244,0.00031,-2.63070,1.05949,1.57080,0.11675,-0.12764,-0.48145,0.03719,,,,,,,,,,,,,,,,,,,,,,,,,,0,0,0,0,0
1.1397,1783957931.3727,1,1,6.0000,0.0000,1.42244,0.00031,-2.63070,1.05949,1.57080,0.11675,-0.12764,-0.48145,0.03719,,,,,,,,,,,,,,,,,,,,,,,,,,0,0,0,0,0
1.1451,1783957931.3780,1,1,6.0000,0.0000,1.42244,0.00020,-2.63072,1.05962,1.57080,0.11675,-0.12764,-0.48145,0.03716,,,,,,,,,,,,,,,,,,,,,,,,,,0,0,0,0,0
1.1456,1783957931.3785,1,1,6.0000,0.0000,1.42244,0.00020,-2.63072,1.05962,1.57080,0.11675,-0.12764,-0.48145,0.03716,,,,,,,,,,,,,,,,,,,,,,,,,,0,0,0,0,0
1.1567,1783957931.3896,1,1,6.0000,0.0000,1.42244,0.00018,-2.63073,1.05964,1.57080,0.11675,-0.12764,-0.48145,0.03715,,,,,,,,,,,,,,,,,,,,,,,,,,0,0,0,0,0
1.1697,1783957931.4027,1,1,6.0000,0.0000,1.42244,0.00008,-2.63075,1.05975,1.57080,0.11675,-0.12764,-0.48145,0.03712,,,,,,,,,,,,,,,,,,,,,,,,,,0,0,0,0,0
1.1761,1783957931.4091,1,1,6.0000,0.0000,1.42244,0.00004,-2.63075,1.05980,1.57080,0.11675,-0.12764,-0.48145,0.03711,,,,,,,,,,,,,,,,,,,,,,,,,,0,0,0,0,0
1.1886,1783957931.4215,1,1,6.0000,0.0000,1.42244,-0.00002,-2.63076,1.05987,1.57080,0.11675,-0.12764,-0.48145,0.03709,,,,,,,,,,,,,,,,,,,,,,,,,,0,0,0,0,0
1.2012,1783957931.4341,1,1,6.0000,0.0000,1.42244,-0.00010,-2.63077,1.05997,1.57080,0.11675,-0.12764,-0.48146,0.03706,,,,,,,,,,,,,,,,,,,,,,,,,,0,0,0,0,0
1.2070,1783957931.4399,1,1,6.0000,0.0000,1.42244,-0.00014,-2.63078,1.06002,1.57080,0.11675,-0.12764,-0.48146,0.03705,,,,,,,,,,,,,,,,,,,,,,,,,,0,0,0,0,0
1.2074,1783957931.4403,1,1,6.0000,0.0000,1.42244,-0.00014,-2.63078,1.06002,1.57080,0.11675,-0.12764,-0.48146,0.03705,,,,,,,,,,,,,,,,,,,,,,,,,,0,0,0,0,0
1.2181,1783957931.4510,1,1,6.0000,0.0000,1.42244,-0.00026,-2.63079,1.06017,1.57080,0.11675,-0.12764,-0.48147,0.03702,,,,,,,,,,,,,,,,,,,,,,,,,,0,0,0,0,0
1.2258,1783957931.4587,1,1,6.0000,0.0000,1.42244,-0.00034,-2.63080,1.06028,1.57080,0.11675,-0.12764,-0.48148,0.03700,,,,,,,,,,,,,,,,,,,,,,,,,,0,0,0,0,0
1.2496,1783957931.4825,1,1,6.0000,0.0000,1.42244,-0.00042,-2.63080,1.06039,1.57080,0.11675,-0.12764,-0.48150,0.03698,,,,,,,,,,,,,,,,,,,,,,,,,,0,0,0,0,0
1.2499,1783957931.4828,1,1,6.0000,0.0000,1.42244,-0.00042,-2.63080,1.06039,1.57080,0.11675,-0.12764,-0.48150,0.03698,,,,,,,,,,,,,,,,,,,,,,,,,,0,0,0,0,0
1.2610,1783957931.4939,1,1,6.0000,0.0000,1.42244,-0.00046,-2.63080,1.06044,1.57080,0.11675,-0.12763,-0.48151,0.03697,,,,,,,,,,,,,,,,,,,,,,,,,,0,0,0,0,0
1.2612,1783957931.4942,1,1,6.0000,0.0000,1.42244,-0.00046,-2.63080,1.06044,1.57080,0.11675,-0.12763,-0.48151,0.03697,,,,,,,,,,,,,,,,,,,,,,,,,,0,0,0,0,0
1.2666,1783957931.4995,1,1,6.0000,0.0000,1.42244,-0.00048,-2.63080,1.06047,1.57080,0.11675,-0.12763,-0.48151,0.03696,,,,,,,,,,,,,,,,,,,,,,,,,,0,0,0,0,0
1.2869,1783957931.5198,1,1,6.0000,0.0000,1.42244,-0.00052,-2.63082,1.06052,1.57080,0.11675,-0.12763,-0.48150,0.03695,,,,,,,,,,,,,,,,,,,,,,,,,,0,0,0,0,0
1.2881,1783957931.5210,1,1,6.0000,0.0000,1.42244,-0.00052,-2.63082,1.06052,1.57080,0.11675,-0.12763,-0.48150,0.03695,,,,,,,,,,,,,,,,,,,,,,,,,,0,0,0,0,0
1.3001,1783957931.5330,1,1,6.0000,0.0000,1.42244,-0.00055,-2.63082,1.06055,1.57080,0.11675,-0.12763,-0.48150,0.03694,,,,,,,,,,,,,,,,,,,,,,,,,,0,0,0,0,0
1.3081,1783957931.5410,1,1,6.0000,0.0000,1.42244,-0.00058,-2.63083,1.06060,1.57080,0.11675,-0.12763,-0.48150,0.03693,,,,,,,,,,,,,,,,,,,,,,,,,,0,0,0,0,0
1.3168,1783957931.5497,1,1,6.0000,0.0000,1.42244,-0.00067,-2.63086,1.06071,1.57080,0.11675,-0.12763,-0.48150,0.03689,,,,,,,,,,,,,,,,,,,,,,,,,,0,0,0,0,0
1.3327,1783957931.5656,1,1,6.0000,0.0000,1.42243,-0.00076,-2.63088,1.06082,1.57080,0.11675,-0.12763,-0.48150,0.03686,,,,,,,,,,,,,,,,,,,,,,,,,,0,0,0,0,0
1.3609,1783957931.5938,1,1,6.0000,0.0000,1.42243,-0.00095,-2.63093,1.06107,1.57080,0.11675,-0.12763,-0.48150,0.03680,,,,,,,,,,,,,,,,,,,,,,,,,,0,0,0,0,0
1.3631,1783957931.5960,1,1,6.0000,0.0000,1.42243,-0.00095,-2.63093,1.06107,1.57080,0.11675,-0.12763,-0.48150,0.03680,,,,,,,,,,,,,,,,,,,,,,,,,,0,0,0,0,0
1.3635,1783957931.5964,1,1,6.0000,0.0000,1.42243,-0.00095,-2.63093,1.06107,1.57080,0.11675,-0.12763,-0.48150,0.03680,,,,,,,,,,,,,,,,,,,,,,,,,,0,0,0,0,0
1.3637,1783957931.5966,1,1,6.0000,0.0000,1.42243,-0.00095,-2.63093,1.06107,1.57080,0.11675,-0.12763,-0.48150,0.03680,,,,,,,,,,,,,,,,,,,,,,,,,,0,0,0,0,0
1.3702,1783957931.6032,1,1,6.0000,0.0000,1.42243,-0.00098,-2.63093,1.06110,1.57080,0.11675,-0.12763,-0.48150,0.03679,,,,,,,,,,,,,,,,,,,,,,,,,,0,0,0,0,0
1.3705,1783957931.6034,1,1,6.0000,0.0000,1.42243,-0.00098,-2.63093,1.06110,1.57080,0.11675,-0.12763,-0.48150,0.03679,,,,,,,,,,,,,,,,,,,,,,,,,,0,0,0,0,0
1.3789,1783957931.6118,1,1,6.0000,0.0000,1.42243,-0.00104,-2.63094,1.06117,1.57080,0.11675,-0.12763,-0.48150,0.03677,,,,,,,,,,,,,,,,,,,,,,,,,,0,0,0,0,0
1.3792,1783957931.6121,1,1,6.0000,0.0000,1.42243,-0.00104,-2.63094,1.06117,1.57080,0.11675,-0.12763,-0.48150,0.03677,,,,,,,,,,,,,,,,,,,,,,,,,,0,0,0,0,0
1.3928,1783957931.6257,1,1,6.0000,0.0000,1.42243,-0.00110,-2.63096,1.06125,1.57080,0.11675,-0.12763,-0.48150,0.03675,,,,,,,,,,,,,,,,,,,,,,,,,,0,0,0,0,0
1.4029,1783957931.6358,1,1,6.0000,0.0000,1.42243,-0.00116,-2.63097,1.06133,1.57080,0.11675,-0.12763,-0.48150,0.03673,,,,,,,,,,,,,,,,,,,,,,,,,,0,0,0,0,0
1.4090,1783957931.6419,1,1,6.0000,0.0000,1.42243,-0.00125,-2.63099,1.06143,1.57080,0.11675,-0.12763,-0.48150,0.03670,,,,,,,,,,,,,,,,,,,,,,,,,,0,0,0,0,0
1.4175,1783957931.6505,1,1,6.0000,0.0000,1.42243,-0.00130,-2.63101,1.06150,1.57080,0.11675,-0.12763,-0.48150,0.03668,,,,,,,,,,,,,,,,,,,,,,,,,,0,0,0,0,0
1.4178,1783957931.6507,1,1,6.0000,0.0000,1.42243,-0.00130,-2.63101,1.06150,1.57080,0.11675,-0.12763,-0.48150,0.03668,,,,,,,,,,,,,,,,,,,,,,,,,,0,0,0,0,0
1.4275,1783957931.6604,1,1,6.0000,0.0000,1.42243,-0.00132,-2.63101,1.06152,1.57080,0.11675,-0.12763,-0.48150,0.03668,,,,,,,,,,,,,,,,,,,,,,,,,,0,0,0,0,0
1.4386,1783957931.6715,1,1,6.0000,0.0000,1.42243,-0.00139,-2.63101,1.06161,1.57080,0.11675,-0.12763,-0.48151,0.03666,,,,,,,,,,,,,,,,,,,,,,,,,,0,0,0,0,0
1.4389,1783957931.6718,1,1,6.0000,0.0000,1.42243,-0.00139,-2.63101,1.06161,1.57080,0.11675,-0.12763,-0.48151,0.03666,,,,,,,,,,,,,,,,,,,,,,,,,,0,0,0,0,0
1.4472,1783957931.6801,1,1,6.0000,0.0000,1.42243,-0.00145,-2.63101,1.06169,1.57080,0.11675,-0.12763,-0.48152,0.03664,,,,,,,,,,,,,,,,,,,,,,,,,,0,0,0,0,0
1.4474,1783957931.6804,1,1,6.0000,0.0000,1.42243,-0.00145,-2.63101,1.06169,1.57080,0.11675,-0.12763,-0.48152,0.03664,,,,,,,,,,,,,,,,,,,,,,,,,,0,0,0,0,0
1.5305,1783957931.7634,1,1,6.0000,0.0000,1.42243,-0.00182,-2.63111,1.06215,1.57080,0.11675,-0.12763,-0.48151,0.03651,,,,,,,,,,,,,,,,,,,,,,,,,,0,0,0,0,0
1.5308,1783957931.7637,1,1,6.0000,0.0000,1.42243,-0.00182,-2.63111,1.06215,1.57080,0.11675,-0.12763,-0.48151,0.03651,,,,,,,,,,,,,,,,,,,,,,,,,,0,0,0,0,0
1.5312,1783957931.7641,1,1,6.0000,0.0000,1.42243,-0.00182,-2.63111,1.06215,1.57080,0.11675,-0.12763,-0.48151,0.03651,,,,,,,,,,,,,,,,,,,,,,,,,,0,0,0,0,0
1.5381,1783957931.7710,1,1,6.0000,0.0000,1.42243,-0.00188,-2.63113,1.06223,1.57080,0.11675,-0.12763,-0.48151,0.03649,,,,,,,,,,,,,,,,,,,,,,,,,,0,0,0,0,0
1.5383,1783957931.7713,1,1,6.0000,0.0000,1.42243,-0.00188,-2.63113,1.06223,1.57080,0.11675,-0.12763,-0.48151,0.03649,,,,,,,,,,,,,,,,,,,,,,,,,,0,0,0,0,0
1.5386,1783957931.7716,1,1,6.0000,0.0000,1.42243,-0.00188,-2.63113,1.06223,1.57080,0.11675,-0.12763,-0.48151,0.03649,,,,,,,,,,,,,,,,,,,,,,,,,,0,0,0,0,0
1.5389,1783957931.7718,1,1,6.0000,0.0000,1.42243,-0.00188,-2.63113,1.06223,1.57080,0.11675,-0.12763,-0.48151,0.03649,,,,,,,,,,,,,,,,,,,,,,,,,,0,0,0,0,0
1.5889,1783957931.8218,1,1,6.0000,0.0000,1.42243,-0.00220,-2.63120,1.06262,1.57080,0.11675,-0.12763,-0.48151,0.03638,,,,,,,,,,,,,,,,,,,,,,,,,,0,0,0,0,0
1.5892,1783957931.8221,1,1,6.0000,0.0000,1.42243,-0.00220,-2.63120,1.06262,1.57080,0.11675,-0.12763,-0.48151,0.03638,,,,,,,,,,,,,,,,,,,,,,,,,,0,0,0,0,0
1.6095,1783957931.8424,1,1,6.0000,0.0000,1.42243,-0.00230,-2.63122,1.06275,1.57080,0.11675,-0.12763,-0.48151,0.03635,,,,,,,,,,,,,,,,,,,,,,,,,,0,0,0,0,0
1.6158,1783957931.8487,1,1,6.0000,0.0000,1.42243,-0.00234,-2.63123,1.06279,1.57080,0.11675,-0.12763,-0.48151,0.03634,,,,,,,,,,,,,,,,,,,,,,,,,,0,0,0,0,0
1.6161,1783957931.8490,1,1,6.0000,0.0000,1.42243,-0.00234,-2.63123,1.06279,1.57080,0.11675,-0.12763,-0.48151,0.03634,,,,,,,,,,,,,,,,,,,,,,,,,,0,0,0,0,0
1.6167,1783957931.8496,1,1,6.0000,0.0000,1.42243,-0.00238,-2.63124,1.06284,1.57080,0.11675,-0.12763,-0.48151,0.03632,,,,,,,,,,,,,,,,,,,,,,,,,,0,0,0,0,0
1.6275,1783957931.8604,1,1,6.0000,0.0000,1.42243,-0.00247,-2.63126,1.06295,1.57080,0.11675,-0.12763,-0.48151,0.03629,,,,,,,,,,,,,,,,,,,,,,,,,,0,0,0,0,0
1.6278,1783957931.8607,1,1,6.0000,0.0000,1.42243,-0.00247,-2.63126,1.06295,1.57080,0.11675,-0.12763,-0.48151,0.03629,,,,,,,,,,,,,,,,,,,,,,,,,,0,0,0,0,0
1.6433,1783957931.8762,1,1,6.0000,0.0000,1.42243,-0.00266,-2.63130,1.06319,1.57080,0.11675,-0.12763,-0.48152,0.03623,,,,,,,,,,,,,,,,,,,,,,,,,,0,0,0,0,0
1.6474,1783957931.8803,1,1,6.0000,0.0000,1.42243,-0.00271,-2.63131,1.06325,1.57080,0.11675,-0.12763,-0.48152,0.03622,,,,,,,,,,,,,,,,,,,,,,,,,,0,0,0,0,0
1.6479,1783957931.8808,1,1,6.0000,0.0000,1.42243,-0.00271,-2.63131,1.06325,1.57080,0.11675,-0.12763,-0.48152,0.03622,,,,,,,,,,,,,,,,,,,,,,,,,,0,0,0,0,0
1.6557,1783957931.8886,1,1,6.0000,0.0000,1.42243,-0.00278,-2.63132,1.06334,1.57080,0.11675,-0.12763,-0.48152,0.03619,,,,,,,,,,,,,,,,,,,,,,,,,,0,0,0,0,0
1.6674,1783957931.9003,1,1,6.0000,0.0000,1.42243,-0.00278,-2.63132,1.06335,1.57080,0.11675,-0.12763,-0.48152,0.03619,,,,,,,,,,,,,,,,,,,,,,,,,,0,0,0,0,0
1.6754,1783957931.9083,1,1,6.0000,0.0000,1.42243,-0.00280,-2.63131,1.06337,1.57080,0.11675,-0.12763,-0.48153,0.03619,,,,,,,,,,,,,,,,,,,,,,,,,,0,0,0,0,0
1.6759,1783957931.9088,1,1,6.0000,0.0000,1.42243,-0.00280,-2.63131,1.06337,1.57080,0.11675,-0.12763,-0.48153,0.03619,,,,,,,,,,,,,,,,,,,,,,,,,,0,0,0,0,0
1.6974,1783957931.9303,1,1,6.0000,0.0000,1.42243,-0.00284,-2.63131,1.06342,1.57080,0.11675,-0.12763,-0.48154,0.03618,,,,,,,,,,,,,,,,,,,,,,,,,,0,0,0,0,0
1.7009,1783957931.9338,1,1,6.0000,0.0000,1.42243,-0.00285,-2.63132,1.06344,1.57080,0.11675,-0.12763,-0.48154,0.03618,,,,,,,,,,,,,,,,,,,,,,,,,,0,0,0,0,0
1.7013,1783957931.9342,1,1,6.0000,0.0000,1.42243,-0.00285,-2.63132,1.06344,1.57080,0.11675,-0.12763,-0.48154,0.03618,,,,,,,,,,,,,,,,,,,,,,,,,,0,0,0,0,0
1.7108,1783957931.9437,1,1,6.0000,0.0000,1.42243,-0.00288,-2.63133,1.06348,1.57080,0.11675,-0.12763,-0.48153,0.03616,,,,,,,,,,,,,,,,,,,,,,,,,,0,0,0,0,0
1.7189,1783957931.9518,1,1,6.0000,0.0000,1.42243,-0.00293,-2.63135,1.06353,1.57080,0.11675,-0.12763,-0.48153,0.03615,,,,,,,,,,,,,,,,,,,,,,,,,,0,0,0,0,0
1.7304,1783957931.9633,1,1,6.0000,0.0000,1.42243,-0.00294,-2.63135,1.06355,1.57080,0.11675,-0.12763,-0.48153,0.03614,,,,,,,,,,,,,,,,,,,,,,,,,,0,0,0,0,0
1.7366,1783957931.9695,1,1,6.0000,0.0000,1.42243,-0.00299,-2.63136,1.06360,1.57080,0.11675,-0.12763,-0.48152,0.03613,,,,,,,,,,,,,,,,,,,,,,,,,,0,0,0,0,0
1.7368,1783957931.9697,1,1,6.0000,0.0000,1.42243,-0.00299,-2.63136,1.06360,1.57080,0.11675,-0.12763,-0.48152,0.03613,,,,,,,,,,,,,,,,,,,,,,,,,,0,0,0,0,0
1.7548,1783957931.9877,1,1,6.0000,0.0000,1.42243,-0.00304,-2.63138,1.06366,1.57080,0.11675,-0.12763,-0.48152,0.03611,,,,,,,,,,,,,,,,,,,,,,,,,,0,0,0,0,0
1.7568,1783957931.9898,1,1,6.0000,0.0000,1.42243,-0.00306,-2.63138,1.06370,1.57080,0.11675,-0.12763,-0.48152,0.03610,,,,,,,,,,,,,,,,,,,,,,,,,,0,0,0,0,0
1.7728,1783957932.0057,1,1,6.0000,0.0000,1.42243,-0.00325,-2.63143,1.06392,1.57080,0.11675,-0.12763,-0.48152,0.03603,,,,,,,,,,,,,,,,,,,,,,,,,,0,0,0,0,0
1.7779,1783957932.0108,1,1,6.0000,0.0000,1.42243,-0.00325,-2.63143,1.06392,1.57080,0.11675,-0.12763,-0.48152,0.03603,,,,,,,,,,,,,,,,,,,,,,,,,,0,0,0,0,0
1.7874,1783957932.0204,1,1,6.0000,0.0000,1.42243,-0.00327,-2.63143,1.06395,1.57080,0.11675,-0.12763,-0.48152,0.03603,,,,,,,,,,,,,,,,,,,,,,,,,,0,0,0,0,0
1.7998,1783957932.0327,1,1,6.0000,0.0000,1.42243,-0.00338,-2.63146,1.06407,1.57080,0.11675,-0.12763,-0.48152,0.03599,,,,,,,,,,,,,,,,,,,,,,,,,,0,0,0,0,0
1.8160,1783957932.0489,1,1,6.0000,0.0000,1.42242,-0.00348,-2.63148,1.06420,1.57080,0.11675,-0.12763,-0.48152,0.03595,,,,,,,,,,,,,,,,,,,,,,,,,,0,0,0,0,0
1.8166,1783957932.0496,1,1,6.0000,0.0000,1.42242,-0.00349,-2.63149,1.06422,1.57080,0.11675,-0.12763,-0.48152,0.03595,,,,,,,,,,,,,,,,,,,,,,,,,,0,0,0,0,0
1.8291,1783957932.0621,1,1,6.0000,0.0000,1.42242,-0.00359,-2.63150,1.06433,1.57080,0.11675,-0.12763,-0.48152,0.03592,,,,,,,,,,,,,,,,,,,,,,,,,,0,0,0,0,0
1.8398,1783957932.0728,1,1,6.0000,0.0000,1.42242,-0.00367,-2.63152,1.06443,1.57080,0.11675,-0.12763,-0.48152,0.03589,,,,,,,,,,,,,,,,,,,,,,,,,,0,0,0,0,0
1.8458,1783957932.0787,1,1,6.0000,0.0000,1.42242,-0.00377,-2.63154,1.06454,1.57080,0.11675,-0.12763,-0.48152,0.03586,,,,,,,,,,,,,,,,,,,,,,,,,,0,0,0,0,0
1.8574,1783957932.0903,1,1,6.0000,0.0000,1.42242,-0.00390,-2.63156,1.06470,1.57080,0.11675,-0.12763,-0.48152,0.03581,,,,,,,,,,,,,,,,,,,,,,,,,,0,0,0,0,0
1.8692,1783957932.1021,1,1,6.0000,0.0000,1.42242,-0.00397,-2.63157,1.06479,1.57080,0.11675,-0.12762,-0.48153,0.03579,,,,,,,,,,,,,,,,,,,,,,,,,,0,0,0,0,0
1.8700,1783957932.1029,1,1,6.0000,0.0000,1.42242,-0.00397,-2.63157,1.06479,1.57080,0.11675,-0.12762,-0.48153,0.03579,,,,,,,,,,,,,,,,,,,,,,,,,,0,0,0,0,0
1.8774,1783957932.1103,1,1,6.0000,0.0000,1.42242,-0.00397,-2.63157,1.06480,1.57080,0.11675,-0.12762,-0.48153,0.03579,,,,,,,,,,,,,,,,,,,,,,,,,,0,0,0,0,0
1.8878,1783957932.1207,1,1,6.0000,0.0000,1.42242,-0.00399,-2.63157,1.06481,1.57080,0.11675,-0.12762,-0.48153,0.03579,,,,,,,,,,,,,,,,,,,,,,,,,,0,0,0,0,0
1.8962,1783957932.1291,1,1,6.0000,0.0000,1.42242,-0.00401,-2.63157,1.06484,1.57080,0.11675,-0.12762,-0.48154,0.03579,,,,,,,,,,,,,,,,,,,,,,,,,,0,0,0,0,0
1.9059,1783957932.1388,1,1,6.0000,0.0000,1.42242,-0.00402,-2.63157,1.06486,1.57080,0.11675,-0.12762,-0.48154,0.03578,,,,,,,,,,,,,,,,,,,,,,,,,,0,0,0,0,0
1.9161,1783957932.1490,1,1,6.0000,0.0000,1.42242,-0.00404,-2.63158,1.06489,1.57080,0.11675,-0.12762,-0.48154,0.03577,,,,,,,,,,,,,,,,,,,,,,,,,,0,0,0,0,0
1.9167,1783957932.1496,1,1,6.0000,0.0000,1.42242,-0.00406,-2.63159,1.06490,1.57080,0.11675,-0.12762,-0.48153,0.03577,,,,,,,,,,,,,,,,,,,,,,,,,,0,0,0,0,0
1.9267,1783957932.1596,1,1,6.0000,0.0000,1.42242,-0.00408,-2.63159,1.06493,1.57080,0.11675,-0.12762,-0.48153,0.03576,,,,,,,,,,,,,,,,,,,,,,,,,,0,0,0,0,0
1.9392,1783957932.1721,1,1,6.0000,0.0000,1.42242,-0.00411,-2.63160,1.06497,1.57080,0.11675,-0.12762,-0.48153,0.03575,,,,,,,,,,,,,,,,,,,,,,,,,,0,0,0,0,0
1.9456,1783957932.1785,1,1,6.0000,0.0000,1.42242,-0.00416,-2.63162,1.06502,1.57080,0.11675,-0.12762,-0.48153,0.03573,,,,,,,,,,,,,,,,,,,,,,,,,,0,0,0,0,0
1.9458,1783957932.1788,1,1,6.0000,0.0000,1.42242,-0.00416,-2.63162,1.06502,1.57080,0.11675,-0.12762,-0.48153,0.03573,,,,,,,,,,,,,,,,,,,,,,,,,,0,0,0,0,0
1.9587,1783957932.1916,1,1,6.0000,0.0000,1.42242,-0.00422,-2.63164,1.06510,1.57080,0.11675,-0.12763,-0.48152,0.03571,,,,,,,,,,,,,,,,,,,,,,,,,,0,0,0,0,0
1.9659,1783957932.1989,1,1,6.0000,0.0000,1.42242,-0.00424,-2.63164,1.06512,1.57080,0.11675,-0.12763,-0.48152,0.03570,,,,,,,,,,,,,,,,,,,,,,,,,,0,0,0,0,0
1.9775,1783957932.2105,1,1,6.0000,0.0000,1.42242,-0.00432,-2.63166,1.06522,1.57080,0.11675,-0.12763,-0.48152,0.03567,,,,,,,,,,,,,,,,,,,,,,,,,,0,0,0,0,0
1.9887,1783957932.2216,1,1,6.0000,0.0000,1.42242,-0.00441,-2.63169,1.06533,1.57080,0.11675,-0.12763,-0.48152,0.03564,,,,,,,,,,,,,,,,,,,,,,,,,,0,0,0,0,0
1.9890,1783957932.2220,1,1,6.0000,0.0000,1.42242,-0.00441,-2.63169,1.06533,1.57080,0.11675,-0.12763,-0.48152,0.03564,,,,,,,,,,,,,,,,,,,,,,,,,,0,0,0,0,0
1.9970,1783957932.2299,1,1,6.0000,0.0000,1.42242,-0.00443,-2.63169,1.06536,1.57080,0.11675,-0.12763,-0.48152,0.03563,,,,,,,,,,,,,,,,,,,,,,,,,,0,0,0,0,0
1.9975,1783957932.2304,1,1,6.0000,0.0000,1.42242,-0.00443,-2.63169,1.06536,1.57080,0.11675,-0.12763,-0.48152,0.03563,,,,,,,,,,,,,,,,,,,,,,,,,,0,0,0,0,0
2.0086,1783957932.2415,1,1,6.0000,0.0000,1.42242,-0.00454,-2.63172,1.06549,1.57080,0.11675,-0.12763,-0.48151,0.03559,,,,,,,,,,,,,,,,,,,,,,,,,,0,0,0,0,0
2.0158,1783957932.2487,1,1,6.0000,0.0000,1.42242,-0.00454,-2.63172,1.06549,1.57080,0.11675,-0.12763,-0.48151,0.03559,,,,,,,,,,,,,,,,,,,,,,,,,,0,0,0,0,0
2.0257,1783957932.2586,1,1,6.0000,0.0000,1.42242,-0.00460,-2.63173,1.06556,1.57080,0.11675,-0.12763,-0.48151,0.03557,,,,,,,,,,,,,,,,,,,,,,,,,,0,0,0,0,0
2.0374,1783957932.2704,1,1,6.0000,0.0000,1.42242,-0.00473,-2.63176,1.06572,1.57080,0.11675,-0.12763,-0.48151,0.03552,,,,,,,,,,,,,,,,,,,,,,,,,,0,0,0,0,0
2.0487,1783957932.2816,1,1,6.0000,0.0000,1.42242,-0.00484,-2.63179,1.06585,1.57080,0.11675,-0.12763,-0.48151,0.03549,,,,,,,,,,,,,,,,,,,,,,,,,,0,0,0,0,0
2.0625,1783957932.2954,1,1,6.0000,0.0000,1.42242,-0.00488,-2.63179,1.06589,1.57080,0.11675,-0.12763,-0.48151,0.03548,,,,,,,,,,,,,,,,,,,,,,,,,,0,0,0,0,0
2.0679,1783957932.3008,1,1,6.0000,0.0000,1.42242,-0.00490,-2.63179,1.06592,1.57080,0.11675,-0.12762,-0.48152,0.03547,,,,,,,,,,,,,,,,,,,,,,,,,,0,0,0,0,0
2.0808,1783957932.3138,1,1,6.0000,0.0000,1.42242,-0.00499,-2.63180,1.06604,1.57080,0.11675,-0.12762,-0.48153,0.03545,,,,,,,,,,,,,,,,,,,,,,,,,,0,0,0,0,0
2.0811,1783957932.3140,1,1,6.0000,0.0000,1.42242,-0.00499,-2.63180,1.06604,1.57080,0.11675,-0.12762,-0.48153,0.03545,,,,,,,,,,,,,,,,,,,,,,,,,,0,0,0,0,0
2.0876,1783957932.3205,1,1,6.0000,0.0000,1.42242,-0.00500,-2.63180,1.06604,1.57080,0.11675,-0.12762,-0.48153,0.03545,,,,,,,,,,,,,,,,,,,,,,,,,,0,0,0,0,0
2.1108,1783957932.3438,1,1,6.0000,0.0000,1.42242,-0.00507,-2.63180,1.06613,1.57080,0.11675,-0.12762,-0.48154,0.03543,,,,,,,,,,,,,,,,,,,,,,,,,,0,0,0,0,0
2.1112,1783957932.3441,1,1,6.0000,0.0000,1.42242,-0.00507,-2.63180,1.06613,1.57080,0.11675,-0.12762,-0.48154,0.03543,,,,,,,,,,,,,,,,,,,,,,,,,,0,0,0,0,0
2.1198,1783957932.3527,1,1,6.0000,0.0000,1.42242,-0.00510,-2.63182,1.06617,1.57080,0.11675,-0.12762,-0.48153,0.03541,,,,,,,,,,,,,,,,,,,,,,,,,,0,0,0,0,0
2.1202,1783957932.3531,1,1,6.0000,0.0000,1.42242,-0.00510,-2.63182,1.06617,1.57080,0.11675,-0.12762,-0.48153,0.03541,,,,,,,,,,,,,,,,,,,,,,,,,,0,0,0,0,0
2.1207,1783957932.3536,1,1,6.0000,0.0000,1.42242,-0.00512,-2.63182,1.06620,1.57080,0.11675,-0.12762,-0.48153,0.03540,,,,,,,,,,,,,,,,,,,,,,,,,,0,0,0,0,0
2.1271,1783957932.3600,1,1,6.0000,0.0000,1.42242,-0.00515,-2.63184,1.06624,1.57080,0.11675,-0.12762,-0.48153,0.03539,,,,,,,,,,,,,,,,,,,,,,,,,,0,0,0,0,0
2.1274,1783957932.3603,1,1,6.0000,0.0000,1.42242,-0.00515,-2.63184,1.06624,1.57080,0.11675,-0.12762,-0.48153,0.03539,,,,,,,,,,,,,,,,,,,,,,,,,,0,0,0,0,0
2.1398,1783957932.3727,1,1,6.0000,0.0000,1.42242,-0.00522,-2.63186,1.06633,1.57080,0.11675,-0.12762,-0.48152,0.03537,,,,,,,,,,,,,,,,,,,,,,,,,,0,0,0,0,0
2.1522,1783957932.3851,1,1,6.0000,0.0000,1.42242,-0.00526,-2.63187,1.06637,1.57080,0.11675,-0.12762,-0.48152,0.03535,,,,,,,,,,,,,,,,,,,,,,,,,,0,0,0,0,0
2.1528,1783957932.3857,1,1,6.0000,0.0000,1.42242,-0.00528,-2.63188,1.06640,1.57080,0.11675,-0.12762,-0.48152,0.03534,,,,,,,,,,,,,,,,,,,,,,,,,,0,0,0,0,0
2.1657,1783957932.3986,1,1,6.0000,0.0000,1.42242,-0.00538,-2.63191,1.06653,1.57080,0.11675,-0.12762,-0.48151,0.03531,,,,,,,,,,,,,,,,,,,,,,,,,,0,0,0,0,0
2.1665,1783957932.3994,1,1,6.0000,0.0000,1.42242,-0.00538,-2.63191,1.06653,1.57080,0.11675,-0.12762,-0.48151,0.03531,,,,,,,,,,,,,,,,,,,,,,,,,,0,0,0,0,0
2.1809,1783957932.4138,1,1,6.0000,0.0000,1.42242,-0.00543,-2.63192,1.06658,1.57080,0.11675,-0.12762,-0.48151,0.03529,,,,,,,,,,,,,,,,,,,,,,,,,,0,0,0,0,0
2.1866,1783957932.4195,1,1,6.0000,0.0000,1.42242,-0.00546,-2.63193,1.06662,1.57080,0.11675,-0.12762,-0.48151,0.03528,,,,,,,,,,,,,,,,,,,,,,,,,,0,0,0,0,0
2.1957,1783957932.4287,1,1,6.0000,0.0000,1.42242,-0.00550,-2.63194,1.06667,1.57080,0.11675,-0.12762,-0.48151,0.03527,,,,,,,,,,,,,,,,,,,,,,,,,,0,0,0,0,0
2.2128,1783957932.4457,1,1,6.0000,0.0000,1.42242,-0.00565,-2.63197,1.06685,1.57080,0.11675,-0.12762,-0.48151,0.03521,,,,,,,,,,,,,,,,,,,,,,,,,,0,0,0,0,0
2.2132,1783957932.4461,1,1,6.0000,0.0000,1.42242,-0.00565,-2.63197,1.06685,1.57080,0.11675,-0.12762,-0.48151,0.03521,,,,,,,,,,,,,,,,,,,,,,,,,,0,0,0,0,0
2.2196,1783957932.4525,1,1,6.0000,0.0000,1.42242,-0.00571,-2.63198,1.06692,1.57080,0.11675,-0.12762,-0.48151,0.03519,,,,,,,,,,,,,,,,,,,,,,,,,,0,0,0,0,0
2.2200,1783957932.4529,1,1,6.0000,0.0000,1.42242,-0.00571,-2.63198,1.06692,1.57080,0.11675,-0.12762,-0.48151,0.03519,,,,,,,,,,,,,,,,,,,,,,,,,,0,0,0,0,0
2.2257,1783957932.4586,1,1,6.0000,0.0000,1.42242,-0.00583,-2.63201,1.06707,1.57080,0.11675,-0.12762,-0.48151,0.03515,,,,,,,,,,,,,,,,,,,,,,,,,,0,0,0,0,0
2.2354,1783957932.4683,1,1,6.0000,0.0000,1.42242,-0.00583,-2.63201,1.06707,1.57080,0.11675,-0.12762,-0.48151,0.03515,,,,,,,,,,,,,,,,,,,,,,,,,,0,0,0,0,0
2.2357,1783957932.4686,1,1,6.0000,0.0000,1.42242,-0.00583,-2.63201,1.06707,1.57080,0.11675,-0.12762,-0.48151,0.03515,,,,,,,,,,,,,,,,,,,,,,,,,,0,0,0,0,0
2.2560,1783957932.4889,1,1,6.0000,0.0000,1.42242,-0.00597,-2.63204,1.06724,1.57080,0.11675,-0.12762,-0.48151,0.03510,,,,,,,,,,,,,,,,,,,,,,,,,,0,0,0,0,0
2.2660,1783957932.4989,1,1,6.0000,0.0000,1.42242,-0.00602,-2.63205,1.06729,1.57080,0.11675,-0.12762,-0.48151,0.03509,,,,,,,,,,,,,,,,,,,,,,,,,,0,0,0,0,0
2.2698,1783957932.5027,1,1,6.0000,0.0000,1.42242,-0.00603,-2.63205,1.06731,1.57080,0.11675,-0.12762,-0.48151,0.03509,,,,,,,,,,,,,,,,,,,,,,,,,,0,0,0,0,0
2.2789,1783957932.5118,1,1,6.0000,0.0000,1.42242,-0.00607,-2.63206,1.06736,1.57080,0.11675,-0.12762,-0.48152,0.03507,,,,,,,,,,,,,,,,,,,,,,,,,,0,0,0,0,0
2.2900,1783957932.5229,1,1,6.0000,0.0000,1.42242,-0.00610,-2.63206,1.06740,1.57080,0.11675,-0.12762,-0.48152,0.03507,,,,,,,,,,,,,,,,,,,,,,,,,,0,0,0,0,0
2.2967,1783957932.5296,1,1,6.0000,0.0000,1.42242,-0.00613,-2.63206,1.06744,1.57080,0.11675,-0.12762,-0.48153,0.03506,,,,,,,,,,,,,,,,,,,,,,,,,,0,0,0,0,0
2.2971,1783957932.5300,1,1,6.0000,0.0000,1.42242,-0.00613,-2.63206,1.06744,1.57080,0.11675,-0.12762,-0.48153,0.03506,,,,,,,,,,,,,,,,,,,,,,,,,,0,0,0,0,0
2.3112,1783957932.5441,1,1,6.0000,0.0000,1.42242,-0.00621,-2.63206,1.06754,1.57080,0.11675,-0.12762,-0.48154,0.03504,,,,,,,,,,,,,,,,,,,,,,,,,,0,0,0,0,0
2.3261,1783957932.5590,1,1,6.0000,0.0000,1.42241,-0.00626,-2.63207,1.06760,1.57080,0.11675,-0.12762,-0.48154,0.03503,,,,,,,,,,,,,,,,,,,,,,,,,,0,0,0,0,0
2.3264,1783957932.5593,1,1,6.0000,0.0000,1.42241,-0.00626,-2.63207,1.06760,1.57080,0.11675,-0.12762,-0.48154,0.03503,,,,,,,,,,,,,,,,,,,,,,,,,,0,0,0,0,0
2.3370,1783957932.5699,1,1,6.0000,0.0000,1.42241,-0.00633,-2.63209,1.06769,1.57080,0.11675,-0.12762,-0.48153,0.03500,,,,,,,,,,,,,,,,,,,,,,,,,,0,0,0,0,0
2.3477,1783957932.5806,1,1,6.0000,0.0000,1.42241,-0.00639,-2.63211,1.06777,1.57080,0.11675,-0.12762,-0.48153,0.03497,,,,,,,,,,,,,,,,,,,,,,,,,,0,0,0,0,0
2.3482,1783957932.5811,1,1,6.0000,0.0000,1.42241,-0.00639,-2.63211,1.06777,1.57080,0.11675,-0.12762,-0.48153,0.03497,,,,,,,,,,,,,,,,,,,,,,,,,,0,0,0,0,0
2.3568,1783957932.5897,1,1,6.0000,0.0000,1.42241,-0.00641,-2.63212,1.06779,1.57080,0.11675,-0.12762,-0.48153,0.03497,,,,,,,,,,,,,,,,,,,,,,,,,,0,0,0,0,0
2.3688,1783957932.6018,1,1,6.0000,0.0000,1.42241,-0.00649,-2.63214,1.06788,1.57080,0.11675,-0.12762,-0.48152,0.03494,,,,,,,,,,,,,,,,,,,,,,,,,,0,0,0,0,0
2.3846,1783957932.6175,1,1,6.0000,0.0000,1.42241,-0.00654,-2.63216,1.06794,1.57080,0.11675,-0.12762,-0.48152,0.03492,,,,,,,,,,,,,,,,,,,,,,,,,,0,0,0,0,0
2.3885,1783957932.6215,1,1,6.0000,0.0000,1.42241,-0.00657,-2.63216,1.06798,1.57080,0.11675,-0.12762,-0.48152,0.03491,,,,,,,,,,,,,,,,,,,,,,,,,,0,0,0,0,0
2.3956,1783957932.6285,1,1,6.0000,0.0000,1.42241,-0.00661,-2.63218,1.06804,1.57080,0.11675,-0.12762,-0.48152,0.03489,,,,,,,,,,,,,,,,,,,,,,,,,,0,0,0,0,0
2.3959,1783957932.6288,1,1,6.0000,0.0000,1.42241,-0.00661,-2.63218,1.06804,1.57080,0.11675,-0.12762,-0.48152,0.03489,,,,,,,,,,,,,,,,,,,,,,,,,,0,0,0,0,0
2.4139,1783957932.6468,1,1,6.0000,0.0000,1.42241,-0.00677,-2.63222,1.06823,1.57080,0.11675,-0.12762,-0.48152,0.03484,,,,,,,,,,,,,,,,,,,,,,,,,,0,0,0,0,0
2.4177,1783957932.6506,1,1,6.0000,0.0000,1.42241,-0.00679,-2.63222,1.06825,1.57080,0.11675,-0.12762,-0.48152,0.03483,,,,,,,,,,,,,,,,,,,,,,,,,,0,0,0,0,0
2.4258,1783957932.6587,1,1,6.0000,0.0000,1.42241,-0.00685,-2.63223,1.06832,1.57080,0.11675,-0.12762,-0.48152,0.03481,,,,,,,,,,,,,,,,,,,,,,,,,,0,0,0,0,0
2.4373,1783957932.6702,1,1,6.0000,0.0000,1.42241,-0.00699,-2.63226,1.06849,1.57080,0.11675,-0.12762,-0.48151,0.03476,,,,,,,,,,,,,,,,,,,,,,,,,,0,0,0,0,0
2.4471,1783957932.6800,1,1,6.0000,0.0000,1.42241,-0.00699,-2.63226,1.06849,1.57080,0.11675,-0.12762,-0.48151,0.03476,,,,,,,,,,,,,,,,,,,,,,,,,,0,0,0,0,0
2.4579,1783957932.6908,1,1,6.0000,0.0000,1.42241,-0.00706,-2.63228,1.06858,1.57080,0.11675,-0.12762,-0.48151,0.03474,,,,,,,,,,,,,,,,,,,,,,,,,,0,0,0,0,0
2.4708,1783957932.7037,1,1,6.0000,0.0000,1.42241,-0.00719,-2.63231,1.06873,1.57080,0.11675,-0.12762,-0.48151,0.03469,,,,,,,,,,,,,,,,,,,,,,,,,,0,0,0,0,0
2.4833,1783957932.7162,1,1,6.0000,0.0000,1.42241,-0.00734,-2.63234,1.06891,1.57080,0.11675,-0.12762,-0.48152,0.03465,,,,,,,,,,,,,,,,,,,,,,,,,,0,0,0,0,0
2.4871,1783957932.7200,1,1,6.0000,0.0000,1.42241,-0.00738,-2.63235,1.06897,1.57080,0.11675,-0.12762,-0.48152,0.03463,,,,,,,,,,,,,,,,,,,,,,,,,,0,0,0,0,0
2.5013,1783957932.7342,1,1,6.0000,0.0000,1.42241,-0.00747,-2.63236,1.06907,1.57080,0.11675,-0.12762,-0.48152,0.03460,,,,,,,,,,,,,,,,,,,,,,,,,,0,0,0,0,0
2.5054,1783957932.7383,1,1,6.0000,0.0000,1.42241,-0.00747,-2.63236,1.06908,1.57080,0.11675,-0.12762,-0.48152,0.03460,,,,,,,,,,,,,,,,,,,,,,,,,,0,0,0,0,0
2.5057,1783957932.7386,1,1,6.0000,0.0000,1.42241,-0.00747,-2.63236,1.06908,1.57080,0.11675,-0.12762,-0.48152,0.03460,,,,,,,,,,,,,,,,,,,,,,,,,,0,0,0,0,0
2.5297,1783957932.7626,1,1,6.0000,0.0000,1.42241,-0.00753,-2.63235,1.06915,1.57080,0.11675,-0.12762,-0.48154,0.03459,,,,,,,,,,,,,,,,,,,,,,,,,,0,0,0,0,0
2.5300,1783957932.7629,1,1,6.0000,0.0000,1.42241,-0.00753,-2.63235,1.06915,1.57080,0.11675,-0.12762,-0.48154,0.03459,,,,,,,,,,,,,,,,,,,,,,,,,,0,0,0,0,0
2.5380,1783957932.7709,1,1,6.0000,0.0000,1.42241,-0.00754,-2.63236,1.06917,1.57080,0.11675,-0.12762,-0.48154,0.03459,,,,,,,,,,,,,,,,,,,,,,,,,,0,0,0,0,0
2.5382,1783957932.7712,1,1,6.0000,0.0000,1.42241,-0.00754,-2.63236,1.06917,1.57080,0.11675,-0.12762,-0.48154,0.03459,,,,,,,,,,,,,,,,,,,,,,,,,,0,0,0,0,0
2.5473,1783957932.7802,1,1,6.0000,0.0000,1.42241,-0.00757,-2.63237,1.06920,1.57080,0.11675,-0.12762,-0.48153,0.03458,,,,,,,,,,,,,,,,,,,,,,,,,,0,0,0,0,0
2.5570,1783957932.7899,1,1,6.0000,0.0000,1.42241,-0.00761,-2.63238,1.06925,1.57080,0.11675,-0.12762,-0.48153,0.03456,,,,,,,,,,,,,,,,,,,,,,,,,,0,0,0,0,0
2.5574,1783957932.7903,1,1,6.0000,0.0000,1.42241,-0.00761,-2.63238,1.06925,1.57080,0.11675,-0.12762,-0.48153,0.03456,,,,,,,,,,,,,,,,,,,,,,,,,,0,0,0,0,0
2.5761,1783957932.8090,1,1,6.0000,0.0000,1.42241,-0.00766,-2.63240,1.06932,1.57080,0.11675,-0.12762,-0.48153,0.03454,,,,,,,,,,,,,,,,,,,,,,,,,,0,0,0,0,0
2.5793,1783957932.8122,1,1,6.0000,0.0000,1.42241,-0.00769,-2.63240,1.06935,1.57080,0.11675,-0.12762,-0.48153,0.03453,,,,,,,,,,,,,,,,,,,,,,,,,,0,0,0,0,0
2.5922,1783957932.8251,1,1,6.0000,0.0000,1.42241,-0.00775,-2.63242,1.06943,1.57080,0.11675,-0.12762,-0.48152,0.03451,,,,,,,,,,,,,,,,,,,,,,,,,,0,0,0,0,0
2.5958,1783957932.8288,1,1,6.0000,0.0000,1.42241,-0.00776,-2.63243,1.06943,1.57080,0.11675,-0.12762,-0.48152,0.03451,,,,,,,,,,,,,,,,,,,,,,,,,,0,0,0,0,0
2.6207,1783957932.8537,1,1,6.0000,0.0000,1.42241,-0.00788,-2.63246,1.06959,1.57080,0.11675,-0.12762,-0.48152,0.03446,,,,,,,,,,,,,,,,,,,,,,,,,,0,0,0,0,0
2.6210,1783957932.8540,1,1,6.0000,0.0000,1.42241,-0.00788,-2.63246,1.06959,1.57080,0.11675,-0.12762,-0.48152,0.03446,,,,,,,,,,,,,,,,,,,,,,,,,,0,0,0,0,0
2.6214,1783957932.8543,1,1,6.0000,0.0000,1.42241,-0.00788,-2.63246,1.06959,1.57080,0.11675,-0.12762,-0.48152,0.03446,,,,,,,,,,,,,,,,,,,,,,,,,,0,0,0,0,0
2.6326,1783957932.8655,1,1,6.0000,0.0000,1.42241,-0.00801,-2.63248,1.06973,1.57080,0.11675,-0.12762,-0.48152,0.03442,,,,,,,,,,,,,,,,,,,,,,,,,,0,0,0,0,0
2.6358,1783957932.8688,1,1,6.0000,0.0000,1.42241,-0.00801,-2.63248,1.06973,1.57080,0.11675,-0.12762,-0.48152,0.03442,,,,,,,,,,,,,,,,,,,,,,,,,,0,0,0,0,0
2.6368,1783957932.8697,1,1,6.0000,0.0000,1.42241,-0.00806,-2.63249,1.06980,1.57080,0.11675,-0.12762,-0.48152,0.03440,,,,,,,,,,,,,,,,,,,,,,,,,,0,0,0,0,0
2.6456,1783957932.8785,1,1,6.0000,0.0000,1.42241,-0.00812,-2.63251,1.06987,1.57080,0.11675,-0.12762,-0.48152,0.03438,,,,,,,,,,,,,,,,,,,,,,,,,,0,0,0,0,0
2.6577,1783957932.8906,1,1,6.0000,0.0000,1.42241,-0.00817,-2.63252,1.06993,1.57080,0.11675,-0.12762,-0.48152,0.03437,,,,,,,,,,,,,,,,,,,,,,,,,,0,0,0,0,0
2.6657,1783957932.8986,1,1,6.0000,0.0000,1.42241,-0.00824,-2.63253,1.07001,1.57080,0.11675,-0.12762,-0.48152,0.03434,,,,,,,,,,,,,,,,,,,,,,,,,,0,0,0,0,0
2.7322,1783957932.9651,1,1,6.0000,0.0000,1.42241,-0.00871,-2.63262,1.07058,1.57080,0.11675,-0.12762,-0.48153,0.03419,,,,,,,,,,,,,,,,,,,,,,,,,,0,0,0,0,0
2.7329,1783957932.9659,1,1,6.0000,0.0000,1.42241,-0.00872,-2.63262,1.07060,1.57080,0.11675,-0.12762,-0.48153,0.03419,,,,,,,,,,,,,,,,,,,,,,,,,,0,0,0,0,0
2.7333,1783957932.9662,1,1,6.0000,0.0000,1.42241,-0.00872,-2.63262,1.07060,1.57080,0.11675,-0.12762,-0.48153,0.03419,,,,,,,,,,,,,,,,,,,,,,,,,,0,0,0,0,0
2.7337,1783957932.9666,1,1,6.0000,0.0000,1.42241,-0.00872,-2.63262,1.07060,1.57080,0.11675,-0.12762,-0.48153,0.03419,,,,,,,,,,,,,,,,,,,,,,,,,,0,0,0,0,0
2.7410,1783957932.9739,1,1,6.0000,0.0000,1.42241,-0.00872,-2.63262,1.07060,1.57080,0.11675,-0.12762,-0.48153,0.03419,,,,,,,,,,,,,,,,,,,,,,,,,,0,0,0,0,0
2.7478,1783957932.9807,1,1,6.0000,0.0000,1.42241,-0.00873,-2.63263,1.07061,1.57080,0.11675,-0.12762,-0.48153,0.03418,,,,,,,,,,,,,,,,,,,,,,,,,,0,0,0,0,0
2.7482,1783957932.9811,1,1,6.0000,0.0000,1.42241,-0.00873,-2.63263,1.07061,1.57080,0.11675,-0.12762,-0.48153,0.03418,,,,,,,,,,,,,,,,,,,,,,,,,,0,0,0,0,0
2.7595,1783957932.9925,1,1,6.0000,0.0000,1.42241,-0.00878,-2.63264,1.07067,1.57080,0.11675,-0.12762,-0.48153,0.03417,,,,,,,,,,,,,,,,,,,,,,,,,,0,0,0,0,0
2.7659,1783957932.9989,1,1,6.0000,0.0000,1.42241,-0.00883,-2.63266,1.07073,1.57080,0.11675,-0.12762,-0.48152,0.03415,,,,,,,,,,,,,,,,,,,,,,,,,,0,0,0,0,0
2.7778,1783957933.0107,1,1,6.0000,0.0000,1.42241,-0.00884,-2.63266,1.07075,1.57080,0.11675,-0.12762,-0.48152,0.03414,,,,,,,,,,,,,,,,,,,,,,,,,,0,0,0,0,0
2.7781,1783957933.0110,1,1,6.0000,0.0000,1.42241,-0.00884,-2.63266,1.07075,1.57080,0.11675,-0.12762,-0.48152,0.03414,,,,,,,,,,,,,,,,,,,,,,,,,,0,0,0,0,0
2.8010,1783957933.0339,1,1,6.0000,0.0000,1.42241,-0.00895,-2.63269,1.07088,1.57080,0.11675,-0.12762,-0.48151,0.03410,,,,,,,,,,,,,,,,,,,,,,,,,,0,0,0,0,0
2.8013,1783957933.0342,1,1,6.0000,0.0000,1.42241,-0.00895,-2.63269,1.07088,1.57080,0.11675,-0.12762,-0.48151,0.03410,,,,,,,,,,,,,,,,,,,,,,,,,,0,0,0,0,0
2.8132,1783957933.0461,1,1,6.0000,0.0000,1.42241,-0.00899,-2.63270,1.07093,1.57080,0.11675,-0.12762,-0.48151,0.03409,,,,,,,,,,,,,,,,,,,,,,,,,,0,0,0,0,0
2.8135,1783957933.0464,1,1,6.0000,0.0000,1.42241,-0.00899,-2.63270,1.07093,1.57080,0.11675,-0.12762,-0.48151,0.03409,,,,,,,,,,,,,,,,,,,,,,,,,,0,0,0,0,0
2.8322,1783957933.0652,1,1,6.0000,0.0000,1.42240,-0.00906,-2.63272,1.07101,1.57080,0.11675,-0.12762,-0.48151,0.03406,,,,,,,,,,,,,,,,,,,,,,,,,,0,0,0,0,0
2.8326,1783957933.0655,1,1,6.0000,0.0000,1.42240,-0.00906,-2.63272,1.07101,1.57080,0.11675,-0.12762,-0.48151,0.03406,,,,,,,,,,,,,,,,,,,,,,,,,,0,0,0,0,0
2.8409,1783957933.0738,1,1,6.0000,0.0000,1.42240,-0.00915,-2.63274,1.07113,1.57080,0.11675,-0.12762,-0.48151,0.03403,,,,,,,,,,,,,,,,,,,,,,,,,,0,0,0,0,0
2.8517,1783957933.0846,1,1,6.0000,0.0000,1.42240,-0.00925,-2.63276,1.07125,1.57080,0.11675,-0.12762,-0.48151,0.03400,,,,,,,,,,,,,,,,,,,,,,,,,,0,0,0,0,0
2.8520,1783957933.0849,1,1,6.0000,0.0000,1.42240,-0.00925,-2.63276,1.07125,1.57080,0.11675,-0.12762,-0.48151,0.03400,,,,,,,,,,,,,,,,,,,,,,,,,,0,0,0,0,0
2.8642,1783957933.0971,1,1,6.0000,0.0000,1.42240,-0.00932,-2.63277,1.07132,1.57080,0.11675,-0.12762,-0.48151,0.03398,,,,,,,,,,,,,,,,,,,,,,,,,,0,0,0,0,0
2.8645,1783957933.0974,1,1,6.0000,0.0000,1.42240,-0.00932,-2.63277,1.07132,1.57080,0.11675,-0.12762,-0.48151,0.03398,,,,,,,,,,,,,,,,,,,,,,,,,,0,0,0,0,0
2.8676,1783957933.1005,1,1,6.0000,0.0000,1.42240,-0.00933,-2.63278,1.07134,1.57080,0.11675,-0.12762,-0.48151,0.03397,,,,,,,,,,,,,,,,,,,,,,,,,,0,0,0,0,0
2.8812,1783957933.1141,1,1,6.0000,0.0000,1.42240,-0.00948,-2.63281,1.07151,1.57080,0.11675,-0.12762,-0.48151,0.03392,,,,,,,,,,,,,,,,,,,,,,,,,,0,0,0,0,0
2.8879,1783957933.1208,1,1,6.0000,0.0000,1.42240,-0.00953,-2.63282,1.07157,1.57080,0.11675,-0.12762,-0.48151,0.03390,,,,,,,,,,,,,,,,,,,,,,,,,,0,0,0,0,0
2.8973,1783957933.1302,1,1,6.0000,0.0000,1.42240,-0.00968,-2.63285,1.07176,1.57080,0.11675,-0.12762,-0.48151,0.03385,,,,,,,,,,,,,,,,,,,,,,,,,,0,0,0,0,0
2.9054,1783957933.1383,1,1,6.0000,0.0000,1.42240,-0.00978,-2.63287,1.07187,1.57080,0.11675,-0.12762,-0.48151,0.03382,,,,,,,,,,,,,,,,,,,,,,,,,,0,0,0,0,0
2.9057,1783957933.1386,1,1,6.0000,0.0000,1.42240,-0.00978,-2.63287,1.07187,1.57080,0.11675,-0.12762,-0.48151,0.03382,,,,,,,,,,,,,,,,,,,,,,,,,,0,0,0,0,0
2.9178,1783957933.1507,1,1,6.0000,0.0000,1.42240,-0.00988,-2.63290,1.07200,1.57080,0.11675,-0.12762,-0.48151,0.03378,,,,,,,,,,,,,,,,,,,,,,,,,,0,0,0,0,0
2.9181,1783957933.1510,1,1,6.0000,0.0000,1.42240,-0.00988,-2.63290,1.07200,1.57080,0.11675,-0.12762,-0.48151,0.03378,,,,,,,,,,,,,,,,,,,,,,,,,,0,0,0,0,0
2.9265,1783957933.1594,1,1,6.0000,0.0000,1.42240,-0.00988,-2.63290,1.07200,1.57080,0.11675,-0.12762,-0.48151,0.03378,,,,,,,,,,,,,,,,,,,,,,,,,,0,0,0,0,0
2.9372,1783957933.1702,1,1,6.0000,0.0000,1.42240,-0.00988,-2.63290,1.07200,1.57080,0.11675,-0.12762,-0.48151,0.03378,,,,,,,,,,,,,,,,,,,,,,,,,,0,0,0,0,0
2.9481,1783957933.1811,1,1,6.0000,0.0000,1.42240,-0.00988,-2.63290,1.07200,1.57080,0.11675,-0.12762,-0.48151,0.03378,,,,,,,,,,,,,,,,,,,,,,,,,,0,0,0,0,0
2.9484,1783957933.1813,1,1,6.0000,0.0000,1.42240,-0.00988,-2.63290,1.07200,1.57080,0.11675,-0.12762,-0.48151,0.03378,,,,,,,,,,,,,,,,,,,,,,,,,,0,0,0,0,0
2.9565,1783957933.1894,1,1,6.0000,0.0000,1.42240,-0.00988,-2.63290,1.07201,1.57080,0.11675,-0.12762,-0.48151,0.03378,,,,,,,,,,,,,,,,,,,,,,,,,,0,0,0,0,0
2.9569,1783957933.1898,1,1,6.0000,0.0000,1.42240,-0.00988,-2.63290,1.07201,1.57080,0.11675,-0.12762,-0.48151,0.03378,,,,,,,,,,,,,,,,,,,,,,,,,,0,0,0,0,0
2.9766,1783957933.2096,1,1,6.0000,0.0000,1.42240,-0.00995,-2.63291,1.07209,1.57080,0.11675,-0.12761,-0.48152,0.03376,,,,,,,,,,,,,,,,,,,,,,,,,,0,0,0,0,0
2.9892,1783957933.2221,1,1,6.0000,0.0000,1.42240,-0.00999,-2.63291,1.07214,1.57080,0.11675,-0.12761,-0.48152,0.03375,,,,,,,,,,,,,,,,,,,,,,,,,,0,0,0,0,0
2.9895,1783957933.2224,1,1,6.0000,0.0000,1.42240,-0.00999,-2.63291,1.07214,1.57080,0.11675,-0.12761,-0.48152,0.03375,,,,,,,,,,,,,,,,,,,,,,,,,,0,0,0,0,0
3.0520,1783957933.2850,1,1,6.0000,0.0000,1.42240,-0.01030,-2.63299,1.07251,1.57080,0.11675,-0.12762,-0.48151,0.03364,,,,,,,,,,,,,,,,,,,,,,,,,,0,0,0,0,0
3.0524,1783957933.2853,1,1,6.0000,0.0000,1.42240,-0.01030,-2.63299,1.07251,1.57080,0.11675,-0.12762,-0.48151,0.03364,,,,,,,,,,,,,,,,,,,,,,,,,,0,0,0,0,0
3.0528,1783957933.2858,1,1,6.0000,0.0000,1.42240,-0.01030,-2.63299,1.07251,1.57080,0.11675,-0.12762,-0.48151,0.03364,,,,,,,,,,,,,,,,,,,,,,,,,,0,0,0,0,0
3.0534,1783957933.2863,1,1,6.0000,0.0000,1.42240,-0.01034,-2.63300,1.07255,1.57080,0.11675,-0.12762,-0.48151,0.03363,,,,,,,,,,,,,,,,,,,,,,,,,,0,0,0,0,0
3.0535,1783957933.2865,1,1,6.0000,0.0000,1.42240,-0.01034,-2.63300,1.07255,1.57080,0.11675,-0.12762,-0.48151,0.03363,,,,,,,,,,,,,,,,,,,,,,,,,,0,0,0,0,0
3.0733,1783957933.3062,1,1,6.0000,0.0000,1.42240,-0.01049,-2.63303,1.07274,1.57080,0.11675,-0.12762,-0.48151,0.03358,,,,,,,,,,,,,,,,,,,,,,,,,,0,0,0,0,0
3.1260,1783957933.3590,1,1,6.0000,0.0000,1.42240,-0.01103,-2.63315,1.07338,1.57081,0.11675,-0.12761,-0.48150,0.03339,,,,,,,,,,,,,,,,,,,,,,,,,,0,0,0,0,0
3.1265,1783957933.3594,1,1,6.0000,0.0000,1.42240,-0.01103,-2.63315,1.07338,1.57081,0.11675,-0.12761,-0.48150,0.03339,,,,,,,,,,,,,,,,,,,,,,,,,,0,0,0,0,0
3.1267,1783957933.3596,1,1,6.0000,0.0000,1.42240,-0.01103,-2.63315,1.07338,1.57081,0.11675,-0.12761,-0.48150,0.03339,,,,,,,,,,,,,,,,,,,,,,,,,,0,0,0,0,0
3.1269,1783957933.3599,1,1,6.0000,0.0000,1.42240,-0.01103,-2.63315,1.07338,1.57081,0.11675,-0.12761,-0.48150,0.03339,,,,,,,,,,,,,,,,,,,,,,,,,,0,0,0,0,0
3.1274,1783957933.3603,1,1,6.0000,0.0000,1.42240,-0.01103,-2.63315,1.07338,1.57081,0.11675,-0.12761,-0.48150,0.03339,,,,,,,,,,,,,,,,,,,,,,,,,,0,0,0,0,0
3.1276,1783957933.3605,1,1,6.0000,0.0000,1.42240,-0.01103,-2.63315,1.07338,1.57081,0.11675,-0.12761,-0.48150,0.03339,,,,,,,,,,,,,,,,,,,,,,,,,,0,0,0,0,0
3.1278,1783957933.3608,1,1,6.0000,0.0000,1.42240,-0.01103,-2.63315,1.07338,1.57081,0.11675,-0.12761,-0.48150,0.03339,,,,,,,,,,,,,,,,,,,,,,,,,,0,0,0,0,0
3.1281,1783957933.3610,1,1,6.0000,0.0000,1.42240,-0.01103,-2.63315,1.07338,1.57081,0.11675,-0.12761,-0.48150,0.03339,,,,,,,,,,,,,,,,,,,,,,,,,,0,0,0,0,0
3.1576,1783957933.3905,1,1,6.0000,0.0000,1.42240,-0.01105,-2.63316,1.07342,1.57081,0.11675,-0.12761,-0.48150,0.03338,,,,,,,,,,,,,,,,,,,,,,,,,,0,0,0,0,0
3.1580,1783957933.3910,1,1,6.0000,0.0000,1.42240,-0.01105,-2.63316,1.07342,1.57081,0.11675,-0.12761,-0.48150,0.03338,,,,,,,,,,,,,,,,,,,,,,,,,,0,0,0,0,0
3.1778,1783957933.4108,1,1,6.0000,0.0000,1.42240,-0.01109,-2.63316,1.07346,1.57081,0.11675,-0.12761,-0.48151,0.03337,,,,,,,,,,,,,,,,,,,,,,,,,,0,0,0,0,0
3.1872,1783957933.4202,1,1,6.0000,0.0000,1.42240,-0.01113,-2.63317,1.07352,1.57081,0.11675,-0.12761,-0.48151,0.03336,,,,,,,,,,,,,,,,,,,,,,,,,,0,0,0,0,0
3.1996,1783957933.4325,1,1,6.0000,0.0000,1.42240,-0.01122,-2.63318,1.07363,1.57081,0.11675,-0.12761,-0.48152,0.03334,,,,,,,,,,,,,,,,,,,,,,,,,,0,0,0,0,0
3.2072,1783957933.4401,1,1,6.0000,0.0000,1.42240,-0.01128,-2.63320,1.07371,1.57081,0.11675,-0.12761,-0.48151,0.03332,,,,,,,,,,,,,,,,,,,,,,,,,,0,0,0,0,0
3.2076,1783957933.4405,1,1,6.0000,0.0000,1.42240,-0.01128,-2.63320,1.07371,1.57081,0.11675,-0.12761,-0.48151,0.03332,,,,,,,,,,,,,,,,,,,,,,,,,,0,0,0,0,0
3.2177,1783957933.4506,1,1,6.0000,0.0000,1.42240,-0.01135,-2.63322,1.07379,1.57081,0.11675,-0.12761,-0.48151,0.03329,,,,,,,,,,,,,,,,,,,,,,,,,,0,0,0,0,0
3.2181,1783957933.4510,1,1,6.0000,0.0000,1.42240,-0.01135,-2.63322,1.07379,1.57081,0.11675,-0.12761,-0.48151,0.03329,,,,,,,,,,,,,,,,,,,,,,,,,,0,0,0,0,0
3.2369,1783957933.4698,1,1,6.0000,0.0000,1.42240,-0.01140,-2.63323,1.07385,1.57081,0.11675,-0.12761,-0.48151,0.03327,,,,,,,,,,,,,,,,,,,,,,,,,,0,0,0,0,0
3.2376,1783957933.4706,1,1,6.0000,0.0000,1.42240,-0.01142,-2.63323,1.07388,1.57081,0.11675,-0.12761,-0.48151,0.03327,,,,,,,,,,,,,,,,,,,,,,,,,,0,0,0,0,0
3.2379,1783957933.4708,1,1,6.0000,0.0000,1.42240,-0.01142,-2.63323,1.07388,1.57081,0.11675,-0.12761,-0.48151,0.03327,,,,,,,,,,,,,,,,,,,,,,,,,,0,0,0,0,0
3.2476,1783957933.4805,1,1,6.0000,0.0000,1.42240,-0.01148,-2.63325,1.07395,1.57081,0.11675,-0.12761,-0.48151,0.03325,,,,,,,,,,,,,,,,,,,,,,,,,,0,0,0,0,0
3.2640,1783957933.4970,1,1,6.0000,0.0000,1.42240,-0.01152,-2.63326,1.07400,1.57081,0.11675,-0.12761,-0.48151,0.03323,,,,,,,,,,,,,,,,,,,,,,,,,,0,0,0,0,0
3.2647,1783957933.4976,1,1,6.0000,0.0000,1.42240,-0.01152,-2.63326,1.07400,1.57081,0.11675,-0.12761,-0.48151,0.03323,,,,,,,,,,,,,,,,,,,,,,,,,,0,0,0,0,0
3.2735,1783957933.5064,1,1,6.0000,0.0000,1.42240,-0.01159,-2.63327,1.07409,1.57081,0.11675,-0.12761,-0.48151,0.03321,,,,,,,,,,,,,,,,,,,,,,,,,,0,0,0,0,0
3.2798,1783957933.5128,1,1,6.0000,0.0000,1.42240,-0.01160,-2.63327,1.07410,1.57081,0.11675,-0.12761,-0.48151,0.03320,,,,,,,,,,,,,,,,,,,,,,,,,,0,0,0,0,0
3.2889,1783957933.5219,1,1,6.0000,0.0000,1.42240,-0.01165,-2.63328,1.07415,1.57081,0.11675,-0.12761,-0.48151,0.03319,,,,,,,,,,,,,,,,,,,,,,,,,,0,0,0,0,0
3.2969,1783957933.5298,1,1,6.0000,0.0000,1.42240,-0.01173,-2.63330,1.07425,1.57081,0.11675,-0.12761,-0.48151,0.03316,,,,,,,,,,,,,,,,,,,,,,,,,,0,0,0,0,0
3.2976,1783957933.5305,1,1,6.0000,0.0000,1.42240,-0.01179,-2.63331,1.07432,1.57081,0.11675,-0.12761,-0.48151,0.03314,,,,,,,,,,,,,,,,,,,,,,,,,,0,0,0,0,0
3.3186,1783957933.5515,1,1,6.0000,0.0000,1.42239,-0.01188,-2.63333,1.07443,1.57081,0.11675,-0.12761,-0.48151,0.03311,,,,,,,,,,,,,,,,,,,,,,,,,,0,0,0,0,0
3.3204,1783957933.5533,1,1,6.0000,0.0000,1.42239,-0.01188,-2.63333,1.07443,1.57081,0.11675,-0.12761,-0.48151,0.03311,,,,,,,,,,,,,,,,,,,,,,,,,,0,0,0,0,0
3.3208,1783957933.5537,1,1,6.0000,0.0000,1.42239,-0.01188,-2.63333,1.07443,1.57081,0.11675,-0.12761,-0.48151,0.03311,,,,,,,,,,,,,,,,,,,,,,,,,,0,0,0,0,0
3.3277,1783957933.5606,1,1,6.0000,0.0000,1.42239,-0.01195,-2.63334,1.07451,1.57081,0.11675,-0.12761,-0.48151,0.03309,,,,,,,,,,,,,,,,,,,,,,,,,,0,0,0,0,0
3.3406,1783957933.5735,1,1,6.0000,0.0000,1.42239,-0.01207,-2.63336,1.07466,1.57081,0.11675,-0.12761,-0.48152,0.03305,,,,,,,,,,,,,,,,,,,,,,,,,,0,0,0,0,0
3.3409,1783957933.5738,1,1,6.0000,0.0000,1.42239,-0.01207,-2.63336,1.07466,1.57081,0.11675,-0.12761,-0.48152,0.03305,,,,,,,,,,,,,,,,,,,,,,,,,,0,0,0,0,0
3.4071,1783957933.6400,1,1,6.0000,0.0000,1.42239,-0.01237,-2.63340,1.07504,1.57081,0.11675,-0.12761,-0.48154,0.03297,,,,,,,,,,,,,,,,,,,,,,,,,,0,0,0,0,0
3.4075,1783957933.6404,1,1,6.0000,0.0000,1.42239,-0.01237,-2.63340,1.07504,1.57081,0.11675,-0.12761,-0.48154,0.03297,,,,,,,,,,,,,,,,,,,,,,,,,,0,0,0,0,0
3.4078,1783957933.6407,1,1,6.0000,0.0000,1.42239,-0.01237,-2.63340,1.07504,1.57081,0.11675,-0.12761,-0.48154,0.03297,,,,,,,,,,,,,,,,,,,,,,,,,,0,0,0,0,0
3.4082,1783957933.6411,1,1,6.0000,0.0000,1.42239,-0.01237,-2.63340,1.07504,1.57081,0.11675,-0.12761,-0.48154,0.03297,,,,,,,,,,,,,,,,,,,,,,,,,,0,0,0,0,0
3.4164,1783957933.6493,1,1,6.0000,0.0000,1.42239,-0.01240,-2.63341,1.07508,1.57081,0.11675,-0.12761,-0.48154,0.03295,,,,,,,,,,,,,,,,,,,,,,,,,,0,0,0,0,0
3.4167,1783957933.6496,1,1,6.0000,0.0000,1.42239,-0.01240,-2.63341,1.07508,1.57081,0.11675,-0.12761,-0.48154,0.03295,,,,,,,,,,,,,,,,,,,,,,,,,,0,0,0,0,0
3.4275,1783957933.6604,1,1,6.0000,0.0000,1.42239,-0.01247,-2.63344,1.07516,1.57081,0.11675,-0.12761,-0.48153,0.03292,,,,,,,,,,,,,,,,,,,,,,,,,,0,0,0,0,0
3.4592,1783957933.6921,1,1,6.0000,0.0000,1.42239,-0.01257,-2.63346,1.07529,1.57081,0.11675,-0.12761,-0.48153,0.03289,,,,,,,,,,,,,,,,,,,,,,,,,,0,0,0,0,0
3.4715,1783957933.7044,1,1,6.0000,0.0000,1.42239,-0.01266,-2.63349,1.07540,1.57081,0.11675,-0.12761,-0.48152,0.03286,,,,,,,,,,,,,,,,,,,,,,,,,,0,0,0,0,0
3.4972,1783957933.7301,1,1,6.0000,0.0000,1.42239,-0.01285,-2.63353,1.07562,1.57081,0.11675,-0.12761,-0.48152,0.03279,,,,,,,,,,,,,,,,,,,,,,,,,,0,0,0,0,0
3.4978,1783957933.7307,1,1,6.0000,0.0000,1.42239,-0.01287,-2.63354,1.07565,1.57081,0.11675,-0.12761,-0.48152,0.03278,,,,,,,,,,,,,,,,,,,,,,,,,,0,0,0,0,0
3.5000,1783957933.7329,1,1,6.0000,0.0000,1.42239,-0.01287,-2.63354,1.07565,1.57081,0.11675,-0.12761,-0.48152,0.03278,,,,,,,,,,,,,,,,,,,,,,,,,,0,0,0,0,0
3.5003,1783957933.7333,1,1,6.0000,0.0000,1.42239,-0.01287,-2.63354,1.07565,1.57081,0.11675,-0.12761,-0.48152,0.03278,,,,,,,,,,,,,,,,,,,,,,,,,,0,0,0,0,0
3.5076,1783957933.7405,1,1,6.0000,0.0000,1.42239,-0.01295,-2.63355,1.07574,1.57081,0.11675,-0.12761,-0.48152,0.03276,,,,,,,,,,,,,,,,,,,,,,,,,,0,0,0,0,0
3.5159,1783957933.7488,1,1,6.0000,0.0000,1.42239,-0.01305,-2.63357,1.07586,1.57081,0.11675,-0.12761,-0.48152,0.03273,,,,,,,,,,,,,,,,,,,,,,,,,,0,0,0,0,0
3.5163,1783957933.7492,1,1,6.0000,0.0000,1.42239,-0.01305,-2.63357,1.07586,1.57081,0.11675,-0.12761,-0.48152,0.03273,,,,,,,,,,,,,,,,,,,,,,,,,,0,0,0,0,0
3.5307,1783957933.7636,1,1,6.0000,0.0000,1.42239,-0.01311,-2.63359,1.07594,1.57081,0.11675,-0.12761,-0.48152,0.03270,,,,,,,,,,,,,,,,,,,,,,,,,,0,0,0,0,0
3.5310,1783957933.7640,1,1,6.0000,0.0000,1.42239,-0.01311,-2.63359,1.07594,1.57081,0.11675,-0.12761,-0.48152,0.03270,,,,,,,,,,,,,,,,,,,,,,,,,,0,0,0,0,0
3.5355,1783957933.7684,1,1,6.0000,0.0000,1.42239,-0.01313,-2.63359,1.07597,1.57081,0.11675,-0.12761,-0.48152,0.03270,,,,,,,,,,,,,,,,,,,,,,,,,,0,0,0,0,0
3.5360,1783957933.7690,1,1,6.0000,0.0000,1.42239,-0.01313,-2.63359,1.07597,1.57081,0.11675,-0.12761,-0.48152,0.03270,,,,,,,,,,,,,,,,,,,,,,,,,,0,0,0,0,0
3.5697,1783957933.8026,1,1,6.0000,0.0000,1.42239,-0.01343,-2.63362,1.07634,1.57081,0.11675,-0.12760,-0.48155,0.03261,,,,,,,,,,,,,,,,,,,,,,,,,,0,0,0,0,0
3.5699,1783957933.8028,1,1,6.0000,0.0000,1.42239,-0.01343,-2.63362,1.07634,1.57081,0.11675,-0.12760,-0.48155,0.03261,,,,,,,,,,,,,,,,,,,,,,,,,,0,0,0,0,0
3.5806,1783957933.8136,1,1,6.0000,0.0000,1.42239,-0.01346,-2.63362,1.07637,1.57081,0.11675,-0.12760,-0.48155,0.03261,,,,,,,,,,,,,,,,,,,,,,,,,,0,0,0,0,0
3.6041,1783957933.8371,1,1,6.0000,0.0000,1.42239,-0.01350,-2.63363,1.07643,1.57081,0.11675,-0.12760,-0.48155,0.03259,,,,,,,,,,,,,,,,,,,,,,,,,,0,0,0,0,0
3.6045,1783957933.8374,1,1,6.0000,0.0000,1.42239,-0.01350,-2.63363,1.07643,1.57081,0.11675,-0.12760,-0.48155,0.03259,,,,,,,,,,,,,,,,,,,,,,,,,,0,0,0,0,0
3.6236,1783957933.8565,1,1,6.0000,0.0000,1.42239,-0.01358,-2.63366,1.07652,1.57081,0.11675,-0.12760,-0.48154,0.03256,,,,,,,,,,,,,,,,,,,,,,,,,,0,0,0,0,0
3.6240,1783957933.8569,1,1,6.0000,0.0000,1.42239,-0.01358,-2.63366,1.07652,1.57081,0.11675,-0.12760,-0.48154,0.03256,,,,,,,,,,,,,,,,,,,,,,,,,,0,0,0,0,0
3.6469,1783957933.8799,1,1,6.0000,0.0000,1.42239,-0.01367,-2.63369,1.07663,1.57081,0.11675,-0.12760,-0.48153,0.03253,,,,,,,,,,,,,,,,,,,,,,,,,,0,0,0,0,0
3.6554,1783957933.8883,1,1,6.0000,0.0000,1.42239,-0.01372,-2.63371,1.07670,1.57081,0.11675,-0.12760,-0.48153,0.03251,,,,,,,,,,,,,,,,,,,,,,,,,,0,0,0,0,0
3.6556,1783957933.8886,1,1,6.0000,0.0000,1.42239,-0.01372,-2.63371,1.07670,1.57081,0.11675,-0.12760,-0.48153,0.03251,,,,,,,,,,,,,,,,,,,,,,,,,,0,0,0,0,0
3.6631,1783957933.8960,1,1,6.0000,0.0000,1.42239,-0.01379,-2.63373,1.07678,1.57081,0.11675,-0.12760,-0.48153,0.03248,,,,,,,,,,,,,,,,,,,,,,,,,,0,0,0,0,0
3.6718,1783957933.9047,1,1,6.0000,0.0000,1.42239,-0.01383,-2.63374,1.07683,1.57081,0.11675,-0.12760,-0.48153,0.03247,,,,,,,,,,,,,,,,,,,,,,,,,,0,0,0,0,0
3.6757,1783957933.9087,1,1,6.0000,0.0000,1.42239,-0.01384,-2.63374,1.07684,1.57081,0.11675,-0.12760,-0.48153,0.03246,,,,,,,,,,,,,,,,,,,,,,,,,,0,0,0,0,0
3.6760,1783957933.9090,1,1,6.0000,0.0000,1.42239,-0.01384,-2.63374,1.07684,1.57081,0.11675,-0.12760,-0.48153,0.03246,,,,,,,,,,,,,,,,,,,,,,,,,,0,0,0,0,0
3.6900,1783957933.9229,1,1,6.0000,0.0000,1.42239,-0.01395,-2.63376,1.07697,1.57081,0.11675,-0.12761,-0.48152,0.03243,,,,,,,,,,,,,,,,,,,,,,,,,,0,0,0,0,0
3.6903,1783957933.9232,1,1,6.0000,0.0000,1.42239,-0.01395,-2.63376,1.07697,1.57081,0.11675,-0.12761,-0.48152,0.03243,,,,,,,,,,,,,,,,,,,,,,,,,,0,0,0,0,0
3.7234,1783957933.9563,1,1,6.0000,0.0000,1.42239,-0.01416,-2.63381,1.07723,1.57081,0.11675,-0.12761,-0.48152,0.03235,,,,,,,,,,,,,,,,,,,,,,,,,,0,0,0,0,0
3.7237,1783957933.9566,1,1,6.0000,0.0000,1.42239,-0.01416,-2.63381,1.07723,1.57081,0.11675,-0.12761,-0.48152,0.03235,,,,,,,,,,,,,,,,,,,,,,,,,,0,0,0,0,0
3.7239,1783957933.9569,1,1,6.0000,0.0000,1.42239,-0.01416,-2.63381,1.07723,1.57081,0.11675,-0.12761,-0.48152,0.03235,,,,,,,,,,,,,,,,,,,,,,,,,,0,0,0,0,0
3.7689,1783957934.0018,1,1,6.0000,0.0000,1.42239,-0.01453,-2.63388,1.07767,1.57081,0.11675,-0.12760,-0.48153,0.03224,,,,,,,,,,,,,,,,,,,,,,,,,,0,0,0,0,0
3.7695,1783957934.0025,1,1,6.0000,0.0000,1.42238,-0.01457,-2.63389,1.07773,1.57081,0.11675,-0.12760,-0.48153,0.03222,,,,,,,,,,,,,,,,,,,,,,,,,,0,0,0,0,0
3.7700,1783957934.0030,1,1,6.0000,0.0000,1.42238,-0.01457,-2.63389,1.07773,1.57081,0.11675,-0.12760,-0.48153,0.03222,,,,,,,,,,,,,,,,,,,,,,,,,,0,0,0,0,0
3.7704,1783957934.0033,1,1,6.0000,0.0000,1.42238,-0.01457,-2.63389,1.07773,1.57081,0.11675,-0.12760,-0.48153,0.03222,,,,,,,,,,,,,,,,,,,,,,,,,,0,0,0,0,0
3.7861,1783957934.0190,1,1,6.0000,0.0000,1.42238,-0.01465,-2.63389,1.07782,1.57081,0.11675,-0.12760,-0.48154,0.03220,,,,,,,,,,,,,,,,,,,,,,,,,,0,0,0,0,0
3.7912,1783957934.0241,1,1,6.0000,0.0000,1.42238,-0.01466,-2.63389,1.07783,1.57081,0.11675,-0.12760,-0.48154,0.03220,,,,,,,,,,,,,,,,,,,,,,,,,,0,0,0,0,0
3.8076,1783957934.0405,1,1,6.0000,0.0000,1.42238,-0.01470,-2.63390,1.07789,1.57081,0.11675,-0.12760,-0.48154,0.03219,,,,,,,,,,,,,,,,,,,,,,,,,,0,0,0,0,0
3.8080,1783957934.0409,1,1,6.0000,0.0000,1.42238,-0.01470,-2.63390,1.07789,1.57081,0.11675,-0.12760,-0.48154,0.03219,,,,,,,,,,,,,,,,,,,,,,,,,,0,0,0,0,0
3.8180,1783957934.0509,1,1,6.0000,0.0000,1.42238,-0.01472,-2.63390,1.07791,1.57081,0.11674,-0.12760,-0.48154,0.03218,,,,,,,,,,,,,,,,,,,,,,,,,,0,0,0,0,0
3.8259,1783957934.0589,1,1,6.0000,0.0000,1.42238,-0.01474,-2.63391,1.07794,1.57081,0.11674,-0.12760,-0.48154,0.03217,,,,,,,,,,,,,,,,,,,,,,,,,,0,0,0,0,0
3.8458,1783957934.0788,1,1,6.0000,0.0000,1.42238,-0.01486,-2.63395,1.07808,1.57081,0.11674,-0.12760,-0.48153,0.03212,,,,,,,,,,,,,,,,,,,,,,,,,,0,0,0,0,0
3.8602,1783957934.0931,1,1,6.0000,0.0000,1.42238,-0.01488,-2.63396,1.07810,1.57081,0.11674,-0.12760,-0.48153,0.03212,,,,,,,,,,,,,,,,,,,,,,,,,,0,0,0,0,0
3.8809,1783957934.1138,1,1,6.0000,0.0000,1.42238,-0.01502,-2.63399,1.07827,1.57081,0.11674,-0.12760,-0.48153,0.03207,,,,,,,,,,,,,,,,,,,,,,,,,,0,0,0,0,0
3.8812,1783957934.1141,1,1,6.0000,0.0003,1.42238,-0.01502,-2.63399,1.07827,1.57081,0.11674,-0.12760,-0.48153,0.03207,,,,,,,,,,,,,,,,,,,,,,,,,,0,0,0,0,0
3.8817,1783957934.1147,1,1,6.0000,0.0165,1.42238,-0.01502,-2.63399,1.07827,1.57081,0.11674,-0.12760,-0.48153,0.03207,,,,,,,,,,,,,,,,,,,,,,,,,,0,0,0,0,0
3.8958,1783957934.1287,1,1,6.0000,0.3561,1.42238,-0.01506,-2.63400,1.07833,1.57081,0.11674,-0.12760,-0.48152,0.03205,,,,,,,,,,,,,,,,,,,,,,,,,,0,0,0,0,0
3.9468,1783957934.1798,1,1,6.0000,0.0540,1.42238,-0.01541,-2.63408,1.07874,1.57081,0.11674,-0.12760,-0.48152,0.03193,,,,,,,,,,,,,,,,,,,,,,,,,,0,0,0,0,0
3.9780,1783957934.2109,1,1,6.0000,0.0025,1.42238,-0.01572,-2.63414,1.07912,1.57081,0.11674,-0.12760,-0.48153,0.03184,,,,,,,,,,,,,,,,,,,,,,,,,,0,0,0,0,0
3.9784,1783957934.2113,1,1,6.0000,0.1462,1.42238,-0.01572,-2.63414,1.07912,1.57081,0.11674,-0.12760,-0.48153,0.03184,,,,,,,,,,,,,,,,,,,,,,,,,,0,0,0,0,0
3.9789,1783957934.2118,1,1,6.0000,0.1474,1.42238,-0.01572,-2.63414,1.07912,1.57081,0.11674,-0.12760,-0.48153,0.03184,,,,,,,,,,,,,,,,,,,,,,,,,,0,0,0,0,0
3.9796,1783957934.2125,1,1,6.0000,0.0985,1.42238,-0.01572,-2.63414,1.07912,1.57081,0.11674,-0.12760,-0.48153,0.03184,,,,,,,,,,,,,,,,,,,,,,,,,,0,0,0,0,0
3.9800,1783957934.2129,1,1,6.0000,0.0960,1.42238,-0.01572,-2.63414,1.07912,1.57081,0.11674,-0.12760,-0.48153,0.03184,,,,,,,,,,,,,,,,,,,,,,,,,,0,0,0,0,0
3.9862,1783957934.2191,1,1,6.0000,0.0642,1.42238,-0.01580,-2.63414,1.07922,1.57082,0.11674,-0.12760,-0.48154,0.03181,,,,,,,,,,,,,,,,,,,,,,,,,,0,0,0,0,0
3.9865,1783957934.2194,1,1,6.0000,0.0498,1.42238,-0.01580,-2.63414,1.07922,1.57082,0.11674,-0.12760,-0.48154,0.03181,,,,,,,,,,,,,,,,,,,,,,,,,,0,0,0,0,0
3.9972,1783957934.2301,1,1,6.0000,0.0189,1.42238,-0.01586,-2.63415,1.07930,1.57082,0.11674,-0.12760,-0.48155,0.03180,,,,,,,,,,,,,,,,,,,,,,,,,,0,0,0,0,0
4.0077,1783957934.2406,1,1,6.0000,0.0073,1.42238,-0.01588,-2.63415,1.07932,1.57082,0.11674,-0.12760,-0.48155,0.03179,,,,,,,,,,,,,,,,,,,,,,,,,,0,0,0,0,0
4.0201,1783957934.2530,1,1,6.0000,0.0032,1.42238,-0.01588,-2.63415,1.07932,1.57082,0.11674,-0.12760,-0.48155,0.03179,,,,,,,,,,,,,,,,,,,,,,,,,,0,0,0,0,0
4.0277,1783957934.2606,1,1,6.0000,0.0169,1.42238,-0.01588,-2.63415,1.07932,1.57082,0.11674,-0.12760,-0.48155,0.03179,,,,,,,,,,,,,,,,,,,,,,,,,,0,0,0,0,0
4.0399,1783957934.2728,1,1,6.0000,0.1902,1.42238,-0.01588,-2.63415,1.07932,1.57082,0.11674,-0.12760,-0.48155,0.03179,,,,,,,,,,,,,,,,,,,,,,,,,,0,0,0,0,0
4.0473,1783957934.2802,1,1,6.0000,0.1887,1.42238,-0.01588,-2.63415,1.07932,1.57082,0.11674,-0.12760,-0.48155,0.03179,,,,,,,,,,,,,,,,,,,,,,,,,,0,0,0,0,0
4.0706,1783957934.3035,1,1,6.0000,0.0952,1.42238,-0.01588,-2.63415,1.07932,1.57082,0.11674,-0.12760,-0.48155,0.03179,,,,,,,,,,,,,,,,,,,,,,,,,,0,0,0,0,0
4.0710,1783957934.3040,1,1,6.0000,0.0441,1.42238,-0.01588,-2.63415,1.07932,1.57082,0.11674,-0.12760,-0.48155,0.03179,,,,,,,,,,,,,,,,,,,,,,,,,,0,0,0,0,0
4.0774,1783957934.3104,1,1,6.0000,0.0133,1.42238,-0.01588,-2.63415,1.07932,1.57082,0.11674,-0.12760,-0.48155,0.03179,,,,,,,,,,,,,,,,,,,,,,,,,,0,0,0,0,0
4.0889,1783957934.3218,1,1,6.0000,0.0046,1.42238,-0.01588,-2.63415,1.07932,1.57082,0.11674,-0.12760,-0.48155,0.03179,,,,,,,,,,,,,,,,,,,,,,,,,,0,0,0,0,0
4.0964,1783957934.3294,1,1,6.0000,0.0019,1.42238,-0.01588,-2.63415,1.07932,1.57082,0.11674,-0.12760,-0.48155,0.03179,,,,,,,,,,,,,,,,,,,,,,,,,,0,0,0,0,0
4.1089,1783957934.3418,1,1,6.0000,0.0094,1.42238,-0.01588,-2.63415,1.07932,1.57082,0.11674,-0.12760,-0.48155,0.03179,,,,,,,,,,,,,,,,,,,,,,,,,,0,0,0,0,0
4.1093,1783957934.3423,1,1,6.0000,0.0201,1.42238,-0.01588,-2.63415,1.07932,1.57082,0.11674,-0.12760,-0.48155,0.03179,,,,,,,,,,,,,,,,,,,,,,,,,,0,0,0,0,0
4.1260,1783957934.3589,1,1,6.0000,0.0623,1.42238,-0.01588,-2.63415,1.07932,1.57082,0.11674,-0.12760,-0.48155,0.03179,,,,,,,,,,,,,,,,,,,,,,,,,,0,0,0,0,0
4.1274,1783957934.3604,1,1,6.0000,0.0811,1.42238,-0.01588,-2.63415,1.07932,1.57082,0.11674,-0.12760,-0.48155,0.03179,,,,,,,,,,,,,,,,,,,,,,,,,,0,0,0,0,0
4.1279,1783957934.3608,1,1,6.0000,0.0649,1.42238,-0.01588,-2.63415,1.07932,1.57082,0.11674,-0.12760,-0.48155,0.03179,,,,,,,,,,,,,,,,,,,,,,,,,,0,0,0,0,0
4.1460,1783957934.3789,1,1,6.0000,0.0443,1.42238,-0.01588,-2.63415,1.07932,1.57082,0.11674,-0.12760,-0.48155,0.03179,,,,,,,,,,,,,,,,,,,,,,,,,,0,0,0,0,0
4.1709,1783957934.4039,1,1,6.0000,0.0215,1.42238,-0.01588,-2.63415,1.07932,1.57082,0.11674,-0.12760,-0.48155,0.03179,,,,,,,,,,,,,,,,,,,,,,,,,,0,0,0,0,0
4.1714,1783957934.4043,1,1,6.0000,0.0122,1.42238,-0.01588,-2.63415,1.07932,1.57082,0.11674,-0.12760,-0.48155,0.03179,,,,,,,,,,,,,,,,,,,,,,,,,,0,0,0,0,0
4.1808,1783957934.4137,1,1,6.0000,0.0061,1.42238,-0.01588,-2.63415,1.07932,1.57082,0.11674,-0.12760,-0.48155,0.03179,,,,,,,,,,,,,,,,,,,,,,,,,,0,0,0,0,0
4.1841,1783957934.4170,1,1,6.0000,0.0047,1.42238,-0.01588,-2.63415,1.07932,1.57082,0.11674,-0.12760,-0.48155,0.03179,,,,,,,,,,,,,,,,,,,,,,,,,,0,0,0,0,0
4.1846,1783957934.4175,1,1,6.0000,0.0052,1.42238,-0.01588,-2.63415,1.07932,1.57082,0.11674,-0.12760,-0.48155,0.03179,,,,,,,,,,,,,,,,,,,,,,,,,,0,0,0,0,0
4.1876,1783957934.4205,1,1,6.0000,0.0161,1.42238,-0.01588,-2.63415,1.07932,1.57082,0.11674,-0.12760,-0.48155,0.03179,,,,,,,,,,,,,,,,,,,,,,,,,,0,0,0,0,0
4.1880,1783957934.4209,1,1,6.0000,0.0343,1.42238,-0.01588,-2.63415,1.07932,1.57082,0.11674,-0.12760,-0.48155,0.03179,,,,,,,,,,,,,,,,,,,,,,,,,,0,0,0,0,0
4.1957,1783957934.4287,1,1,6.0000,0.0596,1.42238,-0.01588,-2.63415,1.07932,1.57082,0.11674,-0.12760,-0.48155,0.03179,,,,,,,,,,,,,,,,,,,,,,,,,,0,0,0,0,0
4.2107,1783957934.4436,1,1,6.0000,0.0416,1.42238,-0.01588,-2.63415,1.07932,1.57082,0.11674,-0.12760,-0.48155,0.03179,,,,,,,,,,,,,,,,,,,,,,,,,,0,0,0,0,0
4.2155,1783957934.4484,1,1,6.0000,0.0288,1.42238,-0.01588,-2.63415,1.07932,1.57082,0.11674,-0.12760,-0.48155,0.03179,,,,,,,,,,,,,,,,,,,,,,,,,,0,0,0,0,0
4.2263,1783957934.4592,1,1,6.0000,0.0219,1.42238,-0.01588,-2.63415,1.07932,1.57082,0.11674,-0.12760,-0.48155,0.03179,,,,,,,,,,,,,,,,,,,,,,,,,,0,0,0,0,0
4.2266,1783957934.4596,1,1,6.0000,0.0162,1.42238,-0.01588,-2.63415,1.07932,1.57082,0.11674,-0.12760,-0.48155,0.03179,,,,,,,,,,,,,,,,,,,,,,,,,,0,0,0,0,0
4.2386,1783957934.4715,1,1,6.0000,0.0087,1.42238,-0.01588,-2.63415,1.07932,1.57082,0.11674,-0.12760,-0.48155,0.03179,,,,,,,,,,,,,,,,,,,,,,,,,,0,0,0,0,0
4.2590,1783957934.4919,1,1,6.0000,0.0048,1.42238,-0.01588,-2.63415,1.07932,1.57082,0.11674,-0.12760,-0.48155,0.03179,,,,,,,,,,,,,,,,,,,,,,,,,,0,0,0,0,0
4.2798,1783957934.5127,1,1,6.0000,0.0114,1.42238,-0.01588,-2.63415,1.07932,1.57082,0.11674,-0.12760,-0.48155,0.03179,,,,,,,,,,,,,,,,,,,,,,,,,,0,0,0,0,0
4.2800,1783957934.5129,1,1,6.0000,0.0393,1.42238,-0.01588,-2.63415,1.07932,1.57082,0.11674,-0.12760,-0.48155,0.03179,,,,,,,,,,,,,,,,,,,,,,,,,,0,0,0,0,0
4.2803,1783957934.5132,1,1,6.0000,0.0381,1.42238,-0.01588,-2.63415,1.07932,1.57082,0.11674,-0.12760,-0.48155,0.03179,,,,,,,,,,,,,,,,,,,,,,,,,,0,0,0,0,0
4.2866,1783957934.5195,1,1,6.0000,0.0265,1.42238,-0.01588,-2.63415,1.07932,1.57082,0.11674,-0.12760,-0.48155,0.03179,,,,,,,,,,,,,,,,,,,,,,,,,,0,0,0,0,0
4.3037,1783957934.5366,1,1,6.0000,0.0184,1.42238,-0.01588,-2.63415,1.07932,1.57082,0.11674,-0.12760,-0.48155,0.03179,,,,,,,,,,,,,,,,,,,,,,,,,,0,0,0,0,0
4.3312,1783957934.5641,1,1,6.0000,0.0087,1.42238,-0.01588,-2.63415,1.07932,1.57082,0.11674,-0.12760,-0.48155,0.03179,,,,,,,,,,,,,,,,,,,,,,,,,,0,0,0,0,0
4.3315,1783957934.5645,1,1,6.0000,0.0054,1.42238,-0.01588,-2.63415,1.07932,1.57082,0.11674,-0.12760,-0.48155,0.03179,,,,,,,,,,,,,,,,,,,,,,,,,,0,0,0,0,0
4.3317,1783957934.5646,1,1,6.0000,0.0040,1.42238,-0.01588,-2.63415,1.07932,1.57082,0.11674,-0.12760,-0.48155,0.03179,,,,,,,,,,,,,,,,,,,,,,,,,,0,0,0,0,0
4.3357,1783957934.5686,1,1,6.0000,0.0080,1.42238,-0.01588,-2.63415,1.07932,1.57082,0.11674,-0.12760,-0.48155,0.03179,,,,,,,,,,,,,,,,,,,,,,,,,,0,0,0,0,0
4.3981,1783957934.6310,1,1,6.0000,0.0088,1.42238,-0.01588,-2.63415,1.07932,1.57082,0.11674,-0.12760,-0.48155,0.03179,,,,,,,,,,,,,,,,,,,,,,,,,,0,0,0,0,0
4.3984,1783957934.6313,1,1,6.0000,0.0059,1.42238,-0.01588,-2.63415,1.07932,1.57082,0.11674,-0.12760,-0.48155,0.03179,,,,,,,,,,,,,,,,,,,,,,,,,,0,0,0,0,0
4.3987,1783957934.6316,1,1,6.0000,0.0040,1.42238,-0.01588,-2.63415,1.07932,1.57082,0.11674,-0.12760,-0.48155,0.03179,,,,,,,,,,,,,,,,,,,,,,,,,,0,0,0,0,0
4.3991,1783957934.6320,1,1,6.0000,0.0029,1.42238,-0.01588,-2.63415,1.07932,1.57082,0.11674,-0.12760,-0.48155,0.03179,,,,,,,,,,,,,,,,,,,,,,,,,,0,0,0,0,0
4.4036,1783957934.6365,1,1,6.0000,0.0020,1.42238,-0.01588,-2.63415,1.07932,1.57082,0.11674,-0.12760,-0.48155,0.03179,,,,,,,,,,,,,,,,,,,,,,,,,,0,0,0,0,0
4.4200,1783957934.6529,1,1,6.0000,0.0014,1.42238,-0.01588,-2.63415,1.07932,1.57082,0.11674,-0.12760,-0.48155,0.03179,,,,,,,,,,,,,,,,,,,,,,,,,,0,0,0,0,0
4.5066,1783957934.7395,1,1,6.0000,0.0059,1.42238,-0.01594,-2.63418,1.07940,1.57082,0.11674,-0.12760,-0.48153,0.03176,,,,,,,,,,,,,,,,,,,,,,,,,,0,0,0,0,0
4.5070,1783957934.7399,1,1,6.0000,0.0083,1.42238,-0.01594,-2.63418,1.07940,1.57082,0.11674,-0.12760,-0.48153,0.03176,,,,,,,,,,,,,,,,,,,,,,,,,,0,0,0,0,0
4.5073,1783957934.7402,1,1,6.0000,0.0049,1.42238,-0.01594,-2.63418,1.07940,1.57082,0.11674,-0.12760,-0.48153,0.03176,,,,,,,,,,,,,,,,,,,,,,,,,,0,0,0,0,0
4.5075,1783957934.7404,1,1,6.0000,0.0029,1.42238,-0.01594,-2.63418,1.07940,1.57082,0.11674,-0.12760,-0.48153,0.03176,,,,,,,,,,,,,,,,,,,,,,,,,,0,0,0,0,0
4.5080,1783957934.7409,1,1,6.0000,0.0024,1.42238,-0.01594,-2.63418,1.07940,1.57082,0.11674,-0.12760,-0.48153,0.03176,,,,,,,,,,,,,,,,,,,,,,,,,,0,0,0,0,0
4.5084,1783957934.7413,1,1,6.0000,0.0025,1.42238,-0.01594,-2.63418,1.07940,1.57082,0.11674,-0.12760,-0.48153,0.03176,,,,,,,,,,,,,,,,,,,,,,,,,,0,0,0,0,0
4.5092,1783957934.7421,1,1,6.0000,0.0020,1.42238,-0.01594,-2.63418,1.07940,1.57082,0.11674,-0.12760,-0.48153,0.03176,,,,,,,,,,,,,,,,,,,,,,,,,,0,0,0,0,0
4.5096,1783957934.7425,1,1,6.0000,0.0015,1.42238,-0.01594,-2.63418,1.07940,1.57082,0.11674,-0.12760,-0.48153,0.03176,,,,,,,,,,,,,,,,,,,,,,,,,,0,0,0,0,0
4.5264,1783957934.7593,1,1,6.0000,0.0011,1.42238,-0.01594,-2.63418,1.07940,1.57082,0.11674,-0.12760,-0.48153,0.03176,,,,,,,,,,,,,,,,,,,,,,,,,,0,0,0,0,0
4.5269,1783957934.7598,1,1,6.0000,0.0008,1.42238,-0.01594,-2.63418,1.07940,1.57082,0.11674,-0.12760,-0.48153,0.03176,,,,,,,,,,,,,,,,,,,,,,,,,,0,0,0,0,0
4.5408,1783957934.7737,1,1,6.0000,0.0006,1.42238,-0.01594,-2.63418,1.07940,1.57082,0.11674,-0.12760,-0.48153,0.03176,,,,,,,,,,,,,,,,,,,,,,,,,,0,0,0,0,0
4.5486,1783957934.7815,1,1,6.0000,0.0005,1.42238,-0.01594,-2.63418,1.07940,1.57082,0.11674,-0.12760,-0.48153,0.03176,,,,,,,,,,,,,,,,,,,,,,,,,,0,0,0,0,0
4.5552,1783957934.7881,1,1,6.0000,0.0004,1.42238,-0.01594,-2.63418,1.07940,1.57082,0.11674,-0.12760,-0.48153,0.03176,,,,,,,,,,,,,,,,,,,,,,,,,,0,0,0,0,0
4.5555,1783957934.7885,1,1,6.0000,0.0007,1.42238,-0.01594,-2.63418,1.07940,1.57082,0.11674,-0.12760,-0.48153,0.03176,,,,,,,,,,,,,,,,,,,,,,,,,,0,0,0,0,0
4.5882,1783957934.8211,1,1,6.0000,0.0106,1.42238,-0.01594,-2.63418,1.07940,1.57082,0.11674,-0.12760,-0.48153,0.03176,,,,,,,,,,,,,,,,,,,,,,,,,,0,0,0,0,0
4.5885,1783957934.8214,1,1,6.0000,0.0091,1.42238,-0.01594,-2.63418,1.07940,1.57082,0.11674,-0.12760,-0.48153,0.03176,,,,,,,,,,,,,,,,,,,,,,,,,,0,0,0,0,0
4.5891,1783957934.8220,1,1,6.0000,0.0066,1.42238,-0.01594,-2.63418,1.07940,1.57082,0.11674,-0.12760,-0.48153,0.03176,,,,,,,,,,,,,,,,,,,,,,,,,,0,0,0,0,0
4.5975,1783957934.8304,1,1,6.0000,0.0051,1.42238,-0.01594,-2.63418,1.07940,1.57082,0.11674,-0.12760,-0.48153,0.03176,,,,,,,,,,,,,,,,,,,,,,,,,,0,0,0,0,0
4.6085,1783957934.8414,1,1,6.0000,0.0038,1.42238,-0.01594,-2.63418,1.07940,1.57082,0.11674,-0.12760,-0.48153,0.03176,,,,,,,,,,,,,,,,,,,,,,,,,,0,0,0,0,0
4.6208,1783957934.8537,1,1,6.0000,0.0028,1.42238,-0.01594,-2.63418,1.07940,1.57082,0.11674,-0.12760,-0.48153,0.03176,,,,,,,,,,,,,,,,,,,,,,,,,,0,0,0,0,0
4.6262,1783957934.8591,1,1,6.0000,0.0020,1.42238,-0.01594,-2.63418,1.07940,1.57082,0.11674,-0.12760,-0.48153,0.03176,,,,,,,,,,,,,,,,,,,,,,,,,,0,0,0,0,0
4.6363,1783957934.8693,1,1,6.0000,0.0018,1.42238,-0.01594,-2.63418,1.07940,1.57082,0.11674,-0.12760,-0.48153,0.03176,,,,,,,,,,,,,,,,,,,,,,,,,,0,0,0,0,0
4.6366,1783957934.8696,1,1,6.0000,0.0018,1.42238,-0.01594,-2.63418,1.07940,1.57082,0.11674,-0.12760,-0.48153,0.03176,,,,,,,,,,,,,,,,,,,,,,,,,,0,0,0,0,0
4.6459,1783957934.8788,1,1,6.0000,0.0014,1.42238,-0.01594,-2.63418,1.07940,1.57082,0.11674,-0.12760,-0.48153,0.03176,,,,,,,,,,,,,,,,,,,,,,,,,,0,0,0,0,0
4.6581,1783957934.8910,1,1,6.0000,0.0012,1.42238,-0.01594,-2.63418,1.07940,1.57082,0.11674,-0.12760,-0.48153,0.03176,,,,,,,,,,,,,,,,,,,,,,,,,,0,0,0,0,0
4.6584,1783957934.8913,1,1,6.0000,0.0010,1.42238,-0.01594,-2.63418,1.07940,1.57082,0.11674,-0.12760,-0.48153,0.03176,,,,,,,,,,,,,,,,,,,,,,,,,,0,0,0,0,0
4.6661,1783957934.8990,1,1,6.0000,0.0008,1.42238,-0.01594,-2.63418,1.07940,1.57082,0.11674,-0.12760,-0.48153,0.03176,,,,,,,,,,,,,,,,,,,,,,,,,,0,0,0,0,0
4.6821,1783957934.9150,1,1,6.0000,0.0006,1.42238,-0.01594,-2.63418,1.07940,1.57082,0.11674,-0.12760,-0.48153,0.03176,,,,,,,,,,,,,,,,,,,,,,,,,,0,0,0,0,0
4.6824,1783957934.9154,1,1,6.0000,0.0006,1.42238,-0.01594,-2.63418,1.07940,1.57082,0.11674,-0.12760,-0.48153,0.03176,,,,,,,,,,,,,,,,,,,,,,,,,,0,0,0,0,0
4.6872,1783957934.9201,1,1,6.0000,0.0004,1.42238,-0.01594,-2.63418,1.07940,1.57082,0.11674,-0.12760,-0.48153,0.03176,,,,,,,,,,,,,,,,,,,,,,,,,,0,0,0,0,0
4.6956,1783957934.9285,1,1,6.0000,0.0003,1.42238,-0.01594,-2.63418,1.07940,1.57082,0.11674,-0.12760,-0.48153,0.03176,,,,,,,,,,,,,,,,,,,,,,,,,,0,0,0,0,0
4.7108,1783957934.9437,1,1,6.0000,0.0002,1.42238,-0.01594,-2.63418,1.07940,1.57082,0.11674,-0.12760,-0.48153,0.03176,,,,,,,,,,,,,,,,,,,,,,,,,,0,0,0,0,0
4.7152,1783957934.9481,1,1,6.0000,0.0002,1.42238,-0.01594,-2.63418,1.07940,1.57082,0.11674,-0.12760,-0.48153,0.03176,,,,,,,,,,,,,,,,,,,,,,,,,,0,0,0,0,0
4.7155,1783957934.9484,1,1,6.0000,0.0002,1.42238,-0.01594,-2.63418,1.07940,1.57082,0.11674,-0.12760,-0.48153,0.03176,,,,,,,,,,,,,,,,,,,,,,,,,,0,0,0,0,0
4.7278,1783957934.9608,1,1,6.0000,0.0001,1.42238,-0.01594,-2.63418,1.07940,1.57082,0.11674,-0.12760,-0.48153,0.03176,,,,,,,,,,,,,,,,,,,,,,,,,,0,0,0,0,0
4.7389,1783957934.9718,1,1,6.0000,0.0001,1.42238,-0.01594,-2.63418,1.07940,1.57082,0.11674,-0.12760,-0.48153,0.03176,,,,,,,,,,,,,,,,,,,,,,,,,,0,0,0,0,0
4.7478,1783957934.9807,1,1,6.0000,0.0001,1.42238,-0.01594,-2.63418,1.07940,1.57082,0.11674,-0.12760,-0.48153,0.03176,,,,,,,,,,,,,,,,,,,,,,,,,,0,0,0,0,0
4.7805,1783957935.0134,1,1,6.0000,0.0001,1.42238,-0.01594,-2.63418,1.07940,1.57082,0.11674,-0.12760,-0.48153,0.03176,,,,,,,,,,,,,,,,,,,,,,,,,,0,0,0,0,0
4.7808,1783957935.0137,1,1,6.0000,0.0001,1.42238,-0.01594,-2.63418,1.07940,1.57082,0.11674,-0.12760,-0.48153,0.03176,,,,,,,,,,,,,,,,,,,,,,,,,,0,0,0,0,0
4.7847,1783957935.0176,1,1,6.0000,0.0000,1.42238,-0.01594,-2.63418,1.07940,1.57082,0.11674,-0.12760,-0.48153,0.03176,,,,,,,,,,,,,,,,,,,,,,,,,,0,0,0,0,0
4.7885,1783957935.0214,1,1,6.0000,0.0000,1.42238,-0.01594,-2.63418,1.07940,1.57082,0.11674,-0.12760,-0.48153,0.03176,,,,,,,,,,,,,,,,,,,,,,,,,,0,0,0,0,0
4.7888,1783957935.0217,1,1,6.0000,0.0000,1.42238,-0.01594,-2.63418,1.07940,1.57082,0.11674,-0.12760,-0.48153,0.03176,,,,,,,,,,,,,,,,,,,,,,,,,,0,0,0,0,0
4.7957,1783957935.0286,1,1,6.0000,0.0000,1.42238,-0.01594,-2.63418,1.07940,1.57082,0.11674,-0.12760,-0.48153,0.03176,,,,,,,,,,,,,,,,,,,,,,,,,,0,0,0,0,0
4.8102,1783957935.0431,1,1,6.0000,0.0000,1.42238,-0.01594,-2.63418,1.07940,1.57082,0.11674,-0.12760,-0.48153,0.03176,,,,,,,,,,,,,,,,,,,,,,,,,,0,0,0,0,0
4.8335,1783957935.0664,1,1,6.0000,0.0000,1.42238,-0.01594,-2.63418,1.07940,1.57082,0.11674,-0.12760,-0.48153,0.03176,,,,,,,,,,,,,,,,,,,,,,,,,,0,0,0,0,0
4.8340,1783957935.0670,1,1,6.0000,0.0000,1.42238,-0.01594,-2.63418,1.07940,1.57082,0.11674,-0.12760,-0.48153,0.03176,,,,,,,,,,,,,,,,,,,,,,,,,,0,0,0,0,0
4.8394,1783957935.0723,1,1,6.0000,0.0000,1.42238,-0.01594,-2.63418,1.07940,1.57082,0.11674,-0.12760,-0.48153,0.03176,,,,,,,,,,,,,,,,,,,,,,,,,,0,0,0,0,0
4.8396,1783957935.0725,1,1,6.0000,0.0000,1.42238,-0.01594,-2.63418,1.07940,1.57082,0.11674,-0.12760,-0.48153,0.03176,,,,,,,,,,,,,,,,,,,,,,,,,,0,0,0,0,0
4.8462,1783957935.0791,1,1,6.0000,0.0000,1.42238,-0.01594,-2.63418,1.07940,1.57082,0.11674,-0.12760,-0.48153,0.03176,,,,,,,,,,,,,,,,,,,,,,,,,,0,0,0,0,0
4.8466,1783957935.0795,1,1,6.0000,0.0000,1.42238,-0.01594,-2.63418,1.07940,1.57082,0.11674,-0.12760,-0.48153,0.03176,,,,,,,,,,,,,,,,,,,,,,,,,,0,0,0,0,0
4.8862,1783957935.1191,1,1,6.0000,0.0001,1.42238,-0.01594,-2.63418,1.07940,1.57082,0.11674,-0.12760,-0.48153,0.03176,,,,,,,,,,,,,,,,,,,,,,,,,,0,0,0,0,0
4.8864,1783957935.1193,1,1,6.0000,0.0005,1.42238,-0.01594,-2.63418,1.07940,1.57082,0.11674,-0.12760,-0.48153,0.03176,,,,,,,,,,,,,,,,,,,,,,,,,,0,0,0,0,0
4.8867,1783957935.1196,1,1,6.0000,0.0005,1.42238,-0.01594,-2.63418,1.07940,1.57082,0.11674,-0.12760,-0.48153,0.03176,,,,,,,,,,,,,,,,,,,,,,,,,,0,0,0,0,0
4.8870,1783957935.1199,1,1,6.0000,0.0004,1.42238,-0.01594,-2.63418,1.07940,1.57082,0.11674,-0.12760,-0.48153,0.03176,,,,,,,,,,,,,,,,,,,,,,,,,,0,0,0,0,0
4.8872,1783957935.1201,1,1,6.0000,0.0004,1.42238,-0.01594,-2.63418,1.07940,1.57082,0.11674,-0.12760,-0.48153,0.03176,,,,,,,,,,,,,,,,,,,,,,,,,,0,0,0,0,0
4.8972,1783957935.1301,1,1,6.0000,0.0003,1.42238,-0.01594,-2.63418,1.07940,1.57082,0.11674,-0.12760,-0.48153,0.03176,,,,,,,,,,,,,,,,,,,,,,,,,,0,0,0,0,0
4.9096,1783957935.1425,1,1,6.0000,0.0002,1.42238,-0.01594,-2.63418,1.07940,1.57082,0.11674,-0.12760,-0.48153,0.03176,,,,,,,,,,,,,,,,,,,,,,,,,,0,0,0,0,0
4.9286,1783957935.1615,1,1,6.0000,0.0002,1.42238,-0.01594,-2.63418,1.07940,1.57082,0.11674,-0.12760,-0.48153,0.03176,,,,,,,,,,,,,,,,,,,,,,,,,,0,0,0,0,0
4.9289,1783957935.1618,1,1,6.0000,0.0001,1.42238,-0.01594,-2.63418,1.07940,1.57082,0.11674,-0.12760,-0.48153,0.03176,,,,,,,,,,,,,,,,,,,,,,,,,,0,0,0,0,0
4.9548,1783957935.1878,1,1,6.0000,0.0001,1.42238,-0.01596,-2.63419,1.07940,1.57082,0.11674,-0.12760,-0.48153,0.03175,,,,,,,,,,,,,,,,,,,,,,,,,,0,0,0,0,0
4.9551,1783957935.1880,1,1,6.0000,0.0004,1.42238,-0.01596,-2.63419,1.07940,1.57082,0.11674,-0.12760,-0.48153,0.03175,,,,,,,,,,,,,,,,,,,,,,,,,,0,0,0,0,0
4.9878,1783957935.2207,1,1,6.0000,0.0004,1.42238,-0.01598,-2.63420,1.07940,1.57082,0.11674,-0.12760,-0.48152,0.03174,,,,,,,,,,,,,,,,,,,,,,,,,,0,0,0,0,0
4.9882,1783957935.2211,1,1,6.0000,0.0002,1.42238,-0.01598,-2.63420,1.07940,1.57082,0.11674,-0.12760,-0.48152,0.03174,,,,,,,,,,,,,,,,,,,,,,,,,,0,0,0,0,0
4.9887,1783957935.2216,1,1,6.0000,0.0002,1.42238,-0.01598,-2.63420,1.07940,1.57082,0.11674,-0.12760,-0.48152,0.03174,,,,,,,,,,,,,,,,,,,,,,,,,,0,0,0,0,0
5.0071,1783957935.2400,1,1,6.0000,0.0001,1.42238,-0.01598,-2.63420,1.07940,1.57082,0.11674,-0.12760,-0.48152,0.03174,,,,,,,,,,,,,,,,,,,,,,,,,,0,0,0,0,0
5.0109,1783957935.2438,1,1,6.0000,0.0001,1.42238,-0.01598,-2.63420,1.07940,1.57082,0.11674,-0.12760,-0.48152,0.03174,,,,,,,,,,,,,,,,,,,,,,,,,,0,0,0,0,0
5.0231,1783957935.2560,1,1,6.0000,0.0001,1.42238,-0.01598,-2.63420,1.07940,1.57082,0.11674,-0.12760,-0.48152,0.03174,,,,,,,,,,,,,,,,,,,,,,,,,,0,0,0,0,0
5.0463,1783957935.2792,1,1,6.0000,0.0001,1.42238,-0.01598,-2.63420,1.07940,1.57082,0.11674,-0.12760,-0.48152,0.03174,,,,,,,,,,,,,,,,,,,,,,,,,,0,0,0,0,0
5.0467,1783957935.2796,1,1,6.0000,0.0001,1.42238,-0.01598,-2.63420,1.07940,1.57082,0.11674,-0.12760,-0.48152,0.03174,,,,,,,,,,,,,,,,,,,,,,,,,,0,0,0,0,0
5.1103,1783957935.3432,1,1,6.0000,0.0000,1.42238,-0.01598,-2.63420,1.07940,1.57082,0.11674,-0.12760,-0.48152,0.03174,,,,,,,,,,,,,,,,,,,,,,,,,,0,0,0,0,0
5.1105,1783957935.3434,1,1,6.0000,0.0000,1.42238,-0.01598,-2.63420,1.07940,1.57082,0.11674,-0.12760,-0.48152,0.03174,,,,,,,,,,,,,,,,,,,,,,,,,,0,0,0,0,0
5.1108,1783957935.3437,1,1,6.0000,0.0000,1.42238,-0.01598,-2.63420,1.07940,1.57082,0.11674,-0.12760,-0.48152,0.03174,,,,,,,,,,,,,,,,,,,,,,,,,,0,0,0,0,0
5.1111,1783957935.3440,1,1,6.0000,0.0000,1.42238,-0.01598,-2.63420,1.07940,1.57082,0.11674,-0.12760,-0.48152,0.03174,,,,,,,,,,,,,,,,,,,,,,,,,,0,0,0,0,0
5.1115,1783957935.3444,1,1,6.0000,0.0000,1.42238,-0.01598,-2.63420,1.07940,1.57082,0.11674,-0.12760,-0.48152,0.03174,,,,,,,,,,,,,,,,,,,,,,,,,,0,0,0,0,0
5.1155,1783957935.3484,1,1,6.0000,0.0000,1.42238,-0.01598,-2.63420,1.07940,1.57082,0.11674,-0.12760,-0.48152,0.03174,,,,,,,,,,,,,,,,,,,,,,,,,,0,0,0,0,0
5.1530,1783957935.3859,1,1,6.0000,0.0000,1.42238,-0.01598,-2.63420,1.07940,1.57082,0.11674,-0.12760,-0.48152,0.03174,,,,,,,,,,,,,,,,,,,,,,,,,,0,0,0,0,0
5.1534,1783957935.3863,1,1,6.0000,0.0000,1.42238,-0.01598,-2.63420,1.07940,1.57082,0.11674,-0.12760,-0.48152,0.03174,,,,,,,,,,,,,,,,,,,,,,,,,,0,0,0,0,0
5.1556,1783957935.3885,1,1,6.0000,0.0000,1.42238,-0.01598,-2.63420,1.07940,1.57082,0.11674,-0.12760,-0.48152,0.03174,,,,,,,,,,,,,,,,,,,,,,,,,,0,0,0,0,0
5.1561,1783957935.3890,1,1,6.0000,0.0000,1.42238,-0.01598,-2.63420,1.07940,1.57082,0.11674,-0.12760,-0.48152,0.03174,,,,,,,,,,,,,,,,,,,,,,,,,,0,0,0,0,0
5.1655,1783957935.3984,1,1,6.0000,0.0000,1.42238,-0.01598,-2.63420,1.07940,1.57082,0.11674,-0.12760,-0.48152,0.03174,,,,,,,,,,,,,,,,,,,,,,,,,,0,0,0,0,0
5.1662,1783957935.3992,1,1,6.0000,0.0000,1.42238,-0.01598,-2.63420,1.07940,1.57082,0.11674,-0.12760,-0.48152,0.03174,,,,,,,,,,,,,,,,,,,,,,,,,,0,0,0,0,0
5.1789,1783957935.4118,1,1,6.0000,0.0000,1.42238,-0.01598,-2.63420,1.07940,1.57082,0.11674,-0.12760,-0.48152,0.03174,,,,,,,,,,,,,,,,,,,,,,,,,,0,0,0,0,0
5.1791,1783957935.4120,1,1,6.0000,0.0000,1.42238,-0.01598,-2.63420,1.07940,1.57082,0.11674,-0.12760,-0.48152,0.03174,,,,,,,,,,,,,,,,,,,,,,,,,,0,0,0,0,0
5.2056,1783957935.4386,1,1,6.0000,0.0000,1.42238,-0.01598,-2.63420,1.07940,1.57082,0.11674,-0.12760,-0.48152,0.03174,,,,,,,,,,,,,,,,,,,,,,,,,,0,0,0,0,0
5.2059,1783957935.4388,1,1,6.0000,0.0000,1.42238,-0.01598,-2.63420,1.07940,1.57082,0.11674,-0.12760,-0.48152,0.03174,,,,,,,,,,,,,,,,,,,,,,,,,,0,0,0,0,0
5.2063,1783957935.4392,1,1,6.0000,0.0000,1.42238,-0.01598,-2.63420,1.07940,1.57082,0.11674,-0.12760,-0.48152,0.03174,,,,,,,,,,,,,,,,,,,,,,,,,,0,0,0,0,0
5.2198,1783957935.4528,1,1,6.0000,0.0000,1.42238,-0.01598,-2.63420,1.07940,1.57082,0.11674,-0.12760,-0.48152,0.03174,,,,,,,,,,,,,,,,,,,,,,,,,,0,0,0,0,0
5.2257,1783957935.4586,1,1,6.0000,0.0000,1.42238,-0.01598,-2.63420,1.07940,1.57082,0.11674,-0.12760,-0.48152,0.03174,,,,,,,,,,,,,,,,,,,,,,,,,,0,0,0,0,0
5.2390,1783957935.4719,1,1,6.0000,0.0000,1.42238,-0.01598,-2.63420,1.07940,1.57082,0.11674,-0.12760,-0.48152,0.03174,,,,,,,,,,,,,,,,,,,,,,,,,,0,0,0,0,0
5.2476,1783957935.4806,1,1,6.0000,0.0000,1.42238,-0.01598,-2.63420,1.07940,1.57082,0.11674,-0.12760,-0.48152,0.03174,,,,,,,,,,,,,,,,,,,,,,,,,,0,0,0,0,0
5.2577,1783957935.4906,1,1,6.0000,0.0000,1.42238,-0.01598,-2.63420,1.07940,1.57082,0.11674,-0.12760,-0.48152,0.03174,,,,,,,,,,,,,,,,,,,,,,,,,,0,0,0,0,0
5.2669,1783957935.4998,1,1,6.0000,0.0000,1.42238,-0.01598,-2.63420,1.07940,1.57082,0.11674,-0.12760,-0.48152,0.03174,,,,,,,,,,,,,,,,,,,,,,,,,,0,0,0,0,0
5.2834,1783957935.5163,1,1,6.0000,0.0000,1.42238,-0.01598,-2.63420,1.07940,1.57082,0.11674,-0.12760,-0.48152,0.03174,,,,,,,,,,,,,,,,,,,,,,,,,,0,0,0,0,0
5.2934,1783957935.5264,1,1,6.0000,0.0000,1.42238,-0.01598,-2.63420,1.07940,1.57082,0.11674,-0.12760,-0.48152,0.03174,,,,,,,,,,,,,,,,,,,,,,,,,,0,0,0,0,0
5.2938,1783957935.5267,1,1,6.0000,0.0000,1.42238,-0.01598,-2.63420,1.07940,1.57082,0.11674,-0.12760,-0.48152,0.03174,,,,,,,,,,,,,,,,,,,,,,,,,,0,0,0,0,0
5.2972,1783957935.5301,1,1,6.0000,0.0000,1.42238,-0.01598,-2.63420,1.07940,1.57082,0.11674,-0.12760,-0.48152,0.03174,,,,,,,,,,,,,,,,,,,,,,,,,,0,0,0,0,0
5.2976,1783957935.5305,1,1,6.0000,0.0000,1.42238,-0.01598,-2.63420,1.07940,1.57082,0.11674,-0.12760,-0.48152,0.03174,,,,,,,,,,,,,,,,,,,,,,,,,,0,0,0,0,0
5.3067,1783957935.5397,1,1,6.0000,0.0000,1.42238,-0.01598,-2.63420,1.07940,1.57082,0.11674,-0.12760,-0.48152,0.03174,,,,,,,,,,,,,,,,,,,,,,,,,,0,0,0,0,0
5.3072,1783957935.5401,1,1,6.0000,0.0000,1.42238,-0.01598,-2.63420,1.07940,1.57082,0.11674,-0.12760,-0.48152,0.03174,,,,,,,,,,,,,,,,,,,,,,,,,,0,0,0,0,0
5.3191,1783957935.5520,1,1,6.0000,0.0000,1.42238,-0.01598,-2.63420,1.07940,1.57082,0.11674,-0.12760,-0.48152,0.03174,,,,,,,,,,,,,,,,,,,,,,,,,,0,0,0,0,0
5.3309,1783957935.5638,1,1,6.0000,0.0000,1.42238,-0.01598,-2.63420,1.07940,1.57082,0.11674,-0.12760,-0.48152,0.03174,,,,,,,,,,,,,,,,,,,,,,,,,,0,0,0,0,0
5.3430,1783957935.5760,1,1,6.0000,0.0000,1.42238,-0.01598,-2.63420,1.07940,1.57082,0.11674,-0.12760,-0.48152,0.03174,,,,,,,,,,,,,,,,,,,,,,,,,,0,0,0,0,0
5.3455,1783957935.5784,1,1,6.0000,0.0000,1.42238,-0.01598,-2.63420,1.07940,1.57082,0.11674,-0.12760,-0.48152,0.03174,,,,,,,,,,,,,,,,,,,,,,,,,,0,0,0,0,0
5.3462,1783957935.5791,1,1,6.0000,0.0000,1.42238,-0.01598,-2.63420,1.07940,1.57082,0.11674,-0.12760,-0.48152,0.03174,,,,,,,,,,,,,,,,,,,,,,,,,,0,0,0,0,0
5.3582,1783957935.5911,1,1,6.0000,0.0000,1.42238,-0.01598,-2.63420,1.07940,1.57082,0.11674,-0.12760,-0.48152,0.03174,,,,,,,,,,,,,,,,,,,,,,,,,,0,0,0,0,0
5.3679,1783957935.6008,1,1,6.0000,0.0000,1.42238,-0.01598,-2.63420,1.07940,1.57082,0.11674,-0.12760,-0.48152,0.03174,,,,,,,,,,,,,,,,,,,,,,,,,,0,0,0,0,0
5.3844,1783957935.6173,1,1,6.0000,0.0000,1.42238,-0.01598,-2.63420,1.07940,1.57082,0.11674,-0.12760,-0.48152,0.03174,,,,,,,,,,,,,,,,,,,,,,,,,,0,0,0,0,0
5.3997,1783957935.6326,1,1,6.0000,0.0000,1.42238,-0.01598,-2.63420,1.07940,1.57082,0.11674,-0.12760,-0.48152,0.03174,,,,,,,,,,,,,,,,,,,,,,,,,,0,0,0,0,0
5.4094,1783957935.6423,1,1,6.0000,0.0000,1.42238,-0.01598,-2.63420,1.07941,1.57082,0.11674,-0.12760,-0.48152,0.03174,,,,,,,,,,,,,,,,,,,,,,,,,,0,0,0,0,0
5.4097,1783957935.6427,1,1,6.0000,0.0000,1.42238,-0.01598,-2.63420,1.07941,1.57082,0.11674,-0.12760,-0.48152,0.03174,,,,,,,,,,,,,,,,,,,,,,,,,,0,0,0,0,0
5.4167,1783957935.6496,1,1,6.0000,0.0000,1.42238,-0.01598,-2.63420,1.07941,1.57082,0.11674,-0.12760,-0.48152,0.03174,,,,,,,,,,,,,,,,,,,,,,,,,,0,0,0,0,0
5.4276,1783957935.6605,1,1,6.0000,0.0000,1.42238,-0.01599,-2.63420,1.07942,1.57082,0.11674,-0.12760,-0.48152,0.03174,,,,,,,,,,,,,,,,,,,,,,,,,,0,0,0,0,0
5.4398,1783957935.6727,1,1,6.0000,0.0000,1.42238,-0.01600,-2.63420,1.07943,1.57082,0.11674,-0.12760,-0.48152,0.03174,,,,,,,,,,,,,,,,,,,,,,,,,,0,0,0,0,0
5.4530,1783957935.6859,1,1,6.0000,0.0000,1.42238,-0.01600,-2.63420,1.07945,1.57082,0.11674,-0.12760,-0.48152,0.03174,,,,,,,,,,,,,,,,,,,,,,,,,,0,0,0,0,0
5.4597,1783957935.6927,1,1,6.0000,0.0000,1.42238,-0.01601,-2.63420,1.07945,1.57082,0.11674,-0.12760,-0.48152,0.03174,,,,,,,,,,,,,,,,,,,,,,,,,,0,0,0,0,0
5.4699,1783957935.7028,1,1,6.0000,0.0000,1.42238,-0.01601,-2.63420,1.07945,1.57082,0.11674,-0.12760,-0.48152,0.03174,,,,,,,,,,,,,,,,,,,,,,,,,,0,0,0,0,0
5.4705,1783957935.7034,1,1,6.0000,0.0000,1.42238,-0.01601,-2.63420,1.07945,1.57082,0.11674,-0.12760,-0.48152,0.03174,,,,,,,,,,,,,,,,,,,,,,,,,,0,0,0,0,0
5.4751,1783957935.7080,1,1,6.0000,0.0000,1.42238,-0.01601,-2.63420,1.07945,1.57082,0.11674,-0.12760,-0.48152,0.03174,,,,,,,,,,,,,,,,,,,,,,,,,,0,0,0,0,0
5.5012,1783957935.7341,1,1,6.0000,0.0000,1.42238,-0.01601,-2.63420,1.07945,1.57082,0.11674,-0.12760,-0.48152,0.03174,,,,,,,,,,,,,,,,,,,,,,,,,,0,0,0,0,0
5.5084,1783957935.7413,1,1,6.0000,0.0000,1.42238,-0.01601,-2.63420,1.07945,1.57082,0.11674,-0.12760,-0.48152,0.03174,,,,,,,,,,,,,,,,,,,,,,,,,,0,0,0,0,0
5.5273,1783957935.7603,1,1,6.0000,0.0000,1.42238,-0.01601,-2.63420,1.07945,1.57082,0.11674,-0.12760,-0.48152,0.03174,,,,,,,,,,,,,,,,,,,,,,,,,,0,0,0,0,0
5.5316,1783957935.7645,1,1,6.0000,0.0000,1.42238,-0.01601,-2.63420,1.07945,1.57082,0.11674,-0.12760,-0.48152,0.03174,,,,,,,,,,,,,,,,,,,,,,,,,,0,0,0,0,0
5.5502,1783957935.7831,1,1,6.0000,0.0000,1.42238,-0.01601,-2.63420,1.07945,1.57082,0.11674,-0.12760,-0.48152,0.03174,,,,,,,,,,,,,,,,,,,,,,,,,,0,0,0,0,0
5.5506,1783957935.7835,1,1,6.0000,0.0000,1.42238,-0.01601,-2.63420,1.07945,1.57082,0.11674,-0.12760,-0.48152,0.03174,,,,,,,,,,,,,,,,,,,,,,,,,,0,0,0,0,0
5.5588,1783957935.7917,1,1,6.0000,0.0000,1.42238,-0.01601,-2.63420,1.07945,1.57082,0.11674,-0.12760,-0.48152,0.03174,,,,,,,,,,,,,,,,,,,,,,,,,,0,0,0,0,0
5.5697,1783957935.8027,1,1,6.0000,0.0000,1.42238,-0.01601,-2.63420,1.07945,1.57082,0.11674,-0.12760,-0.48152,0.03174,,,,,,,,,,,,,,,,,,,,,,,,,,0,0,0,0,0
5.5703,1783957935.8033,1,1,6.0000,0.0000,1.42238,-0.01601,-2.63420,1.07945,1.57082,0.11674,-0.12760,-0.48152,0.03174,,,,,,,,,,,,,,,,,,,,,,,,,,0,0,0,0,0
5.5755,1783957935.8084,1,1,6.0000,0.0000,1.42238,-0.01601,-2.63420,1.07945,1.57082,0.11674,-0.12760,-0.48152,0.03174,,,,,,,,,,,,,,,,,,,,,,,,,,0,0,0,0,0
5.5759,1783957935.8088,1,1,6.0000,0.0000,1.42238,-0.01601,-2.63420,1.07945,1.57082,0.11674,-0.12760,-0.48152,0.03174,,,,,,,,,,,,,,,,,,,,,,,,,,0,0,0,0,0
5.5924,1783957935.8253,1,1,6.0000,0.0000,1.42238,-0.01601,-2.63420,1.07945,1.57082,0.11674,-0.12760,-0.48152,0.03174,,,,,,,,,,,,,,,,,,,,,,,,,,0,0,0,0,0
5.6064,1783957935.8393,1,1,6.0000,0.0000,1.42238,-0.01601,-2.63420,1.07945,1.57082,0.11674,-0.12760,-0.48152,0.03174,,,,,,,,,,,,,,,,,,,,,,,,,,0,0,0,0,0
5.6453,1783957935.8782,1,1,6.0000,0.0000,1.42238,-0.01601,-2.63420,1.07945,1.57082,0.11674,-0.12760,-0.48152,0.03174,,,,,,,,,,,,,,,,,,,,,,,,,,0,0,0,0,0
5.6456,1783957935.8786,1,1,6.0000,0.0000,1.42238,-0.01601,-2.63420,1.07945,1.57082,0.11674,-0.12760,-0.48152,0.03174,,,,,,,,,,,,,,,,,,,,,,,,,,0,0,0,0,0
5.6460,1783957935.8789,1,1,6.0000,0.0000,1.42238,-0.01601,-2.63420,1.07945,1.57082,0.11674,-0.12760,-0.48152,0.03174,,,,,,,,,,,,,,,,,,,,,,,,,,0,0,0,0,0
