Martins-Lucaas/twinforge/sensors/Data/20260702_141147__samples.csv
t_rel_s,t_unix,cycle,phase,setpoint_n,force_net_n,q1,q2,q3,q4,q5,q6,tcp_x,tcp_y,tcp_z,taxel_0,taxel_1,taxel_2,taxel_3,taxel_4,taxel_5,taxel_6,taxel_7,taxel_8,taxel_9,taxel_10,taxel_11,taxel_12,taxel_13,taxel_14,taxel_15,taxel_16,taxel_17,taxel_18,taxel_19,taxel_20,taxel_21,taxel_22,taxel_23,taxel_24,n_RA,n_SA,cn_mm,cn_ra,cn_sa
0.0035,1783012307.0224,1,0,1.0000,0.0000,1.44682,0.23328,-2.77748,0.97337,1.57080,0.00000,-0.14512,-0.38003,0.04653,,,,,,,,,,,,,,,,,,,,,,,,,,0,0,0,0,0
0.0039,1783012307.0228,1,0,1.0000,0.0000,1.44682,0.23328,-2.77748,0.97337,1.57080,0.00000,-0.14512,-0.38003,0.04653,,,,,,,,,,,,,,,,,,,,,,,,,,0,0,0,0,0
0.0146,1783012307.0334,1,0,1.0000,0.0000,1.44682,0.23328,-2.77748,0.97337,1.57080,-0.00000,-0.14512,-0.38003,0.04653,,,,,,,,,,,,,,,,,,,,,,,,,,0,0,0,0,0
0.0148,1783012307.0337,1,0,1.0000,0.0000,1.44682,0.23328,-2.77748,0.97337,1.57080,-0.00000,-0.14512,-0.38003,0.04653,,,,,,,,,,,,,,,,,,,,,,,,,,0,0,0,0,0
0.0152,1783012307.0340,1,0,1.0000,0.0000,1.44682,0.23328,-2.77748,0.97337,1.57080,-0.00000,-0.14512,-0.38003,0.04653,,,,,,,,,,,,,,,,,,,,,,,,,,0,0,0,0,0
0.0240,1783012307.0428,1,0,1.0000,0.0000,1.44682,0.23328,-2.77748,0.97337,1.57080,0.00000,-0.14512,-0.38003,0.04653,,,,,,,,,,,,,,,,,,,,,,,,,,0,0,0,0,0
0.0346,1783012307.0534,1,0,1.0000,0.0000,1.44682,0.23328,-2.77748,0.97337,1.57080,0.00000,-0.14512,-0.38003,0.04653,,,,,,,,,,,,,,,,,,,,,,,,,,0,0,0,0,0
0.0439,1783012307.0628,1,0,1.0000,0.0000,1.44682,0.23328,-2.77748,0.97337,1.57080,0.00000,-0.14512,-0.38003,0.04653,,,,,,,,,,,,,,,,,,,,,,,,,,0,0,0,0,0
0.0645,1783012307.0834,1,0,1.0000,0.0000,1.44682,0.23328,-2.77748,0.97337,1.57080,0.00000,-0.14512,-0.38003,0.04653,,,,,,,,,,,,,,,,,,,,,,,,,,0,0,0,0,0
0.0652,1783012307.0841,1,0,1.0000,0.0000,1.44682,0.23328,-2.77748,0.97337,1.57080,0.00000,-0.14512,-0.38003,0.04653,,,,,,,,,,,,,,,,,,,,,,,,,,0,0,0,0,0
0.0788,1783012307.0976,1,0,1.0000,0.0000,1.44682,0.23328,-2.77748,0.97337,1.57080,0.00000,-0.14512,-0.38003,0.04653,,,,,,,,,,,,,,,,,,,,,,,,,,0,0,0,0,0
0.0792,1783012307.0980,1,0,1.0000,0.0000,1.44682,0.23328,-2.77748,0.97337,1.57080,0.00000,-0.14512,-0.38003,0.04653,,,,,,,,,,,,,,,,,,,,,,,,,,0,0,0,0,0
0.0839,1783012307.1028,1,0,1.0000,0.0000,1.44682,0.23328,-2.77748,0.97337,1.57080,0.00000,-0.14512,-0.38003,0.04653,,,,,,,,,,,,,,,,,,,,,,,,,,0,0,0,0,0
0.1056,1783012307.1245,1,0,1.0000,0.0000,1.44682,0.23328,-2.77748,0.97337,1.57080,0.00000,-0.14512,-0.38003,0.04653,,,,,,,,,,,,,,,,,,,,,,,,,,0,0,0,0,0
0.1101,1783012307.1290,1,0,1.0000,0.0000,1.44682,0.23328,-2.77748,0.97337,1.57080,0.00000,-0.14512,-0.38003,0.04653,,,,,,,,,,,,,,,,,,,,,,,,,,0,0,0,0,0
0.1146,1783012307.1335,1,0,1.0000,0.0000,1.44682,0.23328,-2.77748,0.97337,1.57080,0.00000,-0.14512,-0.38003,0.04653,,,,,,,,,,,,,,,,,,,,,,,,,,0,0,0,0,0
0.1254,1783012307.1443,1,0,1.0000,0.0000,1.44682,0.23328,-2.77748,0.97337,1.57080,0.00000,-0.14512,-0.38003,0.04653,,,,,,,,,,,,,,,,,,,,,,,,,,0,0,0,0,0
0.1344,1783012307.1532,1,0,1.0000,0.0000,1.44682,0.23328,-2.77748,0.97337,1.57080,0.00000,-0.14512,-0.38003,0.04653,,,,,,,,,,,,,,,,,,,,,,,,,,0,0,0,0,0
0.1456,1783012307.1645,1,0,1.0000,0.0000,1.44682,0.23328,-2.77748,0.97337,1.57080,-0.00000,-0.14512,-0.38003,0.04653,,,,,,,,,,,,,,,,,,,,,,,,,,0,0,0,0,0
0.1546,1783012307.1735,1,0,1.0000,0.0000,1.44682,0.23328,-2.77748,0.97337,1.57080,0.00000,-0.14512,-0.38003,0.04653,,,,,,,,,,,,,,,,,,,,,,,,,,0,0,0,0,0
0.1549,1783012307.1738,1,0,1.0000,0.0000,1.44682,0.23328,-2.77748,0.97337,1.57080,0.00000,-0.14512,-0.38003,0.04653,,,,,,,,,,,,,,,,,,,,,,,,,,0,0,0,0,0
0.1651,1783012307.1840,1,0,1.0000,0.0000,1.44682,0.23328,-2.77748,0.97337,1.57080,0.00000,-0.14512,-0.38003,0.04653,,,,,,,,,,,,,,,,,,,,,,,,,,0,0,0,0,0
0.1750,1783012307.1939,1,0,1.0000,0.0000,1.44682,0.23328,-2.77748,0.97337,1.57080,0.00000,-0.14512,-0.38003,0.04653,,,,,,,,,,,,,,,,,,,,,,,,,,0,0,0,0,0
0.1867,1783012307.2055,1,0,1.0000,0.0000,1.44682,0.23328,-2.77748,0.97337,1.57080,0.00000,-0.14512,-0.38003,0.04653,,,,,,,,,,,,,,,,,,,,,,,,,,0,0,0,0,0
0.1938,1783012307.2127,1,0,1.0000,0.0000,1.44682,0.23328,-2.77748,0.97337,1.57080,0.00000,-0.14512,-0.38003,0.04653,,,,,,,,,,,,,,,,,,,,,,,,,,0,0,0,0,0
0.2084,1783012307.2272,1,0,1.0000,0.0000,1.44682,0.23328,-2.77748,0.97337,1.57080,0.00000,-0.14512,-0.38003,0.04653,,,,,,,,,,,,,,,,,,,,,,,,,,0,0,0,0,0
0.2087,1783012307.2275,1,0,1.0000,0.0000,1.44682,0.23328,-2.77748,0.97337,1.57080,0.00000,-0.14512,-0.38003,0.04653,,,,,,,,,,,,,,,,,,,,,,,,,,0,0,0,0,0
0.2150,1783012307.2339,1,0,1.0000,0.0000,1.44682,0.23328,-2.77748,0.97337,1.57080,0.00000,-0.14512,-0.38003,0.04653,,,,,,,,,,,,,,,,,,,,,,,,,,0,0,0,0,0
0.2275,1783012307.2464,1,0,1.0000,0.0000,1.44682,0.23328,-2.77748,0.97337,1.57080,0.00000,-0.14512,-0.38003,0.04653,,,,,,,,,,,,,,,,,,,,,,,,,,0,0,0,0,0
0.2277,1783012307.2466,1,0,1.0000,0.0000,1.44682,0.23328,-2.77748,0.97337,1.57080,0.00000,-0.14512,-0.38003,0.04653,,,,,,,,,,,,,,,,,,,,,,,,,,0,0,0,0,0
0.2357,1783012307.2545,1,0,1.0000,0.0000,1.44682,0.23328,-2.77748,0.97337,1.57080,0.00000,-0.14512,-0.38003,0.04653,,,,,,,,,,,,,,,,,,,,,,,,,,0,0,0,0,0
0.2467,1783012307.2656,1,0,1.0000,0.0000,1.44682,0.23328,-2.77748,0.97337,1.57080,0.00000,-0.14512,-0.38003,0.04653,,,,,,,,,,,,,,,,,,,,,,,,,,0,0,0,0,0
0.2546,1783012307.2735,1,0,1.0000,0.0000,1.44682,0.23328,-2.77748,0.97337,1.57080,0.00000,-0.14512,-0.38003,0.04653,,,,,,,,,,,,,,,,,,,,,,,,,,0,0,0,0,0
0.2672,1783012307.2861,1,0,1.0000,0.0000,1.44682,0.23328,-2.77748,0.97337,1.57080,0.00000,-0.14512,-0.38003,0.04653,,,,,,,,,,,,,,,,,,,,,,,,,,0,0,0,0,0
0.2754,1783012307.2942,1,0,1.0000,0.0000,1.44682,0.23328,-2.77748,0.97337,1.57080,0.00000,-0.14512,-0.38003,0.04653,,,,,,,,,,,,,,,,,,,,,,,,,,0,0,0,0,0
0.2838,1783012307.3027,1,0,1.0000,0.0000,1.44682,0.23328,-2.77748,0.97337,1.57080,0.00000,-0.14512,-0.38003,0.04653,,,,,,,,,,,,,,,,,,,,,,,,,,0,0,0,0,0
0.2937,1783012307.3125,1,0,1.0000,0.0000,1.44682,0.23328,-2.77748,0.97337,1.57080,0.00000,-0.14512,-0.38003,0.04653,,,,,,,,,,,,,,,,,,,,,,,,,,0,0,0,0,0
0.3072,1783012307.3261,1,0,1.0000,0.0000,1.44682,0.23328,-2.77748,0.97337,1.57080,0.00000,-0.14512,-0.38003,0.04653,,,,,,,,,,,,,,,,,,,,,,,,,,0,0,0,0,0
0.3152,1783012307.3341,1,0,1.0000,0.0000,1.44682,0.23328,-2.77748,0.97337,1.57080,0.00000,-0.14512,-0.38003,0.04653,,,,,,,,,,,,,,,,,,,,,,,,,,0,0,0,0,0
0.3252,1783012307.3440,1,0,1.0000,0.0000,1.44682,0.23328,-2.77748,0.97337,1.57080,0.00000,-0.14512,-0.38003,0.04653,,,,,,,,,,,,,,,,,,,,,,,,,,0,0,0,0,0
0.3392,1783012307.3581,1,0,1.0000,0.0000,1.44682,0.23328,-2.77748,0.97337,1.57080,0.00000,-0.14512,-0.38003,0.04653,,,,,,,,,,,,,,,,,,,,,,,,,,0,0,0,0,0
0.3440,1783012307.3628,1,0,1.0000,0.0000,1.44682,0.23328,-2.77748,0.97337,1.57080,0.00000,-0.14512,-0.38003,0.04653,,,,,,,,,,,,,,,,,,,,,,,,,,0,0,0,0,0
0.3553,1783012307.3741,1,0,1.0000,0.0000,1.44682,0.23328,-2.77748,0.97337,1.57080,0.00000,-0.14512,-0.38003,0.04653,,,,,,,,,,,,,,,,,,,,,,,,,,0,0,0,0,0
0.3658,1783012307.3847,1,0,1.0000,0.0000,1.44682,0.23328,-2.77748,0.97337,1.57080,0.00000,-0.14512,-0.38003,0.04653,,,,,,,,,,,,,,,,,,,,,,,,,,0,0,0,0,0
0.3747,1783012307.3935,1,0,1.0000,0.0000,1.44682,0.23328,-2.77748,0.97337,1.57080,0.00000,-0.14512,-0.38003,0.04653,,,,,,,,,,,,,,,,,,,,,,,,,,0,0,0,0,0
0.3866,1783012307.4054,1,0,1.0000,0.0000,1.44682,0.23328,-2.77748,0.97337,1.57080,0.00000,-0.14512,-0.38003,0.04653,,,,,,,,,,,,,,,,,,,,,,,,,,0,0,0,0,0
0.3957,1783012307.4145,1,0,1.0000,0.0000,1.44682,0.23328,-2.77748,0.97337,1.57080,0.00000,-0.14512,-0.38003,0.04653,,,,,,,,,,,,,,,,,,,,,,,,,,0,0,0,0,0
0.4039,1783012307.4228,1,0,1.0000,0.0000,1.44682,0.23328,-2.77748,0.97337,1.57080,0.00000,-0.14512,-0.38003,0.04653,,,,,,,,,,,,,,,,,,,,,,,,,,0,0,0,0,0
0.4137,1783012307.4326,1,0,1.0000,0.0000,1.44682,0.23328,-2.77748,0.97337,1.57080,0.00000,-0.14512,-0.38003,0.04653,,,,,,,,,,,,,,,,,,,,,,,,,,0,0,0,0,0
0.4241,1783012307.4429,1,0,1.0000,0.0000,1.44682,0.23328,-2.77748,0.97337,1.57080,0.00000,-0.14512,-0.38003,0.04653,,,,,,,,,,,,,,,,,,,,,,,,,,0,0,0,0,0
0.4340,1783012307.4529,1,0,1.0000,0.0000,1.44682,0.23328,-2.77748,0.97337,1.57080,0.00000,-0.14512,-0.38003,0.04653,,,,,,,,,,,,,,,,,,,,,,,,,,0,0,0,0,0
0.4438,1783012307.4627,1,0,1.0000,0.0000,1.44682,0.23328,-2.77748,0.97337,1.57080,0.00000,-0.14512,-0.38003,0.04653,,,,,,,,,,,,,,,,,,,,,,,,,,0,0,0,0,0
0.4547,1783012307.4735,1,0,1.0000,0.0000,1.44682,0.23328,-2.77748,0.97337,1.57080,0.00000,-0.14512,-0.38003,0.04653,,,,,,,,,,,,,,,,,,,,,,,,,,0,0,0,0,0
0.4550,1783012307.4738,1,0,1.0000,0.0000,1.44682,0.23328,-2.77748,0.97337,1.57080,0.00000,-0.14512,-0.38003,0.04653,,,,,,,,,,,,,,,,,,,,,,,,,,0,0,0,0,0
0.4701,1783012307.4889,1,0,1.0000,0.0000,1.44682,0.23328,-2.77748,0.97337,1.57080,0.00000,-0.14512,-0.38003,0.04653,,,,,,,,,,,,,,,,,,,,,,,,,,0,0,0,0,0
0.4755,1783012307.4944,1,0,1.0000,0.0000,1.44682,0.23328,-2.77748,0.97337,1.57080,0.00000,-0.14512,-0.38003,0.04653,,,,,,,,,,,,,,,,,,,,,,,,,,0,0,0,0,0
0.4890,1783012307.5078,1,0,1.0000,0.0000,1.44682,0.23328,-2.77748,0.97337,1.57080,0.00000,-0.14512,-0.38003,0.04653,,,,,,,,,,,,,,,,,,,,,,,,,,0,0,0,0,0
0.4943,1783012307.5131,1,0,1.0000,0.0000,1.44682,0.23328,-2.77748,0.97337,1.57080,0.00000,-0.14512,-0.38003,0.04653,,,,,,,,,,,,,,,,,,,,,,,,,,0,0,0,0,0
0.5285,1783012307.5473,1,0,1.0000,0.0000,1.44682,0.23328,-2.77748,0.97337,1.57080,0.00000,-0.14512,-0.38003,0.04653,,,,,,,,,,,,,,,,,,,,,,,,,,0,0,0,0,0
0.5287,1783012307.5476,1,0,1.0000,0.0000,1.44682,0.23328,-2.77748,0.97337,1.57080,0.00000,-0.14512,-0.38003,0.04653,,,,,,,,,,,,,,,,,,,,,,,,,,0,0,0,0,0
0.5290,1783012307.5479,1,0,1.0000,0.0000,1.44682,0.23328,-2.77748,0.97337,1.57080,0.00000,-0.14512,-0.38003,0.04653,,,,,,,,,,,,,,,,,,,,,,,,,,0,0,0,0,0
0.5358,1783012307.5547,1,0,1.0000,0.0000,1.44682,0.23328,-2.77748,0.97337,1.57080,0.00000,-0.14512,-0.38003,0.04653,,,,,,,,,,,,,,,,,,,,,,,,,,0,0,0,0,0
0.5510,1783012307.5699,1,0,1.0000,0.0000,1.44682,0.23328,-2.77748,0.97337,1.57080,0.00000,-0.14512,-0.38003,0.04653,,,,,,,,,,,,,,,,,,,,,,,,,,0,0,0,0,0
0.5538,1783012307.5727,1,0,1.0000,0.0000,1.44682,0.23328,-2.77748,0.97337,1.57080,0.00000,-0.14512,-0.38003,0.04653,,,,,,,,,,,,,,,,,,,,,,,,,,0,0,0,0,0
0.5754,1783012307.5943,1,0,1.0000,0.0000,1.44682,0.23328,-2.77748,0.97337,1.57080,0.00000,-0.14512,-0.38003,0.04653,,,,,,,,,,,,,,,,,,,,,,,,,,0,0,0,0,0
0.5786,1783012307.5974,1,0,1.0000,0.0000,1.44682,0.23328,-2.77748,0.97337,1.57080,0.00000,-0.14512,-0.38003,0.04653,,,,,,,,,,,,,,,,,,,,,,,,,,0,0,0,0,0
0.5794,1783012307.5983,1,0,1.0000,0.0000,1.44682,0.23328,-2.77748,0.97337,1.57080,0.00000,-0.14512,-0.38003,0.04653,,,,,,,,,,,,,,,,,,,,,,,,,,0,0,0,0,0
0.5883,1783012307.6071,1,0,1.0000,0.0000,1.44682,0.23328,-2.77748,0.97337,1.57080,0.00000,-0.14512,-0.38003,0.04653,,,,,,,,,,,,,,,,,,,,,,,,,,0,0,0,0,0
0.5977,1783012307.6166,1,0,1.0000,0.0000,1.44682,0.23328,-2.77748,0.97337,1.57080,0.00000,-0.14512,-0.38003,0.04653,,,,,,,,,,,,,,,,,,,,,,,,,,0,0,0,0,0
0.6071,1783012307.6260,1,0,1.0000,0.0000,1.44682,0.23328,-2.77748,0.97337,1.57080,0.00000,-0.14512,-0.38003,0.04653,,,,,,,,,,,,,,,,,,,,,,,,,,0,0,0,0,0
0.6372,1783012307.6561,1,0,1.0000,0.0000,1.44682,0.23328,-2.77748,0.97337,1.57080,0.00000,-0.14512,-0.38003,0.04653,,,,,,,,,,,,,,,,,,,,,,,,,,0,0,0,0,0
0.6387,1783012307.6575,1,0,1.0000,0.0000,1.44682,0.23328,-2.77748,0.97337,1.57080,0.00000,-0.14512,-0.38003,0.04653,,,,,,,,,,,,,,,,,,,,,,,,,,0,0,0,0,0
0.6405,1783012307.6593,1,0,1.0000,0.0000,1.44682,0.23328,-2.77748,0.97337,1.57080,0.00000,-0.14512,-0.38003,0.04653,,,,,,,,,,,,,,,,,,,,,,,,,,0,0,0,0,0
0.6409,1783012307.6598,1,0,1.0000,0.0000,1.44682,0.23328,-2.77748,0.97337,1.57080,0.00000,-0.14512,-0.38003,0.04653,,,,,,,,,,,,,,,,,,,,,,,,,,0,0,0,0,0
0.6438,1783012307.6627,1,0,1.0000,0.0000,1.44682,0.23328,-2.77748,0.97337,1.57080,0.00000,-0.14512,-0.38003,0.04653,,,,,,,,,,,,,,,,,,,,,,,,,,0,0,0,0,0
0.6461,1783012307.6650,1,0,1.0000,0.0000,1.44682,0.23328,-2.77748,0.97337,1.57080,0.00000,-0.14512,-0.38003,0.04653,,,,,,,,,,,,,,,,,,,,,,,,,,0,0,0,0,0
0.6540,1783012307.6729,1,0,1.0000,0.0000,1.44682,0.23328,-2.77748,0.97337,1.57080,0.00000,-0.14512,-0.38003,0.04653,,,,,,,,,,,,,,,,,,,,,,,,,,0,0,0,0,0
0.6637,1783012307.6826,1,0,1.0000,0.0000,1.44682,0.23328,-2.77748,0.97337,1.57080,0.00000,-0.14512,-0.38003,0.04653,,,,,,,,,,,,,,,,,,,,,,,,,,0,0,0,0,0
0.6643,1783012307.6831,1,0,1.0000,0.0000,1.44682,0.23328,-2.77748,0.97337,1.57080,0.00000,-0.14512,-0.38003,0.04653,,,,,,,,,,,,,,,,,,,,,,,,,,0,0,0,0,0
0.6815,1783012307.7004,1,0,1.0000,0.0000,1.44682,0.23328,-2.77748,0.97337,1.57080,0.00000,-0.14512,-0.38003,0.04653,,,,,,,,,,,,,,,,,,,,,,,,,,0,0,0,0,0
0.6865,1783012307.7053,1,0,1.0000,0.0000,1.44682,0.23328,-2.77748,0.97337,1.57080,0.00000,-0.14512,-0.38003,0.04653,,,,,,,,,,,,,,,,,,,,,,,,,,0,0,0,0,0
0.7003,1783012307.7192,1,0,1.0000,0.0000,1.44682,0.23328,-2.77748,0.97337,1.57080,0.00000,-0.14512,-0.38003,0.04653,,,,,,,,,,,,,,,,,,,,,,,,,,0,0,0,0,0
0.7206,1783012307.7395,1,0,1.0000,0.0000,1.44682,0.23328,-2.77748,0.97337,1.57080,0.00000,-0.14512,-0.38003,0.04653,,,,,,,,,,,,,,,,,,,,,,,,,,0,0,0,0,0
0.7316,1783012307.7505,1,1,1.0000,0.0000,1.44682,0.23328,-2.77748,0.97337,1.57080,0.00000,-0.14512,-0.38003,0.04653,,,,,,,,,,,,,,,,,,,,,,,,,,0,0,0,0,0
0.7320,1783012307.7508,1,1,1.0000,0.0000,1.44682,0.23328,-2.77748,0.97337,1.57080,0.00000,-0.14512,-0.38003,0.04653,,,,,,,,,,,,,,,,,,,,,,,,,,0,0,0,0,0
0.7366,1783012307.7554,1,1,1.0000,0.0000,1.44682,0.23328,-2.77748,0.97337,1.57080,0.00000,-0.14512,-0.38003,0.04653,,,,,,,,,,,,,,,,,,,,,,,,,,0,0,0,0,0
0.7369,1783012307.7557,1,1,1.0000,0.0000,1.44682,0.23328,-2.77748,0.97337,1.57080,0.00000,-0.14512,-0.38003,0.04653,,,,,,,,,,,,,,,,,,,,,,,,,,0,0,0,0,0
0.7536,1783012307.7725,1,1,1.0000,0.0000,1.44682,0.23328,-2.77748,0.97337,1.57080,0.00000,-0.14512,-0.38003,0.04653,,,,,,,,,,,,,,,,,,,,,,,,,,0,0,0,0,0
0.7553,1783012307.7742,1,1,1.0000,0.0000,1.44682,0.23328,-2.77748,0.97337,1.57080,0.00000,-0.14512,-0.38003,0.04653,,,,,,,,,,,,,,,,,,,,,,,,,,0,0,0,0,0
0.7693,1783012307.7881,1,1,1.0000,0.0000,1.44682,0.23328,-2.77748,0.97337,1.57080,0.00000,-0.14512,-0.38003,0.04653,,,,,,,,,,,,,,,,,,,,,,,,,,0,0,0,0,0
0.7798,1783012307.7987,1,1,1.0000,0.0000,1.44682,0.23328,-2.77748,0.97337,1.57080,0.00000,-0.14512,-0.38003,0.04653,,,,,,,,,,,,,,,,,,,,,,,,,,0,0,0,0,0
0.7801,1783012307.7990,1,1,1.0000,0.0000,1.44682,0.23328,-2.77748,0.97337,1.57080,0.00000,-0.14512,-0.38003,0.04653,,,,,,,,,,,,,,,,,,,,,,,,,,0,0,0,0,0
0.7845,1783012307.8034,1,1,1.0000,0.0000,1.44682,0.23328,-2.77748,0.97337,1.57080,0.00000,-0.14512,-0.38003,0.04653,,,,,,,,,,,,,,,,,,,,,,,,,,0,0,0,0,0
0.8210,1783012307.8399,1,1,1.0000,0.0000,1.44682,0.23328,-2.77748,0.97337,1.57080,0.00000,-0.14512,-0.38003,0.04653,,,,,,,,,,,,,,,,,,,,,,,,,,0,0,0,0,0
0.8213,1783012307.8402,1,1,1.0000,0.0000,1.44682,0.23328,-2.77748,0.97337,1.57080,0.00000,-0.14512,-0.38003,0.04653,,,,,,,,,,,,,,,,,,,,,,,,,,0,0,0,0,0
0.8255,1783012307.8443,1,1,1.0000,0.0000,1.44682,0.23328,-2.77748,0.97337,1.57080,0.00000,-0.14512,-0.38003,0.04653,,,,,,,,,,,,,,,,,,,,,,,,,,0,0,0,0,0
0.8357,1783012307.8546,1,1,1.0000,0.0000,1.44682,0.23328,-2.77748,0.97337,1.57080,0.00000,-0.14512,-0.38003,0.04653,,,,,,,,,,,,,,,,,,,,,,,,,,0,0,0,0,0
0.8461,1783012307.8650,1,1,1.0000,0.0000,1.44682,0.23328,-2.77748,0.97337,1.57080,0.00000,-0.14512,-0.38003,0.04653,,,,,,,,,,,,,,,,,,,,,,,,,,0,0,0,0,0
0.8543,1783012307.8732,1,1,1.0000,0.0000,1.44682,0.23328,-2.77748,0.97337,1.57080,0.00000,-0.14512,-0.38003,0.04653,,,,,,,,,,,,,,,,,,,,,,,,,,0,0,0,0,0
0.8676,1783012307.8864,1,1,1.0000,0.0000,1.44682,0.23328,-2.77748,0.97337,1.57080,0.00000,-0.14512,-0.38003,0.04653,,,,,,,,,,,,,,,,,,,,,,,,,,0,0,0,0,0
0.8842,1783012307.9031,1,1,1.0000,0.0000,1.44682,0.23328,-2.77748,0.97337,1.57080,0.00000,-0.14512,-0.38003,0.04653,,,,,,,,,,,,,,,,,,,,,,,,,,0,0,0,0,0
0.8847,1783012307.9036,1,1,1.0000,0.0000,1.44682,0.23328,-2.77748,0.97337,1.57080,0.00000,-0.14512,-0.38003,0.04653,,,,,,,,,,,,,,,,,,,,,,,,,,0,0,0,0,0
0.8875,1783012307.9064,1,1,1.0000,0.0000,1.44682,0.23328,-2.77748,0.97337,1.57080,0.00000,-0.14512,-0.38003,0.04653,,,,,,,,,,,,,,,,,,,,,,,,,,0,0,0,0,0
0.8939,1783012307.9127,1,1,1.0000,0.0000,1.44682,0.23328,-2.77748,0.97337,1.57080,0.00000,-0.14512,-0.38003,0.04653,,,,,,,,,,,,,,,,,,,,,,,,,,0,0,0,0,0
0.9045,1783012307.9233,1,1,1.0000,0.0000,1.44682,0.23328,-2.77748,0.97337,1.57080,0.00000,-0.14512,-0.38003,0.04653,,,,,,,,,,,,,,,,,,,,,,,,,,0,0,0,0,0
0.9174,1783012307.9362,1,1,1.0000,0.0000,1.44682,0.23328,-2.77748,0.97337,1.57080,0.00000,-0.14512,-0.38003,0.04653,,,,,,,,,,,,,,,,,,,,,,,,,,0,0,0,0,0
0.9240,1783012307.9429,1,1,1.0000,0.0000,1.44682,0.23327,-2.77748,0.97338,1.57080,0.00000,-0.14512,-0.38003,0.04653,,,,,,,,,,,,,,,,,,,,,,,,,,0,0,0,0,0
0.9243,1783012307.9431,1,1,1.0000,0.0000,1.44682,0.23327,-2.77748,0.97338,1.57080,0.00000,-0.14512,-0.38003,0.04653,,,,,,,,,,,,,,,,,,,,,,,,,,0,0,0,0,0
0.9371,1783012307.9559,1,1,1.0000,0.0000,1.44682,0.23321,-2.77750,0.97346,1.57080,0.00000,-0.14512,-0.38003,0.04651,,,,,,,,,,,,,,,,,,,,,,,,,,0,0,0,0,0
0.9464,1783012307.9652,1,1,1.0000,0.0000,1.44682,0.23315,-2.77751,0.97354,1.57080,0.00000,-0.14512,-0.38003,0.04649,,,,,,,,,,,,,,,,,,,,,,,,,,0,0,0,0,0
0.9543,1783012307.9731,1,1,1.0000,0.0000,1.44682,0.23312,-2.77752,0.97357,1.57080,0.00000,-0.14512,-0.38003,0.04649,,,,,,,,,,,,,,,,,,,,,,,,,,0,0,0,0,0
0.9665,1783012307.9854,1,1,1.0000,0.0000,1.44682,0.23309,-2.77752,0.97360,1.57080,0.00000,-0.14512,-0.38003,0.04648,,,,,,,,,,,,,,,,,,,,,,,,,,0,0,0,0,0
0.9904,1783012308.0093,1,1,1.0000,0.0000,1.44682,0.23302,-2.77754,0.97369,1.57080,0.00000,-0.14512,-0.38003,0.04646,,,,,,,,,,,,,,,,,,,,,,,,,,0,0,0,0,0
0.9907,1783012308.0096,1,1,1.0000,0.0000,1.44682,0.23302,-2.77754,0.97369,1.57080,0.00000,-0.14512,-0.38003,0.04646,,,,,,,,,,,,,,,,,,,,,,,,,,0,0,0,0,0
1.0003,1783012308.0191,1,1,1.0000,0.0000,1.44682,0.23295,-2.77756,0.97378,1.57080,0.00000,-0.14512,-0.38003,0.04644,,,,,,,,,,,,,,,,,,,,,,,,,,0,0,0,0,0
1.0005,1783012308.0194,1,1,1.0000,0.0000,1.44682,0.23295,-2.77756,0.97378,1.57080,0.00000,-0.14512,-0.38003,0.04644,,,,,,,,,,,,,,,,,,,,,,,,,,0,0,0,0,0
1.0044,1783012308.0233,1,1,1.0000,0.0000,1.44682,0.23293,-2.77757,0.97381,1.57080,0.00000,-0.14512,-0.38003,0.04644,,,,,,,,,,,,,,,,,,,,,,,,,,0,0,0,0,0
1.0048,1783012308.0237,1,1,1.0000,0.0000,1.44682,0.23293,-2.77757,0.97381,1.57080,0.00000,-0.14512,-0.38003,0.04644,,,,,,,,,,,,,,,,,,,,,,,,,,0,0,0,0,0
1.0138,1783012308.0327,1,1,1.0000,0.0000,1.44682,0.23290,-2.77757,0.97384,1.57080,0.00000,-0.14512,-0.38003,0.04643,,,,,,,,,,,,,,,,,,,,,,,,,,0,0,0,0,0
1.0267,1783012308.0456,1,1,1.0000,0.0000,1.44682,0.23287,-2.77758,0.97388,1.57080,0.00000,-0.14512,-0.38003,0.04642,,,,,,,,,,,,,,,,,,,,,,,,,,0,0,0,0,0
1.0363,1783012308.0552,1,1,1.0000,0.0000,1.44682,0.23281,-2.77760,0.97395,1.57080,0.00000,-0.14512,-0.38003,0.04641,,,,,,,,,,,,,,,,,,,,,,,,,,0,0,0,0,0
1.0615,1783012308.0803,1,1,1.0000,0.0000,1.44682,0.23273,-2.77762,0.97406,1.57080,0.00000,-0.14512,-0.38003,0.04638,,,,,,,,,,,,,,,,,,,,,,,,,,0,0,0,0,0
1.0656,1783012308.0845,1,1,1.0000,0.0000,1.44682,0.23270,-2.77762,0.97409,1.57080,0.00000,-0.14512,-0.38003,0.04638,,,,,,,,,,,,,,,,,,,,,,,,,,0,0,0,0,0
1.0986,1783012308.1174,1,1,1.0000,0.0000,1.44682,0.23259,-2.77765,0.97423,1.57080,0.00000,-0.14512,-0.38003,0.04635,,,,,,,,,,,,,,,,,,,,,,,,,,0,0,0,0,0
1.1001,1783012308.1189,1,1,1.0000,0.0000,1.44682,0.23259,-2.77765,0.97423,1.57080,0.00000,-0.14512,-0.38003,0.04635,,,,,,,,,,,,,,,,,,,,,,,,,,0,0,0,0,0
1.1005,1783012308.1194,1,1,1.0000,0.0000,1.44682,0.23259,-2.77765,0.97423,1.57080,0.00000,-0.14512,-0.38003,0.04635,,,,,,,,,,,,,,,,,,,,,,,,,,0,0,0,0,0
1.1010,1783012308.1198,1,1,1.0000,0.0000,1.44682,0.23259,-2.77765,0.97423,1.57080,0.00000,-0.14512,-0.38003,0.04635,,,,,,,,,,,,,,,,,,,,,,,,,,0,0,0,0,0
1.2098,1783012308.2287,1,1,1.0000,0.0000,1.44682,0.23219,-2.77776,0.97474,1.57080,0.00000,-0.14512,-0.38003,0.04624,,,,,,,,,,,,,,,,,,,,,,,,,,0,0,0,0,0
1.2101,1783012308.2290,1,1,1.0000,0.0000,1.44682,0.23219,-2.77776,0.97474,1.57080,0.00000,-0.14512,-0.38003,0.04624,,,,,,,,,,,,,,,,,,,,,,,,,,0,0,0,0,0
1.2105,1783012308.2293,1,1,1.0000,0.0000,1.44682,0.23219,-2.77776,0.97474,1.57080,0.00000,-0.14512,-0.38003,0.04624,,,,,,,,,,,,,,,,,,,,,,,,,,0,0,0,0,0
1.2107,1783012308.2295,1,1,1.0000,0.0000,1.44682,0.23219,-2.77776,0.97474,1.57080,0.00000,-0.14512,-0.38003,0.04624,,,,,,,,,,,,,,,,,,,,,,,,,,0,0,0,0,0
1.2109,1783012308.2298,1,1,1.0000,0.0000,1.44682,0.23219,-2.77776,0.97474,1.57080,0.00000,-0.14512,-0.38003,0.04624,,,,,,,,,,,,,,,,,,,,,,,,,,0,0,0,0,0
1.2114,1783012308.2302,1,1,1.0000,0.0000,1.44682,0.23217,-2.77776,0.97476,1.57080,0.00000,-0.14512,-0.38003,0.04624,,,,,,,,,,,,,,,,,,,,,,,,,,0,0,0,0,0
1.2330,1783012308.2519,1,1,1.0000,0.0000,1.44682,0.23211,-2.77778,0.97484,1.57080,0.00000,-0.14512,-0.38003,0.04622,,,,,,,,,,,,,,,,,,,,,,,,,,0,0,0,0,0
1.2335,1783012308.2523,1,1,1.0000,0.0000,1.44682,0.23211,-2.77778,0.97484,1.57080,0.00000,-0.14512,-0.38003,0.04622,,,,,,,,,,,,,,,,,,,,,,,,,,0,0,0,0,0
1.2339,1783012308.2528,1,1,1.0000,0.0000,1.44682,0.23211,-2.77778,0.97484,1.57080,0.00000,-0.14512,-0.38003,0.04622,,,,,,,,,,,,,,,,,,,,,,,,,,0,0,0,0,0
1.2477,1783012308.2666,1,1,1.0000,0.0000,1.44682,0.23201,-2.77780,0.97496,1.57080,0.00000,-0.14512,-0.38003,0.04620,,,,,,,,,,,,,,,,,,,,,,,,,,0,0,0,0,0
1.2480,1783012308.2669,1,1,1.0000,0.0000,1.44682,0.23201,-2.77780,0.97496,1.57080,0.00000,-0.14512,-0.38003,0.04620,,,,,,,,,,,,,,,,,,,,,,,,,,0,0,0,0,0
1.2528,1783012308.2717,1,1,1.0000,0.0000,1.44682,0.23201,-2.77780,0.97496,1.57080,0.00000,-0.14512,-0.38003,0.04620,,,,,,,,,,,,,,,,,,,,,,,,,,0,0,0,0,0
1.2585,1783012308.2773,1,1,1.0000,0.0000,1.44682,0.23201,-2.77780,0.97497,1.57080,0.00000,-0.14512,-0.38003,0.04620,,,,,,,,,,,,,,,,,,,,,,,,,,0,0,0,0,0
1.2734,1783012308.2923,1,1,1.0000,0.0000,1.44682,0.23195,-2.77782,0.97504,1.57080,0.00000,-0.14512,-0.38003,0.04618,,,,,,,,,,,,,,,,,,,,,,,,,,0,0,0,0,0
1.2808,1783012308.2997,1,1,1.0000,0.0000,1.44682,0.23193,-2.77783,0.97507,1.57080,0.00000,-0.14512,-0.38003,0.04617,,,,,,,,,,,,,,,,,,,,,,,,,,0,0,0,0,0
1.2930,1783012308.3118,1,1,1.0000,0.0000,1.44682,0.23189,-2.77783,0.97512,1.57080,0.00000,-0.14512,-0.38003,0.04616,,,,,,,,,,,,,,,,,,,,,,,,,,0,0,0,0,0
1.2986,1783012308.3175,1,1,1.0000,0.0000,1.44682,0.23187,-2.77784,0.97515,1.57080,0.00000,-0.14512,-0.38003,0.04616,,,,,,,,,,,,,,,,,,,,,,,,,,0,0,0,0,0
1.3085,1783012308.3273,1,1,1.0000,0.0000,1.44682,0.23179,-2.77786,0.97524,1.57080,0.00000,-0.14512,-0.38003,0.04614,,,,,,,,,,,,,,,,,,,,,,,,,,0,0,0,0,0
1.3096,1783012308.3285,1,1,1.0000,0.0000,1.44682,0.23179,-2.77786,0.97524,1.57080,0.00000,-0.14512,-0.38003,0.04614,,,,,,,,,,,,,,,,,,,,,,,,,,0,0,0,0,0
1.3202,1783012308.3391,1,1,1.0000,0.0000,1.44682,0.23178,-2.77786,0.97526,1.57080,0.00000,-0.14512,-0.38003,0.04613,,,,,,,,,,,,,,,,,,,,,,,,,,0,0,0,0,0
1.3318,1783012308.3507,1,1,1.0000,0.0000,1.44682,0.23172,-2.77788,0.97532,1.57080,0.00000,-0.14512,-0.38003,0.04612,,,,,,,,,,,,,,,,,,,,,,,,,,0,0,0,0,0
1.3380,1783012308.3568,1,1,1.0000,0.0000,1.44682,0.23170,-2.77788,0.97535,1.57080,0.00000,-0.14512,-0.38003,0.04612,,,,,,,,,,,,,,,,,,,,,,,,,,0,0,0,0,0
1.3494,1783012308.3683,1,1,1.0000,0.0000,1.44682,0.23169,-2.77789,0.97537,1.57080,0.00000,-0.14512,-0.38003,0.04611,,,,,,,,,,,,,,,,,,,,,,,,,,0,0,0,0,0
1.3636,1783012308.3825,1,1,1.0000,0.0000,1.44682,0.23159,-2.77791,0.97549,1.57080,0.00000,-0.14512,-0.38003,0.04609,,,,,,,,,,,,,,,,,,,,,,,,,,0,0,0,0,0
1.3680,1783012308.3868,1,1,1.0000,0.0000,1.44682,0.23156,-2.77792,0.97552,1.57080,0.00000,-0.14512,-0.38003,0.04608,,,,,,,,,,,,,,,,,,,,,,,,,,0,0,0,0,0
1.3775,1783012308.3964,1,1,1.0000,0.0000,1.44682,0.23156,-2.77792,0.97553,1.57080,0.00000,-0.14512,-0.38003,0.04608,,,,,,,,,,,,,,,,,,,,,,,,,,0,0,0,0,0
1.3927,1783012308.4115,1,1,1.0000,0.0000,1.44682,0.23148,-2.77794,0.97563,1.57080,0.00000,-0.14512,-0.38003,0.04606,,,,,,,,,,,,,,,,,,,,,,,,,,0,0,0,0,0
1.3984,1783012308.4172,1,1,1.0000,0.0000,1.44682,0.23146,-2.77795,0.97566,1.57080,0.00000,-0.14512,-0.38003,0.04605,,,,,,,,,,,,,,,,,,,,,,,,,,0,0,0,0,0
1.4102,1783012308.4291,1,1,1.0000,0.0000,1.44682,0.23144,-2.77795,0.97568,1.57080,0.00000,-0.14512,-0.38003,0.04605,,,,,,,,,,,,,,,,,,,,,,,,,,0,0,0,0,0
1.4197,1783012308.4386,1,1,1.0000,0.0000,1.44682,0.23137,-2.77797,0.97576,1.57080,0.00000,-0.14512,-0.38003,0.04603,,,,,,,,,,,,,,,,,,,,,,,,,,0,0,0,0,0
1.4201,1783012308.4389,1,1,1.0000,0.0000,1.44682,0.23137,-2.77797,0.97576,1.57080,0.00000,-0.14512,-0.38003,0.04603,,,,,,,,,,,,,,,,,,,,,,,,,,0,0,0,0,0
1.4280,1783012308.4469,1,1,1.0000,0.0000,1.44682,0.23132,-2.77798,0.97583,1.57080,0.00000,-0.14512,-0.38003,0.04602,,,,,,,,,,,,,,,,,,,,,,,,,,0,0,0,0,0
1.4375,1783012308.4564,1,1,1.0000,0.0000,1.44682,0.23132,-2.77798,0.97583,1.57080,0.00000,-0.14512,-0.38003,0.04602,,,,,,,,,,,,,,,,,,,,,,,,,,0,0,0,0,0
1.4482,1783012308.4671,1,1,1.0000,0.0000,1.44682,0.23126,-2.77800,0.97590,1.57080,0.00000,-0.14512,-0.38003,0.04600,,,,,,,,,,,,,,,,,,,,,,,,,,0,0,0,0,0
1.4596,1783012308.4785,1,1,1.0000,0.0000,1.44682,0.23121,-2.77801,0.97597,1.57080,0.00000,-0.14512,-0.38003,0.04599,,,,,,,,,,,,,,,,,,,,,,,,,,0,0,0,0,0
1.4600,1783012308.4789,1,1,1.0000,0.0000,1.44682,0.23121,-2.77801,0.97597,1.57080,0.00000,-0.14512,-0.38003,0.04599,,,,,,,,,,,,,,,,,,,,,,,,,,0,0,0,0,0
1.4684,1783012308.4873,1,1,1.0000,0.0000,1.44682,0.23120,-2.77801,0.97599,1.57080,0.00000,-0.14512,-0.38003,0.04598,,,,,,,,,,,,,,,,,,,,,,,,,,0,0,0,0,0
1.4775,1783012308.4964,1,1,1.0000,0.0000,1.44682,0.23116,-2.77802,0.97604,1.57080,0.00000,-0.14512,-0.38003,0.04597,,,,,,,,,,,,,,,,,,,,,,,,,,0,0,0,0,0
1.4958,1783012308.5146,1,1,1.0000,0.0000,1.44682,0.23107,-2.77804,0.97614,1.57080,0.00000,-0.14512,-0.38003,0.04595,,,,,,,,,,,,,,,,,,,,,,,,,,0,0,0,0,0
1.4987,1783012308.5176,1,1,1.0000,0.0000,1.44682,0.23107,-2.77804,0.97614,1.57080,0.00000,-0.14512,-0.38003,0.04595,,,,,,,,,,,,,,,,,,,,,,,,,,0,0,0,0,0
1.5089,1783012308.5278,1,1,1.0000,0.0000,1.44682,0.23102,-2.77806,0.97621,1.57080,0.00000,-0.14512,-0.38003,0.04594,,,,,,,,,,,,,,,,,,,,,,,,,,0,0,0,0,0
1.5177,1783012308.5366,1,1,1.0000,0.0000,1.44682,0.23097,-2.77807,0.97627,1.57080,0.00000,-0.14512,-0.38003,0.04592,,,,,,,,,,,,,,,,,,,,,,,,,,0,0,0,0,0
1.5279,1783012308.5468,1,1,1.0000,0.0000,1.44682,0.23095,-2.77808,0.97629,1.57080,0.00000,-0.14512,-0.38003,0.04592,,,,,,,,,,,,,,,,,,,,,,,,,,0,0,0,0,0
1.5395,1783012308.5584,1,1,1.0000,0.0000,1.44682,0.23089,-2.77809,0.97637,1.57080,0.00000,-0.14512,-0.38003,0.04590,,,,,,,,,,,,,,,,,,,,,,,,,,0,0,0,0,0
1.5507,1783012308.5696,1,1,1.0000,0.0000,1.44682,0.23084,-2.77811,0.97644,1.57080,0.00000,-0.14512,-0.38003,0.04589,,,,,,,,,,,,,,,,,,,,,,,,,,0,0,0,0,0
1.5637,1783012308.5826,1,1,1.0000,0.0000,1.44682,0.23080,-2.77811,0.97648,1.57080,0.00000,-0.14512,-0.38003,0.04588,,,,,,,,,,,,,,,,,,,,,,,,,,0,0,0,0,0
1.5685,1783012308.5874,1,1,1.0000,0.0000,1.44682,0.23078,-2.77812,0.97651,1.57080,0.00000,-0.14512,-0.38003,0.04587,,,,,,,,,,,,,,,,,,,,,,,,,,0,0,0,0,0
1.5845,1783012308.6034,1,1,1.0000,0.0000,1.44682,0.23072,-2.77813,0.97658,1.57080,0.00000,-0.14512,-0.38003,0.04586,,,,,,,,,,,,,,,,,,,,,,,,,,0,0,0,0,0
1.6026,1783012308.6215,1,1,1.0000,0.0000,1.44682,0.23064,-2.77815,0.97668,1.57080,0.00000,-0.14512,-0.38003,0.04584,,,,,,,,,,,,,,,,,,,,,,,,,,0,0,0,0,0
1.6052,1783012308.6240,1,1,1.0000,0.0000,1.44682,0.23062,-2.77816,0.97671,1.57080,0.00000,-0.14512,-0.38003,0.04583,,,,,,,,,,,,,,,,,,,,,,,,,,0,0,0,0,0
1.6090,1783012308.6279,1,1,1.0000,0.0000,1.44682,0.23059,-2.77817,0.97674,1.57080,0.00000,-0.14512,-0.38003,0.04583,,,,,,,,,,,,,,,,,,,,,,,,,,0,0,0,0,0
1.6195,1783012308.6383,1,1,1.0000,0.0000,1.44682,0.23058,-2.77817,0.97677,1.57080,0.00000,-0.14512,-0.38003,0.04582,,,,,,,,,,,,,,,,,,,,,,,,,,0,0,0,0,0
1.6277,1783012308.6465,1,1,1.0000,0.0000,1.44682,0.23054,-2.77818,0.97682,1.57080,0.00000,-0.14512,-0.38003,0.04581,,,,,,,,,,,,,,,,,,,,,,,,,,0,0,0,0,0
1.6394,1783012308.6583,1,1,1.0000,0.0000,1.44682,0.23048,-2.77820,0.97688,1.57080,0.00000,-0.14512,-0.38003,0.04580,,,,,,,,,,,,,,,,,,,,,,,,,,0,0,0,0,0
1.6476,1783012308.6665,1,1,1.0000,0.0000,1.44682,0.23047,-2.77820,0.97690,1.57080,0.00000,-0.14512,-0.38003,0.04579,,,,,,,,,,,,,,,,,,,,,,,,,,0,0,0,0,0
1.6480,1783012308.6668,1,1,1.0000,0.0000,1.44682,0.23047,-2.77820,0.97690,1.57080,0.00000,-0.14512,-0.38003,0.04579,,,,,,,,,,,,,,,,,,,,,,,,,,0,0,0,0,0
1.6579,1783012308.6768,1,1,1.0000,0.0000,1.44682,0.23043,-2.77821,0.97695,1.57080,0.00000,-0.14512,-0.38003,0.04578,,,,,,,,,,,,,,,,,,,,,,,,,,0,0,0,0,0
1.6583,1783012308.6772,1,1,1.0000,0.0000,1.44682,0.23043,-2.77821,0.97695,1.57080,0.00000,-0.14512,-0.38003,0.04578,,,,,,,,,,,,,,,,,,,,,,,,,,0,0,0,0,0
1.6677,1783012308.6865,1,1,1.0000,0.0000,1.44682,0.23035,-2.77823,0.97705,1.57080,0.00000,-0.14512,-0.38003,0.04576,,,,,,,,,,,,,,,,,,,,,,,,,,0,0,0,0,0
1.6680,1783012308.6869,1,1,1.0000,0.0000,1.44682,0.23035,-2.77823,0.97705,1.57080,0.00000,-0.14512,-0.38003,0.04576,,,,,,,,,,,,,,,,,,,,,,,,,,0,0,0,0,0
1.6797,1783012308.6985,1,1,1.0000,0.0000,1.44682,0.23033,-2.77823,0.97707,1.57080,0.00000,-0.14512,-0.38003,0.04576,,,,,,,,,,,,,,,,,,,,,,,,,,0,0,0,0,0
1.6878,1783012308.7067,1,1,1.0000,0.0000,1.44682,0.23029,-2.77825,0.97712,1.57080,0.00000,-0.14512,-0.38003,0.04575,,,,,,,,,,,,,,,,,,,,,,,,,,0,0,0,0,0
1.7023,1783012308.7212,1,1,1.0000,0.0000,1.44682,0.23021,-2.77826,0.97722,1.57080,0.00000,-0.14512,-0.38003,0.04573,,,,,,,,,,,,,,,,,,,,,,,,,,0,0,0,0,0
1.7082,1783012308.7271,1,1,1.0000,0.0000,1.44682,0.23021,-2.77827,0.97722,1.57080,0.00000,-0.14512,-0.38003,0.04573,,,,,,,,,,,,,,,,,,,,,,,,,,0,0,0,0,0
1.7085,1783012308.7273,1,1,1.0000,0.0000,1.44682,0.23021,-2.77827,0.97722,1.57080,0.00000,-0.14512,-0.38003,0.04573,,,,,,,,,,,,,,,,,,,,,,,,,,0,0,0,0,0
1.7176,1783012308.7364,1,1,1.0000,0.0000,1.44682,0.23019,-2.77827,0.97725,1.57080,0.00000,-0.14512,-0.38003,0.04572,,,,,,,,,,,,,,,,,,,,,,,,,,0,0,0,0,0
1.7314,1783012308.7503,1,1,1.0000,0.0000,1.44682,0.23013,-2.77829,0.97733,1.57080,0.00000,-0.14512,-0.38003,0.04571,,,,,,,,,,,,,,,,,,,,,,,,,,0,0,0,0,0
1.7403,1783012308.7592,1,1,1.0000,0.0000,1.44682,0.23011,-2.77829,0.97735,1.57080,0.00000,-0.14512,-0.38003,0.04570,,,,,,,,,,,,,,,,,,,,,,,,,,0,0,0,0,0
1.7478,1783012308.7667,1,1,1.0000,0.0000,1.44682,0.23007,-2.77830,0.97740,1.57080,0.00000,-0.14512,-0.38003,0.04569,,,,,,,,,,,,,,,,,,,,,,,,,,0,0,0,0,0
1.7596,1783012308.7784,1,1,1.0000,0.0000,1.44682,0.22999,-2.77832,0.97750,1.57080,0.00000,-0.14512,-0.38003,0.04567,,,,,,,,,,,,,,,,,,,,,,,,,,0,0,0,0,0
1.7599,1783012308.7787,1,1,1.0000,0.0000,1.44682,0.22999,-2.77832,0.97750,1.57080,0.00000,-0.14512,-0.38003,0.04567,,,,,,,,,,,,,,,,,,,,,,,,,,0,0,0,0,0
1.7677,1783012308.7865,1,1,1.0000,0.0000,1.44682,0.22999,-2.77832,0.97750,1.57080,0.00000,-0.14512,-0.38003,0.04567,,,,,,,,,,,,,,,,,,,,,,,,,,0,0,0,0,0
1.7784,1783012308.7973,1,1,1.0000,0.0000,1.44682,0.22997,-2.77833,0.97753,1.57080,0.00000,-0.14512,-0.38003,0.04566,,,,,,,,,,,,,,,,,,,,,,,,,,0,0,0,0,0
1.8136,1783012308.8324,1,1,1.0000,0.0000,1.44682,0.22982,-2.77837,0.97771,1.57080,0.00000,-0.14512,-0.38003,0.04562,,,,,,,,,,,,,,,,,,,,,,,,,,0,0,0,0,0
1.8138,1783012308.8327,1,1,1.0000,0.0000,1.44682,0.22982,-2.77837,0.97771,1.57080,0.00000,-0.14512,-0.38003,0.04562,,,,,,,,,,,,,,,,,,,,,,,,,,0,0,0,0,0
1.8141,1783012308.8330,1,1,1.0000,0.0000,1.44682,0.22982,-2.77837,0.97771,1.57080,0.00000,-0.14512,-0.38003,0.04562,,,,,,,,,,,,,,,,,,,,,,,,,,0,0,0,0,0
1.8145,1783012308.8334,1,1,1.0000,0.0000,1.44682,0.22982,-2.77837,0.97771,1.57080,0.00000,-0.14512,-0.38003,0.04562,,,,,,,,,,,,,,,,,,,,,,,,,,0,0,0,0,0
1.8201,1783012308.8390,1,1,1.0000,0.0000,1.44682,0.22977,-2.77838,0.97778,1.57080,0.00000,-0.14512,-0.38003,0.04561,,,,,,,,,,,,,,,,,,,,,,,,,,0,0,0,0,0
1.8295,1783012308.8483,1,1,1.0000,0.0000,1.44682,0.22976,-2.77838,0.97778,1.57080,0.00000,-0.14512,-0.38003,0.04561,,,,,,,,,,,,,,,,,,,,,,,,,,0,0,0,0,0
1.8298,1783012308.8487,1,1,1.0000,0.0000,1.44682,0.22976,-2.77838,0.97778,1.57080,0.00000,-0.14512,-0.38003,0.04561,,,,,,,,,,,,,,,,,,,,,,,,,,0,0,0,0,0
1.8376,1783012308.8564,1,1,1.0000,0.0000,1.44682,0.22974,-2.77839,0.97781,1.57080,0.00000,-0.14512,-0.38003,0.04560,,,,,,,,,,,,,,,,,,,,,,,,,,0,0,0,0,0
1.8480,1783012308.8668,1,1,1.0000,0.0000,1.44682,0.22968,-2.77840,0.97789,1.57080,0.00000,-0.14512,-0.38003,0.04559,,,,,,,,,,,,,,,,,,,,,,,,,,0,0,0,0,0
1.8484,1783012308.8672,1,1,1.0000,0.0000,1.44682,0.22968,-2.77840,0.97789,1.57080,0.00000,-0.14512,-0.38003,0.04559,,,,,,,,,,,,,,,,,,,,,,,,,,0,0,0,0,0
1.8600,1783012308.8789,1,1,1.0000,0.0000,1.44682,0.22967,-2.77841,0.97791,1.57080,0.00000,-0.14512,-0.38003,0.04558,,,,,,,,,,,,,,,,,,,,,,,,,,0,0,0,0,0
1.8817,1783012308.9006,1,1,1.0000,0.0000,1.44682,0.22954,-2.77844,0.97806,1.57080,0.00000,-0.14512,-0.38003,0.04555,,,,,,,,,,,,,,,,,,,,,,,,,,0,0,0,0,0
1.8819,1783012308.9008,1,1,1.0000,0.0000,1.44682,0.22954,-2.77844,0.97806,1.57080,0.00000,-0.14512,-0.38003,0.04555,,,,,,,,,,,,,,,,,,,,,,,,,,0,0,0,0,0
1.8882,1783012308.9070,1,1,1.0000,0.0000,1.44682,0.22954,-2.77844,0.97807,1.57080,0.00000,-0.14512,-0.38003,0.04555,,,,,,,,,,,,,,,,,,,,,,,,,,0,0,0,0,0
1.9036,1783012308.9225,1,1,1.0000,0.0000,1.44682,0.22948,-2.77845,0.97814,1.57080,0.00000,-0.14512,-0.38003,0.04554,,,,,,,,,,,,,,,,,,,,,,,,,,0,0,0,0,0
1.9100,1783012308.9289,1,1,1.0000,0.0000,1.44682,0.22946,-2.77846,0.97817,1.57080,0.00000,-0.14512,-0.38003,0.04553,,,,,,,,,,,,,,,,,,,,,,,,,,0,0,0,0,0
1.9105,1783012308.9293,1,1,1.0000,0.0000,1.44682,0.22946,-2.77846,0.97817,1.57080,0.00000,-0.14512,-0.38003,0.04553,,,,,,,,,,,,,,,,,,,,,,,,,,0,0,0,0,0
1.9225,1783012308.9414,1,1,1.0000,0.0000,1.44682,0.22944,-2.77846,0.97819,1.57080,0.00000,-0.14512,-0.38003,0.04553,,,,,,,,,,,,,,,,,,,,,,,,,,0,0,0,0,0
1.9277,1783012308.9465,1,1,1.0000,0.0000,1.44682,0.22940,-2.77847,0.97824,1.57080,0.00000,-0.14512,-0.38003,0.04552,,,,,,,,,,,,,,,,,,,,,,,,,,0,0,0,0,0
1.9279,1783012308.9468,1,1,1.0000,0.0000,1.44682,0.22940,-2.77847,0.97824,1.57080,0.00000,-0.14512,-0.38003,0.04552,,,,,,,,,,,,,,,,,,,,,,,,,,0,0,0,0,0
1.9482,1783012308.9671,1,1,1.0000,0.0000,1.44682,0.22932,-2.77849,0.97835,1.57080,0.00000,-0.14512,-0.38003,0.04549,,,,,,,,,,,,,,,,,,,,,,,,,,0,0,0,0,0
1.9488,1783012308.9677,1,1,1.0000,0.0000,1.44682,0.22932,-2.77849,0.97835,1.57080,0.00000,-0.14512,-0.38003,0.04549,,,,,,,,,,,,,,,,,,,,,,,,,,0,0,0,0,0
1.9491,1783012308.9679,1,1,1.0000,0.0000,1.44682,0.22932,-2.77849,0.97835,1.57080,0.00000,-0.14512,-0.38003,0.04549,,,,,,,,,,,,,,,,,,,,,,,,,,0,0,0,0,0
1.9639,1783012308.9828,1,1,1.0000,0.0000,1.44682,0.22926,-2.77851,0.97842,1.57080,0.00000,-0.14512,-0.38003,0.04548,,,,,,,,,,,,,,,,,,,,,,,,,,0,0,0,0,0
1.9643,1783012308.9831,1,1,1.0000,0.0000,1.44682,0.22926,-2.77851,0.97842,1.57080,0.00000,-0.14512,-0.38003,0.04548,,,,,,,,,,,,,,,,,,,,,,,,,,0,0,0,0,0
1.9697,1783012308.9885,1,1,1.0000,0.0000,1.44682,0.22924,-2.77852,0.97845,1.57080,0.00000,-0.14512,-0.38003,0.04547,,,,,,,,,,,,,,,,,,,,,,,,,,0,0,0,0,0
1.9802,1783012308.9990,1,1,1.0000,0.0000,1.44682,0.22922,-2.77852,0.97847,1.57080,0.00000,-0.14512,-0.38003,0.04547,,,,,,,,,,,,,,,,,,,,,,,,,,0,0,0,0,0
1.9938,1783012309.0127,1,1,1.0000,0.0000,1.44682,0.22915,-2.77854,0.97856,1.57080,0.00000,-0.14512,-0.38003,0.04545,,,,,,,,,,,,,,,,,,,,,,,,,,0,0,0,0,0
2.0058,1783012309.0247,1,1,1.0000,0.0000,1.44682,0.22910,-2.77855,0.97862,1.57080,0.00000,-0.14512,-0.38003,0.04544,,,,,,,,,,,,,,,,,,,,,,,,,,0,0,0,0,0
2.0086,1783012309.0274,1,1,1.0000,0.0000,1.44682,0.22909,-2.77855,0.97863,1.57080,0.00000,-0.14512,-0.38003,0.04544,,,,,,,,,,,,,,,,,,,,,,,,,,0,0,0,0,0
2.0201,1783012309.0389,1,1,1.0000,0.0000,1.44682,0.22904,-2.77857,0.97869,1.57080,0.00000,-0.14512,-0.38003,0.04542,,,,,,,,,,,,,,,,,,,,,,,,,,0,0,0,0,0
2.0203,1783012309.0392,1,1,1.0000,0.0000,1.44682,0.22904,-2.77857,0.97869,1.57080,0.00000,-0.14512,-0.38003,0.04542,,,,,,,,,,,,,,,,,,,,,,,,,,0,0,0,0,0
2.0317,1783012309.0505,1,1,1.0000,0.0000,1.44682,0.22899,-2.77858,0.97876,1.57080,0.00000,-0.14512,-0.38003,0.04541,,,,,,,,,,,,,,,,,,,,,,,,,,0,0,0,0,0
2.0319,1783012309.0508,1,1,1.0000,0.0000,1.44682,0.22899,-2.77858,0.97876,1.57080,0.00000,-0.14512,-0.38003,0.04541,,,,,,,,,,,,,,,,,,,,,,,,,,0,0,0,0,0
2.0380,1783012309.0568,1,1,1.0000,0.0000,1.44682,0.22898,-2.77858,0.97876,1.57080,0.00000,-0.14512,-0.38003,0.04541,,,,,,,,,,,,,,,,,,,,,,,,,,0,0,0,0,0
2.0507,1783012309.0695,1,1,1.0000,0.0000,1.44682,0.22893,-2.77859,0.97883,1.57080,0.00000,-0.14512,-0.38003,0.04539,,,,,,,,,,,,,,,,,,,,,,,,,,0,0,0,0,0
2.0588,1783012309.0777,1,1,1.0000,0.0000,1.44682,0.22888,-2.77861,0.97890,1.57080,0.00000,-0.14512,-0.38003,0.04538,,,,,,,,,,,,,,,,,,,,,,,,,,0,0,0,0,0
2.0685,1783012309.0874,1,1,1.0000,0.0000,1.44682,0.22885,-2.77861,0.97893,1.57080,0.00000,-0.14512,-0.38003,0.04537,,,,,,,,,,,,,,,,,,,,,,,,,,0,0,0,0,0
2.0804,1783012309.0992,1,1,1.0000,0.0000,1.44682,0.22880,-2.77863,0.97900,1.57080,0.00000,-0.14512,-0.38003,0.04536,,,,,,,,,,,,,,,,,,,,,,,,,,0,0,0,0,0
2.0878,1783012309.1067,1,1,1.0000,0.0000,1.44682,0.22874,-2.77864,0.97907,1.57080,0.00000,-0.14512,-0.38003,0.04535,,,,,,,,,,,,,,,,,,,,,,,,,,0,0,0,0,0
2.0982,1783012309.1171,1,1,1.0000,0.0000,1.44682,0.22874,-2.77864,0.97907,1.57080,0.00000,-0.14512,-0.38003,0.04534,,,,,,,,,,,,,,,,,,,,,,,,,,0,0,0,0,0
2.1195,1783012309.1384,1,1,1.0000,0.0000,1.44682,0.22861,-2.77867,0.97923,1.57080,0.00000,-0.14512,-0.38003,0.04531,,,,,,,,,,,,,,,,,,,,,,,,,,0,0,0,0,0
2.1276,1783012309.1464,1,1,1.0000,0.0000,1.44682,0.22861,-2.77868,0.97924,1.57080,0.00000,-0.14512,-0.38003,0.04531,,,,,,,,,,,,,,,,,,,,,,,,,,0,0,0,0,0
2.1383,1783012309.1572,1,1,1.0000,0.0000,1.44682,0.22857,-2.77868,0.97928,1.57080,0.00000,-0.14512,-0.38003,0.04530,,,,,,,,,,,,,,,,,,,,,,,,,,0,0,0,0,0
2.1565,1783012309.1753,1,1,1.0000,0.0000,1.44682,0.22850,-2.77870,0.97938,1.57080,0.00000,-0.14512,-0.38003,0.04528,,,,,,,,,,,,,,,,,,,,,,,,,,0,0,0,0,0
2.1567,1783012309.1756,1,1,1.0000,0.0000,1.44682,0.22850,-2.77870,0.97938,1.57080,0.00000,-0.14512,-0.38003,0.04528,,,,,,,,,,,,,,,,,,,,,,,,,,0,0,0,0,0
2.1632,1783012309.1820,1,1,1.0000,0.0000,1.44682,0.22848,-2.77871,0.97939,1.57080,0.00000,-0.14512,-0.38003,0.04528,,,,,,,,,,,,,,,,,,,,,,,,,,0,0,0,0,0
2.1636,1783012309.1825,1,1,1.0000,0.0000,1.44682,0.22847,-2.77871,0.97942,1.57080,0.00000,-0.14512,-0.38003,0.04527,,,,,,,,,,,,,,,,,,,,,,,,,,0,0,0,0,0
2.1683,1783012309.1872,1,1,1.0000,0.0000,1.44682,0.22844,-2.77872,0.97944,1.57080,0.00000,-0.14512,-0.38003,0.04527,,,,,,,,,,,,,,,,,,,,,,,,,,0,0,0,0,0
2.1687,1783012309.1876,1,1,1.0000,0.0000,1.44682,0.22844,-2.77872,0.97944,1.57080,0.00000,-0.14512,-0.38003,0.04527,,,,,,,,,,,,,,,,,,,,,,,,,,0,0,0,0,0
2.1824,1783012309.2013,1,1,1.0000,0.0000,1.44682,0.22837,-2.77874,0.97954,1.57080,0.00000,-0.14512,-0.38003,0.04525,,,,,,,,,,,,,,,,,,,,,,,,,,0,0,0,0,0
2.1880,1783012309.2068,1,1,1.0000,0.0000,1.44682,0.22836,-2.77874,0.97955,1.57080,0.00000,-0.14512,-0.38003,0.04525,,,,,,,,,,,,,,,,,,,,,,,,,,0,0,0,0,0
2.2000,1783012309.2189,1,1,1.0000,0.0000,1.44682,0.22831,-2.77875,0.97961,1.57080,0.00000,-0.14512,-0.38003,0.04523,,,,,,,,,,,,,,,,,,,,,,,,,,0,0,0,0,0
2.2159,1783012309.2347,1,1,1.0000,0.0000,1.44682,0.22825,-2.77877,0.97968,1.57080,0.00000,-0.14512,-0.38003,0.04522,,,,,,,,,,,,,,,,,,,,,,,,,,0,0,0,0,0
2.2193,1783012309.2381,1,1,1.0000,0.0000,1.44682,0.22825,-2.77877,0.97968,1.57080,0.00000,-0.14512,-0.38003,0.04522,,,,,,,,,,,,,,,,,,,,,,,,,,0,0,0,0,0
2.2197,1783012309.2386,1,1,1.0000,0.0000,1.44682,0.22824,-2.77877,0.97970,1.57080,0.00000,-0.14512,-0.38003,0.04521,,,,,,,,,,,,,,,,,,,,,,,,,,0,0,0,0,0
2.2307,1783012309.2496,1,1,1.0000,0.0000,1.44682,0.22820,-2.77878,0.97975,1.57080,0.00000,-0.14512,-0.38003,0.04520,,,,,,,,,,,,,,,,,,,,,,,,,,0,0,0,0,0
2.2311,1783012309.2500,1,1,1.0000,0.0000,1.44682,0.22820,-2.77878,0.97975,1.57080,0.00000,-0.14512,-0.38003,0.04520,,,,,,,,,,,,,,,,,,,,,,,,,,0,0,0,0,0
2.2377,1783012309.2566,1,1,1.0000,0.0000,1.44682,0.22815,-2.77879,0.97981,1.57080,0.00000,-0.14512,-0.38003,0.04519,,,,,,,,,,,,,,,,,,,,,,,,,,0,0,0,0,0
2.2480,1783012309.2669,1,1,1.0000,0.0000,1.44682,0.22812,-2.77880,0.97985,1.57080,0.00000,-0.14512,-0.38003,0.04518,,,,,,,,,,,,,,,,,,,,,,,,,,0,0,0,0,0
2.2590,1783012309.2778,1,1,1.0000,0.0000,1.44682,0.22809,-2.77881,0.97989,1.57080,0.00000,-0.14512,-0.38003,0.04517,,,,,,,,,,,,,,,,,,,,,,,,,,0,0,0,0,0
2.2678,1783012309.2867,1,1,1.0000,0.0000,1.44682,0.22801,-2.77883,0.97998,1.57080,0.00000,-0.14512,-0.38003,0.04515,,,,,,,,,,,,,,,,,,,,,,,,,,0,0,0,0,0
2.2784,1783012309.2973,1,1,1.0000,0.0000,1.44682,0.22799,-2.77883,0.98002,1.57080,0.00000,-0.14512,-0.38003,0.04515,,,,,,,,,,,,,,,,,,,,,,,,,,0,0,0,0,0
2.2892,1783012309.3081,1,1,1.0000,0.0000,1.44682,0.22796,-2.77884,0.98005,1.57080,0.00000,-0.14512,-0.38003,0.04514,,,,,,,,,,,,,,,,,,,,,,,,,,0,0,0,0,0
2.2977,1783012309.3166,1,1,1.0000,0.0000,1.44682,0.22792,-2.77885,0.98010,1.57080,0.00000,-0.14512,-0.38003,0.04513,,,,,,,,,,,,,,,,,,,,,,,,,,0,0,0,0,0
2.3140,1783012309.3329,1,1,1.0000,0.0000,1.44682,0.22788,-2.77886,0.98015,1.57080,0.00000,-0.14512,-0.38003,0.04512,,,,,,,,,,,,,,,,,,,,,,,,,,0,0,0,0,0
2.3192,1783012309.3381,1,1,1.0000,0.0000,1.44682,0.22786,-2.77886,0.98017,1.57080,0.00000,-0.14512,-0.38003,0.04512,,,,,,,,,,,,,,,,,,,,,,,,,,0,0,0,0,0
2.3330,1783012309.3519,1,1,1.0000,0.0000,1.44682,0.22779,-2.77888,0.98026,1.57080,0.00000,-0.14512,-0.38003,0.04510,,,,,,,,,,,,,,,,,,,,,,,,,,0,0,0,0,0
2.3377,1783012309.3565,1,1,1.0000,0.0000,1.44682,0.22778,-2.77889,0.98027,1.57080,0.00000,-0.14512,-0.38003,0.04510,,,,,,,,,,,,,,,,,,,,,,,,,,0,0,0,0,0
2.3491,1783012309.3680,1,1,1.0000,0.0000,1.44682,0.22773,-2.77890,0.98034,1.57080,0.00000,-0.14512,-0.38003,0.04508,,,,,,,,,,,,,,,,,,,,,,,,,,0,0,0,0,0
2.3577,1783012309.3766,1,1,1.0000,0.0000,1.44682,0.22768,-2.77891,0.98040,1.57080,0.00000,-0.14512,-0.38003,0.04507,,,,,,,,,,,,,,,,,,,,,,,,,,0,0,0,0,0
2.3581,1783012309.3770,1,1,1.0000,0.0000,1.44682,0.22768,-2.77891,0.98040,1.57080,0.00000,-0.14512,-0.38003,0.04507,,,,,,,,,,,,,,,,,,,,,,,,,,0,0,0,0,0
2.3700,1783012309.3889,1,1,1.0000,0.0000,1.44682,0.22765,-2.77892,0.98044,1.57080,0.00000,-0.14512,-0.38003,0.04506,,,,,,,,,,,,,,,,,,,,,,,,,,0,0,0,0,0
2.3779,1783012309.3967,1,1,1.0000,0.0000,1.44682,0.22762,-2.77893,0.98048,1.57080,0.00000,-0.14512,-0.38003,0.04505,,,,,,,,,,,,,,,,,,,,,,,,,,0,0,0,0,0
2.3882,1783012309.4070,1,1,1.0000,0.0000,1.44682,0.22754,-2.77895,0.98057,1.57080,0.00000,-0.14512,-0.38003,0.04503,,,,,,,,,,,,,,,,,,,,,,,,,,0,0,0,0,0
2.3885,1783012309.4073,1,1,1.0000,0.0000,1.44682,0.22754,-2.77895,0.98057,1.57080,0.00000,-0.14512,-0.38003,0.04503,,,,,,,,,,,,,,,,,,,,,,,,,,0,0,0,0,0
2.3976,1783012309.4165,1,1,1.0000,0.0000,1.44682,0.22752,-2.77895,0.98060,1.57080,0.00000,-0.14512,-0.38003,0.04503,,,,,,,,,,,,,,,,,,,,,,,,,,0,0,0,0,0
2.4159,1783012309.4347,1,1,1.0000,0.0000,1.44682,0.22745,-2.77897,0.98068,1.57080,0.00000,-0.14512,-0.38003,0.04501,,,,,,,,,,,,,,,,,,,,,,,,,,0,0,0,0,0
2.4184,1783012309.4373,1,1,1.0000,0.0000,1.44682,0.22745,-2.77897,0.98068,1.57080,0.00000,-0.14512,-0.38003,0.04501,,,,,,,,,,,,,,,,,,,,,,,,,,0,0,0,0,0
2.4283,1783012309.4471,1,1,1.0000,0.0000,1.44682,0.22743,-2.77898,0.98072,1.57080,0.00000,-0.14512,-0.38003,0.04500,,,,,,,,,,,,,,,,,,,,,,,,,,0,0,0,0,0
2.4287,1783012309.4475,1,1,1.0000,0.0000,1.44682,0.22743,-2.77898,0.98072,1.57080,0.00000,-0.14512,-0.38003,0.04500,,,,,,,,,,,,,,,,,,,,,,,,,,0,0,0,0,0
2.4410,1783012309.4598,1,1,1.0000,0.0000,1.44682,0.22737,-2.77899,0.98079,1.57080,0.00000,-0.14512,-0.38003,0.04499,,,,,,,,,,,,,,,,,,,,,,,,,,0,0,0,0,0
2.4494,1783012309.4682,1,1,1.0000,0.0000,1.44682,0.22732,-2.77900,0.98085,1.57080,0.00000,-0.14512,-0.38003,0.04498,,,,,,,,,,,,,,,,,,,,,,,,,,0,0,0,0,0
2.4602,1783012309.4790,1,1,1.0000,0.0000,1.44682,0.22729,-2.77901,0.98089,1.57080,0.00000,-0.14512,-0.38003,0.04497,,,,,,,,,,,,,,,,,,,,,,,,,,0,0,0,0,0
2.4605,1783012309.4793,1,1,1.0000,0.0000,1.44682,0.22729,-2.77901,0.98089,1.57080,0.00000,-0.14512,-0.38003,0.04497,,,,,,,,,,,,,,,,,,,,,,,,,,0,0,0,0,0
2.4686,1783012309.4875,1,1,1.0000,0.0000,1.44682,0.22727,-2.77902,0.98092,1.57080,0.00000,-0.14512,-0.38003,0.04496,,,,,,,,,,,,,,,,,,,,,,,,,,0,0,0,0,0
2.4690,1783012309.4878,1,1,1.0000,0.0000,1.44682,0.22727,-2.77902,0.98092,1.57080,0.00000,-0.14512,-0.38003,0.04496,,,,,,,,,,,,,,,,,,,,,,,,,,0,0,0,0,0
2.4773,1783012309.4962,1,1,1.0000,0.0000,1.44682,0.22723,-2.77903,0.98096,1.57080,0.00000,-0.14512,-0.38003,0.04495,,,,,,,,,,,,,,,,,,,,,,,,,,0,0,0,0,0
2.4777,1783012309.4966,1,1,1.0000,0.0000,1.44682,0.22723,-2.77903,0.98096,1.57080,0.00000,-0.14512,-0.38003,0.04495,,,,,,,,,,,,,,,,,,,,,,,,,,0,0,0,0,0
2.4874,1783012309.5063,1,1,1.0000,0.0000,1.44682,0.22721,-2.77903,0.98099,1.57080,0.00000,-0.14512,-0.38003,0.04495,,,,,,,,,,,,,,,,,,,,,,,,,,0,0,0,0,0
2.4882,1783012309.5070,1,1,1.0000,0.0000,1.44682,0.22720,-2.77903,0.98100,1.57080,0.00000,-0.14512,-0.38003,0.04494,,,,,,,,,,,,,,,,,,,,,,,,,,0,0,0,0,0
2.4975,1783012309.5164,1,1,1.0000,0.0000,1.44682,0.22717,-2.77904,0.98104,1.57080,0.00000,-0.14512,-0.38003,0.04494,,,,,,,,,,,,,,,,,,,,,,,,,,0,0,0,0,0
2.5079,1783012309.5267,1,1,1.0000,0.0000,1.44682,0.22710,-2.77906,0.98113,1.57080,0.00001,-0.14512,-0.38003,0.04492,,,,,,,,,,,,,,,,,,,,,,,,,,0,0,0,0,0
2.5244,1783012309.5433,1,1,1.0000,0.0000,1.44682,0.22706,-2.77907,0.98118,1.57080,0.00001,-0.14512,-0.38003,0.04491,,,,,,,,,,,,,,,,,,,,,,,,,,0,0,0,0,0
2.5299,1783012309.5487,1,1,1.0000,0.0000,1.44682,0.22704,-2.77907,0.98120,1.57080,0.00001,-0.14512,-0.38003,0.04490,,,,,,,,,,,,,,,,,,,,,,,,,,0,0,0,0,0
2.5378,1783012309.5566,1,1,1.0000,0.0000,1.44682,0.22701,-2.77908,0.98124,1.57080,0.00001,-0.14512,-0.38003,0.04489,,,,,,,,,,,,,,,,,,,,,,,,,,0,0,0,0,0
2.5480,1783012309.5668,1,1,1.0000,0.0000,1.44682,0.22698,-2.77909,0.98128,1.57080,0.00001,-0.14512,-0.38003,0.04489,,,,,,,,,,,,,,,,,,,,,,,,,,0,0,0,0,0
2.5639,1783012309.5828,1,1,1.0000,0.0000,1.44682,0.22690,-2.77911,0.98138,1.57080,0.00001,-0.14512,-0.38003,0.04487,,,,,,,,,,,,,,,,,,,,,,,,,,0,0,0,0,0
2.5675,1783012309.5863,1,1,1.0000,0.0000,1.44682,0.22690,-2.77911,0.98138,1.57080,0.00001,-0.14512,-0.38003,0.04487,,,,,,,,,,,,,,,,,,,,,,,,,,0,0,0,0,0
2.5681,1783012309.5870,1,1,1.0000,0.0000,1.44682,0.22687,-2.77912,0.98141,1.57080,0.00001,-0.14512,-0.38003,0.04486,,,,,,,,,,,,,,,,,,,,,,,,,,0,0,0,0,0
2.5775,1783012309.5963,1,1,1.0000,0.0000,1.44682,0.22685,-2.77912,0.98145,1.57080,0.00001,-0.14512,-0.38003,0.04485,,,,,,,,,,,,,,,,,,,,,,,,,,0,0,0,0,0
2.5896,1783012309.6085,1,1,1.0000,0.0000,1.44682,0.22682,-2.77913,0.98148,1.57080,0.00001,-0.14512,-0.38003,0.04485,,,,,,,,,,,,,,,,,,,,,,,,,,0,0,0,0,0
2.5975,1783012309.6164,1,1,1.0000,0.0000,1.44682,0.22678,-2.77914,0.98153,1.57080,0.00001,-0.14512,-0.38003,0.04484,,,,,,,,,,,,,,,,,,,,,,,,,,0,0,0,0,0
2.6081,1783012309.6270,1,1,1.0000,0.0000,1.44682,0.22676,-2.77915,0.98156,1.57080,0.00001,-0.14512,-0.38003,0.04483,,,,,,,,,,,,,,,,,,,,,,,,,,0,0,0,0,0
2.6262,1783012309.6450,1,1,1.0000,0.0000,1.44682,0.22667,-2.77917,0.98166,1.57080,0.00001,-0.14512,-0.38003,0.04481,,,,,,,,,,,,,,,,,,,,,,,,,,0,0,0,0,0
2.6344,1783012309.6532,1,1,1.0000,0.0000,1.44682,0.22662,-2.77918,0.98173,1.57080,0.00001,-0.14512,-0.38003,0.04479,,,,,,,,,,,,,,,,,,,,,,,,,,0,0,0,0,0
2.6427,1783012309.6616,1,1,1.0000,0.0000,1.44682,0.22662,-2.77918,0.98173,1.57080,0.00001,-0.14512,-0.38003,0.04479,,,,,,,,,,,,,,,,,,,,,,,,,,0,0,0,0,0
2.6432,1783012309.6620,1,1,1.0000,0.0000,1.44682,0.22662,-2.77918,0.98173,1.57080,0.00001,-0.14512,-0.38003,0.04479,,,,,,,,,,,,,,,,,,,,,,,,,,0,0,0,0,0
2.6495,1783012309.6684,1,1,1.0000,0.0000,1.44682,0.22660,-2.77919,0.98176,1.57080,0.00001,-0.14512,-0.38003,0.04479,,,,,,,,,,,,,,,,,,,,,,,,,,0,0,0,0,0
2.6583,1783012309.6771,1,1,1.0000,0.0000,1.44682,0.22656,-2.77920,0.98181,1.57080,0.00001,-0.14512,-0.38003,0.04478,,,,,,,,,,,,,,,,,,,,,,,,,,0,0,0,0,0
2.6688,1783012309.6876,1,1,1.0000,0.0000,1.44682,0.22653,-2.77920,0.98184,1.57080,0.00001,-0.14512,-0.38003,0.04477,,,,,,,,,,,,,,,,,,,,,,,,,,0,0,0,0,0
2.6790,1783012309.6979,1,1,1.0000,0.0000,1.44682,0.22650,-2.77921,0.98188,1.57080,0.00001,-0.14512,-0.38003,0.04476,,,,,,,,,,,,,,,,,,,,,,,,,,0,0,0,0,0
2.6880,1783012309.7068,1,1,1.0000,0.0000,1.44682,0.22642,-2.77923,0.98198,1.57080,0.00001,-0.14512,-0.38003,0.04474,,,,,,,,,,,,,,,,,,,,,,,,,,0,0,0,0,0
2.7008,1783012309.7196,1,1,1.0000,0.0000,1.44682,0.22639,-2.77924,0.98201,1.57080,0.00001,-0.14512,-0.38003,0.04473,,,,,,,,,,,,,,,,,,,,,,,,,,0,0,0,0,0
2.7075,1783012309.7264,1,1,1.0000,0.0000,1.44682,0.22638,-2.77924,0.98202,1.57080,0.00001,-0.14512,-0.38003,0.04473,,,,,,,,,,,,,,,,,,,,,,,,,,0,0,0,0,0
2.7230,1783012309.7419,1,1,1.0000,0.0000,1.44682,0.22631,-2.77926,0.98212,1.57080,0.00001,-0.14512,-0.38003,0.04471,,,,,,,,,,,,,,,,,,,,,,,,,,0,0,0,0,0
2.7283,1783012309.7471,1,1,1.0000,0.0000,1.44682,0.22631,-2.77926,0.98212,1.57080,0.00001,-0.14512,-0.38003,0.04471,,,,,,,,,,,,,,,,,,,,,,,,,,0,0,0,0,0
2.7287,1783012309.7475,1,1,1.0000,0.0000,1.44682,0.22631,-2.77926,0.98212,1.57080,0.00001,-0.14512,-0.38003,0.04471,,,,,,,,,,,,,,,,,,,,,,,,,,0,0,0,0,0
2.7414,1783012309.7602,1,1,1.0000,0.0000,1.44682,0.22625,-2.77927,0.98219,1.57080,0.00001,-0.14512,-0.38003,0.04470,,,,,,,,,,,,,,,,,,,,,,,,,,0,0,0,0,0
2.7494,1783012309.7682,1,1,1.0000,0.0000,1.44682,0.22620,-2.77929,0.98226,1.57080,0.00001,-0.14512,-0.38003,0.04468,,,,,,,,,,,,,,,,,,,,,,,,,,0,0,0,0,0
2.7594,1783012309.7783,1,1,1.0000,0.0000,1.44682,0.22617,-2.77929,0.98229,1.57080,0.00001,-0.14512,-0.38003,0.04468,,,,,,,,,,,,,,,,,,,,,,,,,,0,0,0,0,0
2.7680,1783012309.7868,1,1,1.0000,0.0000,1.44682,0.22615,-2.77930,0.98232,1.57080,0.00001,-0.14512,-0.38003,0.04467,,,,,,,,,,,,,,,,,,,,,,,,,,0,0,0,0,0
2.7800,1783012309.7989,1,1,1.0000,0.0000,1.44682,0.22609,-2.77932,0.98240,1.57080,0.00001,-0.14512,-0.38003,0.04466,,,,,,,,,,,,,,,,,,,,,,,,,,0,0,0,0,0
2.7895,1783012309.8084,1,1,1.0000,0.0000,1.44682,0.22608,-2.77932,0.98240,1.57080,0.00001,-0.14512,-0.38003,0.04465,,,,,,,,,,,,,,,,,,,,,,,,,,0,0,0,0,0
2.7981,1783012309.8169,1,1,1.0000,0.0000,1.44682,0.22605,-2.77933,0.98244,1.57080,0.00001,-0.14512,-0.38003,0.04465,,,,,,,,,,,,,,,,,,,,,,,,,,0,0,0,0,0
2.8082,1783012309.8271,1,1,1.0000,0.0000,1.44682,0.22597,-2.77934,0.98254,1.57080,0.00001,-0.14512,-0.38003,0.04463,,,,,,,,,,,,,,,,,,,,,,,,,,0,0,0,0,0
2.8085,1783012309.8273,1,1,1.0000,0.0000,1.44682,0.22597,-2.77934,0.98254,1.57080,0.00001,-0.14512,-0.38003,0.04463,,,,,,,,,,,,,,,,,,,,,,,,,,0,0,0,0,0
2.8306,1783012309.8495,1,1,1.0000,0.0000,1.44682,0.22592,-2.77936,0.98260,1.57080,0.00001,-0.14512,-0.38003,0.04461,,,,,,,,,,,,,,,,,,,,,,,,,,0,0,0,0,0
2.8311,1783012309.8499,1,1,1.0000,0.0000,1.44682,0.22592,-2.77936,0.98260,1.57080,0.00001,-0.14512,-0.38003,0.04461,,,,,,,,,,,,,,,,,,,,,,,,,,0,0,0,0,0
2.8376,1783012309.8564,1,1,1.0000,0.0000,1.44682,0.22588,-2.77937,0.98265,1.57080,0.00001,-0.14512,-0.38003,0.04460,,,,,,,,,,,,,,,,,,,,,,,,,,0,0,0,0,0
2.8497,1783012309.8686,1,1,1.0000,0.0000,1.44682,0.22586,-2.77937,0.98268,1.57080,0.00001,-0.14512,-0.38003,0.04460,,,,,,,,,,,,,,,,,,,,,,,,,,0,0,0,0,0
2.8584,1783012309.8773,1,1,1.0000,0.0000,1.44682,0.22583,-2.77938,0.98272,1.57080,0.00001,-0.14512,-0.38003,0.04459,,,,,,,,,,,,,,,,,,,,,,,,,,0,0,0,0,0
2.8701,1783012309.8889,1,1,1.0000,0.0000,1.44682,0.22575,-2.77940,0.98282,1.57080,0.00001,-0.14512,-0.38003,0.04457,,,,,,,,,,,,,,,,,,,,,,,,,,0,0,0,0,0
2.8775,1783012309.8964,1,1,1.0000,0.0000,1.44682,0.22572,-2.77941,0.98285,1.57080,0.00001,-0.14512,-0.38003,0.04456,,,,,,,,,,,,,,,,,,,,,,,,,,0,0,0,0,0
2.9014,1783012309.9203,1,1,1.0000,0.0000,1.44682,0.22561,-2.77944,0.98299,1.57080,0.00001,-0.14512,-0.38003,0.04453,,,,,,,,,,,,,,,,,,,,,,,,,,0,0,0,0,0
2.9018,1783012309.9207,1,1,1.0000,0.0000,1.44682,0.22561,-2.77944,0.98299,1.57080,0.00001,-0.14512,-0.38003,0.04453,,,,,,,,,,,,,,,,,,,,,,,,,,0,0,0,0,0
2.9022,1783012309.9211,1,1,1.0000,0.0000,1.44682,0.22561,-2.77944,0.98299,1.57080,0.00001,-0.14512,-0.38003,0.04453,,,,,,,,,,,,,,,,,,,,,,,,,,0,0,0,0,0
2.9155,1783012309.9344,1,1,1.0000,0.0000,1.44682,0.22560,-2.77944,0.98301,1.57080,0.00001,-0.14512,-0.38003,0.04453,,,,,,,,,,,,,,,,,,,,,,,,,,0,0,0,0,0
2.9193,1783012309.9382,1,1,1.0000,0.0000,1.44682,0.22558,-2.77944,0.98303,1.57080,0.00001,-0.14512,-0.38003,0.04452,,,,,,,,,,,,,,,,,,,,,,,,,,0,0,0,0,0
2.9203,1783012309.9392,1,1,1.0000,0.0000,1.44682,0.22556,-2.77945,0.98306,1.57080,0.00001,-0.14512,-0.38003,0.04452,,,,,,,,,,,,,,,,,,,,,,,,,,0,0,0,0,0
2.9296,1783012309.9485,1,1,1.0000,0.0000,1.44682,0.22550,-2.77946,0.98313,1.57080,0.00001,-0.14512,-0.38003,0.04450,,,,,,,,,,,,,,,,,,,,,,,,,,0,0,0,0,0
2.9299,1783012309.9487,1,1,1.0000,0.0000,1.44682,0.22550,-2.77946,0.98313,1.57080,0.00001,-0.14512,-0.38003,0.04450,,,,,,,,,,,,,,,,,,,,,,,,,,0,0,0,0,0
2.9393,1783012309.9582,1,1,1.0000,0.0000,1.44682,0.22548,-2.77947,0.98316,1.57080,0.00001,-0.14512,-0.38003,0.04450,,,,,,,,,,,,,,,,,,,,,,,,,,0,0,0,0,0
2.9473,1783012309.9661,1,1,1.0000,0.0000,1.44682,0.22546,-2.77947,0.98318,1.57080,0.00001,-0.14512,-0.38003,0.04449,,,,,,,,,,,,,,,,,,,,,,,,,,0,0,0,0,0
2.9591,1783012309.9780,1,1,1.0000,0.0000,1.44682,0.22539,-2.77949,0.98326,1.57080,0.00001,-0.14512,-0.38003,0.04448,,,,,,,,,,,,,,,,,,,,,,,,,,0,0,0,0,0
3.0295,1783012310.0484,1,1,1.0000,0.0000,1.44682,0.22512,-2.77956,0.98361,1.57080,0.00001,-0.14512,-0.38003,0.04440,,,,,,,,,,,,,,,,,,,,,,,,,,0,0,0,0,0
3.0298,1783012310.0487,1,1,1.0000,0.0000,1.44682,0.22512,-2.77956,0.98361,1.57080,0.00001,-0.14512,-0.38003,0.04440,,,,,,,,,,,,,,,,,,,,,,,,,,0,0,0,0,0
3.0301,1783012310.0490,1,1,1.0000,0.0000,1.44682,0.22512,-2.77956,0.98361,1.57080,0.00001,-0.14512,-0.38003,0.04440,,,,,,,,,,,,,,,,,,,,,,,,,,0,0,0,0,0
3.0305,1783012310.0493,1,1,1.0000,0.0000,1.44682,0.22512,-2.77956,0.98361,1.57080,0.00001,-0.14512,-0.38003,0.04440,,,,,,,,,,,,,,,,,,,,,,,,,,0,0,0,0,0
3.0309,1783012310.0497,1,1,1.0000,0.0000,1.44682,0.22512,-2.77956,0.98361,1.57080,0.00001,-0.14512,-0.38003,0.04440,,,,,,,,,,,,,,,,,,,,,,,,,,0,0,0,0,0
3.0311,1783012310.0500,1,1,1.0000,0.0000,1.44682,0.22512,-2.77956,0.98361,1.57080,0.00001,-0.14512,-0.38003,0.04440,,,,,,,,,,,,,,,,,,,,,,,,,,0,0,0,0,0
3.0376,1783012310.0564,1,1,1.0000,0.0000,1.44682,0.22509,-2.77957,0.98365,1.57080,0.00001,-0.14512,-0.38003,0.04440,,,,,,,,,,,,,,,,,,,,,,,,,,0,0,0,0,0
3.0379,1783012310.0567,1,1,1.0000,0.0000,1.44682,0.22509,-2.77957,0.98365,1.57080,0.00001,-0.14512,-0.38003,0.04440,,,,,,,,,,,,,,,,,,,,,,,,,,0,0,0,0,0
3.0477,1783012310.0665,1,1,1.0000,0.0000,1.44682,0.22504,-2.77958,0.98371,1.57080,0.00001,-0.14512,-0.38003,0.04438,,,,,,,,,,,,,,,,,,,,,,,,,,0,0,0,0,0
3.0482,1783012310.0671,1,1,1.0000,0.0000,1.44682,0.22501,-2.77959,0.98374,1.57080,0.00001,-0.14512,-0.38003,0.04438,,,,,,,,,,,,,,,,,,,,,,,,,,0,0,0,0,0
3.0574,1783012310.0763,1,1,1.0000,0.0000,1.44682,0.22499,-2.77959,0.98377,1.57080,0.00001,-0.14512,-0.38003,0.04437,,,,,,,,,,,,,,,,,,,,,,,,,,0,0,0,0,0
3.0577,1783012310.0766,1,1,1.0000,0.0000,1.44682,0.22499,-2.77959,0.98377,1.57080,0.00001,-0.14512,-0.38003,0.04437,,,,,,,,,,,,,,,,,,,,,,,,,,0,0,0,0,0
3.0677,1783012310.0865,1,1,1.0000,0.0000,1.44682,0.22497,-2.77960,0.98379,1.57080,0.00001,-0.14512,-0.38003,0.04437,,,,,,,,,,,,,,,,,,,,,,,,,,0,0,0,0,0
3.0684,1783012310.0872,1,1,1.0000,0.0000,1.44682,0.22495,-2.77960,0.98382,1.57080,0.00001,-0.14512,-0.38003,0.04436,,,,,,,,,,,,,,,,,,,,,,,,,,0,0,0,0,0
3.0778,1783012310.0967,1,1,1.0000,0.0000,1.44682,0.22490,-2.77961,0.98388,1.57080,0.00001,-0.14512,-0.38003,0.04435,,,,,,,,,,,,,,,,,,,,,,,,,,0,0,0,0,0
3.0782,1783012310.0971,1,1,1.0000,0.0000,1.44682,0.22490,-2.77961,0.98388,1.57080,0.00001,-0.14512,-0.38003,0.04435,,,,,,,,,,,,,,,,,,,,,,,,,,0,0,0,0,0
3.0878,1783012310.1067,1,1,1.0000,0.0000,1.44682,0.22485,-2.77963,0.98394,1.57080,0.00001,-0.14512,-0.38003,0.04434,,,,,,,,,,,,,,,,,,,,,,,,,,0,0,0,0,0
3.1049,1783012310.1237,1,1,1.0000,0.0000,1.44682,0.22481,-2.77964,0.98400,1.57080,0.00001,-0.14512,-0.38003,0.04432,,,,,,,,,,,,,,,,,,,,,,,,,,0,0,0,0,0
3.1097,1783012310.1286,1,1,1.0000,0.0000,1.44682,0.22479,-2.77964,0.98402,1.57080,0.00001,-0.14512,-0.38003,0.04432,,,,,,,,,,,,,,,,,,,,,,,,,,0,0,0,0,0
3.1204,1783012310.1392,1,1,1.0000,0.0000,1.44682,0.22476,-2.77965,0.98406,1.57080,0.00001,-0.14512,-0.38003,0.04431,,,,,,,,,,,,,,,,,,,,,,,,,,0,0,0,0,0
3.1207,1783012310.1395,1,1,1.0000,0.0000,1.44682,0.22476,-2.77965,0.98406,1.57080,0.00001,-0.14512,-0.38003,0.04431,,,,,,,,,,,,,,,,,,,,,,,,,,0,0,0,0,0
3.1329,1783012310.1518,1,1,1.0000,0.0000,1.44682,0.22471,-2.77966,0.98413,1.57080,0.00001,-0.14512,-0.38002,0.04430,,,,,,,,,,,,,,,,,,,,,,,,,,0,0,0,0,0
3.1383,1783012310.1571,1,1,1.0000,0.0000,1.44682,0.22468,-2.77967,0.98416,1.57080,0.00001,-0.14512,-0.38002,0.04429,,,,,,,,,,,,,,,,,,,,,,,,,,0,0,0,0,0
3.1510,1783012310.1699,1,1,1.0000,0.0000,1.44682,0.22465,-2.77968,0.98420,1.57080,0.00001,-0.14512,-0.38002,0.04428,,,,,,,,,,,,,,,,,,,,,,,,,,0,0,0,0,0
3.1575,1783012310.1764,1,1,1.0000,0.0000,1.44682,0.22462,-2.77969,0.98424,1.57080,0.00001,-0.14512,-0.38002,0.04428,,,,,,,,,,,,,,,,,,,,,,,,,,0,0,0,0,0
3.1774,1783012310.1962,1,1,1.0000,0.0000,1.44682,0.22452,-2.77971,0.98436,1.57080,0.00001,-0.14512,-0.38002,0.04425,,,,,,,,,,,,,,,,,,,,,,,,,,0,0,0,0,0
3.1779,1783012310.1967,1,1,1.0000,0.0000,1.44682,0.22452,-2.77971,0.98436,1.57080,0.00001,-0.14512,-0.38002,0.04425,,,,,,,,,,,,,,,,,,,,,,,,,,0,0,0,0,0
3.1781,1783012310.1970,1,1,1.0000,0.0000,1.44682,0.22452,-2.77971,0.98436,1.57080,0.00001,-0.14512,-0.38002,0.04425,,,,,,,,,,,,,,,,,,,,,,,,,,0,0,0,0,0
3.1923,1783012310.2112,1,1,1.0000,0.0000,1.44682,0.22446,-2.77973,0.98444,1.57080,0.00001,-0.14512,-0.38002,0.04423,,,,,,,,,,,,,,,,,,,,,,,,,,0,0,0,0,0
3.2150,1783012310.2338,1,1,1.0000,0.0000,1.44682,0.22438,-2.77975,0.98454,1.57080,0.00001,-0.14512,-0.38002,0.04421,,,,,,,,,,,,,,,,,,,,,,,,,,0,0,0,0,0
3.2156,1783012310.2344,1,1,1.0000,0.0000,1.44682,0.22438,-2.77975,0.98454,1.57080,0.00001,-0.14512,-0.38002,0.04421,,,,,,,,,,,,,,,,,,,,,,,,,,0,0,0,0,0
3.2177,1783012310.2365,1,1,1.0000,0.0000,1.44682,0.22437,-2.77975,0.98455,1.57080,0.00001,-0.14512,-0.38002,0.04421,,,,,,,,,,,,,,,,,,,,,,,,,,0,0,0,0,0
3.2419,1783012310.2608,1,1,1.0000,0.0000,1.44682,0.22429,-2.77977,0.98465,1.57080,0.00001,-0.14512,-0.38002,0.04419,,,,,,,,,,,,,,,,,,,,,,,,,,0,0,0,0,0
3.2525,1783012310.2713,1,1,1.0000,0.0000,1.44682,0.22424,-2.77978,0.98472,1.57080,0.00001,-0.14512,-0.38002,0.04418,,,,,,,,,,,,,,,,,,,,,,,,,,0,0,0,0,0
3.2528,1783012310.2716,1,1,1.0000,0.0000,1.44682,0.22424,-2.77978,0.98472,1.57080,0.00001,-0.14512,-0.38002,0.04418,,,,,,,,,,,,,,,,,,,,,,,,,,0,0,0,0,0
3.2646,1783012310.2834,1,1,1.0000,0.0000,1.44682,0.22416,-2.77980,0.98481,1.57080,0.00001,-0.14512,-0.38002,0.04416,,,,,,,,,,,,,,,,,,,,,,,,,,0,0,0,0,0
3.2651,1783012310.2839,1,1,1.0000,0.0000,1.44682,0.22416,-2.77980,0.98481,1.57080,0.00001,-0.14512,-0.38002,0.04416,,,,,,,,,,,,,,,,,,,,,,,,,,0,0,0,0,0
3.2996,1783012310.3185,1,1,1.0000,0.0000,1.44682,0.22407,-2.77982,0.98492,1.57080,0.00001,-0.14512,-0.38002,0.04413,,,,,,,,,,,,,,,,,,,,,,,,,,0,0,0,0,0
3.3003,1783012310.3191,1,1,1.0000,0.0000,1.44682,0.22407,-2.77983,0.98493,1.57080,0.00001,-0.14512,-0.38002,0.04413,,,,,,,,,,,,,,,,,,,,,,,,,,0,0,0,0,0
3.3007,1783012310.3195,1,1,1.0000,0.0000,1.44682,0.22407,-2.77983,0.98493,1.57080,0.00001,-0.14512,-0.38002,0.04413,,,,,,,,,,,,,,,,,,,,,,,,,,0,0,0,0,0
3.3089,1783012310.3277,1,1,1.0000,0.0000,1.44682,0.22403,-2.77983,0.98497,1.57080,0.00001,-0.14512,-0.38002,0.04412,,,,,,,,,,,,,,,,,,,,,,,,,,0,0,0,0,0
3.3176,1783012310.3364,1,1,1.0000,0.0000,1.44682,0.22398,-2.77985,0.98503,1.57080,0.00001,-0.14512,-0.38002,0.04411,,,,,,,,,,,,,,,,,,,,,,,,,,0,0,0,0,0
3.3178,1783012310.3366,1,1,1.0000,0.0000,1.44682,0.22398,-2.77985,0.98503,1.57080,0.00001,-0.14512,-0.38002,0.04411,,,,,,,,,,,,,,,,,,,,,,,,,,0,0,0,0,0
3.3272,1783012310.3461,1,1,1.0000,0.0000,1.44682,0.22393,-2.77986,0.98510,1.57080,0.00001,-0.14512,-0.38002,0.04410,,,,,,,,,,,,,,,,,,,,,,,,,,0,0,0,0,0
3.3383,1783012310.3572,1,1,1.0000,0.0000,1.44682,0.22392,-2.77986,0.98511,1.57080,0.00001,-0.14512,-0.38002,0.04409,,,,,,,,,,,,,,,,,,,,,,,,,,0,0,0,0,0
3.3494,1783012310.3682,1,1,1.0000,0.0000,1.44682,0.22387,-2.77988,0.98518,1.57080,0.00001,-0.14512,-0.38002,0.04408,,,,,,,,,,,,,,,,,,,,,,,,,,0,0,0,0,0
3.3574,1783012310.3762,1,1,1.0000,0.0000,1.44682,0.22384,-2.77988,0.98520,1.57080,0.00001,-0.14512,-0.38002,0.04408,,,,,,,,,,,,,,,,,,,,,,,,,,0,0,0,0,0
3.3674,1783012310.3863,1,1,1.0000,0.0000,1.44682,0.22383,-2.77989,0.98523,1.57080,0.00001,-0.14512,-0.38002,0.04407,,,,,,,,,,,,,,,,,,,,,,,,,,0,0,0,0,0
3.3811,1783012310.4000,1,1,1.0000,0.0000,1.44682,0.22373,-2.77991,0.98535,1.57080,0.00001,-0.14512,-0.38002,0.04405,,,,,,,,,,,,,,,,,,,,,,,,,,0,0,0,0,0
3.4052,1783012310.4241,1,1,1.0000,0.0000,1.44682,0.22366,-2.77993,0.98543,1.57080,0.00001,-0.14512,-0.38002,0.04403,,,,,,,,,,,,,,,,,,,,,,,,,,0,0,0,0,0
3.4056,1783012310.4245,1,1,1.0000,0.0000,1.44682,0.22366,-2.77993,0.98543,1.57080,0.00001,-0.14512,-0.38002,0.04403,,,,,,,,,,,,,,,,,,,,,,,,,,0,0,0,0,0
3.4976,1783012310.5165,1,1,1.0000,0.0000,1.44682,0.22329,-2.78002,0.98590,1.57080,0.00001,-0.14512,-0.38002,0.04393,,,,,,,,,,,,,,,,,,,,,,,,,,0,0,0,0,0
3.4980,1783012310.5169,1,1,1.0000,0.0000,1.44682,0.22329,-2.78002,0.98590,1.57080,0.00001,-0.14512,-0.38002,0.04393,,,,,,,,,,,,,,,,,,,,,,,,,,0,0,0,0,0
3.4985,1783012310.5173,1,1,1.0000,0.0000,1.44682,0.22329,-2.78002,0.98590,1.57080,0.00001,-0.14512,-0.38002,0.04393,,,,,,,,,,,,,,,,,,,,,,,,,,0,0,0,0,0
3.4989,1783012310.5178,1,1,1.0000,0.0000,1.44682,0.22329,-2.78002,0.98590,1.57080,0.00001,-0.14512,-0.38002,0.04393,,,,,,,,,,,,,,,,,,,,,,,,,,0,0,0,0,0
3.4994,1783012310.5182,1,1,1.0000,0.0000,1.44682,0.22329,-2.78002,0.98590,1.57080,0.00001,-0.14512,-0.38002,0.04393,,,,,,,,,,,,,,,,,,,,,,,,,,0,0,0,0,0
3.4998,1783012310.5186,1,1,1.0000,0.0000,1.44682,0.22329,-2.78002,0.98590,1.57080,0.00001,-0.14512,-0.38002,0.04393,,,,,,,,,,,,,,,,,,,,,,,,,,0,0,0,0,0
3.5002,1783012310.5191,1,1,1.0000,0.0000,1.44682,0.22326,-2.78003,0.98594,1.57080,0.00001,-0.14512,-0.38002,0.04392,,,,,,,,,,,,,,,,,,,,,,,,,,0,0,0,0,0
3.5004,1783012310.5193,1,1,1.0000,0.0000,1.44682,0.22326,-2.78003,0.98594,1.57080,0.00001,-0.14512,-0.38002,0.04392,,,,,,,,,,,,,,,,,,,,,,,,,,0,0,0,0,0
3.5007,1783012310.5196,1,1,1.0000,0.0000,1.44682,0.22326,-2.78003,0.98594,1.57080,0.00001,-0.14512,-0.38002,0.04392,,,,,,,,,,,,,,,,,,,,,,,,,,0,0,0,0,0
3.5142,1783012310.5331,1,1,1.0000,0.0000,1.44682,0.22323,-2.78004,0.98597,1.57080,0.00001,-0.14512,-0.38002,0.04392,,,,,,,,,,,,,,,,,,,,,,,,,,0,0,0,0,0
3.5176,1783012310.5364,1,1,1.0000,0.0000,1.44682,0.22322,-2.78004,0.98599,1.57080,0.00001,-0.14512,-0.38002,0.04391,,,,,,,,,,,,,,,,,,,,,,,,,,0,0,0,0,0
3.5274,1783012310.5462,1,1,1.0000,0.0000,1.44682,0.22318,-2.78005,0.98604,1.57080,0.00001,-0.14512,-0.38002,0.04390,,,,,,,,,,,,,,,,,,,,,,,,,,0,0,0,0,0
3.5279,1783012310.5468,1,1,1.0000,0.0000,1.44682,0.22318,-2.78005,0.98604,1.57080,0.00001,-0.14512,-0.38002,0.04390,,,,,,,,,,,,,,,,,,,,,,,,,,0,0,0,0,0
3.5437,1783012310.5625,1,1,1.0000,0.0000,1.44682,0.22310,-2.78007,0.98614,1.57080,0.00001,-0.14512,-0.38002,0.04388,,,,,,,,,,,,,,,,,,,,,,,,,,0,0,0,0,0
3.5488,1783012310.5677,1,1,1.0000,0.0000,1.44682,0.22309,-2.78007,0.98615,1.57080,0.00001,-0.14512,-0.38002,0.04388,,,,,,,,,,,,,,,,,,,,,,,,,,0,0,0,0,0
3.5490,1783012310.5679,1,1,1.0000,0.0000,1.44682,0.22309,-2.78007,0.98615,1.57080,0.00001,-0.14512,-0.38002,0.04388,,,,,,,,,,,,,,,,,,,,,,,,,,0,0,0,0,0
3.5635,1783012310.5824,1,1,1.0000,0.0000,1.44682,0.22303,-2.78008,0.98622,1.57080,0.00001,-0.14512,-0.38002,0.04387,,,,,,,,,,,,,,,,,,,,,,,,,,0,0,0,0,0
3.5699,1783012310.5887,1,1,1.0000,0.0000,1.44682,0.22301,-2.78009,0.98625,1.57080,0.00001,-0.14512,-0.38002,0.04386,,,,,,,,,,,,,,,,,,,,,,,,,,0,0,0,0,0
3.5781,1783012310.5970,1,1,1.0000,0.0000,1.44682,0.22299,-2.78009,0.98627,1.57080,0.00001,-0.14512,-0.38002,0.04386,,,,,,,,,,,,,,,,,,,,,,,,,,0,0,0,0,0
3.5875,1783012310.6064,1,1,1.0000,0.0000,1.44682,0.22295,-2.78011,0.98632,1.57080,0.00001,-0.14512,-0.38002,0.04385,,,,,,,,,,,,,,,,,,,,,,,,,,0,0,0,0,0
3.5998,1783012310.6187,1,1,1.0000,0.0000,1.44682,0.22287,-2.78013,0.98642,1.57080,0.00001,-0.14512,-0.38002,0.04382,,,,,,,,,,,,,,,,,,,,,,,,,,0,0,0,0,0
3.6094,1783012310.6283,1,1,1.0000,0.0000,1.44682,0.22286,-2.78013,0.98644,1.57080,0.00001,-0.14512,-0.38002,0.04382,,,,,,,,,,,,,,,,,,,,,,,,,,0,0,0,0,0
3.6174,1783012310.6363,1,1,1.0000,0.0000,1.44682,0.22283,-2.78014,0.98648,1.57080,0.00001,-0.14512,-0.38002,0.04381,,,,,,,,,,,,,,,,,,,,,,,,,,0,0,0,0,0
3.6327,1783012310.6515,1,1,1.0000,0.0000,1.44682,0.22278,-2.78015,0.98653,1.57080,0.00001,-0.14512,-0.38002,0.04380,,,,,,,,,,,,,,,,,,,,,,,,,,0,0,0,0,0
3.6331,1783012310.6520,1,1,1.0000,0.0000,1.44682,0.22278,-2.78015,0.98653,1.57080,0.00001,-0.14512,-0.38002,0.04380,,,,,,,,,,,,,,,,,,,,,,,,,,0,0,0,0,0
3.6506,1783012310.6695,1,1,1.0000,0.0000,1.44681,0.22270,-2.78017,0.98664,1.57080,0.00001,-0.14512,-0.38002,0.04378,,,,,,,,,,,,,,,,,,,,,,,,,,0,0,0,0,0
3.6509,1783012310.6698,1,1,1.0000,0.0000,1.44681,0.22270,-2.78017,0.98664,1.57080,0.00001,-0.14512,-0.38002,0.04378,,,,,,,,,,,,,,,,,,,,,,,,,,0,0,0,0,0
3.6632,1783012310.6821,1,1,1.0000,0.0000,1.44681,0.22265,-2.78018,0.98670,1.57080,0.00001,-0.14512,-0.38002,0.04377,,,,,,,,,,,,,,,,,,,,,,,,,,0,0,0,0,0
3.6694,1783012310.6883,1,1,1.0000,0.0000,1.44681,0.22263,-2.78018,0.98672,1.57080,0.00001,-0.14512,-0.38002,0.04376,,,,,,,,,,,,,,,,,,,,,,,,,,0,0,0,0,0
3.6804,1783012310.6993,1,1,1.0000,0.0000,1.44681,0.22258,-2.78020,0.98678,1.57080,0.00001,-0.14512,-0.38002,0.04375,,,,,,,,,,,,,,,,,,,,,,,,,,0,0,0,0,0
3.6892,1783012310.7081,1,1,1.0000,0.0000,1.44681,0.22256,-2.78020,0.98681,1.57080,0.00001,-0.14512,-0.38002,0.04374,,,,,,,,,,,,,,,,,,,,,,,,,,0,0,0,0,0
3.7011,1783012310.7199,1,1,1.0000,0.0000,1.44681,0.22252,-2.78021,0.98686,1.57080,0.00001,-0.14512,-0.38002,0.04374,,,,,,,,,,,,,,,,,,,,,,,,,,0,0,0,0,0
3.7093,1783012310.7281,1,1,1.0000,0.0000,1.44681,0.22247,-2.78023,0.98692,1.57080,0.00001,-0.14512,-0.38002,0.04372,,,,,,,,,,,,,,,,,,,,,,,,,,0,0,0,0,0
3.7096,1783012310.7285,1,1,1.0000,0.0000,1.44681,0.22247,-2.78023,0.98692,1.57080,0.00001,-0.14512,-0.38002,0.04372,,,,,,,,,,,,,,,,,,,,,,,,,,0,0,0,0,0
3.7226,1783012310.7415,1,1,1.0000,0.0000,1.44681,0.22242,-2.78024,0.98699,1.57080,0.00001,-0.14512,-0.38002,0.04371,,,,,,,,,,,,,,,,,,,,,,,,,,0,0,0,0,0
3.7273,1783012310.7462,1,1,1.0000,0.0000,1.44681,0.22242,-2.78024,0.98699,1.57080,0.00001,-0.14512,-0.38002,0.04371,,,,,,,,,,,,,,,,,,,,,,,,,,0,0,0,0,0
3.7277,1783012310.7465,1,1,1.0000,0.0000,1.44681,0.22242,-2.78024,0.98699,1.57080,0.00001,-0.14512,-0.38002,0.04371,,,,,,,,,,,,,,,,,,,,,,,,,,0,0,0,0,0
3.7376,1783012310.7564,1,1,1.0000,0.0000,1.44681,0.22238,-2.78025,0.98704,1.57080,0.00001,-0.14512,-0.38002,0.04370,,,,,,,,,,,,,,,,,,,,,,,,,,0,0,0,0,0
3.7545,1783012310.7733,1,1,1.0000,0.0000,1.44681,0.22233,-2.78026,0.98710,1.57080,0.00001,-0.14512,-0.38002,0.04369,,,,,,,,,,,,,,,,,,,,,,,,,,0,0,0,0,0
3.7577,1783012310.7766,1,1,1.0000,0.0000,1.44681,0.22232,-2.78026,0.98711,1.57080,0.00001,-0.14512,-0.38002,0.04368,,,,,,,,,,,,,,,,,,,,,,,,,,0,0,0,0,0
3.7695,1783012310.7883,1,1,1.0000,0.0000,1.44681,0.22225,-2.78028,0.98720,1.57080,0.00001,-0.14512,-0.38002,0.04366,,,,,,,,,,,,,,,,,,,,,,,,,,0,0,0,0,0
3.7984,1783012310.8173,1,1,1.0000,0.0000,1.44681,0.22214,-2.78031,0.98734,1.57080,0.00001,-0.14512,-0.38002,0.04364,,,,,,,,,,,,,,,,,,,,,,,,,,0,0,0,0,0
3.7989,1783012310.8177,1,1,1.0000,0.0000,1.44681,0.22214,-2.78031,0.98734,1.57080,0.00001,-0.14512,-0.38002,0.04364,,,,,,,,,,,,,,,,,,,,,,,,,,0,0,0,0,0
3.8004,1783012310.8193,1,1,1.0000,0.0000,1.44681,0.22211,-2.78032,0.98737,1.57080,0.00001,-0.14512,-0.38002,0.04363,,,,,,,,,,,,,,,,,,,,,,,,,,0,0,0,0,0
3.8079,1783012310.8268,1,1,1.0000,0.0000,1.44681,0.22208,-2.78032,0.98741,1.57080,0.00001,-0.14512,-0.38002,0.04362,,,,,,,,,,,,,,,,,,,,,,,,,,0,0,0,0,0
3.8176,1783012310.8364,1,1,1.0000,0.0000,1.44681,0.22207,-2.78033,0.98743,1.57080,0.00001,-0.14512,-0.38002,0.04362,,,,,,,,,,,,,,,,,,,,,,,,,,0,0,0,0,0
3.8288,1783012310.8477,1,1,1.0000,0.0000,1.44681,0.22200,-2.78034,0.98751,1.57080,0.00001,-0.14512,-0.38002,0.04360,,,,,,,,,,,,,,,,,,,,,,,,,,0,0,0,0,0
3.8381,1783012310.8569,1,1,1.0000,0.0000,1.44681,0.22195,-2.78036,0.98758,1.57080,0.00001,-0.14512,-0.38002,0.04359,,,,,,,,,,,,,,,,,,,,,,,,,,0,0,0,0,0
3.8502,1783012310.8691,1,1,1.0000,0.0000,1.44681,0.22193,-2.78036,0.98760,1.57080,0.00001,-0.14512,-0.38002,0.04358,,,,,,,,,,,,,,,,,,,,,,,,,,0,0,0,0,0
3.8610,1783012310.8798,1,1,1.0000,0.0000,1.44681,0.22186,-2.78038,0.98768,1.57080,0.00001,-0.14512,-0.38002,0.04357,,,,,,,,,,,,,,,,,,,,,,,,,,0,0,0,0,0
3.8679,1783012310.8868,1,1,1.0000,0.0000,1.44681,0.22184,-2.78038,0.98771,1.57080,0.00001,-0.14512,-0.38002,0.04356,,,,,,,,,,,,,,,,,,,,,,,,,,0,0,0,0,0
3.8775,1783012310.8964,1,1,1.0000,0.0000,1.44681,0.22182,-2.78039,0.98773,1.57080,0.00001,-0.14512,-0.38002,0.04355,,,,,,,,,,,,,,,,,,,,,,,,,,0,0,0,0,0
3.8950,1783012310.9138,1,1,1.0000,0.0000,1.44681,0.22173,-2.78041,0.98785,1.57080,0.00001,-0.14512,-0.38002,0.04353,,,,,,,,,,,,,,,,,,,,,,,,,,0,0,0,0,0
3.8986,1783012310.9175,1,1,1.0000,0.0000,1.44681,0.22170,-2.78042,0.98788,1.57080,0.00001,-0.14512,-0.38002,0.04352,,,,,,,,,,,,,,,,,,,,,,,,,,0,0,0,0,0
3.9074,1783012310.9262,1,1,1.0000,0.0000,1.44681,0.22170,-2.78042,0.98789,1.57080,0.00001,-0.14512,-0.38002,0.04352,,,,,,,,,,,,,,,,,,,,,,,,,,0,0,0,0,0
3.9078,1783012310.9267,1,1,1.0000,0.0000,1.44681,0.22170,-2.78042,0.98789,1.57080,0.00001,-0.14512,-0.38002,0.04352,,,,,,,,,,,,,,,,,,,,,,,,,,0,0,0,0,0
3.9396,1783012310.9585,1,1,1.0000,0.0000,1.44681,0.22157,-2.78045,0.98804,1.57080,0.00001,-0.14512,-0.38002,0.04349,,,,,,,,,,,,,,,,,,,,,,,,,,0,0,0,0,0
3.9399,1783012310.9588,1,1,1.0000,0.0000,1.44681,0.22157,-2.78045,0.98804,1.57080,0.00001,-0.14512,-0.38002,0.04349,,,,,,,,,,,,,,,,,,,,,,,,,,0,0,0,0,0
3.9405,1783012310.9593,1,1,1.0000,0.0000,1.44681,0.22156,-2.78045,0.98807,1.57080,0.00001,-0.14512,-0.38002,0.04349,,,,,,,,,,,,,,,,,,,,,,,,,,0,0,0,0,0
3.9540,1783012310.9729,1,1,1.0000,0.0000,1.44681,0.22148,-2.78047,0.98816,1.57080,0.00001,-0.14512,-0.38002,0.04347,,,,,,,,,,,,,,,,,,,,,,,,,,0,0,0,0,0
3.9650,1783012310.9839,1,1,1.0000,0.0000,1.44681,0.22145,-2.78048,0.98820,1.57080,0.00001,-0.14512,-0.38002,0.04346,,,,,,,,,,,,,,,,,,,,,,,,,,0,0,0,0,0
3.9811,1783012311.0000,1,1,1.0000,0.0000,1.44681,0.22137,-2.78050,0.98830,1.57080,0.00001,-0.14512,-0.38002,0.04344,,,,,,,,,,,,,,,,,,,,,,,,,,0,0,0,0,0
3.9814,1783012311.0003,1,1,1.0000,0.0000,1.44681,0.22137,-2.78050,0.98830,1.57080,0.00001,-0.14512,-0.38002,0.04344,,,,,,,,,,,,,,,,,,,,,,,,,,0,0,0,0,0
3.9881,1783012311.0069,1,1,1.0000,0.0000,1.44681,0.22135,-2.78051,0.98833,1.57080,0.00001,-0.14512,-0.38002,0.04343,,,,,,,,,,,,,,,,,,,,,,,,,,0,0,0,0,0
4.0024,1783012311.0213,1,1,1.0000,0.0000,1.44681,0.22131,-2.78052,0.98837,1.57080,0.00001,-0.14512,-0.38002,0.04342,,,,,,,,,,,,,,,,,,,,,,,,,,0,0,0,0,0
4.0086,1783012311.0275,1,1,1.0000,0.0000,1.44681,0.22126,-2.78053,0.98843,1.57080,0.00001,-0.14512,-0.38002,0.04341,,,,,,,,,,,,,,,,,,,,,,,,,,0,0,0,0,0
4.0211,1783012311.0400,1,1,1.0000,0.0000,1.44681,0.22121,-2.78054,0.98850,1.57080,0.00001,-0.14512,-0.38002,0.04340,,,,,,,,,,,,,,,,,,,,,,,,,,0,0,0,0,0
4.0294,1783012311.0482,1,1,1.0000,0.0000,1.44681,0.22119,-2.78055,0.98852,1.57080,0.00001,-0.14512,-0.38002,0.04339,,,,,,,,,,,,,,,,,,,,,,,,,,0,0,0,0,0
4.0389,1783012311.0578,1,1,1.0000,0.0000,1.44681,0.22115,-2.78056,0.98857,1.57080,0.00001,-0.14512,-0.38002,0.04338,,,,,,,,,,,,,,,,,,,,,,,,,,0,0,0,0,0
4.0590,1783012311.0779,1,1,1.0000,0.0000,1.44681,0.22108,-2.78057,0.98866,1.57080,0.00001,-0.14512,-0.38002,0.04336,,,,,,,,,,,,,,,,,,,,,,,,,,0,0,0,0,0
4.0687,1783012311.0876,1,1,1.0000,0.0000,1.44681,0.22101,-2.78059,0.98874,1.57080,0.00001,-0.14512,-0.38002,0.04335,,,,,,,,,,,,,,,,,,,,,,,,,,0,0,0,0,0
4.0726,1783012311.0914,1,1,1.0000,0.0000,1.44681,0.22099,-2.78060,0.98877,1.57080,0.00001,-0.14512,-0.38002,0.04334,,,,,,,,,,,,,,,,,,,,,,,,,,0,0,0,0,0
4.0729,1783012311.0918,1,1,1.0000,0.0000,1.44681,0.22099,-2.78060,0.98877,1.57080,0.00001,-0.14512,-0.38002,0.04334,,,,,,,,,,,,,,,,,,,,,,,,,,0,0,0,0,0
4.0807,1783012311.0995,1,1,1.0000,0.0000,1.44681,0.22096,-2.78060,0.98881,1.57080,0.00001,-0.14512,-0.38002,0.04333,,,,,,,,,,,,,,,,,,,,,,,,,,0,0,0,0,0
4.0884,1783012311.1073,1,1,1.0000,0.0000,1.44681,0.22095,-2.78061,0.98883,1.57080,0.00001,-0.14512,-0.38002,0.04333,,,,,,,,,,,,,,,,,,,,,,,,,,0,0,0,0,0
4.1027,1783012311.1216,1,1,1.0000,0.0000,1.44681,0.22088,-2.78062,0.98891,1.57080,0.00001,-0.14512,-0.38002,0.04331,,,,,,,,,,,,,,,,,,,,,,,,,,0,0,0,0,0
4.1031,1783012311.1219,1,1,1.0000,0.0000,1.44681,0.22088,-2.78062,0.98891,1.57080,0.00001,-0.14512,-0.38002,0.04331,,,,,,,,,,,,,,,,,,,,,,,,,,0,0,0,0,0
4.1106,1783012311.1294,1,1,1.0000,0.0000,1.44681,0.22083,-2.78064,0.98898,1.57080,0.00001,-0.14512,-0.38002,0.04330,,,,,,,,,,,,,,,,,,,,,,,,,,0,0,0,0,0
4.1189,1783012311.1378,1,1,1.0000,0.0000,1.44681,0.22082,-2.78064,0.98898,1.57080,0.00001,-0.14512,-0.38002,0.04330,,,,,,,,,,,,,,,,,,,,,,,,,,0,0,0,0,0
4.1290,1783012311.1478,1,1,1.0000,0.0000,1.44681,0.22078,-2.78065,0.98903,1.57080,0.00001,-0.14512,-0.38002,0.04329,,,,,,,,,,,,,,,,,,,,,,,,,,0,0,0,0,0
4.1293,1783012311.1482,1,1,1.0000,0.0000,1.44681,0.22078,-2.78065,0.98903,1.57080,0.00001,-0.14512,-0.38002,0.04329,,,,,,,,,,,,,,,,,,,,,,,,,,0,0,0,0,0
4.1391,1783012311.1579,1,1,1.0000,0.0000,1.44681,0.22074,-2.78066,0.98909,1.57080,0.00001,-0.14512,-0.38002,0.04328,,,,,,,,,,,,,,,,,,,,,,,,,,0,0,0,0,0
4.1484,1783012311.1672,1,1,1.0000,0.0000,1.44681,0.22072,-2.78066,0.98911,1.57080,0.00001,-0.14512,-0.38002,0.04327,,,,,,,,,,,,,,,,,,,,,,,,,,0,0,0,0,0
4.1634,1783012311.1823,1,1,1.0000,0.0000,1.44681,0.22065,-2.78068,0.98919,1.57080,0.00001,-0.14512,-0.38002,0.04325,,,,,,,,,,,,,,,,,,,,,,,,,,0,0,0,0,0
4.1790,1783012311.1978,1,1,1.0000,0.0000,1.44681,0.22060,-2.78069,0.98927,1.57080,0.00001,-0.14512,-0.38002,0.04324,,,,,,,,,,,,,,,,,,,,,,,,,,0,0,0,0,0
4.1795,1783012311.1984,1,1,1.0000,0.0000,1.44681,0.22060,-2.78069,0.98927,1.57080,0.00001,-0.14512,-0.38002,0.04324,,,,,,,,,,,,,,,,,,,,,,,,,,0,0,0,0,0
4.1799,1783012311.1987,1,1,1.0000,0.0000,1.44681,0.22060,-2.78069,0.98927,1.57080,0.00001,-0.14512,-0.38002,0.04324,,,,,,,,,,,,,,,,,,,,,,,,,,0,0,0,0,0
4.1877,1783012311.2066,1,1,1.0000,0.0000,1.44681,0.22057,-2.78070,0.98929,1.57080,0.00001,-0.14512,-0.38002,0.04323,,,,,,,,,,,,,,,,,,,,,,,,,,0,0,0,0,0
4.1997,1783012311.2186,1,1,1.0000,0.0000,1.44681,0.22051,-2.78071,0.98937,1.57080,0.00001,-0.14512,-0.38002,0.04322,,,,,,,,,,,,,,,,,,,,,,,,,,0,0,0,0,0
4.2088,1783012311.2276,1,1,1.0000,0.0000,1.44681,0.22050,-2.78072,0.98939,1.57080,0.00001,-0.14512,-0.38002,0.04321,,,,,,,,,,,,,,,,,,,,,,,,,,0,0,0,0,0
4.2091,1783012311.2280,1,1,1.0000,0.0000,1.44681,0.22050,-2.78072,0.98939,1.57080,0.00001,-0.14512,-0.38002,0.04321,,,,,,,,,,,,,,,,,,,,,,,,,,0,0,0,0,0
4.2211,1783012311.2399,1,1,1.0000,0.0000,1.44681,0.22043,-2.78074,0.98948,1.57080,0.00001,-0.14512,-0.38002,0.04320,,,,,,,,,,,,,,,,,,,,,,,,,,0,0,0,0,0
4.2333,1783012311.2522,1,1,1.0000,0.0000,1.44681,0.22037,-2.78075,0.98954,1.57080,0.00001,-0.14512,-0.38002,0.04318,,,,,,,,,,,,,,,,,,,,,,,,,,0,0,0,0,0
4.2379,1783012311.2567,1,1,1.0000,0.0000,1.44681,0.22037,-2.78075,0.98955,1.57080,0.00001,-0.14512,-0.38002,0.04318,,,,,,,,,,,,,,,,,,,,,,,,,,0,0,0,0,0
4.2382,1783012311.2571,1,1,1.0000,0.0000,1.44681,0.22037,-2.78075,0.98955,1.57080,0.00001,-0.14512,-0.38002,0.04318,,,,,,,,,,,,,,,,,,,,,,,,,,0,0,0,0,0
4.2480,1783012311.2669,1,1,1.0000,0.0000,1.44681,0.22035,-2.78076,0.98958,1.57080,0.00001,-0.14512,-0.38002,0.04318,,,,,,,,,,,,,,,,,,,,,,,,,,0,0,0,0,0
4.2598,1783012311.2786,1,1,1.0000,0.0000,1.44681,0.22029,-2.78077,0.98965,1.57080,0.00001,-0.14512,-0.38002,0.04316,,,,,,,,,,,,,,,,,,,,,,,,,,0,0,0,0,0
4.2773,1783012311.2961,1,1,1.0000,0.0000,1.44681,0.22023,-2.78079,0.98973,1.57080,0.00001,-0.14512,-0.38002,0.04314,,,,,,,,,,,,,,,,,,,,,,,,,,0,0,0,0,0
4.2814,1783012311.3003,1,1,1.0000,0.0000,1.44681,0.22020,-2.78079,0.98976,1.57080,0.00001,-0.14512,-0.38002,0.04314,,,,,,,,,,,,,,,,,,,,,,,,,,0,0,0,0,0
4.2921,1783012311.3109,1,1,1.0000,0.0000,1.44681,0.22015,-2.78081,0.98983,1.57080,0.00001,-0.14512,-0.38002,0.04312,,,,,,,,,,,,,,,,,,,,,,,,,,0,0,0,0,0
4.2925,1783012311.3114,1,1,1.0000,0.0000,1.44681,0.22015,-2.78081,0.98983,1.57080,0.00001,-0.14512,-0.38002,0.04312,,,,,,,,,,,,,,,,,,,,,,,,,,0,0,0,0,0
4.2930,1783012311.3118,1,1,1.0000,0.0000,1.44681,0.22015,-2.78081,0.98983,1.57080,0.00001,-0.14512,-0.38002,0.04312,,,,,,,,,,,,,,,,,,,,,,,,,,0,0,0,0,0
4.3054,1783012311.3243,1,1,1.0000,0.0000,1.44681,0.22011,-2.78081,0.98987,1.57080,0.00001,-0.14512,-0.38002,0.04311,,,,,,,,,,,,,,,,,,,,,,,,,,0,0,0,0,0
4.3057,1783012311.3245,1,1,1.0000,0.0000,1.44681,0.22011,-2.78081,0.98987,1.57080,0.00001,-0.14512,-0.38002,0.04311,,,,,,,,,,,,,,,,,,,,,,,,,,0,0,0,0,0
4.3159,1783012311.3348,1,1,1.0000,0.0000,1.44681,0.22006,-2.78083,0.98993,1.57080,0.00001,-0.14512,-0.38002,0.04310,,,,,,,,,,,,,,,,,,,,,,,,,,0,0,0,0,0
4.3261,1783012311.3449,1,1,1.0000,0.0000,1.44681,0.22003,-2.78083,0.98997,1.57080,0.00001,-0.14512,-0.38002,0.04309,,,,,,,,,,,,,,,,,,,,,,,,,,0,0,0,0,0
4.3358,1783012311.3547,1,1,1.0000,0.0000,1.44681,0.22000,-2.78084,0.99001,1.57080,0.00001,-0.14512,-0.38002,0.04309,,,,,,,,,,,,,,,,,,,,,,,,,,0,0,0,0,0
4.3422,1783012311.3610,1,1,1.0000,0.0000,1.44681,0.21995,-2.78085,0.99007,1.57080,0.00001,-0.14512,-0.38002,0.04307,,,,,,,,,,,,,,,,,,,,,,,,,,0,0,0,0,0
4.3525,1783012311.3714,1,1,1.0000,0.0000,1.44681,0.21990,-2.78087,0.99013,1.57080,0.00001,-0.14512,-0.38002,0.04306,,,,,,,,,,,,,,,,,,,,,,,,,,0,0,0,0,0
4.3529,1783012311.3718,1,1,1.0000,0.0000,1.44681,0.21990,-2.78087,0.99013,1.57080,0.00001,-0.14512,-0.38002,0.04306,,,,,,,,,,,,,,,,,,,,,,,,,,0,0,0,0,0
4.3896,1783012311.4085,1,1,1.0000,0.0000,1.44681,0.21977,-2.78090,0.99029,1.57080,0.00001,-0.14512,-0.38002,0.04303,,,,,,,,,,,,,,,,,,,,,,,,,,0,0,0,0,0
4.3899,1783012311.4087,1,1,1.0000,0.0000,1.44681,0.21977,-2.78090,0.99029,1.57080,0.00001,-0.14512,-0.38002,0.04303,,,,,,,,,,,,,,,,,,,,,,,,,,0,0,0,0,0
4.3902,1783012311.4090,1,1,1.0000,0.0000,1.44681,0.21977,-2.78090,0.99029,1.57080,0.00001,-0.14512,-0.38002,0.04303,,,,,,,,,,,,,,,,,,,,,,,,,,0,0,0,0,0
4.3904,1783012311.4093,1,1,1.0000,0.0000,1.44681,0.21977,-2.78090,0.99029,1.57080,0.00001,-0.14512,-0.38002,0.04303,,,,,,,,,,,,,,,,,,,,,,,,,,0,0,0,0,0
4.3914,1783012311.4103,1,1,1.0000,0.0000,1.44681,0.21977,-2.78090,0.99029,1.57080,0.00001,-0.14512,-0.38002,0.04303,,,,,,,,,,,,,,,,,,,,,,,,,,0,0,0,0,0
4.3917,1783012311.4106,1,1,1.0000,0.0000,1.44681,0.21977,-2.78090,0.99029,1.57080,0.00001,-0.14512,-0.38002,0.04303,,,,,,,,,,,,,,,,,,,,,,,,,,0,0,0,0,0
4.4199,1783012311.4388,1,1,1.0000,0.0000,1.44681,0.21965,-2.78093,0.99045,1.57080,0.00001,-0.14512,-0.38002,0.04300,,,,,,,,,,,,,,,,,,,,,,,,,,0,0,0,0,0
4.4204,1783012311.4393,1,1,1.0000,0.0000,1.44681,0.21964,-2.78093,0.99046,1.57080,0.00001,-0.14512,-0.38002,0.04299,,,,,,,,,,,,,,,,,,,,,,,,,,0,0,0,0,0
4.4260,1783012311.4448,1,1,1.0000,0.0000,1.44681,0.21962,-2.78094,0.99049,1.57080,0.00001,-0.14512,-0.38002,0.04299,,,,,,,,,,,,,,,,,,,,,,,,,,0,0,0,0,0
4.4342,1783012311.4531,1,1,1.0000,0.0000,1.44681,0.21957,-2.78095,0.99055,1.57080,0.00001,-0.14512,-0.38002,0.04298,,,,,,,,,,,,,,,,,,,,,,,,,,0,0,0,0,0
4.4417,1783012311.4606,1,1,1.0000,0.0000,1.44681,0.21954,-2.78096,0.99058,1.57080,0.00001,-0.14512,-0.38002,0.04297,,,,,,,,,,,,,,,,,,,,,,,,,,0,0,0,0,0
4.4514,1783012311.4703,1,1,1.0000,0.0000,1.44681,0.21952,-2.78096,0.99060,1.57080,0.00001,-0.14512,-0.38002,0.04296,,,,,,,,,,,,,,,,,,,,,,,,,,0,0,0,0,0
4.4518,1783012311.4706,1,1,1.0000,0.0000,1.44681,0.21952,-2.78096,0.99060,1.57080,0.00001,-0.14512,-0.38002,0.04296,,,,,,,,,,,,,,,,,,,,,,,,,,0,0,0,0,0
4.4649,1783012311.4837,1,1,1.0000,0.0000,1.44681,0.21943,-2.78098,0.99072,1.57080,0.00001,-0.14512,-0.38002,0.04294,,,,,,,,,,,,,,,,,,,,,,,,,,0,0,0,0,0
4.4652,1783012311.4841,1,1,1.0000,0.0000,1.44681,0.21943,-2.78098,0.99072,1.57080,0.00001,-0.14512,-0.38002,0.04294,,,,,,,,,,,,,,,,,,,,,,,,,,0,0,0,0,0
4.4738,1783012311.4926,1,1,1.0000,0.0000,1.44681,0.21940,-2.78099,0.99075,1.57080,0.00001,-0.14512,-0.38002,0.04293,,,,,,,,,,,,,,,,,,,,,,,,,,0,0,0,0,0
4.4819,1783012311.5007,1,1,1.0000,0.0000,1.44681,0.21939,-2.78099,0.99077,1.57080,0.00001,-0.14512,-0.38002,0.04293,,,,,,,,,,,,,,,,,,,,,,,,,,0,0,0,0,0
4.4821,1783012311.5010,1,1,1.0000,0.0000,1.44681,0.21939,-2.78099,0.99077,1.57080,0.00001,-0.14512,-0.38002,0.04293,,,,,,,,,,,,,,,,,,,,,,,,,,0,0,0,0,0
4.4916,1783012311.5105,1,1,1.0000,0.0000,1.44681,0.21935,-2.78100,0.99083,1.57080,0.00001,-0.14512,-0.38002,0.04292,,,,,,,,,,,,,,,,,,,,,,,,,,0,0,0,0,0
4.5057,1783012311.5246,1,1,1.0000,0.0000,1.44681,0.21927,-2.78102,0.99092,1.57080,0.00001,-0.14512,-0.38002,0.04290,,,,,,,,,,,,,,,,,,,,,,,,,,0,0,0,0,0
4.5061,1783012311.5250,1,1,1.0000,0.0000,1.44681,0.21927,-2.78102,0.99092,1.57080,0.00001,-0.14512,-0.38002,0.04290,,,,,,,,,,,,,,,,,,,,,,,,,,0,0,0,0,0
4.5116,1783012311.5305,1,1,1.0000,0.0000,1.44681,0.21926,-2.78102,0.99093,1.57080,0.00001,-0.14512,-0.38002,0.04290,,,,,,,,,,,,,,,,,,,,,,,,,,0,0,0,0,0
4.5311,1783012311.5499,1,1,1.0000,0.0000,1.44681,0.21918,-2.78105,0.99103,1.57080,0.00001,-0.14512,-0.38002,0.04288,,,,,,,,,,,,,,,,,,,,,,,,,,0,0,0,0,0
4.5315,1783012311.5503,1,1,1.0000,0.0000,1.44681,0.21918,-2.78105,0.99103,1.57080,0.00001,-0.14512,-0.38002,0.04288,,,,,,,,,,,,,,,,,,,,,,,,,,0,0,0,0,0
4.5320,1783012311.5508,1,1,1.0000,0.0000,1.44681,0.21918,-2.78105,0.99103,1.57080,0.00001,-0.14512,-0.38002,0.04288,,,,,,,,,,,,,,,,,,,,,,,,,,0,0,0,0,0
4.5492,1783012311.5680,1,1,1.0000,0.0000,1.44681,0.21912,-2.78106,0.99111,1.57080,0.00001,-0.14512,-0.38002,0.04286,,,,,,,,,,,,,,,,,,,,,,,,,,0,0,0,0,0
4.5516,1783012311.5704,1,1,1.0000,0.0000,1.44681,0.21912,-2.78106,0.99111,1.57080,0.00001,-0.14512,-0.38002,0.04286,,,,,,,,,,,,,,,,,,,,,,,,,,0,0,0,0,0
4.5697,1783012311.5886,1,1,1.0000,0.0000,1.44681,0.21904,-2.78108,0.99121,1.57080,0.00001,-0.14512,-0.38002,0.04284,,,,,,,,,,,,,,,,,,,,,,,,,,0,0,0,0,0
4.5726,1783012311.5915,1,1,1.0000,0.0000,1.44681,0.21903,-2.78108,0.99122,1.57080,0.00001,-0.14512,-0.38002,0.04284,,,,,,,,,,,,,,,,,,,,,,,,,,0,0,0,0,0
4.5847,1783012311.6036,1,1,1.0000,0.0000,1.44681,0.21898,-2.78110,0.99129,1.57080,0.00001,-0.14512,-0.38002,0.04282,,,,,,,,,,,,,,,,,,,,,,,,,,0,0,0,0,0
4.5850,1783012311.6039,1,1,1.0000,0.0000,1.44681,0.21898,-2.78110,0.99129,1.57080,0.00001,-0.14512,-0.38002,0.04282,,,,,,,,,,,,,,,,,,,,,,,,,,0,0,0,0,0
4.5918,1783012311.6107,1,1,1.0000,0.0000,1.44681,0.21895,-2.78110,0.99131,1.57080,0.00001,-0.14512,-0.38002,0.04282,,,,,,,,,,,,,,,,,,,,,,,,,,0,0,0,0,0
4.6076,1783012311.6264,1,1,1.0000,0.0000,1.44681,0.21892,-2.78111,0.99136,1.57080,0.00001,-0.14512,-0.38002,0.04281,,,,,,,,,,,,,,,,,,,,,,,,,,0,0,0,0,0
4.6131,1783012311.6319,1,1,1.0000,0.0000,1.44681,0.21887,-2.78112,0.99142,1.57080,0.00001,-0.14512,-0.38002,0.04280,,,,,,,,,,,,,,,,,,,,,,,,,,0,0,0,0,0
4.6135,1783012311.6324,1,1,1.0000,0.0000,1.44681,0.21887,-2.78112,0.99142,1.57080,0.00001,-0.14512,-0.38002,0.04280,,,,,,,,,,,,,,,,,,,,,,,,,,0,0,0,0,0
4.6235,1783012311.6424,1,1,1.0000,0.0000,1.44681,0.21881,-2.78114,0.99149,1.57080,0.00001,-0.14512,-0.38002,0.04278,,,,,,,,,,,,,,,,,,,,,,,,,,0,0,0,0,0
4.6358,1783012311.6547,1,1,1.0000,0.0000,1.44681,0.21880,-2.78114,0.99150,1.57080,0.00001,-0.14512,-0.38002,0.04278,,,,,,,,,,,,,,,,,,,,,,,,,,0,0,0,0,0
4.6422,1783012311.6610,1,1,1.0000,0.0000,1.44681,0.21877,-2.78115,0.99154,1.57080,0.00001,-0.14512,-0.38002,0.04277,,,,,,,,,,,,,,,,,,,,,,,,,,0,0,0,0,0
4.6520,1783012311.6708,1,1,1.0000,0.0000,1.44681,0.21873,-2.78116,0.99160,1.57080,0.00001,-0.14512,-0.38002,0.04276,,,,,,,,,,,,,,,,,,,,,,,,,,0,0,0,0,0
4.7130,1783012311.7319,1,1,1.0000,0.0000,1.44681,0.21850,-2.78121,0.99188,1.57080,0.00001,-0.14512,-0.38002,0.04270,,,,,,,,,,,,,,,,,,,,,,,,,,0,0,0,0,0
4.7135,1783012311.7323,1,1,1.0000,0.0000,1.44681,0.21850,-2.78121,0.99188,1.57080,0.00001,-0.14512,-0.38002,0.04270,,,,,,,,,,,,,,,,,,,,,,,,,,0,0,0,0,0
4.7157,1783012311.7346,1,1,1.0000,0.0000,1.44681,0.21850,-2.78121,0.99188,1.57080,0.00001,-0.14512,-0.38002,0.04270,,,,,,,,,,,,,,,,,,,,,,,,,,0,0,0,0,0
4.7168,1783012311.7356,1,1,1.0000,0.0000,1.44681,0.21850,-2.78121,0.99189,1.57080,0.00001,-0.14512,-0.38002,0.04270,,,,,,,,,,,,,,,,,,,,,,,,,,0,0,0,0,0
4.7170,1783012311.7359,1,1,1.0000,0.0000,1.44681,0.21850,-2.78121,0.99189,1.57080,0.00001,-0.14512,-0.38002,0.04270,,,,,,,,,,,,,,,,,,,,,,,,,,0,0,0,0,0
4.7175,1783012311.7363,1,1,1.0000,0.0000,1.44681,0.21850,-2.78121,0.99189,1.57080,0.00001,-0.14512,-0.38002,0.04270,,,,,,,,,,,,,,,,,,,,,,,,,,0,0,0,0,0
4.7343,1783012311.7532,1,1,1.0000,0.0000,1.44681,0.21841,-2.78124,0.99199,1.57080,0.00001,-0.14512,-0.38002,0.04268,,,,,,,,,,,,,,,,,,,,,,,,,,0,0,0,0,0
4.7348,1783012311.7536,1,1,1.0000,0.0000,1.44681,0.21841,-2.78124,0.99199,1.57080,0.00001,-0.14512,-0.38002,0.04268,,,,,,,,,,,,,,,,,,,,,,,,,,0,0,0,0,0
4.7463,1783012311.7652,1,1,1.0000,0.0000,1.44681,0.21836,-2.78125,0.99206,1.57080,0.00001,-0.14512,-0.38002,0.04267,,,,,,,,,,,,,,,,,,,,,,,,,,0,0,0,0,0
4.7780,1783012311.7968,1,1,1.0000,0.0000,1.44681,0.21824,-2.78128,0.99220,1.57080,0.00001,-0.14512,-0.38002,0.04264,,,,,,,,,,,,,,,,,,,,,,,,,,0,0,0,0,0
4.7782,1783012311.7971,1,1,1.0000,0.0000,1.44681,0.21824,-2.78128,0.99220,1.57080,0.00001,-0.14512,-0.38002,0.04264,,,,,,,,,,,,,,,,,,,,,,,,,,0,0,0,0,0
4.7787,1783012311.7975,1,1,1.0000,0.0000,1.44681,0.21824,-2.78128,0.99220,1.57080,0.00001,-0.14512,-0.38002,0.04264,,,,,,,,,,,,,,,,,,,,,,,,,,0,0,0,0,0
4.7952,1783012311.8140,1,1,1.0000,0.0000,1.44681,0.21816,-2.78130,0.99230,1.57080,0.00001,-0.14512,-0.38002,0.04262,,,,,,,,,,,,,,,,,,,,,,,,,,0,0,0,0,0
4.7956,1783012311.8145,1,1,1.0000,0.0000,1.44681,0.21816,-2.78130,0.99230,1.57080,0.00001,-0.14512,-0.38002,0.04262,,,,,,,,,,,,,,,,,,,,,,,,,,0,0,0,0,0
4.8080,1783012311.8268,1,1,1.0000,0.0000,1.44681,0.21811,-2.78131,0.99236,1.57080,0.00001,-0.14512,-0.38002,0.04260,,,,,,,,,,,,,,,,,,,,,,,,,,0,0,0,0,0
4.8087,1783012311.8276,1,1,1.0000,0.0000,1.44681,0.21811,-2.78131,0.99237,1.57080,0.00001,-0.14512,-0.38002,0.04260,,,,,,,,,,,,,,,,,,,,,,,,,,0,0,0,0,0
4.8270,1783012311.8458,1,1,1.0000,0.0000,1.44681,0.21803,-2.78133,0.99247,1.57080,0.00001,-0.14512,-0.38002,0.04258,,,,,,,,,,,,,,,,,,,,,,,,,,0,0,0,0,0
4.8784,1783012311.8972,1,1,1.0000,0.0000,1.44681,0.21783,-2.78138,0.99272,1.57080,0.00001,-0.14512,-0.38002,0.04253,,,,,,,,,,,,,,,,,,,,,,,,,,0,0,0,0,0
4.8786,1783012311.8975,1,1,1.0000,0.0000,1.44681,0.21783,-2.78138,0.99272,1.57080,0.00001,-0.14512,-0.38002,0.04253,,,,,,,,,,,,,,,,,,,,,,,,,,0,0,0,0,0
4.8789,1783012311.8978,1,1,1.0000,0.0000,1.44681,0.21783,-2.78138,0.99272,1.57080,0.00001,-0.14512,-0.38002,0.04253,,,,,,,,,,,,,,,,,,,,,,,,,,0,0,0,0,0
4.8919,1783012311.9108,1,1,1.0000,0.0000,1.44681,0.21775,-2.78140,0.99281,1.57080,0.00001,-0.14512,-0.38002,0.04251,,,,,,,,,,,,,,,,,,,,,,,,,,0,0,0,0,0
4.8927,1783012311.9115,1,1,1.0000,0.0000,1.44681,0.21775,-2.78140,0.99281,1.57080,0.00001,-0.14512,-0.38002,0.04251,,,,,,,,,,,,,,,,,,,,,,,,,,0,0,0,0,0
4.8931,1783012311.9119,1,1,1.0000,0.0000,1.44681,0.21775,-2.78140,0.99281,1.57080,0.00001,-0.14512,-0.38002,0.04251,,,,,,,,,,,,,,,,,,,,,,,,,,0,0,0,0,0
4.8943,1783012311.9131,1,1,1.0000,0.0000,1.44681,0.21775,-2.78140,0.99281,1.57080,0.00001,-0.14512,-0.38002,0.04251,,,,,,,,,,,,,,,,,,,,,,,,,,0,0,0,0,0
4.9051,1783012311.9240,1,1,1.0000,0.0000,1.44681,0.21772,-2.78141,0.99286,1.57080,0.00001,-0.14512,-0.38002,0.04250,,,,,,,,,,,,,,,,,,,,,,,,,,0,0,0,0,0
4.9054,1783012311.9242,1,1,1.0000,0.0000,1.44681,0.21772,-2.78141,0.99286,1.57080,0.00001,-0.14512,-0.38002,0.04250,,,,,,,,,,,,,,,,,,,,,,,,,,0,0,0,0,0
4.9233,1783012311.9422,1,1,1.0000,0.0000,1.44681,0.21762,-2.78143,0.99298,1.57080,0.00001,-0.14512,-0.38002,0.04248,,,,,,,,,,,,,,,,,,,,,,,,,,0,0,0,0,0
4.9470,1783012311.9659,1,1,1.0000,0.0000,1.44681,0.21753,-2.78145,0.99309,1.57080,0.00001,-0.14512,-0.38002,0.04245,,,,,,,,,,,,,,,,,,,,,,,,,,0,0,0,0,0
4.9474,1783012311.9662,1,1,1.0000,0.0000,1.44681,0.21753,-2.78145,0.99309,1.57080,0.00001,-0.14512,-0.38002,0.04245,,,,,,,,,,,,,,,,,,,,,,,,,,0,0,0,0,0
4.9581,1783012311.9770,1,1,1.0000,0.0000,1.44681,0.21748,-2.78147,0.99315,1.57080,0.00001,-0.14512,-0.38002,0.04244,,,,,,,,,,,,,,,,,,,,,,,,,,0,0,0,0,0
4.9758,1783012311.9946,1,1,1.0000,0.0000,1.44681,0.21743,-2.78148,0.99321,1.57080,0.00001,-0.14512,-0.38002,0.04243,,,,,,,,,,,,,,,,,,,,,,,,,,0,0,0,0,0
4.9873,1783012312.0061,1,1,1.0000,0.0000,1.44681,0.21739,-2.78149,0.99326,1.57080,0.00001,-0.14512,-0.38002,0.04242,,,,,,,,,,,,,,,,,,,,,,,,,,0,0,0,0,0
4.9943,1783012312.0132,1,1,1.0000,0.0000,1.44681,0.21737,-2.78149,0.99328,1.57080,0.00001,-0.14512,-0.38002,0.04241,,,,,,,,,,,,,,,,,,,,,,,,,,0,0,0,0,0
5.0040,1783012312.0228,1,1,1.0000,0.0000,1.44681,0.21733,-2.78150,0.99334,1.57080,0.00001,-0.14512,-0.38002,0.04240,,,,,,,,,,,,,,,,,,,,,,,,,,0,0,0,0,0
5.0239,1783012312.0428,1,1,1.0000,0.0000,1.44681,0.21725,-2.78152,0.99344,1.57080,0.00001,-0.14512,-0.38002,0.04238,,,,,,,,,,,,,,,,,,,,,,,,,,0,0,0,0,0
5.0246,1783012312.0434,1,1,1.0000,0.0000,1.44681,0.21724,-2.78153,0.99345,1.57080,0.00001,-0.14512,-0.38002,0.04238,,,,,,,,,,,,,,,,,,,,,,,,,,0,0,0,0,0
5.0464,1783012312.0653,1,1,1.0000,0.0000,1.44681,0.21716,-2.78154,0.99355,1.57080,0.00001,-0.14512,-0.38002,0.04236,,,,,,,,,,,,,,,,,,,,,,,,,,0,0,0,0,0
5.0468,1783012312.0657,1,1,1.0000,0.0000,1.44681,0.21716,-2.78154,0.99355,1.57080,0.00001,-0.14512,-0.38002,0.04236,,,,,,,,,,,,,,,,,,,,,,,,,,0,0,0,0,0
5.0525,1783012312.0713,1,1,1.0000,0.0000,1.44681,0.21715,-2.78155,0.99357,1.57080,0.00001,-0.14512,-0.38002,0.04236,,,,,,,,,,,,,,,,,,,,,,,,,,0,0,0,0,0
5.0611,1783012312.0800,1,1,1.0000,0.0000,1.44681,0.21710,-2.78156,0.99362,1.57080,0.00001,-0.14512,-0.38002,0.04234,,,,,,,,,,,,,,,,,,,,,,,,,,0,0,0,0,0
5.0614,1783012312.0802,1,1,1.0000,0.0000,1.44681,0.21710,-2.78156,0.99362,1.57080,0.00001,-0.14512,-0.38002,0.04234,,,,,,,,,,,,,,,,,,,,,,,,,,0,0,0,0,0
5.0822,1783012312.1010,1,1,1.0000,0.0000,1.44681,0.21702,-2.78158,0.99373,1.57080,0.00001,-0.14512,-0.38002,0.04232,,,,,,,,,,,,,,,,,,,,,,,,,,0,0,0,0,0
5.0826,1783012312.1015,1,1,1.0000,0.0000,1.44681,0.21702,-2.78158,0.99373,1.57080,0.00001,-0.14512,-0.38002,0.04232,,,,,,,,,,,,,,,,,,,,,,,,,,0,0,0,0,0
5.0831,1783012312.1019,1,1,1.0000,0.0000,1.44681,0.21702,-2.78158,0.99373,1.57080,0.00001,-0.14512,-0.38002,0.04232,,,,,,,,,,,,,,,,,,,,,,,,,,0,0,0,0,0
5.0917,1783012312.1106,1,1,1.0000,0.0000,1.44681,0.21700,-2.78158,0.99375,1.57080,0.00001,-0.14512,-0.38002,0.04232,,,,,,,,,,,,,,,,,,,,,,,,,,0,0,0,0,0
5.1020,1783012312.1209,1,1,1.0000,0.0000,1.44681,0.21694,-2.78160,0.99383,1.57080,0.00001,-0.14512,-0.38002,0.04230,,,,,,,,,,,,,,,,,,,,,,,,,,0,0,0,0,0
5.1119,1783012312.1307,1,1,1.0000,0.0000,1.44681,0.21693,-2.78160,0.99384,1.57080,0.00001,-0.14512,-0.38002,0.04230,,,,,,,,,,,,,,,,,,,,,,,,,,0,0,0,0,0
5.1226,1783012312.1414,1,1,1.0000,0.0000,1.44681,0.21688,-2.78161,0.99391,1.57080,0.00001,-0.14512,-0.38002,0.04229,,,,,,,,,,,,,,,,,,,,,,,,,,0,0,0,0,0
5.1229,1783012312.1418,1,1,1.0000,0.0000,1.44681,0.21688,-2.78161,0.99391,1.57080,0.00001,-0.14512,-0.38002,0.04229,,,,,,,,,,,,,,,,,,,,,,,,,,0,0,0,0,0
5.1318,1783012312.1507,1,1,1.0000,0.0000,1.44681,0.21682,-2.78163,0.99397,1.57080,0.00001,-0.14512,-0.38002,0.04227,,,,,,,,,,,,,,,,,,,,,,,,,,0,0,0,0,0
5.1428,1783012312.1616,1,1,1.0000,0.0000,1.44681,0.21679,-2.78163,0.99401,1.57080,0.00001,-0.14512,-0.38002,0.04226,,,,,,,,,,,,,,,,,,,,,,,,,,0,0,0,0,0
5.1519,1783012312.1708,1,1,1.0000,0.0000,1.44681,0.21677,-2.78164,0.99404,1.57080,0.00001,-0.14512,-0.38002,0.04226,,,,,,,,,,,,,,,,,,,,,,,,,,0,0,0,0,0
5.1637,1783012312.1825,1,1,1.0000,0.0000,1.44681,0.21671,-2.78166,0.99411,1.57080,0.00001,-0.14512,-0.38002,0.04224,,,,,,,,,,,,,,,,,,,,,,,,,,0,0,0,0,0
5.1848,1783012312.2036,1,1,1.0000,0.0000,1.44681,0.21662,-2.78168,0.99422,1.57080,0.00001,-0.14512,-0.38002,0.04222,,,,,,,,,,,,,,,,,,,,,,,,,,0,0,0,0,0
5.1852,1783012312.2040,1,1,1.0000,0.0000,1.44681,0.21662,-2.78168,0.99422,1.57080,0.00001,-0.14512,-0.38002,0.04222,,,,,,,,,,,,,,,,,,,,,,,,,,0,0,0,0,0
5.1858,1783012312.2047,1,1,1.0000,0.0000,1.44681,0.21662,-2.78168,0.99422,1.57080,0.00001,-0.14512,-0.38002,0.04222,,,,,,,,,,,,,,,,,,,,,,,,,,0,0,0,0,0
5.1916,1783012312.2105,1,1,1.0000,0.0000,1.44681,0.21659,-2.78168,0.99426,1.57080,0.00001,-0.14512,-0.38002,0.04221,,,,,,,,,,,,,,,,,,,,,,,,,,0,0,0,0,0
5.1924,1783012312.2112,1,1,1.0000,0.0000,1.44681,0.21657,-2.78169,0.99429,1.57080,0.00001,-0.14512,-0.38002,0.04221,,,,,,,,,,,,,,,,,,,,,,,,,,0,0,0,0,0
5.2031,1783012312.2219,1,1,1.0000,0.0000,1.44681,0.21656,-2.78169,0.99429,1.57080,0.00001,-0.14512,-0.38002,0.04221,,,,,,,,,,,,,,,,,,,,,,,,,,0,0,0,0,0
5.2127,1783012312.2315,1,1,1.0000,0.0000,1.44681,0.21652,-2.78170,0.99434,1.57080,0.00001,-0.14512,-0.38002,0.04220,,,,,,,,,,,,,,,,,,,,,,,,,,0,0,0,0,0
5.2129,1783012312.2318,1,1,1.0000,0.0000,1.44681,0.21652,-2.78170,0.99434,1.57080,0.00001,-0.14512,-0.38002,0.04220,,,,,,,,,,,,,,,,,,,,,,,,,,0,0,0,0,0
5.2247,1783012312.2436,1,1,1.0000,0.0000,1.44681,0.21648,-2.78171,0.99440,1.57080,0.00001,-0.14512,-0.38002,0.04219,,,,,,,,,,,,,,,,,,,,,,,,,,0,0,0,0,0
5.2341,1783012312.2530,1,1,1.0000,0.0000,1.44681,0.21646,-2.78172,0.99442,1.57080,0.00001,-0.14512,-0.38002,0.04218,,,,,,,,,,,,,,,,,,,,,,,,,,0,0,0,0,0
5.2448,1783012312.2637,1,1,1.0000,0.0000,1.44681,0.21639,-2.78173,0.99451,1.57080,0.00001,-0.14512,-0.38002,0.04216,,,,,,,,,,,,,,,,,,,,,,,,,,0,0,0,0,0
5.2538,1783012312.2727,1,1,1.0000,0.0000,1.44681,0.21634,-2.78175,0.99457,1.57080,0.00001,-0.14512,-0.38002,0.04215,,,,,,,,,,,,,,,,,,,,,,,,,,0,0,0,0,0
5.2615,1783012312.2804,1,1,1.0000,0.0000,1.44681,0.21634,-2.78175,0.99458,1.57080,0.00001,-0.14512,-0.38002,0.04215,,,,,,,,,,,,,,,,,,,,,,,,,,0,0,0,0,0
5.2717,1783012312.2905,1,1,1.0000,0.0000,1.44681,0.21631,-2.78175,0.99461,1.57080,0.00001,-0.14512,-0.38002,0.04214,,,,,,,,,,,,,,,,,,,,,,,,,,0,0,0,0,0
5.2901,1783012312.3089,1,1,1.0000,0.0000,1.44681,0.21625,-2.78177,0.99469,1.57080,0.00001,-0.14512,-0.38002,0.04213,,,,,,,,,,,,,,,,,,,,,,,,,,0,0,0,0,0
5.2982,1783012312.3170,1,1,1.0000,0.0000,1.44681,0.21622,-2.78178,0.99473,1.57080,0.00001,-0.14512,-0.38002,0.04212,,,,,,,,,,,,,,,,,,,,,,,,,,0,0,0,0,0
5.3062,1783012312.3250,1,1,1.0000,0.0000,1.44681,0.21617,-2.78179,0.99479,1.57080,0.00001,-0.14512,-0.38002,0.04211,,,,,,,,,,,,,,,,,,,,,,,,,,0,0,0,0,0
5.3173,1783012312.3361,1,1,1.0000,0.0000,1.44681,0.21611,-2.78180,0.99486,1.57080,0.00001,-0.14512,-0.38002,0.04209,,,,,,,,,,,,,,,,,,,,,,,,,,0,0,0,0,0
5.3277,1783012312.3465,1,1,1.0000,0.0000,1.44681,0.21610,-2.78181,0.99487,1.57080,0.00001,-0.14512,-0.38002,0.04209,,,,,,,,,,,,,,,,,,,,,,,,,,0,0,0,0,0
5.3351,1783012312.3539,1,1,1.0000,0.0000,1.44681,0.21607,-2.78181,0.99491,1.57080,0.00001,-0.14512,-0.38002,0.04208,,,,,,,,,,,,,,,,,,,,,,,,,,0,0,0,0,0
5.3446,1783012312.3635,1,1,1.0000,0.0000,1.44681,0.21603,-2.78182,0.99496,1.57080,0.00001,-0.14512,-0.38002,0.04207,,,,,,,,,,,,,,,,,,,,,,,,,,0,0,0,0,0
5.3547,1783012312.3736,1,1,1.0000,0.0000,1.44681,0.21601,-2.78183,0.99499,1.57080,0.00001,-0.14512,-0.38002,0.04206,,,,,,,,,,,,,,,,,,,,,,,,,,0,0,0,0,0
5.3653,1783012312.3842,1,1,1.0000,0.0000,1.44681,0.21594,-2.78184,0.99507,1.57080,0.00001,-0.14512,-0.38002,0.04205,,,,,,,,,,,,,,,,,,,,,,,,,,0,0,0,0,0
5.3774,1783012312.3963,1,1,1.0000,0.0000,1.44681,0.21588,-2.78186,0.99514,1.57080,0.00001,-0.14512,-0.38002,0.04203,,,,,,,,,,,,,,,,,,,,,,,,,,0,0,0,0,0
5.3903,1783012312.4091,1,1,1.0000,0.0000,1.44681,0.21585,-2.78187,0.99518,1.57080,0.00001,-0.14512,-0.38002,0.04202,,,,,,,,,,,,,,,,,,,,,,,,,,0,0,0,0,0
5.3998,1783012312.4187,1,1,1.0000,0.0000,1.44681,0.21580,-2.78188,0.99525,1.57080,0.00001,-0.14512,-0.38002,0.04201,,,,,,,,,,,,,,,,,,,,,,,,,,0,0,0,0,0
5.4006,1783012312.4194,1,1,1.0000,0.0000,1.44681,0.21577,-2.78189,0.99528,1.57080,0.00001,-0.14512,-0.38002,0.04200,,,,,,,,,,,,,,,,,,,,,,,,,,0,0,0,0,0
5.4105,1783012312.4293,1,1,1.0000,0.0000,1.44681,0.21577,-2.78189,0.99528,1.57080,0.00001,-0.14512,-0.38002,0.04200,,,,,,,,,,,,,,,,,,,,,,,,,,0,0,0,0,0
5.4221,1783012312.4409,1,1,1.0000,0.0000,1.44681,0.21571,-2.78190,0.99535,1.57080,0.00001,-0.14512,-0.38002,0.04199,,,,,,,,,,,,,,,,,,,,,,,,,,0,0,0,0,0
5.4298,1783012312.4487,1,1,1.0000,0.0000,1.44681,0.21566,-2.78191,0.99542,1.57080,0.00001,-0.14512,-0.38002,0.04198,,,,,,,,,,,,,,,,,,,,,,,,,,0,0,0,0,0
5.4301,1783012312.4490,1,1,1.0000,0.0000,1.44681,0.21566,-2.78191,0.99542,1.57080,0.00001,-0.14512,-0.38002,0.04198,,,,,,,,,,,,,,,,,,,,,,,,,,0,0,0,0,0
5.4430,1783012312.4618,1,1,1.0000,0.0000,1.44681,0.21563,-2.78192,0.99546,1.57080,0.00001,-0.14512,-0.38002,0.04197,,,,,,,,,,,,,,,,,,,,,,,,,,0,0,0,0,0
5.4499,1783012312.4687,1,1,1.0000,0.0000,1.44681,0.21560,-2.78193,0.99549,1.57080,0.00001,-0.14512,-0.38002,0.04196,,,,,,,,,,,,,,,,,,,,,,,,,,0,0,0,0,0
5.4581,1783012312.4769,1,1,1.0000,0.0000,1.44681,0.21555,-2.78194,0.99556,1.57080,0.00001,-0.14512,-0.38002,0.04195,,,,,,,,,,,,,,,,,,,,,,,,,,0,0,0,0,0
5.4684,1783012312.4873,1,1,1.0000,0.0000,1.44681,0.21552,-2.78195,0.99559,1.57080,0.00001,-0.14512,-0.38002,0.04194,,,,,,,,,,,,,,,,,,,,,,,,,,0,0,0,0,0
5.4784,1783012312.4972,1,1,1.0000,0.0000,1.44681,0.21549,-2.78196,0.99563,1.57080,0.00001,-0.14512,-0.38002,0.04193,,,,,,,,,,,,,,,,,,,,,,,,,,0,0,0,0,0
5.4899,1783012312.5088,1,1,1.0000,0.0000,1.44681,0.21541,-2.78197,0.99573,1.57080,0.00001,-0.14512,-0.38002,0.04191,,,,,,,,,,,,,,,,,,,,,,,,,,0,0,0,0,0
5.4985,1783012312.5174,1,1,1.0000,0.0000,1.44681,0.21539,-2.78198,0.99576,1.57080,0.00001,-0.14512,-0.38002,0.04191,,,,,,,,,,,,,,,,,,,,,,,,,,0,0,0,0,0
5.5102,1783012312.5290,1,1,1.0000,0.0000,1.44681,0.21535,-2.78199,0.99580,1.57080,0.00001,-0.14512,-0.38002,0.04190,,,,,,,,,,,,,,,,,,,,,,,,,,0,0,0,0,0
5.5180,1783012312.5369,1,1,1.0000,0.0000,1.44681,0.21530,-2.78200,0.99586,1.57080,0.00001,-0.14512,-0.38002,0.04188,,,,,,,,,,,,,,,,,,,,,,,,,,0,0,0,0,0
5.5295,1783012312.5483,1,1,1.0000,0.0000,1.44681,0.21527,-2.78201,0.99590,1.57080,0.00001,-0.14512,-0.38002,0.04188,,,,,,,,,,,,,,,,,,,,,,,,,,0,0,0,0,0
5.5380,1783012312.5569,1,1,1.0000,0.0000,1.44681,0.21524,-2.78202,0.99594,1.57080,0.00001,-0.14512,-0.38002,0.04187,,,,,,,,,,,,,,,,,,,,,,,,,,0,0,0,0,0
5.5489,1783012312.5678,1,1,1.0000,0.0000,1.44681,0.21516,-2.78203,0.99604,1.57080,0.00001,-0.14512,-0.38002,0.04185,,,,,,,,,,,,,,,,,,,,,,,,,,0,0,0,0,0
5.5580,1783012312.5769,1,1,1.0000,0.0000,1.44681,0.21514,-2.78204,0.99607,1.57080,0.00001,-0.14512,-0.38002,0.04184,,,,,,,,,,,,,,,,,,,,,,,,,,0,0,0,0,0
5.5692,1783012312.5880,1,1,1.0000,0.0000,1.44681,0.21510,-2.78205,0.99611,1.57080,0.00001,-0.14512,-0.38002,0.04183,,,,,,,,,,,,,,,,,,,,,,,,,,0,0,0,0,0
5.5781,1783012312.5970,1,1,1.0000,0.0000,1.44681,0.21505,-2.78206,0.99617,1.57080,0.00001,-0.14512,-0.38002,0.04182,,,,,,,,,,,,,,,,,,,,,,,,,,0,0,0,0,0
5.5951,1783012312.6139,1,1,1.0000,0.0000,1.44681,0.21500,-2.78208,0.99624,1.57080,0.00001,-0.14512,-0.38002,0.04181,,,,,,,,,,,,,,,,,,,,,,,,,,0,0,0,0,0
5.6005,1783012312.6193,1,1,1.0000,0.0000,1.44681,0.21497,-2.78208,0.99627,1.57080,0.00001,-0.14512,-0.38002,0.04180,,,,,,,,,,,,,,,,,,,,,,,,,,0,0,0,0,0
5.6092,1783012312.6281,1,1,1.0000,0.0000,1.44681,0.21494,-2.78209,0.99632,1.57080,0.00001,-0.14512,-0.38002,0.04179,,,,,,,,,,,,,,,,,,,,,,,,,,0,0,0,0,0
5.6209,1783012312.6398,1,1,1.0000,0.0000,1.44681,0.21491,-2.78210,0.99636,1.57080,0.00001,-0.14512,-0.38002,0.04178,,,,,,,,,,,,,,,,,,,,,,,,,,0,0,0,0,0
5.6377,1783012312.6566,1,1,1.0000,0.0000,1.44681,0.21483,-2.78212,0.99646,1.57080,0.00001,-0.14512,-0.38002,0.04176,,,,,,,,,,,,,,,,,,,,,,,,,,0,0,0,0,0
5.6423,1783012312.6612,1,1,1.0000,0.0000,1.44681,0.21480,-2.78212,0.99649,1.57080,0.00001,-0.14512,-0.38002,0.04176,,,,,,,,,,,,,,,,,,,,,,,,,,0,0,0,0,0
5.6515,1783012312.6704,1,1,1.0000,0.0000,1.44681,0.21477,-2.78213,0.99653,1.57080,0.00001,-0.14512,-0.38002,0.04175,,,,,,,,,,,,,,,,,,,,,,,,,,0,0,0,0,0
5.6584,1783012312.6773,1,1,1.0000,0.0000,1.44681,0.21476,-2.78213,0.99654,1.57080,0.00001,-0.14512,-0.38002,0.04175,,,,,,,,,,,,,,,,,,,,,,,,,,0,0,0,0,0
5.6684,1783012312.6873,1,1,1.0000,0.0000,1.44681,0.21471,-2.78215,0.99661,1.57080,0.00001,-0.14512,-0.38002,0.04173,,,,,,,,,,,,,,,,,,,,,,,,,,0,0,0,0,0
5.6779,1783012312.6967,1,1,1.0000,0.0000,1.44681,0.21468,-2.78215,0.99663,1.57080,0.00001,-0.14512,-0.38002,0.04173,,,,,,,,,,,,,,,,,,,,,,,,,,0,0,0,0,0
5.6966,1783012312.7155,1,1,1.0000,0.0000,1.44681,0.21460,-2.78217,0.99674,1.57080,0.00001,-0.14512,-0.38002,0.04171,,,,,,,,,,,,,,,,,,,,,,,,,,0,0,0,0,0
5.7038,1783012312.7227,1,1,1.0000,0.0000,1.44681,0.21457,-2.78218,0.99678,1.57080,0.00001,-0.14512,-0.38002,0.04170,,,,,,,,,,,,,,,,,,,,,,,,,,0,0,0,0,0
5.7109,1783012312.7298,1,1,1.0000,0.0000,1.44681,0.21454,-2.78219,0.99681,1.57080,0.00001,-0.14512,-0.38002,0.04169,,,,,,,,,,,,,,,,,,,,,,,,,,0,0,0,0,0
5.7179,1783012312.7368,1,1,1.0000,0.0000,1.44681,0.21453,-2.78219,0.99682,1.57080,0.00001,-0.14512,-0.38002,0.04169,,,,,,,,,,,,,,,,,,,,,,,,,,0,0,0,0,0
5.7285,1783012312.7473,1,1,1.0000,0.0000,1.44681,0.21448,-2.78220,0.99689,1.57080,0.00002,-0.14512,-0.38002,0.04168,,,,,,,,,,,,,,,,,,,,,,,,,,0,0,0,0,0
5.7383,1783012312.7571,1,1,1.0000,0.0000,1.44681,0.21446,-2.78221,0.99692,1.57080,0.00002,-0.14512,-0.38002,0.04167,,,,,,,,,,,,,,,,,,,,,,,,,,0,0,0,0,0
