Martins-Lucaas/twinforge/sensors/Data/20260710_185008__samples.csv
t_rel_s,t_unix,cycle,phase,setpoint_n,force_net_n,q1,q2,q3,q4,q5,q6,tcp_x,tcp_y,tcp_z,taxel_0,taxel_1,taxel_2,taxel_3,taxel_4,taxel_5,taxel_6,taxel_7,taxel_8,taxel_9,taxel_10,taxel_11,taxel_12,taxel_13,taxel_14,taxel_15,taxel_16,taxel_17,taxel_18,taxel_19,taxel_20,taxel_21,taxel_22,taxel_23,taxel_24,n_RA,n_SA,cn_mm,cn_ra,cn_sa
0.0919,1783720209.0311,1,0,1.0000,0.0000,1.42052,0.14185,-2.66688,0.95417,1.57080,0.11681,-0.13197,-0.44703,0.06308,,,,,,,,,,,,,,,,,,,,,,,,,,0,0,0,0,0
0.2708,1783720209.2099,1,0,1.0000,0.0000,1.42052,0.14185,-2.66687,0.95417,1.57080,0.11681,-0.13197,-0.44703,0.06308,,,,,,,,,,,,,,,,,,,,,,,,,,0,0,0,0,0
0.2714,1783720209.2105,1,0,1.0000,0.0000,1.42052,0.14185,-2.66687,0.95417,1.57080,0.11681,-0.13197,-0.44703,0.06308,,,,,,,,,,,,,,,,,,,,,,,,,,0,0,0,0,0
0.2720,1783720209.2112,1,0,1.0000,0.0000,1.42052,0.14185,-2.66687,0.95417,1.57080,0.11681,-0.13197,-0.44703,0.06308,,,,,,,,,,,,,,,,,,,,,,,,,,0,0,0,0,0
0.2725,1783720209.2117,1,0,1.0000,0.0000,1.42052,0.14185,-2.66687,0.95417,1.57080,0.11681,-0.13197,-0.44703,0.06308,,,,,,,,,,,,,,,,,,,,,,,,,,0,0,0,0,0
0.2731,1783720209.2122,1,0,1.0000,0.0000,1.42052,0.14185,-2.66687,0.95417,1.57080,0.11681,-0.13197,-0.44703,0.06308,,,,,,,,,,,,,,,,,,,,,,,,,,0,0,0,0,0
0.2735,1783720209.2127,1,0,1.0000,0.0000,1.42052,0.14185,-2.66687,0.95417,1.57080,0.11681,-0.13197,-0.44703,0.06308,,,,,,,,,,,,,,,,,,,,,,,,,,0,0,0,0,0
0.2741,1783720209.2133,1,0,1.0000,0.0000,1.42052,0.14185,-2.66687,0.95417,1.57080,0.11681,-0.13197,-0.44703,0.06308,,,,,,,,,,,,,,,,,,,,,,,,,,0,0,0,0,0
0.2746,1783720209.2137,1,0,1.0000,0.0000,1.42052,0.14185,-2.66687,0.95417,1.57080,0.11681,-0.13197,-0.44703,0.06308,,,,,,,,,,,,,,,,,,,,,,,,,,0,0,0,0,0
0.2750,1783720209.2141,1,0,1.0000,0.0000,1.42052,0.14185,-2.66687,0.95417,1.57080,0.11681,-0.13197,-0.44703,0.06308,,,,,,,,,,,,,,,,,,,,,,,,,,0,0,0,0,0
0.2754,1783720209.2146,1,0,1.0000,0.0000,1.42052,0.14185,-2.66687,0.95417,1.57080,0.11681,-0.13197,-0.44703,0.06308,,,,,,,,,,,,,,,,,,,,,,,,,,0,0,0,0,0
0.2758,1783720209.2150,1,0,1.0000,0.0000,1.42052,0.14185,-2.66687,0.95417,1.57080,0.11681,-0.13197,-0.44703,0.06308,,,,,,,,,,,,,,,,,,,,,,,,,,0,0,0,0,0
0.2764,1783720209.2155,1,0,1.0000,0.0000,1.42052,0.14185,-2.66687,0.95417,1.57080,0.11681,-0.13197,-0.44703,0.06308,,,,,,,,,,,,,,,,,,,,,,,,,,0,0,0,0,0
0.2822,1783720209.2213,1,0,1.0000,0.0000,1.42052,0.14185,-2.66687,0.95417,1.57080,0.11681,-0.13197,-0.44703,0.06308,,,,,,,,,,,,,,,,,,,,,,,,,,0,0,0,0,0
0.2825,1783720209.2216,1,0,1.0000,0.0000,1.42052,0.14185,-2.66687,0.95417,1.57080,0.11681,-0.13197,-0.44703,0.06308,,,,,,,,,,,,,,,,,,,,,,,,,,0,0,0,0,0
0.2828,1783720209.2220,1,0,1.0000,0.0000,1.42052,0.14185,-2.66687,0.95417,1.57080,0.11681,-0.13197,-0.44703,0.06308,,,,,,,,,,,,,,,,,,,,,,,,,,0,0,0,0,0
0.2831,1783720209.2222,1,0,1.0000,0.0000,1.42052,0.14185,-2.66687,0.95417,1.57080,0.11681,-0.13197,-0.44703,0.06308,,,,,,,,,,,,,,,,,,,,,,,,,,0,0,0,0,0
0.2835,1783720209.2226,1,0,1.0000,0.0000,1.42052,0.14185,-2.66687,0.95417,1.57080,0.11681,-0.13197,-0.44703,0.06308,,,,,,,,,,,,,,,,,,,,,,,,,,0,0,0,0,0
0.2838,1783720209.2230,1,0,1.0000,0.0000,1.42052,0.14185,-2.66687,0.95417,1.57080,0.11681,-0.13197,-0.44703,0.06308,,,,,,,,,,,,,,,,,,,,,,,,,,0,0,0,0,0
0.2843,1783720209.2235,1,0,1.0000,0.0000,1.42052,0.14185,-2.66687,0.95417,1.57080,0.11681,-0.13197,-0.44703,0.06308,,,,,,,,,,,,,,,,,,,,,,,,,,0,0,0,0,0
0.3719,1783720209.3111,1,0,1.0000,0.0000,1.42052,0.14185,-2.66687,0.95417,1.57080,0.11681,-0.13197,-0.44703,0.06308,,,,,,,,,,,,,,,,,,,,,,,,,,0,0,0,0,0
0.3724,1783720209.3115,1,0,1.0000,0.0000,1.42052,0.14185,-2.66687,0.95417,1.57080,0.11681,-0.13197,-0.44703,0.06308,,,,,,,,,,,,,,,,,,,,,,,,,,0,0,0,0,0
0.3729,1783720209.3121,1,0,1.0000,0.0000,1.42052,0.14185,-2.66687,0.95417,1.57080,0.11681,-0.13197,-0.44703,0.06308,,,,,,,,,,,,,,,,,,,,,,,,,,0,0,0,0,0
0.3734,1783720209.3125,1,0,1.0000,0.0000,1.42052,0.14185,-2.66687,0.95417,1.57080,0.11681,-0.13197,-0.44703,0.06308,,,,,,,,,,,,,,,,,,,,,,,,,,0,0,0,0,0
0.3741,1783720209.3132,1,0,1.0000,0.0000,1.42052,0.14185,-2.66687,0.95417,1.57080,0.11681,-0.13197,-0.44703,0.06308,,,,,,,,,,,,,,,,,,,,,,,,,,0,0,0,0,0
0.3801,1783720209.3193,1,0,1.0000,0.0000,1.42052,0.14185,-2.66687,0.95417,1.57080,0.11681,-0.13197,-0.44703,0.06308,,,,,,,,,,,,,,,,,,,,,,,,,,0,0,0,0,0
0.3806,1783720209.3197,1,0,1.0000,0.0000,1.42052,0.14185,-2.66687,0.95417,1.57080,0.11681,-0.13197,-0.44703,0.06308,,,,,,,,,,,,,,,,,,,,,,,,,,0,0,0,0,0
0.3990,1783720209.3381,1,0,1.0000,0.0000,1.42052,0.14185,-2.66687,0.95417,1.57080,0.11681,-0.13197,-0.44703,0.06308,,,,,,,,,,,,,,,,,,,,,,,,,,0,0,0,0,0
0.4029,1783720209.3421,1,0,1.0000,0.0000,1.42052,0.14185,-2.66687,0.95417,1.57080,0.11681,-0.13197,-0.44703,0.06308,,,,,,,,,,,,,,,,,,,,,,,,,,0,0,0,0,0
0.4083,1783720209.3474,1,0,1.0000,0.0000,1.42052,0.14185,-2.66687,0.95417,1.57080,0.11681,-0.13197,-0.44703,0.06308,,,,,,,,,,,,,,,,,,,,,,,,,,0,0,0,0,0
0.4295,1783720209.3687,1,0,1.0000,0.0000,1.42052,0.14185,-2.66687,0.95417,1.57080,0.11681,-0.13197,-0.44703,0.06308,,,,,,,,,,,,,,,,,,,,,,,,,,0,0,0,0,0
0.4303,1783720209.3694,1,0,1.0000,0.0000,1.42052,0.14185,-2.66687,0.95417,1.57080,0.11681,-0.13197,-0.44703,0.06308,,,,,,,,,,,,,,,,,,,,,,,,,,0,0,0,0,0
0.4611,1783720209.4003,1,0,1.0000,0.0000,1.42052,0.14185,-2.66687,0.95417,1.57080,0.11681,-0.13197,-0.44703,0.06308,,,,,,,,,,,,,,,,,,,,,,,,,,0,0,0,0,0
0.4616,1783720209.4008,1,0,1.0000,0.0000,1.42052,0.14185,-2.66687,0.95417,1.57080,0.11681,-0.13197,-0.44703,0.06308,,,,,,,,,,,,,,,,,,,,,,,,,,0,0,0,0,0
0.4730,1783720209.4122,1,0,1.0000,0.0000,1.42052,0.14185,-2.66687,0.95417,1.57080,0.11681,-0.13197,-0.44703,0.06308,,,,,,,,,,,,,,,,,,,,,,,,,,0,0,0,0,0
0.4811,1783720209.4202,1,0,1.0000,0.0000,1.42052,0.14185,-2.66687,0.95417,1.57080,0.11681,-0.13197,-0.44703,0.06308,,,,,,,,,,,,,,,,,,,,,,,,,,0,0,0,0,0
0.4897,1783720209.4288,1,0,1.0000,0.0000,1.42052,0.14185,-2.66687,0.95417,1.57080,0.11681,-0.13197,-0.44703,0.06308,,,,,,,,,,,,,,,,,,,,,,,,,,0,0,0,0,0
0.4904,1783720209.4295,1,0,1.0000,0.0000,1.42052,0.14185,-2.66687,0.95417,1.57080,0.11681,-0.13197,-0.44703,0.06308,,,,,,,,,,,,,,,,,,,,,,,,,,0,0,0,0,0
0.4993,1783720209.4384,1,0,1.0000,0.0000,1.42052,0.14185,-2.66687,0.95417,1.57080,0.11681,-0.13197,-0.44703,0.06308,,,,,,,,,,,,,,,,,,,,,,,,,,0,0,0,0,0
0.4997,1783720209.4388,1,0,1.0000,0.0000,1.42052,0.14185,-2.66687,0.95417,1.57080,0.11681,-0.13197,-0.44703,0.06308,,,,,,,,,,,,,,,,,,,,,,,,,,0,0,0,0,0
0.5101,1783720209.4492,1,0,1.0000,0.0000,1.42052,0.14185,-2.66687,0.95417,1.57080,0.11681,-0.13197,-0.44703,0.06308,,,,,,,,,,,,,,,,,,,,,,,,,,0,0,0,0,0
0.5204,1783720209.4595,1,0,1.0000,0.0000,1.42052,0.14185,-2.66687,0.95417,1.57080,0.11681,-0.13197,-0.44703,0.06308,,,,,,,,,,,,,,,,,,,,,,,,,,0,0,0,0,0
0.5294,1783720209.4686,1,0,1.0000,0.0000,1.42052,0.14185,-2.66687,0.95417,1.57080,0.11681,-0.13197,-0.44703,0.06308,,,,,,,,,,,,,,,,,,,,,,,,,,0,0,0,0,0
0.5384,1783720209.4775,1,0,1.0000,0.0000,1.42052,0.14185,-2.66687,0.95417,1.57080,0.11681,-0.13197,-0.44703,0.06308,,,,,,,,,,,,,,,,,,,,,,,,,,0,0,0,0,0
0.5389,1783720209.4780,1,0,1.0000,0.0000,1.42052,0.14185,-2.66687,0.95417,1.57080,0.11681,-0.13197,-0.44703,0.06308,,,,,,,,,,,,,,,,,,,,,,,,,,0,0,0,0,0
0.5488,1783720209.4880,1,0,1.0000,0.0000,1.42052,0.14185,-2.66687,0.95417,1.57080,0.11681,-0.13197,-0.44703,0.06308,,,,,,,,,,,,,,,,,,,,,,,,,,0,0,0,0,0
0.5492,1783720209.4884,1,0,1.0000,0.0000,1.42052,0.14185,-2.66687,0.95417,1.57080,0.11681,-0.13197,-0.44703,0.06308,,,,,,,,,,,,,,,,,,,,,,,,,,0,0,0,0,0
0.5590,1783720209.4982,1,0,1.0000,0.0000,1.42052,0.14185,-2.66687,0.95417,1.57080,0.11681,-0.13197,-0.44703,0.06308,,,,,,,,,,,,,,,,,,,,,,,,,,0,0,0,0,0
0.5795,1783720209.5186,1,0,1.0000,0.0000,1.42052,0.14185,-2.66687,0.95417,1.57080,0.11681,-0.13197,-0.44703,0.06308,,,,,,,,,,,,,,,,,,,,,,,,,,0,0,0,0,0
0.5800,1783720209.5192,1,0,1.0000,0.0000,1.42052,0.14185,-2.66687,0.95417,1.57080,0.11681,-0.13197,-0.44703,0.06308,,,,,,,,,,,,,,,,,,,,,,,,,,0,0,0,0,0
0.5875,1783720209.5266,1,0,1.0000,0.0000,1.42052,0.14185,-2.66687,0.95417,1.57080,0.11681,-0.13197,-0.44703,0.06308,,,,,,,,,,,,,,,,,,,,,,,,,,0,0,0,0,0
0.5996,1783720209.5387,1,0,1.0000,0.0000,1.42052,0.14185,-2.66687,0.95417,1.57080,0.11681,-0.13197,-0.44703,0.06308,,,,,,,,,,,,,,,,,,,,,,,,,,0,0,0,0,0
0.6093,1783720209.5485,1,0,1.0000,0.0000,1.42052,0.14185,-2.66687,0.95417,1.57080,0.11681,-0.13197,-0.44703,0.06308,,,,,,,,,,,,,,,,,,,,,,,,,,0,0,0,0,0
0.6102,1783720209.5493,1,0,1.0000,0.0000,1.42052,0.14185,-2.66687,0.95417,1.57080,0.11681,-0.13197,-0.44703,0.06308,,,,,,,,,,,,,,,,,,,,,,,,,,0,0,0,0,0
0.6235,1783720209.5627,1,0,1.0000,0.0000,1.42052,0.14185,-2.66687,0.95417,1.57080,0.11681,-0.13197,-0.44703,0.06308,,,,,,,,,,,,,,,,,,,,,,,,,,0,0,0,0,0
0.6241,1783720209.5633,1,0,1.0000,0.0000,1.42052,0.14185,-2.66687,0.95417,1.57080,0.11681,-0.13197,-0.44703,0.06308,,,,,,,,,,,,,,,,,,,,,,,,,,0,0,0,0,0
0.6330,1783720209.5721,1,0,1.0000,0.0000,1.42052,0.14185,-2.66687,0.95417,1.57080,0.11681,-0.13197,-0.44703,0.06308,,,,,,,,,,,,,,,,,,,,,,,,,,0,0,0,0,0
0.6424,1783720209.5815,1,0,1.0000,0.0000,1.42052,0.14185,-2.66687,0.95417,1.57080,0.11681,-0.13197,-0.44703,0.06308,,,,,,,,,,,,,,,,,,,,,,,,,,0,0,0,0,0
0.6496,1783720209.5888,1,0,1.0000,0.0000,1.42052,0.14185,-2.66687,0.95417,1.57080,0.11681,-0.13197,-0.44703,0.06308,,,,,,,,,,,,,,,,,,,,,,,,,,0,0,0,0,0
0.6611,1783720209.6002,1,0,1.0000,0.0000,1.42051,0.14185,-2.66688,0.95417,1.57080,0.11682,-0.13197,-0.44703,0.06308,,,,,,,,,,,,,,,,,,,,,,,,,,0,0,0,0,0
0.6784,1783720209.6176,1,0,1.0000,0.0000,1.42048,0.14186,-2.66690,0.95417,1.57080,0.11685,-0.13196,-0.44702,0.06307,,,,,,,,,,,,,,,,,,,,,,,,,,0,0,0,0,0
0.6797,1783720209.6189,1,0,1.0000,0.0000,1.42048,0.14186,-2.66690,0.95417,1.57080,0.11685,-0.13196,-0.44702,0.06307,,,,,,,,,,,,,,,,,,,,,,,,,,0,0,0,0,0
0.6924,1783720209.6316,1,0,1.0000,0.0000,1.42040,0.14188,-2.66695,0.95417,1.57080,0.11691,-0.13193,-0.44700,0.06306,,,,,,,,,,,,,,,,,,,,,,,,,,0,0,0,0,0
0.7056,1783720209.6447,1,0,1.0000,0.0000,1.42035,0.14189,-2.66697,0.95417,1.57080,0.11696,-0.13191,-0.44699,0.06305,,,,,,,,,,,,,,,,,,,,,,,,,,0,0,0,0,0
0.7124,1783720209.6515,1,0,1.0000,0.0000,1.42028,0.14191,-2.66699,0.95417,1.57080,0.11703,-0.13189,-0.44699,0.06305,,,,,,,,,,,,,,,,,,,,,,,,,,0,0,0,0,0
0.7227,1783720209.6619,1,0,1.0000,0.0000,1.42003,0.14198,-2.66705,0.95416,1.57080,0.11727,-0.13180,-0.44698,0.06304,,,,,,,,,,,,,,,,,,,,,,,,,,0,0,0,0,0
0.7306,1783720209.6698,1,0,1.0000,0.0000,1.41981,0.14204,-2.66711,0.95415,1.57080,0.11749,-0.13171,-0.44698,0.06304,,,,,,,,,,,,,,,,,,,,,,,,,,0,0,0,0,0
0.7310,1783720209.6702,1,0,1.0000,0.0000,1.41981,0.14204,-2.66711,0.95415,1.57080,0.11749,-0.13171,-0.44698,0.06304,,,,,,,,,,,,,,,,,,,,,,,,,,0,0,0,0,0
0.7424,1783720209.6816,1,0,1.0000,0.0000,1.41972,0.14207,-2.66713,0.95415,1.57080,0.11757,-0.13168,-0.44698,0.06304,,,,,,,,,,,,,,,,,,,,,,,,,,0,0,0,0,0
0.7428,1783720209.6820,1,0,1.0000,0.0000,1.41972,0.14207,-2.66713,0.95415,1.57080,0.11757,-0.13168,-0.44698,0.06304,,,,,,,,,,,,,,,,,,,,,,,,,,0,0,0,0,0
0.8052,1783720209.7444,1,0,1.0000,0.0000,1.41738,0.14270,-2.66758,0.95403,1.57080,0.11989,-0.13080,-0.44702,0.06306,,,,,,,,,,,,,,,,,,,,,,,,,,0,0,0,0,0
0.8056,1783720209.7448,1,0,1.0000,0.0000,1.41738,0.14270,-2.66758,0.95403,1.57080,0.11989,-0.13080,-0.44702,0.06306,,,,,,,,,,,,,,,,,,,,,,,,,,0,0,0,0,0
0.8887,1783720209.8278,1,0,1.0000,0.0000,1.41183,0.14419,-2.66865,0.95368,1.57080,0.12544,-0.12873,-0.44707,0.06308,,,,,,,,,,,,,,,,,,,,,,,,,,0,0,0,0,0
0.8892,1783720209.8283,1,0,1.0000,0.0000,1.41183,0.14419,-2.66865,0.95368,1.57080,0.12544,-0.12873,-0.44707,0.06308,,,,,,,,,,,,,,,,,,,,,,,,,,0,0,0,0,0
0.8903,1783720209.8294,1,0,1.0000,0.0000,1.41160,0.14425,-2.66869,0.95367,1.57080,0.12567,-0.12865,-0.44707,0.06308,,,,,,,,,,,,,,,,,,,,,,,,,,0,0,0,0,0
0.8908,1783720209.8299,1,0,1.0000,0.0000,1.41160,0.14425,-2.66869,0.95367,1.57080,0.12567,-0.12865,-0.44707,0.06308,,,,,,,,,,,,,,,,,,,,,,,,,,0,0,0,0,0
0.8917,1783720209.8308,1,0,1.0000,0.0000,1.41160,0.14425,-2.66869,0.95367,1.57080,0.12567,-0.12865,-0.44707,0.06308,,,,,,,,,,,,,,,,,,,,,,,,,,0,0,0,0,0
0.8920,1783720209.8311,1,0,1.0000,0.0000,1.41160,0.14425,-2.66869,0.95367,1.57080,0.12567,-0.12865,-0.44707,0.06308,,,,,,,,,,,,,,,,,,,,,,,,,,0,0,0,0,0
0.8975,1783720209.8367,1,0,1.0000,0.0000,1.41131,0.14433,-2.66875,0.95365,1.57080,0.12596,-0.12854,-0.44707,0.06308,,,,,,,,,,,,,,,,,,,,,,,,,,0,0,0,0,0
0.8982,1783720209.8374,1,0,1.0000,0.0000,1.41095,0.14443,-2.66882,0.95362,1.57080,0.12632,-0.12841,-0.44708,0.06308,,,,,,,,,,,,,,,,,,,,,,,,,,0,0,0,0,0
0.9079,1783720209.8470,1,0,1.0000,0.0000,1.41014,0.14465,-2.66898,0.95357,1.57080,0.12713,-0.12810,-0.44708,0.06308,,,,,,,,,,,,,,,,,,,,,,,,,,0,0,0,0,0
0.9282,1783720209.8674,1,0,1.0000,0.0000,1.40883,0.14500,-2.66923,0.95348,1.57080,0.12844,-0.12762,-0.44709,0.06308,,,,,,,,,,,,,,,,,,,,,,,,,,0,0,0,0,0
0.9423,1783720209.8815,1,0,1.0000,0.0000,1.40843,0.14510,-2.66931,0.95345,1.57080,0.12884,-0.12747,-0.44709,0.06308,,,,,,,,,,,,,,,,,,,,,,,,,,0,0,0,0,0
0.9428,1783720209.8820,1,0,1.0000,0.0000,1.40843,0.14510,-2.66931,0.95345,1.57080,0.12884,-0.12747,-0.44709,0.06308,,,,,,,,,,,,,,,,,,,,,,,,,,0,0,0,0,0
0.9476,1783720209.8868,1,0,1.0000,0.0000,1.40828,0.14514,-2.66934,0.95344,1.57080,0.12899,-0.12741,-0.44709,0.06308,,,,,,,,,,,,,,,,,,,,,,,,,,0,0,0,0,0
1.0240,1783720209.9631,1,0,1.0000,0.0000,1.40701,0.14548,-2.66959,0.95333,1.57080,0.13026,-0.12694,-0.44709,0.06308,,,,,,,,,,,,,,,,,,,,,,,,,,0,0,0,0,0
1.0245,1783720209.9636,1,0,1.0000,0.0000,1.40701,0.14548,-2.66959,0.95333,1.57080,0.13026,-0.12694,-0.44709,0.06308,,,,,,,,,,,,,,,,,,,,,,,,,,0,0,0,0,0
1.0249,1783720209.9641,1,0,1.0000,0.0000,1.40701,0.14548,-2.66959,0.95333,1.57080,0.13026,-0.12694,-0.44709,0.06308,,,,,,,,,,,,,,,,,,,,,,,,,,0,0,0,0,0
1.0311,1783720209.9702,1,1,1.0000,0.0000,1.40701,0.14548,-2.66959,0.95333,1.57080,0.13026,-0.12694,-0.44709,0.06308,,,,,,,,,,,,,,,,,,,,,,,,,,0,0,0,0,0
1.0400,1783720209.9792,1,1,1.0000,0.0000,1.40701,0.14548,-2.66959,0.95333,1.57080,0.13026,-0.12694,-0.44709,0.06308,,,,,,,,,,,,,,,,,,,,,,,,,,0,0,0,0,0
1.0519,1783720209.9911,1,1,1.0000,0.0000,1.40701,0.14548,-2.66959,0.95333,1.57080,0.13026,-0.12694,-0.44709,0.06308,,,,,,,,,,,,,,,,,,,,,,,,,,0,0,0,0,0
1.0606,1783720209.9998,1,1,1.0000,0.0000,1.40701,0.14548,-2.66959,0.95333,1.57080,0.13026,-0.12694,-0.44709,0.06308,,,,,,,,,,,,,,,,,,,,,,,,,,0,0,0,0,0
1.0611,1783720210.0002,1,1,1.0000,0.0000,1.40701,0.14548,-2.66959,0.95333,1.57080,0.13026,-0.12694,-0.44709,0.06308,,,,,,,,,,,,,,,,,,,,,,,,,,0,0,0,0,0
1.0717,1783720210.0109,1,1,1.0000,0.0000,1.40701,0.14548,-2.66959,0.95333,1.57080,0.13026,-0.12694,-0.44709,0.06308,,,,,,,,,,,,,,,,,,,,,,,,,,0,0,0,0,0
1.0784,1783720210.0176,1,1,1.0000,0.0000,1.40701,0.14548,-2.66959,0.95333,1.57080,0.13026,-0.12694,-0.44709,0.06308,,,,,,,,,,,,,,,,,,,,,,,,,,0,0,0,0,0
1.0906,1783720210.0297,1,1,1.0000,0.0000,1.40701,0.14548,-2.66959,0.95333,1.57080,0.13026,-0.12694,-0.44709,0.06308,,,,,,,,,,,,,,,,,,,,,,,,,,0,0,0,0,0
1.0974,1783720210.0366,1,1,1.0000,0.0000,1.40701,0.14548,-2.66959,0.95333,1.57080,0.13026,-0.12694,-0.44709,0.06308,,,,,,,,,,,,,,,,,,,,,,,,,,0,0,0,0,0
1.1084,1783720210.0476,1,1,1.0000,0.0000,1.40701,0.14548,-2.66959,0.95333,1.57080,0.13026,-0.12694,-0.44709,0.06308,,,,,,,,,,,,,,,,,,,,,,,,,,0,0,0,0,0
1.1088,1783720210.0480,1,1,1.0000,0.0000,1.40701,0.14548,-2.66959,0.95333,1.57080,0.13026,-0.12694,-0.44709,0.06308,,,,,,,,,,,,,,,,,,,,,,,,,,0,0,0,0,0
1.1193,1783720210.0585,1,1,1.0000,0.0000,1.40701,0.14548,-2.66959,0.95333,1.57080,0.13026,-0.12694,-0.44709,0.06308,,,,,,,,,,,,,,,,,,,,,,,,,,0,0,0,0,0
1.1199,1783720210.0591,1,1,1.0000,0.0000,1.40701,0.14548,-2.66959,0.95333,1.57080,0.13026,-0.12694,-0.44709,0.06308,,,,,,,,,,,,,,,,,,,,,,,,,,0,0,0,0,0
1.1311,1783720210.0702,1,1,1.0000,0.0000,1.40701,0.14548,-2.66959,0.95333,1.57080,0.13026,-0.12694,-0.44709,0.06308,,,,,,,,,,,,,,,,,,,,,,,,,,0,0,0,0,0
1.1315,1783720210.0706,1,1,1.0000,0.0000,1.40701,0.14548,-2.66959,0.95333,1.57080,0.13026,-0.12694,-0.44709,0.06308,,,,,,,,,,,,,,,,,,,,,,,,,,0,0,0,0,0
1.1417,1783720210.0809,1,1,1.0000,0.0000,1.40701,0.14548,-2.66959,0.95333,1.57080,0.13026,-0.12694,-0.44709,0.06308,,,,,,,,,,,,,,,,,,,,,,,,,,0,0,0,0,0
1.1423,1783720210.0814,1,1,1.0000,0.0000,1.40701,0.14548,-2.66959,0.95333,1.57080,0.13026,-0.12694,-0.44709,0.06308,,,,,,,,,,,,,,,,,,,,,,,,,,0,0,0,0,0
1.1476,1783720210.0867,1,1,1.0000,0.0000,1.40701,0.14548,-2.66959,0.95333,1.57080,0.13026,-0.12694,-0.44709,0.06308,,,,,,,,,,,,,,,,,,,,,,,,,,0,0,0,0,0
1.1479,1783720210.0871,1,1,1.0000,0.0000,1.40701,0.14548,-2.66959,0.95333,1.57080,0.13026,-0.12694,-0.44709,0.06308,,,,,,,,,,,,,,,,,,,,,,,,,,0,0,0,0,0
1.1573,1783720210.0965,1,1,1.0000,0.0000,1.40701,0.14548,-2.66959,0.95333,1.57080,0.13026,-0.12694,-0.44709,0.06308,,,,,,,,,,,,,,,,,,,,,,,,,,0,0,0,0,0
1.1690,1783720210.1081,1,1,1.0000,0.0000,1.40701,0.14548,-2.66959,0.95333,1.57080,0.13026,-0.12694,-0.44709,0.06308,,,,,,,,,,,,,,,,,,,,,,,,,,0,0,0,0,0
1.1811,1783720210.1203,1,1,1.0000,0.0000,1.40701,0.14548,-2.66959,0.95333,1.57080,0.13026,-0.12694,-0.44709,0.06308,,,,,,,,,,,,,,,,,,,,,,,,,,0,0,0,0,0
1.1874,1783720210.1265,1,1,1.0000,0.0000,1.40701,0.14548,-2.66959,0.95333,1.57080,0.13026,-0.12694,-0.44709,0.06308,,,,,,,,,,,,,,,,,,,,,,,,,,0,0,0,0,0
1.1988,1783720210.1380,1,1,1.0000,0.0000,1.40701,0.14548,-2.66959,0.95333,1.57080,0.13026,-0.12694,-0.44709,0.06308,,,,,,,,,,,,,,,,,,,,,,,,,,0,0,0,0,0
1.1994,1783720210.1385,1,1,1.0000,0.0000,1.40701,0.14548,-2.66959,0.95333,1.57080,0.13026,-0.12694,-0.44709,0.06308,,,,,,,,,,,,,,,,,,,,,,,,,,0,0,0,0,0
1.2106,1783720210.1497,1,1,1.0000,0.0000,1.40701,0.14548,-2.66959,0.95333,1.57080,0.13026,-0.12694,-0.44709,0.06308,,,,,,,,,,,,,,,,,,,,,,,,,,0,0,0,0,0
1.2199,1783720210.1591,1,1,1.0000,0.0000,1.40701,0.14548,-2.66959,0.95333,1.57080,0.13026,-0.12694,-0.44709,0.06308,,,,,,,,,,,,,,,,,,,,,,,,,,0,0,0,0,0
1.2282,1783720210.1673,1,1,1.0000,0.0000,1.40701,0.14548,-2.66959,0.95333,1.57080,0.13026,-0.12694,-0.44709,0.06308,,,,,,,,,,,,,,,,,,,,,,,,,,0,0,0,0,0
1.2434,1783720210.1826,1,1,1.0000,0.0000,1.40701,0.14548,-2.66959,0.95333,1.57080,0.13026,-0.12694,-0.44709,0.06308,,,,,,,,,,,,,,,,,,,,,,,,,,0,0,0,0,0
1.2515,1783720210.1906,1,1,1.0000,0.0000,1.40701,0.14548,-2.66959,0.95333,1.57080,0.13026,-0.12694,-0.44709,0.06308,,,,,,,,,,,,,,,,,,,,,,,,,,0,0,0,0,0
1.2585,1783720210.1976,1,1,1.0000,0.0000,1.40701,0.14548,-2.66959,0.95333,1.57080,0.13026,-0.12694,-0.44709,0.06308,,,,,,,,,,,,,,,,,,,,,,,,,,0,0,0,0,0
1.2689,1783720210.2081,1,1,1.0000,0.0000,1.40701,0.14548,-2.66959,0.95333,1.57080,0.13026,-0.12694,-0.44709,0.06308,,,,,,,,,,,,,,,,,,,,,,,,,,0,0,0,0,0
1.2788,1783720210.2180,1,1,1.0000,0.0000,1.40701,0.14548,-2.66959,0.95333,1.57080,0.13026,-0.12694,-0.44709,0.06308,,,,,,,,,,,,,,,,,,,,,,,,,,0,0,0,0,0
1.3632,1783720210.3024,1,1,1.0000,0.0000,1.40701,0.14548,-2.66959,0.95333,1.57080,0.13026,-0.12694,-0.44709,0.06308,,,,,,,,,,,,,,,,,,,,,,,,,,0,0,0,0,0
1.3637,1783720210.3028,1,1,1.0000,0.0000,1.40701,0.14548,-2.66959,0.95333,1.57080,0.13026,-0.12694,-0.44709,0.06308,,,,,,,,,,,,,,,,,,,,,,,,,,0,0,0,0,0
1.3642,1783720210.3033,1,1,1.0000,0.0000,1.40701,0.14548,-2.66959,0.95333,1.57080,0.13026,-0.12694,-0.44709,0.06308,,,,,,,,,,,,,,,,,,,,,,,,,,0,0,0,0,0
1.3645,1783720210.3036,1,1,1.0000,0.0000,1.40701,0.14548,-2.66959,0.95333,1.57080,0.13026,-0.12694,-0.44709,0.06308,,,,,,,,,,,,,,,,,,,,,,,,,,0,0,0,0,0
1.3697,1783720210.3089,1,1,1.0000,0.0000,1.40701,0.14548,-2.66959,0.95333,1.57080,0.13026,-0.12694,-0.44709,0.06308,,,,,,,,,,,,,,,,,,,,,,,,,,0,0,0,0,0
1.3786,1783720210.3177,1,1,1.0000,0.0000,1.40701,0.14548,-2.66959,0.95333,1.57080,0.13026,-0.12694,-0.44709,0.06308,,,,,,,,,,,,,,,,,,,,,,,,,,0,0,0,0,0
1.3874,1783720210.3266,1,1,1.0000,0.0000,1.40701,0.14548,-2.66959,0.95333,1.57080,0.13026,-0.12694,-0.44709,0.06308,,,,,,,,,,,,,,,,,,,,,,,,,,0,0,0,0,0
1.4044,1783720210.3436,1,1,1.0000,0.0000,1.40701,0.14548,-2.66958,0.95333,1.57080,0.13027,-0.12694,-0.44709,0.06308,,,,,,,,,,,,,,,,,,,,,,,,,,0,0,0,0,0
1.4084,1783720210.3476,1,1,1.0000,0.0000,1.40701,0.14548,-2.66958,0.95332,1.57081,0.13028,-0.12694,-0.44709,0.06308,,,,,,,,,,,,,,,,,,,,,,,,,,0,0,0,0,0
1.4192,1783720210.3584,1,1,1.0000,0.0000,1.40702,0.14548,-2.66958,0.95332,1.57081,0.13028,-0.12694,-0.44709,0.06308,,,,,,,,,,,,,,,,,,,,,,,,,,0,0,0,0,0
1.4286,1783720210.3677,1,1,1.0000,0.0000,1.40702,0.14548,-2.66957,0.95331,1.57081,0.13029,-0.12694,-0.44709,0.06308,,,,,,,,,,,,,,,,,,,,,,,,,,0,0,0,0,0
1.4406,1783720210.3797,1,1,1.0000,0.0000,1.40704,0.14547,-2.66956,0.95331,1.57081,0.13029,-0.12695,-0.44710,0.06309,,,,,,,,,,,,,,,,,,,,,,,,,,0,0,0,0,0
1.4685,1783720210.4076,1,1,1.0000,0.0000,1.40711,0.14546,-2.66951,0.95330,1.57081,0.13027,-0.12698,-0.44712,0.06311,,,,,,,,,,,,,,,,,,,,,,,,,,0,0,0,0,0
1.4715,1783720210.4107,1,1,1.0000,0.0000,1.40714,0.14545,-2.66950,0.95330,1.57081,0.13024,-0.12699,-0.44713,0.06311,,,,,,,,,,,,,,,,,,,,,,,,,,0,0,0,0,0
1.4838,1783720210.4230,1,1,1.0000,0.0000,1.40720,0.14543,-2.66948,0.95330,1.57081,0.13019,-0.12701,-0.44713,0.06311,,,,,,,,,,,,,,,,,,,,,,,,,,0,0,0,0,0
1.4891,1783720210.4282,1,1,1.0000,0.0000,1.40724,0.14542,-2.66947,0.95330,1.57081,0.13015,-0.12703,-0.44713,0.06311,,,,,,,,,,,,,,,,,,,,,,,,,,0,0,0,0,0
1.4992,1783720210.4384,1,1,1.0000,0.0000,1.40753,0.14534,-2.66940,0.95331,1.57081,0.12989,-0.12713,-0.44713,0.06311,,,,,,,,,,,,,,,,,,,,,,,,,,0,0,0,0,0
1.5206,1783720210.4597,1,1,1.0000,0.0000,1.40812,0.14519,-2.66927,0.95332,1.57081,0.12935,-0.12736,-0.44713,0.06312,,,,,,,,,,,,,,,,,,,,,,,,,,0,0,0,0,0
1.5262,1783720210.4654,1,1,1.0000,0.0000,1.40822,0.14517,-2.66926,0.95333,1.57081,0.12926,-0.12739,-0.44713,0.06312,,,,,,,,,,,,,,,,,,,,,,,,,,0,0,0,0,0
1.5282,1783720210.4674,1,1,1.0000,0.0000,1.40822,0.14517,-2.66926,0.95333,1.57081,0.12926,-0.12739,-0.44713,0.06312,,,,,,,,,,,,,,,,,,,,,,,,,,0,0,0,0,0
1.5400,1783720210.4792,1,1,1.0000,0.0000,1.40867,0.14504,-2.66917,0.95335,1.57081,0.12881,-0.12756,-0.44713,0.06311,,,,,,,,,,,,,,,,,,,,,,,,,,0,0,0,0,0
1.5508,1783720210.4899,1,1,1.0000,0.0000,1.40887,0.14499,-2.66913,0.95336,1.57081,0.12862,-0.12763,-0.44712,0.06311,,,,,,,,,,,,,,,,,,,,,,,,,,0,0,0,0,0
1.5576,1783720210.4968,1,1,1.0000,0.0000,1.40909,0.14493,-2.66909,0.95337,1.57081,0.12839,-0.12772,-0.44712,0.06311,,,,,,,,,,,,,,,,,,,,,,,,,,0,0,0,0,0
1.5695,1783720210.5086,1,1,1.0000,0.0000,1.41015,0.14465,-2.66889,0.95343,1.57081,0.12734,-0.12811,-0.44711,0.06310,,,,,,,,,,,,,,,,,,,,,,,,,,0,0,0,0,0
1.5777,1783720210.5168,1,1,1.0000,0.0000,1.41060,0.14453,-2.66880,0.95345,1.57081,0.12690,-0.12828,-0.44710,0.06310,,,,,,,,,,,,,,,,,,,,,,,,,,0,0,0,0,0
1.5923,1783720210.5315,1,1,1.0000,0.0000,1.41138,0.14432,-2.66866,0.95350,1.57081,0.12612,-0.12857,-0.44709,0.06310,,,,,,,,,,,,,,,,,,,,,,,,,,0,0,0,0,0
1.5992,1783720210.5383,1,1,1.0000,0.0000,1.41177,0.14421,-2.66858,0.95352,1.57081,0.12573,-0.12872,-0.44709,0.06309,,,,,,,,,,,,,,,,,,,,,,,,,,0,0,0,0,0
1.6146,1783720210.5537,1,1,1.0000,0.0000,1.41235,0.14406,-2.66847,0.95356,1.57081,0.12515,-0.12893,-0.44708,0.06309,,,,,,,,,,,,,,,,,,,,,,,,,,0,0,0,0,0
1.6190,1783720210.5581,1,1,1.0000,0.0000,1.41322,0.14382,-2.66830,0.95361,1.57081,0.12427,-0.12926,-0.44707,0.06309,,,,,,,,,,,,,,,,,,,,,,,,,,0,0,0,0,0
1.6193,1783720210.5585,1,1,1.0000,0.0000,1.41322,0.14382,-2.66830,0.95361,1.57081,0.12427,-0.12926,-0.44707,0.06309,,,,,,,,,,,,,,,,,,,,,,,,,,0,0,0,0,0
1.6313,1783720210.5704,1,1,1.0000,0.0000,1.41493,0.14336,-2.66797,0.95372,1.57081,0.12256,-0.12990,-0.44705,0.06308,,,,,,,,,,,,,,,,,,,,,,,,,,0,0,0,0,0
1.6387,1783720210.5778,1,1,1.0000,0.0000,1.41498,0.14335,-2.66796,0.95372,1.57081,0.12251,-0.12992,-0.44705,0.06308,,,,,,,,,,,,,,,,,,,,,,,,,,0,0,0,0,0
1.6586,1783720210.5977,1,1,1.0000,0.0000,1.41596,0.14308,-2.66777,0.95378,1.57081,0.12153,-0.13028,-0.44705,0.06307,,,,,,,,,,,,,,,,,,,,,,,,,,0,0,0,0,0
1.6611,1783720210.6003,1,1,1.0000,0.0000,1.41596,0.14308,-2.66777,0.95378,1.57081,0.12153,-0.13028,-0.44705,0.06307,,,,,,,,,,,,,,,,,,,,,,,,,,0,0,0,0,0
1.6717,1783720210.6108,1,1,1.0000,0.0000,1.41637,0.14297,-2.66769,0.95381,1.57081,0.12112,-0.13043,-0.44704,0.06307,,,,,,,,,,,,,,,,,,,,,,,,,,0,0,0,0,0
1.6769,1783720210.6160,1,1,1.0000,0.0000,1.41665,0.14290,-2.66764,0.95383,1.57081,0.12084,-0.13054,-0.44704,0.06307,,,,,,,,,,,,,,,,,,,,,,,,,,0,0,0,0,0
1.6773,1783720210.6165,1,1,1.0000,0.0000,1.41665,0.14290,-2.66764,0.95383,1.57081,0.12084,-0.13054,-0.44704,0.06307,,,,,,,,,,,,,,,,,,,,,,,,,,0,0,0,0,0
1.6875,1783720210.6266,1,1,1.0000,0.0000,1.41774,0.14260,-2.66742,0.95391,1.57081,0.11974,-0.13094,-0.44703,0.06307,,,,,,,,,,,,,,,,,,,,,,,,,,0,0,0,0,0
1.6992,1783720210.6384,1,1,1.0000,0.0000,1.41787,0.14257,-2.66740,0.95392,1.57081,0.11961,-0.13099,-0.44703,0.06307,,,,,,,,,,,,,,,,,,,,,,,,,,0,0,0,0,0
1.6997,1783720210.6388,1,1,1.0000,0.0000,1.41787,0.14257,-2.66740,0.95392,1.57081,0.11961,-0.13099,-0.44703,0.06307,,,,,,,,,,,,,,,,,,,,,,,,,,0,0,0,0,0
1.7130,1783720210.6522,1,1,1.0000,0.0000,1.41843,0.14241,-2.66729,0.95396,1.57081,0.11906,-0.13120,-0.44703,0.06307,,,,,,,,,,,,,,,,,,,,,,,,,,0,0,0,0,0
1.7251,1783720210.6643,1,1,1.0000,0.0000,1.41893,0.14228,-2.66719,0.95399,1.57081,0.11854,-0.13139,-0.44703,0.06307,,,,,,,,,,,,,,,,,,,,,,,,,,0,0,0,0,0
1.7277,1783720210.6668,1,1,1.0000,0.0000,1.41895,0.14227,-2.66718,0.95400,1.57081,0.11852,-0.13139,-0.44703,0.06307,,,,,,,,,,,,,,,,,,,,,,,,,,0,0,0,0,0
1.7386,1783720210.6777,1,1,1.0000,0.0000,1.41921,0.14220,-2.66714,0.95402,1.57081,0.11826,-0.13149,-0.44702,0.06307,,,,,,,,,,,,,,,,,,,,,,,,,,0,0,0,0,0
1.7553,1783720210.6944,1,1,1.0000,0.0000,1.41981,0.14204,-2.66704,0.95407,1.57081,0.11765,-0.13172,-0.44700,0.06305,,,,,,,,,,,,,,,,,,,,,,,,,,0,0,0,0,0
1.7560,1783720210.6951,1,1,1.0000,0.0000,1.41981,0.14204,-2.66704,0.95407,1.57081,0.11765,-0.13172,-0.44700,0.06305,,,,,,,,,,,,,,,,,,,,,,,,,,0,0,0,0,0
1.7580,1783720210.6972,1,1,1.0000,0.0000,1.41981,0.14204,-2.66704,0.95407,1.57081,0.11765,-0.13172,-0.44700,0.06305,,,,,,,,,,,,,,,,,,,,,,,,,,0,0,0,0,0
1.7706,1783720210.7097,1,1,1.0000,0.0000,1.42037,0.14189,-2.66698,0.95412,1.57081,0.11708,-0.13193,-0.44697,0.06303,,,,,,,,,,,,,,,,,,,,,,,,,,0,0,0,0,0
1.7830,1783720210.7222,1,1,1.0000,0.0000,1.42054,0.14184,-2.66699,0.95413,1.57081,0.11690,-0.13199,-0.44694,0.06301,,,,,,,,,,,,,,,,,,,,,,,,,,0,0,0,0,0
1.7877,1783720210.7269,1,1,1.0000,0.0000,1.42054,0.14184,-2.66699,0.95413,1.57081,0.11690,-0.13199,-0.44694,0.06301,,,,,,,,,,,,,,,,,,,,,,,,,,0,0,0,0,0
1.7881,1783720210.7273,1,1,1.0000,0.0000,1.42054,0.14184,-2.66699,0.95413,1.57081,0.11690,-0.13199,-0.44694,0.06301,,,,,,,,,,,,,,,,,,,,,,,,,,0,0,0,0,0
1.8030,1783720210.7421,1,1,1.0000,0.0000,1.42054,0.14184,-2.66699,0.95413,1.57081,0.11690,-0.13199,-0.44694,0.06301,,,,,,,,,,,,,,,,,,,,,,,,,,0,0,0,0,0
1.8034,1783720210.7426,1,1,1.0000,0.0000,1.42054,0.14184,-2.66699,0.95413,1.57081,0.11690,-0.13199,-0.44694,0.06301,,,,,,,,,,,,,,,,,,,,,,,,,,0,0,0,0,0
1.8148,1783720210.7540,1,1,1.0000,0.0000,1.42054,0.14184,-2.66699,0.95413,1.57081,0.11690,-0.13199,-0.44694,0.06301,,,,,,,,,,,,,,,,,,,,,,,,,,0,0,0,0,0
1.8199,1783720210.7590,1,1,1.0000,0.0000,1.42054,0.14184,-2.66699,0.95413,1.57081,0.11690,-0.13199,-0.44694,0.06301,,,,,,,,,,,,,,,,,,,,,,,,,,0,0,0,0,0
1.8316,1783720210.7708,1,1,1.0000,0.0000,1.42054,0.14184,-2.66699,0.95413,1.57081,0.11690,-0.13199,-0.44694,0.06301,,,,,,,,,,,,,,,,,,,,,,,,,,0,0,0,0,0
1.8388,1783720210.7780,1,1,1.0000,0.0000,1.42054,0.14184,-2.66699,0.95413,1.57081,0.11690,-0.13199,-0.44694,0.06301,,,,,,,,,,,,,,,,,,,,,,,,,,0,0,0,0,0
1.8516,1783720210.7907,1,1,1.0000,0.0000,1.42054,0.14184,-2.66699,0.95413,1.57081,0.11690,-0.13199,-0.44694,0.06301,,,,,,,,,,,,,,,,,,,,,,,,,,0,0,0,0,0
1.8587,1783720210.7978,1,1,1.0000,0.0000,1.42054,0.14184,-2.66699,0.95413,1.57081,0.11690,-0.13199,-0.44694,0.06301,,,,,,,,,,,,,,,,,,,,,,,,,,0,0,0,0,0
1.8678,1783720210.8069,1,1,1.0000,0.0000,1.42054,0.14184,-2.66699,0.95413,1.57081,0.11690,-0.13199,-0.44694,0.06301,,,,,,,,,,,,,,,,,,,,,,,,,,0,0,0,0,0
1.8790,1783720210.8182,1,1,1.0000,0.0000,1.42054,0.14184,-2.66699,0.95413,1.57081,0.11690,-0.13199,-0.44694,0.06301,,,,,,,,,,,,,,,,,,,,,,,,,,0,0,0,0,0
1.8995,1783720210.8387,1,1,1.0000,0.0000,1.42054,0.14184,-2.66699,0.95413,1.57081,0.11690,-0.13199,-0.44694,0.06301,,,,,,,,,,,,,,,,,,,,,,,,,,0,0,0,0,0
1.9040,1783720210.8431,1,1,1.0000,0.0000,1.42054,0.14184,-2.66699,0.95413,1.57081,0.11690,-0.13199,-0.44694,0.06301,,,,,,,,,,,,,,,,,,,,,,,,,,0,0,0,0,0
1.9108,1783720210.8500,1,1,1.0000,0.0000,1.42054,0.14184,-2.66699,0.95413,1.57081,0.11690,-0.13199,-0.44694,0.06301,,,,,,,,,,,,,,,,,,,,,,,,,,0,0,0,0,0
1.9184,1783720210.8576,1,1,1.0000,0.0000,1.42054,0.14184,-2.66699,0.95413,1.57081,0.11690,-0.13199,-0.44694,0.06301,,,,,,,,,,,,,,,,,,,,,,,,,,0,0,0,0,0
1.9299,1783720210.8690,1,1,1.0000,0.0000,1.42054,0.14184,-2.66699,0.95413,1.57081,0.11690,-0.13199,-0.44694,0.06301,,,,,,,,,,,,,,,,,,,,,,,,,,0,0,0,0,0
1.9440,1783720210.8832,1,1,1.0000,0.0000,1.42054,0.14184,-2.66699,0.95413,1.57081,0.11690,-0.13199,-0.44694,0.06301,,,,,,,,,,,,,,,,,,,,,,,,,,0,0,0,0,0
1.9497,1783720210.8888,1,1,1.0000,0.0000,1.42054,0.14184,-2.66699,0.95413,1.57081,0.11690,-0.13199,-0.44694,0.06301,,,,,,,,,,,,,,,,,,,,,,,,,,0,0,0,0,0
1.9500,1783720210.8892,1,1,1.0000,0.0000,1.42054,0.14184,-2.66699,0.95413,1.57081,0.11690,-0.13199,-0.44694,0.06301,,,,,,,,,,,,,,,,,,,,,,,,,,0,0,0,0,0
1.9595,1783720210.8987,1,1,1.0000,0.0000,1.42054,0.14184,-2.66699,0.95413,1.57081,0.11690,-0.13199,-0.44694,0.06301,,,,,,,,,,,,,,,,,,,,,,,,,,0,0,0,0,0
1.9678,1783720210.9069,1,1,1.0000,0.0000,1.42054,0.14184,-2.66699,0.95413,1.57081,0.11690,-0.13199,-0.44694,0.06301,,,,,,,,,,,,,,,,,,,,,,,,,,0,0,0,0,0
1.9801,1783720210.9192,1,1,1.0000,0.0000,1.42054,0.14184,-2.66699,0.95413,1.57081,0.11690,-0.13199,-0.44694,0.06301,,,,,,,,,,,,,,,,,,,,,,,,,,0,0,0,0,0
1.9918,1783720210.9309,1,1,1.0000,0.0000,1.42054,0.14184,-2.66699,0.95413,1.57081,0.11690,-0.13199,-0.44694,0.06301,,,,,,,,,,,,,,,,,,,,,,,,,,0,0,0,0,0
2.0022,1783720210.9414,1,1,1.0000,0.0000,1.42054,0.14184,-2.66699,0.95413,1.57081,0.11690,-0.13199,-0.44694,0.06301,,,,,,,,,,,,,,,,,,,,,,,,,,0,0,0,0,0
2.0081,1783720210.9473,1,1,1.0000,0.0000,1.42054,0.14184,-2.66699,0.95413,1.57081,0.11690,-0.13199,-0.44694,0.06301,,,,,,,,,,,,,,,,,,,,,,,,,,0,0,0,0,0
2.0173,1783720210.9565,1,1,1.0000,0.0000,1.42054,0.14184,-2.66699,0.95413,1.57081,0.11690,-0.13199,-0.44694,0.06301,,,,,,,,,,,,,,,,,,,,,,,,,,0,0,0,0,0
2.0312,1783720210.9704,1,1,1.0000,0.0000,1.42054,0.14184,-2.66699,0.95413,1.57081,0.11690,-0.13199,-0.44694,0.06301,,,,,,,,,,,,,,,,,,,,,,,,,,0,0,0,0,0
2.0460,1783720210.9852,1,1,1.0000,0.0000,1.42054,0.14184,-2.66699,0.95413,1.57081,0.11690,-0.13199,-0.44694,0.06301,,,,,,,,,,,,,,,,,,,,,,,,,,0,0,0,0,0
2.0553,1783720210.9944,1,1,1.0000,0.0000,1.42054,0.14184,-2.66699,0.95413,1.57081,0.11690,-0.13199,-0.44694,0.06301,,,,,,,,,,,,,,,,,,,,,,,,,,0,0,0,0,0
2.0557,1783720210.9949,1,1,1.0000,0.0000,1.42054,0.14184,-2.66699,0.95413,1.57081,0.11690,-0.13199,-0.44694,0.06301,,,,,,,,,,,,,,,,,,,,,,,,,,0,0,0,0,0
2.0629,1783720211.0021,1,1,1.0000,0.0000,1.42054,0.14184,-2.66699,0.95413,1.57081,0.11690,-0.13199,-0.44694,0.06301,,,,,,,,,,,,,,,,,,,,,,,,,,0,0,0,0,0
2.0710,1783720211.0102,1,1,1.0000,0.0000,1.42054,0.14184,-2.66699,0.95413,1.57081,0.11690,-0.13199,-0.44694,0.06301,,,,,,,,,,,,,,,,,,,,,,,,,,0,0,0,0,0
2.0714,1783720211.0106,1,1,1.0000,0.0000,1.42054,0.14184,-2.66699,0.95413,1.57081,0.11690,-0.13199,-0.44694,0.06301,,,,,,,,,,,,,,,,,,,,,,,,,,0,0,0,0,0
2.0800,1783720211.0191,1,1,1.0000,0.0000,1.42054,0.14184,-2.66699,0.95413,1.57081,0.11690,-0.13199,-0.44694,0.06301,,,,,,,,,,,,,,,,,,,,,,,,,,0,0,0,0,0
2.0891,1783720211.0283,1,1,1.0000,0.0000,1.42054,0.14184,-2.66699,0.95413,1.57081,0.11690,-0.13199,-0.44694,0.06301,,,,,,,,,,,,,,,,,,,,,,,,,,0,0,0,0,0
2.1014,1783720211.0405,1,1,1.0000,0.0000,1.42054,0.14184,-2.66699,0.95413,1.57081,0.11690,-0.13199,-0.44694,0.06301,,,,,,,,,,,,,,,,,,,,,,,,,,0,0,0,0,0
2.1084,1783720211.0476,1,1,1.0000,0.0000,1.42054,0.14184,-2.66699,0.95413,1.57081,0.11690,-0.13199,-0.44694,0.06301,,,,,,,,,,,,,,,,,,,,,,,,,,0,0,0,0,0
2.1201,1783720211.0593,1,1,1.0000,0.0000,1.42054,0.14184,-2.66699,0.95413,1.57081,0.11690,-0.13199,-0.44694,0.06301,,,,,,,,,,,,,,,,,,,,,,,,,,0,0,0,0,0
2.1429,1783720211.0821,1,1,1.0000,0.0000,1.42054,0.14184,-2.66699,0.95413,1.57081,0.11690,-0.13199,-0.44694,0.06301,,,,,,,,,,,,,,,,,,,,,,,,,,0,0,0,0,0
2.1431,1783720211.0823,1,1,1.0000,0.0000,1.42054,0.14184,-2.66699,0.95413,1.57081,0.11690,-0.13199,-0.44694,0.06301,,,,,,,,,,,,,,,,,,,,,,,,,,0,0,0,0,0
2.1509,1783720211.0900,1,1,1.0000,0.0000,1.42054,0.14184,-2.66699,0.95413,1.57081,0.11690,-0.13199,-0.44694,0.06301,,,,,,,,,,,,,,,,,,,,,,,,,,0,0,0,0,0
2.1591,1783720211.0983,1,1,1.0000,0.0000,1.42054,0.14184,-2.66699,0.95413,1.57081,0.11690,-0.13199,-0.44694,0.06301,,,,,,,,,,,,,,,,,,,,,,,,,,0,0,0,0,0
2.1718,1783720211.1110,1,1,1.0000,0.0000,1.42054,0.14184,-2.66699,0.95413,1.57081,0.11690,-0.13199,-0.44694,0.06301,,,,,,,,,,,,,,,,,,,,,,,,,,0,0,0,0,0
2.1722,1783720211.1113,1,1,1.0000,0.0000,1.42054,0.14184,-2.66699,0.95413,1.57081,0.11690,-0.13199,-0.44694,0.06301,,,,,,,,,,,,,,,,,,,,,,,,,,0,0,0,0,0
2.1782,1783720211.1173,1,1,1.0000,0.0000,1.42054,0.14184,-2.66699,0.95413,1.57081,0.11690,-0.13199,-0.44694,0.06301,,,,,,,,,,,,,,,,,,,,,,,,,,0,0,0,0,0
2.1789,1783720211.1180,1,1,1.0000,0.0000,1.42054,0.14184,-2.66699,0.95413,1.57081,0.11690,-0.13199,-0.44694,0.06301,,,,,,,,,,,,,,,,,,,,,,,,,,0,0,0,0,0
2.1894,1783720211.1285,1,1,1.0000,0.0000,1.42054,0.14184,-2.66698,0.95413,1.57081,0.11690,-0.13199,-0.44694,0.06301,,,,,,,,,,,,,,,,,,,,,,,,,,0,0,0,0,0
2.1991,1783720211.1382,1,1,1.0000,0.0000,1.42053,0.14185,-2.66698,0.95414,1.57081,0.11690,-0.13199,-0.44695,0.06302,,,,,,,,,,,,,,,,,,,,,,,,,,0,0,0,0,0
2.2219,1783720211.1611,1,1,1.0000,0.0000,1.42053,0.14187,-2.66700,0.95414,1.57081,0.11688,-0.13199,-0.44694,0.06302,,,,,,,,,,,,,,,,,,,,,,,,,,0,0,0,0,0
2.2242,1783720211.1634,1,1,1.0000,0.0000,1.42052,0.14188,-2.66701,0.95415,1.57081,0.11688,-0.13199,-0.44693,0.06302,,,,,,,,,,,,,,,,,,,,,,,,,,0,0,0,0,0
2.2247,1783720211.1639,1,1,1.0000,0.0000,1.42052,0.14188,-2.66701,0.95415,1.57081,0.11688,-0.13199,-0.44693,0.06302,,,,,,,,,,,,,,,,,,,,,,,,,,0,0,0,0,0
2.2282,1783720211.1674,1,1,1.0000,0.0000,1.42052,0.14190,-2.66702,0.95415,1.57081,0.11688,-0.13199,-0.44693,0.06302,,,,,,,,,,,,,,,,,,,,,,,,,,0,0,0,0,0
2.2287,1783720211.1679,1,1,1.0000,0.0000,1.42052,0.14190,-2.66702,0.95415,1.57081,0.11688,-0.13199,-0.44693,0.06302,,,,,,,,,,,,,,,,,,,,,,,,,,0,0,0,0,0
2.2380,1783720211.1772,1,1,1.0000,0.0000,1.42051,0.14193,-2.66705,0.95415,1.57081,0.11687,-0.13198,-0.44692,0.06302,,,,,,,,,,,,,,,,,,,,,,,,,,0,0,0,0,0
2.2512,1783720211.1904,1,1,1.0000,0.0000,1.42050,0.14198,-2.66708,0.95414,1.57081,0.11687,-0.13198,-0.44689,0.06302,,,,,,,,,,,,,,,,,,,,,,,,,,0,0,0,0,0
2.2608,1783720211.2000,1,1,1.0000,0.0000,1.42048,0.14206,-2.66714,0.95413,1.57081,0.11687,-0.13198,-0.44686,0.06303,,,,,,,,,,,,,,,,,,,,,,,,,,0,0,0,0,0
2.2670,1783720211.2062,1,1,1.0000,0.0000,1.42048,0.14208,-2.66715,0.95413,1.57081,0.11687,-0.13198,-0.44685,0.06303,,,,,,,,,,,,,,,,,,,,,,,,,,0,0,0,0,0
2.2674,1783720211.2066,1,1,1.0000,0.0000,1.42048,0.14208,-2.66715,0.95413,1.57081,0.11687,-0.13198,-0.44685,0.06303,,,,,,,,,,,,,,,,,,,,,,,,,,0,0,0,0,0
2.2780,1783720211.2172,1,1,1.0000,0.0000,1.42046,0.14220,-2.66724,0.95411,1.57081,0.11688,-0.13198,-0.44681,0.06303,,,,,,,,,,,,,,,,,,,,,,,,,,0,0,0,0,0
2.2933,1783720211.2324,1,1,1.0000,0.0000,1.42036,0.14269,-2.66759,0.95401,1.57081,0.11693,-0.13197,-0.44660,0.06304,,,,,,,,,,,,,,,,,,,,,,,,,,0,0,0,0,0
2.2936,1783720211.2328,1,1,1.0000,0.0000,1.42036,0.14269,-2.66759,0.95401,1.57081,0.11693,-0.13197,-0.44660,0.06304,,,,,,,,,,,,,,,,,,,,,,,,,,0,0,0,0,0
2.2999,1783720211.2391,1,1,1.0000,0.0000,1.42036,0.14272,-2.66760,0.95400,1.57081,0.11694,-0.13197,-0.44659,0.06304,,,,,,,,,,,,,,,,,,,,,,,,,,0,0,0,0,0
2.3087,1783720211.2478,1,1,1.0000,0.0000,1.42032,0.14290,-2.66774,0.95396,1.57081,0.11696,-0.13197,-0.44651,0.06305,,,,,,,,,,,,,,,,,,,,,,,,,,0,0,0,0,0
2.3090,1783720211.2481,1,1,1.0000,0.0000,1.42032,0.14290,-2.66774,0.95396,1.57081,0.11696,-0.13197,-0.44651,0.06305,,,,,,,,,,,,,,,,,,,,,,,,,,0,0,0,0,0
2.3198,1783720211.2589,1,1,1.0000,0.0000,1.42025,0.14324,-2.66798,0.95388,1.57081,0.11702,-0.13197,-0.44637,0.06305,,,,,,,,,,,,,,,,,,,,,,,,,,0,0,0,0,0
2.3360,1783720211.2752,1,1,1.0000,0.0000,1.42014,0.14381,-2.66839,0.95374,1.57081,0.11711,-0.13196,-0.44612,0.06306,,,,,,,,,,,,,,,,,,,,,,,,,,0,0,0,0,0
2.3363,1783720211.2755,1,1,1.0000,0.0000,1.42014,0.14381,-2.66839,0.95374,1.57081,0.11711,-0.13196,-0.44612,0.06306,,,,,,,,,,,,,,,,,,,,,,,,,,0,0,0,0,0
2.3398,1783720211.2790,1,1,1.0000,0.0000,1.42009,0.14409,-2.66860,0.95367,1.57081,0.11716,-0.13196,-0.44600,0.06306,,,,,,,,,,,,,,,,,,,,,,,,,,0,0,0,0,0
2.3401,1783720211.2793,1,1,1.0000,0.0000,1.42009,0.14409,-2.66860,0.95367,1.57081,0.11716,-0.13196,-0.44600,0.06306,,,,,,,,,,,,,,,,,,,,,,,,,,0,0,0,0,0
2.3513,1783720211.2905,1,1,1.0000,0.0000,1.41989,0.14512,-2.66934,0.95342,1.57081,0.11734,-0.13196,-0.44556,0.06307,,,,,,,,,,,,,,,,,,,,,,,,,,0,0,0,0,0
2.3575,1783720211.2966,1,1,1.0000,0.0000,1.41989,0.14512,-2.66934,0.95342,1.57081,0.11734,-0.13196,-0.44556,0.06307,,,,,,,,,,,,,,,,,,,,,,,,,,0,0,0,0,0
2.3578,1783720211.2969,1,1,1.0000,0.0000,1.41989,0.14512,-2.66934,0.95342,1.57081,0.11734,-0.13196,-0.44556,0.06307,,,,,,,,,,,,,,,,,,,,,,,,,,0,0,0,0,0
2.3722,1783720211.3114,1,1,1.0000,0.0000,1.41979,0.14568,-2.66974,0.95327,1.57081,0.11744,-0.13195,-0.44531,0.06307,,,,,,,,,,,,,,,,,,,,,,,,,,0,0,0,0,0
2.3789,1783720211.3181,1,1,1.0000,0.0000,1.41973,0.14596,-2.66995,0.95320,1.57081,0.11749,-0.13195,-0.44519,0.06308,,,,,,,,,,,,,,,,,,,,,,,,,,0,0,0,0,0
2.3793,1783720211.3184,1,1,1.0000,0.0000,1.41973,0.14596,-2.66995,0.95320,1.57081,0.11749,-0.13195,-0.44519,0.06308,,,,,,,,,,,,,,,,,,,,,,,,,,0,0,0,0,0
2.3891,1783720211.3282,1,1,1.0000,0.0000,1.41969,0.14618,-2.67010,0.95314,1.57081,0.11753,-0.13195,-0.44509,0.06308,,,,,,,,,,,,,,,,,,,,,,,,,,0,0,0,0,0
2.4030,1783720211.3421,1,1,1.0000,0.0000,1.41943,0.14755,-2.67109,0.95278,1.57081,0.11779,-0.13194,-0.44449,0.06308,,,,,,,,,,,,,,,,,,,,,,,,,,0,0,0,0,0
2.4097,1783720211.3489,1,1,1.0000,0.0000,1.41934,0.14801,-2.67143,0.95265,1.57081,0.11788,-0.13194,-0.44429,0.06308,,,,,,,,,,,,,,,,,,,,,,,,,,0,0,0,0,0
2.4211,1783720211.3602,1,1,1.0000,0.0000,1.41931,0.14818,-2.67156,0.95261,1.57081,0.11791,-0.13194,-0.44421,0.06308,,,,,,,,,,,,,,,,,,,,,,,,,,0,0,0,0,0
2.4291,1783720211.3683,1,1,1.0000,0.0000,1.41922,0.14866,-2.67190,0.95248,1.57081,0.11800,-0.13194,-0.44400,0.06308,,,,,,,,,,,,,,,,,,,,,,,,,,0,0,0,0,0
2.4420,1783720211.3812,1,1,1.0000,0.0000,1.41901,0.14971,-2.67267,0.95219,1.57081,0.11820,-0.13194,-0.44353,0.06308,,,,,,,,,,,,,,,,,,,,,,,,,,0,0,0,0,0
2.4620,1783720211.4012,1,1,1.0000,0.0000,1.41891,0.15022,-2.67304,0.95205,1.57082,0.11830,-0.13193,-0.44331,0.06308,,,,,,,,,,,,,,,,,,,,,,,,,,0,0,0,0,0
2.4640,1783720211.4032,1,1,1.0000,0.0000,1.41887,0.15047,-2.67321,0.95198,1.57082,0.11835,-0.13193,-0.44320,0.06308,,,,,,,,,,,,,,,,,,,,,,,,,,0,0,0,0,0
2.4644,1783720211.4036,1,1,1.0000,0.0000,1.41887,0.15047,-2.67321,0.95198,1.57082,0.11835,-0.13193,-0.44320,0.06308,,,,,,,,,,,,,,,,,,,,,,,,,,0,0,0,0,0
2.4735,1783720211.4127,1,1,1.0000,0.0000,1.41881,0.15074,-2.67341,0.95190,1.57082,0.11840,-0.13193,-0.44308,0.06308,,,,,,,,,,,,,,,,,,,,,,,,,,0,0,0,0,0
2.4793,1783720211.4184,1,1,1.0000,0.0000,1.41879,0.15085,-2.67349,0.95187,1.57082,0.11843,-0.13193,-0.44303,0.06308,,,,,,,,,,,,,,,,,,,,,,,,,,0,0,0,0,0
2.4798,1783720211.4189,1,1,1.0000,0.0000,1.41879,0.15085,-2.67349,0.95187,1.57082,0.11843,-0.13193,-0.44303,0.06308,,,,,,,,,,,,,,,,,,,,,,,,,,0,0,0,0,0
2.4909,1783720211.4300,1,1,1.0000,0.0000,1.41870,0.15133,-2.67383,0.95173,1.57082,0.11852,-0.13193,-0.44282,0.06308,,,,,,,,,,,,,,,,,,,,,,,,,,0,0,0,0,0
2.4975,1783720211.4366,1,1,1.0000,0.0000,1.41866,0.15154,-2.67399,0.95167,1.57082,0.11856,-0.13193,-0.44273,0.06308,,,,,,,,,,,,,,,,,,,,,,,,,,0,0,0,0,0
2.4977,1783720211.4369,1,1,1.0000,0.0000,1.41866,0.15154,-2.67399,0.95167,1.57082,0.11856,-0.13193,-0.44273,0.06308,,,,,,,,,,,,,,,,,,,,,,,,,,0,0,0,0,0
2.5115,1783720211.4506,1,1,1.0000,0.0000,1.41860,0.15182,-2.67419,0.95158,1.57082,0.11862,-0.13193,-0.44260,0.06308,,,,,,,,,,,,,,,,,,,,,,,,,,0,0,0,0,0
2.5181,1783720211.4572,1,1,1.0000,0.0000,1.41859,0.15189,-2.67424,0.95156,1.57082,0.11863,-0.13193,-0.44257,0.06308,,,,,,,,,,,,,,,,,,,,,,,,,,0,0,0,0,0
2.5290,1783720211.4682,1,1,1.0000,0.0000,1.41853,0.15222,-2.67446,0.95146,1.57082,0.11870,-0.13192,-0.44243,0.06309,,,,,,,,,,,,,,,,,,,,,,,,,,0,0,0,0,0
2.5423,1783720211.4815,1,1,1.0000,0.0000,1.41845,0.15261,-2.67472,0.95134,1.57082,0.11878,-0.13192,-0.44228,0.06310,,,,,,,,,,,,,,,,,,,,,,,,,,0,0,0,0,0
2.5494,1783720211.4885,1,1,1.0000,0.0000,1.41841,0.15284,-2.67486,0.95126,1.57082,0.11883,-0.13192,-0.44219,0.06311,,,,,,,,,,,,,,,,,,,,,,,,,,0,0,0,0,0
2.5498,1783720211.4889,1,1,1.0000,0.0000,1.41841,0.15284,-2.67486,0.95126,1.57082,0.11883,-0.13192,-0.44219,0.06311,,,,,,,,,,,,,,,,,,,,,,,,,,0,0,0,0,0
2.5575,1783720211.4967,1,1,1.0000,0.0000,1.41838,0.15301,-2.67496,0.95121,1.57082,0.11886,-0.13192,-0.44213,0.06312,,,,,,,,,,,,,,,,,,,,,,,,,,0,0,0,0,0
2.5798,1783720211.5190,1,1,1.0000,0.0000,1.41836,0.15307,-2.67497,0.95119,1.57082,0.11888,-0.13191,-0.44212,0.06313,,,,,,,,,,,,,,,,,,,,,,,,,,0,0,0,0,0
2.5807,1783720211.5198,1,1,1.0000,0.0000,1.41836,0.15307,-2.67497,0.95119,1.57082,0.11888,-0.13191,-0.44212,0.06313,,,,,,,,,,,,,,,,,,,,,,,,,,0,0,0,0,0
2.5888,1783720211.5279,1,1,1.0000,0.0000,1.41836,0.15307,-2.67497,0.95119,1.57082,0.11888,-0.13191,-0.44212,0.06313,,,,,,,,,,,,,,,,,,,,,,,,,,0,0,0,0,0
2.6279,1783720211.5670,1,1,1.0000,0.0000,1.41836,0.15307,-2.67497,0.95119,1.57082,0.11888,-0.13191,-0.44212,0.06313,,,,,,,,,,,,,,,,,,,,,,,,,,0,0,0,0,0
2.6283,1783720211.5674,1,1,1.0000,0.0000,1.41836,0.15307,-2.67497,0.95119,1.57082,0.11888,-0.13191,-0.44212,0.06313,,,,,,,,,,,,,,,,,,,,,,,,,,0,0,0,0,0
2.6316,1783720211.5707,1,1,1.0000,0.0000,1.41836,0.15307,-2.67497,0.95119,1.57082,0.11888,-0.13191,-0.44212,0.06313,,,,,,,,,,,,,,,,,,,,,,,,,,0,0,0,0,0
2.6432,1783720211.5823,1,1,1.0000,0.0000,1.41836,0.15307,-2.67497,0.95119,1.57082,0.11888,-0.13191,-0.44212,0.06313,,,,,,,,,,,,,,,,,,,,,,,,,,0,0,0,0,0
2.6473,1783720211.5864,1,1,1.0000,0.0000,1.41836,0.15307,-2.67497,0.95119,1.57082,0.11888,-0.13191,-0.44212,0.06313,,,,,,,,,,,,,,,,,,,,,,,,,,0,0,0,0,0
2.6581,1783720211.5973,1,1,1.0000,0.0000,1.41836,0.15307,-2.67497,0.95119,1.57082,0.11888,-0.13191,-0.44212,0.06313,,,,,,,,,,,,,,,,,,,,,,,,,,0,0,0,0,0
2.6715,1783720211.6106,1,1,1.0000,0.0000,1.41836,0.15307,-2.67497,0.95119,1.57082,0.11888,-0.13191,-0.44212,0.06313,,,,,,,,,,,,,,,,,,,,,,,,,,0,0,0,0,0
2.6789,1783720211.6181,1,1,1.0000,0.0000,1.41836,0.15307,-2.67497,0.95119,1.57082,0.11888,-0.13191,-0.44212,0.06313,,,,,,,,,,,,,,,,,,,,,,,,,,0,0,0,0,0
2.6901,1783720211.6292,1,1,1.0000,0.0000,1.41836,0.15307,-2.67497,0.95119,1.57082,0.11888,-0.13191,-0.44212,0.06313,,,,,,,,,,,,,,,,,,,,,,,,,,0,0,0,0,0
2.6975,1783720211.6366,1,1,1.0000,0.0000,1.41836,0.15307,-2.67497,0.95119,1.57082,0.11888,-0.13191,-0.44212,0.06313,,,,,,,,,,,,,,,,,,,,,,,,,,0,0,0,0,0
2.7096,1783720211.6488,1,1,1.0000,0.0000,1.41836,0.15307,-2.67497,0.95119,1.57082,0.11888,-0.13191,-0.44212,0.06313,,,,,,,,,,,,,,,,,,,,,,,,,,0,0,0,0,0
2.7195,1783720211.6586,1,1,1.0000,0.0000,1.41836,0.15307,-2.67497,0.95119,1.57082,0.11888,-0.13191,-0.44212,0.06313,,,,,,,,,,,,,,,,,,,,,,,,,,0,0,0,0,0
2.7286,1783720211.6678,1,1,1.0000,0.0000,1.41836,0.15307,-2.67497,0.95119,1.57082,0.11888,-0.13191,-0.44212,0.06313,,,,,,,,,,,,,,,,,,,,,,,,,,0,0,0,0,0
2.7289,1783720211.6681,1,1,1.0000,0.0000,1.41836,0.15307,-2.67497,0.95119,1.57082,0.11888,-0.13191,-0.44212,0.06313,,,,,,,,,,,,,,,,,,,,,,,,,,0,0,0,0,0
2.7401,1783720211.6793,1,1,1.0000,0.0000,1.41836,0.15307,-2.67497,0.95119,1.57082,0.11888,-0.13191,-0.44212,0.06313,,,,,,,,,,,,,,,,,,,,,,,,,,0,0,0,0,0
2.7492,1783720211.6884,1,1,1.0000,0.0000,1.41836,0.15307,-2.67497,0.95119,1.57082,0.11888,-0.13191,-0.44212,0.06313,,,,,,,,,,,,,,,,,,,,,,,,,,0,0,0,0,0
2.7495,1783720211.6887,1,1,1.0000,0.0000,1.41836,0.15307,-2.67497,0.95119,1.57082,0.11888,-0.13191,-0.44212,0.06313,,,,,,,,,,,,,,,,,,,,,,,,,,0,0,0,0,0
2.7605,1783720211.6996,1,1,1.0000,0.0000,1.41836,0.15307,-2.67497,0.95119,1.57082,0.11888,-0.13191,-0.44212,0.06313,,,,,,,,,,,,,,,,,,,,,,,,,,0,0,0,0,0
2.7726,1783720211.7118,1,1,1.0000,0.0000,1.41836,0.15307,-2.67497,0.95119,1.57082,0.11888,-0.13191,-0.44212,0.06313,,,,,,,,,,,,,,,,,,,,,,,,,,0,0,0,0,0
2.7790,1783720211.7181,1,1,1.0000,0.0000,1.41836,0.15307,-2.67497,0.95119,1.57082,0.11888,-0.13191,-0.44212,0.06313,,,,,,,,,,,,,,,,,,,,,,,,,,0,0,0,0,0
2.7894,1783720211.7285,1,1,1.0000,0.0000,1.41836,0.15307,-2.67497,0.95119,1.57082,0.11888,-0.13191,-0.44212,0.06313,,,,,,,,,,,,,,,,,,,,,,,,,,0,0,0,0,0
2.7994,1783720211.7386,1,1,1.0000,0.0000,1.41836,0.15307,-2.67497,0.95119,1.57082,0.11888,-0.13191,-0.44212,0.06313,,,,,,,,,,,,,,,,,,,,,,,,,,0,0,0,0,0
2.8120,1783720211.7511,1,1,1.0000,0.0000,1.41836,0.15307,-2.67497,0.95119,1.57082,0.11888,-0.13191,-0.44212,0.06313,,,,,,,,,,,,,,,,,,,,,,,,,,0,0,0,0,0
2.8199,1783720211.7591,1,1,1.0000,0.0000,1.41836,0.15307,-2.67497,0.95119,1.57082,0.11888,-0.13191,-0.44212,0.06313,,,,,,,,,,,,,,,,,,,,,,,,,,0,0,0,0,0
2.8273,1783720211.7665,1,1,1.0000,0.0000,1.41836,0.15307,-2.67497,0.95119,1.57082,0.11888,-0.13191,-0.44212,0.06313,,,,,,,,,,,,,,,,,,,,,,,,,,0,0,0,0,0
2.8381,1783720211.7773,1,1,1.0000,0.0000,1.41836,0.15307,-2.67497,0.95119,1.57082,0.11888,-0.13191,-0.44212,0.06313,,,,,,,,,,,,,,,,,,,,,,,,,,0,0,0,0,0
2.8481,1783720211.7873,1,1,1.0000,0.0000,1.41836,0.15307,-2.67497,0.95119,1.57082,0.11888,-0.13191,-0.44212,0.06313,,,,,,,,,,,,,,,,,,,,,,,,,,0,0,0,0,0
2.8574,1783720211.7966,1,1,1.0000,0.0000,1.41836,0.15307,-2.67497,0.95119,1.57082,0.11888,-0.13191,-0.44212,0.06313,,,,,,,,,,,,,,,,,,,,,,,,,,0,0,0,0,0
2.8712,1783720211.8103,1,1,1.0000,0.0000,1.41836,0.15307,-2.67497,0.95119,1.57082,0.11888,-0.13191,-0.44212,0.06313,,,,,,,,,,,,,,,,,,,,,,,,,,0,0,0,0,0
2.8716,1783720211.8107,1,1,1.0000,0.0000,1.41836,0.15307,-2.67497,0.95119,1.57082,0.11888,-0.13191,-0.44212,0.06313,,,,,,,,,,,,,,,,,,,,,,,,,,0,0,0,0,0
2.8811,1783720211.8202,1,1,1.0000,0.0000,1.41836,0.15307,-2.67497,0.95119,1.57082,0.11888,-0.13191,-0.44212,0.06313,,,,,,,,,,,,,,,,,,,,,,,,,,0,0,0,0,0
2.8815,1783720211.8207,1,1,1.0000,0.0000,1.41836,0.15307,-2.67497,0.95119,1.57082,0.11888,-0.13191,-0.44212,0.06313,,,,,,,,,,,,,,,,,,,,,,,,,,0,0,0,0,0
2.8878,1783720211.8270,1,1,1.0000,0.0000,1.41836,0.15307,-2.67497,0.95119,1.57082,0.11888,-0.13191,-0.44212,0.06313,,,,,,,,,,,,,,,,,,,,,,,,,,0,0,0,0,0
2.8984,1783720211.8376,1,1,1.0000,0.0000,1.41836,0.15307,-2.67497,0.95119,1.57082,0.11888,-0.13191,-0.44212,0.06313,,,,,,,,,,,,,,,,,,,,,,,,,,0,0,0,0,0
2.9089,1783720211.8480,1,1,1.0000,0.0000,1.41836,0.15307,-2.67497,0.95119,1.57082,0.11888,-0.13191,-0.44212,0.06313,,,,,,,,,,,,,,,,,,,,,,,,,,0,0,0,0,0
2.9204,1783720211.8596,1,1,1.0000,0.0000,1.41836,0.15307,-2.67497,0.95119,1.57082,0.11888,-0.13191,-0.44212,0.06313,,,,,,,,,,,,,,,,,,,,,,,,,,0,0,0,0,0
2.9275,1783720211.8666,1,1,1.0000,0.0000,1.41836,0.15307,-2.67497,0.95119,1.57082,0.11888,-0.13191,-0.44212,0.06313,,,,,,,,,,,,,,,,,,,,,,,,,,0,0,0,0,0
2.9278,1783720211.8670,1,1,1.0000,0.0000,1.41836,0.15307,-2.67497,0.95119,1.57082,0.11888,-0.13191,-0.44212,0.06313,,,,,,,,,,,,,,,,,,,,,,,,,,0,0,0,0,0
2.9440,1783720211.8832,1,1,1.0000,0.0000,1.41836,0.15307,-2.67497,0.95119,1.57082,0.11888,-0.13191,-0.44212,0.06313,,,,,,,,,,,,,,,,,,,,,,,,,,0,0,0,0,0
2.9443,1783720211.8834,1,1,1.0000,0.0000,1.41836,0.15307,-2.67497,0.95119,1.57082,0.11888,-0.13191,-0.44212,0.06313,,,,,,,,,,,,,,,,,,,,,,,,,,0,0,0,0,0
2.9503,1783720211.8894,1,1,1.0000,0.0000,1.41836,0.15307,-2.67497,0.95119,1.57082,0.11888,-0.13191,-0.44212,0.06313,,,,,,,,,,,,,,,,,,,,,,,,,,0,0,0,0,0
2.9599,1783720211.8990,1,1,1.0000,0.0000,1.41836,0.15307,-2.67497,0.95119,1.57082,0.11888,-0.13191,-0.44212,0.06313,,,,,,,,,,,,,,,,,,,,,,,,,,0,0,0,0,0
2.9682,1783720211.9073,1,1,1.0000,0.0000,1.41836,0.15307,-2.67497,0.95119,1.57082,0.11888,-0.13191,-0.44212,0.06313,,,,,,,,,,,,,,,,,,,,,,,,,,0,0,0,0,0
2.9830,1783720211.9222,1,1,1.0000,0.0000,1.41836,0.15307,-2.67497,0.95119,1.57082,0.11888,-0.13191,-0.44212,0.06313,,,,,,,,,,,,,,,,,,,,,,,,,,0,0,0,0,0
2.9875,1783720211.9267,1,1,1.0000,0.0000,1.41836,0.15307,-2.67497,0.95119,1.57082,0.11888,-0.13191,-0.44212,0.06313,,,,,,,,,,,,,,,,,,,,,,,,,,0,0,0,0,0
2.9990,1783720211.9381,1,1,1.0000,0.0000,1.41837,0.15301,-2.67493,0.95119,1.57083,0.11889,-0.13191,-0.44215,0.06313,,,,,,,,,,,,,,,,,,,,,,,,,,0,0,0,0,0
3.0256,1783720211.9648,1,1,1.0000,0.0000,1.41840,0.15290,-2.67485,0.95121,1.57083,0.11889,-0.13191,-0.44219,0.06313,,,,,,,,,,,,,,,,,,,,,,,,,,0,0,0,0,0
3.0260,1783720211.9652,1,1,1.0000,0.0000,1.41840,0.15290,-2.67485,0.95121,1.57083,0.11889,-0.13191,-0.44219,0.06313,,,,,,,,,,,,,,,,,,,,,,,,,,0,0,0,0,0
3.0858,1783720212.0249,1,1,1.0000,0.0000,1.41857,0.15198,-2.67422,0.95140,1.57084,0.11882,-0.13193,-0.44256,0.06310,,,,,,,,,,,,,,,,,,,,,,,,,,0,0,0,0,0
3.0862,1783720212.0254,1,1,1.0000,0.0000,1.41857,0.15198,-2.67422,0.95140,1.57084,0.11882,-0.13193,-0.44256,0.06310,,,,,,,,,,,,,,,,,,,,,,,,,,0,0,0,0,0
3.0866,1783720212.0258,1,1,1.0000,0.0000,1.41857,0.15198,-2.67422,0.95140,1.57084,0.11882,-0.13193,-0.44256,0.06310,,,,,,,,,,,,,,,,,,,,,,,,,,0,0,0,0,0
3.1197,1783720212.0589,1,1,1.0000,0.0000,1.41881,0.15074,-2.67333,0.95172,1.57084,0.11861,-0.13194,-0.44309,0.06309,,,,,,,,,,,,,,,,,,,,,,,,,,0,0,0,0,0
3.1255,1783720212.0647,1,1,1.0000,0.0000,1.41887,0.15042,-2.67311,0.95180,1.57084,0.11856,-0.13194,-0.44323,0.06309,,,,,,,,,,,,,,,,,,,,,,,,,,0,0,0,0,0
3.1259,1783720212.0651,1,1,1.0000,0.0000,1.41887,0.15042,-2.67311,0.95180,1.57084,0.11856,-0.13194,-0.44323,0.06309,,,,,,,,,,,,,,,,,,,,,,,,,,0,0,0,0,0
3.1263,1783720212.0655,1,1,1.0000,0.0000,1.41887,0.15042,-2.67311,0.95180,1.57084,0.11856,-0.13194,-0.44323,0.06309,,,,,,,,,,,,,,,,,,,,,,,,,,0,0,0,0,0
3.1273,1783720212.0664,1,1,1.0000,0.0000,1.41894,0.15008,-2.67286,0.95189,1.57084,0.11849,-0.13194,-0.44338,0.06309,,,,,,,,,,,,,,,,,,,,,,,,,,0,0,0,0,0
3.1276,1783720212.0667,1,1,1.0000,0.0000,1.41894,0.15008,-2.67286,0.95189,1.57084,0.11849,-0.13194,-0.44338,0.06309,,,,,,,,,,,,,,,,,,,,,,,,,,0,0,0,0,0
3.1432,1783720212.0824,1,1,1.0000,0.0000,1.41901,0.14969,-2.67258,0.95200,1.57084,0.11842,-0.13194,-0.44354,0.06308,,,,,,,,,,,,,,,,,,,,,,,,,,0,0,0,0,0
3.1436,1783720212.0828,1,1,1.0000,0.0000,1.41901,0.14969,-2.67258,0.95200,1.57084,0.11842,-0.13194,-0.44354,0.06308,,,,,,,,,,,,,,,,,,,,,,,,,,0,0,0,0,0
3.1593,1783720212.0984,1,1,1.0000,0.0000,1.41928,0.14831,-2.67158,0.95236,1.57084,0.11817,-0.13195,-0.44415,0.06308,,,,,,,,,,,,,,,,,,,,,,,,,,0,0,0,0,0
3.1598,1783720212.0990,1,1,1.0000,0.0000,1.41928,0.14831,-2.67158,0.95236,1.57084,0.11817,-0.13195,-0.44415,0.06308,,,,,,,,,,,,,,,,,,,,,,,,,,0,0,0,0,0
3.1600,1783720212.0992,1,1,1.0000,0.0000,1.41928,0.14831,-2.67158,0.95236,1.57084,0.11817,-0.13195,-0.44415,0.06308,,,,,,,,,,,,,,,,,,,,,,,,,,0,0,0,0,0
3.1681,1783720212.1073,1,1,1.0000,0.0000,1.41929,0.14826,-2.67155,0.95237,1.57084,0.11816,-0.13195,-0.44417,0.06308,,,,,,,,,,,,,,,,,,,,,,,,,,0,0,0,0,0
3.1900,1783720212.1292,1,1,1.0000,0.0000,1.41948,0.14727,-2.67083,0.95264,1.57084,0.11797,-0.13195,-0.44461,0.06308,,,,,,,,,,,,,,,,,,,,,,,,,,0,0,0,0,0
3.1904,1783720212.1296,1,1,1.0000,0.0000,1.41948,0.14727,-2.67083,0.95264,1.57084,0.11797,-0.13195,-0.44461,0.06308,,,,,,,,,,,,,,,,,,,,,,,,,,0,0,0,0,0
3.2010,1783720212.1402,1,1,1.0000,0.0000,1.41956,0.14682,-2.67050,0.95276,1.57084,0.11789,-0.13195,-0.44481,0.06308,,,,,,,,,,,,,,,,,,,,,,,,,,0,0,0,0,0
3.2084,1783720212.1476,1,1,1.0000,0.0000,1.41969,0.14614,-2.67000,0.95294,1.57084,0.11776,-0.13195,-0.44511,0.06308,,,,,,,,,,,,,,,,,,,,,,,,,,0,0,0,0,0
3.2216,1783720212.1608,1,1,1.0000,0.0000,1.41986,0.14528,-2.66937,0.95317,1.57083,0.11760,-0.13196,-0.44549,0.06308,,,,,,,,,,,,,,,,,,,,,,,,,,0,0,0,0,0
3.2284,1783720212.1675,1,1,1.0000,0.0000,1.41989,0.14513,-2.66926,0.95321,1.57083,0.11757,-0.13196,-0.44556,0.06308,,,,,,,,,,,,,,,,,,,,,,,,,,0,0,0,0,0
3.2393,1783720212.1784,1,1,1.0000,0.0000,1.42001,0.14448,-2.66879,0.95339,1.57083,0.11744,-0.13196,-0.44585,0.06307,,,,,,,,,,,,,,,,,,,,,,,,,,0,0,0,0,0
3.2510,1783720212.1902,1,1,1.0000,0.0000,1.42019,0.14356,-2.66812,0.95363,1.57083,0.11726,-0.13196,-0.44625,0.06307,,,,,,,,,,,,,,,,,,,,,,,,,,0,0,0,0,0
3.2590,1783720212.1982,1,1,1.0000,0.0000,1.42019,0.14354,-2.66811,0.95364,1.57083,0.11726,-0.13196,-0.44626,0.06307,,,,,,,,,,,,,,,,,,,,,,,,,,0,0,0,0,0
3.2685,1783720212.2076,1,1,1.0000,0.0000,1.42022,0.14339,-2.66800,0.95368,1.57083,0.11723,-0.13196,-0.44633,0.06307,,,,,,,,,,,,,,,,,,,,,,,,,,0,0,0,0,0
3.2822,1783720212.2214,1,1,1.0000,0.0000,1.42027,0.14313,-2.66781,0.95376,1.57083,0.11718,-0.13197,-0.44645,0.06307,,,,,,,,,,,,,,,,,,,,,,,,,,0,0,0,0,0
3.2911,1783720212.2302,1,1,1.0000,0.0000,1.42030,0.14300,-2.66771,0.95380,1.57083,0.11715,-0.13197,-0.44650,0.06307,,,,,,,,,,,,,,,,,,,,,,,,,,0,0,0,0,0
3.2993,1783720212.2384,1,1,1.0000,0.0000,1.42034,0.14279,-2.66757,0.95386,1.57083,0.11711,-0.13197,-0.44659,0.06307,,,,,,,,,,,,,,,,,,,,,,,,,,0,0,0,0,0
3.3123,1783720212.2515,1,1,1.0000,0.0000,1.42041,0.14242,-2.66732,0.95397,1.57083,0.11703,-0.13197,-0.44674,0.06306,,,,,,,,,,,,,,,,,,,,,,,,,,0,0,0,0,0
3.3377,1783720212.2768,1,1,1.0000,0.0000,1.42052,0.14185,-2.66698,0.95414,1.57083,0.11691,-0.13198,-0.44695,0.06302,,,,,,,,,,,,,,,,,,,,,,,,,,0,0,0,0,0
3.3381,1783720212.2772,1,1,1.0000,0.0000,1.42052,0.14185,-2.66698,0.95414,1.57083,0.11691,-0.13198,-0.44695,0.06302,,,,,,,,,,,,,,,,,,,,,,,,,,0,0,0,0,0
3.3416,1783720212.2808,1,1,1.0000,0.0000,1.42052,0.14184,-2.66698,0.95415,1.57083,0.11690,-0.13198,-0.44695,0.06301,,,,,,,,,,,,,,,,,,,,,,,,,,0,0,0,0,0
3.3420,1783720212.2812,1,1,1.0000,0.0000,1.42052,0.14184,-2.66698,0.95415,1.57083,0.11690,-0.13198,-0.44695,0.06301,,,,,,,,,,,,,,,,,,,,,,,,,,0,0,0,0,0
3.3480,1783720212.2871,1,1,1.0000,0.0000,1.42052,0.14184,-2.66698,0.95415,1.57083,0.11690,-0.13198,-0.44695,0.06301,,,,,,,,,,,,,,,,,,,,,,,,,,0,0,0,0,0
3.3482,1783720212.2874,1,1,1.0000,0.0000,1.42052,0.14184,-2.66698,0.95415,1.57083,0.11690,-0.13198,-0.44695,0.06301,,,,,,,,,,,,,,,,,,,,,,,,,,0,0,0,0,0
3.3601,1783720212.2993,1,1,1.0000,0.0000,1.42052,0.14184,-2.66698,0.95415,1.57083,0.11690,-0.13198,-0.44695,0.06301,,,,,,,,,,,,,,,,,,,,,,,,,,0,0,0,0,0
3.3701,1783720212.3093,1,1,1.0000,0.0000,1.42052,0.14184,-2.66698,0.95415,1.57083,0.11690,-0.13198,-0.44695,0.06301,,,,,,,,,,,,,,,,,,,,,,,,,,0,0,0,0,0
3.3794,1783720212.3185,1,1,1.0000,0.0000,1.42052,0.14184,-2.66698,0.95415,1.57083,0.11690,-0.13198,-0.44695,0.06301,,,,,,,,,,,,,,,,,,,,,,,,,,0,0,0,0,0
3.3796,1783720212.3188,1,1,1.0000,0.0000,1.42052,0.14184,-2.66698,0.95415,1.57083,0.11690,-0.13198,-0.44695,0.06301,,,,,,,,,,,,,,,,,,,,,,,,,,0,0,0,0,0
3.3929,1783720212.3320,1,1,1.0000,0.0000,1.42052,0.14184,-2.66698,0.95415,1.57083,0.11690,-0.13198,-0.44695,0.06301,,,,,,,,,,,,,,,,,,,,,,,,,,0,0,0,0,0
3.3995,1783720212.3387,1,1,1.0000,0.0000,1.42052,0.14184,-2.66698,0.95415,1.57083,0.11690,-0.13198,-0.44695,0.06301,,,,,,,,,,,,,,,,,,,,,,,,,,0,0,0,0,0
3.4076,1783720212.3468,1,1,1.0000,0.0000,1.42052,0.14184,-2.66698,0.95415,1.57083,0.11690,-0.13198,-0.44695,0.06301,,,,,,,,,,,,,,,,,,,,,,,,,,0,0,0,0,0
3.4177,1783720212.3569,1,1,1.0000,0.0000,1.42052,0.14184,-2.66698,0.95415,1.57083,0.11690,-0.13198,-0.44695,0.06301,,,,,,,,,,,,,,,,,,,,,,,,,,0,0,0,0,0
3.4288,1783720212.3680,1,1,1.0000,0.0000,1.42052,0.14184,-2.66698,0.95415,1.57083,0.11690,-0.13198,-0.44695,0.06301,,,,,,,,,,,,,,,,,,,,,,,,,,0,0,0,0,0
3.4396,1783720212.3788,1,1,1.0000,0.0000,1.42052,0.14184,-2.66698,0.95415,1.57083,0.11690,-0.13198,-0.44695,0.06301,,,,,,,,,,,,,,,,,,,,,,,,,,0,0,0,0,0
3.4400,1783720212.3792,1,1,1.0000,0.0000,1.42052,0.14184,-2.66698,0.95415,1.57083,0.11690,-0.13198,-0.44695,0.06301,,,,,,,,,,,,,,,,,,,,,,,,,,0,0,0,0,0
3.4580,1783720212.3972,1,1,1.0000,0.0000,1.42052,0.14184,-2.66698,0.95415,1.57083,0.11690,-0.13198,-0.44695,0.06301,,,,,,,,,,,,,,,,,,,,,,,,,,0,0,0,0,0
3.4584,1783720212.3976,1,1,1.0000,0.0000,1.42052,0.14184,-2.66698,0.95415,1.57083,0.11690,-0.13198,-0.44695,0.06301,,,,,,,,,,,,,,,,,,,,,,,,,,0,0,0,0,0
3.4620,1783720212.4011,1,1,1.0000,0.0000,1.42052,0.14184,-2.66698,0.95415,1.57083,0.11690,-0.13198,-0.44695,0.06301,,,,,,,,,,,,,,,,,,,,,,,,,,0,0,0,0,0
3.4625,1783720212.4016,1,1,1.0000,0.0000,1.42052,0.14184,-2.66698,0.95415,1.57083,0.11690,-0.13198,-0.44695,0.06301,,,,,,,,,,,,,,,,,,,,,,,,,,0,0,0,0,0
3.4691,1783720212.4083,1,1,1.0000,0.0000,1.42052,0.14184,-2.66698,0.95415,1.57083,0.11690,-0.13198,-0.44695,0.06301,,,,,,,,,,,,,,,,,,,,,,,,,,0,0,0,0,0
3.4694,1783720212.4086,1,1,1.0000,0.0000,1.42052,0.14184,-2.66698,0.95415,1.57083,0.11690,-0.13198,-0.44695,0.06301,,,,,,,,,,,,,,,,,,,,,,,,,,0,0,0,0,0
3.4887,1783720212.4279,1,1,1.0000,0.0000,1.42052,0.14184,-2.66698,0.95415,1.57083,0.11690,-0.13198,-0.44695,0.06301,,,,,,,,,,,,,,,,,,,,,,,,,,0,0,0,0,0
3.4912,1783720212.4304,1,1,1.0000,0.0000,1.42052,0.14184,-2.66698,0.95415,1.57083,0.11690,-0.13198,-0.44695,0.06301,,,,,,,,,,,,,,,,,,,,,,,,,,0,0,0,0,0
3.5055,1783720212.4446,1,1,1.0000,0.0000,1.42052,0.14184,-2.66698,0.95415,1.57083,0.11690,-0.13198,-0.44695,0.06301,,,,,,,,,,,,,,,,,,,,,,,,,,0,0,0,0,0
3.5095,1783720212.4487,1,1,1.0000,0.0000,1.42052,0.14184,-2.66698,0.95415,1.57083,0.11690,-0.13198,-0.44695,0.06301,,,,,,,,,,,,,,,,,,,,,,,,,,0,0,0,0,0
3.5203,1783720212.4595,1,1,1.0000,0.0000,1.42052,0.14184,-2.66698,0.95415,1.57083,0.11690,-0.13198,-0.44695,0.06301,,,,,,,,,,,,,,,,,,,,,,,,,,0,0,0,0,0
3.5277,1783720212.4669,1,1,1.0000,0.0000,1.42052,0.14184,-2.66698,0.95415,1.57083,0.11690,-0.13198,-0.44695,0.06301,,,,,,,,,,,,,,,,,,,,,,,,,,0,0,0,0,0
3.5424,1783720212.4815,1,1,1.0000,0.0000,1.42052,0.14184,-2.66698,0.95415,1.57083,0.11690,-0.13198,-0.44695,0.06301,,,,,,,,,,,,,,,,,,,,,,,,,,0,0,0,0,0
3.5495,1783720212.4886,1,1,1.0000,0.0000,1.42052,0.14184,-2.66698,0.95415,1.57083,0.11690,-0.13198,-0.44695,0.06301,,,,,,,,,,,,,,,,,,,,,,,,,,0,0,0,0,0
3.5499,1783720212.4890,1,1,1.0000,0.0000,1.42052,0.14184,-2.66698,0.95415,1.57083,0.11690,-0.13198,-0.44695,0.06301,,,,,,,,,,,,,,,,,,,,,,,,,,0,0,0,0,0
3.5593,1783720212.4985,1,1,1.0000,0.0000,1.42052,0.14184,-2.66698,0.95415,1.57083,0.11690,-0.13198,-0.44695,0.06301,,,,,,,,,,,,,,,,,,,,,,,,,,0,0,0,0,0
3.5684,1783720212.5076,1,1,1.0000,0.0000,1.42052,0.14184,-2.66698,0.95415,1.57083,0.11690,-0.13198,-0.44695,0.06301,,,,,,,,,,,,,,,,,,,,,,,,,,0,0,0,0,0
3.5838,1783720212.5230,1,1,1.0000,0.0000,1.42052,0.14184,-2.66698,0.95415,1.57083,0.11690,-0.13198,-0.44695,0.06301,,,,,,,,,,,,,,,,,,,,,,,,,,0,0,0,0,0
3.5840,1783720212.5232,1,1,1.0000,0.0000,1.42052,0.14184,-2.66698,0.95415,1.57083,0.11690,-0.13198,-0.44695,0.06301,,,,,,,,,,,,,,,,,,,,,,,,,,0,0,0,0,0
3.5916,1783720212.5307,1,1,1.0000,0.0000,1.42052,0.14184,-2.66698,0.95415,1.57083,0.11690,-0.13198,-0.44695,0.06301,,,,,,,,,,,,,,,,,,,,,,,,,,0,0,0,0,0
3.5920,1783720212.5311,1,1,1.0000,0.0000,1.42052,0.14184,-2.66698,0.95415,1.57083,0.11690,-0.13198,-0.44695,0.06301,,,,,,,,,,,,,,,,,,,,,,,,,,0,0,0,0,0
3.6003,1783720212.5395,1,1,1.0000,0.0000,1.42052,0.14184,-2.66698,0.95415,1.57083,0.11690,-0.13198,-0.44695,0.06301,,,,,,,,,,,,,,,,,,,,,,,,,,0,0,0,0,0
3.6082,1783720212.5473,1,1,1.0000,0.0000,1.42052,0.14184,-2.66698,0.95415,1.57083,0.11690,-0.13198,-0.44695,0.06301,,,,,,,,,,,,,,,,,,,,,,,,,,0,0,0,0,0
3.6191,1783720212.5583,1,1,1.0000,0.0000,1.42052,0.14184,-2.66698,0.95415,1.57083,0.11690,-0.13198,-0.44695,0.06301,,,,,,,,,,,,,,,,,,,,,,,,,,0,0,0,0,0
3.6316,1783720212.5708,1,1,1.0000,0.0000,1.42052,0.14184,-2.66698,0.95415,1.57083,0.11690,-0.13198,-0.44695,0.06301,,,,,,,,,,,,,,,,,,,,,,,,,,0,0,0,0,0
3.6387,1783720212.5779,1,1,1.0000,0.0000,1.42052,0.14184,-2.66698,0.95415,1.57083,0.11690,-0.13198,-0.44695,0.06301,,,,,,,,,,,,,,,,,,,,,,,,,,0,0,0,0,0
3.6487,1783720212.5879,1,1,1.0000,0.0000,1.42052,0.14184,-2.66698,0.95415,1.57083,0.11690,-0.13198,-0.44695,0.06301,,,,,,,,,,,,,,,,,,,,,,,,,,0,0,0,0,0
3.6490,1783720212.5882,1,1,1.0000,0.0000,1.42052,0.14184,-2.66698,0.95415,1.57083,0.11690,-0.13198,-0.44695,0.06301,,,,,,,,,,,,,,,,,,,,,,,,,,0,0,0,0,0
3.6596,1783720212.5988,1,1,1.0000,0.0000,1.42052,0.14184,-2.66698,0.95415,1.57083,0.11690,-0.13198,-0.44695,0.06301,,,,,,,,,,,,,,,,,,,,,,,,,,0,0,0,0,0
3.6713,1783720212.6104,1,1,1.0000,0.0000,1.42052,0.14184,-2.66698,0.95415,1.57083,0.11690,-0.13198,-0.44695,0.06301,,,,,,,,,,,,,,,,,,,,,,,,,,0,0,0,0,0
3.6778,1783720212.6169,1,1,1.0000,0.0000,1.42052,0.14184,-2.66698,0.95415,1.57083,0.11690,-0.13198,-0.44695,0.06301,,,,,,,,,,,,,,,,,,,,,,,,,,0,0,0,0,0
3.7122,1783720212.6513,1,1,1.0000,0.0000,1.42052,0.14184,-2.66698,0.95415,1.57083,0.11690,-0.13198,-0.44695,0.06301,,,,,,,,,,,,,,,,,,,,,,,,,,0,0,0,0,0
3.7125,1783720212.6517,1,1,1.0000,0.0000,1.42052,0.14184,-2.66698,0.95415,1.57083,0.11690,-0.13198,-0.44695,0.06301,,,,,,,,,,,,,,,,,,,,,,,,,,0,0,0,0,0
3.7183,1783720212.6575,1,1,1.0000,0.0000,1.42052,0.14184,-2.66698,0.95415,1.57083,0.11690,-0.13198,-0.44695,0.06301,,,,,,,,,,,,,,,,,,,,,,,,,,0,0,0,0,0
3.7276,1783720212.6668,1,1,1.0000,0.0000,1.42052,0.14184,-2.66698,0.95415,1.57083,0.11690,-0.13198,-0.44695,0.06301,,,,,,,,,,,,,,,,,,,,,,,,,,0,0,0,0,0
3.7395,1783720212.6787,1,1,1.0000,0.0000,1.42052,0.14184,-2.66698,0.95415,1.57083,0.11690,-0.13198,-0.44695,0.06301,,,,,,,,,,,,,,,,,,,,,,,,,,0,0,0,0,0
3.7521,1783720212.6913,1,1,1.0000,0.0000,1.42052,0.14184,-2.66698,0.95415,1.57083,0.11690,-0.13198,-0.44695,0.06301,,,,,,,,,,,,,,,,,,,,,,,,,,0,0,0,0,0
3.7575,1783720212.6966,1,1,1.0000,0.0000,1.42052,0.14184,-2.66698,0.95415,1.57083,0.11690,-0.13198,-0.44695,0.06301,,,,,,,,,,,,,,,,,,,,,,,,,,0,0,0,0,0
3.7579,1783720212.6970,1,1,1.0000,0.0000,1.42052,0.14184,-2.66698,0.95415,1.57083,0.11690,-0.13198,-0.44695,0.06301,,,,,,,,,,,,,,,,,,,,,,,,,,0,0,0,0,0
3.7756,1783720212.7147,1,1,1.0000,0.0000,1.42052,0.14183,-2.66698,0.95416,1.57083,0.11690,-0.13198,-0.44695,0.06302,,,,,,,,,,,,,,,,,,,,,,,,,,0,0,0,0,0
3.7817,1783720212.7208,1,1,1.0000,0.0000,1.42052,0.14183,-2.66698,0.95417,1.57083,0.11689,-0.13198,-0.44696,0.06302,,,,,,,,,,,,,,,,,,,,,,,,,,0,0,0,0,0
3.7821,1783720212.7212,1,1,1.0000,0.0000,1.42052,0.14183,-2.66698,0.95417,1.57083,0.11689,-0.13198,-0.44696,0.06302,,,,,,,,,,,,,,,,,,,,,,,,,,0,0,0,0,0
3.7892,1783720212.7284,1,1,1.0000,0.0000,1.42052,0.14182,-2.66697,0.95419,1.57083,0.11688,-0.13198,-0.44697,0.06302,,,,,,,,,,,,,,,,,,,,,,,,,,0,0,0,0,0
3.8039,1783720212.7430,1,1,1.0000,0.0000,1.42052,0.14180,-2.66695,0.95423,1.57082,0.11686,-0.13197,-0.44699,0.06303,,,,,,,,,,,,,,,,,,,,,,,,,,0,0,0,0,0
3.8095,1783720212.7487,1,1,1.0000,0.0000,1.42052,0.14179,-2.66695,0.95424,1.57082,0.11686,-0.13197,-0.44699,0.06303,,,,,,,,,,,,,,,,,,,,,,,,,,0,0,0,0,0
3.8099,1783720212.7491,1,1,1.0000,0.0000,1.42052,0.14179,-2.66695,0.95424,1.57082,0.11686,-0.13197,-0.44699,0.06303,,,,,,,,,,,,,,,,,,,,,,,,,,0,0,0,0,0
3.8201,1783720212.7593,1,1,1.0000,0.0000,1.42052,0.14178,-2.66694,0.95426,1.57082,0.11685,-0.13197,-0.44700,0.06303,,,,,,,,,,,,,,,,,,,,,,,,,,0,0,0,0,0
3.8205,1783720212.7597,1,1,1.0000,0.0000,1.42052,0.14178,-2.66694,0.95426,1.57082,0.11685,-0.13197,-0.44700,0.06303,,,,,,,,,,,,,,,,,,,,,,,,,,0,0,0,0,0
3.8273,1783720212.7665,1,1,1.0000,0.0000,1.42052,0.14178,-2.66694,0.95426,1.57082,0.11685,-0.13197,-0.44700,0.06303,,,,,,,,,,,,,,,,,,,,,,,,,,0,0,0,0,0
3.8277,1783720212.7669,1,1,1.0000,0.0000,1.42052,0.14178,-2.66694,0.95426,1.57082,0.11685,-0.13197,-0.44700,0.06303,,,,,,,,,,,,,,,,,,,,,,,,,,0,0,0,0,0
3.8376,1783720212.7767,1,1,1.0000,0.0000,1.42052,0.14178,-2.66694,0.95426,1.57082,0.11685,-0.13197,-0.44700,0.06303,,,,,,,,,,,,,,,,,,,,,,,,,,0,0,0,0,0
3.8513,1783720212.7905,1,1,1.0000,0.0000,1.42052,0.14178,-2.66694,0.95426,1.57082,0.11685,-0.13197,-0.44700,0.06303,,,,,,,,,,,,,,,,,,,,,,,,,,0,0,0,0,0
3.8616,1783720212.8007,1,1,1.0000,0.0000,1.42052,0.14178,-2.66694,0.95426,1.57082,0.11685,-0.13197,-0.44700,0.06303,,,,,,,,,,,,,,,,,,,,,,,,,,0,0,0,0,0
3.8619,1783720212.8011,1,1,1.0000,0.0000,1.42052,0.14178,-2.66694,0.95426,1.57082,0.11685,-0.13197,-0.44700,0.06303,,,,,,,,,,,,,,,,,,,,,,,,,,0,0,0,0,0
3.8794,1783720212.8186,1,1,1.0000,0.0000,1.42052,0.14178,-2.66694,0.95426,1.57082,0.11685,-0.13197,-0.44700,0.06303,,,,,,,,,,,,,,,,,,,,,,,,,,0,0,0,0,0
3.8798,1783720212.8189,1,1,1.0000,0.0000,1.42052,0.14178,-2.66694,0.95426,1.57082,0.11685,-0.13197,-0.44700,0.06303,,,,,,,,,,,,,,,,,,,,,,,,,,0,0,0,0,0
3.9061,1783720212.8453,1,1,1.0000,0.0000,1.42052,0.14178,-2.66694,0.95426,1.57082,0.11685,-0.13197,-0.44700,0.06303,,,,,,,,,,,,,,,,,,,,,,,,,,0,0,0,0,0
3.9115,1783720212.8506,1,1,1.0000,0.0000,1.42052,0.14178,-2.66694,0.95426,1.57082,0.11685,-0.13197,-0.44700,0.06303,,,,,,,,,,,,,,,,,,,,,,,,,,0,0,0,0,0
3.9176,1783720212.8568,1,1,1.0000,0.0000,1.42052,0.14178,-2.66694,0.95426,1.57082,0.11685,-0.13197,-0.44700,0.06303,,,,,,,,,,,,,,,,,,,,,,,,,,0,0,0,0,0
3.9337,1783720212.8729,1,1,1.0000,0.0000,1.42052,0.14178,-2.66694,0.95426,1.57082,0.11685,-0.13197,-0.44700,0.06303,,,,,,,,,,,,,,,,,,,,,,,,,,0,0,0,0,0
3.9376,1783720212.8768,1,1,1.0000,0.0000,1.42052,0.14178,-2.66694,0.95426,1.57082,0.11685,-0.13197,-0.44700,0.06303,,,,,,,,,,,,,,,,,,,,,,,,,,0,0,0,0,0
3.9530,1783720212.8922,1,1,1.0000,0.0000,1.42052,0.14178,-2.66694,0.95427,1.57082,0.11685,-0.13197,-0.44700,0.06303,,,,,,,,,,,,,,,,,,,,,,,,,,0,0,0,0,0
3.9636,1783720212.9028,1,1,1.0000,0.0000,1.42052,0.14174,-2.66694,0.95431,1.57082,0.11684,-0.13197,-0.44701,0.06302,,,,,,,,,,,,,,,,,,,,,,,,,,0,0,0,0,0
3.9640,1783720212.9031,1,1,1.0000,0.0000,1.42052,0.14174,-2.66694,0.95431,1.57082,0.11684,-0.13197,-0.44701,0.06302,,,,,,,,,,,,,,,,,,,,,,,,,,0,0,0,0,0
3.9685,1783720212.9076,1,1,1.0000,0.0000,1.42052,0.14173,-2.66694,0.95432,1.57082,0.11684,-0.13197,-0.44701,0.06302,,,,,,,,,,,,,,,,,,,,,,,,,,0,0,0,0,0
3.9778,1783720212.9170,1,1,1.0000,0.0000,1.42052,0.14170,-2.66695,0.95437,1.57082,0.11684,-0.13197,-0.44701,0.06301,,,,,,,,,,,,,,,,,,,,,,,,,,0,0,0,0,0
3.9782,1783720212.9174,1,1,1.0000,0.0000,1.42052,0.14170,-2.66695,0.95437,1.57082,0.11684,-0.13197,-0.44701,0.06301,,,,,,,,,,,,,,,,,,,,,,,,,,0,0,0,0,0
4.0005,1783720212.9396,1,1,1.0000,0.0000,1.42052,0.14161,-2.66701,0.95448,1.57082,0.11684,-0.13197,-0.44698,0.06296,,,,,,,,,,,,,,,,,,,,,,,,,,0,0,0,0,0
4.0082,1783720212.9474,1,1,1.0000,0.0000,1.42052,0.14160,-2.66703,0.95450,1.57082,0.11684,-0.13198,-0.44697,0.06295,,,,,,,,,,,,,,,,,,,,,,,,,,0,0,0,0,0
4.0087,1783720212.9479,1,1,1.0000,0.0000,1.42052,0.14160,-2.66703,0.95450,1.57082,0.11684,-0.13198,-0.44697,0.06295,,,,,,,,,,,,,,,,,,,,,,,,,,0,0,0,0,0
4.0175,1783720212.9567,1,1,1.0000,0.0000,1.42052,0.14160,-2.66703,0.95450,1.57082,0.11684,-0.13198,-0.44697,0.06295,,,,,,,,,,,,,,,,,,,,,,,,,,0,0,0,0,0
4.0179,1783720212.9570,1,1,1.0000,0.0000,1.42052,0.14160,-2.66703,0.95450,1.57082,0.11684,-0.13198,-0.44697,0.06295,,,,,,,,,,,,,,,,,,,,,,,,,,0,0,0,0,0
4.0281,1783720212.9673,1,1,1.0000,0.0000,1.42052,0.14160,-2.66703,0.95450,1.57082,0.11684,-0.13198,-0.44697,0.06295,,,,,,,,,,,,,,,,,,,,,,,,,,0,0,0,0,0
4.0286,1783720212.9678,1,1,1.0000,0.0000,1.42052,0.14160,-2.66703,0.95450,1.57082,0.11684,-0.13198,-0.44697,0.06295,,,,,,,,,,,,,,,,,,,,,,,,,,0,0,0,0,0
4.0420,1783720212.9811,1,1,1.0000,0.0000,1.42052,0.14160,-2.66703,0.95450,1.57082,0.11684,-0.13198,-0.44697,0.06295,,,,,,,,,,,,,,,,,,,,,,,,,,0,0,0,0,0
4.0496,1783720212.9887,1,1,1.0000,0.0000,1.42052,0.14160,-2.66703,0.95450,1.57082,0.11684,-0.13198,-0.44697,0.06295,,,,,,,,,,,,,,,,,,,,,,,,,,0,0,0,0,0
4.0499,1783720212.9890,1,1,1.0000,0.0000,1.42052,0.14160,-2.66703,0.95450,1.57082,0.11684,-0.13198,-0.44697,0.06295,,,,,,,,,,,,,,,,,,,,,,,,,,0,0,0,0,0
4.0592,1783720212.9984,1,1,1.0000,0.0000,1.42052,0.14160,-2.66703,0.95450,1.57082,0.11684,-0.13198,-0.44697,0.06295,,,,,,,,,,,,,,,,,,,,,,,,,,0,0,0,0,0
4.0597,1783720212.9989,1,1,1.0000,0.0000,1.42052,0.14160,-2.66703,0.95450,1.57082,0.11684,-0.13198,-0.44697,0.06295,,,,,,,,,,,,,,,,,,,,,,,,,,0,0,0,0,0
4.0683,1783720213.0074,1,1,1.0000,0.0000,1.42052,0.14160,-2.66703,0.95450,1.57082,0.11684,-0.13198,-0.44697,0.06295,,,,,,,,,,,,,,,,,,,,,,,,,,0,0,0,0,0
4.0801,1783720213.0193,1,1,1.0000,0.0000,1.42052,0.14160,-2.66703,0.95450,1.57082,0.11684,-0.13198,-0.44697,0.06295,,,,,,,,,,,,,,,,,,,,,,,,,,0,0,0,0,0
4.0804,1783720213.0195,1,1,1.0000,0.0000,1.42052,0.14160,-2.66703,0.95450,1.57082,0.11684,-0.13198,-0.44697,0.06295,,,,,,,,,,,,,,,,,,,,,,,,,,0,0,0,0,0
4.0887,1783720213.0279,1,1,1.0000,0.0000,1.42052,0.14160,-2.66703,0.95450,1.57082,0.11684,-0.13198,-0.44697,0.06295,,,,,,,,,,,,,,,,,,,,,,,,,,0,0,0,0,0
4.1015,1783720213.0406,1,1,1.0000,0.0000,1.42052,0.14160,-2.66703,0.95450,1.57082,0.11684,-0.13198,-0.44697,0.06295,,,,,,,,,,,,,,,,,,,,,,,,,,0,0,0,0,0
4.1078,1783720213.0470,1,1,1.0000,0.0000,1.42052,0.14160,-2.66703,0.95450,1.57082,0.11684,-0.13198,-0.44697,0.06295,,,,,,,,,,,,,,,,,,,,,,,,,,0,0,0,0,0
4.1176,1783720213.0567,1,1,1.0000,0.0000,1.42052,0.14160,-2.66703,0.95450,1.57082,0.11684,-0.13198,-0.44697,0.06295,,,,,,,,,,,,,,,,,,,,,,,,,,0,0,0,0,0
4.1320,1783720213.0711,1,1,1.0000,0.0000,1.42052,0.14160,-2.66703,0.95450,1.57082,0.11684,-0.13198,-0.44697,0.06295,,,,,,,,,,,,,,,,,,,,,,,,,,0,0,0,0,0
4.1323,1783720213.0714,1,1,1.0000,0.0000,1.42052,0.14160,-2.66703,0.95450,1.57082,0.11684,-0.13198,-0.44697,0.06295,,,,,,,,,,,,,,,,,,,,,,,,,,0,0,0,0,0
4.1394,1783720213.0785,1,1,1.0000,0.0000,1.42052,0.14160,-2.66703,0.95450,1.57082,0.11684,-0.13198,-0.44697,0.06295,,,,,,,,,,,,,,,,,,,,,,,,,,0,0,0,0,0
4.1594,1783720213.0986,1,1,1.0000,0.0000,1.42052,0.14160,-2.66703,0.95450,1.57082,0.11684,-0.13198,-0.44697,0.06295,,,,,,,,,,,,,,,,,,,,,,,,,,0,0,0,0,0
4.1598,1783720213.0989,1,1,1.0000,0.0000,1.42052,0.14160,-2.66703,0.95450,1.57082,0.11684,-0.13198,-0.44697,0.06295,,,,,,,,,,,,,,,,,,,,,,,,,,0,0,0,0,0
4.1623,1783720213.1014,1,1,1.0000,0.0000,1.42052,0.14160,-2.66703,0.95450,1.57082,0.11684,-0.13198,-0.44697,0.06295,,,,,,,,,,,,,,,,,,,,,,,,,,0,0,0,0,0
4.1626,1783720213.1017,1,1,1.0000,0.0000,1.42052,0.14160,-2.66703,0.95450,1.57082,0.11684,-0.13198,-0.44697,0.06295,,,,,,,,,,,,,,,,,,,,,,,,,,0,0,0,0,0
4.1687,1783720213.1079,1,1,1.0000,0.0000,1.42052,0.14160,-2.66703,0.95450,1.57082,0.11684,-0.13198,-0.44697,0.06295,,,,,,,,,,,,,,,,,,,,,,,,,,0,0,0,0,0
4.1832,1783720213.1224,1,1,1.0000,0.0000,1.42052,0.14160,-2.66703,0.95450,1.57082,0.11684,-0.13198,-0.44697,0.06295,,,,,,,,,,,,,,,,,,,,,,,,,,0,0,0,0,0
4.1899,1783720213.1290,1,1,1.0000,0.0000,1.42052,0.14160,-2.66703,0.95450,1.57082,0.11684,-0.13198,-0.44697,0.06295,,,,,,,,,,,,,,,,,,,,,,,,,,0,0,0,0,0
4.2082,1783720213.1474,1,1,1.0000,0.0000,1.42052,0.14160,-2.66703,0.95450,1.57082,0.11684,-0.13198,-0.44697,0.06295,,,,,,,,,,,,,,,,,,,,,,,,,,0,0,0,0,0
4.2085,1783720213.1477,1,1,1.0000,0.0000,1.42052,0.14160,-2.66703,0.95450,1.57082,0.11684,-0.13198,-0.44697,0.06295,,,,,,,,,,,,,,,,,,,,,,,,,,0,0,0,0,0
4.2183,1783720213.1575,1,1,1.0000,0.0000,1.42052,0.14160,-2.66703,0.95450,1.57082,0.11684,-0.13198,-0.44697,0.06295,,,,,,,,,,,,,,,,,,,,,,,,,,0,0,0,0,0
4.2297,1783720213.1689,1,1,1.0000,0.0000,1.42052,0.14160,-2.66703,0.95450,1.57082,0.11684,-0.13198,-0.44697,0.06295,,,,,,,,,,,,,,,,,,,,,,,,,,0,0,0,0,0
4.2398,1783720213.1789,1,1,1.0000,0.0000,1.42052,0.14160,-2.66703,0.95450,1.57082,0.11684,-0.13198,-0.44697,0.06295,,,,,,,,,,,,,,,,,,,,,,,,,,0,0,0,0,0
4.2473,1783720213.1865,1,1,1.0000,0.0000,1.42052,0.14160,-2.66703,0.95450,1.57082,0.11684,-0.13198,-0.44697,0.06295,,,,,,,,,,,,,,,,,,,,,,,,,,0,0,0,0,0
4.2592,1783720213.1984,1,1,1.0000,0.0000,1.42052,0.14160,-2.66703,0.95450,1.57082,0.11684,-0.13198,-0.44697,0.06295,,,,,,,,,,,,,,,,,,,,,,,,,,0,0,0,0,0
4.2673,1783720213.2064,1,1,1.0000,0.0000,1.42052,0.14160,-2.66703,0.95450,1.57082,0.11684,-0.13198,-0.44697,0.06295,,,,,,,,,,,,,,,,,,,,,,,,,,0,0,0,0,0
4.2677,1783720213.2068,1,1,1.0000,0.0000,1.42052,0.14160,-2.66703,0.95450,1.57082,0.11684,-0.13198,-0.44697,0.06295,,,,,,,,,,,,,,,,,,,,,,,,,,0,0,0,0,0
4.2837,1783720213.2229,1,1,1.0000,0.0000,1.42052,0.14157,-2.66703,0.95453,1.57081,0.11684,-0.13197,-0.44698,0.06295,,,,,,,,,,,,,,,,,,,,,,,,,,0,0,0,0,0
4.2922,1783720213.2314,1,1,1.0000,0.0000,1.42052,0.14153,-2.66703,0.95458,1.57081,0.11683,-0.13197,-0.44699,0.06294,,,,,,,,,,,,,,,,,,,,,,,,,,0,0,0,0,0
4.3007,1783720213.2398,1,1,1.0000,0.0000,1.42052,0.14148,-2.66704,0.95465,1.57081,0.11683,-0.13197,-0.44699,0.06293,,,,,,,,,,,,,,,,,,,,,,,,,,0,0,0,0,0
4.3011,1783720213.2403,1,1,1.0000,0.0000,1.42052,0.14148,-2.66704,0.95465,1.57081,0.11683,-0.13197,-0.44699,0.06293,,,,,,,,,,,,,,,,,,,,,,,,,,0,0,0,0,0
4.3088,1783720213.2479,1,1,1.0000,0.0000,1.42052,0.14143,-2.66704,0.95472,1.57081,0.11683,-0.13197,-0.44700,0.06291,,,,,,,,,,,,,,,,,,,,,,,,,,0,0,0,0,0
4.3092,1783720213.2484,1,1,1.0000,0.0000,1.42052,0.14143,-2.66704,0.95472,1.57081,0.11683,-0.13197,-0.44700,0.06291,,,,,,,,,,,,,,,,,,,,,,,,,,0,0,0,0,0
4.3210,1783720213.2602,1,1,1.0000,0.0000,1.42052,0.14136,-2.66706,0.95481,1.57081,0.11683,-0.13197,-0.44700,0.06289,,,,,,,,,,,,,,,,,,,,,,,,,,0,0,0,0,0
4.3291,1783720213.2683,1,1,1.0000,0.0000,1.42052,0.14132,-2.66708,0.95486,1.57081,0.11683,-0.13197,-0.44699,0.06287,,,,,,,,,,,,,,,,,,,,,,,,,,0,0,0,0,0
4.3422,1783720213.2814,1,1,1.0000,0.0000,1.42052,0.14131,-2.66710,0.95487,1.57081,0.11683,-0.13197,-0.44699,0.06287,,,,,,,,,,,,,,,,,,,,,,,,,,0,0,0,0,0
4.3426,1783720213.2817,1,1,1.0000,0.0000,1.42052,0.14131,-2.66710,0.95487,1.57081,0.11683,-0.13197,-0.44699,0.06287,,,,,,,,,,,,,,,,,,,,,,,,,,0,0,0,0,0
4.3494,1783720213.2885,1,1,1.0000,0.0000,1.42052,0.14131,-2.66710,0.95487,1.57081,0.11683,-0.13197,-0.44699,0.06287,,,,,,,,,,,,,,,,,,,,,,,,,,0,0,0,0,0
4.3499,1783720213.2890,1,1,1.0000,0.0000,1.42052,0.14131,-2.66710,0.95487,1.57081,0.11683,-0.13197,-0.44699,0.06287,,,,,,,,,,,,,,,,,,,,,,,,,,0,0,0,0,0
4.3613,1783720213.3004,1,1,1.0000,0.0000,1.42052,0.14131,-2.66710,0.95487,1.57081,0.11683,-0.13197,-0.44699,0.06287,,,,,,,,,,,,,,,,,,,,,,,,,,0,0,0,0,0
4.3679,1783720213.3071,1,1,1.0000,0.0000,1.42052,0.14131,-2.66710,0.95487,1.57081,0.11683,-0.13197,-0.44699,0.06287,,,,,,,,,,,,,,,,,,,,,,,,,,0,0,0,0,0
4.3780,1783720213.3172,1,1,1.0000,0.0000,1.42052,0.14131,-2.66710,0.95487,1.57081,0.11683,-0.13197,-0.44699,0.06287,,,,,,,,,,,,,,,,,,,,,,,,,,0,0,0,0,0
4.3785,1783720213.3176,1,1,1.0000,0.0000,1.42052,0.14131,-2.66710,0.95487,1.57081,0.11683,-0.13197,-0.44699,0.06287,,,,,,,,,,,,,,,,,,,,,,,,,,0,0,0,0,0
4.3907,1783720213.3299,1,1,1.0000,0.0000,1.42052,0.14131,-2.66710,0.95487,1.57081,0.11683,-0.13197,-0.44699,0.06287,,,,,,,,,,,,,,,,,,,,,,,,,,0,0,0,0,0
4.4023,1783720213.3414,1,1,1.0000,0.0000,1.42052,0.14131,-2.66710,0.95487,1.57081,0.11683,-0.13197,-0.44699,0.06287,,,,,,,,,,,,,,,,,,,,,,,,,,0,0,0,0,0
4.4096,1783720213.3487,1,1,1.0000,0.0000,1.42052,0.14131,-2.66710,0.95487,1.57081,0.11683,-0.13197,-0.44699,0.06287,,,,,,,,,,,,,,,,,,,,,,,,,,0,0,0,0,0
4.4178,1783720213.3569,1,1,1.0000,0.0000,1.42052,0.14131,-2.66710,0.95487,1.57081,0.11683,-0.13197,-0.44699,0.06287,,,,,,,,,,,,,,,,,,,,,,,,,,0,0,0,0,0
4.4317,1783720213.3709,1,1,1.0000,0.0000,1.42052,0.14131,-2.66710,0.95487,1.57081,0.11683,-0.13197,-0.44699,0.06287,,,,,,,,,,,,,,,,,,,,,,,,,,0,0,0,0,0
4.4322,1783720213.3714,1,1,1.0000,0.0000,1.42052,0.14131,-2.66710,0.95487,1.57081,0.11683,-0.13197,-0.44699,0.06287,,,,,,,,,,,,,,,,,,,,,,,,,,0,0,0,0,0
4.4396,1783720213.3787,1,1,1.0000,0.0000,1.42052,0.14131,-2.66710,0.95487,1.57081,0.11683,-0.13197,-0.44699,0.06287,,,,,,,,,,,,,,,,,,,,,,,,,,0,0,0,0,0
4.4675,1783720213.4066,1,1,1.0000,0.0000,1.42051,0.14129,-2.66709,0.95490,1.57081,0.11682,-0.13197,-0.44699,0.06286,,,,,,,,,,,,,,,,,,,,,,,,,,0,0,0,0,0
4.4679,1783720213.4070,1,1,1.0000,0.0000,1.42051,0.14129,-2.66709,0.95490,1.57081,0.11682,-0.13197,-0.44699,0.06286,,,,,,,,,,,,,,,,,,,,,,,,,,0,0,0,0,0
4.4701,1783720213.4092,1,1,1.0000,0.0000,1.42051,0.14129,-2.66709,0.95490,1.57081,0.11682,-0.13197,-0.44699,0.06286,,,,,,,,,,,,,,,,,,,,,,,,,,0,0,0,0,0
4.4785,1783720213.4176,1,1,1.0000,0.0000,1.42051,0.14127,-2.66709,0.95493,1.57081,0.11682,-0.13197,-0.44700,0.06286,,,,,,,,,,,,,,,,,,,,,,,,,,0,0,0,0,0
4.4906,1783720213.4298,1,1,1.0000,0.0000,1.42051,0.14122,-2.66709,0.95498,1.57081,0.11682,-0.13197,-0.44701,0.06285,,,,,,,,,,,,,,,,,,,,,,,,,,0,0,0,0,0
4.5004,1783720213.4396,1,1,1.0000,0.0000,1.42051,0.14118,-2.66711,0.95503,1.57081,0.11682,-0.13197,-0.44701,0.06283,,,,,,,,,,,,,,,,,,,,,,,,,,0,0,0,0,0
4.5119,1783720213.4511,1,1,1.0000,0.0000,1.42051,0.14114,-2.66714,0.95507,1.57081,0.11682,-0.13197,-0.44699,0.06281,,,,,,,,,,,,,,,,,,,,,,,,,,0,0,0,0,0
4.5202,1783720213.4594,1,1,1.0000,0.0000,1.42051,0.14114,-2.66714,0.95507,1.57081,0.11682,-0.13197,-0.44699,0.06281,,,,,,,,,,,,,,,,,,,,,,,,,,0,0,0,0,0
4.5278,1783720213.4669,1,1,1.0000,0.0000,1.42051,0.14114,-2.66714,0.95507,1.57081,0.11682,-0.13197,-0.44699,0.06281,,,,,,,,,,,,,,,,,,,,,,,,,,0,0,0,0,0
4.5383,1783720213.4775,1,1,1.0000,0.0000,1.42051,0.14114,-2.66714,0.95507,1.57081,0.11682,-0.13197,-0.44699,0.06281,,,,,,,,,,,,,,,,,,,,,,,,,,0,0,0,0,0
4.5475,1783720213.4867,1,1,1.0000,0.0000,1.42051,0.14114,-2.66714,0.95507,1.57081,0.11682,-0.13197,-0.44699,0.06281,,,,,,,,,,,,,,,,,,,,,,,,,,0,0,0,0,0
4.5485,1783720213.4877,1,1,1.0000,0.0000,1.42051,0.14114,-2.66714,0.95507,1.57081,0.11682,-0.13197,-0.44699,0.06281,,,,,,,,,,,,,,,,,,,,,,,,,,0,0,0,0,0
4.5693,1783720213.5085,1,1,1.0000,0.0000,1.42051,0.14114,-2.66714,0.95507,1.57081,0.11682,-0.13197,-0.44699,0.06281,,,,,,,,,,,,,,,,,,,,,,,,,,0,0,0,0,0
4.5698,1783720213.5089,1,1,1.0000,0.0000,1.42051,0.14114,-2.66714,0.95507,1.57081,0.11682,-0.13197,-0.44699,0.06281,,,,,,,,,,,,,,,,,,,,,,,,,,0,0,0,0,0
4.5811,1783720213.5202,1,1,1.0000,0.0000,1.42051,0.14114,-2.66714,0.95507,1.57081,0.11682,-0.13197,-0.44699,0.06281,,,,,,,,,,,,,,,,,,,,,,,,,,0,0,0,0,0
4.5932,1783720213.5323,1,1,1.0000,0.0000,1.42051,0.14114,-2.66714,0.95507,1.57081,0.11682,-0.13197,-0.44699,0.06281,,,,,,,,,,,,,,,,,,,,,,,,,,0,0,0,0,0
4.5991,1783720213.5382,1,1,1.0000,0.0000,1.42051,0.14114,-2.66714,0.95507,1.57081,0.11682,-0.13197,-0.44699,0.06281,,,,,,,,,,,,,,,,,,,,,,,,,,0,0,0,0,0
4.6105,1783720213.5496,1,1,1.0000,0.0000,1.42051,0.14114,-2.66714,0.95507,1.57081,0.11682,-0.13197,-0.44699,0.06281,,,,,,,,,,,,,,,,,,,,,,,,,,0,0,0,0,0
4.6237,1783720213.5629,1,1,1.0000,0.0000,1.42051,0.14114,-2.66714,0.95507,1.57081,0.11682,-0.13197,-0.44699,0.06281,,,,,,,,,,,,,,,,,,,,,,,,,,0,0,0,0,0
4.6241,1783720213.5632,1,1,1.0000,0.0000,1.42051,0.14114,-2.66714,0.95507,1.57081,0.11682,-0.13197,-0.44699,0.06281,,,,,,,,,,,,,,,,,,,,,,,,,,0,0,0,0,0
4.6311,1783720213.5703,1,1,1.0000,0.0000,1.42051,0.14114,-2.66714,0.95507,1.57081,0.11682,-0.13197,-0.44699,0.06281,,,,,,,,,,,,,,,,,,,,,,,,,,0,0,0,0,0
4.6399,1783720213.5791,1,1,1.0000,0.0000,1.42051,0.14114,-2.66714,0.95507,1.57081,0.11682,-0.13197,-0.44699,0.06281,,,,,,,,,,,,,,,,,,,,,,,,,,0,0,0,0,0
4.6474,1783720213.5865,1,1,1.0000,0.0000,1.42051,0.14114,-2.66714,0.95507,1.57081,0.11682,-0.13197,-0.44699,0.06281,,,,,,,,,,,,,,,,,,,,,,,,,,0,0,0,0,0
4.6477,1783720213.5868,1,1,1.0000,0.0000,1.42051,0.14114,-2.66714,0.95507,1.57081,0.11682,-0.13197,-0.44699,0.06281,,,,,,,,,,,,,,,,,,,,,,,,,,0,0,0,0,0
4.6756,1783720213.6148,1,1,1.0000,0.0000,1.42051,0.14114,-2.66714,0.95507,1.57081,0.11682,-0.13197,-0.44699,0.06281,,,,,,,,,,,,,,,,,,,,,,,,,,0,0,0,0,0
4.6761,1783720213.6152,1,1,1.0000,0.0000,1.42051,0.14114,-2.66714,0.95507,1.57081,0.11682,-0.13197,-0.44699,0.06281,,,,,,,,,,,,,,,,,,,,,,,,,,0,0,0,0,0
4.6840,1783720213.6232,1,1,1.0000,0.0000,1.42051,0.14114,-2.66714,0.95507,1.57081,0.11682,-0.13197,-0.44699,0.06281,,,,,,,,,,,,,,,,,,,,,,,,,,0,0,0,0,0
4.6893,1783720213.6284,1,1,1.0000,0.0000,1.42051,0.14114,-2.66714,0.95507,1.57081,0.11682,-0.13197,-0.44699,0.06281,,,,,,,,,,,,,,,,,,,,,,,,,,0,0,0,0,0
4.7034,1783720213.6425,1,1,1.0000,0.0000,1.42051,0.14114,-2.66714,0.95507,1.57081,0.11682,-0.13197,-0.44699,0.06281,,,,,,,,,,,,,,,,,,,,,,,,,,0,0,0,0,0
4.7316,1783720213.6707,1,1,1.0000,0.0000,1.42051,0.14114,-2.66714,0.95507,1.57081,0.11682,-0.13197,-0.44699,0.06281,,,,,,,,,,,,,,,,,,,,,,,,,,0,0,0,0,0
4.7321,1783720213.6712,1,1,1.0000,0.0000,1.42051,0.14114,-2.66714,0.95507,1.57081,0.11682,-0.13197,-0.44699,0.06281,,,,,,,,,,,,,,,,,,,,,,,,,,0,0,0,0,0
4.7323,1783720213.6714,1,1,1.0000,0.0000,1.42051,0.14114,-2.66714,0.95507,1.57081,0.11682,-0.13197,-0.44699,0.06281,,,,,,,,,,,,,,,,,,,,,,,,,,0,0,0,0,0
4.7326,1783720213.6717,1,1,1.0000,0.0000,1.42051,0.14114,-2.66714,0.95507,1.57081,0.11682,-0.13197,-0.44699,0.06281,,,,,,,,,,,,,,,,,,,,,,,,,,0,0,0,0,0
4.7450,1783720213.6842,1,1,1.0000,0.0000,1.42051,0.14114,-2.66714,0.95507,1.57081,0.11682,-0.13197,-0.44699,0.06281,,,,,,,,,,,,,,,,,,,,,,,,,,0,0,0,0,0
4.7455,1783720213.6847,1,1,1.0000,0.0000,1.42051,0.14114,-2.66714,0.95507,1.57081,0.11682,-0.13197,-0.44699,0.06281,,,,,,,,,,,,,,,,,,,,,,,,,,0,0,0,0,0
4.7495,1783720213.6887,1,1,1.0000,0.0000,1.42051,0.14114,-2.66714,0.95507,1.57081,0.11682,-0.13197,-0.44699,0.06281,,,,,,,,,,,,,,,,,,,,,,,,,,0,0,0,0,0
4.7501,1783720213.6892,1,1,1.0000,0.0000,1.42051,0.14114,-2.66714,0.95507,1.57081,0.11682,-0.13197,-0.44699,0.06281,,,,,,,,,,,,,,,,,,,,,,,,,,0,0,0,0,0
4.7584,1783720213.6976,1,1,1.0000,0.0000,1.42051,0.14114,-2.66714,0.95507,1.57081,0.11682,-0.13197,-0.44699,0.06281,,,,,,,,,,,,,,,,,,,,,,,,,,0,0,0,0,0
4.7713,1783720213.7104,1,1,1.0000,0.0000,1.42051,0.14114,-2.66714,0.95507,1.57081,0.11682,-0.13197,-0.44699,0.06281,,,,,,,,,,,,,,,,,,,,,,,,,,0,0,0,0,0
4.7903,1783720213.7294,1,1,1.0000,0.0000,1.42051,0.14113,-2.66714,0.95509,1.57081,0.11682,-0.13197,-0.44699,0.06281,,,,,,,,,,,,,,,,,,,,,,,,,,0,0,0,0,0
4.7994,1783720213.7385,1,1,1.0000,0.0000,1.42051,0.14108,-2.66715,0.95516,1.57081,0.11682,-0.13197,-0.44700,0.06279,,,,,,,,,,,,,,,,,,,,,,,,,,0,0,0,0,0
4.8041,1783720213.7432,1,1,1.0000,0.0000,1.42051,0.14106,-2.66715,0.95519,1.57081,0.11682,-0.13197,-0.44700,0.06279,,,,,,,,,,,,,,,,,,,,,,,,,,0,0,0,0,0
4.8043,1783720213.7435,1,1,1.0000,0.0000,1.42051,0.14106,-2.66715,0.95519,1.57081,0.11682,-0.13197,-0.44700,0.06279,,,,,,,,,,,,,,,,,,,,,,,,,,0,0,0,0,0
4.8075,1783720213.7466,1,1,1.0000,0.0000,1.42051,0.14103,-2.66716,0.95522,1.57081,0.11682,-0.13197,-0.44700,0.06278,,,,,,,,,,,,,,,,,,,,,,,,,,0,0,0,0,0
4.8206,1783720213.7597,1,1,1.0000,0.0000,1.42051,0.14096,-2.66717,0.95533,1.57081,0.11682,-0.13197,-0.44701,0.06276,,,,,,,,,,,,,,,,,,,,,,,,,,0,0,0,0,0
4.8273,1783720213.7665,1,1,1.0000,0.0000,1.42051,0.14091,-2.66719,0.95539,1.57081,0.11682,-0.13197,-0.44701,0.06274,,,,,,,,,,,,,,,,,,,,,,,,,,0,0,0,0,0
4.8382,1783720213.7773,1,1,1.0000,0.0000,1.42051,0.14088,-2.66722,0.95543,1.57081,0.11682,-0.13197,-0.44699,0.06272,,,,,,,,,,,,,,,,,,,,,,,,,,0,0,0,0,0
4.8489,1783720213.7881,1,1,1.0000,0.0000,1.42051,0.14087,-2.66723,0.95544,1.57081,0.11682,-0.13197,-0.44699,0.06271,,,,,,,,,,,,,,,,,,,,,,,,,,0,0,0,0,0
4.8593,1783720213.7985,1,1,1.0000,0.0000,1.42051,0.14087,-2.66723,0.95544,1.57081,0.11682,-0.13197,-0.44699,0.06271,,,,,,,,,,,,,,,,,,,,,,,,,,0,0,0,0,0
4.8734,1783720213.8125,1,1,1.0000,0.0000,1.42051,0.14087,-2.66723,0.95544,1.57081,0.11682,-0.13197,-0.44699,0.06271,,,,,,,,,,,,,,,,,,,,,,,,,,0,0,0,0,0
4.8785,1783720213.8177,1,1,1.0000,0.0000,1.42051,0.14087,-2.66723,0.95544,1.57081,0.11682,-0.13197,-0.44699,0.06271,,,,,,,,,,,,,,,,,,,,,,,,,,0,0,0,0,0
4.8884,1783720213.8276,1,1,1.0000,0.0000,1.42051,0.14087,-2.66723,0.95544,1.57081,0.11682,-0.13197,-0.44699,0.06271,,,,,,,,,,,,,,,,,,,,,,,,,,0,0,0,0,0
4.9049,1783720213.8441,1,1,1.0000,0.0000,1.42051,0.14087,-2.66723,0.95544,1.57081,0.11682,-0.13197,-0.44699,0.06271,,,,,,,,,,,,,,,,,,,,,,,,,,0,0,0,0,0
4.9406,1783720213.8798,1,1,1.0000,0.0000,1.42051,0.14087,-2.66723,0.95544,1.57081,0.11682,-0.13197,-0.44699,0.06271,,,,,,,,,,,,,,,,,,,,,,,,,,0,0,0,0,0
4.9411,1783720213.8803,1,1,1.0000,0.0000,1.42051,0.14087,-2.66723,0.95544,1.57081,0.11682,-0.13197,-0.44699,0.06271,,,,,,,,,,,,,,,,,,,,,,,,,,0,0,0,0,0
4.9416,1783720213.8808,1,1,1.0000,0.0000,1.42051,0.14087,-2.66723,0.95544,1.57081,0.11682,-0.13197,-0.44699,0.06271,,,,,,,,,,,,,,,,,,,,,,,,,,0,0,0,0,0
4.9476,1783720213.8867,1,1,1.0000,0.0000,1.42051,0.14087,-2.66723,0.95544,1.57081,0.11682,-0.13197,-0.44699,0.06271,,,,,,,,,,,,,,,,,,,,,,,,,,0,0,0,0,0
4.9480,1783720213.8872,1,1,1.0000,0.0000,1.42051,0.14087,-2.66723,0.95544,1.57081,0.11682,-0.13197,-0.44699,0.06271,,,,,,,,,,,,,,,,,,,,,,,,,,0,0,0,0,0
4.9621,1783720213.9012,1,1,1.0000,0.0000,1.42051,0.14087,-2.66723,0.95544,1.57081,0.11682,-0.13197,-0.44699,0.06271,,,,,,,,,,,,,,,,,,,,,,,,,,0,0,0,0,0
4.9683,1783720213.9075,1,1,1.0000,0.0000,1.42051,0.14087,-2.66723,0.95545,1.57081,0.11682,-0.13197,-0.44699,0.06271,,,,,,,,,,,,,,,,,,,,,,,,,,0,0,0,0,0
4.9780,1783720213.9172,1,1,1.0000,0.0000,1.42051,0.14085,-2.66723,0.95547,1.57080,0.11682,-0.13197,-0.44699,0.06271,,,,,,,,,,,,,,,,,,,,,,,,,,0,0,0,0,0
4.9897,1783720213.9288,1,1,1.0000,0.0000,1.42051,0.14081,-2.66722,0.95552,1.57080,0.11682,-0.13197,-0.44701,0.06271,,,,,,,,,,,,,,,,,,,,,,,,,,0,0,0,0,0
4.9990,1783720213.9382,1,1,1.0000,0.0000,1.42051,0.14078,-2.66722,0.95555,1.57080,0.11682,-0.13197,-0.44701,0.06270,,,,,,,,,,,,,,,,,,,,,,,,,,0,0,0,0,0
5.0083,1783720213.9474,1,1,1.0000,0.0000,1.42051,0.14074,-2.66723,0.95561,1.57080,0.11682,-0.13197,-0.44701,0.06269,,,,,,,,,,,,,,,,,,,,,,,,,,0,0,0,0,0
5.0182,1783720213.9574,1,1,1.0000,0.0000,1.42051,0.14071,-2.66725,0.95564,1.57080,0.11682,-0.13197,-0.44700,0.06267,,,,,,,,,,,,,,,,,,,,,,,,,,0,0,0,0,0
5.0316,1783720213.9707,1,1,1.0000,0.0000,1.42051,0.14070,-2.66726,0.95565,1.57080,0.11682,-0.13197,-0.44700,0.06267,,,,,,,,,,,,,,,,,,,,,,,,,,0,0,0,0,0
5.0407,1783720213.9798,1,1,1.0000,0.0000,1.42051,0.14070,-2.66726,0.95565,1.57080,0.11682,-0.13197,-0.44700,0.06267,,,,,,,,,,,,,,,,,,,,,,,,,,0,0,0,0,0
5.0409,1783720213.9801,1,1,1.0000,0.0000,1.42051,0.14070,-2.66726,0.95565,1.57080,0.11682,-0.13197,-0.44700,0.06267,,,,,,,,,,,,,,,,,,,,,,,,,,0,0,0,0,0
5.0491,1783720213.9882,1,1,1.0000,0.0000,1.42051,0.14070,-2.66726,0.95565,1.57080,0.11682,-0.13197,-0.44700,0.06267,,,,,,,,,,,,,,,,,,,,,,,,,,0,0,0,0,0
5.0495,1783720213.9886,1,1,1.0000,0.0000,1.42051,0.14070,-2.66726,0.95565,1.57080,0.11682,-0.13197,-0.44700,0.06267,,,,,,,,,,,,,,,,,,,,,,,,,,0,0,0,0,0
5.0597,1783720213.9988,1,1,1.0000,0.0000,1.42051,0.14070,-2.66726,0.95565,1.57080,0.11682,-0.13197,-0.44700,0.06267,,,,,,,,,,,,,,,,,,,,,,,,,,0,0,0,0,0
5.0678,1783720214.0069,1,1,1.0000,0.0000,1.42051,0.14070,-2.66726,0.95565,1.57080,0.11682,-0.13197,-0.44700,0.06267,,,,,,,,,,,,,,,,,,,,,,,,,,0,0,0,0,0
5.0781,1783720214.0173,1,1,1.0000,0.0000,1.42051,0.14070,-2.66726,0.95565,1.57080,0.11682,-0.13197,-0.44700,0.06267,,,,,,,,,,,,,,,,,,,,,,,,,,0,0,0,0,0
5.0893,1783720214.0285,1,1,1.0000,0.0000,1.42051,0.14070,-2.66726,0.95565,1.57080,0.11682,-0.13197,-0.44700,0.06267,,,,,,,,,,,,,,,,,,,,,,,,,,0,0,0,0,0
5.1006,1783720214.0398,1,1,1.0000,0.0000,1.42051,0.14070,-2.66726,0.95565,1.57080,0.11682,-0.13197,-0.44700,0.06267,,,,,,,,,,,,,,,,,,,,,,,,,,0,0,0,0,0
5.1011,1783720214.0402,1,1,1.0000,0.0000,1.42051,0.14070,-2.66726,0.95565,1.57080,0.11682,-0.13197,-0.44700,0.06267,,,,,,,,,,,,,,,,,,,,,,,,,,0,0,0,0,0
5.1192,1783720214.0584,1,1,1.0000,0.0000,1.42051,0.14070,-2.66726,0.95565,1.57080,0.11682,-0.13197,-0.44700,0.06267,,,,,,,,,,,,,,,,,,,,,,,,,,0,0,0,0,0
5.1257,1783720214.0648,1,1,1.0000,0.0000,1.42051,0.14070,-2.66726,0.95565,1.57080,0.11682,-0.13197,-0.44700,0.06267,,,,,,,,,,,,,,,,,,,,,,,,,,0,0,0,0,0
5.1260,1783720214.0652,1,1,1.0000,0.0000,1.42051,0.14070,-2.66726,0.95565,1.57080,0.11682,-0.13197,-0.44700,0.06267,,,,,,,,,,,,,,,,,,,,,,,,,,0,0,0,0,0
5.1284,1783720214.0676,1,1,1.0000,0.0000,1.42051,0.14070,-2.66726,0.95565,1.57080,0.11682,-0.13197,-0.44700,0.06267,,,,,,,,,,,,,,,,,,,,,,,,,,0,0,0,0,0
5.1288,1783720214.0680,1,1,1.0000,0.0000,1.42051,0.14070,-2.66726,0.95565,1.57080,0.11682,-0.13197,-0.44700,0.06267,,,,,,,,,,,,,,,,,,,,,,,,,,0,0,0,0,0
5.1426,1783720214.0818,1,1,1.0000,0.0000,1.42051,0.14070,-2.66726,0.95565,1.57080,0.11682,-0.13197,-0.44700,0.06267,,,,,,,,,,,,,,,,,,,,,,,,,,0,0,0,0,0
5.1521,1783720214.0912,1,1,1.0000,0.0000,1.42051,0.14070,-2.66726,0.95565,1.57080,0.11682,-0.13197,-0.44700,0.06267,,,,,,,,,,,,,,,,,,,,,,,,,,0,0,0,0,0
5.1709,1783720214.1100,1,1,1.0000,0.0000,1.42051,0.14070,-2.66726,0.95565,1.57080,0.11682,-0.13197,-0.44700,0.06267,,,,,,,,,,,,,,,,,,,,,,,,,,0,0,0,0,0
5.1757,1783720214.1148,1,1,1.0000,0.0000,1.42051,0.14070,-2.66726,0.95565,1.57080,0.11682,-0.13197,-0.44700,0.06267,,,,,,,,,,,,,,,,,,,,,,,,,,0,0,0,0,0
5.1801,1783720214.1192,1,1,1.0000,0.0000,1.42051,0.14070,-2.66726,0.95565,1.57080,0.11682,-0.13197,-0.44700,0.06267,,,,,,,,,,,,,,,,,,,,,,,,,,0,0,0,0,0
5.1804,1783720214.1195,1,1,1.0000,0.0000,1.42051,0.14070,-2.66726,0.95565,1.57080,0.11682,-0.13197,-0.44700,0.06267,,,,,,,,,,,,,,,,,,,,,,,,,,0,0,0,0,0
5.1924,1783720214.1316,1,1,1.0000,0.0000,1.42051,0.14070,-2.66726,0.95565,1.57080,0.11682,-0.13197,-0.44700,0.06267,,,,,,,,,,,,,,,,,,,,,,,,,,0,0,0,0,0
5.1928,1783720214.1320,1,1,1.0000,0.0000,1.42051,0.14070,-2.66726,0.95565,1.57080,0.11682,-0.13197,-0.44700,0.06267,,,,,,,,,,,,,,,,,,,,,,,,,,0,0,0,0,0
5.1989,1783720214.1381,1,1,1.0000,0.0000,1.42051,0.14070,-2.66726,0.95565,1.57080,0.11682,-0.13197,-0.44700,0.06267,,,,,,,,,,,,,,,,,,,,,,,,,,0,0,0,0,0
5.2110,1783720214.1501,1,1,1.0000,0.0000,1.42051,0.14070,-2.66726,0.95565,1.57080,0.11682,-0.13197,-0.44700,0.06267,,,,,,,,,,,,,,,,,,,,,,,,,,0,0,0,0,0
5.2114,1783720214.1505,1,1,1.0000,0.0000,1.42051,0.14070,-2.66726,0.95565,1.57080,0.11682,-0.13197,-0.44700,0.06267,,,,,,,,,,,,,,,,,,,,,,,,,,0,0,0,0,0
5.2490,1783720214.1882,1,1,1.0000,0.0000,1.42051,0.14070,-2.66726,0.95565,1.57080,0.11682,-0.13197,-0.44700,0.06267,,,,,,,,,,,,,,,,,,,,,,,,,,0,0,0,0,0
5.2497,1783720214.1888,1,1,1.0000,0.0000,1.42051,0.14070,-2.66726,0.95565,1.57080,0.11682,-0.13197,-0.44700,0.06267,,,,,,,,,,,,,,,,,,,,,,,,,,0,0,0,0,0
5.2536,1783720214.1928,1,1,1.0000,0.0000,1.42051,0.14070,-2.66726,0.95565,1.57080,0.11682,-0.13197,-0.44700,0.06267,,,,,,,,,,,,,,,,,,,,,,,,,,0,0,0,0,0
5.2584,1783720214.1976,1,1,1.0000,0.0000,1.42051,0.14070,-2.66726,0.95565,1.57080,0.11682,-0.13197,-0.44700,0.06267,,,,,,,,,,,,,,,,,,,,,,,,,,0,0,0,0,0
5.2588,1783720214.1980,1,1,1.0000,0.0000,1.42051,0.14070,-2.66726,0.95565,1.57080,0.11682,-0.13197,-0.44700,0.06267,,,,,,,,,,,,,,,,,,,,,,,,,,0,0,0,0,0
5.2686,1783720214.2077,1,1,1.0000,0.0000,1.42051,0.14070,-2.66726,0.95565,1.57080,0.11682,-0.13197,-0.44700,0.06267,,,,,,,,,,,,,,,,,,,,,,,,,,0,0,0,0,0
5.2838,1783720214.2230,1,1,1.0000,0.0000,1.42051,0.14070,-2.66726,0.95565,1.57080,0.11682,-0.13197,-0.44700,0.06267,,,,,,,,,,,,,,,,,,,,,,,,,,0,0,0,0,0
5.2879,1783720214.2271,1,1,1.0000,0.0000,1.42051,0.14070,-2.66726,0.95565,1.57080,0.11682,-0.13197,-0.44700,0.06267,,,,,,,,,,,,,,,,,,,,,,,,,,0,0,0,0,0
5.2882,1783720214.2273,1,1,1.0000,0.0000,1.42051,0.14070,-2.66726,0.95565,1.57080,0.11682,-0.13197,-0.44700,0.06267,,,,,,,,,,,,,,,,,,,,,,,,,,0,0,0,0,0
5.3683,1783720214.3074,1,1,1.0000,0.0000,1.42051,0.14043,-2.66730,0.95601,1.57080,0.11681,-0.13197,-0.44703,0.06259,,,,,,,,,,,,,,,,,,,,,,,,,,0,0,0,0,0
5.3686,1783720214.3078,1,1,1.0000,0.0000,1.42051,0.14043,-2.66730,0.95601,1.57080,0.11681,-0.13197,-0.44703,0.06259,,,,,,,,,,,,,,,,,,,,,,,,,,0,0,0,0,0
5.3689,1783720214.3081,1,1,1.0000,0.0000,1.42051,0.14043,-2.66730,0.95601,1.57080,0.11681,-0.13197,-0.44703,0.06259,,,,,,,,,,,,,,,,,,,,,,,,,,0,0,0,0,0
5.3693,1783720214.3084,1,1,1.0000,0.0000,1.42051,0.14043,-2.66730,0.95601,1.57080,0.11681,-0.13197,-0.44703,0.06259,,,,,,,,,,,,,,,,,,,,,,,,,,0,0,0,0,0
5.3696,1783720214.3088,1,1,1.0000,0.0000,1.42051,0.14043,-2.66730,0.95601,1.57080,0.11681,-0.13197,-0.44703,0.06259,,,,,,,,,,,,,,,,,,,,,,,,,,0,0,0,0,0
5.3699,1783720214.3091,1,1,1.0000,0.0000,1.42051,0.14043,-2.66730,0.95601,1.57080,0.11681,-0.13197,-0.44703,0.06259,,,,,,,,,,,,,,,,,,,,,,,,,,0,0,0,0,0
5.3703,1783720214.3094,1,1,1.0000,0.0000,1.42051,0.14043,-2.66730,0.95601,1.57080,0.11681,-0.13197,-0.44703,0.06259,,,,,,,,,,,,,,,,,,,,,,,,,,0,0,0,0,0
5.3737,1783720214.3129,1,1,1.0000,0.0000,1.42051,0.14042,-2.66730,0.95602,1.57080,0.11681,-0.13197,-0.44703,0.06259,,,,,,,,,,,,,,,,,,,,,,,,,,0,0,0,0,0
5.3741,1783720214.3133,1,1,1.0000,0.0000,1.42051,0.14042,-2.66730,0.95602,1.57080,0.11681,-0.13197,-0.44703,0.06259,,,,,,,,,,,,,,,,,,,,,,,,,,0,0,0,0,0
5.3804,1783720214.3195,1,1,1.0000,0.0000,1.42051,0.14040,-2.66728,0.95604,1.57080,0.11681,-0.13196,-0.44705,0.06260,,,,,,,,,,,,,,,,,,,,,,,,,,0,0,0,0,0
5.3909,1783720214.3301,1,1,1.0000,0.0000,1.42051,0.14040,-2.66728,0.95604,1.57080,0.11681,-0.13196,-0.44705,0.06260,,,,,,,,,,,,,,,,,,,,,,,,,,0,0,0,0,0
5.3988,1783720214.3379,1,1,1.0000,0.0000,1.42051,0.14040,-2.66728,0.95604,1.57080,0.11681,-0.13196,-0.44705,0.06260,,,,,,,,,,,,,,,,,,,,,,,,,,0,0,0,0,0
5.4118,1783720214.3509,1,1,1.0000,0.0000,1.42051,0.14040,-2.66728,0.95604,1.57080,0.11681,-0.13196,-0.44705,0.06260,,,,,,,,,,,,,,,,,,,,,,,,,,0,0,0,0,0
5.4182,1783720214.3574,1,1,1.0000,0.0000,1.42051,0.14040,-2.66728,0.95604,1.57080,0.11681,-0.13196,-0.44705,0.06260,,,,,,,,,,,,,,,,,,,,,,,,,,0,0,0,0,0
5.4318,1783720214.3709,1,1,1.0000,0.0000,1.42051,0.14040,-2.66728,0.95604,1.57080,0.11681,-0.13196,-0.44705,0.06260,,,,,,,,,,,,,,,,,,,,,,,,,,0,0,0,0,0
5.4417,1783720214.3809,1,1,1.0000,0.0000,1.42051,0.14040,-2.66728,0.95604,1.57080,0.11681,-0.13196,-0.44705,0.06260,,,,,,,,,,,,,,,,,,,,,,,,,,0,0,0,0,0
5.4515,1783720214.3906,1,1,1.0000,0.0000,1.42051,0.14040,-2.66728,0.95604,1.57080,0.11681,-0.13196,-0.44705,0.06260,,,,,,,,,,,,,,,,,,,,,,,,,,0,0,0,0,0
5.4584,1783720214.3976,1,1,1.0000,0.0000,1.42051,0.14040,-2.66728,0.95604,1.57080,0.11681,-0.13196,-0.44705,0.06260,,,,,,,,,,,,,,,,,,,,,,,,,,0,0,0,0,0
5.4686,1783720214.4078,1,1,1.0000,0.0000,1.42051,0.14040,-2.66728,0.95604,1.57080,0.11681,-0.13196,-0.44705,0.06260,,,,,,,,,,,,,,,,,,,,,,,,,,0,0,0,0,0
5.4774,1783720214.4165,1,1,1.0000,0.0000,1.42051,0.14040,-2.66728,0.95604,1.57080,0.11681,-0.13196,-0.44705,0.06260,,,,,,,,,,,,,,,,,,,,,,,,,,0,0,0,0,0
5.4883,1783720214.4275,1,1,1.0000,0.0000,1.42051,0.14040,-2.66728,0.95604,1.57080,0.11681,-0.13196,-0.44705,0.06260,,,,,,,,,,,,,,,,,,,,,,,,,,0,0,0,0,0
5.4988,1783720214.4380,1,1,1.0000,0.0000,1.42051,0.14040,-2.66728,0.95604,1.57080,0.11681,-0.13196,-0.44705,0.06260,,,,,,,,,,,,,,,,,,,,,,,,,,0,0,0,0,0
5.5106,1783720214.4497,1,1,1.0000,0.0000,1.42051,0.14040,-2.66728,0.95604,1.57080,0.11681,-0.13196,-0.44705,0.06260,,,,,,,,,,,,,,,,,,,,,,,,,,0,0,0,0,0
5.5179,1783720214.4570,1,1,1.0000,0.0000,1.42051,0.14040,-2.66728,0.95604,1.57080,0.11681,-0.13196,-0.44705,0.06260,,,,,,,,,,,,,,,,,,,,,,,,,,0,0,0,0,0
5.5296,1783720214.4687,1,1,1.0000,0.0000,1.42051,0.14040,-2.66728,0.95604,1.57080,0.11681,-0.13196,-0.44705,0.06260,,,,,,,,,,,,,,,,,,,,,,,,,,0,0,0,0,0
5.5384,1783720214.4776,1,1,1.0000,0.0000,1.42051,0.14040,-2.66728,0.95604,1.57080,0.11681,-0.13196,-0.44705,0.06260,,,,,,,,,,,,,,,,,,,,,,,,,,0,0,0,0,0
5.5515,1783720214.4907,1,1,1.0000,0.0000,1.42051,0.14040,-2.66728,0.95604,1.57080,0.11681,-0.13196,-0.44705,0.06260,,,,,,,,,,,,,,,,,,,,,,,,,,0,0,0,0,0
5.5605,1783720214.4997,1,1,1.0000,0.0000,1.42051,0.14040,-2.66728,0.95604,1.57080,0.11681,-0.13196,-0.44705,0.06260,,,,,,,,,,,,,,,,,,,,,,,,,,0,0,0,0,0
5.5706,1783720214.5097,1,1,1.0000,0.0000,1.42051,0.14040,-2.66728,0.95604,1.57080,0.11681,-0.13196,-0.44705,0.06260,,,,,,,,,,,,,,,,,,,,,,,,,,0,0,0,0,0
5.5774,1783720214.5166,1,1,1.0000,0.0000,1.42051,0.14040,-2.66728,0.95604,1.57080,0.11681,-0.13196,-0.44705,0.06260,,,,,,,,,,,,,,,,,,,,,,,,,,0,0,0,0,0
5.5901,1783720214.5292,1,1,1.0000,0.0000,1.42051,0.14040,-2.66728,0.95604,1.57080,0.11681,-0.13196,-0.44705,0.06260,,,,,,,,,,,,,,,,,,,,,,,,,,0,0,0,0,0
5.5995,1783720214.5386,1,1,1.0000,0.0000,1.42051,0.14040,-2.66728,0.95604,1.57080,0.11681,-0.13196,-0.44705,0.06260,,,,,,,,,,,,,,,,,,,,,,,,,,0,0,0,0,0
5.6089,1783720214.5480,1,1,1.0000,0.0000,1.42051,0.14040,-2.66728,0.95604,1.57080,0.11681,-0.13196,-0.44705,0.06260,,,,,,,,,,,,,,,,,,,,,,,,,,0,0,0,0,0
5.6216,1783720214.5608,1,1,1.0000,0.0000,1.42051,0.14040,-2.66728,0.95604,1.57080,0.11681,-0.13196,-0.44705,0.06260,,,,,,,,,,,,,,,,,,,,,,,,,,0,0,0,0,0
5.6289,1783720214.5681,1,1,1.0000,0.0000,1.42051,0.14040,-2.66728,0.95604,1.57080,0.11681,-0.13196,-0.44705,0.06260,,,,,,,,,,,,,,,,,,,,,,,,,,0,0,0,0,0
5.6394,1783720214.5785,1,1,1.0000,0.0000,1.42051,0.14038,-2.66729,0.95607,1.57080,0.11681,-0.13196,-0.44705,0.06259,,,,,,,,,,,,,,,,,,,,,,,,,,0,0,0,0,0
5.6493,1783720214.5885,1,1,1.0000,0.0000,1.42051,0.14032,-2.66732,0.95615,1.57080,0.11681,-0.13196,-0.44704,0.06256,,,,,,,,,,,,,,,,,,,,,,,,,,0,0,0,0,0
5.6585,1783720214.5976,1,1,1.0000,0.0000,1.42051,0.14026,-2.66734,0.95622,1.57080,0.11681,-0.13197,-0.44703,0.06254,,,,,,,,,,,,,,,,,,,,,,,,,,0,0,0,0,0
5.6742,1783720214.6133,1,1,1.0000,0.0000,1.42051,0.14016,-2.66741,0.95635,1.57080,0.11681,-0.13197,-0.44701,0.06249,,,,,,,,,,,,,,,,,,,,,,,,,,0,0,0,0,0
5.6795,1783720214.6187,1,1,1.0000,0.0000,1.42051,0.14015,-2.66743,0.95638,1.57080,0.11681,-0.13197,-0.44700,0.06247,,,,,,,,,,,,,,,,,,,,,,,,,,0,0,0,0,0
5.6936,1783720214.6328,1,1,1.0000,0.0000,1.42051,0.14012,-2.66747,0.95641,1.57080,0.11681,-0.13197,-0.44698,0.06245,,,,,,,,,,,,,,,,,,,,,,,,,,0,0,0,0,0
5.6975,1783720214.6366,1,1,1.0000,0.0000,1.42051,0.14012,-2.66747,0.95641,1.57080,0.11681,-0.13197,-0.44698,0.06245,,,,,,,,,,,,,,,,,,,,,,,,,,0,0,0,0,0
5.7080,1783720214.6472,1,1,1.0000,0.0000,1.42051,0.14012,-2.66747,0.95641,1.57080,0.11681,-0.13197,-0.44698,0.06245,,,,,,,,,,,,,,,,,,,,,,,,,,0,0,0,0,0
5.7313,1783720214.6705,1,1,1.0000,0.0000,1.42051,0.14012,-2.66747,0.95641,1.57080,0.11681,-0.13197,-0.44698,0.06245,,,,,,,,,,,,,,,,,,,,,,,,,,0,0,0,0,0
5.7321,1783720214.6712,1,1,1.0000,0.0000,1.42051,0.14012,-2.66747,0.95641,1.57080,0.11681,-0.13197,-0.44698,0.06245,,,,,,,,,,,,,,,,,,,,,,,,,,0,0,0,0,0
5.7445,1783720214.6836,1,1,1.0000,0.0000,1.42051,0.14012,-2.66747,0.95641,1.57080,0.11681,-0.13197,-0.44698,0.06245,,,,,,,,,,,,,,,,,,,,,,,,,,0,0,0,0,0
5.7562,1783720214.6954,1,1,1.0000,0.0000,1.42051,0.14012,-2.66747,0.95641,1.57080,0.11681,-0.13197,-0.44698,0.06245,,,,,,,,,,,,,,,,,,,,,,,,,,0,0,0,0,0
5.7574,1783720214.6966,1,1,1.0000,0.0000,1.42051,0.14012,-2.66747,0.95641,1.57080,0.11681,-0.13197,-0.44698,0.06245,,,,,,,,,,,,,,,,,,,,,,,,,,0,0,0,0,0
5.7578,1783720214.6970,1,1,1.0000,0.0000,1.42051,0.14012,-2.66747,0.95641,1.57080,0.11681,-0.13197,-0.44698,0.06245,,,,,,,,,,,,,,,,,,,,,,,,,,0,0,0,0,0
5.7675,1783720214.7067,1,1,1.0000,0.0000,1.42051,0.14012,-2.66747,0.95641,1.57080,0.11681,-0.13197,-0.44698,0.06245,,,,,,,,,,,,,,,,,,,,,,,,,,0,0,0,0,0
5.7777,1783720214.7168,1,1,1.0000,0.0000,1.42051,0.14012,-2.66747,0.95641,1.57080,0.11681,-0.13197,-0.44698,0.06245,,,,,,,,,,,,,,,,,,,,,,,,,,0,0,0,0,0
5.7881,1783720214.7272,1,1,1.0000,0.0000,1.42051,0.14012,-2.66747,0.95641,1.57080,0.11681,-0.13197,-0.44698,0.06245,,,,,,,,,,,,,,,,,,,,,,,,,,0,0,0,0,0
5.8091,1783720214.7482,1,1,1.0000,0.0000,1.42051,0.14012,-2.66747,0.95641,1.57080,0.11681,-0.13197,-0.44698,0.06245,,,,,,,,,,,,,,,,,,,,,,,,,,0,0,0,0,0
5.8094,1783720214.7485,1,1,1.0000,0.0000,1.42051,0.14012,-2.66747,0.95641,1.57080,0.11681,-0.13197,-0.44698,0.06245,,,,,,,,,,,,,,,,,,,,,,,,,,0,0,0,0,0
5.8228,1783720214.7619,1,1,1.0000,0.0000,1.42051,0.14012,-2.66747,0.95641,1.57080,0.11681,-0.13197,-0.44698,0.06245,,,,,,,,,,,,,,,,,,,,,,,,,,0,0,0,0,0
5.8232,1783720214.7624,1,1,1.0000,0.0000,1.42051,0.14012,-2.66747,0.95641,1.57080,0.11681,-0.13197,-0.44698,0.06245,,,,,,,,,,,,,,,,,,,,,,,,,,0,0,0,0,0
5.8321,1783720214.7712,1,1,1.0000,0.0000,1.42051,0.14012,-2.66747,0.95641,1.57080,0.11681,-0.13197,-0.44698,0.06245,,,,,,,,,,,,,,,,,,,,,,,,,,0,0,0,0,0
5.8378,1783720214.7769,1,1,1.0000,0.0000,1.42051,0.14012,-2.66747,0.95641,1.57080,0.11681,-0.13197,-0.44698,0.06245,,,,,,,,,,,,,,,,,,,,,,,,,,0,0,0,0,0
5.8510,1783720214.7901,1,1,1.0000,0.0000,1.42051,0.14012,-2.66747,0.95641,1.57080,0.11681,-0.13197,-0.44698,0.06245,,,,,,,,,,,,,,,,,,,,,,,,,,0,0,0,0,0
5.8578,1783720214.7970,1,1,1.0000,0.0000,1.42051,0.14012,-2.66747,0.95641,1.57080,0.11681,-0.13197,-0.44698,0.06245,,,,,,,,,,,,,,,,,,,,,,,,,,0,0,0,0,0
5.8694,1783720214.8085,1,1,1.0000,0.0000,1.42051,0.14012,-2.66747,0.95641,1.57080,0.11681,-0.13197,-0.44698,0.06245,,,,,,,,,,,,,,,,,,,,,,,,,,0,0,0,0,0
