Martins-Lucaas/twinforge/sensors/Data/20260718_150201__samples.csv
t_rel_s,t_unix,cycle,phase,setpoint_n,force_net_n,q1,q2,q3,q4,q5,q6,tcp_x,tcp_y,tcp_z,taxel_0,taxel_1,taxel_2,taxel_3,taxel_4,taxel_5,taxel_6,taxel_7,taxel_8,taxel_9,taxel_10,taxel_11,taxel_12,taxel_13,taxel_14,taxel_15,taxel_16,taxel_17,taxel_18,taxel_19,taxel_20,taxel_21,taxel_22,taxel_23,taxel_24,n_RA,n_SA,cn_mm,cn_ra,cn_sa
0.0181,1784397721.5737,1,0,7.0000,0.0260,1.42138,0.26877,-2.61217,0.77266,1.57115,0.27401,-0.13360,-0.39486,0.05015,,,,,,,,,,,,,,,,,,,,,,,,,,0,0,0,0,0
0.1103,1784397721.6659,1,0,7.0000,0.0264,1.42138,0.26877,-2.61217,0.77266,1.57080,0.27401,-0.13371,-0.39487,0.05015,,,,,,,,,,,,,,,,,,,,,,,,,,0,0,0,0,0
0.2089,1784397721.7645,1,0,7.0000,0.0297,1.42138,0.26877,-2.61217,0.77266,1.57080,0.27401,-0.13371,-0.39487,0.05015,,,,,,,,,,,,,,,,,,,,,,,,,,0,0,0,0,0
0.3080,1784397721.8636,1,0,7.0000,0.0307,1.42138,0.26877,-2.61217,0.77266,1.57080,0.27401,-0.13371,-0.39487,0.05015,,,,,,,,,,,,,,,,,,,,,,,,,,0,0,0,0,0
0.4070,1784397721.9625,1,0,7.0000,0.0298,1.42138,0.26877,-2.61217,0.77266,1.57080,0.27401,-0.13371,-0.39487,0.05015,,,,,,,,,,,,,,,,,,,,,,,,,,0,0,0,0,0
0.4987,1784397722.0543,1,0,7.0000,0.0296,1.42138,0.26877,-2.61217,0.77266,1.57080,0.27401,-0.13371,-0.39487,0.05015,,,,,,,,,,,,,,,,,,,,,,,,,,0,0,0,0,0
0.5980,1784397722.1535,1,0,7.0000,0.0316,1.42138,0.26877,-2.61217,0.77266,1.57080,0.27401,-0.13371,-0.39487,0.05015,,,,,,,,,,,,,,,,,,,,,,,,,,0,0,0,0,0
0.6976,1784397722.2531,1,0,7.0000,0.0322,1.42138,0.26877,-2.61217,0.77266,1.57080,0.27401,-0.13371,-0.39487,0.05015,,,,,,,,,,,,,,,,,,,,,,,,,,0,0,0,0,0
0.7914,1784397722.3470,1,1,7.0000,0.0324,1.42138,0.26877,-2.61217,0.77266,1.57080,0.27401,-0.13371,-0.39487,0.05015,,,,,,,,,,,,,,,,,,,,,,,,,,0,0,0,0,0
0.8891,1784397722.4446,1,1,7.0000,0.0294,1.42138,0.26877,-2.61217,0.77266,1.57080,0.27401,-0.13371,-0.39487,0.05015,,,,,,,,,,,,,,,,,,,,,,,,,,0,0,0,0,0
0.9867,1784397722.5423,1,1,7.0000,0.0253,1.42138,0.26877,-2.61217,0.77266,1.57080,0.27401,-0.13371,-0.39487,0.05015,,,,,,,,,,,,,,,,,,,,,,,,,,0,0,0,0,0
1.0847,1784397722.6402,1,1,7.0000,0.0241,1.42138,0.26868,-2.61227,0.77276,1.57080,0.27401,-0.13372,-0.39482,0.05008,,,,,,,,,,,,,,,,,,,,,,,,,,0,0,0,0,0
1.1859,1784397722.7415,1,1,7.0000,0.0239,1.42138,0.26826,-2.61246,0.77333,1.57080,0.27401,-0.13372,-0.39482,0.04989,,,,,,,,,,,,,,,,,,,,,,,,,,0,0,0,0,0
1.3682,1784397722.9237,1,1,7.0000,0.0251,1.42138,0.26785,-2.61251,0.77396,1.57080,0.27401,-0.13370,-0.39493,0.04979,,,,,,,,,,,,,,,,,,,,,,,,,,0,0,0,0,0
1.3761,1784397722.9316,1,1,7.0000,0.0311,1.42138,0.26785,-2.61251,0.77396,1.57080,0.27401,-0.13370,-0.39493,0.04979,,,,,,,,,,,,,,,,,,,,,,,,,,0,0,0,0,0
1.4696,1784397723.0252,1,1,7.0000,0.0351,1.42138,0.26782,-2.61261,0.77404,1.57080,0.27401,-0.13371,-0.39488,0.04974,,,,,,,,,,,,,,,,,,,,,,,,,,0,0,0,0,0
1.5698,1784397723.1253,1,1,7.0000,0.0363,1.42138,0.26747,-2.61290,0.77455,1.57080,0.27401,-0.13372,-0.39479,0.04952,,,,,,,,,,,,,,,,,,,,,,,,,,0,0,0,0,0
1.6724,1784397723.2280,1,1,7.0000,0.0377,1.42137,0.26694,-2.61302,0.77534,1.57080,0.27401,-0.13370,-0.39489,0.04936,,,,,,,,,,,,,,,,,,,,,,,,,,0,0,0,0,0
1.7628,1784397723.3184,1,1,7.0000,0.0382,1.42137,0.26694,-2.61302,0.77534,1.57080,0.27401,-0.13370,-0.39489,0.04936,,,,,,,,,,,,,,,,,,,,,,,,,,0,0,0,0,0
1.8598,1784397723.4154,1,1,7.0000,0.0317,1.42137,0.26694,-2.61302,0.77535,1.57080,0.27401,-0.13370,-0.39489,0.04936,,,,,,,,,,,,,,,,,,,,,,,,,,0,0,0,0,0
1.9592,1784397723.5147,1,1,7.0000,0.0237,1.42137,0.26667,-2.61331,0.77574,1.57080,0.27401,-0.13372,-0.39477,0.04915,,,,,,,,,,,,,,,,,,,,,,,,,,0,0,0,0,0
2.0567,1784397723.6123,1,1,7.0000,0.0188,1.42137,0.26615,-2.61347,0.77651,1.57080,0.27401,-0.13371,-0.39484,0.04897,,,,,,,,,,,,,,,,,,,,,,,,,,0,0,0,0,0
2.2006,1784397723.7562,1,1,7.0000,0.0174,1.42137,0.26603,-2.61349,0.77670,1.57080,0.27401,-0.13370,-0.39486,0.04894,,,,,,,,,,,,,,,,,,,,,,,,,,0,0,0,0,0
2.2560,1784397723.8116,1,1,7.0000,0.0208,1.42137,0.26603,-2.61349,0.77670,1.57080,0.27401,-0.13370,-0.39486,0.04894,,,,,,,,,,,,,,,,,,,,,,,,,,0,0,0,0,0
2.3454,1784397723.9009,1,1,7.0000,0.0225,1.42136,0.26587,-2.61368,0.77692,1.57080,0.27401,-0.13372,-0.39478,0.04881,,,,,,,,,,,,,,,,,,,,,,,,,,0,0,0,0,0
2.4432,1784397723.9988,1,1,7.0000,0.0223,1.42136,0.26549,-2.61381,0.77746,1.57080,0.27401,-0.13371,-0.39480,0.04866,,,,,,,,,,,,,,,,,,,,,,,,,,0,0,0,0,0
2.5414,1784397724.0970,1,1,7.0000,0.0195,1.42136,0.26512,-2.61392,0.77802,1.57080,0.27401,-0.13370,-0.39485,0.04854,,,,,,,,,,,,,,,,,,,,,,,,,,0,0,0,0,0
2.6420,1784397724.1976,1,1,7.0000,0.0187,1.42136,0.26512,-2.61392,0.77802,1.57080,0.27401,-0.13370,-0.39485,0.04854,,,,,,,,,,,,,,,,,,,,,,,,,,0,0,0,0,0
2.7322,1784397724.2878,1,1,7.0000,0.0235,1.42136,0.26510,-2.61394,0.77805,1.57080,0.27401,-0.13370,-0.39485,0.04852,,,,,,,,,,,,,,,,,,,,,,,,,,0,0,0,0,0
2.8339,1784397724.3895,1,1,7.0000,0.0292,1.42136,0.26471,-2.61418,0.77863,1.57080,0.27401,-0.13371,-0.39481,0.04832,,,,,,,,,,,,,,,,,,,,,,,,,,0,0,0,0,0
2.9284,1784397724.4840,1,1,7.0000,0.0328,1.42135,0.26419,-2.61434,0.77939,1.57080,0.27401,-0.13370,-0.39487,0.04814,,,,,,,,,,,,,,,,,,,,,,,,,,0,0,0,0,0
3.0271,1784397724.5827,1,1,7.0000,0.0361,1.42135,0.26419,-2.61434,0.77939,1.57080,0.27401,-0.13370,-0.39487,0.04814,,,,,,,,,,,,,,,,,,,,,,,,,,0,0,0,0,0
3.1243,1784397724.6799,1,1,7.0000,0.0370,1.42135,0.26419,-2.61434,0.77939,1.57080,0.27401,-0.13370,-0.39487,0.04814,,,,,,,,,,,,,,,,,,,,,,,,,,0,0,0,0,0
3.2203,1784397724.7758,1,1,7.0000,0.0285,1.42135,0.26398,-2.61454,0.77970,1.57080,0.27401,-0.13371,-0.39480,0.04800,,,,,,,,,,,,,,,,,,,,,,,,,,0,0,0,0,0
3.3173,1784397724.8729,1,1,7.0000,0.0240,1.42135,0.26342,-2.61475,0.78052,1.57080,0.27401,-0.13370,-0.39483,0.04778,,,,,,,,,,,,,,,,,,,,,,,,,,0,0,0,0,0
3.4131,1784397724.9687,1,1,7.0000,0.0228,1.42135,0.26329,-2.61479,0.78073,1.57080,0.27401,-0.13370,-0.39485,0.04774,,,,,,,,,,,,,,,,,,,,,,,,,,0,0,0,0,0
3.5135,1784397725.0691,1,1,7.0000,0.0216,1.42135,0.26329,-2.61479,0.78073,1.57080,0.27401,-0.13370,-0.39485,0.04774,,,,,,,,,,,,,,,,,,,,,,,,,,0,0,0,0,0
3.6121,1784397725.1676,1,1,7.0000,0.0240,1.42135,0.26320,-2.61487,0.78085,1.57080,0.27401,-0.13370,-0.39483,0.04768,,,,,,,,,,,,,,,,,,,,,,,,,,0,0,0,0,0
3.7074,1784397725.2629,1,1,7.0000,0.0252,1.42134,0.26277,-2.61508,0.78147,1.57080,0.27401,-0.13370,-0.39482,0.04749,,,,,,,,,,,,,,,,,,,,,,,,,,0,0,0,0,0
3.8035,1784397725.3591,1,1,7.0000,0.0263,1.42134,0.26236,-2.61522,0.78209,1.57080,0.27401,-0.13369,-0.39486,0.04734,,,,,,,,,,,,,,,,,,,,,,,,,,0,0,0,0,0
3.9012,1784397725.4567,1,1,7.0000,0.0273,1.42134,0.26236,-2.61522,0.78209,1.57080,0.27401,-0.13369,-0.39486,0.04734,,,,,,,,,,,,,,,,,,,,,,,,,,0,0,0,0,0
3.9971,1784397725.5527,1,1,7.0000,0.0276,1.42134,0.26233,-2.61525,0.78214,1.57080,0.27401,-0.13369,-0.39485,0.04732,,,,,,,,,,,,,,,,,,,,,,,,,,0,0,0,0,0
4.0956,1784397725.6512,1,1,7.0000,0.0267,1.42134,0.26203,-2.61545,0.78257,1.57080,0.27401,-0.13370,-0.39480,0.04715,,,,,,,,,,,,,,,,,,,,,,,,,,0,0,0,0,0
4.1943,1784397725.7499,1,1,7.0000,0.0261,1.42133,0.26144,-2.61566,0.78343,1.57080,0.27401,-0.13369,-0.39485,0.04693,,,,,,,,,,,,,,,,,,,,,,,,,,0,0,0,0,0
4.2880,1784397725.8436,1,1,7.0000,0.0259,1.42133,0.26144,-2.61566,0.78343,1.57080,0.27401,-0.13369,-0.39485,0.04693,,,,,,,,,,,,,,,,,,,,,,,,,,0,0,0,0,0
4.3860,1784397725.9416,1,1,7.0000,0.0260,1.42133,0.26144,-2.61566,0.78343,1.57080,0.27401,-0.13369,-0.39485,0.04693,,,,,,,,,,,,,,,,,,,,,,,,,,0,0,0,0,0
4.4811,1784397726.0367,1,1,7.0000,0.0285,1.42133,0.26123,-2.61582,0.78373,1.57081,0.27401,-0.13370,-0.39480,0.04681,,,,,,,,,,,,,,,,,,,,,,,,,,0,0,0,0,0
4.5788,1784397726.1344,1,1,7.0000,0.0294,1.42133,0.26069,-2.61603,0.78451,1.57081,0.27401,-0.13369,-0.39483,0.04660,,,,,,,,,,,,,,,,,,,,,,,,,,0,0,0,0,0
4.6746,1784397726.2302,1,1,7.0000,0.0316,1.42133,0.26052,-2.61608,0.78478,1.57081,0.27401,-0.13369,-0.39486,0.04654,,,,,,,,,,,,,,,,,,,,,,,,,,0,0,0,0,0
4.7776,1784397726.3332,1,1,7.0000,0.0328,1.42133,0.26052,-2.61608,0.78478,1.57081,0.27401,-0.13369,-0.39486,0.04654,,,,,,,,,,,,,,,,,,,,,,,,,,0,0,0,0,0
4.8741,1784397726.4297,1,1,7.0000,0.0332,1.42133,0.26045,-2.61614,0.78489,1.57081,0.27401,-0.13369,-0.39484,0.04650,,,,,,,,,,,,,,,,,,,,,,,,,,0,0,0,0,0
4.9665,1784397726.5221,1,1,7.0000,0.0322,1.42132,0.26001,-2.61637,0.78551,1.57081,0.27401,-0.13369,-0.39481,0.04629,,,,,,,,,,,,,,,,,,,,,,,,,,0,0,0,0,0
5.0631,1784397726.6187,1,1,7.0000,0.0312,1.42132,0.25960,-2.61652,0.78611,1.57081,0.27401,-0.13369,-0.39484,0.04613,,,,,,,,,,,,,,,,,,,,,,,,,,0,0,0,0,0
5.1652,1784397726.7208,1,1,7.0000,0.0303,1.42132,0.25960,-2.61652,0.78611,1.57081,0.27401,-0.13369,-0.39484,0.04613,,,,,,,,,,,,,,,,,,,,,,,,,,0,0,0,0,0
5.2590,1784397726.8145,1,1,7.0000,0.0301,1.42132,0.25959,-2.61652,0.78614,1.57081,0.27401,-0.13369,-0.39485,0.04613,,,,,,,,,,,,,,,,,,,,,,,,,,0,0,0,0,0
5.3572,1784397726.9128,1,1,7.0000,0.0261,1.42132,0.25929,-2.61673,0.78657,1.57081,0.27401,-0.13369,-0.39480,0.04596,,,,,,,,,,,,,,,,,,,,,,,,,,0,0,0,0,0
5.4590,1784397727.0146,1,1,7.0000,0.0250,1.42131,0.25869,-2.61694,0.78744,1.57081,0.27401,-0.13368,-0.39484,0.04574,,,,,,,,,,,,,,,,,,,,,,,,,,0,0,0,0,0
5.5622,1784397727.1177,1,1,7.0000,0.0262,1.42131,0.25869,-2.61694,0.78744,1.57081,0.27401,-0.13368,-0.39484,0.04574,,,,,,,,,,,,,,,,,,,,,,,,,,0,0,0,0,0
5.6516,1784397727.2072,1,1,7.0000,0.0282,1.42131,0.25869,-2.61694,0.78744,1.57081,0.27401,-0.13368,-0.39484,0.04574,,,,,,,,,,,,,,,,,,,,,,,,,,0,0,0,0,0
5.7445,1784397727.3001,1,1,7.0000,0.0330,1.42131,0.25843,-2.61716,0.78782,1.57081,0.27401,-0.13370,-0.39477,0.04557,,,,,,,,,,,,,,,,,,,,,,,,,,0,0,0,0,0
5.8445,1784397727.4001,1,1,7.0000,0.0344,1.42131,0.25802,-2.61728,0.78841,1.57081,0.27401,-0.13369,-0.39481,0.04543,,,,,,,,,,,,,,,,,,,,,,,,,,0,0,0,0,0
5.9389,1784397727.4944,1,1,7.0000,0.0274,1.42131,0.25770,-2.61733,0.78890,1.57081,0.27401,-0.13367,-0.39489,0.04535,,,,,,,,,,,,,,,,,,,,,,,,,,0,0,0,0,0
6.0343,1784397727.5898,1,1,7.0000,0.0253,1.42131,0.25770,-2.61733,0.78890,1.57081,0.27401,-0.13367,-0.39489,0.04535,,,,,,,,,,,,,,,,,,,,,,,,,,0,0,0,0,0
6.1331,1784397727.6887,1,1,7.0000,0.0307,1.42131,0.25766,-2.61740,0.78897,1.57081,0.27401,-0.13368,-0.39486,0.04531,,,,,,,,,,,,,,,,,,,,,,,,,,0,0,0,0,0
6.2283,1784397727.7838,1,1,7.0000,0.0323,1.42131,0.25730,-2.61762,0.78947,1.57081,0.27401,-0.13368,-0.39481,0.04512,,,,,,,,,,,,,,,,,,,,,,,,,,0,0,0,0,0
6.3363,1784397727.8919,1,1,7.0000,0.0277,1.42130,0.25677,-2.61779,0.79026,1.57081,0.27401,-0.13367,-0.39487,0.04493,,,,,,,,,,,,,,,,,,,,,,,,,,0,0,0,0,0
6.4252,1784397727.9808,1,1,7.0000,0.0264,1.42130,0.25677,-2.61779,0.79026,1.57081,0.27401,-0.13367,-0.39487,0.04493,,,,,,,,,,,,,,,,,,,,,,,,,,0,0,0,0,0
6.5243,1784397728.0799,1,1,7.0000,0.0313,1.42130,0.25677,-2.61778,0.79027,1.57081,0.27401,-0.13367,-0.39487,0.04494,,,,,,,,,,,,,,,,,,,,,,,,,,0,0,0,0,0
6.6190,1784397728.1746,1,1,7.0000,0.0331,1.42130,0.25655,-2.61797,0.79057,1.57081,0.27401,-0.13368,-0.39481,0.04480,,,,,,,,,,,,,,,,,,,,,,,,,,0,0,0,0,0
6.7169,1784397728.2725,1,1,7.0000,0.0336,1.42130,0.25595,-2.61819,0.79143,1.57082,0.27401,-0.13368,-0.39484,0.04457,,,,,,,,,,,,,,,,,,,,,,,,,,0,0,0,0,0
6.8154,1784397728.3710,1,1,7.0000,0.0328,1.42130,0.25583,-2.61821,0.79161,1.57082,0.27401,-0.13367,-0.39487,0.04454,,,,,,,,,,,,,,,,,,,,,,,,,,0,0,0,0,0
6.9108,1784397728.4664,1,1,7.0000,0.0325,1.42130,0.25583,-2.61821,0.79161,1.57082,0.27401,-0.13367,-0.39487,0.04454,,,,,,,,,,,,,,,,,,,,,,,,,,0,0,0,0,0
7.0081,1784397728.5636,1,1,7.0000,0.0331,1.42129,0.25571,-2.61835,0.79178,1.57082,0.27401,-0.13368,-0.39481,0.04444,,,,,,,,,,,,,,,,,,,,,,,,,,0,0,0,0,0
7.1044,1784397728.6600,1,1,7.0000,0.0333,1.42129,0.25527,-2.61854,0.79241,1.57082,0.27401,-0.13368,-0.39481,0.04426,,,,,,,,,,,,,,,,,,,,,,,,,,0,0,0,0,0
7.2061,1784397728.7617,1,1,7.0000,0.0446,1.42129,0.25491,-2.61866,0.79295,1.57082,0.27401,-0.13367,-0.39485,0.04413,,,,,,,,,,,,,,,,,,,,,,,,,,0,0,0,0,0
7.3019,1784397728.8575,1,1,7.0000,0.0551,1.42129,0.25491,-2.61866,0.79295,1.57082,0.27401,-0.13367,-0.39485,0.04413,,,,,,,,,,,,,,,,,,,,,,,,,,0,0,0,0,0
7.4218,1784397728.9774,1,1,7.0000,0.0582,1.42129,0.25483,-2.61873,0.79307,1.57082,0.27401,-0.13367,-0.39482,0.04408,,,,,,,,,,,,,,,,,,,,,,,,,,0,0,0,0,0
7.4940,1784397729.0496,1,1,7.0000,0.0523,1.42129,0.25451,-2.61889,0.79352,1.57082,0.27401,-0.13368,-0.39481,0.04393,,,,,,,,,,,,,,,,,,,,,,,,,,0,0,0,0,0
7.5885,1784397729.1441,1,1,7.0000,0.0385,1.42128,0.25398,-2.61907,0.79429,1.57082,0.27401,-0.13367,-0.39485,0.04373,,,,,,,,,,,,,,,,,,,,,,,,,,0,0,0,0,0
7.6899,1784397729.2455,1,1,7.0000,0.0345,1.42128,0.25398,-2.61907,0.79429,1.57082,0.27401,-0.13367,-0.39485,0.04373,,,,,,,,,,,,,,,,,,,,,,,,,,0,0,0,0,0
7.7911,1784397729.3467,1,1,7.0000,0.0358,1.42128,0.25398,-2.61907,0.79429,1.57082,0.27401,-0.13367,-0.39485,0.04373,,,,,,,,,,,,,,,,,,,,,,,,,,0,0,0,0,0
7.8820,1784397729.4376,1,1,7.0000,0.0365,1.42128,0.25398,-2.61907,0.79429,1.57082,0.27401,-0.13367,-0.39485,0.04373,,,,,,,,,,,,,,,,,,,,,,,,,,0,0,0,0,0
7.9765,1784397729.5321,1,1,7.0000,0.0364,1.42128,0.25398,-2.61907,0.79429,1.57082,0.27401,-0.13367,-0.39485,0.04373,,,,,,,,,,,,,,,,,,,,,,,,,,0,0,0,0,0
8.0776,1784397729.6332,1,1,7.0000,0.0326,1.42128,0.25395,-2.61904,0.79437,1.57082,0.27401,-0.13366,-0.39489,0.04375,,,,,,,,,,,,,,,,,,,,,,,,,,0,0,0,0,0
8.1727,1784397729.7283,1,1,7.0000,0.0315,1.42128,0.25395,-2.61904,0.79437,1.57082,0.27401,-0.13366,-0.39489,0.04375,,,,,,,,,,,,,,,,,,,,,,,,,,0,0,0,0,0
8.2677,1784397729.8233,1,1,7.0000,0.0360,1.42128,0.25395,-2.61904,0.79437,1.57082,0.27401,-0.13366,-0.39489,0.04375,,,,,,,,,,,,,,,,,,,,,,,,,,0,0,0,0,0
8.3653,1784397729.9209,1,1,7.0000,0.0374,1.42128,0.25395,-2.61904,0.79437,1.57082,0.27401,-0.13366,-0.39489,0.04375,,,,,,,,,,,,,,,,,,,,,,,,,,0,0,0,0,0
8.4661,1784397730.0217,1,1,7.0000,0.0364,1.42128,0.25395,-2.61904,0.79437,1.57082,0.27401,-0.13366,-0.39489,0.04375,,,,,,,,,,,,,,,,,,,,,,,,,,0,0,0,0,0
8.5604,1784397730.1159,1,1,7.0000,0.0347,1.42128,0.25393,-2.61907,0.79438,1.57082,0.27401,-0.13366,-0.39487,0.04372,,,,,,,,,,,,,,,,,,,,,,,,,,0,0,0,0,0
8.6599,1784397730.2155,1,1,7.0000,0.0342,1.42128,0.25393,-2.61907,0.79438,1.57082,0.27401,-0.13366,-0.39487,0.04372,,,,,,,,,,,,,,,,,,,,,,,,,,0,0,0,0,0
8.7623,1784397730.3179,1,1,7.0000,0.0375,1.42128,0.25393,-2.61907,0.79438,1.57082,0.27401,-0.13366,-0.39487,0.04372,,,,,,,,,,,,,,,,,,,,,,,,,,0,0,0,0,0
8.8549,1784397730.4105,1,1,7.0000,0.0392,1.42128,0.25393,-2.61907,0.79438,1.57082,0.27401,-0.13366,-0.39487,0.04372,,,,,,,,,,,,,,,,,,,,,,,,,,0,0,0,0,0
8.9510,1784397730.5066,1,1,7.0000,0.0397,1.42128,0.25393,-2.61907,0.79438,1.57082,0.27401,-0.13366,-0.39487,0.04372,,,,,,,,,,,,,,,,,,,,,,,,,,0,0,0,0,0
9.0947,1784397730.6503,1,1,7.0000,0.0429,1.42128,0.25390,-2.61907,0.79442,1.57082,0.27401,-0.13366,-0.39488,0.04372,,,,,,,,,,,,,,,,,,,,,,,,,,0,0,0,0,0
9.2325,1784397730.7881,1,1,7.0000,0.0439,1.42128,0.25390,-2.61907,0.79442,1.57082,0.27401,-0.13366,-0.39488,0.04372,,,,,,,,,,,,,,,,,,,,,,,,,,0,0,0,0,0
9.3305,1784397730.8861,1,1,7.0000,0.0338,1.42128,0.25390,-2.61907,0.79442,1.57082,0.27401,-0.13366,-0.39488,0.04372,,,,,,,,,,,,,,,,,,,,,,,,,,0,0,0,0,0
9.3504,1784397730.9059,1,1,7.0000,0.0222,1.42128,0.25390,-2.61907,0.79442,1.57082,0.27401,-0.13366,-0.39488,0.04372,,,,,,,,,,,,,,,,,,,,,,,,,,0,0,0,0,0
9.4659,1784397731.0215,1,1,7.0000,0.0188,1.42128,0.25388,-2.61909,0.79445,1.57082,0.27401,-0.13366,-0.39488,0.04371,,,,,,,,,,,,,,,,,,,,,,,,,,0,0,0,0,0
9.6227,1784397731.1783,1,1,7.0000,0.0219,1.42128,0.25387,-2.61909,0.79447,1.57082,0.27401,-0.13366,-0.39487,0.04370,,,,,,,,,,,,,,,,,,,,,,,,,,0,0,0,0,0
9.6306,1784397731.1862,1,1,7.0000,0.0320,1.42128,0.25387,-2.61909,0.79447,1.57082,0.27401,-0.13366,-0.39487,0.04370,,,,,,,,,,,,,,,,,,,,,,,,,,0,0,0,0,0
9.7269,1784397731.2825,1,1,7.0000,0.0349,1.42128,0.25387,-2.61909,0.79447,1.57082,0.27401,-0.13366,-0.39487,0.04370,,,,,,,,,,,,,,,,,,,,,,,,,,0,0,0,0,0
9.8229,1784397731.3785,1,1,7.0000,0.0323,1.42128,0.25387,-2.61909,0.79447,1.57082,0.27401,-0.13366,-0.39487,0.04370,,,,,,,,,,,,,,,,,,,,,,,,,,0,0,0,0,0
9.9211,1784397731.4767,1,1,7.0000,0.0316,1.42128,0.25387,-2.61909,0.79447,1.57082,0.27401,-0.13366,-0.39487,0.04370,,,,,,,,,,,,,,,,,,,,,,,,,,0,0,0,0,0
10.0182,1784397731.5738,1,1,7.0000,0.0349,1.42128,0.25385,-2.61910,0.79451,1.57082,0.27401,-0.13366,-0.39488,0.04370,,,,,,,,,,,,,,,,,,,,,,,,,,0,0,0,0,0
10.1186,1784397731.6742,1,1,7.0000,0.0435,1.42128,0.25385,-2.61910,0.79451,1.57082,0.27401,-0.13366,-0.39488,0.04370,,,,,,,,,,,,,,,,,,,,,,,,,,0,0,0,0,0
10.2127,1784397731.7682,1,1,7.0000,0.0460,1.42128,0.25385,-2.61910,0.79451,1.57082,0.27401,-0.13366,-0.39488,0.04370,,,,,,,,,,,,,,,,,,,,,,,,,,0,0,0,0,0
10.3093,1784397731.8649,1,1,7.0000,0.0436,1.42128,0.25385,-2.61910,0.79451,1.57082,0.27401,-0.13366,-0.39488,0.04370,,,,,,,,,,,,,,,,,,,,,,,,,,0,0,0,0,0
10.4041,1784397731.9597,1,1,7.0000,0.0391,1.42128,0.25385,-2.61910,0.79451,1.57082,0.27401,-0.13366,-0.39488,0.04370,,,,,,,,,,,,,,,,,,,,,,,,,,0,0,0,0,0
10.5035,1784397732.0590,1,1,7.0000,0.0366,1.42128,0.25382,-2.61911,0.79454,1.57082,0.27401,-0.13366,-0.39488,0.04369,,,,,,,,,,,,,,,,,,,,,,,,,,0,0,0,0,0
10.6033,1784397732.1589,1,1,7.0000,0.0338,1.42128,0.25382,-2.61911,0.79454,1.57082,0.27401,-0.13366,-0.39488,0.04369,,,,,,,,,,,,,,,,,,,,,,,,,,0,0,0,0,0
10.6989,1784397732.2545,1,1,7.0000,0.0325,1.42128,0.25382,-2.61911,0.79454,1.57082,0.27401,-0.13366,-0.39488,0.04369,,,,,,,,,,,,,,,,,,,,,,,,,,0,0,0,0,0
10.7980,1784397732.3536,1,1,7.0000,0.0321,1.42128,0.25382,-2.61911,0.79454,1.57082,0.27401,-0.13366,-0.39488,0.04369,,,,,,,,,,,,,,,,,,,,,,,,,,0,0,0,0,0
10.8909,1784397732.4465,1,1,7.0000,0.0383,1.42128,0.25381,-2.61911,0.79456,1.57082,0.27401,-0.13366,-0.39488,0.04368,,,,,,,,,,,,,,,,,,,,,,,,,,0,0,0,0,0
10.9909,1784397732.5465,1,1,7.0000,0.0401,1.42128,0.25379,-2.61912,0.79459,1.57082,0.27401,-0.13366,-0.39488,0.04367,,,,,,,,,,,,,,,,,,,,,,,,,,0,0,0,0,0
11.0949,1784397732.6504,1,1,7.0000,0.0387,1.42128,0.25379,-2.61912,0.79459,1.57082,0.27401,-0.13366,-0.39488,0.04367,,,,,,,,,,,,,,,,,,,,,,,,,,0,0,0,0,0
11.1835,1784397732.7391,1,1,7.0000,0.0383,1.42128,0.25379,-2.61912,0.79459,1.57082,0.27401,-0.13366,-0.39488,0.04367,,,,,,,,,,,,,,,,,,,,,,,,,,0,0,0,0,0
11.2808,1784397732.8364,1,1,7.0000,0.0427,1.42128,0.25379,-2.61912,0.79459,1.57082,0.27401,-0.13366,-0.39488,0.04367,,,,,,,,,,,,,,,,,,,,,,,,,,0,0,0,0,0
11.3769,1784397732.9325,1,1,7.0000,0.0440,1.42128,0.25378,-2.61913,0.79460,1.57082,0.27401,-0.13366,-0.39488,0.04367,,,,,,,,,,,,,,,,,,,,,,,,,,0,0,0,0,0
11.4757,1784397733.0313,1,1,7.0000,0.0434,1.42128,0.25377,-2.61914,0.79462,1.57082,0.27401,-0.13366,-0.39488,0.04366,,,,,,,,,,,,,,,,,,,,,,,,,,0,0,0,0,0
11.5739,1784397733.1295,1,1,7.0000,0.0380,1.42128,0.25377,-2.61914,0.79462,1.57082,0.27401,-0.13366,-0.39488,0.04366,,,,,,,,,,,,,,,,,,,,,,,,,,0,0,0,0,0
11.6712,1784397733.2268,1,1,7.0000,0.0307,1.42128,0.25377,-2.61914,0.79462,1.57082,0.27401,-0.13366,-0.39488,0.04366,,,,,,,,,,,,,,,,,,,,,,,,,,0,0,0,0,0
11.7675,1784397733.3231,1,1,7.0000,0.0286,1.42128,0.25377,-2.61914,0.79462,1.57082,0.27401,-0.13366,-0.39488,0.04366,,,,,,,,,,,,,,,,,,,,,,,,,,0,0,0,0,0
11.8638,1784397733.4194,1,1,7.0000,0.0332,1.42128,0.25375,-2.61914,0.79464,1.57082,0.27401,-0.13366,-0.39488,0.04366,,,,,,,,,,,,,,,,,,,,,,,,,,0,0,0,0,0
11.9636,1784397733.5192,1,1,7.0000,0.0388,1.42128,0.25373,-2.61915,0.79467,1.57082,0.27401,-0.13366,-0.39488,0.04365,,,,,,,,,,,,,,,,,,,,,,,,,,0,0,0,0,0
12.0579,1784397733.6135,1,1,7.0000,0.0486,1.42128,0.25373,-2.61915,0.79467,1.57082,0.27401,-0.13366,-0.39488,0.04365,,,,,,,,,,,,,,,,,,,,,,,,,,0,0,0,0,0
12.1712,1784397733.7268,1,1,7.0000,0.0536,1.42128,0.25373,-2.61915,0.79467,1.57082,0.27401,-0.13366,-0.39488,0.04365,,,,,,,,,,,,,,,,,,,,,,,,,,0,0,0,0,0
12.2560,1784397733.8116,1,1,7.0000,0.0529,1.42128,0.25373,-2.61915,0.79467,1.57082,0.27401,-0.13366,-0.39488,0.04365,,,,,,,,,,,,,,,,,,,,,,,,,,0,0,0,0,0
12.3881,1784397733.9437,1,1,7.0000,0.0458,1.42128,0.25371,-2.61916,0.79470,1.57082,0.27401,-0.13366,-0.39488,0.04364,,,,,,,,,,,,,,,,,,,,,,,,,,0,0,0,0,0
12.4513,1784397734.0069,1,1,7.0000,0.0437,1.42128,0.25371,-2.61916,0.79470,1.57082,0.27401,-0.13366,-0.39488,0.04364,,,,,,,,,,,,,,,,,,,,,,,,,,0,0,0,0,0
12.5438,1784397734.0993,1,1,7.0000,0.0481,1.42128,0.25371,-2.61916,0.79470,1.57082,0.27401,-0.13366,-0.39488,0.04364,,,,,,,,,,,,,,,,,,,,,,,,,,0,0,0,0,0
12.6412,1784397734.1968,1,1,7.0000,0.0494,1.42128,0.25371,-2.61916,0.79470,1.57082,0.27401,-0.13366,-0.39488,0.04364,,,,,,,,,,,,,,,,,,,,,,,,,,0,0,0,0,0
12.7358,1784397734.2914,1,1,7.0000,0.0404,1.42128,0.25371,-2.61916,0.79470,1.57082,0.27401,-0.13366,-0.39488,0.04364,,,,,,,,,,,,,,,,,,,,,,,,,,0,0,0,0,0
12.8355,1784397734.3911,1,1,7.0000,0.0378,1.42128,0.25369,-2.61918,0.79474,1.57082,0.27401,-0.13366,-0.39487,0.04362,,,,,,,,,,,,,,,,,,,,,,,,,,0,0,0,0,0
12.9333,1784397734.4889,1,1,7.0000,0.0371,1.42128,0.25368,-2.61918,0.79475,1.57082,0.27401,-0.13366,-0.39487,0.04362,,,,,,,,,,,,,,,,,,,,,,,,,,0,0,0,0,0
13.0413,1784397734.5969,1,1,7.0000,0.0311,1.42128,0.25368,-2.61918,0.79475,1.57082,0.27401,-0.13366,-0.39487,0.04362,,,,,,,,,,,,,,,,,,,,,,,,,,0,0,0,0,0
13.1257,1784397734.6812,1,1,7.0000,0.0293,1.42128,0.25368,-2.61918,0.79475,1.57082,0.27401,-0.13366,-0.39487,0.04362,,,,,,,,,,,,,,,,,,,,,,,,,,0,0,0,0,0
13.2410,1784397734.7966,1,1,7.0000,0.0339,1.42128,0.25368,-2.61918,0.79475,1.57082,0.27401,-0.13366,-0.39487,0.04362,,,,,,,,,,,,,,,,,,,,,,,,,,0,0,0,0,0
13.3196,1784397734.8752,1,1,7.0000,0.0353,1.42128,0.25366,-2.61918,0.79478,1.57082,0.27401,-0.13366,-0.39488,0.04362,,,,,,,,,,,,,,,,,,,,,,,,,,0,0,0,0,0
13.4174,1784397734.9729,1,1,7.0000,0.0357,1.42128,0.25366,-2.61918,0.79478,1.57082,0.27401,-0.13366,-0.39488,0.04362,,,,,,,,,,,,,,,,,,,,,,,,,,0,0,0,0,0
13.5155,1784397735.0711,1,1,7.0000,0.0387,1.42128,0.25366,-2.61918,0.79478,1.57082,0.27401,-0.13366,-0.39488,0.04362,,,,,,,,,,,,,,,,,,,,,,,,,,0,0,0,0,0
13.6101,1784397735.1657,1,1,7.0000,0.0486,1.42128,0.25366,-2.61918,0.79478,1.57082,0.27401,-0.13366,-0.39488,0.04362,,,,,,,,,,,,,,,,,,,,,,,,,,0,0,0,0,0
13.7071,1784397735.2627,1,1,7.0000,0.0521,1.42128,0.25366,-2.61918,0.79478,1.57082,0.27401,-0.13366,-0.39488,0.04362,,,,,,,,,,,,,,,,,,,,,,,,,,0,0,0,0,0
13.8062,1784397735.3618,1,1,7.0000,0.0525,1.42128,0.25363,-2.61920,0.79482,1.57082,0.27401,-0.13366,-0.39488,0.04360,,,,,,,,,,,,,,,,,,,,,,,,,,0,0,0,0,0
13.9031,1784397735.4586,1,1,7.0000,0.0487,1.42128,0.25362,-2.61920,0.79483,1.57082,0.27401,-0.13366,-0.39488,0.04360,,,,,,,,,,,,,,,,,,,,,,,,,,0,0,0,0,0
14.0000,1784397735.5556,1,1,7.0000,0.0465,1.42128,0.25362,-2.61920,0.79483,1.57082,0.27401,-0.13366,-0.39488,0.04360,,,,,,,,,,,,,,,,,,,,,,,,,,0,0,0,0,0
14.0950,1784397735.6506,1,1,7.0000,0.0459,1.42128,0.25362,-2.61920,0.79483,1.57082,0.27401,-0.13366,-0.39488,0.04360,,,,,,,,,,,,,,,,,,,,,,,,,,0,0,0,0,0
14.1988,1784397735.7544,1,1,7.0000,0.0516,1.42128,0.25362,-2.61920,0.79483,1.57082,0.27401,-0.13366,-0.39488,0.04360,,,,,,,,,,,,,,,,,,,,,,,,,,0,0,0,0,0
14.2942,1784397735.8498,1,1,7.0000,0.0533,1.42128,0.25360,-2.61921,0.79487,1.57082,0.27401,-0.13366,-0.39488,0.04359,,,,,,,,,,,,,,,,,,,,,,,,,,0,0,0,0,0
14.3876,1784397735.9432,1,1,7.0000,0.0464,1.42128,0.25360,-2.61921,0.79487,1.57082,0.27401,-0.13366,-0.39488,0.04359,,,,,,,,,,,,,,,,,,,,,,,,,,0,0,0,0,0
14.4839,1784397736.0395,1,1,7.0000,0.0407,1.42128,0.25360,-2.61921,0.79487,1.57082,0.27401,-0.13366,-0.39488,0.04359,,,,,,,,,,,,,,,,,,,,,,,,,,0,0,0,0,0
14.5877,1784397736.1432,1,1,7.0000,0.0390,1.42128,0.25360,-2.61921,0.79487,1.57082,0.27401,-0.13366,-0.39488,0.04359,,,,,,,,,,,,,,,,,,,,,,,,,,0,0,0,0,0
14.6827,1784397736.2383,1,1,7.0000,0.0474,1.42128,0.25360,-2.61921,0.79487,1.57082,0.27401,-0.13366,-0.39488,0.04359,,,,,,,,,,,,,,,,,,,,,,,,,,0,0,0,0,0
14.7799,1784397736.3355,1,1,7.0000,0.0513,1.42128,0.25358,-2.61922,0.79490,1.57082,0.27401,-0.13366,-0.39488,0.04358,,,,,,,,,,,,,,,,,,,,,,,,,,0,0,0,0,0
14.8812,1784397736.4367,1,1,7.0000,0.0524,1.42128,0.25358,-2.61922,0.79490,1.57082,0.27401,-0.13366,-0.39488,0.04358,,,,,,,,,,,,,,,,,,,,,,,,,,0,0,0,0,0
14.9703,1784397736.5258,1,1,7.0000,0.0523,1.42128,0.25358,-2.61922,0.79490,1.57082,0.27401,-0.13366,-0.39488,0.04358,,,,,,,,,,,,,,,,,,,,,,,,,,0,0,0,0,0
15.0683,1784397736.6239,1,1,7.0000,0.0501,1.42128,0.25358,-2.61922,0.79490,1.57082,0.27401,-0.13366,-0.39488,0.04358,,,,,,,,,,,,,,,,,,,,,,,,,,0,0,0,0,0
15.1671,1784397736.7227,1,1,7.0000,0.0455,1.42128,0.25358,-2.61922,0.79490,1.57082,0.27401,-0.13366,-0.39488,0.04358,,,,,,,,,,,,,,,,,,,,,,,,,,0,0,0,0,0
15.2612,1784397736.8168,1,1,7.0000,0.0401,1.42128,0.25354,-2.61924,0.79494,1.57082,0.27401,-0.13366,-0.39488,0.04357,,,,,,,,,,,,,,,,,,,,,,,,,,0,0,0,0,0
15.3601,1784397736.9157,1,1,7.0000,0.0371,1.42128,0.25354,-2.61924,0.79494,1.57082,0.27401,-0.13366,-0.39488,0.04357,,,,,,,,,,,,,,,,,,,,,,,,,,0,0,0,0,0
15.4547,1784397737.0103,1,1,7.0000,0.0359,1.42128,0.25354,-2.61924,0.79494,1.57082,0.27401,-0.13366,-0.39488,0.04357,,,,,,,,,,,,,,,,,,,,,,,,,,0,0,0,0,0
15.5535,1784397737.1090,1,1,7.0000,0.0355,1.42128,0.25354,-2.61924,0.79494,1.57082,0.27401,-0.13366,-0.39488,0.04357,,,,,,,,,,,,,,,,,,,,,,,,,,0,0,0,0,0
15.6522,1784397737.2078,1,1,7.0000,0.0354,1.42128,0.25354,-2.61924,0.79494,1.57082,0.27401,-0.13366,-0.39488,0.04357,,,,,,,,,,,,,,,,,,,,,,,,,,0,0,0,0,0
15.7459,1784397737.3015,1,1,7.0000,0.0452,1.42128,0.25352,-2.61925,0.79498,1.57082,0.27401,-0.13366,-0.39488,0.04356,,,,,,,,,,,,,,,,,,,,,,,,,,0,0,0,0,0
15.8453,1784397737.4009,1,1,7.0000,0.0569,1.42128,0.25352,-2.61925,0.79498,1.57082,0.27401,-0.13366,-0.39488,0.04356,,,,,,,,,,,,,,,,,,,,,,,,,,0,0,0,0,0
15.9426,1784397737.4982,1,1,7.0000,0.0603,1.42128,0.25352,-2.61925,0.79498,1.57082,0.27401,-0.13366,-0.39488,0.04356,,,,,,,,,,,,,,,,,,,,,,,,,,0,0,0,0,0
16.0408,1784397737.5964,1,1,7.0000,0.0550,1.42128,0.25352,-2.61925,0.79498,1.57082,0.27401,-0.13366,-0.39488,0.04356,,,,,,,,,,,,,,,,,,,,,,,,,,0,0,0,0,0
16.1419,1784397737.6975,1,1,7.0000,0.0495,1.42128,0.25352,-2.61925,0.79498,1.57082,0.27401,-0.13366,-0.39488,0.04356,,,,,,,,,,,,,,,,,,,,,,,,,,0,0,0,0,0
16.2369,1784397737.7925,1,1,7.0000,0.0479,1.42128,0.25349,-2.61926,0.79503,1.57082,0.27401,-0.13366,-0.39488,0.04354,,,,,,,,,,,,,,,,,,,,,,,,,,0,0,0,0,0
16.3309,1784397737.8865,1,1,7.0000,0.0474,1.42128,0.25349,-2.61926,0.79503,1.57082,0.27401,-0.13366,-0.39488,0.04354,,,,,,,,,,,,,,,,,,,,,,,,,,0,0,0,0,0
16.4298,1784397737.9854,1,1,7.0000,0.0479,1.42128,0.25349,-2.61926,0.79503,1.57082,0.27401,-0.13366,-0.39488,0.04354,,,,,,,,,,,,,,,,,,,,,,,,,,0,0,0,0,0
16.5247,1784397738.0802,1,1,7.0000,0.0495,1.42128,0.25349,-2.61926,0.79503,1.57082,0.27401,-0.13366,-0.39488,0.04354,,,,,,,,,,,,,,,,,,,,,,,,,,0,0,0,0,0
16.6259,1784397738.1815,1,1,7.0000,0.0575,1.42128,0.25349,-2.61926,0.79503,1.57082,0.27401,-0.13366,-0.39488,0.04354,,,,,,,,,,,,,,,,,,,,,,,,,,0,0,0,0,0
16.7247,1784397738.2803,1,1,7.0000,0.0599,1.42128,0.25347,-2.61928,0.79506,1.57082,0.27401,-0.13366,-0.39488,0.04353,,,,,,,,,,,,,,,,,,,,,,,,,,0,0,0,0,0
16.8147,1784397738.3703,1,1,7.0000,0.0604,1.42128,0.25347,-2.61928,0.79506,1.57082,0.27401,-0.13366,-0.39488,0.04353,,,,,,,,,,,,,,,,,,,,,,,,,,0,0,0,0,0
16.9125,1784397738.4681,1,1,7.0000,0.0605,1.42128,0.25347,-2.61928,0.79506,1.57082,0.27401,-0.13366,-0.39488,0.04353,,,,,,,,,,,,,,,,,,,,,,,,,,0,0,0,0,0
17.0105,1784397738.5660,1,1,7.0000,0.0611,1.42128,0.25347,-2.61928,0.79506,1.57082,0.27401,-0.13366,-0.39488,0.04353,,,,,,,,,,,,,,,,,,,,,,,,,,0,0,0,0,0
17.1083,1784397738.6639,1,1,7.0000,0.0612,1.42128,0.25347,-2.61928,0.79506,1.57082,0.27401,-0.13366,-0.39488,0.04353,,,,,,,,,,,,,,,,,,,,,,,,,,0,0,0,0,0
17.2059,1784397738.7614,1,1,7.0000,0.0596,1.42128,0.25343,-2.61929,0.79511,1.57082,0.27401,-0.13366,-0.39488,0.04352,,,,,,,,,,,,,,,,,,,,,,,,,,0,0,0,0,0
17.3027,1784397738.8583,1,1,7.0000,0.0548,1.42128,0.25343,-2.61929,0.79511,1.57082,0.27401,-0.13366,-0.39488,0.04352,,,,,,,,,,,,,,,,,,,,,,,,,,0,0,0,0,0
17.4006,1784397738.9562,1,1,7.0000,0.0528,1.42128,0.25343,-2.61929,0.79511,1.57082,0.27401,-0.13366,-0.39488,0.04352,,,,,,,,,,,,,,,,,,,,,,,,,,0,0,0,0,0
17.4973,1784397739.0529,1,1,7.0000,0.0522,1.42128,0.25343,-2.61929,0.79511,1.57082,0.27401,-0.13366,-0.39488,0.04352,,,,,,,,,,,,,,,,,,,,,,,,,,0,0,0,0,0
17.5944,1784397739.1499,1,1,7.0000,0.0520,1.42128,0.25343,-2.61929,0.79511,1.57082,0.27401,-0.13366,-0.39488,0.04352,,,,,,,,,,,,,,,,,,,,,,,,,,0,0,0,0,0
17.6971,1784397739.2526,1,1,7.0000,0.0544,1.42128,0.25341,-2.61930,0.79514,1.57082,0.27401,-0.13366,-0.39488,0.04351,,,,,,,,,,,,,,,,,,,,,,,,,,0,0,0,0,0
17.7895,1784397739.3450,1,1,7.0000,0.0583,1.42128,0.25341,-2.61930,0.79514,1.57082,0.27401,-0.13366,-0.39488,0.04351,,,,,,,,,,,,,,,,,,,,,,,,,,0,0,0,0,0
17.8853,1784397739.4409,1,1,7.0000,0.0594,1.42128,0.25341,-2.61930,0.79514,1.57082,0.27401,-0.13366,-0.39488,0.04351,,,,,,,,,,,,,,,,,,,,,,,,,,0,0,0,0,0
17.9819,1784397739.5374,1,1,7.0000,0.0590,1.42128,0.25341,-2.61930,0.79514,1.57082,0.27401,-0.13366,-0.39488,0.04351,,,,,,,,,,,,,,,,,,,,,,,,,,0,0,0,0,0
18.0824,1784397739.6380,1,1,7.0000,0.0566,1.42128,0.25341,-2.61930,0.79514,1.57082,0.27401,-0.13366,-0.39488,0.04351,,,,,,,,,,,,,,,,,,,,,,,,,,0,0,0,0,0
18.1819,1784397739.7374,1,1,7.0000,0.0559,1.42128,0.25338,-2.61931,0.79518,1.57082,0.27401,-0.13366,-0.39488,0.04350,,,,,,,,,,,,,,,,,,,,,,,,,,0,0,0,0,0
18.2737,1784397739.8293,1,1,7.0000,0.0552,1.42128,0.25338,-2.61931,0.79518,1.57082,0.27401,-0.13366,-0.39488,0.04350,,,,,,,,,,,,,,,,,,,,,,,,,,0,0,0,0,0
18.3747,1784397739.9303,1,1,7.0000,0.0532,1.42128,0.25338,-2.61931,0.79518,1.57082,0.27401,-0.13366,-0.39488,0.04350,,,,,,,,,,,,,,,,,,,,,,,,,,0,0,0,0,0
18.4672,1784397740.0228,1,1,7.0000,0.0522,1.42128,0.25338,-2.61931,0.79518,1.57082,0.27401,-0.13366,-0.39488,0.04350,,,,,,,,,,,,,,,,,,,,,,,,,,0,0,0,0,0
18.5682,1784397740.1238,1,1,7.0000,0.0506,1.42128,0.25337,-2.61931,0.79519,1.57082,0.27401,-0.13366,-0.39488,0.04349,,,,,,,,,,,,,,,,,,,,,,,,,,0,0,0,0,0
18.6832,1784397740.2387,1,1,7.0000,0.0514,1.42128,0.25336,-2.61932,0.79522,1.57082,0.27401,-0.13366,-0.39488,0.04349,,,,,,,,,,,,,,,,,,,,,,,,,,0,0,0,0,0
18.7592,1784397740.3148,1,1,7.0000,0.0571,1.42128,0.25336,-2.61932,0.79522,1.57082,0.27401,-0.13366,-0.39488,0.04349,,,,,,,,,,,,,,,,,,,,,,,,,,0,0,0,0,0
18.8568,1784397740.4124,1,1,7.0000,0.0593,1.42128,0.25336,-2.61932,0.79522,1.57082,0.27401,-0.13366,-0.39488,0.04349,,,,,,,,,,,,,,,,,,,,,,,,,,0,0,0,0,0
18.9549,1784397740.5105,1,1,7.0000,0.0599,1.42128,0.25336,-2.61932,0.79522,1.57082,0.27401,-0.13366,-0.39488,0.04349,,,,,,,,,,,,,,,,,,,,,,,,,,0,0,0,0,0
19.0533,1784397740.6089,1,1,7.0000,0.0602,1.42128,0.25335,-2.61933,0.79523,1.57082,0.27401,-0.13366,-0.39488,0.04348,,,,,,,,,,,,,,,,,,,,,,,,,,0,0,0,0,0
19.1472,1784397740.7028,1,1,7.0000,0.0603,1.42128,0.25332,-2.61935,0.79526,1.57082,0.27401,-0.13366,-0.39487,0.04347,,,,,,,,,,,,,,,,,,,,,,,,,,0,0,0,0,0
19.2488,1784397740.8044,1,1,7.0000,0.0607,1.42128,0.25332,-2.61935,0.79526,1.57082,0.27401,-0.13366,-0.39487,0.04347,,,,,,,,,,,,,,,,,,,,,,,,,,0,0,0,0,0
19.3426,1784397740.8982,1,1,7.0000,0.0614,1.42128,0.25332,-2.61935,0.79526,1.57082,0.27401,-0.13366,-0.39487,0.04347,,,,,,,,,,,,,,,,,,,,,,,,,,0,0,0,0,0
19.4379,1784397740.9935,1,1,7.0000,0.0610,1.42128,0.25332,-2.61935,0.79526,1.57082,0.27401,-0.13366,-0.39487,0.04347,,,,,,,,,,,,,,,,,,,,,,,,,,0,0,0,0,0
19.5370,1784397741.0925,1,1,7.0000,0.0601,1.42128,0.25331,-2.61935,0.79528,1.57082,0.27401,-0.13366,-0.39487,0.04347,,,,,,,,,,,,,,,,,,,,,,,,,,0,0,0,0,0
19.6331,1784397741.1886,1,1,7.0000,0.0598,1.42128,0.25330,-2.61935,0.79530,1.57082,0.27401,-0.13366,-0.39488,0.04346,,,,,,,,,,,,,,,,,,,,,,,,,,0,0,0,0,0
19.7294,1784397741.2850,1,1,7.0000,0.0662,1.42128,0.25330,-2.61935,0.79530,1.57082,0.27401,-0.13366,-0.39488,0.04346,,,,,,,,,,,,,,,,,,,,,,,,,,0,0,0,0,0
19.8289,1784397741.3845,1,1,7.0000,0.0703,1.42128,0.25330,-2.61935,0.79530,1.57082,0.27401,-0.13366,-0.39488,0.04346,,,,,,,,,,,,,,,,,,,,,,,,,,0,0,0,0,0
19.9269,1784397741.4825,1,1,7.0000,0.0714,1.42128,0.25330,-2.61935,0.79530,1.57082,0.27401,-0.13366,-0.39488,0.04346,,,,,,,,,,,,,,,,,,,,,,,,,,0,0,0,0,0
20.0288,1784397741.5843,1,1,7.0000,0.0718,1.42128,0.25328,-2.61935,0.79532,1.57082,0.27401,-0.13366,-0.39488,0.04346,,,,,,,,,,,,,,,,,,,,,,,,,,0,0,0,0,0
20.1190,1784397741.6746,1,1,7.0000,0.0704,1.42128,0.25328,-2.61936,0.79534,1.57082,0.27401,-0.13366,-0.39488,0.04345,,,,,,,,,,,,,,,,,,,,,,,,,,0,0,0,0,0
20.2181,1784397741.7736,1,1,7.0000,0.0683,1.42128,0.25328,-2.61936,0.79534,1.57082,0.27401,-0.13366,-0.39488,0.04345,,,,,,,,,,,,,,,,,,,,,,,,,,0,0,0,0,0
20.3130,1784397741.8686,1,1,7.0000,0.0677,1.42128,0.25328,-2.61936,0.79534,1.57082,0.27401,-0.13366,-0.39488,0.04345,,,,,,,,,,,,,,,,,,,,,,,,,,0,0,0,0,0
20.4117,1784397741.9673,1,1,7.0000,0.0617,1.42128,0.25328,-2.61936,0.79534,1.57082,0.27401,-0.13366,-0.39488,0.04345,,,,,,,,,,,,,,,,,,,,,,,,,,0,0,0,0,0
20.5136,1784397742.0691,1,1,7.0000,0.0599,1.42128,0.25325,-2.61937,0.79537,1.57082,0.27401,-0.13366,-0.39488,0.04344,,,,,,,,,,,,,,,,,,,,,,,,,,0,0,0,0,0
20.6172,1784397742.1728,1,1,7.0000,0.0594,1.42128,0.25324,-2.61937,0.79538,1.57082,0.27401,-0.13366,-0.39488,0.04344,,,,,,,,,,,,,,,,,,,,,,,,,,0,0,0,0,0
20.7705,1784397742.3261,1,1,7.0000,0.0593,1.42128,0.25324,-2.61937,0.79538,1.57082,0.27401,-0.13366,-0.39488,0.04344,,,,,,,,,,,,,,,,,,,,,,,,,,0,0,0,0,0
20.7988,1784397742.3544,1,1,7.0000,0.0586,1.42128,0.25324,-2.61937,0.79538,1.57082,0.27401,-0.13366,-0.39488,0.04344,,,,,,,,,,,,,,,,,,,,,,,,,,0,0,0,0,0
20.8982,1784397742.4538,1,1,7.0000,0.0566,1.42128,0.25324,-2.61937,0.79538,1.57082,0.27401,-0.13366,-0.39488,0.04344,,,,,,,,,,,,,,,,,,,,,,,,,,0,0,0,0,0
20.9956,1784397742.5512,1,1,7.0000,0.0561,1.42128,0.25323,-2.61939,0.79541,1.57082,0.27401,-0.13366,-0.39487,0.04343,,,,,,,,,,,,,,,,,,,,,,,,,,0,0,0,0,0
21.0923,1784397742.6479,1,1,7.0000,0.0588,1.42128,0.25322,-2.61939,0.79542,1.57082,0.27401,-0.13366,-0.39487,0.04343,,,,,,,,,,,,,,,,,,,,,,,,,,0,0,0,0,0
21.1878,1784397742.7434,1,1,7.0000,0.0668,1.42128,0.25322,-2.61939,0.79542,1.57082,0.27401,-0.13366,-0.39487,0.04343,,,,,,,,,,,,,,,,,,,,,,,,,,0,0,0,0,0
21.2850,1784397742.8406,1,1,7.0000,0.0692,1.42128,0.25322,-2.61939,0.79542,1.57082,0.27401,-0.13366,-0.39487,0.04343,,,,,,,,,,,,,,,,,,,,,,,,,,0,0,0,0,0
21.3824,1784397742.9380,1,1,7.0000,0.0666,1.42128,0.25322,-2.61939,0.79542,1.57082,0.27401,-0.13366,-0.39487,0.04343,,,,,,,,,,,,,,,,,,,,,,,,,,0,0,0,0,0
21.4778,1784397743.0334,1,1,7.0000,0.0656,1.42128,0.25319,-2.61939,0.79545,1.57082,0.27401,-0.13366,-0.39488,0.04342,,,,,,,,,,,,,,,,,,,,,,,,,,0,0,0,0,0
21.5756,1784397743.1312,1,1,7.0000,0.0651,1.42128,0.25319,-2.61940,0.79546,1.57082,0.27401,-0.13366,-0.39488,0.04342,,,,,,,,,,,,,,,,,,,,,,,,,,0,0,0,0,0
21.6731,1784397743.2287,1,1,7.0000,0.0613,1.42128,0.25319,-2.61940,0.79546,1.57082,0.27401,-0.13366,-0.39488,0.04342,,,,,,,,,,,,,,,,,,,,,,,,,,0,0,0,0,0
21.7708,1784397743.3264,1,1,7.0000,0.0590,1.42128,0.25319,-2.61940,0.79546,1.57082,0.27401,-0.13366,-0.39488,0.04342,,,,,,,,,,,,,,,,,,,,,,,,,,0,0,0,0,0
21.8705,1784397743.4261,1,1,7.0000,0.0584,1.42128,0.25319,-2.61940,0.79546,1.57082,0.27401,-0.13366,-0.39488,0.04342,,,,,,,,,,,,,,,,,,,,,,,,,,0,0,0,0,0
21.9637,1784397743.5193,1,1,7.0000,0.0582,1.42128,0.25317,-2.61941,0.79550,1.57082,0.27401,-0.13366,-0.39488,0.04341,,,,,,,,,,,,,,,,,,,,,,,,,,0,0,0,0,0
22.1596,1784397743.7152,1,1,7.0000,0.0596,1.42128,0.25317,-2.61941,0.79550,1.57082,0.27401,-0.13366,-0.39488,0.04341,,,,,,,,,,,,,,,,,,,,,,,,,,0,0,0,0,0
22.1760,1784397743.7316,1,1,7.0000,0.0619,1.42128,0.25317,-2.61941,0.79550,1.57082,0.27401,-0.13366,-0.39488,0.04341,,,,,,,,,,,,,,,,,,,,,,,,,,0,0,0,0,0
22.2579,1784397743.8135,1,1,7.0000,0.0689,1.42128,0.25317,-2.61941,0.79550,1.57082,0.27401,-0.13366,-0.39488,0.04341,,,,,,,,,,,,,,,,,,,,,,,,,,0,0,0,0,0
22.3573,1784397743.9129,1,1,7.0000,0.0720,1.42128,0.25317,-2.61941,0.79550,1.57082,0.27401,-0.13366,-0.39488,0.04341,,,,,,,,,,,,,,,,,,,,,,,,,,0,0,0,0,0
22.4571,1784397744.0127,1,1,7.0000,0.0750,1.42128,0.25313,-2.61942,0.79554,1.57082,0.27401,-0.13366,-0.39488,0.04339,,,,,,,,,,,,,,,,,,,,,,,,,,0,0,0,0,0
22.5472,1784397744.1028,1,1,7.0000,0.0759,1.42128,0.25313,-2.61942,0.79554,1.57082,0.27401,-0.13366,-0.39488,0.04339,,,,,,,,,,,,,,,,,,,,,,,,,,0,0,0,0,0
22.6462,1784397744.2018,1,1,7.0000,0.0665,1.42128,0.25313,-2.61942,0.79554,1.57082,0.27401,-0.13366,-0.39488,0.04339,,,,,,,,,,,,,,,,,,,,,,,,,,0,0,0,0,0
22.7426,1784397744.2982,1,1,7.0000,0.0634,1.42128,0.25313,-2.61942,0.79554,1.57082,0.27401,-0.13366,-0.39488,0.04339,,,,,,,,,,,,,,,,,,,,,,,,,,0,0,0,0,0
22.8388,1784397744.3944,1,1,7.0000,0.0624,1.42128,0.25313,-2.61942,0.79554,1.57082,0.27401,-0.13366,-0.39488,0.04339,,,,,,,,,,,,,,,,,,,,,,,,,,0,0,0,0,0
22.9351,1784397744.4907,1,1,7.0000,0.0621,1.42128,0.25311,-2.61943,0.79558,1.57082,0.27401,-0.13366,-0.39488,0.04338,,,,,,,,,,,,,,,,,,,,,,,,,,0,0,0,0,0
23.0329,1784397744.5885,1,1,7.0000,0.0692,1.42128,0.25311,-2.61943,0.79558,1.57082,0.27401,-0.13366,-0.39488,0.04338,,,,,,,,,,,,,,,,,,,,,,,,,,0,0,0,0,0
23.4211,1784397744.9767,1,1,7.0000,0.0680,1.42128,0.25308,-2.61945,0.79562,1.57082,0.27401,-0.13366,-0.39487,0.04337,,,,,,,,,,,,,,,,,,,,,,,,,,0,0,0,0,0
23.4237,1784397744.9793,1,1,7.0000,0.0603,1.42128,0.25308,-2.61945,0.79562,1.57082,0.27401,-0.13366,-0.39487,0.04337,,,,,,,,,,,,,,,,,,,,,,,,,,0,0,0,0,0
23.5243,1784397745.0799,1,1,7.0000,0.0581,1.42128,0.25308,-2.61945,0.79562,1.57082,0.27401,-0.13366,-0.39487,0.04337,,,,,,,,,,,,,,,,,,,,,,,,,,0,0,0,0,0
23.6193,1784397745.1748,1,1,7.0000,0.0695,1.42128,0.25308,-2.61945,0.79562,1.57082,0.27401,-0.13366,-0.39487,0.04337,,,,,,,,,,,,,,,,,,,,,,,,,,0,0,0,0,0
23.7159,1784397745.2715,1,1,7.0000,0.0728,1.42128,0.25308,-2.61945,0.79562,1.57082,0.27401,-0.13366,-0.39487,0.04337,,,,,,,,,,,,,,,,,,,,,,,,,,0,0,0,0,0
23.8167,1784397745.3723,1,1,7.0000,0.0725,1.42128,0.25308,-2.61945,0.79562,1.57082,0.27401,-0.13366,-0.39487,0.04337,,,,,,,,,,,,,,,,,,,,,,,,,,0,0,0,0,0
23.9075,1784397745.4631,1,1,7.0000,0.0613,1.42128,0.25305,-2.61946,0.79566,1.57082,0.27401,-0.13366,-0.39488,0.04336,,,,,,,,,,,,,,,,,,,,,,,,,,0,0,0,0,0
24.0069,1784397745.5624,1,1,7.0000,0.0581,1.42128,0.25305,-2.61946,0.79566,1.57082,0.27401,-0.13366,-0.39488,0.04336,,,,,,,,,,,,,,,,,,,,,,,,,,0,0,0,0,0
24.1032,1784397745.6588,1,1,7.0000,0.0600,1.42128,0.25305,-2.61946,0.79566,1.57082,0.27401,-0.13366,-0.39488,0.04336,,,,,,,,,,,,,,,,,,,,,,,,,,0,0,0,0,0
24.2000,1784397745.7556,1,1,7.0000,0.0606,1.42128,0.25305,-2.61946,0.79566,1.57082,0.27401,-0.13366,-0.39488,0.04336,,,,,,,,,,,,,,,,,,,,,,,,,,0,0,0,0,0
24.3010,1784397745.8566,1,1,7.0000,0.0599,1.42128,0.25305,-2.61946,0.79566,1.57082,0.27401,-0.13366,-0.39488,0.04336,,,,,,,,,,,,,,,,,,,,,,,,,,0,0,0,0,0
24.4085,1784397745.9640,1,1,7.0000,0.0554,1.42128,0.25303,-2.61947,0.79569,1.57082,0.27401,-0.13366,-0.39488,0.04335,,,,,,,,,,,,,,,,,,,,,,,,,,0,0,0,0,0
24.4918,1784397746.0474,1,1,7.0000,0.0584,1.42128,0.25303,-2.61947,0.79569,1.57082,0.27401,-0.13366,-0.39488,0.04335,,,,,,,,,,,,,,,,,,,,,,,,,,0,0,0,0,0
24.5865,1784397746.1420,1,1,7.0000,0.0637,1.42128,0.25303,-2.61947,0.79569,1.57082,0.27401,-0.13366,-0.39488,0.04335,,,,,,,,,,,,,,,,,,,,,,,,,,0,0,0,0,0
24.6859,1784397746.2415,1,1,7.0000,0.0655,1.42128,0.25303,-2.61947,0.79569,1.57082,0.27401,-0.13366,-0.39488,0.04335,,,,,,,,,,,,,,,,,,,,,,,,,,0,0,0,0,0
24.7811,1784397746.3367,1,1,7.0000,0.0657,1.42128,0.25303,-2.61947,0.79569,1.57082,0.27401,-0.13366,-0.39488,0.04335,,,,,,,,,,,,,,,,,,,,,,,,,,0,0,0,0,0
24.8839,1784397746.4395,1,1,7.0000,0.0658,1.42128,0.25300,-2.61948,0.79574,1.57082,0.27401,-0.13366,-0.39488,0.04334,,,,,,,,,,,,,,,,,,,,,,,,,,0,0,0,0,0
24.9771,1784397746.5327,1,1,7.0000,0.0658,1.42128,0.25300,-2.61948,0.79574,1.57082,0.27401,-0.13366,-0.39488,0.04334,,,,,,,,,,,,,,,,,,,,,,,,,,0,0,0,0,0
25.0730,1784397746.6285,1,1,7.0000,0.0685,1.42128,0.25300,-2.61948,0.79574,1.57082,0.27401,-0.13366,-0.39488,0.04334,,,,,,,,,,,,,,,,,,,,,,,,,,0,0,0,0,0
25.1710,1784397746.7266,1,1,7.0000,0.0701,1.42128,0.25300,-2.61948,0.79574,1.57082,0.27401,-0.13366,-0.39488,0.04334,,,,,,,,,,,,,,,,,,,,,,,,,,0,0,0,0,0
25.2679,1784397746.8235,1,1,7.0000,0.0698,1.42128,0.25300,-2.61948,0.79574,1.57082,0.27401,-0.13366,-0.39488,0.04334,,,,,,,,,,,,,,,,,,,,,,,,,,0,0,0,0,0
25.3636,1784397746.9192,1,1,7.0000,0.0731,1.42128,0.25297,-2.61949,0.79577,1.57082,0.27401,-0.13366,-0.39488,0.04333,,,,,,,,,,,,,,,,,,,,,,,,,,0,0,0,0,0
25.4602,1784397747.0158,1,1,7.0000,0.0740,1.42128,0.25297,-2.61949,0.79577,1.57082,0.27401,-0.13366,-0.39488,0.04333,,,,,,,,,,,,,,,,,,,,,,,,,,0,0,0,0,0
25.5581,1784397747.1136,1,1,7.0000,0.0743,1.42128,0.25297,-2.61949,0.79577,1.57082,0.27401,-0.13366,-0.39488,0.04333,,,,,,,,,,,,,,,,,,,,,,,,,,0,0,0,0,0
25.6595,1784397747.2150,1,1,7.0000,0.0749,1.42128,0.25297,-2.61949,0.79577,1.57082,0.27401,-0.13366,-0.39488,0.04333,,,,,,,,,,,,,,,,,,,,,,,,,,0,0,0,0,0
25.7601,1784397747.3156,1,1,7.0000,0.0799,1.42128,0.25297,-2.61949,0.79577,1.57082,0.27401,-0.13366,-0.39488,0.04333,,,,,,,,,,,,,,,,,,,,,,,,,,0,0,0,0,0
25.8501,1784397747.4057,1,1,7.0000,0.0813,1.42128,0.25294,-2.61951,0.79582,1.57082,0.27401,-0.13366,-0.39488,0.04331,,,,,,,,,,,,,,,,,,,,,,,,,,0,0,0,0,0
25.9470,1784397747.5026,1,1,7.0000,0.0739,1.42128,0.25294,-2.61951,0.79582,1.57082,0.27401,-0.13366,-0.39488,0.04331,,,,,,,,,,,,,,,,,,,,,,,,,,0,0,0,0,0
26.0436,1784397747.5992,1,1,7.0000,0.0717,1.42128,0.25294,-2.61951,0.79582,1.57082,0.27401,-0.13366,-0.39488,0.04331,,,,,,,,,,,,,,,,,,,,,,,,,,0,0,0,0,0
26.1455,1784397747.7011,1,1,7.0000,0.0725,1.42128,0.25294,-2.61951,0.79582,1.57082,0.27401,-0.13366,-0.39488,0.04331,,,,,,,,,,,,,,,,,,,,,,,,,,0,0,0,0,0
26.2468,1784397747.8024,1,1,7.0000,0.0727,1.42128,0.25294,-2.61951,0.79583,1.57082,0.27401,-0.13366,-0.39488,0.04331,,,,,,,,,,,,,,,,,,,,,,,,,,0,0,0,0,0
26.3365,1784397747.8921,1,1,7.0000,0.0693,1.42128,0.25292,-2.61952,0.79585,1.57082,0.27401,-0.13366,-0.39488,0.04330,,,,,,,,,,,,,,,,,,,,,,,,,,0,0,0,0,0
26.4321,1784397747.9877,1,1,7.0000,0.0683,1.42128,0.25292,-2.61952,0.79585,1.57082,0.27401,-0.13366,-0.39488,0.04330,,,,,,,,,,,,,,,,,,,,,,,,,,0,0,0,0,0
26.5301,1784397748.0857,1,1,7.0000,0.0693,1.42128,0.25292,-2.61952,0.79585,1.57082,0.27401,-0.13366,-0.39488,0.04330,,,,,,,,,,,,,,,,,,,,,,,,,,0,0,0,0,0
26.6292,1784397748.1848,1,1,7.0000,0.0695,1.42128,0.25292,-2.61952,0.79585,1.57082,0.27401,-0.13366,-0.39488,0.04330,,,,,,,,,,,,,,,,,,,,,,,,,,0,0,0,0,0
26.7248,1784397748.2804,1,1,7.0000,0.0696,1.42128,0.25292,-2.61952,0.79586,1.57082,0.27401,-0.13366,-0.39488,0.04330,,,,,,,,,,,,,,,,,,,,,,,,,,0,0,0,0,0
26.8214,1784397748.3769,1,1,7.0000,0.0706,1.42128,0.25289,-2.61954,0.79590,1.57082,0.27401,-0.13366,-0.39487,0.04329,,,,,,,,,,,,,,,,,,,,,,,,,,0,0,0,0,0
26.9170,1784397748.4726,1,1,7.0000,0.0740,1.42128,0.25289,-2.61954,0.79590,1.57082,0.27401,-0.13366,-0.39487,0.04329,,,,,,,,,,,,,,,,,,,,,,,,,,0,0,0,0,0
27.0169,1784397748.5725,1,1,7.0000,0.0749,1.42128,0.25289,-2.61954,0.79590,1.57082,0.27401,-0.13366,-0.39487,0.04329,,,,,,,,,,,,,,,,,,,,,,,,,,0,0,0,0,0
27.1198,1784397748.6754,1,1,7.0000,0.0752,1.42128,0.25289,-2.61954,0.79590,1.57082,0.27401,-0.13366,-0.39487,0.04329,,,,,,,,,,,,,,,,,,,,,,,,,,0,0,0,0,0
27.2106,1784397748.7662,1,1,7.0000,0.0824,1.42128,0.25288,-2.61954,0.79591,1.57082,0.27401,-0.13366,-0.39488,0.04328,,,,,,,,,,,,,,,,,,,,,,,,,,0,0,0,0,0
27.3079,1784397748.8635,1,1,7.0000,0.0845,1.42128,0.25287,-2.61954,0.79593,1.57082,0.27401,-0.13366,-0.39488,0.04328,,,,,,,,,,,,,,,,,,,,,,,,,,0,0,0,0,0
27.4061,1784397748.9617,1,1,7.0000,0.0749,1.42128,0.25287,-2.61954,0.79593,1.57082,0.27401,-0.13366,-0.39488,0.04328,,,,,,,,,,,,,,,,,,,,,,,,,,0,0,0,0,0
27.5046,1784397749.0602,1,1,7.0000,0.0722,1.42128,0.25287,-2.61954,0.79593,1.57082,0.27401,-0.13366,-0.39488,0.04328,,,,,,,,,,,,,,,,,,,,,,,,,,0,0,0,0,0
27.6025,1784397749.1581,1,1,7.0000,0.0768,1.42128,0.25287,-2.61954,0.79593,1.57082,0.27401,-0.13366,-0.39488,0.04328,,,,,,,,,,,,,,,,,,,,,,,,,,0,0,0,0,0
27.6969,1784397749.2525,1,1,7.0000,0.0782,1.42128,0.25286,-2.61955,0.79594,1.57082,0.27401,-0.13366,-0.39488,0.04328,,,,,,,,,,,,,,,,,,,,,,,,,,0,0,0,0,0
27.7958,1784397749.3514,1,1,7.0000,0.0765,1.42128,0.25283,-2.61956,0.79598,1.57082,0.27401,-0.13366,-0.39488,0.04326,,,,,,,,,,,,,,,,,,,,,,,,,,0,0,0,0,0
27.8909,1784397749.4464,1,2,7.0000,0.0708,1.42128,0.25283,-2.61956,0.79598,1.57082,0.27401,-0.13366,-0.39488,0.04326,,,,,,,,,,,,,,,,,,,,,,,,,,0,0,0,0,0
27.9892,1784397749.5448,1,2,7.0000,0.0692,1.42128,0.25283,-2.61956,0.79598,1.57082,0.27401,-0.13366,-0.39488,0.04326,,,,,,,,,,,,,,,,,,,,,,,,,,0,0,0,0,0
28.0924,1784397749.6480,1,2,7.0000,0.0629,1.42128,0.25283,-2.61956,0.79598,1.57082,0.27401,-0.13366,-0.39488,0.04326,,,,,,,,,,,,,,,,,,,,,,,,,,0,0,0,0,0
28.1809,1784397749.7365,1,2,7.0000,0.0611,1.42128,0.25283,-2.61956,0.79598,1.57082,0.27401,-0.13366,-0.39488,0.04326,,,,,,,,,,,,,,,,,,,,,,,,,,0,0,0,0,0
28.2786,1784397749.8341,1,2,7.0000,0.0635,1.42128,0.25283,-2.61956,0.79599,1.57082,0.27401,-0.13366,-0.39488,0.04326,,,,,,,,,,,,,,,,,,,,,,,,,,0,0,0,0,0
28.3741,1784397749.9297,1,2,7.0000,0.0698,1.42128,0.25283,-2.61956,0.79599,1.57082,0.27401,-0.13366,-0.39488,0.04326,,,,,,,,,,,,,,,,,,,,,,,,,,0,0,0,0,0
28.4728,1784397750.0284,1,2,7.0000,0.0750,1.42128,0.25283,-2.61956,0.79599,1.57082,0.27401,-0.13366,-0.39488,0.04326,,,,,,,,,,,,,,,,,,,,,,,,,,0,0,0,0,0
28.5691,1784397750.1247,1,2,7.0000,0.0765,1.42128,0.25283,-2.61956,0.79599,1.57082,0.27401,-0.13366,-0.39488,0.04326,,,,,,,,,,,,,,,,,,,,,,,,,,0,0,0,0,0
28.6696,1784397750.2251,1,2,7.0000,0.0770,1.42128,0.25282,-2.61956,0.79599,1.57082,0.27401,-0.13366,-0.39488,0.04326,,,,,,,,,,,,,,,,,,,,,,,,,,0,0,0,0,0
28.7639,1784397750.3194,1,2,7.0000,0.0806,1.42128,0.25282,-2.61956,0.79600,1.57082,0.27401,-0.13366,-0.39488,0.04326,,,,,,,,,,,,,,,,,,,,,,,,,,0,0,0,0,0
28.8622,1784397750.4178,1,2,7.0000,0.0817,1.42128,0.25282,-2.61956,0.79600,1.57082,0.27401,-0.13366,-0.39488,0.04326,,,,,,,,,,,,,,,,,,,,,,,,,,0,0,0,0,0
28.9596,1784397750.5152,1,2,7.0000,0.0831,1.42128,0.25282,-2.61956,0.79600,1.57082,0.27401,-0.13366,-0.39488,0.04326,,,,,,,,,,,,,,,,,,,,,,,,,,0,0,0,0,0
29.0589,1784397750.6144,1,2,7.0000,0.0831,1.42128,0.25282,-2.61956,0.79600,1.57082,0.27401,-0.13366,-0.39488,0.04326,,,,,,,,,,,,,,,,,,,,,,,,,,0,0,0,0,0
29.1536,1784397750.7092,1,2,7.0000,0.0831,1.42128,0.25280,-2.61957,0.79602,1.57082,0.27401,-0.13366,-0.39488,0.04325,,,,,,,,,,,,,,,,,,,,,,,,,,0,0,0,0,0
29.2499,1784397750.8055,1,2,7.0000,0.0821,1.42128,0.25279,-2.61958,0.79603,1.57082,0.27401,-0.13366,-0.39488,0.04325,,,,,,,,,,,,,,,,,,,,,,,,,,0,0,0,0,0
29.3527,1784397750.9083,1,2,7.0000,0.0805,1.42128,0.25279,-2.61958,0.79603,1.57082,0.27401,-0.13366,-0.39488,0.04325,,,,,,,,,,,,,,,,,,,,,,,,,,0,0,0,0,0
29.4469,1784397751.0025,1,2,7.0000,0.0775,1.42128,0.25279,-2.61958,0.79603,1.57082,0.27401,-0.13366,-0.39488,0.04325,,,,,,,,,,,,,,,,,,,,,,,,,,0,0,0,0,0
29.5433,1784397751.0988,1,2,7.0000,0.0764,1.42128,0.25279,-2.61958,0.79603,1.57082,0.27401,-0.13366,-0.39488,0.04325,,,,,,,,,,,,,,,,,,,,,,,,,,0,0,0,0,0
29.6391,1784397751.1947,1,2,7.0000,0.0707,1.42127,0.25277,-2.61958,0.79606,1.57082,0.27401,-0.13366,-0.39488,0.04324,,,,,,,,,,,,,,,,,,,,,,,,,,0,0,0,0,0
29.7342,1784397751.2898,1,2,7.0000,0.0690,1.42127,0.25277,-2.61958,0.79607,1.57082,0.27401,-0.13366,-0.39488,0.04324,,,,,,,,,,,,,,,,,,,,,,,,,,0,0,0,0,0
29.8363,1784397751.3919,1,2,7.0000,0.0741,1.42127,0.25277,-2.61958,0.79607,1.57082,0.27401,-0.13366,-0.39488,0.04324,,,,,,,,,,,,,,,,,,,,,,,,,,0,0,0,0,0
29.9344,1784397751.4900,1,2,7.0000,0.0756,1.42127,0.25277,-2.61958,0.79607,1.57082,0.27401,-0.13366,-0.39488,0.04324,,,,,,,,,,,,,,,,,,,,,,,,,,0,0,0,0,0
30.0360,1784397751.5916,1,2,7.0000,0.0751,1.42127,0.25277,-2.61958,0.79607,1.57082,0.27401,-0.13366,-0.39488,0.04324,,,,,,,,,,,,,,,,,,,,,,,,,,0,0,0,0,0
30.1256,1784397751.6812,1,2,7.0000,0.0725,1.42127,0.25274,-2.61960,0.79611,1.57082,0.27401,-0.13366,-0.39488,0.04322,,,,,,,,,,,,,,,,,,,,,,,,,,0,0,0,0,0
30.2260,1784397751.7816,1,2,7.0000,0.0718,1.42127,0.25274,-2.61960,0.79611,1.57082,0.27401,-0.13366,-0.39488,0.04322,,,,,,,,,,,,,,,,,,,,,,,,,,0,0,0,0,0
30.3210,1784397751.8765,1,2,7.0000,0.0787,1.42127,0.25274,-2.61960,0.79611,1.57082,0.27401,-0.13366,-0.39488,0.04322,,,,,,,,,,,,,,,,,,,,,,,,,,0,0,0,0,0
30.4169,1784397751.9725,1,2,7.0000,0.0806,1.42127,0.25274,-2.61960,0.79611,1.57082,0.27401,-0.13366,-0.39488,0.04322,,,,,,,,,,,,,,,,,,,,,,,,,,0,0,0,0,0
30.5127,1784397752.0683,1,2,7.0000,0.0812,1.42127,0.25274,-2.61960,0.79611,1.57082,0.27401,-0.13366,-0.39488,0.04322,,,,,,,,,,,,,,,,,,,,,,,,,,0,0,0,0,0
30.6102,1784397752.1658,1,2,7.0000,0.0849,1.42127,0.25272,-2.61961,0.79615,1.57082,0.27401,-0.13366,-0.39488,0.04322,,,,,,,,,,,,,,,,,,,,,,,,,,0,0,0,0,0
30.7070,1784397752.2625,1,2,7.0000,0.0860,1.42127,0.25272,-2.61961,0.79615,1.57082,0.27401,-0.13366,-0.39488,0.04322,,,,,,,,,,,,,,,,,,,,,,,,,,0,0,0,0,0
30.8060,1784397752.3616,1,2,7.0000,0.0818,1.42127,0.25272,-2.61961,0.79615,1.57082,0.27401,-0.13366,-0.39488,0.04322,,,,,,,,,,,,,,,,,,,,,,,,,,0,0,0,0,0
30.8999,1784397752.4555,1,2,7.0000,0.0771,1.42127,0.25272,-2.61961,0.79615,1.57082,0.27401,-0.13366,-0.39488,0.04322,,,,,,,,,,,,,,,,,,,,,,,,,,0,0,0,0,0
30.9996,1784397752.5552,1,2,7.0000,0.0757,1.42127,0.25272,-2.61961,0.79615,1.57082,0.27401,-0.13366,-0.39488,0.04322,,,,,,,,,,,,,,,,,,,,,,,,,,0,0,0,0,0
31.0974,1784397752.6529,1,2,7.0000,0.0758,1.42127,0.25268,-2.61963,0.79619,1.57082,0.27401,-0.13366,-0.39487,0.04320,,,,,,,,,,,,,,,,,,,,,,,,,,0,0,0,0,0
31.1954,1784397752.7510,1,2,7.0000,0.0787,1.42127,0.25268,-2.61963,0.79619,1.57082,0.27401,-0.13366,-0.39487,0.04320,,,,,,,,,,,,,,,,,,,,,,,,,,0,0,0,0,0
