Martins-Lucaas/twinforge/sensors/Data/20260702_142212__samples.csv
t_rel_s,t_unix,cycle,phase,setpoint_n,force_net_n,q1,q2,q3,q4,q5,q6,tcp_x,tcp_y,tcp_z,taxel_0,taxel_1,taxel_2,taxel_3,taxel_4,taxel_5,taxel_6,taxel_7,taxel_8,taxel_9,taxel_10,taxel_11,taxel_12,taxel_13,taxel_14,taxel_15,taxel_16,taxel_17,taxel_18,taxel_19,taxel_20,taxel_21,taxel_22,taxel_23,taxel_24,n_RA,n_SA,cn_mm,cn_ra,cn_sa
0.0086,1783012932.9752,1,0,1.0000,0.0000,1.44682,0.23328,-2.77749,0.97336,1.57080,0.01558,-0.14597,-0.38012,0.04652,,,,,,,,,,,,,,,,,,,,,,,,,,0,0,0,0,0
0.0174,1783012932.9840,1,0,1.0000,0.0000,1.44682,0.23328,-2.77749,0.97336,1.57080,0.01559,-0.14597,-0.38012,0.04652,,,,,,,,,,,,,,,,,,,,,,,,,,0,0,0,0,0
0.0270,1783012932.9936,1,0,1.0000,0.0000,1.44682,0.23328,-2.77749,0.97336,1.57080,0.01559,-0.14597,-0.38012,0.04652,,,,,,,,,,,,,,,,,,,,,,,,,,0,0,0,0,0
0.0371,1783012933.0037,1,0,1.0000,0.0000,1.44682,0.23328,-2.77749,0.97336,1.57080,0.01561,-0.14597,-0.38012,0.04652,,,,,,,,,,,,,,,,,,,,,,,,,,0,0,0,0,0
0.0473,1783012933.0138,1,0,1.0000,0.0000,1.44682,0.23328,-2.77749,0.97336,1.57080,0.01561,-0.14598,-0.38012,0.04652,,,,,,,,,,,,,,,,,,,,,,,,,,0,0,0,0,0
0.0582,1783012933.0247,1,0,1.0000,0.0000,1.44682,0.23328,-2.77749,0.97336,1.57080,0.01562,-0.14598,-0.38012,0.04652,,,,,,,,,,,,,,,,,,,,,,,,,,0,0,0,0,0
0.0719,1783012933.0385,1,0,1.0000,0.0000,1.44682,0.23328,-2.77749,0.97336,1.57080,0.01563,-0.14598,-0.38012,0.04652,,,,,,,,,,,,,,,,,,,,,,,,,,0,0,0,0,0
0.0805,1783012933.0471,1,0,1.0000,0.0000,1.44682,0.23328,-2.77749,0.97336,1.57080,0.01563,-0.14598,-0.38012,0.04652,,,,,,,,,,,,,,,,,,,,,,,,,,0,0,0,0,0
0.0886,1783012933.0552,1,0,1.0000,0.0000,1.44682,0.23328,-2.77749,0.97336,1.57080,0.01564,-0.14598,-0.38012,0.04652,,,,,,,,,,,,,,,,,,,,,,,,,,0,0,0,0,0
0.0889,1783012933.0555,1,0,1.0000,0.0000,1.44682,0.23328,-2.77749,0.97336,1.57080,0.01564,-0.14598,-0.38012,0.04652,,,,,,,,,,,,,,,,,,,,,,,,,,0,0,0,0,0
0.0977,1783012933.0643,1,0,1.0000,0.0000,1.44682,0.23328,-2.77749,0.97336,1.57080,0.01565,-0.14598,-0.38012,0.04652,,,,,,,,,,,,,,,,,,,,,,,,,,0,0,0,0,0
0.0980,1783012933.0646,1,0,1.0000,0.0000,1.44682,0.23328,-2.77749,0.97336,1.57080,0.01565,-0.14598,-0.38012,0.04652,,,,,,,,,,,,,,,,,,,,,,,,,,0,0,0,0,0
0.1098,1783012933.0764,1,0,1.0000,0.0000,1.44682,0.23328,-2.77749,0.97336,1.57080,0.01566,-0.14598,-0.38012,0.04652,,,,,,,,,,,,,,,,,,,,,,,,,,0,0,0,0,0
0.1101,1783012933.0767,1,0,1.0000,0.0000,1.44682,0.23328,-2.77749,0.97336,1.57080,0.01566,-0.14598,-0.38012,0.04652,,,,,,,,,,,,,,,,,,,,,,,,,,0,0,0,0,0
0.1180,1783012933.0846,1,0,1.0000,0.0000,1.44682,0.23328,-2.77749,0.97336,1.57080,0.01566,-0.14598,-0.38012,0.04652,,,,,,,,,,,,,,,,,,,,,,,,,,0,0,0,0,0
0.1284,1783012933.0949,1,0,1.0000,0.0000,1.44682,0.23328,-2.77749,0.97336,1.57080,0.01567,-0.14598,-0.38012,0.04652,,,,,,,,,,,,,,,,,,,,,,,,,,0,0,0,0,0
0.1376,1783012933.1042,1,0,1.0000,0.0000,1.44682,0.23328,-2.77749,0.97336,1.57080,0.01567,-0.14598,-0.38012,0.04652,,,,,,,,,,,,,,,,,,,,,,,,,,0,0,0,0,0
0.1522,1783012933.1188,1,0,1.0000,0.0000,1.44682,0.23328,-2.77749,0.97336,1.57080,0.01568,-0.14598,-0.38012,0.04652,,,,,,,,,,,,,,,,,,,,,,,,,,0,0,0,0,0
0.1576,1783012933.1242,1,0,1.0000,0.0000,1.44682,0.23328,-2.77749,0.97336,1.57080,0.01569,-0.14598,-0.38012,0.04652,,,,,,,,,,,,,,,,,,,,,,,,,,0,0,0,0,0
0.1579,1783012933.1244,1,0,1.0000,0.0000,1.44682,0.23328,-2.77749,0.97336,1.57080,0.01569,-0.14598,-0.38012,0.04652,,,,,,,,,,,,,,,,,,,,,,,,,,0,0,0,0,0
0.1682,1783012933.1348,1,0,1.0000,0.0000,1.44682,0.23328,-2.77749,0.97336,1.57080,0.01569,-0.14598,-0.38012,0.04652,,,,,,,,,,,,,,,,,,,,,,,,,,0,0,0,0,0
0.1775,1783012933.1440,1,0,1.0000,0.0000,1.44682,0.23328,-2.77749,0.97336,1.57080,0.01569,-0.14598,-0.38012,0.04652,,,,,,,,,,,,,,,,,,,,,,,,,,0,0,0,0,0
0.1935,1783012933.1601,1,0,1.0000,0.0000,1.44682,0.23328,-2.77749,0.97336,1.57080,0.01570,-0.14598,-0.38012,0.04652,,,,,,,,,,,,,,,,,,,,,,,,,,0,0,0,0,0
0.2026,1783012933.1692,1,0,1.0000,0.0000,1.44682,0.23328,-2.77749,0.97336,1.57080,0.01549,-0.14597,-0.38012,0.04652,,,,,,,,,,,,,,,,,,,,,,,,,,0,0,0,0,0
0.2081,1783012933.1747,1,0,1.0000,0.0000,1.44682,0.23328,-2.77749,0.97336,1.57080,0.01527,-0.14596,-0.38012,0.04652,,,,,,,,,,,,,,,,,,,,,,,,,,0,0,0,0,0
0.2085,1783012933.1751,1,0,1.0000,0.0000,1.44682,0.23328,-2.77749,0.97336,1.57080,0.01527,-0.14596,-0.38012,0.04652,,,,,,,,,,,,,,,,,,,,,,,,,,0,0,0,0,0
0.2177,1783012933.1843,1,0,1.0000,0.0000,1.44682,0.23328,-2.77749,0.97336,1.57080,0.01451,-0.14591,-0.38011,0.04652,,,,,,,,,,,,,,,,,,,,,,,,,,0,0,0,0,0
0.2284,1783012933.1950,1,0,1.0000,0.0000,1.44682,0.23328,-2.77749,0.97336,1.57080,0.01421,-0.14590,-0.38011,0.04652,,,,,,,,,,,,,,,,,,,,,,,,,,0,0,0,0,0
0.2376,1783012933.2042,1,0,1.0000,0.0000,1.44682,0.23328,-2.77749,0.97336,1.57080,0.01370,-0.14587,-0.38011,0.04652,,,,,,,,,,,,,,,,,,,,,,,,,,0,0,0,0,0
0.2379,1783012933.2044,1,0,1.0000,0.0000,1.44682,0.23328,-2.77749,0.97336,1.57080,0.01370,-0.14587,-0.38011,0.04652,,,,,,,,,,,,,,,,,,,,,,,,,,0,0,0,0,0
0.2472,1783012933.2138,1,0,1.0000,0.0000,1.44682,0.23328,-2.77749,0.97336,1.57080,0.01326,-0.14585,-0.38011,0.04652,,,,,,,,,,,,,,,,,,,,,,,,,,0,0,0,0,0
0.2593,1783012933.2258,1,0,1.0000,0.0000,1.44682,0.23328,-2.77749,0.97336,1.57080,0.01265,-0.14581,-0.38010,0.04652,,,,,,,,,,,,,,,,,,,,,,,,,,0,0,0,0,0
0.2674,1783012933.2339,1,0,1.0000,0.0000,1.44682,0.23328,-2.77749,0.97336,1.57080,0.01227,-0.14579,-0.38010,0.04652,,,,,,,,,,,,,,,,,,,,,,,,,,0,0,0,0,0
0.2782,1783012933.2448,1,0,1.0000,0.0000,1.44682,0.23328,-2.77748,0.97336,1.57080,0.01170,-0.14576,-0.38010,0.04652,,,,,,,,,,,,,,,,,,,,,,,,,,0,0,0,0,0
0.2786,1783012933.2451,1,0,1.0000,0.0000,1.44682,0.23328,-2.77748,0.97336,1.57080,0.01170,-0.14576,-0.38010,0.04652,,,,,,,,,,,,,,,,,,,,,,,,,,0,0,0,0,0
0.2875,1783012933.2541,1,0,1.0000,0.0000,1.44682,0.23328,-2.77748,0.97337,1.57080,0.01132,-0.14574,-0.38010,0.04652,,,,,,,,,,,,,,,,,,,,,,,,,,0,0,0,0,0
0.2983,1783012933.2648,1,0,1.0000,0.0000,1.44682,0.23328,-2.77748,0.97337,1.57080,0.01075,-0.14571,-0.38009,0.04652,,,,,,,,,,,,,,,,,,,,,,,,,,0,0,0,0,0
0.3088,1783012933.2753,1,0,1.0000,0.0000,1.44682,0.23328,-2.77748,0.97337,1.57080,0.01037,-0.14569,-0.38009,0.04652,,,,,,,,,,,,,,,,,,,,,,,,,,0,0,0,0,0
0.3182,1783012933.2848,1,0,1.0000,0.0000,1.44682,0.23328,-2.77748,0.97337,1.57080,0.00980,-0.14566,-0.38009,0.04652,,,,,,,,,,,,,,,,,,,,,,,,,,0,0,0,0,0
0.3433,1783012933.3098,1,0,1.0000,0.0000,1.44682,0.23328,-2.77748,0.97337,1.57080,0.00866,-0.14559,-0.38008,0.04652,,,,,,,,,,,,,,,,,,,,,,,,,,0,0,0,0,0
0.3437,1783012933.3103,1,0,1.0000,0.0000,1.44682,0.23328,-2.77748,0.97337,1.57080,0.00866,-0.14559,-0.38008,0.04652,,,,,,,,,,,,,,,,,,,,,,,,,,0,0,0,0,0
0.3472,1783012933.3137,1,0,1.0000,0.0000,1.44682,0.23328,-2.77748,0.97337,1.57080,0.00847,-0.14558,-0.38008,0.04652,,,,,,,,,,,,,,,,,,,,,,,,,,0,0,0,0,0
0.3600,1783012933.3266,1,0,1.0000,0.0000,1.44682,0.23328,-2.77748,0.97337,1.57080,0.00789,-0.14555,-0.38008,0.04652,,,,,,,,,,,,,,,,,,,,,,,,,,0,0,0,0,0
0.3718,1783012933.3384,1,0,1.0000,0.0000,1.44682,0.23328,-2.77748,0.97337,1.57080,0.00732,-0.14552,-0.38007,0.04652,,,,,,,,,,,,,,,,,,,,,,,,,,0,0,0,0,0
0.3796,1783012933.3462,1,0,1.0000,0.0000,1.44682,0.23328,-2.77748,0.97337,1.57080,0.00694,-0.14550,-0.38007,0.04652,,,,,,,,,,,,,,,,,,,,,,,,,,0,0,0,0,0
0.3799,1783012933.3465,1,0,1.0000,0.0000,1.44682,0.23328,-2.77748,0.97337,1.57080,0.00694,-0.14550,-0.38007,0.04652,,,,,,,,,,,,,,,,,,,,,,,,,,0,0,0,0,0
0.3882,1783012933.3548,1,0,1.0000,0.0000,1.44682,0.23328,-2.77748,0.97337,1.57080,0.00656,-0.14548,-0.38007,0.04652,,,,,,,,,,,,,,,,,,,,,,,,,,0,0,0,0,0
0.3996,1783012933.3661,1,0,1.0000,0.0000,1.44682,0.23328,-2.77748,0.97337,1.57080,0.00599,-0.14545,-0.38006,0.04653,,,,,,,,,,,,,,,,,,,,,,,,,,0,0,0,0,0
0.4084,1783012933.3749,1,0,1.0000,0.0000,1.44682,0.23328,-2.77748,0.97337,1.57080,0.00561,-0.14543,-0.38006,0.04653,,,,,,,,,,,,,,,,,,,,,,,,,,0,0,0,0,0
0.4175,1783012933.3841,1,0,1.0000,0.0000,1.44682,0.23328,-2.77748,0.97337,1.57080,0.00504,-0.14540,-0.38006,0.04653,,,,,,,,,,,,,,,,,,,,,,,,,,0,0,0,0,0
0.4299,1783012933.3964,1,0,1.0000,0.0000,1.44682,0.23328,-2.77748,0.97337,1.57080,0.00447,-0.14537,-0.38006,0.04653,,,,,,,,,,,,,,,,,,,,,,,,,,0,0,0,0,0
0.4427,1783012933.4093,1,0,1.0000,0.0000,1.44682,0.23328,-2.77748,0.97337,1.57080,0.00390,-0.14533,-0.38005,0.04653,,,,,,,,,,,,,,,,,,,,,,,,,,0,0,0,0,0
0.4430,1783012933.4096,1,0,1.0000,0.0000,1.44682,0.23328,-2.77748,0.97337,1.57080,0.00390,-0.14533,-0.38005,0.04653,,,,,,,,,,,,,,,,,,,,,,,,,,0,0,0,0,0
0.4479,1783012933.4144,1,0,1.0000,0.0000,1.44682,0.23328,-2.77748,0.97337,1.57080,0.00371,-0.14532,-0.38005,0.04653,,,,,,,,,,,,,,,,,,,,,,,,,,0,0,0,0,0
0.4624,1783012933.4290,1,0,1.0000,0.0000,1.44682,0.23328,-2.77748,0.97337,1.57080,0.00295,-0.14528,-0.38005,0.04653,,,,,,,,,,,,,,,,,,,,,,,,,,0,0,0,0,0
0.4737,1783012933.4403,1,0,1.0000,0.0000,1.44682,0.23328,-2.77748,0.97337,1.57080,0.00238,-0.14525,-0.38004,0.04653,,,,,,,,,,,,,,,,,,,,,,,,,,0,0,0,0,0
0.4778,1783012933.4443,1,0,1.0000,0.0000,1.44682,0.23328,-2.77748,0.97337,1.57080,0.00219,-0.14524,-0.38004,0.04653,,,,,,,,,,,,,,,,,,,,,,,,,,0,0,0,0,0
0.5034,1783012933.4699,1,0,1.0000,0.0000,1.44682,0.23328,-2.77748,0.97337,1.57080,0.00097,-0.14517,-0.38003,0.04653,,,,,,,,,,,,,,,,,,,,,,,,,,0,0,0,0,0
0.5038,1783012933.4703,1,0,1.0000,0.0000,1.44682,0.23328,-2.77748,0.97337,1.57080,0.00097,-0.14517,-0.38003,0.04653,,,,,,,,,,,,,,,,,,,,,,,,,,0,0,0,0,0
0.5258,1783012933.4923,1,0,1.0000,0.0000,1.44682,0.23328,-2.77748,0.97337,1.57080,0.00000,-0.14512,-0.38003,0.04653,,,,,,,,,,,,,,,,,,,,,,,,,,0,0,0,0,0
0.5278,1783012933.4943,1,0,1.0000,0.0000,1.44682,0.23328,-2.77748,0.97337,1.57080,0.00000,-0.14512,-0.38003,0.04653,,,,,,,,,,,,,,,,,,,,,,,,,,0,0,0,0,0
0.5283,1783012933.4948,1,0,1.0000,0.0000,1.44682,0.23328,-2.77748,0.97337,1.57080,0.00000,-0.14512,-0.38003,0.04653,,,,,,,,,,,,,,,,,,,,,,,,,,0,0,0,0,0
0.5285,1783012933.4951,1,0,1.0000,0.0000,1.44682,0.23328,-2.77748,0.97337,1.57080,0.00000,-0.14512,-0.38003,0.04653,,,,,,,,,,,,,,,,,,,,,,,,,,0,0,0,0,0
0.5377,1783012933.5042,1,0,1.0000,0.0000,1.44682,0.23328,-2.77748,0.97337,1.57080,0.00000,-0.14512,-0.38003,0.04653,,,,,,,,,,,,,,,,,,,,,,,,,,0,0,0,0,0
0.5380,1783012933.5046,1,0,1.0000,0.0000,1.44682,0.23328,-2.77748,0.97337,1.57080,0.00000,-0.14512,-0.38003,0.04653,,,,,,,,,,,,,,,,,,,,,,,,,,0,0,0,0,0
0.5512,1783012933.5177,1,0,1.0000,0.0000,1.44682,0.23328,-2.77748,0.97337,1.57080,0.00000,-0.14512,-0.38003,0.04653,,,,,,,,,,,,,,,,,,,,,,,,,,0,0,0,0,0
0.5593,1783012933.5258,1,0,1.0000,0.0000,1.44682,0.23328,-2.77748,0.97337,1.57080,0.00000,-0.14512,-0.38003,0.04653,,,,,,,,,,,,,,,,,,,,,,,,,,0,0,0,0,0
0.5673,1783012933.5339,1,0,1.0000,0.0000,1.44682,0.23328,-2.77748,0.97337,1.57080,0.00000,-0.14512,-0.38003,0.04653,,,,,,,,,,,,,,,,,,,,,,,,,,0,0,0,0,0
0.5785,1783012933.5451,1,0,1.0000,0.0000,1.44682,0.23328,-2.77748,0.97337,1.57080,0.00000,-0.14512,-0.38003,0.04653,,,,,,,,,,,,,,,,,,,,,,,,,,0,0,0,0,0
0.5884,1783012933.5550,1,0,1.0000,0.0000,1.44682,0.23328,-2.77748,0.97337,1.57080,-0.00000,-0.14512,-0.38003,0.04653,,,,,,,,,,,,,,,,,,,,,,,,,,0,0,0,0,0
0.6113,1783012933.5779,1,0,1.0000,0.0000,1.44682,0.23328,-2.77748,0.97337,1.57080,-0.00000,-0.14512,-0.38003,0.04653,,,,,,,,,,,,,,,,,,,,,,,,,,0,0,0,0,0
0.6118,1783012933.5783,1,0,1.0000,0.0000,1.44682,0.23328,-2.77748,0.97337,1.57080,-0.00000,-0.14512,-0.38003,0.04653,,,,,,,,,,,,,,,,,,,,,,,,,,0,0,0,0,0
0.6186,1783012933.5852,1,0,1.0000,0.0000,1.44682,0.23328,-2.77748,0.97337,1.57080,0.00000,-0.14512,-0.38003,0.04653,,,,,,,,,,,,,,,,,,,,,,,,,,0,0,0,0,0
0.6277,1783012933.5943,1,0,1.0000,0.0000,1.44682,0.23328,-2.77748,0.97337,1.57080,0.00000,-0.14512,-0.38003,0.04653,,,,,,,,,,,,,,,,,,,,,,,,,,0,0,0,0,0
0.6384,1783012933.6049,1,0,1.0000,0.0000,1.44682,0.23328,-2.77748,0.97337,1.57080,0.00000,-0.14512,-0.38003,0.04653,,,,,,,,,,,,,,,,,,,,,,,,,,0,0,0,0,0
0.6388,1783012933.6054,1,0,1.0000,0.0000,1.44682,0.23328,-2.77748,0.97337,1.57080,0.00000,-0.14512,-0.38003,0.04653,,,,,,,,,,,,,,,,,,,,,,,,,,0,0,0,0,0
0.6479,1783012933.6145,1,0,1.0000,0.0000,1.44682,0.23328,-2.77748,0.97337,1.57080,0.00000,-0.14512,-0.38003,0.04653,,,,,,,,,,,,,,,,,,,,,,,,,,0,0,0,0,0
0.6482,1783012933.6148,1,0,1.0000,0.0000,1.44682,0.23328,-2.77748,0.97337,1.57080,0.00000,-0.14512,-0.38003,0.04653,,,,,,,,,,,,,,,,,,,,,,,,,,0,0,0,0,0
0.6603,1783012933.6269,1,0,1.0000,0.0000,1.44682,0.23328,-2.77748,0.97337,1.57080,0.00000,-0.14512,-0.38003,0.04653,,,,,,,,,,,,,,,,,,,,,,,,,,0,0,0,0,0
0.6671,1783012933.6336,1,0,1.0000,0.0000,1.44682,0.23328,-2.77748,0.97337,1.57080,0.00000,-0.14512,-0.38003,0.04653,,,,,,,,,,,,,,,,,,,,,,,,,,0,0,0,0,0
0.6674,1783012933.6340,1,0,1.0000,0.0000,1.44682,0.23328,-2.77748,0.97337,1.57080,0.00000,-0.14512,-0.38003,0.04653,,,,,,,,,,,,,,,,,,,,,,,,,,0,0,0,0,0
0.6767,1783012933.6432,1,0,1.0000,0.0000,1.44682,0.23328,-2.77748,0.97337,1.57080,0.00000,-0.14512,-0.38003,0.04653,,,,,,,,,,,,,,,,,,,,,,,,,,0,0,0,0,0
0.6770,1783012933.6435,1,0,1.0000,0.0000,1.44682,0.23328,-2.77748,0.97337,1.57080,0.00000,-0.14512,-0.38003,0.04653,,,,,,,,,,,,,,,,,,,,,,,,,,0,0,0,0,0
0.6874,1783012933.6540,1,0,1.0000,0.0000,1.44682,0.23328,-2.77748,0.97337,1.57080,0.00000,-0.14512,-0.38003,0.04653,,,,,,,,,,,,,,,,,,,,,,,,,,0,0,0,0,0
0.6877,1783012933.6543,1,0,1.0000,0.0000,1.44682,0.23328,-2.77748,0.97337,1.57080,0.00000,-0.14512,-0.38003,0.04653,,,,,,,,,,,,,,,,,,,,,,,,,,0,0,0,0,0
0.7030,1783012933.6695,1,0,1.0000,0.0000,1.44682,0.23328,-2.77748,0.97337,1.57080,0.00000,-0.14512,-0.38003,0.04653,,,,,,,,,,,,,,,,,,,,,,,,,,0,0,0,0,0
0.7146,1783012933.6812,1,0,1.0000,0.0000,1.44682,0.23328,-2.77748,0.97337,1.57080,0.00000,-0.14512,-0.38003,0.04653,,,,,,,,,,,,,,,,,,,,,,,,,,0,0,0,0,0
0.7195,1783012933.6861,1,0,1.0000,0.0000,1.44682,0.23328,-2.77748,0.97337,1.57080,0.00000,-0.14512,-0.38003,0.04653,,,,,,,,,,,,,,,,,,,,,,,,,,0,0,0,0,0
0.7373,1783012933.7039,1,0,1.0000,0.0000,1.44682,0.23328,-2.77748,0.97337,1.57080,0.00000,-0.14512,-0.38003,0.04653,,,,,,,,,,,,,,,,,,,,,,,,,,0,0,0,0,0
0.7378,1783012933.7044,1,0,1.0000,0.0000,1.44682,0.23328,-2.77748,0.97337,1.57080,0.00000,-0.14512,-0.38003,0.04653,,,,,,,,,,,,,,,,,,,,,,,,,,0,0,0,0,0
0.7500,1783012933.7166,1,0,1.0000,0.0000,1.44682,0.23328,-2.77748,0.97337,1.57080,0.00000,-0.14512,-0.38003,0.04653,,,,,,,,,,,,,,,,,,,,,,,,,,0,0,0,0,0
0.7505,1783012933.7170,1,0,1.0000,0.0000,1.44682,0.23328,-2.77748,0.97337,1.57080,0.00000,-0.14512,-0.38003,0.04653,,,,,,,,,,,,,,,,,,,,,,,,,,0,0,0,0,0
0.7594,1783012933.7259,1,0,1.0000,0.0000,1.44682,0.23328,-2.77748,0.97337,1.57080,0.00000,-0.14512,-0.38003,0.04653,,,,,,,,,,,,,,,,,,,,,,,,,,0,0,0,0,0
0.7699,1783012933.7365,1,0,1.0000,0.0000,1.44682,0.23328,-2.77748,0.97337,1.57080,0.00000,-0.14512,-0.38003,0.04653,,,,,,,,,,,,,,,,,,,,,,,,,,0,0,0,0,0
0.7701,1783012933.7367,1,0,1.0000,0.0000,1.44682,0.23328,-2.77748,0.97337,1.57080,0.00000,-0.14512,-0.38003,0.04653,,,,,,,,,,,,,,,,,,,,,,,,,,0,0,0,0,0
0.7782,1783012933.7448,1,0,1.0000,0.0000,1.44682,0.23328,-2.77748,0.97337,1.57080,0.00000,-0.14512,-0.38003,0.04653,,,,,,,,,,,,,,,,,,,,,,,,,,0,0,0,0,0
0.7785,1783012933.7451,1,0,1.0000,0.0000,1.44682,0.23328,-2.77748,0.97337,1.57080,0.00000,-0.14512,-0.38003,0.04653,,,,,,,,,,,,,,,,,,,,,,,,,,0,0,0,0,0
0.7909,1783012933.7575,1,0,1.0000,0.0000,1.44682,0.23328,-2.77748,0.97337,1.57080,0.00000,-0.14512,-0.38003,0.04653,,,,,,,,,,,,,,,,,,,,,,,,,,0,0,0,0,0
0.7973,1783012933.7639,1,0,1.0000,0.0000,1.44682,0.23328,-2.77748,0.97337,1.57080,0.00000,-0.14512,-0.38003,0.04653,,,,,,,,,,,,,,,,,,,,,,,,,,0,0,0,0,0
0.8104,1783012933.7770,1,0,1.0000,0.0000,1.44682,0.23328,-2.77748,0.97337,1.57080,0.00000,-0.14512,-0.38003,0.04653,,,,,,,,,,,,,,,,,,,,,,,,,,0,0,0,0,0
0.8108,1783012933.7774,1,0,1.0000,0.0000,1.44682,0.23328,-2.77748,0.97337,1.57080,0.00000,-0.14512,-0.38003,0.04653,,,,,,,,,,,,,,,,,,,,,,,,,,0,0,0,0,0
0.8231,1783012933.7897,1,0,1.0000,0.0000,1.44682,0.23328,-2.77748,0.97337,1.57080,0.00000,-0.14512,-0.38003,0.04653,,,,,,,,,,,,,,,,,,,,,,,,,,0,0,0,0,0
0.8279,1783012933.7944,1,0,1.0000,0.0000,1.44682,0.23328,-2.77748,0.97337,1.57080,0.00000,-0.14512,-0.38003,0.04653,,,,,,,,,,,,,,,,,,,,,,,,,,0,0,0,0,0
0.8372,1783012933.8038,1,0,1.0000,0.0000,1.44682,0.23328,-2.77748,0.97337,1.57080,0.00000,-0.14512,-0.38003,0.04653,,,,,,,,,,,,,,,,,,,,,,,,,,0,0,0,0,0
0.8583,1783012933.8248,1,0,1.0000,0.0000,1.44682,0.23328,-2.77748,0.97337,1.57080,0.00000,-0.14512,-0.38003,0.04653,,,,,,,,,,,,,,,,,,,,,,,,,,0,0,0,0,0
0.8586,1783012933.8252,1,0,1.0000,0.0000,1.44682,0.23328,-2.77748,0.97337,1.57080,0.00000,-0.14512,-0.38003,0.04653,,,,,,,,,,,,,,,,,,,,,,,,,,0,0,0,0,0
0.8671,1783012933.8337,1,0,1.0000,0.0000,1.44682,0.23328,-2.77748,0.97337,1.57080,0.00000,-0.14512,-0.38003,0.04653,,,,,,,,,,,,,,,,,,,,,,,,,,0,0,0,0,0
0.8770,1783012933.8436,1,0,1.0000,0.0000,1.44682,0.23328,-2.77748,0.97337,1.57080,0.00000,-0.14512,-0.38003,0.04653,,,,,,,,,,,,,,,,,,,,,,,,,,0,0,0,0,0
0.8776,1783012933.8442,1,0,1.0000,0.0000,1.44682,0.23328,-2.77748,0.97337,1.57080,0.00000,-0.14512,-0.38003,0.04653,,,,,,,,,,,,,,,,,,,,,,,,,,0,0,0,0,0
0.8978,1783012933.8643,1,0,1.0000,0.0000,1.44682,0.23328,-2.77748,0.97337,1.57080,0.00000,-0.14512,-0.38003,0.04653,,,,,,,,,,,,,,,,,,,,,,,,,,0,0,0,0,0
0.8982,1783012933.8648,1,0,1.0000,0.0000,1.44682,0.23328,-2.77748,0.97337,1.57080,0.00000,-0.14512,-0.38003,0.04653,,,,,,,,,,,,,,,,,,,,,,,,,,0,0,0,0,0
0.8985,1783012933.8650,1,0,1.0000,0.0000,1.44682,0.23328,-2.77748,0.97337,1.57080,0.00000,-0.14512,-0.38003,0.04653,,,,,,,,,,,,,,,,,,,,,,,,,,0,0,0,0,0
0.9092,1783012933.8758,1,0,1.0000,0.0000,1.44682,0.23328,-2.77748,0.97337,1.57080,0.00000,-0.14512,-0.38003,0.04653,,,,,,,,,,,,,,,,,,,,,,,,,,0,0,0,0,0
0.9211,1783012933.8877,1,0,1.0000,0.0000,1.44682,0.23328,-2.77748,0.97337,1.57080,0.00000,-0.14512,-0.38003,0.04653,,,,,,,,,,,,,,,,,,,,,,,,,,0,0,0,0,0
0.9300,1783012933.8966,1,0,1.0000,0.0000,1.44682,0.23328,-2.77748,0.97337,1.57080,0.00000,-0.14512,-0.38003,0.04653,,,,,,,,,,,,,,,,,,,,,,,,,,0,0,0,0,0
0.9369,1783012933.9035,1,0,1.0000,0.0000,1.44682,0.23328,-2.77748,0.97337,1.57080,0.00000,-0.14512,-0.38003,0.04653,,,,,,,,,,,,,,,,,,,,,,,,,,0,0,0,0,0
0.9472,1783012933.9138,1,0,1.0000,0.0000,1.44682,0.23328,-2.77748,0.97337,1.57080,0.00000,-0.14512,-0.38003,0.04653,,,,,,,,,,,,,,,,,,,,,,,,,,0,0,0,0,0
0.9583,1783012933.9248,1,0,1.0000,0.0000,1.44682,0.23328,-2.77748,0.97337,1.57080,0.00000,-0.14512,-0.38003,0.04653,,,,,,,,,,,,,,,,,,,,,,,,,,0,0,0,0,0
0.9670,1783012933.9336,1,0,1.0000,0.0000,1.44682,0.23328,-2.77748,0.97337,1.57080,0.00000,-0.14512,-0.38003,0.04653,,,,,,,,,,,,,,,,,,,,,,,,,,0,0,0,0,0
0.9770,1783012933.9435,1,0,1.0000,0.0000,1.44682,0.23328,-2.77748,0.97337,1.57080,0.00000,-0.14512,-0.38003,0.04653,,,,,,,,,,,,,,,,,,,,,,,,,,0,0,0,0,0
0.9776,1783012933.9442,1,0,1.0000,0.0000,1.44682,0.23328,-2.77748,0.97337,1.57080,0.00000,-0.14512,-0.38003,0.04653,,,,,,,,,,,,,,,,,,,,,,,,,,0,0,0,0,0
0.9911,1783012933.9577,1,0,1.0000,0.0000,1.44682,0.23328,-2.77748,0.97337,1.57080,0.00000,-0.14512,-0.38003,0.04653,,,,,,,,,,,,,,,,,,,,,,,,,,0,0,0,0,0
0.9978,1783012933.9644,1,0,1.0000,0.0000,1.44682,0.23328,-2.77748,0.97337,1.57080,0.00000,-0.14512,-0.38003,0.04653,,,,,,,,,,,,,,,,,,,,,,,,,,0,0,0,0,0
1.0123,1783012933.9789,1,0,1.0000,0.0000,1.44682,0.23328,-2.77748,0.97337,1.57080,0.00000,-0.14512,-0.38003,0.04653,,,,,,,,,,,,,,,,,,,,,,,,,,0,0,0,0,0
1.0180,1783012933.9846,1,0,1.0000,0.0000,1.44682,0.23328,-2.77748,0.97337,1.57080,0.00000,-0.14512,-0.38003,0.04653,,,,,,,,,,,,,,,,,,,,,,,,,,0,0,0,0,0
1.0183,1783012933.9849,1,0,1.0000,0.0000,1.44682,0.23328,-2.77748,0.97337,1.57080,0.00000,-0.14512,-0.38003,0.04653,,,,,,,,,,,,,,,,,,,,,,,,,,0,0,0,0,0
1.0313,1783012933.9979,1,0,1.0000,0.0000,1.44682,0.23328,-2.77748,0.97337,1.57080,0.00000,-0.14512,-0.38003,0.04653,,,,,,,,,,,,,,,,,,,,,,,,,,0,0,0,0,0
1.0381,1783012934.0047,1,0,1.0000,0.0000,1.44682,0.23328,-2.77748,0.97337,1.57080,0.00000,-0.14512,-0.38003,0.04653,,,,,,,,,,,,,,,,,,,,,,,,,,0,0,0,0,0
1.0471,1783012934.0137,1,0,1.0000,0.0000,1.44682,0.23328,-2.77748,0.97337,1.57080,0.00000,-0.14512,-0.38003,0.04653,,,,,,,,,,,,,,,,,,,,,,,,,,0,0,0,0,0
1.0569,1783012934.0235,1,0,1.0000,0.0000,1.44682,0.23328,-2.77748,0.97337,1.57080,0.00000,-0.14512,-0.38003,0.04653,,,,,,,,,,,,,,,,,,,,,,,,,,0,0,0,0,0
1.0574,1783012934.0240,1,0,1.0000,0.0000,1.44682,0.23328,-2.77748,0.97337,1.57080,0.00000,-0.14512,-0.38003,0.04653,,,,,,,,,,,,,,,,,,,,,,,,,,0,0,0,0,0
1.0698,1783012934.0364,1,0,1.0000,0.0000,1.44682,0.23328,-2.77748,0.97337,1.57080,0.00000,-0.14512,-0.38003,0.04653,,,,,,,,,,,,,,,,,,,,,,,,,,0,0,0,0,0
1.0702,1783012934.0368,1,0,1.0000,0.0000,1.44682,0.23328,-2.77748,0.97337,1.57080,0.00000,-0.14512,-0.38003,0.04653,,,,,,,,,,,,,,,,,,,,,,,,,,0,0,0,0,0
1.0779,1783012934.0445,1,0,1.0000,0.0000,1.44682,0.23328,-2.77748,0.97337,1.57080,0.00000,-0.14512,-0.38003,0.04653,,,,,,,,,,,,,,,,,,,,,,,,,,0,0,0,0,0
1.0782,1783012934.0448,1,0,1.0000,0.0000,1.44682,0.23328,-2.77748,0.97337,1.57080,0.00000,-0.14512,-0.38003,0.04653,,,,,,,,,,,,,,,,,,,,,,,,,,0,0,0,0,0
1.0879,1783012934.0545,1,0,1.0000,0.0000,1.44682,0.23328,-2.77748,0.97337,1.57080,0.00000,-0.14512,-0.38003,0.04653,,,,,,,,,,,,,,,,,,,,,,,,,,0,0,0,0,0
1.1059,1783012934.0725,1,0,1.0000,0.0000,1.44682,0.23328,-2.77748,0.97337,1.57080,0.00000,-0.14512,-0.38003,0.04653,,,,,,,,,,,,,,,,,,,,,,,,,,0,0,0,0,0
1.1238,1783012934.0903,1,0,1.0000,0.0000,1.44682,0.23328,-2.77748,0.97337,1.57080,0.00000,-0.14512,-0.38003,0.04653,,,,,,,,,,,,,,,,,,,,,,,,,,0,0,0,0,0
1.1241,1783012934.0907,1,0,1.0000,0.0000,1.44682,0.23328,-2.77748,0.97337,1.57080,0.00000,-0.14512,-0.38003,0.04653,,,,,,,,,,,,,,,,,,,,,,,,,,0,0,0,0,0
1.1277,1783012934.0943,1,0,1.0000,0.0000,1.44682,0.23328,-2.77748,0.97337,1.57080,0.00000,-0.14512,-0.38003,0.04653,,,,,,,,,,,,,,,,,,,,,,,,,,0,0,0,0,0
1.1280,1783012934.0946,1,0,1.0000,0.0000,1.44682,0.23328,-2.77748,0.97337,1.57080,0.00000,-0.14512,-0.38003,0.04653,,,,,,,,,,,,,,,,,,,,,,,,,,0,0,0,0,0
1.1377,1783012934.1043,1,0,1.0000,0.0000,1.44682,0.23328,-2.77748,0.97337,1.57080,0.00000,-0.14512,-0.38003,0.04653,,,,,,,,,,,,,,,,,,,,,,,,,,0,0,0,0,0
1.1471,1783012934.1136,1,0,1.0000,0.0000,1.44682,0.23328,-2.77748,0.97337,1.57080,0.00000,-0.14512,-0.38003,0.04653,,,,,,,,,,,,,,,,,,,,,,,,,,0,0,0,0,0
1.1834,1783012934.1500,1,0,1.0000,0.0000,1.44682,0.23328,-2.77748,0.97337,1.57080,0.00000,-0.14512,-0.38003,0.04653,,,,,,,,,,,,,,,,,,,,,,,,,,0,0,0,0,0
1.1839,1783012934.1504,1,0,1.0000,0.0000,1.44682,0.23328,-2.77748,0.97337,1.57080,0.00000,-0.14512,-0.38003,0.04653,,,,,,,,,,,,,,,,,,,,,,,,,,0,0,0,0,0
1.1897,1783012934.1563,1,0,1.0000,0.0000,1.44682,0.23328,-2.77748,0.97337,1.57080,0.00000,-0.14512,-0.38003,0.04653,,,,,,,,,,,,,,,,,,,,,,,,,,0,0,0,0,0
1.1899,1783012934.1565,1,0,1.0000,0.0000,1.44682,0.23328,-2.77748,0.97337,1.57080,0.00000,-0.14512,-0.38003,0.04653,,,,,,,,,,,,,,,,,,,,,,,,,,0,0,0,0,0
1.2024,1783012934.1690,1,0,1.0000,0.0000,1.44682,0.23328,-2.77748,0.97337,1.57080,0.00000,-0.14512,-0.38003,0.04653,,,,,,,,,,,,,,,,,,,,,,,,,,0,0,0,0,0
1.2150,1783012934.1815,1,0,1.0000,0.0000,1.44682,0.23328,-2.77748,0.97337,1.57080,0.00000,-0.14512,-0.38003,0.04653,,,,,,,,,,,,,,,,,,,,,,,,,,0,0,0,0,0
1.2232,1783012934.1897,1,0,1.0000,0.0000,1.44682,0.23328,-2.77748,0.97337,1.57080,0.00000,-0.14512,-0.38003,0.04653,,,,,,,,,,,,,,,,,,,,,,,,,,0,0,0,0,0
1.2272,1783012934.1938,1,0,1.0000,0.0000,1.44682,0.23328,-2.77748,0.97337,1.57080,0.00000,-0.14512,-0.38003,0.04653,,,,,,,,,,,,,,,,,,,,,,,,,,0,0,0,0,0
1.2488,1783012934.2154,1,0,1.0000,0.0000,1.44682,0.23328,-2.77748,0.97337,1.57080,0.00000,-0.14512,-0.38003,0.04653,,,,,,,,,,,,,,,,,,,,,,,,,,0,0,0,0,0
1.2492,1783012934.2157,1,0,1.0000,0.0000,1.44682,0.23328,-2.77748,0.97337,1.57080,0.00000,-0.14512,-0.38003,0.04653,,,,,,,,,,,,,,,,,,,,,,,,,,0,0,0,0,0
1.2698,1783012934.2364,1,0,1.0000,0.0000,1.44682,0.23328,-2.77748,0.97337,1.57080,0.00000,-0.14512,-0.38003,0.04653,,,,,,,,,,,,,,,,,,,,,,,,,,0,0,0,0,0
1.2702,1783012934.2367,1,0,1.0000,0.0000,1.44682,0.23328,-2.77748,0.97337,1.57080,0.00000,-0.14512,-0.38003,0.04653,,,,,,,,,,,,,,,,,,,,,,,,,,0,0,0,0,0
1.2823,1783012934.2489,1,0,1.0000,0.0000,1.44682,0.23328,-2.77748,0.97337,1.57080,0.00000,-0.14512,-0.38003,0.04653,,,,,,,,,,,,,,,,,,,,,,,,,,0,0,0,0,0
1.2877,1783012934.2543,1,0,1.0000,0.0000,1.44682,0.23328,-2.77748,0.97337,1.57080,0.00000,-0.14512,-0.38003,0.04653,,,,,,,,,,,,,,,,,,,,,,,,,,0,0,0,0,0
1.3047,1783012934.2713,1,0,1.0000,0.0000,1.44682,0.23328,-2.77748,0.97337,1.57080,0.00000,-0.14512,-0.38003,0.04653,,,,,,,,,,,,,,,,,,,,,,,,,,0,0,0,0,0
1.3070,1783012934.2736,1,0,1.0000,0.0000,1.44682,0.23328,-2.77748,0.97337,1.57080,0.00000,-0.14512,-0.38003,0.04653,,,,,,,,,,,,,,,,,,,,,,,,,,0,0,0,0,0
1.3074,1783012934.2740,1,0,1.0000,0.0000,1.44682,0.23328,-2.77748,0.97337,1.57080,0.00000,-0.14512,-0.38003,0.04653,,,,,,,,,,,,,,,,,,,,,,,,,,0,0,0,0,0
1.3200,1783012934.2865,1,0,1.0000,0.0000,1.44682,0.23328,-2.77748,0.97337,1.57080,0.00000,-0.14512,-0.38003,0.04653,,,,,,,,,,,,,,,,,,,,,,,,,,0,0,0,0,0
1.3344,1783012934.3009,1,0,1.0000,0.0000,1.44682,0.23328,-2.77748,0.97337,1.57080,0.00000,-0.14512,-0.38003,0.04653,,,,,,,,,,,,,,,,,,,,,,,,,,0,0,0,0,0
1.3348,1783012934.3014,1,0,1.0000,0.0000,1.44682,0.23328,-2.77748,0.97337,1.57080,0.00000,-0.14512,-0.38003,0.04653,,,,,,,,,,,,,,,,,,,,,,,,,,0,0,0,0,0
1.3421,1783012934.3086,1,0,1.0000,0.0000,1.44682,0.23328,-2.77748,0.97337,1.57080,0.00000,-0.14512,-0.38003,0.04653,,,,,,,,,,,,,,,,,,,,,,,,,,0,0,0,0,0
1.3425,1783012934.3090,1,0,1.0000,0.0000,1.44682,0.23328,-2.77748,0.97337,1.57080,0.00000,-0.14512,-0.38003,0.04653,,,,,,,,,,,,,,,,,,,,,,,,,,0,0,0,0,0
1.3499,1783012934.3165,1,0,1.0000,0.0000,1.44682,0.23328,-2.77748,0.97337,1.57080,0.00000,-0.14512,-0.38003,0.04653,,,,,,,,,,,,,,,,,,,,,,,,,,0,0,0,0,0
1.3502,1783012934.3168,1,0,1.0000,0.0000,1.44682,0.23328,-2.77748,0.97337,1.57080,0.00000,-0.14512,-0.38003,0.04653,,,,,,,,,,,,,,,,,,,,,,,,,,0,0,0,0,0
1.3686,1783012934.3352,1,1,1.0000,0.0000,1.44682,0.23328,-2.77748,0.97337,1.57080,0.00000,-0.14512,-0.38003,0.04653,,,,,,,,,,,,,,,,,,,,,,,,,,0,0,0,0,0
1.3704,1783012934.3370,1,1,1.0000,0.0000,1.44682,0.23328,-2.77748,0.97337,1.57080,0.00000,-0.14512,-0.38003,0.04653,,,,,,,,,,,,,,,,,,,,,,,,,,0,0,0,0,0
1.3957,1783012934.3623,1,1,1.0000,0.0000,1.44682,0.23328,-2.77748,0.97337,1.57080,0.00000,-0.14512,-0.38003,0.04653,,,,,,,,,,,,,,,,,,,,,,,,,,0,0,0,0,0
1.3960,1783012934.3626,1,1,1.0000,0.0000,1.44682,0.23328,-2.77748,0.97337,1.57080,0.00000,-0.14512,-0.38003,0.04653,,,,,,,,,,,,,,,,,,,,,,,,,,0,0,0,0,0
1.4004,1783012934.3670,1,1,1.0000,0.0000,1.44682,0.23328,-2.77748,0.97337,1.57080,0.00000,-0.14512,-0.38003,0.04653,,,,,,,,,,,,,,,,,,,,,,,,,,0,0,0,0,0
1.4244,1783012934.3910,1,1,1.0000,0.0000,1.44682,0.23328,-2.77748,0.97337,1.57080,0.00000,-0.14512,-0.38003,0.04653,,,,,,,,,,,,,,,,,,,,,,,,,,0,0,0,0,0
1.4282,1783012934.3948,1,1,1.0000,0.0000,1.44682,0.23328,-2.77748,0.97337,1.57080,0.00000,-0.14512,-0.38003,0.04653,,,,,,,,,,,,,,,,,,,,,,,,,,0,0,0,0,0
1.4366,1783012934.4031,1,1,1.0000,0.0000,1.44682,0.23328,-2.77748,0.97337,1.57080,0.00000,-0.14512,-0.38003,0.04653,,,,,,,,,,,,,,,,,,,,,,,,,,0,0,0,0,0
1.4413,1783012934.4079,1,1,1.0000,0.0000,1.44682,0.23328,-2.77748,0.97337,1.57080,0.00000,-0.14512,-0.38003,0.04653,,,,,,,,,,,,,,,,,,,,,,,,,,0,0,0,0,0
1.4501,1783012934.4167,1,1,1.0000,0.0000,1.44682,0.23328,-2.77748,0.97337,1.57080,0.00000,-0.14512,-0.38003,0.04653,,,,,,,,,,,,,,,,,,,,,,,,,,0,0,0,0,0
1.4766,1783012934.4431,1,1,1.0000,0.0000,1.44682,0.23328,-2.77748,0.97337,1.57080,0.00000,-0.14512,-0.38003,0.04653,,,,,,,,,,,,,,,,,,,,,,,,,,0,0,0,0,0
1.4802,1783012934.4467,1,1,1.0000,0.0000,1.44682,0.23328,-2.77748,0.97337,1.57080,0.00000,-0.14512,-0.38003,0.04653,,,,,,,,,,,,,,,,,,,,,,,,,,0,0,0,0,0
1.4814,1783012934.4480,1,1,1.0000,0.0000,1.44682,0.23328,-2.77748,0.97337,1.57080,0.00000,-0.14512,-0.38003,0.04653,,,,,,,,,,,,,,,,,,,,,,,,,,0,0,0,0,0
1.4899,1783012934.4564,1,1,1.0000,0.0000,1.44682,0.23328,-2.77748,0.97337,1.57080,0.00000,-0.14512,-0.38003,0.04653,,,,,,,,,,,,,,,,,,,,,,,,,,0,0,0,0,0
1.5010,1783012934.4675,1,1,1.0000,0.0000,1.44682,0.23328,-2.77748,0.97337,1.57080,0.00000,-0.14512,-0.38003,0.04653,,,,,,,,,,,,,,,,,,,,,,,,,,0,0,0,0,0
1.5124,1783012934.4790,1,1,1.0000,0.0000,1.44682,0.23328,-2.77748,0.97337,1.57080,0.00000,-0.14512,-0.38003,0.04653,,,,,,,,,,,,,,,,,,,,,,,,,,0,0,0,0,0
1.5236,1783012934.4901,1,1,1.0000,0.0000,1.44682,0.23328,-2.77748,0.97337,1.57080,0.00000,-0.14512,-0.38003,0.04653,,,,,,,,,,,,,,,,,,,,,,,,,,0,0,0,0,0
1.5325,1783012934.4991,1,1,1.0000,0.0000,1.44682,0.23328,-2.77748,0.97337,1.57080,0.00000,-0.14512,-0.38003,0.04653,,,,,,,,,,,,,,,,,,,,,,,,,,0,0,0,0,0
1.5468,1783012934.5133,1,1,1.0000,0.0000,1.44682,0.23328,-2.77748,0.97337,1.57080,0.00000,-0.14512,-0.38003,0.04653,,,,,,,,,,,,,,,,,,,,,,,,,,0,0,0,0,0
1.5472,1783012934.5138,1,1,1.0000,0.0000,1.44682,0.23328,-2.77748,0.97337,1.57080,0.00000,-0.14512,-0.38003,0.04653,,,,,,,,,,,,,,,,,,,,,,,,,,0,0,0,0,0
1.5500,1783012934.5166,1,1,1.0000,0.0000,1.44682,0.23328,-2.77748,0.97337,1.57080,0.00000,-0.14512,-0.38003,0.04653,,,,,,,,,,,,,,,,,,,,,,,,,,0,0,0,0,0
1.5503,1783012934.5169,1,1,1.0000,0.0000,1.44682,0.23328,-2.77748,0.97337,1.57080,0.00000,-0.14512,-0.38003,0.04653,,,,,,,,,,,,,,,,,,,,,,,,,,0,0,0,0,0
1.5612,1783012934.5278,1,1,1.0000,0.0000,1.44682,0.23327,-2.77748,0.97338,1.57080,0.00000,-0.14512,-0.38003,0.04653,,,,,,,,,,,,,,,,,,,,,,,,,,0,0,0,0,0
1.5619,1783012934.5284,1,1,1.0000,0.0000,1.44682,0.23326,-2.77748,0.97340,1.57080,0.00000,-0.14512,-0.38003,0.04652,,,,,,,,,,,,,,,,,,,,,,,,,,0,0,0,0,0
1.5718,1783012934.5383,1,1,1.0000,0.0000,1.44682,0.23321,-2.77750,0.97346,1.57080,0.00000,-0.14512,-0.38003,0.04651,,,,,,,,,,,,,,,,,,,,,,,,,,0,0,0,0,0
1.5825,1783012934.5491,1,1,1.0000,0.0000,1.44682,0.23315,-2.77751,0.97354,1.57080,0.00000,-0.14512,-0.38003,0.04649,,,,,,,,,,,,,,,,,,,,,,,,,,0,0,0,0,0
1.5830,1783012934.5496,1,1,1.0000,0.0000,1.44682,0.23315,-2.77751,0.97354,1.57080,0.00000,-0.14512,-0.38003,0.04649,,,,,,,,,,,,,,,,,,,,,,,,,,0,0,0,0,0
1.5946,1783012934.5611,1,1,1.0000,0.0000,1.44682,0.23311,-2.77752,0.97358,1.57080,0.00000,-0.14512,-0.38003,0.04648,,,,,,,,,,,,,,,,,,,,,,,,,,0,0,0,0,0
1.6005,1783012934.5671,1,1,1.0000,0.0000,1.44682,0.23309,-2.77752,0.97360,1.57080,0.00000,-0.14512,-0.38003,0.04648,,,,,,,,,,,,,,,,,,,,,,,,,,0,0,0,0,0
1.6105,1783012934.5771,1,1,1.0000,0.0000,1.44682,0.23302,-2.77754,0.97370,1.57080,0.00000,-0.14512,-0.38003,0.04646,,,,,,,,,,,,,,,,,,,,,,,,,,0,0,0,0,0
1.6237,1783012934.5902,1,1,1.0000,0.0000,1.44682,0.23300,-2.77755,0.97371,1.57080,0.00000,-0.14512,-0.38003,0.04646,,,,,,,,,,,,,,,,,,,,,,,,,,0,0,0,0,0
1.6318,1783012934.5983,1,1,1.0000,0.0000,1.44682,0.23297,-2.77756,0.97375,1.57080,0.00000,-0.14512,-0.38003,0.04645,,,,,,,,,,,,,,,,,,,,,,,,,,0,0,0,0,0
1.6471,1783012934.6137,1,1,1.0000,0.0000,1.44682,0.23292,-2.77757,0.97381,1.57080,0.00000,-0.14512,-0.38003,0.04644,,,,,,,,,,,,,,,,,,,,,,,,,,0,0,0,0,0
1.6503,1783012934.6169,1,1,1.0000,0.0000,1.44682,0.23291,-2.77757,0.97383,1.57080,0.00000,-0.14512,-0.38003,0.04643,,,,,,,,,,,,,,,,,,,,,,,,,,0,0,0,0,0
1.6602,1783012934.6268,1,1,1.0000,0.0000,1.44682,0.23287,-2.77758,0.97388,1.57080,0.00000,-0.14512,-0.38003,0.04642,,,,,,,,,,,,,,,,,,,,,,,,,,0,0,0,0,0
1.6606,1783012934.6272,1,1,1.0000,0.0000,1.44682,0.23287,-2.77758,0.97388,1.57080,0.00000,-0.14512,-0.38003,0.04642,,,,,,,,,,,,,,,,,,,,,,,,,,0,0,0,0,0
1.6714,1783012934.6380,1,1,1.0000,0.0000,1.44682,0.23279,-2.77760,0.97398,1.57080,0.00000,-0.14512,-0.38003,0.04640,,,,,,,,,,,,,,,,,,,,,,,,,,0,0,0,0,0
1.6824,1783012934.6490,1,1,1.0000,0.0000,1.44682,0.23278,-2.77761,0.97400,1.57080,0.00000,-0.14512,-0.38003,0.04640,,,,,,,,,,,,,,,,,,,,,,,,,,0,0,0,0,0
1.6914,1783012934.6580,1,1,1.0000,0.0000,1.44682,0.23275,-2.77761,0.97403,1.57080,0.00000,-0.14512,-0.38003,0.04639,,,,,,,,,,,,,,,,,,,,,,,,,,0,0,0,0,0
1.7018,1783012934.6684,1,1,1.0000,0.0000,1.44682,0.23271,-2.77762,0.97409,1.57080,0.00000,-0.14512,-0.38003,0.04638,,,,,,,,,,,,,,,,,,,,,,,,,,0,0,0,0,0
1.7148,1783012934.6814,1,1,1.0000,0.0000,1.44682,0.23267,-2.77763,0.97413,1.57080,0.00000,-0.14512,-0.38003,0.04637,,,,,,,,,,,,,,,,,,,,,,,,,,0,0,0,0,0
1.7274,1783012934.6939,1,1,1.0000,0.0000,1.44682,0.23260,-2.77765,0.97423,1.57080,0.00000,-0.14512,-0.38003,0.04635,,,,,,,,,,,,,,,,,,,,,,,,,,0,0,0,0,0
1.7368,1783012934.7033,1,1,1.0000,0.0000,1.44682,0.23257,-2.77766,0.97426,1.57080,0.00000,-0.14512,-0.38003,0.04634,,,,,,,,,,,,,,,,,,,,,,,,,,0,0,0,0,0
1.7413,1783012934.7079,1,1,1.0000,0.0000,1.44682,0.23257,-2.77766,0.97426,1.57080,0.00000,-0.14512,-0.38003,0.04634,,,,,,,,,,,,,,,,,,,,,,,,,,0,0,0,0,0
1.7527,1783012934.7193,1,1,1.0000,0.0000,1.44682,0.23253,-2.77767,0.97431,1.57080,0.00000,-0.14512,-0.38003,0.04633,,,,,,,,,,,,,,,,,,,,,,,,,,0,0,0,0,0
1.7620,1783012934.7285,1,1,1.0000,0.0000,1.44682,0.23248,-2.77768,0.97437,1.57080,0.00000,-0.14512,-0.38003,0.04632,,,,,,,,,,,,,,,,,,,,,,,,,,0,0,0,0,0
1.7804,1783012934.7470,1,1,1.0000,0.0000,1.44682,0.23243,-2.77770,0.97444,1.57080,0.00000,-0.14512,-0.38003,0.04630,,,,,,,,,,,,,,,,,,,,,,,,,,0,0,0,0,0
1.7871,1783012934.7537,1,1,1.0000,0.0000,1.44682,0.23237,-2.77771,0.97451,1.57080,0.00000,-0.14512,-0.38003,0.04629,,,,,,,,,,,,,,,,,,,,,,,,,,0,0,0,0,0
1.7875,1783012934.7540,1,1,1.0000,0.0000,1.44682,0.23237,-2.77771,0.97451,1.57080,0.00000,-0.14512,-0.38003,0.04629,,,,,,,,,,,,,,,,,,,,,,,,,,0,0,0,0,0
1.7938,1783012934.7604,1,1,1.0000,0.0000,1.44682,0.23235,-2.77772,0.97454,1.57080,0.00000,-0.14512,-0.38003,0.04628,,,,,,,,,,,,,,,,,,,,,,,,,,0,0,0,0,0
1.8020,1783012934.7685,1,1,1.0000,0.0000,1.44682,0.23233,-2.77772,0.97456,1.57080,0.00000,-0.14512,-0.38003,0.04628,,,,,,,,,,,,,,,,,,,,,,,,,,0,0,0,0,0
1.8234,1783012934.7900,1,1,1.0000,0.0000,1.44682,0.23224,-2.77774,0.97468,1.57080,0.00000,-0.14512,-0.38003,0.04626,,,,,,,,,,,,,,,,,,,,,,,,,,0,0,0,0,0
1.8237,1783012934.7903,1,1,1.0000,0.0000,1.44682,0.23224,-2.77774,0.97468,1.57080,0.00000,-0.14512,-0.38003,0.04626,,,,,,,,,,,,,,,,,,,,,,,,,,0,0,0,0,0
1.8351,1783012934.8017,1,1,1.0000,0.0000,1.44682,0.23220,-2.77775,0.97472,1.57080,0.00000,-0.14512,-0.38003,0.04625,,,,,,,,,,,,,,,,,,,,,,,,,,0,0,0,0,0
1.8659,1783012934.8325,1,1,1.0000,0.0000,1.44682,0.23207,-2.77779,0.97489,1.57080,0.00000,-0.14512,-0.38003,0.04621,,,,,,,,,,,,,,,,,,,,,,,,,,0,0,0,0,0
1.8663,1783012934.8328,1,1,1.0000,0.0000,1.44682,0.23207,-2.77779,0.97489,1.57080,0.00000,-0.14512,-0.38003,0.04621,,,,,,,,,,,,,,,,,,,,,,,,,,0,0,0,0,0
1.8667,1783012934.8333,1,1,1.0000,0.0000,1.44682,0.23207,-2.77779,0.97489,1.57080,0.00000,-0.14512,-0.38003,0.04621,,,,,,,,,,,,,,,,,,,,,,,,,,0,0,0,0,0
1.8669,1783012934.8335,1,1,1.0000,0.0000,1.44682,0.23207,-2.77779,0.97489,1.57080,0.00000,-0.14512,-0.38003,0.04621,,,,,,,,,,,,,,,,,,,,,,,,,,0,0,0,0,0
1.8783,1783012934.8449,1,1,1.0000,0.0000,1.44682,0.23200,-2.77781,0.97498,1.57080,0.00000,-0.14512,-0.38003,0.04619,,,,,,,,,,,,,,,,,,,,,,,,,,0,0,0,0,0
1.8786,1783012934.8452,1,1,1.0000,0.0000,1.44682,0.23200,-2.77781,0.97498,1.57080,0.00000,-0.14512,-0.38003,0.04619,,,,,,,,,,,,,,,,,,,,,,,,,,0,0,0,0,0
1.8802,1783012934.8467,1,1,1.0000,0.0000,1.44682,0.23200,-2.77781,0.97498,1.57080,0.00000,-0.14512,-0.38003,0.04619,,,,,,,,,,,,,,,,,,,,,,,,,,0,0,0,0,0
1.8805,1783012934.8471,1,1,1.0000,0.0000,1.44682,0.23200,-2.77781,0.97498,1.57080,0.00000,-0.14512,-0.38003,0.04619,,,,,,,,,,,,,,,,,,,,,,,,,,0,0,0,0,0
1.8907,1783012934.8572,1,1,1.0000,0.0000,1.44682,0.23198,-2.77781,0.97500,1.57080,0.00000,-0.14512,-0.38003,0.04619,,,,,,,,,,,,,,,,,,,,,,,,,,0,0,0,0,0
1.9000,1783012934.8666,1,1,1.0000,0.0000,1.44682,0.23194,-2.77782,0.97505,1.57080,0.00000,-0.14512,-0.38003,0.04618,,,,,,,,,,,,,,,,,,,,,,,,,,0,0,0,0,0
1.9003,1783012934.8669,1,1,1.0000,0.0000,1.44682,0.23194,-2.77782,0.97505,1.57080,0.00000,-0.14512,-0.38003,0.04618,,,,,,,,,,,,,,,,,,,,,,,,,,0,0,0,0,0
1.9173,1783012934.8839,1,1,1.0000,0.0000,1.44682,0.23186,-2.77784,0.97515,1.57080,0.00000,-0.14512,-0.38003,0.04616,,,,,,,,,,,,,,,,,,,,,,,,,,0,0,0,0,0
1.9219,1783012934.8884,1,1,1.0000,0.0000,1.44682,0.23185,-2.77785,0.97517,1.57080,0.00000,-0.14512,-0.38003,0.04615,,,,,,,,,,,,,,,,,,,,,,,,,,0,0,0,0,0
1.9331,1783012934.8996,1,1,1.0000,0.0000,1.44682,0.23180,-2.77786,0.97522,1.57080,0.00000,-0.14512,-0.38003,0.04614,,,,,,,,,,,,,,,,,,,,,,,,,,0,0,0,0,0
1.9439,1783012934.9105,1,1,1.0000,0.0000,1.44682,0.23175,-2.77787,0.97529,1.57080,0.00000,-0.14512,-0.38003,0.04613,,,,,,,,,,,,,,,,,,,,,,,,,,0,0,0,0,0
1.9541,1783012934.9207,1,1,1.0000,0.0000,1.44682,0.23172,-2.77788,0.97533,1.57080,0.00000,-0.14512,-0.38003,0.04612,,,,,,,,,,,,,,,,,,,,,,,,,,0,0,0,0,0
1.9598,1783012934.9264,1,1,1.0000,0.0000,1.44682,0.23170,-2.77788,0.97536,1.57080,0.00000,-0.14512,-0.38003,0.04611,,,,,,,,,,,,,,,,,,,,,,,,,,0,0,0,0,0
1.9603,1783012934.9269,1,1,1.0000,0.0000,1.44682,0.23170,-2.77788,0.97536,1.57080,0.00000,-0.14512,-0.38003,0.04611,,,,,,,,,,,,,,,,,,,,,,,,,,0,0,0,0,0
1.9845,1783012934.9510,1,1,1.0000,0.0000,1.44682,0.23160,-2.77791,0.97548,1.57080,0.00000,-0.14512,-0.38003,0.04609,,,,,,,,,,,,,,,,,,,,,,,,,,0,0,0,0,0
1.9848,1783012934.9514,1,1,1.0000,0.0000,1.44682,0.23160,-2.77791,0.97548,1.57080,0.00000,-0.14512,-0.38003,0.04609,,,,,,,,,,,,,,,,,,,,,,,,,,0,0,0,0,0
1.9925,1783012934.9590,1,1,1.0000,0.0000,1.44682,0.23156,-2.77792,0.97553,1.57080,0.00000,-0.14512,-0.38003,0.04608,,,,,,,,,,,,,,,,,,,,,,,,,,0,0,0,0,0
2.0017,1783012934.9683,1,1,1.0000,0.0000,1.44682,0.23148,-2.77794,0.97562,1.57080,0.00000,-0.14512,-0.38003,0.04606,,,,,,,,,,,,,,,,,,,,,,,,,,0,0,0,0,0
2.0117,1783012934.9782,1,1,1.0000,0.0000,1.44682,0.23148,-2.77794,0.97563,1.57080,0.00000,-0.14512,-0.38003,0.04606,,,,,,,,,,,,,,,,,,,,,,,,,,0,0,0,0,0
2.0231,1783012934.9897,1,1,1.0000,0.0000,1.44682,0.23144,-2.77795,0.97568,1.57080,0.00000,-0.14512,-0.38003,0.04605,,,,,,,,,,,,,,,,,,,,,,,,,,0,0,0,0,0
2.0344,1783012935.0010,1,1,1.0000,0.0000,1.44682,0.23140,-2.77796,0.97573,1.57080,0.00000,-0.14512,-0.38003,0.04604,,,,,,,,,,,,,,,,,,,,,,,,,,0,0,0,0,0
2.0419,1783012935.0084,1,1,1.0000,0.0000,1.44682,0.23138,-2.77797,0.97575,1.57080,0.00000,-0.14512,-0.38003,0.04603,,,,,,,,,,,,,,,,,,,,,,,,,,0,0,0,0,0
2.0421,1783012935.0087,1,1,1.0000,0.0000,1.44682,0.23138,-2.77797,0.97575,1.57080,0.00000,-0.14512,-0.38003,0.04603,,,,,,,,,,,,,,,,,,,,,,,,,,0,0,0,0,0
2.0509,1783012935.0174,1,1,1.0000,0.0000,1.44682,0.23134,-2.77798,0.97581,1.57080,0.00000,-0.14512,-0.38003,0.04602,,,,,,,,,,,,,,,,,,,,,,,,,,0,0,0,0,0
2.0511,1783012935.0177,1,1,1.0000,0.0000,1.44682,0.23134,-2.77798,0.97581,1.57080,0.00000,-0.14512,-0.38003,0.04602,,,,,,,,,,,,,,,,,,,,,,,,,,0,0,0,0,0
2.0603,1783012935.0268,1,1,1.0000,0.0000,1.44682,0.23129,-2.77799,0.97587,1.57080,0.00000,-0.14512,-0.38003,0.04601,,,,,,,,,,,,,,,,,,,,,,,,,,0,0,0,0,0
2.0606,1783012935.0272,1,1,1.0000,0.0000,1.44682,0.23129,-2.77799,0.97587,1.57080,0.00000,-0.14512,-0.38003,0.04601,,,,,,,,,,,,,,,,,,,,,,,,,,0,0,0,0,0
2.0720,1783012935.0385,1,1,1.0000,0.0000,1.44682,0.23127,-2.77799,0.97589,1.57080,0.00000,-0.14512,-0.38003,0.04600,,,,,,,,,,,,,,,,,,,,,,,,,,0,0,0,0,0
2.0819,1783012935.0485,1,1,1.0000,0.0000,1.44682,0.23121,-2.77801,0.97598,1.57080,0.00000,-0.14512,-0.38003,0.04599,,,,,,,,,,,,,,,,,,,,,,,,,,0,0,0,0,0
2.0945,1783012935.0611,1,1,1.0000,0.0000,1.44682,0.23115,-2.77802,0.97604,1.57080,0.00000,-0.14512,-0.38003,0.04597,,,,,,,,,,,,,,,,,,,,,,,,,,0,0,0,0,0
2.1021,1783012935.0686,1,1,1.0000,0.0000,1.44682,0.23114,-2.77803,0.97606,1.57080,0.00000,-0.14512,-0.38003,0.04597,,,,,,,,,,,,,,,,,,,,,,,,,,0,0,0,0,0
2.1024,1783012935.0690,1,1,1.0000,0.0000,1.44682,0.23114,-2.77803,0.97606,1.57080,0.00000,-0.14512,-0.38003,0.04597,,,,,,,,,,,,,,,,,,,,,,,,,,0,0,0,0,0
2.1104,1783012935.0769,1,1,1.0000,0.0000,1.44682,0.23110,-2.77804,0.97611,1.57080,0.00000,-0.14512,-0.38003,0.04596,,,,,,,,,,,,,,,,,,,,,,,,,,0,0,0,0,0
2.1220,1783012935.0886,1,1,1.0000,0.0000,1.44682,0.23102,-2.77806,0.97621,1.57080,0.00000,-0.14512,-0.38003,0.04594,,,,,,,,,,,,,,,,,,,,,,,,,,0,0,0,0,0
2.1430,1783012935.1096,1,1,1.0000,0.0000,1.44682,0.23098,-2.77807,0.97626,1.57080,0.00000,-0.14512,-0.38003,0.04593,,,,,,,,,,,,,,,,,,,,,,,,,,0,0,0,0,0
2.1435,1783012935.1101,1,1,1.0000,0.0000,1.44682,0.23098,-2.77807,0.97626,1.57080,0.00000,-0.14512,-0.38003,0.04593,,,,,,,,,,,,,,,,,,,,,,,,,,0,0,0,0,0
2.1516,1783012935.1182,1,1,1.0000,0.0000,1.44682,0.23093,-2.77808,0.97632,1.57080,0.00000,-0.14512,-0.38003,0.04592,,,,,,,,,,,,,,,,,,,,,,,,,,0,0,0,0,0
2.1619,1783012935.1284,1,1,1.0000,0.0000,1.44682,0.23092,-2.77808,0.97634,1.57080,0.00000,-0.14512,-0.38003,0.04591,,,,,,,,,,,,,,,,,,,,,,,,,,0,0,0,0,0
2.1623,1783012935.1288,1,1,1.0000,0.0000,1.44682,0.23092,-2.77808,0.97634,1.57080,0.00000,-0.14512,-0.38003,0.04591,,,,,,,,,,,,,,,,,,,,,,,,,,0,0,0,0,0
2.1704,1783012935.1369,1,1,1.0000,0.0000,1.44682,0.23087,-2.77810,0.97639,1.57080,0.00000,-0.14512,-0.38003,0.04590,,,,,,,,,,,,,,,,,,,,,,,,,,0,0,0,0,0
2.1820,1783012935.1485,1,1,1.0000,0.0000,1.44682,0.23080,-2.77812,0.97649,1.57080,0.00000,-0.14512,-0.38003,0.04588,,,,,,,,,,,,,,,,,,,,,,,,,,0,0,0,0,0
2.1902,1783012935.1568,1,1,1.0000,0.0000,1.44682,0.23079,-2.77812,0.97649,1.57080,0.00000,-0.14512,-0.38003,0.04588,,,,,,,,,,,,,,,,,,,,,,,,,,0,0,0,0,0
2.2042,1783012935.1708,1,1,1.0000,0.0000,1.44682,0.23075,-2.77813,0.97654,1.57080,0.00000,-0.14512,-0.38003,0.04587,,,,,,,,,,,,,,,,,,,,,,,,,,0,0,0,0,0
2.2119,1783012935.1784,1,1,1.0000,0.0000,1.44682,0.23071,-2.77814,0.97660,1.57080,0.00000,-0.14512,-0.38003,0.04586,,,,,,,,,,,,,,,,,,,,,,,,,,0,0,0,0,0
2.2237,1783012935.1903,1,1,1.0000,0.0000,1.44682,0.23069,-2.77814,0.97662,1.57080,0.00000,-0.14512,-0.38003,0.04585,,,,,,,,,,,,,,,,,,,,,,,,,,0,0,0,0,0
2.2316,1783012935.1982,1,1,1.0000,0.0000,1.44682,0.23065,-2.77815,0.97667,1.57080,0.00000,-0.14512,-0.38003,0.04584,,,,,,,,,,,,,,,,,,,,,,,,,,0,0,0,0,0
2.2420,1783012935.2086,1,1,1.0000,0.0000,1.44682,0.23057,-2.77817,0.97677,1.57080,0.00000,-0.14512,-0.38003,0.04582,,,,,,,,,,,,,,,,,,,,,,,,,,0,0,0,0,0
2.2503,1783012935.2168,1,1,1.0000,0.0000,1.44682,0.23057,-2.77817,0.97677,1.57080,0.00000,-0.14512,-0.38003,0.04582,,,,,,,,,,,,,,,,,,,,,,,,,,0,0,0,0,0
2.2507,1783012935.2172,1,1,1.0000,0.0000,1.44682,0.23057,-2.77817,0.97677,1.57080,0.00000,-0.14512,-0.38003,0.04582,,,,,,,,,,,,,,,,,,,,,,,,,,0,0,0,0,0
2.2603,1783012935.2269,1,1,1.0000,0.0000,1.44682,0.23055,-2.77818,0.97680,1.57080,0.00000,-0.14512,-0.38003,0.04581,,,,,,,,,,,,,,,,,,,,,,,,,,0,0,0,0,0
2.2702,1783012935.2368,1,1,1.0000,0.0000,1.44682,0.23049,-2.77819,0.97688,1.57080,0.00000,-0.14512,-0.38003,0.04580,,,,,,,,,,,,,,,,,,,,,,,,,,0,0,0,0,0
2.2705,1783012935.2371,1,1,1.0000,0.0000,1.44682,0.23049,-2.77819,0.97688,1.57080,0.00000,-0.14512,-0.38003,0.04580,,,,,,,,,,,,,,,,,,,,,,,,,,0,0,0,0,0
2.4020,1783012935.3686,1,1,1.0000,0.0000,1.44682,0.23002,-2.77831,0.97746,1.57080,0.00000,-0.14512,-0.38003,0.04568,,,,,,,,,,,,,,,,,,,,,,,,,,0,0,0,0,0
2.4025,1783012935.3690,1,1,1.0000,0.0000,1.44682,0.23002,-2.77831,0.97746,1.57080,0.00000,-0.14512,-0.38003,0.04568,,,,,,,,,,,,,,,,,,,,,,,,,,0,0,0,0,0
2.4028,1783012935.3694,1,1,1.0000,0.0000,1.44682,0.23002,-2.77831,0.97746,1.57080,0.00000,-0.14512,-0.38003,0.04568,,,,,,,,,,,,,,,,,,,,,,,,,,0,0,0,0,0
2.4030,1783012935.3696,1,1,1.0000,0.0000,1.44682,0.23002,-2.77831,0.97746,1.57080,0.00000,-0.14512,-0.38003,0.04568,,,,,,,,,,,,,,,,,,,,,,,,,,0,0,0,0,0
2.4034,1783012935.3699,1,1,1.0000,0.0000,1.44682,0.23002,-2.77831,0.97746,1.57080,0.00000,-0.14512,-0.38003,0.04568,,,,,,,,,,,,,,,,,,,,,,,,,,0,0,0,0,0
2.4036,1783012935.3702,1,1,1.0000,0.0000,1.44682,0.23002,-2.77831,0.97746,1.57080,0.00000,-0.14512,-0.38003,0.04568,,,,,,,,,,,,,,,,,,,,,,,,,,0,0,0,0,0
2.4311,1783012935.3977,1,1,1.0000,0.0000,1.44682,0.22990,-2.77835,0.97761,1.57080,0.00000,-0.14512,-0.38003,0.04565,,,,,,,,,,,,,,,,,,,,,,,,,,0,0,0,0,0
2.4314,1783012935.3979,1,1,1.0000,0.0000,1.44682,0.22990,-2.77835,0.97761,1.57080,0.00000,-0.14512,-0.38003,0.04565,,,,,,,,,,,,,,,,,,,,,,,,,,0,0,0,0,0
2.4317,1783012935.3983,1,1,1.0000,0.0000,1.44682,0.22990,-2.77835,0.97761,1.57080,0.00000,-0.14512,-0.38003,0.04565,,,,,,,,,,,,,,,,,,,,,,,,,,0,0,0,0,0
2.4926,1783012935.4592,1,1,1.0000,0.0000,1.44682,0.22968,-2.77840,0.97790,1.57080,0.00000,-0.14512,-0.38003,0.04559,,,,,,,,,,,,,,,,,,,,,,,,,,0,0,0,0,0
2.4930,1783012935.4596,1,1,1.0000,0.0000,1.44682,0.22968,-2.77840,0.97790,1.57080,0.00000,-0.14512,-0.38003,0.04559,,,,,,,,,,,,,,,,,,,,,,,,,,0,0,0,0,0
2.4934,1783012935.4600,1,1,1.0000,0.0000,1.44682,0.22968,-2.77840,0.97790,1.57080,0.00000,-0.14512,-0.38003,0.04559,,,,,,,,,,,,,,,,,,,,,,,,,,0,0,0,0,0
2.4938,1783012935.4604,1,1,1.0000,0.0000,1.44682,0.22966,-2.77841,0.97791,1.57080,0.00000,-0.14512,-0.38003,0.04558,,,,,,,,,,,,,,,,,,,,,,,,,,0,0,0,0,0
2.4941,1783012935.4607,1,1,1.0000,0.0000,1.44682,0.22966,-2.77841,0.97791,1.57080,0.00000,-0.14512,-0.38003,0.04558,,,,,,,,,,,,,,,,,,,,,,,,,,0,0,0,0,0
2.4944,1783012935.4610,1,1,1.0000,0.0000,1.44682,0.22966,-2.77841,0.97791,1.57080,0.00000,-0.14512,-0.38003,0.04558,,,,,,,,,,,,,,,,,,,,,,,,,,0,0,0,0,0
2.4947,1783012935.4613,1,1,1.0000,0.0000,1.44682,0.22966,-2.77841,0.97791,1.57080,0.00000,-0.14512,-0.38003,0.04558,,,,,,,,,,,,,,,,,,,,,,,,,,0,0,0,0,0
2.4950,1783012935.4616,1,1,1.0000,0.0000,1.44682,0.22966,-2.77841,0.97791,1.57080,0.00000,-0.14512,-0.38003,0.04558,,,,,,,,,,,,,,,,,,,,,,,,,,0,0,0,0,0
2.4953,1783012935.4619,1,1,1.0000,0.0000,1.44682,0.22966,-2.77841,0.97791,1.57080,0.00000,-0.14512,-0.38003,0.04558,,,,,,,,,,,,,,,,,,,,,,,,,,0,0,0,0,0
2.5003,1783012935.4669,1,1,1.0000,0.0000,1.44682,0.22964,-2.77841,0.97793,1.57080,0.00000,-0.14512,-0.38003,0.04558,,,,,,,,,,,,,,,,,,,,,,,,,,0,0,0,0,0
2.5006,1783012935.4672,1,1,1.0000,0.0000,1.44682,0.22964,-2.77841,0.97793,1.57080,0.00000,-0.14512,-0.38003,0.04558,,,,,,,,,,,,,,,,,,,,,,,,,,0,0,0,0,0
2.5164,1783012935.4830,1,1,1.0000,0.0000,1.44682,0.22957,-2.77843,0.97803,1.57080,0.00000,-0.14512,-0.38003,0.04556,,,,,,,,,,,,,,,,,,,,,,,,,,0,0,0,0,0
2.5168,1783012935.4833,1,1,1.0000,0.0000,1.44682,0.22957,-2.77843,0.97803,1.57080,0.00000,-0.14512,-0.38003,0.04556,,,,,,,,,,,,,,,,,,,,,,,,,,0,0,0,0,0
2.5212,1783012935.4878,1,1,1.0000,0.0000,1.44682,0.22957,-2.77843,0.97803,1.57080,0.00000,-0.14512,-0.38003,0.04556,,,,,,,,,,,,,,,,,,,,,,,,,,0,0,0,0,0
2.5219,1783012935.4884,1,1,1.0000,0.0000,1.44682,0.22955,-2.77843,0.97805,1.57080,0.00000,-0.14512,-0.38003,0.04556,,,,,,,,,,,,,,,,,,,,,,,,,,0,0,0,0,0
2.5324,1783012935.4990,1,1,1.0000,0.0000,1.44682,0.22951,-2.77844,0.97810,1.57080,0.00000,-0.14512,-0.38003,0.04555,,,,,,,,,,,,,,,,,,,,,,,,,,0,0,0,0,0
2.5524,1783012935.5190,1,1,1.0000,0.0000,1.44682,0.22943,-2.77847,0.97820,1.57080,0.00000,-0.14512,-0.38003,0.04552,,,,,,,,,,,,,,,,,,,,,,,,,,0,0,0,0,0
2.5605,1783012935.5271,1,1,1.0000,0.0000,1.44682,0.22940,-2.77847,0.97824,1.57080,0.00000,-0.14512,-0.38003,0.04552,,,,,,,,,,,,,,,,,,,,,,,,,,0,0,0,0,0
2.5610,1783012935.5276,1,1,1.0000,0.0000,1.44682,0.22940,-2.77847,0.97824,1.57080,0.00000,-0.14512,-0.38003,0.04552,,,,,,,,,,,,,,,,,,,,,,,,,,0,0,0,0,0
2.5617,1783012935.5283,1,1,1.0000,0.0000,1.44682,0.22938,-2.77848,0.97827,1.57080,0.00000,-0.14512,-0.38003,0.04551,,,,,,,,,,,,,,,,,,,,,,,,,,0,0,0,0,0
2.5711,1783012935.5377,1,1,1.0000,0.0000,1.44682,0.22933,-2.77849,0.97833,1.57080,0.00000,-0.14512,-0.38003,0.04550,,,,,,,,,,,,,,,,,,,,,,,,,,0,0,0,0,0
2.5821,1783012935.5487,1,1,1.0000,0.0000,1.44682,0.22931,-2.77850,0.97835,1.57080,0.00000,-0.14512,-0.38003,0.04549,,,,,,,,,,,,,,,,,,,,,,,,,,0,0,0,0,0
2.5933,1783012935.5599,1,1,1.0000,0.0000,1.44682,0.22927,-2.77851,0.97841,1.57080,0.00000,-0.14512,-0.38003,0.04548,,,,,,,,,,,,,,,,,,,,,,,,,,0,0,0,0,0
2.6028,1783012935.5693,1,1,1.0000,0.0000,1.44682,0.22919,-2.77853,0.97850,1.57080,0.00000,-0.14512,-0.38003,0.04546,,,,,,,,,,,,,,,,,,,,,,,,,,0,0,0,0,0
2.6031,1783012935.5697,1,1,1.0000,0.0000,1.44682,0.22919,-2.77853,0.97850,1.57080,0.00000,-0.14512,-0.38003,0.04546,,,,,,,,,,,,,,,,,,,,,,,,,,0,0,0,0,0
2.6126,1783012935.5792,1,1,1.0000,0.0000,1.44682,0.22919,-2.77853,0.97851,1.57080,0.00000,-0.14512,-0.38003,0.04546,,,,,,,,,,,,,,,,,,,,,,,,,,0,0,0,0,0
2.6232,1783012935.5898,1,1,1.0000,0.0000,1.44682,0.22914,-2.77854,0.97857,1.57080,0.00000,-0.14512,-0.38003,0.04545,,,,,,,,,,,,,,,,,,,,,,,,,,0,0,0,0,0
2.6403,1783012935.6069,1,1,1.0000,0.0000,1.44682,0.22908,-2.77856,0.97865,1.57080,0.00000,-0.14512,-0.38003,0.04543,,,,,,,,,,,,,,,,,,,,,,,,,,0,0,0,0,0
2.6478,1783012935.6144,1,1,1.0000,0.0000,1.44682,0.22905,-2.77856,0.97868,1.57080,0.00000,-0.14512,-0.38003,0.04542,,,,,,,,,,,,,,,,,,,,,,,,,,0,0,0,0,0
2.6565,1783012935.6231,1,1,1.0000,0.0000,1.44682,0.22900,-2.77858,0.97874,1.57080,0.00000,-0.14512,-0.38003,0.04541,,,,,,,,,,,,,,,,,,,,,,,,,,0,0,0,0,0
2.6638,1783012935.6303,1,1,1.0000,0.0000,1.44682,0.22895,-2.77859,0.97881,1.57080,0.00000,-0.14512,-0.38003,0.04540,,,,,,,,,,,,,,,,,,,,,,,,,,0,0,0,0,0
2.6778,1783012935.6444,1,1,1.0000,0.0000,1.44682,0.22891,-2.77860,0.97885,1.57080,0.00000,-0.14512,-0.38003,0.04539,,,,,,,,,,,,,,,,,,,,,,,,,,0,0,0,0,0
2.6804,1783012935.6469,1,1,1.0000,0.0000,1.44682,0.22891,-2.77860,0.97885,1.57080,0.00000,-0.14512,-0.38003,0.04539,,,,,,,,,,,,,,,,,,,,,,,,,,0,0,0,0,0
2.6939,1783012935.6604,1,1,1.0000,0.0000,1.44682,0.22884,-2.77862,0.97895,1.57080,0.00000,-0.14512,-0.38003,0.04537,,,,,,,,,,,,,,,,,,,,,,,,,,0,0,0,0,0
2.7035,1783012935.6701,1,1,1.0000,0.0000,1.44682,0.22882,-2.77862,0.97897,1.57080,0.00000,-0.14512,-0.38003,0.04537,,,,,,,,,,,,,,,,,,,,,,,,,,0,0,0,0,0
2.7120,1783012935.6786,1,1,1.0000,0.0000,1.44682,0.22878,-2.77863,0.97902,1.57080,0.00000,-0.14512,-0.38003,0.04535,,,,,,,,,,,,,,,,,,,,,,,,,,0,0,0,0,0
2.7207,1783012935.6872,1,1,1.0000,0.0000,1.44682,0.22873,-2.77864,0.97908,1.57080,0.00000,-0.14512,-0.38003,0.04534,,,,,,,,,,,,,,,,,,,,,,,,,,0,0,0,0,0
2.7352,1783012935.7018,1,1,1.0000,0.0000,1.44682,0.22869,-2.77865,0.97914,1.57080,0.00000,-0.14512,-0.38003,0.04533,,,,,,,,,,,,,,,,,,,,,,,,,,0,0,0,0,0
2.7411,1783012935.7076,1,1,1.0000,0.0000,1.44682,0.22867,-2.77866,0.97916,1.57080,0.00000,-0.14512,-0.38003,0.04533,,,,,,,,,,,,,,,,,,,,,,,,,,0,0,0,0,0
2.7417,1783012935.7083,1,1,1.0000,0.0000,1.44682,0.22865,-2.77867,0.97919,1.57080,0.00000,-0.14512,-0.38003,0.04532,,,,,,,,,,,,,,,,,,,,,,,,,,0,0,0,0,0
2.7543,1783012935.7209,1,1,1.0000,0.0000,1.44682,0.22860,-2.77868,0.97925,1.57080,0.00000,-0.14512,-0.38003,0.04531,,,,,,,,,,,,,,,,,,,,,,,,,,0,0,0,0,0
2.7618,1783012935.7284,1,1,1.0000,0.0000,1.44682,0.22858,-2.77868,0.97927,1.57080,0.00000,-0.14512,-0.38003,0.04530,,,,,,,,,,,,,,,,,,,,,,,,,,0,0,0,0,0
2.7721,1783012935.7387,1,1,1.0000,0.0000,1.44682,0.22854,-2.77869,0.97932,1.57080,0.00000,-0.14512,-0.38003,0.04529,,,,,,,,,,,,,,,,,,,,,,,,,,0,0,0,0,0
2.7821,1783012935.7487,1,1,1.0000,0.0000,1.44682,0.22846,-2.77871,0.97942,1.57080,0.00000,-0.14512,-0.38003,0.04527,,,,,,,,,,,,,,,,,,,,,,,,,,0,0,0,0,0
2.7898,1783012935.7564,1,1,1.0000,0.0000,1.44682,0.22846,-2.77871,0.97943,1.57080,0.00000,-0.14512,-0.38003,0.04527,,,,,,,,,,,,,,,,,,,,,,,,,,0,0,0,0,0
2.7903,1783012935.7569,1,1,1.0000,0.0000,1.44682,0.22846,-2.77871,0.97943,1.57080,0.00000,-0.14512,-0.38003,0.04527,,,,,,,,,,,,,,,,,,,,,,,,,,0,0,0,0,0
2.8003,1783012935.7669,1,1,1.0000,0.0000,1.44682,0.22843,-2.77872,0.97946,1.57080,0.00000,-0.14512,-0.38003,0.04526,,,,,,,,,,,,,,,,,,,,,,,,,,0,0,0,0,0
2.8110,1783012935.7775,1,1,1.0000,0.0000,1.44682,0.22835,-2.77874,0.97956,1.57080,0.00000,-0.14512,-0.38003,0.04524,,,,,,,,,,,,,,,,,,,,,,,,,,0,0,0,0,0
2.8231,1783012935.7897,1,1,1.0000,0.0000,1.44682,0.22834,-2.77874,0.97958,1.57080,0.00000,-0.14512,-0.38003,0.04524,,,,,,,,,,,,,,,,,,,,,,,,,,0,0,0,0,0
2.8305,1783012935.7970,1,1,1.0000,0.0000,1.44682,0.22829,-2.77876,0.97963,1.57080,0.00000,-0.14512,-0.38003,0.04523,,,,,,,,,,,,,,,,,,,,,,,,,,0,0,0,0,0
2.8307,1783012935.7973,1,1,1.0000,0.0000,1.44682,0.22829,-2.77876,0.97963,1.57080,0.00000,-0.14512,-0.38003,0.04523,,,,,,,,,,,,,,,,,,,,,,,,,,0,0,0,0,0
2.8419,1783012935.8085,1,1,1.0000,0.0000,1.44682,0.22822,-2.77877,0.97973,1.57080,0.00000,-0.14512,-0.38003,0.04521,,,,,,,,,,,,,,,,,,,,,,,,,,0,0,0,0,0
2.8422,1783012935.8088,1,1,1.0000,0.0000,1.44682,0.22822,-2.77877,0.97973,1.57080,0.00000,-0.14512,-0.38003,0.04521,,,,,,,,,,,,,,,,,,,,,,,,,,0,0,0,0,0
2.8507,1783012935.8173,1,1,1.0000,0.0000,1.44682,0.22821,-2.77878,0.97973,1.57080,0.00000,-0.14512,-0.38003,0.04521,,,,,,,,,,,,,,,,,,,,,,,,,,0,0,0,0,0
2.8862,1783012935.8528,1,1,1.0000,0.0000,1.44682,0.22807,-2.77881,0.97991,1.57080,0.00000,-0.14512,-0.38003,0.04517,,,,,,,,,,,,,,,,,,,,,,,,,,0,0,0,0,0
2.9070,1783012935.8735,1,1,1.0000,0.0000,1.44682,0.22800,-2.77883,0.98000,1.57080,0.00000,-0.14512,-0.38003,0.04515,,,,,,,,,,,,,,,,,,,,,,,,,,0,0,0,0,0
2.9072,1783012935.8738,1,1,1.0000,0.0000,1.44682,0.22800,-2.77883,0.98000,1.57080,0.00000,-0.14512,-0.38003,0.04515,,,,,,,,,,,,,,,,,,,,,,,,,,0,0,0,0,0
2.9076,1783012935.8742,1,1,1.0000,0.0000,1.44682,0.22800,-2.77883,0.98000,1.57080,0.00000,-0.14512,-0.38003,0.04515,,,,,,,,,,,,,,,,,,,,,,,,,,0,0,0,0,0
2.9125,1783012935.8791,1,1,1.0000,0.0000,1.44682,0.22799,-2.77883,0.98001,1.57080,0.00000,-0.14512,-0.38003,0.04515,,,,,,,,,,,,,,,,,,,,,,,,,,0,0,0,0,0
2.9222,1783012935.8888,1,1,1.0000,0.0000,1.44682,0.22794,-2.77885,0.98008,1.57080,0.00000,-0.14512,-0.38003,0.04514,,,,,,,,,,,,,,,,,,,,,,,,,,0,0,0,0,0
2.9227,1783012935.8893,1,1,1.0000,0.0000,1.44682,0.22794,-2.77885,0.98008,1.57080,0.00000,-0.14512,-0.38003,0.04514,,,,,,,,,,,,,,,,,,,,,,,,,,0,0,0,0,0
2.9302,1783012935.8968,1,1,1.0000,0.0000,1.44682,0.22788,-2.77886,0.98015,1.57080,0.00000,-0.14512,-0.38003,0.04512,,,,,,,,,,,,,,,,,,,,,,,,,,0,0,0,0,0
2.9461,1783012935.9127,1,1,1.0000,0.0000,1.44682,0.22785,-2.77887,0.98019,1.57080,0.00000,-0.14512,-0.38003,0.04511,,,,,,,,,,,,,,,,,,,,,,,,,,0,0,0,0,0
2.9718,1783012935.9384,1,1,1.0000,0.0000,1.44682,0.22777,-2.77889,0.98029,1.57080,0.00000,-0.14512,-0.38003,0.04509,,,,,,,,,,,,,,,,,,,,,,,,,,0,0,0,0,0
2.9722,1783012935.9388,1,1,1.0000,0.0000,1.44682,0.22777,-2.77889,0.98029,1.57080,0.00000,-0.14512,-0.38003,0.04509,,,,,,,,,,,,,,,,,,,,,,,,,,0,0,0,0,0
3.0051,1783012935.9717,1,1,1.0000,0.0000,1.44682,0.22763,-2.77892,0.98046,1.57080,0.00000,-0.14512,-0.38003,0.04506,,,,,,,,,,,,,,,,,,,,,,,,,,0,0,0,0,0
3.0058,1783012935.9724,1,1,1.0000,0.0000,1.44682,0.22762,-2.77893,0.98047,1.57080,0.00000,-0.14512,-0.38003,0.04505,,,,,,,,,,,,,,,,,,,,,,,,,,0,0,0,0,0
3.0159,1783012935.9825,1,1,1.0000,0.0000,1.44682,0.22759,-2.77893,0.98051,1.57080,0.00000,-0.14512,-0.38003,0.04505,,,,,,,,,,,,,,,,,,,,,,,,,,0,0,0,0,0
3.0266,1783012935.9932,1,1,1.0000,0.0000,1.44682,0.22755,-2.77895,0.98057,1.57080,0.00000,-0.14512,-0.38003,0.04503,,,,,,,,,,,,,,,,,,,,,,,,,,0,0,0,0,0
3.0326,1783012935.9991,1,1,1.0000,0.0000,1.44682,0.22754,-2.77895,0.98057,1.57080,0.00000,-0.14512,-0.38003,0.04503,,,,,,,,,,,,,,,,,,,,,,,,,,0,0,0,0,0
3.0439,1783012936.0105,1,1,1.0000,0.0000,1.44682,0.22749,-2.77896,0.98064,1.57080,0.00000,-0.14512,-0.38003,0.04502,,,,,,,,,,,,,,,,,,,,,,,,,,0,0,0,0,0
3.0507,1783012936.0173,1,1,1.0000,0.0000,1.44682,0.22744,-2.77897,0.98071,1.57080,0.00000,-0.14512,-0.38003,0.04501,,,,,,,,,,,,,,,,,,,,,,,,,,0,0,0,0,0
3.0509,1783012936.0175,1,1,1.0000,0.0000,1.44682,0.22744,-2.77897,0.98071,1.57080,0.00000,-0.14512,-0.38003,0.04501,,,,,,,,,,,,,,,,,,,,,,,,,,0,0,0,0,0
3.0619,1783012936.0285,1,1,1.0000,0.0000,1.44682,0.22741,-2.77898,0.98074,1.57080,0.00000,-0.14512,-0.38003,0.04500,,,,,,,,,,,,,,,,,,,,,,,,,,0,0,0,0,0
3.0717,1783012936.0383,1,1,1.0000,0.0000,1.44682,0.22738,-2.77899,0.98077,1.57080,0.00000,-0.14512,-0.38003,0.04499,,,,,,,,,,,,,,,,,,,,,,,,,,0,0,0,0,0
3.0835,1783012936.0500,1,1,1.0000,0.0000,1.44682,0.22732,-2.77900,0.98085,1.57080,0.00000,-0.14512,-0.38003,0.04498,,,,,,,,,,,,,,,,,,,,,,,,,,0,0,0,0,0
3.0920,1783012936.0586,1,1,1.0000,0.0000,1.44682,0.22732,-2.77900,0.98085,1.57080,0.00000,-0.14512,-0.38003,0.04497,,,,,,,,,,,,,,,,,,,,,,,,,,0,0,0,0,0
3.0923,1783012936.0589,1,1,1.0000,0.0000,1.44682,0.22732,-2.77900,0.98085,1.57080,0.00000,-0.14512,-0.38003,0.04497,,,,,,,,,,,,,,,,,,,,,,,,,,0,0,0,0,0
3.1002,1783012936.0667,1,1,1.0000,0.0000,1.44682,0.22729,-2.77901,0.98089,1.57080,0.00000,-0.14512,-0.38003,0.04497,,,,,,,,,,,,,,,,,,,,,,,,,,0,0,0,0,0
3.1006,1783012936.0671,1,1,1.0000,0.0000,1.44682,0.22729,-2.77901,0.98089,1.57080,0.00000,-0.14512,-0.38003,0.04497,,,,,,,,,,,,,,,,,,,,,,,,,,0,0,0,0,0
3.1120,1783012936.0786,1,1,1.0000,0.0000,1.44682,0.22721,-2.77903,0.98099,1.57080,0.00000,-0.14512,-0.38003,0.04495,,,,,,,,,,,,,,,,,,,,,,,,,,0,0,0,0,0
3.1308,1783012936.0974,1,1,1.0000,0.0000,1.44682,0.22716,-2.77904,0.98105,1.57080,0.00000,-0.14512,-0.38003,0.04493,,,,,,,,,,,,,,,,,,,,,,,,,,0,0,0,0,0
3.1313,1783012936.0978,1,1,1.0000,0.0000,1.44682,0.22716,-2.77904,0.98105,1.57080,0.00000,-0.14512,-0.38003,0.04493,,,,,,,,,,,,,,,,,,,,,,,,,,0,0,0,0,0
3.1419,1783012936.1085,1,1,1.0000,0.0000,1.44682,0.22710,-2.77906,0.98113,1.57080,0.00001,-0.14512,-0.38003,0.04492,,,,,,,,,,,,,,,,,,,,,,,,,,0,0,0,0,0
3.1669,1783012936.1335,1,1,1.0000,0.0000,1.44682,0.22701,-2.77908,0.98124,1.57080,0.00001,-0.14512,-0.38003,0.04490,,,,,,,,,,,,,,,,,,,,,,,,,,0,0,0,0,0
3.1673,1783012936.1338,1,1,1.0000,0.0000,1.44682,0.22701,-2.77908,0.98124,1.57080,0.00001,-0.14512,-0.38003,0.04490,,,,,,,,,,,,,,,,,,,,,,,,,,0,0,0,0,0
3.1876,1783012936.1542,1,1,1.0000,0.0000,1.44682,0.22695,-2.77910,0.98132,1.57080,0.00001,-0.14512,-0.38003,0.04488,,,,,,,,,,,,,,,,,,,,,,,,,,0,0,0,0,0
3.1880,1783012936.1546,1,1,1.0000,0.0000,1.44682,0.22695,-2.77910,0.98132,1.57080,0.00001,-0.14512,-0.38003,0.04488,,,,,,,,,,,,,,,,,,,,,,,,,,0,0,0,0,0
3.1954,1783012936.1619,1,1,1.0000,0.0000,1.44682,0.22692,-2.77911,0.98136,1.57080,0.00001,-0.14512,-0.38003,0.04487,,,,,,,,,,,,,,,,,,,,,,,,,,0,0,0,0,0
3.2083,1783012936.1749,1,1,1.0000,0.0000,1.44682,0.22688,-2.77912,0.98141,1.57080,0.00001,-0.14512,-0.38003,0.04486,,,,,,,,,,,,,,,,,,,,,,,,,,0,0,0,0,0
3.2231,1783012936.1897,1,1,1.0000,0.0000,1.44682,0.22682,-2.77913,0.98148,1.57080,0.00001,-0.14512,-0.38003,0.04484,,,,,,,,,,,,,,,,,,,,,,,,,,0,0,0,0,0
3.2235,1783012936.1901,1,1,1.0000,0.0000,1.44682,0.22682,-2.77913,0.98148,1.57080,0.00001,-0.14512,-0.38003,0.04484,,,,,,,,,,,,,,,,,,,,,,,,,,0,0,0,0,0
3.2313,1783012936.1978,1,1,1.0000,0.0000,1.44682,0.22676,-2.77914,0.98155,1.57080,0.00001,-0.14512,-0.38003,0.04483,,,,,,,,,,,,,,,,,,,,,,,,,,0,0,0,0,0
3.2317,1783012936.1982,1,1,1.0000,0.0000,1.44682,0.22676,-2.77914,0.98155,1.57080,0.00001,-0.14512,-0.38003,0.04483,,,,,,,,,,,,,,,,,,,,,,,,,,0,0,0,0,0
3.2429,1783012936.2094,1,1,1.0000,0.0000,1.44682,0.22673,-2.77915,0.98159,1.57080,0.00001,-0.14512,-0.38003,0.04482,,,,,,,,,,,,,,,,,,,,,,,,,,0,0,0,0,0
3.2546,1783012936.2211,1,1,1.0000,0.0000,1.44682,0.22668,-2.77917,0.98166,1.57080,0.00001,-0.14512,-0.38003,0.04481,,,,,,,,,,,,,,,,,,,,,,,,,,0,0,0,0,0
3.2630,1783012936.2296,1,1,1.0000,0.0000,1.44682,0.22663,-2.77918,0.98172,1.57080,0.00001,-0.14512,-0.38003,0.04480,,,,,,,,,,,,,,,,,,,,,,,,,,0,0,0,0,0
3.2712,1783012936.2378,1,1,1.0000,0.0000,1.44682,0.22662,-2.77918,0.98173,1.57080,0.00001,-0.14512,-0.38003,0.04479,,,,,,,,,,,,,,,,,,,,,,,,,,0,0,0,0,0
3.2857,1783012936.2523,1,1,1.0000,0.0000,1.44682,0.22654,-2.77920,0.98182,1.57080,0.00001,-0.14512,-0.38003,0.04477,,,,,,,,,,,,,,,,,,,,,,,,,,0,0,0,0,0
3.2902,1783012936.2568,1,1,1.0000,0.0000,1.44682,0.22652,-2.77921,0.98186,1.57080,0.00001,-0.14512,-0.38003,0.04477,,,,,,,,,,,,,,,,,,,,,,,,,,0,0,0,0,0
3.2905,1783012936.2571,1,1,1.0000,0.0000,1.44682,0.22652,-2.77921,0.98186,1.57080,0.00001,-0.14512,-0.38003,0.04477,,,,,,,,,,,,,,,,,,,,,,,,,,0,0,0,0,0
3.2909,1783012936.2574,1,1,1.0000,0.0000,1.44682,0.22652,-2.77921,0.98186,1.57080,0.00001,-0.14512,-0.38003,0.04477,,,,,,,,,,,,,,,,,,,,,,,,,,0,0,0,0,0
3.3020,1783012936.2685,1,1,1.0000,0.0000,1.44682,0.22649,-2.77921,0.98189,1.57080,0.00001,-0.14512,-0.38003,0.04476,,,,,,,,,,,,,,,,,,,,,,,,,,0,0,0,0,0
3.3024,1783012936.2690,1,1,1.0000,0.0000,1.44682,0.22649,-2.77921,0.98189,1.57080,0.00001,-0.14512,-0.38003,0.04476,,,,,,,,,,,,,,,,,,,,,,,,,,0,0,0,0,0
3.3123,1783012936.2788,1,1,1.0000,0.0000,1.44682,0.22646,-2.77922,0.98193,1.57080,0.00001,-0.14512,-0.38003,0.04475,,,,,,,,,,,,,,,,,,,,,,,,,,0,0,0,0,0
3.3128,1783012936.2794,1,1,1.0000,0.0000,1.44682,0.22646,-2.77922,0.98193,1.57080,0.00001,-0.14512,-0.38003,0.04475,,,,,,,,,,,,,,,,,,,,,,,,,,0,0,0,0,0
3.3321,1783012936.2987,1,1,1.0000,0.0000,1.44682,0.22638,-2.77924,0.98203,1.57080,0.00001,-0.14512,-0.38003,0.04473,,,,,,,,,,,,,,,,,,,,,,,,,,0,0,0,0,0
3.3325,1783012936.2991,1,1,1.0000,0.0000,1.44682,0.22638,-2.77924,0.98203,1.57080,0.00001,-0.14512,-0.38003,0.04473,,,,,,,,,,,,,,,,,,,,,,,,,,0,0,0,0,0
3.3403,1783012936.3069,1,1,1.0000,0.0000,1.44682,0.22635,-2.77925,0.98207,1.57080,0.00001,-0.14512,-0.38003,0.04472,,,,,,,,,,,,,,,,,,,,,,,,,,0,0,0,0,0
3.3557,1783012936.3223,1,1,1.0000,0.0000,1.44682,0.22625,-2.77928,0.98220,1.57080,0.00001,-0.14512,-0.38003,0.04470,,,,,,,,,,,,,,,,,,,,,,,,,,0,0,0,0,0
3.3671,1783012936.3336,1,1,1.0000,0.0000,1.44682,0.22623,-2.77928,0.98222,1.57080,0.00001,-0.14512,-0.38003,0.04469,,,,,,,,,,,,,,,,,,,,,,,,,,0,0,0,0,0
3.3711,1783012936.3377,1,1,1.0000,0.0000,1.44682,0.22621,-2.77928,0.98224,1.57080,0.00001,-0.14512,-0.38003,0.04469,,,,,,,,,,,,,,,,,,,,,,,,,,0,0,0,0,0
3.3806,1783012936.3472,1,1,1.0000,0.0000,1.44682,0.22616,-2.77930,0.98230,1.57080,0.00001,-0.14512,-0.38003,0.04468,,,,,,,,,,,,,,,,,,,,,,,,,,0,0,0,0,0
3.3811,1783012936.3476,1,1,1.0000,0.0000,1.44682,0.22616,-2.77930,0.98230,1.57080,0.00001,-0.14512,-0.38003,0.04468,,,,,,,,,,,,,,,,,,,,,,,,,,0,0,0,0,0
3.3903,1783012936.3569,1,1,1.0000,0.0000,1.44682,0.22613,-2.77930,0.98234,1.57080,0.00001,-0.14512,-0.38003,0.04467,,,,,,,,,,,,,,,,,,,,,,,,,,0,0,0,0,0
3.3906,1783012936.3572,1,1,1.0000,0.0000,1.44682,0.22613,-2.77930,0.98234,1.57080,0.00001,-0.14512,-0.38003,0.04467,,,,,,,,,,,,,,,,,,,,,,,,,,0,0,0,0,0
3.4010,1783012936.3675,1,1,1.0000,0.0000,1.44682,0.22610,-2.77931,0.98238,1.57080,0.00001,-0.14512,-0.38003,0.04466,,,,,,,,,,,,,,,,,,,,,,,,,,0,0,0,0,0
3.4013,1783012936.3679,1,1,1.0000,0.0000,1.44682,0.22610,-2.77931,0.98238,1.57080,0.00001,-0.14512,-0.38003,0.04466,,,,,,,,,,,,,,,,,,,,,,,,,,0,0,0,0,0
3.4102,1783012936.3768,1,1,1.0000,0.0000,1.44682,0.22603,-2.77933,0.98247,1.57080,0.00001,-0.14512,-0.38003,0.04464,,,,,,,,,,,,,,,,,,,,,,,,,,0,0,0,0,0
3.4106,1783012936.3771,1,1,1.0000,0.0000,1.44682,0.22603,-2.77933,0.98247,1.57080,0.00001,-0.14512,-0.38003,0.04464,,,,,,,,,,,,,,,,,,,,,,,,,,0,0,0,0,0
3.4246,1783012936.3912,1,1,1.0000,0.0000,1.44682,0.22600,-2.77934,0.98251,1.57080,0.00001,-0.14512,-0.38003,0.04463,,,,,,,,,,,,,,,,,,,,,,,,,,0,0,0,0,0
3.4319,1783012936.3984,1,1,1.0000,0.0000,1.44682,0.22597,-2.77935,0.98255,1.57080,0.00001,-0.14512,-0.38003,0.04462,,,,,,,,,,,,,,,,,,,,,,,,,,0,0,0,0,0
3.4402,1783012936.4068,1,1,1.0000,0.0000,1.44682,0.22592,-2.77936,0.98261,1.57080,0.00001,-0.14512,-0.38003,0.04461,,,,,,,,,,,,,,,,,,,,,,,,,,0,0,0,0,0
3.4526,1783012936.4191,1,1,1.0000,0.0000,1.44682,0.22589,-2.77937,0.98265,1.57080,0.00001,-0.14512,-0.38003,0.04460,,,,,,,,,,,,,,,,,,,,,,,,,,0,0,0,0,0
3.4692,1783012936.4358,1,1,1.0000,0.0000,1.44682,0.22581,-2.77939,0.98274,1.57080,0.00001,-0.14512,-0.38003,0.04458,,,,,,,,,,,,,,,,,,,,,,,,,,0,0,0,0,0
3.4698,1783012936.4364,1,1,1.0000,0.0000,1.44682,0.22578,-2.77939,0.98278,1.57080,0.00001,-0.14512,-0.38003,0.04458,,,,,,,,,,,,,,,,,,,,,,,,,,0,0,0,0,0
3.4709,1783012936.4375,1,1,1.0000,0.0000,1.44682,0.22578,-2.77939,0.98278,1.57080,0.00001,-0.14512,-0.38003,0.04458,,,,,,,,,,,,,,,,,,,,,,,,,,0,0,0,0,0
3.4714,1783012936.4380,1,1,1.0000,0.0000,1.44682,0.22578,-2.77939,0.98278,1.57080,0.00001,-0.14512,-0.38003,0.04458,,,,,,,,,,,,,,,,,,,,,,,,,,0,0,0,0,0
3.4801,1783012936.4467,1,1,1.0000,0.0000,1.44682,0.22576,-2.77940,0.98281,1.57080,0.00001,-0.14512,-0.38003,0.04457,,,,,,,,,,,,,,,,,,,,,,,,,,0,0,0,0,0
3.4899,1783012936.4565,1,1,1.0000,0.0000,1.44682,0.22572,-2.77941,0.98285,1.57080,0.00001,-0.14512,-0.38003,0.04456,,,,,,,,,,,,,,,,,,,,,,,,,,0,0,0,0,0
3.4902,1783012936.4568,1,1,1.0000,0.0000,1.44682,0.22572,-2.77941,0.98285,1.57080,0.00001,-0.14512,-0.38003,0.04456,,,,,,,,,,,,,,,,,,,,,,,,,,0,0,0,0,0
3.5029,1783012936.4695,1,1,1.0000,0.0000,1.44682,0.22565,-2.77943,0.98295,1.57080,0.00001,-0.14512,-0.38003,0.04454,,,,,,,,,,,,,,,,,,,,,,,,,,0,0,0,0,0
3.5119,1783012936.4785,1,1,1.0000,0.0000,1.44682,0.22564,-2.77943,0.98295,1.57080,0.00001,-0.14512,-0.38003,0.04454,,,,,,,,,,,,,,,,,,,,,,,,,,0,0,0,0,0
3.5204,1783012936.4870,1,1,1.0000,0.0000,1.44682,0.22561,-2.77944,0.98299,1.57080,0.00001,-0.14512,-0.38003,0.04453,,,,,,,,,,,,,,,,,,,,,,,,,,0,0,0,0,0
3.5207,1783012936.4873,1,1,1.0000,0.0000,1.44682,0.22561,-2.77944,0.98299,1.57080,0.00001,-0.14512,-0.38003,0.04453,,,,,,,,,,,,,,,,,,,,,,,,,,0,0,0,0,0
3.5314,1783012936.4980,1,1,1.0000,0.0000,1.44682,0.22554,-2.77945,0.98308,1.57080,0.00001,-0.14512,-0.38003,0.04451,,,,,,,,,,,,,,,,,,,,,,,,,,0,0,0,0,0
3.5409,1783012936.5075,1,1,1.0000,0.0000,1.44682,0.22551,-2.77946,0.98312,1.57080,0.00001,-0.14512,-0.38003,0.04451,,,,,,,,,,,,,,,,,,,,,,,,,,0,0,0,0,0
3.5585,1783012936.5251,1,1,1.0000,0.0000,1.44682,0.22543,-2.77948,0.98322,1.57080,0.00001,-0.14512,-0.38003,0.04449,,,,,,,,,,,,,,,,,,,,,,,,,,0,0,0,0,0
3.5621,1783012936.5287,1,1,1.0000,0.0000,1.44682,0.22540,-2.77949,0.98325,1.57080,0.00001,-0.14512,-0.38003,0.04448,,,,,,,,,,,,,,,,,,,,,,,,,,0,0,0,0,0
3.5728,1783012936.5393,1,1,1.0000,0.0000,1.44682,0.22540,-2.77949,0.98326,1.57080,0.00001,-0.14512,-0.38003,0.04448,,,,,,,,,,,,,,,,,,,,,,,,,,0,0,0,0,0
3.5834,1783012936.5499,1,1,1.0000,0.0000,1.44682,0.22535,-2.77950,0.98333,1.57080,0.00001,-0.14512,-0.38003,0.04446,,,,,,,,,,,,,,,,,,,,,,,,,,0,0,0,0,0
3.5962,1783012936.5628,1,1,1.0000,0.0000,1.44682,0.22527,-2.77952,0.98342,1.57080,0.00001,-0.14512,-0.38003,0.04444,,,,,,,,,,,,,,,,,,,,,,,,,,0,0,0,0,0
3.6045,1783012936.5711,1,1,1.0000,0.0000,1.44682,0.22526,-2.77952,0.98343,1.57080,0.00001,-0.14512,-0.38003,0.04444,,,,,,,,,,,,,,,,,,,,,,,,,,0,0,0,0,0
3.6232,1783012936.5897,1,1,1.0000,0.0000,1.44682,0.22516,-2.77955,0.98356,1.57080,0.00001,-0.14512,-0.38003,0.04441,,,,,,,,,,,,,,,,,,,,,,,,,,0,0,0,0,0
3.6235,1783012936.5901,1,1,1.0000,0.0000,1.44682,0.22516,-2.77955,0.98356,1.57080,0.00001,-0.14512,-0.38003,0.04441,,,,,,,,,,,,,,,,,,,,,,,,,,0,0,0,0,0
3.6269,1783012936.5934,1,1,1.0000,0.0000,1.44682,0.22513,-2.77956,0.98359,1.57080,0.00001,-0.14512,-0.38003,0.04441,,,,,,,,,,,,,,,,,,,,,,,,,,0,0,0,0,0
3.6271,1783012936.5937,1,1,1.0000,0.0000,1.44682,0.22513,-2.77956,0.98359,1.57080,0.00001,-0.14512,-0.38003,0.04441,,,,,,,,,,,,,,,,,,,,,,,,,,0,0,0,0,0
3.6339,1783012936.6004,1,1,1.0000,0.0000,1.44682,0.22513,-2.77956,0.98360,1.57080,0.00001,-0.14512,-0.38003,0.04441,,,,,,,,,,,,,,,,,,,,,,,,,,0,0,0,0,0
3.6439,1783012936.6105,1,1,1.0000,0.0000,1.44682,0.22511,-2.77956,0.98363,1.57080,0.00001,-0.14512,-0.38003,0.04440,,,,,,,,,,,,,,,,,,,,,,,,,,0,0,0,0,0
3.6442,1783012936.6108,1,1,1.0000,0.0000,1.44682,0.22511,-2.77956,0.98363,1.57080,0.00001,-0.14512,-0.38003,0.04440,,,,,,,,,,,,,,,,,,,,,,,,,,0,0,0,0,0
3.6533,1783012936.6198,1,1,1.0000,0.0000,1.44682,0.22507,-2.77957,0.98367,1.57080,0.00001,-0.14512,-0.38003,0.04439,,,,,,,,,,,,,,,,,,,,,,,,,,0,0,0,0,0
3.6634,1783012936.6299,1,1,1.0000,0.0000,1.44682,0.22504,-2.77958,0.98371,1.57080,0.00001,-0.14512,-0.38003,0.04438,,,,,,,,,,,,,,,,,,,,,,,,,,0,0,0,0,0
3.6750,1783012936.6416,1,1,1.0000,0.0000,1.44682,0.22499,-2.77959,0.98378,1.57080,0.00001,-0.14512,-0.38003,0.04437,,,,,,,,,,,,,,,,,,,,,,,,,,0,0,0,0,0
3.6842,1783012936.6508,1,1,1.0000,0.0000,1.44682,0.22493,-2.77961,0.98384,1.57080,0.00001,-0.14512,-0.38003,0.04436,,,,,,,,,,,,,,,,,,,,,,,,,,0,0,0,0,0
3.6939,1783012936.6605,1,1,1.0000,0.0000,1.44682,0.22490,-2.77961,0.98388,1.57080,0.00001,-0.14512,-0.38003,0.04435,,,,,,,,,,,,,,,,,,,,,,,,,,0,0,0,0,0
3.6942,1783012936.6608,1,1,1.0000,0.0000,1.44682,0.22490,-2.77961,0.98388,1.57080,0.00001,-0.14512,-0.38003,0.04435,,,,,,,,,,,,,,,,,,,,,,,,,,0,0,0,0,0
3.7036,1783012936.6702,1,1,1.0000,0.0000,1.44682,0.22488,-2.77962,0.98391,1.57080,0.00001,-0.14512,-0.38003,0.04434,,,,,,,,,,,,,,,,,,,,,,,,,,0,0,0,0,0
3.7208,1783012936.6873,1,1,1.0000,0.0000,1.44682,0.22482,-2.77964,0.98398,1.57080,0.00001,-0.14512,-0.38003,0.04433,,,,,,,,,,,,,,,,,,,,,,,,,,0,0,0,0,0
3.7239,1783012936.6905,1,1,1.0000,0.0000,1.44682,0.22482,-2.77964,0.98399,1.57080,0.00001,-0.14512,-0.38003,0.04433,,,,,,,,,,,,,,,,,,,,,,,,,,0,0,0,0,0
3.7243,1783012936.6909,1,1,1.0000,0.0000,1.44682,0.22482,-2.77964,0.98399,1.57080,0.00001,-0.14512,-0.38003,0.04433,,,,,,,,,,,,,,,,,,,,,,,,,,0,0,0,0,0
3.7332,1783012936.6998,1,1,1.0000,0.0000,1.44682,0.22478,-2.77964,0.98403,1.57080,0.00001,-0.14512,-0.38003,0.04432,,,,,,,,,,,,,,,,,,,,,,,,,,0,0,0,0,0
3.7482,1783012936.7148,1,1,1.0000,0.0000,1.44682,0.22468,-2.77967,0.98416,1.57080,0.00001,-0.14512,-0.38002,0.04429,,,,,,,,,,,,,,,,,,,,,,,,,,0,0,0,0,0
3.7538,1783012936.7204,1,1,1.0000,0.0000,1.44682,0.22468,-2.77967,0.98416,1.57080,0.00001,-0.14512,-0.38002,0.04429,,,,,,,,,,,,,,,,,,,,,,,,,,0,0,0,0,0
3.7541,1783012936.7207,1,1,1.0000,0.0000,1.44682,0.22468,-2.77967,0.98416,1.57080,0.00001,-0.14512,-0.38002,0.04429,,,,,,,,,,,,,,,,,,,,,,,,,,0,0,0,0,0
3.7660,1783012936.7325,1,1,1.0000,0.0000,1.44682,0.22464,-2.77968,0.98421,1.57080,0.00001,-0.14512,-0.38002,0.04428,,,,,,,,,,,,,,,,,,,,,,,,,,0,0,0,0,0
3.7797,1783012936.7463,1,1,1.0000,0.0000,1.44682,0.22460,-2.77969,0.98426,1.57080,0.00001,-0.14512,-0.38002,0.04427,,,,,,,,,,,,,,,,,,,,,,,,,,0,0,0,0,0
3.7872,1783012936.7538,1,1,1.0000,0.0000,1.44682,0.22458,-2.77970,0.98429,1.57080,0.00001,-0.14512,-0.38002,0.04427,,,,,,,,,,,,,,,,,,,,,,,,,,0,0,0,0,0
3.7966,1783012936.7632,1,1,1.0000,0.0000,1.44682,0.22454,-2.77971,0.98434,1.57080,0.00001,-0.14512,-0.38002,0.04425,,,,,,,,,,,,,,,,,,,,,,,,,,0,0,0,0,0
3.8031,1783012936.7697,1,1,1.0000,0.0000,1.44682,0.22448,-2.77972,0.98441,1.57080,0.00001,-0.14512,-0.38002,0.04424,,,,,,,,,,,,,,,,,,,,,,,,,,0,0,0,0,0
3.8136,1783012936.7802,1,1,1.0000,0.0000,1.44682,0.22445,-2.77973,0.98444,1.57080,0.00001,-0.14512,-0.38002,0.04423,,,,,,,,,,,,,,,,,,,,,,,,,,0,0,0,0,0
3.8244,1783012936.7910,1,1,1.0000,0.0000,1.44682,0.22443,-2.77973,0.98447,1.57080,0.00001,-0.14512,-0.38002,0.04423,,,,,,,,,,,,,,,,,,,,,,,,,,0,0,0,0,0
3.8342,1783012936.8008,1,1,1.0000,0.0000,1.44682,0.22437,-2.77975,0.98455,1.57080,0.00001,-0.14512,-0.38002,0.04421,,,,,,,,,,,,,,,,,,,,,,,,,,0,0,0,0,0
3.8433,1783012936.8099,1,1,1.0000,0.0000,1.44682,0.22437,-2.77975,0.98455,1.57080,0.00001,-0.14512,-0.38002,0.04421,,,,,,,,,,,,,,,,,,,,,,,,,,0,0,0,0,0
3.8538,1783012936.8203,1,1,1.0000,0.0000,1.44682,0.22431,-2.77976,0.98462,1.57080,0.00001,-0.14512,-0.38002,0.04420,,,,,,,,,,,,,,,,,,,,,,,,,,0,0,0,0,0
3.8633,1783012936.8299,1,1,1.0000,0.0000,1.44682,0.22426,-2.77978,0.98469,1.57080,0.00001,-0.14512,-0.38002,0.04418,,,,,,,,,,,,,,,,,,,,,,,,,,0,0,0,0,0
3.8915,1783012936.8581,1,1,1.0000,0.0000,1.44682,0.22417,-2.77980,0.98480,1.57080,0.00001,-0.14512,-0.38002,0.04416,,,,,,,,,,,,,,,,,,,,,,,,,,0,0,0,0,0
3.8985,1783012936.8651,1,1,1.0000,0.0000,1.44682,0.22415,-2.77981,0.98483,1.57080,0.00001,-0.14512,-0.38002,0.04415,,,,,,,,,,,,,,,,,,,,,,,,,,0,0,0,0,0
3.9030,1783012936.8695,1,1,1.0000,0.0000,1.44682,0.22414,-2.77981,0.98483,1.57080,0.00001,-0.14512,-0.38002,0.04415,,,,,,,,,,,,,,,,,,,,,,,,,,0,0,0,0,0
3.9061,1783012936.8726,1,1,1.0000,0.0000,1.44682,0.22413,-2.77981,0.98485,1.57080,0.00001,-0.14512,-0.38002,0.04415,,,,,,,,,,,,,,,,,,,,,,,,,,0,0,0,0,0
3.9064,1783012936.8730,1,1,1.0000,0.0000,1.44682,0.22413,-2.77981,0.98485,1.57080,0.00001,-0.14512,-0.38002,0.04415,,,,,,,,,,,,,,,,,,,,,,,,,,0,0,0,0,0
3.9139,1783012936.8805,1,1,1.0000,0.0000,1.44682,0.22409,-2.77982,0.98490,1.57080,0.00001,-0.14512,-0.38002,0.04414,,,,,,,,,,,,,,,,,,,,,,,,,,0,0,0,0,0
3.9384,1783012936.9050,1,1,1.0000,0.0000,1.44682,0.22399,-2.77984,0.98502,1.57080,0.00001,-0.14512,-0.38002,0.04411,,,,,,,,,,,,,,,,,,,,,,,,,,0,0,0,0,0
3.9403,1783012936.9069,1,1,1.0000,0.0000,1.44682,0.22399,-2.77984,0.98502,1.57080,0.00001,-0.14512,-0.38002,0.04411,,,,,,,,,,,,,,,,,,,,,,,,,,0,0,0,0,0
3.9460,1783012936.9126,1,1,1.0000,0.0000,1.44682,0.22395,-2.77986,0.98508,1.57080,0.00001,-0.14512,-0.38002,0.04410,,,,,,,,,,,,,,,,,,,,,,,,,,0,0,0,0,0
3.9465,1783012936.9130,1,1,1.0000,0.0000,1.44682,0.22395,-2.77986,0.98508,1.57080,0.00001,-0.14512,-0.38002,0.04410,,,,,,,,,,,,,,,,,,,,,,,,,,0,0,0,0,0
3.9554,1783012936.9220,1,1,1.0000,0.0000,1.44682,0.22390,-2.77987,0.98514,1.57080,0.00001,-0.14512,-0.38002,0.04409,,,,,,,,,,,,,,,,,,,,,,,,,,0,0,0,0,0
3.9660,1783012936.9326,1,1,1.0000,0.0000,1.44682,0.22388,-2.77987,0.98516,1.57080,0.00001,-0.14512,-0.38002,0.04408,,,,,,,,,,,,,,,,,,,,,,,,,,0,0,0,0,0
3.9869,1783012936.9535,1,1,1.0000,0.0000,1.44682,0.22376,-2.77990,0.98531,1.57080,0.00001,-0.14512,-0.38002,0.04405,,,,,,,,,,,,,,,,,,,,,,,,,,0,0,0,0,0
3.9873,1783012936.9539,1,1,1.0000,0.0000,1.44682,0.22376,-2.77990,0.98531,1.57080,0.00001,-0.14512,-0.38002,0.04405,,,,,,,,,,,,,,,,,,,,,,,,,,0,0,0,0,0
3.9946,1783012936.9612,1,1,1.0000,0.0000,1.44682,0.22376,-2.77990,0.98532,1.57080,0.00001,-0.14512,-0.38002,0.04405,,,,,,,,,,,,,,,,,,,,,,,,,,0,0,0,0,0
3.9951,1783012936.9616,1,1,1.0000,0.0000,1.44682,0.22376,-2.77990,0.98532,1.57080,0.00001,-0.14512,-0.38002,0.04405,,,,,,,,,,,,,,,,,,,,,,,,,,0,0,0,0,0
4.0046,1783012936.9711,1,1,1.0000,0.0000,1.44682,0.22373,-2.77991,0.98535,1.57080,0.00001,-0.14512,-0.38002,0.04404,,,,,,,,,,,,,,,,,,,,,,,,,,0,0,0,0,0
4.0163,1783012936.9829,1,1,1.0000,0.0000,1.44682,0.22365,-2.77993,0.98545,1.57080,0.00001,-0.14512,-0.38002,0.04403,,,,,,,,,,,,,,,,,,,,,,,,,,0,0,0,0,0
4.0281,1783012936.9947,1,1,1.0000,0.0000,1.44682,0.22363,-2.77993,0.98547,1.57080,0.00001,-0.14512,-0.38002,0.04402,,,,,,,,,,,,,,,,,,,,,,,,,,0,0,0,0,0
4.0388,1783012937.0053,1,1,1.0000,0.0000,1.44682,0.22357,-2.77995,0.98555,1.57080,0.00001,-0.14512,-0.38002,0.04400,,,,,,,,,,,,,,,,,,,,,,,,,,0,0,0,0,0
4.0467,1783012937.0133,1,1,1.0000,0.0000,1.44682,0.22352,-2.77996,0.98562,1.57080,0.00001,-0.14512,-0.38002,0.04399,,,,,,,,,,,,,,,,,,,,,,,,,,0,0,0,0,0
4.0577,1783012937.0243,1,1,1.0000,0.0000,1.44682,0.22350,-2.77997,0.98564,1.57080,0.00001,-0.14512,-0.38002,0.04399,,,,,,,,,,,,,,,,,,,,,,,,,,0,0,0,0,0
4.0645,1783012937.0311,1,1,1.0000,0.0000,1.44682,0.22348,-2.77997,0.98566,1.57080,0.00001,-0.14512,-0.38002,0.04398,,,,,,,,,,,,,,,,,,,,,,,,,,0,0,0,0,0
4.0837,1783012937.0503,1,1,1.0000,0.0000,1.44682,0.22340,-2.77999,0.98576,1.57080,0.00001,-0.14512,-0.38002,0.04396,,,,,,,,,,,,,,,,,,,,,,,,,,0,0,0,0,0
4.0889,1783012937.0555,1,1,1.0000,0.0000,1.44682,0.22339,-2.78000,0.98578,1.57080,0.00001,-0.14512,-0.38002,0.04396,,,,,,,,,,,,,,,,,,,,,,,,,,0,0,0,0,0
4.0893,1783012937.0558,1,1,1.0000,0.0000,1.44682,0.22339,-2.78000,0.98578,1.57080,0.00001,-0.14512,-0.38002,0.04396,,,,,,,,,,,,,,,,,,,,,,,,,,0,0,0,0,0
4.0933,1783012937.0599,1,1,1.0000,0.0000,1.44682,0.22337,-2.78000,0.98580,1.57080,0.00001,-0.14512,-0.38002,0.04395,,,,,,,,,,,,,,,,,,,,,,,,,,0,0,0,0,0
4.1033,1783012937.0699,1,1,1.0000,0.0000,1.44682,0.22329,-2.78002,0.98589,1.57080,0.00001,-0.14512,-0.38002,0.04393,,,,,,,,,,,,,,,,,,,,,,,,,,0,0,0,0,0
4.1132,1783012937.0797,1,1,1.0000,0.0000,1.44682,0.22327,-2.78003,0.98592,1.57080,0.00001,-0.14512,-0.38002,0.04393,,,,,,,,,,,,,,,,,,,,,,,,,,0,0,0,0,0
4.1138,1783012937.0803,1,1,1.0000,0.0000,1.44682,0.22326,-2.78003,0.98593,1.57080,0.00001,-0.14512,-0.38002,0.04393,,,,,,,,,,,,,,,,,,,,,,,,,,0,0,0,0,0
4.1279,1783012937.0945,1,1,1.0000,0.0000,1.44682,0.22321,-2.78004,0.98600,1.57080,0.00001,-0.14512,-0.38002,0.04391,,,,,,,,,,,,,,,,,,,,,,,,,,0,0,0,0,0
4.1345,1783012937.1011,1,1,1.0000,0.0000,1.44682,0.22316,-2.78005,0.98606,1.57080,0.00001,-0.14512,-0.38002,0.04390,,,,,,,,,,,,,,,,,,,,,,,,,,0,0,0,0,0
4.1349,1783012937.1014,1,1,1.0000,0.0000,1.44682,0.22316,-2.78005,0.98606,1.57080,0.00001,-0.14512,-0.38002,0.04390,,,,,,,,,,,,,,,,,,,,,,,,,,0,0,0,0,0
4.1437,1783012937.1102,1,1,1.0000,0.0000,1.44682,0.22315,-2.78005,0.98607,1.57080,0.00001,-0.14512,-0.38002,0.04390,,,,,,,,,,,,,,,,,,,,,,,,,,0,0,0,0,0
4.1535,1783012937.1200,1,1,1.0000,0.0000,1.44682,0.22312,-2.78006,0.98611,1.57080,0.00001,-0.14512,-0.38002,0.04389,,,,,,,,,,,,,,,,,,,,,,,,,,0,0,0,0,0
4.1769,1783012937.1435,1,1,1.0000,0.0000,1.44682,0.22302,-2.78009,0.98624,1.57080,0.00001,-0.14512,-0.38002,0.04386,,,,,,,,,,,,,,,,,,,,,,,,,,0,0,0,0,0
4.1773,1783012937.1439,1,1,1.0000,0.0000,1.44682,0.22302,-2.78009,0.98624,1.57080,0.00001,-0.14512,-0.38002,0.04386,,,,,,,,,,,,,,,,,,,,,,,,,,0,0,0,0,0
4.1910,1783012937.1575,1,1,1.0000,0.0000,1.44682,0.22294,-2.78011,0.98634,1.57080,0.00001,-0.14512,-0.38002,0.04384,,,,,,,,,,,,,,,,,,,,,,,,,,0,0,0,0,0
4.2095,1783012937.1761,1,1,1.0000,0.0000,1.44682,0.22290,-2.78012,0.98639,1.57080,0.00001,-0.14512,-0.38002,0.04383,,,,,,,,,,,,,,,,,,,,,,,,,,0,0,0,0,0
4.2164,1783012937.1830,1,1,1.0000,0.0000,1.44682,0.22285,-2.78013,0.98644,1.57080,0.00001,-0.14512,-0.38002,0.04382,,,,,,,,,,,,,,,,,,,,,,,,,,0,0,0,0,0
4.2303,1783012937.1969,1,1,1.0000,0.0000,1.44682,0.22278,-2.78015,0.98654,1.57080,0.00001,-0.14512,-0.38002,0.04380,,,,,,,,,,,,,,,,,,,,,,,,,,0,0,0,0,0
4.2382,1783012937.2048,1,1,1.0000,0.0000,1.44682,0.22276,-2.78015,0.98656,1.57080,0.00001,-0.14512,-0.38002,0.04380,,,,,,,,,,,,,,,,,,,,,,,,,,0,0,0,0,0
4.2385,1783012937.2050,1,1,1.0000,0.0000,1.44682,0.22276,-2.78015,0.98656,1.57080,0.00001,-0.14512,-0.38002,0.04380,,,,,,,,,,,,,,,,,,,,,,,,,,0,0,0,0,0
4.2464,1783012937.2130,1,1,1.0000,0.0000,1.44681,0.22272,-2.78016,0.98661,1.57080,0.00001,-0.14512,-0.38002,0.04379,,,,,,,,,,,,,,,,,,,,,,,,,,0,0,0,0,0
4.2467,1783012937.2133,1,1,1.0000,0.0000,1.44681,0.22272,-2.78016,0.98661,1.57080,0.00001,-0.14512,-0.38002,0.04379,,,,,,,,,,,,,,,,,,,,,,,,,,0,0,0,0,0
4.2567,1783012937.2233,1,1,1.0000,0.0000,1.44681,0.22267,-2.78018,0.98668,1.57080,0.00001,-0.14512,-0.38002,0.04377,,,,,,,,,,,,,,,,,,,,,,,,,,0,0,0,0,0
4.2662,1783012937.2328,1,1,1.0000,0.0000,1.44681,0.22265,-2.78018,0.98670,1.57080,0.00001,-0.14512,-0.38002,0.04377,,,,,,,,,,,,,,,,,,,,,,,,,,0,0,0,0,0
4.2665,1783012937.2331,1,1,1.0000,0.0000,1.44681,0.22265,-2.78018,0.98670,1.57080,0.00001,-0.14512,-0.38002,0.04377,,,,,,,,,,,,,,,,,,,,,,,,,,0,0,0,0,0
4.2901,1783012937.2566,1,1,1.0000,0.0000,1.44681,0.22253,-2.78021,0.98685,1.57080,0.00001,-0.14512,-0.38002,0.04374,,,,,,,,,,,,,,,,,,,,,,,,,,0,0,0,0,0
4.2930,1783012937.2596,1,1,1.0000,0.0000,1.44681,0.22253,-2.78021,0.98685,1.57080,0.00001,-0.14512,-0.38002,0.04374,,,,,,,,,,,,,,,,,,,,,,,,,,0,0,0,0,0
4.2934,1783012937.2599,1,1,1.0000,0.0000,1.44681,0.22253,-2.78021,0.98685,1.57080,0.00001,-0.14512,-0.38002,0.04374,,,,,,,,,,,,,,,,,,,,,,,,,,0,0,0,0,0
4.2967,1783012937.2633,1,1,1.0000,0.0000,1.44681,0.22253,-2.78021,0.98685,1.57080,0.00001,-0.14512,-0.38002,0.04374,,,,,,,,,,,,,,,,,,,,,,,,,,0,0,0,0,0
4.2970,1783012937.2636,1,1,1.0000,0.0000,1.44681,0.22253,-2.78021,0.98685,1.57080,0.00001,-0.14512,-0.38002,0.04374,,,,,,,,,,,,,,,,,,,,,,,,,,0,0,0,0,0
4.3088,1783012937.2754,1,1,1.0000,0.0000,1.44681,0.22247,-2.78023,0.98692,1.57080,0.00001,-0.14512,-0.38002,0.04372,,,,,,,,,,,,,,,,,,,,,,,,,,0,0,0,0,0
4.3776,1783012937.3442,1,1,1.0000,0.0000,1.44681,0.22217,-2.78030,0.98729,1.57080,0.00001,-0.14512,-0.38002,0.04365,,,,,,,,,,,,,,,,,,,,,,,,,,0,0,0,0,0
4.3781,1783012937.3447,1,1,1.0000,0.0000,1.44681,0.22215,-2.78031,0.98733,1.57080,0.00001,-0.14512,-0.38002,0.04364,,,,,,,,,,,,,,,,,,,,,,,,,,0,0,0,0,0
4.3785,1783012937.3451,1,1,1.0000,0.0000,1.44681,0.22215,-2.78031,0.98733,1.57080,0.00001,-0.14512,-0.38002,0.04364,,,,,,,,,,,,,,,,,,,,,,,,,,0,0,0,0,0
4.3788,1783012937.3454,1,1,1.0000,0.0000,1.44681,0.22215,-2.78031,0.98733,1.57080,0.00001,-0.14512,-0.38002,0.04364,,,,,,,,,,,,,,,,,,,,,,,,,,0,0,0,0,0
4.3814,1783012937.3480,1,1,1.0000,0.0000,1.44681,0.22215,-2.78031,0.98733,1.57080,0.00001,-0.14512,-0.38002,0.04364,,,,,,,,,,,,,,,,,,,,,,,,,,0,0,0,0,0
4.3818,1783012937.3483,1,1,1.0000,0.0000,1.44681,0.22215,-2.78031,0.98733,1.57080,0.00001,-0.14512,-0.38002,0.04364,,,,,,,,,,,,,,,,,,,,,,,,,,0,0,0,0,0
4.4024,1783012937.3689,1,1,1.0000,0.0000,1.44681,0.22208,-2.78032,0.98741,1.57080,0.00001,-0.14512,-0.38002,0.04362,,,,,,,,,,,,,,,,,,,,,,,,,,0,0,0,0,0
4.4177,1783012937.3843,1,1,1.0000,0.0000,1.44681,0.22206,-2.78033,0.98744,1.57080,0.00001,-0.14512,-0.38002,0.04361,,,,,,,,,,,,,,,,,,,,,,,,,,0,0,0,0,0
4.4183,1783012937.3848,1,1,1.0000,0.0000,1.44681,0.22204,-2.78033,0.98746,1.57080,0.00001,-0.14512,-0.38002,0.04361,,,,,,,,,,,,,,,,,,,,,,,,,,0,0,0,0,0
4.4373,1783012937.4039,1,1,1.0000,0.0000,1.44681,0.22195,-2.78036,0.98758,1.57080,0.00001,-0.14512,-0.38002,0.04359,,,,,,,,,,,,,,,,,,,,,,,,,,0,0,0,0,0
4.4381,1783012937.4047,1,1,1.0000,0.0000,1.44681,0.22192,-2.78036,0.98761,1.57080,0.00001,-0.14512,-0.38002,0.04358,,,,,,,,,,,,,,,,,,,,,,,,,,0,0,0,0,0
4.4469,1783012937.4135,1,1,1.0000,0.0000,1.44681,0.22192,-2.78036,0.98761,1.57080,0.00001,-0.14512,-0.38002,0.04358,,,,,,,,,,,,,,,,,,,,,,,,,,0,0,0,0,0
4.4473,1783012937.4139,1,1,1.0000,0.0000,1.44681,0.22192,-2.78036,0.98761,1.57080,0.00001,-0.14512,-0.38002,0.04358,,,,,,,,,,,,,,,,,,,,,,,,,,0,0,0,0,0
4.4578,1783012937.4244,1,1,1.0000,0.0000,1.44681,0.22190,-2.78037,0.98764,1.57080,0.00001,-0.14512,-0.38002,0.04357,,,,,,,,,,,,,,,,,,,,,,,,,,0,0,0,0,0
4.4663,1783012937.4329,1,1,1.0000,0.0000,1.44681,0.22184,-2.78038,0.98772,1.57080,0.00001,-0.14512,-0.38002,0.04356,,,,,,,,,,,,,,,,,,,,,,,,,,0,0,0,0,0
4.4666,1783012937.4331,1,1,1.0000,0.0000,1.44681,0.22184,-2.78038,0.98772,1.57080,0.00001,-0.14512,-0.38002,0.04356,,,,,,,,,,,,,,,,,,,,,,,,,,0,0,0,0,0
4.4786,1783012937.4451,1,1,1.0000,0.0000,1.44681,0.22182,-2.78039,0.98774,1.57080,0.00001,-0.14512,-0.38002,0.04355,,,,,,,,,,,,,,,,,,,,,,,,,,0,0,0,0,0
4.4932,1783012937.4598,1,1,1.0000,0.0000,1.44681,0.22175,-2.78041,0.98782,1.57080,0.00001,-0.14512,-0.38002,0.04354,,,,,,,,,,,,,,,,,,,,,,,,,,0,0,0,0,0
4.4970,1783012937.4635,1,1,1.0000,0.0000,1.44681,0.22172,-2.78041,0.98786,1.57080,0.00001,-0.14512,-0.38002,0.04353,,,,,,,,,,,,,,,,,,,,,,,,,,0,0,0,0,0
4.5065,1783012937.4731,1,1,1.0000,0.0000,1.44681,0.22169,-2.78042,0.98789,1.57080,0.00001,-0.14512,-0.38002,0.04352,,,,,,,,,,,,,,,,,,,,,,,,,,0,0,0,0,0
4.5068,1783012937.4734,1,1,1.0000,0.0000,1.44681,0.22169,-2.78042,0.98789,1.57080,0.00001,-0.14512,-0.38002,0.04352,,,,,,,,,,,,,,,,,,,,,,,,,,0,0,0,0,0
4.5166,1783012937.4832,1,1,1.0000,0.0000,1.44681,0.22167,-2.78043,0.98792,1.57080,0.00001,-0.14512,-0.38002,0.04352,,,,,,,,,,,,,,,,,,,,,,,,,,0,0,0,0,0
4.5306,1783012937.4972,1,1,1.0000,0.0000,1.44681,0.22161,-2.78044,0.98800,1.57080,0.00001,-0.14512,-0.38002,0.04350,,,,,,,,,,,,,,,,,,,,,,,,,,0,0,0,0,0
4.5385,1783012937.5051,1,1,1.0000,0.0000,1.44681,0.22159,-2.78045,0.98802,1.57080,0.00001,-0.14512,-0.38002,0.04350,,,,,,,,,,,,,,,,,,,,,,,,,,0,0,0,0,0
4.5474,1783012937.5140,1,1,1.0000,0.0000,1.44681,0.22155,-2.78046,0.98807,1.57080,0.00001,-0.14512,-0.38002,0.04348,,,,,,,,,,,,,,,,,,,,,,,,,,0,0,0,0,0
4.5563,1783012937.5229,1,1,1.0000,0.0000,1.44681,0.22150,-2.78047,0.98814,1.57080,0.00001,-0.14512,-0.38002,0.04347,,,,,,,,,,,,,,,,,,,,,,,,,,0,0,0,0,0
4.5676,1783012937.5341,1,1,1.0000,0.0000,1.44681,0.22147,-2.78048,0.98818,1.57080,0.00001,-0.14512,-0.38002,0.04346,,,,,,,,,,,,,,,,,,,,,,,,,,0,0,0,0,0
4.5678,1783012937.5344,1,1,1.0000,0.0000,1.44681,0.22147,-2.78048,0.98818,1.57080,0.00001,-0.14512,-0.38002,0.04346,,,,,,,,,,,,,,,,,,,,,,,,,,0,0,0,0,0
4.5771,1783012937.5437,1,1,1.0000,0.0000,1.44681,0.22144,-2.78048,0.98821,1.57080,0.00001,-0.14512,-0.38002,0.04346,,,,,,,,,,,,,,,,,,,,,,,,,,0,0,0,0,0
4.5865,1783012937.5531,1,1,1.0000,0.0000,1.44681,0.22138,-2.78050,0.98828,1.57080,0.00001,-0.14512,-0.38002,0.04344,,,,,,,,,,,,,,,,,,,,,,,,,,0,0,0,0,0
4.6387,1783012937.6053,1,1,1.0000,0.0000,1.44681,0.22120,-2.78054,0.98851,1.57080,0.00001,-0.14512,-0.38002,0.04339,,,,,,,,,,,,,,,,,,,,,,,,,,0,0,0,0,0
4.6390,1783012937.6056,1,1,1.0000,0.0000,1.44681,0.22120,-2.78054,0.98851,1.57080,0.00001,-0.14512,-0.38002,0.04339,,,,,,,,,,,,,,,,,,,,,,,,,,0,0,0,0,0
4.6506,1783012937.6172,1,1,1.0000,0.0000,1.44681,0.22116,-2.78055,0.98856,1.57080,0.00001,-0.14512,-0.38002,0.04338,,,,,,,,,,,,,,,,,,,,,,,,,,0,0,0,0,0
4.6509,1783012937.6175,1,1,1.0000,0.0000,1.44681,0.22116,-2.78055,0.98856,1.57080,0.00001,-0.14512,-0.38002,0.04338,,,,,,,,,,,,,,,,,,,,,,,,,,0,0,0,0,0
4.6512,1783012937.6178,1,1,1.0000,0.0000,1.44681,0.22116,-2.78055,0.98856,1.57080,0.00001,-0.14512,-0.38002,0.04338,,,,,,,,,,,,,,,,,,,,,,,,,,0,0,0,0,0
4.6515,1783012937.6181,1,1,1.0000,0.0000,1.44681,0.22116,-2.78055,0.98856,1.57080,0.00001,-0.14512,-0.38002,0.04338,,,,,,,,,,,,,,,,,,,,,,,,,,0,0,0,0,0
4.6518,1783012937.6184,1,1,1.0000,0.0000,1.44681,0.22116,-2.78055,0.98856,1.57080,0.00001,-0.14512,-0.38002,0.04338,,,,,,,,,,,,,,,,,,,,,,,,,,0,0,0,0,0
4.6521,1783012937.6187,1,1,1.0000,0.0000,1.44681,0.22116,-2.78055,0.98856,1.57080,0.00001,-0.14512,-0.38002,0.04338,,,,,,,,,,,,,,,,,,,,,,,,,,0,0,0,0,0
4.6609,1783012937.6274,1,1,1.0000,0.0000,1.44681,0.22114,-2.78056,0.98859,1.57080,0.00001,-0.14512,-0.38002,0.04338,,,,,,,,,,,,,,,,,,,,,,,,,,0,0,0,0,0
4.6664,1783012937.6329,1,1,1.0000,0.0000,1.44681,0.22110,-2.78057,0.98864,1.57080,0.00001,-0.14512,-0.38002,0.04337,,,,,,,,,,,,,,,,,,,,,,,,,,0,0,0,0,0
4.6793,1783012937.6459,1,1,1.0000,0.0000,1.44681,0.22102,-2.78059,0.98874,1.57080,0.00001,-0.14512,-0.38002,0.04335,,,,,,,,,,,,,,,,,,,,,,,,,,0,0,0,0,0
4.6866,1783012937.6532,1,1,1.0000,0.0000,1.44681,0.22101,-2.78059,0.98874,1.57080,0.00001,-0.14512,-0.38002,0.04335,,,,,,,,,,,,,,,,,,,,,,,,,,0,0,0,0,0
4.6869,1783012937.6535,1,1,1.0000,0.0000,1.44681,0.22101,-2.78059,0.98874,1.57080,0.00001,-0.14512,-0.38002,0.04335,,,,,,,,,,,,,,,,,,,,,,,,,,0,0,0,0,0
4.7027,1783012937.6693,1,1,1.0000,0.0000,1.44681,0.22095,-2.78060,0.98882,1.57080,0.00001,-0.14512,-0.38002,0.04333,,,,,,,,,,,,,,,,,,,,,,,,,,0,0,0,0,0
4.7113,1783012937.6778,1,1,1.0000,0.0000,1.44681,0.22093,-2.78061,0.98885,1.57080,0.00001,-0.14512,-0.38002,0.04333,,,,,,,,,,,,,,,,,,,,,,,,,,0,0,0,0,0
4.7228,1783012937.6894,1,1,1.0000,0.0000,1.44681,0.22089,-2.78062,0.98889,1.57080,0.00001,-0.14512,-0.38002,0.04332,,,,,,,,,,,,,,,,,,,,,,,,,,0,0,0,0,0
4.7306,1783012937.6972,1,1,1.0000,0.0000,1.44681,0.22084,-2.78063,0.98895,1.57080,0.00001,-0.14512,-0.38002,0.04330,,,,,,,,,,,,,,,,,,,,,,,,,,0,0,0,0,0
4.7443,1783012937.7109,1,1,1.0000,0.0000,1.44681,0.22079,-2.78065,0.98902,1.57080,0.00001,-0.14512,-0.38002,0.04329,,,,,,,,,,,,,,,,,,,,,,,,,,0,0,0,0,0
4.7509,1783012937.7175,1,1,1.0000,0.0000,1.44681,0.22077,-2.78065,0.98904,1.57080,0.00001,-0.14512,-0.38002,0.04329,,,,,,,,,,,,,,,,,,,,,,,,,,0,0,0,0,0
4.7604,1783012937.7270,1,1,1.0000,0.0000,1.44681,0.22073,-2.78066,0.98909,1.57080,0.00001,-0.14512,-0.38002,0.04327,,,,,,,,,,,,,,,,,,,,,,,,,,0,0,0,0,0
4.7607,1783012937.7273,1,1,1.0000,0.0000,1.44681,0.22073,-2.78066,0.98909,1.57080,0.00001,-0.14512,-0.38002,0.04327,,,,,,,,,,,,,,,,,,,,,,,,,,0,0,0,0,0
4.7706,1783012937.7372,1,1,1.0000,0.0000,1.44681,0.22068,-2.78067,0.98916,1.57080,0.00001,-0.14512,-0.38002,0.04326,,,,,,,,,,,,,,,,,,,,,,,,,,0,0,0,0,0
4.7864,1783012937.7530,1,1,1.0000,0.0000,1.44681,0.22062,-2.78069,0.98923,1.57080,0.00001,-0.14512,-0.38002,0.04325,,,,,,,,,,,,,,,,,,,,,,,,,,0,0,0,0,0
4.8050,1783012937.7716,1,1,1.0000,0.0000,1.44681,0.22054,-2.78071,0.98933,1.57080,0.00001,-0.14512,-0.38002,0.04323,,,,,,,,,,,,,,,,,,,,,,,,,,0,0,0,0,0
4.8053,1783012937.7718,1,1,1.0000,0.0000,1.44681,0.22054,-2.78071,0.98933,1.57080,0.00001,-0.14512,-0.38002,0.04323,,,,,,,,,,,,,,,,,,,,,,,,,,0,0,0,0,0
4.8233,1783012937.7899,1,1,1.0000,0.0000,1.44681,0.22046,-2.78073,0.98943,1.57080,0.00001,-0.14512,-0.38002,0.04320,,,,,,,,,,,,,,,,,,,,,,,,,,0,0,0,0,0
4.8236,1783012937.7902,1,1,1.0000,0.0000,1.44681,0.22046,-2.78073,0.98943,1.57080,0.00001,-0.14512,-0.38002,0.04320,,,,,,,,,,,,,,,,,,,,,,,,,,0,0,0,0,0
4.8306,1783012937.7972,1,1,1.0000,0.0000,1.44681,0.22043,-2.78073,0.98947,1.57080,0.00001,-0.14512,-0.38002,0.04320,,,,,,,,,,,,,,,,,,,,,,,,,,0,0,0,0,0
4.8438,1783012937.8104,1,1,1.0000,0.0000,1.44681,0.22040,-2.78074,0.98951,1.57080,0.00001,-0.14512,-0.38002,0.04319,,,,,,,,,,,,,,,,,,,,,,,,,,0,0,0,0,0
4.8534,1783012937.8199,1,1,1.0000,0.0000,1.44681,0.22035,-2.78075,0.98957,1.57080,0.00001,-0.14512,-0.38002,0.04318,,,,,,,,,,,,,,,,,,,,,,,,,,0,0,0,0,0
4.9148,1783012937.8814,1,1,1.0000,0.0000,1.44681,0.22008,-2.78082,0.98991,1.57080,0.00001,-0.14512,-0.38002,0.04311,,,,,,,,,,,,,,,,,,,,,,,,,,0,0,0,0,0
4.9152,1783012937.8818,1,1,1.0000,0.0000,1.44681,0.22008,-2.78082,0.98991,1.57080,0.00001,-0.14512,-0.38002,0.04311,,,,,,,,,,,,,,,,,,,,,,,,,,0,0,0,0,0
4.9157,1783012937.8823,1,1,1.0000,0.0000,1.44681,0.22008,-2.78082,0.98991,1.57080,0.00001,-0.14512,-0.38002,0.04311,,,,,,,,,,,,,,,,,,,,,,,,,,0,0,0,0,0
4.9162,1783012937.8828,1,1,1.0000,0.0000,1.44681,0.22008,-2.78082,0.98991,1.57080,0.00001,-0.14512,-0.38002,0.04311,,,,,,,,,,,,,,,,,,,,,,,,,,0,0,0,0,0
4.9227,1783012937.8892,1,1,1.0000,0.0000,1.44681,0.22005,-2.78083,0.98995,1.57080,0.00001,-0.14512,-0.38002,0.04310,,,,,,,,,,,,,,,,,,,,,,,,,,0,0,0,0,0
4.9307,1783012937.8972,1,1,1.0000,0.0000,1.44681,0.22003,-2.78083,0.98997,1.57080,0.00001,-0.14512,-0.38002,0.04309,,,,,,,,,,,,,,,,,,,,,,,,,,0,0,0,0,0
4.9311,1783012937.8977,1,1,1.0000,0.0000,1.44681,0.22003,-2.78083,0.98997,1.57080,0.00001,-0.14512,-0.38002,0.04309,,,,,,,,,,,,,,,,,,,,,,,,,,0,0,0,0,0
4.9408,1783012937.9073,1,1,1.0000,0.0000,1.44681,0.21999,-2.78084,0.99002,1.57080,0.00001,-0.14512,-0.38002,0.04308,,,,,,,,,,,,,,,,,,,,,,,,,,0,0,0,0,0
4.9508,1783012937.9173,1,1,1.0000,0.0000,1.44681,0.21994,-2.78086,0.99008,1.57080,0.00001,-0.14512,-0.38002,0.04307,,,,,,,,,,,,,,,,,,,,,,,,,,0,0,0,0,0
4.9633,1783012937.9298,1,1,1.0000,0.0000,1.44681,0.21990,-2.78087,0.99013,1.57080,0.00001,-0.14512,-0.38002,0.04306,,,,,,,,,,,,,,,,,,,,,,,,,,0,0,0,0,0
4.9707,1783012937.9373,1,1,1.0000,0.0000,1.44681,0.21986,-2.78088,0.99019,1.57080,0.00001,-0.14512,-0.38002,0.04305,,,,,,,,,,,,,,,,,,,,,,,,,,0,0,0,0,0
4.9837,1783012937.9502,1,1,1.0000,0.0000,1.44681,0.21980,-2.78089,0.99025,1.57080,0.00001,-0.14512,-0.38002,0.04304,,,,,,,,,,,,,,,,,,,,,,,,,,0,0,0,0,0
4.9840,1783012937.9505,1,1,1.0000,0.0000,1.44681,0.21980,-2.78089,0.99025,1.57080,0.00001,-0.14512,-0.38002,0.04304,,,,,,,,,,,,,,,,,,,,,,,,,,0,0,0,0,0
4.9907,1783012937.9572,1,1,1.0000,0.0000,1.44681,0.21979,-2.78089,0.99028,1.57080,0.00001,-0.14512,-0.38002,0.04303,,,,,,,,,,,,,,,,,,,,,,,,,,0,0,0,0,0
4.9909,1783012937.9575,1,1,1.0000,0.0000,1.44681,0.21979,-2.78089,0.99028,1.57080,0.00001,-0.14512,-0.38002,0.04303,,,,,,,,,,,,,,,,,,,,,,,,,,0,0,0,0,0
5.0056,1783012937.9721,1,1,1.0000,0.0000,1.44681,0.21972,-2.78091,0.99036,1.57080,0.00001,-0.14512,-0.38002,0.04301,,,,,,,,,,,,,,,,,,,,,,,,,,0,0,0,0,0
5.0169,1783012937.9835,1,1,1.0000,0.0000,1.44681,0.21967,-2.78092,0.99042,1.57080,0.00001,-0.14512,-0.38002,0.04300,,,,,,,,,,,,,,,,,,,,,,,,,,0,0,0,0,0
5.0231,1783012937.9896,1,1,1.0000,0.0000,1.44681,0.21965,-2.78093,0.99044,1.57080,0.00001,-0.14512,-0.38002,0.04300,,,,,,,,,,,,,,,,,,,,,,,,,,0,0,0,0,0
5.0233,1783012937.9899,1,1,1.0000,0.0000,1.44681,0.21965,-2.78093,0.99044,1.57080,0.00001,-0.14512,-0.38002,0.04300,,,,,,,,,,,,,,,,,,,,,,,,,,0,0,0,0,0
5.0321,1783012937.9987,1,1,1.0000,0.0000,1.44681,0.21962,-2.78094,0.99048,1.57080,0.00001,-0.14512,-0.38002,0.04299,,,,,,,,,,,,,,,,,,,,,,,,,,0,0,0,0,0
5.0324,1783012937.9989,1,1,1.0000,0.0000,1.44681,0.21962,-2.78094,0.99048,1.57080,0.00001,-0.14512,-0.38002,0.04299,,,,,,,,,,,,,,,,,,,,,,,,,,0,0,0,0,0
5.0415,1783012938.0080,1,1,1.0000,0.0000,1.44681,0.21958,-2.78095,0.99053,1.57080,0.00001,-0.14512,-0.38002,0.04298,,,,,,,,,,,,,,,,,,,,,,,,,,0,0,0,0,0
5.0542,1783012938.0208,1,1,1.0000,0.0000,1.44681,0.21956,-2.78095,0.99056,1.57080,0.00001,-0.14512,-0.38002,0.04297,,,,,,,,,,,,,,,,,,,,,,,,,,0,0,0,0,0
5.0645,1783012938.0311,1,1,1.0000,0.0000,1.44681,0.21949,-2.78097,0.99064,1.57080,0.00001,-0.14512,-0.38002,0.04296,,,,,,,,,,,,,,,,,,,,,,,,,,0,0,0,0,0
5.0648,1783012938.0313,1,1,1.0000,0.0000,1.44681,0.21949,-2.78097,0.99064,1.57080,0.00001,-0.14512,-0.38002,0.04296,,,,,,,,,,,,,,,,,,,,,,,,,,0,0,0,0,0
5.0725,1783012938.0390,1,1,1.0000,0.0000,1.44681,0.21947,-2.78097,0.99068,1.57080,0.00001,-0.14512,-0.38002,0.04295,,,,,,,,,,,,,,,,,,,,,,,,,,0,0,0,0,0
5.0727,1783012938.0393,1,1,1.0000,0.0000,1.44681,0.21947,-2.78097,0.99068,1.57080,0.00001,-0.14512,-0.38002,0.04295,,,,,,,,,,,,,,,,,,,,,,,,,,0,0,0,0,0
5.1012,1783012938.0678,1,1,1.0000,0.0000,1.44681,0.21933,-2.78101,0.99085,1.57080,0.00001,-0.14512,-0.38002,0.04291,,,,,,,,,,,,,,,,,,,,,,,,,,0,0,0,0,0
5.1016,1783012938.0682,1,1,1.0000,0.0000,1.44681,0.21933,-2.78101,0.99085,1.57080,0.00001,-0.14512,-0.38002,0.04291,,,,,,,,,,,,,,,,,,,,,,,,,,0,0,0,0,0
5.1076,1783012938.0742,1,1,1.0000,0.0000,1.44681,0.21933,-2.78101,0.99085,1.57080,0.00001,-0.14512,-0.38002,0.04291,,,,,,,,,,,,,,,,,,,,,,,,,,0,0,0,0,0
5.1122,1783012938.0787,1,1,1.0000,0.0000,1.44681,0.21931,-2.78101,0.99087,1.57080,0.00001,-0.14512,-0.38002,0.04291,,,,,,,,,,,,,,,,,,,,,,,,,,0,0,0,0,0
5.1211,1783012938.0877,1,1,1.0000,0.0000,1.44681,0.21927,-2.78102,0.99092,1.57080,0.00001,-0.14512,-0.38002,0.04290,,,,,,,,,,,,,,,,,,,,,,,,,,0,0,0,0,0
5.1348,1783012938.1013,1,1,1.0000,0.0000,1.44681,0.21921,-2.78104,0.99099,1.57080,0.00001,-0.14512,-0.38002,0.04288,,,,,,,,,,,,,,,,,,,,,,,,,,0,0,0,0,0
5.1406,1783012938.1072,1,1,1.0000,0.0000,1.44681,0.21920,-2.78104,0.99100,1.57080,0.00001,-0.14512,-0.38002,0.04288,,,,,,,,,,,,,,,,,,,,,,,,,,0,0,0,0,0
5.1539,1783012938.1205,1,1,1.0000,0.0000,1.44681,0.21913,-2.78106,0.99109,1.57080,0.00001,-0.14512,-0.38002,0.04286,,,,,,,,,,,,,,,,,,,,,,,,,,0,0,0,0,0
5.1628,1783012938.1294,1,1,1.0000,0.0000,1.44681,0.21908,-2.78107,0.99115,1.57080,0.00001,-0.14512,-0.38002,0.04285,,,,,,,,,,,,,,,,,,,,,,,,,,0,0,0,0,0
5.1632,1783012938.1298,1,1,1.0000,0.0000,1.44681,0.21908,-2.78107,0.99115,1.57080,0.00001,-0.14512,-0.38002,0.04285,,,,,,,,,,,,,,,,,,,,,,,,,,0,0,0,0,0
5.1768,1783012938.1434,1,1,1.0000,0.0000,1.44681,0.21905,-2.78108,0.99120,1.57080,0.00001,-0.14512,-0.38002,0.04284,,,,,,,,,,,,,,,,,,,,,,,,,,0,0,0,0,0
5.1831,1783012938.1497,1,1,1.0000,0.0000,1.44681,0.21900,-2.78109,0.99126,1.57080,0.00001,-0.14512,-0.38002,0.04283,,,,,,,,,,,,,,,,,,,,,,,,,,0,0,0,0,0
5.2119,1783012938.1785,1,1,1.0000,0.0000,1.44681,0.21890,-2.78111,0.99138,1.57080,0.00001,-0.14512,-0.38002,0.04280,,,,,,,,,,,,,,,,,,,,,,,,,,0,0,0,0,0
5.2122,1783012938.1788,1,1,1.0000,0.0000,1.44681,0.21890,-2.78111,0.99138,1.57080,0.00001,-0.14512,-0.38002,0.04280,,,,,,,,,,,,,,,,,,,,,,,,,,0,0,0,0,0
5.2148,1783012938.1814,1,1,1.0000,0.0000,1.44681,0.21888,-2.78112,0.99141,1.57080,0.00001,-0.14512,-0.38002,0.04280,,,,,,,,,,,,,,,,,,,,,,,,,,0,0,0,0,0
5.2354,1783012938.2020,1,1,1.0000,0.0000,1.44681,0.21882,-2.78113,0.99148,1.57080,0.00001,-0.14512,-0.38002,0.04278,,,,,,,,,,,,,,,,,,,,,,,,,,0,0,0,0,0
5.2420,1783012938.2086,1,1,1.0000,0.0000,1.44681,0.21880,-2.78114,0.99151,1.57080,0.00001,-0.14512,-0.38002,0.04278,,,,,,,,,,,,,,,,,,,,,,,,,,0,0,0,0,0
5.2622,1783012938.2288,1,1,1.0000,0.0000,1.44681,0.21871,-2.78116,0.99161,1.57080,0.00001,-0.14512,-0.38002,0.04276,,,,,,,,,,,,,,,,,,,,,,,,,,0,0,0,0,0
5.2654,1783012938.2320,1,1,1.0000,0.0000,1.44681,0.21871,-2.78116,0.99162,1.57080,0.00001,-0.14512,-0.38002,0.04275,,,,,,,,,,,,,,,,,,,,,,,,,,0,0,0,0,0
5.2702,1783012938.2368,1,1,1.0000,0.0000,1.44681,0.21869,-2.78117,0.99164,1.57080,0.00001,-0.14512,-0.38002,0.04275,,,,,,,,,,,,,,,,,,,,,,,,,,0,0,0,0,0
5.2813,1783012938.2478,1,1,1.0000,0.0000,1.44681,0.21863,-2.78118,0.99172,1.57080,0.00001,-0.14512,-0.38002,0.04274,,,,,,,,,,,,,,,,,,,,,,,,,,0,0,0,0,0
5.2908,1783012938.2574,1,1,1.0000,0.0000,1.44681,0.21861,-2.78119,0.99174,1.57080,0.00001,-0.14512,-0.38002,0.04273,,,,,,,,,,,,,,,,,,,,,,,,,,0,0,0,0,0
5.2911,1783012938.2576,1,1,1.0000,0.0000,1.44681,0.21861,-2.78119,0.99174,1.57080,0.00001,-0.14512,-0.38002,0.04273,,,,,,,,,,,,,,,,,,,,,,,,,,0,0,0,0,0
5.3018,1783012938.2684,1,1,1.0000,0.0000,1.44681,0.21857,-2.78120,0.99179,1.57080,0.00001,-0.14512,-0.38002,0.04272,,,,,,,,,,,,,,,,,,,,,,,,,,0,0,0,0,0
5.3023,1783012938.2688,1,1,1.0000,0.0000,1.44681,0.21857,-2.78120,0.99179,1.57080,0.00001,-0.14512,-0.38002,0.04272,,,,,,,,,,,,,,,,,,,,,,,,,,0,0,0,0,0
5.3174,1783012938.2840,1,1,1.0000,0.0000,1.44681,0.21849,-2.78122,0.99189,1.57080,0.00001,-0.14512,-0.38002,0.04270,,,,,,,,,,,,,,,,,,,,,,,,,,0,0,0,0,0
5.3177,1783012938.2843,1,1,1.0000,0.0000,1.44681,0.21849,-2.78122,0.99189,1.57080,0.00001,-0.14512,-0.38002,0.04270,,,,,,,,,,,,,,,,,,,,,,,,,,0,0,0,0,0
5.3222,1783012938.2888,1,1,1.0000,0.0000,1.44681,0.21849,-2.78122,0.99190,1.57080,0.00001,-0.14512,-0.38002,0.04270,,,,,,,,,,,,,,,,,,,,,,,,,,0,0,0,0,0
5.3228,1783012938.2894,1,1,1.0000,0.0000,1.44681,0.21848,-2.78122,0.99191,1.57080,0.00001,-0.14512,-0.38002,0.04270,,,,,,,,,,,,,,,,,,,,,,,,,,0,0,0,0,0
5.3321,1783012938.2987,1,1,1.0000,0.0000,1.44681,0.21845,-2.78123,0.99195,1.57080,0.00001,-0.14512,-0.38002,0.04269,,,,,,,,,,,,,,,,,,,,,,,,,,0,0,0,0,0
5.3729,1783012938.3395,1,1,1.0000,0.0000,1.44681,0.21826,-2.78127,0.99218,1.57080,0.00001,-0.14512,-0.38002,0.04264,,,,,,,,,,,,,,,,,,,,,,,,,,0,0,0,0,0
5.3734,1783012938.3400,1,1,1.0000,0.0000,1.44681,0.21826,-2.78127,0.99218,1.57080,0.00001,-0.14512,-0.38002,0.04264,,,,,,,,,,,,,,,,,,,,,,,,,,0,0,0,0,0
5.3739,1783012938.3405,1,1,1.0000,0.0000,1.44681,0.21826,-2.78127,0.99218,1.57080,0.00001,-0.14512,-0.38002,0.04264,,,,,,,,,,,,,,,,,,,,,,,,,,0,0,0,0,0
5.3780,1783012938.3446,1,1,1.0000,0.0000,1.44681,0.21826,-2.78127,0.99218,1.57080,0.00001,-0.14512,-0.38002,0.04264,,,,,,,,,,,,,,,,,,,,,,,,,,0,0,0,0,0
5.3815,1783012938.3481,1,1,1.0000,0.0000,1.44681,0.21826,-2.78127,0.99218,1.57080,0.00001,-0.14512,-0.38002,0.04264,,,,,,,,,,,,,,,,,,,,,,,,,,0,0,0,0,0
5.3818,1783012938.3484,1,1,1.0000,0.0000,1.44681,0.21826,-2.78127,0.99218,1.57080,0.00001,-0.14512,-0.38002,0.04264,,,,,,,,,,,,,,,,,,,,,,,,,,0,0,0,0,0
5.3958,1783012938.3624,1,1,1.0000,0.0000,1.44681,0.21820,-2.78129,0.99226,1.57080,0.00001,-0.14512,-0.38002,0.04262,,,,,,,,,,,,,,,,,,,,,,,,,,0,0,0,0,0
5.3961,1783012938.3627,1,1,1.0000,0.0000,1.44681,0.21820,-2.78129,0.99226,1.57080,0.00001,-0.14512,-0.38002,0.04262,,,,,,,,,,,,,,,,,,,,,,,,,,0,0,0,0,0
5.4034,1783012938.3700,1,1,1.0000,0.0000,1.44681,0.21818,-2.78129,0.99228,1.57080,0.00001,-0.14512,-0.38002,0.04262,,,,,,,,,,,,,,,,,,,,,,,,,,0,0,0,0,0
5.4238,1783012938.3904,1,1,1.0000,0.0000,1.44681,0.21809,-2.78132,0.99239,1.57080,0.00001,-0.14512,-0.38002,0.04260,,,,,,,,,,,,,,,,,,,,,,,,,,0,0,0,0,0
5.4241,1783012938.3907,1,1,1.0000,0.0000,1.44681,0.21809,-2.78132,0.99239,1.57080,0.00001,-0.14512,-0.38002,0.04260,,,,,,,,,,,,,,,,,,,,,,,,,,0,0,0,0,0
5.4407,1783012938.4073,1,1,1.0000,0.0000,1.44681,0.21803,-2.78133,0.99246,1.57080,0.00001,-0.14512,-0.38002,0.04258,,,,,,,,,,,,,,,,,,,,,,,,,,0,0,0,0,0
5.4433,1783012938.4098,1,1,1.0000,0.0000,1.44681,0.21802,-2.78133,0.99247,1.57080,0.00001,-0.14512,-0.38002,0.04258,,,,,,,,,,,,,,,,,,,,,,,,,,0,0,0,0,0
5.4435,1783012938.4101,1,1,1.0000,0.0000,1.44681,0.21802,-2.78133,0.99247,1.57080,0.00001,-0.14512,-0.38002,0.04258,,,,,,,,,,,,,,,,,,,,,,,,,,0,0,0,0,0
5.4542,1783012938.4207,1,1,1.0000,0.0000,1.44681,0.21799,-2.78134,0.99251,1.57080,0.00001,-0.14512,-0.38002,0.04257,,,,,,,,,,,,,,,,,,,,,,,,,,0,0,0,0,0
5.4612,1783012938.4278,1,1,1.0000,0.0000,1.44681,0.21795,-2.78135,0.99257,1.57080,0.00001,-0.14512,-0.38002,0.04256,,,,,,,,,,,,,,,,,,,,,,,,,,0,0,0,0,0
5.4763,1783012938.4429,1,1,1.0000,0.0000,1.44681,0.21791,-2.78136,0.99261,1.57080,0.00001,-0.14512,-0.38002,0.04255,,,,,,,,,,,,,,,,,,,,,,,,,,0,0,0,0,0
5.4813,1783012938.4479,1,1,1.0000,0.0000,1.44681,0.21789,-2.78136,0.99264,1.57080,0.00001,-0.14512,-0.38002,0.04255,,,,,,,,,,,,,,,,,,,,,,,,,,0,0,0,0,0
5.4909,1783012938.4574,1,1,1.0000,0.0000,1.44681,0.21781,-2.78138,0.99274,1.57080,0.00001,-0.14512,-0.38002,0.04252,,,,,,,,,,,,,,,,,,,,,,,,,,0,0,0,0,0
5.4911,1783012938.4577,1,1,1.0000,0.0000,1.44681,0.21781,-2.78138,0.99274,1.57080,0.00001,-0.14512,-0.38002,0.04252,,,,,,,,,,,,,,,,,,,,,,,,,,0,0,0,0,0
5.5191,1783012938.4857,1,1,1.0000,0.0000,1.44681,0.21770,-2.78141,0.99288,1.57080,0.00001,-0.14512,-0.38002,0.04250,,,,,,,,,,,,,,,,,,,,,,,,,,0,0,0,0,0
5.5194,1783012938.4860,1,1,1.0000,0.0000,1.44681,0.21770,-2.78141,0.99288,1.57080,0.00001,-0.14512,-0.38002,0.04250,,,,,,,,,,,,,,,,,,,,,,,,,,0,0,0,0,0
5.5197,1783012938.4863,1,1,1.0000,0.0000,1.44681,0.21770,-2.78141,0.99288,1.57080,0.00001,-0.14512,-0.38002,0.04250,,,,,,,,,,,,,,,,,,,,,,,,,,0,0,0,0,0
5.5218,1783012938.4884,1,1,1.0000,0.0000,1.44681,0.21770,-2.78141,0.99288,1.57080,0.00001,-0.14512,-0.38002,0.04250,,,,,,,,,,,,,,,,,,,,,,,,,,0,0,0,0,0
5.5222,1783012938.4887,1,1,1.0000,0.0000,1.44681,0.21770,-2.78141,0.99288,1.57080,0.00001,-0.14512,-0.38002,0.04250,,,,,,,,,,,,,,,,,,,,,,,,,,0,0,0,0,0
5.5307,1783012938.4972,1,1,1.0000,0.0000,1.44681,0.21768,-2.78142,0.99290,1.57080,0.00001,-0.14512,-0.38002,0.04249,,,,,,,,,,,,,,,,,,,,,,,,,,0,0,0,0,0
5.5406,1783012938.5071,1,1,1.0000,0.0000,1.44681,0.21764,-2.78143,0.99295,1.57080,0.00001,-0.14512,-0.38002,0.04248,,,,,,,,,,,,,,,,,,,,,,,,,,0,0,0,0,0
5.5410,1783012938.5075,1,1,1.0000,0.0000,1.44681,0.21764,-2.78143,0.99295,1.57080,0.00001,-0.14512,-0.38002,0.04248,,,,,,,,,,,,,,,,,,,,,,,,,,0,0,0,0,0
