Martins-Lucaas/twinforge/sensors/Data/20260702_140914__samples.csv
t_rel_s,t_unix,cycle,phase,setpoint_n,force_net_n,q1,q2,q3,q4,q5,q6,tcp_x,tcp_y,tcp_z,taxel_0,taxel_1,taxel_2,taxel_3,taxel_4,taxel_5,taxel_6,taxel_7,taxel_8,taxel_9,taxel_10,taxel_11,taxel_12,taxel_13,taxel_14,taxel_15,taxel_16,taxel_17,taxel_18,taxel_19,taxel_20,taxel_21,taxel_22,taxel_23,taxel_24,n_RA,n_SA,cn_mm,cn_ra,cn_sa
0.0127,1783012154.1713,1,0,1.0000,0.0000,1.44682,0.23328,-2.77748,0.97337,1.57080,0.00000,-0.14512,-0.38003,0.04653,,,,,,,,,,,,,,,,,,,,,,,,,,0,0,0,0,0
0.0131,1783012154.1718,1,0,1.0000,0.0000,1.44682,0.23328,-2.77748,0.97337,1.57080,0.00000,-0.14512,-0.38003,0.04653,,,,,,,,,,,,,,,,,,,,,,,,,,0,0,0,0,0
0.0231,1783012154.1817,1,0,1.0000,0.0000,1.44682,0.23328,-2.77748,0.97337,1.57080,0.00000,-0.14512,-0.38003,0.04653,,,,,,,,,,,,,,,,,,,,,,,,,,0,0,0,0,0
0.0234,1783012154.1820,1,0,1.0000,0.0000,1.44682,0.23328,-2.77748,0.97337,1.57080,0.00000,-0.14512,-0.38003,0.04653,,,,,,,,,,,,,,,,,,,,,,,,,,0,0,0,0,0
0.0377,1783012154.1963,1,0,1.0000,0.0000,1.44682,0.23328,-2.77748,0.97337,1.57080,0.00000,-0.14512,-0.38003,0.04653,,,,,,,,,,,,,,,,,,,,,,,,,,0,0,0,0,0
0.0407,1783012154.1993,1,0,1.0000,0.0000,1.44682,0.23328,-2.77748,0.97337,1.57080,0.00000,-0.14512,-0.38003,0.04653,,,,,,,,,,,,,,,,,,,,,,,,,,0,0,0,0,0
0.0411,1783012154.1997,1,0,1.0000,0.0000,1.44682,0.23328,-2.77748,0.97337,1.57080,0.00000,-0.14512,-0.38003,0.04653,,,,,,,,,,,,,,,,,,,,,,,,,,0,0,0,0,0
0.0572,1783012154.2158,1,0,1.0000,0.0000,1.44682,0.23328,-2.77748,0.97337,1.57080,0.00000,-0.14512,-0.38003,0.04653,,,,,,,,,,,,,,,,,,,,,,,,,,0,0,0,0,0
0.0668,1783012154.2254,1,0,1.0000,0.0000,1.44682,0.23328,-2.77748,0.97337,1.57080,0.00000,-0.14512,-0.38003,0.04653,,,,,,,,,,,,,,,,,,,,,,,,,,0,0,0,0,0
0.0749,1783012154.2336,1,0,1.0000,0.0000,1.44682,0.23328,-2.77748,0.97337,1.57080,0.00000,-0.14512,-0.38003,0.04653,,,,,,,,,,,,,,,,,,,,,,,,,,0,0,0,0,0
0.0842,1783012154.2428,1,0,1.0000,0.0000,1.44682,0.23328,-2.77748,0.97337,1.57080,0.00000,-0.14512,-0.38003,0.04653,,,,,,,,,,,,,,,,,,,,,,,,,,0,0,0,0,0
0.0845,1783012154.2432,1,0,1.0000,0.0000,1.44682,0.23328,-2.77748,0.97337,1.57080,0.00000,-0.14512,-0.38003,0.04653,,,,,,,,,,,,,,,,,,,,,,,,,,0,0,0,0,0
0.0933,1783012154.2520,1,0,1.0000,0.0000,1.44682,0.23328,-2.77748,0.97337,1.57080,-0.00000,-0.14512,-0.38003,0.04653,,,,,,,,,,,,,,,,,,,,,,,,,,0,0,0,0,0
0.0936,1783012154.2523,1,0,1.0000,0.0000,1.44682,0.23328,-2.77748,0.97337,1.57080,-0.00000,-0.14512,-0.38003,0.04653,,,,,,,,,,,,,,,,,,,,,,,,,,0,0,0,0,0
0.1021,1783012154.2607,1,0,1.0000,0.0000,1.44682,0.23328,-2.77748,0.97337,1.57080,0.00000,-0.14512,-0.38003,0.04653,,,,,,,,,,,,,,,,,,,,,,,,,,0,0,0,0,0
0.1142,1783012154.2729,1,0,1.0000,0.0000,1.44682,0.23328,-2.77748,0.97337,1.57080,0.00000,-0.14512,-0.38003,0.04653,,,,,,,,,,,,,,,,,,,,,,,,,,0,0,0,0,0
0.1148,1783012154.2734,1,0,1.0000,0.0000,1.44682,0.23328,-2.77748,0.97337,1.57080,0.00000,-0.14512,-0.38003,0.04653,,,,,,,,,,,,,,,,,,,,,,,,,,0,0,0,0,0
0.1201,1783012154.2788,1,0,1.0000,0.0000,1.44682,0.23328,-2.77748,0.97337,1.57080,0.00000,-0.14512,-0.38003,0.04653,,,,,,,,,,,,,,,,,,,,,,,,,,0,0,0,0,0
0.1314,1783012154.2900,1,0,1.0000,0.0000,1.44682,0.23328,-2.77748,0.97337,1.57080,0.00000,-0.14512,-0.38003,0.04653,,,,,,,,,,,,,,,,,,,,,,,,,,0,0,0,0,0
0.1411,1783012154.2997,1,0,1.0000,0.0000,1.44682,0.23328,-2.77748,0.97337,1.57080,0.00000,-0.14512,-0.38003,0.04653,,,,,,,,,,,,,,,,,,,,,,,,,,0,0,0,0,0
0.1414,1783012154.3000,1,0,1.0000,0.0000,1.44682,0.23328,-2.77748,0.97337,1.57080,0.00000,-0.14512,-0.38003,0.04653,,,,,,,,,,,,,,,,,,,,,,,,,,0,0,0,0,0
0.1515,1783012154.3102,1,0,1.0000,0.0000,1.44682,0.23328,-2.77748,0.97337,1.57080,0.00000,-0.14512,-0.38003,0.04653,,,,,,,,,,,,,,,,,,,,,,,,,,0,0,0,0,0
0.1641,1783012154.3227,1,0,1.0000,0.0000,1.44682,0.23328,-2.77748,0.97337,1.57080,0.00000,-0.14512,-0.38003,0.04653,,,,,,,,,,,,,,,,,,,,,,,,,,0,0,0,0,0
0.1645,1783012154.3231,1,0,1.0000,0.0000,1.44682,0.23328,-2.77748,0.97337,1.57080,0.00000,-0.14512,-0.38003,0.04653,,,,,,,,,,,,,,,,,,,,,,,,,,0,0,0,0,0
0.1759,1783012154.3345,1,0,1.0000,0.0000,1.44682,0.23328,-2.77748,0.97337,1.57080,0.00000,-0.14512,-0.38003,0.04653,,,,,,,,,,,,,,,,,,,,,,,,,,0,0,0,0,0
0.1855,1783012154.3442,1,0,1.0000,0.0000,1.44682,0.23328,-2.77748,0.97337,1.57080,0.00000,-0.14512,-0.38003,0.04653,,,,,,,,,,,,,,,,,,,,,,,,,,0,0,0,0,0
0.1908,1783012154.3495,1,0,1.0000,0.0000,1.44682,0.23328,-2.77748,0.97337,1.57080,0.00000,-0.14512,-0.38003,0.04653,,,,,,,,,,,,,,,,,,,,,,,,,,0,0,0,0,0
0.2005,1783012154.3591,1,0,1.0000,0.0000,1.44682,0.23328,-2.77748,0.97337,1.57080,0.00000,-0.14512,-0.38003,0.04653,,,,,,,,,,,,,,,,,,,,,,,,,,0,0,0,0,0
0.2113,1783012154.3700,1,0,1.0000,0.0000,1.44682,0.23328,-2.77748,0.97337,1.57080,0.00000,-0.14512,-0.38003,0.04653,,,,,,,,,,,,,,,,,,,,,,,,,,0,0,0,0,0
0.2230,1783012154.3816,1,0,1.0000,0.0000,1.44682,0.23328,-2.77748,0.97337,1.57080,0.00000,-0.14512,-0.38003,0.04653,,,,,,,,,,,,,,,,,,,,,,,,,,0,0,0,0,0
0.2232,1783012154.3818,1,0,1.0000,0.0000,1.44682,0.23328,-2.77748,0.97337,1.57080,0.00000,-0.14512,-0.38003,0.04653,,,,,,,,,,,,,,,,,,,,,,,,,,0,0,0,0,0
0.2308,1783012154.3894,1,0,1.0000,0.0000,1.44682,0.23328,-2.77748,0.97337,1.57080,0.00000,-0.14512,-0.38003,0.04653,,,,,,,,,,,,,,,,,,,,,,,,,,0,0,0,0,0
0.2409,1783012154.3996,1,0,1.0000,0.0000,1.44682,0.23328,-2.77748,0.97337,1.57080,0.00000,-0.14512,-0.38003,0.04653,,,,,,,,,,,,,,,,,,,,,,,,,,0,0,0,0,0
0.2518,1783012154.4105,1,0,1.0000,0.0000,1.44682,0.23328,-2.77748,0.97337,1.57080,0.00000,-0.14512,-0.38003,0.04653,,,,,,,,,,,,,,,,,,,,,,,,,,0,0,0,0,0
0.2613,1783012154.4200,1,0,1.0000,0.0000,1.44682,0.23328,-2.77748,0.97337,1.57080,0.00000,-0.14512,-0.38003,0.04653,,,,,,,,,,,,,,,,,,,,,,,,,,0,0,0,0,0
0.2706,1783012154.4292,1,0,1.0000,0.0000,1.44682,0.23328,-2.77748,0.97337,1.57080,0.00000,-0.14512,-0.38003,0.04653,,,,,,,,,,,,,,,,,,,,,,,,,,0,0,0,0,0
0.2800,1783012154.4386,1,0,1.0000,0.0000,1.44682,0.23328,-2.77748,0.97337,1.57080,0.00000,-0.14512,-0.38003,0.04653,,,,,,,,,,,,,,,,,,,,,,,,,,0,0,0,0,0
0.2899,1783012154.4486,1,0,1.0000,0.0000,1.44682,0.23328,-2.77748,0.97337,1.57080,0.00000,-0.14512,-0.38003,0.04653,,,,,,,,,,,,,,,,,,,,,,,,,,0,0,0,0,0
0.3005,1783012154.4591,1,0,1.0000,0.0000,1.44682,0.23328,-2.77748,0.97337,1.57080,0.00000,-0.14512,-0.38003,0.04653,,,,,,,,,,,,,,,,,,,,,,,,,,0,0,0,0,0
0.3131,1783012154.4718,1,0,1.0000,0.0000,1.44682,0.23328,-2.77748,0.97337,1.57080,0.00000,-0.14512,-0.38003,0.04653,,,,,,,,,,,,,,,,,,,,,,,,,,0,0,0,0,0
0.3206,1783012154.4792,1,0,1.0000,0.0000,1.44682,0.23328,-2.77748,0.97337,1.57080,0.00000,-0.14512,-0.38003,0.04653,,,,,,,,,,,,,,,,,,,,,,,,,,0,0,0,0,0
0.3300,1783012154.4886,1,0,1.0000,0.0000,1.44682,0.23328,-2.77748,0.97337,1.57080,0.00000,-0.14512,-0.38003,0.04653,,,,,,,,,,,,,,,,,,,,,,,,,,0,0,0,0,0
0.3440,1783012154.5026,1,0,1.0000,0.0000,1.44682,0.23328,-2.77748,0.97337,1.57080,0.00000,-0.14512,-0.38003,0.04653,,,,,,,,,,,,,,,,,,,,,,,,,,0,0,0,0,0
0.3510,1783012154.5096,1,0,1.0000,0.0000,1.44682,0.23328,-2.77748,0.97337,1.57080,0.00000,-0.14512,-0.38003,0.04653,,,,,,,,,,,,,,,,,,,,,,,,,,0,0,0,0,0
0.3720,1783012154.5306,1,0,1.0000,0.0000,1.44682,0.23328,-2.77748,0.97337,1.57080,0.00000,-0.14512,-0.38003,0.04653,,,,,,,,,,,,,,,,,,,,,,,,,,0,0,0,0,0
0.3724,1783012154.5310,1,0,1.0000,0.0000,1.44682,0.23328,-2.77748,0.97337,1.57080,0.00000,-0.14512,-0.38003,0.04653,,,,,,,,,,,,,,,,,,,,,,,,,,0,0,0,0,0
0.3801,1783012154.5388,1,0,1.0000,0.0000,1.44682,0.23328,-2.77748,0.97337,1.57080,0.00000,-0.14512,-0.38003,0.04653,,,,,,,,,,,,,,,,,,,,,,,,,,0,0,0,0,0
0.3909,1783012154.5495,1,0,1.0000,0.0000,1.44682,0.23328,-2.77748,0.97337,1.57080,0.00000,-0.14512,-0.38003,0.04653,,,,,,,,,,,,,,,,,,,,,,,,,,0,0,0,0,0
0.3913,1783012154.5500,1,0,1.0000,0.0000,1.44682,0.23328,-2.77748,0.97337,1.57080,0.00000,-0.14512,-0.38003,0.04653,,,,,,,,,,,,,,,,,,,,,,,,,,0,0,0,0,0
0.4008,1783012154.5594,1,0,1.0000,0.0000,1.44682,0.23328,-2.77748,0.97337,1.57080,0.00000,-0.14512,-0.38003,0.04653,,,,,,,,,,,,,,,,,,,,,,,,,,0,0,0,0,0
0.4011,1783012154.5598,1,0,1.0000,0.0000,1.44682,0.23328,-2.77748,0.97337,1.57080,0.00000,-0.14512,-0.38003,0.04653,,,,,,,,,,,,,,,,,,,,,,,,,,0,0,0,0,0
0.4100,1783012154.5686,1,0,1.0000,0.0000,1.44682,0.23328,-2.77748,0.97337,1.57080,0.00000,-0.14512,-0.38003,0.04653,,,,,,,,,,,,,,,,,,,,,,,,,,0,0,0,0,0
0.4240,1783012154.5826,1,0,1.0000,0.0000,1.44682,0.23328,-2.77748,0.97337,1.57080,0.00000,-0.14512,-0.38003,0.04653,,,,,,,,,,,,,,,,,,,,,,,,,,0,0,0,0,0
0.4298,1783012154.5884,1,0,1.0000,0.0000,1.44682,0.23328,-2.77748,0.97337,1.57080,0.00000,-0.14512,-0.38003,0.04653,,,,,,,,,,,,,,,,,,,,,,,,,,0,0,0,0,0
0.4301,1783012154.5887,1,0,1.0000,0.0000,1.44682,0.23328,-2.77748,0.97337,1.57080,0.00000,-0.14512,-0.38003,0.04653,,,,,,,,,,,,,,,,,,,,,,,,,,0,0,0,0,0
0.4527,1783012154.6113,1,0,1.0000,0.0000,1.44682,0.23328,-2.77748,0.97337,1.57080,0.00000,-0.14512,-0.38003,0.04653,,,,,,,,,,,,,,,,,,,,,,,,,,0,0,0,0,0
0.4534,1783012154.6121,1,0,1.0000,0.0000,1.44682,0.23328,-2.77748,0.97337,1.57080,0.00000,-0.14512,-0.38003,0.04653,,,,,,,,,,,,,,,,,,,,,,,,,,0,0,0,0,0
0.4537,1783012154.6124,1,0,1.0000,0.0000,1.44682,0.23328,-2.77748,0.97337,1.57080,0.00000,-0.14512,-0.38003,0.04653,,,,,,,,,,,,,,,,,,,,,,,,,,0,0,0,0,0
0.4611,1783012154.6198,1,0,1.0000,0.0000,1.44682,0.23328,-2.77748,0.97337,1.57080,0.00000,-0.14512,-0.38003,0.04653,,,,,,,,,,,,,,,,,,,,,,,,,,0,0,0,0,0
0.4707,1783012154.6294,1,0,1.0000,0.0000,1.44682,0.23328,-2.77748,0.97337,1.57080,0.00000,-0.14512,-0.38003,0.04653,,,,,,,,,,,,,,,,,,,,,,,,,,0,0,0,0,0
0.4799,1783012154.6386,1,0,1.0000,0.0000,1.44682,0.23328,-2.77748,0.97337,1.57080,0.00000,-0.14512,-0.38003,0.04653,,,,,,,,,,,,,,,,,,,,,,,,,,0,0,0,0,0
0.4914,1783012154.6500,1,0,1.0000,0.0000,1.44682,0.23328,-2.77748,0.97337,1.57080,0.00000,-0.14512,-0.38003,0.04653,,,,,,,,,,,,,,,,,,,,,,,,,,0,0,0,0,0
0.5034,1783012154.6620,1,0,1.0000,0.0000,1.44682,0.23328,-2.77748,0.97337,1.57080,0.00000,-0.14512,-0.38003,0.04653,,,,,,,,,,,,,,,,,,,,,,,,,,0,0,0,0,0
0.5127,1783012154.6713,1,0,1.0000,0.0000,1.44682,0.23328,-2.77748,0.97337,1.57080,0.00000,-0.14512,-0.38003,0.04653,,,,,,,,,,,,,,,,,,,,,,,,,,0,0,0,0,0
0.5205,1783012154.6791,1,0,1.0000,0.0000,1.44682,0.23328,-2.77748,0.97337,1.57080,0.00000,-0.14512,-0.38003,0.04653,,,,,,,,,,,,,,,,,,,,,,,,,,0,0,0,0,0
0.5301,1783012154.6887,1,0,1.0000,0.0000,1.44682,0.23328,-2.77748,0.97337,1.57080,0.00000,-0.14512,-0.38003,0.04653,,,,,,,,,,,,,,,,,,,,,,,,,,0,0,0,0,0
0.5306,1783012154.6893,1,0,1.0000,0.0000,1.44682,0.23328,-2.77748,0.97337,1.57080,0.00000,-0.14512,-0.38003,0.04653,,,,,,,,,,,,,,,,,,,,,,,,,,0,0,0,0,0
0.5478,1783012154.7064,1,0,1.0000,0.0000,1.44682,0.23328,-2.77748,0.97337,1.57080,-0.00000,-0.14512,-0.38003,0.04653,,,,,,,,,,,,,,,,,,,,,,,,,,0,0,0,0,0
0.5517,1783012154.7104,1,0,1.0000,0.0000,1.44682,0.23328,-2.77748,0.97337,1.57080,0.00000,-0.14512,-0.38003,0.04653,,,,,,,,,,,,,,,,,,,,,,,,,,0,0,0,0,0
0.5640,1783012154.7227,1,0,1.0000,0.0000,1.44682,0.23328,-2.77748,0.97337,1.57080,0.00000,-0.14512,-0.38003,0.04653,,,,,,,,,,,,,,,,,,,,,,,,,,0,0,0,0,0
0.5696,1783012154.7282,1,0,1.0000,0.0000,1.44682,0.23328,-2.77748,0.97337,1.57080,0.00000,-0.14512,-0.38003,0.04653,,,,,,,,,,,,,,,,,,,,,,,,,,0,0,0,0,0
0.5920,1783012154.7507,1,0,1.0000,0.0000,1.44682,0.23328,-2.77748,0.97337,1.57080,0.00000,-0.14512,-0.38003,0.04653,,,,,,,,,,,,,,,,,,,,,,,,,,0,0,0,0,0
0.5924,1783012154.7511,1,0,1.0000,0.0000,1.44682,0.23328,-2.77748,0.97337,1.57080,0.00000,-0.14512,-0.38003,0.04653,,,,,,,,,,,,,,,,,,,,,,,,,,0,0,0,0,0
0.6014,1783012154.7600,1,0,1.0000,0.0000,1.44682,0.23328,-2.77748,0.97337,1.57080,0.00000,-0.14512,-0.38003,0.04653,,,,,,,,,,,,,,,,,,,,,,,,,,0,0,0,0,0
0.6132,1783012154.7718,1,0,1.0000,0.0000,1.44682,0.23328,-2.77748,0.97337,1.57080,0.00000,-0.14512,-0.38003,0.04653,,,,,,,,,,,,,,,,,,,,,,,,,,0,0,0,0,0
0.6242,1783012154.7828,1,0,1.0000,0.0000,1.44682,0.23328,-2.77748,0.97337,1.57080,0.00000,-0.14512,-0.38003,0.04653,,,,,,,,,,,,,,,,,,,,,,,,,,0,0,0,0,0
0.6246,1783012154.7833,1,0,1.0000,0.0000,1.44682,0.23328,-2.77748,0.97337,1.57080,0.00000,-0.14512,-0.38003,0.04653,,,,,,,,,,,,,,,,,,,,,,,,,,0,0,0,0,0
0.6301,1783012154.7888,1,0,1.0000,0.0000,1.44682,0.23328,-2.77748,0.97337,1.57080,0.00000,-0.14512,-0.38003,0.04653,,,,,,,,,,,,,,,,,,,,,,,,,,0,0,0,0,0
0.6308,1783012154.7894,1,0,1.0000,0.0000,1.44682,0.23328,-2.77748,0.97337,1.57080,0.00000,-0.14512,-0.38003,0.04653,,,,,,,,,,,,,,,,,,,,,,,,,,0,0,0,0,0
0.6532,1783012154.8119,1,0,1.0000,0.0000,1.44682,0.23328,-2.77748,0.97337,1.57080,0.00000,-0.14512,-0.38003,0.04653,,,,,,,,,,,,,,,,,,,,,,,,,,0,0,0,0,0
0.6536,1783012154.8123,1,0,1.0000,0.0000,1.44682,0.23328,-2.77748,0.97337,1.57080,0.00000,-0.14512,-0.38003,0.04653,,,,,,,,,,,,,,,,,,,,,,,,,,0,0,0,0,0
0.6546,1783012154.8133,1,0,1.0000,0.0000,1.44682,0.23328,-2.77748,0.97337,1.57080,0.00000,-0.14512,-0.38003,0.04653,,,,,,,,,,,,,,,,,,,,,,,,,,0,0,0,0,0
0.6629,1783012154.8215,1,0,1.0000,0.0000,1.44682,0.23328,-2.77748,0.97337,1.57080,0.00000,-0.14512,-0.38003,0.04653,,,,,,,,,,,,,,,,,,,,,,,,,,0,0,0,0,0
0.6716,1783012154.8302,1,0,1.0000,0.0000,1.44682,0.23328,-2.77748,0.97337,1.57080,0.00000,-0.14512,-0.38003,0.04653,,,,,,,,,,,,,,,,,,,,,,,,,,0,0,0,0,0
0.6876,1783012154.8462,1,0,1.0000,0.0000,1.44682,0.23328,-2.77748,0.97337,1.57080,0.00000,-0.14512,-0.38003,0.04653,,,,,,,,,,,,,,,,,,,,,,,,,,0,0,0,0,0
0.6933,1783012154.8519,1,0,1.0000,0.0000,1.44682,0.23328,-2.77748,0.97337,1.57080,0.00000,-0.14512,-0.38003,0.04653,,,,,,,,,,,,,,,,,,,,,,,,,,0,0,0,0,0
0.7011,1783012154.8598,1,0,1.0000,0.0000,1.44682,0.23328,-2.77748,0.97337,1.57080,0.00000,-0.14512,-0.38003,0.04653,,,,,,,,,,,,,,,,,,,,,,,,,,0,0,0,0,0
0.7132,1783012154.8719,1,0,1.0000,0.0000,1.44682,0.23328,-2.77748,0.97337,1.57080,0.00000,-0.14512,-0.38003,0.04653,,,,,,,,,,,,,,,,,,,,,,,,,,0,0,0,0,0
0.7199,1783012154.8785,1,0,1.0000,0.0000,1.44682,0.23328,-2.77748,0.97337,1.57080,0.00000,-0.14512,-0.38003,0.04653,,,,,,,,,,,,,,,,,,,,,,,,,,0,0,0,0,0
0.7202,1783012154.8788,1,0,1.0000,0.0000,1.44682,0.23328,-2.77748,0.97337,1.57080,0.00000,-0.14512,-0.38003,0.04653,,,,,,,,,,,,,,,,,,,,,,,,,,0,0,0,0,0
0.7303,1783012154.8889,1,1,1.0000,0.0000,1.44682,0.23328,-2.77748,0.97337,1.57080,0.00000,-0.14512,-0.38003,0.04653,,,,,,,,,,,,,,,,,,,,,,,,,,0,0,0,0,0
0.7423,1783012154.9010,1,1,1.0000,0.0000,1.44682,0.23328,-2.77748,0.97337,1.57080,0.00000,-0.14512,-0.38003,0.04653,,,,,,,,,,,,,,,,,,,,,,,,,,0,0,0,0,0
0.7546,1783012154.9133,1,1,1.0000,0.0000,1.44682,0.23328,-2.77748,0.97337,1.57080,0.00000,-0.14512,-0.38003,0.04653,,,,,,,,,,,,,,,,,,,,,,,,,,0,0,0,0,0
0.7661,1783012154.9248,1,1,1.0000,0.0000,1.44682,0.23328,-2.77748,0.97337,1.57080,0.00000,-0.14512,-0.38003,0.04653,,,,,,,,,,,,,,,,,,,,,,,,,,0,0,0,0,0
0.7763,1783012154.9349,1,1,1.0000,0.0000,1.44682,0.23328,-2.77748,0.97337,1.57080,0.00000,-0.14512,-0.38003,0.04653,,,,,,,,,,,,,,,,,,,,,,,,,,0,0,0,0,0
0.7830,1783012154.9416,1,1,1.0000,0.0000,1.44682,0.23328,-2.77748,0.97337,1.57080,0.00000,-0.14512,-0.38003,0.04653,,,,,,,,,,,,,,,,,,,,,,,,,,0,0,0,0,0
0.7834,1783012154.9421,1,1,1.0000,0.0000,1.44682,0.23328,-2.77748,0.97337,1.57080,0.00000,-0.14512,-0.38003,0.04653,,,,,,,,,,,,,,,,,,,,,,,,,,0,0,0,0,0
0.7972,1783012154.9559,1,1,1.0000,0.0000,1.44682,0.23328,-2.77748,0.97337,1.57080,0.00000,-0.14512,-0.38003,0.04653,,,,,,,,,,,,,,,,,,,,,,,,,,0,0,0,0,0
0.8057,1783012154.9644,1,1,1.0000,0.0000,1.44682,0.23328,-2.77748,0.97337,1.57080,0.00000,-0.14512,-0.38003,0.04653,,,,,,,,,,,,,,,,,,,,,,,,,,0,0,0,0,0
0.8142,1783012154.9728,1,1,1.0000,0.0000,1.44682,0.23328,-2.77748,0.97337,1.57080,0.00000,-0.14512,-0.38003,0.04653,,,,,,,,,,,,,,,,,,,,,,,,,,0,0,0,0,0
0.8232,1783012154.9818,1,1,1.0000,0.0000,1.44682,0.23328,-2.77748,0.97337,1.57080,0.00000,-0.14512,-0.38003,0.04653,,,,,,,,,,,,,,,,,,,,,,,,,,0,0,0,0,0
0.8333,1783012154.9920,1,1,1.0000,0.0000,1.44682,0.23328,-2.77748,0.97337,1.57080,0.00000,-0.14512,-0.38003,0.04653,,,,,,,,,,,,,,,,,,,,,,,,,,0,0,0,0,0
0.8439,1783012155.0025,1,1,1.0000,0.0000,1.44682,0.23328,-2.77748,0.97337,1.57080,0.00000,-0.14512,-0.38003,0.04653,,,,,,,,,,,,,,,,,,,,,,,,,,0,0,0,0,0
0.8592,1783012155.0178,1,1,1.0000,0.0000,1.44682,0.23328,-2.77748,0.97337,1.57080,0.00000,-0.14512,-0.38003,0.04653,,,,,,,,,,,,,,,,,,,,,,,,,,0,0,0,0,0
0.8595,1783012155.0181,1,1,1.0000,0.0000,1.44682,0.23328,-2.77748,0.97337,1.57080,0.00000,-0.14512,-0.38003,0.04653,,,,,,,,,,,,,,,,,,,,,,,,,,0,0,0,0,0
0.8685,1783012155.0272,1,1,1.0000,0.0000,1.44682,0.23328,-2.77748,0.97337,1.57080,0.00000,-0.14512,-0.38003,0.04653,,,,,,,,,,,,,,,,,,,,,,,,,,0,0,0,0,0
0.8787,1783012155.0373,1,1,1.0000,0.0000,1.44682,0.23328,-2.77748,0.97337,1.57080,0.00000,-0.14512,-0.38003,0.04653,,,,,,,,,,,,,,,,,,,,,,,,,,0,0,0,0,0
0.8789,1783012155.0376,1,1,1.0000,0.0000,1.44682,0.23328,-2.77748,0.97337,1.57080,0.00000,-0.14512,-0.38003,0.04653,,,,,,,,,,,,,,,,,,,,,,,,,,0,0,0,0,0
0.8849,1783012155.0435,1,1,1.0000,0.0000,1.44682,0.23328,-2.77748,0.97337,1.57080,0.00000,-0.14512,-0.38003,0.04653,,,,,,,,,,,,,,,,,,,,,,,,,,0,0,0,0,0
0.8929,1783012155.0515,1,1,1.0000,0.0000,1.44682,0.23328,-2.77748,0.97337,1.57080,0.00000,-0.14512,-0.38003,0.04653,,,,,,,,,,,,,,,,,,,,,,,,,,0,0,0,0,0
0.8932,1783012155.0519,1,1,1.0000,0.0000,1.44682,0.23328,-2.77748,0.97337,1.57080,0.00000,-0.14512,-0.38003,0.04653,,,,,,,,,,,,,,,,,,,,,,,,,,0,0,0,0,0
0.9035,1783012155.0621,1,1,1.0000,0.0000,1.44682,0.23328,-2.77748,0.97337,1.57080,0.00000,-0.14512,-0.38003,0.04653,,,,,,,,,,,,,,,,,,,,,,,,,,0,0,0,0,0
0.9136,1783012155.0722,1,1,1.0000,0.0000,1.44682,0.23328,-2.77748,0.97337,1.57080,0.00000,-0.14512,-0.38003,0.04653,,,,,,,,,,,,,,,,,,,,,,,,,,0,0,0,0,0
0.9230,1783012155.0816,1,1,1.0000,0.0000,1.44682,0.23327,-2.77748,0.97338,1.57080,0.00000,-0.14512,-0.38003,0.04653,,,,,,,,,,,,,,,,,,,,,,,,,,0,0,0,0,0
0.9334,1783012155.0920,1,1,1.0000,0.0000,1.44682,0.23323,-2.77749,0.97343,1.57080,0.00000,-0.14512,-0.38003,0.04652,,,,,,,,,,,,,,,,,,,,,,,,,,0,0,0,0,0
0.9431,1783012155.1018,1,1,1.0000,0.0000,1.44682,0.23315,-2.77751,0.97354,1.57080,0.00000,-0.14512,-0.38003,0.04649,,,,,,,,,,,,,,,,,,,,,,,,,,0,0,0,0,0
0.9436,1783012155.1022,1,1,1.0000,0.0000,1.44682,0.23315,-2.77751,0.97354,1.57080,0.00000,-0.14512,-0.38003,0.04649,,,,,,,,,,,,,,,,,,,,,,,,,,0,0,0,0,0
0.9586,1783012155.1172,1,1,1.0000,0.0000,1.44682,0.23310,-2.77752,0.97359,1.57080,0.00000,-0.14512,-0.38003,0.04648,,,,,,,,,,,,,,,,,,,,,,,,,,0,0,0,0,0
0.9670,1783012155.1257,1,1,1.0000,0.0000,1.44682,0.23306,-2.77753,0.97364,1.57080,0.00000,-0.14512,-0.38003,0.04647,,,,,,,,,,,,,,,,,,,,,,,,,,0,0,0,0,0
0.9734,1783012155.1321,1,1,1.0000,0.0000,1.44682,0.23304,-2.77754,0.97367,1.57080,0.00000,-0.14512,-0.38003,0.04646,,,,,,,,,,,,,,,,,,,,,,,,,,0,0,0,0,0
0.9830,1783012155.1417,1,1,1.0000,0.0000,1.44682,0.23301,-2.77755,0.97371,1.57080,0.00000,-0.14512,-0.38003,0.04646,,,,,,,,,,,,,,,,,,,,,,,,,,0,0,0,0,0
0.9835,1783012155.1421,1,1,1.0000,0.0000,1.44682,0.23301,-2.77755,0.97371,1.57080,0.00000,-0.14512,-0.38003,0.04646,,,,,,,,,,,,,,,,,,,,,,,,,,0,0,0,0,0
0.9965,1783012155.1552,1,1,1.0000,0.0000,1.44682,0.23295,-2.77756,0.97378,1.57080,0.00000,-0.14512,-0.38003,0.04644,,,,,,,,,,,,,,,,,,,,,,,,,,0,0,0,0,0
0.9968,1783012155.1554,1,1,1.0000,0.0000,1.44682,0.23295,-2.77756,0.97378,1.57080,0.00000,-0.14512,-0.38003,0.04644,,,,,,,,,,,,,,,,,,,,,,,,,,0,0,0,0,0
1.0033,1783012155.1620,1,1,1.0000,0.0000,1.44682,0.23290,-2.77757,0.97384,1.57080,0.00000,-0.14512,-0.38003,0.04643,,,,,,,,,,,,,,,,,,,,,,,,,,0,0,0,0,0
1.0152,1783012155.1738,1,1,1.0000,0.0000,1.44682,0.23287,-2.77758,0.97388,1.57080,0.00000,-0.14512,-0.38003,0.04642,,,,,,,,,,,,,,,,,,,,,,,,,,0,0,0,0,0
1.0235,1783012155.1821,1,1,1.0000,0.0000,1.44682,0.23284,-2.77759,0.97392,1.57080,0.00000,-0.14512,-0.38003,0.04641,,,,,,,,,,,,,,,,,,,,,,,,,,0,0,0,0,0
1.0332,1783012155.1919,1,1,1.0000,0.0000,1.44682,0.23279,-2.77760,0.97398,1.57080,0.00000,-0.14512,-0.38003,0.04640,,,,,,,,,,,,,,,,,,,,,,,,,,0,0,0,0,0
1.0443,1783012155.2030,1,1,1.0000,0.0000,1.44682,0.23276,-2.77761,0.97402,1.57080,0.00000,-0.14512,-0.38003,0.04639,,,,,,,,,,,,,,,,,,,,,,,,,,0,0,0,0,0
1.0531,1783012155.2118,1,1,1.0000,0.0000,1.44682,0.23273,-2.77762,0.97405,1.57080,0.00000,-0.14512,-0.38003,0.04639,,,,,,,,,,,,,,,,,,,,,,,,,,0,0,0,0,0
1.0534,1783012155.2121,1,1,1.0000,0.0000,1.44682,0.23273,-2.77762,0.97405,1.57080,0.00000,-0.14512,-0.38003,0.04639,,,,,,,,,,,,,,,,,,,,,,,,,,0,0,0,0,0
1.0642,1783012155.2228,1,1,1.0000,0.0000,1.44682,0.23266,-2.77764,0.97415,1.57080,0.00000,-0.14512,-0.38003,0.04637,,,,,,,,,,,,,,,,,,,,,,,,,,0,0,0,0,0
1.0802,1783012155.2388,1,1,1.0000,0.0000,1.44682,0.23262,-2.77765,0.97420,1.57080,0.00000,-0.14512,-0.38003,0.04636,,,,,,,,,,,,,,,,,,,,,,,,,,0,0,0,0,0
1.0851,1783012155.2437,1,1,1.0000,0.0000,1.44682,0.23260,-2.77765,0.97422,1.57080,0.00000,-0.14512,-0.38003,0.04635,,,,,,,,,,,,,,,,,,,,,,,,,,0,0,0,0,0
1.0854,1783012155.2440,1,1,1.0000,0.0000,1.44682,0.23260,-2.77765,0.97422,1.57080,0.00000,-0.14512,-0.38003,0.04635,,,,,,,,,,,,,,,,,,,,,,,,,,0,0,0,0,0
1.0955,1783012155.2541,1,1,1.0000,0.0000,1.44682,0.23253,-2.77767,0.97431,1.57080,0.00000,-0.14512,-0.38003,0.04633,,,,,,,,,,,,,,,,,,,,,,,,,,0,0,0,0,0
1.1073,1783012155.2659,1,1,1.0000,0.0000,1.44682,0.23251,-2.77767,0.97434,1.57080,0.00000,-0.14512,-0.38003,0.04633,,,,,,,,,,,,,,,,,,,,,,,,,,0,0,0,0,0
1.1178,1783012155.2765,1,1,1.0000,0.0000,1.44682,0.23247,-2.77769,0.97439,1.57080,0.00000,-0.14512,-0.38003,0.04632,,,,,,,,,,,,,,,,,,,,,,,,,,0,0,0,0,0
1.1180,1783012155.2767,1,1,1.0000,0.0000,1.44682,0.23247,-2.77769,0.97439,1.57080,0.00000,-0.14512,-0.38003,0.04632,,,,,,,,,,,,,,,,,,,,,,,,,,0,0,0,0,0
1.1243,1783012155.2830,1,1,1.0000,0.0000,1.44682,0.23242,-2.77770,0.97445,1.57080,0.00000,-0.14512,-0.38003,0.04630,,,,,,,,,,,,,,,,,,,,,,,,,,0,0,0,0,0
1.1447,1783012155.3033,1,1,1.0000,0.0000,1.44682,0.23236,-2.77771,0.97453,1.57080,0.00000,-0.14512,-0.38003,0.04629,,,,,,,,,,,,,,,,,,,,,,,,,,0,0,0,0,0
1.1449,1783012155.3036,1,1,1.0000,0.0000,1.44682,0.23236,-2.77771,0.97453,1.57080,0.00000,-0.14512,-0.38003,0.04629,,,,,,,,,,,,,,,,,,,,,,,,,,0,0,0,0,0
1.1512,1783012155.3098,1,1,1.0000,0.0000,1.44682,0.23231,-2.77773,0.97459,1.57080,0.00000,-0.14512,-0.38003,0.04627,,,,,,,,,,,,,,,,,,,,,,,,,,0,0,0,0,0
1.1516,1783012155.3102,1,1,1.0000,0.0000,1.44682,0.23231,-2.77773,0.97459,1.57080,0.00000,-0.14512,-0.38003,0.04627,,,,,,,,,,,,,,,,,,,,,,,,,,0,0,0,0,0
1.1557,1783012155.3143,1,1,1.0000,0.0000,1.44682,0.23228,-2.77773,0.97462,1.57080,0.00000,-0.14512,-0.38003,0.04627,,,,,,,,,,,,,,,,,,,,,,,,,,0,0,0,0,0
1.1561,1783012155.3147,1,1,1.0000,0.0000,1.44682,0.23228,-2.77773,0.97462,1.57080,0.00000,-0.14512,-0.38003,0.04627,,,,,,,,,,,,,,,,,,,,,,,,,,0,0,0,0,0
1.1642,1783012155.3228,1,1,1.0000,0.0000,1.44682,0.23228,-2.77773,0.97463,1.57080,0.00000,-0.14512,-0.38003,0.04627,,,,,,,,,,,,,,,,,,,,,,,,,,0,0,0,0,0
1.1646,1783012155.3232,1,1,1.0000,0.0000,1.44682,0.23228,-2.77773,0.97463,1.57080,0.00000,-0.14512,-0.38003,0.04627,,,,,,,,,,,,,,,,,,,,,,,,,,0,0,0,0,0
1.1750,1783012155.3336,1,1,1.0000,0.0000,1.44682,0.23223,-2.77775,0.97469,1.57080,0.00000,-0.14512,-0.38003,0.04625,,,,,,,,,,,,,,,,,,,,,,,,,,0,0,0,0,0
1.1829,1783012155.3416,1,1,1.0000,0.0000,1.44682,0.23217,-2.77776,0.97476,1.57080,0.00000,-0.14512,-0.38003,0.04624,,,,,,,,,,,,,,,,,,,,,,,,,,0,0,0,0,0
1.1933,1783012155.3519,1,1,1.0000,0.0000,1.44682,0.23215,-2.77777,0.97479,1.57080,0.00000,-0.14512,-0.38003,0.04623,,,,,,,,,,,,,,,,,,,,,,,,,,0,0,0,0,0
1.2072,1783012155.3658,1,1,1.0000,0.0000,1.44682,0.23209,-2.77778,0.97486,1.57080,0.00000,-0.14512,-0.38003,0.04622,,,,,,,,,,,,,,,,,,,,,,,,,,0,0,0,0,0
1.2153,1783012155.3739,1,1,1.0000,0.0000,1.44682,0.23204,-2.77780,0.97492,1.57080,0.00000,-0.14512,-0.38003,0.04620,,,,,,,,,,,,,,,,,,,,,,,,,,0,0,0,0,0
1.2249,1783012155.3835,1,1,1.0000,0.0000,1.44682,0.23202,-2.77780,0.97496,1.57080,0.00000,-0.14512,-0.38003,0.04620,,,,,,,,,,,,,,,,,,,,,,,,,,0,0,0,0,0
1.2252,1783012155.3839,1,1,1.0000,0.0000,1.44682,0.23202,-2.77780,0.97496,1.57080,0.00000,-0.14512,-0.38003,0.04620,,,,,,,,,,,,,,,,,,,,,,,,,,0,0,0,0,0
1.2342,1783012155.3929,1,1,1.0000,0.0000,1.44682,0.23200,-2.77781,0.97497,1.57080,0.00000,-0.14512,-0.38003,0.04619,,,,,,,,,,,,,,,,,,,,,,,,,,0,0,0,0,0
1.2470,1783012155.4057,1,1,1.0000,0.0000,1.44682,0.23193,-2.77782,0.97506,1.57080,0.00000,-0.14512,-0.38003,0.04618,,,,,,,,,,,,,,,,,,,,,,,,,,0,0,0,0,0
1.2474,1783012155.4061,1,1,1.0000,0.0000,1.44682,0.23193,-2.77782,0.97506,1.57080,0.00000,-0.14512,-0.38003,0.04618,,,,,,,,,,,,,,,,,,,,,,,,,,0,0,0,0,0
1.2550,1783012155.4137,1,1,1.0000,0.0000,1.44682,0.23193,-2.77783,0.97507,1.57080,0.00000,-0.14512,-0.38003,0.04617,,,,,,,,,,,,,,,,,,,,,,,,,,0,0,0,0,0
1.2662,1783012155.4248,1,1,1.0000,0.0000,1.44682,0.23189,-2.77783,0.97511,1.57080,0.00000,-0.14512,-0.38003,0.04617,,,,,,,,,,,,,,,,,,,,,,,,,,0,0,0,0,0
1.2772,1783012155.4358,1,1,1.0000,0.0000,1.44682,0.23182,-2.77785,0.97521,1.57080,0.00000,-0.14512,-0.38003,0.04615,,,,,,,,,,,,,,,,,,,,,,,,,,0,0,0,0,0
1.2893,1783012155.4480,1,1,1.0000,0.0000,1.44682,0.23179,-2.77786,0.97524,1.57080,0.00000,-0.14512,-0.38003,0.04614,,,,,,,,,,,,,,,,,,,,,,,,,,0,0,0,0,0
1.2968,1783012155.4555,1,1,1.0000,0.0000,1.44682,0.23177,-2.77787,0.97527,1.57080,0.00000,-0.14512,-0.38003,0.04613,,,,,,,,,,,,,,,,,,,,,,,,,,0,0,0,0,0
1.2972,1783012155.4558,1,1,1.0000,0.0000,1.44682,0.23177,-2.77787,0.97527,1.57080,0.00000,-0.14512,-0.38003,0.04613,,,,,,,,,,,,,,,,,,,,,,,,,,0,0,0,0,0
1.3029,1783012155.4615,1,1,1.0000,0.0000,1.44682,0.23173,-2.77788,0.97532,1.57080,0.00000,-0.14512,-0.38003,0.04612,,,,,,,,,,,,,,,,,,,,,,,,,,0,0,0,0,0
1.3032,1783012155.4618,1,1,1.0000,0.0000,1.44682,0.23173,-2.77788,0.97532,1.57080,0.00000,-0.14512,-0.38003,0.04612,,,,,,,,,,,,,,,,,,,,,,,,,,0,0,0,0,0
1.3138,1783012155.4724,1,1,1.0000,0.0000,1.44682,0.23171,-2.77788,0.97534,1.57080,0.00000,-0.14512,-0.38003,0.04612,,,,,,,,,,,,,,,,,,,,,,,,,,0,0,0,0,0
1.3240,1783012155.4826,1,1,1.0000,0.0000,1.44682,0.23167,-2.77789,0.97539,1.57080,0.00000,-0.14512,-0.38003,0.04611,,,,,,,,,,,,,,,,,,,,,,,,,,0,0,0,0,0
1.3351,1783012155.4937,1,1,1.0000,0.0000,1.44682,0.23160,-2.77791,0.97549,1.57080,0.00000,-0.14512,-0.38003,0.04609,,,,,,,,,,,,,,,,,,,,,,,,,,0,0,0,0,0
1.3444,1783012155.5030,1,1,1.0000,0.0000,1.44682,0.23157,-2.77792,0.97552,1.57080,0.00000,-0.14512,-0.38003,0.04608,,,,,,,,,,,,,,,,,,,,,,,,,,0,0,0,0,0
1.3533,1783012155.5120,1,1,1.0000,0.0000,1.44682,0.23156,-2.77792,0.97553,1.57080,0.00000,-0.14512,-0.38003,0.04608,,,,,,,,,,,,,,,,,,,,,,,,,,0,0,0,0,0
1.3536,1783012155.5123,1,1,1.0000,0.0000,1.44682,0.23156,-2.77792,0.97553,1.57080,0.00000,-0.14512,-0.38003,0.04608,,,,,,,,,,,,,,,,,,,,,,,,,,0,0,0,0,0
1.3689,1783012155.5275,1,1,1.0000,0.0000,1.44682,0.23148,-2.77794,0.97562,1.57080,0.00000,-0.14512,-0.38003,0.04606,,,,,,,,,,,,,,,,,,,,,,,,,,0,0,0,0,0
1.3739,1783012155.5326,1,1,1.0000,0.0000,1.44682,0.23148,-2.77794,0.97562,1.57080,0.00000,-0.14512,-0.38003,0.04606,,,,,,,,,,,,,,,,,,,,,,,,,,0,0,0,0,0
1.3741,1783012155.5328,1,1,1.0000,0.0000,1.44682,0.23148,-2.77794,0.97562,1.57080,0.00000,-0.14512,-0.38003,0.04606,,,,,,,,,,,,,,,,,,,,,,,,,,0,0,0,0,0
1.3832,1783012155.5419,1,1,1.0000,0.0000,1.44682,0.23145,-2.77795,0.97567,1.57080,0.00000,-0.14512,-0.38003,0.04605,,,,,,,,,,,,,,,,,,,,,,,,,,0,0,0,0,0
1.3836,1783012155.5422,1,1,1.0000,0.0000,1.44682,0.23145,-2.77795,0.97567,1.57080,0.00000,-0.14512,-0.38003,0.04605,,,,,,,,,,,,,,,,,,,,,,,,,,0,0,0,0,0
1.3930,1783012155.5516,1,1,1.0000,0.0000,1.44682,0.23140,-2.77796,0.97573,1.57080,0.00000,-0.14512,-0.38003,0.04604,,,,,,,,,,,,,,,,,,,,,,,,,,0,0,0,0,0
1.4031,1783012155.5618,1,1,1.0000,0.0000,1.44682,0.23135,-2.77797,0.97580,1.57080,0.00000,-0.14512,-0.38003,0.04602,,,,,,,,,,,,,,,,,,,,,,,,,,0,0,0,0,0
1.4034,1783012155.5620,1,1,1.0000,0.0000,1.44682,0.23135,-2.77797,0.97580,1.57080,0.00000,-0.14512,-0.38003,0.04602,,,,,,,,,,,,,,,,,,,,,,,,,,0,0,0,0,0
1.4174,1783012155.5761,1,1,1.0000,0.0000,1.44682,0.23132,-2.77798,0.97583,1.57080,0.00000,-0.14512,-0.38003,0.04602,,,,,,,,,,,,,,,,,,,,,,,,,,0,0,0,0,0
1.4276,1783012155.5863,1,1,1.0000,0.0000,1.44682,0.23126,-2.77800,0.97590,1.57080,0.00000,-0.14512,-0.38003,0.04600,,,,,,,,,,,,,,,,,,,,,,,,,,0,0,0,0,0
1.4333,1783012155.5919,1,1,1.0000,0.0000,1.44682,0.23126,-2.77800,0.97590,1.57080,0.00000,-0.14512,-0.38003,0.04600,,,,,,,,,,,,,,,,,,,,,,,,,,0,0,0,0,0
1.4445,1783012155.6031,1,1,1.0000,0.0000,1.44682,0.23123,-2.77801,0.97595,1.57080,0.00000,-0.14512,-0.38003,0.04599,,,,,,,,,,,,,,,,,,,,,,,,,,0,0,0,0,0
1.4533,1783012155.6120,1,1,1.0000,0.0000,1.44682,0.23118,-2.77802,0.97601,1.57080,0.00000,-0.14512,-0.38003,0.04598,,,,,,,,,,,,,,,,,,,,,,,,,,0,0,0,0,0
1.4736,1783012155.6323,1,1,1.0000,0.0000,1.44682,0.23111,-2.77803,0.97609,1.57080,0.00000,-0.14512,-0.38003,0.04596,,,,,,,,,,,,,,,,,,,,,,,,,,0,0,0,0,0
1.4741,1783012155.6327,1,1,1.0000,0.0000,1.44682,0.23111,-2.77803,0.97609,1.57080,0.00000,-0.14512,-0.38003,0.04596,,,,,,,,,,,,,,,,,,,,,,,,,,0,0,0,0,0
1.4760,1783012155.6346,1,1,1.0000,0.0000,1.44682,0.23110,-2.77804,0.97611,1.57080,0.00000,-0.14512,-0.38003,0.04596,,,,,,,,,,,,,,,,,,,,,,,,,,0,0,0,0,0
1.4931,1783012155.6517,1,1,1.0000,0.0000,1.44682,0.23104,-2.77805,0.97618,1.57080,0.00000,-0.14512,-0.38003,0.04594,,,,,,,,,,,,,,,,,,,,,,,,,,0,0,0,0,0
1.4934,1783012155.6520,1,1,1.0000,0.0000,1.44682,0.23104,-2.77805,0.97618,1.57080,0.00000,-0.14512,-0.38003,0.04594,,,,,,,,,,,,,,,,,,,,,,,,,,0,0,0,0,0
1.5000,1783012155.6586,1,1,1.0000,0.0000,1.44682,0.23102,-2.77806,0.97621,1.57080,0.00000,-0.14512,-0.38003,0.04594,,,,,,,,,,,,,,,,,,,,,,,,,,0,0,0,0,0
1.5160,1783012155.6746,1,1,1.0000,0.0000,1.44682,0.23093,-2.77808,0.97633,1.57080,0.00000,-0.14512,-0.38003,0.04591,,,,,,,,,,,,,,,,,,,,,,,,,,0,0,0,0,0
1.5195,1783012155.6781,1,1,1.0000,0.0000,1.44682,0.23090,-2.77809,0.97636,1.57080,0.00000,-0.14512,-0.38003,0.04591,,,,,,,,,,,,,,,,,,,,,,,,,,0,0,0,0,0
1.5196,1783012155.6783,1,1,1.0000,0.0000,1.44682,0.23090,-2.77809,0.97636,1.57080,0.00000,-0.14512,-0.38003,0.04591,,,,,,,,,,,,,,,,,,,,,,,,,,0,0,0,0,0
1.5278,1783012155.6865,1,1,1.0000,0.0000,1.44682,0.23090,-2.77809,0.97636,1.57080,0.00000,-0.14512,-0.38003,0.04591,,,,,,,,,,,,,,,,,,,,,,,,,,0,0,0,0,0
1.5281,1783012155.6867,1,1,1.0000,0.0000,1.44682,0.23090,-2.77809,0.97636,1.57080,0.00000,-0.14512,-0.38003,0.04591,,,,,,,,,,,,,,,,,,,,,,,,,,0,0,0,0,0
1.5383,1783012155.6969,1,1,1.0000,0.0000,1.44682,0.23088,-2.77810,0.97639,1.57080,0.00000,-0.14512,-0.38003,0.04590,,,,,,,,,,,,,,,,,,,,,,,,,,0,0,0,0,0
1.5467,1783012155.7053,1,1,1.0000,0.0000,1.44682,0.23082,-2.77811,0.97646,1.57080,0.00000,-0.14512,-0.38003,0.04588,,,,,,,,,,,,,,,,,,,,,,,,,,0,0,0,0,0
1.5565,1783012155.7152,1,1,1.0000,0.0000,1.44682,0.23081,-2.77811,0.97647,1.57080,0.00000,-0.14512,-0.38003,0.04588,,,,,,,,,,,,,,,,,,,,,,,,,,0,0,0,0,0
1.5702,1783012155.7289,1,1,1.0000,0.0000,1.44682,0.23076,-2.77813,0.97654,1.57080,0.00000,-0.14512,-0.38003,0.04587,,,,,,,,,,,,,,,,,,,,,,,,,,0,0,0,0,0
1.5918,1783012155.7504,1,1,1.0000,0.0000,1.44682,0.23066,-2.77815,0.97666,1.57080,0.00000,-0.14512,-0.38003,0.04584,,,,,,,,,,,,,,,,,,,,,,,,,,0,0,0,0,0
1.5920,1783012155.7507,1,1,1.0000,0.0000,1.44682,0.23066,-2.77815,0.97666,1.57080,0.00000,-0.14512,-0.38003,0.04584,,,,,,,,,,,,,,,,,,,,,,,,,,0,0,0,0,0
1.5966,1783012155.7553,1,1,1.0000,0.0000,1.44682,0.23064,-2.77816,0.97668,1.57080,0.00000,-0.14512,-0.38003,0.04584,,,,,,,,,,,,,,,,,,,,,,,,,,0,0,0,0,0
1.6189,1783012155.7775,1,1,1.0000,0.0000,1.44682,0.23055,-2.77818,0.97680,1.57080,0.00000,-0.14512,-0.38003,0.04582,,,,,,,,,,,,,,,,,,,,,,,,,,0,0,0,0,0
1.6276,1783012155.7863,1,1,1.0000,0.0000,1.44682,0.23051,-2.77819,0.97685,1.57080,0.00000,-0.14512,-0.38003,0.04581,,,,,,,,,,,,,,,,,,,,,,,,,,0,0,0,0,0
1.6383,1783012155.7969,1,1,1.0000,0.0000,1.44682,0.23046,-2.77820,0.97691,1.57080,0.00000,-0.14512,-0.38003,0.04579,,,,,,,,,,,,,,,,,,,,,,,,,,0,0,0,0,0
1.6477,1783012155.8064,1,1,1.0000,0.0000,1.44682,0.23043,-2.77821,0.97695,1.57080,0.00000,-0.14512,-0.38003,0.04578,,,,,,,,,,,,,,,,,,,,,,,,,,0,0,0,0,0
1.6482,1783012155.8068,1,1,1.0000,0.0000,1.44682,0.23043,-2.77821,0.97695,1.57080,0.00000,-0.14512,-0.38003,0.04578,,,,,,,,,,,,,,,,,,,,,,,,,,0,0,0,0,0
1.6568,1783012155.8154,1,1,1.0000,0.0000,1.44682,0.23040,-2.77822,0.97699,1.57080,0.00000,-0.14512,-0.38003,0.04578,,,,,,,,,,,,,,,,,,,,,,,,,,0,0,0,0,0
1.6668,1783012155.8255,1,1,1.0000,0.0000,1.44682,0.23033,-2.77824,0.97708,1.57080,0.00000,-0.14512,-0.38003,0.04576,,,,,,,,,,,,,,,,,,,,,,,,,,0,0,0,0,0
1.6819,1783012155.8405,1,1,1.0000,0.0000,1.44682,0.23031,-2.77824,0.97710,1.57080,0.00000,-0.14512,-0.38003,0.04575,,,,,,,,,,,,,,,,,,,,,,,,,,0,0,0,0,0
1.6877,1783012155.8464,1,1,1.0000,0.0000,1.44682,0.23027,-2.77825,0.97715,1.57080,0.00000,-0.14512,-0.38003,0.04574,,,,,,,,,,,,,,,,,,,,,,,,,,0,0,0,0,0
1.6981,1783012155.8567,1,1,1.0000,0.0000,1.44682,0.23022,-2.77826,0.97722,1.57080,0.00000,-0.14512,-0.38003,0.04573,,,,,,,,,,,,,,,,,,,,,,,,,,0,0,0,0,0
1.7078,1783012155.8665,1,1,1.0000,0.0000,1.44682,0.23019,-2.77827,0.97725,1.57080,0.00000,-0.14512,-0.38003,0.04572,,,,,,,,,,,,,,,,,,,,,,,,,,0,0,0,0,0
1.7201,1783012155.8787,1,1,1.0000,0.0000,1.44682,0.23013,-2.77829,0.97732,1.57080,0.00000,-0.14512,-0.38003,0.04571,,,,,,,,,,,,,,,,,,,,,,,,,,0,0,0,0,0
1.7298,1783012155.8884,1,1,1.0000,0.0000,1.44682,0.23008,-2.77830,0.97739,1.57080,0.00000,-0.14512,-0.38003,0.04569,,,,,,,,,,,,,,,,,,,,,,,,,,0,0,0,0,0
1.7389,1783012155.8975,1,1,1.0000,0.0000,1.44682,0.23007,-2.77830,0.97741,1.57080,0.00000,-0.14512,-0.38003,0.04569,,,,,,,,,,,,,,,,,,,,,,,,,,0,0,0,0,0
1.7478,1783012155.9064,1,1,1.0000,0.0000,1.44682,0.23003,-2.77831,0.97746,1.57080,0.00000,-0.14512,-0.38003,0.04568,,,,,,,,,,,,,,,,,,,,,,,,,,0,0,0,0,0
1.7598,1783012155.9184,1,1,1.0000,0.0000,1.44682,0.22995,-2.77833,0.97755,1.57080,0.00000,-0.14512,-0.38003,0.04566,,,,,,,,,,,,,,,,,,,,,,,,,,0,0,0,0,0
1.7669,1783012155.9255,1,1,1.0000,0.0000,1.44682,0.22994,-2.77833,0.97756,1.57080,0.00000,-0.14512,-0.38003,0.04566,,,,,,,,,,,,,,,,,,,,,,,,,,0,0,0,0,0
1.7773,1783012155.9360,1,1,1.0000,0.0000,1.44682,0.22991,-2.77834,0.97760,1.57080,0.00000,-0.14512,-0.38003,0.04565,,,,,,,,,,,,,,,,,,,,,,,,,,0,0,0,0,0
1.7863,1783012155.9449,1,1,1.0000,0.0000,1.44682,0.22987,-2.77835,0.97766,1.57080,0.00000,-0.14512,-0.38003,0.04564,,,,,,,,,,,,,,,,,,,,,,,,,,0,0,0,0,0
1.7868,1783012155.9455,1,1,1.0000,0.0000,1.44682,0.22984,-2.77836,0.97769,1.57080,0.00000,-0.14512,-0.38003,0.04563,,,,,,,,,,,,,,,,,,,,,,,,,,0,0,0,0,0
1.7967,1783012155.9554,1,1,1.0000,0.0000,1.44682,0.22983,-2.77836,0.97770,1.57080,0.00000,-0.14512,-0.38003,0.04563,,,,,,,,,,,,,,,,,,,,,,,,,,0,0,0,0,0
1.8236,1783012155.9823,1,1,1.0000,0.0000,1.44682,0.22970,-2.77840,0.97786,1.57080,0.00000,-0.14512,-0.38003,0.04559,,,,,,,,,,,,,,,,,,,,,,,,,,0,0,0,0,0
1.8239,1783012155.9826,1,1,1.0000,0.0000,1.44682,0.22970,-2.77840,0.97786,1.57080,0.00000,-0.14512,-0.38003,0.04559,,,,,,,,,,,,,,,,,,,,,,,,,,0,0,0,0,0
1.8266,1783012155.9853,1,1,1.0000,0.0000,1.44682,0.22970,-2.77840,0.97787,1.57080,0.00000,-0.14512,-0.38003,0.04559,,,,,,,,,,,,,,,,,,,,,,,,,,0,0,0,0,0
1.8382,1783012155.9969,1,1,1.0000,0.0000,1.44682,0.22967,-2.77840,0.97790,1.57080,0.00000,-0.14512,-0.38003,0.04559,,,,,,,,,,,,,,,,,,,,,,,,,,0,0,0,0,0
1.8472,1783012156.0058,1,1,1.0000,0.0000,1.44682,0.22960,-2.77842,0.97800,1.57080,0.00000,-0.14512,-0.38003,0.04557,,,,,,,,,,,,,,,,,,,,,,,,,,0,0,0,0,0
1.8565,1783012156.0152,1,1,1.0000,0.0000,1.44682,0.22957,-2.77843,0.97803,1.57080,0.00000,-0.14512,-0.38003,0.04556,,,,,,,,,,,,,,,,,,,,,,,,,,0,0,0,0,0
1.8680,1783012156.0266,1,1,1.0000,0.0000,1.44682,0.22954,-2.77844,0.97806,1.57080,0.00000,-0.14512,-0.38003,0.04555,,,,,,,,,,,,,,,,,,,,,,,,,,0,0,0,0,0
1.8791,1783012156.0377,1,1,1.0000,0.0000,1.44682,0.22948,-2.77845,0.97814,1.57080,0.00000,-0.14512,-0.38003,0.04554,,,,,,,,,,,,,,,,,,,,,,,,,,0,0,0,0,0
1.8891,1783012156.0478,1,1,1.0000,0.0000,1.44682,0.22948,-2.77845,0.97814,1.57080,0.00000,-0.14512,-0.38003,0.04554,,,,,,,,,,,,,,,,,,,,,,,,,,0,0,0,0,0
1.8993,1783012156.0579,1,1,1.0000,0.0000,1.44682,0.22942,-2.77847,0.97821,1.57080,0.00000,-0.14512,-0.38003,0.04552,,,,,,,,,,,,,,,,,,,,,,,,,,0,0,0,0,0
1.9109,1783012156.0696,1,1,1.0000,0.0000,1.44682,0.22937,-2.77848,0.97828,1.57080,0.00000,-0.14512,-0.38003,0.04551,,,,,,,,,,,,,,,,,,,,,,,,,,0,0,0,0,0
1.9112,1783012156.0698,1,1,1.0000,0.0000,1.44682,0.22937,-2.77848,0.97828,1.57080,0.00000,-0.14512,-0.38003,0.04551,,,,,,,,,,,,,,,,,,,,,,,,,,0,0,0,0,0
1.9259,1783012156.0845,1,1,1.0000,0.0000,1.44682,0.22934,-2.77849,0.97832,1.57080,0.00000,-0.14512,-0.38003,0.04550,,,,,,,,,,,,,,,,,,,,,,,,,,0,0,0,0,0
1.9285,1783012156.0871,1,1,1.0000,0.0000,1.44682,0.22931,-2.77850,0.97835,1.57080,0.00000,-0.14512,-0.38003,0.04549,,,,,,,,,,,,,,,,,,,,,,,,,,0,0,0,0,0
1.9368,1783012156.0954,1,1,1.0000,0.0000,1.44682,0.22926,-2.77851,0.97841,1.57080,0.00000,-0.14512,-0.38003,0.04548,,,,,,,,,,,,,,,,,,,,,,,,,,0,0,0,0,0
1.9371,1783012156.0957,1,1,1.0000,0.0000,1.44682,0.22926,-2.77851,0.97841,1.57080,0.00000,-0.14512,-0.38003,0.04548,,,,,,,,,,,,,,,,,,,,,,,,,,0,0,0,0,0
1.9521,1783012156.1108,1,1,1.0000,0.0000,1.44682,0.22922,-2.77852,0.97847,1.57080,0.00000,-0.14512,-0.38003,0.04547,,,,,,,,,,,,,,,,,,,,,,,,,,0,0,0,0,0
1.9525,1783012156.1111,1,1,1.0000,0.0000,1.44682,0.22922,-2.77852,0.97847,1.57080,0.00000,-0.14512,-0.38003,0.04547,,,,,,,,,,,,,,,,,,,,,,,,,,0,0,0,0,0
1.9565,1783012156.1151,1,1,1.0000,0.0000,1.44682,0.22920,-2.77852,0.97849,1.57080,0.00000,-0.14512,-0.38003,0.04546,,,,,,,,,,,,,,,,,,,,,,,,,,0,0,0,0,0
1.9568,1783012156.1154,1,1,1.0000,0.0000,1.44682,0.22920,-2.77852,0.97849,1.57080,0.00000,-0.14512,-0.38003,0.04546,,,,,,,,,,,,,,,,,,,,,,,,,,0,0,0,0,0
1.9667,1783012156.1253,1,1,1.0000,0.0000,1.44682,0.22913,-2.77854,0.97858,1.57080,0.00000,-0.14512,-0.38003,0.04544,,,,,,,,,,,,,,,,,,,,,,,,,,0,0,0,0,0
1.9885,1783012156.1471,1,1,1.0000,0.0000,1.44682,0.22907,-2.77856,0.97866,1.57080,0.00000,-0.14512,-0.38003,0.04543,,,,,,,,,,,,,,,,,,,,,,,,,,0,0,0,0,0
1.9888,1783012156.1474,1,1,1.0000,0.0000,1.44682,0.22907,-2.77856,0.97866,1.57080,0.00000,-0.14512,-0.38003,0.04543,,,,,,,,,,,,,,,,,,,,,,,,,,0,0,0,0,0
1.9966,1783012156.1553,1,1,1.0000,0.0000,1.44682,0.22902,-2.77857,0.97872,1.57080,0.00000,-0.14512,-0.38003,0.04542,,,,,,,,,,,,,,,,,,,,,,,,,,0,0,0,0,0
2.0068,1783012156.1654,1,1,1.0000,0.0000,1.44682,0.22899,-2.77858,0.97876,1.57080,0.00000,-0.14512,-0.38003,0.04541,,,,,,,,,,,,,,,,,,,,,,,,,,0,0,0,0,0
2.0170,1783012156.1757,1,1,1.0000,0.0000,1.44682,0.22896,-2.77859,0.97880,1.57080,0.00000,-0.14512,-0.38003,0.04540,,,,,,,,,,,,,,,,,,,,,,,,,,0,0,0,0,0
2.0271,1783012156.1858,1,1,1.0000,0.0000,1.44682,0.22888,-2.77860,0.97889,1.57080,0.00000,-0.14512,-0.38003,0.04538,,,,,,,,,,,,,,,,,,,,,,,,,,0,0,0,0,0
2.0275,1783012156.1862,1,1,1.0000,0.0000,1.44682,0.22888,-2.77860,0.97889,1.57080,0.00000,-0.14512,-0.38003,0.04538,,,,,,,,,,,,,,,,,,,,,,,,,,0,0,0,0,0
2.0362,1783012156.1949,1,1,1.0000,0.0000,1.44682,0.22886,-2.77861,0.97892,1.57080,0.00000,-0.14512,-0.38003,0.04537,,,,,,,,,,,,,,,,,,,,,,,,,,0,0,0,0,0
2.0484,1783012156.2070,1,1,1.0000,0.0000,1.44682,0.22883,-2.77862,0.97895,1.57080,0.00000,-0.14512,-0.38003,0.04537,,,,,,,,,,,,,,,,,,,,,,,,,,0,0,0,0,0
2.0567,1783012156.2153,1,1,1.0000,0.0000,1.44682,0.22880,-2.77863,0.97900,1.57080,0.00000,-0.14512,-0.38003,0.04536,,,,,,,,,,,,,,,,,,,,,,,,,,0,0,0,0,0
2.0667,1783012156.2253,1,1,1.0000,0.0000,1.44682,0.22877,-2.77863,0.97904,1.57080,0.00000,-0.14512,-0.38003,0.04535,,,,,,,,,,,,,,,,,,,,,,,,,,0,0,0,0,0
2.0842,1783012156.2429,1,1,1.0000,0.0000,1.44682,0.22869,-2.77866,0.97914,1.57080,0.00000,-0.14512,-0.38003,0.04533,,,,,,,,,,,,,,,,,,,,,,,,,,0,0,0,0,0
2.0907,1783012156.2493,1,1,1.0000,0.0000,1.44682,0.22863,-2.77867,0.97920,1.57080,0.00000,-0.14512,-0.38003,0.04532,,,,,,,,,,,,,,,,,,,,,,,,,,0,0,0,0,0
2.0910,1783012156.2496,1,1,1.0000,0.0000,1.44682,0.22863,-2.77867,0.97920,1.57080,0.00000,-0.14512,-0.38003,0.04532,,,,,,,,,,,,,,,,,,,,,,,,,,0,0,0,0,0
2.0974,1783012156.2561,1,1,1.0000,0.0000,1.44682,0.22863,-2.77867,0.97920,1.57080,0.00000,-0.14512,-0.38003,0.04532,,,,,,,,,,,,,,,,,,,,,,,,,,0,0,0,0,0
2.0978,1783012156.2564,1,1,1.0000,0.0000,1.44682,0.22863,-2.77867,0.97920,1.57080,0.00000,-0.14512,-0.38003,0.04532,,,,,,,,,,,,,,,,,,,,,,,,,,0,0,0,0,0
2.1067,1783012156.2653,1,1,1.0000,0.0000,1.44682,0.22861,-2.77868,0.97923,1.57080,0.00000,-0.14512,-0.38003,0.04531,,,,,,,,,,,,,,,,,,,,,,,,,,0,0,0,0,0
2.1315,1783012156.2901,1,1,1.0000,0.0000,1.44682,0.22853,-2.77869,0.97933,1.57080,0.00000,-0.14512,-0.38003,0.04529,,,,,,,,,,,,,,,,,,,,,,,,,,0,0,0,0,0
2.1324,1783012156.2910,1,1,1.0000,0.0000,1.44682,0.22853,-2.77869,0.97933,1.57080,0.00000,-0.14512,-0.38003,0.04529,,,,,,,,,,,,,,,,,,,,,,,,,,0,0,0,0,0
2.1370,1783012156.2957,1,1,1.0000,0.0000,1.44682,0.22851,-2.77870,0.97936,1.57080,0.00000,-0.14512,-0.38003,0.04528,,,,,,,,,,,,,,,,,,,,,,,,,,0,0,0,0,0
2.1375,1783012156.2961,1,1,1.0000,0.0000,1.44682,0.22851,-2.77870,0.97936,1.57080,0.00000,-0.14512,-0.38003,0.04528,,,,,,,,,,,,,,,,,,,,,,,,,,0,0,0,0,0
2.1467,1783012156.3053,1,1,1.0000,0.0000,1.44682,0.22844,-2.77872,0.97945,1.57080,0.00000,-0.14512,-0.38003,0.04527,,,,,,,,,,,,,,,,,,,,,,,,,,0,0,0,0,0
2.1572,1783012156.3158,1,1,1.0000,0.0000,1.44682,0.22841,-2.77873,0.97948,1.57080,0.00000,-0.14512,-0.38003,0.04526,,,,,,,,,,,,,,,,,,,,,,,,,,0,0,0,0,0
2.1668,1783012156.3254,1,1,1.0000,0.0000,1.44682,0.22839,-2.77873,0.97952,1.57080,0.00000,-0.14512,-0.38003,0.04525,,,,,,,,,,,,,,,,,,,,,,,,,,0,0,0,0,0
2.1762,1783012156.3348,1,1,1.0000,0.0000,1.44682,0.22835,-2.77874,0.97956,1.57080,0.00000,-0.14512,-0.38003,0.04524,,,,,,,,,,,,,,,,,,,,,,,,,,0,0,0,0,0
2.1878,1783012156.3465,1,1,1.0000,0.0000,1.44682,0.22832,-2.77875,0.97960,1.57080,0.00000,-0.14512,-0.38003,0.04524,,,,,,,,,,,,,,,,,,,,,,,,,,0,0,0,0,0
2.1969,1783012156.3555,1,1,1.0000,0.0000,1.44682,0.22829,-2.77876,0.97964,1.57080,0.00000,-0.14512,-0.38003,0.04523,,,,,,,,,,,,,,,,,,,,,,,,,,0,0,0,0,0
2.1972,1783012156.3558,1,1,1.0000,0.0000,1.44682,0.22829,-2.77876,0.97964,1.57080,0.00000,-0.14512,-0.38003,0.04523,,,,,,,,,,,,,,,,,,,,,,,,,,0,0,0,0,0
2.2069,1783012156.3655,1,1,1.0000,0.0000,1.44682,0.22821,-2.77878,0.97973,1.57080,0.00000,-0.14512,-0.38003,0.04521,,,,,,,,,,,,,,,,,,,,,,,,,,0,0,0,0,0
2.2072,1783012156.3659,1,1,1.0000,0.0000,1.44682,0.22821,-2.77878,0.97973,1.57080,0.00000,-0.14512,-0.38003,0.04521,,,,,,,,,,,,,,,,,,,,,,,,,,0,0,0,0,0
2.2163,1783012156.3750,1,1,1.0000,0.0000,1.44682,0.22819,-2.77878,0.97976,1.57080,0.00000,-0.14512,-0.38003,0.04520,,,,,,,,,,,,,,,,,,,,,,,,,,0,0,0,0,0
2.2297,1783012156.3883,1,1,1.0000,0.0000,1.44682,0.22816,-2.77879,0.97980,1.57080,0.00000,-0.14512,-0.38003,0.04519,,,,,,,,,,,,,,,,,,,,,,,,,,0,0,0,0,0
2.2409,1783012156.3996,1,1,1.0000,0.0000,1.44682,0.22810,-2.77880,0.97987,1.57080,0.00000,-0.14512,-0.38003,0.04518,,,,,,,,,,,,,,,,,,,,,,,,,,0,0,0,0,0
2.2474,1783012156.4060,1,1,1.0000,0.0000,1.44682,0.22810,-2.77881,0.97988,1.57080,0.00000,-0.14512,-0.38003,0.04518,,,,,,,,,,,,,,,,,,,,,,,,,,0,0,0,0,0
2.2562,1783012156.4149,1,1,1.0000,0.0000,1.44682,0.22807,-2.77881,0.97992,1.57080,0.00000,-0.14512,-0.38003,0.04517,,,,,,,,,,,,,,,,,,,,,,,,,,0,0,0,0,0
2.2662,1783012156.4248,1,1,1.0000,0.0000,1.44682,0.22802,-2.77883,0.97998,1.57080,0.00000,-0.14512,-0.38003,0.04516,,,,,,,,,,,,,,,,,,,,,,,,,,0,0,0,0,0
2.2670,1783012156.4256,1,1,1.0000,0.0000,1.44682,0.22799,-2.77883,0.98001,1.57080,0.00000,-0.14512,-0.38003,0.04515,,,,,,,,,,,,,,,,,,,,,,,,,,0,0,0,0,0
2.2776,1783012156.4362,1,1,1.0000,0.0000,1.44682,0.22796,-2.77884,0.98005,1.57080,0.00000,-0.14512,-0.38003,0.04514,,,,,,,,,,,,,,,,,,,,,,,,,,0,0,0,0,0
2.2779,1783012156.4365,1,1,1.0000,0.0000,1.44682,0.22796,-2.77884,0.98005,1.57080,0.00000,-0.14512,-0.38003,0.04514,,,,,,,,,,,,,,,,,,,,,,,,,,0,0,0,0,0
2.2886,1783012156.4473,1,1,1.0000,0.0000,1.44682,0.22794,-2.77885,0.98008,1.57080,0.00000,-0.14512,-0.38003,0.04514,,,,,,,,,,,,,,,,,,,,,,,,,,0,0,0,0,0
2.2889,1783012156.4476,1,1,1.0000,0.0000,1.44682,0.22794,-2.77885,0.98008,1.57080,0.00000,-0.14512,-0.38003,0.04514,,,,,,,,,,,,,,,,,,,,,,,,,,0,0,0,0,0
2.2988,1783012156.4574,1,1,1.0000,0.0000,1.44682,0.22788,-2.77886,0.98015,1.57080,0.00000,-0.14512,-0.38003,0.04512,,,,,,,,,,,,,,,,,,,,,,,,,,0,0,0,0,0
2.2991,1783012156.4578,1,1,1.0000,0.0000,1.44682,0.22788,-2.77886,0.98015,1.57080,0.00000,-0.14512,-0.38003,0.04512,,,,,,,,,,,,,,,,,,,,,,,,,,0,0,0,0,0
2.3093,1783012156.4679,1,1,1.0000,0.0000,1.44682,0.22787,-2.77886,0.98016,1.57080,0.00000,-0.14512,-0.38003,0.04512,,,,,,,,,,,,,,,,,,,,,,,,,,0,0,0,0,0
2.3180,1783012156.4766,1,1,1.0000,0.0000,1.44682,0.22784,-2.77887,0.98020,1.57080,0.00000,-0.14512,-0.38003,0.04511,,,,,,,,,,,,,,,,,,,,,,,,,,0,0,0,0,0
2.3187,1783012156.4773,1,1,1.0000,0.0000,1.44682,0.22782,-2.77888,0.98023,1.57080,0.00000,-0.14512,-0.38003,0.04510,,,,,,,,,,,,,,,,,,,,,,,,,,0,0,0,0,0
2.3271,1783012156.4857,1,1,1.0000,0.0000,1.44682,0.22777,-2.77889,0.98029,1.57080,0.00000,-0.14512,-0.38003,0.04509,,,,,,,,,,,,,,,,,,,,,,,,,,0,0,0,0,0
2.3274,1783012156.4861,1,1,1.0000,0.0000,1.44682,0.22777,-2.77889,0.98029,1.57080,0.00000,-0.14512,-0.38003,0.04509,,,,,,,,,,,,,,,,,,,,,,,,,,0,0,0,0,0
2.3403,1783012156.4989,1,1,1.0000,0.0000,1.44682,0.22774,-2.77890,0.98033,1.57080,0.00000,-0.14512,-0.38003,0.04508,,,,,,,,,,,,,,,,,,,,,,,,,,0,0,0,0,0
2.3407,1783012156.4993,1,1,1.0000,0.0000,1.44682,0.22774,-2.77890,0.98033,1.57080,0.00000,-0.14512,-0.38003,0.04508,,,,,,,,,,,,,,,,,,,,,,,,,,0,0,0,0,0
2.3491,1783012156.5077,1,1,1.0000,0.0000,1.44682,0.22770,-2.77891,0.98037,1.57080,0.00000,-0.14512,-0.38003,0.04507,,,,,,,,,,,,,,,,,,,,,,,,,,0,0,0,0,0
2.3578,1783012156.5165,1,1,1.0000,0.0000,1.44682,0.22766,-2.77892,0.98043,1.57080,0.00000,-0.14512,-0.38003,0.04506,,,,,,,,,,,,,,,,,,,,,,,,,,0,0,0,0,0
2.3589,1783012156.5176,1,1,1.0000,0.0000,1.44682,0.22763,-2.77892,0.98046,1.57080,0.00000,-0.14512,-0.38003,0.04506,,,,,,,,,,,,,,,,,,,,,,,,,,0,0,0,0,0
2.3667,1783012156.5254,1,1,1.0000,0.0000,1.44682,0.22763,-2.77893,0.98047,1.57080,0.00000,-0.14512,-0.38003,0.04505,,,,,,,,,,,,,,,,,,,,,,,,,,0,0,0,0,0
2.3769,1783012156.5355,1,1,1.0000,0.0000,1.44682,0.22760,-2.77893,0.98051,1.57080,0.00000,-0.14512,-0.38003,0.04505,,,,,,,,,,,,,,,,,,,,,,,,,,0,0,0,0,0
2.3980,1783012156.5567,1,1,1.0000,0.0000,1.44682,0.22750,-2.77896,0.98063,1.57080,0.00000,-0.14512,-0.38003,0.04502,,,,,,,,,,,,,,,,,,,,,,,,,,0,0,0,0,0
2.4067,1783012156.5654,1,1,1.0000,0.0000,1.44682,0.22746,-2.77897,0.98068,1.57080,0.00000,-0.14512,-0.38003,0.04501,,,,,,,,,,,,,,,,,,,,,,,,,,0,0,0,0,0
2.4069,1783012156.5656,1,1,1.0000,0.0000,1.44682,0.22746,-2.77897,0.98068,1.57080,0.00000,-0.14512,-0.38003,0.04501,,,,,,,,,,,,,,,,,,,,,,,,,,0,0,0,0,0
2.4072,1783012156.5659,1,1,1.0000,0.0000,1.44682,0.22746,-2.77897,0.98068,1.57080,0.00000,-0.14512,-0.38003,0.04501,,,,,,,,,,,,,,,,,,,,,,,,,,0,0,0,0,0
2.4163,1783012156.5749,1,1,1.0000,0.0000,1.44682,0.22741,-2.77898,0.98074,1.57080,0.00000,-0.14512,-0.38003,0.04500,,,,,,,,,,,,,,,,,,,,,,,,,,0,0,0,0,0
2.4271,1783012156.5858,1,1,1.0000,0.0000,1.44682,0.22738,-2.77899,0.98078,1.57080,0.00000,-0.14512,-0.38003,0.04499,,,,,,,,,,,,,,,,,,,,,,,,,,0,0,0,0,0
2.4373,1783012156.5959,1,1,1.0000,0.0000,1.44682,0.22735,-2.77900,0.98081,1.57080,0.00000,-0.14512,-0.38003,0.04498,,,,,,,,,,,,,,,,,,,,,,,,,,0,0,0,0,0
2.4466,1783012156.6053,1,1,1.0000,0.0000,1.44682,0.22728,-2.77901,0.98091,1.57080,0.00000,-0.14512,-0.38003,0.04496,,,,,,,,,,,,,,,,,,,,,,,,,,0,0,0,0,0
2.4598,1783012156.6184,1,1,1.0000,0.0000,1.44682,0.22725,-2.77902,0.98094,1.57080,0.00000,-0.14512,-0.38003,0.04496,,,,,,,,,,,,,,,,,,,,,,,,,,0,0,0,0,0
2.4661,1783012156.6247,1,1,1.0000,0.0000,1.44682,0.22723,-2.77902,0.98096,1.57080,0.00000,-0.14512,-0.38003,0.04495,,,,,,,,,,,,,,,,,,,,,,,,,,0,0,0,0,0
2.4667,1783012156.6253,1,1,1.0000,0.0000,1.44682,0.22722,-2.77903,0.98098,1.57080,0.00000,-0.14512,-0.38003,0.04495,,,,,,,,,,,,,,,,,,,,,,,,,,0,0,0,0,0
2.4764,1783012156.6350,1,1,1.0000,0.0000,1.44682,0.22717,-2.77904,0.98104,1.57080,0.00000,-0.14512,-0.38003,0.04494,,,,,,,,,,,,,,,,,,,,,,,,,,0,0,0,0,0
2.4767,1783012156.6353,1,1,1.0000,0.0000,1.44682,0.22717,-2.77904,0.98104,1.57080,0.00000,-0.14512,-0.38003,0.04494,,,,,,,,,,,,,,,,,,,,,,,,,,0,0,0,0,0
2.4869,1783012156.6455,1,1,1.0000,0.0000,1.44682,0.22714,-2.77905,0.98108,1.57080,0.00000,-0.14512,-0.38003,0.04493,,,,,,,,,,,,,,,,,,,,,,,,,,0,0,0,0,0
2.4976,1783012156.6563,1,1,1.0000,0.0000,1.44682,0.22711,-2.77906,0.98112,1.57080,0.00001,-0.14512,-0.38003,0.04492,,,,,,,,,,,,,,,,,,,,,,,,,,0,0,0,0,0
2.4979,1783012156.6565,1,1,1.0000,0.0000,1.44682,0.22711,-2.77906,0.98112,1.57080,0.00001,-0.14512,-0.38003,0.04492,,,,,,,,,,,,,,,,,,,,,,,,,,0,0,0,0,0
2.5132,1783012156.6718,1,1,1.0000,0.0000,1.44682,0.22701,-2.77908,0.98124,1.57080,0.00001,-0.14512,-0.38003,0.04489,,,,,,,,,,,,,,,,,,,,,,,,,,0,0,0,0,0
2.5177,1783012156.6763,1,1,1.0000,0.0000,1.44682,0.22701,-2.77908,0.98124,1.57080,0.00001,-0.14512,-0.38003,0.04489,,,,,,,,,,,,,,,,,,,,,,,,,,0,0,0,0,0
2.5285,1783012156.6871,1,1,1.0000,0.0000,1.44682,0.22697,-2.77909,0.98129,1.57080,0.00001,-0.14512,-0.38003,0.04488,,,,,,,,,,,,,,,,,,,,,,,,,,0,0,0,0,0
2.5371,1783012156.6957,1,1,1.0000,0.0000,1.44682,0.22692,-2.77910,0.98135,1.57080,0.00001,-0.14512,-0.38003,0.04487,,,,,,,,,,,,,,,,,,,,,,,,,,0,0,0,0,0
2.5482,1783012156.7068,1,1,1.0000,0.0000,1.44682,0.22689,-2.77911,0.98139,1.57080,0.00001,-0.14512,-0.38003,0.04486,,,,,,,,,,,,,,,,,,,,,,,,,,0,0,0,0,0
2.5594,1783012156.7180,1,1,1.0000,0.0000,1.44682,0.22684,-2.77913,0.98145,1.57080,0.00001,-0.14512,-0.38003,0.04485,,,,,,,,,,,,,,,,,,,,,,,,,,0,0,0,0,0
2.5691,1783012156.7277,1,1,1.0000,0.0000,1.44682,0.22679,-2.77914,0.98152,1.57080,0.00001,-0.14512,-0.38003,0.04484,,,,,,,,,,,,,,,,,,,,,,,,,,0,0,0,0,0
2.5767,1783012156.7353,1,1,1.0000,0.0000,1.44682,0.22676,-2.77914,0.98155,1.57080,0.00001,-0.14512,-0.38003,0.04483,,,,,,,,,,,,,,,,,,,,,,,,,,0,0,0,0,0
2.5867,1783012156.7453,1,1,1.0000,0.0000,1.44682,0.22673,-2.77915,0.98160,1.57080,0.00001,-0.14512,-0.38003,0.04482,,,,,,,,,,,,,,,,,,,,,,,,,,0,0,0,0,0
2.5983,1783012156.7569,1,1,1.0000,0.0000,1.44682,0.22668,-2.77917,0.98166,1.57080,0.00001,-0.14512,-0.38003,0.04481,,,,,,,,,,,,,,,,,,,,,,,,,,0,0,0,0,0
2.6094,1783012156.7680,1,1,1.0000,0.0000,1.44682,0.22663,-2.77918,0.98172,1.57080,0.00001,-0.14512,-0.38003,0.04480,,,,,,,,,,,,,,,,,,,,,,,,,,0,0,0,0,0
2.6233,1783012156.7820,1,1,1.0000,0.0000,1.44682,0.22658,-2.77919,0.98178,1.57080,0.00001,-0.14512,-0.38003,0.04478,,,,,,,,,,,,,,,,,,,,,,,,,,0,0,0,0,0
2.6268,1783012156.7855,1,1,1.0000,0.0000,1.44682,0.22656,-2.77920,0.98180,1.57080,0.00001,-0.14512,-0.38003,0.04478,,,,,,,,,,,,,,,,,,,,,,,,,,0,0,0,0,0
2.6398,1783012156.7984,1,1,1.0000,0.0000,1.44682,0.22654,-2.77920,0.98184,1.57080,0.00001,-0.14512,-0.38003,0.04477,,,,,,,,,,,,,,,,,,,,,,,,,,0,0,0,0,0
2.6487,1783012156.8073,1,1,1.0000,0.0000,1.44682,0.22650,-2.77921,0.98187,1.57080,0.00001,-0.14512,-0.38003,0.04476,,,,,,,,,,,,,,,,,,,,,,,,,,0,0,0,0,0
2.6661,1783012156.8247,1,1,1.0000,0.0000,1.44682,0.22640,-2.77924,0.98200,1.57080,0.00001,-0.14512,-0.38003,0.04474,,,,,,,,,,,,,,,,,,,,,,,,,,0,0,0,0,0
2.6669,1783012156.8256,1,1,1.0000,0.0000,1.44682,0.22640,-2.77924,0.98200,1.57080,0.00001,-0.14512,-0.38003,0.04474,,,,,,,,,,,,,,,,,,,,,,,,,,0,0,0,0,0
2.6672,1783012156.8258,1,1,1.0000,0.0000,1.44682,0.22640,-2.77924,0.98200,1.57080,0.00001,-0.14512,-0.38003,0.04474,,,,,,,,,,,,,,,,,,,,,,,,,,0,0,0,0,0
2.6763,1783012156.8349,1,1,1.0000,0.0000,1.44682,0.22639,-2.77924,0.98202,1.57080,0.00001,-0.14512,-0.38003,0.04473,,,,,,,,,,,,,,,,,,,,,,,,,,0,0,0,0,0
2.6861,1783012156.8448,1,1,1.0000,0.0000,1.44682,0.22636,-2.77925,0.98206,1.57080,0.00001,-0.14512,-0.38003,0.04473,,,,,,,,,,,,,,,,,,,,,,,,,,0,0,0,0,0
2.6987,1783012156.8574,1,1,1.0000,0.0000,1.44682,0.22631,-2.77926,0.98212,1.57080,0.00001,-0.14512,-0.38003,0.04471,,,,,,,,,,,,,,,,,,,,,,,,,,0,0,0,0,0
2.7067,1783012156.8653,1,1,1.0000,0.0000,1.44682,0.22628,-2.77927,0.98216,1.57080,0.00001,-0.14512,-0.38003,0.04471,,,,,,,,,,,,,,,,,,,,,,,,,,0,0,0,0,0
2.7070,1783012156.8656,1,1,1.0000,0.0000,1.44682,0.22628,-2.77927,0.98216,1.57080,0.00001,-0.14512,-0.38003,0.04471,,,,,,,,,,,,,,,,,,,,,,,,,,0,0,0,0,0
2.7285,1783012156.8871,1,1,1.0000,0.0000,1.44682,0.22618,-2.77929,0.98228,1.57080,0.00001,-0.14512,-0.38003,0.04468,,,,,,,,,,,,,,,,,,,,,,,,,,0,0,0,0,0
2.7288,1783012156.8874,1,1,1.0000,0.0000,1.44682,0.22618,-2.77929,0.98228,1.57080,0.00001,-0.14512,-0.38003,0.04468,,,,,,,,,,,,,,,,,,,,,,,,,,0,0,0,0,0
2.7364,1783012156.8951,1,1,1.0000,0.0000,1.44682,0.22617,-2.77930,0.98230,1.57080,0.00001,-0.14512,-0.38003,0.04468,,,,,,,,,,,,,,,,,,,,,,,,,,0,0,0,0,0
2.7486,1783012156.9073,1,1,1.0000,0.0000,1.44682,0.22611,-2.77931,0.98236,1.57080,0.00001,-0.14512,-0.38003,0.04466,,,,,,,,,,,,,,,,,,,,,,,,,,0,0,0,0,0
2.7708,1783012156.9294,1,1,1.0000,0.0000,1.44682,0.22603,-2.77933,0.98247,1.57080,0.00001,-0.14512,-0.38003,0.04464,,,,,,,,,,,,,,,,,,,,,,,,,,0,0,0,0,0
2.7762,1783012156.9348,1,1,1.0000,0.0000,1.44682,0.22601,-2.77934,0.98250,1.57080,0.00001,-0.14512,-0.38003,0.04463,,,,,,,,,,,,,,,,,,,,,,,,,,0,0,0,0,0
2.7866,1783012156.9453,1,1,1.0000,0.0000,1.44682,0.22595,-2.77935,0.98257,1.57080,0.00001,-0.14512,-0.38003,0.04462,,,,,,,,,,,,,,,,,,,,,,,,,,0,0,0,0,0
2.8148,1783012156.9734,1,1,1.0000,0.0000,1.44682,0.22587,-2.77937,0.98267,1.57080,0.00001,-0.14512,-0.38003,0.04460,,,,,,,,,,,,,,,,,,,,,,,,,,0,0,0,0,0
2.8151,1783012156.9737,1,1,1.0000,0.0000,1.44682,0.22587,-2.77937,0.98267,1.57080,0.00001,-0.14512,-0.38003,0.04460,,,,,,,,,,,,,,,,,,,,,,,,,,0,0,0,0,0
2.8180,1783012156.9766,1,1,1.0000,0.0000,1.44682,0.22587,-2.77937,0.98267,1.57080,0.00001,-0.14512,-0.38003,0.04460,,,,,,,,,,,,,,,,,,,,,,,,,,0,0,0,0,0
2.8184,1783012156.9770,1,1,1.0000,0.0000,1.44682,0.22587,-2.77937,0.98267,1.57080,0.00001,-0.14512,-0.38003,0.04460,,,,,,,,,,,,,,,,,,,,,,,,,,0,0,0,0,0
2.8268,1783012156.9854,1,1,1.0000,0.0000,1.44682,0.22583,-2.77938,0.98272,1.57080,0.00001,-0.14512,-0.38003,0.04459,,,,,,,,,,,,,,,,,,,,,,,,,,0,0,0,0,0
2.8364,1783012156.9951,1,1,1.0000,0.0000,1.44682,0.22578,-2.77939,0.98278,1.57080,0.00001,-0.14512,-0.38003,0.04458,,,,,,,,,,,,,,,,,,,,,,,,,,0,0,0,0,0
2.8368,1783012156.9954,1,1,1.0000,0.0000,1.44682,0.22578,-2.77939,0.98278,1.57080,0.00001,-0.14512,-0.38003,0.04458,,,,,,,,,,,,,,,,,,,,,,,,,,0,0,0,0,0
2.8467,1783012157.0053,1,1,1.0000,0.0000,1.44682,0.22573,-2.77941,0.98285,1.57080,0.00001,-0.14512,-0.38003,0.04456,,,,,,,,,,,,,,,,,,,,,,,,,,0,0,0,0,0
2.8588,1783012157.0174,1,1,1.0000,0.0000,1.44682,0.22570,-2.77941,0.98288,1.57080,0.00001,-0.14512,-0.38003,0.04456,,,,,,,,,,,,,,,,,,,,,,,,,,0,0,0,0,0
2.8734,1783012157.0320,1,1,1.0000,0.0000,1.44682,0.22564,-2.77943,0.98295,1.57080,0.00001,-0.14512,-0.38003,0.04454,,,,,,,,,,,,,,,,,,,,,,,,,,0,0,0,0,0
2.8794,1783012157.0380,1,1,1.0000,0.0000,1.44682,0.22564,-2.77943,0.98296,1.57080,0.00001,-0.14512,-0.38003,0.04454,,,,,,,,,,,,,,,,,,,,,,,,,,0,0,0,0,0
2.8869,1783012157.0455,1,1,1.0000,0.0000,1.44682,0.22561,-2.77944,0.98300,1.57080,0.00001,-0.14512,-0.38003,0.04453,,,,,,,,,,,,,,,,,,,,,,,,,,0,0,0,0,0
2.8966,1783012157.0552,1,1,1.0000,0.0000,1.44682,0.22556,-2.77945,0.98306,1.57080,0.00001,-0.14512,-0.38003,0.04452,,,,,,,,,,,,,,,,,,,,,,,,,,0,0,0,0,0
2.8968,1783012157.0555,1,1,1.0000,0.0000,1.44682,0.22556,-2.77945,0.98306,1.57080,0.00001,-0.14512,-0.38003,0.04452,,,,,,,,,,,,,,,,,,,,,,,,,,0,0,0,0,0
2.9092,1783012157.0678,1,1,1.0000,0.0000,1.44682,0.22550,-2.77946,0.98313,1.57080,0.00001,-0.14512,-0.38003,0.04450,,,,,,,,,,,,,,,,,,,,,,,,,,0,0,0,0,0
2.9178,1783012157.0764,1,1,1.0000,0.0000,1.44682,0.22549,-2.77947,0.98314,1.57080,0.00001,-0.14512,-0.38003,0.04450,,,,,,,,,,,,,,,,,,,,,,,,,,0,0,0,0,0
2.9268,1783012157.0855,1,1,1.0000,0.0000,1.44682,0.22544,-2.77948,0.98321,1.57080,0.00001,-0.14512,-0.38003,0.04449,,,,,,,,,,,,,,,,,,,,,,,,,,0,0,0,0,0
2.9270,1783012157.0857,1,1,1.0000,0.0000,1.44682,0.22544,-2.77948,0.98321,1.57080,0.00001,-0.14512,-0.38003,0.04449,,,,,,,,,,,,,,,,,,,,,,,,,,0,0,0,0,0
2.9366,1783012157.0952,1,1,1.0000,0.0000,1.44682,0.22542,-2.77948,0.98324,1.57080,0.00001,-0.14512,-0.38003,0.04448,,,,,,,,,,,,,,,,,,,,,,,,,,0,0,0,0,0
2.9461,1783012157.1048,1,1,1.0000,0.0000,1.44682,0.22540,-2.77949,0.98326,1.57080,0.00001,-0.14512,-0.38003,0.04448,,,,,,,,,,,,,,,,,,,,,,,,,,0,0,0,0,0
2.9467,1783012157.1053,1,1,1.0000,0.0000,1.44682,0.22538,-2.77949,0.98328,1.57080,0.00001,-0.14512,-0.38003,0.04447,,,,,,,,,,,,,,,,,,,,,,,,,,0,0,0,0,0
2.9608,1783012157.1195,1,1,1.0000,0.0000,1.44682,0.22530,-2.77951,0.98338,1.57080,0.00001,-0.14512,-0.38003,0.04445,,,,,,,,,,,,,,,,,,,,,,,,,,0,0,0,0,0
2.9722,1783012157.1308,1,1,1.0000,0.0000,1.44682,0.22528,-2.77952,0.98341,1.57080,0.00001,-0.14512,-0.38003,0.04445,,,,,,,,,,,,,,,,,,,,,,,,,,0,0,0,0,0
2.9775,1783012157.1361,1,1,1.0000,0.0000,1.44682,0.22527,-2.77952,0.98343,1.57080,0.00001,-0.14512,-0.38003,0.04444,,,,,,,,,,,,,,,,,,,,,,,,,,0,0,0,0,0
2.9779,1783012157.1365,1,1,1.0000,0.0000,1.44682,0.22527,-2.77952,0.98343,1.57080,0.00001,-0.14512,-0.38003,0.04444,,,,,,,,,,,,,,,,,,,,,,,,,,0,0,0,0,0
2.9861,1783012157.1448,1,1,1.0000,0.0000,1.44682,0.22524,-2.77953,0.98346,1.57080,0.00001,-0.14512,-0.38003,0.04443,,,,,,,,,,,,,,,,,,,,,,,,,,0,0,0,0,0
2.9864,1783012157.1451,1,1,1.0000,0.0000,1.44682,0.22524,-2.77953,0.98346,1.57080,0.00001,-0.14512,-0.38003,0.04443,,,,,,,,,,,,,,,,,,,,,,,,,,0,0,0,0,0
2.9993,1783012157.1579,1,1,1.0000,0.0000,1.44682,0.22519,-2.77954,0.98352,1.57080,0.00001,-0.14512,-0.38003,0.04442,,,,,,,,,,,,,,,,,,,,,,,,,,0,0,0,0,0
3.0147,1783012157.1733,1,1,1.0000,0.0000,1.44682,0.22513,-2.77956,0.98359,1.57080,0.00001,-0.14512,-0.38003,0.04441,,,,,,,,,,,,,,,,,,,,,,,,,,0,0,0,0,0
3.0172,1783012157.1758,1,1,1.0000,0.0000,1.44682,0.22511,-2.77956,0.98363,1.57080,0.00001,-0.14512,-0.38003,0.04440,,,,,,,,,,,,,,,,,,,,,,,,,,0,0,0,0,0
3.0265,1783012157.1851,1,1,1.0000,0.0000,1.44682,0.22505,-2.77958,0.98369,1.57080,0.00001,-0.14512,-0.38003,0.04439,,,,,,,,,,,,,,,,,,,,,,,,,,0,0,0,0,0
3.0531,1783012157.2117,1,1,1.0000,0.0000,1.44682,0.22497,-2.77960,0.98380,1.57080,0.00001,-0.14512,-0.38003,0.04437,,,,,,,,,,,,,,,,,,,,,,,,,,0,0,0,0,0
3.0561,1783012157.2147,1,1,1.0000,0.0000,1.44682,0.22497,-2.77960,0.98380,1.57080,0.00001,-0.14512,-0.38003,0.04437,,,,,,,,,,,,,,,,,,,,,,,,,,0,0,0,0,0
3.0644,1783012157.2231,1,1,1.0000,0.0000,1.44682,0.22495,-2.77960,0.98382,1.57080,0.00001,-0.14512,-0.38003,0.04436,,,,,,,,,,,,,,,,,,,,,,,,,,0,0,0,0,0
3.0740,1783012157.2326,1,1,1.0000,0.0000,1.44682,0.22491,-2.77961,0.98387,1.57080,0.00001,-0.14512,-0.38003,0.04435,,,,,,,,,,,,,,,,,,,,,,,,,,0,0,0,0,0
3.0780,1783012157.2366,1,1,1.0000,0.0000,1.44682,0.22488,-2.77962,0.98391,1.57080,0.00001,-0.14512,-0.38003,0.04434,,,,,,,,,,,,,,,,,,,,,,,,,,0,0,0,0,0
3.0880,1783012157.2466,1,1,1.0000,0.0000,1.44682,0.22483,-2.77963,0.98397,1.57080,0.00001,-0.14512,-0.38003,0.04433,,,,,,,,,,,,,,,,,,,,,,,,,,0,0,0,0,0
3.1133,1783012157.2719,1,1,1.0000,0.0000,1.44682,0.22474,-2.77966,0.98408,1.57080,0.00001,-0.14512,-0.38002,0.04431,,,,,,,,,,,,,,,,,,,,,,,,,,0,0,0,0,0
3.1137,1783012157.2724,1,1,1.0000,0.0000,1.44682,0.22474,-2.77966,0.98408,1.57080,0.00001,-0.14512,-0.38002,0.04431,,,,,,,,,,,,,,,,,,,,,,,,,,0,0,0,0,0
3.1221,1783012157.2808,1,1,1.0000,0.0000,1.44682,0.22474,-2.77966,0.98409,1.57080,0.00001,-0.14512,-0.38002,0.04431,,,,,,,,,,,,,,,,,,,,,,,,,,0,0,0,0,0
3.1225,1783012157.2811,1,1,1.0000,0.0000,1.44682,0.22474,-2.77966,0.98409,1.57080,0.00001,-0.14512,-0.38002,0.04431,,,,,,,,,,,,,,,,,,,,,,,,,,0,0,0,0,0
3.1324,1783012157.2910,1,1,1.0000,0.0000,1.44682,0.22468,-2.77967,0.98416,1.57080,0.00001,-0.14512,-0.38002,0.04429,,,,,,,,,,,,,,,,,,,,,,,,,,0,0,0,0,0
3.1397,1783012157.2984,1,1,1.0000,0.0000,1.44682,0.22463,-2.77968,0.98422,1.57080,0.00001,-0.14512,-0.38002,0.04428,,,,,,,,,,,,,,,,,,,,,,,,,,0,0,0,0,0
3.1514,1783012157.3100,1,1,1.0000,0.0000,1.44682,0.22460,-2.77969,0.98426,1.57080,0.00001,-0.14512,-0.38002,0.04427,,,,,,,,,,,,,,,,,,,,,,,,,,0,0,0,0,0
3.1516,1783012157.3103,1,1,1.0000,0.0000,1.44682,0.22460,-2.77969,0.98426,1.57080,0.00001,-0.14512,-0.38002,0.04427,,,,,,,,,,,,,,,,,,,,,,,,,,0,0,0,0,0
3.1596,1783012157.3182,1,1,1.0000,0.0000,1.44682,0.22458,-2.77970,0.98429,1.57080,0.00001,-0.14512,-0.38002,0.04427,,,,,,,,,,,,,,,,,,,,,,,,,,0,0,0,0,0
3.1599,1783012157.3185,1,1,1.0000,0.0000,1.44682,0.22458,-2.77970,0.98429,1.57080,0.00001,-0.14512,-0.38002,0.04427,,,,,,,,,,,,,,,,,,,,,,,,,,0,0,0,0,0
3.1768,1783012157.3355,1,1,1.0000,0.0000,1.44682,0.22452,-2.77971,0.98436,1.57080,0.00001,-0.14512,-0.38002,0.04425,,,,,,,,,,,,,,,,,,,,,,,,,,0,0,0,0,0
3.1794,1783012157.3381,1,1,1.0000,0.0000,1.44682,0.22451,-2.77971,0.98437,1.57080,0.00001,-0.14512,-0.38002,0.04425,,,,,,,,,,,,,,,,,,,,,,,,,,0,0,0,0,0
3.1797,1783012157.3383,1,1,1.0000,0.0000,1.44682,0.22451,-2.77971,0.98437,1.57080,0.00001,-0.14512,-0.38002,0.04425,,,,,,,,,,,,,,,,,,,,,,,,,,0,0,0,0,0
3.1903,1783012157.3490,1,1,1.0000,0.0000,1.44682,0.22448,-2.77972,0.98441,1.57080,0.00001,-0.14512,-0.38002,0.04424,,,,,,,,,,,,,,,,,,,,,,,,,,0,0,0,0,0
3.1996,1783012157.3582,1,1,1.0000,0.0000,1.44682,0.22440,-2.77974,0.98450,1.57080,0.00001,-0.14512,-0.38002,0.04422,,,,,,,,,,,,,,,,,,,,,,,,,,0,0,0,0,0
3.2134,1783012157.3720,1,1,1.0000,0.0000,1.44682,0.22438,-2.77975,0.98454,1.57080,0.00001,-0.14512,-0.38002,0.04421,,,,,,,,,,,,,,,,,,,,,,,,,,0,0,0,0,0
3.2138,1783012157.3724,1,1,1.0000,0.0000,1.44682,0.22438,-2.77975,0.98454,1.57080,0.00001,-0.14512,-0.38002,0.04421,,,,,,,,,,,,,,,,,,,,,,,,,,0,0,0,0,0
3.2237,1783012157.3823,1,1,1.0000,0.0000,1.44682,0.22434,-2.77976,0.98459,1.57080,0.00001,-0.14512,-0.38002,0.04420,,,,,,,,,,,,,,,,,,,,,,,,,,0,0,0,0,0
3.2307,1783012157.3894,1,1,1.0000,0.0000,1.44682,0.22431,-2.77976,0.98462,1.57080,0.00001,-0.14512,-0.38002,0.04420,,,,,,,,,,,,,,,,,,,,,,,,,,0,0,0,0,0
3.2310,1783012157.3896,1,1,1.0000,0.0000,1.44682,0.22431,-2.77976,0.98462,1.57080,0.00001,-0.14512,-0.38002,0.04420,,,,,,,,,,,,,,,,,,,,,,,,,,0,0,0,0,0
3.2409,1783012157.3995,1,1,1.0000,0.0000,1.44682,0.22429,-2.77977,0.98465,1.57080,0.00001,-0.14512,-0.38002,0.04419,,,,,,,,,,,,,,,,,,,,,,,,,,0,0,0,0,0
3.2541,1783012157.4128,1,1,1.0000,0.0000,1.44682,0.22423,-2.77978,0.98472,1.57080,0.00001,-0.14512,-0.38002,0.04418,,,,,,,,,,,,,,,,,,,,,,,,,,0,0,0,0,0
3.2768,1783012157.4354,1,1,1.0000,0.0000,1.44682,0.22414,-2.77981,0.98484,1.57080,0.00001,-0.14512,-0.38002,0.04415,,,,,,,,,,,,,,,,,,,,,,,,,,0,0,0,0,0
3.2878,1783012157.4465,1,1,1.0000,0.0000,1.44682,0.22407,-2.77982,0.98492,1.57080,0.00001,-0.14512,-0.38002,0.04413,,,,,,,,,,,,,,,,,,,,,,,,,,0,0,0,0,0
3.2882,1783012157.4469,1,1,1.0000,0.0000,1.44682,0.22407,-2.77982,0.98492,1.57080,0.00001,-0.14512,-0.38002,0.04413,,,,,,,,,,,,,,,,,,,,,,,,,,0,0,0,0,0
3.2901,1783012157.4487,1,1,1.0000,0.0000,1.44682,0.22407,-2.77982,0.98492,1.57080,0.00001,-0.14512,-0.38002,0.04413,,,,,,,,,,,,,,,,,,,,,,,,,,0,0,0,0,0
3.3140,1783012157.4726,1,1,1.0000,0.0000,1.44682,0.22399,-2.77985,0.98503,1.57080,0.00001,-0.14512,-0.38002,0.04411,,,,,,,,,,,,,,,,,,,,,,,,,,0,0,0,0,0
3.3176,1783012157.4762,1,1,1.0000,0.0000,1.44682,0.22396,-2.77985,0.98506,1.57080,0.00001,-0.14512,-0.38002,0.04411,,,,,,,,,,,,,,,,,,,,,,,,,,0,0,0,0,0
3.3216,1783012157.4803,1,1,1.0000,0.0000,1.44682,0.22393,-2.77986,0.98509,1.57080,0.00001,-0.14512,-0.38002,0.04410,,,,,,,,,,,,,,,,,,,,,,,,,,0,0,0,0,0
3.3326,1783012157.4912,1,1,1.0000,0.0000,1.44682,0.22390,-2.77987,0.98513,1.57080,0.00001,-0.14512,-0.38002,0.04409,,,,,,,,,,,,,,,,,,,,,,,,,,0,0,0,0,0
3.3398,1783012157.4984,1,1,1.0000,0.0000,1.44682,0.22387,-2.77987,0.98517,1.57080,0.00001,-0.14512,-0.38002,0.04408,,,,,,,,,,,,,,,,,,,,,,,,,,0,0,0,0,0
3.3400,1783012157.4986,1,1,1.0000,0.0000,1.44682,0.22387,-2.77987,0.98517,1.57080,0.00001,-0.14512,-0.38002,0.04408,,,,,,,,,,,,,,,,,,,,,,,,,,0,0,0,0,0
3.3519,1783012157.5106,1,1,1.0000,0.0000,1.44682,0.22380,-2.77989,0.98526,1.57080,0.00001,-0.14512,-0.38002,0.04406,,,,,,,,,,,,,,,,,,,,,,,,,,0,0,0,0,0
3.3597,1783012157.5183,1,1,1.0000,0.0000,1.44682,0.22379,-2.77989,0.98527,1.57080,0.00001,-0.14512,-0.38002,0.04406,,,,,,,,,,,,,,,,,,,,,,,,,,0,0,0,0,0
3.3599,1783012157.5186,1,1,1.0000,0.0000,1.44682,0.22379,-2.77989,0.98527,1.57080,0.00001,-0.14512,-0.38002,0.04406,,,,,,,,,,,,,,,,,,,,,,,,,,0,0,0,0,0
3.3693,1783012157.5280,1,1,1.0000,0.0000,1.44682,0.22376,-2.77990,0.98531,1.57080,0.00001,-0.14512,-0.38002,0.04405,,,,,,,,,,,,,,,,,,,,,,,,,,0,0,0,0,0
3.3696,1783012157.5282,1,1,1.0000,0.0000,1.44682,0.22376,-2.77990,0.98531,1.57080,0.00001,-0.14512,-0.38002,0.04405,,,,,,,,,,,,,,,,,,,,,,,,,,0,0,0,0,0
3.3979,1783012157.5566,1,1,1.0000,0.0000,1.44682,0.22365,-2.77993,0.98545,1.57080,0.00001,-0.14512,-0.38002,0.04402,,,,,,,,,,,,,,,,,,,,,,,,,,0,0,0,0,0
3.3983,1783012157.5570,1,1,1.0000,0.0000,1.44682,0.22365,-2.77993,0.98545,1.57080,0.00001,-0.14512,-0.38002,0.04402,,,,,,,,,,,,,,,,,,,,,,,,,,0,0,0,0,0
3.4006,1783012157.5592,1,1,1.0000,0.0000,1.44682,0.22363,-2.77994,0.98548,1.57080,0.00001,-0.14512,-0.38002,0.04402,,,,,,,,,,,,,,,,,,,,,,,,,,0,0,0,0,0
3.4009,1783012157.5595,1,1,1.0000,0.0000,1.44682,0.22363,-2.77994,0.98548,1.57080,0.00001,-0.14512,-0.38002,0.04402,,,,,,,,,,,,,,,,,,,,,,,,,,0,0,0,0,0
3.4232,1783012157.5819,1,1,1.0000,0.0000,1.44682,0.22355,-2.77996,0.98558,1.57080,0.00001,-0.14512,-0.38002,0.04400,,,,,,,,,,,,,,,,,,,,,,,,,,0,0,0,0,0
3.4238,1783012157.5825,1,1,1.0000,0.0000,1.44682,0.22354,-2.77996,0.98559,1.57080,0.00001,-0.14512,-0.38002,0.04400,,,,,,,,,,,,,,,,,,,,,,,,,,0,0,0,0,0
3.4356,1783012157.5942,1,1,1.0000,0.0000,1.44682,0.22347,-2.77998,0.98568,1.57080,0.00001,-0.14512,-0.38002,0.04398,,,,,,,,,,,,,,,,,,,,,,,,,,0,0,0,0,0
3.4400,1783012157.5986,1,1,1.0000,0.0000,1.44682,0.22344,-2.77998,0.98571,1.57080,0.00001,-0.14512,-0.38002,0.04397,,,,,,,,,,,,,,,,,,,,,,,,,,0,0,0,0,0
3.4404,1783012157.5990,1,1,1.0000,0.0000,1.44682,0.22344,-2.77998,0.98571,1.57080,0.00001,-0.14512,-0.38002,0.04397,,,,,,,,,,,,,,,,,,,,,,,,,,0,0,0,0,0
3.4511,1783012157.6097,1,1,1.0000,0.0000,1.44682,0.22342,-2.77999,0.98574,1.57080,0.00001,-0.14512,-0.38002,0.04397,,,,,,,,,,,,,,,,,,,,,,,,,,0,0,0,0,0
3.4609,1783012157.6195,1,1,1.0000,0.0000,1.44682,0.22338,-2.78000,0.98578,1.57080,0.00001,-0.14512,-0.38002,0.04396,,,,,,,,,,,,,,,,,,,,,,,,,,0,0,0,0,0
3.4727,1783012157.6313,1,1,1.0000,0.0000,1.44682,0.22331,-2.78002,0.98588,1.57080,0.00001,-0.14512,-0.38002,0.04394,,,,,,,,,,,,,,,,,,,,,,,,,,0,0,0,0,0
3.4827,1783012157.6414,1,1,1.0000,0.0000,1.44682,0.22328,-2.78002,0.98591,1.57080,0.00001,-0.14512,-0.38002,0.04393,,,,,,,,,,,,,,,,,,,,,,,,,,0,0,0,0,0
3.4902,1783012157.6488,1,1,1.0000,0.0000,1.44682,0.22327,-2.78003,0.98593,1.57080,0.00001,-0.14512,-0.38002,0.04393,,,,,,,,,,,,,,,,,,,,,,,,,,0,0,0,0,0
3.4906,1783012157.6492,1,1,1.0000,0.0000,1.44682,0.22327,-2.78003,0.98593,1.57080,0.00001,-0.14512,-0.38002,0.04393,,,,,,,,,,,,,,,,,,,,,,,,,,0,0,0,0,0
3.5039,1783012157.6625,1,1,1.0000,0.0000,1.44682,0.22319,-2.78004,0.98602,1.57080,0.00001,-0.14512,-0.38002,0.04391,,,,,,,,,,,,,,,,,,,,,,,,,,0,0,0,0,0
3.5042,1783012157.6628,1,1,1.0000,0.0000,1.44682,0.22319,-2.78004,0.98602,1.57080,0.00001,-0.14512,-0.38002,0.04391,,,,,,,,,,,,,,,,,,,,,,,,,,0,0,0,0,0
3.5238,1783012157.6825,1,1,1.0000,0.0000,1.44682,0.22313,-2.78006,0.98609,1.57080,0.00001,-0.14512,-0.38002,0.04389,,,,,,,,,,,,,,,,,,,,,,,,,,0,0,0,0,0
3.5247,1783012157.6834,1,1,1.0000,0.0000,1.44682,0.22313,-2.78006,0.98609,1.57080,0.00001,-0.14512,-0.38002,0.04389,,,,,,,,,,,,,,,,,,,,,,,,,,0,0,0,0,0
3.5306,1783012157.6892,1,1,1.0000,0.0000,1.44682,0.22311,-2.78007,0.98613,1.57080,0.00001,-0.14512,-0.38002,0.04389,,,,,,,,,,,,,,,,,,,,,,,,,,0,0,0,0,0
3.5412,1783012157.6999,1,1,1.0000,0.0000,1.44682,0.22305,-2.78008,0.98619,1.57080,0.00001,-0.14512,-0.38002,0.04387,,,,,,,,,,,,,,,,,,,,,,,,,,0,0,0,0,0
3.5516,1783012157.7103,1,1,1.0000,0.0000,1.44682,0.22303,-2.78009,0.98623,1.57080,0.00001,-0.14512,-0.38002,0.04387,,,,,,,,,,,,,,,,,,,,,,,,,,0,0,0,0,0
3.5519,1783012157.7106,1,1,1.0000,0.0000,1.44682,0.22303,-2.78009,0.98623,1.57080,0.00001,-0.14512,-0.38002,0.04387,,,,,,,,,,,,,,,,,,,,,,,,,,0,0,0,0,0
3.5637,1783012157.7223,1,1,1.0000,0.0000,1.44682,0.22297,-2.78010,0.98630,1.57080,0.00001,-0.14512,-0.38002,0.04385,,,,,,,,,,,,,,,,,,,,,,,,,,0,0,0,0,0
3.5728,1783012157.7314,1,1,1.0000,0.0000,1.44682,0.22296,-2.78010,0.98631,1.57080,0.00001,-0.14512,-0.38002,0.04385,,,,,,,,,,,,,,,,,,,,,,,,,,0,0,0,0,0
3.5800,1783012157.7387,1,1,1.0000,0.0000,1.44682,0.22293,-2.78011,0.98635,1.57080,0.00001,-0.14512,-0.38002,0.04384,,,,,,,,,,,,,,,,,,,,,,,,,,0,0,0,0,0
3.5910,1783012157.7496,1,1,1.0000,0.0000,1.44682,0.22288,-2.78012,0.98641,1.57080,0.00001,-0.14512,-0.38002,0.04383,,,,,,,,,,,,,,,,,,,,,,,,,,0,0,0,0,0
3.5917,1783012157.7503,1,1,1.0000,0.0000,1.44682,0.22285,-2.78013,0.98644,1.57080,0.00001,-0.14512,-0.38002,0.04382,,,,,,,,,,,,,,,,,,,,,,,,,,0,0,0,0,0
3.6002,1783012157.7588,1,1,1.0000,0.0000,1.44682,0.22283,-2.78014,0.98648,1.57080,0.00001,-0.14512,-0.38002,0.04381,,,,,,,,,,,,,,,,,,,,,,,,,,0,0,0,0,0
3.6005,1783012157.7591,1,1,1.0000,0.0000,1.44682,0.22283,-2.78014,0.98648,1.57080,0.00001,-0.14512,-0.38002,0.04381,,,,,,,,,,,,,,,,,,,,,,,,,,0,0,0,0,0
3.6119,1783012157.7706,1,1,1.0000,0.0000,1.44682,0.22280,-2.78014,0.98651,1.57080,0.00001,-0.14512,-0.38002,0.04381,,,,,,,,,,,,,,,,,,,,,,,,,,0,0,0,0,0
3.6233,1783012157.7819,1,1,1.0000,0.0000,1.44682,0.22276,-2.78015,0.98656,1.57080,0.00001,-0.14512,-0.38002,0.04380,,,,,,,,,,,,,,,,,,,,,,,,,,0,0,0,0,0
3.6332,1783012157.7918,1,1,1.0000,0.0000,1.44682,0.22274,-2.78016,0.98659,1.57080,0.00001,-0.14512,-0.38002,0.04379,,,,,,,,,,,,,,,,,,,,,,,,,,0,0,0,0,0
3.6402,1783012157.7988,1,1,1.0000,0.0000,1.44681,0.22271,-2.78017,0.98663,1.57080,0.00001,-0.14512,-0.38002,0.04378,,,,,,,,,,,,,,,,,,,,,,,,,,0,0,0,0,0
3.6556,1783012157.8143,1,1,1.0000,0.0000,1.44681,0.22260,-2.78019,0.98676,1.57080,0.00001,-0.14512,-0.38002,0.04376,,,,,,,,,,,,,,,,,,,,,,,,,,0,0,0,0,0
3.6662,1783012157.8248,1,1,1.0000,0.0000,1.44681,0.22260,-2.78019,0.98676,1.57080,0.00001,-0.14512,-0.38002,0.04375,,,,,,,,,,,,,,,,,,,,,,,,,,0,0,0,0,0
3.6733,1783012157.8320,1,1,1.0000,0.0000,1.44681,0.22257,-2.78020,0.98680,1.57080,0.00001,-0.14512,-0.38002,0.04375,,,,,,,,,,,,,,,,,,,,,,,,,,0,0,0,0,0
3.6800,1783012157.8387,1,1,1.0000,0.0000,1.44681,0.22252,-2.78021,0.98686,1.57080,0.00001,-0.14512,-0.38002,0.04373,,,,,,,,,,,,,,,,,,,,,,,,,,0,0,0,0,0
3.6804,1783012157.8390,1,1,1.0000,0.0000,1.44681,0.22252,-2.78021,0.98686,1.57080,0.00001,-0.14512,-0.38002,0.04373,,,,,,,,,,,,,,,,,,,,,,,,,,0,0,0,0,0
3.6900,1783012157.8487,1,1,1.0000,0.0000,1.44681,0.22249,-2.78022,0.98690,1.57080,0.00001,-0.14512,-0.38002,0.04373,,,,,,,,,,,,,,,,,,,,,,,,,,0,0,0,0,0
3.7012,1783012157.8599,1,1,1.0000,0.0000,1.44681,0.22246,-2.78023,0.98694,1.57080,0.00001,-0.14512,-0.38002,0.04372,,,,,,,,,,,,,,,,,,,,,,,,,,0,0,0,0,0
3.7109,1783012157.8696,1,1,1.0000,0.0000,1.44681,0.22241,-2.78024,0.98700,1.57080,0.00001,-0.14512,-0.38002,0.04371,,,,,,,,,,,,,,,,,,,,,,,,,,0,0,0,0,0
3.7113,1783012157.8699,1,1,1.0000,0.0000,1.44681,0.22241,-2.78024,0.98700,1.57080,0.00001,-0.14512,-0.38002,0.04371,,,,,,,,,,,,,,,,,,,,,,,,,,0,0,0,0,0
3.7242,1783012157.8828,1,1,1.0000,0.0000,1.44681,0.22235,-2.78026,0.98707,1.57080,0.00001,-0.14512,-0.38002,0.04369,,,,,,,,,,,,,,,,,,,,,,,,,,0,0,0,0,0
3.7245,1783012157.8832,1,1,1.0000,0.0000,1.44681,0.22235,-2.78026,0.98707,1.57080,0.00001,-0.14512,-0.38002,0.04369,,,,,,,,,,,,,,,,,,,,,,,,,,0,0,0,0,0
3.7299,1783012157.8885,1,1,1.0000,0.0000,1.44681,0.22234,-2.78026,0.98708,1.57080,0.00001,-0.14512,-0.38002,0.04369,,,,,,,,,,,,,,,,,,,,,,,,,,0,0,0,0,0
3.7421,1783012157.9008,1,1,1.0000,0.0000,1.44681,0.22229,-2.78027,0.98715,1.57080,0.00001,-0.14512,-0.38002,0.04368,,,,,,,,,,,,,,,,,,,,,,,,,,0,0,0,0,0
3.7499,1783012157.9085,1,1,1.0000,0.0000,1.44681,0.22227,-2.78028,0.98717,1.57080,0.00001,-0.14512,-0.38002,0.04367,,,,,,,,,,,,,,,,,,,,,,,,,,0,0,0,0,0
3.7597,1783012157.9184,1,1,1.0000,0.0000,1.44681,0.22223,-2.78029,0.98722,1.57080,0.00001,-0.14512,-0.38002,0.04366,,,,,,,,,,,,,,,,,,,,,,,,,,0,0,0,0,0
3.7707,1783012157.9293,1,1,1.0000,0.0000,1.44681,0.22218,-2.78030,0.98728,1.57080,0.00001,-0.14512,-0.38002,0.04365,,,,,,,,,,,,,,,,,,,,,,,,,,0,0,0,0,0
3.7807,1783012157.9393,1,1,1.0000,0.0000,1.44681,0.22213,-2.78031,0.98735,1.57080,0.00001,-0.14512,-0.38002,0.04363,,,,,,,,,,,,,,,,,,,,,,,,,,0,0,0,0,0
3.7810,1783012157.9397,1,1,1.0000,0.0000,1.44681,0.22213,-2.78031,0.98735,1.57080,0.00001,-0.14512,-0.38002,0.04363,,,,,,,,,,,,,,,,,,,,,,,,,,0,0,0,0,0
3.7898,1783012157.9485,1,1,1.0000,0.0000,1.44681,0.22211,-2.78032,0.98737,1.57080,0.00001,-0.14512,-0.38002,0.04363,,,,,,,,,,,,,,,,,,,,,,,,,,0,0,0,0,0
3.7901,1783012157.9487,1,1,1.0000,0.0000,1.44681,0.22211,-2.78032,0.98737,1.57080,0.00001,-0.14512,-0.38002,0.04363,,,,,,,,,,,,,,,,,,,,,,,,,,0,0,0,0,0
3.8000,1783012157.9586,1,1,1.0000,0.0000,1.44681,0.22205,-2.78033,0.98745,1.57080,0.00001,-0.14512,-0.38002,0.04361,,,,,,,,,,,,,,,,,,,,,,,,,,0,0,0,0,0
3.8136,1783012157.9722,1,1,1.0000,0.0000,1.44681,0.22202,-2.78034,0.98749,1.57080,0.00001,-0.14512,-0.38002,0.04360,,,,,,,,,,,,,,,,,,,,,,,,,,0,0,0,0,0
3.8279,1783012157.9866,1,1,1.0000,0.0000,1.44681,0.22194,-2.78036,0.98759,1.57080,0.00001,-0.14512,-0.38002,0.04358,,,,,,,,,,,,,,,,,,,,,,,,,,0,0,0,0,0
3.8306,1783012157.9892,1,1,1.0000,0.0000,1.44681,0.22194,-2.78036,0.98759,1.57080,0.00001,-0.14512,-0.38002,0.04358,,,,,,,,,,,,,,,,,,,,,,,,,,0,0,0,0,0
3.8399,1783012157.9985,1,1,1.0000,0.0000,1.44681,0.22188,-2.78037,0.98766,1.57080,0.00001,-0.14512,-0.38002,0.04357,,,,,,,,,,,,,,,,,,,,,,,,,,0,0,0,0,0
3.8498,1783012158.0084,1,1,1.0000,0.0000,1.44681,0.22187,-2.78038,0.98768,1.57080,0.00001,-0.14512,-0.38002,0.04357,,,,,,,,,,,,,,,,,,,,,,,,,,0,0,0,0,0
3.8602,1783012158.0189,1,1,1.0000,0.0000,1.44681,0.22180,-2.78039,0.98776,1.57080,0.00001,-0.14512,-0.38002,0.04355,,,,,,,,,,,,,,,,,,,,,,,,,,0,0,0,0,0
3.8607,1783012158.0194,1,1,1.0000,0.0000,1.44681,0.22180,-2.78039,0.98776,1.57080,0.00001,-0.14512,-0.38002,0.04355,,,,,,,,,,,,,,,,,,,,,,,,,,0,0,0,0,0
3.8706,1783012158.0292,1,1,1.0000,0.0000,1.44681,0.22177,-2.78040,0.98779,1.57080,0.00001,-0.14512,-0.38002,0.04354,,,,,,,,,,,,,,,,,,,,,,,,,,0,0,0,0,0
3.8709,1783012158.0295,1,1,1.0000,0.0000,1.44681,0.22177,-2.78040,0.98779,1.57080,0.00001,-0.14512,-0.38002,0.04354,,,,,,,,,,,,,,,,,,,,,,,,,,0,0,0,0,0
3.8827,1783012158.0414,1,1,1.0000,0.0000,1.44681,0.22174,-2.78041,0.98784,1.57080,0.00001,-0.14512,-0.38002,0.04353,,,,,,,,,,,,,,,,,,,,,,,,,,0,0,0,0,0
3.8901,1783012158.0487,1,1,1.0000,0.0000,1.44681,0.22169,-2.78042,0.98790,1.57080,0.00001,-0.14512,-0.38002,0.04352,,,,,,,,,,,,,,,,,,,,,,,,,,0,0,0,0,0
3.8998,1783012158.0585,1,1,1.0000,0.0000,1.44681,0.22164,-2.78043,0.98796,1.57080,0.00001,-0.14512,-0.38002,0.04351,,,,,,,,,,,,,,,,,,,,,,,,,,0,0,0,0,0
3.9123,1783012158.0710,1,1,1.0000,0.0000,1.44681,0.22160,-2.78044,0.98801,1.57080,0.00001,-0.14512,-0.38002,0.04350,,,,,,,,,,,,,,,,,,,,,,,,,,0,0,0,0,0
3.9312,1783012158.0898,1,1,1.0000,0.0000,1.44681,0.22153,-2.78046,0.98810,1.57080,0.00001,-0.14512,-0.38002,0.04348,,,,,,,,,,,,,,,,,,,,,,,,,,0,0,0,0,0
3.9319,1783012158.0906,1,1,1.0000,0.0000,1.44681,0.22152,-2.78046,0.98811,1.57080,0.00001,-0.14512,-0.38002,0.04348,,,,,,,,,,,,,,,,,,,,,,,,,,0,0,0,0,0
3.9415,1783012158.1001,1,1,1.0000,0.0000,1.44681,0.22149,-2.78047,0.98815,1.57080,0.00001,-0.14512,-0.38002,0.04347,,,,,,,,,,,,,,,,,,,,,,,,,,0,0,0,0,0
3.9543,1783012158.1130,1,1,1.0000,0.0000,1.44681,0.22142,-2.78049,0.98824,1.57080,0.00001,-0.14512,-0.38002,0.04345,,,,,,,,,,,,,,,,,,,,,,,,,,0,0,0,0,0
3.9611,1783012158.1197,1,1,1.0000,0.0000,1.44681,0.22139,-2.78050,0.98827,1.57080,0.00001,-0.14512,-0.38002,0.04344,,,,,,,,,,,,,,,,,,,,,,,,,,0,0,0,0,0
3.9703,1783012158.1290,1,1,1.0000,0.0000,1.44681,0.22137,-2.78050,0.98829,1.57080,0.00001,-0.14512,-0.38002,0.04344,,,,,,,,,,,,,,,,,,,,,,,,,,0,0,0,0,0
3.9811,1783012158.1398,1,1,1.0000,0.0000,1.44681,0.22131,-2.78052,0.98838,1.57080,0.00001,-0.14512,-0.38002,0.04342,,,,,,,,,,,,,,,,,,,,,,,,,,0,0,0,0,0
3.9899,1783012158.1485,1,1,1.0000,0.0000,1.44681,0.22128,-2.78052,0.98841,1.57080,0.00001,-0.14512,-0.38002,0.04342,,,,,,,,,,,,,,,,,,,,,,,,,,0,0,0,0,0
3.9998,1783012158.1584,1,1,1.0000,0.0000,1.44681,0.22125,-2.78053,0.98845,1.57080,0.00001,-0.14512,-0.38002,0.04341,,,,,,,,,,,,,,,,,,,,,,,,,,0,0,0,0,0
4.0001,1783012158.1587,1,1,1.0000,0.0000,1.44681,0.22125,-2.78053,0.98845,1.57080,0.00001,-0.14512,-0.38002,0.04341,,,,,,,,,,,,,,,,,,,,,,,,,,0,0,0,0,0
4.0100,1783012158.1686,1,1,1.0000,0.0000,1.44681,0.22120,-2.78054,0.98851,1.57080,0.00001,-0.14512,-0.38002,0.04339,,,,,,,,,,,,,,,,,,,,,,,,,,0,0,0,0,0
4.0232,1783012158.1818,1,1,1.0000,0.0000,1.44681,0.22114,-2.78056,0.98858,1.57080,0.00001,-0.14512,-0.38002,0.04338,,,,,,,,,,,,,,,,,,,,,,,,,,0,0,0,0,0
4.0317,1783012158.1904,1,1,1.0000,0.0000,1.44681,0.22111,-2.78057,0.98862,1.57080,0.00001,-0.14512,-0.38002,0.04337,,,,,,,,,,,,,,,,,,,,,,,,,,0,0,0,0,0
4.0438,1783012158.2024,1,1,1.0000,0.0000,1.44681,0.22103,-2.78058,0.98872,1.57080,0.00001,-0.14512,-0.38002,0.04335,,,,,,,,,,,,,,,,,,,,,,,,,,0,0,0,0,0
4.0502,1783012158.2088,1,1,1.0000,0.0000,1.44681,0.22103,-2.78058,0.98872,1.57080,0.00001,-0.14512,-0.38002,0.04335,,,,,,,,,,,,,,,,,,,,,,,,,,0,0,0,0,0
4.0599,1783012158.2185,1,1,1.0000,0.0000,1.44681,0.22100,-2.78059,0.98876,1.57080,0.00001,-0.14512,-0.38002,0.04334,,,,,,,,,,,,,,,,,,,,,,,,,,0,0,0,0,0
4.0601,1783012158.2188,1,1,1.0000,0.0000,1.44681,0.22100,-2.78059,0.98876,1.57080,0.00001,-0.14512,-0.38002,0.04334,,,,,,,,,,,,,,,,,,,,,,,,,,0,0,0,0,0
4.0743,1783012158.2329,1,1,1.0000,0.0000,1.44681,0.22092,-2.78061,0.98886,1.57080,0.00001,-0.14512,-0.38002,0.04332,,,,,,,,,,,,,,,,,,,,,,,,,,0,0,0,0,0
4.0829,1783012158.2415,1,1,1.0000,0.0000,1.44681,0.22090,-2.78062,0.98889,1.57080,0.00001,-0.14512,-0.38002,0.04332,,,,,,,,,,,,,,,,,,,,,,,,,,0,0,0,0,0
4.0898,1783012158.2485,1,1,1.0000,0.0000,1.44681,0.22088,-2.78062,0.98891,1.57080,0.00001,-0.14512,-0.38002,0.04331,,,,,,,,,,,,,,,,,,,,,,,,,,0,0,0,0,0
4.1007,1783012158.2593,1,1,1.0000,0.0000,1.44681,0.22081,-2.78064,0.98899,1.57080,0.00001,-0.14512,-0.38002,0.04330,,,,,,,,,,,,,,,,,,,,,,,,,,0,0,0,0,0
4.1136,1783012158.2722,1,1,1.0000,0.0000,1.44681,0.22076,-2.78065,0.98906,1.57080,0.00001,-0.14512,-0.38002,0.04328,,,,,,,,,,,,,,,,,,,,,,,,,,0,0,0,0,0
4.1205,1783012158.2792,1,1,1.0000,0.0000,1.44681,0.22075,-2.78066,0.98907,1.57080,0.00001,-0.14512,-0.38002,0.04328,,,,,,,,,,,,,,,,,,,,,,,,,,0,0,0,0,0
4.1208,1783012158.2795,1,1,1.0000,0.0000,1.44681,0.22075,-2.78066,0.98907,1.57080,0.00001,-0.14512,-0.38002,0.04328,,,,,,,,,,,,,,,,,,,,,,,,,,0,0,0,0,0
4.1350,1783012158.2936,1,1,1.0000,0.0000,1.44681,0.22070,-2.78067,0.98914,1.57080,0.00001,-0.14512,-0.38002,0.04327,,,,,,,,,,,,,,,,,,,,,,,,,,0,0,0,0,0
4.1399,1783012158.2985,1,1,1.0000,0.0000,1.44681,0.22067,-2.78067,0.98917,1.57080,0.00001,-0.14512,-0.38002,0.04326,,,,,,,,,,,,,,,,,,,,,,,,,,0,0,0,0,0
4.1402,1783012158.2989,1,1,1.0000,0.0000,1.44681,0.22067,-2.78067,0.98917,1.57080,0.00001,-0.14512,-0.38002,0.04326,,,,,,,,,,,,,,,,,,,,,,,,,,0,0,0,0,0
4.1519,1783012158.3105,1,1,1.0000,0.0000,1.44681,0.22064,-2.78068,0.98921,1.57080,0.00001,-0.14512,-0.38002,0.04325,,,,,,,,,,,,,,,,,,,,,,,,,,0,0,0,0,0
4.1522,1783012158.3109,1,1,1.0000,0.0000,1.44681,0.22064,-2.78068,0.98921,1.57080,0.00001,-0.14512,-0.38002,0.04325,,,,,,,,,,,,,,,,,,,,,,,,,,0,0,0,0,0
4.1598,1783012158.3185,1,1,1.0000,0.0000,1.44681,0.22059,-2.78070,0.98928,1.57080,0.00001,-0.14512,-0.38002,0.04324,,,,,,,,,,,,,,,,,,,,,,,,,,0,0,0,0,0
4.1601,1783012158.3188,1,1,1.0000,0.0000,1.44681,0.22059,-2.78070,0.98928,1.57080,0.00001,-0.14512,-0.38002,0.04324,,,,,,,,,,,,,,,,,,,,,,,,,,0,0,0,0,0
4.1697,1783012158.3283,1,1,1.0000,0.0000,1.44681,0.22053,-2.78071,0.98934,1.57080,0.00001,-0.14512,-0.38002,0.04322,,,,,,,,,,,,,,,,,,,,,,,,,,0,0,0,0,0
4.1837,1783012158.3424,1,1,1.0000,0.0000,1.44681,0.22051,-2.78072,0.98937,1.57080,0.00001,-0.14512,-0.38002,0.04322,,,,,,,,,,,,,,,,,,,,,,,,,,0,0,0,0,0
4.1904,1783012158.3491,1,1,1.0000,0.0000,1.44681,0.22049,-2.78072,0.98940,1.57080,0.00001,-0.14512,-0.38002,0.04321,,,,,,,,,,,,,,,,,,,,,,,,,,0,0,0,0,0
4.1998,1783012158.3584,1,1,1.0000,0.0000,1.44681,0.22045,-2.78073,0.98945,1.57080,0.00001,-0.14512,-0.38002,0.04320,,,,,,,,,,,,,,,,,,,,,,,,,,0,0,0,0,0
4.2100,1783012158.3686,1,1,1.0000,0.0000,1.44681,0.22043,-2.78073,0.98947,1.57080,0.00001,-0.14512,-0.38002,0.04320,,,,,,,,,,,,,,,,,,,,,,,,,,0,0,0,0,0
4.2232,1783012158.3818,1,1,1.0000,0.0000,1.44681,0.22036,-2.78075,0.98956,1.57080,0.00001,-0.14512,-0.38002,0.04318,,,,,,,,,,,,,,,,,,,,,,,,,,0,0,0,0,0
4.2365,1783012158.3951,1,1,1.0000,0.0000,1.44681,0.22030,-2.78077,0.98963,1.57080,0.00001,-0.14512,-0.38002,0.04316,,,,,,,,,,,,,,,,,,,,,,,,,,0,0,0,0,0
4.2409,1783012158.3996,1,1,1.0000,0.0000,1.44681,0.22030,-2.78077,0.98964,1.57080,0.00001,-0.14512,-0.38002,0.04316,,,,,,,,,,,,,,,,,,,,,,,,,,0,0,0,0,0
4.2542,1783012158.4128,1,1,1.0000,0.0000,1.44681,0.22024,-2.78078,0.98970,1.57080,0.00001,-0.14512,-0.38002,0.04315,,,,,,,,,,,,,,,,,,,,,,,,,,0,0,0,0,0
4.2632,1783012158.4218,1,1,1.0000,0.0000,1.44681,0.22022,-2.78079,0.98973,1.57080,0.00001,-0.14512,-0.38002,0.04314,,,,,,,,,,,,,,,,,,,,,,,,,,0,0,0,0,0
4.2845,1783012158.4432,1,1,1.0000,0.0000,1.44681,0.22011,-2.78082,0.98987,1.57080,0.00001,-0.14512,-0.38002,0.04311,,,,,,,,,,,,,,,,,,,,,,,,,,0,0,0,0,0
4.2848,1783012158.4434,1,1,1.0000,0.0000,1.44681,0.22011,-2.78082,0.98987,1.57080,0.00001,-0.14512,-0.38002,0.04311,,,,,,,,,,,,,,,,,,,,,,,,,,0,0,0,0,0
4.3023,1783012158.4610,1,1,1.0000,0.0000,1.44681,0.22007,-2.78082,0.98992,1.57080,0.00001,-0.14512,-0.38002,0.04310,,,,,,,,,,,,,,,,,,,,,,,,,,0,0,0,0,0
4.3027,1783012158.4613,1,1,1.0000,0.0000,1.44681,0.22007,-2.78082,0.98992,1.57080,0.00001,-0.14512,-0.38002,0.04310,,,,,,,,,,,,,,,,,,,,,,,,,,0,0,0,0,0
4.3141,1783012158.4728,1,1,1.0000,0.0000,1.44681,0.22002,-2.78084,0.98999,1.57080,0.00001,-0.14512,-0.38002,0.04309,,,,,,,,,,,,,,,,,,,,,,,,,,0,0,0,0,0
4.3210,1783012158.4797,1,1,1.0000,0.0000,1.44681,0.21999,-2.78084,0.99002,1.57080,0.00001,-0.14512,-0.38002,0.04308,,,,,,,,,,,,,,,,,,,,,,,,,,0,0,0,0,0
4.3299,1783012158.4886,1,1,1.0000,0.0000,1.44681,0.21998,-2.78085,0.99004,1.57080,0.00001,-0.14512,-0.38002,0.04308,,,,,,,,,,,,,,,,,,,,,,,,,,0,0,0,0,0
4.3407,1783012158.4994,1,1,1.0000,0.0000,1.44681,0.21991,-2.78086,0.99012,1.57080,0.00001,-0.14512,-0.38002,0.04306,,,,,,,,,,,,,,,,,,,,,,,,,,0,0,0,0,0
4.3512,1783012158.5098,1,1,1.0000,0.0000,1.44681,0.21985,-2.78088,0.99019,1.57080,0.00001,-0.14512,-0.38002,0.04305,,,,,,,,,,,,,,,,,,,,,,,,,,0,0,0,0,0
4.3606,1783012158.5193,1,1,1.0000,0.0000,1.44681,0.21984,-2.78088,0.99021,1.57080,0.00001,-0.14512,-0.38002,0.04305,,,,,,,,,,,,,,,,,,,,,,,,,,0,0,0,0,0
4.3699,1783012158.5285,1,1,1.0000,0.0000,1.44681,0.21981,-2.78089,0.99024,1.57080,0.00001,-0.14512,-0.38002,0.04304,,,,,,,,,,,,,,,,,,,,,,,,,,0,0,0,0,0
4.3827,1783012158.5413,1,1,1.0000,0.0000,1.44681,0.21977,-2.78090,0.99030,1.57080,0.00001,-0.14512,-0.38002,0.04303,,,,,,,,,,,,,,,,,,,,,,,,,,0,0,0,0,0
4.3896,1783012158.5482,1,1,1.0000,0.0000,1.44681,0.21975,-2.78090,0.99032,1.57080,0.00001,-0.14512,-0.38002,0.04302,,,,,,,,,,,,,,,,,,,,,,,,,,0,0,0,0,0
4.3900,1783012158.5487,1,1,1.0000,0.0000,1.44681,0.21975,-2.78090,0.99032,1.57080,0.00001,-0.14512,-0.38002,0.04302,,,,,,,,,,,,,,,,,,,,,,,,,,0,0,0,0,0
4.4036,1783012158.5623,1,1,1.0000,0.0000,1.44681,0.21965,-2.78093,0.99044,1.57080,0.00001,-0.14512,-0.38002,0.04300,,,,,,,,,,,,,,,,,,,,,,,,,,0,0,0,0,0
4.4138,1783012158.5724,1,1,1.0000,0.0000,1.44681,0.21963,-2.78093,0.99047,1.57080,0.00001,-0.14512,-0.38002,0.04299,,,,,,,,,,,,,,,,,,,,,,,,,,0,0,0,0,0
4.4233,1783012158.5819,1,1,1.0000,0.0000,1.44681,0.21961,-2.78094,0.99049,1.57080,0.00001,-0.14512,-0.38002,0.04299,,,,,,,,,,,,,,,,,,,,,,,,,,0,0,0,0,0
4.4401,1783012158.5987,1,1,1.0000,0.0000,1.44681,0.21952,-2.78096,0.99061,1.57080,0.00001,-0.14512,-0.38002,0.04296,,,,,,,,,,,,,,,,,,,,,,,,,,0,0,0,0,0
4.4403,1783012158.5989,1,1,1.0000,0.0000,1.44681,0.21952,-2.78096,0.99061,1.57080,0.00001,-0.14512,-0.38002,0.04296,,,,,,,,,,,,,,,,,,,,,,,,,,0,0,0,0,0
4.4525,1783012158.6112,1,1,1.0000,0.0000,1.44681,0.21948,-2.78097,0.99066,1.57080,0.00001,-0.14512,-0.38002,0.04295,,,,,,,,,,,,,,,,,,,,,,,,,,0,0,0,0,0
4.4530,1783012158.6116,1,1,1.0000,0.0000,1.44681,0.21948,-2.78097,0.99066,1.57080,0.00001,-0.14512,-0.38002,0.04295,,,,,,,,,,,,,,,,,,,,,,,,,,0,0,0,0,0
4.4626,1783012158.6213,1,1,1.0000,0.0000,1.44681,0.21943,-2.78098,0.99072,1.57080,0.00001,-0.14512,-0.38002,0.04294,,,,,,,,,,,,,,,,,,,,,,,,,,0,0,0,0,0
4.4704,1783012158.6290,1,1,1.0000,0.0000,1.44681,0.21938,-2.78100,0.99078,1.57080,0.00001,-0.14512,-0.38002,0.04293,,,,,,,,,,,,,,,,,,,,,,,,,,0,0,0,0,0
4.4823,1783012158.6409,1,1,1.0000,0.0000,1.44681,0.21936,-2.78100,0.99080,1.57080,0.00001,-0.14512,-0.38002,0.04292,,,,,,,,,,,,,,,,,,,,,,,,,,0,0,0,0,0
4.4912,1783012158.6498,1,1,1.0000,0.0000,1.44681,0.21932,-2.78101,0.99085,1.57080,0.00001,-0.14512,-0.38002,0.04291,,,,,,,,,,,,,,,,,,,,,,,,,,0,0,0,0,0
4.5000,1783012158.6586,1,1,1.0000,0.0000,1.44681,0.21927,-2.78102,0.99092,1.57080,0.00001,-0.14512,-0.38002,0.04290,,,,,,,,,,,,,,,,,,,,,,,,,,0,0,0,0,0
4.5097,1783012158.6683,1,1,1.0000,0.0000,1.44681,0.21925,-2.78103,0.99094,1.57080,0.00001,-0.14512,-0.38002,0.04289,,,,,,,,,,,,,,,,,,,,,,,,,,0,0,0,0,0
4.5200,1783012158.6786,1,1,1.0000,0.0000,1.44681,0.21919,-2.78104,0.99102,1.57080,0.00001,-0.14512,-0.38002,0.04288,,,,,,,,,,,,,,,,,,,,,,,,,,0,0,0,0,0
4.5304,1783012158.6891,1,1,1.0000,0.0000,1.44681,0.21913,-2.78106,0.99109,1.57080,0.00001,-0.14512,-0.38002,0.04286,,,,,,,,,,,,,,,,,,,,,,,,,,0,0,0,0,0
4.5432,1783012158.7018,1,1,1.0000,0.0000,1.44681,0.21912,-2.78106,0.99111,1.57080,0.00001,-0.14512,-0.38002,0.04286,,,,,,,,,,,,,,,,,,,,,,,,,,0,0,0,0,0
4.5503,1783012158.7089,1,1,1.0000,0.0000,1.44681,0.21907,-2.78107,0.99116,1.57080,0.00001,-0.14512,-0.38002,0.04285,,,,,,,,,,,,,,,,,,,,,,,,,,0,0,0,0,0
4.5618,1783012158.7204,1,1,1.0000,0.0000,1.44681,0.21902,-2.78108,0.99123,1.57080,0.00001,-0.14512,-0.38002,0.04284,,,,,,,,,,,,,,,,,,,,,,,,,,0,0,0,0,0
4.5713,1783012158.7299,1,1,1.0000,0.0000,1.44681,0.21901,-2.78109,0.99125,1.57080,0.00001,-0.14512,-0.38002,0.04283,,,,,,,,,,,,,,,,,,,,,,,,,,0,0,0,0,0
4.5717,1783012158.7304,1,1,1.0000,0.0000,1.44681,0.21899,-2.78109,0.99127,1.57080,0.00001,-0.14512,-0.38002,0.04283,,,,,,,,,,,,,,,,,,,,,,,,,,0,0,0,0,0
4.5801,1783012158.7387,1,1,1.0000,0.0000,1.44681,0.21894,-2.78111,0.99133,1.57080,0.00001,-0.14512,-0.38002,0.04281,,,,,,,,,,,,,,,,,,,,,,,,,,0,0,0,0,0
4.5899,1783012158.7486,1,1,1.0000,0.0000,1.44681,0.21889,-2.78112,0.99140,1.57080,0.00001,-0.14512,-0.38002,0.04280,,,,,,,,,,,,,,,,,,,,,,,,,,0,0,0,0,0
4.6020,1783012158.7606,1,1,1.0000,0.0000,1.44681,0.21887,-2.78112,0.99142,1.57080,0.00001,-0.14512,-0.38002,0.04280,,,,,,,,,,,,,,,,,,,,,,,,,,0,0,0,0,0
4.6100,1783012158.7686,1,1,1.0000,0.0000,1.44681,0.21883,-2.78113,0.99147,1.57080,0.00001,-0.14512,-0.38002,0.04279,,,,,,,,,,,,,,,,,,,,,,,,,,0,0,0,0,0
4.6232,1783012158.7818,1,1,1.0000,0.0000,1.44681,0.21878,-2.78115,0.99154,1.57080,0.00001,-0.14512,-0.38002,0.04277,,,,,,,,,,,,,,,,,,,,,,,,,,0,0,0,0,0
4.6301,1783012158.7887,1,1,1.0000,0.0000,1.44681,0.21876,-2.78115,0.99156,1.57080,0.00001,-0.14512,-0.38002,0.04277,,,,,,,,,,,,,,,,,,,,,,,,,,0,0,0,0,0
4.6448,1783012158.8035,1,1,1.0000,0.0000,1.44681,0.21866,-2.78117,0.99168,1.57080,0.00001,-0.14512,-0.38002,0.04274,,,,,,,,,,,,,,,,,,,,,,,,,,0,0,0,0,0
4.6506,1783012158.8093,1,1,1.0000,0.0000,1.44681,0.21864,-2.78118,0.99171,1.57080,0.00001,-0.14512,-0.38002,0.04274,,,,,,,,,,,,,,,,,,,,,,,,,,0,0,0,0,0
4.6605,1783012158.8191,1,1,1.0000,0.0000,1.44681,0.21862,-2.78118,0.99173,1.57080,0.00001,-0.14512,-0.38002,0.04273,,,,,,,,,,,,,,,,,,,,,,,,,,0,0,0,0,0
4.6696,1783012158.8283,1,1,1.0000,0.0000,1.44681,0.21858,-2.78119,0.99178,1.57080,0.00001,-0.14512,-0.38002,0.04272,,,,,,,,,,,,,,,,,,,,,,,,,,0,0,0,0,0
4.6802,1783012158.8389,1,1,1.0000,0.0000,1.44681,0.21853,-2.78121,0.99185,1.57080,0.00001,-0.14512,-0.38002,0.04271,,,,,,,,,,,,,,,,,,,,,,,,,,0,0,0,0,0
4.6900,1783012158.8486,1,1,1.0000,0.0000,1.44681,0.21851,-2.78121,0.99187,1.57080,0.00001,-0.14512,-0.38002,0.04270,,,,,,,,,,,,,,,,,,,,,,,,,,0,0,0,0,0
4.7107,1783012158.8694,1,1,1.0000,0.0000,1.44681,0.21839,-2.78124,0.99202,1.57080,0.00001,-0.14512,-0.38002,0.04267,,,,,,,,,,,,,,,,,,,,,,,,,,0,0,0,0,0
4.7133,1783012158.8719,1,1,1.0000,0.0000,1.44681,0.21839,-2.78124,0.99202,1.57080,0.00001,-0.14512,-0.38002,0.04267,,,,,,,,,,,,,,,,,,,,,,,,,,0,0,0,0,0
4.7136,1783012158.8722,1,1,1.0000,0.0000,1.44681,0.21839,-2.78124,0.99202,1.57080,0.00001,-0.14512,-0.38002,0.04267,,,,,,,,,,,,,,,,,,,,,,,,,,0,0,0,0,0
4.7200,1783012158.8787,1,1,1.0000,0.0000,1.44681,0.21837,-2.78124,0.99204,1.57080,0.00001,-0.14512,-0.38002,0.04267,,,,,,,,,,,,,,,,,,,,,,,,,,0,0,0,0,0
4.7205,1783012158.8791,1,1,1.0000,0.0000,1.44681,0.21837,-2.78124,0.99204,1.57080,0.00001,-0.14512,-0.38002,0.04267,,,,,,,,,,,,,,,,,,,,,,,,,,0,0,0,0,0
4.7297,1783012158.8884,1,1,1.0000,0.0000,1.44681,0.21833,-2.78126,0.99209,1.57080,0.00001,-0.14512,-0.38002,0.04266,,,,,,,,,,,,,,,,,,,,,,,,,,0,0,0,0,0
4.7398,1783012158.8985,1,1,1.0000,0.0000,1.44681,0.21828,-2.78127,0.99216,1.57080,0.00001,-0.14512,-0.38002,0.04265,,,,,,,,,,,,,,,,,,,,,,,,,,0,0,0,0,0
4.7401,1783012158.8988,1,1,1.0000,0.0000,1.44681,0.21828,-2.78127,0.99216,1.57080,0.00001,-0.14512,-0.38002,0.04265,,,,,,,,,,,,,,,,,,,,,,,,,,0,0,0,0,0
4.7507,1783012158.9094,1,1,1.0000,0.0000,1.44681,0.21826,-2.78127,0.99218,1.57080,0.00001,-0.14512,-0.38002,0.04264,,,,,,,,,,,,,,,,,,,,,,,,,,0,0,0,0,0
4.7510,1783012158.9096,1,1,1.0000,0.0000,1.44681,0.21826,-2.78127,0.99218,1.57080,0.00001,-0.14512,-0.38002,0.04264,,,,,,,,,,,,,,,,,,,,,,,,,,0,0,0,0,0
4.7615,1783012158.9201,1,1,1.0000,0.0000,1.44681,0.21820,-2.78129,0.99226,1.57080,0.00001,-0.14512,-0.38002,0.04262,,,,,,,,,,,,,,,,,,,,,,,,,,0,0,0,0,0
4.7700,1783012158.9286,1,1,1.0000,0.0000,1.44681,0.21814,-2.78130,0.99233,1.57080,0.00001,-0.14512,-0.38002,0.04261,,,,,,,,,,,,,,,,,,,,,,,,,,0,0,0,0,0
4.7704,1783012158.9290,1,1,1.0000,0.0000,1.44681,0.21814,-2.78130,0.99233,1.57080,0.00001,-0.14512,-0.38002,0.04261,,,,,,,,,,,,,,,,,,,,,,,,,,0,0,0,0,0
4.7841,1783012158.9427,1,1,1.0000,0.0000,1.44681,0.21811,-2.78131,0.99237,1.57080,0.00001,-0.14512,-0.38002,0.04260,,,,,,,,,,,,,,,,,,,,,,,,,,0,0,0,0,0
4.7844,1783012158.9430,1,1,1.0000,0.0000,1.44681,0.21811,-2.78131,0.99237,1.57080,0.00001,-0.14512,-0.38002,0.04260,,,,,,,,,,,,,,,,,,,,,,,,,,0,0,0,0,0
4.7896,1783012158.9482,1,1,1.0000,0.0000,1.44681,0.21808,-2.78132,0.99240,1.57080,0.00001,-0.14512,-0.38002,0.04260,,,,,,,,,,,,,,,,,,,,,,,,,,0,0,0,0,0
4.8079,1783012158.9666,1,1,1.0000,0.0000,1.44681,0.21802,-2.78133,0.99249,1.57080,0.00001,-0.14512,-0.38002,0.04258,,,,,,,,,,,,,,,,,,,,,,,,,,0,0,0,0,0
4.8082,1783012158.9669,1,1,1.0000,0.0000,1.44681,0.21802,-2.78133,0.99249,1.57080,0.00001,-0.14512,-0.38002,0.04258,,,,,,,,,,,,,,,,,,,,,,,,,,0,0,0,0,0
4.8131,1783012158.9718,1,1,1.0000,0.0000,1.44681,0.21800,-2.78134,0.99251,1.57080,0.00001,-0.14512,-0.38002,0.04257,,,,,,,,,,,,,,,,,,,,,,,,,,0,0,0,0,0
4.8232,1783012158.9819,1,1,1.0000,0.0000,1.44681,0.21795,-2.78135,0.99257,1.57080,0.00001,-0.14512,-0.38002,0.04256,,,,,,,,,,,,,,,,,,,,,,,,,,0,0,0,0,0
4.8300,1783012158.9886,1,1,1.0000,0.0000,1.44681,0.21790,-2.78136,0.99263,1.57080,0.00001,-0.14512,-0.38002,0.04255,,,,,,,,,,,,,,,,,,,,,,,,,,0,0,0,0,0
4.8400,1783012158.9987,1,1,1.0000,0.0000,1.44681,0.21788,-2.78137,0.99266,1.57080,0.00001,-0.14512,-0.38002,0.04254,,,,,,,,,,,,,,,,,,,,,,,,,,0,0,0,0,0
4.8506,1783012159.0092,1,1,1.0000,0.0000,1.44681,0.21784,-2.78138,0.99271,1.57080,0.00001,-0.14512,-0.38002,0.04253,,,,,,,,,,,,,,,,,,,,,,,,,,0,0,0,0,0
4.8599,1783012159.0185,1,1,1.0000,0.0000,1.44681,0.21776,-2.78140,0.99281,1.57080,0.00001,-0.14512,-0.38002,0.04251,,,,,,,,,,,,,,,,,,,,,,,,,,0,0,0,0,0
4.8602,1783012159.0188,1,1,1.0000,0.0000,1.44681,0.21776,-2.78140,0.99281,1.57080,0.00001,-0.14512,-0.38002,0.04251,,,,,,,,,,,,,,,,,,,,,,,,,,0,0,0,0,0
4.8729,1783012159.0315,1,1,1.0000,0.0000,1.44681,0.21775,-2.78140,0.99282,1.57080,0.00001,-0.14512,-0.38002,0.04251,,,,,,,,,,,,,,,,,,,,,,,,,,0,0,0,0,0
4.8798,1783012159.0385,1,1,1.0000,0.0000,1.44681,0.21771,-2.78141,0.99286,1.57080,0.00001,-0.14512,-0.38002,0.04250,,,,,,,,,,,,,,,,,,,,,,,,,,0,0,0,0,0
4.8946,1783012159.0532,1,1,1.0000,0.0000,1.44681,0.21767,-2.78142,0.99291,1.57080,0.00001,-0.14512,-0.38002,0.04249,,,,,,,,,,,,,,,,,,,,,,,,,,0,0,0,0,0
4.9006,1783012159.0592,1,1,1.0000,0.0000,1.44681,0.21765,-2.78142,0.99294,1.57080,0.00001,-0.14512,-0.38002,0.04249,,,,,,,,,,,,,,,,,,,,,,,,,,0,0,0,0,0
4.9009,1783012159.0595,1,1,1.0000,0.0000,1.44681,0.21765,-2.78142,0.99294,1.57080,0.00001,-0.14512,-0.38002,0.04249,,,,,,,,,,,,,,,,,,,,,,,,,,0,0,0,0,0
4.9151,1783012159.0737,1,1,1.0000,0.0000,1.44681,0.21758,-2.78144,0.99302,1.57080,0.00001,-0.14512,-0.38002,0.04247,,,,,,,,,,,,,,,,,,,,,,,,,,0,0,0,0,0
4.9157,1783012159.0743,1,1,1.0000,0.0000,1.44681,0.21756,-2.78145,0.99306,1.57080,0.00001,-0.14512,-0.38002,0.04246,,,,,,,,,,,,,,,,,,,,,,,,,,0,0,0,0,0
4.9210,1783012159.0796,1,1,1.0000,0.0000,1.44681,0.21753,-2.78145,0.99309,1.57080,0.00001,-0.14512,-0.38002,0.04245,,,,,,,,,,,,,,,,,,,,,,,,,,0,0,0,0,0
4.9311,1783012159.0897,1,1,1.0000,0.0000,1.44681,0.21753,-2.78145,0.99309,1.57080,0.00001,-0.14512,-0.38002,0.04245,,,,,,,,,,,,,,,,,,,,,,,,,,0,0,0,0,0
4.9406,1783012159.0992,1,1,1.0000,0.0000,1.44681,0.21749,-2.78146,0.99314,1.57080,0.00001,-0.14512,-0.38002,0.04244,,,,,,,,,,,,,,,,,,,,,,,,,,0,0,0,0,0
4.9517,1783012159.1103,1,1,1.0000,0.0000,1.44681,0.21744,-2.78147,0.99320,1.57080,0.00001,-0.14512,-0.38002,0.04243,,,,,,,,,,,,,,,,,,,,,,,,,,0,0,0,0,0
4.9608,1783012159.1195,1,1,1.0000,0.0000,1.44681,0.21743,-2.78148,0.99322,1.57080,0.00001,-0.14512,-0.38002,0.04243,,,,,,,,,,,,,,,,,,,,,,,,,,0,0,0,0,0
4.9708,1783012159.1294,1,1,1.0000,0.0000,1.44681,0.21738,-2.78149,0.99327,1.57080,0.00001,-0.14512,-0.38002,0.04242,,,,,,,,,,,,,,,,,,,,,,,,,,0,0,0,0,0
4.9866,1783012159.1452,1,1,1.0000,0.0000,1.44681,0.21730,-2.78151,0.99337,1.57080,0.00001,-0.14512,-0.38002,0.04240,,,,,,,,,,,,,,,,,,,,,,,,,,0,0,0,0,0
4.9951,1783012159.1537,1,1,1.0000,0.0000,1.44681,0.21729,-2.78151,0.99339,1.57080,0.00001,-0.14512,-0.38002,0.04239,,,,,,,,,,,,,,,,,,,,,,,,,,0,0,0,0,0
5.0000,1783012159.1587,1,1,1.0000,0.0000,1.44681,0.21726,-2.78152,0.99343,1.57080,0.00001,-0.14512,-0.38002,0.04238,,,,,,,,,,,,,,,,,,,,,,,,,,0,0,0,0,0
5.0109,1783012159.1696,1,1,1.0000,0.0000,1.44681,0.21722,-2.78153,0.99348,1.57080,0.00001,-0.14512,-0.38002,0.04237,,,,,,,,,,,,,,,,,,,,,,,,,,0,0,0,0,0
5.0238,1783012159.1825,1,1,1.0000,0.0000,1.44681,0.21718,-2.78154,0.99353,1.57080,0.00001,-0.14512,-0.38002,0.04236,,,,,,,,,,,,,,,,,,,,,,,,,,0,0,0,0,0
5.0242,1783012159.1829,1,1,1.0000,0.0000,1.44681,0.21718,-2.78154,0.99353,1.57080,0.00001,-0.14512,-0.38002,0.04236,,,,,,,,,,,,,,,,,,,,,,,,,,0,0,0,0,0
5.0298,1783012159.1884,1,1,1.0000,0.0000,1.44681,0.21716,-2.78155,0.99356,1.57080,0.00001,-0.14512,-0.38002,0.04236,,,,,,,,,,,,,,,,,,,,,,,,,,0,0,0,0,0
5.0456,1783012159.2043,1,1,1.0000,0.0000,1.44681,0.21708,-2.78157,0.99366,1.57080,0.00001,-0.14512,-0.38002,0.04234,,,,,,,,,,,,,,,,,,,,,,,,,,0,0,0,0,0
5.0552,1783012159.2139,1,1,1.0000,0.0000,1.44681,0.21706,-2.78157,0.99367,1.57080,0.00001,-0.14512,-0.38002,0.04233,,,,,,,,,,,,,,,,,,,,,,,,,,0,0,0,0,0
5.0664,1783012159.2250,1,1,1.0000,0.0000,1.44681,0.21701,-2.78158,0.99374,1.57080,0.00001,-0.14512,-0.38002,0.04232,,,,,,,,,,,,,,,,,,,,,,,,,,0,0,0,0,0
5.0666,1783012159.2252,1,1,1.0000,0.0000,1.44681,0.21701,-2.78158,0.99374,1.57080,0.00001,-0.14512,-0.38002,0.04232,,,,,,,,,,,,,,,,,,,,,,,,,,0,0,0,0,0
5.0731,1783012159.2318,1,1,1.0000,0.0000,1.44681,0.21699,-2.78159,0.99376,1.57080,0.00001,-0.14512,-0.38002,0.04232,,,,,,,,,,,,,,,,,,,,,,,,,,0,0,0,0,0
5.0850,1783012159.2437,1,1,1.0000,0.0000,1.44681,0.21695,-2.78160,0.99381,1.57080,0.00001,-0.14512,-0.38002,0.04231,,,,,,,,,,,,,,,,,,,,,,,,,,0,0,0,0,0
5.0971,1783012159.2558,1,1,1.0000,0.0000,1.44681,0.21687,-2.78161,0.99391,1.57080,0.00001,-0.14512,-0.38002,0.04229,,,,,,,,,,,,,,,,,,,,,,,,,,0,0,0,0,0
5.1038,1783012159.2624,1,1,1.0000,0.0000,1.44681,0.21685,-2.78162,0.99394,1.57080,0.00001,-0.14512,-0.38002,0.04228,,,,,,,,,,,,,,,,,,,,,,,,,,0,0,0,0,0
5.1134,1783012159.2720,1,1,1.0000,0.0000,1.44681,0.21684,-2.78162,0.99396,1.57080,0.00001,-0.14512,-0.38002,0.04228,,,,,,,,,,,,,,,,,,,,,,,,,,0,0,0,0,0
5.1241,1783012159.2828,1,1,1.0000,0.0000,1.44681,0.21678,-2.78164,0.99402,1.57080,0.00001,-0.14512,-0.38002,0.04226,,,,,,,,,,,,,,,,,,,,,,,,,,0,0,0,0,0
5.1332,1783012159.2918,1,1,1.0000,0.0000,1.44681,0.21676,-2.78164,0.99405,1.57080,0.00001,-0.14512,-0.38002,0.04226,,,,,,,,,,,,,,,,,,,,,,,,,,0,0,0,0,0
5.1464,1783012159.3051,1,1,1.0000,0.0000,1.44681,0.21672,-2.78165,0.99409,1.57080,0.00001,-0.14512,-0.38002,0.04225,,,,,,,,,,,,,,,,,,,,,,,,,,0,0,0,0,0
5.1575,1783012159.3161,1,1,1.0000,0.0000,1.44681,0.21665,-2.78167,0.99419,1.57080,0.00001,-0.14512,-0.38002,0.04223,,,,,,,,,,,,,,,,,,,,,,,,,,0,0,0,0,0
5.1578,1783012159.3164,1,1,1.0000,0.0000,1.44681,0.21665,-2.78167,0.99419,1.57080,0.00001,-0.14512,-0.38002,0.04223,,,,,,,,,,,,,,,,,,,,,,,,,,0,0,0,0,0
5.1669,1783012159.3255,1,1,1.0000,0.0000,1.44681,0.21662,-2.78168,0.99422,1.57080,0.00001,-0.14512,-0.38002,0.04222,,,,,,,,,,,,,,,,,,,,,,,,,,0,0,0,0,0
5.1838,1783012159.3424,1,1,1.0000,0.0000,1.44681,0.21654,-2.78170,0.99433,1.57080,0.00001,-0.14512,-0.38002,0.04220,,,,,,,,,,,,,,,,,,,,,,,,,,0,0,0,0,0
5.2022,1783012159.3609,1,1,1.0000,0.0000,1.44681,0.21649,-2.78171,0.99438,1.57080,0.00001,-0.14512,-0.38002,0.04219,,,,,,,,,,,,,,,,,,,,,,,,,,0,0,0,0,0
5.2025,1783012159.3612,1,1,1.0000,0.0000,1.44681,0.21649,-2.78171,0.99438,1.57080,0.00001,-0.14512,-0.38002,0.04219,,,,,,,,,,,,,,,,,,,,,,,,,,0,0,0,0,0
5.2067,1783012159.3654,1,1,1.0000,0.0000,1.44681,0.21647,-2.78171,0.99441,1.57080,0.00001,-0.14512,-0.38002,0.04218,,,,,,,,,,,,,,,,,,,,,,,,,,0,0,0,0,0
5.2171,1783012159.3757,1,1,1.0000,0.0000,1.44681,0.21640,-2.78173,0.99450,1.57080,0.00001,-0.14512,-0.38002,0.04216,,,,,,,,,,,,,,,,,,,,,,,,,,0,0,0,0,0
5.2290,1783012159.3876,1,1,1.0000,0.0000,1.44681,0.21637,-2.78174,0.99454,1.57080,0.00001,-0.14512,-0.38002,0.04216,,,,,,,,,,,,,,,,,,,,,,,,,,0,0,0,0,0
5.2370,1783012159.3956,1,1,1.0000,0.0000,1.44681,0.21634,-2.78175,0.99458,1.57080,0.00001,-0.14512,-0.38002,0.04215,,,,,,,,,,,,,,,,,,,,,,,,,,0,0,0,0,0
5.2472,1783012159.4059,1,1,1.0000,0.0000,1.44681,0.21629,-2.78176,0.99464,1.57080,0.00001,-0.14512,-0.38002,0.04214,,,,,,,,,,,,,,,,,,,,,,,,,,0,0,0,0,0
5.2597,1783012159.4183,1,1,1.0000,0.0000,1.44681,0.21624,-2.78177,0.99469,1.57080,0.00001,-0.14512,-0.38002,0.04212,,,,,,,,,,,,,,,,,,,,,,,,,,0,0,0,0,0
5.2676,1783012159.4263,1,1,1.0000,0.0000,1.44681,0.21620,-2.78178,0.99474,1.57080,0.00001,-0.14512,-0.38002,0.04211,,,,,,,,,,,,,,,,,,,,,,,,,,0,0,0,0,0
5.2881,1783012159.4468,1,1,1.0000,0.0000,1.44681,0.21612,-2.78180,0.99485,1.57080,0.00001,-0.14512,-0.38002,0.04209,,,,,,,,,,,,,,,,,,,,,,,,,,0,0,0,0,0
5.2885,1783012159.4471,1,1,1.0000,0.0000,1.44681,0.21612,-2.78180,0.99485,1.57080,0.00001,-0.14512,-0.38002,0.04209,,,,,,,,,,,,,,,,,,,,,,,,,,0,0,0,0,0
5.2889,1783012159.4476,1,1,1.0000,0.0000,1.44681,0.21612,-2.78180,0.99485,1.57080,0.00001,-0.14512,-0.38002,0.04209,,,,,,,,,,,,,,,,,,,,,,,,,,0,0,0,0,0
5.3014,1783012159.4600,1,1,1.0000,0.0000,1.44681,0.21606,-2.78181,0.99492,1.57080,0.00001,-0.14512,-0.38002,0.04208,,,,,,,,,,,,,,,,,,,,,,,,,,0,0,0,0,0
5.3066,1783012159.4652,1,1,1.0000,0.0000,1.44681,0.21604,-2.78182,0.99495,1.57080,0.00001,-0.14512,-0.38002,0.04207,,,,,,,,,,,,,,,,,,,,,,,,,,0,0,0,0,0
5.3203,1783012159.4789,1,1,1.0000,0.0000,1.44681,0.21599,-2.78183,0.99500,1.57080,0.00001,-0.14512,-0.38002,0.04206,,,,,,,,,,,,,,,,,,,,,,,,,,0,0,0,0,0
5.3392,1783012159.4979,1,1,1.0000,0.0000,1.44681,0.21590,-2.78185,0.99512,1.57080,0.00001,-0.14512,-0.38002,0.04204,,,,,,,,,,,,,,,,,,,,,,,,,,0,0,0,0,0
5.3399,1783012159.4985,1,1,1.0000,0.0000,1.44681,0.21588,-2.78186,0.99515,1.57080,0.00001,-0.14512,-0.38002,0.04203,,,,,,,,,,,,,,,,,,,,,,,,,,0,0,0,0,0
5.3402,1783012159.4988,1,1,1.0000,0.0000,1.44681,0.21588,-2.78186,0.99515,1.57080,0.00001,-0.14512,-0.38002,0.04203,,,,,,,,,,,,,,,,,,,,,,,,,,0,0,0,0,0
5.3513,1783012159.5099,1,1,1.0000,0.0000,1.44681,0.21587,-2.78186,0.99516,1.57080,0.00001,-0.14512,-0.38002,0.04203,,,,,,,,,,,,,,,,,,,,,,,,,,0,0,0,0,0
5.3867,1783012159.5453,1,1,1.0000,0.0000,1.44681,0.21573,-2.78190,0.99533,1.57080,0.00001,-0.14512,-0.38002,0.04199,,,,,,,,,,,,,,,,,,,,,,,,,,0,0,0,0,0
5.3870,1783012159.5456,1,1,1.0000,0.0000,1.44681,0.21573,-2.78190,0.99533,1.57080,0.00001,-0.14512,-0.38002,0.04199,,,,,,,,,,,,,,,,,,,,,,,,,,0,0,0,0,0
5.3873,1783012159.5459,1,1,1.0000,0.0000,1.44681,0.21573,-2.78190,0.99533,1.57080,0.00001,-0.14512,-0.38002,0.04199,,,,,,,,,,,,,,,,,,,,,,,,,,0,0,0,0,0
5.3876,1783012159.5463,1,1,1.0000,0.0000,1.44681,0.21570,-2.78190,0.99536,1.57080,0.00001,-0.14512,-0.38002,0.04199,,,,,,,,,,,,,,,,,,,,,,,,,,0,0,0,0,0
5.4042,1783012159.5628,1,1,1.0000,0.0000,1.44681,0.21563,-2.78192,0.99546,1.57080,0.00001,-0.14512,-0.38002,0.04197,,,,,,,,,,,,,,,,,,,,,,,,,,0,0,0,0,0
