Martins-Lucaas/twinforge/sensors/Data/20260702_134856__samples.csv
t_rel_s,t_unix,cycle,phase,setpoint_n,force_net_n,q1,q2,q3,q4,q5,q6,tcp_x,tcp_y,tcp_z,taxel_0,taxel_1,taxel_2,taxel_3,taxel_4,taxel_5,taxel_6,taxel_7,taxel_8,taxel_9,taxel_10,taxel_11,taxel_12,taxel_13,taxel_14,taxel_15,taxel_16,taxel_17,taxel_18,taxel_19,taxel_20,taxel_21,taxel_22,taxel_23,taxel_24,n_RA,n_SA,cn_mm,cn_ra,cn_sa
0.0026,1783010936.0644,1,0,1.0000,0.0000,1.44682,0.23328,-2.77748,0.97337,1.57080,0.00000,-0.14512,-0.38003,0.04653,,,,,,,,,,,,,,,,,,,,,,,,,,0,0,0,0,0
0.0103,1783010936.0722,1,0,1.0000,0.0000,1.44682,0.23328,-2.77748,0.97337,1.57080,0.00000,-0.14512,-0.38003,0.04653,,,,,,,,,,,,,,,,,,,,,,,,,,0,0,0,0,0
0.0107,1783010936.0726,1,0,1.0000,0.0000,1.44682,0.23328,-2.77748,0.97337,1.57080,0.00000,-0.14512,-0.38003,0.04653,,,,,,,,,,,,,,,,,,,,,,,,,,0,0,0,0,0
0.0208,1783010936.0826,1,0,1.0000,0.0000,1.44682,0.23328,-2.77748,0.97337,1.57080,0.00000,-0.14512,-0.38003,0.04653,,,,,,,,,,,,,,,,,,,,,,,,,,0,0,0,0,0
0.0213,1783010936.0832,1,0,1.0000,0.0000,1.44682,0.23328,-2.77748,0.97337,1.57080,0.00000,-0.14512,-0.38003,0.04653,,,,,,,,,,,,,,,,,,,,,,,,,,0,0,0,0,0
0.0336,1783010936.0955,1,0,1.0000,0.0000,1.44682,0.23328,-2.77748,0.97337,1.57080,0.00000,-0.14512,-0.38003,0.04653,,,,,,,,,,,,,,,,,,,,,,,,,,0,0,0,0,0
0.0340,1783010936.0959,1,0,1.0000,0.0000,1.44682,0.23328,-2.77748,0.97337,1.57080,0.00000,-0.14512,-0.38003,0.04653,,,,,,,,,,,,,,,,,,,,,,,,,,0,0,0,0,0
0.0418,1783010936.1037,1,0,1.0000,0.0000,1.44682,0.23328,-2.77748,0.97337,1.57080,0.00000,-0.14512,-0.38003,0.04653,,,,,,,,,,,,,,,,,,,,,,,,,,0,0,0,0,0
0.0501,1783010936.1119,1,0,1.0000,0.0000,1.44682,0.23328,-2.77748,0.97337,1.57080,0.00000,-0.14512,-0.38003,0.04653,,,,,,,,,,,,,,,,,,,,,,,,,,0,0,0,0,0
0.0618,1783010936.1237,1,0,1.0000,0.0000,1.44682,0.23328,-2.77748,0.97337,1.57080,0.00000,-0.14512,-0.38003,0.04653,,,,,,,,,,,,,,,,,,,,,,,,,,0,0,0,0,0
0.0789,1783010936.1408,1,0,1.0000,0.0000,1.44682,0.23328,-2.77748,0.97337,1.57080,0.00000,-0.14512,-0.38003,0.04653,,,,,,,,,,,,,,,,,,,,,,,,,,0,0,0,0,0
0.0854,1783010936.1473,1,0,1.0000,0.0000,1.44682,0.23328,-2.77748,0.97337,1.57080,0.00000,-0.14512,-0.38003,0.04653,,,,,,,,,,,,,,,,,,,,,,,,,,0,0,0,0,0
0.0858,1783010936.1477,1,0,1.0000,0.0000,1.44682,0.23328,-2.77748,0.97337,1.57080,0.00000,-0.14512,-0.38003,0.04653,,,,,,,,,,,,,,,,,,,,,,,,,,0,0,0,0,0
0.0902,1783010936.1520,1,0,1.0000,0.0000,1.44682,0.23328,-2.77748,0.97337,1.57080,0.00000,-0.14512,-0.38003,0.04653,,,,,,,,,,,,,,,,,,,,,,,,,,0,0,0,0,0
0.0904,1783010936.1523,1,0,1.0000,0.0000,1.44682,0.23328,-2.77748,0.97337,1.57080,0.00000,-0.14512,-0.38003,0.04653,,,,,,,,,,,,,,,,,,,,,,,,,,0,0,0,0,0
0.1016,1783010936.1635,1,0,1.0000,0.0000,1.44682,0.23328,-2.77748,0.97337,1.57080,0.00000,-0.14512,-0.38003,0.04653,,,,,,,,,,,,,,,,,,,,,,,,,,0,0,0,0,0
0.1021,1783010936.1640,1,0,1.0000,0.0000,1.44682,0.23328,-2.77748,0.97337,1.57080,0.00000,-0.14512,-0.38003,0.04653,,,,,,,,,,,,,,,,,,,,,,,,,,0,0,0,0,0
0.1134,1783010936.1753,1,0,1.0000,0.0000,1.44682,0.23328,-2.77748,0.97337,1.57080,-0.00000,-0.14512,-0.38003,0.04653,,,,,,,,,,,,,,,,,,,,,,,,,,0,0,0,0,0
0.1234,1783010936.1853,1,0,1.0000,0.0000,1.44682,0.23328,-2.77748,0.97337,1.57080,-0.00000,-0.14512,-0.38003,0.04653,,,,,,,,,,,,,,,,,,,,,,,,,,0,0,0,0,0
0.1307,1783010936.1926,1,0,1.0000,0.0000,1.44682,0.23328,-2.77748,0.97337,1.57080,-0.00000,-0.14512,-0.38003,0.04653,,,,,,,,,,,,,,,,,,,,,,,,,,0,0,0,0,0
0.1440,1783010936.2059,1,0,1.0000,0.0000,1.44682,0.23328,-2.77748,0.97337,1.57080,-0.00000,-0.14512,-0.38003,0.04653,,,,,,,,,,,,,,,,,,,,,,,,,,0,0,0,0,0
0.1515,1783010936.2134,1,0,1.0000,0.0000,1.44682,0.23328,-2.77748,0.97337,1.57080,0.00000,-0.14512,-0.38003,0.04653,,,,,,,,,,,,,,,,,,,,,,,,,,0,0,0,0,0
0.1603,1783010936.2221,1,0,1.0000,0.0000,1.44682,0.23328,-2.77748,0.97337,1.57080,0.00000,-0.14512,-0.38003,0.04653,,,,,,,,,,,,,,,,,,,,,,,,,,0,0,0,0,0
0.1706,1783010936.2325,1,0,1.0000,0.0000,1.44682,0.23328,-2.77748,0.97337,1.57080,0.00000,-0.14512,-0.38003,0.04653,,,,,,,,,,,,,,,,,,,,,,,,,,0,0,0,0,0
0.1810,1783010936.2428,1,0,1.0000,0.0000,1.44682,0.23328,-2.77748,0.97337,1.57080,-0.00000,-0.14512,-0.38003,0.04653,,,,,,,,,,,,,,,,,,,,,,,,,,0,0,0,0,0
0.1998,1783010936.2617,1,0,1.0000,0.0000,1.44682,0.23328,-2.77748,0.97337,1.57080,-0.00000,-0.14512,-0.38003,0.04653,,,,,,,,,,,,,,,,,,,,,,,,,,0,0,0,0,0
0.2037,1783010936.2656,1,0,1.0000,0.0000,1.44682,0.23328,-2.77748,0.97337,1.57080,-0.00000,-0.14512,-0.38003,0.04653,,,,,,,,,,,,,,,,,,,,,,,,,,0,0,0,0,0
0.2040,1783010936.2659,1,0,1.0000,0.0000,1.44682,0.23328,-2.77748,0.97337,1.57080,-0.00000,-0.14512,-0.38003,0.04653,,,,,,,,,,,,,,,,,,,,,,,,,,0,0,0,0,0
0.2104,1783010936.2723,1,0,1.0000,0.0000,1.44682,0.23328,-2.77748,0.97337,1.57080,-0.00000,-0.14512,-0.38003,0.04653,,,,,,,,,,,,,,,,,,,,,,,,,,0,0,0,0,0
0.2219,1783010936.2838,1,0,1.0000,0.0000,1.44682,0.23328,-2.77748,0.97337,1.57080,0.00000,-0.14512,-0.38003,0.04653,,,,,,,,,,,,,,,,,,,,,,,,,,0,0,0,0,0
0.2382,1783010936.3001,1,0,1.0000,0.0000,1.44682,0.23328,-2.77748,0.97337,1.57080,0.00000,-0.14512,-0.38003,0.04653,,,,,,,,,,,,,,,,,,,,,,,,,,0,0,0,0,0
0.2450,1783010936.3069,1,0,1.0000,0.0000,1.44682,0.23328,-2.77748,0.97337,1.57080,0.00000,-0.14512,-0.38003,0.04653,,,,,,,,,,,,,,,,,,,,,,,,,,0,0,0,0,0
0.2552,1783010936.3171,1,0,1.0000,0.0000,1.44682,0.23328,-2.77748,0.97337,1.57080,0.00000,-0.14512,-0.38003,0.04653,,,,,,,,,,,,,,,,,,,,,,,,,,0,0,0,0,0
0.2603,1783010936.3221,1,0,1.0000,0.0000,1.44682,0.23328,-2.77748,0.97337,1.57080,0.00000,-0.14512,-0.38003,0.04653,,,,,,,,,,,,,,,,,,,,,,,,,,0,0,0,0,0
0.2607,1783010936.3226,1,0,1.0000,0.0000,1.44682,0.23328,-2.77748,0.97337,1.57080,0.00000,-0.14512,-0.38003,0.04653,,,,,,,,,,,,,,,,,,,,,,,,,,0,0,0,0,0
0.2710,1783010936.3329,1,0,1.0000,0.0000,1.44682,0.23328,-2.77748,0.97337,1.57080,0.00000,-0.14512,-0.38003,0.04653,,,,,,,,,,,,,,,,,,,,,,,,,,0,0,0,0,0
0.2713,1783010936.3332,1,0,1.0000,0.0000,1.44682,0.23328,-2.77748,0.97337,1.57080,0.00000,-0.14512,-0.38003,0.04653,,,,,,,,,,,,,,,,,,,,,,,,,,0,0,0,0,0
0.2831,1783010936.3450,1,0,1.0000,0.0000,1.44682,0.23328,-2.77748,0.97337,1.57080,0.00000,-0.14512,-0.38003,0.04653,,,,,,,,,,,,,,,,,,,,,,,,,,0,0,0,0,0
0.2834,1783010936.3453,1,0,1.0000,0.0000,1.44682,0.23328,-2.77748,0.97337,1.57080,0.00000,-0.14512,-0.38003,0.04653,,,,,,,,,,,,,,,,,,,,,,,,,,0,0,0,0,0
0.2902,1783010936.3521,1,0,1.0000,0.0000,1.44682,0.23328,-2.77748,0.97337,1.57080,0.00000,-0.14512,-0.38003,0.04653,,,,,,,,,,,,,,,,,,,,,,,,,,0,0,0,0,0
0.3010,1783010936.3629,1,0,1.0000,0.0000,1.44682,0.23328,-2.77748,0.97337,1.57080,0.00000,-0.14512,-0.38003,0.04653,,,,,,,,,,,,,,,,,,,,,,,,,,0,0,0,0,0
0.3126,1783010936.3745,1,0,1.0000,0.0000,1.44682,0.23328,-2.77748,0.97337,1.57080,0.00000,-0.14512,-0.38003,0.04653,,,,,,,,,,,,,,,,,,,,,,,,,,0,0,0,0,0
0.3134,1783010936.3753,1,0,1.0000,0.0000,1.44682,0.23328,-2.77748,0.97337,1.57080,0.00000,-0.14512,-0.38003,0.04653,,,,,,,,,,,,,,,,,,,,,,,,,,0,0,0,0,0
0.3220,1783010936.3839,1,0,1.0000,0.0000,1.44682,0.23328,-2.77748,0.97337,1.57080,0.00000,-0.14512,-0.38003,0.04653,,,,,,,,,,,,,,,,,,,,,,,,,,0,0,0,0,0
0.3223,1783010936.3842,1,0,1.0000,0.0000,1.44682,0.23328,-2.77748,0.97337,1.57080,0.00000,-0.14512,-0.38003,0.04653,,,,,,,,,,,,,,,,,,,,,,,,,,0,0,0,0,0
0.3305,1783010936.3924,1,0,1.0000,0.0000,1.44682,0.23328,-2.77748,0.97337,1.57080,0.00000,-0.14512,-0.38003,0.04653,,,,,,,,,,,,,,,,,,,,,,,,,,0,0,0,0,0
0.3308,1783010936.3926,1,0,1.0000,0.0000,1.44682,0.23328,-2.77748,0.97337,1.57080,0.00000,-0.14512,-0.38003,0.04653,,,,,,,,,,,,,,,,,,,,,,,,,,0,0,0,0,0
0.3402,1783010936.4021,1,0,1.0000,0.0000,1.44682,0.23328,-2.77748,0.97337,1.57080,0.00000,-0.14512,-0.38003,0.04653,,,,,,,,,,,,,,,,,,,,,,,,,,0,0,0,0,0
0.3405,1783010936.4024,1,0,1.0000,0.0000,1.44682,0.23328,-2.77748,0.97337,1.57080,0.00000,-0.14512,-0.38003,0.04653,,,,,,,,,,,,,,,,,,,,,,,,,,0,0,0,0,0
0.3500,1783010936.4119,1,0,1.0000,0.0000,1.44682,0.23328,-2.77748,0.97337,1.57080,0.00000,-0.14512,-0.38003,0.04653,,,,,,,,,,,,,,,,,,,,,,,,,,0,0,0,0,0
0.3503,1783010936.4122,1,0,1.0000,0.0000,1.44682,0.23328,-2.77748,0.97337,1.57080,0.00000,-0.14512,-0.38003,0.04653,,,,,,,,,,,,,,,,,,,,,,,,,,0,0,0,0,0
0.3642,1783010936.4261,1,0,1.0000,0.0000,1.44682,0.23328,-2.77748,0.97337,1.57080,0.00000,-0.14512,-0.38003,0.04653,,,,,,,,,,,,,,,,,,,,,,,,,,0,0,0,0,0
0.3646,1783010936.4265,1,0,1.0000,0.0000,1.44682,0.23328,-2.77748,0.97337,1.57080,0.00000,-0.14512,-0.38003,0.04653,,,,,,,,,,,,,,,,,,,,,,,,,,0,0,0,0,0
0.3700,1783010936.4319,1,0,1.0000,0.0000,1.44682,0.23328,-2.77748,0.97337,1.57080,0.00000,-0.14512,-0.38003,0.04653,,,,,,,,,,,,,,,,,,,,,,,,,,0,0,0,0,0
0.3703,1783010936.4322,1,0,1.0000,0.0000,1.44682,0.23328,-2.77748,0.97337,1.57080,0.00000,-0.14512,-0.38003,0.04653,,,,,,,,,,,,,,,,,,,,,,,,,,0,0,0,0,0
0.3859,1783010936.4478,1,0,1.0000,0.0000,1.44682,0.23328,-2.77748,0.97337,1.57080,0.00000,-0.14512,-0.38003,0.04653,,,,,,,,,,,,,,,,,,,,,,,,,,0,0,0,0,0
0.4111,1783010936.4730,1,0,1.0000,0.0000,1.44682,0.23328,-2.77748,0.97337,1.57080,0.00000,-0.14512,-0.38003,0.04653,,,,,,,,,,,,,,,,,,,,,,,,,,0,0,0,0,0
0.4114,1783010936.4733,1,0,1.0000,0.0000,1.44682,0.23328,-2.77748,0.97337,1.57080,0.00000,-0.14512,-0.38003,0.04653,,,,,,,,,,,,,,,,,,,,,,,,,,0,0,0,0,0
0.4126,1783010936.4745,1,0,1.0000,0.0000,1.44682,0.23328,-2.77748,0.97337,1.57080,0.00000,-0.14512,-0.38003,0.04653,,,,,,,,,,,,,,,,,,,,,,,,,,0,0,0,0,0
0.4376,1783010936.4995,1,0,1.0000,0.0000,1.44682,0.23328,-2.77748,0.97337,1.57080,0.00000,-0.14512,-0.38003,0.04653,,,,,,,,,,,,,,,,,,,,,,,,,,0,0,0,0,0
0.4567,1783010936.5186,1,0,1.0000,0.0000,1.44682,0.23328,-2.77748,0.97337,1.57080,0.00000,-0.14512,-0.38003,0.04653,,,,,,,,,,,,,,,,,,,,,,,,,,0,0,0,0,0
0.4571,1783010936.5189,1,0,1.0000,0.0000,1.44682,0.23328,-2.77748,0.97337,1.57080,0.00000,-0.14512,-0.38003,0.04653,,,,,,,,,,,,,,,,,,,,,,,,,,0,0,0,0,0
0.4576,1783010936.5194,1,0,1.0000,0.0000,1.44682,0.23328,-2.77748,0.97337,1.57080,0.00000,-0.14512,-0.38003,0.04653,,,,,,,,,,,,,,,,,,,,,,,,,,0,0,0,0,0
0.4600,1783010936.5219,1,0,1.0000,0.0000,1.44682,0.23328,-2.77748,0.97337,1.57080,0.00000,-0.14512,-0.38003,0.04653,,,,,,,,,,,,,,,,,,,,,,,,,,0,0,0,0,0
0.4605,1783010936.5224,1,0,1.0000,0.0000,1.44682,0.23328,-2.77748,0.97337,1.57080,0.00000,-0.14512,-0.38003,0.04653,,,,,,,,,,,,,,,,,,,,,,,,,,0,0,0,0,0
0.4704,1783010936.5322,1,0,1.0000,0.0000,1.44682,0.23328,-2.77748,0.97337,1.57080,0.00000,-0.14512,-0.38003,0.04653,,,,,,,,,,,,,,,,,,,,,,,,,,0,0,0,0,0
0.4876,1783010936.5495,1,0,1.0000,0.0000,1.44682,0.23328,-2.77748,0.97337,1.57080,0.00000,-0.14512,-0.38003,0.04653,,,,,,,,,,,,,,,,,,,,,,,,,,0,0,0,0,0
0.4912,1783010936.5530,1,0,1.0000,0.0000,1.44682,0.23328,-2.77748,0.97337,1.57080,0.00000,-0.14512,-0.38003,0.04653,,,,,,,,,,,,,,,,,,,,,,,,,,0,0,0,0,0
0.4915,1783010936.5533,1,0,1.0000,0.0000,1.44682,0.23328,-2.77748,0.97337,1.57080,0.00000,-0.14512,-0.38003,0.04653,,,,,,,,,,,,,,,,,,,,,,,,,,0,0,0,0,0
0.5000,1783010936.5618,1,0,1.0000,0.0000,1.44682,0.23328,-2.77748,0.97337,1.57080,0.00000,-0.14512,-0.38003,0.04653,,,,,,,,,,,,,,,,,,,,,,,,,,0,0,0,0,0
0.5005,1783010936.5623,1,0,1.0000,0.0000,1.44682,0.23328,-2.77748,0.97337,1.57080,0.00000,-0.14512,-0.38003,0.04653,,,,,,,,,,,,,,,,,,,,,,,,,,0,0,0,0,0
0.5110,1783010936.5729,1,0,1.0000,0.0000,1.44682,0.23328,-2.77748,0.97337,1.57080,0.00000,-0.14512,-0.38003,0.04653,,,,,,,,,,,,,,,,,,,,,,,,,,0,0,0,0,0
0.5204,1783010936.5823,1,0,1.0000,0.0000,1.44682,0.23328,-2.77748,0.97337,1.57080,0.00000,-0.14512,-0.38003,0.04653,,,,,,,,,,,,,,,,,,,,,,,,,,0,0,0,0,0
0.5298,1783010936.5917,1,0,1.0000,0.0000,1.44682,0.23328,-2.77748,0.97337,1.57080,0.00000,-0.14512,-0.38003,0.04653,,,,,,,,,,,,,,,,,,,,,,,,,,0,0,0,0,0
0.5301,1783010936.5920,1,0,1.0000,0.0000,1.44682,0.23328,-2.77748,0.97337,1.57080,0.00000,-0.14512,-0.38003,0.04653,,,,,,,,,,,,,,,,,,,,,,,,,,0,0,0,0,0
0.5440,1783010936.6059,1,0,1.0000,0.0000,1.44682,0.23328,-2.77748,0.97337,1.57080,0.00000,-0.14512,-0.38003,0.04653,,,,,,,,,,,,,,,,,,,,,,,,,,0,0,0,0,0
0.5444,1783010936.6062,1,0,1.0000,0.0000,1.44682,0.23328,-2.77748,0.97337,1.57080,0.00000,-0.14512,-0.38003,0.04653,,,,,,,,,,,,,,,,,,,,,,,,,,0,0,0,0,0
0.5498,1783010936.6117,1,0,1.0000,0.0000,1.44682,0.23328,-2.77748,0.97337,1.57080,0.00000,-0.14512,-0.38003,0.04653,,,,,,,,,,,,,,,,,,,,,,,,,,0,0,0,0,0
0.5501,1783010936.6120,1,0,1.0000,0.0000,1.44682,0.23328,-2.77748,0.97337,1.57080,0.00000,-0.14512,-0.38003,0.04653,,,,,,,,,,,,,,,,,,,,,,,,,,0,0,0,0,0
0.5605,1783010936.6224,1,0,1.0000,0.0000,1.44682,0.23328,-2.77748,0.97337,1.57080,0.00000,-0.14512,-0.38003,0.04653,,,,,,,,,,,,,,,,,,,,,,,,,,0,0,0,0,0
0.5703,1783010936.6322,1,0,1.0000,0.0000,1.44682,0.23328,-2.77748,0.97337,1.57080,0.00000,-0.14512,-0.38003,0.04653,,,,,,,,,,,,,,,,,,,,,,,,,,0,0,0,0,0
0.5807,1783010936.6426,1,0,1.0000,0.0000,1.44682,0.23328,-2.77748,0.97337,1.57080,0.00000,-0.14512,-0.38003,0.04653,,,,,,,,,,,,,,,,,,,,,,,,,,0,0,0,0,0
0.5924,1783010936.6542,1,0,1.0000,0.0000,1.44682,0.23328,-2.77748,0.97337,1.57080,0.00000,-0.14512,-0.38003,0.04653,,,,,,,,,,,,,,,,,,,,,,,,,,0,0,0,0,0
0.6005,1783010936.6624,1,0,1.0000,0.0000,1.44682,0.23328,-2.77748,0.97337,1.57080,0.00000,-0.14512,-0.38003,0.04653,,,,,,,,,,,,,,,,,,,,,,,,,,0,0,0,0,0
0.6104,1783010936.6723,1,0,1.0000,0.0000,1.44682,0.23328,-2.77748,0.97337,1.57080,0.00000,-0.14512,-0.38003,0.04653,,,,,,,,,,,,,,,,,,,,,,,,,,0,0,0,0,0
0.6248,1783010936.6867,1,0,1.0000,0.0000,1.44682,0.23328,-2.77748,0.97337,1.57080,0.00000,-0.14512,-0.38003,0.04653,,,,,,,,,,,,,,,,,,,,,,,,,,0,0,0,0,0
0.6300,1783010936.6919,1,0,1.0000,0.0000,1.44682,0.23328,-2.77748,0.97337,1.57080,0.00000,-0.14512,-0.38003,0.04653,,,,,,,,,,,,,,,,,,,,,,,,,,0,0,0,0,0
0.6304,1783010936.6923,1,0,1.0000,0.0000,1.44682,0.23328,-2.77748,0.97337,1.57080,0.00000,-0.14512,-0.38003,0.04653,,,,,,,,,,,,,,,,,,,,,,,,,,0,0,0,0,0
0.6402,1783010936.7020,1,0,1.0000,0.0000,1.44682,0.23328,-2.77748,0.97337,1.57080,0.00000,-0.14512,-0.38003,0.04653,,,,,,,,,,,,,,,,,,,,,,,,,,0,0,0,0,0
0.6502,1783010936.7121,1,0,1.0000,0.0000,1.44682,0.23328,-2.77748,0.97337,1.57080,0.00000,-0.14512,-0.38003,0.04653,,,,,,,,,,,,,,,,,,,,,,,,,,0,0,0,0,0
0.6606,1783010936.7225,1,0,1.0000,0.0000,1.44682,0.23328,-2.77748,0.97337,1.57080,0.00000,-0.14512,-0.38003,0.04653,,,,,,,,,,,,,,,,,,,,,,,,,,0,0,0,0,0
0.6711,1783010936.7330,1,0,1.0000,0.0000,1.44682,0.23328,-2.77748,0.97337,1.57080,0.00000,-0.14512,-0.38003,0.04653,,,,,,,,,,,,,,,,,,,,,,,,,,0,0,0,0,0
0.6819,1783010936.7438,1,0,1.0000,0.0000,1.44682,0.23328,-2.77748,0.97337,1.57080,0.00000,-0.14512,-0.38003,0.04653,,,,,,,,,,,,,,,,,,,,,,,,,,0,0,0,0,0
0.6928,1783010936.7547,1,0,1.0000,0.0000,1.44682,0.23328,-2.77748,0.97337,1.57080,0.00000,-0.14512,-0.38003,0.04653,,,,,,,,,,,,,,,,,,,,,,,,,,0,0,0,0,0
0.7045,1783010936.7664,1,0,1.0000,0.0000,1.44682,0.23328,-2.77748,0.97337,1.57080,0.00000,-0.14512,-0.38003,0.04653,,,,,,,,,,,,,,,,,,,,,,,,,,0,0,0,0,0
0.7112,1783010936.7731,1,0,1.0000,0.0000,1.44682,0.23328,-2.77748,0.97337,1.57080,0.00000,-0.14512,-0.38003,0.04653,,,,,,,,,,,,,,,,,,,,,,,,,,0,0,0,0,0
0.7203,1783010936.7822,1,0,1.0000,0.0000,1.44682,0.23328,-2.77748,0.97337,1.57080,0.00000,-0.14512,-0.38003,0.04653,,,,,,,,,,,,,,,,,,,,,,,,,,0,0,0,0,0
0.7306,1783010936.7925,1,1,1.0000,0.0000,1.44682,0.23328,-2.77748,0.97337,1.57080,0.00000,-0.14512,-0.38003,0.04653,,,,,,,,,,,,,,,,,,,,,,,,,,0,0,0,0,0
0.7410,1783010936.8029,1,1,1.0000,0.0000,1.44682,0.23328,-2.77748,0.97337,1.57080,0.00000,-0.14512,-0.38003,0.04653,,,,,,,,,,,,,,,,,,,,,,,,,,0,0,0,0,0
0.7509,1783010936.8127,1,1,1.0000,0.0000,1.44682,0.23328,-2.77748,0.97337,1.57080,0.00000,-0.14512,-0.38003,0.04653,,,,,,,,,,,,,,,,,,,,,,,,,,0,0,0,0,0
0.7626,1783010936.8245,1,1,1.0000,0.0000,1.44682,0.23328,-2.77748,0.97337,1.57080,0.00000,-0.14512,-0.38003,0.04653,,,,,,,,,,,,,,,,,,,,,,,,,,0,0,0,0,0
0.7720,1783010936.8339,1,1,1.0000,0.0000,1.44682,0.23328,-2.77748,0.97337,1.57080,0.00000,-0.14512,-0.38003,0.04653,,,,,,,,,,,,,,,,,,,,,,,,,,0,0,0,0,0
0.7849,1783010936.8468,1,1,1.0000,0.0000,1.44682,0.23328,-2.77748,0.97337,1.57080,0.00000,-0.14512,-0.38003,0.04653,,,,,,,,,,,,,,,,,,,,,,,,,,0,0,0,0,0
0.7947,1783010936.8566,1,1,1.0000,0.0000,1.44682,0.23328,-2.77748,0.97337,1.57080,0.00000,-0.14512,-0.38003,0.04653,,,,,,,,,,,,,,,,,,,,,,,,,,0,0,0,0,0
0.8003,1783010936.8622,1,1,1.0000,0.0000,1.44682,0.23328,-2.77748,0.97337,1.57080,0.00000,-0.14512,-0.38003,0.04653,,,,,,,,,,,,,,,,,,,,,,,,,,0,0,0,0,0
0.8181,1783010936.8800,1,1,1.0000,0.0000,1.44682,0.23328,-2.77748,0.97337,1.57080,0.00000,-0.14512,-0.38003,0.04653,,,,,,,,,,,,,,,,,,,,,,,,,,0,0,0,0,0
0.8201,1783010936.8820,1,1,1.0000,0.0000,1.44682,0.23328,-2.77748,0.97337,1.57080,0.00000,-0.14512,-0.38003,0.04653,,,,,,,,,,,,,,,,,,,,,,,,,,0,0,0,0,0
0.8205,1783010936.8824,1,1,1.0000,0.0000,1.44682,0.23328,-2.77748,0.97337,1.57080,0.00000,-0.14512,-0.38003,0.04653,,,,,,,,,,,,,,,,,,,,,,,,,,0,0,0,0,0
0.8362,1783010936.8981,1,1,1.0000,0.0000,1.44682,0.23328,-2.77748,0.97337,1.57080,0.00000,-0.14512,-0.38003,0.04653,,,,,,,,,,,,,,,,,,,,,,,,,,0,0,0,0,0
0.8419,1783010936.9038,1,1,1.0000,0.0000,1.44682,0.23328,-2.77748,0.97337,1.57080,0.00000,-0.14512,-0.38003,0.04653,,,,,,,,,,,,,,,,,,,,,,,,,,0,0,0,0,0
0.8422,1783010936.9041,1,1,1.0000,0.0000,1.44682,0.23328,-2.77748,0.97337,1.57080,0.00000,-0.14512,-0.38003,0.04653,,,,,,,,,,,,,,,,,,,,,,,,,,0,0,0,0,0
0.8549,1783010936.9167,1,1,1.0000,0.0000,1.44682,0.23328,-2.77748,0.97337,1.57080,0.00000,-0.14512,-0.38003,0.04653,,,,,,,,,,,,,,,,,,,,,,,,,,0,0,0,0,0
0.8607,1783010936.9226,1,1,1.0000,0.0000,1.44682,0.23328,-2.77748,0.97337,1.57080,0.00000,-0.14512,-0.38003,0.04653,,,,,,,,,,,,,,,,,,,,,,,,,,0,0,0,0,0
0.8703,1783010936.9321,1,1,1.0000,0.0000,1.44682,0.23328,-2.77748,0.97337,1.57080,0.00000,-0.14512,-0.38003,0.04653,,,,,,,,,,,,,,,,,,,,,,,,,,0,0,0,0,0
0.8804,1783010936.9423,1,1,1.0000,0.0000,1.44682,0.23328,-2.77748,0.97337,1.57080,0.00000,-0.14512,-0.38003,0.04653,,,,,,,,,,,,,,,,,,,,,,,,,,0,0,0,0,0
0.8935,1783010936.9554,1,1,1.0000,0.0000,1.44682,0.23328,-2.77748,0.97337,1.57080,0.00000,-0.14512,-0.38003,0.04653,,,,,,,,,,,,,,,,,,,,,,,,,,0,0,0,0,0
0.9109,1783010936.9728,1,1,1.0000,0.0000,1.44682,0.23328,-2.77748,0.97337,1.57080,0.00000,-0.14512,-0.38003,0.04653,,,,,,,,,,,,,,,,,,,,,,,,,,0,0,0,0,0
0.9113,1783010936.9732,1,1,1.0000,0.0000,1.44682,0.23328,-2.77748,0.97337,1.57080,0.00000,-0.14512,-0.38003,0.04653,,,,,,,,,,,,,,,,,,,,,,,,,,0,0,0,0,0
0.9217,1783010936.9836,1,1,1.0000,0.0000,1.44682,0.23328,-2.77748,0.97337,1.57080,0.00000,-0.14512,-0.38003,0.04653,,,,,,,,,,,,,,,,,,,,,,,,,,0,0,0,0,0
0.9400,1783010937.0019,1,1,1.0000,0.0000,1.44682,0.23321,-2.77750,0.97346,1.57080,0.00000,-0.14512,-0.38003,0.04651,,,,,,,,,,,,,,,,,,,,,,,,,,0,0,0,0,0
0.9420,1783010937.0039,1,1,1.0000,0.0000,1.44682,0.23318,-2.77750,0.97350,1.57080,0.00000,-0.14512,-0.38003,0.04650,,,,,,,,,,,,,,,,,,,,,,,,,,0,0,0,0,0
0.9423,1783010937.0042,1,1,1.0000,0.0000,1.44682,0.23318,-2.77750,0.97350,1.57080,0.00000,-0.14512,-0.38003,0.04650,,,,,,,,,,,,,,,,,,,,,,,,,,0,0,0,0,0
0.9426,1783010937.0045,1,1,1.0000,0.0000,1.44682,0.23318,-2.77750,0.97350,1.57080,0.00000,-0.14512,-0.38003,0.04650,,,,,,,,,,,,,,,,,,,,,,,,,,0,0,0,0,0
0.9500,1783010937.0119,1,1,1.0000,0.0000,1.44682,0.23315,-2.77751,0.97354,1.57080,0.00000,-0.14512,-0.38003,0.04649,,,,,,,,,,,,,,,,,,,,,,,,,,0,0,0,0,0
0.9504,1783010937.0122,1,1,1.0000,0.0000,1.44682,0.23315,-2.77751,0.97354,1.57080,0.00000,-0.14512,-0.38003,0.04649,,,,,,,,,,,,,,,,,,,,,,,,,,0,0,0,0,0
0.9629,1783010937.0248,1,1,1.0000,0.0000,1.44682,0.23311,-2.77752,0.97358,1.57080,0.00000,-0.14512,-0.38003,0.04648,,,,,,,,,,,,,,,,,,,,,,,,,,0,0,0,0,0
0.9632,1783010937.0251,1,1,1.0000,0.0000,1.44682,0.23311,-2.77752,0.97358,1.57080,0.00000,-0.14512,-0.38003,0.04648,,,,,,,,,,,,,,,,,,,,,,,,,,0,0,0,0,0
0.9703,1783010937.0322,1,1,1.0000,0.0000,1.44682,0.23307,-2.77753,0.97364,1.57080,0.00000,-0.14512,-0.38003,0.04647,,,,,,,,,,,,,,,,,,,,,,,,,,0,0,0,0,0
0.9706,1783010937.0325,1,1,1.0000,0.0000,1.44682,0.23307,-2.77753,0.97364,1.57080,0.00000,-0.14512,-0.38003,0.04647,,,,,,,,,,,,,,,,,,,,,,,,,,0,0,0,0,0
0.9808,1783010937.0427,1,1,1.0000,0.0000,1.44682,0.23302,-2.77754,0.97370,1.57080,0.00000,-0.14512,-0.38003,0.04646,,,,,,,,,,,,,,,,,,,,,,,,,,0,0,0,0,0
0.9959,1783010937.0577,1,1,1.0000,0.0000,1.44682,0.23299,-2.77755,0.97373,1.57080,0.00000,-0.14512,-0.38003,0.04645,,,,,,,,,,,,,,,,,,,,,,,,,,0,0,0,0,0
1.0017,1783010937.0636,1,1,1.0000,0.0000,1.44682,0.23295,-2.77756,0.97378,1.57080,0.00000,-0.14512,-0.38003,0.04644,,,,,,,,,,,,,,,,,,,,,,,,,,0,0,0,0,0
1.0107,1783010937.0725,1,1,1.0000,0.0000,1.44682,0.23293,-2.77757,0.97381,1.57080,0.00000,-0.14512,-0.38003,0.04644,,,,,,,,,,,,,,,,,,,,,,,,,,0,0,0,0,0
1.0231,1783010937.0850,1,1,1.0000,0.0000,1.44682,0.23289,-2.77758,0.97385,1.57080,0.00000,-0.14512,-0.38003,0.04643,,,,,,,,,,,,,,,,,,,,,,,,,,0,0,0,0,0
1.0299,1783010937.0918,1,1,1.0000,0.0000,1.44682,0.23284,-2.77759,0.97391,1.57080,0.00000,-0.14512,-0.38003,0.04641,,,,,,,,,,,,,,,,,,,,,,,,,,0,0,0,0,0
1.0303,1783010937.0922,1,1,1.0000,0.0000,1.44682,0.23284,-2.77759,0.97391,1.57080,0.00000,-0.14512,-0.38003,0.04641,,,,,,,,,,,,,,,,,,,,,,,,,,0,0,0,0,0
1.0479,1783010937.1097,1,1,1.0000,0.0000,1.44682,0.23279,-2.77760,0.97399,1.57080,0.00000,-0.14512,-0.38003,0.04640,,,,,,,,,,,,,,,,,,,,,,,,,,0,0,0,0,0
1.0979,1783010937.1598,1,1,1.0000,0.0000,1.44682,0.23255,-2.77766,0.97428,1.57080,0.00000,-0.14512,-0.38003,0.04634,,,,,,,,,,,,,,,,,,,,,,,,,,0,0,0,0,0
1.0983,1783010937.1602,1,1,1.0000,0.0000,1.44682,0.23255,-2.77766,0.97428,1.57080,0.00000,-0.14512,-0.38003,0.04634,,,,,,,,,,,,,,,,,,,,,,,,,,0,0,0,0,0
1.0985,1783010937.1604,1,1,1.0000,0.0000,1.44682,0.23255,-2.77766,0.97428,1.57080,0.00000,-0.14512,-0.38003,0.04634,,,,,,,,,,,,,,,,,,,,,,,,,,0,0,0,0,0
1.0988,1783010937.1607,1,1,1.0000,0.0000,1.44682,0.23255,-2.77766,0.97428,1.57080,0.00000,-0.14512,-0.38003,0.04634,,,,,,,,,,,,,,,,,,,,,,,,,,0,0,0,0,0
1.1024,1783010937.1643,1,1,1.0000,0.0000,1.44682,0.23255,-2.77766,0.97428,1.57080,0.00000,-0.14512,-0.38003,0.04634,,,,,,,,,,,,,,,,,,,,,,,,,,0,0,0,0,0
1.1152,1783010937.1771,1,1,1.0000,0.0000,1.44682,0.23251,-2.77767,0.97433,1.57080,0.00000,-0.14512,-0.38003,0.04633,,,,,,,,,,,,,,,,,,,,,,,,,,0,0,0,0,0
1.1220,1783010937.1839,1,1,1.0000,0.0000,1.44682,0.23247,-2.77769,0.97439,1.57080,0.00000,-0.14512,-0.38003,0.04632,,,,,,,,,,,,,,,,,,,,,,,,,,0,0,0,0,0
1.1348,1783010937.1967,1,1,1.0000,0.0000,1.44682,0.23244,-2.77769,0.97443,1.57080,0.00000,-0.14512,-0.38003,0.04631,,,,,,,,,,,,,,,,,,,,,,,,,,0,0,0,0,0
1.1403,1783010937.2022,1,1,1.0000,0.0000,1.44682,0.23242,-2.77770,0.97444,1.57080,0.00000,-0.14512,-0.38003,0.04630,,,,,,,,,,,,,,,,,,,,,,,,,,0,0,0,0,0
1.1407,1783010937.2026,1,1,1.0000,0.0000,1.44682,0.23242,-2.77770,0.97444,1.57080,0.00000,-0.14512,-0.38003,0.04630,,,,,,,,,,,,,,,,,,,,,,,,,,0,0,0,0,0
1.1506,1783010937.2125,1,1,1.0000,0.0000,1.44682,0.23236,-2.77771,0.97453,1.57080,0.00000,-0.14512,-0.38003,0.04629,,,,,,,,,,,,,,,,,,,,,,,,,,0,0,0,0,0
1.1607,1783010937.2226,1,1,1.0000,0.0000,1.44682,0.23231,-2.77773,0.97459,1.57080,0.00000,-0.14512,-0.38003,0.04627,,,,,,,,,,,,,,,,,,,,,,,,,,0,0,0,0,0
1.1743,1783010937.2362,1,1,1.0000,0.0000,1.44682,0.23227,-2.77774,0.97463,1.57080,0.00000,-0.14512,-0.38003,0.04626,,,,,,,,,,,,,,,,,,,,,,,,,,0,0,0,0,0
1.1804,1783010937.2423,1,1,1.0000,0.0000,1.44682,0.23225,-2.77774,0.97466,1.57080,0.00000,-0.14512,-0.38003,0.04626,,,,,,,,,,,,,,,,,,,,,,,,,,0,0,0,0,0
1.1939,1783010937.2558,1,1,1.0000,0.0000,1.44682,0.23219,-2.77776,0.97473,1.57080,0.00000,-0.14512,-0.38003,0.04624,,,,,,,,,,,,,,,,,,,,,,,,,,0,0,0,0,0
1.2055,1783010937.2674,1,1,1.0000,0.0000,1.44682,0.23214,-2.77777,0.97480,1.57080,0.00000,-0.14512,-0.38003,0.04623,,,,,,,,,,,,,,,,,,,,,,,,,,0,0,0,0,0
1.2060,1783010937.2679,1,1,1.0000,0.0000,1.44682,0.23214,-2.77777,0.97480,1.57080,0.00000,-0.14512,-0.38003,0.04623,,,,,,,,,,,,,,,,,,,,,,,,,,0,0,0,0,0
1.2156,1783010937.2775,1,1,1.0000,0.0000,1.44682,0.23209,-2.77778,0.97486,1.57080,0.00000,-0.14512,-0.38003,0.04622,,,,,,,,,,,,,,,,,,,,,,,,,,0,0,0,0,0
1.2238,1783010937.2857,1,1,1.0000,0.0000,1.44682,0.23206,-2.77779,0.97489,1.57080,0.00000,-0.14512,-0.38003,0.04621,,,,,,,,,,,,,,,,,,,,,,,,,,0,0,0,0,0
1.2328,1783010937.2946,1,1,1.0000,0.0000,1.44682,0.23205,-2.77779,0.97492,1.57080,0.00000,-0.14512,-0.38003,0.04621,,,,,,,,,,,,,,,,,,,,,,,,,,0,0,0,0,0
1.2330,1783010937.2949,1,1,1.0000,0.0000,1.44682,0.23205,-2.77779,0.97492,1.57080,0.00000,-0.14512,-0.38003,0.04621,,,,,,,,,,,,,,,,,,,,,,,,,,0,0,0,0,0
1.2525,1783010937.3144,1,1,1.0000,0.0000,1.44682,0.23196,-2.77782,0.97503,1.57080,0.00000,-0.14512,-0.38003,0.04618,,,,,,,,,,,,,,,,,,,,,,,,,,0,0,0,0,0
1.2530,1783010937.3149,1,1,1.0000,0.0000,1.44682,0.23196,-2.77782,0.97503,1.57080,0.00000,-0.14512,-0.38003,0.04618,,,,,,,,,,,,,,,,,,,,,,,,,,0,0,0,0,0
1.2578,1783010937.3197,1,1,1.0000,0.0000,1.44682,0.23194,-2.77782,0.97505,1.57080,0.00000,-0.14512,-0.38003,0.04618,,,,,,,,,,,,,,,,,,,,,,,,,,0,0,0,0,0
1.2622,1783010937.3240,1,1,1.0000,0.0000,1.44682,0.23192,-2.77783,0.97508,1.57080,0.00000,-0.14512,-0.38003,0.04617,,,,,,,,,,,,,,,,,,,,,,,,,,0,0,0,0,0
1.2817,1783010937.3436,1,1,1.0000,0.0000,1.44682,0.23182,-2.77785,0.97520,1.57080,0.00000,-0.14512,-0.38003,0.04615,,,,,,,,,,,,,,,,,,,,,,,,,,0,0,0,0,0
1.2821,1783010937.3439,1,1,1.0000,0.0000,1.44682,0.23182,-2.77785,0.97520,1.57080,0.00000,-0.14512,-0.38003,0.04615,,,,,,,,,,,,,,,,,,,,,,,,,,0,0,0,0,0
1.2824,1783010937.3443,1,1,1.0000,0.0000,1.44682,0.23182,-2.77785,0.97520,1.57080,0.00000,-0.14512,-0.38003,0.04615,,,,,,,,,,,,,,,,,,,,,,,,,,0,0,0,0,0
1.2907,1783010937.3526,1,1,1.0000,0.0000,1.44682,0.23181,-2.77786,0.97522,1.57080,0.00000,-0.14512,-0.38003,0.04614,,,,,,,,,,,,,,,,,,,,,,,,,,0,0,0,0,0
1.3031,1783010937.3650,1,1,1.0000,0.0000,1.44682,0.23174,-2.77787,0.97530,1.57080,0.00000,-0.14512,-0.38003,0.04613,,,,,,,,,,,,,,,,,,,,,,,,,,0,0,0,0,0
1.3167,1783010937.3786,1,1,1.0000,0.0000,1.44682,0.23171,-2.77788,0.97534,1.57080,0.00000,-0.14512,-0.38003,0.04612,,,,,,,,,,,,,,,,,,,,,,,,,,0,0,0,0,0
1.3261,1783010937.3880,1,1,1.0000,0.0000,1.44682,0.23166,-2.77789,0.97541,1.57080,0.00000,-0.14512,-0.38003,0.04610,,,,,,,,,,,,,,,,,,,,,,,,,,0,0,0,0,0
1.3342,1783010937.3961,1,1,1.0000,0.0000,1.44682,0.23160,-2.77791,0.97547,1.57080,0.00000,-0.14512,-0.38003,0.04609,,,,,,,,,,,,,,,,,,,,,,,,,,0,0,0,0,0
1.3483,1783010937.4102,1,1,1.0000,0.0000,1.44682,0.23157,-2.77792,0.97551,1.57080,0.00000,-0.14512,-0.38003,0.04608,,,,,,,,,,,,,,,,,,,,,,,,,,0,0,0,0,0
1.3547,1783010937.4166,1,1,1.0000,0.0000,1.44682,0.23154,-2.77792,0.97555,1.57080,0.00000,-0.14512,-0.38003,0.04607,,,,,,,,,,,,,,,,,,,,,,,,,,0,0,0,0,0
1.3675,1783010937.4294,1,1,1.0000,0.0000,1.44682,0.23147,-2.77794,0.97564,1.57080,0.00000,-0.14512,-0.38003,0.04606,,,,,,,,,,,,,,,,,,,,,,,,,,0,0,0,0,0
1.3783,1783010937.4402,1,1,1.0000,0.0000,1.44682,0.23145,-2.77795,0.97566,1.57080,0.00000,-0.14512,-0.38003,0.04605,,,,,,,,,,,,,,,,,,,,,,,,,,0,0,0,0,0
1.3849,1783010937.4468,1,1,1.0000,0.0000,1.44682,0.23144,-2.77795,0.97569,1.57080,0.00000,-0.14512,-0.38003,0.04605,,,,,,,,,,,,,,,,,,,,,,,,,,0,0,0,0,0
1.3943,1783010937.4562,1,1,1.0000,0.0000,1.44682,0.23136,-2.77797,0.97578,1.57080,0.00000,-0.14512,-0.38003,0.04603,,,,,,,,,,,,,,,,,,,,,,,,,,0,0,0,0,0
1.4094,1783010937.4712,1,1,1.0000,0.0000,1.44682,0.23132,-2.77798,0.97583,1.57080,0.00000,-0.14512,-0.38003,0.04602,,,,,,,,,,,,,,,,,,,,,,,,,,0,0,0,0,0
1.4166,1783010937.4785,1,1,1.0000,0.0000,1.44682,0.23130,-2.77799,0.97585,1.57080,0.00000,-0.14512,-0.38003,0.04601,,,,,,,,,,,,,,,,,,,,,,,,,,0,0,0,0,0
1.4294,1783010937.4913,1,1,1.0000,0.0000,1.44682,0.23120,-2.77801,0.97598,1.57080,0.00000,-0.14512,-0.38003,0.04599,,,,,,,,,,,,,,,,,,,,,,,,,,0,0,0,0,0
1.4347,1783010937.4966,1,1,1.0000,0.0000,1.44682,0.23120,-2.77801,0.97598,1.57080,0.00000,-0.14512,-0.38003,0.04599,,,,,,,,,,,,,,,,,,,,,,,,,,0,0,0,0,0
1.4446,1783010937.5064,1,1,1.0000,0.0000,1.44682,0.23119,-2.77801,0.97599,1.57080,0.00000,-0.14512,-0.38003,0.04598,,,,,,,,,,,,,,,,,,,,,,,,,,0,0,0,0,0
1.4547,1783010937.5166,1,1,1.0000,0.0000,1.44682,0.23114,-2.77803,0.97606,1.57080,0.00000,-0.14512,-0.38003,0.04597,,,,,,,,,,,,,,,,,,,,,,,,,,0,0,0,0,0
1.4659,1783010937.5278,1,1,1.0000,0.0000,1.44682,0.23111,-2.77803,0.97609,1.57080,0.00000,-0.14512,-0.38003,0.04596,,,,,,,,,,,,,,,,,,,,,,,,,,0,0,0,0,0
1.4759,1783010937.5378,1,1,1.0000,0.0000,1.44682,0.23108,-2.77804,0.97613,1.57080,0.00000,-0.14512,-0.38003,0.04595,,,,,,,,,,,,,,,,,,,,,,,,,,0,0,0,0,0
1.4857,1783010937.5475,1,1,1.0000,0.0000,1.44682,0.23100,-2.77806,0.97623,1.57080,0.00000,-0.14512,-0.38003,0.04593,,,,,,,,,,,,,,,,,,,,,,,,,,0,0,0,0,0
1.4862,1783010937.5481,1,1,1.0000,0.0000,1.44682,0.23100,-2.77806,0.97623,1.57080,0.00000,-0.14512,-0.38003,0.04593,,,,,,,,,,,,,,,,,,,,,,,,,,0,0,0,0,0
1.4994,1783010937.5613,1,1,1.0000,0.0000,1.44682,0.23098,-2.77807,0.97626,1.57080,0.00000,-0.14512,-0.38003,0.04593,,,,,,,,,,,,,,,,,,,,,,,,,,0,0,0,0,0
1.5063,1783010937.5682,1,1,1.0000,0.0000,1.44682,0.23095,-2.77808,0.97629,1.57080,0.00000,-0.14512,-0.38003,0.04592,,,,,,,,,,,,,,,,,,,,,,,,,,0,0,0,0,0
1.5066,1783010937.5685,1,1,1.0000,0.0000,1.44682,0.23095,-2.77808,0.97629,1.57080,0.00000,-0.14512,-0.38003,0.04592,,,,,,,,,,,,,,,,,,,,,,,,,,0,0,0,0,0
1.5170,1783010937.5788,1,1,1.0000,0.0000,1.44682,0.23092,-2.77809,0.97634,1.57080,0.00000,-0.14512,-0.38003,0.04591,,,,,,,,,,,,,,,,,,,,,,,,,,0,0,0,0,0
1.5249,1783010937.5868,1,1,1.0000,0.0000,1.44682,0.23089,-2.77809,0.97637,1.57080,0.00000,-0.14512,-0.38003,0.04590,,,,,,,,,,,,,,,,,,,,,,,,,,0,0,0,0,0
1.5350,1783010937.5969,1,1,1.0000,0.0000,1.44682,0.23086,-2.77810,0.97641,1.57080,0.00000,-0.14512,-0.38003,0.04590,,,,,,,,,,,,,,,,,,,,,,,,,,0,0,0,0,0
1.5446,1783010937.6064,1,1,1.0000,0.0000,1.44682,0.23081,-2.77811,0.97647,1.57080,0.00000,-0.14512,-0.38003,0.04588,,,,,,,,,,,,,,,,,,,,,,,,,,0,0,0,0,0
1.5543,1783010937.6162,1,1,1.0000,0.0000,1.44682,0.23076,-2.77813,0.97654,1.57080,0.00000,-0.14512,-0.38003,0.04587,,,,,,,,,,,,,,,,,,,,,,,,,,0,0,0,0,0
1.5645,1783010937.6264,1,1,1.0000,0.0000,1.44682,0.23074,-2.77813,0.97656,1.57080,0.00000,-0.14512,-0.38003,0.04587,,,,,,,,,,,,,,,,,,,,,,,,,,0,0,0,0,0
1.5649,1783010937.6268,1,1,1.0000,0.0000,1.44682,0.23074,-2.77813,0.97656,1.57080,0.00000,-0.14512,-0.38003,0.04587,,,,,,,,,,,,,,,,,,,,,,,,,,0,0,0,0,0
1.5779,1783010937.6398,1,1,1.0000,0.0000,1.44682,0.23067,-2.77815,0.97665,1.57080,0.00000,-0.14512,-0.38003,0.04585,,,,,,,,,,,,,,,,,,,,,,,,,,0,0,0,0,0
1.5782,1783010937.6401,1,1,1.0000,0.0000,1.44682,0.23067,-2.77815,0.97665,1.57080,0.00000,-0.14512,-0.38003,0.04585,,,,,,,,,,,,,,,,,,,,,,,,,,0,0,0,0,0
1.5844,1783010937.6463,1,1,1.0000,0.0000,1.44682,0.23067,-2.77815,0.97665,1.57080,0.00000,-0.14512,-0.38003,0.04585,,,,,,,,,,,,,,,,,,,,,,,,,,0,0,0,0,0
1.5990,1783010937.6609,1,1,1.0000,0.0000,1.44682,0.23061,-2.77816,0.97672,1.57080,0.00000,-0.14512,-0.38003,0.04583,,,,,,,,,,,,,,,,,,,,,,,,,,0,0,0,0,0
1.5993,1783010937.6612,1,1,1.0000,0.0000,1.44682,0.23061,-2.77816,0.97672,1.57080,0.00000,-0.14512,-0.38003,0.04583,,,,,,,,,,,,,,,,,,,,,,,,,,0,0,0,0,0
1.6049,1783010937.6668,1,1,1.0000,0.0000,1.44682,0.23058,-2.77817,0.97675,1.57080,0.00000,-0.14512,-0.38003,0.04582,,,,,,,,,,,,,,,,,,,,,,,,,,0,0,0,0,0
1.6197,1783010937.6816,1,1,1.0000,0.0000,1.44682,0.23053,-2.77818,0.97683,1.57080,0.00000,-0.14512,-0.38003,0.04581,,,,,,,,,,,,,,,,,,,,,,,,,,0,0,0,0,0
1.6246,1783010937.6865,1,1,1.0000,0.0000,1.44682,0.23052,-2.77819,0.97684,1.57080,0.00000,-0.14512,-0.38003,0.04581,,,,,,,,,,,,,,,,,,,,,,,,,,0,0,0,0,0
1.6255,1783010937.6873,1,1,1.0000,0.0000,1.44682,0.23050,-2.77819,0.97686,1.57080,0.00000,-0.14512,-0.38003,0.04580,,,,,,,,,,,,,,,,,,,,,,,,,,0,0,0,0,0
1.6342,1783010937.6961,1,1,1.0000,0.0000,1.44682,0.23045,-2.77820,0.97692,1.57080,0.00000,-0.14512,-0.38003,0.04579,,,,,,,,,,,,,,,,,,,,,,,,,,0,0,0,0,0
1.6443,1783010937.7062,1,1,1.0000,0.0000,1.44682,0.23042,-2.77821,0.97696,1.57080,0.00000,-0.14512,-0.38003,0.04578,,,,,,,,,,,,,,,,,,,,,,,,,,0,0,0,0,0
1.6544,1783010937.7162,1,1,1.0000,0.0000,1.44682,0.23039,-2.77822,0.97700,1.57080,0.00000,-0.14512,-0.38003,0.04577,,,,,,,,,,,,,,,,,,,,,,,,,,0,0,0,0,0
1.6678,1783010937.7297,1,1,1.0000,0.0000,1.44682,0.23031,-2.77824,0.97709,1.57080,0.00000,-0.14512,-0.38003,0.04575,,,,,,,,,,,,,,,,,,,,,,,,,,0,0,0,0,0
1.6760,1783010937.7379,1,1,1.0000,0.0000,1.44682,0.23029,-2.77825,0.97713,1.57080,0.00000,-0.14512,-0.38003,0.04575,,,,,,,,,,,,,,,,,,,,,,,,,,0,0,0,0,0
1.6841,1783010937.7460,1,1,1.0000,0.0000,1.44682,0.23027,-2.77825,0.97715,1.57080,0.00000,-0.14512,-0.38003,0.04574,,,,,,,,,,,,,,,,,,,,,,,,,,0,0,0,0,0
1.6953,1783010937.7572,1,1,1.0000,0.0000,1.44682,0.23021,-2.77827,0.97723,1.57080,0.00000,-0.14512,-0.38003,0.04573,,,,,,,,,,,,,,,,,,,,,,,,,,0,0,0,0,0
1.7057,1783010937.7676,1,1,1.0000,0.0000,1.44682,0.23018,-2.77827,0.97727,1.57080,0.00000,-0.14512,-0.38003,0.04572,,,,,,,,,,,,,,,,,,,,,,,,,,0,0,0,0,0
1.7163,1783010937.7782,1,1,1.0000,0.0000,1.44682,0.23015,-2.77828,0.97731,1.57080,0.00000,-0.14512,-0.38003,0.04571,,,,,,,,,,,,,,,,,,,,,,,,,,0,0,0,0,0
1.7243,1783010937.7862,1,1,1.0000,0.0000,1.44682,0.23010,-2.77829,0.97737,1.57080,0.00000,-0.14512,-0.38003,0.04570,,,,,,,,,,,,,,,,,,,,,,,,,,0,0,0,0,0
1.7350,1783010937.7969,1,1,1.0000,0.0000,1.44682,0.23005,-2.77831,0.97743,1.57080,0.00000,-0.14512,-0.38003,0.04568,,,,,,,,,,,,,,,,,,,,,,,,,,0,0,0,0,0
1.7461,1783010937.8080,1,1,1.0000,0.0000,1.44682,0.23001,-2.77832,0.97748,1.57080,0.00000,-0.14512,-0.38003,0.04567,,,,,,,,,,,,,,,,,,,,,,,,,,0,0,0,0,0
1.7677,1783010937.8295,1,1,1.0000,0.0000,1.44682,0.22993,-2.77834,0.97757,1.57080,0.00000,-0.14512,-0.38003,0.04565,,,,,,,,,,,,,,,,,,,,,,,,,,0,0,0,0,0
1.7679,1783010937.8298,1,1,1.0000,0.0000,1.44682,0.22993,-2.77834,0.97757,1.57080,0.00000,-0.14512,-0.38003,0.04565,,,,,,,,,,,,,,,,,,,,,,,,,,0,0,0,0,0
1.7756,1783010937.8375,1,1,1.0000,0.0000,1.44682,0.22990,-2.77834,0.97761,1.57080,0.00000,-0.14512,-0.38003,0.04565,,,,,,,,,,,,,,,,,,,,,,,,,,0,0,0,0,0
1.7861,1783010937.8479,1,1,1.0000,0.0000,1.44682,0.22983,-2.77836,0.97771,1.57080,0.00000,-0.14512,-0.38003,0.04563,,,,,,,,,,,,,,,,,,,,,,,,,,0,0,0,0,0
1.7978,1783010937.8597,1,1,1.0000,0.0000,1.44682,0.22980,-2.77837,0.97774,1.57080,0.00000,-0.14512,-0.38003,0.04562,,,,,,,,,,,,,,,,,,,,,,,,,,0,0,0,0,0
1.8105,1783010937.8724,1,1,1.0000,0.0000,1.44682,0.22974,-2.77839,0.97781,1.57080,0.00000,-0.14512,-0.38003,0.04561,,,,,,,,,,,,,,,,,,,,,,,,,,0,0,0,0,0
1.8109,1783010937.8728,1,1,1.0000,0.0000,1.44682,0.22974,-2.77839,0.97781,1.57080,0.00000,-0.14512,-0.38003,0.04561,,,,,,,,,,,,,,,,,,,,,,,,,,0,0,0,0,0
1.8195,1783010937.8814,1,1,1.0000,0.0000,1.44682,0.22969,-2.77840,0.97787,1.57080,0.00000,-0.14512,-0.38003,0.04559,,,,,,,,,,,,,,,,,,,,,,,,,,0,0,0,0,0
1.8316,1783010937.8935,1,1,1.0000,0.0000,1.44682,0.22968,-2.77840,0.97790,1.57080,0.00000,-0.14512,-0.38003,0.04559,,,,,,,,,,,,,,,,,,,,,,,,,,0,0,0,0,0
1.8345,1783010937.8964,1,1,1.0000,0.0000,1.44682,0.22966,-2.77841,0.97792,1.57080,0.00000,-0.14512,-0.38003,0.04558,,,,,,,,,,,,,,,,,,,,,,,,,,0,0,0,0,0
1.8447,1783010937.9066,1,1,1.0000,0.0000,1.44682,0.22961,-2.77842,0.97798,1.57080,0.00000,-0.14512,-0.38003,0.04557,,,,,,,,,,,,,,,,,,,,,,,,,,0,0,0,0,0
1.8557,1783010937.9176,1,1,1.0000,0.0000,1.44682,0.22956,-2.77843,0.97804,1.57080,0.00000,-0.14512,-0.38003,0.04556,,,,,,,,,,,,,,,,,,,,,,,,,,0,0,0,0,0
1.8698,1783010937.9317,1,1,1.0000,0.0000,1.44682,0.22950,-2.77845,0.97812,1.57080,0.00000,-0.14512,-0.38003,0.04554,,,,,,,,,,,,,,,,,,,,,,,,,,0,0,0,0,0
1.8702,1783010937.9321,1,1,1.0000,0.0000,1.44682,0.22950,-2.77845,0.97812,1.57080,0.00000,-0.14512,-0.38003,0.04554,,,,,,,,,,,,,,,,,,,,,,,,,,0,0,0,0,0
1.8767,1783010937.9386,1,1,1.0000,0.0000,1.44682,0.22948,-2.77845,0.97815,1.57080,0.00000,-0.14512,-0.38003,0.04554,,,,,,,,,,,,,,,,,,,,,,,,,,0,0,0,0,0
1.8774,1783010937.9393,1,1,1.0000,0.0000,1.44682,0.22945,-2.77846,0.97818,1.57080,0.00000,-0.14512,-0.38003,0.04553,,,,,,,,,,,,,,,,,,,,,,,,,,0,0,0,0,0
1.8862,1783010937.9481,1,1,1.0000,0.0000,1.44682,0.22945,-2.77846,0.97819,1.57080,0.00000,-0.14512,-0.38003,0.04553,,,,,,,,,,,,,,,,,,,,,,,,,,0,0,0,0,0
1.8945,1783010937.9563,1,1,1.0000,0.0000,1.44682,0.22941,-2.77847,0.97822,1.57080,0.00000,-0.14512,-0.38003,0.04552,,,,,,,,,,,,,,,,,,,,,,,,,,0,0,0,0,0
1.9045,1783010937.9664,1,1,1.0000,0.0000,1.44682,0.22937,-2.77848,0.97828,1.57080,0.00000,-0.14512,-0.38003,0.04551,,,,,,,,,,,,,,,,,,,,,,,,,,0,0,0,0,0
1.9049,1783010937.9668,1,1,1.0000,0.0000,1.44682,0.22937,-2.77848,0.97828,1.57080,0.00000,-0.14512,-0.38003,0.04551,,,,,,,,,,,,,,,,,,,,,,,,,,0,0,0,0,0
1.9162,1783010937.9781,1,1,1.0000,0.0000,1.44682,0.22932,-2.77849,0.97835,1.57080,0.00000,-0.14512,-0.38003,0.04549,,,,,,,,,,,,,,,,,,,,,,,,,,0,0,0,0,0
1.9267,1783010937.9886,1,1,1.0000,0.0000,1.44682,0.22928,-2.77850,0.97839,1.57080,0.00000,-0.14512,-0.38003,0.04548,,,,,,,,,,,,,,,,,,,,,,,,,,0,0,0,0,0
1.9398,1783010938.0017,1,1,1.0000,0.0000,1.44682,0.22921,-2.77852,0.97849,1.57080,0.00000,-0.14512,-0.38003,0.04547,,,,,,,,,,,,,,,,,,,,,,,,,,0,0,0,0,0
1.9456,1783010938.0075,1,1,1.0000,0.0000,1.44682,0.22920,-2.77852,0.97849,1.57080,0.00000,-0.14512,-0.38003,0.04546,,,,,,,,,,,,,,,,,,,,,,,,,,0,0,0,0,0
1.9459,1783010938.0078,1,1,1.0000,0.0000,1.44682,0.22920,-2.77852,0.97849,1.57080,0.00000,-0.14512,-0.38003,0.04546,,,,,,,,,,,,,,,,,,,,,,,,,,0,0,0,0,0
1.9540,1783010938.0159,1,1,1.0000,0.0000,1.44682,0.22917,-2.77853,0.97853,1.57080,0.00000,-0.14512,-0.38003,0.04546,,,,,,,,,,,,,,,,,,,,,,,,,,0,0,0,0,0
1.9545,1783010938.0163,1,1,1.0000,0.0000,1.44682,0.22917,-2.77853,0.97853,1.57080,0.00000,-0.14512,-0.38003,0.04546,,,,,,,,,,,,,,,,,,,,,,,,,,0,0,0,0,0
1.9690,1783010938.0308,1,1,1.0000,0.0000,1.44682,0.22910,-2.77855,0.97862,1.57080,0.00000,-0.14512,-0.38003,0.04544,,,,,,,,,,,,,,,,,,,,,,,,,,0,0,0,0,0
2.0056,1783010938.0675,1,1,1.0000,0.0000,1.44682,0.22894,-2.77859,0.97882,1.57080,0.00000,-0.14512,-0.38003,0.04540,,,,,,,,,,,,,,,,,,,,,,,,,,0,0,0,0,0
2.0058,1783010938.0677,1,1,1.0000,0.0000,1.44682,0.22894,-2.77859,0.97882,1.57080,0.00000,-0.14512,-0.38003,0.04540,,,,,,,,,,,,,,,,,,,,,,,,,,0,0,0,0,0
2.0061,1783010938.0679,1,1,1.0000,0.0000,1.44682,0.22894,-2.77859,0.97882,1.57080,0.00000,-0.14512,-0.38003,0.04540,,,,,,,,,,,,,,,,,,,,,,,,,,0,0,0,0,0
2.0063,1783010938.0682,1,1,1.0000,0.0000,1.44682,0.22894,-2.77859,0.97882,1.57080,0.00000,-0.14512,-0.38003,0.04540,,,,,,,,,,,,,,,,,,,,,,,,,,0,0,0,0,0
2.0142,1783010938.0761,1,1,1.0000,0.0000,1.44682,0.22892,-2.77859,0.97884,1.57080,0.00000,-0.14512,-0.38003,0.04539,,,,,,,,,,,,,,,,,,,,,,,,,,0,0,0,0,0
2.0145,1783010938.0764,1,1,1.0000,0.0000,1.44682,0.22892,-2.77859,0.97884,1.57080,0.00000,-0.14512,-0.38003,0.04539,,,,,,,,,,,,,,,,,,,,,,,,,,0,0,0,0,0
2.0255,1783010938.0873,1,1,1.0000,0.0000,1.44682,0.22887,-2.77861,0.97890,1.57080,0.00000,-0.14512,-0.38003,0.04538,,,,,,,,,,,,,,,,,,,,,,,,,,0,0,0,0,0
2.0342,1783010938.0961,1,1,1.0000,0.0000,1.44682,0.22885,-2.77861,0.97893,1.57080,0.00000,-0.14512,-0.38003,0.04537,,,,,,,,,,,,,,,,,,,,,,,,,,0,0,0,0,0
2.0489,1783010938.1108,1,1,1.0000,0.0000,1.44682,0.22881,-2.77862,0.97898,1.57080,0.00000,-0.14512,-0.38003,0.04536,,,,,,,,,,,,,,,,,,,,,,,,,,0,0,0,0,0
2.0548,1783010938.1167,1,1,1.0000,0.0000,1.44682,0.22877,-2.77864,0.97904,1.57080,0.00000,-0.14512,-0.38003,0.04535,,,,,,,,,,,,,,,,,,,,,,,,,,0,0,0,0,0
2.0663,1783010938.1281,1,1,1.0000,0.0000,1.44682,0.22871,-2.77865,0.97911,1.57080,0.00000,-0.14512,-0.38003,0.04534,,,,,,,,,,,,,,,,,,,,,,,,,,0,0,0,0,0
2.0753,1783010938.1372,1,1,1.0000,0.0000,1.44682,0.22870,-2.77865,0.97912,1.57080,0.00000,-0.14512,-0.38003,0.04533,,,,,,,,,,,,,,,,,,,,,,,,,,0,0,0,0,0
2.0848,1783010938.1467,1,1,1.0000,0.0000,1.44682,0.22867,-2.77866,0.97916,1.57080,0.00000,-0.14512,-0.38003,0.04533,,,,,,,,,,,,,,,,,,,,,,,,,,0,0,0,0,0
2.0949,1783010938.1568,1,1,1.0000,0.0000,1.44682,0.22863,-2.77867,0.97921,1.57080,0.00000,-0.14512,-0.38003,0.04531,,,,,,,,,,,,,,,,,,,,,,,,,,0,0,0,0,0
2.1063,1783010938.1682,1,1,1.0000,0.0000,1.44682,0.22859,-2.77868,0.97926,1.57080,0.00000,-0.14512,-0.38003,0.04531,,,,,,,,,,,,,,,,,,,,,,,,,,0,0,0,0,0
2.1148,1783010938.1767,1,1,1.0000,0.0000,1.44682,0.22854,-2.77869,0.97932,1.57080,0.00000,-0.14512,-0.38003,0.04529,,,,,,,,,,,,,,,,,,,,,,,,,,0,0,0,0,0
2.1259,1783010938.1878,1,1,1.0000,0.0000,1.44682,0.22849,-2.77871,0.97939,1.57080,0.00000,-0.14512,-0.38003,0.04528,,,,,,,,,,,,,,,,,,,,,,,,,,0,0,0,0,0
2.1344,1783010938.1963,1,1,1.0000,0.0000,1.44682,0.22848,-2.77871,0.97940,1.57080,0.00000,-0.14512,-0.38003,0.04528,,,,,,,,,,,,,,,,,,,,,,,,,,0,0,0,0,0
2.1443,1783010938.2061,1,1,1.0000,0.0000,1.44682,0.22845,-2.77872,0.97944,1.57080,0.00000,-0.14512,-0.38003,0.04527,,,,,,,,,,,,,,,,,,,,,,,,,,0,0,0,0,0
2.1447,1783010938.2066,1,1,1.0000,0.0000,1.44682,0.22845,-2.77872,0.97944,1.57080,0.00000,-0.14512,-0.38003,0.04527,,,,,,,,,,,,,,,,,,,,,,,,,,0,0,0,0,0
2.1540,1783010938.2158,1,1,1.0000,0.0000,1.44682,0.22840,-2.77873,0.97949,1.57080,0.00000,-0.14512,-0.38003,0.04526,,,,,,,,,,,,,,,,,,,,,,,,,,0,0,0,0,0
2.1683,1783010938.2301,1,1,1.0000,0.0000,1.44682,0.22837,-2.77874,0.97954,1.57080,0.00000,-0.14512,-0.38003,0.04525,,,,,,,,,,,,,,,,,,,,,,,,,,0,0,0,0,0
2.1743,1783010938.2361,1,1,1.0000,0.0000,1.44682,0.22832,-2.77875,0.97960,1.57080,0.00000,-0.14512,-0.38003,0.04523,,,,,,,,,,,,,,,,,,,,,,,,,,0,0,0,0,0
2.1746,1783010938.2364,1,1,1.0000,0.0000,1.44682,0.22832,-2.77875,0.97960,1.57080,0.00000,-0.14512,-0.38003,0.04523,,,,,,,,,,,,,,,,,,,,,,,,,,0,0,0,0,0
2.1863,1783010938.2482,1,1,1.0000,0.0000,1.44682,0.22827,-2.77876,0.97967,1.57080,0.00000,-0.14512,-0.38003,0.04522,,,,,,,,,,,,,,,,,,,,,,,,,,0,0,0,0,0
2.1940,1783010938.2559,1,1,1.0000,0.0000,1.44682,0.22825,-2.77877,0.97968,1.57080,0.00000,-0.14512,-0.38003,0.04522,,,,,,,,,,,,,,,,,,,,,,,,,,0,0,0,0,0
2.1944,1783010938.2563,1,1,1.0000,0.0000,1.44682,0.22825,-2.77877,0.97968,1.57080,0.00000,-0.14512,-0.38003,0.04522,,,,,,,,,,,,,,,,,,,,,,,,,,0,0,0,0,0
2.2048,1783010938.2667,1,1,1.0000,0.0000,1.44682,0.22822,-2.77877,0.97972,1.57080,0.00000,-0.14512,-0.38003,0.04521,,,,,,,,,,,,,,,,,,,,,,,,,,0,0,0,0,0
2.2242,1783010938.2861,1,1,1.0000,0.0000,1.44682,0.22816,-2.77879,0.97980,1.57080,0.00000,-0.14512,-0.38003,0.04519,,,,,,,,,,,,,,,,,,,,,,,,,,0,0,0,0,0
2.2407,1783010938.3026,1,1,1.0000,0.0000,1.44682,0.22807,-2.77881,0.97992,1.57080,0.00000,-0.14512,-0.38003,0.04517,,,,,,,,,,,,,,,,,,,,,,,,,,0,0,0,0,0
2.2414,1783010938.3033,1,1,1.0000,0.0000,1.44682,0.22804,-2.77882,0.97995,1.57080,0.00000,-0.14512,-0.38003,0.04516,,,,,,,,,,,,,,,,,,,,,,,,,,0,0,0,0,0
2.2416,1783010938.3035,1,1,1.0000,0.0000,1.44682,0.22804,-2.77882,0.97995,1.57080,0.00000,-0.14512,-0.38003,0.04516,,,,,,,,,,,,,,,,,,,,,,,,,,0,0,0,0,0
2.2478,1783010938.3097,1,1,1.0000,0.0000,1.44682,0.22804,-2.77882,0.97995,1.57080,0.00000,-0.14512,-0.38003,0.04516,,,,,,,,,,,,,,,,,,,,,,,,,,0,0,0,0,0
2.2543,1783010938.3162,1,1,1.0000,0.0000,1.44682,0.22803,-2.77882,0.97996,1.57080,0.00000,-0.14512,-0.38003,0.04516,,,,,,,,,,,,,,,,,,,,,,,,,,0,0,0,0,0
2.2643,1783010938.3261,1,1,1.0000,0.0000,1.44682,0.22800,-2.77883,0.98000,1.57080,0.00000,-0.14512,-0.38003,0.04515,,,,,,,,,,,,,,,,,,,,,,,,,,0,0,0,0,0
2.2758,1783010938.3377,1,1,1.0000,0.0000,1.44682,0.22796,-2.77884,0.98005,1.57080,0.00000,-0.14512,-0.38003,0.04514,,,,,,,,,,,,,,,,,,,,,,,,,,0,0,0,0,0
2.2895,1783010938.3513,1,1,1.0000,0.0000,1.44682,0.22790,-2.77886,0.98013,1.57080,0.00000,-0.14512,-0.38003,0.04512,,,,,,,,,,,,,,,,,,,,,,,,,,0,0,0,0,0
2.2967,1783010938.3586,1,1,1.0000,0.0000,1.44682,0.22787,-2.77886,0.98016,1.57080,0.00000,-0.14512,-0.38003,0.04512,,,,,,,,,,,,,,,,,,,,,,,,,,0,0,0,0,0
2.3263,1783010938.3881,1,1,1.0000,0.0000,1.44682,0.22775,-2.77889,0.98031,1.57080,0.00000,-0.14512,-0.38003,0.04509,,,,,,,,,,,,,,,,,,,,,,,,,,0,0,0,0,0
2.3265,1783010938.3884,1,1,1.0000,0.0000,1.44682,0.22775,-2.77889,0.98031,1.57080,0.00000,-0.14512,-0.38003,0.04509,,,,,,,,,,,,,,,,,,,,,,,,,,0,0,0,0,0
2.3307,1783010938.3926,1,1,1.0000,0.0000,1.44682,0.22773,-2.77890,0.98034,1.57080,0.00000,-0.14512,-0.38003,0.04508,,,,,,,,,,,,,,,,,,,,,,,,,,0,0,0,0,0
2.3381,1783010938.4000,1,1,1.0000,0.0000,1.44682,0.22773,-2.77890,0.98034,1.57080,0.00000,-0.14512,-0.38003,0.04508,,,,,,,,,,,,,,,,,,,,,,,,,,0,0,0,0,0
2.3451,1783010938.4069,1,1,1.0000,0.0000,1.44682,0.22771,-2.77890,0.98036,1.57080,0.00000,-0.14512,-0.38003,0.04508,,,,,,,,,,,,,,,,,,,,,,,,,,0,0,0,0,0
2.3543,1783010938.4162,1,1,1.0000,0.0000,1.44682,0.22765,-2.77892,0.98044,1.57080,0.00000,-0.14512,-0.38003,0.04506,,,,,,,,,,,,,,,,,,,,,,,,,,0,0,0,0,0
2.3647,1783010938.4266,1,1,1.0000,0.0000,1.44682,0.22759,-2.77893,0.98051,1.57080,0.00000,-0.14512,-0.38003,0.04505,,,,,,,,,,,,,,,,,,,,,,,,,,0,0,0,0,0
2.3761,1783010938.4380,1,1,1.0000,0.0000,1.44682,0.22758,-2.77894,0.98052,1.57080,0.00000,-0.14512,-0.38003,0.04504,,,,,,,,,,,,,,,,,,,,,,,,,,0,0,0,0,0
2.4146,1783010938.4765,1,1,1.0000,0.0000,1.44682,0.22742,-2.77898,0.98072,1.57080,0.00000,-0.14512,-0.38003,0.04500,,,,,,,,,,,,,,,,,,,,,,,,,,0,0,0,0,0
2.4149,1783010938.4767,1,1,1.0000,0.0000,1.44682,0.22742,-2.77898,0.98072,1.57080,0.00000,-0.14512,-0.38003,0.04500,,,,,,,,,,,,,,,,,,,,,,,,,,0,0,0,0,0
2.4155,1783010938.4774,1,1,1.0000,0.0000,1.44682,0.22742,-2.77898,0.98072,1.57080,0.00000,-0.14512,-0.38003,0.04500,,,,,,,,,,,,,,,,,,,,,,,,,,0,0,0,0,0
2.4158,1783010938.4776,1,1,1.0000,0.0000,1.44682,0.22742,-2.77898,0.98072,1.57080,0.00000,-0.14512,-0.38003,0.04500,,,,,,,,,,,,,,,,,,,,,,,,,,0,0,0,0,0
2.4346,1783010938.4965,1,1,1.0000,0.0000,1.44682,0.22735,-2.77899,0.98081,1.57080,0.00000,-0.14512,-0.38003,0.04498,,,,,,,,,,,,,,,,,,,,,,,,,,0,0,0,0,0
2.4356,1783010938.4974,1,1,1.0000,0.0000,1.44682,0.22735,-2.77899,0.98081,1.57080,0.00000,-0.14512,-0.38003,0.04498,,,,,,,,,,,,,,,,,,,,,,,,,,0,0,0,0,0
2.4654,1783010938.5273,1,1,1.0000,0.0000,1.44682,0.22722,-2.77903,0.98097,1.57080,0.00000,-0.14512,-0.38003,0.04495,,,,,,,,,,,,,,,,,,,,,,,,,,0,0,0,0,0
2.4656,1783010938.5275,1,1,1.0000,0.0000,1.44682,0.22722,-2.77903,0.98097,1.57080,0.00000,-0.14512,-0.38003,0.04495,,,,,,,,,,,,,,,,,,,,,,,,,,0,0,0,0,0
2.4658,1783010938.5276,1,1,1.0000,0.0000,1.44682,0.22722,-2.77903,0.98097,1.57080,0.00000,-0.14512,-0.38003,0.04495,,,,,,,,,,,,,,,,,,,,,,,,,,0,0,0,0,0
2.4661,1783010938.5280,1,1,1.0000,0.0000,1.44682,0.22722,-2.77903,0.98097,1.57080,0.00000,-0.14512,-0.38003,0.04495,,,,,,,,,,,,,,,,,,,,,,,,,,0,0,0,0,0
2.4755,1783010938.5374,1,1,1.0000,0.0000,1.44682,0.22718,-2.77904,0.98103,1.57080,0.00000,-0.14512,-0.38003,0.04494,,,,,,,,,,,,,,,,,,,,,,,,,,0,0,0,0,0
2.4860,1783010938.5478,1,1,1.0000,0.0000,1.44682,0.22712,-2.77905,0.98110,1.57080,0.00000,-0.14512,-0.38003,0.04492,,,,,,,,,,,,,,,,,,,,,,,,,,0,0,0,0,0
2.5378,1783010938.5996,1,1,1.0000,0.0000,1.44682,0.22691,-2.77911,0.98137,1.57080,0.00001,-0.14512,-0.38003,0.04487,,,,,,,,,,,,,,,,,,,,,,,,,,0,0,0,0,0
2.5382,1783010938.6001,1,1,1.0000,0.0000,1.44682,0.22691,-2.77911,0.98137,1.57080,0.00001,-0.14512,-0.38003,0.04487,,,,,,,,,,,,,,,,,,,,,,,,,,0,0,0,0,0
2.5384,1783010938.6003,1,1,1.0000,0.0000,1.44682,0.22691,-2.77911,0.98137,1.57080,0.00001,-0.14512,-0.38003,0.04487,,,,,,,,,,,,,,,,,,,,,,,,,,0,0,0,0,0
2.5414,1783010938.6033,1,1,1.0000,0.0000,1.44682,0.22688,-2.77911,0.98140,1.57080,0.00001,-0.14512,-0.38003,0.04486,,,,,,,,,,,,,,,,,,,,,,,,,,0,0,0,0,0
2.5442,1783010938.6061,1,1,1.0000,0.0000,1.44682,0.22688,-2.77911,0.98140,1.57080,0.00001,-0.14512,-0.38003,0.04486,,,,,,,,,,,,,,,,,,,,,,,,,,0,0,0,0,0
2.5446,1783010938.6064,1,1,1.0000,0.0000,1.44682,0.22688,-2.77911,0.98140,1.57080,0.00001,-0.14512,-0.38003,0.04486,,,,,,,,,,,,,,,,,,,,,,,,,,0,0,0,0,0
2.5579,1783010938.6198,1,1,1.0000,0.0000,1.44682,0.22685,-2.77912,0.98145,1.57080,0.00001,-0.14512,-0.38003,0.04485,,,,,,,,,,,,,,,,,,,,,,,,,,0,0,0,0,0
2.5582,1783010938.6201,1,1,1.0000,0.0000,1.44682,0.22685,-2.77912,0.98145,1.57080,0.00001,-0.14512,-0.38003,0.04485,,,,,,,,,,,,,,,,,,,,,,,,,,0,0,0,0,0
2.5645,1783010938.6263,1,1,1.0000,0.0000,1.44682,0.22682,-2.77913,0.98148,1.57080,0.00001,-0.14512,-0.38003,0.04485,,,,,,,,,,,,,,,,,,,,,,,,,,0,0,0,0,0
2.5757,1783010938.6376,1,1,1.0000,0.0000,1.44682,0.22674,-2.77915,0.98157,1.57080,0.00001,-0.14512,-0.38003,0.04483,,,,,,,,,,,,,,,,,,,,,,,,,,0,0,0,0,0
2.5761,1783010938.6379,1,1,1.0000,0.0000,1.44682,0.22674,-2.77915,0.98157,1.57080,0.00001,-0.14512,-0.38003,0.04483,,,,,,,,,,,,,,,,,,,,,,,,,,0,0,0,0,0
2.5843,1783010938.6461,1,1,1.0000,0.0000,1.44682,0.22674,-2.77915,0.98158,1.57080,0.00001,-0.14512,-0.38003,0.04483,,,,,,,,,,,,,,,,,,,,,,,,,,0,0,0,0,0
2.5950,1783010938.6569,1,1,1.0000,0.0000,1.44682,0.22670,-2.77916,0.98163,1.57080,0.00001,-0.14512,-0.38003,0.04481,,,,,,,,,,,,,,,,,,,,,,,,,,0,0,0,0,0
2.6042,1783010938.6660,1,1,1.0000,0.0000,1.44682,0.22666,-2.77917,0.98168,1.57080,0.00001,-0.14512,-0.38003,0.04480,,,,,,,,,,,,,,,,,,,,,,,,,,0,0,0,0,0
2.6148,1783010938.6767,1,1,1.0000,0.0000,1.44682,0.22664,-2.77918,0.98170,1.57080,0.00001,-0.14512,-0.38003,0.04480,,,,,,,,,,,,,,,,,,,,,,,,,,0,0,0,0,0
2.6152,1783010938.6771,1,1,1.0000,0.0000,1.44682,0.22664,-2.77918,0.98170,1.57080,0.00001,-0.14512,-0.38003,0.04480,,,,,,,,,,,,,,,,,,,,,,,,,,0,0,0,0,0
2.6809,1783010938.7428,1,1,1.0000,0.0000,1.44682,0.22638,-2.77924,0.98204,1.57080,0.00001,-0.14512,-0.38003,0.04473,,,,,,,,,,,,,,,,,,,,,,,,,,0,0,0,0,0
2.6812,1783010938.7431,1,1,1.0000,0.0000,1.44682,0.22638,-2.77924,0.98204,1.57080,0.00001,-0.14512,-0.38003,0.04473,,,,,,,,,,,,,,,,,,,,,,,,,,0,0,0,0,0
2.6997,1783010938.7616,1,1,1.0000,0.0000,1.44682,0.22628,-2.77927,0.98216,1.57080,0.00001,-0.14512,-0.38003,0.04470,,,,,,,,,,,,,,,,,,,,,,,,,,0,0,0,0,0
2.7000,1783010938.7619,1,1,1.0000,0.0000,1.44682,0.22628,-2.77927,0.98216,1.57080,0.00001,-0.14512,-0.38003,0.04470,,,,,,,,,,,,,,,,,,,,,,,,,,0,0,0,0,0
2.7005,1783010938.7623,1,1,1.0000,0.0000,1.44682,0.22628,-2.77927,0.98216,1.57080,0.00001,-0.14512,-0.38003,0.04470,,,,,,,,,,,,,,,,,,,,,,,,,,0,0,0,0,0
2.7008,1783010938.7626,1,1,1.0000,0.0000,1.44682,0.22628,-2.77927,0.98216,1.57080,0.00001,-0.14512,-0.38003,0.04470,,,,,,,,,,,,,,,,,,,,,,,,,,0,0,0,0,0
2.7184,1783010938.7803,1,1,1.0000,0.0000,1.44682,0.22619,-2.77929,0.98227,1.57080,0.00001,-0.14512,-0.38003,0.04468,,,,,,,,,,,,,,,,,,,,,,,,,,0,0,0,0,0
2.7190,1783010938.7809,1,1,1.0000,0.0000,1.44682,0.22619,-2.77929,0.98227,1.57080,0.00001,-0.14512,-0.38003,0.04468,,,,,,,,,,,,,,,,,,,,,,,,,,0,0,0,0,0
2.7193,1783010938.7812,1,1,1.0000,0.0000,1.44682,0.22619,-2.77929,0.98227,1.57080,0.00001,-0.14512,-0.38003,0.04468,,,,,,,,,,,,,,,,,,,,,,,,,,0,0,0,0,0
2.7298,1783010938.7917,1,1,1.0000,0.0000,1.44682,0.22616,-2.77930,0.98230,1.57080,0.00001,-0.14512,-0.38003,0.04467,,,,,,,,,,,,,,,,,,,,,,,,,,0,0,0,0,0
2.7458,1783010938.8077,1,1,1.0000,0.0000,1.44682,0.22608,-2.77932,0.98240,1.57080,0.00001,-0.14512,-0.38003,0.04465,,,,,,,,,,,,,,,,,,,,,,,,,,0,0,0,0,0
2.7462,1783010938.8081,1,1,1.0000,0.0000,1.44682,0.22608,-2.77932,0.98240,1.57080,0.00001,-0.14512,-0.38003,0.04465,,,,,,,,,,,,,,,,,,,,,,,,,,0,0,0,0,0
2.7481,1783010938.8100,1,1,1.0000,0.0000,1.44682,0.22608,-2.77932,0.98240,1.57080,0.00001,-0.14512,-0.38003,0.04465,,,,,,,,,,,,,,,,,,,,,,,,,,0,0,0,0,0
2.7484,1783010938.8103,1,1,1.0000,0.0000,1.44682,0.22608,-2.77932,0.98240,1.57080,0.00001,-0.14512,-0.38003,0.04465,,,,,,,,,,,,,,,,,,,,,,,,,,0,0,0,0,0
2.7586,1783010938.8204,1,1,1.0000,0.0000,1.44682,0.22603,-2.77933,0.98247,1.57080,0.00001,-0.14512,-0.38003,0.04464,,,,,,,,,,,,,,,,,,,,,,,,,,0,0,0,0,0
2.7590,1783010938.8209,1,1,1.0000,0.0000,1.44682,0.22603,-2.77933,0.98247,1.57080,0.00001,-0.14512,-0.38003,0.04464,,,,,,,,,,,,,,,,,,,,,,,,,,0,0,0,0,0
2.7681,1783010938.8300,1,1,1.0000,0.0000,1.44682,0.22601,-2.77933,0.98249,1.57080,0.00001,-0.14512,-0.38003,0.04464,,,,,,,,,,,,,,,,,,,,,,,,,,0,0,0,0,0
2.7821,1783010938.8440,1,1,1.0000,0.0000,1.44682,0.22592,-2.77936,0.98261,1.57080,0.00001,-0.14512,-0.38003,0.04461,,,,,,,,,,,,,,,,,,,,,,,,,,0,0,0,0,0
2.7824,1783010938.8443,1,1,1.0000,0.0000,1.44682,0.22592,-2.77936,0.98261,1.57080,0.00001,-0.14512,-0.38003,0.04461,,,,,,,,,,,,,,,,,,,,,,,,,,0,0,0,0,0
2.7887,1783010938.8505,1,1,1.0000,0.0000,1.44682,0.22592,-2.77936,0.98261,1.57080,0.00001,-0.14512,-0.38003,0.04461,,,,,,,,,,,,,,,,,,,,,,,,,,0,0,0,0,0
2.7986,1783010938.8605,1,1,1.0000,0.0000,1.44682,0.22589,-2.77937,0.98265,1.57080,0.00001,-0.14512,-0.38003,0.04460,,,,,,,,,,,,,,,,,,,,,,,,,,0,0,0,0,0
2.8092,1783010938.8711,1,1,1.0000,0.0000,1.44682,0.22584,-2.77938,0.98271,1.57080,0.00001,-0.14512,-0.38003,0.04459,,,,,,,,,,,,,,,,,,,,,,,,,,0,0,0,0,0
2.8199,1783010938.8818,1,1,1.0000,0.0000,1.44682,0.22579,-2.77939,0.98277,1.57080,0.00001,-0.14512,-0.38003,0.04458,,,,,,,,,,,,,,,,,,,,,,,,,,0,0,0,0,0
2.8329,1783010938.8948,1,1,1.0000,0.0000,1.44682,0.22575,-2.77940,0.98282,1.57080,0.00001,-0.14512,-0.38003,0.04457,,,,,,,,,,,,,,,,,,,,,,,,,,0,0,0,0,0
2.8426,1783010938.9045,1,1,1.0000,0.0000,1.44682,0.22568,-2.77942,0.98291,1.57080,0.00001,-0.14512,-0.38003,0.04455,,,,,,,,,,,,,,,,,,,,,,,,,,0,0,0,0,0
2.8521,1783010938.9140,1,1,1.0000,0.0000,1.44682,0.22567,-2.77942,0.98292,1.57080,0.00001,-0.14512,-0.38003,0.04455,,,,,,,,,,,,,,,,,,,,,,,,,,0,0,0,0,0
2.8654,1783010938.9273,1,1,1.0000,0.0000,1.44682,0.22559,-2.77944,0.98302,1.57080,0.00001,-0.14512,-0.38003,0.04453,,,,,,,,,,,,,,,,,,,,,,,,,,0,0,0,0,0
2.8705,1783010938.9324,1,1,1.0000,0.0000,1.44682,0.22557,-2.77945,0.98305,1.57080,0.00001,-0.14512,-0.38003,0.04452,,,,,,,,,,,,,,,,,,,,,,,,,,0,0,0,0,0
2.8787,1783010938.9406,1,1,1.0000,0.0000,1.44682,0.22554,-2.77945,0.98308,1.57080,0.00001,-0.14512,-0.38003,0.04451,,,,,,,,,,,,,,,,,,,,,,,,,,0,0,0,0,0
2.8909,1783010938.9528,1,1,1.0000,0.0000,1.44682,0.22551,-2.77946,0.98313,1.57080,0.00001,-0.14512,-0.38003,0.04450,,,,,,,,,,,,,,,,,,,,,,,,,,0,0,0,0,0
2.8913,1783010938.9531,1,1,1.0000,0.0000,1.44682,0.22551,-2.77946,0.98313,1.57080,0.00001,-0.14512,-0.38003,0.04450,,,,,,,,,,,,,,,,,,,,,,,,,,0,0,0,0,0
2.8996,1783010938.9614,1,1,1.0000,0.0000,1.44682,0.22546,-2.77948,0.98319,1.57080,0.00001,-0.14512,-0.38003,0.04449,,,,,,,,,,,,,,,,,,,,,,,,,,0,0,0,0,0
2.9112,1783010938.9731,1,1,1.0000,0.0000,1.44682,0.22541,-2.77949,0.98325,1.57080,0.00001,-0.14512,-0.38003,0.04448,,,,,,,,,,,,,,,,,,,,,,,,,,0,0,0,0,0
2.9178,1783010938.9797,1,1,1.0000,0.0000,1.44682,0.22539,-2.77949,0.98327,1.57080,0.00001,-0.14512,-0.38003,0.04448,,,,,,,,,,,,,,,,,,,,,,,,,,0,0,0,0,0
2.9183,1783010938.9802,1,1,1.0000,0.0000,1.44682,0.22539,-2.77949,0.98327,1.57080,0.00001,-0.14512,-0.38003,0.04448,,,,,,,,,,,,,,,,,,,,,,,,,,0,0,0,0,0
2.9327,1783010938.9946,1,1,1.0000,0.0000,1.44682,0.22534,-2.77950,0.98333,1.57080,0.00001,-0.14512,-0.38003,0.04446,,,,,,,,,,,,,,,,,,,,,,,,,,0,0,0,0,0
2.9416,1783010939.0035,1,1,1.0000,0.0000,1.44682,0.22531,-2.77951,0.98337,1.57080,0.00001,-0.14512,-0.38003,0.04446,,,,,,,,,,,,,,,,,,,,,,,,,,0,0,0,0,0
2.9583,1783010939.0202,1,1,1.0000,0.0000,1.44682,0.22523,-2.77953,0.98347,1.57080,0.00001,-0.14512,-0.38003,0.04443,,,,,,,,,,,,,,,,,,,,,,,,,,0,0,0,0,0
2.9627,1783010939.0246,1,1,1.0000,0.0000,1.44682,0.22521,-2.77954,0.98350,1.57080,0.00001,-0.14512,-0.38003,0.04443,,,,,,,,,,,,,,,,,,,,,,,,,,0,0,0,0,0
2.9630,1783010939.0249,1,1,1.0000,0.0000,1.44682,0.22521,-2.77954,0.98350,1.57080,0.00001,-0.14512,-0.38003,0.04443,,,,,,,,,,,,,,,,,,,,,,,,,,0,0,0,0,0
2.9686,1783010939.0305,1,1,1.0000,0.0000,1.44682,0.22518,-2.77955,0.98353,1.57080,0.00001,-0.14512,-0.38003,0.04442,,,,,,,,,,,,,,,,,,,,,,,,,,0,0,0,0,0
2.9782,1783010939.0401,1,1,1.0000,0.0000,1.44682,0.22517,-2.77955,0.98355,1.57080,0.00001,-0.14512,-0.38003,0.04442,,,,,,,,,,,,,,,,,,,,,,,,,,0,0,0,0,0
2.9910,1783010939.0529,1,1,1.0000,0.0000,1.44682,0.22512,-2.77956,0.98361,1.57080,0.00001,-0.14512,-0.38003,0.04440,,,,,,,,,,,,,,,,,,,,,,,,,,0,0,0,0,0
3.0020,1783010939.0638,1,1,1.0000,0.0000,1.44682,0.22509,-2.77957,0.98365,1.57080,0.00001,-0.14512,-0.38003,0.04440,,,,,,,,,,,,,,,,,,,,,,,,,,0,0,0,0,0
3.0121,1783010939.0740,1,1,1.0000,0.0000,1.44682,0.22506,-2.77958,0.98369,1.57080,0.00001,-0.14512,-0.38003,0.04439,,,,,,,,,,,,,,,,,,,,,,,,,,0,0,0,0,0
3.0183,1783010939.0801,1,1,1.0000,0.0000,1.44682,0.22501,-2.77959,0.98375,1.57080,0.00001,-0.14512,-0.38003,0.04438,,,,,,,,,,,,,,,,,,,,,,,,,,0,0,0,0,0
3.0283,1783010939.0901,1,1,1.0000,0.0000,1.44682,0.22495,-2.77960,0.98382,1.57080,0.00001,-0.14512,-0.38003,0.04436,,,,,,,,,,,,,,,,,,,,,,,,,,0,0,0,0,0
3.0382,1783010939.1000,1,1,1.0000,0.0000,1.44682,0.22494,-2.77960,0.98383,1.57080,0.00001,-0.14512,-0.38003,0.04436,,,,,,,,,,,,,,,,,,,,,,,,,,0,0,0,0,0
3.0385,1783010939.1004,1,1,1.0000,0.0000,1.44682,0.22494,-2.77960,0.98383,1.57080,0.00001,-0.14512,-0.38003,0.04436,,,,,,,,,,,,,,,,,,,,,,,,,,0,0,0,0,0
3.0496,1783010939.1115,1,1,1.0000,0.0000,1.44682,0.22489,-2.77962,0.98389,1.57080,0.00001,-0.14512,-0.38003,0.04435,,,,,,,,,,,,,,,,,,,,,,,,,,0,0,0,0,0
3.0584,1783010939.1202,1,1,1.0000,0.0000,1.44682,0.22487,-2.77962,0.98392,1.57080,0.00001,-0.14512,-0.38003,0.04434,,,,,,,,,,,,,,,,,,,,,,,,,,0,0,0,0,0
3.0587,1783010939.1206,1,1,1.0000,0.0000,1.44682,0.22487,-2.77962,0.98392,1.57080,0.00001,-0.14512,-0.38003,0.04434,,,,,,,,,,,,,,,,,,,,,,,,,,0,0,0,0,0
3.0697,1783010939.1316,1,1,1.0000,0.0000,1.44682,0.22483,-2.77963,0.98397,1.57080,0.00001,-0.14512,-0.38003,0.04433,,,,,,,,,,,,,,,,,,,,,,,,,,0,0,0,0,0
3.0783,1783010939.1402,1,1,1.0000,0.0000,1.44682,0.22478,-2.77965,0.98403,1.57080,0.00001,-0.14512,-0.38003,0.04432,,,,,,,,,,,,,,,,,,,,,,,,,,0,0,0,0,0
3.0787,1783010939.1406,1,1,1.0000,0.0000,1.44682,0.22478,-2.77965,0.98403,1.57080,0.00001,-0.14512,-0.38003,0.04432,,,,,,,,,,,,,,,,,,,,,,,,,,0,0,0,0,0
3.0939,1783010939.1558,1,1,1.0000,0.0000,1.44682,0.22473,-2.77966,0.98410,1.57080,0.00001,-0.14512,-0.38002,0.04430,,,,,,,,,,,,,,,,,,,,,,,,,,0,0,0,0,0
3.1063,1783010939.1682,1,1,1.0000,0.0000,1.44682,0.22469,-2.77967,0.98415,1.57080,0.00001,-0.14512,-0.38002,0.04429,,,,,,,,,,,,,,,,,,,,,,,,,,0,0,0,0,0
3.1067,1783010939.1686,1,1,1.0000,0.0000,1.44682,0.22469,-2.77967,0.98415,1.57080,0.00001,-0.14512,-0.38002,0.04429,,,,,,,,,,,,,,,,,,,,,,,,,,0,0,0,0,0
3.1118,1783010939.1736,1,1,1.0000,0.0000,1.44682,0.22467,-2.77967,0.98418,1.57080,0.00001,-0.14512,-0.38002,0.04429,,,,,,,,,,,,,,,,,,,,,,,,,,0,0,0,0,0
3.1123,1783010939.1742,1,1,1.0000,0.0000,1.44682,0.22467,-2.77967,0.98418,1.57080,0.00001,-0.14512,-0.38002,0.04429,,,,,,,,,,,,,,,,,,,,,,,,,,0,0,0,0,0
3.1183,1783010939.1802,1,1,1.0000,0.0000,1.44682,0.22464,-2.77968,0.98420,1.57080,0.00001,-0.14512,-0.38002,0.04428,,,,,,,,,,,,,,,,,,,,,,,,,,0,0,0,0,0
3.1283,1783010939.1902,1,1,1.0000,0.0000,1.44682,0.22463,-2.77968,0.98423,1.57080,0.00001,-0.14512,-0.38002,0.04428,,,,,,,,,,,,,,,,,,,,,,,,,,0,0,0,0,0
3.1449,1783010939.2068,1,1,1.0000,0.0000,1.44682,0.22453,-2.77971,0.98435,1.57080,0.00001,-0.14512,-0.38002,0.04425,,,,,,,,,,,,,,,,,,,,,,,,,,0,0,0,0,0
3.1497,1783010939.2115,1,1,1.0000,0.0000,1.44682,0.22450,-2.77972,0.98438,1.57080,0.00001,-0.14512,-0.38002,0.04425,,,,,,,,,,,,,,,,,,,,,,,,,,0,0,0,0,0
3.1500,1783010939.2119,1,1,1.0000,0.0000,1.44682,0.22450,-2.77972,0.98438,1.57080,0.00001,-0.14512,-0.38002,0.04425,,,,,,,,,,,,,,,,,,,,,,,,,,0,0,0,0,0
3.1582,1783010939.2200,1,1,1.0000,0.0000,1.44682,0.22449,-2.77972,0.98439,1.57080,0.00001,-0.14512,-0.38002,0.04424,,,,,,,,,,,,,,,,,,,,,,,,,,0,0,0,0,0
3.1683,1783010939.2302,1,1,1.0000,0.0000,1.44682,0.22446,-2.77973,0.98443,1.57080,0.00001,-0.14512,-0.38002,0.04423,,,,,,,,,,,,,,,,,,,,,,,,,,0,0,0,0,0
3.1790,1783010939.2409,1,1,1.0000,0.0000,1.44682,0.22442,-2.77974,0.98449,1.57080,0.00001,-0.14512,-0.38002,0.04422,,,,,,,,,,,,,,,,,,,,,,,,,,0,0,0,0,0
3.1912,1783010939.2531,1,1,1.0000,0.0000,1.44682,0.22438,-2.77975,0.98453,1.57080,0.00001,-0.14512,-0.38002,0.04421,,,,,,,,,,,,,,,,,,,,,,,,,,0,0,0,0,0
3.1995,1783010939.2614,1,1,1.0000,0.0000,1.44682,0.22433,-2.77976,0.98459,1.57080,0.00001,-0.14512,-0.38002,0.04420,,,,,,,,,,,,,,,,,,,,,,,,,,0,0,0,0,0
3.2121,1783010939.2740,1,1,1.0000,0.0000,1.44682,0.22428,-2.77977,0.98466,1.57080,0.00001,-0.14512,-0.38002,0.04419,,,,,,,,,,,,,,,,,,,,,,,,,,0,0,0,0,0
3.2189,1783010939.2808,1,1,1.0000,0.0000,1.44682,0.22427,-2.77977,0.98468,1.57080,0.00001,-0.14512,-0.38002,0.04418,,,,,,,,,,,,,,,,,,,,,,,,,,0,0,0,0,0
3.2282,1783010939.2901,1,1,1.0000,0.0000,1.44682,0.22424,-2.77978,0.98471,1.57080,0.00001,-0.14512,-0.38002,0.04418,,,,,,,,,,,,,,,,,,,,,,,,,,0,0,0,0,0
3.2286,1783010939.2904,1,1,1.0000,0.0000,1.44682,0.22424,-2.77978,0.98471,1.57080,0.00001,-0.14512,-0.38002,0.04418,,,,,,,,,,,,,,,,,,,,,,,,,,0,0,0,0,0
3.2408,1783010939.3027,1,1,1.0000,0.0000,1.44682,0.22419,-2.77979,0.98477,1.57080,0.00001,-0.14512,-0.38002,0.04417,,,,,,,,,,,,,,,,,,,,,,,,,,0,0,0,0,0
3.2578,1783010939.3197,1,1,1.0000,0.0000,1.44682,0.22411,-2.77982,0.98488,1.57080,0.00001,-0.14512,-0.38002,0.04414,,,,,,,,,,,,,,,,,,,,,,,,,,0,0,0,0,0
3.2581,1783010939.3200,1,1,1.0000,0.0000,1.44682,0.22411,-2.77982,0.98488,1.57080,0.00001,-0.14512,-0.38002,0.04414,,,,,,,,,,,,,,,,,,,,,,,,,,0,0,0,0,0
3.2635,1783010939.3253,1,1,1.0000,0.0000,1.44682,0.22408,-2.77982,0.98491,1.57080,0.00001,-0.14512,-0.38002,0.04414,,,,,,,,,,,,,,,,,,,,,,,,,,0,0,0,0,0
3.2637,1783010939.3256,1,1,1.0000,0.0000,1.44682,0.22408,-2.77982,0.98491,1.57080,0.00001,-0.14512,-0.38002,0.04414,,,,,,,,,,,,,,,,,,,,,,,,,,0,0,0,0,0
3.2756,1783010939.3375,1,1,1.0000,0.0000,1.44682,0.22405,-2.77983,0.98495,1.57080,0.00001,-0.14512,-0.38002,0.04413,,,,,,,,,,,,,,,,,,,,,,,,,,0,0,0,0,0
3.2856,1783010939.3475,1,1,1.0000,0.0000,1.44682,0.22400,-2.77984,0.98502,1.57080,0.00001,-0.14512,-0.38002,0.04411,,,,,,,,,,,,,,,,,,,,,,,,,,0,0,0,0,0
3.2860,1783010939.3479,1,1,1.0000,0.0000,1.44682,0.22400,-2.77984,0.98502,1.57080,0.00001,-0.14512,-0.38002,0.04411,,,,,,,,,,,,,,,,,,,,,,,,,,0,0,0,0,0
3.2945,1783010939.3564,1,1,1.0000,0.0000,1.44682,0.22394,-2.77986,0.98508,1.57080,0.00001,-0.14512,-0.38002,0.04410,,,,,,,,,,,,,,,,,,,,,,,,,,0,0,0,0,0
3.3019,1783010939.3637,1,1,1.0000,0.0000,1.44682,0.22394,-2.77986,0.98509,1.57080,0.00001,-0.14512,-0.38002,0.04410,,,,,,,,,,,,,,,,,,,,,,,,,,0,0,0,0,0
3.3022,1783010939.3641,1,1,1.0000,0.0000,1.44682,0.22394,-2.77986,0.98509,1.57080,0.00001,-0.14512,-0.38002,0.04410,,,,,,,,,,,,,,,,,,,,,,,,,,0,0,0,0,0
3.3123,1783010939.3741,1,1,1.0000,0.0000,1.44682,0.22391,-2.77987,0.98512,1.57080,0.00001,-0.14512,-0.38002,0.04409,,,,,,,,,,,,,,,,,,,,,,,,,,0,0,0,0,0
3.3231,1783010939.3850,1,1,1.0000,0.0000,1.44682,0.22383,-2.77988,0.98522,1.57080,0.00001,-0.14512,-0.38002,0.04407,,,,,,,,,,,,,,,,,,,,,,,,,,0,0,0,0,0
3.3334,1783010939.3953,1,1,1.0000,0.0000,1.44682,0.22380,-2.77989,0.98525,1.57080,0.00001,-0.14512,-0.38002,0.04407,,,,,,,,,,,,,,,,,,,,,,,,,,0,0,0,0,0
3.3534,1783010939.4153,1,1,1.0000,0.0000,1.44682,0.22370,-2.77992,0.98539,1.57080,0.00001,-0.14512,-0.38002,0.04404,,,,,,,,,,,,,,,,,,,,,,,,,,0,0,0,0,0
3.3665,1783010939.4284,1,1,1.0000,0.0000,1.44682,0.22368,-2.77992,0.98541,1.57080,0.00001,-0.14512,-0.38002,0.04403,,,,,,,,,,,,,,,,,,,,,,,,,,0,0,0,0,0
3.3687,1783010939.4306,1,1,1.0000,0.0000,1.44682,0.22368,-2.77992,0.98541,1.57080,0.00001,-0.14512,-0.38002,0.04403,,,,,,,,,,,,,,,,,,,,,,,,,,0,0,0,0,0
3.3799,1783010939.4418,1,1,1.0000,0.0000,1.44682,0.22362,-2.77994,0.98549,1.57080,0.00001,-0.14512,-0.38002,0.04402,,,,,,,,,,,,,,,,,,,,,,,,,,0,0,0,0,0
3.3802,1783010939.4421,1,1,1.0000,0.0000,1.44682,0.22362,-2.77994,0.98549,1.57080,0.00001,-0.14512,-0.38002,0.04402,,,,,,,,,,,,,,,,,,,,,,,,,,0,0,0,0,0
3.3820,1783010939.4439,1,1,1.0000,0.0000,1.44682,0.22359,-2.77995,0.98552,1.57080,0.00001,-0.14512,-0.38002,0.04401,,,,,,,,,,,,,,,,,,,,,,,,,,0,0,0,0,0
3.3824,1783010939.4442,1,1,1.0000,0.0000,1.44682,0.22359,-2.77995,0.98552,1.57080,0.00001,-0.14512,-0.38002,0.04401,,,,,,,,,,,,,,,,,,,,,,,,,,0,0,0,0,0
3.4115,1783010939.4734,1,1,1.0000,0.0000,1.44682,0.22348,-2.77997,0.98566,1.57080,0.00001,-0.14512,-0.38002,0.04398,,,,,,,,,,,,,,,,,,,,,,,,,,0,0,0,0,0
3.4120,1783010939.4739,1,1,1.0000,0.0000,1.44682,0.22348,-2.77997,0.98566,1.57080,0.00001,-0.14512,-0.38002,0.04398,,,,,,,,,,,,,,,,,,,,,,,,,,0,0,0,0,0
3.4124,1783010939.4743,1,1,1.0000,0.0000,1.44682,0.22348,-2.77997,0.98566,1.57080,0.00001,-0.14512,-0.38002,0.04398,,,,,,,,,,,,,,,,,,,,,,,,,,0,0,0,0,0
3.4128,1783010939.4747,1,1,1.0000,0.0000,1.44682,0.22348,-2.77997,0.98566,1.57080,0.00001,-0.14512,-0.38002,0.04398,,,,,,,,,,,,,,,,,,,,,,,,,,0,0,0,0,0
3.4317,1783010939.4936,1,1,1.0000,0.0000,1.44682,0.22341,-2.77999,0.98574,1.57080,0.00001,-0.14512,-0.38002,0.04396,,,,,,,,,,,,,,,,,,,,,,,,,,0,0,0,0,0
3.4355,1783010939.4973,1,1,1.0000,0.0000,1.44682,0.22340,-2.77999,0.98576,1.57080,0.00001,-0.14512,-0.38002,0.04396,,,,,,,,,,,,,,,,,,,,,,,,,,0,0,0,0,0
3.4360,1783010939.4979,1,1,1.0000,0.0000,1.44682,0.22340,-2.77999,0.98576,1.57080,0.00001,-0.14512,-0.38002,0.04396,,,,,,,,,,,,,,,,,,,,,,,,,,0,0,0,0,0
3.4457,1783010939.5076,1,1,1.0000,0.0000,1.44682,0.22334,-2.78001,0.98584,1.57080,0.00001,-0.14512,-0.38002,0.04395,,,,,,,,,,,,,,,,,,,,,,,,,,0,0,0,0,0
3.4588,1783010939.5207,1,1,1.0000,0.0000,1.44682,0.22332,-2.78001,0.98586,1.57080,0.00001,-0.14512,-0.38002,0.04394,,,,,,,,,,,,,,,,,,,,,,,,,,0,0,0,0,0
3.4591,1783010939.5210,1,1,1.0000,0.0000,1.44682,0.22332,-2.78001,0.98586,1.57080,0.00001,-0.14512,-0.38002,0.04394,,,,,,,,,,,,,,,,,,,,,,,,,,0,0,0,0,0
3.4628,1783010939.5247,1,1,1.0000,0.0000,1.44682,0.22330,-2.78002,0.98588,1.57080,0.00001,-0.14512,-0.38002,0.04394,,,,,,,,,,,,,,,,,,,,,,,,,,0,0,0,0,0
3.4631,1783010939.5249,1,1,1.0000,0.0000,1.44682,0.22330,-2.78002,0.98588,1.57080,0.00001,-0.14512,-0.38002,0.04394,,,,,,,,,,,,,,,,,,,,,,,,,,0,0,0,0,0
3.4752,1783010939.5371,1,1,1.0000,0.0000,1.44682,0.22323,-2.78004,0.98598,1.57080,0.00001,-0.14512,-0.38002,0.04392,,,,,,,,,,,,,,,,,,,,,,,,,,0,0,0,0,0
3.4822,1783010939.5441,1,1,1.0000,0.0000,1.44682,0.22320,-2.78004,0.98601,1.57080,0.00001,-0.14512,-0.38002,0.04391,,,,,,,,,,,,,,,,,,,,,,,,,,0,0,0,0,0
3.5117,1783010939.5736,1,1,1.0000,0.0000,1.44682,0.22311,-2.78006,0.98612,1.57080,0.00001,-0.14512,-0.38002,0.04389,,,,,,,,,,,,,,,,,,,,,,,,,,0,0,0,0,0
3.5139,1783010939.5758,1,1,1.0000,0.0000,1.44682,0.22311,-2.78007,0.98612,1.57080,0.00001,-0.14512,-0.38002,0.04389,,,,,,,,,,,,,,,,,,,,,,,,,,0,0,0,0,0
3.5249,1783010939.5868,1,1,1.0000,0.0000,1.44682,0.22308,-2.78007,0.98616,1.57080,0.00001,-0.14512,-0.38002,0.04388,,,,,,,,,,,,,,,,,,,,,,,,,,0,0,0,0,0
3.5252,1783010939.5871,1,1,1.0000,0.0000,1.44682,0.22308,-2.78007,0.98616,1.57080,0.00001,-0.14512,-0.38002,0.04388,,,,,,,,,,,,,,,,,,,,,,,,,,0,0,0,0,0
3.5320,1783010939.5939,1,1,1.0000,0.0000,1.44682,0.22303,-2.78009,0.98623,1.57080,0.00001,-0.14512,-0.38002,0.04387,,,,,,,,,,,,,,,,,,,,,,,,,,0,0,0,0,0
3.5420,1783010939.6039,1,1,1.0000,0.0000,1.44682,0.22298,-2.78010,0.98629,1.57080,0.00001,-0.14512,-0.38002,0.04385,,,,,,,,,,,,,,,,,,,,,,,,,,0,0,0,0,0
3.5424,1783010939.6043,1,1,1.0000,0.0000,1.44682,0.22298,-2.78010,0.98629,1.57080,0.00001,-0.14512,-0.38002,0.04385,,,,,,,,,,,,,,,,,,,,,,,,,,0,0,0,0,0
3.5600,1783010939.6218,1,1,1.0000,0.0000,1.44682,0.22293,-2.78011,0.98635,1.57080,0.00001,-0.14512,-0.38002,0.04384,,,,,,,,,,,,,,,,,,,,,,,,,,0,0,0,0,0
3.5650,1783010939.6269,1,1,1.0000,0.0000,1.44682,0.22291,-2.78012,0.98637,1.57080,0.00001,-0.14512,-0.38002,0.04384,,,,,,,,,,,,,,,,,,,,,,,,,,0,0,0,0,0
3.5721,1783010939.6340,1,1,1.0000,0.0000,1.44682,0.22289,-2.78012,0.98640,1.57080,0.00001,-0.14512,-0.38002,0.04383,,,,,,,,,,,,,,,,,,,,,,,,,,0,0,0,0,0
3.5881,1783010939.6500,1,1,1.0000,0.0000,1.44682,0.22283,-2.78014,0.98647,1.57080,0.00001,-0.14512,-0.38002,0.04381,,,,,,,,,,,,,,,,,,,,,,,,,,0,0,0,0,0
3.5927,1783010939.6546,1,1,1.0000,0.0000,1.44682,0.22280,-2.78014,0.98651,1.57080,0.00001,-0.14512,-0.38002,0.04381,,,,,,,,,,,,,,,,,,,,,,,,,,0,0,0,0,0
3.6024,1783010939.6643,1,1,1.0000,0.0000,1.44682,0.22275,-2.78016,0.98657,1.57080,0.00001,-0.14512,-0.38002,0.04379,,,,,,,,,,,,,,,,,,,,,,,,,,0,0,0,0,0
3.6123,1783010939.6742,1,1,1.0000,0.0000,1.44682,0.22274,-2.78016,0.98659,1.57080,0.00001,-0.14512,-0.38002,0.04379,,,,,,,,,,,,,,,,,,,,,,,,,,0,0,0,0,0
3.6241,1783010939.6859,1,1,1.0000,0.0000,1.44681,0.22269,-2.78017,0.98665,1.57080,0.00001,-0.14512,-0.38002,0.04378,,,,,,,,,,,,,,,,,,,,,,,,,,0,0,0,0,0
3.6331,1783010939.6950,1,1,1.0000,0.0000,1.44681,0.22266,-2.78018,0.98668,1.57080,0.00001,-0.14512,-0.38002,0.04377,,,,,,,,,,,,,,,,,,,,,,,,,,0,0,0,0,0
3.6423,1783010939.7042,1,1,1.0000,0.0000,1.44681,0.22263,-2.78019,0.98673,1.57080,0.00001,-0.14512,-0.38002,0.04376,,,,,,,,,,,,,,,,,,,,,,,,,,0,0,0,0,0
3.6521,1783010939.7140,1,1,1.0000,0.0000,1.44681,0.22258,-2.78020,0.98679,1.57080,0.00001,-0.14512,-0.38002,0.04375,,,,,,,,,,,,,,,,,,,,,,,,,,0,0,0,0,0
3.6524,1783010939.7143,1,1,1.0000,0.0000,1.44681,0.22258,-2.78020,0.98679,1.57080,0.00001,-0.14512,-0.38002,0.04375,,,,,,,,,,,,,,,,,,,,,,,,,,0,0,0,0,0
3.6678,1783010939.7297,1,1,1.0000,0.0000,1.44681,0.22252,-2.78021,0.98686,1.57080,0.00001,-0.14512,-0.38002,0.04373,,,,,,,,,,,,,,,,,,,,,,,,,,0,0,0,0,0
3.6723,1783010939.7342,1,1,1.0000,0.0000,1.44681,0.22251,-2.78022,0.98687,1.57080,0.00001,-0.14512,-0.38002,0.04373,,,,,,,,,,,,,,,,,,,,,,,,,,0,0,0,0,0
3.6726,1783010939.7345,1,1,1.0000,0.0000,1.44681,0.22251,-2.78022,0.98687,1.57080,0.00001,-0.14512,-0.38002,0.04373,,,,,,,,,,,,,,,,,,,,,,,,,,0,0,0,0,0
3.6821,1783010939.7440,1,1,1.0000,0.0000,1.44681,0.22246,-2.78023,0.98694,1.57080,0.00001,-0.14512,-0.38002,0.04372,,,,,,,,,,,,,,,,,,,,,,,,,,0,0,0,0,0
3.6921,1783010939.7540,1,1,1.0000,0.0000,1.44681,0.22244,-2.78023,0.98696,1.57080,0.00001,-0.14512,-0.38002,0.04371,,,,,,,,,,,,,,,,,,,,,,,,,,0,0,0,0,0
3.7038,1783010939.7657,1,1,1.0000,0.0000,1.44681,0.22240,-2.78024,0.98701,1.57080,0.00001,-0.14512,-0.38002,0.04370,,,,,,,,,,,,,,,,,,,,,,,,,,0,0,0,0,0
3.7122,1783010939.7741,1,1,1.0000,0.0000,1.44681,0.22235,-2.78026,0.98707,1.57080,0.00001,-0.14512,-0.38002,0.04369,,,,,,,,,,,,,,,,,,,,,,,,,,0,0,0,0,0
3.7322,1783010939.7941,1,1,1.0000,0.0000,1.44681,0.22229,-2.78027,0.98715,1.57080,0.00001,-0.14512,-0.38002,0.04367,,,,,,,,,,,,,,,,,,,,,,,,,,0,0,0,0,0
3.7327,1783010939.7946,1,1,1.0000,0.0000,1.44681,0.22229,-2.78027,0.98715,1.57080,0.00001,-0.14512,-0.38002,0.04367,,,,,,,,,,,,,,,,,,,,,,,,,,0,0,0,0,0
3.7463,1783010939.8082,1,1,1.0000,0.0000,1.44681,0.22221,-2.78029,0.98725,1.57080,0.00001,-0.14512,-0.38002,0.04365,,,,,,,,,,,,,,,,,,,,,,,,,,0,0,0,0,0
3.7466,1783010939.8085,1,1,1.0000,0.0000,1.44681,0.22221,-2.78029,0.98725,1.57080,0.00001,-0.14512,-0.38002,0.04365,,,,,,,,,,,,,,,,,,,,,,,,,,0,0,0,0,0
3.7540,1783010939.8159,1,1,1.0000,0.0000,1.44681,0.22221,-2.78029,0.98725,1.57080,0.00001,-0.14512,-0.38002,0.04365,,,,,,,,,,,,,,,,,,,,,,,,,,0,0,0,0,0
3.7649,1783010939.8268,1,1,1.0000,0.0000,1.44681,0.22218,-2.78030,0.98729,1.57080,0.00001,-0.14512,-0.38002,0.04365,,,,,,,,,,,,,,,,,,,,,,,,,,0,0,0,0,0
3.7723,1783010939.8342,1,1,1.0000,0.0000,1.44681,0.22213,-2.78031,0.98735,1.57080,0.00001,-0.14512,-0.38002,0.04363,,,,,,,,,,,,,,,,,,,,,,,,,,0,0,0,0,0
3.7726,1783010939.8345,1,1,1.0000,0.0000,1.44681,0.22213,-2.78031,0.98735,1.57080,0.00001,-0.14512,-0.38002,0.04363,,,,,,,,,,,,,,,,,,,,,,,,,,0,0,0,0,0
3.7839,1783010939.8458,1,1,1.0000,0.0000,1.44681,0.22207,-2.78033,0.98742,1.57080,0.00001,-0.14512,-0.38002,0.04362,,,,,,,,,,,,,,,,,,,,,,,,,,0,0,0,0,0
3.7954,1783010939.8573,1,1,1.0000,0.0000,1.44681,0.22205,-2.78033,0.98745,1.57080,0.00001,-0.14512,-0.38002,0.04361,,,,,,,,,,,,,,,,,,,,,,,,,,0,0,0,0,0
3.8049,1783010939.8668,1,1,1.0000,0.0000,1.44681,0.22201,-2.78034,0.98750,1.57080,0.00001,-0.14512,-0.38002,0.04360,,,,,,,,,,,,,,,,,,,,,,,,,,0,0,0,0,0
3.8141,1783010939.8760,1,1,1.0000,0.0000,1.44681,0.22198,-2.78035,0.98753,1.57080,0.00001,-0.14512,-0.38002,0.04360,,,,,,,,,,,,,,,,,,,,,,,,,,0,0,0,0,0
3.8222,1783010939.8841,1,1,1.0000,0.0000,1.44681,0.22195,-2.78036,0.98757,1.57080,0.00001,-0.14512,-0.38002,0.04359,,,,,,,,,,,,,,,,,,,,,,,,,,0,0,0,0,0
3.8321,1783010939.8940,1,1,1.0000,0.0000,1.44681,0.22190,-2.78037,0.98764,1.57080,0.00001,-0.14512,-0.38002,0.04357,,,,,,,,,,,,,,,,,,,,,,,,,,0,0,0,0,0
3.8421,1783010939.9040,1,1,1.0000,0.0000,1.44681,0.22185,-2.78038,0.98770,1.57080,0.00001,-0.14512,-0.38002,0.04356,,,,,,,,,,,,,,,,,,,,,,,,,,0,0,0,0,0
3.8425,1783010939.9044,1,1,1.0000,0.0000,1.44681,0.22185,-2.78038,0.98770,1.57080,0.00001,-0.14512,-0.38002,0.04356,,,,,,,,,,,,,,,,,,,,,,,,,,0,0,0,0,0
3.8543,1783010939.9162,1,1,1.0000,0.0000,1.44681,0.22182,-2.78039,0.98774,1.57080,0.00001,-0.14512,-0.38002,0.04355,,,,,,,,,,,,,,,,,,,,,,,,,,0,0,0,0,0
3.8547,1783010939.9165,1,1,1.0000,0.0000,1.44681,0.22182,-2.78039,0.98774,1.57080,0.00001,-0.14512,-0.38002,0.04355,,,,,,,,,,,,,,,,,,,,,,,,,,0,0,0,0,0
3.8670,1783010939.9289,1,1,1.0000,0.0000,1.44681,0.22176,-2.78040,0.98781,1.57080,0.00001,-0.14512,-0.38002,0.04354,,,,,,,,,,,,,,,,,,,,,,,,,,0,0,0,0,0
3.8749,1783010939.9368,1,1,1.0000,0.0000,1.44681,0.22176,-2.78040,0.98782,1.57080,0.00001,-0.14512,-0.38002,0.04354,,,,,,,,,,,,,,,,,,,,,,,,,,0,0,0,0,0
3.8752,1783010939.9371,1,1,1.0000,0.0000,1.44681,0.22176,-2.78040,0.98782,1.57080,0.00001,-0.14512,-0.38002,0.04354,,,,,,,,,,,,,,,,,,,,,,,,,,0,0,0,0,0
3.8852,1783010939.9471,1,1,1.0000,0.0000,1.44681,0.22172,-2.78041,0.98786,1.57080,0.00001,-0.14512,-0.38002,0.04353,,,,,,,,,,,,,,,,,,,,,,,,,,0,0,0,0,0
3.8920,1783010939.9538,1,1,1.0000,0.0000,1.44681,0.22167,-2.78043,0.98792,1.57080,0.00001,-0.14512,-0.38002,0.04352,,,,,,,,,,,,,,,,,,,,,,,,,,0,0,0,0,0
3.9026,1783010939.9645,1,1,1.0000,0.0000,1.44681,0.22162,-2.78044,0.98799,1.57080,0.00001,-0.14512,-0.38002,0.04350,,,,,,,,,,,,,,,,,,,,,,,,,,0,0,0,0,0
3.9122,1783010939.9741,1,1,1.0000,0.0000,1.44681,0.22161,-2.78044,0.98800,1.57080,0.00001,-0.14512,-0.38002,0.04350,,,,,,,,,,,,,,,,,,,,,,,,,,0,0,0,0,0
3.9235,1783010939.9854,1,1,1.0000,0.0000,1.44681,0.22156,-2.78045,0.98807,1.57080,0.00001,-0.14512,-0.38002,0.04349,,,,,,,,,,,,,,,,,,,,,,,,,,0,0,0,0,0
3.9326,1783010939.9945,1,1,1.0000,0.0000,1.44681,0.22153,-2.78046,0.98809,1.57080,0.00001,-0.14512,-0.38002,0.04348,,,,,,,,,,,,,,,,,,,,,,,,,,0,0,0,0,0
3.9490,1783010940.0109,1,1,1.0000,0.0000,1.44681,0.22147,-2.78047,0.98817,1.57080,0.00001,-0.14512,-0.38002,0.04346,,,,,,,,,,,,,,,,,,,,,,,,,,0,0,0,0,0
3.9519,1783010940.0137,1,1,1.0000,0.0000,1.44681,0.22145,-2.78048,0.98820,1.57080,0.00001,-0.14512,-0.38002,0.04346,,,,,,,,,,,,,,,,,,,,,,,,,,0,0,0,0,0
3.9522,1783010940.0141,1,1,1.0000,0.0000,1.44681,0.22145,-2.78048,0.98820,1.57080,0.00001,-0.14512,-0.38002,0.04346,,,,,,,,,,,,,,,,,,,,,,,,,,0,0,0,0,0
3.9651,1783010940.0270,1,1,1.0000,0.0000,1.44681,0.22139,-2.78049,0.98827,1.57080,0.00001,-0.14512,-0.38002,0.04344,,,,,,,,,,,,,,,,,,,,,,,,,,0,0,0,0,0
3.9743,1783010940.0362,1,1,1.0000,0.0000,1.44681,0.22136,-2.78050,0.98831,1.57080,0.00001,-0.14512,-0.38002,0.04344,,,,,,,,,,,,,,,,,,,,,,,,,,0,0,0,0,0
3.9746,1783010940.0364,1,1,1.0000,0.0000,1.44681,0.22136,-2.78050,0.98831,1.57080,0.00001,-0.14512,-0.38002,0.04344,,,,,,,,,,,,,,,,,,,,,,,,,,0,0,0,0,0
3.9823,1783010940.0442,1,1,1.0000,0.0000,1.44681,0.22131,-2.78052,0.98837,1.57080,0.00001,-0.14512,-0.38002,0.04342,,,,,,,,,,,,,,,,,,,,,,,,,,0,0,0,0,0
3.9929,1783010940.0548,1,1,1.0000,0.0000,1.44681,0.22128,-2.78052,0.98841,1.57080,0.00001,-0.14512,-0.38002,0.04342,,,,,,,,,,,,,,,,,,,,,,,,,,0,0,0,0,0
4.0048,1783010940.0667,1,1,1.0000,0.0000,1.44681,0.22125,-2.78053,0.98845,1.57080,0.00001,-0.14512,-0.38002,0.04341,,,,,,,,,,,,,,,,,,,,,,,,,,0,0,0,0,0
4.0158,1783010940.0777,1,1,1.0000,0.0000,1.44681,0.22117,-2.78055,0.98854,1.57080,0.00001,-0.14512,-0.38002,0.04339,,,,,,,,,,,,,,,,,,,,,,,,,,0,0,0,0,0
4.0224,1783010940.0843,1,1,1.0000,0.0000,1.44681,0.22115,-2.78056,0.98858,1.57080,0.00001,-0.14512,-0.38002,0.04338,,,,,,,,,,,,,,,,,,,,,,,,,,0,0,0,0,0
4.0228,1783010940.0847,1,1,1.0000,0.0000,1.44681,0.22115,-2.78056,0.98858,1.57080,0.00001,-0.14512,-0.38002,0.04338,,,,,,,,,,,,,,,,,,,,,,,,,,0,0,0,0,0
4.0401,1783010940.1020,1,1,1.0000,0.0000,1.44681,0.22109,-2.78057,0.98865,1.57080,0.00001,-0.14512,-0.38002,0.04337,,,,,,,,,,,,,,,,,,,,,,,,,,0,0,0,0,0
4.0457,1783010940.1076,1,1,1.0000,0.0000,1.44681,0.22106,-2.78058,0.98868,1.57080,0.00001,-0.14512,-0.38002,0.04336,,,,,,,,,,,,,,,,,,,,,,,,,,0,0,0,0,0
4.0583,1783010940.1201,1,1,1.0000,0.0000,1.44681,0.22102,-2.78059,0.98874,1.57080,0.00001,-0.14512,-0.38002,0.04335,,,,,,,,,,,,,,,,,,,,,,,,,,0,0,0,0,0
4.0585,1783010940.1204,1,1,1.0000,0.0000,1.44681,0.22102,-2.78059,0.98874,1.57080,0.00001,-0.14512,-0.38002,0.04335,,,,,,,,,,,,,,,,,,,,,,,,,,0,0,0,0,0
4.0824,1783010940.1443,1,1,1.0000,0.0000,1.44681,0.22090,-2.78062,0.98888,1.57080,0.00001,-0.14512,-0.38002,0.04332,,,,,,,,,,,,,,,,,,,,,,,,,,0,0,0,0,0
4.0827,1783010940.1446,1,1,1.0000,0.0000,1.44681,0.22090,-2.78062,0.98888,1.57080,0.00001,-0.14512,-0.38002,0.04332,,,,,,,,,,,,,,,,,,,,,,,,,,0,0,0,0,0
4.0830,1783010940.1448,1,1,1.0000,0.0000,1.44681,0.22090,-2.78062,0.98888,1.57080,0.00001,-0.14512,-0.38002,0.04332,,,,,,,,,,,,,,,,,,,,,,,,,,0,0,0,0,0
4.0948,1783010940.1567,1,1,1.0000,0.0000,1.44681,0.22087,-2.78063,0.98893,1.57080,0.00001,-0.14512,-0.38002,0.04331,,,,,,,,,,,,,,,,,,,,,,,,,,0,0,0,0,0
4.1025,1783010940.1643,1,1,1.0000,0.0000,1.44681,0.22082,-2.78064,0.98899,1.57080,0.00001,-0.14512,-0.38002,0.04330,,,,,,,,,,,,,,,,,,,,,,,,,,0,0,0,0,0
4.1118,1783010940.1737,1,1,1.0000,0.0000,1.44681,0.22079,-2.78065,0.98902,1.57080,0.00001,-0.14512,-0.38002,0.04329,,,,,,,,,,,,,,,,,,,,,,,,,,0,0,0,0,0
4.1122,1783010940.1741,1,1,1.0000,0.0000,1.44681,0.22079,-2.78065,0.98902,1.57080,0.00001,-0.14512,-0.38002,0.04329,,,,,,,,,,,,,,,,,,,,,,,,,,0,0,0,0,0
4.1249,1783010940.1868,1,1,1.0000,0.0000,1.44681,0.22076,-2.78065,0.98907,1.57080,0.00001,-0.14512,-0.38002,0.04328,,,,,,,,,,,,,,,,,,,,,,,,,,0,0,0,0,0
4.1331,1783010940.1950,1,1,1.0000,0.0000,1.44681,0.22071,-2.78067,0.98913,1.57080,0.00001,-0.14512,-0.38002,0.04327,,,,,,,,,,,,,,,,,,,,,,,,,,0,0,0,0,0
4.1336,1783010940.1955,1,1,1.0000,0.0000,1.44681,0.22071,-2.78067,0.98913,1.57080,0.00001,-0.14512,-0.38002,0.04327,,,,,,,,,,,,,,,,,,,,,,,,,,0,0,0,0,0
4.1448,1783010940.2067,1,1,1.0000,0.0000,1.44681,0.22065,-2.78068,0.98919,1.57080,0.00001,-0.14512,-0.38002,0.04325,,,,,,,,,,,,,,,,,,,,,,,,,,0,0,0,0,0
4.1588,1783010940.2207,1,1,1.0000,0.0000,1.44681,0.22060,-2.78069,0.98927,1.57080,0.00001,-0.14512,-0.38002,0.04324,,,,,,,,,,,,,,,,,,,,,,,,,,0,0,0,0,0
4.1625,1783010940.2244,1,1,1.0000,0.0000,1.44681,0.22057,-2.78070,0.98930,1.57080,0.00001,-0.14512,-0.38002,0.04323,,,,,,,,,,,,,,,,,,,,,,,,,,0,0,0,0,0
4.1630,1783010940.2248,1,1,1.0000,0.0000,1.44681,0.22057,-2.78070,0.98930,1.57080,0.00001,-0.14512,-0.38002,0.04323,,,,,,,,,,,,,,,,,,,,,,,,,,0,0,0,0,0
4.1744,1783010940.2362,1,1,1.0000,0.0000,1.44681,0.22054,-2.78071,0.98934,1.57080,0.00001,-0.14512,-0.38002,0.04322,,,,,,,,,,,,,,,,,,,,,,,,,,0,0,0,0,0
4.1931,1783010940.2550,1,1,1.0000,0.0000,1.44681,0.22046,-2.78073,0.98944,1.57080,0.00001,-0.14512,-0.38002,0.04320,,,,,,,,,,,,,,,,,,,,,,,,,,0,0,0,0,0
4.1935,1783010940.2553,1,1,1.0000,0.0000,1.44681,0.22046,-2.78073,0.98944,1.57080,0.00001,-0.14512,-0.38002,0.04320,,,,,,,,,,,,,,,,,,,,,,,,,,0,0,0,0,0
4.1938,1783010940.2556,1,1,1.0000,0.0000,1.44681,0.22046,-2.78073,0.98944,1.57080,0.00001,-0.14512,-0.38002,0.04320,,,,,,,,,,,,,,,,,,,,,,,,,,0,0,0,0,0
4.2023,1783010940.2642,1,1,1.0000,0.0000,1.44681,0.22041,-2.78074,0.98950,1.57080,0.00001,-0.14512,-0.38002,0.04319,,,,,,,,,,,,,,,,,,,,,,,,,,0,0,0,0,0
4.2143,1783010940.2762,1,1,1.0000,0.0000,1.44681,0.22037,-2.78075,0.98954,1.57080,0.00001,-0.14512,-0.38002,0.04318,,,,,,,,,,,,,,,,,,,,,,,,,,0,0,0,0,0
4.2225,1783010940.2843,1,1,1.0000,0.0000,1.44681,0.22032,-2.78076,0.98961,1.57080,0.00001,-0.14512,-0.38002,0.04317,,,,,,,,,,,,,,,,,,,,,,,,,,0,0,0,0,0
4.2338,1783010940.2957,1,1,1.0000,0.0000,1.44681,0.22030,-2.78077,0.98964,1.57080,0.00001,-0.14512,-0.38002,0.04316,,,,,,,,,,,,,,,,,,,,,,,,,,0,0,0,0,0
4.2418,1783010940.3037,1,1,1.0000,0.0000,1.44681,0.22028,-2.78077,0.98966,1.57080,0.00001,-0.14512,-0.38002,0.04316,,,,,,,,,,,,,,,,,,,,,,,,,,0,0,0,0,0
4.2424,1783010940.3042,1,1,1.0000,0.0000,1.44681,0.22026,-2.78078,0.98968,1.57080,0.00001,-0.14512,-0.38002,0.04315,,,,,,,,,,,,,,,,,,,,,,,,,,0,0,0,0,0
4.2557,1783010940.3176,1,1,1.0000,0.0000,1.44681,0.22019,-2.78080,0.98978,1.57080,0.00001,-0.14512,-0.38002,0.04313,,,,,,,,,,,,,,,,,,,,,,,,,,0,0,0,0,0
4.2641,1783010940.3259,1,1,1.0000,0.0000,1.44681,0.22016,-2.78080,0.98981,1.57080,0.00001,-0.14512,-0.38002,0.04313,,,,,,,,,,,,,,,,,,,,,,,,,,0,0,0,0,0
4.2643,1783010940.3262,1,1,1.0000,0.0000,1.44681,0.22016,-2.78080,0.98981,1.57080,0.00001,-0.14512,-0.38002,0.04313,,,,,,,,,,,,,,,,,,,,,,,,,,0,0,0,0,0
4.2766,1783010940.3385,1,1,1.0000,0.0000,1.44681,0.22013,-2.78081,0.98985,1.57080,0.00001,-0.14512,-0.38002,0.04312,,,,,,,,,,,,,,,,,,,,,,,,,,0,0,0,0,0
4.2820,1783010940.3439,1,1,1.0000,0.0000,1.44681,0.22010,-2.78082,0.98988,1.57080,0.00001,-0.14512,-0.38002,0.04311,,,,,,,,,,,,,,,,,,,,,,,,,,0,0,0,0,0
4.2826,1783010940.3445,1,1,1.0000,0.0000,1.44681,0.22008,-2.78082,0.98991,1.57080,0.00001,-0.14512,-0.38002,0.04311,,,,,,,,,,,,,,,,,,,,,,,,,,0,0,0,0,0
4.2943,1783010940.3562,1,1,1.0000,0.0000,1.44681,0.22005,-2.78083,0.98995,1.57080,0.00001,-0.14512,-0.38002,0.04310,,,,,,,,,,,,,,,,,,,,,,,,,,0,0,0,0,0
4.2947,1783010940.3565,1,1,1.0000,0.0000,1.44681,0.22005,-2.78083,0.98995,1.57080,0.00001,-0.14512,-0.38002,0.04310,,,,,,,,,,,,,,,,,,,,,,,,,,0,0,0,0,0
4.3065,1783010940.3684,1,1,1.0000,0.0000,1.44681,0.21999,-2.78084,0.99002,1.57080,0.00001,-0.14512,-0.38002,0.04308,,,,,,,,,,,,,,,,,,,,,,,,,,0,0,0,0,0
4.3070,1783010940.3689,1,1,1.0000,0.0000,1.44681,0.21999,-2.78084,0.99002,1.57080,0.00001,-0.14512,-0.38002,0.04308,,,,,,,,,,,,,,,,,,,,,,,,,,0,0,0,0,0
4.3121,1783010940.3740,1,1,1.0000,0.0000,1.44681,0.21997,-2.78085,0.99005,1.57080,0.00001,-0.14512,-0.38002,0.04308,,,,,,,,,,,,,,,,,,,,,,,,,,0,0,0,0,0
4.3242,1783010940.3861,1,1,1.0000,0.0000,1.44681,0.21991,-2.78086,0.99012,1.57080,0.00001,-0.14512,-0.38002,0.04306,,,,,,,,,,,,,,,,,,,,,,,,,,0,0,0,0,0
4.3326,1783010940.3945,1,1,1.0000,0.0000,1.44681,0.21990,-2.78087,0.99014,1.57080,0.00001,-0.14512,-0.38002,0.04306,,,,,,,,,,,,,,,,,,,,,,,,,,0,0,0,0,0
4.3330,1783010940.3949,1,1,1.0000,0.0000,1.44681,0.21990,-2.78087,0.99014,1.57080,0.00001,-0.14512,-0.38002,0.04306,,,,,,,,,,,,,,,,,,,,,,,,,,0,0,0,0,0
4.3413,1783010940.4032,1,1,1.0000,0.0000,1.44681,0.21985,-2.78088,0.99019,1.57080,0.00001,-0.14512,-0.38002,0.04305,,,,,,,,,,,,,,,,,,,,,,,,,,0,0,0,0,0
4.3416,1783010940.4035,1,1,1.0000,0.0000,1.44681,0.21985,-2.78088,0.99019,1.57080,0.00001,-0.14512,-0.38002,0.04305,,,,,,,,,,,,,,,,,,,,,,,,,,0,0,0,0,0
4.3516,1783010940.4135,1,1,1.0000,0.0000,1.44681,0.21978,-2.78090,0.99029,1.57080,0.00001,-0.14512,-0.38002,0.04303,,,,,,,,,,,,,,,,,,,,,,,,,,0,0,0,0,0
4.3628,1783010940.4247,1,1,1.0000,0.0000,1.44681,0.21976,-2.78090,0.99030,1.57080,0.00001,-0.14512,-0.38002,0.04303,,,,,,,,,,,,,,,,,,,,,,,,,,0,0,0,0,0
4.3631,1783010940.4250,1,1,1.0000,0.0000,1.44681,0.21976,-2.78090,0.99030,1.57080,0.00001,-0.14512,-0.38002,0.04303,,,,,,,,,,,,,,,,,,,,,,,,,,0,0,0,0,0
4.3788,1783010940.4407,1,1,1.0000,0.0000,1.44681,0.21969,-2.78092,0.99040,1.57080,0.00001,-0.14512,-0.38002,0.04301,,,,,,,,,,,,,,,,,,,,,,,,,,0,0,0,0,0
4.3829,1783010940.4448,1,1,1.0000,0.0000,1.44681,0.21969,-2.78092,0.99040,1.57080,0.00001,-0.14512,-0.38002,0.04301,,,,,,,,,,,,,,,,,,,,,,,,,,0,0,0,0,0
4.3913,1783010940.4532,1,1,1.0000,0.0000,1.44681,0.21967,-2.78092,0.99042,1.57080,0.00001,-0.14512,-0.38002,0.04300,,,,,,,,,,,,,,,,,,,,,,,,,,0,0,0,0,0
4.3917,1783010940.4535,1,1,1.0000,0.0000,1.44681,0.21967,-2.78092,0.99042,1.57080,0.00001,-0.14512,-0.38002,0.04300,,,,,,,,,,,,,,,,,,,,,,,,,,0,0,0,0,0
4.4065,1783010940.4683,1,1,1.0000,0.0000,1.44681,0.21958,-2.78095,0.99054,1.57080,0.00001,-0.14512,-0.38002,0.04298,,,,,,,,,,,,,,,,,,,,,,,,,,0,0,0,0,0
4.4163,1783010940.4782,1,1,1.0000,0.0000,1.44681,0.21955,-2.78095,0.99057,1.57080,0.00001,-0.14512,-0.38002,0.04297,,,,,,,,,,,,,,,,,,,,,,,,,,0,0,0,0,0
4.4249,1783010940.4868,1,1,1.0000,0.0000,1.44681,0.21954,-2.78096,0.99059,1.57080,0.00001,-0.14512,-0.38002,0.04297,,,,,,,,,,,,,,,,,,,,,,,,,,0,0,0,0,0
4.4355,1783010940.4974,1,1,1.0000,0.0000,1.44681,0.21949,-2.78097,0.99065,1.57080,0.00001,-0.14512,-0.38002,0.04295,,,,,,,,,,,,,,,,,,,,,,,,,,0,0,0,0,0
4.4458,1783010940.5076,1,1,1.0000,0.0000,1.44681,0.21946,-2.78098,0.99068,1.57080,0.00001,-0.14512,-0.38002,0.04295,,,,,,,,,,,,,,,,,,,,,,,,,,0,0,0,0,0
4.4464,1783010940.5082,1,1,1.0000,0.0000,1.44681,0.21946,-2.78098,0.99069,1.57080,0.00001,-0.14512,-0.38002,0.04295,,,,,,,,,,,,,,,,,,,,,,,,,,0,0,0,0,0
4.4522,1783010940.5141,1,1,1.0000,0.0000,1.44681,0.21945,-2.78098,0.99070,1.57080,0.00001,-0.14512,-0.38002,0.04294,,,,,,,,,,,,,,,,,,,,,,,,,,0,0,0,0,0
4.4525,1783010940.5144,1,1,1.0000,0.0000,1.44681,0.21945,-2.78098,0.99070,1.57080,0.00001,-0.14512,-0.38002,0.04294,,,,,,,,,,,,,,,,,,,,,,,,,,0,0,0,0,0
4.4760,1783010940.5379,1,1,1.0000,0.0000,1.44681,0.21932,-2.78101,0.99085,1.57080,0.00001,-0.14512,-0.38002,0.04291,,,,,,,,,,,,,,,,,,,,,,,,,,0,0,0,0,0
4.4769,1783010940.5388,1,1,1.0000,0.0000,1.44681,0.21932,-2.78101,0.99085,1.57080,0.00001,-0.14512,-0.38002,0.04291,,,,,,,,,,,,,,,,,,,,,,,,,,0,0,0,0,0
4.4828,1783010940.5447,1,1,1.0000,0.0000,1.44681,0.21931,-2.78101,0.99087,1.57080,0.00001,-0.14512,-0.38002,0.04291,,,,,,,,,,,,,,,,,,,,,,,,,,0,0,0,0,0
4.4916,1783010940.5534,1,1,1.0000,0.0000,1.44681,0.21928,-2.78102,0.99091,1.57080,0.00001,-0.14512,-0.38002,0.04290,,,,,,,,,,,,,,,,,,,,,,,,,,0,0,0,0,0
4.4919,1783010940.5538,1,1,1.0000,0.0000,1.44681,0.21928,-2.78102,0.99091,1.57080,0.00001,-0.14512,-0.38002,0.04290,,,,,,,,,,,,,,,,,,,,,,,,,,0,0,0,0,0
4.5025,1783010940.5643,1,1,1.0000,0.0000,1.44681,0.21924,-2.78103,0.99096,1.57080,0.00001,-0.14512,-0.38002,0.04289,,,,,,,,,,,,,,,,,,,,,,,,,,0,0,0,0,0
4.5118,1783010940.5737,1,1,1.0000,0.0000,1.44681,0.21922,-2.78104,0.99098,1.57080,0.00001,-0.14512,-0.38002,0.04289,,,,,,,,,,,,,,,,,,,,,,,,,,0,0,0,0,0
4.5122,1783010940.5741,1,1,1.0000,0.0000,1.44681,0.21922,-2.78104,0.99098,1.57080,0.00001,-0.14512,-0.38002,0.04289,,,,,,,,,,,,,,,,,,,,,,,,,,0,0,0,0,0
4.5275,1783010940.5894,1,1,1.0000,0.0000,1.44681,0.21912,-2.78106,0.99110,1.57080,0.00001,-0.14512,-0.38002,0.04286,,,,,,,,,,,,,,,,,,,,,,,,,,0,0,0,0,0
4.5472,1783010940.6091,1,1,1.0000,0.0000,1.44681,0.21907,-2.78107,0.99117,1.57080,0.00001,-0.14512,-0.38002,0.04285,,,,,,,,,,,,,,,,,,,,,,,,,,0,0,0,0,0
4.5481,1783010940.6100,1,1,1.0000,0.0000,1.44681,0.21907,-2.78107,0.99117,1.57080,0.00001,-0.14512,-0.38002,0.04285,,,,,,,,,,,,,,,,,,,,,,,,,,0,0,0,0,0
4.5526,1783010940.6145,1,1,1.0000,0.0000,1.44681,0.21905,-2.78108,0.99119,1.57080,0.00001,-0.14512,-0.38002,0.04284,,,,,,,,,,,,,,,,,,,,,,,,,,0,0,0,0,0
4.5654,1783010940.6273,1,1,1.0000,0.0000,1.44681,0.21901,-2.78109,0.99125,1.57080,0.00001,-0.14512,-0.38002,0.04283,,,,,,,,,,,,,,,,,,,,,,,,,,0,0,0,0,0
4.5738,1783010940.6357,1,1,1.0000,0.0000,1.44681,0.21899,-2.78109,0.99127,1.57080,0.00001,-0.14512,-0.38002,0.04283,,,,,,,,,,,,,,,,,,,,,,,,,,0,0,0,0,0
4.5835,1783010940.6454,1,1,1.0000,0.0000,1.44681,0.21892,-2.78111,0.99135,1.57080,0.00001,-0.14512,-0.38002,0.04281,,,,,,,,,,,,,,,,,,,,,,,,,,0,0,0,0,0
4.5960,1783010940.6579,1,1,1.0000,0.0000,1.44681,0.21887,-2.78112,0.99142,1.57080,0.00001,-0.14512,-0.38002,0.04280,,,,,,,,,,,,,,,,,,,,,,,,,,0,0,0,0,0
4.6024,1783010940.6642,1,1,1.0000,0.0000,1.44681,0.21886,-2.78113,0.99144,1.57080,0.00001,-0.14512,-0.38002,0.04279,,,,,,,,,,,,,,,,,,,,,,,,,,0,0,0,0,0
4.6124,1783010940.6743,1,1,1.0000,0.0000,1.44681,0.21883,-2.78113,0.99148,1.57080,0.00001,-0.14512,-0.38002,0.04278,,,,,,,,,,,,,,,,,,,,,,,,,,0,0,0,0,0
4.6127,1783010940.6746,1,1,1.0000,0.0000,1.44681,0.21883,-2.78113,0.99148,1.57080,0.00001,-0.14512,-0.38002,0.04278,,,,,,,,,,,,,,,,,,,,,,,,,,0,0,0,0,0
4.6297,1783010940.6916,1,1,1.0000,0.0000,1.44681,0.21878,-2.78115,0.99153,1.57080,0.00001,-0.14512,-0.38002,0.04277,,,,,,,,,,,,,,,,,,,,,,,,,,0,0,0,0,0
4.6303,1783010940.6922,1,1,1.0000,0.0000,1.44681,0.21876,-2.78115,0.99155,1.57080,0.00001,-0.14512,-0.38002,0.04277,,,,,,,,,,,,,,,,,,,,,,,,,,0,0,0,0,0
4.6339,1783010940.6957,1,1,1.0000,0.0000,1.44681,0.21876,-2.78115,0.99155,1.57080,0.00001,-0.14512,-0.38002,0.04277,,,,,,,,,,,,,,,,,,,,,,,,,,0,0,0,0,0
4.6423,1783010940.7041,1,1,1.0000,0.0000,1.44681,0.21870,-2.78117,0.99164,1.57080,0.00001,-0.14512,-0.38002,0.04275,,,,,,,,,,,,,,,,,,,,,,,,,,0,0,0,0,0
4.6542,1783010940.7161,1,1,1.0000,0.0000,1.44681,0.21864,-2.78118,0.99170,1.57080,0.00001,-0.14512,-0.38002,0.04274,,,,,,,,,,,,,,,,,,,,,,,,,,0,0,0,0,0
4.6615,1783010940.7234,1,1,1.0000,0.0000,1.44681,0.21864,-2.78118,0.99171,1.57080,0.00001,-0.14512,-0.38002,0.04274,,,,,,,,,,,,,,,,,,,,,,,,,,0,0,0,0,0
4.6619,1783010940.7238,1,1,1.0000,0.0000,1.44681,0.21864,-2.78118,0.99171,1.57080,0.00001,-0.14512,-0.38002,0.04274,,,,,,,,,,,,,,,,,,,,,,,,,,0,0,0,0,0
4.6744,1783010940.7363,1,1,1.0000,0.0000,1.44681,0.21858,-2.78119,0.99178,1.57080,0.00001,-0.14512,-0.38002,0.04272,,,,,,,,,,,,,,,,,,,,,,,,,,0,0,0,0,0
4.6950,1783010940.7569,1,1,1.0000,0.0000,1.44681,0.21852,-2.78121,0.99186,1.57080,0.00001,-0.14512,-0.38002,0.04271,,,,,,,,,,,,,,,,,,,,,,,,,,0,0,0,0,0
4.6953,1783010940.7572,1,1,1.0000,0.0000,1.44681,0.21852,-2.78121,0.99186,1.57080,0.00001,-0.14512,-0.38002,0.04271,,,,,,,,,,,,,,,,,,,,,,,,,,0,0,0,0,0
4.6975,1783010940.7594,1,1,1.0000,0.0000,1.44681,0.21852,-2.78121,0.99186,1.57080,0.00001,-0.14512,-0.38002,0.04271,,,,,,,,,,,,,,,,,,,,,,,,,,0,0,0,0,0
4.7110,1783010940.7729,1,1,1.0000,0.0000,1.44681,0.21841,-2.78123,0.99199,1.57080,0.00001,-0.14512,-0.38002,0.04268,,,,,,,,,,,,,,,,,,,,,,,,,,0,0,0,0,0
4.7218,1783010940.7837,1,1,1.0000,0.0000,1.44681,0.21841,-2.78124,0.99199,1.57080,0.00001,-0.14512,-0.38002,0.04268,,,,,,,,,,,,,,,,,,,,,,,,,,0,0,0,0,0
4.7385,1783010940.8004,1,1,1.0000,0.0000,1.44681,0.21830,-2.78126,0.99213,1.57080,0.00001,-0.14512,-0.38002,0.04265,,,,,,,,,,,,,,,,,,,,,,,,,,0,0,0,0,0
4.7389,1783010940.8008,1,1,1.0000,0.0000,1.44681,0.21830,-2.78126,0.99213,1.57080,0.00001,-0.14512,-0.38002,0.04265,,,,,,,,,,,,,,,,,,,,,,,,,,0,0,0,0,0
4.7489,1783010940.8108,1,1,1.0000,0.0000,1.44681,0.21830,-2.78126,0.99213,1.57080,0.00001,-0.14512,-0.38002,0.04265,,,,,,,,,,,,,,,,,,,,,,,,,,0,0,0,0,0
4.7493,1783010940.8112,1,1,1.0000,0.0000,1.44681,0.21830,-2.78126,0.99213,1.57080,0.00001,-0.14512,-0.38002,0.04265,,,,,,,,,,,,,,,,,,,,,,,,,,0,0,0,0,0
4.7725,1783010940.8343,1,1,1.0000,0.0000,1.44681,0.21817,-2.78130,0.99230,1.57080,0.00001,-0.14512,-0.38002,0.04262,,,,,,,,,,,,,,,,,,,,,,,,,,0,0,0,0,0
4.7771,1783010940.8390,1,1,1.0000,0.0000,1.44681,0.21817,-2.78130,0.99230,1.57080,0.00001,-0.14512,-0.38002,0.04262,,,,,,,,,,,,,,,,,,,,,,,,,,0,0,0,0,0
4.7774,1783010940.8393,1,1,1.0000,0.0000,1.44681,0.21817,-2.78130,0.99230,1.57080,0.00001,-0.14512,-0.38002,0.04262,,,,,,,,,,,,,,,,,,,,,,,,,,0,0,0,0,0
4.7892,1783010940.8511,1,1,1.0000,0.0000,1.44681,0.21813,-2.78130,0.99234,1.57080,0.00001,-0.14512,-0.38002,0.04261,,,,,,,,,,,,,,,,,,,,,,,,,,0,0,0,0,0
4.7972,1783010940.8591,1,1,1.0000,0.0000,1.44681,0.21808,-2.78132,0.99240,1.57080,0.00001,-0.14512,-0.38002,0.04259,,,,,,,,,,,,,,,,,,,,,,,,,,0,0,0,0,0
4.7976,1783010940.8595,1,1,1.0000,0.0000,1.44681,0.21808,-2.78132,0.99240,1.57080,0.00001,-0.14512,-0.38002,0.04259,,,,,,,,,,,,,,,,,,,,,,,,,,0,0,0,0,0
4.8106,1783010940.8724,1,1,1.0000,0.0000,1.44681,0.21804,-2.78133,0.99246,1.57080,0.00001,-0.14512,-0.38002,0.04258,,,,,,,,,,,,,,,,,,,,,,,,,,0,0,0,0,0
4.8108,1783010940.8727,1,1,1.0000,0.0000,1.44681,0.21804,-2.78133,0.99246,1.57080,0.00001,-0.14512,-0.38002,0.04258,,,,,,,,,,,,,,,,,,,,,,,,,,0,0,0,0,0
4.8184,1783010940.8803,1,1,1.0000,0.0000,1.44681,0.21800,-2.78134,0.99251,1.57080,0.00001,-0.14512,-0.38002,0.04257,,,,,,,,,,,,,,,,,,,,,,,,,,0,0,0,0,0
4.8186,1783010940.8804,1,1,1.0000,0.0000,1.44681,0.21800,-2.78134,0.99251,1.57080,0.00001,-0.14512,-0.38002,0.04257,,,,,,,,,,,,,,,,,,,,,,,,,,0,0,0,0,0
4.8375,1783010940.8994,1,1,1.0000,0.0000,1.44681,0.21792,-2.78136,0.99260,1.57080,0.00001,-0.14512,-0.38002,0.04255,,,,,,,,,,,,,,,,,,,,,,,,,,0,0,0,0,0
4.8384,1783010940.9003,1,1,1.0000,0.0000,1.44681,0.21791,-2.78136,0.99261,1.57080,0.00001,-0.14512,-0.38002,0.04255,,,,,,,,,,,,,,,,,,,,,,,,,,0,0,0,0,0
4.8454,1783010940.9073,1,1,1.0000,0.0000,1.44681,0.21790,-2.78136,0.99263,1.57080,0.00001,-0.14512,-0.38002,0.04255,,,,,,,,,,,,,,,,,,,,,,,,,,0,0,0,0,0
4.8555,1783010940.9174,1,1,1.0000,0.0000,1.44681,0.21783,-2.78138,0.99271,1.57080,0.00001,-0.14512,-0.38002,0.04253,,,,,,,,,,,,,,,,,,,,,,,,,,0,0,0,0,0
4.8657,1783010940.9275,1,1,1.0000,0.0000,1.44681,0.21781,-2.78138,0.99274,1.57080,0.00001,-0.14512,-0.38002,0.04252,,,,,,,,,,,,,,,,,,,,,,,,,,0,0,0,0,0
4.8795,1783010940.9414,1,1,1.0000,0.0000,1.44681,0.21775,-2.78140,0.99282,1.57080,0.00001,-0.14512,-0.38002,0.04251,,,,,,,,,,,,,,,,,,,,,,,,,,0,0,0,0,0
4.8924,1783010940.9543,1,1,1.0000,0.0000,1.44681,0.21767,-2.78142,0.99291,1.57080,0.00001,-0.14512,-0.38002,0.04249,,,,,,,,,,,,,,,,,,,,,,,,,,0,0,0,0,0
4.8979,1783010940.9598,1,1,1.0000,0.0000,1.44681,0.21767,-2.78142,0.99291,1.57080,0.00001,-0.14512,-0.38002,0.04249,,,,,,,,,,,,,,,,,,,,,,,,,,0,0,0,0,0
4.9111,1783010940.9730,1,1,1.0000,0.0000,1.44681,0.21761,-2.78143,0.99299,1.57080,0.00001,-0.14512,-0.38002,0.04247,,,,,,,,,,,,,,,,,,,,,,,,,,0,0,0,0,0
4.9155,1783010940.9773,1,1,1.0000,0.0000,1.44681,0.21759,-2.78144,0.99302,1.57080,0.00001,-0.14512,-0.38002,0.04247,,,,,,,,,,,,,,,,,,,,,,,,,,0,0,0,0,0
4.9258,1783010940.9877,1,1,1.0000,0.0000,1.44681,0.21756,-2.78145,0.99305,1.57080,0.00001,-0.14512,-0.38002,0.04246,,,,,,,,,,,,,,,,,,,,,,,,,,0,0,0,0,0
4.9359,1783010940.9978,1,1,1.0000,0.0000,1.44681,0.21752,-2.78145,0.99310,1.57080,0.00001,-0.14512,-0.38002,0.04245,,,,,,,,,,,,,,,,,,,,,,,,,,0,0,0,0,0
4.9515,1783010941.0133,1,1,1.0000,0.0000,1.44681,0.21742,-2.78148,0.99322,1.57080,0.00001,-0.14512,-0.38002,0.04243,,,,,,,,,,,,,,,,,,,,,,,,,,0,0,0,0,0
4.9567,1783010941.0186,1,1,1.0000,0.0000,1.44681,0.21742,-2.78148,0.99322,1.57080,0.00001,-0.14512,-0.38002,0.04243,,,,,,,,,,,,,,,,,,,,,,,,,,0,0,0,0,0
4.9717,1783010941.0336,1,1,1.0000,0.0000,1.44681,0.21736,-2.78149,0.99330,1.57080,0.00001,-0.14512,-0.38002,0.04241,,,,,,,,,,,,,,,,,,,,,,,,,,0,0,0,0,0
4.9720,1783010941.0339,1,1,1.0000,0.0000,1.44681,0.21736,-2.78149,0.99330,1.57080,0.00001,-0.14512,-0.38002,0.04241,,,,,,,,,,,,,,,,,,,,,,,,,,0,0,0,0,0
4.9763,1783010941.0381,1,1,1.0000,0.0000,1.44681,0.21734,-2.78150,0.99333,1.57080,0.00001,-0.14512,-0.38002,0.04240,,,,,,,,,,,,,,,,,,,,,,,,,,0,0,0,0,0
4.9766,1783010941.0385,1,1,1.0000,0.0000,1.44681,0.21734,-2.78150,0.99333,1.57080,0.00001,-0.14512,-0.38002,0.04240,,,,,,,,,,,,,,,,,,,,,,,,,,0,0,0,0,0
4.9879,1783010941.0498,1,1,1.0000,0.0000,1.44681,0.21731,-2.78151,0.99337,1.57080,0.00001,-0.14512,-0.38002,0.04240,,,,,,,,,,,,,,,,,,,,,,,,,,0,0,0,0,0
4.9987,1783010941.0605,1,1,1.0000,0.0000,1.44681,0.21725,-2.78152,0.99343,1.57080,0.00001,-0.14512,-0.38002,0.04238,,,,,,,,,,,,,,,,,,,,,,,,,,0,0,0,0,0
5.0110,1783010941.0729,1,1,1.0000,0.0000,1.44681,0.21718,-2.78154,0.99353,1.57080,0.00001,-0.14512,-0.38002,0.04236,,,,,,,,,,,,,,,,,,,,,,,,,,0,0,0,0,0
5.0154,1783010941.0773,1,1,1.0000,0.0000,1.44681,0.21718,-2.78154,0.99353,1.57080,0.00001,-0.14512,-0.38002,0.04236,,,,,,,,,,,,,,,,,,,,,,,,,,0,0,0,0,0
5.0266,1783010941.0885,1,1,1.0000,0.0000,1.44681,0.21714,-2.78155,0.99358,1.57080,0.00001,-0.14512,-0.38002,0.04235,,,,,,,,,,,,,,,,,,,,,,,,,,0,0,0,0,0
5.0537,1783010941.1156,1,1,1.0000,0.0000,1.44681,0.21703,-2.78158,0.99371,1.57080,0.00001,-0.14512,-0.38002,0.04233,,,,,,,,,,,,,,,,,,,,,,,,,,0,0,0,0,0
5.0544,1783010941.1163,1,1,1.0000,0.0000,1.44681,0.21703,-2.78158,0.99372,1.57080,0.00001,-0.14512,-0.38002,0.04232,,,,,,,,,,,,,,,,,,,,,,,,,,0,0,0,0,0
5.0558,1783010941.1177,1,1,1.0000,0.0000,1.44681,0.21703,-2.78158,0.99372,1.57080,0.00001,-0.14512,-0.38002,0.04232,,,,,,,,,,,,,,,,,,,,,,,,,,0,0,0,0,0
5.0674,1783010941.1293,1,1,1.0000,0.0000,1.44681,0.21697,-2.78159,0.99378,1.57080,0.00001,-0.14512,-0.38002,0.04231,,,,,,,,,,,,,,,,,,,,,,,,,,0,0,0,0,0
5.0838,1783010941.1457,1,1,1.0000,0.0000,1.44681,0.21693,-2.78160,0.99383,1.57080,0.00001,-0.14512,-0.38002,0.04230,,,,,,,,,,,,,,,,,,,,,,,,,,0,0,0,0,0
5.0841,1783010941.1460,1,1,1.0000,0.0000,1.44681,0.21693,-2.78160,0.99383,1.57080,0.00001,-0.14512,-0.38002,0.04230,,,,,,,,,,,,,,,,,,,,,,,,,,0,0,0,0,0
5.0900,1783010941.1519,1,1,1.0000,0.0000,1.44681,0.21691,-2.78161,0.99386,1.57080,0.00001,-0.14512,-0.38002,0.04230,,,,,,,,,,,,,,,,,,,,,,,,,,0,0,0,0,0
5.0904,1783010941.1523,1,1,1.0000,0.0000,1.44681,0.21689,-2.78161,0.99389,1.57080,0.00001,-0.14512,-0.38002,0.04229,,,,,,,,,,,,,,,,,,,,,,,,,,0,0,0,0,0
5.0961,1783010941.1580,1,1,1.0000,0.0000,1.44681,0.21686,-2.78162,0.99392,1.57080,0.00001,-0.14512,-0.38002,0.04228,,,,,,,,,,,,,,,,,,,,,,,,,,0,0,0,0,0
5.0964,1783010941.1583,1,1,1.0000,0.0000,1.44681,0.21686,-2.78162,0.99392,1.57080,0.00001,-0.14512,-0.38002,0.04228,,,,,,,,,,,,,,,,,,,,,,,,,,0,0,0,0,0
5.1110,1783010941.1728,1,1,1.0000,0.0000,1.44681,0.21681,-2.78163,0.99399,1.57080,0.00001,-0.14512,-0.38002,0.04227,,,,,,,,,,,,,,,,,,,,,,,,,,0,0,0,0,0
5.1112,1783010941.1731,1,1,1.0000,0.0000,1.44681,0.21681,-2.78163,0.99399,1.57080,0.00001,-0.14512,-0.38002,0.04227,,,,,,,,,,,,,,,,,,,,,,,,,,0,0,0,0,0
5.1195,1783010941.1814,1,1,1.0000,0.0000,1.44681,0.21678,-2.78164,0.99402,1.57080,0.00001,-0.14512,-0.38002,0.04226,,,,,,,,,,,,,,,,,,,,,,,,,,0,0,0,0,0
5.1198,1783010941.1817,1,1,1.0000,0.0000,1.44681,0.21678,-2.78164,0.99402,1.57080,0.00001,-0.14512,-0.38002,0.04226,,,,,,,,,,,,,,,,,,,,,,,,,,0,0,0,0,0
5.1256,1783010941.1875,1,1,1.0000,0.0000,1.44681,0.21677,-2.78164,0.99404,1.57080,0.00001,-0.14512,-0.38002,0.04226,,,,,,,,,,,,,,,,,,,,,,,,,,0,0,0,0,0
5.1259,1783010941.1878,1,1,1.0000,0.0000,1.44681,0.21677,-2.78164,0.99404,1.57080,0.00001,-0.14512,-0.38002,0.04226,,,,,,,,,,,,,,,,,,,,,,,,,,0,0,0,0,0
5.1363,1783010941.1982,1,1,1.0000,0.0000,1.44681,0.21672,-2.78165,0.99410,1.57080,0.00001,-0.14512,-0.38002,0.04225,,,,,,,,,,,,,,,,,,,,,,,,,,0,0,0,0,0
5.1366,1783010941.1984,1,1,1.0000,0.0000,1.44681,0.21672,-2.78165,0.99410,1.57080,0.00001,-0.14512,-0.38002,0.04225,,,,,,,,,,,,,,,,,,,,,,,,,,0,0,0,0,0
5.1458,1783010941.2076,1,1,1.0000,0.0000,1.44681,0.21671,-2.78166,0.99412,1.57080,0.00001,-0.14512,-0.38002,0.04224,,,,,,,,,,,,,,,,,,,,,,,,,,0,0,0,0,0
5.1461,1783010941.2080,1,1,1.0000,0.0000,1.44681,0.21671,-2.78166,0.99412,1.57080,0.00001,-0.14512,-0.38002,0.04224,,,,,,,,,,,,,,,,,,,,,,,,,,0,0,0,0,0
5.1555,1783010941.2173,1,1,1.0000,0.0000,1.44681,0.21664,-2.78167,0.99420,1.57080,0.00001,-0.14512,-0.38002,0.04222,,,,,,,,,,,,,,,,,,,,,,,,,,0,0,0,0,0
5.1656,1783010941.2275,1,1,1.0000,0.0000,1.44681,0.21658,-2.78169,0.99427,1.57080,0.00001,-0.14512,-0.38002,0.04221,,,,,,,,,,,,,,,,,,,,,,,,,,0,0,0,0,0
5.1660,1783010941.2279,1,1,1.0000,0.0000,1.44681,0.21658,-2.78169,0.99427,1.57080,0.00001,-0.14512,-0.38002,0.04221,,,,,,,,,,,,,,,,,,,,,,,,,,0,0,0,0,0
5.1795,1783010941.2413,1,1,1.0000,0.0000,1.44681,0.21656,-2.78169,0.99430,1.57080,0.00001,-0.14512,-0.38002,0.04220,,,,,,,,,,,,,,,,,,,,,,,,,,0,0,0,0,0
5.1857,1783010941.2476,1,1,1.0000,0.0000,1.44681,0.21654,-2.78170,0.99433,1.57080,0.00001,-0.14512,-0.38002,0.04220,,,,,,,,,,,,,,,,,,,,,,,,,,0,0,0,0,0
5.1865,1783010941.2484,1,1,1.0000,0.0000,1.44681,0.21652,-2.78170,0.99435,1.57080,0.00001,-0.14512,-0.38002,0.04219,,,,,,,,,,,,,,,,,,,,,,,,,,0,0,0,0,0
5.1987,1783010941.2606,1,1,1.0000,0.0000,1.44681,0.21649,-2.78171,0.99438,1.57080,0.00001,-0.14512,-0.38002,0.04219,,,,,,,,,,,,,,,,,,,,,,,,,,0,0,0,0,0
5.2176,1783010941.2795,1,1,1.0000,0.0000,1.44681,0.21641,-2.78173,0.99449,1.57080,0.00001,-0.14512,-0.38002,0.04217,,,,,,,,,,,,,,,,,,,,,,,,,,0,0,0,0,0
5.2179,1783010941.2798,1,1,1.0000,0.0000,1.44681,0.21641,-2.78173,0.99449,1.57080,0.00001,-0.14512,-0.38002,0.04217,,,,,,,,,,,,,,,,,,,,,,,,,,0,0,0,0,0
5.2267,1783010941.2885,1,1,1.0000,0.0000,1.44681,0.21635,-2.78174,0.99455,1.57080,0.00001,-0.14512,-0.38002,0.04215,,,,,,,,,,,,,,,,,,,,,,,,,,0,0,0,0,0
5.2271,1783010941.2889,1,1,1.0000,0.0000,1.44681,0.21635,-2.78174,0.99455,1.57080,0.00001,-0.14512,-0.38002,0.04215,,,,,,,,,,,,,,,,,,,,,,,,,,0,0,0,0,0
5.2386,1783010941.3005,1,1,1.0000,0.0000,1.44681,0.21633,-2.78175,0.99459,1.57080,0.00001,-0.14512,-0.38002,0.04215,,,,,,,,,,,,,,,,,,,,,,,,,,0,0,0,0,0
5.2389,1783010941.3008,1,1,1.0000,0.0000,1.44681,0.21633,-2.78175,0.99459,1.57080,0.00001,-0.14512,-0.38002,0.04215,,,,,,,,,,,,,,,,,,,,,,,,,,0,0,0,0,0
5.2481,1783010941.3099,1,1,1.0000,0.0000,1.44681,0.21629,-2.78176,0.99463,1.57080,0.00001,-0.14512,-0.38002,0.04214,,,,,,,,,,,,,,,,,,,,,,,,,,0,0,0,0,0
5.2483,1783010941.3102,1,1,1.0000,0.0000,1.44681,0.21629,-2.78176,0.99463,1.57080,0.00001,-0.14512,-0.38002,0.04214,,,,,,,,,,,,,,,,,,,,,,,,,,0,0,0,0,0
5.2596,1783010941.3215,1,1,1.0000,0.0000,1.44681,0.21626,-2.78177,0.99467,1.57080,0.00001,-0.14512,-0.38002,0.04213,,,,,,,,,,,,,,,,,,,,,,,,,,0,0,0,0,0
5.2763,1783010941.3381,1,1,1.0000,0.0000,1.44681,0.21618,-2.78179,0.99477,1.57080,0.00001,-0.14512,-0.38002,0.04211,,,,,,,,,,,,,,,,,,,,,,,,,,0,0,0,0,0
5.2768,1783010941.3387,1,1,1.0000,0.0000,1.44681,0.21618,-2.78179,0.99477,1.57080,0.00001,-0.14512,-0.38002,0.04211,,,,,,,,,,,,,,,,,,,,,,,,,,0,0,0,0,0
5.2771,1783010941.3390,1,1,1.0000,0.0000,1.44681,0.21618,-2.78179,0.99477,1.57080,0.00001,-0.14512,-0.38002,0.04211,,,,,,,,,,,,,,,,,,,,,,,,,,0,0,0,0,0
