Martins-Lucaas/twinforge/sensors/Data/20260704_155027__samples.csv
t_rel_s,t_unix,cycle,phase,setpoint_n,force_net_n,q1,q2,q3,q4,q5,q6,tcp_x,tcp_y,tcp_z,taxel_0,taxel_1,taxel_2,taxel_3,taxel_4,taxel_5,taxel_6,taxel_7,taxel_8,taxel_9,taxel_10,taxel_11,taxel_12,taxel_13,taxel_14,taxel_15,taxel_16,taxel_17,taxel_18,taxel_19,taxel_20,taxel_21,taxel_22,taxel_23,taxel_24,n_RA,n_SA,cn_mm,cn_ra,cn_sa
0.0145,1783191027.1443,1,0,2.0000,0.0000,1.44682,0.23328,-2.77760,0.97329,1.57079,0.00000,-0.14513,-0.37992,0.04645,,,,,,,,,,,,,,,,,,,,,,,,,,0,0,0,0,0
0.0335,1783191027.1633,1,0,2.0000,0.0000,1.44682,0.23328,-2.77760,0.97329,1.57079,0.00000,-0.14513,-0.37992,0.04645,,,,,,,,,,,,,,,,,,,,,,,,,,0,0,0,0,0
0.0339,1783191027.1637,1,0,2.0000,0.0000,1.44682,0.23328,-2.77760,0.97329,1.57079,0.00000,-0.14513,-0.37992,0.04645,,,,,,,,,,,,,,,,,,,,,,,,,,0,0,0,0,0
0.0344,1783191027.1642,1,0,2.0000,0.0000,1.44682,0.23328,-2.77760,0.97329,1.57079,0.00000,-0.14513,-0.37992,0.04645,,,,,,,,,,,,,,,,,,,,,,,,,,0,0,0,0,0
0.0477,1783191027.1775,1,0,2.0000,0.0000,1.44682,0.23328,-2.77760,0.97329,1.57079,0.00000,-0.14513,-0.37992,0.04645,,,,,,,,,,,,,,,,,,,,,,,,,,0,0,0,0,0
0.0547,1783191027.1844,1,0,2.0000,0.0000,1.44682,0.23328,-2.77760,0.97329,1.57079,0.00000,-0.14513,-0.37992,0.04645,,,,,,,,,,,,,,,,,,,,,,,,,,0,0,0,0,0
0.0621,1783191027.1919,1,0,2.0000,0.0000,1.44682,0.23328,-2.77760,0.97329,1.57079,0.00000,-0.14513,-0.37992,0.04645,,,,,,,,,,,,,,,,,,,,,,,,,,0,0,0,0,0
0.0718,1783191027.2016,1,0,2.0000,0.0000,1.44682,0.23328,-2.77760,0.97329,1.57079,0.00000,-0.14513,-0.37992,0.04645,,,,,,,,,,,,,,,,,,,,,,,,,,0,0,0,0,0
0.0722,1783191027.2020,1,0,2.0000,0.0000,1.44682,0.23328,-2.77760,0.97329,1.57079,0.00000,-0.14513,-0.37992,0.04645,,,,,,,,,,,,,,,,,,,,,,,,,,0,0,0,0,0
0.0826,1783191027.2124,1,0,2.0000,0.0000,1.44682,0.23328,-2.77760,0.97329,1.57079,0.00000,-0.14513,-0.37992,0.04645,,,,,,,,,,,,,,,,,,,,,,,,,,0,0,0,0,0
0.1578,1783191027.2875,1,0,2.0000,0.0000,1.44682,0.23328,-2.77760,0.97329,1.57079,0.00000,-0.14513,-0.37992,0.04645,,,,,,,,,,,,,,,,,,,,,,,,,,0,0,0,0,0
0.1580,1783191027.2878,1,0,2.0000,0.0000,1.44682,0.23328,-2.77760,0.97329,1.57079,0.00000,-0.14513,-0.37992,0.04645,,,,,,,,,,,,,,,,,,,,,,,,,,0,0,0,0,0
0.1583,1783191027.2881,1,0,2.0000,0.0000,1.44682,0.23328,-2.77760,0.97329,1.57079,0.00000,-0.14513,-0.37992,0.04645,,,,,,,,,,,,,,,,,,,,,,,,,,0,0,0,0,0
0.1586,1783191027.2884,1,0,2.0000,0.0000,1.44682,0.23328,-2.77760,0.97329,1.57079,0.00000,-0.14513,-0.37992,0.04645,,,,,,,,,,,,,,,,,,,,,,,,,,0,0,0,0,0
0.1589,1783191027.2887,1,0,2.0000,0.0000,1.44682,0.23328,-2.77760,0.97329,1.57079,0.00000,-0.14513,-0.37992,0.04645,,,,,,,,,,,,,,,,,,,,,,,,,,0,0,0,0,0
0.2451,1783191027.3748,1,0,2.0000,0.0000,1.44682,0.23328,-2.77760,0.97329,1.57079,0.00000,-0.14513,-0.37992,0.04645,,,,,,,,,,,,,,,,,,,,,,,,,,0,0,0,0,0
0.2455,1783191027.3753,1,0,2.0000,0.0000,1.44682,0.23328,-2.77760,0.97329,1.57079,0.00000,-0.14513,-0.37992,0.04645,,,,,,,,,,,,,,,,,,,,,,,,,,0,0,0,0,0
0.2459,1783191027.3757,1,0,2.0000,0.0000,1.44682,0.23328,-2.77760,0.97329,1.57079,0.00000,-0.14513,-0.37992,0.04645,,,,,,,,,,,,,,,,,,,,,,,,,,0,0,0,0,0
0.2463,1783191027.3760,1,0,2.0000,0.0000,1.44682,0.23328,-2.77760,0.97329,1.57079,0.00000,-0.14513,-0.37992,0.04645,,,,,,,,,,,,,,,,,,,,,,,,,,0,0,0,0,0
0.2466,1783191027.3763,1,0,2.0000,0.0000,1.44682,0.23328,-2.77760,0.97329,1.57079,0.00000,-0.14513,-0.37992,0.04645,,,,,,,,,,,,,,,,,,,,,,,,,,0,0,0,0,0
0.4005,1783191027.5303,1,0,2.0000,0.0000,1.44682,0.23328,-2.77760,0.97329,1.57079,0.00000,-0.14513,-0.37992,0.04645,,,,,,,,,,,,,,,,,,,,,,,,,,0,0,0,0,0
0.4012,1783191027.5309,1,0,2.0000,0.0000,1.44682,0.23328,-2.77760,0.97329,1.57079,0.00000,-0.14513,-0.37992,0.04645,,,,,,,,,,,,,,,,,,,,,,,,,,0,0,0,0,0
0.4016,1783191027.5314,1,0,2.0000,0.0000,1.44682,0.23328,-2.77760,0.97329,1.57079,0.00000,-0.14513,-0.37992,0.04645,,,,,,,,,,,,,,,,,,,,,,,,,,0,0,0,0,0
0.4021,1783191027.5318,1,0,2.0000,0.0000,1.44682,0.23328,-2.77760,0.97329,1.57079,0.00000,-0.14513,-0.37992,0.04645,,,,,,,,,,,,,,,,,,,,,,,,,,0,0,0,0,0
0.4026,1783191027.5323,1,0,2.0000,0.0000,1.44682,0.23328,-2.77760,0.97329,1.57079,0.00000,-0.14513,-0.37992,0.04645,,,,,,,,,,,,,,,,,,,,,,,,,,0,0,0,0,0
0.4030,1783191027.5328,1,0,2.0000,0.0000,1.44682,0.23328,-2.77760,0.97329,1.57079,0.00000,-0.14513,-0.37992,0.04645,,,,,,,,,,,,,,,,,,,,,,,,,,0,0,0,0,0
0.4035,1783191027.5333,1,0,2.0000,0.0000,1.44682,0.23328,-2.77760,0.97329,1.57079,0.00000,-0.14513,-0.37992,0.04645,,,,,,,,,,,,,,,,,,,,,,,,,,0,0,0,0,0
0.4040,1783191027.5338,1,0,2.0000,0.0000,1.44682,0.23328,-2.77760,0.97329,1.57079,0.00000,-0.14513,-0.37992,0.04645,,,,,,,,,,,,,,,,,,,,,,,,,,0,0,0,0,0
0.4048,1783191027.5346,1,0,2.0000,0.0000,1.44682,0.23328,-2.77760,0.97329,1.57079,0.00000,-0.14513,-0.37992,0.04645,,,,,,,,,,,,,,,,,,,,,,,,,,0,0,0,0,0
0.4052,1783191027.5349,1,0,2.0000,0.0000,1.44682,0.23328,-2.77760,0.97329,1.57079,0.00000,-0.14513,-0.37992,0.04645,,,,,,,,,,,,,,,,,,,,,,,,,,0,0,0,0,0
0.4057,1783191027.5355,1,0,2.0000,0.0000,1.44682,0.23328,-2.77760,0.97329,1.57079,0.00000,-0.14513,-0.37992,0.04645,,,,,,,,,,,,,,,,,,,,,,,,,,0,0,0,0,0
0.4062,1783191027.5359,1,0,2.0000,0.0000,1.44682,0.23328,-2.77760,0.97329,1.57079,0.00000,-0.14513,-0.37992,0.04645,,,,,,,,,,,,,,,,,,,,,,,,,,0,0,0,0,0
0.4067,1783191027.5364,1,0,2.0000,0.0000,1.44682,0.23328,-2.77760,0.97329,1.57079,0.00000,-0.14513,-0.37992,0.04645,,,,,,,,,,,,,,,,,,,,,,,,,,0,0,0,0,0
0.4120,1783191027.5418,1,0,2.0000,0.0000,1.44682,0.23328,-2.77760,0.97329,1.57079,0.00000,-0.14513,-0.37992,0.04645,,,,,,,,,,,,,,,,,,,,,,,,,,0,0,0,0,0
0.4236,1783191027.5533,1,0,2.0000,0.0000,1.44682,0.23328,-2.77760,0.97329,1.57079,0.00000,-0.14513,-0.37992,0.04645,,,,,,,,,,,,,,,,,,,,,,,,,,0,0,0,0,0
0.4240,1783191027.5537,1,0,2.0000,0.0000,1.44682,0.23328,-2.77760,0.97329,1.57079,0.00000,-0.14513,-0.37992,0.04645,,,,,,,,,,,,,,,,,,,,,,,,,,0,0,0,0,0
0.4369,1783191027.5667,1,0,2.0000,0.0000,1.44682,0.23328,-2.77760,0.97329,1.57079,0.00000,-0.14513,-0.37992,0.04645,,,,,,,,,,,,,,,,,,,,,,,,,,0,0,0,0,0
0.4418,1783191027.5715,1,0,2.0000,0.0000,1.44682,0.23328,-2.77760,0.97329,1.57079,0.00000,-0.14513,-0.37992,0.04645,,,,,,,,,,,,,,,,,,,,,,,,,,0,0,0,0,0
0.4420,1783191027.5718,1,0,2.0000,0.0000,1.44682,0.23328,-2.77760,0.97329,1.57079,0.00000,-0.14513,-0.37992,0.04645,,,,,,,,,,,,,,,,,,,,,,,,,,0,0,0,0,0
0.4516,1783191027.5814,1,0,2.0000,0.0000,1.44682,0.23328,-2.77760,0.97329,1.57079,0.00000,-0.14513,-0.37992,0.04645,,,,,,,,,,,,,,,,,,,,,,,,,,0,0,0,0,0
0.4619,1783191027.5916,1,0,2.0000,0.0000,1.44682,0.23328,-2.77760,0.97329,1.57079,0.00000,-0.14513,-0.37992,0.04645,,,,,,,,,,,,,,,,,,,,,,,,,,0,0,0,0,0
0.4732,1783191027.6030,1,0,2.0000,0.0000,1.44682,0.23328,-2.77760,0.97329,1.57079,0.00000,-0.14513,-0.37992,0.04645,,,,,,,,,,,,,,,,,,,,,,,,,,0,0,0,0,0
0.4734,1783191027.6032,1,0,2.0000,0.0000,1.44682,0.23328,-2.77760,0.97329,1.57079,0.00000,-0.14513,-0.37992,0.04645,,,,,,,,,,,,,,,,,,,,,,,,,,0,0,0,0,0
0.4851,1783191027.6148,1,0,2.0000,0.0000,1.44682,0.23328,-2.77760,0.97329,1.57079,0.00000,-0.14513,-0.37992,0.04645,,,,,,,,,,,,,,,,,,,,,,,,,,0,0,0,0,0
0.4942,1783191027.6240,1,0,2.0000,0.0000,1.44682,0.23328,-2.77760,0.97329,1.57079,0.00000,-0.14513,-0.37992,0.04645,,,,,,,,,,,,,,,,,,,,,,,,,,0,0,0,0,0
0.5020,1783191027.6317,1,0,2.0000,0.0000,1.44682,0.23328,-2.77760,0.97329,1.57079,0.00000,-0.14513,-0.37992,0.04645,,,,,,,,,,,,,,,,,,,,,,,,,,0,0,0,0,0
0.5141,1783191027.6438,1,0,2.0000,0.0000,1.44682,0.23328,-2.77760,0.97329,1.57079,0.00000,-0.14513,-0.37992,0.04645,,,,,,,,,,,,,,,,,,,,,,,,,,0,0,0,0,0
0.5244,1783191027.6541,1,0,2.0000,0.0000,1.44682,0.23328,-2.77760,0.97329,1.57079,0.00000,-0.14513,-0.37992,0.04645,,,,,,,,,,,,,,,,,,,,,,,,,,0,0,0,0,0
0.5324,1783191027.6622,1,0,2.0000,0.0000,1.44682,0.23328,-2.77760,0.97329,1.57079,0.00000,-0.14513,-0.37992,0.04645,,,,,,,,,,,,,,,,,,,,,,,,,,0,0,0,0,0
0.5329,1783191027.6627,1,0,2.0000,0.0000,1.44682,0.23328,-2.77760,0.97329,1.57079,0.00000,-0.14513,-0.37992,0.04645,,,,,,,,,,,,,,,,,,,,,,,,,,0,0,0,0,0
0.5427,1783191027.6725,1,0,2.0000,0.0000,1.44682,0.23328,-2.77760,0.97329,1.57079,0.00000,-0.14513,-0.37992,0.04645,,,,,,,,,,,,,,,,,,,,,,,,,,0,0,0,0,0
0.5534,1783191027.6831,1,0,2.0000,0.0000,1.44682,0.23328,-2.77760,0.97329,1.57079,0.00000,-0.14513,-0.37992,0.04645,,,,,,,,,,,,,,,,,,,,,,,,,,0,0,0,0,0
0.5537,1783191027.6835,1,0,2.0000,0.0000,1.44682,0.23328,-2.77760,0.97329,1.57079,0.00000,-0.14513,-0.37992,0.04645,,,,,,,,,,,,,,,,,,,,,,,,,,0,0,0,0,0
0.5632,1783191027.6930,1,0,2.0000,0.0000,1.44682,0.23328,-2.77760,0.97329,1.57079,0.00000,-0.14513,-0.37992,0.04645,,,,,,,,,,,,,,,,,,,,,,,,,,0,0,0,0,0
0.5733,1783191027.7031,1,0,2.0000,0.0000,1.44682,0.23328,-2.77760,0.97329,1.57079,0.00000,-0.14513,-0.37992,0.04645,,,,,,,,,,,,,,,,,,,,,,,,,,0,0,0,0,0
0.5736,1783191027.7034,1,0,2.0000,0.0000,1.44682,0.23328,-2.77760,0.97329,1.57079,0.00000,-0.14513,-0.37992,0.04645,,,,,,,,,,,,,,,,,,,,,,,,,,0,0,0,0,0
0.5836,1783191027.7134,1,0,2.0000,0.0000,1.44682,0.23328,-2.77760,0.97329,1.57079,0.00000,-0.14513,-0.37992,0.04645,,,,,,,,,,,,,,,,,,,,,,,,,,0,0,0,0,0
0.5940,1783191027.7238,1,0,2.0000,0.0000,1.44682,0.23328,-2.77760,0.97329,1.57079,0.00000,-0.14513,-0.37992,0.04645,,,,,,,,,,,,,,,,,,,,,,,,,,0,0,0,0,0
0.6022,1783191027.7319,1,0,2.0000,0.0000,1.44682,0.23328,-2.77760,0.97329,1.57079,0.00000,-0.14513,-0.37992,0.04645,,,,,,,,,,,,,,,,,,,,,,,,,,0,0,0,0,0
0.6173,1783191027.7471,1,0,2.0000,0.0000,1.44682,0.23328,-2.77760,0.97329,1.57079,0.00000,-0.14513,-0.37992,0.04645,,,,,,,,,,,,,,,,,,,,,,,,,,0,0,0,0,0
0.6176,1783191027.7473,1,0,2.0000,0.0000,1.44682,0.23328,-2.77760,0.97329,1.57079,0.00000,-0.14513,-0.37992,0.04645,,,,,,,,,,,,,,,,,,,,,,,,,,0,0,0,0,0
0.6240,1783191027.7537,1,0,2.0000,0.0000,1.44682,0.23328,-2.77760,0.97329,1.57079,0.00000,-0.14513,-0.37992,0.04645,,,,,,,,,,,,,,,,,,,,,,,,,,0,0,0,0,0
0.6332,1783191027.7630,1,0,2.0000,0.0000,1.44682,0.23328,-2.77760,0.97329,1.57079,0.00000,-0.14513,-0.37992,0.04645,,,,,,,,,,,,,,,,,,,,,,,,,,0,0,0,0,0
0.6335,1783191027.7633,1,0,2.0000,0.0000,1.44682,0.23328,-2.77760,0.97329,1.57079,0.00000,-0.14513,-0.37992,0.04645,,,,,,,,,,,,,,,,,,,,,,,,,,0,0,0,0,0
0.6461,1783191027.7759,1,0,2.0000,0.0000,1.44682,0.23328,-2.77760,0.97329,1.57079,0.00000,-0.14513,-0.37992,0.04645,,,,,,,,,,,,,,,,,,,,,,,,,,0,0,0,0,0
0.6521,1783191027.7819,1,0,2.0000,0.0000,1.44682,0.23328,-2.77760,0.97329,1.57079,0.00000,-0.14513,-0.37992,0.04645,,,,,,,,,,,,,,,,,,,,,,,,,,0,0,0,0,0
0.6651,1783191027.7949,1,0,2.0000,0.0000,1.44682,0.23328,-2.77760,0.97329,1.57079,0.00000,-0.14513,-0.37992,0.04645,,,,,,,,,,,,,,,,,,,,,,,,,,0,0,0,0,0
0.6800,1783191027.8097,1,0,2.0000,0.0000,1.44682,0.23328,-2.77760,0.97329,1.57079,0.00000,-0.14513,-0.37992,0.04645,,,,,,,,,,,,,,,,,,,,,,,,,,0,0,0,0,0
0.7092,1783191027.8390,1,0,2.0000,0.0000,1.44682,0.23328,-2.77760,0.97329,1.57079,0.00000,-0.14513,-0.37992,0.04645,,,,,,,,,,,,,,,,,,,,,,,,,,0,0,0,0,0
0.7196,1783191027.8493,1,0,2.0000,0.0000,1.44682,0.23328,-2.77760,0.97329,1.57079,0.00000,-0.14513,-0.37992,0.04645,,,,,,,,,,,,,,,,,,,,,,,,,,0,0,0,0,0
0.7201,1783191027.8499,1,0,2.0000,0.0000,1.44682,0.23328,-2.77760,0.97329,1.57079,0.00000,-0.14513,-0.37992,0.04645,,,,,,,,,,,,,,,,,,,,,,,,,,0,0,0,0,0
0.7206,1783191027.8504,1,0,2.0000,0.0000,1.44682,0.23328,-2.77760,0.97329,1.57079,0.00000,-0.14513,-0.37992,0.04645,,,,,,,,,,,,,,,,,,,,,,,,,,0,0,0,0,0
0.7252,1783191027.8550,1,0,2.0000,0.0000,1.44682,0.23328,-2.77760,0.97329,1.57079,0.00000,-0.14513,-0.37992,0.04645,,,,,,,,,,,,,,,,,,,,,,,,,,0,0,0,0,0
0.7255,1783191027.8553,1,0,2.0000,0.0000,1.44682,0.23328,-2.77760,0.97329,1.57079,0.00000,-0.14513,-0.37992,0.04645,,,,,,,,,,,,,,,,,,,,,,,,,,0,0,0,0,0
0.7371,1783191027.8669,1,1,2.0000,0.0000,1.44682,0.23328,-2.77760,0.97329,1.57079,0.00000,-0.14513,-0.37992,0.04645,,,,,,,,,,,,,,,,,,,,,,,,,,0,0,0,0,0
0.7453,1783191027.8751,1,1,2.0000,0.0000,1.44682,0.23328,-2.77760,0.97329,1.57079,0.00000,-0.14513,-0.37992,0.04645,,,,,,,,,,,,,,,,,,,,,,,,,,0,0,0,0,0
0.7456,1783191027.8754,1,1,2.0000,0.0000,1.44682,0.23328,-2.77760,0.97329,1.57079,0.00000,-0.14513,-0.37992,0.04645,,,,,,,,,,,,,,,,,,,,,,,,,,0,0,0,0,0
0.7574,1783191027.8872,1,1,2.0000,0.0000,1.44682,0.23328,-2.77760,0.97329,1.57079,0.00000,-0.14513,-0.37992,0.04645,,,,,,,,,,,,,,,,,,,,,,,,,,0,0,0,0,0
0.7684,1783191027.8981,1,1,2.0000,0.0000,1.44682,0.23328,-2.77760,0.97329,1.57079,0.00000,-0.14513,-0.37992,0.04645,,,,,,,,,,,,,,,,,,,,,,,,,,0,0,0,0,0
0.7767,1783191027.9065,1,1,2.0000,0.0000,1.44682,0.23328,-2.77760,0.97329,1.57079,0.00000,-0.14513,-0.37992,0.04645,,,,,,,,,,,,,,,,,,,,,,,,,,0,0,0,0,0
0.7773,1783191027.9070,1,1,2.0000,0.0000,1.44682,0.23328,-2.77760,0.97329,1.57079,0.00000,-0.14513,-0.37992,0.04645,,,,,,,,,,,,,,,,,,,,,,,,,,0,0,0,0,0
0.7989,1783191027.9287,1,1,2.0000,0.0000,1.44682,0.23328,-2.77760,0.97329,1.57079,0.00000,-0.14513,-0.37992,0.04645,,,,,,,,,,,,,,,,,,,,,,,,,,0,0,0,0,0
0.7993,1783191027.9291,1,1,2.0000,0.0000,1.44682,0.23328,-2.77760,0.97329,1.57079,0.00000,-0.14513,-0.37992,0.04645,,,,,,,,,,,,,,,,,,,,,,,,,,0,0,0,0,0
0.8118,1783191027.9416,1,1,2.0000,0.0000,1.44682,0.23328,-2.77760,0.97329,1.57079,0.00000,-0.14513,-0.37992,0.04645,,,,,,,,,,,,,,,,,,,,,,,,,,0,0,0,0,0
0.8179,1783191027.9477,1,1,2.0000,0.0000,1.44682,0.23328,-2.77760,0.97329,1.57079,0.00000,-0.14513,-0.37992,0.04645,,,,,,,,,,,,,,,,,,,,,,,,,,0,0,0,0,0
0.8182,1783191027.9480,1,1,2.0000,0.0000,1.44682,0.23328,-2.77760,0.97329,1.57079,0.00000,-0.14513,-0.37992,0.04645,,,,,,,,,,,,,,,,,,,,,,,,,,0,0,0,0,0
0.8315,1783191027.9613,1,1,2.0000,0.0000,1.44682,0.23328,-2.77760,0.97329,1.57079,0.00000,-0.14513,-0.37992,0.04645,,,,,,,,,,,,,,,,,,,,,,,,,,0,0,0,0,0
0.8318,1783191027.9616,1,1,2.0000,0.0000,1.44682,0.23328,-2.77760,0.97329,1.57079,0.00000,-0.14513,-0.37992,0.04645,,,,,,,,,,,,,,,,,,,,,,,,,,0,0,0,0,0
0.8406,1783191027.9704,1,1,2.0000,0.0000,1.44682,0.23328,-2.77760,0.97329,1.57079,0.00000,-0.14513,-0.37992,0.04645,,,,,,,,,,,,,,,,,,,,,,,,,,0,0,0,0,0
0.8525,1783191027.9823,1,1,2.0000,0.0000,1.44682,0.23328,-2.77760,0.97329,1.57079,0.00000,-0.14513,-0.37992,0.04645,,,,,,,,,,,,,,,,,,,,,,,,,,0,0,0,0,0
0.8528,1783191027.9826,1,1,2.0000,0.0000,1.44682,0.23328,-2.77760,0.97329,1.57079,0.00000,-0.14513,-0.37992,0.04645,,,,,,,,,,,,,,,,,,,,,,,,,,0,0,0,0,0
0.8566,1783191027.9864,1,1,2.0000,0.0000,1.44682,0.23328,-2.77760,0.97329,1.57079,0.00000,-0.14513,-0.37992,0.04645,,,,,,,,,,,,,,,,,,,,,,,,,,0,0,0,0,0
0.8574,1783191027.9871,1,1,2.0000,0.0000,1.44682,0.23328,-2.77760,0.97329,1.57079,0.00000,-0.14513,-0.37992,0.04645,,,,,,,,,,,,,,,,,,,,,,,,,,0,0,0,0,0
0.8703,1783191028.0001,1,1,2.0000,0.0000,1.44682,0.23328,-2.77760,0.97329,1.57079,0.00000,-0.14513,-0.37992,0.04645,,,,,,,,,,,,,,,,,,,,,,,,,,0,0,0,0,0
0.8815,1783191028.0112,1,1,2.0000,0.0000,1.44682,0.23328,-2.77760,0.97329,1.57079,0.00000,-0.14513,-0.37992,0.04645,,,,,,,,,,,,,,,,,,,,,,,,,,0,0,0,0,0
0.8819,1783191028.0116,1,1,2.0000,0.0000,1.44682,0.23328,-2.77760,0.97329,1.57079,0.00000,-0.14513,-0.37992,0.04645,,,,,,,,,,,,,,,,,,,,,,,,,,0,0,0,0,0
0.8988,1783191028.0286,1,1,2.0000,0.0000,1.44682,0.23328,-2.77760,0.97329,1.57079,0.00000,-0.14513,-0.37992,0.04645,,,,,,,,,,,,,,,,,,,,,,,,,,0,0,0,0,0
0.8998,1783191028.0296,1,1,2.0000,0.0000,1.44682,0.23328,-2.77760,0.97329,1.57079,0.00000,-0.14513,-0.37992,0.04645,,,,,,,,,,,,,,,,,,,,,,,,,,0,0,0,0,0
0.9092,1783191028.0390,1,1,2.0000,0.0000,1.44682,0.23328,-2.77760,0.97329,1.57079,0.00000,-0.14513,-0.37992,0.04645,,,,,,,,,,,,,,,,,,,,,,,,,,0,0,0,0,0
0.9201,1783191028.0499,1,1,2.0000,0.0000,1.44682,0.23328,-2.77760,0.97329,1.57079,0.00000,-0.14513,-0.37992,0.04645,,,,,,,,,,,,,,,,,,,,,,,,,,0,0,0,0,0
0.9366,1783191028.0663,1,1,2.0000,0.0000,1.44682,0.23326,-2.77760,0.97331,1.57079,0.00000,-0.14513,-0.37992,0.04645,,,,,,,,,,,,,,,,,,,,,,,,,,0,0,0,0,0
0.9372,1783191028.0670,1,1,2.0000,0.0000,1.44682,0.23325,-2.77760,0.97332,1.57079,0.00000,-0.14513,-0.37992,0.04645,,,,,,,,,,,,,,,,,,,,,,,,,,0,0,0,0,0
0.9484,1783191028.0782,1,1,2.0000,0.0000,1.44682,0.23323,-2.77761,0.97334,1.57079,0.00000,-0.14513,-0.37992,0.04644,,,,,,,,,,,,,,,,,,,,,,,,,,0,0,0,0,0
0.9569,1783191028.0867,1,1,2.0000,0.0000,1.44682,0.23323,-2.77761,0.97335,1.57079,0.00000,-0.14513,-0.37992,0.04644,,,,,,,,,,,,,,,,,,,,,,,,,,0,0,0,0,0
0.9669,1783191028.0967,1,1,2.0000,0.0000,1.44682,0.23320,-2.77762,0.97338,1.57079,0.00000,-0.14513,-0.37992,0.04643,,,,,,,,,,,,,,,,,,,,,,,,,,0,0,0,0,0
0.9752,1783191028.1049,1,1,2.0000,0.0000,1.44682,0.23318,-2.77762,0.97341,1.57079,0.00000,-0.14513,-0.37992,0.04643,,,,,,,,,,,,,,,,,,,,,,,,,,0,0,0,0,0
0.9867,1783191028.1164,1,1,2.0000,0.0000,1.44682,0.23317,-2.77763,0.97343,1.57079,0.00000,-0.14513,-0.37992,0.04642,,,,,,,,,,,,,,,,,,,,,,,,,,0,0,0,0,0
0.9998,1783191028.1295,1,1,2.0000,0.0000,1.44682,0.23314,-2.77763,0.97346,1.57079,0.00000,-0.14513,-0.37992,0.04642,,,,,,,,,,,,,,,,,,,,,,,,,,0,0,0,0,0
1.0058,1783191028.1356,1,1,2.0000,0.0000,1.44682,0.23312,-2.77764,0.97349,1.57079,0.00000,-0.14513,-0.37992,0.04641,,,,,,,,,,,,,,,,,,,,,,,,,,0,0,0,0,0
1.0224,1783191028.1522,1,1,2.0000,0.0000,1.44682,0.23310,-2.77764,0.97351,1.57079,0.00000,-0.14513,-0.37992,0.04641,,,,,,,,,,,,,,,,,,,,,,,,,,0,0,0,0,0
1.0264,1783191028.1562,1,1,2.0000,0.0000,1.44682,0.23309,-2.77765,0.97353,1.57079,0.00000,-0.14513,-0.37992,0.04640,,,,,,,,,,,,,,,,,,,,,,,,,,0,0,0,0,0
1.0350,1783191028.1648,1,1,2.0000,0.0000,1.44682,0.23306,-2.77765,0.97356,1.57079,0.00000,-0.14513,-0.37992,0.04640,,,,,,,,,,,,,,,,,,,,,,,,,,0,0,0,0,0
1.0453,1783191028.1751,1,1,2.0000,0.0000,1.44682,0.23305,-2.77765,0.97357,1.57079,0.00000,-0.14513,-0.37992,0.04639,,,,,,,,,,,,,,,,,,,,,,,,,,0,0,0,0,0
1.0574,1783191028.1872,1,1,2.0000,0.0000,1.44682,0.23303,-2.77766,0.97360,1.57079,0.00000,-0.14513,-0.37992,0.04639,,,,,,,,,,,,,,,,,,,,,,,,,,0,0,0,0,0
1.0576,1783191028.1874,1,1,2.0000,0.0000,1.44682,0.23303,-2.77766,0.97360,1.57079,0.00000,-0.14513,-0.37992,0.04639,,,,,,,,,,,,,,,,,,,,,,,,,,0,0,0,0,0
1.0665,1783191028.1962,1,1,2.0000,0.0000,1.44682,0.23301,-2.77767,0.97363,1.57079,0.00000,-0.14513,-0.37992,0.04638,,,,,,,,,,,,,,,,,,,,,,,,,,0,0,0,0,0
1.0758,1783191028.2056,1,1,2.0000,0.0000,1.44682,0.23300,-2.77767,0.97363,1.57079,0.00000,-0.14513,-0.37992,0.04638,,,,,,,,,,,,,,,,,,,,,,,,,,0,0,0,0,0
1.0868,1783191028.2166,1,1,2.0000,0.0000,1.44682,0.23297,-2.77767,0.97367,1.57079,0.00000,-0.14513,-0.37992,0.04637,,,,,,,,,,,,,,,,,,,,,,,,,,0,0,0,0,0
1.0956,1783191028.2254,1,1,2.0000,0.0000,1.44682,0.23295,-2.77768,0.97370,1.57079,0.00000,-0.14513,-0.37992,0.04637,,,,,,,,,,,,,,,,,,,,,,,,,,0,0,0,0,0
1.1078,1783191028.2375,1,1,2.0000,0.0000,1.44682,0.23294,-2.77768,0.97372,1.57079,0.00000,-0.14513,-0.37992,0.04636,,,,,,,,,,,,,,,,,,,,,,,,,,0,0,0,0,0
1.1168,1783191028.2465,1,1,2.0000,0.0000,1.44682,0.23292,-2.77769,0.97374,1.57079,0.00000,-0.14513,-0.37992,0.04636,,,,,,,,,,,,,,,,,,,,,,,,,,0,0,0,0,0
1.1253,1783191028.2551,1,1,2.0000,0.0000,1.44682,0.23289,-2.77770,0.97378,1.57079,0.00000,-0.14513,-0.37992,0.04635,,,,,,,,,,,,,,,,,,,,,,,,,,0,0,0,0,0
1.1256,1783191028.2554,1,1,2.0000,0.0000,1.44682,0.23289,-2.77770,0.97378,1.57079,0.00000,-0.14513,-0.37992,0.04635,,,,,,,,,,,,,,,,,,,,,,,,,,0,0,0,0,0
1.1372,1783191028.2670,1,1,2.0000,0.0000,1.44682,0.23288,-2.77770,0.97379,1.57079,0.00000,-0.14513,-0.37992,0.04635,,,,,,,,,,,,,,,,,,,,,,,,,,0,0,0,0,0
1.1455,1783191028.2753,1,1,2.0000,0.0000,1.44682,0.23286,-2.77770,0.97381,1.57079,0.00000,-0.14513,-0.37992,0.04634,,,,,,,,,,,,,,,,,,,,,,,,,,0,0,0,0,0
1.1606,1783191028.2903,1,1,2.0000,0.0000,1.44682,0.23282,-2.77771,0.97386,1.57079,0.00000,-0.14513,-0.37992,0.04634,,,,,,,,,,,,,,,,,,,,,,,,,,0,0,0,0,0
1.1612,1783191028.2910,1,1,2.0000,0.0000,1.44682,0.23282,-2.77771,0.97386,1.57079,0.00000,-0.14513,-0.37992,0.04634,,,,,,,,,,,,,,,,,,,,,,,,,,0,0,0,0,0
1.1653,1783191028.2951,1,1,2.0000,0.0000,1.44682,0.23282,-2.77771,0.97386,1.57079,0.00000,-0.14513,-0.37992,0.04633,,,,,,,,,,,,,,,,,,,,,,,,,,0,0,0,0,0
1.1760,1783191028.3057,1,1,2.0000,0.0000,1.44682,0.23281,-2.77772,0.97388,1.57079,0.00000,-0.14513,-0.37992,0.04633,,,,,,,,,,,,,,,,,,,,,,,,,,0,0,0,0,0
1.1852,1783191028.3150,1,1,2.0000,0.0000,1.44682,0.23278,-2.77773,0.97392,1.57079,0.00000,-0.14513,-0.37992,0.04632,,,,,,,,,,,,,,,,,,,,,,,,,,0,0,0,0,0
1.2035,1783191028.3332,1,1,2.0000,0.0000,1.44682,0.23276,-2.77773,0.97394,1.57079,0.00000,-0.14513,-0.37992,0.04632,,,,,,,,,,,,,,,,,,,,,,,,,,0,0,0,0,0
1.2070,1783191028.3368,1,1,2.0000,0.0000,1.44682,0.23275,-2.77773,0.97396,1.57079,0.00000,-0.14513,-0.37992,0.04631,,,,,,,,,,,,,,,,,,,,,,,,,,0,0,0,0,0
1.2160,1783191028.3457,1,1,2.0000,0.0000,1.44682,0.23272,-2.77774,0.97399,1.57079,0.00000,-0.14513,-0.37992,0.04631,,,,,,,,,,,,,,,,,,,,,,,,,,0,0,0,0,0
1.2271,1783191028.3569,1,1,2.0000,0.0000,1.44682,0.23271,-2.77774,0.97401,1.57079,0.00000,-0.14513,-0.37992,0.04630,,,,,,,,,,,,,,,,,,,,,,,,,,0,0,0,0,0
1.2403,1783191028.3701,1,1,2.0000,0.0000,1.44682,0.23268,-2.77775,0.97404,1.57079,0.00000,-0.14513,-0.37992,0.04630,,,,,,,,,,,,,,,,,,,,,,,,,,0,0,0,0,0
1.2454,1783191028.3752,1,1,2.0000,0.0000,1.44682,0.23266,-2.77776,0.97406,1.57079,0.00000,-0.14513,-0.37992,0.04629,,,,,,,,,,,,,,,,,,,,,,,,,,0,0,0,0,0
1.2617,1783191028.3915,1,1,2.0000,0.0000,1.44682,0.23264,-2.77776,0.97409,1.57079,0.00000,-0.14513,-0.37992,0.04629,,,,,,,,,,,,,,,,,,,,,,,,,,0,0,0,0,0
1.2659,1783191028.3957,1,1,2.0000,0.0000,1.44682,0.23263,-2.77776,0.97410,1.57079,0.00000,-0.14513,-0.37992,0.04628,,,,,,,,,,,,,,,,,,,,,,,,,,0,0,0,0,0
1.2663,1783191028.3960,1,1,2.0000,0.0000,1.44682,0.23263,-2.77776,0.97410,1.57079,0.00000,-0.14513,-0.37992,0.04628,,,,,,,,,,,,,,,,,,,,,,,,,,0,0,0,0,0
1.2759,1783191028.4057,1,1,2.0000,0.0000,1.44682,0.23261,-2.77777,0.97413,1.57079,0.00000,-0.14513,-0.37992,0.04628,,,,,,,,,,,,,,,,,,,,,,,,,,0,0,0,0,0
1.2866,1783191028.4163,1,1,2.0000,0.0000,1.44682,0.23259,-2.77777,0.97415,1.57079,0.00000,-0.14513,-0.37992,0.04627,,,,,,,,,,,,,,,,,,,,,,,,,,0,0,0,0,0
1.2868,1783191028.4166,1,1,2.0000,0.0000,1.44682,0.23259,-2.77777,0.97415,1.57079,0.00000,-0.14513,-0.37992,0.04627,,,,,,,,,,,,,,,,,,,,,,,,,,0,0,0,0,0
1.2951,1783191028.4248,1,1,2.0000,0.0000,1.44682,0.23258,-2.77778,0.97417,1.57079,0.00001,-0.14513,-0.37992,0.04627,,,,,,,,,,,,,,,,,,,,,,,,,,0,0,0,0,0
1.3086,1783191028.4384,1,1,2.0000,0.0000,1.44682,0.23255,-2.77778,0.97421,1.57079,0.00001,-0.14513,-0.37992,0.04626,,,,,,,,,,,,,,,,,,,,,,,,,,0,0,0,0,0
1.3190,1783191028.4487,1,1,2.0000,0.0000,1.44682,0.23254,-2.77779,0.97422,1.57079,0.00001,-0.14513,-0.37992,0.04626,,,,,,,,,,,,,,,,,,,,,,,,,,0,0,0,0,0
1.3193,1783191028.4490,1,1,2.0000,0.0000,1.44682,0.23254,-2.77779,0.97422,1.57079,0.00001,-0.14513,-0.37992,0.04626,,,,,,,,,,,,,,,,,,,,,,,,,,0,0,0,0,0
1.3297,1783191028.4595,1,1,2.0000,0.0000,1.44682,0.23250,-2.77780,0.97426,1.57079,0.00001,-0.14513,-0.37992,0.04625,,,,,,,,,,,,,,,,,,,,,,,,,,0,0,0,0,0
1.3300,1783191028.4598,1,1,2.0000,0.0000,1.44682,0.23250,-2.77780,0.97426,1.57079,0.00001,-0.14513,-0.37992,0.04625,,,,,,,,,,,,,,,,,,,,,,,,,,0,0,0,0,0
1.3418,1783191028.4716,1,1,2.0000,0.0000,1.44682,0.23248,-2.77780,0.97429,1.57079,0.00001,-0.14513,-0.37992,0.04625,,,,,,,,,,,,,,,,,,,,,,,,,,0,0,0,0,0
1.3507,1783191028.4804,1,1,2.0000,0.0000,1.44682,0.23247,-2.77780,0.97430,1.57079,0.00001,-0.14513,-0.37992,0.04624,,,,,,,,,,,,,,,,,,,,,,,,,,0,0,0,0,0
1.3633,1783191028.4930,1,1,2.0000,0.0000,1.44682,0.23244,-2.77781,0.97434,1.57079,0.00001,-0.14513,-0.37992,0.04624,,,,,,,,,,,,,,,,,,,,,,,,,,0,0,0,0,0
1.3635,1783191028.4933,1,1,2.0000,0.0000,1.44682,0.23244,-2.77781,0.97434,1.57079,0.00001,-0.14513,-0.37992,0.04624,,,,,,,,,,,,,,,,,,,,,,,,,,0,0,0,0,0
1.3709,1783191028.5006,1,1,2.0000,0.0000,1.44682,0.23243,-2.77781,0.97435,1.57079,0.00001,-0.14513,-0.37992,0.04623,,,,,,,,,,,,,,,,,,,,,,,,,,0,0,0,0,0
1.3797,1783191028.5094,1,1,2.0000,0.0000,1.44682,0.23242,-2.77782,0.97436,1.57079,0.00001,-0.14513,-0.37992,0.04623,,,,,,,,,,,,,,,,,,,,,,,,,,0,0,0,0,0
1.3800,1783191028.5098,1,1,2.0000,0.0000,1.44682,0.23242,-2.77782,0.97436,1.57079,0.00001,-0.14513,-0.37992,0.04623,,,,,,,,,,,,,,,,,,,,,,,,,,0,0,0,0,0
1.3908,1783191028.5206,1,1,2.0000,0.0000,1.44682,0.23239,-2.77783,0.97441,1.57079,0.00001,-0.14513,-0.37992,0.04622,,,,,,,,,,,,,,,,,,,,,,,,,,0,0,0,0,0
1.3995,1783191028.5293,1,1,2.0000,0.0000,1.44682,0.23237,-2.77783,0.97443,1.57079,0.00001,-0.14513,-0.37992,0.04622,,,,,,,,,,,,,,,,,,,,,,,,,,0,0,0,0,0
1.4098,1783191028.5396,1,1,2.0000,0.0000,1.44682,0.23236,-2.77783,0.97444,1.57079,0.00001,-0.14513,-0.37992,0.04621,,,,,,,,,,,,,,,,,,,,,,,,,,0,0,0,0,0
1.4207,1783191028.5504,1,1,2.0000,0.0000,1.44682,0.23234,-2.77784,0.97447,1.57079,0.00001,-0.14513,-0.37992,0.04621,,,,,,,,,,,,,,,,,,,,,,,,,,0,0,0,0,0
1.4213,1783191028.5510,1,1,2.0000,0.0000,1.44682,0.23233,-2.77784,0.97448,1.57079,0.00001,-0.14513,-0.37992,0.04621,,,,,,,,,,,,,,,,,,,,,,,,,,0,0,0,0,0
1.4305,1783191028.5603,1,1,2.0000,0.0000,1.44682,0.23231,-2.77785,0.97451,1.57079,0.00001,-0.14513,-0.37992,0.04620,,,,,,,,,,,,,,,,,,,,,,,,,,0,0,0,0,0
1.4454,1783191028.5752,1,1,2.0000,0.0000,1.44682,0.23229,-2.77785,0.97453,1.57079,0.00001,-0.14513,-0.37992,0.04620,,,,,,,,,,,,,,,,,,,,,,,,,,0,0,0,0,0
1.4495,1783191028.5793,1,1,2.0000,0.0000,1.44682,0.23228,-2.77785,0.97454,1.57079,0.00001,-0.14513,-0.37992,0.04619,,,,,,,,,,,,,,,,,,,,,,,,,,0,0,0,0,0
1.4499,1783191028.5797,1,1,2.0000,0.0000,1.44682,0.23228,-2.77785,0.97454,1.57079,0.00001,-0.14513,-0.37992,0.04619,,,,,,,,,,,,,,,,,,,,,,,,,,0,0,0,0,0
1.4664,1783191028.5961,1,1,2.0000,0.0000,1.44682,0.23226,-2.77786,0.97457,1.57079,0.00001,-0.14513,-0.37992,0.04619,,,,,,,,,,,,,,,,,,,,,,,,,,0,0,0,0,0
1.4667,1783191028.5964,1,1,2.0000,0.0000,1.44682,0.23226,-2.77786,0.97457,1.57079,0.00001,-0.14513,-0.37992,0.04619,,,,,,,,,,,,,,,,,,,,,,,,,,0,0,0,0,0
1.4716,1783191028.6014,1,1,2.0000,0.0000,1.44682,0.23225,-2.77786,0.97458,1.57079,0.00001,-0.14513,-0.37992,0.04619,,,,,,,,,,,,,,,,,,,,,,,,,,0,0,0,0,0
1.4720,1783191028.6017,1,1,2.0000,0.0000,1.44682,0.23225,-2.77786,0.97458,1.57079,0.00001,-0.14513,-0.37992,0.04619,,,,,,,,,,,,,,,,,,,,,,,,,,0,0,0,0,0
1.4800,1783191028.6098,1,1,2.0000,0.0000,1.44682,0.23223,-2.77787,0.97461,1.57079,0.00001,-0.14513,-0.37992,0.04618,,,,,,,,,,,,,,,,,,,,,,,,,,0,0,0,0,0
1.4804,1783191028.6101,1,1,2.0000,0.0000,1.44682,0.23223,-2.77787,0.97461,1.57079,0.00001,-0.14513,-0.37992,0.04618,,,,,,,,,,,,,,,,,,,,,,,,,,0,0,0,0,0
1.4887,1783191028.6185,1,1,2.0000,0.0000,1.44682,0.23221,-2.77787,0.97464,1.57079,0.00001,-0.14513,-0.37992,0.04617,,,,,,,,,,,,,,,,,,,,,,,,,,0,0,0,0,0
1.4895,1783191028.6193,1,1,2.0000,0.0000,1.44682,0.23220,-2.77788,0.97465,1.57079,0.00001,-0.14513,-0.37992,0.04617,,,,,,,,,,,,,,,,,,,,,,,,,,0,0,0,0,0
1.4988,1783191028.6286,1,1,2.0000,0.0000,1.44682,0.23219,-2.77788,0.97465,1.57079,0.00001,-0.14513,-0.37992,0.04617,,,,,,,,,,,,,,,,,,,,,,,,,,0,0,0,0,0
1.5118,1783191028.6415,1,1,2.0000,0.0000,1.44682,0.23217,-2.77788,0.97468,1.57079,0.00001,-0.14513,-0.37992,0.04616,,,,,,,,,,,,,,,,,,,,,,,,,,0,0,0,0,0
1.5270,1783191028.6568,1,1,2.0000,0.0000,1.44682,0.23215,-2.77789,0.97471,1.57079,0.00001,-0.14513,-0.37992,0.04616,,,,,,,,,,,,,,,,,,,,,,,,,,0,0,0,0,0
1.5301,1783191028.6599,1,1,2.0000,0.0000,1.44682,0.23214,-2.77789,0.97472,1.57079,0.00001,-0.14513,-0.37992,0.04616,,,,,,,,,,,,,,,,,,,,,,,,,,0,0,0,0,0
1.5453,1783191028.6750,1,1,2.0000,0.0000,1.44682,0.23209,-2.77790,0.97478,1.57079,0.00001,-0.14513,-0.37992,0.04614,,,,,,,,,,,,,,,,,,,,,,,,,,0,0,0,0,0
1.5493,1783191028.6791,1,1,2.0000,0.0000,1.44682,0.23208,-2.77790,0.97479,1.57079,0.00001,-0.14513,-0.37992,0.04614,,,,,,,,,,,,,,,,,,,,,,,,,,0,0,0,0,0
1.5706,1783191028.7003,1,1,2.0000,0.0000,1.44682,0.23206,-2.77791,0.97483,1.57079,0.00001,-0.14513,-0.37992,0.04613,,,,,,,,,,,,,,,,,,,,,,,,,,0,0,0,0,0
1.5709,1783191028.7007,1,1,2.0000,0.0000,1.44682,0.23206,-2.77791,0.97483,1.57079,0.00001,-0.14513,-0.37992,0.04613,,,,,,,,,,,,,,,,,,,,,,,,,,0,0,0,0,0
1.5814,1783191028.7112,1,1,2.0000,0.0000,1.44682,0.23203,-2.77792,0.97485,1.57079,0.00001,-0.14513,-0.37992,0.04613,,,,,,,,,,,,,,,,,,,,,,,,,,0,0,0,0,0
1.5892,1783191028.7190,1,1,2.0000,0.0000,1.44682,0.23202,-2.77792,0.97487,1.57079,0.00001,-0.14513,-0.37992,0.04613,,,,,,,,,,,,,,,,,,,,,,,,,,0,0,0,0,0
1.5988,1783191028.7286,1,1,2.0000,0.0000,1.44682,0.23200,-2.77793,0.97489,1.57079,0.00001,-0.14513,-0.37992,0.04612,,,,,,,,,,,,,,,,,,,,,,,,,,0,0,0,0,0
1.6142,1783191028.7439,1,1,2.0000,0.0000,1.44682,0.23197,-2.77793,0.97494,1.57079,0.00001,-0.14513,-0.37992,0.04611,,,,,,,,,,,,,,,,,,,,,,,,,,0,0,0,0,0
1.6220,1783191028.7518,1,1,2.0000,0.0000,1.44682,0.23196,-2.77794,0.97495,1.57079,0.00001,-0.14513,-0.37992,0.04611,,,,,,,,,,,,,,,,,,,,,,,,,,0,0,0,0,0
1.6223,1783191028.7520,1,1,2.0000,0.0000,1.44682,0.23196,-2.77794,0.97495,1.57079,0.00001,-0.14513,-0.37992,0.04611,,,,,,,,,,,,,,,,,,,,,,,,,,0,0,0,0,0
1.6304,1783191028.7601,1,1,2.0000,0.0000,1.44682,0.23194,-2.77794,0.97497,1.57079,0.00001,-0.14513,-0.37992,0.04610,,,,,,,,,,,,,,,,,,,,,,,,,,0,0,0,0,0
1.6436,1783191028.7734,1,1,2.0000,0.0000,1.44682,0.23192,-2.77795,0.97500,1.57079,0.00001,-0.14513,-0.37992,0.04610,,,,,,,,,,,,,,,,,,,,,,,,,,0,0,0,0,0
1.6508,1783191028.7806,1,1,2.0000,0.0000,1.44682,0.23191,-2.77795,0.97501,1.57079,0.00001,-0.14513,-0.37992,0.04610,,,,,,,,,,,,,,,,,,,,,,,,,,0,0,0,0,0
1.6704,1783191028.8002,1,1,2.0000,0.0000,1.44682,0.23185,-2.77796,0.97508,1.57079,0.00001,-0.14513,-0.37992,0.04608,,,,,,,,,,,,,,,,,,,,,,,,,,0,0,0,0,0
1.6744,1783191028.8042,1,1,2.0000,0.0000,1.44682,0.23185,-2.77796,0.97508,1.57079,0.00001,-0.14513,-0.37992,0.04608,,,,,,,,,,,,,,,,,,,,,,,,,,0,0,0,0,0
1.6796,1783191028.8094,1,1,2.0000,0.0000,1.44682,0.23185,-2.77796,0.97508,1.57079,0.00001,-0.14513,-0.37992,0.04608,,,,,,,,,,,,,,,,,,,,,,,,,,0,0,0,0,0
1.6800,1783191028.8097,1,1,2.0000,0.0000,1.44682,0.23185,-2.77796,0.97508,1.57079,0.00001,-0.14513,-0.37992,0.04608,,,,,,,,,,,,,,,,,,,,,,,,,,0,0,0,0,0
1.6952,1783191028.8250,1,1,2.0000,0.0000,1.44682,0.23182,-2.77797,0.97513,1.57079,0.00001,-0.14513,-0.37992,0.04607,,,,,,,,,,,,,,,,,,,,,,,,,,0,0,0,0,0
1.6998,1783191028.8296,1,1,2.0000,0.0000,1.44682,0.23181,-2.77798,0.97514,1.57079,0.00001,-0.14513,-0.37992,0.04607,,,,,,,,,,,,,,,,,,,,,,,,,,0,0,0,0,0
1.7002,1783191028.8300,1,1,2.0000,0.0000,1.44682,0.23181,-2.77798,0.97514,1.57079,0.00001,-0.14513,-0.37992,0.04607,,,,,,,,,,,,,,,,,,,,,,,,,,0,0,0,0,0
1.7099,1783191028.8397,1,1,2.0000,0.0000,1.44682,0.23180,-2.77798,0.97515,1.57079,0.00001,-0.14513,-0.37992,0.04607,,,,,,,,,,,,,,,,,,,,,,,,,,0,0,0,0,0
1.7219,1783191028.8517,1,1,2.0000,0.0000,1.44682,0.23176,-2.77799,0.97520,1.57079,0.00001,-0.14513,-0.37992,0.04606,,,,,,,,,,,,,,,,,,,,,,,,,,0,0,0,0,0
1.7223,1783191028.8521,1,1,2.0000,0.0000,1.44682,0.23176,-2.77799,0.97520,1.57079,0.00001,-0.14513,-0.37992,0.04606,,,,,,,,,,,,,,,,,,,,,,,,,,0,0,0,0,0
1.7292,1783191028.8590,1,1,2.0000,0.0000,1.44682,0.23174,-2.77799,0.97523,1.57079,0.00001,-0.14513,-0.37992,0.04605,,,,,,,,,,,,,,,,,,,,,,,,,,0,0,0,0,0
1.7295,1783191028.8592,1,1,2.0000,0.0000,1.44682,0.23174,-2.77799,0.97523,1.57079,0.00001,-0.14513,-0.37992,0.04605,,,,,,,,,,,,,,,,,,,,,,,,,,0,0,0,0,0
1.7408,1783191028.8706,1,1,2.0000,0.0000,1.44682,0.23174,-2.77799,0.97523,1.57079,0.00001,-0.14513,-0.37992,0.04605,,,,,,,,,,,,,,,,,,,,,,,,,,0,0,0,0,0
1.7534,1783191028.8832,1,1,2.0000,0.0000,1.44682,0.23170,-2.77800,0.97527,1.57079,0.00001,-0.14513,-0.37992,0.04604,,,,,,,,,,,,,,,,,,,,,,,,,,0,0,0,0,0
1.7788,1783191028.9085,1,1,2.0000,0.0000,1.44682,0.23166,-2.77801,0.97532,1.57079,0.00001,-0.14513,-0.37992,0.04603,,,,,,,,,,,,,,,,,,,,,,,,,,0,0,0,0,0
1.7791,1783191028.9089,1,1,2.0000,0.0000,1.44682,0.23166,-2.77801,0.97532,1.57079,0.00001,-0.14513,-0.37992,0.04603,,,,,,,,,,,,,,,,,,,,,,,,,,0,0,0,0,0
1.7819,1783191028.9116,1,1,2.0000,0.0000,1.44682,0.23165,-2.77802,0.97534,1.57079,0.00001,-0.14513,-0.37992,0.04603,,,,,,,,,,,,,,,,,,,,,,,,,,0,0,0,0,0
1.7897,1783191028.9195,1,1,2.0000,0.0000,1.44682,0.23162,-2.77802,0.97537,1.57079,0.00001,-0.14513,-0.37992,0.04602,,,,,,,,,,,,,,,,,,,,,,,,,,0,0,0,0,0
1.7901,1783191028.9199,1,1,2.0000,0.0000,1.44682,0.23162,-2.77802,0.97537,1.57079,0.00001,-0.14513,-0.37992,0.04602,,,,,,,,,,,,,,,,,,,,,,,,,,0,0,0,0,0
1.8006,1783191028.9303,1,1,2.0000,0.0000,1.44682,0.23162,-2.77802,0.97537,1.57079,0.00001,-0.14513,-0.37992,0.04602,,,,,,,,,,,,,,,,,,,,,,,,,,0,0,0,0,0
1.8215,1783191028.9513,1,1,2.0000,0.0000,1.44682,0.23158,-2.77804,0.97543,1.57079,0.00001,-0.14513,-0.37992,0.04601,,,,,,,,,,,,,,,,,,,,,,,,,,0,0,0,0,0
1.8217,1783191028.9515,1,1,2.0000,0.0000,1.44682,0.23158,-2.77804,0.97543,1.57079,0.00001,-0.14513,-0.37992,0.04601,,,,,,,,,,,,,,,,,,,,,,,,,,0,0,0,0,0
1.8220,1783191028.9518,1,1,2.0000,0.0000,1.44682,0.23158,-2.77804,0.97543,1.57079,0.00001,-0.14513,-0.37992,0.04601,,,,,,,,,,,,,,,,,,,,,,,,,,0,0,0,0,0
1.8302,1783191028.9599,1,1,2.0000,0.0000,1.44682,0.23157,-2.77804,0.97544,1.57079,0.00001,-0.14513,-0.37992,0.04601,,,,,,,,,,,,,,,,,,,,,,,,,,0,0,0,0,0
1.8304,1783191028.9602,1,1,2.0000,0.0000,1.44682,0.23157,-2.77804,0.97544,1.57079,0.00001,-0.14513,-0.37992,0.04601,,,,,,,,,,,,,,,,,,,,,,,,,,0,0,0,0,0
1.8387,1783191028.9685,1,1,2.0000,0.0000,1.44682,0.23154,-2.77804,0.97547,1.57079,0.00001,-0.14513,-0.37992,0.04600,,,,,,,,,,,,,,,,,,,,,,,,,,0,0,0,0,0
1.8492,1783191028.9790,1,1,2.0000,0.0000,1.44682,0.23151,-2.77805,0.97551,1.57079,0.00001,-0.14513,-0.37992,0.04599,,,,,,,,,,,,,,,,,,,,,,,,,,0,0,0,0,0
1.8596,1783191028.9894,1,1,2.0000,0.0000,1.44682,0.23151,-2.77805,0.97552,1.57079,0.00001,-0.14513,-0.37992,0.04599,,,,,,,,,,,,,,,,,,,,,,,,,,0,0,0,0,0
1.8800,1783191029.0098,1,1,2.0000,0.0000,1.44682,0.23146,-2.77806,0.97557,1.57079,0.00001,-0.14513,-0.37992,0.04598,,,,,,,,,,,,,,,,,,,,,,,,,,0,0,0,0,0
1.8814,1783191029.0112,1,1,2.0000,0.0000,1.44682,0.23146,-2.77806,0.97557,1.57079,0.00001,-0.14513,-0.37992,0.04598,,,,,,,,,,,,,,,,,,,,,,,,,,0,0,0,0,0
1.8818,1783191029.0116,1,1,2.0000,0.0000,1.44682,0.23146,-2.77806,0.97557,1.57079,0.00001,-0.14513,-0.37992,0.04598,,,,,,,,,,,,,,,,,,,,,,,,,,0,0,0,0,0
1.8907,1783191029.0205,1,1,2.0000,0.0000,1.44682,0.23145,-2.77807,0.97558,1.57079,0.00001,-0.14513,-0.37992,0.04598,,,,,,,,,,,,,,,,,,,,,,,,,,0,0,0,0,0
1.9021,1783191029.0319,1,1,2.0000,0.0000,1.44682,0.23142,-2.77808,0.97563,1.57079,0.00001,-0.14513,-0.37992,0.04597,,,,,,,,,,,,,,,,,,,,,,,,,,0,0,0,0,0
1.9093,1783191029.0391,1,1,2.0000,0.0000,1.44682,0.23139,-2.77808,0.97566,1.57079,0.00001,-0.14513,-0.37992,0.04596,,,,,,,,,,,,,,,,,,,,,,,,,,0,0,0,0,0
1.9226,1783191029.0523,1,1,2.0000,0.0000,1.44682,0.23139,-2.77808,0.97567,1.57079,0.00001,-0.14513,-0.37992,0.04596,,,,,,,,,,,,,,,,,,,,,,,,,,0,0,0,0,0
1.9332,1783191029.0630,1,1,2.0000,0.0000,1.44682,0.23136,-2.77809,0.97570,1.57079,0.00001,-0.14513,-0.37992,0.04595,,,,,,,,,,,,,,,,,,,,,,,,,,0,0,0,0,0
1.9395,1783191029.0693,1,1,2.0000,0.0000,1.44682,0.23135,-2.77809,0.97572,1.57079,0.00001,-0.14513,-0.37992,0.04595,,,,,,,,,,,,,,,,,,,,,,,,,,0,0,0,0,0
1.9497,1783191029.0795,1,1,2.0000,0.0000,1.44682,0.23134,-2.77810,0.97573,1.57079,0.00001,-0.14513,-0.37992,0.04595,,,,,,,,,,,,,,,,,,,,,,,,,,0,0,0,0,0
1.9613,1783191029.0911,1,1,2.0000,0.0000,1.44682,0.23130,-2.77811,0.97577,1.57079,0.00001,-0.14513,-0.37992,0.04594,,,,,,,,,,,,,,,,,,,,,,,,,,0,0,0,0,0
1.9724,1783191029.1022,1,1,2.0000,0.0000,1.44682,0.23128,-2.77811,0.97580,1.57079,0.00001,-0.14513,-0.37992,0.04593,,,,,,,,,,,,,,,,,,,,,,,,,,0,0,0,0,0
1.9789,1783191029.1087,1,1,2.0000,0.0000,1.44682,0.23128,-2.77811,0.97580,1.57079,0.00001,-0.14513,-0.37992,0.04593,,,,,,,,,,,,,,,,,,,,,,,,,,0,0,0,0,0
1.9924,1783191029.1222,1,1,2.0000,0.0000,1.44682,0.23125,-2.77812,0.97583,1.57079,0.00001,-0.14513,-0.37992,0.04592,,,,,,,,,,,,,,,,,,,,,,,,,,0,0,0,0,0
2.0007,1783191029.1305,1,1,2.0000,0.0000,1.44682,0.23123,-2.77812,0.97586,1.57079,0.00001,-0.14513,-0.37992,0.04592,,,,,,,,,,,,,,,,,,,,,,,,,,0,0,0,0,0
2.0107,1783191029.1404,1,1,2.0000,0.0000,1.44682,0.23122,-2.77813,0.97587,1.57079,0.00001,-0.14513,-0.37992,0.04592,,,,,,,,,,,,,,,,,,,,,,,,,,0,0,0,0,0
2.0239,1783191029.1537,1,1,2.0000,0.0000,1.44682,0.23119,-2.77813,0.97592,1.57079,0.00001,-0.14513,-0.37992,0.04591,,,,,,,,,,,,,,,,,,,,,,,,,,0,0,0,0,0
2.0311,1783191029.1609,1,1,2.0000,0.0000,1.44682,0.23117,-2.77814,0.97594,1.57079,0.00001,-0.14513,-0.37992,0.04590,,,,,,,,,,,,,,,,,,,,,,,,,,0,0,0,0,0
2.0387,1783191029.1685,1,1,2.0000,0.0000,1.44682,0.23116,-2.77814,0.97595,1.57079,0.00001,-0.14513,-0.37992,0.04590,,,,,,,,,,,,,,,,,,,,,,,,,,0,0,0,0,0
2.0492,1783191029.1790,1,1,2.0000,0.0000,1.44682,0.23114,-2.77815,0.97598,1.57079,0.00001,-0.14513,-0.37992,0.04589,,,,,,,,,,,,,,,,,,,,,,,,,,0,0,0,0,0
2.0599,1783191029.1897,1,1,2.0000,0.0000,1.44682,0.23112,-2.77815,0.97600,1.57079,0.00001,-0.14513,-0.37992,0.04589,,,,,,,,,,,,,,,,,,,,,,,,,,0,0,0,0,0
2.0688,1783191029.1986,1,1,2.0000,0.0000,1.44682,0.23111,-2.77816,0.97602,1.57079,0.00001,-0.14513,-0.37992,0.04589,,,,,,,,,,,,,,,,,,,,,,,,,,0,0,0,0,0
2.0800,1783191029.2098,1,1,2.0000,0.0000,1.44682,0.23109,-2.77816,0.97604,1.57079,0.00001,-0.14513,-0.37992,0.04588,,,,,,,,,,,,,,,,,,,,,,,,,,0,0,0,0,0
2.0934,1783191029.2232,1,1,2.0000,0.0000,1.44682,0.23106,-2.77817,0.97608,1.57079,0.00001,-0.14513,-0.37992,0.04587,,,,,,,,,,,,,,,,,,,,,,,,,,0,0,0,0,0
2.1000,1783191029.2298,1,1,2.0000,0.0000,1.44682,0.23106,-2.77817,0.97608,1.57079,0.00001,-0.14513,-0.37992,0.04587,,,,,,,,,,,,,,,,,,,,,,,,,,0,0,0,0,0
2.1096,1783191029.2394,1,1,2.0000,0.0000,1.44682,0.23103,-2.77818,0.97612,1.57079,0.00001,-0.14513,-0.37992,0.04587,,,,,,,,,,,,,,,,,,,,,,,,,,0,0,0,0,0
2.1100,1783191029.2398,1,1,2.0000,0.0000,1.44682,0.23103,-2.77818,0.97612,1.57079,0.00001,-0.14513,-0.37992,0.04587,,,,,,,,,,,,,,,,,,,,,,,,,,0,0,0,0,0
2.1194,1783191029.2492,1,1,2.0000,0.0000,1.44682,0.23100,-2.77818,0.97615,1.57079,0.00001,-0.14513,-0.37992,0.04586,,,,,,,,,,,,,,,,,,,,,,,,,,0,0,0,0,0
2.1295,1783191029.2593,1,1,2.0000,0.0000,1.44682,0.23099,-2.77819,0.97616,1.57079,0.00001,-0.14513,-0.37992,0.04586,,,,,,,,,,,,,,,,,,,,,,,,,,0,0,0,0,0
2.1298,1783191029.2595,1,1,2.0000,0.0000,1.44682,0.23099,-2.77819,0.97616,1.57079,0.00001,-0.14513,-0.37992,0.04586,,,,,,,,,,,,,,,,,,,,,,,,,,0,0,0,0,0
2.1440,1783191029.2737,1,1,2.0000,0.0000,1.44682,0.23097,-2.77819,0.97619,1.57079,0.00001,-0.14513,-0.37992,0.04585,,,,,,,,,,,,,,,,,,,,,,,,,,0,0,0,0,0
2.1507,1783191029.2805,1,1,2.0000,0.0000,1.44682,0.23095,-2.77820,0.97622,1.57079,0.00001,-0.14513,-0.37992,0.04584,,,,,,,,,,,,,,,,,,,,,,,,,,0,0,0,0,0
2.1628,1783191029.2925,1,1,2.0000,0.0000,1.44682,0.23094,-2.77820,0.97623,1.57079,0.00001,-0.14513,-0.37992,0.04584,,,,,,,,,,,,,,,,,,,,,,,,,,0,0,0,0,0
2.1691,1783191029.2989,1,1,2.0000,0.0000,1.44682,0.23091,-2.77820,0.97626,1.57079,0.00001,-0.14513,-0.37992,0.04584,,,,,,,,,,,,,,,,,,,,,,,,,,0,0,0,0,0
2.1837,1783191029.3135,1,1,2.0000,0.0000,1.44682,0.23088,-2.77821,0.97630,1.57079,0.00001,-0.14513,-0.37992,0.04583,,,,,,,,,,,,,,,,,,,,,,,,,,0,0,0,0,0
2.1942,1783191029.3240,1,1,2.0000,0.0000,1.44682,0.23087,-2.77822,0.97631,1.57079,0.00001,-0.14513,-0.37992,0.04583,,,,,,,,,,,,,,,,,,,,,,,,,,0,0,0,0,0
2.1944,1783191029.3242,1,1,2.0000,0.0000,1.44682,0.23087,-2.77822,0.97631,1.57079,0.00001,-0.14513,-0.37992,0.04583,,,,,,,,,,,,,,,,,,,,,,,,,,0,0,0,0,0
2.2006,1783191029.3303,1,1,2.0000,0.0000,1.44682,0.23086,-2.77822,0.97632,1.57079,0.00001,-0.14513,-0.37992,0.04582,,,,,,,,,,,,,,,,,,,,,,,,,,0,0,0,0,0
2.2012,1783191029.3310,1,1,2.0000,0.0000,1.44682,0.23085,-2.77822,0.97634,1.57079,0.00001,-0.14513,-0.37992,0.04582,,,,,,,,,,,,,,,,,,,,,,,,,,0,0,0,0,0
2.2102,1783191029.3399,1,1,2.0000,0.0000,1.44682,0.23083,-2.77823,0.97636,1.57079,0.00001,-0.14513,-0.37992,0.04581,,,,,,,,,,,,,,,,,,,,,,,,,,0,0,0,0,0
2.2190,1783191029.3488,1,1,2.0000,0.0000,1.44682,0.23083,-2.77823,0.97637,1.57079,0.00001,-0.14513,-0.37992,0.04581,,,,,,,,,,,,,,,,,,,,,,,,,,0,0,0,0,0
2.2301,1783191029.3598,1,1,2.0000,0.0000,1.44682,0.23080,-2.77823,0.97640,1.57079,0.00001,-0.14513,-0.37992,0.04581,,,,,,,,,,,,,,,,,,,,,,,,,,0,0,0,0,0
2.2305,1783191029.3603,1,1,2.0000,0.0000,1.44682,0.23080,-2.77823,0.97640,1.57079,0.00001,-0.14513,-0.37992,0.04581,,,,,,,,,,,,,,,,,,,,,,,,,,0,0,0,0,0
2.2403,1783191029.3700,1,1,2.0000,0.0000,1.44682,0.23078,-2.77824,0.97644,1.57079,0.00001,-0.14513,-0.37992,0.04580,,,,,,,,,,,,,,,,,,,,,,,,,,0,0,0,0,0
2.2408,1783191029.3705,1,1,2.0000,0.0000,1.44682,0.23078,-2.77824,0.97644,1.57079,0.00001,-0.14513,-0.37992,0.04580,,,,,,,,,,,,,,,,,,,,,,,,,,0,0,0,0,0
2.2561,1783191029.3859,1,1,2.0000,0.0000,1.44682,0.23076,-2.77825,0.97646,1.57079,0.00001,-0.14513,-0.37992,0.04580,,,,,,,,,,,,,,,,,,,,,,,,,,0,0,0,0,0
2.2644,1783191029.3942,1,1,2.0000,0.0000,1.44682,0.23074,-2.77825,0.97648,1.57079,0.00001,-0.14513,-0.37992,0.04579,,,,,,,,,,,,,,,,,,,,,,,,,,0,0,0,0,0
2.2694,1783191029.3992,1,1,2.0000,0.0000,1.44682,0.23072,-2.77826,0.97651,1.57079,0.00001,-0.14513,-0.37992,0.04578,,,,,,,,,,,,,,,,,,,,,,,,,,0,0,0,0,0
2.2867,1783191029.4165,1,1,2.0000,0.0000,1.44682,0.23070,-2.77826,0.97653,1.57079,0.00001,-0.14513,-0.37992,0.04578,,,,,,,,,,,,,,,,,,,,,,,,,,0,0,0,0,0
2.2870,1783191029.4167,1,1,2.0000,0.0000,1.44682,0.23070,-2.77826,0.97653,1.57079,0.00001,-0.14513,-0.37992,0.04578,,,,,,,,,,,,,,,,,,,,,,,,,,0,0,0,0,0
2.2892,1783191029.4190,1,1,2.0000,0.0000,1.44682,0.23069,-2.77826,0.97655,1.57079,0.00001,-0.14513,-0.37992,0.04578,,,,,,,,,,,,,,,,,,,,,,,,,,0,0,0,0,0
2.2989,1783191029.4287,1,1,2.0000,0.0000,1.44682,0.23066,-2.77827,0.97658,1.57079,0.00001,-0.14513,-0.37992,0.04577,,,,,,,,,,,,,,,,,,,,,,,,,,0,0,0,0,0
2.3104,1783191029.4401,1,1,2.0000,0.0000,1.44682,0.23065,-2.77827,0.97660,1.57079,0.00001,-0.14513,-0.37992,0.04577,,,,,,,,,,,,,,,,,,,,,,,,,,0,0,0,0,0
2.3195,1783191029.4493,1,1,2.0000,0.0000,1.44682,0.23063,-2.77828,0.97661,1.57079,0.00001,-0.14513,-0.37992,0.04576,,,,,,,,,,,,,,,,,,,,,,,,,,0,0,0,0,0
2.3325,1783191029.4623,1,1,2.0000,0.0000,1.44682,0.23060,-2.77829,0.97665,1.57079,0.00001,-0.14513,-0.37992,0.04575,,,,,,,,,,,,,,,,,,,,,,,,,,0,0,0,0,0
2.3467,1783191029.4765,1,1,2.0000,0.0000,1.44682,0.23058,-2.77829,0.97668,1.57079,0.00001,-0.14513,-0.37992,0.04575,,,,,,,,,,,,,,,,,,,,,,,,,,0,0,0,0,0
2.3575,1783191029.4873,1,1,2.0000,0.0000,1.44682,0.23055,-2.77830,0.97672,1.57079,0.00001,-0.14513,-0.37992,0.04574,,,,,,,,,,,,,,,,,,,,,,,,,,0,0,0,0,0
2.3660,1783191029.4957,1,1,2.0000,0.0000,1.44682,0.23054,-2.77830,0.97674,1.57079,0.00001,-0.14513,-0.37992,0.04574,,,,,,,,,,,,,,,,,,,,,,,,,,0,0,0,0,0
2.4686,1783191029.5984,1,1,2.0000,0.0000,1.44682,0.23035,-2.77835,0.97697,1.57079,0.00001,-0.14513,-0.37992,0.04569,,,,,,,,,,,,,,,,,,,,,,,,,,0,0,0,0,0
2.4934,1783191029.6232,1,1,2.0000,0.0000,1.44682,0.23030,-2.77836,0.97703,1.57079,0.00001,-0.14513,-0.37992,0.04568,,,,,,,,,,,,,,,,,,,,,,,,,,0,0,0,0,0
2.4937,1783191029.6235,1,1,2.0000,0.0000,1.44682,0.23030,-2.77836,0.97703,1.57079,0.00001,-0.14513,-0.37992,0.04568,,,,,,,,,,,,,,,,,,,,,,,,,,0,0,0,0,0
2.4940,1783191029.6238,1,1,2.0000,0.0000,1.44682,0.23030,-2.77836,0.97703,1.57079,0.00001,-0.14513,-0.37992,0.04568,,,,,,,,,,,,,,,,,,,,,,,,,,0,0,0,0,0
2.4943,1783191029.6241,1,1,2.0000,0.0000,1.44682,0.23030,-2.77836,0.97703,1.57079,0.00001,-0.14513,-0.37992,0.04568,,,,,,,,,,,,,,,,,,,,,,,,,,0,0,0,0,0
2.4946,1783191029.6244,1,1,2.0000,0.0000,1.44682,0.23030,-2.77836,0.97703,1.57079,0.00001,-0.14513,-0.37992,0.04568,,,,,,,,,,,,,,,,,,,,,,,,,,0,0,0,0,0
2.4949,1783191029.6247,1,1,2.0000,0.0000,1.44682,0.23030,-2.77836,0.97703,1.57079,0.00001,-0.14513,-0.37992,0.04568,,,,,,,,,,,,,,,,,,,,,,,,,,0,0,0,0,0
2.4952,1783191029.6250,1,1,2.0000,0.0000,1.44682,0.23030,-2.77836,0.97703,1.57079,0.00001,-0.14513,-0.37992,0.04568,,,,,,,,,,,,,,,,,,,,,,,,,,0,0,0,0,0
2.4954,1783191029.6252,1,1,2.0000,0.0000,1.44682,0.23030,-2.77836,0.97703,1.57079,0.00001,-0.14513,-0.37992,0.04568,,,,,,,,,,,,,,,,,,,,,,,,,,0,0,0,0,0
2.4962,1783191029.6260,1,1,2.0000,0.0000,1.44682,0.23030,-2.77836,0.97703,1.57079,0.00001,-0.14513,-0.37992,0.04568,,,,,,,,,,,,,,,,,,,,,,,,,,0,0,0,0,0
2.4966,1783191029.6264,1,1,2.0000,0.0000,1.44682,0.23030,-2.77836,0.97703,1.57079,0.00001,-0.14513,-0.37992,0.04568,,,,,,,,,,,,,,,,,,,,,,,,,,0,0,0,0,0
2.5070,1783191029.6367,1,1,2.0000,0.0000,1.44682,0.23027,-2.77837,0.97707,1.57079,0.00001,-0.14513,-0.37992,0.04567,,,,,,,,,,,,,,,,,,,,,,,,,,0,0,0,0,0
2.5175,1783191029.6472,1,1,2.0000,0.0000,1.44682,0.23026,-2.77837,0.97709,1.57079,0.00001,-0.14513,-0.37992,0.04566,,,,,,,,,,,,,,,,,,,,,,,,,,0,0,0,0,0
2.5178,1783191029.6476,1,1,2.0000,0.0000,1.44682,0.23026,-2.77837,0.97709,1.57079,0.00001,-0.14513,-0.37992,0.04566,,,,,,,,,,,,,,,,,,,,,,,,,,0,0,0,0,0
2.5234,1783191029.6532,1,1,2.0000,0.0000,1.44682,0.23025,-2.77838,0.97710,1.57079,0.00001,-0.14513,-0.37992,0.04566,,,,,,,,,,,,,,,,,,,,,,,,,,0,0,0,0,0
2.5386,1783191029.6684,1,1,2.0000,0.0000,1.44682,0.23020,-2.77839,0.97716,1.57079,0.00001,-0.14513,-0.37992,0.04565,,,,,,,,,,,,,,,,,,,,,,,,,,0,0,0,0,0
2.5390,1783191029.6687,1,1,2.0000,0.0000,1.44682,0.23020,-2.77839,0.97716,1.57079,0.00001,-0.14513,-0.37992,0.04565,,,,,,,,,,,,,,,,,,,,,,,,,,0,0,0,0,0
2.5474,1783191029.6772,1,1,2.0000,0.0000,1.44682,0.23019,-2.77839,0.97717,1.57079,0.00001,-0.14513,-0.37992,0.04565,,,,,,,,,,,,,,,,,,,,,,,,,,0,0,0,0,0
2.5477,1783191029.6775,1,1,2.0000,0.0000,1.44682,0.23019,-2.77839,0.97717,1.57079,0.00001,-0.14513,-0.37992,0.04565,,,,,,,,,,,,,,,,,,,,,,,,,,0,0,0,0,0
2.5544,1783191029.6842,1,1,2.0000,0.0000,1.44682,0.23018,-2.77839,0.97718,1.57079,0.00001,-0.14513,-0.37992,0.04565,,,,,,,,,,,,,,,,,,,,,,,,,,0,0,0,0,0
2.5626,1783191029.6924,1,1,2.0000,0.0000,1.44682,0.23017,-2.77840,0.97720,1.57079,0.00001,-0.14513,-0.37992,0.04564,,,,,,,,,,,,,,,,,,,,,,,,,,0,0,0,0,0
2.5746,1783191029.7044,1,1,2.0000,0.0000,1.44682,0.23014,-2.77840,0.97723,1.57079,0.00001,-0.14513,-0.37992,0.04564,,,,,,,,,,,,,,,,,,,,,,,,,,0,0,0,0,0
2.5884,1783191029.7181,1,1,2.0000,0.0000,1.44682,0.23012,-2.77841,0.97725,1.57079,0.00001,-0.14513,-0.37992,0.04563,,,,,,,,,,,,,,,,,,,,,,,,,,0,0,0,0,0
2.5950,1783191029.7248,1,1,2.0000,0.0000,1.44682,0.23010,-2.77841,0.97728,1.57079,0.00001,-0.14513,-0.37992,0.04562,,,,,,,,,,,,,,,,,,,,,,,,,,0,0,0,0,0
2.5953,1783191029.7251,1,1,2.0000,0.0000,1.44682,0.23010,-2.77841,0.97728,1.57079,0.00001,-0.14513,-0.37992,0.04562,,,,,,,,,,,,,,,,,,,,,,,,,,0,0,0,0,0
2.6045,1783191029.7342,1,1,2.0000,0.0000,1.44682,0.23008,-2.77842,0.97731,1.57079,0.00001,-0.14513,-0.37992,0.04562,,,,,,,,,,,,,,,,,,,,,,,,,,0,0,0,0,0
2.6127,1783191029.7425,1,1,2.0000,0.0000,1.44682,0.23007,-2.77842,0.97732,1.57079,0.00001,-0.14513,-0.37992,0.04562,,,,,,,,,,,,,,,,,,,,,,,,,,0,0,0,0,0
2.6132,1783191029.7430,1,1,2.0000,0.0000,1.44682,0.23007,-2.77842,0.97732,1.57079,0.00001,-0.14513,-0.37992,0.04562,,,,,,,,,,,,,,,,,,,,,,,,,,0,0,0,0,0
2.6233,1783191029.7531,1,1,2.0000,0.0000,1.44682,0.23005,-2.77843,0.97735,1.57079,0.00001,-0.14513,-0.37992,0.04561,,,,,,,,,,,,,,,,,,,,,,,,,,0,0,0,0,0
2.6536,1783191029.7833,1,1,2.0000,0.0000,1.44682,0.22998,-2.77844,0.97743,1.57079,0.00001,-0.14513,-0.37992,0.04559,,,,,,,,,,,,,,,,,,,,,,,,,,0,0,0,0,0
2.6580,1783191029.7878,1,1,2.0000,0.0000,1.44682,0.22997,-2.77845,0.97744,1.57079,0.00001,-0.14513,-0.37992,0.04559,,,,,,,,,,,,,,,,,,,,,,,,,,0,0,0,0,0
2.6583,1783191029.7880,1,1,2.0000,0.0000,1.44682,0.22997,-2.77845,0.97744,1.57079,0.00001,-0.14513,-0.37992,0.04559,,,,,,,,,,,,,,,,,,,,,,,,,,0,0,0,0,0
2.6627,1783191029.7924,1,1,2.0000,0.0000,1.44682,0.22996,-2.77845,0.97746,1.57079,0.00001,-0.14513,-0.37992,0.04559,,,,,,,,,,,,,,,,,,,,,,,,,,0,0,0,0,0
2.6755,1783191029.8053,1,1,2.0000,0.0000,1.44682,0.22995,-2.77845,0.97747,1.57079,0.00001,-0.14513,-0.37992,0.04559,,,,,,,,,,,,,,,,,,,,,,,,,,0,0,0,0,0
2.6826,1783191029.8124,1,1,2.0000,0.0000,1.44682,0.22994,-2.77846,0.97749,1.57079,0.00001,-0.14513,-0.37992,0.04558,,,,,,,,,,,,,,,,,,,,,,,,,,0,0,0,0,0
2.6984,1783191029.8282,1,1,2.0000,0.0000,1.44682,0.22991,-2.77846,0.97752,1.57079,0.00001,-0.14513,-0.37992,0.04557,,,,,,,,,,,,,,,,,,,,,,,,,,0,0,0,0,0
2.7039,1783191029.8337,1,1,2.0000,0.0000,1.44682,0.22990,-2.77846,0.97753,1.57079,0.00001,-0.14513,-0.37992,0.04557,,,,,,,,,,,,,,,,,,,,,,,,,,0,0,0,0,0
2.7044,1783191029.8341,1,1,2.0000,0.0000,1.44682,0.22990,-2.77846,0.97753,1.57079,0.00001,-0.14513,-0.37992,0.04557,,,,,,,,,,,,,,,,,,,,,,,,,,0,0,0,0,0
2.7183,1783191029.8481,1,1,2.0000,0.0000,1.44682,0.22986,-2.77848,0.97759,1.57079,0.00001,-0.14513,-0.37992,0.04556,,,,,,,,,,,,,,,,,,,,,,,,,,0,0,0,0,0
2.7270,1783191029.8568,1,1,2.0000,0.0000,1.44682,0.22985,-2.77848,0.97760,1.57079,0.00001,-0.14513,-0.37992,0.04556,,,,,,,,,,,,,,,,,,,,,,,,,,0,0,0,0,0
2.7275,1783191029.8573,1,1,2.0000,0.0000,1.44682,0.22985,-2.77848,0.97760,1.57079,0.00001,-0.14513,-0.37992,0.04556,,,,,,,,,,,,,,,,,,,,,,,,,,0,0,0,0,0
2.7393,1783191029.8691,1,1,2.0000,0.0000,1.44682,0.22983,-2.77848,0.97762,1.57079,0.00001,-0.14513,-0.37992,0.04555,,,,,,,,,,,,,,,,,,,,,,,,,,0,0,0,0,0
2.7398,1783191029.8695,1,1,2.0000,0.0000,1.44682,0.22983,-2.77848,0.97762,1.57079,0.00001,-0.14513,-0.37992,0.04555,,,,,,,,,,,,,,,,,,,,,,,,,,0,0,0,0,0
2.7439,1783191029.8737,1,1,2.0000,0.0000,1.44682,0.22982,-2.77849,0.97763,1.57079,0.00001,-0.14513,-0.37992,0.04555,,,,,,,,,,,,,,,,,,,,,,,,,,0,0,0,0,0
2.7547,1783191029.8845,1,1,2.0000,0.0000,1.44682,0.22979,-2.77849,0.97767,1.57079,0.00001,-0.14513,-0.37992,0.04554,,,,,,,,,,,,,,,,,,,,,,,,,,0,0,0,0,0
2.7550,1783191029.8847,1,1,2.0000,0.0000,1.44682,0.22979,-2.77849,0.97767,1.57079,0.00001,-0.14513,-0.37992,0.04554,,,,,,,,,,,,,,,,,,,,,,,,,,0,0,0,0,0
2.7629,1783191029.8927,1,1,2.0000,0.0000,1.44682,0.22979,-2.77849,0.97768,1.57079,0.00001,-0.14513,-0.37992,0.04554,,,,,,,,,,,,,,,,,,,,,,,,,,0,0,0,0,0
2.7756,1783191029.9054,1,1,2.0000,0.0000,1.44682,0.22976,-2.77850,0.97771,1.57079,0.00001,-0.14513,-0.37992,0.04554,,,,,,,,,,,,,,,,,,,,,,,,,,0,0,0,0,0
2.7984,1783191029.9282,1,1,2.0000,0.0000,1.44682,0.22972,-2.77851,0.97776,1.57079,0.00001,-0.14513,-0.37992,0.04553,,,,,,,,,,,,,,,,,,,,,,,,,,0,0,0,0,0
2.7988,1783191029.9286,1,1,2.0000,0.0000,1.44682,0.22972,-2.77851,0.97776,1.57079,0.00001,-0.14513,-0.37992,0.04553,,,,,,,,,,,,,,,,,,,,,,,,,,0,0,0,0,0
2.8031,1783191029.9329,1,1,2.0000,0.0000,1.44682,0.22971,-2.77851,0.97777,1.57079,0.00001,-0.14513,-0.37992,0.04552,,,,,,,,,,,,,,,,,,,,,,,,,,0,0,0,0,0
2.8036,1783191029.9334,1,1,2.0000,0.0000,1.44682,0.22971,-2.77851,0.97777,1.57079,0.00001,-0.14513,-0.37992,0.04552,,,,,,,,,,,,,,,,,,,,,,,,,,0,0,0,0,0
2.8134,1783191029.9431,1,1,2.0000,0.0000,1.44682,0.22968,-2.77852,0.97782,1.57079,0.00001,-0.14513,-0.37992,0.04551,,,,,,,,,,,,,,,,,,,,,,,,,,0,0,0,0,0
2.8137,1783191029.9435,1,1,2.0000,0.0000,1.44682,0.22968,-2.77852,0.97782,1.57079,0.00001,-0.14513,-0.37992,0.04551,,,,,,,,,,,,,,,,,,,,,,,,,,0,0,0,0,0
2.8235,1783191029.9532,1,1,2.0000,0.0000,1.44682,0.22967,-2.77852,0.97782,1.57079,0.00001,-0.14513,-0.37992,0.04551,,,,,,,,,,,,,,,,,,,,,,,,,,0,0,0,0,0
2.8332,1783191029.9630,1,1,2.0000,0.0000,1.44682,0.22965,-2.77853,0.97785,1.57079,0.00001,-0.14513,-0.37992,0.04551,,,,,,,,,,,,,,,,,,,,,,,,,,0,0,0,0,0
2.8444,1783191029.9741,1,1,2.0000,0.0000,1.44682,0.22963,-2.77853,0.97788,1.57079,0.00001,-0.14513,-0.37992,0.04550,,,,,,,,,,,,,,,,,,,,,,,,,,0,0,0,0,0
2.8575,1783191029.9873,1,1,2.0000,0.0000,1.44682,0.22961,-2.77854,0.97790,1.57079,0.00001,-0.14513,-0.37992,0.04550,,,,,,,,,,,,,,,,,,,,,,,,,,0,0,0,0,0
2.8625,1783191029.9923,1,1,2.0000,0.0000,1.44682,0.22960,-2.77854,0.97792,1.57079,0.00001,-0.14513,-0.37992,0.04549,,,,,,,,,,,,,,,,,,,,,,,,,,0,0,0,0,0
2.8801,1783191030.0099,1,1,2.0000,0.0000,1.44682,0.22956,-2.77855,0.97796,1.57079,0.00001,-0.14513,-0.37992,0.04548,,,,,,,,,,,,,,,,,,,,,,,,,,0,0,0,0,0
2.8837,1783191030.0134,1,1,2.0000,0.0000,1.44682,0.22956,-2.77855,0.97796,1.57079,0.00001,-0.14513,-0.37992,0.04548,,,,,,,,,,,,,,,,,,,,,,,,,,0,0,0,0,0
2.8840,1783191030.0138,1,1,2.0000,0.0000,1.44682,0.22956,-2.77855,0.97796,1.57079,0.00001,-0.14513,-0.37992,0.04548,,,,,,,,,,,,,,,,,,,,,,,,,,0,0,0,0,0
2.8990,1783191030.0287,1,1,2.0000,0.0000,1.44682,0.22952,-2.77856,0.97801,1.57079,0.00001,-0.14513,-0.37992,0.04547,,,,,,,,,,,,,,,,,,,,,,,,,,0,0,0,0,0
2.8993,1783191030.0290,1,1,2.0000,0.0000,1.44682,0.22952,-2.77856,0.97801,1.57079,0.00001,-0.14513,-0.37992,0.04547,,,,,,,,,,,,,,,,,,,,,,,,,,0,0,0,0,0
2.9025,1783191030.0323,1,1,2.0000,0.0000,1.44682,0.22951,-2.77856,0.97802,1.57079,0.00001,-0.14513,-0.37992,0.04547,,,,,,,,,,,,,,,,,,,,,,,,,,0,0,0,0,0
2.9029,1783191030.0326,1,1,2.0000,0.0000,1.44682,0.22951,-2.77856,0.97802,1.57079,0.00001,-0.14513,-0.37992,0.04547,,,,,,,,,,,,,,,,,,,,,,,,,,0,0,0,0,0
2.9145,1783191030.0443,1,1,2.0000,0.0000,1.44682,0.22950,-2.77857,0.97803,1.57079,0.00001,-0.14513,-0.37992,0.04547,,,,,,,,,,,,,,,,,,,,,,,,,,0,0,0,0,0
2.9233,1783191030.0531,1,1,2.0000,0.0000,1.44682,0.22948,-2.77857,0.97806,1.57079,0.00001,-0.14513,-0.37992,0.04546,,,,,,,,,,,,,,,,,,,,,,,,,,0,0,0,0,0
2.9346,1783191030.0644,1,1,2.0000,0.0000,1.44682,0.22945,-2.77858,0.97811,1.57079,0.00001,-0.14513,-0.37992,0.04545,,,,,,,,,,,,,,,,,,,,,,,,,,0,0,0,0,0
2.9348,1783191030.0646,1,1,2.0000,0.0000,1.44682,0.22945,-2.77858,0.97811,1.57079,0.00001,-0.14513,-0.37992,0.04545,,,,,,,,,,,,,,,,,,,,,,,,,,0,0,0,0,0
2.9451,1783191030.0749,1,1,2.0000,0.0000,1.44682,0.22944,-2.77858,0.97812,1.57079,0.00001,-0.14513,-0.37992,0.04545,,,,,,,,,,,,,,,,,,,,,,,,,,0,0,0,0,0
2.9533,1783191030.0831,1,1,2.0000,0.0000,1.44682,0.22942,-2.77859,0.97814,1.57079,0.00001,-0.14513,-0.37992,0.04545,,,,,,,,,,,,,,,,,,,,,,,,,,0,0,0,0,0
2.9537,1783191030.0835,1,1,2.0000,0.0000,1.44682,0.22942,-2.77859,0.97814,1.57079,0.00001,-0.14513,-0.37992,0.04545,,,,,,,,,,,,,,,,,,,,,,,,,,0,0,0,0,0
2.9644,1783191030.0942,1,1,2.0000,0.0000,1.44682,0.22940,-2.77859,0.97817,1.57079,0.00001,-0.14513,-0.37992,0.04544,,,,,,,,,,,,,,,,,,,,,,,,,,0,0,0,0,0
2.9744,1783191030.1041,1,1,2.0000,0.0000,1.44682,0.22939,-2.77860,0.97818,1.57079,0.00001,-0.14513,-0.37992,0.04544,,,,,,,,,,,,,,,,,,,,,,,,,,0,0,0,0,0
2.9837,1783191030.1135,1,1,2.0000,0.0000,1.44682,0.22937,-2.77860,0.97820,1.57079,0.00001,-0.14513,-0.37992,0.04543,,,,,,,,,,,,,,,,,,,,,,,,,,0,0,0,0,0
2.9840,1783191030.1138,1,1,2.0000,0.0000,1.44682,0.22937,-2.77860,0.97820,1.57079,0.00001,-0.14513,-0.37992,0.04543,,,,,,,,,,,,,,,,,,,,,,,,,,0,0,0,0,0
3.0042,1783191030.1339,1,1,2.0000,0.0000,1.44682,0.22933,-2.77861,0.97825,1.57079,0.00001,-0.14513,-0.37992,0.04542,,,,,,,,,,,,,,,,,,,,,,,,,,0,0,0,0,0
3.0045,1783191030.1342,1,1,2.0000,0.0000,1.44682,0.22933,-2.77861,0.97825,1.57079,0.00001,-0.14513,-0.37992,0.04542,,,,,,,,,,,,,,,,,,,,,,,,,,0,0,0,0,0
3.0185,1783191030.1483,1,1,2.0000,0.0000,1.44682,0.22929,-2.77862,0.97830,1.57079,0.00001,-0.14513,-0.37992,0.04541,,,,,,,,,,,,,,,,,,,,,,,,,,0,0,0,0,0
3.0230,1783191030.1528,1,1,2.0000,0.0000,1.44682,0.22928,-2.77862,0.97831,1.57079,0.00001,-0.14513,-0.37992,0.04541,,,,,,,,,,,,,,,,,,,,,,,,,,0,0,0,0,0
3.0325,1783191030.1622,1,1,2.0000,0.0000,1.44682,0.22928,-2.77862,0.97831,1.57079,0.00001,-0.14513,-0.37992,0.04541,,,,,,,,,,,,,,,,,,,,,,,,,,0,0,0,0,0
3.0333,1783191030.1631,1,1,2.0000,0.0000,1.44682,0.22927,-2.77863,0.97832,1.57079,0.00001,-0.14513,-0.37992,0.04541,,,,,,,,,,,,,,,,,,,,,,,,,,0,0,0,0,0
3.0472,1783191030.1769,1,1,2.0000,0.0000,1.44682,0.22924,-2.77863,0.97837,1.57079,0.00001,-0.14513,-0.37992,0.04540,,,,,,,,,,,,,,,,,,,,,,,,,,0,0,0,0,0
3.0559,1783191030.1856,1,1,2.0000,0.0000,1.44682,0.22922,-2.77864,0.97839,1.57079,0.00001,-0.14513,-0.37992,0.04539,,,,,,,,,,,,,,,,,,,,,,,,,,0,0,0,0,0
3.0625,1783191030.1923,1,1,2.0000,0.0000,1.44682,0.22921,-2.77864,0.97840,1.57079,0.00001,-0.14513,-0.37992,0.04539,,,,,,,,,,,,,,,,,,,,,,,,,,0,0,0,0,0
3.0627,1783191030.1925,1,1,2.0000,0.0000,1.44682,0.22921,-2.77864,0.97840,1.57079,0.00001,-0.14513,-0.37992,0.04539,,,,,,,,,,,,,,,,,,,,,,,,,,0,0,0,0,0
3.0757,1783191030.2055,1,1,2.0000,0.0000,1.44682,0.22919,-2.77865,0.97843,1.57079,0.00001,-0.14513,-0.37992,0.04539,,,,,,,,,,,,,,,,,,,,,,,,,,0,0,0,0,0
3.0760,1783191030.2058,1,1,2.0000,0.0000,1.44682,0.22919,-2.77865,0.97843,1.57079,0.00001,-0.14513,-0.37992,0.04539,,,,,,,,,,,,,,,,,,,,,,,,,,0,0,0,0,0
3.0853,1783191030.2150,1,1,2.0000,0.0000,1.44682,0.22917,-2.77865,0.97845,1.57079,0.00001,-0.14513,-0.37992,0.04538,,,,,,,,,,,,,,,,,,,,,,,,,,0,0,0,0,0
3.1079,1783191030.2377,1,1,2.0000,0.0000,1.44682,0.22912,-2.77866,0.97851,1.57079,0.00001,-0.14513,-0.37992,0.04537,,,,,,,,,,,,,,,,,,,,,,,,,,0,0,0,0,0
3.1082,1783191030.2380,1,1,2.0000,0.0000,1.44682,0.22912,-2.77866,0.97851,1.57079,0.00001,-0.14513,-0.37992,0.04537,,,,,,,,,,,,,,,,,,,,,,,,,,0,0,0,0,0
3.1128,1783191030.2426,1,1,2.0000,0.0000,1.44682,0.22911,-2.77867,0.97852,1.57079,0.00001,-0.14513,-0.37992,0.04537,,,,,,,,,,,,,,,,,,,,,,,,,,0,0,0,0,0
3.1228,1783191030.2526,1,1,2.0000,0.0000,1.44682,0.22910,-2.77867,0.97854,1.57079,0.00001,-0.14513,-0.37992,0.04536,,,,,,,,,,,,,,,,,,,,,,,,,,0,0,0,0,0
3.1374,1783191030.2671,1,1,2.0000,0.0000,1.44682,0.22906,-2.77868,0.97858,1.57079,0.00001,-0.14513,-0.37992,0.04535,,,,,,,,,,,,,,,,,,,,,,,,,,0,0,0,0,0
3.1433,1783191030.2731,1,1,2.0000,0.0000,1.44682,0.22905,-2.77868,0.97860,1.57079,0.00001,-0.14513,-0.37992,0.04535,,,,,,,,,,,,,,,,,,,,,,,,,,0,0,0,0,0
3.1534,1783191030.2831,1,1,2.0000,0.0000,1.44682,0.22904,-2.77868,0.97861,1.57079,0.00001,-0.14513,-0.37992,0.04535,,,,,,,,,,,,,,,,,,,,,,,,,,0,0,0,0,0
3.1537,1783191030.2835,1,1,2.0000,0.0000,1.44682,0.22904,-2.77868,0.97861,1.57079,0.00001,-0.14513,-0.37992,0.04535,,,,,,,,,,,,,,,,,,,,,,,,,,0,0,0,0,0
3.1654,1783191030.2951,1,1,2.0000,0.0000,1.44682,0.22901,-2.77869,0.97865,1.57079,0.00001,-0.14513,-0.37992,0.04534,,,,,,,,,,,,,,,,,,,,,,,,,,0,0,0,0,0
3.1734,1783191030.3031,1,1,2.0000,0.0000,1.44682,0.22899,-2.77870,0.97868,1.57079,0.00001,-0.14513,-0.37992,0.04533,,,,,,,,,,,,,,,,,,,,,,,,,,0,0,0,0,0
3.1869,1783191030.3166,1,1,2.0000,0.0000,1.44682,0.22898,-2.77870,0.97869,1.57079,0.00001,-0.14513,-0.37992,0.04533,,,,,,,,,,,,,,,,,,,,,,,,,,0,0,0,0,0
3.1872,1783191030.3169,1,1,2.0000,0.0000,1.44682,0.22898,-2.77870,0.97869,1.57079,0.00001,-0.14513,-0.37992,0.04533,,,,,,,,,,,,,,,,,,,,,,,,,,0,0,0,0,0
3.1928,1783191030.3226,1,1,2.0000,0.0000,1.44682,0.22897,-2.77870,0.97870,1.57079,0.00001,-0.14513,-0.37992,0.04533,,,,,,,,,,,,,,,,,,,,,,,,,,0,0,0,0,0
3.1933,1783191030.3231,1,1,2.0000,0.0000,1.44682,0.22896,-2.77871,0.97872,1.57079,0.00001,-0.14513,-0.37992,0.04533,,,,,,,,,,,,,,,,,,,,,,,,,,0,0,0,0,0
3.2109,1783191030.3406,1,1,2.0000,0.0000,1.44682,0.22894,-2.77871,0.97875,1.57079,0.00001,-0.14513,-0.37992,0.04532,,,,,,,,,,,,,,,,,,,,,,,,,,0,0,0,0,0
3.2155,1783191030.3453,1,1,2.0000,0.0000,1.44682,0.22893,-2.77871,0.97875,1.57079,0.00001,-0.14513,-0.37992,0.04532,,,,,,,,,,,,,,,,,,,,,,,,,,0,0,0,0,0
3.2244,1783191030.3542,1,1,2.0000,0.0000,1.44682,0.22891,-2.77872,0.97878,1.57079,0.00001,-0.14513,-0.37992,0.04531,,,,,,,,,,,,,,,,,,,,,,,,,,0,0,0,0,0
3.2248,1783191030.3546,1,1,2.0000,0.0000,1.44682,0.22891,-2.77872,0.97878,1.57079,0.00001,-0.14513,-0.37992,0.04531,,,,,,,,,,,,,,,,,,,,,,,,,,0,0,0,0,0
3.2333,1783191030.3631,1,1,2.0000,0.0000,1.44682,0.22887,-2.77873,0.97883,1.57079,0.00001,-0.14513,-0.37992,0.04530,,,,,,,,,,,,,,,,,,,,,,,,,,0,0,0,0,0
3.2336,1783191030.3634,1,1,2.0000,0.0000,1.44682,0.22887,-2.77873,0.97883,1.57079,0.00001,-0.14513,-0.37992,0.04530,,,,,,,,,,,,,,,,,,,,,,,,,,0,0,0,0,0
3.2459,1783191030.3757,1,1,2.0000,0.0000,1.44682,0.22886,-2.77873,0.97884,1.57079,0.00001,-0.14513,-0.37992,0.04530,,,,,,,,,,,,,,,,,,,,,,,,,,0,0,0,0,0
3.2560,1783191030.3857,1,1,2.0000,0.0000,1.44682,0.22884,-2.77873,0.97886,1.57079,0.00001,-0.14513,-0.37992,0.04530,,,,,,,,,,,,,,,,,,,,,,,,,,0,0,0,0,0
3.2643,1783191030.3941,1,1,2.0000,0.0000,1.44682,0.22882,-2.77874,0.97889,1.57079,0.00001,-0.14513,-0.37992,0.04529,,,,,,,,,,,,,,,,,,,,,,,,,,0,0,0,0,0
3.2647,1783191030.3945,1,1,2.0000,0.0000,1.44682,0.22882,-2.77874,0.97889,1.57079,0.00001,-0.14513,-0.37992,0.04529,,,,,,,,,,,,,,,,,,,,,,,,,,0,0,0,0,0
3.2735,1783191030.4032,1,1,2.0000,0.0000,1.44682,0.22881,-2.77874,0.97890,1.57079,0.00001,-0.14513,-0.37992,0.04529,,,,,,,,,,,,,,,,,,,,,,,,,,0,0,0,0,0
3.2878,1783191030.4176,1,1,2.0000,0.0000,1.44682,0.22878,-2.77875,0.97894,1.57079,0.00001,-0.14513,-0.37992,0.04528,,,,,,,,,,,,,,,,,,,,,,,,,,0,0,0,0,0
3.2882,1783191030.4179,1,1,2.0000,0.0000,1.44682,0.22878,-2.77875,0.97894,1.57079,0.00001,-0.14513,-0.37992,0.04528,,,,,,,,,,,,,,,,,,,,,,,,,,0,0,0,0,0
3.2934,1783191030.4231,1,1,2.0000,0.0000,1.44682,0.22876,-2.77876,0.97897,1.57079,0.00001,-0.14513,-0.37992,0.04527,,,,,,,,,,,,,,,,,,,,,,,,,,0,0,0,0,0
3.3075,1783191030.4372,1,1,2.0000,0.0000,1.44682,0.22875,-2.77876,0.97898,1.57079,0.00001,-0.14513,-0.37992,0.04527,,,,,,,,,,,,,,,,,,,,,,,,,,0,0,0,0,0
3.3127,1783191030.4425,1,1,2.0000,0.0000,1.44682,0.22874,-2.77876,0.97899,1.57079,0.00001,-0.14513,-0.37992,0.04527,,,,,,,,,,,,,,,,,,,,,,,,,,0,0,0,0,0
3.3242,1783191030.4540,1,1,2.0000,0.0000,1.44682,0.22871,-2.77877,0.97903,1.57079,0.00001,-0.14513,-0.37992,0.04526,,,,,,,,,,,,,,,,,,,,,,,,,,0,0,0,0,0
3.3337,1783191030.4635,1,1,2.0000,0.0000,1.44682,0.22870,-2.77877,0.97904,1.57079,0.00001,-0.14513,-0.37992,0.04526,,,,,,,,,,,,,,,,,,,,,,,,,,0,0,0,0,0
3.3342,1783191030.4640,1,1,2.0000,0.0000,1.44682,0.22870,-2.77877,0.97904,1.57079,0.00001,-0.14513,-0.37992,0.04526,,,,,,,,,,,,,,,,,,,,,,,,,,0,0,0,0,0
3.3427,1783191030.4724,1,1,2.0000,0.0000,1.44682,0.22868,-2.77878,0.97907,1.57079,0.00001,-0.14513,-0.37992,0.04525,,,,,,,,,,,,,,,,,,,,,,,,,,0,0,0,0,0
3.3550,1783191030.4848,1,1,2.0000,0.0000,1.44682,0.22864,-2.77879,0.97911,1.57079,0.00001,-0.14513,-0.37992,0.04524,,,,,,,,,,,,,,,,,,,,,,,,,,0,0,0,0,0
3.3667,1783191030.4965,1,1,2.0000,0.0000,1.44682,0.22863,-2.77879,0.97912,1.57079,0.00001,-0.14513,-0.37992,0.04524,,,,,,,,,,,,,,,,,,,,,,,,,,0,0,0,0,0
3.3755,1783191030.5053,1,1,2.0000,0.0000,1.44682,0.22861,-2.77879,0.97915,1.57079,0.00001,-0.14513,-0.37992,0.04524,,,,,,,,,,,,,,,,,,,,,,,,,,0,0,0,0,0
3.4129,1783191030.5427,1,1,2.0000,0.0000,1.44682,0.22854,-2.77881,0.97925,1.57079,0.00001,-0.14513,-0.37992,0.04522,,,,,,,,,,,,,,,,,,,,,,,,,,0,0,0,0,0
3.4136,1783191030.5433,1,1,2.0000,0.0000,1.44682,0.22853,-2.77882,0.97926,1.57079,0.00001,-0.14513,-0.37992,0.04521,,,,,,,,,,,,,,,,,,,,,,,,,,0,0,0,0,0
3.4204,1783191030.5502,1,1,2.0000,0.0000,1.44682,0.22853,-2.77882,0.97926,1.57079,0.00001,-0.14513,-0.37992,0.04521,,,,,,,,,,,,,,,,,,,,,,,,,,0,0,0,0,0
3.4288,1783191030.5586,1,1,2.0000,0.0000,1.44682,0.22852,-2.77882,0.97927,1.57079,0.00001,-0.14513,-0.37992,0.04521,,,,,,,,,,,,,,,,,,,,,,,,,,0,0,0,0,0
3.4577,1783191030.5875,1,1,2.0000,0.0000,1.44682,0.22846,-2.77883,0.97934,1.57079,0.00001,-0.14513,-0.37992,0.04520,,,,,,,,,,,,,,,,,,,,,,,,,,0,0,0,0,0
3.4583,1783191030.5881,1,1,2.0000,0.0000,1.44682,0.22846,-2.77883,0.97934,1.57079,0.00001,-0.14513,-0.37992,0.04520,,,,,,,,,,,,,,,,,,,,,,,,,,0,0,0,0,0
3.4623,1783191030.5921,1,1,2.0000,0.0000,1.44682,0.22845,-2.77884,0.97936,1.57079,0.00001,-0.14513,-0.37992,0.04519,,,,,,,,,,,,,,,,,,,,,,,,,,0,0,0,0,0
3.4627,1783191030.5924,1,1,2.0000,0.0000,1.44682,0.22845,-2.77884,0.97936,1.57079,0.00001,-0.14513,-0.37992,0.04519,,,,,,,,,,,,,,,,,,,,,,,,,,0,0,0,0,0
3.4655,1783191030.5953,1,1,2.0000,0.0000,1.44682,0.22843,-2.77884,0.97937,1.57079,0.00001,-0.14513,-0.37992,0.04519,,,,,,,,,,,,,,,,,,,,,,,,,,0,0,0,0,0
3.4756,1783191030.6054,1,1,2.0000,0.0000,1.44682,0.22841,-2.77885,0.97940,1.57079,0.00001,-0.14513,-0.37992,0.04518,,,,,,,,,,,,,,,,,,,,,,,,,,0,0,0,0,0
3.4760,1783191030.6057,1,1,2.0000,0.0000,1.44682,0.22841,-2.77885,0.97940,1.57079,0.00001,-0.14513,-0.37992,0.04518,,,,,,,,,,,,,,,,,,,,,,,,,,0,0,0,0,0
3.4859,1783191030.6157,1,1,2.0000,0.0000,1.44682,0.22840,-2.77885,0.97941,1.57079,0.00001,-0.14513,-0.37992,0.04518,,,,,,,,,,,,,,,,,,,,,,,,,,0,0,0,0,0
3.4863,1783191030.6161,1,1,2.0000,0.0000,1.44682,0.22840,-2.77885,0.97941,1.57079,0.00001,-0.14513,-0.37992,0.04518,,,,,,,,,,,,,,,,,,,,,,,,,,0,0,0,0,0
3.4962,1783191030.6260,1,1,2.0000,0.0000,1.44682,0.22838,-2.77885,0.97944,1.57079,0.00001,-0.14513,-0.37992,0.04518,,,,,,,,,,,,,,,,,,,,,,,,,,0,0,0,0,0
3.5175,1783191030.6473,1,1,2.0000,0.0000,1.44682,0.22834,-2.77886,0.97949,1.57079,0.00001,-0.14513,-0.37992,0.04517,,,,,,,,,,,,,,,,,,,,,,,,,,0,0,0,0,0
3.5178,1783191030.6476,1,1,2.0000,0.0000,1.44682,0.22834,-2.77886,0.97949,1.57079,0.00001,-0.14513,-0.37992,0.04517,,,,,,,,,,,,,,,,,,,,,,,,,,0,0,0,0,0
3.5317,1783191030.6614,1,1,2.0000,0.0000,1.44682,0.22831,-2.77887,0.97953,1.57079,0.00001,-0.14513,-0.37992,0.04516,,,,,,,,,,,,,,,,,,,,,,,,,,0,0,0,0,0
3.5354,1783191030.6652,1,1,2.0000,0.0000,1.44682,0.22830,-2.77887,0.97955,1.57079,0.00001,-0.14513,-0.37992,0.04515,,,,,,,,,,,,,,,,,,,,,,,,,,0,0,0,0,0
3.5484,1783191030.6782,1,1,2.0000,0.0000,1.44682,0.22829,-2.77888,0.97956,1.57079,0.00001,-0.14513,-0.37992,0.04515,,,,,,,,,,,,,,,,,,,,,,,,,,0,0,0,0,0
3.5636,1783191030.6933,1,1,2.0000,0.0000,1.44682,0.22825,-2.77889,0.97961,1.57079,0.00001,-0.14513,-0.37992,0.04514,,,,,,,,,,,,,,,,,,,,,,,,,,0,0,0,0,0
3.5638,1783191030.6936,1,1,2.0000,0.0000,1.44682,0.22825,-2.77889,0.97961,1.57079,0.00001,-0.14513,-0.37992,0.04514,,,,,,,,,,,,,,,,,,,,,,,,,,0,0,0,0,0
3.5663,1783191030.6960,1,1,2.0000,0.0000,1.44682,0.22824,-2.77889,0.97962,1.57079,0.00001,-0.14513,-0.37992,0.04514,,,,,,,,,,,,,,,,,,,,,,,,,,0,0,0,0,0
3.5665,1783191030.6963,1,1,2.0000,0.0000,1.44682,0.22824,-2.77889,0.97962,1.57079,0.00001,-0.14513,-0.37992,0.04514,,,,,,,,,,,,,,,,,,,,,,,,,,0,0,0,0,0
3.5764,1783191030.7062,1,1,2.0000,0.0000,1.44682,0.22824,-2.77889,0.97962,1.57079,0.00001,-0.14513,-0.37992,0.04514,,,,,,,,,,,,,,,,,,,,,,,,,,0,0,0,0,0
3.5767,1783191030.7065,1,1,2.0000,0.0000,1.44682,0.22824,-2.77889,0.97962,1.57079,0.00001,-0.14513,-0.37992,0.04514,,,,,,,,,,,,,,,,,,,,,,,,,,0,0,0,0,0
3.5905,1783191030.7203,1,1,2.0000,0.0000,1.44682,0.22820,-2.77890,0.97967,1.57079,0.00001,-0.14513,-0.37992,0.04513,,,,,,,,,,,,,,,,,,,,,,,,,,0,0,0,0,0
3.5977,1783191030.7275,1,1,2.0000,0.0000,1.44682,0.22819,-2.77890,0.97968,1.57079,0.00001,-0.14513,-0.37992,0.04513,,,,,,,,,,,,,,,,,,,,,,,,,,0,0,0,0,0
3.6126,1783191030.7424,1,1,2.0000,0.0000,1.44682,0.22817,-2.77891,0.97970,1.57079,0.00001,-0.14513,-0.37992,0.04512,,,,,,,,,,,,,,,,,,,,,,,,,,0,0,0,0,0
3.6158,1783191030.7456,1,1,2.0000,0.0000,1.44682,0.22816,-2.77891,0.97972,1.57079,0.00001,-0.14513,-0.37992,0.04512,,,,,,,,,,,,,,,,,,,,,,,,,,0,0,0,0,0
3.6161,1783191030.7458,1,1,2.0000,0.0000,1.44682,0.22816,-2.77891,0.97972,1.57079,0.00001,-0.14513,-0.37992,0.04512,,,,,,,,,,,,,,,,,,,,,,,,,,0,0,0,0,0
3.6306,1783191030.7604,1,1,2.0000,0.0000,1.44682,0.22812,-2.77892,0.97976,1.57079,0.00001,-0.14513,-0.37992,0.04511,,,,,,,,,,,,,,,,,,,,,,,,,,0,0,0,0,0
3.6369,1783191030.7667,1,1,2.0000,0.0000,1.44682,0.22812,-2.77892,0.97977,1.57079,0.00001,-0.14513,-0.37992,0.04511,,,,,,,,,,,,,,,,,,,,,,,,,,0,0,0,0,0
3.6470,1783191030.7768,1,1,2.0000,0.0000,1.44682,0.22810,-2.77893,0.97980,1.57079,0.00001,-0.14513,-0.37992,0.04510,,,,,,,,,,,,,,,,,,,,,,,,,,0,0,0,0,0
3.6666,1783191030.7964,1,1,2.0000,0.0000,1.44682,0.22807,-2.77893,0.97984,1.57079,0.00001,-0.14513,-0.37992,0.04509,,,,,,,,,,,,,,,,,,,,,,,,,,0,0,0,0,0
3.6670,1783191030.7967,1,1,2.0000,0.0000,1.44682,0.22807,-2.77893,0.97984,1.57079,0.00001,-0.14513,-0.37992,0.04509,,,,,,,,,,,,,,,,,,,,,,,,,,0,0,0,0,0
3.6679,1783191030.7977,1,1,2.0000,0.0000,1.44682,0.22807,-2.77893,0.97984,1.57079,0.00001,-0.14513,-0.37992,0.04509,,,,,,,,,,,,,,,,,,,,,,,,,,0,0,0,0,0
3.6798,1783191030.8096,1,1,2.0000,0.0000,1.44682,0.22803,-2.77894,0.97988,1.57079,0.00001,-0.14513,-0.37992,0.04509,,,,,,,,,,,,,,,,,,,,,,,,,,0,0,0,0,0
3.6862,1783191030.8160,1,1,2.0000,0.0000,1.44682,0.22801,-2.77895,0.97991,1.57079,0.00001,-0.14513,-0.37992,0.04508,,,,,,,,,,,,,,,,,,,,,,,,,,0,0,0,0,0
3.6995,1783191030.8292,1,1,2.0000,0.0000,1.44682,0.22800,-2.77895,0.97992,1.57079,0.00001,-0.14513,-0.37992,0.04508,,,,,,,,,,,,,,,,,,,,,,,,,,0,0,0,0,0
3.7060,1783191030.8358,1,1,2.0000,0.0000,1.44682,0.22798,-2.77895,0.97994,1.57079,0.00001,-0.14513,-0.37992,0.04507,,,,,,,,,,,,,,,,,,,,,,,,,,0,0,0,0,0
3.7063,1783191030.8361,1,1,2.0000,0.0000,1.44682,0.22798,-2.77895,0.97994,1.57079,0.00001,-0.14513,-0.37992,0.04507,,,,,,,,,,,,,,,,,,,,,,,,,,0,0,0,0,0
3.7170,1783191030.8468,1,1,2.0000,0.0000,1.44682,0.22796,-2.77896,0.97997,1.57079,0.00001,-0.14513,-0.37992,0.04507,,,,,,,,,,,,,,,,,,,,,,,,,,0,0,0,0,0
3.7177,1783191030.8474,1,1,2.0000,0.0000,1.44682,0.22796,-2.77896,0.97997,1.57079,0.00001,-0.14513,-0.37992,0.04507,,,,,,,,,,,,,,,,,,,,,,,,,,0,0,0,0,0
3.7258,1783191030.8555,1,1,2.0000,0.0000,1.44682,0.22795,-2.77896,0.97998,1.57079,0.00001,-0.14513,-0.37992,0.04507,,,,,,,,,,,,,,,,,,,,,,,,,,0,0,0,0,0
3.7354,1783191030.8651,1,1,2.0000,0.0000,1.44682,0.22793,-2.77897,0.98001,1.57079,0.00001,-0.14513,-0.37992,0.04506,,,,,,,,,,,,,,,,,,,,,,,,,,0,0,0,0,0
3.7358,1783191030.8656,1,1,2.0000,0.0000,1.44682,0.22793,-2.77897,0.98001,1.57079,0.00001,-0.14513,-0.37992,0.04506,,,,,,,,,,,,,,,,,,,,,,,,,,0,0,0,0,0
3.7518,1783191030.8816,1,1,2.0000,0.0000,1.44682,0.22789,-2.77898,0.98005,1.57079,0.00001,-0.14513,-0.37992,0.04505,,,,,,,,,,,,,,,,,,,,,,,,,,0,0,0,0,0
3.7581,1783191030.8878,1,1,2.0000,0.0000,1.44682,0.22789,-2.77898,0.98006,1.57079,0.00001,-0.14513,-0.37992,0.04505,,,,,,,,,,,,,,,,,,,,,,,,,,0,0,0,0,0
3.7666,1783191030.8963,1,1,2.0000,0.0000,1.44682,0.22787,-2.77898,0.98009,1.57079,0.00001,-0.14513,-0.37992,0.04504,,,,,,,,,,,,,,,,,,,,,,,,,,0,0,0,0,0
3.7753,1783191030.9051,1,1,2.0000,0.0000,1.44682,0.22785,-2.77899,0.98011,1.57079,0.00001,-0.14513,-0.37992,0.04504,,,,,,,,,,,,,,,,,,,,,,,,,,0,0,0,0,0
3.7904,1783191030.9202,1,1,2.0000,0.0000,1.44682,0.22783,-2.77899,0.98014,1.57079,0.00001,-0.14513,-0.37992,0.04503,,,,,,,,,,,,,,,,,,,,,,,,,,0,0,0,0,0
3.7979,1783191030.9277,1,1,2.0000,0.0000,1.44682,0.22780,-2.77900,0.98017,1.57079,0.00001,-0.14513,-0.37992,0.04503,,,,,,,,,,,,,,,,,,,,,,,,,,0,0,0,0,0
3.8065,1783191030.9363,1,1,2.0000,0.0000,1.44682,0.22778,-2.77901,0.98020,1.57079,0.00001,-0.14513,-0.37992,0.04502,,,,,,,,,,,,,,,,,,,,,,,,,,0,0,0,0,0
3.8158,1783191030.9455,1,1,2.0000,0.0000,1.44682,0.22778,-2.77901,0.98020,1.57079,0.00001,-0.14513,-0.37992,0.04502,,,,,,,,,,,,,,,,,,,,,,,,,,0,0,0,0,0
3.8302,1783191030.9600,1,1,2.0000,0.0000,1.44682,0.22774,-2.77902,0.98024,1.57079,0.00001,-0.14513,-0.37992,0.04501,,,,,,,,,,,,,,,,,,,,,,,,,,0,0,0,0,0
3.8306,1783191030.9604,1,1,2.0000,0.0000,1.44682,0.22774,-2.77902,0.98024,1.57079,0.00001,-0.14513,-0.37992,0.04501,,,,,,,,,,,,,,,,,,,,,,,,,,0,0,0,0,0
3.8372,1783191030.9670,1,1,2.0000,0.0000,1.44682,0.22773,-2.77902,0.98026,1.57079,0.00001,-0.14513,-0.37992,0.04501,,,,,,,,,,,,,,,,,,,,,,,,,,0,0,0,0,0
3.8475,1783191030.9773,1,1,2.0000,0.0000,1.44682,0.22772,-2.77902,0.98027,1.57079,0.00001,-0.14513,-0.37992,0.04501,,,,,,,,,,,,,,,,,,,,,,,,,,0,0,0,0,0
3.8560,1783191030.9857,1,1,2.0000,0.0000,1.44682,0.22770,-2.77903,0.98030,1.57079,0.00001,-0.14513,-0.37992,0.04500,,,,,,,,,,,,,,,,,,,,,,,,,,0,0,0,0,0
3.8690,1783191030.9988,1,1,2.0000,0.0000,1.44682,0.22766,-2.77904,0.98034,1.57079,0.00001,-0.14513,-0.37992,0.04499,,,,,,,,,,,,,,,,,,,,,,,,,,0,0,0,0,0
3.8824,1783191031.0122,1,1,2.0000,0.0000,1.44682,0.22765,-2.77904,0.98036,1.57079,0.00001,-0.14513,-0.37992,0.04499,,,,,,,,,,,,,,,,,,,,,,,,,,0,0,0,0,0
3.8826,1783191031.0124,1,1,2.0000,0.0000,1.44682,0.22765,-2.77904,0.98036,1.57079,0.00001,-0.14513,-0.37992,0.04499,,,,,,,,,,,,,,,,,,,,,,,,,,0,0,0,0,0
3.8858,1783191031.0156,1,1,2.0000,0.0000,1.44682,0.22764,-2.77904,0.98037,1.57079,0.00001,-0.14513,-0.37992,0.04498,,,,,,,,,,,,,,,,,,,,,,,,,,0,0,0,0,0
3.8954,1783191031.0252,1,1,2.0000,0.0000,1.44682,0.22762,-2.77905,0.98040,1.57079,0.00001,-0.14513,-0.37992,0.04498,,,,,,,,,,,,,,,,,,,,,,,,,,0,0,0,0,0
3.8957,1783191031.0255,1,1,2.0000,0.0000,1.44682,0.22762,-2.77905,0.98040,1.57079,0.00001,-0.14513,-0.37992,0.04498,,,,,,,,,,,,,,,,,,,,,,,,,,0,0,0,0,0
3.9059,1783191031.0356,1,1,2.0000,0.0000,1.44682,0.22761,-2.77905,0.98041,1.57079,0.00001,-0.14513,-0.37992,0.04498,,,,,,,,,,,,,,,,,,,,,,,,,,0,0,0,0,0
3.9229,1783191031.0527,1,1,2.0000,0.0000,1.44682,0.22756,-2.77906,0.98047,1.57079,0.00001,-0.14513,-0.37992,0.04496,,,,,,,,,,,,,,,,,,,,,,,,,,0,0,0,0,0
3.9231,1783191031.0529,1,1,2.0000,0.0000,1.44682,0.22756,-2.77906,0.98047,1.57079,0.00001,-0.14513,-0.37992,0.04496,,,,,,,,,,,,,,,,,,,,,,,,,,0,0,0,0,0
3.9305,1783191031.0602,1,1,2.0000,0.0000,1.44682,0.22755,-2.77906,0.98049,1.57079,0.00001,-0.14513,-0.37992,0.04496,,,,,,,,,,,,,,,,,,,,,,,,,,0,0,0,0,0
3.9353,1783191031.0650,1,1,2.0000,0.0000,1.44682,0.22755,-2.77907,0.98049,1.57079,0.00001,-0.14513,-0.37992,0.04496,,,,,,,,,,,,,,,,,,,,,,,,,,0,0,0,0,0
3.9356,1783191031.0654,1,1,2.0000,0.0000,1.44682,0.22755,-2.77907,0.98049,1.57079,0.00001,-0.14513,-0.37992,0.04496,,,,,,,,,,,,,,,,,,,,,,,,,,0,0,0,0,0
3.9500,1783191031.0798,1,1,2.0000,0.0000,1.44682,0.22751,-2.77907,0.98053,1.57079,0.00001,-0.14513,-0.37992,0.04495,,,,,,,,,,,,,,,,,,,,,,,,,,0,0,0,0,0
3.9503,1783191031.0801,1,1,2.0000,0.0000,1.44682,0.22751,-2.77907,0.98053,1.57079,0.00001,-0.14513,-0.37992,0.04495,,,,,,,,,,,,,,,,,,,,,,,,,,0,0,0,0,0
3.9557,1783191031.0854,1,1,2.0000,0.0000,1.44682,0.22750,-2.77908,0.98055,1.57079,0.00001,-0.14513,-0.37992,0.04495,,,,,,,,,,,,,,,,,,,,,,,,,,0,0,0,0,0
3.9674,1783191031.0972,1,1,2.0000,0.0000,1.44682,0.22749,-2.77908,0.98056,1.57079,0.00001,-0.14513,-0.37992,0.04495,,,,,,,,,,,,,,,,,,,,,,,,,,0,0,0,0,0
3.9773,1783191031.1071,1,1,2.0000,0.0000,1.44682,0.22747,-2.77909,0.98059,1.57079,0.00001,-0.14513,-0.37992,0.04494,,,,,,,,,,,,,,,,,,,,,,,,,,0,0,0,0,0
3.9874,1783191031.1172,1,1,2.0000,0.0000,1.44682,0.22743,-2.77909,0.98063,1.57079,0.00001,-0.14513,-0.37992,0.04493,,,,,,,,,,,,,,,,,,,,,,,,,,0,0,0,0,0
4.0026,1783191031.1324,1,1,2.0000,0.0000,1.44682,0.22742,-2.77910,0.98065,1.57079,0.00001,-0.14513,-0.37992,0.04493,,,,,,,,,,,,,,,,,,,,,,,,,,0,0,0,0,0
4.0109,1783191031.1407,1,1,2.0000,0.0000,1.44682,0.22740,-2.77910,0.98068,1.57079,0.00001,-0.14513,-0.37992,0.04492,,,,,,,,,,,,,,,,,,,,,,,,,,0,0,0,0,0
4.0268,1783191031.1566,1,1,2.0000,0.0000,1.44682,0.22738,-2.77911,0.98070,1.57079,0.00001,-0.14513,-0.37992,0.04492,,,,,,,,,,,,,,,,,,,,,,,,,,0,0,0,0,0
4.0308,1783191031.1606,1,1,2.0000,0.0000,1.44682,0.22737,-2.77911,0.98072,1.57079,0.00001,-0.14513,-0.37992,0.04491,,,,,,,,,,,,,,,,,,,,,,,,,,0,0,0,0,0
4.0400,1783191031.1698,1,1,2.0000,0.0000,1.44682,0.22734,-2.77912,0.98075,1.57079,0.00001,-0.14513,-0.37992,0.04491,,,,,,,,,,,,,,,,,,,,,,,,,,0,0,0,0,0
4.0460,1783191031.1757,1,1,2.0000,0.0000,1.44682,0.22732,-2.77912,0.98077,1.57079,0.00001,-0.14513,-0.37992,0.04490,,,,,,,,,,,,,,,,,,,,,,,,,,0,0,0,0,0
4.0557,1783191031.1855,1,1,2.0000,0.0000,1.44682,0.22732,-2.77912,0.98078,1.57079,0.00001,-0.14513,-0.37992,0.04490,,,,,,,,,,,,,,,,,,,,,,,,,,0,0,0,0,0
4.0704,1783191031.2002,1,1,2.0000,0.0000,1.44682,0.22728,-2.77913,0.98082,1.57079,0.00001,-0.14513,-0.37992,0.04489,,,,,,,,,,,,,,,,,,,,,,,,,,0,0,0,0,0
4.0707,1783191031.2005,1,1,2.0000,0.0000,1.44682,0.22728,-2.77913,0.98082,1.57079,0.00001,-0.14513,-0.37992,0.04489,,,,,,,,,,,,,,,,,,,,,,,,,,0,0,0,0,0
4.0799,1783191031.2097,1,1,2.0000,0.0000,1.44682,0.22727,-2.77914,0.98084,1.57079,0.00001,-0.14513,-0.37992,0.04489,,,,,,,,,,,,,,,,,,,,,,,,,,0,0,0,0,0
4.0802,1783191031.2100,1,1,2.0000,0.0000,1.44682,0.22727,-2.77914,0.98084,1.57079,0.00001,-0.14513,-0.37992,0.04489,,,,,,,,,,,,,,,,,,,,,,,,,,0,0,0,0,0
4.0876,1783191031.2174,1,1,2.0000,0.0000,1.44682,0.22726,-2.77914,0.98085,1.57079,0.00001,-0.14513,-0.37992,0.04489,,,,,,,,,,,,,,,,,,,,,,,,,,0,0,0,0,0
4.0970,1783191031.2268,1,1,2.0000,0.0000,1.44682,0.22724,-2.77914,0.98087,1.57079,0.00001,-0.14513,-0.37992,0.04488,,,,,,,,,,,,,,,,,,,,,,,,,,0,0,0,0,0
4.1124,1783191031.2422,1,1,2.0000,0.0000,1.44682,0.22720,-2.77915,0.98092,1.57079,0.00001,-0.14513,-0.37992,0.04487,,,,,,,,,,,,,,,,,,,,,,,,,,0,0,0,0,0
4.1156,1783191031.2454,1,1,2.0000,0.0000,1.44682,0.22720,-2.77915,0.98092,1.57079,0.00001,-0.14513,-0.37992,0.04487,,,,,,,,,,,,,,,,,,,,,,,,,,0,0,0,0,0
4.1279,1783191031.2577,1,1,2.0000,0.0000,1.44682,0.22718,-2.77916,0.98095,1.57079,0.00001,-0.14513,-0.37992,0.04486,,,,,,,,,,,,,,,,,,,,,,,,,,0,0,0,0,0
4.1362,1783191031.2660,1,1,2.0000,0.0000,1.44682,0.22715,-2.77916,0.98098,1.57079,0.00001,-0.14513,-0.37992,0.04486,,,,,,,,,,,,,,,,,,,,,,,,,,0,0,0,0,0
4.1365,1783191031.2663,1,1,2.0000,0.0000,1.44682,0.22715,-2.77916,0.98098,1.57079,0.00001,-0.14513,-0.37992,0.04486,,,,,,,,,,,,,,,,,,,,,,,,,,0,0,0,0,0
4.1469,1783191031.2766,1,1,2.0000,0.0000,1.44682,0.22714,-2.77917,0.98099,1.57079,0.00001,-0.14513,-0.37992,0.04486,,,,,,,,,,,,,,,,,,,,,,,,,,0,0,0,0,0
4.1556,1783191031.2854,1,1,2.0000,0.0000,1.44682,0.22712,-2.77917,0.98102,1.57079,0.00001,-0.14513,-0.37992,0.04485,,,,,,,,,,,,,,,,,,,,,,,,,,0,0,0,0,0
4.1675,1783191031.2973,1,1,2.0000,0.0000,1.44682,0.22709,-2.77918,0.98106,1.57079,0.00001,-0.14513,-0.37992,0.04484,,,,,,,,,,,,,,,,,,,,,,,,,,0,0,0,0,0
4.1796,1783191031.3094,1,1,2.0000,0.0000,1.44682,0.22708,-2.77918,0.98107,1.57079,0.00001,-0.14513,-0.37992,0.04484,,,,,,,,,,,,,,,,,,,,,,,,,,0,0,0,0,0
4.1862,1783191031.3160,1,1,2.0000,0.0000,1.44682,0.22706,-2.77919,0.98110,1.57079,0.00001,-0.14513,-0.37992,0.04483,,,,,,,,,,,,,,,,,,,,,,,,,,0,0,0,0,0
4.1866,1783191031.3164,1,1,2.0000,0.0000,1.44682,0.22706,-2.77919,0.98110,1.57079,0.00001,-0.14513,-0.37992,0.04483,,,,,,,,,,,,,,,,,,,,,,,,,,0,0,0,0,0
4.1969,1783191031.3266,1,1,2.0000,0.0000,1.44682,0.22704,-2.77919,0.98112,1.57079,0.00001,-0.14513,-0.37992,0.04483,,,,,,,,,,,,,,,,,,,,,,,,,,0,0,0,0,0
4.2111,1783191031.3409,1,1,2.0000,0.0000,1.44682,0.22702,-2.77920,0.98115,1.57079,0.00001,-0.14513,-0.37992,0.04482,,,,,,,,,,,,,,,,,,,,,,,,,,0,0,0,0,0
4.2204,1783191031.3502,1,1,2.0000,0.0000,1.44682,0.22699,-2.77921,0.98118,1.57079,0.00001,-0.14513,-0.37992,0.04482,,,,,,,,,,,,,,,,,,,,,,,,,,0,0,0,0,0
4.2208,1783191031.3506,1,1,2.0000,0.0000,1.44682,0.22699,-2.77921,0.98118,1.57079,0.00001,-0.14513,-0.37992,0.04482,,,,,,,,,,,,,,,,,,,,,,,,,,0,0,0,0,0
4.2335,1783191031.3632,1,1,2.0000,0.0000,1.44682,0.22697,-2.77921,0.98121,1.57079,0.00001,-0.14513,-0.37992,0.04481,,,,,,,,,,,,,,,,,,,,,,,,,,0,0,0,0,0
4.2340,1783191031.3638,1,1,2.0000,0.0000,1.44682,0.22697,-2.77921,0.98121,1.57079,0.00001,-0.14513,-0.37992,0.04481,,,,,,,,,,,,,,,,,,,,,,,,,,0,0,0,0,0
4.2435,1783191031.3733,1,1,2.0000,0.0000,1.44682,0.22696,-2.77922,0.98123,1.57079,0.00001,-0.14513,-0.37992,0.04481,,,,,,,,,,,,,,,,,,,,,,,,,,0,0,0,0,0
4.2521,1783191031.3819,1,1,2.0000,0.0000,1.44682,0.22693,-2.77922,0.98125,1.57079,0.00001,-0.14513,-0.37992,0.04480,,,,,,,,,,,,,,,,,,,,,,,,,,0,0,0,0,0
4.2634,1783191031.3931,1,1,2.0000,0.0000,1.44682,0.22692,-2.77922,0.98127,1.57079,0.00001,-0.14513,-0.37992,0.04480,,,,,,,,,,,,,,,,,,,,,,,,,,0,0,0,0,0
4.2637,1783191031.3934,1,1,2.0000,0.0000,1.44682,0.22692,-2.77922,0.98127,1.57079,0.00001,-0.14513,-0.37992,0.04480,,,,,,,,,,,,,,,,,,,,,,,,,,0,0,0,0,0
4.2745,1783191031.4043,1,1,2.0000,0.0000,1.44682,0.22689,-2.77923,0.98131,1.57079,0.00001,-0.14513,-0.37992,0.04479,,,,,,,,,,,,,,,,,,,,,,,,,,0,0,0,0,0
4.3031,1783191031.4328,1,1,2.0000,0.0000,1.44682,0.22684,-2.77924,0.98137,1.57079,0.00001,-0.14513,-0.37992,0.04478,,,,,,,,,,,,,,,,,,,,,,,,,,0,0,0,0,0
4.3145,1783191031.4443,1,1,2.0000,0.0000,1.44682,0.22681,-2.77925,0.98141,1.57079,0.00001,-0.14513,-0.37992,0.04477,,,,,,,,,,,,,,,,,,,,,,,,,,0,0,0,0,0
4.3148,1783191031.4445,1,1,2.0000,0.0000,1.44682,0.22681,-2.77925,0.98141,1.57079,0.00001,-0.14513,-0.37992,0.04477,,,,,,,,,,,,,,,,,,,,,,,,,,0,0,0,0,0
4.3151,1783191031.4448,1,1,2.0000,0.0000,1.44682,0.22681,-2.77925,0.98141,1.57079,0.00001,-0.14513,-0.37992,0.04477,,,,,,,,,,,,,,,,,,,,,,,,,,0,0,0,0,0
4.3466,1783191031.4764,1,1,2.0000,0.0000,1.44682,0.22675,-2.77927,0.98149,1.57079,0.00001,-0.14513,-0.37992,0.04475,,,,,,,,,,,,,,,,,,,,,,,,,,0,0,0,0,0
4.3469,1783191031.4767,1,1,2.0000,0.0000,1.44682,0.22675,-2.77927,0.98149,1.57079,0.00001,-0.14513,-0.37992,0.04475,,,,,,,,,,,,,,,,,,,,,,,,,,0,0,0,0,0
4.3472,1783191031.4770,1,1,2.0000,0.0000,1.44682,0.22675,-2.77927,0.98149,1.57079,0.00001,-0.14513,-0.37992,0.04475,,,,,,,,,,,,,,,,,,,,,,,,,,0,0,0,0,0
4.3494,1783191031.4791,1,1,2.0000,0.0000,1.44682,0.22675,-2.77927,0.98149,1.57079,0.00001,-0.14513,-0.37992,0.04475,,,,,,,,,,,,,,,,,,,,,,,,,,0,0,0,0,0
4.3500,1783191031.4798,1,1,2.0000,0.0000,1.44682,0.22675,-2.77927,0.98149,1.57079,0.00001,-0.14513,-0.37992,0.04475,,,,,,,,,,,,,,,,,,,,,,,,,,0,0,0,0,0
4.3608,1783191031.4905,1,1,2.0000,0.0000,1.44682,0.22674,-2.77927,0.98150,1.57079,0.00001,-0.14513,-0.37992,0.04475,,,,,,,,,,,,,,,,,,,,,,,,,,0,0,0,0,0
4.3725,1783191031.5023,1,1,2.0000,0.0000,1.44682,0.22671,-2.77928,0.98154,1.57079,0.00001,-0.14513,-0.37992,0.04474,,,,,,,,,,,,,,,,,,,,,,,,,,0,0,0,0,0
4.3833,1783191031.5131,1,1,2.0000,0.0000,1.44682,0.22668,-2.77928,0.98157,1.57079,0.00001,-0.14513,-0.37992,0.04474,,,,,,,,,,,,,,,,,,,,,,,,,,0,0,0,0,0
4.3935,1783191031.5233,1,1,2.0000,0.0000,1.44682,0.22668,-2.77929,0.98158,1.57079,0.00001,-0.14513,-0.37992,0.04473,,,,,,,,,,,,,,,,,,,,,,,,,,0,0,0,0,0
4.3988,1783191031.5286,1,1,2.0000,0.0000,1.44682,0.22666,-2.77929,0.98160,1.57079,0.00001,-0.14513,-0.37992,0.04473,,,,,,,,,,,,,,,,,,,,,,,,,,0,0,0,0,0
4.4088,1783191031.5385,1,1,2.0000,0.0000,1.44682,0.22664,-2.77930,0.98163,1.57079,0.00001,-0.14513,-0.37992,0.04472,,,,,,,,,,,,,,,,,,,,,,,,,,0,0,0,0,0
4.4197,1783191031.5495,1,1,2.0000,0.0000,1.44682,0.22663,-2.77930,0.98164,1.57079,0.00001,-0.14513,-0.37992,0.04472,,,,,,,,,,,,,,,,,,,,,,,,,,0,0,0,0,0
4.4300,1783191031.5598,1,1,2.0000,0.0000,1.44682,0.22659,-2.77931,0.98169,1.57079,0.00001,-0.14513,-0.37992,0.04471,,,,,,,,,,,,,,,,,,,,,,,,,,0,0,0,0,0
4.4304,1783191031.5602,1,1,2.0000,0.0000,1.44682,0.22659,-2.77931,0.98169,1.57079,0.00001,-0.14513,-0.37992,0.04471,,,,,,,,,,,,,,,,,,,,,,,,,,0,0,0,0,0
4.4386,1783191031.5683,1,1,2.0000,0.0000,1.44682,0.22657,-2.77931,0.98171,1.57079,0.00001,-0.14513,-0.37992,0.04471,,,,,,,,,,,,,,,,,,,,,,,,,,0,0,0,0,0
4.4390,1783191031.5687,1,1,2.0000,0.0000,1.44682,0.22657,-2.77931,0.98171,1.57079,0.00001,-0.14513,-0.37992,0.04471,,,,,,,,,,,,,,,,,,,,,,,,,,0,0,0,0,0
4.4545,1783191031.5843,1,1,2.0000,0.0000,1.44682,0.22655,-2.77932,0.98173,1.57079,0.00001,-0.14513,-0.37992,0.04470,,,,,,,,,,,,,,,,,,,,,,,,,,0,0,0,0,0
4.4549,1783191031.5847,1,1,2.0000,0.0000,1.44682,0.22655,-2.77932,0.98173,1.57079,0.00001,-0.14513,-0.37992,0.04470,,,,,,,,,,,,,,,,,,,,,,,,,,0,0,0,0,0
4.4590,1783191031.5888,1,1,2.0000,0.0000,1.44682,0.22654,-2.77932,0.98175,1.57079,0.00001,-0.14513,-0.37992,0.04470,,,,,,,,,,,,,,,,,,,,,,,,,,0,0,0,0,0
4.4700,1783191031.5998,1,1,2.0000,0.0000,1.44682,0.22652,-2.77933,0.98177,1.57079,0.00001,-0.14513,-0.37992,0.04469,,,,,,,,,,,,,,,,,,,,,,,,,,0,0,0,0,0
4.4703,1783191031.6000,1,1,2.0000,0.0000,1.44682,0.22652,-2.77933,0.98177,1.57079,0.00001,-0.14513,-0.37992,0.04469,,,,,,,,,,,,,,,,,,,,,,,,,,0,0,0,0,0
4.4820,1783191031.6118,1,1,2.0000,0.0000,1.44682,0.22650,-2.77933,0.98180,1.57079,0.00001,-0.14513,-0.37992,0.04469,,,,,,,,,,,,,,,,,,,,,,,,,,0,0,0,0,0
4.4892,1783191031.6189,1,1,2.0000,0.0000,1.44682,0.22649,-2.77933,0.98181,1.57079,0.00001,-0.14513,-0.37992,0.04469,,,,,,,,,,,,,,,,,,,,,,,,,,0,0,0,0,0
4.4895,1783191031.6193,1,1,2.0000,0.0000,1.44682,0.22649,-2.77933,0.98181,1.57079,0.00001,-0.14513,-0.37992,0.04469,,,,,,,,,,,,,,,,,,,,,,,,,,0,0,0,0,0
4.4988,1783191031.6286,1,1,2.0000,0.0000,1.44682,0.22645,-2.77934,0.98186,1.57079,0.00001,-0.14513,-0.37992,0.04468,,,,,,,,,,,,,,,,,,,,,,,,,,0,0,0,0,0
4.5135,1783191031.6433,1,1,2.0000,0.0000,1.44682,0.22645,-2.77934,0.98187,1.57079,0.00001,-0.14513,-0.37992,0.04467,,,,,,,,,,,,,,,,,,,,,,,,,,0,0,0,0,0
4.5190,1783191031.6487,1,1,2.0000,0.0000,1.44682,0.22643,-2.77935,0.98189,1.57079,0.00001,-0.14513,-0.37992,0.04467,,,,,,,,,,,,,,,,,,,,,,,,,,0,0,0,0,0
4.5325,1783191031.6622,1,1,2.0000,0.0000,1.44682,0.22640,-2.77935,0.98192,1.57079,0.00001,-0.14513,-0.37992,0.04466,,,,,,,,,,,,,,,,,,,,,,,,,,0,0,0,0,0
4.5401,1783191031.6699,1,1,2.0000,0.0000,1.44682,0.22640,-2.77936,0.98193,1.57079,0.00001,-0.14513,-0.37992,0.04466,,,,,,,,,,,,,,,,,,,,,,,,,,0,0,0,0,0
4.5528,1783191031.6825,1,1,2.0000,0.0000,1.44682,0.22636,-2.77937,0.98197,1.57079,0.00001,-0.14513,-0.37992,0.04465,,,,,,,,,,,,,,,,,,,,,,,,,,0,0,0,0,0
4.5600,1783191031.6898,1,1,2.0000,0.0000,1.44682,0.22634,-2.77937,0.98200,1.57079,0.00001,-0.14513,-0.37992,0.04465,,,,,,,,,,,,,,,,,,,,,,,,,,0,0,0,0,0
4.5707,1783191031.7005,1,1,2.0000,0.0000,1.44682,0.22633,-2.77937,0.98201,1.57079,0.00001,-0.14513,-0.37992,0.04464,,,,,,,,,,,,,,,,,,,,,,,,,,0,0,0,0,0
4.5820,1783191031.7117,1,1,2.0000,0.0000,1.44682,0.22630,-2.77938,0.98205,1.57079,0.00001,-0.14513,-0.37992,0.04464,,,,,,,,,,,,,,,,,,,,,,,,,,0,0,0,0,0
4.5902,1783191031.7200,1,1,2.0000,0.0000,1.44682,0.22629,-2.77938,0.98206,1.57079,0.00001,-0.14513,-0.37992,0.04463,,,,,,,,,,,,,,,,,,,,,,,,,,0,0,0,0,0
4.5907,1783191031.7205,1,1,2.0000,0.0000,1.44682,0.22629,-2.77938,0.98206,1.57079,0.00001,-0.14513,-0.37992,0.04463,,,,,,,,,,,,,,,,,,,,,,,,,,0,0,0,0,0
4.5986,1783191031.7284,1,1,2.0000,0.0000,1.44682,0.22628,-2.77939,0.98208,1.57079,0.00001,-0.14513,-0.37992,0.04463,,,,,,,,,,,,,,,,,,,,,,,,,,0,0,0,0,0
4.5989,1783191031.7287,1,1,2.0000,0.0000,1.44682,0.22628,-2.77939,0.98208,1.57079,0.00001,-0.14513,-0.37992,0.04463,,,,,,,,,,,,,,,,,,,,,,,,,,0,0,0,0,0
4.6101,1783191031.7399,1,1,2.0000,0.0000,1.44682,0.22625,-2.77940,0.98212,1.57079,0.00001,-0.14513,-0.37992,0.04462,,,,,,,,,,,,,,,,,,,,,,,,,,0,0,0,0,0
4.6105,1783191031.7403,1,1,2.0000,0.0000,1.44682,0.22625,-2.77940,0.98212,1.57079,0.00001,-0.14513,-0.37992,0.04462,,,,,,,,,,,,,,,,,,,,,,,,,,0,0,0,0,0
4.6210,1783191031.7507,1,1,2.0000,0.0000,1.44682,0.22622,-2.77940,0.98215,1.57079,0.00001,-0.14513,-0.37992,0.04462,,,,,,,,,,,,,,,,,,,,,,,,,,0,0,0,0,0
4.6422,1783191031.7720,1,1,2.0000,0.0000,1.44682,0.22618,-2.77941,0.98219,1.57079,0.00001,-0.14513,-0.37992,0.04461,,,,,,,,,,,,,,,,,,,,,,,,,,0,0,0,0,0
4.6541,1783191031.7839,1,1,2.0000,0.0000,1.44682,0.22617,-2.77941,0.98221,1.57079,0.00001,-0.14513,-0.37992,0.04460,,,,,,,,,,,,,,,,,,,,,,,,,,0,0,0,0,0
4.6633,1783191031.7931,1,1,2.0000,0.0000,1.44682,0.22615,-2.77942,0.98223,1.57079,0.00001,-0.14513,-0.37992,0.04460,,,,,,,,,,,,,,,,,,,,,,,,,,0,0,0,0,0
4.6712,1783191031.8009,1,1,2.0000,0.0000,1.44682,0.22613,-2.77942,0.98226,1.57079,0.00001,-0.14513,-0.37992,0.04459,,,,,,,,,,,,,,,,,,,,,,,,,,0,0,0,0,0
4.6799,1783191031.8097,1,1,2.0000,0.0000,1.44682,0.22611,-2.77943,0.98229,1.57079,0.00001,-0.14513,-0.37992,0.04459,,,,,,,,,,,,,,,,,,,,,,,,,,0,0,0,0,0
4.6902,1783191031.8200,1,1,2.0000,0.0000,1.44682,0.22610,-2.77943,0.98230,1.57079,0.00001,-0.14513,-0.37992,0.04458,,,,,,,,,,,,,,,,,,,,,,,,,,0,0,0,0,0
4.7028,1783191031.8326,1,1,2.0000,0.0000,1.44682,0.22607,-2.77944,0.98234,1.57079,0.00001,-0.14513,-0.37992,0.04458,,,,,,,,,,,,,,,,,,,,,,,,,,0,0,0,0,0
4.7031,1783191031.8329,1,1,2.0000,0.0000,1.44682,0.22607,-2.77944,0.98234,1.57079,0.00001,-0.14513,-0.37992,0.04458,,,,,,,,,,,,,,,,,,,,,,,,,,0,0,0,0,0
4.7101,1783191031.8399,1,1,2.0000,0.0000,1.44682,0.22606,-2.77944,0.98235,1.57079,0.00001,-0.14513,-0.37992,0.04457,,,,,,,,,,,,,,,,,,,,,,,,,,0,0,0,0,0
4.7222,1783191031.8520,1,1,2.0000,0.0000,1.44682,0.22604,-2.77945,0.98238,1.57079,0.00001,-0.14513,-0.37992,0.04457,,,,,,,,,,,,,,,,,,,,,,,,,,0,0,0,0,0
4.7226,1783191031.8524,1,1,2.0000,0.0000,1.44682,0.22604,-2.77945,0.98238,1.57079,0.00001,-0.14513,-0.37992,0.04457,,,,,,,,,,,,,,,,,,,,,,,,,,0,0,0,0,0
4.7381,1783191031.8679,1,1,2.0000,0.0000,1.44682,0.22599,-2.77946,0.98244,1.57079,0.00001,-0.14513,-0.37992,0.04456,,,,,,,,,,,,,,,,,,,,,,,,,,0,0,0,0,0
4.7384,1783191031.8682,1,1,2.0000,0.0000,1.44682,0.22599,-2.77946,0.98244,1.57079,0.00001,-0.14513,-0.37992,0.04456,,,,,,,,,,,,,,,,,,,,,,,,,,0,0,0,0,0
4.7421,1783191031.8718,1,1,2.0000,0.0000,1.44682,0.22599,-2.77946,0.98244,1.57079,0.00001,-0.14513,-0.37992,0.04456,,,,,,,,,,,,,,,,,,,,,,,,,,0,0,0,0,0
4.7424,1783191031.8722,1,1,2.0000,0.0000,1.44682,0.22599,-2.77946,0.98244,1.57079,0.00001,-0.14513,-0.37992,0.04456,,,,,,,,,,,,,,,,,,,,,,,,,,0,0,0,0,0
4.7495,1783191031.8793,1,1,2.0000,0.0000,1.44682,0.22599,-2.77946,0.98244,1.57079,0.00001,-0.14513,-0.37992,0.04456,,,,,,,,,,,,,,,,,,,,,,,,,,0,0,0,0,0
4.7591,1783191031.8889,1,1,2.0000,0.0000,1.44682,0.22597,-2.77947,0.98247,1.57079,0.00001,-0.14513,-0.37992,0.04455,,,,,,,,,,,,,,,,,,,,,,,,,,0,0,0,0,0
4.7595,1783191031.8893,1,1,2.0000,0.0000,1.44682,0.22597,-2.77947,0.98247,1.57079,0.00001,-0.14513,-0.37992,0.04455,,,,,,,,,,,,,,,,,,,,,,,,,,0,0,0,0,0
4.7729,1783191031.9027,1,1,2.0000,0.0000,1.44682,0.22594,-2.77947,0.98250,1.57079,0.00001,-0.14513,-0.37992,0.04454,,,,,,,,,,,,,,,,,,,,,,,,,,0,0,0,0,0
4.7942,1783191031.9239,1,1,2.0000,0.0000,1.44682,0.22589,-2.77949,0.98257,1.57079,0.00001,-0.14513,-0.37992,0.04453,,,,,,,,,,,,,,,,,,,,,,,,,,0,0,0,0,0
4.7945,1783191031.9242,1,1,2.0000,0.0000,1.44682,0.22589,-2.77949,0.98257,1.57079,0.00001,-0.14513,-0.37992,0.04453,,,,,,,,,,,,,,,,,,,,,,,,,,0,0,0,0,0
4.8030,1783191031.9327,1,1,2.0000,0.0000,1.44682,0.22588,-2.77949,0.98258,1.57079,0.00001,-0.14513,-0.37992,0.04453,,,,,,,,,,,,,,,,,,,,,,,,,,0,0,0,0,0
4.8098,1783191031.9396,1,1,2.0000,0.0000,1.44682,0.22587,-2.77949,0.98258,1.57079,0.00001,-0.14513,-0.37992,0.04453,,,,,,,,,,,,,,,,,,,,,,,,,,0,0,0,0,0
4.8103,1783191031.9401,1,1,2.0000,0.0000,1.44682,0.22587,-2.77949,0.98259,1.57079,0.00001,-0.14513,-0.37992,0.04453,,,,,,,,,,,,,,,,,,,,,,,,,,0,0,0,0,0
4.8135,1783191031.9433,1,1,2.0000,0.0000,1.44682,0.22587,-2.77949,0.98259,1.57079,0.00001,-0.14513,-0.37992,0.04453,,,,,,,,,,,,,,,,,,,,,,,,,,0,0,0,0,0
4.8143,1783191031.9441,1,1,2.0000,0.0000,1.44682,0.22586,-2.77949,0.98260,1.57079,0.00001,-0.14513,-0.37992,0.04452,,,,,,,,,,,,,,,,,,,,,,,,,,0,0,0,0,0
4.8222,1783191031.9520,1,1,2.0000,0.0000,1.44682,0.22584,-2.77950,0.98263,1.57079,0.00001,-0.14513,-0.37992,0.04452,,,,,,,,,,,,,,,,,,,,,,,,,,0,0,0,0,0
4.8225,1783191031.9522,1,1,2.0000,0.0000,1.44682,0.22584,-2.77950,0.98263,1.57079,0.00001,-0.14513,-0.37992,0.04452,,,,,,,,,,,,,,,,,,,,,,,,,,0,0,0,0,0
4.8289,1783191031.9587,1,1,2.0000,0.0000,1.44682,0.22583,-2.77950,0.98264,1.57079,0.00001,-0.14513,-0.37992,0.04451,,,,,,,,,,,,,,,,,,,,,,,,,,0,0,0,0,0
4.8465,1783191031.9762,1,1,2.0000,0.0000,1.44682,0.22580,-2.77951,0.98267,1.57079,0.00001,-0.14513,-0.37992,0.04451,,,,,,,,,,,,,,,,,,,,,,,,,,0,0,0,0,0
4.8553,1783191031.9851,1,1,2.0000,0.0000,1.44682,0.22578,-2.77951,0.98270,1.57079,0.00001,-0.14513,-0.37992,0.04450,,,,,,,,,,,,,,,,,,,,,,,,,,0,0,0,0,0
4.8556,1783191031.9853,1,1,2.0000,0.0000,1.44682,0.22578,-2.77951,0.98270,1.57079,0.00001,-0.14513,-0.37992,0.04450,,,,,,,,,,,,,,,,,,,,,,,,,,0,0,0,0,0
4.8635,1783191031.9933,1,1,2.0000,0.0000,1.44682,0.22577,-2.77952,0.98271,1.57079,0.00001,-0.14513,-0.37992,0.04450,,,,,,,,,,,,,,,,,,,,,,,,,,0,0,0,0,0
4.8694,1783191031.9992,1,1,2.0000,0.0000,1.44682,0.22577,-2.77952,0.98272,1.57079,0.00001,-0.14513,-0.37992,0.04450,,,,,,,,,,,,,,,,,,,,,,,,,,0,0,0,0,0
4.8701,1783191031.9999,1,1,2.0000,0.0000,1.44682,0.22576,-2.77952,0.98273,1.57079,0.00001,-0.14513,-0.37992,0.04450,,,,,,,,,,,,,,,,,,,,,,,,,,0,0,0,0,0
4.8799,1783191032.0096,1,1,2.0000,0.0000,1.44682,0.22574,-2.77952,0.98275,1.57079,0.00001,-0.14513,-0.37992,0.04449,,,,,,,,,,,,,,,,,,,,,,,,,,0,0,0,0,0
4.8950,1783191032.0248,1,1,2.0000,0.0000,1.44682,0.22570,-2.77953,0.98280,1.57079,0.00001,-0.14513,-0.37992,0.04448,,,,,,,,,,,,,,,,,,,,,,,,,,0,0,0,0,0
4.8953,1783191032.0250,1,1,2.0000,0.0000,1.44682,0.22570,-2.77953,0.98280,1.57079,0.00001,-0.14513,-0.37992,0.04448,,,,,,,,,,,,,,,,,,,,,,,,,,0,0,0,0,0
4.9023,1783191032.0320,1,1,2.0000,0.0000,1.44682,0.22569,-2.77953,0.98281,1.57079,0.00001,-0.14513,-0.37992,0.04448,,,,,,,,,,,,,,,,,,,,,,,,,,0,0,0,0,0
4.9025,1783191032.0323,1,1,2.0000,0.0000,1.44682,0.22569,-2.77953,0.98281,1.57079,0.00001,-0.14513,-0.37992,0.04448,,,,,,,,,,,,,,,,,,,,,,,,,,0,0,0,0,0
4.9089,1783191032.0387,1,1,2.0000,0.0000,1.44682,0.22569,-2.77954,0.98282,1.57079,0.00001,-0.14513,-0.37992,0.04448,,,,,,,,,,,,,,,,,,,,,,,,,,0,0,0,0,0
4.9203,1783191032.0501,1,1,2.0000,0.0000,1.44682,0.22565,-2.77954,0.98286,1.57079,0.00001,-0.14513,-0.37992,0.04447,,,,,,,,,,,,,,,,,,,,,,,,,,0,0,0,0,0
4.9295,1783191032.0592,1,1,2.0000,0.0000,1.44682,0.22565,-2.77955,0.98286,1.57079,0.00001,-0.14513,-0.37992,0.04447,,,,,,,,,,,,,,,,,,,,,,,,,,0,0,0,0,0
4.9547,1783191032.0845,1,1,2.0000,0.0000,1.44682,0.22559,-2.77956,0.98294,1.57079,0.00001,-0.14513,-0.37992,0.04445,,,,,,,,,,,,,,,,,,,,,,,,,,0,0,0,0,0
4.9608,1783191032.0906,1,1,2.0000,0.0000,1.44682,0.22559,-2.77956,0.98295,1.57079,0.00001,-0.14513,-0.37992,0.04445,,,,,,,,,,,,,,,,,,,,,,,,,,0,0,0,0,0
4.9690,1783191032.0988,1,1,2.0000,0.0000,1.44682,0.22557,-2.77957,0.98296,1.57079,0.00001,-0.14513,-0.37992,0.04445,,,,,,,,,,,,,,,,,,,,,,,,,,0,0,0,0,0
4.9789,1783191032.1086,1,1,2.0000,0.0000,1.44682,0.22554,-2.77957,0.98300,1.57079,0.00001,-0.14513,-0.37992,0.04444,,,,,,,,,,,,,,,,,,,,,,,,,,0,0,0,0,0
4.9917,1783191032.1215,1,1,2.0000,0.0000,1.44682,0.22553,-2.77958,0.98302,1.57079,0.00001,-0.14513,-0.37992,0.04444,,,,,,,,,,,,,,,,,,,,,,,,,,0,0,0,0,0
5.0011,1783191032.1309,1,1,2.0000,0.0000,1.44682,0.22551,-2.77958,0.98304,1.57079,0.00001,-0.14513,-0.37992,0.04443,,,,,,,,,,,,,,,,,,,,,,,,,,0,0,0,0,0
5.0101,1783191032.1398,1,1,2.0000,0.0000,1.44682,0.22547,-2.77959,0.98309,1.57079,0.00001,-0.14513,-0.37992,0.04442,,,,,,,,,,,,,,,,,,,,,,,,,,0,0,0,0,0
5.0188,1783191032.1486,1,1,2.0000,0.0000,1.44682,0.22547,-2.77959,0.98309,1.57079,0.00001,-0.14513,-0.37992,0.04442,,,,,,,,,,,,,,,,,,,,,,,,,,0,0,0,0,0
5.0295,1783191032.1593,1,1,2.0000,0.0000,1.44682,0.22546,-2.77959,0.98311,1.57079,0.00001,-0.14513,-0.37992,0.04442,,,,,,,,,,,,,,,,,,,,,,,,,,0,0,0,0,0
5.0462,1783191032.1759,1,1,2.0000,0.0000,1.44682,0.22542,-2.77960,0.98315,1.57079,0.00001,-0.14513,-0.37992,0.04441,,,,,,,,,,,,,,,,,,,,,,,,,,0,0,0,0,0
5.0502,1783191032.1800,1,1,2.0000,0.0000,1.44682,0.22541,-2.77961,0.98316,1.57079,0.00001,-0.14513,-0.37992,0.04441,,,,,,,,,,,,,,,,,,,,,,,,,,0,0,0,0,0
5.0629,1783191032.1927,1,1,2.0000,0.0000,1.44682,0.22538,-2.77961,0.98320,1.57079,0.00001,-0.14513,-0.37992,0.04440,,,,,,,,,,,,,,,,,,,,,,,,,,0,0,0,0,0
5.0689,1783191032.1987,1,1,2.0000,0.0000,1.44682,0.22537,-2.77962,0.98322,1.57079,0.00001,-0.14513,-0.37992,0.04440,,,,,,,,,,,,,,,,,,,,,,,,,,0,0,0,0,0
5.0799,1783191032.2097,1,1,2.0000,0.0000,1.44682,0.22535,-2.77962,0.98324,1.57079,0.00001,-0.14513,-0.37992,0.04439,,,,,,,,,,,,,,,,,,,,,,,,,,0,0,0,0,0
5.0960,1783191032.2258,1,1,2.0000,0.0000,1.44682,0.22532,-2.77963,0.98328,1.57079,0.00001,-0.14513,-0.37992,0.04438,,,,,,,,,,,,,,,,,,,,,,,,,,0,0,0,0,0
5.0964,1783191032.2262,1,1,2.0000,0.0000,1.44682,0.22532,-2.77963,0.98328,1.57079,0.00001,-0.14513,-0.37992,0.04438,,,,,,,,,,,,,,,,,,,,,,,,,,0,0,0,0,0
5.0994,1783191032.2292,1,1,2.0000,0.0000,1.44682,0.22531,-2.77963,0.98329,1.57079,0.00001,-0.14513,-0.37992,0.04438,,,,,,,,,,,,,,,,,,,,,,,,,,0,0,0,0,0
5.0997,1783191032.2295,1,1,2.0000,0.0000,1.44682,0.22531,-2.77963,0.98329,1.57079,0.00001,-0.14513,-0.37992,0.04438,,,,,,,,,,,,,,,,,,,,,,,,,,0,0,0,0,0
5.1102,1783191032.2400,1,1,2.0000,0.0000,1.44682,0.22530,-2.77963,0.98330,1.57079,0.00001,-0.14513,-0.37992,0.04438,,,,,,,,,,,,,,,,,,,,,,,,,,0,0,0,0,0
5.1204,1783191032.2502,1,1,2.0000,0.0000,1.44682,0.22528,-2.77964,0.98333,1.57079,0.00001,-0.14513,-0.37992,0.04437,,,,,,,,,,,,,,,,,,,,,,,,,,0,0,0,0,0
5.1290,1783191032.2588,1,1,2.0000,0.0000,1.44682,0.22525,-2.77965,0.98336,1.57079,0.00001,-0.14513,-0.37992,0.04437,,,,,,,,,,,,,,,,,,,,,,,,,,0,0,0,0,0
5.1408,1783191032.2706,1,1,2.0000,0.0000,1.44682,0.22524,-2.77965,0.98338,1.57079,0.00001,-0.14513,-0.37992,0.04436,,,,,,,,,,,,,,,,,,,,,,,,,,0,0,0,0,0
5.1506,1783191032.2804,1,1,2.0000,0.0000,1.44682,0.22521,-2.77966,0.98341,1.57079,0.00001,-0.14513,-0.37992,0.04436,,,,,,,,,,,,,,,,,,,,,,,,,,0,0,0,0,0
5.1510,1783191032.2807,1,1,2.0000,0.0000,1.44682,0.22521,-2.77966,0.98341,1.57079,0.00001,-0.14513,-0.37992,0.04436,,,,,,,,,,,,,,,,,,,,,,,,,,0,0,0,0,0
5.1588,1783191032.2886,1,1,2.0000,0.0000,1.44682,0.22519,-2.77966,0.98344,1.57079,0.00001,-0.14513,-0.37992,0.04435,,,,,,,,,,,,,,,,,,,,,,,,,,0,0,0,0,0
5.1591,1783191032.2888,1,1,2.0000,0.0000,1.44682,0.22519,-2.77966,0.98344,1.57079,0.00001,-0.14513,-0.37992,0.04435,,,,,,,,,,,,,,,,,,,,,,,,,,0,0,0,0,0
5.1691,1783191032.2988,1,1,2.0000,0.0000,1.44682,0.22519,-2.77966,0.98344,1.57079,0.00001,-0.14513,-0.37992,0.04435,,,,,,,,,,,,,,,,,,,,,,,,,,0,0,0,0,0
5.1790,1783191032.3088,1,1,2.0000,0.0000,1.44682,0.22516,-2.77967,0.98348,1.57079,0.00001,-0.14513,-0.37992,0.04434,,,,,,,,,,,,,,,,,,,,,,,,,,0,0,0,0,0
5.1912,1783191032.3209,1,1,2.0000,0.0000,1.44682,0.22513,-2.77968,0.98352,1.57079,0.00001,-0.14513,-0.37992,0.04433,,,,,,,,,,,,,,,,,,,,,,,,,,0,0,0,0,0
5.1914,1783191032.3212,1,1,2.0000,0.0000,1.44682,0.22513,-2.77968,0.98352,1.57079,0.00001,-0.14513,-0.37992,0.04433,,,,,,,,,,,,,,,,,,,,,,,,,,0,0,0,0,0
5.2008,1783191032.3305,1,1,2.0000,0.0000,1.44682,0.22512,-2.77968,0.98352,1.57079,0.00001,-0.14513,-0.37992,0.04433,,,,,,,,,,,,,,,,,,,,,,,,,,0,0,0,0,0
5.2125,1783191032.3423,1,1,2.0000,0.0000,1.44682,0.22510,-2.77969,0.98355,1.57079,0.00001,-0.14513,-0.37992,0.04433,,,,,,,,,,,,,,,,,,,,,,,,,,0,0,0,0,0
5.2208,1783191032.3506,1,1,2.0000,0.0000,1.44682,0.22508,-2.77969,0.98358,1.57079,0.00001,-0.14513,-0.37992,0.04432,,,,,,,,,,,,,,,,,,,,,,,,,,0,0,0,0,0
5.2301,1783191032.3598,1,1,2.0000,0.0000,1.44682,0.22507,-2.77969,0.98359,1.57079,0.00001,-0.14513,-0.37992,0.04432,,,,,,,,,,,,,,,,,,,,,,,,,,0,0,0,0,0
5.2431,1783191032.3729,1,1,2.0000,0.0000,1.44682,0.22503,-2.77970,0.98364,1.57079,0.00001,-0.14513,-0.37992,0.04431,,,,,,,,,,,,,,,,,,,,,,,,,,0,0,0,0,0
5.2491,1783191032.3789,1,1,2.0000,0.0000,1.44682,0.22502,-2.77970,0.98365,1.57079,0.00001,-0.14513,-0.37992,0.04431,,,,,,,,,,,,,,,,,,,,,,,,,,0,0,0,0,0
5.2604,1783191032.3902,1,1,2.0000,0.0000,1.44682,0.22501,-2.77971,0.98367,1.57079,0.00001,-0.14513,-0.37992,0.04430,,,,,,,,,,,,,,,,,,,,,,,,,,0,0,0,0,0
5.2689,1783191032.3987,1,1,2.0000,0.0000,1.44682,0.22499,-2.77971,0.98369,1.57079,0.00001,-0.14513,-0.37992,0.04430,,,,,,,,,,,,,,,,,,,,,,,,,,0,0,0,0,0
5.2799,1783191032.4097,1,1,2.0000,0.0000,1.44682,0.22496,-2.77972,0.98373,1.57079,0.00001,-0.14513,-0.37992,0.04429,,,,,,,,,,,,,,,,,,,,,,,,,,0,0,0,0,0
5.3061,1783191032.4358,1,1,2.0000,0.0000,1.44682,0.22490,-2.77973,0.98380,1.57079,0.00001,-0.14513,-0.37992,0.04428,,,,,,,,,,,,,,,,,,,,,,,,,,0,0,0,0,0
5.3081,1783191032.4378,1,1,2.0000,0.0000,1.44682,0.22490,-2.77973,0.98380,1.57079,0.00001,-0.14513,-0.37992,0.04428,,,,,,,,,,,,,,,,,,,,,,,,,,0,0,0,0,0
5.3084,1783191032.4382,1,1,2.0000,0.0000,1.44682,0.22490,-2.77973,0.98380,1.57079,0.00001,-0.14513,-0.37992,0.04428,,,,,,,,,,,,,,,,,,,,,,,,,,0,0,0,0,0
5.3225,1783191032.4523,1,1,2.0000,0.0000,1.44682,0.22489,-2.77974,0.98382,1.57079,0.00001,-0.14513,-0.37992,0.04427,,,,,,,,,,,,,,,,,,,,,,,,,,0,0,0,0,0
5.3229,1783191032.4527,1,1,2.0000,0.0000,1.44682,0.22489,-2.77974,0.98382,1.57079,0.00001,-0.14513,-0.37992,0.04427,,,,,,,,,,,,,,,,,,,,,,,,,,0,0,0,0,0
5.3233,1783191032.4530,1,1,2.0000,0.0000,1.44682,0.22489,-2.77974,0.98382,1.57079,0.00001,-0.14513,-0.37992,0.04427,,,,,,,,,,,,,,,,,,,,,,,,,,0,0,0,0,0
5.3235,1783191032.4532,1,1,2.0000,0.0000,1.44682,0.22489,-2.77974,0.98382,1.57079,0.00001,-0.14513,-0.37992,0.04427,,,,,,,,,,,,,,,,,,,,,,,,,,0,0,0,0,0
5.3337,1783191032.4634,1,1,2.0000,0.0000,1.44682,0.22487,-2.77974,0.98384,1.57079,0.00001,-0.14513,-0.37992,0.04427,,,,,,,,,,,,,,,,,,,,,,,,,,0,0,0,0,0
5.3422,1783191032.4720,1,1,2.0000,0.0000,1.44682,0.22485,-2.77975,0.98387,1.57079,0.00001,-0.14513,-0.37992,0.04426,,,,,,,,,,,,,,,,,,,,,,,,,,0,0,0,0,0
5.3602,1783191032.4900,1,1,2.0000,0.0000,1.44682,0.22481,-2.77976,0.98391,1.57079,0.00001,-0.14513,-0.37992,0.04425,,,,,,,,,,,,,,,,,,,,,,,,,,0,0,0,0,0
5.3635,1783191032.4933,1,1,2.0000,0.0000,1.44682,0.22480,-2.77976,0.98393,1.57079,0.00001,-0.14513,-0.37992,0.04425,,,,,,,,,,,,,,,,,,,,,,,,,,0,0,0,0,0
5.3754,1783191032.5052,1,1,2.0000,0.0000,1.44682,0.22478,-2.77977,0.98396,1.57079,0.00001,-0.14513,-0.37992,0.04424,,,,,,,,,,,,,,,,,,,,,,,,,,0,0,0,0,0
5.3821,1783191032.5119,1,1,2.0000,0.0000,1.44682,0.22477,-2.77977,0.98397,1.57079,0.00001,-0.14513,-0.37992,0.04424,,,,,,,,,,,,,,,,,,,,,,,,,,0,0,0,0,0
5.3918,1783191032.5216,1,1,2.0000,0.0000,1.44682,0.22475,-2.77977,0.98399,1.57079,0.00001,-0.14513,-0.37992,0.04424,,,,,,,,,,,,,,,,,,,,,,,,,,0,0,0,0,0
5.4034,1783191032.5331,1,1,2.0000,0.0000,1.44682,0.22473,-2.77978,0.98402,1.57079,0.00001,-0.14513,-0.37992,0.04423,,,,,,,,,,,,,,,,,,,,,,,,,,0,0,0,0,0
5.4145,1783191032.5443,1,1,2.0000,0.0000,1.44682,0.22471,-2.77978,0.98404,1.57079,0.00001,-0.14513,-0.37992,0.04423,,,,,,,,,,,,,,,,,,,,,,,,,,0,0,0,0,0
5.4148,1783191032.5446,1,1,2.0000,0.0000,1.44682,0.22471,-2.77978,0.98404,1.57079,0.00001,-0.14513,-0.37992,0.04423,,,,,,,,,,,,,,,,,,,,,,,,,,0,0,0,0,0
5.4225,1783191032.5522,1,1,2.0000,0.0000,1.44682,0.22469,-2.77979,0.98407,1.57079,0.00001,-0.14513,-0.37992,0.04422,,,,,,,,,,,,,,,,,,,,,,,,,,0,0,0,0,0
5.4229,1783191032.5527,1,1,2.0000,0.0000,1.44682,0.22469,-2.77979,0.98407,1.57079,0.00001,-0.14513,-0.37992,0.04422,,,,,,,,,,,,,,,,,,,,,,,,,,0,0,0,0,0
5.4320,1783191032.5618,1,1,2.0000,0.0000,1.44682,0.22466,-2.77979,0.98410,1.57079,0.00001,-0.14513,-0.37992,0.04421,,,,,,,,,,,,,,,,,,,,,,,,,,0,0,0,0,0
