Martins-Lucaas/twinforge/sensors/Data/20260704_152156__samples.csv
t_rel_s,t_unix,cycle,phase,setpoint_n,force_net_n,q1,q2,q3,q4,q5,q6,tcp_x,tcp_y,tcp_z,taxel_0,taxel_1,taxel_2,taxel_3,taxel_4,taxel_5,taxel_6,taxel_7,taxel_8,taxel_9,taxel_10,taxel_11,taxel_12,taxel_13,taxel_14,taxel_15,taxel_16,taxel_17,taxel_18,taxel_19,taxel_20,taxel_21,taxel_22,taxel_23,taxel_24,n_RA,n_SA,cn_mm,cn_ra,cn_sa
0.0043,1783189316.3186,1,0,1.0000,0.0000,1.44682,0.23328,-2.77760,0.97329,1.57079,0.00000,-0.14514,-0.37992,0.04645,,,,,,,,,,,,,,,,,,,,,,,,,,0,0,0,0,0
0.0252,1783189316.3396,1,0,1.0000,0.0000,1.44682,0.23328,-2.77760,0.97329,1.57079,0.00000,-0.14514,-0.37992,0.04645,,,,,,,,,,,,,,,,,,,,,,,,,,0,0,0,0,0
0.0255,1783189316.3399,1,0,1.0000,0.0000,1.44682,0.23328,-2.77760,0.97329,1.57079,0.00000,-0.14514,-0.37992,0.04645,,,,,,,,,,,,,,,,,,,,,,,,,,0,0,0,0,0
0.0451,1783189316.3594,1,0,1.0000,0.0000,1.44682,0.23328,-2.77760,0.97329,1.57079,0.00000,-0.14514,-0.37992,0.04645,,,,,,,,,,,,,,,,,,,,,,,,,,0,0,0,0,0
0.0454,1783189316.3598,1,0,1.0000,0.0000,1.44682,0.23328,-2.77760,0.97329,1.57079,0.00000,-0.14514,-0.37992,0.04645,,,,,,,,,,,,,,,,,,,,,,,,,,0,0,0,0,0
0.0582,1783189316.3725,1,0,1.0000,0.0000,1.44682,0.23328,-2.77760,0.97329,1.57079,0.00000,-0.14514,-0.37992,0.04645,,,,,,,,,,,,,,,,,,,,,,,,,,0,0,0,0,0
0.0664,1783189316.3808,1,0,1.0000,0.0000,1.44682,0.23328,-2.77760,0.97329,1.57079,0.00000,-0.14514,-0.37992,0.04645,,,,,,,,,,,,,,,,,,,,,,,,,,0,0,0,0,0
0.0759,1783189316.3903,1,0,1.0000,0.0000,1.44682,0.23328,-2.77760,0.97329,1.57079,0.00000,-0.14514,-0.37992,0.04645,,,,,,,,,,,,,,,,,,,,,,,,,,0,0,0,0,0
0.0764,1783189316.3907,1,0,1.0000,0.0000,1.44682,0.23328,-2.77760,0.97329,1.57079,0.00000,-0.14514,-0.37992,0.04645,,,,,,,,,,,,,,,,,,,,,,,,,,0,0,0,0,0
0.0871,1783189316.4014,1,0,1.0000,0.0000,1.44682,0.23328,-2.77760,0.97329,1.57079,0.00000,-0.14514,-0.37992,0.04645,,,,,,,,,,,,,,,,,,,,,,,,,,0,0,0,0,0
0.0934,1783189316.4077,1,0,1.0000,0.0000,1.44682,0.23328,-2.77760,0.97329,1.57079,0.00000,-0.14514,-0.37992,0.04645,,,,,,,,,,,,,,,,,,,,,,,,,,0,0,0,0,0
0.1032,1783189316.4176,1,0,1.0000,0.0000,1.44682,0.23328,-2.77760,0.97329,1.57079,0.00000,-0.14514,-0.37992,0.04645,,,,,,,,,,,,,,,,,,,,,,,,,,0,0,0,0,0
0.1130,1783189316.4273,1,0,1.0000,0.0000,1.44682,0.23328,-2.77760,0.97329,1.57079,0.00000,-0.14514,-0.37992,0.04645,,,,,,,,,,,,,,,,,,,,,,,,,,0,0,0,0,0
0.1134,1783189316.4277,1,0,1.0000,0.0000,1.44682,0.23328,-2.77760,0.97329,1.57079,0.00000,-0.14514,-0.37992,0.04645,,,,,,,,,,,,,,,,,,,,,,,,,,0,0,0,0,0
0.1250,1783189316.4393,1,0,1.0000,0.0000,1.44682,0.23328,-2.77760,0.97329,1.57079,0.00000,-0.14514,-0.37992,0.04645,,,,,,,,,,,,,,,,,,,,,,,,,,0,0,0,0,0
0.1456,1783189316.4599,1,0,1.0000,0.0000,1.44682,0.23328,-2.77760,0.97329,1.57079,0.00000,-0.14514,-0.37992,0.04645,,,,,,,,,,,,,,,,,,,,,,,,,,0,0,0,0,0
0.1462,1783189316.4605,1,0,1.0000,0.0000,1.44682,0.23328,-2.77760,0.97329,1.57079,0.00000,-0.14514,-0.37992,0.04645,,,,,,,,,,,,,,,,,,,,,,,,,,0,0,0,0,0
0.1464,1783189316.4608,1,0,1.0000,0.0000,1.44682,0.23328,-2.77760,0.97329,1.57079,0.00000,-0.14514,-0.37992,0.04645,,,,,,,,,,,,,,,,,,,,,,,,,,0,0,0,0,0
0.1533,1783189316.4677,1,0,1.0000,0.0000,1.44682,0.23328,-2.77760,0.97329,1.57079,0.00000,-0.14514,-0.37992,0.04645,,,,,,,,,,,,,,,,,,,,,,,,,,0,0,0,0,0
0.1631,1783189316.4775,1,0,1.0000,0.0000,1.44682,0.23328,-2.77760,0.97329,1.57079,0.00000,-0.14514,-0.37992,0.04645,,,,,,,,,,,,,,,,,,,,,,,,,,0,0,0,0,0
0.1637,1783189316.4781,1,0,1.0000,0.0000,1.44682,0.23328,-2.77760,0.97329,1.57079,0.00000,-0.14514,-0.37992,0.04645,,,,,,,,,,,,,,,,,,,,,,,,,,0,0,0,0,0
0.1732,1783189316.4876,1,0,1.0000,0.0000,1.44682,0.23328,-2.77760,0.97329,1.57079,0.00000,-0.14514,-0.37992,0.04645,,,,,,,,,,,,,,,,,,,,,,,,,,0,0,0,0,0
0.1736,1783189316.4879,1,0,1.0000,0.0000,1.44682,0.23328,-2.77760,0.97329,1.57079,0.00000,-0.14514,-0.37992,0.04645,,,,,,,,,,,,,,,,,,,,,,,,,,0,0,0,0,0
0.1918,1783189316.5061,1,0,1.0000,0.0000,1.44682,0.23328,-2.77760,0.97329,1.57079,0.00000,-0.14514,-0.37992,0.04645,,,,,,,,,,,,,,,,,,,,,,,,,,0,0,0,0,0
0.1941,1783189316.5084,1,0,1.0000,0.0000,1.44682,0.23328,-2.77760,0.97329,1.57079,0.00000,-0.14514,-0.37992,0.04645,,,,,,,,,,,,,,,,,,,,,,,,,,0,0,0,0,0
0.2051,1783189316.5194,1,0,1.0000,0.0000,1.44682,0.23328,-2.77760,0.97329,1.57079,0.00000,-0.14514,-0.37992,0.04645,,,,,,,,,,,,,,,,,,,,,,,,,,0,0,0,0,0
0.2161,1783189316.5304,1,0,1.0000,0.0000,1.44682,0.23328,-2.77760,0.97329,1.57079,0.00000,-0.14514,-0.37992,0.04645,,,,,,,,,,,,,,,,,,,,,,,,,,0,0,0,0,0
0.2238,1783189316.5381,1,0,1.0000,0.0000,1.44682,0.23328,-2.77760,0.97329,1.57079,0.00000,-0.14514,-0.37992,0.04645,,,,,,,,,,,,,,,,,,,,,,,,,,0,0,0,0,0
0.2494,1783189316.5638,1,0,1.0000,0.0000,1.44682,0.23328,-2.77760,0.97329,1.57079,0.00000,-0.14514,-0.37992,0.04645,,,,,,,,,,,,,,,,,,,,,,,,,,0,0,0,0,0
0.2503,1783189316.5647,1,0,1.0000,0.0000,1.44682,0.23328,-2.77760,0.97329,1.57079,0.00000,-0.14514,-0.37992,0.04645,,,,,,,,,,,,,,,,,,,,,,,,,,0,0,0,0,0
0.2534,1783189316.5677,1,0,1.0000,0.0000,1.44682,0.23328,-2.77760,0.97329,1.57079,0.00000,-0.14514,-0.37992,0.04645,,,,,,,,,,,,,,,,,,,,,,,,,,0,0,0,0,0
0.2637,1783189316.5781,1,0,1.0000,0.0000,1.44682,0.23328,-2.77760,0.97329,1.57079,0.00000,-0.14514,-0.37992,0.04645,,,,,,,,,,,,,,,,,,,,,,,,,,0,0,0,0,0
0.2764,1783189316.5908,1,0,1.0000,0.0000,1.44682,0.23328,-2.77760,0.97329,1.57079,0.00000,-0.14514,-0.37992,0.04645,,,,,,,,,,,,,,,,,,,,,,,,,,0,0,0,0,0
0.2938,1783189316.6082,1,0,1.0000,0.0000,1.44682,0.23328,-2.77760,0.97329,1.57079,0.00000,-0.14514,-0.37992,0.04645,,,,,,,,,,,,,,,,,,,,,,,,,,0,0,0,0,0
0.2948,1783189316.6092,1,0,1.0000,0.0000,1.44682,0.23328,-2.77760,0.97329,1.57079,0.00000,-0.14514,-0.37992,0.04645,,,,,,,,,,,,,,,,,,,,,,,,,,0,0,0,0,0
0.2956,1783189316.6100,1,0,1.0000,0.0000,1.44682,0.23328,-2.77760,0.97329,1.57079,0.00000,-0.14514,-0.37992,0.04645,,,,,,,,,,,,,,,,,,,,,,,,,,0,0,0,0,0
0.3067,1783189316.6211,1,0,1.0000,0.0000,1.44682,0.23328,-2.77760,0.97329,1.57079,0.00000,-0.14514,-0.37992,0.04645,,,,,,,,,,,,,,,,,,,,,,,,,,0,0,0,0,0
0.3199,1783189316.6342,1,0,1.0000,0.0000,1.44682,0.23328,-2.77760,0.97329,1.57079,0.00000,-0.14514,-0.37992,0.04645,,,,,,,,,,,,,,,,,,,,,,,,,,0,0,0,0,0
0.3250,1783189316.6393,1,0,1.0000,0.0000,1.44682,0.23328,-2.77760,0.97329,1.57079,0.00000,-0.14514,-0.37992,0.04645,,,,,,,,,,,,,,,,,,,,,,,,,,0,0,0,0,0
0.3335,1783189316.6479,1,0,1.0000,0.0000,1.44682,0.23328,-2.77760,0.97329,1.57079,0.00000,-0.14514,-0.37992,0.04645,,,,,,,,,,,,,,,,,,,,,,,,,,0,0,0,0,0
0.3561,1783189316.6705,1,0,1.0000,0.0000,1.44682,0.23328,-2.77760,0.97329,1.57079,0.00000,-0.14514,-0.37992,0.04645,,,,,,,,,,,,,,,,,,,,,,,,,,0,0,0,0,0
0.3564,1783189316.6707,1,0,1.0000,0.0000,1.44682,0.23328,-2.77760,0.97329,1.57079,0.00000,-0.14514,-0.37992,0.04645,,,,,,,,,,,,,,,,,,,,,,,,,,0,0,0,0,0
0.3567,1783189316.6710,1,0,1.0000,0.0000,1.44682,0.23328,-2.77760,0.97329,1.57079,0.00000,-0.14514,-0.37992,0.04645,,,,,,,,,,,,,,,,,,,,,,,,,,0,0,0,0,0
0.3636,1783189316.6779,1,0,1.0000,0.0000,1.44682,0.23328,-2.77760,0.97329,1.57079,0.00000,-0.14514,-0.37992,0.04645,,,,,,,,,,,,,,,,,,,,,,,,,,0,0,0,0,0
0.4014,1783189316.7157,1,0,1.0000,0.0000,1.44682,0.23328,-2.77760,0.97329,1.57079,0.00000,-0.14514,-0.37992,0.04645,,,,,,,,,,,,,,,,,,,,,,,,,,0,0,0,0,0
0.4018,1783189316.7162,1,0,1.0000,0.0000,1.44682,0.23328,-2.77760,0.97329,1.57079,0.00000,-0.14514,-0.37992,0.04645,,,,,,,,,,,,,,,,,,,,,,,,,,0,0,0,0,0
0.4067,1783189316.7211,1,0,1.0000,0.0000,1.44682,0.23328,-2.77760,0.97329,1.57079,0.00000,-0.14514,-0.37992,0.04645,,,,,,,,,,,,,,,,,,,,,,,,,,0,0,0,0,0
0.4203,1783189316.7347,1,0,1.0000,0.0000,1.44682,0.23328,-2.77760,0.97329,1.57079,0.00000,-0.14514,-0.37992,0.04645,,,,,,,,,,,,,,,,,,,,,,,,,,0,0,0,0,0
0.4243,1783189316.7386,1,0,1.0000,0.0000,1.44682,0.23328,-2.77760,0.97329,1.57079,0.00000,-0.14514,-0.37992,0.04645,,,,,,,,,,,,,,,,,,,,,,,,,,0,0,0,0,0
0.4247,1783189316.7391,1,0,1.0000,0.0000,1.44682,0.23328,-2.77760,0.97329,1.57079,0.00000,-0.14514,-0.37992,0.04645,,,,,,,,,,,,,,,,,,,,,,,,,,0,0,0,0,0
0.4333,1783189316.7476,1,0,1.0000,0.0000,1.44682,0.23328,-2.77760,0.97329,1.57079,0.00000,-0.14514,-0.37992,0.04645,,,,,,,,,,,,,,,,,,,,,,,,,,0,0,0,0,0
0.4570,1783189316.7713,1,0,1.0000,0.0000,1.44682,0.23328,-2.77760,0.97329,1.57079,0.00000,-0.14514,-0.37992,0.04645,,,,,,,,,,,,,,,,,,,,,,,,,,0,0,0,0,0
0.4576,1783189316.7720,1,0,1.0000,0.0000,1.44682,0.23328,-2.77760,0.97329,1.57079,0.00000,-0.14514,-0.37992,0.04645,,,,,,,,,,,,,,,,,,,,,,,,,,0,0,0,0,0
0.4579,1783189316.7722,1,0,1.0000,0.0000,1.44682,0.23328,-2.77760,0.97329,1.57079,0.00000,-0.14514,-0.37992,0.04645,,,,,,,,,,,,,,,,,,,,,,,,,,0,0,0,0,0
0.4728,1783189316.7872,1,0,1.0000,0.0000,1.44682,0.23328,-2.77760,0.97329,1.57079,0.00000,-0.14514,-0.37992,0.04645,,,,,,,,,,,,,,,,,,,,,,,,,,0,0,0,0,0
0.4731,1783189316.7874,1,0,1.0000,0.0000,1.44682,0.23328,-2.77760,0.97329,1.57079,0.00000,-0.14514,-0.37992,0.04645,,,,,,,,,,,,,,,,,,,,,,,,,,0,0,0,0,0
0.4766,1783189316.7909,1,0,1.0000,0.0000,1.44682,0.23328,-2.77760,0.97329,1.57079,0.00000,-0.14514,-0.37992,0.04645,,,,,,,,,,,,,,,,,,,,,,,,,,0,0,0,0,0
0.4769,1783189316.7912,1,0,1.0000,0.0000,1.44682,0.23328,-2.77760,0.97329,1.57079,0.00000,-0.14514,-0.37992,0.04645,,,,,,,,,,,,,,,,,,,,,,,,,,0,0,0,0,0
0.4853,1783189316.7996,1,0,1.0000,0.0000,1.44682,0.23328,-2.77760,0.97329,1.57079,0.00000,-0.14514,-0.37992,0.04645,,,,,,,,,,,,,,,,,,,,,,,,,,0,0,0,0,0
0.4857,1783189316.8000,1,0,1.0000,0.0000,1.44682,0.23328,-2.77760,0.97329,1.57079,0.00000,-0.14514,-0.37992,0.04645,,,,,,,,,,,,,,,,,,,,,,,,,,0,0,0,0,0
0.4984,1783189316.8127,1,0,1.0000,0.0000,1.44682,0.23328,-2.77760,0.97329,1.57079,0.00000,-0.14514,-0.37992,0.04645,,,,,,,,,,,,,,,,,,,,,,,,,,0,0,0,0,0
0.4988,1783189316.8131,1,0,1.0000,0.0000,1.44682,0.23328,-2.77760,0.97329,1.57079,0.00000,-0.14514,-0.37992,0.04645,,,,,,,,,,,,,,,,,,,,,,,,,,0,0,0,0,0
0.5037,1783189316.8180,1,0,1.0000,0.0000,1.44682,0.23328,-2.77760,0.97329,1.57079,0.00000,-0.14514,-0.37992,0.04645,,,,,,,,,,,,,,,,,,,,,,,,,,0,0,0,0,0
0.5158,1783189316.8301,1,0,1.0000,0.0000,1.44682,0.23328,-2.77760,0.97329,1.57079,0.00000,-0.14514,-0.37992,0.04645,,,,,,,,,,,,,,,,,,,,,,,,,,0,0,0,0,0
0.5161,1783189316.8304,1,0,1.0000,0.0000,1.44682,0.23328,-2.77760,0.97329,1.57079,0.00000,-0.14514,-0.37992,0.04645,,,,,,,,,,,,,,,,,,,,,,,,,,0,0,0,0,0
0.5239,1783189316.8383,1,0,1.0000,0.0000,1.44682,0.23328,-2.77760,0.97329,1.57079,0.00000,-0.14514,-0.37992,0.04645,,,,,,,,,,,,,,,,,,,,,,,,,,0,0,0,0,0
0.5243,1783189316.8386,1,0,1.0000,0.0000,1.44682,0.23328,-2.77760,0.97329,1.57079,0.00000,-0.14514,-0.37992,0.04645,,,,,,,,,,,,,,,,,,,,,,,,,,0,0,0,0,0
0.5336,1783189316.8480,1,0,1.0000,0.0000,1.44682,0.23328,-2.77760,0.97329,1.57079,0.00000,-0.14514,-0.37992,0.04645,,,,,,,,,,,,,,,,,,,,,,,,,,0,0,0,0,0
0.5546,1783189316.8690,1,0,1.0000,0.0000,1.44682,0.23328,-2.77760,0.97329,1.57079,0.00000,-0.14514,-0.37992,0.04645,,,,,,,,,,,,,,,,,,,,,,,,,,0,0,0,0,0
0.5565,1783189316.8708,1,0,1.0000,0.0000,1.44682,0.23328,-2.77760,0.97329,1.57079,0.00000,-0.14514,-0.37992,0.04645,,,,,,,,,,,,,,,,,,,,,,,,,,0,0,0,0,0
0.5654,1783189316.8798,1,0,1.0000,0.0000,1.44682,0.23328,-2.77760,0.97329,1.57079,0.00000,-0.14514,-0.37992,0.04645,,,,,,,,,,,,,,,,,,,,,,,,,,0,0,0,0,0
0.5744,1783189316.8888,1,0,1.0000,0.0000,1.44682,0.23328,-2.77760,0.97329,1.57079,0.00000,-0.14514,-0.37992,0.04645,,,,,,,,,,,,,,,,,,,,,,,,,,0,0,0,0,0
0.5748,1783189316.8891,1,0,1.0000,0.0000,1.44682,0.23328,-2.77760,0.97329,1.57079,0.00000,-0.14514,-0.37992,0.04645,,,,,,,,,,,,,,,,,,,,,,,,,,0,0,0,0,0
0.5863,1783189316.9007,1,0,1.0000,0.0000,1.44682,0.23328,-2.77760,0.97329,1.57079,0.00000,-0.14514,-0.37992,0.04645,,,,,,,,,,,,,,,,,,,,,,,,,,0,0,0,0,0
0.5867,1783189316.9010,1,0,1.0000,0.0000,1.44682,0.23328,-2.77760,0.97329,1.57079,0.00000,-0.14514,-0.37992,0.04645,,,,,,,,,,,,,,,,,,,,,,,,,,0,0,0,0,0
0.5958,1783189316.9102,1,0,1.0000,0.0000,1.44682,0.23328,-2.77760,0.97329,1.57079,0.00000,-0.14514,-0.37992,0.04645,,,,,,,,,,,,,,,,,,,,,,,,,,0,0,0,0,0
0.5962,1783189316.9105,1,0,1.0000,0.0000,1.44682,0.23328,-2.77760,0.97329,1.57079,0.00000,-0.14514,-0.37992,0.04645,,,,,,,,,,,,,,,,,,,,,,,,,,0,0,0,0,0
0.6045,1783189316.9189,1,0,1.0000,0.0000,1.44682,0.23328,-2.77760,0.97329,1.57079,0.00000,-0.14514,-0.37992,0.04645,,,,,,,,,,,,,,,,,,,,,,,,,,0,0,0,0,0
0.6049,1783189316.9192,1,0,1.0000,0.0000,1.44682,0.23328,-2.77760,0.97329,1.57079,0.00000,-0.14514,-0.37992,0.04645,,,,,,,,,,,,,,,,,,,,,,,,,,0,0,0,0,0
0.6168,1783189316.9311,1,0,1.0000,0.0000,1.44682,0.23328,-2.77760,0.97329,1.57079,0.00000,-0.14514,-0.37992,0.04645,,,,,,,,,,,,,,,,,,,,,,,,,,0,0,0,0,0
0.6270,1783189316.9413,1,0,1.0000,0.0000,1.44682,0.23328,-2.77760,0.97329,1.57079,0.00000,-0.14514,-0.37992,0.04645,,,,,,,,,,,,,,,,,,,,,,,,,,0,0,0,0,0
0.6278,1783189316.9421,1,0,1.0000,0.0000,1.44682,0.23328,-2.77760,0.97329,1.57079,0.00000,-0.14514,-0.37992,0.04645,,,,,,,,,,,,,,,,,,,,,,,,,,0,0,0,0,0
0.6349,1783189316.9493,1,0,1.0000,0.0000,1.44682,0.23328,-2.77760,0.97329,1.57079,0.00000,-0.14514,-0.37992,0.04645,,,,,,,,,,,,,,,,,,,,,,,,,,0,0,0,0,0
0.6356,1783189316.9499,1,0,1.0000,0.0000,1.44682,0.23328,-2.77760,0.97329,1.57079,0.00000,-0.14514,-0.37992,0.04645,,,,,,,,,,,,,,,,,,,,,,,,,,0,0,0,0,0
0.6557,1783189316.9700,1,0,1.0000,0.0000,1.44682,0.23328,-2.77760,0.97329,1.57079,0.00000,-0.14514,-0.37992,0.04645,,,,,,,,,,,,,,,,,,,,,,,,,,0,0,0,0,0
0.6559,1783189316.9703,1,0,1.0000,0.0000,1.44682,0.23328,-2.77760,0.97329,1.57079,0.00000,-0.14514,-0.37992,0.04645,,,,,,,,,,,,,,,,,,,,,,,,,,0,0,0,0,0
0.6637,1783189316.9780,1,0,1.0000,0.0000,1.44682,0.23328,-2.77760,0.97329,1.57079,0.00000,-0.14514,-0.37992,0.04645,,,,,,,,,,,,,,,,,,,,,,,,,,0,0,0,0,0
0.6743,1783189316.9887,1,0,1.0000,0.0000,1.44682,0.23328,-2.77760,0.97329,1.57079,0.00000,-0.14514,-0.37992,0.04645,,,,,,,,,,,,,,,,,,,,,,,,,,0,0,0,0,0
0.6746,1783189316.9890,1,0,1.0000,0.0000,1.44682,0.23328,-2.77760,0.97329,1.57079,0.00000,-0.14514,-0.37992,0.04645,,,,,,,,,,,,,,,,,,,,,,,,,,0,0,0,0,0
0.6856,1783189317.0000,1,0,1.0000,0.0000,1.44682,0.23328,-2.77760,0.97329,1.57079,0.00000,-0.14514,-0.37992,0.04645,,,,,,,,,,,,,,,,,,,,,,,,,,0,0,0,0,0
0.6859,1783189317.0003,1,0,1.0000,0.0000,1.44682,0.23328,-2.77760,0.97329,1.57079,0.00000,-0.14514,-0.37992,0.04645,,,,,,,,,,,,,,,,,,,,,,,,,,0,0,0,0,0
0.6974,1783189317.0118,1,0,1.0000,0.0000,1.44682,0.23328,-2.77760,0.97329,1.57079,0.00000,-0.14514,-0.37992,0.04645,,,,,,,,,,,,,,,,,,,,,,,,,,0,0,0,0,0
0.7070,1783189317.0214,1,0,1.0000,0.0000,1.44682,0.23328,-2.77760,0.97329,1.57079,0.00000,-0.14514,-0.37992,0.04645,,,,,,,,,,,,,,,,,,,,,,,,,,0,0,0,0,0
0.7077,1783189317.0220,1,0,1.0000,0.0000,1.44682,0.23328,-2.77760,0.97329,1.57079,0.00000,-0.14514,-0.37992,0.04645,,,,,,,,,,,,,,,,,,,,,,,,,,0,0,0,0,0
0.7159,1783189317.0302,1,0,1.0000,0.0000,1.44682,0.23328,-2.77760,0.97329,1.57079,0.00000,-0.14514,-0.37992,0.04645,,,,,,,,,,,,,,,,,,,,,,,,,,0,0,0,0,0
0.7255,1783189317.0398,1,0,1.0000,0.0000,1.44682,0.23328,-2.77760,0.97329,1.57079,0.00000,-0.14514,-0.37992,0.04645,,,,,,,,,,,,,,,,,,,,,,,,,,0,0,0,0,0
0.7360,1783189317.0503,1,1,1.0000,0.0000,1.44682,0.23328,-2.77760,0.97329,1.57079,0.00000,-0.14514,-0.37992,0.04645,,,,,,,,,,,,,,,,,,,,,,,,,,0,0,0,0,0
0.7454,1783189317.0597,1,1,1.0000,0.0000,1.44682,0.23328,-2.77760,0.97329,1.57079,0.00000,-0.14514,-0.37992,0.04645,,,,,,,,,,,,,,,,,,,,,,,,,,0,0,0,0,0
0.7563,1783189317.0707,1,1,1.0000,0.0000,1.44682,0.23328,-2.77760,0.97329,1.57079,0.00000,-0.14514,-0.37992,0.04645,,,,,,,,,,,,,,,,,,,,,,,,,,0,0,0,0,0
0.7651,1783189317.0794,1,1,1.0000,0.0000,1.44682,0.23328,-2.77760,0.97329,1.57079,0.00000,-0.14514,-0.37992,0.04645,,,,,,,,,,,,,,,,,,,,,,,,,,0,0,0,0,0
0.7741,1783189317.0884,1,1,1.0000,0.0000,1.44682,0.23328,-2.77760,0.97329,1.57079,0.00000,-0.14514,-0.37992,0.04645,,,,,,,,,,,,,,,,,,,,,,,,,,0,0,0,0,0
0.7857,1783189317.1000,1,1,1.0000,0.0000,1.44682,0.23328,-2.77760,0.97329,1.57079,0.00000,-0.14514,-0.37992,0.04645,,,,,,,,,,,,,,,,,,,,,,,,,,0,0,0,0,0
0.7947,1783189317.1091,1,1,1.0000,0.0000,1.44682,0.23328,-2.77760,0.97329,1.57079,0.00000,-0.14514,-0.37992,0.04645,,,,,,,,,,,,,,,,,,,,,,,,,,0,0,0,0,0
0.8082,1783189317.1225,1,1,1.0000,0.0000,1.44682,0.23328,-2.77760,0.97329,1.57079,0.00000,-0.14514,-0.37992,0.04645,,,,,,,,,,,,,,,,,,,,,,,,,,0,0,0,0,0
0.8187,1783189317.1331,1,1,1.0000,0.0000,1.44682,0.23328,-2.77760,0.97329,1.57079,0.00000,-0.14514,-0.37992,0.04645,,,,,,,,,,,,,,,,,,,,,,,,,,0,0,0,0,0
0.8245,1783189317.1388,1,1,1.0000,0.0000,1.44682,0.23328,-2.77760,0.97329,1.57079,0.00000,-0.14514,-0.37992,0.04645,,,,,,,,,,,,,,,,,,,,,,,,,,0,0,0,0,0
0.8357,1783189317.1501,1,1,1.0000,0.0000,1.44682,0.23328,-2.77760,0.97329,1.57079,0.00000,-0.14514,-0.37992,0.04645,,,,,,,,,,,,,,,,,,,,,,,,,,0,0,0,0,0
0.8361,1783189317.1505,1,1,1.0000,0.0000,1.44682,0.23328,-2.77760,0.97329,1.57079,0.00000,-0.14514,-0.37992,0.04645,,,,,,,,,,,,,,,,,,,,,,,,,,0,0,0,0,0
0.8437,1783189317.1580,1,1,1.0000,0.0000,1.44682,0.23328,-2.77760,0.97329,1.57079,0.00000,-0.14514,-0.37992,0.04645,,,,,,,,,,,,,,,,,,,,,,,,,,0,0,0,0,0
0.8638,1783189317.1781,1,1,1.0000,0.0000,1.44682,0.23328,-2.77760,0.97329,1.57079,0.00000,-0.14514,-0.37992,0.04645,,,,,,,,,,,,,,,,,,,,,,,,,,0,0,0,0,0
0.8640,1783189317.1784,1,1,1.0000,0.0000,1.44682,0.23328,-2.77760,0.97329,1.57079,0.00000,-0.14514,-0.37992,0.04645,,,,,,,,,,,,,,,,,,,,,,,,,,0,0,0,0,0
0.8734,1783189317.1878,1,1,1.0000,0.0000,1.44682,0.23328,-2.77760,0.97329,1.57079,0.00000,-0.14514,-0.37992,0.04645,,,,,,,,,,,,,,,,,,,,,,,,,,0,0,0,0,0
0.8866,1783189317.2009,1,1,1.0000,0.0000,1.44682,0.23328,-2.77760,0.97329,1.57079,0.00000,-0.14514,-0.37992,0.04645,,,,,,,,,,,,,,,,,,,,,,,,,,0,0,0,0,0
0.8948,1783189317.2092,1,1,1.0000,0.0000,1.44682,0.23328,-2.77760,0.97329,1.57079,0.00000,-0.14514,-0.37992,0.04645,,,,,,,,,,,,,,,,,,,,,,,,,,0,0,0,0,0
0.8953,1783189317.2096,1,1,1.0000,0.0000,1.44682,0.23328,-2.77760,0.97329,1.57079,0.00000,-0.14514,-0.37992,0.04645,,,,,,,,,,,,,,,,,,,,,,,,,,0,0,0,0,0
0.9064,1783189317.2207,1,1,1.0000,0.0000,1.44682,0.23328,-2.77760,0.97329,1.57079,0.00000,-0.14514,-0.37992,0.04645,,,,,,,,,,,,,,,,,,,,,,,,,,0,0,0,0,0
0.9132,1783189317.2276,1,1,1.0000,0.0000,1.44682,0.23328,-2.77760,0.97329,1.57079,0.00000,-0.14514,-0.37992,0.04645,,,,,,,,,,,,,,,,,,,,,,,,,,0,0,0,0,0
0.9246,1783189317.2389,1,1,1.0000,0.0000,1.44682,0.23328,-2.77760,0.97329,1.57079,0.00000,-0.14514,-0.37992,0.04645,,,,,,,,,,,,,,,,,,,,,,,,,,0,0,0,0,0
0.9250,1783189317.2393,1,1,1.0000,0.0000,1.44682,0.23328,-2.77760,0.97329,1.57079,0.00000,-0.14514,-0.37992,0.04645,,,,,,,,,,,,,,,,,,,,,,,,,,0,0,0,0,0
0.9340,1783189317.2484,1,1,1.0000,0.0000,1.44682,0.23326,-2.77760,0.97331,1.57079,0.00000,-0.14514,-0.37992,0.04645,,,,,,,,,,,,,,,,,,,,,,,,,,0,0,0,0,0
0.9437,1783189317.2581,1,1,1.0000,0.0000,1.44682,0.23323,-2.77761,0.97334,1.57079,0.00000,-0.14514,-0.37992,0.04644,,,,,,,,,,,,,,,,,,,,,,,,,,0,0,0,0,0
0.9640,1783189317.2783,1,1,1.0000,0.0000,1.44682,0.23322,-2.77761,0.97337,1.57079,0.00000,-0.14514,-0.37992,0.04644,,,,,,,,,,,,,,,,,,,,,,,,,,0,0,0,0,0
0.9643,1783189317.2786,1,1,1.0000,0.0000,1.44682,0.23322,-2.77761,0.97337,1.57079,0.00000,-0.14514,-0.37992,0.04644,,,,,,,,,,,,,,,,,,,,,,,,,,0,0,0,0,0
0.9644,1783189317.2788,1,1,1.0000,0.0000,1.44682,0.23322,-2.77761,0.97337,1.57079,0.00000,-0.14514,-0.37992,0.04644,,,,,,,,,,,,,,,,,,,,,,,,,,0,0,0,0,0
0.9648,1783189317.2792,1,1,1.0000,0.0000,1.44682,0.23322,-2.77761,0.97337,1.57079,0.00000,-0.14514,-0.37992,0.04644,,,,,,,,,,,,,,,,,,,,,,,,,,0,0,0,0,0
0.9773,1783189317.2916,1,1,1.0000,0.0000,1.44682,0.23319,-2.77762,0.97340,1.57079,0.00000,-0.14514,-0.37992,0.04643,,,,,,,,,,,,,,,,,,,,,,,,,,0,0,0,0,0
0.9833,1783189317.2977,1,1,1.0000,0.0000,1.44682,0.23319,-2.77762,0.97340,1.57079,0.00000,-0.14514,-0.37992,0.04643,,,,,,,,,,,,,,,,,,,,,,,,,,0,0,0,0,0
0.9970,1783189317.3114,1,1,1.0000,0.0000,1.44682,0.23317,-2.77762,0.97342,1.57079,0.00000,-0.14514,-0.37992,0.04643,,,,,,,,,,,,,,,,,,,,,,,,,,0,0,0,0,0
1.0048,1783189317.3192,1,1,1.0000,0.0000,1.44682,0.23315,-2.77763,0.97344,1.57079,0.00000,-0.14514,-0.37992,0.04642,,,,,,,,,,,,,,,,,,,,,,,,,,0,0,0,0,0
1.0052,1783189317.3196,1,1,1.0000,0.0000,1.44682,0.23315,-2.77763,0.97344,1.57079,0.00000,-0.14514,-0.37992,0.04642,,,,,,,,,,,,,,,,,,,,,,,,,,0,0,0,0,0
1.0143,1783189317.3287,1,1,1.0000,0.0000,1.44682,0.23315,-2.77763,0.97344,1.57079,0.00000,-0.14514,-0.37992,0.04642,,,,,,,,,,,,,,,,,,,,,,,,,,0,0,0,0,0
1.0238,1783189317.3382,1,1,1.0000,0.0000,1.44682,0.23313,-2.77763,0.97347,1.57079,0.00000,-0.14514,-0.37992,0.04642,,,,,,,,,,,,,,,,,,,,,,,,,,0,0,0,0,0
1.0392,1783189317.3536,1,1,1.0000,0.0000,1.44682,0.23311,-2.77764,0.97350,1.57079,0.00001,-0.14514,-0.37992,0.04641,,,,,,,,,,,,,,,,,,,,,,,,,,0,0,0,0,0
1.0431,1783189317.3574,1,1,1.0000,0.0000,1.44682,0.23311,-2.77764,0.97350,1.57079,0.00001,-0.14514,-0.37992,0.04641,,,,,,,,,,,,,,,,,,,,,,,,,,0,0,0,0,0
1.0437,1783189317.3581,1,1,1.0000,0.0000,1.44682,0.23311,-2.77764,0.97350,1.57079,0.00001,-0.14514,-0.37992,0.04641,,,,,,,,,,,,,,,,,,,,,,,,,,0,0,0,0,0
1.0533,1783189317.3677,1,1,1.0000,0.0000,1.44682,0.23310,-2.77764,0.97351,1.57079,0.00001,-0.14514,-0.37992,0.04641,,,,,,,,,,,,,,,,,,,,,,,,,,0,0,0,0,0
1.0702,1783189317.3846,1,1,1.0000,0.0000,1.44682,0.23306,-2.77765,0.97355,1.57079,0.00001,-0.14514,-0.37992,0.04640,,,,,,,,,,,,,,,,,,,,,,,,,,0,0,0,0,0
1.0734,1783189317.3877,1,1,1.0000,0.0000,1.44682,0.23306,-2.77765,0.97355,1.57079,0.00001,-0.14514,-0.37992,0.04640,,,,,,,,,,,,,,,,,,,,,,,,,,0,0,0,0,0
1.0873,1783189317.4016,1,1,1.0000,0.0000,1.44682,0.23306,-2.77765,0.97357,1.57079,0.00001,-0.14514,-0.37992,0.04640,,,,,,,,,,,,,,,,,,,,,,,,,,0,0,0,0,0
1.0935,1783189317.4078,1,1,1.0000,0.0000,1.44682,0.23304,-2.77766,0.97358,1.57079,0.00001,-0.14514,-0.37992,0.04639,,,,,,,,,,,,,,,,,,,,,,,,,,0,0,0,0,0
1.1119,1783189317.4263,1,1,1.0000,0.0000,1.44682,0.23302,-2.77766,0.97361,1.57079,0.00001,-0.14514,-0.37992,0.04639,,,,,,,,,,,,,,,,,,,,,,,,,,0,0,0,0,0
1.1157,1783189317.4301,1,1,1.0000,0.0000,1.44682,0.23302,-2.77766,0.97362,1.57079,0.00001,-0.14514,-0.37992,0.04638,,,,,,,,,,,,,,,,,,,,,,,,,,0,0,0,0,0
1.1161,1783189317.4304,1,1,1.0000,0.0000,1.44682,0.23302,-2.77766,0.97362,1.57079,0.00001,-0.14514,-0.37992,0.04638,,,,,,,,,,,,,,,,,,,,,,,,,,0,0,0,0,0
1.1262,1783189317.4405,1,1,1.0000,0.0000,1.44682,0.23300,-2.77767,0.97364,1.57079,0.00001,-0.14514,-0.37992,0.04638,,,,,,,,,,,,,,,,,,,,,,,,,,0,0,0,0,0
1.1351,1783189317.4495,1,1,1.0000,0.0000,1.44682,0.23299,-2.77767,0.97365,1.57079,0.00001,-0.14514,-0.37992,0.04638,,,,,,,,,,,,,,,,,,,,,,,,,,0,0,0,0,0
1.1439,1783189317.4582,1,1,1.0000,0.0000,1.44682,0.23298,-2.77767,0.97366,1.57079,0.00001,-0.14514,-0.37992,0.04638,,,,,,,,,,,,,,,,,,,,,,,,,,0,0,0,0,0
1.1534,1783189317.4677,1,1,1.0000,0.0000,1.44682,0.23297,-2.77768,0.97367,1.57079,0.00001,-0.14514,-0.37992,0.04637,,,,,,,,,,,,,,,,,,,,,,,,,,0,0,0,0,0
1.1661,1783189317.4805,1,1,1.0000,0.0000,1.44682,0.23296,-2.77768,0.97369,1.57079,0.00001,-0.14514,-0.37992,0.04637,,,,,,,,,,,,,,,,,,,,,,,,,,0,0,0,0,0
1.1733,1783189317.4876,1,1,1.0000,0.0000,1.44682,0.23295,-2.77768,0.97370,1.57079,0.00001,-0.14514,-0.37992,0.04637,,,,,,,,,,,,,,,,,,,,,,,,,,0,0,0,0,0
1.1735,1783189317.4879,1,1,1.0000,0.0000,1.44682,0.23295,-2.77768,0.97370,1.57079,0.00001,-0.14514,-0.37992,0.04637,,,,,,,,,,,,,,,,,,,,,,,,,,0,0,0,0,0
1.1859,1783189317.5002,1,1,1.0000,0.0000,1.44682,0.23292,-2.77769,0.97373,1.57079,0.00001,-0.14514,-0.37992,0.04636,,,,,,,,,,,,,,,,,,,,,,,,,,0,0,0,0,0
1.1939,1783189317.5083,1,1,1.0000,0.0000,1.44682,0.23292,-2.77769,0.97374,1.57079,0.00001,-0.14514,-0.37992,0.04636,,,,,,,,,,,,,,,,,,,,,,,,,,0,0,0,0,0
1.1943,1783189317.5086,1,1,1.0000,0.0000,1.44682,0.23292,-2.77769,0.97374,1.57079,0.00001,-0.14514,-0.37992,0.04636,,,,,,,,,,,,,,,,,,,,,,,,,,0,0,0,0,0
1.2040,1783189317.5183,1,1,1.0000,0.0000,1.44682,0.23291,-2.77769,0.97375,1.57079,0.00001,-0.14514,-0.37992,0.04636,,,,,,,,,,,,,,,,,,,,,,,,,,0,0,0,0,0
1.2044,1783189317.5188,1,1,1.0000,0.0000,1.44682,0.23291,-2.77769,0.97375,1.57079,0.00001,-0.14514,-0.37992,0.04636,,,,,,,,,,,,,,,,,,,,,,,,,,0,0,0,0,0
1.2183,1783189317.5327,1,1,1.0000,0.0000,1.44682,0.23289,-2.77770,0.97378,1.57079,0.00001,-0.14514,-0.37992,0.04635,,,,,,,,,,,,,,,,,,,,,,,,,,0,0,0,0,0
1.2282,1783189317.5425,1,1,1.0000,0.0000,1.44682,0.23288,-2.77770,0.97378,1.57079,0.00001,-0.14514,-0.37992,0.04635,,,,,,,,,,,,,,,,,,,,,,,,,,0,0,0,0,0
1.2285,1783189317.5429,1,1,1.0000,0.0000,1.44682,0.23288,-2.77770,0.97378,1.57079,0.00001,-0.14514,-0.37992,0.04635,,,,,,,,,,,,,,,,,,,,,,,,,,0,0,0,0,0
1.2408,1783189317.5551,1,1,1.0000,0.0000,1.44682,0.23286,-2.77770,0.97381,1.57079,0.00001,-0.14514,-0.37992,0.04634,,,,,,,,,,,,,,,,,,,,,,,,,,0,0,0,0,0
1.2471,1783189317.5614,1,1,1.0000,0.0000,1.44682,0.23285,-2.77771,0.97382,1.57079,0.00001,-0.14514,-0.37992,0.04634,,,,,,,,,,,,,,,,,,,,,,,,,,0,0,0,0,0
1.2537,1783189317.5681,1,1,1.0000,0.0000,1.44682,0.23284,-2.77771,0.97383,1.57079,0.00001,-0.14514,-0.37992,0.04634,,,,,,,,,,,,,,,,,,,,,,,,,,0,0,0,0,0
1.2717,1783189317.5860,1,1,1.0000,0.0000,1.44682,0.23282,-2.77771,0.97386,1.57079,0.00001,-0.14514,-0.37992,0.04633,,,,,,,,,,,,,,,,,,,,,,,,,,0,0,0,0,0
1.2731,1783189317.5874,1,1,1.0000,0.0000,1.44682,0.23282,-2.77771,0.97386,1.57079,0.00001,-0.14514,-0.37992,0.04633,,,,,,,,,,,,,,,,,,,,,,,,,,0,0,0,0,0
1.2734,1783189317.5878,1,1,1.0000,0.0000,1.44682,0.23282,-2.77771,0.97386,1.57079,0.00001,-0.14514,-0.37992,0.04633,,,,,,,,,,,,,,,,,,,,,,,,,,0,0,0,0,0
1.2854,1783189317.5997,1,1,1.0000,0.0000,1.44682,0.23281,-2.77772,0.97387,1.57079,0.00001,-0.14514,-0.37992,0.04633,,,,,,,,,,,,,,,,,,,,,,,,,,0,0,0,0,0
1.2932,1783189317.6075,1,1,1.0000,0.0000,1.44682,0.23280,-2.77772,0.97389,1.57079,0.00001,-0.14514,-0.37992,0.04633,,,,,,,,,,,,,,,,,,,,,,,,,,0,0,0,0,0
1.3045,1783189317.6188,1,1,1.0000,0.0000,1.44682,0.23278,-2.77773,0.97392,1.57079,0.00001,-0.14514,-0.37992,0.04632,,,,,,,,,,,,,,,,,,,,,,,,,,0,0,0,0,0
1.3047,1783189317.6191,1,1,1.0000,0.0000,1.44682,0.23278,-2.77773,0.97392,1.57079,0.00001,-0.14514,-0.37992,0.04632,,,,,,,,,,,,,,,,,,,,,,,,,,0,0,0,0,0
1.3167,1783189317.6311,1,1,1.0000,0.0000,1.44682,0.23277,-2.77773,0.97393,1.57079,0.00001,-0.14514,-0.37992,0.04632,,,,,,,,,,,,,,,,,,,,,,,,,,0,0,0,0,0
1.3238,1783189317.6381,1,1,1.0000,0.0000,1.44682,0.23276,-2.77773,0.97394,1.57079,0.00001,-0.14514,-0.37992,0.04632,,,,,,,,,,,,,,,,,,,,,,,,,,0,0,0,0,0
1.3240,1783189317.6383,1,1,1.0000,0.0000,1.44682,0.23276,-2.77773,0.97394,1.57079,0.00001,-0.14514,-0.37992,0.04632,,,,,,,,,,,,,,,,,,,,,,,,,,0,0,0,0,0
1.3346,1783189317.6490,1,1,1.0000,0.0000,1.44682,0.23275,-2.77773,0.97395,1.57079,0.00001,-0.14514,-0.37992,0.04631,,,,,,,,,,,,,,,,,,,,,,,,,,0,0,0,0,0
1.3437,1783189317.6580,1,1,1.0000,0.0000,1.44682,0.23274,-2.77774,0.97397,1.57079,0.00001,-0.14514,-0.37992,0.04631,,,,,,,,,,,,,,,,,,,,,,,,,,0,0,0,0,0
1.3539,1783189317.6683,1,1,1.0000,0.0000,1.44682,0.23273,-2.77774,0.97398,1.57079,0.00001,-0.14514,-0.37992,0.04631,,,,,,,,,,,,,,,,,,,,,,,,,,0,0,0,0,0
1.3771,1783189317.6915,1,1,1.0000,0.0000,1.44682,0.23269,-2.77775,0.97402,1.57079,0.00001,-0.14514,-0.37992,0.04630,,,,,,,,,,,,,,,,,,,,,,,,,,0,0,0,0,0
1.3774,1783189317.6918,1,1,1.0000,0.0000,1.44682,0.23269,-2.77775,0.97402,1.57079,0.00001,-0.14514,-0.37992,0.04630,,,,,,,,,,,,,,,,,,,,,,,,,,0,0,0,0,0
1.3841,1783189317.6984,1,1,1.0000,0.0000,1.44682,0.23269,-2.77775,0.97403,1.57079,0.00001,-0.14514,-0.37992,0.04630,,,,,,,,,,,,,,,,,,,,,,,,,,0,0,0,0,0
1.3844,1783189317.6988,1,1,1.0000,0.0000,1.44682,0.23269,-2.77775,0.97403,1.57079,0.00001,-0.14514,-0.37992,0.04630,,,,,,,,,,,,,,,,,,,,,,,,,,0,0,0,0,0
1.3941,1783189317.7084,1,1,1.0000,0.0000,1.44682,0.23267,-2.77775,0.97405,1.57079,0.00001,-0.14514,-0.37992,0.04629,,,,,,,,,,,,,,,,,,,,,,,,,,0,0,0,0,0
1.4072,1783189317.7215,1,1,1.0000,0.0000,1.44682,0.23266,-2.77775,0.97406,1.57079,0.00001,-0.14514,-0.37992,0.04629,,,,,,,,,,,,,,,,,,,,,,,,,,0,0,0,0,0
1.4158,1783189317.7301,1,1,1.0000,0.0000,1.44682,0.23265,-2.77776,0.97408,1.57079,0.00001,-0.14514,-0.37992,0.04629,,,,,,,,,,,,,,,,,,,,,,,,,,0,0,0,0,0
1.4331,1783189317.7474,1,1,1.0000,0.0000,1.44682,0.23262,-2.77777,0.97411,1.57079,0.00001,-0.14514,-0.37992,0.04628,,,,,,,,,,,,,,,,,,,,,,,,,,0,0,0,0,0
1.4388,1783189317.7531,1,1,1.0000,0.0000,1.44682,0.23262,-2.77777,0.97412,1.57079,0.00001,-0.14514,-0.37992,0.04628,,,,,,,,,,,,,,,,,,,,,,,,,,0,0,0,0,0
1.4509,1783189317.7653,1,1,1.0000,0.0000,1.44682,0.23260,-2.77777,0.97414,1.57079,0.00001,-0.14514,-0.37992,0.04628,,,,,,,,,,,,,,,,,,,,,,,,,,0,0,0,0,0
1.4571,1783189317.7714,1,1,1.0000,0.0000,1.44682,0.23258,-2.77778,0.97416,1.57079,0.00001,-0.14514,-0.37992,0.04627,,,,,,,,,,,,,,,,,,,,,,,,,,0,0,0,0,0
1.4777,1783189317.7920,1,1,1.0000,0.0000,1.44682,0.23256,-2.77778,0.97418,1.57079,0.00001,-0.14514,-0.37992,0.04627,,,,,,,,,,,,,,,,,,,,,,,,,,0,0,0,0,0
1.4781,1783189317.7924,1,1,1.0000,0.0000,1.44682,0.23256,-2.77778,0.97418,1.57079,0.00001,-0.14514,-0.37992,0.04627,,,,,,,,,,,,,,,,,,,,,,,,,,0,0,0,0,0
1.4783,1783189317.7926,1,1,1.0000,0.0000,1.44682,0.23256,-2.77778,0.97418,1.57079,0.00001,-0.14514,-0.37992,0.04627,,,,,,,,,,,,,,,,,,,,,,,,,,0,0,0,0,0
1.4870,1783189317.8014,1,1,1.0000,0.0000,1.44682,0.23255,-2.77779,0.97421,1.57079,0.00001,-0.14514,-0.37992,0.04626,,,,,,,,,,,,,,,,,,,,,,,,,,0,0,0,0,0
1.4969,1783189317.8113,1,1,1.0000,0.0000,1.44682,0.23254,-2.77779,0.97422,1.57079,0.00001,-0.14514,-0.37992,0.04626,,,,,,,,,,,,,,,,,,,,,,,,,,0,0,0,0,0
1.5079,1783189317.8222,1,1,1.0000,0.0000,1.44682,0.23252,-2.77779,0.97423,1.57079,0.00001,-0.14514,-0.37992,0.04626,,,,,,,,,,,,,,,,,,,,,,,,,,0,0,0,0,0
1.5207,1783189317.8351,1,1,1.0000,0.0000,1.44682,0.23251,-2.77779,0.97425,1.57079,0.00001,-0.14514,-0.37992,0.04625,,,,,,,,,,,,,,,,,,,,,,,,,,0,0,0,0,0
1.5281,1783189317.8425,1,1,1.0000,0.0000,1.44682,0.23250,-2.77780,0.97426,1.57079,0.00001,-0.14514,-0.37992,0.04625,,,,,,,,,,,,,,,,,,,,,,,,,,0,0,0,0,0
1.5378,1783189317.8522,1,1,1.0000,0.0000,1.44682,0.23249,-2.77780,0.97428,1.57079,0.00001,-0.14514,-0.37992,0.04625,,,,,,,,,,,,,,,,,,,,,,,,,,0,0,0,0,0
1.5471,1783189317.8614,1,1,1.0000,0.0000,1.44682,0.23247,-2.77780,0.97430,1.57079,0.00001,-0.14514,-0.37992,0.04624,,,,,,,,,,,,,,,,,,,,,,,,,,0,0,0,0,0
1.5570,1783189317.8714,1,1,1.0000,0.0000,1.44682,0.23246,-2.77781,0.97431,1.57079,0.00001,-0.14514,-0.37992,0.04624,,,,,,,,,,,,,,,,,,,,,,,,,,0,0,0,0,0
1.5798,1783189317.8941,1,1,1.0000,0.0000,1.44682,0.23243,-2.77782,0.97435,1.57079,0.00001,-0.14514,-0.37992,0.04623,,,,,,,,,,,,,,,,,,,,,,,,,,0,0,0,0,0
1.5800,1783189317.8943,1,1,1.0000,0.0000,1.44682,0.23243,-2.77782,0.97435,1.57079,0.00001,-0.14514,-0.37992,0.04623,,,,,,,,,,,,,,,,,,,,,,,,,,0,0,0,0,0
1.5877,1783189317.9021,1,1,1.0000,0.0000,1.44682,0.23242,-2.77782,0.97436,1.57079,0.00001,-0.14514,-0.37992,0.04623,,,,,,,,,,,,,,,,,,,,,,,,,,0,0,0,0,0
1.5879,1783189317.9022,1,1,1.0000,0.0000,1.44682,0.23242,-2.77782,0.97436,1.57079,0.00001,-0.14514,-0.37992,0.04623,,,,,,,,,,,,,,,,,,,,,,,,,,0,0,0,0,0
1.5977,1783189317.9120,1,1,1.0000,0.0000,1.44682,0.23241,-2.77782,0.97438,1.57079,0.00001,-0.14514,-0.37992,0.04623,,,,,,,,,,,,,,,,,,,,,,,,,,0,0,0,0,0
1.6100,1783189317.9244,1,1,1.0000,0.0000,1.44682,0.23238,-2.77783,0.97441,1.57079,0.00001,-0.14514,-0.37992,0.04622,,,,,,,,,,,,,,,,,,,,,,,,,,0,0,0,0,0
1.6229,1783189317.9372,1,1,1.0000,0.0000,1.44682,0.23238,-2.77783,0.97442,1.57079,0.00001,-0.14514,-0.37992,0.04622,,,,,,,,,,,,,,,,,,,,,,,,,,0,0,0,0,0
1.6232,1783189317.9376,1,1,1.0000,0.0000,1.44682,0.23238,-2.77783,0.97442,1.57079,0.00001,-0.14514,-0.37992,0.04622,,,,,,,,,,,,,,,,,,,,,,,,,,0,0,0,0,0
1.6292,1783189317.9436,1,1,1.0000,0.0000,1.44682,0.23236,-2.77783,0.97443,1.57079,0.00001,-0.14514,-0.37992,0.04621,,,,,,,,,,,,,,,,,,,,,,,,,,0,0,0,0,0
1.6377,1783189317.9521,1,1,1.0000,0.0000,1.44682,0.23235,-2.77784,0.97446,1.57079,0.00001,-0.14514,-0.37992,0.04621,,,,,,,,,,,,,,,,,,,,,,,,,,0,0,0,0,0
1.6517,1783189317.9660,1,1,1.0000,0.0000,1.44682,0.23234,-2.77784,0.97447,1.57079,0.00001,-0.14514,-0.37992,0.04621,,,,,,,,,,,,,,,,,,,,,,,,,,0,0,0,0,0
1.6570,1783189317.9714,1,1,1.0000,0.0000,1.44682,0.23233,-2.77784,0.97448,1.57079,0.00001,-0.14514,-0.37992,0.04620,,,,,,,,,,,,,,,,,,,,,,,,,,0,0,0,0,0
1.6573,1783189317.9717,1,1,1.0000,0.0000,1.44682,0.23233,-2.77784,0.97448,1.57079,0.00001,-0.14514,-0.37992,0.04620,,,,,,,,,,,,,,,,,,,,,,,,,,0,0,0,0,0
1.6686,1783189317.9829,1,1,1.0000,0.0000,1.44682,0.23230,-2.77785,0.97451,1.57079,0.00001,-0.14514,-0.37992,0.04620,,,,,,,,,,,,,,,,,,,,,,,,,,0,0,0,0,0
1.6688,1783189317.9832,1,1,1.0000,0.0000,1.44682,0.23230,-2.77785,0.97451,1.57079,0.00001,-0.14514,-0.37992,0.04620,,,,,,,,,,,,,,,,,,,,,,,,,,0,0,0,0,0
1.6798,1783189317.9942,1,1,1.0000,0.0000,1.44682,0.23230,-2.77785,0.97452,1.57079,0.00001,-0.14514,-0.37992,0.04620,,,,,,,,,,,,,,,,,,,,,,,,,,0,0,0,0,0
1.6801,1783189317.9945,1,1,1.0000,0.0000,1.44682,0.23230,-2.77785,0.97452,1.57079,0.00001,-0.14514,-0.37992,0.04620,,,,,,,,,,,,,,,,,,,,,,,,,,0,0,0,0,0
1.6878,1783189318.0021,1,1,1.0000,0.0000,1.44682,0.23228,-2.77785,0.97454,1.57079,0.00001,-0.14514,-0.37992,0.04619,,,,,,,,,,,,,,,,,,,,,,,,,,0,0,0,0,0
1.6977,1783189318.0120,1,1,1.0000,0.0000,1.44682,0.23227,-2.77786,0.97456,1.57079,0.00001,-0.14514,-0.37992,0.04619,,,,,,,,,,,,,,,,,,,,,,,,,,0,0,0,0,0
1.7070,1783189318.0214,1,1,1.0000,0.0000,1.44682,0.23227,-2.77786,0.97456,1.57079,0.00001,-0.14514,-0.37992,0.04619,,,,,,,,,,,,,,,,,,,,,,,,,,0,0,0,0,0
1.7175,1783189318.0318,1,1,1.0000,0.0000,1.44682,0.23225,-2.77786,0.97458,1.57079,0.00001,-0.14514,-0.37992,0.04618,,,,,,,,,,,,,,,,,,,,,,,,,,0,0,0,0,0
1.7284,1783189318.0428,1,1,1.0000,0.0000,1.44682,0.23222,-2.77787,0.97461,1.57079,0.00001,-0.14514,-0.37992,0.04618,,,,,,,,,,,,,,,,,,,,,,,,,,0,0,0,0,0
1.7288,1783189318.0432,1,1,1.0000,0.0000,1.44682,0.23222,-2.77787,0.97461,1.57079,0.00001,-0.14514,-0.37992,0.04618,,,,,,,,,,,,,,,,,,,,,,,,,,0,0,0,0,0
1.7381,1783189318.0525,1,1,1.0000,0.0000,1.44682,0.23222,-2.77787,0.97462,1.57079,0.00001,-0.14514,-0.37992,0.04618,,,,,,,,,,,,,,,,,,,,,,,,,,0,0,0,0,0
1.7491,1783189318.0635,1,1,1.0000,0.0000,1.44682,0.23220,-2.77787,0.97464,1.57079,0.00001,-0.14514,-0.37992,0.04617,,,,,,,,,,,,,,,,,,,,,,,,,,0,0,0,0,0
1.7598,1783189318.0742,1,1,1.0000,0.0000,1.44682,0.23219,-2.77788,0.97466,1.57079,0.00001,-0.14514,-0.37992,0.04617,,,,,,,,,,,,,,,,,,,,,,,,,,0,0,0,0,0
1.7602,1783189318.0745,1,1,1.0000,0.0000,1.44682,0.23219,-2.77788,0.97466,1.57079,0.00001,-0.14514,-0.37992,0.04617,,,,,,,,,,,,,,,,,,,,,,,,,,0,0,0,0,0
1.7678,1783189318.0822,1,1,1.0000,0.0000,1.44682,0.23218,-2.77788,0.97467,1.57079,0.00001,-0.14514,-0.37992,0.04617,,,,,,,,,,,,,,,,,,,,,,,,,,0,0,0,0,0
1.7681,1783189318.0824,1,1,1.0000,0.0000,1.44682,0.23218,-2.77788,0.97467,1.57079,0.00001,-0.14514,-0.37992,0.04617,,,,,,,,,,,,,,,,,,,,,,,,,,0,0,0,0,0
1.7844,1783189318.0988,1,1,1.0000,0.0000,1.44682,0.23215,-2.77789,0.97471,1.57079,0.00001,-0.14514,-0.37992,0.04616,,,,,,,,,,,,,,,,,,,,,,,,,,0,0,0,0,0
1.7847,1783189318.0990,1,1,1.0000,0.0000,1.44682,0.23215,-2.77789,0.97471,1.57079,0.00001,-0.14514,-0.37992,0.04616,,,,,,,,,,,,,,,,,,,,,,,,,,0,0,0,0,0
1.7872,1783189318.1016,1,1,1.0000,0.0000,1.44682,0.23215,-2.77789,0.97471,1.57079,0.00001,-0.14514,-0.37992,0.04616,,,,,,,,,,,,,,,,,,,,,,,,,,0,0,0,0,0
1.7879,1783189318.1023,1,1,1.0000,0.0000,1.44682,0.23214,-2.77789,0.97472,1.57079,0.00001,-0.14514,-0.37992,0.04616,,,,,,,,,,,,,,,,,,,,,,,,,,0,0,0,0,0
1.7972,1783189318.1115,1,1,1.0000,0.0000,1.44682,0.23214,-2.77789,0.97472,1.57079,0.00001,-0.14514,-0.37992,0.04616,,,,,,,,,,,,,,,,,,,,,,,,,,0,0,0,0,0
1.8079,1783189318.1223,1,1,1.0000,0.0000,1.44682,0.23212,-2.77789,0.97474,1.57079,0.00001,-0.14514,-0.37992,0.04615,,,,,,,,,,,,,,,,,,,,,,,,,,0,0,0,0,0
1.8170,1783189318.1313,1,1,1.0000,0.0000,1.44682,0.23210,-2.77790,0.97476,1.57079,0.00001,-0.14514,-0.37992,0.04615,,,,,,,,,,,,,,,,,,,,,,,,,,0,0,0,0,0
1.8320,1783189318.1463,1,1,1.0000,0.0000,1.44682,0.23209,-2.77790,0.97478,1.57079,0.00001,-0.14514,-0.37992,0.04614,,,,,,,,,,,,,,,,,,,,,,,,,,0,0,0,0,0
1.8324,1783189318.1467,1,1,1.0000,0.0000,1.44682,0.23209,-2.77790,0.97478,1.57079,0.00001,-0.14514,-0.37992,0.04614,,,,,,,,,,,,,,,,,,,,,,,,,,0,0,0,0,0
1.8425,1783189318.1569,1,1,1.0000,0.0000,1.44682,0.23208,-2.77791,0.97479,1.57079,0.00001,-0.14514,-0.37992,0.04614,,,,,,,,,,,,,,,,,,,,,,,,,,0,0,0,0,0
1.8487,1783189318.1630,1,1,1.0000,0.0000,1.44682,0.23207,-2.77791,0.97481,1.57079,0.00001,-0.14514,-0.37992,0.04614,,,,,,,,,,,,,,,,,,,,,,,,,,0,0,0,0,0
1.8654,1783189318.1798,1,1,1.0000,0.0000,1.44682,0.23206,-2.77791,0.97482,1.57079,0.00001,-0.14514,-0.37992,0.04613,,,,,,,,,,,,,,,,,,,,,,,,,,0,0,0,0,0
1.8677,1783189318.1820,1,1,1.0000,0.0000,1.44682,0.23205,-2.77791,0.97483,1.57079,0.00001,-0.14514,-0.37992,0.04613,,,,,,,,,,,,,,,,,,,,,,,,,,0,0,0,0,0
1.8853,1783189318.1997,1,1,1.0000,0.0000,1.44682,0.23202,-2.77792,0.97487,1.57079,0.00001,-0.14514,-0.37992,0.04612,,,,,,,,,,,,,,,,,,,,,,,,,,0,0,0,0,0
1.8902,1783189318.2045,1,1,1.0000,0.0000,1.44682,0.23202,-2.77792,0.97487,1.57079,0.00001,-0.14514,-0.37992,0.04612,,,,,,,,,,,,,,,,,,,,,,,,,,0,0,0,0,0
1.8970,1783189318.2114,1,1,1.0000,0.0000,1.44682,0.23201,-2.77792,0.97488,1.57079,0.00001,-0.14514,-0.37992,0.04612,,,,,,,,,,,,,,,,,,,,,,,,,,0,0,0,0,0
1.9071,1783189318.2215,1,1,1.0000,0.0000,1.44682,0.23200,-2.77793,0.97489,1.57079,0.00001,-0.14514,-0.37992,0.04612,,,,,,,,,,,,,,,,,,,,,,,,,,0,0,0,0,0
1.9078,1783189318.2222,1,1,1.0000,0.0000,1.44682,0.23199,-2.77793,0.97490,1.57079,0.00001,-0.14514,-0.37992,0.04612,,,,,,,,,,,,,,,,,,,,,,,,,,0,0,0,0,0
1.9189,1783189318.2333,1,1,1.0000,0.0000,1.44682,0.23199,-2.77793,0.97490,1.57079,0.00001,-0.14514,-0.37992,0.04612,,,,,,,,,,,,,,,,,,,,,,,,,,0,0,0,0,0
1.9306,1783189318.2450,1,1,1.0000,0.0000,1.44682,0.23197,-2.77793,0.97493,1.57079,0.00001,-0.14514,-0.37992,0.04611,,,,,,,,,,,,,,,,,,,,,,,,,,0,0,0,0,0
1.9375,1783189318.2518,1,1,1.0000,0.0000,1.44682,0.23196,-2.77794,0.97495,1.57079,0.00001,-0.14514,-0.37992,0.04611,,,,,,,,,,,,,,,,,,,,,,,,,,0,0,0,0,0
1.9378,1783189318.2521,1,1,1.0000,0.0000,1.44682,0.23196,-2.77794,0.97495,1.57079,0.00001,-0.14514,-0.37992,0.04611,,,,,,,,,,,,,,,,,,,,,,,,,,0,0,0,0,0
1.9470,1783189318.2614,1,1,1.0000,0.0000,1.44682,0.23195,-2.77794,0.97496,1.57079,0.00001,-0.14514,-0.37992,0.04611,,,,,,,,,,,,,,,,,,,,,,,,,,0,0,0,0,0
1.9612,1783189318.2756,1,1,1.0000,0.0000,1.44682,0.23193,-2.77794,0.97498,1.57079,0.00001,-0.14514,-0.37992,0.04610,,,,,,,,,,,,,,,,,,,,,,,,,,0,0,0,0,0
1.9668,1783189318.2811,1,1,1.0000,0.0000,1.44682,0.23193,-2.77795,0.97499,1.57079,0.00001,-0.14514,-0.37992,0.04610,,,,,,,,,,,,,,,,,,,,,,,,,,0,0,0,0,0
1.9672,1783189318.2815,1,1,1.0000,0.0000,1.44682,0.23193,-2.77795,0.97499,1.57079,0.00001,-0.14514,-0.37992,0.04610,,,,,,,,,,,,,,,,,,,,,,,,,,0,0,0,0,0
1.9852,1783189318.2995,1,1,1.0000,0.0000,1.44682,0.23191,-2.77795,0.97501,1.57079,0.00001,-0.14514,-0.37992,0.04609,,,,,,,,,,,,,,,,,,,,,,,,,,0,0,0,0,0
1.9903,1783189318.3046,1,1,1.0000,0.0000,1.44682,0.23190,-2.77795,0.97502,1.57079,0.00001,-0.14514,-0.37992,0.04609,,,,,,,,,,,,,,,,,,,,,,,,,,0,0,0,0,0
1.9969,1783189318.3112,1,1,1.0000,0.0000,1.44682,0.23188,-2.77796,0.97504,1.57079,0.00001,-0.14514,-0.37992,0.04609,,,,,,,,,,,,,,,,,,,,,,,,,,0,0,0,0,0
1.9973,1783189318.3116,1,1,1.0000,0.0000,1.44682,0.23188,-2.77796,0.97504,1.57079,0.00001,-0.14514,-0.37992,0.04609,,,,,,,,,,,,,,,,,,,,,,,,,,0,0,0,0,0
2.0071,1783189318.3215,1,1,1.0000,0.0000,1.44682,0.23187,-2.77796,0.97505,1.57079,0.00001,-0.14514,-0.37992,0.04609,,,,,,,,,,,,,,,,,,,,,,,,,,0,0,0,0,0
2.0168,1783189318.3312,1,1,1.0000,0.0000,1.44682,0.23187,-2.77796,0.97506,1.57079,0.00001,-0.14514,-0.37992,0.04608,,,,,,,,,,,,,,,,,,,,,,,,,,0,0,0,0,0
2.0172,1783189318.3315,1,1,1.0000,0.0000,1.44682,0.23187,-2.77796,0.97506,1.57079,0.00001,-0.14514,-0.37992,0.04608,,,,,,,,,,,,,,,,,,,,,,,,,,0,0,0,0,0
2.0291,1783189318.3435,1,1,1.0000,0.0000,1.44682,0.23185,-2.77797,0.97509,1.57079,0.00001,-0.14514,-0.37992,0.04608,,,,,,,,,,,,,,,,,,,,,,,,,,0,0,0,0,0
2.0382,1783189318.3526,1,1,1.0000,0.0000,1.44682,0.23184,-2.77797,0.97509,1.57079,0.00001,-0.14514,-0.37992,0.04608,,,,,,,,,,,,,,,,,,,,,,,,,,0,0,0,0,0
2.0483,1783189318.3627,1,1,1.0000,0.0000,1.44682,0.23183,-2.77797,0.97511,1.57079,0.00001,-0.14514,-0.37992,0.04607,,,,,,,,,,,,,,,,,,,,,,,,,,0,0,0,0,0
2.0570,1783189318.3713,1,1,1.0000,0.0000,1.44682,0.23181,-2.77798,0.97514,1.57079,0.00001,-0.14514,-0.37992,0.04607,,,,,,,,,,,,,,,,,,,,,,,,,,0,0,0,0,0
2.0688,1783189318.3832,1,1,1.0000,0.0000,1.44682,0.23180,-2.77798,0.97515,1.57079,0.00001,-0.14514,-0.37992,0.04607,,,,,,,,,,,,,,,,,,,,,,,,,,0,0,0,0,0
2.0789,1783189318.3933,1,1,1.0000,0.0000,1.44682,0.23179,-2.77798,0.97516,1.57079,0.00001,-0.14514,-0.37992,0.04606,,,,,,,,,,,,,,,,,,,,,,,,,,0,0,0,0,0
2.0907,1783189318.4050,1,1,1.0000,0.0000,1.44682,0.23177,-2.77799,0.97518,1.57079,0.00001,-0.14514,-0.37992,0.04606,,,,,,,,,,,,,,,,,,,,,,,,,,0,0,0,0,0
2.0987,1783189318.4130,1,1,1.0000,0.0000,1.44682,0.23177,-2.77799,0.97518,1.57079,0.00001,-0.14514,-0.37992,0.04606,,,,,,,,,,,,,,,,,,,,,,,,,,0,0,0,0,0
2.1088,1783189318.4232,1,1,1.0000,0.0000,1.44682,0.23175,-2.77799,0.97521,1.57079,0.00001,-0.14514,-0.37992,0.04605,,,,,,,,,,,,,,,,,,,,,,,,,,0,0,0,0,0
2.1219,1783189318.4362,1,1,1.0000,0.0000,1.44682,0.23173,-2.77800,0.97524,1.57079,0.00001,-0.14514,-0.37992,0.04605,,,,,,,,,,,,,,,,,,,,,,,,,,0,0,0,0,0
2.1440,1783189318.4583,1,1,1.0000,0.0000,1.44682,0.23170,-2.77800,0.97527,1.57079,0.00001,-0.14514,-0.37992,0.04604,,,,,,,,,,,,,,,,,,,,,,,,,,0,0,0,0,0
2.1445,1783189318.4588,1,1,1.0000,0.0000,1.44682,0.23170,-2.77800,0.97527,1.57079,0.00001,-0.14514,-0.37992,0.04604,,,,,,,,,,,,,,,,,,,,,,,,,,0,0,0,0,0
2.1489,1783189318.4632,1,1,1.0000,0.0000,1.44682,0.23170,-2.77800,0.97527,1.57079,0.00001,-0.14514,-0.37992,0.04604,,,,,,,,,,,,,,,,,,,,,,,,,,0,0,0,0,0
2.1637,1783189318.4780,1,1,1.0000,0.0000,1.44682,0.23168,-2.77801,0.97529,1.57079,0.00001,-0.14514,-0.37992,0.04604,,,,,,,,,,,,,,,,,,,,,,,,,,0,0,0,0,0
2.1678,1783189318.4822,1,1,1.0000,0.0000,1.44682,0.23168,-2.77801,0.97530,1.57079,0.00001,-0.14514,-0.37992,0.04603,,,,,,,,,,,,,,,,,,,,,,,,,,0,0,0,0,0
2.1773,1783189318.4917,1,1,1.0000,0.0000,1.44682,0.23166,-2.77801,0.97532,1.57079,0.00001,-0.14514,-0.37992,0.04603,,,,,,,,,,,,,,,,,,,,,,,,,,0,0,0,0,0
2.1776,1783189318.4919,1,1,1.0000,0.0000,1.44682,0.23166,-2.77801,0.97532,1.57079,0.00001,-0.14514,-0.37992,0.04603,,,,,,,,,,,,,,,,,,,,,,,,,,0,0,0,0,0
2.1950,1783189318.5093,1,1,1.0000,0.0000,1.44682,0.23165,-2.77802,0.97534,1.57079,0.00001,-0.14514,-0.37992,0.04603,,,,,,,,,,,,,,,,,,,,,,,,,,0,0,0,0,0
2.1968,1783189318.5112,1,1,1.0000,0.0000,1.44682,0.23164,-2.77802,0.97534,1.57079,0.00001,-0.14514,-0.37992,0.04603,,,,,,,,,,,,,,,,,,,,,,,,,,0,0,0,0,0
2.1972,1783189318.5116,1,1,1.0000,0.0000,1.44682,0.23164,-2.77802,0.97534,1.57079,0.00001,-0.14514,-0.37992,0.04603,,,,,,,,,,,,,,,,,,,,,,,,,,0,0,0,0,0
2.2085,1783189318.5229,1,1,1.0000,0.0000,1.44682,0.23162,-2.77802,0.97537,1.57079,0.00001,-0.14514,-0.37992,0.04602,,,,,,,,,,,,,,,,,,,,,,,,,,0,0,0,0,0
2.2179,1783189318.5323,1,1,1.0000,0.0000,1.44682,0.23162,-2.77802,0.97537,1.57079,0.00001,-0.14514,-0.37992,0.04602,,,,,,,,,,,,,,,,,,,,,,,,,,0,0,0,0,0
2.2300,1783189318.5444,1,1,1.0000,0.0000,1.44682,0.23160,-2.77803,0.97539,1.57079,0.00001,-0.14514,-0.37992,0.04602,,,,,,,,,,,,,,,,,,,,,,,,,,0,0,0,0,0
2.2399,1783189318.5542,1,1,1.0000,0.0000,1.44682,0.23158,-2.77804,0.97543,1.57079,0.00001,-0.14514,-0.37992,0.04601,,,,,,,,,,,,,,,,,,,,,,,,,,0,0,0,0,0
2.2401,1783189318.5544,1,1,1.0000,0.0000,1.44682,0.23158,-2.77804,0.97543,1.57079,0.00001,-0.14514,-0.37992,0.04601,,,,,,,,,,,,,,,,,,,,,,,,,,0,0,0,0,0
2.2519,1783189318.5662,1,1,1.0000,0.0000,1.44682,0.23157,-2.77804,0.97543,1.57079,0.00001,-0.14514,-0.37992,0.04601,,,,,,,,,,,,,,,,,,,,,,,,,,0,0,0,0,0
2.2521,1783189318.5665,1,1,1.0000,0.0000,1.44682,0.23157,-2.77804,0.97543,1.57079,0.00001,-0.14514,-0.37992,0.04601,,,,,,,,,,,,,,,,,,,,,,,,,,0,0,0,0,0
2.2569,1783189318.5712,1,1,1.0000,0.0000,1.44682,0.23157,-2.77804,0.97544,1.57079,0.00001,-0.14514,-0.37992,0.04601,,,,,,,,,,,,,,,,,,,,,,,,,,0,0,0,0,0
2.2572,1783189318.5715,1,1,1.0000,0.0000,1.44682,0.23157,-2.77804,0.97544,1.57079,0.00001,-0.14514,-0.37992,0.04601,,,,,,,,,,,,,,,,,,,,,,,,,,0,0,0,0,0
2.2699,1783189318.5843,1,1,1.0000,0.0000,1.44682,0.23154,-2.77804,0.97547,1.57079,0.00001,-0.14514,-0.37992,0.04600,,,,,,,,,,,,,,,,,,,,,,,,,,0,0,0,0,0
2.2771,1783189318.5915,1,1,1.0000,0.0000,1.44682,0.23154,-2.77804,0.97547,1.57079,0.00001,-0.14514,-0.37992,0.04600,,,,,,,,,,,,,,,,,,,,,,,,,,0,0,0,0,0
2.3695,1783189318.6838,1,1,1.0000,0.0000,1.44682,0.23141,-2.77808,0.97563,1.57079,0.00001,-0.14514,-0.37992,0.04597,,,,,,,,,,,,,,,,,,,,,,,,,,0,0,0,0,0
2.3698,1783189318.6842,1,1,1.0000,0.0000,1.44682,0.23141,-2.77808,0.97563,1.57079,0.00001,-0.14514,-0.37992,0.04597,,,,,,,,,,,,,,,,,,,,,,,,,,0,0,0,0,0
2.3700,1783189318.6844,1,1,1.0000,0.0000,1.44682,0.23141,-2.77808,0.97563,1.57079,0.00001,-0.14514,-0.37992,0.04597,,,,,,,,,,,,,,,,,,,,,,,,,,0,0,0,0,0
2.3704,1783189318.6847,1,1,1.0000,0.0000,1.44682,0.23141,-2.77808,0.97563,1.57079,0.00001,-0.14514,-0.37992,0.04597,,,,,,,,,,,,,,,,,,,,,,,,,,0,0,0,0,0
2.3708,1783189318.6851,1,1,1.0000,0.0000,1.44682,0.23141,-2.77808,0.97563,1.57079,0.00001,-0.14514,-0.37992,0.04597,,,,,,,,,,,,,,,,,,,,,,,,,,0,0,0,0,0
2.3711,1783189318.6855,1,1,1.0000,0.0000,1.44682,0.23141,-2.77808,0.97563,1.57079,0.00001,-0.14514,-0.37992,0.04597,,,,,,,,,,,,,,,,,,,,,,,,,,0,0,0,0,0
2.3717,1783189318.6860,1,1,1.0000,0.0000,1.44682,0.23141,-2.77808,0.97564,1.57079,0.00001,-0.14514,-0.37992,0.04596,,,,,,,,,,,,,,,,,,,,,,,,,,0,0,0,0,0
2.3750,1783189318.6894,1,1,1.0000,0.0000,1.44682,0.23141,-2.77808,0.97564,1.57079,0.00001,-0.14514,-0.37992,0.04596,,,,,,,,,,,,,,,,,,,,,,,,,,0,0,0,0,0
2.3756,1783189318.6900,1,1,1.0000,0.0000,1.44682,0.23140,-2.77808,0.97564,1.57079,0.00001,-0.14514,-0.37992,0.04596,,,,,,,,,,,,,,,,,,,,,,,,,,0,0,0,0,0
2.3775,1783189318.6919,1,1,1.0000,0.0000,1.44682,0.23140,-2.77808,0.97564,1.57079,0.00001,-0.14514,-0.37992,0.04596,,,,,,,,,,,,,,,,,,,,,,,,,,0,0,0,0,0
2.3778,1783189318.6922,1,1,1.0000,0.0000,1.44682,0.23140,-2.77808,0.97564,1.57079,0.00001,-0.14514,-0.37992,0.04596,,,,,,,,,,,,,,,,,,,,,,,,,,0,0,0,0,0
2.3998,1783189318.7141,1,1,1.0000,0.0000,1.44682,0.23137,-2.77809,0.97568,1.57079,0.00001,-0.14514,-0.37992,0.04596,,,,,,,,,,,,,,,,,,,,,,,,,,0,0,0,0,0
2.4001,1783189318.7144,1,1,1.0000,0.0000,1.44682,0.23137,-2.77809,0.97568,1.57079,0.00001,-0.14514,-0.37992,0.04596,,,,,,,,,,,,,,,,,,,,,,,,,,0,0,0,0,0
2.4004,1783189318.7148,1,1,1.0000,0.0000,1.44682,0.23137,-2.77809,0.97568,1.57079,0.00001,-0.14514,-0.37992,0.04596,,,,,,,,,,,,,,,,,,,,,,,,,,0,0,0,0,0
2.4006,1783189318.7150,1,1,1.0000,0.0000,1.44682,0.23137,-2.77809,0.97568,1.57079,0.00001,-0.14514,-0.37992,0.04596,,,,,,,,,,,,,,,,,,,,,,,,,,0,0,0,0,0
2.4081,1783189318.7224,1,1,1.0000,0.0000,1.44682,0.23136,-2.77809,0.97570,1.57079,0.00001,-0.14514,-0.37992,0.04595,,,,,,,,,,,,,,,,,,,,,,,,,,0,0,0,0,0
2.4085,1783189318.7228,1,1,1.0000,0.0000,1.44682,0.23136,-2.77809,0.97570,1.57079,0.00001,-0.14514,-0.37992,0.04595,,,,,,,,,,,,,,,,,,,,,,,,,,0,0,0,0,0
2.4182,1783189318.7325,1,1,1.0000,0.0000,1.44682,0.23134,-2.77810,0.97572,1.57079,0.00001,-0.14514,-0.37992,0.04595,,,,,,,,,,,,,,,,,,,,,,,,,,0,0,0,0,0
2.4268,1783189318.7412,1,1,1.0000,0.0000,1.44682,0.23133,-2.77810,0.97573,1.57079,0.00001,-0.14514,-0.37992,0.04595,,,,,,,,,,,,,,,,,,,,,,,,,,0,0,0,0,0
2.4273,1783189318.7416,1,1,1.0000,0.0000,1.44682,0.23133,-2.77810,0.97573,1.57079,0.00001,-0.14514,-0.37992,0.04595,,,,,,,,,,,,,,,,,,,,,,,,,,0,0,0,0,0
2.4423,1783189318.7567,1,1,1.0000,0.0000,1.44682,0.23131,-2.77810,0.97576,1.57079,0.00001,-0.14514,-0.37992,0.04594,,,,,,,,,,,,,,,,,,,,,,,,,,0,0,0,0,0
2.4569,1783189318.7713,1,1,1.0000,0.0000,1.44682,0.23130,-2.77811,0.97578,1.57079,0.00001,-0.14514,-0.37992,0.04594,,,,,,,,,,,,,,,,,,,,,,,,,,0,0,0,0,0
2.4621,1783189318.7765,1,1,1.0000,0.0000,1.44682,0.23129,-2.77811,0.97578,1.57079,0.00001,-0.14514,-0.37992,0.04593,,,,,,,,,,,,,,,,,,,,,,,,,,0,0,0,0,0
2.4751,1783189318.7894,1,1,1.0000,0.0000,1.44682,0.23127,-2.77811,0.97581,1.57079,0.00001,-0.14514,-0.37992,0.04593,,,,,,,,,,,,,,,,,,,,,,,,,,0,0,0,0,0
2.4853,1783189318.7996,1,1,1.0000,0.0000,1.44682,0.23125,-2.77812,0.97583,1.57079,0.00001,-0.14514,-0.37992,0.04592,,,,,,,,,,,,,,,,,,,,,,,,,,0,0,0,0,0
2.5049,1783189318.8193,1,1,1.0000,0.0000,1.44682,0.23123,-2.77813,0.97587,1.57079,0.00001,-0.14514,-0.37992,0.04592,,,,,,,,,,,,,,,,,,,,,,,,,,0,0,0,0,0
2.5052,1783189318.8195,1,1,1.0000,0.0000,1.44682,0.23123,-2.77813,0.97587,1.57079,0.00001,-0.14514,-0.37992,0.04592,,,,,,,,,,,,,,,,,,,,,,,,,,0,0,0,0,0
2.5118,1783189318.8262,1,1,1.0000,0.0000,1.44682,0.23121,-2.77813,0.97589,1.57079,0.00001,-0.14514,-0.37992,0.04591,,,,,,,,,,,,,,,,,,,,,,,,,,0,0,0,0,0
2.5121,1783189318.8264,1,1,1.0000,0.0000,1.44682,0.23121,-2.77813,0.97589,1.57079,0.00001,-0.14514,-0.37992,0.04591,,,,,,,,,,,,,,,,,,,,,,,,,,0,0,0,0,0
2.5251,1783189318.8394,1,1,1.0000,0.0000,1.44682,0.23120,-2.77813,0.97589,1.57079,0.00001,-0.14514,-0.37992,0.04591,,,,,,,,,,,,,,,,,,,,,,,,,,0,0,0,0,0
2.5318,1783189318.8461,1,1,1.0000,0.0000,1.44682,0.23119,-2.77813,0.97591,1.57079,0.00001,-0.14514,-0.37992,0.04591,,,,,,,,,,,,,,,,,,,,,,,,,,0,0,0,0,0
2.5322,1783189318.8465,1,1,1.0000,0.0000,1.44682,0.23119,-2.77813,0.97591,1.57079,0.00001,-0.14514,-0.37992,0.04591,,,,,,,,,,,,,,,,,,,,,,,,,,0,0,0,0,0
2.5448,1783189318.8591,1,1,1.0000,0.0000,1.44682,0.23118,-2.77814,0.97593,1.57079,0.00001,-0.14514,-0.37992,0.04590,,,,,,,,,,,,,,,,,,,,,,,,,,0,0,0,0,0
2.5512,1783189318.8655,1,1,1.0000,0.0000,1.44682,0.23118,-2.77814,0.97593,1.57079,0.00001,-0.14514,-0.37992,0.04590,,,,,,,,,,,,,,,,,,,,,,,,,,0,0,0,0,0
2.5609,1783189318.8752,1,1,1.0000,0.0000,1.44682,0.23116,-2.77814,0.97595,1.57079,0.00001,-0.14514,-0.37992,0.04590,,,,,,,,,,,,,,,,,,,,,,,,,,0,0,0,0,0
2.5709,1783189318.8853,1,1,1.0000,0.0000,1.44682,0.23114,-2.77815,0.97597,1.57079,0.00001,-0.14514,-0.37992,0.04589,,,,,,,,,,,,,,,,,,,,,,,,,,0,0,0,0,0
2.5850,1783189318.8993,1,1,1.0000,0.0000,1.44682,0.23113,-2.77815,0.97599,1.57079,0.00001,-0.14514,-0.37992,0.04589,,,,,,,,,,,,,,,,,,,,,,,,,,0,0,0,0,0
2.6027,1783189318.9171,1,1,1.0000,0.0000,1.44682,0.23111,-2.77816,0.97602,1.57079,0.00001,-0.14514,-0.37992,0.04589,,,,,,,,,,,,,,,,,,,,,,,,,,0,0,0,0,0
2.6031,1783189318.9175,1,1,1.0000,0.0000,1.44682,0.23111,-2.77816,0.97602,1.57079,0.00001,-0.14514,-0.37992,0.04589,,,,,,,,,,,,,,,,,,,,,,,,,,0,0,0,0,0
2.6112,1783189318.9256,1,1,1.0000,0.0000,1.44682,0.23110,-2.77816,0.97602,1.57079,0.00001,-0.14514,-0.37992,0.04588,,,,,,,,,,,,,,,,,,,,,,,,,,0,0,0,0,0
2.6119,1783189318.9262,1,1,1.0000,0.0000,1.44682,0.23110,-2.77816,0.97603,1.57079,0.00001,-0.14514,-0.37992,0.04588,,,,,,,,,,,,,,,,,,,,,,,,,,0,0,0,0,0
2.6225,1783189318.9368,1,1,1.0000,0.0000,1.44682,0.23109,-2.77816,0.97604,1.57079,0.00001,-0.14514,-0.37992,0.04588,,,,,,,,,,,,,,,,,,,,,,,,,,0,0,0,0,0
2.6229,1783189318.9372,1,1,1.0000,0.0000,1.44682,0.23109,-2.77816,0.97604,1.57079,0.00001,-0.14514,-0.37992,0.04588,,,,,,,,,,,,,,,,,,,,,,,,,,0,0,0,0,0
2.6321,1783189318.9464,1,1,1.0000,0.0000,1.44682,0.23106,-2.77817,0.97608,1.57079,0.00001,-0.14514,-0.37992,0.04587,,,,,,,,,,,,,,,,,,,,,,,,,,0,0,0,0,0
2.6324,1783189318.9468,1,1,1.0000,0.0000,1.44682,0.23106,-2.77817,0.97608,1.57079,0.00001,-0.14514,-0.37992,0.04587,,,,,,,,,,,,,,,,,,,,,,,,,,0,0,0,0,0
2.6480,1783189318.9623,1,1,1.0000,0.0000,1.44682,0.23105,-2.77817,0.97609,1.57079,0.00001,-0.14514,-0.37992,0.04587,,,,,,,,,,,,,,,,,,,,,,,,,,0,0,0,0,0
2.6519,1783189318.9663,1,1,1.0000,0.0000,1.44682,0.23104,-2.77817,0.97609,1.57079,0.00001,-0.14514,-0.37992,0.04587,,,,,,,,,,,,,,,,,,,,,,,,,,0,0,0,0,0
2.6522,1783189318.9665,1,1,1.0000,0.0000,1.44682,0.23104,-2.77817,0.97609,1.57079,0.00001,-0.14514,-0.37992,0.04587,,,,,,,,,,,,,,,,,,,,,,,,,,0,0,0,0,0
2.6631,1783189318.9774,1,1,1.0000,0.0000,1.44682,0.23103,-2.77818,0.97611,1.57079,0.00001,-0.14514,-0.37992,0.04587,,,,,,,,,,,,,,,,,,,,,,,,,,0,0,0,0,0
2.6635,1783189318.9779,1,1,1.0000,0.0000,1.44682,0.23103,-2.77818,0.97611,1.57079,0.00001,-0.14514,-0.37992,0.04587,,,,,,,,,,,,,,,,,,,,,,,,,,0,0,0,0,0
2.6712,1783189318.9855,1,1,1.0000,0.0000,1.44682,0.23103,-2.77818,0.97611,1.57079,0.00001,-0.14514,-0.37992,0.04587,,,,,,,,,,,,,,,,,,,,,,,,,,0,0,0,0,0
2.6721,1783189318.9864,1,1,1.0000,0.0000,1.44682,0.23103,-2.77818,0.97612,1.57079,0.00001,-0.14514,-0.37992,0.04586,,,,,,,,,,,,,,,,,,,,,,,,,,0,0,0,0,0
2.6810,1783189318.9953,1,1,1.0000,0.0000,1.44682,0.23101,-2.77818,0.97614,1.57079,0.00001,-0.14514,-0.37992,0.04586,,,,,,,,,,,,,,,,,,,,,,,,,,0,0,0,0,0
2.6814,1783189318.9957,1,1,1.0000,0.0000,1.44682,0.23101,-2.77818,0.97614,1.57079,0.00001,-0.14514,-0.37992,0.04586,,,,,,,,,,,,,,,,,,,,,,,,,,0,0,0,0,0
2.6923,1783189319.0067,1,1,1.0000,0.0000,1.44682,0.23098,-2.77819,0.97617,1.57079,0.00001,-0.14514,-0.37992,0.04585,,,,,,,,,,,,,,,,,,,,,,,,,,0,0,0,0,0
2.7060,1783189319.0203,1,1,1.0000,0.0000,1.44682,0.23098,-2.77819,0.97617,1.57079,0.00001,-0.14514,-0.37992,0.04585,,,,,,,,,,,,,,,,,,,,,,,,,,0,0,0,0,0
2.7064,1783189319.0208,1,1,1.0000,0.0000,1.44682,0.23098,-2.77819,0.97617,1.57079,0.00001,-0.14514,-0.37992,0.04585,,,,,,,,,,,,,,,,,,,,,,,,,,0,0,0,0,0
2.7112,1783189319.0255,1,1,1.0000,0.0000,1.44682,0.23098,-2.77819,0.97618,1.57079,0.00001,-0.14514,-0.37992,0.04585,,,,,,,,,,,,,,,,,,,,,,,,,,0,0,0,0,0
2.7210,1783189319.0354,1,1,1.0000,0.0000,1.44682,0.23096,-2.77819,0.97621,1.57079,0.00001,-0.14514,-0.37992,0.04585,,,,,,,,,,,,,,,,,,,,,,,,,,0,0,0,0,0
2.7310,1783189319.0454,1,1,1.0000,0.0000,1.44682,0.23095,-2.77819,0.97621,1.57079,0.00001,-0.14514,-0.37992,0.04585,,,,,,,,,,,,,,,,,,,,,,,,,,0,0,0,0,0
2.7460,1783189319.0603,1,1,1.0000,0.0000,1.44682,0.23093,-2.77820,0.97624,1.57079,0.00001,-0.14514,-0.37992,0.04584,,,,,,,,,,,,,,,,,,,,,,,,,,0,0,0,0,0
2.7527,1783189319.0671,1,1,1.0000,0.0000,1.44682,0.23091,-2.77821,0.97626,1.57079,0.00001,-0.14514,-0.37992,0.04583,,,,,,,,,,,,,,,,,,,,,,,,,,0,0,0,0,0
2.7642,1783189319.0786,1,1,1.0000,0.0000,1.44682,0.23091,-2.77821,0.97627,1.57079,0.00001,-0.14514,-0.37992,0.04583,,,,,,,,,,,,,,,,,,,,,,,,,,0,0,0,0,0
2.7731,1783189319.0874,1,1,1.0000,0.0000,1.44682,0.23090,-2.77821,0.97628,1.57079,0.00001,-0.14514,-0.37992,0.04583,,,,,,,,,,,,,,,,,,,,,,,,,,0,0,0,0,0
2.7830,1783189319.0974,1,1,1.0000,0.0000,1.44682,0.23088,-2.77821,0.97630,1.57079,0.00001,-0.14513,-0.37992,0.04583,,,,,,,,,,,,,,,,,,,,,,,,,,0,0,0,0,0
2.7943,1783189319.1087,1,1,1.0000,0.0000,1.44682,0.23088,-2.77822,0.97631,1.57079,0.00001,-0.14513,-0.37992,0.04583,,,,,,,,,,,,,,,,,,,,,,,,,,0,0,0,0,0
2.8090,1783189319.1233,1,1,1.0000,0.0000,1.44682,0.23084,-2.77822,0.97635,1.57079,0.00001,-0.14513,-0.37992,0.04582,,,,,,,,,,,,,,,,,,,,,,,,,,0,0,0,0,0
2.8109,1783189319.1252,1,1,1.0000,0.0000,1.44682,0.23084,-2.77822,0.97635,1.57079,0.00001,-0.14513,-0.37992,0.04582,,,,,,,,,,,,,,,,,,,,,,,,,,0,0,0,0,0
2.8113,1783189319.1256,1,1,1.0000,0.0000,1.44682,0.23084,-2.77822,0.97635,1.57079,0.00001,-0.14513,-0.37992,0.04582,,,,,,,,,,,,,,,,,,,,,,,,,,0,0,0,0,0
2.8218,1783189319.1361,1,1,1.0000,0.0000,1.44682,0.23084,-2.77823,0.97636,1.57079,0.00001,-0.14513,-0.37992,0.04581,,,,,,,,,,,,,,,,,,,,,,,,,,0,0,0,0,0
2.8334,1783189319.1477,1,1,1.0000,0.0000,1.44682,0.23082,-2.77823,0.97637,1.57079,0.00001,-0.14513,-0.37992,0.04581,,,,,,,,,,,,,,,,,,,,,,,,,,0,0,0,0,0
2.8413,1783189319.1556,1,1,1.0000,0.0000,1.44682,0.23081,-2.77823,0.97639,1.57079,0.00001,-0.14513,-0.37992,0.04581,,,,,,,,,,,,,,,,,,,,,,,,,,0,0,0,0,0
2.8563,1783189319.1706,1,1,1.0000,0.0000,1.44682,0.23080,-2.77824,0.97641,1.57079,0.00001,-0.14513,-0.37992,0.04580,,,,,,,,,,,,,,,,,,,,,,,,,,0,0,0,0,0
2.8566,1783189319.1709,1,1,1.0000,0.0000,1.44682,0.23080,-2.77824,0.97641,1.57079,0.00001,-0.14513,-0.37992,0.04580,,,,,,,,,,,,,,,,,,,,,,,,,,0,0,0,0,0
2.8664,1783189319.1807,1,1,1.0000,0.0000,1.44682,0.23078,-2.77824,0.97643,1.57079,0.00001,-0.14513,-0.37992,0.04580,,,,,,,,,,,,,,,,,,,,,,,,,,0,0,0,0,0
2.8668,1783189319.1812,1,1,1.0000,0.0000,1.44682,0.23078,-2.77824,0.97643,1.57079,0.00001,-0.14513,-0.37992,0.04580,,,,,,,,,,,,,,,,,,,,,,,,,,0,0,0,0,0
2.8723,1783189319.1866,1,1,1.0000,0.0000,1.44682,0.23076,-2.77824,0.97645,1.57079,0.00001,-0.14513,-0.37992,0.04580,,,,,,,,,,,,,,,,,,,,,,,,,,0,0,0,0,0
2.8810,1783189319.1954,1,1,1.0000,0.0000,1.44682,0.23076,-2.77824,0.97645,1.57079,0.00001,-0.14513,-0.37992,0.04580,,,,,,,,,,,,,,,,,,,,,,,,,,0,0,0,0,0
2.8924,1783189319.2067,1,1,1.0000,0.0000,1.44682,0.23075,-2.77825,0.97647,1.57079,0.00001,-0.14513,-0.37992,0.04579,,,,,,,,,,,,,,,,,,,,,,,,,,0,0,0,0,0
2.8927,1783189319.2071,1,1,1.0000,0.0000,1.44682,0.23075,-2.77825,0.97647,1.57079,0.00001,-0.14513,-0.37992,0.04579,,,,,,,,,,,,,,,,,,,,,,,,,,0,0,0,0,0
2.9073,1783189319.2216,1,1,1.0000,0.0000,1.44682,0.23073,-2.77825,0.97649,1.57079,0.00001,-0.14513,-0.37992,0.04579,,,,,,,,,,,,,,,,,,,,,,,,,,0,0,0,0,0
2.9146,1783189319.2290,1,1,1.0000,0.0000,1.44682,0.23073,-2.77825,0.97649,1.57079,0.00001,-0.14513,-0.37992,0.04579,,,,,,,,,,,,,,,,,,,,,,,,,,0,0,0,0,0
2.9151,1783189319.2294,1,1,1.0000,0.0000,1.44682,0.23073,-2.77825,0.97649,1.57079,0.00001,-0.14513,-0.37992,0.04579,,,,,,,,,,,,,,,,,,,,,,,,,,0,0,0,0,0
2.9211,1783189319.2354,1,1,1.0000,0.0000,1.44682,0.23071,-2.77826,0.97651,1.57079,0.00001,-0.14513,-0.37992,0.04578,,,,,,,,,,,,,,,,,,,,,,,,,,0,0,0,0,0
2.9311,1783189319.2455,1,1,1.0000,0.0000,1.44682,0.23070,-2.77826,0.97653,1.57079,0.00001,-0.14513,-0.37992,0.04578,,,,,,,,,,,,,,,,,,,,,,,,,,0,0,0,0,0
2.9442,1783189319.2585,1,1,1.0000,0.0000,1.44682,0.23069,-2.77826,0.97654,1.57079,0.00001,-0.14513,-0.37992,0.04578,,,,,,,,,,,,,,,,,,,,,,,,,,0,0,0,0,0
2.9544,1783189319.2688,1,1,1.0000,0.0000,1.44682,0.23067,-2.77827,0.97656,1.57079,0.00001,-0.14513,-0.37992,0.04577,,,,,,,,,,,,,,,,,,,,,,,,,,0,0,0,0,0
2.9691,1783189319.2835,1,1,1.0000,0.0000,1.44682,0.23066,-2.77827,0.97658,1.57079,0.00001,-0.14513,-0.37992,0.04577,,,,,,,,,,,,,,,,,,,,,,,,,,0,0,0,0,0
2.9708,1783189319.2851,1,1,1.0000,0.0000,1.44682,0.23066,-2.77827,0.97658,1.57079,0.00001,-0.14513,-0.37992,0.04577,,,,,,,,,,,,,,,,,,,,,,,,,,0,0,0,0,0
2.9710,1783189319.2854,1,1,1.0000,0.0000,1.44682,0.23066,-2.77827,0.97658,1.57079,0.00001,-0.14513,-0.37992,0.04577,,,,,,,,,,,,,,,,,,,,,,,,,,0,0,0,0,0
2.9829,1783189319.2973,1,1,1.0000,0.0000,1.44682,0.23064,-2.77828,0.97660,1.57079,0.00001,-0.14513,-0.37992,0.04576,,,,,,,,,,,,,,,,,,,,,,,,,,0,0,0,0,0
2.9911,1783189319.3054,1,1,1.0000,0.0000,1.44682,0.23062,-2.77828,0.97663,1.57079,0.00001,-0.14513,-0.37992,0.04576,,,,,,,,,,,,,,,,,,,,,,,,,,0,0,0,0,0
3.0134,1783189319.3277,1,1,1.0000,0.0000,1.44682,0.23060,-2.77829,0.97665,1.57079,0.00001,-0.14513,-0.37992,0.04575,,,,,,,,,,,,,,,,,,,,,,,,,,0,0,0,0,0
3.0138,1783189319.3281,1,1,1.0000,0.0000,1.44682,0.23060,-2.77829,0.97665,1.57079,0.00001,-0.14513,-0.37992,0.04575,,,,,,,,,,,,,,,,,,,,,,,,,,0,0,0,0,0
3.0141,1783189319.3284,1,1,1.0000,0.0000,1.44682,0.23060,-2.77829,0.97665,1.57079,0.00001,-0.14513,-0.37992,0.04575,,,,,,,,,,,,,,,,,,,,,,,,,,0,0,0,0,0
3.0247,1783189319.3391,1,1,1.0000,0.0000,1.44682,0.23058,-2.77829,0.97667,1.57079,0.00001,-0.14513,-0.37992,0.04575,,,,,,,,,,,,,,,,,,,,,,,,,,0,0,0,0,0
3.0310,1783189319.3453,1,1,1.0000,0.0000,1.44682,0.23058,-2.77829,0.97667,1.57079,0.00001,-0.14513,-0.37992,0.04575,,,,,,,,,,,,,,,,,,,,,,,,,,0,0,0,0,0
3.0313,1783189319.3456,1,1,1.0000,0.0000,1.44682,0.23058,-2.77829,0.97667,1.57079,0.00001,-0.14513,-0.37992,0.04575,,,,,,,,,,,,,,,,,,,,,,,,,,0,0,0,0,0
3.0409,1783189319.3553,1,1,1.0000,0.0000,1.44682,0.23056,-2.77830,0.97670,1.57079,0.00001,-0.14513,-0.37992,0.04574,,,,,,,,,,,,,,,,,,,,,,,,,,0,0,0,0,0
3.0413,1783189319.3556,1,1,1.0000,0.0000,1.44682,0.23056,-2.77830,0.97670,1.57079,0.00001,-0.14513,-0.37992,0.04574,,,,,,,,,,,,,,,,,,,,,,,,,,0,0,0,0,0
3.0531,1783189319.3674,1,1,1.0000,0.0000,1.44682,0.23054,-2.77830,0.97673,1.57079,0.00001,-0.14513,-0.37992,0.04574,,,,,,,,,,,,,,,,,,,,,,,,,,0,0,0,0,0
3.0617,1783189319.3761,1,1,1.0000,0.0000,1.44682,0.23054,-2.77830,0.97673,1.57079,0.00001,-0.14513,-0.37992,0.04574,,,,,,,,,,,,,,,,,,,,,,,,,,0,0,0,0,0
3.0622,1783189319.3765,1,1,1.0000,0.0000,1.44682,0.23054,-2.77830,0.97673,1.57079,0.00001,-0.14513,-0.37992,0.04574,,,,,,,,,,,,,,,,,,,,,,,,,,0,0,0,0,0
3.0716,1783189319.3860,1,1,1.0000,0.0000,1.44682,0.23053,-2.77830,0.97674,1.57079,0.00001,-0.14513,-0.37992,0.04574,,,,,,,,,,,,,,,,,,,,,,,,,,0,0,0,0,0
3.0720,1783189319.3863,1,1,1.0000,0.0000,1.44682,0.23053,-2.77830,0.97674,1.57079,0.00001,-0.14513,-0.37992,0.04574,,,,,,,,,,,,,,,,,,,,,,,,,,0,0,0,0,0
3.0810,1783189319.3953,1,1,1.0000,0.0000,1.44682,0.23051,-2.77831,0.97677,1.57079,0.00001,-0.14513,-0.37992,0.04573,,,,,,,,,,,,,,,,,,,,,,,,,,0,0,0,0,0
3.0814,1783189319.3957,1,1,1.0000,0.0000,1.44682,0.23051,-2.77831,0.97677,1.57079,0.00001,-0.14513,-0.37992,0.04573,,,,,,,,,,,,,,,,,,,,,,,,,,0,0,0,0,0
3.0924,1783189319.4067,1,1,1.0000,0.0000,1.44682,0.23050,-2.77831,0.97677,1.57079,0.00001,-0.14513,-0.37992,0.04573,,,,,,,,,,,,,,,,,,,,,,,,,,0,0,0,0,0
3.1007,1783189319.4150,1,1,1.0000,0.0000,1.44682,0.23049,-2.77831,0.97679,1.57079,0.00001,-0.14513,-0.37992,0.04573,,,,,,,,,,,,,,,,,,,,,,,,,,0,0,0,0,0
3.1010,1783189319.4153,1,1,1.0000,0.0000,1.44682,0.23049,-2.77831,0.97679,1.57079,0.00001,-0.14513,-0.37992,0.04573,,,,,,,,,,,,,,,,,,,,,,,,,,0,0,0,0,0
3.1180,1783189319.4323,1,1,1.0000,0.0000,1.44682,0.23046,-2.77832,0.97682,1.57079,0.00001,-0.14513,-0.37992,0.04572,,,,,,,,,,,,,,,,,,,,,,,,,,0,0,0,0,0
3.1207,1783189319.4351,1,1,1.0000,0.0000,1.44682,0.23046,-2.77832,0.97682,1.57079,0.00001,-0.14513,-0.37992,0.04572,,,,,,,,,,,,,,,,,,,,,,,,,,0,0,0,0,0
3.1211,1783189319.4355,1,1,1.0000,0.0000,1.44682,0.23046,-2.77832,0.97682,1.57079,0.00001,-0.14513,-0.37992,0.04572,,,,,,,,,,,,,,,,,,,,,,,,,,0,0,0,0,0
3.1310,1783189319.4454,1,1,1.0000,0.0000,1.44682,0.23046,-2.77832,0.97683,1.57079,0.00001,-0.14513,-0.37992,0.04572,,,,,,,,,,,,,,,,,,,,,,,,,,0,0,0,0,0
3.1414,1783189319.4557,1,1,1.0000,0.0000,1.44682,0.23044,-2.77833,0.97686,1.57079,0.00001,-0.14513,-0.37992,0.04571,,,,,,,,,,,,,,,,,,,,,,,,,,0,0,0,0,0
3.1512,1783189319.4656,1,1,1.0000,0.0000,1.44682,0.23043,-2.77833,0.97686,1.57079,0.00001,-0.14513,-0.37992,0.04571,,,,,,,,,,,,,,,,,,,,,,,,,,0,0,0,0,0
3.1515,1783189319.4659,1,1,1.0000,0.0000,1.44682,0.23043,-2.77833,0.97686,1.57079,0.00001,-0.14513,-0.37992,0.04571,,,,,,,,,,,,,,,,,,,,,,,,,,0,0,0,0,0
3.1617,1783189319.4761,1,1,1.0000,0.0000,1.44682,0.23042,-2.77833,0.97688,1.57079,0.00001,-0.14513,-0.37992,0.04571,,,,,,,,,,,,,,,,,,,,,,,,,,0,0,0,0,0
3.1737,1783189319.4881,1,1,1.0000,0.0000,1.44682,0.23039,-2.77834,0.97692,1.57079,0.00001,-0.14513,-0.37992,0.04570,,,,,,,,,,,,,,,,,,,,,,,,,,0,0,0,0,0
3.1839,1783189319.4982,1,1,1.0000,0.0000,1.44682,0.23039,-2.77834,0.97692,1.57079,0.00001,-0.14513,-0.37992,0.04570,,,,,,,,,,,,,,,,,,,,,,,,,,0,0,0,0,0
3.1913,1783189319.5056,1,1,1.0000,0.0000,1.44682,0.23038,-2.77834,0.97693,1.57079,0.00001,-0.14513,-0.37992,0.04570,,,,,,,,,,,,,,,,,,,,,,,,,,0,0,0,0,0
3.2026,1783189319.5169,1,1,1.0000,0.0000,1.44682,0.23035,-2.77835,0.97696,1.57079,0.00001,-0.14513,-0.37992,0.04569,,,,,,,,,,,,,,,,,,,,,,,,,,0,0,0,0,0
3.2140,1783189319.5284,1,1,1.0000,0.0000,1.44682,0.23035,-2.77835,0.97697,1.57079,0.00001,-0.14513,-0.37992,0.04569,,,,,,,,,,,,,,,,,,,,,,,,,,0,0,0,0,0
3.2217,1783189319.5361,1,1,1.0000,0.0000,1.44682,0.23033,-2.77835,0.97699,1.57079,0.00001,-0.14513,-0.37992,0.04568,,,,,,,,,,,,,,,,,,,,,,,,,,0,0,0,0,0
3.2308,1783189319.5452,1,1,1.0000,0.0000,1.44682,0.23032,-2.77836,0.97701,1.57079,0.00001,-0.14513,-0.37992,0.04568,,,,,,,,,,,,,,,,,,,,,,,,,,0,0,0,0,0
3.2313,1783189319.5456,1,1,1.0000,0.0000,1.44682,0.23032,-2.77836,0.97701,1.57079,0.00001,-0.14513,-0.37992,0.04568,,,,,,,,,,,,,,,,,,,,,,,,,,0,0,0,0,0
3.2417,1783189319.5560,1,1,1.0000,0.0000,1.44682,0.23031,-2.77836,0.97702,1.57079,0.00001,-0.14513,-0.37992,0.04568,,,,,,,,,,,,,,,,,,,,,,,,,,0,0,0,0,0
3.2519,1783189319.5662,1,1,1.0000,0.0000,1.44682,0.23030,-2.77836,0.97703,1.57079,0.00001,-0.14513,-0.37992,0.04567,,,,,,,,,,,,,,,,,,,,,,,,,,0,0,0,0,0
3.2618,1783189319.5762,1,1,1.0000,0.0000,1.44682,0.23027,-2.77837,0.97706,1.57079,0.00001,-0.14513,-0.37992,0.04567,,,,,,,,,,,,,,,,,,,,,,,,,,0,0,0,0,0
3.2740,1783189319.5884,1,1,1.0000,0.0000,1.44682,0.23027,-2.77837,0.97707,1.57079,0.00001,-0.14513,-0.37992,0.04567,,,,,,,,,,,,,,,,,,,,,,,,,,0,0,0,0,0
3.2811,1783189319.5955,1,1,1.0000,0.0000,1.44682,0.23025,-2.77837,0.97709,1.57079,0.00001,-0.14513,-0.37992,0.04566,,,,,,,,,,,,,,,,,,,,,,,,,,0,0,0,0,0
3.2937,1783189319.6081,1,1,1.0000,0.0000,1.44682,0.23023,-2.77838,0.97712,1.57079,0.00001,-0.14513,-0.37992,0.04566,,,,,,,,,,,,,,,,,,,,,,,,,,0,0,0,0,0
3.3047,1783189319.6191,1,1,1.0000,0.0000,1.44682,0.23022,-2.77838,0.97713,1.57079,0.00001,-0.14513,-0.37992,0.04566,,,,,,,,,,,,,,,,,,,,,,,,,,0,0,0,0,0
3.3208,1783189319.6352,1,1,1.0000,0.0000,1.44682,0.23019,-2.77839,0.97717,1.57079,0.00001,-0.14513,-0.37992,0.04565,,,,,,,,,,,,,,,,,,,,,,,,,,0,0,0,0,0
3.3211,1783189319.6354,1,1,1.0000,0.0000,1.44682,0.23019,-2.77839,0.97717,1.57079,0.00001,-0.14513,-0.37992,0.04565,,,,,,,,,,,,,,,,,,,,,,,,,,0,0,0,0,0
3.3215,1783189319.6359,1,1,1.0000,0.0000,1.44682,0.23019,-2.77839,0.97717,1.57079,0.00001,-0.14513,-0.37992,0.04565,,,,,,,,,,,,,,,,,,,,,,,,,,0,0,0,0,0
3.3218,1783189319.6361,1,1,1.0000,0.0000,1.44682,0.23019,-2.77839,0.97717,1.57079,0.00001,-0.14513,-0.37992,0.04565,,,,,,,,,,,,,,,,,,,,,,,,,,0,0,0,0,0
3.3308,1783189319.6451,1,1,1.0000,0.0000,1.44682,0.23019,-2.77839,0.97717,1.57079,0.00001,-0.14513,-0.37992,0.04565,,,,,,,,,,,,,,,,,,,,,,,,,,0,0,0,0,0
3.3318,1783189319.6461,1,1,1.0000,0.0000,1.44682,0.23019,-2.77839,0.97717,1.57079,0.00001,-0.14513,-0.37992,0.04565,,,,,,,,,,,,,,,,,,,,,,,,,,0,0,0,0,0
3.3464,1783189319.6607,1,1,1.0000,0.0000,1.44682,0.23016,-2.77840,0.97720,1.57079,0.00001,-0.14513,-0.37992,0.04564,,,,,,,,,,,,,,,,,,,,,,,,,,0,0,0,0,0
3.3509,1783189319.6652,1,1,1.0000,0.0000,1.44682,0.23016,-2.77840,0.97721,1.57079,0.00001,-0.14513,-0.37992,0.04564,,,,,,,,,,,,,,,,,,,,,,,,,,0,0,0,0,0
3.3512,1783189319.6655,1,1,1.0000,0.0000,1.44682,0.23016,-2.77840,0.97721,1.57079,0.00001,-0.14513,-0.37992,0.04564,,,,,,,,,,,,,,,,,,,,,,,,,,0,0,0,0,0
3.3643,1783189319.6787,1,1,1.0000,0.0000,1.44682,0.23015,-2.77840,0.97722,1.57079,0.00001,-0.14513,-0.37992,0.04564,,,,,,,,,,,,,,,,,,,,,,,,,,0,0,0,0,0
3.3717,1783189319.6861,1,1,1.0000,0.0000,1.44682,0.23013,-2.77841,0.97724,1.57079,0.00001,-0.14513,-0.37992,0.04563,,,,,,,,,,,,,,,,,,,,,,,,,,0,0,0,0,0
3.3809,1783189319.6953,1,1,1.0000,0.0000,1.44682,0.23011,-2.77841,0.97727,1.57079,0.00001,-0.14513,-0.37992,0.04563,,,,,,,,,,,,,,,,,,,,,,,,,,0,0,0,0,0
3.3813,1783189319.6956,1,1,1.0000,0.0000,1.44682,0.23011,-2.77841,0.97727,1.57079,0.00001,-0.14513,-0.37992,0.04563,,,,,,,,,,,,,,,,,,,,,,,,,,0,0,0,0,0
3.3967,1783189319.7110,1,1,1.0000,0.0000,1.44682,0.23010,-2.77841,0.97728,1.57079,0.00001,-0.14513,-0.37992,0.04562,,,,,,,,,,,,,,,,,,,,,,,,,,0,0,0,0,0
3.4020,1783189319.7164,1,1,1.0000,0.0000,1.44682,0.23009,-2.77842,0.97729,1.57079,0.00001,-0.14513,-0.37992,0.04562,,,,,,,,,,,,,,,,,,,,,,,,,,0,0,0,0,0
3.4232,1783189319.7376,1,1,1.0000,0.0000,1.44682,0.23006,-2.77842,0.97733,1.57079,0.00001,-0.14513,-0.37992,0.04561,,,,,,,,,,,,,,,,,,,,,,,,,,0,0,0,0,0
3.4236,1783189319.7379,1,1,1.0000,0.0000,1.44682,0.23006,-2.77842,0.97733,1.57079,0.00001,-0.14513,-0.37992,0.04561,,,,,,,,,,,,,,,,,,,,,,,,,,0,0,0,0,0
3.4323,1783189319.7466,1,1,1.0000,0.0000,1.44682,0.23005,-2.77843,0.97734,1.57079,0.00001,-0.14513,-0.37992,0.04561,,,,,,,,,,,,,,,,,,,,,,,,,,0,0,0,0,0
3.4411,1783189319.7554,1,1,1.0000,0.0000,1.44682,0.23003,-2.77843,0.97737,1.57079,0.00001,-0.14513,-0.37992,0.04560,,,,,,,,,,,,,,,,,,,,,,,,,,0,0,0,0,0
3.4510,1783189319.7653,1,1,1.0000,0.0000,1.44682,0.23002,-2.77843,0.97738,1.57079,0.00001,-0.14513,-0.37992,0.04560,,,,,,,,,,,,,,,,,,,,,,,,,,0,0,0,0,0
3.4689,1783189319.7833,1,1,1.0000,0.0000,1.44682,0.23000,-2.77844,0.97741,1.57079,0.00001,-0.14513,-0.37992,0.04560,,,,,,,,,,,,,,,,,,,,,,,,,,0,0,0,0,0
3.4693,1783189319.7837,1,1,1.0000,0.0000,1.44682,0.23000,-2.77844,0.97741,1.57079,0.00001,-0.14513,-0.37992,0.04560,,,,,,,,,,,,,,,,,,,,,,,,,,0,0,0,0,0
3.4720,1783189319.7864,1,1,1.0000,0.0000,1.44682,0.23000,-2.77844,0.97741,1.57079,0.00001,-0.14513,-0.37992,0.04560,,,,,,,,,,,,,,,,,,,,,,,,,,0,0,0,0,0
3.4809,1783189319.7953,1,1,1.0000,0.0000,1.44682,0.22999,-2.77844,0.97742,1.57079,0.00001,-0.14513,-0.37992,0.04559,,,,,,,,,,,,,,,,,,,,,,,,,,0,0,0,0,0
3.4813,1783189319.7956,1,1,1.0000,0.0000,1.44682,0.22999,-2.77844,0.97742,1.57079,0.00001,-0.14513,-0.37992,0.04559,,,,,,,,,,,,,,,,,,,,,,,,,,0,0,0,0,0
3.4911,1783189319.8054,1,1,1.0000,0.0000,1.44682,0.22998,-2.77844,0.97743,1.57079,0.00001,-0.14513,-0.37992,0.04559,,,,,,,,,,,,,,,,,,,,,,,,,,0,0,0,0,0
3.5048,1783189319.8191,1,1,1.0000,0.0000,1.44682,0.22995,-2.77845,0.97747,1.57079,0.00001,-0.14513,-0.37992,0.04558,,,,,,,,,,,,,,,,,,,,,,,,,,0,0,0,0,0
3.5051,1783189319.8194,1,1,1.0000,0.0000,1.44682,0.22995,-2.77845,0.97747,1.57079,0.00001,-0.14513,-0.37992,0.04558,,,,,,,,,,,,,,,,,,,,,,,,,,0,0,0,0,0
3.5241,1783189319.8385,1,1,1.0000,0.0000,1.44682,0.22994,-2.77846,0.97749,1.57079,0.00001,-0.14513,-0.37992,0.04558,,,,,,,,,,,,,,,,,,,,,,,,,,0,0,0,0,0
3.5247,1783189319.8390,1,1,1.0000,0.0000,1.44682,0.22993,-2.77846,0.97749,1.57079,0.00001,-0.14513,-0.37992,0.04558,,,,,,,,,,,,,,,,,,,,,,,,,,0,0,0,0,0
3.5323,1783189319.8466,1,1,1.0000,0.0000,1.44682,0.22992,-2.77846,0.97750,1.57079,0.00001,-0.14513,-0.37992,0.04558,,,,,,,,,,,,,,,,,,,,,,,,,,0,0,0,0,0
3.5449,1783189319.8593,1,1,1.0000,0.0000,1.44682,0.22991,-2.77846,0.97752,1.57079,0.00001,-0.14513,-0.37992,0.04557,,,,,,,,,,,,,,,,,,,,,,,,,,0,0,0,0,0
3.5454,1783189319.8597,1,1,1.0000,0.0000,1.44682,0.22991,-2.77846,0.97752,1.57079,0.00001,-0.14513,-0.37992,0.04557,,,,,,,,,,,,,,,,,,,,,,,,,,0,0,0,0,0
3.5575,1783189319.8719,1,1,1.0000,0.0000,1.44682,0.22989,-2.77847,0.97755,1.57079,0.00001,-0.14513,-0.37992,0.04557,,,,,,,,,,,,,,,,,,,,,,,,,,0,0,0,0,0
3.5689,1783189319.8832,1,1,1.0000,0.0000,1.44682,0.22987,-2.77847,0.97757,1.57079,0.00001,-0.14513,-0.37992,0.04556,,,,,,,,,,,,,,,,,,,,,,,,,,0,0,0,0,0
3.5721,1783189319.8865,1,1,1.0000,0.0000,1.44682,0.22987,-2.77847,0.97757,1.57079,0.00001,-0.14513,-0.37992,0.04556,,,,,,,,,,,,,,,,,,,,,,,,,,0,0,0,0,0
3.5728,1783189319.8871,1,1,1.0000,0.0000,1.44682,0.22987,-2.77847,0.97757,1.57079,0.00001,-0.14513,-0.37992,0.04556,,,,,,,,,,,,,,,,,,,,,,,,,,0,0,0,0,0
3.5834,1783189319.8978,1,1,1.0000,0.0000,1.44682,0.22986,-2.77847,0.97758,1.57079,0.00001,-0.14513,-0.37992,0.04556,,,,,,,,,,,,,,,,,,,,,,,,,,0,0,0,0,0
3.5931,1783189319.9074,1,1,1.0000,0.0000,1.44682,0.22984,-2.77848,0.97760,1.57079,0.00001,-0.14513,-0.37992,0.04556,,,,,,,,,,,,,,,,,,,,,,,,,,0,0,0,0,0
3.6126,1783189319.9269,1,1,1.0000,0.0000,1.44682,0.22982,-2.77849,0.97763,1.57079,0.00001,-0.14513,-0.37992,0.04555,,,,,,,,,,,,,,,,,,,,,,,,,,0,0,0,0,0
3.6281,1783189319.9424,1,1,1.0000,0.0000,1.44682,0.22980,-2.77849,0.97766,1.57079,0.00001,-0.14513,-0.37992,0.04554,,,,,,,,,,,,,,,,,,,,,,,,,,0,0,0,0,0
3.6305,1783189319.9449,1,1,1.0000,0.0000,1.44682,0.22980,-2.77849,0.97766,1.57079,0.00001,-0.14513,-0.37992,0.04554,,,,,,,,,,,,,,,,,,,,,,,,,,0,0,0,0,0
3.6308,1783189319.9452,1,1,1.0000,0.0000,1.44682,0.22980,-2.77849,0.97766,1.57079,0.00001,-0.14513,-0.37992,0.04554,,,,,,,,,,,,,,,,,,,,,,,,,,0,0,0,0,0
3.6343,1783189319.9487,1,1,1.0000,0.0000,1.44682,0.22980,-2.77849,0.97766,1.57079,0.00001,-0.14513,-0.37992,0.04554,,,,,,,,,,,,,,,,,,,,,,,,,,0,0,0,0,0
3.6347,1783189319.9491,1,1,1.0000,0.0000,1.44682,0.22980,-2.77849,0.97766,1.57079,0.00001,-0.14513,-0.37992,0.04554,,,,,,,,,,,,,,,,,,,,,,,,,,0,0,0,0,0
3.6449,1783189319.9593,1,1,1.0000,0.0000,1.44682,0.22978,-2.77850,0.97768,1.57079,0.00001,-0.14513,-0.37992,0.04554,,,,,,,,,,,,,,,,,,,,,,,,,,0,0,0,0,0
3.6452,1783189319.9596,1,1,1.0000,0.0000,1.44682,0.22978,-2.77850,0.97768,1.57079,0.00001,-0.14513,-0.37992,0.04554,,,,,,,,,,,,,,,,,,,,,,,,,,0,0,0,0,0
3.6528,1783189319.9672,1,1,1.0000,0.0000,1.44682,0.22977,-2.77850,0.97770,1.57079,0.00001,-0.14513,-0.37992,0.04554,,,,,,,,,,,,,,,,,,,,,,,,,,0,0,0,0,0
3.6532,1783189319.9675,1,1,1.0000,0.0000,1.44682,0.22977,-2.77850,0.97770,1.57079,0.00001,-0.14513,-0.37992,0.04554,,,,,,,,,,,,,,,,,,,,,,,,,,0,0,0,0,0
3.6619,1783189319.9762,1,1,1.0000,0.0000,1.44682,0.22977,-2.77850,0.97770,1.57079,0.00001,-0.14513,-0.37992,0.04554,,,,,,,,,,,,,,,,,,,,,,,,,,0,0,0,0,0
3.6916,1783189320.0059,1,1,1.0000,0.0000,1.44682,0.22972,-2.77851,0.97776,1.57079,0.00001,-0.14513,-0.37992,0.04553,,,,,,,,,,,,,,,,,,,,,,,,,,0,0,0,0,0
3.6918,1783189320.0061,1,1,1.0000,0.0000,1.44682,0.22972,-2.77851,0.97776,1.57079,0.00001,-0.14513,-0.37992,0.04553,,,,,,,,,,,,,,,,,,,,,,,,,,0,0,0,0,0
3.7008,1783189320.0151,1,1,1.0000,0.0000,1.44682,0.22971,-2.77851,0.97777,1.57079,0.00001,-0.14513,-0.37992,0.04552,,,,,,,,,,,,,,,,,,,,,,,,,,0,0,0,0,0
3.7011,1783189320.0155,1,1,1.0000,0.0000,1.44682,0.22971,-2.77851,0.97777,1.57079,0.00001,-0.14513,-0.37992,0.04552,,,,,,,,,,,,,,,,,,,,,,,,,,0,0,0,0,0
3.7032,1783189320.0175,1,1,1.0000,0.0000,1.44682,0.22971,-2.77851,0.97777,1.57079,0.00001,-0.14513,-0.37992,0.04552,,,,,,,,,,,,,,,,,,,,,,,,,,0,0,0,0,0
3.7034,1783189320.0178,1,1,1.0000,0.0000,1.44682,0.22971,-2.77851,0.97777,1.57079,0.00001,-0.14513,-0.37992,0.04552,,,,,,,,,,,,,,,,,,,,,,,,,,0,0,0,0,0
3.7290,1783189320.0433,1,1,1.0000,0.0000,1.44682,0.22968,-2.77852,0.97781,1.57079,0.00001,-0.14513,-0.37992,0.04551,,,,,,,,,,,,,,,,,,,,,,,,,,0,0,0,0,0
3.7295,1783189320.0439,1,1,1.0000,0.0000,1.44682,0.22968,-2.77852,0.97781,1.57079,0.00001,-0.14513,-0.37992,0.04551,,,,,,,,,,,,,,,,,,,,,,,,,,0,0,0,0,0
3.7323,1783189320.0466,1,1,1.0000,0.0000,1.44682,0.22968,-2.77852,0.97781,1.57079,0.00001,-0.14513,-0.37992,0.04551,,,,,,,,,,,,,,,,,,,,,,,,,,0,0,0,0,0
3.7329,1783189320.0473,1,1,1.0000,0.0000,1.44682,0.22967,-2.77852,0.97782,1.57079,0.00001,-0.14513,-0.37992,0.04551,,,,,,,,,,,,,,,,,,,,,,,,,,0,0,0,0,0
3.7408,1783189320.0552,1,1,1.0000,0.0000,1.44682,0.22966,-2.77853,0.97784,1.57079,0.00001,-0.14513,-0.37992,0.04551,,,,,,,,,,,,,,,,,,,,,,,,,,0,0,0,0,0
3.7412,1783189320.0555,1,1,1.0000,0.0000,1.44682,0.22966,-2.77853,0.97784,1.57079,0.00001,-0.14513,-0.37992,0.04551,,,,,,,,,,,,,,,,,,,,,,,,,,0,0,0,0,0
3.7540,1783189320.0683,1,1,1.0000,0.0000,1.44682,0.22965,-2.77853,0.97785,1.57079,0.00001,-0.14513,-0.37992,0.04551,,,,,,,,,,,,,,,,,,,,,,,,,,0,0,0,0,0
3.7621,1783189320.0764,1,1,1.0000,0.0000,1.44682,0.22964,-2.77853,0.97786,1.57079,0.00001,-0.14513,-0.37992,0.04550,,,,,,,,,,,,,,,,,,,,,,,,,,0,0,0,0,0
3.7738,1783189320.0881,1,1,1.0000,0.0000,1.44682,0.22962,-2.77854,0.97788,1.57079,0.00001,-0.14513,-0.37992,0.04550,,,,,,,,,,,,,,,,,,,,,,,,,,0,0,0,0,0
3.7809,1783189320.0952,1,1,1.0000,0.0000,1.44682,0.22962,-2.77854,0.97789,1.57079,0.00001,-0.14513,-0.37992,0.04550,,,,,,,,,,,,,,,,,,,,,,,,,,0,0,0,0,0
3.7811,1783189320.0955,1,1,1.0000,0.0000,1.44682,0.22962,-2.77854,0.97789,1.57079,0.00001,-0.14513,-0.37992,0.04550,,,,,,,,,,,,,,,,,,,,,,,,,,0,0,0,0,0
3.7910,1783189320.1053,1,1,1.0000,0.0000,1.44682,0.22961,-2.77854,0.97790,1.57079,0.00001,-0.14513,-0.37992,0.04550,,,,,,,,,,,,,,,,,,,,,,,,,,0,0,0,0,0
3.8015,1783189320.1158,1,1,1.0000,0.0000,1.44682,0.22958,-2.77855,0.97793,1.57079,0.00001,-0.14513,-0.37992,0.04549,,,,,,,,,,,,,,,,,,,,,,,,,,0,0,0,0,0
3.8019,1783189320.1162,1,1,1.0000,0.0000,1.44682,0.22958,-2.77855,0.97793,1.57079,0.00001,-0.14513,-0.37992,0.04549,,,,,,,,,,,,,,,,,,,,,,,,,,0,0,0,0,0
3.8110,1783189320.1253,1,1,1.0000,0.0000,1.44682,0.22957,-2.77855,0.97794,1.57079,0.00001,-0.14513,-0.37992,0.04549,,,,,,,,,,,,,,,,,,,,,,,,,,0,0,0,0,0
3.8112,1783189320.1255,1,1,1.0000,0.0000,1.44682,0.22957,-2.77855,0.97794,1.57079,0.00001,-0.14513,-0.37992,0.04549,,,,,,,,,,,,,,,,,,,,,,,,,,0,0,0,0,0
3.8317,1783189320.1460,1,1,1.0000,0.0000,1.44682,0.22955,-2.77856,0.97798,1.57079,0.00001,-0.14513,-0.37992,0.04548,,,,,,,,,,,,,,,,,,,,,,,,,,0,0,0,0,0
3.8323,1783189320.1466,1,1,1.0000,0.0000,1.44682,0.22955,-2.77856,0.97798,1.57079,0.00001,-0.14513,-0.37992,0.04548,,,,,,,,,,,,,,,,,,,,,,,,,,0,0,0,0,0
3.8408,1783189320.1552,1,1,1.0000,0.0000,1.44682,0.22954,-2.77856,0.97799,1.57079,0.00001,-0.14513,-0.37992,0.04548,,,,,,,,,,,,,,,,,,,,,,,,,,0,0,0,0,0
3.8412,1783189320.1555,1,1,1.0000,0.0000,1.44682,0.22954,-2.77856,0.97799,1.57079,0.00001,-0.14513,-0.37992,0.04548,,,,,,,,,,,,,,,,,,,,,,,,,,0,0,0,0,0
3.8527,1783189320.1671,1,1,1.0000,0.0000,1.44682,0.22952,-2.77856,0.97801,1.57079,0.00001,-0.14513,-0.37992,0.04547,,,,,,,,,,,,,,,,,,,,,,,,,,0,0,0,0,0
3.8608,1783189320.1751,1,1,1.0000,0.0000,1.44682,0.22950,-2.77857,0.97803,1.57079,0.00001,-0.14513,-0.37992,0.04547,,,,,,,,,,,,,,,,,,,,,,,,,,0,0,0,0,0
3.8611,1783189320.1754,1,1,1.0000,0.0000,1.44682,0.22950,-2.77857,0.97803,1.57079,0.00001,-0.14513,-0.37992,0.04547,,,,,,,,,,,,,,,,,,,,,,,,,,0,0,0,0,0
3.8772,1783189320.1916,1,1,1.0000,0.0000,1.44682,0.22949,-2.77857,0.97805,1.57079,0.00001,-0.14513,-0.37992,0.04546,,,,,,,,,,,,,,,,,,,,,,,,,,0,0,0,0,0
3.8904,1783189320.2048,1,1,1.0000,0.0000,1.44682,0.22946,-2.77858,0.97808,1.57079,0.00001,-0.14513,-0.37992,0.04546,,,,,,,,,,,,,,,,,,,,,,,,,,0,0,0,0,0
3.9009,1783189320.2152,1,1,1.0000,0.0000,1.44682,0.22945,-2.77858,0.97809,1.57079,0.00001,-0.14513,-0.37992,0.04546,,,,,,,,,,,,,,,,,,,,,,,,,,0,0,0,0,0
3.9099,1783189320.2242,1,1,1.0000,0.0000,1.44682,0.22944,-2.77858,0.97810,1.57079,0.00001,-0.14513,-0.37992,0.04545,,,,,,,,,,,,,,,,,,,,,,,,,,0,0,0,0,0
3.9155,1783189320.2299,1,1,1.0000,0.0000,1.44682,0.22944,-2.77858,0.97811,1.57079,0.00001,-0.14513,-0.37992,0.04545,,,,,,,,,,,,,,,,,,,,,,,,,,0,0,0,0,0
3.9160,1783189320.2303,1,1,1.0000,0.0000,1.44682,0.22944,-2.77858,0.97811,1.57079,0.00001,-0.14513,-0.37992,0.04545,,,,,,,,,,,,,,,,,,,,,,,,,,0,0,0,0,0
3.9308,1783189320.2452,1,1,1.0000,0.0000,1.44682,0.22941,-2.77859,0.97815,1.57079,0.00001,-0.14513,-0.37992,0.04544,,,,,,,,,,,,,,,,,,,,,,,,,,0,0,0,0,0
3.9360,1783189320.2503,1,1,1.0000,0.0000,1.44682,0.22941,-2.77859,0.97815,1.57079,0.00001,-0.14513,-0.37992,0.04544,,,,,,,,,,,,,,,,,,,,,,,,,,0,0,0,0,0
3.9367,1783189320.2511,1,1,1.0000,0.0000,1.44682,0.22941,-2.77859,0.97815,1.57079,0.00001,-0.14513,-0.37992,0.04544,,,,,,,,,,,,,,,,,,,,,,,,,,0,0,0,0,0
3.9450,1783189320.2593,1,1,1.0000,0.0000,1.44682,0.22939,-2.77860,0.97817,1.57079,0.00001,-0.14513,-0.37992,0.04544,,,,,,,,,,,,,,,,,,,,,,,,,,0,0,0,0,0
3.9458,1783189320.2601,1,1,1.0000,0.0000,1.44682,0.22939,-2.77860,0.97817,1.57079,0.00001,-0.14513,-0.37992,0.04544,,,,,,,,,,,,,,,,,,,,,,,,,,0,0,0,0,0
3.9548,1783189320.2692,1,1,1.0000,0.0000,1.44682,0.22937,-2.77860,0.97819,1.57079,0.00001,-0.14513,-0.37992,0.04543,,,,,,,,,,,,,,,,,,,,,,,,,,0,0,0,0,0
3.9672,1783189320.2815,1,1,1.0000,0.0000,1.44682,0.22937,-2.77860,0.97820,1.57079,0.00001,-0.14513,-0.37992,0.04543,,,,,,,,,,,,,,,,,,,,,,,,,,0,0,0,0,0
3.9784,1783189320.2928,1,1,1.0000,0.0000,1.44682,0.22935,-2.77861,0.97823,1.57079,0.00001,-0.14513,-0.37992,0.04543,,,,,,,,,,,,,,,,,,,,,,,,,,0,0,0,0,0
3.9848,1783189320.2991,1,1,1.0000,0.0000,1.44682,0.22933,-2.77861,0.97825,1.57079,0.00001,-0.14513,-0.37992,0.04542,,,,,,,,,,,,,,,,,,,,,,,,,,0,0,0,0,0
3.9852,1783189320.2995,1,1,1.0000,0.0000,1.44682,0.22933,-2.77861,0.97825,1.57079,0.00001,-0.14513,-0.37992,0.04542,,,,,,,,,,,,,,,,,,,,,,,,,,0,0,0,0,0
3.9954,1783189320.3098,1,1,1.0000,0.0000,1.44682,0.22933,-2.77861,0.97825,1.57079,0.00001,-0.14513,-0.37992,0.04542,,,,,,,,,,,,,,,,,,,,,,,,,,0,0,0,0,0
4.0047,1783189320.3190,1,1,1.0000,0.0000,1.44682,0.22931,-2.77862,0.97827,1.57079,0.00001,-0.14513,-0.37992,0.04542,,,,,,,,,,,,,,,,,,,,,,,,,,0,0,0,0,0
4.0050,1783189320.3193,1,1,1.0000,0.0000,1.44682,0.22931,-2.77862,0.97827,1.57079,0.00001,-0.14513,-0.37992,0.04542,,,,,,,,,,,,,,,,,,,,,,,,,,0,0,0,0,0
4.0160,1783189320.3303,1,1,1.0000,0.0000,1.44682,0.22929,-2.77862,0.97829,1.57079,0.00001,-0.14513,-0.37992,0.04541,,,,,,,,,,,,,,,,,,,,,,,,,,0,0,0,0,0
4.0370,1783189320.3513,1,1,1.0000,0.0000,1.44682,0.22927,-2.77863,0.97833,1.57079,0.00001,-0.14513,-0.37992,0.04541,,,,,,,,,,,,,,,,,,,,,,,,,,0,0,0,0,0
4.0373,1783189320.3517,1,1,1.0000,0.0000,1.44682,0.22927,-2.77863,0.97833,1.57079,0.00001,-0.14513,-0.37992,0.04541,,,,,,,,,,,,,,,,,,,,,,,,,,0,0,0,0,0
4.0376,1783189320.3520,1,1,1.0000,0.0000,1.44682,0.22927,-2.77863,0.97833,1.57079,0.00001,-0.14513,-0.37992,0.04541,,,,,,,,,,,,,,,,,,,,,,,,,,0,0,0,0,0
4.0450,1783189320.3593,1,1,1.0000,0.0000,1.44682,0.22925,-2.77863,0.97835,1.57079,0.00001,-0.14513,-0.37992,0.04540,,,,,,,,,,,,,,,,,,,,,,,,,,0,0,0,0,0
4.0549,1783189320.3692,1,1,1.0000,0.0000,1.44682,0.22925,-2.77863,0.97835,1.57079,0.00001,-0.14513,-0.37992,0.04540,,,,,,,,,,,,,,,,,,,,,,,,,,0,0,0,0,0
4.0712,1783189320.3856,1,1,1.0000,0.0000,1.44682,0.22922,-2.77864,0.97838,1.57079,0.00001,-0.14513,-0.37992,0.04539,,,,,,,,,,,,,,,,,,,,,,,,,,0,0,0,0,0
4.0809,1783189320.3953,1,1,1.0000,0.0000,1.44682,0.22920,-2.77864,0.97841,1.57079,0.00001,-0.14513,-0.37992,0.04539,,,,,,,,,,,,,,,,,,,,,,,,,,0,0,0,0,0
4.0872,1783189320.4015,1,1,1.0000,0.0000,1.44682,0.22920,-2.77864,0.97841,1.57079,0.00001,-0.14513,-0.37992,0.04539,,,,,,,,,,,,,,,,,,,,,,,,,,0,0,0,0,0
4.1018,1783189320.4162,1,1,1.0000,0.0000,1.44682,0.22918,-2.77865,0.97843,1.57079,0.00001,-0.14513,-0.37992,0.04538,,,,,,,,,,,,,,,,,,,,,,,,,,0,0,0,0,0
4.1152,1783189320.4295,1,1,1.0000,0.0000,1.44682,0.22917,-2.77865,0.97844,1.57079,0.00001,-0.14513,-0.37992,0.04538,,,,,,,,,,,,,,,,,,,,,,,,,,0,0,0,0,0
4.1155,1783189320.4299,1,1,1.0000,0.0000,1.44682,0.22917,-2.77865,0.97844,1.57079,0.00001,-0.14513,-0.37992,0.04538,,,,,,,,,,,,,,,,,,,,,,,,,,0,0,0,0,0
4.1373,1783189320.4517,1,1,1.0000,0.0000,1.44682,0.22913,-2.77866,0.97850,1.57079,0.00001,-0.14513,-0.37992,0.04537,,,,,,,,,,,,,,,,,,,,,,,,,,0,0,0,0,0
4.1467,1783189320.4610,1,1,1.0000,0.0000,1.44682,0.22913,-2.77866,0.97850,1.57079,0.00001,-0.14513,-0.37992,0.04537,,,,,,,,,,,,,,,,,,,,,,,,,,0,0,0,0,0
4.1619,1783189320.4763,1,1,1.0000,0.0000,1.44682,0.22911,-2.77867,0.97853,1.57079,0.00001,-0.14513,-0.37992,0.04537,,,,,,,,,,,,,,,,,,,,,,,,,,0,0,0,0,0
4.1692,1783189320.4835,1,1,1.0000,0.0000,1.44682,0.22910,-2.77867,0.97854,1.57079,0.00001,-0.14513,-0.37992,0.04536,,,,,,,,,,,,,,,,,,,,,,,,,,0,0,0,0,0
4.1748,1783189320.4891,1,1,1.0000,0.0000,1.44682,0.22910,-2.77867,0.97854,1.57079,0.00001,-0.14513,-0.37992,0.04536,,,,,,,,,,,,,,,,,,,,,,,,,,0,0,0,0,0
4.1753,1783189320.4897,1,1,1.0000,0.0000,1.44682,0.22910,-2.77867,0.97854,1.57079,0.00001,-0.14513,-0.37992,0.04536,,,,,,,,,,,,,,,,,,,,,,,,,,0,0,0,0,0
4.1855,1783189320.4999,1,1,1.0000,0.0000,1.44682,0.22908,-2.77867,0.97856,1.57079,0.00001,-0.14513,-0.37992,0.04536,,,,,,,,,,,,,,,,,,,,,,,,,,0,0,0,0,0
4.1858,1783189320.5001,1,1,1.0000,0.0000,1.44682,0.22908,-2.77867,0.97856,1.57079,0.00001,-0.14513,-0.37992,0.04536,,,,,,,,,,,,,,,,,,,,,,,,,,0,0,0,0,0
4.1979,1783189320.5123,1,1,1.0000,0.0000,1.44682,0.22905,-2.77868,0.97859,1.57079,0.00001,-0.14513,-0.37992,0.04535,,,,,,,,,,,,,,,,,,,,,,,,,,0,0,0,0,0
4.2069,1783189320.5212,1,1,1.0000,0.0000,1.44682,0.22905,-2.77868,0.97860,1.57079,0.00001,-0.14513,-0.37992,0.04535,,,,,,,,,,,,,,,,,,,,,,,,,,0,0,0,0,0
4.2074,1783189320.5217,1,1,1.0000,0.0000,1.44682,0.22905,-2.77868,0.97860,1.57079,0.00001,-0.14513,-0.37992,0.04535,,,,,,,,,,,,,,,,,,,,,,,,,,0,0,0,0,0
4.2168,1783189320.5312,1,1,1.0000,0.0000,1.44682,0.22904,-2.77869,0.97862,1.57079,0.00001,-0.14513,-0.37992,0.04535,,,,,,,,,,,,,,,,,,,,,,,,,,0,0,0,0,0
4.2248,1783189320.5392,1,1,1.0000,0.0000,1.44682,0.22902,-2.77869,0.97864,1.57079,0.00001,-0.14513,-0.37992,0.04534,,,,,,,,,,,,,,,,,,,,,,,,,,0,0,0,0,0
4.2400,1783189320.5543,1,1,1.0000,0.0000,1.44682,0.22901,-2.77869,0.97865,1.57079,0.00001,-0.14513,-0.37992,0.04534,,,,,,,,,,,,,,,,,,,,,,,,,,0,0,0,0,0
4.2458,1783189320.5601,1,1,1.0000,0.0000,1.44682,0.22900,-2.77870,0.97866,1.57079,0.00001,-0.14513,-0.37992,0.04534,,,,,,,,,,,,,,,,,,,,,,,,,,0,0,0,0,0
4.2547,1783189320.5690,1,1,1.0000,0.0000,1.44682,0.22898,-2.77870,0.97869,1.57079,0.00001,-0.14513,-0.37992,0.04533,,,,,,,,,,,,,,,,,,,,,,,,,,0,0,0,0,0
4.2648,1783189320.5791,1,1,1.0000,0.0000,1.44682,0.22897,-2.77870,0.97870,1.57079,0.00001,-0.14513,-0.37992,0.04533,,,,,,,,,,,,,,,,,,,,,,,,,,0,0,0,0,0
4.2746,1783189320.5890,1,1,1.0000,0.0000,1.44682,0.22896,-2.77871,0.97871,1.57079,0.00001,-0.14513,-0.37992,0.04533,,,,,,,,,,,,,,,,,,,,,,,,,,0,0,0,0,0
4.2856,1783189320.5999,1,1,1.0000,0.0000,1.44682,0.22894,-2.77871,0.97874,1.57079,0.00001,-0.14513,-0.37992,0.04532,,,,,,,,,,,,,,,,,,,,,,,,,,0,0,0,0,0
4.2858,1783189320.6002,1,1,1.0000,0.0000,1.44682,0.22894,-2.77871,0.97874,1.57079,0.00001,-0.14513,-0.37992,0.04532,,,,,,,,,,,,,,,,,,,,,,,,,,0,0,0,0,0
4.2980,1783189320.6123,1,1,1.0000,0.0000,1.44682,0.22893,-2.77871,0.97875,1.57079,0.00001,-0.14513,-0.37992,0.04532,,,,,,,,,,,,,,,,,,,,,,,,,,0,0,0,0,0
4.3089,1783189320.6232,1,1,1.0000,0.0000,1.44682,0.22891,-2.77872,0.97878,1.57079,0.00001,-0.14513,-0.37992,0.04531,,,,,,,,,,,,,,,,,,,,,,,,,,0,0,0,0,0
4.3093,1783189320.6236,1,1,1.0000,0.0000,1.44682,0.22891,-2.77872,0.97878,1.57079,0.00001,-0.14513,-0.37992,0.04531,,,,,,,,,,,,,,,,,,,,,,,,,,0,0,0,0,0
4.3189,1783189320.6332,1,1,1.0000,0.0000,1.44682,0.22889,-2.77872,0.97880,1.57079,0.00001,-0.14513,-0.37992,0.04531,,,,,,,,,,,,,,,,,,,,,,,,,,0,0,0,0,0
4.3193,1783189320.6337,1,1,1.0000,0.0000,1.44682,0.22889,-2.77872,0.97880,1.57079,0.00001,-0.14513,-0.37992,0.04531,,,,,,,,,,,,,,,,,,,,,,,,,,0,0,0,0,0
4.3249,1783189320.6392,1,1,1.0000,0.0000,1.44682,0.22889,-2.77872,0.97880,1.57079,0.00001,-0.14513,-0.37992,0.04531,,,,,,,,,,,,,,,,,,,,,,,,,,0,0,0,0,0
4.3467,1783189320.6610,1,1,1.0000,0.0000,1.44682,0.22886,-2.77873,0.97884,1.57079,0.00001,-0.14513,-0.37992,0.04530,,,,,,,,,,,,,,,,,,,,,,,,,,0,0,0,0,0
4.3475,1783189320.6618,1,1,1.0000,0.0000,1.44682,0.22886,-2.77873,0.97884,1.57079,0.00001,-0.14513,-0.37992,0.04530,,,,,,,,,,,,,,,,,,,,,,,,,,0,0,0,0,0
4.3553,1783189320.6696,1,1,1.0000,0.0000,1.44682,0.22885,-2.77873,0.97885,1.57079,0.00001,-0.14513,-0.37992,0.04530,,,,,,,,,,,,,,,,,,,,,,,,,,0,0,0,0,0
4.3556,1783189320.6699,1,1,1.0000,0.0000,1.44682,0.22885,-2.77873,0.97885,1.57079,0.00001,-0.14513,-0.37992,0.04530,,,,,,,,,,,,,,,,,,,,,,,,,,0,0,0,0,0
4.3648,1783189320.6792,1,1,1.0000,0.0000,1.44682,0.22884,-2.77874,0.97887,1.57079,0.00001,-0.14513,-0.37992,0.04529,,,,,,,,,,,,,,,,,,,,,,,,,,0,0,0,0,0
4.3746,1783189320.6890,1,1,1.0000,0.0000,1.44682,0.22882,-2.77874,0.97889,1.57079,0.00001,-0.14513,-0.37992,0.04529,,,,,,,,,,,,,,,,,,,,,,,,,,0,0,0,0,0
4.3750,1783189320.6893,1,1,1.0000,0.0000,1.44682,0.22882,-2.77874,0.97889,1.57079,0.00001,-0.14513,-0.37992,0.04529,,,,,,,,,,,,,,,,,,,,,,,,,,0,0,0,0,0
4.3886,1783189320.7029,1,1,1.0000,0.0000,1.44682,0.22881,-2.77874,0.97890,1.57079,0.00001,-0.14513,-0.37992,0.04529,,,,,,,,,,,,,,,,,,,,,,,,,,0,0,0,0,0
4.4025,1783189320.7169,1,1,1.0000,0.0000,1.44682,0.22878,-2.77875,0.97893,1.57079,0.00001,-0.14513,-0.37992,0.04528,,,,,,,,,,,,,,,,,,,,,,,,,,0,0,0,0,0
4.4083,1783189320.7226,1,1,1.0000,0.0000,1.44682,0.22877,-2.77875,0.97895,1.57079,0.00001,-0.14513,-0.37992,0.04528,,,,,,,,,,,,,,,,,,,,,,,,,,0,0,0,0,0
4.4216,1783189320.7360,1,1,1.0000,0.0000,1.44682,0.22876,-2.77876,0.97896,1.57079,0.00001,-0.14513,-0.37992,0.04528,,,,,,,,,,,,,,,,,,,,,,,,,,0,0,0,0,0
4.4292,1783189320.7436,1,1,1.0000,0.0000,1.44682,0.22875,-2.77876,0.97898,1.57079,0.00001,-0.14513,-0.37992,0.04527,,,,,,,,,,,,,,,,,,,,,,,,,,0,0,0,0,0
4.4428,1783189320.7572,1,1,1.0000,0.0000,1.44682,0.22873,-2.77876,0.97900,1.57079,0.00001,-0.14513,-0.37992,0.04527,,,,,,,,,,,,,,,,,,,,,,,,,,0,0,0,0,0
4.4479,1783189320.7622,1,1,1.0000,0.0000,1.44682,0.22873,-2.77876,0.97900,1.57079,0.00001,-0.14513,-0.37992,0.04527,,,,,,,,,,,,,,,,,,,,,,,,,,0,0,0,0,0
4.4486,1783189320.7630,1,1,1.0000,0.0000,1.44682,0.22872,-2.77877,0.97901,1.57079,0.00001,-0.14513,-0.37992,0.04527,,,,,,,,,,,,,,,,,,,,,,,,,,0,0,0,0,0
4.4596,1783189320.7740,1,1,1.0000,0.0000,1.44682,0.22871,-2.77877,0.97903,1.57079,0.00001,-0.14513,-0.37992,0.04526,,,,,,,,,,,,,,,,,,,,,,,,,,0,0,0,0,0
4.4691,1783189320.7834,1,1,1.0000,0.0000,1.44682,0.22869,-2.77877,0.97905,1.57079,0.00001,-0.14513,-0.37992,0.04526,,,,,,,,,,,,,,,,,,,,,,,,,,0,0,0,0,0
4.4803,1783189320.7947,1,1,1.0000,0.0000,1.44682,0.22869,-2.77878,0.97905,1.57079,0.00001,-0.14513,-0.37992,0.04526,,,,,,,,,,,,,,,,,,,,,,,,,,0,0,0,0,0
4.4812,1783189320.7955,1,1,1.0000,0.0000,1.44682,0.22868,-2.77878,0.97906,1.57079,0.00001,-0.14513,-0.37992,0.04525,,,,,,,,,,,,,,,,,,,,,,,,,,0,0,0,0,0
4.4904,1783189320.8048,1,1,1.0000,0.0000,1.44682,0.22867,-2.77878,0.97908,1.57079,0.00001,-0.14513,-0.37992,0.04525,,,,,,,,,,,,,,,,,,,,,,,,,,0,0,0,0,0
4.4995,1783189320.8138,1,1,1.0000,0.0000,1.44682,0.22865,-2.77879,0.97910,1.57079,0.00001,-0.14513,-0.37992,0.04525,,,,,,,,,,,,,,,,,,,,,,,,,,0,0,0,0,0
4.4998,1783189320.8142,1,1,1.0000,0.0000,1.44682,0.22865,-2.77879,0.97910,1.57079,0.00001,-0.14513,-0.37992,0.04525,,,,,,,,,,,,,,,,,,,,,,,,,,0,0,0,0,0
4.5087,1783189320.8230,1,1,1.0000,0.0000,1.44682,0.22864,-2.77879,0.97911,1.57079,0.00001,-0.14513,-0.37992,0.04524,,,,,,,,,,,,,,,,,,,,,,,,,,0,0,0,0,0
4.5183,1783189320.8326,1,1,1.0000,0.0000,1.44682,0.22863,-2.77879,0.97913,1.57079,0.00001,-0.14513,-0.37992,0.04524,,,,,,,,,,,,,,,,,,,,,,,,,,0,0,0,0,0
4.5286,1783189320.8429,1,1,1.0000,0.0000,1.44682,0.22861,-2.77879,0.97915,1.57079,0.00001,-0.14513,-0.37992,0.04524,,,,,,,,,,,,,,,,,,,,,,,,,,0,0,0,0,0
4.5489,1783189320.8633,1,1,1.0000,0.0000,1.44682,0.22858,-2.77880,0.97918,1.57079,0.00001,-0.14513,-0.37992,0.04523,,,,,,,,,,,,,,,,,,,,,,,,,,0,0,0,0,0
4.5496,1783189320.8639,1,1,1.0000,0.0000,1.44682,0.22858,-2.77880,0.97918,1.57079,0.00001,-0.14513,-0.37992,0.04523,,,,,,,,,,,,,,,,,,,,,,,,,,0,0,0,0,0
4.5499,1783189320.8642,1,1,1.0000,0.0000,1.44682,0.22858,-2.77880,0.97918,1.57079,0.00001,-0.14513,-0.37992,0.04523,,,,,,,,,,,,,,,,,,,,,,,,,,0,0,0,0,0
4.5601,1783189320.8744,1,1,1.0000,0.0000,1.44682,0.22857,-2.77881,0.97921,1.57079,0.00001,-0.14513,-0.37992,0.04522,,,,,,,,,,,,,,,,,,,,,,,,,,0,0,0,0,0
4.5690,1783189320.8833,1,1,1.0000,0.0000,1.44682,0.22856,-2.77881,0.97921,1.57079,0.00001,-0.14513,-0.37992,0.04522,,,,,,,,,,,,,,,,,,,,,,,,,,0,0,0,0,0
4.5797,1783189320.8940,1,1,1.0000,0.0000,1.44682,0.22855,-2.77881,0.97923,1.57079,0.00001,-0.14513,-0.37992,0.04522,,,,,,,,,,,,,,,,,,,,,,,,,,0,0,0,0,0
4.5927,1783189320.9070,1,1,1.0000,0.0000,1.44682,0.22852,-2.77882,0.97926,1.57079,0.00001,-0.14513,-0.37992,0.04521,,,,,,,,,,,,,,,,,,,,,,,,,,0,0,0,0,0
4.5989,1783189320.9132,1,1,1.0000,0.0000,1.44682,0.22852,-2.77882,0.97926,1.57079,0.00001,-0.14513,-0.37992,0.04521,,,,,,,,,,,,,,,,,,,,,,,,,,0,0,0,0,0
4.6858,1783189321.0001,1,1,1.0000,0.0000,1.44682,0.22842,-2.77884,0.97939,1.57079,0.00001,-0.14513,-0.37992,0.04519,,,,,,,,,,,,,,,,,,,,,,,,,,0,0,0,0,0
4.6861,1783189321.0004,1,1,1.0000,0.0000,1.44682,0.22842,-2.77884,0.97939,1.57079,0.00001,-0.14513,-0.37992,0.04519,,,,,,,,,,,,,,,,,,,,,,,,,,0,0,0,0,0
4.6864,1783189321.0007,1,1,1.0000,0.0000,1.44682,0.22842,-2.77884,0.97939,1.57079,0.00001,-0.14513,-0.37992,0.04519,,,,,,,,,,,,,,,,,,,,,,,,,,0,0,0,0,0
4.6867,1783189321.0010,1,1,1.0000,0.0000,1.44682,0.22842,-2.77884,0.97939,1.57079,0.00001,-0.14513,-0.37992,0.04519,,,,,,,,,,,,,,,,,,,,,,,,,,0,0,0,0,0
4.6870,1783189321.0013,1,1,1.0000,0.0000,1.44682,0.22842,-2.77884,0.97939,1.57079,0.00001,-0.14513,-0.37992,0.04519,,,,,,,,,,,,,,,,,,,,,,,,,,0,0,0,0,0
4.6873,1783189321.0016,1,1,1.0000,0.0000,1.44682,0.22842,-2.77884,0.97939,1.57079,0.00001,-0.14513,-0.37992,0.04519,,,,,,,,,,,,,,,,,,,,,,,,,,0,0,0,0,0
4.6916,1783189321.0060,1,1,1.0000,0.0000,1.44682,0.22841,-2.77885,0.97940,1.57079,0.00001,-0.14513,-0.37992,0.04518,,,,,,,,,,,,,,,,,,,,,,,,,,0,0,0,0,0
4.6987,1783189321.0131,1,1,1.0000,0.0000,1.44682,0.22840,-2.77885,0.97942,1.57079,0.00001,-0.14513,-0.37992,0.04518,,,,,,,,,,,,,,,,,,,,,,,,,,0,0,0,0,0
4.7082,1783189321.0225,1,1,1.0000,0.0000,1.44682,0.22838,-2.77885,0.97944,1.57079,0.00001,-0.14513,-0.37992,0.04518,,,,,,,,,,,,,,,,,,,,,,,,,,0,0,0,0,0
4.7196,1783189321.0340,1,1,1.0000,0.0000,1.44682,0.22837,-2.77886,0.97945,1.57079,0.00001,-0.14513,-0.37992,0.04517,,,,,,,,,,,,,,,,,,,,,,,,,,0,0,0,0,0
4.7280,1783189321.0423,1,1,1.0000,0.0000,1.44682,0.22836,-2.77886,0.97946,1.57079,0.00001,-0.14513,-0.37992,0.04517,,,,,,,,,,,,,,,,,,,,,,,,,,0,0,0,0,0
4.7287,1783189321.0431,1,1,1.0000,0.0000,1.44682,0.22836,-2.77886,0.97947,1.57079,0.00001,-0.14513,-0.37992,0.04517,,,,,,,,,,,,,,,,,,,,,,,,,,0,0,0,0,0
4.7562,1783189321.0706,1,1,1.0000,0.0000,1.44682,0.22833,-2.77887,0.97950,1.57079,0.00001,-0.14513,-0.37992,0.04516,,,,,,,,,,,,,,,,,,,,,,,,,,0,0,0,0,0
4.8275,1783189321.1418,1,1,1.0000,0.0000,1.44682,0.22823,-2.77889,0.97963,1.57079,0.00001,-0.14513,-0.37992,0.04514,,,,,,,,,,,,,,,,,,,,,,,,,,0,0,0,0,0
4.8858,1783189321.2001,1,1,1.0000,0.0000,1.44682,0.22816,-2.77891,0.97972,1.57079,0.00001,-0.14513,-0.37992,0.04512,,,,,,,,,,,,,,,,,,,,,,,,,,0,0,0,0,0
4.8861,1783189321.2005,1,1,1.0000,0.0000,1.44682,0.22816,-2.77891,0.97972,1.57079,0.00001,-0.14513,-0.37992,0.04512,,,,,,,,,,,,,,,,,,,,,,,,,,0,0,0,0,0
4.9323,1783189321.2467,1,1,1.0000,0.0000,1.44682,0.22811,-2.77892,0.97977,1.57079,0.00001,-0.14513,-0.37992,0.04511,,,,,,,,,,,,,,,,,,,,,,,,,,0,0,0,0,0
4.9329,1783189321.2472,1,1,1.0000,0.0000,1.44682,0.22811,-2.77892,0.97978,1.57079,0.00001,-0.14513,-0.37992,0.04511,,,,,,,,,,,,,,,,,,,,,,,,,,0,0,0,0,0
4.9334,1783189321.2477,1,1,1.0000,0.0000,1.44682,0.22811,-2.77892,0.97978,1.57079,0.00001,-0.14513,-0.37992,0.04511,,,,,,,,,,,,,,,,,,,,,,,,,,0,0,0,0,0
4.9338,1783189321.2482,1,1,1.0000,0.0000,1.44682,0.22811,-2.77892,0.97978,1.57079,0.00001,-0.14513,-0.37992,0.04511,,,,,,,,,,,,,,,,,,,,,,,,,,0,0,0,0,0
4.9344,1783189321.2487,1,1,1.0000,0.0000,1.44682,0.22811,-2.77892,0.97978,1.57079,0.00001,-0.14513,-0.37992,0.04511,,,,,,,,,,,,,,,,,,,,,,,,,,0,0,0,0,0
4.9348,1783189321.2492,1,1,1.0000,0.0000,1.44682,0.22811,-2.77892,0.97978,1.57079,0.00001,-0.14513,-0.37992,0.04511,,,,,,,,,,,,,,,,,,,,,,,,,,0,0,0,0,0
4.9353,1783189321.2497,1,1,1.0000,0.0000,1.44682,0.22811,-2.77892,0.97978,1.57079,0.00001,-0.14513,-0.37992,0.04511,,,,,,,,,,,,,,,,,,,,,,,,,,0,0,0,0,0
4.9358,1783189321.2501,1,1,1.0000,0.0000,1.44682,0.22811,-2.77892,0.97978,1.57079,0.00001,-0.14513,-0.37992,0.04511,,,,,,,,,,,,,,,,,,,,,,,,,,0,0,0,0,0
4.9365,1783189321.2509,1,1,1.0000,0.0000,1.44682,0.22810,-2.77892,0.97979,1.57079,0.00001,-0.14513,-0.37992,0.04510,,,,,,,,,,,,,,,,,,,,,,,,,,0,0,0,0,0
4.9369,1783189321.2512,1,1,1.0000,0.0000,1.44682,0.22810,-2.77892,0.97979,1.57079,0.00001,-0.14513,-0.37992,0.04510,,,,,,,,,,,,,,,,,,,,,,,,,,0,0,0,0,0
4.9373,1783189321.2516,1,1,1.0000,0.0000,1.44682,0.22810,-2.77892,0.97979,1.57079,0.00001,-0.14513,-0.37992,0.04510,,,,,,,,,,,,,,,,,,,,,,,,,,0,0,0,0,0
4.9393,1783189321.2537,1,1,1.0000,0.0000,1.44682,0.22810,-2.77892,0.97979,1.57079,0.00001,-0.14513,-0.37992,0.04510,,,,,,,,,,,,,,,,,,,,,,,,,,0,0,0,0,0
4.9588,1783189321.2731,1,1,1.0000,0.0000,1.44682,0.22807,-2.77893,0.97983,1.57079,0.00001,-0.14513,-0.37992,0.04510,,,,,,,,,,,,,,,,,,,,,,,,,,0,0,0,0,0
4.9591,1783189321.2734,1,1,1.0000,0.0000,1.44682,0.22807,-2.77893,0.97983,1.57079,0.00001,-0.14513,-0.37992,0.04510,,,,,,,,,,,,,,,,,,,,,,,,,,0,0,0,0,0
4.9596,1783189321.2739,1,1,1.0000,0.0000,1.44682,0.22807,-2.77893,0.97983,1.57079,0.00001,-0.14513,-0.37992,0.04510,,,,,,,,,,,,,,,,,,,,,,,,,,0,0,0,0,0
4.9599,1783189321.2742,1,1,1.0000,0.0000,1.44682,0.22807,-2.77893,0.97983,1.57079,0.00001,-0.14513,-0.37992,0.04510,,,,,,,,,,,,,,,,,,,,,,,,,,0,0,0,0,0
4.9681,1783189321.2825,1,1,1.0000,0.0000,1.44682,0.22806,-2.77893,0.97984,1.57079,0.00001,-0.14513,-0.37992,0.04509,,,,,,,,,,,,,,,,,,,,,,,,,,0,0,0,0,0
4.9688,1783189321.2831,1,1,1.0000,0.0000,1.44682,0.22805,-2.77894,0.97985,1.57079,0.00001,-0.14513,-0.37992,0.04509,,,,,,,,,,,,,,,,,,,,,,,,,,0,0,0,0,0
4.9787,1783189321.2930,1,1,1.0000,0.0000,1.44682,0.22804,-2.77894,0.97987,1.57079,0.00001,-0.14513,-0.37992,0.04509,,,,,,,,,,,,,,,,,,,,,,,,,,0,0,0,0,0
5.0008,1783189321.3152,1,1,1.0000,0.0000,1.44682,0.22801,-2.77895,0.97990,1.57079,0.00001,-0.14513,-0.37992,0.04508,,,,,,,,,,,,,,,,,,,,,,,,,,0,0,0,0,0
5.0033,1783189321.3176,1,1,1.0000,0.0000,1.44682,0.22801,-2.77895,0.97990,1.57079,0.00001,-0.14513,-0.37992,0.04508,,,,,,,,,,,,,,,,,,,,,,,,,,0,0,0,0,0
5.0037,1783189321.3180,1,1,1.0000,0.0000,1.44682,0.22801,-2.77895,0.97990,1.57079,0.00001,-0.14513,-0.37992,0.04508,,,,,,,,,,,,,,,,,,,,,,,,,,0,0,0,0,0
5.0111,1783189321.3255,1,1,1.0000,0.0000,1.44682,0.22799,-2.77895,0.97993,1.57079,0.00001,-0.14513,-0.37992,0.04508,,,,,,,,,,,,,,,,,,,,,,,,,,0,0,0,0,0
5.0182,1783189321.3326,1,1,1.0000,0.0000,1.44682,0.22799,-2.77895,0.97993,1.57079,0.00001,-0.14513,-0.37992,0.04507,,,,,,,,,,,,,,,,,,,,,,,,,,0,0,0,0,0
5.0294,1783189321.3438,1,1,1.0000,0.0000,1.44682,0.22797,-2.77896,0.97995,1.57079,0.00001,-0.14513,-0.37992,0.04507,,,,,,,,,,,,,,,,,,,,,,,,,,0,0,0,0,0
5.0410,1783189321.3554,1,1,1.0000,0.0000,1.44682,0.22796,-2.77896,0.97997,1.57079,0.00001,-0.14513,-0.37992,0.04507,,,,,,,,,,,,,,,,,,,,,,,,,,0,0,0,0,0
5.0609,1783189321.3752,1,1,1.0000,0.0000,1.44682,0.22793,-2.77897,0.98001,1.57079,0.00001,-0.14513,-0.37992,0.04506,,,,,,,,,,,,,,,,,,,,,,,,,,0,0,0,0,0
5.0611,1783189321.3755,1,1,1.0000,0.0000,1.44682,0.22793,-2.77897,0.98001,1.57079,0.00001,-0.14513,-0.37992,0.04506,,,,,,,,,,,,,,,,,,,,,,,,,,0,0,0,0,0
5.0697,1783189321.3841,1,1,1.0000,0.0000,1.44682,0.22791,-2.77897,0.98003,1.57079,0.00001,-0.14513,-0.37992,0.04505,,,,,,,,,,,,,,,,,,,,,,,,,,0,0,0,0,0
5.0700,1783189321.3843,1,1,1.0000,0.0000,1.44682,0.22791,-2.77897,0.98003,1.57079,0.00001,-0.14513,-0.37992,0.04505,,,,,,,,,,,,,,,,,,,,,,,,,,0,0,0,0,0
5.0783,1783189321.3926,1,1,1.0000,0.0000,1.44682,0.22791,-2.77897,0.98003,1.57079,0.00001,-0.14513,-0.37992,0.04505,,,,,,,,,,,,,,,,,,,,,,,,,,0,0,0,0,0
5.0788,1783189321.3931,1,1,1.0000,0.0000,1.44682,0.22791,-2.77897,0.98003,1.57079,0.00001,-0.14513,-0.37992,0.04505,,,,,,,,,,,,,,,,,,,,,,,,,,0,0,0,0,0
5.0911,1783189321.4054,1,1,1.0000,0.0000,1.44682,0.22789,-2.77898,0.98005,1.57079,0.00001,-0.14513,-0.37992,0.04505,,,,,,,,,,,,,,,,,,,,,,,,,,0,0,0,0,0
5.0915,1783189321.4058,1,1,1.0000,0.0000,1.44682,0.22789,-2.77898,0.98005,1.57079,0.00001,-0.14513,-0.37992,0.04505,,,,,,,,,,,,,,,,,,,,,,,,,,0,0,0,0,0
5.1050,1783189321.4194,1,1,1.0000,0.0000,1.44682,0.22787,-2.77898,0.98008,1.57079,0.00001,-0.14513,-0.37992,0.04504,,,,,,,,,,,,,,,,,,,,,,,,,,0,0,0,0,0
5.1055,1783189321.4199,1,1,1.0000,0.0000,1.44682,0.22787,-2.77898,0.98008,1.57079,0.00001,-0.14513,-0.37992,0.04504,,,,,,,,,,,,,,,,,,,,,,,,,,0,0,0,0,0
5.1100,1783189321.4243,1,1,1.0000,0.0000,1.44682,0.22787,-2.77898,0.98008,1.57079,0.00001,-0.14513,-0.37992,0.04504,,,,,,,,,,,,,,,,,,,,,,,,,,0,0,0,0,0
5.1203,1783189321.4346,1,1,1.0000,0.0000,1.44682,0.22786,-2.77899,0.98010,1.57079,0.00001,-0.14513,-0.37992,0.04504,,,,,,,,,,,,,,,,,,,,,,,,,,0,0,0,0,0
5.1297,1783189321.4440,1,1,1.0000,0.0000,1.44682,0.22783,-2.77899,0.98013,1.57079,0.00001,-0.14513,-0.37992,0.04503,,,,,,,,,,,,,,,,,,,,,,,,,,0,0,0,0,0
5.1380,1783189321.4523,1,1,1.0000,0.0000,1.44682,0.22783,-2.77899,0.98013,1.57079,0.00001,-0.14513,-0.37992,0.04503,,,,,,,,,,,,,,,,,,,,,,,,,,0,0,0,0,0
5.1616,1783189321.4760,1,1,1.0000,0.0000,1.44682,0.22778,-2.77901,0.98019,1.57079,0.00001,-0.14513,-0.37992,0.04502,,,,,,,,,,,,,,,,,,,,,,,,,,0,0,0,0,0
5.1619,1783189321.4762,1,1,1.0000,0.0000,1.44682,0.22778,-2.77901,0.98019,1.57079,0.00001,-0.14513,-0.37992,0.04502,,,,,,,,,,,,,,,,,,,,,,,,,,0,0,0,0,0
5.1689,1783189321.4832,1,1,1.0000,0.0000,1.44682,0.22778,-2.77901,0.98019,1.57079,0.00001,-0.14513,-0.37992,0.04502,,,,,,,,,,,,,,,,,,,,,,,,,,0,0,0,0,0
5.1891,1783189321.5034,1,1,1.0000,0.0000,1.44682,0.22776,-2.77901,0.98022,1.57079,0.00001,-0.14513,-0.37992,0.04501,,,,,,,,,,,,,,,,,,,,,,,,,,0,0,0,0,0
5.1894,1783189321.5037,1,1,1.0000,0.0000,1.44682,0.22776,-2.77901,0.98022,1.57079,0.00001,-0.14513,-0.37992,0.04501,,,,,,,,,,,,,,,,,,,,,,,,,,0,0,0,0,0
5.1902,1783189321.5046,1,1,1.0000,0.0000,1.44682,0.22776,-2.77901,0.98022,1.57079,0.00001,-0.14513,-0.37992,0.04501,,,,,,,,,,,,,,,,,,,,,,,,,,0,0,0,0,0
5.2049,1783189321.5193,1,1,1.0000,0.0000,1.44682,0.22774,-2.77902,0.98024,1.57079,0.00001,-0.14513,-0.37992,0.04501,,,,,,,,,,,,,,,,,,,,,,,,,,0,0,0,0,0
5.2053,1783189321.5196,1,1,1.0000,0.0000,1.44682,0.22774,-2.77902,0.98024,1.57079,0.00001,-0.14513,-0.37992,0.04501,,,,,,,,,,,,,,,,,,,,,,,,,,0,0,0,0,0
5.2088,1783189321.5231,1,1,1.0000,0.0000,1.44682,0.22774,-2.77902,0.98025,1.57079,0.00001,-0.14513,-0.37992,0.04501,,,,,,,,,,,,,,,,,,,,,,,,,,0,0,0,0,0
5.2091,1783189321.5235,1,1,1.0000,0.0000,1.44682,0.22774,-2.77902,0.98025,1.57079,0.00001,-0.14513,-0.37992,0.04501,,,,,,,,,,,,,,,,,,,,,,,,,,0,0,0,0,0
5.2218,1783189321.5361,1,1,1.0000,0.0000,1.44682,0.22771,-2.77902,0.98028,1.57079,0.00001,-0.14513,-0.37992,0.04500,,,,,,,,,,,,,,,,,,,,,,,,,,0,0,0,0,0
5.2280,1783189321.5423,1,1,1.0000,0.0000,1.44682,0.22771,-2.77902,0.98028,1.57079,0.00001,-0.14513,-0.37992,0.04500,,,,,,,,,,,,,,,,,,,,,,,,,,0,0,0,0,0
5.2283,1783189321.5426,1,1,1.0000,0.0000,1.44682,0.22771,-2.77902,0.98028,1.57079,0.00001,-0.14513,-0.37992,0.04500,,,,,,,,,,,,,,,,,,,,,,,,,,0,0,0,0,0
