Martins-Lucaas/twinforge/sensors/Data/20260702_141239__samples.csv
t_rel_s,t_unix,cycle,phase,setpoint_n,force_net_n,q1,q2,q3,q4,q5,q6,tcp_x,tcp_y,tcp_z,taxel_0,taxel_1,taxel_2,taxel_3,taxel_4,taxel_5,taxel_6,taxel_7,taxel_8,taxel_9,taxel_10,taxel_11,taxel_12,taxel_13,taxel_14,taxel_15,taxel_16,taxel_17,taxel_18,taxel_19,taxel_20,taxel_21,taxel_22,taxel_23,taxel_24,n_RA,n_SA,cn_mm,cn_ra,cn_sa
0.0026,1783012359.9853,1,0,1.0000,0.0000,1.44682,0.23328,-2.77748,0.97337,1.57080,0.00000,-0.14512,-0.38003,0.04653,,,,,,,,,,,,,,,,,,,,,,,,,,0,0,0,0,0
0.0076,1783012359.9903,1,0,1.0000,0.0000,1.44682,0.23328,-2.77748,0.97337,1.57080,0.00000,-0.14512,-0.38003,0.04653,,,,,,,,,,,,,,,,,,,,,,,,,,0,0,0,0,0
0.0183,1783012360.0010,1,0,1.0000,0.0000,1.44682,0.23328,-2.77748,0.97337,1.57080,0.00000,-0.14512,-0.38003,0.04653,,,,,,,,,,,,,,,,,,,,,,,,,,0,0,0,0,0
0.0276,1783012360.0103,1,0,1.0000,0.0000,1.44682,0.23328,-2.77748,0.97337,1.57080,0.00000,-0.14512,-0.38003,0.04653,,,,,,,,,,,,,,,,,,,,,,,,,,0,0,0,0,0
0.0399,1783012360.0226,1,0,1.0000,0.0000,1.44682,0.23328,-2.77748,0.97337,1.57080,0.00000,-0.14512,-0.38003,0.04653,,,,,,,,,,,,,,,,,,,,,,,,,,0,0,0,0,0
0.0469,1783012360.0296,1,0,1.0000,0.0000,1.44682,0.23328,-2.77748,0.97337,1.57080,0.00000,-0.14512,-0.38003,0.04653,,,,,,,,,,,,,,,,,,,,,,,,,,0,0,0,0,0
0.0579,1783012360.0406,1,0,1.0000,0.0000,1.44682,0.23328,-2.77748,0.97337,1.57080,0.00000,-0.14512,-0.38003,0.04653,,,,,,,,,,,,,,,,,,,,,,,,,,0,0,0,0,0
0.0685,1783012360.0512,1,0,1.0000,0.0000,1.44682,0.23328,-2.77748,0.97337,1.57080,0.00000,-0.14512,-0.38003,0.04653,,,,,,,,,,,,,,,,,,,,,,,,,,0,0,0,0,0
0.0769,1783012360.0596,1,0,1.0000,0.0000,1.44682,0.23328,-2.77748,0.97337,1.57080,0.00000,-0.14512,-0.38003,0.04653,,,,,,,,,,,,,,,,,,,,,,,,,,0,0,0,0,0
0.0874,1783012360.0701,1,0,1.0000,0.0000,1.44682,0.23328,-2.77748,0.97337,1.57080,-0.00000,-0.14512,-0.38003,0.04653,,,,,,,,,,,,,,,,,,,,,,,,,,0,0,0,0,0
0.0972,1783012360.0800,1,0,1.0000,0.0000,1.44682,0.23328,-2.77748,0.97337,1.57080,-0.00000,-0.14512,-0.38003,0.04653,,,,,,,,,,,,,,,,,,,,,,,,,,0,0,0,0,0
0.0975,1783012360.0802,1,0,1.0000,0.0000,1.44682,0.23328,-2.77748,0.97337,1.57080,-0.00000,-0.14512,-0.38003,0.04653,,,,,,,,,,,,,,,,,,,,,,,,,,0,0,0,0,0
0.1068,1783012360.0895,1,0,1.0000,0.0000,1.44682,0.23328,-2.77748,0.97337,1.57080,-0.00000,-0.14512,-0.38003,0.04653,,,,,,,,,,,,,,,,,,,,,,,,,,0,0,0,0,0
0.1170,1783012360.0998,1,0,1.0000,0.0000,1.44682,0.23328,-2.77748,0.97337,1.57080,-0.00000,-0.14512,-0.38003,0.04653,,,,,,,,,,,,,,,,,,,,,,,,,,0,0,0,0,0
0.1279,1783012360.1106,1,0,1.0000,0.0000,1.44682,0.23328,-2.77748,0.97337,1.57080,-0.00000,-0.14512,-0.38003,0.04653,,,,,,,,,,,,,,,,,,,,,,,,,,0,0,0,0,0
0.1400,1783012360.1227,1,0,1.0000,0.0000,1.44682,0.23328,-2.77748,0.97337,1.57080,-0.00000,-0.14512,-0.38003,0.04653,,,,,,,,,,,,,,,,,,,,,,,,,,0,0,0,0,0
0.1510,1783012360.1337,1,0,1.0000,0.0000,1.44682,0.23328,-2.77748,0.97337,1.57080,-0.00000,-0.14512,-0.38003,0.04653,,,,,,,,,,,,,,,,,,,,,,,,,,0,0,0,0,0
0.1598,1783012360.1425,1,0,1.0000,0.0000,1.44682,0.23328,-2.77748,0.97337,1.57080,-0.00000,-0.14512,-0.38003,0.04653,,,,,,,,,,,,,,,,,,,,,,,,,,0,0,0,0,0
0.1669,1783012360.1496,1,0,1.0000,0.0000,1.44682,0.23328,-2.77748,0.97337,1.57080,-0.00000,-0.14512,-0.38003,0.04653,,,,,,,,,,,,,,,,,,,,,,,,,,0,0,0,0,0
0.1767,1783012360.1594,1,0,1.0000,0.0000,1.44682,0.23328,-2.77748,0.97337,1.57080,0.00000,-0.14512,-0.38003,0.04653,,,,,,,,,,,,,,,,,,,,,,,,,,0,0,0,0,0
0.1869,1783012360.1696,1,0,1.0000,0.0000,1.44682,0.23328,-2.77748,0.97337,1.57080,0.00000,-0.14512,-0.38003,0.04653,,,,,,,,,,,,,,,,,,,,,,,,,,0,0,0,0,0
0.1996,1783012360.1824,1,0,1.0000,0.0000,1.44682,0.23328,-2.77748,0.97337,1.57080,0.00000,-0.14512,-0.38003,0.04653,,,,,,,,,,,,,,,,,,,,,,,,,,0,0,0,0,0
0.2077,1783012360.1904,1,0,1.0000,0.0000,1.44682,0.23328,-2.77748,0.97337,1.57080,-0.00000,-0.14512,-0.38003,0.04653,,,,,,,,,,,,,,,,,,,,,,,,,,0,0,0,0,0
0.2173,1783012360.2000,1,0,1.0000,0.0000,1.44682,0.23328,-2.77748,0.97337,1.57080,0.00000,-0.14512,-0.38003,0.04653,,,,,,,,,,,,,,,,,,,,,,,,,,0,0,0,0,0
0.2269,1783012360.2096,1,0,1.0000,0.0000,1.44682,0.23328,-2.77748,0.97337,1.57080,0.00000,-0.14512,-0.38003,0.04653,,,,,,,,,,,,,,,,,,,,,,,,,,0,0,0,0,0
0.2436,1783012360.2263,1,0,1.0000,0.0000,1.44682,0.23328,-2.77748,0.97337,1.57080,-0.00000,-0.14512,-0.38003,0.04653,,,,,,,,,,,,,,,,,,,,,,,,,,0,0,0,0,0
0.2482,1783012360.2309,1,0,1.0000,0.0000,1.44682,0.23328,-2.77748,0.97337,1.57080,0.00000,-0.14512,-0.38003,0.04653,,,,,,,,,,,,,,,,,,,,,,,,,,0,0,0,0,0
0.2485,1783012360.2312,1,0,1.0000,0.0000,1.44682,0.23328,-2.77748,0.97337,1.57080,0.00000,-0.14512,-0.38003,0.04653,,,,,,,,,,,,,,,,,,,,,,,,,,0,0,0,0,0
0.2567,1783012360.2394,1,0,1.0000,0.0000,1.44682,0.23328,-2.77748,0.97337,1.57080,0.00000,-0.14512,-0.38003,0.04653,,,,,,,,,,,,,,,,,,,,,,,,,,0,0,0,0,0
0.2695,1783012360.2522,1,0,1.0000,0.0000,1.44682,0.23328,-2.77748,0.97337,1.57080,0.00000,-0.14512,-0.38003,0.04653,,,,,,,,,,,,,,,,,,,,,,,,,,0,0,0,0,0
0.2801,1783012360.2628,1,0,1.0000,0.0000,1.44682,0.23328,-2.77748,0.97337,1.57080,0.00000,-0.14512,-0.38003,0.04653,,,,,,,,,,,,,,,,,,,,,,,,,,0,0,0,0,0
0.2901,1783012360.2728,1,0,1.0000,0.0000,1.44682,0.23328,-2.77748,0.97337,1.57080,0.00000,-0.14512,-0.38003,0.04653,,,,,,,,,,,,,,,,,,,,,,,,,,0,0,0,0,0
0.2988,1783012360.2816,1,0,1.0000,0.0000,1.44682,0.23328,-2.77748,0.97337,1.57080,0.00000,-0.14512,-0.38003,0.04653,,,,,,,,,,,,,,,,,,,,,,,,,,0,0,0,0,0
0.3079,1783012360.2906,1,0,1.0000,0.0000,1.44682,0.23328,-2.77748,0.97337,1.57080,0.00000,-0.14512,-0.38003,0.04653,,,,,,,,,,,,,,,,,,,,,,,,,,0,0,0,0,0
0.3183,1783012360.3010,1,0,1.0000,0.0000,1.44682,0.23328,-2.77748,0.97337,1.57080,-0.00000,-0.14512,-0.38003,0.04653,,,,,,,,,,,,,,,,,,,,,,,,,,0,0,0,0,0
0.3270,1783012360.3097,1,0,1.0000,0.0000,1.44682,0.23328,-2.77748,0.97337,1.57080,-0.00000,-0.14512,-0.38003,0.04653,,,,,,,,,,,,,,,,,,,,,,,,,,0,0,0,0,0
0.3369,1783012360.3196,1,0,1.0000,0.0000,1.44682,0.23328,-2.77748,0.97337,1.57080,-0.00000,-0.14512,-0.38003,0.04653,,,,,,,,,,,,,,,,,,,,,,,,,,0,0,0,0,0
0.3478,1783012360.3305,1,0,1.0000,0.0000,1.44682,0.23328,-2.77748,0.97337,1.57080,-0.00000,-0.14512,-0.38003,0.04653,,,,,,,,,,,,,,,,,,,,,,,,,,0,0,0,0,0
0.3482,1783012360.3309,1,0,1.0000,0.0000,1.44682,0.23328,-2.77748,0.97337,1.57080,-0.00000,-0.14512,-0.38003,0.04653,,,,,,,,,,,,,,,,,,,,,,,,,,0,0,0,0,0
0.3568,1783012360.3395,1,0,1.0000,0.0000,1.44682,0.23328,-2.77748,0.97337,1.57080,-0.00000,-0.14512,-0.38003,0.04653,,,,,,,,,,,,,,,,,,,,,,,,,,0,0,0,0,0
0.3571,1783012360.3399,1,0,1.0000,0.0000,1.44682,0.23328,-2.77748,0.97337,1.57080,-0.00000,-0.14512,-0.38003,0.04653,,,,,,,,,,,,,,,,,,,,,,,,,,0,0,0,0,0
0.3672,1783012360.3499,1,0,1.0000,0.0000,1.44682,0.23328,-2.77748,0.97337,1.57080,-0.00000,-0.14512,-0.38003,0.04653,,,,,,,,,,,,,,,,,,,,,,,,,,0,0,0,0,0
0.3767,1783012360.3594,1,0,1.0000,0.0000,1.44682,0.23328,-2.77748,0.97337,1.57080,-0.00000,-0.14512,-0.38003,0.04653,,,,,,,,,,,,,,,,,,,,,,,,,,0,0,0,0,0
0.3770,1783012360.3597,1,0,1.0000,0.0000,1.44682,0.23328,-2.77748,0.97337,1.57080,-0.00000,-0.14512,-0.38003,0.04653,,,,,,,,,,,,,,,,,,,,,,,,,,0,0,0,0,0
0.3912,1783012360.3740,1,0,1.0000,0.0000,1.44682,0.23328,-2.77748,0.97337,1.57080,-0.00000,-0.14512,-0.38003,0.04653,,,,,,,,,,,,,,,,,,,,,,,,,,0,0,0,0,0
0.4038,1783012360.3865,1,0,1.0000,0.0000,1.44682,0.23328,-2.77748,0.97337,1.57080,-0.00000,-0.14512,-0.38003,0.04653,,,,,,,,,,,,,,,,,,,,,,,,,,0,0,0,0,0
0.4043,1783012360.3870,1,0,1.0000,0.0000,1.44682,0.23328,-2.77748,0.97337,1.57080,-0.00000,-0.14512,-0.38003,0.04653,,,,,,,,,,,,,,,,,,,,,,,,,,0,0,0,0,0
0.4093,1783012360.3920,1,0,1.0000,0.0000,1.44682,0.23328,-2.77748,0.97337,1.57080,-0.00000,-0.14512,-0.38003,0.04653,,,,,,,,,,,,,,,,,,,,,,,,,,0,0,0,0,0
0.4228,1783012360.4055,1,0,1.0000,0.0000,1.44682,0.23328,-2.77748,0.97337,1.57080,-0.00000,-0.14512,-0.38003,0.04653,,,,,,,,,,,,,,,,,,,,,,,,,,0,0,0,0,0
0.4275,1783012360.4102,1,0,1.0000,0.0000,1.44682,0.23328,-2.77748,0.97337,1.57080,0.00000,-0.14512,-0.38003,0.04653,,,,,,,,,,,,,,,,,,,,,,,,,,0,0,0,0,0
0.4383,1783012360.4210,1,0,1.0000,0.0000,1.44682,0.23328,-2.77748,0.97337,1.57080,0.00000,-0.14512,-0.38003,0.04653,,,,,,,,,,,,,,,,,,,,,,,,,,0,0,0,0,0
0.4746,1783012360.4574,1,0,1.0000,0.0000,1.44682,0.23328,-2.77748,0.97337,1.57080,0.00000,-0.14512,-0.38003,0.04653,,,,,,,,,,,,,,,,,,,,,,,,,,0,0,0,0,0
0.4750,1783012360.4577,1,0,1.0000,0.0000,1.44682,0.23328,-2.77748,0.97337,1.57080,0.00000,-0.14512,-0.38003,0.04653,,,,,,,,,,,,,,,,,,,,,,,,,,0,0,0,0,0
0.4756,1783012360.4583,1,0,1.0000,0.0000,1.44682,0.23328,-2.77748,0.97337,1.57080,0.00000,-0.14512,-0.38003,0.04653,,,,,,,,,,,,,,,,,,,,,,,,,,0,0,0,0,0
0.4807,1783012360.4634,1,0,1.0000,0.0000,1.44682,0.23328,-2.77748,0.97337,1.57080,0.00000,-0.14512,-0.38003,0.04653,,,,,,,,,,,,,,,,,,,,,,,,,,0,0,0,0,0
0.4892,1783012360.4719,1,0,1.0000,0.0000,1.44682,0.23328,-2.77748,0.97337,1.57080,0.00000,-0.14512,-0.38003,0.04653,,,,,,,,,,,,,,,,,,,,,,,,,,0,0,0,0,0
0.4970,1783012360.4797,1,0,1.0000,0.0000,1.44682,0.23328,-2.77748,0.97337,1.57080,0.00000,-0.14512,-0.38003,0.04653,,,,,,,,,,,,,,,,,,,,,,,,,,0,0,0,0,0
0.5125,1783012360.4952,1,0,1.0000,0.0000,1.44682,0.23328,-2.77748,0.97337,1.57080,0.00000,-0.14512,-0.38003,0.04653,,,,,,,,,,,,,,,,,,,,,,,,,,0,0,0,0,0
0.5127,1783012360.4954,1,0,1.0000,0.0000,1.44682,0.23328,-2.77748,0.97337,1.57080,0.00000,-0.14512,-0.38003,0.04653,,,,,,,,,,,,,,,,,,,,,,,,,,0,0,0,0,0
0.5208,1783012360.5035,1,0,1.0000,0.0000,1.44682,0.23328,-2.77748,0.97337,1.57080,0.00000,-0.14512,-0.38003,0.04653,,,,,,,,,,,,,,,,,,,,,,,,,,0,0,0,0,0
0.5277,1783012360.5105,1,0,1.0000,0.0000,1.44682,0.23328,-2.77748,0.97337,1.57080,0.00000,-0.14512,-0.38003,0.04653,,,,,,,,,,,,,,,,,,,,,,,,,,0,0,0,0,0
0.5382,1783012360.5210,1,0,1.0000,0.0000,1.44682,0.23328,-2.77748,0.97337,1.57080,0.00000,-0.14512,-0.38003,0.04653,,,,,,,,,,,,,,,,,,,,,,,,,,0,0,0,0,0
0.5470,1783012360.5297,1,0,1.0000,0.0000,1.44682,0.23328,-2.77748,0.97337,1.57080,0.00000,-0.14512,-0.38003,0.04653,,,,,,,,,,,,,,,,,,,,,,,,,,0,0,0,0,0
0.5601,1783012360.5428,1,0,1.0000,0.0000,1.44682,0.23328,-2.77748,0.97337,1.57080,0.00000,-0.14512,-0.38003,0.04653,,,,,,,,,,,,,,,,,,,,,,,,,,0,0,0,0,0
0.5679,1783012360.5506,1,0,1.0000,0.0000,1.44682,0.23328,-2.77748,0.97337,1.57080,0.00000,-0.14512,-0.38003,0.04653,,,,,,,,,,,,,,,,,,,,,,,,,,0,0,0,0,0
0.5682,1783012360.5509,1,0,1.0000,0.0000,1.44682,0.23328,-2.77748,0.97337,1.57080,0.00000,-0.14512,-0.38003,0.04653,,,,,,,,,,,,,,,,,,,,,,,,,,0,0,0,0,0
0.5767,1783012360.5595,1,0,1.0000,0.0000,1.44682,0.23328,-2.77748,0.97337,1.57080,0.00000,-0.14512,-0.38003,0.04653,,,,,,,,,,,,,,,,,,,,,,,,,,0,0,0,0,0
0.5881,1783012360.5708,1,0,1.0000,0.0000,1.44682,0.23328,-2.77748,0.97337,1.57080,0.00000,-0.14512,-0.38003,0.04653,,,,,,,,,,,,,,,,,,,,,,,,,,0,0,0,0,0
0.5884,1783012360.5711,1,0,1.0000,0.0000,1.44682,0.23328,-2.77748,0.97337,1.57080,0.00000,-0.14512,-0.38003,0.04653,,,,,,,,,,,,,,,,,,,,,,,,,,0,0,0,0,0
0.6089,1783012360.5916,1,0,1.0000,0.0000,1.44682,0.23328,-2.77748,0.97337,1.57080,0.00000,-0.14512,-0.38003,0.04653,,,,,,,,,,,,,,,,,,,,,,,,,,0,0,0,0,0
0.6308,1783012360.6135,1,0,1.0000,0.0000,1.44682,0.23328,-2.77748,0.97337,1.57080,0.00000,-0.14512,-0.38003,0.04653,,,,,,,,,,,,,,,,,,,,,,,,,,0,0,0,0,0
0.6312,1783012360.6139,1,0,1.0000,0.0000,1.44682,0.23328,-2.77748,0.97337,1.57080,0.00000,-0.14512,-0.38003,0.04653,,,,,,,,,,,,,,,,,,,,,,,,,,0,0,0,0,0
0.6772,1783012360.6599,1,0,1.0000,0.0000,1.44682,0.23328,-2.77748,0.97337,1.57080,0.00000,-0.14512,-0.38003,0.04653,,,,,,,,,,,,,,,,,,,,,,,,,,0,0,0,0,0
0.6774,1783012360.6601,1,0,1.0000,0.0000,1.44682,0.23328,-2.77748,0.97337,1.57080,0.00000,-0.14512,-0.38003,0.04653,,,,,,,,,,,,,,,,,,,,,,,,,,0,0,0,0,0
0.6777,1783012360.6604,1,0,1.0000,0.0000,1.44682,0.23328,-2.77748,0.97337,1.57080,0.00000,-0.14512,-0.38003,0.04653,,,,,,,,,,,,,,,,,,,,,,,,,,0,0,0,0,0
0.6781,1783012360.6608,1,0,1.0000,0.0000,1.44682,0.23328,-2.77748,0.97337,1.57080,0.00000,-0.14512,-0.38003,0.04653,,,,,,,,,,,,,,,,,,,,,,,,,,0,0,0,0,0
0.6784,1783012360.6611,1,0,1.0000,0.0000,1.44682,0.23328,-2.77748,0.97337,1.57080,0.00000,-0.14512,-0.38003,0.04653,,,,,,,,,,,,,,,,,,,,,,,,,,0,0,0,0,0
0.6787,1783012360.6615,1,0,1.0000,0.0000,1.44682,0.23328,-2.77748,0.97337,1.57080,0.00000,-0.14512,-0.38003,0.04653,,,,,,,,,,,,,,,,,,,,,,,,,,0,0,0,0,0
0.6789,1783012360.6617,1,0,1.0000,0.0000,1.44682,0.23328,-2.77748,0.97337,1.57080,0.00000,-0.14512,-0.38003,0.04653,,,,,,,,,,,,,,,,,,,,,,,,,,0,0,0,0,0
0.6793,1783012360.6620,1,0,1.0000,0.0000,1.44682,0.23328,-2.77748,0.97337,1.57080,0.00000,-0.14512,-0.38003,0.04653,,,,,,,,,,,,,,,,,,,,,,,,,,0,0,0,0,0
0.6798,1783012360.6625,1,0,1.0000,0.0000,1.44682,0.23328,-2.77748,0.97337,1.57080,0.00000,-0.14512,-0.38003,0.04653,,,,,,,,,,,,,,,,,,,,,,,,,,0,0,0,0,0
0.6883,1783012360.6711,1,0,1.0000,0.0000,1.44682,0.23328,-2.77748,0.97337,1.57080,0.00000,-0.14512,-0.38003,0.04653,,,,,,,,,,,,,,,,,,,,,,,,,,0,0,0,0,0
0.6982,1783012360.6809,1,0,1.0000,0.0000,1.44682,0.23328,-2.77748,0.97337,1.57080,0.00000,-0.14512,-0.38003,0.04653,,,,,,,,,,,,,,,,,,,,,,,,,,0,0,0,0,0
0.6985,1783012360.6812,1,0,1.0000,0.0000,1.44682,0.23328,-2.77748,0.97337,1.57080,0.00000,-0.14512,-0.38003,0.04653,,,,,,,,,,,,,,,,,,,,,,,,,,0,0,0,0,0
0.7106,1783012360.6933,1,0,1.0000,0.0000,1.44682,0.23328,-2.77748,0.97337,1.57080,0.00000,-0.14512,-0.38003,0.04653,,,,,,,,,,,,,,,,,,,,,,,,,,0,0,0,0,0
0.7191,1783012360.7018,1,0,1.0000,0.0000,1.44682,0.23328,-2.77748,0.97337,1.57080,0.00000,-0.14512,-0.38003,0.04653,,,,,,,,,,,,,,,,,,,,,,,,,,0,0,0,0,0
0.7294,1783012360.7122,1,0,1.0000,0.0000,1.44682,0.23328,-2.77748,0.97337,1.57080,-0.00000,-0.14512,-0.38003,0.04653,,,,,,,,,,,,,,,,,,,,,,,,,,0,0,0,0,0
0.7426,1783012360.7253,1,1,1.0000,0.0000,1.44682,0.23328,-2.77748,0.97337,1.57080,0.00000,-0.14512,-0.38003,0.04653,,,,,,,,,,,,,,,,,,,,,,,,,,0,0,0,0,0
0.7552,1783012360.7379,1,1,1.0000,0.0000,1.44682,0.23328,-2.77748,0.97337,1.57080,0.00000,-0.14512,-0.38003,0.04653,,,,,,,,,,,,,,,,,,,,,,,,,,0,0,0,0,0
0.7578,1783012360.7405,1,1,1.0000,0.0000,1.44682,0.23328,-2.77748,0.97337,1.57080,0.00000,-0.14512,-0.38003,0.04653,,,,,,,,,,,,,,,,,,,,,,,,,,0,0,0,0,0
0.7729,1783012360.7556,1,1,1.0000,0.0000,1.44682,0.23328,-2.77748,0.97337,1.57080,0.00000,-0.14512,-0.38003,0.04653,,,,,,,,,,,,,,,,,,,,,,,,,,0,0,0,0,0
0.7767,1783012360.7594,1,1,1.0000,0.0000,1.44682,0.23328,-2.77748,0.97337,1.57080,0.00000,-0.14512,-0.38003,0.04653,,,,,,,,,,,,,,,,,,,,,,,,,,0,0,0,0,0
0.7887,1783012360.7715,1,1,1.0000,0.0000,1.44682,0.23328,-2.77748,0.97337,1.57080,0.00000,-0.14512,-0.38003,0.04653,,,,,,,,,,,,,,,,,,,,,,,,,,0,0,0,0,0
0.7996,1783012360.7823,1,1,1.0000,0.0000,1.44682,0.23328,-2.77748,0.97337,1.57080,0.00000,-0.14512,-0.38003,0.04653,,,,,,,,,,,,,,,,,,,,,,,,,,0,0,0,0,0
0.8080,1783012360.7907,1,1,1.0000,0.0000,1.44682,0.23328,-2.77748,0.97337,1.57080,0.00000,-0.14512,-0.38003,0.04653,,,,,,,,,,,,,,,,,,,,,,,,,,0,0,0,0,0
0.8166,1783012360.7993,1,1,1.0000,0.0000,1.44682,0.23328,-2.77748,0.97337,1.57080,0.00000,-0.14512,-0.38003,0.04653,,,,,,,,,,,,,,,,,,,,,,,,,,0,0,0,0,0
0.8286,1783012360.8113,1,1,1.0000,0.0000,1.44682,0.23328,-2.77748,0.97337,1.57080,0.00000,-0.14512,-0.38003,0.04653,,,,,,,,,,,,,,,,,,,,,,,,,,0,0,0,0,0
0.8378,1783012360.8205,1,1,1.0000,0.0000,1.44682,0.23328,-2.77748,0.97337,1.57080,0.00000,-0.14512,-0.38003,0.04653,,,,,,,,,,,,,,,,,,,,,,,,,,0,0,0,0,0
0.8481,1783012360.8309,1,1,1.0000,0.0000,1.44682,0.23328,-2.77748,0.97337,1.57080,0.00000,-0.14512,-0.38003,0.04653,,,,,,,,,,,,,,,,,,,,,,,,,,0,0,0,0,0
0.8486,1783012360.8313,1,1,1.0000,0.0000,1.44682,0.23328,-2.77748,0.97337,1.57080,0.00000,-0.14512,-0.38003,0.04653,,,,,,,,,,,,,,,,,,,,,,,,,,0,0,0,0,0
0.8630,1783012360.8457,1,1,1.0000,0.0000,1.44682,0.23328,-2.77748,0.97337,1.57080,0.00000,-0.14512,-0.38003,0.04653,,,,,,,,,,,,,,,,,,,,,,,,,,0,0,0,0,0
0.8689,1783012360.8517,1,1,1.0000,0.0000,1.44682,0.23328,-2.77748,0.97337,1.57080,0.00000,-0.14512,-0.38003,0.04653,,,,,,,,,,,,,,,,,,,,,,,,,,0,0,0,0,0
0.8808,1783012360.8635,1,1,1.0000,0.0000,1.44682,0.23328,-2.77748,0.97337,1.57080,0.00000,-0.14512,-0.38003,0.04653,,,,,,,,,,,,,,,,,,,,,,,,,,0,0,0,0,0
0.8874,1783012360.8701,1,1,1.0000,0.0000,1.44682,0.23328,-2.77748,0.97337,1.57080,0.00000,-0.14512,-0.38003,0.04653,,,,,,,,,,,,,,,,,,,,,,,,,,0,0,0,0,0
0.8883,1783012360.8710,1,1,1.0000,0.0000,1.44682,0.23328,-2.77748,0.97337,1.57080,0.00000,-0.14512,-0.38003,0.04653,,,,,,,,,,,,,,,,,,,,,,,,,,0,0,0,0,0
0.9015,1783012360.8842,1,1,1.0000,0.0000,1.44682,0.23328,-2.77748,0.97337,1.57080,-0.00000,-0.14512,-0.38003,0.04653,,,,,,,,,,,,,,,,,,,,,,,,,,0,0,0,0,0
0.9078,1783012360.8905,1,1,1.0000,0.0000,1.44682,0.23328,-2.77748,0.97337,1.57080,0.00000,-0.14512,-0.38003,0.04653,,,,,,,,,,,,,,,,,,,,,,,,,,0,0,0,0,0
0.9080,1783012360.8907,1,1,1.0000,0.0000,1.44682,0.23328,-2.77748,0.97337,1.57080,0.00000,-0.14512,-0.38003,0.04653,,,,,,,,,,,,,,,,,,,,,,,,,,0,0,0,0,0
0.9169,1783012360.8996,1,1,1.0000,0.0000,1.44682,0.23328,-2.77748,0.97337,1.57080,-0.00000,-0.14512,-0.38003,0.04653,,,,,,,,,,,,,,,,,,,,,,,,,,0,0,0,0,0
0.9319,1783012360.9146,1,1,1.0000,0.0000,1.44682,0.23323,-2.77749,0.97343,1.57080,0.00000,-0.14512,-0.38003,0.04652,,,,,,,,,,,,,,,,,,,,,,,,,,0,0,0,0,0
0.9322,1783012360.9149,1,1,1.0000,0.0000,1.44682,0.23323,-2.77749,0.97343,1.57080,0.00000,-0.14512,-0.38003,0.04652,,,,,,,,,,,,,,,,,,,,,,,,,,0,0,0,0,0
0.9381,1783012360.9208,1,1,1.0000,0.0000,1.44682,0.23321,-2.77750,0.97346,1.57080,0.00000,-0.14512,-0.38003,0.04651,,,,,,,,,,,,,,,,,,,,,,,,,,0,0,0,0,0
0.9493,1783012360.9321,1,1,1.0000,0.0000,1.44682,0.23312,-2.77752,0.97357,1.57080,0.00000,-0.14512,-0.38003,0.04649,,,,,,,,,,,,,,,,,,,,,,,,,,0,0,0,0,0
0.9798,1783012360.9625,1,1,1.0000,0.0000,1.44682,0.23301,-2.77755,0.97370,1.57080,0.00000,-0.14512,-0.38003,0.04646,,,,,,,,,,,,,,,,,,,,,,,,,,0,0,0,0,0
0.9837,1783012360.9664,1,1,1.0000,0.0000,1.44682,0.23301,-2.77755,0.97371,1.57080,0.00000,-0.14512,-0.38003,0.04646,,,,,,,,,,,,,,,,,,,,,,,,,,0,0,0,0,0
0.9838,1783012360.9665,1,1,1.0000,0.0000,1.44682,0.23301,-2.77755,0.97371,1.57080,0.00000,-0.14512,-0.38003,0.04646,,,,,,,,,,,,,,,,,,,,,,,,,,0,0,0,0,0
0.9881,1783012360.9709,1,1,1.0000,0.0000,1.44682,0.23299,-2.77755,0.97373,1.57080,0.00000,-0.14512,-0.38003,0.04645,,,,,,,,,,,,,,,,,,,,,,,,,,0,0,0,0,0
0.9885,1783012360.9712,1,1,1.0000,0.0000,1.44682,0.23299,-2.77755,0.97373,1.57080,0.00000,-0.14512,-0.38003,0.04645,,,,,,,,,,,,,,,,,,,,,,,,,,0,0,0,0,0
1.0008,1783012360.9835,1,1,1.0000,0.0000,1.44682,0.23293,-2.77757,0.97381,1.57080,0.00000,-0.14512,-0.38003,0.04644,,,,,,,,,,,,,,,,,,,,,,,,,,0,0,0,0,0
1.0068,1783012360.9895,1,1,1.0000,0.0000,1.44682,0.23290,-2.77757,0.97384,1.57080,0.00000,-0.14512,-0.38003,0.04643,,,,,,,,,,,,,,,,,,,,,,,,,,0,0,0,0,0
1.0239,1783012361.0066,1,1,1.0000,0.0000,1.44682,0.23284,-2.77759,0.97392,1.57080,0.00000,-0.14512,-0.38003,0.04641,,,,,,,,,,,,,,,,,,,,,,,,,,0,0,0,0,0
1.0242,1783012361.0069,1,1,1.0000,0.0000,1.44682,0.23284,-2.77759,0.97392,1.57080,0.00000,-0.14512,-0.38003,0.04641,,,,,,,,,,,,,,,,,,,,,,,,,,0,0,0,0,0
1.0271,1783012361.0098,1,1,1.0000,0.0000,1.44682,0.23284,-2.77759,0.97392,1.57080,0.00000,-0.14512,-0.38003,0.04641,,,,,,,,,,,,,,,,,,,,,,,,,,0,0,0,0,0
1.0369,1783012361.0196,1,1,1.0000,0.0000,1.44682,0.23277,-2.77761,0.97401,1.57080,0.00000,-0.14512,-0.38003,0.04639,,,,,,,,,,,,,,,,,,,,,,,,,,0,0,0,0,0
1.0490,1783012361.0318,1,1,1.0000,0.0000,1.44682,0.23275,-2.77761,0.97403,1.57080,0.00000,-0.14512,-0.38003,0.04639,,,,,,,,,,,,,,,,,,,,,,,,,,0,0,0,0,0
1.0613,1783012361.0440,1,1,1.0000,0.0000,1.44682,0.23269,-2.77763,0.97411,1.57080,0.00000,-0.14512,-0.38003,0.04637,,,,,,,,,,,,,,,,,,,,,,,,,,0,0,0,0,0
1.0679,1783012361.0506,1,1,1.0000,0.0000,1.44682,0.23263,-2.77764,0.97418,1.57080,0.00000,-0.14512,-0.38003,0.04636,,,,,,,,,,,,,,,,,,,,,,,,,,0,0,0,0,0
1.0799,1783012361.0627,1,1,1.0000,0.0000,1.44682,0.23262,-2.77765,0.97420,1.57080,0.00000,-0.14512,-0.38003,0.04636,,,,,,,,,,,,,,,,,,,,,,,,,,0,0,0,0,0
1.0802,1783012361.0629,1,1,1.0000,0.0000,1.44682,0.23262,-2.77765,0.97420,1.57080,0.00000,-0.14512,-0.38003,0.04636,,,,,,,,,,,,,,,,,,,,,,,,,,0,0,0,0,0
1.0879,1783012361.0706,1,1,1.0000,0.0000,1.44682,0.23258,-2.77766,0.97425,1.57080,0.00000,-0.14512,-0.38003,0.04634,,,,,,,,,,,,,,,,,,,,,,,,,,0,0,0,0,0
1.0883,1783012361.0710,1,1,1.0000,0.0000,1.44682,0.23258,-2.77766,0.97425,1.57080,0.00000,-0.14512,-0.38003,0.04634,,,,,,,,,,,,,,,,,,,,,,,,,,0,0,0,0,0
1.1001,1783012361.0828,1,1,1.0000,0.0000,1.44682,0.23253,-2.77767,0.97431,1.57080,0.00000,-0.14512,-0.38003,0.04633,,,,,,,,,,,,,,,,,,,,,,,,,,0,0,0,0,0
1.1087,1783012361.0914,1,1,1.0000,0.0000,1.44682,0.23251,-2.77767,0.97434,1.57080,0.00000,-0.14512,-0.38003,0.04633,,,,,,,,,,,,,,,,,,,,,,,,,,0,0,0,0,0
1.1188,1783012361.1016,1,1,1.0000,0.0000,1.44682,0.23247,-2.77769,0.97439,1.57080,0.00000,-0.14512,-0.38003,0.04632,,,,,,,,,,,,,,,,,,,,,,,,,,0,0,0,0,0
1.1281,1783012361.1108,1,1,1.0000,0.0000,1.44682,0.23239,-2.77771,0.97448,1.57080,0.00000,-0.14512,-0.38003,0.04630,,,,,,,,,,,,,,,,,,,,,,,,,,0,0,0,0,0
1.1411,1783012361.1238,1,1,1.0000,0.0000,1.44682,0.23238,-2.77771,0.97450,1.57080,0.00000,-0.14512,-0.38003,0.04629,,,,,,,,,,,,,,,,,,,,,,,,,,0,0,0,0,0
1.1415,1783012361.1242,1,1,1.0000,0.0000,1.44682,0.23238,-2.77771,0.97450,1.57080,0.00000,-0.14512,-0.38003,0.04629,,,,,,,,,,,,,,,,,,,,,,,,,,0,0,0,0,0
1.1470,1783012361.1298,1,1,1.0000,0.0000,1.44682,0.23236,-2.77771,0.97453,1.57080,0.00000,-0.14512,-0.38003,0.04629,,,,,,,,,,,,,,,,,,,,,,,,,,0,0,0,0,0
1.1671,1783012361.1498,1,1,1.0000,0.0000,1.44682,0.23228,-2.77773,0.97463,1.57080,0.00000,-0.14512,-0.38003,0.04627,,,,,,,,,,,,,,,,,,,,,,,,,,0,0,0,0,0
1.1687,1783012361.1515,1,1,1.0000,0.0000,1.44682,0.23227,-2.77774,0.97464,1.57080,0.00000,-0.14512,-0.38003,0.04626,,,,,,,,,,,,,,,,,,,,,,,,,,0,0,0,0,0
1.1767,1783012361.1594,1,1,1.0000,0.0000,1.44682,0.23223,-2.77775,0.97469,1.57080,0.00000,-0.14512,-0.38003,0.04625,,,,,,,,,,,,,,,,,,,,,,,,,,0,0,0,0,0
1.1769,1783012361.1597,1,1,1.0000,0.0000,1.44682,0.23223,-2.77775,0.97469,1.57080,0.00000,-0.14512,-0.38003,0.04625,,,,,,,,,,,,,,,,,,,,,,,,,,0,0,0,0,0
1.1878,1783012361.1705,1,1,1.0000,0.0000,1.44682,0.23215,-2.77777,0.97479,1.57080,0.00000,-0.14512,-0.38003,0.04623,,,,,,,,,,,,,,,,,,,,,,,,,,0,0,0,0,0
1.1881,1783012361.1708,1,1,1.0000,0.0000,1.44682,0.23215,-2.77777,0.97479,1.57080,0.00000,-0.14512,-0.38003,0.04623,,,,,,,,,,,,,,,,,,,,,,,,,,0,0,0,0,0
1.2137,1783012361.1964,1,1,1.0000,0.0000,1.44682,0.23207,-2.77779,0.97489,1.57080,0.00000,-0.14512,-0.38003,0.04621,,,,,,,,,,,,,,,,,,,,,,,,,,0,0,0,0,0
1.2139,1783012361.1966,1,1,1.0000,0.0000,1.44682,0.23207,-2.77779,0.97489,1.57080,0.00000,-0.14512,-0.38003,0.04621,,,,,,,,,,,,,,,,,,,,,,,,,,0,0,0,0,0
1.2233,1783012361.2061,1,1,1.0000,0.0000,1.44682,0.23204,-2.77780,0.97492,1.57080,0.00000,-0.14512,-0.38003,0.04620,,,,,,,,,,,,,,,,,,,,,,,,,,0,0,0,0,0
1.2334,1783012361.2161,1,1,1.0000,0.0000,1.44682,0.23201,-2.77780,0.97497,1.57080,0.00000,-0.14512,-0.38003,0.04620,,,,,,,,,,,,,,,,,,,,,,,,,,0,0,0,0,0
1.2411,1783012361.2238,1,1,1.0000,0.0000,1.44682,0.23196,-2.77782,0.97503,1.57080,0.00000,-0.14512,-0.38003,0.04618,,,,,,,,,,,,,,,,,,,,,,,,,,0,0,0,0,0
1.2415,1783012361.2242,1,1,1.0000,0.0000,1.44682,0.23196,-2.77782,0.97503,1.57080,0.00000,-0.14512,-0.38003,0.04618,,,,,,,,,,,,,,,,,,,,,,,,,,0,0,0,0,0
1.2478,1783012361.2305,1,1,1.0000,0.0000,1.44682,0.23191,-2.77783,0.97509,1.57080,0.00000,-0.14512,-0.38003,0.04617,,,,,,,,,,,,,,,,,,,,,,,,,,0,0,0,0,0
1.2724,1783012361.2551,1,1,1.0000,0.0000,1.44682,0.23182,-2.77785,0.97520,1.57080,0.00000,-0.14512,-0.38003,0.04615,,,,,,,,,,,,,,,,,,,,,,,,,,0,0,0,0,0
1.2726,1783012361.2554,1,1,1.0000,0.0000,1.44682,0.23182,-2.77785,0.97520,1.57080,0.00000,-0.14512,-0.38003,0.04615,,,,,,,,,,,,,,,,,,,,,,,,,,0,0,0,0,0
1.2946,1783012361.2773,1,1,1.0000,0.0000,1.44682,0.23176,-2.77787,0.97528,1.57080,0.00000,-0.14512,-0.38003,0.04613,,,,,,,,,,,,,,,,,,,,,,,,,,0,0,0,0,0
1.2950,1783012361.2777,1,1,1.0000,0.0000,1.44682,0.23176,-2.77787,0.97528,1.57080,0.00000,-0.14512,-0.38003,0.04613,,,,,,,,,,,,,,,,,,,,,,,,,,0,0,0,0,0
1.3032,1783012361.2859,1,1,1.0000,0.0000,1.44682,0.23173,-2.77788,0.97532,1.57080,0.00000,-0.14512,-0.38003,0.04612,,,,,,,,,,,,,,,,,,,,,,,,,,0,0,0,0,0
1.3090,1783012361.2917,1,1,1.0000,0.0000,1.44682,0.23169,-2.77789,0.97537,1.57080,0.00000,-0.14512,-0.38003,0.04611,,,,,,,,,,,,,,,,,,,,,,,,,,0,0,0,0,0
1.3174,1783012361.3001,1,1,1.0000,0.0000,1.44682,0.23168,-2.77789,0.97538,1.57080,0.00000,-0.14512,-0.38003,0.04611,,,,,,,,,,,,,,,,,,,,,,,,,,0,0,0,0,0
1.3329,1783012361.3157,1,1,1.0000,0.0000,1.44682,0.23160,-2.77791,0.97548,1.57080,0.00000,-0.14512,-0.38003,0.04609,,,,,,,,,,,,,,,,,,,,,,,,,,0,0,0,0,0
1.3367,1783012361.3194,1,1,1.0000,0.0000,1.44682,0.23157,-2.77792,0.97551,1.57080,0.00000,-0.14512,-0.38003,0.04608,,,,,,,,,,,,,,,,,,,,,,,,,,0,0,0,0,0
1.3466,1783012361.3294,1,1,1.0000,0.0000,1.44682,0.23155,-2.77792,0.97554,1.57080,0.00000,-0.14512,-0.38003,0.04608,,,,,,,,,,,,,,,,,,,,,,,,,,0,0,0,0,0
1.3678,1783012361.3505,1,1,1.0000,0.0000,1.44682,0.23146,-2.77794,0.97565,1.57080,0.00000,-0.14512,-0.38003,0.04605,,,,,,,,,,,,,,,,,,,,,,,,,,0,0,0,0,0
1.3685,1783012361.3512,1,1,1.0000,0.0000,1.44682,0.23146,-2.77794,0.97565,1.57080,0.00000,-0.14512,-0.38003,0.04605,,,,,,,,,,,,,,,,,,,,,,,,,,0,0,0,0,0
1.3687,1783012361.3515,1,1,1.0000,0.0000,1.44682,0.23146,-2.77794,0.97565,1.57080,0.00000,-0.14512,-0.38003,0.04605,,,,,,,,,,,,,,,,,,,,,,,,,,0,0,0,0,0
1.3791,1783012361.3618,1,1,1.0000,0.0000,1.44682,0.23146,-2.77795,0.97566,1.57080,0.00000,-0.14512,-0.38003,0.04605,,,,,,,,,,,,,,,,,,,,,,,,,,0,0,0,0,0
1.3903,1783012361.3730,1,1,1.0000,0.0000,1.44682,0.23140,-2.77796,0.97572,1.57080,0.00000,-0.14512,-0.38003,0.04604,,,,,,,,,,,,,,,,,,,,,,,,,,0,0,0,0,0
1.4039,1783012361.3866,1,1,1.0000,0.0000,1.44682,0.23133,-2.77798,0.97582,1.57080,0.00000,-0.14512,-0.38003,0.04602,,,,,,,,,,,,,,,,,,,,,,,,,,0,0,0,0,0
1.4070,1783012361.3897,1,1,1.0000,0.0000,1.44682,0.23133,-2.77798,0.97582,1.57080,0.00000,-0.14512,-0.38003,0.04602,,,,,,,,,,,,,,,,,,,,,,,,,,0,0,0,0,0
1.4210,1783012361.4037,1,1,1.0000,0.0000,1.44682,0.23128,-2.77799,0.97588,1.57080,0.00000,-0.14512,-0.38003,0.04601,,,,,,,,,,,,,,,,,,,,,,,,,,0,0,0,0,0
1.4286,1783012361.4113,1,1,1.0000,0.0000,1.44682,0.23124,-2.77800,0.97593,1.57080,0.00000,-0.14512,-0.38003,0.04600,,,,,,,,,,,,,,,,,,,,,,,,,,0,0,0,0,0
1.4442,1783012361.4269,1,1,1.0000,0.0000,1.44682,0.23121,-2.77801,0.97597,1.57080,0.00000,-0.14512,-0.38003,0.04599,,,,,,,,,,,,,,,,,,,,,,,,,,0,0,0,0,0
1.4445,1783012361.4272,1,1,1.0000,0.0000,1.44682,0.23121,-2.77801,0.97597,1.57080,0.00000,-0.14512,-0.38003,0.04599,,,,,,,,,,,,,,,,,,,,,,,,,,0,0,0,0,0
1.4518,1783012361.4345,1,1,1.0000,0.0000,1.44682,0.23116,-2.77802,0.97604,1.57080,0.00000,-0.14512,-0.38003,0.04597,,,,,,,,,,,,,,,,,,,,,,,,,,0,0,0,0,0
1.4603,1783012361.4431,1,1,1.0000,0.0000,1.44682,0.23110,-2.77804,0.97610,1.57080,0.00000,-0.14512,-0.38003,0.04596,,,,,,,,,,,,,,,,,,,,,,,,,,0,0,0,0,0
1.4902,1783012361.4729,1,1,1.0000,0.0000,1.44682,0.23102,-2.77806,0.97621,1.57080,0.00000,-0.14512,-0.38003,0.04594,,,,,,,,,,,,,,,,,,,,,,,,,,0,0,0,0,0
1.4905,1783012361.4732,1,1,1.0000,0.0000,1.44682,0.23102,-2.77806,0.97621,1.57080,0.00000,-0.14512,-0.38003,0.04594,,,,,,,,,,,,,,,,,,,,,,,,,,0,0,0,0,0
1.4907,1783012361.4735,1,1,1.0000,0.0000,1.44682,0.23102,-2.77806,0.97621,1.57080,0.00000,-0.14512,-0.38003,0.04594,,,,,,,,,,,,,,,,,,,,,,,,,,0,0,0,0,0
1.4910,1783012361.4737,1,1,1.0000,0.0000,1.44682,0.23102,-2.77806,0.97621,1.57080,0.00000,-0.14512,-0.38003,0.04594,,,,,,,,,,,,,,,,,,,,,,,,,,0,0,0,0,0
1.4965,1783012361.4793,1,1,1.0000,0.0000,1.44682,0.23101,-2.77806,0.97622,1.57080,0.00000,-0.14512,-0.38003,0.04594,,,,,,,,,,,,,,,,,,,,,,,,,,0,0,0,0,0
1.4969,1783012361.4796,1,1,1.0000,0.0000,1.44682,0.23101,-2.77806,0.97622,1.57080,0.00000,-0.14512,-0.38003,0.04594,,,,,,,,,,,,,,,,,,,,,,,,,,0,0,0,0,0
1.5097,1783012361.4924,1,1,1.0000,0.0000,1.44682,0.23096,-2.77807,0.97628,1.57080,0.00000,-0.14512,-0.38003,0.04592,,,,,,,,,,,,,,,,,,,,,,,,,,0,0,0,0,0
1.5237,1783012361.5064,1,1,1.0000,0.0000,1.44682,0.23088,-2.77809,0.97638,1.57080,0.00000,-0.14512,-0.38003,0.04590,,,,,,,,,,,,,,,,,,,,,,,,,,0,0,0,0,0
1.5249,1783012361.5076,1,1,1.0000,0.0000,1.44682,0.23088,-2.77809,0.97638,1.57080,0.00000,-0.14512,-0.38003,0.04590,,,,,,,,,,,,,,,,,,,,,,,,,,0,0,0,0,0
1.5449,1783012361.5276,1,1,1.0000,0.0000,1.44682,0.23082,-2.77811,0.97646,1.57080,0.00000,-0.14512,-0.38003,0.04588,,,,,,,,,,,,,,,,,,,,,,,,,,0,0,0,0,0
1.5453,1783012361.5280,1,1,1.0000,0.0000,1.44682,0.23082,-2.77811,0.97646,1.57080,0.00000,-0.14512,-0.38003,0.04588,,,,,,,,,,,,,,,,,,,,,,,,,,0,0,0,0,0
1.5462,1783012361.5289,1,1,1.0000,0.0000,1.44682,0.23082,-2.77811,0.97646,1.57080,0.00000,-0.14512,-0.38003,0.04588,,,,,,,,,,,,,,,,,,,,,,,,,,0,0,0,0,0
1.5466,1783012361.5293,1,1,1.0000,0.0000,1.44682,0.23082,-2.77811,0.97646,1.57080,0.00000,-0.14512,-0.38003,0.04588,,,,,,,,,,,,,,,,,,,,,,,,,,0,0,0,0,0
1.5613,1783012361.5441,1,1,1.0000,0.0000,1.44682,0.23078,-2.77812,0.97651,1.57080,0.00000,-0.14512,-0.38003,0.04587,,,,,,,,,,,,,,,,,,,,,,,,,,0,0,0,0,0
1.5827,1783012361.5654,1,1,1.0000,0.0000,1.44682,0.23066,-2.77815,0.97666,1.57080,0.00000,-0.14512,-0.38003,0.04584,,,,,,,,,,,,,,,,,,,,,,,,,,0,0,0,0,0
1.5830,1783012361.5657,1,1,1.0000,0.0000,1.44682,0.23066,-2.77815,0.97666,1.57080,0.00000,-0.14512,-0.38003,0.04584,,,,,,,,,,,,,,,,,,,,,,,,,,0,0,0,0,0
1.6004,1783012361.5831,1,1,1.0000,0.0000,1.44682,0.23061,-2.77816,0.97672,1.57080,0.00000,-0.14512,-0.38003,0.04583,,,,,,,,,,,,,,,,,,,,,,,,,,0,0,0,0,0
1.6007,1783012361.5834,1,1,1.0000,0.0000,1.44682,0.23061,-2.77816,0.97672,1.57080,0.00000,-0.14512,-0.38003,0.04583,,,,,,,,,,,,,,,,,,,,,,,,,,0,0,0,0,0
1.6088,1783012361.5915,1,1,1.0000,0.0000,1.44682,0.23057,-2.77817,0.97677,1.57080,0.00000,-0.14512,-0.38003,0.04582,,,,,,,,,,,,,,,,,,,,,,,,,,0,0,0,0,0
1.6238,1783012361.6066,1,1,1.0000,0.0000,1.44682,0.23054,-2.77818,0.97682,1.57080,0.00000,-0.14512,-0.38003,0.04581,,,,,,,,,,,,,,,,,,,,,,,,,,0,0,0,0,0
1.6410,1783012361.6237,1,1,1.0000,0.0000,1.44682,0.23043,-2.77821,0.97694,1.57080,0.00000,-0.14512,-0.38003,0.04579,,,,,,,,,,,,,,,,,,,,,,,,,,0,0,0,0,0
1.6414,1783012361.6241,1,1,1.0000,0.0000,1.44682,0.23043,-2.77821,0.97694,1.57080,0.00000,-0.14512,-0.38003,0.04579,,,,,,,,,,,,,,,,,,,,,,,,,,0,0,0,0,0
1.6498,1783012361.6325,1,1,1.0000,0.0000,1.44682,0.23043,-2.77821,0.97695,1.57080,0.00000,-0.14512,-0.38003,0.04578,,,,,,,,,,,,,,,,,,,,,,,,,,0,0,0,0,0
1.6646,1783012361.6473,1,1,1.0000,0.0000,1.44682,0.23035,-2.77823,0.97705,1.57080,0.00000,-0.14512,-0.38003,0.04576,,,,,,,,,,,,,,,,,,,,,,,,,,0,0,0,0,0
1.6825,1783012361.6652,1,1,1.0000,0.0000,1.44682,0.23031,-2.77824,0.97710,1.57080,0.00000,-0.14512,-0.38003,0.04575,,,,,,,,,,,,,,,,,,,,,,,,,,0,0,0,0,0
1.6835,1783012361.6662,1,1,1.0000,0.0000,1.44682,0.23029,-2.77825,0.97712,1.57080,0.00000,-0.14512,-0.38003,0.04575,,,,,,,,,,,,,,,,,,,,,,,,,,0,0,0,0,0
1.6879,1783012361.6706,1,1,1.0000,0.0000,1.44682,0.23027,-2.77825,0.97715,1.57080,0.00000,-0.14512,-0.38003,0.04574,,,,,,,,,,,,,,,,,,,,,,,,,,0,0,0,0,0
1.6984,1783012361.6812,1,1,1.0000,0.0000,1.44682,0.23022,-2.77826,0.97722,1.57080,0.00000,-0.14512,-0.38003,0.04573,,,,,,,,,,,,,,,,,,,,,,,,,,0,0,0,0,0
1.7078,1783012361.6905,1,1,1.0000,0.0000,1.44682,0.23019,-2.77827,0.97725,1.57080,0.00000,-0.14512,-0.38003,0.04572,,,,,,,,,,,,,,,,,,,,,,,,,,0,0,0,0,0
1.7186,1783012361.7013,1,1,1.0000,0.0000,1.44682,0.23017,-2.77828,0.97728,1.57080,0.00000,-0.14512,-0.38003,0.04572,,,,,,,,,,,,,,,,,,,,,,,,,,0,0,0,0,0
1.7266,1783012361.7093,1,1,1.0000,0.0000,1.44682,0.23013,-2.77829,0.97733,1.57080,0.00000,-0.14512,-0.38003,0.04571,,,,,,,,,,,,,,,,,,,,,,,,,,0,0,0,0,0
1.7271,1783012361.7098,1,1,1.0000,0.0000,1.44682,0.23013,-2.77829,0.97733,1.57080,0.00000,-0.14512,-0.38003,0.04571,,,,,,,,,,,,,,,,,,,,,,,,,,0,0,0,0,0
1.7415,1783012361.7242,1,1,1.0000,0.0000,1.44682,0.23009,-2.77830,0.97738,1.57080,0.00000,-0.14512,-0.38003,0.04569,,,,,,,,,,,,,,,,,,,,,,,,,,0,0,0,0,0
1.7469,1783012361.7296,1,1,1.0000,0.0000,1.44682,0.23007,-2.77830,0.97740,1.57080,0.00000,-0.14512,-0.38003,0.04569,,,,,,,,,,,,,,,,,,,,,,,,,,0,0,0,0,0
1.7476,1783012361.7303,1,1,1.0000,0.0000,1.44682,0.23005,-2.77831,0.97743,1.57080,0.00000,-0.14512,-0.38003,0.04568,,,,,,,,,,,,,,,,,,,,,,,,,,0,0,0,0,0
1.7611,1783012361.7438,1,1,1.0000,0.0000,1.44682,0.22997,-2.77833,0.97753,1.57080,0.00000,-0.14512,-0.38003,0.04566,,,,,,,,,,,,,,,,,,,,,,,,,,0,0,0,0,0
1.7678,1783012361.7505,1,1,1.0000,0.0000,1.44682,0.22997,-2.77833,0.97753,1.57080,0.00000,-0.14512,-0.38003,0.04566,,,,,,,,,,,,,,,,,,,,,,,,,,0,0,0,0,0
1.8046,1783012361.7874,1,1,1.0000,0.0000,1.44682,0.22987,-2.77835,0.97765,1.57080,0.00000,-0.14512,-0.38003,0.04564,,,,,,,,,,,,,,,,,,,,,,,,,,0,0,0,0,0
1.8091,1783012361.7918,1,1,1.0000,0.0000,1.44682,0.22987,-2.77835,0.97765,1.57080,0.00000,-0.14512,-0.38003,0.04564,,,,,,,,,,,,,,,,,,,,,,,,,,0,0,0,0,0
1.8107,1783012361.7934,1,1,1.0000,0.0000,1.44682,0.22983,-2.77836,0.97770,1.57080,0.00000,-0.14512,-0.38003,0.04563,,,,,,,,,,,,,,,,,,,,,,,,,,0,0,0,0,0
1.8187,1783012361.8014,1,1,1.0000,0.0000,1.44682,0.22979,-2.77837,0.97776,1.57080,0.00000,-0.14512,-0.38003,0.04562,,,,,,,,,,,,,,,,,,,,,,,,,,0,0,0,0,0
1.8190,1783012361.8017,1,1,1.0000,0.0000,1.44682,0.22979,-2.77837,0.97776,1.57080,0.00000,-0.14512,-0.38003,0.04562,,,,,,,,,,,,,,,,,,,,,,,,,,0,0,0,0,0
1.8308,1783012361.8135,1,1,1.0000,0.0000,1.44682,0.22976,-2.77838,0.97779,1.57080,0.00000,-0.14512,-0.38003,0.04561,,,,,,,,,,,,,,,,,,,,,,,,,,0,0,0,0,0
1.8388,1783012361.8215,1,1,1.0000,0.0000,1.44682,0.22974,-2.77839,0.97782,1.57080,0.00000,-0.14512,-0.38003,0.04560,,,,,,,,,,,,,,,,,,,,,,,,,,0,0,0,0,0
1.8473,1783012361.8300,1,1,1.0000,0.0000,1.44682,0.22970,-2.77840,0.97787,1.57080,0.00000,-0.14512,-0.38003,0.04559,,,,,,,,,,,,,,,,,,,,,,,,,,0,0,0,0,0
1.8575,1783012361.8402,1,1,1.0000,0.0000,1.44682,0.22967,-2.77840,0.97790,1.57080,0.00000,-0.14512,-0.38003,0.04559,,,,,,,,,,,,,,,,,,,,,,,,,,0,0,0,0,0
1.8691,1783012361.8518,1,1,1.0000,0.0000,1.44682,0.22962,-2.77842,0.97797,1.57080,0.00000,-0.14512,-0.38003,0.04557,,,,,,,,,,,,,,,,,,,,,,,,,,0,0,0,0,0
1.8809,1783012361.8636,1,1,1.0000,0.0000,1.44682,0.22954,-2.77844,0.97807,1.57080,0.00000,-0.14512,-0.38003,0.04555,,,,,,,,,,,,,,,,,,,,,,,,,,0,0,0,0,0
1.8915,1783012361.8742,1,1,1.0000,0.0000,1.44682,0.22953,-2.77844,0.97808,1.57080,0.00000,-0.14512,-0.38003,0.04555,,,,,,,,,,,,,,,,,,,,,,,,,,0,0,0,0,0
1.8993,1783012361.8820,1,1,1.0000,0.0000,1.44682,0.22950,-2.77845,0.97811,1.57080,0.00000,-0.14512,-0.38003,0.04554,,,,,,,,,,,,,,,,,,,,,,,,,,0,0,0,0,0
1.9063,1783012361.8890,1,1,1.0000,0.0000,1.44682,0.22945,-2.77846,0.97817,1.57080,0.00000,-0.14512,-0.38003,0.04553,,,,,,,,,,,,,,,,,,,,,,,,,,0,0,0,0,0
1.9410,1783012361.9238,1,1,1.0000,0.0000,1.44682,0.22929,-2.77850,0.97838,1.57080,0.00000,-0.14512,-0.38003,0.04549,,,,,,,,,,,,,,,,,,,,,,,,,,0,0,0,0,0
1.9414,1783012361.9241,1,1,1.0000,0.0000,1.44682,0.22929,-2.77850,0.97838,1.57080,0.00000,-0.14512,-0.38003,0.04549,,,,,,,,,,,,,,,,,,,,,,,,,,0,0,0,0,0
1.9463,1783012361.9290,1,1,1.0000,0.0000,1.44682,0.22929,-2.77850,0.97838,1.57080,0.00000,-0.14512,-0.38003,0.04549,,,,,,,,,,,,,,,,,,,,,,,,,,0,0,0,0,0
1.9496,1783012361.9323,1,1,1.0000,0.0000,1.44682,0.22929,-2.77850,0.97838,1.57080,0.00000,-0.14512,-0.38003,0.04549,,,,,,,,,,,,,,,,,,,,,,,,,,0,0,0,0,0
1.9498,1783012361.9325,1,1,1.0000,0.0000,1.44682,0.22929,-2.77850,0.97838,1.57080,0.00000,-0.14512,-0.38003,0.04549,,,,,,,,,,,,,,,,,,,,,,,,,,0,0,0,0,0
1.9571,1783012361.9398,1,1,1.0000,0.0000,1.44682,0.22926,-2.77851,0.97842,1.57080,0.00000,-0.14512,-0.38003,0.04548,,,,,,,,,,,,,,,,,,,,,,,,,,0,0,0,0,0
1.9711,1783012361.9538,1,1,1.0000,0.0000,1.44682,0.22918,-2.77853,0.97851,1.57080,0.00000,-0.14512,-0.38003,0.04546,,,,,,,,,,,,,,,,,,,,,,,,,,0,0,0,0,0
1.9808,1783012361.9635,1,1,1.0000,0.0000,1.44682,0.22917,-2.77853,0.97853,1.57080,0.00000,-0.14512,-0.38003,0.04546,,,,,,,,,,,,,,,,,,,,,,,,,,0,0,0,0,0
1.9902,1783012361.9729,1,1,1.0000,0.0000,1.44682,0.22913,-2.77854,0.97859,1.57080,0.00000,-0.14512,-0.38003,0.04544,,,,,,,,,,,,,,,,,,,,,,,,,,0,0,0,0,0
2.0059,1783012361.9886,1,1,1.0000,0.0000,1.44682,0.22905,-2.77856,0.97868,1.57080,0.00000,-0.14512,-0.38003,0.04542,,,,,,,,,,,,,,,,,,,,,,,,,,0,0,0,0,0
2.0066,1783012361.9893,1,1,1.0000,0.0000,1.44682,0.22905,-2.77856,0.97868,1.57080,0.00000,-0.14512,-0.38003,0.04542,,,,,,,,,,,,,,,,,,,,,,,,,,0,0,0,0,0
2.0169,1783012361.9996,1,1,1.0000,0.0000,1.44682,0.22902,-2.77857,0.97873,1.57080,0.00000,-0.14512,-0.38003,0.04542,,,,,,,,,,,,,,,,,,,,,,,,,,0,0,0,0,0
2.0174,1783012362.0002,1,1,1.0000,0.0000,1.44682,0.22902,-2.77857,0.97873,1.57080,0.00000,-0.14512,-0.38003,0.04542,,,,,,,,,,,,,,,,,,,,,,,,,,0,0,0,0,0
2.0283,1783012362.0110,1,1,1.0000,0.0000,1.44682,0.22897,-2.77858,0.97879,1.57080,0.00000,-0.14512,-0.38003,0.04540,,,,,,,,,,,,,,,,,,,,,,,,,,0,0,0,0,0
2.0402,1783012362.0230,1,1,1.0000,0.0000,1.44682,0.22894,-2.77859,0.97882,1.57080,0.00000,-0.14512,-0.38003,0.04539,,,,,,,,,,,,,,,,,,,,,,,,,,0,0,0,0,0
2.0467,1783012362.0294,1,1,1.0000,0.0000,1.44682,0.22891,-2.77860,0.97886,1.57080,0.00000,-0.14512,-0.38003,0.04539,,,,,,,,,,,,,,,,,,,,,,,,,,0,0,0,0,0
2.0470,1783012362.0297,1,1,1.0000,0.0000,1.44682,0.22891,-2.77860,0.97886,1.57080,0.00000,-0.14512,-0.38003,0.04539,,,,,,,,,,,,,,,,,,,,,,,,,,0,0,0,0,0
2.0641,1783012362.0468,1,1,1.0000,0.0000,1.44682,0.22881,-2.77862,0.97899,1.57080,0.00000,-0.14512,-0.38003,0.04536,,,,,,,,,,,,,,,,,,,,,,,,,,0,0,0,0,0
2.0693,1783012362.0521,1,1,1.0000,0.0000,1.44682,0.22880,-2.77863,0.97899,1.57080,0.00000,-0.14512,-0.38003,0.04536,,,,,,,,,,,,,,,,,,,,,,,,,,0,0,0,0,0
2.0770,1783012362.0597,1,1,1.0000,0.0000,1.44682,0.22877,-2.77863,0.97903,1.57080,0.00000,-0.14512,-0.38003,0.04535,,,,,,,,,,,,,,,,,,,,,,,,,,0,0,0,0,0
2.1007,1783012362.0835,1,1,1.0000,0.0000,1.44682,0.22867,-2.77866,0.97916,1.57080,0.00000,-0.14512,-0.38003,0.04533,,,,,,,,,,,,,,,,,,,,,,,,,,0,0,0,0,0
2.1020,1783012362.0847,1,1,1.0000,0.0000,1.44682,0.22867,-2.77866,0.97916,1.57080,0.00000,-0.14512,-0.38003,0.04533,,,,,,,,,,,,,,,,,,,,,,,,,,0,0,0,0,0
2.1023,1783012362.0851,1,1,1.0000,0.0000,1.44682,0.22867,-2.77866,0.97916,1.57080,0.00000,-0.14512,-0.38003,0.04533,,,,,,,,,,,,,,,,,,,,,,,,,,0,0,0,0,0
2.1097,1783012362.0924,1,1,1.0000,0.0000,1.44682,0.22865,-2.77867,0.97919,1.57080,0.00000,-0.14512,-0.38003,0.04532,,,,,,,,,,,,,,,,,,,,,,,,,,0,0,0,0,0
2.1172,1783012362.0999,1,1,1.0000,0.0000,1.44682,0.22861,-2.77868,0.97924,1.57080,0.00000,-0.14512,-0.38003,0.04531,,,,,,,,,,,,,,,,,,,,,,,,,,0,0,0,0,0
2.1174,1783012362.1002,1,1,1.0000,0.0000,1.44682,0.22861,-2.77868,0.97924,1.57080,0.00000,-0.14512,-0.38003,0.04531,,,,,,,,,,,,,,,,,,,,,,,,,,0,0,0,0,0
2.1343,1783012362.1170,1,1,1.0000,0.0000,1.44682,0.22857,-2.77869,0.97929,1.57080,0.00000,-0.14512,-0.38003,0.04530,,,,,,,,,,,,,,,,,,,,,,,,,,0,0,0,0,0
2.1369,1783012362.1196,1,1,1.0000,0.0000,1.44682,0.22855,-2.77869,0.97931,1.57080,0.00000,-0.14512,-0.38003,0.04529,,,,,,,,,,,,,,,,,,,,,,,,,,0,0,0,0,0
2.1372,1783012362.1200,1,1,1.0000,0.0000,1.44682,0.22855,-2.77869,0.97931,1.57080,0.00000,-0.14512,-0.38003,0.04529,,,,,,,,,,,,,,,,,,,,,,,,,,0,0,0,0,0
2.1471,1783012362.1298,1,1,1.0000,0.0000,1.44682,0.22850,-2.77870,0.97937,1.57080,0.00000,-0.14512,-0.38003,0.04528,,,,,,,,,,,,,,,,,,,,,,,,,,0,0,0,0,0
2.1581,1783012362.1408,1,1,1.0000,0.0000,1.44682,0.22845,-2.77872,0.97944,1.57080,0.00000,-0.14512,-0.38003,0.04527,,,,,,,,,,,,,,,,,,,,,,,,,,0,0,0,0,0
2.1667,1783012362.1495,1,1,1.0000,0.0000,1.44682,0.22843,-2.77872,0.97945,1.57080,0.00000,-0.14512,-0.38003,0.04526,,,,,,,,,,,,,,,,,,,,,,,,,,0,0,0,0,0
2.1888,1783012362.1715,1,1,1.0000,0.0000,1.44682,0.22836,-2.77874,0.97955,1.57080,0.00000,-0.14512,-0.38003,0.04524,,,,,,,,,,,,,,,,,,,,,,,,,,0,0,0,0,0
2.1891,1783012362.1718,1,1,1.0000,0.0000,1.44682,0.22836,-2.77874,0.97955,1.57080,0.00000,-0.14512,-0.38003,0.04524,,,,,,,,,,,,,,,,,,,,,,,,,,0,0,0,0,0
2.2007,1783012362.1834,1,1,1.0000,0.0000,1.44682,0.22830,-2.77875,0.97962,1.57080,0.00000,-0.14512,-0.38003,0.04523,,,,,,,,,,,,,,,,,,,,,,,,,,0,0,0,0,0
2.2103,1783012362.1930,1,1,1.0000,0.0000,1.44682,0.22825,-2.77877,0.97969,1.57080,0.00000,-0.14512,-0.38003,0.04522,,,,,,,,,,,,,,,,,,,,,,,,,,0,0,0,0,0
2.2197,1783012362.2025,1,1,1.0000,0.0000,1.44682,0.22822,-2.77877,0.97972,1.57080,0.00000,-0.14512,-0.38003,0.04521,,,,,,,,,,,,,,,,,,,,,,,,,,0,0,0,0,0
2.2343,1783012362.2170,1,1,1.0000,0.0000,1.44682,0.22818,-2.77878,0.97977,1.57080,0.00000,-0.14512,-0.38003,0.04520,,,,,,,,,,,,,,,,,,,,,,,,,,0,0,0,0,0
2.2416,1783012362.2243,1,1,1.0000,0.0000,1.44682,0.22814,-2.77880,0.97983,1.57080,0.00000,-0.14512,-0.38003,0.04519,,,,,,,,,,,,,,,,,,,,,,,,,,0,0,0,0,0
2.2570,1783012362.2397,1,1,1.0000,0.0000,1.44682,0.22810,-2.77880,0.97987,1.57080,0.00000,-0.14512,-0.38003,0.04518,,,,,,,,,,,,,,,,,,,,,,,,,,0,0,0,0,0
2.2596,1783012362.2423,1,1,1.0000,0.0000,1.44682,0.22810,-2.77880,0.97987,1.57080,0.00000,-0.14512,-0.38003,0.04518,,,,,,,,,,,,,,,,,,,,,,,,,,0,0,0,0,0
2.2600,1783012362.2427,1,1,1.0000,0.0000,1.44682,0.22810,-2.77880,0.97987,1.57080,0.00000,-0.14512,-0.38003,0.04518,,,,,,,,,,,,,,,,,,,,,,,,,,0,0,0,0,0
2.2754,1783012362.2581,1,1,1.0000,0.0000,1.44682,0.22800,-2.77883,0.98000,1.57080,0.00000,-0.14512,-0.38003,0.04515,,,,,,,,,,,,,,,,,,,,,,,,,,0,0,0,0,0
2.2798,1783012362.2625,1,1,1.0000,0.0000,1.44682,0.22800,-2.77883,0.98000,1.57080,0.00000,-0.14512,-0.38003,0.04515,,,,,,,,,,,,,,,,,,,,,,,,,,0,0,0,0,0
2.2801,1783012362.2628,1,1,1.0000,0.0000,1.44682,0.22800,-2.77883,0.98000,1.57080,0.00000,-0.14512,-0.38003,0.04515,,,,,,,,,,,,,,,,,,,,,,,,,,0,0,0,0,0
2.2939,1783012362.2766,1,1,1.0000,0.0000,1.44682,0.22796,-2.77884,0.98005,1.57080,0.00000,-0.14512,-0.38003,0.04514,,,,,,,,,,,,,,,,,,,,,,,,,,0,0,0,0,0
2.3043,1783012362.2870,1,1,1.0000,0.0000,1.44682,0.22791,-2.77885,0.98011,1.57080,0.00000,-0.14512,-0.38003,0.04513,,,,,,,,,,,,,,,,,,,,,,,,,,0,0,0,0,0
2.3048,1783012362.2875,1,1,1.0000,0.0000,1.44682,0.22791,-2.77885,0.98011,1.57080,0.00000,-0.14512,-0.38003,0.04513,,,,,,,,,,,,,,,,,,,,,,,,,,0,0,0,0,0
2.3157,1783012362.2984,1,1,1.0000,0.0000,1.44682,0.22790,-2.77886,0.98013,1.57080,0.00000,-0.14512,-0.38003,0.04512,,,,,,,,,,,,,,,,,,,,,,,,,,0,0,0,0,0
2.3273,1783012362.3100,1,1,1.0000,0.0000,1.44682,0.22783,-2.77887,0.98021,1.57080,0.00000,-0.14512,-0.38003,0.04511,,,,,,,,,,,,,,,,,,,,,,,,,,0,0,0,0,0
2.3405,1783012362.3232,1,1,1.0000,0.0000,1.44682,0.22778,-2.77889,0.98028,1.57080,0.00000,-0.14512,-0.38003,0.04509,,,,,,,,,,,,,,,,,,,,,,,,,,0,0,0,0,0
2.3473,1783012362.3300,1,1,1.0000,0.0000,1.44682,0.22776,-2.77889,0.98030,1.57080,0.00000,-0.14512,-0.38003,0.04509,,,,,,,,,,,,,,,,,,,,,,,,,,0,0,0,0,0
2.3550,1783012362.3377,1,1,1.0000,0.0000,1.44682,0.22773,-2.77890,0.98034,1.57080,0.00000,-0.14512,-0.38003,0.04508,,,,,,,,,,,,,,,,,,,,,,,,,,0,0,0,0,0
2.3636,1783012362.3463,1,1,1.0000,0.0000,1.44682,0.22769,-2.77891,0.98039,1.57080,0.00000,-0.14512,-0.38003,0.04507,,,,,,,,,,,,,,,,,,,,,,,,,,0,0,0,0,0
2.3737,1783012362.3564,1,1,1.0000,0.0000,1.44682,0.22767,-2.77891,0.98041,1.57080,0.00000,-0.14512,-0.38003,0.04507,,,,,,,,,,,,,,,,,,,,,,,,,,0,0,0,0,0
2.3837,1783012362.3664,1,1,1.0000,0.0000,1.44682,0.22763,-2.77892,0.98046,1.57080,0.00000,-0.14512,-0.38003,0.04506,,,,,,,,,,,,,,,,,,,,,,,,,,0,0,0,0,0
2.3841,1783012362.3668,1,1,1.0000,0.0000,1.44682,0.22763,-2.77892,0.98046,1.57080,0.00000,-0.14512,-0.38003,0.04506,,,,,,,,,,,,,,,,,,,,,,,,,,0,0,0,0,0
2.3944,1783012362.3771,1,1,1.0000,0.0000,1.44682,0.22755,-2.77894,0.98056,1.57080,0.00000,-0.14512,-0.38003,0.04504,,,,,,,,,,,,,,,,,,,,,,,,,,0,0,0,0,0
2.4036,1783012362.3863,1,1,1.0000,0.0000,1.44682,0.22755,-2.77895,0.98057,1.57080,0.00000,-0.14512,-0.38003,0.04503,,,,,,,,,,,,,,,,,,,,,,,,,,0,0,0,0,0
2.4174,1783012362.4001,1,1,1.0000,0.0000,1.44682,0.22749,-2.77896,0.98064,1.57080,0.00000,-0.14512,-0.38003,0.04502,,,,,,,,,,,,,,,,,,,,,,,,,,0,0,0,0,0
2.4253,1783012362.4080,1,1,1.0000,0.0000,1.44682,0.22747,-2.77897,0.98067,1.57080,0.00000,-0.14512,-0.38003,0.04501,,,,,,,,,,,,,,,,,,,,,,,,,,0,0,0,0,0
2.4335,1783012362.4162,1,1,1.0000,0.0000,1.44682,0.22745,-2.77897,0.98069,1.57080,0.00000,-0.14512,-0.38003,0.04501,,,,,,,,,,,,,,,,,,,,,,,,,,0,0,0,0,0
2.4451,1783012362.4279,1,1,1.0000,0.0000,1.44682,0.22738,-2.77899,0.98078,1.57080,0.00000,-0.14512,-0.38003,0.04499,,,,,,,,,,,,,,,,,,,,,,,,,,0,0,0,0,0
2.4455,1783012362.4282,1,1,1.0000,0.0000,1.44682,0.22738,-2.77899,0.98078,1.57080,0.00000,-0.14512,-0.38003,0.04499,,,,,,,,,,,,,,,,,,,,,,,,,,0,0,0,0,0
2.4459,1783012362.4286,1,1,1.0000,0.0000,1.44682,0.22738,-2.77899,0.98078,1.57080,0.00000,-0.14512,-0.38003,0.04499,,,,,,,,,,,,,,,,,,,,,,,,,,0,0,0,0,0
2.4535,1783012362.4362,1,1,1.0000,0.0000,1.44682,0.22733,-2.77900,0.98084,1.57080,0.00000,-0.14512,-0.38003,0.04498,,,,,,,,,,,,,,,,,,,,,,,,,,0,0,0,0,0
2.4642,1783012362.4470,1,1,1.0000,0.0000,1.44682,0.22732,-2.77900,0.98085,1.57080,0.00000,-0.14512,-0.38003,0.04498,,,,,,,,,,,,,,,,,,,,,,,,,,0,0,0,0,0
2.4649,1783012362.4476,1,1,1.0000,0.0000,1.44682,0.22731,-2.77901,0.98086,1.57080,0.00000,-0.14512,-0.38003,0.04497,,,,,,,,,,,,,,,,,,,,,,,,,,0,0,0,0,0
2.4781,1783012362.4608,1,1,1.0000,0.0000,1.44682,0.22724,-2.77902,0.98095,1.57080,0.00000,-0.14512,-0.38003,0.04496,,,,,,,,,,,,,,,,,,,,,,,,,,0,0,0,0,0
2.4784,1783012362.4611,1,1,1.0000,0.0000,1.44682,0.22724,-2.77902,0.98095,1.57080,0.00000,-0.14512,-0.38003,0.04496,,,,,,,,,,,,,,,,,,,,,,,,,,0,0,0,0,0
2.4839,1783012362.4666,1,1,1.0000,0.0000,1.44682,0.22722,-2.77903,0.98098,1.57080,0.00000,-0.14512,-0.38003,0.04495,,,,,,,,,,,,,,,,,,,,,,,,,,0,0,0,0,0
2.4976,1783012362.4803,1,1,1.0000,0.0000,1.44682,0.22718,-2.77904,0.98102,1.57080,0.00000,-0.14512,-0.38003,0.04494,,,,,,,,,,,,,,,,,,,,,,,,,,0,0,0,0,0
2.4979,1783012362.4806,1,1,1.0000,0.0000,1.44682,0.22718,-2.77904,0.98102,1.57080,0.00000,-0.14512,-0.38003,0.04494,,,,,,,,,,,,,,,,,,,,,,,,,,0,0,0,0,0
2.5084,1783012362.4911,1,1,1.0000,0.0000,1.44682,0.22713,-2.77905,0.98108,1.57080,0.00000,-0.14512,-0.38003,0.04493,,,,,,,,,,,,,,,,,,,,,,,,,,0,0,0,0,0
2.5088,1783012362.4915,1,1,1.0000,0.0000,1.44682,0.22711,-2.77906,0.98112,1.57080,0.00001,-0.14512,-0.38003,0.04492,,,,,,,,,,,,,,,,,,,,,,,,,,0,0,0,0,0
2.5189,1783012362.5016,1,1,1.0000,0.0000,1.44682,0.22708,-2.77906,0.98115,1.57080,0.00001,-0.14512,-0.38003,0.04491,,,,,,,,,,,,,,,,,,,,,,,,,,0,0,0,0,0
2.5265,1783012362.5093,1,1,1.0000,0.0000,1.44682,0.22707,-2.77907,0.98117,1.57080,0.00001,-0.14512,-0.38003,0.04491,,,,,,,,,,,,,,,,,,,,,,,,,,0,0,0,0,0
2.5413,1783012362.5241,1,1,1.0000,0.0000,1.44682,0.22697,-2.77909,0.98129,1.57080,0.00001,-0.14512,-0.38003,0.04489,,,,,,,,,,,,,,,,,,,,,,,,,,0,0,0,0,0
2.5494,1783012362.5321,1,1,1.0000,0.0000,1.44682,0.22697,-2.77909,0.98129,1.57080,0.00001,-0.14512,-0.38003,0.04488,,,,,,,,,,,,,,,,,,,,,,,,,,0,0,0,0,0
2.5597,1783012362.5424,1,1,1.0000,0.0000,1.44682,0.22694,-2.77910,0.98133,1.57080,0.00001,-0.14512,-0.38003,0.04488,,,,,,,,,,,,,,,,,,,,,,,,,,0,0,0,0,0
2.5669,1783012362.5496,1,1,1.0000,0.0000,1.44682,0.22689,-2.77911,0.98139,1.57080,0.00001,-0.14512,-0.38003,0.04486,,,,,,,,,,,,,,,,,,,,,,,,,,0,0,0,0,0
2.5789,1783012362.5616,1,1,1.0000,0.0000,1.44682,0.22684,-2.77913,0.98146,1.57080,0.00001,-0.14512,-0.38003,0.04485,,,,,,,,,,,,,,,,,,,,,,,,,,0,0,0,0,0
2.5864,1783012362.5691,1,1,1.0000,0.0000,1.44682,0.22682,-2.77913,0.98148,1.57080,0.00001,-0.14512,-0.38003,0.04485,,,,,,,,,,,,,,,,,,,,,,,,,,0,0,0,0,0
2.5867,1783012362.5694,1,1,1.0000,0.0000,1.44682,0.22682,-2.77913,0.98148,1.57080,0.00001,-0.14512,-0.38003,0.04485,,,,,,,,,,,,,,,,,,,,,,,,,,0,0,0,0,0
2.5999,1783012362.5826,1,1,1.0000,0.0000,1.44682,0.22675,-2.77915,0.98156,1.57080,0.00001,-0.14512,-0.38003,0.04483,,,,,,,,,,,,,,,,,,,,,,,,,,0,0,0,0,0
2.6003,1783012362.5830,1,1,1.0000,0.0000,1.44682,0.22675,-2.77915,0.98156,1.57080,0.00001,-0.14512,-0.38003,0.04483,,,,,,,,,,,,,,,,,,,,,,,,,,0,0,0,0,0
2.6087,1783012362.5915,1,1,1.0000,0.0000,1.44682,0.22672,-2.77915,0.98160,1.57080,0.00001,-0.14512,-0.38003,0.04482,,,,,,,,,,,,,,,,,,,,,,,,,,0,0,0,0,0
2.6171,1783012362.5998,1,1,1.0000,0.0000,1.44682,0.22669,-2.77916,0.98164,1.57080,0.00001,-0.14512,-0.38003,0.04481,,,,,,,,,,,,,,,,,,,,,,,,,,0,0,0,0,0
2.6174,1783012362.6002,1,1,1.0000,0.0000,1.44682,0.22669,-2.77916,0.98164,1.57080,0.00001,-0.14512,-0.38003,0.04481,,,,,,,,,,,,,,,,,,,,,,,,,,0,0,0,0,0
2.6279,1783012362.6106,1,1,1.0000,0.0000,1.44682,0.22665,-2.77917,0.98170,1.57080,0.00001,-0.14512,-0.38003,0.04480,,,,,,,,,,,,,,,,,,,,,,,,,,0,0,0,0,0
2.6283,1783012362.6110,1,1,1.0000,0.0000,1.44682,0.22665,-2.77917,0.98170,1.57080,0.00001,-0.14512,-0.38003,0.04480,,,,,,,,,,,,,,,,,,,,,,,,,,0,0,0,0,0
2.6442,1783012362.6269,1,1,1.0000,0.0000,1.44682,0.22659,-2.77919,0.98177,1.57080,0.00001,-0.14512,-0.38003,0.04479,,,,,,,,,,,,,,,,,,,,,,,,,,0,0,0,0,0
2.6473,1783012362.6300,1,1,1.0000,0.0000,1.44682,0.22658,-2.77919,0.98178,1.57080,0.00001,-0.14512,-0.38003,0.04478,,,,,,,,,,,,,,,,,,,,,,,,,,0,0,0,0,0
2.6572,1783012362.6399,1,1,1.0000,0.0000,1.44682,0.22651,-2.77921,0.98187,1.57080,0.00001,-0.14512,-0.38003,0.04477,,,,,,,,,,,,,,,,,,,,,,,,,,0,0,0,0,0
2.6694,1783012362.6521,1,1,1.0000,0.0000,1.44682,0.22648,-2.77922,0.98191,1.57080,0.00001,-0.14512,-0.38003,0.04476,,,,,,,,,,,,,,,,,,,,,,,,,,0,0,0,0,0
2.6768,1783012362.6595,1,1,1.0000,0.0000,1.44682,0.22645,-2.77922,0.98194,1.57080,0.00001,-0.14512,-0.38003,0.04475,,,,,,,,,,,,,,,,,,,,,,,,,,0,0,0,0,0
2.6887,1783012362.6714,1,1,1.0000,0.0000,1.44682,0.22637,-2.77924,0.98204,1.57080,0.00001,-0.14512,-0.38003,0.04473,,,,,,,,,,,,,,,,,,,,,,,,,,0,0,0,0,0
2.7105,1783012362.6933,1,1,1.0000,0.0000,1.44682,0.22631,-2.77926,0.98211,1.57080,0.00001,-0.14512,-0.38003,0.04471,,,,,,,,,,,,,,,,,,,,,,,,,,0,0,0,0,0
2.7113,1783012362.6941,1,1,1.0000,0.0000,1.44682,0.22631,-2.77926,0.98211,1.57080,0.00001,-0.14512,-0.38003,0.04471,,,,,,,,,,,,,,,,,,,,,,,,,,0,0,0,0,0
2.7184,1783012362.7011,1,1,1.0000,0.0000,1.44682,0.22627,-2.77927,0.98217,1.57080,0.00001,-0.14512,-0.38003,0.04470,,,,,,,,,,,,,,,,,,,,,,,,,,0,0,0,0,0
2.7265,1783012362.7092,1,1,1.0000,0.0000,1.44682,0.22621,-2.77928,0.98224,1.57080,0.00001,-0.14512,-0.38003,0.04469,,,,,,,,,,,,,,,,,,,,,,,,,,0,0,0,0,0
2.7362,1783012362.7189,1,1,1.0000,0.0000,1.44682,0.22621,-2.77928,0.98224,1.57080,0.00001,-0.14512,-0.38003,0.04469,,,,,,,,,,,,,,,,,,,,,,,,,,0,0,0,0,0
2.7571,1783012362.7398,1,1,1.0000,0.0000,1.44682,0.22613,-2.77931,0.98235,1.57080,0.00001,-0.14512,-0.38003,0.04467,,,,,,,,,,,,,,,,,,,,,,,,,,0,0,0,0,0
2.7576,1783012362.7403,1,1,1.0000,0.0000,1.44682,0.22613,-2.77931,0.98235,1.57080,0.00001,-0.14512,-0.38003,0.04467,,,,,,,,,,,,,,,,,,,,,,,,,,0,0,0,0,0
2.7669,1783012362.7496,1,1,1.0000,0.0000,1.44682,0.22611,-2.77931,0.98237,1.57080,0.00001,-0.14512,-0.38003,0.04466,,,,,,,,,,,,,,,,,,,,,,,,,,0,0,0,0,0
2.7768,1783012362.7595,1,1,1.0000,0.0000,1.44682,0.22604,-2.77933,0.98245,1.57080,0.00001,-0.14512,-0.38003,0.04464,,,,,,,,,,,,,,,,,,,,,,,,,,0,0,0,0,0
2.7909,1783012362.7736,1,1,1.0000,0.0000,1.44682,0.22599,-2.77934,0.98252,1.57080,0.00001,-0.14512,-0.38003,0.04463,,,,,,,,,,,,,,,,,,,,,,,,,,0,0,0,0,0
2.8025,1783012362.7852,1,1,1.0000,0.0000,1.44682,0.22596,-2.77935,0.98255,1.57080,0.00001,-0.14512,-0.38003,0.04462,,,,,,,,,,,,,,,,,,,,,,,,,,0,0,0,0,0
2.8077,1783012362.7904,1,1,1.0000,0.0000,1.44682,0.22595,-2.77935,0.98257,1.57080,0.00001,-0.14512,-0.38003,0.04462,,,,,,,,,,,,,,,,,,,,,,,,,,0,0,0,0,0
2.8210,1783012362.8037,1,1,1.0000,0.0000,1.44682,0.22590,-2.77936,0.98263,1.57080,0.00001,-0.14512,-0.38003,0.04461,,,,,,,,,,,,,,,,,,,,,,,,,,0,0,0,0,0
2.8214,1783012362.8041,1,1,1.0000,0.0000,1.44682,0.22590,-2.77936,0.98263,1.57080,0.00001,-0.14512,-0.38003,0.04461,,,,,,,,,,,,,,,,,,,,,,,,,,0,0,0,0,0
2.8265,1783012362.8092,1,1,1.0000,0.0000,1.44682,0.22589,-2.77937,0.98265,1.57080,0.00001,-0.14512,-0.38003,0.04460,,,,,,,,,,,,,,,,,,,,,,,,,,0,0,0,0,0
2.8369,1783012362.8196,1,1,1.0000,0.0000,1.44682,0.22582,-2.77938,0.98274,1.57080,0.00001,-0.14512,-0.38003,0.04459,,,,,,,,,,,,,,,,,,,,,,,,,,0,0,0,0,0
2.8372,1783012362.8200,1,1,1.0000,0.0000,1.44682,0.22582,-2.77938,0.98274,1.57080,0.00001,-0.14512,-0.38003,0.04459,,,,,,,,,,,,,,,,,,,,,,,,,,0,0,0,0,0
2.8468,1783012362.8295,1,1,1.0000,0.0000,1.44682,0.22576,-2.77940,0.98280,1.57080,0.00001,-0.14512,-0.38003,0.04457,,,,,,,,,,,,,,,,,,,,,,,,,,0,0,0,0,0
2.8471,1783012362.8298,1,1,1.0000,0.0000,1.44682,0.22576,-2.77940,0.98280,1.57080,0.00001,-0.14512,-0.38003,0.04457,,,,,,,,,,,,,,,,,,,,,,,,,,0,0,0,0,0
2.8599,1783012362.8426,1,1,1.0000,0.0000,1.44682,0.22575,-2.77940,0.98282,1.57080,0.00001,-0.14512,-0.38003,0.04457,,,,,,,,,,,,,,,,,,,,,,,,,,0,0,0,0,0
2.8680,1783012362.8507,1,1,1.0000,0.0000,1.44682,0.22572,-2.77941,0.98286,1.57080,0.00001,-0.14512,-0.38003,0.04456,,,,,,,,,,,,,,,,,,,,,,,,,,0,0,0,0,0
2.8689,1783012362.8517,1,1,1.0000,0.0000,1.44682,0.22570,-2.77941,0.98288,1.57080,0.00001,-0.14512,-0.38003,0.04456,,,,,,,,,,,,,,,,,,,,,,,,,,0,0,0,0,0
2.8782,1783012362.8609,1,1,1.0000,0.0000,1.44682,0.22568,-2.77942,0.98291,1.57080,0.00001,-0.14512,-0.38003,0.04455,,,,,,,,,,,,,,,,,,,,,,,,,,0,0,0,0,0
2.8892,1783012362.8720,1,1,1.0000,0.0000,1.44682,0.22564,-2.77943,0.98296,1.57080,0.00001,-0.14512,-0.38003,0.04454,,,,,,,,,,,,,,,,,,,,,,,,,,0,0,0,0,0
2.9080,1783012362.8908,1,1,1.0000,0.0000,1.44682,0.22554,-2.77945,0.98308,1.57080,0.00001,-0.14512,-0.38003,0.04451,,,,,,,,,,,,,,,,,,,,,,,,,,0,0,0,0,0
2.9195,1783012362.9022,1,1,1.0000,0.0000,1.44682,0.22553,-2.77946,0.98310,1.57080,0.00001,-0.14512,-0.38003,0.04451,,,,,,,,,,,,,,,,,,,,,,,,,,0,0,0,0,0
2.9241,1783012362.9068,1,1,1.0000,0.0000,1.44682,0.22551,-2.77946,0.98312,1.57080,0.00001,-0.14512,-0.38003,0.04451,,,,,,,,,,,,,,,,,,,,,,,,,,0,0,0,0,0
2.9270,1783012362.9097,1,1,1.0000,0.0000,1.44682,0.22550,-2.77947,0.98314,1.57080,0.00001,-0.14512,-0.38003,0.04450,,,,,,,,,,,,,,,,,,,,,,,,,,0,0,0,0,0
2.9273,1783012362.9100,1,1,1.0000,0.0000,1.44682,0.22550,-2.77947,0.98314,1.57080,0.00001,-0.14512,-0.38003,0.04450,,,,,,,,,,,,,,,,,,,,,,,,,,0,0,0,0,0
2.9369,1783012362.9197,1,1,1.0000,0.0000,1.44682,0.22545,-2.77948,0.98319,1.57080,0.00001,-0.14512,-0.38003,0.04449,,,,,,,,,,,,,,,,,,,,,,,,,,0,0,0,0,0
2.9464,1783012362.9291,1,1,1.0000,0.0000,1.44682,0.22544,-2.77948,0.98321,1.57080,0.00001,-0.14512,-0.38003,0.04449,,,,,,,,,,,,,,,,,,,,,,,,,,0,0,0,0,0
2.9614,1783012362.9441,1,1,1.0000,0.0000,1.44682,0.22534,-2.77950,0.98333,1.57080,0.00001,-0.14512,-0.38003,0.04446,,,,,,,,,,,,,,,,,,,,,,,,,,0,0,0,0,0
2.9617,1783012362.9444,1,1,1.0000,0.0000,1.44682,0.22534,-2.77950,0.98333,1.57080,0.00001,-0.14512,-0.38003,0.04446,,,,,,,,,,,,,,,,,,,,,,,,,,0,0,0,0,0
2.9790,1783012362.9617,1,1,1.0000,0.0000,1.44682,0.22530,-2.77951,0.98338,1.57080,0.00001,-0.14512,-0.38003,0.04445,,,,,,,,,,,,,,,,,,,,,,,,,,0,0,0,0,0
2.9795,1783012362.9622,1,1,1.0000,0.0000,1.44682,0.22530,-2.77951,0.98338,1.57080,0.00001,-0.14512,-0.38003,0.04445,,,,,,,,,,,,,,,,,,,,,,,,,,0,0,0,0,0
3.0083,1783012362.9910,1,1,1.0000,0.0000,1.44682,0.22521,-2.77954,0.98349,1.57080,0.00001,-0.14512,-0.38003,0.04443,,,,,,,,,,,,,,,,,,,,,,,,,,0,0,0,0,0
3.0109,1783012362.9936,1,1,1.0000,0.0000,1.44682,0.22519,-2.77954,0.98352,1.57080,0.00001,-0.14512,-0.38003,0.04442,,,,,,,,,,,,,,,,,,,,,,,,,,0,0,0,0,0
3.0113,1783012362.9940,1,1,1.0000,0.0000,1.44682,0.22519,-2.77954,0.98352,1.57080,0.00001,-0.14512,-0.38003,0.04442,,,,,,,,,,,,,,,,,,,,,,,,,,0,0,0,0,0
3.0186,1783012363.0013,1,1,1.0000,0.0000,1.44682,0.22514,-2.77955,0.98358,1.57080,0.00001,-0.14512,-0.38003,0.04441,,,,,,,,,,,,,,,,,,,,,,,,,,0,0,0,0,0
3.0296,1783012363.0124,1,1,1.0000,0.0000,1.44682,0.22509,-2.77957,0.98365,1.57080,0.00001,-0.14512,-0.38003,0.04440,,,,,,,,,,,,,,,,,,,,,,,,,,0,0,0,0,0
3.0377,1783012363.0205,1,1,1.0000,0.0000,1.44682,0.22508,-2.77957,0.98366,1.57080,0.00001,-0.14512,-0.38003,0.04439,,,,,,,,,,,,,,,,,,,,,,,,,,0,0,0,0,0
3.0471,1783012363.0299,1,1,1.0000,0.0000,1.44682,0.22505,-2.77958,0.98370,1.57080,0.00001,-0.14512,-0.38003,0.04439,,,,,,,,,,,,,,,,,,,,,,,,,,0,0,0,0,0
3.0571,1783012363.0398,1,1,1.0000,0.0000,1.44682,0.22500,-2.77959,0.98375,1.57080,0.00001,-0.14512,-0.38003,0.04438,,,,,,,,,,,,,,,,,,,,,,,,,,0,0,0,0,0
3.0735,1783012363.0562,1,1,1.0000,0.0000,1.44682,0.22494,-2.77960,0.98383,1.57080,0.00001,-0.14512,-0.38003,0.04436,,,,,,,,,,,,,,,,,,,,,,,,,,0,0,0,0,0
3.0773,1783012363.0600,1,1,1.0000,0.0000,1.44682,0.22492,-2.77961,0.98386,1.57080,0.00001,-0.14512,-0.38003,0.04435,,,,,,,,,,,,,,,,,,,,,,,,,,0,0,0,0,0
3.0778,1783012363.0605,1,1,1.0000,0.0000,1.44682,0.22492,-2.77961,0.98386,1.57080,0.00001,-0.14512,-0.38003,0.04435,,,,,,,,,,,,,,,,,,,,,,,,,,0,0,0,0,0
3.0973,1783012363.0800,1,1,1.0000,0.0000,1.44682,0.22485,-2.77963,0.98394,1.57080,0.00001,-0.14512,-0.38003,0.04434,,,,,,,,,,,,,,,,,,,,,,,,,,0,0,0,0,0
3.0978,1783012363.0805,1,1,1.0000,0.0000,1.44682,0.22485,-2.77963,0.98394,1.57080,0.00001,-0.14512,-0.38003,0.04434,,,,,,,,,,,,,,,,,,,,,,,,,,0,0,0,0,0
3.0983,1783012363.0810,1,1,1.0000,0.0000,1.44682,0.22485,-2.77963,0.98394,1.57080,0.00001,-0.14512,-0.38003,0.04434,,,,,,,,,,,,,,,,,,,,,,,,,,0,0,0,0,0
3.1236,1783012363.1063,1,1,1.0000,0.0000,1.44682,0.22477,-2.77965,0.98404,1.57080,0.00001,-0.14512,-0.38003,0.04432,,,,,,,,,,,,,,,,,,,,,,,,,,0,0,0,0,0
3.1241,1783012363.1068,1,1,1.0000,0.0000,1.44682,0.22477,-2.77965,0.98404,1.57080,0.00001,-0.14512,-0.38003,0.04432,,,,,,,,,,,,,,,,,,,,,,,,,,0,0,0,0,0
3.1319,1783012363.1147,1,1,1.0000,0.0000,1.44682,0.22474,-2.77966,0.98408,1.57080,0.00001,-0.14512,-0.38002,0.04431,,,,,,,,,,,,,,,,,,,,,,,,,,0,0,0,0,0
3.1323,1783012363.1150,1,1,1.0000,0.0000,1.44682,0.22474,-2.77966,0.98408,1.57080,0.00001,-0.14512,-0.38002,0.04431,,,,,,,,,,,,,,,,,,,,,,,,,,0,0,0,0,0
3.1380,1783012363.1207,1,1,1.0000,0.0000,1.44682,0.22469,-2.77967,0.98414,1.57080,0.00001,-0.14512,-0.38002,0.04429,,,,,,,,,,,,,,,,,,,,,,,,,,0,0,0,0,0
3.1463,1783012363.1291,1,1,1.0000,0.0000,1.44682,0.22464,-2.77968,0.98421,1.57080,0.00001,-0.14512,-0.38002,0.04428,,,,,,,,,,,,,,,,,,,,,,,,,,0,0,0,0,0
3.1581,1783012363.1408,1,1,1.0000,0.0000,1.44682,0.22463,-2.77968,0.98423,1.57080,0.00001,-0.14512,-0.38002,0.04428,,,,,,,,,,,,,,,,,,,,,,,,,,0,0,0,0,0
3.1583,1783012363.1410,1,1,1.0000,0.0000,1.44682,0.22463,-2.77968,0.98423,1.57080,0.00001,-0.14512,-0.38002,0.04428,,,,,,,,,,,,,,,,,,,,,,,,,,0,0,0,0,0
3.1672,1783012363.1499,1,1,1.0000,0.0000,1.44682,0.22460,-2.77969,0.98426,1.57080,0.00001,-0.14512,-0.38002,0.04427,,,,,,,,,,,,,,,,,,,,,,,,,,0,0,0,0,0
3.1763,1783012363.1590,1,1,1.0000,0.0000,1.44682,0.22455,-2.77970,0.98432,1.57080,0.00001,-0.14512,-0.38002,0.04426,,,,,,,,,,,,,,,,,,,,,,,,,,0,0,0,0,0
3.1768,1783012363.1596,1,1,1.0000,0.0000,1.44682,0.22455,-2.77970,0.98432,1.57080,0.00001,-0.14512,-0.38002,0.04426,,,,,,,,,,,,,,,,,,,,,,,,,,0,0,0,0,0
3.1888,1783012363.1715,1,1,1.0000,0.0000,1.44682,0.22452,-2.77971,0.98436,1.57080,0.00001,-0.14512,-0.38002,0.04425,,,,,,,,,,,,,,,,,,,,,,,,,,0,0,0,0,0
3.1891,1783012363.1718,1,1,1.0000,0.0000,1.44682,0.22452,-2.77971,0.98436,1.57080,0.00001,-0.14512,-0.38002,0.04425,,,,,,,,,,,,,,,,,,,,,,,,,,0,0,0,0,0
3.1997,1783012363.1824,1,1,1.0000,0.0000,1.44682,0.22447,-2.77972,0.98443,1.57080,0.00001,-0.14512,-0.38002,0.04424,,,,,,,,,,,,,,,,,,,,,,,,,,0,0,0,0,0
3.2124,1783012363.1952,1,1,1.0000,0.0000,1.44682,0.22441,-2.77974,0.98449,1.57080,0.00001,-0.14512,-0.38002,0.04422,,,,,,,,,,,,,,,,,,,,,,,,,,0,0,0,0,0
3.2225,1783012363.2052,1,1,1.0000,0.0000,1.44682,0.22438,-2.77975,0.98454,1.57080,0.00001,-0.14512,-0.38002,0.04421,,,,,,,,,,,,,,,,,,,,,,,,,,0,0,0,0,0
3.2387,1783012363.2214,1,1,1.0000,0.0000,1.44682,0.22430,-2.77977,0.98463,1.57080,0.00001,-0.14512,-0.38002,0.04419,,,,,,,,,,,,,,,,,,,,,,,,,,0,0,0,0,0
3.2391,1783012363.2219,1,1,1.0000,0.0000,1.44682,0.22430,-2.77977,0.98463,1.57080,0.00001,-0.14512,-0.38002,0.04419,,,,,,,,,,,,,,,,,,,,,,,,,,0,0,0,0,0
3.2492,1783012363.2319,1,1,1.0000,0.0000,1.44682,0.22427,-2.77977,0.98467,1.57080,0.00001,-0.14512,-0.38002,0.04419,,,,,,,,,,,,,,,,,,,,,,,,,,0,0,0,0,0
3.2494,1783012363.2321,1,1,1.0000,0.0000,1.44682,0.22427,-2.77977,0.98467,1.57080,0.00001,-0.14512,-0.38002,0.04419,,,,,,,,,,,,,,,,,,,,,,,,,,0,0,0,0,0
3.2567,1783012363.2394,1,1,1.0000,0.0000,1.44682,0.22425,-2.77978,0.98470,1.57080,0.00001,-0.14512,-0.38002,0.04418,,,,,,,,,,,,,,,,,,,,,,,,,,0,0,0,0,0
3.2573,1783012363.2400,1,1,1.0000,0.0000,1.44682,0.22422,-2.77979,0.98473,1.57080,0.00001,-0.14512,-0.38002,0.04417,,,,,,,,,,,,,,,,,,,,,,,,,,0,0,0,0,0
3.2685,1783012363.2512,1,1,1.0000,0.0000,1.44682,0.22417,-2.77980,0.98480,1.57080,0.00001,-0.14512,-0.38002,0.04416,,,,,,,,,,,,,,,,,,,,,,,,,,0,0,0,0,0
3.2879,1783012363.2706,1,1,1.0000,0.0000,1.44682,0.22411,-2.77981,0.98487,1.57080,0.00001,-0.14512,-0.38002,0.04414,,,,,,,,,,,,,,,,,,,,,,,,,,0,0,0,0,0
3.2889,1783012363.2716,1,1,1.0000,0.0000,1.44682,0.22409,-2.77982,0.98490,1.57080,0.00001,-0.14512,-0.38002,0.04414,,,,,,,,,,,,,,,,,,,,,,,,,,0,0,0,0,0
3.2981,1783012363.2809,1,1,1.0000,0.0000,1.44682,0.22406,-2.77983,0.98494,1.57080,0.00001,-0.14512,-0.38002,0.04413,,,,,,,,,,,,,,,,,,,,,,,,,,0,0,0,0,0
3.2984,1783012363.2811,1,1,1.0000,0.0000,1.44682,0.22406,-2.77983,0.98494,1.57080,0.00001,-0.14512,-0.38002,0.04413,,,,,,,,,,,,,,,,,,,,,,,,,,0,0,0,0,0
3.3180,1783012363.3007,1,1,1.0000,0.0000,1.44682,0.22398,-2.77985,0.98504,1.57080,0.00001,-0.14512,-0.38002,0.04411,,,,,,,,,,,,,,,,,,,,,,,,,,0,0,0,0,0
3.3182,1783012363.3009,1,1,1.0000,0.0000,1.44682,0.22398,-2.77985,0.98504,1.57080,0.00001,-0.14512,-0.38002,0.04411,,,,,,,,,,,,,,,,,,,,,,,,,,0,0,0,0,0
3.3186,1783012363.3014,1,1,1.0000,0.0000,1.44682,0.22398,-2.77985,0.98504,1.57080,0.00001,-0.14512,-0.38002,0.04411,,,,,,,,,,,,,,,,,,,,,,,,,,0,0,0,0,0
3.3190,1783012363.3018,1,1,1.0000,0.0000,1.44682,0.22398,-2.77985,0.98504,1.57080,0.00001,-0.14512,-0.38002,0.04411,,,,,,,,,,,,,,,,,,,,,,,,,,0,0,0,0,0
3.3269,1783012363.3096,1,1,1.0000,0.0000,1.44682,0.22392,-2.77986,0.98511,1.57080,0.00001,-0.14512,-0.38002,0.04410,,,,,,,,,,,,,,,,,,,,,,,,,,0,0,0,0,0
3.3383,1783012363.3210,1,1,1.0000,0.0000,1.44682,0.22391,-2.77987,0.98513,1.57080,0.00001,-0.14512,-0.38002,0.04409,,,,,,,,,,,,,,,,,,,,,,,,,,0,0,0,0,0
3.3387,1783012363.3214,1,1,1.0000,0.0000,1.44682,0.22391,-2.77987,0.98513,1.57080,0.00001,-0.14512,-0.38002,0.04409,,,,,,,,,,,,,,,,,,,,,,,,,,0,0,0,0,0
3.3474,1783012363.3301,1,1,1.0000,0.0000,1.44682,0.22387,-2.77988,0.98518,1.57080,0.00001,-0.14512,-0.38002,0.04408,,,,,,,,,,,,,,,,,,,,,,,,,,0,0,0,0,0
3.3608,1783012363.3435,1,1,1.0000,0.0000,1.44682,0.22381,-2.77989,0.98525,1.57080,0.00001,-0.14512,-0.38002,0.04407,,,,,,,,,,,,,,,,,,,,,,,,,,0,0,0,0,0
3.3667,1783012363.3494,1,1,1.0000,0.0000,1.44682,0.22380,-2.77989,0.98526,1.57080,0.00001,-0.14512,-0.38002,0.04406,,,,,,,,,,,,,,,,,,,,,,,,,,0,0,0,0,0
3.3792,1783012363.3619,1,1,1.0000,0.0000,1.44682,0.22373,-2.77991,0.98535,1.57080,0.00001,-0.14512,-0.38002,0.04405,,,,,,,,,,,,,,,,,,,,,,,,,,0,0,0,0,0
3.3865,1783012363.3692,1,1,1.0000,0.0000,1.44682,0.22368,-2.77992,0.98541,1.57080,0.00001,-0.14512,-0.38002,0.04403,,,,,,,,,,,,,,,,,,,,,,,,,,0,0,0,0,0
3.3997,1783012363.3824,1,1,1.0000,0.0000,1.44682,0.22366,-2.77993,0.98543,1.57080,0.00001,-0.14512,-0.38002,0.04403,,,,,,,,,,,,,,,,,,,,,,,,,,0,0,0,0,0
3.4063,1783012363.3890,1,1,1.0000,0.0000,1.44682,0.22362,-2.77994,0.98549,1.57080,0.00001,-0.14512,-0.38002,0.04402,,,,,,,,,,,,,,,,,,,,,,,,,,0,0,0,0,0
3.4212,1783012363.4039,1,1,1.0000,0.0000,1.44682,0.22356,-2.77995,0.98556,1.57080,0.00001,-0.14512,-0.38002,0.04400,,,,,,,,,,,,,,,,,,,,,,,,,,0,0,0,0,0
3.4216,1783012363.4043,1,1,1.0000,0.0000,1.44682,0.22356,-2.77995,0.98556,1.57080,0.00001,-0.14512,-0.38002,0.04400,,,,,,,,,,,,,,,,,,,,,,,,,,0,0,0,0,0
3.4356,1783012363.4183,1,1,1.0000,0.0000,1.44682,0.22351,-2.77997,0.98562,1.57080,0.00001,-0.14512,-0.38002,0.04399,,,,,,,,,,,,,,,,,,,,,,,,,,0,0,0,0,0
3.4443,1783012363.4270,1,1,1.0000,0.0000,1.44682,0.22346,-2.77998,0.98569,1.57080,0.00001,-0.14512,-0.38002,0.04398,,,,,,,,,,,,,,,,,,,,,,,,,,0,0,0,0,0
3.4501,1783012363.4328,1,1,1.0000,0.0000,1.44682,0.22343,-2.77998,0.98572,1.57080,0.00001,-0.14512,-0.38002,0.04397,,,,,,,,,,,,,,,,,,,,,,,,,,0,0,0,0,0
3.4615,1783012363.4442,1,1,1.0000,0.0000,1.44682,0.22340,-2.77999,0.98576,1.57080,0.00001,-0.14512,-0.38002,0.04396,,,,,,,,,,,,,,,,,,,,,,,,,,0,0,0,0,0
3.4618,1783012363.4445,1,1,1.0000,0.0000,1.44682,0.22340,-2.77999,0.98576,1.57080,0.00001,-0.14512,-0.38002,0.04396,,,,,,,,,,,,,,,,,,,,,,,,,,0,0,0,0,0
3.4709,1783012363.4536,1,1,1.0000,0.0000,1.44682,0.22335,-2.78001,0.98583,1.57080,0.00001,-0.14512,-0.38002,0.04395,,,,,,,,,,,,,,,,,,,,,,,,,,0,0,0,0,0
3.4813,1783012363.4640,1,1,1.0000,0.0000,1.44682,0.22332,-2.78001,0.98586,1.57080,0.00001,-0.14512,-0.38002,0.04394,,,,,,,,,,,,,,,,,,,,,,,,,,0,0,0,0,0
3.4816,1783012363.4643,1,1,1.0000,0.0000,1.44682,0.22332,-2.78001,0.98586,1.57080,0.00001,-0.14512,-0.38002,0.04394,,,,,,,,,,,,,,,,,,,,,,,,,,0,0,0,0,0
3.4916,1783012363.4744,1,1,1.0000,0.0000,1.44682,0.22329,-2.78002,0.98590,1.57080,0.00001,-0.14512,-0.38002,0.04393,,,,,,,,,,,,,,,,,,,,,,,,,,0,0,0,0,0
3.5036,1783012363.4863,1,1,1.0000,0.0000,1.44682,0.22321,-2.78004,0.98600,1.57080,0.00001,-0.14512,-0.38002,0.04391,,,,,,,,,,,,,,,,,,,,,,,,,,0,0,0,0,0
3.5039,1783012363.4866,1,1,1.0000,0.0000,1.44682,0.22321,-2.78004,0.98600,1.57080,0.00001,-0.14512,-0.38002,0.04391,,,,,,,,,,,,,,,,,,,,,,,,,,0,0,0,0,0
3.5103,1783012363.4930,1,1,1.0000,0.0000,1.44682,0.22319,-2.78005,0.98603,1.57080,0.00001,-0.14512,-0.38002,0.04391,,,,,,,,,,,,,,,,,,,,,,,,,,0,0,0,0,0
3.5210,1783012363.5037,1,1,1.0000,0.0000,1.44682,0.22315,-2.78006,0.98607,1.57080,0.00001,-0.14512,-0.38002,0.04390,,,,,,,,,,,,,,,,,,,,,,,,,,0,0,0,0,0
3.5213,1783012363.5040,1,1,1.0000,0.0000,1.44682,0.22315,-2.78006,0.98607,1.57080,0.00001,-0.14512,-0.38002,0.04390,,,,,,,,,,,,,,,,,,,,,,,,,,0,0,0,0,0
3.5331,1783012363.5158,1,1,1.0000,0.0000,1.44682,0.22308,-2.78007,0.98617,1.57080,0.00001,-0.14512,-0.38002,0.04388,,,,,,,,,,,,,,,,,,,,,,,,,,0,0,0,0,0
3.5426,1783012363.5253,1,1,1.0000,0.0000,1.44682,0.22307,-2.78008,0.98617,1.57080,0.00001,-0.14512,-0.38002,0.04388,,,,,,,,,,,,,,,,,,,,,,,,,,0,0,0,0,0
3.5573,1783012363.5400,1,1,1.0000,0.0000,1.44682,0.22299,-2.78010,0.98627,1.57080,0.00001,-0.14512,-0.38002,0.04386,,,,,,,,,,,,,,,,,,,,,,,,,,0,0,0,0,0
3.5615,1783012363.5443,1,1,1.0000,0.0000,1.44682,0.22297,-2.78010,0.98630,1.57080,0.00001,-0.14512,-0.38002,0.04385,,,,,,,,,,,,,,,,,,,,,,,,,,0,0,0,0,0
3.5713,1783012363.5540,1,1,1.0000,0.0000,1.44682,0.22294,-2.78011,0.98634,1.57080,0.00001,-0.14512,-0.38002,0.04384,,,,,,,,,,,,,,,,,,,,,,,,,,0,0,0,0,0
3.5799,1783012363.5626,1,1,1.0000,0.0000,1.44682,0.22292,-2.78011,0.98636,1.57080,0.00001,-0.14512,-0.38002,0.04384,,,,,,,,,,,,,,,,,,,,,,,,,,0,0,0,0,0
3.5911,1783012363.5738,1,1,1.0000,0.0000,1.44682,0.22286,-2.78013,0.98644,1.57080,0.00001,-0.14512,-0.38002,0.04382,,,,,,,,,,,,,,,,,,,,,,,,,,0,0,0,0,0
3.6100,1783012363.5927,1,1,1.0000,0.0000,1.44682,0.22279,-2.78015,0.98652,1.57080,0.00001,-0.14512,-0.38002,0.04380,,,,,,,,,,,,,,,,,,,,,,,,,,0,0,0,0,0
3.6105,1783012363.5932,1,1,1.0000,0.0000,1.44682,0.22279,-2.78015,0.98652,1.57080,0.00001,-0.14512,-0.38002,0.04380,,,,,,,,,,,,,,,,,,,,,,,,,,0,0,0,0,0
3.6108,1783012363.5935,1,1,1.0000,0.0000,1.44682,0.22279,-2.78015,0.98652,1.57080,0.00001,-0.14512,-0.38002,0.04380,,,,,,,,,,,,,,,,,,,,,,,,,,0,0,0,0,0
3.6222,1783012363.6049,1,1,1.0000,0.0000,1.44682,0.22274,-2.78016,0.98659,1.57080,0.00001,-0.14512,-0.38002,0.04379,,,,,,,,,,,,,,,,,,,,,,,,,,0,0,0,0,0
3.6348,1783012363.6176,1,1,1.0000,0.0000,1.44681,0.22271,-2.78017,0.98662,1.57080,0.00001,-0.14512,-0.38002,0.04378,,,,,,,,,,,,,,,,,,,,,,,,,,0,0,0,0,0
3.6403,1783012363.6230,1,1,1.0000,0.0000,1.44681,0.22270,-2.78017,0.98664,1.57080,0.00001,-0.14512,-0.38002,0.04378,,,,,,,,,,,,,,,,,,,,,,,,,,0,0,0,0,0
3.6498,1783012363.6326,1,1,1.0000,0.0000,1.44681,0.22263,-2.78019,0.98672,1.57080,0.00001,-0.14512,-0.38002,0.04376,,,,,,,,,,,,,,,,,,,,,,,,,,0,0,0,0,0
3.6501,1783012363.6328,1,1,1.0000,0.0000,1.44681,0.22263,-2.78019,0.98672,1.57080,0.00001,-0.14512,-0.38002,0.04376,,,,,,,,,,,,,,,,,,,,,,,,,,0,0,0,0,0
3.6672,1783012363.6499,1,1,1.0000,0.0000,1.44681,0.22257,-2.78020,0.98679,1.57080,0.00001,-0.14512,-0.38002,0.04375,,,,,,,,,,,,,,,,,,,,,,,,,,0,0,0,0,0
3.6675,1783012363.6502,1,1,1.0000,0.0000,1.44681,0.22257,-2.78020,0.98679,1.57080,0.00001,-0.14512,-0.38002,0.04375,,,,,,,,,,,,,,,,,,,,,,,,,,0,0,0,0,0
3.6736,1783012363.6564,1,1,1.0000,0.0000,1.44681,0.22255,-2.78021,0.98682,1.57080,0.00001,-0.14512,-0.38002,0.04374,,,,,,,,,,,,,,,,,,,,,,,,,,0,0,0,0,0
3.6739,1783012363.6566,1,1,1.0000,0.0000,1.44681,0.22255,-2.78021,0.98682,1.57080,0.00001,-0.14512,-0.38002,0.04374,,,,,,,,,,,,,,,,,,,,,,,,,,0,0,0,0,0
3.6827,1783012363.6654,1,1,1.0000,0.0000,1.44681,0.22251,-2.78021,0.98687,1.57080,0.00001,-0.14512,-0.38002,0.04373,,,,,,,,,,,,,,,,,,,,,,,,,,0,0,0,0,0
3.6831,1783012363.6658,1,1,1.0000,0.0000,1.44681,0.22251,-2.78021,0.98687,1.57080,0.00001,-0.14512,-0.38002,0.04373,,,,,,,,,,,,,,,,,,,,,,,,,,0,0,0,0,0
3.6931,1783012363.6758,1,1,1.0000,0.0000,1.44681,0.22249,-2.78022,0.98690,1.57080,0.00001,-0.14512,-0.38002,0.04373,,,,,,,,,,,,,,,,,,,,,,,,,,0,0,0,0,0
3.6935,1783012363.6762,1,1,1.0000,0.0000,1.44681,0.22249,-2.78022,0.98690,1.57080,0.00001,-0.14512,-0.38002,0.04373,,,,,,,,,,,,,,,,,,,,,,,,,,0,0,0,0,0
3.7013,1783012363.6840,1,1,1.0000,0.0000,1.44681,0.22245,-2.78023,0.98694,1.57080,0.00001,-0.14512,-0.38002,0.04372,,,,,,,,,,,,,,,,,,,,,,,,,,0,0,0,0,0
3.7381,1783012363.7208,1,1,1.0000,0.0000,1.44681,0.22231,-2.78027,0.98713,1.57080,0.00001,-0.14512,-0.38002,0.04368,,,,,,,,,,,,,,,,,,,,,,,,,,0,0,0,0,0
3.7384,1783012363.7212,1,1,1.0000,0.0000,1.44681,0.22231,-2.78027,0.98713,1.57080,0.00001,-0.14512,-0.38002,0.04368,,,,,,,,,,,,,,,,,,,,,,,,,,0,0,0,0,0
3.7388,1783012363.7215,1,1,1.0000,0.0000,1.44681,0.22231,-2.78027,0.98713,1.57080,0.00001,-0.14512,-0.38002,0.04368,,,,,,,,,,,,,,,,,,,,,,,,,,0,0,0,0,0
3.7715,1783012363.7542,1,1,1.0000,0.0000,1.44681,0.22218,-2.78030,0.98729,1.57080,0.00001,-0.14512,-0.38002,0.04365,,,,,,,,,,,,,,,,,,,,,,,,,,0,0,0,0,0
3.7718,1783012363.7545,1,1,1.0000,0.0000,1.44681,0.22218,-2.78030,0.98729,1.57080,0.00001,-0.14512,-0.38002,0.04365,,,,,,,,,,,,,,,,,,,,,,,,,,0,0,0,0,0
3.7722,1783012363.7549,1,1,1.0000,0.0000,1.44681,0.22218,-2.78030,0.98729,1.57080,0.00001,-0.14512,-0.38002,0.04365,,,,,,,,,,,,,,,,,,,,,,,,,,0,0,0,0,0
3.7724,1783012363.7552,1,1,1.0000,0.0000,1.44681,0.22218,-2.78030,0.98729,1.57080,0.00001,-0.14512,-0.38002,0.04365,,,,,,,,,,,,,,,,,,,,,,,,,,0,0,0,0,0
3.7998,1783012363.7825,1,1,1.0000,0.0000,1.44681,0.22208,-2.78032,0.98741,1.57080,0.00001,-0.14512,-0.38002,0.04362,,,,,,,,,,,,,,,,,,,,,,,,,,0,0,0,0,0
3.8001,1783012363.7828,1,1,1.0000,0.0000,1.44681,0.22208,-2.78032,0.98741,1.57080,0.00001,-0.14512,-0.38002,0.04362,,,,,,,,,,,,,,,,,,,,,,,,,,0,0,0,0,0
3.8010,1783012363.7837,1,1,1.0000,0.0000,1.44681,0.22206,-2.78033,0.98743,1.57080,0.00001,-0.14512,-0.38002,0.04362,,,,,,,,,,,,,,,,,,,,,,,,,,0,0,0,0,0
3.8148,1783012363.7975,1,1,1.0000,0.0000,1.44681,0.22204,-2.78033,0.98747,1.57080,0.00001,-0.14512,-0.38002,0.04361,,,,,,,,,,,,,,,,,,,,,,,,,,0,0,0,0,0
3.8412,1783012363.8239,1,1,1.0000,0.0000,1.44681,0.22190,-2.78037,0.98764,1.57080,0.00001,-0.14512,-0.38002,0.04357,,,,,,,,,,,,,,,,,,,,,,,,,,0,0,0,0,0
3.8414,1783012363.8241,1,1,1.0000,0.0000,1.44681,0.22190,-2.78037,0.98764,1.57080,0.00001,-0.14512,-0.38002,0.04357,,,,,,,,,,,,,,,,,,,,,,,,,,0,0,0,0,0
3.8871,1783012363.8699,1,1,1.0000,0.0000,1.44681,0.22175,-2.78041,0.98782,1.57080,0.00001,-0.14512,-0.38002,0.04354,,,,,,,,,,,,,,,,,,,,,,,,,,0,0,0,0,0
3.8874,1783012363.8701,1,1,1.0000,0.0000,1.44681,0.22175,-2.78041,0.98782,1.57080,0.00001,-0.14512,-0.38002,0.04354,,,,,,,,,,,,,,,,,,,,,,,,,,0,0,0,0,0
3.8877,1783012363.8704,1,1,1.0000,0.0000,1.44681,0.22175,-2.78041,0.98782,1.57080,0.00001,-0.14512,-0.38002,0.04354,,,,,,,,,,,,,,,,,,,,,,,,,,0,0,0,0,0
3.9047,1783012363.8874,1,1,1.0000,0.0000,1.44681,0.22167,-2.78042,0.98792,1.57080,0.00001,-0.14512,-0.38002,0.04352,,,,,,,,,,,,,,,,,,,,,,,,,,0,0,0,0,0
3.9054,1783012363.8881,1,1,1.0000,0.0000,1.44681,0.22167,-2.78043,0.98792,1.57080,0.00001,-0.14512,-0.38002,0.04352,,,,,,,,,,,,,,,,,,,,,,,,,,0,0,0,0,0
3.9160,1783012363.8987,1,1,1.0000,0.0000,1.44681,0.22165,-2.78043,0.98795,1.57080,0.00001,-0.14512,-0.38002,0.04351,,,,,,,,,,,,,,,,,,,,,,,,,,0,0,0,0,0
3.9353,1783012363.9181,1,1,1.0000,0.0000,1.44681,0.22158,-2.78045,0.98803,1.57080,0.00001,-0.14512,-0.38002,0.04349,,,,,,,,,,,,,,,,,,,,,,,,,,0,0,0,0,0
3.9357,1783012363.9184,1,1,1.0000,0.0000,1.44681,0.22158,-2.78045,0.98803,1.57080,0.00001,-0.14512,-0.38002,0.04349,,,,,,,,,,,,,,,,,,,,,,,,,,0,0,0,0,0
3.9404,1783012363.9231,1,1,1.0000,0.0000,1.44681,0.22157,-2.78045,0.98805,1.57080,0.00001,-0.14512,-0.38002,0.04349,,,,,,,,,,,,,,,,,,,,,,,,,,0,0,0,0,0
3.9575,1783012363.9402,1,1,1.0000,0.0000,1.44681,0.22145,-2.78048,0.98820,1.57080,0.00001,-0.14512,-0.38002,0.04346,,,,,,,,,,,,,,,,,,,,,,,,,,0,0,0,0,0
3.9713,1783012363.9540,1,1,1.0000,0.0000,1.44681,0.22143,-2.78049,0.98822,1.57080,0.00001,-0.14512,-0.38002,0.04345,,,,,,,,,,,,,,,,,,,,,,,,,,0,0,0,0,0
3.9719,1783012363.9546,1,1,1.0000,0.0000,1.44681,0.22143,-2.78049,0.98822,1.57080,0.00001,-0.14512,-0.38002,0.04345,,,,,,,,,,,,,,,,,,,,,,,,,,0,0,0,0,0
3.9868,1783012363.9695,1,1,1.0000,0.0000,1.44681,0.22134,-2.78051,0.98834,1.57080,0.00001,-0.14512,-0.38002,0.04343,,,,,,,,,,,,,,,,,,,,,,,,,,0,0,0,0,0
3.9954,1783012363.9781,1,1,1.0000,0.0000,1.44681,0.22133,-2.78051,0.98834,1.57080,0.00001,-0.14512,-0.38002,0.04343,,,,,,,,,,,,,,,,,,,,,,,,,,0,0,0,0,0
4.0110,1783012363.9938,1,1,1.0000,0.0000,1.44681,0.22125,-2.78053,0.98844,1.57080,0.00001,-0.14512,-0.38002,0.04341,,,,,,,,,,,,,,,,,,,,,,,,,,0,0,0,0,0
4.0113,1783012363.9940,1,1,1.0000,0.0000,1.44681,0.22125,-2.78053,0.98844,1.57080,0.00001,-0.14512,-0.38002,0.04341,,,,,,,,,,,,,,,,,,,,,,,,,,0,0,0,0,0
4.0337,1783012364.0164,1,1,1.0000,0.0000,1.44681,0.22117,-2.78055,0.98855,1.57080,0.00001,-0.14512,-0.38002,0.04339,,,,,,,,,,,,,,,,,,,,,,,,,,0,0,0,0,0
4.0341,1783012364.0168,1,1,1.0000,0.0000,1.44681,0.22117,-2.78055,0.98855,1.57080,0.00001,-0.14512,-0.38002,0.04339,,,,,,,,,,,,,,,,,,,,,,,,,,0,0,0,0,0
4.0453,1783012364.0280,1,1,1.0000,0.0000,1.44681,0.22109,-2.78057,0.98865,1.57080,0.00001,-0.14512,-0.38002,0.04337,,,,,,,,,,,,,,,,,,,,,,,,,,0,0,0,0,0
4.0454,1783012364.0281,1,1,1.0000,0.0000,1.44681,0.22109,-2.78057,0.98865,1.57080,0.00001,-0.14512,-0.38002,0.04337,,,,,,,,,,,,,,,,,,,,,,,,,,0,0,0,0,0
4.0535,1783012364.0363,1,1,1.0000,0.0000,1.44681,0.22109,-2.78057,0.98865,1.57080,0.00001,-0.14512,-0.38002,0.04337,,,,,,,,,,,,,,,,,,,,,,,,,,0,0,0,0,0
4.0627,1783012364.0454,1,1,1.0000,0.0000,1.44681,0.22106,-2.78058,0.98869,1.57080,0.00001,-0.14512,-0.38002,0.04336,,,,,,,,,,,,,,,,,,,,,,,,,,0,0,0,0,0
4.0730,1783012364.0558,1,1,1.0000,0.0000,1.44681,0.22098,-2.78060,0.98878,1.57080,0.00001,-0.14512,-0.38002,0.04334,,,,,,,,,,,,,,,,,,,,,,,,,,0,0,0,0,0
4.0854,1783012364.0681,1,1,1.0000,0.0000,1.44681,0.22095,-2.78061,0.98882,1.57080,0.00001,-0.14512,-0.38002,0.04333,,,,,,,,,,,,,,,,,,,,,,,,,,0,0,0,0,0
4.1078,1783012364.0905,1,1,1.0000,0.0000,1.44681,0.22084,-2.78063,0.98896,1.57080,0.00001,-0.14512,-0.38002,0.04330,,,,,,,,,,,,,,,,,,,,,,,,,,0,0,0,0,0
4.1144,1783012364.0971,1,1,1.0000,0.0000,1.44681,0.22084,-2.78063,0.98896,1.57080,0.00001,-0.14512,-0.38002,0.04330,,,,,,,,,,,,,,,,,,,,,,,,,,0,0,0,0,0
4.1146,1783012364.0973,1,1,1.0000,0.0000,1.44681,0.22084,-2.78063,0.98896,1.57080,0.00001,-0.14512,-0.38002,0.04330,,,,,,,,,,,,,,,,,,,,,,,,,,0,0,0,0,0
4.1254,1783012364.1081,1,1,1.0000,0.0000,1.44681,0.22079,-2.78065,0.98903,1.57080,0.00001,-0.14512,-0.38002,0.04329,,,,,,,,,,,,,,,,,,,,,,,,,,0,0,0,0,0
4.1576,1783012364.1403,1,1,1.0000,0.0000,1.44681,0.22065,-2.78068,0.98920,1.57080,0.00001,-0.14512,-0.38002,0.04325,,,,,,,,,,,,,,,,,,,,,,,,,,0,0,0,0,0
4.1579,1783012364.1406,1,1,1.0000,0.0000,1.44681,0.22065,-2.78068,0.98920,1.57080,0.00001,-0.14512,-0.38002,0.04325,,,,,,,,,,,,,,,,,,,,,,,,,,0,0,0,0,0
4.1583,1783012364.1410,1,1,1.0000,0.0000,1.44681,0.22065,-2.78068,0.98920,1.57080,0.00001,-0.14512,-0.38002,0.04325,,,,,,,,,,,,,,,,,,,,,,,,,,0,0,0,0,0
4.1634,1783012364.1462,1,1,1.0000,0.0000,1.44681,0.22062,-2.78069,0.98923,1.57080,0.00001,-0.14512,-0.38002,0.04325,,,,,,,,,,,,,,,,,,,,,,,,,,0,0,0,0,0
4.1798,1783012364.1625,1,1,1.0000,0.0000,1.44681,0.22058,-2.78070,0.98928,1.57080,0.00001,-0.14512,-0.38002,0.04324,,,,,,,,,,,,,,,,,,,,,,,,,,0,0,0,0,0
4.1851,1783012364.1678,1,1,1.0000,0.0000,1.44681,0.22054,-2.78071,0.98934,1.57080,0.00001,-0.14512,-0.38002,0.04322,,,,,,,,,,,,,,,,,,,,,,,,,,0,0,0,0,0
4.1934,1783012364.1761,1,1,1.0000,0.0000,1.44681,0.22049,-2.78072,0.98940,1.57080,0.00001,-0.14512,-0.38002,0.04321,,,,,,,,,,,,,,,,,,,,,,,,,,0,0,0,0,0
4.1937,1783012364.1764,1,1,1.0000,0.0000,1.44681,0.22049,-2.78072,0.98940,1.57080,0.00001,-0.14512,-0.38002,0.04321,,,,,,,,,,,,,,,,,,,,,,,,,,0,0,0,0,0
4.2059,1783012364.1886,1,1,1.0000,0.0000,1.44681,0.22046,-2.78073,0.98944,1.57080,0.00001,-0.14512,-0.38002,0.04320,,,,,,,,,,,,,,,,,,,,,,,,,,0,0,0,0,0
4.2184,1783012364.2011,1,1,1.0000,0.0000,1.44681,0.22040,-2.78074,0.98951,1.57080,0.00001,-0.14512,-0.38002,0.04319,,,,,,,,,,,,,,,,,,,,,,,,,,0,0,0,0,0
4.2234,1783012364.2061,1,1,1.0000,0.0000,1.44681,0.22038,-2.78075,0.98954,1.57080,0.00001,-0.14512,-0.38002,0.04318,,,,,,,,,,,,,,,,,,,,,,,,,,0,0,0,0,0
4.2237,1783012364.2065,1,1,1.0000,0.0000,1.44681,0.22038,-2.78075,0.98954,1.57080,0.00001,-0.14512,-0.38002,0.04318,,,,,,,,,,,,,,,,,,,,,,,,,,0,0,0,0,0
4.2409,1783012364.2236,1,1,1.0000,0.0000,1.44681,0.22032,-2.78076,0.98961,1.57080,0.00001,-0.14512,-0.38002,0.04317,,,,,,,,,,,,,,,,,,,,,,,,,,0,0,0,0,0
4.2415,1783012364.2242,1,1,1.0000,0.0000,1.44681,0.22031,-2.78076,0.98962,1.57080,0.00001,-0.14512,-0.38002,0.04317,,,,,,,,,,,,,,,,,,,,,,,,,,0,0,0,0,0
4.2641,1783012364.2468,1,1,1.0000,0.0000,1.44681,0.22024,-2.78078,0.98971,1.57080,0.00001,-0.14512,-0.38002,0.04315,,,,,,,,,,,,,,,,,,,,,,,,,,0,0,0,0,0
4.2644,1783012364.2471,1,1,1.0000,0.0000,1.44681,0.22024,-2.78078,0.98971,1.57080,0.00001,-0.14512,-0.38002,0.04315,,,,,,,,,,,,,,,,,,,,,,,,,,0,0,0,0,0
4.2678,1783012364.2505,1,1,1.0000,0.0000,1.44681,0.22023,-2.78078,0.98972,1.57080,0.00001,-0.14512,-0.38002,0.04315,,,,,,,,,,,,,,,,,,,,,,,,,,0,0,0,0,0
4.2767,1783012364.2594,1,1,1.0000,0.0000,1.44681,0.22020,-2.78079,0.98976,1.57080,0.00001,-0.14512,-0.38002,0.04314,,,,,,,,,,,,,,,,,,,,,,,,,,0,0,0,0,0
4.2892,1783012364.2719,1,1,1.0000,0.0000,1.44681,0.22010,-2.78082,0.98989,1.57080,0.00001,-0.14512,-0.38002,0.04311,,,,,,,,,,,,,,,,,,,,,,,,,,0,0,0,0,0
4.2897,1783012364.2724,1,1,1.0000,0.0000,1.44681,0.22010,-2.78082,0.98989,1.57080,0.00001,-0.14512,-0.38002,0.04311,,,,,,,,,,,,,,,,,,,,,,,,,,0,0,0,0,0
4.3006,1783012364.2833,1,1,1.0000,0.0000,1.44681,0.22009,-2.78082,0.98989,1.57080,0.00001,-0.14512,-0.38002,0.04311,,,,,,,,,,,,,,,,,,,,,,,,,,0,0,0,0,0
4.3012,1783012364.2839,1,1,1.0000,0.0000,1.44681,0.22009,-2.78082,0.98990,1.57080,0.00001,-0.14512,-0.38002,0.04311,,,,,,,,,,,,,,,,,,,,,,,,,,0,0,0,0,0
4.3075,1783012364.2902,1,1,1.0000,0.0000,1.44681,0.22007,-2.78082,0.98992,1.57080,0.00001,-0.14512,-0.38002,0.04310,,,,,,,,,,,,,,,,,,,,,,,,,,0,0,0,0,0
4.3084,1783012364.2911,1,1,1.0000,0.0000,1.44681,0.22007,-2.78082,0.98992,1.57080,0.00001,-0.14512,-0.38002,0.04310,,,,,,,,,,,,,,,,,,,,,,,,,,0,0,0,0,0
4.3204,1783012364.3031,1,1,1.0000,0.0000,1.44681,0.22001,-2.78084,0.99000,1.57080,0.00001,-0.14512,-0.38002,0.04309,,,,,,,,,,,,,,,,,,,,,,,,,,0,0,0,0,0
4.3383,1783012364.3211,1,1,1.0000,0.0000,1.44681,0.21995,-2.78085,0.99007,1.57080,0.00001,-0.14512,-0.38002,0.04307,,,,,,,,,,,,,,,,,,,,,,,,,,0,0,0,0,0
4.3511,1783012364.3338,1,1,1.0000,0.0000,1.44681,0.21987,-2.78087,0.99017,1.57080,0.00001,-0.14512,-0.38002,0.04305,,,,,,,,,,,,,,,,,,,,,,,,,,0,0,0,0,0
4.3575,1783012364.3403,1,1,1.0000,0.0000,1.44681,0.21987,-2.78087,0.99017,1.57080,0.00001,-0.14512,-0.38002,0.04305,,,,,,,,,,,,,,,,,,,,,,,,,,0,0,0,0,0
4.3705,1783012364.3532,1,1,1.0000,0.0000,1.44681,0.21983,-2.78088,0.99022,1.57080,0.00001,-0.14512,-0.38002,0.04304,,,,,,,,,,,,,,,,,,,,,,,,,,0,0,0,0,0
4.3773,1783012364.3600,1,1,1.0000,0.0000,1.44681,0.21978,-2.78090,0.99028,1.57080,0.00001,-0.14512,-0.38002,0.04303,,,,,,,,,,,,,,,,,,,,,,,,,,0,0,0,0,0
4.3886,1783012364.3713,1,1,1.0000,0.0000,1.44681,0.21978,-2.78090,0.99028,1.57080,0.00001,-0.14512,-0.38002,0.04303,,,,,,,,,,,,,,,,,,,,,,,,,,0,0,0,0,0
4.3892,1783012364.3719,1,1,1.0000,0.0000,1.44681,0.21977,-2.78090,0.99030,1.57080,0.00001,-0.14512,-0.38002,0.04303,,,,,,,,,,,,,,,,,,,,,,,,,,0,0,0,0,0
4.3997,1783012364.3824,1,1,1.0000,0.0000,1.44681,0.21972,-2.78091,0.99035,1.57080,0.00001,-0.14512,-0.38002,0.04302,,,,,,,,,,,,,,,,,,,,,,,,,,0,0,0,0,0
4.4001,1783012364.3828,1,1,1.0000,0.0000,1.44681,0.21972,-2.78091,0.99035,1.57080,0.00001,-0.14512,-0.38002,0.04302,,,,,,,,,,,,,,,,,,,,,,,,,,0,0,0,0,0
4.4071,1783012364.3898,1,1,1.0000,0.0000,1.44681,0.21967,-2.78092,0.99042,1.57080,0.00001,-0.14512,-0.38002,0.04300,,,,,,,,,,,,,,,,,,,,,,,,,,0,0,0,0,0
4.4190,1783012364.4017,1,1,1.0000,0.0000,1.44681,0.21964,-2.78093,0.99046,1.57080,0.00001,-0.14512,-0.38002,0.04299,,,,,,,,,,,,,,,,,,,,,,,,,,0,0,0,0,0
4.4284,1783012364.4112,1,1,1.0000,0.0000,1.44681,0.21962,-2.78094,0.99049,1.57080,0.00001,-0.14512,-0.38002,0.04299,,,,,,,,,,,,,,,,,,,,,,,,,,0,0,0,0,0
4.4292,1783012364.4119,1,1,1.0000,0.0000,1.44681,0.21960,-2.78094,0.99051,1.57080,0.00001,-0.14512,-0.38002,0.04298,,,,,,,,,,,,,,,,,,,,,,,,,,0,0,0,0,0
4.4441,1783012364.4268,1,1,1.0000,0.0000,1.44681,0.21956,-2.78095,0.99056,1.57080,0.00001,-0.14512,-0.38002,0.04297,,,,,,,,,,,,,,,,,,,,,,,,,,0,0,0,0,0
4.4523,1783012364.4350,1,1,1.0000,0.0000,1.44681,0.21954,-2.78096,0.99058,1.57080,0.00001,-0.14512,-0.38002,0.04297,,,,,,,,,,,,,,,,,,,,,,,,,,0,0,0,0,0
4.4526,1783012364.4353,1,1,1.0000,0.0000,1.44681,0.21954,-2.78096,0.99058,1.57080,0.00001,-0.14512,-0.38002,0.04297,,,,,,,,,,,,,,,,,,,,,,,,,,0,0,0,0,0
4.4593,1783012364.4420,1,1,1.0000,0.0000,1.44681,0.21950,-2.78097,0.99064,1.57080,0.00001,-0.14512,-0.38002,0.04296,,,,,,,,,,,,,,,,,,,,,,,,,,0,0,0,0,0
4.4664,1783012364.4491,1,1,1.0000,0.0000,1.44681,0.21944,-2.78098,0.99070,1.57080,0.00001,-0.14512,-0.38002,0.04294,,,,,,,,,,,,,,,,,,,,,,,,,,0,0,0,0,0
4.4668,1783012364.4495,1,1,1.0000,0.0000,1.44681,0.21944,-2.78098,0.99070,1.57080,0.00001,-0.14512,-0.38002,0.04294,,,,,,,,,,,,,,,,,,,,,,,,,,0,0,0,0,0
4.4773,1783012364.4600,1,1,1.0000,0.0000,1.44681,0.21941,-2.78099,0.99074,1.57080,0.00001,-0.14512,-0.38002,0.04294,,,,,,,,,,,,,,,,,,,,,,,,,,0,0,0,0,0
4.4866,1783012364.4693,1,1,1.0000,0.0000,1.44681,0.21939,-2.78099,0.99077,1.57080,0.00001,-0.14512,-0.38002,0.04293,,,,,,,,,,,,,,,,,,,,,,,,,,0,0,0,0,0
4.4979,1783012364.4806,1,1,1.0000,0.0000,1.44681,0.21933,-2.78101,0.99084,1.57080,0.00001,-0.14512,-0.38002,0.04291,,,,,,,,,,,,,,,,,,,,,,,,,,0,0,0,0,0
4.5106,1783012364.4933,1,1,1.0000,0.0000,1.44681,0.21931,-2.78101,0.99087,1.57080,0.00001,-0.14512,-0.38002,0.04291,,,,,,,,,,,,,,,,,,,,,,,,,,0,0,0,0,0
4.5212,1783012364.5039,1,1,1.0000,0.0000,1.44681,0.21924,-2.78103,0.99095,1.57080,0.00001,-0.14512,-0.38002,0.04289,,,,,,,,,,,,,,,,,,,,,,,,,,0,0,0,0,0
4.5285,1783012364.5112,1,1,1.0000,0.0000,1.44681,0.21922,-2.78104,0.99099,1.57080,0.00001,-0.14512,-0.38002,0.04289,,,,,,,,,,,,,,,,,,,,,,,,,,0,0,0,0,0
4.5484,1783012364.5312,1,1,1.0000,0.0000,1.44681,0.21916,-2.78105,0.99106,1.57080,0.00001,-0.14512,-0.38002,0.04287,,,,,,,,,,,,,,,,,,,,,,,,,,0,0,0,0,0
4.5534,1783012364.5361,1,1,1.0000,0.0000,1.44681,0.21911,-2.78106,0.99112,1.57080,0.00001,-0.14512,-0.38002,0.04286,,,,,,,,,,,,,,,,,,,,,,,,,,0,0,0,0,0
4.5536,1783012364.5363,1,1,1.0000,0.0000,1.44681,0.21911,-2.78106,0.99112,1.57080,0.00001,-0.14512,-0.38002,0.04286,,,,,,,,,,,,,,,,,,,,,,,,,,0,0,0,0,0
4.5594,1783012364.5421,1,1,1.0000,0.0000,1.44681,0.21908,-2.78107,0.99116,1.57080,0.00001,-0.14512,-0.38002,0.04285,,,,,,,,,,,,,,,,,,,,,,,,,,0,0,0,0,0
4.5683,1783012364.5510,1,1,1.0000,0.0000,1.44681,0.21908,-2.78107,0.99116,1.57080,0.00001,-0.14512,-0.38002,0.04285,,,,,,,,,,,,,,,,,,,,,,,,,,0,0,0,0,0
4.5767,1783012364.5594,1,1,1.0000,0.0000,1.44681,0.21904,-2.78108,0.99120,1.57080,0.00001,-0.14512,-0.38002,0.04284,,,,,,,,,,,,,,,,,,,,,,,,,,0,0,0,0,0
4.5889,1783012364.5716,1,1,1.0000,0.0000,1.44681,0.21897,-2.78110,0.99130,1.57080,0.00001,-0.14512,-0.38002,0.04282,,,,,,,,,,,,,,,,,,,,,,,,,,0,0,0,0,0
4.5998,1783012364.5826,1,1,1.0000,0.0000,1.44681,0.21894,-2.78111,0.99133,1.57080,0.00001,-0.14512,-0.38002,0.04281,,,,,,,,,,,,,,,,,,,,,,,,,,0,0,0,0,0
4.6080,1783012364.5907,1,1,1.0000,0.0000,1.44681,0.21891,-2.78111,0.99137,1.57080,0.00001,-0.14512,-0.38002,0.04281,,,,,,,,,,,,,,,,,,,,,,,,,,0,0,0,0,0
4.6164,1783012364.5991,1,1,1.0000,0.0000,1.44681,0.21886,-2.78112,0.99143,1.57080,0.00001,-0.14512,-0.38002,0.04279,,,,,,,,,,,,,,,,,,,,,,,,,,0,0,0,0,0
4.6263,1783012364.6090,1,1,1.0000,0.0000,1.44681,0.21883,-2.78113,0.99147,1.57080,0.00001,-0.14512,-0.38002,0.04279,,,,,,,,,,,,,,,,,,,,,,,,,,0,0,0,0,0
4.6266,1783012364.6093,1,1,1.0000,0.0000,1.44681,0.21883,-2.78113,0.99147,1.57080,0.00001,-0.14512,-0.38002,0.04279,,,,,,,,,,,,,,,,,,,,,,,,,,0,0,0,0,0
4.6504,1783012364.6332,1,1,1.0000,0.0000,1.44681,0.21870,-2.78117,0.99164,1.57080,0.00001,-0.14512,-0.38002,0.04275,,,,,,,,,,,,,,,,,,,,,,,,,,0,0,0,0,0
4.6507,1783012364.6334,1,1,1.0000,0.0000,1.44681,0.21870,-2.78117,0.99164,1.57080,0.00001,-0.14512,-0.38002,0.04275,,,,,,,,,,,,,,,,,,,,,,,,,,0,0,0,0,0
4.6574,1783012364.6402,1,1,1.0000,0.0000,1.44681,0.21869,-2.78117,0.99164,1.57080,0.00001,-0.14512,-0.38002,0.04275,,,,,,,,,,,,,,,,,,,,,,,,,,0,0,0,0,0
4.6617,1783012364.6445,1,1,1.0000,0.0000,1.44681,0.21868,-2.78117,0.99166,1.57080,0.00001,-0.14512,-0.38002,0.04275,,,,,,,,,,,,,,,,,,,,,,,,,,0,0,0,0,0
4.6620,1783012364.6447,1,1,1.0000,0.0000,1.44681,0.21868,-2.78117,0.99166,1.57080,0.00001,-0.14512,-0.38002,0.04275,,,,,,,,,,,,,,,,,,,,,,,,,,0,0,0,0,0
4.6703,1783012364.6530,1,1,1.0000,0.0000,1.44681,0.21864,-2.78118,0.99171,1.57080,0.00001,-0.14512,-0.38002,0.04274,,,,,,,,,,,,,,,,,,,,,,,,,,0,0,0,0,0
4.6821,1783012364.6649,1,1,1.0000,0.0000,1.44681,0.21858,-2.78119,0.99177,1.57080,0.00001,-0.14512,-0.38002,0.04272,,,,,,,,,,,,,,,,,,,,,,,,,,0,0,0,0,0
4.6824,1783012364.6651,1,1,1.0000,0.0000,1.44681,0.21858,-2.78119,0.99177,1.57080,0.00001,-0.14512,-0.38002,0.04272,,,,,,,,,,,,,,,,,,,,,,,,,,0,0,0,0,0
4.6904,1783012364.6731,1,1,1.0000,0.0000,1.44681,0.21857,-2.78120,0.99180,1.57080,0.00001,-0.14512,-0.38002,0.04272,,,,,,,,,,,,,,,,,,,,,,,,,,0,0,0,0,0
4.6908,1783012364.6735,1,1,1.0000,0.0000,1.44681,0.21857,-2.78120,0.99180,1.57080,0.00001,-0.14512,-0.38002,0.04272,,,,,,,,,,,,,,,,,,,,,,,,,,0,0,0,0,0
4.7027,1783012364.6854,1,1,1.0000,0.0000,1.44681,0.21850,-2.78121,0.99188,1.57080,0.00001,-0.14512,-0.38002,0.04270,,,,,,,,,,,,,,,,,,,,,,,,,,0,0,0,0,0
4.7030,1783012364.6858,1,1,1.0000,0.0000,1.44681,0.21850,-2.78121,0.99188,1.57080,0.00001,-0.14512,-0.38002,0.04270,,,,,,,,,,,,,,,,,,,,,,,,,,0,0,0,0,0
4.7105,1783012364.6932,1,1,1.0000,0.0000,1.44681,0.21845,-2.78123,0.99194,1.57080,0.00001,-0.14512,-0.38002,0.04269,,,,,,,,,,,,,,,,,,,,,,,,,,0,0,0,0,0
4.7222,1783012364.7049,1,1,1.0000,0.0000,1.44681,0.21843,-2.78123,0.99197,1.57080,0.00001,-0.14512,-0.38002,0.04268,,,,,,,,,,,,,,,,,,,,,,,,,,0,0,0,0,0
4.7320,1783012364.7148,1,1,1.0000,0.0000,1.44681,0.21839,-2.78124,0.99202,1.57080,0.00001,-0.14512,-0.38002,0.04267,,,,,,,,,,,,,,,,,,,,,,,,,,0,0,0,0,0
4.7555,1783012364.7382,1,1,1.0000,0.0000,1.44681,0.21830,-2.78126,0.99213,1.57080,0.00001,-0.14512,-0.38002,0.04265,,,,,,,,,,,,,,,,,,,,,,,,,,0,0,0,0,0
4.7558,1783012364.7386,1,1,1.0000,0.0000,1.44681,0.21830,-2.78126,0.99213,1.57080,0.00001,-0.14512,-0.38002,0.04265,,,,,,,,,,,,,,,,,,,,,,,,,,0,0,0,0,0
4.7615,1783012364.7442,1,1,1.0000,0.0000,1.44681,0.21827,-2.78127,0.99217,1.57080,0.00001,-0.14512,-0.38002,0.04264,,,,,,,,,,,,,,,,,,,,,,,,,,0,0,0,0,0
4.7671,1783012364.7498,1,1,1.0000,0.0000,1.44681,0.21825,-2.78128,0.99220,1.57080,0.00001,-0.14512,-0.38002,0.04264,,,,,,,,,,,,,,,,,,,,,,,,,,0,0,0,0,0
4.7676,1783012364.7503,1,1,1.0000,0.0000,1.44681,0.21825,-2.78128,0.99220,1.57080,0.00001,-0.14512,-0.38002,0.04264,,,,,,,,,,,,,,,,,,,,,,,,,,0,0,0,0,0
4.7711,1783012364.7538,1,1,1.0000,0.0000,1.44681,0.21822,-2.78128,0.99222,1.57080,0.00001,-0.14512,-0.38002,0.04263,,,,,,,,,,,,,,,,,,,,,,,,,,0,0,0,0,0
4.7714,1783012364.7541,1,1,1.0000,0.0000,1.44681,0.21822,-2.78128,0.99222,1.57080,0.00001,-0.14512,-0.38002,0.04263,,,,,,,,,,,,,,,,,,,,,,,,,,0,0,0,0,0
4.7844,1783012364.7671,1,1,1.0000,0.0000,1.44681,0.21821,-2.78129,0.99225,1.57080,0.00001,-0.14512,-0.38002,0.04263,,,,,,,,,,,,,,,,,,,,,,,,,,0,0,0,0,0
4.7958,1783012364.7785,1,1,1.0000,0.0000,1.44681,0.21814,-2.78130,0.99233,1.57080,0.00001,-0.14512,-0.38002,0.04261,,,,,,,,,,,,,,,,,,,,,,,,,,0,0,0,0,0
4.8057,1783012364.7884,1,1,1.0000,0.0000,1.44681,0.21808,-2.78132,0.99240,1.57080,0.00001,-0.14512,-0.38002,0.04260,,,,,,,,,,,,,,,,,,,,,,,,,,0,0,0,0,0
4.8134,1783012364.7961,1,1,1.0000,0.0000,1.44681,0.21807,-2.78132,0.99242,1.57080,0.00001,-0.14512,-0.38002,0.04259,,,,,,,,,,,,,,,,,,,,,,,,,,0,0,0,0,0
4.8216,1783012364.8043,1,1,1.0000,0.0000,1.44681,0.21804,-2.78133,0.99245,1.57080,0.00001,-0.14512,-0.38002,0.04258,,,,,,,,,,,,,,,,,,,,,,,,,,0,0,0,0,0
4.8219,1783012364.8046,1,1,1.0000,0.0000,1.44681,0.21804,-2.78133,0.99245,1.57080,0.00001,-0.14512,-0.38002,0.04258,,,,,,,,,,,,,,,,,,,,,,,,,,0,0,0,0,0
4.8336,1783012364.8164,1,1,1.0000,0.0000,1.44681,0.21800,-2.78134,0.99251,1.57080,0.00001,-0.14512,-0.38002,0.04257,,,,,,,,,,,,,,,,,,,,,,,,,,0,0,0,0,0
4.8413,1783012364.8240,1,1,1.0000,0.0000,1.44681,0.21798,-2.78134,0.99253,1.57080,0.00001,-0.14512,-0.38002,0.04257,,,,,,,,,,,,,,,,,,,,,,,,,,0,0,0,0,0
4.8628,1783012364.8456,1,1,1.0000,0.0000,1.44681,0.21786,-2.78137,0.99268,1.57080,0.00001,-0.14512,-0.38002,0.04254,,,,,,,,,,,,,,,,,,,,,,,,,,0,0,0,0,0
4.8752,1783012364.8579,1,1,1.0000,0.0000,1.44681,0.21784,-2.78138,0.99270,1.57080,0.00001,-0.14512,-0.38002,0.04253,,,,,,,,,,,,,,,,,,,,,,,,,,0,0,0,0,0
4.9149,1783012364.8977,1,1,1.0000,0.0000,1.44681,0.21768,-2.78142,0.99290,1.57080,0.00001,-0.14512,-0.38002,0.04249,,,,,,,,,,,,,,,,,,,,,,,,,,0,0,0,0,0
4.9275,1783012364.9102,1,1,1.0000,0.0000,1.44681,0.21763,-2.78143,0.99297,1.57080,0.00001,-0.14512,-0.38002,0.04248,,,,,,,,,,,,,,,,,,,,,,,,,,0,0,0,0,0
4.9280,1783012364.9107,1,1,1.0000,0.0000,1.44681,0.21763,-2.78143,0.99297,1.57080,0.00001,-0.14512,-0.38002,0.04248,,,,,,,,,,,,,,,,,,,,,,,,,,0,0,0,0,0
4.9285,1783012364.9112,1,1,1.0000,0.0000,1.44681,0.21763,-2.78143,0.99297,1.57080,0.00001,-0.14512,-0.38002,0.04248,,,,,,,,,,,,,,,,,,,,,,,,,,0,0,0,0,0
5.0001,1783012364.9828,1,1,1.0000,0.0000,1.44681,0.21738,-2.78149,0.99328,1.57080,0.00001,-0.14512,-0.38002,0.04241,,,,,,,,,,,,,,,,,,,,,,,,,,0,0,0,0,0
5.0005,1783012364.9832,1,1,1.0000,0.0000,1.44681,0.21738,-2.78149,0.99328,1.57080,0.00001,-0.14512,-0.38002,0.04241,,,,,,,,,,,,,,,,,,,,,,,,,,0,0,0,0,0
5.0007,1783012364.9835,1,1,1.0000,0.0000,1.44681,0.21738,-2.78149,0.99328,1.57080,0.00001,-0.14512,-0.38002,0.04241,,,,,,,,,,,,,,,,,,,,,,,,,,0,0,0,0,0
5.0014,1783012364.9842,1,1,1.0000,0.0000,1.44681,0.21736,-2.78150,0.99330,1.57080,0.00001,-0.14512,-0.38002,0.04241,,,,,,,,,,,,,,,,,,,,,,,,,,0,0,0,0,0
5.0240,1783012365.0067,1,1,1.0000,0.0000,1.44681,0.21730,-2.78151,0.99338,1.57080,0.00001,-0.14512,-0.38002,0.04239,,,,,,,,,,,,,,,,,,,,,,,,,,0,0,0,0,0
5.0246,1783012365.0073,1,1,1.0000,0.0000,1.44681,0.21730,-2.78151,0.99338,1.57080,0.00001,-0.14512,-0.38002,0.04239,,,,,,,,,,,,,,,,,,,,,,,,,,0,0,0,0,0
5.0306,1783012365.0133,1,1,1.0000,0.0000,1.44681,0.21725,-2.78152,0.99343,1.57080,0.00001,-0.14512,-0.38002,0.04238,,,,,,,,,,,,,,,,,,,,,,,,,,0,0,0,0,0
5.0428,1783012365.0255,1,1,1.0000,0.0000,1.44681,0.21717,-2.78154,0.99353,1.57080,0.00001,-0.14512,-0.38002,0.04236,,,,,,,,,,,,,,,,,,,,,,,,,,0,0,0,0,0
5.0559,1783012365.0386,1,1,1.0000,0.0000,1.44681,0.21716,-2.78154,0.99355,1.57080,0.00001,-0.14512,-0.38002,0.04236,,,,,,,,,,,,,,,,,,,,,,,,,,0,0,0,0,0
5.0614,1783012365.0441,1,1,1.0000,0.0000,1.44681,0.21713,-2.78155,0.99359,1.57080,0.00001,-0.14512,-0.38002,0.04235,,,,,,,,,,,,,,,,,,,,,,,,,,0,0,0,0,0
5.0738,1783012365.0565,1,1,1.0000,0.0000,1.44681,0.21709,-2.78156,0.99364,1.57080,0.00001,-0.14512,-0.38002,0.04234,,,,,,,,,,,,,,,,,,,,,,,,,,0,0,0,0,0
5.0822,1783012365.0649,1,1,1.0000,0.0000,1.44681,0.21707,-2.78157,0.99366,1.57080,0.00001,-0.14512,-0.38002,0.04234,,,,,,,,,,,,,,,,,,,,,,,,,,0,0,0,0,0
5.0926,1783012365.0753,1,1,1.0000,0.0000,1.44681,0.21703,-2.78158,0.99372,1.57080,0.00001,-0.14512,-0.38002,0.04232,,,,,,,,,,,,,,,,,,,,,,,,,,0,0,0,0,0
5.0930,1783012365.0757,1,1,1.0000,0.0000,1.44681,0.21703,-2.78158,0.99372,1.57080,0.00001,-0.14512,-0.38002,0.04232,,,,,,,,,,,,,,,,,,,,,,,,,,0,0,0,0,0
5.1018,1783012365.0845,1,1,1.0000,0.0000,1.44681,0.21695,-2.78160,0.99382,1.57080,0.00001,-0.14512,-0.38002,0.04230,,,,,,,,,,,,,,,,,,,,,,,,,,0,0,0,0,0
5.1106,1783012365.0933,1,1,1.0000,0.0000,1.44681,0.21694,-2.78160,0.99382,1.57080,0.00001,-0.14512,-0.38002,0.04230,,,,,,,,,,,,,,,,,,,,,,,,,,0,0,0,0,0
5.1204,1783012365.1031,1,1,1.0000,0.0000,1.44681,0.21691,-2.78161,0.99386,1.57080,0.00001,-0.14512,-0.38002,0.04230,,,,,,,,,,,,,,,,,,,,,,,,,,0,0,0,0,0
5.1305,1783012365.1132,1,1,1.0000,0.0000,1.44681,0.21684,-2.78162,0.99396,1.57080,0.00001,-0.14512,-0.38002,0.04228,,,,,,,,,,,,,,,,,,,,,,,,,,0,0,0,0,0
5.1409,1783012365.1236,1,1,1.0000,0.0000,1.44681,0.21683,-2.78163,0.99396,1.57080,0.00001,-0.14512,-0.38002,0.04227,,,,,,,,,,,,,,,,,,,,,,,,,,0,0,0,0,0
5.1634,1783012365.1461,1,1,1.0000,0.0000,1.44681,0.21670,-2.78166,0.99413,1.57080,0.00001,-0.14512,-0.38002,0.04224,,,,,,,,,,,,,,,,,,,,,,,,,,0,0,0,0,0
5.1710,1783012365.1538,1,1,1.0000,0.0000,1.44681,0.21669,-2.78166,0.99413,1.57080,0.00001,-0.14512,-0.38002,0.04224,,,,,,,,,,,,,,,,,,,,,,,,,,0,0,0,0,0
5.1718,1783012365.1545,1,1,1.0000,0.0000,1.44681,0.21669,-2.78166,0.99413,1.57080,0.00001,-0.14512,-0.38002,0.04224,,,,,,,,,,,,,,,,,,,,,,,,,,0,0,0,0,0
5.1722,1783012365.1549,1,1,1.0000,0.0000,1.44681,0.21669,-2.78166,0.99413,1.57080,0.00001,-0.14512,-0.38002,0.04224,,,,,,,,,,,,,,,,,,,,,,,,,,0,0,0,0,0
5.1842,1783012365.1670,1,1,1.0000,0.0000,1.44681,0.21664,-2.78167,0.99420,1.57080,0.00001,-0.14512,-0.38002,0.04223,,,,,,,,,,,,,,,,,,,,,,,,,,0,0,0,0,0
5.1912,1783012365.1739,1,1,1.0000,0.0000,1.44681,0.21659,-2.78169,0.99427,1.57080,0.00001,-0.14512,-0.38002,0.04221,,,,,,,,,,,,,,,,,,,,,,,,,,0,0,0,0,0
5.2058,1783012365.1885,1,1,1.0000,0.0000,1.44681,0.21655,-2.78169,0.99431,1.57080,0.00001,-0.14512,-0.38002,0.04220,,,,,,,,,,,,,,,,,,,,,,,,,,0,0,0,0,0
5.2061,1783012365.1888,1,1,1.0000,0.0000,1.44681,0.21655,-2.78169,0.99431,1.57080,0.00001,-0.14512,-0.38002,0.04220,,,,,,,,,,,,,,,,,,,,,,,,,,0,0,0,0,0
5.2140,1783012365.1967,1,1,1.0000,0.0000,1.44681,0.21652,-2.78170,0.99435,1.57080,0.00001,-0.14512,-0.38002,0.04219,,,,,,,,,,,,,,,,,,,,,,,,,,0,0,0,0,0
5.2222,1783012365.2049,1,1,1.0000,0.0000,1.44681,0.21647,-2.78171,0.99441,1.57080,0.00001,-0.14512,-0.38002,0.04218,,,,,,,,,,,,,,,,,,,,,,,,,,0,0,0,0,0
5.2305,1783012365.2132,1,1,1.0000,0.0000,1.44681,0.21647,-2.78171,0.99441,1.57080,0.00001,-0.14512,-0.38002,0.04218,,,,,,,,,,,,,,,,,,,,,,,,,,0,0,0,0,0
5.2415,1783012365.2243,1,1,1.0000,0.0000,1.44681,0.21641,-2.78173,0.99448,1.57080,0.00001,-0.14512,-0.38002,0.04217,,,,,,,,,,,,,,,,,,,,,,,,,,0,0,0,0,0
5.2584,1783012365.2411,1,1,1.0000,0.0000,1.44681,0.21633,-2.78175,0.99458,1.57080,0.00001,-0.14512,-0.38002,0.04215,,,,,,,,,,,,,,,,,,,,,,,,,,0,0,0,0,0
5.2587,1783012365.2414,1,1,1.0000,0.0000,1.44681,0.21633,-2.78175,0.99458,1.57080,0.00001,-0.14512,-0.38002,0.04215,,,,,,,,,,,,,,,,,,,,,,,,,,0,0,0,0,0
5.2614,1783012365.2442,1,1,1.0000,0.0000,1.44681,0.21633,-2.78175,0.99459,1.57080,0.00001,-0.14512,-0.38002,0.04215,,,,,,,,,,,,,,,,,,,,,,,,,,0,0,0,0,0
5.2616,1783012365.2444,1,1,1.0000,0.0000,1.44681,0.21633,-2.78175,0.99459,1.57080,0.00001,-0.14512,-0.38002,0.04215,,,,,,,,,,,,,,,,,,,,,,,,,,0,0,0,0,0
5.2718,1783012365.2546,1,1,1.0000,0.0000,1.44681,0.21631,-2.78175,0.99461,1.57080,0.00001,-0.14512,-0.38002,0.04214,,,,,,,,,,,,,,,,,,,,,,,,,,0,0,0,0,0
5.2824,1783012365.2651,1,1,1.0000,0.0000,1.44681,0.21625,-2.78177,0.99469,1.57080,0.00001,-0.14512,-0.38002,0.04213,,,,,,,,,,,,,,,,,,,,,,,,,,0,0,0,0,0
5.2904,1783012365.2731,1,1,1.0000,0.0000,1.44681,0.21624,-2.78177,0.99470,1.57080,0.00001,-0.14512,-0.38002,0.04212,,,,,,,,,,,,,,,,,,,,,,,,,,0,0,0,0,0
5.3021,1783012365.2848,1,1,1.0000,0.0000,1.44681,0.21618,-2.78178,0.99477,1.57080,0.00001,-0.14512,-0.38002,0.04211,,,,,,,,,,,,,,,,,,,,,,,,,,0,0,0,0,0
5.3025,1783012365.2852,1,1,1.0000,0.0000,1.44681,0.21618,-2.78178,0.99477,1.57080,0.00001,-0.14512,-0.38002,0.04211,,,,,,,,,,,,,,,,,,,,,,,,,,0,0,0,0,0
5.3119,1783012365.2946,1,1,1.0000,0.0000,1.44681,0.21613,-2.78180,0.99483,1.57080,0.00001,-0.14512,-0.38002,0.04210,,,,,,,,,,,,,,,,,,,,,,,,,,0,0,0,0,0
5.3249,1783012365.3076,1,1,1.0000,0.0000,1.44681,0.21610,-2.78180,0.99487,1.57080,0.00001,-0.14512,-0.38002,0.04209,,,,,,,,,,,,,,,,,,,,,,,,,,0,0,0,0,0
5.3323,1783012365.3150,1,1,1.0000,0.0000,1.44681,0.21608,-2.78181,0.99490,1.57080,0.00001,-0.14512,-0.38002,0.04208,,,,,,,,,,,,,,,,,,,,,,,,,,0,0,0,0,0
5.3415,1783012365.3242,1,1,1.0000,0.0000,1.44681,0.21602,-2.78183,0.99497,1.57080,0.00001,-0.14512,-0.38002,0.04207,,,,,,,,,,,,,,,,,,,,,,,,,,0,0,0,0,0
5.3513,1783012365.3340,1,1,1.0000,0.0000,1.44681,0.21601,-2.78183,0.99498,1.57080,0.00001,-0.14512,-0.38002,0.04207,,,,,,,,,,,,,,,,,,,,,,,,,,0,0,0,0,0
5.3669,1783012365.3496,1,1,1.0000,0.0000,1.44681,0.21593,-2.78185,0.99508,1.57080,0.00001,-0.14512,-0.38002,0.04204,,,,,,,,,,,,,,,,,,,,,,,,,,0,0,0,0,0
5.3747,1783012365.3574,1,1,1.0000,0.0000,1.44681,0.21588,-2.78186,0.99515,1.57080,0.00001,-0.14512,-0.38002,0.04203,,,,,,,,,,,,,,,,,,,,,,,,,,0,0,0,0,0
5.3922,1783012365.3749,1,1,1.0000,0.0000,1.44681,0.21585,-2.78187,0.99518,1.57080,0.00001,-0.14512,-0.38002,0.04202,,,,,,,,,,,,,,,,,,,,,,,,,,0,0,0,0,0
5.3925,1783012365.3752,1,1,1.0000,0.0000,1.44681,0.21585,-2.78187,0.99518,1.57080,0.00001,-0.14512,-0.38002,0.04202,,,,,,,,,,,,,,,,,,,,,,,,,,0,0,0,0,0
5.4009,1783012365.3836,1,1,1.0000,0.0000,1.44681,0.21581,-2.78188,0.99523,1.57080,0.00001,-0.14512,-0.38002,0.04201,,,,,,,,,,,,,,,,,,,,,,,,,,0,0,0,0,0
5.4108,1783012365.3935,1,1,1.0000,0.0000,1.44681,0.21578,-2.78188,0.99526,1.57080,0.00001,-0.14512,-0.38002,0.04201,,,,,,,,,,,,,,,,,,,,,,,,,,0,0,0,0,0
5.4209,1783012365.4036,1,1,1.0000,0.0000,1.44681,0.21575,-2.78189,0.99530,1.57080,0.00001,-0.14512,-0.38002,0.04200,,,,,,,,,,,,,,,,,,,,,,,,,,0,0,0,0,0
5.4215,1783012365.4042,1,1,1.0000,0.0000,1.44681,0.21573,-2.78190,0.99533,1.57080,0.00001,-0.14512,-0.38002,0.04199,,,,,,,,,,,,,,,,,,,,,,,,,,0,0,0,0,0
5.4307,1783012365.4134,1,1,1.0000,0.0000,1.44681,0.21567,-2.78191,0.99540,1.57080,0.00001,-0.14512,-0.38002,0.04198,,,,,,,,,,,,,,,,,,,,,,,,,,0,0,0,0,0
5.4538,1783012365.4365,1,1,1.0000,0.0000,1.44681,0.21560,-2.78193,0.99549,1.57080,0.00001,-0.14512,-0.38002,0.04196,,,,,,,,,,,,,,,,,,,,,,,,,,0,0,0,0,0
5.4961,1783012365.4788,1,1,1.0000,0.0000,1.44681,0.21542,-2.78197,0.99572,1.57080,0.00001,-0.14512,-0.38002,0.04191,,,,,,,,,,,,,,,,,,,,,,,,,,0,0,0,0,0
5.4964,1783012365.4791,1,1,1.0000,0.0000,1.44681,0.21542,-2.78197,0.99572,1.57080,0.00001,-0.14512,-0.38002,0.04191,,,,,,,,,,,,,,,,,,,,,,,,,,0,0,0,0,0
5.5148,1783012365.4976,1,1,1.0000,0.0000,1.44681,0.21538,-2.78198,0.99577,1.57080,0.00001,-0.14512,-0.38002,0.04190,,,,,,,,,,,,,,,,,,,,,,,,,,0,0,0,0,0
5.5152,1783012365.4979,1,1,1.0000,0.0000,1.44681,0.21538,-2.78198,0.99577,1.57080,0.00001,-0.14512,-0.38002,0.04190,,,,,,,,,,,,,,,,,,,,,,,,,,0,0,0,0,0
5.5156,1783012365.4983,1,1,1.0000,0.0000,1.44681,0.21538,-2.78198,0.99577,1.57080,0.00001,-0.14512,-0.38002,0.04190,,,,,,,,,,,,,,,,,,,,,,,,,,0,0,0,0,0
5.5554,1783012365.5381,1,1,1.0000,0.0000,1.44681,0.21519,-2.78203,0.99600,1.57080,0.00001,-0.14512,-0.38002,0.04186,,,,,,,,,,,,,,,,,,,,,,,,,,0,0,0,0,0
5.5558,1783012365.5385,1,1,1.0000,0.0000,1.44681,0.21519,-2.78203,0.99600,1.57080,0.00001,-0.14512,-0.38002,0.04186,,,,,,,,,,,,,,,,,,,,,,,,,,0,0,0,0,0
5.5560,1783012365.5387,1,1,1.0000,0.0000,1.44681,0.21519,-2.78203,0.99600,1.57080,0.00001,-0.14512,-0.38002,0.04186,,,,,,,,,,,,,,,,,,,,,,,,,,0,0,0,0,0
5.5564,1783012365.5391,1,1,1.0000,0.0000,1.44681,0.21519,-2.78203,0.99600,1.57080,0.00001,-0.14512,-0.38002,0.04186,,,,,,,,,,,,,,,,,,,,,,,,,,0,0,0,0,0
5.5672,1783012365.5500,1,1,1.0000,0.0000,1.44681,0.21518,-2.78203,0.99602,1.57080,0.00001,-0.14512,-0.38002,0.04185,,,,,,,,,,,,,,,,,,,,,,,,,,0,0,0,0,0
5.5710,1783012365.5537,1,1,1.0000,0.0000,1.44681,0.21517,-2.78203,0.99603,1.57080,0.00001,-0.14512,-0.38002,0.04185,,,,,,,,,,,,,,,,,,,,,,,,,,0,0,0,0,0
5.5828,1783012365.5655,1,1,1.0000,0.0000,1.44681,0.21511,-2.78205,0.99611,1.57080,0.00001,-0.14512,-0.38002,0.04183,,,,,,,,,,,,,,,,,,,,,,,,,,0,0,0,0,0
5.5905,1783012365.5732,1,1,1.0000,0.0000,1.44681,0.21510,-2.78205,0.99612,1.57080,0.00001,-0.14512,-0.38002,0.04183,,,,,,,,,,,,,,,,,,,,,,,,,,0,0,0,0,0
