Martins-Lucaas/twinforge/sensors/Data/20260704_152828__samples.csv
t_rel_s,t_unix,cycle,phase,setpoint_n,force_net_n,q1,q2,q3,q4,q5,q6,tcp_x,tcp_y,tcp_z,taxel_0,taxel_1,taxel_2,taxel_3,taxel_4,taxel_5,taxel_6,taxel_7,taxel_8,taxel_9,taxel_10,taxel_11,taxel_12,taxel_13,taxel_14,taxel_15,taxel_16,taxel_17,taxel_18,taxel_19,taxel_20,taxel_21,taxel_22,taxel_23,taxel_24,n_RA,n_SA,cn_mm,cn_ra,cn_sa
0.0015,1783189708.6295,0,-1,2.0000,0.0000,1.44682,0.23328,-2.77748,0.97337,1.57080,0.00000,-0.14512,-0.38003,0.04653,,,,,,,,,,,,,,,,,,,,,,,,,,0,0,0,0,0
0.0093,1783189708.6373,1,0,2.0000,0.0000,1.44682,0.23328,-2.77748,0.97337,1.57080,0.00000,-0.14512,-0.38003,0.04653,,,,,,,,,,,,,,,,,,,,,,,,,,0,0,0,0,0
0.0270,1783189708.6550,1,0,2.0000,0.0000,1.44682,0.23328,-2.77748,0.97337,1.57080,-0.00000,-0.14512,-0.38003,0.04653,,,,,,,,,,,,,,,,,,,,,,,,,,0,0,0,0,0
0.0302,1783189708.6582,1,0,2.0000,0.0000,1.44682,0.23328,-2.77748,0.97337,1.57080,0.00000,-0.14512,-0.38003,0.04653,,,,,,,,,,,,,,,,,,,,,,,,,,0,0,0,0,0
0.0389,1783189708.6669,1,0,2.0000,0.0000,1.44682,0.23328,-2.77748,0.97337,1.57080,0.00000,-0.14512,-0.38003,0.04653,,,,,,,,,,,,,,,,,,,,,,,,,,0,0,0,0,0
0.0506,1783189708.6786,1,0,2.0000,0.0000,1.44682,0.23328,-2.77748,0.97337,1.57080,0.00000,-0.14512,-0.38003,0.04653,,,,,,,,,,,,,,,,,,,,,,,,,,0,0,0,0,0
0.0592,1783189708.6872,1,0,2.0000,0.0000,1.44682,0.23328,-2.77748,0.97337,1.57080,0.00000,-0.14512,-0.38003,0.04653,,,,,,,,,,,,,,,,,,,,,,,,,,0,0,0,0,0
0.0697,1783189708.6977,1,0,2.0000,0.0000,1.44682,0.23328,-2.77748,0.97337,1.57080,0.00000,-0.14512,-0.38003,0.04653,,,,,,,,,,,,,,,,,,,,,,,,,,0,0,0,0,0
0.0843,1783189708.7123,1,0,2.0000,0.0000,1.44682,0.23328,-2.77748,0.97337,1.57080,0.00000,-0.14512,-0.38003,0.04653,,,,,,,,,,,,,,,,,,,,,,,,,,0,0,0,0,0
0.0901,1783189708.7181,1,0,2.0000,0.0000,1.44682,0.23328,-2.77748,0.97337,1.57080,0.00000,-0.14512,-0.38003,0.04653,,,,,,,,,,,,,,,,,,,,,,,,,,0,0,0,0,0
0.1053,1783189708.7333,1,0,2.0000,0.0000,1.44682,0.23328,-2.77748,0.97337,1.57080,0.00000,-0.14512,-0.38003,0.04653,,,,,,,,,,,,,,,,,,,,,,,,,,0,0,0,0,0
0.1109,1783189708.7389,1,0,2.0000,0.0000,1.44682,0.23328,-2.77748,0.97337,1.57080,0.00000,-0.14512,-0.38003,0.04653,,,,,,,,,,,,,,,,,,,,,,,,,,0,0,0,0,0
0.1146,1783189708.7427,1,0,2.0000,0.0000,1.44682,0.23328,-2.77748,0.97337,1.57080,0.00000,-0.14512,-0.38003,0.04653,,,,,,,,,,,,,,,,,,,,,,,,,,0,0,0,0,0
0.1271,1783189708.7552,1,0,2.0000,0.0000,1.44682,0.23328,-2.77748,0.97337,1.57080,0.00000,-0.14512,-0.38003,0.04653,,,,,,,,,,,,,,,,,,,,,,,,,,0,0,0,0,0
0.1329,1783189708.7609,1,0,2.0000,0.0000,1.44682,0.23328,-2.77748,0.97337,1.57080,0.00000,-0.14512,-0.38003,0.04653,,,,,,,,,,,,,,,,,,,,,,,,,,0,0,0,0,0
0.1434,1783189708.7714,1,0,2.0000,0.0000,1.44682,0.23328,-2.77748,0.97337,1.57080,0.00000,-0.14512,-0.38003,0.04653,,,,,,,,,,,,,,,,,,,,,,,,,,0,0,0,0,0
0.1438,1783189708.7718,1,0,2.0000,0.0000,1.44682,0.23328,-2.77748,0.97337,1.57080,0.00000,-0.14512,-0.38003,0.04653,,,,,,,,,,,,,,,,,,,,,,,,,,0,0,0,0,0
0.1498,1783189708.7778,1,0,2.0000,0.0000,1.44682,0.23328,-2.77748,0.97337,1.57080,0.00000,-0.14512,-0.38003,0.04653,,,,,,,,,,,,,,,,,,,,,,,,,,0,0,0,0,0
0.1610,1783189708.7891,1,0,2.0000,0.0000,1.44682,0.23328,-2.77748,0.97337,1.57080,0.00000,-0.14512,-0.38003,0.04653,,,,,,,,,,,,,,,,,,,,,,,,,,0,0,0,0,0
0.1738,1783189708.8018,1,0,2.0000,0.0000,1.44682,0.23328,-2.77748,0.97337,1.57080,0.00000,-0.14512,-0.38003,0.04653,,,,,,,,,,,,,,,,,,,,,,,,,,0,0,0,0,0
0.1864,1783189708.8144,1,0,2.0000,0.0000,1.44682,0.23328,-2.77748,0.97337,1.57080,0.00000,-0.14512,-0.38003,0.04653,,,,,,,,,,,,,,,,,,,,,,,,,,0,0,0,0,0
0.1948,1783189708.8228,1,0,2.0000,0.0000,1.44682,0.23328,-2.77748,0.97337,1.57080,0.00000,-0.14512,-0.38003,0.04653,,,,,,,,,,,,,,,,,,,,,,,,,,0,0,0,0,0
0.2042,1783189708.8323,1,0,2.0000,0.0000,1.44682,0.23328,-2.77748,0.97337,1.57080,0.00000,-0.14512,-0.38003,0.04653,,,,,,,,,,,,,,,,,,,,,,,,,,0,0,0,0,0
0.2050,1783189708.8330,1,0,2.0000,0.0000,1.44682,0.23328,-2.77748,0.97337,1.57080,0.00000,-0.14512,-0.38003,0.04653,,,,,,,,,,,,,,,,,,,,,,,,,,0,0,0,0,0
0.2136,1783189708.8416,1,0,2.0000,0.0000,1.44682,0.23328,-2.77748,0.97337,1.57080,0.00000,-0.14512,-0.38003,0.04653,,,,,,,,,,,,,,,,,,,,,,,,,,0,0,0,0,0
0.2308,1783189708.8588,1,0,2.0000,0.0000,1.44682,0.23328,-2.77748,0.97337,1.57080,0.00000,-0.14512,-0.38003,0.04653,,,,,,,,,,,,,,,,,,,,,,,,,,0,0,0,0,0
0.2346,1783189708.8626,1,0,2.0000,0.0000,1.44682,0.23328,-2.77748,0.97337,1.57080,0.00000,-0.14512,-0.38003,0.04653,,,,,,,,,,,,,,,,,,,,,,,,,,0,0,0,0,0
0.2432,1783189708.8712,1,0,2.0000,0.0000,1.44682,0.23328,-2.77748,0.97337,1.57080,0.00000,-0.14512,-0.38003,0.04653,,,,,,,,,,,,,,,,,,,,,,,,,,0,0,0,0,0
0.2555,1783189708.8835,1,0,2.0000,0.0000,1.44682,0.23328,-2.77748,0.97337,1.57080,0.00000,-0.14512,-0.38003,0.04653,,,,,,,,,,,,,,,,,,,,,,,,,,0,0,0,0,0
0.2779,1783189708.9059,1,0,2.0000,0.0000,1.44682,0.23328,-2.77748,0.97337,1.57080,0.00000,-0.14512,-0.38003,0.04653,,,,,,,,,,,,,,,,,,,,,,,,,,0,0,0,0,0
0.2785,1783189708.9065,1,0,2.0000,0.0000,1.44682,0.23328,-2.77748,0.97337,1.57080,0.00000,-0.14512,-0.38003,0.04653,,,,,,,,,,,,,,,,,,,,,,,,,,0,0,0,0,0
0.2795,1783189708.9076,1,0,2.0000,0.0000,1.44682,0.23328,-2.77748,0.97337,1.57080,0.00000,-0.14512,-0.38003,0.04653,,,,,,,,,,,,,,,,,,,,,,,,,,0,0,0,0,0
0.2799,1783189708.9079,1,0,2.0000,0.0000,1.44682,0.23328,-2.77748,0.97337,1.57080,0.00000,-0.14512,-0.38003,0.04653,,,,,,,,,,,,,,,,,,,,,,,,,,0,0,0,0,0
0.2886,1783189708.9166,1,0,2.0000,0.0000,1.44682,0.23328,-2.77748,0.97337,1.57080,0.00000,-0.14512,-0.38003,0.04653,,,,,,,,,,,,,,,,,,,,,,,,,,0,0,0,0,0
0.2889,1783189708.9169,1,0,2.0000,0.0000,1.44682,0.23328,-2.77748,0.97337,1.57080,0.00000,-0.14512,-0.38003,0.04653,,,,,,,,,,,,,,,,,,,,,,,,,,0,0,0,0,0
0.2953,1783189708.9233,1,0,2.0000,0.0000,1.44682,0.23328,-2.77748,0.97337,1.57080,0.00000,-0.14512,-0.38003,0.04653,,,,,,,,,,,,,,,,,,,,,,,,,,0,0,0,0,0
0.2956,1783189708.9236,1,0,2.0000,0.0000,1.44682,0.23328,-2.77748,0.97337,1.57080,0.00000,-0.14512,-0.38003,0.04653,,,,,,,,,,,,,,,,,,,,,,,,,,0,0,0,0,0
0.3103,1783189708.9383,1,0,2.0000,0.0000,1.44682,0.23328,-2.77748,0.97337,1.57080,0.00000,-0.14512,-0.38003,0.04653,,,,,,,,,,,,,,,,,,,,,,,,,,0,0,0,0,0
0.3110,1783189708.9390,1,0,2.0000,0.0000,1.44682,0.23328,-2.77748,0.97337,1.57080,0.00000,-0.14512,-0.38003,0.04653,,,,,,,,,,,,,,,,,,,,,,,,,,0,0,0,0,0
0.3191,1783189708.9471,1,0,2.0000,0.0000,1.44682,0.23328,-2.77748,0.97337,1.57080,0.00000,-0.14512,-0.38003,0.04653,,,,,,,,,,,,,,,,,,,,,,,,,,0,0,0,0,0
0.3348,1783189708.9628,1,0,2.0000,0.0000,1.44682,0.23328,-2.77748,0.97337,1.57080,0.00000,-0.14512,-0.38003,0.04653,,,,,,,,,,,,,,,,,,,,,,,,,,0,0,0,0,0
0.3353,1783189708.9633,1,0,2.0000,0.0000,1.44682,0.23328,-2.77748,0.97337,1.57080,0.00000,-0.14512,-0.38003,0.04653,,,,,,,,,,,,,,,,,,,,,,,,,,0,0,0,0,0
0.3445,1783189708.9725,1,0,2.0000,0.0000,1.44682,0.23328,-2.77748,0.97337,1.57080,0.00000,-0.14512,-0.38003,0.04653,,,,,,,,,,,,,,,,,,,,,,,,,,0,0,0,0,0
0.3530,1783189708.9811,1,0,2.0000,0.0000,1.44682,0.23328,-2.77748,0.97337,1.57080,0.00000,-0.14512,-0.38003,0.04653,,,,,,,,,,,,,,,,,,,,,,,,,,0,0,0,0,0
0.3631,1783189708.9911,1,0,2.0000,0.0000,1.44682,0.23328,-2.77748,0.97337,1.57080,0.00000,-0.14512,-0.38003,0.04653,,,,,,,,,,,,,,,,,,,,,,,,,,0,0,0,0,0
0.3750,1783189709.0031,1,0,2.0000,0.0000,1.44682,0.23328,-2.77748,0.97337,1.57080,0.00000,-0.14512,-0.38003,0.04653,,,,,,,,,,,,,,,,,,,,,,,,,,0,0,0,0,0
0.3837,1783189709.0117,1,0,2.0000,0.0000,1.44682,0.23328,-2.77748,0.97337,1.57080,0.00000,-0.14512,-0.38003,0.04653,,,,,,,,,,,,,,,,,,,,,,,,,,0,0,0,0,0
0.3931,1783189709.0211,1,0,2.0000,0.0000,1.44682,0.23328,-2.77748,0.97337,1.57080,0.00000,-0.14512,-0.38003,0.04653,,,,,,,,,,,,,,,,,,,,,,,,,,0,0,0,0,0
0.4033,1783189709.0313,1,0,2.0000,0.0000,1.44682,0.23328,-2.77748,0.97337,1.57080,0.00000,-0.14512,-0.38003,0.04653,,,,,,,,,,,,,,,,,,,,,,,,,,0,0,0,0,0
0.4130,1783189709.0410,1,0,2.0000,0.0000,1.44682,0.23328,-2.77748,0.97337,1.57080,0.00000,-0.14512,-0.38003,0.04653,,,,,,,,,,,,,,,,,,,,,,,,,,0,0,0,0,0
0.4352,1783189709.0632,1,0,2.0000,0.0000,1.44682,0.23328,-2.77748,0.97337,1.57080,0.00000,-0.14512,-0.38003,0.04653,,,,,,,,,,,,,,,,,,,,,,,,,,0,0,0,0,0
0.4356,1783189709.0636,1,0,2.0000,0.0000,1.44682,0.23328,-2.77748,0.97337,1.57080,0.00000,-0.14512,-0.38003,0.04653,,,,,,,,,,,,,,,,,,,,,,,,,,0,0,0,0,0
0.4445,1783189709.0725,1,0,2.0000,0.0000,1.44682,0.23328,-2.77748,0.97337,1.57080,0.00000,-0.14512,-0.38003,0.04653,,,,,,,,,,,,,,,,,,,,,,,,,,0,0,0,0,0
0.4448,1783189709.0728,1,0,2.0000,0.0000,1.44682,0.23328,-2.77748,0.97337,1.57080,0.00000,-0.14512,-0.38003,0.04653,,,,,,,,,,,,,,,,,,,,,,,,,,0,0,0,0,0
0.4535,1783189709.0815,1,0,2.0000,0.0000,1.44682,0.23328,-2.77748,0.97337,1.57080,0.00000,-0.14512,-0.38003,0.04653,,,,,,,,,,,,,,,,,,,,,,,,,,0,0,0,0,0
0.4542,1783189709.0822,1,0,2.0000,0.0000,1.44682,0.23328,-2.77748,0.97337,1.57080,0.00000,-0.14512,-0.38003,0.04653,,,,,,,,,,,,,,,,,,,,,,,,,,0,0,0,0,0
0.4632,1783189709.0912,1,0,2.0000,0.0000,1.44682,0.23328,-2.77748,0.97337,1.57080,0.00000,-0.14512,-0.38003,0.04653,,,,,,,,,,,,,,,,,,,,,,,,,,0,0,0,0,0
0.4635,1783189709.0915,1,0,2.0000,0.0000,1.44682,0.23328,-2.77748,0.97337,1.57080,0.00000,-0.14512,-0.38003,0.04653,,,,,,,,,,,,,,,,,,,,,,,,,,0,0,0,0,0
0.4783,1783189709.1064,1,0,2.0000,0.0000,1.44682,0.23328,-2.77748,0.97337,1.57080,0.00000,-0.14512,-0.38003,0.04653,,,,,,,,,,,,,,,,,,,,,,,,,,0,0,0,0,0
0.4835,1783189709.1115,1,0,2.0000,0.0000,1.44682,0.23328,-2.77748,0.97337,1.57080,0.00000,-0.14512,-0.38003,0.04653,,,,,,,,,,,,,,,,,,,,,,,,,,0,0,0,0,0
0.4836,1783189709.1117,1,0,2.0000,0.0000,1.44682,0.23328,-2.77748,0.97337,1.57080,0.00000,-0.14512,-0.38003,0.04653,,,,,,,,,,,,,,,,,,,,,,,,,,0,0,0,0,0
0.4953,1783189709.1233,1,0,2.0000,0.0000,1.44682,0.23328,-2.77748,0.97337,1.57080,0.00000,-0.14512,-0.38003,0.04653,,,,,,,,,,,,,,,,,,,,,,,,,,0,0,0,0,0
0.5046,1783189709.1326,1,0,2.0000,0.0000,1.44682,0.23328,-2.77748,0.97337,1.57080,0.00000,-0.14512,-0.38003,0.04653,,,,,,,,,,,,,,,,,,,,,,,,,,0,0,0,0,0
0.5144,1783189709.1424,1,0,2.0000,0.0000,1.44682,0.23328,-2.77748,0.97337,1.57080,0.00000,-0.14512,-0.38003,0.04653,,,,,,,,,,,,,,,,,,,,,,,,,,0,0,0,0,0
0.5229,1783189709.1509,1,0,2.0000,0.0000,1.44682,0.23328,-2.77748,0.97337,1.57080,0.00000,-0.14512,-0.38003,0.04653,,,,,,,,,,,,,,,,,,,,,,,,,,0,0,0,0,0
0.5233,1783189709.1513,1,0,2.0000,0.0000,1.44682,0.23328,-2.77748,0.97337,1.57080,0.00000,-0.14512,-0.38003,0.04653,,,,,,,,,,,,,,,,,,,,,,,,,,0,0,0,0,0
0.5371,1783189709.1651,1,0,2.0000,0.0000,1.44682,0.23328,-2.77748,0.97337,1.57080,0.00000,-0.14512,-0.38003,0.04653,,,,,,,,,,,,,,,,,,,,,,,,,,0,0,0,0,0
0.5637,1783189709.1917,1,0,2.0000,0.0000,1.44682,0.23328,-2.77748,0.97337,1.57080,0.00000,-0.14512,-0.38003,0.04653,,,,,,,,,,,,,,,,,,,,,,,,,,0,0,0,0,0
0.5641,1783189709.1922,1,0,2.0000,0.0000,1.44682,0.23328,-2.77748,0.97337,1.57080,0.00000,-0.14512,-0.38003,0.04653,,,,,,,,,,,,,,,,,,,,,,,,,,0,0,0,0,0
0.5665,1783189709.1945,1,0,2.0000,0.0000,1.44682,0.23328,-2.77748,0.97337,1.57080,0.00000,-0.14512,-0.38003,0.04653,,,,,,,,,,,,,,,,,,,,,,,,,,0,0,0,0,0
0.5960,1783189709.2240,1,0,2.0000,0.0000,1.44682,0.23328,-2.77748,0.97337,1.57080,0.00000,-0.14512,-0.38003,0.04653,,,,,,,,,,,,,,,,,,,,,,,,,,0,0,0,0,0
0.5963,1783189709.2243,1,0,2.0000,0.0000,1.44682,0.23328,-2.77748,0.97337,1.57080,0.00000,-0.14512,-0.38003,0.04653,,,,,,,,,,,,,,,,,,,,,,,,,,0,0,0,0,0
0.6035,1783189709.2315,1,0,2.0000,0.0000,1.44682,0.23328,-2.77748,0.97337,1.57080,0.00000,-0.14512,-0.38003,0.04653,,,,,,,,,,,,,,,,,,,,,,,,,,0,0,0,0,0
0.6038,1783189709.2318,1,0,2.0000,0.0000,1.44682,0.23328,-2.77748,0.97337,1.57080,0.00000,-0.14512,-0.38003,0.04653,,,,,,,,,,,,,,,,,,,,,,,,,,0,0,0,0,0
0.6107,1783189709.2387,1,0,2.0000,0.0000,1.44682,0.23328,-2.77748,0.97337,1.57080,0.00000,-0.14512,-0.38003,0.04653,,,,,,,,,,,,,,,,,,,,,,,,,,0,0,0,0,0
0.6192,1783189709.2473,1,0,2.0000,0.0000,1.44682,0.23328,-2.77748,0.97337,1.57080,0.00000,-0.14512,-0.38003,0.04653,,,,,,,,,,,,,,,,,,,,,,,,,,0,0,0,0,0
0.6264,1783189709.2545,1,0,2.0000,0.0000,1.44682,0.23328,-2.77748,0.97337,1.57080,0.00000,-0.14512,-0.38003,0.04653,,,,,,,,,,,,,,,,,,,,,,,,,,0,0,0,0,0
0.6267,1783189709.2547,1,0,2.0000,0.0000,1.44682,0.23328,-2.77748,0.97337,1.57080,0.00000,-0.14512,-0.38003,0.04653,,,,,,,,,,,,,,,,,,,,,,,,,,0,0,0,0,0
0.6370,1783189709.2651,1,0,2.0000,0.0000,1.44682,0.23328,-2.77748,0.97337,1.57080,0.00000,-0.14512,-0.38003,0.04653,,,,,,,,,,,,,,,,,,,,,,,,,,0,0,0,0,0
0.6451,1783189709.2732,1,0,2.0000,0.0000,1.44682,0.23328,-2.77748,0.97337,1.57080,0.00000,-0.14512,-0.38003,0.04653,,,,,,,,,,,,,,,,,,,,,,,,,,0,0,0,0,0
0.6532,1783189709.2812,1,0,2.0000,0.0000,1.44682,0.23328,-2.77748,0.97337,1.57080,0.00000,-0.14512,-0.38003,0.04653,,,,,,,,,,,,,,,,,,,,,,,,,,0,0,0,0,0
0.6627,1783189709.2907,1,0,2.0000,0.0000,1.44682,0.23328,-2.77748,0.97337,1.57080,0.00000,-0.14512,-0.38003,0.04653,,,,,,,,,,,,,,,,,,,,,,,,,,0,0,0,0,0
0.6630,1783189709.2910,1,0,2.0000,0.0000,1.44682,0.23328,-2.77748,0.97337,1.57080,0.00000,-0.14512,-0.38003,0.04653,,,,,,,,,,,,,,,,,,,,,,,,,,0,0,0,0,0
0.6747,1783189709.3027,1,0,2.0000,0.0000,1.44682,0.23328,-2.77748,0.97337,1.57080,0.00000,-0.14512,-0.38003,0.04653,,,,,,,,,,,,,,,,,,,,,,,,,,0,0,0,0,0
0.6875,1783189709.3155,1,0,2.0000,0.0000,1.44682,0.23328,-2.77748,0.97337,1.57080,0.00000,-0.14512,-0.38003,0.04653,,,,,,,,,,,,,,,,,,,,,,,,,,0,0,0,0,0
0.6963,1783189709.3243,1,0,2.0000,0.0000,1.44682,0.23328,-2.77748,0.97337,1.57080,0.00000,-0.14512,-0.38003,0.04653,,,,,,,,,,,,,,,,,,,,,,,,,,0,0,0,0,0
0.7044,1783189709.3324,1,0,2.0000,0.0000,1.44682,0.23328,-2.77748,0.97337,1.57080,0.00000,-0.14512,-0.38003,0.04653,,,,,,,,,,,,,,,,,,,,,,,,,,0,0,0,0,0
0.7177,1783189709.3457,1,0,2.0000,0.0000,1.44682,0.23328,-2.77748,0.97337,1.57080,0.00000,-0.14512,-0.38003,0.04653,,,,,,,,,,,,,,,,,,,,,,,,,,0,0,0,0,0
0.7237,1783189709.3517,1,0,2.0000,0.0000,1.44682,0.23328,-2.77748,0.97337,1.57080,0.00000,-0.14512,-0.38003,0.04653,,,,,,,,,,,,,,,,,,,,,,,,,,0,0,0,0,0
0.7368,1783189709.3648,1,1,2.0000,0.0000,1.44682,0.23328,-2.77748,0.97337,1.57080,0.00000,-0.14512,-0.38003,0.04653,,,,,,,,,,,,,,,,,,,,,,,,,,0,0,0,0,0
0.7430,1783189709.3710,1,1,2.0000,0.0000,1.44682,0.23328,-2.77748,0.97337,1.57080,0.00000,-0.14512,-0.38003,0.04653,,,,,,,,,,,,,,,,,,,,,,,,,,0,0,0,0,0
0.7551,1783189709.3831,1,1,2.0000,0.0000,1.44682,0.23328,-2.77748,0.97337,1.57080,0.00000,-0.14512,-0.38003,0.04653,,,,,,,,,,,,,,,,,,,,,,,,,,0,0,0,0,0
0.7659,1783189709.3939,1,1,2.0000,0.0000,1.44682,0.23328,-2.77748,0.97337,1.57080,0.00000,-0.14512,-0.38003,0.04653,,,,,,,,,,,,,,,,,,,,,,,,,,0,0,0,0,0
0.7757,1783189709.4037,1,1,2.0000,0.0000,1.44682,0.23328,-2.77748,0.97337,1.57080,0.00000,-0.14512,-0.38003,0.04653,,,,,,,,,,,,,,,,,,,,,,,,,,0,0,0,0,0
0.7886,1783189709.4166,1,1,2.0000,0.0000,1.44682,0.23328,-2.77748,0.97337,1.57080,0.00000,-0.14512,-0.38003,0.04653,,,,,,,,,,,,,,,,,,,,,,,,,,0,0,0,0,0
0.7932,1783189709.4213,1,1,2.0000,0.0000,1.44682,0.23328,-2.77748,0.97337,1.57080,0.00000,-0.14512,-0.38003,0.04653,,,,,,,,,,,,,,,,,,,,,,,,,,0,0,0,0,0
0.8072,1783189709.4353,1,1,2.0000,0.0000,1.44682,0.23328,-2.77748,0.97337,1.57080,0.00000,-0.14512,-0.38003,0.04653,,,,,,,,,,,,,,,,,,,,,,,,,,0,0,0,0,0
0.8133,1783189709.4413,1,1,2.0000,0.0000,1.44682,0.23328,-2.77748,0.97337,1.57080,0.00000,-0.14512,-0.38003,0.04653,,,,,,,,,,,,,,,,,,,,,,,,,,0,0,0,0,0
0.8238,1783189709.4519,1,1,2.0000,0.0000,1.44682,0.23328,-2.77748,0.97337,1.57080,0.00000,-0.14512,-0.38003,0.04653,,,,,,,,,,,,,,,,,,,,,,,,,,0,0,0,0,0
0.8241,1783189709.4521,1,1,2.0000,0.0000,1.44682,0.23328,-2.77748,0.97337,1.57080,0.00000,-0.14512,-0.38003,0.04653,,,,,,,,,,,,,,,,,,,,,,,,,,0,0,0,0,0
0.8425,1783189709.4705,1,1,2.0000,0.0000,1.44682,0.23328,-2.77748,0.97337,1.57080,0.00000,-0.14512,-0.38003,0.04653,,,,,,,,,,,,,,,,,,,,,,,,,,0,0,0,0,0
0.8428,1783189709.4708,1,1,2.0000,0.0000,1.44682,0.23328,-2.77748,0.97337,1.57080,0.00000,-0.14512,-0.38003,0.04653,,,,,,,,,,,,,,,,,,,,,,,,,,0,0,0,0,0
0.8451,1783189709.4731,1,1,2.0000,0.0000,1.44682,0.23328,-2.77748,0.97337,1.57080,0.00000,-0.14512,-0.38003,0.04653,,,,,,,,,,,,,,,,,,,,,,,,,,0,0,0,0,0
0.8455,1783189709.4735,1,1,2.0000,0.0000,1.44682,0.23328,-2.77748,0.97337,1.57080,0.00000,-0.14512,-0.38003,0.04653,,,,,,,,,,,,,,,,,,,,,,,,,,0,0,0,0,0
0.8544,1783189709.4824,1,1,2.0000,0.0000,1.44682,0.23328,-2.77748,0.97337,1.57080,0.00000,-0.14512,-0.38003,0.04653,,,,,,,,,,,,,,,,,,,,,,,,,,0,0,0,0,0
0.8547,1783189709.4827,1,1,2.0000,0.0000,1.44682,0.23328,-2.77748,0.97337,1.57080,0.00000,-0.14512,-0.38003,0.04653,,,,,,,,,,,,,,,,,,,,,,,,,,0,0,0,0,0
0.8631,1783189709.4911,1,1,2.0000,0.0000,1.44682,0.23328,-2.77748,0.97337,1.57080,0.00000,-0.14512,-0.38003,0.04653,,,,,,,,,,,,,,,,,,,,,,,,,,0,0,0,0,0
0.8634,1783189709.4914,1,1,2.0000,0.0000,1.44682,0.23328,-2.77748,0.97337,1.57080,0.00000,-0.14512,-0.38003,0.04653,,,,,,,,,,,,,,,,,,,,,,,,,,0,0,0,0,0
0.8730,1783189709.5010,1,1,2.0000,0.0000,1.44682,0.23328,-2.77748,0.97337,1.57080,0.00000,-0.14512,-0.38003,0.04653,,,,,,,,,,,,,,,,,,,,,,,,,,0,0,0,0,0
0.8871,1783189709.5151,1,1,2.0000,0.0000,1.44682,0.23328,-2.77748,0.97337,1.57080,0.00000,-0.14512,-0.38003,0.04653,,,,,,,,,,,,,,,,,,,,,,,,,,0,0,0,0,0
0.8943,1783189709.5223,1,1,2.0000,0.0000,1.44682,0.23328,-2.77748,0.97337,1.57080,0.00000,-0.14512,-0.38003,0.04653,,,,,,,,,,,,,,,,,,,,,,,,,,0,0,0,0,0
0.9029,1783189709.5309,1,1,2.0000,0.0000,1.44682,0.23328,-2.77748,0.97337,1.57080,0.00000,-0.14512,-0.38003,0.04653,,,,,,,,,,,,,,,,,,,,,,,,,,0,0,0,0,0
0.9032,1783189709.5312,1,1,2.0000,0.0000,1.44682,0.23328,-2.77748,0.97337,1.57080,0.00000,-0.14512,-0.38003,0.04653,,,,,,,,,,,,,,,,,,,,,,,,,,0,0,0,0,0
0.9161,1783189709.5441,1,1,2.0000,0.0000,1.44682,0.23328,-2.77748,0.97337,1.57080,0.00000,-0.14512,-0.38003,0.04653,,,,,,,,,,,,,,,,,,,,,,,,,,0,0,0,0,0
0.9163,1783189709.5444,1,1,2.0000,0.0000,1.44682,0.23328,-2.77748,0.97337,1.57080,0.00000,-0.14512,-0.38003,0.04653,,,,,,,,,,,,,,,,,,,,,,,,,,0,0,0,0,0
0.9230,1783189709.5510,1,1,2.0000,0.0000,1.44682,0.23328,-2.77748,0.97337,1.57080,0.00000,-0.14512,-0.38003,0.04653,,,,,,,,,,,,,,,,,,,,,,,,,,0,0,0,0,0
0.9330,1783189709.5610,1,1,2.0000,0.0000,1.44682,0.23322,-2.77749,0.97344,1.57080,0.00000,-0.14512,-0.38003,0.04651,,,,,,,,,,,,,,,,,,,,,,,,,,0,0,0,0,0
0.9462,1783189709.5742,1,1,2.0000,0.0000,1.44682,0.23293,-2.77757,0.97381,1.57080,0.00000,-0.14512,-0.38003,0.04644,,,,,,,,,,,,,,,,,,,,,,,,,,0,0,0,0,0
0.9465,1783189709.5745,1,1,2.0000,0.0000,1.44682,0.23293,-2.77757,0.97381,1.57080,0.00000,-0.14512,-0.38003,0.04644,,,,,,,,,,,,,,,,,,,,,,,,,,0,0,0,0,0
0.9533,1783189709.5814,1,1,2.0000,0.0000,1.44682,0.23293,-2.77757,0.97381,1.57080,0.00000,-0.14512,-0.38003,0.04644,,,,,,,,,,,,,,,,,,,,,,,,,,0,0,0,0,0
0.9537,1783189709.5817,1,1,2.0000,0.0000,1.44682,0.23293,-2.77757,0.97381,1.57080,0.00000,-0.14512,-0.38003,0.04644,,,,,,,,,,,,,,,,,,,,,,,,,,0,0,0,0,0
0.9638,1783189709.5919,1,1,2.0000,0.0000,1.44682,0.23284,-2.77759,0.97392,1.57080,0.00000,-0.14512,-0.38003,0.04641,,,,,,,,,,,,,,,,,,,,,,,,,,0,0,0,0,0
0.9642,1783189709.5922,1,1,2.0000,0.0000,1.44682,0.23284,-2.77759,0.97392,1.57080,0.00000,-0.14512,-0.38003,0.04641,,,,,,,,,,,,,,,,,,,,,,,,,,0,0,0,0,0
0.9768,1783189709.6048,1,1,2.0000,0.0000,1.44682,0.23265,-2.77764,0.97416,1.57080,0.00000,-0.14512,-0.38003,0.04636,,,,,,,,,,,,,,,,,,,,,,,,,,0,0,0,0,0
0.9897,1783189709.6178,1,1,2.0000,0.0000,1.44682,0.23257,-2.77766,0.97426,1.57080,0.00000,-0.14512,-0.38003,0.04634,,,,,,,,,,,,,,,,,,,,,,,,,,0,0,0,0,0
0.9935,1783189709.6215,1,1,2.0000,0.0000,1.44682,0.23255,-2.77767,0.97429,1.57080,0.00000,-0.14512,-0.38003,0.04634,,,,,,,,,,,,,,,,,,,,,,,,,,0,0,0,0,0
0.9942,1783189709.6222,1,1,2.0000,0.0000,1.44682,0.23251,-2.77767,0.97433,1.57080,0.00000,-0.14512,-0.38003,0.04633,,,,,,,,,,,,,,,,,,,,,,,,,,0,0,0,0,0
1.0052,1783189709.6332,1,1,2.0000,0.0000,1.44682,0.23241,-2.77770,0.97446,1.57080,0.00000,-0.14512,-0.38003,0.04630,,,,,,,,,,,,,,,,,,,,,,,,,,0,0,0,0,0
1.0130,1783189709.6410,1,1,2.0000,0.0000,1.44682,0.23235,-2.77772,0.97454,1.57080,0.00000,-0.14512,-0.38003,0.04629,,,,,,,,,,,,,,,,,,,,,,,,,,0,0,0,0,0
1.0134,1783189709.6414,1,1,2.0000,0.0000,1.44682,0.23235,-2.77772,0.97454,1.57080,0.00000,-0.14512,-0.38003,0.04629,,,,,,,,,,,,,,,,,,,,,,,,,,0,0,0,0,0
1.0248,1783189709.6528,1,1,2.0000,0.0000,1.44682,0.23225,-2.77774,0.97466,1.57080,0.00000,-0.14512,-0.38003,0.04626,,,,,,,,,,,,,,,,,,,,,,,,,,0,0,0,0,0
1.0327,1783189709.6608,1,1,2.0000,0.0000,1.44682,0.23212,-2.77777,0.97482,1.57080,0.00000,-0.14512,-0.38003,0.04623,,,,,,,,,,,,,,,,,,,,,,,,,,0,0,0,0,0
1.0331,1783189709.6612,1,1,2.0000,0.0000,1.44682,0.23212,-2.77777,0.97482,1.57080,0.00000,-0.14512,-0.38003,0.04623,,,,,,,,,,,,,,,,,,,,,,,,,,0,0,0,0,0
1.0483,1783189709.6763,1,1,2.0000,0.0000,1.44682,0.23198,-2.77781,0.97501,1.57080,0.00000,-0.14512,-0.38003,0.04619,,,,,,,,,,,,,,,,,,,,,,,,,,0,0,0,0,0
1.0550,1783189709.6830,1,1,2.0000,0.0000,1.44682,0.23192,-2.77783,0.97508,1.57080,0.00000,-0.14512,-0.38003,0.04617,,,,,,,,,,,,,,,,,,,,,,,,,,0,0,0,0,0
1.0651,1783189709.6931,1,1,2.0000,0.0000,1.44682,0.23182,-2.77785,0.97521,1.57080,0.00000,-0.14512,-0.38003,0.04615,,,,,,,,,,,,,,,,,,,,,,,,,,0,0,0,0,0
1.0784,1783189709.7065,1,1,2.0000,0.0000,1.44682,0.23171,-2.77788,0.97534,1.57080,0.00000,-0.14512,-0.38003,0.04612,,,,,,,,,,,,,,,,,,,,,,,,,,0,0,0,0,0
1.0787,1783189709.7067,1,1,2.0000,0.0000,1.44682,0.23171,-2.77788,0.97534,1.57080,0.00000,-0.14512,-0.38003,0.04612,,,,,,,,,,,,,,,,,,,,,,,,,,0,0,0,0,0
1.0834,1783189709.7114,1,1,2.0000,0.0000,1.44682,0.23166,-2.77789,0.97540,1.57080,0.00000,-0.14512,-0.38003,0.04610,,,,,,,,,,,,,,,,,,,,,,,,,,0,0,0,0,0
1.0947,1783189709.7228,1,1,2.0000,0.0000,1.44682,0.23146,-2.77795,0.97566,1.57080,0.00000,-0.14512,-0.38003,0.04605,,,,,,,,,,,,,,,,,,,,,,,,,,0,0,0,0,0
1.1869,1783189709.8149,1,1,2.0000,0.0000,1.44682,0.23050,-2.77819,0.97686,1.57080,0.00000,-0.14512,-0.38003,0.04580,,,,,,,,,,,,,,,,,,,,,,,,,,0,0,0,0,0
1.1872,1783189709.8152,1,1,2.0000,0.0000,1.44682,0.23050,-2.77819,0.97686,1.57080,0.00000,-0.14512,-0.38003,0.04580,,,,,,,,,,,,,,,,,,,,,,,,,,0,0,0,0,0
1.1874,1783189709.8155,1,1,2.0000,0.0000,1.44682,0.23050,-2.77819,0.97686,1.57080,0.00000,-0.14512,-0.38003,0.04580,,,,,,,,,,,,,,,,,,,,,,,,,,0,0,0,0,0
1.1877,1783189709.8158,1,1,2.0000,0.0000,1.44682,0.23050,-2.77819,0.97686,1.57080,0.00000,-0.14512,-0.38003,0.04580,,,,,,,,,,,,,,,,,,,,,,,,,,0,0,0,0,0
1.1880,1783189709.8161,1,1,2.0000,0.0000,1.44682,0.23050,-2.77819,0.97686,1.57080,0.00000,-0.14512,-0.38003,0.04580,,,,,,,,,,,,,,,,,,,,,,,,,,0,0,0,0,0
1.1957,1783189709.8237,1,1,2.0000,0.0000,1.44682,0.23049,-2.77819,0.97687,1.57080,0.00000,-0.14512,-0.38003,0.04580,,,,,,,,,,,,,,,,,,,,,,,,,,0,0,0,0,0
1.2058,1783189709.8338,1,1,2.0000,0.0000,1.44682,0.23041,-2.77821,0.97697,1.57080,0.00000,-0.14512,-0.38003,0.04578,,,,,,,,,,,,,,,,,,,,,,,,,,0,0,0,0,0
1.2062,1783189709.8342,1,1,2.0000,0.0000,1.44682,0.23035,-2.77823,0.97705,1.57080,0.00000,-0.14512,-0.38003,0.04576,,,,,,,,,,,,,,,,,,,,,,,,,,0,0,0,0,0
1.2126,1783189709.8406,1,1,2.0000,0.0000,1.44682,0.23028,-2.77825,0.97713,1.57080,0.00000,-0.14512,-0.38003,0.04575,,,,,,,,,,,,,,,,,,,,,,,,,,0,0,0,0,0
1.2130,1783189709.8410,1,1,2.0000,0.0000,1.44682,0.23028,-2.77825,0.97713,1.57080,0.00000,-0.14512,-0.38003,0.04575,,,,,,,,,,,,,,,,,,,,,,,,,,0,0,0,0,0
1.2285,1783189709.8565,1,1,2.0000,0.0000,1.44682,0.23014,-2.77829,0.97732,1.57080,0.00000,-0.14512,-0.38003,0.04571,,,,,,,,,,,,,,,,,,,,,,,,,,0,0,0,0,0
1.2344,1783189709.8624,1,1,2.0000,0.0000,1.44682,0.23005,-2.77831,0.97742,1.57080,0.00000,-0.14512,-0.38003,0.04569,,,,,,,,,,,,,,,,,,,,,,,,,,0,0,0,0,0
1.2513,1783189709.8793,1,1,2.0000,0.0000,1.44682,0.22986,-2.77836,0.97767,1.57080,0.00000,-0.14512,-0.38003,0.04563,,,,,,,,,,,,,,,,,,,,,,,,,,0,0,0,0,0
1.2546,1783189709.8826,1,1,2.0000,0.0000,1.44682,0.22984,-2.77836,0.97769,1.57080,0.00000,-0.14512,-0.38003,0.04563,,,,,,,,,,,,,,,,,,,,,,,,,,0,0,0,0,0
1.2550,1783189709.8830,1,1,2.0000,0.0000,1.44682,0.22984,-2.77836,0.97769,1.57080,0.00000,-0.14512,-0.38003,0.04563,,,,,,,,,,,,,,,,,,,,,,,,,,0,0,0,0,0
1.2633,1783189709.8913,1,1,2.0000,0.0000,1.44682,0.22976,-2.77838,0.97779,1.57080,0.00000,-0.14512,-0.38003,0.04561,,,,,,,,,,,,,,,,,,,,,,,,,,0,0,0,0,0
1.2727,1783189709.9007,1,1,2.0000,0.0000,1.44682,0.22964,-2.77841,0.97795,1.57080,0.00000,-0.14512,-0.38003,0.04558,,,,,,,,,,,,,,,,,,,,,,,,,,0,0,0,0,0
1.2869,1783189709.9149,1,1,2.0000,0.0000,1.44682,0.22949,-2.77845,0.97813,1.57080,0.00000,-0.14512,-0.38003,0.04554,,,,,,,,,,,,,,,,,,,,,,,,,,0,0,0,0,0
1.2969,1783189709.9249,1,1,2.0000,0.0000,1.44682,0.22940,-2.77847,0.97824,1.57080,0.00000,-0.14512,-0.38003,0.04552,,,,,,,,,,,,,,,,,,,,,,,,,,0,0,0,0,0
1.3038,1783189709.9318,1,1,2.0000,0.0000,1.44682,0.22928,-2.77851,0.97840,1.57080,0.00000,-0.14512,-0.38003,0.04548,,,,,,,,,,,,,,,,,,,,,,,,,,0,0,0,0,0
1.3135,1783189709.9416,1,1,2.0000,0.0000,1.44682,0.22921,-2.77852,0.97849,1.57080,0.00000,-0.14512,-0.38003,0.04547,,,,,,,,,,,,,,,,,,,,,,,,,,0,0,0,0,0
1.3253,1783189709.9533,1,1,2.0000,0.0000,1.44682,0.22911,-2.77855,0.97860,1.57080,0.00000,-0.14512,-0.38003,0.04544,,,,,,,,,,,,,,,,,,,,,,,,,,0,0,0,0,0
1.3329,1783189709.9609,1,1,2.0000,0.0000,1.44682,0.22899,-2.77858,0.97876,1.57080,0.00000,-0.14512,-0.38003,0.04541,,,,,,,,,,,,,,,,,,,,,,,,,,0,0,0,0,0
1.3335,1783189709.9615,1,1,2.0000,0.0000,1.44682,0.22899,-2.77858,0.97876,1.57080,0.00000,-0.14512,-0.38003,0.04541,,,,,,,,,,,,,,,,,,,,,,,,,,0,0,0,0,0
1.3434,1783189709.9715,1,1,2.0000,0.0000,1.44682,0.22885,-2.77861,0.97893,1.57080,0.00000,-0.14512,-0.38003,0.04537,,,,,,,,,,,,,,,,,,,,,,,,,,0,0,0,0,0
1.3575,1783189709.9855,1,1,2.0000,0.0000,1.44682,0.22876,-2.77864,0.97905,1.57080,0.00000,-0.14512,-0.38003,0.04535,,,,,,,,,,,,,,,,,,,,,,,,,,0,0,0,0,0
1.3630,1783189709.9910,1,1,2.0000,0.0000,1.44682,0.22863,-2.77867,0.97921,1.57080,0.00000,-0.14512,-0.38003,0.04531,,,,,,,,,,,,,,,,,,,,,,,,,,0,0,0,0,0
1.3764,1783189710.0044,1,1,2.0000,0.0000,1.44682,0.22854,-2.77869,0.97932,1.57080,0.00000,-0.14512,-0.38003,0.04529,,,,,,,,,,,,,,,,,,,,,,,,,,0,0,0,0,0
1.3847,1783189710.0127,1,1,2.0000,0.0000,1.44682,0.22846,-2.77871,0.97942,1.57080,0.00000,-0.14512,-0.38003,0.04527,,,,,,,,,,,,,,,,,,,,,,,,,,0,0,0,0,0
1.3932,1783189710.0212,1,1,2.0000,0.0000,1.44682,0.22834,-2.77875,0.97958,1.57080,0.00000,-0.14512,-0.38003,0.04524,,,,,,,,,,,,,,,,,,,,,,,,,,0,0,0,0,0
1.3937,1783189710.0217,1,1,2.0000,0.0000,1.44682,0.22834,-2.77875,0.97958,1.57080,0.00000,-0.14512,-0.38003,0.04524,,,,,,,,,,,,,,,,,,,,,,,,,,0,0,0,0,0
1.4059,1783189710.0339,1,1,2.0000,0.0000,1.44682,0.22820,-2.77878,0.97975,1.57080,0.00000,-0.14512,-0.38003,0.04520,,,,,,,,,,,,,,,,,,,,,,,,,,0,0,0,0,0
1.4157,1783189710.0437,1,1,2.0000,0.0000,1.44682,0.22810,-2.77880,0.97987,1.57080,0.00000,-0.14512,-0.38003,0.04518,,,,,,,,,,,,,,,,,,,,,,,,,,0,0,0,0,0
1.4232,1783189710.0512,1,1,2.0000,0.0000,1.44682,0.22798,-2.77884,0.98003,1.57080,0.00000,-0.14512,-0.38003,0.04515,,,,,,,,,,,,,,,,,,,,,,,,,,0,0,0,0,0
1.4378,1783189710.0658,1,1,2.0000,0.0000,1.44682,0.22789,-2.77886,0.98013,1.57080,0.00000,-0.14512,-0.38003,0.04512,,,,,,,,,,,,,,,,,,,,,,,,,,0,0,0,0,0
1.4429,1783189710.0709,1,1,2.0000,0.0000,1.44682,0.22781,-2.77888,0.98023,1.57080,0.00000,-0.14512,-0.38003,0.04510,,,,,,,,,,,,,,,,,,,,,,,,,,0,0,0,0,0
1.4433,1783189710.0713,1,1,2.0000,0.0000,1.44682,0.22781,-2.77888,0.98023,1.57080,0.00000,-0.14512,-0.38003,0.04510,,,,,,,,,,,,,,,,,,,,,,,,,,0,0,0,0,0
1.4563,1783189710.0843,1,1,2.0000,0.0000,1.44682,0.22762,-2.77893,0.98048,1.57080,0.00000,-0.14512,-0.38003,0.04505,,,,,,,,,,,,,,,,,,,,,,,,,,0,0,0,0,0
1.4637,1783189710.0917,1,1,2.0000,0.0000,1.44682,0.22755,-2.77895,0.98057,1.57080,0.00000,-0.14512,-0.38003,0.04503,,,,,,,,,,,,,,,,,,,,,,,,,,0,0,0,0,0
1.4731,1783189710.1011,1,1,2.0000,0.0000,1.44682,0.22750,-2.77896,0.98062,1.57080,0.00000,-0.14512,-0.38003,0.04502,,,,,,,,,,,,,,,,,,,,,,,,,,0,0,0,0,0
1.4734,1783189710.1014,1,1,2.0000,0.0000,1.44682,0.22750,-2.77896,0.98062,1.57080,0.00000,-0.14512,-0.38003,0.04502,,,,,,,,,,,,,,,,,,,,,,,,,,0,0,0,0,0
1.4848,1783189710.1128,1,1,2.0000,0.0000,1.44682,0.22732,-2.77900,0.98085,1.57080,0.00000,-0.14512,-0.38003,0.04498,,,,,,,,,,,,,,,,,,,,,,,,,,0,0,0,0,0
1.4850,1783189710.1131,1,1,2.0000,0.0000,1.44682,0.22732,-2.77900,0.98085,1.57080,0.00000,-0.14512,-0.38003,0.04498,,,,,,,,,,,,,,,,,,,,,,,,,,0,0,0,0,0
1.4944,1783189710.1224,1,1,2.0000,0.0000,1.44682,0.22719,-2.77904,0.98102,1.57080,0.00000,-0.14512,-0.38003,0.04494,,,,,,,,,,,,,,,,,,,,,,,,,,0,0,0,0,0
1.5041,1783189710.1322,1,1,2.0000,0.0000,1.44682,0.22715,-2.77905,0.98106,1.57080,0.00000,-0.14512,-0.38003,0.04493,,,,,,,,,,,,,,,,,,,,,,,,,,0,0,0,0,0
1.5178,1783189710.1459,1,1,2.0000,0.0000,1.44682,0.22702,-2.77908,0.98123,1.57080,0.00001,-0.14512,-0.38003,0.04490,,,,,,,,,,,,,,,,,,,,,,,,,,0,0,0,0,0
1.5228,1783189710.1509,1,1,2.0000,0.0000,1.44682,0.22696,-2.77910,0.98131,1.57080,0.00001,-0.14512,-0.38003,0.04488,,,,,,,,,,,,,,,,,,,,,,,,,,0,0,0,0,0
1.5231,1783189710.1512,1,1,2.0000,0.0000,1.44682,0.22696,-2.77910,0.98131,1.57080,0.00001,-0.14512,-0.38003,0.04488,,,,,,,,,,,,,,,,,,,,,,,,,,0,0,0,0,0
1.5454,1783189710.1735,1,1,2.0000,0.0000,1.44682,0.22673,-2.77915,0.98160,1.57080,0.00001,-0.14512,-0.38003,0.04482,,,,,,,,,,,,,,,,,,,,,,,,,,0,0,0,0,0
1.5459,1783189710.1739,1,1,2.0000,0.0000,1.44682,0.22673,-2.77915,0.98160,1.57080,0.00001,-0.14512,-0.38003,0.04482,,,,,,,,,,,,,,,,,,,,,,,,,,0,0,0,0,0
1.5465,1783189710.1745,1,1,2.0000,0.0000,1.44682,0.22666,-2.77917,0.98169,1.57080,0.00001,-0.14512,-0.38003,0.04480,,,,,,,,,,,,,,,,,,,,,,,,,,0,0,0,0,0
1.5635,1783189710.1915,1,1,2.0000,0.0000,1.44682,0.22655,-2.77920,0.98181,1.57080,0.00001,-0.14512,-0.38003,0.04478,,,,,,,,,,,,,,,,,,,,,,,,,,0,0,0,0,0
1.5639,1783189710.1919,1,1,2.0000,0.0000,1.44682,0.22655,-2.77920,0.98181,1.57080,0.00001,-0.14512,-0.38003,0.04478,,,,,,,,,,,,,,,,,,,,,,,,,,0,0,0,0,0
1.5742,1783189710.2023,1,1,2.0000,0.0000,1.44682,0.22642,-2.77923,0.98198,1.57080,0.00001,-0.14512,-0.38003,0.04474,,,,,,,,,,,,,,,,,,,,,,,,,,0,0,0,0,0
1.5868,1783189710.2149,1,1,2.0000,0.0000,1.44682,0.22635,-2.77925,0.98207,1.57080,0.00001,-0.14512,-0.38003,0.04472,,,,,,,,,,,,,,,,,,,,,,,,,,0,0,0,0,0
1.5929,1783189710.2209,1,1,2.0000,0.0000,1.44682,0.22631,-2.77926,0.98212,1.57080,0.00001,-0.14512,-0.38003,0.04471,,,,,,,,,,,,,,,,,,,,,,,,,,0,0,0,0,0
1.5934,1783189710.2214,1,1,2.0000,0.0000,1.44682,0.22631,-2.77926,0.98212,1.57080,0.00001,-0.14512,-0.38003,0.04471,,,,,,,,,,,,,,,,,,,,,,,,,,0,0,0,0,0
1.6132,1783189710.2412,1,1,2.0000,0.0000,1.44682,0.22599,-2.77934,0.98252,1.57080,0.00001,-0.14512,-0.38003,0.04463,,,,,,,,,,,,,,,,,,,,,,,,,,0,0,0,0,0
1.6198,1783189710.2478,1,1,2.0000,0.0000,1.44682,0.22598,-2.77934,0.98253,1.57080,0.00001,-0.14512,-0.38003,0.04463,,,,,,,,,,,,,,,,,,,,,,,,,,0,0,0,0,0
1.6316,1783189710.2596,1,1,2.0000,0.0000,1.44682,0.22587,-2.77937,0.98267,1.57080,0.00001,-0.14512,-0.38003,0.04460,,,,,,,,,,,,,,,,,,,,,,,,,,0,0,0,0,0
1.6447,1783189710.2727,1,1,2.0000,0.0000,1.44682,0.22576,-2.77940,0.98281,1.57080,0.00001,-0.14512,-0.38003,0.04457,,,,,,,,,,,,,,,,,,,,,,,,,,0,0,0,0,0
1.6450,1783189710.2730,1,1,2.0000,0.0000,1.44682,0.22576,-2.77940,0.98281,1.57080,0.00001,-0.14512,-0.38003,0.04457,,,,,,,,,,,,,,,,,,,,,,,,,,0,0,0,0,0
1.6484,1783189710.2764,1,1,2.0000,0.0000,1.44682,0.22575,-2.77940,0.98282,1.57080,0.00001,-0.14512,-0.38003,0.04457,,,,,,,,,,,,,,,,,,,,,,,,,,0,0,0,0,0
1.6487,1783189710.2768,1,1,2.0000,0.0000,1.44682,0.22575,-2.77940,0.98282,1.57080,0.00001,-0.14512,-0.38003,0.04457,,,,,,,,,,,,,,,,,,,,,,,,,,0,0,0,0,0
1.6682,1783189710.2962,1,1,2.0000,0.0000,1.44682,0.22546,-2.77948,0.98319,1.57080,0.00001,-0.14512,-0.38002,0.04449,,,,,,,,,,,,,,,,,,,,,,,,,,0,0,0,0,0
1.6686,1783189710.2966,1,1,2.0000,0.0000,1.44682,0.22546,-2.77948,0.98319,1.57080,0.00001,-0.14512,-0.38002,0.04449,,,,,,,,,,,,,,,,,,,,,,,,,,0,0,0,0,0
1.6823,1783189710.3103,1,1,2.0000,0.0000,1.44682,0.22536,-2.77950,0.98331,1.57080,0.00001,-0.14512,-0.38002,0.04447,,,,,,,,,,,,,,,,,,,,,,,,,,0,0,0,0,0
1.6825,1783189710.3105,1,1,2.0000,0.0000,1.44682,0.22536,-2.77950,0.98331,1.57080,0.00001,-0.14512,-0.38002,0.04447,,,,,,,,,,,,,,,,,,,,,,,,,,0,0,0,0,0
1.6919,1783189710.3199,1,1,2.0000,0.0000,1.44682,0.22527,-2.77952,0.98342,1.57080,0.00001,-0.14512,-0.38002,0.04444,,,,,,,,,,,,,,,,,,,,,,,,,,0,0,0,0,0
1.7117,1783189710.3398,1,1,2.0000,0.0000,1.44682,0.22511,-2.77956,0.98362,1.57080,0.00001,-0.14512,-0.38002,0.04440,,,,,,,,,,,,,,,,,,,,,,,,,,0,0,0,0,0
1.7238,1783189710.3519,1,1,2.0000,0.0000,1.44682,0.22493,-2.77961,0.98385,1.57080,0.00001,-0.14512,-0.38002,0.04436,,,,,,,,,,,,,,,,,,,,,,,,,,0,0,0,0,0
1.7267,1783189710.3547,1,1,2.0000,0.0000,1.44682,0.22486,-2.77963,0.98394,1.57080,0.00001,-0.14512,-0.38002,0.04434,,,,,,,,,,,,,,,,,,,,,,,,,,0,0,0,0,0
1.7270,1783189710.3550,1,1,2.0000,0.0000,1.44682,0.22486,-2.77963,0.98394,1.57080,0.00001,-0.14512,-0.38002,0.04434,,,,,,,,,,,,,,,,,,,,,,,,,,0,0,0,0,0
1.7395,1783189710.3675,1,1,2.0000,0.0000,1.44682,0.22478,-2.77965,0.98404,1.57080,0.00001,-0.14512,-0.38002,0.04432,,,,,,,,,,,,,,,,,,,,,,,,,,0,0,0,0,0
1.7537,1783189710.3817,1,1,2.0000,0.0000,1.44682,0.22463,-2.77968,0.98422,1.57080,0.00001,-0.14512,-0.38002,0.04428,,,,,,,,,,,,,,,,,,,,,,,,,,0,0,0,0,0
1.7547,1783189710.3827,1,1,2.0000,0.0000,1.44682,0.22457,-2.77970,0.98430,1.57080,0.00001,-0.14512,-0.38002,0.04426,,,,,,,,,,,,,,,,,,,,,,,,,,0,0,0,0,0
1.7675,1783189710.3955,1,1,2.0000,0.0000,1.44682,0.22448,-2.77972,0.98440,1.57080,0.00001,-0.14512,-0.38002,0.04424,,,,,,,,,,,,,,,,,,,,,,,,,,0,0,0,0,0
1.7693,1783189710.3973,1,1,2.0000,0.0000,1.44682,0.22448,-2.77972,0.98440,1.57080,0.00001,-0.14512,-0.38002,0.04424,,,,,,,,,,,,,,,,,,,,,,,,,,0,0,0,0,0
1.7698,1783189710.3978,1,1,2.0000,0.0000,1.44682,0.22448,-2.77972,0.98440,1.57080,0.00001,-0.14512,-0.38002,0.04424,,,,,,,,,,,,,,,,,,,,,,,,,,0,0,0,0,0
1.7786,1783189710.4066,1,1,2.0000,0.0000,1.44682,0.22434,-2.77976,0.98458,1.57080,0.00001,-0.14512,-0.38002,0.04420,,,,,,,,,,,,,,,,,,,,,,,,,,0,0,0,0,0
1.7965,1783189710.4245,1,1,2.0000,0.0000,1.44682,0.22414,-2.77981,0.98484,1.57080,0.00001,-0.14512,-0.38002,0.04415,,,,,,,,,,,,,,,,,,,,,,,,,,0,0,0,0,0
1.7991,1783189710.4271,1,1,2.0000,0.0000,1.44682,0.22412,-2.77981,0.98486,1.57080,0.00001,-0.14512,-0.38002,0.04415,,,,,,,,,,,,,,,,,,,,,,,,,,0,0,0,0,0
1.8091,1783189710.4371,1,1,2.0000,0.0000,1.44682,0.22404,-2.77983,0.98496,1.57080,0.00001,-0.14512,-0.38002,0.04413,,,,,,,,,,,,,,,,,,,,,,,,,,0,0,0,0,0
1.8169,1783189710.4449,1,1,2.0000,0.0000,1.44682,0.22391,-2.77987,0.98512,1.57080,0.00001,-0.14512,-0.38002,0.04409,,,,,,,,,,,,,,,,,,,,,,,,,,0,0,0,0,0
1.8264,1783189710.4544,1,1,2.0000,0.0000,1.44682,0.22377,-2.77990,0.98529,1.57080,0.00001,-0.14512,-0.38002,0.04406,,,,,,,,,,,,,,,,,,,,,,,,,,0,0,0,0,0
1.8266,1783189710.4547,1,1,2.0000,0.0000,1.44682,0.22377,-2.77990,0.98529,1.57080,0.00001,-0.14512,-0.38002,0.04406,,,,,,,,,,,,,,,,,,,,,,,,,,0,0,0,0,0
1.8367,1783189710.4647,1,1,2.0000,0.0000,1.44682,0.22374,-2.77991,0.98534,1.57080,0.00001,-0.14512,-0.38002,0.04405,,,,,,,,,,,,,,,,,,,,,,,,,,0,0,0,0,0
1.8466,1783189710.4746,1,1,2.0000,0.0000,1.44682,0.22360,-2.77994,0.98551,1.57080,0.00001,-0.14512,-0.38002,0.04401,,,,,,,,,,,,,,,,,,,,,,,,,,0,0,0,0,0
1.8470,1783189710.4750,1,1,2.0000,0.0000,1.44682,0.22360,-2.77994,0.98551,1.57080,0.00001,-0.14512,-0.38002,0.04401,,,,,,,,,,,,,,,,,,,,,,,,,,0,0,0,0,0
1.8668,1783189710.4948,1,1,2.0000,0.0000,1.44682,0.22344,-2.77998,0.98571,1.57080,0.00001,-0.14512,-0.38002,0.04397,,,,,,,,,,,,,,,,,,,,,,,,,,0,0,0,0,0
1.8670,1783189710.4950,1,1,2.0000,0.0000,1.44682,0.22344,-2.77998,0.98571,1.57080,0.00001,-0.14512,-0.38002,0.04397,,,,,,,,,,,,,,,,,,,,,,,,,,0,0,0,0,0
1.8690,1783189710.4970,1,1,2.0000,0.0000,1.44682,0.22344,-2.77998,0.98571,1.57080,0.00001,-0.14512,-0.38002,0.04397,,,,,,,,,,,,,,,,,,,,,,,,,,0,0,0,0,0
1.8693,1783189710.4973,1,1,2.0000,0.0000,1.44682,0.22344,-2.77998,0.98571,1.57080,0.00001,-0.14512,-0.38002,0.04397,,,,,,,,,,,,,,,,,,,,,,,,,,0,0,0,0,0
1.8766,1783189710.5046,1,1,2.0000,0.0000,1.44682,0.22331,-2.78002,0.98587,1.57080,0.00001,-0.14512,-0.38002,0.04394,,,,,,,,,,,,,,,,,,,,,,,,,,0,0,0,0,0
1.8951,1783189710.5231,1,1,2.0000,0.0000,1.44682,0.22314,-2.78006,0.98609,1.57080,0.00001,-0.14512,-0.38002,0.04389,,,,,,,,,,,,,,,,,,,,,,,,,,0,0,0,0,0
1.8974,1783189710.5254,1,1,2.0000,0.0000,1.44682,0.22314,-2.78006,0.98609,1.57080,0.00001,-0.14512,-0.38002,0.04389,,,,,,,,,,,,,,,,,,,,,,,,,,0,0,0,0,0
1.9111,1783189710.5391,1,1,2.0000,0.0000,1.44682,0.22294,-2.78011,0.98634,1.57080,0.00001,-0.14512,-0.38002,0.04384,,,,,,,,,,,,,,,,,,,,,,,,,,0,0,0,0,0
1.9176,1783189710.5456,1,1,2.0000,0.0000,1.44682,0.22294,-2.78011,0.98634,1.57080,0.00001,-0.14512,-0.38002,0.04384,,,,,,,,,,,,,,,,,,,,,,,,,,0,0,0,0,0
1.9280,1783189710.5560,1,1,2.0000,0.0000,1.44682,0.22284,-2.78013,0.98646,1.57080,0.00001,-0.14512,-0.38002,0.04382,,,,,,,,,,,,,,,,,,,,,,,,,,0,0,0,0,0
1.9407,1783189710.5688,1,1,2.0000,0.0000,1.44681,0.22264,-2.78018,0.98671,1.57080,0.00001,-0.14512,-0.38002,0.04376,,,,,,,,,,,,,,,,,,,,,,,,,,0,0,0,0,0
1.9523,1783189710.5803,1,1,2.0000,0.0000,1.44681,0.22256,-2.78020,0.98681,1.57080,0.00001,-0.14512,-0.38002,0.04374,,,,,,,,,,,,,,,,,,,,,,,,,,0,0,0,0,0
1.9580,1783189710.5860,1,1,2.0000,0.0000,1.44681,0.22254,-2.78021,0.98684,1.57080,0.00001,-0.14512,-0.38002,0.04374,,,,,,,,,,,,,,,,,,,,,,,,,,0,0,0,0,0
1.9584,1783189710.5865,1,1,2.0000,0.0000,1.44681,0.22250,-2.78022,0.98689,1.57080,0.00001,-0.14512,-0.38002,0.04373,,,,,,,,,,,,,,,,,,,,,,,,,,0,0,0,0,0
1.9735,1783189710.6015,1,1,2.0000,0.0000,1.44681,0.22234,-2.78026,0.98709,1.57080,0.00001,-0.14512,-0.38002,0.04369,,,,,,,,,,,,,,,,,,,,,,,,,,0,0,0,0,0
1.9777,1783189710.6057,1,1,2.0000,0.0000,1.44681,0.22234,-2.78026,0.98709,1.57080,0.00001,-0.14512,-0.38002,0.04369,,,,,,,,,,,,,,,,,,,,,,,,,,0,0,0,0,0
1.9868,1783189710.6148,1,1,2.0000,0.0000,1.44681,0.22224,-2.78028,0.98721,1.57080,0.00001,-0.14512,-0.38002,0.04366,,,,,,,,,,,,,,,,,,,,,,,,,,0,0,0,0,0
1.9986,1783189710.6266,1,1,2.0000,0.0000,1.44681,0.22204,-2.78034,0.98747,1.57080,0.00001,-0.14512,-0.38002,0.04361,,,,,,,,,,,,,,,,,,,,,,,,,,0,0,0,0,0
1.9991,1783189710.6271,1,1,2.0000,0.0000,1.44681,0.22204,-2.78034,0.98747,1.57080,0.00001,-0.14512,-0.38002,0.04361,,,,,,,,,,,,,,,,,,,,,,,,,,0,0,0,0,0
2.0077,1783189710.6357,1,1,2.0000,0.0000,1.44681,0.22197,-2.78035,0.98755,1.57080,0.00001,-0.14512,-0.38002,0.04359,,,,,,,,,,,,,,,,,,,,,,,,,,0,0,0,0,0
2.0192,1783189710.6472,1,1,2.0000,0.0000,1.44681,0.22190,-2.78037,0.98764,1.57080,0.00001,-0.14512,-0.38002,0.04357,,,,,,,,,,,,,,,,,,,,,,,,,,0,0,0,0,0
2.0298,1783189710.6578,1,1,2.0000,0.0000,1.44681,0.22180,-2.78040,0.98777,1.57080,0.00001,-0.14512,-0.38002,0.04355,,,,,,,,,,,,,,,,,,,,,,,,,,0,0,0,0,0
2.0367,1783189710.6647,1,1,2.0000,0.0000,1.44681,0.22174,-2.78041,0.98784,1.57080,0.00001,-0.14512,-0.38002,0.04353,,,,,,,,,,,,,,,,,,,,,,,,,,0,0,0,0,0
2.0493,1783189710.6773,1,1,2.0000,0.0000,1.44681,0.22164,-2.78043,0.98796,1.57080,0.00001,-0.14512,-0.38002,0.04351,,,,,,,,,,,,,,,,,,,,,,,,,,0,0,0,0,0
2.0498,1783189710.6778,1,1,2.0000,0.0000,1.44681,0.22164,-2.78043,0.98796,1.57080,0.00001,-0.14512,-0.38002,0.04351,,,,,,,,,,,,,,,,,,,,,,,,,,0,0,0,0,0
2.0568,1783189710.6848,1,1,2.0000,0.0000,1.44681,0.22151,-2.78047,0.98813,1.57080,0.00001,-0.14512,-0.38002,0.04347,,,,,,,,,,,,,,,,,,,,,,,,,,0,0,0,0,0
2.0747,1783189710.7027,1,1,2.0000,0.0000,1.44681,0.22133,-2.78051,0.98835,1.57080,0.00001,-0.14512,-0.38002,0.04343,,,,,,,,,,,,,,,,,,,,,,,,,,0,0,0,0,0
2.0766,1783189710.7046,1,1,2.0000,0.0000,1.44681,0.22133,-2.78051,0.98835,1.57080,0.00001,-0.14512,-0.38002,0.04343,,,,,,,,,,,,,,,,,,,,,,,,,,0,0,0,0,0
2.0769,1783189710.7049,1,1,2.0000,0.0000,1.44681,0.22133,-2.78051,0.98835,1.57080,0.00001,-0.14512,-0.38002,0.04343,,,,,,,,,,,,,,,,,,,,,,,,,,0,0,0,0,0
2.0884,1783189710.7164,1,1,2.0000,0.0000,1.44681,0.22119,-2.78055,0.98852,1.57080,0.00001,-0.14512,-0.38002,0.04339,,,,,,,,,,,,,,,,,,,,,,,,,,0,0,0,0,0
2.1037,1783189710.7317,1,1,2.0000,0.0000,1.44681,0.22109,-2.78057,0.98865,1.57080,0.00001,-0.14512,-0.38002,0.04337,,,,,,,,,,,,,,,,,,,,,,,,,,0,0,0,0,0
2.1094,1783189710.7374,1,1,2.0000,0.0000,1.44681,0.22104,-2.78059,0.98872,1.57080,0.00001,-0.14512,-0.38002,0.04335,,,,,,,,,,,,,,,,,,,,,,,,,,0,0,0,0,0
2.1187,1783189710.7467,1,1,2.0000,0.0000,1.44681,0.22083,-2.78064,0.98897,1.57080,0.00001,-0.14512,-0.38002,0.04330,,,,,,,,,,,,,,,,,,,,,,,,,,0,0,0,0,0
2.1333,1783189710.7613,1,1,2.0000,0.0000,1.44681,0.22075,-2.78066,0.98907,1.57080,0.00001,-0.14512,-0.38002,0.04328,,,,,,,,,,,,,,,,,,,,,,,,,,0,0,0,0,0
2.1365,1783189710.7645,1,1,2.0000,0.0000,1.44681,0.22073,-2.78066,0.98910,1.57080,0.00001,-0.14512,-0.38002,0.04327,,,,,,,,,,,,,,,,,,,,,,,,,,0,0,0,0,0
2.1519,1783189710.7799,1,1,2.0000,0.0000,1.44681,0.22053,-2.78071,0.98935,1.57080,0.00001,-0.14512,-0.38002,0.04322,,,,,,,,,,,,,,,,,,,,,,,,,,0,0,0,0,0
2.1522,1783189710.7802,1,1,2.0000,0.0000,1.44681,0.22053,-2.78071,0.98935,1.57080,0.00001,-0.14512,-0.38002,0.04322,,,,,,,,,,,,,,,,,,,,,,,,,,0,0,0,0,0
2.1567,1783189710.7847,1,1,2.0000,0.0000,1.44681,0.22053,-2.78071,0.98935,1.57080,0.00001,-0.14512,-0.38002,0.04322,,,,,,,,,,,,,,,,,,,,,,,,,,0,0,0,0,0
2.1570,1783189710.7850,1,1,2.0000,0.0000,1.44681,0.22053,-2.78071,0.98935,1.57080,0.00001,-0.14512,-0.38002,0.04322,,,,,,,,,,,,,,,,,,,,,,,,,,0,0,0,0,0
2.1786,1783189710.8066,1,1,2.0000,0.0000,1.44681,0.22023,-2.78079,0.98973,1.57080,0.00001,-0.14512,-0.38002,0.04314,,,,,,,,,,,,,,,,,,,,,,,,,,0,0,0,0,0
2.1789,1783189710.8069,1,1,2.0000,0.0000,1.44681,0.22023,-2.78079,0.98973,1.57080,0.00001,-0.14512,-0.38002,0.04314,,,,,,,,,,,,,,,,,,,,,,,,,,0,0,0,0,0
2.1793,1783189710.8073,1,1,2.0000,0.0000,1.44681,0.22023,-2.78079,0.98973,1.57080,0.00001,-0.14512,-0.38002,0.04314,,,,,,,,,,,,,,,,,,,,,,,,,,0,0,0,0,0
2.1879,1783189710.8159,1,1,2.0000,0.0000,1.44681,0.22016,-2.78080,0.98981,1.57080,0.00001,-0.14512,-0.38002,0.04313,,,,,,,,,,,,,,,,,,,,,,,,,,0,0,0,0,0
2.2040,1783189710.8320,1,1,2.0000,0.0000,1.44681,0.22004,-2.78083,0.98996,1.57080,0.00001,-0.14512,-0.38002,0.04310,,,,,,,,,,,,,,,,,,,,,,,,,,0,0,0,0,0
2.2079,1783189710.8359,1,1,2.0000,0.0000,1.44681,0.21999,-2.78085,0.99003,1.57080,0.00001,-0.14512,-0.38002,0.04308,,,,,,,,,,,,,,,,,,,,,,,,,,0,0,0,0,0
2.2210,1783189710.8490,1,1,2.0000,0.0000,1.44681,0.21991,-2.78086,0.99012,1.57080,0.00001,-0.14512,-0.38002,0.04306,,,,,,,,,,,,,,,,,,,,,,,,,,0,0,0,0,0
2.2279,1783189710.8559,1,1,2.0000,0.0000,1.44681,0.21983,-2.78089,0.99022,1.57080,0.00001,-0.14512,-0.38002,0.04304,,,,,,,,,,,,,,,,,,,,,,,,,,0,0,0,0,0
2.2282,1783189710.8562,1,1,2.0000,0.0000,1.44681,0.21983,-2.78089,0.99022,1.57080,0.00001,-0.14512,-0.38002,0.04304,,,,,,,,,,,,,,,,,,,,,,,,,,0,0,0,0,0
2.2368,1783189710.8648,1,1,2.0000,0.0000,1.44681,0.21969,-2.78092,0.99039,1.57080,0.00001,-0.14512,-0.38002,0.04301,,,,,,,,,,,,,,,,,,,,,,,,,,0,0,0,0,0
2.2487,1783189710.8767,1,1,2.0000,0.0000,1.44681,0.21955,-2.78095,0.99057,1.57080,0.00001,-0.14512,-0.38002,0.04297,,,,,,,,,,,,,,,,,,,,,,,,,,0,0,0,0,0
2.2628,1783189710.8908,1,1,2.0000,0.0000,1.44681,0.21940,-2.78099,0.99076,1.57080,0.00001,-0.14512,-0.38002,0.04293,,,,,,,,,,,,,,,,,,,,,,,,,,0,0,0,0,0
2.2632,1783189710.8912,1,1,2.0000,0.0000,1.44681,0.21940,-2.78099,0.99076,1.57080,0.00001,-0.14512,-0.38002,0.04293,,,,,,,,,,,,,,,,,,,,,,,,,,0,0,0,0,0
2.2785,1783189710.9066,1,1,2.0000,0.0000,1.44681,0.21924,-2.78103,0.99095,1.57080,0.00001,-0.14512,-0.38002,0.04289,,,,,,,,,,,,,,,,,,,,,,,,,,0,0,0,0,0
2.2789,1783189710.9069,1,1,2.0000,0.0000,1.44681,0.21924,-2.78103,0.99095,1.57080,0.00001,-0.14512,-0.38002,0.04289,,,,,,,,,,,,,,,,,,,,,,,,,,0,0,0,0,0
2.2865,1783189710.9146,1,1,2.0000,0.0000,1.44681,0.21916,-2.78105,0.99106,1.57080,0.00001,-0.14512,-0.38002,0.04287,,,,,,,,,,,,,,,,,,,,,,,,,,0,0,0,0,0
2.2870,1783189710.9150,1,1,2.0000,0.0000,1.44681,0.21916,-2.78105,0.99106,1.57080,0.00001,-0.14512,-0.38002,0.04287,,,,,,,,,,,,,,,,,,,,,,,,,,0,0,0,0,0
2.2978,1783189710.9258,1,1,2.0000,0.0000,1.44681,0.21903,-2.78108,0.99122,1.57080,0.00001,-0.14512,-0.38002,0.04284,,,,,,,,,,,,,,,,,,,,,,,,,,0,0,0,0,0
2.2984,1783189710.9264,1,1,2.0000,0.0000,1.44681,0.21896,-2.78110,0.99130,1.57080,0.00001,-0.14512,-0.38002,0.04282,,,,,,,,,,,,,,,,,,,,,,,,,,0,0,0,0,0
2.3088,1783189710.9368,1,1,2.0000,0.0000,1.44681,0.21889,-2.78112,0.99139,1.57080,0.00001,-0.14512,-0.38002,0.04280,,,,,,,,,,,,,,,,,,,,,,,,,,0,0,0,0,0
2.3091,1783189710.9371,1,1,2.0000,0.0000,1.44681,0.21889,-2.78112,0.99139,1.57080,0.00001,-0.14512,-0.38002,0.04280,,,,,,,,,,,,,,,,,,,,,,,,,,0,0,0,0,0
2.3178,1783189710.9458,1,1,2.0000,0.0000,1.44681,0.21885,-2.78113,0.99145,1.57080,0.00001,-0.14512,-0.38002,0.04279,,,,,,,,,,,,,,,,,,,,,,,,,,0,0,0,0,0
2.3182,1783189710.9462,1,1,2.0000,0.0000,1.44681,0.21885,-2.78113,0.99145,1.57080,0.00001,-0.14512,-0.38002,0.04279,,,,,,,,,,,,,,,,,,,,,,,,,,0,0,0,0,0
2.3276,1783189710.9556,1,1,2.0000,0.0000,1.44681,0.21867,-2.78117,0.99167,1.57080,0.00001,-0.14512,-0.38002,0.04274,,,,,,,,,,,,,,,,,,,,,,,,,,0,0,0,0,0
2.3369,1783189710.9649,1,1,2.0000,0.0000,1.44681,0.21860,-2.78119,0.99176,1.57080,0.00001,-0.14512,-0.38002,0.04273,,,,,,,,,,,,,,,,,,,,,,,,,,0,0,0,0,0
2.3502,1783189710.9782,1,1,2.0000,0.0000,1.44681,0.21850,-2.78121,0.99188,1.57080,0.00001,-0.14512,-0.38002,0.04270,,,,,,,,,,,,,,,,,,,,,,,,,,0,0,0,0,0
2.3603,1783189710.9883,1,1,2.0000,0.0000,1.44681,0.21830,-2.78126,0.99213,1.57080,0.00001,-0.14512,-0.38002,0.04265,,,,,,,,,,,,,,,,,,,,,,,,,,0,0,0,0,0
2.3607,1783189710.9888,1,1,2.0000,0.0000,1.44681,0.21830,-2.78126,0.99213,1.57080,0.00001,-0.14512,-0.38002,0.04265,,,,,,,,,,,,,,,,,,,,,,,,,,0,0,0,0,0
2.3669,1783189710.9949,1,1,2.0000,0.0000,1.44681,0.21823,-2.78128,0.99221,1.57080,0.00001,-0.14512,-0.38002,0.04263,,,,,,,,,,,,,,,,,,,,,,,,,,0,0,0,0,0
2.3672,1783189710.9952,1,1,2.0000,0.0000,1.44681,0.21823,-2.78128,0.99221,1.57080,0.00001,-0.14512,-0.38002,0.04263,,,,,,,,,,,,,,,,,,,,,,,,,,0,0,0,0,0
2.3815,1783189711.0095,1,1,2.0000,0.0000,1.44681,0.21814,-2.78130,0.99233,1.57080,0.00001,-0.14512,-0.38002,0.04261,,,,,,,,,,,,,,,,,,,,,,,,,,0,0,0,0,0
2.3904,1783189711.0184,1,1,2.0000,0.0000,1.44681,0.21794,-2.78135,0.99258,1.57080,0.00001,-0.14512,-0.38002,0.04256,,,,,,,,,,,,,,,,,,,,,,,,,,0,0,0,0,0
2.3986,1783189711.0266,1,1,2.0000,0.0000,1.44681,0.21792,-2.78136,0.99260,1.57080,0.00001,-0.14512,-0.38002,0.04255,,,,,,,,,,,,,,,,,,,,,,,,,,0,0,0,0,0
2.4066,1783189711.0346,1,1,2.0000,0.0000,1.44681,0.21784,-2.78138,0.99270,1.57080,0.00001,-0.14512,-0.38002,0.04253,,,,,,,,,,,,,,,,,,,,,,,,,,0,0,0,0,0
2.4167,1783189711.0447,1,1,2.0000,0.0000,1.44681,0.21771,-2.78141,0.99286,1.57080,0.00001,-0.14512,-0.38002,0.04250,,,,,,,,,,,,,,,,,,,,,,,,,,0,0,0,0,0
2.4277,1783189711.0557,1,1,2.0000,0.0000,1.44681,0.21757,-2.78144,0.99304,1.57080,0.00001,-0.14512,-0.38002,0.04246,,,,,,,,,,,,,,,,,,,,,,,,,,0,0,0,0,0
2.4396,1783189711.0676,1,1,2.0000,0.0000,1.44681,0.21748,-2.78147,0.99316,1.57080,0.00001,-0.14512,-0.38002,0.04244,,,,,,,,,,,,,,,,,,,,,,,,,,0,0,0,0,0
2.4476,1783189711.0756,1,1,2.0000,0.0000,1.44681,0.21735,-2.78150,0.99332,1.57080,0.00001,-0.14512,-0.38002,0.04241,,,,,,,,,,,,,,,,,,,,,,,,,,0,0,0,0,0
2.4578,1783189711.0858,1,1,2.0000,0.0000,1.44681,0.21728,-2.78152,0.99341,1.57080,0.00001,-0.14512,-0.38002,0.04239,,,,,,,,,,,,,,,,,,,,,,,,,,0,0,0,0,0
2.4667,1783189711.0947,1,1,2.0000,0.0000,1.44681,0.21718,-2.78154,0.99353,1.57080,0.00001,-0.14512,-0.38002,0.04236,,,,,,,,,,,,,,,,,,,,,,,,,,0,0,0,0,0
2.4847,1783189711.1127,1,1,2.0000,0.0000,1.44681,0.21691,-2.78161,0.99386,1.57080,0.00001,-0.14512,-0.38002,0.04230,,,,,,,,,,,,,,,,,,,,,,,,,,0,0,0,0,0
2.4874,1783189711.1154,1,1,2.0000,0.0000,1.44681,0.21691,-2.78161,0.99386,1.57080,0.00001,-0.14512,-0.38002,0.04230,,,,,,,,,,,,,,,,,,,,,,,,,,0,0,0,0,0
2.4878,1783189711.1158,1,1,2.0000,0.0000,1.44681,0.21691,-2.78161,0.99386,1.57080,0.00001,-0.14512,-0.38002,0.04230,,,,,,,,,,,,,,,,,,,,,,,,,,0,0,0,0,0
2.4997,1783189711.1277,1,1,2.0000,0.0000,1.44681,0.21682,-2.78163,0.99398,1.57080,0.00001,-0.14512,-0.38002,0.04227,,,,,,,,,,,,,,,,,,,,,,,,,,0,0,0,0,0
2.5110,1783189711.1390,1,1,2.0000,0.0000,1.44681,0.21661,-2.78168,0.99423,1.57080,0.00001,-0.14512,-0.38002,0.04222,,,,,,,,,,,,,,,,,,,,,,,,,,0,0,0,0,0
2.5114,1783189711.1394,1,1,2.0000,0.0000,1.44681,0.21661,-2.78168,0.99423,1.57080,0.00001,-0.14512,-0.38002,0.04222,,,,,,,,,,,,,,,,,,,,,,,,,,0,0,0,0,0
2.5166,1783189711.1447,1,1,2.0000,0.0000,1.44681,0.21654,-2.78170,0.99432,1.57080,0.00001,-0.14512,-0.38002,0.04220,,,,,,,,,,,,,,,,,,,,,,,,,,0,0,0,0,0
2.5170,1783189711.1450,1,1,2.0000,0.0000,1.44681,0.21654,-2.78170,0.99432,1.57080,0.00001,-0.14512,-0.38002,0.04220,,,,,,,,,,,,,,,,,,,,,,,,,,0,0,0,0,0
2.5314,1783189711.1594,1,1,2.0000,0.0000,1.44681,0.21647,-2.78171,0.99441,1.57080,0.00001,-0.14512,-0.38002,0.04218,,,,,,,,,,,,,,,,,,,,,,,,,,0,0,0,0,0
2.5399,1783189711.1679,1,1,2.0000,0.0000,1.44681,0.21637,-2.78174,0.99453,1.57080,0.00001,-0.14512,-0.38002,0.04216,,,,,,,,,,,,,,,,,,,,,,,,,,0,0,0,0,0
2.5514,1783189711.1794,1,1,2.0000,0.0000,1.44681,0.21630,-2.78176,0.99463,1.57080,0.00001,-0.14512,-0.38002,0.04214,,,,,,,,,,,,,,,,,,,,,,,,,,0,0,0,0,0
2.5618,1783189711.1898,1,1,2.0000,0.0000,1.44681,0.21621,-2.78178,0.99473,1.57080,0.00001,-0.14512,-0.38002,0.04212,,,,,,,,,,,,,,,,,,,,,,,,,,0,0,0,0,0
2.5667,1783189711.1947,1,1,2.0000,0.0000,1.44681,0.21608,-2.78181,0.99490,1.57080,0.00001,-0.14512,-0.38002,0.04208,,,,,,,,,,,,,,,,,,,,,,,,,,0,0,0,0,0
2.5827,1783189711.2108,1,1,2.0000,0.0000,1.44681,0.21593,-2.78185,0.99509,1.57080,0.00001,-0.14512,-0.38002,0.04204,,,,,,,,,,,,,,,,,,,,,,,,,,0,0,0,0,0
2.5890,1783189711.2170,1,1,2.0000,0.0000,1.44681,0.21590,-2.78185,0.99512,1.57080,0.00001,-0.14512,-0.38002,0.04204,,,,,,,,,,,,,,,,,,,,,,,,,,0,0,0,0,0
2.5893,1783189711.2174,1,1,2.0000,0.0000,1.44681,0.21590,-2.78185,0.99512,1.57080,0.00001,-0.14512,-0.38002,0.04204,,,,,,,,,,,,,,,,,,,,,,,,,,0,0,0,0,0
2.5987,1783189711.2267,1,1,2.0000,0.0000,1.44681,0.21576,-2.78189,0.99529,1.57080,0.00001,-0.14512,-0.38002,0.04200,,,,,,,,,,,,,,,,,,,,,,,,,,0,0,0,0,0
2.6067,1783189711.2348,1,1,2.0000,0.0000,1.44681,0.21570,-2.78190,0.99537,1.57080,0.00001,-0.14512,-0.38002,0.04199,,,,,,,,,,,,,,,,,,,,,,,,,,0,0,0,0,0
2.6070,1783189711.2350,1,1,2.0000,0.0000,1.44681,0.21570,-2.78190,0.99537,1.57080,0.00001,-0.14512,-0.38002,0.04199,,,,,,,,,,,,,,,,,,,,,,,,,,0,0,0,0,0
2.6165,1783189711.2445,1,1,2.0000,0.0000,1.44681,0.21566,-2.78192,0.99543,1.57080,0.00001,-0.14512,-0.38002,0.04197,,,,,,,,,,,,,,,,,,,,,,,,,,0,0,0,0,0
2.6168,1783189711.2448,1,1,2.0000,0.0000,1.44681,0.21566,-2.78192,0.99543,1.57080,0.00001,-0.14512,-0.38002,0.04197,,,,,,,,,,,,,,,,,,,,,,,,,,0,0,0,0,0
2.6309,1783189711.2589,1,1,2.0000,0.0000,1.44681,0.21540,-2.78198,0.99575,1.57080,0.00001,-0.14512,-0.38002,0.04191,,,,,,,,,,,,,,,,,,,,,,,,,,0,0,0,0,0
2.6368,1783189711.2648,1,1,2.0000,0.0000,1.44681,0.21533,-2.78200,0.99583,1.57080,0.00001,-0.14512,-0.38002,0.04189,,,,,,,,,,,,,,,,,,,,,,,,,,0,0,0,0,0
2.6467,1783189711.2747,1,1,2.0000,0.0000,1.44681,0.21529,-2.78200,0.99588,1.57080,0.00001,-0.14512,-0.38002,0.04188,,,,,,,,,,,,,,,,,,,,,,,,,,0,0,0,0,0
2.6586,1783189711.2866,1,1,2.0000,0.0000,1.44681,0.21516,-2.78204,0.99605,1.57080,0.00001,-0.14512,-0.38002,0.04185,,,,,,,,,,,,,,,,,,,,,,,,,,0,0,0,0,0
2.6667,1783189711.2947,1,1,2.0000,0.0000,1.44681,0.21510,-2.78205,0.99612,1.57080,0.00001,-0.14512,-0.38002,0.04183,,,,,,,,,,,,,,,,,,,,,,,,,,0,0,0,0,0
2.6895,1783189711.3176,1,1,2.0000,0.0000,1.44681,0.21486,-2.78211,0.99641,1.57080,0.00001,-0.14512,-0.38002,0.04177,,,,,,,,,,,,,,,,,,,,,,,,,,0,0,0,0,0
2.6899,1783189711.3179,1,1,2.0000,0.0000,1.44681,0.21486,-2.78211,0.99641,1.57080,0.00001,-0.14512,-0.38002,0.04177,,,,,,,,,,,,,,,,,,,,,,,,,,0,0,0,0,0
2.6970,1783189711.3250,1,1,2.0000,0.0000,1.44681,0.21472,-2.78215,0.99659,1.57080,0.00001,-0.14512,-0.38002,0.04174,,,,,,,,,,,,,,,,,,,,,,,,,,0,0,0,0,0
2.7077,1783189711.3357,1,1,2.0000,0.0000,1.44681,0.21469,-2.78215,0.99663,1.57080,0.00001,-0.14512,-0.38002,0.04173,,,,,,,,,,,,,,,,,,,,,,,,,,0,0,0,0,0
2.7180,1783189711.3460,1,1,2.0000,0.0000,1.44681,0.21460,-2.78217,0.99674,1.57080,0.00001,-0.14512,-0.38002,0.04171,,,,,,,,,,,,,,,,,,,,,,,,,,0,0,0,0,0
2.7300,1783189711.3580,1,1,2.0000,0.0000,1.44681,0.21449,-2.78220,0.99688,1.57080,0.00002,-0.14512,-0.38002,0.04168,,,,,,,,,,,,,,,,,,,,,,,,,,0,0,0,0,0
2.7307,1783189711.3587,1,1,2.0000,0.0000,1.44681,0.21447,-2.78220,0.99690,1.57080,0.00002,-0.14512,-0.38002,0.04167,,,,,,,,,,,,,,,,,,,,,,,,,,0,0,0,0,0
2.7378,1783189711.3658,1,1,2.0000,0.0000,1.44681,0.21444,-2.78221,0.99694,1.57080,0.00002,-0.14512,-0.38002,0.04166,,,,,,,,,,,,,,,,,,,,,,,,,,0,0,0,0,0
2.7381,1783189711.3661,1,1,2.0000,0.0000,1.44681,0.21444,-2.78221,0.99694,1.57080,0.00002,-0.14512,-0.38002,0.04166,,,,,,,,,,,,,,,,,,,,,,,,,,0,0,0,0,0
2.7476,1783189711.3757,1,1,2.0000,0.0000,1.44681,0.21425,-2.78226,0.99717,1.57080,0.00002,-0.14512,-0.38002,0.04162,,,,,,,,,,,,,,,,,,,,,,,,,,0,0,0,0,0
2.7600,1783189711.3881,1,1,2.0000,0.0000,1.44681,0.21411,-2.78229,0.99735,1.57080,0.00002,-0.14512,-0.38002,0.04158,,,,,,,,,,,,,,,,,,,,,,,,,,0,0,0,0,0
2.7674,1783189711.3954,1,1,2.0000,0.0000,1.44681,0.21408,-2.78230,0.99739,1.57080,0.00002,-0.14512,-0.38002,0.04157,,,,,,,,,,,,,,,,,,,,,,,,,,0,0,0,0,0
2.7777,1783189711.4058,1,1,2.0000,0.0000,1.44681,0.21399,-2.78232,0.99750,1.57080,0.00002,-0.14512,-0.38002,0.04155,,,,,,,,,,,,,,,,,,,,,,,,,,0,0,0,0,0
2.7909,1783189711.4189,1,1,2.0000,0.0000,1.44681,0.21386,-2.78235,0.99765,1.57080,0.00002,-0.14512,-0.38002,0.04152,,,,,,,,,,,,,,,,,,,,,,,,,,0,0,0,0,0
2.7912,1783189711.4193,1,1,2.0000,0.0000,1.44681,0.21386,-2.78235,0.99765,1.57080,0.00002,-0.14512,-0.38002,0.04152,,,,,,,,,,,,,,,,,,,,,,,,,,0,0,0,0,0
2.7968,1783189711.4248,1,1,2.0000,0.0000,1.44681,0.21383,-2.78236,0.99770,1.57080,0.00002,-0.14512,-0.38002,0.04151,,,,,,,,,,,,,,,,,,,,,,,,,,0,0,0,0,0
2.8074,1783189711.4354,1,1,2.0000,0.0000,1.44681,0.21364,-2.78241,0.99793,1.57080,0.00002,-0.14512,-0.38002,0.04146,,,,,,,,,,,,,,,,,,,,,,,,,,0,0,0,0,0
2.8173,1783189711.4454,1,1,2.0000,0.0000,1.44681,0.21350,-2.78244,0.99811,1.57080,0.00002,-0.14512,-0.38002,0.04143,,,,,,,,,,,,,,,,,,,,,,,,,,0,0,0,0,0
2.8328,1783189711.4608,1,1,2.0000,0.0000,1.44681,0.21343,-2.78246,0.99820,1.57080,0.00002,-0.14512,-0.38002,0.04141,,,,,,,,,,,,,,,,,,,,,,,,,,0,0,0,0,0
2.8422,1783189711.4703,1,1,2.0000,0.0000,1.44681,0.21333,-2.78248,0.99832,1.57080,0.00002,-0.14512,-0.38002,0.04138,,,,,,,,,,,,,,,,,,,,,,,,,,0,0,0,0,0
2.8487,1783189711.4768,1,1,2.0000,0.0000,1.44681,0.21327,-2.78250,0.99840,1.57080,0.00002,-0.14512,-0.38002,0.04137,,,,,,,,,,,,,,,,,,,,,,,,,,0,0,0,0,0
2.8567,1783189711.4847,1,1,2.0000,0.0000,1.44681,0.21322,-2.78251,0.99846,1.57080,0.00002,-0.14512,-0.38002,0.04135,,,,,,,,,,,,,,,,,,,,,,,,,,0,0,0,0,0
2.8694,1783189711.4974,1,1,2.0000,0.0000,1.44681,0.21303,-2.78256,0.99869,1.57080,0.00002,-0.14512,-0.38002,0.04131,,,,,,,,,,,,,,,,,,,,,,,,,,0,0,0,0,0
2.8696,1783189711.4976,1,1,2.0000,0.0000,1.44681,0.21303,-2.78256,0.99869,1.57080,0.00002,-0.14512,-0.38002,0.04131,,,,,,,,,,,,,,,,,,,,,,,,,,0,0,0,0,0
2.8768,1783189711.5049,1,1,2.0000,0.0000,1.44681,0.21289,-2.78259,0.99887,1.57080,0.00002,-0.14512,-0.38002,0.04127,,,,,,,,,,,,,,,,,,,,,,,,,,0,0,0,0,0
2.8773,1783189711.5053,1,1,2.0000,0.0000,1.44681,0.21289,-2.78259,0.99887,1.57080,0.00002,-0.14512,-0.38002,0.04127,,,,,,,,,,,,,,,,,,,,,,,,,,0,0,0,0,0
2.8927,1783189711.5207,1,1,2.0000,0.0000,1.44681,0.21282,-2.78261,0.99895,1.57080,0.00002,-0.14512,-0.38002,0.04125,,,,,,,,,,,,,,,,,,,,,,,,,,0,0,0,0,0
2.8930,1783189711.5210,1,1,2.0000,0.0000,1.44681,0.21282,-2.78261,0.99895,1.57080,0.00002,-0.14512,-0.38002,0.04125,,,,,,,,,,,,,,,,,,,,,,,,,,0,0,0,0,0
2.8968,1783189711.5248,1,1,2.0000,0.0000,1.44681,0.21277,-2.78262,0.99901,1.57080,0.00002,-0.14512,-0.38002,0.04124,,,,,,,,,,,,,,,,,,,,,,,,,,0,0,0,0,0
2.8971,1783189711.5251,1,1,2.0000,0.0000,1.44681,0.21277,-2.78262,0.99901,1.57080,0.00002,-0.14512,-0.38002,0.04124,,,,,,,,,,,,,,,,,,,,,,,,,,0,0,0,0,0
2.9080,1783189711.5361,1,1,2.0000,0.0000,1.44681,0.21266,-2.78265,0.99916,1.57080,0.00002,-0.14512,-0.38002,0.04121,,,,,,,,,,,,,,,,,,,,,,,,,,0,0,0,0,0
2.9083,1783189711.5363,1,1,2.0000,0.0000,1.44681,0.21266,-2.78265,0.99916,1.57080,0.00002,-0.14512,-0.38002,0.04121,,,,,,,,,,,,,,,,,,,,,,,,,,0,0,0,0,0
2.9190,1783189711.5471,1,1,2.0000,0.0000,1.44681,0.21256,-2.78267,0.99928,1.57080,0.00002,-0.14512,-0.38002,0.04119,,,,,,,,,,,,,,,,,,,,,,,,,,0,0,0,0,0
2.9286,1783189711.5566,1,1,2.0000,0.0000,1.44681,0.21242,-2.78270,0.99945,1.57080,0.00002,-0.14512,-0.38002,0.04115,,,,,,,,,,,,,,,,,,,,,,,,,,0,0,0,0,0
2.9390,1783189711.5670,1,1,2.0000,0.0000,1.44681,0.21228,-2.78274,0.99963,1.57080,0.00002,-0.14512,-0.38002,0.04112,,,,,,,,,,,,,,,,,,,,,,,,,,0,0,0,0,0
2.9519,1783189711.5799,1,1,2.0000,0.0000,1.44681,0.21218,-2.78276,0.99975,1.57080,0.00002,-0.14512,-0.38002,0.04109,,,,,,,,,,,,,,,,,,,,,,,,,,0,0,0,0,0
2.9640,1783189711.5920,1,1,2.0000,0.0000,1.44681,0.21198,-2.78281,1.00000,1.57080,0.00002,-0.14512,-0.38002,0.04104,,,,,,,,,,,,,,,,,,,,,,,,,,0,0,0,0,0
2.9733,1783189711.6013,1,1,2.0000,0.0000,1.44681,0.21197,-2.78282,1.00001,1.57080,0.00002,-0.14512,-0.38002,0.04104,,,,,,,,,,,,,,,,,,,,,,,,,,0,0,0,0,0
2.9737,1783189711.6017,1,1,2.0000,0.0000,1.44681,0.21197,-2.78282,1.00001,1.57080,0.00002,-0.14512,-0.38002,0.04104,,,,,,,,,,,,,,,,,,,,,,,,,,0,0,0,0,0
2.9801,1783189711.6081,1,1,2.0000,0.0000,1.44681,0.21189,-2.78284,1.00012,1.57080,0.00002,-0.14512,-0.38002,0.04102,,,,,,,,,,,,,,,,,,,,,,,,,,0,0,0,0,0
3.0028,1783189711.6308,1,1,2.0000,0.0000,1.44681,0.21161,-2.78290,1.00045,1.57080,0.00002,-0.14512,-0.38002,0.04095,,,,,,,,,,,,,,,,,,,,,,,,,,0,0,0,0,0
3.0036,1783189711.6316,1,1,2.0000,0.0000,1.44681,0.21160,-2.78290,1.00047,1.57080,0.00002,-0.14512,-0.38002,0.04094,,,,,,,,,,,,,,,,,,,,,,,,,,0,0,0,0,0
3.0298,1783189711.6578,1,1,2.0000,0.0000,1.44681,0.21131,-2.78297,1.00083,1.57080,0.00002,-0.14512,-0.38002,0.04087,,,,,,,,,,,,,,,,,,,,,,,,,,0,0,0,0,0
3.0303,1783189711.6583,1,1,2.0000,0.0000,1.44681,0.21131,-2.78297,1.00083,1.57080,0.00002,-0.14512,-0.38002,0.04087,,,,,,,,,,,,,,,,,,,,,,,,,,0,0,0,0,0
3.0309,1783189711.6589,1,1,2.0000,0.0000,1.44681,0.21130,-2.78298,1.00084,1.57080,0.00002,-0.14512,-0.38002,0.04087,,,,,,,,,,,,,,,,,,,,,,,,,,0,0,0,0,0
3.0417,1783189711.6697,1,1,2.0000,0.0000,1.44681,0.21122,-2.78300,1.00094,1.57080,0.00002,-0.14512,-0.38002,0.04085,,,,,,,,,,,,,,,,,,,,,,,,,,0,0,0,0,0
3.0537,1783189711.6817,1,1,2.0000,0.0000,1.44681,0.21102,-2.78305,1.00120,1.57080,0.00002,-0.14512,-0.38002,0.04080,,,,,,,,,,,,,,,,,,,,,,,,,,0,0,0,0,0
3.0539,1783189711.6820,1,1,2.0000,0.0000,1.44681,0.21102,-2.78305,1.00120,1.57080,0.00002,-0.14512,-0.38002,0.04080,,,,,,,,,,,,,,,,,,,,,,,,,,0,0,0,0,0
3.0579,1783189711.6859,1,1,2.0000,0.0000,1.44681,0.21095,-2.78306,1.00128,1.57080,0.00002,-0.14512,-0.38002,0.04078,,,,,,,,,,,,,,,,,,,,,,,,,,0,0,0,0,0
3.0583,1783189711.6863,1,1,2.0000,0.0000,1.44681,0.21095,-2.78306,1.00128,1.57080,0.00002,-0.14512,-0.38002,0.04078,,,,,,,,,,,,,,,,,,,,,,,,,,0,0,0,0,0
3.0674,1783189711.6954,1,1,2.0000,0.0000,1.44681,0.21090,-2.78307,1.00134,1.57080,0.00002,-0.14512,-0.38002,0.04077,,,,,,,,,,,,,,,,,,,,,,,,,,0,0,0,0,0
3.0811,1783189711.7091,1,1,2.0000,0.0000,1.44681,0.21072,-2.78312,1.00156,1.57080,0.00002,-0.14512,-0.38002,0.04072,,,,,,,,,,,,,,,,,,,,,,,,,,0,0,0,0,0
3.0974,1783189711.7254,1,1,2.0000,0.0000,1.44681,0.21057,-2.78315,1.00175,1.57080,0.00002,-0.14512,-0.38002,0.04068,,,,,,,,,,,,,,,,,,,,,,,,,,0,0,0,0,0
3.1027,1783189711.7307,1,1,2.0000,0.0000,1.44681,0.21054,-2.78316,1.00178,1.57080,0.00002,-0.14512,-0.38002,0.04068,,,,,,,,,,,,,,,,,,,,,,,,,,0,0,0,0,0
3.1068,1783189711.7348,1,1,2.0000,0.0000,1.44681,0.21046,-2.78318,1.00189,1.57080,0.00002,-0.14512,-0.38002,0.04065,,,,,,,,,,,,,,,,,,,,,,,,,,0,0,0,0,0
3.1169,1783189711.7449,1,1,2.0000,0.0000,1.44681,0.21034,-2.78321,1.00203,1.57080,0.00002,-0.14512,-0.38002,0.04062,,,,,,,,,,,,,,,,,,,,,,,,,,0,0,0,0,0
3.1286,1783189711.7567,1,1,2.0000,0.0000,1.44681,0.21029,-2.78322,1.00209,1.57080,0.00002,-0.14512,-0.38002,0.04061,,,,,,,,,,,,,,,,,,,,,,,,,,0,0,0,0,0
3.1399,1783189711.7679,1,1,2.0000,0.0000,1.44681,0.21011,-2.78327,1.00232,1.57080,0.00002,-0.14512,-0.38002,0.04056,,,,,,,,,,,,,,,,,,,,,,,,,,0,0,0,0,0
3.1490,1783189711.7771,1,1,2.0000,0.0000,1.44681,0.20996,-2.78330,1.00250,1.57080,0.00002,-0.14512,-0.38002,0.04053,,,,,,,,,,,,,,,,,,,,,,,,,,0,0,0,0,0
3.1567,1783189711.7847,1,1,2.0000,0.0000,1.44681,0.20995,-2.78330,1.00251,1.57080,0.00002,-0.14512,-0.38002,0.04053,,,,,,,,,,,,,,,,,,,,,,,,,,0,0,0,0,0
3.1673,1783189711.7953,1,1,2.0000,0.0000,1.44681,0.20984,-2.78333,1.00265,1.57080,0.00002,-0.14512,-0.38002,0.04050,,,,,,,,,,,,,,,,,,,,,,,,,,0,0,0,0,0
3.1766,1783189711.8046,1,1,2.0000,0.0000,1.44680,0.20973,-2.78336,1.00279,1.57080,0.00002,-0.14512,-0.38002,0.04047,,,,,,,,,,,,,,,,,,,,,,,,,,0,0,0,0,0
3.2012,1783189711.8292,1,1,2.0000,0.0000,1.44680,0.20949,-2.78341,1.00309,1.57079,0.00002,-0.14512,-0.38002,0.04041,,,,,,,,,,,,,,,,,,,,,,,,,,0,0,0,0,0
3.2015,1783189711.8295,1,1,2.0000,0.0000,1.44680,0.20949,-2.78341,1.00309,1.57079,0.00002,-0.14512,-0.38002,0.04041,,,,,,,,,,,,,,,,,,,,,,,,,,0,0,0,0,0
3.2091,1783189711.8371,1,1,2.0000,0.0000,1.44680,0.20935,-2.78345,1.00326,1.57079,0.00002,-0.14512,-0.38002,0.04037,,,,,,,,,,,,,,,,,,,,,,,,,,0,0,0,0,0
3.2094,1783189711.8374,1,1,2.0000,0.0000,1.44680,0.20935,-2.78345,1.00326,1.57079,0.00002,-0.14512,-0.38002,0.04037,,,,,,,,,,,,,,,,,,,,,,,,,,0,0,0,0,0
3.2169,1783189711.8449,1,1,2.0000,0.0000,1.44680,0.20934,-2.78345,1.00328,1.57079,0.00002,-0.14512,-0.38002,0.04037,,,,,,,,,,,,,,,,,,,,,,,,,,0,0,0,0,0
3.2272,1783189711.8552,1,1,2.0000,0.0000,1.44680,0.20923,-2.78348,1.00341,1.57079,0.00002,-0.14512,-0.38002,0.04034,,,,,,,,,,,,,,,,,,,,,,,,,,0,0,0,0,0
3.2430,1783189711.8710,1,1,2.0000,0.0000,1.44680,0.20910,-2.78351,1.00357,1.57079,0.00002,-0.14512,-0.38002,0.04031,,,,,,,,,,,,,,,,,,,,,,,,,,0,0,0,0,0
3.2475,1783189711.8755,1,1,2.0000,0.0000,1.44680,0.20907,-2.78352,1.00361,1.57079,0.00002,-0.14512,-0.38002,0.04030,,,,,,,,,,,,,,,,,,,,,,,,,,0,0,0,0,0
3.2583,1783189711.8863,1,1,2.0000,0.0000,1.44680,0.20895,-2.78354,1.00376,1.57079,0.00002,-0.14512,-0.38002,0.04027,,,,,,,,,,,,,,,,,,,,,,,,,,0,0,0,0,0
3.2703,1783189711.8983,1,1,2.0000,0.0000,1.44680,0.20873,-2.78360,1.00403,1.57079,0.00002,-0.14512,-0.38002,0.04022,,,,,,,,,,,,,,,,,,,,,,,,,,0,0,0,0,0
3.2766,1783189711.9046,1,1,2.0000,0.0000,1.44680,0.20873,-2.78360,1.00404,1.57079,0.00002,-0.14512,-0.38002,0.04022,,,,,,,,,,,,,,,,,,,,,,,,,,0,0,0,0,0
3.2769,1783189711.9049,1,1,2.0000,0.0000,1.44680,0.20873,-2.78360,1.00404,1.57079,0.00002,-0.14512,-0.38002,0.04022,,,,,,,,,,,,,,,,,,,,,,,,,,0,0,0,0,0
3.2867,1783189711.9147,1,1,2.0000,0.0000,1.44680,0.20862,-2.78362,1.00417,1.57079,0.00002,-0.14512,-0.38002,0.04019,,,,,,,,,,,,,,,,,,,,,,,,,,0,0,0,0,0
3.3030,1783189711.9310,1,1,2.0000,0.0000,1.44680,0.20849,-2.78366,1.00433,1.57079,0.00002,-0.14512,-0.38002,0.04016,,,,,,,,,,,,,,,,,,,,,,,,,,0,0,0,0,0
3.3033,1783189711.9314,1,1,2.0000,0.0000,1.44680,0.20849,-2.78366,1.00433,1.57079,0.00002,-0.14512,-0.38002,0.04016,,,,,,,,,,,,,,,,,,,,,,,,,,0,0,0,0,0
3.3070,1783189711.9350,1,1,2.0000,0.0000,1.44680,0.20845,-2.78366,1.00438,1.57079,0.00002,-0.14512,-0.38002,0.04015,,,,,,,,,,,,,,,,,,,,,,,,,,0,0,0,0,0
3.3073,1783189711.9353,1,1,2.0000,0.0000,1.44680,0.20845,-2.78366,1.00438,1.57079,0.00002,-0.14512,-0.38002,0.04015,,,,,,,,,,,,,,,,,,,,,,,,,,0,0,0,0,0
3.3224,1783189711.9504,1,1,2.0000,0.0000,1.44680,0.20826,-2.78371,1.00461,1.57079,0.00002,-0.14512,-0.38002,0.04010,,,,,,,,,,,,,,,,,,,,,,,,,,0,0,0,0,0
3.3276,1783189711.9557,1,1,2.0000,0.0000,1.44680,0.20812,-2.78374,1.00479,1.57079,0.00002,-0.14512,-0.38002,0.04006,,,,,,,,,,,,,,,,,,,,,,,,,,0,0,0,0,0
3.3449,1783189711.9729,1,1,2.0000,0.0000,1.44680,0.20805,-2.78376,1.00487,1.57079,0.00002,-0.14512,-0.38002,0.04005,,,,,,,,,,,,,,,,,,,,,,,,,,0,0,0,0,0
3.3490,1783189711.9770,1,1,2.0000,0.0000,1.44680,0.20800,-2.78377,1.00493,1.57079,0.00002,-0.14512,-0.38002,0.04003,,,,,,,,,,,,,,,,,,,,,,,,,,0,0,0,0,0
3.3630,1783189711.9910,1,1,2.0000,0.0000,1.44680,0.20787,-2.78380,1.00509,1.57079,0.00002,-0.14512,-0.38002,0.04000,,,,,,,,,,,,,,,,,,,,,,,,,,0,0,0,0,0
3.3669,1783189711.9949,1,1,2.0000,0.0000,1.44680,0.20784,-2.78381,1.00514,1.57079,0.00002,-0.14512,-0.38002,0.03999,,,,,,,,,,,,,,,,,,,,,,,,,,0,0,0,0,0
3.3671,1783189711.9951,1,1,2.0000,0.0000,1.44680,0.20784,-2.78381,1.00514,1.57079,0.00002,-0.14512,-0.38002,0.03999,,,,,,,,,,,,,,,,,,,,,,,,,,0,0,0,0,0
3.3878,1783189712.0158,1,1,2.0000,0.0000,1.44680,0.20751,-2.78389,1.00555,1.57079,0.00002,-0.14512,-0.38002,0.03991,,,,,,,,,,,,,,,,,,,,,,,,,,0,0,0,0,0
3.3891,1783189712.0171,1,1,2.0000,0.0000,1.44680,0.20751,-2.78389,1.00555,1.57079,0.00002,-0.14512,-0.38002,0.03991,,,,,,,,,,,,,,,,,,,,,,,,,,0,0,0,0,0
3.3895,1783189712.0175,1,1,2.0000,0.0000,1.44680,0.20751,-2.78389,1.00555,1.57079,0.00002,-0.14512,-0.38002,0.03991,,,,,,,,,,,,,,,,,,,,,,,,,,0,0,0,0,0
3.4088,1783189712.0368,1,1,2.0000,0.0000,1.44680,0.20739,-2.78392,1.00570,1.57079,0.00002,-0.14512,-0.38002,0.03988,,,,,,,,,,,,,,,,,,,,,,,,,,0,0,0,0,0
3.4092,1783189712.0372,1,1,2.0000,0.0000,1.44680,0.20739,-2.78392,1.00570,1.57079,0.00002,-0.14512,-0.38002,0.03988,,,,,,,,,,,,,,,,,,,,,,,,,,0,0,0,0,0
3.4096,1783189712.0376,1,1,2.0000,0.0000,1.44680,0.20739,-2.78392,1.00570,1.57079,0.00002,-0.14512,-0.38002,0.03988,,,,,,,,,,,,,,,,,,,,,,,,,,0,0,0,0,0
3.4172,1783189712.0452,1,1,2.0000,0.0000,1.44680,0.20727,-2.78395,1.00584,1.57079,0.00002,-0.14512,-0.38002,0.03985,,,,,,,,,,,,,,,,,,,,,,,,,,0,0,0,0,0
3.4279,1783189712.0559,1,1,2.0000,0.0000,1.44680,0.20722,-2.78396,1.00590,1.57079,0.00002,-0.14512,-0.38002,0.03984,,,,,,,,,,,,,,,,,,,,,,,,,,0,0,0,0,0
3.4283,1783189712.0563,1,1,2.0000,0.0000,1.44680,0.20722,-2.78396,1.00590,1.57079,0.00002,-0.14512,-0.38002,0.03984,,,,,,,,,,,,,,,,,,,,,,,,,,0,0,0,0,0
3.4412,1783189712.0692,1,1,2.0000,0.0000,1.44680,0.20703,-2.78400,1.00613,1.57079,0.00002,-0.14512,-0.38002,0.03979,,,,,,,,,,,,,,,,,,,,,,,,,,0,0,0,0,0
3.4535,1783189712.0815,1,1,2.0000,0.0000,1.44680,0.20689,-2.78404,1.00631,1.57079,0.00002,-0.14512,-0.38002,0.03975,,,,,,,,,,,,,,,,,,,,,,,,,,0,0,0,0,0
3.4569,1783189712.0849,1,1,2.0000,0.0000,1.44680,0.20688,-2.78404,1.00633,1.57079,0.00002,-0.14512,-0.38002,0.03975,,,,,,,,,,,,,,,,,,,,,,,,,,0,0,0,0,0
3.4572,1783189712.0852,1,1,2.0000,0.0000,1.44680,0.20688,-2.78404,1.00633,1.57079,0.00002,-0.14512,-0.38002,0.03975,,,,,,,,,,,,,,,,,,,,,,,,,,0,0,0,0,0
3.4712,1783189712.0992,1,1,2.0000,0.0000,1.44680,0.20666,-2.78409,1.00660,1.57079,0.00002,-0.14512,-0.38002,0.03970,,,,,,,,,,,,,,,,,,,,,,,,,,0,0,0,0,0
3.4897,1783189712.1177,1,1,2.0000,0.0000,1.44680,0.20654,-2.78412,1.00674,1.57079,0.00002,-0.14512,-0.38002,0.03967,,,,,,,,,,,,,,,,,,,,,,,,,,0,0,0,0,0
3.4900,1783189712.1181,1,1,2.0000,0.0000,1.44680,0.20654,-2.78412,1.00674,1.57079,0.00002,-0.14512,-0.38002,0.03967,,,,,,,,,,,,,,,,,,,,,,,,,,0,0,0,0,0
3.4903,1783189712.1184,1,1,2.0000,0.0000,1.44680,0.20654,-2.78412,1.00674,1.57079,0.00002,-0.14512,-0.38002,0.03967,,,,,,,,,,,,,,,,,,,,,,,,,,0,0,0,0,0
3.5083,1783189712.1363,1,1,2.0000,0.0000,1.44680,0.20622,-2.78420,1.00714,1.57079,0.00002,-0.14512,-0.38002,0.03958,,,,,,,,,,,,,,,,,,,,,,,,,,0,0,0,0,0
3.5195,1783189712.1475,1,1,2.0000,0.0000,1.44680,0.20617,-2.78421,1.00720,1.57079,0.00002,-0.14512,-0.38002,0.03957,,,,,,,,,,,,,,,,,,,,,,,,,,0,0,0,0,0
3.5278,1783189712.1558,1,1,2.0000,0.0000,1.44680,0.20606,-2.78424,1.00734,1.57079,0.00002,-0.14512,-0.38002,0.03954,,,,,,,,,,,,,,,,,,,,,,,,,,0,0,0,0,0
3.5282,1783189712.1562,1,1,2.0000,0.0000,1.44680,0.20606,-2.78424,1.00734,1.57079,0.00002,-0.14512,-0.38002,0.03954,,,,,,,,,,,,,,,,,,,,,,,,,,0,0,0,0,0
3.5362,1783189712.1642,1,1,2.0000,0.0000,1.44680,0.20592,-2.78427,1.00752,1.57079,0.00002,-0.14512,-0.38002,0.03951,,,,,,,,,,,,,,,,,,,,,,,,,,0,0,0,0,0
3.5365,1783189712.1645,1,1,2.0000,0.0000,1.44680,0.20592,-2.78427,1.00752,1.57079,0.00002,-0.14512,-0.38002,0.03951,,,,,,,,,,,,,,,,,,,,,,,,,,0,0,0,0,0
3.5554,1783189712.1834,1,1,2.0000,0.0000,1.44680,0.20576,-2.78431,1.00771,1.57079,0.00002,-0.14512,-0.38002,0.03947,,,,,,,,,,,,,,,,,,,,,,,,,,0,0,0,0,0
3.5558,1783189712.1838,1,1,2.0000,0.0000,1.44680,0.20576,-2.78431,1.00771,1.57079,0.00002,-0.14512,-0.38002,0.03947,,,,,,,,,,,,,,,,,,,,,,,,,,0,0,0,0,0
3.5608,1783189712.1888,1,1,2.0000,0.0000,1.44680,0.20569,-2.78432,1.00780,1.57079,0.00002,-0.14512,-0.38002,0.03945,,,,,,,,,,,,,,,,,,,,,,,,,,0,0,0,0,0
3.5737,1783189712.2017,1,1,2.0000,0.0000,1.44680,0.20555,-2.78436,1.00798,1.57079,0.00002,-0.14512,-0.38002,0.03942,,,,,,,,,,,,,,,,,,,,,,,,,,0,0,0,0,0
3.5859,1783189712.2139,1,1,2.0000,0.0000,1.44680,0.20545,-2.78438,1.00810,1.57079,0.00002,-0.14512,-0.38002,0.03939,,,,,,,,,,,,,,,,,,,,,,,,,,0,0,0,0,0
3.5894,1783189712.2174,1,1,2.0000,0.0000,1.44680,0.20539,-2.78440,1.00817,1.57079,0.00002,-0.14512,-0.38002,0.03938,,,,,,,,,,,,,,,,,,,,,,,,,,0,0,0,0,0
3.5897,1783189712.2177,1,1,2.0000,0.0000,1.44680,0.20539,-2.78440,1.00817,1.57079,0.00002,-0.14512,-0.38002,0.03938,,,,,,,,,,,,,,,,,,,,,,,,,,0,0,0,0,0
3.6129,1783189712.2409,1,1,2.0000,0.0000,1.44680,0.20515,-2.78445,1.00847,1.57079,0.00002,-0.14512,-0.38002,0.03932,,,,,,,,,,,,,,,,,,,,,,,,,,0,0,0,0,0
3.6245,1783189712.2525,1,1,2.0000,0.0000,1.44680,0.20494,-2.78450,1.00872,1.57079,0.00002,-0.14512,-0.38002,0.03926,,,,,,,,,,,,,,,,,,,,,,,,,,0,0,0,0,0
3.6313,1783189712.2594,1,1,2.0000,0.0000,1.44680,0.20487,-2.78452,1.00881,1.57079,0.00002,-0.14512,-0.38002,0.03925,,,,,,,,,,,,,,,,,,,,,,,,,,0,0,0,0,0
3.6317,1783189712.2597,1,1,2.0000,0.0000,1.44680,0.20487,-2.78452,1.00881,1.57079,0.00002,-0.14512,-0.38002,0.03925,,,,,,,,,,,,,,,,,,,,,,,,,,0,0,0,0,0
3.6399,1783189712.2679,1,1,2.0000,0.0000,1.44680,0.20483,-2.78453,1.00887,1.57079,0.00002,-0.14512,-0.38002,0.03923,,,,,,,,,,,,,,,,,,,,,,,,,,0,0,0,0,0
3.6402,1783189712.2682,1,1,2.0000,0.0000,1.44680,0.20483,-2.78453,1.00887,1.57079,0.00002,-0.14512,-0.38002,0.03923,,,,,,,,,,,,,,,,,,,,,,,,,,0,0,0,0,0
3.6538,1783189712.2818,1,1,2.0000,0.0000,1.44680,0.20464,-2.78457,1.00909,1.57079,0.00002,-0.14512,-0.38002,0.03919,,,,,,,,,,,,,,,,,,,,,,,,,,0,0,0,0,0
3.6602,1783189712.2882,1,1,2.0000,0.0000,1.44680,0.20457,-2.78459,1.00918,1.57079,0.00002,-0.14512,-0.38002,0.03917,,,,,,,,,,,,,,,,,,,,,,,,,,0,0,0,0,0
3.6696,1783189712.2976,1,1,2.0000,0.0000,1.44680,0.20452,-2.78460,1.00924,1.57079,0.00002,-0.14512,-0.38002,0.03916,,,,,,,,,,,,,,,,,,,,,,,,,,0,0,0,0,0
3.6871,1783189712.3151,1,1,2.0000,0.0000,1.44680,0.20420,-2.78468,1.00964,1.57079,0.00002,-0.14512,-0.38002,0.03908,,,,,,,,,,,,,,,,,,,,,,,,,,0,0,0,0,0
3.6899,1783189712.3179,1,1,2.0000,0.0000,1.44680,0.20420,-2.78468,1.00964,1.57079,0.00002,-0.14512,-0.38002,0.03908,,,,,,,,,,,,,,,,,,,,,,,,,,0,0,0,0,0
3.6903,1783189712.3183,1,1,2.0000,0.0000,1.44680,0.20420,-2.78468,1.00964,1.57079,0.00002,-0.14512,-0.38002,0.03908,,,,,,,,,,,,,,,,,,,,,,,,,,0,0,0,0,0
3.7135,1783189712.3415,1,1,2.0000,0.0000,1.44680,0.20397,-2.78473,1.00993,1.57079,0.00002,-0.14512,-0.38002,0.03902,,,,,,,,,,,,,,,,,,,,,,,,,,0,0,0,0,0
3.7140,1783189712.3420,1,1,2.0000,0.0000,1.44680,0.20397,-2.78473,1.00993,1.57079,0.00002,-0.14512,-0.38002,0.03902,,,,,,,,,,,,,,,,,,,,,,,,,,0,0,0,0,0
3.7197,1783189712.3477,1,1,2.0000,0.0000,1.44680,0.20390,-2.78475,1.01002,1.57079,0.00002,-0.14512,-0.38002,0.03900,,,,,,,,,,,,,,,,,,,,,,,,,,0,0,0,0,0
3.7321,1783189712.3601,1,1,2.0000,0.0000,1.44680,0.20380,-2.78477,1.01014,1.57079,0.00002,-0.14512,-0.38002,0.03898,,,,,,,,,,,,,,,,,,,,,,,,,,0,0,0,0,0
3.7406,1783189712.3686,1,1,2.0000,0.0000,1.44680,0.20367,-2.78480,1.01030,1.57079,0.00002,-0.14512,-0.38002,0.03894,,,,,,,,,,,,,,,,,,,,,,,,,,0,0,0,0,0
3.7408,1783189712.3689,1,1,2.0000,0.0000,1.44680,0.20367,-2.78480,1.01030,1.57079,0.00002,-0.14512,-0.38002,0.03894,,,,,,,,,,,,,,,,,,,,,,,,,,0,0,0,0,0
3.7543,1783189712.3823,1,1,2.0000,0.0000,1.44680,0.20353,-2.78484,1.01048,1.57079,0.00002,-0.14512,-0.38002,0.03891,,,,,,,,,,,,,,,,,,,,,,,,,,0,0,0,0,0
3.7662,1783189712.3942,1,1,2.0000,0.0000,1.44680,0.20343,-2.78486,1.01060,1.57079,0.00002,-0.14512,-0.38002,0.03888,,,,,,,,,,,,,,,,,,,,,,,,,,0,0,0,0,0
3.7737,1783189712.4017,1,1,2.0000,0.0000,1.44680,0.20330,-2.78489,1.01076,1.57079,0.00002,-0.14512,-0.38002,0.03885,,,,,,,,,,,,,,,,,,,,,,,,,,0,0,0,0,0
3.7803,1783189712.4083,1,1,2.0000,0.0000,1.44680,0.20315,-2.78493,1.01094,1.57079,0.00002,-0.14512,-0.38002,0.03881,,,,,,,,,,,,,,,,,,,,,,,,,,0,0,0,0,0
3.7900,1783189712.4180,1,1,2.0000,0.0000,1.44680,0.20314,-2.78493,1.01095,1.57079,0.00002,-0.14512,-0.38002,0.03881,,,,,,,,,,,,,,,,,,,,,,,,,,0,0,0,0,0
3.8021,1783189712.4302,1,1,2.0000,0.0000,1.44680,0.20303,-2.78495,1.01109,1.57079,0.00002,-0.14512,-0.38002,0.03878,,,,,,,,,,,,,,,,,,,,,,,,,,0,0,0,0,0
3.8163,1783189712.4444,1,1,2.0000,0.0000,1.44680,0.20290,-2.78499,1.01125,1.57079,0.00002,-0.14512,-0.38001,0.03875,,,,,,,,,,,,,,,,,,,,,,,,,,0,0,0,0,0
3.8232,1783189712.4512,1,1,2.0000,0.0000,1.44680,0.20281,-2.78501,1.01136,1.57079,0.00002,-0.14512,-0.38001,0.03873,,,,,,,,,,,,,,,,,,,,,,,,,,0,0,0,0,0
3.8298,1783189712.4578,1,1,2.0000,0.0000,1.44680,0.20275,-2.78502,1.01144,1.57079,0.00002,-0.14512,-0.38001,0.03871,,,,,,,,,,,,,,,,,,,,,,,,,,0,0,0,0,0
3.8433,1783189712.4713,1,1,2.0000,0.0000,1.44680,0.20253,-2.78507,1.01170,1.57079,0.00002,-0.14512,-0.38001,0.03866,,,,,,,,,,,,,,,,,,,,,,,,,,0,0,0,0,0
3.8572,1783189712.4852,1,1,2.0000,0.0000,1.44680,0.20246,-2.78509,1.01179,1.57079,0.00002,-0.14512,-0.38001,0.03864,,,,,,,,,,,,,,,,,,,,,,,,,,0,0,0,0,0
3.8643,1783189712.4923,1,1,2.0000,0.0000,1.44680,0.20236,-2.78511,1.01192,1.57079,0.00002,-0.14512,-0.38001,0.03862,,,,,,,,,,,,,,,,,,,,,,,,,,0,0,0,0,0
3.8647,1783189712.4928,1,1,2.0000,0.0000,1.44680,0.20236,-2.78511,1.01192,1.57079,0.00002,-0.14512,-0.38001,0.03862,,,,,,,,,,,,,,,,,,,,,,,,,,0,0,0,0,0
3.8727,1783189712.5007,1,1,2.0000,0.0000,1.44680,0.20229,-2.78513,1.01200,1.57079,0.00002,-0.14512,-0.38001,0.03860,,,,,,,,,,,,,,,,,,,,,,,,,,0,0,0,0,0
3.8808,1783189712.5088,1,1,2.0000,0.0000,1.44680,0.20225,-2.78514,1.01206,1.57079,0.00002,-0.14512,-0.38001,0.03859,,,,,,,,,,,,,,,,,,,,,,,,,,0,0,0,0,0
3.8905,1783189712.5185,1,1,2.0000,0.0000,1.44680,0.20213,-2.78517,1.01220,1.57079,0.00002,-0.14512,-0.38001,0.03856,,,,,,,,,,,,,,,,,,,,,,,,,,0,0,0,0,0
3.9036,1783189712.5316,1,1,2.0000,0.0000,1.44680,0.20191,-2.78522,1.01247,1.57079,0.00002,-0.14512,-0.38001,0.03850,,,,,,,,,,,,,,,,,,,,,,,,,,0,0,0,0,0
3.9171,1783189712.5452,1,1,2.0000,0.0000,1.44680,0.20184,-2.78524,1.01256,1.57079,0.00002,-0.14512,-0.38001,0.03849,,,,,,,,,,,,,,,,,,,,,,,,,,0,0,0,0,0
3.9175,1783189712.5456,1,1,2.0000,0.0000,1.44680,0.20184,-2.78524,1.01256,1.57079,0.00002,-0.14512,-0.38001,0.03849,,,,,,,,,,,,,,,,,,,,,,,,,,0,0,0,0,0
3.9213,1783189712.5494,1,1,2.0000,0.0000,1.44680,0.20179,-2.78525,1.01262,1.57079,0.00002,-0.14512,-0.38001,0.03847,,,,,,,,,,,,,,,,,,,,,,,,,,0,0,0,0,0
3.9355,1783189712.5636,1,1,2.0000,0.0000,1.44680,0.20166,-2.78528,1.01278,1.57079,0.00002,-0.14512,-0.38001,0.03844,,,,,,,,,,,,,,,,,,,,,,,,,,0,0,0,0,0
3.9414,1783189712.5695,1,1,2.0000,0.0000,1.44680,0.20163,-2.78529,1.01282,1.57079,0.00002,-0.14512,-0.38001,0.03843,,,,,,,,,,,,,,,,,,,,,,,,,,0,0,0,0,0
3.9419,1783189712.5700,1,1,2.0000,0.0000,1.44680,0.20163,-2.78529,1.01282,1.57079,0.00002,-0.14512,-0.38001,0.03843,,,,,,,,,,,,,,,,,,,,,,,,,,0,0,0,0,0
3.9514,1783189712.5795,1,1,2.0000,0.0000,1.44680,0.20144,-2.78533,1.01306,1.57079,0.00003,-0.14512,-0.38001,0.03839,,,,,,,,,,,,,,,,,,,,,,,,,,0,0,0,0,0
3.9607,1783189712.5887,1,1,2.0000,0.0000,1.44680,0.20129,-2.78536,1.01324,1.57079,0.00003,-0.14512,-0.38001,0.03835,,,,,,,,,,,,,,,,,,,,,,,,,,0,0,0,0,0
3.9697,1783189712.5977,1,1,2.0000,0.0000,1.44680,0.20128,-2.78537,1.01325,1.57079,0.00003,-0.14512,-0.38001,0.03835,,,,,,,,,,,,,,,,,,,,,,,,,,0,0,0,0,0
3.9795,1783189712.6075,1,1,2.0000,0.0000,1.44680,0.20113,-2.78540,1.01343,1.57079,0.00003,-0.14512,-0.38001,0.03831,,,,,,,,,,,,,,,,,,,,,,,,,,0,0,0,0,0
3.9798,1783189712.6078,1,1,2.0000,0.0000,1.44680,0.20113,-2.78540,1.01343,1.57079,0.00003,-0.14512,-0.38001,0.03831,,,,,,,,,,,,,,,,,,,,,,,,,,0,0,0,0,0
3.9911,1783189712.6191,1,1,2.0000,0.0000,1.44680,0.20099,-2.78544,1.01361,1.57079,0.00003,-0.14512,-0.38001,0.03827,,,,,,,,,,,,,,,,,,,,,,,,,,0,0,0,0,0
3.9998,1783189712.6278,1,1,2.0000,0.0000,1.44680,0.20094,-2.78545,1.01367,1.57079,0.00003,-0.14512,-0.38001,0.03826,,,,,,,,,,,,,,,,,,,,,,,,,,0,0,0,0,0
4.0225,1783189712.6505,1,1,2.0000,0.0000,1.44680,0.20061,-2.78552,1.01407,1.57079,0.00003,-0.14512,-0.38001,0.03818,,,,,,,,,,,,,,,,,,,,,,,,,,0,0,0,0,0
4.0230,1783189712.6511,1,1,2.0000,0.0000,1.44680,0.20061,-2.78552,1.01407,1.57079,0.00003,-0.14512,-0.38001,0.03818,,,,,,,,,,,,,,,,,,,,,,,,,,0,0,0,0,0
4.0301,1783189712.6581,1,1,2.0000,0.0000,1.44680,0.20060,-2.78553,1.01409,1.57079,0.00003,-0.14512,-0.38001,0.03818,,,,,,,,,,,,,,,,,,,,,,,,,,0,0,0,0,0
4.0405,1783189712.6685,1,1,2.0000,0.0000,1.44680,0.20045,-2.78556,1.01427,1.57079,0.00003,-0.14512,-0.38001,0.03814,,,,,,,,,,,,,,,,,,,,,,,,,,0,0,0,0,0
4.0496,1783189712.6777,1,1,2.0000,0.0000,1.44680,0.20031,-2.78559,1.01445,1.57079,0.00003,-0.14512,-0.38001,0.03810,,,,,,,,,,,,,,,,,,,,,,,,,,0,0,0,0,0
4.0623,1783189712.6903,1,1,2.0000,0.0000,1.44680,0.20026,-2.78561,1.01450,1.57079,0.00003,-0.14512,-0.38001,0.03809,,,,,,,,,,,,,,,,,,,,,,,,,,0,0,0,0,0
4.0710,1783189712.6990,1,1,2.0000,0.0000,1.44680,0.20008,-2.78565,1.01473,1.57079,0.00003,-0.14512,-0.38001,0.03805,,,,,,,,,,,,,,,,,,,,,,,,,,0,0,0,0,0
4.0809,1783189712.7089,1,1,2.0000,0.0000,1.44680,0.19994,-2.78568,1.01491,1.57079,0.00003,-0.14512,-0.38001,0.03801,,,,,,,,,,,,,,,,,,,,,,,,,,0,0,0,0,0
4.0945,1783189712.7225,1,1,2.0000,0.0000,1.44680,0.19989,-2.78569,1.01497,1.57079,0.00003,-0.14512,-0.38001,0.03800,,,,,,,,,,,,,,,,,,,,,,,,,,0,0,0,0,0
4.1009,1783189712.7289,1,1,2.0000,0.0000,1.44680,0.19978,-2.78572,1.01511,1.57079,0.00003,-0.14512,-0.38001,0.03797,,,,,,,,,,,,,,,,,,,,,,,,,,0,0,0,0,0
4.1015,1783189712.7295,1,1,2.0000,0.0000,1.44680,0.19978,-2.78572,1.01511,1.57079,0.00003,-0.14512,-0.38001,0.03797,,,,,,,,,,,,,,,,,,,,,,,,,,0,0,0,0,0
4.1223,1783189712.7503,1,1,2.0000,0.0000,1.44680,0.19959,-2.78576,1.01534,1.57079,0.00003,-0.14512,-0.38001,0.03792,,,,,,,,,,,,,,,,,,,,,,,,,,0,0,0,0,0
4.1298,1783189712.7578,1,1,2.0000,0.0000,1.44680,0.19947,-2.78579,1.01548,1.57079,0.00003,-0.14512,-0.38001,0.03790,,,,,,,,,,,,,,,,,,,,,,,,,,0,0,0,0,0
4.1300,1783189712.7581,1,1,2.0000,0.0000,1.44680,0.19947,-2.78579,1.01548,1.57079,0.00003,-0.14512,-0.38001,0.03790,,,,,,,,,,,,,,,,,,,,,,,,,,0,0,0,0,0
4.1398,1783189712.7678,1,1,2.0000,0.0000,1.44680,0.19926,-2.78584,1.01574,1.57079,0.00003,-0.14512,-0.38001,0.03784,,,,,,,,,,,,,,,,,,,,,,,,,,0,0,0,0,0
4.1521,1783189712.7801,1,1,2.0000,0.0000,1.44680,0.19921,-2.78585,1.01580,1.57079,0.00003,-0.14512,-0.38001,0.03783,,,,,,,,,,,,,,,,,,,,,,,,,,0,0,0,0,0
4.1736,1783189712.8016,1,1,2.0000,0.0000,1.44680,0.19895,-2.78591,1.01612,1.57079,0.00003,-0.14512,-0.38001,0.03777,,,,,,,,,,,,,,,,,,,,,,,,,,0,0,0,0,0
4.1861,1783189712.8141,1,1,2.0000,0.0000,1.44680,0.19886,-2.78593,1.01624,1.57079,0.00003,-0.14512,-0.38001,0.03774,,,,,,,,,,,,,,,,,,,,,,,,,,0,0,0,0,0
4.1864,1783189712.8144,1,1,2.0000,0.0000,1.44680,0.19886,-2.78593,1.01624,1.57079,0.00003,-0.14512,-0.38001,0.03774,,,,,,,,,,,,,,,,,,,,,,,,,,0,0,0,0,0
4.1913,1783189712.8193,1,1,2.0000,0.0000,1.44680,0.19872,-2.78597,1.01640,1.57079,0.00003,-0.14512,-0.38001,0.03771,,,,,,,,,,,,,,,,,,,,,,,,,,0,0,0,0,0
4.2004,1783189712.8284,1,1,2.0000,0.0000,1.44680,0.19858,-2.78600,1.01658,1.57079,0.00003,-0.14512,-0.38001,0.03767,,,,,,,,,,,,,,,,,,,,,,,,,,0,0,0,0,0
4.2008,1783189712.8288,1,1,2.0000,0.0000,1.44680,0.19858,-2.78600,1.01658,1.57079,0.00003,-0.14512,-0.38001,0.03767,,,,,,,,,,,,,,,,,,,,,,,,,,0,0,0,0,0
4.2246,1783189712.8526,1,1,2.0000,0.0000,1.44680,0.19835,-2.78605,1.01687,1.57079,0.00003,-0.14512,-0.38001,0.03762,,,,,,,,,,,,,,,,,,,,,,,,,,0,0,0,0,0
4.2327,1783189712.8607,1,1,2.0000,0.0000,1.44680,0.19827,-2.78607,1.01696,1.57079,0.00003,-0.14512,-0.38001,0.03760,,,,,,,,,,,,,,,,,,,,,,,,,,0,0,0,0,0
4.2446,1783189712.8726,1,1,2.0000,0.0000,1.44680,0.19818,-2.78609,1.01708,1.57079,0.00003,-0.14512,-0.38001,0.03757,,,,,,,,,,,,,,,,,,,,,,,,,,0,0,0,0,0
4.2537,1783189712.8817,1,1,2.0000,0.0000,1.44680,0.19804,-2.78612,1.01724,1.57079,0.00003,-0.14512,-0.38001,0.03754,,,,,,,,,,,,,,,,,,,,,,,,,,0,0,0,0,0
4.2666,1783189712.8947,1,1,2.0000,0.0000,1.44680,0.19790,-2.78616,1.01742,1.57079,0.00003,-0.14512,-0.38001,0.03750,,,,,,,,,,,,,,,,,,,,,,,,,,0,0,0,0,0
4.2710,1783189712.8990,1,1,2.0000,0.0000,1.44680,0.19785,-2.78617,1.01748,1.57079,0.00003,-0.14512,-0.38001,0.03749,,,,,,,,,,,,,,,,,,,,,,,,,,0,0,0,0,0
4.2823,1783189712.9103,1,1,2.0000,0.0000,1.44680,0.19774,-2.78619,1.01762,1.57079,0.00003,-0.14512,-0.38001,0.03746,,,,,,,,,,,,,,,,,,,,,,,,,,0,0,0,0,0
4.2905,1783189712.9185,1,1,2.0000,0.0000,1.44680,0.19759,-2.78623,1.01780,1.57079,0.00003,-0.14512,-0.38001,0.03743,,,,,,,,,,,,,,,,,,,,,,,,,,0,0,0,0,0
4.3011,1783189712.9291,1,1,2.0000,0.0000,1.44680,0.19751,-2.78625,1.01789,1.57079,0.00003,-0.14512,-0.38001,0.03741,,,,,,,,,,,,,,,,,,,,,,,,,,0,0,0,0,0
4.3015,1783189712.9295,1,1,2.0000,0.0000,1.44680,0.19751,-2.78625,1.01789,1.57079,0.00003,-0.14512,-0.38001,0.03741,,,,,,,,,,,,,,,,,,,,,,,,,,0,0,0,0,0
4.3097,1783189712.9377,1,1,2.0000,0.0000,1.44680,0.19745,-2.78626,1.01797,1.57079,0.00003,-0.14512,-0.38001,0.03739,,,,,,,,,,,,,,,,,,,,,,,,,,0,0,0,0,0
4.3252,1783189712.9532,1,1,2.0000,0.0000,1.44680,0.19728,-2.78630,1.01818,1.57079,0.00003,-0.14512,-0.38001,0.03735,,,,,,,,,,,,,,,,,,,,,,,,,,0,0,0,0,0
4.3301,1783189712.9581,1,1,2.0000,0.0000,1.44680,0.19727,-2.78630,1.01819,1.57079,0.00003,-0.14512,-0.38001,0.03735,,,,,,,,,,,,,,,,,,,,,,,,,,0,0,0,0,0
4.3312,1783189712.9592,1,1,2.0000,0.0000,1.44680,0.19724,-2.78631,1.01824,1.57079,0.00003,-0.14512,-0.38001,0.03734,,,,,,,,,,,,,,,,,,,,,,,,,,0,0,0,0,0
4.3395,1783189712.9675,1,1,2.0000,0.0000,1.44680,0.19712,-2.78634,1.01838,1.57079,0.00003,-0.14512,-0.38001,0.03731,,,,,,,,,,,,,,,,,,,,,,,,,,0,0,0,0,0
4.3399,1783189712.9679,1,1,2.0000,0.0000,1.44680,0.19712,-2.78634,1.01838,1.57079,0.00003,-0.14512,-0.38001,0.03731,,,,,,,,,,,,,,,,,,,,,,,,,,0,0,0,0,0
4.3523,1783189712.9803,1,1,2.0000,0.0000,1.44680,0.19690,-2.78639,1.01865,1.57079,0.00003,-0.14512,-0.38001,0.03725,,,,,,,,,,,,,,,,,,,,,,,,,,0,0,0,0,0
4.3527,1783189712.9807,1,1,2.0000,0.0000,1.44680,0.19690,-2.78639,1.01865,1.57079,0.00003,-0.14512,-0.38001,0.03725,,,,,,,,,,,,,,,,,,,,,,,,,,0,0,0,0,0
4.3606,1783189712.9886,1,1,2.0000,0.0000,1.44680,0.19689,-2.78639,1.01867,1.57079,0.00003,-0.14512,-0.38001,0.03725,,,,,,,,,,,,,,,,,,,,,,,,,,0,0,0,0,0
4.3609,1783189712.9890,1,1,2.0000,0.0000,1.44680,0.19689,-2.78639,1.01867,1.57079,0.00003,-0.14512,-0.38001,0.03725,,,,,,,,,,,,,,,,,,,,,,,,,,0,0,0,0,0
4.3732,1783189713.0012,1,1,2.0000,0.0000,1.44680,0.19678,-2.78642,1.01880,1.57079,0.00003,-0.14512,-0.38001,0.03723,,,,,,,,,,,,,,,,,,,,,,,,,,0,0,0,0,0
4.3735,1783189713.0015,1,1,2.0000,0.0000,1.44680,0.19678,-2.78642,1.01880,1.57079,0.00003,-0.14512,-0.38001,0.03723,,,,,,,,,,,,,,,,,,,,,,,,,,0,0,0,0,0
4.3837,1783189713.0117,1,1,2.0000,0.0000,1.44680,0.19666,-2.78645,1.01895,1.57079,0.00003,-0.14512,-0.38001,0.03720,,,,,,,,,,,,,,,,,,,,,,,,,,0,0,0,0,0
4.3839,1783189713.0119,1,1,2.0000,0.0000,1.44680,0.19666,-2.78645,1.01895,1.57079,0.00003,-0.14512,-0.38001,0.03720,,,,,,,,,,,,,,,,,,,,,,,,,,0,0,0,0,0
4.3910,1783189713.0190,1,1,2.0000,0.0000,1.44680,0.19661,-2.78646,1.01901,1.57079,0.00003,-0.14512,-0.38001,0.03718,,,,,,,,,,,,,,,,,,,,,,,,,,0,0,0,0,0
4.3996,1783189713.0276,1,1,2.0000,0.0000,1.44680,0.19649,-2.78648,1.01915,1.57079,0.00003,-0.14511,-0.38001,0.03715,,,,,,,,,,,,,,,,,,,,,,,,,,0,0,0,0,0
4.4111,1783189713.0391,1,1,2.0000,0.0000,1.44679,0.19627,-2.78653,1.01942,1.57079,0.00003,-0.14511,-0.38001,0.03710,,,,,,,,,,,,,,,,,,,,,,,,,,0,0,0,0,0
4.4258,1783189713.0539,1,1,2.0000,0.0000,1.44679,0.19624,-2.78654,1.01947,1.57079,0.00003,-0.14511,-0.38001,0.03709,,,,,,,,,,,,,,,,,,,,,,,,,,0,0,0,0,0
4.4340,1783189713.0620,1,1,2.0000,0.0000,1.44679,0.19615,-2.78656,1.01957,1.57079,0.00003,-0.14511,-0.38001,0.03707,,,,,,,,,,,,,,,,,,,,,,,,,,0,0,0,0,0
4.4429,1783189713.0710,1,1,2.0000,0.0000,1.44679,0.19603,-2.78659,1.01972,1.57079,0.00003,-0.14511,-0.38001,0.03704,,,,,,,,,,,,,,,,,,,,,,,,,,0,0,0,0,0
4.4505,1783189713.0785,1,1,2.0000,0.0000,1.44679,0.19602,-2.78659,1.01973,1.57079,0.00003,-0.14511,-0.38001,0.03704,,,,,,,,,,,,,,,,,,,,,,,,,,0,0,0,0,0
4.4600,1783189713.0880,1,1,2.0000,0.0000,1.44679,0.19587,-2.78663,1.01992,1.57079,0.00003,-0.14511,-0.38001,0.03700,,,,,,,,,,,,,,,,,,,,,,,,,,0,0,0,0,0
4.4718,1783189713.0998,1,1,2.0000,0.0000,1.44679,0.19565,-2.78668,1.02019,1.57079,0.00003,-0.14511,-0.38001,0.03694,,,,,,,,,,,,,,,,,,,,,,,,,,0,0,0,0,0
4.4814,1783189713.1094,1,1,2.0000,0.0000,1.44679,0.19564,-2.78668,1.02020,1.57079,0.00003,-0.14511,-0.38001,0.03694,,,,,,,,,,,,,,,,,,,,,,,,,,0,0,0,0,0
4.4897,1783189713.1177,1,1,2.0000,0.0000,1.44679,0.19558,-2.78670,1.02028,1.57079,0.00003,-0.14511,-0.38001,0.03693,,,,,,,,,,,,,,,,,,,,,,,,,,0,0,0,0,0
4.4999,1783189713.1279,1,1,2.0000,0.0000,1.44679,0.19541,-2.78673,1.02049,1.57079,0.00003,-0.14511,-0.38001,0.03689,,,,,,,,,,,,,,,,,,,,,,,,,,0,0,0,0,0
4.5098,1783189713.1378,1,1,2.0000,0.0000,1.44679,0.19540,-2.78674,1.02050,1.57079,0.00003,-0.14511,-0.38001,0.03688,,,,,,,,,,,,,,,,,,,,,,,,,,0,0,0,0,0
4.5313,1783189713.1593,1,1,2.0000,0.0000,1.44679,0.19502,-2.78682,1.02096,1.57079,0.00003,-0.14511,-0.38001,0.03679,,,,,,,,,,,,,,,,,,,,,,,,,,0,0,0,0,0
4.5317,1783189713.1597,1,1,2.0000,0.0000,1.44679,0.19502,-2.78682,1.02096,1.57079,0.00003,-0.14511,-0.38001,0.03679,,,,,,,,,,,,,,,,,,,,,,,,,,0,0,0,0,0
4.5405,1783189713.1686,1,1,2.0000,0.0000,1.44679,0.19501,-2.78683,1.02097,1.57079,0.00003,-0.14511,-0.38001,0.03679,,,,,,,,,,,,,,,,,,,,,,,,,,0,0,0,0,0
4.5533,1783189713.1813,1,1,2.0000,0.0000,1.44679,0.19490,-2.78685,1.02111,1.57079,0.00003,-0.14511,-0.38001,0.03676,,,,,,,,,,,,,,,,,,,,,,,,,,0,0,0,0,0
4.5637,1783189713.1917,1,1,2.0000,0.0000,1.44679,0.19478,-2.78688,1.02126,1.57079,0.00003,-0.14511,-0.38001,0.03673,,,,,,,,,,,,,,,,,,,,,,,,,,0,0,0,0,0
4.5741,1783189713.2021,1,1,2.0000,0.0000,1.44679,0.19473,-2.78689,1.02132,1.57079,0.00003,-0.14511,-0.38001,0.03672,,,,,,,,,,,,,,,,,,,,,,,,,,0,0,0,0,0
4.5927,1783189713.2208,1,1,2.0000,0.0000,1.44679,0.19440,-2.78697,1.02173,1.57079,0.00003,-0.14511,-0.38001,0.03663,,,,,,,,,,,,,,,,,,,,,,,,,,0,0,0,0,0
4.5931,1783189713.2211,1,1,2.0000,0.0000,1.44679,0.19440,-2.78697,1.02173,1.57079,0.00003,-0.14511,-0.38001,0.03663,,,,,,,,,,,,,,,,,,,,,,,,,,0,0,0,0,0
4.6017,1783189713.2297,1,1,2.0000,0.0000,1.44679,0.19439,-2.78697,1.02174,1.57079,0.00003,-0.14511,-0.38001,0.03663,,,,,,,,,,,,,,,,,,,,,,,,,,0,0,0,0,0
4.6022,1783189713.2302,1,1,2.0000,0.0000,1.44679,0.19439,-2.78697,1.02174,1.57079,0.00003,-0.14511,-0.38001,0.03663,,,,,,,,,,,,,,,,,,,,,,,,,,0,0,0,0,0
4.6129,1783189713.2409,1,1,2.0000,0.0000,1.44679,0.19428,-2.78700,1.02188,1.57079,0.00003,-0.14511,-0.38001,0.03660,,,,,,,,,,,,,,,,,,,,,,,,,,0,0,0,0,0
4.6193,1783189713.2474,1,1,2.0000,0.0000,1.44679,0.19416,-2.78702,1.02203,1.57079,0.00003,-0.14511,-0.38001,0.03658,,,,,,,,,,,,,,,,,,,,,,,,,,0,0,0,0,0
4.6197,1783189713.2477,1,1,2.0000,0.0000,1.44679,0.19416,-2.78702,1.02203,1.57079,0.00003,-0.14511,-0.38001,0.03658,,,,,,,,,,,,,,,,,,,,,,,,,,0,0,0,0,0
4.6318,1783189713.2598,1,1,2.0000,0.0000,1.44679,0.19411,-2.78703,1.02209,1.57079,0.00003,-0.14511,-0.38001,0.03656,,,,,,,,,,,,,,,,,,,,,,,,,,0,0,0,0,0
4.6320,1783189713.2601,1,1,2.0000,0.0000,1.44679,0.19411,-2.78703,1.02209,1.57079,0.00003,-0.14511,-0.38001,0.03656,,,,,,,,,,,,,,,,,,,,,,,,,,0,0,0,0,0
4.6457,1783189713.2738,1,1,2.0000,0.0000,1.44679,0.19392,-2.78708,1.02232,1.57079,0.00003,-0.14511,-0.38001,0.03652,,,,,,,,,,,,,,,,,,,,,,,,,,0,0,0,0,0
4.6498,1783189713.2778,1,1,2.0000,0.0000,1.44679,0.19384,-2.78710,1.02242,1.57079,0.00003,-0.14511,-0.38001,0.03650,,,,,,,,,,,,,,,,,,,,,,,,,,0,0,0,0,0
4.6598,1783189713.2878,1,1,2.0000,0.0000,1.44679,0.19376,-2.78711,1.02252,1.57079,0.00003,-0.14511,-0.38001,0.03648,,,,,,,,,,,,,,,,,,,,,,,,,,0,0,0,0,0
4.6781,1783189713.3061,1,1,2.0000,0.0000,1.44679,0.19359,-2.78715,1.02272,1.57079,0.00003,-0.14511,-0.38001,0.03644,,,,,,,,,,,,,,,,,,,,,,,,,,0,0,0,0,0
4.6820,1783189713.3100,1,1,2.0000,0.0000,1.44679,0.19353,-2.78717,1.02280,1.57079,0.00003,-0.14511,-0.38001,0.03642,,,,,,,,,,,,,,,,,,,,,,,,,,0,0,0,0,0
4.6823,1783189713.3103,1,1,2.0000,0.0000,1.44679,0.19353,-2.78717,1.02280,1.57079,0.00003,-0.14511,-0.38001,0.03642,,,,,,,,,,,,,,,,,,,,,,,,,,0,0,0,0,0
4.6940,1783189713.3220,1,1,2.0000,0.0000,1.44679,0.19348,-2.78718,1.02286,1.57079,0.00003,-0.14511,-0.38001,0.03641,,,,,,,,,,,,,,,,,,,,,,,,,,0,0,0,0,0
4.6994,1783189713.3275,1,1,2.0000,0.0000,1.44679,0.19336,-2.78721,1.02300,1.57079,0.00003,-0.14511,-0.38001,0.03638,,,,,,,,,,,,,,,,,,,,,,,,,,0,0,0,0,0
4.6998,1783189713.3278,1,1,2.0000,0.0000,1.44679,0.19336,-2.78721,1.02300,1.57079,0.00003,-0.14511,-0.38001,0.03638,,,,,,,,,,,,,,,,,,,,,,,,,,0,0,0,0,0
4.7133,1783189713.3413,1,1,2.0000,0.0000,1.44679,0.19314,-2.78726,1.02328,1.57079,0.00003,-0.14511,-0.38001,0.03632,,,,,,,,,,,,,,,,,,,,,,,,,,0,0,0,0,0
4.7214,1783189713.3494,1,1,2.0000,0.0000,1.44679,0.19313,-2.78726,1.02329,1.57079,0.00003,-0.14511,-0.38001,0.03632,,,,,,,,,,,,,,,,,,,,,,,,,,0,0,0,0,0
4.7357,1783189713.3637,1,1,2.0000,0.0000,1.44679,0.19291,-2.78731,1.02356,1.57079,0.00003,-0.14511,-0.38001,0.03627,,,,,,,,,,,,,,,,,,,,,,,,,,0,0,0,0,0
4.7400,1783189713.3681,1,1,2.0000,0.0000,1.44679,0.19283,-2.78733,1.02365,1.57079,0.00003,-0.14511,-0.38001,0.03625,,,,,,,,,,,,,,,,,,,,,,,,,,0,0,0,0,0
4.7529,1783189713.3809,1,1,2.0000,0.0000,1.44679,0.19279,-2.78734,1.02371,1.57079,0.00003,-0.14511,-0.38001,0.03624,,,,,,,,,,,,,,,,,,,,,,,,,,0,0,0,0,0
4.7598,1783189713.3879,1,1,2.0000,0.0000,1.44679,0.19267,-2.78736,1.02385,1.57079,0.00003,-0.14511,-0.38001,0.03621,,,,,,,,,,,,,,,,,,,,,,,,,,0,0,0,0,0
4.7734,1783189713.4015,1,1,2.0000,0.0000,1.44679,0.19246,-2.78741,1.02412,1.57079,0.00003,-0.14511,-0.38001,0.03616,,,,,,,,,,,,,,,,,,,,,,,,,,0,0,0,0,0
4.7738,1783189713.4018,1,1,2.0000,0.0000,1.44679,0.19246,-2.78741,1.02412,1.57079,0.00003,-0.14511,-0.38001,0.03616,,,,,,,,,,,,,,,,,,,,,,,,,,0,0,0,0,0
4.7808,1783189713.4088,1,1,2.0000,0.0000,1.44679,0.19244,-2.78742,1.02413,1.57079,0.00003,-0.14511,-0.38001,0.03615,,,,,,,,,,,,,,,,,,,,,,,,,,0,0,0,0,0
4.7812,1783189713.4092,1,1,2.0000,0.0000,1.44679,0.19244,-2.78742,1.02413,1.57079,0.00003,-0.14511,-0.38001,0.03615,,,,,,,,,,,,,,,,,,,,,,,,,,0,0,0,0,0
4.7943,1783189713.4223,1,1,2.0000,0.0000,1.44679,0.19229,-2.78745,1.02432,1.57079,0.00003,-0.14511,-0.38001,0.03612,,,,,,,,,,,,,,,,,,,,,,,,,,0,0,0,0,0
4.7999,1783189713.4279,1,1,2.0000,0.0000,1.44679,0.19215,-2.78748,1.02449,1.57079,0.00003,-0.14511,-0.38001,0.03608,,,,,,,,,,,,,,,,,,,,,,,,,,0,0,0,0,0
4.8004,1783189713.4285,1,1,2.0000,0.0000,1.44679,0.19215,-2.78748,1.02449,1.57079,0.00003,-0.14511,-0.38001,0.03608,,,,,,,,,,,,,,,,,,,,,,,,,,0,0,0,0,0
4.8118,1783189713.4398,1,1,2.0000,0.0000,1.44679,0.19210,-2.78749,1.02455,1.57079,0.00003,-0.14511,-0.38001,0.03607,,,,,,,,,,,,,,,,,,,,,,,,,,0,0,0,0,0
4.8228,1783189713.4508,1,1,2.0000,0.0000,1.44679,0.19199,-2.78752,1.02469,1.57079,0.00003,-0.14511,-0.38001,0.03604,,,,,,,,,,,,,,,,,,,,,,,,,,0,0,0,0,0
4.8455,1783189713.4735,1,1,2.0000,0.0000,1.44679,0.19173,-2.78758,1.02502,1.57079,0.00003,-0.14511,-0.38001,0.03598,,,,,,,,,,,,,,,,,,,,,,,,,,0,0,0,0,0
4.8457,1783189713.4737,1,1,2.0000,0.0000,1.44679,0.19173,-2.78758,1.02502,1.57079,0.00003,-0.14511,-0.38001,0.03598,,,,,,,,,,,,,,,,,,,,,,,,,,0,0,0,0,0
4.8508,1783189713.4788,1,1,2.0000,0.0000,1.44679,0.19167,-2.78759,1.02508,1.57079,0.00003,-0.14511,-0.38001,0.03596,,,,,,,,,,,,,,,,,,,,,,,,,,0,0,0,0,0
4.8514,1783189713.4794,1,1,2.0000,0.0000,1.44679,0.19161,-2.78761,1.02516,1.57079,0.00003,-0.14511,-0.38001,0.03595,,,,,,,,,,,,,,,,,,,,,,,,,,0,0,0,0,0
4.8594,1783189713.4874,1,1,2.0000,0.0000,1.44679,0.19146,-2.78764,1.02534,1.57079,0.00003,-0.14511,-0.38001,0.03591,,,,,,,,,,,,,,,,,,,,,,,,,,0,0,0,0,0
4.8598,1783189713.4878,1,1,2.0000,0.0000,1.44679,0.19146,-2.78764,1.02534,1.57079,0.00003,-0.14511,-0.38001,0.03591,,,,,,,,,,,,,,,,,,,,,,,,,,0,0,0,0,0
4.8709,1783189713.4989,1,1,2.0000,0.0000,1.44679,0.19145,-2.78764,1.02535,1.57079,0.00003,-0.14511,-0.38001,0.03591,,,,,,,,,,,,,,,,,,,,,,,,,,0,0,0,0,0
4.8712,1783189713.4992,1,1,2.0000,0.0000,1.44679,0.19142,-2.78765,1.02539,1.57079,0.00003,-0.14511,-0.38001,0.03590,,,,,,,,,,,,,,,,,,,,,,,,,,0,0,0,0,0
4.8815,1783189713.5095,1,1,2.0000,0.0000,1.44679,0.19130,-2.78768,1.02554,1.57079,0.00003,-0.14511,-0.38001,0.03587,,,,,,,,,,,,,,,,,,,,,,,,,,0,0,0,0,0
4.8905,1783189713.5185,1,1,2.0000,0.0000,1.44679,0.19116,-2.78771,1.02571,1.57079,0.00003,-0.14511,-0.38001,0.03584,,,,,,,,,,,,,,,,,,,,,,,,,,0,0,0,0,0
4.8909,1783189713.5189,1,1,2.0000,0.0000,1.44679,0.19116,-2.78771,1.02571,1.57079,0.00003,-0.14511,-0.38001,0.03584,,,,,,,,,,,,,,,,,,,,,,,,,,0,0,0,0,0
4.8994,1783189713.5274,1,1,2.0000,0.0000,1.44679,0.19107,-2.78773,1.02582,1.57079,0.00003,-0.14511,-0.38001,0.03581,,,,,,,,,,,,,,,,,,,,,,,,,,0,0,0,0,0
4.8997,1783189713.5278,1,1,2.0000,0.0000,1.44679,0.19107,-2.78773,1.02582,1.57079,0.00003,-0.14511,-0.38001,0.03581,,,,,,,,,,,,,,,,,,,,,,,,,,0,0,0,0,0
4.9107,1783189713.5387,1,1,2.0000,0.0000,1.44679,0.19099,-2.78775,1.02592,1.57079,0.00003,-0.14511,-0.38001,0.03579,,,,,,,,,,,,,,,,,,,,,,,,,,0,0,0,0,0
4.9196,1783189713.5476,1,1,2.0000,0.0000,1.44679,0.19078,-2.78780,1.02618,1.57079,0.00003,-0.14511,-0.38001,0.03574,,,,,,,,,,,,,,,,,,,,,,,,,,0,0,0,0,0
4.9436,1783189713.5716,1,1,2.0000,0.0000,1.44679,0.19054,-2.78785,1.02647,1.57079,0.00003,-0.14511,-0.38001,0.03568,,,,,,,,,,,,,,,,,,,,,,,,,,0,0,0,0,0
4.9501,1783189713.5781,1,1,2.0000,0.0000,1.44679,0.19047,-2.78787,1.02656,1.57079,0.00003,-0.14511,-0.38001,0.03567,,,,,,,,,,,,,,,,,,,,,,,,,,0,0,0,0,0
4.9503,1783189713.5784,1,1,2.0000,0.0000,1.44679,0.19047,-2.78787,1.02656,1.57079,0.00003,-0.14511,-0.38001,0.03567,,,,,,,,,,,,,,,,,,,,,,,,,,0,0,0,0,0
4.9595,1783189713.5875,1,1,2.0000,0.0000,1.44679,0.19039,-2.78789,1.02666,1.57079,0.00003,-0.14511,-0.38001,0.03565,,,,,,,,,,,,,,,,,,,,,,,,,,0,0,0,0,0
4.9735,1783189713.6015,1,1,2.0000,0.0000,1.44679,0.19024,-2.78792,1.02684,1.57079,0.00003,-0.14511,-0.38001,0.03561,,,,,,,,,,,,,,,,,,,,,,,,,,0,0,0,0,0
4.9834,1783189713.6114,1,1,2.0000,0.0000,1.44679,0.19009,-2.78795,1.02702,1.57079,0.00003,-0.14511,-0.38001,0.03557,,,,,,,,,,,,,,,,,,,,,,,,,,0,0,0,0,0
4.9905,1783189713.6185,1,1,2.0000,0.0000,1.44679,0.19008,-2.78796,1.02704,1.57079,0.00003,-0.14511,-0.38001,0.03557,,,,,,,,,,,,,,,,,,,,,,,,,,0,0,0,0,0
5.0056,1783189713.6336,1,1,2.0000,0.0000,1.44679,0.18986,-2.78801,1.02731,1.57079,0.00003,-0.14511,-0.38001,0.03552,,,,,,,,,,,,,,,,,,,,,,,,,,0,0,0,0,0
5.0061,1783189713.6341,1,1,2.0000,0.0000,1.44679,0.18986,-2.78801,1.02731,1.57079,0.00003,-0.14511,-0.38001,0.03552,,,,,,,,,,,,,,,,,,,,,,,,,,0,0,0,0,0
5.0127,1783189713.6407,1,1,2.0000,0.0000,1.44679,0.18971,-2.78804,1.02749,1.57079,0.00003,-0.14511,-0.38001,0.03548,,,,,,,,,,,,,,,,,,,,,,,,,,0,0,0,0,0
5.0207,1783189713.6487,1,1,2.0000,0.0000,1.44679,0.18970,-2.78804,1.02750,1.57079,0.00003,-0.14511,-0.38001,0.03548,,,,,,,,,,,,,,,,,,,,,,,,,,0,0,0,0,0
5.0297,1783189713.6578,1,1,2.0000,0.0000,1.44679,0.18961,-2.78806,1.02761,1.57079,0.00003,-0.14511,-0.38001,0.03546,,,,,,,,,,,,,,,,,,,,,,,,,,0,0,0,0,0
5.0496,1783189713.6777,1,1,2.0000,0.0000,1.44679,0.18939,-2.78811,1.02788,1.57079,0.00003,-0.14511,-0.38001,0.03540,,,,,,,,,,,,,,,,,,,,,,,,,,0,0,0,0,0
5.0549,1783189713.6830,1,1,2.0000,0.0000,1.44679,0.18936,-2.78812,1.02792,1.57079,0.00003,-0.14511,-0.38001,0.03539,,,,,,,,,,,,,,,,,,,,,,,,,,0,0,0,0,0
5.0618,1783189713.6898,1,1,2.0000,0.0000,1.44679,0.18924,-2.78815,1.02806,1.57079,0.00003,-0.14511,-0.38001,0.03536,,,,,,,,,,,,,,,,,,,,,,,,,,0,0,0,0,0
5.0621,1783189713.6901,1,1,2.0000,0.0000,1.44679,0.18924,-2.78815,1.02806,1.57079,0.00003,-0.14511,-0.38001,0.03536,,,,,,,,,,,,,,,,,,,,,,,,,,0,0,0,0,0
5.0698,1783189713.6978,1,1,2.0000,0.0000,1.44679,0.18910,-2.78818,1.02824,1.57079,0.00003,-0.14511,-0.38001,0.03533,,,,,,,,,,,,,,,,,,,,,,,,,,0,0,0,0,0
5.0913,1783189713.7193,1,1,2.0000,0.0000,1.44679,0.18886,-2.78823,1.02853,1.57079,0.00003,-0.14511,-0.38001,0.03527,,,,,,,,,,,,,,,,,,,,,,,,,,0,0,0,0,0
5.0919,1783189713.7199,1,1,2.0000,0.0000,1.44679,0.18886,-2.78823,1.02853,1.57079,0.00003,-0.14511,-0.38001,0.03527,,,,,,,,,,,,,,,,,,,,,,,,,,0,0,0,0,0
5.0922,1783189713.7203,1,1,2.0000,0.0000,1.44679,0.18886,-2.78823,1.02853,1.57079,0.00003,-0.14511,-0.38001,0.03527,,,,,,,,,,,,,,,,,,,,,,,,,,0,0,0,0,0
5.1015,1783189713.7295,1,1,2.0000,0.0000,1.44679,0.18872,-2.78826,1.02871,1.57079,0.00003,-0.14511,-0.38001,0.03523,,,,,,,,,,,,,,,,,,,,,,,,,,0,0,0,0,0
5.1131,1783189713.7411,1,1,2.0000,0.0000,1.44679,0.18867,-2.78828,1.02877,1.57079,0.00003,-0.14511,-0.38001,0.03522,,,,,,,,,,,,,,,,,,,,,,,,,,0,0,0,0,0
5.1246,1783189713.7526,1,1,2.0000,0.0000,1.44679,0.18848,-2.78832,1.02900,1.57079,0.00003,-0.14511,-0.38001,0.03518,,,,,,,,,,,,,,,,,,,,,,,,,,0,0,0,0,0
5.1496,1783189713.7776,1,1,2.0000,0.0000,1.44679,0.18824,-2.78837,1.02930,1.57079,0.00003,-0.14511,-0.38001,0.03512,,,,,,,,,,,,,,,,,,,,,,,,,,0,0,0,0,0
5.1500,1783189713.7780,1,1,2.0000,0.0000,1.44679,0.18824,-2.78837,1.02930,1.57079,0.00003,-0.14511,-0.38001,0.03512,,,,,,,,,,,,,,,,,,,,,,,,,,0,0,0,0,0
5.1508,1783189713.7788,1,1,2.0000,0.0000,1.44679,0.18824,-2.78837,1.02930,1.57079,0.00003,-0.14511,-0.38001,0.03512,,,,,,,,,,,,,,,,,,,,,,,,,,0,0,0,0,0
5.1512,1783189713.7793,1,1,2.0000,0.0000,1.44679,0.18817,-2.78839,1.02937,1.57079,0.00003,-0.14511,-0.38001,0.03510,,,,,,,,,,,,,,,,,,,,,,,,,,0,0,0,0,0
5.1597,1783189713.7877,1,1,2.0000,0.0000,1.44679,0.18803,-2.78842,1.02955,1.57079,0.00004,-0.14511,-0.38001,0.03507,,,,,,,,,,,,,,,,,,,,,,,,,,0,0,0,0,0
5.1733,1783189713.8013,1,1,2.0000,0.0000,1.44679,0.18798,-2.78843,1.02961,1.57079,0.00004,-0.14511,-0.38001,0.03505,,,,,,,,,,,,,,,,,,,,,,,,,,0,0,0,0,0
5.1738,1783189713.8018,1,1,2.0000,0.0000,1.44679,0.18798,-2.78843,1.02961,1.57079,0.00004,-0.14511,-0.38001,0.03505,,,,,,,,,,,,,,,,,,,,,,,,,,0,0,0,0,0
5.1807,1783189713.8087,1,1,2.0000,0.0000,1.44679,0.18786,-2.78846,1.02975,1.57079,0.00004,-0.14511,-0.38001,0.03503,,,,,,,,,,,,,,,,,,,,,,,,,,0,0,0,0,0
5.1970,1783189713.8250,1,1,2.0000,0.0000,1.44679,0.18765,-2.78851,1.03002,1.57079,0.00004,-0.14511,-0.38001,0.03497,,,,,,,,,,,,,,,,,,,,,,,,,,0,0,0,0,0
5.1974,1783189713.8254,1,1,2.0000,0.0000,1.44679,0.18765,-2.78851,1.03002,1.57079,0.00004,-0.14511,-0.38001,0.03497,,,,,,,,,,,,,,,,,,,,,,,,,,0,0,0,0,0
5.2042,1783189713.8322,1,1,2.0000,0.0000,1.44679,0.18760,-2.78852,1.03008,1.57079,0.00004,-0.14511,-0.38001,0.03496,,,,,,,,,,,,,,,,,,,,,,,,,,0,0,0,0,0
5.2178,1783189713.8458,1,1,2.0000,0.0000,1.44679,0.18741,-2.78856,1.03031,1.57079,0.00004,-0.14511,-0.38001,0.03491,,,,,,,,,,,,,,,,,,,,,,,,,,0,0,0,0,0
5.2243,1783189713.8523,1,1,2.0000,0.0000,1.44679,0.18727,-2.78859,1.03049,1.57079,0.00004,-0.14511,-0.38001,0.03488,,,,,,,,,,,,,,,,,,,,,,,,,,0,0,0,0,0
5.2303,1783189713.8583,1,1,2.0000,0.0000,1.44679,0.18727,-2.78859,1.03049,1.57079,0.00004,-0.14511,-0.38001,0.03488,,,,,,,,,,,,,,,,,,,,,,,,,,0,0,0,0,0
5.2517,1783189713.8797,1,1,2.0000,0.0000,1.44679,0.18702,-2.78865,1.03078,1.57079,0.00004,-0.14511,-0.38001,0.03482,,,,,,,,,,,,,,,,,,,,,,,,,,0,0,0,0,0
5.2520,1783189713.8800,1,1,2.0000,0.0000,1.44679,0.18702,-2.78865,1.03078,1.57079,0.00004,-0.14511,-0.38001,0.03482,,,,,,,,,,,,,,,,,,,,,,,,,,0,0,0,0,0
5.2596,1783189713.8876,1,1,2.0000,0.0000,1.44679,0.18701,-2.78865,1.03080,1.57079,0.00004,-0.14511,-0.38001,0.03482,,,,,,,,,,,,,,,,,,,,,,,,,,0,0,0,0,0
5.3121,1783189713.9401,1,1,2.0000,0.0000,1.44679,0.18639,-2.78879,1.03156,1.57079,0.00004,-0.14511,-0.38001,0.03466,,,,,,,,,,,,,,,,,,,,,,,,,,0,0,0,0,0
5.3125,1783189713.9405,1,1,2.0000,0.0000,1.44679,0.18639,-2.78879,1.03156,1.57079,0.00004,-0.14511,-0.38001,0.03466,,,,,,,,,,,,,,,,,,,,,,,,,,0,0,0,0,0
5.3129,1783189713.9409,1,1,2.0000,0.0000,1.44679,0.18639,-2.78879,1.03156,1.57079,0.00004,-0.14511,-0.38001,0.03466,,,,,,,,,,,,,,,,,,,,,,,,,,0,0,0,0,0
5.3134,1783189713.9414,1,1,2.0000,0.0000,1.44679,0.18639,-2.78879,1.03156,1.57079,0.00004,-0.14511,-0.38001,0.03466,,,,,,,,,,,,,,,,,,,,,,,,,,0,0,0,0,0
5.3138,1783189713.9418,1,1,2.0000,0.0000,1.44679,0.18639,-2.78879,1.03156,1.57079,0.00004,-0.14511,-0.38001,0.03466,,,,,,,,,,,,,,,,,,,,,,,,,,0,0,0,0,0
5.3203,1783189713.9483,1,1,2.0000,0.0000,1.44679,0.18638,-2.78879,1.03158,1.57079,0.00004,-0.14511,-0.38001,0.03466,,,,,,,,,,,,,,,,,,,,,,,,,,0,0,0,0,0
5.3208,1783189713.9488,1,1,2.0000,0.0000,1.44679,0.18638,-2.78879,1.03158,1.57079,0.00004,-0.14511,-0.38001,0.03466,,,,,,,,,,,,,,,,,,,,,,,,,,0,0,0,0,0
5.3296,1783189713.9576,1,1,2.0000,0.0000,1.44679,0.18629,-2.78881,1.03169,1.57079,0.00004,-0.14511,-0.38001,0.03464,,,,,,,,,,,,,,,,,,,,,,,,,,0,0,0,0,0
5.3510,1783189713.9791,1,1,2.0000,0.0000,1.44679,0.18600,-2.78888,1.03204,1.57079,0.00004,-0.14511,-0.38001,0.03457,,,,,,,,,,,,,,,,,,,,,,,,,,0,0,0,0,0
