Martins-Lucaas/twinforge/sensors/Data/20260704_144805__samples.csv
t_rel_s,t_unix,cycle,phase,setpoint_n,force_net_n,q1,q2,q3,q4,q5,q6,tcp_x,tcp_y,tcp_z,taxel_0,taxel_1,taxel_2,taxel_3,taxel_4,taxel_5,taxel_6,taxel_7,taxel_8,taxel_9,taxel_10,taxel_11,taxel_12,taxel_13,taxel_14,taxel_15,taxel_16,taxel_17,taxel_18,taxel_19,taxel_20,taxel_21,taxel_22,taxel_23,taxel_24,n_RA,n_SA,cn_mm,cn_ra,cn_sa
0.0046,1783187285.4908,1,0,1.0000,0.0000,1.44682,0.23328,-2.77748,0.97337,1.57080,0.00000,-0.14512,-0.38002,0.04652,,,,,,,,,,,,,,,,,,,,,,,,,,0,0,0,0,0
0.0174,1783187285.5036,1,0,1.0000,0.0000,1.44682,0.23328,-2.77748,0.97337,1.57080,0.00000,-0.14512,-0.38002,0.04652,,,,,,,,,,,,,,,,,,,,,,,,,,0,0,0,0,0
0.0211,1783187285.5073,1,0,1.0000,0.0000,1.44682,0.23328,-2.77748,0.97337,1.57080,0.00000,-0.14512,-0.38002,0.04652,,,,,,,,,,,,,,,,,,,,,,,,,,0,0,0,0,0
0.0325,1783187285.5187,1,0,1.0000,0.0000,1.44682,0.23328,-2.77748,0.97337,1.57080,0.00000,-0.14512,-0.38002,0.04652,,,,,,,,,,,,,,,,,,,,,,,,,,0,0,0,0,0
0.0435,1783187285.5297,1,0,1.0000,0.0000,1.44682,0.23328,-2.77748,0.97337,1.57080,0.00000,-0.14512,-0.38002,0.04652,,,,,,,,,,,,,,,,,,,,,,,,,,0,0,0,0,0
0.0599,1783187285.5461,1,0,1.0000,0.0000,1.44682,0.23328,-2.77748,0.97337,1.57080,0.00000,-0.14512,-0.38002,0.04652,,,,,,,,,,,,,,,,,,,,,,,,,,0,0,0,0,0
0.0648,1783187285.5510,1,0,1.0000,0.0000,1.44682,0.23328,-2.77748,0.97337,1.57080,0.00000,-0.14512,-0.38002,0.04652,,,,,,,,,,,,,,,,,,,,,,,,,,0,0,0,0,0
0.0703,1783187285.5565,1,0,1.0000,0.0000,1.44682,0.23328,-2.77748,0.97337,1.57080,0.00000,-0.14512,-0.38002,0.04652,,,,,,,,,,,,,,,,,,,,,,,,,,0,0,0,0,0
0.0832,1783187285.5694,1,0,1.0000,0.0000,1.44682,0.23328,-2.77748,0.97337,1.57080,0.00000,-0.14512,-0.38002,0.04652,,,,,,,,,,,,,,,,,,,,,,,,,,0,0,0,0,0
0.0917,1783187285.5779,1,0,1.0000,0.0000,1.44682,0.23328,-2.77748,0.97337,1.57080,0.00000,-0.14512,-0.38002,0.04652,,,,,,,,,,,,,,,,,,,,,,,,,,0,0,0,0,0
0.1024,1783187285.5886,1,0,1.0000,0.0000,1.44682,0.23328,-2.77748,0.97337,1.57080,0.00000,-0.14512,-0.38002,0.04652,,,,,,,,,,,,,,,,,,,,,,,,,,0,0,0,0,0
0.1112,1783187285.5974,1,0,1.0000,0.0000,1.44682,0.23328,-2.77748,0.97337,1.57080,0.00000,-0.14512,-0.38002,0.04652,,,,,,,,,,,,,,,,,,,,,,,,,,0,0,0,0,0
0.1205,1783187285.6067,1,0,1.0000,0.0000,1.44682,0.23328,-2.77748,0.97337,1.57080,0.00000,-0.14512,-0.38002,0.04652,,,,,,,,,,,,,,,,,,,,,,,,,,0,0,0,0,0
0.1315,1783187285.6177,1,0,1.0000,0.0000,1.44682,0.23328,-2.77748,0.97337,1.57080,0.00000,-0.14512,-0.38002,0.04652,,,,,,,,,,,,,,,,,,,,,,,,,,0,0,0,0,0
0.1405,1783187285.6267,1,0,1.0000,0.0000,1.44682,0.23328,-2.77748,0.97337,1.57080,0.00000,-0.14512,-0.38002,0.04652,,,,,,,,,,,,,,,,,,,,,,,,,,0,0,0,0,0
0.1613,1783187285.6475,1,0,1.0000,0.0000,1.44682,0.23328,-2.77748,0.97337,1.57080,0.00000,-0.14512,-0.38002,0.04652,,,,,,,,,,,,,,,,,,,,,,,,,,0,0,0,0,0
0.1621,1783187285.6483,1,0,1.0000,0.0000,1.44682,0.23328,-2.77748,0.97337,1.57080,0.00000,-0.14512,-0.38002,0.04652,,,,,,,,,,,,,,,,,,,,,,,,,,0,0,0,0,0
0.1712,1783187285.6574,1,0,1.0000,0.0000,1.44682,0.23328,-2.77748,0.97337,1.57080,0.00000,-0.14512,-0.38002,0.04652,,,,,,,,,,,,,,,,,,,,,,,,,,0,0,0,0,0
0.1809,1783187285.6671,1,0,1.0000,0.0000,1.44682,0.23328,-2.77748,0.97337,1.57080,0.00000,-0.14512,-0.38002,0.04652,,,,,,,,,,,,,,,,,,,,,,,,,,0,0,0,0,0
0.1813,1783187285.6675,1,0,1.0000,0.0000,1.44682,0.23328,-2.77748,0.97337,1.57080,0.00000,-0.14512,-0.38002,0.04652,,,,,,,,,,,,,,,,,,,,,,,,,,0,0,0,0,0
0.1903,1783187285.6765,1,0,1.0000,0.0000,1.44682,0.23328,-2.77748,0.97337,1.57080,0.00000,-0.14512,-0.38002,0.04652,,,,,,,,,,,,,,,,,,,,,,,,,,0,0,0,0,0
0.2024,1783187285.6886,1,0,1.0000,0.0000,1.44682,0.23328,-2.77748,0.97337,1.57080,0.00000,-0.14512,-0.38002,0.04652,,,,,,,,,,,,,,,,,,,,,,,,,,0,0,0,0,0
0.2027,1783187285.6889,1,0,1.0000,0.0000,1.44682,0.23328,-2.77748,0.97337,1.57080,0.00000,-0.14512,-0.38002,0.04652,,,,,,,,,,,,,,,,,,,,,,,,,,0,0,0,0,0
0.2136,1783187285.6998,1,0,1.0000,0.0000,1.44682,0.23328,-2.77748,0.97337,1.57080,0.00000,-0.14512,-0.38002,0.04652,,,,,,,,,,,,,,,,,,,,,,,,,,0,0,0,0,0
0.2143,1783187285.7005,1,0,1.0000,0.0000,1.44682,0.23328,-2.77748,0.97337,1.57080,0.00000,-0.14512,-0.38002,0.04652,,,,,,,,,,,,,,,,,,,,,,,,,,0,0,0,0,0
0.2222,1783187285.7084,1,0,1.0000,0.0000,1.44682,0.23328,-2.77748,0.97337,1.57080,0.00000,-0.14512,-0.38002,0.04652,,,,,,,,,,,,,,,,,,,,,,,,,,0,0,0,0,0
0.2344,1783187285.7206,1,0,1.0000,0.0000,1.44682,0.23328,-2.77748,0.97337,1.57080,0.00000,-0.14512,-0.38002,0.04652,,,,,,,,,,,,,,,,,,,,,,,,,,0,0,0,0,0
0.2441,1783187285.7303,1,0,1.0000,0.0000,1.44682,0.23328,-2.77748,0.97337,1.57080,0.00000,-0.14512,-0.38002,0.04652,,,,,,,,,,,,,,,,,,,,,,,,,,0,0,0,0,0
0.2522,1783187285.7384,1,0,1.0000,0.0000,1.44682,0.23328,-2.77748,0.97337,1.57080,0.00000,-0.14512,-0.38002,0.04652,,,,,,,,,,,,,,,,,,,,,,,,,,0,0,0,0,0
0.2654,1783187285.7516,1,0,1.0000,0.0000,1.44682,0.23328,-2.77748,0.97337,1.57080,0.00000,-0.14512,-0.38002,0.04652,,,,,,,,,,,,,,,,,,,,,,,,,,0,0,0,0,0
0.2713,1783187285.7575,1,0,1.0000,0.0000,1.44682,0.23328,-2.77748,0.97337,1.57080,0.00000,-0.14512,-0.38002,0.04652,,,,,,,,,,,,,,,,,,,,,,,,,,0,0,0,0,0
0.2812,1783187285.7674,1,0,1.0000,0.0000,1.44682,0.23328,-2.77748,0.97337,1.57080,0.00000,-0.14512,-0.38002,0.04652,,,,,,,,,,,,,,,,,,,,,,,,,,0,0,0,0,0
0.2904,1783187285.7766,1,0,1.0000,0.0000,1.44682,0.23328,-2.77748,0.97337,1.57080,0.00000,-0.14512,-0.38002,0.04652,,,,,,,,,,,,,,,,,,,,,,,,,,0,0,0,0,0
0.3036,1783187285.7898,1,0,1.0000,0.0000,1.44682,0.23328,-2.77748,0.97337,1.57080,0.00000,-0.14512,-0.38002,0.04652,,,,,,,,,,,,,,,,,,,,,,,,,,0,0,0,0,0
0.3104,1783187285.7966,1,0,1.0000,0.0000,1.44682,0.23328,-2.77748,0.97337,1.57080,0.00000,-0.14512,-0.38002,0.04652,,,,,,,,,,,,,,,,,,,,,,,,,,0,0,0,0,0
0.3109,1783187285.7970,1,0,1.0000,0.0000,1.44682,0.23328,-2.77748,0.97337,1.57080,0.00000,-0.14512,-0.38002,0.04652,,,,,,,,,,,,,,,,,,,,,,,,,,0,0,0,0,0
0.3242,1783187285.8104,1,0,1.0000,0.0000,1.44682,0.23328,-2.77748,0.97337,1.57080,0.00000,-0.14512,-0.38002,0.04652,,,,,,,,,,,,,,,,,,,,,,,,,,0,0,0,0,0
0.3317,1783187285.8179,1,0,1.0000,0.0000,1.44682,0.23328,-2.77748,0.97337,1.57080,0.00000,-0.14512,-0.38002,0.04652,,,,,,,,,,,,,,,,,,,,,,,,,,0,0,0,0,0
0.3439,1783187285.8301,1,0,1.0000,0.0000,1.44682,0.23328,-2.77748,0.97337,1.57080,0.00000,-0.14512,-0.38002,0.04652,,,,,,,,,,,,,,,,,,,,,,,,,,0,0,0,0,0
0.3623,1783187285.8485,1,0,1.0000,0.0000,1.44682,0.23328,-2.77748,0.97337,1.57080,0.00000,-0.14512,-0.38002,0.04652,,,,,,,,,,,,,,,,,,,,,,,,,,0,0,0,0,0
0.3626,1783187285.8488,1,0,1.0000,0.0000,1.44682,0.23328,-2.77748,0.97337,1.57080,0.00000,-0.14512,-0.38002,0.04652,,,,,,,,,,,,,,,,,,,,,,,,,,0,0,0,0,0
0.3744,1783187285.8606,1,0,1.0000,0.0000,1.44682,0.23328,-2.77748,0.97337,1.57080,0.00000,-0.14512,-0.38002,0.04652,,,,,,,,,,,,,,,,,,,,,,,,,,0,0,0,0,0
0.3802,1783187285.8664,1,0,1.0000,0.0000,1.44682,0.23328,-2.77748,0.97337,1.57080,0.00000,-0.14512,-0.38002,0.04652,,,,,,,,,,,,,,,,,,,,,,,,,,0,0,0,0,0
0.3919,1783187285.8781,1,0,1.0000,0.0000,1.44682,0.23328,-2.77748,0.97337,1.57080,0.00000,-0.14512,-0.38002,0.04652,,,,,,,,,,,,,,,,,,,,,,,,,,0,0,0,0,0
0.4052,1783187285.8914,1,0,1.0000,0.0000,1.44682,0.23328,-2.77748,0.97337,1.57080,0.00000,-0.14512,-0.38002,0.04652,,,,,,,,,,,,,,,,,,,,,,,,,,0,0,0,0,0
0.4106,1783187285.8968,1,0,1.0000,0.0000,1.44682,0.23328,-2.77748,0.97337,1.57080,0.00000,-0.14512,-0.38002,0.04652,,,,,,,,,,,,,,,,,,,,,,,,,,0,0,0,0,0
0.4266,1783187285.9128,1,0,1.0000,0.0000,1.44682,0.23328,-2.77748,0.97337,1.57080,0.00000,-0.14512,-0.38002,0.04652,,,,,,,,,,,,,,,,,,,,,,,,,,0,0,0,0,0
0.4269,1783187285.9131,1,0,1.0000,0.0000,1.44682,0.23328,-2.77748,0.97337,1.57080,0.00000,-0.14512,-0.38002,0.04652,,,,,,,,,,,,,,,,,,,,,,,,,,0,0,0,0,0
0.4303,1783187285.9165,1,0,1.0000,0.0000,1.44682,0.23328,-2.77748,0.97337,1.57080,0.00000,-0.14512,-0.38002,0.04652,,,,,,,,,,,,,,,,,,,,,,,,,,0,0,0,0,0
0.4407,1783187285.9269,1,0,1.0000,0.0000,1.44682,0.23328,-2.77748,0.97337,1.57080,0.00000,-0.14512,-0.38002,0.04652,,,,,,,,,,,,,,,,,,,,,,,,,,0,0,0,0,0
0.4535,1783187285.9397,1,0,1.0000,0.0000,1.44682,0.23328,-2.77748,0.97337,1.57080,0.00000,-0.14512,-0.38002,0.04652,,,,,,,,,,,,,,,,,,,,,,,,,,0,0,0,0,0
0.4668,1783187285.9530,1,0,1.0000,0.0000,1.44682,0.23328,-2.77748,0.97337,1.57080,0.00000,-0.14512,-0.38002,0.04652,,,,,,,,,,,,,,,,,,,,,,,,,,0,0,0,0,0
0.4706,1783187285.9568,1,0,1.0000,0.0000,1.44682,0.23328,-2.77748,0.97337,1.57080,0.00000,-0.14512,-0.38002,0.04652,,,,,,,,,,,,,,,,,,,,,,,,,,0,0,0,0,0
0.4798,1783187285.9660,1,0,1.0000,0.0000,1.44682,0.23328,-2.77748,0.97337,1.57080,0.00000,-0.14512,-0.38002,0.04652,,,,,,,,,,,,,,,,,,,,,,,,,,0,0,0,0,0
0.4801,1783187285.9663,1,0,1.0000,0.0000,1.44682,0.23328,-2.77748,0.97337,1.57080,0.00000,-0.14512,-0.38002,0.04652,,,,,,,,,,,,,,,,,,,,,,,,,,0,0,0,0,0
0.4925,1783187285.9787,1,0,1.0000,0.0000,1.44682,0.23328,-2.77748,0.97337,1.57080,0.00000,-0.14512,-0.38002,0.04652,,,,,,,,,,,,,,,,,,,,,,,,,,0,0,0,0,0
0.5118,1783187285.9980,1,0,1.0000,0.0000,1.44682,0.23328,-2.77748,0.97337,1.57080,0.00000,-0.14512,-0.38002,0.04652,,,,,,,,,,,,,,,,,,,,,,,,,,0,0,0,0,0
0.5127,1783187285.9989,1,0,1.0000,0.0000,1.44682,0.23328,-2.77748,0.97337,1.57080,0.00000,-0.14512,-0.38002,0.04652,,,,,,,,,,,,,,,,,,,,,,,,,,0,0,0,0,0
0.5131,1783187285.9993,1,0,1.0000,0.0000,1.44682,0.23328,-2.77748,0.97337,1.57080,0.00000,-0.14512,-0.38002,0.04652,,,,,,,,,,,,,,,,,,,,,,,,,,0,0,0,0,0
0.5210,1783187286.0072,1,0,1.0000,0.0000,1.44682,0.23328,-2.77748,0.97337,1.57080,0.00000,-0.14512,-0.38002,0.04652,,,,,,,,,,,,,,,,,,,,,,,,,,0,0,0,0,0
0.5338,1783187286.0200,1,0,1.0000,0.0000,1.44682,0.23328,-2.77748,0.97337,1.57080,0.00000,-0.14512,-0.38002,0.04652,,,,,,,,,,,,,,,,,,,,,,,,,,0,0,0,0,0
0.5423,1783187286.0285,1,0,1.0000,0.0000,1.44682,0.23328,-2.77748,0.97337,1.57080,0.00000,-0.14512,-0.38002,0.04652,,,,,,,,,,,,,,,,,,,,,,,,,,0,0,0,0,0
0.5508,1783187286.0370,1,0,1.0000,0.0000,1.44682,0.23328,-2.77748,0.97337,1.57080,0.00000,-0.14512,-0.38002,0.04652,,,,,,,,,,,,,,,,,,,,,,,,,,0,0,0,0,0
0.5707,1783187286.0569,1,0,1.0000,0.0000,1.44682,0.23328,-2.77748,0.97337,1.57080,0.00000,-0.14512,-0.38002,0.04652,,,,,,,,,,,,,,,,,,,,,,,,,,0,0,0,0,0
0.5710,1783187286.0572,1,0,1.0000,0.0000,1.44682,0.23328,-2.77748,0.97337,1.57080,0.00000,-0.14512,-0.38002,0.04652,,,,,,,,,,,,,,,,,,,,,,,,,,0,0,0,0,0
0.5712,1783187286.0574,1,0,1.0000,0.0000,1.44682,0.23328,-2.77748,0.97337,1.57080,0.00000,-0.14512,-0.38002,0.04652,,,,,,,,,,,,,,,,,,,,,,,,,,0,0,0,0,0
0.5851,1783187286.0713,1,0,1.0000,0.0000,1.44682,0.23328,-2.77748,0.97337,1.57080,0.00000,-0.14512,-0.38002,0.04652,,,,,,,,,,,,,,,,,,,,,,,,,,0,0,0,0,0
0.5948,1783187286.0810,1,0,1.0000,0.0000,1.44682,0.23328,-2.77748,0.97337,1.57080,0.00000,-0.14512,-0.38002,0.04652,,,,,,,,,,,,,,,,,,,,,,,,,,0,0,0,0,0
0.5952,1783187286.0814,1,0,1.0000,0.0000,1.44682,0.23328,-2.77748,0.97337,1.57080,0.00000,-0.14512,-0.38002,0.04652,,,,,,,,,,,,,,,,,,,,,,,,,,0,0,0,0,0
0.6042,1783187286.0904,1,0,1.0000,0.0000,1.44682,0.23328,-2.77748,0.97337,1.57080,0.00000,-0.14512,-0.38002,0.04652,,,,,,,,,,,,,,,,,,,,,,,,,,0,0,0,0,0
0.6134,1783187286.0996,1,0,1.0000,0.0000,1.44682,0.23328,-2.77748,0.97337,1.57080,0.00000,-0.14512,-0.38002,0.04652,,,,,,,,,,,,,,,,,,,,,,,,,,0,0,0,0,0
0.6139,1783187286.1001,1,0,1.0000,0.0000,1.44682,0.23328,-2.77748,0.97337,1.57080,0.00000,-0.14512,-0.38002,0.04652,,,,,,,,,,,,,,,,,,,,,,,,,,0,0,0,0,0
0.6238,1783187286.1100,1,0,1.0000,0.0000,1.44682,0.23328,-2.77748,0.97337,1.57080,0.00000,-0.14512,-0.38002,0.04652,,,,,,,,,,,,,,,,,,,,,,,,,,0,0,0,0,0
0.6322,1783187286.1184,1,0,1.0000,0.0000,1.44682,0.23328,-2.77748,0.97337,1.57080,0.00000,-0.14512,-0.38002,0.04652,,,,,,,,,,,,,,,,,,,,,,,,,,0,0,0,0,0
0.6333,1783187286.1195,1,0,1.0000,0.0000,1.44682,0.23328,-2.77748,0.97337,1.57080,0.00000,-0.14512,-0.38002,0.04652,,,,,,,,,,,,,,,,,,,,,,,,,,0,0,0,0,0
0.6437,1783187286.1299,1,0,1.0000,0.0000,1.44682,0.23328,-2.77748,0.97337,1.57080,0.00000,-0.14512,-0.38002,0.04652,,,,,,,,,,,,,,,,,,,,,,,,,,0,0,0,0,0
0.6442,1783187286.1304,1,0,1.0000,0.0000,1.44682,0.23328,-2.77748,0.97337,1.57080,0.00000,-0.14512,-0.38002,0.04652,,,,,,,,,,,,,,,,,,,,,,,,,,0,0,0,0,0
0.6503,1783187286.1365,1,0,1.0000,0.0000,1.44682,0.23328,-2.77748,0.97337,1.57080,0.00000,-0.14512,-0.38002,0.04652,,,,,,,,,,,,,,,,,,,,,,,,,,0,0,0,0,0
0.6603,1783187286.1465,1,0,1.0000,0.0000,1.44682,0.23328,-2.77748,0.97337,1.57080,0.00000,-0.14512,-0.38002,0.04652,,,,,,,,,,,,,,,,,,,,,,,,,,0,0,0,0,0
0.6728,1783187286.1590,1,0,1.0000,0.0000,1.44682,0.23328,-2.77748,0.97337,1.57080,0.00000,-0.14512,-0.38002,0.04652,,,,,,,,,,,,,,,,,,,,,,,,,,0,0,0,0,0
0.6830,1783187286.1692,1,0,1.0000,0.0000,1.44682,0.23328,-2.77748,0.97337,1.57080,0.00000,-0.14512,-0.38002,0.04652,,,,,,,,,,,,,,,,,,,,,,,,,,0,0,0,0,0
0.6943,1783187286.1805,1,0,1.0000,0.0000,1.44682,0.23328,-2.77748,0.97337,1.57080,0.00000,-0.14512,-0.38002,0.04652,,,,,,,,,,,,,,,,,,,,,,,,,,0,0,0,0,0
0.7004,1783187286.1866,1,0,1.0000,0.0000,1.44682,0.23328,-2.77748,0.97337,1.57080,0.00000,-0.14512,-0.38002,0.04652,,,,,,,,,,,,,,,,,,,,,,,,,,0,0,0,0,0
0.7010,1783187286.1871,1,0,1.0000,0.0000,1.44682,0.23328,-2.77748,0.97337,1.57080,0.00000,-0.14512,-0.38002,0.04652,,,,,,,,,,,,,,,,,,,,,,,,,,0,0,0,0,0
0.7162,1783187286.2024,1,0,1.0000,0.0000,1.44682,0.23328,-2.77748,0.97337,1.57080,0.00000,-0.14512,-0.38002,0.04652,,,,,,,,,,,,,,,,,,,,,,,,,,0,0,0,0,0
0.7215,1783187286.2077,1,0,1.0000,0.0000,1.44682,0.23328,-2.77748,0.97337,1.57080,0.00000,-0.14512,-0.38002,0.04652,,,,,,,,,,,,,,,,,,,,,,,,,,0,0,0,0,0
0.7338,1783187286.2199,1,1,1.0000,0.0000,1.44682,0.23328,-2.77748,0.97337,1.57080,0.00000,-0.14512,-0.38002,0.04652,,,,,,,,,,,,,,,,,,,,,,,,,,0,0,0,0,0
0.7417,1783187286.2279,1,1,1.0000,0.0000,1.44682,0.23328,-2.77748,0.97337,1.57080,0.00000,-0.14512,-0.38002,0.04652,,,,,,,,,,,,,,,,,,,,,,,,,,0,0,0,0,0
0.7523,1783187286.2385,1,1,1.0000,0.0000,1.44682,0.23328,-2.77748,0.97337,1.57080,0.00000,-0.14512,-0.38002,0.04652,,,,,,,,,,,,,,,,,,,,,,,,,,0,0,0,0,0
0.7614,1783187286.2476,1,1,1.0000,0.0000,1.44682,0.23328,-2.77748,0.97337,1.57080,0.00000,-0.14512,-0.38002,0.04652,,,,,,,,,,,,,,,,,,,,,,,,,,0,0,0,0,0
0.7738,1783187286.2600,1,1,1.0000,0.0000,1.44682,0.23328,-2.77748,0.97337,1.57080,0.00000,-0.14512,-0.38002,0.04652,,,,,,,,,,,,,,,,,,,,,,,,,,0,0,0,0,0
0.7801,1783187286.2663,1,1,1.0000,0.0000,1.44682,0.23328,-2.77748,0.97337,1.57080,0.00000,-0.14512,-0.38002,0.04652,,,,,,,,,,,,,,,,,,,,,,,,,,0,0,0,0,0
0.7805,1783187286.2667,1,1,1.0000,0.0000,1.44682,0.23328,-2.77748,0.97337,1.57080,0.00000,-0.14512,-0.38002,0.04652,,,,,,,,,,,,,,,,,,,,,,,,,,0,0,0,0,0
0.7922,1783187286.2783,1,1,1.0000,0.0000,1.44682,0.23328,-2.77748,0.97337,1.57080,0.00000,-0.14512,-0.38002,0.04652,,,,,,,,,,,,,,,,,,,,,,,,,,0,0,0,0,0
0.7924,1783187286.2786,1,1,1.0000,0.0000,1.44682,0.23328,-2.77748,0.97337,1.57080,0.00000,-0.14512,-0.38002,0.04652,,,,,,,,,,,,,,,,,,,,,,,,,,0,0,0,0,0
0.8023,1783187286.2885,1,1,1.0000,0.0000,1.44682,0.23328,-2.77748,0.97337,1.57080,0.00000,-0.14512,-0.38002,0.04652,,,,,,,,,,,,,,,,,,,,,,,,,,0,0,0,0,0
0.8167,1783187286.3029,1,1,1.0000,0.0000,1.44682,0.23328,-2.77748,0.97337,1.57080,0.00000,-0.14512,-0.38002,0.04652,,,,,,,,,,,,,,,,,,,,,,,,,,0,0,0,0,0
0.8236,1783187286.3098,1,1,1.0000,0.0000,1.44682,0.23328,-2.77748,0.97337,1.57080,0.00000,-0.14512,-0.38002,0.04652,,,,,,,,,,,,,,,,,,,,,,,,,,0,0,0,0,0
0.8239,1783187286.3101,1,1,1.0000,0.0000,1.44682,0.23328,-2.77748,0.97337,1.57080,0.00000,-0.14512,-0.38002,0.04652,,,,,,,,,,,,,,,,,,,,,,,,,,0,0,0,0,0
0.8360,1783187286.3222,1,1,1.0000,0.0000,1.44682,0.23328,-2.77748,0.97337,1.57080,0.00000,-0.14512,-0.38002,0.04652,,,,,,,,,,,,,,,,,,,,,,,,,,0,0,0,0,0
0.8410,1783187286.3272,1,1,1.0000,0.0000,1.44682,0.23328,-2.77748,0.97337,1.57080,0.00000,-0.14512,-0.38002,0.04652,,,,,,,,,,,,,,,,,,,,,,,,,,0,0,0,0,0
0.8414,1783187286.3276,1,1,1.0000,0.0000,1.44682,0.23328,-2.77748,0.97337,1.57080,0.00000,-0.14512,-0.38002,0.04652,,,,,,,,,,,,,,,,,,,,,,,,,,0,0,0,0,0
0.8565,1783187286.3427,1,1,1.0000,0.0000,1.44682,0.23328,-2.77748,0.97337,1.57080,0.00000,-0.14512,-0.38002,0.04652,,,,,,,,,,,,,,,,,,,,,,,,,,0,0,0,0,0
0.8641,1783187286.3503,1,1,1.0000,0.0000,1.44682,0.23328,-2.77748,0.97337,1.57080,0.00000,-0.14512,-0.38002,0.04652,,,,,,,,,,,,,,,,,,,,,,,,,,0,0,0,0,0
0.8764,1783187286.3625,1,1,1.0000,0.0000,1.44682,0.23328,-2.77748,0.97337,1.57080,0.00000,-0.14512,-0.38002,0.04652,,,,,,,,,,,,,,,,,,,,,,,,,,0,0,0,0,0
0.8768,1783187286.3630,1,1,1.0000,0.0000,1.44682,0.23328,-2.77748,0.97337,1.57080,0.00000,-0.14512,-0.38002,0.04652,,,,,,,,,,,,,,,,,,,,,,,,,,0,0,0,0,0
0.8801,1783187286.3662,1,1,1.0000,0.0000,1.44682,0.23328,-2.77748,0.97337,1.57080,0.00000,-0.14512,-0.38002,0.04652,,,,,,,,,,,,,,,,,,,,,,,,,,0,0,0,0,0
0.8804,1783187286.3666,1,1,1.0000,0.0000,1.44682,0.23328,-2.77748,0.97337,1.57080,0.00000,-0.14512,-0.38002,0.04652,,,,,,,,,,,,,,,,,,,,,,,,,,0,0,0,0,0
0.8915,1783187286.3777,1,1,1.0000,0.0000,1.44682,0.23328,-2.77748,0.97337,1.57080,0.00000,-0.14512,-0.38002,0.04652,,,,,,,,,,,,,,,,,,,,,,,,,,0,0,0,0,0
0.8920,1783187286.3782,1,1,1.0000,0.0000,1.44682,0.23328,-2.77748,0.97337,1.57080,0.00000,-0.14512,-0.38002,0.04652,,,,,,,,,,,,,,,,,,,,,,,,,,0,0,0,0,0
0.9021,1783187286.3883,1,1,1.0000,0.0000,1.44682,0.23328,-2.77748,0.97337,1.57080,0.00000,-0.14512,-0.38002,0.04652,,,,,,,,,,,,,,,,,,,,,,,,,,0,0,0,0,0
0.9025,1783187286.3887,1,1,1.0000,0.0000,1.44682,0.23328,-2.77748,0.97337,1.57080,0.00000,-0.14512,-0.38002,0.04652,,,,,,,,,,,,,,,,,,,,,,,,,,0,0,0,0,0
0.9122,1783187286.3984,1,1,1.0000,0.0000,1.44682,0.23328,-2.77748,0.97337,1.57080,0.00000,-0.14512,-0.38002,0.04652,,,,,,,,,,,,,,,,,,,,,,,,,,0,0,0,0,0
0.9234,1783187286.4096,1,1,1.0000,0.0000,1.44682,0.23327,-2.77748,0.97337,1.57080,0.00000,-0.14512,-0.38002,0.04652,,,,,,,,,,,,,,,,,,,,,,,,,,0,0,0,0,0
0.9386,1783187286.4248,1,1,1.0000,0.0000,1.44682,0.23325,-2.77749,0.97340,1.57080,0.00000,-0.14512,-0.38002,0.04652,,,,,,,,,,,,,,,,,,,,,,,,,,0,0,0,0,0
0.9434,1783187286.4296,1,1,1.0000,0.0000,1.44682,0.23323,-2.77750,0.97342,1.57080,0.00000,-0.14512,-0.38002,0.04651,,,,,,,,,,,,,,,,,,,,,,,,,,0,0,0,0,0
0.9550,1783187286.4412,1,1,1.0000,0.0000,1.44682,0.23322,-2.77750,0.97343,1.57080,0.00000,-0.14512,-0.38002,0.04651,,,,,,,,,,,,,,,,,,,,,,,,,,0,0,0,0,0
0.9556,1783187286.4418,1,1,1.0000,0.0000,1.44682,0.23322,-2.77750,0.97343,1.57080,0.00000,-0.14512,-0.38002,0.04651,,,,,,,,,,,,,,,,,,,,,,,,,,0,0,0,0,0
0.9776,1783187286.4638,1,1,1.0000,0.0000,1.44682,0.23319,-2.77751,0.97348,1.57080,0.00000,-0.14512,-0.38002,0.04650,,,,,,,,,,,,,,,,,,,,,,,,,,0,0,0,0,0
0.9782,1783187286.4644,1,1,1.0000,0.0000,1.44682,0.23319,-2.77751,0.97348,1.57080,0.00000,-0.14512,-0.38002,0.04650,,,,,,,,,,,,,,,,,,,,,,,,,,0,0,0,0,0
0.9786,1783187286.4648,1,1,1.0000,0.0000,1.44682,0.23319,-2.77751,0.97348,1.57080,0.00000,-0.14512,-0.38002,0.04650,,,,,,,,,,,,,,,,,,,,,,,,,,0,0,0,0,0
0.9835,1783187286.4697,1,1,1.0000,0.0000,1.44682,0.23319,-2.77751,0.97348,1.57080,0.00000,-0.14512,-0.38002,0.04650,,,,,,,,,,,,,,,,,,,,,,,,,,0,0,0,0,0
0.9838,1783187286.4700,1,1,1.0000,0.0000,1.44682,0.23319,-2.77751,0.97348,1.57080,0.00000,-0.14512,-0.38002,0.04650,,,,,,,,,,,,,,,,,,,,,,,,,,0,0,0,0,0
0.9934,1783187286.4795,1,1,1.0000,0.0000,1.44682,0.23318,-2.77751,0.97349,1.57080,0.00000,-0.14512,-0.38002,0.04650,,,,,,,,,,,,,,,,,,,,,,,,,,0,0,0,0,0
0.9937,1783187286.4799,1,1,1.0000,0.0000,1.44682,0.23318,-2.77751,0.97349,1.57080,0.00000,-0.14512,-0.38002,0.04650,,,,,,,,,,,,,,,,,,,,,,,,,,0,0,0,0,0
1.0562,1783187286.5424,1,1,1.0000,0.0000,1.44682,0.23309,-2.77753,0.97360,1.57080,0.00000,-0.14512,-0.38002,0.04647,,,,,,,,,,,,,,,,,,,,,,,,,,0,0,0,0,0
1.0566,1783187286.5428,1,1,1.0000,0.0000,1.44682,0.23309,-2.77753,0.97360,1.57080,0.00000,-0.14512,-0.38002,0.04647,,,,,,,,,,,,,,,,,,,,,,,,,,0,0,0,0,0
1.0568,1783187286.5430,1,1,1.0000,0.0000,1.44682,0.23309,-2.77753,0.97360,1.57080,0.00000,-0.14512,-0.38002,0.04647,,,,,,,,,,,,,,,,,,,,,,,,,,0,0,0,0,0
1.0572,1783187286.5434,1,1,1.0000,0.0000,1.44682,0.23309,-2.77753,0.97360,1.57080,0.00000,-0.14512,-0.38002,0.04647,,,,,,,,,,,,,,,,,,,,,,,,,,0,0,0,0,0
1.0575,1783187286.5437,1,1,1.0000,0.0000,1.44682,0.23309,-2.77753,0.97360,1.57080,0.00000,-0.14512,-0.38002,0.04647,,,,,,,,,,,,,,,,,,,,,,,,,,0,0,0,0,0
1.0578,1783187286.5440,1,1,1.0000,0.0000,1.44682,0.23309,-2.77753,0.97360,1.57080,0.00000,-0.14512,-0.38002,0.04647,,,,,,,,,,,,,,,,,,,,,,,,,,0,0,0,0,0
1.0641,1783187286.5503,1,1,1.0000,0.0000,1.44682,0.23307,-2.77754,0.97362,1.57080,0.00000,-0.14512,-0.38002,0.04647,,,,,,,,,,,,,,,,,,,,,,,,,,0,0,0,0,0
1.0850,1783187286.5712,1,1,1.0000,0.0000,1.44682,0.23305,-2.77754,0.97365,1.57080,0.00000,-0.14512,-0.38002,0.04646,,,,,,,,,,,,,,,,,,,,,,,,,,0,0,0,0,0
1.0853,1783187286.5715,1,1,1.0000,0.0000,1.44682,0.23305,-2.77754,0.97365,1.57080,0.00000,-0.14512,-0.38002,0.04646,,,,,,,,,,,,,,,,,,,,,,,,,,0,0,0,0,0
1.0858,1783187286.5720,1,1,1.0000,0.0000,1.44682,0.23305,-2.77754,0.97365,1.57080,0.00000,-0.14512,-0.38002,0.04646,,,,,,,,,,,,,,,,,,,,,,,,,,0,0,0,0,0
1.0860,1783187286.5722,1,1,1.0000,0.0000,1.44682,0.23305,-2.77754,0.97365,1.57080,0.00000,-0.14512,-0.38002,0.04646,,,,,,,,,,,,,,,,,,,,,,,,,,0,0,0,0,0
1.0933,1783187286.5795,1,1,1.0000,0.0000,1.44682,0.23304,-2.77755,0.97367,1.57080,0.00000,-0.14512,-0.38002,0.04646,,,,,,,,,,,,,,,,,,,,,,,,,,0,0,0,0,0
1.0937,1783187286.5799,1,1,1.0000,0.0000,1.44682,0.23304,-2.77755,0.97367,1.57080,0.00000,-0.14512,-0.38002,0.04646,,,,,,,,,,,,,,,,,,,,,,,,,,0,0,0,0,0
1.1043,1783187286.5905,1,1,1.0000,0.0000,1.44682,0.23302,-2.77755,0.97369,1.57080,0.00000,-0.14512,-0.38002,0.04646,,,,,,,,,,,,,,,,,,,,,,,,,,0,0,0,0,0
1.1163,1783187286.6025,1,1,1.0000,0.0000,1.44682,0.23301,-2.77755,0.97370,1.57080,0.00000,-0.14512,-0.38002,0.04645,,,,,,,,,,,,,,,,,,,,,,,,,,0,0,0,0,0
1.1247,1783187286.6109,1,1,1.0000,0.0000,1.44682,0.23300,-2.77756,0.97372,1.57080,0.00000,-0.14512,-0.38002,0.04645,,,,,,,,,,,,,,,,,,,,,,,,,,0,0,0,0,0
1.1371,1783187286.6233,1,1,1.0000,0.0000,1.44682,0.23299,-2.77756,0.97373,1.57080,0.00000,-0.14512,-0.38002,0.04645,,,,,,,,,,,,,,,,,,,,,,,,,,0,0,0,0,0
1.1433,1783187286.6295,1,1,1.0000,0.0000,1.44682,0.23298,-2.77756,0.97374,1.57080,0.00000,-0.14512,-0.38002,0.04644,,,,,,,,,,,,,,,,,,,,,,,,,,0,0,0,0,0
1.1436,1783187286.6298,1,1,1.0000,0.0000,1.44682,0.23298,-2.77756,0.97374,1.57080,0.00000,-0.14512,-0.38002,0.04644,,,,,,,,,,,,,,,,,,,,,,,,,,0,0,0,0,0
1.1563,1783187286.6425,1,1,1.0000,0.0000,1.44682,0.23295,-2.77757,0.97377,1.57080,0.00000,-0.14512,-0.38002,0.04644,,,,,,,,,,,,,,,,,,,,,,,,,,0,0,0,0,0
1.1665,1783187286.6527,1,1,1.0000,0.0000,1.44682,0.23294,-2.77757,0.97378,1.57080,0.00000,-0.14512,-0.38002,0.04644,,,,,,,,,,,,,,,,,,,,,,,,,,0,0,0,0,0
1.1865,1783187286.6727,1,1,1.0000,0.0000,1.44682,0.23292,-2.77758,0.97381,1.57080,0.00000,-0.14512,-0.38002,0.04643,,,,,,,,,,,,,,,,,,,,,,,,,,0,0,0,0,0
1.1938,1783187286.6800,1,1,1.0000,0.0000,1.44682,0.23292,-2.77758,0.97382,1.57080,0.00000,-0.14512,-0.38002,0.04643,,,,,,,,,,,,,,,,,,,,,,,,,,0,0,0,0,0
1.2045,1783187286.6907,1,1,1.0000,0.0000,1.44682,0.23290,-2.77758,0.97383,1.57080,0.00000,-0.14512,-0.38002,0.04643,,,,,,,,,,,,,,,,,,,,,,,,,,0,0,0,0,0
1.2149,1783187286.7011,1,1,1.0000,0.0000,1.44682,0.23288,-2.77759,0.97387,1.57080,0.00000,-0.14512,-0.38002,0.04642,,,,,,,,,,,,,,,,,,,,,,,,,,0,0,0,0,0
1.2297,1783187286.7158,1,1,1.0000,0.0000,1.44682,0.23287,-2.77759,0.97388,1.57080,0.00000,-0.14512,-0.38002,0.04642,,,,,,,,,,,,,,,,,,,,,,,,,,0,0,0,0,0
1.2390,1783187286.7252,1,1,1.0000,0.0000,1.44682,0.23286,-2.77759,0.97390,1.57080,0.00000,-0.14512,-0.38002,0.04641,,,,,,,,,,,,,,,,,,,,,,,,,,0,0,0,0,0
1.2478,1783187286.7340,1,1,1.0000,0.0000,1.44682,0.23284,-2.77760,0.97391,1.57080,0.00000,-0.14512,-0.38002,0.04641,,,,,,,,,,,,,,,,,,,,,,,,,,0,0,0,0,0
1.2591,1783187286.7453,1,1,1.0000,0.0000,1.44682,0.23284,-2.77760,0.97392,1.57080,0.00000,-0.14512,-0.38002,0.04641,,,,,,,,,,,,,,,,,,,,,,,,,,0,0,0,0,0
1.2649,1783187286.7511,1,1,1.0000,0.0000,1.44682,0.23283,-2.77760,0.97393,1.57080,0.00000,-0.14512,-0.38002,0.04641,,,,,,,,,,,,,,,,,,,,,,,,,,0,0,0,0,0
1.2733,1783187286.7595,1,1,1.0000,0.0000,1.44682,0.23281,-2.77760,0.97395,1.57080,0.00000,-0.14512,-0.38002,0.04640,,,,,,,,,,,,,,,,,,,,,,,,,,0,0,0,0,0
1.2836,1783187286.7698,1,1,1.0000,0.0000,1.44682,0.23280,-2.77761,0.97397,1.57080,0.00000,-0.14512,-0.38002,0.04640,,,,,,,,,,,,,,,,,,,,,,,,,,0,0,0,0,0
1.3006,1783187286.7868,1,1,1.0000,0.0000,1.44682,0.23278,-2.77761,0.97399,1.57080,0.00000,-0.14512,-0.38002,0.04639,,,,,,,,,,,,,,,,,,,,,,,,,,0,0,0,0,0
1.3048,1783187286.7910,1,1,1.0000,0.0000,1.44682,0.23277,-2.77762,0.97401,1.57080,0.00000,-0.14512,-0.38002,0.04639,,,,,,,,,,,,,,,,,,,,,,,,,,0,0,0,0,0
1.3150,1783187286.8012,1,1,1.0000,0.0000,1.44682,0.23276,-2.77762,0.97402,1.57080,0.00000,-0.14512,-0.38002,0.04639,,,,,,,,,,,,,,,,,,,,,,,,,,0,0,0,0,0
1.3153,1783187286.8015,1,1,1.0000,0.0000,1.44682,0.23276,-2.77762,0.97402,1.57080,0.00000,-0.14512,-0.38002,0.04639,,,,,,,,,,,,,,,,,,,,,,,,,,0,0,0,0,0
1.3283,1783187286.8145,1,1,1.0000,0.0000,1.44682,0.23274,-2.77762,0.97404,1.57080,0.00000,-0.14512,-0.38002,0.04638,,,,,,,,,,,,,,,,,,,,,,,,,,0,0,0,0,0
1.3400,1783187286.8262,1,1,1.0000,0.0000,1.44682,0.23271,-2.77763,0.97407,1.57080,0.00000,-0.14512,-0.38002,0.04638,,,,,,,,,,,,,,,,,,,,,,,,,,0,0,0,0,0
1.3469,1783187286.8331,1,1,1.0000,0.0000,1.44682,0.23271,-2.77763,0.97407,1.57080,0.00000,-0.14512,-0.38002,0.04638,,,,,,,,,,,,,,,,,,,,,,,,,,0,0,0,0,0
1.3473,1783187286.8335,1,1,1.0000,0.0000,1.44682,0.23271,-2.77763,0.97407,1.57080,0.00000,-0.14512,-0.38002,0.04638,,,,,,,,,,,,,,,,,,,,,,,,,,0,0,0,0,0
1.3573,1783187286.8435,1,1,1.0000,0.0000,1.44682,0.23270,-2.77763,0.97409,1.57080,0.00000,-0.14512,-0.38002,0.04637,,,,,,,,,,,,,,,,,,,,,,,,,,0,0,0,0,0
1.3671,1783187286.8533,1,1,1.0000,0.0000,1.44682,0.23268,-2.77764,0.97412,1.57080,0.00000,-0.14512,-0.38002,0.04637,,,,,,,,,,,,,,,,,,,,,,,,,,0,0,0,0,0
1.3876,1783187286.8738,1,1,1.0000,0.0000,1.44682,0.23266,-2.77764,0.97414,1.57080,0.00000,-0.14512,-0.38002,0.04636,,,,,,,,,,,,,,,,,,,,,,,,,,0,0,0,0,0
1.3935,1783187286.8797,1,1,1.0000,0.0000,1.44682,0.23265,-2.77765,0.97415,1.57080,0.00000,-0.14512,-0.38002,0.04636,,,,,,,,,,,,,,,,,,,,,,,,,,0,0,0,0,0
1.4035,1783187286.8897,1,1,1.0000,0.0000,1.44682,0.23263,-2.77765,0.97417,1.57080,0.00000,-0.14512,-0.38002,0.04635,,,,,,,,,,,,,,,,,,,,,,,,,,0,0,0,0,0
1.4144,1783187286.9006,1,1,1.0000,0.0000,1.44682,0.23263,-2.77765,0.97418,1.57080,0.00000,-0.14512,-0.38002,0.04635,,,,,,,,,,,,,,,,,,,,,,,,,,0,0,0,0,0
1.4341,1783187286.9203,1,1,1.0000,0.0000,1.44682,0.23259,-2.77766,0.97423,1.57080,0.00000,-0.14512,-0.38002,0.04634,,,,,,,,,,,,,,,,,,,,,,,,,,0,0,0,0,0
1.4509,1783187286.9371,1,1,1.0000,0.0000,1.44682,0.23257,-2.77767,0.97425,1.57080,0.00000,-0.14512,-0.38002,0.04634,,,,,,,,,,,,,,,,,,,,,,,,,,0,0,0,0,0
1.4571,1783187286.9433,1,1,1.0000,0.0000,1.44682,0.23257,-2.77767,0.97426,1.57080,0.00000,-0.14512,-0.38002,0.04634,,,,,,,,,,,,,,,,,,,,,,,,,,0,0,0,0,0
1.4635,1783187286.9497,1,1,1.0000,0.0000,1.44682,0.23256,-2.77767,0.97427,1.57080,0.00000,-0.14512,-0.38002,0.04634,,,,,,,,,,,,,,,,,,,,,,,,,,0,0,0,0,0
1.4638,1783187286.9500,1,1,1.0000,0.0000,1.44682,0.23256,-2.77767,0.97427,1.57080,0.00000,-0.14512,-0.38002,0.04634,,,,,,,,,,,,,,,,,,,,,,,,,,0,0,0,0,0
1.4733,1783187286.9595,1,1,1.0000,0.0000,1.44682,0.23256,-2.77767,0.97427,1.57080,0.00000,-0.14512,-0.38002,0.04633,,,,,,,,,,,,,,,,,,,,,,,,,,0,0,0,0,0
1.4982,1783187286.9844,1,1,1.0000,0.0000,1.44682,0.23251,-2.77768,0.97432,1.57080,0.00000,-0.14512,-0.38002,0.04632,,,,,,,,,,,,,,,,,,,,,,,,,,0,0,0,0,0
1.4988,1783187286.9850,1,1,1.0000,0.0000,1.44682,0.23251,-2.77768,0.97432,1.57080,0.00000,-0.14512,-0.38002,0.04632,,,,,,,,,,,,,,,,,,,,,,,,,,0,0,0,0,0
1.5044,1783187286.9906,1,1,1.0000,0.0000,1.44682,0.23251,-2.77768,0.97433,1.57080,0.00000,-0.14512,-0.38002,0.04632,,,,,,,,,,,,,,,,,,,,,,,,,,0,0,0,0,0
1.5171,1783187287.0033,1,1,1.0000,0.0000,1.44682,0.23249,-2.77769,0.97435,1.57080,0.00000,-0.14512,-0.38002,0.04632,,,,,,,,,,,,,,,,,,,,,,,,,,0,0,0,0,0
1.5174,1783187287.0036,1,1,1.0000,0.0000,1.44682,0.23249,-2.77769,0.97435,1.57080,0.00000,-0.14512,-0.38002,0.04632,,,,,,,,,,,,,,,,,,,,,,,,,,0,0,0,0,0
1.5231,1783187287.0093,1,1,1.0000,0.0000,1.44682,0.23249,-2.77769,0.97436,1.57080,0.00000,-0.14512,-0.38002,0.04632,,,,,,,,,,,,,,,,,,,,,,,,,,0,0,0,0,0
1.5235,1783187287.0097,1,1,1.0000,0.0000,1.44682,0.23249,-2.77769,0.97436,1.57080,0.00000,-0.14512,-0.38002,0.04632,,,,,,,,,,,,,,,,,,,,,,,,,,0,0,0,0,0
1.5358,1783187287.0220,1,1,1.0000,0.0000,1.44682,0.23247,-2.77769,0.97437,1.57080,0.00000,-0.14512,-0.38002,0.04631,,,,,,,,,,,,,,,,,,,,,,,,,,0,0,0,0,0
1.5451,1783187287.0313,1,1,1.0000,0.0000,1.44682,0.23246,-2.77770,0.97439,1.57080,0.00000,-0.14512,-0.38002,0.04631,,,,,,,,,,,,,,,,,,,,,,,,,,0,0,0,0,0
1.5597,1783187287.0459,1,1,1.0000,0.0000,1.44682,0.23244,-2.77770,0.97442,1.57080,0.00000,-0.14512,-0.38002,0.04630,,,,,,,,,,,,,,,,,,,,,,,,,,0,0,0,0,0
1.5660,1783187287.0522,1,1,1.0000,0.0000,1.44682,0.23244,-2.77770,0.97442,1.57080,0.00000,-0.14512,-0.38002,0.04630,,,,,,,,,,,,,,,,,,,,,,,,,,0,0,0,0,0
1.5743,1783187287.0605,1,1,1.0000,0.0000,1.44682,0.23243,-2.77770,0.97443,1.57080,0.00000,-0.14512,-0.38002,0.04630,,,,,,,,,,,,,,,,,,,,,,,,,,0,0,0,0,0
1.5973,1783187287.0834,1,1,1.0000,0.0000,1.44682,0.23240,-2.77771,0.97447,1.57080,0.00000,-0.14512,-0.38002,0.04629,,,,,,,,,,,,,,,,,,,,,,,,,,0,0,0,0,0
1.5975,1783187287.0837,1,1,1.0000,0.0000,1.44682,0.23240,-2.77771,0.97447,1.57080,0.00000,-0.14512,-0.38002,0.04629,,,,,,,,,,,,,,,,,,,,,,,,,,0,0,0,0,0
1.6035,1783187287.0897,1,1,1.0000,0.0000,1.44682,0.23238,-2.77771,0.97449,1.57080,0.00000,-0.14512,-0.38002,0.04629,,,,,,,,,,,,,,,,,,,,,,,,,,0,0,0,0,0
1.6149,1783187287.1010,1,1,1.0000,0.0000,1.44682,0.23237,-2.77772,0.97451,1.57080,0.00000,-0.14512,-0.38002,0.04628,,,,,,,,,,,,,,,,,,,,,,,,,,0,0,0,0,0
1.6243,1783187287.1105,1,1,1.0000,0.0000,1.44682,0.23236,-2.77772,0.97452,1.57080,0.00000,-0.14512,-0.38002,0.04628,,,,,,,,,,,,,,,,,,,,,,,,,,0,0,0,0,0
1.6373,1783187287.1235,1,1,1.0000,0.0000,1.44682,0.23235,-2.77772,0.97454,1.57080,0.00000,-0.14512,-0.38002,0.04628,,,,,,,,,,,,,,,,,,,,,,,,,,0,0,0,0,0
1.6474,1783187287.1336,1,1,1.0000,0.0000,1.44682,0.23234,-2.77773,0.97455,1.57080,0.00000,-0.14512,-0.38002,0.04628,,,,,,,,,,,,,,,,,,,,,,,,,,0,0,0,0,0
1.6568,1783187287.1430,1,1,1.0000,0.0000,1.44682,0.23233,-2.77773,0.97456,1.57080,0.00000,-0.14512,-0.38002,0.04627,,,,,,,,,,,,,,,,,,,,,,,,,,0,0,0,0,0
1.6682,1783187287.1544,1,1,1.0000,0.0000,1.44682,0.23230,-2.77774,0.97459,1.57080,0.00000,-0.14512,-0.38002,0.04627,,,,,,,,,,,,,,,,,,,,,,,,,,0,0,0,0,0
1.6788,1783187287.1650,1,1,1.0000,0.0000,1.44682,0.23229,-2.77774,0.97460,1.57080,0.00000,-0.14512,-0.38002,0.04627,,,,,,,,,,,,,,,,,,,,,,,,,,0,0,0,0,0
1.6988,1783187287.1850,1,1,1.0000,0.0000,1.44682,0.23226,-2.77775,0.97464,1.57080,0.00000,-0.14512,-0.38002,0.04626,,,,,,,,,,,,,,,,,,,,,,,,,,0,0,0,0,0
1.7009,1783187287.1871,1,1,1.0000,0.0000,1.44682,0.23226,-2.77775,0.97464,1.57080,0.00000,-0.14512,-0.38002,0.04626,,,,,,,,,,,,,,,,,,,,,,,,,,0,0,0,0,0
1.7014,1783187287.1876,1,1,1.0000,0.0000,1.44682,0.23226,-2.77775,0.97464,1.57080,0.00000,-0.14512,-0.38002,0.04626,,,,,,,,,,,,,,,,,,,,,,,,,,0,0,0,0,0
1.7117,1783187287.1979,1,1,1.0000,0.0000,1.44682,0.23226,-2.77775,0.97465,1.57080,0.00000,-0.14512,-0.38002,0.04626,,,,,,,,,,,,,,,,,,,,,,,,,,0,0,0,0,0
1.7164,1783187287.2026,1,1,1.0000,0.0000,1.44682,0.23225,-2.77775,0.97465,1.57080,0.00000,-0.14512,-0.38002,0.04625,,,,,,,,,,,,,,,,,,,,,,,,,,0,0,0,0,0
1.7168,1783187287.2030,1,1,1.0000,0.0000,1.44682,0.23225,-2.77775,0.97465,1.57080,0.00000,-0.14512,-0.38002,0.04625,,,,,,,,,,,,,,,,,,,,,,,,,,0,0,0,0,0
1.7285,1783187287.2147,1,1,1.0000,0.0000,1.44682,0.23223,-2.77776,0.97469,1.57080,0.00000,-0.14512,-0.38002,0.04625,,,,,,,,,,,,,,,,,,,,,,,,,,0,0,0,0,0
1.7390,1783187287.2252,1,1,1.0000,0.0000,1.44682,0.23222,-2.77776,0.97470,1.57080,0.00000,-0.14512,-0.38002,0.04625,,,,,,,,,,,,,,,,,,,,,,,,,,0,0,0,0,0
1.7469,1783187287.2331,1,1,1.0000,0.0000,1.44682,0.23221,-2.77776,0.97471,1.57080,0.00000,-0.14512,-0.38002,0.04624,,,,,,,,,,,,,,,,,,,,,,,,,,0,0,0,0,0
1.7576,1783187287.2438,1,1,1.0000,0.0000,1.44682,0.23220,-2.77776,0.97472,1.57080,0.00000,-0.14512,-0.38002,0.04624,,,,,,,,,,,,,,,,,,,,,,,,,,0,0,0,0,0
1.7579,1783187287.2441,1,1,1.0000,0.0000,1.44682,0.23220,-2.77776,0.97472,1.57080,0.00000,-0.14512,-0.38002,0.04624,,,,,,,,,,,,,,,,,,,,,,,,,,0,0,0,0,0
1.7670,1783187287.2532,1,1,1.0000,0.0000,1.44682,0.23219,-2.77777,0.97473,1.57080,0.00000,-0.14512,-0.38002,0.04624,,,,,,,,,,,,,,,,,,,,,,,,,,0,0,0,0,0
1.7808,1783187287.2670,1,1,1.0000,0.0000,1.44682,0.23217,-2.77777,0.97476,1.57080,0.00000,-0.14512,-0.38002,0.04623,,,,,,,,,,,,,,,,,,,,,,,,,,0,0,0,0,0
1.7868,1783187287.2730,1,1,1.0000,0.0000,1.44682,0.23215,-2.77777,0.97478,1.57080,0.00000,-0.14512,-0.38002,0.04623,,,,,,,,,,,,,,,,,,,,,,,,,,0,0,0,0,0
1.8012,1783187287.2874,1,1,1.0000,0.0000,1.44682,0.23214,-2.77778,0.97479,1.57080,0.00000,-0.14512,-0.38002,0.04623,,,,,,,,,,,,,,,,,,,,,,,,,,0,0,0,0,0
1.8103,1783187287.2965,1,1,1.0000,0.0000,1.44682,0.23214,-2.77778,0.97480,1.57080,0.00000,-0.14512,-0.38002,0.04622,,,,,,,,,,,,,,,,,,,,,,,,,,0,0,0,0,0
1.8167,1783187287.3029,1,1,1.0000,0.0000,1.44682,0.23212,-2.77778,0.97482,1.57080,0.00000,-0.14512,-0.38002,0.04622,,,,,,,,,,,,,,,,,,,,,,,,,,0,0,0,0,0
1.8273,1783187287.3135,1,1,1.0000,0.0000,1.44682,0.23211,-2.77778,0.97483,1.57080,0.00000,-0.14512,-0.38002,0.04622,,,,,,,,,,,,,,,,,,,,,,,,,,0,0,0,0,0
1.8276,1783187287.3138,1,1,1.0000,0.0000,1.44682,0.23211,-2.77778,0.97483,1.57080,0.00000,-0.14512,-0.38002,0.04622,,,,,,,,,,,,,,,,,,,,,,,,,,0,0,0,0,0
1.8390,1783187287.3252,1,1,1.0000,0.0000,1.44682,0.23210,-2.77779,0.97485,1.57080,0.00000,-0.14512,-0.38002,0.04621,,,,,,,,,,,,,,,,,,,,,,,,,,0,0,0,0,0
1.8482,1783187287.3344,1,1,1.0000,0.0000,1.44682,0.23208,-2.77779,0.97487,1.57080,0.00000,-0.14512,-0.38002,0.04621,,,,,,,,,,,,,,,,,,,,,,,,,,0,0,0,0,0
1.8485,1783187287.3347,1,1,1.0000,0.0000,1.44682,0.23208,-2.77779,0.97487,1.57080,0.00000,-0.14512,-0.38002,0.04621,,,,,,,,,,,,,,,,,,,,,,,,,,0,0,0,0,0
1.8589,1783187287.3451,1,1,1.0000,0.0000,1.44682,0.23207,-2.77780,0.97488,1.57080,0.00000,-0.14512,-0.38002,0.04621,,,,,,,,,,,,,,,,,,,,,,,,,,0,0,0,0,0
1.8593,1783187287.3455,1,1,1.0000,0.0000,1.44682,0.23207,-2.77780,0.97488,1.57080,0.00000,-0.14512,-0.38002,0.04621,,,,,,,,,,,,,,,,,,,,,,,,,,0,0,0,0,0
1.8677,1783187287.3539,1,1,1.0000,0.0000,1.44682,0.23206,-2.77780,0.97490,1.57080,0.00000,-0.14512,-0.38002,0.04620,,,,,,,,,,,,,,,,,,,,,,,,,,0,0,0,0,0
1.8809,1783187287.3671,1,1,1.0000,0.0000,1.44682,0.23203,-2.77780,0.97493,1.57080,0.00000,-0.14512,-0.38002,0.04620,,,,,,,,,,,,,,,,,,,,,,,,,,0,0,0,0,0
1.8879,1783187287.3741,1,1,1.0000,0.0000,1.44682,0.23203,-2.77781,0.97493,1.57080,0.00000,-0.14512,-0.38002,0.04620,,,,,,,,,,,,,,,,,,,,,,,,,,0,0,0,0,0
1.8989,1783187287.3851,1,1,1.0000,0.0000,1.44682,0.23201,-2.77781,0.97495,1.57080,0.00000,-0.14512,-0.38002,0.04619,,,,,,,,,,,,,,,,,,,,,,,,,,0,0,0,0,0
1.9082,1783187287.3944,1,1,1.0000,0.0000,1.44682,0.23200,-2.77781,0.97497,1.57080,0.00000,-0.14512,-0.38002,0.04619,,,,,,,,,,,,,,,,,,,,,,,,,,0,0,0,0,0
1.9194,1783187287.4056,1,1,1.0000,0.0000,1.44682,0.23199,-2.77782,0.97499,1.57080,0.00000,-0.14512,-0.38002,0.04619,,,,,,,,,,,,,,,,,,,,,,,,,,0,0,0,0,0
1.9269,1783187287.4131,1,1,1.0000,0.0000,1.44682,0.23198,-2.77782,0.97500,1.57080,0.00000,-0.14512,-0.38002,0.04618,,,,,,,,,,,,,,,,,,,,,,,,,,0,0,0,0,0
1.9368,1783187287.4230,1,1,1.0000,0.0000,1.44682,0.23196,-2.77782,0.97502,1.57080,0.00000,-0.14512,-0.38002,0.04618,,,,,,,,,,,,,,,,,,,,,,,,,,0,0,0,0,0
1.9493,1783187287.4355,1,1,1.0000,0.0000,1.44682,0.23195,-2.77783,0.97503,1.57080,0.00000,-0.14512,-0.38002,0.04618,,,,,,,,,,,,,,,,,,,,,,,,,,0,0,0,0,0
1.9630,1783187287.4492,1,1,1.0000,0.0000,1.44682,0.23193,-2.77783,0.97506,1.57080,0.00000,-0.14512,-0.38002,0.04617,,,,,,,,,,,,,,,,,,,,,,,,,,0,0,0,0,0
1.9691,1783187287.4553,1,1,1.0000,0.0000,1.44682,0.23192,-2.77784,0.97508,1.57080,0.00000,-0.14512,-0.38002,0.04617,,,,,,,,,,,,,,,,,,,,,,,,,,0,0,0,0,0
1.9766,1783187287.4628,1,1,1.0000,0.0000,1.44682,0.23191,-2.77784,0.97509,1.57080,0.00000,-0.14512,-0.38002,0.04617,,,,,,,,,,,,,,,,,,,,,,,,,,0,0,0,0,0
1.9893,1783187287.4755,1,1,1.0000,0.0000,1.44682,0.23190,-2.77784,0.97510,1.57080,0.00000,-0.14512,-0.38002,0.04616,,,,,,,,,,,,,,,,,,,,,,,,,,0,0,0,0,0
2.0037,1783187287.4899,1,1,1.0000,0.0000,1.44682,0.23187,-2.77785,0.97513,1.57080,0.00000,-0.14512,-0.38002,0.04616,,,,,,,,,,,,,,,,,,,,,,,,,,0,0,0,0,0
2.0069,1783187287.4931,1,1,1.0000,0.0000,1.44682,0.23187,-2.77785,0.97513,1.57080,0.00000,-0.14512,-0.38002,0.04616,,,,,,,,,,,,,,,,,,,,,,,,,,0,0,0,0,0
2.0182,1783187287.5043,1,1,1.0000,0.0000,1.44682,0.23186,-2.77785,0.97515,1.57080,0.00000,-0.14512,-0.38002,0.04615,,,,,,,,,,,,,,,,,,,,,,,,,,0,0,0,0,0
2.0289,1783187287.5151,1,1,1.0000,0.0000,1.44682,0.23184,-2.77786,0.97518,1.57080,0.00000,-0.14512,-0.38002,0.04615,,,,,,,,,,,,,,,,,,,,,,,,,,0,0,0,0,0
2.0292,1783187287.5154,1,1,1.0000,0.0000,1.44682,0.23184,-2.77786,0.97518,1.57080,0.00000,-0.14512,-0.38002,0.04615,,,,,,,,,,,,,,,,,,,,,,,,,,0,0,0,0,0
2.0365,1783187287.5227,1,1,1.0000,0.0000,1.44682,0.23183,-2.77786,0.97519,1.57080,0.00000,-0.14512,-0.38002,0.04614,,,,,,,,,,,,,,,,,,,,,,,,,,0,0,0,0,0
2.0369,1783187287.5231,1,1,1.0000,0.0000,1.44682,0.23183,-2.77786,0.97519,1.57080,0.00000,-0.14512,-0.38002,0.04614,,,,,,,,,,,,,,,,,,,,,,,,,,0,0,0,0,0
2.0493,1783187287.5355,1,1,1.0000,0.0000,1.44682,0.23182,-2.77786,0.97520,1.57080,0.00000,-0.14512,-0.38002,0.04614,,,,,,,,,,,,,,,,,,,,,,,,,,0,0,0,0,0
2.0497,1783187287.5359,1,1,1.0000,0.0000,1.44682,0.23182,-2.77786,0.97520,1.57080,0.00000,-0.14512,-0.38002,0.04614,,,,,,,,,,,,,,,,,,,,,,,,,,0,0,0,0,0
2.0595,1783187287.5457,1,1,1.0000,0.0000,1.44682,0.23179,-2.77787,0.97523,1.57080,0.00000,-0.14512,-0.38002,0.04613,,,,,,,,,,,,,,,,,,,,,,,,,,0,0,0,0,0
2.0598,1783187287.5459,1,1,1.0000,0.0000,1.44682,0.23179,-2.77787,0.97523,1.57080,0.00000,-0.14512,-0.38002,0.04613,,,,,,,,,,,,,,,,,,,,,,,,,,0,0,0,0,0
2.0832,1783187287.5694,1,1,1.0000,0.0000,1.44682,0.23176,-2.77787,0.97527,1.57080,0.00000,-0.14512,-0.38002,0.04613,,,,,,,,,,,,,,,,,,,,,,,,,,0,0,0,0,0
2.1052,1783187287.5914,1,1,1.0000,0.0000,1.44682,0.23174,-2.77788,0.97530,1.57080,0.00000,-0.14512,-0.38002,0.04612,,,,,,,,,,,,,,,,,,,,,,,,,,0,0,0,0,0
2.1056,1783187287.5918,1,1,1.0000,0.0000,1.44682,0.23174,-2.77788,0.97530,1.57080,0.00000,-0.14512,-0.38002,0.04612,,,,,,,,,,,,,,,,,,,,,,,,,,0,0,0,0,0
2.1275,1783187287.6136,1,1,1.0000,0.0000,1.44682,0.23171,-2.77789,0.97534,1.57080,0.00000,-0.14512,-0.38002,0.04611,,,,,,,,,,,,,,,,,,,,,,,,,,0,0,0,0,0
2.1277,1783187287.6139,1,1,1.0000,0.0000,1.44682,0.23171,-2.77789,0.97534,1.57080,0.00000,-0.14512,-0.38002,0.04611,,,,,,,,,,,,,,,,,,,,,,,,,,0,0,0,0,0
2.1280,1783187287.6142,1,1,1.0000,0.0000,1.44682,0.23171,-2.77789,0.97534,1.57080,0.00000,-0.14512,-0.38002,0.04611,,,,,,,,,,,,,,,,,,,,,,,,,,0,0,0,0,0
2.1283,1783187287.6145,1,1,1.0000,0.0000,1.44682,0.23171,-2.77789,0.97534,1.57080,0.00000,-0.14512,-0.38002,0.04611,,,,,,,,,,,,,,,,,,,,,,,,,,0,0,0,0,0
2.1372,1783187287.6234,1,1,1.0000,0.0000,1.44682,0.23170,-2.77789,0.97535,1.57080,0.00000,-0.14512,-0.38002,0.04611,,,,,,,,,,,,,,,,,,,,,,,,,,0,0,0,0,0
2.1375,1783187287.6237,1,1,1.0000,0.0000,1.44682,0.23170,-2.77789,0.97535,1.57080,0.00000,-0.14512,-0.38002,0.04611,,,,,,,,,,,,,,,,,,,,,,,,,,0,0,0,0,0
2.1493,1783187287.6355,1,1,1.0000,0.0000,1.44682,0.23167,-2.77790,0.97538,1.57080,0.00000,-0.14512,-0.38002,0.04610,,,,,,,,,,,,,,,,,,,,,,,,,,0,0,0,0,0
2.1496,1783187287.6358,1,1,1.0000,0.0000,1.44682,0.23167,-2.77790,0.97538,1.57080,0.00000,-0.14512,-0.38002,0.04610,,,,,,,,,,,,,,,,,,,,,,,,,,0,0,0,0,0
2.1594,1783187287.6456,1,1,1.0000,0.0000,1.44682,0.23166,-2.77790,0.97539,1.57080,0.00000,-0.14512,-0.38002,0.04610,,,,,,,,,,,,,,,,,,,,,,,,,,0,0,0,0,0
2.1676,1783187287.6538,1,1,1.0000,0.0000,1.44682,0.23165,-2.77790,0.97541,1.57080,0.00000,-0.14512,-0.38002,0.04610,,,,,,,,,,,,,,,,,,,,,,,,,,0,0,0,0,0
2.1804,1783187287.6665,1,1,1.0000,0.0000,1.44682,0.23163,-2.77791,0.97544,1.57080,0.00000,-0.14512,-0.38002,0.04609,,,,,,,,,,,,,,,,,,,,,,,,,,0,0,0,0,0
2.1888,1783187287.6750,1,1,1.0000,0.0000,1.44682,0.23162,-2.77791,0.97545,1.57080,0.00000,-0.14512,-0.38002,0.04609,,,,,,,,,,,,,,,,,,,,,,,,,,0,0,0,0,0
2.2145,1783187287.7007,1,1,1.0000,0.0000,1.44682,0.23159,-2.77792,0.97548,1.57080,0.00000,-0.14512,-0.38002,0.04608,,,,,,,,,,,,,,,,,,,,,,,,,,0,0,0,0,0
2.2166,1783187287.7028,1,1,1.0000,0.0000,1.44682,0.23159,-2.77792,0.97548,1.57080,0.00000,-0.14512,-0.38002,0.04608,,,,,,,,,,,,,,,,,,,,,,,,,,0,0,0,0,0
2.2284,1783187287.7146,1,1,1.0000,0.0000,1.44682,0.23158,-2.77792,0.97550,1.57080,0.00000,-0.14512,-0.38002,0.04608,,,,,,,,,,,,,,,,,,,,,,,,,,0,0,0,0,0
2.2365,1783187287.7227,1,1,1.0000,0.0000,1.44682,0.23156,-2.77793,0.97552,1.57080,0.00000,-0.14512,-0.38002,0.04608,,,,,,,,,,,,,,,,,,,,,,,,,,0,0,0,0,0
2.2487,1783187287.7349,1,1,1.0000,0.0000,1.44682,0.23155,-2.77793,0.97554,1.57080,0.00000,-0.14512,-0.38002,0.04607,,,,,,,,,,,,,,,,,,,,,,,,,,0,0,0,0,0
2.2590,1783187287.7452,1,1,1.0000,0.0000,1.44682,0.23154,-2.77793,0.97555,1.57080,0.00000,-0.14512,-0.38002,0.04607,,,,,,,,,,,,,,,,,,,,,,,,,,0,0,0,0,0
2.2698,1783187287.7560,1,1,1.0000,0.0000,1.44682,0.23153,-2.77794,0.97557,1.57080,0.00000,-0.14512,-0.38002,0.04607,,,,,,,,,,,,,,,,,,,,,,,,,,0,0,0,0,0
2.2764,1783187287.7626,1,1,1.0000,0.0000,1.44682,0.23152,-2.77794,0.97558,1.57080,0.00000,-0.14512,-0.38002,0.04606,,,,,,,,,,,,,,,,,,,,,,,,,,0,0,0,0,0
2.2868,1783187287.7730,1,1,1.0000,0.0000,1.44682,0.23151,-2.77794,0.97559,1.57080,0.00000,-0.14512,-0.38002,0.04606,,,,,,,,,,,,,,,,,,,,,,,,,,0,0,0,0,0
2.2982,1783187287.7844,1,1,1.0000,0.0000,1.44682,0.23149,-2.77795,0.97561,1.57080,0.00000,-0.14512,-0.38002,0.04606,,,,,,,,,,,,,,,,,,,,,,,,,,0,0,0,0,0
2.3086,1783187287.7948,1,1,1.0000,0.0000,1.44682,0.23147,-2.77795,0.97563,1.57080,0.00000,-0.14512,-0.38002,0.04605,,,,,,,,,,,,,,,,,,,,,,,,,,0,0,0,0,0
2.3171,1783187287.8033,1,1,1.0000,0.0000,1.44682,0.23147,-2.77795,0.97564,1.57080,0.00000,-0.14512,-0.38002,0.04605,,,,,,,,,,,,,,,,,,,,,,,,,,0,0,0,0,0
2.3308,1783187287.8170,1,1,1.0000,0.0000,1.44682,0.23144,-2.77796,0.97567,1.57080,0.00000,-0.14512,-0.38002,0.04604,,,,,,,,,,,,,,,,,,,,,,,,,,0,0,0,0,0
2.3396,1783187287.8258,1,1,1.0000,0.0000,1.44682,0.23144,-2.77796,0.97567,1.57080,0.00000,-0.14512,-0.38002,0.04604,,,,,,,,,,,,,,,,,,,,,,,,,,0,0,0,0,0
2.3529,1783187287.8391,1,1,1.0000,0.0000,1.44682,0.23142,-2.77796,0.97570,1.57080,0.00000,-0.14512,-0.38002,0.04604,,,,,,,,,,,,,,,,,,,,,,,,,,0,0,0,0,0
2.3576,1783187287.8438,1,1,1.0000,0.0000,1.44682,0.23142,-2.77796,0.97571,1.57080,0.00000,-0.14512,-0.38002,0.04604,,,,,,,,,,,,,,,,,,,,,,,,,,0,0,0,0,0
2.3710,1783187287.8572,1,1,1.0000,0.0000,1.44682,0.23140,-2.77797,0.97573,1.57080,0.00000,-0.14512,-0.38002,0.04603,,,,,,,,,,,,,,,,,,,,,,,,,,0,0,0,0,0
2.3801,1783187287.8663,1,1,1.0000,0.0000,1.44682,0.23139,-2.77797,0.97574,1.57080,0.00000,-0.14512,-0.38002,0.04603,,,,,,,,,,,,,,,,,,,,,,,,,,0,0,0,0,0
2.3877,1783187287.8739,1,1,1.0000,0.0000,1.44682,0.23138,-2.77797,0.97575,1.57080,0.00000,-0.14512,-0.38002,0.04603,,,,,,,,,,,,,,,,,,,,,,,,,,0,0,0,0,0
2.4009,1783187287.8871,1,1,1.0000,0.0000,1.44682,0.23137,-2.77798,0.97577,1.57080,0.00000,-0.14512,-0.38002,0.04602,,,,,,,,,,,,,,,,,,,,,,,,,,0,0,0,0,0
2.4120,1783187287.8982,1,1,1.0000,0.0000,1.44682,0.23135,-2.77798,0.97579,1.57080,0.00000,-0.14512,-0.38002,0.04602,,,,,,,,,,,,,,,,,,,,,,,,,,0,0,0,0,0
2.4172,1783187287.9034,1,1,1.0000,0.0000,1.44682,0.23134,-2.77798,0.97580,1.57080,0.00000,-0.14512,-0.38002,0.04602,,,,,,,,,,,,,,,,,,,,,,,,,,0,0,0,0,0
2.4311,1783187287.9172,1,1,1.0000,0.0000,1.44682,0.23132,-2.77799,0.97582,1.57080,0.00000,-0.14512,-0.38002,0.04601,,,,,,,,,,,,,,,,,,,,,,,,,,0,0,0,0,0
2.4383,1783187287.9244,1,1,1.0000,0.0000,1.44682,0.23132,-2.77799,0.97583,1.57080,0.00000,-0.14512,-0.38002,0.04601,,,,,,,,,,,,,,,,,,,,,,,,,,0,0,0,0,0
2.4538,1783187287.9400,1,1,1.0000,0.0000,1.44682,0.23130,-2.77799,0.97586,1.57080,0.00000,-0.14512,-0.38002,0.04600,,,,,,,,,,,,,,,,,,,,,,,,,,0,0,0,0,0
2.4575,1783187287.9437,1,1,1.0000,0.0000,1.44682,0.23130,-2.77799,0.97586,1.57080,0.00000,-0.14512,-0.38002,0.04600,,,,,,,,,,,,,,,,,,,,,,,,,,0,0,0,0,0
2.4671,1783187287.9533,1,1,1.0000,0.0000,1.44682,0.23128,-2.77800,0.97587,1.57080,0.00000,-0.14512,-0.38002,0.04600,,,,,,,,,,,,,,,,,,,,,,,,,,0,0,0,0,0
2.4775,1783187287.9637,1,1,1.0000,0.0000,1.44682,0.23127,-2.77800,0.97589,1.57080,0.00000,-0.14512,-0.38002,0.04600,,,,,,,,,,,,,,,,,,,,,,,,,,0,0,0,0,0
2.4876,1783187287.9738,1,1,1.0000,0.0000,1.44682,0.23125,-2.77801,0.97591,1.57080,0.00000,-0.14512,-0.38002,0.04599,,,,,,,,,,,,,,,,,,,,,,,,,,0,0,0,0,0
2.4979,1783187287.9841,1,1,1.0000,0.0000,1.44682,0.23124,-2.77801,0.97592,1.57080,0.00000,-0.14512,-0.38002,0.04599,,,,,,,,,,,,,,,,,,,,,,,,,,0,0,0,0,0
2.4982,1783187287.9844,1,1,1.0000,0.0000,1.44682,0.23124,-2.77801,0.97592,1.57080,0.00000,-0.14512,-0.38002,0.04599,,,,,,,,,,,,,,,,,,,,,,,,,,0,0,0,0,0
2.5141,1783187288.0002,1,1,1.0000,0.0000,1.44682,0.23121,-2.77802,0.97596,1.57080,0.00000,-0.14512,-0.38002,0.04598,,,,,,,,,,,,,,,,,,,,,,,,,,0,0,0,0,0
2.5172,1783187288.0034,1,1,1.0000,0.0000,1.44682,0.23121,-2.77802,0.97596,1.57080,0.00000,-0.14512,-0.38002,0.04598,,,,,,,,,,,,,,,,,,,,,,,,,,0,0,0,0,0
2.5176,1783187288.0037,1,1,1.0000,0.0000,1.44682,0.23121,-2.77802,0.97596,1.57080,0.00000,-0.14512,-0.38002,0.04598,,,,,,,,,,,,,,,,,,,,,,,,,,0,0,0,0,0
2.5287,1783187288.0149,1,1,1.0000,0.0000,1.44682,0.23120,-2.77802,0.97598,1.57080,0.00000,-0.14512,-0.38002,0.04598,,,,,,,,,,,,,,,,,,,,,,,,,,0,0,0,0,0
2.5366,1783187288.0228,1,1,1.0000,0.0000,1.44682,0.23119,-2.77802,0.97600,1.57080,0.00000,-0.14512,-0.38002,0.04598,,,,,,,,,,,,,,,,,,,,,,,,,,0,0,0,0,0
2.5475,1783187288.0337,1,1,1.0000,0.0000,1.44682,0.23117,-2.77803,0.97602,1.57080,0.00000,-0.14512,-0.38002,0.04597,,,,,,,,,,,,,,,,,,,,,,,,,,0,0,0,0,0
2.5479,1783187288.0341,1,1,1.0000,0.0000,1.44682,0.23117,-2.77803,0.97602,1.57080,0.00000,-0.14512,-0.38002,0.04597,,,,,,,,,,,,,,,,,,,,,,,,,,0,0,0,0,0
2.5602,1783187288.0464,1,1,1.0000,0.0000,1.44682,0.23116,-2.77803,0.97603,1.57080,0.00000,-0.14512,-0.38002,0.04597,,,,,,,,,,,,,,,,,,,,,,,,,,0,0,0,0,0
2.5691,1783187288.0553,1,1,1.0000,0.0000,1.44682,0.23114,-2.77803,0.97605,1.57080,0.00000,-0.14512,-0.38002,0.04596,,,,,,,,,,,,,,,,,,,,,,,,,,0,0,0,0,0
2.5697,1783187288.0558,1,1,1.0000,0.0000,1.44682,0.23114,-2.77803,0.97605,1.57080,0.00000,-0.14512,-0.38002,0.04596,,,,,,,,,,,,,,,,,,,,,,,,,,0,0,0,0,0
2.5777,1783187288.0639,1,1,1.0000,0.0000,1.44682,0.23113,-2.77804,0.97606,1.57080,0.00000,-0.14512,-0.38002,0.04596,,,,,,,,,,,,,,,,,,,,,,,,,,0,0,0,0,0
2.5893,1783187288.0755,1,1,1.0000,0.0000,1.44682,0.23112,-2.77804,0.97608,1.57080,0.00000,-0.14512,-0.38002,0.04596,,,,,,,,,,,,,,,,,,,,,,,,,,0,0,0,0,0
2.5897,1783187288.0759,1,1,1.0000,0.0000,1.44682,0.23112,-2.77804,0.97608,1.57080,0.00000,-0.14512,-0.38002,0.04596,,,,,,,,,,,,,,,,,,,,,,,,,,0,0,0,0,0
2.5992,1783187288.0854,1,1,1.0000,0.0000,1.44682,0.23110,-2.77805,0.97611,1.57080,0.00000,-0.14512,-0.38002,0.04595,,,,,,,,,,,,,,,,,,,,,,,,,,0,0,0,0,0
2.6246,1783187288.1108,1,1,1.0000,0.0000,1.44682,0.23107,-2.77805,0.97614,1.57080,0.00000,-0.14512,-0.38002,0.04595,,,,,,,,,,,,,,,,,,,,,,,,,,0,0,0,0,0
2.6251,1783187288.1113,1,1,1.0000,0.0000,1.44682,0.23107,-2.77805,0.97614,1.57080,0.00000,-0.14512,-0.38002,0.04595,,,,,,,,,,,,,,,,,,,,,,,,,,0,0,0,0,0
2.6279,1783187288.1141,1,1,1.0000,0.0000,1.44682,0.23106,-2.77806,0.97615,1.57080,0.00000,-0.14512,-0.38002,0.04594,,,,,,,,,,,,,,,,,,,,,,,,,,0,0,0,0,0
2.6283,1783187288.1145,1,1,1.0000,0.0000,1.44682,0.23106,-2.77806,0.97615,1.57080,0.00000,-0.14512,-0.38002,0.04594,,,,,,,,,,,,,,,,,,,,,,,,,,0,0,0,0,0
2.6369,1783187288.1230,1,1,1.0000,0.0000,1.44682,0.23105,-2.77806,0.97616,1.57080,0.00000,-0.14512,-0.38002,0.04594,,,,,,,,,,,,,,,,,,,,,,,,,,0,0,0,0,0
2.6488,1783187288.1350,1,1,1.0000,0.0000,1.44682,0.23104,-2.77806,0.97618,1.57080,0.00000,-0.14512,-0.38002,0.04594,,,,,,,,,,,,,,,,,,,,,,,,,,0,0,0,0,0
2.6590,1783187288.1452,1,1,1.0000,0.0000,1.44682,0.23101,-2.77807,0.97621,1.57080,0.00000,-0.14512,-0.38002,0.04593,,,,,,,,,,,,,,,,,,,,,,,,,,0,0,0,0,0
2.6594,1783187288.1456,1,1,1.0000,0.0000,1.44682,0.23101,-2.77807,0.97621,1.57080,0.00000,-0.14512,-0.38002,0.04593,,,,,,,,,,,,,,,,,,,,,,,,,,0,0,0,0,0
2.6711,1783187288.1573,1,1,1.0000,0.0000,1.44682,0.23100,-2.77807,0.97622,1.57080,0.00000,-0.14512,-0.38002,0.04593,,,,,,,,,,,,,,,,,,,,,,,,,,0,0,0,0,0
2.6714,1783187288.1576,1,1,1.0000,0.0000,1.44682,0.23100,-2.77807,0.97622,1.57080,0.00000,-0.14512,-0.38002,0.04593,,,,,,,,,,,,,,,,,,,,,,,,,,0,0,0,0,0
2.7310,1783187288.2172,1,1,1.0000,0.0000,1.44682,0.23092,-2.77809,0.97632,1.57080,0.00000,-0.14512,-0.38002,0.04591,,,,,,,,,,,,,,,,,,,,,,,,,,0,0,0,0,0
2.7315,1783187288.2177,1,1,1.0000,0.0000,1.44682,0.23092,-2.77809,0.97632,1.57080,0.00000,-0.14512,-0.38002,0.04591,,,,,,,,,,,,,,,,,,,,,,,,,,0,0,0,0,0
2.7500,1783187288.2362,1,1,1.0000,0.0000,1.44682,0.23090,-2.77810,0.97636,1.57080,0.00000,-0.14512,-0.38002,0.04590,,,,,,,,,,,,,,,,,,,,,,,,,,0,0,0,0,0
2.7510,1783187288.2372,1,1,1.0000,0.0000,1.44682,0.23089,-2.77810,0.97637,1.57080,0.00000,-0.14512,-0.38002,0.04590,,,,,,,,,,,,,,,,,,,,,,,,,,0,0,0,0,0
2.7605,1783187288.2467,1,1,1.0000,0.0000,1.44682,0.23089,-2.77810,0.97637,1.57080,0.00000,-0.14512,-0.38002,0.04590,,,,,,,,,,,,,,,,,,,,,,,,,,0,0,0,0,0
2.7673,1783187288.2534,1,1,1.0000,0.0000,1.44682,0.23088,-2.77810,0.97638,1.57080,0.00000,-0.14512,-0.38002,0.04590,,,,,,,,,,,,,,,,,,,,,,,,,,0,0,0,0,0
2.7676,1783187288.2538,1,1,1.0000,0.0000,1.44682,0.23088,-2.77810,0.97638,1.57080,0.00000,-0.14512,-0.38002,0.04590,,,,,,,,,,,,,,,,,,,,,,,,,,0,0,0,0,0
2.7821,1783187288.2683,1,1,1.0000,0.0000,1.44682,0.23085,-2.77811,0.97641,1.57080,0.00000,-0.14512,-0.38002,0.04589,,,,,,,,,,,,,,,,,,,,,,,,,,0,0,0,0,0
2.7865,1783187288.2727,1,1,1.0000,0.0000,1.44682,0.23084,-2.77811,0.97642,1.57080,0.00000,-0.14512,-0.38002,0.04589,,,,,,,,,,,,,,,,,,,,,,,,,,0,0,0,0,0
2.7870,1783187288.2732,1,1,1.0000,0.0000,1.44682,0.23084,-2.77811,0.97642,1.57080,0.00000,-0.14512,-0.38002,0.04589,,,,,,,,,,,,,,,,,,,,,,,,,,0,0,0,0,0
2.7992,1783187288.2854,1,1,1.0000,0.0000,1.44682,0.23083,-2.77811,0.97644,1.57080,0.00000,-0.14512,-0.38002,0.04588,,,,,,,,,,,,,,,,,,,,,,,,,,0,0,0,0,0
2.7995,1783187288.2857,1,1,1.0000,0.0000,1.44682,0.23083,-2.77811,0.97644,1.57080,0.00000,-0.14512,-0.38002,0.04588,,,,,,,,,,,,,,,,,,,,,,,,,,0,0,0,0,0
2.8085,1783187288.2947,1,1,1.0000,0.0000,1.44682,0.23082,-2.77812,0.97646,1.57080,0.00000,-0.14512,-0.38002,0.04588,,,,,,,,,,,,,,,,,,,,,,,,,,0,0,0,0,0
2.8221,1783187288.3083,1,1,1.0000,0.0000,1.44682,0.23080,-2.77812,0.97648,1.57080,0.00000,-0.14512,-0.38002,0.04588,,,,,,,,,,,,,,,,,,,,,,,,,,0,0,0,0,0
2.8229,1783187288.3091,1,1,1.0000,0.0000,1.44682,0.23080,-2.77812,0.97648,1.57080,0.00000,-0.14512,-0.38002,0.04588,,,,,,,,,,,,,,,,,,,,,,,,,,0,0,0,0,0
2.8309,1783187288.3171,1,1,1.0000,0.0000,1.44682,0.23079,-2.77812,0.97649,1.57080,0.00000,-0.14512,-0.38002,0.04587,,,,,,,,,,,,,,,,,,,,,,,,,,0,0,0,0,0
2.8312,1783187288.3174,1,1,1.0000,0.0000,1.44682,0.23079,-2.77812,0.97649,1.57080,0.00000,-0.14512,-0.38002,0.04587,,,,,,,,,,,,,,,,,,,,,,,,,,0,0,0,0,0
2.8367,1783187288.3229,1,1,1.0000,0.0000,1.44682,0.23078,-2.77813,0.97650,1.57080,0.00000,-0.14512,-0.38002,0.04587,,,,,,,,,,,,,,,,,,,,,,,,,,0,0,0,0,0
2.8371,1783187288.3233,1,1,1.0000,0.0000,1.44682,0.23078,-2.77813,0.97650,1.57080,0.00000,-0.14512,-0.38002,0.04587,,,,,,,,,,,,,,,,,,,,,,,,,,0,0,0,0,0
2.8477,1783187288.3338,1,1,1.0000,0.0000,1.44682,0.23077,-2.77813,0.97652,1.57080,0.00000,-0.14512,-0.38002,0.04587,,,,,,,,,,,,,,,,,,,,,,,,,,0,0,0,0,0
2.8571,1783187288.3433,1,1,1.0000,0.0000,1.44682,0.23076,-2.77813,0.97652,1.57080,0.00000,-0.14512,-0.38002,0.04587,,,,,,,,,,,,,,,,,,,,,,,,,,0,0,0,0,0
2.8685,1783187288.3547,1,1,1.0000,0.0000,1.44682,0.23074,-2.77814,0.97655,1.57080,0.00000,-0.14512,-0.38002,0.04586,,,,,,,,,,,,,,,,,,,,,,,,,,0,0,0,0,0
2.8688,1783187288.3550,1,1,1.0000,0.0000,1.44682,0.23074,-2.77814,0.97655,1.57080,0.00000,-0.14512,-0.38002,0.04586,,,,,,,,,,,,,,,,,,,,,,,,,,0,0,0,0,0
2.8766,1783187288.3628,1,1,1.0000,0.0000,1.44682,0.23072,-2.77814,0.97657,1.57080,0.00000,-0.14512,-0.38002,0.04586,,,,,,,,,,,,,,,,,,,,,,,,,,0,0,0,0,0
2.8916,1783187288.3778,1,1,1.0000,0.0000,1.44682,0.23072,-2.77814,0.97658,1.57080,0.00000,-0.14512,-0.38002,0.04585,,,,,,,,,,,,,,,,,,,,,,,,,,0,0,0,0,0
2.8984,1783187288.3846,1,1,1.0000,0.0000,1.44682,0.23071,-2.77815,0.97659,1.57080,0.00000,-0.14512,-0.38002,0.04585,,,,,,,,,,,,,,,,,,,,,,,,,,0,0,0,0,0
2.9077,1783187288.3939,1,1,1.0000,0.0000,1.44682,0.23070,-2.77815,0.97661,1.57080,0.00000,-0.14512,-0.38002,0.04585,,,,,,,,,,,,,,,,,,,,,,,,,,0,0,0,0,0
2.9269,1783187288.4131,1,1,1.0000,0.0000,1.44682,0.23067,-2.77816,0.97665,1.57080,0.00000,-0.14512,-0.38002,0.04584,,,,,,,,,,,,,,,,,,,,,,,,,,0,0,0,0,0
2.9290,1783187288.4152,1,1,1.0000,0.0000,1.44682,0.23067,-2.77816,0.97665,1.57080,0.00000,-0.14512,-0.38002,0.04584,,,,,,,,,,,,,,,,,,,,,,,,,,0,0,0,0,0
2.9294,1783187288.4156,1,1,1.0000,0.0000,1.44682,0.23067,-2.77816,0.97665,1.57080,0.00000,-0.14512,-0.38002,0.04584,,,,,,,,,,,,,,,,,,,,,,,,,,0,0,0,0,0
2.9367,1783187288.4229,1,1,1.0000,0.0000,1.44682,0.23065,-2.77816,0.97667,1.57080,0.00000,-0.14512,-0.38002,0.04584,,,,,,,,,,,,,,,,,,,,,,,,,,0,0,0,0,0
2.9471,1783187288.4333,1,1,1.0000,0.0000,1.44682,0.23065,-2.77816,0.97667,1.57080,0.00000,-0.14512,-0.38002,0.04584,,,,,,,,,,,,,,,,,,,,,,,,,,0,0,0,0,0
2.9575,1783187288.4437,1,1,1.0000,0.0000,1.44682,0.23064,-2.77816,0.97669,1.57080,0.00000,-0.14512,-0.38002,0.04583,,,,,,,,,,,,,,,,,,,,,,,,,,0,0,0,0,0
2.9712,1783187288.4574,1,1,1.0000,0.0000,1.44682,0.23062,-2.77817,0.97670,1.57080,0.00000,-0.14512,-0.38002,0.04583,,,,,,,,,,,,,,,,,,,,,,,,,,0,0,0,0,0
2.9714,1783187288.4576,1,1,1.0000,0.0000,1.44682,0.23062,-2.77817,0.97670,1.57080,0.00000,-0.14512,-0.38002,0.04583,,,,,,,,,,,,,,,,,,,,,,,,,,0,0,0,0,0
2.9869,1783187288.4731,1,1,1.0000,0.0000,1.44682,0.23059,-2.77818,0.97674,1.57080,0.00000,-0.14512,-0.38002,0.04582,,,,,,,,,,,,,,,,,,,,,,,,,,0,0,0,0,0
2.9910,1783187288.4772,1,1,1.0000,0.0000,1.44682,0.23058,-2.77818,0.97675,1.57080,0.00000,-0.14512,-0.38002,0.04582,,,,,,,,,,,,,,,,,,,,,,,,,,0,0,0,0,0
3.0006,1783187288.4868,1,1,1.0000,0.0000,1.44682,0.23058,-2.77818,0.97676,1.57080,0.00000,-0.14512,-0.38002,0.04582,,,,,,,,,,,,,,,,,,,,,,,,,,0,0,0,0,0
3.0009,1783187288.4871,1,1,1.0000,0.0000,1.44682,0.23058,-2.77818,0.97676,1.57080,0.00000,-0.14512,-0.38002,0.04582,,,,,,,,,,,,,,,,,,,,,,,,,,0,0,0,0,0
3.0156,1783187288.5018,1,1,1.0000,0.0000,1.44682,0.23056,-2.77818,0.97678,1.57080,0.00000,-0.14512,-0.38002,0.04581,,,,,,,,,,,,,,,,,,,,,,,,,,0,0,0,0,0
3.0261,1783187288.5123,1,1,1.0000,0.0000,1.44682,0.23055,-2.77819,0.97680,1.57080,0.00000,-0.14512,-0.38002,0.04581,,,,,,,,,,,,,,,,,,,,,,,,,,0,0,0,0,0
3.0325,1783187288.5187,1,1,1.0000,0.0000,1.44682,0.23055,-2.77819,0.97680,1.57080,0.00000,-0.14512,-0.38002,0.04581,,,,,,,,,,,,,,,,,,,,,,,,,,0,0,0,0,0
3.0437,1783187288.5299,1,1,1.0000,0.0000,1.44682,0.23053,-2.77819,0.97682,1.57080,0.00000,-0.14512,-0.38002,0.04580,,,,,,,,,,,,,,,,,,,,,,,,,,0,0,0,0,0
3.0523,1783187288.5385,1,1,1.0000,0.0000,1.44682,0.23051,-2.77820,0.97684,1.57080,0.00000,-0.14512,-0.38002,0.04580,,,,,,,,,,,,,,,,,,,,,,,,,,0,0,0,0,0
3.0611,1783187288.5473,1,1,1.0000,0.0000,1.44682,0.23050,-2.77820,0.97685,1.57080,0.00000,-0.14512,-0.38002,0.04580,,,,,,,,,,,,,,,,,,,,,,,,,,0,0,0,0,0
3.0615,1783187288.5477,1,1,1.0000,0.0000,1.44682,0.23050,-2.77820,0.97685,1.57080,0.00000,-0.14512,-0.38002,0.04580,,,,,,,,,,,,,,,,,,,,,,,,,,0,0,0,0,0
3.0724,1783187288.5586,1,1,1.0000,0.0000,1.44682,0.23049,-2.77820,0.97686,1.57080,0.00000,-0.14512,-0.38002,0.04580,,,,,,,,,,,,,,,,,,,,,,,,,,0,0,0,0,0
3.0812,1783187288.5674,1,1,1.0000,0.0000,1.44682,0.23048,-2.77820,0.97688,1.57080,0.00000,-0.14512,-0.38002,0.04579,,,,,,,,,,,,,,,,,,,,,,,,,,0,0,0,0,0
3.0909,1783187288.5770,1,1,1.0000,0.0000,1.44682,0.23047,-2.77821,0.97689,1.57080,0.00000,-0.14512,-0.38002,0.04579,,,,,,,,,,,,,,,,,,,,,,,,,,0,0,0,0,0
3.1021,1783187288.5883,1,1,1.0000,0.0000,1.44682,0.23046,-2.77821,0.97690,1.57080,0.00000,-0.14512,-0.38002,0.04579,,,,,,,,,,,,,,,,,,,,,,,,,,0,0,0,0,0
3.1123,1783187288.5985,1,1,1.0000,0.0000,1.44682,0.23044,-2.77822,0.97694,1.57080,0.00000,-0.14512,-0.38002,0.04578,,,,,,,,,,,,,,,,,,,,,,,,,,0,0,0,0,0
3.1126,1783187288.5988,1,1,1.0000,0.0000,1.44682,0.23044,-2.77822,0.97694,1.57080,0.00000,-0.14512,-0.38002,0.04578,,,,,,,,,,,,,,,,,,,,,,,,,,0,0,0,0,0
3.1275,1783187288.6137,1,1,1.0000,0.0000,1.44682,0.23042,-2.77822,0.97695,1.57080,0.00000,-0.14512,-0.38002,0.04578,,,,,,,,,,,,,,,,,,,,,,,,,,0,0,0,0,0
3.1305,1783187288.6167,1,1,1.0000,0.0000,1.44682,0.23042,-2.77822,0.97695,1.57080,0.00000,-0.14512,-0.38002,0.04578,,,,,,,,,,,,,,,,,,,,,,,,,,0,0,0,0,0
3.1310,1783187288.6172,1,1,1.0000,0.0000,1.44682,0.23042,-2.77822,0.97696,1.57080,0.00000,-0.14512,-0.38002,0.04578,,,,,,,,,,,,,,,,,,,,,,,,,,0,0,0,0,0
3.1409,1783187288.6271,1,1,1.0000,0.0000,1.44682,0.23041,-2.77822,0.97697,1.57080,0.00000,-0.14512,-0.38002,0.04577,,,,,,,,,,,,,,,,,,,,,,,,,,0,0,0,0,0
3.1555,1783187288.6417,1,1,1.0000,0.0000,1.44682,0.23039,-2.77823,0.97699,1.57080,0.00000,-0.14512,-0.38002,0.04577,,,,,,,,,,,,,,,,,,,,,,,,,,0,0,0,0,0
3.1606,1783187288.6468,1,1,1.0000,0.0000,1.44682,0.23039,-2.77823,0.97700,1.57080,0.00000,-0.14512,-0.38002,0.04577,,,,,,,,,,,,,,,,,,,,,,,,,,0,0,0,0,0
3.1755,1783187288.6617,1,1,1.0000,0.0000,1.44682,0.23035,-2.77824,0.97704,1.57080,0.00000,-0.14512,-0.38002,0.04576,,,,,,,,,,,,,,,,,,,,,,,,,,0,0,0,0,0
3.1833,1783187288.6695,1,1,1.0000,0.0000,1.44682,0.23035,-2.77824,0.97704,1.57080,0.00000,-0.14512,-0.38002,0.04576,,,,,,,,,,,,,,,,,,,,,,,,,,0,0,0,0,0
3.1835,1783187288.6697,1,1,1.0000,0.0000,1.44682,0.23035,-2.77824,0.97704,1.57080,0.00000,-0.14512,-0.38002,0.04576,,,,,,,,,,,,,,,,,,,,,,,,,,0,0,0,0,0
3.1910,1783187288.6772,1,1,1.0000,0.0000,1.44682,0.23034,-2.77824,0.97705,1.57080,0.00000,-0.14512,-0.38002,0.04576,,,,,,,,,,,,,,,,,,,,,,,,,,0,0,0,0,0
3.2057,1783187288.6919,1,1,1.0000,0.0000,1.44682,0.23032,-2.77824,0.97708,1.57080,0.00000,-0.14512,-0.38002,0.04575,,,,,,,,,,,,,,,,,,,,,,,,,,0,0,0,0,0
3.2118,1783187288.6980,1,1,1.0000,0.0000,1.44682,0.23032,-2.77824,0.97708,1.57080,0.00000,-0.14512,-0.38002,0.04575,,,,,,,,,,,,,,,,,,,,,,,,,,0,0,0,0,0
3.2333,1783187288.7195,1,1,1.0000,0.0000,1.44682,0.23029,-2.77825,0.97712,1.57080,0.00000,-0.14512,-0.38002,0.04574,,,,,,,,,,,,,,,,,,,,,,,,,,0,0,0,0,0
3.2335,1783187288.7197,1,1,1.0000,0.0000,1.44682,0.23029,-2.77825,0.97712,1.57080,0.00000,-0.14512,-0.38002,0.04574,,,,,,,,,,,,,,,,,,,,,,,,,,0,0,0,0,0
3.2436,1783187288.7298,1,1,1.0000,0.0000,1.44682,0.23028,-2.77826,0.97714,1.57080,0.00000,-0.14512,-0.38002,0.04574,,,,,,,,,,,,,,,,,,,,,,,,,,0,0,0,0,0
3.2509,1783187288.7371,1,1,1.0000,0.0000,1.44682,0.23027,-2.77826,0.97715,1.57080,0.00000,-0.14512,-0.38002,0.04574,,,,,,,,,,,,,,,,,,,,,,,,,,0,0,0,0,0
3.2511,1783187288.7373,1,1,1.0000,0.0000,1.44682,0.23027,-2.77826,0.97715,1.57080,0.00000,-0.14512,-0.38002,0.04574,,,,,,,,,,,,,,,,,,,,,,,,,,0,0,0,0,0
3.2641,1783187288.7503,1,1,1.0000,0.0000,1.44682,0.23024,-2.77827,0.97718,1.57080,0.00000,-0.14512,-0.38002,0.04573,,,,,,,,,,,,,,,,,,,,,,,,,,0,0,0,0,0
3.2736,1783187288.7598,1,1,1.0000,0.0000,1.44682,0.23024,-2.77827,0.97718,1.57080,0.00000,-0.14512,-0.38002,0.04573,,,,,,,,,,,,,,,,,,,,,,,,,,0,0,0,0,0
3.2875,1783187288.7737,1,1,1.0000,0.0000,1.44682,0.23021,-2.77827,0.97721,1.57080,0.00000,-0.14512,-0.38002,0.04572,,,,,,,,,,,,,,,,,,,,,,,,,,0,0,0,0,0
3.2878,1783187288.7740,1,1,1.0000,0.0000,1.44682,0.23021,-2.77827,0.97721,1.57080,0.00000,-0.14512,-0.38002,0.04572,,,,,,,,,,,,,,,,,,,,,,,,,,0,0,0,0,0
3.2935,1783187288.7797,1,1,1.0000,0.0000,1.44682,0.23021,-2.77827,0.97723,1.57080,0.00000,-0.14512,-0.38002,0.04572,,,,,,,,,,,,,,,,,,,,,,,,,,0,0,0,0,0
3.2937,1783187288.7799,1,1,1.0000,0.0000,1.44682,0.23021,-2.77827,0.97723,1.57080,0.00000,-0.14512,-0.38002,0.04572,,,,,,,,,,,,,,,,,,,,,,,,,,0,0,0,0,0
3.3083,1783187288.7945,1,1,1.0000,0.0000,1.44682,0.23019,-2.77828,0.97724,1.57080,0.00000,-0.14512,-0.38002,0.04572,,,,,,,,,,,,,,,,,,,,,,,,,,0,0,0,0,0
3.3120,1783187288.7982,1,1,1.0000,0.0000,1.44682,0.23019,-2.77828,0.97725,1.57080,0.00000,-0.14512,-0.38002,0.04572,,,,,,,,,,,,,,,,,,,,,,,,,,0,0,0,0,0
3.3323,1783187288.8185,1,1,1.0000,0.0000,1.44682,0.23016,-2.77829,0.97728,1.57080,0.00000,-0.14512,-0.38002,0.04571,,,,,,,,,,,,,,,,,,,,,,,,,,0,0,0,0,0
3.3326,1783187288.8188,1,1,1.0000,0.0000,1.44682,0.23016,-2.77829,0.97728,1.57080,0.00000,-0.14512,-0.38002,0.04571,,,,,,,,,,,,,,,,,,,,,,,,,,0,0,0,0,0
3.3481,1783187288.8343,1,1,1.0000,0.0000,1.44682,0.23013,-2.77829,0.97732,1.57080,0.00000,-0.14512,-0.38002,0.04570,,,,,,,,,,,,,,,,,,,,,,,,,,0,0,0,0,0
3.3484,1783187288.8346,1,1,1.0000,0.0000,1.44682,0.23013,-2.77829,0.97732,1.57080,0.00000,-0.14512,-0.38002,0.04570,,,,,,,,,,,,,,,,,,,,,,,,,,0,0,0,0,0
3.3653,1783187288.8515,1,1,1.0000,0.0000,1.44682,0.23011,-2.77830,0.97734,1.57080,0.00000,-0.14512,-0.38002,0.04570,,,,,,,,,,,,,,,,,,,,,,,,,,0,0,0,0,0
3.3657,1783187288.8519,1,1,1.0000,0.0000,1.44682,0.23011,-2.77830,0.97734,1.57080,0.00000,-0.14512,-0.38002,0.04570,,,,,,,,,,,,,,,,,,,,,,,,,,0,0,0,0,0
3.3662,1783187288.8524,1,1,1.0000,0.0000,1.44682,0.23011,-2.77830,0.97734,1.57080,0.00000,-0.14512,-0.38002,0.04570,,,,,,,,,,,,,,,,,,,,,,,,,,0,0,0,0,0
3.3752,1783187288.8614,1,1,1.0000,0.0000,1.44682,0.23010,-2.77830,0.97736,1.57080,0.00000,-0.14512,-0.38002,0.04569,,,,,,,,,,,,,,,,,,,,,,,,,,0,0,0,0,0
3.3811,1783187288.8673,1,1,1.0000,0.0000,1.44682,0.23009,-2.77830,0.97737,1.57080,0.00000,-0.14512,-0.38002,0.04569,,,,,,,,,,,,,,,,,,,,,,,,,,0,0,0,0,0
3.3815,1783187288.8677,1,1,1.0000,0.0000,1.44682,0.23009,-2.77830,0.97737,1.57080,0.00000,-0.14512,-0.38002,0.04569,,,,,,,,,,,,,,,,,,,,,,,,,,0,0,0,0,0
3.3961,1783187288.8823,1,1,1.0000,0.0000,1.44682,0.23007,-2.77831,0.97740,1.57080,0.00000,-0.14512,-0.38002,0.04569,,,,,,,,,,,,,,,,,,,,,,,,,,0,0,0,0,0
3.4019,1783187288.8881,1,1,1.0000,0.0000,1.44682,0.23007,-2.77831,0.97740,1.57080,0.00000,-0.14512,-0.38002,0.04568,,,,,,,,,,,,,,,,,,,,,,,,,,0,0,0,0,0
3.4105,1783187288.8967,1,1,1.0000,0.0000,1.44682,0.23006,-2.77831,0.97741,1.57080,0.00000,-0.14512,-0.38002,0.04568,,,,,,,,,,,,,,,,,,,,,,,,,,0,0,0,0,0
3.4230,1783187288.9092,1,1,1.0000,0.0000,1.44682,0.23004,-2.77832,0.97743,1.57080,0.00000,-0.14512,-0.38002,0.04568,,,,,,,,,,,,,,,,,,,,,,,,,,0,0,0,0,0
3.4365,1783187288.9227,1,1,1.0000,0.0000,1.44682,0.23002,-2.77832,0.97746,1.57080,0.00000,-0.14512,-0.38002,0.04567,,,,,,,,,,,,,,,,,,,,,,,,,,0,0,0,0,0
3.4446,1783187288.9308,1,1,1.0000,0.0000,1.44682,0.23001,-2.77833,0.97748,1.57080,0.00000,-0.14512,-0.38002,0.04567,,,,,,,,,,,,,,,,,,,,,,,,,,0,0,0,0,0
3.4512,1783187288.9374,1,1,1.0000,0.0000,1.44682,0.23000,-2.77833,0.97748,1.57080,0.00000,-0.14512,-0.38002,0.04567,,,,,,,,,,,,,,,,,,,,,,,,,,0,0,0,0,0
3.4632,1783187288.9494,1,1,1.0000,0.0000,1.44682,0.22999,-2.77833,0.97750,1.57080,0.00000,-0.14512,-0.38002,0.04566,,,,,,,,,,,,,,,,,,,,,,,,,,0,0,0,0,0
3.4717,1783187288.9579,1,1,1.0000,0.0000,1.44682,0.22997,-2.77834,0.97752,1.57080,0.00000,-0.14512,-0.38002,0.04566,,,,,,,,,,,,,,,,,,,,,,,,,,0,0,0,0,0
3.4814,1783187288.9676,1,1,1.0000,0.0000,1.44682,0.22996,-2.77834,0.97753,1.57080,0.00000,-0.14512,-0.38002,0.04566,,,,,,,,,,,,,,,,,,,,,,,,,,0,0,0,0,0
3.4910,1783187288.9772,1,1,1.0000,0.0000,1.44682,0.22995,-2.77834,0.97755,1.57080,0.00000,-0.14512,-0.38002,0.04565,,,,,,,,,,,,,,,,,,,,,,,,,,0,0,0,0,0
3.5006,1783187288.9868,1,1,1.0000,0.0000,1.44682,0.22993,-2.77834,0.97757,1.57080,0.00000,-0.14512,-0.38002,0.04565,,,,,,,,,,,,,,,,,,,,,,,,,,0,0,0,0,0
3.5114,1783187288.9976,1,1,1.0000,0.0000,1.44682,0.22992,-2.77835,0.97759,1.57080,0.00000,-0.14512,-0.38002,0.04565,,,,,,,,,,,,,,,,,,,,,,,,,,0,0,0,0,0
3.5118,1783187288.9980,1,1,1.0000,0.0000,1.44682,0.22992,-2.77835,0.97759,1.57080,0.00000,-0.14512,-0.38002,0.04565,,,,,,,,,,,,,,,,,,,,,,,,,,0,0,0,0,0
3.5251,1783187289.0113,1,1,1.0000,0.0000,1.44682,0.22991,-2.77835,0.97760,1.57080,0.00000,-0.14512,-0.38002,0.04564,,,,,,,,,,,,,,,,,,,,,,,,,,0,0,0,0,0
3.6152,1783187289.1014,1,1,1.0000,0.0000,1.44682,0.22979,-2.77838,0.97774,1.57080,0.00000,-0.14512,-0.38002,0.04561,,,,,,,,,,,,,,,,,,,,,,,,,,0,0,0,0,0
3.6157,1783187289.1019,1,1,1.0000,0.0000,1.44682,0.22979,-2.77838,0.97774,1.57080,0.00000,-0.14512,-0.38002,0.04561,,,,,,,,,,,,,,,,,,,,,,,,,,0,0,0,0,0
3.6162,1783187289.1024,1,1,1.0000,0.0000,1.44682,0.22979,-2.77838,0.97774,1.57080,0.00000,-0.14512,-0.38002,0.04561,,,,,,,,,,,,,,,,,,,,,,,,,,0,0,0,0,0
3.6165,1783187289.1027,1,1,1.0000,0.0000,1.44682,0.22979,-2.77838,0.97774,1.57080,0.00000,-0.14512,-0.38002,0.04561,,,,,,,,,,,,,,,,,,,,,,,,,,0,0,0,0,0
3.6169,1783187289.1031,1,1,1.0000,0.0000,1.44682,0.22979,-2.77838,0.97774,1.57080,0.00000,-0.14512,-0.38002,0.04561,,,,,,,,,,,,,,,,,,,,,,,,,,0,0,0,0,0
3.6278,1783187289.1140,1,1,1.0000,0.0000,1.44682,0.22977,-2.77839,0.97778,1.57080,0.00000,-0.14512,-0.38002,0.04561,,,,,,,,,,,,,,,,,,,,,,,,,,0,0,0,0,0
3.6418,1783187289.1280,1,1,1.0000,0.0000,1.44682,0.22976,-2.77839,0.97778,1.57080,0.00000,-0.14512,-0.38002,0.04561,,,,,,,,,,,,,,,,,,,,,,,,,,0,0,0,0,0
3.6447,1783187289.1309,1,1,1.0000,0.0000,1.44682,0.22976,-2.77839,0.97779,1.57080,0.00000,-0.14512,-0.38002,0.04560,,,,,,,,,,,,,,,,,,,,,,,,,,0,0,0,0,0
3.6560,1783187289.1422,1,1,1.0000,0.0000,1.44682,0.22974,-2.77839,0.97781,1.57080,0.00000,-0.14512,-0.38002,0.04560,,,,,,,,,,,,,,,,,,,,,,,,,,0,0,0,0,0
3.6672,1783187289.1534,1,1,1.0000,0.0000,1.44682,0.22973,-2.77840,0.97782,1.57080,0.00000,-0.14512,-0.38002,0.04560,,,,,,,,,,,,,,,,,,,,,,,,,,0,0,0,0,0
3.6741,1783187289.1603,1,1,1.0000,0.0000,1.44682,0.22973,-2.77840,0.97783,1.57080,0.00000,-0.14512,-0.38002,0.04560,,,,,,,,,,,,,,,,,,,,,,,,,,0,0,0,0,0
3.6745,1783187289.1607,1,1,1.0000,0.0000,1.44682,0.22973,-2.77840,0.97783,1.57080,0.00000,-0.14512,-0.38002,0.04560,,,,,,,,,,,,,,,,,,,,,,,,,,0,0,0,0,0
3.6851,1783187289.1713,1,1,1.0000,0.0000,1.44682,0.22970,-2.77840,0.97786,1.57080,0.00000,-0.14512,-0.38002,0.04559,,,,,,,,,,,,,,,,,,,,,,,,,,0,0,0,0,0
3.7087,1783187289.1949,1,1,1.0000,0.0000,1.44682,0.22968,-2.77841,0.97789,1.57080,0.00000,-0.14512,-0.38002,0.04558,,,,,,,,,,,,,,,,,,,,,,,,,,0,0,0,0,0
3.7090,1783187289.1952,1,1,1.0000,0.0000,1.44682,0.22968,-2.77841,0.97789,1.57080,0.00000,-0.14512,-0.38002,0.04558,,,,,,,,,,,,,,,,,,,,,,,,,,0,0,0,0,0
3.7159,1783187289.2021,1,1,1.0000,0.0000,1.44682,0.22966,-2.77841,0.97791,1.57080,0.00000,-0.14512,-0.38002,0.04558,,,,,,,,,,,,,,,,,,,,,,,,,,0,0,0,0,0
3.7163,1783187289.2025,1,1,1.0000,0.0000,1.44682,0.22966,-2.77841,0.97791,1.57080,0.00000,-0.14512,-0.38002,0.04558,,,,,,,,,,,,,,,,,,,,,,,,,,0,0,0,0,0
3.7262,1783187289.2124,1,1,1.0000,0.0000,1.44682,0.22966,-2.77841,0.97791,1.57080,0.00000,-0.14512,-0.38002,0.04558,,,,,,,,,,,,,,,,,,,,,,,,,,0,0,0,0,0
3.7412,1783187289.2274,1,1,1.0000,0.0000,1.44682,0.22964,-2.77842,0.97794,1.57080,0.00000,-0.14512,-0.38002,0.04557,,,,,,,,,,,,,,,,,,,,,,,,,,0,0,0,0,0
3.7445,1783187289.2307,1,1,1.0000,0.0000,1.44682,0.22963,-2.77842,0.97795,1.57080,0.00000,-0.14512,-0.38002,0.04557,,,,,,,,,,,,,,,,,,,,,,,,,,0,0,0,0,0
3.7447,1783187289.2309,1,1,1.0000,0.0000,1.44682,0.22963,-2.77842,0.97795,1.57080,0.00000,-0.14512,-0.38002,0.04557,,,,,,,,,,,,,,,,,,,,,,,,,,0,0,0,0,0
3.7554,1783187289.2416,1,1,1.0000,0.0000,1.44682,0.22962,-2.77843,0.97797,1.57080,0.00000,-0.14512,-0.38002,0.04557,,,,,,,,,,,,,,,,,,,,,,,,,,0,0,0,0,0
3.7557,1783187289.2419,1,1,1.0000,0.0000,1.44682,0.22962,-2.77843,0.97797,1.57080,0.00000,-0.14512,-0.38002,0.04557,,,,,,,,,,,,,,,,,,,,,,,,,,0,0,0,0,0
3.7704,1783187289.2566,1,1,1.0000,0.0000,1.44682,0.22960,-2.77843,0.97798,1.57080,0.00000,-0.14512,-0.38002,0.04556,,,,,,,,,,,,,,,,,,,,,,,,,,0,0,0,0,0
3.7783,1783187289.2645,1,1,1.0000,0.0000,1.44682,0.22959,-2.77843,0.97800,1.57080,0.00000,-0.14512,-0.38002,0.04556,,,,,,,,,,,,,,,,,,,,,,,,,,0,0,0,0,0
3.7897,1783187289.2759,1,1,1.0000,0.0000,1.44682,0.22958,-2.77843,0.97801,1.57080,0.00000,-0.14512,-0.38002,0.04556,,,,,,,,,,,,,,,,,,,,,,,,,,0,0,0,0,0
3.7976,1783187289.2837,1,1,1.0000,0.0000,1.44682,0.22957,-2.77844,0.97802,1.57080,0.00000,-0.14512,-0.38002,0.04556,,,,,,,,,,,,,,,,,,,,,,,,,,0,0,0,0,0
3.7978,1783187289.2840,1,1,1.0000,0.0000,1.44682,0.22957,-2.77844,0.97802,1.57080,0.00000,-0.14512,-0.38002,0.04556,,,,,,,,,,,,,,,,,,,,,,,,,,0,0,0,0,0
3.8040,1783187289.2902,1,1,1.0000,0.0000,1.44682,0.22955,-2.77844,0.97805,1.57080,0.00000,-0.14512,-0.38002,0.04555,,,,,,,,,,,,,,,,,,,,,,,,,,0,0,0,0,0
3.8042,1783187289.2904,1,1,1.0000,0.0000,1.44682,0.22955,-2.77844,0.97805,1.57080,0.00000,-0.14512,-0.38002,0.04555,,,,,,,,,,,,,,,,,,,,,,,,,,0,0,0,0,0
3.8193,1783187289.3055,1,1,1.0000,0.0000,1.44682,0.22954,-2.77844,0.97806,1.57080,0.00000,-0.14512,-0.38002,0.04555,,,,,,,,,,,,,,,,,,,,,,,,,,0,0,0,0,0
3.8261,1783187289.3123,1,1,1.0000,0.0000,1.44682,0.22954,-2.77845,0.97807,1.57080,0.00000,-0.14512,-0.38002,0.04555,,,,,,,,,,,,,,,,,,,,,,,,,,0,0,0,0,0
3.8352,1783187289.3214,1,1,1.0000,0.0000,1.44682,0.22952,-2.77845,0.97809,1.57080,0.00000,-0.14512,-0.38002,0.04554,,,,,,,,,,,,,,,,,,,,,,,,,,0,0,0,0,0
3.8485,1783187289.3347,1,1,1.0000,0.0000,1.44682,0.22951,-2.77845,0.97810,1.57080,0.00000,-0.14512,-0.38002,0.04554,,,,,,,,,,,,,,,,,,,,,,,,,,0,0,0,0,0
3.8548,1783187289.3409,1,1,1.0000,0.0000,1.44682,0.22950,-2.77845,0.97811,1.57080,0.00000,-0.14512,-0.38002,0.04554,,,,,,,,,,,,,,,,,,,,,,,,,,0,0,0,0,0
3.8687,1783187289.3549,1,1,1.0000,0.0000,1.44682,0.22947,-2.77846,0.97815,1.57080,0.00000,-0.14512,-0.38002,0.04553,,,,,,,,,,,,,,,,,,,,,,,,,,0,0,0,0,0
3.8781,1783187289.3643,1,1,1.0000,0.0000,1.44682,0.22947,-2.77846,0.97815,1.57080,0.00000,-0.14512,-0.38002,0.04553,,,,,,,,,,,,,,,,,,,,,,,,,,0,0,0,0,0
3.8887,1783187289.3749,1,1,1.0000,0.0000,1.44682,0.22945,-2.77847,0.97817,1.57080,0.00000,-0.14512,-0.38002,0.04552,,,,,,,,,,,,,,,,,,,,,,,,,,0,0,0,0,0
3.8984,1783187289.3846,1,1,1.0000,0.0000,1.44682,0.22943,-2.77847,0.97820,1.57080,0.00000,-0.14512,-0.38002,0.04552,,,,,,,,,,,,,,,,,,,,,,,,,,0,0,0,0,0
3.9082,1783187289.3944,1,1,1.0000,0.0000,1.44682,0.22943,-2.77847,0.97820,1.57080,0.00000,-0.14512,-0.38002,0.04552,,,,,,,,,,,,,,,,,,,,,,,,,,0,0,0,0,0
3.9161,1783187289.4023,1,1,1.0000,0.0000,1.44682,0.22941,-2.77848,0.97822,1.57080,0.00000,-0.14512,-0.38002,0.04551,,,,,,,,,,,,,,,,,,,,,,,,,,0,0,0,0,0
3.9256,1783187289.4118,1,1,1.0000,0.0000,1.44682,0.22940,-2.77848,0.97824,1.57080,0.00000,-0.14512,-0.38002,0.04551,,,,,,,,,,,,,,,,,,,,,,,,,,0,0,0,0,0
3.9354,1783187289.4216,1,1,1.0000,0.0000,1.44682,0.22939,-2.77848,0.97825,1.57080,0.00000,-0.14512,-0.38002,0.04551,,,,,,,,,,,,,,,,,,,,,,,,,,0,0,0,0,0
3.9473,1783187289.4335,1,1,1.0000,0.0000,1.44682,0.22937,-2.77849,0.97827,1.57080,0.00000,-0.14512,-0.38002,0.04550,,,,,,,,,,,,,,,,,,,,,,,,,,0,0,0,0,0
3.9476,1783187289.4338,1,1,1.0000,0.0000,1.44682,0.22937,-2.77849,0.97827,1.57080,0.00000,-0.14512,-0.38002,0.04550,,,,,,,,,,,,,,,,,,,,,,,,,,0,0,0,0,0
3.9554,1783187289.4416,1,1,1.0000,0.0000,1.44682,0.22936,-2.77849,0.97829,1.57080,0.00000,-0.14512,-0.38002,0.04550,,,,,,,,,,,,,,,,,,,,,,,,,,0,0,0,0,0
3.9557,1783187289.4419,1,1,1.0000,0.0000,1.44682,0.22936,-2.77849,0.97829,1.57080,0.00000,-0.14512,-0.38002,0.04550,,,,,,,,,,,,,,,,,,,,,,,,,,0,0,0,0,0
3.9641,1783187289.4503,1,1,1.0000,0.0000,1.44682,0.22936,-2.77849,0.97829,1.57080,0.00000,-0.14512,-0.38002,0.04550,,,,,,,,,,,,,,,,,,,,,,,,,,0,0,0,0,0
3.9780,1783187289.4642,1,1,1.0000,0.0000,1.44682,0.22934,-2.77850,0.97831,1.57080,0.00000,-0.14512,-0.38002,0.04550,,,,,,,,,,,,,,,,,,,,,,,,,,0,0,0,0,0
3.9851,1783187289.4713,1,1,1.0000,0.0000,1.44682,0.22932,-2.77850,0.97834,1.57080,0.00000,-0.14512,-0.38002,0.04549,,,,,,,,,,,,,,,,,,,,,,,,,,0,0,0,0,0
4.0108,1783187289.4970,1,1,1.0000,0.0000,1.44682,0.22929,-2.77851,0.97837,1.57080,0.00000,-0.14512,-0.38002,0.04548,,,,,,,,,,,,,,,,,,,,,,,,,,0,0,0,0,0
4.0138,1783187289.5000,1,1,1.0000,0.0000,1.44682,0.22929,-2.77851,0.97838,1.57080,0.00000,-0.14512,-0.38002,0.04548,,,,,,,,,,,,,,,,,,,,,,,,,,0,0,0,0,0
4.0147,1783187289.5009,1,1,1.0000,0.0000,1.44682,0.22929,-2.77851,0.97838,1.57080,0.00000,-0.14512,-0.38002,0.04548,,,,,,,,,,,,,,,,,,,,,,,,,,0,0,0,0,0
4.0240,1783187289.5102,1,1,1.0000,0.0000,1.44682,0.22928,-2.77851,0.97839,1.57080,0.00000,-0.14512,-0.38002,0.04548,,,,,,,,,,,,,,,,,,,,,,,,,,0,0,0,0,0
4.0374,1783187289.5235,1,1,1.0000,0.0000,1.44682,0.22926,-2.77852,0.97842,1.57080,0.00000,-0.14512,-0.38002,0.04547,,,,,,,,,,,,,,,,,,,,,,,,,,0,0,0,0,0
4.0522,1783187289.5384,1,1,1.0000,0.0000,1.44682,0.22923,-2.77852,0.97845,1.57080,0.00000,-0.14512,-0.38002,0.04547,,,,,,,,,,,,,,,,,,,,,,,,,,0,0,0,0,0
4.0593,1783187289.5454,1,1,1.0000,0.0000,1.44682,0.22923,-2.77852,0.97846,1.57080,0.00000,-0.14512,-0.38002,0.04547,,,,,,,,,,,,,,,,,,,,,,,,,,0,0,0,0,0
4.0595,1783187289.5457,1,1,1.0000,0.0000,1.44682,0.22923,-2.77852,0.97846,1.57080,0.00000,-0.14512,-0.38002,0.04547,,,,,,,,,,,,,,,,,,,,,,,,,,0,0,0,0,0
4.0652,1783187289.5514,1,1,1.0000,0.0000,1.44682,0.22922,-2.77853,0.97846,1.57080,0.00000,-0.14512,-0.38002,0.04546,,,,,,,,,,,,,,,,,,,,,,,,,,0,0,0,0,0
4.0763,1783187289.5625,1,1,1.0000,0.0000,1.44682,0.22920,-2.77853,0.97849,1.57080,0.00000,-0.14512,-0.38002,0.04546,,,,,,,,,,,,,,,,,,,,,,,,,,0,0,0,0,0
4.0982,1783187289.5844,1,1,1.0000,0.0000,1.44682,0.22918,-2.77854,0.97852,1.57080,0.00000,-0.14512,-0.38002,0.04545,,,,,,,,,,,,,,,,,,,,,,,,,,0,0,0,0,0
4.0986,1783187289.5848,1,1,1.0000,0.0000,1.44682,0.22918,-2.77854,0.97852,1.57080,0.00000,-0.14512,-0.38002,0.04545,,,,,,,,,,,,,,,,,,,,,,,,,,0,0,0,0,0
4.0992,1783187289.5854,1,1,1.0000,0.0000,1.44682,0.22917,-2.77854,0.97853,1.57080,0.00000,-0.14512,-0.38002,0.04545,,,,,,,,,,,,,,,,,,,,,,,,,,0,0,0,0,0
4.1049,1783187289.5911,1,1,1.0000,0.0000,1.44682,0.22916,-2.77854,0.97854,1.57080,0.00000,-0.14512,-0.38002,0.04545,,,,,,,,,,,,,,,,,,,,,,,,,,0,0,0,0,0
4.1052,1783187289.5914,1,1,1.0000,0.0000,1.44682,0.22916,-2.77854,0.97854,1.57080,0.00000,-0.14512,-0.38002,0.04545,,,,,,,,,,,,,,,,,,,,,,,,,,0,0,0,0,0
4.1139,1783187289.6001,1,1,1.0000,0.0000,1.44682,0.22915,-2.77854,0.97855,1.57080,0.00000,-0.14512,-0.38002,0.04545,,,,,,,,,,,,,,,,,,,,,,,,,,0,0,0,0,0
4.1144,1783187289.6006,1,1,1.0000,0.0000,1.44682,0.22915,-2.77854,0.97855,1.57080,0.00000,-0.14512,-0.38002,0.04545,,,,,,,,,,,,,,,,,,,,,,,,,,0,0,0,0,0
4.1253,1783187289.6115,1,1,1.0000,0.0000,1.44682,0.22914,-2.77855,0.97856,1.57080,0.00000,-0.14512,-0.38002,0.04544,,,,,,,,,,,,,,,,,,,,,,,,,,0,0,0,0,0
4.1396,1783187289.6258,1,1,1.0000,0.0000,1.44682,0.22911,-2.77855,0.97860,1.57080,0.00000,-0.14512,-0.38002,0.04544,,,,,,,,,,,,,,,,,,,,,,,,,,0,0,0,0,0
4.1400,1783187289.6262,1,1,1.0000,0.0000,1.44682,0.22911,-2.77855,0.97860,1.57080,0.00000,-0.14512,-0.38002,0.04544,,,,,,,,,,,,,,,,,,,,,,,,,,0,0,0,0,0
4.1517,1783187289.6379,1,1,1.0000,0.0000,1.44682,0.22910,-2.77856,0.97861,1.57080,0.00000,-0.14512,-0.38002,0.04543,,,,,,,,,,,,,,,,,,,,,,,,,,0,0,0,0,0
4.1521,1783187289.6383,1,1,1.0000,0.0000,1.44682,0.22910,-2.77856,0.97861,1.57080,0.00000,-0.14512,-0.38002,0.04543,,,,,,,,,,,,,,,,,,,,,,,,,,0,0,0,0,0
4.1554,1783187289.6416,1,1,1.0000,0.0000,1.44682,0.22910,-2.77856,0.97862,1.57080,0.00000,-0.14512,-0.38002,0.04543,,,,,,,,,,,,,,,,,,,,,,,,,,0,0,0,0,0
4.1675,1783187289.6537,1,1,1.0000,0.0000,1.44682,0.22907,-2.77857,0.97865,1.57080,0.00000,-0.14512,-0.38002,0.04543,,,,,,,,,,,,,,,,,,,,,,,,,,0,0,0,0,0
4.1679,1783187289.6541,1,1,1.0000,0.0000,1.44682,0.22907,-2.77857,0.97865,1.57080,0.00000,-0.14512,-0.38002,0.04543,,,,,,,,,,,,,,,,,,,,,,,,,,0,0,0,0,0
4.1740,1783187289.6601,1,1,1.0000,0.0000,1.44682,0.22907,-2.77857,0.97865,1.57080,0.00000,-0.14512,-0.38002,0.04543,,,,,,,,,,,,,,,,,,,,,,,,,,0,0,0,0,0
4.1856,1783187289.6718,1,1,1.0000,0.0000,1.44682,0.22906,-2.77857,0.97867,1.57080,0.00000,-0.14512,-0.38002,0.04542,,,,,,,,,,,,,,,,,,,,,,,,,,0,0,0,0,0
4.1961,1783187289.6823,1,1,1.0000,0.0000,1.44682,0.22903,-2.77857,0.97870,1.57080,0.00000,-0.14512,-0.38002,0.04542,,,,,,,,,,,,,,,,,,,,,,,,,,0,0,0,0,0
4.2041,1783187289.6903,1,1,1.0000,0.0000,1.44682,0.22903,-2.77857,0.97870,1.57080,0.00000,-0.14512,-0.38002,0.04542,,,,,,,,,,,,,,,,,,,,,,,,,,0,0,0,0,0
4.2142,1783187289.7004,1,1,1.0000,0.0000,1.44682,0.22902,-2.77858,0.97871,1.57080,0.00000,-0.14512,-0.38002,0.04541,,,,,,,,,,,,,,,,,,,,,,,,,,0,0,0,0,0
4.2145,1783187289.7007,1,1,1.0000,0.0000,1.44682,0.22902,-2.77858,0.97871,1.57080,0.00000,-0.14512,-0.38002,0.04541,,,,,,,,,,,,,,,,,,,,,,,,,,0,0,0,0,0
4.2274,1783187289.7136,1,1,1.0000,0.0000,1.44682,0.22899,-2.77859,0.97875,1.57080,0.00000,-0.14512,-0.38002,0.04540,,,,,,,,,,,,,,,,,,,,,,,,,,0,0,0,0,0
4.2278,1783187289.7140,1,1,1.0000,0.0000,1.44682,0.22899,-2.77859,0.97875,1.57080,0.00000,-0.14512,-0.38002,0.04540,,,,,,,,,,,,,,,,,,,,,,,,,,0,0,0,0,0
4.2367,1783187289.7229,1,1,1.0000,0.0000,1.44682,0.22899,-2.77859,0.97876,1.57080,0.00000,-0.14512,-0.38002,0.04540,,,,,,,,,,,,,,,,,,,,,,,,,,0,0,0,0,0
4.2574,1783187289.7436,1,1,1.0000,0.0000,1.44682,0.22895,-2.77860,0.97880,1.57080,0.00000,-0.14512,-0.38002,0.04539,,,,,,,,,,,,,,,,,,,,,,,,,,0,0,0,0,0
4.2577,1783187289.7439,1,1,1.0000,0.0000,1.44682,0.22895,-2.77860,0.97880,1.57080,0.00000,-0.14512,-0.38002,0.04539,,,,,,,,,,,,,,,,,,,,,,,,,,0,0,0,0,0
4.2665,1783187289.7527,1,1,1.0000,0.0000,1.44682,0.22895,-2.77860,0.97880,1.57080,0.00000,-0.14512,-0.38002,0.04539,,,,,,,,,,,,,,,,,,,,,,,,,,0,0,0,0,0
4.2776,1783187289.7638,1,1,1.0000,0.0000,1.44682,0.22893,-2.77860,0.97882,1.57080,0.00000,-0.14512,-0.38002,0.04539,,,,,,,,,,,,,,,,,,,,,,,,,,0,0,0,0,0
4.2841,1783187289.7703,1,1,1.0000,0.0000,1.44682,0.22892,-2.77860,0.97885,1.57080,0.00000,-0.14512,-0.38002,0.04538,,,,,,,,,,,,,,,,,,,,,,,,,,0,0,0,0,0
4.2984,1783187289.7846,1,1,1.0000,0.0000,1.44682,0.22891,-2.77861,0.97886,1.57080,0.00000,-0.14512,-0.38002,0.04538,,,,,,,,,,,,,,,,,,,,,,,,,,0,0,0,0,0
4.3098,1783187289.7960,1,1,1.0000,0.0000,1.44682,0.22889,-2.77861,0.97888,1.57080,0.00000,-0.14512,-0.38002,0.04538,,,,,,,,,,,,,,,,,,,,,,,,,,0,0,0,0,0
4.3165,1783187289.8027,1,1,1.0000,0.0000,1.44682,0.22887,-2.77862,0.97890,1.57080,0.00000,-0.14512,-0.38002,0.04537,,,,,,,,,,,,,,,,,,,,,,,,,,0,0,0,0,0
4.3308,1783187289.8170,1,1,1.0000,0.0000,1.44682,0.22886,-2.77862,0.97891,1.57080,0.00000,-0.14512,-0.38002,0.04537,,,,,,,,,,,,,,,,,,,,,,,,,,0,0,0,0,0
4.3342,1783187289.8204,1,1,1.0000,0.0000,1.44682,0.22886,-2.77862,0.97892,1.57080,0.00000,-0.14512,-0.38002,0.04537,,,,,,,,,,,,,,,,,,,,,,,,,,0,0,0,0,0
4.3474,1783187289.8335,1,1,1.0000,0.0000,1.44682,0.22883,-2.77863,0.97895,1.57080,0.00000,-0.14512,-0.38002,0.04536,,,,,,,,,,,,,,,,,,,,,,,,,,0,0,0,0,0
4.3574,1783187289.8436,1,1,1.0000,0.0000,1.44682,0.22883,-2.77863,0.97895,1.57080,0.00000,-0.14512,-0.38002,0.04536,,,,,,,,,,,,,,,,,,,,,,,,,,0,0,0,0,0
4.3644,1783187289.8506,1,1,1.0000,0.0000,1.44682,0.22882,-2.77863,0.97896,1.57080,0.00000,-0.14512,-0.38002,0.04536,,,,,,,,,,,,,,,,,,,,,,,,,,0,0,0,0,0
4.3743,1783187289.8605,1,1,1.0000,0.0000,1.44682,0.22880,-2.77863,0.97898,1.57080,0.00000,-0.14512,-0.38002,0.04536,,,,,,,,,,,,,,,,,,,,,,,,,,0,0,0,0,0
4.3842,1783187289.8704,1,1,1.0000,0.0000,1.44682,0.22879,-2.77864,0.97901,1.57080,0.00000,-0.14512,-0.38002,0.04535,,,,,,,,,,,,,,,,,,,,,,,,,,0,0,0,0,0
4.3940,1783187289.8802,1,1,1.0000,0.0000,1.44682,0.22878,-2.77864,0.97901,1.57080,0.00000,-0.14512,-0.38002,0.04535,,,,,,,,,,,,,,,,,,,,,,,,,,0,0,0,0,0
4.3944,1783187289.8806,1,1,1.0000,0.0000,1.44682,0.22878,-2.77864,0.97901,1.57080,0.00000,-0.14512,-0.38002,0.04535,,,,,,,,,,,,,,,,,,,,,,,,,,0,0,0,0,0
4.4075,1783187289.8937,1,1,1.0000,0.0000,1.44682,0.22876,-2.77864,0.97904,1.57080,0.00000,-0.14512,-0.38002,0.04534,,,,,,,,,,,,,,,,,,,,,,,,,,0,0,0,0,0
4.4141,1783187289.9003,1,1,1.0000,0.0000,1.44682,0.22876,-2.77864,0.97904,1.57080,0.00000,-0.14512,-0.38002,0.04534,,,,,,,,,,,,,,,,,,,,,,,,,,0,0,0,0,0
4.4242,1783187289.9104,1,1,1.0000,0.0000,1.44682,0.22875,-2.77865,0.97906,1.57080,0.00000,-0.14512,-0.38002,0.04534,,,,,,,,,,,,,,,,,,,,,,,,,,0,0,0,0,0
4.4344,1783187289.9206,1,1,1.0000,0.0000,1.44682,0.22873,-2.77865,0.97908,1.57080,0.00000,-0.14512,-0.38002,0.04534,,,,,,,,,,,,,,,,,,,,,,,,,,0,0,0,0,0
4.4656,1783187289.9518,1,1,1.0000,0.0000,1.44682,0.22869,-2.77866,0.97913,1.57080,0.00000,-0.14512,-0.38002,0.04533,,,,,,,,,,,,,,,,,,,,,,,,,,0,0,0,0,0
4.4659,1783187289.9521,1,1,1.0000,0.0000,1.44682,0.22869,-2.77866,0.97913,1.57080,0.00000,-0.14512,-0.38002,0.04533,,,,,,,,,,,,,,,,,,,,,,,,,,0,0,0,0,0
4.5034,1783187289.9896,1,1,1.0000,0.0000,1.44682,0.22864,-2.77868,0.97919,1.57080,0.00000,-0.14512,-0.38002,0.04531,,,,,,,,,,,,,,,,,,,,,,,,,,0,0,0,0,0
4.5038,1783187289.9900,1,1,1.0000,0.0000,1.44682,0.22864,-2.77868,0.97919,1.57080,0.00000,-0.14512,-0.38002,0.04531,,,,,,,,,,,,,,,,,,,,,,,,,,0,0,0,0,0
4.5042,1783187289.9904,1,1,1.0000,0.0000,1.44682,0.22864,-2.77868,0.97919,1.57080,0.00000,-0.14512,-0.38002,0.04531,,,,,,,,,,,,,,,,,,,,,,,,,,0,0,0,0,0
4.5106,1783187289.9968,1,1,1.0000,0.0000,1.44682,0.22864,-2.77868,0.97919,1.57080,0.00000,-0.14512,-0.38002,0.04531,,,,,,,,,,,,,,,,,,,,,,,,,,0,0,0,0,0
4.5147,1783187290.0009,1,1,1.0000,0.0000,1.44682,0.22863,-2.77868,0.97920,1.57080,0.00000,-0.14512,-0.38002,0.04531,,,,,,,,,,,,,,,,,,,,,,,,,,0,0,0,0,0
4.5256,1783187290.0118,1,1,1.0000,0.0000,1.44682,0.22862,-2.77868,0.97922,1.57080,0.00000,-0.14512,-0.38002,0.04531,,,,,,,,,,,,,,,,,,,,,,,,,,0,0,0,0,0
4.5361,1783187290.0223,1,1,1.0000,0.0000,1.44682,0.22861,-2.77868,0.97923,1.57080,0.00000,-0.14512,-0.38002,0.04531,,,,,,,,,,,,,,,,,,,,,,,,,,0,0,0,0,0
4.5492,1783187290.0354,1,1,1.0000,0.0000,1.44682,0.22859,-2.77869,0.97925,1.57080,0.00000,-0.14512,-0.38002,0.04530,,,,,,,,,,,,,,,,,,,,,,,,,,0,0,0,0,0
4.5541,1783187290.0403,1,1,1.0000,0.0000,1.44682,0.22858,-2.77869,0.97927,1.57080,0.00000,-0.14512,-0.38002,0.04530,,,,,,,,,,,,,,,,,,,,,,,,,,0,0,0,0,0
4.5544,1783187290.0406,1,1,1.0000,0.0000,1.44682,0.22858,-2.77869,0.97927,1.57080,0.00000,-0.14512,-0.38002,0.04530,,,,,,,,,,,,,,,,,,,,,,,,,,0,0,0,0,0
4.5642,1783187290.0504,1,1,1.0000,0.0000,1.44682,0.22856,-2.77869,0.97929,1.57080,0.00000,-0.14512,-0.38002,0.04529,,,,,,,,,,,,,,,,,,,,,,,,,,0,0,0,0,0
4.5741,1783187290.0603,1,1,1.0000,0.0000,1.44682,0.22856,-2.77870,0.97929,1.57080,0.00000,-0.14512,-0.38002,0.04529,,,,,,,,,,,,,,,,,,,,,,,,,,0,0,0,0,0
4.5845,1783187290.0707,1,1,1.0000,0.0000,1.44682,0.22854,-2.77870,0.97931,1.57080,0.00000,-0.14512,-0.38002,0.04529,,,,,,,,,,,,,,,,,,,,,,,,,,0,0,0,0,0
4.5953,1783187290.0815,1,1,1.0000,0.0000,1.44682,0.22853,-2.77870,0.97932,1.57080,0.00000,-0.14512,-0.38002,0.04529,,,,,,,,,,,,,,,,,,,,,,,,,,0,0,0,0,0
4.6076,1783187290.0938,1,1,1.0000,0.0000,1.44682,0.22852,-2.77871,0.97935,1.57080,0.00000,-0.14512,-0.38002,0.04528,,,,,,,,,,,,,,,,,,,,,,,,,,0,0,0,0,0
4.6188,1783187290.1050,1,1,1.0000,0.0000,1.44682,0.22850,-2.77871,0.97937,1.57080,0.00000,-0.14512,-0.38002,0.04528,,,,,,,,,,,,,,,,,,,,,,,,,,0,0,0,0,0
4.6256,1783187290.1118,1,1,1.0000,0.0000,1.44682,0.22849,-2.77871,0.97938,1.57080,0.00000,-0.14512,-0.38002,0.04527,,,,,,,,,,,,,,,,,,,,,,,,,,0,0,0,0,0
4.6343,1783187290.1205,1,1,1.0000,0.0000,1.44682,0.22848,-2.77871,0.97939,1.57080,0.00000,-0.14512,-0.38002,0.04527,,,,,,,,,,,,,,,,,,,,,,,,,,0,0,0,0,0
4.6451,1783187290.1313,1,1,1.0000,0.0000,1.44682,0.22847,-2.77872,0.97941,1.57080,0.00000,-0.14512,-0.38002,0.04527,,,,,,,,,,,,,,,,,,,,,,,,,,0,0,0,0,0
4.6542,1783187290.1404,1,1,1.0000,0.0000,1.44682,0.22846,-2.77872,0.97942,1.57080,0.00000,-0.14512,-0.38002,0.04527,,,,,,,,,,,,,,,,,,,,,,,,,,0,0,0,0,0
4.6663,1783187290.1525,1,1,1.0000,0.0000,1.44682,0.22845,-2.77872,0.97943,1.57080,0.00000,-0.14512,-0.38002,0.04526,,,,,,,,,,,,,,,,,,,,,,,,,,0,0,0,0,0
4.6739,1783187290.1601,1,1,1.0000,0.0000,1.44682,0.22843,-2.77873,0.97945,1.57080,0.00000,-0.14512,-0.38002,0.04526,,,,,,,,,,,,,,,,,,,,,,,,,,0,0,0,0,0
4.6743,1783187290.1605,1,1,1.0000,0.0000,1.44682,0.22843,-2.77873,0.97945,1.57080,0.00000,-0.14512,-0.38002,0.04526,,,,,,,,,,,,,,,,,,,,,,,,,,0,0,0,0,0
4.6856,1783187290.1718,1,1,1.0000,0.0000,1.44682,0.22841,-2.77873,0.97947,1.57080,0.00000,-0.14512,-0.38002,0.04525,,,,,,,,,,,,,,,,,,,,,,,,,,0,0,0,0,0
4.6860,1783187290.1722,1,1,1.0000,0.0000,1.44682,0.22841,-2.77873,0.97947,1.57080,0.00000,-0.14512,-0.38002,0.04525,,,,,,,,,,,,,,,,,,,,,,,,,,0,0,0,0,0
4.6982,1783187290.1844,1,1,1.0000,0.0000,1.44682,0.22840,-2.77874,0.97949,1.57080,0.00000,-0.14512,-0.38002,0.04525,,,,,,,,,,,,,,,,,,,,,,,,,,0,0,0,0,0
4.7109,1783187290.1971,1,1,1.0000,0.0000,1.44682,0.22838,-2.77874,0.97952,1.57080,0.00000,-0.14512,-0.38002,0.04525,,,,,,,,,,,,,,,,,,,,,,,,,,0,0,0,0,0
4.7161,1783187290.2023,1,1,1.0000,0.0000,1.44682,0.22838,-2.77874,0.97952,1.57080,0.00000,-0.14512,-0.38002,0.04524,,,,,,,,,,,,,,,,,,,,,,,,,,0,0,0,0,0
4.7276,1783187290.2138,1,1,1.0000,0.0000,1.44682,0.22836,-2.77875,0.97954,1.57080,0.00000,-0.14512,-0.38002,0.04524,,,,,,,,,,,,,,,,,,,,,,,,,,0,0,0,0,0
4.7356,1783187290.2218,1,1,1.0000,0.0000,1.44682,0.22834,-2.77875,0.97957,1.57080,0.00000,-0.14512,-0.38002,0.04524,,,,,,,,,,,,,,,,,,,,,,,,,,0,0,0,0,0
4.7505,1783187290.2367,1,1,1.0000,0.0000,1.44682,0.22833,-2.77875,0.97958,1.57080,0.00000,-0.14512,-0.38002,0.04523,,,,,,,,,,,,,,,,,,,,,,,,,,0,0,0,0,0
4.7562,1783187290.2424,1,1,1.0000,0.0000,1.44682,0.22832,-2.77876,0.97959,1.57080,0.00000,-0.14512,-0.38002,0.04523,,,,,,,,,,,,,,,,,,,,,,,,,,0,0,0,0,0
4.7669,1783187290.2531,1,1,1.0000,0.0000,1.44682,0.22831,-2.77876,0.97961,1.57080,0.00000,-0.14512,-0.38002,0.04523,,,,,,,,,,,,,,,,,,,,,,,,,,0,0,0,0,0
4.7757,1783187290.2619,1,1,1.0000,0.0000,1.44682,0.22830,-2.77876,0.97962,1.57080,0.00000,-0.14512,-0.38002,0.04522,,,,,,,,,,,,,,,,,,,,,,,,,,0,0,0,0,0
4.7761,1783187290.2623,1,1,1.0000,0.0000,1.44682,0.22830,-2.77876,0.97962,1.57080,0.00000,-0.14512,-0.38002,0.04522,,,,,,,,,,,,,,,,,,,,,,,,,,0,0,0,0,0
4.7842,1783187290.2704,1,1,1.0000,0.0000,1.44682,0.22828,-2.77877,0.97964,1.57080,0.00000,-0.14512,-0.38002,0.04522,,,,,,,,,,,,,,,,,,,,,,,,,,0,0,0,0,0
4.7959,1783187290.2821,1,1,1.0000,0.0000,1.44682,0.22826,-2.77877,0.97967,1.57080,0.00000,-0.14512,-0.38002,0.04521,,,,,,,,,,,,,,,,,,,,,,,,,,0,0,0,0,0
4.8099,1783187290.2961,1,1,1.0000,0.0000,1.44682,0.22825,-2.77877,0.97968,1.57080,0.00000,-0.14512,-0.38002,0.04521,,,,,,,,,,,,,,,,,,,,,,,,,,0,0,0,0,0
4.8157,1783187290.3019,1,1,1.0000,0.0000,1.44682,0.22824,-2.77878,0.97969,1.57080,0.00000,-0.14512,-0.38002,0.04521,,,,,,,,,,,,,,,,,,,,,,,,,,0,0,0,0,0
4.8160,1783187290.3022,1,1,1.0000,0.0000,1.44682,0.22824,-2.77878,0.97969,1.57080,0.00000,-0.14512,-0.38002,0.04521,,,,,,,,,,,,,,,,,,,,,,,,,,0,0,0,0,0
4.8281,1783187290.3143,1,1,1.0000,0.0000,1.44682,0.22822,-2.77878,0.97972,1.57080,0.00000,-0.14512,-0.38002,0.04520,,,,,,,,,,,,,,,,,,,,,,,,,,0,0,0,0,0
4.8358,1783187290.3220,1,1,1.0000,0.0000,1.44682,0.22821,-2.77879,0.97973,1.57080,0.00000,-0.14512,-0.38002,0.04520,,,,,,,,,,,,,,,,,,,,,,,,,,0,0,0,0,0
4.8363,1783187290.3225,1,1,1.0000,0.0000,1.44682,0.22821,-2.77879,0.97973,1.57080,0.00000,-0.14512,-0.38002,0.04520,,,,,,,,,,,,,,,,,,,,,,,,,,0,0,0,0,0
4.8458,1783187290.3320,1,1,1.0000,0.0000,1.44682,0.22820,-2.77879,0.97974,1.57080,0.00000,-0.14512,-0.38002,0.04520,,,,,,,,,,,,,,,,,,,,,,,,,,0,0,0,0,0
4.8566,1783187290.3428,1,1,1.0000,0.0000,1.44682,0.22819,-2.77879,0.97976,1.57080,0.00000,-0.14512,-0.38002,0.04520,,,,,,,,,,,,,,,,,,,,,,,,,,0,0,0,0,0
4.8756,1783187290.3618,1,1,1.0000,0.0000,1.44682,0.22817,-2.77880,0.97979,1.57080,0.00000,-0.14512,-0.38002,0.04519,,,,,,,,,,,,,,,,,,,,,,,,,,0,0,0,0,0
4.8760,1783187290.3622,1,1,1.0000,0.0000,1.44682,0.22817,-2.77880,0.97979,1.57080,0.00000,-0.14512,-0.38002,0.04519,,,,,,,,,,,,,,,,,,,,,,,,,,0,0,0,0,0
4.8766,1783187290.3628,1,1,1.0000,0.0000,1.44682,0.22817,-2.77880,0.97979,1.57080,0.00000,-0.14512,-0.38002,0.04519,,,,,,,,,,,,,,,,,,,,,,,,,,0,0,0,0,0
4.8843,1783187290.3705,1,1,1.0000,0.0000,1.44682,0.22815,-2.77880,0.97981,1.57080,0.00000,-0.14512,-0.38002,0.04519,,,,,,,,,,,,,,,,,,,,,,,,,,0,0,0,0,0
4.8994,1783187290.3856,1,1,1.0000,0.0000,1.44682,0.22813,-2.77880,0.97983,1.57080,0.00000,-0.14512,-0.38002,0.04518,,,,,,,,,,,,,,,,,,,,,,,,,,0,0,0,0,0
4.8996,1783187290.3858,1,1,1.0000,0.0000,1.44682,0.22813,-2.77880,0.97983,1.57080,0.00000,-0.14512,-0.38002,0.04518,,,,,,,,,,,,,,,,,,,,,,,,,,0,0,0,0,0
4.9047,1783187290.3909,1,1,1.0000,0.0000,1.44682,0.22813,-2.77881,0.97983,1.57080,0.00000,-0.14512,-0.38002,0.04518,,,,,,,,,,,,,,,,,,,,,,,,,,0,0,0,0,0
4.9198,1783187290.4060,1,1,1.0000,0.0000,1.44682,0.22810,-2.77881,0.97986,1.57080,0.00000,-0.14512,-0.38002,0.04517,,,,,,,,,,,,,,,,,,,,,,,,,,0,0,0,0,0
4.9243,1783187290.4105,1,1,1.0000,0.0000,1.44682,0.22810,-2.77881,0.97986,1.57080,0.00000,-0.14512,-0.38002,0.04517,,,,,,,,,,,,,,,,,,,,,,,,,,0,0,0,0,0
4.9361,1783187290.4223,1,1,1.0000,0.0000,1.44682,0.22809,-2.77881,0.97988,1.57080,0.00000,-0.14512,-0.38002,0.04517,,,,,,,,,,,,,,,,,,,,,,,,,,0,0,0,0,0
4.9462,1783187290.4324,1,1,1.0000,0.0000,1.44682,0.22807,-2.77882,0.97990,1.57080,0.00000,-0.14512,-0.38002,0.04517,,,,,,,,,,,,,,,,,,,,,,,,,,0,0,0,0,0
4.9560,1783187290.4422,1,1,1.0000,0.0000,1.44682,0.22806,-2.77882,0.97992,1.57080,0.00000,-0.14512,-0.38002,0.04516,,,,,,,,,,,,,,,,,,,,,,,,,,0,0,0,0,0
4.9642,1783187290.4504,1,1,1.0000,0.0000,1.44682,0.22805,-2.77882,0.97993,1.57080,0.00000,-0.14512,-0.38002,0.04516,,,,,,,,,,,,,,,,,,,,,,,,,,0,0,0,0,0
4.9754,1783187290.4615,1,1,1.0000,0.0000,1.44682,0.22804,-2.77883,0.97995,1.57080,0.00000,-0.14512,-0.38002,0.04516,,,,,,,,,,,,,,,,,,,,,,,,,,0,0,0,0,0
4.9863,1783187290.4725,1,1,1.0000,0.0000,1.44682,0.22803,-2.77883,0.97996,1.57080,0.00000,-0.14512,-0.38002,0.04515,,,,,,,,,,,,,,,,,,,,,,,,,,0,0,0,0,0
4.9943,1783187290.4805,1,1,1.0000,0.0000,1.44682,0.22802,-2.77883,0.97997,1.57080,0.00000,-0.14512,-0.38002,0.04515,,,,,,,,,,,,,,,,,,,,,,,,,,0,0,0,0,0
4.9946,1783187290.4808,1,1,1.0000,0.0000,1.44682,0.22802,-2.77883,0.97997,1.57080,0.00000,-0.14512,-0.38002,0.04515,,,,,,,,,,,,,,,,,,,,,,,,,,0,0,0,0,0
5.0043,1783187290.4905,1,1,1.0000,0.0000,1.44682,0.22800,-2.77884,0.97999,1.57080,0.00000,-0.14512,-0.38002,0.04515,,,,,,,,,,,,,,,,,,,,,,,,,,0,0,0,0,0
5.0235,1783187290.5097,1,1,1.0000,0.0000,1.44682,0.22798,-2.77884,0.98002,1.57080,0.00000,-0.14512,-0.38002,0.04514,,,,,,,,,,,,,,,,,,,,,,,,,,0,0,0,0,0
5.0332,1783187290.5194,1,1,1.0000,0.0000,1.44682,0.22797,-2.77885,0.98003,1.57080,0.00000,-0.14512,-0.38002,0.04514,,,,,,,,,,,,,,,,,,,,,,,,,,0,0,0,0,0
5.0384,1783187290.5246,1,1,1.0000,0.0000,1.44682,0.22796,-2.77885,0.98004,1.57080,0.00000,-0.14512,-0.38002,0.04514,,,,,,,,,,,,,,,,,,,,,,,,,,0,0,0,0,0
5.0515,1783187290.5377,1,1,1.0000,0.0000,1.44682,0.22795,-2.77885,0.98006,1.57080,0.00000,-0.14512,-0.38002,0.04513,,,,,,,,,,,,,,,,,,,,,,,,,,0,0,0,0,0
5.0612,1783187290.5474,1,1,1.0000,0.0000,1.44682,0.22793,-2.77885,0.98008,1.57080,0.00000,-0.14512,-0.38002,0.04513,,,,,,,,,,,,,,,,,,,,,,,,,,0,0,0,0,0
5.0735,1783187290.5597,1,1,1.0000,0.0000,1.44682,0.22791,-2.77886,0.98011,1.57080,0.00000,-0.14512,-0.38002,0.04512,,,,,,,,,,,,,,,,,,,,,,,,,,0,0,0,0,0
5.0796,1783187290.5658,1,1,1.0000,0.0000,1.44682,0.22791,-2.77886,0.98011,1.57080,0.00000,-0.14512,-0.38002,0.04512,,,,,,,,,,,,,,,,,,,,,,,,,,0,0,0,0,0
5.0889,1783187290.5751,1,1,1.0000,0.0000,1.44682,0.22790,-2.77886,0.98012,1.57080,0.00000,-0.14512,-0.38002,0.04512,,,,,,,,,,,,,,,,,,,,,,,,,,0,0,0,0,0
5.1006,1783187290.5868,1,1,1.0000,0.0000,1.44682,0.22788,-2.77887,0.98015,1.57080,0.00000,-0.14512,-0.38002,0.04512,,,,,,,,,,,,,,,,,,,,,,,,,,0,0,0,0,0
5.1091,1783187290.5953,1,1,1.0000,0.0000,1.44682,0.22788,-2.77887,0.98015,1.57080,0.00000,-0.14512,-0.38002,0.04512,,,,,,,,,,,,,,,,,,,,,,,,,,0,0,0,0,0
5.1199,1783187290.6061,1,1,1.0000,0.0000,1.44682,0.22786,-2.77887,0.98017,1.57080,0.00000,-0.14512,-0.38002,0.04511,,,,,,,,,,,,,,,,,,,,,,,,,,0,0,0,0,0
5.1203,1783187290.6065,1,1,1.0000,0.0000,1.44682,0.22786,-2.77887,0.98017,1.57080,0.00000,-0.14512,-0.38002,0.04511,,,,,,,,,,,,,,,,,,,,,,,,,,0,0,0,0,0
5.1287,1783187290.6149,1,1,1.0000,0.0000,1.44682,0.22784,-2.77888,0.98019,1.57080,0.00000,-0.14512,-0.38002,0.04511,,,,,,,,,,,,,,,,,,,,,,,,,,0,0,0,0,0
5.1291,1783187290.6153,1,1,1.0000,0.0000,1.44682,0.22784,-2.77888,0.98019,1.57080,0.00000,-0.14512,-0.38002,0.04511,,,,,,,,,,,,,,,,,,,,,,,,,,0,0,0,0,0
5.1377,1783187290.6239,1,1,1.0000,0.0000,1.44682,0.22783,-2.77888,0.98020,1.57080,0.00000,-0.14512,-0.38002,0.04510,,,,,,,,,,,,,,,,,,,,,,,,,,0,0,0,0,0
5.1504,1783187290.6366,1,1,1.0000,0.0000,1.44682,0.22782,-2.77888,0.98022,1.57080,0.00000,-0.14512,-0.38002,0.04510,,,,,,,,,,,,,,,,,,,,,,,,,,0,0,0,0,0
5.1579,1783187290.6441,1,1,1.0000,0.0000,1.44682,0.22781,-2.77889,0.98024,1.57080,0.00000,-0.14512,-0.38002,0.04510,,,,,,,,,,,,,,,,,,,,,,,,,,0,0,0,0,0
5.1820,1783187290.6682,1,1,1.0000,0.0000,1.44682,0.22778,-2.77889,0.98027,1.57080,0.00000,-0.14512,-0.38002,0.04509,,,,,,,,,,,,,,,,,,,,,,,,,,0,0,0,0,0
5.1823,1783187290.6685,1,1,1.0000,0.0000,1.44682,0.22778,-2.77889,0.98027,1.57080,0.00000,-0.14512,-0.38002,0.04509,,,,,,,,,,,,,,,,,,,,,,,,,,0,0,0,0,0
5.1887,1783187290.6749,1,1,1.0000,0.0000,1.44682,0.22776,-2.77890,0.98029,1.57080,0.00000,-0.14512,-0.38002,0.04508,,,,,,,,,,,,,,,,,,,,,,,,,,0,0,0,0,0
5.1977,1783187290.6839,1,1,1.0000,0.0000,1.44682,0.22775,-2.77890,0.98031,1.57080,0.00000,-0.14512,-0.38002,0.04508,,,,,,,,,,,,,,,,,,,,,,,,,,0,0,0,0,0
5.2087,1783187290.6949,1,1,1.0000,0.0000,1.44682,0.22774,-2.77890,0.98032,1.57080,0.00000,-0.14512,-0.38002,0.04508,,,,,,,,,,,,,,,,,,,,,,,,,,0,0,0,0,0
5.2196,1783187290.7058,1,1,1.0000,0.0000,1.44682,0.22772,-2.77891,0.98035,1.57080,0.00000,-0.14512,-0.38002,0.04507,,,,,,,,,,,,,,,,,,,,,,,,,,0,0,0,0,0
5.2199,1783187290.7061,1,1,1.0000,0.0000,1.44682,0.22772,-2.77891,0.98035,1.57080,0.00000,-0.14512,-0.38002,0.04507,,,,,,,,,,,,,,,,,,,,,,,,,,0,0,0,0,0
5.2314,1783187290.7176,1,1,1.0000,0.0000,1.44682,0.22771,-2.77891,0.98036,1.57080,0.00000,-0.14512,-0.38002,0.04507,,,,,,,,,,,,,,,,,,,,,,,,,,0,0,0,0,0
5.2397,1783187290.7259,1,1,1.0000,0.0000,1.44682,0.22770,-2.77891,0.98038,1.57080,0.00000,-0.14512,-0.38002,0.04507,,,,,,,,,,,,,,,,,,,,,,,,,,0,0,0,0,0
5.2901,1783187290.7763,1,1,1.0000,0.0000,1.44682,0.22763,-2.77893,0.98046,1.57080,0.00000,-0.14512,-0.38002,0.04505,,,,,,,,,,,,,,,,,,,,,,,,,,0,0,0,0,0
5.2906,1783187290.7767,1,1,1.0000,0.0000,1.44682,0.22763,-2.77893,0.98046,1.57080,0.00000,-0.14512,-0.38002,0.04505,,,,,,,,,,,,,,,,,,,,,,,,,,0,0,0,0,0
5.2913,1783187290.7775,1,1,1.0000,0.0000,1.44682,0.22763,-2.77893,0.98046,1.57080,0.00000,-0.14512,-0.38002,0.04505,,,,,,,,,,,,,,,,,,,,,,,,,,0,0,0,0,0
5.2916,1783187290.7778,1,1,1.0000,0.0000,1.44682,0.22763,-2.77893,0.98046,1.57080,0.00000,-0.14512,-0.38002,0.04505,,,,,,,,,,,,,,,,,,,,,,,,,,0,0,0,0,0
5.2980,1783187290.7842,1,1,1.0000,0.0000,1.44682,0.22762,-2.77893,0.98047,1.57080,0.00000,-0.14512,-0.38002,0.04505,,,,,,,,,,,,,,,,,,,,,,,,,,0,0,0,0,0
5.2986,1783187290.7847,1,1,1.0000,0.0000,1.44682,0.22762,-2.77893,0.98047,1.57080,0.00000,-0.14512,-0.38002,0.04505,,,,,,,,,,,,,,,,,,,,,,,,,,0,0,0,0,0
5.3096,1783187290.7958,1,1,1.0000,0.0000,1.44682,0.22760,-2.77894,0.98050,1.57080,0.00000,-0.14512,-0.38002,0.04504,,,,,,,,,,,,,,,,,,,,,,,,,,0,0,0,0,0
5.3100,1783187290.7962,1,1,1.0000,0.0000,1.44682,0.22760,-2.77894,0.98050,1.57080,0.00000,-0.14512,-0.38002,0.04504,,,,,,,,,,,,,,,,,,,,,,,,,,0,0,0,0,0
5.3562,1783187290.8424,1,1,1.0000,0.0000,1.44682,0.22754,-2.77895,0.98057,1.57080,0.00000,-0.14512,-0.38002,0.04503,,,,,,,,,,,,,,,,,,,,,,,,,,0,0,0,0,0
5.3602,1783187290.8464,1,1,1.0000,0.0000,1.44682,0.22753,-2.77896,0.98058,1.57080,0.00000,-0.14512,-0.38002,0.04503,,,,,,,,,,,,,,,,,,,,,,,,,,0,0,0,0,0
5.3606,1783187290.8468,1,1,1.0000,0.0000,1.44682,0.22753,-2.77896,0.98058,1.57080,0.00000,-0.14512,-0.38002,0.04503,,,,,,,,,,,,,,,,,,,,,,,,,,0,0,0,0,0
5.3609,1783187290.8471,1,1,1.0000,0.0000,1.44682,0.22753,-2.77896,0.98058,1.57080,0.00000,-0.14512,-0.38002,0.04503,,,,,,,,,,,,,,,,,,,,,,,,,,0,0,0,0,0
5.3611,1783187290.8473,1,1,1.0000,0.0000,1.44682,0.22753,-2.77896,0.98058,1.57080,0.00000,-0.14512,-0.38002,0.04503,,,,,,,,,,,,,,,,,,,,,,,,,,0,0,0,0,0
5.3614,1783187290.8476,1,1,1.0000,0.0000,1.44682,0.22753,-2.77896,0.98058,1.57080,0.00000,-0.14512,-0.38002,0.04503,,,,,,,,,,,,,,,,,,,,,,,,,,0,0,0,0,0
5.3686,1783187290.8548,1,1,1.0000,0.0000,1.44682,0.22752,-2.77896,0.98060,1.57080,0.00000,-0.14512,-0.38002,0.04502,,,,,,,,,,,,,,,,,,,,,,,,,,0,0,0,0,0
5.3689,1783187290.8551,1,1,1.0000,0.0000,1.44682,0.22752,-2.77896,0.98060,1.57080,0.00000,-0.14512,-0.38002,0.04502,,,,,,,,,,,,,,,,,,,,,,,,,,0,0,0,0,0
5.3814,1783187290.8676,1,1,1.0000,0.0000,1.44682,0.22751,-2.77896,0.98061,1.57080,0.00000,-0.14512,-0.38002,0.04502,,,,,,,,,,,,,,,,,,,,,,,,,,0,0,0,0,0
5.3820,1783187290.8682,1,1,1.0000,0.0000,1.44682,0.22751,-2.77896,0.98061,1.57080,0.00000,-0.14512,-0.38002,0.04502,,,,,,,,,,,,,,,,,,,,,,,,,,0,0,0,0,0
5.3882,1783187290.8744,1,1,1.0000,0.0000,1.44682,0.22750,-2.77897,0.98063,1.57080,0.00000,-0.14512,-0.38002,0.04502,,,,,,,,,,,,,,,,,,,,,,,,,,0,0,0,0,0
5.3983,1783187290.8845,1,1,1.0000,0.0000,1.44682,0.22748,-2.77897,0.98065,1.57080,0.00000,-0.14512,-0.38002,0.04501,,,,,,,,,,,,,,,,,,,,,,,,,,0,0,0,0,0
5.4077,1783187290.8939,1,1,1.0000,0.0000,1.44682,0.22747,-2.77897,0.98066,1.57080,0.00000,-0.14512,-0.38002,0.04501,,,,,,,,,,,,,,,,,,,,,,,,,,0,0,0,0,0
5.4080,1783187290.8942,1,1,1.0000,0.0000,1.44682,0.22747,-2.77897,0.98066,1.57080,0.00000,-0.14512,-0.38002,0.04501,,,,,,,,,,,,,,,,,,,,,,,,,,0,0,0,0,0
5.5851,1783187291.0713,1,1,1.0000,0.0000,1.44682,0.22722,-2.77904,0.98097,1.57080,0.00001,-0.14512,-0.38002,0.04494,,,,,,,,,,,,,,,,,,,,,,,,,,0,0,0,0,0
5.5855,1783187291.0717,1,1,1.0000,0.0000,1.44682,0.22722,-2.77904,0.98097,1.57080,0.00001,-0.14512,-0.38002,0.04494,,,,,,,,,,,,,,,,,,,,,,,,,,0,0,0,0,0
5.5861,1783187291.0722,1,1,1.0000,0.0000,1.44682,0.22722,-2.77904,0.98097,1.57080,0.00001,-0.14512,-0.38002,0.04494,,,,,,,,,,,,,,,,,,,,,,,,,,0,0,0,0,0
5.5865,1783187291.0727,1,1,1.0000,0.0000,1.44682,0.22722,-2.77904,0.98097,1.57080,0.00001,-0.14512,-0.38002,0.04494,,,,,,,,,,,,,,,,,,,,,,,,,,0,0,0,0,0
5.6054,1783187291.0916,1,1,1.0000,0.0000,1.44682,0.22720,-2.77904,0.98099,1.57080,0.00001,-0.14512,-0.38002,0.04494,,,,,,,,,,,,,,,,,,,,,,,,,,0,0,0,0,0
5.6057,1783187291.0919,1,1,1.0000,0.0000,1.44682,0.22720,-2.77904,0.98099,1.57080,0.00001,-0.14512,-0.38002,0.04494,,,,,,,,,,,,,,,,,,,,,,,,,,0,0,0,0,0
5.6061,1783187291.0923,1,1,1.0000,0.0000,1.44682,0.22720,-2.77904,0.98099,1.57080,0.00001,-0.14512,-0.38002,0.04494,,,,,,,,,,,,,,,,,,,,,,,,,,0,0,0,0,0
5.6064,1783187291.0926,1,1,1.0000,0.0000,1.44682,0.22720,-2.77904,0.98099,1.57080,0.00001,-0.14512,-0.38002,0.04494,,,,,,,,,,,,,,,,,,,,,,,,,,0,0,0,0,0
5.6067,1783187291.0929,1,1,1.0000,0.0000,1.44682,0.22720,-2.77904,0.98099,1.57080,0.00001,-0.14512,-0.38002,0.04494,,,,,,,,,,,,,,,,,,,,,,,,,,0,0,0,0,0
5.6070,1783187291.0932,1,1,1.0000,0.0000,1.44682,0.22720,-2.77904,0.98099,1.57080,0.00001,-0.14512,-0.38002,0.04494,,,,,,,,,,,,,,,,,,,,,,,,,,0,0,0,0,0
5.6077,1783187291.0939,1,1,1.0000,0.0000,1.44682,0.22720,-2.77904,0.98100,1.57080,0.00001,-0.14512,-0.38002,0.04494,,,,,,,,,,,,,,,,,,,,,,,,,,0,0,0,0,0
5.6080,1783187291.0942,1,1,1.0000,0.0000,1.44682,0.22720,-2.77904,0.98100,1.57080,0.00001,-0.14512,-0.38002,0.04494,,,,,,,,,,,,,,,,,,,,,,,,,,0,0,0,0,0
5.6083,1783187291.0945,1,1,1.0000,0.0000,1.44682,0.22720,-2.77904,0.98100,1.57080,0.00001,-0.14512,-0.38002,0.04494,,,,,,,,,,,,,,,,,,,,,,,,,,0,0,0,0,0
5.6087,1783187291.0948,1,1,1.0000,0.0000,1.44682,0.22720,-2.77904,0.98100,1.57080,0.00001,-0.14512,-0.38002,0.04494,,,,,,,,,,,,,,,,,,,,,,,,,,0,0,0,0,0
5.6089,1783187291.0950,1,1,1.0000,0.0000,1.44682,0.22720,-2.77904,0.98100,1.57080,0.00001,-0.14512,-0.38002,0.04494,,,,,,,,,,,,,,,,,,,,,,,,,,0,0,0,0,0
5.6092,1783187291.0953,1,1,1.0000,0.0000,1.44682,0.22720,-2.77904,0.98100,1.57080,0.00001,-0.14512,-0.38002,0.04494,,,,,,,,,,,,,,,,,,,,,,,,,,0,0,0,0,0
5.6095,1783187291.0957,1,1,1.0000,0.0000,1.44682,0.22720,-2.77904,0.98100,1.57080,0.00001,-0.14512,-0.38002,0.04494,,,,,,,,,,,,,,,,,,,,,,,,,,0,0,0,0,0
5.6098,1783187291.0960,1,1,1.0000,0.0000,1.44682,0.22720,-2.77904,0.98100,1.57080,0.00001,-0.14512,-0.38002,0.04494,,,,,,,,,,,,,,,,,,,,,,,,,,0,0,0,0,0
5.6100,1783187291.0962,1,1,1.0000,0.0000,1.44682,0.22720,-2.77904,0.98100,1.57080,0.00001,-0.14512,-0.38002,0.04494,,,,,,,,,,,,,,,,,,,,,,,,,,0,0,0,0,0
5.6103,1783187291.0965,1,1,1.0000,0.0000,1.44682,0.22720,-2.77904,0.98100,1.57080,0.00001,-0.14512,-0.38002,0.04494,,,,,,,,,,,,,,,,,,,,,,,,,,0,0,0,0,0
5.6518,1783187291.1380,1,1,1.0000,0.0000,1.44682,0.22714,-2.77906,0.98107,1.57080,0.00001,-0.14512,-0.38002,0.04492,,,,,,,,,,,,,,,,,,,,,,,,,,0,0,0,0,0
5.6523,1783187291.1385,1,1,1.0000,0.0000,1.44682,0.22714,-2.77906,0.98107,1.57080,0.00001,-0.14512,-0.38002,0.04492,,,,,,,,,,,,,,,,,,,,,,,,,,0,0,0,0,0
5.6528,1783187291.1390,1,1,1.0000,0.0000,1.44682,0.22714,-2.77906,0.98107,1.57080,0.00001,-0.14512,-0.38002,0.04492,,,,,,,,,,,,,,,,,,,,,,,,,,0,0,0,0,0
