Martins-Lucaas/twinforge/sensors/Data/20260713_170119__samples.csv
t_rel_s,t_unix,cycle,phase,setpoint_n,force_net_n,q1,q2,q3,q4,q5,q6,tcp_x,tcp_y,tcp_z,taxel_0,taxel_1,taxel_2,taxel_3,taxel_4,taxel_5,taxel_6,taxel_7,taxel_8,taxel_9,taxel_10,taxel_11,taxel_12,taxel_13,taxel_14,taxel_15,taxel_16,taxel_17,taxel_18,taxel_19,taxel_20,taxel_21,taxel_22,taxel_23,taxel_24,n_RA,n_SA,cn_mm,cn_ra,cn_sa
0.0008,1783972879.9703,0,-1,2.0000,-0.0000,1.42244,0.00071,-2.63045,1.05902,1.57084,0.11672,-0.12762,-0.48157,0.03741,,,,,,,,,,,,,,,,,,,,,,,,,,0,0,0,0,0
0.0225,1783972879.9920,1,0,2.0000,-0.0000,1.42244,0.00071,-2.63045,1.05902,1.57084,0.11672,-0.12762,-0.48157,0.03741,,,,,,,,,,,,,,,,,,,,,,,,,,0,0,0,0,0
0.0230,1783972879.9925,1,0,2.0000,-0.0000,1.42244,0.00071,-2.63045,1.05902,1.57084,0.11672,-0.12762,-0.48157,0.03741,,,,,,,,,,,,,,,,,,,,,,,,,,0,0,0,0,0
0.0277,1783972879.9971,1,0,2.0000,-0.0000,1.42244,0.00071,-2.63045,1.05902,1.57084,0.11672,-0.12762,-0.48157,0.03741,,,,,,,,,,,,,,,,,,,,,,,,,,0,0,0,0,0
0.0392,1783972880.0087,1,0,2.0000,-0.0000,1.42244,0.00071,-2.63045,1.05902,1.57084,0.11672,-0.12762,-0.48157,0.03741,,,,,,,,,,,,,,,,,,,,,,,,,,0,0,0,0,0
0.0401,1783972880.0095,1,0,2.0000,-0.0000,1.42244,0.00071,-2.63045,1.05902,1.57084,0.11672,-0.12762,-0.48157,0.03741,,,,,,,,,,,,,,,,,,,,,,,,,,0,0,0,0,0
0.0497,1783972880.0191,1,0,2.0000,-0.0000,1.42244,0.00071,-2.63046,1.05903,1.57084,0.11672,-0.12762,-0.48156,0.03741,,,,,,,,,,,,,,,,,,,,,,,,,,0,0,0,0,0
0.0618,1783972880.0313,1,0,2.0000,-0.0000,1.42244,0.00071,-2.63047,1.05904,1.57083,0.11673,-0.12762,-0.48156,0.03740,,,,,,,,,,,,,,,,,,,,,,,,,,0,0,0,0,0
0.0680,1783972880.0375,1,0,2.0000,-0.0000,1.42244,0.00071,-2.63049,1.05904,1.57082,0.11673,-0.12762,-0.48155,0.03740,,,,,,,,,,,,,,,,,,,,,,,,,,0,0,0,0,0
0.0776,1783972880.0470,1,0,2.0000,-0.0000,1.42244,0.00071,-2.63050,1.05905,1.57081,0.11674,-0.12763,-0.48154,0.03739,,,,,,,,,,,,,,,,,,,,,,,,,,0,0,0,0,0
0.0878,1783972880.0573,1,0,2.0000,-0.0000,1.42244,0.00071,-2.63052,1.05906,1.57080,0.11675,-0.12763,-0.48153,0.03738,,,,,,,,,,,,,,,,,,,,,,,,,,0,0,0,0,0
0.1003,1783972880.0698,1,0,2.0000,-0.0000,1.42244,0.00071,-2.63053,1.05907,1.57080,0.11675,-0.12764,-0.48152,0.03738,,,,,,,,,,,,,,,,,,,,,,,,,,0,0,0,0,0
0.1005,1783972880.0700,1,0,2.0000,-0.0000,1.42244,0.00071,-2.63053,1.05907,1.57080,0.11675,-0.12764,-0.48152,0.03738,,,,,,,,,,,,,,,,,,,,,,,,,,0,0,0,0,0
0.1109,1783972880.0804,1,0,2.0000,-0.0000,1.42244,0.00071,-2.63053,1.05907,1.57080,0.11675,-0.12764,-0.48152,0.03738,,,,,,,,,,,,,,,,,,,,,,,,,,0,0,0,0,0
0.1192,1783972880.0886,1,0,2.0000,-0.0000,1.42244,0.00071,-2.63053,1.05907,1.57080,0.11675,-0.12764,-0.48152,0.03738,,,,,,,,,,,,,,,,,,,,,,,,,,0,0,0,0,0
0.1199,1783972880.0894,1,0,2.0000,-0.0000,1.42244,0.00071,-2.63053,1.05907,1.57080,0.11675,-0.12764,-0.48152,0.03738,,,,,,,,,,,,,,,,,,,,,,,,,,0,0,0,0,0
0.1296,1783972880.0991,1,0,2.0000,-0.0000,1.42244,0.00071,-2.63053,1.05907,1.57080,0.11675,-0.12764,-0.48152,0.03738,,,,,,,,,,,,,,,,,,,,,,,,,,0,0,0,0,0
0.1400,1783972880.1095,1,0,2.0000,-0.0000,1.42244,0.00071,-2.63053,1.05907,1.57080,0.11675,-0.12764,-0.48152,0.03738,,,,,,,,,,,,,,,,,,,,,,,,,,0,0,0,0,0
0.1586,1783972880.1280,1,0,2.0000,-0.0000,1.42244,0.00071,-2.63053,1.05907,1.57080,0.11675,-0.12764,-0.48152,0.03738,,,,,,,,,,,,,,,,,,,,,,,,,,0,0,0,0,0
0.1600,1783972880.1295,1,0,2.0000,-0.0000,1.42244,0.00071,-2.63053,1.05907,1.57080,0.11675,-0.12764,-0.48152,0.03738,,,,,,,,,,,,,,,,,,,,,,,,,,0,0,0,0,0
0.1604,1783972880.1299,1,0,2.0000,-0.0000,1.42244,0.00071,-2.63053,1.05907,1.57080,0.11675,-0.12764,-0.48152,0.03738,,,,,,,,,,,,,,,,,,,,,,,,,,0,0,0,0,0
0.1692,1783972880.1386,1,0,2.0000,-0.0000,1.42244,0.00071,-2.63053,1.05907,1.57080,0.11675,-0.12764,-0.48152,0.03738,,,,,,,,,,,,,,,,,,,,,,,,,,0,0,0,0,0
0.1782,1783972880.1477,1,0,2.0000,-0.0000,1.42244,0.00071,-2.63053,1.05907,1.57080,0.11675,-0.12764,-0.48152,0.03738,,,,,,,,,,,,,,,,,,,,,,,,,,0,0,0,0,0
0.1895,1783972880.1590,1,0,2.0000,-0.0000,1.42244,0.00071,-2.63053,1.05907,1.57080,0.11675,-0.12764,-0.48152,0.03738,,,,,,,,,,,,,,,,,,,,,,,,,,0,0,0,0,0
0.1974,1783972880.1668,1,0,2.0000,-0.0000,1.42244,0.00071,-2.63053,1.05907,1.57080,0.11675,-0.12764,-0.48152,0.03738,,,,,,,,,,,,,,,,,,,,,,,,,,0,0,0,0,0
0.1976,1783972880.1671,1,0,2.0000,-0.0000,1.42244,0.00071,-2.63053,1.05907,1.57080,0.11675,-0.12764,-0.48152,0.03738,,,,,,,,,,,,,,,,,,,,,,,,,,0,0,0,0,0
0.2081,1783972880.1776,1,0,2.0000,-0.0000,1.42244,0.00071,-2.63053,1.05907,1.57080,0.11675,-0.12764,-0.48152,0.03738,,,,,,,,,,,,,,,,,,,,,,,,,,0,0,0,0,0
0.2180,1783972880.1875,1,0,2.0000,-0.0000,1.42244,0.00071,-2.63053,1.05907,1.57080,0.11675,-0.12764,-0.48152,0.03738,,,,,,,,,,,,,,,,,,,,,,,,,,0,0,0,0,0
0.2183,1783972880.1877,1,0,2.0000,-0.0000,1.42244,0.00071,-2.63053,1.05907,1.57080,0.11675,-0.12764,-0.48152,0.03738,,,,,,,,,,,,,,,,,,,,,,,,,,0,0,0,0,0
0.2290,1783972880.1985,1,0,2.0000,-0.0000,1.42244,0.00071,-2.63053,1.05907,1.57080,0.11675,-0.12764,-0.48152,0.03738,,,,,,,,,,,,,,,,,,,,,,,,,,0,0,0,0,0
0.2390,1783972880.2085,1,0,2.0000,-0.0000,1.42244,0.00071,-2.63053,1.05907,1.57080,0.11675,-0.12764,-0.48152,0.03738,,,,,,,,,,,,,,,,,,,,,,,,,,0,0,0,0,0
0.2480,1783972880.2175,1,0,2.0000,-0.0000,1.42244,0.00071,-2.63053,1.05907,1.57080,0.11675,-0.12764,-0.48152,0.03738,,,,,,,,,,,,,,,,,,,,,,,,,,0,0,0,0,0
0.2484,1783972880.2178,1,0,2.0000,-0.0000,1.42244,0.00071,-2.63053,1.05907,1.57080,0.11675,-0.12764,-0.48152,0.03738,,,,,,,,,,,,,,,,,,,,,,,,,,0,0,0,0,0
0.2629,1783972880.2323,1,0,2.0000,-0.0000,1.42244,0.00071,-2.63053,1.05907,1.57080,0.11675,-0.12764,-0.48152,0.03738,,,,,,,,,,,,,,,,,,,,,,,,,,0,0,0,0,0
0.2791,1783972880.2486,1,0,2.0000,-0.0000,1.42244,0.00071,-2.63053,1.05907,1.57080,0.11675,-0.12764,-0.48152,0.03738,,,,,,,,,,,,,,,,,,,,,,,,,,0,0,0,0,0
0.2808,1783972880.2503,1,0,2.0000,-0.0000,1.42244,0.00071,-2.63053,1.05907,1.57080,0.11675,-0.12764,-0.48152,0.03738,,,,,,,,,,,,,,,,,,,,,,,,,,0,0,0,0,0
0.2853,1783972880.2548,1,0,2.0000,-0.0000,1.42244,0.00071,-2.63053,1.05907,1.57080,0.11675,-0.12764,-0.48152,0.03738,,,,,,,,,,,,,,,,,,,,,,,,,,0,0,0,0,0
0.2856,1783972880.2551,1,0,2.0000,-0.0000,1.42244,0.00071,-2.63053,1.05907,1.57080,0.11675,-0.12764,-0.48152,0.03738,,,,,,,,,,,,,,,,,,,,,,,,,,0,0,0,0,0
0.3093,1783972880.2788,1,0,2.0000,-0.0000,1.42244,0.00071,-2.63053,1.05907,1.57080,0.11675,-0.12764,-0.48152,0.03738,,,,,,,,,,,,,,,,,,,,,,,,,,0,0,0,0,0
0.3097,1783972880.2792,1,0,2.0000,-0.0000,1.42244,0.00071,-2.63053,1.05907,1.57080,0.11675,-0.12764,-0.48152,0.03738,,,,,,,,,,,,,,,,,,,,,,,,,,0,0,0,0,0
0.3399,1783972880.3094,1,0,2.0000,-0.0000,1.42244,0.00071,-2.63053,1.05907,1.57080,0.11675,-0.12764,-0.48152,0.03738,,,,,,,,,,,,,,,,,,,,,,,,,,0,0,0,0,0
0.3403,1783972880.3098,1,0,2.0000,-0.0000,1.42244,0.00071,-2.63053,1.05907,1.57080,0.11675,-0.12764,-0.48152,0.03738,,,,,,,,,,,,,,,,,,,,,,,,,,0,0,0,0,0
0.3409,1783972880.3103,1,0,2.0000,-0.0000,1.42244,0.00071,-2.63053,1.05907,1.57080,0.11675,-0.12764,-0.48152,0.03738,,,,,,,,,,,,,,,,,,,,,,,,,,0,0,0,0,0
0.3478,1783972880.3173,1,0,2.0000,-0.0000,1.42244,0.00071,-2.63053,1.05907,1.57080,0.11675,-0.12764,-0.48152,0.03738,,,,,,,,,,,,,,,,,,,,,,,,,,0,0,0,0,0
0.3480,1783972880.3175,1,0,2.0000,-0.0000,1.42244,0.00071,-2.63053,1.05907,1.57080,0.11675,-0.12764,-0.48152,0.03738,,,,,,,,,,,,,,,,,,,,,,,,,,0,0,0,0,0
0.3484,1783972880.3179,1,0,2.0000,-0.0000,1.42244,0.00071,-2.63053,1.05907,1.57080,0.11675,-0.12764,-0.48152,0.03738,,,,,,,,,,,,,,,,,,,,,,,,,,0,0,0,0,0
0.4100,1783972880.3794,1,0,2.0000,-0.0000,1.42244,0.00071,-2.63053,1.05907,1.57080,0.11675,-0.12764,-0.48152,0.03738,,,,,,,,,,,,,,,,,,,,,,,,,,0,0,0,0,0
0.4104,1783972880.3798,1,0,2.0000,-0.0000,1.42244,0.00071,-2.63053,1.05907,1.57080,0.11675,-0.12764,-0.48152,0.03738,,,,,,,,,,,,,,,,,,,,,,,,,,0,0,0,0,0
0.4107,1783972880.3802,1,0,2.0000,-0.0000,1.42244,0.00071,-2.63053,1.05907,1.57080,0.11675,-0.12764,-0.48152,0.03738,,,,,,,,,,,,,,,,,,,,,,,,,,0,0,0,0,0
0.4109,1783972880.3804,1,0,2.0000,-0.0000,1.42244,0.00071,-2.63053,1.05907,1.57080,0.11675,-0.12764,-0.48152,0.03738,,,,,,,,,,,,,,,,,,,,,,,,,,0,0,0,0,0
0.4131,1783972880.3826,1,0,2.0000,-0.0000,1.42244,0.00071,-2.63053,1.05907,1.57080,0.11675,-0.12764,-0.48152,0.03738,,,,,,,,,,,,,,,,,,,,,,,,,,0,0,0,0,0
0.4135,1783972880.3829,1,0,2.0000,-0.0000,1.42244,0.00071,-2.63053,1.05907,1.57080,0.11675,-0.12764,-0.48152,0.03738,,,,,,,,,,,,,,,,,,,,,,,,,,0,0,0,0,0
0.4202,1783972880.3897,1,0,2.0000,-0.0000,1.42244,0.00071,-2.63053,1.05907,1.57080,0.11675,-0.12764,-0.48152,0.03738,,,,,,,,,,,,,,,,,,,,,,,,,,0,0,0,0,0
0.4326,1783972880.4021,1,0,2.0000,-0.0000,1.42244,0.00071,-2.63053,1.05907,1.57080,0.11675,-0.12764,-0.48152,0.03738,,,,,,,,,,,,,,,,,,,,,,,,,,0,0,0,0,0
0.4413,1783972880.4108,1,0,2.0000,-0.0000,1.42244,0.00071,-2.63053,1.05907,1.57080,0.11675,-0.12764,-0.48152,0.03738,,,,,,,,,,,,,,,,,,,,,,,,,,0,0,0,0,0
0.4511,1783972880.4205,1,0,2.0000,-0.0000,1.42244,0.00071,-2.63053,1.05907,1.57080,0.11675,-0.12764,-0.48152,0.03738,,,,,,,,,,,,,,,,,,,,,,,,,,0,0,0,0,0
0.4720,1783972880.4414,1,0,2.0000,-0.0000,1.42244,0.00071,-2.63053,1.05907,1.57080,0.11675,-0.12764,-0.48152,0.03738,,,,,,,,,,,,,,,,,,,,,,,,,,0,0,0,0,0
0.4723,1783972880.4418,1,0,2.0000,-0.0000,1.42244,0.00071,-2.63053,1.05907,1.57080,0.11675,-0.12764,-0.48152,0.03738,,,,,,,,,,,,,,,,,,,,,,,,,,0,0,0,0,0
0.4884,1783972880.4578,1,0,2.0000,-0.0000,1.42244,0.00071,-2.63053,1.05907,1.57080,0.11675,-0.12764,-0.48152,0.03738,,,,,,,,,,,,,,,,,,,,,,,,,,0,0,0,0,0
0.4888,1783972880.4583,1,0,2.0000,-0.0000,1.42244,0.00071,-2.63053,1.05907,1.57080,0.11675,-0.12764,-0.48152,0.03738,,,,,,,,,,,,,,,,,,,,,,,,,,0,0,0,0,0
0.4893,1783972880.4588,1,0,2.0000,-0.0000,1.42244,0.00071,-2.63053,1.05907,1.57080,0.11675,-0.12764,-0.48152,0.03738,,,,,,,,,,,,,,,,,,,,,,,,,,0,0,0,0,0
0.4984,1783972880.4679,1,0,2.0000,-0.0000,1.42244,0.00071,-2.63053,1.05907,1.57080,0.11675,-0.12764,-0.48152,0.03738,,,,,,,,,,,,,,,,,,,,,,,,,,0,0,0,0,0
0.5099,1783972880.4794,1,0,2.0000,-0.0000,1.42244,0.00071,-2.63053,1.05907,1.57080,0.11675,-0.12764,-0.48152,0.03738,,,,,,,,,,,,,,,,,,,,,,,,,,0,0,0,0,0
0.5228,1783972880.4923,1,0,2.0000,-0.0000,1.42244,0.00071,-2.63053,1.05907,1.57080,0.11675,-0.12764,-0.48152,0.03738,,,,,,,,,,,,,,,,,,,,,,,,,,0,0,0,0,0
0.5325,1783972880.5020,1,0,2.0000,-0.0000,1.42244,0.00071,-2.63053,1.05907,1.57080,0.11675,-0.12764,-0.48152,0.03738,,,,,,,,,,,,,,,,,,,,,,,,,,0,0,0,0,0
0.5329,1783972880.5024,1,0,2.0000,-0.0000,1.42244,0.00071,-2.63053,1.05907,1.57080,0.11675,-0.12764,-0.48152,0.03738,,,,,,,,,,,,,,,,,,,,,,,,,,0,0,0,0,0
0.5405,1783972880.5100,1,0,2.0000,-0.0000,1.42244,0.00071,-2.63053,1.05907,1.57080,0.11675,-0.12764,-0.48152,0.03738,,,,,,,,,,,,,,,,,,,,,,,,,,0,0,0,0,0
0.5526,1783972880.5221,1,0,2.0000,-0.0000,1.42244,0.00071,-2.63053,1.05907,1.57080,0.11675,-0.12764,-0.48152,0.03738,,,,,,,,,,,,,,,,,,,,,,,,,,0,0,0,0,0
0.5645,1783972880.5339,1,0,2.0000,-0.0000,1.42244,0.00071,-2.63053,1.05907,1.57080,0.11675,-0.12764,-0.48152,0.03738,,,,,,,,,,,,,,,,,,,,,,,,,,0,0,0,0,0
0.5671,1783972880.5366,1,0,2.0000,-0.0000,1.42244,0.00071,-2.63053,1.05907,1.57080,0.11675,-0.12764,-0.48152,0.03738,,,,,,,,,,,,,,,,,,,,,,,,,,0,0,0,0,0
0.5783,1783972880.5478,1,0,2.0000,-0.0000,1.42244,0.00071,-2.63053,1.05907,1.57080,0.11675,-0.12764,-0.48152,0.03738,,,,,,,,,,,,,,,,,,,,,,,,,,0,0,0,0,0
0.5788,1783972880.5483,1,0,2.0000,-0.0000,1.42244,0.00071,-2.63053,1.05907,1.57080,0.11675,-0.12764,-0.48152,0.03738,,,,,,,,,,,,,,,,,,,,,,,,,,0,0,0,0,0
0.5923,1783972880.5617,1,0,2.0000,-0.0000,1.42244,0.00071,-2.63053,1.05907,1.57080,0.11675,-0.12764,-0.48152,0.03738,,,,,,,,,,,,,,,,,,,,,,,,,,0,0,0,0,0
0.5987,1783972880.5681,1,0,2.0000,-0.0000,1.42244,0.00071,-2.63053,1.05907,1.57080,0.11675,-0.12764,-0.48152,0.03738,,,,,,,,,,,,,,,,,,,,,,,,,,0,0,0,0,0
0.6188,1783972880.5883,1,0,2.0000,-0.0000,1.42244,0.00071,-2.63053,1.05907,1.57080,0.11675,-0.12764,-0.48152,0.03738,,,,,,,,,,,,,,,,,,,,,,,,,,0,0,0,0,0
0.6213,1783972880.5908,1,0,2.0000,-0.0000,1.42244,0.00071,-2.63053,1.05907,1.57080,0.11675,-0.12764,-0.48152,0.03738,,,,,,,,,,,,,,,,,,,,,,,,,,0,0,0,0,0
0.6216,1783972880.5911,1,0,2.0000,-0.0000,1.42244,0.00071,-2.63053,1.05907,1.57080,0.11675,-0.12764,-0.48152,0.03738,,,,,,,,,,,,,,,,,,,,,,,,,,0,0,0,0,0
0.6268,1783972880.5963,1,0,2.0000,-0.0000,1.42244,0.00071,-2.63053,1.05907,1.57080,0.11675,-0.12764,-0.48152,0.03738,,,,,,,,,,,,,,,,,,,,,,,,,,0,0,0,0,0
0.6540,1783972880.6235,1,0,2.0000,-0.0000,1.42244,0.00071,-2.63053,1.05907,1.57080,0.11675,-0.12764,-0.48152,0.03738,,,,,,,,,,,,,,,,,,,,,,,,,,0,0,0,0,0
0.6689,1783972880.6384,1,0,2.0000,-0.0000,1.42244,0.00071,-2.63053,1.05907,1.57080,0.11675,-0.12764,-0.48152,0.03738,,,,,,,,,,,,,,,,,,,,,,,,,,0,0,0,0,0
0.6911,1783972880.6606,1,0,2.0000,-0.0000,1.42244,0.00071,-2.63053,1.05907,1.57080,0.11675,-0.12764,-0.48152,0.03738,,,,,,,,,,,,,,,,,,,,,,,,,,0,0,0,0,0
0.6917,1783972880.6612,1,0,2.0000,-0.0000,1.42244,0.00071,-2.63053,1.05907,1.57080,0.11675,-0.12764,-0.48152,0.03738,,,,,,,,,,,,,,,,,,,,,,,,,,0,0,0,0,0
0.7028,1783972880.6723,1,0,2.0000,-0.0000,1.42244,0.00071,-2.63053,1.05907,1.57080,0.11675,-0.12764,-0.48152,0.03738,,,,,,,,,,,,,,,,,,,,,,,,,,0,0,0,0,0
0.7099,1783972880.6794,1,0,2.0000,-0.0000,1.42244,0.00071,-2.63053,1.05907,1.57080,0.11675,-0.12764,-0.48152,0.03738,,,,,,,,,,,,,,,,,,,,,,,,,,0,0,0,0,0
0.7189,1783972880.6884,1,0,2.0000,-0.0000,1.42244,0.00071,-2.63053,1.05907,1.57080,0.11675,-0.12764,-0.48152,0.03738,,,,,,,,,,,,,,,,,,,,,,,,,,0,0,0,0,0
0.7280,1783972880.6975,1,1,2.0000,-0.0000,1.42244,0.00071,-2.63053,1.05907,1.57080,0.11675,-0.12764,-0.48152,0.03738,,,,,,,,,,,,,,,,,,,,,,,,,,0,0,0,0,0
0.7438,1783972880.7133,1,1,2.0000,-0.0000,1.42244,0.00071,-2.63053,1.05907,1.57080,0.11675,-0.12764,-0.48152,0.03738,,,,,,,,,,,,,,,,,,,,,,,,,,0,0,0,0,0
0.7465,1783972880.7160,1,1,2.0000,-0.0000,1.42244,0.00071,-2.63053,1.05907,1.57080,0.11675,-0.12764,-0.48152,0.03738,,,,,,,,,,,,,,,,,,,,,,,,,,0,0,0,0,0
0.7585,1783972880.7279,1,1,2.0000,-0.0000,1.42244,0.00071,-2.63053,1.05907,1.57080,0.11675,-0.12764,-0.48152,0.03738,,,,,,,,,,,,,,,,,,,,,,,,,,0,0,0,0,0
0.7775,1783972880.7470,1,1,2.0000,-0.0000,1.42244,0.00071,-2.63053,1.05907,1.57080,0.11675,-0.12764,-0.48152,0.03738,,,,,,,,,,,,,,,,,,,,,,,,,,0,0,0,0,0
0.7823,1783972880.7518,1,1,2.0000,-0.0000,1.42244,0.00071,-2.63053,1.05907,1.57080,0.11675,-0.12764,-0.48152,0.03738,,,,,,,,,,,,,,,,,,,,,,,,,,0,0,0,0,0
0.7921,1783972880.7616,1,1,2.0000,-0.0000,1.42244,0.00071,-2.63053,1.05907,1.57080,0.11675,-0.12764,-0.48152,0.03738,,,,,,,,,,,,,,,,,,,,,,,,,,0,0,0,0,0
0.7924,1783972880.7619,1,1,2.0000,-0.0000,1.42244,0.00071,-2.63053,1.05907,1.57080,0.11675,-0.12764,-0.48152,0.03738,,,,,,,,,,,,,,,,,,,,,,,,,,0,0,0,0,0
0.7981,1783972880.7676,1,1,2.0000,-0.0000,1.42244,0.00071,-2.63053,1.05907,1.57080,0.11675,-0.12764,-0.48152,0.03738,,,,,,,,,,,,,,,,,,,,,,,,,,0,0,0,0,0
0.8120,1783972880.7815,1,1,2.0000,-0.0000,1.42244,0.00071,-2.63053,1.05907,1.57080,0.11675,-0.12764,-0.48152,0.03738,,,,,,,,,,,,,,,,,,,,,,,,,,0,0,0,0,0
0.8260,1783972880.7954,1,1,2.0000,-0.0000,1.42244,0.00071,-2.63053,1.05907,1.57080,0.11675,-0.12764,-0.48152,0.03738,,,,,,,,,,,,,,,,,,,,,,,,,,0,0,0,0,0
0.8320,1783972880.8015,1,1,2.0000,-0.0000,1.42244,0.00071,-2.63053,1.05907,1.57080,0.11675,-0.12764,-0.48152,0.03738,,,,,,,,,,,,,,,,,,,,,,,,,,0,0,0,0,0
0.8427,1783972880.8122,1,1,2.0000,-0.0000,1.42244,0.00071,-2.63053,1.05907,1.57080,0.11675,-0.12764,-0.48152,0.03738,,,,,,,,,,,,,,,,,,,,,,,,,,0,0,0,0,0
0.8507,1783972880.8201,1,1,2.0000,-0.0000,1.42244,0.00071,-2.63053,1.05907,1.57080,0.11675,-0.12764,-0.48152,0.03738,,,,,,,,,,,,,,,,,,,,,,,,,,0,0,0,0,0
0.8610,1783972880.8305,1,1,2.0000,-0.0000,1.42244,0.00071,-2.63053,1.05907,1.57080,0.11675,-0.12764,-0.48152,0.03738,,,,,,,,,,,,,,,,,,,,,,,,,,0,0,0,0,0
0.9023,1783972880.8718,1,1,2.0000,-0.0000,1.42244,0.00071,-2.63053,1.05907,1.57080,0.11675,-0.12764,-0.48152,0.03738,,,,,,,,,,,,,,,,,,,,,,,,,,0,0,0,0,0
0.9026,1783972880.8721,1,1,2.0000,-0.0000,1.42244,0.00071,-2.63053,1.05907,1.57080,0.11675,-0.12764,-0.48152,0.03738,,,,,,,,,,,,,,,,,,,,,,,,,,0,0,0,0,0
0.9029,1783972880.8724,1,1,2.0000,-0.0000,1.42244,0.00071,-2.63053,1.05907,1.57080,0.11675,-0.12764,-0.48152,0.03738,,,,,,,,,,,,,,,,,,,,,,,,,,0,0,0,0,0
0.9033,1783972880.8728,1,1,2.0000,-0.0000,1.42244,0.00071,-2.63053,1.05907,1.57080,0.11675,-0.12764,-0.48152,0.03738,,,,,,,,,,,,,,,,,,,,,,,,,,0,0,0,0,0
0.9144,1783972880.8839,1,1,2.0000,-0.0000,1.42244,0.00071,-2.63053,1.05907,1.57080,0.11675,-0.12764,-0.48152,0.03738,,,,,,,,,,,,,,,,,,,,,,,,,,0,0,0,0,0
0.9252,1783972880.8947,1,1,2.0000,-0.0000,1.42244,0.00071,-2.63053,1.05907,1.57080,0.11675,-0.12764,-0.48152,0.03738,,,,,,,,,,,,,,,,,,,,,,,,,,0,0,0,0,0
0.9328,1783972880.9022,1,1,2.0000,-0.0000,1.42244,0.00071,-2.63053,1.05907,1.57080,0.11675,-0.12764,-0.48152,0.03738,,,,,,,,,,,,,,,,,,,,,,,,,,0,0,0,0,0
0.9919,1783972880.9614,1,1,2.0000,-0.0000,1.42244,0.00071,-2.63053,1.05907,1.57080,0.11675,-0.12764,-0.48152,0.03738,,,,,,,,,,,,,,,,,,,,,,,,,,0,0,0,0,0
0.9923,1783972880.9618,1,1,2.0000,-0.0000,1.42244,0.00071,-2.63053,1.05907,1.57080,0.11675,-0.12764,-0.48152,0.03738,,,,,,,,,,,,,,,,,,,,,,,,,,0,0,0,0,0
0.9927,1783972880.9622,1,1,2.0000,-0.0000,1.42244,0.00071,-2.63053,1.05907,1.57080,0.11675,-0.12764,-0.48152,0.03738,,,,,,,,,,,,,,,,,,,,,,,,,,0,0,0,0,0
0.9930,1783972880.9624,1,1,2.0000,-0.0000,1.42244,0.00071,-2.63053,1.05907,1.57080,0.11675,-0.12764,-0.48152,0.03738,,,,,,,,,,,,,,,,,,,,,,,,,,0,0,0,0,0
0.9933,1783972880.9628,1,1,2.0000,-0.0000,1.42244,0.00071,-2.63053,1.05907,1.57080,0.11675,-0.12764,-0.48152,0.03738,,,,,,,,,,,,,,,,,,,,,,,,,,0,0,0,0,0
0.9936,1783972880.9630,1,1,2.0000,-0.0000,1.42244,0.00071,-2.63053,1.05907,1.57080,0.11675,-0.12764,-0.48152,0.03738,,,,,,,,,,,,,,,,,,,,,,,,,,0,0,0,0,0
0.9966,1783972880.9660,1,1,2.0000,-0.0000,1.42244,0.00071,-2.63053,1.05907,1.57080,0.11675,-0.12764,-0.48152,0.03738,,,,,,,,,,,,,,,,,,,,,,,,,,0,0,0,0,0
0.9969,1783972880.9663,1,1,2.0000,-0.0000,1.42244,0.00071,-2.63053,1.05907,1.57080,0.11675,-0.12764,-0.48152,0.03738,,,,,,,,,,,,,,,,,,,,,,,,,,0,0,0,0,0
1.0014,1783972880.9708,1,1,2.0000,-0.0000,1.42244,0.00071,-2.63053,1.05907,1.57080,0.11675,-0.12764,-0.48152,0.03738,,,,,,,,,,,,,,,,,,,,,,,,,,0,0,0,0,0
1.0226,1783972880.9921,1,1,2.0000,-0.0000,1.42244,0.00069,-2.63056,1.05907,1.57080,0.11675,-0.12764,-0.48150,0.03736,,,,,,,,,,,,,,,,,,,,,,,,,,0,0,0,0,0
1.0241,1783972880.9935,1,1,2.0000,-0.0000,1.42244,0.00069,-2.63057,1.05907,1.57080,0.11675,-0.12764,-0.48149,0.03735,,,,,,,,,,,,,,,,,,,,,,,,,,0,0,0,0,0
1.0243,1783972880.9938,1,1,2.0000,-0.0000,1.42244,0.00069,-2.63057,1.05907,1.57080,0.11675,-0.12764,-0.48149,0.03735,,,,,,,,,,,,,,,,,,,,,,,,,,0,0,0,0,0
1.0345,1783972881.0039,1,1,2.0000,-0.0000,1.42244,0.00068,-2.63057,1.05907,1.57080,0.11675,-0.12764,-0.48149,0.03735,,,,,,,,,,,,,,,,,,,,,,,,,,0,0,0,0,0
1.0740,1783972881.0435,1,1,2.0000,-0.0000,1.42244,0.00059,-2.63067,1.05911,1.57080,0.11675,-0.12765,-0.48142,0.03727,,,,,,,,,,,,,,,,,,,,,,,,,,0,0,0,0,0
1.0743,1783972881.0437,1,1,2.0000,-0.0000,1.42244,0.00059,-2.63067,1.05911,1.57080,0.11675,-0.12765,-0.48142,0.03727,,,,,,,,,,,,,,,,,,,,,,,,,,0,0,0,0,0
1.0747,1783972881.0442,1,1,2.0000,-0.0000,1.42244,0.00059,-2.63067,1.05911,1.57080,0.11675,-0.12765,-0.48142,0.03727,,,,,,,,,,,,,,,,,,,,,,,,,,0,0,0,0,0
1.0816,1783972881.0511,1,1,2.0000,-0.0000,1.42244,0.00056,-2.63068,1.05913,1.57080,0.11675,-0.12765,-0.48141,0.03726,,,,,,,,,,,,,,,,,,,,,,,,,,0,0,0,0,0
1.0920,1783972881.0615,1,1,2.0000,-0.0000,1.42244,0.00050,-2.63071,1.05917,1.57080,0.11675,-0.12766,-0.48139,0.03722,,,,,,,,,,,,,,,,,,,,,,,,,,0,0,0,0,0
1.0923,1783972881.0618,1,1,2.0000,-0.0000,1.42244,0.00050,-2.63071,1.05917,1.57080,0.11675,-0.12766,-0.48139,0.03722,,,,,,,,,,,,,,,,,,,,,,,,,,0,0,0,0,0
1.1040,1783972881.0735,1,1,2.0000,-0.0000,1.42244,0.00049,-2.63071,1.05919,1.57080,0.11675,-0.12766,-0.48139,0.03722,,,,,,,,,,,,,,,,,,,,,,,,,,0,0,0,0,0
1.1042,1783972881.0737,1,1,2.0000,-0.0000,1.42244,0.00049,-2.63071,1.05919,1.57080,0.11675,-0.12766,-0.48139,0.03722,,,,,,,,,,,,,,,,,,,,,,,,,,0,0,0,0,0
1.1124,1783972881.0819,1,1,2.0000,-0.0000,1.42244,0.00044,-2.63072,1.05923,1.57080,0.11675,-0.12766,-0.48139,0.03720,,,,,,,,,,,,,,,,,,,,,,,,,,0,0,0,0,0
1.1129,1783972881.0824,1,1,2.0000,-0.0000,1.42244,0.00044,-2.63072,1.05923,1.57080,0.11675,-0.12766,-0.48139,0.03720,,,,,,,,,,,,,,,,,,,,,,,,,,0,0,0,0,0
1.1262,1783972881.0957,1,1,2.0000,-0.0000,1.42244,0.00041,-2.63073,1.05928,1.57080,0.11675,-0.12766,-0.48139,0.03719,,,,,,,,,,,,,,,,,,,,,,,,,,0,0,0,0,0
1.1342,1783972881.1037,1,1,2.0000,-0.0000,1.42244,0.00036,-2.63074,1.05933,1.57080,0.11675,-0.12765,-0.48139,0.03717,,,,,,,,,,,,,,,,,,,,,,,,,,0,0,0,0,0
1.1471,1783972881.1166,1,1,2.0000,-0.0000,1.42244,0.00022,-2.63075,1.05950,1.57080,0.11675,-0.12765,-0.48140,0.03713,,,,,,,,,,,,,,,,,,,,,,,,,,0,0,0,0,0
1.1522,1783972881.1217,1,1,2.0000,-0.0000,1.42244,0.00016,-2.63076,1.05957,1.57080,0.11675,-0.12765,-0.48140,0.03711,,,,,,,,,,,,,,,,,,,,,,,,,,0,0,0,0,0
1.1661,1783972881.1356,1,1,2.0000,-0.0000,1.42244,0.00011,-2.63077,1.05962,1.57080,0.11675,-0.12765,-0.48140,0.03710,,,,,,,,,,,,,,,,,,,,,,,,,,0,0,0,0,0
1.1778,1783972881.1473,1,1,2.0000,-0.0000,1.42244,-0.00001,-2.63079,1.05977,1.57080,0.11675,-0.12765,-0.48141,0.03706,,,,,,,,,,,,,,,,,,,,,,,,,,0,0,0,0,0
1.1900,1783972881.1595,1,1,2.0000,-0.0000,1.42244,-0.00006,-2.63079,1.05984,1.57080,0.11675,-0.12765,-0.48141,0.03705,,,,,,,,,,,,,,,,,,,,,,,,,,0,0,0,0,0
1.1905,1783972881.1600,1,1,2.0000,-0.0000,1.42244,-0.00006,-2.63079,1.05984,1.57080,0.11675,-0.12765,-0.48141,0.03705,,,,,,,,,,,,,,,,,,,,,,,,,,0,0,0,0,0
1.1914,1783972881.1608,1,1,2.0000,-0.0000,1.42244,-0.00006,-2.63079,1.05984,1.57080,0.11675,-0.12765,-0.48141,0.03705,,,,,,,,,,,,,,,,,,,,,,,,,,0,0,0,0,0
1.1918,1783972881.1613,1,1,2.0000,-0.0000,1.42244,-0.00007,-2.63079,1.05986,1.57080,0.11675,-0.12765,-0.48142,0.03704,,,,,,,,,,,,,,,,,,,,,,,,,,0,0,0,0,0
1.2021,1783972881.1716,1,1,2.0000,-0.0000,1.42244,-0.00012,-2.63080,1.05992,1.57080,0.11675,-0.12765,-0.48142,0.03703,,,,,,,,,,,,,,,,,,,,,,,,,,0,0,0,0,0
1.2119,1783972881.1814,1,1,2.0000,-0.0000,1.42244,-0.00023,-2.63080,1.06006,1.57080,0.11675,-0.12765,-0.48144,0.03701,,,,,,,,,,,,,,,,,,,,,,,,,,0,0,0,0,0
1.2219,1783972881.1914,1,1,2.0000,-0.0000,1.42244,-0.00030,-2.63079,1.06017,1.57080,0.11675,-0.12764,-0.48146,0.03699,,,,,,,,,,,,,,,,,,,,,,,,,,0,0,0,0,0
1.2509,1783972881.2204,1,1,2.0000,-0.0000,1.42244,-0.00047,-2.63075,1.06040,1.57080,0.11675,-0.12763,-0.48153,0.03698,,,,,,,,,,,,,,,,,,,,,,,,,,0,0,0,0,0
1.2512,1783972881.2207,1,1,2.0000,-0.0000,1.42244,-0.00047,-2.63075,1.06040,1.57080,0.11675,-0.12763,-0.48153,0.03698,,,,,,,,,,,,,,,,,,,,,,,,,,0,0,0,0,0
1.2532,1783972881.2227,1,1,2.0000,-0.0000,1.42244,-0.00047,-2.63075,1.06040,1.57080,0.11675,-0.12763,-0.48153,0.03698,,,,,,,,,,,,,,,,,,,,,,,,,,0,0,0,0,0
1.2535,1783972881.2230,1,1,2.0000,-0.0000,1.42244,-0.00047,-2.63075,1.06040,1.57080,0.11675,-0.12763,-0.48153,0.03698,,,,,,,,,,,,,,,,,,,,,,,,,,0,0,0,0,0
1.3591,1783972881.3285,1,1,2.0000,-0.0000,1.42244,-0.00047,-2.63075,1.06040,1.57080,0.11675,-0.12763,-0.48153,0.03698,,,,,,,,,,,,,,,,,,,,,,,,,,0,0,0,0,0
1.3595,1783972881.3289,1,1,2.0000,-0.0000,1.42244,-0.00047,-2.63075,1.06040,1.57080,0.11675,-0.12763,-0.48153,0.03698,,,,,,,,,,,,,,,,,,,,,,,,,,0,0,0,0,0
1.3599,1783972881.3293,1,1,2.0000,-0.0000,1.42244,-0.00047,-2.63075,1.06040,1.57080,0.11675,-0.12763,-0.48153,0.03698,,,,,,,,,,,,,,,,,,,,,,,,,,0,0,0,0,0
1.3602,1783972881.3296,1,1,2.0000,-0.0000,1.42244,-0.00047,-2.63075,1.06040,1.57080,0.11675,-0.12763,-0.48153,0.03698,,,,,,,,,,,,,,,,,,,,,,,,,,0,0,0,0,0
1.3605,1783972881.3300,1,1,2.0000,-0.0000,1.42244,-0.00047,-2.63075,1.06040,1.57080,0.11675,-0.12763,-0.48153,0.03698,,,,,,,,,,,,,,,,,,,,,,,,,,0,0,0,0,0
1.3608,1783972881.3302,1,1,2.0000,-0.0000,1.42244,-0.00047,-2.63075,1.06040,1.57080,0.11675,-0.12763,-0.48153,0.03698,,,,,,,,,,,,,,,,,,,,,,,,,,0,0,0,0,0
1.3646,1783972881.3340,1,1,2.0000,-0.0000,1.42244,-0.00047,-2.63075,1.06040,1.57080,0.11675,-0.12763,-0.48153,0.03698,,,,,,,,,,,,,,,,,,,,,,,,,,0,0,0,0,0
1.3649,1783972881.3343,1,1,2.0000,-0.0000,1.42244,-0.00047,-2.63075,1.06040,1.57080,0.11675,-0.12763,-0.48153,0.03698,,,,,,,,,,,,,,,,,,,,,,,,,,0,0,0,0,0
1.3722,1783972881.3416,1,1,2.0000,-0.0000,1.42244,-0.00047,-2.63075,1.06040,1.57080,0.11675,-0.12763,-0.48153,0.03698,,,,,,,,,,,,,,,,,,,,,,,,,,0,0,0,0,0
1.3727,1783972881.3422,1,1,2.0000,-0.0000,1.42244,-0.00047,-2.63075,1.06040,1.57080,0.11675,-0.12763,-0.48153,0.03698,,,,,,,,,,,,,,,,,,,,,,,,,,0,0,0,0,0
1.3814,1783972881.3508,1,1,2.0000,-0.0000,1.42244,-0.00047,-2.63075,1.06040,1.57080,0.11675,-0.12763,-0.48153,0.03698,,,,,,,,,,,,,,,,,,,,,,,,,,0,0,0,0,0
1.3818,1783972881.3513,1,1,2.0000,-0.0000,1.42244,-0.00047,-2.63075,1.06040,1.57080,0.11675,-0.12763,-0.48153,0.03698,,,,,,,,,,,,,,,,,,,,,,,,,,0,0,0,0,0
1.4015,1783972881.3710,1,1,2.0000,-0.0000,1.42244,-0.00047,-2.63075,1.06040,1.57080,0.11675,-0.12763,-0.48153,0.03698,,,,,,,,,,,,,,,,,,,,,,,,,,0,0,0,0,0
1.4046,1783972881.3741,1,1,2.0000,-0.0000,1.42244,-0.00047,-2.63075,1.06040,1.57080,0.11675,-0.12763,-0.48153,0.03698,,,,,,,,,,,,,,,,,,,,,,,,,,0,0,0,0,0
1.4050,1783972881.3744,1,1,2.0000,-0.0000,1.42244,-0.00047,-2.63075,1.06040,1.57080,0.11675,-0.12763,-0.48153,0.03698,,,,,,,,,,,,,,,,,,,,,,,,,,0,0,0,0,0
1.4129,1783972881.3824,1,1,2.0000,-0.0000,1.42244,-0.00047,-2.63075,1.06040,1.57080,0.11675,-0.12763,-0.48153,0.03698,,,,,,,,,,,,,,,,,,,,,,,,,,0,0,0,0,0
1.4132,1783972881.3827,1,1,2.0000,-0.0000,1.42244,-0.00047,-2.63075,1.06040,1.57080,0.11675,-0.12763,-0.48153,0.03698,,,,,,,,,,,,,,,,,,,,,,,,,,0,0,0,0,0
1.4200,1783972881.3895,1,1,2.0000,-0.0000,1.42244,-0.00047,-2.63075,1.06040,1.57080,0.11675,-0.12763,-0.48153,0.03698,,,,,,,,,,,,,,,,,,,,,,,,,,0,0,0,0,0
1.4330,1783972881.4025,1,1,2.0000,-0.0000,1.42244,-0.00047,-2.63075,1.06040,1.57080,0.11675,-0.12763,-0.48153,0.03698,,,,,,,,,,,,,,,,,,,,,,,,,,0,0,0,0,0
1.4489,1783972881.4183,1,1,2.0000,-0.0000,1.42244,-0.00047,-2.63076,1.06043,1.57080,0.11675,-0.12763,-0.48153,0.03698,,,,,,,,,,,,,,,,,,,,,,,,,,0,0,0,0,0
1.4567,1783972881.4262,1,1,2.0000,-0.0000,1.42244,-0.00048,-2.63077,1.06044,1.57080,0.11675,-0.12763,-0.48152,0.03697,,,,,,,,,,,,,,,,,,,,,,,,,,0,0,0,0,0
1.4711,1783972881.4406,1,1,2.0000,-0.0000,1.42244,-0.00050,-2.63081,1.06048,1.57080,0.11675,-0.12764,-0.48150,0.03695,,,,,,,,,,,,,,,,,,,,,,,,,,0,0,0,0,0
1.4744,1783972881.4439,1,1,2.0000,-0.0000,1.42244,-0.00052,-2.63082,1.06051,1.57080,0.11675,-0.12764,-0.48149,0.03694,,,,,,,,,,,,,,,,,,,,,,,,,,0,0,0,0,0
1.4748,1783972881.4442,1,1,2.0000,-0.0000,1.42244,-0.00052,-2.63082,1.06051,1.57080,0.11675,-0.12764,-0.48149,0.03694,,,,,,,,,,,,,,,,,,,,,,,,,,0,0,0,0,0
1.5086,1783972881.4781,1,1,2.0000,-0.0000,1.42244,-0.00064,-2.63092,1.06068,1.57080,0.11675,-0.12764,-0.48145,0.03687,,,,,,,,,,,,,,,,,,,,,,,,,,0,0,0,0,0
1.5089,1783972881.4784,1,1,2.0000,-0.0000,1.42244,-0.00064,-2.63092,1.06068,1.57080,0.11675,-0.12764,-0.48145,0.03687,,,,,,,,,,,,,,,,,,,,,,,,,,0,0,0,0,0
1.5159,1783972881.4854,1,1,2.0000,-0.0000,1.42244,-0.00067,-2.63094,1.06071,1.57080,0.11675,-0.12765,-0.48144,0.03686,,,,,,,,,,,,,,,,,,,,,,,,,,0,0,0,0,0
1.5411,1783972881.5106,1,1,2.0000,-0.0000,1.42244,-0.00075,-2.63096,1.06082,1.57080,0.11675,-0.12765,-0.48144,0.03683,,,,,,,,,,,,,,,,,,,,,,,,,,0,0,0,0,0
1.5444,1783972881.5139,1,1,2.0000,-0.0000,1.42244,-0.00076,-2.63096,1.06083,1.57080,0.11675,-0.12765,-0.48144,0.03683,,,,,,,,,,,,,,,,,,,,,,,,,,0,0,0,0,0
1.5464,1783972881.5159,1,1,2.0000,-0.0000,1.42244,-0.00076,-2.63096,1.06083,1.57080,0.11675,-0.12765,-0.48144,0.03683,,,,,,,,,,,,,,,,,,,,,,,,,,0,0,0,0,0
1.5571,1783972881.5266,1,1,2.0000,-0.0000,1.42244,-0.00084,-2.63098,1.06093,1.57080,0.11675,-0.12764,-0.48144,0.03680,,,,,,,,,,,,,,,,,,,,,,,,,,0,0,0,0,0
1.5673,1783972881.5368,1,1,2.0000,-0.0000,1.42244,-0.00094,-2.63100,1.06105,1.57080,0.11675,-0.12764,-0.48145,0.03677,,,,,,,,,,,,,,,,,,,,,,,,,,0,0,0,0,0
1.5948,1783972881.5643,1,1,2.0000,-0.0000,1.42244,-0.00111,-2.63103,1.06127,1.57080,0.11675,-0.12764,-0.48145,0.03672,,,,,,,,,,,,,,,,,,,,,,,,,,0,0,0,0,0
1.5952,1783972881.5647,1,1,2.0000,-0.0000,1.42244,-0.00111,-2.63103,1.06127,1.57080,0.11675,-0.12764,-0.48145,0.03672,,,,,,,,,,,,,,,,,,,,,,,,,,0,0,0,0,0
1.6052,1783972881.5747,1,1,2.0000,-0.0000,1.42244,-0.00121,-2.63104,1.06139,1.57080,0.11675,-0.12764,-0.48146,0.03669,,,,,,,,,,,,,,,,,,,,,,,,,,0,0,0,0,0
1.6491,1783972881.6185,1,1,2.0000,-0.0000,1.42244,-0.00155,-2.63105,1.06181,1.57080,0.11675,-0.12763,-0.48151,0.03661,,,,,,,,,,,,,,,,,,,,,,,,,,0,0,0,0,0
1.6493,1783972881.6188,1,1,2.0000,-0.0000,1.42244,-0.00155,-2.63105,1.06181,1.57080,0.11675,-0.12763,-0.48151,0.03661,,,,,,,,,,,,,,,,,,,,,,,,,,0,0,0,0,0
1.6498,1783972881.6193,1,1,2.0000,-0.0000,1.42244,-0.00155,-2.63105,1.06181,1.57080,0.11675,-0.12763,-0.48151,0.03661,,,,,,,,,,,,,,,,,,,,,,,,,,0,0,0,0,0
1.6518,1783972881.6213,1,1,2.0000,-0.0000,1.42244,-0.00158,-2.63105,1.06186,1.57080,0.11675,-0.12763,-0.48152,0.03660,,,,,,,,,,,,,,,,,,,,,,,,,,0,0,0,0,0
1.6586,1783972881.6281,1,1,2.0000,-0.0000,1.42244,-0.00161,-2.63104,1.06190,1.57080,0.11675,-0.12763,-0.48153,0.03659,,,,,,,,,,,,,,,,,,,,,,,,,,0,0,0,0,0
1.6589,1783972881.6283,1,1,2.0000,-0.0000,1.42244,-0.00161,-2.63104,1.06190,1.57080,0.11675,-0.12763,-0.48153,0.03659,,,,,,,,,,,,,,,,,,,,,,,,,,0,0,0,0,0
1.6882,1783972881.6577,1,1,2.0000,-0.0000,1.42244,-0.00165,-2.63103,1.06195,1.57080,0.11675,-0.12763,-0.48154,0.03659,,,,,,,,,,,,,,,,,,,,,,,,,,0,0,0,0,0
1.6885,1783972881.6579,1,1,2.0000,-0.0000,1.42244,-0.00165,-2.63103,1.06195,1.57080,0.11675,-0.12763,-0.48154,0.03659,,,,,,,,,,,,,,,,,,,,,,,,,,0,0,0,0,0
1.6978,1783972881.6673,1,1,2.0000,-0.0000,1.42244,-0.00165,-2.63103,1.06195,1.57080,0.11675,-0.12763,-0.48154,0.03659,,,,,,,,,,,,,,,,,,,,,,,,,,0,0,0,0,0
1.7080,1783972881.6774,1,1,2.0000,-0.0000,1.42244,-0.00165,-2.63103,1.06195,1.57080,0.11675,-0.12763,-0.48154,0.03659,,,,,,,,,,,,,,,,,,,,,,,,,,0,0,0,0,0
1.8080,1783972881.7775,1,1,2.0000,-0.0000,1.42244,-0.00165,-2.63103,1.06195,1.57080,0.11675,-0.12763,-0.48154,0.03659,,,,,,,,,,,,,,,,,,,,,,,,,,0,0,0,0,0
1.8083,1783972881.7777,1,1,2.0000,-0.0000,1.42244,-0.00165,-2.63103,1.06195,1.57080,0.11675,-0.12763,-0.48154,0.03659,,,,,,,,,,,,,,,,,,,,,,,,,,0,0,0,0,0
1.8086,1783972881.7781,1,1,2.0000,-0.0000,1.42244,-0.00165,-2.63103,1.06195,1.57080,0.11675,-0.12763,-0.48154,0.03659,,,,,,,,,,,,,,,,,,,,,,,,,,0,0,0,0,0
1.8090,1783972881.7784,1,1,2.0000,-0.0000,1.42244,-0.00165,-2.63103,1.06195,1.57080,0.11675,-0.12763,-0.48154,0.03659,,,,,,,,,,,,,,,,,,,,,,,,,,0,0,0,0,0
1.8092,1783972881.7787,1,1,2.0000,-0.0000,1.42244,-0.00165,-2.63103,1.06195,1.57080,0.11675,-0.12763,-0.48154,0.03659,,,,,,,,,,,,,,,,,,,,,,,,,,0,0,0,0,0
1.8156,1783972881.7851,1,1,2.0000,-0.0000,1.42244,-0.00165,-2.63103,1.06195,1.57080,0.11675,-0.12763,-0.48154,0.03659,,,,,,,,,,,,,,,,,,,,,,,,,,0,0,0,0,0
1.8164,1783972881.7858,1,1,2.0000,-0.0000,1.42244,-0.00165,-2.63103,1.06195,1.57080,0.11675,-0.12763,-0.48154,0.03659,,,,,,,,,,,,,,,,,,,,,,,,,,0,0,0,0,0
1.8167,1783972881.7862,1,1,2.0000,-0.0000,1.42244,-0.00165,-2.63103,1.06195,1.57080,0.11675,-0.12763,-0.48154,0.03659,,,,,,,,,,,,,,,,,,,,,,,,,,0,0,0,0,0
1.8385,1783972881.8080,1,1,2.0000,-0.0000,1.42244,-0.00165,-2.63103,1.06195,1.57080,0.11675,-0.12763,-0.48154,0.03659,,,,,,,,,,,,,,,,,,,,,,,,,,0,0,0,0,0
1.8388,1783972881.8083,1,1,2.0000,-0.0000,1.42244,-0.00165,-2.63103,1.06195,1.57080,0.11675,-0.12763,-0.48154,0.03659,,,,,,,,,,,,,,,,,,,,,,,,,,0,0,0,0,0
1.8546,1783972881.8241,1,1,2.0000,-0.0000,1.42244,-0.00165,-2.63103,1.06195,1.57080,0.11675,-0.12763,-0.48154,0.03659,,,,,,,,,,,,,,,,,,,,,,,,,,0,0,0,0,0
1.8883,1783972881.8578,1,1,2.0000,-0.0000,1.42243,-0.00168,-2.63108,1.06200,1.57080,0.11675,-0.12763,-0.48152,0.03657,,,,,,,,,,,,,,,,,,,,,,,,,,0,0,0,0,0
1.8886,1783972881.8581,1,1,2.0000,-0.0000,1.42243,-0.00168,-2.63108,1.06200,1.57080,0.11675,-0.12763,-0.48152,0.03657,,,,,,,,,,,,,,,,,,,,,,,,,,0,0,0,0,0
1.8889,1783972881.8584,1,1,2.0000,-0.0000,1.42243,-0.00168,-2.63108,1.06200,1.57080,0.11675,-0.12763,-0.48152,0.03657,,,,,,,,,,,,,,,,,,,,,,,,,,0,0,0,0,0
1.8942,1783972881.8637,1,1,2.0000,-0.0000,1.42243,-0.00169,-2.63109,1.06201,1.57080,0.11675,-0.12763,-0.48151,0.03656,,,,,,,,,,,,,,,,,,,,,,,,,,0,0,0,0,0
1.8945,1783972881.8640,1,1,2.0000,-0.0000,1.42243,-0.00169,-2.63109,1.06201,1.57080,0.11675,-0.12763,-0.48151,0.03656,,,,,,,,,,,,,,,,,,,,,,,,,,0,0,0,0,0
1.9280,1783972881.8974,1,1,2.0000,-0.0000,1.42243,-0.00183,-2.63118,1.06218,1.57080,0.11675,-0.12764,-0.48146,0.03648,,,,,,,,,,,,,,,,,,,,,,,,,,0,0,0,0,0
1.9282,1783972881.8977,1,1,2.0000,-0.0000,1.42243,-0.00183,-2.63118,1.06218,1.57080,0.11675,-0.12764,-0.48146,0.03648,,,,,,,,,,,,,,,,,,,,,,,,,,0,0,0,0,0
1.9452,1783972881.9147,1,1,2.0000,-0.0000,1.42243,-0.00187,-2.63119,1.06222,1.57080,0.11675,-0.12764,-0.48146,0.03646,,,,,,,,,,,,,,,,,,,,,,,,,,0,0,0,0,0
1.9484,1783972881.9179,1,1,2.0000,-0.0000,1.42243,-0.00190,-2.63120,1.06226,1.57080,0.11675,-0.12764,-0.48146,0.03645,,,,,,,,,,,,,,,,,,,,,,,,,,0,0,0,0,0
1.9752,1783972881.9447,1,1,2.0000,-0.0000,1.42243,-0.00203,-2.63124,1.06242,1.57080,0.11675,-0.12764,-0.48146,0.03641,,,,,,,,,,,,,,,,,,,,,,,,,,0,0,0,0,0
1.9759,1783972881.9454,1,1,2.0000,-0.0000,1.42243,-0.00206,-2.63124,1.06245,1.57080,0.11675,-0.12764,-0.48146,0.03640,,,,,,,,,,,,,,,,,,,,,,,,,,0,0,0,0,0
1.9795,1783972881.9490,1,1,2.0000,-0.0000,1.42243,-0.00206,-2.63124,1.06245,1.57080,0.11675,-0.12764,-0.48146,0.03640,,,,,,,,,,,,,,,,,,,,,,,,,,0,0,0,0,0
1.9801,1783972881.9495,1,1,2.0000,-0.0000,1.42243,-0.00209,-2.63125,1.06249,1.57080,0.11675,-0.12764,-0.48146,0.03639,,,,,,,,,,,,,,,,,,,,,,,,,,0,0,0,0,0
1.9880,1783972881.9575,1,1,2.0000,-0.0000,1.42243,-0.00214,-2.63126,1.06254,1.57080,0.11675,-0.12764,-0.48146,0.03637,,,,,,,,,,,,,,,,,,,,,,,,,,0,0,0,0,0
1.9977,1783972881.9671,1,1,2.0000,-0.0000,1.42243,-0.00216,-2.63126,1.06258,1.57080,0.11675,-0.12764,-0.48146,0.03636,,,,,,,,,,,,,,,,,,,,,,,,,,0,0,0,0,0
2.0051,1783972881.9746,1,1,2.0000,-0.0000,1.42243,-0.00223,-2.63127,1.06266,1.57080,0.11675,-0.12764,-0.48146,0.03634,,,,,,,,,,,,,,,,,,,,,,,,,,0,0,0,0,0
2.0150,1783972881.9844,1,1,2.0000,-0.0000,1.42243,-0.00233,-2.63129,1.06277,1.57080,0.11675,-0.12764,-0.48146,0.03631,,,,,,,,,,,,,,,,,,,,,,,,,,0,0,0,0,0
2.0269,1783972881.9964,1,1,2.0000,-0.0000,1.42243,-0.00244,-2.63131,1.06291,1.57080,0.11675,-0.12764,-0.48147,0.03628,,,,,,,,,,,,,,,,,,,,,,,,,,0,0,0,0,0
2.0355,1783972882.0050,1,1,2.0000,-0.0000,1.42243,-0.00245,-2.63131,1.06293,1.57080,0.11675,-0.12764,-0.48147,0.03627,,,,,,,,,,,,,,,,,,,,,,,,,,0,0,0,0,0
2.0493,1783972882.0188,1,1,2.0000,-0.0000,1.42243,-0.00256,-2.63131,1.06306,1.57080,0.11675,-0.12764,-0.48149,0.03625,,,,,,,,,,,,,,,,,,,,,,,,,,0,0,0,0,0
2.0497,1783972882.0192,1,1,2.0000,-0.0000,1.42243,-0.00256,-2.63131,1.06306,1.57080,0.11675,-0.12764,-0.48149,0.03625,,,,,,,,,,,,,,,,,,,,,,,,,,0,0,0,0,0
2.0591,1783972882.0286,1,1,2.0000,-0.0000,1.42243,-0.00263,-2.63131,1.06315,1.57080,0.11675,-0.12763,-0.48150,0.03623,,,,,,,,,,,,,,,,,,,,,,,,,,0,0,0,0,0
2.0723,1783972882.0417,1,1,2.0000,-0.0000,1.42243,-0.00276,-2.63131,1.06332,1.57080,0.11675,-0.12763,-0.48153,0.03620,,,,,,,,,,,,,,,,,,,,,,,,,,0,0,0,0,0
2.0757,1783972882.0452,1,1,2.0000,-0.0000,1.42243,-0.00276,-2.63131,1.06332,1.57080,0.11675,-0.12763,-0.48153,0.03620,,,,,,,,,,,,,,,,,,,,,,,,,,0,0,0,0,0
2.0842,1783972882.0536,1,1,2.0000,-0.0000,1.42243,-0.00282,-2.63129,1.06340,1.57080,0.11675,-0.12763,-0.48155,0.03620,,,,,,,,,,,,,,,,,,,,,,,,,,0,0,0,0,0
2.0963,1783972882.0658,1,1,2.0000,-0.0000,1.42243,-0.00282,-2.63129,1.06340,1.57080,0.11675,-0.12763,-0.48155,0.03620,,,,,,,,,,,,,,,,,,,,,,,,,,0,0,0,0,0
2.1069,1783972882.0764,1,1,2.0000,-0.0000,1.42243,-0.00282,-2.63129,1.06340,1.57080,0.11675,-0.12763,-0.48155,0.03620,,,,,,,,,,,,,,,,,,,,,,,,,,0,0,0,0,0
2.1315,1783972882.1010,1,1,2.0000,-0.0000,1.42243,-0.00282,-2.63129,1.06340,1.57080,0.11675,-0.12763,-0.48155,0.03620,,,,,,,,,,,,,,,,,,,,,,,,,,0,0,0,0,0
2.1321,1783972882.1015,1,1,2.0000,-0.0000,1.42243,-0.00282,-2.63129,1.06340,1.57080,0.11675,-0.12763,-0.48155,0.03620,,,,,,,,,,,,,,,,,,,,,,,,,,0,0,0,0,0
2.1502,1783972882.1197,1,1,2.0000,-0.0000,1.42243,-0.00282,-2.63129,1.06340,1.57080,0.11675,-0.12763,-0.48155,0.03620,,,,,,,,,,,,,,,,,,,,,,,,,,0,0,0,0,0
2.1506,1783972882.1200,1,1,2.0000,-0.0000,1.42243,-0.00282,-2.63129,1.06340,1.57080,0.11675,-0.12763,-0.48155,0.03620,,,,,,,,,,,,,,,,,,,,,,,,,,0,0,0,0,0
2.1606,1783972882.1301,1,1,2.0000,-0.0000,1.42243,-0.00282,-2.63129,1.06340,1.57080,0.11675,-0.12763,-0.48155,0.03620,,,,,,,,,,,,,,,,,,,,,,,,,,0,0,0,0,0
2.1750,1783972882.1444,1,1,2.0000,-0.0000,1.42243,-0.00282,-2.63129,1.06340,1.57080,0.11675,-0.12763,-0.48155,0.03620,,,,,,,,,,,,,,,,,,,,,,,,,,0,0,0,0,0
2.1765,1783972882.1460,1,1,2.0000,-0.0000,1.42243,-0.00282,-2.63129,1.06340,1.57080,0.11675,-0.12763,-0.48155,0.03620,,,,,,,,,,,,,,,,,,,,,,,,,,0,0,0,0,0
2.1768,1783972882.1463,1,1,2.0000,-0.0000,1.42243,-0.00282,-2.63129,1.06340,1.57080,0.11675,-0.12763,-0.48155,0.03620,,,,,,,,,,,,,,,,,,,,,,,,,,0,0,0,0,0
2.1900,1783972882.1595,1,1,2.0000,-0.0000,1.42243,-0.00282,-2.63129,1.06340,1.57080,0.11675,-0.12763,-0.48155,0.03620,,,,,,,,,,,,,,,,,,,,,,,,,,0,0,0,0,0
2.2063,1783972882.1758,1,1,2.0000,-0.0000,1.42243,-0.00282,-2.63129,1.06340,1.57080,0.11675,-0.12763,-0.48155,0.03620,,,,,,,,,,,,,,,,,,,,,,,,,,0,0,0,0,0
2.2096,1783972882.1791,1,1,2.0000,-0.0000,1.42243,-0.00282,-2.63129,1.06340,1.57080,0.11675,-0.12763,-0.48155,0.03620,,,,,,,,,,,,,,,,,,,,,,,,,,0,0,0,0,0
2.2187,1783972882.1882,1,1,2.0000,-0.0000,1.42243,-0.00282,-2.63129,1.06340,1.57080,0.11675,-0.12763,-0.48155,0.03620,,,,,,,,,,,,,,,,,,,,,,,,,,0,0,0,0,0
2.2264,1783972882.1958,1,1,2.0000,-0.0000,1.42243,-0.00282,-2.63129,1.06340,1.57080,0.11675,-0.12763,-0.48155,0.03620,,,,,,,,,,,,,,,,,,,,,,,,,,0,0,0,0,0
2.2356,1783972882.2051,1,1,2.0000,-0.0000,1.42243,-0.00282,-2.63129,1.06340,1.57080,0.11675,-0.12763,-0.48155,0.03620,,,,,,,,,,,,,,,,,,,,,,,,,,0,0,0,0,0
2.2615,1783972882.2310,1,1,2.0000,-0.0000,1.42243,-0.00282,-2.63129,1.06340,1.57080,0.11675,-0.12763,-0.48155,0.03620,,,,,,,,,,,,,,,,,,,,,,,,,,0,0,0,0,0
2.2618,1783972882.2313,1,1,2.0000,-0.0000,1.42243,-0.00282,-2.63129,1.06340,1.57080,0.11675,-0.12763,-0.48155,0.03620,,,,,,,,,,,,,,,,,,,,,,,,,,0,0,0,0,0
2.2695,1783972882.2390,1,1,2.0000,-0.0000,1.42243,-0.00283,-2.63129,1.06340,1.57080,0.11675,-0.12763,-0.48155,0.03620,,,,,,,,,,,,,,,,,,,,,,,,,,0,0,0,0,0
2.2749,1783972882.2444,1,1,2.0000,-0.0000,1.42243,-0.00283,-2.63129,1.06341,1.57080,0.11675,-0.12763,-0.48155,0.03619,,,,,,,,,,,,,,,,,,,,,,,,,,0,0,0,0,0
2.2753,1783972882.2448,1,1,2.0000,-0.0000,1.42243,-0.00283,-2.63129,1.06341,1.57080,0.11675,-0.12763,-0.48155,0.03619,,,,,,,,,,,,,,,,,,,,,,,,,,0,0,0,0,0
2.2853,1783972882.2548,1,1,2.0000,-0.0000,1.42243,-0.00283,-2.63130,1.06342,1.57080,0.11675,-0.12763,-0.48154,0.03619,,,,,,,,,,,,,,,,,,,,,,,,,,0,0,0,0,0
2.2959,1783972882.2654,1,1,2.0000,-0.0000,1.42243,-0.00283,-2.63131,1.06342,1.57080,0.11675,-0.12763,-0.48154,0.03619,,,,,,,,,,,,,,,,,,,,,,,,,,0,0,0,0,0
2.2963,1783972882.2658,1,1,2.0000,-0.0000,1.42243,-0.00283,-2.63131,1.06342,1.57080,0.11675,-0.12763,-0.48154,0.03619,,,,,,,,,,,,,,,,,,,,,,,,,,0,0,0,0,0
2.3092,1783972882.2787,1,1,2.0000,-0.0000,1.42243,-0.00286,-2.63133,1.06345,1.57080,0.11675,-0.12763,-0.48153,0.03617,,,,,,,,,,,,,,,,,,,,,,,,,,0,0,0,0,0
2.4084,1783972882.3778,1,1,2.0000,-0.0000,1.42243,-0.00336,-2.63153,1.06404,1.57080,0.11675,-0.12764,-0.48146,0.03596,,,,,,,,,,,,,,,,,,,,,,,,,,0,0,0,0,0
2.4090,1783972882.3785,1,1,2.0000,-0.0000,1.42243,-0.00336,-2.63153,1.06404,1.57080,0.11675,-0.12764,-0.48146,0.03596,,,,,,,,,,,,,,,,,,,,,,,,,,0,0,0,0,0
2.4094,1783972882.3789,1,1,2.0000,-0.0000,1.42243,-0.00336,-2.63153,1.06404,1.57080,0.11675,-0.12764,-0.48146,0.03596,,,,,,,,,,,,,,,,,,,,,,,,,,0,0,0,0,0
2.4764,1783972882.4458,1,1,2.0000,-0.0000,1.42243,-0.00381,-2.63158,1.06458,1.57080,0.11675,-0.12763,-0.48149,0.03583,,,,,,,,,,,,,,,,,,,,,,,,,,0,0,0,0,0
2.4766,1783972882.4461,1,1,2.0000,-0.0000,1.42243,-0.00381,-2.63158,1.06458,1.57080,0.11675,-0.12763,-0.48149,0.03583,,,,,,,,,,,,,,,,,,,,,,,,,,0,0,0,0,0
2.4770,1783972882.4464,1,1,2.0000,-0.0000,1.42243,-0.00381,-2.63158,1.06458,1.57080,0.11675,-0.12763,-0.48149,0.03583,,,,,,,,,,,,,,,,,,,,,,,,,,0,0,0,0,0
2.4771,1783972882.4466,1,1,2.0000,-0.0000,1.42243,-0.00381,-2.63158,1.06458,1.57080,0.11675,-0.12763,-0.48149,0.03583,,,,,,,,,,,,,,,,,,,,,,,,,,0,0,0,0,0
2.4775,1783972882.4470,1,1,2.0000,-0.0000,1.42243,-0.00381,-2.63158,1.06458,1.57080,0.11675,-0.12763,-0.48149,0.03583,,,,,,,,,,,,,,,,,,,,,,,,,,0,0,0,0,0
2.4811,1783972882.4506,1,1,2.0000,-0.0000,1.42243,-0.00385,-2.63159,1.06464,1.57080,0.11675,-0.12763,-0.48150,0.03581,,,,,,,,,,,,,,,,,,,,,,,,,,0,0,0,0,0
2.4895,1783972882.4590,1,1,2.0000,-0.0000,1.42243,-0.00393,-2.63159,1.06473,1.57080,0.11675,-0.12763,-0.48151,0.03579,,,,,,,,,,,,,,,,,,,,,,,,,,0,0,0,0,0
2.5003,1783972882.4698,1,1,2.0000,-0.0000,1.42243,-0.00400,-2.63159,1.06482,1.57080,0.11675,-0.12763,-0.48152,0.03578,,,,,,,,,,,,,,,,,,,,,,,,,,0,0,0,0,0
2.5008,1783972882.4703,1,1,2.0000,-0.0000,1.42243,-0.00400,-2.63159,1.06482,1.57080,0.11675,-0.12763,-0.48152,0.03578,,,,,,,,,,,,,,,,,,,,,,,,,,0,0,0,0,0
2.5139,1783972882.4834,1,1,2.0000,-0.0000,1.42243,-0.00400,-2.63159,1.06482,1.57080,0.11675,-0.12763,-0.48152,0.03578,,,,,,,,,,,,,,,,,,,,,,,,,,0,0,0,0,0
2.5181,1783972882.4876,1,1,2.0000,-0.0000,1.42243,-0.00400,-2.63159,1.06482,1.57080,0.11675,-0.12763,-0.48152,0.03578,,,,,,,,,,,,,,,,,,,,,,,,,,0,0,0,0,0
2.5186,1783972882.4881,1,1,2.0000,-0.0000,1.42243,-0.00400,-2.63159,1.06482,1.57080,0.11675,-0.12763,-0.48152,0.03578,,,,,,,,,,,,,,,,,,,,,,,,,,0,0,0,0,0
2.5322,1783972882.5017,1,1,2.0000,-0.0000,1.42243,-0.00400,-2.63159,1.06482,1.57080,0.11675,-0.12763,-0.48152,0.03578,,,,,,,,,,,,,,,,,,,,,,,,,,0,0,0,0,0
2.5326,1783972882.5021,1,1,2.0000,-0.0000,1.42243,-0.00400,-2.63159,1.06482,1.57080,0.11675,-0.12763,-0.48152,0.03578,,,,,,,,,,,,,,,,,,,,,,,,,,0,0,0,0,0
2.5404,1783972882.5098,1,1,2.0000,-0.0000,1.42243,-0.00400,-2.63159,1.06482,1.57080,0.11675,-0.12763,-0.48152,0.03578,,,,,,,,,,,,,,,,,,,,,,,,,,0,0,0,0,0
2.5408,1783972882.5102,1,1,2.0000,-0.0000,1.42243,-0.00400,-2.63159,1.06482,1.57080,0.11675,-0.12763,-0.48152,0.03578,,,,,,,,,,,,,,,,,,,,,,,,,,0,0,0,0,0
2.5500,1783972882.5195,1,1,2.0000,-0.0000,1.42243,-0.00400,-2.63159,1.06482,1.57080,0.11675,-0.12763,-0.48152,0.03578,,,,,,,,,,,,,,,,,,,,,,,,,,0,0,0,0,0
2.5647,1783972882.5342,1,1,2.0000,-0.0000,1.42243,-0.00400,-2.63159,1.06482,1.57080,0.11675,-0.12763,-0.48152,0.03578,,,,,,,,,,,,,,,,,,,,,,,,,,0,0,0,0,0
2.5724,1783972882.5419,1,1,2.0000,-0.0000,1.42243,-0.00400,-2.63159,1.06482,1.57080,0.11675,-0.12763,-0.48152,0.03578,,,,,,,,,,,,,,,,,,,,,,,,,,0,0,0,0,0
2.5842,1783972882.5536,1,1,2.0000,-0.0000,1.42243,-0.00400,-2.63159,1.06482,1.57080,0.11675,-0.12763,-0.48152,0.03578,,,,,,,,,,,,,,,,,,,,,,,,,,0,0,0,0,0
2.6151,1783972882.5846,1,1,2.0000,-0.0000,1.42243,-0.00400,-2.63159,1.06482,1.57080,0.11675,-0.12763,-0.48152,0.03578,,,,,,,,,,,,,,,,,,,,,,,,,,0,0,0,0,0
2.6154,1783972882.5849,1,1,2.0000,-0.0000,1.42243,-0.00400,-2.63159,1.06482,1.57080,0.11675,-0.12763,-0.48152,0.03578,,,,,,,,,,,,,,,,,,,,,,,,,,0,0,0,0,0
2.6171,1783972882.5866,1,1,2.0000,-0.0000,1.42243,-0.00400,-2.63159,1.06482,1.57080,0.11675,-0.12763,-0.48152,0.03578,,,,,,,,,,,,,,,,,,,,,,,,,,0,0,0,0,0
2.6175,1783972882.5870,1,1,2.0000,-0.0000,1.42243,-0.00400,-2.63159,1.06482,1.57080,0.11675,-0.12763,-0.48152,0.03578,,,,,,,,,,,,,,,,,,,,,,,,,,0,0,0,0,0
2.6255,1783972882.5950,1,1,2.0000,-0.0000,1.42243,-0.00400,-2.63159,1.06482,1.57080,0.11675,-0.12763,-0.48152,0.03578,,,,,,,,,,,,,,,,,,,,,,,,,,0,0,0,0,0
2.6481,1783972882.6175,1,1,2.0000,-0.0000,1.42243,-0.00400,-2.63159,1.06482,1.57080,0.11675,-0.12763,-0.48152,0.03578,,,,,,,,,,,,,,,,,,,,,,,,,,0,0,0,0,0
2.6491,1783972882.6186,1,1,2.0000,-0.0000,1.42243,-0.00400,-2.63159,1.06482,1.57080,0.11675,-0.12763,-0.48152,0.03578,,,,,,,,,,,,,,,,,,,,,,,,,,0,0,0,0,0
2.6493,1783972882.6188,1,1,2.0000,-0.0000,1.42243,-0.00400,-2.63159,1.06482,1.57080,0.11675,-0.12763,-0.48152,0.03578,,,,,,,,,,,,,,,,,,,,,,,,,,0,0,0,0,0
2.6627,1783972882.6321,1,1,2.0000,-0.0000,1.42243,-0.00400,-2.63159,1.06482,1.57080,0.11675,-0.12763,-0.48152,0.03578,,,,,,,,,,,,,,,,,,,,,,,,,,0,0,0,0,0
2.6721,1783972882.6416,1,1,2.0000,-0.0000,1.42243,-0.00400,-2.63159,1.06482,1.57080,0.11675,-0.12763,-0.48152,0.03578,,,,,,,,,,,,,,,,,,,,,,,,,,0,0,0,0,0
2.6761,1783972882.6456,1,1,2.0000,-0.0000,1.42243,-0.00400,-2.63159,1.06482,1.57080,0.11675,-0.12763,-0.48152,0.03578,,,,,,,,,,,,,,,,,,,,,,,,,,0,0,0,0,0
2.6764,1783972882.6459,1,1,2.0000,-0.0000,1.42243,-0.00400,-2.63159,1.06482,1.57080,0.11675,-0.12763,-0.48152,0.03578,,,,,,,,,,,,,,,,,,,,,,,,,,0,0,0,0,0
2.6929,1783972882.6624,1,1,2.0000,-0.0000,1.42243,-0.00400,-2.63159,1.06482,1.57080,0.11675,-0.12763,-0.48152,0.03578,,,,,,,,,,,,,,,,,,,,,,,,,,0,0,0,0,0
2.7325,1783972882.7020,1,1,2.0000,-0.0000,1.42243,-0.00403,-2.63162,1.06486,1.57080,0.11675,-0.12763,-0.48151,0.03576,,,,,,,,,,,,,,,,,,,,,,,,,,0,0,0,0,0
2.7330,1783972882.7024,1,1,2.0000,-0.0000,1.42243,-0.00403,-2.63162,1.06486,1.57080,0.11675,-0.12763,-0.48151,0.03576,,,,,,,,,,,,,,,,,,,,,,,,,,0,0,0,0,0
2.7332,1783972882.7027,1,1,2.0000,-0.0000,1.42243,-0.00403,-2.63162,1.06486,1.57080,0.11675,-0.12763,-0.48151,0.03576,,,,,,,,,,,,,,,,,,,,,,,,,,0,0,0,0,0
2.7522,1783972882.7217,1,1,2.0000,-0.0000,1.42243,-0.00407,-2.63165,1.06491,1.57080,0.11675,-0.12763,-0.48149,0.03573,,,,,,,,,,,,,,,,,,,,,,,,,,0,0,0,0,0
2.7527,1783972882.7222,1,1,2.0000,-0.0000,1.42243,-0.00407,-2.63165,1.06491,1.57080,0.11675,-0.12763,-0.48149,0.03573,,,,,,,,,,,,,,,,,,,,,,,,,,0,0,0,0,0
2.7571,1783972882.7266,1,1,2.0000,-0.0000,1.42243,-0.00408,-2.63166,1.06493,1.57080,0.11675,-0.12763,-0.48148,0.03573,,,,,,,,,,,,,,,,,,,,,,,,,,0,0,0,0,0
2.7694,1783972882.7389,1,1,2.0000,-0.0000,1.42243,-0.00412,-2.63168,1.06497,1.57080,0.11675,-0.12763,-0.48147,0.03571,,,,,,,,,,,,,,,,,,,,,,,,,,0,0,0,0,0
2.7697,1783972882.7392,1,1,2.0000,-0.0000,1.42243,-0.00412,-2.63168,1.06497,1.57080,0.11675,-0.12763,-0.48147,0.03571,,,,,,,,,,,,,,,,,,,,,,,,,,0,0,0,0,0
2.7779,1783972882.7473,1,1,2.0000,-0.0000,1.42243,-0.00414,-2.63169,1.06499,1.57080,0.11675,-0.12763,-0.48147,0.03570,,,,,,,,,,,,,,,,,,,,,,,,,,0,0,0,0,0
2.7915,1783972882.7610,1,1,2.0000,-0.0000,1.42243,-0.00421,-2.63171,1.06508,1.57080,0.11675,-0.12764,-0.48146,0.03567,,,,,,,,,,,,,,,,,,,,,,,,,,0,0,0,0,0
2.7923,1783972882.7618,1,1,2.0000,-0.0000,1.42243,-0.00425,-2.63172,1.06512,1.57080,0.11675,-0.12764,-0.48146,0.03566,,,,,,,,,,,,,,,,,,,,,,,,,,0,0,0,0,0
2.7957,1783972882.7651,1,1,2.0000,-0.0000,1.42243,-0.00425,-2.63172,1.06512,1.57080,0.11675,-0.12764,-0.48146,0.03566,,,,,,,,,,,,,,,,,,,,,,,,,,0,0,0,0,0
2.8053,1783972882.7747,1,1,2.0000,-0.0000,1.42243,-0.00429,-2.63174,1.06518,1.57080,0.11675,-0.12764,-0.48146,0.03564,,,,,,,,,,,,,,,,,,,,,,,,,,0,0,0,0,0
2.8215,1783972882.7910,1,1,2.0000,-0.0000,1.42243,-0.00441,-2.63176,1.06532,1.57080,0.11675,-0.12764,-0.48146,0.03560,,,,,,,,,,,,,,,,,,,,,,,,,,0,0,0,0,0
2.8286,1783972882.7980,1,1,2.0000,-0.0000,1.42243,-0.00450,-2.63179,1.06543,1.57080,0.11675,-0.12764,-0.48146,0.03557,,,,,,,,,,,,,,,,,,,,,,,,,,0,0,0,0,0
2.8420,1783972882.8115,1,1,2.0000,-0.0000,1.42242,-0.00456,-2.63180,1.06551,1.57080,0.11675,-0.12764,-0.48146,0.03555,,,,,,,,,,,,,,,,,,,,,,,,,,0,0,0,0,0
2.8462,1783972882.8157,1,1,2.0000,-0.0000,1.42242,-0.00458,-2.63180,1.06552,1.57080,0.11675,-0.12764,-0.48146,0.03554,,,,,,,,,,,,,,,,,,,,,,,,,,0,0,0,0,0
2.8602,1783972882.8297,1,1,2.0000,-0.0000,1.42242,-0.00467,-2.63182,1.06563,1.57080,0.11675,-0.12764,-0.48146,0.03551,,,,,,,,,,,,,,,,,,,,,,,,,,0,0,0,0,0
2.8693,1783972882.8388,1,1,2.0000,-0.0000,1.42242,-0.00469,-2.63182,1.06566,1.57080,0.11675,-0.12764,-0.48146,0.03551,,,,,,,,,,,,,,,,,,,,,,,,,,0,0,0,0,0
2.8697,1783972882.8392,1,1,2.0000,-0.0000,1.42242,-0.00469,-2.63182,1.06566,1.57080,0.11675,-0.12764,-0.48146,0.03551,,,,,,,,,,,,,,,,,,,,,,,,,,0,0,0,0,0
2.8819,1783972882.8514,1,1,2.0000,-0.0000,1.42242,-0.00479,-2.63183,1.06578,1.57080,0.11675,-0.12763,-0.48147,0.03548,,,,,,,,,,,,,,,,,,,,,,,,,,0,0,0,0,0
2.8823,1783972882.8518,1,1,2.0000,-0.0000,1.42242,-0.00479,-2.63183,1.06578,1.57080,0.11675,-0.12763,-0.48147,0.03548,,,,,,,,,,,,,,,,,,,,,,,,,,0,0,0,0,0
2.8928,1783972882.8623,1,1,2.0000,-0.0000,1.42242,-0.00488,-2.63184,1.06589,1.57080,0.11675,-0.12763,-0.48147,0.03545,,,,,,,,,,,,,,,,,,,,,,,,,,0,0,0,0,0
2.8931,1783972882.8626,1,1,2.0000,-0.0000,1.42242,-0.00488,-2.63184,1.06589,1.57080,0.11675,-0.12763,-0.48147,0.03545,,,,,,,,,,,,,,,,,,,,,,,,,,0,0,0,0,0
2.9026,1783972882.8720,1,1,2.0000,-0.0000,1.42242,-0.00489,-2.63184,1.06590,1.57080,0.11675,-0.12763,-0.48148,0.03545,,,,,,,,,,,,,,,,,,,,,,,,,,0,0,0,0,0
2.9029,1783972882.8724,1,1,2.0000,-0.0000,1.42242,-0.00489,-2.63184,1.06590,1.57080,0.11675,-0.12763,-0.48148,0.03545,,,,,,,,,,,,,,,,,,,,,,,,,,0,0,0,0,0
2.9288,1783972882.8982,1,1,2.0000,-0.0000,1.42242,-0.00508,-2.63182,1.06614,1.57080,0.11675,-0.12763,-0.48152,0.03541,,,,,,,,,,,,,,,,,,,,,,,,,,0,0,0,0,0
2.9311,1783972882.9006,1,1,2.0000,-0.0000,1.42242,-0.00508,-2.63182,1.06614,1.57080,0.11675,-0.12763,-0.48152,0.03541,,,,,,,,,,,,,,,,,,,,,,,,,,0,0,0,0,0
2.9486,1783972882.9181,1,1,2.0000,-0.0000,1.42242,-0.00519,-2.63178,1.06628,1.57080,0.11675,-0.12762,-0.48157,0.03541,,,,,,,,,,,,,,,,,,,,,,,,,,0,0,0,0,0
2.9499,1783972882.9194,1,1,2.0000,-0.0000,1.42242,-0.00519,-2.63178,1.06628,1.57080,0.11675,-0.12762,-0.48157,0.03541,,,,,,,,,,,,,,,,,,,,,,,,,,0,0,0,0,0
2.9645,1783972882.9340,1,1,2.0000,-0.0000,1.42242,-0.00519,-2.63177,1.06628,1.57080,0.11675,-0.12762,-0.48158,0.03541,,,,,,,,,,,,,,,,,,,,,,,,,,0,0,0,0,0
2.9648,1783972882.9343,1,1,2.0000,-0.0000,1.42242,-0.00519,-2.63177,1.06628,1.57080,0.11675,-0.12762,-0.48158,0.03541,,,,,,,,,,,,,,,,,,,,,,,,,,0,0,0,0,0
2.9937,1783972882.9632,1,1,2.0000,-0.0000,1.42242,-0.00519,-2.63177,1.06628,1.57080,0.11675,-0.12762,-0.48158,0.03541,,,,,,,,,,,,,,,,,,,,,,,,,,0,0,0,0,0
2.9940,1783972882.9635,1,1,2.0000,-0.0000,1.42242,-0.00519,-2.63177,1.06628,1.57080,0.11675,-0.12762,-0.48158,0.03541,,,,,,,,,,,,,,,,,,,,,,,,,,0,0,0,0,0
2.9944,1783972882.9638,1,1,2.0000,-0.0000,1.42242,-0.00519,-2.63177,1.06628,1.57080,0.11675,-0.12762,-0.48158,0.03541,,,,,,,,,,,,,,,,,,,,,,,,,,0,0,0,0,0
3.0852,1783972883.0547,1,1,2.0000,-0.0000,1.42242,-0.00519,-2.63177,1.06628,1.57080,0.11675,-0.12762,-0.48158,0.03541,,,,,,,,,,,,,,,,,,,,,,,,,,0,0,0,0,0
3.0856,1783972883.0551,1,1,2.0000,-0.0000,1.42242,-0.00519,-2.63177,1.06628,1.57080,0.11675,-0.12762,-0.48158,0.03541,,,,,,,,,,,,,,,,,,,,,,,,,,0,0,0,0,0
3.0860,1783972883.0554,1,1,2.0000,-0.0000,1.42242,-0.00519,-2.63177,1.06628,1.57080,0.11675,-0.12762,-0.48158,0.03541,,,,,,,,,,,,,,,,,,,,,,,,,,0,0,0,0,0
3.0862,1783972883.0557,1,1,2.0000,-0.0000,1.42242,-0.00519,-2.63177,1.06628,1.57080,0.11675,-0.12762,-0.48158,0.03541,,,,,,,,,,,,,,,,,,,,,,,,,,0,0,0,0,0
3.0864,1783972883.0559,1,1,2.0000,-0.0000,1.42242,-0.00519,-2.63177,1.06628,1.57080,0.11675,-0.12762,-0.48158,0.03541,,,,,,,,,,,,,,,,,,,,,,,,,,0,0,0,0,0
3.0867,1783972883.0562,1,1,2.0000,-0.0000,1.42242,-0.00519,-2.63177,1.06628,1.57080,0.11675,-0.12762,-0.48158,0.03541,,,,,,,,,,,,,,,,,,,,,,,,,,0,0,0,0,0
3.0871,1783972883.0565,1,1,2.0000,-0.0000,1.42242,-0.00519,-2.63177,1.06628,1.57080,0.11675,-0.12762,-0.48158,0.03541,,,,,,,,,,,,,,,,,,,,,,,,,,0,0,0,0,0
3.0873,1783972883.0568,1,1,2.0000,-0.0000,1.42242,-0.00519,-2.63177,1.06628,1.57080,0.11675,-0.12762,-0.48158,0.03541,,,,,,,,,,,,,,,,,,,,,,,,,,0,0,0,0,0
3.0992,1783972883.0686,1,1,2.0000,-0.0000,1.42242,-0.00519,-2.63177,1.06628,1.57080,0.11675,-0.12762,-0.48158,0.03541,,,,,,,,,,,,,,,,,,,,,,,,,,0,0,0,0,0
3.0995,1783972883.0690,1,1,2.0000,-0.0000,1.42242,-0.00519,-2.63177,1.06628,1.57080,0.11675,-0.12762,-0.48158,0.03541,,,,,,,,,,,,,,,,,,,,,,,,,,0,0,0,0,0
3.1001,1783972883.0696,1,1,2.0000,-0.0000,1.42242,-0.00519,-2.63177,1.06628,1.57080,0.11675,-0.12762,-0.48158,0.03541,,,,,,,,,,,,,,,,,,,,,,,,,,0,0,0,0,0
3.1049,1783972883.0744,1,1,2.0000,-0.0000,1.42242,-0.00519,-2.63177,1.06628,1.57080,0.11675,-0.12762,-0.48158,0.03541,,,,,,,,,,,,,,,,,,,,,,,,,,0,0,0,0,0
3.1052,1783972883.0746,1,1,2.0000,-0.0000,1.42242,-0.00519,-2.63177,1.06628,1.57080,0.11675,-0.12762,-0.48158,0.03541,,,,,,,,,,,,,,,,,,,,,,,,,,0,0,0,0,0
3.1266,1783972883.0961,1,1,2.0000,-0.0000,1.42242,-0.00519,-2.63177,1.06628,1.57080,0.11675,-0.12762,-0.48158,0.03541,,,,,,,,,,,,,,,,,,,,,,,,,,0,0,0,0,0
3.1269,1783972883.0963,1,1,2.0000,-0.0000,1.42242,-0.00519,-2.63177,1.06628,1.57080,0.11675,-0.12762,-0.48158,0.03541,,,,,,,,,,,,,,,,,,,,,,,,,,0,0,0,0,0
3.1322,1783972883.1017,1,1,2.0000,-0.0000,1.42242,-0.00519,-2.63177,1.06628,1.57080,0.11675,-0.12762,-0.48158,0.03541,,,,,,,,,,,,,,,,,,,,,,,,,,0,0,0,0,0
3.1326,1783972883.1021,1,1,2.0000,-0.0000,1.42242,-0.00519,-2.63177,1.06628,1.57080,0.11675,-0.12762,-0.48158,0.03541,,,,,,,,,,,,,,,,,,,,,,,,,,0,0,0,0,0
3.1396,1783972883.1091,1,1,2.0000,-0.0000,1.42242,-0.00519,-2.63178,1.06629,1.57080,0.11675,-0.12762,-0.48158,0.03541,,,,,,,,,,,,,,,,,,,,,,,,,,0,0,0,0,0
3.1401,1783972883.1096,1,1,2.0000,-0.0000,1.42242,-0.00520,-2.63179,1.06629,1.57080,0.11675,-0.12762,-0.48157,0.03540,,,,,,,,,,,,,,,,,,,,,,,,,,0,0,0,0,0
3.1522,1783972883.1217,1,1,2.0000,-0.0000,1.42242,-0.00522,-2.63183,1.06633,1.57080,0.11675,-0.12762,-0.48154,0.03538,,,,,,,,,,,,,,,,,,,,,,,,,,0,0,0,0,0
3.1524,1783972883.1219,1,1,2.0000,-0.0000,1.42242,-0.00522,-2.63183,1.06633,1.57080,0.11675,-0.12762,-0.48154,0.03538,,,,,,,,,,,,,,,,,,,,,,,,,,0,0,0,0,0
3.1603,1783972883.1298,1,1,2.0000,-0.0000,1.42242,-0.00523,-2.63186,1.06634,1.57080,0.11675,-0.12762,-0.48153,0.03536,,,,,,,,,,,,,,,,,,,,,,,,,,0,0,0,0,0
3.1739,1783972883.1433,1,1,2.0000,-0.0000,1.42242,-0.00525,-2.63188,1.06637,1.57080,0.11675,-0.12763,-0.48152,0.03535,,,,,,,,,,,,,,,,,,,,,,,,,,0,0,0,0,0
3.1743,1783972883.1438,1,1,2.0000,-0.0000,1.42242,-0.00525,-2.63188,1.06637,1.57080,0.11675,-0.12763,-0.48152,0.03535,,,,,,,,,,,,,,,,,,,,,,,,,,0,0,0,0,0
3.1822,1783972883.1517,1,1,2.0000,-0.0000,1.42242,-0.00529,-2.63191,1.06640,1.57080,0.11675,-0.12763,-0.48150,0.03533,,,,,,,,,,,,,,,,,,,,,,,,,,0,0,0,0,0
3.1992,1783972883.1687,1,1,2.0000,-0.0000,1.42242,-0.00533,-2.63195,1.06646,1.57080,0.11675,-0.12763,-0.48147,0.03530,,,,,,,,,,,,,,,,,,,,,,,,,,0,0,0,0,0
3.1995,1783972883.1690,1,1,2.0000,-0.0000,1.42242,-0.00533,-2.63195,1.06646,1.57080,0.11675,-0.12763,-0.48147,0.03530,,,,,,,,,,,,,,,,,,,,,,,,,,0,0,0,0,0
3.3181,1783972883.2876,1,1,2.0000,-0.0000,1.42242,-0.00612,-2.63211,1.06742,1.57080,0.11675,-0.12763,-0.48148,0.03504,,,,,,,,,,,,,,,,,,,,,,,,,,0,0,0,0,0
3.3185,1783972883.2880,1,1,2.0000,-0.0000,1.42242,-0.00612,-2.63211,1.06742,1.57080,0.11675,-0.12763,-0.48148,0.03504,,,,,,,,,,,,,,,,,,,,,,,,,,0,0,0,0,0
3.3190,1783972883.2885,1,1,2.0000,-0.0000,1.42242,-0.00612,-2.63211,1.06742,1.57080,0.11675,-0.12763,-0.48148,0.03504,,,,,,,,,,,,,,,,,,,,,,,,,,0,0,0,0,0
3.3194,1783972883.2888,1,1,2.0000,-0.0000,1.42242,-0.00612,-2.63211,1.06742,1.57080,0.11675,-0.12763,-0.48148,0.03504,,,,,,,,,,,,,,,,,,,,,,,,,,0,0,0,0,0
3.5946,1783972883.5641,1,1,2.0000,-0.0000,1.42242,-0.00641,-2.63216,1.06778,1.57080,0.11675,-0.12763,-0.48150,0.03495,,,,,,,,,,,,,,,,,,,,,,,,,,0,0,0,0,0
3.5949,1783972883.5644,1,1,2.0000,-0.0000,1.42242,-0.00641,-2.63216,1.06778,1.57080,0.11675,-0.12763,-0.48150,0.03495,,,,,,,,,,,,,,,,,,,,,,,,,,0,0,0,0,0
3.6112,1783972883.5807,1,1,2.0000,-0.0000,1.42242,-0.00650,-2.63222,1.06789,1.57080,0.11675,-0.12763,-0.48146,0.03490,,,,,,,,,,,,,,,,,,,,,,,,,,0,0,0,0,0
3.6564,1783972883.6259,1,1,2.0000,-0.0000,1.42242,-0.00669,-2.63228,1.06811,1.57080,0.11675,-0.12763,-0.48145,0.03482,,,,,,,,,,,,,,,,,,,,,,,,,,0,0,0,0,0
3.6566,1783972883.6261,1,1,2.0000,-0.0000,1.42242,-0.00669,-2.63228,1.06811,1.57080,0.11675,-0.12763,-0.48145,0.03482,,,,,,,,,,,,,,,,,,,,,,,,,,0,0,0,0,0
3.6570,1783972883.6265,1,1,2.0000,-0.0000,1.42242,-0.00669,-2.63228,1.06811,1.57080,0.11675,-0.12763,-0.48145,0.03482,,,,,,,,,,,,,,,,,,,,,,,,,,0,0,0,0,0
3.6573,1783972883.6268,1,1,2.0000,-0.0000,1.42242,-0.00669,-2.63228,1.06811,1.57080,0.11675,-0.12763,-0.48145,0.03482,,,,,,,,,,,,,,,,,,,,,,,,,,0,0,0,0,0
3.6576,1783972883.6271,1,1,2.0000,-0.0000,1.42242,-0.00669,-2.63228,1.06811,1.57080,0.11675,-0.12763,-0.48145,0.03482,,,,,,,,,,,,,,,,,,,,,,,,,,0,0,0,0,0
3.6579,1783972883.6274,1,1,2.0000,-0.0000,1.42242,-0.00669,-2.63228,1.06811,1.57080,0.11675,-0.12763,-0.48145,0.03482,,,,,,,,,,,,,,,,,,,,,,,,,,0,0,0,0,0
3.6614,1783972883.6308,1,1,2.0000,-0.0000,1.42242,-0.00672,-2.63229,1.06815,1.57080,0.11675,-0.12763,-0.48145,0.03481,,,,,,,,,,,,,,,,,,,,,,,,,,0,0,0,0,0
3.6617,1783972883.6312,1,1,2.0000,-0.0000,1.42242,-0.00672,-2.63229,1.06815,1.57080,0.11675,-0.12763,-0.48145,0.03481,,,,,,,,,,,,,,,,,,,,,,,,,,0,0,0,0,0
3.6736,1783972883.6431,1,1,2.0000,-0.0000,1.42242,-0.00677,-2.63230,1.06820,1.57080,0.11675,-0.12763,-0.48145,0.03480,,,,,,,,,,,,,,,,,,,,,,,,,,0,0,0,0,0
3.9436,1783972883.9131,1,1,2.0000,-0.0000,1.42241,-0.00754,-2.63239,1.06917,1.57080,0.11675,-0.12762,-0.48151,0.03457,,,,,,,,,,,,,,,,,,,,,,,,,,0,0,0,0,0
3.9443,1783972883.9138,1,1,2.0000,-0.0000,1.42241,-0.00754,-2.63239,1.06917,1.57080,0.11675,-0.12762,-0.48151,0.03457,,,,,,,,,,,,,,,,,,,,,,,,,,0,0,0,0,0
3.9448,1783972883.9143,1,1,2.0000,-0.0000,1.42241,-0.00754,-2.63239,1.06917,1.57080,0.11675,-0.12762,-0.48151,0.03457,,,,,,,,,,,,,,,,,,,,,,,,,,0,0,0,0,0
3.9452,1783972883.9147,1,1,2.0000,-0.0000,1.42241,-0.00754,-2.63239,1.06917,1.57080,0.11675,-0.12762,-0.48151,0.03457,,,,,,,,,,,,,,,,,,,,,,,,,,0,0,0,0,0
3.9456,1783972883.9151,1,1,2.0000,-0.0000,1.42241,-0.00754,-2.63239,1.06917,1.57080,0.11675,-0.12762,-0.48151,0.03457,,,,,,,,,,,,,,,,,,,,,,,,,,0,0,0,0,0
3.9458,1783972883.9153,1,1,2.0000,-0.0000,1.42241,-0.00754,-2.63239,1.06917,1.57080,0.11675,-0.12762,-0.48151,0.03457,,,,,,,,,,,,,,,,,,,,,,,,,,0,0,0,0,0
3.9462,1783972883.9157,1,1,2.0000,-0.0000,1.42241,-0.00754,-2.63239,1.06917,1.57080,0.11675,-0.12762,-0.48151,0.03457,,,,,,,,,,,,,,,,,,,,,,,,,,0,0,0,0,0
3.9464,1783972883.9159,1,1,2.0000,-0.0000,1.42241,-0.00754,-2.63239,1.06917,1.57080,0.11675,-0.12762,-0.48151,0.03457,,,,,,,,,,,,,,,,,,,,,,,,,,0,0,0,0,0
3.9467,1783972883.9162,1,1,2.0000,-0.0000,1.42241,-0.00754,-2.63239,1.06917,1.57080,0.11675,-0.12762,-0.48151,0.03457,,,,,,,,,,,,,,,,,,,,,,,,,,0,0,0,0,0
3.9471,1783972883.9166,1,1,2.0000,-0.0000,1.42241,-0.00754,-2.63239,1.06917,1.57080,0.11675,-0.12762,-0.48151,0.03457,,,,,,,,,,,,,,,,,,,,,,,,,,0,0,0,0,0
3.9474,1783972883.9169,1,1,2.0000,-0.0000,1.42241,-0.00754,-2.63239,1.06917,1.57080,0.11675,-0.12762,-0.48151,0.03457,,,,,,,,,,,,,,,,,,,,,,,,,,0,0,0,0,0
3.9476,1783972883.9171,1,1,2.0000,-0.0000,1.42241,-0.00754,-2.63239,1.06917,1.57080,0.11675,-0.12762,-0.48151,0.03457,,,,,,,,,,,,,,,,,,,,,,,,,,0,0,0,0,0
3.9480,1783972883.9175,1,1,2.0000,-0.0000,1.42241,-0.00754,-2.63239,1.06917,1.57080,0.11675,-0.12762,-0.48151,0.03457,,,,,,,,,,,,,,,,,,,,,,,,,,0,0,0,0,0
3.9486,1783972883.9180,1,1,2.0000,-0.0000,1.42241,-0.00754,-2.63239,1.06917,1.57080,0.11675,-0.12762,-0.48151,0.03457,,,,,,,,,,,,,,,,,,,,,,,,,,0,0,0,0,0
4.0744,1783972884.0439,1,1,2.0000,-0.0000,1.42241,-0.00782,-2.63252,1.06949,1.57080,0.11675,-0.12763,-0.48146,0.03445,,,,,,,,,,,,,,,,,,,,,,,,,,0,0,0,0,0
4.0749,1783972884.0444,1,1,2.0000,-0.0000,1.42241,-0.00782,-2.63252,1.06949,1.57080,0.11675,-0.12763,-0.48146,0.03445,,,,,,,,,,,,,,,,,,,,,,,,,,0,0,0,0,0
4.0753,1783972884.0448,1,1,2.0000,-0.0000,1.42241,-0.00782,-2.63252,1.06949,1.57080,0.11675,-0.12763,-0.48146,0.03445,,,,,,,,,,,,,,,,,,,,,,,,,,0,0,0,0,0
4.0758,1783972884.0453,1,1,2.0000,-0.0000,1.42241,-0.00782,-2.63252,1.06949,1.57080,0.11675,-0.12763,-0.48146,0.03445,,,,,,,,,,,,,,,,,,,,,,,,,,0,0,0,0,0
4.0767,1783972884.0461,1,1,2.0000,-0.0000,1.42241,-0.00785,-2.63252,1.06953,1.57080,0.11675,-0.12763,-0.48146,0.03444,,,,,,,,,,,,,,,,,,,,,,,,,,0,0,0,0,0
4.0769,1783972884.0464,1,1,2.0000,-0.0000,1.42241,-0.00785,-2.63252,1.06953,1.57080,0.11675,-0.12763,-0.48146,0.03444,,,,,,,,,,,,,,,,,,,,,,,,,,0,0,0,0,0
4.1578,1783972884.1273,1,1,2.0000,-0.0000,1.42241,-0.00837,-2.63262,1.07015,1.57080,0.11675,-0.12763,-0.48147,0.03427,,,,,,,,,,,,,,,,,,,,,,,,,,0,0,0,0,0
4.1581,1783972884.1276,1,1,2.0000,-0.0000,1.42241,-0.00837,-2.63262,1.07015,1.57080,0.11675,-0.12763,-0.48147,0.03427,,,,,,,,,,,,,,,,,,,,,,,,,,0,0,0,0,0
4.1585,1783972884.1280,1,1,2.0000,-0.0000,1.42241,-0.00837,-2.63262,1.07015,1.57080,0.11675,-0.12763,-0.48147,0.03427,,,,,,,,,,,,,,,,,,,,,,,,,,0,0,0,0,0
4.1589,1783972884.1283,1,1,2.0000,-0.0000,1.42241,-0.00837,-2.63262,1.07015,1.57080,0.11675,-0.12763,-0.48147,0.03427,,,,,,,,,,,,,,,,,,,,,,,,,,0,0,0,0,0
4.1592,1783972884.1286,1,1,2.0000,-0.0000,1.42241,-0.00837,-2.63262,1.07015,1.57080,0.11675,-0.12763,-0.48147,0.03427,,,,,,,,,,,,,,,,,,,,,,,,,,0,0,0,0,0
4.1594,1783972884.1289,1,1,2.0000,-0.0000,1.42241,-0.00837,-2.63262,1.07015,1.57080,0.11675,-0.12763,-0.48147,0.03427,,,,,,,,,,,,,,,,,,,,,,,,,,0,0,0,0,0
4.1597,1783972884.1292,1,1,2.0000,-0.0000,1.42241,-0.00837,-2.63262,1.07015,1.57080,0.11675,-0.12763,-0.48147,0.03427,,,,,,,,,,,,,,,,,,,,,,,,,,0,0,0,0,0
4.1603,1783972884.1297,1,1,2.0000,-0.0000,1.42241,-0.00838,-2.63262,1.07017,1.57080,0.11675,-0.12763,-0.48147,0.03427,,,,,,,,,,,,,,,,,,,,,,,,,,0,0,0,0,0
4.1670,1783972884.1365,1,1,2.0000,-0.0000,1.42241,-0.00840,-2.63262,1.07020,1.57080,0.11675,-0.12763,-0.48148,0.03426,,,,,,,,,,,,,,,,,,,,,,,,,,0,0,0,0,0
4.1672,1783972884.1367,1,1,2.0000,-0.0000,1.42241,-0.00840,-2.63262,1.07020,1.57080,0.11675,-0.12763,-0.48148,0.03426,,,,,,,,,,,,,,,,,,,,,,,,,,0,0,0,0,0
4.1777,1783972884.1472,1,1,2.0000,-0.0000,1.42241,-0.00849,-2.63262,1.07031,1.57080,0.11675,-0.12762,-0.48149,0.03424,,,,,,,,,,,,,,,,,,,,,,,,,,0,0,0,0,0
4.1978,1783972884.1673,1,1,2.0000,-0.0000,1.42241,-0.00867,-2.63260,1.07053,1.57080,0.11675,-0.12762,-0.48153,0.03421,,,,,,,,,,,,,,,,,,,,,,,,,,0,0,0,0,0
4.2085,1783972884.1780,1,1,2.0000,-0.0000,1.42241,-0.00874,-2.63257,1.07061,1.57080,0.11675,-0.12761,-0.48157,0.03420,,,,,,,,,,,,,,,,,,,,,,,,,,0,0,0,0,0
4.2092,1783972884.1787,1,1,2.0000,-0.0000,1.42241,-0.00874,-2.63257,1.07061,1.57080,0.11675,-0.12761,-0.48157,0.03420,,,,,,,,,,,,,,,,,,,,,,,,,,0,0,0,0,0
4.2094,1783972884.1789,1,1,2.0000,-0.0000,1.42241,-0.00874,-2.63257,1.07061,1.57080,0.11675,-0.12761,-0.48157,0.03420,,,,,,,,,,,,,,,,,,,,,,,,,,0,0,0,0,0
4.2259,1783972884.1954,1,1,2.0000,-0.0000,1.42241,-0.00875,-2.63256,1.07062,1.57080,0.11675,-0.12761,-0.48158,0.03421,,,,,,,,,,,,,,,,,,,,,,,,,,0,0,0,0,0
4.2286,1783972884.1981,1,1,2.0000,-0.0000,1.42241,-0.00875,-2.63256,1.07062,1.57080,0.11675,-0.12761,-0.48158,0.03421,,,,,,,,,,,,,,,,,,,,,,,,,,0,0,0,0,0
4.2373,1783972884.2068,1,1,2.0000,-0.0000,1.42241,-0.00875,-2.63256,1.07062,1.57080,0.11675,-0.12761,-0.48158,0.03421,,,,,,,,,,,,,,,,,,,,,,,,,,0,0,0,0,0
4.2468,1783972884.2163,1,1,2.0000,-0.0000,1.42241,-0.00875,-2.63256,1.07062,1.57080,0.11675,-0.12761,-0.48158,0.03421,,,,,,,,,,,,,,,,,,,,,,,,,,0,0,0,0,0
4.2567,1783972884.2261,1,1,2.0000,-0.0000,1.42241,-0.00875,-2.63256,1.07062,1.57080,0.11675,-0.12761,-0.48158,0.03421,,,,,,,,,,,,,,,,,,,,,,,,,,0,0,0,0,0
4.2570,1783972884.2265,1,1,2.0000,-0.0000,1.42241,-0.00875,-2.63256,1.07062,1.57080,0.11675,-0.12761,-0.48158,0.03421,,,,,,,,,,,,,,,,,,,,,,,,,,0,0,0,0,0
4.2630,1783972884.2325,1,1,2.0000,-0.0000,1.42241,-0.00875,-2.63256,1.07062,1.57080,0.11675,-0.12761,-0.48158,0.03421,,,,,,,,,,,,,,,,,,,,,,,,,,0,0,0,0,0
4.3006,1783972884.2701,1,1,2.0000,-0.0000,1.42241,-0.00875,-2.63256,1.07062,1.57080,0.11675,-0.12761,-0.48158,0.03421,,,,,,,,,,,,,,,,,,,,,,,,,,0,0,0,0,0
4.3010,1783972884.2705,1,1,2.0000,-0.0000,1.42241,-0.00875,-2.63256,1.07062,1.57080,0.11675,-0.12761,-0.48158,0.03421,,,,,,,,,,,,,,,,,,,,,,,,,,0,0,0,0,0
4.3013,1783972884.2707,1,1,2.0000,-0.0000,1.42241,-0.00875,-2.63256,1.07062,1.57080,0.11675,-0.12761,-0.48158,0.03421,,,,,,,,,,,,,,,,,,,,,,,,,,0,0,0,0,0
4.3136,1783972884.2830,1,1,2.0000,-0.0000,1.42241,-0.00875,-2.63256,1.07062,1.57080,0.11675,-0.12761,-0.48158,0.03421,,,,,,,,,,,,,,,,,,,,,,,,,,0,0,0,0,0
4.3138,1783972884.2833,1,1,2.0000,-0.0000,1.42241,-0.00875,-2.63256,1.07062,1.57080,0.11675,-0.12761,-0.48158,0.03421,,,,,,,,,,,,,,,,,,,,,,,,,,0,0,0,0,0
4.3328,1783972884.3022,1,1,2.0000,-0.0000,1.42241,-0.00875,-2.63256,1.07062,1.57080,0.11675,-0.12761,-0.48158,0.03421,,,,,,,,,,,,,,,,,,,,,,,,,,0,0,0,0,0
4.3593,1783972884.3288,1,1,2.0000,-0.0000,1.42241,-0.00875,-2.63256,1.07062,1.57080,0.11675,-0.12761,-0.48158,0.03421,,,,,,,,,,,,,,,,,,,,,,,,,,0,0,0,0,0
4.3596,1783972884.3291,1,1,2.0000,-0.0000,1.42241,-0.00875,-2.63256,1.07062,1.57080,0.11675,-0.12761,-0.48158,0.03421,,,,,,,,,,,,,,,,,,,,,,,,,,0,0,0,0,0
4.3601,1783972884.3296,1,1,2.0000,-0.0000,1.42241,-0.00875,-2.63256,1.07062,1.57080,0.11675,-0.12761,-0.48158,0.03421,,,,,,,,,,,,,,,,,,,,,,,,,,0,0,0,0,0
4.3607,1783972884.3301,1,1,2.0000,-0.0000,1.42241,-0.00875,-2.63256,1.07062,1.57080,0.11675,-0.12761,-0.48158,0.03421,,,,,,,,,,,,,,,,,,,,,,,,,,0,0,0,0,0
4.3646,1783972884.3341,1,1,2.0000,-0.0000,1.42241,-0.00875,-2.63256,1.07062,1.57080,0.11675,-0.12761,-0.48158,0.03421,,,,,,,,,,,,,,,,,,,,,,,,,,0,0,0,0,0
4.3850,1783972884.3545,1,1,2.0000,-0.0000,1.42241,-0.00875,-2.63256,1.07062,1.57080,0.11675,-0.12761,-0.48158,0.03421,,,,,,,,,,,,,,,,,,,,,,,,,,0,0,0,0,0
4.3853,1783972884.3548,1,1,2.0000,-0.0000,1.42241,-0.00875,-2.63256,1.07062,1.57080,0.11675,-0.12761,-0.48158,0.03421,,,,,,,,,,,,,,,,,,,,,,,,,,0,0,0,0,0
4.4131,1783972884.3826,1,1,2.0000,-0.0000,1.42241,-0.00876,-2.63260,1.07065,1.57080,0.11675,-0.12761,-0.48155,0.03419,,,,,,,,,,,,,,,,,,,,,,,,,,0,0,0,0,0
4.4170,1783972884.3864,1,1,2.0000,-0.0000,1.42241,-0.00877,-2.63262,1.07066,1.57080,0.11675,-0.12761,-0.48154,0.03418,,,,,,,,,,,,,,,,,,,,,,,,,,0,0,0,0,0
4.6693,1783972884.6388,1,1,2.0000,-0.0000,1.42241,-0.00991,-2.63292,1.07203,1.57081,0.11675,-0.12762,-0.48149,0.03377,,,,,,,,,,,,,,,,,,,,,,,,,,0,0,0,0,0
4.6880,1783972884.6575,1,1,2.0000,-0.0000,1.42241,-0.00991,-2.63292,1.07203,1.57081,0.11675,-0.12762,-0.48149,0.03377,,,,,,,,,,,,,,,,,,,,,,,,,,0,0,0,0,0
4.6888,1783972884.6583,1,1,2.0000,-0.0000,1.42241,-0.00991,-2.63292,1.07203,1.57081,0.11675,-0.12762,-0.48149,0.03377,,,,,,,,,,,,,,,,,,,,,,,,,,0,0,0,0,0
4.6891,1783972884.6586,1,1,2.0000,-0.0000,1.42241,-0.00991,-2.63292,1.07203,1.57081,0.11675,-0.12762,-0.48149,0.03377,,,,,,,,,,,,,,,,,,,,,,,,,,0,0,0,0,0
4.6895,1783972884.6589,1,1,2.0000,-0.0000,1.42241,-0.00991,-2.63292,1.07203,1.57081,0.11675,-0.12762,-0.48149,0.03377,,,,,,,,,,,,,,,,,,,,,,,,,,0,0,0,0,0
4.6898,1783972884.6593,1,1,2.0000,-0.0000,1.42241,-0.00991,-2.63292,1.07203,1.57081,0.11675,-0.12762,-0.48149,0.03377,,,,,,,,,,,,,,,,,,,,,,,,,,0,0,0,0,0
4.6901,1783972884.6596,1,1,2.0000,-0.0000,1.42241,-0.00991,-2.63292,1.07203,1.57081,0.11675,-0.12762,-0.48149,0.03377,,,,,,,,,,,,,,,,,,,,,,,,,,0,0,0,0,0
4.6903,1783972884.6598,1,1,2.0000,-0.0000,1.42241,-0.00991,-2.63292,1.07203,1.57081,0.11675,-0.12762,-0.48149,0.03377,,,,,,,,,,,,,,,,,,,,,,,,,,0,0,0,0,0
4.6906,1783972884.6601,1,1,2.0000,-0.0000,1.42241,-0.00991,-2.63292,1.07203,1.57081,0.11675,-0.12762,-0.48149,0.03377,,,,,,,,,,,,,,,,,,,,,,,,,,0,0,0,0,0
4.6909,1783972884.6603,1,1,2.0000,-0.0000,1.42241,-0.00991,-2.63292,1.07203,1.57081,0.11675,-0.12762,-0.48149,0.03377,,,,,,,,,,,,,,,,,,,,,,,,,,0,0,0,0,0
4.9088,1783972884.8783,1,1,2.0000,-0.0000,1.42240,-0.01016,-2.63306,1.07233,1.57081,0.11675,-0.12763,-0.48143,0.03364,,,,,,,,,,,,,,,,,,,,,,,,,,0,0,0,0,0
4.9091,1783972884.8786,1,1,2.0000,-0.0000,1.42240,-0.01016,-2.63306,1.07233,1.57081,0.11675,-0.12763,-0.48143,0.03364,,,,,,,,,,,,,,,,,,,,,,,,,,0,0,0,0,0
4.9095,1783972884.8790,1,1,2.0000,-0.0000,1.42240,-0.01016,-2.63306,1.07233,1.57081,0.11675,-0.12763,-0.48143,0.03364,,,,,,,,,,,,,,,,,,,,,,,,,,0,0,0,0,0
4.9099,1783972884.8794,1,1,2.0000,-0.0000,1.42240,-0.01016,-2.63306,1.07233,1.57081,0.11675,-0.12763,-0.48143,0.03364,,,,,,,,,,,,,,,,,,,,,,,,,,0,0,0,0,0
4.9104,1783972884.8799,1,1,2.0000,-0.0000,1.42240,-0.01016,-2.63306,1.07233,1.57081,0.11675,-0.12763,-0.48143,0.03364,,,,,,,,,,,,,,,,,,,,,,,,,,0,0,0,0,0
4.9108,1783972884.8803,1,1,2.0000,-0.0000,1.42240,-0.01016,-2.63306,1.07233,1.57081,0.11675,-0.12763,-0.48143,0.03364,,,,,,,,,,,,,,,,,,,,,,,,,,0,0,0,0,0
4.9113,1783972884.8808,1,1,2.0000,-0.0000,1.42240,-0.01016,-2.63306,1.07233,1.57081,0.11675,-0.12763,-0.48143,0.03364,,,,,,,,,,,,,,,,,,,,,,,,,,0,0,0,0,0
4.9117,1783972884.8812,1,1,2.0000,-0.0000,1.42240,-0.01016,-2.63306,1.07233,1.57081,0.11675,-0.12763,-0.48143,0.03364,,,,,,,,,,,,,,,,,,,,,,,,,,0,0,0,0,0
4.9126,1783972884.8821,1,1,2.0000,-0.0000,1.42240,-0.01017,-2.63306,1.07234,1.57081,0.11675,-0.12763,-0.48143,0.03364,,,,,,,,,,,,,,,,,,,,,,,,,,0,0,0,0,0
4.9132,1783972884.8827,1,1,2.0000,-0.0000,1.42240,-0.01017,-2.63306,1.07234,1.57081,0.11675,-0.12763,-0.48143,0.03364,,,,,,,,,,,,,,,,,,,,,,,,,,0,0,0,0,0
4.9136,1783972884.8831,1,1,2.0000,-0.0000,1.42240,-0.01017,-2.63306,1.07234,1.57081,0.11675,-0.12763,-0.48143,0.03364,,,,,,,,,,,,,,,,,,,,,,,,,,0,0,0,0,0
4.9141,1783972884.8835,1,1,2.0000,-0.0000,1.42240,-0.01017,-2.63306,1.07234,1.57081,0.11675,-0.12763,-0.48143,0.03364,,,,,,,,,,,,,,,,,,,,,,,,,,0,0,0,0,0
4.9145,1783972884.8840,1,1,2.0000,-0.0000,1.42240,-0.01017,-2.63306,1.07234,1.57081,0.11675,-0.12763,-0.48143,0.03364,,,,,,,,,,,,,,,,,,,,,,,,,,0,0,0,0,0
4.9149,1783972884.8844,1,1,2.0000,-0.0000,1.42240,-0.01017,-2.63306,1.07234,1.57081,0.11675,-0.12763,-0.48143,0.03364,,,,,,,,,,,,,,,,,,,,,,,,,,0,0,0,0,0
4.9154,1783972884.8849,1,1,2.0000,-0.0000,1.42240,-0.01017,-2.63306,1.07234,1.57081,0.11675,-0.12763,-0.48143,0.03364,,,,,,,,,,,,,,,,,,,,,,,,,,0,0,0,0,0
4.9158,1783972884.8853,1,1,2.0000,-0.0000,1.42240,-0.01017,-2.63306,1.07234,1.57081,0.11675,-0.12763,-0.48143,0.03364,,,,,,,,,,,,,,,,,,,,,,,,,,0,0,0,0,0
4.9164,1783972884.8859,1,1,2.0000,-0.0000,1.42240,-0.01019,-2.63307,1.07237,1.57081,0.11675,-0.12763,-0.48143,0.03363,,,,,,,,,,,,,,,,,,,,,,,,,,0,0,0,0,0
4.9241,1783972884.8936,1,1,2.0000,-0.0000,1.42240,-0.01022,-2.63307,1.07240,1.57081,0.11675,-0.12763,-0.48143,0.03362,,,,,,,,,,,,,,,,,,,,,,,,,,0,0,0,0,0
4.9247,1783972884.8941,1,1,2.0000,-0.0000,1.42240,-0.01025,-2.63308,1.07244,1.57081,0.11675,-0.12763,-0.48143,0.03361,,,,,,,,,,,,,,,,,,,,,,,,,,0,0,0,0,0
4.9356,1783972884.9051,1,1,2.0000,-0.0000,1.42240,-0.01026,-2.63308,1.07245,1.57081,0.11675,-0.12763,-0.48143,0.03361,,,,,,,,,,,,,,,,,,,,,,,,,,0,0,0,0,0
4.9362,1783972884.9056,1,1,2.0000,-0.0000,1.42240,-0.01026,-2.63308,1.07245,1.57081,0.11675,-0.12763,-0.48143,0.03361,,,,,,,,,,,,,,,,,,,,,,,,,,0,0,0,0,0
4.9500,1783972884.9194,1,1,2.0000,-0.0000,1.42240,-0.01041,-2.63310,1.07262,1.57081,0.11675,-0.12763,-0.48144,0.03356,,,,,,,,,,,,,,,,,,,,,,,,,,0,0,0,0,0
4.9585,1783972884.9280,1,1,2.0000,-0.0000,1.42240,-0.01052,-2.63312,1.07276,1.57081,0.11675,-0.12763,-0.48144,0.03353,,,,,,,,,,,,,,,,,,,,,,,,,,0,0,0,0,0
4.9647,1783972884.9342,1,1,2.0000,-0.0000,1.42240,-0.01058,-2.63313,1.07283,1.57081,0.11675,-0.12762,-0.48145,0.03351,,,,,,,,,,,,,,,,,,,,,,,,,,0,0,0,0,0
4.9652,1783972884.9347,1,1,2.0000,-0.0000,1.42240,-0.01058,-2.63313,1.07283,1.57081,0.11675,-0.12762,-0.48145,0.03351,,,,,,,,,,,,,,,,,,,,,,,,,,0,0,0,0,0
4.9785,1783972884.9479,1,1,2.0000,-0.0000,1.42240,-0.01062,-2.63313,1.07288,1.57081,0.11675,-0.12762,-0.48145,0.03350,,,,,,,,,,,,,,,,,,,,,,,,,,0,0,0,0,0
4.9889,1783972884.9584,1,1,2.0000,-0.0000,1.42240,-0.01072,-2.63314,1.07300,1.57081,0.11675,-0.12762,-0.48146,0.03347,,,,,,,,,,,,,,,,,,,,,,,,,,0,0,0,0,0
4.9948,1783972884.9643,1,1,2.0000,-0.0000,1.42240,-0.01076,-2.63315,1.07305,1.57081,0.11675,-0.12762,-0.48146,0.03346,,,,,,,,,,,,,,,,,,,,,,,,,,0,0,0,0,0
5.0097,1783972884.9792,1,1,2.0000,-0.0000,1.42240,-0.01094,-2.63317,1.07326,1.57081,0.11675,-0.12762,-0.48147,0.03340,,,,,,,,,,,,,,,,,,,,,,,,,,0,0,0,0,0
5.0193,1783972884.9888,1,1,2.0000,-0.0000,1.42240,-0.01101,-2.63318,1.07336,1.57081,0.11675,-0.12762,-0.48148,0.03338,,,,,,,,,,,,,,,,,,,,,,,,,,0,0,0,0,0
5.0295,1783972884.9989,1,1,2.0000,-0.0000,1.42240,-0.01107,-2.63319,1.07343,1.57081,0.11675,-0.12762,-0.48148,0.03337,,,,,,,,,,,,,,,,,,,,,,,,,,0,0,0,0,0
5.0438,1783972885.0133,1,1,2.0000,-0.0000,1.42240,-0.01107,-2.63319,1.07343,1.57081,0.11675,-0.12762,-0.48148,0.03337,,,,,,,,,,,,,,,,,,,,,,,,,,0,0,0,0,0
5.1216,1783972885.0911,1,1,2.0000,-0.0000,1.42240,-0.01107,-2.63319,1.07343,1.57081,0.11675,-0.12762,-0.48148,0.03337,,,,,,,,,,,,,,,,,,,,,,,,,,0,0,0,0,0
5.1221,1783972885.0915,1,1,2.0000,-0.0000,1.42240,-0.01107,-2.63319,1.07343,1.57081,0.11675,-0.12762,-0.48148,0.03337,,,,,,,,,,,,,,,,,,,,,,,,,,0,0,0,0,0
5.1225,1783972885.0919,1,1,2.0000,-0.0000,1.42240,-0.01107,-2.63319,1.07343,1.57081,0.11675,-0.12762,-0.48148,0.03337,,,,,,,,,,,,,,,,,,,,,,,,,,0,0,0,0,0
5.1227,1783972885.0922,1,1,2.0000,-0.0000,1.42240,-0.01107,-2.63319,1.07343,1.57081,0.11675,-0.12762,-0.48148,0.03337,,,,,,,,,,,,,,,,,,,,,,,,,,0,0,0,0,0
5.1229,1783972885.0924,1,1,2.0000,-0.0000,1.42240,-0.01107,-2.63319,1.07343,1.57081,0.11675,-0.12762,-0.48148,0.03337,,,,,,,,,,,,,,,,,,,,,,,,,,0,0,0,0,0
5.1231,1783972885.0926,1,1,2.0000,-0.0000,1.42240,-0.01107,-2.63319,1.07343,1.57081,0.11675,-0.12762,-0.48148,0.03337,,,,,,,,,,,,,,,,,,,,,,,,,,0,0,0,0,0
5.1290,1783972885.0985,1,1,2.0000,-0.0000,1.42240,-0.01107,-2.63319,1.07343,1.57081,0.11675,-0.12762,-0.48148,0.03337,,,,,,,,,,,,,,,,,,,,,,,,,,0,0,0,0,0
5.1294,1783972885.0989,1,1,2.0000,-0.0000,1.42240,-0.01107,-2.63319,1.07343,1.57081,0.11675,-0.12762,-0.48148,0.03337,,,,,,,,,,,,,,,,,,,,,,,,,,0,0,0,0,0
5.1310,1783972885.1005,1,1,2.0000,-0.0000,1.42240,-0.01107,-2.63319,1.07343,1.57081,0.11675,-0.12762,-0.48148,0.03337,,,,,,,,,,,,,,,,,,,,,,,,,,0,0,0,0,0
5.1528,1783972885.1223,1,1,2.0000,-0.0000,1.42240,-0.01107,-2.63319,1.07343,1.57081,0.11675,-0.12762,-0.48148,0.03337,,,,,,,,,,,,,,,,,,,,,,,,,,0,0,0,0,0
5.1531,1783972885.1226,1,1,2.0000,-0.0000,1.42240,-0.01107,-2.63319,1.07343,1.57081,0.11675,-0.12762,-0.48148,0.03337,,,,,,,,,,,,,,,,,,,,,,,,,,0,0,0,0,0
5.1534,1783972885.1229,1,1,2.0000,-0.0000,1.42240,-0.01107,-2.63319,1.07343,1.57081,0.11675,-0.12762,-0.48148,0.03337,,,,,,,,,,,,,,,,,,,,,,,,,,0,0,0,0,0
5.1699,1783972885.1393,1,1,2.0000,-0.0000,1.42240,-0.01107,-2.63319,1.07343,1.57081,0.11675,-0.12762,-0.48148,0.03337,,,,,,,,,,,,,,,,,,,,,,,,,,0,0,0,0,0
5.1714,1783972885.1408,1,1,2.0000,-0.0000,1.42240,-0.01107,-2.63319,1.07343,1.57081,0.11675,-0.12762,-0.48148,0.03337,,,,,,,,,,,,,,,,,,,,,,,,,,0,0,0,0,0
5.1799,1783972885.1493,1,1,2.0000,-0.0000,1.42240,-0.01107,-2.63319,1.07343,1.57081,0.11675,-0.12762,-0.48148,0.03337,,,,,,,,,,,,,,,,,,,,,,,,,,0,0,0,0,0
5.1904,1783972885.1599,1,1,2.0000,-0.0000,1.42240,-0.01107,-2.63319,1.07343,1.57081,0.11675,-0.12762,-0.48148,0.03337,,,,,,,,,,,,,,,,,,,,,,,,,,0,0,0,0,0
5.2263,1783972885.1957,1,1,2.0000,-0.0000,1.42240,-0.01107,-2.63319,1.07343,1.57081,0.11675,-0.12762,-0.48148,0.03337,,,,,,,,,,,,,,,,,,,,,,,,,,0,0,0,0,0
5.2266,1783972885.1960,1,1,2.0000,-0.0000,1.42240,-0.01107,-2.63319,1.07343,1.57081,0.11675,-0.12762,-0.48148,0.03337,,,,,,,,,,,,,,,,,,,,,,,,,,0,0,0,0,0
5.2268,1783972885.1963,1,1,2.0000,-0.0000,1.42240,-0.01107,-2.63319,1.07343,1.57081,0.11675,-0.12762,-0.48148,0.03337,,,,,,,,,,,,,,,,,,,,,,,,,,0,0,0,0,0
5.2297,1783972885.1991,1,1,2.0000,-0.0000,1.42240,-0.01107,-2.63319,1.07343,1.57081,0.11675,-0.12762,-0.48148,0.03337,,,,,,,,,,,,,,,,,,,,,,,,,,0,0,0,0,0
5.2397,1783972885.2092,1,1,2.0000,-0.0000,1.42240,-0.01107,-2.63319,1.07343,1.57081,0.11675,-0.12762,-0.48148,0.03337,,,,,,,,,,,,,,,,,,,,,,,,,,0,0,0,0,0
5.2519,1783972885.2214,1,1,2.0000,-0.0000,1.42240,-0.01108,-2.63319,1.07345,1.57081,0.11675,-0.12762,-0.48149,0.03337,,,,,,,,,,,,,,,,,,,,,,,,,,0,0,0,0,0
5.2522,1783972885.2217,1,1,2.0000,-0.0000,1.42240,-0.01108,-2.63319,1.07345,1.57081,0.11675,-0.12762,-0.48149,0.03337,,,,,,,,,,,,,,,,,,,,,,,,,,0,0,0,0,0
5.2607,1783972885.2302,1,1,2.0000,-0.0000,1.42240,-0.01110,-2.63319,1.07347,1.57081,0.11675,-0.12762,-0.48149,0.03336,,,,,,,,,,,,,,,,,,,,,,,,,,0,0,0,0,0
5.2891,1783972885.2586,1,1,2.0000,-0.0000,1.42240,-0.01120,-2.63326,1.07360,1.57081,0.11675,-0.12762,-0.48145,0.03331,,,,,,,,,,,,,,,,,,,,,,,,,,0,0,0,0,0
5.2895,1783972885.2590,1,1,2.0000,-0.0000,1.42240,-0.01120,-2.63326,1.07360,1.57081,0.11675,-0.12762,-0.48145,0.03331,,,,,,,,,,,,,,,,,,,,,,,,,,0,0,0,0,0
5.3036,1783972885.2730,1,1,2.0000,-0.0000,1.42240,-0.01121,-2.63326,1.07362,1.57081,0.11675,-0.12762,-0.48145,0.03330,,,,,,,,,,,,,,,,,,,,,,,,,,0,0,0,0,0
5.3108,1783972885.2803,1,1,2.0000,-0.0000,1.42240,-0.01125,-2.63328,1.07366,1.57081,0.11675,-0.12762,-0.48145,0.03329,,,,,,,,,,,,,,,,,,,,,,,,,,0,0,0,0,0
5.3121,1783972885.2816,1,1,2.0000,-0.0000,1.42240,-0.01125,-2.63328,1.07366,1.57081,0.11675,-0.12762,-0.48145,0.03329,,,,,,,,,,,,,,,,,,,,,,,,,,0,0,0,0,0
5.3238,1783972885.2933,1,1,2.0000,-0.0000,1.42240,-0.01132,-2.63331,1.07375,1.57081,0.11675,-0.12762,-0.48143,0.03325,,,,,,,,,,,,,,,,,,,,,,,,,,0,0,0,0,0
5.3865,1783972885.3559,1,1,2.0000,-0.0000,1.42240,-0.01174,-2.63337,1.07424,1.57081,0.11675,-0.12762,-0.48145,0.03312,,,,,,,,,,,,,,,,,,,,,,,,,,0,0,0,0,0
5.3868,1783972885.3563,1,1,2.0000,-0.0000,1.42240,-0.01174,-2.63337,1.07424,1.57081,0.11675,-0.12762,-0.48145,0.03312,,,,,,,,,,,,,,,,,,,,,,,,,,0,0,0,0,0
5.3873,1783972885.3568,1,1,2.0000,-0.0000,1.42240,-0.01174,-2.63337,1.07424,1.57081,0.11675,-0.12762,-0.48145,0.03312,,,,,,,,,,,,,,,,,,,,,,,,,,0,0,0,0,0
5.3878,1783972885.3572,1,1,2.0000,-0.0000,1.42240,-0.01174,-2.63337,1.07424,1.57081,0.11675,-0.12762,-0.48145,0.03312,,,,,,,,,,,,,,,,,,,,,,,,,,0,0,0,0,0
5.3882,1783972885.3577,1,1,2.0000,-0.0000,1.42240,-0.01174,-2.63337,1.07424,1.57081,0.11675,-0.12762,-0.48145,0.03312,,,,,,,,,,,,,,,,,,,,,,,,,,0,0,0,0,0
5.4131,1783972885.3826,1,1,2.0000,-0.0000,1.42240,-0.01193,-2.63340,1.07448,1.57081,0.11675,-0.12762,-0.48146,0.03307,,,,,,,,,,,,,,,,,,,,,,,,,,0,0,0,0,0
5.4295,1783972885.3990,1,1,2.0000,-0.0000,1.42240,-0.01211,-2.63342,1.07470,1.57081,0.11674,-0.12762,-0.48147,0.03301,,,,,,,,,,,,,,,,,,,,,,,,,,0,0,0,0,0
5.4297,1783972885.3992,1,1,2.0000,-0.0000,1.42240,-0.01211,-2.63342,1.07470,1.57081,0.11674,-0.12762,-0.48147,0.03301,,,,,,,,,,,,,,,,,,,,,,,,,,0,0,0,0,0
5.4358,1783972885.4053,1,1,2.0000,-0.0000,1.42240,-0.01215,-2.63343,1.07475,1.57081,0.11674,-0.12762,-0.48148,0.03300,,,,,,,,,,,,,,,,,,,,,,,,,,0,0,0,0,0
5.4361,1783972885.4056,1,1,2.0000,-0.0000,1.42240,-0.01215,-2.63343,1.07475,1.57081,0.11674,-0.12762,-0.48148,0.03300,,,,,,,,,,,,,,,,,,,,,,,,,,0,0,0,0,0
5.4396,1783972885.4091,1,1,2.0000,-0.0000,1.42240,-0.01219,-2.63343,1.07480,1.57081,0.11674,-0.12762,-0.48148,0.03299,,,,,,,,,,,,,,,,,,,,,,,,,,0,0,0,0,0
5.4541,1783972885.4236,1,1,2.0000,-0.0000,1.42240,-0.01224,-2.63344,1.07487,1.57081,0.11674,-0.12762,-0.48149,0.03298,,,,,,,,,,,,,,,,,,,,,,,,,,0,0,0,0,0
5.4587,1783972885.4282,1,1,2.0000,-0.0000,1.42240,-0.01224,-2.63344,1.07487,1.57081,0.11674,-0.12762,-0.48149,0.03298,,,,,,,,,,,,,,,,,,,,,,,,,,0,0,0,0,0
5.4591,1783972885.4286,1,1,2.0000,-0.0000,1.42240,-0.01224,-2.63344,1.07487,1.57081,0.11674,-0.12762,-0.48149,0.03298,,,,,,,,,,,,,,,,,,,,,,,,,,0,0,0,0,0
5.4676,1783972885.4370,1,1,2.0000,-0.0000,1.42240,-0.01224,-2.63344,1.07487,1.57081,0.11674,-0.12762,-0.48149,0.03298,,,,,,,,,,,,,,,,,,,,,,,,,,0,0,0,0,0
5.4851,1783972885.4545,1,1,2.0000,-0.0000,1.42240,-0.01224,-2.63344,1.07487,1.57081,0.11674,-0.12762,-0.48149,0.03298,,,,,,,,,,,,,,,,,,,,,,,,,,0,0,0,0,0
5.4969,1783972885.4664,1,1,2.0000,-0.0000,1.42240,-0.01224,-2.63344,1.07487,1.57081,0.11674,-0.12762,-0.48149,0.03298,,,,,,,,,,,,,,,,,,,,,,,,,,0,0,0,0,0
5.4973,1783972885.4668,1,1,2.0000,-0.0000,1.42240,-0.01224,-2.63344,1.07487,1.57081,0.11674,-0.12762,-0.48149,0.03298,,,,,,,,,,,,,,,,,,,,,,,,,,0,0,0,0,0
5.5162,1783972885.4857,1,1,2.0000,-0.0000,1.42240,-0.01224,-2.63344,1.07487,1.57081,0.11674,-0.12762,-0.48149,0.03298,,,,,,,,,,,,,,,,,,,,,,,,,,0,0,0,0,0
5.5224,1783972885.4919,1,1,2.0000,-0.0000,1.42240,-0.01224,-2.63344,1.07487,1.57081,0.11674,-0.12762,-0.48149,0.03298,,,,,,,,,,,,,,,,,,,,,,,,,,0,0,0,0,0
5.5396,1783972885.5091,1,1,2.0000,-0.0000,1.42240,-0.01224,-2.63344,1.07487,1.57081,0.11674,-0.12762,-0.48149,0.03298,,,,,,,,,,,,,,,,,,,,,,,,,,0,0,0,0,0
5.5414,1783972885.5109,1,1,2.0000,-0.0000,1.42240,-0.01224,-2.63344,1.07487,1.57081,0.11674,-0.12762,-0.48149,0.03298,,,,,,,,,,,,,,,,,,,,,,,,,,0,0,0,0,0
5.5505,1783972885.5200,1,1,2.0000,-0.0000,1.42240,-0.01224,-2.63344,1.07487,1.57081,0.11674,-0.12762,-0.48149,0.03298,,,,,,,,,,,,,,,,,,,,,,,,,,0,0,0,0,0
5.5587,1783972885.5281,1,1,2.0000,-0.0000,1.42240,-0.01224,-2.63344,1.07487,1.57081,0.11674,-0.12762,-0.48149,0.03298,,,,,,,,,,,,,,,,,,,,,,,,,,0,0,0,0,0
5.5703,1783972885.5398,1,1,2.0000,-0.0000,1.42240,-0.01224,-2.63344,1.07487,1.57081,0.11674,-0.12762,-0.48149,0.03298,,,,,,,,,,,,,,,,,,,,,,,,,,0,0,0,0,0
5.5707,1783972885.5402,1,1,2.0000,-0.0000,1.42240,-0.01224,-2.63344,1.07487,1.57081,0.11674,-0.12762,-0.48149,0.03298,,,,,,,,,,,,,,,,,,,,,,,,,,0,0,0,0,0
5.5804,1783972885.5498,1,1,2.0000,-0.0000,1.42240,-0.01224,-2.63344,1.07487,1.57081,0.11674,-0.12762,-0.48149,0.03298,,,,,,,,,,,,,,,,,,,,,,,,,,0,0,0,0,0
5.5931,1783972885.5625,1,1,2.0000,-0.0000,1.42240,-0.01224,-2.63344,1.07487,1.57081,0.11674,-0.12762,-0.48149,0.03298,,,,,,,,,,,,,,,,,,,,,,,,,,0,0,0,0,0
5.5935,1783972885.5630,1,1,2.0000,-0.0000,1.42240,-0.01224,-2.63344,1.07487,1.57081,0.11674,-0.12762,-0.48149,0.03298,,,,,,,,,,,,,,,,,,,,,,,,,,0,0,0,0,0
5.5992,1783972885.5686,1,1,2.0000,-0.0000,1.42240,-0.01224,-2.63344,1.07487,1.57081,0.11674,-0.12762,-0.48149,0.03298,,,,,,,,,,,,,,,,,,,,,,,,,,0,0,0,0,0
5.6137,1783972885.5832,1,1,2.0000,-0.0000,1.42240,-0.01224,-2.63344,1.07487,1.57081,0.11674,-0.12762,-0.48149,0.03298,,,,,,,,,,,,,,,,,,,,,,,,,,0,0,0,0,0
5.6319,1783972885.6014,1,1,2.0000,-0.0000,1.42240,-0.01224,-2.63344,1.07487,1.57081,0.11674,-0.12762,-0.48149,0.03298,,,,,,,,,,,,,,,,,,,,,,,,,,0,0,0,0,0
5.7649,1783972885.7343,1,1,2.0000,-0.0000,1.42240,-0.01261,-2.63358,1.07532,1.57081,0.11674,-0.12762,-0.48144,0.03283,,,,,,,,,,,,,,,,,,,,,,,,,,0,0,0,0,0
5.8107,1783972885.7802,1,1,2.0000,-0.0000,1.42240,-0.01284,-2.63361,1.07560,1.57081,0.11674,-0.12762,-0.48145,0.03275,,,,,,,,,,,,,,,,,,,,,,,,,,0,0,0,0,0
5.8110,1783972885.7805,1,1,2.0000,-0.0000,1.42240,-0.01284,-2.63361,1.07560,1.57081,0.11674,-0.12762,-0.48145,0.03275,,,,,,,,,,,,,,,,,,,,,,,,,,0,0,0,0,0
5.8113,1783972885.7808,1,1,2.0000,-0.0000,1.42240,-0.01284,-2.63361,1.07560,1.57081,0.11674,-0.12762,-0.48145,0.03275,,,,,,,,,,,,,,,,,,,,,,,,,,0,0,0,0,0
5.8118,1783972885.7812,1,1,2.0000,-0.0000,1.42240,-0.01284,-2.63361,1.07560,1.57081,0.11674,-0.12762,-0.48145,0.03275,,,,,,,,,,,,,,,,,,,,,,,,,,0,0,0,0,0
5.8122,1783972885.7817,1,1,2.0000,-0.0000,1.42240,-0.01284,-2.63361,1.07560,1.57081,0.11674,-0.12762,-0.48145,0.03275,,,,,,,,,,,,,,,,,,,,,,,,,,0,0,0,0,0
5.8250,1783972885.7944,1,1,2.0000,-0.0000,1.42239,-0.01301,-2.63364,1.07580,1.57081,0.11674,-0.12762,-0.48146,0.03270,,,,,,,,,,,,,,,,,,,,,,,,,,0,0,0,0,0
5.8253,1783972885.7948,1,1,2.0000,-0.0000,1.42239,-0.01301,-2.63364,1.07580,1.57081,0.11674,-0.12762,-0.48146,0.03270,,,,,,,,,,,,,,,,,,,,,,,,,,0,0,0,0,0
5.8255,1783972885.7950,1,1,2.0000,-0.0000,1.42239,-0.01301,-2.63364,1.07580,1.57081,0.11674,-0.12762,-0.48146,0.03270,,,,,,,,,,,,,,,,,,,,,,,,,,0,0,0,0,0
5.8258,1783972885.7953,1,1,2.0000,-0.0000,1.42239,-0.01301,-2.63364,1.07580,1.57081,0.11674,-0.12762,-0.48146,0.03270,,,,,,,,,,,,,,,,,,,,,,,,,,0,0,0,0,0
5.8261,1783972885.7955,1,1,2.0000,-0.0000,1.42239,-0.01301,-2.63364,1.07580,1.57081,0.11674,-0.12762,-0.48146,0.03270,,,,,,,,,,,,,,,,,,,,,,,,,,0,0,0,0,0
5.8265,1783972885.7960,1,1,2.0000,-0.0000,1.42239,-0.01301,-2.63364,1.07580,1.57081,0.11674,-0.12762,-0.48146,0.03270,,,,,,,,,,,,,,,,,,,,,,,,,,0,0,0,0,0
5.8269,1783972885.7963,1,1,2.0000,-0.0000,1.42239,-0.01301,-2.63364,1.07580,1.57081,0.11674,-0.12762,-0.48146,0.03270,,,,,,,,,,,,,,,,,,,,,,,,,,0,0,0,0,0
5.8449,1783972885.8143,1,1,2.0000,-0.0000,1.42239,-0.01329,-2.63367,1.07614,1.57081,0.11674,-0.12761,-0.48148,0.03262,,,,,,,,,,,,,,,,,,,,,,,,,,0,0,0,0,0
5.8450,1783972885.8145,1,1,2.0000,-0.0000,1.42239,-0.01329,-2.63367,1.07614,1.57081,0.11674,-0.12761,-0.48148,0.03262,,,,,,,,,,,,,,,,,,,,,,,,,,0,0,0,0,0
5.8685,1783972885.8380,1,1,2.0000,-0.0000,1.42239,-0.01343,-2.63369,1.07633,1.57081,0.11674,-0.12761,-0.48149,0.03258,,,,,,,,,,,,,,,,,,,,,,,,,,0,0,0,0,0
5.8690,1783972885.8385,1,1,2.0000,-0.0000,1.42239,-0.01343,-2.63369,1.07633,1.57081,0.11674,-0.12761,-0.48149,0.03258,,,,,,,,,,,,,,,,,,,,,,,,,,0,0,0,0,0
5.9010,1783972885.8704,1,1,2.0000,-0.0000,1.42239,-0.01343,-2.63369,1.07633,1.57081,0.11674,-0.12761,-0.48149,0.03258,,,,,,,,,,,,,,,,,,,,,,,,,,0,0,0,0,0
5.9013,1783972885.8708,1,1,2.0000,-0.0000,1.42239,-0.01343,-2.63369,1.07633,1.57081,0.11674,-0.12761,-0.48149,0.03258,,,,,,,,,,,,,,,,,,,,,,,,,,0,0,0,0,0
5.9029,1783972885.8724,1,1,2.0000,-0.0000,1.42239,-0.01343,-2.63369,1.07633,1.57081,0.11674,-0.12761,-0.48149,0.03258,,,,,,,,,,,,,,,,,,,,,,,,,,0,0,0,0,0
5.9106,1783972885.8801,1,1,2.0000,-0.0000,1.42239,-0.01343,-2.63369,1.07633,1.57081,0.11674,-0.12761,-0.48149,0.03258,,,,,,,,,,,,,,,,,,,,,,,,,,0,0,0,0,0
5.9110,1783972885.8805,1,1,2.0000,-0.0000,1.42239,-0.01343,-2.63369,1.07633,1.57081,0.11674,-0.12761,-0.48149,0.03258,,,,,,,,,,,,,,,,,,,,,,,,,,0,0,0,0,0
5.9181,1783972885.8876,1,1,2.0000,-0.0000,1.42239,-0.01343,-2.63369,1.07633,1.57081,0.11674,-0.12761,-0.48149,0.03258,,,,,,,,,,,,,,,,,,,,,,,,,,0,0,0,0,0
5.9476,1783972885.9171,1,1,2.0000,-0.0000,1.42239,-0.01343,-2.63369,1.07633,1.57081,0.11674,-0.12761,-0.48149,0.03258,,,,,,,,,,,,,,,,,,,,,,,,,,0,0,0,0,0
5.9479,1783972885.9174,1,1,2.0000,-0.0000,1.42239,-0.01343,-2.63369,1.07633,1.57081,0.11674,-0.12761,-0.48149,0.03258,,,,,,,,,,,,,,,,,,,,,,,,,,0,0,0,0,0
5.9482,1783972885.9177,1,1,2.0000,-0.0000,1.42239,-0.01343,-2.63369,1.07633,1.57081,0.11674,-0.12761,-0.48149,0.03258,,,,,,,,,,,,,,,,,,,,,,,,,,0,0,0,0,0
5.9498,1783972885.9193,1,1,2.0000,-0.0000,1.42239,-0.01343,-2.63369,1.07633,1.57081,0.11674,-0.12761,-0.48149,0.03258,,,,,,,,,,,,,,,,,,,,,,,,,,0,0,0,0,0
5.9677,1783972885.9372,1,1,2.0000,-0.0000,1.42239,-0.01343,-2.63369,1.07633,1.57081,0.11674,-0.12761,-0.48149,0.03258,,,,,,,,,,,,,,,,,,,,,,,,,,0,0,0,0,0
5.9813,1783972885.9508,1,1,2.0000,-0.0000,1.42239,-0.01343,-2.63369,1.07633,1.57081,0.11674,-0.12761,-0.48149,0.03258,,,,,,,,,,,,,,,,,,,,,,,,,,0,0,0,0,0
5.9817,1783972885.9512,1,1,2.0000,-0.0000,1.42239,-0.01343,-2.63369,1.07633,1.57081,0.11674,-0.12761,-0.48149,0.03258,,,,,,,,,,,,,,,,,,,,,,,,,,0,0,0,0,0
5.9822,1783972885.9516,1,1,2.0000,-0.0000,1.42239,-0.01343,-2.63369,1.07633,1.57081,0.11674,-0.12761,-0.48149,0.03258,,,,,,,,,,,,,,,,,,,,,,,,,,0,0,0,0,0
5.9897,1783972885.9592,1,1,2.0000,-0.0000,1.42239,-0.01343,-2.63369,1.07633,1.57081,0.11674,-0.12761,-0.48149,0.03258,,,,,,,,,,,,,,,,,,,,,,,,,,0,0,0,0,0
6.0141,1783972885.9836,1,1,2.0000,-0.0000,1.42239,-0.01343,-2.63369,1.07633,1.57081,0.11674,-0.12761,-0.48149,0.03258,,,,,,,,,,,,,,,,,,,,,,,,,,0,0,0,0,0
6.0202,1783972885.9897,1,1,2.0000,-0.0000,1.42239,-0.01343,-2.63369,1.07633,1.57081,0.11674,-0.12761,-0.48149,0.03258,,,,,,,,,,,,,,,,,,,,,,,,,,0,0,0,0,0
6.0208,1783972885.9903,1,1,2.0000,-0.0000,1.42239,-0.01343,-2.63369,1.07633,1.57081,0.11674,-0.12761,-0.48149,0.03258,,,,,,,,,,,,,,,,,,,,,,,,,,0,0,0,0,0
6.0296,1783972885.9990,1,1,2.0000,-0.0000,1.42239,-0.01343,-2.63369,1.07633,1.57081,0.11674,-0.12761,-0.48149,0.03258,,,,,,,,,,,,,,,,,,,,,,,,,,0,0,0,0,0
6.0389,1783972886.0084,1,1,2.0000,-0.0000,1.42239,-0.01343,-2.63369,1.07633,1.57081,0.11674,-0.12761,-0.48149,0.03258,,,,,,,,,,,,,,,,,,,,,,,,,,0,0,0,0,0
6.0394,1783972886.0089,1,1,2.0000,-0.0000,1.42239,-0.01343,-2.63369,1.07633,1.57081,0.11674,-0.12761,-0.48149,0.03258,,,,,,,,,,,,,,,,,,,,,,,,,,0,0,0,0,0
6.0524,1783972886.0219,1,1,2.0000,-0.0000,1.42239,-0.01343,-2.63369,1.07633,1.57081,0.11674,-0.12761,-0.48149,0.03258,,,,,,,,,,,,,,,,,,,,,,,,,,0,0,0,0,0
6.0639,1783972886.0334,1,1,2.0000,-0.0000,1.42239,-0.01343,-2.63369,1.07633,1.57081,0.11674,-0.12761,-0.48149,0.03258,,,,,,,,,,,,,,,,,,,,,,,,,,0,0,0,0,0
6.0729,1783972886.0424,1,1,2.0000,-0.0000,1.42239,-0.01343,-2.63369,1.07633,1.57081,0.11674,-0.12761,-0.48149,0.03258,,,,,,,,,,,,,,,,,,,,,,,,,,0,0,0,0,0
6.0971,1783972886.0666,1,1,2.0000,-0.0000,1.42239,-0.01346,-2.63368,1.07638,1.57081,0.11674,-0.12761,-0.48151,0.03258,,,,,,,,,,,,,,,,,,,,,,,,,,0,0,0,0,0
6.0975,1783972886.0669,1,1,2.0000,-0.0000,1.42239,-0.01346,-2.63368,1.07638,1.57081,0.11674,-0.12761,-0.48151,0.03258,,,,,,,,,,,,,,,,,,,,,,,,,,0,0,0,0,0
6.1009,1783972886.0703,1,1,2.0000,-0.0000,1.42239,-0.01347,-2.63368,1.07639,1.57081,0.11674,-0.12761,-0.48151,0.03258,,,,,,,,,,,,,,,,,,,,,,,,,,0,0,0,0,0
6.1120,1783972886.0814,1,1,2.0000,-0.0000,1.42239,-0.01348,-2.63368,1.07639,1.57081,0.11674,-0.12761,-0.48151,0.03257,,,,,,,,,,,,,,,,,,,,,,,,,,0,0,0,0,0
6.1204,1783972886.0899,1,1,2.0000,-0.0000,1.42239,-0.01349,-2.63369,1.07641,1.57081,0.11674,-0.12761,-0.48150,0.03257,,,,,,,,,,,,,,,,,,,,,,,,,,0,0,0,0,0
6.1714,1783972886.1408,1,1,2.0000,-0.0000,1.42239,-0.01367,-2.63379,1.07661,1.57081,0.11674,-0.12762,-0.48146,0.03248,,,,,,,,,,,,,,,,,,,,,,,,,,0,0,0,0,0
6.1877,1783972886.1571,1,1,2.0000,-0.0000,1.42239,-0.01378,-2.63382,1.07674,1.57082,0.11674,-0.12762,-0.48145,0.03244,,,,,,,,,,,,,,,,,,,,,,,,,,0,0,0,0,0
6.2051,1783972886.1745,1,1,2.0000,-0.0000,1.42239,-0.01388,-2.63384,1.07686,1.57082,0.11674,-0.12762,-0.48145,0.03240,,,,,,,,,,,,,,,,,,,,,,,,,,0,0,0,0,0
6.2054,1783972886.1749,1,1,2.0000,-0.0000,1.42239,-0.01388,-2.63384,1.07686,1.57082,0.11674,-0.12762,-0.48145,0.03240,,,,,,,,,,,,,,,,,,,,,,,,,,0,0,0,0,0
6.2060,1783972886.1755,1,1,2.0000,-0.0000,1.42239,-0.01388,-2.63384,1.07686,1.57082,0.11674,-0.12762,-0.48145,0.03240,,,,,,,,,,,,,,,,,,,,,,,,,,0,0,0,0,0
6.2064,1783972886.1759,1,1,2.0000,-0.0000,1.42239,-0.01388,-2.63384,1.07686,1.57082,0.11674,-0.12762,-0.48145,0.03240,,,,,,,,,,,,,,,,,,,,,,,,,,0,0,0,0,0
6.2068,1783972886.1762,1,1,2.0000,-0.0000,1.42239,-0.01388,-2.63384,1.07686,1.57082,0.11674,-0.12762,-0.48145,0.03240,,,,,,,,,,,,,,,,,,,,,,,,,,0,0,0,0,0
6.2220,1783972886.1915,1,1,2.0000,-0.0000,1.42239,-0.01397,-2.63386,1.07697,1.57082,0.11674,-0.12762,-0.48145,0.03237,,,,,,,,,,,,,,,,,,,,,,,,,,0,0,0,0,0
6.2229,1783972886.1924,1,1,2.0000,-0.0000,1.42239,-0.01397,-2.63386,1.07697,1.57082,0.11674,-0.12762,-0.48145,0.03237,,,,,,,,,,,,,,,,,,,,,,,,,,0,0,0,0,0
6.2233,1783972886.1928,1,1,2.0000,-0.0000,1.42239,-0.01397,-2.63386,1.07697,1.57082,0.11674,-0.12762,-0.48145,0.03237,,,,,,,,,,,,,,,,,,,,,,,,,,0,0,0,0,0
6.2466,1783972886.2160,1,1,2.0000,-0.0000,1.42239,-0.01417,-2.63389,1.07720,1.57082,0.11674,-0.12761,-0.48146,0.03231,,,,,,,,,,,,,,,,,,,,,,,,,,0,0,0,0,0
6.2515,1783972886.2210,1,1,2.0000,-0.0000,1.42239,-0.01422,-2.63390,1.07727,1.57082,0.11674,-0.12761,-0.48146,0.03230,,,,,,,,,,,,,,,,,,,,,,,,,,0,0,0,0,0
6.2571,1783972886.2266,1,1,2.0000,-0.0000,1.42239,-0.01423,-2.63390,1.07727,1.57082,0.11674,-0.12761,-0.48146,0.03229,,,,,,,,,,,,,,,,,,,,,,,,,,0,0,0,0,0
6.2759,1783972886.2454,1,1,2.0000,-0.0000,1.42239,-0.01433,-2.63391,1.07740,1.57082,0.11674,-0.12761,-0.48147,0.03227,,,,,,,,,,,,,,,,,,,,,,,,,,0,0,0,0,0
6.2762,1783972886.2457,1,1,2.0000,-0.0000,1.42239,-0.01433,-2.63391,1.07740,1.57082,0.11674,-0.12761,-0.48147,0.03227,,,,,,,,,,,,,,,,,,,,,,,,,,0,0,0,0,0
6.2961,1783972886.2656,1,1,2.0000,-0.0000,1.42239,-0.01454,-2.63392,1.07766,1.57082,0.11674,-0.12761,-0.48150,0.03221,,,,,,,,,,,,,,,,,,,,,,,,,,0,0,0,0,0
6.2965,1783972886.2660,1,1,2.0000,-0.0000,1.42239,-0.01454,-2.63392,1.07766,1.57082,0.11674,-0.12761,-0.48150,0.03221,,,,,,,,,,,,,,,,,,,,,,,,,,0,0,0,0,0
6.3023,1783972886.2717,1,1,2.0000,-0.0000,1.42239,-0.01462,-2.63392,1.07775,1.57082,0.11674,-0.12761,-0.48151,0.03219,,,,,,,,,,,,,,,,,,,,,,,,,,0,0,0,0,0
6.3153,1783972886.2847,1,1,2.0000,-0.0000,1.42239,-0.01469,-2.63390,1.07785,1.57082,0.11674,-0.12760,-0.48153,0.03218,,,,,,,,,,,,,,,,,,,,,,,,,,0,0,0,0,0
6.3241,1783972886.2936,1,1,2.0000,-0.0000,1.42239,-0.01469,-2.63390,1.07785,1.57082,0.11674,-0.12760,-0.48153,0.03218,,,,,,,,,,,,,,,,,,,,,,,,,,0,0,0,0,0
6.3358,1783972886.3052,1,1,2.0000,-0.0000,1.42239,-0.01469,-2.63390,1.07785,1.57082,0.11674,-0.12760,-0.48153,0.03218,,,,,,,,,,,,,,,,,,,,,,,,,,0,0,0,0,0
6.3476,1783972886.3171,1,1,2.0000,-0.0000,1.42239,-0.01469,-2.63390,1.07785,1.57082,0.11674,-0.12760,-0.48153,0.03218,,,,,,,,,,,,,,,,,,,,,,,,,,0,0,0,0,0
6.3531,1783972886.3226,1,1,2.0000,-0.0000,1.42239,-0.01469,-2.63390,1.07785,1.57082,0.11674,-0.12760,-0.48153,0.03218,,,,,,,,,,,,,,,,,,,,,,,,,,0,0,0,0,0
6.3653,1783972886.3348,1,1,2.0000,-0.0000,1.42239,-0.01469,-2.63390,1.07785,1.57082,0.11674,-0.12760,-0.48153,0.03218,,,,,,,,,,,,,,,,,,,,,,,,,,0,0,0,0,0
6.3657,1783972886.3352,1,1,2.0000,-0.0000,1.42239,-0.01469,-2.63390,1.07785,1.57082,0.11674,-0.12760,-0.48153,0.03218,,,,,,,,,,,,,,,,,,,,,,,,,,0,0,0,0,0
6.3740,1783972886.3435,1,1,2.0000,-0.0000,1.42239,-0.01469,-2.63390,1.07785,1.57082,0.11674,-0.12760,-0.48153,0.03218,,,,,,,,,,,,,,,,,,,,,,,,,,0,0,0,0,0
6.3810,1783972886.3505,1,1,2.0000,-0.0000,1.42239,-0.01469,-2.63390,1.07785,1.57082,0.11674,-0.12760,-0.48153,0.03218,,,,,,,,,,,,,,,,,,,,,,,,,,0,0,0,0,0
6.4256,1783972886.3950,1,1,2.0000,-0.0000,1.42239,-0.01469,-2.63390,1.07785,1.57082,0.11674,-0.12760,-0.48153,0.03218,,,,,,,,,,,,,,,,,,,,,,,,,,0,0,0,0,0
6.4258,1783972886.3953,1,1,2.0000,-0.0000,1.42239,-0.01469,-2.63390,1.07785,1.57082,0.11674,-0.12760,-0.48153,0.03218,,,,,,,,,,,,,,,,,,,,,,,,,,0,0,0,0,0
6.4310,1783972886.4005,1,1,2.0000,-0.0000,1.42239,-0.01469,-2.63390,1.07785,1.57082,0.11674,-0.12760,-0.48153,0.03218,,,,,,,,,,,,,,,,,,,,,,,,,,0,0,0,0,0
6.4334,1783972886.4028,1,1,2.0000,-0.0000,1.42239,-0.01469,-2.63390,1.07785,1.57082,0.11674,-0.12760,-0.48153,0.03218,,,,,,,,,,,,,,,,,,,,,,,,,,0,0,0,0,0
6.4338,1783972886.4033,1,1,2.0000,-0.0000,1.42239,-0.01469,-2.63390,1.07785,1.57082,0.11674,-0.12760,-0.48153,0.03218,,,,,,,,,,,,,,,,,,,,,,,,,,0,0,0,0,0
6.4443,1783972886.4138,1,1,2.0000,-0.0000,1.42239,-0.01469,-2.63390,1.07785,1.57082,0.11674,-0.12760,-0.48153,0.03218,,,,,,,,,,,,,,,,,,,,,,,,,,0,0,0,0,0
6.4623,1783972886.4318,1,1,2.0000,-0.0000,1.42239,-0.01469,-2.63390,1.07785,1.57082,0.11674,-0.12760,-0.48153,0.03218,,,,,,,,,,,,,,,,,,,,,,,,,,0,0,0,0,0
6.4628,1783972886.4322,1,1,2.0000,-0.0000,1.42239,-0.01469,-2.63390,1.07785,1.57082,0.11674,-0.12760,-0.48153,0.03218,,,,,,,,,,,,,,,,,,,,,,,,,,0,0,0,0,0
6.4724,1783972886.4419,1,1,2.0000,-0.0000,1.42239,-0.01469,-2.63390,1.07785,1.57082,0.11674,-0.12760,-0.48153,0.03218,,,,,,,,,,,,,,,,,,,,,,,,,,0,0,0,0,0
6.4821,1783972886.4516,1,1,2.0000,-0.0000,1.42239,-0.01469,-2.63390,1.07785,1.57082,0.11674,-0.12760,-0.48153,0.03218,,,,,,,,,,,,,,,,,,,,,,,,,,0,0,0,0,0
6.4920,1783972886.4615,1,1,2.0000,-0.0000,1.42239,-0.01469,-2.63390,1.07785,1.57082,0.11674,-0.12760,-0.48153,0.03218,,,,,,,,,,,,,,,,,,,,,,,,,,0,0,0,0,0
6.5012,1783972886.4707,1,1,2.0000,-0.0000,1.42239,-0.01469,-2.63390,1.07785,1.57082,0.11674,-0.12760,-0.48153,0.03218,,,,,,,,,,,,,,,,,,,,,,,,,,0,0,0,0,0
6.5105,1783972886.4800,1,1,2.0000,-0.0000,1.42239,-0.01469,-2.63390,1.07785,1.57082,0.11674,-0.12760,-0.48153,0.03218,,,,,,,,,,,,,,,,,,,,,,,,,,0,0,0,0,0
6.5332,1783972886.5026,1,1,2.0000,-0.0000,1.42239,-0.01470,-2.63391,1.07786,1.57082,0.11674,-0.12760,-0.48153,0.03217,,,,,,,,,,,,,,,,,,,,,,,,,,0,0,0,0,0
6.5335,1783972886.5029,1,1,2.0000,-0.0000,1.42239,-0.01470,-2.63391,1.07786,1.57082,0.11674,-0.12760,-0.48153,0.03217,,,,,,,,,,,,,,,,,,,,,,,,,,0,0,0,0,0
6.5405,1783972886.5100,1,1,2.0000,-0.0000,1.42239,-0.01471,-2.63392,1.07787,1.57082,0.11674,-0.12760,-0.48152,0.03217,,,,,,,,,,,,,,,,,,,,,,,,,,0,0,0,0,0
6.5411,1783972886.5106,1,1,2.0000,-0.0000,1.42239,-0.01472,-2.63393,1.07789,1.57082,0.11674,-0.12760,-0.48152,0.03216,,,,,,,,,,,,,,,,,,,,,,,,,,0,0,0,0,0
6.5610,1783972886.5304,1,1,2.0000,-0.0000,1.42239,-0.01476,-2.63398,1.07794,1.57082,0.11674,-0.12761,-0.48149,0.03213,,,,,,,,,,,,,,,,,,,,,,,,,,0,0,0,0,0
6.5802,1783972886.5497,1,1,2.0000,-0.0000,1.42239,-0.01481,-2.63401,1.07800,1.57082,0.11674,-0.12761,-0.48147,0.03210,,,,,,,,,,,,,,,,,,,,,,,,,,0,0,0,0,0
6.5805,1783972886.5500,1,1,2.0000,-0.0000,1.42239,-0.01481,-2.63401,1.07800,1.57082,0.11674,-0.12761,-0.48147,0.03210,,,,,,,,,,,,,,,,,,,,,,,,,,0,0,0,0,0
6.5842,1783972886.5536,1,1,2.0000,-0.0000,1.42239,-0.01481,-2.63401,1.07800,1.57082,0.11674,-0.12761,-0.48147,0.03210,,,,,,,,,,,,,,,,,,,,,,,,,,0,0,0,0,0
6.5845,1783972886.5540,1,1,2.0000,-0.0000,1.42239,-0.01481,-2.63401,1.07800,1.57082,0.11674,-0.12761,-0.48147,0.03210,,,,,,,,,,,,,,,,,,,,,,,,,,0,0,0,0,0
6.5956,1783972886.5651,1,1,2.0000,-0.0000,1.42239,-0.01485,-2.63403,1.07804,1.57082,0.11674,-0.12761,-0.48147,0.03209,,,,,,,,,,,,,,,,,,,,,,,,,,0,0,0,0,0
6.6300,1783972886.5995,1,1,2.0000,-0.0000,1.42239,-0.01506,-2.63409,1.07829,1.57082,0.11674,-0.12761,-0.48145,0.03201,,,,,,,,,,,,,,,,,,,,,,,,,,0,0,0,0,0
6.6304,1783972886.5998,1,1,2.0000,-0.0000,1.42239,-0.01506,-2.63409,1.07829,1.57082,0.11674,-0.12761,-0.48145,0.03201,,,,,,,,,,,,,,,,,,,,,,,,,,0,0,0,0,0
6.6307,1783972886.6001,1,1,2.0000,-0.0000,1.42239,-0.01506,-2.63409,1.07829,1.57082,0.11674,-0.12761,-0.48145,0.03201,,,,,,,,,,,,,,,,,,,,,,,,,,0,0,0,0,0
6.6378,1783972886.6072,1,1,2.0000,-0.0000,1.42239,-0.01515,-2.63411,1.07840,1.57082,0.11674,-0.12761,-0.48145,0.03198,,,,,,,,,,,,,,,,,,,,,,,,,,0,0,0,0,0
6.6485,1783972886.6180,1,1,2.0000,-0.0000,1.42239,-0.01520,-2.63412,1.07846,1.57082,0.11674,-0.12761,-0.48145,0.03196,,,,,,,,,,,,,,,,,,,,,,,,,,0,0,0,0,0
6.6564,1783972886.6258,1,1,2.0000,-0.0000,1.42239,-0.01522,-2.63412,1.07849,1.57082,0.11674,-0.12761,-0.48145,0.03196,,,,,,,,,,,,,,,,,,,,,,,,,,0,0,0,0,0
6.6803,1783972886.6498,1,1,2.0000,-0.0000,1.42239,-0.01535,-2.63414,1.07864,1.57082,0.11674,-0.12761,-0.48146,0.03191,,,,,,,,,,,,,,,,,,,,,,,,,,0,0,0,0,0
6.6937,1783972886.6632,1,1,2.0000,-0.0000,1.42239,-0.01550,-2.63416,1.07883,1.57082,0.11674,-0.12761,-0.48147,0.03187,,,,,,,,,,,,,,,,,,,,,,,,,,0,0,0,0,0
6.7175,1783972886.6870,1,1,2.0000,-0.0000,1.42239,-0.01561,-2.63417,1.07896,1.57082,0.11674,-0.12761,-0.48148,0.03184,,,,,,,,,,,,,,,,,,,,,,,,,,0,0,0,0,0
6.7178,1783972886.6873,1,1,2.0000,-0.0000,1.42239,-0.01561,-2.63417,1.07896,1.57082,0.11674,-0.12761,-0.48148,0.03184,,,,,,,,,,,,,,,,,,,,,,,,,,0,0,0,0,0
6.7181,1783972886.6876,1,1,2.0000,-0.0000,1.42239,-0.01561,-2.63417,1.07896,1.57082,0.11674,-0.12761,-0.48148,0.03184,,,,,,,,,,,,,,,,,,,,,,,,,,0,0,0,0,0
6.7332,1783972886.7027,1,1,2.0000,-0.0000,1.42238,-0.01574,-2.63415,1.07912,1.57082,0.11674,-0.12760,-0.48151,0.03182,,,,,,,,,,,,,,,,,,,,,,,,,,0,0,0,0,0
6.7335,1783972886.7030,1,1,2.0000,-0.0000,1.42238,-0.01574,-2.63415,1.07912,1.57082,0.11674,-0.12760,-0.48151,0.03182,,,,,,,,,,,,,,,,,,,,,,,,,,0,0,0,0,0
6.7393,1783972886.7087,1,1,2.0000,-0.0000,1.42238,-0.01577,-2.63415,1.07916,1.57082,0.11674,-0.12760,-0.48152,0.03181,,,,,,,,,,,,,,,,,,,,,,,,,,0,0,0,0,0
6.7512,1783972886.7206,1,1,2.0000,-0.0000,1.42238,-0.01585,-2.63412,1.07926,1.57082,0.11674,-0.12760,-0.48156,0.03181,,,,,,,,,,,,,,,,,,,,,,,,,,0,0,0,0,0
6.7646,1783972886.7341,1,1,2.0000,-0.0000,1.42238,-0.01589,-2.63409,1.07932,1.57082,0.11674,-0.12759,-0.48159,0.03181,,,,,,,,,,,,,,,,,,,,,,,,,,0,0,0,0,0
6.7853,1783972886.7548,1,1,2.0000,-0.0000,1.42238,-0.01589,-2.63409,1.07932,1.57082,0.11674,-0.12759,-0.48159,0.03181,,,,,,,,,,,,,,,,,,,,,,,,,,0,0,0,0,0
6.8166,1783972886.7861,1,1,2.0000,-0.0000,1.42238,-0.01589,-2.63409,1.07932,1.57082,0.11674,-0.12759,-0.48159,0.03181,,,,,,,,,,,,,,,,,,,,,,,,,,0,0,0,0,0
6.8172,1783972886.7866,1,1,2.0000,-0.0000,1.42238,-0.01589,-2.63409,1.07932,1.57082,0.11674,-0.12759,-0.48159,0.03181,,,,,,,,,,,,,,,,,,,,,,,,,,0,0,0,0,0
6.8331,1783972886.8026,1,1,2.0000,-0.0000,1.42238,-0.01589,-2.63409,1.07932,1.57082,0.11674,-0.12759,-0.48159,0.03181,,,,,,,,,,,,,,,,,,,,,,,,,,0,0,0,0,0
6.8385,1783972886.8080,1,1,2.0000,-0.0000,1.42238,-0.01589,-2.63409,1.07932,1.57082,0.11674,-0.12759,-0.48159,0.03181,,,,,,,,,,,,,,,,,,,,,,,,,,0,0,0,0,0
6.8437,1783972886.8132,1,1,2.0000,-0.0000,1.42238,-0.01589,-2.63409,1.07932,1.57082,0.11674,-0.12759,-0.48159,0.03181,,,,,,,,,,,,,,,,,,,,,,,,,,0,0,0,0,0
6.8532,1783972886.8226,1,1,2.0000,-0.0000,1.42238,-0.01589,-2.63409,1.07932,1.57082,0.11674,-0.12759,-0.48159,0.03181,,,,,,,,,,,,,,,,,,,,,,,,,,0,0,0,0,0
6.8534,1783972886.8229,1,1,2.0000,-0.0000,1.42238,-0.01589,-2.63409,1.07932,1.57082,0.11674,-0.12759,-0.48159,0.03181,,,,,,,,,,,,,,,,,,,,,,,,,,0,0,0,0,0
