Martins-Lucaas/twinforge/sensors/Data/20260704_152528__samples.csv
t_rel_s,t_unix,cycle,phase,setpoint_n,force_net_n,q1,q2,q3,q4,q5,q6,tcp_x,tcp_y,tcp_z,taxel_0,taxel_1,taxel_2,taxel_3,taxel_4,taxel_5,taxel_6,taxel_7,taxel_8,taxel_9,taxel_10,taxel_11,taxel_12,taxel_13,taxel_14,taxel_15,taxel_16,taxel_17,taxel_18,taxel_19,taxel_20,taxel_21,taxel_22,taxel_23,taxel_24,n_RA,n_SA,cn_mm,cn_ra,cn_sa
0.0034,1783189528.2866,1,0,1.0000,0.0000,1.44682,0.23328,-2.77748,0.97337,1.57080,-0.00000,-0.14512,-0.38003,0.04653,,,,,,,,,,,,,,,,,,,,,,,,,,0,0,0,0,0
0.0039,1783189528.2870,1,0,1.0000,0.0000,1.44682,0.23328,-2.77748,0.97337,1.57080,-0.00000,-0.14512,-0.38003,0.04653,,,,,,,,,,,,,,,,,,,,,,,,,,0,0,0,0,0
0.0130,1783189528.2961,1,0,1.0000,0.0000,1.44682,0.23328,-2.77748,0.97337,1.57080,0.00000,-0.14512,-0.38003,0.04653,,,,,,,,,,,,,,,,,,,,,,,,,,0,0,0,0,0
0.0134,1783189528.2965,1,0,1.0000,0.0000,1.44682,0.23328,-2.77748,0.97337,1.57080,0.00000,-0.14512,-0.38003,0.04653,,,,,,,,,,,,,,,,,,,,,,,,,,0,0,0,0,0
0.0257,1783189528.3088,1,0,1.0000,0.0000,1.44682,0.23328,-2.77748,0.97337,1.57080,0.00000,-0.14512,-0.38003,0.04653,,,,,,,,,,,,,,,,,,,,,,,,,,0,0,0,0,0
0.0453,1783189528.3284,1,0,1.0000,0.0000,1.44682,0.23328,-2.77748,0.97337,1.57080,0.00000,-0.14512,-0.38003,0.04653,,,,,,,,,,,,,,,,,,,,,,,,,,0,0,0,0,0
0.0457,1783189528.3288,1,0,1.0000,0.0000,1.44682,0.23328,-2.77748,0.97337,1.57080,0.00000,-0.14512,-0.38003,0.04653,,,,,,,,,,,,,,,,,,,,,,,,,,0,0,0,0,0
0.0533,1783189528.3365,1,0,1.0000,0.0000,1.44682,0.23328,-2.77748,0.97337,1.57080,0.00000,-0.14512,-0.38003,0.04653,,,,,,,,,,,,,,,,,,,,,,,,,,0,0,0,0,0
0.0662,1783189528.3494,1,0,1.0000,0.0000,1.44682,0.23328,-2.77748,0.97337,1.57080,0.00000,-0.14512,-0.38003,0.04653,,,,,,,,,,,,,,,,,,,,,,,,,,0,0,0,0,0
0.0731,1783189528.3562,1,0,1.0000,0.0000,1.44682,0.23328,-2.77748,0.97337,1.57080,0.00000,-0.14512,-0.38003,0.04653,,,,,,,,,,,,,,,,,,,,,,,,,,0,0,0,0,0
0.0878,1783189528.3709,1,0,1.0000,0.0000,1.44682,0.23328,-2.77748,0.97337,1.57080,0.00000,-0.14512,-0.38003,0.04653,,,,,,,,,,,,,,,,,,,,,,,,,,0,0,0,0,0
0.1054,1783189528.3885,1,0,1.0000,0.0000,1.44682,0.23328,-2.77748,0.97337,1.57080,0.00000,-0.14512,-0.38003,0.04653,,,,,,,,,,,,,,,,,,,,,,,,,,0,0,0,0,0
0.1057,1783189528.3888,1,0,1.0000,0.0000,1.44682,0.23328,-2.77748,0.97337,1.57080,0.00000,-0.14512,-0.38003,0.04653,,,,,,,,,,,,,,,,,,,,,,,,,,0,0,0,0,0
0.1061,1783189528.3892,1,0,1.0000,0.0000,1.44682,0.23328,-2.77748,0.97337,1.57080,0.00000,-0.14512,-0.38003,0.04653,,,,,,,,,,,,,,,,,,,,,,,,,,0,0,0,0,0
0.1064,1783189528.3895,1,0,1.0000,0.0000,1.44682,0.23328,-2.77748,0.97337,1.57080,0.00000,-0.14512,-0.38003,0.04653,,,,,,,,,,,,,,,,,,,,,,,,,,0,0,0,0,0
0.1207,1783189528.4038,1,0,1.0000,0.0000,1.44682,0.23328,-2.77748,0.97337,1.57080,0.00000,-0.14512,-0.38003,0.04653,,,,,,,,,,,,,,,,,,,,,,,,,,0,0,0,0,0
0.1232,1783189528.4063,1,0,1.0000,0.0000,1.44682,0.23328,-2.77748,0.97337,1.57080,0.00000,-0.14512,-0.38003,0.04653,,,,,,,,,,,,,,,,,,,,,,,,,,0,0,0,0,0
0.1236,1783189528.4067,1,0,1.0000,0.0000,1.44682,0.23328,-2.77748,0.97337,1.57080,0.00000,-0.14512,-0.38003,0.04653,,,,,,,,,,,,,,,,,,,,,,,,,,0,0,0,0,0
0.1461,1783189528.4292,1,0,1.0000,0.0000,1.44682,0.23328,-2.77748,0.97337,1.57080,0.00000,-0.14512,-0.38003,0.04653,,,,,,,,,,,,,,,,,,,,,,,,,,0,0,0,0,0
0.1463,1783189528.4294,1,0,1.0000,0.0000,1.44682,0.23328,-2.77748,0.97337,1.57080,0.00000,-0.14512,-0.38003,0.04653,,,,,,,,,,,,,,,,,,,,,,,,,,0,0,0,0,0
0.1467,1783189528.4298,1,0,1.0000,0.0000,1.44682,0.23328,-2.77748,0.97337,1.57080,0.00000,-0.14512,-0.38003,0.04653,,,,,,,,,,,,,,,,,,,,,,,,,,0,0,0,0,0
0.1542,1783189528.4373,1,0,1.0000,0.0000,1.44682,0.23328,-2.77748,0.97337,1.57080,0.00000,-0.14512,-0.38003,0.04653,,,,,,,,,,,,,,,,,,,,,,,,,,0,0,0,0,0
0.1546,1783189528.4377,1,0,1.0000,0.0000,1.44682,0.23328,-2.77748,0.97337,1.57080,0.00000,-0.14512,-0.38003,0.04653,,,,,,,,,,,,,,,,,,,,,,,,,,0,0,0,0,0
0.1634,1783189528.4465,1,0,1.0000,0.0000,1.44682,0.23328,-2.77748,0.97337,1.57080,0.00000,-0.14512,-0.38003,0.04653,,,,,,,,,,,,,,,,,,,,,,,,,,0,0,0,0,0
0.1637,1783189528.4468,1,0,1.0000,0.0000,1.44682,0.23328,-2.77748,0.97337,1.57080,0.00000,-0.14512,-0.38003,0.04653,,,,,,,,,,,,,,,,,,,,,,,,,,0,0,0,0,0
0.1732,1783189528.4563,1,0,1.0000,0.0000,1.44682,0.23328,-2.77748,0.97337,1.57080,0.00000,-0.14512,-0.38003,0.04653,,,,,,,,,,,,,,,,,,,,,,,,,,0,0,0,0,0
0.1736,1783189528.4567,1,0,1.0000,0.0000,1.44682,0.23328,-2.77748,0.97337,1.57080,0.00000,-0.14512,-0.38003,0.04653,,,,,,,,,,,,,,,,,,,,,,,,,,0,0,0,0,0
0.1903,1783189528.4734,1,0,1.0000,0.0000,1.44682,0.23328,-2.77748,0.97337,1.57080,0.00000,-0.14512,-0.38003,0.04653,,,,,,,,,,,,,,,,,,,,,,,,,,0,0,0,0,0
0.1906,1783189528.4737,1,0,1.0000,0.0000,1.44682,0.23328,-2.77748,0.97337,1.57080,0.00000,-0.14512,-0.38003,0.04653,,,,,,,,,,,,,,,,,,,,,,,,,,0,0,0,0,0
0.1938,1783189528.4769,1,0,1.0000,0.0000,1.44682,0.23328,-2.77748,0.97337,1.57080,0.00000,-0.14512,-0.38003,0.04653,,,,,,,,,,,,,,,,,,,,,,,,,,0,0,0,0,0
0.1943,1783189528.4774,1,0,1.0000,0.0000,1.44682,0.23328,-2.77748,0.97337,1.57080,0.00000,-0.14512,-0.38003,0.04653,,,,,,,,,,,,,,,,,,,,,,,,,,0,0,0,0,0
0.2041,1783189528.4872,1,0,1.0000,0.0000,1.44682,0.23328,-2.77748,0.97337,1.57080,0.00000,-0.14512,-0.38003,0.04653,,,,,,,,,,,,,,,,,,,,,,,,,,0,0,0,0,0
0.2045,1783189528.4876,1,0,1.0000,0.0000,1.44682,0.23328,-2.77748,0.97337,1.57080,0.00000,-0.14512,-0.38003,0.04653,,,,,,,,,,,,,,,,,,,,,,,,,,0,0,0,0,0
0.2137,1783189528.4969,1,0,1.0000,0.0000,1.44682,0.23328,-2.77748,0.97337,1.57080,0.00000,-0.14512,-0.38003,0.04653,,,,,,,,,,,,,,,,,,,,,,,,,,0,0,0,0,0
0.2250,1783189528.5081,1,0,1.0000,0.0000,1.44682,0.23328,-2.77748,0.97337,1.57080,0.00000,-0.14512,-0.38003,0.04653,,,,,,,,,,,,,,,,,,,,,,,,,,0,0,0,0,0
0.2331,1783189528.5162,1,0,1.0000,0.0000,1.44682,0.23328,-2.77748,0.97337,1.57080,0.00000,-0.14512,-0.38003,0.04653,,,,,,,,,,,,,,,,,,,,,,,,,,0,0,0,0,0
0.2334,1783189528.5166,1,0,1.0000,0.0000,1.44682,0.23328,-2.77748,0.97337,1.57080,0.00000,-0.14512,-0.38003,0.04653,,,,,,,,,,,,,,,,,,,,,,,,,,0,0,0,0,0
0.2466,1783189528.5297,1,0,1.0000,0.0000,1.44682,0.23328,-2.77748,0.97337,1.57080,0.00000,-0.14512,-0.38003,0.04653,,,,,,,,,,,,,,,,,,,,,,,,,,0,0,0,0,0
0.2534,1783189528.5365,1,0,1.0000,0.0000,1.44682,0.23328,-2.77748,0.97337,1.57080,0.00000,-0.14512,-0.38003,0.04653,,,,,,,,,,,,,,,,,,,,,,,,,,0,0,0,0,0
0.2633,1783189528.5465,1,0,1.0000,0.0000,1.44682,0.23328,-2.77748,0.97337,1.57080,0.00000,-0.14512,-0.38003,0.04653,,,,,,,,,,,,,,,,,,,,,,,,,,0,0,0,0,0
0.2776,1783189528.5607,1,0,1.0000,0.0000,1.44682,0.23328,-2.77748,0.97337,1.57080,0.00000,-0.14512,-0.38003,0.04653,,,,,,,,,,,,,,,,,,,,,,,,,,0,0,0,0,0
0.2888,1783189528.5719,1,0,1.0000,0.0000,1.44682,0.23328,-2.77748,0.97337,1.57080,0.00000,-0.14512,-0.38003,0.04653,,,,,,,,,,,,,,,,,,,,,,,,,,0,0,0,0,0
0.2938,1783189528.5769,1,0,1.0000,0.0000,1.44682,0.23328,-2.77748,0.97337,1.57080,0.00000,-0.14512,-0.38003,0.04653,,,,,,,,,,,,,,,,,,,,,,,,,,0,0,0,0,0
0.2942,1783189528.5773,1,0,1.0000,0.0000,1.44682,0.23328,-2.77748,0.97337,1.57080,0.00000,-0.14512,-0.38003,0.04653,,,,,,,,,,,,,,,,,,,,,,,,,,0,0,0,0,0
0.3045,1783189528.5876,1,0,1.0000,0.0000,1.44682,0.23328,-2.77748,0.97337,1.57080,0.00000,-0.14512,-0.38003,0.04653,,,,,,,,,,,,,,,,,,,,,,,,,,0,0,0,0,0
0.3176,1783189528.6007,1,0,1.0000,0.0000,1.44682,0.23328,-2.77748,0.97337,1.57080,0.00000,-0.14512,-0.38003,0.04653,,,,,,,,,,,,,,,,,,,,,,,,,,0,0,0,0,0
0.3180,1783189528.6011,1,0,1.0000,0.0000,1.44682,0.23328,-2.77748,0.97337,1.57080,0.00000,-0.14512,-0.38003,0.04653,,,,,,,,,,,,,,,,,,,,,,,,,,0,0,0,0,0
0.3253,1783189528.6084,1,0,1.0000,0.0000,1.44682,0.23328,-2.77748,0.97337,1.57080,0.00000,-0.14512,-0.38003,0.04653,,,,,,,,,,,,,,,,,,,,,,,,,,0,0,0,0,0
0.3336,1783189528.6168,1,0,1.0000,0.0000,1.44682,0.23328,-2.77748,0.97337,1.57080,0.00000,-0.14512,-0.38003,0.04653,,,,,,,,,,,,,,,,,,,,,,,,,,0,0,0,0,0
0.3553,1783189528.6385,1,0,1.0000,0.0000,1.44682,0.23328,-2.77748,0.97337,1.57080,0.00000,-0.14512,-0.38003,0.04653,,,,,,,,,,,,,,,,,,,,,,,,,,0,0,0,0,0
0.3559,1783189528.6390,1,0,1.0000,0.0000,1.44682,0.23328,-2.77748,0.97337,1.57080,0.00000,-0.14512,-0.38003,0.04653,,,,,,,,,,,,,,,,,,,,,,,,,,0,0,0,0,0
0.3668,1783189528.6499,1,0,1.0000,0.0000,1.44682,0.23328,-2.77748,0.97337,1.57080,0.00000,-0.14512,-0.38003,0.04653,,,,,,,,,,,,,,,,,,,,,,,,,,0,0,0,0,0
0.3772,1783189528.6603,1,0,1.0000,0.0000,1.44682,0.23328,-2.77748,0.97337,1.57080,0.00000,-0.14512,-0.38003,0.04653,,,,,,,,,,,,,,,,,,,,,,,,,,0,0,0,0,0
0.3777,1783189528.6608,1,0,1.0000,0.0000,1.44682,0.23328,-2.77748,0.97337,1.57080,0.00000,-0.14512,-0.38003,0.04653,,,,,,,,,,,,,,,,,,,,,,,,,,0,0,0,0,0
0.3957,1783189528.6788,1,0,1.0000,0.0000,1.44682,0.23328,-2.77748,0.97337,1.57080,0.00000,-0.14512,-0.38003,0.04653,,,,,,,,,,,,,,,,,,,,,,,,,,0,0,0,0,0
0.3972,1783189528.6803,1,0,1.0000,0.0000,1.44682,0.23328,-2.77748,0.97337,1.57080,0.00000,-0.14512,-0.38003,0.04653,,,,,,,,,,,,,,,,,,,,,,,,,,0,0,0,0,0
0.3976,1783189528.6807,1,0,1.0000,0.0000,1.44682,0.23328,-2.77748,0.97337,1.57080,0.00000,-0.14512,-0.38003,0.04653,,,,,,,,,,,,,,,,,,,,,,,,,,0,0,0,0,0
0.4162,1783189528.6994,1,0,1.0000,0.0000,1.44682,0.23328,-2.77748,0.97337,1.57080,0.00000,-0.14512,-0.38003,0.04653,,,,,,,,,,,,,,,,,,,,,,,,,,0,0,0,0,0
0.4173,1783189528.7004,1,0,1.0000,0.0000,1.44682,0.23328,-2.77748,0.97337,1.57080,0.00000,-0.14512,-0.38003,0.04653,,,,,,,,,,,,,,,,,,,,,,,,,,0,0,0,0,0
0.4176,1783189528.7007,1,0,1.0000,0.0000,1.44682,0.23328,-2.77748,0.97337,1.57080,0.00000,-0.14512,-0.38003,0.04653,,,,,,,,,,,,,,,,,,,,,,,,,,0,0,0,0,0
0.4253,1783189528.7084,1,0,1.0000,0.0000,1.44682,0.23328,-2.77748,0.97337,1.57080,0.00000,-0.14512,-0.38003,0.04653,,,,,,,,,,,,,,,,,,,,,,,,,,0,0,0,0,0
0.4256,1783189528.7088,1,0,1.0000,0.0000,1.44682,0.23328,-2.77748,0.97337,1.57080,0.00000,-0.14512,-0.38003,0.04653,,,,,,,,,,,,,,,,,,,,,,,,,,0,0,0,0,0
0.4332,1783189528.7163,1,0,1.0000,0.0000,1.44682,0.23328,-2.77748,0.97337,1.57080,0.00000,-0.14512,-0.38003,0.04653,,,,,,,,,,,,,,,,,,,,,,,,,,0,0,0,0,0
0.4335,1783189528.7166,1,0,1.0000,0.0000,1.44682,0.23328,-2.77748,0.97337,1.57080,0.00000,-0.14512,-0.38003,0.04653,,,,,,,,,,,,,,,,,,,,,,,,,,0,0,0,0,0
0.4564,1783189528.7395,1,0,1.0000,0.0000,1.44682,0.23328,-2.77748,0.97337,1.57080,0.00000,-0.14512,-0.38003,0.04653,,,,,,,,,,,,,,,,,,,,,,,,,,0,0,0,0,0
0.4591,1783189528.7423,1,0,1.0000,0.0000,1.44682,0.23328,-2.77748,0.97337,1.57080,0.00000,-0.14512,-0.38003,0.04653,,,,,,,,,,,,,,,,,,,,,,,,,,0,0,0,0,0
0.4596,1783189528.7427,1,0,1.0000,0.0000,1.44682,0.23328,-2.77748,0.97337,1.57080,0.00000,-0.14512,-0.38003,0.04653,,,,,,,,,,,,,,,,,,,,,,,,,,0,0,0,0,0
0.4647,1783189528.7478,1,0,1.0000,0.0000,1.44682,0.23328,-2.77748,0.97337,1.57080,0.00000,-0.14512,-0.38003,0.04653,,,,,,,,,,,,,,,,,,,,,,,,,,0,0,0,0,0
0.4655,1783189528.7486,1,0,1.0000,0.0000,1.44682,0.23328,-2.77748,0.97337,1.57080,0.00000,-0.14512,-0.38003,0.04653,,,,,,,,,,,,,,,,,,,,,,,,,,0,0,0,0,0
0.4824,1783189528.7655,1,0,1.0000,0.0000,1.44682,0.23328,-2.77748,0.97337,1.57080,0.00000,-0.14512,-0.38003,0.04653,,,,,,,,,,,,,,,,,,,,,,,,,,0,0,0,0,0
0.4895,1783189528.7726,1,0,1.0000,0.0000,1.44682,0.23328,-2.77748,0.97337,1.57080,0.00000,-0.14512,-0.38003,0.04653,,,,,,,,,,,,,,,,,,,,,,,,,,0,0,0,0,0
0.5012,1783189528.7844,1,0,1.0000,0.0000,1.44682,0.23328,-2.77748,0.97337,1.57080,0.00000,-0.14512,-0.38003,0.04653,,,,,,,,,,,,,,,,,,,,,,,,,,0,0,0,0,0
0.5126,1783189528.7957,1,0,1.0000,0.0000,1.44682,0.23328,-2.77748,0.97337,1.57080,0.00000,-0.14512,-0.38003,0.04653,,,,,,,,,,,,,,,,,,,,,,,,,,0,0,0,0,0
0.5189,1783189528.8020,1,0,1.0000,0.0000,1.44682,0.23328,-2.77748,0.97337,1.57080,0.00000,-0.14512,-0.38003,0.04653,,,,,,,,,,,,,,,,,,,,,,,,,,0,0,0,0,0
0.5300,1783189528.8131,1,0,1.0000,0.0000,1.44682,0.23328,-2.77748,0.97337,1.57080,0.00000,-0.14512,-0.38003,0.04653,,,,,,,,,,,,,,,,,,,,,,,,,,0,0,0,0,0
0.5304,1783189528.8135,1,0,1.0000,0.0000,1.44682,0.23328,-2.77748,0.97337,1.57080,0.00000,-0.14512,-0.38003,0.04653,,,,,,,,,,,,,,,,,,,,,,,,,,0,0,0,0,0
0.5375,1783189528.8206,1,0,1.0000,0.0000,1.44682,0.23328,-2.77748,0.97337,1.57080,0.00000,-0.14512,-0.38003,0.04653,,,,,,,,,,,,,,,,,,,,,,,,,,0,0,0,0,0
0.5378,1783189528.8209,1,0,1.0000,0.0000,1.44682,0.23328,-2.77748,0.97337,1.57080,0.00000,-0.14512,-0.38003,0.04653,,,,,,,,,,,,,,,,,,,,,,,,,,0,0,0,0,0
0.5516,1783189528.8347,1,0,1.0000,0.0000,1.44682,0.23328,-2.77748,0.97337,1.57080,0.00000,-0.14512,-0.38003,0.04653,,,,,,,,,,,,,,,,,,,,,,,,,,0,0,0,0,0
0.5606,1783189528.8437,1,0,1.0000,0.0000,1.44682,0.23328,-2.77748,0.97337,1.57080,0.00000,-0.14512,-0.38003,0.04653,,,,,,,,,,,,,,,,,,,,,,,,,,0,0,0,0,0
0.5694,1783189528.8525,1,0,1.0000,0.0000,1.44682,0.23328,-2.77748,0.97337,1.57080,0.00000,-0.14512,-0.38003,0.04653,,,,,,,,,,,,,,,,,,,,,,,,,,0,0,0,0,0
0.5790,1783189528.8622,1,0,1.0000,0.0000,1.44682,0.23328,-2.77748,0.97337,1.57080,0.00000,-0.14512,-0.38003,0.04653,,,,,,,,,,,,,,,,,,,,,,,,,,0,0,0,0,0
0.5796,1783189528.8627,1,0,1.0000,0.0000,1.44682,0.23328,-2.77748,0.97337,1.57080,0.00000,-0.14512,-0.38003,0.04653,,,,,,,,,,,,,,,,,,,,,,,,,,0,0,0,0,0
0.6022,1783189528.8853,1,0,1.0000,0.0000,1.44682,0.23328,-2.77748,0.97337,1.57080,0.00000,-0.14512,-0.38003,0.04653,,,,,,,,,,,,,,,,,,,,,,,,,,0,0,0,0,0
0.6025,1783189528.8856,1,0,1.0000,0.0000,1.44682,0.23328,-2.77748,0.97337,1.57080,0.00000,-0.14512,-0.38003,0.04653,,,,,,,,,,,,,,,,,,,,,,,,,,0,0,0,0,0
0.6119,1783189528.8950,1,0,1.0000,0.0000,1.44682,0.23328,-2.77748,0.97337,1.57080,0.00000,-0.14512,-0.38003,0.04653,,,,,,,,,,,,,,,,,,,,,,,,,,0,0,0,0,0
0.6176,1783189528.9007,1,0,1.0000,0.0000,1.44682,0.23328,-2.77748,0.97337,1.57080,0.00000,-0.14512,-0.38003,0.04653,,,,,,,,,,,,,,,,,,,,,,,,,,0,0,0,0,0
0.6277,1783189528.9109,1,0,1.0000,0.0000,1.44682,0.23328,-2.77748,0.97337,1.57080,0.00000,-0.14512,-0.38003,0.04653,,,,,,,,,,,,,,,,,,,,,,,,,,0,0,0,0,0
0.6280,1783189528.9111,1,0,1.0000,0.0000,1.44682,0.23328,-2.77748,0.97337,1.57080,0.00000,-0.14512,-0.38003,0.04653,,,,,,,,,,,,,,,,,,,,,,,,,,0,0,0,0,0
0.6376,1783189528.9207,1,0,1.0000,0.0000,1.44682,0.23328,-2.77748,0.97337,1.57080,0.00000,-0.14512,-0.38003,0.04653,,,,,,,,,,,,,,,,,,,,,,,,,,0,0,0,0,0
0.7647,1783189529.0478,1,1,1.0000,0.0000,1.44682,0.23328,-2.77748,0.97337,1.57080,0.00000,-0.14512,-0.38003,0.04653,,,,,,,,,,,,,,,,,,,,,,,,,,0,0,0,0,0
0.7652,1783189529.0483,1,1,1.0000,0.0000,1.44682,0.23328,-2.77748,0.97337,1.57080,0.00000,-0.14512,-0.38003,0.04653,,,,,,,,,,,,,,,,,,,,,,,,,,0,0,0,0,0
0.7659,1783189529.0490,1,1,1.0000,0.0000,1.44682,0.23328,-2.77748,0.97337,1.57080,0.00000,-0.14512,-0.38003,0.04653,,,,,,,,,,,,,,,,,,,,,,,,,,0,0,0,0,0
0.7663,1783189529.0494,1,1,1.0000,0.0000,1.44682,0.23328,-2.77748,0.97337,1.57080,0.00000,-0.14512,-0.38003,0.04653,,,,,,,,,,,,,,,,,,,,,,,,,,0,0,0,0,0
0.7668,1783189529.0499,1,1,1.0000,0.0000,1.44682,0.23328,-2.77748,0.97337,1.57080,0.00000,-0.14512,-0.38003,0.04653,,,,,,,,,,,,,,,,,,,,,,,,,,0,0,0,0,0
0.7671,1783189529.0502,1,1,1.0000,0.0000,1.44682,0.23328,-2.77748,0.97337,1.57080,0.00000,-0.14512,-0.38003,0.04653,,,,,,,,,,,,,,,,,,,,,,,,,,0,0,0,0,0
0.8009,1783189529.0840,1,1,1.0000,0.0000,1.44682,0.23328,-2.77748,0.97337,1.57080,0.00000,-0.14512,-0.38003,0.04653,,,,,,,,,,,,,,,,,,,,,,,,,,0,0,0,0,0
0.8019,1783189529.0851,1,1,1.0000,0.0000,1.44682,0.23328,-2.77748,0.97337,1.57080,0.00000,-0.14512,-0.38003,0.04653,,,,,,,,,,,,,,,,,,,,,,,,,,0,0,0,0,0
0.8081,1783189529.0912,1,1,1.0000,0.0000,1.44682,0.23328,-2.77748,0.97337,1.57080,0.00000,-0.14512,-0.38003,0.04653,,,,,,,,,,,,,,,,,,,,,,,,,,0,0,0,0,0
0.8084,1783189529.0915,1,1,1.0000,0.0000,1.44682,0.23328,-2.77748,0.97337,1.57080,0.00000,-0.14512,-0.38003,0.04653,,,,,,,,,,,,,,,,,,,,,,,,,,0,0,0,0,0
0.8194,1783189529.1025,1,1,1.0000,0.0000,1.44682,0.23328,-2.77748,0.97337,1.57080,0.00000,-0.14512,-0.38003,0.04653,,,,,,,,,,,,,,,,,,,,,,,,,,0,0,0,0,0
0.8197,1783189529.1028,1,1,1.0000,0.0000,1.44682,0.23328,-2.77748,0.97337,1.57080,0.00000,-0.14512,-0.38003,0.04653,,,,,,,,,,,,,,,,,,,,,,,,,,0,0,0,0,0
0.8292,1783189529.1123,1,1,1.0000,0.0000,1.44682,0.23328,-2.77748,0.97337,1.57080,0.00000,-0.14512,-0.38003,0.04653,,,,,,,,,,,,,,,,,,,,,,,,,,0,0,0,0,0
0.8300,1783189529.1131,1,1,1.0000,0.0000,1.44682,0.23328,-2.77748,0.97337,1.57080,0.00000,-0.14512,-0.38003,0.04653,,,,,,,,,,,,,,,,,,,,,,,,,,0,0,0,0,0
0.8417,1783189529.1248,1,1,1.0000,0.0000,1.44682,0.23328,-2.77748,0.97337,1.57080,0.00000,-0.14512,-0.38003,0.04653,,,,,,,,,,,,,,,,,,,,,,,,,,0,0,0,0,0
0.8419,1783189529.1250,1,1,1.0000,0.0000,1.44682,0.23328,-2.77748,0.97337,1.57080,0.00000,-0.14512,-0.38003,0.04653,,,,,,,,,,,,,,,,,,,,,,,,,,0,0,0,0,0
0.8482,1783189529.1313,1,1,1.0000,0.0000,1.44682,0.23328,-2.77748,0.97337,1.57080,0.00000,-0.14512,-0.38003,0.04653,,,,,,,,,,,,,,,,,,,,,,,,,,0,0,0,0,0
0.8485,1783189529.1317,1,1,1.0000,0.0000,1.44682,0.23328,-2.77748,0.97337,1.57080,0.00000,-0.14512,-0.38003,0.04653,,,,,,,,,,,,,,,,,,,,,,,,,,0,0,0,0,0
0.8592,1783189529.1423,1,1,1.0000,0.0000,1.44682,0.23328,-2.77748,0.97337,1.57080,0.00000,-0.14512,-0.38003,0.04653,,,,,,,,,,,,,,,,,,,,,,,,,,0,0,0,0,0
0.8676,1783189529.1508,1,1,1.0000,0.0000,1.44682,0.23328,-2.77748,0.97337,1.57080,0.00000,-0.14512,-0.38003,0.04653,,,,,,,,,,,,,,,,,,,,,,,,,,0,0,0,0,0
0.8784,1783189529.1615,1,1,1.0000,0.0000,1.44682,0.23328,-2.77748,0.97337,1.57080,0.00000,-0.14512,-0.38003,0.04653,,,,,,,,,,,,,,,,,,,,,,,,,,0,0,0,0,0
0.8874,1783189529.1705,1,1,1.0000,0.0000,1.44682,0.23328,-2.77748,0.97337,1.57080,0.00000,-0.14512,-0.38003,0.04653,,,,,,,,,,,,,,,,,,,,,,,,,,0,0,0,0,0
0.9108,1783189529.1940,1,1,1.0000,0.0000,1.44682,0.23328,-2.77748,0.97337,1.57080,0.00000,-0.14512,-0.38003,0.04653,,,,,,,,,,,,,,,,,,,,,,,,,,0,0,0,0,0
0.9121,1783189529.1952,1,1,1.0000,0.0000,1.44682,0.23328,-2.77748,0.97337,1.57080,0.00000,-0.14512,-0.38003,0.04653,,,,,,,,,,,,,,,,,,,,,,,,,,0,0,0,0,0
0.9198,1783189529.2030,1,1,1.0000,0.0000,1.44682,0.23328,-2.77748,0.97337,1.57080,0.00000,-0.14512,-0.38003,0.04653,,,,,,,,,,,,,,,,,,,,,,,,,,0,0,0,0,0
0.9291,1783189529.2122,1,1,1.0000,0.0000,1.44682,0.23326,-2.77748,0.97339,1.57080,0.00000,-0.14512,-0.38003,0.04652,,,,,,,,,,,,,,,,,,,,,,,,,,0,0,0,0,0
0.9421,1783189529.2252,1,1,1.0000,0.0000,1.44682,0.23301,-2.77755,0.97371,1.57080,0.00000,-0.14512,-0.38003,0.04646,,,,,,,,,,,,,,,,,,,,,,,,,,0,0,0,0,0
0.9423,1783189529.2255,1,1,1.0000,0.0000,1.44682,0.23301,-2.77755,0.97371,1.57080,0.00000,-0.14512,-0.38003,0.04646,,,,,,,,,,,,,,,,,,,,,,,,,,0,0,0,0,0
0.9475,1783189529.2306,1,1,1.0000,0.0000,1.44682,0.23293,-2.77757,0.97381,1.57080,0.00000,-0.14512,-0.38003,0.04644,,,,,,,,,,,,,,,,,,,,,,,,,,0,0,0,0,0
0.9658,1783189529.2490,1,1,1.0000,0.0000,1.44682,0.23278,-2.77761,0.97400,1.57080,0.00000,-0.14512,-0.38003,0.04640,,,,,,,,,,,,,,,,,,,,,,,,,,0,0,0,0,0
0.9787,1783189529.2618,1,1,1.0000,0.0000,1.44682,0.23258,-2.77766,0.97425,1.57080,0.00000,-0.14512,-0.38003,0.04635,,,,,,,,,,,,,,,,,,,,,,,,,,0,0,0,0,0
0.9794,1783189529.2626,1,1,1.0000,0.0000,1.44682,0.23258,-2.77766,0.97425,1.57080,0.00000,-0.14512,-0.38003,0.04635,,,,,,,,,,,,,,,,,,,,,,,,,,0,0,0,0,0
0.9798,1783189529.2629,1,1,1.0000,0.0000,1.44682,0.23258,-2.77766,0.97425,1.57080,0.00000,-0.14512,-0.38003,0.04635,,,,,,,,,,,,,,,,,,,,,,,,,,0,0,0,0,0
0.9899,1783189529.2731,1,1,1.0000,0.0000,1.44682,0.23254,-2.77767,0.97430,1.57080,0.00000,-0.14512,-0.38003,0.04633,,,,,,,,,,,,,,,,,,,,,,,,,,0,0,0,0,0
0.9993,1783189529.2824,1,1,1.0000,0.0000,1.44682,0.23243,-2.77770,0.97444,1.57080,0.00000,-0.14512,-0.38003,0.04631,,,,,,,,,,,,,,,,,,,,,,,,,,0,0,0,0,0
1.0083,1783189529.2914,1,1,1.0000,0.0000,1.44682,0.23229,-2.77773,0.97461,1.57080,0.00000,-0.14512,-0.38003,0.04627,,,,,,,,,,,,,,,,,,,,,,,,,,0,0,0,0,0
1.0178,1783189529.3009,1,1,1.0000,0.0000,1.44682,0.23225,-2.77774,0.97467,1.57080,0.00000,-0.14512,-0.38003,0.04626,,,,,,,,,,,,,,,,,,,,,,,,,,0,0,0,0,0
1.0275,1783189529.3107,1,1,1.0000,0.0000,1.44682,0.23214,-2.77777,0.97480,1.57080,0.00000,-0.14512,-0.38003,0.04623,,,,,,,,,,,,,,,,,,,,,,,,,,0,0,0,0,0
1.0505,1783189529.3336,1,1,1.0000,0.0000,1.44682,0.23189,-2.77784,0.97512,1.57080,0.00000,-0.14512,-0.38003,0.04616,,,,,,,,,,,,,,,,,,,,,,,,,,0,0,0,0,0
1.0510,1783189529.3341,1,1,1.0000,0.0000,1.44682,0.23189,-2.77784,0.97512,1.57080,0.00000,-0.14512,-0.38003,0.04616,,,,,,,,,,,,,,,,,,,,,,,,,,0,0,0,0,0
1.0631,1783189529.3462,1,1,1.0000,0.0000,1.44682,0.23171,-2.77788,0.97534,1.57080,0.00000,-0.14512,-0.38003,0.04612,,,,,,,,,,,,,,,,,,,,,,,,,,0,0,0,0,0
1.0743,1783189529.3574,1,1,1.0000,0.0000,1.44682,0.23163,-2.77790,0.97544,1.57080,0.00000,-0.14512,-0.38003,0.04610,,,,,,,,,,,,,,,,,,,,,,,,,,0,0,0,0,0
1.0802,1783189529.3634,1,1,1.0000,0.0000,1.44682,0.23160,-2.77791,0.97548,1.57080,0.00000,-0.14512,-0.38003,0.04609,,,,,,,,,,,,,,,,,,,,,,,,,,0,0,0,0,0
1.0807,1783189529.3638,1,1,1.0000,0.0000,1.44682,0.23160,-2.77791,0.97548,1.57080,0.00000,-0.14512,-0.38003,0.04609,,,,,,,,,,,,,,,,,,,,,,,,,,0,0,0,0,0
1.0888,1783189529.3719,1,1,1.0000,0.0000,1.44682,0.23149,-2.77794,0.97562,1.57080,0.00000,-0.14512,-0.38003,0.04606,,,,,,,,,,,,,,,,,,,,,,,,,,0,0,0,0,0
1.0893,1783189529.3724,1,1,1.0000,0.0000,1.44682,0.23149,-2.77794,0.97562,1.57080,0.00000,-0.14512,-0.38003,0.04606,,,,,,,,,,,,,,,,,,,,,,,,,,0,0,0,0,0
1.0978,1783189529.3809,1,1,1.0000,0.0000,1.44682,0.23129,-2.77799,0.97587,1.57080,0.00000,-0.14512,-0.38003,0.04601,,,,,,,,,,,,,,,,,,,,,,,,,,0,0,0,0,0
1.1120,1783189529.3952,1,1,1.0000,0.0000,1.44682,0.23124,-2.77800,0.97593,1.57080,0.00000,-0.14512,-0.38003,0.04600,,,,,,,,,,,,,,,,,,,,,,,,,,0,0,0,0,0
1.1272,1783189529.4103,1,1,1.0000,0.0000,1.44682,0.23099,-2.77807,0.97624,1.57080,0.00000,-0.14512,-0.38003,0.04593,,,,,,,,,,,,,,,,,,,,,,,,,,0,0,0,0,0
1.1275,1783189529.4106,1,1,1.0000,0.0000,1.44682,0.23099,-2.77807,0.97624,1.57080,0.00000,-0.14512,-0.38003,0.04593,,,,,,,,,,,,,,,,,,,,,,,,,,0,0,0,0,0
1.1298,1783189529.4129,1,1,1.0000,0.0000,1.44682,0.23093,-2.77808,0.97633,1.57080,0.00000,-0.14512,-0.38003,0.04591,,,,,,,,,,,,,,,,,,,,,,,,,,0,0,0,0,0
1.1381,1783189529.4212,1,1,1.0000,0.0000,1.44682,0.23092,-2.77808,0.97634,1.57080,0.00000,-0.14512,-0.38003,0.04591,,,,,,,,,,,,,,,,,,,,,,,,,,0,0,0,0,0
1.1481,1783189529.4312,1,1,1.0000,0.0000,1.44682,0.23086,-2.77810,0.97641,1.57080,0.00000,-0.14512,-0.38003,0.04590,,,,,,,,,,,,,,,,,,,,,,,,,,0,0,0,0,0
1.1708,1783189529.4539,1,1,1.0000,0.0000,1.44682,0.23065,-2.77815,0.97667,1.57080,0.00000,-0.14512,-0.38003,0.04584,,,,,,,,,,,,,,,,,,,,,,,,,,0,0,0,0,0
1.1711,1783189529.4543,1,1,1.0000,0.0000,1.44682,0.23065,-2.77815,0.97667,1.57080,0.00000,-0.14512,-0.38003,0.04584,,,,,,,,,,,,,,,,,,,,,,,,,,0,0,0,0,0
1.1791,1783189529.4623,1,1,1.0000,0.0000,1.44682,0.23054,-2.77818,0.97681,1.57080,0.00000,-0.14512,-0.38003,0.04581,,,,,,,,,,,,,,,,,,,,,,,,,,0,0,0,0,0
1.1884,1783189529.4715,1,1,1.0000,0.0000,1.44682,0.23040,-2.77822,0.97699,1.57080,0.00000,-0.14512,-0.38003,0.04578,,,,,,,,,,,,,,,,,,,,,,,,,,0,0,0,0,0
1.1984,1783189529.4816,1,1,1.0000,0.0000,1.44682,0.23032,-2.77824,0.97708,1.57080,0.00000,-0.14512,-0.38003,0.04576,,,,,,,,,,,,,,,,,,,,,,,,,,0,0,0,0,0
1.2111,1783189529.4942,1,1,1.0000,0.0000,1.44682,0.23022,-2.77826,0.97722,1.57080,0.00000,-0.14512,-0.38003,0.04573,,,,,,,,,,,,,,,,,,,,,,,,,,0,0,0,0,0
1.2115,1783189529.4946,1,1,1.0000,0.0000,1.44682,0.23022,-2.77826,0.97722,1.57080,0.00000,-0.14512,-0.38003,0.04573,,,,,,,,,,,,,,,,,,,,,,,,,,0,0,0,0,0
1.2198,1783189529.5029,1,1,1.0000,0.0000,1.44682,0.23010,-2.77829,0.97736,1.57080,0.00000,-0.14512,-0.38003,0.04570,,,,,,,,,,,,,,,,,,,,,,,,,,0,0,0,0,0
1.2203,1783189529.5034,1,1,1.0000,0.0000,1.44682,0.23010,-2.77829,0.97736,1.57080,0.00000,-0.14512,-0.38003,0.04570,,,,,,,,,,,,,,,,,,,,,,,,,,0,0,0,0,0
1.2322,1783189529.5153,1,1,1.0000,0.0000,1.44682,0.23006,-2.77831,0.97742,1.57080,0.00000,-0.14512,-0.38003,0.04569,,,,,,,,,,,,,,,,,,,,,,,,,,0,0,0,0,0
1.2382,1783189529.5213,1,1,1.0000,0.0000,1.44682,0.22994,-2.77833,0.97756,1.57080,0.00000,-0.14512,-0.38003,0.04566,,,,,,,,,,,,,,,,,,,,,,,,,,0,0,0,0,0
1.2385,1783189529.5217,1,1,1.0000,0.0000,1.44682,0.22994,-2.77833,0.97756,1.57080,0.00000,-0.14512,-0.38003,0.04566,,,,,,,,,,,,,,,,,,,,,,,,,,0,0,0,0,0
1.2512,1783189529.5343,1,1,1.0000,0.0000,1.44682,0.22974,-2.77839,0.97782,1.57080,0.00000,-0.14512,-0.38003,0.04560,,,,,,,,,,,,,,,,,,,,,,,,,,0,0,0,0,0
1.2581,1783189529.5413,1,1,1.0000,0.0000,1.44682,0.22973,-2.77839,0.97783,1.57080,0.00000,-0.14512,-0.38003,0.04560,,,,,,,,,,,,,,,,,,,,,,,,,,0,0,0,0,0
1.2832,1783189529.5664,1,1,1.0000,0.0000,1.44682,0.22951,-2.77845,0.97811,1.57080,0.00000,-0.14512,-0.38003,0.04554,,,,,,,,,,,,,,,,,,,,,,,,,,0,0,0,0,0
1.2836,1783189529.5667,1,1,1.0000,0.0000,1.44682,0.22951,-2.77845,0.97811,1.57080,0.00000,-0.14512,-0.38003,0.04554,,,,,,,,,,,,,,,,,,,,,,,,,,0,0,0,0,0
1.3200,1783189529.6031,1,1,1.0000,0.0000,1.44682,0.22913,-2.77854,0.97858,1.57080,0.00000,-0.14512,-0.38003,0.04545,,,,,,,,,,,,,,,,,,,,,,,,,,0,0,0,0,0
1.3224,1783189529.6055,1,1,1.0000,0.0000,1.44682,0.22911,-2.77855,0.97861,1.57080,0.00000,-0.14512,-0.38003,0.04544,,,,,,,,,,,,,,,,,,,,,,,,,,0,0,0,0,0
1.3229,1783189529.6060,1,1,1.0000,0.0000,1.44682,0.22911,-2.77855,0.97861,1.57080,0.00000,-0.14512,-0.38003,0.04544,,,,,,,,,,,,,,,,,,,,,,,,,,0,0,0,0,0
1.3233,1783189529.6065,1,1,1.0000,0.0000,1.44682,0.22911,-2.77855,0.97861,1.57080,0.00000,-0.14512,-0.38003,0.04544,,,,,,,,,,,,,,,,,,,,,,,,,,0,0,0,0,0
1.3468,1783189529.6299,1,1,1.0000,0.0000,1.44682,0.22890,-2.77860,0.97887,1.57080,0.00000,-0.14512,-0.38003,0.04539,,,,,,,,,,,,,,,,,,,,,,,,,,0,0,0,0,0
1.3494,1783189529.6325,1,1,1.0000,0.0000,1.44682,0.22890,-2.77860,0.97887,1.57080,0.00000,-0.14512,-0.38003,0.04539,,,,,,,,,,,,,,,,,,,,,,,,,,0,0,0,0,0
1.3751,1783189529.6582,1,1,1.0000,0.0000,1.44682,0.22854,-2.77869,0.97932,1.57080,0.00000,-0.14512,-0.38003,0.04529,,,,,,,,,,,,,,,,,,,,,,,,,,0,0,0,0,0
1.3755,1783189529.6586,1,1,1.0000,0.0000,1.44682,0.22854,-2.77869,0.97932,1.57080,0.00000,-0.14512,-0.38003,0.04529,,,,,,,,,,,,,,,,,,,,,,,,,,0,0,0,0,0
1.3757,1783189529.6588,1,1,1.0000,0.0000,1.44682,0.22854,-2.77869,0.97932,1.57080,0.00000,-0.14512,-0.38003,0.04529,,,,,,,,,,,,,,,,,,,,,,,,,,0,0,0,0,0
1.3761,1783189529.6592,1,1,1.0000,0.0000,1.44682,0.22854,-2.77869,0.97932,1.57080,0.00000,-0.14512,-0.38003,0.04529,,,,,,,,,,,,,,,,,,,,,,,,,,0,0,0,0,0
1.3764,1783189529.6595,1,1,1.0000,0.0000,1.44682,0.22854,-2.77869,0.97932,1.57080,0.00000,-0.14512,-0.38003,0.04529,,,,,,,,,,,,,,,,,,,,,,,,,,0,0,0,0,0
1.3786,1783189529.6617,1,1,1.0000,0.0000,1.44682,0.22854,-2.77869,0.97933,1.57080,0.00000,-0.14512,-0.38003,0.04529,,,,,,,,,,,,,,,,,,,,,,,,,,0,0,0,0,0
1.3788,1783189529.6620,1,1,1.0000,0.0000,1.44682,0.22854,-2.77869,0.97933,1.57080,0.00000,-0.14512,-0.38003,0.04529,,,,,,,,,,,,,,,,,,,,,,,,,,0,0,0,0,0
1.3875,1783189529.6707,1,1,1.0000,0.0000,1.44682,0.22848,-2.77871,0.97940,1.57080,0.00000,-0.14512,-0.38003,0.04527,,,,,,,,,,,,,,,,,,,,,,,,,,0,0,0,0,0
1.3879,1783189529.6710,1,1,1.0000,0.0000,1.44682,0.22848,-2.77871,0.97940,1.57080,0.00000,-0.14512,-0.38003,0.04527,,,,,,,,,,,,,,,,,,,,,,,,,,0,0,0,0,0
1.3999,1783189529.6831,1,1,1.0000,0.0000,1.44682,0.22832,-2.77875,0.97960,1.57080,0.00000,-0.14512,-0.38003,0.04523,,,,,,,,,,,,,,,,,,,,,,,,,,0,0,0,0,0
1.4003,1783189529.6834,1,1,1.0000,0.0000,1.44682,0.22832,-2.77875,0.97960,1.57080,0.00000,-0.14512,-0.38003,0.04523,,,,,,,,,,,,,,,,,,,,,,,,,,0,0,0,0,0
1.4077,1783189529.6908,1,1,1.0000,0.0000,1.44682,0.22830,-2.77875,0.97962,1.57080,0.00000,-0.14512,-0.38003,0.04523,,,,,,,,,,,,,,,,,,,,,,,,,,0,0,0,0,0
1.4188,1783189529.7019,1,1,1.0000,0.0000,1.44682,0.22816,-2.77879,0.97980,1.57080,0.00000,-0.14512,-0.38003,0.04519,,,,,,,,,,,,,,,,,,,,,,,,,,0,0,0,0,0
1.4278,1783189529.7109,1,1,1.0000,0.0000,1.44682,0.22802,-2.77883,0.97998,1.57080,0.00000,-0.14512,-0.38003,0.04516,,,,,,,,,,,,,,,,,,,,,,,,,,0,0,0,0,0
1.4281,1783189529.7112,1,1,1.0000,0.0000,1.44682,0.22802,-2.77883,0.97998,1.57080,0.00000,-0.14512,-0.38003,0.04516,,,,,,,,,,,,,,,,,,,,,,,,,,0,0,0,0,0
1.4385,1783189529.7216,1,1,1.0000,0.0000,1.44682,0.22794,-2.77885,0.98008,1.57080,0.00000,-0.14512,-0.38003,0.04514,,,,,,,,,,,,,,,,,,,,,,,,,,0,0,0,0,0
1.4510,1783189529.7341,1,1,1.0000,0.0000,1.44682,0.22783,-2.77887,0.98021,1.57080,0.00000,-0.14512,-0.38003,0.04511,,,,,,,,,,,,,,,,,,,,,,,,,,0,0,0,0,0
1.4580,1783189529.7411,1,1,1.0000,0.0000,1.44682,0.22772,-2.77890,0.98035,1.57080,0.00000,-0.14512,-0.38003,0.04508,,,,,,,,,,,,,,,,,,,,,,,,,,0,0,0,0,0
1.4754,1783189529.7585,1,1,1.0000,0.0000,1.44682,0.22762,-2.77893,0.98047,1.57080,0.00000,-0.14512,-0.38003,0.04505,,,,,,,,,,,,,,,,,,,,,,,,,,0,0,0,0,0
1.4783,1783189529.7614,1,1,1.0000,0.0000,1.44682,0.22756,-2.77894,0.98055,1.57080,0.00000,-0.14512,-0.38003,0.04504,,,,,,,,,,,,,,,,,,,,,,,,,,0,0,0,0,0
1.4787,1783189529.7618,1,1,1.0000,0.0000,1.44682,0.22756,-2.77894,0.98055,1.57080,0.00000,-0.14512,-0.38003,0.04504,,,,,,,,,,,,,,,,,,,,,,,,,,0,0,0,0,0
1.4946,1783189529.7777,1,1,1.0000,0.0000,1.44682,0.22735,-2.77900,0.98082,1.57080,0.00000,-0.14512,-0.38003,0.04498,,,,,,,,,,,,,,,,,,,,,,,,,,0,0,0,0,0
1.4950,1783189529.7781,1,1,1.0000,0.0000,1.44682,0.22735,-2.77900,0.98082,1.57080,0.00000,-0.14512,-0.38003,0.04498,,,,,,,,,,,,,,,,,,,,,,,,,,0,0,0,0,0
1.4986,1783189529.7817,1,1,1.0000,0.0000,1.44682,0.22734,-2.77900,0.98083,1.57080,0.00000,-0.14512,-0.38003,0.04498,,,,,,,,,,,,,,,,,,,,,,,,,,0,0,0,0,0
1.5072,1783189529.7904,1,1,1.0000,0.0000,1.44682,0.22728,-2.77901,0.98090,1.57080,0.00000,-0.14512,-0.38003,0.04496,,,,,,,,,,,,,,,,,,,,,,,,,,0,0,0,0,0
1.5076,1783189529.7907,1,1,1.0000,0.0000,1.44682,0.22728,-2.77901,0.98090,1.57080,0.00000,-0.14512,-0.38003,0.04496,,,,,,,,,,,,,,,,,,,,,,,,,,0,0,0,0,0
1.5265,1783189529.8096,1,1,1.0000,0.0000,1.44682,0.22711,-2.77906,0.98112,1.57080,0.00001,-0.14512,-0.38003,0.04492,,,,,,,,,,,,,,,,,,,,,,,,,,0,0,0,0,0
1.5393,1783189529.8224,1,1,1.0000,0.0000,1.44682,0.22696,-2.77909,0.98130,1.57080,0.00001,-0.14512,-0.38003,0.04488,,,,,,,,,,,,,,,,,,,,,,,,,,0,0,0,0,0
1.5414,1783189529.8245,1,1,1.0000,0.0000,1.44682,0.22696,-2.77909,0.98130,1.57080,0.00001,-0.14512,-0.38003,0.04488,,,,,,,,,,,,,,,,,,,,,,,,,,0,0,0,0,0
1.5417,1783189529.8248,1,1,1.0000,0.0000,1.44682,0.22696,-2.77909,0.98130,1.57080,0.00001,-0.14512,-0.38003,0.04488,,,,,,,,,,,,,,,,,,,,,,,,,,0,0,0,0,0
1.5530,1783189529.8361,1,1,1.0000,0.0000,1.44682,0.22675,-2.77915,0.98157,1.57080,0.00001,-0.14512,-0.38003,0.04483,,,,,,,,,,,,,,,,,,,,,,,,,,0,0,0,0,0
1.5619,1783189529.8450,1,1,1.0000,0.0000,1.44682,0.22671,-2.77916,0.98162,1.57080,0.00001,-0.14512,-0.38003,0.04482,,,,,,,,,,,,,,,,,,,,,,,,,,0,0,0,0,0
1.5620,1783189529.8452,1,1,1.0000,0.0000,1.44682,0.22671,-2.77916,0.98162,1.57080,0.00001,-0.14512,-0.38003,0.04482,,,,,,,,,,,,,,,,,,,,,,,,,,0,0,0,0,0
1.5775,1783189529.8606,1,1,1.0000,0.0000,1.44682,0.22653,-2.77920,0.98184,1.57080,0.00001,-0.14512,-0.38003,0.04477,,,,,,,,,,,,,,,,,,,,,,,,,,0,0,0,0,0
1.5812,1783189529.8643,1,1,1.0000,0.0000,1.44682,0.22646,-2.77922,0.98193,1.57080,0.00001,-0.14512,-0.38003,0.04475,,,,,,,,,,,,,,,,,,,,,,,,,,0,0,0,0,0
1.5922,1783189529.8754,1,1,1.0000,0.0000,1.44682,0.22641,-2.77923,0.98199,1.57080,0.00001,-0.14512,-0.38003,0.04474,,,,,,,,,,,,,,,,,,,,,,,,,,0,0,0,0,0
1.6014,1783189529.8845,1,1,1.0000,0.0000,1.44682,0.22631,-2.77926,0.98212,1.57080,0.00001,-0.14512,-0.38003,0.04471,,,,,,,,,,,,,,,,,,,,,,,,,,0,0,0,0,0
1.6154,1783189529.8985,1,1,1.0000,0.0000,1.44682,0.22610,-2.77931,0.98238,1.57080,0.00001,-0.14512,-0.38003,0.04466,,,,,,,,,,,,,,,,,,,,,,,,,,0,0,0,0,0
1.6239,1783189529.9070,1,1,1.0000,0.0000,1.44682,0.22605,-2.77932,0.98244,1.57080,0.00001,-0.14512,-0.38003,0.04465,,,,,,,,,,,,,,,,,,,,,,,,,,0,0,0,0,0
1.6314,1783189529.9145,1,1,1.0000,0.0000,1.44682,0.22594,-2.77935,0.98258,1.57080,0.00001,-0.14512,-0.38003,0.04462,,,,,,,,,,,,,,,,,,,,,,,,,,0,0,0,0,0
1.6414,1783189529.9246,1,1,1.0000,0.0000,1.44682,0.22581,-2.77939,0.98275,1.57080,0.00001,-0.14512,-0.38003,0.04458,,,,,,,,,,,,,,,,,,,,,,,,,,0,0,0,0,0
1.6510,1783189529.9342,1,1,1.0000,0.0000,1.44682,0.22576,-2.77940,0.98281,1.57080,0.00001,-0.14512,-0.38003,0.04457,,,,,,,,,,,,,,,,,,,,,,,,,,0,0,0,0,0
1.6621,1783189529.9452,1,1,1.0000,0.0000,1.44682,0.22558,-2.77944,0.98303,1.57080,0.00001,-0.14512,-0.38003,0.04453,,,,,,,,,,,,,,,,,,,,,,,,,,0,0,0,0,0
1.6782,1783189529.9614,1,1,1.0000,0.0000,1.44682,0.22543,-2.77948,0.98322,1.57080,0.00001,-0.14512,-0.38002,0.04449,,,,,,,,,,,,,,,,,,,,,,,,,,0,0,0,0,0
1.6808,1783189529.9639,1,1,1.0000,0.0000,1.44682,0.22543,-2.77948,0.98322,1.57080,0.00001,-0.14512,-0.38002,0.04449,,,,,,,,,,,,,,,,,,,,,,,,,,0,0,0,0,0
1.6811,1783189529.9642,1,1,1.0000,0.0000,1.44682,0.22543,-2.77948,0.98322,1.57080,0.00001,-0.14512,-0.38002,0.04449,,,,,,,,,,,,,,,,,,,,,,,,,,0,0,0,0,0
1.6937,1783189529.9768,1,1,1.0000,0.0000,1.44682,0.22529,-2.77952,0.98339,1.57080,0.00001,-0.14512,-0.38002,0.04445,,,,,,,,,,,,,,,,,,,,,,,,,,0,0,0,0,0
1.7022,1783189529.9853,1,1,1.0000,0.0000,1.44682,0.22515,-2.77955,0.98357,1.57080,0.00001,-0.14512,-0.38002,0.04441,,,,,,,,,,,,,,,,,,,,,,,,,,0,0,0,0,0
1.7025,1783189529.9856,1,1,1.0000,0.0000,1.44682,0.22515,-2.77955,0.98357,1.57080,0.00001,-0.14512,-0.38002,0.04441,,,,,,,,,,,,,,,,,,,,,,,,,,0,0,0,0,0
1.7133,1783189529.9964,1,1,1.0000,0.0000,1.44682,0.22511,-2.77956,0.98362,1.57080,0.00001,-0.14512,-0.38002,0.04440,,,,,,,,,,,,,,,,,,,,,,,,,,0,0,0,0,0
1.7263,1783189530.0094,1,1,1.0000,0.0000,1.44682,0.22486,-2.77963,0.98393,1.57080,0.00001,-0.14512,-0.38002,0.04434,,,,,,,,,,,,,,,,,,,,,,,,,,0,0,0,0,0
1.7268,1783189530.0100,1,1,1.0000,0.0000,1.44682,0.22486,-2.77963,0.98393,1.57080,0.00001,-0.14512,-0.38002,0.04434,,,,,,,,,,,,,,,,,,,,,,,,,,0,0,0,0,0
1.7319,1783189530.0150,1,1,1.0000,0.0000,1.44682,0.22479,-2.77964,0.98402,1.57080,0.00001,-0.14512,-0.38002,0.04432,,,,,,,,,,,,,,,,,,,,,,,,,,0,0,0,0,0
1.7407,1783189530.0238,1,1,1.0000,0.0000,1.44682,0.22478,-2.77965,0.98403,1.57080,0.00001,-0.14512,-0.38002,0.04432,,,,,,,,,,,,,,,,,,,,,,,,,,0,0,0,0,0
1.7411,1783189530.0242,1,1,1.0000,0.0000,1.44682,0.22478,-2.77965,0.98403,1.57080,0.00001,-0.14512,-0.38002,0.04432,,,,,,,,,,,,,,,,,,,,,,,,,,0,0,0,0,0
1.7510,1783189530.0341,1,1,1.0000,0.0000,1.44682,0.22464,-2.77968,0.98421,1.57080,0.00001,-0.14512,-0.38002,0.04428,,,,,,,,,,,,,,,,,,,,,,,,,,0,0,0,0,0
1.7614,1783189530.0445,1,1,1.0000,0.0000,1.44682,0.22450,-2.77972,0.98439,1.57080,0.00001,-0.14512,-0.38002,0.04424,,,,,,,,,,,,,,,,,,,,,,,,,,0,0,0,0,0
1.7620,1783189530.0451,1,1,1.0000,0.0000,1.44682,0.22443,-2.77973,0.98447,1.57080,0.00001,-0.14512,-0.38002,0.04423,,,,,,,,,,,,,,,,,,,,,,,,,,0,0,0,0,0
1.7809,1783189530.0640,1,1,1.0000,0.0000,1.44682,0.22436,-2.77975,0.98456,1.57080,0.00001,-0.14512,-0.38002,0.04421,,,,,,,,,,,,,,,,,,,,,,,,,,0,0,0,0,0
1.7845,1783189530.0676,1,1,1.0000,0.0000,1.44682,0.22431,-2.77976,0.98462,1.57080,0.00001,-0.14512,-0.38002,0.04420,,,,,,,,,,,,,,,,,,,,,,,,,,0,0,0,0,0
1.7848,1783189530.0679,1,1,1.0000,0.0000,1.44682,0.22431,-2.77976,0.98462,1.57080,0.00001,-0.14512,-0.38002,0.04420,,,,,,,,,,,,,,,,,,,,,,,,,,0,0,0,0,0
1.7942,1783189530.0774,1,1,1.0000,0.0000,1.44682,0.22420,-2.77979,0.98476,1.57080,0.00001,-0.14512,-0.38002,0.04417,,,,,,,,,,,,,,,,,,,,,,,,,,0,0,0,0,0
1.7945,1783189530.0776,1,1,1.0000,0.0000,1.44682,0.22420,-2.77979,0.98476,1.57080,0.00001,-0.14512,-0.38002,0.04417,,,,,,,,,,,,,,,,,,,,,,,,,,0,0,0,0,0
1.8035,1783189530.0866,1,1,1.0000,0.0000,1.44682,0.22415,-2.77980,0.98482,1.57080,0.00001,-0.14512,-0.38002,0.04416,,,,,,,,,,,,,,,,,,,,,,,,,,0,0,0,0,0
1.8145,1783189530.0976,1,1,1.0000,0.0000,1.44682,0.22397,-2.77985,0.98505,1.57080,0.00001,-0.14512,-0.38002,0.04411,,,,,,,,,,,,,,,,,,,,,,,,,,0,0,0,0,0
1.8261,1783189530.1092,1,1,1.0000,0.0000,1.44682,0.22383,-2.77989,0.98523,1.57080,0.00001,-0.14512,-0.38002,0.04407,,,,,,,,,,,,,,,,,,,,,,,,,,0,0,0,0,0
1.8320,1783189530.1151,1,1,1.0000,0.0000,1.44682,0.22382,-2.77989,0.98524,1.57080,0.00001,-0.14512,-0.38002,0.04407,,,,,,,,,,,,,,,,,,,,,,,,,,0,0,0,0,0
1.8447,1783189530.1278,1,1,1.0000,0.0000,1.44682,0.22371,-2.77992,0.98537,1.57080,0.00001,-0.14512,-0.38002,0.04404,,,,,,,,,,,,,,,,,,,,,,,,,,0,0,0,0,0
1.8451,1783189530.1282,1,1,1.0000,0.0000,1.44682,0.22371,-2.77992,0.98537,1.57080,0.00001,-0.14512,-0.38002,0.04404,,,,,,,,,,,,,,,,,,,,,,,,,,0,0,0,0,0
1.8510,1783189530.1341,1,1,1.0000,0.0000,1.44682,0.22360,-2.77994,0.98551,1.57080,0.00001,-0.14512,-0.38002,0.04401,,,,,,,,,,,,,,,,,,,,,,,,,,0,0,0,0,0
1.8514,1783189530.1345,1,1,1.0000,0.0000,1.44682,0.22360,-2.77994,0.98551,1.57080,0.00001,-0.14512,-0.38002,0.04401,,,,,,,,,,,,,,,,,,,,,,,,,,0,0,0,0,0
1.8626,1783189530.1458,1,1,1.0000,0.0000,1.44682,0.22355,-2.77996,0.98557,1.57080,0.00001,-0.14512,-0.38002,0.04400,,,,,,,,,,,,,,,,,,,,,,,,,,0,0,0,0,0
1.8710,1783189530.1542,1,1,1.0000,0.0000,1.44682,0.22344,-2.77998,0.98571,1.57080,0.00001,-0.14512,-0.38002,0.04397,,,,,,,,,,,,,,,,,,,,,,,,,,0,0,0,0,0
1.8862,1783189530.1693,1,1,1.0000,0.0000,1.44682,0.22323,-2.78004,0.98598,1.57080,0.00001,-0.14512,-0.38002,0.04392,,,,,,,,,,,,,,,,,,,,,,,,,,0,0,0,0,0
1.8953,1783189530.1784,1,1,1.0000,0.0000,1.44682,0.22319,-2.78005,0.98602,1.57080,0.00001,-0.14512,-0.38002,0.04391,,,,,,,,,,,,,,,,,,,,,,,,,,0,0,0,0,0
1.9012,1783189530.1843,1,1,1.0000,0.0000,1.44682,0.22316,-2.78005,0.98606,1.57080,0.00001,-0.14512,-0.38002,0.04390,,,,,,,,,,,,,,,,,,,,,,,,,,0,0,0,0,0
1.9117,1783189530.1948,1,1,1.0000,0.0000,1.44682,0.22300,-2.78009,0.98626,1.57080,0.00001,-0.14512,-0.38002,0.04386,,,,,,,,,,,,,,,,,,,,,,,,,,0,0,0,0,0
1.9222,1783189530.2053,1,1,1.0000,0.0000,1.44682,0.22295,-2.78011,0.98632,1.57080,0.00001,-0.14512,-0.38002,0.04384,,,,,,,,,,,,,,,,,,,,,,,,,,0,0,0,0,0
1.9339,1783189530.2170,1,1,1.0000,0.0000,1.44682,0.22277,-2.78015,0.98655,1.57080,0.00001,-0.14512,-0.38002,0.04380,,,,,,,,,,,,,,,,,,,,,,,,,,0,0,0,0,0
1.9461,1783189530.2292,1,1,1.0000,0.0000,1.44681,0.22263,-2.78019,0.98673,1.57080,0.00001,-0.14512,-0.38002,0.04376,,,,,,,,,,,,,,,,,,,,,,,,,,0,0,0,0,0
1.9509,1783189530.2340,1,1,1.0000,0.0000,1.44681,0.22262,-2.78019,0.98674,1.57080,0.00001,-0.14512,-0.38002,0.04376,,,,,,,,,,,,,,,,,,,,,,,,,,0,0,0,0,0
1.9511,1783189530.2342,1,1,1.0000,0.0000,1.44681,0.22262,-2.78019,0.98674,1.57080,0.00001,-0.14512,-0.38002,0.04376,,,,,,,,,,,,,,,,,,,,,,,,,,0,0,0,0,0
1.9632,1783189530.2463,1,1,1.0000,0.0000,1.44681,0.22251,-2.78022,0.98687,1.57080,0.00001,-0.14512,-0.38002,0.04373,,,,,,,,,,,,,,,,,,,,,,,,,,0,0,0,0,0
1.9744,1783189530.2575,1,1,1.0000,0.0000,1.44681,0.22240,-2.78025,0.98702,1.57080,0.00001,-0.14512,-0.38002,0.04370,,,,,,,,,,,,,,,,,,,,,,,,,,0,0,0,0,0
1.9893,1783189530.2724,1,1,1.0000,0.0000,1.44681,0.22230,-2.78027,0.98714,1.57080,0.00001,-0.14512,-0.38002,0.04368,,,,,,,,,,,,,,,,,,,,,,,,,,0,0,0,0,0
1.9928,1783189530.2759,1,1,1.0000,0.0000,1.44681,0.22224,-2.78029,0.98722,1.57080,0.00001,-0.14512,-0.38002,0.04366,,,,,,,,,,,,,,,,,,,,,,,,,,0,0,0,0,0
2.0021,1783189530.2853,1,1,1.0000,0.0000,1.44681,0.22202,-2.78034,0.98748,1.57080,0.00001,-0.14512,-0.38002,0.04361,,,,,,,,,,,,,,,,,,,,,,,,,,0,0,0,0,0
2.0154,1783189530.2985,1,1,1.0000,0.0000,1.44681,0.22199,-2.78035,0.98752,1.57080,0.00001,-0.14512,-0.38002,0.04360,,,,,,,,,,,,,,,,,,,,,,,,,,0,0,0,0,0
2.0215,1783189530.3046,1,1,1.0000,0.0000,1.44681,0.22195,-2.78036,0.98757,1.57080,0.00001,-0.14512,-0.38002,0.04359,,,,,,,,,,,,,,,,,,,,,,,,,,0,0,0,0,0
2.0334,1783189530.3165,1,1,1.0000,0.0000,1.44681,0.22179,-2.78040,0.98777,1.57080,0.00001,-0.14512,-0.38002,0.04355,,,,,,,,,,,,,,,,,,,,,,,,,,0,0,0,0,0
2.0421,1783189530.3252,1,1,1.0000,0.0000,1.44681,0.22175,-2.78041,0.98783,1.57080,0.00001,-0.14512,-0.38002,0.04353,,,,,,,,,,,,,,,,,,,,,,,,,,0,0,0,0,0
2.0509,1783189530.3340,1,1,1.0000,0.0000,1.44681,0.22163,-2.78044,0.98797,1.57080,0.00001,-0.14512,-0.38002,0.04351,,,,,,,,,,,,,,,,,,,,,,,,,,0,0,0,0,0
2.0640,1783189530.3471,1,1,1.0000,0.0000,1.44681,0.22142,-2.78049,0.98824,1.57080,0.00001,-0.14512,-0.38002,0.04345,,,,,,,,,,,,,,,,,,,,,,,,,,0,0,0,0,0
2.0644,1783189530.3475,1,1,1.0000,0.0000,1.44681,0.22142,-2.78049,0.98824,1.57080,0.00001,-0.14512,-0.38002,0.04345,,,,,,,,,,,,,,,,,,,,,,,,,,0,0,0,0,0
2.0710,1783189530.3541,1,1,1.0000,0.0000,1.44681,0.22141,-2.78049,0.98825,1.57080,0.00001,-0.14512,-0.38002,0.04345,,,,,,,,,,,,,,,,,,,,,,,,,,0,0,0,0,0
2.0712,1783189530.3543,1,1,1.0000,0.0000,1.44681,0.22141,-2.78049,0.98825,1.57080,0.00001,-0.14512,-0.38002,0.04345,,,,,,,,,,,,,,,,,,,,,,,,,,0,0,0,0,0
2.0909,1783189530.3741,1,1,1.0000,0.0000,1.44681,0.22113,-2.78056,0.98860,1.57080,0.00001,-0.14512,-0.38002,0.04338,,,,,,,,,,,,,,,,,,,,,,,,,,0,0,0,0,0
2.0913,1783189530.3744,1,1,1.0000,0.0000,1.44681,0.22113,-2.78056,0.98860,1.57080,0.00001,-0.14512,-0.38002,0.04338,,,,,,,,,,,,,,,,,,,,,,,,,,0,0,0,0,0
2.0915,1783189530.3746,1,1,1.0000,0.0000,1.44681,0.22113,-2.78056,0.98860,1.57080,0.00001,-0.14512,-0.38002,0.04338,,,,,,,,,,,,,,,,,,,,,,,,,,0,0,0,0,0
2.0918,1783189530.3749,1,1,1.0000,0.0000,1.44681,0.22113,-2.78056,0.98860,1.57080,0.00001,-0.14512,-0.38002,0.04338,,,,,,,,,,,,,,,,,,,,,,,,,,0,0,0,0,0
2.1029,1783189530.3860,1,1,1.0000,0.0000,1.44681,0.22108,-2.78057,0.98866,1.57080,0.00001,-0.14512,-0.38002,0.04336,,,,,,,,,,,,,,,,,,,,,,,,,,0,0,0,0,0
2.1031,1783189530.3863,1,1,1.0000,0.0000,1.44681,0.22108,-2.78057,0.98866,1.57080,0.00001,-0.14512,-0.38002,0.04336,,,,,,,,,,,,,,,,,,,,,,,,,,0,0,0,0,0
2.1125,1783189530.3957,1,1,1.0000,0.0000,1.44681,0.22097,-2.78060,0.98880,1.57080,0.00001,-0.14512,-0.38002,0.04334,,,,,,,,,,,,,,,,,,,,,,,,,,0,0,0,0,0
2.1222,1783189530.4053,1,1,1.0000,0.0000,1.44681,0.22076,-2.78065,0.98906,1.57080,0.00001,-0.14512,-0.38002,0.04328,,,,,,,,,,,,,,,,,,,,,,,,,,0,0,0,0,0
2.1331,1783189530.4162,1,1,1.0000,0.0000,1.44681,0.22075,-2.78066,0.98907,1.57080,0.00001,-0.14512,-0.38002,0.04328,,,,,,,,,,,,,,,,,,,,,,,,,,0,0,0,0,0
2.1333,1783189530.4165,1,1,1.0000,0.0000,1.44681,0.22075,-2.78066,0.98907,1.57080,0.00001,-0.14512,-0.38002,0.04328,,,,,,,,,,,,,,,,,,,,,,,,,,0,0,0,0,0
2.1520,1783189530.4351,1,1,1.0000,0.0000,1.44681,0.22047,-2.78073,0.98943,1.57080,0.00001,-0.14512,-0.38002,0.04321,,,,,,,,,,,,,,,,,,,,,,,,,,0,0,0,0,0
2.1526,1783189530.4357,1,1,1.0000,0.0000,1.44681,0.22047,-2.78073,0.98943,1.57080,0.00001,-0.14512,-0.38002,0.04321,,,,,,,,,,,,,,,,,,,,,,,,,,0,0,0,0,0
2.1529,1783189530.4360,1,1,1.0000,0.0000,1.44681,0.22047,-2.78073,0.98943,1.57080,0.00001,-0.14512,-0.38002,0.04321,,,,,,,,,,,,,,,,,,,,,,,,,,0,0,0,0,0
2.1620,1783189530.4452,1,1,1.0000,0.0000,1.44681,0.22042,-2.78074,0.98948,1.57080,0.00001,-0.14512,-0.38002,0.04319,,,,,,,,,,,,,,,,,,,,,,,,,,0,0,0,0,0
2.1723,1783189530.4554,1,1,1.0000,0.0000,1.44681,0.22031,-2.78077,0.98962,1.57080,0.00001,-0.14512,-0.38002,0.04317,,,,,,,,,,,,,,,,,,,,,,,,,,0,0,0,0,0
2.1927,1783189530.4759,1,1,1.0000,0.0000,1.44681,0.22009,-2.78082,0.98989,1.57080,0.00001,-0.14512,-0.38002,0.04311,,,,,,,,,,,,,,,,,,,,,,,,,,0,0,0,0,0
2.1931,1783189530.4762,1,1,1.0000,0.0000,1.44681,0.22009,-2.78082,0.98989,1.57080,0.00001,-0.14512,-0.38002,0.04311,,,,,,,,,,,,,,,,,,,,,,,,,,0,0,0,0,0
2.2010,1783189530.4841,1,1,1.0000,0.0000,1.44681,0.22001,-2.78084,0.99000,1.57080,0.00001,-0.14512,-0.38002,0.04309,,,,,,,,,,,,,,,,,,,,,,,,,,0,0,0,0,0
2.2014,1783189530.4845,1,1,1.0000,0.0000,1.44681,0.22001,-2.78084,0.99000,1.57080,0.00001,-0.14512,-0.38002,0.04309,,,,,,,,,,,,,,,,,,,,,,,,,,0,0,0,0,0
2.2112,1783189530.4943,1,1,1.0000,0.0000,1.44681,0.21981,-2.78089,0.99025,1.57080,0.00001,-0.14512,-0.38002,0.04304,,,,,,,,,,,,,,,,,,,,,,,,,,0,0,0,0,0
2.2229,1783189530.5060,1,1,1.0000,0.0000,1.44681,0.21976,-2.78090,0.99030,1.57080,0.00001,-0.14512,-0.38002,0.04303,,,,,,,,,,,,,,,,,,,,,,,,,,0,0,0,0,0
2.2343,1783189530.5175,1,1,1.0000,0.0000,1.44681,0.21959,-2.78095,0.99053,1.57080,0.00001,-0.14512,-0.38002,0.04298,,,,,,,,,,,,,,,,,,,,,,,,,,0,0,0,0,0
2.2428,1783189530.5259,1,1,1.0000,0.0000,1.44681,0.21945,-2.78098,0.99070,1.57080,0.00001,-0.14512,-0.38002,0.04294,,,,,,,,,,,,,,,,,,,,,,,,,,0,0,0,0,0
2.2435,1783189530.5267,1,1,1.0000,0.0000,1.44681,0.21945,-2.78098,0.99070,1.57080,0.00001,-0.14512,-0.38002,0.04294,,,,,,,,,,,,,,,,,,,,,,,,,,0,0,0,0,0
2.2552,1783189530.5383,1,1,1.0000,0.0000,1.44681,0.21940,-2.78099,0.99076,1.57080,0.00001,-0.14512,-0.38002,0.04293,,,,,,,,,,,,,,,,,,,,,,,,,,0,0,0,0,0
2.2630,1783189530.5462,1,1,1.0000,0.0000,1.44681,0.21929,-2.78102,0.99090,1.57080,0.00001,-0.14512,-0.38002,0.04290,,,,,,,,,,,,,,,,,,,,,,,,,,0,0,0,0,0
2.2711,1783189530.5542,1,1,1.0000,0.0000,1.44681,0.21915,-2.78105,0.99107,1.57080,0.00001,-0.14512,-0.38002,0.04287,,,,,,,,,,,,,,,,,,,,,,,,,,0,0,0,0,0
2.2966,1783189530.5797,1,1,1.0000,0.0000,1.44681,0.21893,-2.78111,0.99135,1.57080,0.00001,-0.14512,-0.38002,0.04281,,,,,,,,,,,,,,,,,,,,,,,,,,0,0,0,0,0
2.2969,1783189530.5800,1,1,1.0000,0.0000,1.44681,0.21893,-2.78111,0.99135,1.57080,0.00001,-0.14512,-0.38002,0.04281,,,,,,,,,,,,,,,,,,,,,,,,,,0,0,0,0,0
2.3013,1783189530.5844,1,1,1.0000,0.0000,1.44681,0.21886,-2.78113,0.99144,1.57080,0.00001,-0.14512,-0.38002,0.04279,,,,,,,,,,,,,,,,,,,,,,,,,,0,0,0,0,0
2.3111,1783189530.5943,1,1,1.0000,0.0000,1.44681,0.21878,-2.78115,0.99154,1.57080,0.00001,-0.14512,-0.38002,0.04277,,,,,,,,,,,,,,,,,,,,,,,,,,0,0,0,0,0
2.3270,1783189530.6101,1,1,1.0000,0.0000,1.44681,0.21856,-2.78120,0.99180,1.57080,0.00001,-0.14512,-0.38002,0.04272,,,,,,,,,,,,,,,,,,,,,,,,,,0,0,0,0,0
2.3420,1783189530.6251,1,1,1.0000,0.0000,1.44681,0.21845,-2.78123,0.99195,1.57080,0.00001,-0.14512,-0.38002,0.04269,,,,,,,,,,,,,,,,,,,,,,,,,,0,0,0,0,0
2.3425,1783189530.6256,1,1,1.0000,0.0000,1.44681,0.21845,-2.78123,0.99195,1.57080,0.00001,-0.14512,-0.38002,0.04269,,,,,,,,,,,,,,,,,,,,,,,,,,0,0,0,0,0
2.3543,1783189530.6374,1,1,1.0000,0.0000,1.44681,0.21827,-2.78127,0.99217,1.57080,0.00001,-0.14512,-0.38002,0.04264,,,,,,,,,,,,,,,,,,,,,,,,,,0,0,0,0,0
2.3546,1783189530.6377,1,1,1.0000,0.0000,1.44681,0.21827,-2.78127,0.99217,1.57080,0.00001,-0.14512,-0.38002,0.04264,,,,,,,,,,,,,,,,,,,,,,,,,,0,0,0,0,0
2.3610,1783189530.6441,1,1,1.0000,0.0000,1.44681,0.21820,-2.78129,0.99226,1.57080,0.00001,-0.14512,-0.38002,0.04262,,,,,,,,,,,,,,,,,,,,,,,,,,0,0,0,0,0
2.3711,1783189530.6542,1,1,1.0000,0.0000,1.44681,0.21811,-2.78131,0.99236,1.57080,0.00001,-0.14512,-0.38002,0.04260,,,,,,,,,,,,,,,,,,,,,,,,,,0,0,0,0,0
2.3714,1783189530.6545,1,1,1.0000,0.0000,1.44681,0.21811,-2.78131,0.99236,1.57080,0.00001,-0.14512,-0.38002,0.04260,,,,,,,,,,,,,,,,,,,,,,,,,,0,0,0,0,0
2.3841,1783189530.6673,1,1,1.0000,0.0000,1.44681,0.21797,-2.78135,0.99254,1.57080,0.00001,-0.14512,-0.38002,0.04257,,,,,,,,,,,,,,,,,,,,,,,,,,0,0,0,0,0
2.3991,1783189530.6822,1,1,1.0000,0.0000,1.44681,0.21776,-2.78140,0.99280,1.57080,0.00001,-0.14512,-0.38002,0.04251,,,,,,,,,,,,,,,,,,,,,,,,,,0,0,0,0,0
2.4030,1783189530.6862,1,1,1.0000,0.0000,1.44681,0.21775,-2.78140,0.99281,1.57080,0.00001,-0.14512,-0.38002,0.04251,,,,,,,,,,,,,,,,,,,,,,,,,,0,0,0,0,0
2.4033,1783189530.6865,1,1,1.0000,0.0000,1.44681,0.21775,-2.78140,0.99281,1.57080,0.00001,-0.14512,-0.38002,0.04251,,,,,,,,,,,,,,,,,,,,,,,,,,0,0,0,0,0
2.4110,1783189530.6941,1,1,1.0000,0.0000,1.44681,0.21769,-2.78141,0.99289,1.57080,0.00001,-0.14512,-0.38002,0.04249,,,,,,,,,,,,,,,,,,,,,,,,,,0,0,0,0,0
2.4232,1783189530.7063,1,1,1.0000,0.0000,1.44681,0.21753,-2.78146,0.99309,1.57080,0.00001,-0.14512,-0.38002,0.04245,,,,,,,,,,,,,,,,,,,,,,,,,,0,0,0,0,0
2.4329,1783189530.7160,1,1,1.0000,0.0000,1.44681,0.21752,-2.78146,0.99311,1.57080,0.00001,-0.14512,-0.38002,0.04245,,,,,,,,,,,,,,,,,,,,,,,,,,0,0,0,0,0
2.4453,1783189530.7284,1,1,1.0000,0.0000,1.44681,0.21737,-2.78150,0.99330,1.57080,0.00001,-0.14512,-0.38002,0.04241,,,,,,,,,,,,,,,,,,,,,,,,,,0,0,0,0,0
2.4519,1783189530.7350,1,1,1.0000,0.0000,1.44681,0.21722,-2.78153,0.99347,1.57080,0.00001,-0.14512,-0.38002,0.04237,,,,,,,,,,,,,,,,,,,,,,,,,,0,0,0,0,0
2.4622,1783189530.7454,1,1,1.0000,0.0000,1.44681,0.21714,-2.78155,0.99357,1.57080,0.00001,-0.14512,-0.38002,0.04235,,,,,,,,,,,,,,,,,,,,,,,,,,0,0,0,0,0
2.4625,1783189530.7457,1,1,1.0000,0.0000,1.44681,0.21714,-2.78155,0.99357,1.57080,0.00001,-0.14512,-0.38002,0.04235,,,,,,,,,,,,,,,,,,,,,,,,,,0,0,0,0,0
2.4712,1783189530.7543,1,1,1.0000,0.0000,1.44681,0.21708,-2.78156,0.99365,1.57080,0.00001,-0.14512,-0.38002,0.04234,,,,,,,,,,,,,,,,,,,,,,,,,,0,0,0,0,0
2.4846,1783189530.7677,1,1,1.0000,0.0000,1.44681,0.21692,-2.78160,0.99385,1.57080,0.00001,-0.14512,-0.38002,0.04230,,,,,,,,,,,,,,,,,,,,,,,,,,0,0,0,0,0
2.4995,1783189530.7827,1,1,1.0000,0.0000,1.44681,0.21682,-2.78163,0.99397,1.57080,0.00001,-0.14512,-0.38002,0.04227,,,,,,,,,,,,,,,,,,,,,,,,,,0,0,0,0,0
2.5013,1783189530.7844,1,1,1.0000,0.0000,1.44681,0.21682,-2.78163,0.99397,1.57080,0.00001,-0.14512,-0.38002,0.04227,,,,,,,,,,,,,,,,,,,,,,,,,,0,0,0,0,0
2.5118,1783189530.7949,1,1,1.0000,0.0000,1.44681,0.21662,-2.78168,0.99423,1.57080,0.00001,-0.14512,-0.38002,0.04222,,,,,,,,,,,,,,,,,,,,,,,,,,0,0,0,0,0
2.5210,1783189530.8041,1,1,1.0000,0.0000,1.44681,0.21655,-2.78170,0.99432,1.57080,0.00001,-0.14512,-0.38002,0.04220,,,,,,,,,,,,,,,,,,,,,,,,,,0,0,0,0,0
2.5215,1783189530.8046,1,1,1.0000,0.0000,1.44681,0.21655,-2.78170,0.99432,1.57080,0.00001,-0.14512,-0.38002,0.04220,,,,,,,,,,,,,,,,,,,,,,,,,,0,0,0,0,0
2.5312,1783189530.8143,1,1,1.0000,0.0000,1.44681,0.21648,-2.78171,0.99440,1.57080,0.00001,-0.14512,-0.38002,0.04218,,,,,,,,,,,,,,,,,,,,,,,,,,0,0,0,0,0
2.5464,1783189530.8295,1,1,1.0000,0.0000,1.44681,0.21631,-2.78175,0.99461,1.57080,0.00001,-0.14512,-0.38002,0.04214,,,,,,,,,,,,,,,,,,,,,,,,,,0,0,0,0,0
2.5510,1783189530.8341,1,1,1.0000,0.0000,1.44681,0.21630,-2.78176,0.99462,1.57080,0.00001,-0.14512,-0.38002,0.04214,,,,,,,,,,,,,,,,,,,,,,,,,,0,0,0,0,0
2.5623,1783189530.8454,1,1,1.0000,0.0000,1.44681,0.21615,-2.78179,0.99481,1.57080,0.00001,-0.14512,-0.38002,0.04210,,,,,,,,,,,,,,,,,,,,,,,,,,0,0,0,0,0
2.5627,1783189530.8458,1,1,1.0000,0.0000,1.44681,0.21615,-2.78179,0.99481,1.57080,0.00001,-0.14512,-0.38002,0.04210,,,,,,,,,,,,,,,,,,,,,,,,,,0,0,0,0,0
2.5874,1783189530.8706,1,1,1.0000,0.0000,1.44681,0.21591,-2.78185,0.99512,1.57080,0.00001,-0.14512,-0.38002,0.04204,,,,,,,,,,,,,,,,,,,,,,,,,,0,0,0,0,0
2.5879,1783189530.8710,1,1,1.0000,0.0000,1.44681,0.21591,-2.78185,0.99512,1.57080,0.00001,-0.14512,-0.38002,0.04204,,,,,,,,,,,,,,,,,,,,,,,,,,0,0,0,0,0
2.6663,1783189530.9494,1,1,1.0000,0.0000,1.44681,0.21510,-2.78205,0.99612,1.57080,0.00001,-0.14512,-0.38002,0.04183,,,,,,,,,,,,,,,,,,,,,,,,,,0,0,0,0,0
2.6678,1783189530.9509,1,1,1.0000,0.0000,1.44681,0.21510,-2.78205,0.99612,1.57080,0.00001,-0.14512,-0.38002,0.04183,,,,,,,,,,,,,,,,,,,,,,,,,,0,0,0,0,0
2.6680,1783189530.9512,1,1,1.0000,0.0000,1.44681,0.21510,-2.78205,0.99612,1.57080,0.00001,-0.14512,-0.38002,0.04183,,,,,,,,,,,,,,,,,,,,,,,,,,0,0,0,0,0
2.6685,1783189530.9516,1,1,1.0000,0.0000,1.44681,0.21510,-2.78205,0.99612,1.57080,0.00001,-0.14512,-0.38002,0.04183,,,,,,,,,,,,,,,,,,,,,,,,,,0,0,0,0,0
2.6689,1783189530.9520,1,1,1.0000,0.0000,1.44681,0.21510,-2.78205,0.99612,1.57080,0.00001,-0.14512,-0.38002,0.04183,,,,,,,,,,,,,,,,,,,,,,,,,,0,0,0,0,0
2.6694,1783189530.9525,1,1,1.0000,0.0000,1.44681,0.21510,-2.78205,0.99612,1.57080,0.00001,-0.14512,-0.38002,0.04183,,,,,,,,,,,,,,,,,,,,,,,,,,0,0,0,0,0
2.6702,1783189530.9533,1,1,1.0000,0.0000,1.44681,0.21509,-2.78206,0.99614,1.57080,0.00001,-0.14512,-0.38002,0.04183,,,,,,,,,,,,,,,,,,,,,,,,,,0,0,0,0,0
2.6703,1783189530.9534,1,1,1.0000,0.0000,1.44681,0.21509,-2.78206,0.99614,1.57080,0.00001,-0.14512,-0.38002,0.04183,,,,,,,,,,,,,,,,,,,,,,,,,,0,0,0,0,0
2.6726,1783189530.9557,1,1,1.0000,0.0000,1.44681,0.21509,-2.78206,0.99614,1.57080,0.00001,-0.14512,-0.38002,0.04183,,,,,,,,,,,,,,,,,,,,,,,,,,0,0,0,0,0
2.6832,1783189530.9663,1,1,1.0000,0.0000,1.44681,0.21494,-2.78209,0.99632,1.57080,0.00001,-0.14512,-0.38002,0.04179,,,,,,,,,,,,,,,,,,,,,,,,,,0,0,0,0,0
2.6919,1783189530.9751,1,1,1.0000,0.0000,1.44681,0.21479,-2.78213,0.99650,1.57080,0.00001,-0.14512,-0.38002,0.04175,,,,,,,,,,,,,,,,,,,,,,,,,,0,0,0,0,0
2.7025,1783189530.9856,1,1,1.0000,0.0000,1.44681,0.21471,-2.78215,0.99660,1.57080,0.00001,-0.14512,-0.38002,0.04173,,,,,,,,,,,,,,,,,,,,,,,,,,0,0,0,0,0
2.7121,1783189530.9952,1,1,1.0000,0.0000,1.44681,0.21465,-2.78216,0.99668,1.57080,0.00001,-0.14512,-0.38002,0.04172,,,,,,,,,,,,,,,,,,,,,,,,,,0,0,0,0,0
2.7124,1783189530.9955,1,1,1.0000,0.0000,1.44681,0.21465,-2.78216,0.99668,1.57080,0.00001,-0.14512,-0.38002,0.04172,,,,,,,,,,,,,,,,,,,,,,,,,,0,0,0,0,0
2.7212,1783189531.0043,1,1,1.0000,0.0000,1.44681,0.21455,-2.78219,0.99680,1.57080,0.00001,-0.14512,-0.38002,0.04169,,,,,,,,,,,,,,,,,,,,,,,,,,0,0,0,0,0
2.7216,1783189531.0047,1,1,1.0000,0.0000,1.44681,0.21455,-2.78219,0.99680,1.57080,0.00001,-0.14512,-0.38002,0.04169,,,,,,,,,,,,,,,,,,,,,,,,,,0,0,0,0,0
2.7324,1783189531.0155,1,1,1.0000,0.0000,1.44681,0.21448,-2.78220,0.99689,1.57080,0.00002,-0.14512,-0.38002,0.04167,,,,,,,,,,,,,,,,,,,,,,,,,,0,0,0,0,0
2.7415,1783189531.0247,1,1,1.0000,0.0000,1.44681,0.21439,-2.78223,0.99700,1.57080,0.00002,-0.14512,-0.38002,0.04165,,,,,,,,,,,,,,,,,,,,,,,,,,0,0,0,0,0
2.7419,1783189531.0250,1,1,1.0000,0.0000,1.44681,0.21439,-2.78223,0.99700,1.57080,0.00002,-0.14512,-0.38002,0.04165,,,,,,,,,,,,,,,,,,,,,,,,,,0,0,0,0,0
2.7518,1783189531.0350,1,1,1.0000,0.0000,1.44681,0.21418,-2.78228,0.99726,1.57080,0.00002,-0.14512,-0.38002,0.04160,,,,,,,,,,,,,,,,,,,,,,,,,,0,0,0,0,0
2.7643,1783189531.0474,1,1,1.0000,0.0000,1.44681,0.21410,-2.78230,0.99736,1.57080,0.00002,-0.14512,-0.38002,0.04158,,,,,,,,,,,,,,,,,,,,,,,,,,0,0,0,0,0
2.7708,1783189531.0539,1,1,1.0000,0.0000,1.44681,0.21404,-2.78231,0.99743,1.57080,0.00002,-0.14512,-0.38002,0.04156,,,,,,,,,,,,,,,,,,,,,,,,,,0,0,0,0,0
2.7711,1783189531.0542,1,1,1.0000,0.0000,1.44681,0.21404,-2.78231,0.99743,1.57080,0.00002,-0.14512,-0.38002,0.04156,,,,,,,,,,,,,,,,,,,,,,,,,,0,0,0,0,0
2.7833,1783189531.0664,1,1,1.0000,0.0000,1.44681,0.21388,-2.78235,0.99764,1.57080,0.00002,-0.14512,-0.38002,0.04152,,,,,,,,,,,,,,,,,,,,,,,,,,0,0,0,0,0
2.7913,1783189531.0744,1,1,1.0000,0.0000,1.44681,0.21387,-2.78235,0.99765,1.57080,0.00002,-0.14512,-0.38002,0.04152,,,,,,,,,,,,,,,,,,,,,,,,,,0,0,0,0,0
2.8078,1783189531.0910,1,1,1.0000,0.0000,1.44681,0.21365,-2.78241,0.99793,1.57080,0.00002,-0.14512,-0.38002,0.04146,,,,,,,,,,,,,,,,,,,,,,,,,,0,0,0,0,0
2.8145,1783189531.0976,1,1,1.0000,0.0000,1.44681,0.21350,-2.78244,0.99810,1.57080,0.00002,-0.14512,-0.38002,0.04143,,,,,,,,,,,,,,,,,,,,,,,,,,0,0,0,0,0
2.8148,1783189531.0979,1,1,1.0000,0.0000,1.44681,0.21350,-2.78244,0.99810,1.57080,0.00002,-0.14512,-0.38002,0.04143,,,,,,,,,,,,,,,,,,,,,,,,,,0,0,0,0,0
2.8221,1783189531.1052,1,1,1.0000,0.0000,1.44681,0.21350,-2.78244,0.99810,1.57080,0.00002,-0.14512,-0.38002,0.04143,,,,,,,,,,,,,,,,,,,,,,,,,,0,0,0,0,0
2.8228,1783189531.1059,1,1,1.0000,0.0000,1.44681,0.21349,-2.78244,0.99812,1.57080,0.00002,-0.14512,-0.38002,0.04142,,,,,,,,,,,,,,,,,,,,,,,,,,0,0,0,0,0
2.8331,1783189531.1162,1,1,1.0000,0.0000,1.44681,0.21343,-2.78246,0.99819,1.57080,0.00002,-0.14512,-0.38002,0.04141,,,,,,,,,,,,,,,,,,,,,,,,,,0,0,0,0,0
2.8334,1783189531.1166,1,1,1.0000,0.0000,1.44681,0.21343,-2.78246,0.99819,1.57080,0.00002,-0.14512,-0.38002,0.04141,,,,,,,,,,,,,,,,,,,,,,,,,,0,0,0,0,0
2.8437,1783189531.1268,1,1,1.0000,0.0000,1.44681,0.21327,-2.78250,0.99839,1.57080,0.00002,-0.14512,-0.38002,0.04137,,,,,,,,,,,,,,,,,,,,,,,,,,0,0,0,0,0
2.8560,1783189531.1391,1,1,1.0000,0.0000,1.44681,0.21322,-2.78251,0.99845,1.57080,0.00002,-0.14512,-0.38002,0.04136,,,,,,,,,,,,,,,,,,,,,,,,,,0,0,0,0,0
2.8667,1783189531.1499,1,1,1.0000,0.0000,1.44681,0.21304,-2.78256,0.99869,1.57080,0.00002,-0.14512,-0.38002,0.04131,,,,,,,,,,,,,,,,,,,,,,,,,,0,0,0,0,0
2.8711,1783189531.1542,1,1,1.0000,0.0000,1.44681,0.21296,-2.78257,0.99878,1.57080,0.00002,-0.14512,-0.38002,0.04129,,,,,,,,,,,,,,,,,,,,,,,,,,0,0,0,0,0
2.8852,1783189531.1683,1,1,1.0000,0.0000,1.44681,0.21288,-2.78259,0.99887,1.57080,0.00002,-0.14512,-0.38002,0.04127,,,,,,,,,,,,,,,,,,,,,,,,,,0,0,0,0,0
2.8931,1783189531.1763,1,1,1.0000,0.0000,1.44681,0.21282,-2.78261,0.99895,1.57080,0.00002,-0.14512,-0.38002,0.04125,,,,,,,,,,,,,,,,,,,,,,,,,,0,0,0,0,0
2.9072,1783189531.1903,1,1,1.0000,0.0000,1.44681,0.21266,-2.78265,0.99915,1.57080,0.00002,-0.14512,-0.38002,0.04121,,,,,,,,,,,,,,,,,,,,,,,,,,0,0,0,0,0
2.9075,1783189531.1906,1,1,1.0000,0.0000,1.44681,0.21266,-2.78265,0.99915,1.57080,0.00002,-0.14512,-0.38002,0.04121,,,,,,,,,,,,,,,,,,,,,,,,,,0,0,0,0,0
2.9125,1783189531.1957,1,1,1.0000,0.0000,1.44681,0.21265,-2.78265,0.99917,1.57080,0.00002,-0.14512,-0.38002,0.04121,,,,,,,,,,,,,,,,,,,,,,,,,,0,0,0,0,0
2.9130,1783189531.1961,1,1,1.0000,0.0000,1.44681,0.21265,-2.78265,0.99917,1.57080,0.00002,-0.14512,-0.38002,0.04121,,,,,,,,,,,,,,,,,,,,,,,,,,0,0,0,0,0
2.9268,1783189531.2099,1,1,1.0000,0.0000,1.44681,0.21243,-2.78270,0.99944,1.57080,0.00002,-0.14512,-0.38002,0.04115,,,,,,,,,,,,,,,,,,,,,,,,,,0,0,0,0,0
2.9309,1783189531.2140,1,1,1.0000,0.0000,1.44681,0.21235,-2.78272,0.99954,1.57080,0.00002,-0.14512,-0.38002,0.04113,,,,,,,,,,,,,,,,,,,,,,,,,,0,0,0,0,0
2.9313,1783189531.2145,1,1,1.0000,0.0000,1.44681,0.21235,-2.78272,0.99954,1.57080,0.00002,-0.14512,-0.38002,0.04113,,,,,,,,,,,,,,,,,,,,,,,,,,0,0,0,0,0
2.9409,1783189531.2240,1,1,1.0000,0.0000,1.44681,0.21228,-2.78274,0.99962,1.57080,0.00002,-0.14512,-0.38002,0.04112,,,,,,,,,,,,,,,,,,,,,,,,,,0,0,0,0,0
2.9412,1783189531.2244,1,1,1.0000,0.0000,1.44681,0.21228,-2.78274,0.99962,1.57080,0.00002,-0.14512,-0.38002,0.04112,,,,,,,,,,,,,,,,,,,,,,,,,,0,0,0,0,0
2.9538,1783189531.2369,1,1,1.0000,0.0000,1.44681,0.21221,-2.78276,0.99971,1.57080,0.00002,-0.14512,-0.38002,0.04110,,,,,,,,,,,,,,,,,,,,,,,,,,0,0,0,0,0
2.9626,1783189531.2457,1,1,1.0000,0.0000,1.44681,0.21205,-2.78280,0.99991,1.57080,0.00002,-0.14512,-0.38002,0.04106,,,,,,,,,,,,,,,,,,,,,,,,,,0,0,0,0,0
2.9712,1783189531.2543,1,1,1.0000,0.0000,1.44681,0.21204,-2.78280,0.99993,1.57080,0.00002,-0.14512,-0.38002,0.04105,,,,,,,,,,,,,,,,,,,,,,,,,,0,0,0,0,0
2.9880,1783189531.2711,1,1,1.0000,0.0000,1.44681,0.21181,-2.78285,1.00020,1.57080,0.00002,-0.14512,-0.38002,0.04100,,,,,,,,,,,,,,,,,,,,,,,,,,0,0,0,0,0
2.9910,1783189531.2741,1,1,1.0000,0.0000,1.44681,0.21174,-2.78287,1.00029,1.57080,0.00002,-0.14512,-0.38002,0.04098,,,,,,,,,,,,,,,,,,,,,,,,,,0,0,0,0,0
2.9913,1783189531.2744,1,1,1.0000,0.0000,1.44681,0.21174,-2.78287,1.00029,1.57080,0.00002,-0.14512,-0.38002,0.04098,,,,,,,,,,,,,,,,,,,,,,,,,,0,0,0,0,0
3.0156,1783189531.2987,1,1,1.0000,0.0000,1.44681,0.21155,-2.78292,1.00053,1.57080,0.00002,-0.14512,-0.38002,0.04093,,,,,,,,,,,,,,,,,,,,,,,,,,0,0,0,0,0
3.0160,1783189531.2991,1,1,1.0000,0.0000,1.44681,0.21155,-2.78292,1.00053,1.57080,0.00002,-0.14512,-0.38002,0.04093,,,,,,,,,,,,,,,,,,,,,,,,,,0,0,0,0,0
3.0228,1783189531.3059,1,1,1.0000,0.0000,1.44681,0.21144,-2.78294,1.00067,1.57080,0.00002,-0.14512,-0.38002,0.04090,,,,,,,,,,,,,,,,,,,,,,,,,,0,0,0,0,0
3.0232,1783189531.3063,1,1,1.0000,0.0000,1.44681,0.21144,-2.78294,1.00067,1.57080,0.00002,-0.14512,-0.38002,0.04090,,,,,,,,,,,,,,,,,,,,,,,,,,0,0,0,0,0
3.0309,1783189531.3141,1,1,1.0000,0.0000,1.44681,0.21142,-2.78295,1.00069,1.57080,0.00002,-0.14512,-0.38002,0.04090,,,,,,,,,,,,,,,,,,,,,,,,,,0,0,0,0,0
3.0312,1783189531.3143,1,1,1.0000,0.0000,1.44681,0.21142,-2.78295,1.00069,1.57080,0.00002,-0.14512,-0.38002,0.04090,,,,,,,,,,,,,,,,,,,,,,,,,,0,0,0,0,0
3.0410,1783189531.3241,1,1,1.0000,0.0000,1.44681,0.21134,-2.78297,1.00080,1.57080,0.00002,-0.14512,-0.38002,0.04088,,,,,,,,,,,,,,,,,,,,,,,,,,0,0,0,0,0
3.0413,1783189531.3244,1,1,1.0000,0.0000,1.44681,0.21134,-2.78297,1.00080,1.57080,0.00002,-0.14512,-0.38002,0.04088,,,,,,,,,,,,,,,,,,,,,,,,,,0,0,0,0,0
3.0577,1783189531.3409,1,1,1.0000,0.0000,1.44681,0.21106,-2.78304,1.00114,1.57080,0.00002,-0.14512,-0.38002,0.04081,,,,,,,,,,,,,,,,,,,,,,,,,,0,0,0,0,0
3.0621,1783189531.3452,1,1,1.0000,0.0000,1.44681,0.21106,-2.78304,1.00114,1.57080,0.00002,-0.14512,-0.38002,0.04081,,,,,,,,,,,,,,,,,,,,,,,,,,0,0,0,0,0
3.0712,1783189531.3544,1,1,1.0000,0.0000,1.44681,0.21099,-2.78305,1.00123,1.57080,0.00002,-0.14512,-0.38002,0.04079,,,,,,,,,,,,,,,,,,,,,,,,,,0,0,0,0,0
3.0842,1783189531.3673,1,1,1.0000,0.0000,1.44681,0.21083,-2.78309,1.00143,1.57080,0.00002,-0.14512,-0.38002,0.04075,,,,,,,,,,,,,,,,,,,,,,,,,,0,0,0,0,0
3.0930,1783189531.3762,1,1,1.0000,0.0000,1.44681,0.21081,-2.78309,1.00145,1.57080,0.00002,-0.14512,-0.38002,0.04074,,,,,,,,,,,,,,,,,,,,,,,,,,0,0,0,0,0
3.1023,1783189531.3854,1,1,1.0000,0.0000,1.44681,0.21073,-2.78312,1.00156,1.57080,0.00002,-0.14512,-0.38002,0.04072,,,,,,,,,,,,,,,,,,,,,,,,,,0,0,0,0,0
3.1178,1783189531.4009,1,1,1.0000,0.0000,1.44681,0.21045,-2.78318,1.00190,1.57080,0.00002,-0.14512,-0.38002,0.04065,,,,,,,,,,,,,,,,,,,,,,,,,,0,0,0,0,0
3.1182,1783189531.4013,1,1,1.0000,0.0000,1.44681,0.21045,-2.78318,1.00190,1.57080,0.00002,-0.14512,-0.38002,0.04065,,,,,,,,,,,,,,,,,,,,,,,,,,0,0,0,0,0
3.1210,1783189531.4042,1,1,1.0000,0.0000,1.44681,0.21045,-2.78318,1.00190,1.57080,0.00002,-0.14512,-0.38002,0.04065,,,,,,,,,,,,,,,,,,,,,,,,,,0,0,0,0,0
3.1309,1783189531.4140,1,1,1.0000,0.0000,1.44681,0.21035,-2.78321,1.00202,1.57080,0.00002,-0.14512,-0.38002,0.04063,,,,,,,,,,,,,,,,,,,,,,,,,,0,0,0,0,0
3.1313,1783189531.4144,1,1,1.0000,0.0000,1.44681,0.21035,-2.78321,1.00202,1.57080,0.00002,-0.14512,-0.38002,0.04063,,,,,,,,,,,,,,,,,,,,,,,,,,0,0,0,0,0
3.2323,1783189531.5154,1,1,1.0000,0.0000,1.44680,0.20924,-2.78348,1.00340,1.57079,0.00002,-0.14512,-0.38002,0.04034,,,,,,,,,,,,,,,,,,,,,,,,,,0,0,0,0,0
3.2327,1783189531.5158,1,1,1.0000,0.0000,1.44680,0.20924,-2.78348,1.00340,1.57079,0.00002,-0.14512,-0.38002,0.04034,,,,,,,,,,,,,,,,,,,,,,,,,,0,0,0,0,0
3.2331,1783189531.5163,1,1,1.0000,0.0000,1.44680,0.20924,-2.78348,1.00340,1.57079,0.00002,-0.14512,-0.38002,0.04034,,,,,,,,,,,,,,,,,,,,,,,,,,0,0,0,0,0
3.2893,1783189531.5724,1,1,1.0000,0.0000,1.44680,0.20864,-2.78362,1.00415,1.57079,0.00002,-0.14512,-0.38002,0.04019,,,,,,,,,,,,,,,,,,,,,,,,,,0,0,0,0,0
3.2897,1783189531.5729,1,1,1.0000,0.0000,1.44680,0.20864,-2.78362,1.00415,1.57079,0.00002,-0.14512,-0.38002,0.04019,,,,,,,,,,,,,,,,,,,,,,,,,,0,0,0,0,0
3.2902,1783189531.5733,1,1,1.0000,0.0000,1.44680,0.20864,-2.78362,1.00415,1.57079,0.00002,-0.14512,-0.38002,0.04019,,,,,,,,,,,,,,,,,,,,,,,,,,0,0,0,0,0
3.2909,1783189531.5740,1,1,1.0000,0.0000,1.44680,0.20857,-2.78364,1.00423,1.57079,0.00002,-0.14512,-0.38002,0.04018,,,,,,,,,,,,,,,,,,,,,,,,,,0,0,0,0,0
3.2912,1783189531.5743,1,1,1.0000,0.0000,1.44680,0.20857,-2.78364,1.00423,1.57079,0.00002,-0.14512,-0.38002,0.04018,,,,,,,,,,,,,,,,,,,,,,,,,,0,0,0,0,0
3.2950,1783189531.5781,1,1,1.0000,0.0000,1.44680,0.20850,-2.78365,1.00432,1.57079,0.00002,-0.14512,-0.38002,0.04016,,,,,,,,,,,,,,,,,,,,,,,,,,0,0,0,0,0
3.2953,1783189531.5785,1,1,1.0000,0.0000,1.44680,0.20850,-2.78365,1.00432,1.57079,0.00002,-0.14512,-0.38002,0.04016,,,,,,,,,,,,,,,,,,,,,,,,,,0,0,0,0,0
3.3053,1783189531.5884,1,1,1.0000,0.0000,1.44680,0.20848,-2.78366,1.00434,1.57079,0.00002,-0.14512,-0.38002,0.04016,,,,,,,,,,,,,,,,,,,,,,,,,,0,0,0,0,0
3.3220,1783189531.6052,1,1,1.0000,0.0000,1.44680,0.20827,-2.78371,1.00461,1.57079,0.00002,-0.14512,-0.38002,0.04010,,,,,,,,,,,,,,,,,,,,,,,,,,0,0,0,0,0
3.3230,1783189531.6061,1,1,1.0000,0.0000,1.44680,0.20820,-2.78373,1.00469,1.57079,0.00002,-0.14512,-0.38002,0.04008,,,,,,,,,,,,,,,,,,,,,,,,,,0,0,0,0,0
3.3310,1783189531.6141,1,1,1.0000,0.0000,1.44680,0.20813,-2.78374,1.00478,1.57079,0.00002,-0.14512,-0.38002,0.04006,,,,,,,,,,,,,,,,,,,,,,,,,,0,0,0,0,0
3.3314,1783189531.6145,1,1,1.0000,0.0000,1.44680,0.20813,-2.78374,1.00478,1.57079,0.00002,-0.14512,-0.38002,0.04006,,,,,,,,,,,,,,,,,,,,,,,,,,0,0,0,0,0
3.3411,1783189531.6242,1,1,1.0000,0.0000,1.44680,0.20809,-2.78375,1.00482,1.57079,0.00002,-0.14512,-0.38002,0.04006,,,,,,,,,,,,,,,,,,,,,,,,,,0,0,0,0,0
3.3520,1783189531.6351,1,1,1.0000,0.0000,1.44680,0.20795,-2.78378,1.00500,1.57079,0.00002,-0.14512,-0.38002,0.04002,,,,,,,,,,,,,,,,,,,,,,,,,,0,0,0,0,0
3.3650,1783189531.6481,1,1,1.0000,0.0000,1.44680,0.20788,-2.78380,1.00509,1.57079,0.00002,-0.14512,-0.38002,0.04000,,,,,,,,,,,,,,,,,,,,,,,,,,0,0,0,0,0
3.3709,1783189531.6540,1,1,1.0000,0.0000,1.44680,0.20779,-2.78382,1.00520,1.57079,0.00002,-0.14512,-0.38002,0.03998,,,,,,,,,,,,,,,,,,,,,,,,,,0,0,0,0,0
3.3712,1783189531.6543,1,1,1.0000,0.0000,1.44680,0.20779,-2.78382,1.00520,1.57079,0.00002,-0.14512,-0.38002,0.03998,,,,,,,,,,,,,,,,,,,,,,,,,,0,0,0,0,0
3.3810,1783189531.6641,1,1,1.0000,0.0000,1.44680,0.20765,-2.78386,1.00537,1.57079,0.00002,-0.14512,-0.38002,0.03995,,,,,,,,,,,,,,,,,,,,,,,,,,0,0,0,0,0
3.3950,1783189531.6781,1,1,1.0000,0.0000,1.44680,0.20750,-2.78389,1.00556,1.57079,0.00002,-0.14512,-0.38002,0.03991,,,,,,,,,,,,,,,,,,,,,,,,,,0,0,0,0,0
3.3954,1783189531.6785,1,1,1.0000,0.0000,1.44680,0.20750,-2.78389,1.00556,1.57079,0.00002,-0.14512,-0.38002,0.03991,,,,,,,,,,,,,,,,,,,,,,,,,,0,0,0,0,0
3.4014,1783189531.6845,1,1,1.0000,0.0000,1.44680,0.20748,-2.78390,1.00559,1.57079,0.00002,-0.14512,-0.38002,0.03990,,,,,,,,,,,,,,,,,,,,,,,,,,0,0,0,0,0
3.4229,1783189531.7060,1,1,1.0000,0.0000,1.44680,0.20726,-2.78395,1.00585,1.57079,0.00002,-0.14512,-0.38002,0.03985,,,,,,,,,,,,,,,,,,,,,,,,,,0,0,0,0,0
3.4233,1783189531.7064,1,1,1.0000,0.0000,1.44680,0.20726,-2.78395,1.00585,1.57079,0.00002,-0.14512,-0.38002,0.03985,,,,,,,,,,,,,,,,,,,,,,,,,,0,0,0,0,0
3.4325,1783189531.7156,1,1,1.0000,0.0000,1.44680,0.20717,-2.78397,1.00596,1.57079,0.00002,-0.14512,-0.38002,0.03982,,,,,,,,,,,,,,,,,,,,,,,,,,0,0,0,0,0
3.4410,1783189531.7241,1,1,1.0000,0.0000,1.44680,0.20704,-2.78400,1.00613,1.57079,0.00002,-0.14512,-0.38002,0.03979,,,,,,,,,,,,,,,,,,,,,,,,,,0,0,0,0,0
3.4509,1783189531.7340,1,1,1.0000,0.0000,1.44680,0.20689,-2.78404,1.00631,1.57079,0.00002,-0.14512,-0.38002,0.03975,,,,,,,,,,,,,,,,,,,,,,,,,,0,0,0,0,0
3.4513,1783189531.7344,1,1,1.0000,0.0000,1.44680,0.20689,-2.78404,1.00631,1.57079,0.00002,-0.14512,-0.38002,0.03975,,,,,,,,,,,,,,,,,,,,,,,,,,0,0,0,0,0
3.4662,1783189531.7493,1,1,1.0000,0.0000,1.44680,0.20682,-2.78405,1.00640,1.57079,0.00002,-0.14512,-0.38002,0.03974,,,,,,,,,,,,,,,,,,,,,,,,,,0,0,0,0,0
3.4753,1783189531.7584,1,1,1.0000,0.0000,1.44680,0.20666,-2.78409,1.00660,1.57079,0.00002,-0.14512,-0.38002,0.03969,,,,,,,,,,,,,,,,,,,,,,,,,,0,0,0,0,0
3.4831,1783189531.7662,1,1,1.0000,0.0000,1.44680,0.20665,-2.78410,1.00662,1.57079,0.00002,-0.14512,-0.38002,0.03969,,,,,,,,,,,,,,,,,,,,,,,,,,0,0,0,0,0
3.4932,1783189531.7763,1,1,1.0000,0.0000,1.44680,0.20656,-2.78412,1.00672,1.57079,0.00002,-0.14512,-0.38002,0.03967,,,,,,,,,,,,,,,,,,,,,,,,,,0,0,0,0,0
3.5009,1783189531.7841,1,1,1.0000,0.0000,1.44680,0.20642,-2.78415,1.00689,1.57079,0.00002,-0.14512,-0.38002,0.03964,,,,,,,,,,,,,,,,,,,,,,,,,,0,0,0,0,0
3.5012,1783189531.7843,1,1,1.0000,0.0000,1.44680,0.20642,-2.78415,1.00689,1.57079,0.00002,-0.14512,-0.38002,0.03964,,,,,,,,,,,,,,,,,,,,,,,,,,0,0,0,0,0
3.5112,1783189531.7944,1,1,1.0000,0.0000,1.44680,0.20628,-2.78418,1.00707,1.57079,0.00002,-0.14512,-0.38002,0.03960,,,,,,,,,,,,,,,,,,,,,,,,,,0,0,0,0,0
3.5256,1783189531.8087,1,1,1.0000,0.0000,1.44680,0.20621,-2.78420,1.00716,1.57079,0.00002,-0.14512,-0.38002,0.03958,,,,,,,,,,,,,,,,,,,,,,,,,,0,0,0,0,0
3.5353,1783189531.8185,1,1,1.0000,0.0000,1.44680,0.20604,-2.78424,1.00736,1.57079,0.00002,-0.14512,-0.38002,0.03954,,,,,,,,,,,,,,,,,,,,,,,,,,0,0,0,0,0
3.5425,1783189531.8256,1,1,1.0000,0.0000,1.44680,0.20604,-2.78424,1.00736,1.57079,0.00002,-0.14512,-0.38002,0.03954,,,,,,,,,,,,,,,,,,,,,,,,,,0,0,0,0,0
3.5430,1783189531.8261,1,1,1.0000,0.0000,1.44680,0.20603,-2.78424,1.00738,1.57079,0.00002,-0.14512,-0.38002,0.03954,,,,,,,,,,,,,,,,,,,,,,,,,,0,0,0,0,0
3.5434,1783189531.8265,1,1,1.0000,0.0000,1.44680,0.20603,-2.78424,1.00738,1.57079,0.00002,-0.14512,-0.38002,0.03954,,,,,,,,,,,,,,,,,,,,,,,,,,0,0,0,0,0
3.5523,1783189531.8355,1,1,1.0000,0.0000,1.44680,0.20594,-2.78426,1.00749,1.57079,0.00002,-0.14512,-0.38002,0.03951,,,,,,,,,,,,,,,,,,,,,,,,,,0,0,0,0,0
3.5616,1783189531.8447,1,1,1.0000,0.0000,1.44680,0.20581,-2.78430,1.00766,1.57079,0.00002,-0.14512,-0.38002,0.03948,,,,,,,,,,,,,,,,,,,,,,,,,,0,0,0,0,0
3.5763,1783189531.8594,1,1,1.0000,0.0000,1.44680,0.20565,-2.78433,1.00785,1.57079,0.00002,-0.14512,-0.38002,0.03944,,,,,,,,,,,,,,,,,,,,,,,,,,0,0,0,0,0
3.5832,1783189531.8663,1,1,1.0000,0.0000,1.44680,0.20559,-2.78435,1.00792,1.57079,0.00002,-0.14512,-0.38002,0.03943,,,,,,,,,,,,,,,,,,,,,,,,,,0,0,0,0,0
3.5911,1783189531.8742,1,1,1.0000,0.0000,1.44680,0.20549,-2.78437,1.00805,1.57079,0.00002,-0.14512,-0.38002,0.03940,,,,,,,,,,,,,,,,,,,,,,,,,,0,0,0,0,0
3.6034,1783189531.8865,1,1,1.0000,0.0000,1.44680,0.20541,-2.78439,1.00814,1.57079,0.00002,-0.14512,-0.38002,0.03938,,,,,,,,,,,,,,,,,,,,,,,,,,0,0,0,0,0
3.6115,1783189531.8946,1,1,1.0000,0.0000,1.44680,0.20532,-2.78441,1.00825,1.57079,0.00002,-0.14512,-0.38002,0.03936,,,,,,,,,,,,,,,,,,,,,,,,,,0,0,0,0,0
3.6119,1783189531.8950,1,1,1.0000,0.0000,1.44680,0.20532,-2.78441,1.00825,1.57079,0.00002,-0.14512,-0.38002,0.03936,,,,,,,,,,,,,,,,,,,,,,,,,,0,0,0,0,0
3.6259,1783189531.9090,1,1,1.0000,0.0000,1.44680,0.20511,-2.78446,1.00851,1.57079,0.00002,-0.14512,-0.38002,0.03931,,,,,,,,,,,,,,,,,,,,,,,,,,0,0,0,0,0
3.6310,1783189531.9141,1,1,1.0000,0.0000,1.44680,0.20504,-2.78448,1.00860,1.57079,0.00002,-0.14512,-0.38002,0.03929,,,,,,,,,,,,,,,,,,,,,,,,,,0,0,0,0,0
3.6313,1783189531.9144,1,1,1.0000,0.0000,1.44680,0.20504,-2.78448,1.00860,1.57079,0.00002,-0.14512,-0.38002,0.03929,,,,,,,,,,,,,,,,,,,,,,,,,,0,0,0,0,0
3.6456,1783189531.9287,1,1,1.0000,0.0000,1.44680,0.20497,-2.78449,1.00869,1.57079,0.00002,-0.14512,-0.38002,0.03927,,,,,,,,,,,,,,,,,,,,,,,,,,0,0,0,0,0
3.6539,1783189531.9370,1,1,1.0000,0.0000,1.44680,0.20487,-2.78452,1.00881,1.57079,0.00002,-0.14512,-0.38002,0.03925,,,,,,,,,,,,,,,,,,,,,,,,,,0,0,0,0,0
3.6618,1783189531.9449,1,1,1.0000,0.0000,1.44680,0.20481,-2.78453,1.00889,1.57079,0.00002,-0.14512,-0.38002,0.03923,,,,,,,,,,,,,,,,,,,,,,,,,,0,0,0,0,0
3.6718,1783189531.9550,1,1,1.0000,0.0000,1.44680,0.20471,-2.78456,1.00901,1.57079,0.00002,-0.14512,-0.38002,0.03920,,,,,,,,,,,,,,,,,,,,,,,,,,0,0,0,0,0
3.6882,1783189531.9713,1,1,1.0000,0.0000,1.44680,0.20443,-2.78462,1.00936,1.57079,0.00002,-0.14512,-0.38002,0.03913,,,,,,,,,,,,,,,,,,,,,,,,,,0,0,0,0,0
3.6909,1783189531.9740,1,1,1.0000,0.0000,1.44680,0.20443,-2.78462,1.00936,1.57079,0.00002,-0.14512,-0.38002,0.03913,,,,,,,,,,,,,,,,,,,,,,,,,,0,0,0,0,0
3.7031,1783189531.9862,1,1,1.0000,0.0000,1.44680,0.20435,-2.78464,1.00945,1.57079,0.00002,-0.14512,-0.38002,0.03912,,,,,,,,,,,,,,,,,,,,,,,,,,0,0,0,0,0
3.7129,1783189531.9960,1,1,1.0000,0.0000,1.44680,0.20425,-2.78467,1.00958,1.57079,0.00002,-0.14512,-0.38002,0.03909,,,,,,,,,,,,,,,,,,,,,,,,,,0,0,0,0,0
3.7280,1783189532.0111,1,1,1.0000,0.0000,1.44680,0.20414,-2.78469,1.00971,1.57079,0.00002,-0.14512,-0.38002,0.03906,,,,,,,,,,,,,,,,,,,,,,,,,,0,0,0,0,0
3.7313,1783189532.0144,1,1,1.0000,0.0000,1.44680,0.20409,-2.78470,1.00978,1.57079,0.00002,-0.14512,-0.38002,0.03905,,,,,,,,,,,,,,,,,,,,,,,,,,0,0,0,0,0
3.7429,1783189532.0260,1,1,1.0000,0.0000,1.44680,0.20388,-2.78475,1.01004,1.57079,0.00002,-0.14512,-0.38002,0.03900,,,,,,,,,,,,,,,,,,,,,,,,,,0,0,0,0,0
3.7510,1783189532.0341,1,1,1.0000,0.0000,1.44680,0.20381,-2.78477,1.01013,1.57079,0.00002,-0.14512,-0.38002,0.03898,,,,,,,,,,,,,,,,,,,,,,,,,,0,0,0,0,0
3.7513,1783189532.0344,1,1,1.0000,0.0000,1.44680,0.20381,-2.78477,1.01013,1.57079,0.00002,-0.14512,-0.38002,0.03898,,,,,,,,,,,,,,,,,,,,,,,,,,0,0,0,0,0
3.7611,1783189532.0442,1,1,1.0000,0.0000,1.44680,0.20376,-2.78478,1.01018,1.57079,0.00002,-0.14512,-0.38002,0.03897,,,,,,,,,,,,,,,,,,,,,,,,,,0,0,0,0,0
3.7615,1783189532.0446,1,1,1.0000,0.0000,1.44680,0.20376,-2.78478,1.01018,1.57079,0.00002,-0.14512,-0.38002,0.03897,,,,,,,,,,,,,,,,,,,,,,,,,,0,0,0,0,0
3.7743,1783189532.0574,1,1,1.0000,0.0000,1.44680,0.20358,-2.78483,1.01041,1.57079,0.00002,-0.14512,-0.38002,0.03892,,,,,,,,,,,,,,,,,,,,,,,,,,0,0,0,0,0
3.7877,1783189532.0708,1,1,1.0000,0.0000,1.44680,0.20346,-2.78485,1.01056,1.57079,0.00002,-0.14512,-0.38002,0.03889,,,,,,,,,,,,,,,,,,,,,,,,,,0,0,0,0,0
3.7879,1783189532.0710,1,1,1.0000,0.0000,1.44680,0.20346,-2.78485,1.01056,1.57079,0.00002,-0.14512,-0.38002,0.03889,,,,,,,,,,,,,,,,,,,,,,,,,,0,0,0,0,0
3.7910,1783189532.0741,1,1,1.0000,0.0000,1.44680,0.20341,-2.78487,1.01062,1.57079,0.00002,-0.14512,-0.38002,0.03888,,,,,,,,,,,,,,,,,,,,,,,,,,0,0,0,0,0
3.7913,1783189532.0744,1,1,1.0000,0.0000,1.44680,0.20341,-2.78487,1.01062,1.57079,0.00002,-0.14512,-0.38002,0.03888,,,,,,,,,,,,,,,,,,,,,,,,,,0,0,0,0,0
3.8333,1783189532.1164,1,1,1.0000,0.0000,1.44680,0.20290,-2.78498,1.01125,1.57079,0.00002,-0.14512,-0.38001,0.03875,,,,,,,,,,,,,,,,,,,,,,,,,,0,0,0,0,0
3.8337,1783189532.1168,1,1,1.0000,0.0000,1.44680,0.20290,-2.78498,1.01125,1.57079,0.00002,-0.14512,-0.38001,0.03875,,,,,,,,,,,,,,,,,,,,,,,,,,0,0,0,0,0
3.8342,1783189532.1173,1,1,1.0000,0.0000,1.44680,0.20290,-2.78498,1.01125,1.57079,0.00002,-0.14512,-0.38001,0.03875,,,,,,,,,,,,,,,,,,,,,,,,,,0,0,0,0,0
3.8512,1783189532.1344,1,1,1.0000,0.0000,1.44680,0.20273,-2.78502,1.01145,1.57079,0.00002,-0.14512,-0.38001,0.03871,,,,,,,,,,,,,,,,,,,,,,,,,,0,0,0,0,0
3.9333,1783189532.2164,1,1,1.0000,0.0000,1.44680,0.20178,-2.78525,1.01263,1.57079,0.00002,-0.14512,-0.38001,0.03847,,,,,,,,,,,,,,,,,,,,,,,,,,0,0,0,0,0
3.9336,1783189532.2168,1,1,1.0000,0.0000,1.44680,0.20178,-2.78525,1.01263,1.57079,0.00002,-0.14512,-0.38001,0.03847,,,,,,,,,,,,,,,,,,,,,,,,,,0,0,0,0,0
3.9340,1783189532.2171,1,1,1.0000,0.0000,1.44680,0.20178,-2.78525,1.01263,1.57079,0.00002,-0.14512,-0.38001,0.03847,,,,,,,,,,,,,,,,,,,,,,,,,,0,0,0,0,0
3.9342,1783189532.2173,1,1,1.0000,0.0000,1.44680,0.20178,-2.78525,1.01263,1.57079,0.00002,-0.14512,-0.38001,0.03847,,,,,,,,,,,,,,,,,,,,,,,,,,0,0,0,0,0
3.9346,1783189532.2177,1,1,1.0000,0.0000,1.44680,0.20178,-2.78525,1.01263,1.57079,0.00002,-0.14512,-0.38001,0.03847,,,,,,,,,,,,,,,,,,,,,,,,,,0,0,0,0,0
3.9350,1783189532.2181,1,1,1.0000,0.0000,1.44680,0.20177,-2.78525,1.01264,1.57079,0.00002,-0.14512,-0.38001,0.03847,,,,,,,,,,,,,,,,,,,,,,,,,,0,0,0,0,0
3.9352,1783189532.2184,1,1,1.0000,0.0000,1.44680,0.20177,-2.78525,1.01264,1.57079,0.00002,-0.14512,-0.38001,0.03847,,,,,,,,,,,,,,,,,,,,,,,,,,0,0,0,0,0
3.9356,1783189532.2187,1,1,1.0000,0.0000,1.44680,0.20177,-2.78525,1.01264,1.57079,0.00002,-0.14512,-0.38001,0.03847,,,,,,,,,,,,,,,,,,,,,,,,,,0,0,0,0,0
3.9416,1783189532.2247,1,1,1.0000,0.0000,1.44680,0.20174,-2.78526,1.01269,1.57079,0.00002,-0.14512,-0.38001,0.03846,,,,,,,,,,,,,,,,,,,,,,,,,,0,0,0,0,0
3.9420,1783189532.2251,1,1,1.0000,0.0000,1.44680,0.20174,-2.78526,1.01269,1.57079,0.00002,-0.14512,-0.38001,0.03846,,,,,,,,,,,,,,,,,,,,,,,,,,0,0,0,0,0
3.9438,1783189532.2270,1,1,1.0000,0.0000,1.44680,0.20169,-2.78527,1.01275,1.57079,0.00002,-0.14512,-0.38001,0.03845,,,,,,,,,,,,,,,,,,,,,,,,,,0,0,0,0,0
3.9510,1783189532.2341,1,1,1.0000,0.0000,1.44680,0.20155,-2.78530,1.01291,1.57079,0.00002,-0.14512,-0.38001,0.03841,,,,,,,,,,,,,,,,,,,,,,,,,,0,0,0,0,0
3.9514,1783189532.2345,1,1,1.0000,0.0000,1.44680,0.20155,-2.78530,1.01291,1.57079,0.00002,-0.14512,-0.38001,0.03841,,,,,,,,,,,,,,,,,,,,,,,,,,0,0,0,0,0
3.9611,1783189532.2442,1,1,1.0000,0.0000,1.44680,0.20148,-2.78532,1.01300,1.57079,0.00003,-0.14512,-0.38001,0.03840,,,,,,,,,,,,,,,,,,,,,,,,,,0,0,0,0,0
3.9759,1783189532.2590,1,1,1.0000,0.0000,1.44680,0.20132,-2.78536,1.01320,1.57079,0.00003,-0.14512,-0.38001,0.03836,,,,,,,,,,,,,,,,,,,,,,,,,,0,0,0,0,0
3.9856,1783189532.2687,1,1,1.0000,0.0000,1.44680,0.20118,-2.78539,1.01338,1.57079,0.00003,-0.14512,-0.38001,0.03832,,,,,,,,,,,,,,,,,,,,,,,,,,0,0,0,0,0
3.9936,1783189532.2767,1,1,1.0000,0.0000,1.44680,0.20111,-2.78541,1.01346,1.57079,0.00003,-0.14512,-0.38001,0.03830,,,,,,,,,,,,,,,,,,,,,,,,,,0,0,0,0,0
4.0012,1783189532.2843,1,1,1.0000,0.0000,1.44680,0.20106,-2.78542,1.01352,1.57079,0.00003,-0.14512,-0.38001,0.03829,,,,,,,,,,,,,,,,,,,,,,,,,,0,0,0,0,0
4.0154,1783189532.2985,1,1,1.0000,0.0000,1.44680,0.20080,-2.78548,1.01384,1.57079,0.00003,-0.14512,-0.38001,0.03823,,,,,,,,,,,,,,,,,,,,,,,,,,0,0,0,0,0
4.0158,1783189532.2989,1,1,1.0000,0.0000,1.44680,0.20080,-2.78548,1.01384,1.57079,0.00003,-0.14512,-0.38001,0.03823,,,,,,,,,,,,,,,,,,,,,,,,,,0,0,0,0,0
4.0211,1783189532.3042,1,1,1.0000,0.0000,1.44680,0.20073,-2.78550,1.01393,1.57079,0.00003,-0.14512,-0.38001,0.03821,,,,,,,,,,,,,,,,,,,,,,,,,,0,0,0,0,0
4.0351,1783189532.3182,1,1,1.0000,0.0000,1.44680,0.20066,-2.78551,1.01402,1.57079,0.00003,-0.14512,-0.38001,0.03819,,,,,,,,,,,,,,,,,,,,,,,,,,0,0,0,0,0
4.0354,1783189532.3186,1,1,1.0000,0.0000,1.44680,0.20066,-2.78551,1.01402,1.57079,0.00003,-0.14512,-0.38001,0.03819,,,,,,,,,,,,,,,,,,,,,,,,,,0,0,0,0,0
4.0413,1783189532.3244,1,1,1.0000,0.0000,1.44680,0.20061,-2.78552,1.01408,1.57079,0.00003,-0.14512,-0.38001,0.03818,,,,,,,,,,,,,,,,,,,,,,,,,,0,0,0,0,0
4.0538,1783189532.3369,1,1,1.0000,0.0000,1.44680,0.20049,-2.78555,1.01422,1.57079,0.00003,-0.14512,-0.38001,0.03815,,,,,,,,,,,,,,,,,,,,,,,,,,0,0,0,0,0
4.0632,1783189532.3463,1,1,1.0000,0.0000,1.44680,0.20039,-2.78558,1.01435,1.57079,0.00003,-0.14512,-0.38001,0.03812,,,,,,,,,,,,,,,,,,,,,,,,,,0,0,0,0,0
4.0717,1783189532.3548,1,1,1.0000,0.0000,1.44680,0.20025,-2.78561,1.01452,1.57079,0.00003,-0.14512,-0.38001,0.03809,,,,,,,,,,,,,,,,,,,,,,,,,,0,0,0,0,0
4.0821,1783189532.3652,1,1,1.0000,0.0000,1.44680,0.20011,-2.78564,1.01470,1.57079,0.00003,-0.14512,-0.38001,0.03805,,,,,,,,,,,,,,,,,,,,,,,,,,0,0,0,0,0
4.0951,1783189532.3782,1,1,1.0000,0.0000,1.44680,0.20004,-2.78566,1.01478,1.57079,0.00003,-0.14512,-0.38001,0.03804,,,,,,,,,,,,,,,,,,,,,,,,,,0,0,0,0,0
4.0955,1783189532.3786,1,1,1.0000,0.0000,1.44680,0.20004,-2.78566,1.01478,1.57079,0.00003,-0.14512,-0.38001,0.03804,,,,,,,,,,,,,,,,,,,,,,,,,,0,0,0,0,0
4.1018,1783189532.3849,1,1,1.0000,0.0000,1.44680,0.19999,-2.78567,1.01484,1.57079,0.00003,-0.14512,-0.38001,0.03802,,,,,,,,,,,,,,,,,,,,,,,,,,0,0,0,0,0
4.1182,1783189532.4013,1,1,1.0000,0.0000,1.44680,0.19986,-2.78570,1.01501,1.57079,0.00003,-0.14512,-0.38001,0.03799,,,,,,,,,,,,,,,,,,,,,,,,,,0,0,0,0,0
4.1253,1783189532.4084,1,1,1.0000,0.0000,1.44680,0.19977,-2.78572,1.01511,1.57079,0.00003,-0.14512,-0.38001,0.03797,,,,,,,,,,,,,,,,,,,,,,,,,,0,0,0,0,0
4.1358,1783189532.4189,1,1,1.0000,0.0000,1.44680,0.19956,-2.78577,1.01538,1.57079,0.00003,-0.14512,-0.38001,0.03792,,,,,,,,,,,,,,,,,,,,,,,,,,0,0,0,0,0
4.1406,1783189532.4237,1,1,1.0000,0.0000,1.44680,0.19949,-2.78579,1.01546,1.57079,0.00003,-0.14512,-0.38001,0.03790,,,,,,,,,,,,,,,,,,,,,,,,,,0,0,0,0,0
4.1410,1783189532.4241,1,1,1.0000,0.0000,1.44680,0.19949,-2.78579,1.01546,1.57079,0.00003,-0.14512,-0.38001,0.03790,,,,,,,,,,,,,,,,,,,,,,,,,,0,0,0,0,0
4.1521,1783189532.4352,1,1,1.0000,0.0000,1.44680,0.19945,-2.78580,1.01551,1.57079,0.00003,-0.14512,-0.38001,0.03789,,,,,,,,,,,,,,,,,,,,,,,,,,0,0,0,0,0
4.1525,1783189532.4356,1,1,1.0000,0.0000,1.44680,0.19945,-2.78580,1.01551,1.57079,0.00003,-0.14512,-0.38001,0.03789,,,,,,,,,,,,,,,,,,,,,,,,,,0,0,0,0,0
4.1611,1783189532.4443,1,1,1.0000,0.0000,1.44680,0.19937,-2.78582,1.01561,1.57079,0.00003,-0.14512,-0.38001,0.03787,,,,,,,,,,,,,,,,,,,,,,,,,,0,0,0,0,0
4.1755,1783189532.4586,1,1,1.0000,0.0000,1.44680,0.19924,-2.78585,1.01577,1.57079,0.00003,-0.14512,-0.38001,0.03784,,,,,,,,,,,,,,,,,,,,,,,,,,0,0,0,0,0
4.1857,1783189532.4688,1,1,1.0000,0.0000,1.44680,0.19915,-2.78587,1.01588,1.57079,0.00003,-0.14512,-0.38001,0.03781,,,,,,,,,,,,,,,,,,,,,,,,,,0,0,0,0,0
4.1860,1783189532.4692,1,1,1.0000,0.0000,1.44680,0.19915,-2.78587,1.01588,1.57079,0.00003,-0.14512,-0.38001,0.03781,,,,,,,,,,,,,,,,,,,,,,,,,,0,0,0,0,0
4.1910,1783189532.4741,1,1,1.0000,0.0000,1.44680,0.19901,-2.78590,1.01605,1.57079,0.00003,-0.14512,-0.38001,0.03778,,,,,,,,,,,,,,,,,,,,,,,,,,0,0,0,0,0
4.1912,1783189532.4744,1,1,1.0000,0.0000,1.44680,0.19901,-2.78590,1.01605,1.57079,0.00003,-0.14512,-0.38001,0.03778,,,,,,,,,,,,,,,,,,,,,,,,,,0,0,0,0,0
4.2012,1783189532.4843,1,1,1.0000,0.0000,1.44680,0.19886,-2.78593,1.01623,1.57079,0.00003,-0.14512,-0.38001,0.03774,,,,,,,,,,,,,,,,,,,,,,,,,,0,0,0,0,0
4.2110,1783189532.4941,1,1,1.0000,0.0000,1.44680,0.19883,-2.78594,1.01627,1.57079,0.00003,-0.14512,-0.38001,0.03774,,,,,,,,,,,,,,,,,,,,,,,,,,0,0,0,0,0
4.2212,1783189532.5043,1,1,1.0000,0.0000,1.44680,0.19874,-2.78596,1.01638,1.57079,0.00003,-0.14512,-0.38001,0.03771,,,,,,,,,,,,,,,,,,,,,,,,,,0,0,0,0,0
4.2459,1783189532.5290,1,1,1.0000,0.0000,1.44680,0.19852,-2.78601,1.01665,1.57079,0.00003,-0.14512,-0.38001,0.03766,,,,,,,,,,,,,,,,,,,,,,,,,,0,0,0,0,0
4.2472,1783189532.5304,1,1,1.0000,0.0000,1.44680,0.19846,-2.78603,1.01673,1.57079,0.00003,-0.14512,-0.38001,0.03764,,,,,,,,,,,,,,,,,,,,,,,,,,0,0,0,0,0
4.2475,1783189532.5307,1,1,1.0000,0.0000,1.44680,0.19846,-2.78603,1.01673,1.57079,0.00003,-0.14512,-0.38001,0.03764,,,,,,,,,,,,,,,,,,,,,,,,,,0,0,0,0,0
4.2530,1783189532.5361,1,1,1.0000,0.0000,1.44680,0.19839,-2.78604,1.01682,1.57079,0.00003,-0.14512,-0.38001,0.03763,,,,,,,,,,,,,,,,,,,,,,,,,,0,0,0,0,0
4.2532,1783189532.5363,1,1,1.0000,0.0000,1.44680,0.19839,-2.78604,1.01682,1.57079,0.00003,-0.14512,-0.38001,0.03763,,,,,,,,,,,,,,,,,,,,,,,,,,0,0,0,0,0
4.2613,1783189532.5444,1,1,1.0000,0.0000,1.44680,0.19824,-2.78608,1.01700,1.57079,0.00003,-0.14512,-0.38001,0.03759,,,,,,,,,,,,,,,,,,,,,,,,,,0,0,0,0,0
4.2709,1783189532.5541,1,1,1.0000,0.0000,1.44680,0.19821,-2.78609,1.01704,1.57079,0.00003,-0.14512,-0.38001,0.03758,,,,,,,,,,,,,,,,,,,,,,,,,,0,0,0,0,0
4.2828,1783189532.5659,1,1,1.0000,0.0000,1.44680,0.19806,-2.78612,1.01722,1.57079,0.00003,-0.14512,-0.38001,0.03754,,,,,,,,,,,,,,,,,,,,,,,,,,0,0,0,0,0
4.2981,1783189532.5812,1,1,1.0000,0.0000,1.44680,0.19799,-2.78614,1.01731,1.57079,0.00003,-0.14512,-0.38001,0.03753,,,,,,,,,,,,,,,,,,,,,,,,,,0,0,0,0,0
4.3073,1783189532.5905,1,1,1.0000,0.0000,1.44680,0.19784,-2.78617,1.01750,1.57079,0.00003,-0.14512,-0.38001,0.03749,,,,,,,,,,,,,,,,,,,,,,,,,,0,0,0,0,0
4.3077,1783189532.5908,1,1,1.0000,0.0000,1.44680,0.19784,-2.78617,1.01750,1.57079,0.00003,-0.14512,-0.38001,0.03749,,,,,,,,,,,,,,,,,,,,,,,,,,0,0,0,0,0
4.3129,1783189532.5961,1,1,1.0000,0.0000,1.44680,0.19776,-2.78619,1.01759,1.57079,0.00003,-0.14512,-0.38001,0.03747,,,,,,,,,,,,,,,,,,,,,,,,,,0,0,0,0,0
4.3216,1783189532.6047,1,1,1.0000,0.0000,1.44680,0.19762,-2.78622,1.01777,1.57079,0.00003,-0.14512,-0.38001,0.03743,,,,,,,,,,,,,,,,,,,,,,,,,,0,0,0,0,0
4.3444,1783189532.6275,1,1,1.0000,0.0000,1.44680,0.19744,-2.78626,1.01799,1.57079,0.00003,-0.14512,-0.38001,0.03739,,,,,,,,,,,,,,,,,,,,,,,,,,0,0,0,0,0
4.3446,1783189532.6278,1,1,1.0000,0.0000,1.44680,0.19744,-2.78626,1.01799,1.57079,0.00003,-0.14512,-0.38001,0.03739,,,,,,,,,,,,,,,,,,,,,,,,,,0,0,0,0,0
4.3552,1783189532.6383,1,1,1.0000,0.0000,1.44680,0.19737,-2.78628,1.01808,1.57079,0.00003,-0.14512,-0.38001,0.03737,,,,,,,,,,,,,,,,,,,,,,,,,,0,0,0,0,0
4.3657,1783189532.6489,1,1,1.0000,0.0000,1.44680,0.19728,-2.78630,1.01819,1.57079,0.00003,-0.14512,-0.38001,0.03735,,,,,,,,,,,,,,,,,,,,,,,,,,0,0,0,0,0
4.3771,1783189532.6602,1,1,1.0000,0.0000,1.44680,0.19706,-2.78635,1.01845,1.57079,0.00003,-0.14512,-0.38001,0.03730,,,,,,,,,,,,,,,,,,,,,,,,,,0,0,0,0,0
4.3936,1783189532.6767,1,1,1.0000,0.0000,1.44680,0.19696,-2.78638,1.01858,1.57079,0.00003,-0.14512,-0.38001,0.03727,,,,,,,,,,,,,,,,,,,,,,,,,,0,0,0,0,0
4.3939,1783189532.6770,1,1,1.0000,0.0000,1.44680,0.19696,-2.78638,1.01858,1.57079,0.00003,-0.14512,-0.38001,0.03727,,,,,,,,,,,,,,,,,,,,,,,,,,0,0,0,0,0
4.4058,1783189532.6890,1,1,1.0000,0.0000,1.44680,0.19682,-2.78641,1.01875,1.57079,0.00003,-0.14512,-0.38001,0.03723,,,,,,,,,,,,,,,,,,,,,,,,,,0,0,0,0,0
4.4191,1783189532.7022,1,1,1.0000,0.0000,1.44680,0.19671,-2.78643,1.01889,1.57079,0.00003,-0.14512,-0.38001,0.03721,,,,,,,,,,,,,,,,,,,,,,,,,,0,0,0,0,0
4.4264,1783189532.7095,1,1,1.0000,0.0000,1.44680,0.19665,-2.78645,1.01896,1.57079,0.00003,-0.14512,-0.38001,0.03719,,,,,,,,,,,,,,,,,,,,,,,,,,0,0,0,0,0
4.4459,1783189532.7290,1,1,1.0000,0.0000,1.44679,0.19637,-2.78651,1.01931,1.57079,0.00003,-0.14511,-0.38001,0.03712,,,,,,,,,,,,,,,,,,,,,,,,,,0,0,0,0,0
4.4568,1783189532.7399,1,1,1.0000,0.0000,1.44679,0.19627,-2.78654,1.01943,1.57079,0.00003,-0.14511,-0.38001,0.03710,,,,,,,,,,,,,,,,,,,,,,,,,,0,0,0,0,0
4.4658,1783189532.7490,1,1,1.0000,0.0000,1.44679,0.19614,-2.78657,1.01959,1.57079,0.00003,-0.14511,-0.38001,0.03707,,,,,,,,,,,,,,,,,,,,,,,,,,0,0,0,0,0
4.4776,1783189532.7608,1,1,1.0000,0.0000,1.44679,0.19605,-2.78659,1.01970,1.57079,0.00003,-0.14511,-0.38001,0.03704,,,,,,,,,,,,,,,,,,,,,,,,,,0,0,0,0,0
4.4962,1783189532.7794,1,1,1.0000,0.0000,1.44679,0.19576,-2.78665,1.02006,1.57079,0.00003,-0.14511,-0.38001,0.03697,,,,,,,,,,,,,,,,,,,,,,,,,,0,0,0,0,0
4.4968,1783189532.7799,1,1,1.0000,0.0000,1.44679,0.19576,-2.78665,1.02006,1.57079,0.00003,-0.14511,-0.38001,0.03697,,,,,,,,,,,,,,,,,,,,,,,,,,0,0,0,0,0
4.4974,1783189532.7805,1,1,1.0000,0.0000,1.44679,0.19576,-2.78665,1.02006,1.57079,0.00003,-0.14511,-0.38001,0.03697,,,,,,,,,,,,,,,,,,,,,,,,,,0,0,0,0,0
4.5070,1783189532.7902,1,1,1.0000,0.0000,1.44679,0.19567,-2.78667,1.02016,1.57079,0.00003,-0.14511,-0.38001,0.03695,,,,,,,,,,,,,,,,,,,,,,,,,,0,0,0,0,0
4.5121,1783189532.7952,1,1,1.0000,0.0000,1.44679,0.19564,-2.78668,1.02020,1.57079,0.00003,-0.14511,-0.38001,0.03694,,,,,,,,,,,,,,,,,,,,,,,,,,0,0,0,0,0
4.5125,1783189532.7956,1,1,1.0000,0.0000,1.44679,0.19564,-2.78668,1.02020,1.57079,0.00003,-0.14511,-0.38001,0.03694,,,,,,,,,,,,,,,,,,,,,,,,,,0,0,0,0,0
4.5230,1783189532.8061,1,1,1.0000,0.0000,1.44679,0.19545,-2.78672,1.02043,1.57079,0.00003,-0.14511,-0.38001,0.03690,,,,,,,,,,,,,,,,,,,,,,,,,,0,0,0,0,0
4.5233,1783189532.8064,1,1,1.0000,0.0000,1.44679,0.19545,-2.78672,1.02043,1.57079,0.00003,-0.14511,-0.38001,0.03690,,,,,,,,,,,,,,,,,,,,,,,,,,0,0,0,0,0
4.5355,1783189532.8186,1,1,1.0000,0.0000,1.44679,0.19537,-2.78674,1.02054,1.57079,0.00003,-0.14511,-0.38001,0.03688,,,,,,,,,,,,,,,,,,,,,,,,,,0,0,0,0,0
4.5483,1783189532.8314,1,1,1.0000,0.0000,1.44679,0.19522,-2.78678,1.02072,1.57079,0.00003,-0.14511,-0.38001,0.03684,,,,,,,,,,,,,,,,,,,,,,,,,,0,0,0,0,0
4.5521,1783189532.8352,1,1,1.0000,0.0000,1.44679,0.19515,-2.78679,1.02081,1.57079,0.00003,-0.14511,-0.38001,0.03682,,,,,,,,,,,,,,,,,,,,,,,,,,0,0,0,0,0
4.5523,1783189532.8355,1,1,1.0000,0.0000,1.44679,0.19515,-2.78679,1.02081,1.57079,0.00003,-0.14511,-0.38001,0.03682,,,,,,,,,,,,,,,,,,,,,,,,,,0,0,0,0,0
4.5615,1783189532.8446,1,1,1.0000,0.0000,1.44679,0.19501,-2.78683,1.02098,1.57079,0.00003,-0.14511,-0.38001,0.03679,,,,,,,,,,,,,,,,,,,,,,,,,,0,0,0,0,0
4.5775,1783189532.8607,1,1,1.0000,0.0000,1.44679,0.19491,-2.78685,1.02111,1.57079,0.00003,-0.14511,-0.38001,0.03676,,,,,,,,,,,,,,,,,,,,,,,,,,0,0,0,0,0
4.5809,1783189532.8640,1,1,1.0000,0.0000,1.44679,0.19484,-2.78686,1.02118,1.57079,0.00003,-0.14511,-0.38001,0.03675,,,,,,,,,,,,,,,,,,,,,,,,,,0,0,0,0,0
4.5935,1783189532.8766,1,1,1.0000,0.0000,1.44679,0.19470,-2.78690,1.02136,1.57079,0.00003,-0.14511,-0.38001,0.03671,,,,,,,,,,,,,,,,,,,,,,,,,,0,0,0,0,0
4.6010,1783189532.8842,1,1,1.0000,0.0000,1.44679,0.19465,-2.78691,1.02142,1.57079,0.00003,-0.14511,-0.38001,0.03670,,,,,,,,,,,,,,,,,,,,,,,,,,0,0,0,0,0
4.6014,1783189532.8845,1,1,1.0000,0.0000,1.44679,0.19465,-2.78691,1.02142,1.57079,0.00003,-0.14511,-0.38001,0.03670,,,,,,,,,,,,,,,,,,,,,,,,,,0,0,0,0,0
4.6111,1783189532.8942,1,1,1.0000,0.0000,1.44679,0.19447,-2.78695,1.02165,1.57079,0.00003,-0.14511,-0.38001,0.03665,,,,,,,,,,,,,,,,,,,,,,,,,,0,0,0,0,0
4.6119,1783189532.8950,1,1,1.0000,0.0000,1.44679,0.19447,-2.78695,1.02165,1.57079,0.00003,-0.14511,-0.38001,0.03665,,,,,,,,,,,,,,,,,,,,,,,,,,0,0,0,0,0
4.6211,1783189532.9042,1,1,1.0000,0.0000,1.44679,0.19432,-2.78698,1.02182,1.57079,0.00003,-0.14511,-0.38001,0.03662,,,,,,,,,,,,,,,,,,,,,,,,,,0,0,0,0,0
4.6314,1783189532.9145,1,1,1.0000,0.0000,1.44679,0.19428,-2.78700,1.02188,1.57079,0.00003,-0.14511,-0.38001,0.03660,,,,,,,,,,,,,,,,,,,,,,,,,,0,0,0,0,0
4.6491,1783189532.9322,1,1,1.0000,0.0000,1.44679,0.19402,-2.78706,1.02220,1.57079,0.00003,-0.14511,-0.38001,0.03654,,,,,,,,,,,,,,,,,,,,,,,,,,0,0,0,0,0
4.6526,1783189532.9357,1,1,1.0000,0.0000,1.44679,0.19394,-2.78707,1.02229,1.57079,0.00003,-0.14511,-0.38001,0.03652,,,,,,,,,,,,,,,,,,,,,,,,,,0,0,0,0,0
4.6530,1783189532.9361,1,1,1.0000,0.0000,1.44679,0.19394,-2.78707,1.02229,1.57079,0.00003,-0.14511,-0.38001,0.03652,,,,,,,,,,,,,,,,,,,,,,,,,,0,0,0,0,0
4.6611,1783189532.9442,1,1,1.0000,0.0000,1.44679,0.19393,-2.78707,1.02230,1.57079,0.00003,-0.14511,-0.38001,0.03652,,,,,,,,,,,,,,,,,,,,,,,,,,0,0,0,0,0
4.6617,1783189532.9448,1,1,1.0000,0.0000,1.44679,0.19393,-2.78707,1.02230,1.57079,0.00003,-0.14511,-0.38001,0.03652,,,,,,,,,,,,,,,,,,,,,,,,,,0,0,0,0,0
4.6709,1783189532.9541,1,1,1.0000,0.0000,1.44679,0.19382,-2.78710,1.02244,1.57079,0.00003,-0.14511,-0.38001,0.03649,,,,,,,,,,,,,,,,,,,,,,,,,,0,0,0,0,0
4.6846,1783189532.9677,1,1,1.0000,0.0000,1.44679,0.19370,-2.78713,1.02259,1.57079,0.00003,-0.14511,-0.38001,0.03646,,,,,,,,,,,,,,,,,,,,,,,,,,0,0,0,0,0
4.6958,1783189532.9789,1,1,1.0000,0.0000,1.44679,0.19360,-2.78715,1.02271,1.57079,0.00003,-0.14511,-0.38001,0.03644,,,,,,,,,,,,,,,,,,,,,,,,,,0,0,0,0,0
4.7015,1783189532.9846,1,1,1.0000,0.0000,1.44679,0.19354,-2.78717,1.02279,1.57079,0.00003,-0.14511,-0.38001,0.03642,,,,,,,,,,,,,,,,,,,,,,,,,,0,0,0,0,0
4.7019,1783189532.9850,1,1,1.0000,0.0000,1.44679,0.19354,-2.78717,1.02279,1.57079,0.00003,-0.14511,-0.38001,0.03642,,,,,,,,,,,,,,,,,,,,,,,,,,0,0,0,0,0
4.7110,1783189532.9942,1,1,1.0000,0.0000,1.44679,0.19331,-2.78722,1.02306,1.57079,0.00003,-0.14511,-0.38001,0.03637,,,,,,,,,,,,,,,,,,,,,,,,,,0,0,0,0,0
4.7270,1783189533.0102,1,1,1.0000,0.0000,1.44679,0.19324,-2.78723,1.02315,1.57079,0.00003,-0.14511,-0.38001,0.03635,,,,,,,,,,,,,,,,,,,,,,,,,,0,0,0,0,0
4.7313,1783189533.0145,1,1,1.0000,0.0000,1.44679,0.19319,-2.78724,1.02321,1.57079,0.00003,-0.14511,-0.38001,0.03634,,,,,,,,,,,,,,,,,,,,,,,,,,0,0,0,0,0
4.7538,1783189533.0369,1,1,1.0000,0.0000,1.44679,0.19303,-2.78728,1.02342,1.57079,0.00003,-0.14511,-0.38001,0.03630,,,,,,,,,,,,,,,,,,,,,,,,,,0,0,0,0,0
4.7543,1783189533.0374,1,1,1.0000,0.0000,1.44679,0.19303,-2.78728,1.02342,1.57079,0.00003,-0.14511,-0.38001,0.03630,,,,,,,,,,,,,,,,,,,,,,,,,,0,0,0,0,0
4.7613,1783189533.0444,1,1,1.0000,0.0000,1.44679,0.19291,-2.78731,1.02356,1.57079,0.00003,-0.14511,-0.38001,0.03627,,,,,,,,,,,,,,,,,,,,,,,,,,0,0,0,0,0
4.7618,1783189533.0450,1,1,1.0000,0.0000,1.44679,0.19291,-2.78731,1.02356,1.57079,0.00003,-0.14511,-0.38001,0.03627,,,,,,,,,,,,,,,,,,,,,,,,,,0,0,0,0,0
4.7754,1783189533.0585,1,1,1.0000,0.0000,1.44679,0.19269,-2.78736,1.02383,1.57079,0.00003,-0.14511,-0.38001,0.03621,,,,,,,,,,,,,,,,,,,,,,,,,,0,0,0,0,0
4.7811,1783189533.0642,1,1,1.0000,0.0000,1.44679,0.19268,-2.78736,1.02385,1.57079,0.00003,-0.14511,-0.38001,0.03621,,,,,,,,,,,,,,,,,,,,,,,,,,0,0,0,0,0
4.7969,1783189533.0801,1,1,1.0000,0.0000,1.44679,0.19251,-2.78740,1.02405,1.57079,0.00003,-0.14511,-0.38001,0.03617,,,,,,,,,,,,,,,,,,,,,,,,,,0,0,0,0,0
4.8018,1783189533.0849,1,1,1.0000,0.0000,1.44679,0.19245,-2.78742,1.02413,1.57079,0.00003,-0.14511,-0.38001,0.03615,,,,,,,,,,,,,,,,,,,,,,,,,,0,0,0,0,0
4.8120,1783189533.0951,1,1,1.0000,0.0000,1.44679,0.19240,-2.78743,1.02419,1.57079,0.00003,-0.14511,-0.38001,0.03614,,,,,,,,,,,,,,,,,,,,,,,,,,0,0,0,0,0
4.8124,1783189533.0955,1,1,1.0000,0.0000,1.44679,0.19240,-2.78743,1.02419,1.57079,0.00003,-0.14511,-0.38001,0.03614,,,,,,,,,,,,,,,,,,,,,,,,,,0,0,0,0,0
4.8211,1783189533.1042,1,1,1.0000,0.0000,1.44679,0.19228,-2.78745,1.02434,1.57079,0.00003,-0.14511,-0.38001,0.03611,,,,,,,,,,,,,,,,,,,,,,,,,,0,0,0,0,0
4.8214,1783189533.1045,1,1,1.0000,0.0000,1.44679,0.19228,-2.78745,1.02434,1.57079,0.00003,-0.14511,-0.38001,0.03611,,,,,,,,,,,,,,,,,,,,,,,,,,0,0,0,0,0
4.8345,1783189533.1176,1,1,1.0000,0.0000,1.44679,0.19206,-2.78750,1.02461,1.57079,0.00003,-0.14511,-0.38001,0.03606,,,,,,,,,,,,,,,,,,,,,,,,,,0,0,0,0,0
4.8350,1783189533.1181,1,1,1.0000,0.0000,1.44679,0.19206,-2.78750,1.02461,1.57079,0.00003,-0.14511,-0.38001,0.03606,,,,,,,,,,,,,,,,,,,,,,,,,,0,0,0,0,0
4.8420,1783189533.1251,1,1,1.0000,0.0000,1.44679,0.19205,-2.78751,1.02462,1.57079,0.00003,-0.14511,-0.38001,0.03606,,,,,,,,,,,,,,,,,,,,,,,,,,0,0,0,0,0
4.8423,1783189533.1255,1,1,1.0000,0.0000,1.44679,0.19205,-2.78751,1.02462,1.57079,0.00003,-0.14511,-0.38001,0.03606,,,,,,,,,,,,,,,,,,,,,,,,,,0,0,0,0,0
4.8528,1783189533.1359,1,1,1.0000,0.0000,1.44679,0.19194,-2.78753,1.02475,1.57079,0.00003,-0.14511,-0.38001,0.03603,,,,,,,,,,,,,,,,,,,,,,,,,,0,0,0,0,0
4.8630,1783189533.1461,1,1,1.0000,0.0000,1.44679,0.19182,-2.78756,1.02490,1.57079,0.00003,-0.14511,-0.38001,0.03600,,,,,,,,,,,,,,,,,,,,,,,,,,0,0,0,0,0
4.8731,1783189533.1562,1,1,1.0000,0.0000,1.44679,0.19177,-2.78757,1.02496,1.57079,0.00003,-0.14511,-0.38001,0.03599,,,,,,,,,,,,,,,,,,,,,,,,,,0,0,0,0,0
4.8811,1783189533.1642,1,1,1.0000,0.0000,1.44679,0.19165,-2.78760,1.02511,1.57079,0.00003,-0.14511,-0.38001,0.03596,,,,,,,,,,,,,,,,,,,,,,,,,,0,0,0,0,0
4.8963,1783189533.1794,1,1,1.0000,0.0000,1.44679,0.19143,-2.78765,1.02538,1.57079,0.00003,-0.14511,-0.38001,0.03590,,,,,,,,,,,,,,,,,,,,,,,,,,0,0,0,0,0
4.9056,1783189533.1887,1,1,1.0000,0.0000,1.44679,0.19140,-2.78766,1.02542,1.57079,0.00003,-0.14511,-0.38001,0.03589,,,,,,,,,,,,,,,,,,,,,,,,,,0,0,0,0,0
4.9060,1783189533.1891,1,1,1.0000,0.0000,1.44679,0.19140,-2.78766,1.02542,1.57079,0.00003,-0.14511,-0.38001,0.03589,,,,,,,,,,,,,,,,,,,,,,,,,,0,0,0,0,0
4.9127,1783189533.1958,1,1,1.0000,0.0000,1.44679,0.19131,-2.78768,1.02553,1.57079,0.00003,-0.14511,-0.38001,0.03587,,,,,,,,,,,,,,,,,,,,,,,,,,0,0,0,0,0
4.9214,1783189533.2045,1,1,1.0000,0.0000,1.44679,0.19119,-2.78770,1.02567,1.57079,0.00003,-0.14511,-0.38001,0.03584,,,,,,,,,,,,,,,,,,,,,,,,,,0,0,0,0,0
4.9236,1783189533.2067,1,1,1.0000,0.0000,1.44679,0.19119,-2.78770,1.02567,1.57079,0.00003,-0.14511,-0.38001,0.03584,,,,,,,,,,,,,,,,,,,,,,,,,,0,0,0,0,0
4.9356,1783189533.2187,1,1,1.0000,0.0000,1.44679,0.19109,-2.78773,1.02580,1.57079,0.00003,-0.14511,-0.38001,0.03582,,,,,,,,,,,,,,,,,,,,,,,,,,0,0,0,0,0
4.9420,1783189533.2252,1,1,1.0000,0.0000,1.44679,0.19102,-2.78774,1.02588,1.57079,0.00003,-0.14511,-0.38001,0.03580,,,,,,,,,,,,,,,,,,,,,,,,,,0,0,0,0,0
4.9550,1783189533.2381,1,1,1.0000,0.0000,1.44679,0.19080,-2.78779,1.02615,1.57079,0.00003,-0.14511,-0.38001,0.03575,,,,,,,,,,,,,,,,,,,,,,,,,,0,0,0,0,0
4.9554,1783189533.2385,1,1,1.0000,0.0000,1.44679,0.19080,-2.78779,1.02615,1.57079,0.00003,-0.14511,-0.38001,0.03575,,,,,,,,,,,,,,,,,,,,,,,,,,0,0,0,0,0
4.9609,1783189533.2440,1,1,1.0000,0.0000,1.44679,0.19079,-2.78779,1.02616,1.57079,0.00003,-0.14511,-0.38001,0.03575,,,,,,,,,,,,,,,,,,,,,,,,,,0,0,0,0,0
4.9612,1783189533.2443,1,1,1.0000,0.0000,1.44679,0.19079,-2.78779,1.02616,1.57079,0.00003,-0.14511,-0.38001,0.03575,,,,,,,,,,,,,,,,,,,,,,,,,,0,0,0,0,0
4.9712,1783189533.2543,1,1,1.0000,0.0000,1.44679,0.19068,-2.78782,1.02630,1.57079,0.00003,-0.14511,-0.38001,0.03572,,,,,,,,,,,,,,,,,,,,,,,,,,0,0,0,0,0
4.9823,1783189533.2654,1,1,1.0000,0.0000,1.44679,0.19056,-2.78785,1.02645,1.57079,0.00003,-0.14511,-0.38001,0.03569,,,,,,,,,,,,,,,,,,,,,,,,,,0,0,0,0,0
4.9915,1783189533.2746,1,1,1.0000,0.0000,1.44679,0.19051,-2.78786,1.02651,1.57079,0.00003,-0.14511,-0.38001,0.03568,,,,,,,,,,,,,,,,,,,,,,,,,,0,0,0,0,0
4.9919,1783189533.2750,1,1,1.0000,0.0000,1.44679,0.19051,-2.78786,1.02651,1.57079,0.00003,-0.14511,-0.38001,0.03568,,,,,,,,,,,,,,,,,,,,,,,,,,0,0,0,0,0
5.0029,1783189533.2861,1,1,1.0000,0.0000,1.44679,0.19032,-2.78790,1.02674,1.57079,0.00003,-0.14511,-0.38001,0.03563,,,,,,,,,,,,,,,,,,,,,,,,,,0,0,0,0,0
5.0033,1783189533.2864,1,1,1.0000,0.0000,1.44679,0.19032,-2.78790,1.02674,1.57079,0.00003,-0.14511,-0.38001,0.03563,,,,,,,,,,,,,,,,,,,,,,,,,,0,0,0,0,0
5.0272,1783189533.3103,1,1,1.0000,0.0000,1.44679,0.19007,-2.78796,1.02705,1.57079,0.00003,-0.14511,-0.38001,0.03557,,,,,,,,,,,,,,,,,,,,,,,,,,0,0,0,0,0
5.0276,1783189533.3107,1,1,1.0000,0.0000,1.44679,0.19007,-2.78796,1.02705,1.57079,0.00003,-0.14511,-0.38001,0.03557,,,,,,,,,,,,,,,,,,,,,,,,,,0,0,0,0,0
5.0279,1783189533.3110,1,1,1.0000,0.0000,1.44679,0.19007,-2.78796,1.02705,1.57079,0.00003,-0.14511,-0.38001,0.03557,,,,,,,,,,,,,,,,,,,,,,,,,,0,0,0,0,0
5.0359,1783189533.3191,1,1,1.0000,0.0000,1.44679,0.18994,-2.78799,1.02721,1.57079,0.00003,-0.14511,-0.38001,0.03553,,,,,,,,,,,,,,,,,,,,,,,,,,0,0,0,0,0
5.0409,1783189533.3240,1,1,1.0000,0.0000,1.44679,0.18986,-2.78800,1.02730,1.57079,0.00003,-0.14511,-0.38001,0.03552,,,,,,,,,,,,,,,,,,,,,,,,,,0,0,0,0,0
5.0412,1783189533.3244,1,1,1.0000,0.0000,1.44679,0.18986,-2.78800,1.02730,1.57079,0.00003,-0.14511,-0.38001,0.03552,,,,,,,,,,,,,,,,,,,,,,,,,,0,0,0,0,0
5.0591,1783189533.3422,1,1,1.0000,0.0000,1.44679,0.18970,-2.78804,1.02750,1.57079,0.00003,-0.14511,-0.38001,0.03548,,,,,,,,,,,,,,,,,,,,,,,,,,0,0,0,0,0
5.0595,1783189533.3426,1,1,1.0000,0.0000,1.44679,0.18970,-2.78804,1.02750,1.57079,0.00003,-0.14511,-0.38001,0.03548,,,,,,,,,,,,,,,,,,,,,,,,,,0,0,0,0,0
5.0649,1783189533.3480,1,1,1.0000,0.0000,1.44679,0.18963,-2.78806,1.02759,1.57079,0.00003,-0.14511,-0.38001,0.03546,,,,,,,,,,,,,,,,,,,,,,,,,,0,0,0,0,0
5.0652,1783189533.3483,1,1,1.0000,0.0000,1.44679,0.18963,-2.78806,1.02759,1.57079,0.00003,-0.14511,-0.38001,0.03546,,,,,,,,,,,,,,,,,,,,,,,,,,0,0,0,0,0
5.0712,1783189533.3543,1,1,1.0000,0.0000,1.44679,0.18948,-2.78809,1.02777,1.57079,0.00003,-0.14511,-0.38001,0.03542,,,,,,,,,,,,,,,,,,,,,,,,,,0,0,0,0,0
5.0715,1783189533.3547,1,1,1.0000,0.0000,1.44679,0.18948,-2.78809,1.02777,1.57079,0.00003,-0.14511,-0.38001,0.03542,,,,,,,,,,,,,,,,,,,,,,,,,,0,0,0,0,0
5.0819,1783189533.3651,1,1,1.0000,0.0000,1.44679,0.18947,-2.78809,1.02778,1.57079,0.00003,-0.14511,-0.38001,0.03542,,,,,,,,,,,,,,,,,,,,,,,,,,0,0,0,0,0
5.0911,1783189533.3742,1,1,1.0000,0.0000,1.44679,0.18932,-2.78813,1.02797,1.57079,0.00003,-0.14511,-0.38001,0.03538,,,,,,,,,,,,,,,,,,,,,,,,,,0,0,0,0,0
5.0914,1783189533.3745,1,1,1.0000,0.0000,1.44679,0.18932,-2.78813,1.02797,1.57079,0.00003,-0.14511,-0.38001,0.03538,,,,,,,,,,,,,,,,,,,,,,,,,,0,0,0,0,0
5.1054,1783189533.3885,1,1,1.0000,0.0000,1.44679,0.18917,-2.78816,1.02815,1.57079,0.00003,-0.14511,-0.38001,0.03535,,,,,,,,,,,,,,,,,,,,,,,,,,0,0,0,0,0
5.1191,1783189533.4022,1,1,1.0000,0.0000,1.44679,0.18901,-2.78820,1.02835,1.57079,0.00003,-0.14511,-0.38001,0.03531,,,,,,,,,,,,,,,,,,,,,,,,,,0,0,0,0,0
5.1194,1783189533.4025,1,1,1.0000,0.0000,1.44679,0.18901,-2.78820,1.02835,1.57079,0.00003,-0.14511,-0.38001,0.03531,,,,,,,,,,,,,,,,,,,,,,,,,,0,0,0,0,0
5.1197,1783189533.4028,1,1,1.0000,0.0000,1.44679,0.18901,-2.78820,1.02835,1.57079,0.00003,-0.14511,-0.38001,0.03531,,,,,,,,,,,,,,,,,,,,,,,,,,0,0,0,0,0
5.1255,1783189533.4086,1,1,1.0000,0.0000,1.44679,0.18894,-2.78821,1.02843,1.57079,0.00003,-0.14511,-0.38001,0.03529,,,,,,,,,,,,,,,,,,,,,,,,,,0,0,0,0,0
5.1311,1783189533.4142,1,1,1.0000,0.0000,1.44679,0.18880,-2.78825,1.02861,1.57079,0.00003,-0.14511,-0.38001,0.03525,,,,,,,,,,,,,,,,,,,,,,,,,,0,0,0,0,0
5.1447,1783189533.4278,1,1,1.0000,0.0000,1.44679,0.18875,-2.78826,1.02867,1.57079,0.00003,-0.14511,-0.38001,0.03524,,,,,,,,,,,,,,,,,,,,,,,,,,0,0,0,0,0
5.1681,1783189533.4512,1,1,1.0000,0.0000,1.44679,0.18847,-2.78832,1.02901,1.57079,0.00003,-0.14511,-0.38001,0.03518,,,,,,,,,,,,,,,,,,,,,,,,,,0,0,0,0,0
5.1711,1783189533.4542,1,1,1.0000,0.0000,1.44679,0.18844,-2.78833,1.02905,1.57079,0.00003,-0.14511,-0.38001,0.03517,,,,,,,,,,,,,,,,,,,,,,,,,,0,0,0,0,0
5.1715,1783189533.4546,1,1,1.0000,0.0000,1.44679,0.18844,-2.78833,1.02905,1.57079,0.00003,-0.14511,-0.38001,0.03517,,,,,,,,,,,,,,,,,,,,,,,,,,0,0,0,0,0
5.1849,1783189533.4680,1,1,1.0000,0.0000,1.44679,0.18825,-2.78837,1.02928,1.57079,0.00003,-0.14511,-0.38001,0.03512,,,,,,,,,,,,,,,,,,,,,,,,,,0,0,0,0,0
5.1912,1783189533.4743,1,1,1.0000,0.0000,1.44679,0.18811,-2.78840,1.02946,1.57079,0.00004,-0.14511,-0.38001,0.03509,,,,,,,,,,,,,,,,,,,,,,,,,,0,0,0,0,0
5.1916,1783189533.4747,1,1,1.0000,0.0000,1.44679,0.18811,-2.78840,1.02946,1.57079,0.00004,-0.14511,-0.38001,0.03509,,,,,,,,,,,,,,,,,,,,,,,,,,0,0,0,0,0
5.2039,1783189533.4870,1,1,1.0000,0.0000,1.44679,0.18806,-2.78841,1.02951,1.57079,0.00004,-0.14511,-0.38001,0.03507,,,,,,,,,,,,,,,,,,,,,,,,,,0,0,0,0,0
5.2043,1783189533.4874,1,1,1.0000,0.0000,1.44679,0.18806,-2.78841,1.02951,1.57079,0.00004,-0.14511,-0.38001,0.03507,,,,,,,,,,,,,,,,,,,,,,,,,,0,0,0,0,0
5.2118,1783189533.4949,1,1,1.0000,0.0000,1.44679,0.18794,-2.78844,1.02966,1.57079,0.00004,-0.14511,-0.38001,0.03505,,,,,,,,,,,,,,,,,,,,,,,,,,0,0,0,0,0
5.2121,1783189533.4952,1,1,1.0000,0.0000,1.44679,0.18794,-2.78844,1.02966,1.57079,0.00004,-0.14511,-0.38001,0.03505,,,,,,,,,,,,,,,,,,,,,,,,,,0,0,0,0,0
5.2231,1783189533.5062,1,1,1.0000,0.0000,1.44679,0.18780,-2.78847,1.02983,1.57079,0.00004,-0.14511,-0.38001,0.03501,,,,,,,,,,,,,,,,,,,,,,,,,,0,0,0,0,0
5.2310,1783189533.5141,1,1,1.0000,0.0000,1.44679,0.18775,-2.78848,1.02989,1.57079,0.00004,-0.14511,-0.38001,0.03500,,,,,,,,,,,,,,,,,,,,,,,,,,0,0,0,0,0
5.2411,1783189533.5242,1,1,1.0000,0.0000,1.44679,0.18763,-2.78851,1.03003,1.57079,0.00004,-0.14511,-0.38001,0.03497,,,,,,,,,,,,,,,,,,,,,,,,,,0,0,0,0,0
5.2511,1783189533.5342,1,1,1.0000,0.0000,1.44679,0.18742,-2.78856,1.03030,1.57079,0.00004,-0.14511,-0.38001,0.03492,,,,,,,,,,,,,,,,,,,,,,,,,,0,0,0,0,0
5.2515,1783189533.5347,1,1,1.0000,0.0000,1.44679,0.18742,-2.78856,1.03030,1.57079,0.00004,-0.14511,-0.38001,0.03492,,,,,,,,,,,,,,,,,,,,,,,,,,0,0,0,0,0
5.2616,1783189533.5447,1,1,1.0000,0.0000,1.44679,0.18741,-2.78856,1.03032,1.57079,0.00004,-0.14511,-0.38001,0.03491,,,,,,,,,,,,,,,,,,,,,,,,,,0,0,0,0,0
5.2751,1783189533.5583,1,1,1.0000,0.0000,1.44679,0.18718,-2.78861,1.03059,1.57079,0.00004,-0.14511,-0.38001,0.03486,,,,,,,,,,,,,,,,,,,,,,,,,,0,0,0,0,0
