Martins-Lucaas/twinforge/sensors/Data/20260704_153848__samples.csv
t_rel_s,t_unix,cycle,phase,setpoint_n,force_net_n,q1,q2,q3,q4,q5,q6,tcp_x,tcp_y,tcp_z,taxel_0,taxel_1,taxel_2,taxel_3,taxel_4,taxel_5,taxel_6,taxel_7,taxel_8,taxel_9,taxel_10,taxel_11,taxel_12,taxel_13,taxel_14,taxel_15,taxel_16,taxel_17,taxel_18,taxel_19,taxel_20,taxel_21,taxel_22,taxel_23,taxel_24,n_RA,n_SA,cn_mm,cn_ra,cn_sa
0.0071,1783190328.1769,1,0,1.0000,0.0000,1.44682,0.23328,-2.77748,0.97337,1.57080,0.00000,-0.14512,-0.38003,0.04653,,,,,,,,,,,,,,,,,,,,,,,,,,0,0,0,0,0
0.0075,1783190328.1773,1,0,1.0000,0.0000,1.44682,0.23328,-2.77748,0.97337,1.57080,0.00000,-0.14512,-0.38003,0.04653,,,,,,,,,,,,,,,,,,,,,,,,,,0,0,0,0,0
0.0154,1783190328.1852,1,0,1.0000,0.0000,1.44682,0.23328,-2.77748,0.97337,1.57080,0.00000,-0.14512,-0.38003,0.04653,,,,,,,,,,,,,,,,,,,,,,,,,,0,0,0,0,0
0.0276,1783190328.1974,1,0,1.0000,0.0000,1.44682,0.23328,-2.77748,0.97337,1.57080,0.00000,-0.14512,-0.38003,0.04653,,,,,,,,,,,,,,,,,,,,,,,,,,0,0,0,0,0
0.0354,1783190328.2052,1,0,1.0000,0.0000,1.44682,0.23328,-2.77748,0.97337,1.57080,0.00000,-0.14512,-0.38003,0.04653,,,,,,,,,,,,,,,,,,,,,,,,,,0,0,0,0,0
0.0443,1783190328.2142,1,0,1.0000,0.0000,1.44682,0.23328,-2.77748,0.97337,1.57080,0.00000,-0.14512,-0.38003,0.04653,,,,,,,,,,,,,,,,,,,,,,,,,,0,0,0,0,0
0.0549,1783190328.2248,1,0,1.0000,0.0000,1.44682,0.23328,-2.77748,0.97337,1.57080,0.00000,-0.14512,-0.38003,0.04653,,,,,,,,,,,,,,,,,,,,,,,,,,0,0,0,0,0
0.0553,1783190328.2251,1,0,1.0000,0.0000,1.44682,0.23328,-2.77748,0.97337,1.57080,0.00000,-0.14512,-0.38003,0.04653,,,,,,,,,,,,,,,,,,,,,,,,,,0,0,0,0,0
0.0654,1783190328.2352,1,0,1.0000,0.0000,1.44682,0.23328,-2.77748,0.97337,1.57080,0.00000,-0.14512,-0.38003,0.04653,,,,,,,,,,,,,,,,,,,,,,,,,,0,0,0,0,0
0.0747,1783190328.2445,1,0,1.0000,0.0000,1.44682,0.23328,-2.77748,0.97337,1.57080,0.00000,-0.14512,-0.38003,0.04653,,,,,,,,,,,,,,,,,,,,,,,,,,0,0,0,0,0
0.0842,1783190328.2540,1,0,1.0000,0.0000,1.44682,0.23328,-2.77748,0.97337,1.57080,0.00000,-0.14512,-0.38003,0.04653,,,,,,,,,,,,,,,,,,,,,,,,,,0,0,0,0,0
0.0845,1783190328.2543,1,0,1.0000,0.0000,1.44682,0.23328,-2.77748,0.97337,1.57080,0.00000,-0.14512,-0.38003,0.04653,,,,,,,,,,,,,,,,,,,,,,,,,,0,0,0,0,0
0.0957,1783190328.2655,1,0,1.0000,0.0000,1.44682,0.23328,-2.77748,0.97337,1.57080,0.00000,-0.14512,-0.38003,0.04653,,,,,,,,,,,,,,,,,,,,,,,,,,0,0,0,0,0
0.1068,1783190328.2766,1,0,1.0000,0.0000,1.44682,0.23328,-2.77748,0.97337,1.57080,0.00000,-0.14512,-0.38003,0.04653,,,,,,,,,,,,,,,,,,,,,,,,,,0,0,0,0,0
0.1227,1783190328.2925,1,0,1.0000,0.0000,1.44682,0.23328,-2.77748,0.97337,1.57080,0.00000,-0.14512,-0.38003,0.04653,,,,,,,,,,,,,,,,,,,,,,,,,,0,0,0,0,0
0.1257,1783190328.2955,1,0,1.0000,0.0000,1.44682,0.23328,-2.77748,0.97337,1.57080,0.00000,-0.14512,-0.38003,0.04653,,,,,,,,,,,,,,,,,,,,,,,,,,0,0,0,0,0
0.1261,1783190328.2960,1,0,1.0000,0.0000,1.44682,0.23328,-2.77748,0.97337,1.57080,0.00000,-0.14512,-0.38003,0.04653,,,,,,,,,,,,,,,,,,,,,,,,,,0,0,0,0,0
0.1347,1783190328.3046,1,0,1.0000,0.0000,1.44682,0.23328,-2.77748,0.97337,1.57080,0.00000,-0.14512,-0.38003,0.04653,,,,,,,,,,,,,,,,,,,,,,,,,,0,0,0,0,0
0.1350,1783190328.3049,1,0,1.0000,0.0000,1.44682,0.23328,-2.77748,0.97337,1.57080,0.00000,-0.14512,-0.38003,0.04653,,,,,,,,,,,,,,,,,,,,,,,,,,0,0,0,0,0
0.1446,1783190328.3144,1,0,1.0000,0.0000,1.44682,0.23328,-2.77748,0.97337,1.57080,0.00000,-0.14512,-0.38003,0.04653,,,,,,,,,,,,,,,,,,,,,,,,,,0,0,0,0,0
0.1574,1783190328.3272,1,0,1.0000,0.0000,1.44682,0.23328,-2.77748,0.97337,1.57080,0.00000,-0.14512,-0.38003,0.04653,,,,,,,,,,,,,,,,,,,,,,,,,,0,0,0,0,0
0.1801,1783190328.3499,1,0,1.0000,0.0000,1.44682,0.23328,-2.77748,0.97337,1.57080,0.00000,-0.14512,-0.38003,0.04653,,,,,,,,,,,,,,,,,,,,,,,,,,0,0,0,0,0
0.1803,1783190328.3502,1,0,1.0000,0.0000,1.44682,0.23328,-2.77748,0.97337,1.57080,0.00000,-0.14512,-0.38003,0.04653,,,,,,,,,,,,,,,,,,,,,,,,,,0,0,0,0,0
0.1885,1783190328.3583,1,0,1.0000,0.0000,1.44682,0.23328,-2.77748,0.97337,1.57080,0.00000,-0.14512,-0.38003,0.04653,,,,,,,,,,,,,,,,,,,,,,,,,,0,0,0,0,0
0.2141,1783190328.3839,1,0,1.0000,0.0000,1.44682,0.23328,-2.77748,0.97337,1.57080,0.00000,-0.14512,-0.38003,0.04653,,,,,,,,,,,,,,,,,,,,,,,,,,0,0,0,0,0
0.2149,1783190328.3847,1,0,1.0000,0.0000,1.44682,0.23328,-2.77748,0.97337,1.57080,0.00000,-0.14512,-0.38003,0.04653,,,,,,,,,,,,,,,,,,,,,,,,,,0,0,0,0,0
0.2195,1783190328.3894,1,0,1.0000,0.0000,1.44682,0.23328,-2.77748,0.97337,1.57080,0.00000,-0.14512,-0.38003,0.04653,,,,,,,,,,,,,,,,,,,,,,,,,,0,0,0,0,0
0.2307,1783190328.4006,1,0,1.0000,0.0000,1.44682,0.23328,-2.77748,0.97337,1.57080,0.00000,-0.14512,-0.38003,0.04653,,,,,,,,,,,,,,,,,,,,,,,,,,0,0,0,0,0
0.2384,1783190328.4083,1,0,1.0000,0.0000,1.44682,0.23328,-2.77748,0.97337,1.57080,0.00000,-0.14512,-0.38003,0.04653,,,,,,,,,,,,,,,,,,,,,,,,,,0,0,0,0,0
0.2566,1783190328.4264,1,0,1.0000,0.0000,1.44682,0.23328,-2.77748,0.97337,1.57080,0.00000,-0.14512,-0.38003,0.04653,,,,,,,,,,,,,,,,,,,,,,,,,,0,0,0,0,0
0.2614,1783190328.4313,1,0,1.0000,0.0000,1.44682,0.23328,-2.77748,0.97337,1.57080,0.00000,-0.14512,-0.38003,0.04653,,,,,,,,,,,,,,,,,,,,,,,,,,0,0,0,0,0
0.2619,1783190328.4318,1,0,1.0000,0.0000,1.44682,0.23328,-2.77748,0.97337,1.57080,0.00000,-0.14512,-0.38003,0.04653,,,,,,,,,,,,,,,,,,,,,,,,,,0,0,0,0,0
0.2701,1783190328.4400,1,0,1.0000,0.0000,1.44682,0.23328,-2.77748,0.97337,1.57080,0.00000,-0.14512,-0.38003,0.04653,,,,,,,,,,,,,,,,,,,,,,,,,,0,0,0,0,0
0.2708,1783190328.4407,1,0,1.0000,0.0000,1.44682,0.23328,-2.77748,0.97337,1.57080,0.00000,-0.14512,-0.38003,0.04653,,,,,,,,,,,,,,,,,,,,,,,,,,0,0,0,0,0
0.2823,1783190328.4522,1,0,1.0000,0.0000,1.44682,0.23328,-2.77748,0.97337,1.57080,0.00000,-0.14512,-0.38003,0.04653,,,,,,,,,,,,,,,,,,,,,,,,,,0,0,0,0,0
0.2828,1783190328.4526,1,0,1.0000,0.0000,1.44682,0.23328,-2.77748,0.97337,1.57080,0.00000,-0.14512,-0.38003,0.04653,,,,,,,,,,,,,,,,,,,,,,,,,,0,0,0,0,0
0.2936,1783190328.4634,1,0,1.0000,0.0000,1.44682,0.23328,-2.77748,0.97337,1.57080,0.00000,-0.14512,-0.38003,0.04653,,,,,,,,,,,,,,,,,,,,,,,,,,0,0,0,0,0
0.2990,1783190328.4688,1,0,1.0000,0.0000,1.44682,0.23328,-2.77748,0.97337,1.57080,0.00000,-0.14512,-0.38003,0.04653,,,,,,,,,,,,,,,,,,,,,,,,,,0,0,0,0,0
0.3133,1783190328.4832,1,0,1.0000,0.0000,1.44682,0.23328,-2.77748,0.97337,1.57080,0.00000,-0.14512,-0.38003,0.04653,,,,,,,,,,,,,,,,,,,,,,,,,,0,0,0,0,0
0.3189,1783190328.4887,1,0,1.0000,0.0000,1.44682,0.23328,-2.77748,0.97337,1.57080,0.00000,-0.14512,-0.38003,0.04653,,,,,,,,,,,,,,,,,,,,,,,,,,0,0,0,0,0
0.3286,1783190328.4985,1,0,1.0000,0.0000,1.44682,0.23328,-2.77748,0.97337,1.57080,0.00000,-0.14512,-0.38003,0.04653,,,,,,,,,,,,,,,,,,,,,,,,,,0,0,0,0,0
0.3389,1783190328.5088,1,0,1.0000,0.0000,1.44682,0.23328,-2.77748,0.97337,1.57080,0.00000,-0.14512,-0.38003,0.04653,,,,,,,,,,,,,,,,,,,,,,,,,,0,0,0,0,0
0.3495,1783190328.5193,1,0,1.0000,0.0000,1.44682,0.23328,-2.77748,0.97337,1.57080,0.00000,-0.14512,-0.38003,0.04653,,,,,,,,,,,,,,,,,,,,,,,,,,0,0,0,0,0
0.3619,1783190328.5317,1,0,1.0000,0.0000,1.44682,0.23328,-2.77748,0.97337,1.57080,0.00000,-0.14512,-0.38003,0.04653,,,,,,,,,,,,,,,,,,,,,,,,,,0,0,0,0,0
0.3724,1783190328.5422,1,0,1.0000,0.0000,1.44682,0.23328,-2.77748,0.97337,1.57080,0.00000,-0.14512,-0.38003,0.04653,,,,,,,,,,,,,,,,,,,,,,,,,,0,0,0,0,0
0.3801,1783190328.5500,1,0,1.0000,0.0000,1.44682,0.23328,-2.77748,0.97337,1.57080,0.00000,-0.14512,-0.38003,0.04653,,,,,,,,,,,,,,,,,,,,,,,,,,0,0,0,0,0
0.3921,1783190328.5619,1,0,1.0000,0.0000,1.44682,0.23328,-2.77748,0.97337,1.57080,0.00000,-0.14512,-0.38003,0.04653,,,,,,,,,,,,,,,,,,,,,,,,,,0,0,0,0,0
0.4001,1783190328.5700,1,0,1.0000,0.0000,1.44682,0.23328,-2.77748,0.97337,1.57080,0.00000,-0.14512,-0.38003,0.04653,,,,,,,,,,,,,,,,,,,,,,,,,,0,0,0,0,0
0.4204,1783190328.5902,1,0,1.0000,0.0000,1.44682,0.23328,-2.77748,0.97337,1.57080,0.00000,-0.14512,-0.38003,0.04653,,,,,,,,,,,,,,,,,,,,,,,,,,0,0,0,0,0
0.4238,1783190328.5937,1,0,1.0000,0.0000,1.44682,0.23328,-2.77748,0.97337,1.57080,0.00000,-0.14512,-0.38003,0.04653,,,,,,,,,,,,,,,,,,,,,,,,,,0,0,0,0,0
0.4350,1783190328.6049,1,0,1.0000,0.0000,1.44682,0.23328,-2.77748,0.97337,1.57080,0.00000,-0.14512,-0.38003,0.04653,,,,,,,,,,,,,,,,,,,,,,,,,,0,0,0,0,0
0.4353,1783190328.6051,1,0,1.0000,0.0000,1.44682,0.23328,-2.77748,0.97337,1.57080,0.00000,-0.14512,-0.38003,0.04653,,,,,,,,,,,,,,,,,,,,,,,,,,0,0,0,0,0
0.4429,1783190328.6127,1,0,1.0000,0.0000,1.44682,0.23328,-2.77748,0.97337,1.57080,0.00000,-0.14512,-0.38003,0.04653,,,,,,,,,,,,,,,,,,,,,,,,,,0,0,0,0,0
0.4432,1783190328.6130,1,0,1.0000,0.0000,1.44682,0.23328,-2.77748,0.97337,1.57080,0.00000,-0.14512,-0.38003,0.04653,,,,,,,,,,,,,,,,,,,,,,,,,,0,0,0,0,0
0.4497,1783190328.6195,1,0,1.0000,0.0000,1.44682,0.23328,-2.77748,0.97337,1.57080,0.00000,-0.14512,-0.38003,0.04653,,,,,,,,,,,,,,,,,,,,,,,,,,0,0,0,0,0
0.4502,1783190328.6200,1,0,1.0000,0.0000,1.44682,0.23328,-2.77748,0.97337,1.57080,0.00000,-0.14512,-0.38003,0.04653,,,,,,,,,,,,,,,,,,,,,,,,,,0,0,0,0,0
0.4603,1783190328.6302,1,0,1.0000,0.0000,1.44682,0.23328,-2.77748,0.97337,1.57080,0.00000,-0.14512,-0.38003,0.04653,,,,,,,,,,,,,,,,,,,,,,,,,,0,0,0,0,0
0.4606,1783190328.6304,1,0,1.0000,0.0000,1.44682,0.23328,-2.77748,0.97337,1.57080,0.00000,-0.14512,-0.38003,0.04653,,,,,,,,,,,,,,,,,,,,,,,,,,0,0,0,0,0
0.4732,1783190328.6430,1,0,1.0000,0.0000,1.44682,0.23328,-2.77748,0.97337,1.57080,0.00000,-0.14512,-0.38003,0.04653,,,,,,,,,,,,,,,,,,,,,,,,,,0,0,0,0,0
0.4789,1783190328.6487,1,0,1.0000,0.0000,1.44682,0.23328,-2.77748,0.97337,1.57080,0.00000,-0.14512,-0.38003,0.04653,,,,,,,,,,,,,,,,,,,,,,,,,,0,0,0,0,0
0.4937,1783190328.6635,1,0,1.0000,0.0000,1.44682,0.23328,-2.77748,0.97337,1.57080,0.00000,-0.14512,-0.38003,0.04653,,,,,,,,,,,,,,,,,,,,,,,,,,0,0,0,0,0
0.4980,1783190328.6678,1,0,1.0000,0.0000,1.44682,0.23328,-2.77748,0.97337,1.57080,0.00000,-0.14512,-0.38003,0.04653,,,,,,,,,,,,,,,,,,,,,,,,,,0,0,0,0,0
0.4983,1783190328.6682,1,0,1.0000,0.0000,1.44682,0.23328,-2.77748,0.97337,1.57080,0.00000,-0.14512,-0.38003,0.04653,,,,,,,,,,,,,,,,,,,,,,,,,,0,0,0,0,0
0.5213,1783190328.6911,1,0,1.0000,0.0000,1.44682,0.23328,-2.77748,0.97337,1.57080,0.00000,-0.14512,-0.38003,0.04653,,,,,,,,,,,,,,,,,,,,,,,,,,0,0,0,0,0
0.5216,1783190328.6914,1,0,1.0000,0.0000,1.44682,0.23328,-2.77748,0.97337,1.57080,0.00000,-0.14512,-0.38003,0.04653,,,,,,,,,,,,,,,,,,,,,,,,,,0,0,0,0,0
0.5220,1783190328.6918,1,0,1.0000,0.0000,1.44682,0.23328,-2.77748,0.97337,1.57080,0.00000,-0.14512,-0.38003,0.04653,,,,,,,,,,,,,,,,,,,,,,,,,,0,0,0,0,0
0.5383,1783190328.7081,1,0,1.0000,0.0000,1.44682,0.23328,-2.77748,0.97337,1.57080,0.00000,-0.14512,-0.38003,0.04653,,,,,,,,,,,,,,,,,,,,,,,,,,0,0,0,0,0
0.5405,1783190328.7103,1,0,1.0000,0.0000,1.44682,0.23328,-2.77748,0.97337,1.57080,0.00000,-0.14512,-0.38003,0.04653,,,,,,,,,,,,,,,,,,,,,,,,,,0,0,0,0,0
0.5408,1783190328.7106,1,0,1.0000,0.0000,1.44682,0.23328,-2.77748,0.97337,1.57080,0.00000,-0.14512,-0.38003,0.04653,,,,,,,,,,,,,,,,,,,,,,,,,,0,0,0,0,0
0.5484,1783190328.7183,1,0,1.0000,0.0000,1.44682,0.23328,-2.77748,0.97337,1.57080,0.00000,-0.14512,-0.38003,0.04653,,,,,,,,,,,,,,,,,,,,,,,,,,0,0,0,0,0
0.5714,1783190328.7412,1,0,1.0000,0.0000,1.44682,0.23328,-2.77748,0.97337,1.57080,0.00000,-0.14512,-0.38003,0.04653,,,,,,,,,,,,,,,,,,,,,,,,,,0,0,0,0,0
0.5718,1783190328.7417,1,0,1.0000,0.0000,1.44682,0.23328,-2.77748,0.97337,1.57080,0.00000,-0.14512,-0.38003,0.04653,,,,,,,,,,,,,,,,,,,,,,,,,,0,0,0,0,0
0.5785,1783190328.7483,1,0,1.0000,0.0000,1.44682,0.23328,-2.77748,0.97337,1.57080,0.00000,-0.14512,-0.38003,0.04653,,,,,,,,,,,,,,,,,,,,,,,,,,0,0,0,0,0
0.5835,1783190328.7533,1,0,1.0000,0.0000,1.44682,0.23328,-2.77748,0.97337,1.57080,0.00000,-0.14512,-0.38003,0.04653,,,,,,,,,,,,,,,,,,,,,,,,,,0,0,0,0,0
0.5897,1783190328.7595,1,0,1.0000,0.0000,1.44682,0.23328,-2.77748,0.97337,1.57080,0.00000,-0.14512,-0.38003,0.04653,,,,,,,,,,,,,,,,,,,,,,,,,,0,0,0,0,0
0.5994,1783190328.7692,1,0,1.0000,0.0000,1.44682,0.23328,-2.77748,0.97337,1.57080,0.00000,-0.14512,-0.38003,0.04653,,,,,,,,,,,,,,,,,,,,,,,,,,0,0,0,0,0
0.6230,1783190328.7928,1,0,1.0000,0.0000,1.44682,0.23328,-2.77748,0.97337,1.57080,0.00000,-0.14512,-0.38003,0.04653,,,,,,,,,,,,,,,,,,,,,,,,,,0,0,0,0,0
0.6350,1783190328.8049,1,0,1.0000,0.0000,1.44682,0.23328,-2.77748,0.97337,1.57080,0.00000,-0.14512,-0.38003,0.04653,,,,,,,,,,,,,,,,,,,,,,,,,,0,0,0,0,0
0.6353,1783190328.8052,1,0,1.0000,0.0000,1.44682,0.23328,-2.77748,0.97337,1.57080,0.00000,-0.14512,-0.38003,0.04653,,,,,,,,,,,,,,,,,,,,,,,,,,0,0,0,0,0
0.6425,1783190328.8123,1,0,1.0000,0.0000,1.44682,0.23328,-2.77748,0.97337,1.57080,0.00000,-0.14512,-0.38003,0.04653,,,,,,,,,,,,,,,,,,,,,,,,,,0,0,0,0,0
0.6618,1783190328.8316,1,0,1.0000,0.0000,1.44682,0.23328,-2.77748,0.97337,1.57080,0.00000,-0.14512,-0.38003,0.04653,,,,,,,,,,,,,,,,,,,,,,,,,,0,0,0,0,0
0.6860,1783190328.8558,1,0,1.0000,0.0000,1.44682,0.23328,-2.77748,0.97337,1.57080,0.00000,-0.14512,-0.38003,0.04653,,,,,,,,,,,,,,,,,,,,,,,,,,0,0,0,0,0
0.6864,1783190328.8562,1,0,1.0000,0.0000,1.44682,0.23328,-2.77748,0.97337,1.57080,0.00000,-0.14512,-0.38003,0.04653,,,,,,,,,,,,,,,,,,,,,,,,,,0,0,0,0,0
0.6870,1783190328.8568,1,0,1.0000,0.0000,1.44682,0.23328,-2.77748,0.97337,1.57080,0.00000,-0.14512,-0.38003,0.04653,,,,,,,,,,,,,,,,,,,,,,,,,,0,0,0,0,0
0.6990,1783190328.8688,1,0,1.0000,0.0000,1.44682,0.23328,-2.77748,0.97337,1.57080,0.00000,-0.14512,-0.38003,0.04653,,,,,,,,,,,,,,,,,,,,,,,,,,0,0,0,0,0
0.6992,1783190328.8691,1,0,1.0000,0.0000,1.44682,0.23328,-2.77748,0.97337,1.57080,0.00000,-0.14512,-0.38003,0.04653,,,,,,,,,,,,,,,,,,,,,,,,,,0,0,0,0,0
0.7238,1783190328.8937,1,0,1.0000,0.0000,1.44682,0.23328,-2.77748,0.97337,1.57080,0.00000,-0.14512,-0.38003,0.04653,,,,,,,,,,,,,,,,,,,,,,,,,,0,0,0,0,0
0.7241,1783190328.8939,1,0,1.0000,0.0000,1.44682,0.23328,-2.77748,0.97337,1.57080,0.00000,-0.14512,-0.38003,0.04653,,,,,,,,,,,,,,,,,,,,,,,,,,0,0,0,0,0
0.7452,1783190328.9150,1,1,1.0000,0.0000,1.44682,0.23328,-2.77748,0.97337,1.57080,0.00000,-0.14512,-0.38003,0.04653,,,,,,,,,,,,,,,,,,,,,,,,,,0,0,0,0,0
0.7457,1783190328.9155,1,1,1.0000,0.0000,1.44682,0.23328,-2.77748,0.97337,1.57080,0.00000,-0.14512,-0.38003,0.04653,,,,,,,,,,,,,,,,,,,,,,,,,,0,0,0,0,0
0.7614,1783190328.9313,1,1,1.0000,0.0000,1.44682,0.23328,-2.77748,0.97337,1.57080,0.00000,-0.14512,-0.38003,0.04653,,,,,,,,,,,,,,,,,,,,,,,,,,0,0,0,0,0
0.7618,1783190328.9316,1,1,1.0000,0.0000,1.44682,0.23328,-2.77748,0.97337,1.57080,0.00000,-0.14512,-0.38003,0.04653,,,,,,,,,,,,,,,,,,,,,,,,,,0,0,0,0,0
0.7825,1783190328.9523,1,1,1.0000,0.0000,1.44682,0.23328,-2.77748,0.97337,1.57080,0.00000,-0.14512,-0.38003,0.04653,,,,,,,,,,,,,,,,,,,,,,,,,,0,0,0,0,0
0.7865,1783190328.9564,1,1,1.0000,0.0000,1.44682,0.23328,-2.77748,0.97337,1.57080,0.00000,-0.14512,-0.38003,0.04653,,,,,,,,,,,,,,,,,,,,,,,,,,0,0,0,0,0
0.7884,1783190328.9582,1,1,1.0000,0.0000,1.44682,0.23328,-2.77748,0.97337,1.57080,0.00000,-0.14512,-0.38003,0.04653,,,,,,,,,,,,,,,,,,,,,,,,,,0,0,0,0,0
0.8016,1783190328.9714,1,1,1.0000,0.0000,1.44682,0.23328,-2.77748,0.97337,1.57080,0.00000,-0.14512,-0.38003,0.04653,,,,,,,,,,,,,,,,,,,,,,,,,,0,0,0,0,0
0.8090,1783190328.9788,1,1,1.0000,0.0000,1.44682,0.23328,-2.77748,0.97337,1.57080,0.00000,-0.14512,-0.38003,0.04653,,,,,,,,,,,,,,,,,,,,,,,,,,0,0,0,0,0
0.8307,1783190329.0005,1,1,1.0000,0.0000,1.44682,0.23328,-2.77748,0.97337,1.57080,0.00000,-0.14512,-0.38003,0.04653,,,,,,,,,,,,,,,,,,,,,,,,,,0,0,0,0,0
0.8312,1783190329.0010,1,1,1.0000,0.0000,1.44682,0.23328,-2.77748,0.97337,1.57080,0.00000,-0.14512,-0.38003,0.04653,,,,,,,,,,,,,,,,,,,,,,,,,,0,0,0,0,0
0.8396,1783190329.0095,1,1,1.0000,0.0000,1.44682,0.23328,-2.77748,0.97337,1.57080,0.00000,-0.14512,-0.38003,0.04653,,,,,,,,,,,,,,,,,,,,,,,,,,0,0,0,0,0
0.8484,1783190329.0182,1,1,1.0000,0.0000,1.44682,0.23328,-2.77748,0.97337,1.57080,0.00000,-0.14512,-0.38003,0.04653,,,,,,,,,,,,,,,,,,,,,,,,,,0,0,0,0,0
0.8615,1783190329.0313,1,1,1.0000,0.0000,1.44682,0.23328,-2.77748,0.97337,1.57080,0.00000,-0.14512,-0.38003,0.04653,,,,,,,,,,,,,,,,,,,,,,,,,,0,0,0,0,0
0.8712,1783190329.0410,1,1,1.0000,0.0000,1.44682,0.23328,-2.77748,0.97337,1.57080,0.00000,-0.14512,-0.38003,0.04653,,,,,,,,,,,,,,,,,,,,,,,,,,0,0,0,0,0
0.8715,1783190329.0413,1,1,1.0000,0.0000,1.44682,0.23328,-2.77748,0.97337,1.57080,0.00000,-0.14512,-0.38003,0.04653,,,,,,,,,,,,,,,,,,,,,,,,,,0,0,0,0,0
0.8793,1783190329.0491,1,1,1.0000,0.0000,1.44682,0.23328,-2.77748,0.97337,1.57080,0.00000,-0.14512,-0.38003,0.04653,,,,,,,,,,,,,,,,,,,,,,,,,,0,0,0,0,0
0.8894,1783190329.0593,1,1,1.0000,0.0000,1.44682,0.23328,-2.77748,0.97337,1.57080,0.00000,-0.14512,-0.38003,0.04653,,,,,,,,,,,,,,,,,,,,,,,,,,0,0,0,0,0
0.8994,1783190329.0692,1,1,1.0000,0.0000,1.44682,0.23328,-2.77748,0.97337,1.57080,0.00000,-0.14512,-0.38003,0.04653,,,,,,,,,,,,,,,,,,,,,,,,,,0,0,0,0,0
0.8997,1783190329.0696,1,1,1.0000,0.0000,1.44682,0.23328,-2.77748,0.97337,1.57080,0.00000,-0.14512,-0.38003,0.04653,,,,,,,,,,,,,,,,,,,,,,,,,,0,0,0,0,0
0.9103,1783190329.0801,1,1,1.0000,0.0000,1.44682,0.23328,-2.77748,0.97337,1.57080,0.00000,-0.14512,-0.38003,0.04653,,,,,,,,,,,,,,,,,,,,,,,,,,0,0,0,0,0
0.9283,1783190329.0982,1,1,1.0000,0.0000,1.44682,0.23322,-2.77749,0.97344,1.57080,0.00000,-0.14512,-0.38003,0.04651,,,,,,,,,,,,,,,,,,,,,,,,,,0,0,0,0,0
0.9301,1783190329.1000,1,1,1.0000,0.0000,1.44682,0.23322,-2.77749,0.97344,1.57080,0.00000,-0.14512,-0.38003,0.04651,,,,,,,,,,,,,,,,,,,,,,,,,,0,0,0,0,0
0.9448,1783190329.1146,1,1,1.0000,0.0000,1.44682,0.23293,-2.77757,0.97381,1.57080,0.00000,-0.14512,-0.38003,0.04644,,,,,,,,,,,,,,,,,,,,,,,,,,0,0,0,0,0
0.9499,1783190329.1197,1,1,1.0000,0.0000,1.44682,0.23285,-2.77759,0.97390,1.57080,0.00000,-0.14512,-0.38003,0.04642,,,,,,,,,,,,,,,,,,,,,,,,,,0,0,0,0,0
0.9639,1783190329.1337,1,1,1.0000,0.0000,1.44682,0.23279,-2.77760,0.97398,1.57080,0.00000,-0.14512,-0.38003,0.04640,,,,,,,,,,,,,,,,,,,,,,,,,,0,0,0,0,0
0.9765,1783190329.1464,1,1,1.0000,0.0000,1.44682,0.23264,-2.77764,0.97417,1.57080,0.00000,-0.14512,-0.38003,0.04636,,,,,,,,,,,,,,,,,,,,,,,,,,0,0,0,0,0
0.9807,1783190329.1505,1,1,1.0000,0.0000,1.44682,0.23264,-2.77764,0.97417,1.57080,0.00000,-0.14512,-0.38003,0.04636,,,,,,,,,,,,,,,,,,,,,,,,,,0,0,0,0,0
0.9891,1783190329.1590,1,1,1.0000,0.0000,1.44682,0.23259,-2.77765,0.97423,1.57080,0.00000,-0.14512,-0.38003,0.04635,,,,,,,,,,,,,,,,,,,,,,,,,,0,0,0,0,0
0.9982,1783190329.1681,1,1,1.0000,0.0000,1.44682,0.23248,-2.77768,0.97437,1.57080,0.00000,-0.14512,-0.38003,0.04632,,,,,,,,,,,,,,,,,,,,,,,,,,0,0,0,0,0
0.9986,1783190329.1684,1,1,1.0000,0.0000,1.44682,0.23248,-2.77768,0.97437,1.57080,0.00000,-0.14512,-0.38003,0.04632,,,,,,,,,,,,,,,,,,,,,,,,,,0,0,0,0,0
1.0090,1783190329.1789,1,1,1.0000,0.0000,1.44682,0.23227,-2.77774,0.97464,1.57080,0.00000,-0.14512,-0.38003,0.04626,,,,,,,,,,,,,,,,,,,,,,,,,,0,0,0,0,0
1.0094,1783190329.1792,1,1,1.0000,0.0000,1.44682,0.23227,-2.77774,0.97464,1.57080,0.00000,-0.14512,-0.38003,0.04626,,,,,,,,,,,,,,,,,,,,,,,,,,0,0,0,0,0
1.0186,1783190329.1884,1,1,1.0000,0.0000,1.44682,0.23226,-2.77774,0.97465,1.57080,0.00000,-0.14512,-0.38003,0.04626,,,,,,,,,,,,,,,,,,,,,,,,,,0,0,0,0,0
1.0286,1783190329.1984,1,1,1.0000,0.0000,1.44682,0.23216,-2.77777,0.97478,1.57080,0.00000,-0.14512,-0.38003,0.04623,,,,,,,,,,,,,,,,,,,,,,,,,,0,0,0,0,0
1.0382,1783190329.2080,1,1,1.0000,0.0000,1.44682,0.23204,-2.77779,0.97492,1.57080,0.00000,-0.14512,-0.38003,0.04621,,,,,,,,,,,,,,,,,,,,,,,,,,0,0,0,0,0
1.0386,1783190329.2084,1,1,1.0000,0.0000,1.44682,0.23204,-2.77779,0.97492,1.57080,0.00000,-0.14512,-0.38003,0.04621,,,,,,,,,,,,,,,,,,,,,,,,,,0,0,0,0,0
1.0485,1783190329.2184,1,1,1.0000,0.0000,1.44682,0.23200,-2.77781,0.97498,1.57080,0.00000,-0.14512,-0.38003,0.04619,,,,,,,,,,,,,,,,,,,,,,,,,,0,0,0,0,0
1.0607,1783190329.2306,1,1,1.0000,0.0000,1.44682,0.23182,-2.77785,0.97521,1.57080,0.00000,-0.14512,-0.38003,0.04615,,,,,,,,,,,,,,,,,,,,,,,,,,0,0,0,0,0
1.0813,1783190329.2512,1,1,1.0000,0.0000,1.44682,0.23165,-2.77790,0.97542,1.57080,0.00000,-0.14512,-0.38003,0.04610,,,,,,,,,,,,,,,,,,,,,,,,,,0,0,0,0,0
1.0821,1783190329.2519,1,1,1.0000,0.0000,1.44682,0.23165,-2.77790,0.97542,1.57080,0.00000,-0.14512,-0.38003,0.04610,,,,,,,,,,,,,,,,,,,,,,,,,,0,0,0,0,0
1.0824,1783190329.2522,1,1,1.0000,0.0000,1.44682,0.23165,-2.77790,0.97542,1.57080,0.00000,-0.14512,-0.38003,0.04610,,,,,,,,,,,,,,,,,,,,,,,,,,0,0,0,0,0
1.0902,1783190329.2600,1,1,1.0000,0.0000,1.44682,0.23156,-2.77792,0.97553,1.57080,0.00000,-0.14512,-0.38003,0.04608,,,,,,,,,,,,,,,,,,,,,,,,,,0,0,0,0,0
1.0999,1783190329.2697,1,1,1.0000,0.0000,1.44682,0.23145,-2.77795,0.97567,1.57080,0.00000,-0.14512,-0.38003,0.04605,,,,,,,,,,,,,,,,,,,,,,,,,,0,0,0,0,0
1.1003,1783190329.2701,1,1,1.0000,0.0000,1.44682,0.23145,-2.77795,0.97567,1.57080,0.00000,-0.14512,-0.38003,0.04605,,,,,,,,,,,,,,,,,,,,,,,,,,0,0,0,0,0
1.1110,1783190329.2809,1,1,1.0000,0.0000,1.44682,0.23135,-2.77797,0.97579,1.57080,0.00000,-0.14512,-0.38003,0.04602,,,,,,,,,,,,,,,,,,,,,,,,,,0,0,0,0,0
1.1183,1783190329.2882,1,1,1.0000,0.0000,1.44682,0.23129,-2.77799,0.97587,1.57080,0.00000,-0.14512,-0.38003,0.04601,,,,,,,,,,,,,,,,,,,,,,,,,,0,0,0,0,0
1.1323,1783190329.3022,1,1,1.0000,0.0000,1.44682,0.23108,-2.77804,0.97613,1.57080,0.00000,-0.14512,-0.38003,0.04595,,,,,,,,,,,,,,,,,,,,,,,,,,0,0,0,0,0
1.1394,1783190329.3092,1,1,1.0000,0.0000,1.44682,0.23105,-2.77805,0.97617,1.57080,0.00000,-0.14512,-0.38003,0.04595,,,,,,,,,,,,,,,,,,,,,,,,,,0,0,0,0,0
1.1399,1783190329.3097,1,1,1.0000,0.0000,1.44682,0.23105,-2.77805,0.97617,1.57080,0.00000,-0.14512,-0.38003,0.04595,,,,,,,,,,,,,,,,,,,,,,,,,,0,0,0,0,0
1.1480,1783190329.3178,1,1,1.0000,0.0000,1.44682,0.23097,-2.77807,0.97627,1.57080,0.00000,-0.14512,-0.38003,0.04592,,,,,,,,,,,,,,,,,,,,,,,,,,0,0,0,0,0
1.1483,1783190329.3181,1,1,1.0000,0.0000,1.44682,0.23097,-2.77807,0.97627,1.57080,0.00000,-0.14512,-0.38003,0.04592,,,,,,,,,,,,,,,,,,,,,,,,,,0,0,0,0,0
1.1585,1783190329.3283,1,1,1.0000,0.0000,1.44682,0.23086,-2.77810,0.97641,1.57080,0.00000,-0.14512,-0.38003,0.04590,,,,,,,,,,,,,,,,,,,,,,,,,,0,0,0,0,0
1.1593,1783190329.3291,1,1,1.0000,0.0000,1.44682,0.23086,-2.77810,0.97641,1.57080,0.00000,-0.14512,-0.38003,0.04590,,,,,,,,,,,,,,,,,,,,,,,,,,0,0,0,0,0
1.1700,1783190329.3399,1,1,1.0000,0.0000,1.44682,0.23081,-2.77811,0.97647,1.57080,0.00000,-0.14512,-0.38003,0.04588,,,,,,,,,,,,,,,,,,,,,,,,,,0,0,0,0,0
1.1704,1783190329.3403,1,1,1.0000,0.0000,1.44682,0.23081,-2.77811,0.97647,1.57080,0.00000,-0.14512,-0.38003,0.04588,,,,,,,,,,,,,,,,,,,,,,,,,,0,0,0,0,0
1.1793,1783190329.3492,1,1,1.0000,0.0000,1.44682,0.23063,-2.77816,0.97670,1.57080,0.00000,-0.14512,-0.38003,0.04584,,,,,,,,,,,,,,,,,,,,,,,,,,0,0,0,0,0
1.1796,1783190329.3494,1,1,1.0000,0.0000,1.44682,0.23063,-2.77816,0.97670,1.57080,0.00000,-0.14512,-0.38003,0.04584,,,,,,,,,,,,,,,,,,,,,,,,,,0,0,0,0,0
1.1916,1783190329.3614,1,1,1.0000,0.0000,1.44682,0.23049,-2.77819,0.97688,1.57080,0.00000,-0.14512,-0.38003,0.04580,,,,,,,,,,,,,,,,,,,,,,,,,,0,0,0,0,0
1.1992,1783190329.3691,1,1,1.0000,0.0000,1.44682,0.23044,-2.77821,0.97693,1.57080,0.00000,-0.14512,-0.38003,0.04579,,,,,,,,,,,,,,,,,,,,,,,,,,0,0,0,0,0
1.1996,1783190329.3695,1,1,1.0000,0.0000,1.44682,0.23044,-2.77821,0.97693,1.57080,0.00000,-0.14512,-0.38003,0.04579,,,,,,,,,,,,,,,,,,,,,,,,,,0,0,0,0,0
1.2118,1783190329.3816,1,1,1.0000,0.0000,1.44682,0.23027,-2.77825,0.97715,1.57080,0.00000,-0.14512,-0.38003,0.04574,,,,,,,,,,,,,,,,,,,,,,,,,,0,0,0,0,0
1.2191,1783190329.3889,1,1,1.0000,0.0000,1.44682,0.23020,-2.77827,0.97724,1.57080,0.00000,-0.14512,-0.38003,0.04572,,,,,,,,,,,,,,,,,,,,,,,,,,0,0,0,0,0
1.2395,1783190329.4094,1,1,1.0000,0.0000,1.44682,0.22998,-2.77833,0.97752,1.57080,0.00000,-0.14512,-0.38003,0.04567,,,,,,,,,,,,,,,,,,,,,,,,,,0,0,0,0,0
1.2397,1783190329.4096,1,1,1.0000,0.0000,1.44682,0.22998,-2.77833,0.97752,1.57080,0.00000,-0.14512,-0.38003,0.04567,,,,,,,,,,,,,,,,,,,,,,,,,,0,0,0,0,0
1.2419,1783190329.4117,1,1,1.0000,0.0000,1.44682,0.22998,-2.77833,0.97752,1.57080,0.00000,-0.14512,-0.38003,0.04567,,,,,,,,,,,,,,,,,,,,,,,,,,0,0,0,0,0
1.2422,1783190329.4121,1,1,1.0000,0.0000,1.44682,0.22998,-2.77833,0.97752,1.57080,0.00000,-0.14512,-0.38003,0.04567,,,,,,,,,,,,,,,,,,,,,,,,,,0,0,0,0,0
1.2555,1783190329.4253,1,1,1.0000,0.0000,1.44682,0.22983,-2.77836,0.97770,1.57080,0.00000,-0.14512,-0.38003,0.04563,,,,,,,,,,,,,,,,,,,,,,,,,,0,0,0,0,0
1.2559,1783190329.4258,1,1,1.0000,0.0000,1.44682,0.22983,-2.77836,0.97770,1.57080,0.00000,-0.14512,-0.38003,0.04563,,,,,,,,,,,,,,,,,,,,,,,,,,0,0,0,0,0
1.2621,1783190329.4320,1,1,1.0000,0.0000,1.44682,0.22980,-2.77837,0.97775,1.57080,0.00000,-0.14512,-0.38003,0.04562,,,,,,,,,,,,,,,,,,,,,,,,,,0,0,0,0,0
1.2719,1783190329.4417,1,1,1.0000,0.0000,1.44682,0.22962,-2.77842,0.97797,1.57080,0.00000,-0.14512,-0.38003,0.04557,,,,,,,,,,,,,,,,,,,,,,,,,,0,0,0,0,0
1.2813,1783190329.4511,1,1,1.0000,0.0000,1.44682,0.22955,-2.77844,0.97806,1.57080,0.00000,-0.14512,-0.38003,0.04555,,,,,,,,,,,,,,,,,,,,,,,,,,0,0,0,0,0
1.2920,1783190329.4618,1,1,1.0000,0.0000,1.44682,0.22946,-2.77846,0.97817,1.57080,0.00000,-0.14512,-0.38003,0.04553,,,,,,,,,,,,,,,,,,,,,,,,,,0,0,0,0,0
1.2983,1783190329.4681,1,1,1.0000,0.0000,1.44682,0.22940,-2.77847,0.97825,1.57080,0.00000,-0.14512,-0.38003,0.04551,,,,,,,,,,,,,,,,,,,,,,,,,,0,0,0,0,0
1.3087,1783190329.4786,1,1,1.0000,0.0000,1.44682,0.22919,-2.77853,0.97850,1.57080,0.00000,-0.14512,-0.38003,0.04546,,,,,,,,,,,,,,,,,,,,,,,,,,0,0,0,0,0
1.3184,1783190329.4882,1,1,1.0000,0.0000,1.44682,0.22918,-2.77853,0.97852,1.57080,0.00000,-0.14512,-0.38003,0.04546,,,,,,,,,,,,,,,,,,,,,,,,,,0,0,0,0,0
1.3193,1783190329.4891,1,1,1.0000,0.0000,1.44682,0.22915,-2.77854,0.97856,1.57080,0.00000,-0.14512,-0.38003,0.04545,,,,,,,,,,,,,,,,,,,,,,,,,,0,0,0,0,0
1.3440,1783190329.5138,1,1,1.0000,0.0000,1.44682,0.22889,-2.77860,0.97889,1.57080,0.00000,-0.14512,-0.38003,0.04538,,,,,,,,,,,,,,,,,,,,,,,,,,0,0,0,0,0
1.3443,1783190329.5141,1,1,1.0000,0.0000,1.44682,0.22889,-2.77860,0.97889,1.57080,0.00000,-0.14512,-0.38003,0.04538,,,,,,,,,,,,,,,,,,,,,,,,,,0,0,0,0,0
1.3446,1783190329.5144,1,1,1.0000,0.0000,1.44682,0.22889,-2.77860,0.97889,1.57080,0.00000,-0.14512,-0.38003,0.04538,,,,,,,,,,,,,,,,,,,,,,,,,,0,0,0,0,0
1.3535,1783190329.5234,1,1,1.0000,0.0000,1.44682,0.22881,-2.77863,0.97899,1.57080,0.00000,-0.14512,-0.38003,0.04536,,,,,,,,,,,,,,,,,,,,,,,,,,0,0,0,0,0
1.3539,1783190329.5237,1,1,1.0000,0.0000,1.44682,0.22881,-2.77863,0.97899,1.57080,0.00000,-0.14512,-0.38003,0.04536,,,,,,,,,,,,,,,,,,,,,,,,,,0,0,0,0,0
1.3602,1783190329.5301,1,1,1.0000,0.0000,1.44682,0.22868,-2.77866,0.97915,1.57080,0.00000,-0.14512,-0.38003,0.04533,,,,,,,,,,,,,,,,,,,,,,,,,,0,0,0,0,0
1.3706,1783190329.5404,1,1,1.0000,0.0000,1.44682,0.22854,-2.77869,0.97932,1.57080,0.00000,-0.14512,-0.38003,0.04529,,,,,,,,,,,,,,,,,,,,,,,,,,0,0,0,0,0
1.3965,1783190329.5663,1,1,1.0000,0.0000,1.44682,0.22825,-2.77877,0.97969,1.57080,0.00000,-0.14512,-0.38003,0.04522,,,,,,,,,,,,,,,,,,,,,,,,,,0,0,0,0,0
1.3981,1783190329.5679,1,1,1.0000,0.0000,1.44682,0.22825,-2.77877,0.97969,1.57080,0.00000,-0.14512,-0.38003,0.04522,,,,,,,,,,,,,,,,,,,,,,,,,,0,0,0,0,0
1.3988,1783190329.5686,1,1,1.0000,0.0000,1.44682,0.22825,-2.77877,0.97969,1.57080,0.00000,-0.14512,-0.38003,0.04522,,,,,,,,,,,,,,,,,,,,,,,,,,0,0,0,0,0
1.3993,1783190329.5692,1,1,1.0000,0.0000,1.44682,0.22825,-2.77877,0.97969,1.57080,0.00000,-0.14512,-0.38003,0.04522,,,,,,,,,,,,,,,,,,,,,,,,,,0,0,0,0,0
1.4087,1783190329.5785,1,1,1.0000,0.0000,1.44682,0.22820,-2.77878,0.97974,1.57080,0.00000,-0.14512,-0.38003,0.04520,,,,,,,,,,,,,,,,,,,,,,,,,,0,0,0,0,0
1.4194,1783190329.5892,1,1,1.0000,0.0000,1.44682,0.22803,-2.77882,0.97996,1.57080,0.00000,-0.14512,-0.38003,0.04516,,,,,,,,,,,,,,,,,,,,,,,,,,0,0,0,0,0
1.4198,1783190329.5897,1,1,1.0000,0.0000,1.44682,0.22803,-2.77882,0.97996,1.57080,0.00000,-0.14512,-0.38003,0.04516,,,,,,,,,,,,,,,,,,,,,,,,,,0,0,0,0,0
1.4435,1783190329.6133,1,1,1.0000,0.0000,1.44682,0.22780,-2.77888,0.98025,1.57080,0.00000,-0.14512,-0.38003,0.04510,,,,,,,,,,,,,,,,,,,,,,,,,,0,0,0,0,0
1.4495,1783190329.6193,1,1,1.0000,0.0000,1.44682,0.22774,-2.77890,0.98033,1.57080,0.00000,-0.14512,-0.38003,0.04508,,,,,,,,,,,,,,,,,,,,,,,,,,0,0,0,0,0
1.4587,1783190329.6285,1,1,1.0000,0.0000,1.44682,0.22760,-2.77893,0.98050,1.57080,0.00000,-0.14512,-0.38003,0.04505,,,,,,,,,,,,,,,,,,,,,,,,,,0,0,0,0,0
1.4704,1783190329.6402,1,1,1.0000,0.0000,1.44682,0.22755,-2.77894,0.98056,1.57080,0.00000,-0.14512,-0.38003,0.04504,,,,,,,,,,,,,,,,,,,,,,,,,,0,0,0,0,0
1.4861,1783190329.6560,1,1,1.0000,0.0000,1.44682,0.22731,-2.77901,0.98087,1.57080,0.00000,-0.14512,-0.38003,0.04497,,,,,,,,,,,,,,,,,,,,,,,,,,0,0,0,0,0
1.4891,1783190329.6589,1,1,1.0000,0.0000,1.44682,0.22724,-2.77902,0.98095,1.57080,0.00000,-0.14512,-0.38003,0.04495,,,,,,,,,,,,,,,,,,,,,,,,,,0,0,0,0,0
1.4995,1783190329.6693,1,1,1.0000,0.0000,1.44682,0.22719,-2.77904,0.98101,1.57080,0.00000,-0.14512,-0.38003,0.04494,,,,,,,,,,,,,,,,,,,,,,,,,,0,0,0,0,0
1.5081,1783190329.6780,1,1,1.0000,0.0000,1.44682,0.22708,-2.77906,0.98115,1.57080,0.00001,-0.14512,-0.38003,0.04491,,,,,,,,,,,,,,,,,,,,,,,,,,0,0,0,0,0
1.5086,1783190329.6784,1,1,1.0000,0.0000,1.44682,0.22708,-2.77906,0.98115,1.57080,0.00001,-0.14512,-0.38003,0.04491,,,,,,,,,,,,,,,,,,,,,,,,,,0,0,0,0,0
1.5206,1783190329.6904,1,1,1.0000,0.0000,1.44682,0.22695,-2.77910,0.98132,1.57080,0.00001,-0.14512,-0.38003,0.04488,,,,,,,,,,,,,,,,,,,,,,,,,,0,0,0,0,0
1.5441,1783190329.7140,1,1,1.0000,0.0000,1.44682,0.22666,-2.77917,0.98169,1.57080,0.00001,-0.14512,-0.38003,0.04480,,,,,,,,,,,,,,,,,,,,,,,,,,0,0,0,0,0
1.5444,1783190329.7143,1,1,1.0000,0.0000,1.44682,0.22666,-2.77917,0.98169,1.57080,0.00001,-0.14512,-0.38003,0.04480,,,,,,,,,,,,,,,,,,,,,,,,,,0,0,0,0,0
1.5610,1783190329.7309,1,1,1.0000,0.0000,1.44682,0.22654,-2.77920,0.98183,1.57080,0.00001,-0.14512,-0.38003,0.04477,,,,,,,,,,,,,,,,,,,,,,,,,,0,0,0,0,0
1.5613,1783190329.7311,1,1,1.0000,0.0000,1.44682,0.22654,-2.77920,0.98183,1.57080,0.00001,-0.14512,-0.38003,0.04477,,,,,,,,,,,,,,,,,,,,,,,,,,0,0,0,0,0
1.5687,1783190329.7385,1,1,1.0000,0.0000,1.44682,0.22643,-2.77923,0.98197,1.57080,0.00001,-0.14512,-0.38003,0.04474,,,,,,,,,,,,,,,,,,,,,,,,,,0,0,0,0,0
1.5691,1783190329.7389,1,1,1.0000,0.0000,1.44682,0.22643,-2.77923,0.98197,1.57080,0.00001,-0.14512,-0.38003,0.04474,,,,,,,,,,,,,,,,,,,,,,,,,,0,0,0,0,0
1.5912,1783190329.7611,1,1,1.0000,0.0000,1.44682,0.22620,-2.77929,0.98226,1.57080,0.00001,-0.14512,-0.38003,0.04468,,,,,,,,,,,,,,,,,,,,,,,,,,0,0,0,0,0
1.5930,1783190329.7628,1,1,1.0000,0.0000,1.44682,0.22620,-2.77929,0.98226,1.57080,0.00001,-0.14512,-0.38003,0.04468,,,,,,,,,,,,,,,,,,,,,,,,,,0,0,0,0,0
1.5933,1783190329.7631,1,1,1.0000,0.0000,1.44682,0.22620,-2.77929,0.98226,1.57080,0.00001,-0.14512,-0.38003,0.04468,,,,,,,,,,,,,,,,,,,,,,,,,,0,0,0,0,0
1.5994,1783190329.7692,1,1,1.0000,0.0000,1.44682,0.22607,-2.77932,0.98242,1.57080,0.00001,-0.14512,-0.38003,0.04465,,,,,,,,,,,,,,,,,,,,,,,,,,0,0,0,0,0
1.6096,1783190329.7794,1,1,1.0000,0.0000,1.44682,0.22593,-2.77935,0.98259,1.57080,0.00001,-0.14512,-0.38003,0.04462,,,,,,,,,,,,,,,,,,,,,,,,,,0,0,0,0,0
1.6184,1783190329.7882,1,1,1.0000,0.0000,1.44682,0.22592,-2.77936,0.98260,1.57080,0.00001,-0.14512,-0.38003,0.04461,,,,,,,,,,,,,,,,,,,,,,,,,,0,0,0,0,0
1.6302,1783190329.8000,1,1,1.0000,0.0000,1.44682,0.22578,-2.77939,0.98278,1.57080,0.00001,-0.14512,-0.38003,0.04458,,,,,,,,,,,,,,,,,,,,,,,,,,0,0,0,0,0
1.6432,1783190329.8131,1,1,1.0000,0.0000,1.44682,0.22557,-2.77945,0.98304,1.57080,0.00001,-0.14512,-0.38003,0.04452,,,,,,,,,,,,,,,,,,,,,,,,,,0,0,0,0,0
1.6532,1783190329.8230,1,1,1.0000,0.0000,1.44682,0.22554,-2.77945,0.98308,1.57080,0.00001,-0.14512,-0.38003,0.04451,,,,,,,,,,,,,,,,,,,,,,,,,,0,0,0,0,0
1.6604,1783190329.8302,1,1,1.0000,0.0000,1.44682,0.22546,-2.77948,0.98319,1.57080,0.00001,-0.14512,-0.38002,0.04449,,,,,,,,,,,,,,,,,,,,,,,,,,0,0,0,0,0
1.6704,1783190329.8403,1,1,1.0000,0.0000,1.44682,0.22534,-2.77950,0.98333,1.57080,0.00001,-0.14512,-0.38002,0.04446,,,,,,,,,,,,,,,,,,,,,,,,,,0,0,0,0,0
1.6793,1783190329.8492,1,1,1.0000,0.0000,1.44682,0.22530,-2.77952,0.98339,1.57080,0.00001,-0.14512,-0.38002,0.04445,,,,,,,,,,,,,,,,,,,,,,,,,,0,0,0,0,0
1.6926,1783190329.8624,1,1,1.0000,0.0000,1.44682,0.22511,-2.77956,0.98362,1.57080,0.00001,-0.14512,-0.38002,0.04440,,,,,,,,,,,,,,,,,,,,,,,,,,0,0,0,0,0
1.6930,1783190329.8628,1,1,1.0000,0.0000,1.44682,0.22511,-2.77956,0.98362,1.57080,0.00001,-0.14512,-0.38002,0.04440,,,,,,,,,,,,,,,,,,,,,,,,,,0,0,0,0,0
1.7034,1783190329.8733,1,1,1.0000,0.0000,1.44682,0.22497,-2.77960,0.98379,1.57080,0.00001,-0.14512,-0.38002,0.04437,,,,,,,,,,,,,,,,,,,,,,,,,,0,0,0,0,0
1.7038,1783190329.8736,1,1,1.0000,0.0000,1.44682,0.22497,-2.77960,0.98379,1.57080,0.00001,-0.14512,-0.38002,0.04437,,,,,,,,,,,,,,,,,,,,,,,,,,0,0,0,0,0
1.7142,1783190329.8841,1,1,1.0000,0.0000,1.44682,0.22494,-2.77961,0.98384,1.57080,0.00001,-0.14512,-0.38002,0.04436,,,,,,,,,,,,,,,,,,,,,,,,,,0,0,0,0,0
1.7218,1783190329.8916,1,1,1.0000,0.0000,1.44682,0.22486,-2.77963,0.98394,1.57080,0.00001,-0.14512,-0.38002,0.04434,,,,,,,,,,,,,,,,,,,,,,,,,,0,0,0,0,0
1.7358,1783190329.9057,1,1,1.0000,0.0000,1.44682,0.22473,-2.77966,0.98410,1.57080,0.00001,-0.14512,-0.38002,0.04430,,,,,,,,,,,,,,,,,,,,,,,,,,0,0,0,0,0
1.7460,1783190329.9158,1,1,1.0000,0.0000,1.44682,0.22465,-2.77968,0.98420,1.57080,0.00001,-0.14512,-0.38002,0.04428,,,,,,,,,,,,,,,,,,,,,,,,,,0,0,0,0,0
1.7530,1783190329.9229,1,1,1.0000,0.0000,1.44682,0.22451,-2.77971,0.98437,1.57080,0.00001,-0.14512,-0.38002,0.04425,,,,,,,,,,,,,,,,,,,,,,,,,,0,0,0,0,0
1.7533,1783190329.9232,1,1,1.0000,0.0000,1.44682,0.22451,-2.77971,0.98437,1.57080,0.00001,-0.14512,-0.38002,0.04425,,,,,,,,,,,,,,,,,,,,,,,,,,0,0,0,0,0
1.7651,1783190329.9349,1,1,1.0000,0.0000,1.44682,0.22437,-2.77975,0.98455,1.57080,0.00001,-0.14512,-0.38002,0.04421,,,,,,,,,,,,,,,,,,,,,,,,,,0,0,0,0,0
1.7754,1783190329.9452,1,1,1.0000,0.0000,1.44682,0.22430,-2.77977,0.98463,1.57080,0.00001,-0.14512,-0.38002,0.04419,,,,,,,,,,,,,,,,,,,,,,,,,,0,0,0,0,0
1.7813,1783190329.9511,1,1,1.0000,0.0000,1.44682,0.22426,-2.77978,0.98469,1.57080,0.00001,-0.14512,-0.38002,0.04418,,,,,,,,,,,,,,,,,,,,,,,,,,0,0,0,0,0
1.7816,1783190329.9514,1,1,1.0000,0.0000,1.44682,0.22426,-2.77978,0.98469,1.57080,0.00001,-0.14512,-0.38002,0.04418,,,,,,,,,,,,,,,,,,,,,,,,,,0,0,0,0,0
1.7955,1783190329.9654,1,1,1.0000,0.0000,1.44682,0.22413,-2.77981,0.98485,1.57080,0.00001,-0.14512,-0.38002,0.04415,,,,,,,,,,,,,,,,,,,,,,,,,,0,0,0,0,0
1.8061,1783190329.9759,1,1,1.0000,0.0000,1.44682,0.22405,-2.77983,0.98495,1.57080,0.00001,-0.14512,-0.38002,0.04413,,,,,,,,,,,,,,,,,,,,,,,,,,0,0,0,0,0
1.8130,1783190329.9829,1,1,1.0000,0.0000,1.44682,0.22391,-2.77987,0.98512,1.57080,0.00001,-0.14512,-0.38002,0.04409,,,,,,,,,,,,,,,,,,,,,,,,,,0,0,0,0,0
1.8231,1783190329.9929,1,1,1.0000,0.0000,1.44682,0.22377,-2.77990,0.98530,1.57080,0.00001,-0.14512,-0.38002,0.04406,,,,,,,,,,,,,,,,,,,,,,,,,,0,0,0,0,0
1.8314,1783190330.0012,1,1,1.0000,0.0000,1.44682,0.22374,-2.77991,0.98534,1.57080,0.00001,-0.14512,-0.38002,0.04405,,,,,,,,,,,,,,,,,,,,,,,,,,0,0,0,0,0
1.8322,1783190330.0020,1,1,1.0000,0.0000,1.44682,0.22374,-2.77991,0.98534,1.57080,0.00001,-0.14512,-0.38002,0.04405,,,,,,,,,,,,,,,,,,,,,,,,,,0,0,0,0,0
1.8517,1783190330.0216,1,1,1.0000,0.0000,1.44682,0.22354,-2.77996,0.98558,1.57080,0.00001,-0.14512,-0.38002,0.04400,,,,,,,,,,,,,,,,,,,,,,,,,,0,0,0,0,0
1.8531,1783190330.0229,1,1,1.0000,0.0000,1.44682,0.22354,-2.77996,0.98558,1.57080,0.00001,-0.14512,-0.38002,0.04400,,,,,,,,,,,,,,,,,,,,,,,,,,0,0,0,0,0
1.8534,1783190330.0233,1,1,1.0000,0.0000,1.44682,0.22354,-2.77996,0.98558,1.57080,0.00001,-0.14512,-0.38002,0.04400,,,,,,,,,,,,,,,,,,,,,,,,,,0,0,0,0,0
1.8632,1783190330.0330,1,1,1.0000,0.0000,1.44682,0.22344,-2.77998,0.98571,1.57080,0.00001,-0.14512,-0.38002,0.04397,,,,,,,,,,,,,,,,,,,,,,,,,,0,0,0,0,0
1.8755,1783190330.0454,1,1,1.0000,0.0000,1.44682,0.22324,-2.78003,0.98596,1.57080,0.00001,-0.14512,-0.38002,0.04392,,,,,,,,,,,,,,,,,,,,,,,,,,0,0,0,0,0
1.8857,1783190330.0556,1,1,1.0000,0.0000,1.44682,0.22317,-2.78005,0.98605,1.57080,0.00001,-0.14512,-0.38002,0.04390,,,,,,,,,,,,,,,,,,,,,,,,,,0,0,0,0,0
1.8943,1783190330.0642,1,1,1.0000,0.0000,1.44682,0.22314,-2.78006,0.98609,1.57080,0.00001,-0.14512,-0.38002,0.04389,,,,,,,,,,,,,,,,,,,,,,,,,,0,0,0,0,0
1.9115,1783190330.0813,1,1,1.0000,0.0000,1.44682,0.22294,-2.78011,0.98634,1.57080,0.00001,-0.14512,-0.38002,0.04384,,,,,,,,,,,,,,,,,,,,,,,,,,0,0,0,0,0
1.9122,1783190330.0820,1,1,1.0000,0.0000,1.44682,0.22294,-2.78011,0.98634,1.57080,0.00001,-0.14512,-0.38002,0.04384,,,,,,,,,,,,,,,,,,,,,,,,,,0,0,0,0,0
1.9214,1783190330.0913,1,1,1.0000,0.0000,1.44682,0.22289,-2.78012,0.98639,1.57080,0.00001,-0.14512,-0.38002,0.04383,,,,,,,,,,,,,,,,,,,,,,,,,,0,0,0,0,0
1.9217,1783190330.0916,1,1,1.0000,0.0000,1.44682,0.22289,-2.78012,0.98639,1.57080,0.00001,-0.14512,-0.38002,0.04383,,,,,,,,,,,,,,,,,,,,,,,,,,0,0,0,0,0
1.9331,1783190330.1029,1,1,1.0000,0.0000,1.44681,0.22271,-2.78017,0.98662,1.57080,0.00001,-0.14512,-0.38002,0.04378,,,,,,,,,,,,,,,,,,,,,,,,,,0,0,0,0,0
1.9792,1783190330.1490,1,1,1.0000,0.0000,1.44681,0.22229,-2.78027,0.98715,1.57080,0.00001,-0.14512,-0.38002,0.04368,,,,,,,,,,,,,,,,,,,,,,,,,,0,0,0,0,0
1.9793,1783190330.1492,1,1,1.0000,0.0000,1.44681,0.22229,-2.78027,0.98715,1.57080,0.00001,-0.14512,-0.38002,0.04368,,,,,,,,,,,,,,,,,,,,,,,,,,0,0,0,0,0
1.9824,1783190330.1522,1,1,1.0000,0.0000,1.44681,0.22229,-2.78027,0.98715,1.57080,0.00001,-0.14512,-0.38002,0.04368,,,,,,,,,,,,,,,,,,,,,,,,,,0,0,0,0,0
1.9828,1783190330.1526,1,1,1.0000,0.0000,1.44681,0.22229,-2.78027,0.98715,1.57080,0.00001,-0.14512,-0.38002,0.04368,,,,,,,,,,,,,,,,,,,,,,,,,,0,0,0,0,0
2.0218,1783190330.1916,1,1,1.0000,0.0000,1.44681,0.22185,-2.78038,0.98770,1.57080,0.00001,-0.14512,-0.38002,0.04356,,,,,,,,,,,,,,,,,,,,,,,,,,0,0,0,0,0
2.0244,1783190330.1942,1,1,1.0000,0.0000,1.44681,0.22180,-2.78040,0.98777,1.57080,0.00001,-0.14512,-0.38002,0.04355,,,,,,,,,,,,,,,,,,,,,,,,,,0,0,0,0,0
2.0248,1783190330.1946,1,1,1.0000,0.0000,1.44681,0.22180,-2.78040,0.98777,1.57080,0.00001,-0.14512,-0.38002,0.04355,,,,,,,,,,,,,,,,,,,,,,,,,,0,0,0,0,0
2.0253,1783190330.1951,1,1,1.0000,0.0000,1.44681,0.22180,-2.78040,0.98777,1.57080,0.00001,-0.14512,-0.38002,0.04355,,,,,,,,,,,,,,,,,,,,,,,,,,0,0,0,0,0
2.0352,1783190330.2051,1,1,1.0000,0.0000,1.44681,0.22172,-2.78041,0.98786,1.57080,0.00001,-0.14512,-0.38002,0.04353,,,,,,,,,,,,,,,,,,,,,,,,,,0,0,0,0,0
2.0415,1783190330.2114,1,1,1.0000,0.0000,1.44681,0.22169,-2.78042,0.98790,1.57080,0.00001,-0.14512,-0.38002,0.04352,,,,,,,,,,,,,,,,,,,,,,,,,,0,0,0,0,0
2.0564,1783190330.2262,1,1,1.0000,0.0000,1.44681,0.22143,-2.78049,0.98822,1.57080,0.00001,-0.14512,-0.38002,0.04345,,,,,,,,,,,,,,,,,,,,,,,,,,0,0,0,0,0
2.0567,1783190330.2265,1,1,1.0000,0.0000,1.44681,0.22143,-2.78049,0.98822,1.57080,0.00001,-0.14512,-0.38002,0.04345,,,,,,,,,,,,,,,,,,,,,,,,,,0,0,0,0,0
2.0636,1783190330.2334,1,1,1.0000,0.0000,1.44681,0.22136,-2.78050,0.98831,1.57080,0.00001,-0.14512,-0.38002,0.04344,,,,,,,,,,,,,,,,,,,,,,,,,,0,0,0,0,0
2.0639,1783190330.2337,1,1,1.0000,0.0000,1.44681,0.22136,-2.78050,0.98831,1.57080,0.00001,-0.14512,-0.38002,0.04344,,,,,,,,,,,,,,,,,,,,,,,,,,0,0,0,0,0
2.0716,1783190330.2414,1,1,1.0000,0.0000,1.44681,0.22132,-2.78051,0.98836,1.57080,0.00001,-0.14512,-0.38002,0.04342,,,,,,,,,,,,,,,,,,,,,,,,,,0,0,0,0,0
2.0719,1783190330.2418,1,1,1.0000,0.0000,1.44681,0.22132,-2.78051,0.98836,1.57080,0.00001,-0.14512,-0.38002,0.04342,,,,,,,,,,,,,,,,,,,,,,,,,,0,0,0,0,0
2.0842,1783190330.2540,1,1,1.0000,0.0000,1.44681,0.22114,-2.78056,0.98859,1.57080,0.00001,-0.14512,-0.38002,0.04338,,,,,,,,,,,,,,,,,,,,,,,,,,0,0,0,0,0
2.0924,1783190330.2622,1,1,1.0000,0.0000,1.44681,0.22107,-2.78058,0.98868,1.57080,0.00001,-0.14512,-0.38002,0.04336,,,,,,,,,,,,,,,,,,,,,,,,,,0,0,0,0,0
2.1039,1783190330.2738,1,1,1.0000,0.0000,1.44681,0.22097,-2.78060,0.98879,1.57080,0.00001,-0.14512,-0.38002,0.04334,,,,,,,,,,,,,,,,,,,,,,,,,,0,0,0,0,0
2.1152,1783190330.2850,1,1,1.0000,0.0000,1.44681,0.22078,-2.78065,0.98904,1.57080,0.00001,-0.14512,-0.38002,0.04328,,,,,,,,,,,,,,,,,,,,,,,,,,0,0,0,0,0
2.1246,1783190330.2944,1,1,1.0000,0.0000,1.44681,0.22071,-2.78067,0.98913,1.57080,0.00001,-0.14512,-0.38002,0.04327,,,,,,,,,,,,,,,,,,,,,,,,,,0,0,0,0,0
2.1342,1783190330.3041,1,1,1.0000,0.0000,1.44681,0.22066,-2.78068,0.98918,1.57080,0.00001,-0.14512,-0.38002,0.04326,,,,,,,,,,,,,,,,,,,,,,,,,,0,0,0,0,0
2.1348,1783190330.3046,1,1,1.0000,0.0000,1.44681,0.22066,-2.78068,0.98918,1.57080,0.00001,-0.14512,-0.38002,0.04326,,,,,,,,,,,,,,,,,,,,,,,,,,0,0,0,0,0
2.1547,1783190330.3245,1,1,1.0000,0.0000,1.44681,0.22041,-2.78074,0.98950,1.57080,0.00001,-0.14512,-0.38002,0.04319,,,,,,,,,,,,,,,,,,,,,,,,,,0,0,0,0,0
2.1577,1783190330.3275,1,1,1.0000,0.0000,1.44681,0.22040,-2.78074,0.98951,1.57080,0.00001,-0.14512,-0.38002,0.04319,,,,,,,,,,,,,,,,,,,,,,,,,,0,0,0,0,0
2.1580,1783190330.3279,1,1,1.0000,0.0000,1.44681,0.22040,-2.78074,0.98951,1.57080,0.00001,-0.14512,-0.38002,0.04319,,,,,,,,,,,,,,,,,,,,,,,,,,0,0,0,0,0
2.1647,1783190330.3345,1,1,1.0000,0.0000,1.44681,0.22032,-2.78076,0.98962,1.57080,0.00001,-0.14512,-0.38002,0.04317,,,,,,,,,,,,,,,,,,,,,,,,,,0,0,0,0,0
2.1650,1783190330.3349,1,1,1.0000,0.0000,1.44681,0.22032,-2.78076,0.98962,1.57080,0.00001,-0.14512,-0.38002,0.04317,,,,,,,,,,,,,,,,,,,,,,,,,,0,0,0,0,0
2.1783,1783190330.3482,1,1,1.0000,0.0000,1.44681,0.22012,-2.78081,0.98986,1.57080,0.00001,-0.14512,-0.38002,0.04312,,,,,,,,,,,,,,,,,,,,,,,,,,0,0,0,0,0
2.1788,1783190330.3487,1,1,1.0000,0.0000,1.44681,0.22012,-2.78081,0.98986,1.57080,0.00001,-0.14512,-0.38002,0.04312,,,,,,,,,,,,,,,,,,,,,,,,,,0,0,0,0,0
2.1855,1783190330.3553,1,1,1.0000,0.0000,1.44681,0.22005,-2.78083,0.98995,1.57080,0.00001,-0.14512,-0.38002,0.04310,,,,,,,,,,,,,,,,,,,,,,,,,,0,0,0,0,0
2.2193,1783190330.3891,1,1,1.0000,0.0000,1.44681,0.21971,-2.78092,0.99038,1.57080,0.00001,-0.14512,-0.38002,0.04301,,,,,,,,,,,,,,,,,,,,,,,,,,0,0,0,0,0
2.2195,1783190330.3894,1,1,1.0000,0.0000,1.44681,0.21971,-2.78092,0.99038,1.57080,0.00001,-0.14512,-0.38002,0.04301,,,,,,,,,,,,,,,,,,,,,,,,,,0,0,0,0,0
2.2234,1783190330.3933,1,1,1.0000,0.0000,1.44681,0.21966,-2.78093,0.99044,1.57080,0.00001,-0.14512,-0.38002,0.04300,,,,,,,,,,,,,,,,,,,,,,,,,,0,0,0,0,0
2.2238,1783190330.3936,1,1,1.0000,0.0000,1.44681,0.21966,-2.78093,0.99044,1.57080,0.00001,-0.14512,-0.38002,0.04300,,,,,,,,,,,,,,,,,,,,,,,,,,0,0,0,0,0
2.2294,1783190330.3992,1,1,1.0000,0.0000,1.44681,0.21960,-2.78094,0.99051,1.57080,0.00001,-0.14512,-0.38002,0.04298,,,,,,,,,,,,,,,,,,,,,,,,,,0,0,0,0,0
2.2357,1783190330.4056,1,1,1.0000,0.0000,1.44681,0.21946,-2.78098,0.99069,1.57080,0.00001,-0.14512,-0.38002,0.04295,,,,,,,,,,,,,,,,,,,,,,,,,,0,0,0,0,0
2.2360,1783190330.4058,1,1,1.0000,0.0000,1.44681,0.21946,-2.78098,0.99069,1.57080,0.00001,-0.14512,-0.38002,0.04295,,,,,,,,,,,,,,,,,,,,,,,,,,0,0,0,0,0
2.2595,1783190330.4293,1,1,1.0000,0.0000,1.44681,0.21923,-2.78103,0.99097,1.57080,0.00001,-0.14512,-0.38002,0.04289,,,,,,,,,,,,,,,,,,,,,,,,,,0,0,0,0,0
2.2664,1783190330.4362,1,1,1.0000,0.0000,1.44681,0.21916,-2.78105,0.99105,1.57080,0.00001,-0.14512,-0.38002,0.04287,,,,,,,,,,,,,,,,,,,,,,,,,,0,0,0,0,0
2.2671,1783190330.4369,1,1,1.0000,0.0000,1.44681,0.21909,-2.78107,0.99114,1.57080,0.00001,-0.14512,-0.38002,0.04285,,,,,,,,,,,,,,,,,,,,,,,,,,0,0,0,0,0
2.2779,1783190330.4477,1,1,1.0000,0.0000,1.44681,0.21908,-2.78107,0.99116,1.57080,0.00001,-0.14512,-0.38002,0.04285,,,,,,,,,,,,,,,,,,,,,,,,,,0,0,0,0,0
2.2873,1783190330.4571,1,1,1.0000,0.0000,1.44681,0.21894,-2.78111,0.99134,1.57080,0.00001,-0.14512,-0.38002,0.04281,,,,,,,,,,,,,,,,,,,,,,,,,,0,0,0,0,0
2.2876,1783190330.4574,1,1,1.0000,0.0000,1.44681,0.21894,-2.78111,0.99134,1.57080,0.00001,-0.14512,-0.38002,0.04281,,,,,,,,,,,,,,,,,,,,,,,,,,0,0,0,0,0
2.2968,1783190330.4666,1,1,1.0000,0.0000,1.44681,0.21880,-2.78114,0.99151,1.57080,0.00001,-0.14512,-0.38002,0.04278,,,,,,,,,,,,,,,,,,,,,,,,,,0,0,0,0,0
2.3088,1783190330.4787,1,1,1.0000,0.0000,1.44681,0.21872,-2.78116,0.99161,1.57080,0.00001,-0.14512,-0.38002,0.04276,,,,,,,,,,,,,,,,,,,,,,,,,,0,0,0,0,0
2.3092,1783190330.4790,1,1,1.0000,0.0000,1.44681,0.21872,-2.78116,0.99161,1.57080,0.00001,-0.14512,-0.38002,0.04276,,,,,,,,,,,,,,,,,,,,,,,,,,0,0,0,0,0
2.3181,1783190330.4879,1,1,1.0000,0.0000,1.44681,0.21863,-2.78118,0.99171,1.57080,0.00001,-0.14512,-0.38002,0.04274,,,,,,,,,,,,,,,,,,,,,,,,,,0,0,0,0,0
2.3245,1783190330.4943,1,1,1.0000,0.0000,1.44681,0.21850,-2.78121,0.99188,1.57080,0.00001,-0.14512,-0.38002,0.04270,,,,,,,,,,,,,,,,,,,,,,,,,,0,0,0,0,0
2.3375,1783190330.5073,1,1,1.0000,0.0000,1.44681,0.21836,-2.78125,0.99205,1.57080,0.00001,-0.14512,-0.38002,0.04267,,,,,,,,,,,,,,,,,,,,,,,,,,0,0,0,0,0
2.3448,1783190330.5147,1,1,1.0000,0.0000,1.44681,0.21833,-2.78126,0.99209,1.57080,0.00001,-0.14512,-0.38002,0.04266,,,,,,,,,,,,,,,,,,,,,,,,,,0,0,0,0,0
2.3608,1783190330.5306,1,1,1.0000,0.0000,1.44681,0.21813,-2.78131,0.99234,1.57080,0.00001,-0.14512,-0.38002,0.04261,,,,,,,,,,,,,,,,,,,,,,,,,,0,0,0,0,0
2.3646,1783190330.5345,1,1,1.0000,0.0000,1.44681,0.21813,-2.78131,0.99234,1.57080,0.00001,-0.14512,-0.38002,0.04261,,,,,,,,,,,,,,,,,,,,,,,,,,0,0,0,0,0
2.3764,1783190330.5462,1,1,1.0000,0.0000,1.44681,0.21803,-2.78133,0.99246,1.57080,0.00001,-0.14512,-0.38002,0.04258,,,,,,,,,,,,,,,,,,,,,,,,,,0,0,0,0,0
2.3867,1783190330.5565,1,1,1.0000,0.0000,1.44681,0.21790,-2.78136,0.99263,1.57080,0.00001,-0.14512,-0.38002,0.04255,,,,,,,,,,,,,,,,,,,,,,,,,,0,0,0,0,0
2.3873,1783190330.5571,1,1,1.0000,0.0000,1.44681,0.21783,-2.78138,0.99272,1.57080,0.00001,-0.14512,-0.38002,0.04253,,,,,,,,,,,,,,,,,,,,,,,,,,0,0,0,0,0
2.3947,1783190330.5646,1,1,1.0000,0.0000,1.44681,0.21776,-2.78140,0.99281,1.57080,0.00001,-0.14512,-0.38002,0.04251,,,,,,,,,,,,,,,,,,,,,,,,,,0,0,0,0,0
2.4063,1783190330.5761,1,1,1.0000,0.0000,1.44681,0.21772,-2.78141,0.99285,1.57080,0.00001,-0.14512,-0.38002,0.04250,,,,,,,,,,,,,,,,,,,,,,,,,,0,0,0,0,0
2.4071,1783190330.5769,1,1,1.0000,0.0000,1.44681,0.21769,-2.78142,0.99290,1.57080,0.00001,-0.14512,-0.38002,0.04249,,,,,,,,,,,,,,,,,,,,,,,,,,0,0,0,0,0
2.4204,1783190330.5903,1,1,1.0000,0.0000,1.44681,0.21753,-2.78146,0.99310,1.57080,0.00001,-0.14512,-0.38002,0.04245,,,,,,,,,,,,,,,,,,,,,,,,,,0,0,0,0,0
2.4246,1783190330.5944,1,1,1.0000,0.0000,1.44681,0.21753,-2.78146,0.99310,1.57080,0.00001,-0.14512,-0.38002,0.04245,,,,,,,,,,,,,,,,,,,,,,,,,,0,0,0,0,0
2.4249,1783190330.5947,1,1,1.0000,0.0000,1.44681,0.21753,-2.78146,0.99310,1.57080,0.00001,-0.14512,-0.38002,0.04245,,,,,,,,,,,,,,,,,,,,,,,,,,0,0,0,0,0
2.4354,1783190330.6052,1,1,1.0000,0.0000,1.44681,0.21743,-2.78148,0.99322,1.57080,0.00001,-0.14512,-0.38002,0.04243,,,,,,,,,,,,,,,,,,,,,,,,,,0,0,0,0,0
2.4445,1783190330.6144,1,1,1.0000,0.0000,1.44681,0.21729,-2.78151,0.99339,1.57080,0.00001,-0.14512,-0.38002,0.04239,,,,,,,,,,,,,,,,,,,,,,,,,,0,0,0,0,0
2.4632,1783190330.6330,1,1,1.0000,0.0000,1.44681,0.21712,-2.78156,0.99361,1.57080,0.00001,-0.14512,-0.38002,0.04235,,,,,,,,,,,,,,,,,,,,,,,,,,0,0,0,0,0
2.4654,1783190330.6353,1,1,1.0000,0.0000,1.44681,0.21712,-2.78156,0.99361,1.57080,0.00001,-0.14512,-0.38002,0.04235,,,,,,,,,,,,,,,,,,,,,,,,,,0,0,0,0,0
2.4814,1783190330.6513,1,1,1.0000,0.0000,1.44681,0.21692,-2.78161,0.99385,1.57080,0.00001,-0.14512,-0.38002,0.04230,,,,,,,,,,,,,,,,,,,,,,,,,,0,0,0,0,0
2.4844,1783190330.6543,1,1,1.0000,0.0000,1.44681,0.21692,-2.78161,0.99385,1.57080,0.00001,-0.14512,-0.38002,0.04230,,,,,,,,,,,,,,,,,,,,,,,,,,0,0,0,0,0
2.4956,1783190330.6655,1,1,1.0000,0.0000,1.44681,0.21682,-2.78163,0.99398,1.57080,0.00001,-0.14512,-0.38002,0.04227,,,,,,,,,,,,,,,,,,,,,,,,,,0,0,0,0,0
2.4961,1783190330.6659,1,1,1.0000,0.0000,1.44681,0.21682,-2.78163,0.99398,1.57080,0.00001,-0.14512,-0.38002,0.04227,,,,,,,,,,,,,,,,,,,,,,,,,,0,0,0,0,0
2.5094,1783190330.6792,1,1,1.0000,0.0000,1.44681,0.21661,-2.78168,0.99423,1.57080,0.00001,-0.14512,-0.38002,0.04222,,,,,,,,,,,,,,,,,,,,,,,,,,0,0,0,0,0
2.5154,1783190330.6853,1,1,1.0000,0.0000,1.44681,0.21654,-2.78170,0.99432,1.57080,0.00001,-0.14512,-0.38002,0.04220,,,,,,,,,,,,,,,,,,,,,,,,,,0,0,0,0,0
2.5262,1783190330.6960,1,1,1.0000,0.0000,1.44681,0.21651,-2.78171,0.99436,1.57080,0.00001,-0.14512,-0.38002,0.04219,,,,,,,,,,,,,,,,,,,,,,,,,,0,0,0,0,0
2.5266,1783190330.6964,1,1,1.0000,0.0000,1.44681,0.21651,-2.78171,0.99436,1.57080,0.00001,-0.14512,-0.38002,0.04219,,,,,,,,,,,,,,,,,,,,,,,,,,0,0,0,0,0
2.5364,1783190330.7062,1,1,1.0000,0.0000,1.44681,0.21637,-2.78174,0.99454,1.57080,0.00001,-0.14512,-0.38002,0.04216,,,,,,,,,,,,,,,,,,,,,,,,,,0,0,0,0,0
2.5445,1783190330.7143,1,1,1.0000,0.0000,1.44681,0.21631,-2.78175,0.99461,1.57080,0.00001,-0.14512,-0.38002,0.04214,,,,,,,,,,,,,,,,,,,,,,,,,,0,0,0,0,0
2.5674,1783190330.7373,1,1,1.0000,0.0000,1.44681,0.21601,-2.78183,0.99499,1.57080,0.00001,-0.14512,-0.38002,0.04206,,,,,,,,,,,,,,,,,,,,,,,,,,0,0,0,0,0
2.5678,1783190330.7376,1,1,1.0000,0.0000,1.44681,0.21601,-2.78183,0.99499,1.57080,0.00001,-0.14512,-0.38002,0.04206,,,,,,,,,,,,,,,,,,,,,,,,,,0,0,0,0,0
2.5768,1783190330.7466,1,1,1.0000,0.0000,1.44681,0.21594,-2.78185,0.99508,1.57080,0.00001,-0.14512,-0.38002,0.04205,,,,,,,,,,,,,,,,,,,,,,,,,,0,0,0,0,0
2.5846,1783190330.7545,1,1,1.0000,0.0000,1.44681,0.21590,-2.78186,0.99512,1.57080,0.00001,-0.14512,-0.38002,0.04204,,,,,,,,,,,,,,,,,,,,,,,,,,0,0,0,0,0
2.5955,1783190330.7653,1,1,1.0000,0.0000,1.44681,0.21576,-2.78189,0.99529,1.57080,0.00001,-0.14512,-0.38002,0.04200,,,,,,,,,,,,,,,,,,,,,,,,,,0,0,0,0,0
2.6113,1783190330.7811,1,1,1.0000,0.0000,1.44681,0.21566,-2.78192,0.99543,1.57080,0.00001,-0.14512,-0.38002,0.04197,,,,,,,,,,,,,,,,,,,,,,,,,,0,0,0,0,0
2.6187,1783190330.7885,1,1,1.0000,0.0000,1.44681,0.21560,-2.78193,0.99549,1.57080,0.00001,-0.14512,-0.38002,0.04196,,,,,,,,,,,,,,,,,,,,,,,,,,0,0,0,0,0
2.6193,1783190330.7891,1,1,1.0000,0.0000,1.44681,0.21554,-2.78194,0.99557,1.57080,0.00001,-0.14512,-0.38002,0.04195,,,,,,,,,,,,,,,,,,,,,,,,,,0,0,0,0,0
2.6268,1783190330.7966,1,1,1.0000,0.0000,1.44681,0.21547,-2.78196,0.99566,1.57080,0.00001,-0.14512,-0.38002,0.04193,,,,,,,,,,,,,,,,,,,,,,,,,,0,0,0,0,0
2.6272,1783190330.7971,1,1,1.0000,0.0000,1.44681,0.21540,-2.78198,0.99575,1.57080,0.00001,-0.14512,-0.38002,0.04191,,,,,,,,,,,,,,,,,,,,,,,,,,0,0,0,0,0
2.6417,1783190330.8115,1,1,1.0000,0.0000,1.44681,0.21532,-2.78200,0.99585,1.57080,0.00001,-0.14512,-0.38002,0.04189,,,,,,,,,,,,,,,,,,,,,,,,,,0,0,0,0,0
2.6462,1783190330.8160,1,1,1.0000,0.0000,1.44681,0.21528,-2.78201,0.99589,1.57080,0.00001,-0.14512,-0.38002,0.04188,,,,,,,,,,,,,,,,,,,,,,,,,,0,0,0,0,0
2.6466,1783190330.8164,1,1,1.0000,0.0000,1.44681,0.21528,-2.78201,0.99589,1.57080,0.00001,-0.14512,-0.38002,0.04188,,,,,,,,,,,,,,,,,,,,,,,,,,0,0,0,0,0
2.6556,1783190330.8255,1,1,1.0000,0.0000,1.44681,0.21510,-2.78205,0.99612,1.57080,0.00001,-0.14512,-0.38002,0.04183,,,,,,,,,,,,,,,,,,,,,,,,,,0,0,0,0,0
2.6685,1783190330.8383,1,1,1.0000,0.0000,1.44681,0.21502,-2.78207,0.99622,1.57080,0.00001,-0.14512,-0.38002,0.04181,,,,,,,,,,,,,,,,,,,,,,,,,,0,0,0,0,0
2.6744,1783190330.8443,1,1,1.0000,0.0000,1.44681,0.21498,-2.78208,0.99626,1.57080,0.00001,-0.14512,-0.38002,0.04180,,,,,,,,,,,,,,,,,,,,,,,,,,0,0,0,0,0
2.6751,1783190330.8450,1,1,1.0000,0.0000,1.44681,0.21493,-2.78209,0.99632,1.57080,0.00001,-0.14512,-0.38002,0.04179,,,,,,,,,,,,,,,,,,,,,,,,,,0,0,0,0,0
2.6853,1783190330.8551,1,1,1.0000,0.0000,1.44681,0.21480,-2.78212,0.99649,1.57080,0.00001,-0.14512,-0.38002,0.04176,,,,,,,,,,,,,,,,,,,,,,,,,,0,0,0,0,0
2.6964,1783190330.8662,1,1,1.0000,0.0000,1.44681,0.21466,-2.78216,0.99666,1.57080,0.00001,-0.14512,-0.38002,0.04172,,,,,,,,,,,,,,,,,,,,,,,,,,0,0,0,0,0
2.7159,1783190330.8857,1,1,1.0000,0.0000,1.44681,0.21444,-2.78221,0.99694,1.57080,0.00002,-0.14512,-0.38002,0.04166,,,,,,,,,,,,,,,,,,,,,,,,,,0,0,0,0,0
2.7211,1783190330.8910,1,1,1.0000,0.0000,1.44681,0.21437,-2.78223,0.99703,1.57080,0.00002,-0.14512,-0.38002,0.04165,,,,,,,,,,,,,,,,,,,,,,,,,,0,0,0,0,0
2.7214,1783190330.8912,1,1,1.0000,0.0000,1.44681,0.21437,-2.78223,0.99703,1.57080,0.00002,-0.14512,-0.38002,0.04165,,,,,,,,,,,,,,,,,,,,,,,,,,0,0,0,0,0
2.7256,1783190330.8954,1,1,1.0000,0.0000,1.44681,0.21437,-2.78223,0.99703,1.57080,0.00002,-0.14512,-0.38002,0.04165,,,,,,,,,,,,,,,,,,,,,,,,,,0,0,0,0,0
2.7373,1783190330.9071,1,1,1.0000,0.0000,1.44681,0.21427,-2.78225,0.99715,1.57080,0.00002,-0.14512,-0.38002,0.04162,,,,,,,,,,,,,,,,,,,,,,,,,,0,0,0,0,0
2.7465,1783190330.9164,1,1,1.0000,0.0000,1.44681,0.21414,-2.78229,0.99731,1.57080,0.00002,-0.14512,-0.38002,0.04159,,,,,,,,,,,,,,,,,,,,,,,,,,0,0,0,0,0
2.7558,1783190330.9257,1,1,1.0000,0.0000,1.44681,0.21400,-2.78232,0.99749,1.57080,0.00002,-0.14512,-0.38002,0.04155,,,,,,,,,,,,,,,,,,,,,,,,,,0,0,0,0,0
2.7725,1783190330.9424,1,1,1.0000,0.0000,1.44681,0.21384,-2.78236,0.99768,1.57080,0.00002,-0.14512,-0.38002,0.04151,,,,,,,,,,,,,,,,,,,,,,,,,,0,0,0,0,0
2.7755,1783190330.9453,1,1,1.0000,0.0000,1.44681,0.21377,-2.78238,0.99777,1.57080,0.00002,-0.14512,-0.38002,0.04150,,,,,,,,,,,,,,,,,,,,,,,,,,0,0,0,0,0
2.7758,1783190330.9456,1,1,1.0000,0.0000,1.44681,0.21377,-2.78238,0.99777,1.57080,0.00002,-0.14512,-0.38002,0.04150,,,,,,,,,,,,,,,,,,,,,,,,,,0,0,0,0,0
2.7868,1783190330.9566,1,1,1.0000,0.0000,1.44681,0.21370,-2.78239,0.99786,1.57080,0.00002,-0.14512,-0.38002,0.04148,,,,,,,,,,,,,,,,,,,,,,,,,,0,0,0,0,0
2.7873,1783190330.9572,1,1,1.0000,0.0000,1.44681,0.21369,-2.78240,0.99787,1.57080,0.00002,-0.14512,-0.38002,0.04147,,,,,,,,,,,,,,,,,,,,,,,,,,0,0,0,0,0
2.7974,1783190330.9672,1,1,1.0000,0.0000,1.44681,0.21361,-2.78242,0.99798,1.57080,0.00002,-0.14512,-0.38002,0.04145,,,,,,,,,,,,,,,,,,,,,,,,,,0,0,0,0,0
2.8057,1783190330.9755,1,1,1.0000,0.0000,1.44681,0.21348,-2.78245,0.99814,1.57080,0.00002,-0.14512,-0.38002,0.04142,,,,,,,,,,,,,,,,,,,,,,,,,,0,0,0,0,0
2.8163,1783190330.9862,1,1,1.0000,0.0000,1.44681,0.21334,-2.78248,0.99831,1.57080,0.00002,-0.14512,-0.38002,0.04138,,,,,,,,,,,,,,,,,,,,,,,,,,0,0,0,0,0
2.8300,1783190330.9999,1,1,1.0000,0.0000,1.44681,0.21324,-2.78251,0.99843,1.57080,0.00002,-0.14512,-0.38002,0.04136,,,,,,,,,,,,,,,,,,,,,,,,,,0,0,0,0,0
2.8304,1783190331.0002,1,1,1.0000,0.0000,1.44681,0.21324,-2.78251,0.99843,1.57080,0.00002,-0.14512,-0.38002,0.04136,,,,,,,,,,,,,,,,,,,,,,,,,,0,0,0,0,0
2.8363,1783190331.0062,1,1,1.0000,0.0000,1.44681,0.21311,-2.78254,0.99860,1.57080,0.00002,-0.14512,-0.38002,0.04133,,,,,,,,,,,,,,,,,,,,,,,,,,0,0,0,0,0
2.8366,1783190331.0065,1,1,1.0000,0.0000,1.44681,0.21311,-2.78254,0.99860,1.57080,0.00002,-0.14512,-0.38002,0.04133,,,,,,,,,,,,,,,,,,,,,,,,,,0,0,0,0,0
2.8447,1783190331.0145,1,1,1.0000,0.0000,1.44681,0.21304,-2.78256,0.99869,1.57080,0.00002,-0.14512,-0.38002,0.04131,,,,,,,,,,,,,,,,,,,,,,,,,,0,0,0,0,0
2.8612,1783190331.0310,1,1,1.0000,0.0000,1.44681,0.21288,-2.78259,0.99888,1.57080,0.00002,-0.14512,-0.38002,0.04127,,,,,,,,,,,,,,,,,,,,,,,,,,0,0,0,0,0
2.8793,1783190331.0491,1,1,1.0000,0.0000,1.44681,0.21266,-2.78265,0.99916,1.57080,0.00002,-0.14512,-0.38002,0.04121,,,,,,,,,,,,,,,,,,,,,,,,,,0,0,0,0,0
2.8796,1783190331.0495,1,1,1.0000,0.0000,1.44681,0.21266,-2.78265,0.99916,1.57080,0.00002,-0.14512,-0.38002,0.04121,,,,,,,,,,,,,,,,,,,,,,,,,,0,0,0,0,0
2.8881,1783190331.0580,1,1,1.0000,0.0000,1.44681,0.21257,-2.78267,0.99926,1.57080,0.00002,-0.14512,-0.38002,0.04119,,,,,,,,,,,,,,,,,,,,,,,,,,0,0,0,0,0
2.8964,1783190331.0662,1,1,1.0000,0.0000,1.44681,0.21244,-2.78270,0.99942,1.57080,0.00002,-0.14512,-0.38002,0.04116,,,,,,,,,,,,,,,,,,,,,,,,,,0,0,0,0,0
2.8967,1783190331.0665,1,1,1.0000,0.0000,1.44681,0.21244,-2.78270,0.99942,1.57080,0.00002,-0.14512,-0.38002,0.04116,,,,,,,,,,,,,,,,,,,,,,,,,,0,0,0,0,0
2.9055,1783190331.0754,1,1,1.0000,0.0000,1.44681,0.21230,-2.78273,0.99960,1.57080,0.00002,-0.14512,-0.38002,0.04112,,,,,,,,,,,,,,,,,,,,,,,,,,0,0,0,0,0
2.9193,1783190331.0892,1,1,1.0000,0.0000,1.44681,0.21223,-2.78275,0.99969,1.57080,0.00002,-0.14512,-0.38002,0.04110,,,,,,,,,,,,,,,,,,,,,,,,,,0,0,0,0,0
2.9343,1783190331.1042,1,1,1.0000,0.0000,1.44681,0.21207,-2.78279,0.99989,1.57080,0.00002,-0.14512,-0.38002,0.04106,,,,,,,,,,,,,,,,,,,,,,,,,,0,0,0,0,0
2.9402,1783190331.1100,1,1,1.0000,0.0000,1.44681,0.21205,-2.78279,0.99991,1.57080,0.00002,-0.14512,-0.38002,0.04106,,,,,,,,,,,,,,,,,,,,,,,,,,0,0,0,0,0
2.9448,1783190331.1147,1,1,1.0000,0.0000,1.44681,0.21202,-2.78280,0.99995,1.57080,0.00002,-0.14512,-0.38002,0.04105,,,,,,,,,,,,,,,,,,,,,,,,,,0,0,0,0,0
2.9546,1783190331.1245,1,1,1.0000,0.0000,1.44681,0.21190,-2.78283,1.00009,1.57080,0.00002,-0.14512,-0.38002,0.04102,,,,,,,,,,,,,,,,,,,,,,,,,,0,0,0,0,0
2.9778,1783190331.1477,1,1,1.0000,0.0000,1.44681,0.21166,-2.78289,1.00040,1.57080,0.00002,-0.14512,-0.38002,0.04096,,,,,,,,,,,,,,,,,,,,,,,,,,0,0,0,0,0
2.9781,1783190331.1479,1,1,1.0000,0.0000,1.44681,0.21166,-2.78289,1.00040,1.57080,0.00002,-0.14512,-0.38002,0.04096,,,,,,,,,,,,,,,,,,,,,,,,,,0,0,0,0,0
2.9785,1783190331.1484,1,1,1.0000,0.0000,1.44681,0.21166,-2.78289,1.00040,1.57080,0.00002,-0.14512,-0.38002,0.04096,,,,,,,,,,,,,,,,,,,,,,,,,,0,0,0,0,0
2.9855,1783190331.1553,1,1,1.0000,0.0000,1.44681,0.21157,-2.78291,1.00051,1.57080,0.00002,-0.14512,-0.38002,0.04094,,,,,,,,,,,,,,,,,,,,,,,,,,0,0,0,0,0
2.9946,1783190331.1645,1,1,1.0000,0.0000,1.44681,0.21145,-2.78294,1.00065,1.57080,0.00002,-0.14512,-0.38002,0.04091,,,,,,,,,,,,,,,,,,,,,,,,,,0,0,0,0,0
3.0061,1783190331.1760,1,1,1.0000,0.0000,1.44681,0.21141,-2.78295,1.00071,1.57080,0.00002,-0.14512,-0.38002,0.04089,,,,,,,,,,,,,,,,,,,,,,,,,,0,0,0,0,0
3.0232,1783190331.1930,1,1,1.0000,0.0000,1.44681,0.21108,-2.78303,1.00112,1.57080,0.00002,-0.14512,-0.38002,0.04081,,,,,,,,,,,,,,,,,,,,,,,,,,0,0,0,0,0
3.0274,1783190331.1972,1,1,1.0000,0.0000,1.44681,0.21108,-2.78303,1.00112,1.57080,0.00002,-0.14512,-0.38002,0.04081,,,,,,,,,,,,,,,,,,,,,,,,,,0,0,0,0,0
3.0355,1783190331.2053,1,1,1.0000,0.0000,1.44681,0.21104,-2.78304,1.00116,1.57080,0.00002,-0.14512,-0.38002,0.04080,,,,,,,,,,,,,,,,,,,,,,,,,,0,0,0,0,0
3.0509,1783190331.2207,1,1,1.0000,0.0000,1.44681,0.21090,-2.78307,1.00134,1.57080,0.00002,-0.14512,-0.38002,0.04077,,,,,,,,,,,,,,,,,,,,,,,,,,0,0,0,0,0
3.0556,1783190331.2254,1,1,1.0000,0.0000,1.44681,0.21084,-2.78309,1.00141,1.57080,0.00002,-0.14512,-0.38002,0.04075,,,,,,,,,,,,,,,,,,,,,,,,,,0,0,0,0,0
3.0559,1783190331.2258,1,1,1.0000,0.0000,1.44681,0.21084,-2.78309,1.00141,1.57080,0.00002,-0.14512,-0.38002,0.04075,,,,,,,,,,,,,,,,,,,,,,,,,,0,0,0,0,0
3.0976,1783190331.2675,1,1,1.0000,0.0000,1.44681,0.21043,-2.78319,1.00192,1.57080,0.00002,-0.14512,-0.38002,0.04065,,,,,,,,,,,,,,,,,,,,,,,,,,0,0,0,0,0
3.0982,1783190331.2680,1,1,1.0000,0.0000,1.44681,0.21043,-2.78319,1.00192,1.57080,0.00002,-0.14512,-0.38002,0.04065,,,,,,,,,,,,,,,,,,,,,,,,,,0,0,0,0,0
3.0986,1783190331.2684,1,1,1.0000,0.0000,1.44681,0.21043,-2.78319,1.00192,1.57080,0.00002,-0.14512,-0.38002,0.04065,,,,,,,,,,,,,,,,,,,,,,,,,,0,0,0,0,0
3.1101,1783190331.2800,1,1,1.0000,0.0000,1.44681,0.21029,-2.78322,1.00210,1.57080,0.00002,-0.14512,-0.38002,0.04061,,,,,,,,,,,,,,,,,,,,,,,,,,0,0,0,0,0
3.1408,1783190331.3106,1,1,1.0000,0.0000,1.44681,0.20992,-2.78331,1.00255,1.57080,0.00002,-0.14512,-0.38002,0.04052,,,,,,,,,,,,,,,,,,,,,,,,,,0,0,0,0,0
3.1411,1783190331.3110,1,1,1.0000,0.0000,1.44681,0.20992,-2.78331,1.00255,1.57080,0.00002,-0.14512,-0.38002,0.04052,,,,,,,,,,,,,,,,,,,,,,,,,,0,0,0,0,0
3.1414,1783190331.3113,1,1,1.0000,0.0000,1.44681,0.20992,-2.78331,1.00255,1.57080,0.00002,-0.14512,-0.38002,0.04052,,,,,,,,,,,,,,,,,,,,,,,,,,0,0,0,0,0
3.1456,1783190331.3154,1,1,1.0000,0.0000,1.44681,0.20985,-2.78333,1.00264,1.57080,0.00002,-0.14512,-0.38002,0.04050,,,,,,,,,,,,,,,,,,,,,,,,,,0,0,0,0,0
3.1563,1783190331.3262,1,1,1.0000,0.0000,1.44681,0.20982,-2.78334,1.00268,1.57080,0.00002,-0.14512,-0.38002,0.04049,,,,,,,,,,,,,,,,,,,,,,,,,,0,0,0,0,0
3.1644,1783190331.3342,1,1,1.0000,0.0000,1.44680,0.20973,-2.78336,1.00279,1.57080,0.00002,-0.14512,-0.38002,0.04047,,,,,,,,,,,,,,,,,,,,,,,,,,0,0,0,0,0
3.1807,1783190331.3505,1,1,1.0000,0.0000,1.44680,0.20960,-2.78339,1.00295,1.57080,0.00002,-0.14512,-0.38002,0.04044,,,,,,,,,,,,,,,,,,,,,,,,,,0,0,0,0,0
3.1881,1783190331.3579,1,1,1.0000,0.0000,1.44680,0.20952,-2.78341,1.00306,1.57079,0.00002,-0.14512,-0.38002,0.04042,,,,,,,,,,,,,,,,,,,,,,,,,,0,0,0,0,0
3.1961,1783190331.3659,1,1,1.0000,0.0000,1.44680,0.20938,-2.78344,1.00322,1.57079,0.00002,-0.14512,-0.38002,0.04038,,,,,,,,,,,,,,,,,,,,,,,,,,0,0,0,0,0
3.2091,1783190331.3789,1,1,1.0000,0.0000,1.44680,0.20924,-2.78347,1.00340,1.57079,0.00002,-0.14512,-0.38002,0.04035,,,,,,,,,,,,,,,,,,,,,,,,,,0,0,0,0,0
3.2145,1783190331.3844,1,1,1.0000,0.0000,1.44680,0.20923,-2.78348,1.00341,1.57079,0.00002,-0.14512,-0.38002,0.04034,,,,,,,,,,,,,,,,,,,,,,,,,,0,0,0,0,0
3.2266,1783190331.3964,1,1,1.0000,0.0000,1.44680,0.20912,-2.78350,1.00355,1.57079,0.00002,-0.14512,-0.38002,0.04032,,,,,,,,,,,,,,,,,,,,,,,,,,0,0,0,0,0
3.2375,1783190331.4073,1,1,1.0000,0.0000,1.44680,0.20900,-2.78353,1.00369,1.57079,0.00002,-0.14512,-0.38002,0.04029,,,,,,,,,,,,,,,,,,,,,,,,,,0,0,0,0,0
3.2466,1783190331.4165,1,1,1.0000,0.0000,1.44680,0.20896,-2.78354,1.00375,1.57079,0.00002,-0.14512,-0.38002,0.04027,,,,,,,,,,,,,,,,,,,,,,,,,,0,0,0,0,0
3.2556,1783190331.4254,1,1,1.0000,0.0000,1.44680,0.20877,-2.78359,1.00398,1.57079,0.00002,-0.14512,-0.38002,0.04023,,,,,,,,,,,,,,,,,,,,,,,,,,0,0,0,0,0
3.2676,1783190331.4374,1,1,1.0000,0.0000,1.44680,0.20862,-2.78362,1.00416,1.57079,0.00002,-0.14512,-0.38002,0.04019,,,,,,,,,,,,,,,,,,,,,,,,,,0,0,0,0,0
3.2851,1783190331.4550,1,1,1.0000,0.0000,1.44680,0.20851,-2.78365,1.00431,1.57079,0.00002,-0.14512,-0.38002,0.04016,,,,,,,,,,,,,,,,,,,,,,,,,,0,0,0,0,0
3.2854,1783190331.4552,1,1,1.0000,0.0000,1.44680,0.20851,-2.78365,1.00431,1.57079,0.00002,-0.14512,-0.38002,0.04016,,,,,,,,,,,,,,,,,,,,,,,,,,0,0,0,0,0
3.2857,1783190331.4556,1,1,1.0000,0.0000,1.44680,0.20851,-2.78365,1.00431,1.57079,0.00002,-0.14512,-0.38002,0.04016,,,,,,,,,,,,,,,,,,,,,,,,,,0,0,0,0,0
3.2860,1783190331.4559,1,1,1.0000,0.0000,1.44680,0.20851,-2.78365,1.00431,1.57079,0.00002,-0.14512,-0.38002,0.04016,,,,,,,,,,,,,,,,,,,,,,,,,,0,0,0,0,0
3.2985,1783190331.4683,1,1,1.0000,0.0000,1.44680,0.20839,-2.78368,1.00445,1.57079,0.00002,-0.14512,-0.38002,0.04013,,,,,,,,,,,,,,,,,,,,,,,,,,0,0,0,0,0
3.2990,1783190331.4688,1,1,1.0000,0.0000,1.44680,0.20839,-2.78368,1.00445,1.57079,0.00002,-0.14512,-0.38002,0.04013,,,,,,,,,,,,,,,,,,,,,,,,,,0,0,0,0,0
3.3054,1783190331.4752,1,1,1.0000,0.0000,1.44680,0.20834,-2.78369,1.00451,1.57079,0.00002,-0.14512,-0.38002,0.04012,,,,,,,,,,,,,,,,,,,,,,,,,,0,0,0,0,0
3.3178,1783190331.4876,1,1,1.0000,0.0000,1.44680,0.20815,-2.78374,1.00475,1.57079,0.00002,-0.14512,-0.38002,0.04007,,,,,,,,,,,,,,,,,,,,,,,,,,0,0,0,0,0
3.3291,1783190331.4989,1,1,1.0000,0.0000,1.44680,0.20801,-2.78377,1.00493,1.57079,0.00002,-0.14512,-0.38002,0.04004,,,,,,,,,,,,,,,,,,,,,,,,,,0,0,0,0,0
3.3356,1783190331.5054,1,1,1.0000,0.0000,1.44680,0.20796,-2.78378,1.00498,1.57079,0.00002,-0.14512,-0.38002,0.04002,,,,,,,,,,,,,,,,,,,,,,,,,,0,0,0,0,0
3.3359,1783190331.5057,1,1,1.0000,0.0000,1.44680,0.20796,-2.78378,1.00498,1.57079,0.00002,-0.14512,-0.38002,0.04002,,,,,,,,,,,,,,,,,,,,,,,,,,0,0,0,0,0
3.3445,1783190331.5143,1,1,1.0000,0.0000,1.44680,0.20785,-2.78381,1.00512,1.57079,0.00002,-0.14512,-0.38002,0.04000,,,,,,,,,,,,,,,,,,,,,,,,,,0,0,0,0,0
3.3545,1783190331.5244,1,1,1.0000,0.0000,1.44680,0.20771,-2.78384,1.00530,1.57079,0.00002,-0.14512,-0.38002,0.03996,,,,,,,,,,,,,,,,,,,,,,,,,,0,0,0,0,0
3.3653,1783190331.5351,1,1,1.0000,0.0000,1.44680,0.20766,-2.78385,1.00535,1.57079,0.00002,-0.14512,-0.38002,0.03995,,,,,,,,,,,,,,,,,,,,,,,,,,0,0,0,0,0
3.3827,1783190331.5525,1,1,1.0000,0.0000,1.44680,0.20741,-2.78391,1.00567,1.57079,0.00002,-0.14512,-0.38002,0.03988,,,,,,,,,,,,,,,,,,,,,,,,,,0,0,0,0,0
3.3875,1783190331.5573,1,1,1.0000,0.0000,1.44680,0.20734,-2.78393,1.00576,1.57079,0.00002,-0.14512,-0.38002,0.03987,,,,,,,,,,,,,,,,,,,,,,,,,,0,0,0,0,0
3.3878,1783190331.5576,1,1,1.0000,0.0000,1.44680,0.20734,-2.78393,1.00576,1.57079,0.00002,-0.14512,-0.38002,0.03987,,,,,,,,,,,,,,,,,,,,,,,,,,0,0,0,0,0
3.4044,1783190331.5743,1,1,1.0000,0.0000,1.44680,0.20722,-2.78396,1.00590,1.57079,0.00002,-0.14512,-0.38002,0.03984,,,,,,,,,,,,,,,,,,,,,,,,,,0,0,0,0,0
3.4070,1783190331.5768,1,1,1.0000,0.0000,1.44680,0.20722,-2.78396,1.00590,1.57079,0.00002,-0.14512,-0.38002,0.03984,,,,,,,,,,,,,,,,,,,,,,,,,,0,0,0,0,0
3.4145,1783190331.5844,1,1,1.0000,0.0000,1.44680,0.20710,-2.78399,1.00605,1.57079,0.00002,-0.14512,-0.38002,0.03981,,,,,,,,,,,,,,,,,,,,,,,,,,0,0,0,0,0
3.4398,1783190331.6097,1,1,1.0000,0.0000,1.44680,0.20679,-2.78406,1.00643,1.57079,0.00002,-0.14512,-0.38002,0.03973,,,,,,,,,,,,,,,,,,,,,,,,,,0,0,0,0,0
3.4403,1783190331.6101,1,1,1.0000,0.0000,1.44680,0.20679,-2.78406,1.00643,1.57079,0.00002,-0.14512,-0.38002,0.03973,,,,,,,,,,,,,,,,,,,,,,,,,,0,0,0,0,0
3.4500,1783190331.6199,1,1,1.0000,0.0000,1.44680,0.20672,-2.78408,1.00652,1.57079,0.00002,-0.14512,-0.38002,0.03971,,,,,,,,,,,,,,,,,,,,,,,,,,0,0,0,0,0
3.4616,1783190331.6314,1,1,1.0000,0.0000,1.44680,0.20662,-2.78410,1.00664,1.57079,0.00002,-0.14512,-0.38002,0.03969,,,,,,,,,,,,,,,,,,,,,,,,,,0,0,0,0,0
3.4657,1783190331.6355,1,1,1.0000,0.0000,1.44680,0.20656,-2.78412,1.00672,1.57079,0.00002,-0.14512,-0.38002,0.03967,,,,,,,,,,,,,,,,,,,,,,,,,,0,0,0,0,0
3.4760,1783190331.6458,1,1,1.0000,0.0000,1.44680,0.20642,-2.78415,1.00689,1.57079,0.00002,-0.14512,-0.38002,0.03964,,,,,,,,,,,,,,,,,,,,,,,,,,0,0,0,0,0
3.4867,1783190331.6565,1,1,1.0000,0.0000,1.44680,0.20637,-2.78416,1.00695,1.57079,0.00002,-0.14512,-0.38002,0.03962,,,,,,,,,,,,,,,,,,,,,,,,,,0,0,0,0,0
3.4957,1783190331.6655,1,1,1.0000,0.0000,1.44680,0.20619,-2.78420,1.00718,1.57079,0.00002,-0.14512,-0.38002,0.03958,,,,,,,,,,,,,,,,,,,,,,,,,,0,0,0,0,0
3.5064,1783190331.6762,1,1,1.0000,0.0000,1.44680,0.20605,-2.78424,1.00735,1.57079,0.00002,-0.14512,-0.38002,0.03954,,,,,,,,,,,,,,,,,,,,,,,,,,0,0,0,0,0
3.5147,1783190331.6846,1,1,1.0000,0.0000,1.44680,0.20604,-2.78424,1.00737,1.57079,0.00002,-0.14512,-0.38002,0.03954,,,,,,,,,,,,,,,,,,,,,,,,,,0,0,0,0,0
3.5249,1783190331.6948,1,1,1.0000,0.0000,1.44680,0.20589,-2.78428,1.00755,1.57079,0.00002,-0.14512,-0.38002,0.03950,,,,,,,,,,,,,,,,,,,,,,,,,,0,0,0,0,0
3.5356,1783190331.7054,1,1,1.0000,0.0000,1.44680,0.20575,-2.78431,1.00773,1.57079,0.00002,-0.14512,-0.38002,0.03947,,,,,,,,,,,,,,,,,,,,,,,,,,0,0,0,0,0
3.5504,1783190331.7202,1,1,1.0000,0.0000,1.44680,0.20565,-2.78433,1.00785,1.57079,0.00002,-0.14512,-0.38002,0.03944,,,,,,,,,,,,,,,,,,,,,,,,,,0,0,0,0,0
3.5550,1783190331.7249,1,1,1.0000,0.0000,1.44680,0.20559,-2.78435,1.00792,1.57079,0.00002,-0.14512,-0.38002,0.03943,,,,,,,,,,,,,,,,,,,,,,,,,,0,0,0,0,0
3.5556,1783190331.7255,1,1,1.0000,0.0000,1.44680,0.20552,-2.78436,1.00801,1.57079,0.00002,-0.14512,-0.38002,0.03941,,,,,,,,,,,,,,,,,,,,,,,,,,0,0,0,0,0
3.5710,1783190331.7408,1,1,1.0000,0.0000,1.44680,0.20538,-2.78440,1.00818,1.57079,0.00002,-0.14512,-0.38002,0.03937,,,,,,,,,,,,,,,,,,,,,,,,,,0,0,0,0,0
3.5715,1783190331.7414,1,1,1.0000,0.0000,1.44680,0.20537,-2.78440,1.00820,1.57079,0.00002,-0.14512,-0.38002,0.03937,,,,,,,,,,,,,,,,,,,,,,,,,,0,0,0,0,0
3.5757,1783190331.7455,1,1,1.0000,0.0000,1.44680,0.20533,-2.78441,1.00824,1.57079,0.00002,-0.14512,-0.38002,0.03936,,,,,,,,,,,,,,,,,,,,,,,,,,0,0,0,0,0
3.5760,1783190331.7459,1,1,1.0000,0.0000,1.44680,0.20533,-2.78441,1.00824,1.57079,0.00002,-0.14512,-0.38002,0.03936,,,,,,,,,,,,,,,,,,,,,,,,,,0,0,0,0,0
3.5988,1783190331.7687,1,1,1.0000,0.0000,1.44680,0.20501,-2.78449,1.00865,1.57079,0.00002,-0.14512,-0.38002,0.03928,,,,,,,,,,,,,,,,,,,,,,,,,,0,0,0,0,0
3.5999,1783190331.7697,1,1,1.0000,0.0000,1.44680,0.20501,-2.78449,1.00865,1.57079,0.00002,-0.14512,-0.38002,0.03928,,,,,,,,,,,,,,,,,,,,,,,,,,0,0,0,0,0
3.6065,1783190331.7764,1,1,1.0000,0.0000,1.44680,0.20500,-2.78449,1.00866,1.57079,0.00002,-0.14512,-0.38002,0.03928,,,,,,,,,,,,,,,,,,,,,,,,,,0,0,0,0,0
3.6179,1783190331.7877,1,1,1.0000,0.0000,1.44680,0.20489,-2.78452,1.00879,1.57079,0.00002,-0.14512,-0.38002,0.03925,,,,,,,,,,,,,,,,,,,,,,,,,,0,0,0,0,0
3.6258,1783190331.7956,1,1,1.0000,0.0000,1.44680,0.20477,-2.78454,1.00894,1.57079,0.00002,-0.14512,-0.38002,0.03922,,,,,,,,,,,,,,,,,,,,,,,,,,0,0,0,0,0
3.6506,1783190331.8204,1,1,1.0000,0.0000,1.44680,0.20453,-2.78460,1.00923,1.57079,0.00002,-0.14512,-0.38002,0.03916,,,,,,,,,,,,,,,,,,,,,,,,,,0,0,0,0,0
3.6558,1783190331.8256,1,1,1.0000,0.0000,1.44680,0.20439,-2.78463,1.00941,1.57079,0.00002,-0.14512,-0.38002,0.03912,,,,,,,,,,,,,,,,,,,,,,,,,,0,0,0,0,0
3.6621,1783190331.8320,1,1,1.0000,0.0000,1.44680,0.20439,-2.78463,1.00941,1.57079,0.00002,-0.14512,-0.38002,0.03912,,,,,,,,,,,,,,,,,,,,,,,,,,0,0,0,0,0
3.6710,1783190331.8408,1,1,1.0000,0.0000,1.44680,0.20435,-2.78464,1.00945,1.57079,0.00002,-0.14512,-0.38002,0.03912,,,,,,,,,,,,,,,,,,,,,,,,,,0,0,0,0,0
3.6717,1783190331.8415,1,1,1.0000,0.0000,1.44680,0.20431,-2.78465,1.00950,1.57079,0.00002,-0.14512,-0.38002,0.03911,,,,,,,,,,,,,,,,,,,,,,,,,,0,0,0,0,0
3.6786,1783190331.8485,1,1,1.0000,0.0000,1.44680,0.20427,-2.78466,1.00956,1.57079,0.00002,-0.14512,-0.38002,0.03909,,,,,,,,,,,,,,,,,,,,,,,,,,0,0,0,0,0
3.7016,1783190331.8714,1,1,1.0000,0.0000,1.44680,0.20405,-2.78471,1.00983,1.57079,0.00002,-0.14512,-0.38002,0.03904,,,,,,,,,,,,,,,,,,,,,,,,,,0,0,0,0,0
3.7020,1783190331.8718,1,1,1.0000,0.0000,1.44680,0.20405,-2.78471,1.00983,1.57079,0.00002,-0.14512,-0.38002,0.03904,,,,,,,,,,,,,,,,,,,,,,,,,,0,0,0,0,0
3.7109,1783190331.8808,1,1,1.0000,0.0000,1.44680,0.20391,-2.78475,1.01000,1.57079,0.00002,-0.14512,-0.38002,0.03901,,,,,,,,,,,,,,,,,,,,,,,,,,0,0,0,0,0
3.7124,1783190331.8822,1,1,1.0000,0.0000,1.44680,0.20384,-2.78476,1.01009,1.57079,0.00002,-0.14512,-0.38002,0.03899,,,,,,,,,,,,,,,,,,,,,,,,,,0,0,0,0,0
3.7197,1783190331.8895,1,1,1.0000,0.0000,1.44680,0.20377,-2.78478,1.01018,1.57079,0.00002,-0.14512,-0.38002,0.03897,,,,,,,,,,,,,,,,,,,,,,,,,,0,0,0,0,0
3.7293,1783190331.8992,1,1,1.0000,0.0000,1.44680,0.20373,-2.78479,1.01022,1.57079,0.00002,-0.14512,-0.38002,0.03896,,,,,,,,,,,,,,,,,,,,,,,,,,0,0,0,0,0
3.7424,1783190331.9122,1,1,1.0000,0.0000,1.44680,0.20359,-2.78482,1.01039,1.57079,0.00002,-0.14512,-0.38002,0.03892,,,,,,,,,,,,,,,,,,,,,,,,,,0,0,0,0,0
3.7426,1783190331.9125,1,1,1.0000,0.0000,1.44680,0.20359,-2.78482,1.01039,1.57079,0.00002,-0.14512,-0.38002,0.03892,,,,,,,,,,,,,,,,,,,,,,,,,,0,0,0,0,0
3.7516,1783190331.9215,1,1,1.0000,0.0000,1.44680,0.20352,-2.78484,1.01048,1.57079,0.00002,-0.14512,-0.38002,0.03891,,,,,,,,,,,,,,,,,,,,,,,,,,0,0,0,0,0
3.7520,1783190331.9219,1,1,1.0000,0.0000,1.44680,0.20352,-2.78484,1.01048,1.57079,0.00002,-0.14512,-0.38002,0.03891,,,,,,,,,,,,,,,,,,,,,,,,,,0,0,0,0,0
3.7584,1783190331.9283,1,1,1.0000,0.0000,1.44680,0.20348,-2.78485,1.01053,1.57079,0.00002,-0.14512,-0.38002,0.03890,,,,,,,,,,,,,,,,,,,,,,,,,,0,0,0,0,0
3.7588,1783190331.9287,1,1,1.0000,0.0000,1.44680,0.20348,-2.78485,1.01053,1.57079,0.00002,-0.14512,-0.38002,0.03890,,,,,,,,,,,,,,,,,,,,,,,,,,0,0,0,0,0
3.7717,1783190331.9415,1,1,1.0000,0.0000,1.44680,0.20322,-2.78491,1.01085,1.57079,0.00002,-0.14512,-0.38002,0.03883,,,,,,,,,,,,,,,,,,,,,,,,,,0,0,0,0,0
3.7786,1783190331.9485,1,1,1.0000,0.0000,1.44680,0.20315,-2.78493,1.01094,1.57079,0.00002,-0.14512,-0.38002,0.03881,,,,,,,,,,,,,,,,,,,,,,,,,,0,0,0,0,0
3.7963,1783190331.9661,1,1,1.0000,0.0000,1.44680,0.20303,-2.78495,1.01109,1.57079,0.00002,-0.14512,-0.38002,0.03878,,,,,,,,,,,,,,,,,,,,,,,,,,0,0,0,0,0
3.7998,1783190331.9696,1,1,1.0000,0.0000,1.44680,0.20297,-2.78497,1.01116,1.57079,0.00002,-0.14512,-0.38001,0.03877,,,,,,,,,,,,,,,,,,,,,,,,,,0,0,0,0,0
3.8087,1783190331.9786,1,1,1.0000,0.0000,1.44680,0.20291,-2.78498,1.01123,1.57079,0.00002,-0.14512,-0.38001,0.03875,,,,,,,,,,,,,,,,,,,,,,,,,,0,0,0,0,0
3.8197,1783190331.9895,1,1,1.0000,0.0000,1.44680,0.20281,-2.78501,1.01136,1.57079,0.00002,-0.14512,-0.38001,0.03873,,,,,,,,,,,,,,,,,,,,,,,,,,0,0,0,0,0
3.8283,1783190331.9981,1,1,1.0000,0.0000,1.44680,0.20267,-2.78504,1.01153,1.57079,0.00002,-0.14512,-0.38001,0.03870,,,,,,,,,,,,,,,,,,,,,,,,,,0,0,0,0,0
3.8286,1783190331.9985,1,1,1.0000,0.0000,1.44680,0.20267,-2.78504,1.01153,1.57079,0.00002,-0.14512,-0.38001,0.03870,,,,,,,,,,,,,,,,,,,,,,,,,,0,0,0,0,0
3.8410,1783190332.0108,1,1,1.0000,0.0000,1.44680,0.20253,-2.78507,1.01171,1.57079,0.00002,-0.14512,-0.38001,0.03866,,,,,,,,,,,,,,,,,,,,,,,,,,0,0,0,0,0
3.8521,1783190332.0219,1,1,1.0000,0.0000,1.44680,0.20246,-2.78509,1.01179,1.57079,0.00002,-0.14512,-0.38001,0.03864,,,,,,,,,,,,,,,,,,,,,,,,,,0,0,0,0,0
3.8583,1783190332.0281,1,1,1.0000,0.0000,1.44680,0.20241,-2.78510,1.01185,1.57079,0.00002,-0.14512,-0.38001,0.03863,,,,,,,,,,,,,,,,,,,,,,,,,,0,0,0,0,0
3.8588,1783190332.0286,1,1,1.0000,0.0000,1.44680,0.20241,-2.78510,1.01185,1.57079,0.00002,-0.14512,-0.38001,0.03863,,,,,,,,,,,,,,,,,,,,,,,,,,0,0,0,0,0
3.8691,1783190332.0389,1,1,1.0000,0.0000,1.44680,0.20229,-2.78513,1.01200,1.57079,0.00002,-0.14512,-0.38001,0.03860,,,,,,,,,,,,,,,,,,,,,,,,,,0,0,0,0,0
3.8958,1783190332.0656,1,1,1.0000,0.0000,1.44680,0.20191,-2.78522,1.01247,1.57079,0.00002,-0.14512,-0.38001,0.03850,,,,,,,,,,,,,,,,,,,,,,,,,,0,0,0,0,0
3.9029,1783190332.0727,1,1,1.0000,0.0000,1.44680,0.20191,-2.78522,1.01247,1.57079,0.00002,-0.14512,-0.38001,0.03850,,,,,,,,,,,,,,,,,,,,,,,,,,0,0,0,0,0
3.9097,1783190332.0795,1,1,1.0000,0.0000,1.44680,0.20188,-2.78523,1.01251,1.57079,0.00002,-0.14512,-0.38001,0.03850,,,,,,,,,,,,,,,,,,,,,,,,,,0,0,0,0,0
3.9185,1783190332.0884,1,1,1.0000,0.0000,1.44680,0.20179,-2.78525,1.01262,1.57079,0.00002,-0.14512,-0.38001,0.03847,,,,,,,,,,,,,,,,,,,,,,,,,,0,0,0,0,0
3.9326,1783190332.1025,1,1,1.0000,0.0000,1.44680,0.20166,-2.78528,1.01278,1.57079,0.00002,-0.14512,-0.38001,0.03844,,,,,,,,,,,,,,,,,,,,,,,,,,0,0,0,0,0
3.9421,1783190332.1119,1,1,1.0000,0.0000,1.44680,0.20157,-2.78530,1.01289,1.57079,0.00002,-0.14512,-0.38001,0.03842,,,,,,,,,,,,,,,,,,,,,,,,,,0,0,0,0,0
3.9502,1783190332.1200,1,1,1.0000,0.0000,1.44680,0.20144,-2.78533,1.01306,1.57079,0.00003,-0.14512,-0.38001,0.03839,,,,,,,,,,,,,,,,,,,,,,,,,,0,0,0,0,0
3.9505,1783190332.1204,1,1,1.0000,0.0000,1.44680,0.20144,-2.78533,1.01306,1.57079,0.00003,-0.14512,-0.38001,0.03839,,,,,,,,,,,,,,,,,,,,,,,,,,0,0,0,0,0
3.9606,1783190332.1304,1,1,1.0000,0.0000,1.44680,0.20129,-2.78536,1.01324,1.57079,0.00003,-0.14512,-0.38001,0.03835,,,,,,,,,,,,,,,,,,,,,,,,,,0,0,0,0,0
3.9693,1783190332.1391,1,1,1.0000,0.0000,1.44680,0.20126,-2.78537,1.01328,1.57079,0.00003,-0.14512,-0.38001,0.03834,,,,,,,,,,,,,,,,,,,,,,,,,,0,0,0,0,0
3.9697,1783190332.1396,1,1,1.0000,0.0000,1.44680,0.20126,-2.78537,1.01328,1.57079,0.00003,-0.14512,-0.38001,0.03834,,,,,,,,,,,,,,,,,,,,,,,,,,0,0,0,0,0
3.9789,1783190332.1488,1,1,1.0000,0.0000,1.44680,0.20117,-2.78539,1.01339,1.57079,0.00003,-0.14512,-0.38001,0.03832,,,,,,,,,,,,,,,,,,,,,,,,,,0,0,0,0,0
4.0101,1783190332.1799,1,1,1.0000,0.0000,1.44680,0.20081,-2.78548,1.01382,1.57079,0.00003,-0.14512,-0.38001,0.03823,,,,,,,,,,,,,,,,,,,,,,,,,,0,0,0,0,0
4.0103,1783190332.1802,1,1,1.0000,0.0000,1.44680,0.20081,-2.78548,1.01382,1.57079,0.00003,-0.14512,-0.38001,0.03823,,,,,,,,,,,,,,,,,,,,,,,,,,0,0,0,0,0
4.0146,1783190332.1845,1,1,1.0000,0.0000,1.44680,0.20074,-2.78549,1.01392,1.57079,0.00003,-0.14512,-0.38001,0.03821,,,,,,,,,,,,,,,,,,,,,,,,,,0,0,0,0,0
4.0186,1783190332.1885,1,1,1.0000,0.0000,1.44680,0.20067,-2.78551,1.01401,1.57079,0.00003,-0.14512,-0.38001,0.03819,,,,,,,,,,,,,,,,,,,,,,,,,,0,0,0,0,0
4.0287,1783190332.1986,1,1,1.0000,0.0000,1.44680,0.20062,-2.78552,1.01406,1.57079,0.00003,-0.14512,-0.38001,0.03818,,,,,,,,,,,,,,,,,,,,,,,,,,0,0,0,0,0
4.0494,1783190332.2193,1,1,1.0000,0.0000,1.44680,0.20036,-2.78558,1.01438,1.57079,0.00003,-0.14512,-0.38001,0.03812,,,,,,,,,,,,,,,,,,,,,,,,,,0,0,0,0,0
4.0663,1783190332.2361,1,1,1.0000,0.0000,1.44680,0.20020,-2.78562,1.01458,1.57079,0.00003,-0.14512,-0.38001,0.03808,,,,,,,,,,,,,,,,,,,,,,,,,,0,0,0,0,0
4.0666,1783190332.2365,1,1,1.0000,0.0000,1.44680,0.20020,-2.78562,1.01458,1.57079,0.00003,-0.14512,-0.38001,0.03808,,,,,,,,,,,,,,,,,,,,,,,,,,0,0,0,0,0
4.0704,1783190332.2403,1,1,1.0000,0.0000,1.44680,0.20013,-2.78564,1.01466,1.57079,0.00003,-0.14512,-0.38001,0.03806,,,,,,,,,,,,,,,,,,,,,,,,,,0,0,0,0,0
4.0707,1783190332.2406,1,1,1.0000,0.0000,1.44680,0.20013,-2.78564,1.01466,1.57079,0.00003,-0.14512,-0.38001,0.03806,,,,,,,,,,,,,,,,,,,,,,,,,,0,0,0,0,0
4.0847,1783190332.2546,1,1,1.0000,0.0000,1.44680,0.19998,-2.78567,1.01486,1.57079,0.00003,-0.14512,-0.38001,0.03802,,,,,,,,,,,,,,,,,,,,,,,,,,0,0,0,0,0
4.1030,1783190332.2729,1,1,1.0000,0.0000,1.44680,0.19976,-2.78572,1.01513,1.57079,0.00003,-0.14512,-0.38001,0.03797,,,,,,,,,,,,,,,,,,,,,,,,,,0,0,0,0,0
4.1033,1783190332.2732,1,1,1.0000,0.0000,1.44680,0.19976,-2.78572,1.01513,1.57079,0.00003,-0.14512,-0.38001,0.03797,,,,,,,,,,,,,,,,,,,,,,,,,,0,0,0,0,0
4.1106,1783190332.2805,1,1,1.0000,0.0000,1.44680,0.19969,-2.78574,1.01522,1.57079,0.00003,-0.14512,-0.38001,0.03795,,,,,,,,,,,,,,,,,,,,,,,,,,0,0,0,0,0
4.1110,1783190332.2808,1,1,1.0000,0.0000,1.44680,0.19969,-2.78574,1.01522,1.57079,0.00003,-0.14512,-0.38001,0.03795,,,,,,,,,,,,,,,,,,,,,,,,,,0,0,0,0,0
4.1384,1783190332.3082,1,1,1.0000,0.0000,1.44680,0.19931,-2.78583,1.01568,1.57079,0.00003,-0.14512,-0.38001,0.03786,,,,,,,,,,,,,,,,,,,,,,,,,,0,0,0,0,0
4.1388,1783190332.3086,1,1,1.0000,0.0000,1.44680,0.19931,-2.78583,1.01568,1.57079,0.00003,-0.14512,-0.38001,0.03786,,,,,,,,,,,,,,,,,,,,,,,,,,0,0,0,0,0
4.1639,1783190332.3338,1,1,1.0000,0.0000,1.44680,0.19901,-2.78590,1.01605,1.57079,0.00003,-0.14512,-0.38001,0.03778,,,,,,,,,,,,,,,,,,,,,,,,,,0,0,0,0,0
4.1642,1783190332.3341,1,1,1.0000,0.0000,1.44680,0.19901,-2.78590,1.01605,1.57079,0.00003,-0.14512,-0.38001,0.03778,,,,,,,,,,,,,,,,,,,,,,,,,,0,0,0,0,0
4.1646,1783190332.3344,1,1,1.0000,0.0000,1.44680,0.19901,-2.78590,1.01605,1.57079,0.00003,-0.14512,-0.38001,0.03778,,,,,,,,,,,,,,,,,,,,,,,,,,0,0,0,0,0
4.1757,1783190332.3455,1,1,1.0000,0.0000,1.44680,0.19896,-2.78591,1.01611,1.57079,0.00003,-0.14512,-0.38001,0.03777,,,,,,,,,,,,,,,,,,,,,,,,,,0,0,0,0,0
4.1814,1783190332.3513,1,1,1.0000,0.0000,1.44680,0.19891,-2.78592,1.01617,1.57079,0.00003,-0.14512,-0.38001,0.03776,,,,,,,,,,,,,,,,,,,,,,,,,,0,0,0,0,0
4.1818,1783190332.3516,1,1,1.0000,0.0000,1.44680,0.19891,-2.78592,1.01617,1.57079,0.00003,-0.14512,-0.38001,0.03776,,,,,,,,,,,,,,,,,,,,,,,,,,0,0,0,0,0
4.1889,1783190332.3587,1,1,1.0000,0.0000,1.44680,0.19878,-2.78595,1.01634,1.57079,0.00003,-0.14512,-0.38001,0.03772,,,,,,,,,,,,,,,,,,,,,,,,,,0,0,0,0,0
4.2045,1783190332.3743,1,1,1.0000,0.0000,1.44680,0.19862,-2.78599,1.01653,1.57079,0.00003,-0.14512,-0.38001,0.03768,,,,,,,,,,,,,,,,,,,,,,,,,,0,0,0,0,0
4.2209,1783190332.3907,1,1,1.0000,0.0000,1.44680,0.19840,-2.78604,1.01680,1.57079,0.00003,-0.14512,-0.38001,0.03763,,,,,,,,,,,,,,,,,,,,,,,,,,0,0,0,0,0
4.2212,1783190332.3910,1,1,1.0000,0.0000,1.44680,0.19840,-2.78604,1.01680,1.57079,0.00003,-0.14512,-0.38001,0.03763,,,,,,,,,,,,,,,,,,,,,,,,,,0,0,0,0,0
4.2215,1783190332.3913,1,1,1.0000,0.0000,1.44680,0.19840,-2.78604,1.01680,1.57079,0.00003,-0.14512,-0.38001,0.03763,,,,,,,,,,,,,,,,,,,,,,,,,,0,0,0,0,0
4.2301,1783190332.4000,1,1,1.0000,0.0000,1.44680,0.19833,-2.78606,1.01689,1.57079,0.00003,-0.14512,-0.38001,0.03761,,,,,,,,,,,,,,,,,,,,,,,,,,0,0,0,0,0
4.2399,1783190332.4097,1,1,1.0000,0.0000,1.44680,0.19823,-2.78608,1.01701,1.57079,0.00003,-0.14512,-0.38001,0.03759,,,,,,,,,,,,,,,,,,,,,,,,,,0,0,0,0,0
4.2501,1783190332.4200,1,1,1.0000,0.0000,1.44680,0.19810,-2.78611,1.01717,1.57079,0.00003,-0.14512,-0.38001,0.03755,,,,,,,,,,,,,,,,,,,,,,,,,,0,0,0,0,0
4.2504,1783190332.4203,1,1,1.0000,0.0000,1.44680,0.19810,-2.78611,1.01717,1.57079,0.00003,-0.14512,-0.38001,0.03755,,,,,,,,,,,,,,,,,,,,,,,,,,0,0,0,0,0
4.2615,1783190332.4314,1,1,1.0000,0.0000,1.44680,0.19795,-2.78614,1.01735,1.57079,0.00003,-0.14512,-0.38001,0.03752,,,,,,,,,,,,,,,,,,,,,,,,,,0,0,0,0,0
4.2691,1783190332.4389,1,1,1.0000,0.0000,1.44680,0.19791,-2.78616,1.01741,1.57079,0.00003,-0.14512,-0.38001,0.03751,,,,,,,,,,,,,,,,,,,,,,,,,,0,0,0,0,0
4.2694,1783190332.4392,1,1,1.0000,0.0000,1.44680,0.19791,-2.78616,1.01741,1.57079,0.00003,-0.14512,-0.38001,0.03751,,,,,,,,,,,,,,,,,,,,,,,,,,0,0,0,0,0
4.2787,1783190332.4486,1,1,1.0000,0.0000,1.44680,0.19779,-2.78618,1.01755,1.57079,0.00003,-0.14512,-0.38001,0.03748,,,,,,,,,,,,,,,,,,,,,,,,,,0,0,0,0,0
4.2900,1783190332.4598,1,1,1.0000,0.0000,1.44680,0.19765,-2.78622,1.01773,1.57079,0.00003,-0.14512,-0.38001,0.03744,,,,,,,,,,,,,,,,,,,,,,,,,,0,0,0,0,0
4.3082,1783190332.4780,1,1,1.0000,0.0000,1.44680,0.19742,-2.78627,1.01801,1.57079,0.00003,-0.14512,-0.38001,0.03738,,,,,,,,,,,,,,,,,,,,,,,,,,0,0,0,0,0
4.3085,1783190332.4783,1,1,1.0000,0.0000,1.44680,0.19742,-2.78627,1.01801,1.57079,0.00003,-0.14512,-0.38001,0.03738,,,,,,,,,,,,,,,,,,,,,,,,,,0,0,0,0,0
4.3128,1783190332.4826,1,1,1.0000,0.0000,1.44680,0.19735,-2.78629,1.01810,1.57079,0.00003,-0.14512,-0.38001,0.03737,,,,,,,,,,,,,,,,,,,,,,,,,,0,0,0,0,0
4.3270,1783190332.4968,1,1,1.0000,0.0000,1.44680,0.19726,-2.78631,1.01821,1.57079,0.00003,-0.14512,-0.38001,0.03735,,,,,,,,,,,,,,,,,,,,,,,,,,0,0,0,0,0
4.3279,1783190332.4978,1,1,1.0000,0.0000,1.44680,0.19723,-2.78631,1.01825,1.57079,0.00003,-0.14512,-0.38001,0.03734,,,,,,,,,,,,,,,,,,,,,,,,,,0,0,0,0,0
4.3326,1783190332.5025,1,1,1.0000,0.0000,1.44680,0.19718,-2.78633,1.01831,1.57079,0.00003,-0.14512,-0.38001,0.03732,,,,,,,,,,,,,,,,,,,,,,,,,,0,0,0,0,0
4.3383,1783190332.5082,1,1,1.0000,0.0000,1.44680,0.19711,-2.78634,1.01839,1.57079,0.00003,-0.14512,-0.38001,0.03731,,,,,,,,,,,,,,,,,,,,,,,,,,0,0,0,0,0
4.3389,1783190332.5087,1,1,1.0000,0.0000,1.44680,0.19711,-2.78634,1.01839,1.57079,0.00003,-0.14512,-0.38001,0.03731,,,,,,,,,,,,,,,,,,,,,,,,,,0,0,0,0,0
4.3519,1783190332.5217,1,1,1.0000,0.0000,1.44680,0.19690,-2.78639,1.01865,1.57079,0.00003,-0.14512,-0.38001,0.03725,,,,,,,,,,,,,,,,,,,,,,,,,,0,0,0,0,0
4.3592,1783190332.5290,1,1,1.0000,0.0000,1.44680,0.19689,-2.78639,1.01867,1.57079,0.00003,-0.14512,-0.38001,0.03725,,,,,,,,,,,,,,,,,,,,,,,,,,0,0,0,0,0
4.3597,1783190332.5296,1,1,1.0000,0.0000,1.44680,0.19686,-2.78640,1.01870,1.57079,0.00003,-0.14512,-0.38001,0.03725,,,,,,,,,,,,,,,,,,,,,,,,,,0,0,0,0,0
4.3690,1783190332.5388,1,1,1.0000,0.0000,1.44680,0.19678,-2.78642,1.01880,1.57079,0.00003,-0.14512,-0.38001,0.03722,,,,,,,,,,,,,,,,,,,,,,,,,,0,0,0,0,0
4.3693,1783190332.5392,1,1,1.0000,0.0000,1.44680,0.19678,-2.78642,1.01880,1.57079,0.00003,-0.14512,-0.38001,0.03722,,,,,,,,,,,,,,,,,,,,,,,,,,0,0,0,0,0
4.3786,1783190332.5484,1,1,1.0000,0.0000,1.44680,0.19666,-2.78645,1.01895,1.57079,0.00003,-0.14512,-0.38001,0.03720,,,,,,,,,,,,,,,,,,,,,,,,,,0,0,0,0,0
4.3897,1783190332.5596,1,1,1.0000,0.0000,1.44680,0.19661,-2.78646,1.01901,1.57079,0.00003,-0.14512,-0.38001,0.03718,,,,,,,,,,,,,,,,,,,,,,,,,,0,0,0,0,0
4.3900,1783190332.5598,1,1,1.0000,0.0000,1.44680,0.19661,-2.78646,1.01901,1.57079,0.00003,-0.14512,-0.38001,0.03718,,,,,,,,,,,,,,,,,,,,,,,,,,0,0,0,0,0
4.4100,1783190332.5799,1,1,1.0000,0.0000,1.44679,0.19627,-2.78654,1.01943,1.57079,0.00003,-0.14511,-0.38001,0.03710,,,,,,,,,,,,,,,,,,,,,,,,,,0,0,0,0,0
4.4103,1783190332.5802,1,1,1.0000,0.0000,1.44679,0.19627,-2.78654,1.01943,1.57079,0.00003,-0.14511,-0.38001,0.03710,,,,,,,,,,,,,,,,,,,,,,,,,,0,0,0,0,0
4.4186,1783190332.5885,1,1,1.0000,0.0000,1.44679,0.19626,-2.78654,1.01944,1.57079,0.00003,-0.14511,-0.38001,0.03710,,,,,,,,,,,,,,,,,,,,,,,,,,0,0,0,0,0
4.4291,1783190332.5990,1,1,1.0000,0.0000,1.44679,0.19615,-2.78656,1.01957,1.57079,0.00003,-0.14511,-0.38001,0.03707,,,,,,,,,,,,,,,,,,,,,,,,,,0,0,0,0,0
4.4391,1783190332.6089,1,1,1.0000,0.0000,1.44679,0.19603,-2.78659,1.01972,1.57079,0.00003,-0.14511,-0.38001,0.03704,,,,,,,,,,,,,,,,,,,,,,,,,,0,0,0,0,0
4.4399,1783190332.6097,1,1,1.0000,0.0000,1.44679,0.19603,-2.78659,1.01972,1.57079,0.00003,-0.14511,-0.38001,0.03704,,,,,,,,,,,,,,,,,,,,,,,,,,0,0,0,0,0
4.4558,1783190332.6256,1,1,1.0000,0.0000,1.44679,0.19587,-2.78663,1.01992,1.57079,0.00003,-0.14511,-0.38001,0.03700,,,,,,,,,,,,,,,,,,,,,,,,,,0,0,0,0,0
4.4600,1783190332.6298,1,1,1.0000,0.0000,1.44679,0.19579,-2.78665,1.02001,1.57079,0.00003,-0.14511,-0.38001,0.03698,,,,,,,,,,,,,,,,,,,,,,,,,,0,0,0,0,0
4.4688,1783190332.6386,1,1,1.0000,0.0000,1.44679,0.19565,-2.78668,1.02020,1.57079,0.00003,-0.14511,-0.38001,0.03694,,,,,,,,,,,,,,,,,,,,,,,,,,0,0,0,0,0
4.4691,1783190332.6390,1,1,1.0000,0.0000,1.44679,0.19565,-2.78668,1.02020,1.57079,0.00003,-0.14511,-0.38001,0.03694,,,,,,,,,,,,,,,,,,,,,,,,,,0,0,0,0,0
4.4839,1783190332.6538,1,1,1.0000,0.0000,1.44679,0.19557,-2.78670,1.02028,1.57079,0.00003,-0.14511,-0.38001,0.03693,,,,,,,,,,,,,,,,,,,,,,,,,,0,0,0,0,0
4.4841,1783190332.6539,1,1,1.0000,0.0000,1.44679,0.19557,-2.78670,1.02028,1.57079,0.00003,-0.14511,-0.38001,0.03693,,,,,,,,,,,,,,,,,,,,,,,,,,0,0,0,0,0
4.4923,1783190332.6622,1,1,1.0000,0.0000,1.44679,0.19547,-2.78672,1.02041,1.57079,0.00003,-0.14511,-0.38001,0.03690,,,,,,,,,,,,,,,,,,,,,,,,,,0,0,0,0,0
4.4926,1783190332.6625,1,1,1.0000,0.0000,1.44679,0.19547,-2.78672,1.02041,1.57079,0.00003,-0.14511,-0.38001,0.03690,,,,,,,,,,,,,,,,,,,,,,,,,,0,0,0,0,0
4.4982,1783190332.6681,1,1,1.0000,0.0000,1.44679,0.19541,-2.78673,1.02049,1.57079,0.00003,-0.14511,-0.38001,0.03689,,,,,,,,,,,,,,,,,,,,,,,,,,0,0,0,0,0
4.4986,1783190332.6684,1,1,1.0000,0.0000,1.44679,0.19541,-2.78673,1.02049,1.57079,0.00003,-0.14511,-0.38001,0.03689,,,,,,,,,,,,,,,,,,,,,,,,,,0,0,0,0,0
4.5110,1783190332.6809,1,1,1.0000,0.0000,1.44679,0.19536,-2.78675,1.02055,1.57079,0.00003,-0.14511,-0.38001,0.03687,,,,,,,,,,,,,,,,,,,,,,,,,,0,0,0,0,0
4.5318,1783190332.7017,1,1,1.0000,0.0000,1.44679,0.19502,-2.78682,1.02097,1.57079,0.00003,-0.14511,-0.38001,0.03679,,,,,,,,,,,,,,,,,,,,,,,,,,0,0,0,0,0
4.5322,1783190332.7021,1,1,1.0000,0.0000,1.44679,0.19502,-2.78682,1.02097,1.57079,0.00003,-0.14511,-0.38001,0.03679,,,,,,,,,,,,,,,,,,,,,,,,,,0,0,0,0,0
4.5401,1783190332.7099,1,1,1.0000,0.0000,1.44679,0.19499,-2.78683,1.02101,1.57079,0.00003,-0.14511,-0.38001,0.03678,,,,,,,,,,,,,,,,,,,,,,,,,,0,0,0,0,0
4.5406,1783190332.7105,1,1,1.0000,0.0000,1.44679,0.19499,-2.78683,1.02101,1.57079,0.00003,-0.14511,-0.38001,0.03678,,,,,,,,,,,,,,,,,,,,,,,,,,0,0,0,0,0
4.5598,1783190332.7297,1,1,1.0000,0.0000,1.44679,0.19478,-2.78688,1.02126,1.57079,0.00003,-0.14511,-0.38001,0.03673,,,,,,,,,,,,,,,,,,,,,,,,,,0,0,0,0,0
4.5612,1783190332.7311,1,1,1.0000,0.0000,1.44679,0.19478,-2.78688,1.02126,1.57079,0.00003,-0.14511,-0.38001,0.03673,,,,,,,,,,,,,,,,,,,,,,,,,,0,0,0,0,0
4.5725,1783190332.7424,1,1,1.0000,0.0000,1.44679,0.19468,-2.78690,1.02138,1.57079,0.00003,-0.14511,-0.38001,0.03671,,,,,,,,,,,,,,,,,,,,,,,,,,0,0,0,0,0
4.5785,1783190332.7484,1,1,1.0000,0.0000,1.44679,0.19461,-2.78692,1.02147,1.57079,0.00003,-0.14511,-0.38001,0.03669,,,,,,,,,,,,,,,,,,,,,,,,,,0,0,0,0,0
4.5927,1783190332.7625,1,1,1.0000,0.0000,1.44679,0.19439,-2.78697,1.02174,1.57079,0.00003,-0.14511,-0.38001,0.03663,,,,,,,,,,,,,,,,,,,,,,,,,,0,0,0,0,0
4.6120,1783190332.7818,1,1,1.0000,0.0000,1.44679,0.19422,-2.78701,1.02195,1.57079,0.00003,-0.14511,-0.38001,0.03659,,,,,,,,,,,,,,,,,,,,,,,,,,0,0,0,0,0
4.6186,1783190332.7884,1,1,1.0000,0.0000,1.44679,0.19416,-2.78702,1.02203,1.57079,0.00003,-0.14511,-0.38001,0.03658,,,,,,,,,,,,,,,,,,,,,,,,,,0,0,0,0,0
4.6303,1783190332.8001,1,1,1.0000,0.0000,1.44679,0.19411,-2.78703,1.02209,1.57079,0.00003,-0.14511,-0.38001,0.03656,,,,,,,,,,,,,,,,,,,,,,,,,,0,0,0,0,0
4.6306,1783190332.8005,1,1,1.0000,0.0000,1.44679,0.19411,-2.78703,1.02209,1.57079,0.00003,-0.14511,-0.38001,0.03656,,,,,,,,,,,,,,,,,,,,,,,,,,0,0,0,0,0
4.6402,1783190332.8100,1,1,1.0000,0.0000,1.44679,0.19391,-2.78708,1.02233,1.57079,0.00003,-0.14511,-0.38001,0.03652,,,,,,,,,,,,,,,,,,,,,,,,,,0,0,0,0,0
4.6406,1783190332.8105,1,1,1.0000,0.0000,1.44679,0.19391,-2.78708,1.02233,1.57079,0.00003,-0.14511,-0.38001,0.03652,,,,,,,,,,,,,,,,,,,,,,,,,,0,0,0,0,0
4.6504,1783190332.8202,1,1,1.0000,0.0000,1.44679,0.19377,-2.78711,1.02251,1.57079,0.00003,-0.14511,-0.38001,0.03648,,,,,,,,,,,,,,,,,,,,,,,,,,0,0,0,0,0
4.6663,1783190332.8361,1,1,1.0000,0.0000,1.44679,0.19370,-2.78713,1.02260,1.57079,0.00003,-0.14511,-0.38001,0.03646,,,,,,,,,,,,,,,,,,,,,,,,,,0,0,0,0,0
4.6732,1783190332.8431,1,1,1.0000,0.0000,1.44679,0.19359,-2.78715,1.02272,1.57079,0.00003,-0.14511,-0.38001,0.03644,,,,,,,,,,,,,,,,,,,,,,,,,,0,0,0,0,0
4.6829,1783190332.8528,1,1,1.0000,0.0000,1.44679,0.19353,-2.78717,1.02280,1.57079,0.00003,-0.14511,-0.38001,0.03642,,,,,,,,,,,,,,,,,,,,,,,,,,0,0,0,0,0
4.6940,1783190332.8639,1,1,1.0000,0.0000,1.44679,0.19343,-2.78719,1.02293,1.57079,0.00003,-0.14511,-0.38001,0.03639,,,,,,,,,,,,,,,,,,,,,,,,,,0,0,0,0,0
4.6944,1783190332.8642,1,1,1.0000,0.0000,1.44679,0.19343,-2.78719,1.02293,1.57079,0.00003,-0.14511,-0.38001,0.03639,,,,,,,,,,,,,,,,,,,,,,,,,,0,0,0,0,0
4.7041,1783190332.8740,1,1,1.0000,0.0000,1.44679,0.19321,-2.78724,1.02319,1.57079,0.00003,-0.14511,-0.38001,0.03634,,,,,,,,,,,,,,,,,,,,,,,,,,0,0,0,0,0
4.7044,1783190332.8742,1,1,1.0000,0.0000,1.44679,0.19321,-2.78724,1.02319,1.57079,0.00003,-0.14511,-0.38001,0.03634,,,,,,,,,,,,,,,,,,,,,,,,,,0,0,0,0,0
4.7164,1783190332.8862,1,1,1.0000,0.0000,1.44679,0.19313,-2.78726,1.02329,1.57079,0.00003,-0.14511,-0.38001,0.03632,,,,,,,,,,,,,,,,,,,,,,,,,,0,0,0,0,0
4.7265,1783190332.8963,1,1,1.0000,0.0000,1.44679,0.19304,-2.78728,1.02340,1.57079,0.00003,-0.14511,-0.38001,0.03630,,,,,,,,,,,,,,,,,,,,,,,,,,0,0,0,0,0
4.7269,1783190332.8968,1,1,1.0000,0.0000,1.44679,0.19304,-2.78728,1.02340,1.57079,0.00003,-0.14511,-0.38001,0.03630,,,,,,,,,,,,,,,,,,,,,,,,,,0,0,0,0,0
4.7323,1783190332.9021,1,1,1.0000,0.0000,1.44679,0.19291,-2.78731,1.02356,1.57079,0.00003,-0.14511,-0.38001,0.03627,,,,,,,,,,,,,,,,,,,,,,,,,,0,0,0,0,0
4.7327,1783190332.9026,1,1,1.0000,0.0000,1.44679,0.19291,-2.78731,1.02356,1.57079,0.00003,-0.14511,-0.38001,0.03627,,,,,,,,,,,,,,,,,,,,,,,,,,0,0,0,0,0
4.7439,1783190332.9138,1,1,1.0000,0.0000,1.44679,0.19282,-2.78733,1.02367,1.57079,0.00003,-0.14511,-0.38001,0.03625,,,,,,,,,,,,,,,,,,,,,,,,,,0,0,0,0,0
4.7541,1783190332.9239,1,1,1.0000,0.0000,1.44679,0.19273,-2.78735,1.02378,1.57079,0.00003,-0.14511,-0.38001,0.03622,,,,,,,,,,,,,,,,,,,,,,,,,,0,0,0,0,0
4.7549,1783190332.9248,1,1,1.0000,0.0000,1.44679,0.19273,-2.78735,1.02378,1.57079,0.00003,-0.14511,-0.38001,0.03622,,,,,,,,,,,,,,,,,,,,,,,,,,0,0,0,0,0
4.7633,1783190332.9331,1,1,1.0000,0.0000,1.44679,0.19260,-2.78738,1.02394,1.57079,0.00003,-0.14511,-0.38001,0.03619,,,,,,,,,,,,,,,,,,,,,,,,,,0,0,0,0,0
4.7737,1783190332.9436,1,1,1.0000,0.0000,1.44679,0.19246,-2.78741,1.02412,1.57079,0.00003,-0.14511,-0.38001,0.03616,,,,,,,,,,,,,,,,,,,,,,,,,,0,0,0,0,0
4.7823,1783190332.9521,1,1,1.0000,0.0000,1.44679,0.19241,-2.78742,1.02418,1.57079,0.00003,-0.14511,-0.38001,0.03614,,,,,,,,,,,,,,,,,,,,,,,,,,0,0,0,0,0
4.7827,1783190332.9525,1,1,1.0000,0.0000,1.44679,0.19241,-2.78742,1.02418,1.57079,0.00003,-0.14511,-0.38001,0.03614,,,,,,,,,,,,,,,,,,,,,,,,,,0,0,0,0,0
4.7966,1783190332.9665,1,1,1.0000,0.0000,1.44679,0.19215,-2.78748,1.02450,1.57079,0.00003,-0.14511,-0.38001,0.03608,,,,,,,,,,,,,,,,,,,,,,,,,,0,0,0,0,0
4.8025,1783190332.9723,1,1,1.0000,0.0000,1.44679,0.19215,-2.78748,1.02450,1.57079,0.00003,-0.14511,-0.38001,0.03608,,,,,,,,,,,,,,,,,,,,,,,,,,0,0,0,0,0
4.8028,1783190332.9727,1,1,1.0000,0.0000,1.44679,0.19215,-2.78748,1.02450,1.57079,0.00003,-0.14511,-0.38001,0.03608,,,,,,,,,,,,,,,,,,,,,,,,,,0,0,0,0,0
4.8192,1783190332.9891,1,1,1.0000,0.0000,1.44679,0.19199,-2.78752,1.02470,1.57079,0.00003,-0.14511,-0.38001,0.03604,,,,,,,,,,,,,,,,,,,,,,,,,,0,0,0,0,0
4.8244,1783190332.9943,1,1,1.0000,0.0000,1.44679,0.19184,-2.78755,1.02487,1.57079,0.00003,-0.14511,-0.38001,0.03600,,,,,,,,,,,,,,,,,,,,,,,,,,0,0,0,0,0
4.8249,1783190332.9947,1,1,1.0000,0.0000,1.44679,0.19184,-2.78755,1.02487,1.57079,0.00003,-0.14511,-0.38001,0.03600,,,,,,,,,,,,,,,,,,,,,,,,,,0,0,0,0,0
4.8353,1783190333.0051,1,1,1.0000,0.0000,1.44679,0.19177,-2.78757,1.02496,1.57079,0.00003,-0.14511,-0.38001,0.03599,,,,,,,,,,,,,,,,,,,,,,,,,,0,0,0,0,0
4.8361,1783190333.0060,1,1,1.0000,0.0000,1.44679,0.19176,-2.78757,1.02498,1.57079,0.00003,-0.14511,-0.38001,0.03598,,,,,,,,,,,,,,,,,,,,,,,,,,0,0,0,0,0
4.8445,1783190333.0143,1,1,1.0000,0.0000,1.44679,0.19167,-2.78759,1.02508,1.57079,0.00003,-0.14511,-0.38001,0.03596,,,,,,,,,,,,,,,,,,,,,,,,,,0,0,0,0,0
4.8533,1783190333.0231,1,1,1.0000,0.0000,1.44679,0.19154,-2.78762,1.02525,1.57079,0.00003,-0.14511,-0.38001,0.03593,,,,,,,,,,,,,,,,,,,,,,,,,,0,0,0,0,0
4.8535,1783190333.0234,1,1,1.0000,0.0000,1.44679,0.19154,-2.78762,1.02525,1.57079,0.00003,-0.14511,-0.38001,0.03593,,,,,,,,,,,,,,,,,,,,,,,,,,0,0,0,0,0
4.8653,1783190333.0351,1,1,1.0000,0.0000,1.44679,0.19145,-2.78764,1.02535,1.57079,0.00003,-0.14511,-0.38001,0.03591,,,,,,,,,,,,,,,,,,,,,,,,,,0,0,0,0,0
4.8765,1783190333.0464,1,1,1.0000,0.0000,1.44679,0.19130,-2.78768,1.02554,1.57079,0.00003,-0.14511,-0.38001,0.03587,,,,,,,,,,,,,,,,,,,,,,,,,,0,0,0,0,0
4.8848,1783190333.0547,1,1,1.0000,0.0000,1.44679,0.19116,-2.78771,1.02571,1.57079,0.00003,-0.14511,-0.38001,0.03583,,,,,,,,,,,,,,,,,,,,,,,,,,0,0,0,0,0
4.8962,1783190333.0661,1,1,1.0000,0.0000,1.44679,0.19107,-2.78773,1.02582,1.57079,0.00003,-0.14511,-0.38001,0.03581,,,,,,,,,,,,,,,,,,,,,,,,,,0,0,0,0,0
4.9039,1783190333.0737,1,1,1.0000,0.0000,1.44679,0.19099,-2.78775,1.02592,1.57079,0.00003,-0.14511,-0.38001,0.03579,,,,,,,,,,,,,,,,,,,,,,,,,,0,0,0,0,0
4.9042,1783190333.0740,1,1,1.0000,0.0000,1.44679,0.19099,-2.78775,1.02592,1.57079,0.00003,-0.14511,-0.38001,0.03579,,,,,,,,,,,,,,,,,,,,,,,,,,0,0,0,0,0
4.9266,1783190333.0964,1,1,1.0000,0.0000,1.44679,0.19076,-2.78780,1.02620,1.57079,0.00003,-0.14511,-0.38001,0.03574,,,,,,,,,,,,,,,,,,,,,,,,,,0,0,0,0,0
4.9306,1783190333.1005,1,1,1.0000,0.0000,1.44679,0.19073,-2.78781,1.02624,1.57079,0.00003,-0.14511,-0.38001,0.03573,,,,,,,,,,,,,,,,,,,,,,,,,,0,0,0,0,0
4.9361,1783190333.1060,1,1,1.0000,0.0000,1.44679,0.19061,-2.78783,1.02638,1.57079,0.00003,-0.14511,-0.38001,0.03570,,,,,,,,,,,,,,,,,,,,,,,,,,0,0,0,0,0
4.9365,1783190333.1064,1,1,1.0000,0.0000,1.44679,0.19061,-2.78783,1.02638,1.57079,0.00003,-0.14511,-0.38001,0.03570,,,,,,,,,,,,,,,,,,,,,,,,,,0,0,0,0,0
4.9427,1783190333.1125,1,1,1.0000,0.0000,1.44679,0.19054,-2.78785,1.02647,1.57079,0.00003,-0.14511,-0.38001,0.03568,,,,,,,,,,,,,,,,,,,,,,,,,,0,0,0,0,0
4.9545,1783190333.1244,1,1,1.0000,0.0000,1.44679,0.19040,-2.78788,1.02665,1.57079,0.00003,-0.14511,-0.38001,0.03565,,,,,,,,,,,,,,,,,,,,,,,,,,0,0,0,0,0
4.9700,1783190333.1398,1,1,1.0000,0.0000,1.44679,0.19023,-2.78792,1.02685,1.57079,0.00003,-0.14511,-0.38001,0.03561,,,,,,,,,,,,,,,,,,,,,,,,,,0,0,0,0,0
4.9744,1783190333.1442,1,1,1.0000,0.0000,1.44679,0.19016,-2.78794,1.02693,1.57079,0.00003,-0.14511,-0.38001,0.03559,,,,,,,,,,,,,,,,,,,,,,,,,,0,0,0,0,0
4.9834,1783190333.1532,1,1,1.0000,0.0000,1.44679,0.19002,-2.78797,1.02711,1.57079,0.00003,-0.14511,-0.38001,0.03555,,,,,,,,,,,,,,,,,,,,,,,,,,0,0,0,0,0
4.9959,1783190333.1657,1,1,1.0000,0.0000,1.44679,0.18994,-2.78799,1.02720,1.57079,0.00003,-0.14511,-0.38001,0.03554,,,,,,,,,,,,,,,,,,,,,,,,,,0,0,0,0,0
5.0028,1783190333.1727,1,1,1.0000,0.0000,1.44679,0.18989,-2.78800,1.02726,1.57079,0.00003,-0.14511,-0.38001,0.03552,,,,,,,,,,,,,,,,,,,,,,,,,,0,0,0,0,0
5.0229,1783190333.1927,1,1,1.0000,0.0000,1.44679,0.18973,-2.78804,1.02747,1.57079,0.00003,-0.14511,-0.38001,0.03548,,,,,,,,,,,,,,,,,,,,,,,,,,0,0,0,0,0
5.0251,1783190333.1949,1,1,1.0000,0.0000,1.44679,0.18967,-2.78805,1.02754,1.57079,0.00003,-0.14511,-0.38001,0.03547,,,,,,,,,,,,,,,,,,,,,,,,,,0,0,0,0,0
5.0253,1783190333.1952,1,1,1.0000,0.0000,1.44679,0.18967,-2.78805,1.02754,1.57079,0.00003,-0.14511,-0.38001,0.03547,,,,,,,,,,,,,,,,,,,,,,,,,,0,0,0,0,0
5.0363,1783190333.2061,1,1,1.0000,0.0000,1.44679,0.18946,-2.78810,1.02780,1.57079,0.00003,-0.14511,-0.38001,0.03542,,,,,,,,,,,,,,,,,,,,,,,,,,0,0,0,0,0
5.0366,1783190333.2064,1,1,1.0000,0.0000,1.44679,0.18946,-2.78810,1.02780,1.57079,0.00003,-0.14511,-0.38001,0.03542,,,,,,,,,,,,,,,,,,,,,,,,,,0,0,0,0,0
5.0425,1783190333.2124,1,1,1.0000,0.0000,1.44679,0.18939,-2.78811,1.02789,1.57079,0.00003,-0.14511,-0.38001,0.03540,,,,,,,,,,,,,,,,,,,,,,,,,,0,0,0,0,0
5.0429,1783190333.2128,1,1,1.0000,0.0000,1.44679,0.18939,-2.78811,1.02789,1.57079,0.00003,-0.14511,-0.38001,0.03540,,,,,,,,,,,,,,,,,,,,,,,,,,0,0,0,0,0
5.0532,1783190333.2230,1,1,1.0000,0.0000,1.44679,0.18935,-2.78812,1.02793,1.57079,0.00003,-0.14511,-0.38001,0.03539,,,,,,,,,,,,,,,,,,,,,,,,,,0,0,0,0,0
5.0536,1783190333.2234,1,1,1.0000,0.0000,1.44679,0.18935,-2.78812,1.02793,1.57079,0.00003,-0.14511,-0.38001,0.03539,,,,,,,,,,,,,,,,,,,,,,,,,,0,0,0,0,0
5.0749,1783190333.2447,1,1,1.0000,0.0000,1.44679,0.18914,-2.78817,1.02818,1.57079,0.00003,-0.14511,-0.38001,0.03534,,,,,,,,,,,,,,,,,,,,,,,,,,0,0,0,0,0
5.0761,1783190333.2459,1,1,1.0000,0.0000,1.44679,0.18913,-2.78817,1.02820,1.57079,0.00003,-0.14511,-0.38001,0.03534,,,,,,,,,,,,,,,,,,,,,,,,,,0,0,0,0,0
5.0764,1783190333.2462,1,1,1.0000,0.0000,1.44679,0.18913,-2.78817,1.02820,1.57079,0.00003,-0.14511,-0.38001,0.03534,,,,,,,,,,,,,,,,,,,,,,,,,,0,0,0,0,0
5.0839,1783190333.2537,1,1,1.0000,0.0000,1.44679,0.18904,-2.78819,1.02831,1.57079,0.00003,-0.14511,-0.38001,0.03531,,,,,,,,,,,,,,,,,,,,,,,,,,0,0,0,0,0
5.0922,1783190333.2620,1,1,1.0000,0.0000,1.44679,0.18890,-2.78822,1.02848,1.57079,0.00003,-0.14511,-0.38001,0.03528,,,,,,,,,,,,,,,,,,,,,,,,,,0,0,0,0,0
5.0925,1783190333.2624,1,1,1.0000,0.0000,1.44679,0.18890,-2.78822,1.02848,1.57079,0.00003,-0.14511,-0.38001,0.03528,,,,,,,,,,,,,,,,,,,,,,,,,,0,0,0,0,0
5.1067,1783190333.2766,1,1,1.0000,0.0000,1.44679,0.18875,-2.78826,1.02866,1.57079,0.00003,-0.14511,-0.38001,0.03524,,,,,,,,,,,,,,,,,,,,,,,,,,0,0,0,0,0
5.1175,1783190333.2873,1,1,1.0000,0.0000,1.44679,0.18868,-2.78827,1.02875,1.57079,0.00003,-0.14511,-0.38001,0.03523,,,,,,,,,,,,,,,,,,,,,,,,,,0,0,0,0,0
5.1335,1783190333.3034,1,1,1.0000,0.0000,1.44679,0.18851,-2.78831,1.02896,1.57079,0.00003,-0.14511,-0.38001,0.03519,,,,,,,,,,,,,,,,,,,,,,,,,,0,0,0,0,0
5.1360,1783190333.3059,1,1,1.0000,0.0000,1.44679,0.18850,-2.78831,1.02897,1.57079,0.00003,-0.14511,-0.38001,0.03518,,,,,,,,,,,,,,,,,,,,,,,,,,0,0,0,0,0
5.1363,1783190333.3061,1,1,1.0000,0.0000,1.44679,0.18850,-2.78831,1.02897,1.57079,0.00003,-0.14511,-0.38001,0.03518,,,,,,,,,,,,,,,,,,,,,,,,,,0,0,0,0,0
5.1447,1783190333.3145,1,1,1.0000,0.0000,1.44679,0.18841,-2.78833,1.02908,1.57079,0.00003,-0.14511,-0.38001,0.03516,,,,,,,,,,,,,,,,,,,,,,,,,,0,0,0,0,0
5.1534,1783190333.3233,1,1,1.0000,0.0000,1.44679,0.18827,-2.78837,1.02925,1.57079,0.00003,-0.14511,-0.38001,0.03513,,,,,,,,,,,,,,,,,,,,,,,,,,0,0,0,0,0
5.1640,1783190333.3339,1,1,1.0000,0.0000,1.44679,0.18812,-2.78840,1.02944,1.57079,0.00003,-0.14511,-0.38001,0.03509,,,,,,,,,,,,,,,,,,,,,,,,,,0,0,0,0,0
5.1738,1783190333.3437,1,1,1.0000,0.0000,1.44679,0.18809,-2.78841,1.02948,1.57079,0.00004,-0.14511,-0.38001,0.03508,,,,,,,,,,,,,,,,,,,,,,,,,,0,0,0,0,0
5.1858,1783190333.3556,1,1,1.0000,0.0000,1.44679,0.18794,-2.78844,1.02966,1.57079,0.00004,-0.14511,-0.38001,0.03505,,,,,,,,,,,,,,,,,,,,,,,,,,0,0,0,0,0
5.1935,1783190333.3633,1,1,1.0000,0.0000,1.44679,0.18788,-2.78845,1.02973,1.57079,0.00004,-0.14511,-0.38001,0.03503,,,,,,,,,,,,,,,,,,,,,,,,,,0,0,0,0,0
5.2049,1783190333.3747,1,1,1.0000,0.0000,1.44679,0.18778,-2.78848,1.02986,1.57079,0.00004,-0.14511,-0.38001,0.03500,,,,,,,,,,,,,,,,,,,,,,,,,,0,0,0,0,0
5.2052,1783190333.3751,1,1,1.0000,0.0000,1.44679,0.18778,-2.78848,1.02986,1.57079,0.00004,-0.14511,-0.38001,0.03500,,,,,,,,,,,,,,,,,,,,,,,,,,0,0,0,0,0
5.2126,1783190333.3825,1,1,1.0000,0.0000,1.44679,0.18764,-2.78851,1.03003,1.57079,0.00004,-0.14511,-0.38001,0.03497,,,,,,,,,,,,,,,,,,,,,,,,,,0,0,0,0,0
5.2267,1783190333.3966,1,1,1.0000,0.0000,1.44679,0.18749,-2.78854,1.03021,1.57079,0.00004,-0.14511,-0.38001,0.03493,,,,,,,,,,,,,,,,,,,,,,,,,,0,0,0,0,0
5.2352,1783190333.4051,1,1,1.0000,0.0000,1.44679,0.18746,-2.78855,1.03025,1.57079,0.00004,-0.14511,-0.38001,0.03493,,,,,,,,,,,,,,,,,,,,,,,,,,0,0,0,0,0
5.2440,1783190333.4138,1,1,1.0000,0.0000,1.44679,0.18731,-2.78858,1.03043,1.57079,0.00004,-0.14511,-0.38001,0.03489,,,,,,,,,,,,,,,,,,,,,,,,,,0,0,0,0,0
5.2525,1783190333.4223,1,1,1.0000,0.0000,1.44679,0.18725,-2.78860,1.03051,1.57079,0.00004,-0.14511,-0.38001,0.03488,,,,,,,,,,,,,,,,,,,,,,,,,,0,0,0,0,0
5.2653,1783190333.4351,1,1,1.0000,0.0000,1.44679,0.18715,-2.78862,1.03063,1.57079,0.00004,-0.14511,-0.38001,0.03485,,,,,,,,,,,,,,,,,,,,,,,,,,0,0,0,0,0
5.2760,1783190333.4458,1,1,1.0000,0.0000,1.44679,0.18693,-2.78867,1.03090,1.57079,0.00004,-0.14511,-0.38001,0.03480,,,,,,,,,,,,,,,,,,,,,,,,,,0,0,0,0,0
5.2896,1783190333.4594,1,1,1.0000,0.0000,1.44679,0.18685,-2.78869,1.03100,1.57079,0.00004,-0.14511,-0.38001,0.03478,,,,,,,,,,,,,,,,,,,,,,,,,,0,0,0,0,0
5.2941,1783190333.4640,1,1,1.0000,0.0000,1.44679,0.18682,-2.78869,1.03103,1.57079,0.00004,-0.14511,-0.38001,0.03477,,,,,,,,,,,,,,,,,,,,,,,,,,0,0,0,0,0
5.2945,1783190333.4643,1,1,1.0000,0.0000,1.44679,0.18682,-2.78869,1.03103,1.57079,0.00004,-0.14511,-0.38001,0.03477,,,,,,,,,,,,,,,,,,,,,,,,,,0,0,0,0,0
5.3051,1783190333.4749,1,1,1.0000,0.0000,1.44679,0.18668,-2.78872,1.03121,1.57079,0.00004,-0.14511,-0.38001,0.03474,,,,,,,,,,,,,,,,,,,,,,,,,,0,0,0,0,0
5.3140,1783190333.4838,1,1,1.0000,0.0000,1.44679,0.18662,-2.78874,1.03128,1.57079,0.00004,-0.14511,-0.38001,0.03472,,,,,,,,,,,,,,,,,,,,,,,,,,0,0,0,0,0
5.3351,1783190333.5050,1,1,1.0000,0.0000,1.44679,0.18637,-2.78879,1.03158,1.57079,0.00004,-0.14511,-0.38001,0.03466,,,,,,,,,,,,,,,,,,,,,,,,,,0,0,0,0,0
5.3403,1783190333.5102,1,1,1.0000,0.0000,1.44679,0.18622,-2.78883,1.03176,1.57079,0.00004,-0.14511,-0.38001,0.03462,,,,,,,,,,,,,,,,,,,,,,,,,,0,0,0,0,0
