Martins-Lucaas/twinforge/sensors/Data/20260704_154638__samples.csv
t_rel_s,t_unix,cycle,phase,setpoint_n,force_net_n,q1,q2,q3,q4,q5,q6,tcp_x,tcp_y,tcp_z,taxel_0,taxel_1,taxel_2,taxel_3,taxel_4,taxel_5,taxel_6,taxel_7,taxel_8,taxel_9,taxel_10,taxel_11,taxel_12,taxel_13,taxel_14,taxel_15,taxel_16,taxel_17,taxel_18,taxel_19,taxel_20,taxel_21,taxel_22,taxel_23,taxel_24,n_RA,n_SA,cn_mm,cn_ra,cn_sa
0.0074,1783190798.9942,1,0,1.0000,-0.0002,1.44682,0.23328,-2.77748,0.97337,1.57080,0.00000,-0.14512,-0.38003,0.04653,,,,,,,,,,,,,,,,,,,,,,,,,,0,0,0,0,0
0.0322,1783190799.0189,1,0,1.0000,-0.0002,1.44682,0.23328,-2.77748,0.97337,1.57080,0.00000,-0.14512,-0.38003,0.04653,,,,,,,,,,,,,,,,,,,,,,,,,,0,0,0,0,0
0.0327,1783190799.0195,1,0,1.0000,-0.0002,1.44682,0.23328,-2.77748,0.97337,1.57080,0.00000,-0.14512,-0.38003,0.04653,,,,,,,,,,,,,,,,,,,,,,,,,,0,0,0,0,0
0.0407,1783190799.0274,1,0,1.0000,-0.0002,1.44682,0.23328,-2.77748,0.97337,1.57080,0.00000,-0.14512,-0.38003,0.04653,,,,,,,,,,,,,,,,,,,,,,,,,,0,0,0,0,0
0.0463,1783190799.0330,1,0,1.0000,-0.0002,1.44682,0.23328,-2.77748,0.97337,1.57080,0.00000,-0.14512,-0.38003,0.04653,,,,,,,,,,,,,,,,,,,,,,,,,,0,0,0,0,0
0.0564,1783190799.0432,1,0,1.0000,-0.0002,1.44682,0.23328,-2.77748,0.97337,1.57080,0.00000,-0.14512,-0.38003,0.04653,,,,,,,,,,,,,,,,,,,,,,,,,,0,0,0,0,0
0.0703,1783190799.0571,1,0,1.0000,-0.0002,1.44682,0.23328,-2.77748,0.97337,1.57080,0.00000,-0.14512,-0.38003,0.04653,,,,,,,,,,,,,,,,,,,,,,,,,,0,0,0,0,0
0.0771,1783190799.0638,1,0,1.0000,-0.0002,1.44682,0.23328,-2.77748,0.97337,1.57080,0.00000,-0.14512,-0.38003,0.04653,,,,,,,,,,,,,,,,,,,,,,,,,,0,0,0,0,0
0.0884,1783190799.0752,1,0,1.0000,-0.0002,1.44682,0.23328,-2.77748,0.97337,1.57080,0.00000,-0.14512,-0.38003,0.04653,,,,,,,,,,,,,,,,,,,,,,,,,,0,0,0,0,0
0.0978,1783190799.0846,1,0,1.0000,-0.0002,1.44682,0.23328,-2.77748,0.97337,1.57080,-0.00000,-0.14512,-0.38003,0.04653,,,,,,,,,,,,,,,,,,,,,,,,,,0,0,0,0,0
0.1084,1783190799.0952,1,0,1.0000,-0.0002,1.44682,0.23328,-2.77748,0.97337,1.57080,-0.00000,-0.14512,-0.38003,0.04653,,,,,,,,,,,,,,,,,,,,,,,,,,0,0,0,0,0
0.1162,1783190799.1030,1,0,1.0000,-0.0002,1.44682,0.23328,-2.77748,0.97337,1.57080,-0.00000,-0.14512,-0.38003,0.04653,,,,,,,,,,,,,,,,,,,,,,,,,,0,0,0,0,0
0.1285,1783190799.1152,1,0,1.0000,-0.0002,1.44682,0.23328,-2.77748,0.97337,1.57080,-0.00000,-0.14512,-0.38003,0.04653,,,,,,,,,,,,,,,,,,,,,,,,,,0,0,0,0,0
0.1433,1783190799.1300,1,0,1.0000,-0.0002,1.44682,0.23328,-2.77748,0.97337,1.57080,-0.00000,-0.14512,-0.38003,0.04653,,,,,,,,,,,,,,,,,,,,,,,,,,0,0,0,0,0
0.1463,1783190799.1331,1,0,1.0000,-0.0002,1.44682,0.23328,-2.77748,0.97337,1.57080,-0.00000,-0.14512,-0.38003,0.04653,,,,,,,,,,,,,,,,,,,,,,,,,,0,0,0,0,0
0.1569,1783190799.1437,1,0,1.0000,-0.0002,1.44682,0.23328,-2.77748,0.97337,1.57080,-0.00000,-0.14512,-0.38003,0.04653,,,,,,,,,,,,,,,,,,,,,,,,,,0,0,0,0,0
0.1732,1783190799.1600,1,0,1.0000,-0.0002,1.44682,0.23328,-2.77748,0.97337,1.57080,0.00000,-0.14512,-0.38003,0.04653,,,,,,,,,,,,,,,,,,,,,,,,,,0,0,0,0,0
0.1810,1783190799.1678,1,0,1.0000,-0.0002,1.44682,0.23328,-2.77748,0.97337,1.57080,0.00000,-0.14512,-0.38003,0.04653,,,,,,,,,,,,,,,,,,,,,,,,,,0,0,0,0,0
0.1864,1783190799.1732,1,0,1.0000,-0.0002,1.44682,0.23328,-2.77748,0.97337,1.57080,0.00000,-0.14512,-0.38003,0.04653,,,,,,,,,,,,,,,,,,,,,,,,,,0,0,0,0,0
0.1871,1783190799.1739,1,0,1.0000,-0.0002,1.44682,0.23328,-2.77748,0.97337,1.57080,0.00000,-0.14512,-0.38003,0.04653,,,,,,,,,,,,,,,,,,,,,,,,,,0,0,0,0,0
0.1986,1783190799.1853,1,0,1.0000,-0.0002,1.44682,0.23328,-2.77748,0.97337,1.57080,0.00000,-0.14512,-0.38003,0.04653,,,,,,,,,,,,,,,,,,,,,,,,,,0,0,0,0,0
0.2090,1783190799.1957,1,0,1.0000,-0.0002,1.44682,0.23328,-2.77748,0.97337,1.57080,0.00000,-0.14512,-0.38003,0.04653,,,,,,,,,,,,,,,,,,,,,,,,,,0,0,0,0,0
0.2167,1783190799.2035,1,0,1.0000,-0.0002,1.44682,0.23328,-2.77748,0.97337,1.57080,0.00000,-0.14512,-0.38003,0.04653,,,,,,,,,,,,,,,,,,,,,,,,,,0,0,0,0,0
0.2360,1783190799.2227,1,0,1.0000,-0.0002,1.44682,0.23328,-2.77748,0.97337,1.57080,0.00000,-0.14512,-0.38003,0.04653,,,,,,,,,,,,,,,,,,,,,,,,,,0,0,0,0,0
0.2363,1783190799.2230,1,0,1.0000,-0.0002,1.44682,0.23328,-2.77748,0.97337,1.57080,0.00000,-0.14512,-0.38003,0.04653,,,,,,,,,,,,,,,,,,,,,,,,,,0,0,0,0,0
0.2366,1783190799.2234,1,0,1.0000,-0.0002,1.44682,0.23328,-2.77748,0.97337,1.57080,0.00000,-0.14512,-0.38003,0.04653,,,,,,,,,,,,,,,,,,,,,,,,,,0,0,0,0,0
0.2370,1783190799.2237,1,0,1.0000,-0.0002,1.44682,0.23328,-2.77748,0.97337,1.57080,0.00000,-0.14512,-0.38003,0.04653,,,,,,,,,,,,,,,,,,,,,,,,,,0,0,0,0,0
0.2467,1783190799.2334,1,0,1.0000,-0.0002,1.44682,0.23328,-2.77748,0.97337,1.57080,0.00000,-0.14512,-0.38003,0.04653,,,,,,,,,,,,,,,,,,,,,,,,,,0,0,0,0,0
0.2609,1783190799.2477,1,0,1.0000,-0.0002,1.44682,0.23328,-2.77748,0.97337,1.57080,0.00000,-0.14512,-0.38003,0.04653,,,,,,,,,,,,,,,,,,,,,,,,,,0,0,0,0,0
0.2672,1783190799.2539,1,0,1.0000,-0.0002,1.44682,0.23328,-2.77748,0.97337,1.57080,0.00000,-0.14512,-0.38003,0.04653,,,,,,,,,,,,,,,,,,,,,,,,,,0,0,0,0,0
0.2781,1783190799.2648,1,0,1.0000,-0.0002,1.44682,0.23328,-2.77748,0.97337,1.57080,0.00000,-0.14512,-0.38003,0.04653,,,,,,,,,,,,,,,,,,,,,,,,,,0,0,0,0,0
0.2889,1783190799.2756,1,0,1.0000,-0.0002,1.44682,0.23328,-2.77748,0.97337,1.57080,0.00000,-0.14512,-0.38003,0.04653,,,,,,,,,,,,,,,,,,,,,,,,,,0,0,0,0,0
0.2964,1783190799.2831,1,0,1.0000,-0.0002,1.44682,0.23328,-2.77748,0.97337,1.57080,0.00000,-0.14512,-0.38003,0.04653,,,,,,,,,,,,,,,,,,,,,,,,,,0,0,0,0,0
0.3063,1783190799.2931,1,0,1.0000,-0.0002,1.44682,0.23328,-2.77748,0.97337,1.57080,0.00000,-0.14512,-0.38003,0.04653,,,,,,,,,,,,,,,,,,,,,,,,,,0,0,0,0,0
0.3163,1783190799.3031,1,0,1.0000,-0.0002,1.44682,0.23328,-2.77748,0.97337,1.57080,0.00000,-0.14512,-0.38003,0.04653,,,,,,,,,,,,,,,,,,,,,,,,,,0,0,0,0,0
0.3331,1783190799.3199,1,0,1.0000,-0.0002,1.44682,0.23328,-2.77748,0.97337,1.57080,0.00000,-0.14512,-0.38003,0.04653,,,,,,,,,,,,,,,,,,,,,,,,,,0,0,0,0,0
0.3364,1783190799.3231,1,0,1.0000,-0.0002,1.44682,0.23328,-2.77748,0.97337,1.57080,0.00000,-0.14512,-0.38003,0.04653,,,,,,,,,,,,,,,,,,,,,,,,,,0,0,0,0,0
0.3489,1783190799.3356,1,0,1.0000,-0.0002,1.44682,0.23328,-2.77748,0.97337,1.57080,0.00000,-0.14512,-0.38003,0.04653,,,,,,,,,,,,,,,,,,,,,,,,,,0,0,0,0,0
0.3604,1783190799.3471,1,0,1.0000,-0.0002,1.44682,0.23328,-2.77748,0.97337,1.57080,0.00000,-0.14512,-0.38003,0.04653,,,,,,,,,,,,,,,,,,,,,,,,,,0,0,0,0,0
0.3664,1783190799.3532,1,0,1.0000,-0.0002,1.44682,0.23328,-2.77748,0.97337,1.57080,0.00000,-0.14512,-0.38003,0.04653,,,,,,,,,,,,,,,,,,,,,,,,,,0,0,0,0,0
0.3879,1783190799.3747,1,0,1.0000,-0.0002,1.44682,0.23328,-2.77748,0.97337,1.57080,0.00000,-0.14512,-0.38003,0.04653,,,,,,,,,,,,,,,,,,,,,,,,,,0,0,0,0,0
0.3914,1783190799.3781,1,0,1.0000,-0.0002,1.44682,0.23328,-2.77748,0.97337,1.57080,0.00000,-0.14512,-0.38003,0.04653,,,,,,,,,,,,,,,,,,,,,,,,,,0,0,0,0,0
0.3918,1783190799.3786,1,0,1.0000,-0.0002,1.44682,0.23328,-2.77748,0.97337,1.57080,0.00000,-0.14512,-0.38003,0.04653,,,,,,,,,,,,,,,,,,,,,,,,,,0,0,0,0,0
0.3997,1783190799.3864,1,0,1.0000,-0.0002,1.44682,0.23328,-2.77748,0.97337,1.57080,0.00000,-0.14512,-0.38003,0.04653,,,,,,,,,,,,,,,,,,,,,,,,,,0,0,0,0,0
0.4116,1783190799.3984,1,0,1.0000,-0.0002,1.44682,0.23328,-2.77748,0.97337,1.57080,0.00000,-0.14512,-0.38003,0.04653,,,,,,,,,,,,,,,,,,,,,,,,,,0,0,0,0,0
0.4217,1783190799.4085,1,0,1.0000,-0.0002,1.44682,0.23328,-2.77748,0.97337,1.57080,0.00000,-0.14512,-0.38003,0.04653,,,,,,,,,,,,,,,,,,,,,,,,,,0,0,0,0,0
0.4355,1783190799.4222,1,0,1.0000,-0.0002,1.44682,0.23328,-2.77748,0.97337,1.57080,0.00000,-0.14512,-0.38003,0.04653,,,,,,,,,,,,,,,,,,,,,,,,,,0,0,0,0,0
0.4432,1783190799.4299,1,0,1.0000,-0.0002,1.44682,0.23328,-2.77748,0.97337,1.57080,0.00000,-0.14512,-0.38003,0.04653,,,,,,,,,,,,,,,,,,,,,,,,,,0,0,0,0,0
0.4510,1783190799.4378,1,0,1.0000,-0.0002,1.44682,0.23328,-2.77748,0.97337,1.57080,0.00000,-0.14512,-0.38003,0.04653,,,,,,,,,,,,,,,,,,,,,,,,,,0,0,0,0,0
0.4631,1783190799.4499,1,0,1.0000,-0.0002,1.44682,0.23328,-2.77748,0.97337,1.57080,0.00000,-0.14512,-0.38003,0.04653,,,,,,,,,,,,,,,,,,,,,,,,,,0,0,0,0,0
0.4712,1783190799.4580,1,0,1.0000,-0.0002,1.44682,0.23328,-2.77748,0.97337,1.57080,0.00000,-0.14512,-0.38003,0.04653,,,,,,,,,,,,,,,,,,,,,,,,,,0,0,0,0,0
0.4835,1783190799.4703,1,0,1.0000,-0.0002,1.44682,0.23328,-2.77748,0.97337,1.57080,0.00000,-0.14512,-0.38003,0.04653,,,,,,,,,,,,,,,,,,,,,,,,,,0,0,0,0,0
0.4839,1783190799.4706,1,0,1.0000,-0.0002,1.44682,0.23328,-2.77748,0.97337,1.57080,0.00000,-0.14512,-0.38003,0.04653,,,,,,,,,,,,,,,,,,,,,,,,,,0,0,0,0,0
0.4899,1783190799.4766,1,0,1.0000,-0.0002,1.44682,0.23328,-2.77748,0.97337,1.57080,0.00000,-0.14512,-0.38003,0.04653,,,,,,,,,,,,,,,,,,,,,,,,,,0,0,0,0,0
0.5055,1783190799.4922,1,0,1.0000,-0.0002,1.44682,0.23328,-2.77748,0.97337,1.57080,0.00000,-0.14512,-0.38003,0.04653,,,,,,,,,,,,,,,,,,,,,,,,,,0,0,0,0,0
0.5099,1783190799.4967,1,0,1.0000,-0.0002,1.44682,0.23328,-2.77748,0.97337,1.57080,0.00000,-0.14512,-0.38003,0.04653,,,,,,,,,,,,,,,,,,,,,,,,,,0,0,0,0,0
0.5198,1783190799.5066,1,0,1.0000,-0.0002,1.44682,0.23328,-2.77748,0.97337,1.57080,0.00000,-0.14512,-0.38003,0.04653,,,,,,,,,,,,,,,,,,,,,,,,,,0,0,0,0,0
0.5379,1783190799.5247,1,0,1.0000,-0.0002,1.44682,0.23328,-2.77748,0.97337,1.57080,0.00000,-0.14512,-0.38003,0.04653,,,,,,,,,,,,,,,,,,,,,,,,,,0,0,0,0,0
0.5420,1783190799.5287,1,0,1.0000,-0.0002,1.44682,0.23328,-2.77748,0.97337,1.57080,0.00000,-0.14512,-0.38003,0.04653,,,,,,,,,,,,,,,,,,,,,,,,,,0,0,0,0,0
0.5529,1783190799.5397,1,0,1.0000,-0.0002,1.44682,0.23328,-2.77748,0.97337,1.57080,0.00000,-0.14512,-0.38003,0.04653,,,,,,,,,,,,,,,,,,,,,,,,,,0,0,0,0,0
0.5604,1783190799.5471,1,0,1.0000,-0.0002,1.44682,0.23328,-2.77748,0.97337,1.57080,0.00000,-0.14512,-0.38003,0.04653,,,,,,,,,,,,,,,,,,,,,,,,,,0,0,0,0,0
0.5608,1783190799.5476,1,0,1.0000,-0.0002,1.44682,0.23328,-2.77748,0.97337,1.57080,0.00000,-0.14512,-0.38003,0.04653,,,,,,,,,,,,,,,,,,,,,,,,,,0,0,0,0,0
0.5712,1783190799.5580,1,0,1.0000,-0.0002,1.44682,0.23328,-2.77748,0.97337,1.57080,0.00000,-0.14512,-0.38003,0.04653,,,,,,,,,,,,,,,,,,,,,,,,,,0,0,0,0,0
0.5715,1783190799.5583,1,0,1.0000,-0.0002,1.44682,0.23328,-2.77748,0.97337,1.57080,0.00000,-0.14512,-0.38003,0.04653,,,,,,,,,,,,,,,,,,,,,,,,,,0,0,0,0,0
0.5846,1783190799.5714,1,0,1.0000,-0.0002,1.44682,0.23328,-2.77748,0.97337,1.57080,0.00000,-0.14512,-0.38003,0.04653,,,,,,,,,,,,,,,,,,,,,,,,,,0,0,0,0,0
0.5919,1783190799.5787,1,0,1.0000,-0.0002,1.44682,0.23328,-2.77748,0.97337,1.57080,0.00000,-0.14512,-0.38003,0.04653,,,,,,,,,,,,,,,,,,,,,,,,,,0,0,0,0,0
0.6044,1783190799.5911,1,0,1.0000,-0.0002,1.44682,0.23328,-2.77748,0.97337,1.57080,0.00000,-0.14512,-0.38003,0.04653,,,,,,,,,,,,,,,,,,,,,,,,,,0,0,0,0,0
0.6102,1783190799.5969,1,0,1.0000,-0.0002,1.44682,0.23328,-2.77748,0.97337,1.57080,0.00000,-0.14512,-0.38003,0.04653,,,,,,,,,,,,,,,,,,,,,,,,,,0,0,0,0,0
0.6214,1783190799.6081,1,0,1.0000,-0.0002,1.44682,0.23328,-2.77748,0.97337,1.57080,0.00000,-0.14512,-0.38003,0.04653,,,,,,,,,,,,,,,,,,,,,,,,,,0,0,0,0,0
0.6442,1783190799.6309,1,0,1.0000,-0.0002,1.44682,0.23328,-2.77748,0.97337,1.57080,0.00000,-0.14512,-0.38003,0.04653,,,,,,,,,,,,,,,,,,,,,,,,,,0,0,0,0,0
0.6444,1783190799.6312,1,0,1.0000,-0.0002,1.44682,0.23328,-2.77748,0.97337,1.57080,0.00000,-0.14512,-0.38003,0.04653,,,,,,,,,,,,,,,,,,,,,,,,,,0,0,0,0,0
0.6556,1783190799.6423,1,0,1.0000,-0.0002,1.44682,0.23328,-2.77748,0.97337,1.57080,0.00000,-0.14512,-0.38003,0.04653,,,,,,,,,,,,,,,,,,,,,,,,,,0,0,0,0,0
0.6615,1783190799.6482,1,0,1.0000,-0.0002,1.44682,0.23328,-2.77748,0.97337,1.57080,0.00000,-0.14512,-0.38003,0.04653,,,,,,,,,,,,,,,,,,,,,,,,,,0,0,0,0,0
0.6731,1783190799.6598,1,0,1.0000,-0.0002,1.44682,0.23328,-2.77748,0.97337,1.57080,0.00000,-0.14512,-0.38003,0.04653,,,,,,,,,,,,,,,,,,,,,,,,,,0,0,0,0,0
0.6862,1783190799.6730,1,0,1.0000,-0.0002,1.44682,0.23328,-2.77748,0.97337,1.57080,0.00000,-0.14512,-0.38003,0.04653,,,,,,,,,,,,,,,,,,,,,,,,,,0,0,0,0,0
0.6946,1783190799.6813,1,0,1.0000,-0.0002,1.44682,0.23328,-2.77748,0.97337,1.57080,0.00000,-0.14512,-0.38003,0.04653,,,,,,,,,,,,,,,,,,,,,,,,,,0,0,0,0,0
0.7019,1783190799.6886,1,0,1.0000,-0.0002,1.44682,0.23328,-2.77748,0.97337,1.57080,0.00000,-0.14512,-0.38003,0.04653,,,,,,,,,,,,,,,,,,,,,,,,,,0,0,0,0,0
0.7024,1783190799.6892,1,0,1.0000,-0.0002,1.44682,0.23328,-2.77748,0.97337,1.57080,0.00000,-0.14512,-0.38003,0.04653,,,,,,,,,,,,,,,,,,,,,,,,,,0,0,0,0,0
0.7097,1783190799.6965,1,0,1.0000,-0.0002,1.44682,0.23328,-2.77748,0.97337,1.57080,0.00000,-0.14512,-0.38003,0.04653,,,,,,,,,,,,,,,,,,,,,,,,,,0,0,0,0,0
0.7099,1783190799.6967,1,0,1.0000,-0.0002,1.44682,0.23328,-2.77748,0.97337,1.57080,0.00000,-0.14512,-0.38003,0.04653,,,,,,,,,,,,,,,,,,,,,,,,,,0,0,0,0,0
0.7244,1783190799.7112,1,0,1.0000,-0.0002,1.44682,0.23328,-2.77748,0.97337,1.57080,0.00000,-0.14512,-0.38003,0.04653,,,,,,,,,,,,,,,,,,,,,,,,,,0,0,0,0,0
0.7299,1783190799.7167,1,1,1.0000,-0.0002,1.44682,0.23328,-2.77748,0.97337,1.57080,0.00000,-0.14512,-0.38003,0.04653,,,,,,,,,,,,,,,,,,,,,,,,,,0,0,0,0,0
0.7450,1783190799.7317,1,1,1.0000,-0.0002,1.44682,0.23328,-2.77748,0.97337,1.57080,0.00000,-0.14512,-0.38003,0.04653,,,,,,,,,,,,,,,,,,,,,,,,,,0,0,0,0,0
0.7498,1783190799.7366,1,1,1.0000,-0.0002,1.44682,0.23328,-2.77748,0.97337,1.57080,0.00000,-0.14512,-0.38003,0.04653,,,,,,,,,,,,,,,,,,,,,,,,,,0,0,0,0,0
0.7502,1783190799.7369,1,1,1.0000,-0.0002,1.44682,0.23328,-2.77748,0.97337,1.57080,0.00000,-0.14512,-0.38003,0.04653,,,,,,,,,,,,,,,,,,,,,,,,,,0,0,0,0,0
0.7603,1783190799.7470,1,1,1.0000,-0.0002,1.44682,0.23328,-2.77748,0.97337,1.57080,0.00000,-0.14512,-0.38003,0.04653,,,,,,,,,,,,,,,,,,,,,,,,,,0,0,0,0,0
0.7707,1783190799.7575,1,1,1.0000,-0.0002,1.44682,0.23328,-2.77748,0.97337,1.57080,0.00000,-0.14512,-0.38003,0.04653,,,,,,,,,,,,,,,,,,,,,,,,,,0,0,0,0,0
0.7952,1783190799.7820,1,1,1.0000,-0.0002,1.44682,0.23328,-2.77748,0.97337,1.57080,0.00000,-0.14512,-0.38003,0.04653,,,,,,,,,,,,,,,,,,,,,,,,,,0,0,0,0,0
0.7962,1783190799.7830,1,1,1.0000,-0.0002,1.44682,0.23328,-2.77748,0.97337,1.57080,0.00000,-0.14512,-0.38003,0.04653,,,,,,,,,,,,,,,,,,,,,,,,,,0,0,0,0,0
0.8061,1783190799.7928,1,1,1.0000,-0.0002,1.44682,0.23328,-2.77748,0.97337,1.57080,0.00000,-0.14512,-0.38003,0.04653,,,,,,,,,,,,,,,,,,,,,,,,,,0,0,0,0,0
0.8100,1783190799.7967,1,1,1.0000,-0.0002,1.44682,0.23328,-2.77748,0.97337,1.57080,-0.00000,-0.14512,-0.38003,0.04653,,,,,,,,,,,,,,,,,,,,,,,,,,0,0,0,0,0
0.8233,1783190799.8100,1,1,1.0000,-0.0002,1.44682,0.23328,-2.77748,0.97337,1.57080,0.00000,-0.14512,-0.38003,0.04653,,,,,,,,,,,,,,,,,,,,,,,,,,0,0,0,0,0
0.8310,1783190799.8178,1,1,1.0000,-0.0002,1.44682,0.23328,-2.77748,0.97337,1.57080,-0.00000,-0.14512,-0.38003,0.04653,,,,,,,,,,,,,,,,,,,,,,,,,,0,0,0,0,0
0.8312,1783190799.8179,1,1,1.0000,-0.0002,1.44682,0.23328,-2.77748,0.97337,1.57080,-0.00000,-0.14512,-0.38003,0.04653,,,,,,,,,,,,,,,,,,,,,,,,,,0,0,0,0,0
0.8470,1783190799.8338,1,1,1.0000,-0.0002,1.44682,0.23328,-2.77748,0.97337,1.57080,-0.00000,-0.14512,-0.38003,0.04653,,,,,,,,,,,,,,,,,,,,,,,,,,0,0,0,0,0
0.8558,1783190799.8425,1,1,1.0000,-0.0002,1.44682,0.23328,-2.77748,0.97337,1.57080,0.00000,-0.14512,-0.38003,0.04653,,,,,,,,,,,,,,,,,,,,,,,,,,0,0,0,0,0
0.8598,1783190799.8465,1,1,1.0000,-0.0002,1.44682,0.23328,-2.77748,0.97337,1.57080,0.00000,-0.14512,-0.38003,0.04653,,,,,,,,,,,,,,,,,,,,,,,,,,0,0,0,0,0
0.8699,1783190799.8567,1,1,1.0000,-0.0002,1.44682,0.23328,-2.77748,0.97337,1.57080,0.00000,-0.14512,-0.38003,0.04653,,,,,,,,,,,,,,,,,,,,,,,,,,0,0,0,0,0
0.8927,1783190799.8794,1,1,1.0000,-0.0002,1.44682,0.23328,-2.77748,0.97337,1.57080,0.00000,-0.14512,-0.38003,0.04653,,,,,,,,,,,,,,,,,,,,,,,,,,0,0,0,0,0
0.9114,1783190799.8982,1,1,1.0000,-0.0002,1.44682,0.23328,-2.77748,0.97337,1.57080,0.00000,-0.14512,-0.38003,0.04653,,,,,,,,,,,,,,,,,,,,,,,,,,0,0,0,0,0
0.9119,1783190799.8986,1,1,1.0000,-0.0002,1.44682,0.23328,-2.77748,0.97337,1.57080,0.00000,-0.14512,-0.38003,0.04653,,,,,,,,,,,,,,,,,,,,,,,,,,0,0,0,0,0
0.9135,1783190799.9003,1,1,1.0000,-0.0002,1.44682,0.23328,-2.77748,0.97337,1.57080,0.00000,-0.14512,-0.38003,0.04653,,,,,,,,,,,,,,,,,,,,,,,,,,0,0,0,0,0
0.9143,1783190799.9011,1,1,1.0000,-0.0002,1.44682,0.23328,-2.77748,0.97337,1.57080,0.00000,-0.14512,-0.38003,0.04653,,,,,,,,,,,,,,,,,,,,,,,,,,0,0,0,0,0
0.9298,1783190799.9165,1,1,1.0000,-0.0002,1.44682,0.23322,-2.77749,0.97344,1.57080,0.00000,-0.14512,-0.38003,0.04651,,,,,,,,,,,,,,,,,,,,,,,,,,0,0,0,0,0
0.9304,1783190799.9171,1,1,1.0000,-0.0002,1.44682,0.23322,-2.77749,0.97344,1.57080,0.00000,-0.14512,-0.38003,0.04651,,,,,,,,,,,,,,,,,,,,,,,,,,0,0,0,0,0
0.9342,1783190799.9209,1,1,1.0000,-0.0002,1.44682,0.23316,-2.77751,0.97352,1.57080,0.00000,-0.14512,-0.38003,0.04650,,,,,,,,,,,,,,,,,,,,,,,,,,0,0,0,0,0
0.9346,1783190799.9214,1,1,1.0000,-0.0002,1.44682,0.23316,-2.77751,0.97352,1.57080,0.00000,-0.14512,-0.38003,0.04650,,,,,,,,,,,,,,,,,,,,,,,,,,0,0,0,0,0
0.9539,1783190799.9407,1,1,1.0000,-0.0002,1.44682,0.23285,-2.77759,0.97390,1.57080,0.00000,-0.14512,-0.38003,0.04642,,,,,,,,,,,,,,,,,,,,,,,,,,0,0,0,0,0
0.9545,1783190799.9412,1,1,1.0000,-0.0002,1.44682,0.23285,-2.77759,0.97390,1.57080,0.00000,-0.14512,-0.38003,0.04642,,,,,,,,,,,,,,,,,,,,,,,,,,0,0,0,0,0
0.9552,1783190799.9420,1,1,1.0000,-0.0002,1.44682,0.23284,-2.77759,0.97392,1.57080,0.00000,-0.14512,-0.38003,0.04641,,,,,,,,,,,,,,,,,,,,,,,,,,0,0,0,0,0
0.9640,1783190799.9507,1,1,1.0000,-0.0002,1.44682,0.23276,-2.77761,0.97402,1.57080,0.00000,-0.14512,-0.38003,0.04639,,,,,,,,,,,,,,,,,,,,,,,,,,0,0,0,0,0
0.9752,1783190799.9619,1,1,1.0000,-0.0002,1.44682,0.23257,-2.77766,0.97426,1.57080,0.00000,-0.14512,-0.38003,0.04634,,,,,,,,,,,,,,,,,,,,,,,,,,0,0,0,0,0
0.9755,1783190799.9622,1,1,1.0000,-0.0002,1.44682,0.23257,-2.77766,0.97426,1.57080,0.00000,-0.14512,-0.38003,0.04634,,,,,,,,,,,,,,,,,,,,,,,,,,0,0,0,0,0
1.0116,1783190799.9983,1,1,1.0000,-0.0002,1.44682,0.23221,-2.77775,0.97471,1.57080,0.00000,-0.14512,-0.38003,0.04625,,,,,,,,,,,,,,,,,,,,,,,,,,0,0,0,0,0
1.0121,1783190799.9988,1,1,1.0000,-0.0002,1.44682,0.23221,-2.77775,0.97471,1.57080,0.00000,-0.14512,-0.38003,0.04625,,,,,,,,,,,,,,,,,,,,,,,,,,0,0,0,0,0
1.0125,1783190799.9992,1,1,1.0000,-0.0002,1.44682,0.23221,-2.77775,0.97471,1.57080,0.00000,-0.14512,-0.38003,0.04625,,,,,,,,,,,,,,,,,,,,,,,,,,0,0,0,0,0
1.0216,1783190800.0083,1,1,1.0000,-0.0002,1.44682,0.23217,-2.77776,0.97477,1.57080,0.00000,-0.14512,-0.38003,0.04624,,,,,,,,,,,,,,,,,,,,,,,,,,0,0,0,0,0
1.0258,1783190800.0126,1,1,1.0000,-0.0002,1.44682,0.23212,-2.77778,0.97483,1.57080,0.00000,-0.14512,-0.38003,0.04622,,,,,,,,,,,,,,,,,,,,,,,,,,0,0,0,0,0
1.0263,1783190800.0131,1,1,1.0000,-0.0002,1.44682,0.23212,-2.77778,0.97483,1.57080,0.00000,-0.14512,-0.38003,0.04622,,,,,,,,,,,,,,,,,,,,,,,,,,0,0,0,0,0
1.0394,1783190800.0261,1,1,1.0000,-0.0002,1.44682,0.23192,-2.77783,0.97508,1.57080,0.00000,-0.14512,-0.38003,0.04617,,,,,,,,,,,,,,,,,,,,,,,,,,0,0,0,0,0
1.0488,1783190800.0355,1,1,1.0000,-0.0002,1.44682,0.23188,-2.77784,0.97513,1.57080,0.00000,-0.14512,-0.38003,0.04616,,,,,,,,,,,,,,,,,,,,,,,,,,0,0,0,0,0
1.0493,1783190800.0361,1,1,1.0000,-0.0002,1.44682,0.23188,-2.77784,0.97513,1.57080,0.00000,-0.14512,-0.38003,0.04616,,,,,,,,,,,,,,,,,,,,,,,,,,0,0,0,0,0
1.0605,1783190800.0473,1,1,1.0000,-0.0002,1.44682,0.23170,-2.77788,0.97535,1.57080,0.00000,-0.14512,-0.38003,0.04612,,,,,,,,,,,,,,,,,,,,,,,,,,0,0,0,0,0
1.0609,1783190800.0477,1,1,1.0000,-0.0002,1.44682,0.23170,-2.77788,0.97535,1.57080,0.00000,-0.14512,-0.38003,0.04612,,,,,,,,,,,,,,,,,,,,,,,,,,0,0,0,0,0
1.0665,1783190800.0532,1,1,1.0000,-0.0002,1.44682,0.23163,-2.77790,0.97544,1.57080,0.00000,-0.14512,-0.38003,0.04610,,,,,,,,,,,,,,,,,,,,,,,,,,0,0,0,0,0
1.0668,1783190800.0535,1,1,1.0000,-0.0002,1.44682,0.23163,-2.77790,0.97544,1.57080,0.00000,-0.14512,-0.38003,0.04610,,,,,,,,,,,,,,,,,,,,,,,,,,0,0,0,0,0
1.0852,1783190800.0719,1,1,1.0000,-0.0002,1.44682,0.23147,-2.77794,0.97564,1.57080,0.00000,-0.14512,-0.38003,0.04606,,,,,,,,,,,,,,,,,,,,,,,,,,0,0,0,0,0
1.0855,1783190800.0723,1,1,1.0000,-0.0002,1.44682,0.23147,-2.77794,0.97564,1.57080,0.00000,-0.14512,-0.38003,0.04606,,,,,,,,,,,,,,,,,,,,,,,,,,0,0,0,0,0
1.0962,1783190800.0830,1,1,1.0000,-0.0002,1.44682,0.23127,-2.77799,0.97589,1.57080,0.00000,-0.14512,-0.38003,0.04600,,,,,,,,,,,,,,,,,,,,,,,,,,0,0,0,0,0
1.0965,1783190800.0832,1,1,1.0000,-0.0002,1.44682,0.23127,-2.77799,0.97589,1.57080,0.00000,-0.14512,-0.38003,0.04600,,,,,,,,,,,,,,,,,,,,,,,,,,0,0,0,0,0
1.1145,1783190800.1012,1,1,1.0000,-0.0002,1.44682,0.23118,-2.77802,0.97601,1.57080,0.00000,-0.14512,-0.38003,0.04598,,,,,,,,,,,,,,,,,,,,,,,,,,0,0,0,0,0
1.1148,1783190800.1015,1,1,1.0000,-0.0002,1.44682,0.23118,-2.77802,0.97601,1.57080,0.00000,-0.14512,-0.38003,0.04598,,,,,,,,,,,,,,,,,,,,,,,,,,0,0,0,0,0
1.1287,1783190800.1155,1,1,1.0000,-0.0002,1.44682,0.23092,-2.77809,0.97634,1.57080,0.00000,-0.14512,-0.38003,0.04591,,,,,,,,,,,,,,,,,,,,,,,,,,0,0,0,0,0
1.1392,1783190800.1259,1,1,1.0000,-0.0002,1.44682,0.23087,-2.77810,0.97639,1.57080,0.00000,-0.14512,-0.38003,0.04590,,,,,,,,,,,,,,,,,,,,,,,,,,0,0,0,0,0
1.1606,1783190800.1474,1,1,1.0000,-0.0002,1.44682,0.23062,-2.77816,0.97671,1.57080,0.00000,-0.14512,-0.38003,0.04583,,,,,,,,,,,,,,,,,,,,,,,,,,0,0,0,0,0
1.1714,1783190800.1581,1,1,1.0000,-0.0002,1.44682,0.23053,-2.77818,0.97682,1.57080,0.00000,-0.14512,-0.38003,0.04581,,,,,,,,,,,,,,,,,,,,,,,,,,0,0,0,0,0
1.1745,1783190800.1612,1,1,1.0000,-0.0002,1.44682,0.23053,-2.77818,0.97682,1.57080,0.00000,-0.14512,-0.38003,0.04581,,,,,,,,,,,,,,,,,,,,,,,,,,0,0,0,0,0
1.1899,1783190800.1766,1,1,1.0000,-0.0002,1.44682,0.23027,-2.77825,0.97715,1.57080,0.00000,-0.14512,-0.38003,0.04574,,,,,,,,,,,,,,,,,,,,,,,,,,0,0,0,0,0
1.2066,1783190800.1934,1,1,1.0000,-0.0002,1.44682,0.23017,-2.77828,0.97727,1.57080,0.00000,-0.14512,-0.38003,0.04572,,,,,,,,,,,,,,,,,,,,,,,,,,0,0,0,0,0
1.2145,1783190800.2012,1,1,1.0000,-0.0002,1.44682,0.23005,-2.77831,0.97743,1.57080,0.00000,-0.14512,-0.38003,0.04568,,,,,,,,,,,,,,,,,,,,,,,,,,0,0,0,0,0
1.2215,1783190800.2083,1,1,1.0000,-0.0002,1.44682,0.22991,-2.77834,0.97760,1.57080,0.00000,-0.14512,-0.38003,0.04565,,,,,,,,,,,,,,,,,,,,,,,,,,0,0,0,0,0
1.2254,1783190800.2122,1,1,1.0000,-0.0002,1.44682,0.22991,-2.77834,0.97760,1.57080,0.00000,-0.14512,-0.38003,0.04565,,,,,,,,,,,,,,,,,,,,,,,,,,0,0,0,0,0
1.2258,1783190800.2125,1,1,1.0000,-0.0002,1.44682,0.22991,-2.77834,0.97760,1.57080,0.00000,-0.14512,-0.38003,0.04565,,,,,,,,,,,,,,,,,,,,,,,,,,0,0,0,0,0
1.2350,1783190800.2217,1,1,1.0000,-0.0002,1.44682,0.22988,-2.77835,0.97765,1.57080,0.00000,-0.14512,-0.38003,0.04564,,,,,,,,,,,,,,,,,,,,,,,,,,0,0,0,0,0
1.2558,1783190800.2425,1,1,1.0000,-0.0002,1.44682,0.22967,-2.77841,0.97791,1.57080,0.00000,-0.14512,-0.38003,0.04558,,,,,,,,,,,,,,,,,,,,,,,,,,0,0,0,0,0
1.2562,1783190800.2429,1,1,1.0000,-0.0002,1.44682,0.22967,-2.77841,0.97791,1.57080,0.00000,-0.14512,-0.38003,0.04558,,,,,,,,,,,,,,,,,,,,,,,,,,0,0,0,0,0
1.2699,1783190800.2566,1,1,1.0000,-0.0002,1.44682,0.22952,-2.77844,0.97809,1.57080,0.00000,-0.14512,-0.38003,0.04555,,,,,,,,,,,,,,,,,,,,,,,,,,0,0,0,0,0
1.2738,1783190800.2606,1,1,1.0000,-0.0002,1.44682,0.22945,-2.77846,0.97818,1.57080,0.00000,-0.14512,-0.38003,0.04553,,,,,,,,,,,,,,,,,,,,,,,,,,0,0,0,0,0
1.2838,1783190800.2705,1,1,1.0000,-0.0002,1.44682,0.22931,-2.77850,0.97835,1.57080,0.00000,-0.14512,-0.38003,0.04549,,,,,,,,,,,,,,,,,,,,,,,,,,0,0,0,0,0
1.2841,1783190800.2709,1,1,1.0000,-0.0002,1.44682,0.22931,-2.77850,0.97835,1.57080,0.00000,-0.14512,-0.38003,0.04549,,,,,,,,,,,,,,,,,,,,,,,,,,0,0,0,0,0
1.3078,1783190800.2945,1,1,1.0000,-0.0002,1.44682,0.22908,-2.77855,0.97864,1.57080,0.00000,-0.14512,-0.38003,0.04543,,,,,,,,,,,,,,,,,,,,,,,,,,0,0,0,0,0
1.3155,1783190800.3023,1,1,1.0000,-0.0002,1.44682,0.22907,-2.77856,0.97866,1.57080,0.00000,-0.14512,-0.38003,0.04543,,,,,,,,,,,,,,,,,,,,,,,,,,0,0,0,0,0
1.3159,1783190800.3027,1,1,1.0000,-0.0002,1.44682,0.22907,-2.77856,0.97866,1.57080,0.00000,-0.14512,-0.38003,0.04543,,,,,,,,,,,,,,,,,,,,,,,,,,0,0,0,0,0
1.3181,1783190800.3048,1,1,1.0000,-0.0002,1.44682,0.22907,-2.77856,0.97866,1.57080,0.00000,-0.14512,-0.38003,0.04543,,,,,,,,,,,,,,,,,,,,,,,,,,0,0,0,0,0
1.3185,1783190800.3052,1,1,1.0000,-0.0002,1.44682,0.22907,-2.77856,0.97866,1.57080,0.00000,-0.14512,-0.38003,0.04543,,,,,,,,,,,,,,,,,,,,,,,,,,0,0,0,0,0
1.3250,1783190800.3118,1,1,1.0000,-0.0002,1.44682,0.22899,-2.77858,0.97876,1.57080,0.00000,-0.14512,-0.38003,0.04541,,,,,,,,,,,,,,,,,,,,,,,,,,0,0,0,0,0
1.3367,1783190800.3234,1,1,1.0000,-0.0002,1.44682,0.22878,-2.77863,0.97902,1.57080,0.00000,-0.14512,-0.38003,0.04536,,,,,,,,,,,,,,,,,,,,,,,,,,0,0,0,0,0
1.3574,1783190800.3441,1,1,1.0000,-0.0002,1.44682,0.22865,-2.77867,0.97919,1.57080,0.00000,-0.14512,-0.38003,0.04532,,,,,,,,,,,,,,,,,,,,,,,,,,0,0,0,0,0
1.3597,1783190800.3465,1,1,1.0000,-0.0002,1.44682,0.22860,-2.77868,0.97925,1.57080,0.00000,-0.14512,-0.38003,0.04531,,,,,,,,,,,,,,,,,,,,,,,,,,0,0,0,0,0
1.3717,1783190800.3585,1,1,1.0000,-0.0002,1.44682,0.22849,-2.77871,0.97939,1.57080,0.00000,-0.14512,-0.38003,0.04528,,,,,,,,,,,,,,,,,,,,,,,,,,0,0,0,0,0
1.3754,1783190800.3622,1,1,1.0000,-0.0002,1.44682,0.22847,-2.77871,0.97940,1.57080,0.00000,-0.14512,-0.38003,0.04527,,,,,,,,,,,,,,,,,,,,,,,,,,0,0,0,0,0
1.3844,1783190800.3712,1,1,1.0000,-0.0002,1.44682,0.22839,-2.77873,0.97951,1.57080,0.00000,-0.14512,-0.38003,0.04525,,,,,,,,,,,,,,,,,,,,,,,,,,0,0,0,0,0
1.4058,1783190800.3926,1,1,1.0000,-0.0002,1.44682,0.22812,-2.77880,0.97985,1.57080,0.00000,-0.14512,-0.38003,0.04518,,,,,,,,,,,,,,,,,,,,,,,,,,0,0,0,0,0
1.4061,1783190800.3929,1,1,1.0000,-0.0002,1.44682,0.22812,-2.77880,0.97985,1.57080,0.00000,-0.14512,-0.38003,0.04518,,,,,,,,,,,,,,,,,,,,,,,,,,0,0,0,0,0
1.4074,1783190800.3941,1,1,1.0000,-0.0002,1.44682,0.22811,-2.77880,0.97986,1.57080,0.00000,-0.14512,-0.38003,0.04518,,,,,,,,,,,,,,,,,,,,,,,,,,0,0,0,0,0
1.4158,1783190800.4025,1,1,1.0000,-0.0002,1.44682,0.22805,-2.77882,0.97994,1.57080,0.00000,-0.14512,-0.38003,0.04516,,,,,,,,,,,,,,,,,,,,,,,,,,0,0,0,0,0
1.4257,1783190800.4125,1,1,1.0000,-0.0002,1.44682,0.22795,-2.77884,0.98006,1.57080,0.00000,-0.14512,-0.38003,0.04514,,,,,,,,,,,,,,,,,,,,,,,,,,0,0,0,0,0
1.4380,1783190800.4248,1,1,1.0000,-0.0002,1.44682,0.22788,-2.77886,0.98015,1.57080,0.00000,-0.14512,-0.38003,0.04512,,,,,,,,,,,,,,,,,,,,,,,,,,0,0,0,0,0
1.4436,1783190800.4304,1,1,1.0000,-0.0002,1.44682,0.22779,-2.77888,0.98026,1.57080,0.00000,-0.14512,-0.38003,0.04510,,,,,,,,,,,,,,,,,,,,,,,,,,0,0,0,0,0
1.4439,1783190800.4307,1,1,1.0000,-0.0002,1.44682,0.22779,-2.77888,0.98026,1.57080,0.00000,-0.14512,-0.38003,0.04510,,,,,,,,,,,,,,,,,,,,,,,,,,0,0,0,0,0
1.4597,1783190800.4464,1,1,1.0000,-0.0002,1.44682,0.22752,-2.77895,0.98060,1.57080,0.00000,-0.14512,-0.38003,0.04503,,,,,,,,,,,,,,,,,,,,,,,,,,0,0,0,0,0
1.4661,1783190800.4529,1,1,1.0000,-0.0002,1.44682,0.22752,-2.77895,0.98060,1.57080,0.00000,-0.14512,-0.38003,0.04503,,,,,,,,,,,,,,,,,,,,,,,,,,0,0,0,0,0
1.4740,1783190800.4607,1,1,1.0000,-0.0002,1.44682,0.22749,-2.77896,0.98064,1.57080,0.00000,-0.14512,-0.38003,0.04502,,,,,,,,,,,,,,,,,,,,,,,,,,0,0,0,0,0
1.4744,1783190800.4612,1,1,1.0000,-0.0002,1.44682,0.22749,-2.77896,0.98064,1.57080,0.00000,-0.14512,-0.38003,0.04502,,,,,,,,,,,,,,,,,,,,,,,,,,0,0,0,0,0
1.4838,1783190800.4705,1,1,1.0000,-0.0002,1.44682,0.22735,-2.77900,0.98081,1.57080,0.00000,-0.14512,-0.38003,0.04498,,,,,,,,,,,,,,,,,,,,,,,,,,0,0,0,0,0
1.4954,1783190800.4821,1,1,1.0000,-0.0002,1.44682,0.22728,-2.77901,0.98090,1.57080,0.00000,-0.14512,-0.38003,0.04496,,,,,,,,,,,,,,,,,,,,,,,,,,0,0,0,0,0
1.5060,1783190800.4928,1,1,1.0000,-0.0002,1.44682,0.22720,-2.77904,0.98101,1.57080,0.00000,-0.14512,-0.38003,0.04494,,,,,,,,,,,,,,,,,,,,,,,,,,0,0,0,0,0
1.5180,1783190800.5047,1,1,1.0000,-0.0002,1.44682,0.22699,-2.77909,0.98126,1.57080,0.00001,-0.14512,-0.38003,0.04489,,,,,,,,,,,,,,,,,,,,,,,,,,0,0,0,0,0
1.5239,1783190800.5106,1,1,1.0000,-0.0002,1.44682,0.22692,-2.77910,0.98135,1.57080,0.00001,-0.14512,-0.38003,0.04487,,,,,,,,,,,,,,,,,,,,,,,,,,0,0,0,0,0
1.5338,1783190800.5206,1,1,1.0000,-0.0002,1.44682,0.22689,-2.77911,0.98139,1.57080,0.00001,-0.14512,-0.38003,0.04486,,,,,,,,,,,,,,,,,,,,,,,,,,0,0,0,0,0
1.5343,1783190800.5210,1,1,1.0000,-0.0002,1.44682,0.22689,-2.77911,0.98139,1.57080,0.00001,-0.14512,-0.38003,0.04486,,,,,,,,,,,,,,,,,,,,,,,,,,0,0,0,0,0
1.5437,1783190800.5304,1,1,1.0000,-0.0002,1.44682,0.22675,-2.77915,0.98156,1.57080,0.00001,-0.14512,-0.38003,0.04483,,,,,,,,,,,,,,,,,,,,,,,,,,0,0,0,0,0
1.5440,1783190800.5308,1,1,1.0000,-0.0002,1.44682,0.22675,-2.77915,0.98156,1.57080,0.00001,-0.14512,-0.38003,0.04483,,,,,,,,,,,,,,,,,,,,,,,,,,0,0,0,0,0
1.5660,1783190800.5527,1,1,1.0000,-0.0002,1.44682,0.22660,-2.77919,0.98176,1.57080,0.00001,-0.14512,-0.38003,0.04479,,,,,,,,,,,,,,,,,,,,,,,,,,0,0,0,0,0
1.5664,1783190800.5531,1,1,1.0000,-0.0002,1.44682,0.22660,-2.77919,0.98176,1.57080,0.00001,-0.14512,-0.38003,0.04479,,,,,,,,,,,,,,,,,,,,,,,,,,0,0,0,0,0
1.5766,1783190800.5633,1,1,1.0000,-0.0002,1.44682,0.22639,-2.77924,0.98201,1.57080,0.00001,-0.14512,-0.38003,0.04473,,,,,,,,,,,,,,,,,,,,,,,,,,0,0,0,0,0
1.5770,1783190800.5637,1,1,1.0000,-0.0002,1.44682,0.22639,-2.77924,0.98201,1.57080,0.00001,-0.14512,-0.38003,0.04473,,,,,,,,,,,,,,,,,,,,,,,,,,0,0,0,0,0
1.5851,1783190800.5718,1,1,1.0000,-0.0002,1.44682,0.22632,-2.77926,0.98210,1.57080,0.00001,-0.14512,-0.38003,0.04472,,,,,,,,,,,,,,,,,,,,,,,,,,0,0,0,0,0
1.5855,1783190800.5722,1,1,1.0000,-0.0002,1.44682,0.22632,-2.77926,0.98210,1.57080,0.00001,-0.14512,-0.38003,0.04472,,,,,,,,,,,,,,,,,,,,,,,,,,0,0,0,0,0
1.5942,1783190800.5810,1,1,1.0000,-0.0002,1.44682,0.22629,-2.77926,0.98214,1.57080,0.00001,-0.14512,-0.38003,0.04471,,,,,,,,,,,,,,,,,,,,,,,,,,0,0,0,0,0
1.5945,1783190800.5813,1,1,1.0000,-0.0002,1.44682,0.22629,-2.77926,0.98214,1.57080,0.00001,-0.14512,-0.38003,0.04471,,,,,,,,,,,,,,,,,,,,,,,,,,0,0,0,0,0
1.6065,1783190800.5933,1,1,1.0000,-0.0002,1.44682,0.22616,-2.77930,0.98231,1.57080,0.00001,-0.14512,-0.38003,0.04467,,,,,,,,,,,,,,,,,,,,,,,,,,0,0,0,0,0
1.6216,1783190800.6083,1,1,1.0000,-0.0002,1.44682,0.22605,-2.77933,0.98244,1.57080,0.00001,-0.14512,-0.38003,0.04465,,,,,,,,,,,,,,,,,,,,,,,,,,0,0,0,0,0
1.6247,1783190800.6115,1,1,1.0000,-0.0002,1.44682,0.22600,-2.77934,0.98251,1.57080,0.00001,-0.14512,-0.38003,0.04463,,,,,,,,,,,,,,,,,,,,,,,,,,0,0,0,0,0
1.6341,1783190800.6208,1,1,1.0000,-0.0002,1.44682,0.22587,-2.77937,0.98267,1.57080,0.00001,-0.14512,-0.38003,0.04460,,,,,,,,,,,,,,,,,,,,,,,,,,0,0,0,0,0
1.6345,1783190800.6213,1,1,1.0000,-0.0002,1.44682,0.22587,-2.77937,0.98267,1.57080,0.00001,-0.14512,-0.38003,0.04460,,,,,,,,,,,,,,,,,,,,,,,,,,0,0,0,0,0
1.6442,1783190800.6309,1,1,1.0000,-0.0002,1.44682,0.22573,-2.77941,0.98285,1.57080,0.00001,-0.14512,-0.38003,0.04456,,,,,,,,,,,,,,,,,,,,,,,,,,0,0,0,0,0
1.6676,1783190800.6543,1,1,1.0000,-0.0002,1.44682,0.22550,-2.77947,0.98314,1.57080,0.00001,-0.14512,-0.38003,0.04450,,,,,,,,,,,,,,,,,,,,,,,,,,0,0,0,0,0
1.6679,1783190800.6546,1,1,1.0000,-0.0002,1.44682,0.22550,-2.77947,0.98314,1.57080,0.00001,-0.14512,-0.38003,0.04450,,,,,,,,,,,,,,,,,,,,,,,,,,0,0,0,0,0
1.6740,1783190800.6608,1,1,1.0000,-0.0002,1.44682,0.22550,-2.77947,0.98314,1.57080,0.00001,-0.14512,-0.38003,0.04450,,,,,,,,,,,,,,,,,,,,,,,,,,0,0,0,0,0
1.6840,1783190800.6707,1,1,1.0000,-0.0002,1.44682,0.22540,-2.77949,0.98326,1.57080,0.00001,-0.14512,-0.38002,0.04448,,,,,,,,,,,,,,,,,,,,,,,,,,0,0,0,0,0
1.6945,1783190800.6813,1,1,1.0000,-0.0002,1.44682,0.22527,-2.77952,0.98342,1.57080,0.00001,-0.14512,-0.38002,0.04444,,,,,,,,,,,,,,,,,,,,,,,,,,0,0,0,0,0
1.7104,1783190800.6971,1,1,1.0000,-0.0002,1.44682,0.22511,-2.77956,0.98362,1.57080,0.00001,-0.14512,-0.38002,0.04440,,,,,,,,,,,,,,,,,,,,,,,,,,0,0,0,0,0
1.7147,1783190800.7015,1,1,1.0000,-0.0002,1.44682,0.22508,-2.77957,0.98366,1.57080,0.00001,-0.14512,-0.38002,0.04440,,,,,,,,,,,,,,,,,,,,,,,,,,0,0,0,0,0
1.7155,1783190800.7023,1,1,1.0000,-0.0002,1.44682,0.22503,-2.77958,0.98372,1.57080,0.00001,-0.14512,-0.38002,0.04438,,,,,,,,,,,,,,,,,,,,,,,,,,0,0,0,0,0
1.7250,1783190800.7117,1,1,1.0000,-0.0002,1.44682,0.22490,-2.77962,0.98388,1.57080,0.00001,-0.14512,-0.38002,0.04435,,,,,,,,,,,,,,,,,,,,,,,,,,0,0,0,0,0
1.7351,1783190800.7219,1,1,1.0000,-0.0002,1.44682,0.22483,-2.77963,0.98397,1.57080,0.00001,-0.14512,-0.38002,0.04433,,,,,,,,,,,,,,,,,,,,,,,,,,0,0,0,0,0
1.7360,1783190800.7228,1,1,1.0000,-0.0002,1.44682,0.22482,-2.77964,0.98398,1.57080,0.00001,-0.14512,-0.38002,0.04433,,,,,,,,,,,,,,,,,,,,,,,,,,0,0,0,0,0
1.7480,1783190800.7347,1,1,1.0000,-0.0002,1.44682,0.22468,-2.77967,0.98416,1.57080,0.00001,-0.14512,-0.38002,0.04429,,,,,,,,,,,,,,,,,,,,,,,,,,0,0,0,0,0
1.7686,1783190800.7553,1,1,1.0000,-0.0002,1.44682,0.22446,-2.77973,0.98443,1.57080,0.00001,-0.14512,-0.38002,0.04423,,,,,,,,,,,,,,,,,,,,,,,,,,0,0,0,0,0
1.7754,1783190800.7621,1,1,1.0000,-0.0002,1.44682,0.22438,-2.77975,0.98454,1.57080,0.00001,-0.14512,-0.38002,0.04421,,,,,,,,,,,,,,,,,,,,,,,,,,0,0,0,0,0
1.7842,1783190800.7710,1,1,1.0000,-0.0002,1.44682,0.22425,-2.77978,0.98470,1.57080,0.00001,-0.14512,-0.38002,0.04418,,,,,,,,,,,,,,,,,,,,,,,,,,0,0,0,0,0
1.7939,1783190800.7807,1,1,1.0000,-0.0002,1.44682,0.22418,-2.77980,0.98479,1.57080,0.00001,-0.14512,-0.38002,0.04416,,,,,,,,,,,,,,,,,,,,,,,,,,0,0,0,0,0
1.8217,1783190800.8084,1,1,1.0000,-0.0002,1.44682,0.22382,-2.77989,0.98524,1.57080,0.00001,-0.14512,-0.38002,0.04407,,,,,,,,,,,,,,,,,,,,,,,,,,0,0,0,0,0
1.8246,1783190800.8114,1,1,1.0000,-0.0002,1.44682,0.22382,-2.77989,0.98524,1.57080,0.00001,-0.14512,-0.38002,0.04407,,,,,,,,,,,,,,,,,,,,,,,,,,0,0,0,0,0
1.8250,1783190800.8118,1,1,1.0000,-0.0002,1.44682,0.22382,-2.77989,0.98524,1.57080,0.00001,-0.14512,-0.38002,0.04407,,,,,,,,,,,,,,,,,,,,,,,,,,0,0,0,0,0
1.8343,1783190800.8210,1,1,1.0000,-0.0002,1.44682,0.22377,-2.77990,0.98529,1.57080,0.00001,-0.14512,-0.38002,0.04406,,,,,,,,,,,,,,,,,,,,,,,,,,0,0,0,0,0
1.8481,1783190800.8349,1,1,1.0000,-0.0002,1.44682,0.22352,-2.77996,0.98561,1.57080,0.00001,-0.14512,-0.38002,0.04399,,,,,,,,,,,,,,,,,,,,,,,,,,0,0,0,0,0
1.8486,1783190800.8353,1,1,1.0000,-0.0002,1.44682,0.22352,-2.77996,0.98561,1.57080,0.00001,-0.14512,-0.38002,0.04399,,,,,,,,,,,,,,,,,,,,,,,,,,0,0,0,0,0
1.8548,1783190800.8415,1,1,1.0000,-0.0002,1.44682,0.22352,-2.77996,0.98561,1.57080,0.00001,-0.14512,-0.38002,0.04399,,,,,,,,,,,,,,,,,,,,,,,,,,0,0,0,0,0
1.8640,1783190800.8507,1,1,1.0000,-0.0002,1.44682,0.22343,-2.77999,0.98572,1.57080,0.00001,-0.14512,-0.38002,0.04397,,,,,,,,,,,,,,,,,,,,,,,,,,0,0,0,0,0
1.8739,1783190800.8607,1,1,1.0000,-0.0002,1.44682,0.22330,-2.78002,0.98588,1.57080,0.00001,-0.14512,-0.38002,0.04394,,,,,,,,,,,,,,,,,,,,,,,,,,0,0,0,0,0
1.8851,1783190800.8718,1,1,1.0000,-0.0002,1.44682,0.22316,-2.78005,0.98606,1.57080,0.00001,-0.14512,-0.38002,0.04390,,,,,,,,,,,,,,,,,,,,,,,,,,0,0,0,0,0
1.8964,1783190800.8832,1,1,1.0000,-0.0002,1.44682,0.22307,-2.78008,0.98618,1.57080,0.00001,-0.14512,-0.38002,0.04388,,,,,,,,,,,,,,,,,,,,,,,,,,0,0,0,0,0
1.9088,1783190800.8955,1,1,1.0000,-0.0002,1.44682,0.22287,-2.78013,0.98643,1.57080,0.00001,-0.14512,-0.38002,0.04382,,,,,,,,,,,,,,,,,,,,,,,,,,0,0,0,0,0
1.9157,1783190800.9024,1,1,1.0000,-0.0002,1.44682,0.22280,-2.78014,0.98651,1.57080,0.00001,-0.14512,-0.38002,0.04381,,,,,,,,,,,,,,,,,,,,,,,,,,0,0,0,0,0
1.9276,1783190800.9143,1,1,1.0000,-0.0002,1.44681,0.22273,-2.78016,0.98660,1.57080,0.00001,-0.14512,-0.38002,0.04379,,,,,,,,,,,,,,,,,,,,,,,,,,0,0,0,0,0
1.9341,1783190800.9209,1,1,1.0000,-0.0002,1.44681,0.22268,-2.78017,0.98666,1.57080,0.00001,-0.14512,-0.38002,0.04378,,,,,,,,,,,,,,,,,,,,,,,,,,0,0,0,0,0
1.9440,1783190800.9307,1,1,1.0000,-0.0002,1.44681,0.22257,-2.78020,0.98680,1.57080,0.00001,-0.14512,-0.38002,0.04375,,,,,,,,,,,,,,,,,,,,,,,,,,0,0,0,0,0
1.9552,1783190800.9419,1,1,1.0000,-0.0002,1.44681,0.22247,-2.78023,0.98692,1.57080,0.00001,-0.14512,-0.38002,0.04372,,,,,,,,,,,,,,,,,,,,,,,,,,0,0,0,0,0
1.9554,1783190800.9421,1,1,1.0000,-0.0002,1.44681,0.22247,-2.78023,0.98692,1.57080,0.00001,-0.14512,-0.38002,0.04372,,,,,,,,,,,,,,,,,,,,,,,,,,0,0,0,0,0
1.9758,1783190800.9626,1,1,1.0000,-0.0002,1.44681,0.22220,-2.78030,0.98727,1.57080,0.00001,-0.14512,-0.38002,0.04365,,,,,,,,,,,,,,,,,,,,,,,,,,0,0,0,0,0
1.9864,1783190800.9731,1,1,1.0000,-0.0002,1.44681,0.22216,-2.78030,0.98731,1.57080,0.00001,-0.14512,-0.38002,0.04364,,,,,,,,,,,,,,,,,,,,,,,,,,0,0,0,0,0
1.9955,1783190800.9823,1,1,1.0000,-0.0002,1.44681,0.22203,-2.78034,0.98748,1.57080,0.00001,-0.14512,-0.38002,0.04361,,,,,,,,,,,,,,,,,,,,,,,,,,0,0,0,0,0
2.0037,1783190800.9905,1,1,1.0000,-0.0002,1.44681,0.22197,-2.78035,0.98755,1.57080,0.00001,-0.14512,-0.38002,0.04359,,,,,,,,,,,,,,,,,,,,,,,,,,0,0,0,0,0
2.0042,1783190800.9909,1,1,1.0000,-0.0002,1.44681,0.22197,-2.78035,0.98755,1.57080,0.00001,-0.14512,-0.38002,0.04359,,,,,,,,,,,,,,,,,,,,,,,,,,0,0,0,0,0
2.0167,1783190801.0035,1,1,1.0000,-0.0002,1.44681,0.22187,-2.78038,0.98768,1.57080,0.00001,-0.14512,-0.38002,0.04357,,,,,,,,,,,,,,,,,,,,,,,,,,0,0,0,0,0
2.0258,1783190801.0125,1,1,1.0000,-0.0002,1.44681,0.22174,-2.78041,0.98784,1.57080,0.00001,-0.14512,-0.38002,0.04353,,,,,,,,,,,,,,,,,,,,,,,,,,0,0,0,0,0
2.0341,1783190801.0209,1,1,1.0000,-0.0002,1.44681,0.22159,-2.78045,0.98802,1.57080,0.00001,-0.14512,-0.38002,0.04350,,,,,,,,,,,,,,,,,,,,,,,,,,0,0,0,0,0
2.0445,1783190801.0312,1,1,1.0000,-0.0002,1.44681,0.22156,-2.78045,0.98806,1.57080,0.00001,-0.14512,-0.38002,0.04349,,,,,,,,,,,,,,,,,,,,,,,,,,0,0,0,0,0
2.0541,1783190801.0408,1,1,1.0000,-0.0002,1.44681,0.22148,-2.78047,0.98816,1.57080,0.00001,-0.14512,-0.38002,0.04347,,,,,,,,,,,,,,,,,,,,,,,,,,0,0,0,0,0
2.0820,1783190801.0687,1,1,1.0000,-0.0002,1.44681,0.22120,-2.78054,0.98851,1.57080,0.00001,-0.14512,-0.38002,0.04339,,,,,,,,,,,,,,,,,,,,,,,,,,0,0,0,0,0
2.0888,1783190801.0755,1,1,1.0000,-0.0002,1.44681,0.22106,-2.78058,0.98869,1.57080,0.00001,-0.14512,-0.38002,0.04336,,,,,,,,,,,,,,,,,,,,,,,,,,0,0,0,0,0
2.0891,1783190801.0759,1,1,1.0000,-0.0002,1.44681,0.22106,-2.78058,0.98869,1.57080,0.00001,-0.14512,-0.38002,0.04336,,,,,,,,,,,,,,,,,,,,,,,,,,0,0,0,0,0
2.0955,1783190801.0822,1,1,1.0000,-0.0002,1.44681,0.22099,-2.78060,0.98877,1.57080,0.00001,-0.14512,-0.38002,0.04334,,,,,,,,,,,,,,,,,,,,,,,,,,0,0,0,0,0
2.1040,1783190801.0908,1,1,1.0000,-0.0002,1.44681,0.22096,-2.78060,0.98881,1.57080,0.00001,-0.14512,-0.38002,0.04333,,,,,,,,,,,,,,,,,,,,,,,,,,0,0,0,0,0
2.1197,1783190801.1065,1,1,1.0000,-0.0002,1.44681,0.22076,-2.78065,0.98906,1.57080,0.00001,-0.14512,-0.38002,0.04328,,,,,,,,,,,,,,,,,,,,,,,,,,0,0,0,0,0
2.1244,1783190801.1112,1,1,1.0000,-0.0002,1.44681,0.22076,-2.78065,0.98906,1.57080,0.00001,-0.14512,-0.38002,0.04328,,,,,,,,,,,,,,,,,,,,,,,,,,0,0,0,0,0
2.1357,1783190801.1224,1,1,1.0000,-0.0002,1.44681,0.22066,-2.78068,0.98918,1.57080,0.00001,-0.14512,-0.38002,0.04326,,,,,,,,,,,,,,,,,,,,,,,,,,0,0,0,0,0
2.1448,1783190801.1316,1,1,1.0000,-0.0002,1.44681,0.22053,-2.78071,0.98935,1.57080,0.00001,-0.14512,-0.38002,0.04322,,,,,,,,,,,,,,,,,,,,,,,,,,0,0,0,0,0
2.1548,1783190801.1415,1,1,1.0000,-0.0002,1.44681,0.22039,-2.78075,0.98953,1.57080,0.00001,-0.14512,-0.38002,0.04319,,,,,,,,,,,,,,,,,,,,,,,,,,0,0,0,0,0
2.1638,1783190801.1505,1,1,1.0000,-0.0002,1.44681,0.22035,-2.78075,0.98957,1.57080,0.00001,-0.14512,-0.38002,0.04318,,,,,,,,,,,,,,,,,,,,,,,,,,0,0,0,0,0
2.1642,1783190801.1509,1,1,1.0000,-0.0002,1.44681,0.22035,-2.78075,0.98957,1.57080,0.00001,-0.14512,-0.38002,0.04318,,,,,,,,,,,,,,,,,,,,,,,,,,0,0,0,0,0
2.1767,1783190801.1635,1,1,1.0000,-0.0002,1.44681,0.22022,-2.78079,0.98974,1.57080,0.00001,-0.14512,-0.38002,0.04314,,,,,,,,,,,,,,,,,,,,,,,,,,0,0,0,0,0
2.1852,1783190801.1720,1,1,1.0000,-0.0002,1.44681,0.22016,-2.78080,0.98981,1.57080,0.00001,-0.14512,-0.38002,0.04313,,,,,,,,,,,,,,,,,,,,,,,,,,0,0,0,0,0
2.1959,1783190801.1826,1,1,1.0000,-0.0002,1.44681,0.22006,-2.78083,0.98994,1.57080,0.00001,-0.14512,-0.38002,0.04310,,,,,,,,,,,,,,,,,,,,,,,,,,0,0,0,0,0
2.2047,1783190801.1915,1,1,1.0000,-0.0002,1.44681,0.21993,-2.78086,0.99010,1.57080,0.00001,-0.14512,-0.38002,0.04307,,,,,,,,,,,,,,,,,,,,,,,,,,0,0,0,0,0
2.2263,1783190801.2130,1,1,1.0000,-0.0002,1.44681,0.21974,-2.78091,0.99034,1.57080,0.00001,-0.14512,-0.38002,0.04302,,,,,,,,,,,,,,,,,,,,,,,,,,0,0,0,0,0
2.2268,1783190801.2135,1,1,1.0000,-0.0002,1.44681,0.21974,-2.78091,0.99034,1.57080,0.00001,-0.14512,-0.38002,0.04302,,,,,,,,,,,,,,,,,,,,,,,,,,0,0,0,0,0
2.2298,1783190801.2165,1,1,1.0000,-0.0002,1.44681,0.21969,-2.78092,0.99040,1.57080,0.00001,-0.14512,-0.38002,0.04301,,,,,,,,,,,,,,,,,,,,,,,,,,0,0,0,0,0
2.2346,1783190801.2213,1,1,1.0000,-0.0002,1.44681,0.21963,-2.78094,0.99048,1.57080,0.00001,-0.14512,-0.38002,0.04299,,,,,,,,,,,,,,,,,,,,,,,,,,0,0,0,0,0
2.2458,1783190801.2325,1,1,1.0000,-0.0002,1.44681,0.21949,-2.78097,0.99065,1.57080,0.00001,-0.14512,-0.38002,0.04295,,,,,,,,,,,,,,,,,,,,,,,,,,0,0,0,0,0
2.2565,1783190801.2433,1,1,1.0000,-0.0002,1.44681,0.21939,-2.78099,0.99077,1.57080,0.00001,-0.14512,-0.38002,0.04293,,,,,,,,,,,,,,,,,,,,,,,,,,0,0,0,0,0
2.2641,1783190801.2509,1,1,1.0000,-0.0002,1.44681,0.21926,-2.78103,0.99093,1.57080,0.00001,-0.14512,-0.38002,0.04290,,,,,,,,,,,,,,,,,,,,,,,,,,0,0,0,0,0
2.2804,1783190801.2672,1,1,1.0000,-0.0002,1.44681,0.21911,-2.78106,0.99112,1.57080,0.00001,-0.14512,-0.38002,0.04286,,,,,,,,,,,,,,,,,,,,,,,,,,0,0,0,0,0
2.2856,1783190801.2724,1,1,1.0000,-0.0002,1.44681,0.21908,-2.78107,0.99116,1.57080,0.00001,-0.14512,-0.38002,0.04285,,,,,,,,,,,,,,,,,,,,,,,,,,0,0,0,0,0
2.2859,1783190801.2727,1,1,1.0000,-0.0002,1.44681,0.21908,-2.78107,0.99116,1.57080,0.00001,-0.14512,-0.38002,0.04285,,,,,,,,,,,,,,,,,,,,,,,,,,0,0,0,0,0
2.2937,1783190801.2805,1,1,1.0000,-0.0002,1.44681,0.21897,-2.78110,0.99130,1.57080,0.00001,-0.14512,-0.38002,0.04282,,,,,,,,,,,,,,,,,,,,,,,,,,0,0,0,0,0
2.2940,1783190801.2808,1,1,1.0000,-0.0002,1.44681,0.21897,-2.78110,0.99130,1.57080,0.00001,-0.14512,-0.38002,0.04282,,,,,,,,,,,,,,,,,,,,,,,,,,0,0,0,0,0
2.3056,1783190801.2923,1,1,1.0000,-0.0002,1.44681,0.21883,-2.78113,0.99147,1.57080,0.00001,-0.14512,-0.38002,0.04279,,,,,,,,,,,,,,,,,,,,,,,,,,0,0,0,0,0
2.3059,1783190801.2927,1,1,1.0000,-0.0002,1.44681,0.21883,-2.78113,0.99147,1.57080,0.00001,-0.14512,-0.38002,0.04279,,,,,,,,,,,,,,,,,,,,,,,,,,0,0,0,0,0
2.3142,1783190801.3009,1,1,1.0000,-0.0002,1.44681,0.21878,-2.78114,0.99153,1.57080,0.00001,-0.14512,-0.38002,0.04277,,,,,,,,,,,,,,,,,,,,,,,,,,0,0,0,0,0
2.3145,1783190801.3013,1,1,1.0000,-0.0002,1.44681,0.21878,-2.78114,0.99153,1.57080,0.00001,-0.14512,-0.38002,0.04277,,,,,,,,,,,,,,,,,,,,,,,,,,0,0,0,0,0
2.3280,1783190801.3148,1,1,1.0000,-0.0002,1.44681,0.21853,-2.78121,0.99184,1.57080,0.00001,-0.14512,-0.38002,0.04271,,,,,,,,,,,,,,,,,,,,,,,,,,0,0,0,0,0
2.3410,1783190801.3278,1,1,1.0000,-0.0002,1.44681,0.21845,-2.78123,0.99194,1.57080,0.00001,-0.14512,-0.38002,0.04269,,,,,,,,,,,,,,,,,,,,,,,,,,0,0,0,0,0
2.3483,1783190801.3351,1,1,1.0000,-0.0002,1.44681,0.21837,-2.78125,0.99204,1.57080,0.00001,-0.14512,-0.38002,0.04267,,,,,,,,,,,,,,,,,,,,,,,,,,0,0,0,0,0
2.3626,1783190801.3494,1,1,1.0000,-0.0002,1.44681,0.21817,-2.78130,0.99230,1.57080,0.00001,-0.14512,-0.38002,0.04262,,,,,,,,,,,,,,,,,,,,,,,,,,0,0,0,0,0
2.3758,1783190801.3626,1,1,1.0000,-0.0002,1.44681,0.21807,-2.78132,0.99241,1.57080,0.00001,-0.14512,-0.38002,0.04259,,,,,,,,,,,,,,,,,,,,,,,,,,0,0,0,0,0
2.3822,1783190801.3689,1,1,1.0000,-0.0002,1.44681,0.21801,-2.78134,0.99249,1.57080,0.00001,-0.14512,-0.38002,0.04258,,,,,,,,,,,,,,,,,,,,,,,,,,0,0,0,0,0
2.3899,1783190801.3766,1,1,1.0000,-0.0002,1.44681,0.21787,-2.78137,0.99266,1.57080,0.00001,-0.14512,-0.38002,0.04254,,,,,,,,,,,,,,,,,,,,,,,,,,0,0,0,0,0
2.3902,1783190801.3769,1,1,1.0000,-0.0002,1.44681,0.21787,-2.78137,0.99266,1.57080,0.00001,-0.14512,-0.38002,0.04254,,,,,,,,,,,,,,,,,,,,,,,,,,0,0,0,0,0
2.3985,1783190801.3852,1,1,1.0000,-0.0002,1.44681,0.21780,-2.78139,0.99275,1.57080,0.00001,-0.14512,-0.38002,0.04252,,,,,,,,,,,,,,,,,,,,,,,,,,0,0,0,0,0
2.4112,1783190801.3980,1,1,1.0000,-0.0002,1.44681,0.21765,-2.78143,0.99294,1.57080,0.00001,-0.14512,-0.38002,0.04248,,,,,,,,,,,,,,,,,,,,,,,,,,0,0,0,0,0
2.4115,1783190801.3983,1,1,1.0000,-0.0002,1.44681,0.21765,-2.78143,0.99294,1.57080,0.00001,-0.14512,-0.38002,0.04248,,,,,,,,,,,,,,,,,,,,,,,,,,0,0,0,0,0
2.4263,1783190801.4131,1,1,1.0000,-0.0002,1.44681,0.21744,-2.78148,0.99321,1.57080,0.00001,-0.14512,-0.38002,0.04243,,,,,,,,,,,,,,,,,,,,,,,,,,0,0,0,0,0
2.4318,1783190801.4185,1,1,1.0000,-0.0002,1.44681,0.21743,-2.78148,0.99322,1.57080,0.00001,-0.14512,-0.38002,0.04243,,,,,,,,,,,,,,,,,,,,,,,,,,0,0,0,0,0
2.4394,1783190801.4262,1,1,1.0000,-0.0002,1.44681,0.21737,-2.78149,0.99329,1.57080,0.00001,-0.14512,-0.38002,0.04241,,,,,,,,,,,,,,,,,,,,,,,,,,0,0,0,0,0
2.4480,1783190801.4347,1,1,1.0000,-0.0002,1.44681,0.21727,-2.78152,0.99342,1.57080,0.00001,-0.14512,-0.38002,0.04239,,,,,,,,,,,,,,,,,,,,,,,,,,0,0,0,0,0
2.4628,1783190801.4495,1,1,1.0000,-0.0002,1.44681,0.21719,-2.78154,0.99351,1.57080,0.00001,-0.14512,-0.38002,0.04237,,,,,,,,,,,,,,,,,,,,,,,,,,0,0,0,0,0
2.4634,1783190801.4502,1,1,1.0000,-0.0002,1.44681,0.21716,-2.78155,0.99356,1.57080,0.00001,-0.14512,-0.38002,0.04236,,,,,,,,,,,,,,,,,,,,,,,,,,0,0,0,0,0
2.4680,1783190801.4548,1,1,1.0000,-0.0002,1.44681,0.21711,-2.78156,0.99362,1.57080,0.00001,-0.14512,-0.38002,0.04234,,,,,,,,,,,,,,,,,,,,,,,,,,0,0,0,0,0
2.4683,1783190801.4550,1,1,1.0000,-0.0002,1.44681,0.21711,-2.78156,0.99362,1.57080,0.00001,-0.14512,-0.38002,0.04234,,,,,,,,,,,,,,,,,,,,,,,,,,0,0,0,0,0
2.4836,1783190801.4703,1,1,1.0000,-0.0002,1.44681,0.21683,-2.78163,0.99396,1.57080,0.00001,-0.14512,-0.38002,0.04227,,,,,,,,,,,,,,,,,,,,,,,,,,0,0,0,0,0
2.4840,1783190801.4708,1,1,1.0000,-0.0002,1.44681,0.21683,-2.78163,0.99396,1.57080,0.00001,-0.14512,-0.38002,0.04227,,,,,,,,,,,,,,,,,,,,,,,,,,0,0,0,0,0
2.4901,1783190801.4768,1,1,1.0000,-0.0002,1.44681,0.21683,-2.78163,0.99396,1.57080,0.00001,-0.14512,-0.38002,0.04227,,,,,,,,,,,,,,,,,,,,,,,,,,0,0,0,0,0
2.5145,1783190801.5012,1,1,1.0000,-0.0002,1.44681,0.21660,-2.78168,0.99425,1.57080,0.00001,-0.14512,-0.38002,0.04222,,,,,,,,,,,,,,,,,,,,,,,,,,0,0,0,0,0
2.5155,1783190801.5022,1,1,1.0000,-0.0002,1.44681,0.21660,-2.78168,0.99425,1.57080,0.00001,-0.14512,-0.38002,0.04222,,,,,,,,,,,,,,,,,,,,,,,,,,0,0,0,0,0
2.5201,1783190801.5069,1,1,1.0000,-0.0002,1.44681,0.21659,-2.78169,0.99427,1.57080,0.00001,-0.14512,-0.38002,0.04221,,,,,,,,,,,,,,,,,,,,,,,,,,0,0,0,0,0
2.5341,1783190801.5208,1,1,1.0000,-0.0002,1.44681,0.21644,-2.78172,0.99445,1.57080,0.00001,-0.14512,-0.38002,0.04217,,,,,,,,,,,,,,,,,,,,,,,,,,0,0,0,0,0
2.5346,1783190801.5213,1,1,1.0000,-0.0002,1.44681,0.21644,-2.78172,0.99445,1.57080,0.00001,-0.14512,-0.38002,0.04217,,,,,,,,,,,,,,,,,,,,,,,,,,0,0,0,0,0
2.5381,1783190801.5249,1,1,1.0000,-0.0002,1.44681,0.21637,-2.78174,0.99454,1.57080,0.00001,-0.14512,-0.38002,0.04216,,,,,,,,,,,,,,,,,,,,,,,,,,0,0,0,0,0
2.5505,1783190801.5372,1,1,1.0000,-0.0002,1.44681,0.21622,-2.78178,0.99472,1.57080,0.00001,-0.14512,-0.38002,0.04212,,,,,,,,,,,,,,,,,,,,,,,,,,0,0,0,0,0
2.5514,1783190801.5381,1,1,1.0000,-0.0002,1.44681,0.21621,-2.78178,0.99473,1.57080,0.00001,-0.14512,-0.38002,0.04212,,,,,,,,,,,,,,,,,,,,,,,,,,0,0,0,0,0
2.5616,1783190801.5483,1,1,1.0000,-0.0002,1.44681,0.21615,-2.78179,0.99481,1.57080,0.00001,-0.14512,-0.38002,0.04210,,,,,,,,,,,,,,,,,,,,,,,,,,0,0,0,0,0
2.5713,1783190801.5581,1,1,1.0000,-0.0002,1.44681,0.21599,-2.78183,0.99501,1.57080,0.00001,-0.14512,-0.38002,0.04206,,,,,,,,,,,,,,,,,,,,,,,,,,0,0,0,0,0
2.5924,1783190801.5791,1,1,1.0000,-0.0002,1.44681,0.21583,-2.78187,0.99521,1.57080,0.00001,-0.14512,-0.38002,0.04202,,,,,,,,,,,,,,,,,,,,,,,,,,0,0,0,0,0
2.5926,1783190801.5794,1,1,1.0000,-0.0002,1.44681,0.21583,-2.78187,0.99521,1.57080,0.00001,-0.14512,-0.38002,0.04202,,,,,,,,,,,,,,,,,,,,,,,,,,0,0,0,0,0
2.5930,1783190801.5798,1,1,1.0000,-0.0002,1.44681,0.21583,-2.78187,0.99521,1.57080,0.00001,-0.14512,-0.38002,0.04202,,,,,,,,,,,,,,,,,,,,,,,,,,0,0,0,0,0
2.6005,1783190801.5873,1,1,1.0000,-0.0002,1.44681,0.21568,-2.78191,0.99539,1.57080,0.00001,-0.14512,-0.38002,0.04198,,,,,,,,,,,,,,,,,,,,,,,,,,0,0,0,0,0
2.6008,1783190801.5876,1,1,1.0000,-0.0002,1.44681,0.21568,-2.78191,0.99539,1.57080,0.00001,-0.14512,-0.38002,0.04198,,,,,,,,,,,,,,,,,,,,,,,,,,0,0,0,0,0
2.6082,1783190801.5949,1,1,1.0000,-0.0002,1.44681,0.21561,-2.78193,0.99548,1.57080,0.00001,-0.14512,-0.38002,0.04196,,,,,,,,,,,,,,,,,,,,,,,,,,0,0,0,0,0
2.6214,1783190801.6081,1,1,1.0000,-0.0002,1.44681,0.21555,-2.78194,0.99556,1.57080,0.00001,-0.14512,-0.38002,0.04195,,,,,,,,,,,,,,,,,,,,,,,,,,0,0,0,0,0
2.6314,1783190801.6181,1,1,1.0000,-0.0002,1.44681,0.21538,-2.78198,0.99577,1.57080,0.00001,-0.14512,-0.38002,0.04190,,,,,,,,,,,,,,,,,,,,,,,,,,0,0,0,0,0
2.6316,1783190801.6184,1,1,1.0000,-0.0002,1.44681,0.21538,-2.78198,0.99577,1.57080,0.00001,-0.14512,-0.38002,0.04190,,,,,,,,,,,,,,,,,,,,,,,,,,0,0,0,0,0
2.6394,1783190801.6261,1,1,1.0000,-0.0002,1.44681,0.21537,-2.78199,0.99578,1.57080,0.00001,-0.14512,-0.38002,0.04190,,,,,,,,,,,,,,,,,,,,,,,,,,0,0,0,0,0
2.6397,1783190801.6264,1,1,1.0000,-0.0002,1.44681,0.21537,-2.78199,0.99578,1.57080,0.00001,-0.14512,-0.38002,0.04190,,,,,,,,,,,,,,,,,,,,,,,,,,0,0,0,0,0
2.6499,1783190801.6367,1,1,1.0000,-0.0002,1.44681,0.21528,-2.78201,0.99589,1.57080,0.00001,-0.14512,-0.38002,0.04188,,,,,,,,,,,,,,,,,,,,,,,,,,0,0,0,0,0
2.6688,1783190801.6556,1,1,1.0000,-0.0002,1.44681,0.21501,-2.78207,0.99623,1.57080,0.00001,-0.14512,-0.38002,0.04181,,,,,,,,,,,,,,,,,,,,,,,,,,0,0,0,0,0
2.6738,1783190801.6606,1,1,1.0000,-0.0002,1.44681,0.21499,-2.78208,0.99625,1.57080,0.00001,-0.14512,-0.38002,0.04181,,,,,,,,,,,,,,,,,,,,,,,,,,0,0,0,0,0
2.6825,1783190801.6692,1,1,1.0000,-0.0002,1.44681,0.21491,-2.78210,0.99635,1.57080,0.00001,-0.14512,-0.38002,0.04178,,,,,,,,,,,,,,,,,,,,,,,,,,0,0,0,0,0
2.6908,1783190801.6776,1,1,1.0000,-0.0002,1.44681,0.21478,-2.78213,0.99652,1.57080,0.00001,-0.14512,-0.38002,0.04175,,,,,,,,,,,,,,,,,,,,,,,,,,0,0,0,0,0
2.6914,1783190801.6781,1,1,1.0000,-0.0002,1.44681,0.21471,-2.78215,0.99660,1.57080,0.00001,-0.14512,-0.38002,0.04173,,,,,,,,,,,,,,,,,,,,,,,,,,0,0,0,0,0
2.6993,1783190801.6860,1,1,1.0000,-0.0002,1.44681,0.21470,-2.78215,0.99662,1.57080,0.00001,-0.14512,-0.38002,0.04173,,,,,,,,,,,,,,,,,,,,,,,,,,0,0,0,0,0
2.7082,1783190801.6949,1,1,1.0000,-0.0002,1.44681,0.21461,-2.78217,0.99672,1.57080,0.00001,-0.14512,-0.38002,0.04171,,,,,,,,,,,,,,,,,,,,,,,,,,0,0,0,0,0
2.7186,1783190801.7054,1,1,1.0000,-0.0002,1.44681,0.21448,-2.78220,0.99688,1.57080,0.00002,-0.14512,-0.38002,0.04168,,,,,,,,,,,,,,,,,,,,,,,,,,0,0,0,0,0
2.7193,1783190801.7060,1,1,1.0000,-0.0002,1.44681,0.21441,-2.78222,0.99697,1.57080,0.00002,-0.14512,-0.38002,0.04166,,,,,,,,,,,,,,,,,,,,,,,,,,0,0,0,0,0
2.7327,1783190801.7194,1,1,1.0000,-0.0002,1.44681,0.21433,-2.78224,0.99707,1.57080,0.00002,-0.14512,-0.38002,0.04164,,,,,,,,,,,,,,,,,,,,,,,,,,0,0,0,0,0
2.7395,1783190801.7262,1,1,1.0000,-0.0002,1.44681,0.21425,-2.78226,0.99718,1.57080,0.00002,-0.14512,-0.38002,0.04162,,,,,,,,,,,,,,,,,,,,,,,,,,0,0,0,0,0
2.7398,1783190801.7266,1,1,1.0000,-0.0002,1.44681,0.21425,-2.78226,0.99718,1.57080,0.00002,-0.14512,-0.38002,0.04162,,,,,,,,,,,,,,,,,,,,,,,,,,0,0,0,0,0
2.7499,1783190801.7367,1,1,1.0000,-0.0002,1.44681,0.21412,-2.78229,0.99734,1.57080,0.00002,-0.14512,-0.38002,0.04158,,,,,,,,,,,,,,,,,,,,,,,,,,0,0,0,0,0
2.7625,1783190801.7492,1,1,1.0000,-0.0002,1.44681,0.21403,-2.78231,0.99745,1.57080,0.00002,-0.14512,-0.38002,0.04156,,,,,,,,,,,,,,,,,,,,,,,,,,0,0,0,0,0
2.7681,1783190801.7548,1,1,1.0000,-0.0002,1.44681,0.21395,-2.78233,0.99755,1.57080,0.00002,-0.14512,-0.38002,0.04154,,,,,,,,,,,,,,,,,,,,,,,,,,0,0,0,0,0
2.7684,1783190801.7551,1,1,1.0000,-0.0002,1.44681,0.21395,-2.78233,0.99755,1.57080,0.00002,-0.14512,-0.38002,0.04154,,,,,,,,,,,,,,,,,,,,,,,,,,0,0,0,0,0
2.7948,1783190801.7815,1,1,1.0000,-0.0002,1.44681,0.21367,-2.78240,0.99790,1.57080,0.00002,-0.14512,-0.38002,0.04147,,,,,,,,,,,,,,,,,,,,,,,,,,0,0,0,0,0
2.7957,1783190801.7824,1,1,1.0000,-0.0002,1.44681,0.21363,-2.78241,0.99794,1.57080,0.00002,-0.14512,-0.38002,0.04146,,,,,,,,,,,,,,,,,,,,,,,,,,0,0,0,0,0
2.8003,1783190801.7871,1,1,1.0000,-0.0002,1.44681,0.21358,-2.78242,0.99801,1.57080,0.00002,-0.14512,-0.38002,0.04145,,,,,,,,,,,,,,,,,,,,,,,,,,0,0,0,0,0
2.8096,1783190801.7963,1,1,1.0000,-0.0002,1.44681,0.21345,-2.78245,0.99817,1.57080,0.00002,-0.14512,-0.38002,0.04141,,,,,,,,,,,,,,,,,,,,,,,,,,0,0,0,0,0
2.8215,1783190801.8083,1,1,1.0000,-0.0002,1.44681,0.21337,-2.78247,0.99827,1.57080,0.00002,-0.14512,-0.38002,0.04139,,,,,,,,,,,,,,,,,,,,,,,,,,0,0,0,0,0
2.8218,1783190801.8086,1,1,1.0000,-0.0002,1.44681,0.21337,-2.78247,0.99827,1.57080,0.00002,-0.14512,-0.38002,0.04139,,,,,,,,,,,,,,,,,,,,,,,,,,0,0,0,0,0
2.8286,1783190801.8154,1,1,1.0000,-0.0002,1.44681,0.21328,-2.78250,0.99838,1.57080,0.00002,-0.14512,-0.38002,0.04137,,,,,,,,,,,,,,,,,,,,,,,,,,0,0,0,0,0
2.8395,1783190801.8262,1,1,1.0000,-0.0002,1.44681,0.21308,-2.78254,0.99863,1.57080,0.00002,-0.14512,-0.38002,0.04132,,,,,,,,,,,,,,,,,,,,,,,,,,0,0,0,0,0
2.8491,1783190801.8359,1,1,1.0000,-0.0002,1.44681,0.21301,-2.78256,0.99871,1.57080,0.00002,-0.14512,-0.38002,0.04130,,,,,,,,,,,,,,,,,,,,,,,,,,0,0,0,0,0
2.8628,1783190801.8496,1,1,1.0000,-0.0002,1.44681,0.21292,-2.78258,0.99883,1.57080,0.00002,-0.14512,-0.38002,0.04128,,,,,,,,,,,,,,,,,,,,,,,,,,0,0,0,0,0
2.8729,1783190801.8597,1,1,1.0000,-0.0002,1.44681,0.21271,-2.78263,0.99909,1.57080,0.00002,-0.14512,-0.38002,0.04123,,,,,,,,,,,,,,,,,,,,,,,,,,0,0,0,0,0
2.8732,1783190801.8600,1,1,1.0000,-0.0002,1.44681,0.21271,-2.78263,0.99909,1.57080,0.00002,-0.14512,-0.38002,0.04123,,,,,,,,,,,,,,,,,,,,,,,,,,0,0,0,0,0
2.8802,1783190801.8670,1,1,1.0000,-0.0002,1.44681,0.21264,-2.78265,0.99917,1.57080,0.00002,-0.14512,-0.38002,0.04121,,,,,,,,,,,,,,,,,,,,,,,,,,0,0,0,0,0
2.8930,1783190801.8798,1,1,1.0000,-0.0002,1.44681,0.21257,-2.78267,0.99926,1.57080,0.00002,-0.14512,-0.38002,0.04119,,,,,,,,,,,,,,,,,,,,,,,,,,0,0,0,0,0
2.8986,1783190801.8853,1,1,1.0000,-0.0002,1.44681,0.21253,-2.78268,0.99932,1.57080,0.00002,-0.14512,-0.38002,0.04118,,,,,,,,,,,,,,,,,,,,,,,,,,0,0,0,0,0
2.8992,1783190801.8860,1,1,1.0000,-0.0002,1.44681,0.21247,-2.78269,0.99939,1.57080,0.00002,-0.14512,-0.38002,0.04116,,,,,,,,,,,,,,,,,,,,,,,,,,0,0,0,0,0
2.9118,1783190801.8986,1,1,1.0000,-0.0002,1.44681,0.21240,-2.78271,0.99948,1.57080,0.00002,-0.14512,-0.38002,0.04115,,,,,,,,,,,,,,,,,,,,,,,,,,0,0,0,0,0
2.9204,1783190801.9072,1,1,1.0000,-0.0002,1.44681,0.21231,-2.78273,0.99959,1.57080,0.00002,-0.14512,-0.38002,0.04112,,,,,,,,,,,,,,,,,,,,,,,,,,0,0,0,0,0
2.9285,1783190801.9153,1,1,1.0000,-0.0002,1.44681,0.21218,-2.78276,0.99975,1.57080,0.00002,-0.14512,-0.38002,0.04109,,,,,,,,,,,,,,,,,,,,,,,,,,0,0,0,0,0
2.9397,1783190801.9264,1,1,1.0000,-0.0002,1.44681,0.21203,-2.78280,0.99993,1.57080,0.00002,-0.14512,-0.38002,0.04105,,,,,,,,,,,,,,,,,,,,,,,,,,0,0,0,0,0
2.9499,1783190801.9367,1,1,1.0000,-0.0002,1.44681,0.21200,-2.78281,0.99997,1.57080,0.00002,-0.14512,-0.38002,0.04104,,,,,,,,,,,,,,,,,,,,,,,,,,0,0,0,0,0
2.9503,1783190801.9370,1,1,1.0000,-0.0002,1.44681,0.21200,-2.78281,0.99997,1.57080,0.00002,-0.14512,-0.38002,0.04104,,,,,,,,,,,,,,,,,,,,,,,,,,0,0,0,0,0
2.9594,1783190801.9461,1,1,1.0000,-0.0002,1.44681,0.21186,-2.78284,1.00015,1.57080,0.00002,-0.14512,-0.38002,0.04101,,,,,,,,,,,,,,,,,,,,,,,,,,0,0,0,0,0
2.9704,1783190801.9571,1,1,1.0000,-0.0002,1.44681,0.21180,-2.78286,1.00022,1.57080,0.00002,-0.14512,-0.38002,0.04099,,,,,,,,,,,,,,,,,,,,,,,,,,0,0,0,0,0
2.9793,1783190801.9661,1,1,1.0000,-0.0002,1.44681,0.21170,-2.78288,1.00035,1.57080,0.00002,-0.14512,-0.38002,0.04097,,,,,,,,,,,,,,,,,,,,,,,,,,0,0,0,0,0
2.9796,1783190801.9664,1,1,1.0000,-0.0002,1.44681,0.21170,-2.78288,1.00035,1.57080,0.00002,-0.14512,-0.38002,0.04097,,,,,,,,,,,,,,,,,,,,,,,,,,0,0,0,0,0
2.9900,1783190801.9767,1,1,1.0000,-0.0002,1.44681,0.21156,-2.78291,1.00051,1.57080,0.00002,-0.14512,-0.38002,0.04093,,,,,,,,,,,,,,,,,,,,,,,,,,0,0,0,0,0
2.9985,1783190801.9852,1,1,1.0000,-0.0002,1.44681,0.21142,-2.78295,1.00069,1.57080,0.00002,-0.14512,-0.38002,0.04090,,,,,,,,,,,,,,,,,,,,,,,,,,0,0,0,0,0
3.0117,1783190801.9984,1,1,1.0000,-0.0002,1.44681,0.21135,-2.78296,1.00078,1.57080,0.00002,-0.14512,-0.38002,0.04088,,,,,,,,,,,,,,,,,,,,,,,,,,0,0,0,0,0
3.0212,1783190802.0079,1,1,1.0000,-0.0002,1.44681,0.21125,-2.78299,1.00091,1.57080,0.00002,-0.14512,-0.38002,0.04085,,,,,,,,,,,,,,,,,,,,,,,,,,0,0,0,0,0
3.0217,1783190802.0084,1,1,1.0000,-0.0002,1.44681,0.21125,-2.78299,1.00091,1.57080,0.00002,-0.14512,-0.38002,0.04085,,,,,,,,,,,,,,,,,,,,,,,,,,0,0,0,0,0
3.0303,1783190802.0170,1,1,1.0000,-0.0002,1.44681,0.21119,-2.78300,1.00098,1.57080,0.00002,-0.14512,-0.38002,0.04084,,,,,,,,,,,,,,,,,,,,,,,,,,0,0,0,0,0
3.0441,1783190802.0309,1,1,1.0000,-0.0002,1.44681,0.21102,-2.78304,1.00119,1.57080,0.00002,-0.14512,-0.38002,0.04080,,,,,,,,,,,,,,,,,,,,,,,,,,0,0,0,0,0
3.0501,1783190802.0369,1,1,1.0000,-0.0002,1.44681,0.21095,-2.78306,1.00127,1.57080,0.00002,-0.14512,-0.38002,0.04078,,,,,,,,,,,,,,,,,,,,,,,,,,0,0,0,0,0
3.0620,1783190802.0488,1,1,1.0000,-0.0002,1.44681,0.21081,-2.78310,1.00145,1.57080,0.00002,-0.14512,-0.38002,0.04074,,,,,,,,,,,,,,,,,,,,,,,,,,0,0,0,0,0
3.0681,1783190802.0548,1,1,1.0000,-0.0002,1.44681,0.21078,-2.78310,1.00149,1.57080,0.00002,-0.14512,-0.38002,0.04073,,,,,,,,,,,,,,,,,,,,,,,,,,0,0,0,0,0
3.0684,1783190802.0551,1,1,1.0000,-0.0002,1.44681,0.21078,-2.78310,1.00149,1.57080,0.00002,-0.14512,-0.38002,0.04073,,,,,,,,,,,,,,,,,,,,,,,,,,0,0,0,0,0
3.0815,1783190802.0682,1,1,1.0000,-0.0002,1.44681,0.21064,-2.78314,1.00167,1.57080,0.00002,-0.14512,-0.38002,0.04070,,,,,,,,,,,,,,,,,,,,,,,,,,0,0,0,0,0
3.0997,1783190802.0864,1,1,1.0000,-0.0002,1.44681,0.21048,-2.78318,1.00187,1.57080,0.00002,-0.14512,-0.38002,0.04066,,,,,,,,,,,,,,,,,,,,,,,,,,0,0,0,0,0
3.1001,1783190802.0868,1,1,1.0000,-0.0002,1.44681,0.21048,-2.78318,1.00187,1.57080,0.00002,-0.14512,-0.38002,0.04066,,,,,,,,,,,,,,,,,,,,,,,,,,0,0,0,0,0
3.1003,1783190802.0870,1,1,1.0000,-0.0002,1.44681,0.21048,-2.78318,1.00187,1.57080,0.00002,-0.14512,-0.38002,0.04066,,,,,,,,,,,,,,,,,,,,,,,,,,0,0,0,0,0
3.1081,1783190802.0949,1,1,1.0000,-0.0002,1.44681,0.21034,-2.78321,1.00203,1.57080,0.00002,-0.14512,-0.38002,0.04062,,,,,,,,,,,,,,,,,,,,,,,,,,0,0,0,0,0
3.1206,1783190802.1074,1,1,1.0000,-0.0002,1.44681,0.21020,-2.78324,1.00221,1.57080,0.00002,-0.14512,-0.38002,0.04059,,,,,,,,,,,,,,,,,,,,,,,,,,0,0,0,0,0
3.1290,1783190802.1158,1,1,1.0000,-0.0002,1.44681,0.21016,-2.78325,1.00225,1.57080,0.00002,-0.14512,-0.38002,0.04058,,,,,,,,,,,,,,,,,,,,,,,,,,0,0,0,0,0
3.1421,1783190802.1289,1,1,1.0000,-0.0002,1.44681,0.21002,-2.78329,1.00243,1.57080,0.00002,-0.14512,-0.38002,0.04054,,,,,,,,,,,,,,,,,,,,,,,,,,0,0,0,0,0
3.1425,1783190802.1292,1,1,1.0000,-0.0002,1.44681,0.21002,-2.78329,1.00243,1.57080,0.00002,-0.14512,-0.38002,0.04054,,,,,,,,,,,,,,,,,,,,,,,,,,0,0,0,0,0
3.1509,1783190802.1376,1,1,1.0000,-0.0002,1.44681,0.20996,-2.78330,1.00250,1.57080,0.00002,-0.14512,-0.38002,0.04053,,,,,,,,,,,,,,,,,,,,,,,,,,0,0,0,0,0
3.1588,1783190802.1455,1,1,1.0000,-0.0002,1.44681,0.20991,-2.78331,1.00256,1.57080,0.00002,-0.14512,-0.38002,0.04052,,,,,,,,,,,,,,,,,,,,,,,,,,0,0,0,0,0
3.1727,1783190802.1594,1,1,1.0000,-0.0002,1.44680,0.20965,-2.78337,1.00289,1.57080,0.00002,-0.14512,-0.38002,0.04045,,,,,,,,,,,,,,,,,,,,,,,,,,0,0,0,0,0
3.1731,1783190802.1598,1,1,1.0000,-0.0002,1.44680,0.20965,-2.78337,1.00289,1.57080,0.00002,-0.14512,-0.38002,0.04045,,,,,,,,,,,,,,,,,,,,,,,,,,0,0,0,0,0
3.1788,1783190802.1655,1,1,1.0000,-0.0002,1.44680,0.20958,-2.78339,1.00297,1.57079,0.00002,-0.14512,-0.38002,0.04043,,,,,,,,,,,,,,,,,,,,,,,,,,0,0,0,0,0
3.1945,1783190802.1812,1,1,1.0000,-0.0002,1.44680,0.20951,-2.78341,1.00306,1.57079,0.00002,-0.14512,-0.38002,0.04041,,,,,,,,,,,,,,,,,,,,,,,,,,0,0,0,0,0
3.2050,1783190802.1917,1,1,1.0000,-0.0002,1.44680,0.20935,-2.78345,1.00326,1.57079,0.00002,-0.14512,-0.38002,0.04037,,,,,,,,,,,,,,,,,,,,,,,,,,0,0,0,0,0
3.2054,1783190802.1921,1,1,1.0000,-0.0002,1.44680,0.20935,-2.78345,1.00326,1.57079,0.00002,-0.14512,-0.38002,0.04037,,,,,,,,,,,,,,,,,,,,,,,,,,0,0,0,0,0
3.2162,1783190802.2029,1,1,1.0000,-0.0002,1.44680,0.20930,-2.78346,1.00332,1.57079,0.00002,-0.14512,-0.38002,0.04036,,,,,,,,,,,,,,,,,,,,,,,,,,0,0,0,0,0
3.2164,1783190802.2032,1,1,1.0000,-0.0002,1.44680,0.20930,-2.78346,1.00332,1.57079,0.00002,-0.14512,-0.38002,0.04036,,,,,,,,,,,,,,,,,,,,,,,,,,0,0,0,0,0
3.2342,1783190802.2210,1,1,1.0000,-0.0002,1.44680,0.20904,-2.78352,1.00365,1.57079,0.00002,-0.14512,-0.38002,0.04030,,,,,,,,,,,,,,,,,,,,,,,,,,0,0,0,0,0
3.2345,1783190802.2213,1,1,1.0000,-0.0002,1.44680,0.20904,-2.78352,1.00365,1.57079,0.00002,-0.14512,-0.38002,0.04030,,,,,,,,,,,,,,,,,,,,,,,,,,0,0,0,0,0
3.2484,1783190802.2351,1,1,1.0000,-0.0002,1.44680,0.20894,-2.78355,1.00378,1.57079,0.00002,-0.14512,-0.38002,0.04027,,,,,,,,,,,,,,,,,,,,,,,,,,0,0,0,0,0
3.2487,1783190802.2354,1,1,1.0000,-0.0002,1.44680,0.20894,-2.78355,1.00378,1.57079,0.00002,-0.14512,-0.38002,0.04027,,,,,,,,,,,,,,,,,,,,,,,,,,0,0,0,0,0
3.2505,1783190802.2372,1,1,1.0000,-0.0002,1.44680,0.20894,-2.78355,1.00378,1.57079,0.00002,-0.14512,-0.38002,0.04027,,,,,,,,,,,,,,,,,,,,,,,,,,0,0,0,0,0
3.2585,1783190802.2452,1,1,1.0000,-0.0002,1.44680,0.20885,-2.78357,1.00388,1.57079,0.00002,-0.14512,-0.38002,0.04025,,,,,,,,,,,,,,,,,,,,,,,,,,0,0,0,0,0
3.2686,1783190802.2554,1,1,1.0000,-0.0002,1.44680,0.20874,-2.78360,1.00403,1.57079,0.00002,-0.14512,-0.38002,0.04022,,,,,,,,,,,,,,,,,,,,,,,,,,0,0,0,0,0
3.2799,1783190802.2667,1,1,1.0000,-0.0002,1.44680,0.20864,-2.78362,1.00415,1.57079,0.00002,-0.14512,-0.38002,0.04019,,,,,,,,,,,,,,,,,,,,,,,,,,0,0,0,0,0
3.2804,1783190802.2671,1,1,1.0000,-0.0002,1.44680,0.20864,-2.78362,1.00415,1.57079,0.00002,-0.14512,-0.38002,0.04019,,,,,,,,,,,,,,,,,,,,,,,,,,0,0,0,0,0
3.3026,1783190802.2893,1,1,1.0000,-0.0002,1.44680,0.20835,-2.78369,1.00450,1.57079,0.00002,-0.14512,-0.38002,0.04012,,,,,,,,,,,,,,,,,,,,,,,,,,0,0,0,0,0
3.3028,1783190802.2895,1,1,1.0000,-0.0002,1.44680,0.20835,-2.78369,1.00450,1.57079,0.00002,-0.14512,-0.38002,0.04012,,,,,,,,,,,,,,,,,,,,,,,,,,0,0,0,0,0
3.3031,1783190802.2898,1,1,1.0000,-0.0002,1.44680,0.20835,-2.78369,1.00450,1.57079,0.00002,-0.14512,-0.38002,0.04012,,,,,,,,,,,,,,,,,,,,,,,,,,0,0,0,0,0
3.3080,1783190802.2948,1,1,1.0000,-0.0002,1.44680,0.20831,-2.78370,1.00455,1.57079,0.00002,-0.14512,-0.38002,0.04011,,,,,,,,,,,,,,,,,,,,,,,,,,0,0,0,0,0
3.3086,1783190802.2953,1,1,1.0000,-0.0002,1.44680,0.20831,-2.78370,1.00455,1.57079,0.00002,-0.14512,-0.38002,0.04011,,,,,,,,,,,,,,,,,,,,,,,,,,0,0,0,0,0
3.3182,1783190802.3049,1,1,1.0000,-0.0002,1.44680,0.20820,-2.78373,1.00469,1.57079,0.00002,-0.14512,-0.38002,0.04008,,,,,,,,,,,,,,,,,,,,,,,,,,0,0,0,0,0
3.3299,1783190802.3166,1,1,1.0000,-0.0002,1.44680,0.20805,-2.78376,1.00487,1.57079,0.00002,-0.14512,-0.38002,0.04005,,,,,,,,,,,,,,,,,,,,,,,,,,0,0,0,0,0
3.3382,1783190802.3249,1,1,1.0000,-0.0002,1.44680,0.20801,-2.78377,1.00493,1.57079,0.00002,-0.14512,-0.38002,0.04004,,,,,,,,,,,,,,,,,,,,,,,,,,0,0,0,0,0
3.3510,1783190802.3377,1,1,1.0000,-0.0002,1.44680,0.20783,-2.78381,1.00515,1.57079,0.00002,-0.14512,-0.38002,0.03999,,,,,,,,,,,,,,,,,,,,,,,,,,0,0,0,0,0
3.3652,1783190802.3520,1,1,1.0000,-0.0002,1.44680,0.20767,-2.78385,1.00534,1.57079,0.00002,-0.14512,-0.38002,0.03995,,,,,,,,,,,,,,,,,,,,,,,,,,0,0,0,0,0
3.3734,1783190802.3602,1,1,1.0000,-0.0002,1.44680,0.20759,-2.78387,1.00545,1.57079,0.00002,-0.14512,-0.38002,0.03993,,,,,,,,,,,,,,,,,,,,,,,,,,0,0,0,0,0
3.3737,1783190802.3605,1,1,1.0000,-0.0002,1.44680,0.20759,-2.78387,1.00545,1.57079,0.00002,-0.14512,-0.38002,0.03993,,,,,,,,,,,,,,,,,,,,,,,,,,0,0,0,0,0
3.3861,1783190802.3728,1,1,1.0000,-0.0002,1.44680,0.20738,-2.78392,1.00570,1.57079,0.00002,-0.14512,-0.38002,0.03988,,,,,,,,,,,,,,,,,,,,,,,,,,0,0,0,0,0
3.3932,1783190802.3800,1,1,1.0000,-0.0002,1.44680,0.20737,-2.78392,1.00572,1.57079,0.00002,-0.14512,-0.38002,0.03987,,,,,,,,,,,,,,,,,,,,,,,,,,0,0,0,0,0
3.4079,1783190802.3946,1,1,1.0000,-0.0002,1.44680,0.20716,-2.78397,1.00598,1.57079,0.00002,-0.14512,-0.38002,0.03982,,,,,,,,,,,,,,,,,,,,,,,,,,0,0,0,0,0
3.4138,1783190802.4005,1,1,1.0000,-0.0002,1.44680,0.20708,-2.78399,1.00607,1.57079,0.00002,-0.14512,-0.38002,0.03980,,,,,,,,,,,,,,,,,,,,,,,,,,0,0,0,0,0
3.4227,1783190802.4095,1,1,1.0000,-0.0002,1.44680,0.20701,-2.78401,1.00616,1.57079,0.00002,-0.14512,-0.38002,0.03978,,,,,,,,,,,,,,,,,,,,,,,,,,0,0,0,0,0
3.4331,1783190802.4199,1,1,1.0000,-0.0002,1.44680,0.20692,-2.78403,1.00628,1.57079,0.00002,-0.14512,-0.38002,0.03976,,,,,,,,,,,,,,,,,,,,,,,,,,0,0,0,0,0
3.4510,1783190802.4378,1,1,1.0000,-0.0002,1.44680,0.20671,-2.78408,1.00653,1.57079,0.00002,-0.14512,-0.38002,0.03971,,,,,,,,,,,,,,,,,,,,,,,,,,0,0,0,0,0
3.4538,1783190802.4406,1,1,1.0000,-0.0002,1.44680,0.20670,-2.78408,1.00655,1.57079,0.00002,-0.14512,-0.38002,0.03971,,,,,,,,,,,,,,,,,,,,,,,,,,0,0,0,0,0
3.4670,1783190802.4538,1,1,1.0000,-0.0002,1.44680,0.20655,-2.78412,1.00673,1.57079,0.00002,-0.14512,-0.38002,0.03967,,,,,,,,,,,,,,,,,,,,,,,,,,0,0,0,0,0
3.4735,1783190802.4603,1,1,1.0000,-0.0002,1.44680,0.20641,-2.78415,1.00690,1.57079,0.00002,-0.14512,-0.38002,0.03963,,,,,,,,,,,,,,,,,,,,,,,,,,0,0,0,0,0
3.4739,1783190802.4607,1,1,1.0000,-0.0002,1.44680,0.20641,-2.78415,1.00690,1.57079,0.00002,-0.14512,-0.38002,0.03963,,,,,,,,,,,,,,,,,,,,,,,,,,0,0,0,0,0
3.4864,1783190802.4731,1,1,1.0000,-0.0002,1.44680,0.20633,-2.78417,1.00700,1.57079,0.00002,-0.14512,-0.38002,0.03961,,,,,,,,,,,,,,,,,,,,,,,,,,0,0,0,0,0
3.4928,1783190802.4796,1,1,1.0000,-0.0002,1.44680,0.20625,-2.78419,1.00711,1.57079,0.00002,-0.14512,-0.38002,0.03959,,,,,,,,,,,,,,,,,,,,,,,,,,0,0,0,0,0
3.4932,1783190802.4799,1,1,1.0000,-0.0002,1.44680,0.20625,-2.78419,1.00711,1.57079,0.00002,-0.14512,-0.38002,0.03959,,,,,,,,,,,,,,,,,,,,,,,,,,0,0,0,0,0
3.5091,1783190802.4958,1,1,1.0000,-0.0002,1.44680,0.20604,-2.78424,1.00736,1.57079,0.00002,-0.14512,-0.38002,0.03954,,,,,,,,,,,,,,,,,,,,,,,,,,0,0,0,0,0
3.5129,1783190802.4997,1,1,1.0000,-0.0002,1.44680,0.20603,-2.78424,1.00738,1.57079,0.00002,-0.14512,-0.38002,0.03954,,,,,,,,,,,,,,,,,,,,,,,,,,0,0,0,0,0
3.5268,1783190802.5136,1,1,1.0000,-0.0002,1.44680,0.20588,-2.78428,1.00756,1.57079,0.00002,-0.14512,-0.38002,0.03950,,,,,,,,,,,,,,,,,,,,,,,,,,0,0,0,0,0
3.5345,1783190802.5213,1,1,1.0000,-0.0002,1.44680,0.20574,-2.78431,1.00774,1.57079,0.00002,-0.14512,-0.38002,0.03946,,,,,,,,,,,,,,,,,,,,,,,,,,0,0,0,0,0
3.5439,1783190802.5306,1,1,1.0000,-0.0002,1.44680,0.20566,-2.78433,1.00784,1.57079,0.00002,-0.14512,-0.38002,0.03944,,,,,,,,,,,,,,,,,,,,,,,,,,0,0,0,0,0
3.5542,1783190802.5410,1,1,1.0000,-0.0002,1.44680,0.20557,-2.78435,1.00794,1.57079,0.00002,-0.14512,-0.38002,0.03942,,,,,,,,,,,,,,,,,,,,,,,,,,0,0,0,0,0
3.5656,1783190802.5523,1,1,1.0000,-0.0002,1.44680,0.20537,-2.78440,1.00820,1.57079,0.00002,-0.14512,-0.38002,0.03937,,,,,,,,,,,,,,,,,,,,,,,,,,0,0,0,0,0
3.5730,1783190802.5597,1,1,1.0000,-0.0002,1.44680,0.20536,-2.78440,1.00821,1.57079,0.00002,-0.14512,-0.38002,0.03937,,,,,,,,,,,,,,,,,,,,,,,,,,0,0,0,0,0
3.5863,1783190802.5731,1,1,1.0000,-0.0002,1.44680,0.20521,-2.78444,1.00839,1.57079,0.00002,-0.14512,-0.38002,0.03933,,,,,,,,,,,,,,,,,,,,,,,,,,0,0,0,0,0
3.5933,1783190802.5801,1,1,1.0000,-0.0002,1.44680,0.20507,-2.78447,1.00857,1.57079,0.00002,-0.14512,-0.38002,0.03930,,,,,,,,,,,,,,,,,,,,,,,,,,0,0,0,0,0
3.5938,1783190802.5805,1,1,1.0000,-0.0002,1.44680,0.20507,-2.78447,1.00857,1.57079,0.00002,-0.14512,-0.38002,0.03930,,,,,,,,,,,,,,,,,,,,,,,,,,0,0,0,0,0
3.6039,1783190802.5906,1,1,1.0000,-0.0002,1.44680,0.20499,-2.78449,1.00867,1.57079,0.00002,-0.14512,-0.38002,0.03927,,,,,,,,,,,,,,,,,,,,,,,,,,0,0,0,0,0
3.6042,1783190802.5910,1,1,1.0000,-0.0002,1.44680,0.20499,-2.78449,1.00867,1.57079,0.00002,-0.14512,-0.38002,0.03927,,,,,,,,,,,,,,,,,,,,,,,,,,0,0,0,0,0
3.6127,1783190802.5995,1,1,1.0000,-0.0002,1.44680,0.20490,-2.78451,1.00877,1.57079,0.00002,-0.14512,-0.38002,0.03925,,,,,,,,,,,,,,,,,,,,,,,,,,0,0,0,0,0
3.6246,1783190802.6113,1,1,1.0000,-0.0002,1.44680,0.20470,-2.78456,1.00903,1.57079,0.00002,-0.14512,-0.38002,0.03920,,,,,,,,,,,,,,,,,,,,,,,,,,0,0,0,0,0
3.6250,1783190802.6117,1,1,1.0000,-0.0002,1.44680,0.20470,-2.78456,1.00903,1.57079,0.00002,-0.14512,-0.38002,0.03920,,,,,,,,,,,,,,,,,,,,,,,,,,0,0,0,0,0
3.6332,1783190802.6200,1,1,1.0000,-0.0002,1.44680,0.20462,-2.78458,1.00912,1.57079,0.00002,-0.14512,-0.38002,0.03918,,,,,,,,,,,,,,,,,,,,,,,,,,0,0,0,0,0
3.6335,1783190802.6203,1,1,1.0000,-0.0002,1.44680,0.20462,-2.78458,1.00912,1.57079,0.00002,-0.14512,-0.38002,0.03918,,,,,,,,,,,,,,,,,,,,,,,,,,0,0,0,0,0
3.6444,1783190802.6312,1,1,1.0000,-0.0002,1.44680,0.20455,-2.78459,1.00920,1.57079,0.00002,-0.14512,-0.38002,0.03917,,,,,,,,,,,,,,,,,,,,,,,,,,0,0,0,0,0
3.6546,1783190802.6414,1,1,1.0000,-0.0002,1.44680,0.20445,-2.78462,1.00933,1.57079,0.00002,-0.14512,-0.38002,0.03914,,,,,,,,,,,,,,,,,,,,,,,,,,0,0,0,0,0
3.6681,1783190802.6548,1,1,1.0000,-0.0002,1.44680,0.20434,-2.78464,1.00947,1.57079,0.00002,-0.14512,-0.38002,0.03911,,,,,,,,,,,,,,,,,,,,,,,,,,0,0,0,0,0
3.6684,1783190802.6552,1,1,1.0000,-0.0002,1.44680,0.20434,-2.78464,1.00947,1.57079,0.00002,-0.14512,-0.38002,0.03911,,,,,,,,,,,,,,,,,,,,,,,,,,0,0,0,0,0
3.6735,1783190802.6602,1,1,1.0000,-0.0002,1.44680,0.20429,-2.78466,1.00953,1.57079,0.00002,-0.14512,-0.38002,0.03910,,,,,,,,,,,,,,,,,,,,,,,,,,0,0,0,0,0
3.6861,1783190802.6728,1,1,1.0000,-0.0002,1.44680,0.20408,-2.78471,1.00979,1.57079,0.00002,-0.14512,-0.38002,0.03905,,,,,,,,,,,,,,,,,,,,,,,,,,0,0,0,0,0
3.6937,1783190802.6804,1,1,1.0000,-0.0002,1.44680,0.20401,-2.78472,1.00988,1.57079,0.00002,-0.14512,-0.38002,0.03903,,,,,,,,,,,,,,,,,,,,,,,,,,0,0,0,0,0
3.7066,1783190802.6933,1,1,1.0000,-0.0002,1.44680,0.20393,-2.78474,1.00997,1.57079,0.00002,-0.14512,-0.38002,0.03901,,,,,,,,,,,,,,,,,,,,,,,,,,0,0,0,0,0
3.7167,1783190802.7035,1,1,1.0000,-0.0002,1.44680,0.20377,-2.78478,1.01017,1.57079,0.00002,-0.14512,-0.38002,0.03897,,,,,,,,,,,,,,,,,,,,,,,,,,0,0,0,0,0
3.7269,1783190802.7137,1,1,1.0000,-0.0002,1.44680,0.20376,-2.78478,1.01019,1.57079,0.00002,-0.14512,-0.38002,0.03897,,,,,,,,,,,,,,,,,,,,,,,,,,0,0,0,0,0
3.7331,1783190802.7199,1,1,1.0000,-0.0002,1.44680,0.20367,-2.78480,1.01030,1.57079,0.00002,-0.14512,-0.38002,0.03894,,,,,,,,,,,,,,,,,,,,,,,,,,0,0,0,0,0
3.7454,1783190802.7322,1,1,1.0000,-0.0002,1.44680,0.20346,-2.78485,1.01056,1.57079,0.00002,-0.14512,-0.38002,0.03889,,,,,,,,,,,,,,,,,,,,,,,,,,0,0,0,0,0
3.7585,1783190802.7452,1,1,1.0000,-0.0002,1.44680,0.20338,-2.78487,1.01066,1.57079,0.00002,-0.14512,-0.38002,0.03887,,,,,,,,,,,,,,,,,,,,,,,,,,0,0,0,0,0
3.7658,1783190802.7526,1,1,1.0000,-0.0002,1.44680,0.20332,-2.78489,1.01073,1.57079,0.00002,-0.14512,-0.38002,0.03886,,,,,,,,,,,,,,,,,,,,,,,,,,0,0,0,0,0
3.7662,1783190802.7529,1,1,1.0000,-0.0002,1.44680,0.20332,-2.78489,1.01073,1.57079,0.00002,-0.14512,-0.38002,0.03886,,,,,,,,,,,,,,,,,,,,,,,,,,0,0,0,0,0
3.7725,1783190802.7592,1,1,1.0000,-0.0002,1.44680,0.20321,-2.78491,1.01086,1.57079,0.00002,-0.14512,-0.38002,0.03883,,,,,,,,,,,,,,,,,,,,,,,,,,0,0,0,0,0
3.7728,1783190802.7596,1,1,1.0000,-0.0002,1.44680,0.20321,-2.78491,1.01086,1.57079,0.00002,-0.14512,-0.38002,0.03883,,,,,,,,,,,,,,,,,,,,,,,,,,0,0,0,0,0
3.7830,1783190802.7698,1,1,1.0000,-0.0002,1.44680,0.20315,-2.78493,1.01094,1.57079,0.00002,-0.14512,-0.38002,0.03881,,,,,,,,,,,,,,,,,,,,,,,,,,0,0,0,0,0
3.7972,1783190802.7839,1,1,1.0000,-0.0002,1.44680,0.20299,-2.78497,1.01114,1.57079,0.00002,-0.14512,-0.38001,0.03877,,,,,,,,,,,,,,,,,,,,,,,,,,0,0,0,0,0
3.8068,1783190802.7936,1,1,1.0000,-0.0002,1.44680,0.20284,-2.78500,1.01132,1.57079,0.00002,-0.14512,-0.38001,0.03874,,,,,,,,,,,,,,,,,,,,,,,,,,0,0,0,0,0
3.8172,1783190802.8039,1,1,1.0000,-0.0002,1.44680,0.20276,-2.78502,1.01143,1.57079,0.00002,-0.14512,-0.38001,0.03872,,,,,,,,,,,,,,,,,,,,,,,,,,0,0,0,0,0
3.8226,1783190802.8094,1,1,1.0000,-0.0002,1.44680,0.20272,-2.78503,1.01147,1.57079,0.00002,-0.14512,-0.38001,0.03871,,,,,,,,,,,,,,,,,,,,,,,,,,0,0,0,0,0
3.8230,1783190802.8097,1,1,1.0000,-0.0002,1.44680,0.20272,-2.78503,1.01147,1.57079,0.00002,-0.14512,-0.38001,0.03871,,,,,,,,,,,,,,,,,,,,,,,,,,0,0,0,0,0
3.8328,1783190802.8195,1,1,1.0000,-0.0002,1.44680,0.20254,-2.78507,1.01170,1.57079,0.00002,-0.14512,-0.38001,0.03866,,,,,,,,,,,,,,,,,,,,,,,,,,0,0,0,0,0
3.8440,1783190802.8307,1,1,1.0000,-0.0002,1.44680,0.20245,-2.78509,1.01180,1.57079,0.00002,-0.14512,-0.38001,0.03864,,,,,,,,,,,,,,,,,,,,,,,,,,0,0,0,0,0
3.8599,1783190802.8467,1,1,1.0000,-0.0002,1.44680,0.20224,-2.78514,1.01207,1.57079,0.00002,-0.14512,-0.38001,0.03859,,,,,,,,,,,,,,,,,,,,,,,,,,0,0,0,0,0
3.8662,1783190802.8530,1,1,1.0000,-0.0002,1.44680,0.20216,-2.78516,1.01216,1.57079,0.00002,-0.14512,-0.38001,0.03857,,,,,,,,,,,,,,,,,,,,,,,,,,0,0,0,0,0
3.8729,1783190802.8597,1,1,1.0000,-0.0002,1.44680,0.20209,-2.78518,1.01225,1.57079,0.00002,-0.14512,-0.38001,0.03855,,,,,,,,,,,,,,,,,,,,,,,,,,0,0,0,0,0
3.8731,1783190802.8599,1,1,1.0000,-0.0002,1.44680,0.20209,-2.78518,1.01225,1.57079,0.00002,-0.14512,-0.38001,0.03855,,,,,,,,,,,,,,,,,,,,,,,,,,0,0,0,0,0
3.8829,1783190802.8696,1,1,1.0000,-0.0002,1.44680,0.20205,-2.78519,1.01230,1.57079,0.00002,-0.14512,-0.38001,0.03854,,,,,,,,,,,,,,,,,,,,,,,,,,0,0,0,0,0
3.8834,1783190802.8701,1,1,1.0000,-0.0002,1.44680,0.20205,-2.78519,1.01230,1.57079,0.00002,-0.14512,-0.38001,0.03854,,,,,,,,,,,,,,,,,,,,,,,,,,0,0,0,0,0
3.8948,1783190802.8815,1,1,1.0000,-0.0002,1.44680,0.20186,-2.78523,1.01253,1.57079,0.00002,-0.14512,-0.38001,0.03849,,,,,,,,,,,,,,,,,,,,,,,,,,0,0,0,0,0
3.9041,1783190802.8908,1,1,1.0000,-0.0002,1.44680,0.20178,-2.78525,1.01264,1.57079,0.00002,-0.14512,-0.38001,0.03847,,,,,,,,,,,,,,,,,,,,,,,,,,0,0,0,0,0
3.9270,1783190802.9137,1,1,1.0000,-0.0002,1.44680,0.20149,-2.78532,1.01299,1.57079,0.00003,-0.14512,-0.38001,0.03840,,,,,,,,,,,,,,,,,,,,,,,,,,0,0,0,0,0
3.9276,1783190802.9144,1,1,1.0000,-0.0002,1.44680,0.20149,-2.78532,1.01299,1.57079,0.00003,-0.14512,-0.38001,0.03840,,,,,,,,,,,,,,,,,,,,,,,,,,0,0,0,0,0
3.9281,1783190802.9149,1,1,1.0000,-0.0002,1.44680,0.20142,-2.78533,1.01308,1.57079,0.00003,-0.14512,-0.38001,0.03838,,,,,,,,,,,,,,,,,,,,,,,,,,0,0,0,0,0
3.9352,1783190802.9220,1,1,1.0000,-0.0002,1.44680,0.20142,-2.78533,1.01308,1.57079,0.00003,-0.14512,-0.38001,0.03838,,,,,,,,,,,,,,,,,,,,,,,,,,0,0,0,0,0
3.9443,1783190802.9310,1,1,1.0000,-0.0002,1.44680,0.20132,-2.78536,1.01320,1.57079,0.00003,-0.14512,-0.38001,0.03836,,,,,,,,,,,,,,,,,,,,,,,,,,0,0,0,0,0
3.9527,1783190802.9394,1,1,1.0000,-0.0002,1.44680,0.20119,-2.78539,1.01337,1.57079,0.00003,-0.14512,-0.38001,0.03832,,,,,,,,,,,,,,,,,,,,,,,,,,0,0,0,0,0
3.9654,1783190802.9522,1,1,1.0000,-0.0002,1.44680,0.20110,-2.78541,1.01347,1.57079,0.00003,-0.14512,-0.38001,0.03830,,,,,,,,,,,,,,,,,,,,,,,,,,0,0,0,0,0
3.9781,1783190802.9648,1,1,1.0000,-0.0002,1.44680,0.20095,-2.78544,1.01365,1.57079,0.00003,-0.14512,-0.38001,0.03826,,,,,,,,,,,,,,,,,,,,,,,,,,0,0,0,0,0
3.9825,1783190802.9693,1,1,1.0000,-0.0002,1.44680,0.20088,-2.78546,1.01374,1.57079,0.00003,-0.14512,-0.38001,0.03825,,,,,,,,,,,,,,,,,,,,,,,,,,0,0,0,0,0
3.9830,1783190802.9697,1,1,1.0000,-0.0002,1.44680,0.20088,-2.78546,1.01374,1.57079,0.00003,-0.14512,-0.38001,0.03825,,,,,,,,,,,,,,,,,,,,,,,,,,0,0,0,0,0
3.9928,1783190802.9796,1,1,1.0000,-0.0002,1.44680,0.20074,-2.78549,1.01392,1.57079,0.00003,-0.14512,-0.38001,0.03821,,,,,,,,,,,,,,,,,,,,,,,,,,0,0,0,0,0
4.0027,1783190802.9895,1,1,1.0000,-0.0002,1.44680,0.20069,-2.78550,1.01397,1.57079,0.00003,-0.14512,-0.38001,0.03820,,,,,,,,,,,,,,,,,,,,,,,,,,0,0,0,0,0
4.0216,1783190803.0084,1,1,1.0000,-0.0002,1.44680,0.20044,-2.78557,1.01429,1.57079,0.00003,-0.14512,-0.38001,0.03814,,,,,,,,,,,,,,,,,,,,,,,,,,0,0,0,0,0
4.0270,1783190803.0138,1,1,1.0000,-0.0002,1.44680,0.20042,-2.78557,1.01431,1.57079,0.00003,-0.14512,-0.38001,0.03813,,,,,,,,,,,,,,,,,,,,,,,,,,0,0,0,0,0
4.0342,1783190803.0210,1,1,1.0000,-0.0002,1.44680,0.20034,-2.78559,1.01441,1.57079,0.00003,-0.14512,-0.38001,0.03811,,,,,,,,,,,,,,,,,,,,,,,,,,0,0,0,0,0
4.0428,1783190803.0295,1,1,1.0000,-0.0002,1.44680,0.20021,-2.78562,1.01458,1.57079,0.00003,-0.14512,-0.38001,0.03808,,,,,,,,,,,,,,,,,,,,,,,,,,0,0,0,0,0
4.0542,1783190803.0409,1,1,1.0000,-0.0002,1.44680,0.20006,-2.78565,1.01475,1.57079,0.00003,-0.14512,-0.38001,0.03804,,,,,,,,,,,,,,,,,,,,,,,,,,0,0,0,0,0
4.0644,1783190803.0511,1,1,1.0000,-0.0002,1.44680,0.19996,-2.78568,1.01487,1.57079,0.00003,-0.14512,-0.38001,0.03802,,,,,,,,,,,,,,,,,,,,,,,,,,0,0,0,0,0
4.0646,1783190803.0514,1,1,1.0000,-0.0002,1.44680,0.19996,-2.78568,1.01487,1.57079,0.00003,-0.14512,-0.38001,0.03802,,,,,,,,,,,,,,,,,,,,,,,,,,0,0,0,0,0
4.0777,1783190803.0644,1,1,1.0000,-0.0002,1.44680,0.19976,-2.78572,1.01513,1.57079,0.00003,-0.14512,-0.38001,0.03797,,,,,,,,,,,,,,,,,,,,,,,,,,0,0,0,0,0
4.0828,1783190803.0695,1,1,1.0000,-0.0002,1.44680,0.19976,-2.78572,1.01513,1.57079,0.00003,-0.14512,-0.38001,0.03797,,,,,,,,,,,,,,,,,,,,,,,,,,0,0,0,0,0
4.0936,1783190803.0803,1,1,1.0000,-0.0002,1.44680,0.19966,-2.78575,1.01525,1.57079,0.00003,-0.14512,-0.38001,0.03794,,,,,,,,,,,,,,,,,,,,,,,,,,0,0,0,0,0
4.1031,1783190803.0898,1,1,1.0000,-0.0002,1.44680,0.19953,-2.78578,1.01541,1.57079,0.00003,-0.14512,-0.38001,0.03791,,,,,,,,,,,,,,,,,,,,,,,,,,0,0,0,0,0
4.1162,1783190803.1029,1,1,1.0000,-0.0002,1.44680,0.19937,-2.78581,1.01561,1.57079,0.00003,-0.14512,-0.38001,0.03787,,,,,,,,,,,,,,,,,,,,,,,,,,0,0,0,0,0
4.1283,1783190803.1150,1,1,1.0000,-0.0002,1.44680,0.19922,-2.78585,1.01579,1.57079,0.00003,-0.14512,-0.38001,0.03783,,,,,,,,,,,,,,,,,,,,,,,,,,0,0,0,0,0
4.1370,1783190803.1238,1,1,1.0000,-0.0002,1.44680,0.19908,-2.78588,1.01597,1.57079,0.00003,-0.14512,-0.38001,0.03780,,,,,,,,,,,,,,,,,,,,,,,,,,0,0,0,0,0
4.1444,1783190803.1312,1,1,1.0000,-0.0002,1.44680,0.19907,-2.78589,1.01598,1.57079,0.00003,-0.14512,-0.38001,0.03779,,,,,,,,,,,,,,,,,,,,,,,,,,0,0,0,0,0
4.1448,1783190803.1315,1,1,1.0000,-0.0002,1.44680,0.19907,-2.78589,1.01598,1.57079,0.00003,-0.14512,-0.38001,0.03779,,,,,,,,,,,,,,,,,,,,,,,,,,0,0,0,0,0
4.1528,1783190803.1395,1,1,1.0000,-0.0002,1.44680,0.19898,-2.78591,1.01609,1.57079,0.00003,-0.14512,-0.38001,0.03777,,,,,,,,,,,,,,,,,,,,,,,,,,0,0,0,0,0
4.1661,1783190803.1529,1,1,1.0000,-0.0002,1.44680,0.19878,-2.78595,1.01634,1.57079,0.00003,-0.14512,-0.38001,0.03772,,,,,,,,,,,,,,,,,,,,,,,,,,0,0,0,0,0
4.1735,1783190803.1602,1,1,1.0000,-0.0002,1.44680,0.19871,-2.78597,1.01643,1.57079,0.00003,-0.14512,-0.38001,0.03770,,,,,,,,,,,,,,,,,,,,,,,,,,0,0,0,0,0
4.1738,1783190803.1605,1,1,1.0000,-0.0002,1.44680,0.19871,-2.78597,1.01643,1.57079,0.00003,-0.14512,-0.38001,0.03770,,,,,,,,,,,,,,,,,,,,,,,,,,0,0,0,0,0
4.1830,1783190803.1697,1,1,1.0000,-0.0002,1.44680,0.19866,-2.78598,1.01648,1.57079,0.00003,-0.14512,-0.38001,0.03769,,,,,,,,,,,,,,,,,,,,,,,,,,0,0,0,0,0
4.1935,1783190803.1802,1,1,1.0000,-0.0002,1.44680,0.19847,-2.78602,1.01671,1.57079,0.00003,-0.14512,-0.38001,0.03765,,,,,,,,,,,,,,,,,,,,,,,,,,0,0,0,0,0
4.1939,1783190803.1806,1,1,1.0000,-0.0002,1.44680,0.19847,-2.78602,1.01671,1.57079,0.00003,-0.14512,-0.38001,0.03765,,,,,,,,,,,,,,,,,,,,,,,,,,0,0,0,0,0
4.2051,1783190803.1918,1,1,1.0000,-0.0002,1.44680,0.19839,-2.78604,1.01682,1.57079,0.00003,-0.14512,-0.38001,0.03763,,,,,,,,,,,,,,,,,,,,,,,,,,0,0,0,0,0
4.2215,1783190803.2082,1,1,1.0000,-0.0002,1.44680,0.19817,-2.78609,1.01709,1.57079,0.00003,-0.14512,-0.38001,0.03757,,,,,,,,,,,,,,,,,,,,,,,,,,0,0,0,0,0
4.2269,1783190803.2137,1,1,1.0000,-0.0002,1.44680,0.19810,-2.78611,1.01718,1.57079,0.00003,-0.14512,-0.38001,0.03755,,,,,,,,,,,,,,,,,,,,,,,,,,0,0,0,0,0
4.2272,1783190803.2140,1,1,1.0000,-0.0002,1.44680,0.19810,-2.78611,1.01718,1.57079,0.00003,-0.14512,-0.38001,0.03755,,,,,,,,,,,,,,,,,,,,,,,,,,0,0,0,0,0
4.2330,1783190803.2197,1,1,1.0000,-0.0002,1.44680,0.19803,-2.78613,1.01726,1.57079,0.00003,-0.14512,-0.38001,0.03754,,,,,,,,,,,,,,,,,,,,,,,,,,0,0,0,0,0
4.2440,1783190803.2307,1,1,1.0000,-0.0002,1.44680,0.19793,-2.78615,1.01739,1.57079,0.00003,-0.14512,-0.38001,0.03751,,,,,,,,,,,,,,,,,,,,,,,,,,0,0,0,0,0
4.2544,1783190803.2411,1,1,1.0000,-0.0002,1.44680,0.19779,-2.78618,1.01755,1.57079,0.00003,-0.14512,-0.38001,0.03748,,,,,,,,,,,,,,,,,,,,,,,,,,0,0,0,0,0
4.2694,1783190803.2561,1,1,1.0000,-0.0002,1.44680,0.19764,-2.78622,1.01774,1.57079,0.00003,-0.14512,-0.38001,0.03744,,,,,,,,,,,,,,,,,,,,,,,,,,0,0,0,0,0
4.2737,1783190803.2604,1,1,1.0000,-0.0002,1.44680,0.19762,-2.78622,1.01777,1.57079,0.00003,-0.14512,-0.38001,0.03743,,,,,,,,,,,,,,,,,,,,,,,,,,0,0,0,0,0
4.2828,1783190803.2695,1,1,1.0000,-0.0002,1.44680,0.19753,-2.78624,1.01788,1.57079,0.00003,-0.14512,-0.38001,0.03741,,,,,,,,,,,,,,,,,,,,,,,,,,0,0,0,0,0
4.2928,1783190803.2796,1,1,1.0000,-0.0002,1.44680,0.19741,-2.78627,1.01802,1.57079,0.00003,-0.14512,-0.38001,0.03738,,,,,,,,,,,,,,,,,,,,,,,,,,0,0,0,0,0
4.2932,1783190803.2799,1,1,1.0000,-0.0002,1.44680,0.19741,-2.78627,1.01802,1.57079,0.00003,-0.14512,-0.38001,0.03738,,,,,,,,,,,,,,,,,,,,,,,,,,0,0,0,0,0
4.3090,1783190803.2957,1,1,1.0000,-0.0002,1.44680,0.19724,-2.78631,1.01823,1.57079,0.00003,-0.14512,-0.38001,0.03734,,,,,,,,,,,,,,,,,,,,,,,,,,0,0,0,0,0
4.3136,1783190803.3003,1,1,1.0000,-0.0002,1.44680,0.19717,-2.78633,1.01832,1.57079,0.00003,-0.14512,-0.38001,0.03732,,,,,,,,,,,,,,,,,,,,,,,,,,0,0,0,0,0
4.3269,1783190803.3136,1,1,1.0000,-0.0002,1.44680,0.19702,-2.78636,1.01850,1.57079,0.00003,-0.14512,-0.38001,0.03729,,,,,,,,,,,,,,,,,,,,,,,,,,0,0,0,0,0
4.3340,1783190803.3207,1,1,1.0000,-0.0002,1.44680,0.19699,-2.78637,1.01854,1.57079,0.00003,-0.14512,-0.38001,0.03728,,,,,,,,,,,,,,,,,,,,,,,,,,0,0,0,0,0
4.3448,1783190803.3316,1,1,1.0000,-0.0002,1.44680,0.19685,-2.78640,1.01872,1.57079,0.00003,-0.14512,-0.38001,0.03724,,,,,,,,,,,,,,,,,,,,,,,,,,0,0,0,0,0
4.3537,1783190803.3404,1,1,1.0000,-0.0002,1.44680,0.19679,-2.78642,1.01879,1.57079,0.00003,-0.14512,-0.38001,0.03723,,,,,,,,,,,,,,,,,,,,,,,,,,0,0,0,0,0
4.3634,1783190803.3502,1,1,1.0000,-0.0002,1.44680,0.19674,-2.78643,1.01885,1.57079,0.00003,-0.14512,-0.38001,0.03721,,,,,,,,,,,,,,,,,,,,,,,,,,0,0,0,0,0
4.3793,1783190803.3661,1,1,1.0000,-0.0002,1.44680,0.19647,-2.78649,1.01918,1.57079,0.00003,-0.14511,-0.38001,0.03715,,,,,,,,,,,,,,,,,,,,,,,,,,0,0,0,0,0
4.3882,1783190803.3749,1,1,1.0000,-0.0002,1.44679,0.19639,-2.78651,1.01928,1.57079,0.00003,-0.14511,-0.38001,0.03713,,,,,,,,,,,,,,,,,,,,,,,,,,0,0,0,0,0
4.3885,1783190803.3752,1,1,1.0000,-0.0002,1.44679,0.19639,-2.78651,1.01928,1.57079,0.00003,-0.14511,-0.38001,0.03713,,,,,,,,,,,,,,,,,,,,,,,,,,0,0,0,0,0
4.3963,1783190803.3831,1,1,1.0000,-0.0002,1.44679,0.19633,-2.78652,1.01936,1.57079,0.00003,-0.14511,-0.38001,0.03711,,,,,,,,,,,,,,,,,,,,,,,,,,0,0,0,0,0
4.3966,1783190803.3834,1,1,1.0000,-0.0002,1.44679,0.19633,-2.78652,1.01936,1.57079,0.00003,-0.14511,-0.38001,0.03711,,,,,,,,,,,,,,,,,,,,,,,,,,0,0,0,0,0
4.4082,1783190803.3949,1,1,1.0000,-0.0002,1.44679,0.19616,-2.78656,1.01956,1.57079,0.00003,-0.14511,-0.38001,0.03707,,,,,,,,,,,,,,,,,,,,,,,,,,0,0,0,0,0
4.4337,1783190803.4205,1,1,1.0000,-0.0002,1.44679,0.19592,-2.78662,1.01986,1.57079,0.00003,-0.14511,-0.38001,0.03701,,,,,,,,,,,,,,,,,,,,,,,,,,0,0,0,0,0
4.4341,1783190803.4209,1,1,1.0000,-0.0002,1.44679,0.19592,-2.78662,1.01986,1.57079,0.00003,-0.14511,-0.38001,0.03701,,,,,,,,,,,,,,,,,,,,,,,,,,0,0,0,0,0
4.4394,1783190803.4261,1,1,1.0000,-0.0002,1.44679,0.19585,-2.78663,1.01995,1.57079,0.00003,-0.14511,-0.38001,0.03699,,,,,,,,,,,,,,,,,,,,,,,,,,0,0,0,0,0
4.4398,1783190803.4265,1,1,1.0000,-0.0002,1.44679,0.19585,-2.78663,1.01995,1.57079,0.00003,-0.14511,-0.38001,0.03699,,,,,,,,,,,,,,,,,,,,,,,,,,0,0,0,0,0
4.4462,1783190803.4330,1,1,1.0000,-0.0002,1.44679,0.19577,-2.78665,1.02004,1.57079,0.00003,-0.14511,-0.38001,0.03698,,,,,,,,,,,,,,,,,,,,,,,,,,0,0,0,0,0
4.4467,1783190803.4334,1,1,1.0000,-0.0002,1.44679,0.19577,-2.78665,1.02004,1.57079,0.00003,-0.14511,-0.38001,0.03698,,,,,,,,,,,,,,,,,,,,,,,,,,0,0,0,0,0
4.4643,1783190803.4511,1,1,1.0000,-0.0002,1.44679,0.19560,-2.78669,1.02026,1.57079,0.00003,-0.14511,-0.38001,0.03693,,,,,,,,,,,,,,,,,,,,,,,,,,0,0,0,0,0
4.4876,1783190803.4743,1,1,1.0000,-0.0002,1.44679,0.19543,-2.78673,1.02046,1.57079,0.00003,-0.14511,-0.38001,0.03689,,,,,,,,,,,,,,,,,,,,,,,,,,0,0,0,0,0
4.4979,1783190803.4846,1,1,1.0000,-0.0002,1.44679,0.19522,-2.78678,1.02072,1.57079,0.00003,-0.14511,-0.38001,0.03684,,,,,,,,,,,,,,,,,,,,,,,,,,0,0,0,0,0
4.4988,1783190803.4856,1,1,1.0000,-0.0002,1.44679,0.19522,-2.78678,1.02072,1.57079,0.00003,-0.14511,-0.38001,0.03684,,,,,,,,,,,,,,,,,,,,,,,,,,0,0,0,0,0
4.5196,1783190803.5064,1,1,1.0000,-0.0002,1.44679,0.19508,-2.78681,1.02090,1.57079,0.00003,-0.14511,-0.38001,0.03680,,,,,,,,,,,,,,,,,,,,,,,,,,0,0,0,0,0
4.5994,1783190803.5862,1,1,1.0000,-0.0002,1.44679,0.19427,-2.78700,1.02189,1.57079,0.00003,-0.14511,-0.38001,0.03660,,,,,,,,,,,,,,,,,,,,,,,,,,0,0,0,0,0
4.5997,1783190803.5865,1,1,1.0000,-0.0002,1.44679,0.19427,-2.78700,1.02189,1.57079,0.00003,-0.14511,-0.38001,0.03660,,,,,,,,,,,,,,,,,,,,,,,,,,0,0,0,0,0
4.6002,1783190803.5870,1,1,1.0000,-0.0002,1.44679,0.19423,-2.78701,1.02193,1.57079,0.00003,-0.14511,-0.38001,0.03659,,,,,,,,,,,,,,,,,,,,,,,,,,0,0,0,0,0
4.6008,1783190803.5876,1,1,1.0000,-0.0002,1.44679,0.19423,-2.78701,1.02193,1.57079,0.00003,-0.14511,-0.38001,0.03659,,,,,,,,,,,,,,,,,,,,,,,,,,0,0,0,0,0
4.6012,1783190803.5879,1,1,1.0000,-0.0002,1.44679,0.19423,-2.78701,1.02193,1.57079,0.00003,-0.14511,-0.38001,0.03659,,,,,,,,,,,,,,,,,,,,,,,,,,0,0,0,0,0
4.6124,1783190803.5991,1,1,1.0000,-0.0002,1.44679,0.19404,-2.78705,1.02217,1.57079,0.00003,-0.14511,-0.38001,0.03655,,,,,,,,,,,,,,,,,,,,,,,,,,0,0,0,0,0
4.6127,1783190803.5995,1,1,1.0000,-0.0002,1.44679,0.19404,-2.78705,1.02217,1.57079,0.00003,-0.14511,-0.38001,0.03655,,,,,,,,,,,,,,,,,,,,,,,,,,0,0,0,0,0
4.6245,1783190803.6112,1,1,1.0000,-0.0002,1.44679,0.19390,-2.78708,1.02235,1.57079,0.00003,-0.14511,-0.38001,0.03651,,,,,,,,,,,,,,,,,,,,,,,,,,0,0,0,0,0
4.6542,1783190803.6409,1,1,1.0000,-0.0002,1.44679,0.19359,-2.78715,1.02273,1.57079,0.00003,-0.14511,-0.38001,0.03644,,,,,,,,,,,,,,,,,,,,,,,,,,0,0,0,0,0
4.6545,1783190803.6412,1,1,1.0000,-0.0002,1.44679,0.19359,-2.78715,1.02273,1.57079,0.00003,-0.14511,-0.38001,0.03644,,,,,,,,,,,,,,,,,,,,,,,,,,0,0,0,0,0
4.6548,1783190803.6416,1,1,1.0000,-0.0002,1.44679,0.19359,-2.78715,1.02273,1.57079,0.00003,-0.14511,-0.38001,0.03644,,,,,,,,,,,,,,,,,,,,,,,,,,0,0,0,0,0
4.6615,1783190803.6483,1,1,1.0000,-0.0002,1.44679,0.19354,-2.78716,1.02278,1.57079,0.00003,-0.14511,-0.38001,0.03642,,,,,,,,,,,,,,,,,,,,,,,,,,0,0,0,0,0
4.6706,1783190803.6573,1,1,1.0000,-0.0002,1.44679,0.19343,-2.78719,1.02292,1.57079,0.00003,-0.14511,-0.38001,0.03640,,,,,,,,,,,,,,,,,,,,,,,,,,0,0,0,0,0
4.6792,1783190803.6659,1,1,1.0000,-0.0002,1.44679,0.19328,-2.78722,1.02310,1.57079,0.00003,-0.14511,-0.38001,0.03636,,,,,,,,,,,,,,,,,,,,,,,,,,0,0,0,0,0
4.6922,1783190803.6789,1,1,1.0000,-0.0002,1.44679,0.19316,-2.78725,1.02325,1.57079,0.00003,-0.14511,-0.38001,0.03633,,,,,,,,,,,,,,,,,,,,,,,,,,0,0,0,0,0
4.6979,1783190803.6846,1,1,1.0000,-0.0002,1.44679,0.19311,-2.78726,1.02331,1.57079,0.00003,-0.14511,-0.38001,0.03632,,,,,,,,,,,,,,,,,,,,,,,,,,0,0,0,0,0
4.7081,1783190803.6949,1,1,1.0000,-0.0002,1.44679,0.19290,-2.78731,1.02357,1.57079,0.00003,-0.14511,-0.38001,0.03627,,,,,,,,,,,,,,,,,,,,,,,,,,0,0,0,0,0
4.7233,1783190803.7101,1,1,1.0000,-0.0002,1.44679,0.19286,-2.78732,1.02362,1.57079,0.00003,-0.14511,-0.38001,0.03625,,,,,,,,,,,,,,,,,,,,,,,,,,0,0,0,0,0
4.7237,1783190803.7105,1,1,1.0000,-0.0002,1.44679,0.19286,-2.78732,1.02362,1.57079,0.00003,-0.14511,-0.38001,0.03625,,,,,,,,,,,,,,,,,,,,,,,,,,0,0,0,0,0
4.7322,1783190803.7189,1,1,1.0000,-0.0002,1.44679,0.19267,-2.78736,1.02385,1.57079,0.00003,-0.14511,-0.38001,0.03621,,,,,,,,,,,,,,,,,,,,,,,,,,0,0,0,0,0
4.7408,1783190803.7275,1,1,1.0000,-0.0002,1.44679,0.19253,-2.78740,1.02403,1.57079,0.00003,-0.14511,-0.38001,0.03617,,,,,,,,,,,,,,,,,,,,,,,,,,0,0,0,0,0
4.7464,1783190803.7331,1,1,1.0000,-0.0002,1.44679,0.19253,-2.78740,1.02403,1.57079,0.00003,-0.14511,-0.38001,0.03617,,,,,,,,,,,,,,,,,,,,,,,,,,0,0,0,0,0
4.7570,1783190803.7437,1,1,1.0000,-0.0002,1.44679,0.19243,-2.78742,1.02415,1.57079,0.00003,-0.14511,-0.38001,0.03615,,,,,,,,,,,,,,,,,,,,,,,,,,0,0,0,0,0
4.7663,1783190803.7531,1,1,1.0000,-0.0002,1.44679,0.19229,-2.78745,1.02432,1.57079,0.00003,-0.14511,-0.38001,0.03612,,,,,,,,,,,,,,,,,,,,,,,,,,0,0,0,0,0
4.7666,1783190803.7534,1,1,1.0000,-0.0002,1.44679,0.19229,-2.78745,1.02432,1.57079,0.00003,-0.14511,-0.38001,0.03612,,,,,,,,,,,,,,,,,,,,,,,,,,0,0,0,0,0
4.7815,1783190803.7683,1,1,1.0000,-0.0002,1.44679,0.19214,-2.78749,1.02451,1.57079,0.00003,-0.14511,-0.38001,0.03608,,,,,,,,,,,,,,,,,,,,,,,,,,0,0,0,0,0
4.7875,1783190803.7743,1,1,1.0000,-0.0002,1.44679,0.19211,-2.78749,1.02454,1.57079,0.00003,-0.14511,-0.38001,0.03607,,,,,,,,,,,,,,,,,,,,,,,,,,0,0,0,0,0
4.7882,1783190803.7750,1,1,1.0000,-0.0002,1.44679,0.19207,-2.78750,1.02459,1.57079,0.00003,-0.14511,-0.38001,0.03606,,,,,,,,,,,,,,,,,,,,,,,,,,0,0,0,0,0
4.7980,1783190803.7848,1,1,1.0000,-0.0002,1.44679,0.19197,-2.78752,1.02472,1.57079,0.00003,-0.14511,-0.38001,0.03604,,,,,,,,,,,,,,,,,,,,,,,,,,0,0,0,0,0
4.8074,1783190803.7942,1,1,1.0000,-0.0002,1.44679,0.19191,-2.78754,1.02479,1.57079,0.00003,-0.14511,-0.38001,0.03602,,,,,,,,,,,,,,,,,,,,,,,,,,0,0,0,0,0
4.8174,1783190803.8041,1,1,1.0000,-0.0002,1.44679,0.19180,-2.78756,1.02492,1.57079,0.00003,-0.14511,-0.38001,0.03599,,,,,,,,,,,,,,,,,,,,,,,,,,0,0,0,0,0
4.8285,1783190803.8153,1,1,1.0000,-0.0002,1.44679,0.19159,-2.78761,1.02518,1.57079,0.00003,-0.14511,-0.38001,0.03594,,,,,,,,,,,,,,,,,,,,,,,,,,0,0,0,0,0
4.8289,1783190803.8157,1,1,1.0000,-0.0002,1.44679,0.19159,-2.78761,1.02518,1.57079,0.00003,-0.14511,-0.38001,0.03594,,,,,,,,,,,,,,,,,,,,,,,,,,0,0,0,0,0
4.8426,1783190803.8293,1,1,1.0000,-0.0002,1.44679,0.19151,-2.78763,1.02528,1.57079,0.00003,-0.14511,-0.38001,0.03592,,,,,,,,,,,,,,,,,,,,,,,,,,0,0,0,0,0
4.8536,1783190803.8403,1,1,1.0000,-0.0002,1.44679,0.19140,-2.78766,1.02542,1.57079,0.00003,-0.14511,-0.38001,0.03589,,,,,,,,,,,,,,,,,,,,,,,,,,0,0,0,0,0
4.8565,1783190803.8433,1,1,1.0000,-0.0002,1.44679,0.19134,-2.78767,1.02549,1.57079,0.00003,-0.14511,-0.38001,0.03588,,,,,,,,,,,,,,,,,,,,,,,,,,0,0,0,0,0
4.8698,1783190803.8566,1,1,1.0000,-0.0002,1.44679,0.19126,-2.78769,1.02558,1.57079,0.00003,-0.14511,-0.38001,0.03586,,,,,,,,,,,,,,,,,,,,,,,,,,0,0,0,0,0
4.8830,1783190803.8698,1,1,1.0000,-0.0002,1.44679,0.19111,-2.78772,1.02577,1.57079,0.00003,-0.14511,-0.38001,0.03582,,,,,,,,,,,,,,,,,,,,,,,,,,0,0,0,0,0
4.8833,1783190803.8701,1,1,1.0000,-0.0002,1.44679,0.19111,-2.78772,1.02577,1.57079,0.00003,-0.14511,-0.38001,0.03582,,,,,,,,,,,,,,,,,,,,,,,,,,0,0,0,0,0
4.8886,1783190803.8753,1,1,1.0000,-0.0002,1.44679,0.19096,-2.78775,1.02596,1.57079,0.00003,-0.14511,-0.38001,0.03579,,,,,,,,,,,,,,,,,,,,,,,,,,0,0,0,0,0
4.8966,1783190803.8834,1,1,1.0000,-0.0002,1.44679,0.19089,-2.78777,1.02604,1.57079,0.00003,-0.14511,-0.38001,0.03577,,,,,,,,,,,,,,,,,,,,,,,,,,0,0,0,0,0
4.8969,1783190803.8837,1,1,1.0000,-0.0002,1.44679,0.19089,-2.78777,1.02604,1.57079,0.00003,-0.14511,-0.38001,0.03577,,,,,,,,,,,,,,,,,,,,,,,,,,0,0,0,0,0
4.9097,1783190803.8965,1,1,1.0000,-0.0002,1.44679,0.19082,-2.78779,1.02613,1.57079,0.00003,-0.14511,-0.38001,0.03575,,,,,,,,,,,,,,,,,,,,,,,,,,0,0,0,0,0
4.9211,1783190803.9078,1,1,1.0000,-0.0002,1.44679,0.19065,-2.78783,1.02634,1.57079,0.00003,-0.14511,-0.38001,0.03571,,,,,,,,,,,,,,,,,,,,,,,,,,0,0,0,0,0
4.9213,1783190803.9081,1,1,1.0000,-0.0002,1.44679,0.19065,-2.78783,1.02634,1.57079,0.00003,-0.14511,-0.38001,0.03571,,,,,,,,,,,,,,,,,,,,,,,,,,0,0,0,0,0
4.9266,1783190803.9133,1,1,1.0000,-0.0002,1.44679,0.19065,-2.78783,1.02634,1.57079,0.00003,-0.14511,-0.38001,0.03571,,,,,,,,,,,,,,,,,,,,,,,,,,0,0,0,0,0
4.9269,1783190803.9136,1,1,1.0000,-0.0002,1.44679,0.19065,-2.78783,1.02634,1.57079,0.00003,-0.14511,-0.38001,0.03571,,,,,,,,,,,,,,,,,,,,,,,,,,0,0,0,0,0
4.9365,1783190803.9233,1,1,1.0000,-0.0002,1.44679,0.19055,-2.78785,1.02646,1.57079,0.00003,-0.14511,-0.38001,0.03568,,,,,,,,,,,,,,,,,,,,,,,,,,0,0,0,0,0
4.9467,1783190803.9334,1,1,1.0000,-0.0002,1.44679,0.19041,-2.78788,1.02664,1.57079,0.00003,-0.14511,-0.38001,0.03565,,,,,,,,,,,,,,,,,,,,,,,,,,0,0,0,0,0
4.9576,1783190803.9443,1,1,1.0000,-0.0002,1.44679,0.19026,-2.78791,1.02682,1.57079,0.00003,-0.14511,-0.38001,0.03561,,,,,,,,,,,,,,,,,,,,,,,,,,0,0,0,0,0
4.9684,1783190803.9551,1,1,1.0000,-0.0002,1.44679,0.19019,-2.78793,1.02691,1.57079,0.00003,-0.14511,-0.38001,0.03560,,,,,,,,,,,,,,,,,,,,,,,,,,0,0,0,0,0
4.9767,1783190803.9635,1,1,1.0000,-0.0002,1.44679,0.19008,-2.78796,1.02704,1.57079,0.00003,-0.14511,-0.38001,0.03557,,,,,,,,,,,,,,,,,,,,,,,,,,0,0,0,0,0
4.9770,1783190803.9638,1,1,1.0000,-0.0002,1.44679,0.19008,-2.78796,1.02704,1.57079,0.00003,-0.14511,-0.38001,0.03557,,,,,,,,,,,,,,,,,,,,,,,,,,0,0,0,0,0
4.9924,1783190803.9791,1,1,1.0000,-0.0002,1.44679,0.18997,-2.78798,1.02717,1.57079,0.00003,-0.14511,-0.38001,0.03554,,,,,,,,,,,,,,,,,,,,,,,,,,0,0,0,0,0
5.0029,1783190803.9897,1,1,1.0000,-0.0002,1.44679,0.18985,-2.78801,1.02732,1.57079,0.00003,-0.14511,-0.38001,0.03551,,,,,,,,,,,,,,,,,,,,,,,,,,0,0,0,0,0
5.0061,1783190803.9928,1,1,1.0000,-0.0002,1.44679,0.18978,-2.78802,1.02741,1.57079,0.00003,-0.14511,-0.38001,0.03550,,,,,,,,,,,,,,,,,,,,,,,,,,0,0,0,0,0
5.0063,1783190803.9931,1,1,1.0000,-0.0002,1.44679,0.18978,-2.78802,1.02741,1.57079,0.00003,-0.14511,-0.38001,0.03550,,,,,,,,,,,,,,,,,,,,,,,,,,0,0,0,0,0
5.0218,1783190804.0085,1,1,1.0000,-0.0002,1.44679,0.18962,-2.78806,1.02760,1.57079,0.00003,-0.14511,-0.38001,0.03546,,,,,,,,,,,,,,,,,,,,,,,,,,0,0,0,0,0
5.0286,1783190804.0154,1,1,1.0000,-0.0002,1.44679,0.18956,-2.78807,1.02768,1.57079,0.00003,-0.14511,-0.38001,0.03544,,,,,,,,,,,,,,,,,,,,,,,,,,0,0,0,0,0
5.0443,1783190804.0310,1,1,1.0000,-0.0002,1.44679,0.18939,-2.78811,1.02789,1.57079,0.00003,-0.14511,-0.38001,0.03540,,,,,,,,,,,,,,,,,,,,,,,,,,0,0,0,0,0
5.0461,1783190804.0329,1,1,1.0000,-0.0002,1.44679,0.18939,-2.78811,1.02789,1.57079,0.00003,-0.14511,-0.38001,0.03540,,,,,,,,,,,,,,,,,,,,,,,,,,0,0,0,0,0
5.0464,1783190804.0331,1,1,1.0000,-0.0002,1.44679,0.18939,-2.78811,1.02789,1.57079,0.00003,-0.14511,-0.38001,0.03540,,,,,,,,,,,,,,,,,,,,,,,,,,0,0,0,0,0
5.0580,1783190804.0447,1,1,1.0000,-0.0002,1.44679,0.18928,-2.78814,1.02801,1.57079,0.00003,-0.14511,-0.38001,0.03537,,,,,,,,,,,,,,,,,,,,,,,,,,0,0,0,0,0
5.0582,1783190804.0450,1,1,1.0000,-0.0002,1.44679,0.18928,-2.78814,1.02801,1.57079,0.00003,-0.14511,-0.38001,0.03537,,,,,,,,,,,,,,,,,,,,,,,,,,0,0,0,0,0
5.0777,1783190804.0644,1,1,1.0000,-0.0002,1.44679,0.18900,-2.78820,1.02836,1.57079,0.00003,-0.14511,-0.38001,0.03530,,,,,,,,,,,,,,,,,,,,,,,,,,0,0,0,0,0
5.0783,1783190804.0651,1,1,1.0000,-0.0002,1.44679,0.18900,-2.78820,1.02836,1.57079,0.00003,-0.14511,-0.38001,0.03530,,,,,,,,,,,,,,,,,,,,,,,,,,0,0,0,0,0
5.0787,1783190804.0655,1,1,1.0000,-0.0002,1.44679,0.18900,-2.78820,1.02836,1.57079,0.00003,-0.14511,-0.38001,0.03530,,,,,,,,,,,,,,,,,,,,,,,,,,0,0,0,0,0
5.0883,1783190804.0751,1,1,1.0000,-0.0002,1.44679,0.18892,-2.78822,1.02845,1.57079,0.00003,-0.14511,-0.38001,0.03529,,,,,,,,,,,,,,,,,,,,,,,,,,0,0,0,0,0
5.0990,1783190804.0857,1,1,1.0000,-0.0002,1.44679,0.18882,-2.78824,1.02858,1.57079,0.00003,-0.14511,-0.38001,0.03526,,,,,,,,,,,,,,,,,,,,,,,,,,0,0,0,0,0
5.1071,1783190804.0939,1,1,1.0000,-0.0002,1.44679,0.18876,-2.78826,1.02866,1.57079,0.00003,-0.14511,-0.38001,0.03524,,,,,,,,,,,,,,,,,,,,,,,,,,0,0,0,0,0
5.1184,1783190804.1052,1,1,1.0000,-0.0002,1.44679,0.18865,-2.78828,1.02879,1.57079,0.00003,-0.14511,-0.38001,0.03522,,,,,,,,,,,,,,,,,,,,,,,,,,0,0,0,0,0
5.1340,1783190804.1207,1,1,1.0000,-0.0002,1.44679,0.18837,-2.78834,1.02914,1.57079,0.00003,-0.14511,-0.38001,0.03515,,,,,,,,,,,,,,,,,,,,,,,,,,0,0,0,0,0
5.1411,1783190804.1278,1,1,1.0000,-0.0002,1.44679,0.18836,-2.78835,1.02915,1.57079,0.00003,-0.14511,-0.38001,0.03515,,,,,,,,,,,,,,,,,,,,,,,,,,0,0,0,0,0
5.1506,1783190804.1373,1,1,1.0000,-0.0002,1.44679,0.18829,-2.78836,1.02923,1.57079,0.00003,-0.14511,-0.38001,0.03513,,,,,,,,,,,,,,,,,,,,,,,,,,0,0,0,0,0
5.1563,1783190804.1431,1,1,1.0000,-0.0002,1.44679,0.18819,-2.78838,1.02936,1.57079,0.00003,-0.14511,-0.38001,0.03511,,,,,,,,,,,,,,,,,,,,,,,,,,0,0,0,0,0
5.1663,1783190804.1531,1,1,1.0000,-0.0002,1.44679,0.18812,-2.78840,1.02943,1.57079,0.00003,-0.14511,-0.38001,0.03509,,,,,,,,,,,,,,,,,,,,,,,,,,0,0,0,0,0
5.1767,1783190804.1634,1,1,1.0000,-0.0002,1.44679,0.18802,-2.78842,1.02956,1.57079,0.00004,-0.14511,-0.38001,0.03506,,,,,,,,,,,,,,,,,,,,,,,,,,0,0,0,0,0
5.1769,1783190804.1637,1,1,1.0000,-0.0002,1.44679,0.18802,-2.78842,1.02956,1.57079,0.00004,-0.14511,-0.38001,0.03506,,,,,,,,,,,,,,,,,,,,,,,,,,0,0,0,0,0
5.1914,1783190804.1782,1,1,1.0000,-0.0002,1.44679,0.18781,-2.78847,1.02982,1.57079,0.00004,-0.14511,-0.38001,0.03501,,,,,,,,,,,,,,,,,,,,,,,,,,0,0,0,0,0
5.1970,1783190804.1837,1,1,1.0000,-0.0002,1.44679,0.18773,-2.78849,1.02991,1.57079,0.00004,-0.14511,-0.38001,0.03499,,,,,,,,,,,,,,,,,,,,,,,,,,0,0,0,0,0
5.2084,1783190804.1951,1,1,1.0000,-0.0002,1.44679,0.18763,-2.78851,1.03003,1.57079,0.00004,-0.14511,-0.38001,0.03497,,,,,,,,,,,,,,,,,,,,,,,,,,0,0,0,0,0
5.2167,1783190804.2034,1,1,1.0000,-0.0002,1.44679,0.18750,-2.78854,1.03020,1.57079,0.00004,-0.14511,-0.38001,0.03494,,,,,,,,,,,,,,,,,,,,,,,,,,0,0,0,0,0
5.2291,1783190804.2158,1,1,1.0000,-0.0002,1.44679,0.18741,-2.78856,1.03031,1.57079,0.00004,-0.14511,-0.38001,0.03491,,,,,,,,,,,,,,,,,,,,,,,,,,0,0,0,0,0
5.2442,1783190804.2309,1,1,1.0000,-0.0002,1.44679,0.18719,-2.78861,1.03058,1.57079,0.00004,-0.14511,-0.38001,0.03486,,,,,,,,,,,,,,,,,,,,,,,,,,0,0,0,0,0
5.2505,1783190804.2372,1,1,1.0000,-0.0002,1.44679,0.18712,-2.78863,1.03067,1.57079,0.00004,-0.14511,-0.38001,0.03484,,,,,,,,,,,,,,,,,,,,,,,,,,0,0,0,0,0
5.2507,1783190804.2375,1,1,1.0000,-0.0002,1.44679,0.18712,-2.78863,1.03067,1.57079,0.00004,-0.14511,-0.38001,0.03484,,,,,,,,,,,,,,,,,,,,,,,,,,0,0,0,0,0
5.2571,1783190804.2439,1,1,1.0000,-0.0002,1.44679,0.18704,-2.78864,1.03076,1.57079,0.00004,-0.14511,-0.38001,0.03482,,,,,,,,,,,,,,,,,,,,,,,,,,0,0,0,0,0
5.2683,1783190804.2551,1,1,1.0000,-0.0002,1.44679,0.18694,-2.78866,1.03088,1.57079,0.00004,-0.14511,-0.38001,0.03480,,,,,,,,,,,,,,,,,,,,,,,,,,0,0,0,0,0
5.2789,1783190804.2657,1,1,1.0000,-0.0002,1.44679,0.18681,-2.78869,1.03105,1.57079,0.00004,-0.14511,-0.38001,0.03477,,,,,,,,,,,,,,,,,,,,,,,,,,0,0,0,0,0
5.2793,1783190804.2660,1,1,1.0000,-0.0002,1.44679,0.18681,-2.78869,1.03105,1.57079,0.00004,-0.14511,-0.38001,0.03477,,,,,,,,,,,,,,,,,,,,,,,,,,0,0,0,0,0
5.2928,1783190804.2795,1,1,1.0000,-0.0002,1.44679,0.18669,-2.78872,1.03119,1.57079,0.00004,-0.14511,-0.38001,0.03474,,,,,,,,,,,,,,,,,,,,,,,,,,0,0,0,0,0
5.2970,1783190804.2837,1,1,1.0000,-0.0002,1.44679,0.18664,-2.78873,1.03126,1.57079,0.00004,-0.14511,-0.38001,0.03472,,,,,,,,,,,,,,,,,,,,,,,,,,0,0,0,0,0
5.3068,1783190804.2936,1,1,1.0000,-0.0002,1.44679,0.18650,-2.78876,1.03142,1.57079,0.00004,-0.14511,-0.38001,0.03469,,,,,,,,,,,,,,,,,,,,,,,,,,0,0,0,0,0
5.3165,1783190804.3032,1,1,1.0000,-0.0002,1.44679,0.18635,-2.78880,1.03160,1.57079,0.00004,-0.14511,-0.38001,0.03466,,,,,,,,,,,,,,,,,,,,,,,,,,0,0,0,0,0
5.3292,1783190804.3160,1,1,1.0000,-0.0002,1.44679,0.18625,-2.78882,1.03172,1.57079,0.00004,-0.14511,-0.38001,0.03463,,,,,,,,,,,,,,,,,,,,,,,,,,0,0,0,0,0
5.3365,1783190804.3233,1,1,1.0000,-0.0002,1.44679,0.18612,-2.78885,1.03189,1.57079,0.00004,-0.14511,-0.38001,0.03460,,,,,,,,,,,,,,,,,,,,,,,,,,0,0,0,0,0
5.3525,1783190804.3393,1,1,1.0000,-0.0002,1.44679,0.18600,-2.78888,1.03204,1.57079,0.00004,-0.14511,-0.38001,0.03457,,,,,,,,,,,,,,,,,,,,,,,,,,0,0,0,0,0
5.3529,1783190804.3397,1,1,1.0000,-0.0002,1.44679,0.18600,-2.78888,1.03204,1.57079,0.00004,-0.14511,-0.38001,0.03457,,,,,,,,,,,,,,,,,,,,,,,,,,0,0,0,0,0
5.3571,1783190804.3438,1,1,1.0000,-0.0002,1.44679,0.18594,-2.78889,1.03210,1.57079,0.00004,-0.14511,-0.38001,0.03456,,,,,,,,,,,,,,,,,,,,,,,,,,0,0,0,0,0
5.3685,1783190804.3553,1,1,1.0000,-0.0002,1.44679,0.18574,-2.78894,1.03236,1.57079,0.00004,-0.14511,-0.38001,0.03450,,,,,,,,,,,,,,,,,,,,,,,,,,0,0,0,0,0
5.3806,1783190804.3673,1,1,1.0000,-0.0002,1.44679,0.18565,-2.78896,1.03246,1.57079,0.00004,-0.14511,-0.38001,0.03448,,,,,,,,,,,,,,,,,,,,,,,,,,0,0,0,0,0
5.3810,1783190804.3677,1,1,1.0000,-0.0002,1.44679,0.18565,-2.78896,1.03246,1.57079,0.00004,-0.14511,-0.38001,0.03448,,,,,,,,,,,,,,,,,,,,,,,,,,0,0,0,0,0
5.3862,1783190804.3730,1,1,1.0000,-0.0002,1.44679,0.18562,-2.78896,1.03251,1.57079,0.00004,-0.14511,-0.38001,0.03448,,,,,,,,,,,,,,,,,,,,,,,,,,0,0,0,0,0
5.4003,1783190804.3871,1,1,1.0000,-0.0002,1.44679,0.18535,-2.78902,1.03283,1.57079,0.00004,-0.14511,-0.38001,0.03441,,,,,,,,,,,,,,,,,,,,,,,,,,0,0,0,0,0
5.4152,1783190804.4020,1,1,1.0000,-0.0002,1.44679,0.18531,-2.78903,1.03289,1.57079,0.00004,-0.14511,-0.38001,0.03440,,,,,,,,,,,,,,,,,,,,,,,,,,0,0,0,0,0
5.4212,1783190804.4079,1,1,1.0000,-0.0002,1.44679,0.18519,-2.78906,1.03303,1.57079,0.00004,-0.14511,-0.38001,0.03437,,,,,,,,,,,,,,,,,,,,,,,,,,0,0,0,0,0
5.4215,1783190804.4083,1,1,1.0000,-0.0002,1.44679,0.18519,-2.78906,1.03303,1.57079,0.00004,-0.14511,-0.38001,0.03437,,,,,,,,,,,,,,,,,,,,,,,,,,0,0,0,0,0
5.4315,1783190804.4182,1,1,1.0000,-0.0002,1.44679,0.18504,-2.78909,1.03321,1.57079,0.00004,-0.14511,-0.38001,0.03434,,,,,,,,,,,,,,,,,,,,,,,,,,0,0,0,0,0
5.4419,1783190804.4287,1,1,1.0000,-0.0002,1.44679,0.18496,-2.78911,1.03331,1.57079,0.00004,-0.14511,-0.38001,0.03431,,,,,,,,,,,,,,,,,,,,,,,,,,0,0,0,0,0
