Martins-Lucaas/twinforge/sensors/Data/20260704_153040__samples.csv
t_rel_s,t_unix,cycle,phase,setpoint_n,force_net_n,q1,q2,q3,q4,q5,q6,tcp_x,tcp_y,tcp_z,taxel_0,taxel_1,taxel_2,taxel_3,taxel_4,taxel_5,taxel_6,taxel_7,taxel_8,taxel_9,taxel_10,taxel_11,taxel_12,taxel_13,taxel_14,taxel_15,taxel_16,taxel_17,taxel_18,taxel_19,taxel_20,taxel_21,taxel_22,taxel_23,taxel_24,n_RA,n_SA,cn_mm,cn_ra,cn_sa
0.0117,1783189840.3235,1,0,1.0000,0.0000,1.44682,0.23328,-2.77748,0.97337,1.57080,0.00000,-0.14512,-0.38003,0.04653,,,,,,,,,,,,,,,,,,,,,,,,,,0,0,0,0,0
0.0121,1783189840.3239,1,0,1.0000,0.0000,1.44682,0.23328,-2.77748,0.97337,1.57080,0.00000,-0.14512,-0.38003,0.04653,,,,,,,,,,,,,,,,,,,,,,,,,,0,0,0,0,0
0.0272,1783189840.3390,1,0,1.0000,0.0000,1.44682,0.23328,-2.77748,0.97337,1.57080,0.00000,-0.14512,-0.38003,0.04653,,,,,,,,,,,,,,,,,,,,,,,,,,0,0,0,0,0
0.0318,1783189840.3436,1,0,1.0000,0.0000,1.44682,0.23328,-2.77748,0.97337,1.57080,0.00000,-0.14512,-0.38003,0.04653,,,,,,,,,,,,,,,,,,,,,,,,,,0,0,0,0,0
0.0384,1783189840.3502,1,0,1.0000,0.0000,1.44682,0.23328,-2.77748,0.97337,1.57080,0.00000,-0.14512,-0.38003,0.04653,,,,,,,,,,,,,,,,,,,,,,,,,,0,0,0,0,0
0.0484,1783189840.3601,1,0,1.0000,0.0000,1.44682,0.23328,-2.77748,0.97337,1.57080,0.00000,-0.14512,-0.38003,0.04653,,,,,,,,,,,,,,,,,,,,,,,,,,0,0,0,0,0
0.0579,1783189840.3697,1,0,1.0000,0.0000,1.44682,0.23328,-2.77748,0.97337,1.57080,0.00000,-0.14512,-0.38003,0.04653,,,,,,,,,,,,,,,,,,,,,,,,,,0,0,0,0,0
0.0710,1783189840.3828,1,0,1.0000,0.0000,1.44682,0.23328,-2.77748,0.97337,1.57080,0.00000,-0.14512,-0.38003,0.04653,,,,,,,,,,,,,,,,,,,,,,,,,,0,0,0,0,0
0.0797,1783189840.3915,1,0,1.0000,0.0000,1.44682,0.23328,-2.77748,0.97337,1.57080,-0.00000,-0.14512,-0.38003,0.04653,,,,,,,,,,,,,,,,,,,,,,,,,,0,0,0,0,0
0.0801,1783189840.3919,1,0,1.0000,0.0000,1.44682,0.23328,-2.77748,0.97337,1.57080,-0.00000,-0.14512,-0.38003,0.04653,,,,,,,,,,,,,,,,,,,,,,,,,,0,0,0,0,0
0.0902,1783189840.4020,1,0,1.0000,0.0000,1.44682,0.23328,-2.77748,0.97337,1.57080,0.00000,-0.14512,-0.38003,0.04653,,,,,,,,,,,,,,,,,,,,,,,,,,0,0,0,0,0
0.0907,1783189840.4025,1,0,1.0000,0.0000,1.44682,0.23328,-2.77748,0.97337,1.57080,0.00000,-0.14512,-0.38003,0.04653,,,,,,,,,,,,,,,,,,,,,,,,,,0,0,0,0,0
0.1010,1783189840.4128,1,0,1.0000,0.0000,1.44682,0.23328,-2.77748,0.97337,1.57080,0.00000,-0.14512,-0.38003,0.04653,,,,,,,,,,,,,,,,,,,,,,,,,,0,0,0,0,0
0.1080,1783189840.4197,1,0,1.0000,0.0000,1.44682,0.23328,-2.77748,0.97337,1.57080,0.00000,-0.14512,-0.38003,0.04653,,,,,,,,,,,,,,,,,,,,,,,,,,0,0,0,0,0
0.1082,1783189840.4200,1,0,1.0000,0.0000,1.44682,0.23328,-2.77748,0.97337,1.57080,0.00000,-0.14512,-0.38003,0.04653,,,,,,,,,,,,,,,,,,,,,,,,,,0,0,0,0,0
0.1177,1783189840.4295,1,0,1.0000,0.0000,1.44682,0.23328,-2.77748,0.97337,1.57080,0.00000,-0.14512,-0.38003,0.04653,,,,,,,,,,,,,,,,,,,,,,,,,,0,0,0,0,0
0.1182,1783189840.4300,1,0,1.0000,0.0000,1.44682,0.23328,-2.77748,0.97337,1.57080,0.00000,-0.14512,-0.38003,0.04653,,,,,,,,,,,,,,,,,,,,,,,,,,0,0,0,0,0
0.1302,1783189840.4420,1,0,1.0000,0.0000,1.44682,0.23328,-2.77748,0.97337,1.57080,0.00000,-0.14512,-0.38003,0.04653,,,,,,,,,,,,,,,,,,,,,,,,,,0,0,0,0,0
0.1378,1783189840.4495,1,0,1.0000,0.0000,1.44682,0.23328,-2.77748,0.97337,1.57080,0.00000,-0.14512,-0.38003,0.04653,,,,,,,,,,,,,,,,,,,,,,,,,,0,0,0,0,0
0.1471,1783189840.4588,1,0,1.0000,0.0000,1.44682,0.23328,-2.77748,0.97337,1.57080,0.00000,-0.14512,-0.38003,0.04653,,,,,,,,,,,,,,,,,,,,,,,,,,0,0,0,0,0
0.1582,1783189840.4700,1,0,1.0000,0.0000,1.44682,0.23328,-2.77748,0.97337,1.57080,0.00000,-0.14512,-0.38003,0.04653,,,,,,,,,,,,,,,,,,,,,,,,,,0,0,0,0,0
0.1673,1783189840.4791,1,0,1.0000,0.0000,1.44682,0.23328,-2.77748,0.97337,1.57080,0.00000,-0.14512,-0.38003,0.04653,,,,,,,,,,,,,,,,,,,,,,,,,,0,0,0,0,0
0.1677,1783189840.4795,1,0,1.0000,0.0000,1.44682,0.23328,-2.77748,0.97337,1.57080,0.00000,-0.14512,-0.38003,0.04653,,,,,,,,,,,,,,,,,,,,,,,,,,0,0,0,0,0
0.1792,1783189840.4910,1,0,1.0000,0.0000,1.44682,0.23328,-2.77748,0.97337,1.57080,0.00000,-0.14512,-0.38003,0.04653,,,,,,,,,,,,,,,,,,,,,,,,,,0,0,0,0,0
0.1896,1783189840.5014,1,0,1.0000,0.0000,1.44682,0.23328,-2.77748,0.97337,1.57080,0.00000,-0.14512,-0.38003,0.04653,,,,,,,,,,,,,,,,,,,,,,,,,,0,0,0,0,0
0.1991,1783189840.5109,1,0,1.0000,0.0000,1.44682,0.23328,-2.77748,0.97337,1.57080,0.00000,-0.14512,-0.38003,0.04653,,,,,,,,,,,,,,,,,,,,,,,,,,0,0,0,0,0
0.2113,1783189840.5231,1,0,1.0000,0.0000,1.44682,0.23328,-2.77748,0.97337,1.57080,0.00000,-0.14512,-0.38003,0.04653,,,,,,,,,,,,,,,,,,,,,,,,,,0,0,0,0,0
0.2118,1783189840.5236,1,0,1.0000,0.0000,1.44682,0.23328,-2.77748,0.97337,1.57080,0.00000,-0.14512,-0.38003,0.04653,,,,,,,,,,,,,,,,,,,,,,,,,,0,0,0,0,0
0.2198,1783189840.5316,1,0,1.0000,0.0000,1.44682,0.23328,-2.77748,0.97337,1.57080,0.00000,-0.14512,-0.38003,0.04653,,,,,,,,,,,,,,,,,,,,,,,,,,0,0,0,0,0
0.2403,1783189840.5520,1,0,1.0000,0.0000,1.44682,0.23328,-2.77748,0.97337,1.57080,0.00000,-0.14512,-0.38003,0.04653,,,,,,,,,,,,,,,,,,,,,,,,,,0,0,0,0,0
0.2405,1783189840.5523,1,0,1.0000,0.0000,1.44682,0.23328,-2.77748,0.97337,1.57080,0.00000,-0.14512,-0.38003,0.04653,,,,,,,,,,,,,,,,,,,,,,,,,,0,0,0,0,0
0.2471,1783189840.5589,1,0,1.0000,0.0000,1.44682,0.23328,-2.77748,0.97337,1.57080,0.00000,-0.14512,-0.38003,0.04653,,,,,,,,,,,,,,,,,,,,,,,,,,0,0,0,0,0
0.2601,1783189840.5718,1,0,1.0000,0.0000,1.44682,0.23328,-2.77748,0.97337,1.57080,0.00000,-0.14512,-0.38003,0.04653,,,,,,,,,,,,,,,,,,,,,,,,,,0,0,0,0,0
0.2702,1783189840.5820,1,0,1.0000,0.0000,1.44682,0.23328,-2.77748,0.97337,1.57080,0.00000,-0.14512,-0.38003,0.04653,,,,,,,,,,,,,,,,,,,,,,,,,,0,0,0,0,0
0.2780,1783189840.5898,1,0,1.0000,0.0000,1.44682,0.23328,-2.77748,0.97337,1.57080,0.00000,-0.14512,-0.38003,0.04653,,,,,,,,,,,,,,,,,,,,,,,,,,0,0,0,0,0
0.2904,1783189840.6022,1,0,1.0000,0.0000,1.44682,0.23328,-2.77748,0.97337,1.57080,0.00000,-0.14512,-0.38003,0.04653,,,,,,,,,,,,,,,,,,,,,,,,,,0,0,0,0,0
0.2969,1783189840.6087,1,0,1.0000,0.0000,1.44682,0.23328,-2.77748,0.97337,1.57080,0.00000,-0.14512,-0.38003,0.04653,,,,,,,,,,,,,,,,,,,,,,,,,,0,0,0,0,0
0.2973,1783189840.6091,1,0,1.0000,0.0000,1.44682,0.23328,-2.77748,0.97337,1.57080,0.00000,-0.14512,-0.38003,0.04653,,,,,,,,,,,,,,,,,,,,,,,,,,0,0,0,0,0
0.3071,1783189840.6189,1,0,1.0000,0.0000,1.44682,0.23328,-2.77748,0.97337,1.57080,0.00000,-0.14512,-0.38003,0.04653,,,,,,,,,,,,,,,,,,,,,,,,,,0,0,0,0,0
0.3075,1783189840.6193,1,0,1.0000,0.0000,1.44682,0.23328,-2.77748,0.97337,1.57080,0.00000,-0.14512,-0.38003,0.04653,,,,,,,,,,,,,,,,,,,,,,,,,,0,0,0,0,0
0.3180,1783189840.6298,1,0,1.0000,0.0000,1.44682,0.23328,-2.77748,0.97337,1.57080,0.00000,-0.14512,-0.38003,0.04653,,,,,,,,,,,,,,,,,,,,,,,,,,0,0,0,0,0
0.3352,1783189840.6470,1,0,1.0000,0.0000,1.44682,0.23328,-2.77748,0.97337,1.57080,0.00000,-0.14512,-0.38003,0.04653,,,,,,,,,,,,,,,,,,,,,,,,,,0,0,0,0,0
0.3416,1783189840.6534,1,0,1.0000,0.0000,1.44682,0.23328,-2.77748,0.97337,1.57080,0.00000,-0.14512,-0.38003,0.04653,,,,,,,,,,,,,,,,,,,,,,,,,,0,0,0,0,0
0.3478,1783189840.6596,1,0,1.0000,0.0000,1.44682,0.23328,-2.77748,0.97337,1.57080,0.00000,-0.14512,-0.38003,0.04653,,,,,,,,,,,,,,,,,,,,,,,,,,0,0,0,0,0
0.3570,1783189840.6688,1,0,1.0000,0.0000,1.44682,0.23328,-2.77748,0.97337,1.57080,0.00000,-0.14512,-0.38003,0.04653,,,,,,,,,,,,,,,,,,,,,,,,,,0,0,0,0,0
0.3692,1783189840.6810,1,0,1.0000,0.0000,1.44682,0.23328,-2.77748,0.97337,1.57080,0.00000,-0.14512,-0.38003,0.04653,,,,,,,,,,,,,,,,,,,,,,,,,,0,0,0,0,0
0.3793,1783189840.6911,1,0,1.0000,0.0000,1.44682,0.23328,-2.77748,0.97337,1.57080,0.00000,-0.14512,-0.38003,0.04653,,,,,,,,,,,,,,,,,,,,,,,,,,0,0,0,0,0
0.3884,1783189840.7002,1,0,1.0000,0.0000,1.44682,0.23328,-2.77748,0.97337,1.57080,0.00000,-0.14512,-0.38003,0.04653,,,,,,,,,,,,,,,,,,,,,,,,,,0,0,0,0,0
0.3887,1783189840.7005,1,0,1.0000,0.0000,1.44682,0.23328,-2.77748,0.97337,1.57080,0.00000,-0.14512,-0.38003,0.04653,,,,,,,,,,,,,,,,,,,,,,,,,,0,0,0,0,0
0.3976,1783189840.7094,1,0,1.0000,0.0000,1.44682,0.23328,-2.77748,0.97337,1.57080,0.00000,-0.14512,-0.38003,0.04653,,,,,,,,,,,,,,,,,,,,,,,,,,0,0,0,0,0
0.4122,1783189840.7240,1,0,1.0000,0.0000,1.44682,0.23328,-2.77748,0.97337,1.57080,0.00000,-0.14512,-0.38003,0.04653,,,,,,,,,,,,,,,,,,,,,,,,,,0,0,0,0,0
0.4125,1783189840.7243,1,0,1.0000,0.0000,1.44682,0.23328,-2.77748,0.97337,1.57080,0.00000,-0.14512,-0.38003,0.04653,,,,,,,,,,,,,,,,,,,,,,,,,,0,0,0,0,0
0.4183,1783189840.7300,1,0,1.0000,0.0000,1.44682,0.23328,-2.77748,0.97337,1.57080,0.00000,-0.14512,-0.38003,0.04653,,,,,,,,,,,,,,,,,,,,,,,,,,0,0,0,0,0
0.4186,1783189840.7304,1,0,1.0000,0.0000,1.44682,0.23328,-2.77748,0.97337,1.57080,0.00000,-0.14512,-0.38003,0.04653,,,,,,,,,,,,,,,,,,,,,,,,,,0,0,0,0,0
0.4400,1783189840.7517,1,0,1.0000,0.0000,1.44682,0.23328,-2.77748,0.97337,1.57080,0.00000,-0.14512,-0.38003,0.04653,,,,,,,,,,,,,,,,,,,,,,,,,,0,0,0,0,0
0.4402,1783189840.7520,1,0,1.0000,0.0000,1.44682,0.23328,-2.77748,0.97337,1.57080,0.00000,-0.14512,-0.38003,0.04653,,,,,,,,,,,,,,,,,,,,,,,,,,0,0,0,0,0
0.4503,1783189840.7620,1,0,1.0000,0.0000,1.44682,0.23328,-2.77748,0.97337,1.57080,0.00000,-0.14512,-0.38003,0.04653,,,,,,,,,,,,,,,,,,,,,,,,,,0,0,0,0,0
0.4506,1783189840.7624,1,0,1.0000,0.0000,1.44682,0.23328,-2.77748,0.97337,1.57080,0.00000,-0.14512,-0.38003,0.04653,,,,,,,,,,,,,,,,,,,,,,,,,,0,0,0,0,0
0.4592,1783189840.7710,1,0,1.0000,0.0000,1.44682,0.23328,-2.77748,0.97337,1.57080,0.00000,-0.14512,-0.38003,0.04653,,,,,,,,,,,,,,,,,,,,,,,,,,0,0,0,0,0
0.4684,1783189840.7802,1,0,1.0000,0.0000,1.44682,0.23328,-2.77748,0.97337,1.57080,0.00000,-0.14512,-0.38003,0.04653,,,,,,,,,,,,,,,,,,,,,,,,,,0,0,0,0,0
0.4819,1783189840.7937,1,0,1.0000,0.0000,1.44682,0.23328,-2.77748,0.97337,1.57080,0.00000,-0.14512,-0.38003,0.04653,,,,,,,,,,,,,,,,,,,,,,,,,,0,0,0,0,0
0.4985,1783189840.8102,1,0,1.0000,0.0000,1.44682,0.23328,-2.77748,0.97337,1.57080,0.00000,-0.14512,-0.38003,0.04653,,,,,,,,,,,,,,,,,,,,,,,,,,0,0,0,0,0
0.4991,1783189840.8109,1,0,1.0000,0.0000,1.44682,0.23328,-2.77748,0.97337,1.57080,0.00000,-0.14512,-0.38003,0.04653,,,,,,,,,,,,,,,,,,,,,,,,,,0,0,0,0,0
0.5138,1783189840.8256,1,0,1.0000,0.0000,1.44682,0.23328,-2.77748,0.97337,1.57080,0.00000,-0.14512,-0.38003,0.04653,,,,,,,,,,,,,,,,,,,,,,,,,,0,0,0,0,0
0.5180,1783189840.8298,1,0,1.0000,0.0000,1.44682,0.23328,-2.77748,0.97337,1.57080,0.00000,-0.14512,-0.38003,0.04653,,,,,,,,,,,,,,,,,,,,,,,,,,0,0,0,0,0
0.5397,1783189840.8515,1,0,1.0000,0.0000,1.44682,0.23328,-2.77748,0.97337,1.57080,0.00000,-0.14512,-0.38003,0.04653,,,,,,,,,,,,,,,,,,,,,,,,,,0,0,0,0,0
0.5473,1783189840.8591,1,0,1.0000,0.0000,1.44682,0.23328,-2.77748,0.97337,1.57080,0.00000,-0.14512,-0.38003,0.04653,,,,,,,,,,,,,,,,,,,,,,,,,,0,0,0,0,0
0.5568,1783189840.8686,1,0,1.0000,0.0000,1.44682,0.23328,-2.77748,0.97337,1.57080,0.00000,-0.14512,-0.38003,0.04653,,,,,,,,,,,,,,,,,,,,,,,,,,0,0,0,0,0
0.5571,1783189840.8689,1,0,1.0000,0.0000,1.44682,0.23328,-2.77748,0.97337,1.57080,0.00000,-0.14512,-0.38003,0.04653,,,,,,,,,,,,,,,,,,,,,,,,,,0,0,0,0,0
0.5715,1783189840.8833,1,0,1.0000,0.0000,1.44682,0.23328,-2.77748,0.97337,1.57080,0.00000,-0.14512,-0.38003,0.04653,,,,,,,,,,,,,,,,,,,,,,,,,,0,0,0,0,0
0.5719,1783189840.8836,1,0,1.0000,0.0000,1.44682,0.23328,-2.77748,0.97337,1.57080,0.00000,-0.14512,-0.38003,0.04653,,,,,,,,,,,,,,,,,,,,,,,,,,0,0,0,0,0
0.5835,1783189840.8953,1,0,1.0000,0.0000,1.44682,0.23328,-2.77748,0.97337,1.57080,0.00000,-0.14512,-0.38003,0.04653,,,,,,,,,,,,,,,,,,,,,,,,,,0,0,0,0,0
0.5896,1783189840.9014,1,0,1.0000,0.0000,1.44682,0.23328,-2.77748,0.97337,1.57080,0.00000,-0.14512,-0.38003,0.04653,,,,,,,,,,,,,,,,,,,,,,,,,,0,0,0,0,0
0.5972,1783189840.9090,1,0,1.0000,0.0000,1.44682,0.23328,-2.77748,0.97337,1.57080,0.00000,-0.14512,-0.38003,0.04653,,,,,,,,,,,,,,,,,,,,,,,,,,0,0,0,0,0
0.5975,1783189840.9093,1,0,1.0000,0.0000,1.44682,0.23328,-2.77748,0.97337,1.57080,0.00000,-0.14512,-0.38003,0.04653,,,,,,,,,,,,,,,,,,,,,,,,,,0,0,0,0,0
0.6123,1783189840.9241,1,0,1.0000,0.0000,1.44682,0.23328,-2.77748,0.97337,1.57080,0.00000,-0.14512,-0.38003,0.04653,,,,,,,,,,,,,,,,,,,,,,,,,,0,0,0,0,0
0.6194,1783189840.9312,1,0,1.0000,0.0000,1.44682,0.23328,-2.77748,0.97337,1.57080,0.00000,-0.14512,-0.38003,0.04653,,,,,,,,,,,,,,,,,,,,,,,,,,0,0,0,0,0
0.6196,1783189840.9314,1,0,1.0000,0.0000,1.44682,0.23328,-2.77748,0.97337,1.57080,0.00000,-0.14512,-0.38003,0.04653,,,,,,,,,,,,,,,,,,,,,,,,,,0,0,0,0,0
0.6274,1783189840.9392,1,0,1.0000,0.0000,1.44682,0.23328,-2.77748,0.97337,1.57080,0.00000,-0.14512,-0.38003,0.04653,,,,,,,,,,,,,,,,,,,,,,,,,,0,0,0,0,0
0.6420,1783189840.9538,1,0,1.0000,0.0000,1.44682,0.23328,-2.77748,0.97337,1.57080,0.00000,-0.14512,-0.38003,0.04653,,,,,,,,,,,,,,,,,,,,,,,,,,0,0,0,0,0
0.6485,1783189840.9603,1,0,1.0000,0.0000,1.44682,0.23328,-2.77748,0.97337,1.57080,0.00000,-0.14512,-0.38003,0.04653,,,,,,,,,,,,,,,,,,,,,,,,,,0,0,0,0,0
0.6571,1783189840.9689,1,0,1.0000,0.0000,1.44682,0.23328,-2.77748,0.97337,1.57080,0.00000,-0.14512,-0.38003,0.04653,,,,,,,,,,,,,,,,,,,,,,,,,,0,0,0,0,0
0.6685,1783189840.9803,1,0,1.0000,0.0000,1.44682,0.23328,-2.77748,0.97337,1.57080,0.00000,-0.14512,-0.38003,0.04653,,,,,,,,,,,,,,,,,,,,,,,,,,0,0,0,0,0
0.6793,1783189840.9911,1,0,1.0000,0.0000,1.44682,0.23328,-2.77748,0.97337,1.57080,0.00000,-0.14512,-0.38003,0.04653,,,,,,,,,,,,,,,,,,,,,,,,,,0,0,0,0,0
0.6904,1783189841.0022,1,0,1.0000,0.0000,1.44682,0.23328,-2.77748,0.97337,1.57080,0.00000,-0.14512,-0.38003,0.04653,,,,,,,,,,,,,,,,,,,,,,,,,,0,0,0,0,0
0.7015,1783189841.0133,1,0,1.0000,0.0000,1.44682,0.23328,-2.77748,0.97337,1.57080,0.00000,-0.14512,-0.38003,0.04653,,,,,,,,,,,,,,,,,,,,,,,,,,0,0,0,0,0
0.7073,1783189841.0191,1,0,1.0000,0.0000,1.44682,0.23328,-2.77748,0.97337,1.57080,0.00000,-0.14512,-0.38003,0.04653,,,,,,,,,,,,,,,,,,,,,,,,,,0,0,0,0,0
0.7075,1783189841.0193,1,0,1.0000,0.0000,1.44682,0.23328,-2.77748,0.97337,1.57080,0.00000,-0.14512,-0.38003,0.04653,,,,,,,,,,,,,,,,,,,,,,,,,,0,0,0,0,0
0.7193,1783189841.0311,1,0,1.0000,0.0000,1.44682,0.23328,-2.77748,0.97337,1.57080,0.00000,-0.14512,-0.38003,0.04653,,,,,,,,,,,,,,,,,,,,,,,,,,0,0,0,0,0
0.7275,1783189841.0393,1,0,1.0000,0.0000,1.44682,0.23328,-2.77748,0.97337,1.57080,0.00000,-0.14512,-0.38003,0.04653,,,,,,,,,,,,,,,,,,,,,,,,,,0,0,0,0,0
0.7424,1783189841.0542,1,1,1.0000,0.0000,1.44682,0.23328,-2.77748,0.97337,1.57080,0.00000,-0.14512,-0.38003,0.04653,,,,,,,,,,,,,,,,,,,,,,,,,,0,0,0,0,0
0.7477,1783189841.0595,1,1,1.0000,0.0000,1.44682,0.23328,-2.77748,0.97337,1.57080,0.00000,-0.14512,-0.38003,0.04653,,,,,,,,,,,,,,,,,,,,,,,,,,0,0,0,0,0
0.7480,1783189841.0598,1,1,1.0000,0.0000,1.44682,0.23328,-2.77748,0.97337,1.57080,0.00000,-0.14512,-0.38003,0.04653,,,,,,,,,,,,,,,,,,,,,,,,,,0,0,0,0,0
0.7574,1783189841.0692,1,1,1.0000,0.0000,1.44682,0.23328,-2.77748,0.97337,1.57080,0.00000,-0.14512,-0.38003,0.04653,,,,,,,,,,,,,,,,,,,,,,,,,,0,0,0,0,0
0.7673,1783189841.0791,1,1,1.0000,0.0000,1.44682,0.23328,-2.77748,0.97337,1.57080,0.00000,-0.14512,-0.38003,0.04653,,,,,,,,,,,,,,,,,,,,,,,,,,0,0,0,0,0
0.7677,1783189841.0794,1,1,1.0000,0.0000,1.44682,0.23328,-2.77748,0.97337,1.57080,0.00000,-0.14512,-0.38003,0.04653,,,,,,,,,,,,,,,,,,,,,,,,,,0,0,0,0,0
0.7806,1783189841.0924,1,1,1.0000,0.0000,1.44682,0.23328,-2.77748,0.97337,1.57080,0.00000,-0.14512,-0.38003,0.04653,,,,,,,,,,,,,,,,,,,,,,,,,,0,0,0,0,0
0.7905,1783189841.1023,1,1,1.0000,0.0000,1.44682,0.23328,-2.77748,0.97337,1.57080,0.00000,-0.14512,-0.38003,0.04653,,,,,,,,,,,,,,,,,,,,,,,,,,0,0,0,0,0
0.7913,1783189841.1031,1,1,1.0000,0.0000,1.44682,0.23328,-2.77748,0.97337,1.57080,0.00000,-0.14512,-0.38003,0.04653,,,,,,,,,,,,,,,,,,,,,,,,,,0,0,0,0,0
0.7993,1783189841.1111,1,1,1.0000,0.0000,1.44682,0.23328,-2.77748,0.97337,1.57080,0.00000,-0.14512,-0.38003,0.04653,,,,,,,,,,,,,,,,,,,,,,,,,,0,0,0,0,0
0.8074,1783189841.1192,1,1,1.0000,0.0000,1.44682,0.23328,-2.77748,0.97337,1.57080,0.00000,-0.14512,-0.38003,0.04653,,,,,,,,,,,,,,,,,,,,,,,,,,0,0,0,0,0
0.8202,1783189841.1320,1,1,1.0000,0.0000,1.44682,0.23328,-2.77748,0.97337,1.57080,0.00000,-0.14512,-0.38003,0.04653,,,,,,,,,,,,,,,,,,,,,,,,,,0,0,0,0,0
0.8278,1783189841.1396,1,1,1.0000,0.0000,1.44682,0.23328,-2.77748,0.97337,1.57080,0.00000,-0.14512,-0.38003,0.04653,,,,,,,,,,,,,,,,,,,,,,,,,,0,0,0,0,0
0.8282,1783189841.1399,1,1,1.0000,0.0000,1.44682,0.23328,-2.77748,0.97337,1.57080,0.00000,-0.14512,-0.38003,0.04653,,,,,,,,,,,,,,,,,,,,,,,,,,0,0,0,0,0
0.8448,1783189841.1566,1,1,1.0000,0.0000,1.44682,0.23328,-2.77748,0.97337,1.57080,0.00000,-0.14512,-0.38003,0.04653,,,,,,,,,,,,,,,,,,,,,,,,,,0,0,0,0,0
0.8527,1783189841.1645,1,1,1.0000,0.0000,1.44682,0.23328,-2.77748,0.97337,1.57080,0.00000,-0.14512,-0.38003,0.04653,,,,,,,,,,,,,,,,,,,,,,,,,,0,0,0,0,0
0.8595,1783189841.1713,1,1,1.0000,0.0000,1.44682,0.23328,-2.77748,0.97337,1.57080,0.00000,-0.14512,-0.38003,0.04653,,,,,,,,,,,,,,,,,,,,,,,,,,0,0,0,0,0
0.8688,1783189841.1806,1,1,1.0000,0.0000,1.44682,0.23328,-2.77748,0.97337,1.57080,0.00000,-0.14512,-0.38003,0.04653,,,,,,,,,,,,,,,,,,,,,,,,,,0,0,0,0,0
0.8785,1783189841.1903,1,1,1.0000,0.0000,1.44682,0.23328,-2.77748,0.97337,1.57080,0.00000,-0.14512,-0.38003,0.04653,,,,,,,,,,,,,,,,,,,,,,,,,,0,0,0,0,0
0.8974,1783189841.2092,1,1,1.0000,0.0000,1.44682,0.23328,-2.77748,0.97337,1.57080,0.00000,-0.14512,-0.38003,0.04653,,,,,,,,,,,,,,,,,,,,,,,,,,0,0,0,0,0
0.8978,1783189841.2096,1,1,1.0000,0.0000,1.44682,0.23328,-2.77748,0.97337,1.57080,0.00000,-0.14512,-0.38003,0.04653,,,,,,,,,,,,,,,,,,,,,,,,,,0,0,0,0,0
0.8991,1783189841.2108,1,1,1.0000,0.0000,1.44682,0.23328,-2.77748,0.97337,1.57080,0.00000,-0.14512,-0.38003,0.04653,,,,,,,,,,,,,,,,,,,,,,,,,,0,0,0,0,0
0.9077,1783189841.2194,1,1,1.0000,0.0000,1.44682,0.23328,-2.77748,0.97337,1.57080,0.00000,-0.14512,-0.38003,0.04653,,,,,,,,,,,,,,,,,,,,,,,,,,0,0,0,0,0
0.9191,1783189841.2309,1,1,1.0000,0.0000,1.44682,0.23328,-2.77748,0.97337,1.57080,0.00000,-0.14512,-0.38003,0.04653,,,,,,,,,,,,,,,,,,,,,,,,,,0,0,0,0,0
0.9274,1783189841.2392,1,1,1.0000,0.0000,1.44682,0.23322,-2.77749,0.97344,1.57080,0.00000,-0.14512,-0.38003,0.04651,,,,,,,,,,,,,,,,,,,,,,,,,,0,0,0,0,0
0.9371,1783189841.2489,1,1,1.0000,0.0000,1.44682,0.23309,-2.77753,0.97361,1.57080,0.00000,-0.14512,-0.38003,0.04648,,,,,,,,,,,,,,,,,,,,,,,,,,0,0,0,0,0
0.9504,1783189841.2622,1,1,1.0000,0.0000,1.44682,0.23293,-2.77757,0.97381,1.57080,0.00000,-0.14512,-0.38003,0.04644,,,,,,,,,,,,,,,,,,,,,,,,,,0,0,0,0,0
0.9617,1783189841.2735,1,1,1.0000,0.0000,1.44682,0.23284,-2.77759,0.97392,1.57080,0.00000,-0.14512,-0.38003,0.04641,,,,,,,,,,,,,,,,,,,,,,,,,,0,0,0,0,0
0.9679,1783189841.2797,1,1,1.0000,0.0000,1.44682,0.23271,-2.77762,0.97408,1.57080,0.00000,-0.14512,-0.38003,0.04638,,,,,,,,,,,,,,,,,,,,,,,,,,0,0,0,0,0
0.9817,1783189841.2935,1,1,1.0000,0.0000,1.44682,0.23258,-2.77766,0.97425,1.57080,0.00000,-0.14512,-0.38003,0.04635,,,,,,,,,,,,,,,,,,,,,,,,,,0,0,0,0,0
0.9875,1783189841.2993,1,1,1.0000,0.0000,1.44682,0.23254,-2.77767,0.97430,1.57080,0.00000,-0.14512,-0.38003,0.04633,,,,,,,,,,,,,,,,,,,,,,,,,,0,0,0,0,0
1.0021,1783189841.3139,1,1,1.0000,0.0000,1.44682,0.23236,-2.77771,0.97452,1.57080,0.00000,-0.14512,-0.38003,0.04629,,,,,,,,,,,,,,,,,,,,,,,,,,0,0,0,0,0
1.0115,1783189841.3233,1,1,1.0000,0.0000,1.44682,0.23228,-2.77773,0.97463,1.57080,0.00000,-0.14512,-0.38003,0.04627,,,,,,,,,,,,,,,,,,,,,,,,,,0,0,0,0,0
1.0188,1783189841.3306,1,1,1.0000,0.0000,1.44682,0.23225,-2.77774,0.97467,1.57080,0.00000,-0.14512,-0.38003,0.04626,,,,,,,,,,,,,,,,,,,,,,,,,,0,0,0,0,0
1.0195,1783189841.3313,1,1,1.0000,0.0000,1.44682,0.23220,-2.77776,0.97473,1.57080,0.00000,-0.14512,-0.38003,0.04625,,,,,,,,,,,,,,,,,,,,,,,,,,0,0,0,0,0
1.0332,1783189841.3449,1,1,1.0000,0.0000,1.44682,0.23200,-2.77781,0.97498,1.57080,0.00000,-0.14512,-0.38003,0.04619,,,,,,,,,,,,,,,,,,,,,,,,,,0,0,0,0,0
1.0374,1783189841.3492,1,1,1.0000,0.0000,1.44682,0.23193,-2.77782,0.97506,1.57080,0.00000,-0.14512,-0.38003,0.04618,,,,,,,,,,,,,,,,,,,,,,,,,,0,0,0,0,0
1.0478,1783189841.3595,1,1,1.0000,0.0000,1.44682,0.23189,-2.77784,0.97512,1.57080,0.00000,-0.14512,-0.38003,0.04616,,,,,,,,,,,,,,,,,,,,,,,,,,0,0,0,0,0
1.0482,1783189841.3599,1,1,1.0000,0.0000,1.44682,0.23189,-2.77784,0.97512,1.57080,0.00000,-0.14512,-0.38003,0.04616,,,,,,,,,,,,,,,,,,,,,,,,,,0,0,0,0,0
1.0570,1783189841.3688,1,1,1.0000,0.0000,1.44682,0.23178,-2.77786,0.97525,1.57080,0.00000,-0.14512,-0.38003,0.04614,,,,,,,,,,,,,,,,,,,,,,,,,,0,0,0,0,0
1.0574,1783189841.3691,1,1,1.0000,0.0000,1.44682,0.23178,-2.77786,0.97525,1.57080,0.00000,-0.14512,-0.38003,0.04614,,,,,,,,,,,,,,,,,,,,,,,,,,0,0,0,0,0
1.0678,1783189841.3796,1,1,1.0000,0.0000,1.44682,0.23164,-2.77790,0.97543,1.57080,0.00000,-0.14512,-0.38003,0.04610,,,,,,,,,,,,,,,,,,,,,,,,,,0,0,0,0,0
1.0682,1783189841.3800,1,1,1.0000,0.0000,1.44682,0.23164,-2.77790,0.97543,1.57080,0.00000,-0.14512,-0.38003,0.04610,,,,,,,,,,,,,,,,,,,,,,,,,,0,0,0,0,0
1.0797,1783189841.3915,1,1,1.0000,0.0000,1.44682,0.23155,-2.77792,0.97554,1.57080,0.00000,-0.14512,-0.38003,0.04608,,,,,,,,,,,,,,,,,,,,,,,,,,0,0,0,0,0
1.0800,1783189841.3918,1,1,1.0000,0.0000,1.44682,0.23155,-2.77792,0.97554,1.57080,0.00000,-0.14512,-0.38003,0.04608,,,,,,,,,,,,,,,,,,,,,,,,,,0,0,0,0,0
1.1004,1783189841.4122,1,1,1.0000,0.0000,1.44682,0.23129,-2.77799,0.97587,1.57080,0.00000,-0.14512,-0.38003,0.04601,,,,,,,,,,,,,,,,,,,,,,,,,,0,0,0,0,0
1.1008,1783189841.4126,1,1,1.0000,0.0000,1.44682,0.23129,-2.77799,0.97587,1.57080,0.00000,-0.14512,-0.38003,0.04601,,,,,,,,,,,,,,,,,,,,,,,,,,0,0,0,0,0
1.1113,1783189841.4231,1,1,1.0000,0.0000,1.44682,0.23119,-2.77801,0.97599,1.57080,0.00000,-0.14512,-0.38003,0.04598,,,,,,,,,,,,,,,,,,,,,,,,,,0,0,0,0,0
1.1170,1783189841.4288,1,1,1.0000,0.0000,1.44682,0.23113,-2.77803,0.97607,1.57080,0.00000,-0.14512,-0.38003,0.04597,,,,,,,,,,,,,,,,,,,,,,,,,,0,0,0,0,0
1.1276,1783189841.4394,1,1,1.0000,0.0000,1.44682,0.23099,-2.77807,0.97624,1.57080,0.00000,-0.14512,-0.38003,0.04593,,,,,,,,,,,,,,,,,,,,,,,,,,0,0,0,0,0
1.1415,1783189841.4532,1,1,1.0000,0.0000,1.44682,0.23090,-2.77809,0.97636,1.57080,0.00000,-0.14512,-0.38003,0.04591,,,,,,,,,,,,,,,,,,,,,,,,,,0,0,0,0,0
1.1418,1783189841.4536,1,1,1.0000,0.0000,1.44682,0.23090,-2.77809,0.97636,1.57080,0.00000,-0.14512,-0.38003,0.04591,,,,,,,,,,,,,,,,,,,,,,,,,,0,0,0,0,0
1.1555,1783189841.4672,1,1,1.0000,0.0000,1.44682,0.23064,-2.77816,0.97669,1.57080,0.00000,-0.14512,-0.38003,0.04584,,,,,,,,,,,,,,,,,,,,,,,,,,0,0,0,0,0
1.1559,1783189841.4677,1,1,1.0000,0.0000,1.44682,0.23064,-2.77816,0.97669,1.57080,0.00000,-0.14512,-0.38003,0.04584,,,,,,,,,,,,,,,,,,,,,,,,,,0,0,0,0,0
1.1606,1783189841.4724,1,1,1.0000,0.0000,1.44682,0.23064,-2.77816,0.97669,1.57080,0.00000,-0.14512,-0.38003,0.04584,,,,,,,,,,,,,,,,,,,,,,,,,,0,0,0,0,0
1.1673,1783189841.4791,1,1,1.0000,0.0000,1.44682,0.23059,-2.77817,0.97674,1.57080,0.00000,-0.14512,-0.38003,0.04583,,,,,,,,,,,,,,,,,,,,,,,,,,0,0,0,0,0
1.1812,1783189841.4930,1,1,1.0000,0.0000,1.44682,0.23042,-2.77821,0.97697,1.57080,0.00000,-0.14512,-0.38003,0.04578,,,,,,,,,,,,,,,,,,,,,,,,,,0,0,0,0,0
1.1878,1783189841.4996,1,1,1.0000,0.0000,1.44682,0.23035,-2.77823,0.97705,1.57080,0.00000,-0.14512,-0.38003,0.04576,,,,,,,,,,,,,,,,,,,,,,,,,,0,0,0,0,0
1.1881,1783189841.4999,1,1,1.0000,0.0000,1.44682,0.23035,-2.77823,0.97705,1.57080,0.00000,-0.14512,-0.38003,0.04576,,,,,,,,,,,,,,,,,,,,,,,,,,0,0,0,0,0
1.1986,1783189841.5103,1,1,1.0000,0.0000,1.44682,0.23030,-2.77824,0.97711,1.57080,0.00000,-0.14512,-0.38003,0.04575,,,,,,,,,,,,,,,,,,,,,,,,,,0,0,0,0,0
1.2135,1783189841.5253,1,1,1.0000,0.0000,1.44682,0.23006,-2.77831,0.97742,1.57080,0.00000,-0.14512,-0.38003,0.04569,,,,,,,,,,,,,,,,,,,,,,,,,,0,0,0,0,0
1.2188,1783189841.5306,1,1,1.0000,0.0000,1.44682,0.22999,-2.77832,0.97750,1.57080,0.00000,-0.14512,-0.38003,0.04567,,,,,,,,,,,,,,,,,,,,,,,,,,0,0,0,0,0
1.2275,1783189841.5393,1,1,1.0000,0.0000,1.44682,0.22994,-2.77833,0.97756,1.57080,0.00000,-0.14512,-0.38003,0.04566,,,,,,,,,,,,,,,,,,,,,,,,,,0,0,0,0,0
1.2278,1783189841.5396,1,1,1.0000,0.0000,1.44682,0.22994,-2.77833,0.97756,1.57080,0.00000,-0.14512,-0.38003,0.04566,,,,,,,,,,,,,,,,,,,,,,,,,,0,0,0,0,0
1.2372,1783189841.5490,1,1,1.0000,0.0000,1.44682,0.22983,-2.77836,0.97770,1.57080,0.00000,-0.14512,-0.38003,0.04563,,,,,,,,,,,,,,,,,,,,,,,,,,0,0,0,0,0
1.2546,1783189841.5664,1,1,1.0000,0.0000,1.44682,0.22963,-2.77841,0.97795,1.57080,0.00000,-0.14512,-0.38003,0.04558,,,,,,,,,,,,,,,,,,,,,,,,,,0,0,0,0,0
1.2551,1783189841.5669,1,1,1.0000,0.0000,1.44682,0.22962,-2.77842,0.97797,1.57080,0.00000,-0.14512,-0.38003,0.04557,,,,,,,,,,,,,,,,,,,,,,,,,,0,0,0,0,0
1.2594,1783189841.5712,1,1,1.0000,0.0000,1.44682,0.22960,-2.77842,0.97800,1.57080,0.00000,-0.14512,-0.38003,0.04557,,,,,,,,,,,,,,,,,,,,,,,,,,0,0,0,0,0
1.2683,1783189841.5801,1,1,1.0000,0.0000,1.44682,0.22951,-2.77844,0.97810,1.57080,0.00000,-0.14512,-0.38003,0.04555,,,,,,,,,,,,,,,,,,,,,,,,,,0,0,0,0,0
1.2687,1783189841.5805,1,1,1.0000,0.0000,1.44682,0.22951,-2.77844,0.97810,1.57080,0.00000,-0.14512,-0.38003,0.04555,,,,,,,,,,,,,,,,,,,,,,,,,,0,0,0,0,0
1.2772,1783189841.5890,1,1,1.0000,0.0000,1.44682,0.22940,-2.77847,0.97824,1.57080,0.00000,-0.14512,-0.38003,0.04552,,,,,,,,,,,,,,,,,,,,,,,,,,0,0,0,0,0
1.2903,1783189841.6021,1,1,1.0000,0.0000,1.44682,0.22935,-2.77849,0.97830,1.57080,0.00000,-0.14512,-0.38003,0.04550,,,,,,,,,,,,,,,,,,,,,,,,,,0,0,0,0,0
1.2994,1783189841.6112,1,1,1.0000,0.0000,1.44682,0.22917,-2.77853,0.97853,1.57080,0.00000,-0.14512,-0.38003,0.04546,,,,,,,,,,,,,,,,,,,,,,,,,,0,0,0,0,0
1.2998,1783189841.6116,1,1,1.0000,0.0000,1.44682,0.22917,-2.77853,0.97853,1.57080,0.00000,-0.14512,-0.38003,0.04546,,,,,,,,,,,,,,,,,,,,,,,,,,0,0,0,0,0
1.3084,1783189841.6202,1,1,1.0000,0.0000,1.44682,0.22903,-2.77857,0.97870,1.57080,0.00000,-0.14512,-0.38003,0.04542,,,,,,,,,,,,,,,,,,,,,,,,,,0,0,0,0,0
1.3186,1783189841.6303,1,1,1.0000,0.0000,1.44682,0.22902,-2.77857,0.97872,1.57080,0.00000,-0.14512,-0.38003,0.04542,,,,,,,,,,,,,,,,,,,,,,,,,,0,0,0,0,0
1.3288,1783189841.6406,1,1,1.0000,0.0000,1.44682,0.22892,-2.77860,0.97885,1.57080,0.00000,-0.14512,-0.38003,0.04539,,,,,,,,,,,,,,,,,,,,,,,,,,0,0,0,0,0
1.3425,1783189841.6543,1,1,1.0000,0.0000,1.44682,0.22880,-2.77863,0.97899,1.57080,0.00000,-0.14512,-0.38003,0.04536,,,,,,,,,,,,,,,,,,,,,,,,,,0,0,0,0,0
1.3748,1783189841.6866,1,1,1.0000,0.0000,1.44682,0.22844,-2.77872,0.97945,1.57080,0.00000,-0.14512,-0.38003,0.04526,,,,,,,,,,,,,,,,,,,,,,,,,,0,0,0,0,0
1.3754,1783189841.6872,1,1,1.0000,0.0000,1.44682,0.22843,-2.77872,0.97946,1.57080,0.00000,-0.14512,-0.38003,0.04526,,,,,,,,,,,,,,,,,,,,,,,,,,0,0,0,0,0
1.3768,1783189841.6885,1,1,1.0000,0.0000,1.44682,0.22843,-2.77872,0.97946,1.57080,0.00000,-0.14512,-0.38003,0.04526,,,,,,,,,,,,,,,,,,,,,,,,,,0,0,0,0,0
1.3772,1783189841.6890,1,1,1.0000,0.0000,1.44682,0.22843,-2.77872,0.97946,1.57080,0.00000,-0.14512,-0.38003,0.04526,,,,,,,,,,,,,,,,,,,,,,,,,,0,0,0,0,0
1.3888,1783189841.7006,1,1,1.0000,0.0000,1.44682,0.22832,-2.77875,0.97960,1.57080,0.00000,-0.14512,-0.38003,0.04523,,,,,,,,,,,,,,,,,,,,,,,,,,0,0,0,0,0
1.3971,1783189841.7089,1,1,1.0000,0.0000,1.44682,0.22821,-2.77878,0.97974,1.57080,0.00000,-0.14512,-0.38003,0.04521,,,,,,,,,,,,,,,,,,,,,,,,,,0,0,0,0,0
1.4100,1783189841.7218,1,1,1.0000,0.0000,1.44682,0.22816,-2.77879,0.97980,1.57080,0.00000,-0.14512,-0.38003,0.04519,,,,,,,,,,,,,,,,,,,,,,,,,,0,0,0,0,0
1.4187,1783189841.7305,1,1,1.0000,0.0000,1.44682,0.22805,-2.77882,0.97994,1.57080,0.00000,-0.14512,-0.38003,0.04516,,,,,,,,,,,,,,,,,,,,,,,,,,0,0,0,0,0
1.4198,1783189841.7315,1,1,1.0000,0.0000,1.44682,0.22798,-2.77884,0.98003,1.57080,0.00000,-0.14512,-0.38003,0.04515,,,,,,,,,,,,,,,,,,,,,,,,,,0,0,0,0,0
1.4276,1783189841.7394,1,1,1.0000,0.0000,1.44682,0.22784,-2.77887,0.98020,1.57080,0.00000,-0.14512,-0.38003,0.04511,,,,,,,,,,,,,,,,,,,,,,,,,,0,0,0,0,0
1.4372,1783189841.7490,1,1,1.0000,0.0000,1.44682,0.22783,-2.77887,0.98021,1.57080,0.00000,-0.14512,-0.38003,0.04511,,,,,,,,,,,,,,,,,,,,,,,,,,0,0,0,0,0
1.4638,1783189841.7756,1,1,1.0000,0.0000,1.44682,0.22760,-2.77893,0.98050,1.57080,0.00000,-0.14512,-0.38003,0.04505,,,,,,,,,,,,,,,,,,,,,,,,,,0,0,0,0,0
1.4642,1783189841.7760,1,1,1.0000,0.0000,1.44682,0.22760,-2.77893,0.98050,1.57080,0.00000,-0.14512,-0.38003,0.04505,,,,,,,,,,,,,,,,,,,,,,,,,,0,0,0,0,0
1.4689,1783189841.7807,1,1,1.0000,0.0000,1.44682,0.22756,-2.77894,0.98055,1.57080,0.00000,-0.14512,-0.38003,0.04504,,,,,,,,,,,,,,,,,,,,,,,,,,0,0,0,0,0
1.4785,1783189841.7902,1,1,1.0000,0.0000,1.44682,0.22745,-2.77897,0.98069,1.57080,0.00000,-0.14512,-0.38003,0.04501,,,,,,,,,,,,,,,,,,,,,,,,,,0,0,0,0,0
1.4904,1783189841.8022,1,1,1.0000,0.0000,1.44682,0.22724,-2.77902,0.98095,1.57080,0.00000,-0.14512,-0.38003,0.04495,,,,,,,,,,,,,,,,,,,,,,,,,,0,0,0,0,0
1.5121,1783189841.8239,1,1,1.0000,0.0000,1.44682,0.22707,-2.77907,0.98116,1.57080,0.00001,-0.14512,-0.38003,0.04491,,,,,,,,,,,,,,,,,,,,,,,,,,0,0,0,0,0
1.5127,1783189841.8245,1,1,1.0000,0.0000,1.44682,0.22707,-2.77907,0.98116,1.57080,0.00001,-0.14512,-0.38003,0.04491,,,,,,,,,,,,,,,,,,,,,,,,,,0,0,0,0,0
1.5139,1783189841.8257,1,1,1.0000,0.0000,1.44682,0.22707,-2.77907,0.98116,1.57080,0.00001,-0.14512,-0.38003,0.04491,,,,,,,,,,,,,,,,,,,,,,,,,,0,0,0,0,0
1.5239,1783189841.8357,1,1,1.0000,0.0000,1.44682,0.22700,-2.77908,0.98125,1.57080,0.00001,-0.14512,-0.38003,0.04489,,,,,,,,,,,,,,,,,,,,,,,,,,0,0,0,0,0
1.5243,1783189841.8361,1,1,1.0000,0.0000,1.44682,0.22700,-2.77908,0.98125,1.57080,0.00001,-0.14512,-0.38003,0.04489,,,,,,,,,,,,,,,,,,,,,,,,,,0,0,0,0,0
1.5274,1783189841.8392,1,1,1.0000,0.0000,1.44682,0.22697,-2.77909,0.98130,1.57080,0.00001,-0.14512,-0.38003,0.04488,,,,,,,,,,,,,,,,,,,,,,,,,,0,0,0,0,0
1.5417,1783189841.8535,1,1,1.0000,0.0000,1.44682,0.22678,-2.77914,0.98152,1.57080,0.00001,-0.14512,-0.38003,0.04484,,,,,,,,,,,,,,,,,,,,,,,,,,0,0,0,0,0
1.5646,1783189841.8764,1,1,1.0000,0.0000,1.44682,0.22655,-2.77920,0.98182,1.57080,0.00001,-0.14512,-0.38003,0.04478,,,,,,,,,,,,,,,,,,,,,,,,,,0,0,0,0,0
1.5650,1783189841.8768,1,1,1.0000,0.0000,1.44682,0.22655,-2.77920,0.98182,1.57080,0.00001,-0.14512,-0.38003,0.04478,,,,,,,,,,,,,,,,,,,,,,,,,,0,0,0,0,0
1.5715,1783189841.8832,1,1,1.0000,0.0000,1.44682,0.22642,-2.77923,0.98198,1.57080,0.00001,-0.14512,-0.38003,0.04474,,,,,,,,,,,,,,,,,,,,,,,,,,0,0,0,0,0
1.5770,1783189841.8888,1,1,1.0000,0.0000,1.44682,0.22635,-2.77925,0.98207,1.57080,0.00001,-0.14512,-0.38003,0.04472,,,,,,,,,,,,,,,,,,,,,,,,,,0,0,0,0,0
1.5773,1783189841.8891,1,1,1.0000,0.0000,1.44682,0.22635,-2.77925,0.98207,1.57080,0.00001,-0.14512,-0.38003,0.04472,,,,,,,,,,,,,,,,,,,,,,,,,,0,0,0,0,0
1.5901,1783189841.9019,1,1,1.0000,0.0000,1.44682,0.22631,-2.77926,0.98212,1.57080,0.00001,-0.14512,-0.38003,0.04471,,,,,,,,,,,,,,,,,,,,,,,,,,0,0,0,0,0
1.6099,1783189841.9217,1,1,1.0000,0.0000,1.44682,0.22599,-2.77934,0.98252,1.57080,0.00001,-0.14512,-0.38003,0.04463,,,,,,,,,,,,,,,,,,,,,,,,,,0,0,0,0,0
1.6101,1783189841.9219,1,1,1.0000,0.0000,1.44682,0.22599,-2.77934,0.98252,1.57080,0.00001,-0.14512,-0.38003,0.04463,,,,,,,,,,,,,,,,,,,,,,,,,,0,0,0,0,0
1.6171,1783189841.9288,1,1,1.0000,0.0000,1.44682,0.22598,-2.77934,0.98253,1.57080,0.00001,-0.14512,-0.38003,0.04463,,,,,,,,,,,,,,,,,,,,,,,,,,0,0,0,0,0
1.6473,1783189841.9591,1,1,1.0000,0.0000,1.44682,0.22565,-2.77943,0.98294,1.57080,0.00001,-0.14512,-0.38003,0.04454,,,,,,,,,,,,,,,,,,,,,,,,,,0,0,0,0,0
1.6476,1783189841.9593,1,1,1.0000,0.0000,1.44682,0.22565,-2.77943,0.98294,1.57080,0.00001,-0.14512,-0.38003,0.04454,,,,,,,,,,,,,,,,,,,,,,,,,,0,0,0,0,0
1.6480,1783189841.9597,1,1,1.0000,0.0000,1.44682,0.22565,-2.77943,0.98294,1.57080,0.00001,-0.14512,-0.38003,0.04454,,,,,,,,,,,,,,,,,,,,,,,,,,0,0,0,0,0
1.6708,1783189841.9826,1,1,1.0000,0.0000,1.44682,0.22534,-2.77951,0.98334,1.57080,0.00001,-0.14512,-0.38002,0.04446,,,,,,,,,,,,,,,,,,,,,,,,,,0,0,0,0,0
1.6714,1783189841.9832,1,1,1.0000,0.0000,1.44682,0.22534,-2.77951,0.98334,1.57080,0.00001,-0.14512,-0.38002,0.04446,,,,,,,,,,,,,,,,,,,,,,,,,,0,0,0,0,0
1.6794,1783189841.9912,1,1,1.0000,0.0000,1.44682,0.22529,-2.77952,0.98339,1.57080,0.00001,-0.14512,-0.38002,0.04445,,,,,,,,,,,,,,,,,,,,,,,,,,0,0,0,0,0
1.6926,1783189842.0044,1,1,1.0000,0.0000,1.44682,0.22512,-2.77956,0.98362,1.57080,0.00001,-0.14512,-0.38002,0.04440,,,,,,,,,,,,,,,,,,,,,,,,,,0,0,0,0,0
1.6992,1783189842.0110,1,1,1.0000,0.0000,1.44682,0.22504,-2.77958,0.98370,1.57080,0.00001,-0.14512,-0.38002,0.04439,,,,,,,,,,,,,,,,,,,,,,,,,,0,0,0,0,0
1.7092,1783189842.0210,1,1,1.0000,0.0000,1.44682,0.22500,-2.77959,0.98376,1.57080,0.00001,-0.14512,-0.38002,0.04437,,,,,,,,,,,,,,,,,,,,,,,,,,0,0,0,0,0
1.7175,1783189842.0293,1,1,1.0000,0.0000,1.44682,0.22489,-2.77962,0.98390,1.57080,0.00001,-0.14512,-0.38002,0.04435,,,,,,,,,,,,,,,,,,,,,,,,,,0,0,0,0,0
1.7180,1783189842.0298,1,1,1.0000,0.0000,1.44682,0.22489,-2.77962,0.98390,1.57080,0.00001,-0.14512,-0.38002,0.04435,,,,,,,,,,,,,,,,,,,,,,,,,,0,0,0,0,0
1.7273,1783189842.0391,1,1,1.0000,0.0000,1.44682,0.22468,-2.77967,0.98415,1.57080,0.00001,-0.14512,-0.38002,0.04429,,,,,,,,,,,,,,,,,,,,,,,,,,0,0,0,0,0
1.7421,1783189842.0539,1,1,1.0000,0.0000,1.44682,0.22464,-2.77968,0.98421,1.57080,0.00001,-0.14512,-0.38002,0.04428,,,,,,,,,,,,,,,,,,,,,,,,,,0,0,0,0,0
1.7472,1783189842.0590,1,1,1.0000,0.0000,1.44682,0.22453,-2.77971,0.98435,1.57080,0.00001,-0.14512,-0.38002,0.04425,,,,,,,,,,,,,,,,,,,,,,,,,,0,0,0,0,0
1.7475,1783189842.0592,1,1,1.0000,0.0000,1.44682,0.22453,-2.77971,0.98435,1.57080,0.00001,-0.14512,-0.38002,0.04425,,,,,,,,,,,,,,,,,,,,,,,,,,0,0,0,0,0
1.7710,1783189842.0828,1,1,1.0000,0.0000,1.44682,0.22431,-2.77976,0.98462,1.57080,0.00001,-0.14512,-0.38002,0.04420,,,,,,,,,,,,,,,,,,,,,,,,,,0,0,0,0,0
1.7799,1783189842.0917,1,1,1.0000,0.0000,1.44682,0.22421,-2.77979,0.98475,1.57080,0.00001,-0.14512,-0.38002,0.04417,,,,,,,,,,,,,,,,,,,,,,,,,,0,0,0,0,0
1.7802,1783189842.0920,1,1,1.0000,0.0000,1.44682,0.22421,-2.77979,0.98475,1.57080,0.00001,-0.14512,-0.38002,0.04417,,,,,,,,,,,,,,,,,,,,,,,,,,0,0,0,0,0
1.7875,1783189842.0993,1,1,1.0000,0.0000,1.44682,0.22409,-2.77982,0.98490,1.57080,0.00001,-0.14512,-0.38002,0.04414,,,,,,,,,,,,,,,,,,,,,,,,,,0,0,0,0,0
1.7972,1783189842.1090,1,1,1.0000,0.0000,1.44682,0.22408,-2.77982,0.98491,1.57080,0.00001,-0.14512,-0.38002,0.04414,,,,,,,,,,,,,,,,,,,,,,,,,,0,0,0,0,0
1.8175,1783189842.1293,1,1,1.0000,0.0000,1.44682,0.22379,-2.77990,0.98528,1.57080,0.00001,-0.14512,-0.38002,0.04406,,,,,,,,,,,,,,,,,,,,,,,,,,0,0,0,0,0
1.8195,1783189842.1313,1,1,1.0000,0.0000,1.44682,0.22372,-2.77991,0.98536,1.57080,0.00001,-0.14512,-0.38002,0.04404,,,,,,,,,,,,,,,,,,,,,,,,,,0,0,0,0,0
1.8198,1783189842.1315,1,1,1.0000,0.0000,1.44682,0.22372,-2.77991,0.98536,1.57080,0.00001,-0.14512,-0.38002,0.04404,,,,,,,,,,,,,,,,,,,,,,,,,,0,0,0,0,0
1.8280,1783189842.1398,1,1,1.0000,0.0000,1.44682,0.22371,-2.77992,0.98537,1.57080,0.00001,-0.14512,-0.38002,0.04404,,,,,,,,,,,,,,,,,,,,,,,,,,0,0,0,0,0
1.8283,1783189842.1400,1,1,1.0000,0.0000,1.44682,0.22371,-2.77992,0.98537,1.57080,0.00001,-0.14512,-0.38002,0.04404,,,,,,,,,,,,,,,,,,,,,,,,,,0,0,0,0,0
1.8445,1783189842.1563,1,1,1.0000,0.0000,1.44682,0.22355,-2.77996,0.98557,1.57080,0.00001,-0.14512,-0.38002,0.04400,,,,,,,,,,,,,,,,,,,,,,,,,,0,0,0,0,0
1.8488,1783189842.1606,1,1,1.0000,0.0000,1.44682,0.22349,-2.77997,0.98565,1.57080,0.00001,-0.14512,-0.38002,0.04398,,,,,,,,,,,,,,,,,,,,,,,,,,0,0,0,0,0
1.8596,1783189842.1714,1,1,1.0000,0.0000,1.44682,0.22344,-2.77998,0.98571,1.57080,0.00001,-0.14512,-0.38002,0.04397,,,,,,,,,,,,,,,,,,,,,,,,,,0,0,0,0,0
1.8599,1783189842.1717,1,1,1.0000,0.0000,1.44682,0.22344,-2.77998,0.98571,1.57080,0.00001,-0.14512,-0.38002,0.04397,,,,,,,,,,,,,,,,,,,,,,,,,,0,0,0,0,0
1.8685,1783189842.1803,1,1,1.0000,0.0000,1.44682,0.22333,-2.78001,0.98585,1.57080,0.00001,-0.14512,-0.38002,0.04394,,,,,,,,,,,,,,,,,,,,,,,,,,0,0,0,0,0
1.8775,1783189842.1893,1,1,1.0000,0.0000,1.44682,0.22319,-2.78005,0.98603,1.57080,0.00001,-0.14512,-0.38002,0.04391,,,,,,,,,,,,,,,,,,,,,,,,,,0,0,0,0,0
1.8906,1783189842.2023,1,1,1.0000,0.0000,1.44682,0.22311,-2.78007,0.98612,1.57080,0.00001,-0.14512,-0.38002,0.04389,,,,,,,,,,,,,,,,,,,,,,,,,,0,0,0,0,0
1.8989,1783189842.2107,1,1,1.0000,0.0000,1.44682,0.22305,-2.78008,0.98620,1.57080,0.00001,-0.14512,-0.38002,0.04387,,,,,,,,,,,,,,,,,,,,,,,,,,0,0,0,0,0
1.9086,1783189842.2204,1,1,1.0000,0.0000,1.44682,0.22289,-2.78012,0.98640,1.57080,0.00001,-0.14512,-0.38002,0.04383,,,,,,,,,,,,,,,,,,,,,,,,,,0,0,0,0,0
1.9193,1783189842.2311,1,1,1.0000,0.0000,1.44682,0.22284,-2.78013,0.98646,1.57080,0.00001,-0.14512,-0.38002,0.04382,,,,,,,,,,,,,,,,,,,,,,,,,,0,0,0,0,0
1.9197,1783189842.2315,1,1,1.0000,0.0000,1.44682,0.22284,-2.78013,0.98646,1.57080,0.00001,-0.14512,-0.38002,0.04382,,,,,,,,,,,,,,,,,,,,,,,,,,0,0,0,0,0
1.9317,1783189842.2435,1,1,1.0000,0.0000,1.44681,0.22266,-2.78018,0.98669,1.57080,0.00001,-0.14512,-0.38002,0.04377,,,,,,,,,,,,,,,,,,,,,,,,,,0,0,0,0,0
1.9321,1783189842.2438,1,1,1.0000,0.0000,1.44681,0.22266,-2.78018,0.98669,1.57080,0.00001,-0.14512,-0.38002,0.04377,,,,,,,,,,,,,,,,,,,,,,,,,,0,0,0,0,0
1.9370,1783189842.2488,1,1,1.0000,0.0000,1.44681,0.22259,-2.78020,0.98678,1.57080,0.00001,-0.14512,-0.38002,0.04375,,,,,,,,,,,,,,,,,,,,,,,,,,0,0,0,0,0
1.9374,1783189842.2492,1,1,1.0000,0.0000,1.44681,0.22259,-2.78020,0.98678,1.57080,0.00001,-0.14512,-0.38002,0.04375,,,,,,,,,,,,,,,,,,,,,,,,,,0,0,0,0,0
1.9479,1783189842.2597,1,1,1.0000,0.0000,1.44681,0.22251,-2.78022,0.98688,1.57080,0.00001,-0.14512,-0.38002,0.04373,,,,,,,,,,,,,,,,,,,,,,,,,,0,0,0,0,0
1.9614,1783189842.2732,1,1,1.0000,0.0000,1.44681,0.22240,-2.78024,0.98701,1.57080,0.00001,-0.14512,-0.38002,0.04370,,,,,,,,,,,,,,,,,,,,,,,,,,0,0,0,0,0
1.9714,1783189842.2832,1,1,1.0000,0.0000,1.44681,0.22229,-2.78027,0.98715,1.57080,0.00001,-0.14512,-0.38002,0.04367,,,,,,,,,,,,,,,,,,,,,,,,,,0,0,0,0,0
1.9776,1783189842.2893,1,1,1.0000,0.0000,1.44681,0.22227,-2.78028,0.98717,1.57080,0.00001,-0.14512,-0.38002,0.04367,,,,,,,,,,,,,,,,,,,,,,,,,,0,0,0,0,0
1.9781,1783189842.2899,1,1,1.0000,0.0000,1.44681,0.22227,-2.78028,0.98717,1.57080,0.00001,-0.14512,-0.38002,0.04367,,,,,,,,,,,,,,,,,,,,,,,,,,0,0,0,0,0
1.9905,1783189842.3023,1,1,1.0000,0.0000,1.44681,0.22213,-2.78031,0.98735,1.57080,0.00001,-0.14512,-0.38002,0.04363,,,,,,,,,,,,,,,,,,,,,,,,,,0,0,0,0,0
1.9915,1783189842.3033,1,1,1.0000,0.0000,1.44681,0.22206,-2.78033,0.98744,1.57080,0.00001,-0.14512,-0.38002,0.04361,,,,,,,,,,,,,,,,,,,,,,,,,,0,0,0,0,0
2.0104,1783189842.3221,1,1,1.0000,0.0000,1.44681,0.22191,-2.78037,0.98763,1.57080,0.00001,-0.14512,-0.38002,0.04358,,,,,,,,,,,,,,,,,,,,,,,,,,0,0,0,0,0
2.0107,1783189842.3225,1,1,1.0000,0.0000,1.44681,0.22191,-2.78037,0.98763,1.57080,0.00001,-0.14512,-0.38002,0.04358,,,,,,,,,,,,,,,,,,,,,,,,,,0,0,0,0,0
2.0182,1783189842.3300,1,1,1.0000,0.0000,1.44681,0.22185,-2.78038,0.98770,1.57080,0.00001,-0.14512,-0.38002,0.04356,,,,,,,,,,,,,,,,,,,,,,,,,,0,0,0,0,0
2.0326,1783189842.3444,1,1,1.0000,0.0000,1.44681,0.22169,-2.78042,0.98791,1.57080,0.00001,-0.14512,-0.38002,0.04352,,,,,,,,,,,,,,,,,,,,,,,,,,0,0,0,0,0
2.0372,1783189842.3490,1,1,1.0000,0.0000,1.44681,0.22167,-2.78043,0.98792,1.57080,0.00001,-0.14512,-0.38002,0.04352,,,,,,,,,,,,,,,,,,,,,,,,,,0,0,0,0,0
2.0515,1783189842.3633,1,1,1.0000,0.0000,1.44681,0.22145,-2.78048,0.98819,1.57080,0.00001,-0.14512,-0.38002,0.04346,,,,,,,,,,,,,,,,,,,,,,,,,,0,0,0,0,0
2.0583,1783189842.3701,1,1,1.0000,0.0000,1.44681,0.22138,-2.78050,0.98828,1.57080,0.00001,-0.14512,-0.38002,0.04344,,,,,,,,,,,,,,,,,,,,,,,,,,0,0,0,0,0
2.0736,1783189842.3854,1,1,1.0000,0.0000,1.44681,0.22128,-2.78052,0.98841,1.57080,0.00001,-0.14512,-0.38002,0.04341,,,,,,,,,,,,,,,,,,,,,,,,,,0,0,0,0,0
2.0825,1783189842.3943,1,1,1.0000,0.0000,1.44681,0.22120,-2.78055,0.98852,1.57080,0.00001,-0.14512,-0.38002,0.04339,,,,,,,,,,,,,,,,,,,,,,,,,,0,0,0,0,0
2.0829,1783189842.3947,1,1,1.0000,0.0000,1.44681,0.22120,-2.78055,0.98852,1.57080,0.00001,-0.14512,-0.38002,0.04339,,,,,,,,,,,,,,,,,,,,,,,,,,0,0,0,0,0
2.0905,1783189842.4023,1,1,1.0000,0.0000,1.44681,0.22108,-2.78057,0.98866,1.57080,0.00001,-0.14512,-0.38002,0.04336,,,,,,,,,,,,,,,,,,,,,,,,,,0,0,0,0,0
2.1026,1783189842.4144,1,1,1.0000,0.0000,1.44681,0.22104,-2.78059,0.98872,1.57080,0.00001,-0.14512,-0.38002,0.04335,,,,,,,,,,,,,,,,,,,,,,,,,,0,0,0,0,0
2.1098,1783189842.4216,1,1,1.0000,0.0000,1.44681,0.22092,-2.78061,0.98886,1.57080,0.00001,-0.14512,-0.38002,0.04332,,,,,,,,,,,,,,,,,,,,,,,,,,0,0,0,0,0
2.1199,1783189842.4317,1,1,1.0000,0.0000,1.44681,0.22071,-2.78067,0.98913,1.57080,0.00001,-0.14512,-0.38002,0.04327,,,,,,,,,,,,,,,,,,,,,,,,,,0,0,0,0,0
2.1203,1783189842.4321,1,1,1.0000,0.0000,1.44681,0.22071,-2.78067,0.98913,1.57080,0.00001,-0.14512,-0.38002,0.04327,,,,,,,,,,,,,,,,,,,,,,,,,,0,0,0,0,0
2.1278,1783189842.4396,1,1,1.0000,0.0000,1.44681,0.22070,-2.78067,0.98914,1.57080,0.00001,-0.14512,-0.38002,0.04327,,,,,,,,,,,,,,,,,,,,,,,,,,0,0,0,0,0
2.1281,1783189842.4399,1,1,1.0000,0.0000,1.44681,0.22070,-2.78067,0.98914,1.57080,0.00001,-0.14512,-0.38002,0.04327,,,,,,,,,,,,,,,,,,,,,,,,,,0,0,0,0,0
2.1383,1783189842.4501,1,1,1.0000,0.0000,1.44681,0.22064,-2.78068,0.98921,1.57080,0.00001,-0.14512,-0.38002,0.04325,,,,,,,,,,,,,,,,,,,,,,,,,,0,0,0,0,0
2.1386,1783189842.4504,1,1,1.0000,0.0000,1.44681,0.22064,-2.78068,0.98921,1.57080,0.00001,-0.14512,-0.38002,0.04325,,,,,,,,,,,,,,,,,,,,,,,,,,0,0,0,0,0
2.1540,1783189842.4657,1,1,1.0000,0.0000,1.44681,0.22048,-2.78072,0.98941,1.57080,0.00001,-0.14512,-0.38002,0.04321,,,,,,,,,,,,,,,,,,,,,,,,,,0,0,0,0,0
2.1573,1783189842.4690,1,1,1.0000,0.0000,1.44681,0.22047,-2.78073,0.98943,1.57080,0.00001,-0.14512,-0.38002,0.04321,,,,,,,,,,,,,,,,,,,,,,,,,,0,0,0,0,0
2.1576,1783189842.4694,1,1,1.0000,0.0000,1.44681,0.22047,-2.78073,0.98943,1.57080,0.00001,-0.14512,-0.38002,0.04321,,,,,,,,,,,,,,,,,,,,,,,,,,0,0,0,0,0
2.1779,1783189842.4897,1,1,1.0000,0.0000,1.44681,0.22017,-2.78080,0.98979,1.57080,0.00001,-0.14512,-0.38002,0.04313,,,,,,,,,,,,,,,,,,,,,,,,,,0,0,0,0,0
2.1826,1783189842.4943,1,1,1.0000,0.0000,1.44681,0.22010,-2.78082,0.98988,1.57080,0.00001,-0.14512,-0.38002,0.04311,,,,,,,,,,,,,,,,,,,,,,,,,,0,0,0,0,0
2.1834,1783189842.4952,1,1,1.0000,0.0000,1.44681,0.22010,-2.78082,0.98988,1.57080,0.00001,-0.14512,-0.38002,0.04311,,,,,,,,,,,,,,,,,,,,,,,,,,0,0,0,0,0
2.1878,1783189842.4996,1,1,1.0000,0.0000,1.44681,0.22009,-2.78082,0.98989,1.57080,0.00001,-0.14512,-0.38002,0.04311,,,,,,,,,,,,,,,,,,,,,,,,,,0,0,0,0,0
2.1982,1783189842.5100,1,1,1.0000,0.0000,1.44681,0.22001,-2.78084,0.99000,1.57080,0.00001,-0.14512,-0.38002,0.04309,,,,,,,,,,,,,,,,,,,,,,,,,,0,0,0,0,0
2.1985,1783189842.5103,1,1,1.0000,0.0000,1.44681,0.22001,-2.78084,0.99000,1.57080,0.00001,-0.14512,-0.38002,0.04309,,,,,,,,,,,,,,,,,,,,,,,,,,0,0,0,0,0
2.2125,1783189842.5243,1,1,1.0000,0.0000,1.44681,0.21981,-2.78089,0.99025,1.57080,0.00001,-0.14512,-0.38002,0.04304,,,,,,,,,,,,,,,,,,,,,,,,,,0,0,0,0,0
2.2211,1783189842.5329,1,1,1.0000,0.0000,1.44681,0.21976,-2.78090,0.99030,1.57080,0.00001,-0.14512,-0.38002,0.04303,,,,,,,,,,,,,,,,,,,,,,,,,,0,0,0,0,0
2.2376,1783189842.5494,1,1,1.0000,0.0000,1.44681,0.21952,-2.78096,0.99062,1.57080,0.00001,-0.14512,-0.38002,0.04296,,,,,,,,,,,,,,,,,,,,,,,,,,0,0,0,0,0
2.2405,1783189842.5523,1,1,1.0000,0.0000,1.44681,0.21945,-2.78098,0.99070,1.57080,0.00001,-0.14512,-0.38002,0.04294,,,,,,,,,,,,,,,,,,,,,,,,,,0,0,0,0,0
2.2475,1783189842.5593,1,1,1.0000,0.0000,1.44681,0.21943,-2.78098,0.99072,1.57080,0.00001,-0.14512,-0.38002,0.04294,,,,,,,,,,,,,,,,,,,,,,,,,,0,0,0,0,0
2.2571,1783189842.5689,1,1,1.0000,0.0000,1.44681,0.21935,-2.78100,0.99082,1.57080,0.00001,-0.14512,-0.38002,0.04292,,,,,,,,,,,,,,,,,,,,,,,,,,0,0,0,0,0
2.2675,1783189842.5793,1,1,1.0000,0.0000,1.44681,0.21915,-2.78105,0.99107,1.57080,0.00001,-0.14512,-0.38002,0.04287,,,,,,,,,,,,,,,,,,,,,,,,,,0,0,0,0,0
2.2783,1783189842.5901,1,1,1.0000,0.0000,1.44681,0.21914,-2.78106,0.99109,1.57080,0.00001,-0.14512,-0.38002,0.04286,,,,,,,,,,,,,,,,,,,,,,,,,,0,0,0,0,0
2.2901,1783189842.6019,1,1,1.0000,0.0000,1.44681,0.21899,-2.78109,0.99126,1.57080,0.00001,-0.14512,-0.38002,0.04283,,,,,,,,,,,,,,,,,,,,,,,,,,0,0,0,0,0
2.2980,1783189842.6098,1,1,1.0000,0.0000,1.44681,0.21886,-2.78113,0.99144,1.57080,0.00001,-0.14512,-0.38002,0.04279,,,,,,,,,,,,,,,,,,,,,,,,,,0,0,0,0,0
2.3073,1783189842.6191,1,1,1.0000,0.0000,1.44681,0.21878,-2.78115,0.99154,1.57080,0.00001,-0.14512,-0.38002,0.04277,,,,,,,,,,,,,,,,,,,,,,,,,,0,0,0,0,0
2.3235,1783189842.6352,1,1,1.0000,0.0000,1.44681,0.21856,-2.78120,0.99180,1.57080,0.00001,-0.14512,-0.38002,0.04272,,,,,,,,,,,,,,,,,,,,,,,,,,0,0,0,0,0
2.3319,1783189842.6437,1,1,1.0000,0.0000,1.44681,0.21849,-2.78122,0.99189,1.57080,0.00001,-0.14512,-0.38002,0.04270,,,,,,,,,,,,,,,,,,,,,,,,,,0,0,0,0,0
2.3423,1783189842.6540,1,1,1.0000,0.0000,1.44681,0.21845,-2.78123,0.99195,1.57080,0.00001,-0.14512,-0.38002,0.04269,,,,,,,,,,,,,,,,,,,,,,,,,,0,0,0,0,0
2.3491,1783189842.6609,1,1,1.0000,0.0000,1.44681,0.21833,-2.78126,0.99209,1.57080,0.00001,-0.14512,-0.38002,0.04266,,,,,,,,,,,,,,,,,,,,,,,,,,0,0,0,0,0
2.3618,1783189842.6736,1,1,1.0000,0.0000,1.44681,0.21813,-2.78131,0.99235,1.57080,0.00001,-0.14512,-0.38002,0.04261,,,,,,,,,,,,,,,,,,,,,,,,,,0,0,0,0,0
2.3678,1783189842.6796,1,1,1.0000,0.0000,1.44681,0.21811,-2.78131,0.99236,1.57080,0.00001,-0.14512,-0.38002,0.04260,,,,,,,,,,,,,,,,,,,,,,,,,,0,0,0,0,0
2.3807,1783189842.6925,1,1,1.0000,0.0000,1.44681,0.21797,-2.78135,0.99254,1.57080,0.00001,-0.14512,-0.38002,0.04257,,,,,,,,,,,,,,,,,,,,,,,,,,0,0,0,0,0
2.3874,1783189842.6992,1,1,1.0000,0.0000,1.44681,0.21783,-2.78138,0.99272,1.57080,0.00001,-0.14512,-0.38002,0.04253,,,,,,,,,,,,,,,,,,,,,,,,,,0,0,0,0,0
2.3998,1783189842.7116,1,1,1.0000,0.0000,1.44681,0.21778,-2.78139,0.99277,1.57080,0.00001,-0.14512,-0.38002,0.04252,,,,,,,,,,,,,,,,,,,,,,,,,,0,0,0,0,0
2.4093,1783189842.7211,1,1,1.0000,0.0000,1.44681,0.21767,-2.78142,0.99291,1.57080,0.00001,-0.14512,-0.38002,0.04249,,,,,,,,,,,,,,,,,,,,,,,,,,0,0,0,0,0
2.4175,1783189842.7293,1,1,1.0000,0.0000,1.44681,0.21753,-2.78145,0.99309,1.57080,0.00001,-0.14512,-0.38002,0.04245,,,,,,,,,,,,,,,,,,,,,,,,,,0,0,0,0,0
2.4306,1783189842.7424,1,1,1.0000,0.0000,1.44681,0.21745,-2.78147,0.99319,1.57080,0.00001,-0.14512,-0.38002,0.04243,,,,,,,,,,,,,,,,,,,,,,,,,,0,0,0,0,0
2.4401,1783189842.7518,1,1,1.0000,0.0000,1.44681,0.21731,-2.78151,0.99337,1.57080,0.00001,-0.14512,-0.38002,0.04240,,,,,,,,,,,,,,,,,,,,,,,,,,0,0,0,0,0
2.4405,1783189842.7523,1,1,1.0000,0.0000,1.44681,0.21731,-2.78151,0.99337,1.57080,0.00001,-0.14512,-0.38002,0.04240,,,,,,,,,,,,,,,,,,,,,,,,,,0,0,0,0,0
2.4500,1783189842.7618,1,1,1.0000,0.0000,1.44681,0.21717,-2.78154,0.99354,1.57080,0.00001,-0.14512,-0.38002,0.04236,,,,,,,,,,,,,,,,,,,,,,,,,,0,0,0,0,0
2.4570,1783189842.7688,1,1,1.0000,0.0000,1.44681,0.21716,-2.78155,0.99356,1.57080,0.00001,-0.14512,-0.38002,0.04236,,,,,,,,,,,,,,,,,,,,,,,,,,0,0,0,0,0
2.4669,1783189842.7786,1,1,1.0000,0.0000,1.44681,0.21707,-2.78157,0.99366,1.57080,0.00001,-0.14512,-0.38002,0.04234,,,,,,,,,,,,,,,,,,,,,,,,,,0,0,0,0,0
2.4676,1783189842.7794,1,1,1.0000,0.0000,1.44681,0.21701,-2.78158,0.99374,1.57080,0.00001,-0.14512,-0.38002,0.04232,,,,,,,,,,,,,,,,,,,,,,,,,,0,0,0,0,0
2.4911,1783189842.8029,1,1,1.0000,0.0000,1.44681,0.21679,-2.78164,0.99401,1.57080,0.00001,-0.14512,-0.38002,0.04226,,,,,,,,,,,,,,,,,,,,,,,,,,0,0,0,0,0
2.4916,1783189842.8034,1,1,1.0000,0.0000,1.44681,0.21676,-2.78164,0.99405,1.57080,0.00001,-0.14512,-0.38002,0.04226,,,,,,,,,,,,,,,,,,,,,,,,,,0,0,0,0,0
2.4986,1783189842.8103,1,1,1.0000,0.0000,1.44681,0.21671,-2.78166,0.99411,1.57080,0.00001,-0.14512,-0.38002,0.04224,,,,,,,,,,,,,,,,,,,,,,,,,,0,0,0,0,0
2.5078,1783189842.8196,1,1,1.0000,0.0000,1.44681,0.21651,-2.78171,0.99437,1.57080,0.00001,-0.14512,-0.38002,0.04219,,,,,,,,,,,,,,,,,,,,,,,,,,0,0,0,0,0
2.5171,1783189842.8289,1,1,1.0000,0.0000,1.44681,0.21644,-2.78172,0.99445,1.57080,0.00001,-0.14512,-0.38002,0.04217,,,,,,,,,,,,,,,,,,,,,,,,,,0,0,0,0,0
2.5294,1783189842.8411,1,1,1.0000,0.0000,1.44681,0.21637,-2.78174,0.99454,1.57080,0.00001,-0.14512,-0.38002,0.04216,,,,,,,,,,,,,,,,,,,,,,,,,,0,0,0,0,0
2.5298,1783189842.8416,1,1,1.0000,0.0000,1.44681,0.21637,-2.78174,0.99454,1.57080,0.00001,-0.14512,-0.38002,0.04216,,,,,,,,,,,,,,,,,,,,,,,,,,0,0,0,0,0
2.5374,1783189842.8492,1,1,1.0000,0.0000,1.44681,0.21626,-2.78177,0.99467,1.57080,0.00001,-0.14512,-0.38002,0.04213,,,,,,,,,,,,,,,,,,,,,,,,,,0,0,0,0,0
2.5481,1783189842.8599,1,1,1.0000,0.0000,1.44681,0.21619,-2.78178,0.99476,1.57080,0.00001,-0.14512,-0.38002,0.04211,,,,,,,,,,,,,,,,,,,,,,,,,,0,0,0,0,0
2.5602,1783189842.8720,1,1,1.0000,0.0000,1.44681,0.21604,-2.78182,0.99495,1.57080,0.00001,-0.14512,-0.38002,0.04207,,,,,,,,,,,,,,,,,,,,,,,,,,0,0,0,0,0
2.5712,1783189842.8830,1,1,1.0000,0.0000,1.44681,0.21590,-2.78186,0.99512,1.57080,0.00001,-0.14512,-0.38002,0.04204,,,,,,,,,,,,,,,,,,,,,,,,,,0,0,0,0,0
2.5877,1783189842.8995,1,1,1.0000,0.0000,1.44681,0.21574,-2.78189,0.99532,1.57080,0.00001,-0.14512,-0.38002,0.04200,,,,,,,,,,,,,,,,,,,,,,,,,,0,0,0,0,0
2.5880,1783189842.8997,1,1,1.0000,0.0000,1.44681,0.21574,-2.78189,0.99532,1.57080,0.00001,-0.14512,-0.38002,0.04200,,,,,,,,,,,,,,,,,,,,,,,,,,0,0,0,0,0
2.5917,1783189842.9035,1,1,1.0000,0.0000,1.44681,0.21567,-2.78191,0.99540,1.57080,0.00001,-0.14512,-0.38002,0.04198,,,,,,,,,,,,,,,,,,,,,,,,,,0,0,0,0,0
2.5981,1783189842.9098,1,1,1.0000,0.0000,1.44681,0.21560,-2.78193,0.99549,1.57080,0.00001,-0.14512,-0.38002,0.04196,,,,,,,,,,,,,,,,,,,,,,,,,,0,0,0,0,0
2.6092,1783189842.9210,1,1,1.0000,0.0000,1.44681,0.21552,-2.78195,0.99559,1.57080,0.00001,-0.14512,-0.38002,0.04194,,,,,,,,,,,,,,,,,,,,,,,,,,0,0,0,0,0
2.6173,1783189842.9290,1,1,1.0000,0.0000,1.44681,0.21544,-2.78197,0.99570,1.57080,0.00001,-0.14512,-0.38002,0.04192,,,,,,,,,,,,,,,,,,,,,,,,,,0,0,0,0,0
2.6175,1783189842.9293,1,1,1.0000,0.0000,1.44681,0.21544,-2.78197,0.99570,1.57080,0.00001,-0.14512,-0.38002,0.04192,,,,,,,,,,,,,,,,,,,,,,,,,,0,0,0,0,0
2.6377,1783189842.9495,1,1,1.0000,0.0000,1.44681,0.21517,-2.78204,0.99603,1.57080,0.00001,-0.14512,-0.38002,0.04185,,,,,,,,,,,,,,,,,,,,,,,,,,0,0,0,0,0
2.6380,1783189842.9498,1,1,1.0000,0.0000,1.44681,0.21517,-2.78204,0.99603,1.57080,0.00001,-0.14512,-0.38002,0.04185,,,,,,,,,,,,,,,,,,,,,,,,,,0,0,0,0,0
2.6400,1783189842.9518,1,1,1.0000,0.0000,1.44681,0.21516,-2.78204,0.99604,1.57080,0.00001,-0.14512,-0.38002,0.04185,,,,,,,,,,,,,,,,,,,,,,,,,,0,0,0,0,0
2.6521,1783189842.9639,1,1,1.0000,0.0000,1.44681,0.21505,-2.78206,0.99618,1.57080,0.00001,-0.14512,-0.38002,0.04182,,,,,,,,,,,,,,,,,,,,,,,,,,0,0,0,0,0
2.6629,1783189842.9747,1,1,1.0000,0.0000,1.44681,0.21493,-2.78209,0.99633,1.57080,0.00001,-0.14512,-0.38002,0.04179,,,,,,,,,,,,,,,,,,,,,,,,,,0,0,0,0,0
2.6681,1783189842.9798,1,1,1.0000,0.0000,1.44681,0.21492,-2.78210,0.99634,1.57080,0.00001,-0.14512,-0.38002,0.04179,,,,,,,,,,,,,,,,,,,,,,,,,,0,0,0,0,0
2.7096,1783189843.0214,1,1,1.0000,0.0000,1.44681,0.21449,-2.78220,0.99688,1.57080,0.00002,-0.14512,-0.38002,0.04168,,,,,,,,,,,,,,,,,,,,,,,,,,0,0,0,0,0
2.7099,1783189843.0217,1,1,1.0000,0.0000,1.44681,0.21449,-2.78220,0.99688,1.57080,0.00002,-0.14512,-0.38002,0.04168,,,,,,,,,,,,,,,,,,,,,,,,,,0,0,0,0,0
2.7211,1783189843.0329,1,1,1.0000,0.0000,1.44681,0.21432,-2.78224,0.99708,1.57080,0.00002,-0.14512,-0.38002,0.04164,,,,,,,,,,,,,,,,,,,,,,,,,,0,0,0,0,0
2.7216,1783189843.0334,1,1,1.0000,0.0000,1.44681,0.21432,-2.78224,0.99708,1.57080,0.00002,-0.14512,-0.38002,0.04164,,,,,,,,,,,,,,,,,,,,,,,,,,0,0,0,0,0
2.7219,1783189843.0337,1,1,1.0000,0.0000,1.44681,0.21432,-2.78224,0.99708,1.57080,0.00002,-0.14512,-0.38002,0.04164,,,,,,,,,,,,,,,,,,,,,,,,,,0,0,0,0,0
2.7332,1783189843.0450,1,1,1.0000,0.0000,1.44681,0.21428,-2.78225,0.99714,1.57080,0.00002,-0.14512,-0.38002,0.04162,,,,,,,,,,,,,,,,,,,,,,,,,,0,0,0,0,0
2.7414,1783189843.0532,1,1,1.0000,0.0000,1.44681,0.21416,-2.78228,0.99729,1.57080,0.00002,-0.14512,-0.38002,0.04159,,,,,,,,,,,,,,,,,,,,,,,,,,0,0,0,0,0
2.7502,1783189843.0620,1,1,1.0000,0.0000,1.44681,0.21402,-2.78232,0.99746,1.57080,0.00002,-0.14512,-0.38002,0.04156,,,,,,,,,,,,,,,,,,,,,,,,,,0,0,0,0,0
2.7507,1783189843.0625,1,1,1.0000,0.0000,1.44681,0.21402,-2.78232,0.99746,1.57080,0.00002,-0.14512,-0.38002,0.04156,,,,,,,,,,,,,,,,,,,,,,,,,,0,0,0,0,0
2.7639,1783189843.0757,1,1,1.0000,0.0000,1.44681,0.21391,-2.78234,0.99759,1.57080,0.00002,-0.14512,-0.38002,0.04153,,,,,,,,,,,,,,,,,,,,,,,,,,0,0,0,0,0
2.7643,1783189843.0761,1,1,1.0000,0.0000,1.44681,0.21391,-2.78234,0.99759,1.57080,0.00002,-0.14512,-0.38002,0.04153,,,,,,,,,,,,,,,,,,,,,,,,,,0,0,0,0,0
2.7686,1783189843.0804,1,1,1.0000,0.0000,1.44681,0.21388,-2.78235,0.99764,1.57080,0.00002,-0.14512,-0.38002,0.04152,,,,,,,,,,,,,,,,,,,,,,,,,,0,0,0,0,0
2.7689,1783189843.0807,1,1,1.0000,0.0000,1.44681,0.21388,-2.78235,0.99764,1.57080,0.00002,-0.14512,-0.38002,0.04152,,,,,,,,,,,,,,,,,,,,,,,,,,0,0,0,0,0
2.7771,1783189843.0889,1,1,1.0000,0.0000,1.44681,0.21378,-2.78238,0.99777,1.57080,0.00002,-0.14512,-0.38002,0.04150,,,,,,,,,,,,,,,,,,,,,,,,,,0,0,0,0,0
2.7996,1783189843.1114,1,1,1.0000,0.0000,1.44681,0.21355,-2.78243,0.99804,1.57080,0.00002,-0.14512,-0.38002,0.04144,,,,,,,,,,,,,,,,,,,,,,,,,,0,0,0,0,0
2.7998,1783189843.1116,1,1,1.0000,0.0000,1.44681,0.21355,-2.78243,0.99804,1.57080,0.00002,-0.14512,-0.38002,0.04144,,,,,,,,,,,,,,,,,,,,,,,,,,0,0,0,0,0
2.8078,1783189843.1195,1,1,1.0000,0.0000,1.44681,0.21341,-2.78247,0.99822,1.57080,0.00002,-0.14512,-0.38002,0.04140,,,,,,,,,,,,,,,,,,,,,,,,,,0,0,0,0,0
2.8081,1783189843.1199,1,1,1.0000,0.0000,1.44681,0.21341,-2.78247,0.99822,1.57080,0.00002,-0.14512,-0.38002,0.04140,,,,,,,,,,,,,,,,,,,,,,,,,,0,0,0,0,0
2.8189,1783189843.1307,1,1,1.0000,0.0000,1.44681,0.21334,-2.78248,0.99831,1.57080,0.00002,-0.14512,-0.38002,0.04138,,,,,,,,,,,,,,,,,,,,,,,,,,0,0,0,0,0
2.8302,1783189843.1420,1,1,1.0000,0.0000,1.44681,0.21327,-2.78250,0.99840,1.57080,0.00002,-0.14512,-0.38002,0.04137,,,,,,,,,,,,,,,,,,,,,,,,,,0,0,0,0,0
2.8397,1783189843.1515,1,1,1.0000,0.0000,1.44681,0.21311,-2.78254,0.99860,1.57080,0.00002,-0.14512,-0.38002,0.04133,,,,,,,,,,,,,,,,,,,,,,,,,,0,0,0,0,0
2.8400,1783189843.1518,1,1,1.0000,0.0000,1.44681,0.21311,-2.78254,0.99860,1.57080,0.00002,-0.14512,-0.38002,0.04133,,,,,,,,,,,,,,,,,,,,,,,,,,0,0,0,0,0
2.8520,1783189843.1638,1,1,1.0000,0.0000,1.44681,0.21306,-2.78255,0.99866,1.57080,0.00002,-0.14512,-0.38002,0.04131,,,,,,,,,,,,,,,,,,,,,,,,,,0,0,0,0,0
2.8607,1783189843.1725,1,1,1.0000,0.0000,1.44681,0.21294,-2.78258,0.99880,1.57080,0.00002,-0.14512,-0.38002,0.04128,,,,,,,,,,,,,,,,,,,,,,,,,,0,0,0,0,0
2.8669,1783189843.1786,1,1,1.0000,0.0000,1.44681,0.21287,-2.78260,0.99889,1.57080,0.00002,-0.14512,-0.38002,0.04127,,,,,,,,,,,,,,,,,,,,,,,,,,0,0,0,0,0
2.8673,1783189843.1790,1,1,1.0000,0.0000,1.44681,0.21287,-2.78260,0.99889,1.57080,0.00002,-0.14512,-0.38002,0.04127,,,,,,,,,,,,,,,,,,,,,,,,,,0,0,0,0,0
2.8772,1783189843.1890,1,1,1.0000,0.0000,1.44681,0.21273,-2.78263,0.99907,1.57080,0.00002,-0.14512,-0.38002,0.04123,,,,,,,,,,,,,,,,,,,,,,,,,,0,0,0,0,0
2.8947,1783189843.2065,1,1,1.0000,0.0000,1.44681,0.21261,-2.78266,0.99921,1.57080,0.00002,-0.14512,-0.38002,0.04120,,,,,,,,,,,,,,,,,,,,,,,,,,0,0,0,0,0
2.8989,1783189843.2107,1,1,1.0000,0.0000,1.44681,0.21255,-2.78267,0.99928,1.57080,0.00002,-0.14512,-0.38002,0.04119,,,,,,,,,,,,,,,,,,,,,,,,,,0,0,0,0,0
2.8992,1783189843.2110,1,1,1.0000,0.0000,1.44681,0.21255,-2.78267,0.99928,1.57080,0.00002,-0.14512,-0.38002,0.04119,,,,,,,,,,,,,,,,,,,,,,,,,,0,0,0,0,0
2.9087,1783189843.2204,1,1,1.0000,0.0000,1.44681,0.21248,-2.78269,0.99937,1.57080,0.00002,-0.14512,-0.38002,0.04117,,,,,,,,,,,,,,,,,,,,,,,,,,0,0,0,0,0
2.9182,1783189843.2300,1,1,1.0000,0.0000,1.44681,0.21240,-2.78271,0.99948,1.57080,0.00002,-0.14512,-0.38002,0.04115,,,,,,,,,,,,,,,,,,,,,,,,,,0,0,0,0,0
2.9281,1783189843.2398,1,1,1.0000,0.0000,1.44681,0.21219,-2.78276,0.99974,1.57080,0.00002,-0.14512,-0.38002,0.04109,,,,,,,,,,,,,,,,,,,,,,,,,,0,0,0,0,0
2.9430,1783189843.2548,1,1,1.0000,0.0000,1.44681,0.21211,-2.78278,0.99984,1.57080,0.00002,-0.14512,-0.38002,0.04107,,,,,,,,,,,,,,,,,,,,,,,,,,0,0,0,0,0
2.9544,1783189843.2662,1,1,1.0000,0.0000,1.44681,0.21200,-2.78281,0.99997,1.57080,0.00002,-0.14512,-0.38002,0.04104,,,,,,,,,,,,,,,,,,,,,,,,,,0,0,0,0,0
2.9680,1783189843.2798,1,1,1.0000,0.0000,1.44681,0.21187,-2.78284,1.00013,1.57080,0.00002,-0.14512,-0.38002,0.04101,,,,,,,,,,,,,,,,,,,,,,,,,,0,0,0,0,0
2.9750,1783189843.2868,1,1,1.0000,0.0000,1.44681,0.21184,-2.78285,1.00018,1.57080,0.00002,-0.14512,-0.38002,0.04100,,,,,,,,,,,,,,,,,,,,,,,,,,0,0,0,0,0
2.9816,1783189843.2934,1,1,1.0000,0.0000,1.44681,0.21172,-2.78288,1.00032,1.57080,0.00002,-0.14512,-0.38002,0.04097,,,,,,,,,,,,,,,,,,,,,,,,,,0,0,0,0,0
2.9820,1783189843.2938,1,1,1.0000,0.0000,1.44681,0.21172,-2.78288,1.00032,1.57080,0.00002,-0.14512,-0.38002,0.04097,,,,,,,,,,,,,,,,,,,,,,,,,,0,0,0,0,0
2.9971,1783189843.3089,1,1,1.0000,0.0000,1.44681,0.21151,-2.78293,1.00059,1.57080,0.00002,-0.14512,-0.38002,0.04092,,,,,,,,,,,,,,,,,,,,,,,,,,0,0,0,0,0
3.0018,1783189843.3136,1,1,1.0000,0.0000,1.44681,0.21149,-2.78293,1.00060,1.57080,0.00002,-0.14512,-0.38002,0.04092,,,,,,,,,,,,,,,,,,,,,,,,,,0,0,0,0,0
3.0021,1783189843.3139,1,1,1.0000,0.0000,1.44681,0.21149,-2.78293,1.00060,1.57080,0.00002,-0.14512,-0.38002,0.04092,,,,,,,,,,,,,,,,,,,,,,,,,,0,0,0,0,0
3.0119,1783189843.3237,1,1,1.0000,0.0000,1.44681,0.21135,-2.78297,1.00078,1.57080,0.00002,-0.14512,-0.38002,0.04088,,,,,,,,,,,,,,,,,,,,,,,,,,0,0,0,0,0
3.0210,1783189843.3328,1,1,1.0000,0.0000,1.44681,0.21121,-2.78300,1.00096,1.57080,0.00002,-0.14512,-0.38002,0.04084,,,,,,,,,,,,,,,,,,,,,,,,,,0,0,0,0,0
3.0345,1783189843.3463,1,1,1.0000,0.0000,1.44681,0.21116,-2.78301,1.00102,1.57080,0.00002,-0.14512,-0.38002,0.04083,,,,,,,,,,,,,,,,,,,,,,,,,,0,0,0,0,0
3.0439,1783189843.3557,1,1,1.0000,0.0000,1.44681,0.21098,-2.78305,1.00124,1.57080,0.00002,-0.14512,-0.38002,0.04079,,,,,,,,,,,,,,,,,,,,,,,,,,0,0,0,0,0
3.0547,1783189843.3665,1,1,1.0000,0.0000,1.44681,0.21084,-2.78309,1.00142,1.57080,0.00002,-0.14512,-0.38002,0.04075,,,,,,,,,,,,,,,,,,,,,,,,,,0,0,0,0,0
3.0631,1783189843.3749,1,1,1.0000,0.0000,1.44681,0.21083,-2.78309,1.00143,1.57080,0.00002,-0.14512,-0.38002,0.04075,,,,,,,,,,,,,,,,,,,,,,,,,,0,0,0,0,0
3.0710,1783189843.3828,1,1,1.0000,0.0000,1.44681,0.21074,-2.78311,1.00153,1.57080,0.00002,-0.14512,-0.38002,0.04073,,,,,,,,,,,,,,,,,,,,,,,,,,0,0,0,0,0
3.0810,1783189843.3927,1,1,1.0000,0.0000,1.44681,0.21054,-2.78316,1.00179,1.57080,0.00002,-0.14512,-0.38002,0.04067,,,,,,,,,,,,,,,,,,,,,,,,,,0,0,0,0,0
3.0812,1783189843.3930,1,1,1.0000,0.0000,1.44681,0.21054,-2.78316,1.00179,1.57080,0.00002,-0.14512,-0.38002,0.04067,,,,,,,,,,,,,,,,,,,,,,,,,,0,0,0,0,0
3.0977,1783189843.4095,1,1,1.0000,0.0000,1.44681,0.21044,-2.78318,1.00191,1.57080,0.00002,-0.14512,-0.38002,0.04065,,,,,,,,,,,,,,,,,,,,,,,,,,0,0,0,0,0
3.0980,1783189843.4098,1,1,1.0000,0.0000,1.44681,0.21044,-2.78318,1.00191,1.57080,0.00002,-0.14512,-0.38002,0.04065,,,,,,,,,,,,,,,,,,,,,,,,,,0,0,0,0,0
3.1070,1783189843.4188,1,1,1.0000,0.0000,1.44681,0.21031,-2.78322,1.00207,1.57080,0.00002,-0.14512,-0.38002,0.04062,,,,,,,,,,,,,,,,,,,,,,,,,,0,0,0,0,0
3.1074,1783189843.4192,1,1,1.0000,0.0000,1.44681,0.21031,-2.78322,1.00207,1.57080,0.00002,-0.14512,-0.38002,0.04062,,,,,,,,,,,,,,,,,,,,,,,,,,0,0,0,0,0
3.1111,1783189843.4228,1,1,1.0000,0.0000,1.44681,0.21024,-2.78323,1.00216,1.57080,0.00002,-0.14512,-0.38002,0.04060,,,,,,,,,,,,,,,,,,,,,,,,,,0,0,0,0,0
3.1209,1783189843.4327,1,1,1.0000,0.0000,1.44681,0.21016,-2.78325,1.00226,1.57080,0.00002,-0.14512,-0.38002,0.04058,,,,,,,,,,,,,,,,,,,,,,,,,,0,0,0,0,0
3.1323,1783189843.4441,1,1,1.0000,0.0000,1.44681,0.21001,-2.78329,1.00244,1.57080,0.00002,-0.14512,-0.38002,0.04054,,,,,,,,,,,,,,,,,,,,,,,,,,0,0,0,0,0
3.1428,1783189843.4546,1,1,1.0000,0.0000,1.44681,0.20987,-2.78332,1.00262,1.57080,0.00002,-0.14512,-0.38002,0.04051,,,,,,,,,,,,,,,,,,,,,,,,,,0,0,0,0,0
3.1431,1783189843.4549,1,1,1.0000,0.0000,1.44681,0.20987,-2.78332,1.00262,1.57080,0.00002,-0.14512,-0.38002,0.04051,,,,,,,,,,,,,,,,,,,,,,,,,,0,0,0,0,0
3.1532,1783189843.4650,1,1,1.0000,0.0000,1.44681,0.20982,-2.78333,1.00267,1.57080,0.00002,-0.14512,-0.38002,0.04049,,,,,,,,,,,,,,,,,,,,,,,,,,0,0,0,0,0
3.1609,1783189843.4727,1,1,1.0000,0.0000,1.44680,0.20971,-2.78336,1.00281,1.57080,0.00002,-0.14512,-0.38002,0.04047,,,,,,,,,,,,,,,,,,,,,,,,,,0,0,0,0,0
3.1728,1783189843.4846,1,1,1.0000,0.0000,1.44680,0.20950,-2.78341,1.00307,1.57079,0.00002,-0.14512,-0.38002,0.04041,,,,,,,,,,,,,,,,,,,,,,,,,,0,0,0,0,0
3.1818,1783189843.4936,1,1,1.0000,0.0000,1.44680,0.20949,-2.78341,1.00309,1.57079,0.00002,-0.14512,-0.38002,0.04041,,,,,,,,,,,,,,,,,,,,,,,,,,0,0,0,0,0
3.2051,1783189843.5168,1,1,1.0000,0.0000,1.44680,0.20920,-2.78348,1.00345,1.57079,0.00002,-0.14512,-0.38002,0.04034,,,,,,,,,,,,,,,,,,,,,,,,,,0,0,0,0,0
3.2119,1783189843.5237,1,1,1.0000,0.0000,1.44680,0.20916,-2.78349,1.00350,1.57079,0.00002,-0.14512,-0.38002,0.04032,,,,,,,,,,,,,,,,,,,,,,,,,,0,0,0,0,0
3.2121,1783189843.5239,1,1,1.0000,0.0000,1.44680,0.20916,-2.78349,1.00350,1.57079,0.00002,-0.14512,-0.38002,0.04032,,,,,,,,,,,,,,,,,,,,,,,,,,0,0,0,0,0
3.2241,1783189843.5359,1,1,1.0000,0.0000,1.44680,0.20897,-2.78354,1.00373,1.57079,0.00002,-0.14512,-0.38002,0.04028,,,,,,,,,,,,,,,,,,,,,,,,,,0,0,0,0,0
3.2246,1783189843.5364,1,1,1.0000,0.0000,1.44680,0.20897,-2.78354,1.00373,1.57079,0.00002,-0.14512,-0.38002,0.04028,,,,,,,,,,,,,,,,,,,,,,,,,,0,0,0,0,0
3.2312,1783189843.5430,1,1,1.0000,0.0000,1.44680,0.20890,-2.78356,1.00382,1.57079,0.00002,-0.14512,-0.38002,0.04026,,,,,,,,,,,,,,,,,,,,,,,,,,0,0,0,0,0
3.2314,1783189843.5432,1,1,1.0000,0.0000,1.44680,0.20890,-2.78356,1.00382,1.57079,0.00002,-0.14512,-0.38002,0.04026,,,,,,,,,,,,,,,,,,,,,,,,,,0,0,0,0,0
3.2451,1783189843.5569,1,1,1.0000,0.0000,1.44680,0.20879,-2.78358,1.00396,1.57079,0.00002,-0.14512,-0.38002,0.04023,,,,,,,,,,,,,,,,,,,,,,,,,,0,0,0,0,0
3.2528,1783189843.5645,1,1,1.0000,0.0000,1.44680,0.20867,-2.78361,1.00410,1.57079,0.00002,-0.14512,-0.38002,0.04020,,,,,,,,,,,,,,,,,,,,,,,,,,0,0,0,0,0
3.2530,1783189843.5648,1,1,1.0000,0.0000,1.44680,0.20867,-2.78361,1.00410,1.57079,0.00002,-0.14512,-0.38002,0.04020,,,,,,,,,,,,,,,,,,,,,,,,,,0,0,0,0,0
3.2615,1783189843.5733,1,1,1.0000,0.0000,1.44680,0.20853,-2.78364,1.00428,1.57079,0.00002,-0.14512,-0.38002,0.04017,,,,,,,,,,,,,,,,,,,,,,,,,,0,0,0,0,0
3.2720,1783189843.5837,1,1,1.0000,0.0000,1.44680,0.20845,-2.78366,1.00437,1.57079,0.00002,-0.14512,-0.38002,0.04015,,,,,,,,,,,,,,,,,,,,,,,,,,0,0,0,0,0
3.2813,1783189843.5931,1,1,1.0000,0.0000,1.44680,0.20839,-2.78368,1.00445,1.57079,0.00002,-0.14512,-0.38002,0.04013,,,,,,,,,,,,,,,,,,,,,,,,,,0,0,0,0,0
3.2816,1783189843.5934,1,1,1.0000,0.0000,1.44680,0.20839,-2.78368,1.00445,1.57079,0.00002,-0.14512,-0.38002,0.04013,,,,,,,,,,,,,,,,,,,,,,,,,,0,0,0,0,0
3.2911,1783189843.6029,1,1,1.0000,0.0000,1.44680,0.20829,-2.78370,1.00458,1.57079,0.00002,-0.14512,-0.38002,0.04011,,,,,,,,,,,,,,,,,,,,,,,,,,0,0,0,0,0
3.3044,1783189843.6162,1,1,1.0000,0.0000,1.44680,0.20818,-2.78373,1.00472,1.57079,0.00002,-0.14512,-0.38002,0.04008,,,,,,,,,,,,,,,,,,,,,,,,,,0,0,0,0,0
3.3105,1783189843.6223,1,1,1.0000,0.0000,1.44680,0.20813,-2.78374,1.00478,1.57079,0.00002,-0.14512,-0.38002,0.04006,,,,,,,,,,,,,,,,,,,,,,,,,,0,0,0,0,0
3.3108,1783189843.6226,1,1,1.0000,0.0000,1.44680,0.20813,-2.78374,1.00478,1.57079,0.00002,-0.14512,-0.38002,0.04006,,,,,,,,,,,,,,,,,,,,,,,,,,0,0,0,0,0
3.3208,1783189843.6326,1,1,1.0000,0.0000,1.44680,0.20792,-2.78379,1.00504,1.57079,0.00002,-0.14512,-0.38002,0.04001,,,,,,,,,,,,,,,,,,,,,,,,,,0,0,0,0,0
3.3319,1783189843.6437,1,1,1.0000,0.0000,1.44680,0.20787,-2.78380,1.00510,1.57079,0.00002,-0.14512,-0.38002,0.04000,,,,,,,,,,,,,,,,,,,,,,,,,,0,0,0,0,0
3.3322,1783189843.6440,1,1,1.0000,0.0000,1.44680,0.20787,-2.78380,1.00510,1.57079,0.00002,-0.14512,-0.38002,0.04000,,,,,,,,,,,,,,,,,,,,,,,,,,0,0,0,0,0
3.3537,1783189843.6655,1,1,1.0000,0.0000,1.44680,0.20755,-2.78388,1.00550,1.57079,0.00002,-0.14512,-0.38002,0.03992,,,,,,,,,,,,,,,,,,,,,,,,,,0,0,0,0,0
3.3570,1783189843.6688,1,1,1.0000,0.0000,1.44680,0.20755,-2.78388,1.00550,1.57079,0.00002,-0.14512,-0.38002,0.03992,,,,,,,,,,,,,,,,,,,,,,,,,,0,0,0,0,0
3.3642,1783189843.6760,1,1,1.0000,0.0000,1.44680,0.20750,-2.78389,1.00555,1.57079,0.00002,-0.14512,-0.38002,0.03991,,,,,,,,,,,,,,,,,,,,,,,,,,0,0,0,0,0
3.3721,1783189843.6839,1,1,1.0000,0.0000,1.44680,0.20739,-2.78392,1.00569,1.57079,0.00002,-0.14512,-0.38002,0.03988,,,,,,,,,,,,,,,,,,,,,,,,,,0,0,0,0,0
3.3724,1783189843.6842,1,1,1.0000,0.0000,1.44680,0.20739,-2.78392,1.00569,1.57079,0.00002,-0.14512,-0.38002,0.03988,,,,,,,,,,,,,,,,,,,,,,,,,,0,0,0,0,0
3.3850,1783189843.6968,1,1,1.0000,0.0000,1.44680,0.20718,-2.78397,1.00596,1.57079,0.00002,-0.14512,-0.38002,0.03983,,,,,,,,,,,,,,,,,,,,,,,,,,0,0,0,0,0
3.3907,1783189843.7025,1,1,1.0000,0.0000,1.44680,0.20718,-2.78397,1.00596,1.57079,0.00002,-0.14512,-0.38002,0.03983,,,,,,,,,,,,,,,,,,,,,,,,,,0,0,0,0,0
3.3911,1783189843.7029,1,1,1.0000,0.0000,1.44680,0.20718,-2.78397,1.00596,1.57079,0.00002,-0.14512,-0.38002,0.03983,,,,,,,,,,,,,,,,,,,,,,,,,,0,0,0,0,0
3.4065,1783189843.7183,1,1,1.0000,0.0000,1.44680,0.20706,-2.78400,1.00610,1.57079,0.00002,-0.14512,-0.38002,0.03980,,,,,,,,,,,,,,,,,,,,,,,,,,0,0,0,0,0
3.4069,1783189843.7187,1,1,1.0000,0.0000,1.44680,0.20706,-2.78400,1.00610,1.57079,0.00002,-0.14512,-0.38002,0.03980,,,,,,,,,,,,,,,,,,,,,,,,,,0,0,0,0,0
3.4109,1783189843.7226,1,1,1.0000,0.0000,1.44680,0.20700,-2.78401,1.00617,1.57079,0.00002,-0.14512,-0.38002,0.03978,,,,,,,,,,,,,,,,,,,,,,,,,,0,0,0,0,0
3.4253,1783189843.7370,1,1,1.0000,0.0000,1.44680,0.20689,-2.78404,1.00631,1.57079,0.00002,-0.14512,-0.38002,0.03975,,,,,,,,,,,,,,,,,,,,,,,,,,0,0,0,0,0
3.4256,1783189843.7374,1,1,1.0000,0.0000,1.44680,0.20689,-2.78404,1.00631,1.57079,0.00002,-0.14512,-0.38002,0.03975,,,,,,,,,,,,,,,,,,,,,,,,,,0,0,0,0,0
3.4339,1783189843.7457,1,1,1.0000,0.0000,1.44680,0.20678,-2.78406,1.00645,1.57079,0.00002,-0.14512,-0.38002,0.03972,,,,,,,,,,,,,,,,,,,,,,,,,,0,0,0,0,0
3.4447,1783189843.7565,1,1,1.0000,0.0000,1.44680,0.20656,-2.78412,1.00672,1.57079,0.00002,-0.14512,-0.38002,0.03967,,,,,,,,,,,,,,,,,,,,,,,,,,0,0,0,0,0
3.4521,1783189843.7639,1,1,1.0000,0.0000,1.44680,0.20655,-2.78412,1.00673,1.57079,0.00002,-0.14512,-0.38002,0.03967,,,,,,,,,,,,,,,,,,,,,,,,,,0,0,0,0,0
3.4669,1783189843.7787,1,1,1.0000,0.0000,1.44680,0.20644,-2.78414,1.00687,1.57079,0.00002,-0.14512,-0.38002,0.03964,,,,,,,,,,,,,,,,,,,,,,,,,,0,0,0,0,0
3.4720,1783189843.7838,1,1,1.0000,0.0000,1.44680,0.20632,-2.78417,1.00701,1.57079,0.00002,-0.14512,-0.38002,0.03961,,,,,,,,,,,,,,,,,,,,,,,,,,0,0,0,0,0
3.4806,1783189843.7924,1,1,1.0000,0.0000,1.44680,0.20631,-2.78418,1.00703,1.57079,0.00002,-0.14512,-0.38002,0.03961,,,,,,,,,,,,,,,,,,,,,,,,,,0,0,0,0,0
3.4811,1783189843.7929,1,1,1.0000,0.0000,1.44680,0.20631,-2.78418,1.00703,1.57079,0.00002,-0.14512,-0.38002,0.03961,,,,,,,,,,,,,,,,,,,,,,,,,,0,0,0,0,0
3.4923,1783189843.8041,1,1,1.0000,0.0000,1.44680,0.20616,-2.78421,1.00722,1.57079,0.00002,-0.14512,-0.38002,0.03957,,,,,,,,,,,,,,,,,,,,,,,,,,0,0,0,0,0
3.4927,1783189843.8045,1,1,1.0000,0.0000,1.44680,0.20616,-2.78421,1.00722,1.57079,0.00002,-0.14512,-0.38002,0.03957,,,,,,,,,,,,,,,,,,,,,,,,,,0,0,0,0,0
3.5073,1783189843.8191,1,1,1.0000,0.0000,1.44680,0.20594,-2.78426,1.00748,1.57079,0.00002,-0.14512,-0.38002,0.03952,,,,,,,,,,,,,,,,,,,,,,,,,,0,0,0,0,0
3.5181,1783189843.8299,1,1,1.0000,0.0000,1.44680,0.20591,-2.78427,1.00753,1.57079,0.00002,-0.14512,-0.38002,0.03951,,,,,,,,,,,,,,,,,,,,,,,,,,0,0,0,0,0
3.5210,1783189843.8327,1,1,1.0000,0.0000,1.44680,0.20587,-2.78428,1.00757,1.57079,0.00002,-0.14512,-0.38002,0.03950,,,,,,,,,,,,,,,,,,,,,,,,,,0,0,0,0,0
3.5310,1783189843.8427,1,1,1.0000,0.0000,1.44680,0.20577,-2.78431,1.00770,1.57079,0.00002,-0.14512,-0.38002,0.03947,,,,,,,,,,,,,,,,,,,,,,,,,,0,0,0,0,0
3.5412,1783189843.8530,1,1,1.0000,0.0000,1.44680,0.20570,-2.78432,1.00779,1.57079,0.00002,-0.14512,-0.38002,0.03945,,,,,,,,,,,,,,,,,,,,,,,,,,0,0,0,0,0
3.5534,1783189843.8652,1,1,1.0000,0.0000,1.44680,0.20554,-2.78436,1.00798,1.57079,0.00002,-0.14512,-0.38002,0.03941,,,,,,,,,,,,,,,,,,,,,,,,,,0,0,0,0,0
3.5625,1783189843.8743,1,1,1.0000,0.0000,1.44680,0.20540,-2.78439,1.00816,1.57079,0.00002,-0.14512,-0.38002,0.03938,,,,,,,,,,,,,,,,,,,,,,,,,,0,0,0,0,0
3.5721,1783189843.8838,1,1,1.0000,0.0000,1.44680,0.20532,-2.78441,1.00826,1.57079,0.00002,-0.14512,-0.38002,0.03936,,,,,,,,,,,,,,,,,,,,,,,,,,0,0,0,0,0
3.5724,1783189843.8842,1,1,1.0000,0.0000,1.44680,0.20532,-2.78441,1.00826,1.57079,0.00002,-0.14512,-0.38002,0.03936,,,,,,,,,,,,,,,,,,,,,,,,,,0,0,0,0,0
3.5962,1783189843.9080,1,1,1.0000,0.0000,1.44680,0.20509,-2.78447,1.00854,1.57079,0.00002,-0.14512,-0.38002,0.03930,,,,,,,,,,,,,,,,,,,,,,,,,,0,0,0,0,0
3.6127,1783189843.9245,1,1,1.0000,0.0000,1.44680,0.20493,-2.78451,1.00874,1.57079,0.00002,-0.14512,-0.38002,0.03926,,,,,,,,,,,,,,,,,,,,,,,,,,0,0,0,0,0
3.6130,1783189843.9248,1,1,1.0000,0.0000,1.44680,0.20493,-2.78451,1.00874,1.57079,0.00002,-0.14512,-0.38002,0.03926,,,,,,,,,,,,,,,,,,,,,,,,,,0,0,0,0,0
3.6213,1783189843.9331,1,1,1.0000,0.0000,1.44680,0.20478,-2.78454,1.00892,1.57079,0.00002,-0.14512,-0.38002,0.03922,,,,,,,,,,,,,,,,,,,,,,,,,,0,0,0,0,0
3.6323,1783189843.9441,1,1,1.0000,0.0000,1.44680,0.20470,-2.78456,1.00902,1.57079,0.00002,-0.14512,-0.38002,0.03920,,,,,,,,,,,,,,,,,,,,,,,,,,0,0,0,0,0
3.6327,1783189843.9445,1,1,1.0000,0.0000,1.44680,0.20470,-2.78456,1.00902,1.57079,0.00002,-0.14512,-0.38002,0.03920,,,,,,,,,,,,,,,,,,,,,,,,,,0,0,0,0,0
3.6456,1783189843.9574,1,1,1.0000,0.0000,1.44680,0.20459,-2.78459,1.00916,1.57079,0.00002,-0.14512,-0.38002,0.03918,,,,,,,,,,,,,,,,,,,,,,,,,,0,0,0,0,0
3.6547,1783189843.9665,1,1,1.0000,0.0000,1.44680,0.20447,-2.78461,1.00930,1.57079,0.00002,-0.14512,-0.38002,0.03915,,,,,,,,,,,,,,,,,,,,,,,,,,0,0,0,0,0
3.6670,1783189843.9788,1,1,1.0000,0.0000,1.44680,0.20443,-2.78462,1.00936,1.57079,0.00002,-0.14512,-0.38002,0.03913,,,,,,,,,,,,,,,,,,,,,,,,,,0,0,0,0,0
3.6731,1783189843.9849,1,1,1.0000,0.0000,1.44680,0.20431,-2.78465,1.00951,1.57079,0.00002,-0.14512,-0.38002,0.03910,,,,,,,,,,,,,,,,,,,,,,,,,,0,0,0,0,0
3.6839,1783189843.9956,1,1,1.0000,0.0000,1.44680,0.20409,-2.78470,1.00978,1.57079,0.00002,-0.14512,-0.38002,0.03905,,,,,,,,,,,,,,,,,,,,,,,,,,0,0,0,0,0
3.6917,1783189844.0034,1,1,1.0000,0.0000,1.44680,0.20409,-2.78470,1.00978,1.57079,0.00002,-0.14512,-0.38002,0.03905,,,,,,,,,,,,,,,,,,,,,,,,,,0,0,0,0,0
3.7017,1783189844.0135,1,1,1.0000,0.0000,1.44680,0.20402,-2.78472,1.00986,1.57079,0.00002,-0.14512,-0.38002,0.03903,,,,,,,,,,,,,,,,,,,,,,,,,,0,0,0,0,0
3.7170,1783189844.0288,1,1,1.0000,0.0000,1.44680,0.20386,-2.78476,1.01007,1.57079,0.00002,-0.14512,-0.38002,0.03899,,,,,,,,,,,,,,,,,,,,,,,,,,0,0,0,0,0
3.7226,1783189844.0344,1,1,1.0000,0.0000,1.44680,0.20384,-2.78476,1.01008,1.57079,0.00002,-0.14512,-0.38002,0.03899,,,,,,,,,,,,,,,,,,,,,,,,,,0,0,0,0,0
3.7229,1783189844.0347,1,1,1.0000,0.0000,1.44680,0.20384,-2.78476,1.01008,1.57079,0.00002,-0.14512,-0.38002,0.03899,,,,,,,,,,,,,,,,,,,,,,,,,,0,0,0,0,0
3.7324,1783189844.0441,1,1,1.0000,0.0000,1.44680,0.20369,-2.78480,1.01027,1.57079,0.00002,-0.14512,-0.38002,0.03895,,,,,,,,,,,,,,,,,,,,,,,,,,0,0,0,0,0
3.7428,1783189844.0546,1,1,1.0000,0.0000,1.44680,0.20354,-2.78483,1.01045,1.57079,0.00002,-0.14512,-0.38002,0.03891,,,,,,,,,,,,,,,,,,,,,,,,,,0,0,0,0,0
3.7570,1783189844.0688,1,1,1.0000,0.0000,1.44680,0.20343,-2.78486,1.01060,1.57079,0.00002,-0.14512,-0.38002,0.03888,,,,,,,,,,,,,,,,,,,,,,,,,,0,0,0,0,0
3.7572,1783189844.0690,1,1,1.0000,0.0000,1.44680,0.20343,-2.78486,1.01060,1.57079,0.00002,-0.14512,-0.38002,0.03888,,,,,,,,,,,,,,,,,,,,,,,,,,0,0,0,0,0
3.7631,1783189844.0749,1,1,1.0000,0.0000,1.44680,0.20338,-2.78487,1.01066,1.57079,0.00002,-0.14512,-0.38002,0.03887,,,,,,,,,,,,,,,,,,,,,,,,,,0,0,0,0,0
3.7735,1783189844.0853,1,1,1.0000,0.0000,1.44680,0.20317,-2.78492,1.01091,1.57079,0.00002,-0.14512,-0.38002,0.03882,,,,,,,,,,,,,,,,,,,,,,,,,,0,0,0,0,0
3.7807,1783189844.0925,1,1,1.0000,0.0000,1.44680,0.20316,-2.78492,1.01093,1.57079,0.00002,-0.14512,-0.38002,0.03882,,,,,,,,,,,,,,,,,,,,,,,,,,0,0,0,0,0
3.7810,1783189844.0928,1,1,1.0000,0.0000,1.44680,0.20316,-2.78492,1.01093,1.57079,0.00002,-0.14512,-0.38002,0.03882,,,,,,,,,,,,,,,,,,,,,,,,,,0,0,0,0,0
3.7955,1783189844.1073,1,1,1.0000,0.0000,1.44680,0.20301,-2.78496,1.01111,1.57079,0.00002,-0.14512,-0.38002,0.03878,,,,,,,,,,,,,,,,,,,,,,,,,,0,0,0,0,0
3.8009,1783189844.1127,1,1,1.0000,0.0000,1.44680,0.20287,-2.78499,1.01129,1.57079,0.00002,-0.14512,-0.38001,0.03874,,,,,,,,,,,,,,,,,,,,,,,,,,0,0,0,0,0
3.8111,1783189844.1229,1,1,1.0000,0.0000,1.44680,0.20280,-2.78501,1.01137,1.57079,0.00002,-0.14512,-0.38001,0.03873,,,,,,,,,,,,,,,,,,,,,,,,,,0,0,0,0,0
3.8223,1783189844.1340,1,1,1.0000,0.0000,1.44680,0.20270,-2.78503,1.01149,1.57079,0.00002,-0.14512,-0.38001,0.03870,,,,,,,,,,,,,,,,,,,,,,,,,,0,0,0,0,0
3.8361,1783189844.1479,1,1,1.0000,0.0000,1.44680,0.20249,-2.78508,1.01175,1.57079,0.00002,-0.14512,-0.38001,0.03865,,,,,,,,,,,,,,,,,,,,,,,,,,0,0,0,0,0
3.8365,1783189844.1483,1,1,1.0000,0.0000,1.44680,0.20249,-2.78508,1.01175,1.57079,0.00002,-0.14512,-0.38001,0.03865,,,,,,,,,,,,,,,,,,,,,,,,,,0,0,0,0,0
3.8409,1783189844.1527,1,1,1.0000,0.0000,1.44680,0.20248,-2.78508,1.01176,1.57079,0.00002,-0.14512,-0.38001,0.03865,,,,,,,,,,,,,,,,,,,,,,,,,,0,0,0,0,0
3.8538,1783189844.1656,1,1,1.0000,0.0000,1.44680,0.20234,-2.78512,1.01195,1.57079,0.00002,-0.14512,-0.38001,0.03861,,,,,,,,,,,,,,,,,,,,,,,,,,0,0,0,0,0
3.8662,1783189844.1780,1,1,1.0000,0.0000,1.44680,0.20212,-2.78517,1.01221,1.57079,0.00002,-0.14512,-0.38001,0.03856,,,,,,,,,,,,,,,,,,,,,,,,,,0,0,0,0,0
3.8761,1783189844.1879,1,1,1.0000,0.0000,1.44680,0.20208,-2.78518,1.01227,1.57079,0.00002,-0.14512,-0.38001,0.03855,,,,,,,,,,,,,,,,,,,,,,,,,,0,0,0,0,0
3.8763,1783189844.1881,1,1,1.0000,0.0000,1.44680,0.20208,-2.78518,1.01227,1.57079,0.00002,-0.14512,-0.38001,0.03855,,,,,,,,,,,,,,,,,,,,,,,,,,0,0,0,0,0
3.8909,1783189844.2027,1,1,1.0000,0.0000,1.44680,0.20189,-2.78522,1.01249,1.57079,0.00002,-0.14512,-0.38001,0.03850,,,,,,,,,,,,,,,,,,,,,,,,,,0,0,0,0,0
3.8991,1783189844.2108,1,1,1.0000,0.0000,1.44680,0.20182,-2.78524,1.01258,1.57079,0.00002,-0.14512,-0.38001,0.03848,,,,,,,,,,,,,,,,,,,,,,,,,,0,0,0,0,0
3.8996,1783189844.2114,1,1,1.0000,0.0000,1.44680,0.20182,-2.78524,1.01258,1.57079,0.00002,-0.14512,-0.38001,0.03848,,,,,,,,,,,,,,,,,,,,,,,,,,0,0,0,0,0
3.9168,1783189844.2286,1,1,1.0000,0.0000,1.44680,0.20159,-2.78529,1.01287,1.57079,0.00002,-0.14512,-0.38001,0.03842,,,,,,,,,,,,,,,,,,,,,,,,,,0,0,0,0,0
3.9208,1783189844.2326,1,1,1.0000,0.0000,1.44680,0.20152,-2.78531,1.01296,1.57079,0.00003,-0.14512,-0.38001,0.03841,,,,,,,,,,,,,,,,,,,,,,,,,,0,0,0,0,0
3.9285,1783189844.2403,1,1,1.0000,0.0000,1.44680,0.20145,-2.78533,1.01304,1.57079,0.00003,-0.14512,-0.38001,0.03839,,,,,,,,,,,,,,,,,,,,,,,,,,0,0,0,0,0
3.9290,1783189844.2408,1,1,1.0000,0.0000,1.44680,0.20145,-2.78533,1.01304,1.57079,0.00003,-0.14512,-0.38001,0.03839,,,,,,,,,,,,,,,,,,,,,,,,,,0,0,0,0,0
3.9354,1783189844.2472,1,1,1.0000,0.0000,1.44680,0.20143,-2.78533,1.01306,1.57079,0.00003,-0.14512,-0.38001,0.03838,,,,,,,,,,,,,,,,,,,,,,,,,,0,0,0,0,0
3.9458,1783189844.2576,1,1,1.0000,0.0000,1.44680,0.20129,-2.78537,1.01324,1.57079,0.00003,-0.14512,-0.38001,0.03835,,,,,,,,,,,,,,,,,,,,,,,,,,0,0,0,0,0
3.9461,1783189844.2579,1,1,1.0000,0.0000,1.44680,0.20129,-2.78537,1.01324,1.57079,0.00003,-0.14512,-0.38001,0.03835,,,,,,,,,,,,,,,,,,,,,,,,,,0,0,0,0,0
3.9620,1783189844.2738,1,1,1.0000,0.0000,1.44680,0.20113,-2.78540,1.01343,1.57079,0.00003,-0.14512,-0.38001,0.03831,,,,,,,,,,,,,,,,,,,,,,,,,,0,0,0,0,0
3.9655,1783189844.2773,1,1,1.0000,0.0000,1.44680,0.20110,-2.78541,1.01348,1.57079,0.00003,-0.14512,-0.38001,0.03830,,,,,,,,,,,,,,,,,,,,,,,,,,0,0,0,0,0
3.9785,1783189844.2903,1,1,1.0000,0.0000,1.44680,0.20091,-2.78545,1.01370,1.57079,0.00003,-0.14512,-0.38001,0.03825,,,,,,,,,,,,,,,,,,,,,,,,,,0,0,0,0,0
3.9844,1783189844.2962,1,1,1.0000,0.0000,1.44680,0.20077,-2.78549,1.01388,1.57079,0.00003,-0.14512,-0.38001,0.03822,,,,,,,,,,,,,,,,,,,,,,,,,,0,0,0,0,0
3.9947,1783189844.3065,1,1,1.0000,0.0000,1.44680,0.20076,-2.78549,1.01390,1.57079,0.00003,-0.14512,-0.38001,0.03822,,,,,,,,,,,,,,,,,,,,,,,,,,0,0,0,0,0
4.0055,1783189844.3173,1,1,1.0000,0.0000,1.44680,0.20061,-2.78552,1.01408,1.57079,0.00003,-0.14512,-0.38001,0.03818,,,,,,,,,,,,,,,,,,,,,,,,,,0,0,0,0,0
4.0191,1783189844.3309,1,1,1.0000,0.0000,1.44680,0.20047,-2.78556,1.01426,1.57079,0.00003,-0.14512,-0.38001,0.03814,,,,,,,,,,,,,,,,,,,,,,,,,,0,0,0,0,0
4.0265,1783189844.3383,1,1,1.0000,0.0000,1.44680,0.20042,-2.78557,1.01431,1.57079,0.00003,-0.14512,-0.38001,0.03813,,,,,,,,,,,,,,,,,,,,,,,,,,0,0,0,0,0
4.0349,1783189844.3467,1,1,1.0000,0.0000,1.44680,0.20031,-2.78560,1.01445,1.57079,0.00003,-0.14512,-0.38001,0.03810,,,,,,,,,,,,,,,,,,,,,,,,,,0,0,0,0,0
4.0481,1783189844.3599,1,1,1.0000,0.0000,1.44680,0.20009,-2.78565,1.01472,1.57079,0.00003,-0.14512,-0.38001,0.03805,,,,,,,,,,,,,,,,,,,,,,,,,,0,0,0,0,0
4.0572,1783189844.3690,1,1,1.0000,0.0000,1.44680,0.20005,-2.78566,1.01477,1.57079,0.00003,-0.14512,-0.38001,0.03804,,,,,,,,,,,,,,,,,,,,,,,,,,0,0,0,0,0
4.0706,1783189844.3824,1,1,1.0000,0.0000,1.44680,0.19986,-2.78570,1.01500,1.57079,0.00003,-0.14512,-0.38001,0.03799,,,,,,,,,,,,,,,,,,,,,,,,,,0,0,0,0,0
4.0742,1783189844.3860,1,1,1.0000,0.0000,1.44680,0.19979,-2.78572,1.01509,1.57079,0.00003,-0.14512,-0.38001,0.03797,,,,,,,,,,,,,,,,,,,,,,,,,,0,0,0,0,0
4.0745,1783189844.3863,1,1,1.0000,0.0000,1.44680,0.19979,-2.78572,1.01509,1.57079,0.00003,-0.14512,-0.38001,0.03797,,,,,,,,,,,,,,,,,,,,,,,,,,0,0,0,0,0
4.0905,1783189844.4023,1,1,1.0000,0.0000,1.44680,0.19968,-2.78574,1.01522,1.57079,0.00003,-0.14512,-0.38001,0.03795,,,,,,,,,,,,,,,,,,,,,,,,,,0,0,0,0,0
4.1050,1783189844.4168,1,1,1.0000,0.0000,1.44680,0.19948,-2.78579,1.01547,1.57079,0.00003,-0.14512,-0.38001,0.03790,,,,,,,,,,,,,,,,,,,,,,,,,,0,0,0,0,0
4.1063,1783189844.4180,1,1,1.0000,0.0000,1.44680,0.19948,-2.78579,1.01547,1.57079,0.00003,-0.14512,-0.38001,0.03790,,,,,,,,,,,,,,,,,,,,,,,,,,0,0,0,0,0
4.1066,1783189844.4184,1,1,1.0000,0.0000,1.44680,0.19948,-2.78579,1.01547,1.57079,0.00003,-0.14512,-0.38001,0.03790,,,,,,,,,,,,,,,,,,,,,,,,,,0,0,0,0,0
4.1255,1783189844.4373,1,1,1.0000,0.0000,1.44680,0.19934,-2.78582,1.01564,1.57079,0.00003,-0.14512,-0.38001,0.03786,,,,,,,,,,,,,,,,,,,,,,,,,,0,0,0,0,0
4.1343,1783189844.4461,1,1,1.0000,0.0000,1.44680,0.19922,-2.78585,1.01580,1.57079,0.00003,-0.14512,-0.38001,0.03783,,,,,,,,,,,,,,,,,,,,,,,,,,0,0,0,0,0
4.1509,1783189844.4627,1,1,1.0000,0.0000,1.44680,0.19911,-2.78587,1.01592,1.57079,0.00003,-0.14512,-0.38001,0.03781,,,,,,,,,,,,,,,,,,,,,,,,,,0,0,0,0,0
4.1513,1783189844.4631,1,1,1.0000,0.0000,1.44680,0.19911,-2.78587,1.01592,1.57079,0.00003,-0.14512,-0.38001,0.03781,,,,,,,,,,,,,,,,,,,,,,,,,,0,0,0,0,0
4.1550,1783189844.4668,1,1,1.0000,0.0000,1.44680,0.19907,-2.78588,1.01597,1.57079,0.00003,-0.14512,-0.38001,0.03780,,,,,,,,,,,,,,,,,,,,,,,,,,0,0,0,0,0
4.1668,1783189844.4786,1,1,1.0000,0.0000,1.44680,0.19890,-2.78592,1.01619,1.57079,0.00003,-0.14512,-0.38001,0.03775,,,,,,,,,,,,,,,,,,,,,,,,,,0,0,0,0,0
4.1763,1783189844.4881,1,1,1.0000,0.0000,1.44680,0.19885,-2.78594,1.01625,1.57079,0.00003,-0.14512,-0.38001,0.03774,,,,,,,,,,,,,,,,,,,,,,,,,,0,0,0,0,0
4.1842,1783189844.4960,1,1,1.0000,0.0000,1.44680,0.19873,-2.78596,1.01639,1.57079,0.00003,-0.14512,-0.38001,0.03771,,,,,,,,,,,,,,,,,,,,,,,,,,0,0,0,0,0
4.1846,1783189844.4964,1,1,1.0000,0.0000,1.44680,0.19873,-2.78596,1.01639,1.57079,0.00003,-0.14512,-0.38001,0.03771,,,,,,,,,,,,,,,,,,,,,,,,,,0,0,0,0,0
4.1956,1783189844.5074,1,1,1.0000,0.0000,1.44680,0.19859,-2.78600,1.01657,1.57079,0.00003,-0.14512,-0.38001,0.03767,,,,,,,,,,,,,,,,,,,,,,,,,,0,0,0,0,0
4.1961,1783189844.5079,1,1,1.0000,0.0000,1.44680,0.19852,-2.78601,1.01666,1.57079,0.00003,-0.14512,-0.38001,0.03766,,,,,,,,,,,,,,,,,,,,,,,,,,0,0,0,0,0
4.2560,1783189844.5678,1,1,1.0000,0.0000,1.44680,0.19789,-2.78616,1.01743,1.57079,0.00003,-0.14512,-0.38001,0.03750,,,,,,,,,,,,,,,,,,,,,,,,,,0,0,0,0,0
4.2565,1783189844.5683,1,1,1.0000,0.0000,1.44680,0.19789,-2.78616,1.01743,1.57079,0.00003,-0.14512,-0.38001,0.03750,,,,,,,,,,,,,,,,,,,,,,,,,,0,0,0,0,0
4.2569,1783189844.5687,1,1,1.0000,0.0000,1.44680,0.19789,-2.78616,1.01743,1.57079,0.00003,-0.14512,-0.38001,0.03750,,,,,,,,,,,,,,,,,,,,,,,,,,0,0,0,0,0
4.2573,1783189844.5691,1,1,1.0000,0.0000,1.44680,0.19789,-2.78616,1.01743,1.57079,0.00003,-0.14512,-0.38001,0.03750,,,,,,,,,,,,,,,,,,,,,,,,,,0,0,0,0,0
4.2777,1783189844.5895,1,1,1.0000,0.0000,1.44680,0.19777,-2.78619,1.01758,1.57079,0.00003,-0.14512,-0.38001,0.03747,,,,,,,,,,,,,,,,,,,,,,,,,,0,0,0,0,0
4.2782,1783189844.5900,1,1,1.0000,0.0000,1.44680,0.19777,-2.78619,1.01758,1.57079,0.00003,-0.14512,-0.38001,0.03747,,,,,,,,,,,,,,,,,,,,,,,,,,0,0,0,0,0
4.3006,1783189844.6124,1,1,1.0000,0.0000,1.44680,0.19755,-2.78624,1.01785,1.57079,0.00003,-0.14512,-0.38001,0.03742,,,,,,,,,,,,,,,,,,,,,,,,,,0,0,0,0,0
4.3044,1783189844.6162,1,1,1.0000,0.0000,1.44680,0.19749,-2.78625,1.01793,1.57079,0.00003,-0.14512,-0.38001,0.03740,,,,,,,,,,,,,,,,,,,,,,,,,,0,0,0,0,0
4.3142,1783189844.6260,1,1,1.0000,0.0000,1.44680,0.19734,-2.78629,1.01811,1.57079,0.00003,-0.14512,-0.38001,0.03736,,,,,,,,,,,,,,,,,,,,,,,,,,0,0,0,0,0
4.3300,1783189844.6417,1,1,1.0000,0.0000,1.44680,0.19723,-2.78631,1.01824,1.57079,0.00003,-0.14512,-0.38001,0.03734,,,,,,,,,,,,,,,,,,,,,,,,,,0,0,0,0,0
4.3365,1783189844.6483,1,1,1.0000,0.0000,1.44680,0.19715,-2.78633,1.01835,1.57079,0.00003,-0.14512,-0.38001,0.03732,,,,,,,,,,,,,,,,,,,,,,,,,,0,0,0,0,0
4.3446,1783189844.6564,1,1,1.0000,0.0000,1.44680,0.19703,-2.78636,1.01849,1.57079,0.00003,-0.14512,-0.38001,0.03729,,,,,,,,,,,,,,,,,,,,,,,,,,0,0,0,0,0
4.3572,1783189844.6689,1,1,1.0000,0.0000,1.44680,0.19698,-2.78637,1.01855,1.57079,0.00003,-0.14512,-0.38001,0.03728,,,,,,,,,,,,,,,,,,,,,,,,,,0,0,0,0,0
4.3575,1783189844.6693,1,1,1.0000,0.0000,1.44680,0.19698,-2.78637,1.01855,1.57079,0.00003,-0.14512,-0.38001,0.03728,,,,,,,,,,,,,,,,,,,,,,,,,,0,0,0,0,0
4.3717,1783189844.6835,1,1,1.0000,0.0000,1.44680,0.19679,-2.78641,1.01879,1.57079,0.00003,-0.14512,-0.38001,0.03723,,,,,,,,,,,,,,,,,,,,,,,,,,0,0,0,0,0
4.3761,1783189844.6879,1,1,1.0000,0.0000,1.44680,0.19664,-2.78645,1.01897,1.57079,0.00003,-0.14512,-0.38001,0.03719,,,,,,,,,,,,,,,,,,,,,,,,,,0,0,0,0,0
4.4058,1783189844.7175,1,1,1.0000,0.0000,1.44679,0.19641,-2.78650,1.01926,1.57079,0.00003,-0.14511,-0.38001,0.03713,,,,,,,,,,,,,,,,,,,,,,,,,,0,0,0,0,0
4.4081,1783189844.7199,1,1,1.0000,0.0000,1.44679,0.19641,-2.78650,1.01926,1.57079,0.00003,-0.14511,-0.38001,0.03713,,,,,,,,,,,,,,,,,,,,,,,,,,0,0,0,0,0
4.4147,1783189844.7265,1,1,1.0000,0.0000,1.44679,0.19639,-2.78651,1.01928,1.57079,0.00003,-0.14511,-0.38001,0.03713,,,,,,,,,,,,,,,,,,,,,,,,,,0,0,0,0,0
4.4308,1783189844.7425,1,1,1.0000,0.0000,1.44679,0.19617,-2.78656,1.01956,1.57079,0.00003,-0.14511,-0.38001,0.03707,,,,,,,,,,,,,,,,,,,,,,,,,,0,0,0,0,0
4.4386,1783189844.7504,1,1,1.0000,0.0000,1.44679,0.19602,-2.78659,1.01974,1.57079,0.00003,-0.14511,-0.38001,0.03704,,,,,,,,,,,,,,,,,,,,,,,,,,0,0,0,0,0
4.4389,1783189844.7507,1,1,1.0000,0.0000,1.44679,0.19602,-2.78659,1.01974,1.57079,0.00003,-0.14511,-0.38001,0.03704,,,,,,,,,,,,,,,,,,,,,,,,,,0,0,0,0,0
4.4464,1783189844.7582,1,1,1.0000,0.0000,1.44679,0.19601,-2.78660,1.01975,1.57079,0.00003,-0.14511,-0.38001,0.03703,,,,,,,,,,,,,,,,,,,,,,,,,,0,0,0,0,0
4.4573,1783189844.7691,1,1,1.0000,0.0000,1.44679,0.19590,-2.78662,1.01988,1.57079,0.00003,-0.14511,-0.38001,0.03701,,,,,,,,,,,,,,,,,,,,,,,,,,0,0,0,0,0
4.4576,1783189844.7694,1,1,1.0000,0.0000,1.44679,0.19590,-2.78662,1.01988,1.57079,0.00003,-0.14511,-0.38001,0.03701,,,,,,,,,,,,,,,,,,,,,,,,,,0,0,0,0,0
4.4657,1783189844.7775,1,1,1.0000,0.0000,1.44679,0.19578,-2.78665,1.02003,1.57079,0.00003,-0.14511,-0.38001,0.03698,,,,,,,,,,,,,,,,,,,,,,,,,,0,0,0,0,0
4.4790,1783189844.7908,1,1,1.0000,0.0000,1.44679,0.19573,-2.78666,1.02009,1.57079,0.00003,-0.14511,-0.38001,0.03697,,,,,,,,,,,,,,,,,,,,,,,,,,0,0,0,0,0
4.4845,1783189844.7962,1,1,1.0000,0.0000,1.44679,0.19561,-2.78669,1.02024,1.57079,0.00003,-0.14511,-0.38001,0.03694,,,,,,,,,,,,,,,,,,,,,,,,,,0,0,0,0,0
4.4942,1783189844.8059,1,1,1.0000,0.0000,1.44679,0.19547,-2.78672,1.02042,1.57079,0.00003,-0.14511,-0.38001,0.03690,,,,,,,,,,,,,,,,,,,,,,,,,,0,0,0,0,0
4.5044,1783189844.8162,1,1,1.0000,0.0000,1.44679,0.19538,-2.78674,1.02052,1.57079,0.00003,-0.14511,-0.38001,0.03688,,,,,,,,,,,,,,,,,,,,,,,,,,0,0,0,0,0
4.5150,1783189844.8268,1,1,1.0000,0.0000,1.44679,0.19532,-2.78675,1.02059,1.57079,0.00003,-0.14511,-0.38001,0.03686,,,,,,,,,,,,,,,,,,,,,,,,,,0,0,0,0,0
4.5153,1783189844.8271,1,1,1.0000,0.0000,1.44679,0.19532,-2.78675,1.02059,1.57079,0.00003,-0.14511,-0.38001,0.03686,,,,,,,,,,,,,,,,,,,,,,,,,,0,0,0,0,0
4.5377,1783189844.8494,1,1,1.0000,0.0000,1.44679,0.19511,-2.78680,1.02086,1.57079,0.00003,-0.14511,-0.38001,0.03681,,,,,,,,,,,,,,,,,,,,,,,,,,0,0,0,0,0
4.5379,1783189844.8497,1,1,1.0000,0.0000,1.44679,0.19511,-2.78680,1.02086,1.57079,0.00003,-0.14511,-0.38001,0.03681,,,,,,,,,,,,,,,,,,,,,,,,,,0,0,0,0,0
4.5442,1783189844.8560,1,1,1.0000,0.0000,1.44679,0.19499,-2.78683,1.02101,1.57079,0.00003,-0.14511,-0.38001,0.03678,,,,,,,,,,,,,,,,,,,,,,,,,,0,0,0,0,0
4.5560,1783189844.8678,1,1,1.0000,0.0000,1.44679,0.19477,-2.78688,1.02128,1.57079,0.00003,-0.14511,-0.38001,0.03673,,,,,,,,,,,,,,,,,,,,,,,,,,0,0,0,0,0
4.5642,1783189844.8760,1,1,1.0000,0.0000,1.44679,0.19475,-2.78689,1.02129,1.57079,0.00003,-0.14511,-0.38001,0.03672,,,,,,,,,,,,,,,,,,,,,,,,,,0,0,0,0,0
4.5645,1783189844.8762,1,1,1.0000,0.0000,1.44679,0.19475,-2.78689,1.02129,1.57079,0.00003,-0.14511,-0.38001,0.03672,,,,,,,,,,,,,,,,,,,,,,,,,,0,0,0,0,0
4.5766,1783189844.8883,1,1,1.0000,0.0000,1.44679,0.19461,-2.78692,1.02148,1.57079,0.00003,-0.14511,-0.38001,0.03669,,,,,,,,,,,,,,,,,,,,,,,,,,0,0,0,0,0
4.5938,1783189844.9056,1,1,1.0000,0.0000,1.44679,0.19445,-2.78696,1.02167,1.57079,0.00003,-0.14511,-0.38001,0.03665,,,,,,,,,,,,,,,,,,,,,,,,,,0,0,0,0,0
4.5945,1783189844.9062,1,1,1.0000,0.0000,1.44679,0.19445,-2.78696,1.02167,1.57079,0.00003,-0.14511,-0.38001,0.03665,,,,,,,,,,,,,,,,,,,,,,,,,,0,0,0,0,0
4.6111,1783189844.9229,1,1,1.0000,0.0000,1.44679,0.19423,-2.78701,1.02194,1.57079,0.00003,-0.14511,-0.38001,0.03659,,,,,,,,,,,,,,,,,,,,,,,,,,0,0,0,0,0
4.6156,1783189844.9274,1,1,1.0000,0.0000,1.44679,0.19416,-2.78702,1.02203,1.57079,0.00003,-0.14511,-0.38001,0.03658,,,,,,,,,,,,,,,,,,,,,,,,,,0,0,0,0,0
4.6165,1783189844.9282,1,1,1.0000,0.0000,1.44679,0.19409,-2.78704,1.02212,1.57079,0.00003,-0.14511,-0.38001,0.03656,,,,,,,,,,,,,,,,,,,,,,,,,,0,0,0,0,0
4.6388,1783189844.9506,1,1,1.0000,0.0000,1.44679,0.19392,-2.78708,1.02232,1.57079,0.00003,-0.14511,-0.38001,0.03652,,,,,,,,,,,,,,,,,,,,,,,,,,0,0,0,0,0
4.6392,1783189844.9510,1,1,1.0000,0.0000,1.44679,0.19392,-2.78708,1.02232,1.57079,0.00003,-0.14511,-0.38001,0.03652,,,,,,,,,,,,,,,,,,,,,,,,,,0,0,0,0,0
4.6472,1783189844.9590,1,1,1.0000,0.0000,1.44679,0.19378,-2.78711,1.02249,1.57079,0.00003,-0.14511,-0.38001,0.03648,,,,,,,,,,,,,,,,,,,,,,,,,,0,0,0,0,0
4.6476,1783189844.9594,1,1,1.0000,0.0000,1.44679,0.19378,-2.78711,1.02249,1.57079,0.00003,-0.14511,-0.38001,0.03648,,,,,,,,,,,,,,,,,,,,,,,,,,0,0,0,0,0
4.6571,1783189844.9689,1,1,1.0000,0.0000,1.44679,0.19373,-2.78712,1.02255,1.57079,0.00003,-0.14511,-0.38001,0.03647,,,,,,,,,,,,,,,,,,,,,,,,,,0,0,0,0,0
4.6574,1783189844.9692,1,1,1.0000,0.0000,1.44679,0.19373,-2.78712,1.02255,1.57079,0.00003,-0.14511,-0.38001,0.03647,,,,,,,,,,,,,,,,,,,,,,,,,,0,0,0,0,0
4.6643,1783189844.9761,1,1,1.0000,0.0000,1.44679,0.19362,-2.78715,1.02269,1.57079,0.00003,-0.14511,-0.38001,0.03644,,,,,,,,,,,,,,,,,,,,,,,,,,0,0,0,0,0
4.6645,1783189844.9763,1,1,1.0000,0.0000,1.44679,0.19362,-2.78715,1.02269,1.57079,0.00003,-0.14511,-0.38001,0.03644,,,,,,,,,,,,,,,,,,,,,,,,,,0,0,0,0,0
4.6787,1783189844.9905,1,1,1.0000,0.0000,1.44679,0.19340,-2.78720,1.02296,1.57079,0.00003,-0.14511,-0.38001,0.03639,,,,,,,,,,,,,,,,,,,,,,,,,,0,0,0,0,0
4.6848,1783189844.9966,1,1,1.0000,0.0000,1.44679,0.19339,-2.78720,1.02297,1.57079,0.00003,-0.14511,-0.38001,0.03639,,,,,,,,,,,,,,,,,,,,,,,,,,0,0,0,0,0
4.6952,1783189845.0070,1,1,1.0000,0.0000,1.44679,0.19330,-2.78722,1.02308,1.57079,0.00003,-0.14511,-0.38001,0.03636,,,,,,,,,,,,,,,,,,,,,,,,,,0,0,0,0,0
4.6955,1783189845.0073,1,1,1.0000,0.0000,1.44679,0.19330,-2.78722,1.02308,1.57079,0.00003,-0.14511,-0.38001,0.03636,,,,,,,,,,,,,,,,,,,,,,,,,,0,0,0,0,0
4.7084,1783189845.0202,1,1,1.0000,0.0000,1.44679,0.19302,-2.78728,1.02342,1.57079,0.00003,-0.14511,-0.38001,0.03630,,,,,,,,,,,,,,,,,,,,,,,,,,0,0,0,0,0
4.7087,1783189845.0205,1,1,1.0000,0.0000,1.44679,0.19302,-2.78728,1.02342,1.57079,0.00003,-0.14511,-0.38001,0.03630,,,,,,,,,,,,,,,,,,,,,,,,,,0,0,0,0,0
4.7162,1783189845.0279,1,1,1.0000,0.0000,1.44679,0.19301,-2.78729,1.02343,1.57079,0.00003,-0.14511,-0.38001,0.03629,,,,,,,,,,,,,,,,,,,,,,,,,,0,0,0,0,0
4.7242,1783189845.0360,1,1,1.0000,0.0000,1.44679,0.19295,-2.78730,1.02351,1.57079,0.00003,-0.14511,-0.38001,0.03628,,,,,,,,,,,,,,,,,,,,,,,,,,0,0,0,0,0
4.7362,1783189845.0480,1,1,1.0000,0.0000,1.44679,0.19278,-2.78734,1.02372,1.57079,0.00003,-0.14511,-0.38001,0.03624,,,,,,,,,,,,,,,,,,,,,,,,,,0,0,0,0,0
4.7476,1783189845.0593,1,1,1.0000,0.0000,1.44679,0.19277,-2.78734,1.02374,1.57079,0.00003,-0.14511,-0.38001,0.03623,,,,,,,,,,,,,,,,,,,,,,,,,,0,0,0,0,0
4.7481,1783189845.0599,1,1,1.0000,0.0000,1.44679,0.19273,-2.78735,1.02378,1.57079,0.00003,-0.14511,-0.38001,0.03622,,,,,,,,,,,,,,,,,,,,,,,,,,0,0,0,0,0
4.7563,1783189845.0681,1,1,1.0000,0.0000,1.44679,0.19261,-2.78738,1.02393,1.57079,0.00003,-0.14511,-0.38001,0.03619,,,,,,,,,,,,,,,,,,,,,,,,,,0,0,0,0,0
4.7650,1783189845.0768,1,1,1.0000,0.0000,1.44679,0.19246,-2.78741,1.02411,1.57079,0.00003,-0.14511,-0.38001,0.03616,,,,,,,,,,,,,,,,,,,,,,,,,,0,0,0,0,0
4.7757,1783189845.0875,1,1,1.0000,0.0000,1.44679,0.19239,-2.78743,1.02420,1.57079,0.00003,-0.14511,-0.38001,0.03614,,,,,,,,,,,,,,,,,,,,,,,,,,0,0,0,0,0
4.7851,1783189845.0969,1,1,1.0000,0.0000,1.44679,0.19232,-2.78744,1.02428,1.57079,0.00003,-0.14511,-0.38001,0.03612,,,,,,,,,,,,,,,,,,,,,,,,,,0,0,0,0,0
4.8044,1783189845.1162,1,1,1.0000,0.0000,1.44679,0.19214,-2.78749,1.02451,1.57079,0.00003,-0.14511,-0.38001,0.03608,,,,,,,,,,,,,,,,,,,,,,,,,,0,0,0,0,0
4.8047,1783189845.1165,1,1,1.0000,0.0000,1.44679,0.19214,-2.78749,1.02451,1.57079,0.00003,-0.14511,-0.38001,0.03608,,,,,,,,,,,,,,,,,,,,,,,,,,0,0,0,0,0
4.8108,1783189845.1226,1,1,1.0000,0.0000,1.44679,0.19210,-2.78749,1.02455,1.57079,0.00003,-0.14511,-0.38001,0.03607,,,,,,,,,,,,,,,,,,,,,,,,,,0,0,0,0,0
4.8170,1783189845.1288,1,1,1.0000,0.0000,1.44679,0.19198,-2.78752,1.02470,1.57079,0.00003,-0.14511,-0.38001,0.03604,,,,,,,,,,,,,,,,,,,,,,,,,,0,0,0,0,0
4.8267,1783189845.1385,1,1,1.0000,0.0000,1.44679,0.19184,-2.78755,1.02488,1.57079,0.00003,-0.14511,-0.38001,0.03600,,,,,,,,,,,,,,,,,,,,,,,,,,0,0,0,0,0
4.8419,1783189845.1537,1,1,1.0000,0.0000,1.44679,0.19173,-2.78758,1.02501,1.57079,0.00003,-0.14511,-0.38001,0.03598,,,,,,,,,,,,,,,,,,,,,,,,,,0,0,0,0,0
4.8445,1783189845.1562,1,1,1.0000,0.0000,1.44679,0.19169,-2.78759,1.02506,1.57079,0.00003,-0.14511,-0.38001,0.03597,,,,,,,,,,,,,,,,,,,,,,,,,,0,0,0,0,0
4.8548,1783189845.1666,1,1,1.0000,0.0000,1.44679,0.19159,-2.78761,1.02519,1.57079,0.00003,-0.14511,-0.38001,0.03594,,,,,,,,,,,,,,,,,,,,,,,,,,0,0,0,0,0
4.8551,1783189845.1669,1,1,1.0000,0.0000,1.44679,0.19159,-2.78761,1.02519,1.57079,0.00003,-0.14511,-0.38001,0.03594,,,,,,,,,,,,,,,,,,,,,,,,,,0,0,0,0,0
4.8668,1783189845.1785,1,1,1.0000,0.0000,1.44679,0.19151,-2.78763,1.02528,1.57079,0.00003,-0.14511,-0.38001,0.03592,,,,,,,,,,,,,,,,,,,,,,,,,,0,0,0,0,0
4.8671,1783189845.1789,1,1,1.0000,0.0000,1.44679,0.19151,-2.78763,1.02528,1.57079,0.00003,-0.14511,-0.38001,0.03592,,,,,,,,,,,,,,,,,,,,,,,,,,0,0,0,0,0
4.8758,1783189845.1876,1,1,1.0000,0.0000,1.44679,0.19142,-2.78765,1.02539,1.57079,0.00003,-0.14511,-0.38001,0.03590,,,,,,,,,,,,,,,,,,,,,,,,,,0,0,0,0,0
4.8910,1783189845.2027,1,1,1.0000,0.0000,1.44679,0.19113,-2.78771,1.02574,1.57079,0.00003,-0.14511,-0.38001,0.03583,,,,,,,,,,,,,,,,,,,,,,,,,,0,0,0,0,0
4.8997,1783189845.2115,1,1,1.0000,0.0000,1.44679,0.19113,-2.78772,1.02575,1.57079,0.00003,-0.14511,-0.38001,0.03583,,,,,,,,,,,,,,,,,,,,,,,,,,0,0,0,0,0
4.9003,1783189845.2121,1,1,1.0000,0.0000,1.44679,0.19110,-2.78772,1.02578,1.57079,0.00003,-0.14511,-0.38001,0.03582,,,,,,,,,,,,,,,,,,,,,,,,,,0,0,0,0,0
4.9044,1783189845.2162,1,1,1.0000,0.0000,1.44679,0.19106,-2.78773,1.02583,1.57079,0.00003,-0.14511,-0.38001,0.03581,,,,,,,,,,,,,,,,,,,,,,,,,,0,0,0,0,0
4.9146,1783189845.2264,1,1,1.0000,0.0000,1.44679,0.19096,-2.78776,1.02596,1.57079,0.00003,-0.14511,-0.38001,0.03579,,,,,,,,,,,,,,,,,,,,,,,,,,0,0,0,0,0
4.9284,1783189845.2402,1,1,1.0000,0.0000,1.44679,0.19085,-2.78778,1.02610,1.57079,0.00003,-0.14511,-0.38001,0.03576,,,,,,,,,,,,,,,,,,,,,,,,,,0,0,0,0,0
4.9287,1783189845.2405,1,1,1.0000,0.0000,1.44679,0.19085,-2.78778,1.02610,1.57079,0.00003,-0.14511,-0.38001,0.03576,,,,,,,,,,,,,,,,,,,,,,,,,,0,0,0,0,0
4.9448,1783189845.2566,1,1,1.0000,0.0000,1.44679,0.19058,-2.78784,1.02642,1.57079,0.00003,-0.14511,-0.38001,0.03569,,,,,,,,,,,,,,,,,,,,,,,,,,0,0,0,0,0
4.9453,1783189845.2571,1,1,1.0000,0.0000,1.44679,0.19058,-2.78784,1.02642,1.57079,0.00003,-0.14511,-0.38001,0.03569,,,,,,,,,,,,,,,,,,,,,,,,,,0,0,0,0,0
4.9457,1783189845.2574,1,1,1.0000,0.0000,1.44679,0.19058,-2.78784,1.02642,1.57079,0.00003,-0.14511,-0.38001,0.03569,,,,,,,,,,,,,,,,,,,,,,,,,,0,0,0,0,0
4.9549,1783189845.2667,1,1,1.0000,0.0000,1.44679,0.19051,-2.78786,1.02651,1.57079,0.00003,-0.14511,-0.38001,0.03567,,,,,,,,,,,,,,,,,,,,,,,,,,0,0,0,0,0
4.9645,1783189845.2762,1,1,1.0000,0.0000,1.44679,0.19043,-2.78787,1.02660,1.57079,0.00003,-0.14511,-0.38001,0.03566,,,,,,,,,,,,,,,,,,,,,,,,,,0,0,0,0,0
4.9743,1783189845.2861,1,1,1.0000,0.0000,1.44679,0.19033,-2.78790,1.02673,1.57079,0.00003,-0.14511,-0.38001,0.03563,,,,,,,,,,,,,,,,,,,,,,,,,,0,0,0,0,0
4.9861,1783189845.2979,1,1,1.0000,0.0000,1.44679,0.19025,-2.78792,1.02682,1.57079,0.00003,-0.14511,-0.38001,0.03561,,,,,,,,,,,,,,,,,,,,,,,,,,0,0,0,0,0
4.9950,1783189845.3068,1,1,1.0000,0.0000,1.44679,0.19016,-2.78794,1.02693,1.57079,0.00003,-0.14511,-0.38001,0.03559,,,,,,,,,,,,,,,,,,,,,,,,,,0,0,0,0,0
5.0066,1783189845.3184,1,1,1.0000,0.0000,1.44679,0.18995,-2.78799,1.02720,1.57079,0.00003,-0.14511,-0.38001,0.03554,,,,,,,,,,,,,,,,,,,,,,,,,,0,0,0,0,0
5.0143,1783189845.3261,1,1,1.0000,0.0000,1.44679,0.18987,-2.78800,1.02729,1.57079,0.00003,-0.14511,-0.38001,0.03552,,,,,,,,,,,,,,,,,,,,,,,,,,0,0,0,0,0
5.0147,1783189845.3264,1,1,1.0000,0.0000,1.44679,0.18987,-2.78800,1.02729,1.57079,0.00003,-0.14511,-0.38001,0.03552,,,,,,,,,,,,,,,,,,,,,,,,,,0,0,0,0,0
5.0243,1783189845.3361,1,1,1.0000,0.0000,1.44679,0.18980,-2.78802,1.02738,1.57079,0.00003,-0.14511,-0.38001,0.03550,,,,,,,,,,,,,,,,,,,,,,,,,,0,0,0,0,0
5.0578,1783189845.3696,1,1,1.0000,0.0000,1.44679,0.18947,-2.78809,1.02779,1.57079,0.00003,-0.14511,-0.38001,0.03542,,,,,,,,,,,,,,,,,,,,,,,,,,0,0,0,0,0
5.0583,1783189845.3700,1,1,1.0000,0.0000,1.44679,0.18947,-2.78809,1.02779,1.57079,0.00003,-0.14511,-0.38001,0.03542,,,,,,,,,,,,,,,,,,,,,,,,,,0,0,0,0,0
5.0586,1783189845.3704,1,1,1.0000,0.0000,1.44679,0.18947,-2.78809,1.02779,1.57079,0.00003,-0.14511,-0.38001,0.03542,,,,,,,,,,,,,,,,,,,,,,,,,,0,0,0,0,0
5.0682,1783189845.3799,1,1,1.0000,0.0000,1.44679,0.18924,-2.78814,1.02806,1.57079,0.00003,-0.14511,-0.38001,0.03536,,,,,,,,,,,,,,,,,,,,,,,,,,0,0,0,0,0
5.0744,1783189845.3861,1,1,1.0000,0.0000,1.44679,0.18924,-2.78814,1.02806,1.57079,0.00003,-0.14511,-0.38001,0.03536,,,,,,,,,,,,,,,,,,,,,,,,,,0,0,0,0,0
5.0905,1783189845.4023,1,1,1.0000,0.0000,1.44679,0.18908,-2.78818,1.02826,1.57079,0.00003,-0.14511,-0.38001,0.03532,,,,,,,,,,,,,,,,,,,,,,,,,,0,0,0,0,0
5.1050,1783189845.4168,1,1,1.0000,0.0000,1.44679,0.18892,-2.78822,1.02845,1.57079,0.00003,-0.14511,-0.38001,0.03529,,,,,,,,,,,,,,,,,,,,,,,,,,0,0,0,0,0
5.1066,1783189845.4184,1,1,1.0000,0.0000,1.44679,0.18892,-2.78822,1.02845,1.57079,0.00003,-0.14511,-0.38001,0.03529,,,,,,,,,,,,,,,,,,,,,,,,,,0,0,0,0,0
5.1069,1783189845.4186,1,1,1.0000,0.0000,1.44679,0.18892,-2.78822,1.02845,1.57079,0.00003,-0.14511,-0.38001,0.03529,,,,,,,,,,,,,,,,,,,,,,,,,,0,0,0,0,0
5.1141,1783189845.4259,1,1,1.0000,0.0000,1.44679,0.18884,-2.78824,1.02856,1.57079,0.00003,-0.14511,-0.38001,0.03526,,,,,,,,,,,,,,,,,,,,,,,,,,0,0,0,0,0
5.1285,1783189845.4403,1,1,1.0000,0.0000,1.44679,0.18856,-2.78830,1.02890,1.57079,0.00003,-0.14511,-0.38001,0.03520,,,,,,,,,,,,,,,,,,,,,,,,,,0,0,0,0,0
5.1290,1783189845.4408,1,1,1.0000,0.0000,1.44679,0.18856,-2.78830,1.02890,1.57079,0.00003,-0.14511,-0.38001,0.03520,,,,,,,,,,,,,,,,,,,,,,,,,,0,0,0,0,0
5.1450,1783189845.4568,1,1,1.0000,0.0000,1.44679,0.18846,-2.78832,1.02903,1.57079,0.00003,-0.14511,-0.38001,0.03517,,,,,,,,,,,,,,,,,,,,,,,,,,0,0,0,0,0
5.1465,1783189845.4583,1,1,1.0000,0.0000,1.44679,0.18846,-2.78832,1.02903,1.57079,0.00003,-0.14511,-0.38001,0.03517,,,,,,,,,,,,,,,,,,,,,,,,,,0,0,0,0,0
5.1468,1783189845.4586,1,1,1.0000,0.0000,1.44679,0.18846,-2.78832,1.02903,1.57079,0.00003,-0.14511,-0.38001,0.03517,,,,,,,,,,,,,,,,,,,,,,,,,,0,0,0,0,0
5.1543,1783189845.4661,1,1,1.0000,0.0000,1.44679,0.18832,-2.78835,1.02919,1.57079,0.00003,-0.14511,-0.38001,0.03514,,,,,,,,,,,,,,,,,,,,,,,,,,0,0,0,0,0
5.1651,1783189845.4769,1,1,1.0000,0.0000,1.44679,0.18823,-2.78837,1.02930,1.57079,0.00003,-0.14511,-0.38001,0.03512,,,,,,,,,,,,,,,,,,,,,,,,,,0,0,0,0,0
5.1750,1783189845.4868,1,1,1.0000,0.0000,1.44679,0.18815,-2.78839,1.02940,1.57079,0.00003,-0.14511,-0.38001,0.03510,,,,,,,,,,,,,,,,,,,,,,,,,,0,0,0,0,0
5.1753,1783189845.4871,1,1,1.0000,0.0000,1.44679,0.18815,-2.78839,1.02940,1.57079,0.00003,-0.14511,-0.38001,0.03510,,,,,,,,,,,,,,,,,,,,,,,,,,0,0,0,0,0
5.1924,1783189845.5042,1,1,1.0000,0.0000,1.44679,0.18787,-2.78846,1.02975,1.57079,0.00004,-0.14511,-0.38001,0.03503,,,,,,,,,,,,,,,,,,,,,,,,,,0,0,0,0,0
5.1948,1783189845.5066,1,1,1.0000,0.0000,1.44679,0.18787,-2.78846,1.02975,1.57079,0.00004,-0.14511,-0.38001,0.03503,,,,,,,,,,,,,,,,,,,,,,,,,,0,0,0,0,0
5.1951,1783189845.5069,1,1,1.0000,0.0000,1.44679,0.18787,-2.78846,1.02975,1.57079,0.00004,-0.14511,-0.38001,0.03503,,,,,,,,,,,,,,,,,,,,,,,,,,0,0,0,0,0
5.2074,1783189845.5192,1,1,1.0000,0.0000,1.44679,0.18777,-2.78848,1.02987,1.57079,0.00004,-0.14511,-0.38001,0.03500,,,,,,,,,,,,,,,,,,,,,,,,,,0,0,0,0,0
5.2152,1783189845.5270,1,1,1.0000,0.0000,1.44679,0.18763,-2.78851,1.03004,1.57079,0.00004,-0.14511,-0.38001,0.03497,,,,,,,,,,,,,,,,,,,,,,,,,,0,0,0,0,0
5.2276,1783189845.5394,1,1,1.0000,0.0000,1.44679,0.18755,-2.78853,1.03014,1.57079,0.00004,-0.14511,-0.38001,0.03495,,,,,,,,,,,,,,,,,,,,,,,,,,0,0,0,0,0
5.2358,1783189845.5476,1,1,1.0000,0.0000,1.44679,0.18746,-2.78855,1.03025,1.57079,0.00004,-0.14511,-0.38001,0.03493,,,,,,,,,,,,,,,,,,,,,,,,,,0,0,0,0,0
5.2482,1783189845.5600,1,1,1.0000,0.0000,1.44679,0.18718,-2.78861,1.03059,1.57079,0.00004,-0.14511,-0.38001,0.03486,,,,,,,,,,,,,,,,,,,,,,,,,,0,0,0,0,0
5.2544,1783189845.5662,1,1,1.0000,0.0000,1.44679,0.18718,-2.78861,1.03059,1.57079,0.00004,-0.14511,-0.38001,0.03486,,,,,,,,,,,,,,,,,,,,,,,,,,0,0,0,0,0
5.2547,1783189845.5665,1,1,1.0000,0.0000,1.44679,0.18718,-2.78861,1.03059,1.57079,0.00004,-0.14511,-0.38001,0.03486,,,,,,,,,,,,,,,,,,,,,,,,,,0,0,0,0,0
5.2655,1783189845.5773,1,1,1.0000,0.0000,1.44679,0.18708,-2.78863,1.03072,1.57079,0.00004,-0.14511,-0.38001,0.03483,,,,,,,,,,,,,,,,,,,,,,,,,,0,0,0,0,0
5.2789,1783189845.5907,1,1,1.0000,0.0000,1.44679,0.18687,-2.78868,1.03097,1.57079,0.00004,-0.14511,-0.38001,0.03478,,,,,,,,,,,,,,,,,,,,,,,,,,0,0,0,0,0
5.2846,1783189845.5964,1,1,1.0000,0.0000,1.44679,0.18680,-2.78870,1.03106,1.57079,0.00004,-0.14511,-0.38001,0.03476,,,,,,,,,,,,,,,,,,,,,,,,,,0,0,0,0,0
5.2850,1783189845.5968,1,1,1.0000,0.0000,1.44679,0.18680,-2.78870,1.03106,1.57079,0.00004,-0.14511,-0.38001,0.03476,,,,,,,,,,,,,,,,,,,,,,,,,,0,0,0,0,0
5.2951,1783189845.6069,1,1,1.0000,0.0000,1.44679,0.18676,-2.78871,1.03110,1.57079,0.00004,-0.14511,-0.38001,0.03476,,,,,,,,,,,,,,,,,,,,,,,,,,0,0,0,0,0
5.3095,1783189845.6213,1,1,1.0000,0.0000,1.44679,0.18655,-2.78875,1.03136,1.57079,0.00004,-0.14511,-0.38001,0.03470,,,,,,,,,,,,,,,,,,,,,,,,,,0,0,0,0,0
5.3168,1783189845.6286,1,1,1.0000,0.0000,1.44679,0.18654,-2.78876,1.03138,1.57079,0.00004,-0.14511,-0.38001,0.03470,,,,,,,,,,,,,,,,,,,,,,,,,,0,0,0,0,0
5.3283,1783189845.6401,1,1,1.0000,0.0000,1.44679,0.18638,-2.78879,1.03157,1.57079,0.00004,-0.14511,-0.38001,0.03466,,,,,,,,,,,,,,,,,,,,,,,,,,0,0,0,0,0
5.3286,1783189845.6404,1,1,1.0000,0.0000,1.44679,0.18638,-2.78879,1.03157,1.57079,0.00004,-0.14511,-0.38001,0.03466,,,,,,,,,,,,,,,,,,,,,,,,,,0,0,0,0,0
5.3367,1783189845.6485,1,1,1.0000,0.0000,1.44679,0.18623,-2.78882,1.03175,1.57079,0.00004,-0.14511,-0.38001,0.03463,,,,,,,,,,,,,,,,,,,,,,,,,,0,0,0,0,0
5.3567,1783189845.6685,1,1,1.0000,0.0000,1.44679,0.18609,-2.78886,1.03193,1.57079,0.00004,-0.14511,-0.38001,0.03459,,,,,,,,,,,,,,,,,,,,,,,,,,0,0,0,0,0
5.3685,1783189845.6803,1,1,1.0000,0.0000,1.44679,0.18592,-2.78889,1.03214,1.57079,0.00004,-0.14511,-0.38001,0.03455,,,,,,,,,,,,,,,,,,,,,,,,,,0,0,0,0,0
5.3688,1783189845.6806,1,1,1.0000,0.0000,1.44679,0.18592,-2.78889,1.03214,1.57079,0.00004,-0.14511,-0.38001,0.03455,,,,,,,,,,,,,,,,,,,,,,,,,,0,0,0,0,0
5.3746,1783189845.6864,1,1,1.0000,0.0000,1.44679,0.18592,-2.78889,1.03214,1.57079,0.00004,-0.14511,-0.38001,0.03455,,,,,,,,,,,,,,,,,,,,,,,,,,0,0,0,0,0
5.3750,1783189845.6868,1,1,1.0000,0.0000,1.44679,0.18592,-2.78889,1.03214,1.57079,0.00004,-0.14511,-0.38001,0.03455,,,,,,,,,,,,,,,,,,,,,,,,,,0,0,0,0,0
