Martins-Lucaas/twinforge/sensors/Data/20260718_150254__samples.csv
t_rel_s,t_unix,cycle,phase,setpoint_n,force_net_n,q1,q2,q3,q4,q5,q6,tcp_x,tcp_y,tcp_z,taxel_0,taxel_1,taxel_2,taxel_3,taxel_4,taxel_5,taxel_6,taxel_7,taxel_8,taxel_9,taxel_10,taxel_11,taxel_12,taxel_13,taxel_14,taxel_15,taxel_16,taxel_17,taxel_18,taxel_19,taxel_20,taxel_21,taxel_22,taxel_23,taxel_24,n_RA,n_SA,cn_mm,cn_ra,cn_sa
0.0007,1784397774.1195,0,-1,1.0000,0.0038,1.42138,0.26876,-2.61218,0.77266,1.57082,0.27401,-0.13370,-0.39487,0.05014,,,,,,,,,,,,,,,,,,,,,,,,,,0,0,0,0,0
0.1064,1784397774.2252,1,0,1.0000,0.0048,1.42138,0.26877,-2.61217,0.77266,1.57080,0.27401,-0.13371,-0.39487,0.05015,,,,,,,,,,,,,,,,,,,,,,,,,,0,0,0,0,0
0.1948,1784397774.3137,1,0,1.0000,0.0035,1.42138,0.26877,-2.61217,0.77266,1.57080,0.27401,-0.13371,-0.39487,0.05015,,,,,,,,,,,,,,,,,,,,,,,,,,0,0,0,0,0
0.2918,1784397774.4106,1,0,1.0000,0.0032,1.42138,0.26877,-2.61217,0.77266,1.57080,0.27401,-0.13371,-0.39487,0.05015,,,,,,,,,,,,,,,,,,,,,,,,,,0,0,0,0,0
0.3887,1784397774.5075,1,0,1.0000,0.0043,1.42138,0.26877,-2.61217,0.77266,1.57080,0.27401,-0.13371,-0.39487,0.05015,,,,,,,,,,,,,,,,,,,,,,,,,,0,0,0,0,0
0.4881,1784397774.6070,1,0,1.0000,0.0106,1.42138,0.26877,-2.61217,0.77266,1.57080,0.27401,-0.13371,-0.39487,0.05015,,,,,,,,,,,,,,,,,,,,,,,,,,0,0,0,0,0
0.5901,1784397774.7089,1,0,1.0000,0.0125,1.42138,0.26877,-2.61217,0.77266,1.57080,0.27401,-0.13371,-0.39487,0.05015,,,,,,,,,,,,,,,,,,,,,,,,,,0,0,0,0,0
0.6830,1784397774.8018,1,0,1.0000,0.0119,1.42138,0.26877,-2.61217,0.77266,1.57080,0.27401,-0.13371,-0.39487,0.05015,,,,,,,,,,,,,,,,,,,,,,,,,,0,0,0,0,0
0.7785,1784397774.8973,1,1,1.0000,0.0078,1.42138,0.26877,-2.61217,0.77266,1.57080,0.27401,-0.13371,-0.39487,0.05015,,,,,,,,,,,,,,,,,,,,,,,,,,0,0,0,0,0
0.8737,1784397774.9925,1,1,1.0000,0.0055,1.42138,0.26877,-2.61217,0.77266,1.57080,0.27401,-0.13371,-0.39487,0.05015,,,,,,,,,,,,,,,,,,,,,,,,,,0,0,0,0,0
0.9771,1784397775.0959,1,1,1.0000,0.0012,1.42138,0.26877,-2.61217,0.77266,1.57080,0.27401,-0.13371,-0.39487,0.05015,,,,,,,,,,,,,,,,,,,,,,,,,,0,0,0,0,0
1.0700,1784397775.1888,1,1,1.0000,-0.0001,1.42138,0.26872,-2.61224,0.77271,1.57080,0.27401,-0.13372,-0.39484,0.05010,,,,,,,,,,,,,,,,,,,,,,,,,,0,0,0,0,0
1.1659,1784397775.2847,1,1,1.0000,0.0042,1.42138,0.26834,-2.61244,0.77323,1.57080,0.27401,-0.13372,-0.39481,0.04992,,,,,,,,,,,,,,,,,,,,,,,,,,0,0,0,0,0
1.2642,1784397775.3830,1,1,1.0000,0.0054,1.42138,0.26785,-2.61262,0.77396,1.57080,0.27401,-0.13371,-0.39485,0.04973,,,,,,,,,,,,,,,,,,,,,,,,,,0,0,0,0,0
1.3618,1784397775.4806,1,1,1.0000,0.0058,1.42138,0.26747,-2.61280,0.77453,1.57080,0.27401,-0.13371,-0.39485,0.04957,,,,,,,,,,,,,,,,,,,,,,,,,,0,0,0,0,0
1.4617,1784397775.5805,1,1,1.0000,0.0054,1.42137,0.26695,-2.61303,0.77531,1.57080,0.27401,-0.13371,-0.39487,0.04935,,,,,,,,,,,,,,,,,,,,,,,,,,0,0,0,0,0
1.5540,1784397775.6728,1,1,1.0000,0.0053,1.42137,0.26667,-2.61318,0.77573,1.57080,0.27401,-0.13371,-0.39486,0.04922,,,,,,,,,,,,,,,,,,,,,,,,,,0,0,0,0,0
1.6567,1784397775.7755,1,1,1.0000,0.0053,1.42137,0.26608,-2.61346,0.77661,1.57080,0.27401,-0.13370,-0.39486,0.04896,,,,,,,,,,,,,,,,,,,,,,,,,,0,0,0,0,0
1.7482,1784397775.8670,1,1,1.0000,0.0109,1.42136,0.26586,-2.61356,0.77695,1.57080,0.27401,-0.13370,-0.39487,0.04887,,,,,,,,,,,,,,,,,,,,,,,,,,0,0,0,0,0
1.8502,1784397775.9690,1,1,1.0000,0.0151,1.42136,0.26524,-2.61385,0.77784,1.57080,0.27401,-0.13370,-0.39486,0.04860,,,,,,,,,,,,,,,,,,,,,,,,,,0,0,0,0,0
1.9490,1784397776.0678,1,1,1.0000,0.0184,1.42136,0.26497,-2.61398,0.77825,1.57080,0.27401,-0.13370,-0.39487,0.04848,,,,,,,,,,,,,,,,,,,,,,,,,,0,0,0,0,0
2.0558,1784397776.1746,1,1,1.0000,0.0173,1.42135,0.26439,-2.61426,0.77909,1.57080,0.27401,-0.13370,-0.39486,0.04823,,,,,,,,,,,,,,,,,,,,,,,,,,0,0,0,0,0
2.1366,1784397776.2554,1,1,1.0000,0.0059,1.42135,0.26412,-2.61438,0.77951,1.57080,0.27401,-0.13370,-0.39487,0.04811,,,,,,,,,,,,,,,,,,,,,,,,,,0,0,0,0,0
2.2345,1784397776.3533,1,1,1.0000,0.0025,1.42135,0.26370,-2.61458,0.78012,1.57080,0.27401,-0.13370,-0.39487,0.04792,,,,,,,,,,,,,,,,,,,,,,,,,,0,0,0,0,0
2.3301,1784397776.4489,1,1,1.0000,0.0017,1.42135,0.26326,-2.61476,0.78077,1.57080,0.27401,-0.13369,-0.39488,0.04775,,,,,,,,,,,,,,,,,,,,,,,,,,0,0,0,0,0
2.4291,1784397776.5479,1,1,1.0000,0.0033,1.42134,0.26290,-2.61495,0.78130,1.57080,0.27401,-0.13369,-0.39487,0.04758,,,,,,,,,,,,,,,,,,,,,,,,,,0,0,0,0,0
2.5252,1784397776.6441,1,1,1.0000,0.0029,1.42134,0.26236,-2.61519,0.78209,1.57080,0.27401,-0.13369,-0.39488,0.04735,,,,,,,,,,,,,,,,,,,,,,,,,,0,0,0,0,0
2.6267,1784397776.7455,1,1,1.0000,0.0036,1.42134,0.26205,-2.61535,0.78255,1.57080,0.27401,-0.13369,-0.39487,0.04721,,,,,,,,,,,,,,,,,,,,,,,,,,0,0,0,0,0
2.7230,1784397776.8419,1,1,1.0000,0.0061,1.42133,0.26146,-2.61563,0.78341,1.57080,0.27401,-0.13369,-0.39487,0.04695,,,,,,,,,,,,,,,,,,,,,,,,,,0,0,0,0,0
2.8171,1784397776.9359,1,1,1.0000,0.0103,1.42133,0.26123,-2.61573,0.78375,1.57080,0.27401,-0.13369,-0.39487,0.04686,,,,,,,,,,,,,,,,,,,,,,,,,,0,0,0,0,0
2.9131,1784397777.0319,1,1,1.0000,0.0116,1.42133,0.26060,-2.61602,0.78466,1.57080,0.27401,-0.13369,-0.39487,0.04659,,,,,,,,,,,,,,,,,,,,,,,,,,0,0,0,0,0
3.0131,1784397777.1319,1,1,1.0000,0.0042,1.42133,0.26034,-2.61614,0.78506,1.57080,0.27401,-0.13369,-0.39487,0.04647,,,,,,,,,,,,,,,,,,,,,,,,,,0,0,0,0,0
3.1101,1784397777.2289,1,1,1.0000,0.0016,1.42132,0.25987,-2.61636,0.78573,1.57080,0.27401,-0.13369,-0.39487,0.04627,,,,,,,,,,,,,,,,,,,,,,,,,,0,0,0,0,0
3.2081,1784397777.3269,1,1,1.0000,0.0003,1.42132,0.25948,-2.61651,0.78631,1.57080,0.27401,-0.13368,-0.39489,0.04612,,,,,,,,,,,,,,,,,,,,,,,,,,0,0,0,0,0
3.6248,1784397777.7436,1,1,1.0000,-0.0006,1.42131,0.25764,-2.61737,0.78901,1.57081,0.27401,-0.13368,-0.39489,0.04532,,,,,,,,,,,,,,,,,,,,,,,,,,0,0,0,0,0
3.6942,1784397777.8130,1,1,1.0000,0.0040,1.42131,0.25729,-2.61754,0.78950,1.57081,0.27401,-0.13368,-0.39487,0.04516,,,,,,,,,,,,,,,,,,,,,,,,,,0,0,0,0,0
3.7898,1784397777.9086,1,1,1.0000,0.0046,1.42130,0.25677,-2.61777,0.79026,1.57081,0.27401,-0.13367,-0.39488,0.04495,,,,,,,,,,,,,,,,,,,,,,,,,,0,0,0,0,0
3.8877,1784397778.0065,1,1,1.0000,0.0015,1.42130,0.25650,-2.61790,0.79065,1.57081,0.27401,-0.13367,-0.39487,0.04483,,,,,,,,,,,,,,,,,,,,,,,,,,0,0,0,0,0
3.9831,1784397778.1020,1,1,1.0000,-0.0011,1.42130,0.25590,-2.61817,0.79153,1.57081,0.27401,-0.13367,-0.39488,0.04457,,,,,,,,,,,,,,,,,,,,,,,,,,0,0,0,0,0
4.0792,1784397778.1980,1,1,1.0000,-0.0019,1.42129,0.25565,-2.61829,0.79189,1.57081,0.27401,-0.13367,-0.39488,0.04446,,,,,,,,,,,,,,,,,,,,,,,,,,0,0,0,0,0
4.1769,1784397778.2958,1,1,1.0000,0.0061,1.42129,0.25516,-2.61852,0.79259,1.57081,0.27401,-0.13367,-0.39487,0.04425,,,,,,,,,,,,,,,,,,,,,,,,,,0,0,0,0,0
4.2762,1784397778.3950,1,1,1.0000,0.0084,1.42129,0.25478,-2.61868,0.79314,1.57081,0.27401,-0.13367,-0.39487,0.04409,,,,,,,,,,,,,,,,,,,,,,,,,,0,0,0,0,0
4.3707,1784397778.4895,1,1,1.0000,0.0091,1.42129,0.25434,-2.61889,0.79377,1.57081,0.27401,-0.13367,-0.39487,0.04390,,,,,,,,,,,,,,,,,,,,,,,,,,0,0,0,0,0
4.4706,1784397778.5895,1,1,1.0000,0.0096,1.42128,0.25385,-2.61910,0.79450,1.57082,0.27401,-0.13367,-0.39487,0.04369,,,,,,,,,,,,,,,,,,,,,,,,,,0,0,0,0,0
4.5663,1784397778.6851,1,1,1.0000,0.0097,1.42128,0.25343,-2.61930,0.79510,1.57082,0.27401,-0.13366,-0.39487,0.04351,,,,,,,,,,,,,,,,,,,,,,,,,,0,0,0,0,0
4.6622,1784397778.7810,1,1,1.0000,0.0070,1.42128,0.25299,-2.61948,0.79576,1.57082,0.27401,-0.13366,-0.39488,0.04334,,,,,,,,,,,,,,,,,,,,,,,,,,0,0,0,0,0
4.7618,1784397778.8806,1,1,1.0000,-0.0019,1.42127,0.25261,-2.61967,0.79631,1.57082,0.27401,-0.13366,-0.39487,0.04316,,,,,,,,,,,,,,,,,,,,,,,,,,0,0,0,0,0
4.8578,1784397778.9766,1,1,1.0000,-0.0107,1.42127,0.25208,-2.61989,0.79708,1.57082,0.27401,-0.13366,-0.39488,0.04295,,,,,,,,,,,,,,,,,,,,,,,,,,0,0,0,0,0
4.9556,1784397779.0744,1,1,1.0000,-0.0132,1.42127,0.25173,-2.62006,0.79759,1.57082,0.27401,-0.13366,-0.39488,0.04280,,,,,,,,,,,,,,,,,,,,,,,,,,0,0,0,0,0
5.0512,1784397779.1700,1,1,1.0000,-0.0017,1.42126,0.25114,-2.62032,0.79843,1.57082,0.27401,-0.13366,-0.39488,0.04255,,,,,,,,,,,,,,,,,,,,,,,,,,0,0,0,0,0
5.1492,1784397779.2680,1,1,1.0000,0.0029,1.42126,0.25089,-2.62044,0.79880,1.57082,0.27401,-0.13366,-0.39487,0.04244,,,,,,,,,,,,,,,,,,,,,,,,,,0,0,0,0,0
5.2495,1784397779.3683,1,1,1.0000,0.0046,1.42126,0.25027,-2.62072,0.79968,1.57082,0.27401,-0.13366,-0.39487,0.04217,,,,,,,,,,,,,,,,,,,,,,,,,,0,0,0,0,0
5.3769,1784397779.4957,1,1,1.0000,0.0075,1.42126,0.24985,-2.62090,0.80029,1.57082,0.27401,-0.13365,-0.39487,0.04200,,,,,,,,,,,,,,,,,,,,,,,,,,0,0,0,0,0
5.4406,1784397779.5594,1,1,1.0000,0.0112,1.42125,0.24946,-2.62107,0.80085,1.57082,0.27401,-0.13365,-0.39487,0.04183,,,,,,,,,,,,,,,,,,,,,,,,,,0,0,0,0,0
5.5394,1784397779.6582,1,1,1.0000,0.0123,1.42125,0.24912,-2.62121,0.80134,1.57082,0.27401,-0.13365,-0.39488,0.04170,,,,,,,,,,,,,,,,,,,,,,,,,,0,0,0,0,0
5.6336,1784397779.7524,1,1,1.0000,0.0123,1.42125,0.24868,-2.62142,0.80197,1.57083,0.27401,-0.13365,-0.39487,0.04151,,,,,,,,,,,,,,,,,,,,,,,,,,0,0,0,0,0
5.7350,1784397779.8538,1,1,1.0000,0.0123,1.42124,0.24822,-2.62162,0.80265,1.57083,0.27401,-0.13365,-0.39487,0.04131,,,,,,,,,,,,,,,,,,,,,,,,,,0,0,0,0,0
5.8386,1784397779.9574,1,1,1.0000,0.0139,1.42124,0.24773,-2.62184,0.80335,1.57083,0.27401,-0.13365,-0.39487,0.04111,,,,,,,,,,,,,,,,,,,,,,,,,,0,0,0,0,0
5.9267,1784397780.0455,1,1,1.0000,0.0176,1.42124,0.24734,-2.62199,0.80393,1.57083,0.27401,-0.13364,-0.39489,0.04095,,,,,,,,,,,,,,,,,,,,,,,,,,0,0,0,0,0
6.0253,1784397780.1441,1,1,1.0000,0.0187,1.42124,0.24694,-2.62218,0.80449,1.57083,0.27401,-0.13364,-0.39488,0.04078,,,,,,,,,,,,,,,,,,,,,,,,,,0,0,0,0,0
6.1216,1784397780.2404,1,1,1.0000,0.0190,1.42123,0.24650,-2.62236,0.80513,1.57083,0.27401,-0.13364,-0.39489,0.04060,,,,,,,,,,,,,,,,,,,,,,,,,,0,0,0,0,0
6.2175,1784397780.3363,1,1,1.0000,0.0131,1.42123,0.24614,-2.62254,0.80565,1.57083,0.27401,-0.13364,-0.39487,0.04044,,,,,,,,,,,,,,,,,,,,,,,,,,0,0,0,0,0
6.3127,1784397780.4316,1,1,1.0000,0.0114,1.42123,0.24545,-2.62285,0.80662,1.57083,0.27401,-0.13364,-0.39486,0.04015,,,,,,,,,,,,,,,,,,,,,,,,,,0,0,0,0,0
6.4109,1784397780.5297,1,1,1.0000,0.0122,1.42122,0.24525,-2.62293,0.80692,1.57083,0.27401,-0.13364,-0.39487,0.04007,,,,,,,,,,,,,,,,,,,,,,,,,,0,0,0,0,0
6.5082,1784397780.6270,1,1,1.0000,0.0124,1.42122,0.24457,-2.62322,0.80789,1.57083,0.27401,-0.13364,-0.39487,0.03979,,,,,,,,,,,,,,,,,,,,,,,,,,0,0,0,0,0
6.6067,1784397780.7255,1,1,1.0000,0.0125,1.42122,0.24426,-2.62336,0.80835,1.57083,0.27401,-0.13364,-0.39487,0.03966,,,,,,,,,,,,,,,,,,,,,,,,,,0,0,0,0,0
6.7028,1784397780.8217,1,1,1.0000,0.0125,1.42122,0.24381,-2.62356,0.80897,1.57083,0.27401,-0.13364,-0.39487,0.03947,,,,,,,,,,,,,,,,,,,,,,,,,,0,0,0,0,0
6.8002,1784397780.9190,1,1,1.0000,0.0138,1.42121,0.24342,-2.62371,0.80954,1.57083,0.27401,-0.13363,-0.39488,0.03931,,,,,,,,,,,,,,,,,,,,,,,,,,0,0,0,0,0
6.8959,1784397781.0147,1,1,1.0000,0.0174,1.42121,0.24295,-2.62393,0.81021,1.57084,0.27401,-0.13363,-0.39487,0.03911,,,,,,,,,,,,,,,,,,,,,,,,,,0,0,0,0,0
6.9967,1784397781.1155,1,1,1.0000,0.0209,1.42121,0.24248,-2.62410,0.81090,1.57084,0.27401,-0.13363,-0.39489,0.03893,,,,,,,,,,,,,,,,,,,,,,,,,,0,0,0,0,0
7.0923,1784397781.2111,1,1,1.0000,0.0219,1.42120,0.24208,-2.62430,0.81147,1.57084,0.27401,-0.13363,-0.39488,0.03876,,,,,,,,,,,,,,,,,,,,,,,,,,0,0,0,0,0
7.2378,1784397781.3566,1,1,1.0000,0.0172,1.42120,0.24140,-2.62460,0.81245,1.57084,0.27401,-0.13363,-0.39488,0.03847,,,,,,,,,,,,,,,,,,,,,,,,,,0,0,0,0,0
7.2894,1784397781.4082,1,1,1.0000,0.0158,1.42120,0.24122,-2.62468,0.81270,1.57084,0.27401,-0.13363,-0.39487,0.03840,,,,,,,,,,,,,,,,,,,,,,,,,,0,0,0,0,0
7.3857,1784397781.5045,1,1,1.0000,0.0154,1.42119,0.24059,-2.62493,0.81360,1.57084,0.27401,-0.13362,-0.39488,0.03814,,,,,,,,,,,,,,,,,,,,,,,,,,0,0,0,0,0
7.4809,1784397781.5997,1,1,1.0000,0.0093,1.42119,0.24035,-2.62505,0.81394,1.57084,0.27401,-0.13362,-0.39488,0.03804,,,,,,,,,,,,,,,,,,,,,,,,,,0,0,0,0,0
7.5804,1784397781.6993,1,1,1.0000,0.0060,1.42119,0.23970,-2.62532,0.81486,1.57084,0.27401,-0.13362,-0.39488,0.03777,,,,,,,,,,,,,,,,,,,,,,,,,,0,0,0,0,0
7.6800,1784397781.7988,1,1,1.0000,0.0066,1.42119,0.23944,-2.62543,0.81526,1.57084,0.27401,-0.13362,-0.39488,0.03766,,,,,,,,,,,,,,,,,,,,,,,,,,0,0,0,0,0
7.7701,1784397781.8889,1,1,1.0000,0.0052,1.42118,0.23895,-2.62565,0.81593,1.57084,0.27401,-0.13362,-0.39487,0.03746,,,,,,,,,,,,,,,,,,,,,,,,,,0,0,0,0,0
7.8703,1784397781.9891,1,1,1.0000,0.0054,1.42118,0.23855,-2.62581,0.81651,1.57084,0.27401,-0.13362,-0.39488,0.03730,,,,,,,,,,,,,,,,,,,,,,,,,,0,0,0,0,0
7.9644,1784397782.0832,1,1,1.0000,0.0037,1.42118,0.23810,-2.62601,0.81715,1.57085,0.27401,-0.13362,-0.39487,0.03711,,,,,,,,,,,,,,,,,,,,,,,,,,0,0,0,0,0
8.0618,1784397782.1806,1,1,1.0000,0.0032,1.42118,0.23764,-2.62619,0.81781,1.57085,0.27401,-0.13361,-0.39489,0.03693,,,,,,,,,,,,,,,,,,,,,,,,,,0,0,0,0,0
8.1625,1784397782.2814,1,1,1.0000,-0.0002,1.42117,0.23719,-2.62639,0.81845,1.57085,0.27401,-0.13361,-0.39488,0.03674,,,,,,,,,,,,,,,,,,,,,,,,,,0,0,0,0,0
8.2555,1784397782.3743,1,1,1.0000,-0.0011,1.42117,0.23668,-2.62660,0.81919,1.57085,0.27401,-0.13361,-0.39489,0.03653,,,,,,,,,,,,,,,,,,,,,,,,,,0,0,0,0,0
8.3553,1784397782.4741,1,1,1.0000,0.0044,1.42117,0.23635,-2.62676,0.81965,1.57085,0.27401,-0.13361,-0.39487,0.03639,,,,,,,,,,,,,,,,,,,,,,,,,,0,0,0,0,0
8.4524,1784397782.5712,1,1,1.0000,0.0060,1.42116,0.23574,-2.62701,0.82052,1.57085,0.27401,-0.13361,-0.39488,0.03614,,,,,,,,,,,,,,,,,,,,,,,,,,0,0,0,0,0
8.5509,1784397782.6697,1,1,1.0000,0.0068,1.42116,0.23543,-2.62714,0.82096,1.57085,0.27401,-0.13361,-0.39488,0.03602,,,,,,,,,,,,,,,,,,,,,,,,,,0,0,0,0,0
8.6454,1784397782.7642,1,1,1.0000,0.0070,1.42116,0.23479,-2.62740,0.82186,1.57085,0.27401,-0.13361,-0.39488,0.03576,,,,,,,,,,,,,,,,,,,,,,,,,,0,0,0,0,0
8.7436,1784397782.8624,1,1,1.0000,0.0122,1.42116,0.23455,-2.62751,0.82221,1.57085,0.27401,-0.13361,-0.39488,0.03566,,,,,,,,,,,,,,,,,,,,,,,,,,0,0,0,0,0
8.8645,1784397782.9833,1,1,1.0000,0.0137,1.42115,0.23378,-2.62784,0.82330,1.57085,0.27401,-0.13360,-0.39487,0.03534,,,,,,,,,,,,,,,,,,,,,,,,,,0,0,0,0,0
8.9372,1784397783.0560,1,1,1.0000,0.0045,1.42115,0.23361,-2.62791,0.82354,1.57086,0.27401,-0.13360,-0.39487,0.03527,,,,,,,,,,,,,,,,,,,,,,,,,,0,0,0,0,0
9.0389,1784397783.1577,1,1,1.0000,0.0018,1.42115,0.23308,-2.62813,0.82429,1.57086,0.27401,-0.13360,-0.39487,0.03505,,,,,,,,,,,,,,,,,,,,,,,,,,0,0,0,0,0
9.1316,1784397783.2504,1,1,1.0000,0.0046,1.42114,0.23270,-2.62828,0.82483,1.57086,0.27401,-0.13360,-0.39488,0.03490,,,,,,,,,,,,,,,,,,,,,,,,,,0,0,0,0,0
9.2307,1784397783.3495,1,1,1.0000,0.0072,1.42114,0.23229,-2.62846,0.82541,1.57086,0.27401,-0.13360,-0.39487,0.03473,,,,,,,,,,,,,,,,,,,,,,,,,,0,0,0,0,0
9.3245,1784397783.4433,1,1,1.0000,0.0115,1.42114,0.23184,-2.62862,0.82605,1.57086,0.27401,-0.13360,-0.39489,0.03457,,,,,,,,,,,,,,,,,,,,,,,,,,0,0,0,0,0
9.4227,1784397783.5416,1,1,1.0000,0.0092,1.42114,0.23138,-2.62884,0.82670,1.57086,0.27401,-0.13360,-0.39487,0.03436,,,,,,,,,,,,,,,,,,,,,,,,,,0,0,0,0,0
9.5222,1784397783.6410,1,1,1.0000,0.0082,1.42113,0.23091,-2.62902,0.82737,1.57086,0.27401,-0.13359,-0.39489,0.03418,,,,,,,,,,,,,,,,,,,,,,,,,,0,0,0,0,0
9.6251,1784397783.7439,1,1,1.0000,0.0030,1.42113,0.23046,-2.62922,0.82801,1.57086,0.27401,-0.13359,-0.39488,0.03399,,,,,,,,,,,,,,,,,,,,,,,,,,0,0,0,0,0
9.7144,1784397783.8332,1,1,1.0000,0.0016,1.42113,0.22990,-2.62942,0.82880,1.57086,0.27401,-0.13359,-0.39490,0.03378,,,,,,,,,,,,,,,,,,,,,,,,,,0,0,0,0,0
9.8096,1784397783.9284,1,1,1.0000,0.0029,1.42112,0.22958,-2.62957,0.82926,1.57086,0.27401,-0.13359,-0.39489,0.03364,,,,,,,,,,,,,,,,,,,,,,,,,,0,0,0,0,0
9.9076,1784397784.0264,1,1,1.0000,0.0033,1.42112,0.22900,-2.62981,0.83006,1.57086,0.27401,-0.13359,-0.39488,0.03341,,,,,,,,,,,,,,,,,,,,,,,,,,0,0,0,0,0
10.0058,1784397784.1246,1,1,1.0000,0.0065,1.42112,0.22861,-2.62999,0.83063,1.57086,0.27401,-0.13359,-0.39488,0.03324,,,,,,,,,,,,,,,,,,,,,,,,,,0,0,0,0,0
10.1037,1784397784.2225,1,1,1.0000,0.0050,1.42112,0.22813,-2.63018,0.83130,1.57087,0.27401,-0.13359,-0.39488,0.03305,,,,,,,,,,,,,,,,,,,,,,,,,,0,0,0,0,0
10.2008,1784397784.3196,1,1,1.0000,0.0070,1.42111,0.22771,-2.63034,0.83188,1.57087,0.27401,-0.13358,-0.39489,0.03289,,,,,,,,,,,,,,,,,,,,,,,,,,0,0,0,0,0
10.2966,1784397784.4155,1,1,1.0000,0.0066,1.42111,0.22718,-2.63056,0.83261,1.57087,0.27401,-0.13358,-0.39488,0.03267,,,,,,,,,,,,,,,,,,,,,,,,,,0,0,0,0,0
10.3949,1784397784.5137,1,1,1.0000,0.0089,1.42111,0.22678,-2.63070,0.83318,1.57087,0.27401,-0.13358,-0.39490,0.03253,,,,,,,,,,,,,,,,,,,,,,,,,,0,0,0,0,0
10.4919,1784397784.6107,1,1,1.0000,0.0071,1.42110,0.22635,-2.63091,0.83380,1.57087,0.27401,-0.13358,-0.39488,0.03234,,,,,,,,,,,,,,,,,,,,,,,,,,0,0,0,0,0
10.5892,1784397784.7081,1,1,1.0000,0.0027,1.42110,0.22580,-2.63112,0.83459,1.57087,0.27401,-0.13358,-0.39489,0.03212,,,,,,,,,,,,,,,,,,,,,,,,,,0,0,0,0,0
10.6865,1784397784.8053,1,1,1.0000,0.0015,1.42110,0.22547,-2.63127,0.83505,1.57087,0.27401,-0.13358,-0.39488,0.03199,,,,,,,,,,,,,,,,,,,,,,,,,,0,0,0,0,0
10.7864,1784397784.9052,1,1,1.0000,0.0032,1.42110,0.22486,-2.63150,0.83591,1.57087,0.27401,-0.13358,-0.39489,0.03175,,,,,,,,,,,,,,,,,,,,,,,,,,0,0,0,0,0
10.9117,1784397785.0305,1,1,1.0000,0.0060,1.42109,0.22436,-2.63171,0.83660,1.57087,0.27401,-0.13358,-0.39488,0.03155,,,,,,,,,,,,,,,,,,,,,,,,,,0,0,0,0,0
10.9815,1784397785.1003,1,1,1.0000,0.0068,1.42109,0.22386,-2.63192,0.83730,1.57087,0.27400,-0.13357,-0.39488,0.03134,,,,,,,,,,,,,,,,,,,,,,,,,,0,0,0,0,0
11.0746,1784397785.1934,1,1,1.0000,0.0055,1.42109,0.22360,-2.63202,0.83767,1.57087,0.27400,-0.13357,-0.39488,0.03124,,,,,,,,,,,,,,,,,,,,,,,,,,0,0,0,0,0
11.1698,1784397785.2886,1,1,1.0000,0.0052,1.42108,0.22304,-2.63225,0.83845,1.57087,0.27400,-0.13357,-0.39487,0.03101,,,,,,,,,,,,,,,,,,,,,,,,,,0,0,0,0,0
11.2706,1784397785.3895,1,1,1.0000,0.0060,1.42108,0.22269,-2.63239,0.83894,1.57088,0.27400,-0.13357,-0.39488,0.03088,,,,,,,,,,,,,,,,,,,,,,,,,,0,0,0,0,0
11.3671,1784397785.4859,1,1,1.0000,0.0063,1.42108,0.22217,-2.63260,0.83965,1.57088,0.27400,-0.13357,-0.39487,0.03067,,,,,,,,,,,,,,,,,,,,,,,,,,0,0,0,0,0
11.4694,1784397785.5882,1,1,1.0000,0.0096,1.42108,0.22172,-2.63277,0.84030,1.57088,0.27400,-0.13357,-0.39488,0.03049,,,,,,,,,,,,,,,,,,,,,,,,,,0,0,0,0,0
11.5617,1784397785.6805,1,1,1.0000,0.0089,1.42107,0.22126,-2.63297,0.84094,1.57088,0.27400,-0.13357,-0.39487,0.03030,,,,,,,,,,,,,,,,,,,,,,,,,,0,0,0,0,0
11.6593,1784397785.7781,1,1,1.0000,0.0087,1.42107,0.22079,-2.63314,0.84160,1.57088,0.27400,-0.13356,-0.39489,0.03013,,,,,,,,,,,,,,,,,,,,,,,,,,0,0,0,0,0
11.7544,1784397785.8732,1,1,1.0000,-0.0032,1.42107,0.22040,-2.63331,0.84215,1.57088,0.27400,-0.13356,-0.39488,0.02997,,,,,,,,,,,,,,,,,,,,,,,,,,0,0,0,0,0
11.8531,1784397785.9719,1,1,1.0000,-0.0067,1.42106,0.21980,-2.63353,0.84300,1.57088,0.27400,-0.13356,-0.39489,0.02973,,,,,,,,,,,,,,,,,,,,,,,,,,0,0,0,0,0
11.9490,1784397786.0678,1,1,1.0000,-0.0047,1.42106,0.21948,-2.63367,0.84345,1.57088,0.27400,-0.13356,-0.39488,0.02960,,,,,,,,,,,,,,,,,,,,,,,,,,0,0,0,0,0
12.0477,1784397786.1665,1,1,1.0000,0.0054,1.42106,0.21882,-2.63394,0.84436,1.57088,0.27400,-0.13356,-0.39488,0.02934,,,,,,,,,,,,,,,,,,,,,,,,,,0,0,0,0,0
12.1442,1784397786.2630,1,1,1.0000,0.0110,1.42106,0.21856,-2.63404,0.84473,1.57088,0.27400,-0.13356,-0.39488,0.02924,,,,,,,,,,,,,,,,,,,,,,,,,,0,0,0,0,0
12.2411,1784397786.3599,1,1,1.0000,0.0126,1.42105,0.21785,-2.63432,0.84571,1.57088,0.27400,-0.13356,-0.39487,0.02895,,,,,,,,,,,,,,,,,,,,,,,,,,0,0,0,0,0
12.5417,1784397786.6605,1,1,1.0000,0.0074,1.42105,0.21661,-2.63481,0.84744,1.57089,0.27400,-0.13355,-0.39488,0.02847,,,,,,,,,,,,,,,,,,,,,,,,,,0,0,0,0,0
12.6247,1784397786.7435,1,1,1.0000,0.0067,1.42104,0.21616,-2.63499,0.84806,1.57089,0.27400,-0.13355,-0.39487,0.02829,,,,,,,,,,,,,,,,,,,,,,,,,,0,0,0,0,0
12.6471,1784397786.7659,1,1,1.0000,0.0009,1.42104,0.21606,-2.63503,0.84820,1.57089,0.27400,-0.13355,-0.39487,0.02825,,,,,,,,,,,,,,,,,,,,,,,,,,0,0,0,0,0
12.7273,1784397786.8461,1,1,1.0000,-0.0033,1.42104,0.21567,-2.63515,0.84875,1.57089,0.27400,-0.13355,-0.39489,0.02811,,,,,,,,,,,,,,,,,,,,,,,,,,0,0,0,0,0
12.8307,1784397786.9495,1,1,1.0000,-0.0045,1.42104,0.21522,-2.63535,0.84938,1.57089,0.27400,-0.13355,-0.39488,0.02792,,,,,,,,,,,,,,,,,,,,,,,,,,0,0,0,0,0
12.9188,1784397787.0376,1,1,1.0000,0.0063,1.42103,0.21474,-2.63554,0.85004,1.57089,0.27400,-0.13355,-0.39488,0.02773,,,,,,,,,,,,,,,,,,,,,,,,,,0,0,0,0,0
13.0181,1784397787.1369,1,1,1.0000,0.0094,1.42103,0.21427,-2.63572,0.85070,1.57089,0.27400,-0.13355,-0.39488,0.02755,,,,,,,,,,,,,,,,,,,,,,,,,,0,0,0,0,0
13.1145,1784397787.2333,1,1,1.0000,0.0095,1.42103,0.21371,-2.63592,0.85148,1.57089,0.27400,-0.13354,-0.39490,0.02734,,,,,,,,,,,,,,,,,,,,,,,,,,0,0,0,0,0
13.2135,1784397787.3323,1,1,1.0000,0.0096,1.42103,0.21342,-2.63606,0.85190,1.57089,0.27400,-0.13354,-0.39488,0.02722,,,,,,,,,,,,,,,,,,,,,,,,,,0,0,0,0,0
13.3140,1784397787.4328,1,1,1.0000,0.0094,1.42102,0.21272,-2.63632,0.85285,1.57089,0.27400,-0.13354,-0.39488,0.02695,,,,,,,,,,,,,,,,,,,,,,,,,,0,0,0,0,0
13.4108,1784397787.5296,1,1,1.0000,0.0102,1.42102,0.21242,-2.63644,0.85328,1.57089,0.27400,-0.13354,-0.39488,0.02683,,,,,,,,,,,,,,,,,,,,,,,,,,0,0,0,0,0
13.5046,1784397787.6234,1,1,1.0000,0.0104,1.42102,0.21189,-2.63665,0.85400,1.57089,0.27400,-0.13354,-0.39488,0.02662,,,,,,,,,,,,,,,,,,,,,,,,,,0,0,0,0,0
13.5995,1784397787.7183,1,1,1.0000,0.0105,1.42102,0.21149,-2.63680,0.85456,1.57090,0.27400,-0.13354,-0.39488,0.02647,,,,,,,,,,,,,,,,,,,,,,,,,,0,0,0,0,0
13.6995,1784397787.8183,1,1,1.0000,0.0097,1.42101,0.21101,-2.63699,0.85521,1.57090,0.27400,-0.13354,-0.39488,0.02628,,,,,,,,,,,,,,,,,,,,,,,,,,0,0,0,0,0
13.7945,1784397787.9133,1,1,1.0000,0.0094,1.42101,0.21055,-2.63715,0.85586,1.57090,0.27400,-0.13354,-0.39489,0.02610,,,,,,,,,,,,,,,,,,,,,,,,,,0,0,0,0,0
13.8915,1784397788.0103,1,1,1.0000,0.0073,1.42101,0.21008,-2.63735,0.85651,1.57090,0.27400,-0.13354,-0.39488,0.02591,,,,,,,,,,,,,,,,,,,,,,,,,,0,0,0,0,0
13.9898,1784397788.1087,1,1,1.0000,0.0089,1.42100,0.20954,-2.63754,0.85726,1.57090,0.27400,-0.13353,-0.39489,0.02571,,,,,,,,,,,,,,,,,,,,,,,,,,0,0,0,0,0
14.0869,1784397788.2057,1,1,1.0000,0.0066,1.42100,0.20918,-2.63770,0.85776,1.57090,0.27400,-0.13353,-0.39488,0.02557,,,,,,,,,,,,,,,,,,,,,,,,,,0,0,0,0,0
14.1860,1784397788.3048,1,1,1.0000,0.0024,1.42100,0.20856,-2.63792,0.85862,1.57090,0.27400,-0.13353,-0.39489,0.02533,,,,,,,,,,,,,,,,,,,,,,,,,,0,0,0,0,0
14.2806,1784397788.3994,1,1,1.0000,0.0012,1.42100,0.20819,-2.63807,0.85913,1.57090,0.27400,-0.13353,-0.39488,0.02518,,,,,,,,,,,,,,,,,,,,,,,,,,0,0,0,0,0
14.4230,1784397788.5418,1,1,1.0000,0.0083,1.42099,0.20746,-2.63834,0.86014,1.57090,0.27400,-0.13353,-0.39489,0.02491,,,,,,,,,,,,,,,,,,,,,,,,,,0,0,0,0,0
14.5111,1784397788.6299,1,1,1.0000,0.0103,1.42099,0.20710,-2.63849,0.86064,1.57090,0.27400,-0.13353,-0.39488,0.02476,,,,,,,,,,,,,,,,,,,,,,,,,,0,0,0,0,0
14.5708,1784397788.6896,1,1,1.0000,0.0075,1.42099,0.20662,-2.63867,0.86130,1.57090,0.27400,-0.13353,-0.39488,0.02457,,,,,,,,,,,,,,,,,,,,,,,,,,0,0,0,0,0
14.6722,1784397788.7910,1,1,1.0000,0.0001,1.42098,0.20630,-2.63879,0.86174,1.57091,0.27400,-0.13352,-0.39489,0.02446,,,,,,,,,,,,,,,,,,,,,,,,,,0,0,0,0,0
14.7696,1784397788.8884,1,1,1.0000,-0.0020,1.42098,0.20571,-2.63902,0.86256,1.57091,0.27400,-0.13352,-0.39488,0.02422,,,,,,,,,,,,,,,,,,,,,,,,,,0,0,0,0,0
14.8647,1784397788.9835,1,1,1.0000,0.0031,1.42098,0.20536,-2.63914,0.86305,1.57091,0.27400,-0.13352,-0.39489,0.02409,,,,,,,,,,,,,,,,,,,,,,,,,,0,0,0,0,0
14.9682,1784397789.0870,1,1,1.0000,0.0047,1.42098,0.20482,-2.63936,0.86378,1.57091,0.27400,-0.13352,-0.39488,0.02388,,,,,,,,,,,,,,,,,,,,,,,,,,0,0,0,0,0
15.0595,1784397789.1783,1,1,1.0000,0.0003,1.42097,0.20433,-2.63954,0.86445,1.57091,0.27400,-0.13352,-0.39488,0.02369,,,,,,,,,,,,,,,,,,,,,,,,,,0,0,0,0,0
15.1617,1784397789.2805,1,1,1.0000,-0.0026,1.42097,0.20387,-2.63971,0.86509,1.57091,0.27400,-0.13352,-0.39488,0.02351,,,,,,,,,,,,,,,,,,,,,,,,,,0,0,0,0,0
15.2610,1784397789.3798,1,1,1.0000,-0.0019,1.42097,0.20335,-2.63988,0.86581,1.57091,0.27400,-0.13351,-0.39490,0.02333,,,,,,,,,,,,,,,,,,,,,,,,,,0,0,0,0,0
15.3491,1784397789.4679,1,1,1.0000,-0.0005,1.42097,0.20298,-2.64004,0.86632,1.57091,0.27400,-0.13351,-0.39489,0.02318,,,,,,,,,,,,,,,,,,,,,,,,,,0,0,0,0,0
15.4468,1784397789.5656,1,1,1.0000,0.0013,1.42096,0.20248,-2.64023,0.86701,1.57091,0.27400,-0.13351,-0.39489,0.02299,,,,,,,,,,,,,,,,,,,,,,,,,,0,0,0,0,0
15.7419,1784397789.8607,1,1,1.0000,0.0020,1.42095,0.20107,-2.64076,0.86895,1.57091,0.27400,-0.13351,-0.39488,0.02244,,,,,,,,,,,,,,,,,,,,,,,,,,0,0,0,0,0
15.8249,1784397789.9437,1,1,1.0000,0.0070,1.42095,0.20048,-2.64098,0.86975,1.57092,0.27400,-0.13351,-0.39488,0.02222,,,,,,,,,,,,,,,,,,,,,,,,,,0,0,0,0,0
15.8349,1784397789.9537,1,1,1.0000,0.0085,1.42095,0.20039,-2.64101,0.86987,1.57092,0.27400,-0.13351,-0.39488,0.02218,,,,,,,,,,,,,,,,,,,,,,,,,,0,0,0,0,0
15.9314,1784397790.0502,1,1,1.0000,0.0044,1.42095,0.19999,-2.64117,0.87042,1.57092,0.27400,-0.13351,-0.39488,0.02203,,,,,,,,,,,,,,,,,,,,,,,,,,0,0,0,0,0
16.0292,1784397790.1481,1,1,1.0000,-0.0001,1.42095,0.19955,-2.64133,0.87100,1.57092,0.27400,-0.13351,-0.39487,0.02186,,,,,,,,,,,,,,,,,,,,,,,,,,0,0,0,0,0
16.1304,1784397790.2492,1,1,1.0000,-0.0015,1.42094,0.19908,-2.64149,0.87165,1.57092,0.27400,-0.13350,-0.39488,0.02169,,,,,,,,,,,,,,,,,,,,,,,,,,0,0,0,0,0
16.2513,1784397790.3701,1,1,1.0000,0.0048,1.42094,0.19847,-2.64173,0.87249,1.57092,0.27400,-0.13350,-0.39488,0.02145,,,,,,,,,,,,,,,,,,,,,,,,,,0,0,0,0,0
16.3347,1784397790.4535,1,1,1.0000,0.0066,1.42094,0.19805,-2.64186,0.87309,1.57092,0.27400,-0.13350,-0.39490,0.02130,,,,,,,,,,,,,,,,,,,,,,,,,,0,0,0,0,0
16.4188,1784397790.5376,1,1,1.0000,-0.0045,1.42093,0.19765,-2.64202,0.87363,1.57092,0.27400,-0.13350,-0.39489,0.02114,,,,,,,,,,,,,,,,,,,,,,,,,,0,0,0,0,0
16.5379,1784397790.6567,1,1,1.0000,-0.0077,1.42093,0.19701,-2.64223,0.87452,1.57092,0.27400,-0.13349,-0.39491,0.02091,,,,,,,,,,,,,,,,,,,,,,,,,,0,0,0,0,0
16.9416,1784397791.0604,1,1,1.0000,-0.0033,1.42092,0.19496,-2.64299,0.87730,1.57092,0.27399,-0.13349,-0.39490,0.02013,,,,,,,,,,,,,,,,,,,,,,,,,,0,0,0,0,0
17.0011,1784397791.1199,1,1,1.0000,-0.0007,1.42092,0.19480,-2.64306,0.87752,1.57093,0.27399,-0.13349,-0.39489,0.02007,,,,,,,,,,,,,,,,,,,,,,,,,,0,0,0,0,0
17.1064,1784397791.2252,1,1,1.0000,0.0024,1.42091,0.19414,-2.64332,0.87840,1.57093,0.27399,-0.13349,-0.39487,0.01981,,,,,,,,,,,,,,,,,,,,,,,,,,0,0,0,0,0
17.2008,1784397791.3196,1,1,1.0000,0.0036,1.42091,0.19374,-2.64346,0.87896,1.57093,0.27399,-0.13349,-0.39488,0.01966,,,,,,,,,,,,,,,,,,,,,,,,,,0,0,0,0,0
17.2934,1784397791.4122,1,1,1.0000,0.0072,1.42091,0.19327,-2.64363,0.87959,1.57093,0.27399,-0.13349,-0.39487,0.01948,,,,,,,,,,,,,,,,,,,,,,,,,,0,0,0,0,0
17.3921,1784397791.5109,1,1,1.0000,0.0082,1.42091,0.19278,-2.64379,0.88027,1.57093,0.27399,-0.13349,-0.39490,0.01931,,,,,,,,,,,,,,,,,,,,,,,,,,0,0,0,0,0
17.4871,1784397791.6059,1,1,1.0000,0.0065,1.42090,0.19232,-2.64397,0.88090,1.57093,0.27399,-0.13349,-0.39488,0.01913,,,,,,,,,,,,,,,,,,,,,,,,,,0,0,0,0,0
17.5902,1784397791.7090,1,1,1.0000,0.0059,1.42090,0.19174,-2.64416,0.88170,1.57093,0.27399,-0.13348,-0.39490,0.01892,,,,,,,,,,,,,,,,,,,,,,,,,,0,0,0,0,0
17.6820,1784397791.8008,1,1,1.0000,0.0064,1.42090,0.19136,-2.64432,0.88221,1.57093,0.27399,-0.13348,-0.39488,0.01877,,,,,,,,,,,,,,,,,,,,,,,,,,0,0,0,0,0
17.7819,1784397791.9007,1,1,1.0000,0.0085,1.42090,0.19071,-2.64456,0.88310,1.57093,0.27399,-0.13348,-0.39488,0.01852,,,,,,,,,,,,,,,,,,,,,,,,,,0,0,0,0,0
17.8763,1784397791.9951,1,1,1.0000,0.0083,1.42089,0.19041,-2.64466,0.88350,1.57093,0.27399,-0.13348,-0.39488,0.01841,,,,,,,,,,,,,,,,,,,,,,,,,,0,0,0,0,0
17.9723,1784397792.0911,1,1,1.0000,0.0082,1.42089,0.18970,-2.64491,0.88446,1.57093,0.27399,-0.13348,-0.39488,0.01814,,,,,,,,,,,,,,,,,,,,,,,,,,0,0,0,0,0
18.0742,1784397792.1930,1,1,1.0000,0.0056,1.42089,0.18940,-2.64502,0.88486,1.57093,0.27399,-0.13348,-0.39488,0.01803,,,,,,,,,,,,,,,,,,,,,,,,,,0,0,0,0,0
18.1937,1784397792.3125,1,1,1.0000,0.0014,1.42088,0.18860,-2.64531,0.88595,1.57094,0.27399,-0.13348,-0.39488,0.01773,,,,,,,,,,,,,,,,,,,,,,,,,,0,0,0,0,0
18.2647,1784397792.3835,1,1,1.0000,-0.0036,1.42088,0.18843,-2.64536,0.88618,1.57094,0.27399,-0.13348,-0.39489,0.01767,,,,,,,,,,,,,,,,,,,,,,,,,,0,0,0,0,0
18.3630,1784397792.4818,1,1,1.0000,-0.0050,1.42088,0.18784,-2.64558,0.88696,1.57094,0.27399,-0.13348,-0.39487,0.01744,,,,,,,,,,,,,,,,,,,,,,,,,,0,0,0,0,0
18.4619,1784397792.5807,1,1,1.0000,-0.0011,1.42088,0.18739,-2.64574,0.88758,1.57094,0.27399,-0.13347,-0.39488,0.01728,,,,,,,,,,,,,,,,,,,,,,,,,,0,0,0,0,0
18.5625,1784397792.6813,1,1,1.0000,0.0000,1.42087,0.18690,-2.64591,0.88825,1.57094,0.27399,-0.13347,-0.39488,0.01709,,,,,,,,,,,,,,,,,,,,,,,,,,0,0,0,0,0
18.6552,1784397792.7740,1,1,1.0000,0.0018,1.42087,0.18636,-2.64610,0.88899,1.57094,0.27399,-0.13347,-0.39489,0.01690,,,,,,,,,,,,,,,,,,,,,,,,,,0,0,0,0,0
18.7578,1784397792.8766,1,1,1.0000,0.0046,1.42087,0.18586,-2.64628,0.88967,1.57094,0.27399,-0.13347,-0.39488,0.01671,,,,,,,,,,,,,,,,,,,,,,,,,,0,0,0,0,0
18.8482,1784397792.9671,1,1,1.0000,0.0086,1.42087,0.18533,-2.64644,0.89038,1.57094,0.27399,-0.13347,-0.39490,0.01652,,,,,,,,,,,,,,,,,,,,,,,,,,0,0,0,0,0
18.9445,1784397793.0633,1,1,1.0000,0.0112,1.42086,0.18499,-2.64659,0.89085,1.57094,0.27399,-0.13347,-0.39488,0.01639,,,,,,,,,,,,,,,,,,,,,,,,,,0,0,0,0,0
19.0511,1784397793.1700,1,1,1.0000,0.0126,1.42086,0.18425,-2.64681,0.89185,1.57094,0.27399,-0.13346,-0.39491,0.01613,,,,,,,,,,,,,,,,,,,,,,,,,,0,0,0,0,0
19.1381,1784397793.2569,1,1,1.0000,0.0130,1.42086,0.18399,-2.64693,0.89220,1.57094,0.27399,-0.13346,-0.39489,0.01602,,,,,,,,,,,,,,,,,,,,,,,,,,0,0,0,0,0
19.2379,1784397793.3567,1,1,1.0000,0.0132,1.42086,0.18338,-2.64714,0.89301,1.57095,0.27399,-0.13346,-0.39489,0.01579,,,,,,,,,,,,,,,,,,,,,,,,,,0,0,0,0,0
19.3356,1784397793.4544,1,1,1.0000,0.0126,1.42085,0.18302,-2.64726,0.89351,1.57095,0.27399,-0.13346,-0.39490,0.01566,,,,,,,,,,,,,,,,,,,,,,,,,,0,0,0,0,0
19.4323,1784397793.5511,1,1,1.0000,0.0101,1.42085,0.18243,-2.64749,0.89429,1.57095,0.27399,-0.13346,-0.39488,0.01544,,,,,,,,,,,,,,,,,,,,,,,,,,0,0,0,0,0
19.5260,1784397793.6448,1,1,1.0000,0.0081,1.42085,0.18190,-2.64766,0.89502,1.57095,0.27399,-0.13346,-0.39489,0.01524,,,,,,,,,,,,,,,,,,,,,,,,,,0,0,0,0,0
19.6231,1784397793.7419,1,1,1.0000,-0.0003,1.42084,0.18141,-2.64784,0.89568,1.57095,0.27399,-0.13346,-0.39488,0.01506,,,,,,,,,,,,,,,,,,,,,,,,,,0,0,0,0,0
19.7224,1784397793.8412,1,1,1.0000,0.0041,1.42084,0.18093,-2.64798,0.89632,1.57095,0.27399,-0.13345,-0.39490,0.01490,,,,,,,,,,,,,,,,,,,,,,,,,,0,0,0,0,0
19.8330,1784397793.9518,1,1,1.0000,0.0054,1.42084,0.18037,-2.64819,0.89707,1.57095,0.27399,-0.13345,-0.39489,0.01468,,,,,,,,,,,,,,,,,,,,,,,,,,0,0,0,0,0
19.9181,1784397794.0369,1,1,1.0000,0.0113,1.42084,0.17987,-2.64836,0.89775,1.57095,0.27399,-0.13345,-0.39490,0.01450,,,,,,,,,,,,,,,,,,,,,,,,,,0,0,0,0,0
20.0080,1784397794.1268,1,1,1.0000,0.0130,1.42083,0.17954,-2.64849,0.89820,1.57095,0.27399,-0.13345,-0.39488,0.01437,,,,,,,,,,,,,,,,,,,,,,,,,,0,0,0,0,0
20.1092,1784397794.2281,1,1,1.0000,0.0104,1.42083,0.17886,-2.64873,0.89911,1.57095,0.27399,-0.13345,-0.39488,0.01412,,,,,,,,,,,,,,,,,,,,,,,,,,0,0,0,0,0
20.2061,1784397794.3249,1,1,1.0000,0.0076,1.42083,0.17853,-2.64884,0.89955,1.57095,0.27399,-0.13345,-0.39488,0.01400,,,,,,,,,,,,,,,,,,,,,,,,,,0,0,0,0,0
20.3051,1784397794.4239,1,1,1.0000,0.0050,1.42083,0.17784,-2.64907,0.90047,1.57096,0.27399,-0.13345,-0.39488,0.01375,,,,,,,,,,,,,,,,,,,,,,,,,,0,0,0,0,0
20.4045,1784397794.5233,1,1,1.0000,0.0042,1.42082,0.17751,-2.64918,0.90093,1.57096,0.27399,-0.13345,-0.39489,0.01363,,,,,,,,,,,,,,,,,,,,,,,,,,0,0,0,0,0
20.4984,1784397794.6172,1,1,1.0000,0.0037,1.42082,0.17691,-2.64939,0.90172,1.57096,0.27399,-0.13345,-0.39488,0.01341,,,,,,,,,,,,,,,,,,,,,,,,,,0,0,0,0,0
20.5987,1784397794.7175,1,1,1.0000,0.0079,1.42082,0.17651,-2.64952,0.90226,1.57096,0.27399,-0.13344,-0.39489,0.01326,,,,,,,,,,,,,,,,,,,,,,,,,,0,0,0,0,0
20.7008,1784397794.8196,1,1,1.0000,0.0055,1.42081,0.17593,-2.64974,0.90303,1.57096,0.27399,-0.13345,-0.39487,0.01304,,,,,,,,,,,,,,,,,,,,,,,,,,0,0,0,0,0
20.7907,1784397794.9095,1,1,1.0000,0.0068,1.42081,0.17545,-2.64989,0.90369,1.57096,0.27399,-0.13344,-0.39488,0.01287,,,,,,,,,,,,,,,,,,,,,,,,,,0,0,0,0,0
20.8908,1784397795.0096,1,1,1.0000,0.0054,1.42081,0.17493,-2.65007,0.90437,1.57096,0.27399,-0.13344,-0.39488,0.01268,,,,,,,,,,,,,,,,,,,,,,,,,,0,0,0,0,0
20.9962,1784397795.1150,1,1,1.0000,0.0068,1.42081,0.17439,-2.65023,0.90512,1.57096,0.27399,-0.13344,-0.39490,0.01250,,,,,,,,,,,,,,,,,,,,,,,,,,0,0,0,0,0
21.0811,1784397795.1999,1,1,1.0000,0.0168,1.42080,0.17401,-2.65038,0.90562,1.57096,0.27399,-0.13344,-0.39489,0.01235,,,,,,,,,,,,,,,,,,,,,,,,,,0,0,0,0,0
21.1787,1784397795.2975,1,1,1.0000,0.0197,1.42080,0.17336,-2.65060,0.90650,1.57096,0.27399,-0.13344,-0.39489,0.01211,,,,,,,,,,,,,,,,,,,,,,,,,,0,0,0,0,0
21.2764,1784397795.3952,1,1,1.0000,0.0161,1.42080,0.17302,-2.65072,0.90695,1.57096,0.27399,-0.13344,-0.39488,0.01198,,,,,,,,,,,,,,,,,,,,,,,,,,0,0,0,0,0
21.3744,1784397795.4932,1,1,1.0000,0.0131,1.42080,0.17228,-2.65097,0.90794,1.57096,0.27399,-0.13343,-0.39488,0.01172,,,,,,,,,,,,,,,,,,,,,,,,,,0,0,0,0,0
21.4708,1784397795.5896,1,1,1.0000,0.0122,1.42079,0.17200,-2.65106,0.90832,1.57097,0.27399,-0.13343,-0.39489,0.01162,,,,,,,,,,,,,,,,,,,,,,,,,,0,0,0,0,0
21.5664,1784397795.6852,1,1,1.0000,0.0102,1.42079,0.17124,-2.65131,0.90931,1.57097,0.27399,-0.13343,-0.39488,0.01134,,,,,,,,,,,,,,,,,,,,,,,,,,0,0,0,0,0
21.6641,1784397795.7829,1,1,1.0000,0.0115,1.42079,0.17094,-2.65141,0.90972,1.57097,0.27399,-0.13343,-0.39489,0.01124,,,,,,,,,,,,,,,,,,,,,,,,,,0,0,0,0,0
21.7646,1784397795.8835,1,1,1.0000,0.0138,1.42079,0.17031,-2.65164,0.91055,1.57097,0.27399,-0.13343,-0.39487,0.01100,,,,,,,,,,,,,,,,,,,,,,,,,,0,0,0,0,0
21.8585,1784397795.9773,1,1,1.0000,0.0145,1.42078,0.16993,-2.65176,0.91106,1.57097,0.27398,-0.13343,-0.39488,0.01086,,,,,,,,,,,,,,,,,,,,,,,,,,0,0,0,0,0
21.9715,1784397796.0903,1,1,1.0000,0.0147,1.42078,0.16923,-2.65199,0.91200,1.57097,0.27398,-0.13343,-0.39488,0.01061,,,,,,,,,,,,,,,,,,,,,,,,,,0,0,0,0,0
22.0532,1784397796.1720,1,1,1.0000,0.0148,1.42078,0.16890,-2.65210,0.91245,1.57097,0.27398,-0.13343,-0.39488,0.01049,,,,,,,,,,,,,,,,,,,,,,,,,,0,0,0,0,0
22.1540,1784397796.2728,1,1,1.0000,0.0230,1.42078,0.16834,-2.65228,0.91319,1.57097,0.27398,-0.13342,-0.39489,0.01029,,,,,,,,,,,,,,,,,,,,,,,,,,0,0,0,0,0
22.2901,1784397796.4089,1,1,1.0000,0.0254,1.42077,0.16762,-2.65253,0.91417,1.57097,0.27398,-0.13342,-0.39489,0.01003,,,,,,,,,,,,,,,,,,,,,,,,,,0,0,0,0,0
22.3493,1784397796.4682,1,1,1.0000,0.0177,1.42077,0.16734,-2.65262,0.91453,1.57097,0.27398,-0.13342,-0.39488,0.00993,,,,,,,,,,,,,,,,,,,,,,,,,,0,0,0,0,0
22.4410,1784397796.5598,1,1,1.0000,0.0089,1.42077,0.16687,-2.65276,0.91516,1.57097,0.27398,-0.13342,-0.39489,0.00977,,,,,,,,,,,,,,,,,,,,,,,,,,0,0,0,0,0
22.5418,1784397796.6606,1,1,1.0000,0.0060,1.42077,0.16645,-2.65292,0.91571,1.57097,0.27398,-0.13342,-0.39488,0.00961,,,,,,,,,,,,,,,,,,,,,,,,,,0,0,0,0,0
22.6348,1784397796.7536,1,1,1.0000,0.0055,1.42076,0.16576,-2.65313,0.91662,1.57098,0.27398,-0.13342,-0.39489,0.00937,,,,,,,,,,,,,,,,,,,,,,,,,,0,0,0,0,0
22.7349,1784397796.8537,1,1,1.0000,0.0061,1.42076,0.16538,-2.65325,0.91713,1.57098,0.27398,-0.13342,-0.39489,0.00923,,,,,,,,,,,,,,,,,,,,,,,,,,0,0,0,0,0
22.8346,1784397796.9534,1,1,1.0000,0.0115,1.42076,0.16472,-2.65347,0.91798,1.57098,0.27398,-0.13342,-0.39488,0.00899,,,,,,,,,,,,,,,,,,,,,,,,,,0,0,0,0,0
22.9284,1784397797.0472,1,1,1.0000,0.0187,1.42075,0.16432,-2.65360,0.91853,1.57098,0.27398,-0.13341,-0.39489,0.00885,,,,,,,,,,,,,,,,,,,,,,,,,,0,0,0,0,0
23.0245,1784397797.1433,1,1,1.0000,0.0151,1.42075,0.16376,-2.65380,0.91927,1.57098,0.27398,-0.13341,-0.39488,0.00864,,,,,,,,,,,,,,,,,,,,,,,,,,0,0,0,0,0
23.1216,1784397797.2404,1,1,1.0000,0.0160,1.42075,0.16330,-2.65393,0.91989,1.57098,0.27398,-0.13341,-0.39489,0.00849,,,,,,,,,,,,,,,,,,,,,,,,,,0,0,0,0,0
23.2200,1784397797.3388,1,1,1.0000,0.0143,1.42075,0.16275,-2.65412,0.92062,1.57098,0.27398,-0.13341,-0.39489,0.00829,,,,,,,,,,,,,,,,,,,,,,,,,,0,0,0,0,0
23.3163,1784397797.4351,1,1,1.0000,0.0139,1.42074,0.16220,-2.65429,0.92136,1.57098,0.27398,-0.13341,-0.39490,0.00810,,,,,,,,,,,,,,,,,,,,,,,,,,0,0,0,0,0
23.4141,1784397797.5329,1,1,1.0000,0.0100,1.42074,0.16181,-2.65443,0.92187,1.57098,0.27398,-0.13341,-0.39489,0.00795,,,,,,,,,,,,,,,,,,,,,,,,,,0,0,0,0,0
23.5086,1784397797.6274,1,1,1.0000,0.0089,1.42074,0.16114,-2.65464,0.92276,1.57098,0.27398,-0.13341,-0.39489,0.00771,,,,,,,,,,,,,,,,,,,,,,,,,,0,0,0,0,0
23.6069,1784397797.7257,1,1,1.0000,0.0112,1.42074,0.16072,-2.65478,0.92331,1.57098,0.27398,-0.13341,-0.39488,0.00756,,,,,,,,,,,,,,,,,,,,,,,,,,0,0,0,0,0
23.7070,1784397797.8258,1,1,1.0000,0.0118,1.42073,0.16001,-2.65502,0.92425,1.57099,0.27398,-0.13340,-0.39488,0.00731,,,,,,,,,,,,,,,,,,,,,,,,,,0,0,0,0,0
23.8023,1784397797.9211,1,1,1.0000,0.0094,1.42073,0.15971,-2.65511,0.92464,1.57099,0.27398,-0.13340,-0.39489,0.00720,,,,,,,,,,,,,,,,,,,,,,,,,,0,0,0,0,0
23.8994,1784397798.0183,1,1,1.0000,0.0066,1.42073,0.15901,-2.65534,0.92556,1.57099,0.27398,-0.13340,-0.39488,0.00695,,,,,,,,,,,,,,,,,,,,,,,,,,0,0,0,0,0
23.9964,1784397798.1152,1,1,1.0000,0.0044,1.42073,0.15868,-2.65544,0.92601,1.57099,0.27398,-0.13340,-0.39488,0.00683,,,,,,,,,,,,,,,,,,,,,,,,,,0,0,0,0,0
24.0929,1784397798.2117,1,1,1.0000,0.0015,1.42072,0.15810,-2.65563,0.92676,1.57099,0.27398,-0.13340,-0.39488,0.00662,,,,,,,,,,,,,,,,,,,,,,,,,,0,0,0,0,0
24.1930,1784397798.3119,1,1,1.0000,0.0005,1.42072,0.15761,-2.65578,0.92743,1.57099,0.27398,-0.13340,-0.39489,0.00645,,,,,,,,,,,,,,,,,,,,,,,,,,0,0,0,0,0
24.2867,1784397798.4055,1,1,1.0000,0.0002,1.42072,0.15710,-2.65596,0.92810,1.57099,0.27398,-0.13340,-0.39488,0.00627,,,,,,,,,,,,,,,,,,,,,,,,,,0,0,0,0,0
24.3858,1784397798.5047,1,1,1.0000,0.0023,1.42071,0.15657,-2.65610,0.92881,1.57099,0.27398,-0.13339,-0.39490,0.00609,,,,,,,,,,,,,,,,,,,,,,,,,,0,0,0,0,0
24.4803,1784397798.5991,1,1,1.0000,0.0031,1.42071,0.15608,-2.65627,0.92944,1.57099,0.27398,-0.13339,-0.39489,0.00591,,,,,,,,,,,,,,,,,,,,,,,,,,0,0,0,0,0
24.5768,1784397798.6956,1,1,1.0000,0.0037,1.42071,0.15548,-2.65646,0.93023,1.57099,0.27398,-0.13339,-0.39489,0.00570,,,,,,,,,,,,,,,,,,,,,,,,,,0,0,0,0,0
24.6791,1784397798.7979,1,1,1.0000,0.0135,1.42071,0.15505,-2.65661,0.93080,1.57099,0.27398,-0.13339,-0.39488,0.00554,,,,,,,,,,,,,,,,,,,,,,,,,,0,0,0,0,0
24.7772,1784397798.8960,1,1,1.0000,0.0189,1.42070,0.15439,-2.65680,0.93166,1.57100,0.27398,-0.13339,-0.39489,0.00532,,,,,,,,,,,,,,,,,,,,,,,,,,0,0,0,0,0
24.8711,1784397798.9899,1,1,1.0000,0.0205,1.42070,0.15400,-2.65694,0.93219,1.57100,0.27398,-0.13339,-0.39488,0.00518,,,,,,,,,,,,,,,,,,,,,,,,,,0,0,0,0,0
25.2582,1784397799.3770,1,1,1.0000,0.0073,1.42069,0.15198,-2.65757,0.93484,1.57100,0.27398,-0.13338,-0.39489,0.00447,,,,,,,,,,,,,,,,,,,,,,,,,,0,0,0,0,0
25.2600,1784397799.3788,1,1,1.0000,-0.0003,1.42069,0.15195,-2.65758,0.93488,1.57100,0.27398,-0.13338,-0.39489,0.00446,,,,,,,,,,,,,,,,,,,,,,,,,,0,0,0,0,0
25.5620,1784397799.6808,1,1,1.0000,-0.0028,1.42068,0.15024,-2.65813,0.93713,1.57100,0.27398,-0.13338,-0.39488,0.00385,,,,,,,,,,,,,,,,,,,,,,,,,,0,0,0,0,0
25.6416,1784397799.7604,1,1,1.0000,0.0102,1.42068,0.14977,-2.65823,0.93776,1.57100,0.27398,-0.13337,-0.39492,0.00371,,,,,,,,,,,,,,,,,,,,,,,,,,0,0,0,0,0
25.6463,1784397799.7651,1,1,1.0000,0.0139,1.42068,0.14976,-2.65823,0.93777,1.57100,0.27398,-0.13337,-0.39492,0.00370,,,,,,,,,,,,,,,,,,,,,,,,,,0,0,0,0,0
25.7435,1784397799.8623,1,1,1.0000,0.0030,1.42068,0.14928,-2.65840,0.93840,1.57100,0.27397,-0.13337,-0.39490,0.00353,,,,,,,,,,,,,,,,,,,,,,,,,,0,0,0,0,0
26.0418,1784397800.1606,1,1,1.0000,-0.4513,1.42067,0.14750,-2.65892,0.94079,1.57101,0.27397,-0.13336,-0.39495,0.00293,,,,,,,,,,,,,,,,,,,,,,,,,,0,0,0,0,0
26.1252,1784397800.2440,1,1,1.0000,-7.4858,1.42067,0.14727,-2.65901,0.94109,1.57101,0.27397,-0.13336,-0.39493,0.00284,,,,,,,,,,,,,,,,,,,,,,,,,,0,0,0,0,0
26.1337,1784397800.2525,1,1,1.0000,-13.6867,1.42067,0.14720,-2.65903,0.94118,1.57101,0.27397,-0.13336,-0.39493,0.00281,,,,,,,,,,,,,,,,,,,,,,,,,,0,0,0,0,0
26.2344,1784397800.3532,1,1,1.0000,-20.4284,1.42066,0.14655,-2.65923,0.94203,1.57102,0.27397,-0.13336,-0.39493,0.00259,,,,,,,,,,,,,,,,,,,,,,,,,,0,0,0,0,0
26.3306,1784397800.4494,1,1,1.0000,-26.7334,1.42066,0.14616,-2.65935,0.94254,1.57102,0.27397,-0.13336,-0.39493,0.00245,,,,,,,,,,,,,,,,,,,,,,,,,,0,0,0,0,0
26.4236,1784397800.5424,1,1,1.0000,-33.9689,1.42066,0.14560,-2.65952,0.94328,1.57102,0.27397,-0.13336,-0.39493,0.00226,,,,,,,,,,,,,,,,,,,,,,,,,,0,0,0,0,0
26.5251,1784397800.6439,1,1,1.0000,-40.2614,1.42066,0.14506,-2.65969,0.94399,1.57102,0.27397,-0.13336,-0.39494,0.00207,,,,,,,,,,,,,,,,,,,,,,,,,,0,0,0,0,0
26.6239,1784397800.7427,1,1,1.0000,-47.5788,1.42065,0.14449,-2.65987,0.94473,1.57102,0.27397,-0.13336,-0.39493,0.00187,,,,,,,,,,,,,,,,,,,,,,,,,,0,0,0,0,0
26.7175,1784397800.8363,1,1,1.0000,-53.9757,1.42065,0.14399,-2.65999,0.94538,1.57102,0.27397,-0.13335,-0.39495,0.00171,,,,,,,,,,,,,,,,,,,,,,,,,,0,0,0,0,0
26.8139,1784397800.9327,1,1,1.0000,-61.2426,1.42065,0.14352,-2.66016,0.94599,1.57102,0.27397,-0.13335,-0.39493,0.00153,,,,,,,,,,,,,,,,,,,,,,,,,,0,0,0,0,0
26.9132,1784397801.0321,1,1,1.0000,-67.8020,1.42065,0.14287,-2.66034,0.94684,1.57103,0.27397,-0.13335,-0.39495,0.00132,,,,,,,,,,,,,,,,,,,,,,,,,,0,0,0,0,0
27.0053,1784397801.1241,1,1,1.0000,-74.7415,1.42064,0.14243,-2.66050,0.94741,1.57103,0.27397,-0.13335,-0.39493,0.00115,,,,,,,,,,,,,,,,,,,,,,,,,,0,0,0,0,0
27.1028,1784397801.2216,1,1,1.0000,-81.5181,1.42064,0.14193,-2.66062,0.94806,1.57103,0.27397,-0.13335,-0.39495,0.00099,,,,,,,,,,,,,,,,,,,,,,,,,,0,0,0,0,0
27.2200,1784397801.3389,1,1,1.0000,-88.4063,1.42064,0.14126,-2.66085,0.94892,1.57103,0.27397,-0.13335,-0.39493,0.00075,,,,,,,,,,,,,,,,,,,,,,,,,,0,0,0,0,0
27.3110,1784397801.4298,1,1,1.0000,-95.7116,1.42064,0.14067,-2.66100,0.94969,1.57103,0.27397,-0.13334,-0.39495,0.00056,,,,,,,,,,,,,,,,,,,,,,,,,,0,0,0,0,0
27.3957,1784397801.5146,1,1,1.0000,-102.5022,1.42063,0.14034,-2.66113,0.95012,1.57103,0.27397,-0.13335,-0.39493,0.00043,,,,,,,,,,,,,,,,,,,,,,,,,,0,0,0,0,0
27.4907,1784397801.6095,1,1,1.0000,-110.0312,1.42063,0.13971,-2.66131,0.95094,1.57103,0.27397,-0.13335,-0.39493,0.00022,,,,,,,,,,,,,,,,,,,,,,,,,,0,0,0,0,0
27.5905,1784397801.7093,1,1,1.0000,-116.4436,1.42063,0.13935,-2.66140,0.95141,1.57103,0.27397,-0.13334,-0.39495,0.00010,,,,,,,,,,,,,,,,,,,,,,,,,,0,0,0,0,0
27.6877,1784397801.8065,1,1,1.0000,-123.1505,1.42063,0.13870,-2.66161,0.95226,1.57103,0.27397,-0.13334,-0.39494,-0.00013,,,,,,,,,,,,,,,,,,,,,,,,,,0,0,0,0,0
27.7852,1784397801.9041,1,1,1.0000,-128.7116,1.42062,0.13820,-2.66173,0.95298,1.57103,0.27397,-0.13333,-0.39498,-0.00028,,,,,,,,,,,,,,,,,,,,,,,,,,0,0,0,0,0
27.9190,1784397802.0378,1,0,1.0000,-135.8478,1.42062,0.13744,-2.66196,0.95503,1.57103,0.27397,-0.13328,-0.39531,-0.00041,,,,,,,,,,,,,,,,,,,,,,,,,,0,0,0,0,0
27.9806,1784397802.0994,1,0,1.0000,-141.6311,1.42062,0.13715,-2.66197,0.95505,1.57103,0.27397,-0.13329,-0.39526,-0.00052,,,,,,,,,,,,,,,,,,,,,,,,,,0,0,0,0,0
