Martins-Lucaas/twinforge/sensors/Data/20260704_153141__samples.csv
t_rel_s,t_unix,cycle,phase,setpoint_n,force_net_n,q1,q2,q3,q4,q5,q6,tcp_x,tcp_y,tcp_z,taxel_0,taxel_1,taxel_2,taxel_3,taxel_4,taxel_5,taxel_6,taxel_7,taxel_8,taxel_9,taxel_10,taxel_11,taxel_12,taxel_13,taxel_14,taxel_15,taxel_16,taxel_17,taxel_18,taxel_19,taxel_20,taxel_21,taxel_22,taxel_23,taxel_24,n_RA,n_SA,cn_mm,cn_ra,cn_sa
0.0199,1783189901.8480,1,0,1.0000,0.0000,1.44682,0.23328,-2.77748,0.97337,1.57080,-0.00000,-0.14512,-0.38003,0.04653,,,,,,,,,,,,,,,,,,,,,,,,,,0,0,0,0,0
0.0413,1783189901.8694,1,0,1.0000,0.0000,1.44682,0.23328,-2.77748,0.97337,1.57080,0.00000,-0.14512,-0.38003,0.04653,,,,,,,,,,,,,,,,,,,,,,,,,,0,0,0,0,0
0.0418,1783189901.8699,1,0,1.0000,0.0000,1.44682,0.23328,-2.77748,0.97337,1.57080,0.00000,-0.14512,-0.38003,0.04653,,,,,,,,,,,,,,,,,,,,,,,,,,0,0,0,0,0
0.0520,1783189901.8801,1,0,1.0000,0.0000,1.44682,0.23328,-2.77748,0.97337,1.57080,0.00000,-0.14512,-0.38003,0.04653,,,,,,,,,,,,,,,,,,,,,,,,,,0,0,0,0,0
0.0571,1783189901.8853,1,0,1.0000,0.0000,1.44682,0.23328,-2.77748,0.97337,1.57080,0.00000,-0.14512,-0.38003,0.04653,,,,,,,,,,,,,,,,,,,,,,,,,,0,0,0,0,0
0.0576,1783189901.8857,1,0,1.0000,0.0000,1.44682,0.23328,-2.77748,0.97337,1.57080,0.00000,-0.14512,-0.38003,0.04653,,,,,,,,,,,,,,,,,,,,,,,,,,0,0,0,0,0
0.0676,1783189901.8957,1,0,1.0000,0.0000,1.44682,0.23328,-2.77748,0.97337,1.57080,0.00000,-0.14512,-0.38003,0.04653,,,,,,,,,,,,,,,,,,,,,,,,,,0,0,0,0,0
0.0751,1783189901.9032,1,0,1.0000,0.0000,1.44682,0.23328,-2.77748,0.97337,1.57080,0.00000,-0.14512,-0.38003,0.04653,,,,,,,,,,,,,,,,,,,,,,,,,,0,0,0,0,0
0.0755,1783189901.9036,1,0,1.0000,0.0000,1.44682,0.23328,-2.77748,0.97337,1.57080,0.00000,-0.14512,-0.38003,0.04653,,,,,,,,,,,,,,,,,,,,,,,,,,0,0,0,0,0
0.0915,1783189901.9196,1,0,1.0000,0.0000,1.44682,0.23328,-2.77748,0.97337,1.57080,0.00000,-0.14512,-0.38003,0.04653,,,,,,,,,,,,,,,,,,,,,,,,,,0,0,0,0,0
0.0974,1783189901.9255,1,0,1.0000,0.0000,1.44682,0.23328,-2.77748,0.97337,1.57080,0.00000,-0.14512,-0.38003,0.04653,,,,,,,,,,,,,,,,,,,,,,,,,,0,0,0,0,0
0.1071,1783189901.9352,1,0,1.0000,0.0000,1.44682,0.23328,-2.77748,0.97337,1.57080,0.00000,-0.14512,-0.38003,0.04653,,,,,,,,,,,,,,,,,,,,,,,,,,0,0,0,0,0
0.1166,1783189901.9447,1,0,1.0000,0.0000,1.44682,0.23328,-2.77748,0.97337,1.57080,0.00000,-0.14512,-0.38003,0.04653,,,,,,,,,,,,,,,,,,,,,,,,,,0,0,0,0,0
0.1285,1783189901.9566,1,0,1.0000,0.0000,1.44682,0.23328,-2.77748,0.97337,1.57080,0.00000,-0.14512,-0.38003,0.04653,,,,,,,,,,,,,,,,,,,,,,,,,,0,0,0,0,0
0.1289,1783189901.9570,1,0,1.0000,0.0000,1.44682,0.23328,-2.77748,0.97337,1.57080,0.00000,-0.14512,-0.38003,0.04653,,,,,,,,,,,,,,,,,,,,,,,,,,0,0,0,0,0
0.1372,1783189901.9653,1,0,1.0000,0.0000,1.44682,0.23328,-2.77748,0.97337,1.57080,0.00000,-0.14512,-0.38003,0.04653,,,,,,,,,,,,,,,,,,,,,,,,,,0,0,0,0,0
0.1376,1783189901.9657,1,0,1.0000,0.0000,1.44682,0.23328,-2.77748,0.97337,1.57080,0.00000,-0.14512,-0.38003,0.04653,,,,,,,,,,,,,,,,,,,,,,,,,,0,0,0,0,0
0.1564,1783189901.9845,1,0,1.0000,0.0000,1.44682,0.23328,-2.77748,0.97337,1.57080,0.00000,-0.14512,-0.38003,0.04653,,,,,,,,,,,,,,,,,,,,,,,,,,0,0,0,0,0
0.1615,1783189901.9896,1,0,1.0000,0.0000,1.44682,0.23328,-2.77748,0.97337,1.57080,0.00000,-0.14512,-0.38003,0.04653,,,,,,,,,,,,,,,,,,,,,,,,,,0,0,0,0,0
0.1618,1783189901.9899,1,0,1.0000,0.0000,1.44682,0.23328,-2.77748,0.97337,1.57080,0.00000,-0.14512,-0.38003,0.04653,,,,,,,,,,,,,,,,,,,,,,,,,,0,0,0,0,0
0.1678,1783189901.9959,1,0,1.0000,0.0000,1.44682,0.23328,-2.77748,0.97337,1.57080,0.00000,-0.14512,-0.38003,0.04653,,,,,,,,,,,,,,,,,,,,,,,,,,0,0,0,0,0
0.1753,1783189902.0034,1,0,1.0000,0.0000,1.44682,0.23328,-2.77748,0.97337,1.57080,0.00000,-0.14512,-0.38003,0.04653,,,,,,,,,,,,,,,,,,,,,,,,,,0,0,0,0,0
0.1756,1783189902.0038,1,0,1.0000,0.0000,1.44682,0.23328,-2.77748,0.97337,1.57080,0.00000,-0.14512,-0.38003,0.04653,,,,,,,,,,,,,,,,,,,,,,,,,,0,0,0,0,0
0.1895,1783189902.0176,1,0,1.0000,0.0000,1.44682,0.23328,-2.77748,0.97337,1.57080,0.00000,-0.14512,-0.38003,0.04653,,,,,,,,,,,,,,,,,,,,,,,,,,0,0,0,0,0
0.1996,1783189902.0277,1,0,1.0000,0.0000,1.44682,0.23328,-2.77748,0.97337,1.57080,0.00000,-0.14512,-0.38003,0.04653,,,,,,,,,,,,,,,,,,,,,,,,,,0,0,0,0,0
0.2088,1783189902.0369,1,0,1.0000,0.0000,1.44682,0.23328,-2.77748,0.97337,1.57080,0.00000,-0.14512,-0.38003,0.04653,,,,,,,,,,,,,,,,,,,,,,,,,,0,0,0,0,0
0.2161,1783189902.0442,1,0,1.0000,0.0000,1.44682,0.23328,-2.77748,0.97337,1.57080,0.00000,-0.14512,-0.38003,0.04653,,,,,,,,,,,,,,,,,,,,,,,,,,0,0,0,0,0
0.2296,1783189902.0578,1,0,1.0000,0.0000,1.44682,0.23328,-2.77748,0.97337,1.57080,0.00000,-0.14512,-0.38003,0.04653,,,,,,,,,,,,,,,,,,,,,,,,,,0,0,0,0,0
0.2402,1783189902.0683,1,0,1.0000,0.0000,1.44682,0.23328,-2.77748,0.97337,1.57080,0.00000,-0.14512,-0.38003,0.04653,,,,,,,,,,,,,,,,,,,,,,,,,,0,0,0,0,0
0.2451,1783189902.0732,1,0,1.0000,0.0000,1.44682,0.23328,-2.77748,0.97337,1.57080,0.00000,-0.14512,-0.38003,0.04653,,,,,,,,,,,,,,,,,,,,,,,,,,0,0,0,0,0
0.2554,1783189902.0835,1,0,1.0000,0.0000,1.44682,0.23328,-2.77748,0.97337,1.57080,0.00000,-0.14512,-0.38003,0.04653,,,,,,,,,,,,,,,,,,,,,,,,,,0,0,0,0,0
0.2651,1783189902.0932,1,0,1.0000,0.0000,1.44682,0.23328,-2.77748,0.97337,1.57080,0.00000,-0.14512,-0.38003,0.04653,,,,,,,,,,,,,,,,,,,,,,,,,,0,0,0,0,0
0.2763,1783189902.1044,1,0,1.0000,0.0000,1.44682,0.23328,-2.77748,0.97337,1.57080,0.00000,-0.14512,-0.38003,0.04653,,,,,,,,,,,,,,,,,,,,,,,,,,0,0,0,0,0
0.2857,1783189902.1138,1,0,1.0000,0.0000,1.44682,0.23328,-2.77748,0.97337,1.57080,0.00000,-0.14512,-0.38003,0.04653,,,,,,,,,,,,,,,,,,,,,,,,,,0,0,0,0,0
0.2968,1783189902.1249,1,0,1.0000,0.0000,1.44682,0.23328,-2.77748,0.97337,1.57080,0.00000,-0.14512,-0.38003,0.04653,,,,,,,,,,,,,,,,,,,,,,,,,,0,0,0,0,0
0.2971,1783189902.1252,1,0,1.0000,0.0000,1.44682,0.23328,-2.77748,0.97337,1.57080,0.00000,-0.14512,-0.38003,0.04653,,,,,,,,,,,,,,,,,,,,,,,,,,0,0,0,0,0
0.3076,1783189902.1357,1,0,1.0000,0.0000,1.44682,0.23328,-2.77748,0.97337,1.57080,0.00000,-0.14512,-0.38003,0.04653,,,,,,,,,,,,,,,,,,,,,,,,,,0,0,0,0,0
0.3186,1783189902.1467,1,0,1.0000,0.0000,1.44682,0.23328,-2.77748,0.97337,1.57080,0.00000,-0.14512,-0.38003,0.04653,,,,,,,,,,,,,,,,,,,,,,,,,,0,0,0,0,0
0.3252,1783189902.1534,1,0,1.0000,0.0000,1.44682,0.23328,-2.77748,0.97337,1.57080,0.00000,-0.14512,-0.38003,0.04653,,,,,,,,,,,,,,,,,,,,,,,,,,0,0,0,0,0
0.3256,1783189902.1537,1,0,1.0000,0.0000,1.44682,0.23328,-2.77748,0.97337,1.57080,0.00000,-0.14512,-0.38003,0.04653,,,,,,,,,,,,,,,,,,,,,,,,,,0,0,0,0,0
0.3354,1783189902.1636,1,0,1.0000,0.0000,1.44682,0.23328,-2.77748,0.97337,1.57080,0.00000,-0.14512,-0.38003,0.04653,,,,,,,,,,,,,,,,,,,,,,,,,,0,0,0,0,0
0.3465,1783189902.1746,1,0,1.0000,0.0000,1.44682,0.23328,-2.77748,0.97337,1.57080,0.00000,-0.14512,-0.38003,0.04653,,,,,,,,,,,,,,,,,,,,,,,,,,0,0,0,0,0
0.3606,1783189902.1888,1,0,1.0000,0.0000,1.44682,0.23328,-2.77748,0.97337,1.57080,0.00000,-0.14512,-0.38003,0.04653,,,,,,,,,,,,,,,,,,,,,,,,,,0,0,0,0,0
0.3661,1783189902.1942,1,0,1.0000,0.0000,1.44682,0.23328,-2.77748,0.97337,1.57080,0.00000,-0.14512,-0.38003,0.04653,,,,,,,,,,,,,,,,,,,,,,,,,,0,0,0,0,0
0.3752,1783189902.2033,1,0,1.0000,0.0000,1.44682,0.23328,-2.77748,0.97337,1.57080,0.00000,-0.14512,-0.38003,0.04653,,,,,,,,,,,,,,,,,,,,,,,,,,0,0,0,0,0
0.3878,1783189902.2160,1,0,1.0000,0.0000,1.44682,0.23328,-2.77748,0.97337,1.57080,0.00000,-0.14512,-0.38003,0.04653,,,,,,,,,,,,,,,,,,,,,,,,,,0,0,0,0,0
0.3956,1783189902.2237,1,0,1.0000,0.0000,1.44682,0.23328,-2.77748,0.97337,1.57080,0.00000,-0.14512,-0.38003,0.04653,,,,,,,,,,,,,,,,,,,,,,,,,,0,0,0,0,0
0.4104,1783189902.2385,1,0,1.0000,0.0000,1.44682,0.23328,-2.77748,0.97337,1.57080,0.00000,-0.14512,-0.38003,0.04653,,,,,,,,,,,,,,,,,,,,,,,,,,0,0,0,0,0
0.4187,1783189902.2468,1,0,1.0000,0.0000,1.44682,0.23328,-2.77748,0.97337,1.57080,0.00000,-0.14512,-0.38003,0.04653,,,,,,,,,,,,,,,,,,,,,,,,,,0,0,0,0,0
0.4190,1783189902.2471,1,0,1.0000,0.0000,1.44682,0.23328,-2.77748,0.97337,1.57080,0.00000,-0.14512,-0.38003,0.04653,,,,,,,,,,,,,,,,,,,,,,,,,,0,0,0,0,0
0.4260,1783189902.2541,1,0,1.0000,0.0000,1.44682,0.23328,-2.77748,0.97337,1.57080,0.00000,-0.14512,-0.38003,0.04653,,,,,,,,,,,,,,,,,,,,,,,,,,0,0,0,0,0
0.4265,1783189902.2546,1,0,1.0000,0.0000,1.44682,0.23328,-2.77748,0.97337,1.57080,0.00000,-0.14512,-0.38003,0.04653,,,,,,,,,,,,,,,,,,,,,,,,,,0,0,0,0,0
0.4395,1783189902.2676,1,0,1.0000,0.0000,1.44682,0.23328,-2.77748,0.97337,1.57080,0.00000,-0.14512,-0.38003,0.04653,,,,,,,,,,,,,,,,,,,,,,,,,,0,0,0,0,0
0.4399,1783189902.2680,1,0,1.0000,0.0000,1.44682,0.23328,-2.77748,0.97337,1.57080,0.00000,-0.14512,-0.38003,0.04653,,,,,,,,,,,,,,,,,,,,,,,,,,0,0,0,0,0
0.4472,1783189902.2753,1,0,1.0000,0.0000,1.44682,0.23328,-2.77748,0.97337,1.57080,0.00000,-0.14512,-0.38003,0.04653,,,,,,,,,,,,,,,,,,,,,,,,,,0,0,0,0,0
0.4636,1783189902.2917,1,0,1.0000,0.0000,1.44682,0.23328,-2.77748,0.97337,1.57080,0.00000,-0.14512,-0.38003,0.04653,,,,,,,,,,,,,,,,,,,,,,,,,,0,0,0,0,0
0.4668,1783189902.2949,1,0,1.0000,0.0000,1.44682,0.23328,-2.77748,0.97337,1.57080,0.00000,-0.14512,-0.38003,0.04653,,,,,,,,,,,,,,,,,,,,,,,,,,0,0,0,0,0
0.4671,1783189902.2952,1,0,1.0000,0.0000,1.44682,0.23328,-2.77748,0.97337,1.57080,0.00000,-0.14512,-0.38003,0.04653,,,,,,,,,,,,,,,,,,,,,,,,,,0,0,0,0,0
0.4752,1783189902.3033,1,0,1.0000,0.0000,1.44682,0.23328,-2.77748,0.97337,1.57080,0.00000,-0.14512,-0.38003,0.04653,,,,,,,,,,,,,,,,,,,,,,,,,,0,0,0,0,0
0.4849,1783189902.3130,1,0,1.0000,0.0000,1.44682,0.23328,-2.77748,0.97337,1.57080,0.00000,-0.14512,-0.38003,0.04653,,,,,,,,,,,,,,,,,,,,,,,,,,0,0,0,0,0
0.4852,1783189902.3133,1,0,1.0000,0.0000,1.44682,0.23328,-2.77748,0.97337,1.57080,0.00000,-0.14512,-0.38003,0.04653,,,,,,,,,,,,,,,,,,,,,,,,,,0,0,0,0,0
0.4978,1783189902.3259,1,0,1.0000,0.0000,1.44682,0.23328,-2.77748,0.97337,1.57080,0.00000,-0.14512,-0.38003,0.04653,,,,,,,,,,,,,,,,,,,,,,,,,,0,0,0,0,0
0.5092,1783189902.3373,1,0,1.0000,0.0000,1.44682,0.23328,-2.77748,0.97337,1.57080,0.00000,-0.14512,-0.38003,0.04653,,,,,,,,,,,,,,,,,,,,,,,,,,0,0,0,0,0
0.5171,1783189902.3452,1,0,1.0000,0.0000,1.44682,0.23328,-2.77748,0.97337,1.57080,0.00000,-0.14512,-0.38003,0.04653,,,,,,,,,,,,,,,,,,,,,,,,,,0,0,0,0,0
0.5249,1783189902.3530,1,0,1.0000,0.0000,1.44682,0.23328,-2.77748,0.97337,1.57080,0.00000,-0.14512,-0.38003,0.04653,,,,,,,,,,,,,,,,,,,,,,,,,,0,0,0,0,0
0.5252,1783189902.3534,1,0,1.0000,0.0000,1.44682,0.23328,-2.77748,0.97337,1.57080,0.00000,-0.14512,-0.38003,0.04653,,,,,,,,,,,,,,,,,,,,,,,,,,0,0,0,0,0
0.5359,1783189902.3640,1,0,1.0000,0.0000,1.44682,0.23328,-2.77748,0.97337,1.57080,0.00000,-0.14512,-0.38003,0.04653,,,,,,,,,,,,,,,,,,,,,,,,,,0,0,0,0,0
0.5458,1783189902.3739,1,0,1.0000,0.0000,1.44682,0.23328,-2.77748,0.97337,1.57080,0.00000,-0.14512,-0.38003,0.04653,,,,,,,,,,,,,,,,,,,,,,,,,,0,0,0,0,0
0.5666,1783189902.3947,1,0,1.0000,0.0000,1.44682,0.23328,-2.77748,0.97337,1.57080,0.00000,-0.14512,-0.38003,0.04653,,,,,,,,,,,,,,,,,,,,,,,,,,0,0,0,0,0
0.5750,1783189902.4031,1,0,1.0000,0.0000,1.44682,0.23328,-2.77748,0.97337,1.57080,0.00000,-0.14512,-0.38003,0.04653,,,,,,,,,,,,,,,,,,,,,,,,,,0,0,0,0,0
0.5751,1783189902.4033,1,0,1.0000,0.0000,1.44682,0.23328,-2.77748,0.97337,1.57080,0.00000,-0.14512,-0.38003,0.04653,,,,,,,,,,,,,,,,,,,,,,,,,,0,0,0,0,0
0.5761,1783189902.4042,1,0,1.0000,0.0000,1.44682,0.23328,-2.77748,0.97337,1.57080,0.00000,-0.14512,-0.38003,0.04653,,,,,,,,,,,,,,,,,,,,,,,,,,0,0,0,0,0
0.5765,1783189902.4046,1,0,1.0000,0.0000,1.44682,0.23328,-2.77748,0.97337,1.57080,0.00000,-0.14512,-0.38003,0.04653,,,,,,,,,,,,,,,,,,,,,,,,,,0,0,0,0,0
0.5868,1783189902.4149,1,0,1.0000,0.0000,1.44682,0.23328,-2.77748,0.97337,1.57080,0.00000,-0.14512,-0.38003,0.04653,,,,,,,,,,,,,,,,,,,,,,,,,,0,0,0,0,0
0.5870,1783189902.4151,1,0,1.0000,0.0000,1.44682,0.23328,-2.77748,0.97337,1.57080,0.00000,-0.14512,-0.38003,0.04653,,,,,,,,,,,,,,,,,,,,,,,,,,0,0,0,0,0
0.5952,1783189902.4233,1,0,1.0000,0.0000,1.44682,0.23328,-2.77748,0.97337,1.57080,0.00000,-0.14512,-0.38003,0.04653,,,,,,,,,,,,,,,,,,,,,,,,,,0,0,0,0,0
0.6094,1783189902.4375,1,0,1.0000,0.0000,1.44682,0.23328,-2.77748,0.97337,1.57080,0.00000,-0.14512,-0.38003,0.04653,,,,,,,,,,,,,,,,,,,,,,,,,,0,0,0,0,0
0.6173,1783189902.4454,1,0,1.0000,0.0000,1.44682,0.23328,-2.77748,0.97337,1.57080,0.00000,-0.14512,-0.38003,0.04653,,,,,,,,,,,,,,,,,,,,,,,,,,0,0,0,0,0
0.6176,1783189902.4457,1,0,1.0000,0.0000,1.44682,0.23328,-2.77748,0.97337,1.57080,0.00000,-0.14512,-0.38003,0.04653,,,,,,,,,,,,,,,,,,,,,,,,,,0,0,0,0,0
0.6267,1783189902.4548,1,0,1.0000,0.0000,1.44682,0.23328,-2.77748,0.97337,1.57080,0.00000,-0.14512,-0.38003,0.04653,,,,,,,,,,,,,,,,,,,,,,,,,,0,0,0,0,0
0.6393,1783189902.4675,1,0,1.0000,0.0000,1.44682,0.23328,-2.77748,0.97337,1.57080,0.00000,-0.14512,-0.38003,0.04653,,,,,,,,,,,,,,,,,,,,,,,,,,0,0,0,0,0
0.6397,1783189902.4678,1,0,1.0000,0.0000,1.44682,0.23328,-2.77748,0.97337,1.57080,0.00000,-0.14512,-0.38003,0.04653,,,,,,,,,,,,,,,,,,,,,,,,,,0,0,0,0,0
0.6493,1783189902.4774,1,0,1.0000,0.0000,1.44682,0.23328,-2.77748,0.97337,1.57080,0.00000,-0.14512,-0.38003,0.04653,,,,,,,,,,,,,,,,,,,,,,,,,,0,0,0,0,0
0.6552,1783189902.4833,1,0,1.0000,0.0000,1.44682,0.23328,-2.77748,0.97337,1.57080,0.00000,-0.14512,-0.38003,0.04653,,,,,,,,,,,,,,,,,,,,,,,,,,0,0,0,0,0
0.6556,1783189902.4837,1,0,1.0000,0.0000,1.44682,0.23328,-2.77748,0.97337,1.57080,0.00000,-0.14512,-0.38003,0.04653,,,,,,,,,,,,,,,,,,,,,,,,,,0,0,0,0,0
0.6684,1783189902.4965,1,0,1.0000,0.0000,1.44682,0.23328,-2.77748,0.97337,1.57080,0.00000,-0.14512,-0.38003,0.04653,,,,,,,,,,,,,,,,,,,,,,,,,,0,0,0,0,0
0.6752,1783189902.5033,1,0,1.0000,0.0000,1.44682,0.23328,-2.77748,0.97337,1.57080,0.00000,-0.14512,-0.38003,0.04653,,,,,,,,,,,,,,,,,,,,,,,,,,0,0,0,0,0
0.6851,1783189902.5132,1,0,1.0000,0.0000,1.44682,0.23328,-2.77748,0.97337,1.57080,0.00000,-0.14512,-0.38003,0.04653,,,,,,,,,,,,,,,,,,,,,,,,,,0,0,0,0,0
0.6950,1783189902.5231,1,0,1.0000,0.0000,1.44682,0.23328,-2.77748,0.97337,1.57080,0.00000,-0.14512,-0.38003,0.04653,,,,,,,,,,,,,,,,,,,,,,,,,,0,0,0,0,0
0.6953,1783189902.5234,1,0,1.0000,0.0000,1.44682,0.23328,-2.77748,0.97337,1.57080,0.00000,-0.14512,-0.38003,0.04653,,,,,,,,,,,,,,,,,,,,,,,,,,0,0,0,0,0
0.7116,1783189902.5397,1,0,1.0000,0.0000,1.44682,0.23328,-2.77748,0.97337,1.57080,0.00000,-0.14512,-0.38003,0.04653,,,,,,,,,,,,,,,,,,,,,,,,,,0,0,0,0,0
0.7183,1783189902.5464,1,0,1.0000,0.0000,1.44682,0.23328,-2.77748,0.97337,1.57080,0.00000,-0.14512,-0.38003,0.04653,,,,,,,,,,,,,,,,,,,,,,,,,,0,0,0,0,0
0.7278,1783189902.5559,1,0,1.0000,0.0000,1.44682,0.23328,-2.77748,0.97337,1.57080,0.00000,-0.14512,-0.38003,0.04653,,,,,,,,,,,,,,,,,,,,,,,,,,0,0,0,0,0
0.7361,1783189902.5642,1,1,1.0000,0.0000,1.44682,0.23328,-2.77748,0.97337,1.57080,0.00000,-0.14512,-0.38003,0.04653,,,,,,,,,,,,,,,,,,,,,,,,,,0,0,0,0,0
0.7491,1783189902.5772,1,1,1.0000,0.0000,1.44682,0.23328,-2.77748,0.97337,1.57080,0.00000,-0.14512,-0.38003,0.04653,,,,,,,,,,,,,,,,,,,,,,,,,,0,0,0,0,0
0.7563,1783189902.5844,1,1,1.0000,0.0000,1.44682,0.23328,-2.77748,0.97337,1.57080,0.00000,-0.14512,-0.38003,0.04653,,,,,,,,,,,,,,,,,,,,,,,,,,0,0,0,0,0
0.7708,1783189902.5989,1,1,1.0000,0.0000,1.44682,0.23328,-2.77748,0.97337,1.57080,0.00000,-0.14512,-0.38003,0.04653,,,,,,,,,,,,,,,,,,,,,,,,,,0,0,0,0,0
0.7755,1783189902.6037,1,1,1.0000,0.0000,1.44682,0.23328,-2.77748,0.97337,1.57080,0.00000,-0.14512,-0.38003,0.04653,,,,,,,,,,,,,,,,,,,,,,,,,,0,0,0,0,0
0.7759,1783189902.6040,1,1,1.0000,0.0000,1.44682,0.23328,-2.77748,0.97337,1.57080,0.00000,-0.14512,-0.38003,0.04653,,,,,,,,,,,,,,,,,,,,,,,,,,0,0,0,0,0
0.7853,1783189902.6135,1,1,1.0000,0.0000,1.44682,0.23328,-2.77748,0.97337,1.57080,0.00000,-0.14512,-0.38003,0.04653,,,,,,,,,,,,,,,,,,,,,,,,,,0,0,0,0,0
0.7990,1783189902.6271,1,1,1.0000,0.0000,1.44682,0.23328,-2.77748,0.97337,1.57080,0.00000,-0.14512,-0.38003,0.04653,,,,,,,,,,,,,,,,,,,,,,,,,,0,0,0,0,0
0.7992,1783189902.6274,1,1,1.0000,0.0000,1.44682,0.23328,-2.77748,0.97337,1.57080,0.00000,-0.14512,-0.38003,0.04653,,,,,,,,,,,,,,,,,,,,,,,,,,0,0,0,0,0
0.8068,1783189902.6349,1,1,1.0000,0.0000,1.44682,0.23328,-2.77748,0.97337,1.57080,0.00000,-0.14512,-0.38003,0.04653,,,,,,,,,,,,,,,,,,,,,,,,,,0,0,0,0,0
0.8185,1783189902.6466,1,1,1.0000,0.0000,1.44682,0.23328,-2.77748,0.97337,1.57080,0.00000,-0.14512,-0.38003,0.04653,,,,,,,,,,,,,,,,,,,,,,,,,,0,0,0,0,0
0.8188,1783189902.6469,1,1,1.0000,0.0000,1.44682,0.23328,-2.77748,0.97337,1.57080,0.00000,-0.14512,-0.38003,0.04653,,,,,,,,,,,,,,,,,,,,,,,,,,0,0,0,0,0
0.8350,1783189902.6631,1,1,1.0000,0.0000,1.44682,0.23328,-2.77748,0.97337,1.57080,0.00000,-0.14512,-0.38003,0.04653,,,,,,,,,,,,,,,,,,,,,,,,,,0,0,0,0,0
0.8449,1783189902.6730,1,1,1.0000,0.0000,1.44682,0.23328,-2.77748,0.97337,1.57080,0.00000,-0.14512,-0.38003,0.04653,,,,,,,,,,,,,,,,,,,,,,,,,,0,0,0,0,0
0.8452,1783189902.6733,1,1,1.0000,0.0000,1.44682,0.23328,-2.77748,0.97337,1.57080,0.00000,-0.14512,-0.38003,0.04653,,,,,,,,,,,,,,,,,,,,,,,,,,0,0,0,0,0
0.8509,1783189902.6790,1,1,1.0000,0.0000,1.44682,0.23328,-2.77748,0.97337,1.57080,0.00000,-0.14512,-0.38003,0.04653,,,,,,,,,,,,,,,,,,,,,,,,,,0,0,0,0,0
0.8568,1783189902.6850,1,1,1.0000,0.0000,1.44682,0.23328,-2.77748,0.97337,1.57080,0.00000,-0.14512,-0.38003,0.04653,,,,,,,,,,,,,,,,,,,,,,,,,,0,0,0,0,0
0.8572,1783189902.6853,1,1,1.0000,0.0000,1.44682,0.23328,-2.77748,0.97337,1.57080,0.00000,-0.14512,-0.38003,0.04653,,,,,,,,,,,,,,,,,,,,,,,,,,0,0,0,0,0
0.8728,1783189902.7009,1,1,1.0000,0.0000,1.44682,0.23328,-2.77748,0.97337,1.57080,0.00000,-0.14512,-0.38003,0.04653,,,,,,,,,,,,,,,,,,,,,,,,,,0,0,0,0,0
0.8753,1783189902.7034,1,1,1.0000,0.0000,1.44682,0.23328,-2.77748,0.97337,1.57080,0.00000,-0.14512,-0.38003,0.04653,,,,,,,,,,,,,,,,,,,,,,,,,,0,0,0,0,0
0.8851,1783189902.7133,1,1,1.0000,0.0000,1.44682,0.23328,-2.77748,0.97337,1.57080,0.00000,-0.14512,-0.38003,0.04653,,,,,,,,,,,,,,,,,,,,,,,,,,0,0,0,0,0
0.8949,1783189902.7230,1,1,1.0000,0.0000,1.44682,0.23328,-2.77748,0.97337,1.57080,0.00000,-0.14512,-0.38003,0.04653,,,,,,,,,,,,,,,,,,,,,,,,,,0,0,0,0,0
0.8952,1783189902.7233,1,1,1.0000,0.0000,1.44682,0.23328,-2.77748,0.97337,1.57080,0.00000,-0.14512,-0.38003,0.04653,,,,,,,,,,,,,,,,,,,,,,,,,,0,0,0,0,0
0.9182,1783189902.7463,1,1,1.0000,0.0000,1.44682,0.23328,-2.77748,0.97337,1.57080,0.00000,-0.14512,-0.38003,0.04653,,,,,,,,,,,,,,,,,,,,,,,,,,0,0,0,0,0
0.9201,1783189902.7482,1,1,1.0000,0.0000,1.44682,0.23328,-2.77748,0.97337,1.57080,0.00000,-0.14512,-0.38003,0.04653,,,,,,,,,,,,,,,,,,,,,,,,,,0,0,0,0,0
0.9261,1783189902.7542,1,1,1.0000,0.0000,1.44682,0.23326,-2.77748,0.97339,1.57080,0.00000,-0.14512,-0.38003,0.04652,,,,,,,,,,,,,,,,,,,,,,,,,,0,0,0,0,0
0.9351,1783189902.7632,1,1,1.0000,0.0000,1.44682,0.23309,-2.77753,0.97361,1.57080,0.00000,-0.14512,-0.38003,0.04648,,,,,,,,,,,,,,,,,,,,,,,,,,0,0,0,0,0
0.9492,1783189902.7773,1,1,1.0000,0.0000,1.44682,0.23285,-2.77759,0.97390,1.57080,0.00000,-0.14512,-0.38003,0.04642,,,,,,,,,,,,,,,,,,,,,,,,,,0,0,0,0,0
0.9558,1783189902.7840,1,1,1.0000,0.0000,1.44682,0.23284,-2.77759,0.97391,1.57080,0.00000,-0.14512,-0.38003,0.04641,,,,,,,,,,,,,,,,,,,,,,,,,,0,0,0,0,0
0.9826,1783189902.8108,1,1,1.0000,0.0000,1.44682,0.23263,-2.77764,0.97419,1.57080,0.00000,-0.14512,-0.38003,0.04636,,,,,,,,,,,,,,,,,,,,,,,,,,0,0,0,0,0
0.9856,1783189902.8137,1,1,1.0000,0.0000,1.44682,0.23263,-2.77764,0.97419,1.57080,0.00000,-0.14512,-0.38003,0.04636,,,,,,,,,,,,,,,,,,,,,,,,,,0,0,0,0,0
1.0028,1783189902.8309,1,1,1.0000,0.0000,1.44682,0.23234,-2.77772,0.97455,1.57080,0.00000,-0.14512,-0.38003,0.04628,,,,,,,,,,,,,,,,,,,,,,,,,,0,0,0,0,0
1.0077,1783189902.8358,1,1,1.0000,0.0000,1.44682,0.23227,-2.77774,0.97464,1.57080,0.00000,-0.14512,-0.38003,0.04626,,,,,,,,,,,,,,,,,,,,,,,,,,0,0,0,0,0
1.0080,1783189902.8361,1,1,1.0000,0.0000,1.44682,0.23227,-2.77774,0.97464,1.57080,0.00000,-0.14512,-0.38003,0.04626,,,,,,,,,,,,,,,,,,,,,,,,,,0,0,0,0,0
1.0188,1783189902.8469,1,1,1.0000,0.0000,1.44682,0.23224,-2.77774,0.97468,1.57080,0.00000,-0.14512,-0.38003,0.04626,,,,,,,,,,,,,,,,,,,,,,,,,,0,0,0,0,0
1.0193,1783189902.8474,1,1,1.0000,0.0000,1.44682,0.23224,-2.77774,0.97468,1.57080,0.00000,-0.14512,-0.38003,0.04626,,,,,,,,,,,,,,,,,,,,,,,,,,0,0,0,0,0
1.0270,1783189902.8551,1,1,1.0000,0.0000,1.44682,0.23216,-2.77777,0.97478,1.57080,0.00000,-0.14512,-0.38003,0.04623,,,,,,,,,,,,,,,,,,,,,,,,,,0,0,0,0,0
1.0273,1783189902.8554,1,1,1.0000,0.0000,1.44682,0.23216,-2.77777,0.97478,1.57080,0.00000,-0.14512,-0.38003,0.04623,,,,,,,,,,,,,,,,,,,,,,,,,,0,0,0,0,0
1.0404,1783189902.8685,1,1,1.0000,0.0000,1.44682,0.23204,-2.77779,0.97492,1.57080,0.00000,-0.14512,-0.38003,0.04621,,,,,,,,,,,,,,,,,,,,,,,,,,0,0,0,0,0
1.0535,1783189902.8816,1,1,1.0000,0.0000,1.44682,0.23195,-2.77782,0.97504,1.57080,0.00000,-0.14512,-0.38003,0.04618,,,,,,,,,,,,,,,,,,,,,,,,,,0,0,0,0,0
1.0539,1783189902.8820,1,1,1.0000,0.0000,1.44682,0.23195,-2.77782,0.97504,1.57080,0.00000,-0.14512,-0.38003,0.04618,,,,,,,,,,,,,,,,,,,,,,,,,,0,0,0,0,0
1.0621,1783189902.8903,1,1,1.0000,0.0000,1.44682,0.23182,-2.77785,0.97521,1.57080,0.00000,-0.14512,-0.38003,0.04615,,,,,,,,,,,,,,,,,,,,,,,,,,0,0,0,0,0
1.0626,1783189902.8907,1,1,1.0000,0.0000,1.44682,0.23175,-2.77787,0.97530,1.57080,0.00000,-0.14512,-0.38003,0.04613,,,,,,,,,,,,,,,,,,,,,,,,,,0,0,0,0,0
1.0775,1783189902.9056,1,1,1.0000,0.0000,1.44682,0.23167,-2.77789,0.97539,1.57080,0.00000,-0.14512,-0.38003,0.04611,,,,,,,,,,,,,,,,,,,,,,,,,,0,0,0,0,0
1.0778,1783189902.9059,1,1,1.0000,0.0000,1.44682,0.23167,-2.77789,0.97539,1.57080,0.00000,-0.14512,-0.38003,0.04611,,,,,,,,,,,,,,,,,,,,,,,,,,0,0,0,0,0
1.0855,1783189902.9137,1,1,1.0000,0.0000,1.44682,0.23161,-2.77791,0.97547,1.57080,0.00000,-0.14512,-0.38003,0.04609,,,,,,,,,,,,,,,,,,,,,,,,,,0,0,0,0,0
1.0953,1783189902.9234,1,1,1.0000,0.0000,1.44682,0.23145,-2.77795,0.97567,1.57080,0.00000,-0.14512,-0.38003,0.04605,,,,,,,,,,,,,,,,,,,,,,,,,,0,0,0,0,0
1.1067,1783189902.9348,1,1,1.0000,0.0000,1.44682,0.23140,-2.77796,0.97572,1.57080,0.00000,-0.14512,-0.38003,0.04604,,,,,,,,,,,,,,,,,,,,,,,,,,0,0,0,0,0
1.1160,1783189902.9441,1,1,1.0000,0.0000,1.44682,0.23129,-2.77799,0.97587,1.57080,0.00000,-0.14512,-0.38003,0.04601,,,,,,,,,,,,,,,,,,,,,,,,,,0,0,0,0,0
1.1279,1783189902.9561,1,1,1.0000,0.0000,1.44682,0.23108,-2.77804,0.97613,1.57080,0.00000,-0.14512,-0.38003,0.04595,,,,,,,,,,,,,,,,,,,,,,,,,,0,0,0,0,0
1.1285,1783189902.9566,1,1,1.0000,0.0000,1.44682,0.23108,-2.77804,0.97613,1.57080,0.00000,-0.14512,-0.38003,0.04595,,,,,,,,,,,,,,,,,,,,,,,,,,0,0,0,0,0
1.1375,1783189902.9656,1,1,1.0000,0.0000,1.44682,0.23107,-2.77804,0.97614,1.57080,0.00000,-0.14512,-0.38003,0.04595,,,,,,,,,,,,,,,,,,,,,,,,,,0,0,0,0,0
1.1501,1783189902.9782,1,1,1.0000,0.0000,1.44682,0.23097,-2.77807,0.97627,1.57080,0.00000,-0.14512,-0.38003,0.04592,,,,,,,,,,,,,,,,,,,,,,,,,,0,0,0,0,0
1.1580,1783189902.9861,1,1,1.0000,0.0000,1.44682,0.23086,-2.77810,0.97641,1.57080,0.00000,-0.14512,-0.38003,0.04590,,,,,,,,,,,,,,,,,,,,,,,,,,0,0,0,0,0
1.1672,1783189902.9953,1,1,1.0000,0.0000,1.44682,0.23081,-2.77811,0.97647,1.57080,0.00000,-0.14512,-0.38003,0.04588,,,,,,,,,,,,,,,,,,,,,,,,,,0,0,0,0,0
1.1780,1783189903.0061,1,1,1.0000,0.0000,1.44682,0.23070,-2.77814,0.97661,1.57080,0.00000,-0.14512,-0.38003,0.04585,,,,,,,,,,,,,,,,,,,,,,,,,,0,0,0,0,0
1.1898,1783189903.0179,1,1,1.0000,0.0000,1.44682,0.23049,-2.77819,0.97688,1.57080,0.00000,-0.14512,-0.38003,0.04580,,,,,,,,,,,,,,,,,,,,,,,,,,0,0,0,0,0
1.1949,1783189903.0230,1,1,1.0000,0.0000,1.44682,0.23048,-2.77820,0.97689,1.57080,0.00000,-0.14512,-0.38003,0.04580,,,,,,,,,,,,,,,,,,,,,,,,,,0,0,0,0,0
1.1953,1783189903.0234,1,1,1.0000,0.0000,1.44682,0.23048,-2.77820,0.97689,1.57080,0.00000,-0.14512,-0.38003,0.04580,,,,,,,,,,,,,,,,,,,,,,,,,,0,0,0,0,0
1.2074,1783189903.0355,1,1,1.0000,0.0000,1.44682,0.23037,-2.77822,0.97702,1.57080,0.00000,-0.14512,-0.38003,0.04577,,,,,,,,,,,,,,,,,,,,,,,,,,0,0,0,0,0
1.2153,1783189903.0434,1,1,1.0000,0.0000,1.44682,0.23026,-2.77825,0.97716,1.57080,0.00000,-0.14512,-0.38003,0.04574,,,,,,,,,,,,,,,,,,,,,,,,,,0,0,0,0,0
1.2261,1783189903.0543,1,1,1.0000,0.0000,1.44682,0.23025,-2.77826,0.97718,1.57080,0.00000,-0.14512,-0.38003,0.04574,,,,,,,,,,,,,,,,,,,,,,,,,,0,0,0,0,0
1.2351,1783189903.0632,1,1,1.0000,0.0000,1.44682,0.23010,-2.77829,0.97736,1.57080,0.00000,-0.14512,-0.38003,0.04570,,,,,,,,,,,,,,,,,,,,,,,,,,0,0,0,0,0
1.2455,1783189903.0737,1,1,1.0000,0.0000,1.44682,0.22996,-2.77833,0.97754,1.57080,0.00000,-0.14512,-0.38003,0.04566,,,,,,,,,,,,,,,,,,,,,,,,,,0,0,0,0,0
1.2551,1783189903.0833,1,1,1.0000,0.0000,1.44682,0.22988,-2.77835,0.97764,1.57080,0.00000,-0.14512,-0.38003,0.04564,,,,,,,,,,,,,,,,,,,,,,,,,,0,0,0,0,0
1.2669,1783189903.0950,1,1,1.0000,0.0000,1.44682,0.22974,-2.77839,0.97782,1.57080,0.00000,-0.14512,-0.38003,0.04560,,,,,,,,,,,,,,,,,,,,,,,,,,0,0,0,0,0
1.2671,1783189903.0952,1,1,1.0000,0.0000,1.44682,0.22974,-2.77839,0.97782,1.57080,0.00000,-0.14512,-0.38003,0.04560,,,,,,,,,,,,,,,,,,,,,,,,,,0,0,0,0,0
1.2836,1783189903.1117,1,1,1.0000,0.0000,1.44682,0.22959,-2.77842,0.97800,1.57080,0.00000,-0.14512,-0.38003,0.04557,,,,,,,,,,,,,,,,,,,,,,,,,,0,0,0,0,0
1.2919,1783189903.1200,1,1,1.0000,0.0000,1.44682,0.22951,-2.77845,0.97810,1.57080,0.00000,-0.14512,-0.38003,0.04554,,,,,,,,,,,,,,,,,,,,,,,,,,0,0,0,0,0
1.2951,1783189903.1232,1,1,1.0000,0.0000,1.44682,0.22945,-2.77846,0.97818,1.57080,0.00000,-0.14512,-0.38003,0.04553,,,,,,,,,,,,,,,,,,,,,,,,,,0,0,0,0,0
1.2955,1783189903.1236,1,1,1.0000,0.0000,1.44682,0.22945,-2.77846,0.97818,1.57080,0.00000,-0.14512,-0.38003,0.04553,,,,,,,,,,,,,,,,,,,,,,,,,,0,0,0,0,0
1.3057,1783189903.1338,1,1,1.0000,0.0000,1.44682,0.22931,-2.77850,0.97835,1.57080,0.00000,-0.14512,-0.38003,0.04549,,,,,,,,,,,,,,,,,,,,,,,,,,0,0,0,0,0
1.3060,1783189903.1341,1,1,1.0000,0.0000,1.44682,0.22931,-2.77850,0.97835,1.57080,0.00000,-0.14512,-0.38003,0.04549,,,,,,,,,,,,,,,,,,,,,,,,,,0,0,0,0,0
1.3170,1783189903.1451,1,1,1.0000,0.0000,1.44682,0.22923,-2.77852,0.97845,1.57080,0.00000,-0.14512,-0.38003,0.04547,,,,,,,,,,,,,,,,,,,,,,,,,,0,0,0,0,0
1.3279,1783189903.1560,1,1,1.0000,0.0000,1.44682,0.22909,-2.77855,0.97863,1.57080,0.00000,-0.14512,-0.38003,0.04543,,,,,,,,,,,,,,,,,,,,,,,,,,0,0,0,0,0
1.3430,1783189903.1711,1,1,1.0000,0.0000,1.44682,0.22894,-2.77859,0.97882,1.57080,0.00000,-0.14512,-0.38003,0.04540,,,,,,,,,,,,,,,,,,,,,,,,,,0,0,0,0,0
1.3630,1783189903.1911,1,1,1.0000,0.0000,1.44682,0.22866,-2.77866,0.97917,1.57080,0.00000,-0.14512,-0.38003,0.04532,,,,,,,,,,,,,,,,,,,,,,,,,,0,0,0,0,0
1.3682,1783189903.1964,1,1,1.0000,0.0000,1.44682,0.22860,-2.77868,0.97925,1.57080,0.00000,-0.14512,-0.38003,0.04531,,,,,,,,,,,,,,,,,,,,,,,,,,0,0,0,0,0
1.3687,1783189903.1968,1,1,1.0000,0.0000,1.44682,0.22860,-2.77868,0.97925,1.57080,0.00000,-0.14512,-0.38003,0.04531,,,,,,,,,,,,,,,,,,,,,,,,,,0,0,0,0,0
1.3853,1783189903.2135,1,1,1.0000,0.0000,1.44682,0.22850,-2.77870,0.97937,1.57080,0.00000,-0.14512,-0.38003,0.04528,,,,,,,,,,,,,,,,,,,,,,,,,,0,0,0,0,0
1.3898,1783189903.2180,1,1,1.0000,0.0000,1.44682,0.22844,-2.77872,0.97945,1.57080,0.00000,-0.14512,-0.38003,0.04527,,,,,,,,,,,,,,,,,,,,,,,,,,0,0,0,0,0
1.3902,1783189903.2183,1,1,1.0000,0.0000,1.44682,0.22844,-2.77872,0.97945,1.57080,0.00000,-0.14512,-0.38003,0.04527,,,,,,,,,,,,,,,,,,,,,,,,,,0,0,0,0,0
1.3983,1783189903.2264,1,1,1.0000,0.0000,1.44682,0.22830,-2.77875,0.97962,1.57080,0.00000,-0.14512,-0.38003,0.04523,,,,,,,,,,,,,,,,,,,,,,,,,,0,0,0,0,0
1.3988,1783189903.2269,1,1,1.0000,0.0000,1.44682,0.22830,-2.77875,0.97962,1.57080,0.00000,-0.14512,-0.38003,0.04523,,,,,,,,,,,,,,,,,,,,,,,,,,0,0,0,0,0
1.4085,1783189903.2366,1,1,1.0000,0.0000,1.44682,0.22826,-2.77877,0.97968,1.57080,0.00000,-0.14512,-0.38003,0.04522,,,,,,,,,,,,,,,,,,,,,,,,,,0,0,0,0,0
1.4193,1783189903.2475,1,1,1.0000,0.0000,1.44682,0.22808,-2.77881,0.97990,1.57080,0.00000,-0.14512,-0.38003,0.04517,,,,,,,,,,,,,,,,,,,,,,,,,,0,0,0,0,0
1.4337,1783189903.2618,1,1,1.0000,0.0000,1.44682,0.22794,-2.77884,0.98007,1.57080,0.00000,-0.14512,-0.38003,0.04514,,,,,,,,,,,,,,,,,,,,,,,,,,0,0,0,0,0
1.4429,1783189903.2710,1,1,1.0000,0.0000,1.44682,0.22785,-2.77887,0.98019,1.57080,0.00000,-0.14512,-0.38003,0.04511,,,,,,,,,,,,,,,,,,,,,,,,,,0,0,0,0,0
1.4432,1783189903.2713,1,1,1.0000,0.0000,1.44682,0.22785,-2.77887,0.98019,1.57080,0.00000,-0.14512,-0.38003,0.04511,,,,,,,,,,,,,,,,,,,,,,,,,,0,0,0,0,0
1.4530,1783189903.2812,1,1,1.0000,0.0000,1.44682,0.22772,-2.77890,0.98035,1.57080,0.00000,-0.14512,-0.38003,0.04508,,,,,,,,,,,,,,,,,,,,,,,,,,0,0,0,0,0
1.4534,1783189903.2815,1,1,1.0000,0.0000,1.44682,0.22772,-2.77890,0.98035,1.57080,0.00000,-0.14512,-0.38003,0.04508,,,,,,,,,,,,,,,,,,,,,,,,,,0,0,0,0,0
1.4647,1783189903.2928,1,1,1.0000,0.0000,1.44682,0.22758,-2.77894,0.98052,1.57080,0.00000,-0.14512,-0.38003,0.04504,,,,,,,,,,,,,,,,,,,,,,,,,,0,0,0,0,0
1.4693,1783189903.2974,1,1,1.0000,0.0000,1.44682,0.22758,-2.77894,0.98053,1.57080,0.00000,-0.14512,-0.38003,0.04504,,,,,,,,,,,,,,,,,,,,,,,,,,0,0,0,0,0
1.4891,1783189903.3172,1,1,1.0000,0.0000,1.44682,0.22735,-2.77900,0.98081,1.57080,0.00000,-0.14512,-0.38003,0.04498,,,,,,,,,,,,,,,,,,,,,,,,,,0,0,0,0,0
1.4896,1783189903.3177,1,1,1.0000,0.0000,1.44682,0.22735,-2.77900,0.98081,1.57080,0.00000,-0.14512,-0.38003,0.04498,,,,,,,,,,,,,,,,,,,,,,,,,,0,0,0,0,0
1.4989,1783189903.3270,1,1,1.0000,0.0000,1.44682,0.22731,-2.77901,0.98087,1.57080,0.00000,-0.14512,-0.38003,0.04497,,,,,,,,,,,,,,,,,,,,,,,,,,0,0,0,0,0
1.5104,1783189903.3385,1,1,1.0000,0.0000,1.44682,0.22719,-2.77904,0.98101,1.57080,0.00000,-0.14512,-0.38003,0.04494,,,,,,,,,,,,,,,,,,,,,,,,,,0,0,0,0,0
1.5354,1783189903.3635,1,1,1.0000,0.0000,1.44682,0.22692,-2.77911,0.98136,1.57080,0.00001,-0.14512,-0.38003,0.04487,,,,,,,,,,,,,,,,,,,,,,,,,,0,0,0,0,0
1.5550,1783189903.3831,1,1,1.0000,0.0000,1.44682,0.22674,-2.77915,0.98157,1.57080,0.00001,-0.14512,-0.38003,0.04483,,,,,,,,,,,,,,,,,,,,,,,,,,0,0,0,0,0
1.5556,1783189903.3837,1,1,1.0000,0.0000,1.44682,0.22674,-2.77915,0.98157,1.57080,0.00001,-0.14512,-0.38003,0.04483,,,,,,,,,,,,,,,,,,,,,,,,,,0,0,0,0,0
1.5629,1783189903.3910,1,1,1.0000,0.0000,1.44682,0.22666,-2.77917,0.98168,1.57080,0.00001,-0.14512,-0.38003,0.04480,,,,,,,,,,,,,,,,,,,,,,,,,,0,0,0,0,0
1.5698,1783189903.3979,1,1,1.0000,0.0000,1.44682,0.22660,-2.77919,0.98176,1.57080,0.00001,-0.14512,-0.38003,0.04479,,,,,,,,,,,,,,,,,,,,,,,,,,0,0,0,0,0
1.5701,1783189903.3983,1,1,1.0000,0.0000,1.44682,0.22660,-2.77919,0.98176,1.57080,0.00001,-0.14512,-0.38003,0.04479,,,,,,,,,,,,,,,,,,,,,,,,,,0,0,0,0,0
1.5789,1783189903.4070,1,1,1.0000,0.0000,1.44682,0.22639,-2.77924,0.98202,1.57080,0.00001,-0.14512,-0.38003,0.04473,,,,,,,,,,,,,,,,,,,,,,,,,,0,0,0,0,0
1.5884,1783189903.4165,1,1,1.0000,0.0000,1.44682,0.22638,-2.77924,0.98203,1.57080,0.00001,-0.14512,-0.38003,0.04473,,,,,,,,,,,,,,,,,,,,,,,,,,0,0,0,0,0
1.5989,1783189903.4270,1,1,1.0000,0.0000,1.44682,0.22627,-2.77927,0.98217,1.57080,0.00001,-0.14512,-0.38003,0.04470,,,,,,,,,,,,,,,,,,,,,,,,,,0,0,0,0,0
1.6108,1783189903.4389,1,1,1.0000,0.0000,1.44682,0.22616,-2.77930,0.98231,1.57080,0.00001,-0.14512,-0.38003,0.04467,,,,,,,,,,,,,,,,,,,,,,,,,,0,0,0,0,0
1.6188,1783189903.4469,1,1,1.0000,0.0000,1.44682,0.22611,-2.77931,0.98237,1.57080,0.00001,-0.14512,-0.38003,0.04466,,,,,,,,,,,,,,,,,,,,,,,,,,0,0,0,0,0
1.6330,1783189903.4611,1,1,1.0000,0.0000,1.44682,0.22593,-2.77936,0.98260,1.57080,0.00001,-0.14512,-0.38003,0.04461,,,,,,,,,,,,,,,,,,,,,,,,,,0,0,0,0,0
1.6333,1783189903.4615,1,1,1.0000,0.0000,1.44682,0.22593,-2.77936,0.98260,1.57080,0.00001,-0.14512,-0.38003,0.04461,,,,,,,,,,,,,,,,,,,,,,,,,,0,0,0,0,0
1.6402,1783189903.4683,1,1,1.0000,0.0000,1.44682,0.22579,-2.77939,0.98277,1.57080,0.00001,-0.14512,-0.38003,0.04458,,,,,,,,,,,,,,,,,,,,,,,,,,0,0,0,0,0
1.6495,1783189903.4776,1,1,1.0000,0.0000,1.44682,0.22578,-2.77939,0.98278,1.57080,0.00001,-0.14512,-0.38003,0.04458,,,,,,,,,,,,,,,,,,,,,,,,,,0,0,0,0,0
1.6587,1783189903.4868,1,1,1.0000,0.0000,1.44682,0.22567,-2.77942,0.98292,1.57080,0.00001,-0.14512,-0.38003,0.04455,,,,,,,,,,,,,,,,,,,,,,,,,,0,0,0,0,0
1.6742,1783189903.5023,1,1,1.0000,0.0000,1.44682,0.22556,-2.77945,0.98306,1.57080,0.00001,-0.14512,-0.38003,0.04452,,,,,,,,,,,,,,,,,,,,,,,,,,0,0,0,0,0
1.6783,1783189903.5065,1,1,1.0000,0.0000,1.44682,0.22555,-2.77945,0.98307,1.57080,0.00001,-0.14512,-0.38003,0.04452,,,,,,,,,,,,,,,,,,,,,,,,,,0,0,0,0,0
1.6923,1783189903.5204,1,1,1.0000,0.0000,1.44682,0.22533,-2.77951,0.98335,1.57080,0.00001,-0.14512,-0.38002,0.04446,,,,,,,,,,,,,,,,,,,,,,,,,,0,0,0,0,0
1.6989,1783189903.5270,1,1,1.0000,0.0000,1.44682,0.22519,-2.77954,0.98352,1.57080,0.00001,-0.14512,-0.38002,0.04442,,,,,,,,,,,,,,,,,,,,,,,,,,0,0,0,0,0
1.7085,1783189903.5366,1,1,1.0000,0.0000,1.44682,0.22518,-2.77955,0.98353,1.57080,0.00001,-0.14512,-0.38002,0.04442,,,,,,,,,,,,,,,,,,,,,,,,,,0,0,0,0,0
1.7199,1783189903.5480,1,1,1.0000,0.0000,1.44682,0.22507,-2.77957,0.98367,1.57080,0.00001,-0.14512,-0.38002,0.04439,,,,,,,,,,,,,,,,,,,,,,,,,,0,0,0,0,0
1.7202,1783189903.5483,1,1,1.0000,0.0000,1.44682,0.22507,-2.77957,0.98367,1.57080,0.00001,-0.14512,-0.38002,0.04439,,,,,,,,,,,,,,,,,,,,,,,,,,0,0,0,0,0
1.7433,1783189903.5715,1,1,1.0000,0.0000,1.44682,0.22486,-2.77963,0.98393,1.57080,0.00001,-0.14512,-0.38002,0.04434,,,,,,,,,,,,,,,,,,,,,,,,,,0,0,0,0,0
1.7436,1783189903.5717,1,1,1.0000,0.0000,1.44682,0.22486,-2.77963,0.98393,1.57080,0.00001,-0.14512,-0.38002,0.04434,,,,,,,,,,,,,,,,,,,,,,,,,,0,0,0,0,0
1.7537,1783189903.5818,1,1,1.0000,0.0000,1.44682,0.22473,-2.77966,0.98410,1.57080,0.00001,-0.14512,-0.38002,0.04430,,,,,,,,,,,,,,,,,,,,,,,,,,0,0,0,0,0
1.7540,1783189903.5821,1,1,1.0000,0.0000,1.44682,0.22473,-2.77966,0.98410,1.57080,0.00001,-0.14512,-0.38002,0.04430,,,,,,,,,,,,,,,,,,,,,,,,,,0,0,0,0,0
1.7601,1783189903.5882,1,1,1.0000,0.0000,1.44682,0.22459,-2.77969,0.98427,1.57080,0.00001,-0.14512,-0.38002,0.04427,,,,,,,,,,,,,,,,,,,,,,,,,,0,0,0,0,0
1.7751,1783189903.6032,1,1,1.0000,0.0000,1.44682,0.22452,-2.77971,0.98436,1.57080,0.00001,-0.14512,-0.38002,0.04425,,,,,,,,,,,,,,,,,,,,,,,,,,0,0,0,0,0
1.7791,1783189903.6072,1,1,1.0000,0.0000,1.44682,0.22447,-2.77972,0.98442,1.57080,0.00001,-0.14512,-0.38002,0.04424,,,,,,,,,,,,,,,,,,,,,,,,,,0,0,0,0,0
1.7794,1783189903.6076,1,1,1.0000,0.0000,1.44682,0.22447,-2.77972,0.98442,1.57080,0.00001,-0.14512,-0.38002,0.04424,,,,,,,,,,,,,,,,,,,,,,,,,,0,0,0,0,0
1.7928,1783189903.6209,1,1,1.0000,0.0000,1.44682,0.22436,-2.77975,0.98456,1.57080,0.00001,-0.14512,-0.38002,0.04421,,,,,,,,,,,,,,,,,,,,,,,,,,0,0,0,0,0
1.7994,1783189903.6275,1,1,1.0000,0.0000,1.44682,0.22431,-2.77976,0.98462,1.57080,0.00001,-0.14512,-0.38002,0.04420,,,,,,,,,,,,,,,,,,,,,,,,,,0,0,0,0,0
1.8084,1783189903.6365,1,1,1.0000,0.0000,1.44682,0.22420,-2.77979,0.98476,1.57080,0.00001,-0.14512,-0.38002,0.04417,,,,,,,,,,,,,,,,,,,,,,,,,,0,0,0,0,0
1.8185,1783189903.6467,1,1,1.0000,0.0000,1.44682,0.22406,-2.77983,0.98494,1.57080,0.00001,-0.14512,-0.38002,0.04413,,,,,,,,,,,,,,,,,,,,,,,,,,0,0,0,0,0
1.8430,1783189903.6712,1,1,1.0000,0.0000,1.44682,0.22376,-2.77990,0.98531,1.57080,0.00001,-0.14512,-0.38002,0.04405,,,,,,,,,,,,,,,,,,,,,,,,,,0,0,0,0,0
1.8433,1783189903.6715,1,1,1.0000,0.0000,1.44682,0.22376,-2.77990,0.98531,1.57080,0.00001,-0.14512,-0.38002,0.04405,,,,,,,,,,,,,,,,,,,,,,,,,,0,0,0,0,0
1.8486,1783189903.6767,1,1,1.0000,0.0000,1.44682,0.22369,-2.77992,0.98539,1.57080,0.00001,-0.14512,-0.38002,0.04404,,,,,,,,,,,,,,,,,,,,,,,,,,0,0,0,0,0
1.8590,1783189903.6871,1,1,1.0000,0.0000,1.44682,0.22365,-2.77993,0.98545,1.57080,0.00001,-0.14512,-0.38002,0.04403,,,,,,,,,,,,,,,,,,,,,,,,,,0,0,0,0,0
1.8593,1783189903.6874,1,1,1.0000,0.0000,1.44682,0.22365,-2.77993,0.98545,1.57080,0.00001,-0.14512,-0.38002,0.04403,,,,,,,,,,,,,,,,,,,,,,,,,,0,0,0,0,0
1.8682,1783189903.6963,1,1,1.0000,0.0000,1.44682,0.22354,-2.77996,0.98559,1.57080,0.00001,-0.14512,-0.38002,0.04400,,,,,,,,,,,,,,,,,,,,,,,,,,0,0,0,0,0
1.8685,1783189903.6966,1,1,1.0000,0.0000,1.44682,0.22354,-2.77996,0.98559,1.57080,0.00001,-0.14512,-0.38002,0.04400,,,,,,,,,,,,,,,,,,,,,,,,,,0,0,0,0,0
1.8792,1783189903.7073,1,1,1.0000,0.0000,1.44682,0.22333,-2.78001,0.98584,1.57080,0.00001,-0.14512,-0.38002,0.04394,,,,,,,,,,,,,,,,,,,,,,,,,,0,0,0,0,0
1.8795,1783189903.7076,1,1,1.0000,0.0000,1.44682,0.22333,-2.78001,0.98584,1.57080,0.00001,-0.14512,-0.38002,0.04394,,,,,,,,,,,,,,,,,,,,,,,,,,0,0,0,0,0
1.8951,1783189903.7232,1,1,1.0000,0.0000,1.44682,0.22324,-2.78003,0.98596,1.57080,0.00001,-0.14512,-0.38002,0.04392,,,,,,,,,,,,,,,,,,,,,,,,,,0,0,0,0,0
1.9030,1783189903.7311,1,1,1.0000,0.0000,1.44682,0.22311,-2.78007,0.98612,1.57080,0.00001,-0.14512,-0.38002,0.04389,,,,,,,,,,,,,,,,,,,,,,,,,,0,0,0,0,0
1.9125,1783189903.7406,1,1,1.0000,0.0000,1.44682,0.22304,-2.78008,0.98621,1.57080,0.00001,-0.14512,-0.38002,0.04387,,,,,,,,,,,,,,,,,,,,,,,,,,0,0,0,0,0
1.9208,1783189903.7490,1,1,1.0000,0.0000,1.44682,0.22299,-2.78010,0.98627,1.57080,0.00001,-0.14512,-0.38002,0.04386,,,,,,,,,,,,,,,,,,,,,,,,,,0,0,0,0,0
1.9302,1783189903.7583,1,1,1.0000,0.0000,1.44682,0.22288,-2.78012,0.98641,1.57080,0.00001,-0.14512,-0.38002,0.04383,,,,,,,,,,,,,,,,,,,,,,,,,,0,0,0,0,0
1.9420,1783189903.7701,1,1,1.0000,0.0000,1.44681,0.22268,-2.78017,0.98666,1.57080,0.00001,-0.14512,-0.38002,0.04377,,,,,,,,,,,,,,,,,,,,,,,,,,0,0,0,0,0
1.9515,1783189903.7796,1,1,1.0000,0.0000,1.44681,0.22263,-2.78019,0.98672,1.57080,0.00001,-0.14512,-0.38002,0.04376,,,,,,,,,,,,,,,,,,,,,,,,,,0,0,0,0,0
1.9518,1783189903.7799,1,1,1.0000,0.0000,1.44681,0.22263,-2.78019,0.98672,1.57080,0.00001,-0.14512,-0.38002,0.04376,,,,,,,,,,,,,,,,,,,,,,,,,,0,0,0,0,0
1.9588,1783189903.7869,1,1,1.0000,0.0000,1.44681,0.22252,-2.78021,0.98686,1.57080,0.00001,-0.14512,-0.38002,0.04373,,,,,,,,,,,,,,,,,,,,,,,,,,0,0,0,0,0
2.0156,1783189903.8438,1,1,1.0000,0.0000,1.44681,0.22193,-2.78036,0.98760,1.57080,0.00001,-0.14512,-0.38002,0.04358,,,,,,,,,,,,,,,,,,,,,,,,,,0,0,0,0,0
2.0200,1783189903.8482,1,1,1.0000,0.0000,1.44681,0.22187,-2.78038,0.98768,1.57080,0.00001,-0.14512,-0.38002,0.04357,,,,,,,,,,,,,,,,,,,,,,,,,,0,0,0,0,0
2.0203,1783189903.8485,1,1,1.0000,0.0000,1.44681,0.22187,-2.78038,0.98768,1.57080,0.00001,-0.14512,-0.38002,0.04357,,,,,,,,,,,,,,,,,,,,,,,,,,0,0,0,0,0
2.0207,1783189903.8488,1,1,1.0000,0.0000,1.44681,0.22187,-2.78038,0.98768,1.57080,0.00001,-0.14512,-0.38002,0.04357,,,,,,,,,,,,,,,,,,,,,,,,,,0,0,0,0,0
2.0209,1783189903.8491,1,1,1.0000,0.0000,1.44681,0.22187,-2.78038,0.98768,1.57080,0.00001,-0.14512,-0.38002,0.04357,,,,,,,,,,,,,,,,,,,,,,,,,,0,0,0,0,0
2.0314,1783189903.8595,1,1,1.0000,0.0000,1.44681,0.22173,-2.78041,0.98785,1.57080,0.00001,-0.14512,-0.38002,0.04353,,,,,,,,,,,,,,,,,,,,,,,,,,0,0,0,0,0
2.0431,1783189903.8712,1,1,1.0000,0.0000,1.44681,0.22163,-2.78044,0.98797,1.57080,0.00001,-0.14512,-0.38002,0.04351,,,,,,,,,,,,,,,,,,,,,,,,,,0,0,0,0,0
2.0505,1783189903.8786,1,1,1.0000,0.0000,1.44681,0.22157,-2.78045,0.98805,1.57080,0.00001,-0.14512,-0.38002,0.04349,,,,,,,,,,,,,,,,,,,,,,,,,,0,0,0,0,0
2.0590,1783189903.8871,1,1,1.0000,0.0000,1.44681,0.22136,-2.78050,0.98831,1.57080,0.00001,-0.14512,-0.38002,0.04344,,,,,,,,,,,,,,,,,,,,,,,,,,0,0,0,0,0
2.0684,1783189903.8965,1,1,1.0000,0.0000,1.44681,0.22135,-2.78051,0.98832,1.57080,0.00001,-0.14512,-0.38002,0.04343,,,,,,,,,,,,,,,,,,,,,,,,,,0,0,0,0,0
2.0821,1783189903.9102,1,1,1.0000,0.0000,1.44681,0.22121,-2.78054,0.98850,1.57080,0.00001,-0.14512,-0.38002,0.04340,,,,,,,,,,,,,,,,,,,,,,,,,,0,0,0,0,0
2.0886,1783189903.9167,1,1,1.0000,0.0000,1.44681,0.22107,-2.78058,0.98868,1.57080,0.00001,-0.14512,-0.38002,0.04336,,,,,,,,,,,,,,,,,,,,,,,,,,0,0,0,0,0
2.1002,1783189903.9283,1,1,1.0000,0.0000,1.44681,0.22099,-2.78060,0.98877,1.57080,0.00001,-0.14512,-0.38002,0.04334,,,,,,,,,,,,,,,,,,,,,,,,,,0,0,0,0,0
2.1106,1783189903.9388,1,1,1.0000,0.0000,1.44681,0.22093,-2.78061,0.98885,1.57080,0.00001,-0.14512,-0.38002,0.04332,,,,,,,,,,,,,,,,,,,,,,,,,,0,0,0,0,0
2.1200,1783189903.9481,1,1,1.0000,0.0000,1.44681,0.22077,-2.78065,0.98905,1.57080,0.00001,-0.14512,-0.38002,0.04328,,,,,,,,,,,,,,,,,,,,,,,,,,0,0,0,0,0
2.1320,1783189903.9601,1,1,1.0000,0.0000,1.44681,0.22072,-2.78066,0.98911,1.57080,0.00001,-0.14512,-0.38002,0.04327,,,,,,,,,,,,,,,,,,,,,,,,,,0,0,0,0,0
2.1391,1783189903.9672,1,1,1.0000,0.0000,1.44681,0.22061,-2.78069,0.98925,1.57080,0.00001,-0.14512,-0.38002,0.04324,,,,,,,,,,,,,,,,,,,,,,,,,,0,0,0,0,0
2.1396,1783189903.9677,1,1,1.0000,0.0000,1.44681,0.22061,-2.78069,0.98925,1.57080,0.00001,-0.14512,-0.38002,0.04324,,,,,,,,,,,,,,,,,,,,,,,,,,0,0,0,0,0
2.1531,1783189903.9812,1,1,1.0000,0.0000,1.44681,0.22039,-2.78074,0.98952,1.57080,0.00001,-0.14512,-0.38002,0.04319,,,,,,,,,,,,,,,,,,,,,,,,,,0,0,0,0,0
2.1644,1783189903.9925,1,1,1.0000,0.0000,1.44681,0.22036,-2.78075,0.98956,1.57080,0.00001,-0.14512,-0.38002,0.04318,,,,,,,,,,,,,,,,,,,,,,,,,,0,0,0,0,0
2.1702,1783189903.9983,1,1,1.0000,0.0000,1.44681,0.22033,-2.78076,0.98960,1.57080,0.00001,-0.14512,-0.38002,0.04317,,,,,,,,,,,,,,,,,,,,,,,,,,0,0,0,0,0
2.1815,1783189904.0096,1,1,1.0000,0.0000,1.44681,0.22016,-2.78080,0.98980,1.57080,0.00001,-0.14512,-0.38002,0.04313,,,,,,,,,,,,,,,,,,,,,,,,,,0,0,0,0,0
2.1885,1783189904.0166,1,1,1.0000,0.0000,1.44681,0.22015,-2.78081,0.98982,1.57080,0.00001,-0.14512,-0.38002,0.04312,,,,,,,,,,,,,,,,,,,,,,,,,,0,0,0,0,0
2.2040,1783189904.0321,1,1,1.0000,0.0000,1.44681,0.21993,-2.78086,0.99009,1.57080,0.00001,-0.14512,-0.38002,0.04307,,,,,,,,,,,,,,,,,,,,,,,,,,0,0,0,0,0
2.2090,1783189904.0371,1,1,1.0000,0.0000,1.44681,0.21986,-2.78088,0.99018,1.57080,0.00001,-0.14512,-0.38002,0.04305,,,,,,,,,,,,,,,,,,,,,,,,,,0,0,0,0,0
2.2226,1783189904.0507,1,1,1.0000,0.0000,1.44681,0.21978,-2.78090,0.99028,1.57080,0.00001,-0.14512,-0.38002,0.04303,,,,,,,,,,,,,,,,,,,,,,,,,,0,0,0,0,0
2.2333,1783189904.0614,1,1,1.0000,0.0000,1.44681,0.21967,-2.78092,0.99042,1.57080,0.00001,-0.14512,-0.38002,0.04300,,,,,,,,,,,,,,,,,,,,,,,,,,0,0,0,0,0
2.2502,1783189904.0783,1,1,1.0000,0.0000,1.44681,0.21955,-2.78096,0.99057,1.57080,0.00001,-0.14512,-0.38002,0.04297,,,,,,,,,,,,,,,,,,,,,,,,,,0,0,0,0,0
2.2576,1783189904.0858,1,1,1.0000,0.0000,1.44681,0.21946,-2.78098,0.99068,1.57080,0.00001,-0.14512,-0.38002,0.04295,,,,,,,,,,,,,,,,,,,,,,,,,,0,0,0,0,0
2.2638,1783189904.0920,1,1,1.0000,0.0000,1.44681,0.21933,-2.78101,0.99085,1.57080,0.00001,-0.14512,-0.38002,0.04291,,,,,,,,,,,,,,,,,,,,,,,,,,0,0,0,0,0
2.2641,1783189904.0922,1,1,1.0000,0.0000,1.44681,0.21933,-2.78101,0.99085,1.57080,0.00001,-0.14512,-0.38002,0.04291,,,,,,,,,,,,,,,,,,,,,,,,,,0,0,0,0,0
2.2726,1783189904.1007,1,1,1.0000,0.0000,1.44681,0.21919,-2.78105,0.99103,1.57080,0.00001,-0.14512,-0.38002,0.04288,,,,,,,,,,,,,,,,,,,,,,,,,,0,0,0,0,0
2.2831,1783189904.1112,1,1,1.0000,0.0000,1.44681,0.21915,-2.78105,0.99107,1.57080,0.00001,-0.14512,-0.38002,0.04287,,,,,,,,,,,,,,,,,,,,,,,,,,0,0,0,0,0
2.2835,1783189904.1116,1,1,1.0000,0.0000,1.44681,0.21915,-2.78105,0.99107,1.57080,0.00001,-0.14512,-0.38002,0.04287,,,,,,,,,,,,,,,,,,,,,,,,,,0,0,0,0,0
2.2883,1783189904.1164,1,1,1.0000,0.0000,1.44681,0.21912,-2.78106,0.99111,1.57080,0.00001,-0.14512,-0.38002,0.04286,,,,,,,,,,,,,,,,,,,,,,,,,,0,0,0,0,0
2.3111,1783189904.1392,1,1,1.0000,0.0000,1.44681,0.21891,-2.78111,0.99137,1.57080,0.00001,-0.14512,-0.38002,0.04281,,,,,,,,,,,,,,,,,,,,,,,,,,0,0,0,0,0
2.3118,1783189904.1399,1,1,1.0000,0.0000,1.44681,0.21891,-2.78111,0.99137,1.57080,0.00001,-0.14512,-0.38002,0.04281,,,,,,,,,,,,,,,,,,,,,,,,,,0,0,0,0,0
2.3121,1783189904.1402,1,1,1.0000,0.0000,1.44681,0.21891,-2.78111,0.99137,1.57080,0.00001,-0.14512,-0.38002,0.04281,,,,,,,,,,,,,,,,,,,,,,,,,,0,0,0,0,0
2.3200,1783189904.1481,1,1,1.0000,0.0000,1.44681,0.21879,-2.78114,0.99152,1.57080,0.00001,-0.14512,-0.38002,0.04278,,,,,,,,,,,,,,,,,,,,,,,,,,0,0,0,0,0
2.3283,1783189904.1564,1,1,1.0000,0.0000,1.44681,0.21865,-2.78118,0.99169,1.57080,0.00001,-0.14512,-0.38002,0.04274,,,,,,,,,,,,,,,,,,,,,,,,,,0,0,0,0,0
2.3402,1783189904.1683,1,1,1.0000,0.0000,1.44681,0.21857,-2.78120,0.99179,1.57080,0.00001,-0.14512,-0.38002,0.04272,,,,,,,,,,,,,,,,,,,,,,,,,,0,0,0,0,0
2.3560,1783189904.1841,1,1,1.0000,0.0000,1.44681,0.21841,-2.78124,0.99199,1.57080,0.00001,-0.14512,-0.38002,0.04268,,,,,,,,,,,,,,,,,,,,,,,,,,0,0,0,0,0
2.3562,1783189904.1843,1,1,1.0000,0.0000,1.44681,0.21841,-2.78124,0.99199,1.57080,0.00001,-0.14512,-0.38002,0.04268,,,,,,,,,,,,,,,,,,,,,,,,,,0,0,0,0,0
2.3590,1783189904.1871,1,1,1.0000,0.0000,1.44681,0.21835,-2.78125,0.99207,1.57080,0.00001,-0.14512,-0.38002,0.04266,,,,,,,,,,,,,,,,,,,,,,,,,,0,0,0,0,0
2.3594,1783189904.1875,1,1,1.0000,0.0000,1.44681,0.21835,-2.78125,0.99207,1.57080,0.00001,-0.14512,-0.38002,0.04266,,,,,,,,,,,,,,,,,,,,,,,,,,0,0,0,0,0
2.3686,1783189904.1967,1,1,1.0000,0.0000,1.44681,0.21834,-2.78126,0.99208,1.57080,0.00001,-0.14512,-0.38002,0.04266,,,,,,,,,,,,,,,,,,,,,,,,,,0,0,0,0,0
2.3802,1783189904.2083,1,1,1.0000,0.0000,1.44681,0.21819,-2.78129,0.99227,1.57080,0.00001,-0.14512,-0.38002,0.04262,,,,,,,,,,,,,,,,,,,,,,,,,,0,0,0,0,0
2.3895,1783189904.2177,1,1,1.0000,0.0000,1.44681,0.21804,-2.78133,0.99245,1.57080,0.00001,-0.14512,-0.38002,0.04258,,,,,,,,,,,,,,,,,,,,,,,,,,0,0,0,0,0
2.4099,1783189904.2380,1,1,1.0000,0.0000,1.44681,0.21791,-2.78136,0.99262,1.57080,0.00001,-0.14512,-0.38002,0.04255,,,,,,,,,,,,,,,,,,,,,,,,,,0,0,0,0,0
2.4104,1783189904.2385,1,1,1.0000,0.0000,1.44681,0.21791,-2.78136,0.99262,1.57080,0.00001,-0.14512,-0.38002,0.04255,,,,,,,,,,,,,,,,,,,,,,,,,,0,0,0,0,0
2.4110,1783189904.2391,1,1,1.0000,0.0000,1.44681,0.21786,-2.78137,0.99268,1.57080,0.00001,-0.14512,-0.38002,0.04254,,,,,,,,,,,,,,,,,,,,,,,,,,0,0,0,0,0
2.4201,1783189904.2482,1,1,1.0000,0.0000,1.44681,0.21774,-2.78140,0.99282,1.57080,0.00001,-0.14512,-0.38002,0.04251,,,,,,,,,,,,,,,,,,,,,,,,,,0,0,0,0,0
2.4303,1783189904.2584,1,1,1.0000,0.0000,1.44681,0.21773,-2.78140,0.99284,1.57080,0.00001,-0.14512,-0.38002,0.04250,,,,,,,,,,,,,,,,,,,,,,,,,,0,0,0,0,0
2.4418,1783189904.2700,1,1,1.0000,0.0000,1.44681,0.21758,-2.78144,0.99303,1.57080,0.00001,-0.14512,-0.38002,0.04247,,,,,,,,,,,,,,,,,,,,,,,,,,0,0,0,0,0
2.4520,1783189904.2801,1,1,1.0000,0.0000,1.44681,0.21737,-2.78149,0.99329,1.57080,0.00001,-0.14512,-0.38002,0.04241,,,,,,,,,,,,,,,,,,,,,,,,,,0,0,0,0,0
2.4524,1783189904.2805,1,1,1.0000,0.0000,1.44681,0.21737,-2.78149,0.99329,1.57080,0.00001,-0.14512,-0.38002,0.04241,,,,,,,,,,,,,,,,,,,,,,,,,,0,0,0,0,0
2.4601,1783189904.2882,1,1,1.0000,0.0000,1.44681,0.21736,-2.78150,0.99331,1.57080,0.00001,-0.14512,-0.38002,0.04241,,,,,,,,,,,,,,,,,,,,,,,,,,0,0,0,0,0
2.4710,1783189904.2992,1,1,1.0000,0.0000,1.44681,0.21721,-2.78153,0.99349,1.57080,0.00001,-0.14512,-0.38002,0.04237,,,,,,,,,,,,,,,,,,,,,,,,,,0,0,0,0,0
2.4784,1783189904.3065,1,1,1.0000,0.0000,1.44681,0.21714,-2.78155,0.99357,1.57080,0.00001,-0.14512,-0.38002,0.04235,,,,,,,,,,,,,,,,,,,,,,,,,,0,0,0,0,0
2.4787,1783189904.3068,1,1,1.0000,0.0000,1.44681,0.21714,-2.78155,0.99357,1.57080,0.00001,-0.14512,-0.38002,0.04235,,,,,,,,,,,,,,,,,,,,,,,,,,0,0,0,0,0
2.4884,1783189904.3165,1,1,1.0000,0.0000,1.44681,0.21706,-2.78157,0.99368,1.57080,0.00001,-0.14512,-0.38002,0.04233,,,,,,,,,,,,,,,,,,,,,,,,,,0,0,0,0,0
2.5099,1783189904.3380,1,1,1.0000,0.0000,1.44681,0.21678,-2.78164,0.99403,1.57080,0.00001,-0.14512,-0.38002,0.04226,,,,,,,,,,,,,,,,,,,,,,,,,,0,0,0,0,0
2.5136,1783189904.3417,1,1,1.0000,0.0000,1.44681,0.21671,-2.78166,0.99412,1.57080,0.00001,-0.14512,-0.38002,0.04224,,,,,,,,,,,,,,,,,,,,,,,,,,0,0,0,0,0
2.5197,1783189904.3479,1,1,1.0000,0.0000,1.44681,0.21670,-2.78166,0.99413,1.57080,0.00001,-0.14512,-0.38002,0.04224,,,,,,,,,,,,,,,,,,,,,,,,,,0,0,0,0,0
2.5284,1783189904.3565,1,1,1.0000,0.0000,1.44681,0.21661,-2.78168,0.99423,1.57080,0.00001,-0.14512,-0.38002,0.04222,,,,,,,,,,,,,,,,,,,,,,,,,,0,0,0,0,0
2.5391,1783189904.3672,1,1,1.0000,0.0000,1.44681,0.21641,-2.78173,0.99449,1.57080,0.00001,-0.14512,-0.38002,0.04217,,,,,,,,,,,,,,,,,,,,,,,,,,0,0,0,0,0
2.5637,1783189904.3918,1,1,1.0000,0.0000,1.44681,0.21619,-2.78179,0.99477,1.57080,0.00001,-0.14512,-0.38002,0.04211,,,,,,,,,,,,,,,,,,,,,,,,,,0,0,0,0,0
2.5640,1783189904.3921,1,1,1.0000,0.0000,1.44681,0.21619,-2.78179,0.99477,1.57080,0.00001,-0.14512,-0.38002,0.04211,,,,,,,,,,,,,,,,,,,,,,,,,,0,0,0,0,0
2.5749,1783189904.4031,1,1,1.0000,0.0000,1.44681,0.21605,-2.78182,0.99494,1.57080,0.00001,-0.14512,-0.38002,0.04207,,,,,,,,,,,,,,,,,,,,,,,,,,0,0,0,0,0
2.5853,1783189904.4134,1,1,1.0000,0.0000,1.44681,0.21601,-2.78183,0.99498,1.57080,0.00001,-0.14512,-0.38002,0.04207,,,,,,,,,,,,,,,,,,,,,,,,,,0,0,0,0,0
2.5856,1783189904.4138,1,1,1.0000,0.0000,1.44681,0.21601,-2.78183,0.99498,1.57080,0.00001,-0.14512,-0.38002,0.04207,,,,,,,,,,,,,,,,,,,,,,,,,,0,0,0,0,0
2.5914,1783189904.4195,1,1,1.0000,0.0000,1.44681,0.21593,-2.78185,0.99509,1.57080,0.00001,-0.14512,-0.38002,0.04204,,,,,,,,,,,,,,,,,,,,,,,,,,0,0,0,0,0
2.6011,1783189904.4292,1,1,1.0000,0.0000,1.44681,0.21581,-2.78188,0.99523,1.57080,0.00001,-0.14512,-0.38002,0.04201,,,,,,,,,,,,,,,,,,,,,,,,,,0,0,0,0,0
2.6143,1783189904.4424,1,1,1.0000,0.0000,1.44681,0.21576,-2.78189,0.99529,1.57080,0.00001,-0.14512,-0.38002,0.04200,,,,,,,,,,,,,,,,,,,,,,,,,,0,0,0,0,0
2.6232,1783189904.4513,1,1,1.0000,0.0000,1.44681,0.21558,-2.78193,0.99552,1.57080,0.00001,-0.14512,-0.38002,0.04195,,,,,,,,,,,,,,,,,,,,,,,,,,0,0,0,0,0
2.6282,1783189904.4563,1,1,1.0000,0.0000,1.44681,0.21551,-2.78195,0.99561,1.57080,0.00001,-0.14512,-0.38002,0.04194,,,,,,,,,,,,,,,,,,,,,,,,,,0,0,0,0,0
2.6419,1783189904.4700,1,1,1.0000,0.0000,1.44681,0.21542,-2.78197,0.99572,1.57080,0.00001,-0.14512,-0.38002,0.04192,,,,,,,,,,,,,,,,,,,,,,,,,,0,0,0,0,0
2.6424,1783189904.4705,1,1,1.0000,0.0000,1.44681,0.21542,-2.78197,0.99572,1.57080,0.00001,-0.14512,-0.38002,0.04192,,,,,,,,,,,,,,,,,,,,,,,,,,0,0,0,0,0
2.6589,1783189904.4871,1,1,1.0000,0.0000,1.44681,0.21514,-2.78204,0.99607,1.57080,0.00001,-0.14512,-0.38002,0.04184,,,,,,,,,,,,,,,,,,,,,,,,,,0,0,0,0,0
2.6602,1783189904.4883,1,1,1.0000,0.0000,1.44681,0.21514,-2.78204,0.99607,1.57080,0.00001,-0.14512,-0.38002,0.04184,,,,,,,,,,,,,,,,,,,,,,,,,,0,0,0,0,0
2.6605,1783189904.4886,1,1,1.0000,0.0000,1.44681,0.21514,-2.78204,0.99607,1.57080,0.00001,-0.14512,-0.38002,0.04184,,,,,,,,,,,,,,,,,,,,,,,,,,0,0,0,0,0
2.6732,1783189904.5013,1,1,1.0000,0.0000,1.44681,0.21509,-2.78205,0.99613,1.57080,0.00001,-0.14512,-0.38002,0.04183,,,,,,,,,,,,,,,,,,,,,,,,,,0,0,0,0,0
2.6735,1783189904.5016,1,1,1.0000,0.0000,1.44681,0.21509,-2.78205,0.99613,1.57080,0.00001,-0.14512,-0.38002,0.04183,,,,,,,,,,,,,,,,,,,,,,,,,,0,0,0,0,0
2.6780,1783189904.5061,1,1,1.0000,0.0000,1.44681,0.21504,-2.78207,0.99619,1.57080,0.00001,-0.14512,-0.38002,0.04182,,,,,,,,,,,,,,,,,,,,,,,,,,0,0,0,0,0
2.6783,1783189904.5064,1,1,1.0000,0.0000,1.44681,0.21504,-2.78207,0.99619,1.57080,0.00001,-0.14512,-0.38002,0.04182,,,,,,,,,,,,,,,,,,,,,,,,,,0,0,0,0,0
2.7224,1783189904.5505,1,1,1.0000,0.0000,1.44681,0.21447,-2.78220,0.99690,1.57080,0.00002,-0.14512,-0.38002,0.04167,,,,,,,,,,,,,,,,,,,,,,,,,,0,0,0,0,0
2.7516,1783189904.5797,1,1,1.0000,0.0000,1.44681,0.21411,-2.78229,0.99735,1.57080,0.00002,-0.14512,-0.38002,0.04158,,,,,,,,,,,,,,,,,,,,,,,,,,0,0,0,0,0
2.7521,1783189904.5802,1,1,1.0000,0.0000,1.44681,0.21411,-2.78229,0.99735,1.57080,0.00002,-0.14512,-0.38002,0.04158,,,,,,,,,,,,,,,,,,,,,,,,,,0,0,0,0,0
2.7525,1783189904.5807,1,1,1.0000,0.0000,1.44681,0.21411,-2.78229,0.99735,1.57080,0.00002,-0.14512,-0.38002,0.04158,,,,,,,,,,,,,,,,,,,,,,,,,,0,0,0,0,0
2.7530,1783189904.5811,1,1,1.0000,0.0000,1.44681,0.21411,-2.78229,0.99735,1.57080,0.00002,-0.14512,-0.38002,0.04158,,,,,,,,,,,,,,,,,,,,,,,,,,0,0,0,0,0
2.8012,1783189904.6294,1,1,1.0000,0.0000,1.44681,0.21365,-2.78241,0.99792,1.57080,0.00002,-0.14512,-0.38002,0.04146,,,,,,,,,,,,,,,,,,,,,,,,,,0,0,0,0,0
2.8016,1783189904.6297,1,1,1.0000,0.0000,1.44681,0.21365,-2.78241,0.99792,1.57080,0.00002,-0.14512,-0.38002,0.04146,,,,,,,,,,,,,,,,,,,,,,,,,,0,0,0,0,0
2.8194,1783189904.6475,1,1,1.0000,0.0000,1.44681,0.21343,-2.78246,0.99819,1.57080,0.00002,-0.14512,-0.38002,0.04141,,,,,,,,,,,,,,,,,,,,,,,,,,0,0,0,0,0
2.8197,1783189904.6478,1,1,1.0000,0.0000,1.44681,0.21343,-2.78246,0.99819,1.57080,0.00002,-0.14512,-0.38002,0.04141,,,,,,,,,,,,,,,,,,,,,,,,,,0,0,0,0,0
2.8250,1783189904.6532,1,1,1.0000,0.0000,1.44681,0.21340,-2.78247,0.99823,1.57080,0.00002,-0.14512,-0.38002,0.04140,,,,,,,,,,,,,,,,,,,,,,,,,,0,0,0,0,0
2.8254,1783189904.6535,1,1,1.0000,0.0000,1.44681,0.21340,-2.78247,0.99823,1.57080,0.00002,-0.14512,-0.38002,0.04140,,,,,,,,,,,,,,,,,,,,,,,,,,0,0,0,0,0
2.8281,1783189904.6562,1,1,1.0000,0.0000,1.44681,0.21335,-2.78248,0.99830,1.57080,0.00002,-0.14512,-0.38002,0.04139,,,,,,,,,,,,,,,,,,,,,,,,,,0,0,0,0,0
2.8285,1783189904.6566,1,1,1.0000,0.0000,1.44681,0.21335,-2.78248,0.99830,1.57080,0.00002,-0.14512,-0.38002,0.04139,,,,,,,,,,,,,,,,,,,,,,,,,,0,0,0,0,0
2.8422,1783189904.6703,1,1,1.0000,0.0000,1.44681,0.21315,-2.78253,0.99855,1.57080,0.00002,-0.14512,-0.38002,0.04134,,,,,,,,,,,,,,,,,,,,,,,,,,0,0,0,0,0
2.8483,1783189904.6764,1,1,1.0000,0.0000,1.44681,0.21313,-2.78253,0.99856,1.57080,0.00002,-0.14512,-0.38002,0.04133,,,,,,,,,,,,,,,,,,,,,,,,,,0,0,0,0,0
2.8623,1783189904.6904,1,1,1.0000,0.0000,1.44681,0.21299,-2.78257,0.99874,1.57080,0.00002,-0.14512,-0.38002,0.04130,,,,,,,,,,,,,,,,,,,,,,,,,,0,0,0,0,0
2.8801,1783189904.7083,1,1,1.0000,0.0000,1.44681,0.21277,-2.78262,0.99902,1.57080,0.00002,-0.14512,-0.38002,0.04124,,,,,,,,,,,,,,,,,,,,,,,,,,0,0,0,0,0
2.8820,1783189904.7102,1,1,1.0000,0.0000,1.44681,0.21277,-2.78262,0.99902,1.57080,0.00002,-0.14512,-0.38002,0.04124,,,,,,,,,,,,,,,,,,,,,,,,,,0,0,0,0,0
2.8824,1783189904.7105,1,1,1.0000,0.0000,1.44681,0.21277,-2.78262,0.99902,1.57080,0.00002,-0.14512,-0.38002,0.04124,,,,,,,,,,,,,,,,,,,,,,,,,,0,0,0,0,0
2.8905,1783189904.7186,1,1,1.0000,0.0000,1.44681,0.21268,-2.78264,0.99912,1.57080,0.00002,-0.14512,-0.38002,0.04122,,,,,,,,,,,,,,,,,,,,,,,,,,0,0,0,0,0
2.8909,1783189904.7190,1,1,1.0000,0.0000,1.44681,0.21268,-2.78264,0.99912,1.57080,0.00002,-0.14512,-0.38002,0.04122,,,,,,,,,,,,,,,,,,,,,,,,,,0,0,0,0,0
2.8993,1783189904.7274,1,1,1.0000,0.0000,1.44681,0.21248,-2.78269,0.99938,1.57080,0.00002,-0.14512,-0.38002,0.04117,,,,,,,,,,,,,,,,,,,,,,,,,,0,0,0,0,0
2.9099,1783189904.7380,1,1,1.0000,0.0000,1.44681,0.21247,-2.78269,0.99939,1.57080,0.00002,-0.14512,-0.38002,0.04116,,,,,,,,,,,,,,,,,,,,,,,,,,0,0,0,0,0
2.9222,1783189904.7503,1,1,1.0000,0.0000,1.44681,0.21232,-2.78273,0.99957,1.57080,0.00002,-0.14512,-0.38002,0.04113,,,,,,,,,,,,,,,,,,,,,,,,,,0,0,0,0,0
2.9294,1783189904.7575,1,1,1.0000,0.0000,1.44681,0.21218,-2.78276,0.99975,1.57080,0.00002,-0.14512,-0.38002,0.04109,,,,,,,,,,,,,,,,,,,,,,,,,,0,0,0,0,0
2.9405,1783189904.7687,1,1,1.0000,0.0000,1.44681,0.21210,-2.78278,0.99985,1.57080,0.00002,-0.14512,-0.38002,0.04107,,,,,,,,,,,,,,,,,,,,,,,,,,0,0,0,0,0
2.9409,1783189904.7691,1,1,1.0000,0.0000,1.44681,0.21210,-2.78278,0.99985,1.57080,0.00002,-0.14512,-0.38002,0.04107,,,,,,,,,,,,,,,,,,,,,,,,,,0,0,0,0,0
2.9505,1783189904.7786,1,1,1.0000,0.0000,1.44681,0.21202,-2.78280,0.99995,1.57080,0.00002,-0.14512,-0.38002,0.04105,,,,,,,,,,,,,,,,,,,,,,,,,,0,0,0,0,0
2.9509,1783189904.7791,1,1,1.0000,0.0000,1.44681,0.21202,-2.78280,0.99995,1.57080,0.00002,-0.14512,-0.38002,0.04105,,,,,,,,,,,,,,,,,,,,,,,,,,0,0,0,0,0
2.9755,1783189904.8036,1,1,1.0000,0.0000,1.44681,0.21171,-2.78288,1.00033,1.57080,0.00002,-0.14512,-0.38002,0.04097,,,,,,,,,,,,,,,,,,,,,,,,,,0,0,0,0,0
2.9761,1783189904.8042,1,1,1.0000,0.0000,1.44681,0.21171,-2.78288,1.00033,1.57080,0.00002,-0.14512,-0.38002,0.04097,,,,,,,,,,,,,,,,,,,,,,,,,,0,0,0,0,0
2.9842,1783189904.8123,1,1,1.0000,0.0000,1.44681,0.21162,-2.78290,1.00044,1.57080,0.00002,-0.14512,-0.38002,0.04095,,,,,,,,,,,,,,,,,,,,,,,,,,0,0,0,0,0
2.9893,1783189904.8174,1,1,1.0000,0.0000,1.44681,0.21157,-2.78291,1.00051,1.57080,0.00002,-0.14512,-0.38002,0.04094,,,,,,,,,,,,,,,,,,,,,,,,,,0,0,0,0,0
3.0005,1783189904.8286,1,1,1.0000,0.0000,1.44681,0.21150,-2.78293,1.00060,1.57080,0.00002,-0.14512,-0.38002,0.04092,,,,,,,,,,,,,,,,,,,,,,,,,,0,0,0,0,0
3.0085,1783189904.8367,1,1,1.0000,0.0000,1.44681,0.21141,-2.78295,1.00071,1.57080,0.00002,-0.14512,-0.38002,0.04089,,,,,,,,,,,,,,,,,,,,,,,,,,0,0,0,0,0
3.0216,1783189904.8497,1,1,1.0000,0.0000,1.44681,0.21120,-2.78300,1.00097,1.57080,0.00002,-0.14512,-0.38002,0.04084,,,,,,,,,,,,,,,,,,,,,,,,,,0,0,0,0,0
3.0290,1783189904.8571,1,1,1.0000,0.0000,1.44681,0.21113,-2.78302,1.00105,1.57080,0.00002,-0.14512,-0.38002,0.04082,,,,,,,,,,,,,,,,,,,,,,,,,,0,0,0,0,0
3.0294,1783189904.8575,1,1,1.0000,0.0000,1.44681,0.21113,-2.78302,1.00105,1.57080,0.00002,-0.14512,-0.38002,0.04082,,,,,,,,,,,,,,,,,,,,,,,,,,0,0,0,0,0
3.0402,1783189904.8683,1,1,1.0000,0.0000,1.44681,0.21106,-2.78304,1.00114,1.57080,0.00002,-0.14512,-0.38002,0.04081,,,,,,,,,,,,,,,,,,,,,,,,,,0,0,0,0,0
3.0520,1783189904.8801,1,1,1.0000,0.0000,1.44681,0.21090,-2.78307,1.00134,1.57080,0.00002,-0.14512,-0.38002,0.04077,,,,,,,,,,,,,,,,,,,,,,,,,,0,0,0,0,0
3.0523,1783189904.8804,1,1,1.0000,0.0000,1.44681,0.21090,-2.78307,1.00134,1.57080,0.00002,-0.14512,-0.38002,0.04077,,,,,,,,,,,,,,,,,,,,,,,,,,0,0,0,0,0
3.0668,1783189904.8949,1,1,1.0000,0.0000,1.44681,0.21085,-2.78309,1.00140,1.57080,0.00002,-0.14512,-0.38002,0.04075,,,,,,,,,,,,,,,,,,,,,,,,,,0,0,0,0,0
3.0729,1783189904.9010,1,1,1.0000,0.0000,1.44681,0.21073,-2.78311,1.00155,1.57080,0.00002,-0.14512,-0.38002,0.04072,,,,,,,,,,,,,,,,,,,,,,,,,,0,0,0,0,0
3.0732,1783189904.9013,1,1,1.0000,0.0000,1.44681,0.21073,-2.78311,1.00155,1.57080,0.00002,-0.14512,-0.38002,0.04072,,,,,,,,,,,,,,,,,,,,,,,,,,0,0,0,0,0
3.0872,1783189904.9153,1,1,1.0000,0.0000,1.44681,0.21052,-2.78317,1.00181,1.57080,0.00002,-0.14512,-0.38002,0.04067,,,,,,,,,,,,,,,,,,,,,,,,,,0,0,0,0,0
3.0889,1783189904.9170,1,1,1.0000,0.0000,1.44681,0.21052,-2.78317,1.00181,1.57080,0.00002,-0.14512,-0.38002,0.04067,,,,,,,,,,,,,,,,,,,,,,,,,,0,0,0,0,0
3.1046,1783189904.9327,1,1,1.0000,0.0000,1.44681,0.21040,-2.78319,1.00196,1.57080,0.00002,-0.14512,-0.38002,0.04064,,,,,,,,,,,,,,,,,,,,,,,,,,0,0,0,0,0
3.1089,1783189904.9371,1,1,1.0000,0.0000,1.44681,0.21034,-2.78321,1.00203,1.57080,0.00002,-0.14512,-0.38002,0.04063,,,,,,,,,,,,,,,,,,,,,,,,,,0,0,0,0,0
3.1094,1783189904.9375,1,1,1.0000,0.0000,1.44681,0.21034,-2.78321,1.00203,1.57080,0.00002,-0.14512,-0.38002,0.04063,,,,,,,,,,,,,,,,,,,,,,,,,,0,0,0,0,0
3.1262,1783189904.9543,1,1,1.0000,0.0000,1.44681,0.21024,-2.78323,1.00216,1.57080,0.00002,-0.14512,-0.38002,0.04060,,,,,,,,,,,,,,,,,,,,,,,,,,0,0,0,0,0
3.1297,1783189904.9578,1,1,1.0000,0.0000,1.44681,0.21018,-2.78325,1.00223,1.57080,0.00002,-0.14512,-0.38002,0.04058,,,,,,,,,,,,,,,,,,,,,,,,,,0,0,0,0,0
3.1301,1783189904.9582,1,1,1.0000,0.0000,1.44681,0.21018,-2.78325,1.00223,1.57080,0.00002,-0.14512,-0.38002,0.04058,,,,,,,,,,,,,,,,,,,,,,,,,,0,0,0,0,0
3.1380,1783189904.9661,1,1,1.0000,0.0000,1.44681,0.21005,-2.78328,1.00240,1.57080,0.00002,-0.14512,-0.38002,0.04055,,,,,,,,,,,,,,,,,,,,,,,,,,0,0,0,0,0
3.1383,1783189904.9664,1,1,1.0000,0.0000,1.44681,0.21005,-2.78328,1.00240,1.57080,0.00002,-0.14512,-0.38002,0.04055,,,,,,,,,,,,,,,,,,,,,,,,,,0,0,0,0,0
3.1483,1783189904.9765,1,1,1.0000,0.0000,1.44681,0.20990,-2.78331,1.00257,1.57080,0.00002,-0.14512,-0.38002,0.04051,,,,,,,,,,,,,,,,,,,,,,,,,,0,0,0,0,0
3.1707,1783189904.9988,1,1,1.0000,0.0000,1.44680,0.20973,-2.78336,1.00279,1.57080,0.00002,-0.14512,-0.38002,0.04047,,,,,,,,,,,,,,,,,,,,,,,,,,0,0,0,0,0
3.1742,1783189905.0023,1,1,1.0000,0.0000,1.44680,0.20967,-2.78337,1.00286,1.57080,0.00002,-0.14512,-0.38002,0.04045,,,,,,,,,,,,,,,,,,,,,,,,,,0,0,0,0,0
3.1745,1783189905.0027,1,1,1.0000,0.0000,1.44680,0.20967,-2.78337,1.00286,1.57080,0.00002,-0.14512,-0.38002,0.04045,,,,,,,,,,,,,,,,,,,,,,,,,,0,0,0,0,0
3.1781,1783189905.0062,1,1,1.0000,0.0000,1.44680,0.20967,-2.78337,1.00286,1.57080,0.00002,-0.14512,-0.38002,0.04045,,,,,,,,,,,,,,,,,,,,,,,,,,0,0,0,0,0
3.1785,1783189905.0066,1,1,1.0000,0.0000,1.44680,0.20967,-2.78337,1.00286,1.57080,0.00002,-0.14512,-0.38002,0.04045,,,,,,,,,,,,,,,,,,,,,,,,,,0,0,0,0,0
3.1885,1783189905.0166,1,1,1.0000,0.0000,1.44680,0.20957,-2.78339,1.00299,1.57079,0.00002,-0.14512,-0.38002,0.04043,,,,,,,,,,,,,,,,,,,,,,,,,,0,0,0,0,0
3.2012,1783189905.0293,1,1,1.0000,0.0000,1.44680,0.20936,-2.78344,1.00325,1.57079,0.00002,-0.14512,-0.38002,0.04038,,,,,,,,,,,,,,,,,,,,,,,,,,0,0,0,0,0
3.2083,1783189905.0364,1,1,1.0000,0.0000,1.44680,0.20929,-2.78346,1.00334,1.57079,0.00002,-0.14512,-0.38002,0.04036,,,,,,,,,,,,,,,,,,,,,,,,,,0,0,0,0,0
3.2264,1783189905.0545,1,1,1.0000,0.0000,1.44680,0.20917,-2.78349,1.00348,1.57079,0.00002,-0.14512,-0.38002,0.04033,,,,,,,,,,,,,,,,,,,,,,,,,,0,0,0,0,0
3.2281,1783189905.0562,1,1,1.0000,0.0000,1.44680,0.20912,-2.78350,1.00355,1.57079,0.00002,-0.14512,-0.38002,0.04032,,,,,,,,,,,,,,,,,,,,,,,,,,0,0,0,0,0
3.2284,1783189905.0565,1,1,1.0000,0.0000,1.44680,0.20912,-2.78350,1.00355,1.57079,0.00002,-0.14512,-0.38002,0.04032,,,,,,,,,,,,,,,,,,,,,,,,,,0,0,0,0,0
3.2383,1783189905.0665,1,1,1.0000,0.0000,1.44680,0.20906,-2.78352,1.00363,1.57079,0.00002,-0.14512,-0.38002,0.04030,,,,,,,,,,,,,,,,,,,,,,,,,,0,0,0,0,0
3.2483,1783189905.0764,1,1,1.0000,0.0000,1.44680,0.20896,-2.78354,1.00375,1.57079,0.00002,-0.14512,-0.38002,0.04027,,,,,,,,,,,,,,,,,,,,,,,,,,0,0,0,0,0
3.2585,1783189905.0867,1,1,1.0000,0.0000,1.44680,0.20882,-2.78357,1.00392,1.57079,0.00002,-0.14512,-0.38002,0.04024,,,,,,,,,,,,,,,,,,,,,,,,,,0,0,0,0,0
3.2714,1783189905.0996,1,1,1.0000,0.0000,1.44680,0.20867,-2.78361,1.00411,1.57079,0.00002,-0.14512,-0.38002,0.04020,,,,,,,,,,,,,,,,,,,,,,,,,,0,0,0,0,0
3.2718,1783189905.0999,1,1,1.0000,0.0000,1.44680,0.20867,-2.78361,1.00411,1.57079,0.00002,-0.14512,-0.38002,0.04020,,,,,,,,,,,,,,,,,,,,,,,,,,0,0,0,0,0
3.2793,1783189905.1075,1,1,1.0000,0.0000,1.44680,0.20861,-2.78363,1.00418,1.57079,0.00002,-0.14512,-0.38002,0.04019,,,,,,,,,,,,,,,,,,,,,,,,,,0,0,0,0,0
3.2890,1783189905.1171,1,1,1.0000,0.0000,1.44680,0.20850,-2.78365,1.00431,1.57079,0.00002,-0.14512,-0.38002,0.04016,,,,,,,,,,,,,,,,,,,,,,,,,,0,0,0,0,0
3.3013,1783189905.1294,1,1,1.0000,0.0000,1.44680,0.20843,-2.78367,1.00440,1.57079,0.00002,-0.14512,-0.38002,0.04014,,,,,,,,,,,,,,,,,,,,,,,,,,0,0,0,0,0
3.3018,1783189905.1299,1,1,1.0000,0.0000,1.44680,0.20843,-2.78367,1.00440,1.57079,0.00002,-0.14512,-0.38002,0.04014,,,,,,,,,,,,,,,,,,,,,,,,,,0,0,0,0,0
3.3102,1783189905.1384,1,1,1.0000,0.0000,1.44680,0.20834,-2.78369,1.00451,1.57079,0.00002,-0.14512,-0.38002,0.04012,,,,,,,,,,,,,,,,,,,,,,,,,,0,0,0,0,0
3.3192,1783189905.1473,1,1,1.0000,0.0000,1.44680,0.20813,-2.78374,1.00477,1.57079,0.00002,-0.14512,-0.38002,0.04007,,,,,,,,,,,,,,,,,,,,,,,,,,0,0,0,0,0
3.3195,1783189905.1476,1,1,1.0000,0.0000,1.44680,0.20813,-2.78374,1.00477,1.57079,0.00002,-0.14512,-0.38002,0.04007,,,,,,,,,,,,,,,,,,,,,,,,,,0,0,0,0,0
3.3317,1783189905.1598,1,1,1.0000,0.0000,1.44680,0.20805,-2.78376,1.00487,1.57079,0.00002,-0.14512,-0.38002,0.04005,,,,,,,,,,,,,,,,,,,,,,,,,,0,0,0,0,0
3.3393,1783189905.1674,1,1,1.0000,0.0000,1.44680,0.20797,-2.78378,1.00498,1.57079,0.00002,-0.14512,-0.38002,0.04002,,,,,,,,,,,,,,,,,,,,,,,,,,0,0,0,0,0
3.3508,1783189905.1789,1,1,1.0000,0.0000,1.44680,0.20783,-2.78381,1.00514,1.57079,0.00002,-0.14512,-0.38002,0.03999,,,,,,,,,,,,,,,,,,,,,,,,,,0,0,0,0,0
3.3593,1783189905.1874,1,1,1.0000,0.0000,1.44680,0.20775,-2.78383,1.00525,1.57079,0.00002,-0.14512,-0.38002,0.03997,,,,,,,,,,,,,,,,,,,,,,,,,,0,0,0,0,0
3.3746,1783189905.2027,1,1,1.0000,0.0000,1.44680,0.20760,-2.78387,1.00543,1.57079,0.00002,-0.14512,-0.38002,0.03993,,,,,,,,,,,,,,,,,,,,,,,,,,0,0,0,0,0
3.3807,1783189905.2088,1,1,1.0000,0.0000,1.44680,0.20746,-2.78390,1.00560,1.57079,0.00002,-0.14512,-0.38002,0.03990,,,,,,,,,,,,,,,,,,,,,,,,,,0,0,0,0,0
3.3917,1783189905.2198,1,1,1.0000,0.0000,1.44680,0.20738,-2.78392,1.00570,1.57079,0.00002,-0.14512,-0.38002,0.03988,,,,,,,,,,,,,,,,,,,,,,,,,,0,0,0,0,0
3.3921,1783189905.2202,1,1,1.0000,0.0000,1.44680,0.20738,-2.78392,1.00570,1.57079,0.00002,-0.14512,-0.38002,0.03988,,,,,,,,,,,,,,,,,,,,,,,,,,0,0,0,0,0
3.3998,1783189905.2279,1,1,1.0000,0.0000,1.44680,0.20730,-2.78394,1.00581,1.57079,0.00002,-0.14512,-0.38002,0.03986,,,,,,,,,,,,,,,,,,,,,,,,,,0,0,0,0,0
3.4003,1783189905.2284,1,1,1.0000,0.0000,1.44680,0.20730,-2.78394,1.00581,1.57079,0.00002,-0.14512,-0.38002,0.03986,,,,,,,,,,,,,,,,,,,,,,,,,,0,0,0,0,0
3.4114,1783189905.2395,1,1,1.0000,0.0000,1.44680,0.20709,-2.78399,1.00606,1.57079,0.00002,-0.14512,-0.38002,0.03980,,,,,,,,,,,,,,,,,,,,,,,,,,0,0,0,0,0
3.4198,1783189905.2479,1,1,1.0000,0.0000,1.44680,0.20708,-2.78399,1.00608,1.57079,0.00002,-0.14512,-0.38002,0.03980,,,,,,,,,,,,,,,,,,,,,,,,,,0,0,0,0,0
3.4315,1783189905.2596,1,1,1.0000,0.0000,1.44680,0.20693,-2.78403,1.00626,1.57079,0.00002,-0.14512,-0.38002,0.03976,,,,,,,,,,,,,,,,,,,,,,,,,,0,0,0,0,0
3.4417,1783189905.2698,1,1,1.0000,0.0000,1.44680,0.20679,-2.78406,1.00643,1.57079,0.00002,-0.14512,-0.38002,0.03973,,,,,,,,,,,,,,,,,,,,,,,,,,0,0,0,0,0
3.4498,1783189905.2779,1,1,1.0000,0.0000,1.44680,0.20672,-2.78408,1.00652,1.57079,0.00002,-0.14512,-0.38002,0.03971,,,,,,,,,,,,,,,,,,,,,,,,,,0,0,0,0,0
3.4598,1783189905.2880,1,1,1.0000,0.0000,1.44680,0.20663,-2.78410,1.00664,1.57079,0.00002,-0.14512,-0.38002,0.03969,,,,,,,,,,,,,,,,,,,,,,,,,,0,0,0,0,0
3.4715,1783189905.2996,1,1,1.0000,0.0000,1.44680,0.20642,-2.78415,1.00689,1.57079,0.00002,-0.14512,-0.38002,0.03963,,,,,,,,,,,,,,,,,,,,,,,,,,0,0,0,0,0
3.4824,1783189905.3106,1,1,1.0000,0.0000,1.44680,0.20641,-2.78415,1.00691,1.57079,0.00002,-0.14512,-0.38002,0.03963,,,,,,,,,,,,,,,,,,,,,,,,,,0,0,0,0,0
3.4827,1783189905.3109,1,1,1.0000,0.0000,1.44680,0.20641,-2.78415,1.00691,1.57079,0.00002,-0.14512,-0.38002,0.03963,,,,,,,,,,,,,,,,,,,,,,,,,,0,0,0,0,0
3.4942,1783189905.3223,1,1,1.0000,0.0000,1.44680,0.20626,-2.78419,1.00709,1.57079,0.00002,-0.14512,-0.38002,0.03960,,,,,,,,,,,,,,,,,,,,,,,,,,0,0,0,0,0
3.4947,1783189905.3228,1,1,1.0000,0.0000,1.44680,0.20626,-2.78419,1.00709,1.57079,0.00002,-0.14512,-0.38002,0.03960,,,,,,,,,,,,,,,,,,,,,,,,,,0,0,0,0,0
3.5067,1783189905.3348,1,1,1.0000,0.0000,1.44680,0.20605,-2.78424,1.00735,1.57079,0.00002,-0.14512,-0.38002,0.03954,,,,,,,,,,,,,,,,,,,,,,,,,,0,0,0,0,0
3.5073,1783189905.3355,1,1,1.0000,0.0000,1.44680,0.20605,-2.78424,1.00735,1.57079,0.00002,-0.14512,-0.38002,0.03954,,,,,,,,,,,,,,,,,,,,,,,,,,0,0,0,0,0
3.5086,1783189905.3367,1,1,1.0000,0.0000,1.44680,0.20605,-2.78424,1.00735,1.57079,0.00002,-0.14512,-0.38002,0.03954,,,,,,,,,,,,,,,,,,,,,,,,,,0,0,0,0,0
3.5089,1783189905.3370,1,1,1.0000,0.0000,1.44680,0.20605,-2.78424,1.00735,1.57079,0.00002,-0.14512,-0.38002,0.03954,,,,,,,,,,,,,,,,,,,,,,,,,,0,0,0,0,0
3.5200,1783189905.3481,1,1,1.0000,0.0000,1.44680,0.20595,-2.78426,1.00747,1.57079,0.00002,-0.14512,-0.38002,0.03952,,,,,,,,,,,,,,,,,,,,,,,,,,0,0,0,0,0
3.5360,1783189905.3642,1,1,1.0000,0.0000,1.44680,0.20575,-2.78431,1.00773,1.57079,0.00002,-0.14512,-0.38002,0.03947,,,,,,,,,,,,,,,,,,,,,,,,,,0,0,0,0,0
3.5363,1783189905.3644,1,1,1.0000,0.0000,1.44680,0.20575,-2.78431,1.00773,1.57079,0.00002,-0.14512,-0.38002,0.03947,,,,,,,,,,,,,,,,,,,,,,,,,,0,0,0,0,0
3.5394,1783189905.3675,1,1,1.0000,0.0000,1.44680,0.20574,-2.78431,1.00774,1.57079,0.00002,-0.14512,-0.38002,0.03946,,,,,,,,,,,,,,,,,,,,,,,,,,0,0,0,0,0
3.5397,1783189905.3678,1,1,1.0000,0.0000,1.44680,0.20574,-2.78431,1.00774,1.57079,0.00002,-0.14512,-0.38002,0.03946,,,,,,,,,,,,,,,,,,,,,,,,,,0,0,0,0,0
3.5493,1783189905.3774,1,1,1.0000,0.0000,1.44680,0.20565,-2.78433,1.00785,1.57079,0.00002,-0.14512,-0.38002,0.03944,,,,,,,,,,,,,,,,,,,,,,,,,,0,0,0,0,0
3.5582,1783189905.3863,1,1,1.0000,0.0000,1.44680,0.20552,-2.78436,1.00801,1.57079,0.00002,-0.14512,-0.38002,0.03941,,,,,,,,,,,,,,,,,,,,,,,,,,0,0,0,0,0
3.5585,1783189905.3866,1,1,1.0000,0.0000,1.44680,0.20552,-2.78436,1.00801,1.57079,0.00002,-0.14512,-0.38002,0.03941,,,,,,,,,,,,,,,,,,,,,,,,,,0,0,0,0,0
3.5742,1783189905.4023,1,1,1.0000,0.0000,1.44680,0.20537,-2.78440,1.00820,1.57079,0.00002,-0.14512,-0.38002,0.03937,,,,,,,,,,,,,,,,,,,,,,,,,,0,0,0,0,0
3.5745,1783189905.4026,1,1,1.0000,0.0000,1.44680,0.20537,-2.78440,1.00820,1.57079,0.00002,-0.14512,-0.38002,0.03937,,,,,,,,,,,,,,,,,,,,,,,,,,0,0,0,0,0
3.5802,1783189905.4083,1,1,1.0000,0.0000,1.44680,0.20528,-2.78442,1.00830,1.57079,0.00002,-0.14512,-0.38002,0.03935,,,,,,,,,,,,,,,,,,,,,,,,,,0,0,0,0,0
3.5954,1783189905.4235,1,1,1.0000,0.0000,1.44680,0.20508,-2.78447,1.00856,1.57079,0.00002,-0.14512,-0.38002,0.03930,,,,,,,,,,,,,,,,,,,,,,,,,,0,0,0,0,0
3.6006,1783189905.4287,1,1,1.0000,0.0000,1.44680,0.20506,-2.78447,1.00857,1.57079,0.00002,-0.14512,-0.38002,0.03929,,,,,,,,,,,,,,,,,,,,,,,,,,0,0,0,0,0
3.6115,1783189905.4396,1,1,1.0000,0.0000,1.44680,0.20492,-2.78451,1.00876,1.57079,0.00002,-0.14512,-0.38002,0.03926,,,,,,,,,,,,,,,,,,,,,,,,,,0,0,0,0,0
3.6117,1783189905.4398,1,1,1.0000,0.0000,1.44680,0.20492,-2.78451,1.00876,1.57079,0.00002,-0.14512,-0.38002,0.03926,,,,,,,,,,,,,,,,,,,,,,,,,,0,0,0,0,0
3.6193,1783189905.4475,1,1,1.0000,0.0000,1.44680,0.20477,-2.78454,1.00893,1.57079,0.00002,-0.14512,-0.38002,0.03922,,,,,,,,,,,,,,,,,,,,,,,,,,0,0,0,0,0
3.6381,1783189905.4662,1,1,1.0000,0.0000,1.44680,0.20466,-2.78457,1.00907,1.57079,0.00002,-0.14512,-0.38002,0.03919,,,,,,,,,,,,,,,,,,,,,,,,,,0,0,0,0,0
3.6386,1783189905.4667,1,1,1.0000,0.0000,1.44680,0.20466,-2.78457,1.00907,1.57079,0.00002,-0.14512,-0.38002,0.03919,,,,,,,,,,,,,,,,,,,,,,,,,,0,0,0,0,0
3.6497,1783189905.4778,1,1,1.0000,0.0000,1.44680,0.20447,-2.78461,1.00930,1.57079,0.00002,-0.14512,-0.38002,0.03915,,,,,,,,,,,,,,,,,,,,,,,,,,0,0,0,0,0
3.6593,1783189905.4874,1,1,1.0000,0.0000,1.44680,0.20433,-2.78465,1.00948,1.57079,0.00002,-0.14512,-0.38002,0.03911,,,,,,,,,,,,,,,,,,,,,,,,,,0,0,0,0,0
3.6690,1783189905.4972,1,1,1.0000,0.0000,1.44680,0.20430,-2.78465,1.00952,1.57079,0.00002,-0.14512,-0.38002,0.03910,,,,,,,,,,,,,,,,,,,,,,,,,,0,0,0,0,0
3.6813,1783189905.5094,1,1,1.0000,0.0000,1.44680,0.20416,-2.78469,1.00970,1.57079,0.00002,-0.14512,-0.38002,0.03907,,,,,,,,,,,,,,,,,,,,,,,,,,0,0,0,0,0
3.6891,1783189905.5172,1,1,1.0000,0.0000,1.44680,0.20409,-2.78470,1.00977,1.57079,0.00002,-0.14512,-0.38002,0.03905,,,,,,,,,,,,,,,,,,,,,,,,,,0,0,0,0,0
3.7010,1783189905.5291,1,1,1.0000,0.0000,1.44680,0.20399,-2.78473,1.00990,1.57079,0.00002,-0.14512,-0.38002,0.03903,,,,,,,,,,,,,,,,,,,,,,,,,,0,0,0,0,0
3.7083,1783189905.5364,1,1,1.0000,0.0000,1.44680,0.20386,-2.78476,1.01007,1.57079,0.00002,-0.14512,-0.38002,0.03899,,,,,,,,,,,,,,,,,,,,,,,,,,0,0,0,0,0
3.7086,1783189905.5367,1,1,1.0000,0.0000,1.44680,0.20386,-2.78476,1.01007,1.57079,0.00002,-0.14512,-0.38002,0.03899,,,,,,,,,,,,,,,,,,,,,,,,,,0,0,0,0,0
3.7185,1783189905.5467,1,1,1.0000,0.0000,1.44680,0.20371,-2.78479,1.01025,1.57079,0.00002,-0.14512,-0.38002,0.03895,,,,,,,,,,,,,,,,,,,,,,,,,,0,0,0,0,0
3.7283,1783189905.5565,1,1,1.0000,0.0000,1.44680,0.20368,-2.78480,1.01029,1.57079,0.00002,-0.14512,-0.38002,0.03895,,,,,,,,,,,,,,,,,,,,,,,,,,0,0,0,0,0
3.7383,1783189905.5664,1,1,1.0000,0.0000,1.44680,0.20359,-2.78482,1.01039,1.57079,0.00002,-0.14512,-0.38002,0.03892,,,,,,,,,,,,,,,,,,,,,,,,,,0,0,0,0,0
3.7386,1783189905.5667,1,1,1.0000,0.0000,1.44680,0.20359,-2.78482,1.01039,1.57079,0.00002,-0.14512,-0.38002,0.03892,,,,,,,,,,,,,,,,,,,,,,,,,,0,0,0,0,0
3.7522,1783189905.5803,1,1,1.0000,0.0000,1.44680,0.20346,-2.78485,1.01055,1.57079,0.00002,-0.14512,-0.38002,0.03889,,,,,,,,,,,,,,,,,,,,,,,,,,0,0,0,0,0
3.7601,1783189905.5883,1,1,1.0000,0.0000,1.44680,0.20338,-2.78487,1.01066,1.57079,0.00002,-0.14512,-0.38002,0.03887,,,,,,,,,,,,,,,,,,,,,,,,,,0,0,0,0,0
3.7741,1783189905.6022,1,1,1.0000,0.0000,1.44680,0.20316,-2.78492,1.01092,1.57079,0.00002,-0.14512,-0.38002,0.03882,,,,,,,,,,,,,,,,,,,,,,,,,,0,0,0,0,0
3.7835,1783189905.6116,1,1,1.0000,0.0000,1.44680,0.20308,-2.78494,1.01102,1.57079,0.00002,-0.14512,-0.38002,0.03880,,,,,,,,,,,,,,,,,,,,,,,,,,0,0,0,0,0
3.7838,1783189905.6119,1,1,1.0000,0.0000,1.44680,0.20308,-2.78494,1.01102,1.57079,0.00002,-0.14512,-0.38002,0.03880,,,,,,,,,,,,,,,,,,,,,,,,,,0,0,0,0,0
3.7892,1783189905.6173,1,1,1.0000,0.0000,1.44680,0.20306,-2.78495,1.01105,1.57079,0.00002,-0.14512,-0.38002,0.03879,,,,,,,,,,,,,,,,,,,,,,,,,,0,0,0,0,0
3.8019,1783189905.6300,1,1,1.0000,0.0000,1.44680,0.20292,-2.78498,1.01123,1.57079,0.00002,-0.14512,-0.38001,0.03876,,,,,,,,,,,,,,,,,,,,,,,,,,0,0,0,0,0
3.8085,1783189905.6366,1,1,1.0000,0.0000,1.44680,0.20286,-2.78500,1.01130,1.57079,0.00002,-0.14512,-0.38001,0.03874,,,,,,,,,,,,,,,,,,,,,,,,,,0,0,0,0,0
3.8088,1783189905.6369,1,1,1.0000,0.0000,1.44680,0.20286,-2.78500,1.01130,1.57079,0.00002,-0.14512,-0.38001,0.03874,,,,,,,,,,,,,,,,,,,,,,,,,,0,0,0,0,0
3.8204,1783189905.6485,1,1,1.0000,0.0000,1.44680,0.20276,-2.78502,1.01143,1.57079,0.00002,-0.14512,-0.38001,0.03872,,,,,,,,,,,,,,,,,,,,,,,,,,0,0,0,0,0
3.8209,1783189905.6490,1,1,1.0000,0.0000,1.44680,0.20276,-2.78502,1.01143,1.57079,0.00002,-0.14512,-0.38001,0.03872,,,,,,,,,,,,,,,,,,,,,,,,,,0,0,0,0,0
3.8285,1783189905.6566,1,1,1.0000,0.0000,1.44680,0.20262,-2.78505,1.01160,1.57079,0.00002,-0.14512,-0.38001,0.03868,,,,,,,,,,,,,,,,,,,,,,,,,,0,0,0,0,0
3.8447,1783189905.6729,1,1,1.0000,0.0000,1.44680,0.20246,-2.78509,1.01179,1.57079,0.00002,-0.14512,-0.38001,0.03864,,,,,,,,,,,,,,,,,,,,,,,,,,0,0,0,0,0
3.8491,1783189905.6772,1,1,1.0000,0.0000,1.44680,0.20244,-2.78509,1.01182,1.57079,0.00002,-0.14512,-0.38001,0.03864,,,,,,,,,,,,,,,,,,,,,,,,,,0,0,0,0,0
3.8595,1783189905.6876,1,1,1.0000,0.0000,1.44680,0.20230,-2.78513,1.01199,1.57079,0.00002,-0.14512,-0.38001,0.03860,,,,,,,,,,,,,,,,,,,,,,,,,,0,0,0,0,0
3.8716,1783189905.6997,1,1,1.0000,0.0000,1.44680,0.20222,-2.78514,1.01208,1.57079,0.00002,-0.14512,-0.38001,0.03858,,,,,,,,,,,,,,,,,,,,,,,,,,0,0,0,0,0
3.8863,1783189905.7144,1,1,1.0000,0.0000,1.44680,0.20207,-2.78518,1.01227,1.57079,0.00002,-0.14512,-0.38001,0.03854,,,,,,,,,,,,,,,,,,,,,,,,,,0,0,0,0,0
3.8908,1783189905.7189,1,1,1.0000,0.0000,1.44680,0.20200,-2.78520,1.01236,1.57079,0.00002,-0.14512,-0.38001,0.03853,,,,,,,,,,,,,,,,,,,,,,,,,,0,0,0,0,0
3.9024,1783189905.7305,1,1,1.0000,0.0000,1.44680,0.20185,-2.78523,1.01254,1.57079,0.00002,-0.14512,-0.38001,0.03849,,,,,,,,,,,,,,,,,,,,,,,,,,0,0,0,0,0
3.9115,1783189905.7396,1,1,1.0000,0.0000,1.44680,0.20178,-2.78525,1.01263,1.57079,0.00002,-0.14512,-0.38001,0.03847,,,,,,,,,,,,,,,,,,,,,,,,,,0,0,0,0,0
3.9196,1783189905.7477,1,1,1.0000,0.0000,1.44680,0.20168,-2.78527,1.01276,1.57079,0.00002,-0.14512,-0.38001,0.03845,,,,,,,,,,,,,,,,,,,,,,,,,,0,0,0,0,0
3.9283,1783189905.7564,1,1,1.0000,0.0000,1.44680,0.20162,-2.78529,1.01283,1.57079,0.00002,-0.14512,-0.38001,0.03843,,,,,,,,,,,,,,,,,,,,,,,,,,0,0,0,0,0
3.9450,1783189905.7731,1,1,1.0000,0.0000,1.44680,0.20145,-2.78533,1.01304,1.57079,0.00003,-0.14512,-0.38001,0.03839,,,,,,,,,,,,,,,,,,,,,,,,,,0,0,0,0,0
3.9483,1783189905.7765,1,1,1.0000,0.0000,1.44680,0.20138,-2.78534,1.01313,1.57079,0.00003,-0.14512,-0.38001,0.03837,,,,,,,,,,,,,,,,,,,,,,,,,,0,0,0,0,0
3.9593,1783189905.7875,1,1,1.0000,0.0000,1.44680,0.20123,-2.78538,1.01331,1.57079,0.00003,-0.14512,-0.38001,0.03833,,,,,,,,,,,,,,,,,,,,,,,,,,0,0,0,0,0
3.9683,1783189905.7964,1,1,1.0000,0.0000,1.44680,0.20119,-2.78539,1.01337,1.57079,0.00003,-0.14512,-0.38001,0.03832,,,,,,,,,,,,,,,,,,,,,,,,,,0,0,0,0,0
3.9785,1783189905.8066,1,1,1.0000,0.0000,1.44680,0.20107,-2.78542,1.01351,1.57079,0.00003,-0.14512,-0.38001,0.03829,,,,,,,,,,,,,,,,,,,,,,,,,,0,0,0,0,0
3.9788,1783189905.8069,1,1,1.0000,0.0000,1.44680,0.20107,-2.78542,1.01351,1.57079,0.00003,-0.14512,-0.38001,0.03829,,,,,,,,,,,,,,,,,,,,,,,,,,0,0,0,0,0
3.9906,1783189905.8187,1,1,1.0000,0.0000,1.44680,0.20093,-2.78545,1.01368,1.57079,0.00003,-0.14512,-0.38001,0.03826,,,,,,,,,,,,,,,,,,,,,,,,,,0,0,0,0,0
4.0046,1783189905.8327,1,1,1.0000,0.0000,1.44680,0.20077,-2.78549,1.01388,1.57079,0.00003,-0.14512,-0.38001,0.03822,,,,,,,,,,,,,,,,,,,,,,,,,,0,0,0,0,0
4.0159,1783189905.8440,1,1,1.0000,0.0000,1.44680,0.20056,-2.78554,1.01414,1.57079,0.00003,-0.14512,-0.38001,0.03817,,,,,,,,,,,,,,,,,,,,,,,,,,0,0,0,0,0
4.0260,1783189905.8541,1,1,1.0000,0.0000,1.44680,0.20054,-2.78554,1.01416,1.57079,0.00003,-0.14512,-0.38001,0.03816,,,,,,,,,,,,,,,,,,,,,,,,,,0,0,0,0,0
4.0335,1783189905.8616,1,1,1.0000,0.0000,1.44680,0.20046,-2.78556,1.01426,1.57079,0.00003,-0.14512,-0.38001,0.03814,,,,,,,,,,,,,,,,,,,,,,,,,,0,0,0,0,0
4.0456,1783189905.8738,1,1,1.0000,0.0000,1.44680,0.20025,-2.78561,1.01452,1.57079,0.00003,-0.14512,-0.38001,0.03809,,,,,,,,,,,,,,,,,,,,,,,,,,0,0,0,0,0
4.0524,1783189905.8805,1,1,1.0000,0.0000,1.44680,0.20024,-2.78561,1.01453,1.57079,0.00003,-0.14512,-0.38001,0.03809,,,,,,,,,,,,,,,,,,,,,,,,,,0,0,0,0,0
4.0618,1783189905.8899,1,1,1.0000,0.0000,1.44680,0.20016,-2.78563,1.01464,1.57079,0.00003,-0.14512,-0.38001,0.03807,,,,,,,,,,,,,,,,,,,,,,,,,,0,0,0,0,0
4.0742,1783189905.9024,1,1,1.0000,0.0000,1.44680,0.19995,-2.78568,1.01489,1.57079,0.00003,-0.14512,-0.38001,0.03801,,,,,,,,,,,,,,,,,,,,,,,,,,0,0,0,0,0
4.0814,1783189905.9095,1,1,1.0000,0.0000,1.44680,0.19988,-2.78570,1.01498,1.57079,0.00003,-0.14512,-0.38001,0.03800,,,,,,,,,,,,,,,,,,,,,,,,,,0,0,0,0,0
4.0818,1783189905.9099,1,1,1.0000,0.0000,1.44680,0.19988,-2.78570,1.01498,1.57079,0.00003,-0.14512,-0.38001,0.03800,,,,,,,,,,,,,,,,,,,,,,,,,,0,0,0,0,0
4.0927,1783189905.9208,1,1,1.0000,0.0000,1.44680,0.19978,-2.78572,1.01510,1.57079,0.00003,-0.14512,-0.38001,0.03797,,,,,,,,,,,,,,,,,,,,,,,,,,0,0,0,0,0
4.1086,1783189905.9367,1,1,1.0000,0.0000,1.44680,0.19957,-2.78577,1.01536,1.57079,0.00003,-0.14512,-0.38001,0.03792,,,,,,,,,,,,,,,,,,,,,,,,,,0,0,0,0,0
4.1126,1783189905.9407,1,1,1.0000,0.0000,1.44680,0.19956,-2.78577,1.01537,1.57079,0.00003,-0.14512,-0.38001,0.03792,,,,,,,,,,,,,,,,,,,,,,,,,,0,0,0,0,0
4.1266,1783189905.9547,1,1,1.0000,0.0000,1.44680,0.19941,-2.78580,1.01555,1.57079,0.00003,-0.14512,-0.38001,0.03788,,,,,,,,,,,,,,,,,,,,,,,,,,0,0,0,0,0
4.1336,1783189905.9617,1,1,1.0000,0.0000,1.44680,0.19927,-2.78584,1.01573,1.57079,0.00003,-0.14512,-0.38001,0.03785,,,,,,,,,,,,,,,,,,,,,,,,,,0,0,0,0,0
4.1339,1783189905.9620,1,1,1.0000,0.0000,1.44680,0.19927,-2.78584,1.01573,1.57079,0.00003,-0.14512,-0.38001,0.03785,,,,,,,,,,,,,,,,,,,,,,,,,,0,0,0,0,0
4.1478,1783189905.9759,1,1,1.0000,0.0000,1.44680,0.19915,-2.78586,1.01587,1.57079,0.00003,-0.14512,-0.38001,0.03782,,,,,,,,,,,,,,,,,,,,,,,,,,0,0,0,0,0
4.1484,1783189905.9765,1,1,1.0000,0.0000,1.44680,0.19915,-2.78586,1.01587,1.57079,0.00003,-0.14512,-0.38001,0.03782,,,,,,,,,,,,,,,,,,,,,,,,,,0,0,0,0,0
4.1528,1783189905.9809,1,1,1.0000,0.0000,1.44680,0.19910,-2.78588,1.01594,1.57079,0.00003,-0.14512,-0.38001,0.03780,,,,,,,,,,,,,,,,,,,,,,,,,,0,0,0,0,0
4.1661,1783189905.9942,1,1,1.0000,0.0000,1.44680,0.19890,-2.78593,1.01619,1.57079,0.00003,-0.14512,-0.38001,0.03775,,,,,,,,,,,,,,,,,,,,,,,,,,0,0,0,0,0
4.1767,1783189906.0048,1,1,1.0000,0.0000,1.44680,0.19885,-2.78594,1.01625,1.57079,0.00003,-0.14512,-0.38001,0.03774,,,,,,,,,,,,,,,,,,,,,,,,,,0,0,0,0,0
4.1935,1783189906.0216,1,1,1.0000,0.0000,1.44680,0.19859,-2.78600,1.01657,1.57079,0.00003,-0.14512,-0.38001,0.03768,,,,,,,,,,,,,,,,,,,,,,,,,,0,0,0,0,0
4.1938,1783189906.0219,1,1,1.0000,0.0000,1.44680,0.19859,-2.78600,1.01657,1.57079,0.00003,-0.14512,-0.38001,0.03768,,,,,,,,,,,,,,,,,,,,,,,,,,0,0,0,0,0
4.1973,1783189906.0254,1,1,1.0000,0.0000,1.44680,0.19852,-2.78601,1.01665,1.57079,0.00003,-0.14512,-0.38001,0.03766,,,,,,,,,,,,,,,,,,,,,,,,,,0,0,0,0,0
4.2018,1783189906.0299,1,1,1.0000,0.0000,1.44680,0.19852,-2.78601,1.01665,1.57079,0.00003,-0.14512,-0.38001,0.03766,,,,,,,,,,,,,,,,,,,,,,,,,,0,0,0,0,0
4.2123,1783189906.0405,1,1,1.0000,0.0000,1.44680,0.19842,-2.78604,1.01677,1.57079,0.00003,-0.14512,-0.38001,0.03763,,,,,,,,,,,,,,,,,,,,,,,,,,0,0,0,0,0
4.2127,1783189906.0408,1,1,1.0000,0.0000,1.44680,0.19842,-2.78604,1.01677,1.57079,0.00003,-0.14512,-0.38001,0.03763,,,,,,,,,,,,,,,,,,,,,,,,,,0,0,0,0,0
4.2254,1783189906.0535,1,1,1.0000,0.0000,1.44680,0.19822,-2.78608,1.01703,1.57079,0.00003,-0.14512,-0.38001,0.03758,,,,,,,,,,,,,,,,,,,,,,,,,,0,0,0,0,0
4.2316,1783189906.0597,1,1,1.0000,0.0000,1.44680,0.19815,-2.78610,1.01712,1.57079,0.00003,-0.14512,-0.38001,0.03756,,,,,,,,,,,,,,,,,,,,,,,,,,0,0,0,0,0
4.2319,1783189906.0600,1,1,1.0000,0.0000,1.44680,0.19815,-2.78610,1.01712,1.57079,0.00003,-0.14512,-0.38001,0.03756,,,,,,,,,,,,,,,,,,,,,,,,,,0,0,0,0,0
4.2557,1783189906.0838,1,1,1.0000,0.0000,1.44680,0.19791,-2.78616,1.01741,1.57079,0.00003,-0.14512,-0.38001,0.03751,,,,,,,,,,,,,,,,,,,,,,,,,,0,0,0,0,0
4.2561,1783189906.0842,1,1,1.0000,0.0000,1.44680,0.19791,-2.78616,1.01741,1.57079,0.00003,-0.14512,-0.38001,0.03751,,,,,,,,,,,,,,,,,,,,,,,,,,0,0,0,0,0
4.2577,1783189906.0859,1,1,1.0000,0.0000,1.44680,0.19791,-2.78616,1.01741,1.57079,0.00003,-0.14512,-0.38001,0.03751,,,,,,,,,,,,,,,,,,,,,,,,,,0,0,0,0,0
4.2618,1783189906.0899,1,1,1.0000,0.0000,1.44680,0.19791,-2.78616,1.01741,1.57079,0.00003,-0.14512,-0.38001,0.03751,,,,,,,,,,,,,,,,,,,,,,,,,,0,0,0,0,0
4.2623,1783189906.0904,1,1,1.0000,0.0000,1.44680,0.19791,-2.78616,1.01741,1.57079,0.00003,-0.14512,-0.38001,0.03751,,,,,,,,,,,,,,,,,,,,,,,,,,0,0,0,0,0
4.2719,1783189906.1001,1,1,1.0000,0.0000,1.44680,0.19780,-2.78618,1.01754,1.57079,0.00003,-0.14512,-0.38001,0.03748,,,,,,,,,,,,,,,,,,,,,,,,,,0,0,0,0,0
4.2843,1783189906.1125,1,1,1.0000,0.0000,1.44680,0.19759,-2.78623,1.01780,1.57079,0.00003,-0.14512,-0.38001,0.03743,,,,,,,,,,,,,,,,,,,,,,,,,,0,0,0,0,0
4.3028,1783189906.1309,1,1,1.0000,0.0000,1.44680,0.19749,-2.78625,1.01793,1.57079,0.00003,-0.14512,-0.38001,0.03740,,,,,,,,,,,,,,,,,,,,,,,,,,0,0,0,0,0
4.3037,1783189906.1319,1,1,1.0000,0.0000,1.44680,0.19745,-2.78626,1.01798,1.57079,0.00003,-0.14512,-0.38001,0.03739,,,,,,,,,,,,,,,,,,,,,,,,,,0,0,0,0,0
4.3041,1783189906.1322,1,1,1.0000,0.0000,1.44680,0.19745,-2.78626,1.01798,1.57079,0.00003,-0.14512,-0.38001,0.03739,,,,,,,,,,,,,,,,,,,,,,,,,,0,0,0,0,0
4.3118,1783189906.1399,1,1,1.0000,0.0000,1.44680,0.19734,-2.78629,1.01810,1.57079,0.00003,-0.14512,-0.38001,0.03737,,,,,,,,,,,,,,,,,,,,,,,,,,0,0,0,0,0
4.3120,1783189906.1401,1,1,1.0000,0.0000,1.44680,0.19734,-2.78629,1.01810,1.57079,0.00003,-0.14512,-0.38001,0.03737,,,,,,,,,,,,,,,,,,,,,,,,,,0,0,0,0,0
4.3268,1783189906.1549,1,1,1.0000,0.0000,1.44680,0.19727,-2.78630,1.01820,1.57079,0.00003,-0.14512,-0.38001,0.03735,,,,,,,,,,,,,,,,,,,,,,,,,,0,0,0,0,0
4.3348,1783189906.1629,1,1,1.0000,0.0000,1.44680,0.19718,-2.78632,1.01831,1.57079,0.00003,-0.14512,-0.38001,0.03733,,,,,,,,,,,,,,,,,,,,,,,,,,0,0,0,0,0
4.3429,1783189906.1710,1,1,1.0000,0.0000,1.44680,0.19704,-2.78636,1.01848,1.57079,0.00003,-0.14512,-0.38001,0.03729,,,,,,,,,,,,,,,,,,,,,,,,,,0,0,0,0,0
4.3526,1783189906.1807,1,1,1.0000,0.0000,1.44680,0.19690,-2.78639,1.01866,1.57079,0.00003,-0.14512,-0.38001,0.03725,,,,,,,,,,,,,,,,,,,,,,,,,,0,0,0,0,0
4.3529,1783189906.1810,1,1,1.0000,0.0000,1.44680,0.19690,-2.78639,1.01866,1.57079,0.00003,-0.14512,-0.38001,0.03725,,,,,,,,,,,,,,,,,,,,,,,,,,0,0,0,0,0
4.3631,1783189906.1912,1,1,1.0000,0.0000,1.44680,0.19686,-2.78640,1.01870,1.57079,0.00003,-0.14512,-0.38001,0.03725,,,,,,,,,,,,,,,,,,,,,,,,,,0,0,0,0,0
4.3743,1783189906.2024,1,1,1.0000,0.0000,1.44680,0.19672,-2.78643,1.01887,1.57079,0.00003,-0.14512,-0.38001,0.03721,,,,,,,,,,,,,,,,,,,,,,,,,,0,0,0,0,0
4.3746,1783189906.2027,1,1,1.0000,0.0000,1.44680,0.19672,-2.78643,1.01887,1.57079,0.00003,-0.14512,-0.38001,0.03721,,,,,,,,,,,,,,,,,,,,,,,,,,0,0,0,0,0
4.3849,1783189906.2130,1,1,1.0000,0.0000,1.44680,0.19664,-2.78645,1.01897,1.57079,0.00003,-0.14512,-0.38001,0.03719,,,,,,,,,,,,,,,,,,,,,,,,,,0,0,0,0,0
4.3852,1783189906.2134,1,1,1.0000,0.0000,1.44680,0.19664,-2.78645,1.01897,1.57079,0.00003,-0.14512,-0.38001,0.03719,,,,,,,,,,,,,,,,,,,,,,,,,,0,0,0,0,0
4.3919,1783189906.2200,1,1,1.0000,0.0000,1.44680,0.19656,-2.78647,1.01907,1.57079,0.00003,-0.14512,-0.38001,0.03717,,,,,,,,,,,,,,,,,,,,,,,,,,0,0,0,0,0
4.3921,1783189906.2202,1,1,1.0000,0.0000,1.44680,0.19656,-2.78647,1.01907,1.57079,0.00003,-0.14512,-0.38001,0.03717,,,,,,,,,,,,,,,,,,,,,,,,,,0,0,0,0,0
4.4070,1783189906.2351,1,1,1.0000,0.0000,1.44679,0.19634,-2.78652,1.01934,1.57079,0.00003,-0.14511,-0.38001,0.03712,,,,,,,,,,,,,,,,,,,,,,,,,,0,0,0,0,0
4.4148,1783189906.2429,1,1,1.0000,0.0000,1.44679,0.19627,-2.78654,1.01943,1.57079,0.00003,-0.14511,-0.38001,0.03710,,,,,,,,,,,,,,,,,,,,,,,,,,0,0,0,0,0
4.4237,1783189906.2518,1,1,1.0000,0.0000,1.44679,0.19620,-2.78655,1.01951,1.57079,0.00003,-0.14511,-0.38001,0.03708,,,,,,,,,,,,,,,,,,,,,,,,,,0,0,0,0,0
4.4240,1783189906.2521,1,1,1.0000,0.0000,1.44679,0.19620,-2.78655,1.01951,1.57079,0.00003,-0.14511,-0.38001,0.03708,,,,,,,,,,,,,,,,,,,,,,,,,,0,0,0,0,0
4.4358,1783189906.2639,1,1,1.0000,0.0000,1.44679,0.19603,-2.78659,1.01972,1.57079,0.00003,-0.14511,-0.38001,0.03704,,,,,,,,,,,,,,,,,,,,,,,,,,0,0,0,0,0
4.4437,1783189906.2718,1,1,1.0000,0.0000,1.44679,0.19602,-2.78659,1.01974,1.57079,0.00003,-0.14511,-0.38001,0.03704,,,,,,,,,,,,,,,,,,,,,,,,,,0,0,0,0,0
4.4637,1783189906.2918,1,1,1.0000,0.0000,1.44679,0.19572,-2.78666,1.02011,1.57079,0.00003,-0.14511,-0.38001,0.03696,,,,,,,,,,,,,,,,,,,,,,,,,,0,0,0,0,0
4.4652,1783189906.2933,1,1,1.0000,0.0000,1.44679,0.19572,-2.78666,1.02011,1.57079,0.00003,-0.14511,-0.38001,0.03696,,,,,,,,,,,,,,,,,,,,,,,,,,0,0,0,0,0
4.4654,1783189906.2935,1,1,1.0000,0.0000,1.44679,0.19572,-2.78666,1.02011,1.57079,0.00003,-0.14511,-0.38001,0.03696,,,,,,,,,,,,,,,,,,,,,,,,,,0,0,0,0,0
4.4738,1783189906.3019,1,1,1.0000,0.0000,1.44679,0.19565,-2.78668,1.02020,1.57079,0.00003,-0.14511,-0.38001,0.03694,,,,,,,,,,,,,,,,,,,,,,,,,,0,0,0,0,0
4.4840,1783189906.3122,1,1,1.0000,0.0000,1.44679,0.19557,-2.78670,1.02028,1.57079,0.00003,-0.14511,-0.38001,0.03693,,,,,,,,,,,,,,,,,,,,,,,,,,0,0,0,0,0
4.4957,1783189906.3238,1,1,1.0000,0.0000,1.44679,0.19541,-2.78673,1.02049,1.57079,0.00003,-0.14511,-0.38001,0.03689,,,,,,,,,,,,,,,,,,,,,,,,,,0,0,0,0,0
4.5036,1783189906.3317,1,1,1.0000,0.0000,1.44679,0.19539,-2.78674,1.02051,1.57079,0.00003,-0.14511,-0.38001,0.03688,,,,,,,,,,,,,,,,,,,,,,,,,,0,0,0,0,0
4.5147,1783189906.3428,1,1,1.0000,0.0000,1.44679,0.19531,-2.78676,1.02061,1.57079,0.00003,-0.14511,-0.38001,0.03686,,,,,,,,,,,,,,,,,,,,,,,,,,0,0,0,0,0
4.5217,1783189906.3498,1,1,1.0000,0.0000,1.44679,0.19517,-2.78679,1.02078,1.57079,0.00003,-0.14511,-0.38001,0.03683,,,,,,,,,,,,,,,,,,,,,,,,,,0,0,0,0,0
4.5319,1783189906.3601,1,1,1.0000,0.0000,1.44679,0.19502,-2.78682,1.02097,1.57079,0.00003,-0.14511,-0.38001,0.03679,,,,,,,,,,,,,,,,,,,,,,,,,,0,0,0,0,0
4.5461,1783189906.3742,1,1,1.0000,0.0000,1.44679,0.19495,-2.78684,1.02105,1.57079,0.00003,-0.14511,-0.38001,0.03677,,,,,,,,,,,,,,,,,,,,,,,,,,0,0,0,0,0
4.5576,1783189906.3857,1,1,1.0000,0.0000,1.44679,0.19478,-2.78688,1.02126,1.57079,0.00003,-0.14511,-0.38001,0.03673,,,,,,,,,,,,,,,,,,,,,,,,,,0,0,0,0,0
4.5660,1783189906.3942,1,1,1.0000,0.0000,1.44679,0.19477,-2.78688,1.02128,1.57079,0.00003,-0.14511,-0.38001,0.03673,,,,,,,,,,,,,,,,,,,,,,,,,,0,0,0,0,0
4.5664,1783189906.3945,1,1,1.0000,0.0000,1.44679,0.19477,-2.78688,1.02128,1.57079,0.00003,-0.14511,-0.38001,0.03673,,,,,,,,,,,,,,,,,,,,,,,,,,0,0,0,0,0
4.5744,1783189906.4025,1,1,1.0000,0.0000,1.44679,0.19468,-2.78690,1.02138,1.57079,0.00003,-0.14511,-0.38001,0.03671,,,,,,,,,,,,,,,,,,,,,,,,,,0,0,0,0,0
4.5748,1783189906.4029,1,1,1.0000,0.0000,1.44679,0.19468,-2.78690,1.02138,1.57079,0.00003,-0.14511,-0.38001,0.03671,,,,,,,,,,,,,,,,,,,,,,,,,,0,0,0,0,0
4.5823,1783189906.4104,1,1,1.0000,0.0000,1.44679,0.19454,-2.78693,1.02155,1.57079,0.00003,-0.14511,-0.38001,0.03667,,,,,,,,,,,,,,,,,,,,,,,,,,0,0,0,0,0
4.5925,1783189906.4207,1,1,1.0000,0.0000,1.44679,0.19439,-2.78697,1.02174,1.57079,0.00003,-0.14511,-0.38001,0.03663,,,,,,,,,,,,,,,,,,,,,,,,,,0,0,0,0,0
4.6038,1783189906.4319,1,1,1.0000,0.0000,1.44679,0.19430,-2.78699,1.02186,1.57079,0.00003,-0.14511,-0.38001,0.03661,,,,,,,,,,,,,,,,,,,,,,,,,,0,0,0,0,0
4.6041,1783189906.4323,1,1,1.0000,0.0000,1.44679,0.19430,-2.78699,1.02186,1.57079,0.00003,-0.14511,-0.38001,0.03661,,,,,,,,,,,,,,,,,,,,,,,,,,0,0,0,0,0
4.6119,1783189906.4400,1,1,1.0000,0.0000,1.44679,0.19416,-2.78702,1.02202,1.57079,0.00003,-0.14511,-0.38001,0.03658,,,,,,,,,,,,,,,,,,,,,,,,,,0,0,0,0,0
4.6122,1783189906.4403,1,1,1.0000,0.0000,1.44679,0.19416,-2.78702,1.02202,1.57079,0.00003,-0.14511,-0.38001,0.03658,,,,,,,,,,,,,,,,,,,,,,,,,,0,0,0,0,0
4.6220,1783189906.4501,1,1,1.0000,0.0000,1.44679,0.19409,-2.78704,1.02211,1.57079,0.00003,-0.14511,-0.38001,0.03656,,,,,,,,,,,,,,,,,,,,,,,,,,0,0,0,0,0
4.6384,1783189906.4665,1,1,1.0000,0.0000,1.44679,0.19393,-2.78708,1.02231,1.57079,0.00003,-0.14511,-0.38001,0.03652,,,,,,,,,,,,,,,,,,,,,,,,,,0,0,0,0,0
4.6417,1783189906.4698,1,1,1.0000,0.0000,1.44679,0.19386,-2.78709,1.02240,1.57079,0.00003,-0.14511,-0.38001,0.03650,,,,,,,,,,,,,,,,,,,,,,,,,,0,0,0,0,0
4.6598,1783189906.4879,1,1,1.0000,0.0000,1.44679,0.19366,-2.78714,1.02263,1.57079,0.00003,-0.14511,-0.38001,0.03645,,,,,,,,,,,,,,,,,,,,,,,,,,0,0,0,0,0
4.6601,1783189906.4882,1,1,1.0000,0.0000,1.44679,0.19366,-2.78714,1.02263,1.57079,0.00003,-0.14511,-0.38001,0.03645,,,,,,,,,,,,,,,,,,,,,,,,,,0,0,0,0,0
4.6636,1783189906.4917,1,1,1.0000,0.0000,1.44679,0.19361,-2.78715,1.02270,1.57079,0.00003,-0.14511,-0.38001,0.03644,,,,,,,,,,,,,,,,,,,,,,,,,,0,0,0,0,0
4.6729,1783189906.5010,1,1,1.0000,0.0000,1.44679,0.19348,-2.78718,1.02286,1.57079,0.00003,-0.14511,-0.38001,0.03641,,,,,,,,,,,,,,,,,,,,,,,,,,0,0,0,0,0
4.6827,1783189906.5108,1,1,1.0000,0.0000,1.44679,0.19340,-2.78720,1.02295,1.57079,0.00003,-0.14511,-0.38001,0.03639,,,,,,,,,,,,,,,,,,,,,,,,,,0,0,0,0,0
4.6832,1783189906.5113,1,1,1.0000,0.0000,1.44679,0.19340,-2.78720,1.02295,1.57079,0.00003,-0.14511,-0.38001,0.03639,,,,,,,,,,,,,,,,,,,,,,,,,,0,0,0,0,0
4.6935,1783189906.5216,1,1,1.0000,0.0000,1.44679,0.19331,-2.78722,1.02307,1.57079,0.00003,-0.14511,-0.38001,0.03637,,,,,,,,,,,,,,,,,,,,,,,,,,0,0,0,0,0
4.7050,1783189906.5331,1,1,1.0000,0.0000,1.44679,0.19310,-2.78727,1.02333,1.57079,0.00003,-0.14511,-0.38001,0.03631,,,,,,,,,,,,,,,,,,,,,,,,,,0,0,0,0,0
4.7053,1783189906.5334,1,1,1.0000,0.0000,1.44679,0.19310,-2.78727,1.02333,1.57079,0.00003,-0.14511,-0.38001,0.03631,,,,,,,,,,,,,,,,,,,,,,,,,,0,0,0,0,0
4.7124,1783189906.5405,1,1,1.0000,0.0000,1.44679,0.19303,-2.78728,1.02342,1.57079,0.00003,-0.14511,-0.38001,0.03630,,,,,,,,,,,,,,,,,,,,,,,,,,0,0,0,0,0
4.7237,1783189906.5519,1,1,1.0000,0.0000,1.44679,0.19293,-2.78731,1.02354,1.57079,0.00003,-0.14511,-0.38001,0.03627,,,,,,,,,,,,,,,,,,,,,,,,,,0,0,0,0,0
4.7239,1783189906.5521,1,1,1.0000,0.0000,1.44679,0.19293,-2.78731,1.02354,1.57079,0.00003,-0.14511,-0.38001,0.03627,,,,,,,,,,,,,,,,,,,,,,,,,,0,0,0,0,0
4.7366,1783189906.5647,1,1,1.0000,0.0000,1.44679,0.19272,-2.78735,1.02379,1.57079,0.00003,-0.14511,-0.38001,0.03622,,,,,,,,,,,,,,,,,,,,,,,,,,0,0,0,0,0
4.7437,1783189906.5719,1,1,1.0000,0.0000,1.44679,0.19271,-2.78736,1.02381,1.57079,0.00003,-0.14511,-0.38001,0.03622,,,,,,,,,,,,,,,,,,,,,,,,,,0,0,0,0,0
4.7439,1783189906.5721,1,1,1.0000,0.0000,1.44679,0.19271,-2.78736,1.02381,1.57079,0.00003,-0.14511,-0.38001,0.03622,,,,,,,,,,,,,,,,,,,,,,,,,,0,0,0,0,0
4.7519,1783189906.5801,1,1,1.0000,0.0000,1.44679,0.19262,-2.78738,1.02392,1.57079,0.00003,-0.14511,-0.38001,0.03620,,,,,,,,,,,,,,,,,,,,,,,,,,0,0,0,0,0
4.7656,1783189906.5937,1,1,1.0000,0.0000,1.44679,0.19241,-2.78742,1.02417,1.57079,0.00003,-0.14511,-0.38001,0.03615,,,,,,,,,,,,,,,,,,,,,,,,,,0,0,0,0,0
4.7659,1783189906.5940,1,1,1.0000,0.0000,1.44679,0.19241,-2.78742,1.02417,1.57079,0.00003,-0.14511,-0.38001,0.03615,,,,,,,,,,,,,,,,,,,,,,,,,,0,0,0,0,0
4.7740,1783189906.6021,1,1,1.0000,0.0000,1.44679,0.19234,-2.78744,1.02426,1.57079,0.00003,-0.14511,-0.38001,0.03613,,,,,,,,,,,,,,,,,,,,,,,,,,0,0,0,0,0
4.7817,1783189906.6098,1,1,1.0000,0.0000,1.44679,0.19230,-2.78745,1.02432,1.57079,0.00003,-0.14511,-0.38001,0.03612,,,,,,,,,,,,,,,,,,,,,,,,,,0,0,0,0,0
4.7924,1783189906.6205,1,1,1.0000,0.0000,1.44679,0.19211,-2.78749,1.02455,1.57079,0.00003,-0.14511,-0.38001,0.03607,,,,,,,,,,,,,,,,,,,,,,,,,,0,0,0,0,0
4.8077,1783189906.6358,1,1,1.0000,0.0000,1.44679,0.19199,-2.78752,1.02469,1.57079,0.00003,-0.14511,-0.38001,0.03604,,,,,,,,,,,,,,,,,,,,,,,,,,0,0,0,0,0
4.8170,1783189906.6451,1,1,1.0000,0.0000,1.44679,0.19187,-2.78755,1.02483,1.57079,0.00003,-0.14511,-0.38001,0.03601,,,,,,,,,,,,,,,,,,,,,,,,,,0,0,0,0,0
4.8240,1783189906.6521,1,1,1.0000,0.0000,1.44679,0.19173,-2.78758,1.02501,1.57079,0.00003,-0.14511,-0.38001,0.03598,,,,,,,,,,,,,,,,,,,,,,,,,,0,0,0,0,0
4.8245,1783189906.6526,1,1,1.0000,0.0000,1.44679,0.19173,-2.78758,1.02501,1.57079,0.00003,-0.14511,-0.38001,0.03598,,,,,,,,,,,,,,,,,,,,,,,,,,0,0,0,0,0
4.8343,1783189906.6625,1,1,1.0000,0.0000,1.44679,0.19166,-2.78760,1.02510,1.57079,0.00003,-0.14511,-0.38001,0.03596,,,,,,,,,,,,,,,,,,,,,,,,,,0,0,0,0,0
4.8455,1783189906.6736,1,1,1.0000,0.0000,1.44679,0.19156,-2.78762,1.02522,1.57079,0.00003,-0.14511,-0.38001,0.03593,,,,,,,,,,,,,,,,,,,,,,,,,,0,0,0,0,0
4.8524,1783189906.6805,1,1,1.0000,0.0000,1.44679,0.19142,-2.78765,1.02539,1.57079,0.00003,-0.14511,-0.38001,0.03590,,,,,,,,,,,,,,,,,,,,,,,,,,0,0,0,0,0
4.8647,1783189906.6928,1,1,1.0000,0.0000,1.44679,0.19134,-2.78767,1.02549,1.57079,0.00003,-0.14511,-0.38001,0.03588,,,,,,,,,,,,,,,,,,,,,,,,,,0,0,0,0,0
4.8718,1783189906.6999,1,1,1.0000,0.0000,1.44679,0.19125,-2.78769,1.02560,1.57079,0.00003,-0.14511,-0.38001,0.03586,,,,,,,,,,,,,,,,,,,,,,,,,,0,0,0,0,0
4.8816,1783189906.7097,1,1,1.0000,0.0000,1.44679,0.19112,-2.78772,1.02576,1.57079,0.00003,-0.14511,-0.38001,0.03583,,,,,,,,,,,,,,,,,,,,,,,,,,0,0,0,0,0
4.8937,1783189906.7218,1,1,1.0000,0.0000,1.44679,0.19097,-2.78775,1.02594,1.57079,0.00003,-0.14511,-0.38001,0.03579,,,,,,,,,,,,,,,,,,,,,,,,,,0,0,0,0,0
4.9049,1783189906.7330,1,1,1.0000,0.0000,1.44679,0.19087,-2.78777,1.02606,1.57079,0.00003,-0.14511,-0.38001,0.03576,,,,,,,,,,,,,,,,,,,,,,,,,,0,0,0,0,0
4.9136,1783189906.7418,1,1,1.0000,0.0000,1.44679,0.19074,-2.78781,1.02623,1.57079,0.00003,-0.14511,-0.38001,0.03573,,,,,,,,,,,,,,,,,,,,,,,,,,0,0,0,0,0
4.9139,1783189906.7420,1,1,1.0000,0.0000,1.44679,0.19074,-2.78781,1.02623,1.57079,0.00003,-0.14511,-0.38001,0.03573,,,,,,,,,,,,,,,,,,,,,,,,,,0,0,0,0,0
4.9265,1783189906.7546,1,1,1.0000,0.0000,1.44679,0.19065,-2.78783,1.02634,1.57079,0.00003,-0.14511,-0.38001,0.03571,,,,,,,,,,,,,,,,,,,,,,,,,,0,0,0,0,0
4.9268,1783189906.7549,1,1,1.0000,0.0000,1.44679,0.19065,-2.78783,1.02634,1.57079,0.00003,-0.14511,-0.38001,0.03571,,,,,,,,,,,,,,,,,,,,,,,,,,0,0,0,0,0
4.9338,1783189906.7619,1,1,1.0000,0.0000,1.44679,0.19056,-2.78784,1.02644,1.57079,0.00003,-0.14511,-0.38001,0.03569,,,,,,,,,,,,,,,,,,,,,,,,,,0,0,0,0,0
4.9443,1783189906.7724,1,1,1.0000,0.0000,1.44679,0.19036,-2.78789,1.02670,1.57079,0.00003,-0.14511,-0.38001,0.03564,,,,,,,,,,,,,,,,,,,,,,,,,,0,0,0,0,0
4.9521,1783189906.7802,1,1,1.0000,0.0000,1.44679,0.19028,-2.78791,1.02678,1.57079,0.00003,-0.14511,-0.38001,0.03562,,,,,,,,,,,,,,,,,,,,,,,,,,0,0,0,0,0
4.9524,1783189906.7805,1,1,1.0000,0.0000,1.44679,0.19028,-2.78791,1.02678,1.57079,0.00003,-0.14511,-0.38001,0.03562,,,,,,,,,,,,,,,,,,,,,,,,,,0,0,0,0,0
4.9675,1783189906.7957,1,1,1.0000,0.0000,1.44679,0.19012,-2.78795,1.02699,1.57079,0.00003,-0.14511,-0.38001,0.03558,,,,,,,,,,,,,,,,,,,,,,,,,,0,0,0,0,0
4.9746,1783189906.8027,1,1,1.0000,0.0000,1.44679,0.19005,-2.78796,1.02707,1.57079,0.00003,-0.14511,-0.38001,0.03556,,,,,,,,,,,,,,,,,,,,,,,,,,0,0,0,0,0
4.9846,1783189906.8127,1,1,1.0000,0.0000,1.44679,0.18990,-2.78800,1.02725,1.57079,0.00003,-0.14511,-0.38001,0.03553,,,,,,,,,,,,,,,,,,,,,,,,,,0,0,0,0,0
4.9920,1783189906.8202,1,1,1.0000,0.0000,1.44679,0.18987,-2.78800,1.02729,1.57079,0.00003,-0.14511,-0.38001,0.03552,,,,,,,,,,,,,,,,,,,,,,,,,,0,0,0,0,0
4.9925,1783189906.8206,1,1,1.0000,0.0000,1.44679,0.18987,-2.78800,1.02729,1.57079,0.00003,-0.14511,-0.38001,0.03552,,,,,,,,,,,,,,,,,,,,,,,,,,0,0,0,0,0
5.0018,1783189906.8299,1,1,1.0000,0.0000,1.44679,0.18978,-2.78802,1.02740,1.57079,0.00003,-0.14511,-0.38001,0.03550,,,,,,,,,,,,,,,,,,,,,,,,,,0,0,0,0,0
5.0145,1783189906.8426,1,1,1.0000,0.0000,1.44679,0.18966,-2.78805,1.02755,1.57079,0.00003,-0.14511,-0.38001,0.03547,,,,,,,,,,,,,,,,,,,,,,,,,,0,0,0,0,0
5.0148,1783189906.8429,1,1,1.0000,0.0000,1.44679,0.18966,-2.78805,1.02755,1.57079,0.00003,-0.14511,-0.38001,0.03547,,,,,,,,,,,,,,,,,,,,,,,,,,0,0,0,0,0
5.0286,1783189906.8567,1,1,1.0000,0.0000,1.44679,0.18949,-2.78809,1.02776,1.57079,0.00003,-0.14511,-0.38001,0.03543,,,,,,,,,,,,,,,,,,,,,,,,,,0,0,0,0,0
5.0318,1783189906.8599,1,1,1.0000,0.0000,1.44679,0.18942,-2.78811,1.02785,1.57079,0.00003,-0.14511,-0.38001,0.03541,,,,,,,,,,,,,,,,,,,,,,,,,,0,0,0,0,0
5.0321,1783189906.8602,1,1,1.0000,0.0000,1.44679,0.18942,-2.78811,1.02785,1.57079,0.00003,-0.14511,-0.38001,0.03541,,,,,,,,,,,,,,,,,,,,,,,,,,0,0,0,0,0
5.0425,1783189906.8706,1,1,1.0000,0.0000,1.44679,0.18927,-2.78814,1.02803,1.57079,0.00003,-0.14511,-0.38001,0.03537,,,,,,,,,,,,,,,,,,,,,,,,,,0,0,0,0,0
5.0525,1783189906.8806,1,1,1.0000,0.0000,1.44679,0.18924,-2.78815,1.02807,1.57079,0.00003,-0.14511,-0.38001,0.03536,,,,,,,,,,,,,,,,,,,,,,,,,,0,0,0,0,0
5.0718,1783189906.9000,1,1,1.0000,0.0000,1.44679,0.18903,-2.78819,1.02832,1.57079,0.00003,-0.14511,-0.38001,0.03531,,,,,,,,,,,,,,,,,,,,,,,,,,0,0,0,0,0
5.0738,1783189906.9019,1,1,1.0000,0.0000,1.44679,0.18903,-2.78819,1.02832,1.57079,0.00003,-0.14511,-0.38001,0.03531,,,,,,,,,,,,,,,,,,,,,,,,,,0,0,0,0,0
5.0740,1783189906.9021,1,1,1.0000,0.0000,1.44679,0.18903,-2.78819,1.02832,1.57079,0.00003,-0.14511,-0.38001,0.03531,,,,,,,,,,,,,,,,,,,,,,,,,,0,0,0,0,0
5.0823,1783189906.9104,1,1,1.0000,0.0000,1.44679,0.18898,-2.78820,1.02838,1.57079,0.00003,-0.14511,-0.38001,0.03530,,,,,,,,,,,,,,,,,,,,,,,,,,0,0,0,0,0
5.0826,1783189906.9107,1,1,1.0000,0.0000,1.44679,0.18898,-2.78820,1.02838,1.57079,0.00003,-0.14511,-0.38001,0.03530,,,,,,,,,,,,,,,,,,,,,,,,,,0,0,0,0,0
5.0959,1783189906.9240,1,1,1.0000,0.0000,1.44679,0.18871,-2.78827,1.02871,1.57079,0.00003,-0.14511,-0.38001,0.03523,,,,,,,,,,,,,,,,,,,,,,,,,,0,0,0,0,0
5.1021,1783189906.9302,1,1,1.0000,0.0000,1.44679,0.18864,-2.78828,1.02880,1.57079,0.00003,-0.14511,-0.38001,0.03522,,,,,,,,,,,,,,,,,,,,,,,,,,0,0,0,0,0
5.1148,1783189906.9429,1,1,1.0000,0.0000,1.44679,0.18861,-2.78829,1.02884,1.57079,0.00003,-0.14511,-0.38001,0.03521,,,,,,,,,,,,,,,,,,,,,,,,,,0,0,0,0,0
5.1241,1783189906.9522,1,1,1.0000,0.0000,1.44679,0.18846,-2.78832,1.02902,1.57079,0.00003,-0.14511,-0.38001,0.03517,,,,,,,,,,,,,,,,,,,,,,,,,,0,0,0,0,0
5.1343,1783189906.9624,1,1,1.0000,0.0000,1.44679,0.18840,-2.78834,1.02910,1.57079,0.00003,-0.14511,-0.38001,0.03516,,,,,,,,,,,,,,,,,,,,,,,,,,0,0,0,0,0
5.1417,1783189906.9698,1,1,1.0000,0.0000,1.44679,0.18835,-2.78835,1.02916,1.57079,0.00003,-0.14511,-0.38001,0.03515,,,,,,,,,,,,,,,,,,,,,,,,,,0,0,0,0,0
5.1523,1783189906.9804,1,1,1.0000,0.0000,1.44679,0.18816,-2.78839,1.02939,1.57079,0.00003,-0.14511,-0.38001,0.03510,,,,,,,,,,,,,,,,,,,,,,,,,,0,0,0,0,0
5.1621,1783189906.9902,1,1,1.0000,0.0000,1.44679,0.18801,-2.78842,1.02958,1.57079,0.00004,-0.14511,-0.38001,0.03506,,,,,,,,,,,,,,,,,,,,,,,,,,0,0,0,0,0
5.1624,1783189906.9905,1,1,1.0000,0.0000,1.44679,0.18801,-2.78842,1.02958,1.57079,0.00004,-0.14511,-0.38001,0.03506,,,,,,,,,,,,,,,,,,,,,,,,,,0,0,0,0,0
5.1743,1783189907.0025,1,1,1.0000,0.0000,1.44679,0.18797,-2.78843,1.02962,1.57079,0.00004,-0.14511,-0.38001,0.03505,,,,,,,,,,,,,,,,,,,,,,,,,,0,0,0,0,0
5.1746,1783189907.0028,1,1,1.0000,0.0000,1.44679,0.18797,-2.78843,1.02962,1.57079,0.00004,-0.14511,-0.38001,0.03505,,,,,,,,,,,,,,,,,,,,,,,,,,0,0,0,0,0
5.1819,1783189907.0100,1,1,1.0000,0.0000,1.44679,0.18789,-2.78845,1.02973,1.57079,0.00004,-0.14511,-0.38001,0.03503,,,,,,,,,,,,,,,,,,,,,,,,,,0,0,0,0,0
5.1919,1783189907.0200,1,1,1.0000,0.0000,1.44679,0.18777,-2.78848,1.02987,1.57079,0.00004,-0.14511,-0.38001,0.03500,,,,,,,,,,,,,,,,,,,,,,,,,,0,0,0,0,0
5.1921,1783189907.0202,1,1,1.0000,0.0000,1.44679,0.18777,-2.78848,1.02987,1.57079,0.00004,-0.14511,-0.38001,0.03500,,,,,,,,,,,,,,,,,,,,,,,,,,0,0,0,0,0
5.2040,1783189907.0322,1,1,1.0000,0.0000,1.44679,0.18766,-2.78850,1.03000,1.57079,0.00004,-0.14511,-0.38001,0.03498,,,,,,,,,,,,,,,,,,,,,,,,,,0,0,0,0,0
5.2044,1783189907.0325,1,1,1.0000,0.0000,1.44679,0.18766,-2.78850,1.03000,1.57079,0.00004,-0.14511,-0.38001,0.03498,,,,,,,,,,,,,,,,,,,,,,,,,,0,0,0,0,0
5.2169,1783189907.0450,1,1,1.0000,0.0000,1.44679,0.18745,-2.78855,1.03026,1.57079,0.00004,-0.14511,-0.38001,0.03492,,,,,,,,,,,,,,,,,,,,,,,,,,0,0,0,0,0
5.2173,1783189907.0454,1,1,1.0000,0.0000,1.44679,0.18745,-2.78855,1.03026,1.57079,0.00004,-0.14511,-0.38001,0.03492,,,,,,,,,,,,,,,,,,,,,,,,,,0,0,0,0,0
5.2222,1783189907.0503,1,1,1.0000,0.0000,1.44679,0.18738,-2.78857,1.03035,1.57079,0.00004,-0.14511,-0.38001,0.03491,,,,,,,,,,,,,,,,,,,,,,,,,,0,0,0,0,0
5.2225,1783189907.0506,1,1,1.0000,0.0000,1.44679,0.18738,-2.78857,1.03035,1.57079,0.00004,-0.14511,-0.38001,0.03491,,,,,,,,,,,,,,,,,,,,,,,,,,0,0,0,0,0
5.2359,1783189907.0640,1,1,1.0000,0.0000,1.44679,0.18728,-2.78859,1.03047,1.57079,0.00004,-0.14511,-0.38001,0.03488,,,,,,,,,,,,,,,,,,,,,,,,,,0,0,0,0,0
5.2362,1783189907.0643,1,1,1.0000,0.0000,1.44679,0.18728,-2.78859,1.03047,1.57079,0.00004,-0.14511,-0.38001,0.03488,,,,,,,,,,,,,,,,,,,,,,,,,,0,0,0,0,0
5.2478,1783189907.0760,1,1,1.0000,0.0000,1.44679,0.18707,-2.78864,1.03073,1.57079,0.00004,-0.14511,-0.38001,0.03483,,,,,,,,,,,,,,,,,,,,,,,,,,0,0,0,0,0
5.2560,1783189907.0841,1,1,1.0000,0.0000,1.44679,0.18705,-2.78864,1.03075,1.57079,0.00004,-0.14511,-0.38001,0.03483,,,,,,,,,,,,,,,,,,,,,,,,,,0,0,0,0,0
5.2617,1783189907.0898,1,1,1.0000,0.0000,1.44679,0.18702,-2.78865,1.03079,1.57079,0.00004,-0.14511,-0.38001,0.03482,,,,,,,,,,,,,,,,,,,,,,,,,,0,0,0,0,0
5.2757,1783189907.1038,1,1,1.0000,0.0000,1.44679,0.18676,-2.78871,1.03111,1.57079,0.00004,-0.14511,-0.38001,0.03475,,,,,,,,,,,,,,,,,,,,,,,,,,0,0,0,0,0
