Martins-Lucaas/twinforge/sensors/Data/20260707_132434__samples.csv
t_rel_s,t_unix,cycle,phase,setpoint_n,force_net_n,q1,q2,q3,q4,q5,q6,tcp_x,tcp_y,tcp_z,taxel_0,taxel_1,taxel_2,taxel_3,taxel_4,taxel_5,taxel_6,taxel_7,taxel_8,taxel_9,taxel_10,taxel_11,taxel_12,taxel_13,taxel_14,taxel_15,taxel_16,taxel_17,taxel_18,taxel_19,taxel_20,taxel_21,taxel_22,taxel_23,taxel_24,n_RA,n_SA,cn_mm,cn_ra,cn_sa
0.0054,1783441474.9368,1,0,1.0000,-0.0000,1.42115,-0.05372,-2.70366,1.25318,1.56229,0.11529,-0.13142,-0.46623,0.01771,,,,,,,,,,,,,,,,,,,,,,,,,,0,0,0,0,0
0.0129,1783441474.9443,1,0,1.0000,-0.0000,1.42115,-0.05372,-2.70366,1.25318,1.56229,0.11529,-0.13142,-0.46623,0.01771,,,,,,,,,,,,,,,,,,,,,,,,,,0,0,0,0,0
0.0225,1783441474.9540,1,0,1.0000,-0.0000,1.42115,-0.05372,-2.70366,1.25318,1.56229,0.11529,-0.13142,-0.46623,0.01771,,,,,,,,,,,,,,,,,,,,,,,,,,0,0,0,0,0
0.0359,1783441474.9673,1,0,1.0000,-0.0000,1.42115,-0.05372,-2.70366,1.25318,1.56229,0.11529,-0.13142,-0.46623,0.01771,,,,,,,,,,,,,,,,,,,,,,,,,,0,0,0,0,0
0.0479,1783441474.9794,1,0,1.0000,-0.0000,1.42115,-0.05372,-2.70366,1.25318,1.56229,0.11529,-0.13142,-0.46623,0.01771,,,,,,,,,,,,,,,,,,,,,,,,,,0,0,0,0,0
0.0526,1783441474.9841,1,0,1.0000,-0.0000,1.42115,-0.05372,-2.70366,1.25318,1.56229,0.11529,-0.13142,-0.46623,0.01771,,,,,,,,,,,,,,,,,,,,,,,,,,0,0,0,0,0
0.0667,1783441474.9982,1,0,1.0000,-0.0000,1.42115,-0.05372,-2.70366,1.25318,1.56229,0.11529,-0.13142,-0.46623,0.01771,,,,,,,,,,,,,,,,,,,,,,,,,,0,0,0,0,0
0.0767,1783441475.0081,1,0,1.0000,-0.0000,1.42115,-0.05372,-2.70366,1.25318,1.56229,0.11529,-0.13142,-0.46623,0.01771,,,,,,,,,,,,,,,,,,,,,,,,,,0,0,0,0,0
0.0889,1783441475.0203,1,0,1.0000,-0.0000,1.42115,-0.05372,-2.70366,1.25318,1.56229,0.11529,-0.13142,-0.46623,0.01771,,,,,,,,,,,,,,,,,,,,,,,,,,0,0,0,0,0
0.0925,1783441475.0239,1,0,1.0000,-0.0000,1.42115,-0.05372,-2.70366,1.25318,1.56229,0.11529,-0.13142,-0.46623,0.01771,,,,,,,,,,,,,,,,,,,,,,,,,,0,0,0,0,0
0.1032,1783441475.0346,1,0,1.0000,-0.0000,1.42115,-0.05372,-2.70366,1.25318,1.56229,0.11529,-0.13142,-0.46623,0.01771,,,,,,,,,,,,,,,,,,,,,,,,,,0,0,0,0,0
0.1133,1783441475.0447,1,0,1.0000,-0.0000,1.42115,-0.05372,-2.70366,1.25318,1.56229,0.11529,-0.13142,-0.46623,0.01771,,,,,,,,,,,,,,,,,,,,,,,,,,0,0,0,0,0
0.1256,1783441475.0570,1,0,1.0000,-0.0000,1.42115,-0.05372,-2.70366,1.25318,1.56229,0.11529,-0.13142,-0.46623,0.01771,,,,,,,,,,,,,,,,,,,,,,,,,,0,0,0,0,0
0.1338,1783441475.0652,1,0,1.0000,-0.0000,1.42115,-0.05372,-2.70366,1.25318,1.56229,0.11529,-0.13142,-0.46623,0.01771,,,,,,,,,,,,,,,,,,,,,,,,,,0,0,0,0,0
0.1465,1783441475.0779,1,0,1.0000,-0.0000,1.42115,-0.05372,-2.70366,1.25318,1.56229,0.11529,-0.13142,-0.46623,0.01771,,,,,,,,,,,,,,,,,,,,,,,,,,0,0,0,0,0
0.1521,1783441475.0835,1,0,1.0000,-0.0000,1.42115,-0.05372,-2.70366,1.25318,1.56229,0.11529,-0.13142,-0.46623,0.01771,,,,,,,,,,,,,,,,,,,,,,,,,,0,0,0,0,0
0.1645,1783441475.0959,1,0,1.0000,-0.0000,1.42115,-0.05372,-2.70366,1.25318,1.56229,0.11529,-0.13142,-0.46623,0.01771,,,,,,,,,,,,,,,,,,,,,,,,,,0,0,0,0,0
0.2397,1783441475.1711,1,0,1.0000,-0.0000,1.42115,-0.05372,-2.70366,1.25318,1.56229,0.11529,-0.13142,-0.46623,0.01771,,,,,,,,,,,,,,,,,,,,,,,,,,0,0,0,0,0
0.3207,1783441475.2522,1,0,1.0000,-0.0000,1.42115,-0.05371,-2.70364,1.25317,1.56229,0.11529,-0.13142,-0.46624,0.01772,,,,,,,,,,,,,,,,,,,,,,,,,,0,0,0,0,0
0.3221,1783441475.2535,1,0,1.0000,-0.0000,1.42115,-0.05371,-2.70364,1.25317,1.56229,0.11529,-0.13142,-0.46624,0.01772,,,,,,,,,,,,,,,,,,,,,,,,,,0,0,0,0,0
0.3223,1783441475.2537,1,0,1.0000,-0.0000,1.42115,-0.05371,-2.70364,1.25317,1.56229,0.11529,-0.13142,-0.46624,0.01772,,,,,,,,,,,,,,,,,,,,,,,,,,0,0,0,0,0
0.3230,1783441475.2544,1,0,1.0000,-0.0000,1.42115,-0.05371,-2.70364,1.25317,1.56229,0.11529,-0.13142,-0.46624,0.01772,,,,,,,,,,,,,,,,,,,,,,,,,,0,0,0,0,0
0.3233,1783441475.2548,1,0,1.0000,-0.0000,1.42115,-0.05371,-2.70364,1.25317,1.56229,0.11529,-0.13142,-0.46624,0.01772,,,,,,,,,,,,,,,,,,,,,,,,,,0,0,0,0,0
0.3237,1783441475.2551,1,0,1.0000,-0.0000,1.42115,-0.05371,-2.70364,1.25317,1.56229,0.11529,-0.13142,-0.46624,0.01772,,,,,,,,,,,,,,,,,,,,,,,,,,0,0,0,0,0
0.3241,1783441475.2555,1,0,1.0000,-0.0000,1.42115,-0.05371,-2.70364,1.25317,1.56229,0.11529,-0.13142,-0.46624,0.01772,,,,,,,,,,,,,,,,,,,,,,,,,,0,0,0,0,0
0.3244,1783441475.2558,1,0,1.0000,-0.0000,1.42115,-0.05371,-2.70364,1.25317,1.56229,0.11529,-0.13142,-0.46624,0.01772,,,,,,,,,,,,,,,,,,,,,,,,,,0,0,0,0,0
0.3247,1783441475.2561,1,0,1.0000,-0.0000,1.42115,-0.05371,-2.70364,1.25317,1.56229,0.11529,-0.13142,-0.46624,0.01772,,,,,,,,,,,,,,,,,,,,,,,,,,0,0,0,0,0
0.3250,1783441475.2564,1,0,1.0000,-0.0000,1.42115,-0.05371,-2.70364,1.25317,1.56229,0.11529,-0.13142,-0.46624,0.01772,,,,,,,,,,,,,,,,,,,,,,,,,,0,0,0,0,0
0.3254,1783441475.2568,1,0,1.0000,-0.0000,1.42115,-0.05371,-2.70364,1.25317,1.56229,0.11529,-0.13142,-0.46624,0.01772,,,,,,,,,,,,,,,,,,,,,,,,,,0,0,0,0,0
0.3259,1783441475.2573,1,0,1.0000,-0.0000,1.42115,-0.05371,-2.70364,1.25317,1.56229,0.11529,-0.13142,-0.46624,0.01772,,,,,,,,,,,,,,,,,,,,,,,,,,0,0,0,0,0
0.3266,1783441475.2580,1,0,1.0000,-0.0000,1.42115,-0.05371,-2.70364,1.25317,1.56229,0.11529,-0.13142,-0.46624,0.01772,,,,,,,,,,,,,,,,,,,,,,,,,,0,0,0,0,0
0.3360,1783441475.2674,1,0,1.0000,-0.0000,1.42115,-0.05370,-2.70363,1.25316,1.56229,0.11529,-0.13142,-0.46625,0.01773,,,,,,,,,,,,,,,,,,,,,,,,,,0,0,0,0,0
0.3449,1783441475.2764,1,0,1.0000,-0.0000,1.42115,-0.05367,-2.70361,1.25313,1.56229,0.11529,-0.13142,-0.46626,0.01774,,,,,,,,,,,,,,,,,,,,,,,,,,0,0,0,0,0
0.3451,1783441475.2766,1,0,1.0000,-0.0000,1.42115,-0.05367,-2.70361,1.25313,1.56229,0.11529,-0.13142,-0.46626,0.01774,,,,,,,,,,,,,,,,,,,,,,,,,,0,0,0,0,0
0.3600,1783441475.2914,1,0,1.0000,-0.0000,1.42115,-0.05360,-2.70355,1.25305,1.56229,0.11529,-0.13141,-0.46630,0.01778,,,,,,,,,,,,,,,,,,,,,,,,,,0,0,0,0,0
0.3677,1783441475.2991,1,0,1.0000,-0.0000,1.42115,-0.05357,-2.70354,1.25302,1.56229,0.11529,-0.13141,-0.46630,0.01779,,,,,,,,,,,,,,,,,,,,,,,,,,0,0,0,0,0
0.3785,1783441475.3099,1,0,1.0000,-0.0000,1.42115,-0.05344,-2.70350,1.25286,1.56229,0.11529,-0.13141,-0.46632,0.01784,,,,,,,,,,,,,,,,,,,,,,,,,,0,0,0,0,0
0.3857,1783441475.3171,1,0,1.0000,-0.0000,1.42115,-0.05337,-2.70348,1.25278,1.56229,0.11529,-0.13141,-0.46632,0.01786,,,,,,,,,,,,,,,,,,,,,,,,,,0,0,0,0,0
0.3866,1783441475.3180,1,0,1.0000,-0.0000,1.42115,-0.05330,-2.70346,1.25269,1.56229,0.11529,-0.13141,-0.46633,0.01788,,,,,,,,,,,,,,,,,,,,,,,,,,0,0,0,0,0
0.3988,1783441475.3302,1,0,1.0000,-0.0000,1.42115,-0.05322,-2.70344,1.25259,1.56229,0.11529,-0.13141,-0.46633,0.01790,,,,,,,,,,,,,,,,,,,,,,,,,,0,0,0,0,0
0.4029,1783441475.3343,1,0,1.0000,-0.0000,1.42115,-0.05313,-2.70343,1.25248,1.56229,0.11529,-0.13141,-0.46633,0.01793,,,,,,,,,,,,,,,,,,,,,,,,,,0,0,0,0,0
0.4136,1783441475.3450,1,0,1.0000,-0.0000,1.42115,-0.05285,-2.70338,1.25213,1.56229,0.11529,-0.13140,-0.46633,0.01800,,,,,,,,,,,,,,,,,,,,,,,,,,0,0,0,0,0
0.4140,1783441475.3454,1,0,1.0000,-0.0000,1.42115,-0.05285,-2.70338,1.25213,1.56229,0.11529,-0.13140,-0.46633,0.01800,,,,,,,,,,,,,,,,,,,,,,,,,,0,0,0,0,0
0.4260,1783441475.3574,1,0,1.0000,-0.0000,1.42115,-0.05269,-2.70335,1.25193,1.56229,0.11529,-0.13140,-0.46633,0.01805,,,,,,,,,,,,,,,,,,,,,,,,,,0,0,0,0,0
0.4494,1783441475.3808,1,0,1.0000,-0.0000,1.42115,-0.05084,-2.70302,1.24958,1.56229,0.11529,-0.13141,-0.46631,0.01854,,,,,,,,,,,,,,,,,,,,,,,,,,0,0,0,0,0
0.4499,1783441475.3813,1,0,1.0000,-0.0000,1.42115,-0.05084,-2.70302,1.24958,1.56229,0.11529,-0.13141,-0.46631,0.01854,,,,,,,,,,,,,,,,,,,,,,,,,,0,0,0,0,0
0.4617,1783441475.3931,1,0,1.0000,-0.0000,1.42115,-0.05063,-2.70299,1.24931,1.56229,0.11529,-0.13141,-0.46631,0.01859,,,,,,,,,,,,,,,,,,,,,,,,,,0,0,0,0,0
0.4627,1783441475.3941,1,0,1.0000,-0.0000,1.42115,-0.05037,-2.70294,1.24899,1.56229,0.11529,-0.13141,-0.46631,0.01866,,,,,,,,,,,,,,,,,,,,,,,,,,0,0,0,0,0
0.4633,1783441475.3947,1,0,1.0000,-0.0000,1.42115,-0.05037,-2.70294,1.24899,1.56229,0.11529,-0.13141,-0.46631,0.01866,,,,,,,,,,,,,,,,,,,,,,,,,,0,0,0,0,0
0.4637,1783441475.3951,1,0,1.0000,-0.0000,1.42115,-0.05037,-2.70294,1.24899,1.56229,0.11529,-0.13141,-0.46631,0.01866,,,,,,,,,,,,,,,,,,,,,,,,,,0,0,0,0,0
0.4762,1783441475.4076,1,0,1.0000,-0.0000,1.42114,-0.04916,-2.70272,1.24745,1.56229,0.11530,-0.13141,-0.46630,0.01898,,,,,,,,,,,,,,,,,,,,,,,,,,0,0,0,0,0
0.4860,1783441475.4174,1,0,1.0000,-0.0000,1.42114,-0.04864,-2.70263,1.24678,1.56229,0.11530,-0.13141,-0.46630,0.01912,,,,,,,,,,,,,,,,,,,,,,,,,,0,0,0,0,0
0.4945,1783441475.4259,1,0,1.0000,-0.0000,1.42114,-0.04789,-2.70249,1.24583,1.56229,0.11530,-0.13141,-0.46629,0.01932,,,,,,,,,,,,,,,,,,,,,,,,,,0,0,0,0,0
0.5040,1783441475.4354,1,0,1.0000,-0.0000,1.42113,-0.04670,-2.70228,1.24432,1.56229,0.11531,-0.13141,-0.46628,0.01964,,,,,,,,,,,,,,,,,,,,,,,,,,0,0,0,0,0
0.5134,1783441475.4448,1,0,1.0000,-0.0000,1.42113,-0.04657,-2.70225,1.24415,1.56229,0.11531,-0.13141,-0.46628,0.01968,,,,,,,,,,,,,,,,,,,,,,,,,,0,0,0,0,0
0.5234,1783441475.4548,1,0,1.0000,-0.0000,1.42113,-0.04478,-2.70192,1.24187,1.56229,0.11532,-0.13140,-0.46627,0.02016,,,,,,,,,,,,,,,,,,,,,,,,,,0,0,0,0,0
0.5430,1783441475.4744,1,0,1.0000,-0.0000,1.42111,-0.04143,-2.70130,1.23761,1.56229,0.11535,-0.13141,-0.46625,0.02106,,,,,,,,,,,,,,,,,,,,,,,,,,0,0,0,0,0
0.5435,1783441475.4749,1,0,1.0000,-0.0000,1.42111,-0.04143,-2.70130,1.23761,1.56229,0.11535,-0.13141,-0.46625,0.02106,,,,,,,,,,,,,,,,,,,,,,,,,,0,0,0,0,0
0.5439,1783441475.4753,1,0,1.0000,-0.0000,1.42111,-0.04143,-2.70130,1.23761,1.56229,0.11535,-0.13141,-0.46625,0.02106,,,,,,,,,,,,,,,,,,,,,,,,,,0,0,0,0,0
0.5443,1783441475.4758,1,0,1.0000,-0.0000,1.42111,-0.04143,-2.70130,1.23761,1.56229,0.11535,-0.13141,-0.46625,0.02106,,,,,,,,,,,,,,,,,,,,,,,,,,0,0,0,0,0
0.5553,1783441475.4867,1,0,1.0000,-0.0000,1.42111,-0.03940,-2.70092,1.23503,1.56228,0.11536,-0.13141,-0.46624,0.02161,,,,,,,,,,,,,,,,,,,,,,,,,,0,0,0,0,0
0.5654,1783441475.4968,1,0,1.0000,-0.0000,1.42110,-0.03706,-2.70049,1.23204,1.56228,0.11538,-0.13141,-0.46622,0.02224,,,,,,,,,,,,,,,,,,,,,,,,,,0,0,0,0,0
0.5828,1783441475.5142,1,0,1.0000,-0.0000,1.42109,-0.03414,-2.69994,1.22831,1.56228,0.11540,-0.13141,-0.46620,0.02302,,,,,,,,,,,,,,,,,,,,,,,,,,0,0,0,0,0
0.5870,1783441475.5184,1,0,1.0000,-0.0000,1.42109,-0.03305,-2.69974,1.22692,1.56228,0.11541,-0.13141,-0.46619,0.02332,,,,,,,,,,,,,,,,,,,,,,,,,,0,0,0,0,0
0.5874,1783441475.5188,1,0,1.0000,-0.0000,1.42109,-0.03305,-2.69974,1.22692,1.56228,0.11541,-0.13141,-0.46619,0.02332,,,,,,,,,,,,,,,,,,,,,,,,,,0,0,0,0,0
0.5957,1783441475.5271,1,0,1.0000,-0.0000,1.42108,-0.03174,-2.69950,1.22525,1.56227,0.11542,-0.13141,-0.46617,0.02367,,,,,,,,,,,,,,,,,,,,,,,,,,0,0,0,0,0
0.6026,1783441475.5340,1,0,1.0000,-0.0000,1.42108,-0.03086,-2.69933,1.22412,1.56227,0.11543,-0.13141,-0.46616,0.02391,,,,,,,,,,,,,,,,,,,,,,,,,,0,0,0,0,0
0.6185,1783441475.5499,1,0,1.0000,-0.0000,1.42106,-0.02514,-2.69827,1.21680,1.56227,0.11547,-0.13142,-0.46610,0.02546,,,,,,,,,,,,,,,,,,,,,,,,,,0,0,0,0,0
0.6731,1783441475.6045,1,0,1.0000,-0.0000,1.42102,-0.01336,-2.69607,1.20170,1.56225,0.11557,-0.13143,-0.46592,0.02865,,,,,,,,,,,,,,,,,,,,,,,,,,0,0,0,0,0
0.6870,1783441475.6184,1,0,1.0000,-0.0000,1.42101,-0.00986,-2.69541,1.19721,1.56225,0.11559,-0.13144,-0.46586,0.02960,,,,,,,,,,,,,,,,,,,,,,,,,,0,0,0,0,0
0.6875,1783441475.6190,1,0,1.0000,-0.0000,1.42101,-0.00986,-2.69541,1.19721,1.56225,0.11559,-0.13144,-0.46586,0.02960,,,,,,,,,,,,,,,,,,,,,,,,,,0,0,0,0,0
0.6880,1783441475.6194,1,0,1.0000,-0.0000,1.42101,-0.00986,-2.69541,1.19721,1.56225,0.11559,-0.13144,-0.46586,0.02960,,,,,,,,,,,,,,,,,,,,,,,,,,0,0,0,0,0
0.6965,1783441475.6279,1,0,1.0000,-0.0000,1.42101,-0.00892,-2.69524,1.19600,1.56225,0.11560,-0.13144,-0.46584,0.02986,,,,,,,,,,,,,,,,,,,,,,,,,,0,0,0,0,0
0.7070,1783441475.6384,1,0,1.0000,-0.0000,1.42100,-0.00473,-2.69446,1.19062,1.56224,0.11563,-0.13145,-0.46576,0.03100,,,,,,,,,,,,,,,,,,,,,,,,,,0,0,0,0,0
0.7074,1783441475.6388,1,0,1.0000,-0.0000,1.42100,-0.00473,-2.69446,1.19062,1.56224,0.11563,-0.13145,-0.46576,0.03100,,,,,,,,,,,,,,,,,,,,,,,,,,0,0,0,0,0
0.7107,1783441475.6421,1,0,1.0000,-0.0000,1.42099,-0.00284,-2.69410,1.18819,1.56224,0.11565,-0.13146,-0.46572,0.03151,,,,,,,,,,,,,,,,,,,,,,,,,,0,0,0,0,0
0.7111,1783441475.6425,1,0,1.0000,-0.0000,1.42099,-0.00284,-2.69410,1.18819,1.56224,0.11565,-0.13146,-0.46572,0.03151,,,,,,,,,,,,,,,,,,,,,,,,,,0,0,0,0,0
0.7125,1783441475.6440,1,0,1.0000,-0.0000,1.42099,-0.00284,-2.69410,1.18819,1.56224,0.11565,-0.13146,-0.46572,0.03151,,,,,,,,,,,,,,,,,,,,,,,,,,0,0,0,0,0
0.7132,1783441475.6446,1,0,1.0000,-0.0000,1.42099,-0.00284,-2.69410,1.18819,1.56224,0.11565,-0.13146,-0.46572,0.03151,,,,,,,,,,,,,,,,,,,,,,,,,,0,0,0,0,0
0.7227,1783441475.6541,1,0,1.0000,-0.0000,1.42098,-0.00058,-2.69368,1.18528,1.56223,0.11567,-0.13146,-0.46567,0.03213,,,,,,,,,,,,,,,,,,,,,,,,,,0,0,0,0,0
0.7230,1783441475.6544,1,0,1.0000,-0.0000,1.42098,-0.00058,-2.69368,1.18528,1.56223,0.11567,-0.13146,-0.46567,0.03213,,,,,,,,,,,,,,,,,,,,,,,,,,0,0,0,0,0
0.7330,1783441475.6645,1,0,1.0000,-0.0000,1.42098,0.00105,-2.69337,1.18318,1.56223,0.11568,-0.13147,-0.46564,0.03258,,,,,,,,,,,,,,,,,,,,,,,,,,0,0,0,0,0
0.7467,1783441475.6781,1,0,1.0000,-0.0000,1.42095,0.00766,-2.69213,1.17469,1.56222,0.11573,-0.13149,-0.46549,0.03439,,,,,,,,,,,,,,,,,,,,,,,,,,0,0,0,0,0
0.7612,1783441475.6926,1,0,1.0000,-0.0000,1.42095,0.00855,-2.69196,1.17354,1.56222,0.11574,-0.13149,-0.46546,0.03463,,,,,,,,,,,,,,,,,,,,,,,,,,0,0,0,0,0
0.7708,1783441475.7022,1,0,1.0000,-0.0000,1.42094,0.01256,-2.69121,1.16839,1.56221,0.11577,-0.13150,-0.46536,0.03573,,,,,,,,,,,,,,,,,,,,,,,,,,0,0,0,0,0
0.7758,1783441475.7072,1,0,1.0000,-0.0000,1.42094,0.01256,-2.69121,1.16839,1.56221,0.11577,-0.13150,-0.46536,0.03573,,,,,,,,,,,,,,,,,,,,,,,,,,0,0,0,0,0
0.7874,1783441475.7188,1,0,1.0000,-0.0000,1.42093,0.01475,-2.69080,1.16557,1.56220,0.11579,-0.13151,-0.46531,0.03633,,,,,,,,,,,,,,,,,,,,,,,,,,0,0,0,0,0
0.7957,1783441475.7271,1,0,1.0000,-0.0000,1.42092,0.01810,-2.69017,1.16126,1.56219,0.11581,-0.13153,-0.46521,0.03725,,,,,,,,,,,,,,,,,,,,,,,,,,0,0,0,0,0
0.8059,1783441475.7374,1,0,1.0000,-0.0000,1.42091,0.02234,-2.68937,1.15581,1.56218,0.11585,-0.13154,-0.46509,0.03842,,,,,,,,,,,,,,,,,,,,,,,,,,0,0,0,0,0
0.8174,1783441475.7488,1,0,1.0000,-0.0000,1.42090,0.02482,-2.68890,1.15261,1.56217,0.11587,-0.13155,-0.46502,0.03911,,,,,,,,,,,,,,,,,,,,,,,,,,0,0,0,0,0
0.8305,1783441475.7619,1,0,1.0000,-0.0000,1.42089,0.02749,-2.68840,1.14919,1.56217,0.11589,-0.13156,-0.46494,0.03984,,,,,,,,,,,,,,,,,,,,,,,,,,0,0,0,0,0
0.8354,1783441475.7669,1,0,1.0000,-0.0000,1.42088,0.03052,-2.68783,1.14529,1.56216,0.11591,-0.13158,-0.46485,0.04068,,,,,,,,,,,,,,,,,,,,,,,,,,0,0,0,0,0
0.8528,1783441475.7842,1,0,1.0000,-0.0000,1.42087,0.03311,-2.68734,1.14196,1.56215,0.11593,-0.13159,-0.46476,0.04140,,,,,,,,,,,,,,,,,,,,,,,,,,0,0,0,0,0
0.8565,1783441475.7879,1,0,1.0000,-0.0000,1.42087,0.03407,-2.68716,1.14072,1.56215,0.11594,-0.13159,-0.46473,0.04167,,,,,,,,,,,,,,,,,,,,,,,,,,0,0,0,0,0
0.8657,1783441475.7972,1,0,1.0000,-0.0000,1.42086,0.03686,-2.68663,1.13713,1.56214,0.11596,-0.13161,-0.46464,0.04244,,,,,,,,,,,,,,,,,,,,,,,,,,0,0,0,0,0
0.8757,1783441475.8071,1,0,1.0000,-0.0000,1.42086,0.03787,-2.68644,1.13583,1.56213,0.11597,-0.13161,-0.46460,0.04272,,,,,,,,,,,,,,,,,,,,,,,,,,0,0,0,0,0
0.8913,1783441475.8227,1,0,1.0000,-0.0000,1.42084,0.04438,-2.68522,1.12747,1.56212,0.11602,-0.13165,-0.46437,0.04453,,,,,,,,,,,,,,,,,,,,,,,,,,0,0,0,0,0
0.9003,1783441475.8317,1,0,1.0000,-0.0000,1.42083,0.04656,-2.68481,1.12467,1.56211,0.11604,-0.13166,-0.46429,0.04514,,,,,,,,,,,,,,,,,,,,,,,,,,0,0,0,0,0
0.9099,1783441475.8413,1,0,1.0000,-0.0000,1.42083,0.04744,-2.68465,1.12354,1.56211,0.11605,-0.13166,-0.46425,0.04538,,,,,,,,,,,,,,,,,,,,,,,,,,0,0,0,0,0
0.9165,1783441475.8479,1,0,1.0000,-0.0000,1.42082,0.04980,-2.68420,1.12051,1.56210,0.11606,-0.13167,-0.46417,0.04604,,,,,,,,,,,,,,,,,,,,,,,,,,0,0,0,0,0
0.9274,1783441475.8589,1,0,1.0000,-0.0000,1.42080,0.05517,-2.68319,1.11361,1.56209,0.11611,-0.13170,-0.46396,0.04754,,,,,,,,,,,,,,,,,,,,,,,,,,0,0,0,0,0
0.9353,1783441475.8667,1,0,1.0000,-0.0000,1.42080,0.05540,-2.68315,1.11332,1.56209,0.11611,-0.13171,-0.46395,0.04760,,,,,,,,,,,,,,,,,,,,,,,,,,0,0,0,0,0
0.9357,1783441475.8671,1,0,1.0000,-0.0000,1.42080,0.05540,-2.68315,1.11332,1.56209,0.11611,-0.13171,-0.46395,0.04760,,,,,,,,,,,,,,,,,,,,,,,,,,0,0,0,0,0
0.9532,1783441475.8846,1,0,1.0000,-0.0000,1.42078,0.05995,-2.68229,1.10747,1.56207,0.11614,-0.13173,-0.46376,0.04888,,,,,,,,,,,,,,,,,,,,,,,,,,0,0,0,0,0
0.9535,1783441475.8850,1,0,1.0000,-0.0000,1.42078,0.05995,-2.68229,1.10747,1.56207,0.11614,-0.13173,-0.46376,0.04888,,,,,,,,,,,,,,,,,,,,,,,,,,0,0,0,0,0
0.9595,1783441475.8909,1,0,1.0000,-0.0000,1.42078,0.06174,-2.68195,1.10517,1.56207,0.11616,-0.13174,-0.46368,0.04938,,,,,,,,,,,,,,,,,,,,,,,,,,0,0,0,0,0
0.9667,1783441475.8981,1,0,1.0000,-0.0000,1.42078,0.06266,-2.68178,1.10399,1.56207,0.11617,-0.13175,-0.46364,0.04964,,,,,,,,,,,,,,,,,,,,,,,,,,0,0,0,0,0
0.9765,1783441475.9079,1,0,1.0000,-0.0000,1.42077,0.06511,-2.68132,1.10084,1.56206,0.11618,-0.13176,-0.46354,0.05032,,,,,,,,,,,,,,,,,,,,,,,,,,0,0,0,0,0
0.9999,1783441475.9313,1,0,1.0000,-0.0000,1.42074,0.07480,-2.67950,1.08840,1.56203,0.11626,-0.13183,-0.46309,0.05304,,,,,,,,,,,,,,,,,,,,,,,,,,0,0,0,0,0
1.0019,1783441475.9333,1,0,1.0000,-0.0000,1.42074,0.07480,-2.67950,1.08840,1.56203,0.11626,-0.13183,-0.46309,0.05304,,,,,,,,,,,,,,,,,,,,,,,,,,0,0,0,0,0
1.0025,1783441475.9339,1,0,1.0000,-0.0000,1.42074,0.07498,-2.67946,1.08818,1.56203,0.11626,-0.13183,-0.46308,0.05309,,,,,,,,,,,,,,,,,,,,,,,,,,0,0,0,0,0
1.0057,1783441475.9371,1,0,1.0000,-0.0000,1.42074,0.07498,-2.67946,1.08818,1.56203,0.11626,-0.13183,-0.46308,0.05309,,,,,,,,,,,,,,,,,,,,,,,,,,0,0,0,0,0
1.0067,1783441475.9381,1,0,1.0000,-0.0000,1.42073,0.07548,-2.67937,1.08752,1.56203,0.11627,-0.13183,-0.46306,0.05324,,,,,,,,,,,,,,,,,,,,,,,,,,0,0,0,0,0
1.0186,1783441475.9500,1,0,1.0000,-0.0000,1.42072,0.07864,-2.67877,1.08347,1.56202,0.11629,-0.13186,-0.46291,0.05413,,,,,,,,,,,,,,,,,,,,,,,,,,0,0,0,0,0
1.0191,1783441475.9505,1,0,1.0000,-0.0000,1.42072,0.07864,-2.67877,1.08347,1.56202,0.11629,-0.13186,-0.46291,0.05413,,,,,,,,,,,,,,,,,,,,,,,,,,0,0,0,0,0
1.0278,1783441475.9593,1,0,1.0000,-0.0000,1.42072,0.07889,-2.67873,1.08315,1.56202,0.11629,-0.13186,-0.46290,0.05420,,,,,,,,,,,,,,,,,,,,,,,,,,0,0,0,0,0
1.0487,1783441475.9801,1,0,1.0000,-0.0000,1.42071,0.08389,-2.67778,1.07673,1.56201,0.11633,-0.13189,-0.46265,0.05561,,,,,,,,,,,,,,,,,,,,,,,,,,0,0,0,0,0
1.0645,1783441475.9959,1,0,1.0000,-0.0000,1.42069,0.08759,-2.67709,1.07198,1.56200,0.11636,-0.13192,-0.46246,0.05665,,,,,,,,,,,,,,,,,,,,,,,,,,0,0,0,0,0
1.0736,1783441476.0051,1,0,1.0000,-0.0000,1.42068,0.09142,-2.67637,1.06707,1.56199,0.11639,-0.13195,-0.46226,0.05773,,,,,,,,,,,,,,,,,,,,,,,,,,0,0,0,0,0
1.0762,1783441476.0076,1,0,1.0000,-0.0000,1.42067,0.09360,-2.67596,1.06427,1.56198,0.11641,-0.13197,-0.46214,0.05835,,,,,,,,,,,,,,,,,,,,,,,,,,0,0,0,0,0
1.0766,1783441476.0080,1,0,1.0000,-0.0000,1.42067,0.09360,-2.67596,1.06427,1.56198,0.11641,-0.13197,-0.46214,0.05835,,,,,,,,,,,,,,,,,,,,,,,,,,0,0,0,0,0
1.0771,1783441476.0086,1,0,1.0000,-0.0000,1.42067,0.09360,-2.67596,1.06427,1.56198,0.11641,-0.13197,-0.46214,0.05835,,,,,,,,,,,,,,,,,,,,,,,,,,0,0,0,0,0
1.0856,1783441476.0170,1,0,1.0000,-0.0000,1.42067,0.09586,-2.67553,1.06136,1.56197,0.11643,-0.13199,-0.46201,0.05899,,,,,,,,,,,,,,,,,,,,,,,,,,0,0,0,0,0
1.0859,1783441476.0174,1,0,1.0000,-0.0000,1.42067,0.09586,-2.67553,1.06136,1.56197,0.11643,-0.13199,-0.46201,0.05899,,,,,,,,,,,,,,,,,,,,,,,,,,0,0,0,0,0
1.0966,1783441476.0280,1,0,1.0000,-0.0000,1.42066,0.09751,-2.67523,1.05925,1.56197,0.11644,-0.13200,-0.46192,0.05945,,,,,,,,,,,,,,,,,,,,,,,,,,0,0,0,0,0
1.1058,1783441476.0372,1,0,1.0000,-0.0000,1.42065,0.10006,-2.67475,1.05598,1.56196,0.11646,-0.13202,-0.46178,0.06018,,,,,,,,,,,,,,,,,,,,,,,,,,0,0,0,0,0
1.1176,1783441476.0490,1,0,1.0000,-0.0000,1.42064,0.10334,-2.67413,1.05177,1.56195,0.11649,-0.13205,-0.46159,0.06111,,,,,,,,,,,,,,,,,,,,,,,,,,0,0,0,0,0
1.1269,1783441476.0583,1,0,1.0000,-0.0000,1.42064,0.10501,-2.67381,1.04962,1.56195,0.11650,-0.13206,-0.46150,0.06158,,,,,,,,,,,,,,,,,,,,,,,,,,0,0,0,0,0
1.1400,1783441476.0715,1,0,1.0000,-0.0000,1.42063,0.10759,-2.67333,1.04632,1.56194,0.11652,-0.13208,-0.46135,0.06232,,,,,,,,,,,,,,,,,,,,,,,,,,0,0,0,0,0
1.1473,1783441476.0787,1,0,1.0000,-0.0000,1.42063,0.10847,-2.67316,1.04519,1.56194,0.11653,-0.13209,-0.46130,0.06256,,,,,,,,,,,,,,,,,,,,,,,,,,0,0,0,0,0
1.1613,1783441476.0927,1,0,1.0000,-0.0000,1.42061,0.11235,-2.67243,1.04021,1.56193,0.11656,-0.13213,-0.46106,0.06367,,,,,,,,,,,,,,,,,,,,,,,,,,0,0,0,0,0
1.1707,1783441476.1021,1,0,1.0000,-0.0000,1.42060,0.11598,-2.67175,1.03555,1.56192,0.11659,-0.13216,-0.46083,0.06470,,,,,,,,,,,,,,,,,,,,,,,,,,0,0,0,0,0
1.1772,1783441476.1086,1,0,1.0000,-0.0000,1.42060,0.11616,-2.67172,1.03532,1.56192,0.11659,-0.13216,-0.46082,0.06475,,,,,,,,,,,,,,,,,,,,,,,,,,0,0,0,0,0
1.1777,1783441476.1091,1,0,1.0000,-0.0000,1.42060,0.11616,-2.67172,1.03532,1.56192,0.11659,-0.13216,-0.46082,0.06475,,,,,,,,,,,,,,,,,,,,,,,,,,0,0,0,0,0
1.1856,1783441476.1170,1,0,1.0000,-0.0000,1.42060,0.11751,-2.67147,1.03358,1.56191,0.11660,-0.13217,-0.46074,0.06513,,,,,,,,,,,,,,,,,,,,,,,,,,0,0,0,0,0
1.1971,1783441476.1285,1,0,1.0000,-0.0000,1.42058,0.12130,-2.67076,1.02871,1.56190,0.11663,-0.13221,-0.46049,0.06621,,,,,,,,,,,,,,,,,,,,,,,,,,0,0,0,0,0
1.2059,1783441476.1373,1,0,1.0000,-0.0000,1.42058,0.12285,-2.67047,1.02672,1.56190,0.11664,-0.13222,-0.46039,0.06665,,,,,,,,,,,,,,,,,,,,,,,,,,0,0,0,0,0
1.2179,1783441476.1493,1,0,1.0000,-0.0000,1.42058,0.12416,-2.67022,1.02504,1.56190,0.11665,-0.13224,-0.46030,0.06702,,,,,,,,,,,,,,,,,,,,,,,,,,0,0,0,0,0
1.2259,1783441476.1573,1,0,1.0000,-0.0000,1.42057,0.12615,-2.66985,1.02248,1.56189,0.11667,-0.13226,-0.46017,0.06759,,,,,,,,,,,,,,,,,,,,,,,,,,0,0,0,0,0
1.2364,1783441476.1678,1,0,1.0000,-0.0000,1.42057,0.12674,-2.66973,1.02171,1.56189,0.11667,-0.13226,-0.46013,0.06776,,,,,,,,,,,,,,,,,,,,,,,,,,0,0,0,0,0
1.2475,1783441476.1789,1,0,1.0000,-0.0000,1.42056,0.12936,-2.66924,1.01834,1.56188,0.11670,-0.13229,-0.45995,0.06850,,,,,,,,,,,,,,,,,,,,,,,,,,0,0,0,0,0
1.2481,1783441476.1795,1,0,1.0000,-0.0000,1.42056,0.12936,-2.66924,1.01834,1.56188,0.11670,-0.13229,-0.45995,0.06850,,,,,,,,,,,,,,,,,,,,,,,,,,0,0,0,0,0
1.2614,1783441476.1928,1,0,1.0000,-0.0000,1.42055,0.13304,-2.66855,1.01358,1.56187,0.11673,-0.13233,-0.45970,0.06955,,,,,,,,,,,,,,,,,,,,,,,,,,0,0,0,0,0
1.2690,1783441476.2004,1,0,1.0000,-0.0000,1.42055,0.13313,-2.66853,1.01346,1.56187,0.11673,-0.13233,-0.45969,0.06957,,,,,,,,,,,,,,,,,,,,,,,,,,0,0,0,0,0
1.2764,1783441476.2078,1,0,1.0000,-0.0000,1.42054,0.13378,-2.66841,1.01262,1.56187,0.11673,-0.13233,-0.45964,0.06976,,,,,,,,,,,,,,,,,,,,,,,,,,0,0,0,0,0
1.2870,1783441476.2185,1,0,1.0000,-0.0000,1.42054,0.13491,-2.66820,1.01116,1.56187,0.11674,-0.13235,-0.45956,0.07008,,,,,,,,,,,,,,,,,,,,,,,,,,0,0,0,0,0
1.2964,1783441476.2278,1,0,1.0000,-0.0000,1.42054,0.13522,-2.66814,1.01075,1.56186,0.11675,-0.13235,-0.45954,0.07016,,,,,,,,,,,,,,,,,,,,,,,,,,0,0,0,0,0
1.3069,1783441476.2383,1,0,1.0000,-0.0000,1.42053,0.13657,-2.66788,1.00898,1.56186,0.11676,-0.13236,-0.45944,0.07055,,,,,,,,,,,,,,,,,,,,,,,,,,0,0,0,0,0
1.3181,1783441476.2495,1,0,1.0000,-0.0000,1.42053,0.13781,-2.66765,1.00737,1.56186,0.11677,-0.13238,-0.45935,0.07089,,,,,,,,,,,,,,,,,,,,,,,,,,0,0,0,0,0
1.3280,1783441476.2594,1,0,1.0000,-0.0000,1.42053,0.13800,-2.66761,1.00712,1.56186,0.11677,-0.13238,-0.45933,0.07095,,,,,,,,,,,,,,,,,,,,,,,,,,0,0,0,0,0
1.3285,1783441476.2599,1,0,1.0000,-0.0000,1.42053,0.13800,-2.66761,1.00712,1.56186,0.11677,-0.13238,-0.45933,0.07095,,,,,,,,,,,,,,,,,,,,,,,,,,0,0,0,0,0
1.3354,1783441476.2668,1,0,1.0000,-0.0000,1.42053,0.13849,-2.66752,1.00647,1.56185,0.11677,-0.13238,-0.45929,0.07109,,,,,,,,,,,,,,,,,,,,,,,,,,0,0,0,0,0
1.3360,1783441476.2674,1,0,1.0000,-0.0000,1.42053,0.13849,-2.66752,1.00647,1.56185,0.11677,-0.13238,-0.45929,0.07109,,,,,,,,,,,,,,,,,,,,,,,,,,0,0,0,0,0
1.3475,1783441476.2789,1,0,1.0000,-0.0000,1.42052,0.13956,-2.66731,1.00506,1.56185,0.11678,-0.13240,-0.45921,0.07139,,,,,,,,,,,,,,,,,,,,,,,,,,0,0,0,0,0
1.3594,1783441476.2908,1,0,1.0000,-0.0000,1.42052,0.14071,-2.66709,1.00355,1.56185,0.11679,-0.13241,-0.45912,0.07171,,,,,,,,,,,,,,,,,,,,,,,,,,0,0,0,0,0
1.3598,1783441476.2912,1,0,1.0000,-0.0000,1.42052,0.14071,-2.66709,1.00355,1.56185,0.11679,-0.13241,-0.45912,0.07171,,,,,,,,,,,,,,,,,,,,,,,,,,0,0,0,0,0
1.3661,1783441476.2975,1,0,1.0000,-0.0000,1.42052,0.14105,-2.66703,1.00310,1.56184,0.11680,-0.13241,-0.45910,0.07181,,,,,,,,,,,,,,,,,,,,,,,,,,0,0,0,0,0
1.3664,1783441476.2978,1,0,1.0000,-0.0000,1.42052,0.14105,-2.66703,1.00310,1.56184,0.11680,-0.13241,-0.45910,0.07181,,,,,,,,,,,,,,,,,,,,,,,,,,0,0,0,0,0
1.3763,1783441476.3077,1,0,1.0000,-0.0000,1.42052,0.14174,-2.66690,1.00219,1.56184,0.11680,-0.13242,-0.45904,0.07200,,,,,,,,,,,,,,,,,,,,,,,,,,0,0,0,0,0
1.3857,1783441476.3171,1,0,1.0000,-0.0000,1.42052,0.14182,-2.66688,1.00209,1.56184,0.11680,-0.13242,-0.45903,0.07202,,,,,,,,,,,,,,,,,,,,,,,,,,0,0,0,0,0
1.3991,1783441476.3305,1,0,1.0000,-0.0000,1.42052,0.14182,-2.66688,1.00209,1.56184,0.11680,-0.13242,-0.45903,0.07202,,,,,,,,,,,,,,,,,,,,,,,,,,0,0,0,0,0
1.4086,1783441476.3400,1,0,1.0000,-0.0000,1.42052,0.14182,-2.66688,1.00209,1.56184,0.11680,-0.13242,-0.45903,0.07202,,,,,,,,,,,,,,,,,,,,,,,,,,0,0,0,0,0
1.4177,1783441476.3491,1,0,1.0000,-0.0000,1.42052,0.14182,-2.66688,1.00209,1.56184,0.11680,-0.13242,-0.45903,0.07202,,,,,,,,,,,,,,,,,,,,,,,,,,0,0,0,0,0
1.4278,1783441476.3592,1,0,1.0000,-0.0000,1.42052,0.14182,-2.66688,1.00209,1.56184,0.11680,-0.13242,-0.45903,0.07202,,,,,,,,,,,,,,,,,,,,,,,,,,0,0,0,0,0
1.4369,1783441476.3683,1,0,1.0000,-0.0000,1.42052,0.14182,-2.66688,1.00209,1.56184,0.11680,-0.13242,-0.45903,0.07202,,,,,,,,,,,,,,,,,,,,,,,,,,0,0,0,0,0
1.4457,1783441476.3771,1,0,1.0000,-0.0000,1.42052,0.14182,-2.66688,1.00209,1.56184,0.11680,-0.13242,-0.45903,0.07202,,,,,,,,,,,,,,,,,,,,,,,,,,0,0,0,0,0
1.4625,1783441476.3939,1,0,1.0000,-0.0000,1.42052,0.14182,-2.66688,1.00209,1.56184,0.11680,-0.13242,-0.45903,0.07202,,,,,,,,,,,,,,,,,,,,,,,,,,0,0,0,0,0
1.4660,1783441476.3975,1,0,1.0000,-0.0000,1.42052,0.14182,-2.66688,1.00209,1.56184,0.11680,-0.13242,-0.45903,0.07202,,,,,,,,,,,,,,,,,,,,,,,,,,0,0,0,0,0
1.4665,1783441476.3979,1,0,1.0000,-0.0000,1.42052,0.14182,-2.66688,1.00209,1.56184,0.11680,-0.13242,-0.45903,0.07202,,,,,,,,,,,,,,,,,,,,,,,,,,0,0,0,0,0
1.4795,1783441476.4109,1,0,1.0000,-0.0000,1.42052,0.14182,-2.66688,1.00209,1.56184,0.11680,-0.13242,-0.45903,0.07202,,,,,,,,,,,,,,,,,,,,,,,,,,0,0,0,0,0
1.4859,1783441476.4173,1,0,1.0000,-0.0000,1.42052,0.14182,-2.66688,1.00209,1.56184,0.11680,-0.13242,-0.45903,0.07202,,,,,,,,,,,,,,,,,,,,,,,,,,0,0,0,0,0
1.5004,1783441476.4318,1,0,1.0000,-0.0000,1.42052,0.14182,-2.66688,1.00209,1.56184,0.11680,-0.13242,-0.45903,0.07202,,,,,,,,,,,,,,,,,,,,,,,,,,0,0,0,0,0
1.5105,1783441476.4419,1,0,1.0000,-0.0000,1.42052,0.14182,-2.66688,1.00209,1.56184,0.11680,-0.13242,-0.45903,0.07202,,,,,,,,,,,,,,,,,,,,,,,,,,0,0,0,0,0
1.5166,1783441476.4480,1,0,1.0000,-0.0000,1.42052,0.14182,-2.66688,1.00209,1.56184,0.11680,-0.13242,-0.45903,0.07202,,,,,,,,,,,,,,,,,,,,,,,,,,0,0,0,0,0
1.5276,1783441476.4590,1,0,1.0000,-0.0000,1.42052,0.14182,-2.66688,1.00209,1.56184,0.11680,-0.13242,-0.45903,0.07202,,,,,,,,,,,,,,,,,,,,,,,,,,0,0,0,0,0
1.5359,1783441476.4673,1,0,1.0000,-0.0000,1.42052,0.14182,-2.66688,1.00209,1.56184,0.11680,-0.13242,-0.45903,0.07202,,,,,,,,,,,,,,,,,,,,,,,,,,0,0,0,0,0
1.5519,1783441476.4833,1,0,1.0000,-0.0000,1.42052,0.14182,-2.66688,1.00209,1.56184,0.11680,-0.13242,-0.45903,0.07202,,,,,,,,,,,,,,,,,,,,,,,,,,0,0,0,0,0
1.5617,1783441476.4931,1,0,1.0000,-0.0000,1.42052,0.14182,-2.66688,1.00209,1.56184,0.11680,-0.13242,-0.45903,0.07202,,,,,,,,,,,,,,,,,,,,,,,,,,0,0,0,0,0
1.5621,1783441476.4935,1,0,1.0000,-0.0000,1.42052,0.14182,-2.66688,1.00209,1.56184,0.11680,-0.13242,-0.45903,0.07202,,,,,,,,,,,,,,,,,,,,,,,,,,0,0,0,0,0
1.5688,1783441476.5002,1,0,1.0000,-0.0000,1.42052,0.14182,-2.66688,1.00209,1.56184,0.11680,-0.13242,-0.45903,0.07202,,,,,,,,,,,,,,,,,,,,,,,,,,0,0,0,0,0
1.5853,1783441476.5167,1,0,1.0000,-0.0000,1.42052,0.14182,-2.66688,1.00209,1.56184,0.11680,-0.13242,-0.45903,0.07202,,,,,,,,,,,,,,,,,,,,,,,,,,0,0,0,0,0
1.5860,1783441476.5175,1,0,1.0000,-0.0000,1.42052,0.14182,-2.66688,1.00209,1.56184,0.11680,-0.13242,-0.45903,0.07202,,,,,,,,,,,,,,,,,,,,,,,,,,0,0,0,0,0
1.5963,1783441476.5277,1,0,1.0000,-0.0000,1.42052,0.14182,-2.66688,1.00209,1.56184,0.11680,-0.13242,-0.45903,0.07202,,,,,,,,,,,,,,,,,,,,,,,,,,0,0,0,0,0
1.6070,1783441476.5384,1,0,1.0000,-0.0000,1.42052,0.14182,-2.66688,1.00209,1.56184,0.11680,-0.13242,-0.45903,0.07202,,,,,,,,,,,,,,,,,,,,,,,,,,0,0,0,0,0
1.6175,1783441476.5489,1,0,1.0000,-0.0000,1.42052,0.14182,-2.66688,1.00209,1.56184,0.11680,-0.13242,-0.45903,0.07202,,,,,,,,,,,,,,,,,,,,,,,,,,0,0,0,0,0
1.6257,1783441476.5571,1,0,1.0000,-0.0000,1.42052,0.14182,-2.66688,1.00209,1.56184,0.11680,-0.13242,-0.45903,0.07202,,,,,,,,,,,,,,,,,,,,,,,,,,0,0,0,0,0
1.6369,1783441476.5683,1,0,1.0000,-0.0000,1.42052,0.14182,-2.66688,1.00209,1.56184,0.11680,-0.13242,-0.45903,0.07202,,,,,,,,,,,,,,,,,,,,,,,,,,0,0,0,0,0
1.6467,1783441476.5781,1,0,1.0000,-0.0000,1.42052,0.14182,-2.66688,1.00209,1.56184,0.11680,-0.13242,-0.45903,0.07202,,,,,,,,,,,,,,,,,,,,,,,,,,0,0,0,0,0
1.6558,1783441476.5872,1,0,1.0000,-0.0000,1.42052,0.14182,-2.66688,1.00209,1.56184,0.11680,-0.13242,-0.45903,0.07202,,,,,,,,,,,,,,,,,,,,,,,,,,0,0,0,0,0
1.6696,1783441476.6010,1,0,1.0000,-0.0000,1.42052,0.14182,-2.66688,1.00209,1.56184,0.11680,-0.13242,-0.45903,0.07202,,,,,,,,,,,,,,,,,,,,,,,,,,0,0,0,0,0
1.6823,1783441476.6137,1,0,1.0000,-0.0000,1.42052,0.14182,-2.66688,1.00209,1.56184,0.11680,-0.13242,-0.45903,0.07202,,,,,,,,,,,,,,,,,,,,,,,,,,0,0,0,0,0
1.6827,1783441476.6141,1,0,1.0000,-0.0000,1.42052,0.14182,-2.66688,1.00209,1.56184,0.11680,-0.13242,-0.45903,0.07202,,,,,,,,,,,,,,,,,,,,,,,,,,0,0,0,0,0
1.6976,1783441476.6290,1,0,1.0000,-0.0000,1.42052,0.14182,-2.66688,1.00209,1.56184,0.11680,-0.13242,-0.45903,0.07202,,,,,,,,,,,,,,,,,,,,,,,,,,0,0,0,0,0
1.6979,1783441476.6294,1,0,1.0000,-0.0000,1.42052,0.14182,-2.66688,1.00209,1.56184,0.11680,-0.13242,-0.45903,0.07202,,,,,,,,,,,,,,,,,,,,,,,,,,0,0,0,0,0
1.7097,1783441476.6411,1,0,1.0000,-0.0000,1.42052,0.14182,-2.66688,1.00209,1.56184,0.11680,-0.13242,-0.45903,0.07202,,,,,,,,,,,,,,,,,,,,,,,,,,0,0,0,0,0
1.7138,1783441476.6452,1,0,1.0000,-0.0000,1.42052,0.14182,-2.66688,1.00209,1.56184,0.11680,-0.13242,-0.45903,0.07202,,,,,,,,,,,,,,,,,,,,,,,,,,0,0,0,0,0
1.7201,1783441476.6515,1,0,1.0000,-0.0000,1.42052,0.14182,-2.66688,1.00209,1.56184,0.11680,-0.13242,-0.45903,0.07202,,,,,,,,,,,,,,,,,,,,,,,,,,0,0,0,0,0
1.7206,1783441476.6520,1,0,1.0000,-0.0000,1.42052,0.14182,-2.66688,1.00209,1.56184,0.11680,-0.13242,-0.45903,0.07202,,,,,,,,,,,,,,,,,,,,,,,,,,0,0,0,0,0
1.7296,1783441476.6610,1,0,1.0000,-0.0000,1.42052,0.14182,-2.66688,1.00209,1.56184,0.11680,-0.13242,-0.45903,0.07202,,,,,,,,,,,,,,,,,,,,,,,,,,0,0,0,0,0
1.7439,1783441476.6753,1,0,1.0000,-0.0000,1.42052,0.14182,-2.66688,1.00209,1.56184,0.11680,-0.13242,-0.45903,0.07202,,,,,,,,,,,,,,,,,,,,,,,,,,0,0,0,0,0
1.7495,1783441476.6809,1,0,1.0000,-0.0000,1.42052,0.14182,-2.66688,1.00209,1.56184,0.11680,-0.13242,-0.45903,0.07202,,,,,,,,,,,,,,,,,,,,,,,,,,0,0,0,0,0
1.7600,1783441476.6914,1,0,1.0000,-0.0000,1.42052,0.14182,-2.66688,1.00209,1.56184,0.11680,-0.13242,-0.45903,0.07202,,,,,,,,,,,,,,,,,,,,,,,,,,0,0,0,0,0
1.7758,1783441476.7072,1,0,1.0000,-0.0000,1.42052,0.14182,-2.66688,1.00209,1.56184,0.11680,-0.13242,-0.45903,0.07202,,,,,,,,,,,,,,,,,,,,,,,,,,0,0,0,0,0
1.7812,1783441476.7126,1,0,1.0000,-0.0000,1.42052,0.14182,-2.66688,1.00209,1.56184,0.11680,-0.13242,-0.45903,0.07202,,,,,,,,,,,,,,,,,,,,,,,,,,0,0,0,0,0
1.7816,1783441476.7130,1,0,1.0000,-0.0000,1.42052,0.14182,-2.66688,1.00209,1.56184,0.11680,-0.13242,-0.45903,0.07202,,,,,,,,,,,,,,,,,,,,,,,,,,0,0,0,0,0
1.7896,1783441476.7210,1,0,1.0000,-0.0000,1.42052,0.14182,-2.66688,1.00209,1.56184,0.11680,-0.13242,-0.45903,0.07202,,,,,,,,,,,,,,,,,,,,,,,,,,0,0,0,0,0
1.8003,1783441476.7317,1,0,1.0000,-0.0000,1.42052,0.14182,-2.66688,1.00209,1.56184,0.11680,-0.13242,-0.45903,0.07202,,,,,,,,,,,,,,,,,,,,,,,,,,0,0,0,0,0
1.8008,1783441476.7322,1,0,1.0000,-0.0000,1.42052,0.14182,-2.66688,1.00209,1.56184,0.11680,-0.13242,-0.45903,0.07202,,,,,,,,,,,,,,,,,,,,,,,,,,0,0,0,0,0
1.8118,1783441476.7432,1,0,1.0000,-0.0000,1.42052,0.14182,-2.66688,1.00209,1.56184,0.11680,-0.13242,-0.45903,0.07202,,,,,,,,,,,,,,,,,,,,,,,,,,0,0,0,0,0
1.8219,1783441476.7533,1,0,1.0000,-0.0000,1.42052,0.14182,-2.66688,1.00209,1.56184,0.11680,-0.13242,-0.45903,0.07202,,,,,,,,,,,,,,,,,,,,,,,,,,0,0,0,0,0
1.8319,1783441476.7633,1,0,1.0000,-0.0000,1.42052,0.14182,-2.66688,1.00209,1.56184,0.11680,-0.13242,-0.45903,0.07202,,,,,,,,,,,,,,,,,,,,,,,,,,0,0,0,0,0
1.8399,1783441476.7714,1,0,1.0000,-0.0000,1.42052,0.14182,-2.66689,1.00209,1.56184,0.11681,-0.13242,-0.45903,0.07202,,,,,,,,,,,,,,,,,,,,,,,,,,0,0,0,0,0
1.8521,1783441476.7835,1,0,1.0000,-0.0000,1.42051,0.14183,-2.66689,1.00212,1.56184,0.11681,-0.13242,-0.45904,0.07203,,,,,,,,,,,,,,,,,,,,,,,,,,0,0,0,0,0
1.8595,1783441476.7909,1,0,1.0000,-0.0000,1.42051,0.14183,-2.66690,1.00214,1.56184,0.11681,-0.13242,-0.45904,0.07203,,,,,,,,,,,,,,,,,,,,,,,,,,0,0,0,0,0
1.8731,1783441476.8045,1,0,1.0000,-0.0000,1.42050,0.14183,-2.66691,1.00215,1.56184,0.11682,-0.13242,-0.45904,0.07203,,,,,,,,,,,,,,,,,,,,,,,,,,0,0,0,0,0
1.8803,1783441476.8117,1,0,1.0000,-0.0000,1.42048,0.14184,-2.66693,1.00218,1.56183,0.11684,-0.13241,-0.45903,0.07203,,,,,,,,,,,,,,,,,,,,,,,,,,0,0,0,0,0
1.8897,1783441476.8211,1,0,1.0000,-0.0000,1.42045,0.14185,-2.66695,1.00221,1.56183,0.11686,-0.13240,-0.45903,0.07202,,,,,,,,,,,,,,,,,,,,,,,,,,0,0,0,0,0
1.8999,1783441476.8313,1,0,1.0000,-0.0000,1.42043,0.14186,-2.66696,1.00221,1.56183,0.11688,-0.13240,-0.45903,0.07202,,,,,,,,,,,,,,,,,,,,,,,,,,0,0,0,0,0
1.9255,1783441476.8569,1,0,1.0000,-0.0000,1.42028,0.14190,-2.66702,1.00223,1.56182,0.11704,-0.13234,-0.45901,0.07201,,,,,,,,,,,,,,,,,,,,,,,,,,0,0,0,0,0
1.9260,1783441476.8574,1,0,1.0000,-0.0000,1.42028,0.14190,-2.66702,1.00223,1.56182,0.11704,-0.13234,-0.45901,0.07201,,,,,,,,,,,,,,,,,,,,,,,,,,0,0,0,0,0
1.9335,1783441476.8649,1,0,1.0000,-0.0000,1.42013,0.14195,-2.66706,1.00223,1.56182,0.11718,-0.13228,-0.45901,0.07201,,,,,,,,,,,,,,,,,,,,,,,,,,0,0,0,0,0
1.9412,1783441476.8726,1,0,1.0000,-0.0000,1.41991,0.14201,-2.66711,1.00224,1.56181,0.11740,-0.13220,-0.45901,0.07201,,,,,,,,,,,,,,,,,,,,,,,,,,0,0,0,0,0
1.9541,1783441476.8856,1,0,1.0000,-0.0000,1.41975,0.14205,-2.66715,1.00224,1.56180,0.11755,-0.13214,-0.45901,0.07201,,,,,,,,,,,,,,,,,,,,,,,,,,0,0,0,0,0
1.9637,1783441476.8952,1,0,1.0000,-0.0000,1.41940,0.14215,-2.66722,1.00223,1.56179,0.11790,-0.13201,-0.45902,0.07202,,,,,,,,,,,,,,,,,,,,,,,,,,0,0,0,0,0
1.9641,1783441476.8956,1,0,1.0000,-0.0000,1.41940,0.14215,-2.66722,1.00223,1.56179,0.11790,-0.13201,-0.45902,0.07202,,,,,,,,,,,,,,,,,,,,,,,,,,0,0,0,0,0
1.9757,1783441476.9071,1,0,1.0000,-0.0000,1.41873,0.14234,-2.66735,1.00221,1.56176,0.11856,-0.13176,-0.45903,0.07203,,,,,,,,,,,,,,,,,,,,,,,,,,0,0,0,0,0
1.9804,1783441476.9118,1,0,1.0000,-0.0000,1.41873,0.14234,-2.66735,1.00221,1.56176,0.11856,-0.13176,-0.45903,0.07203,,,,,,,,,,,,,,,,,,,,,,,,,,0,0,0,0,0
1.9897,1783441476.9211,1,0,1.0000,-0.0000,1.41856,0.14239,-2.66738,1.00220,1.56175,0.11873,-0.13170,-0.45904,0.07203,,,,,,,,,,,,,,,,,,,,,,,,,,0,0,0,0,0
2.0001,1783441476.9315,1,0,1.0000,-0.0000,1.41778,0.14260,-2.66753,1.00216,1.56172,0.11951,-0.13140,-0.45905,0.07204,,,,,,,,,,,,,,,,,,,,,,,,,,0,0,0,0,0
2.0005,1783441476.9319,1,0,1.0000,-0.0000,1.41778,0.14260,-2.66753,1.00216,1.56172,0.11951,-0.13140,-0.45905,0.07204,,,,,,,,,,,,,,,,,,,,,,,,,,0,0,0,0,0
2.0239,1783441476.9554,1,0,1.0000,-0.0000,1.41639,0.14298,-2.66779,1.00207,1.56165,0.12090,-0.13088,-0.45907,0.07205,,,,,,,,,,,,,,,,,,,,,,,,,,0,0,0,0,0
2.0244,1783441476.9558,1,0,1.0000,-0.0000,1.41639,0.14298,-2.66779,1.00207,1.56165,0.12090,-0.13088,-0.45907,0.07205,,,,,,,,,,,,,,,,,,,,,,,,,,0,0,0,0,0
2.0299,1783441476.9614,1,0,1.0000,-0.0000,1.41617,0.14304,-2.66784,1.00206,1.56164,0.12112,-0.13080,-0.45908,0.07205,,,,,,,,,,,,,,,,,,,,,,,,,,0,0,0,0,0
2.0304,1783441476.9618,1,0,1.0000,-0.0000,1.41617,0.14304,-2.66784,1.00206,1.56164,0.12112,-0.13080,-0.45908,0.07205,,,,,,,,,,,,,,,,,,,,,,,,,,0,0,0,0,0
2.0448,1783441476.9762,1,0,1.0000,-0.0000,1.41544,0.14324,-2.66797,1.00200,1.56161,0.12185,-0.13053,-0.45909,0.07206,,,,,,,,,,,,,,,,,,,,,,,,,,0,0,0,0,0
2.0503,1783441476.9817,1,0,1.0000,-0.0000,1.41525,0.14329,-2.66801,1.00199,1.56160,0.12204,-0.13045,-0.45909,0.07206,,,,,,,,,,,,,,,,,,,,,,,,,,0,0,0,0,0
2.0596,1783441476.9911,1,0,1.0000,-0.0000,1.41412,0.14360,-2.66822,1.00191,1.56155,0.12317,-0.13003,-0.45910,0.07207,,,,,,,,,,,,,,,,,,,,,,,,,,0,0,0,0,0
2.0705,1783441477.0019,1,0,1.0000,-0.0000,1.41306,0.14389,-2.66842,1.00183,1.56151,0.12423,-0.12964,-0.45912,0.07207,,,,,,,,,,,,,,,,,,,,,,,,,,0,0,0,0,0
2.0813,1783441477.0127,1,0,1.0000,-0.0000,1.41285,0.14395,-2.66846,1.00181,1.56150,0.12444,-0.12956,-0.45912,0.07207,,,,,,,,,,,,,,,,,,,,,,,,,,0,0,0,0,0
2.0941,1783441477.0255,1,1,1.0000,-0.0000,1.41190,0.14421,-2.66864,1.00174,1.56145,0.12539,-0.12920,-0.45913,0.07208,,,,,,,,,,,,,,,,,,,,,,,,,,0,0,0,0,0
2.1016,1783441477.0330,1,1,1.0000,-0.0000,1.41102,0.14445,-2.66881,1.00167,1.56141,0.12627,-0.12887,-0.45914,0.07208,,,,,,,,,,,,,,,,,,,,,,,,,,0,0,0,0,0
2.1096,1783441477.0410,1,1,1.0000,-0.0000,1.41097,0.14446,-2.66882,1.00166,1.56141,0.12632,-0.12886,-0.45914,0.07208,,,,,,,,,,,,,,,,,,,,,,,,,,0,0,0,0,0
2.1199,1783441477.0513,1,1,1.0000,-0.0000,1.41040,0.14461,-2.66893,1.00161,1.56139,0.12689,-0.12864,-0.45914,0.07208,,,,,,,,,,,,,,,,,,,,,,,,,,0,0,0,0,0
2.1315,1783441477.0629,1,1,1.0000,-0.0000,1.41007,0.14470,-2.66899,1.00159,1.56137,0.12722,-0.12852,-0.45914,0.07208,,,,,,,,,,,,,,,,,,,,,,,,,,0,0,0,0,0
2.1418,1783441477.0732,1,1,1.0000,-0.0000,1.40979,0.14478,-2.66905,1.00156,1.56136,0.12750,-0.12842,-0.45914,0.07208,,,,,,,,,,,,,,,,,,,,,,,,,,0,0,0,0,0
2.1549,1783441477.0864,1,1,1.0000,-0.0000,1.40903,0.14498,-2.66919,1.00150,1.56132,0.12825,-0.12814,-0.45915,0.07209,,,,,,,,,,,,,,,,,,,,,,,,,,0,0,0,0,0
2.1556,1783441477.0870,1,1,1.0000,-0.0000,1.40873,0.14506,-2.66925,1.00147,1.56131,0.12855,-0.12802,-0.45915,0.07209,,,,,,,,,,,,,,,,,,,,,,,,,,0,0,0,0,0
2.1601,1783441477.0915,1,1,1.0000,-0.0000,1.40873,0.14506,-2.66925,1.00147,1.56131,0.12855,-0.12802,-0.45915,0.07209,,,,,,,,,,,,,,,,,,,,,,,,,,0,0,0,0,0
2.1693,1783441477.1007,1,1,1.0000,-0.0000,1.40865,0.14509,-2.66926,1.00146,1.56130,0.12864,-0.12799,-0.45915,0.07209,,,,,,,,,,,,,,,,,,,,,,,,,,0,0,0,0,0
2.1698,1783441477.1012,1,1,1.0000,-0.0000,1.40865,0.14509,-2.66926,1.00146,1.56130,0.12864,-0.12799,-0.45915,0.07209,,,,,,,,,,,,,,,,,,,,,,,,,,0,0,0,0,0
2.1803,1783441477.1117,1,1,1.0000,-0.0000,1.40828,0.14519,-2.66932,1.00143,1.56128,0.12900,-0.12785,-0.45917,0.07209,,,,,,,,,,,,,,,,,,,,,,,,,,0,0,0,0,0
2.1943,1783441477.1257,1,1,1.0000,-0.0000,1.40778,0.14532,-2.66939,1.00138,1.56126,0.12951,-0.12766,-0.45918,0.07211,,,,,,,,,,,,,,,,,,,,,,,,,,0,0,0,0,0
2.1947,1783441477.1261,1,1,1.0000,-0.0000,1.40778,0.14532,-2.66939,1.00138,1.56126,0.12951,-0.12766,-0.45918,0.07211,,,,,,,,,,,,,,,,,,,,,,,,,,0,0,0,0,0
2.1996,1783441477.1310,1,1,1.0000,-0.0000,1.40745,0.14541,-2.66943,1.00135,1.56124,0.12985,-0.12754,-0.45920,0.07212,,,,,,,,,,,,,,,,,,,,,,,,,,0,0,0,0,0
2.2097,1783441477.1411,1,1,1.0000,-0.0000,1.40718,0.14549,-2.66946,1.00132,1.56123,0.13012,-0.12744,-0.45922,0.07213,,,,,,,,,,,,,,,,,,,,,,,,,,0,0,0,0,0
2.2256,1783441477.1570,1,1,1.0000,-0.0000,1.40699,0.14554,-2.66945,1.00130,1.56122,0.13031,-0.12736,-0.45925,0.07215,,,,,,,,,,,,,,,,,,,,,,,,,,0,0,0,0,0
2.2295,1783441477.1609,1,1,1.0000,-0.0000,1.40699,0.14554,-2.66945,1.00130,1.56122,0.13031,-0.12736,-0.45925,0.07215,,,,,,,,,,,,,,,,,,,,,,,,,,0,0,0,0,0
2.2399,1783441477.1713,1,1,1.0000,-0.0000,1.40699,0.14554,-2.66945,1.00130,1.56122,0.13031,-0.12736,-0.45925,0.07215,,,,,,,,,,,,,,,,,,,,,,,,,,0,0,0,0,0
2.2496,1783441477.1810,1,1,1.0000,-0.0000,1.40699,0.14554,-2.66945,1.00130,1.56122,0.13031,-0.12736,-0.45925,0.07215,,,,,,,,,,,,,,,,,,,,,,,,,,0,0,0,0,0
2.2595,1783441477.1909,1,1,1.0000,-0.0000,1.40699,0.14554,-2.66945,1.00130,1.56122,0.13031,-0.12736,-0.45925,0.07215,,,,,,,,,,,,,,,,,,,,,,,,,,0,0,0,0,0
2.2599,1783441477.1913,1,1,1.0000,-0.0000,1.40699,0.14554,-2.66945,1.00130,1.56122,0.13031,-0.12736,-0.45925,0.07215,,,,,,,,,,,,,,,,,,,,,,,,,,0,0,0,0,0
2.3212,1783441477.2526,1,1,1.0000,-0.0000,1.40699,0.14554,-2.66945,1.00130,1.56122,0.13031,-0.12736,-0.45925,0.07215,,,,,,,,,,,,,,,,,,,,,,,,,,0,0,0,0,0
2.3719,1783441477.3033,1,1,1.0000,-0.0000,1.40699,0.14554,-2.66945,1.00130,1.56122,0.13031,-0.12736,-0.45925,0.07215,,,,,,,,,,,,,,,,,,,,,,,,,,0,0,0,0,0
2.3722,1783441477.3036,1,1,1.0000,-0.0000,1.40699,0.14554,-2.66945,1.00130,1.56122,0.13031,-0.12736,-0.45925,0.07215,,,,,,,,,,,,,,,,,,,,,,,,,,0,0,0,0,0
2.3726,1783441477.3040,1,1,1.0000,-0.0000,1.40699,0.14554,-2.66945,1.00130,1.56122,0.13031,-0.12736,-0.45925,0.07215,,,,,,,,,,,,,,,,,,,,,,,,,,0,0,0,0,0
2.3733,1783441477.3047,1,1,1.0000,-0.0000,1.40699,0.14554,-2.66945,1.00130,1.56122,0.13031,-0.12736,-0.45925,0.07215,,,,,,,,,,,,,,,,,,,,,,,,,,0,0,0,0,0
2.3736,1783441477.3050,1,1,1.0000,-0.0000,1.40699,0.14554,-2.66945,1.00130,1.56122,0.13031,-0.12736,-0.45925,0.07215,,,,,,,,,,,,,,,,,,,,,,,,,,0,0,0,0,0
2.3741,1783441477.3055,1,1,1.0000,-0.0000,1.40699,0.14554,-2.66945,1.00130,1.56122,0.13031,-0.12736,-0.45925,0.07215,,,,,,,,,,,,,,,,,,,,,,,,,,0,0,0,0,0
2.3746,1783441477.3060,1,1,1.0000,-0.0000,1.40699,0.14554,-2.66945,1.00130,1.56122,0.13031,-0.12736,-0.45925,0.07215,,,,,,,,,,,,,,,,,,,,,,,,,,0,0,0,0,0
2.3750,1783441477.3064,1,1,1.0000,-0.0000,1.40699,0.14554,-2.66945,1.00130,1.56122,0.13031,-0.12736,-0.45925,0.07215,,,,,,,,,,,,,,,,,,,,,,,,,,0,0,0,0,0
2.3761,1783441477.3075,1,1,1.0000,-0.0000,1.40699,0.14554,-2.66945,1.00130,1.56122,0.13031,-0.12736,-0.45925,0.07215,,,,,,,,,,,,,,,,,,,,,,,,,,0,0,0,0,0
2.3765,1783441477.3079,1,1,1.0000,-0.0000,1.40699,0.14554,-2.66945,1.00130,1.56122,0.13031,-0.12736,-0.45925,0.07215,,,,,,,,,,,,,,,,,,,,,,,,,,0,0,0,0,0
2.3768,1783441477.3083,1,1,1.0000,-0.0000,1.40699,0.14554,-2.66945,1.00130,1.56122,0.13031,-0.12736,-0.45925,0.07215,,,,,,,,,,,,,,,,,,,,,,,,,,0,0,0,0,0
2.3830,1783441477.3144,1,1,1.0000,-0.0000,1.40699,0.14554,-2.66945,1.00130,1.56122,0.13031,-0.12736,-0.45925,0.07215,,,,,,,,,,,,,,,,,,,,,,,,,,0,0,0,0,0
2.3935,1783441477.3249,1,1,1.0000,-0.0000,1.40699,0.14554,-2.66945,1.00130,1.56122,0.13031,-0.12736,-0.45925,0.07215,,,,,,,,,,,,,,,,,,,,,,,,,,0,0,0,0,0
2.4002,1783441477.3316,1,1,1.0000,-0.0000,1.40699,0.14554,-2.66945,1.00130,1.56122,0.13031,-0.12736,-0.45925,0.07215,,,,,,,,,,,,,,,,,,,,,,,,,,0,0,0,0,0
2.4006,1783441477.3320,1,1,1.0000,-0.0000,1.40699,0.14554,-2.66945,1.00130,1.56122,0.13031,-0.12736,-0.45925,0.07215,,,,,,,,,,,,,,,,,,,,,,,,,,0,0,0,0,0
2.4116,1783441477.3430,1,1,1.0000,-0.0000,1.40699,0.14554,-2.66945,1.00130,1.56122,0.13031,-0.12736,-0.45925,0.07215,,,,,,,,,,,,,,,,,,,,,,,,,,0,0,0,0,0
2.4224,1783441477.3538,1,1,1.0000,-0.0000,1.40699,0.14554,-2.66945,1.00130,1.56122,0.13031,-0.12736,-0.45925,0.07215,,,,,,,,,,,,,,,,,,,,,,,,,,0,0,0,0,0
2.4329,1783441477.3643,1,1,1.0000,-0.0000,1.40699,0.14554,-2.66945,1.00130,1.56122,0.13031,-0.12736,-0.45925,0.07215,,,,,,,,,,,,,,,,,,,,,,,,,,0,0,0,0,0
2.4459,1783441477.3774,1,1,1.0000,-0.0000,1.40699,0.14554,-2.66945,1.00130,1.56122,0.13031,-0.12736,-0.45925,0.07215,,,,,,,,,,,,,,,,,,,,,,,,,,0,0,0,0,0
2.4494,1783441477.3808,1,1,1.0000,-0.0000,1.40699,0.14554,-2.66945,1.00130,1.56122,0.13031,-0.12736,-0.45925,0.07215,,,,,,,,,,,,,,,,,,,,,,,,,,0,0,0,0,0
2.4497,1783441477.3811,1,1,1.0000,-0.0000,1.40699,0.14554,-2.66945,1.00130,1.56122,0.13031,-0.12736,-0.45925,0.07215,,,,,,,,,,,,,,,,,,,,,,,,,,0,0,0,0,0
2.4614,1783441477.3929,1,1,1.0000,-0.0000,1.40699,0.14554,-2.66945,1.00130,1.56122,0.13031,-0.12736,-0.45925,0.07215,,,,,,,,,,,,,,,,,,,,,,,,,,0,0,0,0,0
2.4617,1783441477.3932,1,1,1.0000,-0.0000,1.40699,0.14554,-2.66945,1.00130,1.56122,0.13031,-0.12736,-0.45925,0.07215,,,,,,,,,,,,,,,,,,,,,,,,,,0,0,0,0,0
2.4705,1783441477.4019,1,1,1.0000,-0.0000,1.40699,0.14554,-2.66945,1.00130,1.56122,0.13031,-0.12736,-0.45925,0.07215,,,,,,,,,,,,,,,,,,,,,,,,,,0,0,0,0,0
2.4710,1783441477.4025,1,1,1.0000,-0.0000,1.40699,0.14554,-2.66945,1.00130,1.56122,0.13031,-0.12736,-0.45925,0.07215,,,,,,,,,,,,,,,,,,,,,,,,,,0,0,0,0,0
2.4867,1783441477.4181,1,1,1.0000,-0.0000,1.40699,0.14554,-2.66945,1.00130,1.56122,0.13031,-0.12736,-0.45925,0.07215,,,,,,,,,,,,,,,,,,,,,,,,,,0,0,0,0,0
2.4921,1783441477.4235,1,1,1.0000,-0.0000,1.40699,0.14554,-2.66945,1.00130,1.56122,0.13031,-0.12736,-0.45925,0.07215,,,,,,,,,,,,,,,,,,,,,,,,,,0,0,0,0,0
2.5015,1783441477.4329,1,1,1.0000,-0.0000,1.40699,0.14554,-2.66945,1.00130,1.56122,0.13031,-0.12736,-0.45925,0.07215,,,,,,,,,,,,,,,,,,,,,,,,,,0,0,0,0,0
2.5097,1783441477.4411,1,1,1.0000,-0.0000,1.40699,0.14554,-2.66945,1.00130,1.56122,0.13031,-0.12736,-0.45925,0.07215,,,,,,,,,,,,,,,,,,,,,,,,,,0,0,0,0,0
2.5102,1783441477.4416,1,1,1.0000,-0.0000,1.40699,0.14554,-2.66945,1.00130,1.56122,0.13031,-0.12736,-0.45925,0.07215,,,,,,,,,,,,,,,,,,,,,,,,,,0,0,0,0,0
2.5250,1783441477.4564,1,1,1.0000,-0.0000,1.40699,0.14554,-2.66945,1.00130,1.56122,0.13031,-0.12736,-0.45925,0.07215,,,,,,,,,,,,,,,,,,,,,,,,,,0,0,0,0,0
2.5299,1783441477.4613,1,1,1.0000,-0.0000,1.40699,0.14554,-2.66945,1.00130,1.56122,0.13031,-0.12736,-0.45925,0.07215,,,,,,,,,,,,,,,,,,,,,,,,,,0,0,0,0,0
2.5423,1783441477.4737,1,1,1.0000,-0.0000,1.40699,0.14554,-2.66945,1.00130,1.56122,0.13031,-0.12736,-0.45925,0.07215,,,,,,,,,,,,,,,,,,,,,,,,,,0,0,0,0,0
2.5498,1783441477.4812,1,1,1.0000,-0.0000,1.40699,0.14554,-2.66945,1.00130,1.56122,0.13031,-0.12736,-0.45925,0.07215,,,,,,,,,,,,,,,,,,,,,,,,,,0,0,0,0,0
2.5601,1783441477.4915,1,1,1.0000,-0.0000,1.40699,0.14554,-2.66945,1.00130,1.56122,0.13031,-0.12736,-0.45925,0.07215,,,,,,,,,,,,,,,,,,,,,,,,,,0,0,0,0,0
2.5702,1783441477.5017,1,1,1.0000,-0.0000,1.40699,0.14554,-2.66945,1.00130,1.56122,0.13031,-0.12736,-0.45925,0.07215,,,,,,,,,,,,,,,,,,,,,,,,,,0,0,0,0,0
2.5708,1783441477.5022,1,1,1.0000,-0.0000,1.40699,0.14554,-2.66945,1.00130,1.56122,0.13031,-0.12736,-0.45925,0.07215,,,,,,,,,,,,,,,,,,,,,,,,,,0,0,0,0,0
2.5797,1783441477.5111,1,1,1.0000,-0.0000,1.40699,0.14554,-2.66945,1.00130,1.56122,0.13031,-0.12736,-0.45925,0.07215,,,,,,,,,,,,,,,,,,,,,,,,,,0,0,0,0,0
2.5922,1783441477.5236,1,1,1.0000,-0.0000,1.40699,0.14554,-2.66945,1.00130,1.56122,0.13031,-0.12736,-0.45925,0.07215,,,,,,,,,,,,,,,,,,,,,,,,,,0,0,0,0,0
2.6064,1783441477.5378,1,1,1.0000,-0.0000,1.40699,0.14554,-2.66945,1.00130,1.56122,0.13031,-0.12736,-0.45925,0.07215,,,,,,,,,,,,,,,,,,,,,,,,,,0,0,0,0,0
2.6123,1783441477.5437,1,1,1.0000,-0.0000,1.40699,0.14554,-2.66945,1.00130,1.56122,0.13031,-0.12736,-0.45925,0.07215,,,,,,,,,,,,,,,,,,,,,,,,,,0,0,0,0,0
2.6196,1783441477.5510,1,1,1.0000,-0.0000,1.40700,0.14553,-2.66945,1.00130,1.56122,0.13031,-0.12737,-0.45925,0.07215,,,,,,,,,,,,,,,,,,,,,,,,,,0,0,0,0,0
2.6294,1783441477.5608,1,1,1.0000,-0.0000,1.40702,0.14553,-2.66945,1.00129,1.56122,0.13030,-0.12738,-0.45924,0.07215,,,,,,,,,,,,,,,,,,,,,,,,,,0,0,0,0,0
2.6418,1783441477.5732,1,1,1.0000,-0.0000,1.40707,0.14552,-2.66945,1.00129,1.56121,0.13028,-0.12740,-0.45923,0.07214,,,,,,,,,,,,,,,,,,,,,,,,,,0,0,0,0,0
2.6529,1783441477.5843,1,1,1.0000,-0.0000,1.40710,0.14551,-2.66945,1.00129,1.56121,0.13026,-0.12741,-0.45923,0.07214,,,,,,,,,,,,,,,,,,,,,,,,,,0,0,0,0,0
2.6598,1783441477.5912,1,1,1.0000,-0.0000,1.40718,0.14549,-2.66943,1.00128,1.56121,0.13019,-0.12744,-0.45923,0.07214,,,,,,,,,,,,,,,,,,,,,,,,,,0,0,0,0,0
2.6602,1783441477.5916,1,1,1.0000,-0.0000,1.40718,0.14549,-2.66943,1.00128,1.56121,0.13019,-0.12744,-0.45923,0.07214,,,,,,,,,,,,,,,,,,,,,,,,,,0,0,0,0,0
2.6740,1783441477.6054,1,1,1.0000,-0.0000,1.40726,0.14547,-2.66941,1.00129,1.56121,0.13013,-0.12747,-0.45923,0.07214,,,,,,,,,,,,,,,,,,,,,,,,,,0,0,0,0,0
2.6744,1783441477.6058,1,1,1.0000,-0.0000,1.40726,0.14547,-2.66941,1.00129,1.56121,0.13013,-0.12747,-0.45923,0.07214,,,,,,,,,,,,,,,,,,,,,,,,,,0,0,0,0,0
2.6969,1783441477.6283,1,1,1.0000,-0.0000,1.40794,0.14529,-2.66928,1.00130,1.56122,0.12951,-0.12774,-0.45922,0.07213,,,,,,,,,,,,,,,,,,,,,,,,,,0,0,0,0,0
2.7064,1783441477.6378,1,1,1.0000,-0.0000,1.40796,0.14528,-2.66928,1.00130,1.56122,0.12948,-0.12775,-0.45922,0.07213,,,,,,,,,,,,,,,,,,,,,,,,,,0,0,0,0,0
2.7142,1783441477.6456,1,1,1.0000,-0.0000,1.40817,0.14522,-2.66924,1.00131,1.56123,0.12928,-0.12783,-0.45921,0.07213,,,,,,,,,,,,,,,,,,,,,,,,,,0,0,0,0,0
2.7248,1783441477.6562,1,1,1.0000,-0.0000,1.40880,0.14505,-2.66912,1.00135,1.56124,0.12867,-0.12807,-0.45920,0.07212,,,,,,,,,,,,,,,,,,,,,,,,,,0,0,0,0,0
2.7369,1783441477.6683,1,1,1.0000,-0.0000,1.40912,0.14497,-2.66906,1.00136,1.56125,0.12836,-0.12819,-0.45920,0.07212,,,,,,,,,,,,,,,,,,,,,,,,,,0,0,0,0,0
2.7435,1783441477.6749,1,1,1.0000,-0.0000,1.40945,0.14488,-2.66900,1.00139,1.56126,0.12803,-0.12831,-0.45919,0.07212,,,,,,,,,,,,,,,,,,,,,,,,,,0,0,0,0,0
2.7529,1783441477.6843,1,1,1.0000,-0.0000,1.41004,0.14472,-2.66889,1.00143,1.56128,0.12745,-0.12853,-0.45918,0.07211,,,,,,,,,,,,,,,,,,,,,,,,,,0,0,0,0,0
2.7534,1783441477.6848,1,1,1.0000,-0.0000,1.41004,0.14472,-2.66889,1.00143,1.56128,0.12745,-0.12853,-0.45918,0.07211,,,,,,,,,,,,,,,,,,,,,,,,,,0,0,0,0,0
2.7637,1783441477.6951,1,1,1.0000,-0.0000,1.41047,0.14460,-2.66881,1.00145,1.56130,0.12702,-0.12870,-0.45918,0.07211,,,,,,,,,,,,,,,,,,,,,,,,,,0,0,0,0,0
2.7730,1783441477.7044,1,1,1.0000,-0.0000,1.41091,0.14448,-2.66873,1.00149,1.56132,0.12658,-0.12886,-0.45917,0.07211,,,,,,,,,,,,,,,,,,,,,,,,,,0,0,0,0,0
2.7862,1783441477.7177,1,1,1.0000,-0.0000,1.41216,0.14414,-2.66849,1.00158,1.56137,0.12533,-0.12933,-0.45916,0.07210,,,,,,,,,,,,,,,,,,,,,,,,,,0,0,0,0,0
2.7942,1783441477.7256,1,1,1.0000,-0.0000,1.41268,0.14400,-2.66840,1.00162,1.56139,0.12482,-0.12952,-0.45915,0.07209,,,,,,,,,,,,,,,,,,,,,,,,,,0,0,0,0,0
2.8039,1783441477.7353,1,1,1.0000,-0.0000,1.41317,0.14386,-2.66830,1.00165,1.56141,0.12432,-0.12971,-0.45915,0.07209,,,,,,,,,,,,,,,,,,,,,,,,,,0,0,0,0,0
2.8176,1783441477.7490,1,1,1.0000,-0.0000,1.41442,0.14352,-2.66806,1.00175,1.56146,0.12308,-0.13018,-0.45913,0.07209,,,,,,,,,,,,,,,,,,,,,,,,,,0,0,0,0,0
2.8236,1783441477.7550,1,1,1.0000,-0.0000,1.41493,0.14338,-2.66796,1.00179,1.56148,0.12256,-0.13037,-0.45913,0.07208,,,,,,,,,,,,,,,,,,,,,,,,,,0,0,0,0,0
2.8360,1783441477.7675,1,1,1.0000,-0.0000,1.41538,0.14326,-2.66788,1.00183,1.56150,0.12211,-0.13053,-0.45913,0.07208,,,,,,,,,,,,,,,,,,,,,,,,,,0,0,0,0,0
2.8367,1783441477.7681,1,1,1.0000,-0.0000,1.41538,0.14326,-2.66788,1.00183,1.56150,0.12211,-0.13053,-0.45913,0.07208,,,,,,,,,,,,,,,,,,,,,,,,,,0,0,0,0,0
2.8451,1783441477.7765,1,1,1.0000,-0.0000,1.41606,0.14307,-2.66774,1.00188,1.56153,0.12143,-0.13079,-0.45912,0.07208,,,,,,,,,,,,,,,,,,,,,,,,,,0,0,0,0,0
2.8533,1783441477.7848,1,1,1.0000,-0.0000,1.41611,0.14306,-2.66773,1.00188,1.56153,0.12138,-0.13081,-0.45912,0.07208,,,,,,,,,,,,,,,,,,,,,,,,,,0,0,0,0,0
2.8634,1783441477.7948,1,1,1.0000,-0.0000,1.41648,0.14296,-2.66766,1.00191,1.56155,0.12101,-0.13095,-0.45912,0.07208,,,,,,,,,,,,,,,,,,,,,,,,,,0,0,0,0,0
2.8737,1783441477.8051,1,1,1.0000,-0.0000,1.41750,0.14268,-2.66746,1.00200,1.56160,0.11999,-0.13132,-0.45911,0.07208,,,,,,,,,,,,,,,,,,,,,,,,,,0,0,0,0,0
2.8741,1783441477.8055,1,1,1.0000,-0.0000,1.41750,0.14268,-2.66746,1.00200,1.56160,0.11999,-0.13132,-0.45911,0.07208,,,,,,,,,,,,,,,,,,,,,,,,,,0,0,0,0,0
2.8831,1783441477.8146,1,1,1.0000,-0.0000,1.41832,0.14245,-2.66730,1.00207,1.56163,0.11916,-0.13163,-0.45911,0.07208,,,,,,,,,,,,,,,,,,,,,,,,,,0,0,0,0,0
2.8966,1783441477.8281,1,1,1.0000,-0.0000,1.41854,0.14239,-2.66726,1.00209,1.56165,0.11894,-0.13171,-0.45910,0.07208,,,,,,,,,,,,,,,,,,,,,,,,,,0,0,0,0,0
2.9111,1783441477.8425,1,1,1.0000,-0.0000,1.41907,0.14225,-2.66716,1.00213,1.56167,0.11841,-0.13191,-0.45910,0.07207,,,,,,,,,,,,,,,,,,,,,,,,,,0,0,0,0,0
2.9166,1783441477.8480,1,1,1.0000,-0.0000,1.41949,0.14213,-2.66708,1.00217,1.56169,0.11798,-0.13207,-0.45909,0.07207,,,,,,,,,,,,,,,,,,,,,,,,,,0,0,0,0,0
2.9170,1783441477.8484,1,1,1.0000,-0.0000,1.41949,0.14213,-2.66708,1.00217,1.56169,0.11798,-0.13207,-0.45909,0.07207,,,,,,,,,,,,,,,,,,,,,,,,,,0,0,0,0,0
2.9339,1783441477.8653,1,1,1.0000,-0.0000,1.42026,0.14192,-2.66695,1.00225,1.56173,0.11719,-0.13236,-0.45908,0.07206,,,,,,,,,,,,,,,,,,,,,,,,,,0,0,0,0,0
2.9380,1783441477.8694,1,1,1.0000,-0.0000,1.42040,0.14188,-2.66693,1.00226,1.56174,0.11706,-0.13241,-0.45907,0.07206,,,,,,,,,,,,,,,,,,,,,,,,,,0,0,0,0,0
2.9385,1783441477.8699,1,1,1.0000,-0.0000,1.42040,0.14188,-2.66693,1.00226,1.56174,0.11706,-0.13241,-0.45907,0.07206,,,,,,,,,,,,,,,,,,,,,,,,,,0,0,0,0,0
2.9483,1783441477.8797,1,1,1.0000,-0.0000,1.42054,0.14184,-2.66691,1.00228,1.56175,0.11691,-0.13246,-0.45907,0.07205,,,,,,,,,,,,,,,,,,,,,,,,,,0,0,0,0,0
2.9485,1783441477.8799,1,1,1.0000,-0.0000,1.42054,0.14184,-2.66691,1.00228,1.56175,0.11691,-0.13246,-0.45907,0.07205,,,,,,,,,,,,,,,,,,,,,,,,,,0,0,0,0,0
2.9641,1783441477.8955,1,1,1.0000,-0.0000,1.42054,0.14184,-2.66691,1.00228,1.56175,0.11691,-0.13246,-0.45907,0.07205,,,,,,,,,,,,,,,,,,,,,,,,,,0,0,0,0,0
2.9718,1783441477.9032,1,1,1.0000,-0.0000,1.42054,0.14184,-2.66691,1.00228,1.56175,0.11691,-0.13246,-0.45907,0.07205,,,,,,,,,,,,,,,,,,,,,,,,,,0,0,0,0,0
2.9806,1783441477.9120,1,1,1.0000,-0.0000,1.42054,0.14184,-2.66691,1.00228,1.56175,0.11691,-0.13246,-0.45907,0.07205,,,,,,,,,,,,,,,,,,,,,,,,,,0,0,0,0,0
2.9897,1783441477.9211,1,1,1.0000,-0.0000,1.42054,0.14184,-2.66691,1.00228,1.56175,0.11691,-0.13246,-0.45907,0.07205,,,,,,,,,,,,,,,,,,,,,,,,,,0,0,0,0,0
2.9903,1783441477.9217,1,1,1.0000,-0.0000,1.42054,0.14184,-2.66691,1.00228,1.56175,0.11691,-0.13246,-0.45907,0.07205,,,,,,,,,,,,,,,,,,,,,,,,,,0,0,0,0,0
2.9987,1783441477.9301,1,1,1.0000,-0.0000,1.42054,0.14184,-2.66691,1.00228,1.56175,0.11691,-0.13246,-0.45907,0.07205,,,,,,,,,,,,,,,,,,,,,,,,,,0,0,0,0,0
3.0072,1783441477.9387,1,1,1.0000,-0.0000,1.42054,0.14184,-2.66691,1.00228,1.56175,0.11691,-0.13246,-0.45907,0.07205,,,,,,,,,,,,,,,,,,,,,,,,,,0,0,0,0,0
3.0179,1783441477.9493,1,1,1.0000,-0.0000,1.42054,0.14184,-2.66691,1.00228,1.56175,0.11691,-0.13246,-0.45907,0.07205,,,,,,,,,,,,,,,,,,,,,,,,,,0,0,0,0,0
3.0183,1783441477.9497,1,1,1.0000,-0.0000,1.42054,0.14184,-2.66691,1.00228,1.56175,0.11691,-0.13246,-0.45907,0.07205,,,,,,,,,,,,,,,,,,,,,,,,,,0,0,0,0,0
3.0304,1783441477.9618,1,1,1.0000,-0.0000,1.42054,0.14184,-2.66691,1.00228,1.56175,0.11691,-0.13246,-0.45907,0.07205,,,,,,,,,,,,,,,,,,,,,,,,,,0,0,0,0,0
3.0370,1783441477.9684,1,1,1.0000,-0.0000,1.42054,0.14184,-2.66691,1.00228,1.56175,0.11691,-0.13246,-0.45907,0.07205,,,,,,,,,,,,,,,,,,,,,,,,,,0,0,0,0,0
3.0468,1783441477.9782,1,1,1.0000,-0.0000,1.42054,0.14184,-2.66691,1.00228,1.56175,0.11691,-0.13246,-0.45907,0.07205,,,,,,,,,,,,,,,,,,,,,,,,,,0,0,0,0,0
3.0603,1783441477.9917,1,1,1.0000,-0.0000,1.42054,0.14184,-2.66691,1.00228,1.56175,0.11691,-0.13246,-0.45907,0.07205,,,,,,,,,,,,,,,,,,,,,,,,,,0,0,0,0,0
3.0607,1783441477.9922,1,1,1.0000,-0.0000,1.42054,0.14184,-2.66691,1.00228,1.56175,0.11691,-0.13246,-0.45907,0.07205,,,,,,,,,,,,,,,,,,,,,,,,,,0,0,0,0,0
3.0683,1783441477.9998,1,1,1.0000,-0.0000,1.42054,0.14184,-2.66691,1.00228,1.56175,0.11691,-0.13246,-0.45907,0.07205,,,,,,,,,,,,,,,,,,,,,,,,,,0,0,0,0,0
3.0687,1783441478.0002,1,1,1.0000,-0.0000,1.42054,0.14184,-2.66691,1.00228,1.56175,0.11691,-0.13246,-0.45907,0.07205,,,,,,,,,,,,,,,,,,,,,,,,,,0,0,0,0,0
3.0692,1783441478.0006,1,1,1.0000,-0.0000,1.42054,0.14184,-2.66691,1.00228,1.56175,0.11691,-0.13246,-0.45907,0.07205,,,,,,,,,,,,,,,,,,,,,,,,,,0,0,0,0,0
3.0803,1783441478.0117,1,1,1.0000,-0.0000,1.42054,0.14184,-2.66691,1.00228,1.56175,0.11691,-0.13246,-0.45907,0.07205,,,,,,,,,,,,,,,,,,,,,,,,,,0,0,0,0,0
3.0893,1783441478.0207,1,1,1.0000,-0.0000,1.42054,0.14184,-2.66691,1.00228,1.56175,0.11691,-0.13246,-0.45907,0.07205,,,,,,,,,,,,,,,,,,,,,,,,,,0,0,0,0,0
3.0902,1783441478.0216,1,1,1.0000,-0.0000,1.42054,0.14184,-2.66691,1.00228,1.56175,0.11691,-0.13246,-0.45907,0.07205,,,,,,,,,,,,,,,,,,,,,,,,,,0,0,0,0,0
3.1020,1783441478.0335,1,1,1.0000,-0.0000,1.42054,0.14184,-2.66691,1.00228,1.56175,0.11691,-0.13246,-0.45907,0.07205,,,,,,,,,,,,,,,,,,,,,,,,,,0,0,0,0,0
3.1096,1783441478.0410,1,1,1.0000,-0.0000,1.42054,0.14184,-2.66691,1.00228,1.56175,0.11691,-0.13246,-0.45907,0.07205,,,,,,,,,,,,,,,,,,,,,,,,,,0,0,0,0,0
3.1168,1783441478.0482,1,1,1.0000,-0.0000,1.42054,0.14184,-2.66691,1.00228,1.56175,0.11691,-0.13246,-0.45907,0.07205,,,,,,,,,,,,,,,,,,,,,,,,,,0,0,0,0,0
3.1283,1783441478.0597,1,1,1.0000,-0.0000,1.42054,0.14184,-2.66691,1.00228,1.56175,0.11691,-0.13246,-0.45907,0.07205,,,,,,,,,,,,,,,,,,,,,,,,,,0,0,0,0,0
3.1382,1783441478.0697,1,1,1.0000,-0.0000,1.42054,0.14184,-2.66691,1.00228,1.56175,0.11691,-0.13246,-0.45907,0.07205,,,,,,,,,,,,,,,,,,,,,,,,,,0,0,0,0,0
3.1471,1783441478.0785,1,1,1.0000,-0.0000,1.42054,0.14184,-2.66691,1.00228,1.56175,0.11691,-0.13246,-0.45907,0.07205,,,,,,,,,,,,,,,,,,,,,,,,,,0,0,0,0,0
3.1567,1783441478.0881,1,1,1.0000,-0.0000,1.42054,0.14184,-2.66691,1.00228,1.56175,0.11691,-0.13246,-0.45907,0.07205,,,,,,,,,,,,,,,,,,,,,,,,,,0,0,0,0,0
3.1570,1783441478.0885,1,1,1.0000,-0.0000,1.42054,0.14184,-2.66691,1.00228,1.56175,0.11691,-0.13246,-0.45907,0.07205,,,,,,,,,,,,,,,,,,,,,,,,,,0,0,0,0,0
3.1684,1783441478.0998,1,1,1.0000,-0.0000,1.42054,0.14184,-2.66691,1.00228,1.56175,0.11691,-0.13246,-0.45907,0.07205,,,,,,,,,,,,,,,,,,,,,,,,,,0,0,0,0,0
3.1800,1783441478.1115,1,1,1.0000,-0.0000,1.42054,0.14184,-2.66691,1.00228,1.56175,0.11691,-0.13246,-0.45907,0.07205,,,,,,,,,,,,,,,,,,,,,,,,,,0,0,0,0,0
3.2177,1783441478.1491,1,1,1.0000,-0.0000,1.42054,0.14184,-2.66691,1.00228,1.56175,0.11691,-0.13246,-0.45907,0.07205,,,,,,,,,,,,,,,,,,,,,,,,,,0,0,0,0,0
3.2182,1783441478.1496,1,1,1.0000,-0.0000,1.42054,0.14184,-2.66691,1.00228,1.56175,0.11691,-0.13246,-0.45907,0.07205,,,,,,,,,,,,,,,,,,,,,,,,,,0,0,0,0,0
3.2186,1783441478.1500,1,1,1.0000,-0.0000,1.42054,0.14184,-2.66691,1.00228,1.56175,0.11691,-0.13246,-0.45907,0.07205,,,,,,,,,,,,,,,,,,,,,,,,,,0,0,0,0,0
3.2201,1783441478.1515,1,1,1.0000,-0.0000,1.42054,0.14184,-2.66691,1.00228,1.56175,0.11691,-0.13246,-0.45907,0.07205,,,,,,,,,,,,,,,,,,,,,,,,,,0,0,0,0,0
3.2204,1783441478.1518,1,1,1.0000,-0.0000,1.42054,0.14184,-2.66691,1.00228,1.56175,0.11691,-0.13246,-0.45907,0.07205,,,,,,,,,,,,,,,,,,,,,,,,,,0,0,0,0,0
3.2267,1783441478.1581,1,1,1.0000,-0.0000,1.42054,0.14184,-2.66691,1.00228,1.56175,0.11691,-0.13246,-0.45907,0.07205,,,,,,,,,,,,,,,,,,,,,,,,,,0,0,0,0,0
3.2277,1783441478.1591,1,1,1.0000,-0.0000,1.42054,0.14184,-2.66691,1.00228,1.56175,0.11691,-0.13246,-0.45907,0.07205,,,,,,,,,,,,,,,,,,,,,,,,,,0,0,0,0,0
3.2367,1783441478.1681,1,1,1.0000,-0.0000,1.42054,0.14184,-2.66691,1.00228,1.56175,0.11691,-0.13246,-0.45907,0.07205,,,,,,,,,,,,,,,,,,,,,,,,,,0,0,0,0,0
3.2489,1783441478.1803,1,1,1.0000,-0.0000,1.42054,0.14184,-2.66691,1.00228,1.56175,0.11691,-0.13246,-0.45907,0.07205,,,,,,,,,,,,,,,,,,,,,,,,,,0,0,0,0,0
3.2493,1783441478.1808,1,1,1.0000,-0.0000,1.42054,0.14184,-2.66691,1.00228,1.56175,0.11691,-0.13246,-0.45907,0.07205,,,,,,,,,,,,,,,,,,,,,,,,,,0,0,0,0,0
3.2566,1783441478.1880,1,1,1.0000,-0.0000,1.42054,0.14184,-2.66691,1.00228,1.56175,0.11691,-0.13246,-0.45907,0.07205,,,,,,,,,,,,,,,,,,,,,,,,,,0,0,0,0,0
3.2570,1783441478.1884,1,1,1.0000,-0.0000,1.42054,0.14184,-2.66691,1.00228,1.56175,0.11691,-0.13246,-0.45907,0.07205,,,,,,,,,,,,,,,,,,,,,,,,,,0,0,0,0,0
3.2668,1783441478.1982,1,1,1.0000,-0.0000,1.42054,0.14184,-2.66691,1.00228,1.56175,0.11691,-0.13246,-0.45907,0.07205,,,,,,,,,,,,,,,,,,,,,,,,,,0,0,0,0,0
3.2770,1783441478.2084,1,1,1.0000,-0.0000,1.42054,0.14184,-2.66691,1.00228,1.56175,0.11691,-0.13246,-0.45907,0.07205,,,,,,,,,,,,,,,,,,,,,,,,,,0,0,0,0,0
3.2773,1783441478.2087,1,1,1.0000,-0.0000,1.42054,0.14184,-2.66691,1.00228,1.56175,0.11691,-0.13246,-0.45907,0.07205,,,,,,,,,,,,,,,,,,,,,,,,,,0,0,0,0,0
3.2879,1783441478.2193,1,1,1.0000,-0.0000,1.42054,0.14184,-2.66691,1.00228,1.56175,0.11691,-0.13246,-0.45907,0.07205,,,,,,,,,,,,,,,,,,,,,,,,,,0,0,0,0,0
3.2973,1783441478.2287,1,1,1.0000,-0.0000,1.42054,0.14184,-2.66691,1.00228,1.56175,0.11691,-0.13246,-0.45907,0.07205,,,,,,,,,,,,,,,,,,,,,,,,,,0,0,0,0,0
3.3106,1783441478.2420,1,1,1.0000,-0.0000,1.42054,0.14184,-2.66691,1.00228,1.56175,0.11691,-0.13246,-0.45907,0.07205,,,,,,,,,,,,,,,,,,,,,,,,,,0,0,0,0,0
3.3243,1783441478.2558,1,1,1.0000,-0.0000,1.42054,0.14184,-2.66691,1.00228,1.56175,0.11691,-0.13246,-0.45907,0.07205,,,,,,,,,,,,,,,,,,,,,,,,,,0,0,0,0,0
3.3248,1783441478.2562,1,1,1.0000,-0.0000,1.42054,0.14184,-2.66691,1.00228,1.56175,0.11691,-0.13246,-0.45907,0.07205,,,,,,,,,,,,,,,,,,,,,,,,,,0,0,0,0,0
3.3293,1783441478.2607,1,1,1.0000,-0.0000,1.42054,0.14184,-2.66691,1.00228,1.56175,0.11691,-0.13246,-0.45907,0.07205,,,,,,,,,,,,,,,,,,,,,,,,,,0,0,0,0,0
3.3446,1783441478.2760,1,1,1.0000,-0.0000,1.42054,0.14185,-2.66691,1.00228,1.56176,0.11690,-0.13246,-0.45906,0.07206,,,,,,,,,,,,,,,,,,,,,,,,,,0,0,0,0,0
3.3474,1783441478.2788,1,1,1.0000,-0.0000,1.42054,0.14185,-2.66691,1.00228,1.56176,0.11690,-0.13246,-0.45906,0.07206,,,,,,,,,,,,,,,,,,,,,,,,,,0,0,0,0,0
3.3478,1783441478.2792,1,1,1.0000,-0.0000,1.42054,0.14185,-2.66691,1.00228,1.56176,0.11690,-0.13246,-0.45906,0.07206,,,,,,,,,,,,,,,,,,,,,,,,,,0,0,0,0,0
3.3570,1783441478.2884,1,1,1.0000,-0.0000,1.42053,0.14185,-2.66692,1.00229,1.56176,0.11689,-0.13245,-0.45906,0.07206,,,,,,,,,,,,,,,,,,,,,,,,,,0,0,0,0,0
3.3679,1783441478.2993,1,1,1.0000,-0.0000,1.42053,0.14186,-2.66693,1.00229,1.56176,0.11689,-0.13245,-0.45906,0.07205,,,,,,,,,,,,,,,,,,,,,,,,,,0,0,0,0,0
3.3811,1783441478.3125,1,1,1.0000,-0.0000,1.42051,0.14193,-2.66701,1.00230,1.56177,0.11688,-0.13245,-0.45901,0.07205,,,,,,,,,,,,,,,,,,,,,,,,,,0,0,0,0,0
3.4099,1783441478.3413,1,1,1.0000,-0.0000,1.42047,0.14213,-2.66717,1.00228,1.56178,0.11688,-0.13244,-0.45892,0.07204,,,,,,,,,,,,,,,,,,,,,,,,,,0,0,0,0,0
3.4125,1783441478.3439,1,1,1.0000,-0.0000,1.42046,0.14220,-2.66722,1.00227,1.56178,0.11689,-0.13244,-0.45889,0.07204,,,,,,,,,,,,,,,,,,,,,,,,,,0,0,0,0,0
3.4176,1783441478.3490,1,1,1.0000,-0.0000,1.42044,0.14227,-2.66728,1.00226,1.56178,0.11689,-0.13244,-0.45886,0.07205,,,,,,,,,,,,,,,,,,,,,,,,,,0,0,0,0,0
3.4272,1783441478.3586,1,1,1.0000,-0.0000,1.42042,0.14236,-2.66735,1.00225,1.56179,0.11689,-0.13244,-0.45882,0.07205,,,,,,,,,,,,,,,,,,,,,,,,,,0,0,0,0,0
3.4370,1783441478.3684,1,1,1.0000,-0.0000,1.42040,0.14251,-2.66745,1.00221,1.56179,0.11691,-0.13243,-0.45876,0.07205,,,,,,,,,,,,,,,,,,,,,,,,,,0,0,0,0,0
3.4374,1783441478.3688,1,1,1.0000,-0.0000,1.42040,0.14251,-2.66745,1.00221,1.56179,0.11691,-0.13243,-0.45876,0.07205,,,,,,,,,,,,,,,,,,,,,,,,,,0,0,0,0,0
3.4502,1783441478.3817,1,1,1.0000,-0.0000,1.42035,0.14275,-2.66763,1.00216,1.56179,0.11695,-0.13243,-0.45866,0.07205,,,,,,,,,,,,,,,,,,,,,,,,,,0,0,0,0,0
3.4578,1783441478.3892,1,1,1.0000,-0.0000,1.42032,0.14289,-2.66772,1.00213,1.56179,0.11697,-0.13243,-0.45860,0.07206,,,,,,,,,,,,,,,,,,,,,,,,,,0,0,0,0,0
3.4678,1783441478.3992,1,1,1.0000,-0.0000,1.42025,0.14324,-2.66798,1.00205,1.56179,0.11702,-0.13242,-0.45845,0.07206,,,,,,,,,,,,,,,,,,,,,,,,,,0,0,0,0,0
3.4783,1783441478.4097,1,1,1.0000,-0.0000,1.42010,0.14406,-2.66857,1.00185,1.56179,0.11716,-0.13242,-0.45809,0.07207,,,,,,,,,,,,,,,,,,,,,,,,,,0,0,0,0,0
3.4887,1783441478.4201,1,1,1.0000,-0.0000,1.42007,0.14422,-2.66868,1.00181,1.56179,0.11719,-0.13241,-0.45802,0.07207,,,,,,,,,,,,,,,,,,,,,,,,,,0,0,0,0,0
3.4891,1783441478.4206,1,1,1.0000,-0.0000,1.42007,0.14422,-2.66868,1.00181,1.56179,0.11719,-0.13241,-0.45802,0.07207,,,,,,,,,,,,,,,,,,,,,,,,,,0,0,0,0,0
3.4970,1783441478.4284,1,1,1.0000,-0.0000,1.41999,0.14465,-2.66899,1.00170,1.56179,0.11726,-0.13241,-0.45784,0.07208,,,,,,,,,,,,,,,,,,,,,,,,,,0,0,0,0,0
3.5096,1783441478.4410,1,1,1.0000,-0.0000,1.41979,0.14564,-2.66972,1.00145,1.56179,0.11744,-0.13240,-0.45740,0.07208,,,,,,,,,,,,,,,,,,,,,,,,,,0,0,0,0,0
3.5207,1783441478.4521,1,1,1.0000,-0.0000,1.41976,0.14583,-2.66985,1.00140,1.56179,0.11748,-0.13240,-0.45732,0.07208,,,,,,,,,,,,,,,,,,,,,,,,,,0,0,0,0,0
3.5311,1783441478.4625,1,1,1.0000,-0.0000,1.41966,0.14633,-2.67021,1.00127,1.56179,0.11757,-0.13240,-0.45710,0.07209,,,,,,,,,,,,,,,,,,,,,,,,,,0,0,0,0,0
3.5421,1783441478.4735,1,1,1.0000,-0.0000,1.41959,0.14673,-2.67050,1.00116,1.56179,0.11765,-0.13240,-0.45693,0.07209,,,,,,,,,,,,,,,,,,,,,,,,,,0,0,0,0,0
3.5568,1783441478.4882,1,1,1.0000,-0.0000,1.41937,0.14787,-2.67133,1.00086,1.56179,0.11786,-0.13239,-0.45642,0.07209,,,,,,,,,,,,,,,,,,,,,,,,,,0,0,0,0,0
3.5635,1783441478.4949,1,1,1.0000,-0.0000,1.41928,0.14831,-2.67164,1.00074,1.56179,0.11794,-0.13239,-0.45623,0.07209,,,,,,,,,,,,,,,,,,,,,,,,,,0,0,0,0,0
3.5710,1783441478.5024,1,1,1.0000,-0.0000,1.41910,0.14927,-2.67234,1.00048,1.56179,0.11813,-0.13238,-0.45581,0.07210,,,,,,,,,,,,,,,,,,,,,,,,,,0,0,0,0,0
3.5809,1783441478.5123,1,1,1.0000,-0.0000,1.41907,0.14941,-2.67244,1.00044,1.56179,0.11815,-0.13238,-0.45575,0.07210,,,,,,,,,,,,,,,,,,,,,,,,,,0,0,0,0,0
3.5812,1783441478.5126,1,1,1.0000,-0.0000,1.41907,0.14941,-2.67244,1.00044,1.56179,0.11815,-0.13238,-0.45575,0.07210,,,,,,,,,,,,,,,,,,,,,,,,,,0,0,0,0,0
3.5811,1783441478.5126,1,1,1.0000,-0.0000,1.41907,0.14941,-2.67244,1.00044,1.56179,0.11815,-0.13238,-0.45575,0.07210,,,,,,,,,,,,,,,,,,,,,,,,,,0,0,0,0,0
3.5946,1783441478.5261,1,1,1.0000,-0.0000,1.41895,0.15005,-2.67290,1.00026,1.56179,0.11827,-0.13238,-0.45547,0.07210,,,,,,,,,,,,,,,,,,,,,,,,,,0,0,0,0,0
3.6018,1783441478.5333,1,1,1.0000,-0.0000,1.41884,0.15064,-2.67333,1.00009,1.56179,0.11839,-0.13237,-0.45520,0.07210,,,,,,,,,,,,,,,,,,,,,,,,,,0,0,0,0,0
3.6129,1783441478.5444,1,1,1.0000,-0.0000,1.41881,0.15075,-2.67340,1.00006,1.56179,0.11841,-0.13237,-0.45516,0.07210,,,,,,,,,,,,,,,,,,,,,,,,,,0,0,0,0,0
3.6223,1783441478.5538,1,1,1.0000,-0.0000,1.41876,0.15103,-2.67361,0.99998,1.56179,0.11846,-0.13237,-0.45503,0.07209,,,,,,,,,,,,,,,,,,,,,,,,,,0,0,0,0,0
3.6307,1783441478.5621,1,1,1.0000,-0.0000,1.41868,0.15143,-2.67390,0.99986,1.56179,0.11854,-0.13237,-0.45485,0.07209,,,,,,,,,,,,,,,,,,,,,,,,,,0,0,0,0,0
3.6409,1783441478.5724,1,1,1.0000,-0.0000,1.41855,0.15211,-2.67439,0.99966,1.56179,0.11868,-0.13237,-0.45455,0.07209,,,,,,,,,,,,,,,,,,,,,,,,,,0,0,0,0,0
3.6414,1783441478.5729,1,1,1.0000,-0.0000,1.41855,0.15211,-2.67439,0.99966,1.56179,0.11868,-0.13237,-0.45455,0.07209,,,,,,,,,,,,,,,,,,,,,,,,,,0,0,0,0,0
3.6548,1783441478.5863,1,1,1.0000,-0.0000,1.41843,0.15272,-2.67483,0.99948,1.56179,0.11880,-0.13236,-0.45428,0.07209,,,,,,,,,,,,,,,,,,,,,,,,,,0,0,0,0,0
3.6552,1783441478.5867,1,1,1.0000,-0.0000,1.41843,0.15272,-2.67483,0.99948,1.56179,0.11880,-0.13236,-0.45428,0.07209,,,,,,,,,,,,,,,,,,,,,,,,,,0,0,0,0,0
3.6742,1783441478.6057,1,1,1.0000,-0.0000,1.41837,0.15306,-2.67508,0.99937,1.56179,0.11887,-0.13236,-0.45413,0.07209,,,,,,,,,,,,,,,,,,,,,,,,,,0,0,0,0,0
3.6767,1783441478.6081,1,1,1.0000,-0.0000,1.41837,0.15306,-2.67508,0.99937,1.56179,0.11887,-0.13236,-0.45413,0.07209,,,,,,,,,,,,,,,,,,,,,,,,,,0,0,0,0,0
3.7080,1783441478.6395,1,1,1.0000,-0.0000,1.41837,0.15306,-2.67508,0.99937,1.56179,0.11887,-0.13236,-0.45413,0.07209,,,,,,,,,,,,,,,,,,,,,,,,,,0,0,0,0,0
3.7179,1783441478.6493,1,1,1.0000,-0.0000,1.41837,0.15306,-2.67508,0.99937,1.56179,0.11887,-0.13236,-0.45413,0.07209,,,,,,,,,,,,,,,,,,,,,,,,,,0,0,0,0,0
3.7318,1783441478.6633,1,1,1.0000,-0.0000,1.41837,0.15306,-2.67508,0.99937,1.56179,0.11887,-0.13236,-0.45413,0.07209,,,,,,,,,,,,,,,,,,,,,,,,,,0,0,0,0,0
3.7421,1783441478.6736,1,1,1.0000,-0.0000,1.41837,0.15306,-2.67508,0.99937,1.56179,0.11887,-0.13236,-0.45413,0.07209,,,,,,,,,,,,,,,,,,,,,,,,,,0,0,0,0,0
3.7529,1783441478.6844,1,1,1.0000,-0.0000,1.41837,0.15306,-2.67508,0.99937,1.56179,0.11887,-0.13236,-0.45413,0.07209,,,,,,,,,,,,,,,,,,,,,,,,,,0,0,0,0,0
3.7533,1783441478.6848,1,1,1.0000,-0.0000,1.41837,0.15306,-2.67508,0.99937,1.56179,0.11887,-0.13236,-0.45413,0.07209,,,,,,,,,,,,,,,,,,,,,,,,,,0,0,0,0,0
3.7656,1783441478.6971,1,1,1.0000,-0.0000,1.41837,0.15306,-2.67508,0.99937,1.56179,0.11887,-0.13236,-0.45413,0.07209,,,,,,,,,,,,,,,,,,,,,,,,,,0,0,0,0,0
3.7663,1783441478.6978,1,1,1.0000,-0.0000,1.41837,0.15306,-2.67508,0.99937,1.56179,0.11887,-0.13236,-0.45413,0.07209,,,,,,,,,,,,,,,,,,,,,,,,,,0,0,0,0,0
3.7668,1783441478.6982,1,1,1.0000,-0.0000,1.41837,0.15306,-2.67508,0.99937,1.56179,0.11887,-0.13236,-0.45413,0.07209,,,,,,,,,,,,,,,,,,,,,,,,,,0,0,0,0,0
3.7674,1783441478.6988,1,1,1.0000,-0.0000,1.41837,0.15306,-2.67508,0.99937,1.56179,0.11887,-0.13236,-0.45413,0.07209,,,,,,,,,,,,,,,,,,,,,,,,,,0,0,0,0,0
3.7678,1783441478.6992,1,1,1.0000,-0.0000,1.41837,0.15306,-2.67508,0.99937,1.56179,0.11887,-0.13236,-0.45413,0.07209,,,,,,,,,,,,,,,,,,,,,,,,,,0,0,0,0,0
3.7756,1783441478.7071,1,1,1.0000,-0.0000,1.41837,0.15306,-2.67508,0.99937,1.56179,0.11887,-0.13236,-0.45413,0.07209,,,,,,,,,,,,,,,,,,,,,,,,,,0,0,0,0,0
3.7803,1783441478.7118,1,1,1.0000,-0.0000,1.41837,0.15306,-2.67508,0.99937,1.56179,0.11887,-0.13236,-0.45413,0.07209,,,,,,,,,,,,,,,,,,,,,,,,,,0,0,0,0,0
3.7807,1783441478.7121,1,1,1.0000,-0.0000,1.41837,0.15306,-2.67508,0.99937,1.56179,0.11887,-0.13236,-0.45413,0.07209,,,,,,,,,,,,,,,,,,,,,,,,,,0,0,0,0,0
3.7917,1783441478.7232,1,1,1.0000,-0.0000,1.41837,0.15306,-2.67508,0.99937,1.56179,0.11887,-0.13236,-0.45413,0.07209,,,,,,,,,,,,,,,,,,,,,,,,,,0,0,0,0,0
3.8005,1783441478.7320,1,1,1.0000,-0.0000,1.41837,0.15306,-2.67508,0.99937,1.56179,0.11887,-0.13236,-0.45413,0.07209,,,,,,,,,,,,,,,,,,,,,,,,,,0,0,0,0,0
3.8134,1783441478.7449,1,1,1.0000,-0.0000,1.41837,0.15306,-2.67508,0.99937,1.56179,0.11887,-0.13236,-0.45413,0.07209,,,,,,,,,,,,,,,,,,,,,,,,,,0,0,0,0,0
3.8261,1783441478.7576,1,1,1.0000,-0.0000,1.41837,0.15306,-2.67508,0.99937,1.56179,0.11887,-0.13236,-0.45413,0.07209,,,,,,,,,,,,,,,,,,,,,,,,,,0,0,0,0,0
3.8327,1783441478.7642,1,1,1.0000,-0.0000,1.41837,0.15306,-2.67508,0.99937,1.56179,0.11887,-0.13236,-0.45413,0.07209,,,,,,,,,,,,,,,,,,,,,,,,,,0,0,0,0,0
3.8332,1783441478.7646,1,1,1.0000,-0.0000,1.41837,0.15306,-2.67508,0.99937,1.56179,0.11887,-0.13236,-0.45413,0.07209,,,,,,,,,,,,,,,,,,,,,,,,,,0,0,0,0,0
3.8861,1783441478.8175,1,1,1.0000,-0.0000,1.41837,0.15306,-2.67508,0.99937,1.56179,0.11887,-0.13236,-0.45413,0.07209,,,,,,,,,,,,,,,,,,,,,,,,,,0,0,0,0,0
3.8869,1783441478.8183,1,1,1.0000,-0.0000,1.41837,0.15306,-2.67508,0.99937,1.56179,0.11887,-0.13236,-0.45413,0.07209,,,,,,,,,,,,,,,,,,,,,,,,,,0,0,0,0,0
3.9743,1783441478.9058,1,1,1.0000,-0.0000,1.41837,0.15306,-2.67508,0.99937,1.56179,0.11887,-0.13236,-0.45413,0.07209,,,,,,,,,,,,,,,,,,,,,,,,,,0,0,0,0,0
3.9747,1783441478.9062,1,1,1.0000,-0.0000,1.41837,0.15306,-2.67508,0.99937,1.56179,0.11887,-0.13236,-0.45413,0.07209,,,,,,,,,,,,,,,,,,,,,,,,,,0,0,0,0,0
3.9753,1783441478.9067,1,1,1.0000,-0.0000,1.41837,0.15306,-2.67508,0.99937,1.56179,0.11887,-0.13236,-0.45413,0.07209,,,,,,,,,,,,,,,,,,,,,,,,,,0,0,0,0,0
3.9757,1783441478.9072,1,1,1.0000,-0.0000,1.41837,0.15306,-2.67508,0.99937,1.56179,0.11887,-0.13236,-0.45413,0.07209,,,,,,,,,,,,,,,,,,,,,,,,,,0,0,0,0,0
3.9815,1783441478.9130,1,1,1.0000,-0.0000,1.41837,0.15306,-2.67508,0.99937,1.56179,0.11887,-0.13236,-0.45413,0.07209,,,,,,,,,,,,,,,,,,,,,,,,,,0,0,0,0,0
3.9878,1783441478.9193,1,1,1.0000,-0.0000,1.41837,0.15306,-2.67508,0.99937,1.56179,0.11887,-0.13236,-0.45413,0.07209,,,,,,,,,,,,,,,,,,,,,,,,,,0,0,0,0,0
3.9886,1783441478.9201,1,1,1.0000,-0.0000,1.41837,0.15306,-2.67508,0.99937,1.56179,0.11887,-0.13236,-0.45413,0.07209,,,,,,,,,,,,,,,,,,,,,,,,,,0,0,0,0,0
3.9889,1783441478.9204,1,1,1.0000,-0.0000,1.41837,0.15306,-2.67508,0.99937,1.56179,0.11887,-0.13236,-0.45413,0.07209,,,,,,,,,,,,,,,,,,,,,,,,,,0,0,0,0,0
3.9903,1783441478.9218,1,1,1.0000,-0.0000,1.41837,0.15306,-2.67508,0.99937,1.56179,0.11887,-0.13236,-0.45413,0.07209,,,,,,,,,,,,,,,,,,,,,,,,,,0,0,0,0,0
3.9908,1783441478.9223,1,1,1.0000,-0.0000,1.41837,0.15306,-2.67508,0.99937,1.56179,0.11887,-0.13236,-0.45413,0.07209,,,,,,,,,,,,,,,,,,,,,,,,,,0,0,0,0,0
3.9913,1783441478.9228,1,1,1.0000,-0.0000,1.41837,0.15306,-2.67508,0.99937,1.56179,0.11887,-0.13236,-0.45413,0.07209,,,,,,,,,,,,,,,,,,,,,,,,,,0,0,0,0,0
3.9939,1783441478.9254,1,1,1.0000,-0.0000,1.41837,0.15306,-2.67508,0.99937,1.56179,0.11887,-0.13236,-0.45413,0.07209,,,,,,,,,,,,,,,,,,,,,,,,,,0,0,0,0,0
3.9941,1783441478.9256,1,1,1.0000,-0.0000,1.41837,0.15306,-2.67508,0.99937,1.56179,0.11887,-0.13236,-0.45413,0.07209,,,,,,,,,,,,,,,,,,,,,,,,,,0,0,0,0,0
3.9956,1783441478.9270,1,1,1.0000,-0.0000,1.41837,0.15306,-2.67508,0.99937,1.56179,0.11887,-0.13236,-0.45413,0.07209,,,,,,,,,,,,,,,,,,,,,,,,,,0,0,0,0,0
3.9960,1783441478.9274,1,1,1.0000,-0.0000,1.41837,0.15306,-2.67508,0.99937,1.56179,0.11887,-0.13236,-0.45413,0.07209,,,,,,,,,,,,,,,,,,,,,,,,,,0,0,0,0,0
4.0012,1783441478.9327,1,1,1.0000,-0.0000,1.41837,0.15306,-2.67508,0.99937,1.56179,0.11887,-0.13236,-0.45413,0.07209,,,,,,,,,,,,,,,,,,,,,,,,,,0,0,0,0,0
4.0103,1783441478.9418,1,1,1.0000,-0.0000,1.41837,0.15306,-2.67508,0.99937,1.56179,0.11887,-0.13236,-0.45413,0.07209,,,,,,,,,,,,,,,,,,,,,,,,,,0,0,0,0,0
4.0107,1783441478.9421,1,1,1.0000,-0.0000,1.41837,0.15306,-2.67508,0.99937,1.56179,0.11887,-0.13236,-0.45413,0.07209,,,,,,,,,,,,,,,,,,,,,,,,,,0,0,0,0,0
4.0222,1783441478.9537,1,1,1.0000,-0.0000,1.41837,0.15306,-2.67508,0.99937,1.56179,0.11887,-0.13236,-0.45413,0.07209,,,,,,,,,,,,,,,,,,,,,,,,,,0,0,0,0,0
4.0374,1783441478.9688,1,1,1.0000,-0.0000,1.41837,0.15306,-2.67508,0.99937,1.56179,0.11887,-0.13236,-0.45413,0.07209,,,,,,,,,,,,,,,,,,,,,,,,,,0,0,0,0,0
4.0400,1783441478.9714,1,1,1.0000,-0.0000,1.41837,0.15306,-2.67508,0.99937,1.56179,0.11887,-0.13236,-0.45413,0.07209,,,,,,,,,,,,,,,,,,,,,,,,,,0,0,0,0,0
4.0505,1783441478.9819,1,1,1.0000,-0.0000,1.41837,0.15306,-2.67508,0.99937,1.56179,0.11887,-0.13236,-0.45413,0.07209,,,,,,,,,,,,,,,,,,,,,,,,,,0,0,0,0,0
4.0686,1783441479.0000,1,1,1.0000,-0.0000,1.41837,0.15306,-2.67508,0.99937,1.56179,0.11887,-0.13236,-0.45413,0.07209,,,,,,,,,,,,,,,,,,,,,,,,,,0,0,0,0,0
4.0726,1783441479.0041,1,1,1.0000,-0.0000,1.41837,0.15306,-2.67508,0.99937,1.56179,0.11887,-0.13236,-0.45413,0.07209,,,,,,,,,,,,,,,,,,,,,,,,,,0,0,0,0,0
4.0730,1783441479.0044,1,1,1.0000,-0.0000,1.41837,0.15306,-2.67508,0.99937,1.56179,0.11887,-0.13236,-0.45413,0.07209,,,,,,,,,,,,,,,,,,,,,,,,,,0,0,0,0,0
4.0831,1783441479.0145,1,1,1.0000,-0.0000,1.41837,0.15306,-2.67508,0.99937,1.56179,0.11887,-0.13236,-0.45413,0.07209,,,,,,,,,,,,,,,,,,,,,,,,,,0,0,0,0,0
4.0836,1783441479.0150,1,1,1.0000,-0.0000,1.41837,0.15306,-2.67508,0.99937,1.56179,0.11887,-0.13236,-0.45413,0.07209,,,,,,,,,,,,,,,,,,,,,,,,,,0,0,0,0,0
4.0903,1783441479.0217,1,1,1.0000,-0.0000,1.41837,0.15306,-2.67508,0.99937,1.56179,0.11887,-0.13236,-0.45413,0.07209,,,,,,,,,,,,,,,,,,,,,,,,,,0,0,0,0,0
4.1007,1783441479.0321,1,1,1.0000,-0.0000,1.41837,0.15306,-2.67508,0.99937,1.56179,0.11887,-0.13236,-0.45413,0.07209,,,,,,,,,,,,,,,,,,,,,,,,,,0,0,0,0,0
4.1115,1783441479.0429,1,1,1.0000,-0.0000,1.41837,0.15306,-2.67508,0.99937,1.56179,0.11887,-0.13236,-0.45413,0.07209,,,,,,,,,,,,,,,,,,,,,,,,,,0,0,0,0,0
4.1210,1783441479.0524,1,1,1.0000,-0.0000,1.41837,0.15306,-2.67507,0.99937,1.56179,0.11888,-0.13236,-0.45413,0.07209,,,,,,,,,,,,,,,,,,,,,,,,,,0,0,0,0,0
4.1213,1783441479.0527,1,1,1.0000,-0.0000,1.41837,0.15306,-2.67507,0.99937,1.56179,0.11888,-0.13236,-0.45413,0.07209,,,,,,,,,,,,,,,,,,,,,,,,,,0,0,0,0,0
4.1334,1783441479.0648,1,1,1.0000,-0.0000,1.41837,0.15306,-2.67505,0.99935,1.56179,0.11889,-0.13236,-0.45414,0.07209,,,,,,,,,,,,,,,,,,,,,,,,,,0,0,0,0,0
4.1408,1783441479.0723,1,1,1.0000,-0.0000,1.41837,0.15305,-2.67504,0.99934,1.56179,0.11891,-0.13236,-0.45415,0.07210,,,,,,,,,,,,,,,,,,,,,,,,,,0,0,0,0,0
4.1502,1783441479.0816,1,1,1.0000,-0.0000,1.41837,0.15305,-2.67504,0.99934,1.56179,0.11891,-0.13236,-0.45415,0.07210,,,,,,,,,,,,,,,,,,,,,,,,,,0,0,0,0,0
4.1631,1783441479.0945,1,1,1.0000,-0.0000,1.41837,0.15304,-2.67501,0.99934,1.56179,0.11891,-0.13236,-0.45416,0.07210,,,,,,,,,,,,,,,,,,,,,,,,,,0,0,0,0,0
4.1708,1783441479.1022,1,1,1.0000,-0.0000,1.41837,0.15303,-2.67500,0.99934,1.56179,0.11891,-0.13236,-0.45417,0.07210,,,,,,,,,,,,,,,,,,,,,,,,,,0,0,0,0,0
4.1713,1783441479.1027,1,1,1.0000,-0.0000,1.41837,0.15303,-2.67500,0.99934,1.56179,0.11891,-0.13236,-0.45417,0.07210,,,,,,,,,,,,,,,,,,,,,,,,,,0,0,0,0,0
4.1807,1783441479.1121,1,1,1.0000,-0.0000,1.41838,0.15298,-2.67496,0.99934,1.56179,0.11891,-0.13236,-0.45419,0.07211,,,,,,,,,,,,,,,,,,,,,,,,,,0,0,0,0,0
4.2207,1783441479.1522,1,1,1.0000,-0.0000,1.41846,0.15256,-2.67464,0.99941,1.56179,0.11889,-0.13237,-0.45437,0.07211,,,,,,,,,,,,,,,,,,,,,,,,,,0,0,0,0,0
4.2260,1783441479.1574,1,1,1.0000,-0.0000,1.41848,0.15246,-2.67457,0.99943,1.56179,0.11888,-0.13237,-0.45442,0.07210,,,,,,,,,,,,,,,,,,,,,,,,,,0,0,0,0,0
4.2320,1783441479.1634,1,1,1.0000,-0.0000,1.41850,0.15235,-2.67449,0.99945,1.56179,0.11887,-0.13237,-0.45446,0.07210,,,,,,,,,,,,,,,,,,,,,,,,,,0,0,0,0,0
4.2327,1783441479.1641,1,1,1.0000,-0.0000,1.41850,0.15235,-2.67449,0.99945,1.56179,0.11887,-0.13237,-0.45446,0.07210,,,,,,,,,,,,,,,,,,,,,,,,,,0,0,0,0,0
4.2358,1783441479.1672,1,1,1.0000,-0.0000,1.41850,0.15235,-2.67449,0.99945,1.56179,0.11887,-0.13237,-0.45446,0.07210,,,,,,,,,,,,,,,,,,,,,,,,,,0,0,0,0,0
4.2365,1783441479.1679,1,1,1.0000,-0.0000,1.41851,0.15233,-2.67448,0.99945,1.56179,0.11887,-0.13237,-0.45447,0.07210,,,,,,,,,,,,,,,,,,,,,,,,,,0,0,0,0,0
4.2425,1783441479.1739,1,1,1.0000,-0.0000,1.41852,0.15227,-2.67443,0.99947,1.56179,0.11886,-0.13237,-0.45450,0.07210,,,,,,,,,,,,,,,,,,,,,,,,,,0,0,0,0,0
4.2514,1783441479.1829,1,1,1.0000,-0.0000,1.41857,0.15202,-2.67425,0.99953,1.56179,0.11882,-0.13237,-0.45460,0.07210,,,,,,,,,,,,,,,,,,,,,,,,,,0,0,0,0,0
4.2606,1783441479.1920,1,1,1.0000,-0.0000,1.41861,0.15180,-2.67410,0.99958,1.56179,0.11879,-0.13238,-0.45470,0.07210,,,,,,,,,,,,,,,,,,,,,,,,,,0,0,0,0,0
4.2731,1783441479.2045,1,1,1.0000,-0.0000,1.41871,0.15126,-2.67371,0.99972,1.56179,0.11870,-0.13238,-0.45493,0.07209,,,,,,,,,,,,,,,,,,,,,,,,,,0,0,0,0,0
4.2740,1783441479.2055,1,1,1.0000,-0.0000,1.41871,0.15126,-2.67371,0.99972,1.56179,0.11870,-0.13238,-0.45493,0.07209,,,,,,,,,,,,,,,,,,,,,,,,,,0,0,0,0,0
4.2809,1783441479.2123,1,1,1.0000,-0.0000,1.41883,0.15064,-2.67327,0.99988,1.56179,0.11859,-0.13238,-0.45520,0.07209,,,,,,,,,,,,,,,,,,,,,,,,,,0,0,0,0,0
4.2902,1783441479.2216,1,1,1.0000,-0.0000,1.41890,0.15029,-2.67301,0.99997,1.56179,0.11853,-0.13239,-0.45535,0.07209,,,,,,,,,,,,,,,,,,,,,,,,,,0,0,0,0,0
4.3030,1783441479.2344,1,1,1.0000,-0.0000,1.41897,0.14991,-2.67274,1.00007,1.56179,0.11846,-0.13239,-0.45552,0.07209,,,,,,,,,,,,,,,,,,,,,,,,,,0,0,0,0,0
4.3098,1783441479.2412,1,1,1.0000,-0.0000,1.41908,0.14932,-2.67231,1.00023,1.56179,0.11835,-0.13239,-0.45577,0.07208,,,,,,,,,,,,,,,,,,,,,,,,,,0,0,0,0,0
4.3103,1783441479.2417,1,1,1.0000,-0.0000,1.41908,0.14932,-2.67231,1.00023,1.56179,0.11835,-0.13239,-0.45577,0.07208,,,,,,,,,,,,,,,,,,,,,,,,,,0,0,0,0,0
4.3310,1783441479.2624,1,1,1.0000,-0.0000,1.41932,0.14809,-2.67143,1.00055,1.56179,0.11812,-0.13240,-0.45631,0.07208,,,,,,,,,,,,,,,,,,,,,,,,,,0,0,0,0,0
4.3331,1783441479.2645,1,1,1.0000,-0.0000,1.41934,0.14796,-2.67133,1.00058,1.56179,0.11810,-0.13240,-0.45637,0.07208,,,,,,,,,,,,,,,,,,,,,,,,,,0,0,0,0,0
4.3450,1783441479.2764,1,1,1.0000,-0.0000,1.41949,0.14719,-2.67077,1.00079,1.56179,0.11796,-0.13241,-0.45671,0.07207,,,,,,,,,,,,,,,,,,,,,,,,,,0,0,0,0,0
4.3535,1783441479.2849,1,1,1.0000,-0.0000,1.41950,0.14714,-2.67074,1.00080,1.56179,0.11795,-0.13241,-0.45673,0.07207,,,,,,,,,,,,,,,,,,,,,,,,,,0,0,0,0,0
4.3540,1783441479.2854,1,1,1.0000,-0.0000,1.41950,0.14714,-2.67074,1.00080,1.56179,0.11795,-0.13241,-0.45673,0.07207,,,,,,,,,,,,,,,,,,,,,,,,,,0,0,0,0,0
4.3610,1783441479.2924,1,1,1.0000,-0.0000,1.41957,0.14677,-2.67046,1.00090,1.56179,0.11788,-0.13241,-0.45689,0.07207,,,,,,,,,,,,,,,,,,,,,,,,,,0,0,0,0,0
4.3615,1783441479.2929,1,1,1.0000,-0.0000,1.41957,0.14677,-2.67046,1.00090,1.56179,0.11788,-0.13241,-0.45689,0.07207,,,,,,,,,,,,,,,,,,,,,,,,,,0,0,0,0,0
4.3727,1783441479.3041,1,1,1.0000,-0.0000,1.41977,0.14574,-2.66971,1.00118,1.56179,0.11768,-0.13241,-0.45735,0.07207,,,,,,,,,,,,,,,,,,,,,,,,,,0,0,0,0,0
4.3810,1783441479.3124,1,1,1.0000,-0.0000,1.41985,0.14532,-2.66941,1.00129,1.56179,0.11760,-0.13242,-0.45754,0.07207,,,,,,,,,,,,,,,,,,,,,,,,,,0,0,0,0,0
4.3814,1783441479.3128,1,1,1.0000,-0.0000,1.41985,0.14532,-2.66941,1.00129,1.56179,0.11760,-0.13242,-0.45754,0.07207,,,,,,,,,,,,,,,,,,,,,,,,,,0,0,0,0,0
4.3902,1783441479.3216,1,1,1.0000,-0.0000,1.41988,0.14518,-2.66930,1.00133,1.56179,0.11757,-0.13242,-0.45760,0.07207,,,,,,,,,,,,,,,,,,,,,,,,,,0,0,0,0,0
4.4016,1783441479.3330,1,1,1.0000,-0.0000,1.42000,0.14455,-2.66884,1.00150,1.56179,0.11745,-0.13242,-0.45788,0.07207,,,,,,,,,,,,,,,,,,,,,,,,,,0,0,0,0,0
4.4102,1783441479.3416,1,1,1.0000,-0.0000,1.42011,0.14396,-2.66841,1.00166,1.56179,0.11734,-0.13242,-0.45814,0.07207,,,,,,,,,,,,,,,,,,,,,,,,,,0,0,0,0,0
4.4204,1783441479.3518,1,1,1.0000,-0.0000,1.42013,0.14386,-2.66834,1.00169,1.56179,0.11732,-0.13242,-0.45819,0.07207,,,,,,,,,,,,,,,,,,,,,,,,,,0,0,0,0,0
4.4320,1783441479.3634,1,1,1.0000,-0.0000,1.42018,0.14360,-2.66815,1.00176,1.56179,0.11727,-0.13243,-0.45830,0.07207,,,,,,,,,,,,,,,,,,,,,,,,,,0,0,0,0,0
4.4410,1783441479.3724,1,1,1.0000,-0.0000,1.42022,0.14341,-2.66801,1.00181,1.56179,0.11723,-0.13243,-0.45839,0.07207,,,,,,,,,,,,,,,,,,,,,,,,,,0,0,0,0,0
4.4414,1783441479.3728,1,1,1.0000,-0.0000,1.42022,0.14341,-2.66801,1.00181,1.56179,0.11723,-0.13243,-0.45839,0.07207,,,,,,,,,,,,,,,,,,,,,,,,,,0,0,0,0,0
4.4504,1783441479.3818,1,1,1.0000,-0.0000,1.42025,0.14326,-2.66791,1.00186,1.56179,0.11720,-0.13243,-0.45845,0.07207,,,,,,,,,,,,,,,,,,,,,,,,,,0,0,0,0,0
4.4619,1783441479.3933,1,1,1.0000,-0.0000,1.42032,0.14287,-2.66763,1.00198,1.56179,0.11712,-0.13243,-0.45862,0.07207,,,,,,,,,,,,,,,,,,,,,,,,,,0,0,0,0,0
4.4701,1783441479.4015,1,1,1.0000,-0.0000,1.42038,0.14255,-2.66741,1.00207,1.56179,0.11705,-0.13243,-0.45876,0.07206,,,,,,,,,,,,,,,,,,,,,,,,,,0,0,0,0,0
4.4705,1783441479.4020,1,1,1.0000,-0.0000,1.42038,0.14255,-2.66741,1.00207,1.56179,0.11705,-0.13243,-0.45876,0.07206,,,,,,,,,,,,,,,,,,,,,,,,,,0,0,0,0,0
4.4808,1783441479.4123,1,1,1.0000,-0.0000,1.42047,0.14211,-2.66712,1.00220,1.56179,0.11696,-0.13244,-0.45893,0.07205,,,,,,,,,,,,,,,,,,,,,,,,,,0,0,0,0,0
4.4935,1783441479.4249,1,1,1.0000,-0.0000,1.42052,0.14185,-2.66697,1.00228,1.56179,0.11691,-0.13244,-0.45902,0.07203,,,,,,,,,,,,,,,,,,,,,,,,,,0,0,0,0,0
4.5008,1783441479.4322,1,1,1.0000,-0.0000,1.42052,0.14183,-2.66697,1.00229,1.56179,0.11690,-0.13245,-0.45902,0.07202,,,,,,,,,,,,,,,,,,,,,,,,,,0,0,0,0,0
4.5012,1783441479.4326,1,1,1.0000,-0.0000,1.42052,0.14183,-2.66697,1.00229,1.56179,0.11690,-0.13245,-0.45902,0.07202,,,,,,,,,,,,,,,,,,,,,,,,,,0,0,0,0,0
4.5109,1783441479.4423,1,1,1.0000,-0.0000,1.42052,0.14183,-2.66697,1.00229,1.56179,0.11690,-0.13245,-0.45902,0.07202,,,,,,,,,,,,,,,,,,,,,,,,,,0,0,0,0,0
4.5233,1783441479.4548,1,1,1.0000,-0.0000,1.42052,0.14183,-2.66697,1.00229,1.56179,0.11690,-0.13245,-0.45902,0.07202,,,,,,,,,,,,,,,,,,,,,,,,,,0,0,0,0,0
4.5353,1783441479.4667,1,1,1.0000,-0.0000,1.42052,0.14183,-2.66697,1.00229,1.56179,0.11690,-0.13245,-0.45902,0.07202,,,,,,,,,,,,,,,,,,,,,,,,,,0,0,0,0,0
4.5414,1783441479.4728,1,1,1.0000,-0.0000,1.42052,0.14183,-2.66697,1.00229,1.56179,0.11690,-0.13245,-0.45902,0.07202,,,,,,,,,,,,,,,,,,,,,,,,,,0,0,0,0,0
4.5498,1783441479.4813,1,1,1.0000,-0.0000,1.42052,0.14183,-2.66697,1.00229,1.56179,0.11690,-0.13245,-0.45902,0.07202,,,,,,,,,,,,,,,,,,,,,,,,,,0,0,0,0,0
4.5614,1783441479.4929,1,1,1.0000,-0.0000,1.42052,0.14183,-2.66697,1.00229,1.56179,0.11690,-0.13245,-0.45902,0.07202,,,,,,,,,,,,,,,,,,,,,,,,,,0,0,0,0,0
4.5865,1783441479.5180,1,1,1.0000,-0.0000,1.42052,0.14183,-2.66697,1.00229,1.56179,0.11690,-0.13245,-0.45902,0.07202,,,,,,,,,,,,,,,,,,,,,,,,,,0,0,0,0,0
4.5870,1783441479.5184,1,1,1.0000,-0.0000,1.42052,0.14183,-2.66697,1.00229,1.56179,0.11690,-0.13245,-0.45902,0.07202,,,,,,,,,,,,,,,,,,,,,,,,,,0,0,0,0,0
4.5873,1783441479.5187,1,1,1.0000,-0.0000,1.42052,0.14183,-2.66697,1.00229,1.56179,0.11690,-0.13245,-0.45902,0.07202,,,,,,,,,,,,,,,,,,,,,,,,,,0,0,0,0,0
4.5903,1783441479.5217,1,1,1.0000,-0.0000,1.42052,0.14183,-2.66697,1.00229,1.56179,0.11690,-0.13245,-0.45902,0.07202,,,,,,,,,,,,,,,,,,,,,,,,,,0,0,0,0,0
4.5909,1783441479.5223,1,1,1.0000,-0.0000,1.42052,0.14183,-2.66697,1.00229,1.56179,0.11690,-0.13245,-0.45902,0.07202,,,,,,,,,,,,,,,,,,,,,,,,,,0,0,0,0,0
4.6018,1783441479.5332,1,1,1.0000,-0.0000,1.42052,0.14183,-2.66697,1.00229,1.56179,0.11690,-0.13245,-0.45902,0.07202,,,,,,,,,,,,,,,,,,,,,,,,,,0,0,0,0,0
4.6111,1783441479.5426,1,1,1.0000,-0.0000,1.42052,0.14183,-2.66697,1.00229,1.56179,0.11690,-0.13245,-0.45902,0.07202,,,,,,,,,,,,,,,,,,,,,,,,,,0,0,0,0,0
4.6259,1783441479.5573,1,1,1.0000,-0.0000,1.42052,0.14183,-2.66697,1.00229,1.56179,0.11690,-0.13245,-0.45902,0.07202,,,,,,,,,,,,,,,,,,,,,,,,,,0,0,0,0,0
4.6535,1783441479.5849,1,1,1.0000,-0.0000,1.42052,0.14183,-2.66697,1.00229,1.56179,0.11690,-0.13245,-0.45902,0.07202,,,,,,,,,,,,,,,,,,,,,,,,,,0,0,0,0,0
4.6867,1783441479.6181,1,1,1.0000,-0.0000,1.42052,0.14183,-2.66697,1.00229,1.56179,0.11690,-0.13245,-0.45902,0.07202,,,,,,,,,,,,,,,,,,,,,,,,,,0,0,0,0,0
4.6975,1783441479.6290,1,1,1.0000,-0.0000,1.42052,0.14183,-2.66697,1.00229,1.56179,0.11690,-0.13245,-0.45902,0.07202,,,,,,,,,,,,,,,,,,,,,,,,,,0,0,0,0,0
4.7079,1783441479.6394,1,1,1.0000,-0.0000,1.42052,0.14183,-2.66697,1.00229,1.56179,0.11690,-0.13245,-0.45902,0.07202,,,,,,,,,,,,,,,,,,,,,,,,,,0,0,0,0,0
4.7086,1783441479.6401,1,1,1.0000,-0.0000,1.42052,0.14183,-2.66697,1.00229,1.56179,0.11690,-0.13245,-0.45902,0.07202,,,,,,,,,,,,,,,,,,,,,,,,,,0,0,0,0,0
4.7089,1783441479.6404,1,1,1.0000,-0.0000,1.42052,0.14183,-2.66697,1.00229,1.56179,0.11690,-0.13245,-0.45902,0.07202,,,,,,,,,,,,,,,,,,,,,,,,,,0,0,0,0,0
4.7275,1783441479.6590,1,1,1.0000,-0.0000,1.42052,0.14183,-2.66697,1.00229,1.56179,0.11690,-0.13245,-0.45902,0.07202,,,,,,,,,,,,,,,,,,,,,,,,,,0,0,0,0,0
4.7279,1783441479.6594,1,1,1.0000,-0.0000,1.42052,0.14183,-2.66697,1.00229,1.56179,0.11690,-0.13245,-0.45902,0.07202,,,,,,,,,,,,,,,,,,,,,,,,,,0,0,0,0,0
4.7313,1783441479.6628,1,1,1.0000,-0.0000,1.42052,0.14183,-2.66697,1.00229,1.56179,0.11690,-0.13245,-0.45902,0.07202,,,,,,,,,,,,,,,,,,,,,,,,,,0,0,0,0,0
4.7315,1783441479.6630,1,1,1.0000,-0.0000,1.42052,0.14183,-2.66697,1.00229,1.56179,0.11690,-0.13245,-0.45902,0.07202,,,,,,,,,,,,,,,,,,,,,,,,,,0,0,0,0,0
4.7325,1783441479.6640,1,1,1.0000,-0.0000,1.42052,0.14183,-2.66697,1.00229,1.56179,0.11690,-0.13245,-0.45902,0.07202,,,,,,,,,,,,,,,,,,,,,,,,,,0,0,0,0,0
4.7329,1783441479.6644,1,1,1.0000,-0.0000,1.42052,0.14183,-2.66697,1.00229,1.56179,0.11690,-0.13245,-0.45902,0.07202,,,,,,,,,,,,,,,,,,,,,,,,,,0,0,0,0,0
4.7426,1783441479.6740,1,1,1.0000,-0.0000,1.42052,0.14183,-2.66697,1.00229,1.56179,0.11690,-0.13245,-0.45902,0.07202,,,,,,,,,,,,,,,,,,,,,,,,,,0,0,0,0,0
4.7547,1783441479.6862,1,1,1.0000,-0.0000,1.42052,0.14183,-2.66697,1.00229,1.56179,0.11690,-0.13245,-0.45902,0.07202,,,,,,,,,,,,,,,,,,,,,,,,,,0,0,0,0,0
4.7609,1783441479.6924,1,1,1.0000,-0.0000,1.42052,0.14183,-2.66697,1.00229,1.56179,0.11690,-0.13245,-0.45902,0.07202,,,,,,,,,,,,,,,,,,,,,,,,,,0,0,0,0,0
4.7614,1783441479.6929,1,1,1.0000,-0.0000,1.42052,0.14183,-2.66697,1.00229,1.56179,0.11690,-0.13245,-0.45902,0.07202,,,,,,,,,,,,,,,,,,,,,,,,,,0,0,0,0,0
4.7715,1783441479.7030,1,1,1.0000,-0.0000,1.42052,0.14183,-2.66697,1.00229,1.56179,0.11690,-0.13245,-0.45902,0.07202,,,,,,,,,,,,,,,,,,,,,,,,,,0,0,0,0,0
4.7810,1783441479.7124,1,1,1.0000,-0.0000,1.42052,0.14183,-2.66697,1.00229,1.56179,0.11690,-0.13245,-0.45902,0.07202,,,,,,,,,,,,,,,,,,,,,,,,,,0,0,0,0,0
4.7814,1783441479.7129,1,1,1.0000,-0.0000,1.42052,0.14183,-2.66697,1.00229,1.56179,0.11690,-0.13245,-0.45902,0.07202,,,,,,,,,,,,,,,,,,,,,,,,,,0,0,0,0,0
4.7925,1783441479.7240,1,1,1.0000,-0.0000,1.42052,0.14183,-2.66697,1.00229,1.56179,0.11690,-0.13245,-0.45902,0.07202,,,,,,,,,,,,,,,,,,,,,,,,,,0,0,0,0,0
4.8021,1783441479.7336,1,1,1.0000,-0.0000,1.42052,0.14183,-2.66697,1.00229,1.56179,0.11690,-0.13245,-0.45902,0.07202,,,,,,,,,,,,,,,,,,,,,,,,,,0,0,0,0,0
4.8177,1783441479.7491,1,1,1.0000,-0.0000,1.42052,0.14183,-2.66697,1.00229,1.56179,0.11690,-0.13245,-0.45902,0.07202,,,,,,,,,,,,,,,,,,,,,,,,,,0,0,0,0,0
4.8211,1783441479.7526,1,1,1.0000,-0.0000,1.42052,0.14183,-2.66697,1.00229,1.56179,0.11690,-0.13245,-0.45902,0.07202,,,,,,,,,,,,,,,,,,,,,,,,,,0,0,0,0,0
4.8305,1783441479.7619,1,1,1.0000,-0.0000,1.42052,0.14183,-2.66697,1.00229,1.56179,0.11690,-0.13245,-0.45902,0.07202,,,,,,,,,,,,,,,,,,,,,,,,,,0,0,0,0,0
4.8311,1783441479.7626,1,1,1.0000,-0.0000,1.42052,0.14183,-2.66697,1.00229,1.56179,0.11690,-0.13245,-0.45902,0.07202,,,,,,,,,,,,,,,,,,,,,,,,,,0,0,0,0,0
4.8462,1783441479.7777,1,1,1.0000,-0.0000,1.42052,0.14183,-2.66697,1.00230,1.56180,0.11690,-0.13244,-0.45903,0.07202,,,,,,,,,,,,,,,,,,,,,,,,,,0,0,0,0,0
4.8510,1783441479.7824,1,1,1.0000,-0.0000,1.42052,0.14183,-2.66696,1.00231,1.56180,0.11689,-0.13244,-0.45903,0.07203,,,,,,,,,,,,,,,,,,,,,,,,,,0,0,0,0,0
4.8623,1783441479.7938,1,1,1.0000,-0.0000,1.42052,0.14183,-2.66696,1.00232,1.56180,0.11689,-0.13244,-0.45904,0.07203,,,,,,,,,,,,,,,,,,,,,,,,,,0,0,0,0,0
4.8702,1783441479.8017,1,1,1.0000,-0.0000,1.42052,0.14181,-2.66697,1.00234,1.56180,0.11689,-0.13244,-0.45904,0.07202,,,,,,,,,,,,,,,,,,,,,,,,,,0,0,0,0,0
4.8807,1783441479.8122,1,1,1.0000,-0.0000,1.42052,0.14176,-2.66699,1.00242,1.56180,0.11688,-0.13244,-0.45903,0.07200,,,,,,,,,,,,,,,,,,,,,,,,,,0,0,0,0,0
4.8903,1783441479.8217,1,1,1.0000,-0.0000,1.42052,0.14173,-2.66700,1.00246,1.56180,0.11687,-0.13244,-0.45903,0.07199,,,,,,,,,,,,,,,,,,,,,,,,,,0,0,0,0,0
4.8903,1783441479.8217,1,1,1.0000,-0.0000,1.42052,0.14173,-2.66700,1.00246,1.56180,0.11687,-0.13244,-0.45903,0.07199,,,,,,,,,,,,,,,,,,,,,,,,,,0,0,0,0,0
4.9105,1783441479.8419,1,1,1.0000,-0.0000,1.42052,0.14157,-2.66705,1.00266,1.56180,0.11687,-0.13244,-0.45903,0.07194,,,,,,,,,,,,,,,,,,,,,,,,,,0,0,0,0,0
4.9110,1783441479.8424,1,1,1.0000,-0.0000,1.42052,0.14157,-2.66705,1.00266,1.56180,0.11687,-0.13244,-0.45903,0.07194,,,,,,,,,,,,,,,,,,,,,,,,,,0,0,0,0,0
4.9114,1783441479.8428,1,1,1.0000,-0.0000,1.42052,0.14157,-2.66705,1.00266,1.56180,0.11687,-0.13244,-0.45903,0.07194,,,,,,,,,,,,,,,,,,,,,,,,,,0,0,0,0,0
4.9209,1783441479.8523,1,1,1.0000,-0.0000,1.42052,0.14144,-2.66709,1.00284,1.56180,0.11686,-0.13244,-0.45903,0.07189,,,,,,,,,,,,,,,,,,,,,,,,,,0,0,0,0,0
4.9301,1783441479.8616,1,1,1.0000,-0.0000,1.42052,0.14138,-2.66710,1.00291,1.56180,0.11686,-0.13244,-0.45903,0.07187,,,,,,,,,,,,,,,,,,,,,,,,,,0,0,0,0,0
4.9449,1783441479.8763,1,1,1.0000,-0.0000,1.42052,0.14099,-2.66720,1.00339,1.56181,0.11685,-0.13244,-0.45904,0.07175,,,,,,,,,,,,,,,,,,,,,,,,,,0,0,0,0,0
4.9515,1783441479.8830,1,1,1.0000,-0.0000,1.42052,0.14099,-2.66720,1.00339,1.56181,0.11685,-0.13244,-0.45904,0.07175,,,,,,,,,,,,,,,,,,,,,,,,,,0,0,0,0,0
4.9520,1783441479.8834,1,1,1.0000,-0.0000,1.42052,0.14099,-2.66720,1.00339,1.56181,0.11685,-0.13244,-0.45904,0.07175,,,,,,,,,,,,,,,,,,,,,,,,,,0,0,0,0,0
4.9613,1783441479.8927,1,1,1.0000,-0.0000,1.42052,0.14081,-2.66724,1.00362,1.56181,0.11685,-0.13244,-0.45905,0.07169,,,,,,,,,,,,,,,,,,,,,,,,,,0,0,0,0,0
4.9715,1783441479.9029,1,1,1.0000,-0.0000,1.42052,0.14052,-2.66731,1.00398,1.56181,0.11685,-0.13243,-0.45906,0.07160,,,,,,,,,,,,,,,,,,,,,,,,,,0,0,0,0,0
4.9917,1783441479.9231,1,1,1.0000,-0.0000,1.42052,0.14004,-2.66742,1.00458,1.56181,0.11684,-0.13243,-0.45907,0.07145,,,,,,,,,,,,,,,,,,,,,,,,,,0,0,0,0,0
4.9933,1783441479.9247,1,1,1.0000,-0.0000,1.42052,0.13992,-2.66745,1.00473,1.56181,0.11684,-0.13243,-0.45908,0.07141,,,,,,,,,,,,,,,,,,,,,,,,,,0,0,0,0,0
5.0008,1783441479.9322,1,1,1.0000,-0.0000,1.42052,0.13957,-2.66753,1.00516,1.56181,0.11684,-0.13243,-0.45909,0.07130,,,,,,,,,,,,,,,,,,,,,,,,,,0,0,0,0,0
5.0139,1783441479.9453,1,1,1.0000,-0.0000,1.42052,0.13911,-2.66764,1.00573,1.56181,0.11683,-0.13243,-0.45910,0.07115,,,,,,,,,,,,,,,,,,,,,,,,,,0,0,0,0,0
5.0206,1783441479.9520,1,1,1.0000,-0.0000,1.42052,0.13900,-2.66767,1.00587,1.56181,0.11683,-0.13243,-0.45910,0.07111,,,,,,,,,,,,,,,,,,,,,,,,,,0,0,0,0,0
5.0209,1783441479.9523,1,1,1.0000,-0.0000,1.42052,0.13900,-2.66767,1.00587,1.56181,0.11683,-0.13243,-0.45910,0.07111,,,,,,,,,,,,,,,,,,,,,,,,,,0,0,0,0,0
5.0299,1783441479.9613,1,1,1.0000,-0.0000,1.42053,0.13869,-2.66774,1.00625,1.56181,0.11683,-0.13243,-0.45911,0.07102,,,,,,,,,,,,,,,,,,,,,,,,,,0,0,0,0,0
5.0446,1783441479.9760,1,1,1.0000,-0.0000,1.42053,0.13837,-2.66782,1.00665,1.56181,0.11682,-0.13243,-0.45911,0.07091,,,,,,,,,,,,,,,,,,,,,,,,,,0,0,0,0,0
5.0535,1783441479.9849,1,1,1.0000,-0.0000,1.42053,0.13807,-2.66789,1.00703,1.56181,0.11682,-0.13242,-0.45912,0.07082,,,,,,,,,,,,,,,,,,,,,,,,,,0,0,0,0,0
5.0621,1783441479.9935,1,1,1.0000,-0.0000,1.42053,0.13764,-2.66800,1.00757,1.56181,0.11682,-0.13242,-0.45913,0.07068,,,,,,,,,,,,,,,,,,,,,,,,,,0,0,0,0,0
5.0752,1783441480.0066,1,1,1.0000,-0.0000,1.42053,0.13738,-2.66806,1.00790,1.56181,0.11681,-0.13242,-0.45914,0.07060,,,,,,,,,,,,,,,,,,,,,,,,,,0,0,0,0,0
5.0967,1783441480.0281,1,1,1.0000,-0.0000,1.42053,0.13668,-2.66822,1.00879,1.56182,0.11681,-0.13242,-0.45917,0.07038,,,,,,,,,,,,,,,,,,,,,,,,,,0,0,0,0,0
5.0978,1783441480.0293,1,1,1.0000,-0.0000,1.42053,0.13668,-2.66822,1.00879,1.56182,0.11681,-0.13242,-0.45917,0.07038,,,,,,,,,,,,,,,,,,,,,,,,,,0,0,0,0,0
5.1025,1783441480.0339,1,1,1.0000,-0.0000,1.42053,0.13652,-2.66826,1.00900,1.56182,0.11680,-0.13242,-0.45918,0.07033,,,,,,,,,,,,,,,,,,,,,,,,,,0,0,0,0,0
5.1105,1783441480.0419,1,1,1.0000,-0.0000,1.42053,0.13651,-2.66826,1.00901,1.56182,0.11680,-0.13242,-0.45918,0.07033,,,,,,,,,,,,,,,,,,,,,,,,,,0,0,0,0,0
5.1109,1783441480.0423,1,1,1.0000,-0.0000,1.42053,0.13651,-2.66826,1.00901,1.56182,0.11680,-0.13242,-0.45918,0.07033,,,,,,,,,,,,,,,,,,,,,,,,,,0,0,0,0,0
5.1227,1783441480.0541,1,1,1.0000,-0.0000,1.42053,0.13637,-2.66828,1.00919,1.56182,0.11680,-0.13242,-0.45919,0.07029,,,,,,,,,,,,,,,,,,,,,,,,,,0,0,0,0,0
5.1314,1783441480.0628,1,1,1.0000,-0.0000,1.42053,0.13630,-2.66830,1.00928,1.56182,0.11680,-0.13241,-0.45919,0.07027,,,,,,,,,,,,,,,,,,,,,,,,,,0,0,0,0,0
5.1318,1783441480.0632,1,1,1.0000,-0.0000,1.42053,0.13630,-2.66830,1.00928,1.56182,0.11680,-0.13241,-0.45919,0.07027,,,,,,,,,,,,,,,,,,,,,,,,,,0,0,0,0,0
5.1408,1783441480.0722,1,1,1.0000,-0.0000,1.42053,0.13623,-2.66832,1.00938,1.56182,0.11680,-0.13241,-0.45919,0.07025,,,,,,,,,,,,,,,,,,,,,,,,,,0,0,0,0,0
5.1413,1783441480.0727,1,1,1.0000,-0.0000,1.42053,0.13623,-2.66832,1.00938,1.56182,0.11680,-0.13241,-0.45919,0.07025,,,,,,,,,,,,,,,,,,,,,,,,,,0,0,0,0,0
5.1526,1783441480.0840,1,1,1.0000,-0.0000,1.42054,0.13603,-2.66837,1.00964,1.56182,0.11680,-0.13241,-0.45920,0.07019,,,,,,,,,,,,,,,,,,,,,,,,,,0,0,0,0,0
5.1600,1783441480.0914,1,1,1.0000,-0.0000,1.42054,0.13596,-2.66839,1.00975,1.56182,0.11680,-0.13241,-0.45920,0.07016,,,,,,,,,,,,,,,,,,,,,,,,,,0,0,0,0,0
5.1607,1783441480.0921,1,1,1.0000,-0.0000,1.42054,0.13596,-2.66839,1.00975,1.56182,0.11680,-0.13241,-0.45920,0.07016,,,,,,,,,,,,,,,,,,,,,,,,,,0,0,0,0,0
5.1725,1783441480.1039,1,1,1.0000,-0.0000,1.42054,0.13587,-2.66841,1.00986,1.56182,0.11679,-0.13241,-0.45920,0.07013,,,,,,,,,,,,,,,,,,,,,,,,,,0,0,0,0,0
5.1806,1783441480.1120,1,1,1.0000,-0.0000,1.42054,0.13573,-2.66845,1.01004,1.56182,0.11679,-0.13241,-0.45920,0.07008,,,,,,,,,,,,,,,,,,,,,,,,,,0,0,0,0,0
5.2053,1783441480.1367,1,1,1.0000,-0.0000,1.42054,0.13540,-2.66854,1.01045,1.56182,0.11679,-0.13241,-0.45920,0.06998,,,,,,,,,,,,,,,,,,,,,,,,,,0,0,0,0,0
5.2137,1783441480.1451,1,1,1.0000,-0.0000,1.42054,0.13519,-2.66860,1.01071,1.56182,0.11679,-0.13241,-0.45921,0.06991,,,,,,,,,,,,,,,,,,,,,,,,,,0,0,0,0,0
5.2178,1783441480.1492,1,1,1.0000,-0.0000,1.42054,0.13519,-2.66860,1.01071,1.56182,0.11679,-0.13241,-0.45921,0.06991,,,,,,,,,,,,,,,,,,,,,,,,,,0,0,0,0,0
5.2250,1783441480.1564,1,1,1.0000,-0.0000,1.42054,0.13509,-2.66862,1.01083,1.56182,0.11679,-0.13241,-0.45921,0.06987,,,,,,,,,,,,,,,,,,,,,,,,,,0,0,0,0,0
5.2255,1783441480.1569,1,1,1.0000,-0.0000,1.42054,0.13509,-2.66862,1.01083,1.56182,0.11679,-0.13241,-0.45921,0.06987,,,,,,,,,,,,,,,,,,,,,,,,,,0,0,0,0,0
5.2304,1783441480.1618,1,1,1.0000,-0.0000,1.42054,0.13498,-2.66865,1.01097,1.56182,0.11679,-0.13241,-0.45921,0.06984,,,,,,,,,,,,,,,,,,,,,,,,,,0,0,0,0,0
5.2406,1783441480.1720,1,1,1.0000,-0.0000,1.42054,0.13444,-2.66878,1.01164,1.56182,0.11678,-0.13241,-0.45922,0.06966,,,,,,,,,,,,,,,,,,,,,,,,,,0,0,0,0,0
5.2525,1783441480.1839,1,1,1.0000,-0.0000,1.42054,0.13419,-2.66885,1.01195,1.56182,0.11678,-0.13241,-0.45922,0.06958,,,,,,,,,,,,,,,,,,,,,,,,,,0,0,0,0,0
5.2614,1783441480.1929,1,1,1.0000,-0.0000,1.42054,0.13398,-2.66890,1.01221,1.56182,0.11678,-0.13241,-0.45922,0.06951,,,,,,,,,,,,,,,,,,,,,,,,,,0,0,0,0,0
5.2618,1783441480.1932,1,1,1.0000,-0.0000,1.42054,0.13398,-2.66890,1.01221,1.56182,0.11678,-0.13241,-0.45922,0.06951,,,,,,,,,,,,,,,,,,,,,,,,,,0,0,0,0,0
5.2706,1783441480.2020,1,1,1.0000,-0.0000,1.42054,0.13361,-2.66900,1.01268,1.56182,0.11677,-0.13241,-0.45923,0.06939,,,,,,,,,,,,,,,,,,,,,,,,,,0,0,0,0,0
5.2812,1783441480.2126,1,1,1.0000,-0.0000,1.42054,0.13285,-2.66919,1.01361,1.56183,0.11677,-0.13241,-0.45924,0.06914,,,,,,,,,,,,,,,,,,,,,,,,,,0,0,0,0,0
5.2938,1783441480.2252,1,1,1.0000,-0.0000,1.42055,0.13275,-2.66921,1.01374,1.56183,0.11677,-0.13241,-0.45924,0.06911,,,,,,,,,,,,,,,,,,,,,,,,,,0,0,0,0,0
5.3006,1783441480.2320,1,1,1.0000,-0.0000,1.42055,0.13248,-2.66928,1.01407,1.56183,0.11676,-0.13241,-0.45924,0.06902,,,,,,,,,,,,,,,,,,,,,,,,,,0,0,0,0,0
5.3117,1783441480.2431,1,1,1.0000,-0.0000,1.42055,0.13230,-2.66933,1.01430,1.56183,0.11676,-0.13241,-0.45924,0.06896,,,,,,,,,,,,,,,,,,,,,,,,,,0,0,0,0,0
5.3201,1783441480.2515,1,1,1.0000,-0.0000,1.42055,0.13219,-2.66936,1.01443,1.56183,0.11676,-0.13241,-0.45924,0.06892,,,,,,,,,,,,,,,,,,,,,,,,,,0,0,0,0,0
5.3208,1783441480.2523,1,1,1.0000,-0.0000,1.42055,0.13206,-2.66939,1.01458,1.56183,0.11676,-0.13241,-0.45925,0.06888,,,,,,,,,,,,,,,,,,,,,,,,,,0,0,0,0,0
5.3303,1783441480.2617,1,1,1.0000,-0.0000,1.42055,0.13172,-2.66947,1.01502,1.56183,0.11676,-0.13241,-0.45925,0.06877,,,,,,,,,,,,,,,,,,,,,,,,,,0,0,0,0,0
5.3449,1783441480.2763,1,1,1.0000,-0.0000,1.42055,0.13126,-2.66959,1.01559,1.56183,0.11675,-0.13241,-0.45926,0.06862,,,,,,,,,,,,,,,,,,,,,,,,,,0,0,0,0,0
5.3531,1783441480.2846,1,1,1.0000,-0.0000,1.42055,0.13111,-2.66962,1.01577,1.56183,0.11675,-0.13240,-0.45927,0.06858,,,,,,,,,,,,,,,,,,,,,,,,,,0,0,0,0,0
5.3632,1783441480.2946,1,1,1.0000,-0.0000,1.42055,0.13087,-2.66968,1.01608,1.56183,0.11675,-0.13240,-0.45927,0.06850,,,,,,,,,,,,,,,,,,,,,,,,,,0,0,0,0,0
5.3702,1783441480.3016,1,1,1.0000,-0.0000,1.42055,0.13056,-2.66975,1.01647,1.56183,0.11675,-0.13240,-0.45928,0.06840,,,,,,,,,,,,,,,,,,,,,,,,,,0,0,0,0,0
5.3816,1783441480.3130,1,1,1.0000,-0.0000,1.42055,0.13008,-2.66987,1.01709,1.56183,0.11674,-0.13240,-0.45929,0.06825,,,,,,,,,,,,,,,,,,,,,,,,,,0,0,0,0,0
5.4009,1783441480.3323,1,1,1.0000,-0.0000,1.42056,0.12968,-2.66996,1.01760,1.56183,0.11674,-0.13240,-0.45931,0.06813,,,,,,,,,,,,,,,,,,,,,,,,,,0,0,0,0,0
5.4029,1783441480.3343,1,1,1.0000,-0.0000,1.42056,0.12968,-2.66996,1.01760,1.56183,0.11674,-0.13240,-0.45931,0.06813,,,,,,,,,,,,,,,,,,,,,,,,,,0,0,0,0,0
5.4139,1783441480.3453,1,1,1.0000,-0.0000,1.42056,0.12965,-2.66997,1.01765,1.56183,0.11673,-0.13240,-0.45931,0.06812,,,,,,,,,,,,,,,,,,,,,,,,,,0,0,0,0,0
5.4212,1783441480.3526,1,1,1.0000,-0.0000,1.42056,0.12960,-2.66997,1.01772,1.56183,0.11673,-0.13240,-0.45932,0.06811,,,,,,,,,,,,,,,,,,,,,,,,,,0,0,0,0,0
5.4301,1783441480.3615,1,1,1.0000,-0.0000,1.42056,0.12955,-2.66998,1.01780,1.56183,0.11673,-0.13240,-0.45933,0.06810,,,,,,,,,,,,,,,,,,,,,,,,,,0,0,0,0,0
5.4406,1783441480.3720,1,1,1.0000,-0.0000,1.42056,0.12953,-2.66999,1.01783,1.56183,0.11673,-0.13240,-0.45933,0.06809,,,,,,,,,,,,,,,,,,,,,,,,,,0,0,0,0,0
5.4562,1783441480.3876,1,1,1.0000,-0.0000,1.42056,0.12942,-2.67002,1.01797,1.56183,0.11673,-0.13240,-0.45933,0.06806,,,,,,,,,,,,,,,,,,,,,,,,,,0,0,0,0,0
5.4613,1783441480.3927,1,1,1.0000,-0.0000,1.42056,0.12931,-2.67006,1.01811,1.56183,0.11673,-0.13240,-0.45932,0.06802,,,,,,,,,,,,,,,,,,,,,,,,,,0,0,0,0,0
5.4720,1783441480.4034,1,1,1.0000,-0.0000,1.42056,0.12930,-2.67006,1.01812,1.56183,0.11673,-0.13240,-0.45932,0.06801,,,,,,,,,,,,,,,,,,,,,,,,,,0,0,0,0,0
5.4806,1783441480.4120,1,1,1.0000,-0.0000,1.42056,0.12913,-2.67011,1.01833,1.56184,0.11673,-0.13240,-0.45932,0.06796,,,,,,,,,,,,,,,,,,,,,,,,,,0,0,0,0,0
5.5033,1783441480.4347,1,1,1.0000,-0.0000,1.42056,0.12886,-2.67018,1.01866,1.56184,0.11673,-0.13240,-0.45932,0.06787,,,,,,,,,,,,,,,,,,,,,,,,,,0,0,0,0,0
5.5056,1783441480.4370,1,1,1.0000,-0.0000,1.42056,0.12873,-2.67021,1.01882,1.56184,0.11672,-0.13240,-0.45932,0.06782,,,,,,,,,,,,,,,,,,,,,,,,,,0,0,0,0,0
5.5061,1783441480.4375,1,1,1.0000,-0.0000,1.42056,0.12873,-2.67021,1.01882,1.56184,0.11672,-0.13240,-0.45932,0.06782,,,,,,,,,,,,,,,,,,,,,,,,,,0,0,0,0,0
5.5125,1783441480.4439,1,1,1.0000,-0.0000,1.42056,0.12840,-2.67030,1.01923,1.56184,0.11672,-0.13240,-0.45932,0.06771,,,,,,,,,,,,,,,,,,,,,,,,,,0,0,0,0,0
