Martins-Lucaas/twinforge/sensors/Data/20260704_152743__samples.csv
t_rel_s,t_unix,cycle,phase,setpoint_n,force_net_n,q1,q2,q3,q4,q5,q6,tcp_x,tcp_y,tcp_z,taxel_0,taxel_1,taxel_2,taxel_3,taxel_4,taxel_5,taxel_6,taxel_7,taxel_8,taxel_9,taxel_10,taxel_11,taxel_12,taxel_13,taxel_14,taxel_15,taxel_16,taxel_17,taxel_18,taxel_19,taxel_20,taxel_21,taxel_22,taxel_23,taxel_24,n_RA,n_SA,cn_mm,cn_ra,cn_sa
0.0100,1783189663.5661,1,0,2.0000,0.0000,1.44682,0.23328,-2.77748,0.97337,1.57080,0.00000,-0.14512,-0.38003,0.04653,,,,,,,,,,,,,,,,,,,,,,,,,,0,0,0,0,0
0.0103,1783189663.5663,1,0,2.0000,0.0000,1.44682,0.23328,-2.77748,0.97337,1.57080,0.00000,-0.14512,-0.38003,0.04653,,,,,,,,,,,,,,,,,,,,,,,,,,0,0,0,0,0
0.0227,1783189663.5787,1,0,2.0000,0.0000,1.44682,0.23328,-2.77748,0.97337,1.57080,0.00000,-0.14512,-0.38003,0.04653,,,,,,,,,,,,,,,,,,,,,,,,,,0,0,0,0,0
0.0267,1783189663.5828,1,0,2.0000,0.0000,1.44682,0.23328,-2.77748,0.97337,1.57080,0.00000,-0.14512,-0.38003,0.04653,,,,,,,,,,,,,,,,,,,,,,,,,,0,0,0,0,0
0.0450,1783189663.6011,1,0,2.0000,0.0000,1.44682,0.23328,-2.77748,0.97337,1.57080,0.00000,-0.14512,-0.38003,0.04653,,,,,,,,,,,,,,,,,,,,,,,,,,0,0,0,0,0
0.0473,1783189663.6034,1,0,2.0000,0.0000,1.44682,0.23328,-2.77748,0.97337,1.57080,0.00000,-0.14512,-0.38003,0.04653,,,,,,,,,,,,,,,,,,,,,,,,,,0,0,0,0,0
0.0567,1783189663.6128,1,0,2.0000,0.0000,1.44682,0.23328,-2.77748,0.97337,1.57080,0.00000,-0.14512,-0.38003,0.04653,,,,,,,,,,,,,,,,,,,,,,,,,,0,0,0,0,0
0.0668,1783189663.6229,1,0,2.0000,0.0000,1.44682,0.23328,-2.77748,0.97337,1.57080,0.00000,-0.14512,-0.38003,0.04653,,,,,,,,,,,,,,,,,,,,,,,,,,0,0,0,0,0
0.0839,1783189663.6400,1,0,2.0000,0.0000,1.44682,0.23328,-2.77748,0.97337,1.57080,0.00000,-0.14512,-0.38003,0.04653,,,,,,,,,,,,,,,,,,,,,,,,,,0,0,0,0,0
0.0882,1783189663.6443,1,0,2.0000,0.0000,1.44682,0.23328,-2.77748,0.97337,1.57080,0.00000,-0.14512,-0.38003,0.04653,,,,,,,,,,,,,,,,,,,,,,,,,,0,0,0,0,0
0.0886,1783189663.6447,1,0,2.0000,0.0000,1.44682,0.23328,-2.77748,0.97337,1.57080,0.00000,-0.14512,-0.38003,0.04653,,,,,,,,,,,,,,,,,,,,,,,,,,0,0,0,0,0
0.0998,1783189663.6559,1,0,2.0000,0.0000,1.44682,0.23328,-2.77748,0.97337,1.57080,0.00000,-0.14512,-0.38003,0.04653,,,,,,,,,,,,,,,,,,,,,,,,,,0,0,0,0,0
0.1268,1783189663.6829,1,0,2.0000,0.0000,1.44682,0.23328,-2.77748,0.97337,1.57080,0.00000,-0.14512,-0.38003,0.04653,,,,,,,,,,,,,,,,,,,,,,,,,,0,0,0,0,0
0.1272,1783189663.6832,1,0,2.0000,0.0000,1.44682,0.23328,-2.77748,0.97337,1.57080,0.00000,-0.14512,-0.38003,0.04653,,,,,,,,,,,,,,,,,,,,,,,,,,0,0,0,0,0
0.1278,1783189663.6839,1,0,2.0000,0.0000,1.44682,0.23328,-2.77748,0.97337,1.57080,0.00000,-0.14512,-0.38003,0.04653,,,,,,,,,,,,,,,,,,,,,,,,,,0,0,0,0,0
0.1447,1783189663.7008,1,0,2.0000,0.0000,1.44682,0.23328,-2.77748,0.97337,1.57080,0.00000,-0.14512,-0.38003,0.04653,,,,,,,,,,,,,,,,,,,,,,,,,,0,0,0,0,0
0.1481,1783189663.7041,1,0,2.0000,0.0000,1.44682,0.23328,-2.77748,0.97337,1.57080,0.00000,-0.14512,-0.38003,0.04653,,,,,,,,,,,,,,,,,,,,,,,,,,0,0,0,0,0
0.1568,1783189663.7129,1,0,2.0000,0.0000,1.44682,0.23328,-2.77748,0.97337,1.57080,0.00000,-0.14512,-0.38003,0.04653,,,,,,,,,,,,,,,,,,,,,,,,,,0,0,0,0,0
0.1665,1783189663.7226,1,0,2.0000,0.0000,1.44682,0.23328,-2.77748,0.97337,1.57080,0.00000,-0.14512,-0.38003,0.04653,,,,,,,,,,,,,,,,,,,,,,,,,,0,0,0,0,0
0.1780,1783189663.7341,1,0,2.0000,0.0000,1.44682,0.23328,-2.77748,0.97337,1.57080,0.00000,-0.14512,-0.38003,0.04653,,,,,,,,,,,,,,,,,,,,,,,,,,0,0,0,0,0
0.1784,1783189663.7345,1,0,2.0000,0.0000,1.44682,0.23328,-2.77748,0.97337,1.57080,0.00000,-0.14512,-0.38003,0.04653,,,,,,,,,,,,,,,,,,,,,,,,,,0,0,0,0,0
0.1930,1783189663.7491,1,0,2.0000,0.0000,1.44682,0.23328,-2.77748,0.97337,1.57080,0.00000,-0.14512,-0.38003,0.04653,,,,,,,,,,,,,,,,,,,,,,,,,,0,0,0,0,0
0.2019,1783189663.7580,1,0,2.0000,0.0000,1.44682,0.23328,-2.77748,0.97337,1.57080,0.00000,-0.14512,-0.38003,0.04653,,,,,,,,,,,,,,,,,,,,,,,,,,0,0,0,0,0
0.2075,1783189663.7636,1,0,2.0000,0.0000,1.44682,0.23328,-2.77748,0.97337,1.57080,0.00000,-0.14512,-0.38003,0.04653,,,,,,,,,,,,,,,,,,,,,,,,,,0,0,0,0,0
0.2167,1783189663.7728,1,0,2.0000,0.0000,1.44682,0.23328,-2.77748,0.97337,1.57080,0.00000,-0.14512,-0.38003,0.04653,,,,,,,,,,,,,,,,,,,,,,,,,,0,0,0,0,0
0.2318,1783189663.7878,1,0,2.0000,0.0000,1.44682,0.23328,-2.77748,0.97337,1.57080,0.00000,-0.14512,-0.38003,0.04653,,,,,,,,,,,,,,,,,,,,,,,,,,0,0,0,0,0
0.2467,1783189663.8028,1,0,2.0000,0.0000,1.44682,0.23328,-2.77748,0.97337,1.57080,0.00000,-0.14512,-0.38003,0.04653,,,,,,,,,,,,,,,,,,,,,,,,,,0,0,0,0,0
0.2470,1783189663.8031,1,0,2.0000,0.0000,1.44682,0.23328,-2.77748,0.97337,1.57080,0.00000,-0.14512,-0.38003,0.04653,,,,,,,,,,,,,,,,,,,,,,,,,,0,0,0,0,0
0.2566,1783189663.8127,1,0,2.0000,0.0000,1.44682,0.23328,-2.77748,0.97337,1.57080,0.00000,-0.14512,-0.38003,0.04653,,,,,,,,,,,,,,,,,,,,,,,,,,0,0,0,0,0
0.2669,1783189663.8230,1,0,2.0000,0.0000,1.44682,0.23328,-2.77748,0.97337,1.57080,0.00000,-0.14512,-0.38003,0.04653,,,,,,,,,,,,,,,,,,,,,,,,,,0,0,0,0,0
0.2805,1783189663.8365,1,0,2.0000,0.0000,1.44682,0.23328,-2.77748,0.97337,1.57080,0.00000,-0.14512,-0.38003,0.04653,,,,,,,,,,,,,,,,,,,,,,,,,,0,0,0,0,0
0.2908,1783189663.8469,1,0,2.0000,0.0000,1.44682,0.23328,-2.77748,0.97337,1.57080,0.00000,-0.14512,-0.38003,0.04653,,,,,,,,,,,,,,,,,,,,,,,,,,0,0,0,0,0
0.2967,1783189663.8528,1,0,2.0000,0.0000,1.44682,0.23328,-2.77748,0.97337,1.57080,0.00000,-0.14512,-0.38003,0.04653,,,,,,,,,,,,,,,,,,,,,,,,,,0,0,0,0,0
0.3074,1783189663.8635,1,0,2.0000,0.0000,1.44682,0.23328,-2.77748,0.97337,1.57080,0.00000,-0.14512,-0.38003,0.04653,,,,,,,,,,,,,,,,,,,,,,,,,,0,0,0,0,0
0.3169,1783189663.8730,1,0,2.0000,0.0000,1.44682,0.23328,-2.77748,0.97337,1.57080,0.00000,-0.14512,-0.38003,0.04653,,,,,,,,,,,,,,,,,,,,,,,,,,0,0,0,0,0
0.3268,1783189663.8829,1,0,2.0000,0.0000,1.44682,0.23328,-2.77748,0.97337,1.57080,0.00000,-0.14512,-0.38003,0.04653,,,,,,,,,,,,,,,,,,,,,,,,,,0,0,0,0,0
0.3492,1783189663.9053,1,0,2.0000,0.0000,1.44682,0.23328,-2.77748,0.97337,1.57080,0.00000,-0.14512,-0.38003,0.04653,,,,,,,,,,,,,,,,,,,,,,,,,,0,0,0,0,0
0.3495,1783189663.9056,1,0,2.0000,0.0000,1.44682,0.23328,-2.77748,0.97337,1.57080,0.00000,-0.14512,-0.38003,0.04653,,,,,,,,,,,,,,,,,,,,,,,,,,0,0,0,0,0
0.3584,1783189663.9145,1,0,2.0000,0.0000,1.44682,0.23328,-2.77748,0.97337,1.57080,0.00000,-0.14512,-0.38003,0.04653,,,,,,,,,,,,,,,,,,,,,,,,,,0,0,0,0,0
0.3676,1783189663.9237,1,0,2.0000,0.0000,1.44682,0.23328,-2.77748,0.97337,1.57080,0.00000,-0.14512,-0.38003,0.04653,,,,,,,,,,,,,,,,,,,,,,,,,,0,0,0,0,0
0.3780,1783189663.9341,1,0,2.0000,0.0000,1.44682,0.23328,-2.77748,0.97337,1.57080,0.00000,-0.14512,-0.38003,0.04653,,,,,,,,,,,,,,,,,,,,,,,,,,0,0,0,0,0
0.3942,1783189663.9503,1,0,2.0000,0.0000,1.44682,0.23328,-2.77748,0.97337,1.57080,0.00000,-0.14512,-0.38003,0.04653,,,,,,,,,,,,,,,,,,,,,,,,,,0,0,0,0,0
0.3980,1783189663.9541,1,0,2.0000,0.0000,1.44682,0.23328,-2.77748,0.97337,1.57080,0.00000,-0.14512,-0.38003,0.04653,,,,,,,,,,,,,,,,,,,,,,,,,,0,0,0,0,0
0.4117,1783189663.9678,1,0,2.0000,0.0000,1.44682,0.23328,-2.77748,0.97337,1.57080,0.00000,-0.14512,-0.38003,0.04653,,,,,,,,,,,,,,,,,,,,,,,,,,0,0,0,0,0
0.4233,1783189663.9793,1,0,2.0000,0.0000,1.44682,0.23328,-2.77748,0.97337,1.57080,0.00000,-0.14512,-0.38003,0.04653,,,,,,,,,,,,,,,,,,,,,,,,,,0,0,0,0,0
0.4315,1783189663.9876,1,0,2.0000,0.0000,1.44682,0.23328,-2.77748,0.97337,1.57080,0.00000,-0.14512,-0.38003,0.04653,,,,,,,,,,,,,,,,,,,,,,,,,,0,0,0,0,0
0.4381,1783189663.9941,1,0,2.0000,0.0000,1.44682,0.23328,-2.77748,0.97337,1.57080,0.00000,-0.14512,-0.38003,0.04653,,,,,,,,,,,,,,,,,,,,,,,,,,0,0,0,0,0
0.4543,1783189664.0104,1,0,2.0000,0.0000,1.44682,0.23328,-2.77748,0.97337,1.57080,0.00000,-0.14512,-0.38003,0.04653,,,,,,,,,,,,,,,,,,,,,,,,,,0,0,0,0,0
0.4576,1783189664.0137,1,0,2.0000,0.0000,1.44682,0.23328,-2.77748,0.97337,1.57080,0.00000,-0.14512,-0.38003,0.04653,,,,,,,,,,,,,,,,,,,,,,,,,,0,0,0,0,0
0.4579,1783189664.0140,1,0,2.0000,0.0000,1.44682,0.23328,-2.77748,0.97337,1.57080,0.00000,-0.14512,-0.38003,0.04653,,,,,,,,,,,,,,,,,,,,,,,,,,0,0,0,0,0
0.4666,1783189664.0227,1,0,2.0000,0.0000,1.44682,0.23328,-2.77748,0.97337,1.57080,0.00000,-0.14512,-0.38003,0.04653,,,,,,,,,,,,,,,,,,,,,,,,,,0,0,0,0,0
0.4768,1783189664.0328,1,0,2.0000,0.0000,1.44682,0.23328,-2.77748,0.97337,1.57080,0.00000,-0.14512,-0.38003,0.04653,,,,,,,,,,,,,,,,,,,,,,,,,,0,0,0,0,0
0.4936,1783189664.0497,1,0,2.0000,0.0000,1.44682,0.23328,-2.77748,0.97337,1.57080,0.00000,-0.14512,-0.38003,0.04653,,,,,,,,,,,,,,,,,,,,,,,,,,0,0,0,0,0
0.4968,1783189664.0529,1,0,2.0000,0.0000,1.44682,0.23328,-2.77748,0.97337,1.57080,0.00000,-0.14512,-0.38003,0.04653,,,,,,,,,,,,,,,,,,,,,,,,,,0,0,0,0,0
0.4972,1783189664.0533,1,0,2.0000,0.0000,1.44682,0.23328,-2.77748,0.97337,1.57080,0.00000,-0.14512,-0.38003,0.04653,,,,,,,,,,,,,,,,,,,,,,,,,,0,0,0,0,0
0.5108,1783189664.0669,1,0,2.0000,0.0000,1.44682,0.23328,-2.77748,0.97337,1.57080,0.00000,-0.14512,-0.38003,0.04653,,,,,,,,,,,,,,,,,,,,,,,,,,0,0,0,0,0
0.5174,1783189664.0735,1,0,2.0000,0.0000,1.44682,0.23328,-2.77748,0.97337,1.57080,0.00000,-0.14512,-0.38003,0.04653,,,,,,,,,,,,,,,,,,,,,,,,,,0,0,0,0,0
0.5288,1783189664.0848,1,0,2.0000,0.0000,1.44682,0.23328,-2.77748,0.97337,1.57080,0.00000,-0.14512,-0.38003,0.04653,,,,,,,,,,,,,,,,,,,,,,,,,,0,0,0,0,0
0.5379,1783189664.0940,1,0,2.0000,0.0000,1.44682,0.23328,-2.77748,0.97337,1.57080,0.00000,-0.14512,-0.38003,0.04653,,,,,,,,,,,,,,,,,,,,,,,,,,0,0,0,0,0
0.5532,1783189664.1093,1,0,2.0000,0.0000,1.44682,0.23328,-2.77748,0.97337,1.57080,0.00000,-0.14512,-0.38003,0.04653,,,,,,,,,,,,,,,,,,,,,,,,,,0,0,0,0,0
0.5565,1783189664.1125,1,0,2.0000,0.0000,1.44682,0.23328,-2.77748,0.97337,1.57080,0.00000,-0.14512,-0.38003,0.04653,,,,,,,,,,,,,,,,,,,,,,,,,,0,0,0,0,0
0.5569,1783189664.1130,1,0,2.0000,0.0000,1.44682,0.23328,-2.77748,0.97337,1.57080,0.00000,-0.14512,-0.38003,0.04653,,,,,,,,,,,,,,,,,,,,,,,,,,0,0,0,0,0
0.5684,1783189664.1245,1,0,2.0000,0.0000,1.44682,0.23328,-2.77748,0.97337,1.57080,0.00000,-0.14512,-0.38003,0.04653,,,,,,,,,,,,,,,,,,,,,,,,,,0,0,0,0,0
0.5890,1783189664.1451,1,0,2.0000,0.0000,1.44682,0.23328,-2.77748,0.97337,1.57080,0.00000,-0.14512,-0.38003,0.04653,,,,,,,,,,,,,,,,,,,,,,,,,,0,0,0,0,0
0.5896,1783189664.1457,1,0,2.0000,0.0000,1.44682,0.23328,-2.77748,0.97337,1.57080,0.00000,-0.14512,-0.38003,0.04653,,,,,,,,,,,,,,,,,,,,,,,,,,0,0,0,0,0
0.5904,1783189664.1465,1,0,2.0000,0.0000,1.44682,0.23328,-2.77748,0.97337,1.57080,0.00000,-0.14512,-0.38003,0.04653,,,,,,,,,,,,,,,,,,,,,,,,,,0,0,0,0,0
0.6013,1783189664.1574,1,0,2.0000,0.0000,1.44682,0.23328,-2.77748,0.97337,1.57080,0.00000,-0.14512,-0.38003,0.04653,,,,,,,,,,,,,,,,,,,,,,,,,,0,0,0,0,0
0.6143,1783189664.1704,1,0,2.0000,0.0000,1.44682,0.23328,-2.77748,0.97337,1.57080,0.00000,-0.14512,-0.38003,0.04653,,,,,,,,,,,,,,,,,,,,,,,,,,0,0,0,0,0
0.6151,1783189664.1712,1,0,2.0000,0.0000,1.44682,0.23328,-2.77748,0.97337,1.57080,0.00000,-0.14512,-0.38003,0.04653,,,,,,,,,,,,,,,,,,,,,,,,,,0,0,0,0,0
0.6171,1783189664.1732,1,0,2.0000,0.0000,1.44682,0.23328,-2.77748,0.97337,1.57080,0.00000,-0.14512,-0.38003,0.04653,,,,,,,,,,,,,,,,,,,,,,,,,,0,0,0,0,0
0.6304,1783189664.1865,1,0,2.0000,0.0000,1.44682,0.23328,-2.77748,0.97337,1.57080,0.00000,-0.14512,-0.38003,0.04653,,,,,,,,,,,,,,,,,,,,,,,,,,0,0,0,0,0
0.6312,1783189664.1873,1,0,2.0000,0.0000,1.44682,0.23328,-2.77748,0.97337,1.57080,0.00000,-0.14512,-0.38003,0.04653,,,,,,,,,,,,,,,,,,,,,,,,,,0,0,0,0,0
0.6389,1783189664.1950,1,0,2.0000,0.0000,1.44682,0.23328,-2.77748,0.97337,1.57080,0.00000,-0.14512,-0.38003,0.04653,,,,,,,,,,,,,,,,,,,,,,,,,,0,0,0,0,0
0.6578,1783189664.2139,1,0,2.0000,0.0000,1.44682,0.23328,-2.77748,0.97337,1.57080,0.00000,-0.14512,-0.38003,0.04653,,,,,,,,,,,,,,,,,,,,,,,,,,0,0,0,0,0
0.6616,1783189664.2177,1,0,2.0000,0.0000,1.44682,0.23328,-2.77748,0.97337,1.57080,0.00000,-0.14512,-0.38003,0.04653,,,,,,,,,,,,,,,,,,,,,,,,,,0,0,0,0,0
0.6705,1783189664.2266,1,0,2.0000,0.0000,1.44682,0.23328,-2.77748,0.97337,1.57080,0.00000,-0.14512,-0.38003,0.04653,,,,,,,,,,,,,,,,,,,,,,,,,,0,0,0,0,0
0.6802,1783189664.2363,1,0,2.0000,0.0000,1.44682,0.23328,-2.77748,0.97337,1.57080,0.00000,-0.14512,-0.38003,0.04653,,,,,,,,,,,,,,,,,,,,,,,,,,0,0,0,0,0
0.6806,1783189664.2366,1,0,2.0000,0.0000,1.44682,0.23328,-2.77748,0.97337,1.57080,0.00000,-0.14512,-0.38003,0.04653,,,,,,,,,,,,,,,,,,,,,,,,,,0,0,0,0,0
0.6914,1783189664.2475,1,0,2.0000,0.0000,1.44682,0.23328,-2.77748,0.97337,1.57080,0.00000,-0.14512,-0.38003,0.04653,,,,,,,,,,,,,,,,,,,,,,,,,,0,0,0,0,0
0.6918,1783189664.2479,1,0,2.0000,0.0000,1.44682,0.23328,-2.77748,0.97337,1.57080,0.00000,-0.14512,-0.38003,0.04653,,,,,,,,,,,,,,,,,,,,,,,,,,0,0,0,0,0
0.6986,1783189664.2546,1,0,2.0000,0.0000,1.44682,0.23328,-2.77748,0.97337,1.57080,0.00000,-0.14512,-0.38003,0.04653,,,,,,,,,,,,,,,,,,,,,,,,,,0,0,0,0,0
0.7067,1783189664.2628,1,0,2.0000,0.0000,1.44682,0.23328,-2.77748,0.97337,1.57080,0.00000,-0.14512,-0.38003,0.04653,,,,,,,,,,,,,,,,,,,,,,,,,,0,0,0,0,0
0.7171,1783189664.2731,1,0,2.0000,0.0000,1.44682,0.23328,-2.77748,0.97337,1.57080,0.00000,-0.14512,-0.38003,0.04653,,,,,,,,,,,,,,,,,,,,,,,,,,0,0,0,0,0
0.7266,1783189664.2827,1,0,2.0000,0.0000,1.44682,0.23328,-2.77748,0.97337,1.57080,0.00000,-0.14512,-0.38003,0.04653,,,,,,,,,,,,,,,,,,,,,,,,,,0,0,0,0,0
0.7375,1783189664.2936,1,1,2.0000,0.0000,1.44682,0.23328,-2.77748,0.97337,1.57080,0.00000,-0.14512,-0.38003,0.04653,,,,,,,,,,,,,,,,,,,,,,,,,,0,0,0,0,0
0.7540,1783189664.3101,1,1,2.0000,0.0000,1.44682,0.23328,-2.77748,0.97337,1.57080,0.00000,-0.14512,-0.38003,0.04653,,,,,,,,,,,,,,,,,,,,,,,,,,0,0,0,0,0
0.7584,1783189664.3144,1,1,2.0000,0.0000,1.44682,0.23328,-2.77748,0.97337,1.57080,0.00000,-0.14512,-0.38003,0.04653,,,,,,,,,,,,,,,,,,,,,,,,,,0,0,0,0,0
0.7730,1783189664.3291,1,1,2.0000,0.0000,1.44682,0.23328,-2.77748,0.97337,1.57080,0.00000,-0.14512,-0.38003,0.04653,,,,,,,,,,,,,,,,,,,,,,,,,,0,0,0,0,0
0.7820,1783189664.3381,1,1,2.0000,0.0000,1.44682,0.23328,-2.77748,0.97337,1.57080,0.00000,-0.14512,-0.38003,0.04653,,,,,,,,,,,,,,,,,,,,,,,,,,0,0,0,0,0
0.7865,1783189664.3426,1,1,2.0000,0.0000,1.44682,0.23328,-2.77748,0.97337,1.57080,0.00000,-0.14512,-0.38003,0.04653,,,,,,,,,,,,,,,,,,,,,,,,,,0,0,0,0,0
0.7868,1783189664.3429,1,1,2.0000,0.0000,1.44682,0.23328,-2.77748,0.97337,1.57080,0.00000,-0.14512,-0.38003,0.04653,,,,,,,,,,,,,,,,,,,,,,,,,,0,0,0,0,0
0.8012,1783189664.3573,1,1,2.0000,0.0000,1.44682,0.23328,-2.77748,0.97337,1.57080,0.00000,-0.14512,-0.38003,0.04653,,,,,,,,,,,,,,,,,,,,,,,,,,0,0,0,0,0
0.8088,1783189664.3649,1,1,2.0000,0.0000,1.44682,0.23328,-2.77748,0.97337,1.57080,0.00000,-0.14512,-0.38003,0.04653,,,,,,,,,,,,,,,,,,,,,,,,,,0,0,0,0,0
0.8207,1783189664.3768,1,1,2.0000,0.0000,1.44682,0.23328,-2.77748,0.97337,1.57080,0.00000,-0.14512,-0.38003,0.04653,,,,,,,,,,,,,,,,,,,,,,,,,,0,0,0,0,0
0.8210,1783189664.3771,1,1,2.0000,0.0000,1.44682,0.23328,-2.77748,0.97337,1.57080,0.00000,-0.14512,-0.38003,0.04653,,,,,,,,,,,,,,,,,,,,,,,,,,0,0,0,0,0
0.8304,1783189664.3865,1,1,2.0000,0.0000,1.44682,0.23328,-2.77748,0.97337,1.57080,0.00000,-0.14512,-0.38003,0.04653,,,,,,,,,,,,,,,,,,,,,,,,,,0,0,0,0,0
0.8308,1783189664.3868,1,1,2.0000,0.0000,1.44682,0.23328,-2.77748,0.97337,1.57080,0.00000,-0.14512,-0.38003,0.04653,,,,,,,,,,,,,,,,,,,,,,,,,,0,0,0,0,0
0.8372,1783189664.3933,1,1,2.0000,0.0000,1.44682,0.23328,-2.77748,0.97337,1.57080,0.00000,-0.14512,-0.38003,0.04653,,,,,,,,,,,,,,,,,,,,,,,,,,0,0,0,0,0
0.8470,1783189664.4031,1,1,2.0000,0.0000,1.44682,0.23328,-2.77748,0.97337,1.57080,0.00000,-0.14512,-0.38003,0.04653,,,,,,,,,,,,,,,,,,,,,,,,,,0,0,0,0,0
0.8609,1783189664.4170,1,1,2.0000,0.0000,1.44682,0.23328,-2.77748,0.97337,1.57080,0.00000,-0.14512,-0.38003,0.04653,,,,,,,,,,,,,,,,,,,,,,,,,,0,0,0,0,0
0.8681,1783189664.4242,1,1,2.0000,0.0000,1.44682,0.23328,-2.77748,0.97337,1.57080,0.00000,-0.14512,-0.38003,0.04653,,,,,,,,,,,,,,,,,,,,,,,,,,0,0,0,0,0
0.8685,1783189664.4246,1,1,2.0000,0.0000,1.44682,0.23328,-2.77748,0.97337,1.57080,0.00000,-0.14512,-0.38003,0.04653,,,,,,,,,,,,,,,,,,,,,,,,,,0,0,0,0,0
0.8767,1783189664.4328,1,1,2.0000,0.0000,1.44682,0.23328,-2.77748,0.97337,1.57080,0.00000,-0.14512,-0.38003,0.04653,,,,,,,,,,,,,,,,,,,,,,,,,,0,0,0,0,0
0.8879,1783189664.4440,1,1,2.0000,0.0000,1.44682,0.23328,-2.77748,0.97337,1.57080,0.00000,-0.14512,-0.38003,0.04653,,,,,,,,,,,,,,,,,,,,,,,,,,0,0,0,0,0
0.8974,1783189664.4535,1,1,2.0000,0.0000,1.44682,0.23328,-2.77748,0.97337,1.57080,0.00000,-0.14512,-0.38003,0.04653,,,,,,,,,,,,,,,,,,,,,,,,,,0,0,0,0,0
0.9092,1783189664.4653,1,1,2.0000,0.0000,1.44682,0.23328,-2.77748,0.97337,1.57080,0.00000,-0.14512,-0.38003,0.04653,,,,,,,,,,,,,,,,,,,,,,,,,,0,0,0,0,0
0.9193,1783189664.4754,1,1,2.0000,0.0000,1.44682,0.23328,-2.77748,0.97337,1.57080,0.00000,-0.14512,-0.38003,0.04653,,,,,,,,,,,,,,,,,,,,,,,,,,0,0,0,0,0
0.9280,1783189664.4841,1,1,2.0000,0.0000,1.44682,0.23322,-2.77749,0.97344,1.57080,0.00000,-0.14512,-0.38003,0.04651,,,,,,,,,,,,,,,,,,,,,,,,,,0,0,0,0,0
0.9284,1783189664.4844,1,1,2.0000,0.0000,1.44682,0.23322,-2.77749,0.97344,1.57080,0.00000,-0.14512,-0.38003,0.04651,,,,,,,,,,,,,,,,,,,,,,,,,,0,0,0,0,0
0.9399,1783189664.4960,1,1,2.0000,0.0000,1.44682,0.23301,-2.77755,0.97371,1.57080,0.00000,-0.14512,-0.38003,0.04646,,,,,,,,,,,,,,,,,,,,,,,,,,0,0,0,0,0
0.9637,1783189664.5198,1,1,2.0000,0.0000,1.44682,0.23279,-2.77760,0.97398,1.57080,0.00000,-0.14512,-0.38003,0.04640,,,,,,,,,,,,,,,,,,,,,,,,,,0,0,0,0,0
0.9640,1783189664.5200,1,1,2.0000,0.0000,1.44682,0.23279,-2.77760,0.97398,1.57080,0.00000,-0.14512,-0.38003,0.04640,,,,,,,,,,,,,,,,,,,,,,,,,,0,0,0,0,0
0.9643,1783189664.5204,1,1,2.0000,0.0000,1.44682,0.23279,-2.77760,0.97398,1.57080,0.00000,-0.14512,-0.38003,0.04640,,,,,,,,,,,,,,,,,,,,,,,,,,0,0,0,0,0
0.9663,1783189664.5224,1,1,2.0000,0.0000,1.44682,0.23279,-2.77760,0.97398,1.57080,0.00000,-0.14512,-0.38003,0.04640,,,,,,,,,,,,,,,,,,,,,,,,,,0,0,0,0,0
0.9666,1783189664.5227,1,1,2.0000,0.0000,1.44682,0.23279,-2.77760,0.97398,1.57080,0.00000,-0.14512,-0.38003,0.04640,,,,,,,,,,,,,,,,,,,,,,,,,,0,0,0,0,0
0.9766,1783189664.5327,1,1,2.0000,0.0000,1.44682,0.23264,-2.77764,0.97417,1.57080,0.00000,-0.14512,-0.38003,0.04636,,,,,,,,,,,,,,,,,,,,,,,,,,0,0,0,0,0
0.9878,1783189664.5439,1,1,2.0000,0.0000,1.44682,0.23259,-2.77765,0.97423,1.57080,0.00000,-0.14512,-0.38003,0.04635,,,,,,,,,,,,,,,,,,,,,,,,,,0,0,0,0,0
0.9880,1783189664.5441,1,1,2.0000,0.0000,1.44682,0.23259,-2.77765,0.97423,1.57080,0.00000,-0.14512,-0.38003,0.04635,,,,,,,,,,,,,,,,,,,,,,,,,,0,0,0,0,0
0.9965,1783189664.5526,1,1,2.0000,0.0000,1.44682,0.23248,-2.77768,0.97437,1.57080,0.00000,-0.14512,-0.38003,0.04632,,,,,,,,,,,,,,,,,,,,,,,,,,0,0,0,0,0
1.0076,1783189664.5637,1,1,2.0000,0.0000,1.44682,0.23227,-2.77774,0.97464,1.57080,0.00000,-0.14512,-0.38003,0.04626,,,,,,,,,,,,,,,,,,,,,,,,,,0,0,0,0,0
1.0212,1783189664.5773,1,1,2.0000,0.0000,1.44682,0.23223,-2.77775,0.97469,1.57080,0.00000,-0.14512,-0.38003,0.04625,,,,,,,,,,,,,,,,,,,,,,,,,,0,0,0,0,0
1.0265,1783189664.5826,1,1,2.0000,0.0000,1.44682,0.23218,-2.77776,0.97475,1.57080,0.00000,-0.14512,-0.38003,0.04624,,,,,,,,,,,,,,,,,,,,,,,,,,0,0,0,0,0
1.0269,1783189664.5829,1,1,2.0000,0.0000,1.44682,0.23218,-2.77776,0.97475,1.57080,0.00000,-0.14512,-0.38003,0.04624,,,,,,,,,,,,,,,,,,,,,,,,,,0,0,0,0,0
1.0397,1783189664.5957,1,1,2.0000,0.0000,1.44682,0.23198,-2.77781,0.97500,1.57080,0.00000,-0.14512,-0.38003,0.04619,,,,,,,,,,,,,,,,,,,,,,,,,,0,0,0,0,0
1.0467,1783189664.6028,1,1,2.0000,0.0000,1.44682,0.23197,-2.77781,0.97502,1.57080,0.00000,-0.14512,-0.38003,0.04619,,,,,,,,,,,,,,,,,,,,,,,,,,0,0,0,0,0
1.0647,1783189664.6208,1,1,2.0000,0.0000,1.44682,0.23169,-2.77789,0.97536,1.57080,0.00000,-0.14512,-0.38003,0.04611,,,,,,,,,,,,,,,,,,,,,,,,,,0,0,0,0,0
1.0675,1783189664.6236,1,1,2.0000,0.0000,1.44682,0.23162,-2.77790,0.97545,1.57080,0.00000,-0.14512,-0.38003,0.04610,,,,,,,,,,,,,,,,,,,,,,,,,,0,0,0,0,0
1.0679,1783189664.6239,1,1,2.0000,0.0000,1.44682,0.23162,-2.77790,0.97545,1.57080,0.00000,-0.14512,-0.38003,0.04610,,,,,,,,,,,,,,,,,,,,,,,,,,0,0,0,0,0
1.0768,1783189664.6329,1,1,2.0000,0.0000,1.44682,0.23162,-2.77791,0.97546,1.57080,0.00000,-0.14512,-0.38003,0.04609,,,,,,,,,,,,,,,,,,,,,,,,,,0,0,0,0,0
1.0894,1783189664.6455,1,1,2.0000,0.0000,1.44682,0.23151,-2.77793,0.97559,1.57080,0.00000,-0.14512,-0.38003,0.04607,,,,,,,,,,,,,,,,,,,,,,,,,,0,0,0,0,0
1.1020,1783189664.6581,1,1,2.0000,0.0000,1.44682,0.23140,-2.77796,0.97574,1.57080,0.00000,-0.14512,-0.38003,0.04604,,,,,,,,,,,,,,,,,,,,,,,,,,0,0,0,0,0
1.1086,1783189664.6647,1,1,2.0000,0.0000,1.44682,0.23135,-2.77797,0.97579,1.57080,0.00000,-0.14512,-0.38003,0.04602,,,,,,,,,,,,,,,,,,,,,,,,,,0,0,0,0,0
1.1167,1783189664.6728,1,1,2.0000,0.0000,1.44682,0.23124,-2.77800,0.97594,1.57080,0.00000,-0.14512,-0.38003,0.04599,,,,,,,,,,,,,,,,,,,,,,,,,,0,0,0,0,0
1.1273,1783189664.6834,1,1,2.0000,0.0000,1.44682,0.23103,-2.77806,0.97620,1.57080,0.00000,-0.14512,-0.38003,0.04594,,,,,,,,,,,,,,,,,,,,,,,,,,0,0,0,0,0
1.1276,1783189664.6836,1,1,2.0000,0.0000,1.44682,0.23103,-2.77806,0.97620,1.57080,0.00000,-0.14512,-0.38003,0.04594,,,,,,,,,,,,,,,,,,,,,,,,,,0,0,0,0,0
1.1394,1783189664.6955,1,1,2.0000,0.0000,1.44682,0.23098,-2.77807,0.97625,1.57080,0.00000,-0.14512,-0.38003,0.04593,,,,,,,,,,,,,,,,,,,,,,,,,,0,0,0,0,0
1.1471,1783189664.7032,1,1,2.0000,0.0000,1.44682,0.23087,-2.77810,0.97639,1.57080,0.00000,-0.14512,-0.38003,0.04590,,,,,,,,,,,,,,,,,,,,,,,,,,0,0,0,0,0
1.1685,1783189664.7246,1,1,2.0000,0.0000,1.44682,0.23066,-2.77815,0.97666,1.57080,0.00000,-0.14512,-0.38003,0.04584,,,,,,,,,,,,,,,,,,,,,,,,,,0,0,0,0,0
1.1690,1783189664.7250,1,1,2.0000,0.0000,1.44682,0.23066,-2.77815,0.97666,1.57080,0.00000,-0.14512,-0.38003,0.04584,,,,,,,,,,,,,,,,,,,,,,,,,,0,0,0,0,0
1.1773,1783189664.7334,1,1,2.0000,0.0000,1.44682,0.23060,-2.77817,0.97673,1.57080,0.00000,-0.14512,-0.38003,0.04583,,,,,,,,,,,,,,,,,,,,,,,,,,0,0,0,0,0
1.1895,1783189664.7455,1,1,2.0000,0.0000,1.44682,0.23044,-2.77821,0.97694,1.57080,0.00000,-0.14512,-0.38003,0.04579,,,,,,,,,,,,,,,,,,,,,,,,,,0,0,0,0,0
1.1969,1783189664.7530,1,1,2.0000,0.0000,1.44682,0.23043,-2.77821,0.97695,1.57080,0.00000,-0.14512,-0.38003,0.04578,,,,,,,,,,,,,,,,,,,,,,,,,,0,0,0,0,0
1.2209,1783189664.7770,1,1,2.0000,0.0000,1.44682,0.23007,-2.77830,0.97740,1.57080,0.00000,-0.14512,-0.38003,0.04569,,,,,,,,,,,,,,,,,,,,,,,,,,0,0,0,0,0
1.2213,1783189664.7774,1,1,2.0000,0.0000,1.44682,0.23007,-2.77830,0.97740,1.57080,0.00000,-0.14512,-0.38003,0.04569,,,,,,,,,,,,,,,,,,,,,,,,,,0,0,0,0,0
1.2354,1783189664.7915,1,1,2.0000,0.0000,1.44682,0.23001,-2.77832,0.97748,1.57080,0.00000,-0.14512,-0.38003,0.04567,,,,,,,,,,,,,,,,,,,,,,,,,,0,0,0,0,0
1.2456,1783189664.8017,1,1,2.0000,0.0000,1.44682,0.22991,-2.77834,0.97761,1.57080,0.00000,-0.14512,-0.38003,0.04565,,,,,,,,,,,,,,,,,,,,,,,,,,0,0,0,0,0
1.2475,1783189664.8036,1,1,2.0000,0.0000,1.44682,0.22985,-2.77836,0.97768,1.57080,0.00000,-0.14512,-0.38003,0.04563,,,,,,,,,,,,,,,,,,,,,,,,,,0,0,0,0,0
1.2479,1783189664.8040,1,1,2.0000,0.0000,1.44682,0.22985,-2.77836,0.97768,1.57080,0.00000,-0.14512,-0.38003,0.04563,,,,,,,,,,,,,,,,,,,,,,,,,,0,0,0,0,0
1.2566,1783189664.8127,1,1,2.0000,0.0000,1.44682,0.22983,-2.77836,0.97770,1.57080,0.00000,-0.14512,-0.38003,0.04563,,,,,,,,,,,,,,,,,,,,,,,,,,0,0,0,0,0
1.2725,1783189664.8285,1,1,2.0000,0.0000,1.44682,0.22962,-2.77842,0.97797,1.57080,0.00000,-0.14512,-0.38003,0.04557,,,,,,,,,,,,,,,,,,,,,,,,,,0,0,0,0,0
1.2796,1783189664.8357,1,1,2.0000,0.0000,1.44682,0.22948,-2.77845,0.97815,1.57080,0.00000,-0.14512,-0.38003,0.04554,,,,,,,,,,,,,,,,,,,,,,,,,,0,0,0,0,0
1.2873,1783189664.8434,1,1,2.0000,0.0000,1.44682,0.22947,-2.77846,0.97816,1.57080,0.00000,-0.14512,-0.38003,0.04553,,,,,,,,,,,,,,,,,,,,,,,,,,0,0,0,0,0
1.2877,1783189664.8438,1,1,2.0000,0.0000,1.44682,0.22947,-2.77846,0.97816,1.57080,0.00000,-0.14512,-0.38003,0.04553,,,,,,,,,,,,,,,,,,,,,,,,,,0,0,0,0,0
1.2967,1783189664.8528,1,1,2.0000,0.0000,1.44682,0.22941,-2.77847,0.97823,1.57080,0.00000,-0.14512,-0.38003,0.04552,,,,,,,,,,,,,,,,,,,,,,,,,,0,0,0,0,0
1.3128,1783189664.8689,1,1,2.0000,0.0000,1.44682,0.22925,-2.77851,0.97843,1.57080,0.00000,-0.14512,-0.38003,0.04548,,,,,,,,,,,,,,,,,,,,,,,,,,0,0,0,0,0
1.3189,1783189664.8750,1,1,2.0000,0.0000,1.44682,0.22920,-2.77852,0.97849,1.57080,0.00000,-0.14512,-0.38003,0.04546,,,,,,,,,,,,,,,,,,,,,,,,,,0,0,0,0,0
1.3191,1783189664.8752,1,1,2.0000,0.0000,1.44682,0.22920,-2.77852,0.97849,1.57080,0.00000,-0.14512,-0.38003,0.04546,,,,,,,,,,,,,,,,,,,,,,,,,,0,0,0,0,0
1.3285,1783189664.8845,1,1,2.0000,0.0000,1.44682,0.22909,-2.77855,0.97863,1.57080,0.00000,-0.14512,-0.38003,0.04544,,,,,,,,,,,,,,,,,,,,,,,,,,0,0,0,0,0
1.3367,1783189664.8927,1,1,2.0000,0.0000,1.44682,0.22895,-2.77859,0.97881,1.57080,0.00000,-0.14512,-0.38003,0.04540,,,,,,,,,,,,,,,,,,,,,,,,,,0,0,0,0,0
1.3483,1783189664.9044,1,1,2.0000,0.0000,1.44682,0.22887,-2.77861,0.97890,1.57080,0.00000,-0.14512,-0.38003,0.04538,,,,,,,,,,,,,,,,,,,,,,,,,,0,0,0,0,0
1.3597,1783189664.9158,1,1,2.0000,0.0000,1.44682,0.22877,-2.77864,0.97904,1.57080,0.00000,-0.14512,-0.38003,0.04535,,,,,,,,,,,,,,,,,,,,,,,,,,0,0,0,0,0
1.3710,1783189664.9271,1,1,2.0000,0.0000,1.44682,0.22865,-2.77866,0.97918,1.57080,0.00000,-0.14512,-0.38003,0.04532,,,,,,,,,,,,,,,,,,,,,,,,,,0,0,0,0,0
1.3767,1783189664.9328,1,1,2.0000,0.0000,1.44682,0.22864,-2.77867,0.97919,1.57080,0.00000,-0.14512,-0.38003,0.04532,,,,,,,,,,,,,,,,,,,,,,,,,,0,0,0,0,0
1.3871,1783189664.9432,1,1,2.0000,0.0000,1.44682,0.22850,-2.77870,0.97938,1.57080,0.00000,-0.14512,-0.38003,0.04528,,,,,,,,,,,,,,,,,,,,,,,,,,0,0,0,0,0
1.3873,1783189664.9434,1,1,2.0000,0.0000,1.44682,0.22850,-2.77870,0.97938,1.57080,0.00000,-0.14512,-0.38003,0.04528,,,,,,,,,,,,,,,,,,,,,,,,,,0,0,0,0,0
1.4001,1783189664.9562,1,1,2.0000,0.0000,1.44682,0.22829,-2.77876,0.97964,1.57080,0.00000,-0.14512,-0.38003,0.04523,,,,,,,,,,,,,,,,,,,,,,,,,,0,0,0,0,0
1.4085,1783189664.9646,1,1,2.0000,0.0000,1.44682,0.22827,-2.77876,0.97966,1.57080,0.00000,-0.14512,-0.38003,0.04522,,,,,,,,,,,,,,,,,,,,,,,,,,0,0,0,0,0
1.4185,1783189664.9746,1,1,2.0000,0.0000,1.44682,0.22819,-2.77878,0.97976,1.57080,0.00000,-0.14512,-0.38003,0.04520,,,,,,,,,,,,,,,,,,,,,,,,,,0,0,0,0,0
1.4311,1783189664.9872,1,1,2.0000,0.0000,1.44682,0.22799,-2.77883,0.98001,1.57080,0.00000,-0.14512,-0.38003,0.04515,,,,,,,,,,,,,,,,,,,,,,,,,,0,0,0,0,0
1.4370,1783189664.9931,1,1,2.0000,0.0000,1.44682,0.22798,-2.77884,0.98002,1.57080,0.00000,-0.14512,-0.38003,0.04515,,,,,,,,,,,,,,,,,,,,,,,,,,0,0,0,0,0
1.4373,1783189664.9934,1,1,2.0000,0.0000,1.44682,0.22798,-2.77884,0.98002,1.57080,0.00000,-0.14512,-0.38003,0.04515,,,,,,,,,,,,,,,,,,,,,,,,,,0,0,0,0,0
1.4464,1783189665.0025,1,1,2.0000,0.0000,1.44682,0.22790,-2.77886,0.98012,1.57080,0.00000,-0.14512,-0.38003,0.04513,,,,,,,,,,,,,,,,,,,,,,,,,,0,0,0,0,0
1.4470,1783189665.0031,1,1,2.0000,0.0000,1.44682,0.22784,-2.77887,0.98020,1.57080,0.00000,-0.14512,-0.38003,0.04511,,,,,,,,,,,,,,,,,,,,,,,,,,0,0,0,0,0
1.4569,1783189665.0130,1,1,2.0000,0.0000,1.44682,0.22770,-2.77891,0.98037,1.57080,0.00000,-0.14512,-0.38003,0.04507,,,,,,,,,,,,,,,,,,,,,,,,,,0,0,0,0,0
1.4571,1783189665.0132,1,1,2.0000,0.0000,1.44682,0.22770,-2.77891,0.98037,1.57080,0.00000,-0.14512,-0.38003,0.04507,,,,,,,,,,,,,,,,,,,,,,,,,,0,0,0,0,0
1.4742,1783189665.0303,1,1,2.0000,0.0000,1.44682,0.22759,-2.77894,0.98051,1.57080,0.00000,-0.14512,-0.38003,0.04505,,,,,,,,,,,,,,,,,,,,,,,,,,0,0,0,0,0
1.4766,1783189665.0327,1,1,2.0000,0.0000,1.44682,0.22754,-2.77895,0.98058,1.57080,0.00000,-0.14512,-0.38003,0.04503,,,,,,,,,,,,,,,,,,,,,,,,,,0,0,0,0,0
1.4880,1783189665.0441,1,1,2.0000,0.0000,1.44682,0.22734,-2.77900,0.98082,1.57080,0.00000,-0.14512,-0.38003,0.04498,,,,,,,,,,,,,,,,,,,,,,,,,,0,0,0,0,0
1.4968,1783189665.0529,1,1,2.0000,0.0000,1.44682,0.22733,-2.77900,0.98084,1.57080,0.00000,-0.14512,-0.38003,0.04498,,,,,,,,,,,,,,,,,,,,,,,,,,0,0,0,0,0
1.5181,1783189665.0742,1,1,2.0000,0.0000,1.44682,0.22705,-2.77907,0.98119,1.57080,0.00001,-0.14512,-0.38003,0.04491,,,,,,,,,,,,,,,,,,,,,,,,,,0,0,0,0,0
1.5190,1783189665.0751,1,1,2.0000,0.0000,1.44682,0.22698,-2.77909,0.98127,1.57080,0.00001,-0.14512,-0.38003,0.04489,,,,,,,,,,,,,,,,,,,,,,,,,,0,0,0,0,0
1.5192,1783189665.0753,1,1,2.0000,0.0000,1.44682,0.22698,-2.77909,0.98127,1.57080,0.00001,-0.14512,-0.38003,0.04489,,,,,,,,,,,,,,,,,,,,,,,,,,0,0,0,0,0
1.5272,1783189665.0833,1,1,2.0000,0.0000,1.44682,0.22697,-2.77909,0.98129,1.57080,0.00001,-0.14512,-0.38003,0.04488,,,,,,,,,,,,,,,,,,,,,,,,,,0,0,0,0,0
1.5389,1783189665.0949,1,1,2.0000,0.0000,1.44682,0.22683,-2.77913,0.98147,1.57080,0.00001,-0.14512,-0.38003,0.04485,,,,,,,,,,,,,,,,,,,,,,,,,,0,0,0,0,0
1.5517,1783189665.1078,1,1,2.0000,0.0000,1.44682,0.22669,-2.77916,0.98164,1.57080,0.00001,-0.14512,-0.38003,0.04481,,,,,,,,,,,,,,,,,,,,,,,,,,0,0,0,0,0
1.5644,1783189665.1205,1,1,2.0000,0.0000,1.44682,0.22660,-2.77919,0.98176,1.57080,0.00001,-0.14512,-0.38003,0.04479,,,,,,,,,,,,,,,,,,,,,,,,,,0,0,0,0,0
1.6839,1783189665.2400,1,1,2.0000,0.0000,1.44682,0.22528,-2.77952,0.98340,1.57080,0.00001,-0.14512,-0.38002,0.04445,,,,,,,,,,,,,,,,,,,,,,,,,,0,0,0,0,0
1.6843,1783189665.2404,1,1,2.0000,0.0000,1.44682,0.22528,-2.77952,0.98340,1.57080,0.00001,-0.14512,-0.38002,0.04445,,,,,,,,,,,,,,,,,,,,,,,,,,0,0,0,0,0
1.6846,1783189665.2407,1,1,2.0000,0.0000,1.44682,0.22528,-2.77952,0.98340,1.57080,0.00001,-0.14512,-0.38002,0.04445,,,,,,,,,,,,,,,,,,,,,,,,,,0,0,0,0,0
1.6849,1783189665.2410,1,1,2.0000,0.0000,1.44682,0.22528,-2.77952,0.98340,1.57080,0.00001,-0.14512,-0.38002,0.04445,,,,,,,,,,,,,,,,,,,,,,,,,,0,0,0,0,0
1.6853,1783189665.2413,1,1,2.0000,0.0000,1.44682,0.22528,-2.77952,0.98340,1.57080,0.00001,-0.14512,-0.38002,0.04445,,,,,,,,,,,,,,,,,,,,,,,,,,0,0,0,0,0
1.6855,1783189665.2416,1,1,2.0000,0.0000,1.44682,0.22528,-2.77952,0.98340,1.57080,0.00001,-0.14512,-0.38002,0.04445,,,,,,,,,,,,,,,,,,,,,,,,,,0,0,0,0,0
1.6859,1783189665.2420,1,1,2.0000,0.0000,1.44682,0.22528,-2.77952,0.98340,1.57080,0.00001,-0.14512,-0.38002,0.04445,,,,,,,,,,,,,,,,,,,,,,,,,,0,0,0,0,0
1.6880,1783189665.2441,1,1,2.0000,0.0000,1.44682,0.22525,-2.77953,0.98345,1.57080,0.00001,-0.14512,-0.38002,0.04444,,,,,,,,,,,,,,,,,,,,,,,,,,0,0,0,0,0
1.6969,1783189665.2530,1,1,2.0000,0.0000,1.44682,0.22515,-2.77955,0.98358,1.57080,0.00001,-0.14512,-0.38002,0.04441,,,,,,,,,,,,,,,,,,,,,,,,,,0,0,0,0,0
1.6972,1783189665.2533,1,1,2.0000,0.0000,1.44682,0.22515,-2.77955,0.98358,1.57080,0.00001,-0.14512,-0.38002,0.04441,,,,,,,,,,,,,,,,,,,,,,,,,,0,0,0,0,0
1.7077,1783189665.2638,1,1,2.0000,0.0000,1.44682,0.22507,-2.77957,0.98367,1.57080,0.00001,-0.14512,-0.38002,0.04439,,,,,,,,,,,,,,,,,,,,,,,,,,0,0,0,0,0
1.7205,1783189665.2766,1,1,2.0000,0.0000,1.44682,0.22493,-2.77961,0.98385,1.57080,0.00001,-0.14512,-0.38002,0.04435,,,,,,,,,,,,,,,,,,,,,,,,,,0,0,0,0,0
1.7273,1783189665.2834,1,1,2.0000,0.0000,1.44682,0.22478,-2.77965,0.98403,1.57080,0.00001,-0.14512,-0.38002,0.04432,,,,,,,,,,,,,,,,,,,,,,,,,,0,0,0,0,0
1.8473,1783189665.4034,1,1,2.0000,0.0000,1.44682,0.22358,-2.77995,0.98553,1.57080,0.00001,-0.14512,-0.38002,0.04401,,,,,,,,,,,,,,,,,,,,,,,,,,0,0,0,0,0
1.8477,1783189665.4038,1,1,2.0000,0.0000,1.44682,0.22358,-2.77995,0.98553,1.57080,0.00001,-0.14512,-0.38002,0.04401,,,,,,,,,,,,,,,,,,,,,,,,,,0,0,0,0,0
1.8481,1783189665.4042,1,1,2.0000,0.0000,1.44682,0.22358,-2.77995,0.98553,1.57080,0.00001,-0.14512,-0.38002,0.04401,,,,,,,,,,,,,,,,,,,,,,,,,,0,0,0,0,0
1.8485,1783189665.4046,1,1,2.0000,0.0000,1.44682,0.22358,-2.77995,0.98553,1.57080,0.00001,-0.14512,-0.38002,0.04401,,,,,,,,,,,,,,,,,,,,,,,,,,0,0,0,0,0
1.8489,1783189665.4049,1,1,2.0000,0.0000,1.44682,0.22358,-2.77995,0.98553,1.57080,0.00001,-0.14512,-0.38002,0.04401,,,,,,,,,,,,,,,,,,,,,,,,,,0,0,0,0,0
1.8492,1783189665.4052,1,1,2.0000,0.0000,1.44682,0.22358,-2.77995,0.98553,1.57080,0.00001,-0.14512,-0.38002,0.04401,,,,,,,,,,,,,,,,,,,,,,,,,,0,0,0,0,0
1.8495,1783189665.4056,1,1,2.0000,0.0000,1.44682,0.22358,-2.77995,0.98553,1.57080,0.00001,-0.14512,-0.38002,0.04401,,,,,,,,,,,,,,,,,,,,,,,,,,0,0,0,0,0
1.8498,1783189665.4059,1,1,2.0000,0.0000,1.44682,0.22358,-2.77995,0.98553,1.57080,0.00001,-0.14512,-0.38002,0.04401,,,,,,,,,,,,,,,,,,,,,,,,,,0,0,0,0,0
1.8501,1783189665.4062,1,1,2.0000,0.0000,1.44682,0.22358,-2.77995,0.98553,1.57080,0.00001,-0.14512,-0.38002,0.04401,,,,,,,,,,,,,,,,,,,,,,,,,,0,0,0,0,0
1.8592,1783189665.4153,1,1,2.0000,0.0000,1.44682,0.22351,-2.77997,0.98563,1.57080,0.00001,-0.14512,-0.38002,0.04399,,,,,,,,,,,,,,,,,,,,,,,,,,0,0,0,0,0
1.8597,1783189665.4157,1,1,2.0000,0.0000,1.44682,0.22351,-2.77997,0.98563,1.57080,0.00001,-0.14512,-0.38002,0.04399,,,,,,,,,,,,,,,,,,,,,,,,,,0,0,0,0,0
1.8710,1783189665.4270,1,1,2.0000,0.0000,1.44682,0.22340,-2.77999,0.98576,1.57080,0.00001,-0.14512,-0.38002,0.04396,,,,,,,,,,,,,,,,,,,,,,,,,,0,0,0,0,0
1.8847,1783189665.4408,1,1,2.0000,0.0000,1.44682,0.22328,-2.78002,0.98591,1.57080,0.00001,-0.14512,-0.38002,0.04393,,,,,,,,,,,,,,,,,,,,,,,,,,0,0,0,0,0
1.8878,1783189665.4439,1,1,2.0000,0.0000,1.44682,0.22327,-2.78003,0.98592,1.57080,0.00001,-0.14512,-0.38002,0.04393,,,,,,,,,,,,,,,,,,,,,,,,,,0,0,0,0,0
1.8882,1783189665.4443,1,1,2.0000,0.0000,1.44682,0.22327,-2.78003,0.98592,1.57080,0.00001,-0.14512,-0.38002,0.04393,,,,,,,,,,,,,,,,,,,,,,,,,,0,0,0,0,0
1.8967,1783189665.4528,1,1,2.0000,0.0000,1.44682,0.22319,-2.78005,0.98603,1.57080,0.00001,-0.14512,-0.38002,0.04391,,,,,,,,,,,,,,,,,,,,,,,,,,0,0,0,0,0
1.9094,1783189665.4655,1,1,2.0000,0.0000,1.44682,0.22298,-2.78010,0.98628,1.57080,0.00001,-0.14512,-0.38002,0.04385,,,,,,,,,,,,,,,,,,,,,,,,,,0,0,0,0,0
1.9166,1783189665.4727,1,1,2.0000,0.0000,1.44682,0.22291,-2.78012,0.98637,1.57080,0.00001,-0.14512,-0.38002,0.04384,,,,,,,,,,,,,,,,,,,,,,,,,,0,0,0,0,0
1.9169,1783189665.4730,1,1,2.0000,0.0000,1.44682,0.22291,-2.78012,0.98637,1.57080,0.00001,-0.14512,-0.38002,0.04384,,,,,,,,,,,,,,,,,,,,,,,,,,0,0,0,0,0
1.9273,1783189665.4834,1,1,2.0000,0.0000,1.44682,0.22284,-2.78013,0.98646,1.57080,0.00001,-0.14512,-0.38002,0.04382,,,,,,,,,,,,,,,,,,,,,,,,,,0,0,0,0,0
1.9411,1783189665.4972,1,1,2.0000,0.0000,1.44681,0.22268,-2.78017,0.98666,1.57080,0.00001,-0.14512,-0.38002,0.04378,,,,,,,,,,,,,,,,,,,,,,,,,,0,0,0,0,0
1.9469,1783189665.5030,1,1,2.0000,0.0000,1.44681,0.22267,-2.78018,0.98667,1.57080,0.00001,-0.14512,-0.38002,0.04377,,,,,,,,,,,,,,,,,,,,,,,,,,0,0,0,0,0
1.9570,1783189665.5131,1,1,2.0000,0.0000,1.44681,0.22259,-2.78020,0.98678,1.57080,0.00001,-0.14512,-0.38002,0.04375,,,,,,,,,,,,,,,,,,,,,,,,,,0,0,0,0,0
1.9701,1783189665.5262,1,1,2.0000,0.0000,1.44681,0.22238,-2.78025,0.98704,1.57080,0.00001,-0.14512,-0.38002,0.04370,,,,,,,,,,,,,,,,,,,,,,,,,,0,0,0,0,0
1.9898,1783189665.5459,1,1,2.0000,0.0000,1.44681,0.22222,-2.78029,0.98724,1.57080,0.00001,-0.14512,-0.38002,0.04366,,,,,,,,,,,,,,,,,,,,,,,,,,0,0,0,0,0
1.9901,1783189665.5462,1,1,2.0000,0.0000,1.44681,0.22222,-2.78029,0.98724,1.57080,0.00001,-0.14512,-0.38002,0.04366,,,,,,,,,,,,,,,,,,,,,,,,,,0,0,0,0,0
1.9976,1783189665.5537,1,1,2.0000,0.0000,1.44681,0.22209,-2.78032,0.98740,1.57080,0.00001,-0.14512,-0.38002,0.04362,,,,,,,,,,,,,,,,,,,,,,,,,,0,0,0,0,0
2.0117,1783189665.5677,1,1,2.0000,0.0000,1.44681,0.22197,-2.78035,0.98755,1.57080,0.00001,-0.14512,-0.38002,0.04359,,,,,,,,,,,,,,,,,,,,,,,,,,0,0,0,0,0
2.0179,1783189665.5740,1,1,2.0000,0.0000,1.44681,0.22192,-2.78036,0.98761,1.57080,0.00001,-0.14512,-0.38002,0.04358,,,,,,,,,,,,,,,,,,,,,,,,,,0,0,0,0,0
2.0328,1783189665.5888,1,1,2.0000,0.0000,1.44681,0.22165,-2.78043,0.98794,1.57080,0.00001,-0.14512,-0.38002,0.04351,,,,,,,,,,,,,,,,,,,,,,,,,,0,0,0,0,0
2.0369,1783189665.5930,1,1,2.0000,0.0000,1.44681,0.22165,-2.78043,0.98794,1.57080,0.00001,-0.14512,-0.38002,0.04351,,,,,,,,,,,,,,,,,,,,,,,,,,0,0,0,0,0
2.0372,1783189665.5933,1,1,2.0000,0.0000,1.44681,0.22165,-2.78043,0.98794,1.57080,0.00001,-0.14512,-0.38002,0.04351,,,,,,,,,,,,,,,,,,,,,,,,,,0,0,0,0,0
2.0375,1783189665.5936,1,1,2.0000,0.0000,1.44681,0.22165,-2.78043,0.98794,1.57080,0.00001,-0.14512,-0.38002,0.04351,,,,,,,,,,,,,,,,,,,,,,,,,,0,0,0,0,0
2.0468,1783189665.6029,1,1,2.0000,0.0000,1.44681,0.22156,-2.78045,0.98806,1.57080,0.00001,-0.14512,-0.38002,0.04349,,,,,,,,,,,,,,,,,,,,,,,,,,0,0,0,0,0
2.0471,1783189665.6032,1,1,2.0000,0.0000,1.44681,0.22156,-2.78045,0.98806,1.57080,0.00001,-0.14512,-0.38002,0.04349,,,,,,,,,,,,,,,,,,,,,,,,,,0,0,0,0,0
2.0584,1783189665.6145,1,1,2.0000,0.0000,1.44681,0.22143,-2.78049,0.98822,1.57080,0.00001,-0.14512,-0.38002,0.04345,,,,,,,,,,,,,,,,,,,,,,,,,,0,0,0,0,0
2.0669,1783189665.6230,1,1,2.0000,0.0000,1.44681,0.22135,-2.78051,0.98833,1.57080,0.00001,-0.14512,-0.38002,0.04343,,,,,,,,,,,,,,,,,,,,,,,,,,0,0,0,0,0
2.0672,1783189665.6233,1,1,2.0000,0.0000,1.44681,0.22135,-2.78051,0.98833,1.57080,0.00001,-0.14512,-0.38002,0.04343,,,,,,,,,,,,,,,,,,,,,,,,,,0,0,0,0,0
2.0928,1783189665.6489,1,1,2.0000,0.0000,1.44681,0.22100,-2.78059,0.98876,1.57080,0.00001,-0.14512,-0.38002,0.04334,,,,,,,,,,,,,,,,,,,,,,,,,,0,0,0,0,0
2.0931,1783189665.6492,1,1,2.0000,0.0000,1.44681,0.22100,-2.78059,0.98876,1.57080,0.00001,-0.14512,-0.38002,0.04334,,,,,,,,,,,,,,,,,,,,,,,,,,0,0,0,0,0
2.0968,1783189665.6529,1,1,2.0000,0.0000,1.44681,0.22100,-2.78059,0.98876,1.57080,0.00001,-0.14512,-0.38002,0.04334,,,,,,,,,,,,,,,,,,,,,,,,,,0,0,0,0,0
2.1217,1783189665.6778,1,1,2.0000,0.0000,1.44681,0.22076,-2.78065,0.98906,1.57080,0.00001,-0.14512,-0.38002,0.04328,,,,,,,,,,,,,,,,,,,,,,,,,,0,0,0,0,0
2.1248,1783189665.6809,1,1,2.0000,0.0000,1.44681,0.22076,-2.78065,0.98906,1.57080,0.00001,-0.14512,-0.38002,0.04328,,,,,,,,,,,,,,,,,,,,,,,,,,0,0,0,0,0
2.1317,1783189665.6878,1,1,2.0000,0.0000,1.44681,0.22072,-2.78066,0.98911,1.57080,0.00001,-0.14512,-0.38002,0.04327,,,,,,,,,,,,,,,,,,,,,,,,,,0,0,0,0,0
2.1379,1783189665.6940,1,1,2.0000,0.0000,1.44681,0.22067,-2.78068,0.98918,1.57080,0.00001,-0.14512,-0.38002,0.04326,,,,,,,,,,,,,,,,,,,,,,,,,,0,0,0,0,0
2.1382,1783189665.6943,1,1,2.0000,0.0000,1.44681,0.22067,-2.78068,0.98918,1.57080,0.00001,-0.14512,-0.38002,0.04326,,,,,,,,,,,,,,,,,,,,,,,,,,0,0,0,0,0
2.1479,1783189665.7040,1,1,2.0000,0.0000,1.44681,0.22046,-2.78073,0.98943,1.57080,0.00001,-0.14512,-0.38002,0.04320,,,,,,,,,,,,,,,,,,,,,,,,,,0,0,0,0,0
2.1486,1783189665.7047,1,1,2.0000,0.0000,1.44681,0.22046,-2.78073,0.98943,1.57080,0.00001,-0.14512,-0.38002,0.04320,,,,,,,,,,,,,,,,,,,,,,,,,,0,0,0,0,0
2.1623,1783189665.7184,1,1,2.0000,0.0000,1.44681,0.22038,-2.78075,0.98954,1.57080,0.00001,-0.14512,-0.38002,0.04318,,,,,,,,,,,,,,,,,,,,,,,,,,0,0,0,0,0
2.1739,1783189665.7300,1,1,2.0000,0.0000,1.44681,0.22024,-2.78078,0.98972,1.57080,0.00001,-0.14512,-0.38002,0.04315,,,,,,,,,,,,,,,,,,,,,,,,,,0,0,0,0,0
2.1788,1783189665.7349,1,1,2.0000,0.0000,1.44681,0.22010,-2.78082,0.98989,1.57080,0.00001,-0.14512,-0.38002,0.04311,,,,,,,,,,,,,,,,,,,,,,,,,,0,0,0,0,0
2.1899,1783189665.7460,1,1,2.0000,0.0000,1.44681,0.22008,-2.78082,0.98990,1.57080,0.00001,-0.14512,-0.38002,0.04311,,,,,,,,,,,,,,,,,,,,,,,,,,0,0,0,0,0
2.1966,1783189665.7527,1,1,2.0000,0.0000,1.44681,0.22000,-2.78084,0.99001,1.57080,0.00001,-0.14512,-0.38002,0.04309,,,,,,,,,,,,,,,,,,,,,,,,,,0,0,0,0,0
2.2070,1783189665.7631,1,1,2.0000,0.0000,1.44681,0.21980,-2.78089,0.99026,1.57080,0.00001,-0.14512,-0.38002,0.04304,,,,,,,,,,,,,,,,,,,,,,,,,,0,0,0,0,0
2.2177,1783189665.7738,1,1,2.0000,0.0000,1.44681,0.21973,-2.78091,0.99034,1.57080,0.00001,-0.14512,-0.38002,0.04302,,,,,,,,,,,,,,,,,,,,,,,,,,0,0,0,0,0
2.2270,1783189665.7831,1,1,2.0000,0.0000,1.44681,0.21964,-2.78093,0.99046,1.57080,0.00001,-0.14512,-0.38002,0.04299,,,,,,,,,,,,,,,,,,,,,,,,,,0,0,0,0,0
2.2274,1783189665.7834,1,1,2.0000,0.0000,1.44681,0.21964,-2.78093,0.99046,1.57080,0.00001,-0.14512,-0.38002,0.04299,,,,,,,,,,,,,,,,,,,,,,,,,,0,0,0,0,0
2.2389,1783189665.7950,1,1,2.0000,0.0000,1.44681,0.21944,-2.78098,0.99071,1.57080,0.00001,-0.14512,-0.38002,0.04294,,,,,,,,,,,,,,,,,,,,,,,,,,0,0,0,0,0
2.2554,1783189665.8115,1,1,2.0000,0.0000,1.44681,0.21934,-2.78101,0.99084,1.57080,0.00001,-0.14512,-0.38002,0.04292,,,,,,,,,,,,,,,,,,,,,,,,,,0,0,0,0,0
2.2583,1783189665.8143,1,1,2.0000,0.0000,1.44681,0.21934,-2.78101,0.99084,1.57080,0.00001,-0.14512,-0.38002,0.04292,,,,,,,,,,,,,,,,,,,,,,,,,,0,0,0,0,0
2.2590,1783189665.8151,1,1,2.0000,0.0000,1.44681,0.21930,-2.78102,0.99089,1.57080,0.00001,-0.14512,-0.38002,0.04291,,,,,,,,,,,,,,,,,,,,,,,,,,0,0,0,0,0
2.2686,1783189665.8247,1,1,2.0000,0.0000,1.44681,0.21920,-2.78104,0.99101,1.57080,0.00001,-0.14512,-0.38002,0.04288,,,,,,,,,,,,,,,,,,,,,,,,,,0,0,0,0,0
2.2692,1783189665.8252,1,1,2.0000,0.0000,1.44681,0.21920,-2.78104,0.99101,1.57080,0.00001,-0.14512,-0.38002,0.04288,,,,,,,,,,,,,,,,,,,,,,,,,,0,0,0,0,0
2.2766,1783189665.8327,1,1,2.0000,0.0000,1.44681,0.21914,-2.78106,0.99109,1.57080,0.00001,-0.14512,-0.38002,0.04286,,,,,,,,,,,,,,,,,,,,,,,,,,0,0,0,0,0
2.2931,1783189665.8492,1,1,2.0000,0.0000,1.44681,0.21897,-2.78110,0.99129,1.57080,0.00001,-0.14512,-0.38002,0.04282,,,,,,,,,,,,,,,,,,,,,,,,,,0,0,0,0,0
2.2966,1783189665.8527,1,1,2.0000,0.0000,1.44681,0.21890,-2.78111,0.99138,1.57080,0.00001,-0.14512,-0.38002,0.04280,,,,,,,,,,,,,,,,,,,,,,,,,,0,0,0,0,0
2.3068,1783189665.8629,1,1,2.0000,0.0000,1.44681,0.21876,-2.78115,0.99155,1.57080,0.00001,-0.14512,-0.38002,0.04277,,,,,,,,,,,,,,,,,,,,,,,,,,0,0,0,0,0
2.3193,1783189665.8754,1,1,2.0000,0.0000,1.44681,0.21869,-2.78117,0.99164,1.57080,0.00001,-0.14512,-0.38002,0.04275,,,,,,,,,,,,,,,,,,,,,,,,,,0,0,0,0,0
2.3270,1783189665.8831,1,1,2.0000,0.0000,1.44681,0.21859,-2.78119,0.99177,1.57080,0.00001,-0.14512,-0.38002,0.04272,,,,,,,,,,,,,,,,,,,,,,,,,,0,0,0,0,0
2.3374,1783189665.8935,1,1,2.0000,0.0000,1.44681,0.21853,-2.78121,0.99184,1.57080,0.00001,-0.14512,-0.38002,0.04271,,,,,,,,,,,,,,,,,,,,,,,,,,0,0,0,0,0
2.3526,1783189665.9087,1,1,2.0000,0.0000,1.44681,0.21837,-2.78125,0.99204,1.57080,0.00001,-0.14512,-0.38002,0.04267,,,,,,,,,,,,,,,,,,,,,,,,,,0,0,0,0,0
2.3608,1783189665.9169,1,1,2.0000,0.0000,1.44681,0.21823,-2.78128,0.99222,1.57080,0.00001,-0.14512,-0.38002,0.04263,,,,,,,,,,,,,,,,,,,,,,,,,,0,0,0,0,0
2.3676,1783189665.9237,1,1,2.0000,0.0000,1.44681,0.21816,-2.78130,0.99231,1.57080,0.00001,-0.14512,-0.38002,0.04261,,,,,,,,,,,,,,,,,,,,,,,,,,0,0,0,0,0
2.3768,1783189665.9328,1,1,2.0000,0.0000,1.44681,0.21812,-2.78131,0.99235,1.57080,0.00001,-0.14512,-0.38002,0.04261,,,,,,,,,,,,,,,,,,,,,,,,,,0,0,0,0,0
2.3962,1783189665.9523,1,1,2.0000,0.0000,1.44681,0.21793,-2.78136,0.99260,1.57080,0.00001,-0.14512,-0.38002,0.04255,,,,,,,,,,,,,,,,,,,,,,,,,,0,0,0,0,0
2.3966,1783189665.9527,1,1,2.0000,0.0000,1.44681,0.21793,-2.78136,0.99260,1.57080,0.00001,-0.14512,-0.38002,0.04255,,,,,,,,,,,,,,,,,,,,,,,,,,0,0,0,0,0
2.3969,1783189665.9530,1,1,2.0000,0.0000,1.44681,0.21793,-2.78136,0.99260,1.57080,0.00001,-0.14512,-0.38002,0.04255,,,,,,,,,,,,,,,,,,,,,,,,,,0,0,0,0,0
2.4071,1783189665.9632,1,1,2.0000,0.0000,1.44681,0.21783,-2.78138,0.99272,1.57080,0.00001,-0.14512,-0.38002,0.04253,,,,,,,,,,,,,,,,,,,,,,,,,,0,0,0,0,0
2.4075,1783189665.9636,1,1,2.0000,0.0000,1.44681,0.21783,-2.78138,0.99272,1.57080,0.00001,-0.14512,-0.38002,0.04253,,,,,,,,,,,,,,,,,,,,,,,,,,0,0,0,0,0
2.4179,1783189665.9740,1,1,2.0000,0.0000,1.44681,0.21769,-2.78141,0.99289,1.57080,0.00001,-0.14512,-0.38002,0.04249,,,,,,,,,,,,,,,,,,,,,,,,,,0,0,0,0,0
2.4270,1783189665.9831,1,1,2.0000,0.0000,1.44681,0.21755,-2.78145,0.99307,1.57080,0.00001,-0.14512,-0.38002,0.04246,,,,,,,,,,,,,,,,,,,,,,,,,,0,0,0,0,0
2.5320,1783189666.0881,1,1,2.0000,0.0000,1.44681,0.21655,-2.78170,0.99431,1.57080,0.00001,-0.14512,-0.38002,0.04220,,,,,,,,,,,,,,,,,,,,,,,,,,0,0,0,0,0
2.5324,1783189666.0885,1,1,2.0000,0.0000,1.44681,0.21655,-2.78170,0.99431,1.57080,0.00001,-0.14512,-0.38002,0.04220,,,,,,,,,,,,,,,,,,,,,,,,,,0,0,0,0,0
2.5327,1783189666.0888,1,1,2.0000,0.0000,1.44681,0.21655,-2.78170,0.99431,1.57080,0.00001,-0.14512,-0.38002,0.04220,,,,,,,,,,,,,,,,,,,,,,,,,,0,0,0,0,0
2.5330,1783189666.0891,1,1,2.0000,0.0000,1.44681,0.21655,-2.78170,0.99431,1.57080,0.00001,-0.14512,-0.38002,0.04220,,,,,,,,,,,,,,,,,,,,,,,,,,0,0,0,0,0
2.5332,1783189666.0893,1,1,2.0000,0.0000,1.44681,0.21655,-2.78170,0.99431,1.57080,0.00001,-0.14512,-0.38002,0.04220,,,,,,,,,,,,,,,,,,,,,,,,,,0,0,0,0,0
2.5335,1783189666.0896,1,1,2.0000,0.0000,1.44681,0.21655,-2.78170,0.99431,1.57080,0.00001,-0.14512,-0.38002,0.04220,,,,,,,,,,,,,,,,,,,,,,,,,,0,0,0,0,0
2.5338,1783189666.0899,1,1,2.0000,0.0000,1.44681,0.21655,-2.78170,0.99431,1.57080,0.00001,-0.14512,-0.38002,0.04220,,,,,,,,,,,,,,,,,,,,,,,,,,0,0,0,0,0
2.5411,1783189666.0972,1,1,2.0000,0.0000,1.44681,0.21641,-2.78173,0.99449,1.57080,0.00001,-0.14512,-0.38002,0.04217,,,,,,,,,,,,,,,,,,,,,,,,,,0,0,0,0,0
2.5413,1783189666.0974,1,1,2.0000,0.0000,1.44681,0.21641,-2.78173,0.99449,1.57080,0.00001,-0.14512,-0.38002,0.04217,,,,,,,,,,,,,,,,,,,,,,,,,,0,0,0,0,0
2.5438,1783189666.0999,1,1,2.0000,0.0000,1.44681,0.21634,-2.78175,0.99458,1.57080,0.00001,-0.14512,-0.38002,0.04215,,,,,,,,,,,,,,,,,,,,,,,,,,0,0,0,0,0
2.5441,1783189666.1002,1,1,2.0000,0.0000,1.44681,0.21634,-2.78175,0.99458,1.57080,0.00001,-0.14512,-0.38002,0.04215,,,,,,,,,,,,,,,,,,,,,,,,,,0,0,0,0,0
2.5477,1783189666.1038,1,1,2.0000,0.0000,1.44681,0.21634,-2.78175,0.99458,1.57080,0.00001,-0.14512,-0.38002,0.04215,,,,,,,,,,,,,,,,,,,,,,,,,,0,0,0,0,0
2.5481,1783189666.1041,1,1,2.0000,0.0000,1.44681,0.21634,-2.78175,0.99458,1.57080,0.00001,-0.14512,-0.38002,0.04215,,,,,,,,,,,,,,,,,,,,,,,,,,0,0,0,0,0
2.5608,1783189666.1169,1,1,2.0000,0.0000,1.44681,0.21627,-2.78177,0.99466,1.57080,0.00001,-0.14512,-0.38002,0.04213,,,,,,,,,,,,,,,,,,,,,,,,,,0,0,0,0,0
2.5682,1783189666.1243,1,1,2.0000,0.0000,1.44681,0.21616,-2.78179,0.99479,1.57080,0.00001,-0.14512,-0.38002,0.04210,,,,,,,,,,,,,,,,,,,,,,,,,,0,0,0,0,0
2.5765,1783189666.1326,1,1,2.0000,0.0000,1.44681,0.21610,-2.78181,0.99487,1.57080,0.00001,-0.14512,-0.38002,0.04209,,,,,,,,,,,,,,,,,,,,,,,,,,0,0,0,0,0
2.5869,1783189666.1429,1,1,2.0000,0.0000,1.44681,0.21601,-2.78183,0.99499,1.57080,0.00001,-0.14512,-0.38002,0.04206,,,,,,,,,,,,,,,,,,,,,,,,,,0,0,0,0,0
2.6015,1783189666.1575,1,1,2.0000,0.0000,1.44681,0.21580,-2.78188,0.99525,1.57080,0.00001,-0.14512,-0.38002,0.04201,,,,,,,,,,,,,,,,,,,,,,,,,,0,0,0,0,0
2.6070,1783189666.1630,1,1,2.0000,0.0000,1.44681,0.21573,-2.78190,0.99533,1.57080,0.00001,-0.14512,-0.38002,0.04199,,,,,,,,,,,,,,,,,,,,,,,,,,0,0,0,0,0
2.6178,1783189666.1739,1,1,2.0000,0.0000,1.44681,0.21570,-2.78191,0.99538,1.57080,0.00001,-0.14512,-0.38002,0.04198,,,,,,,,,,,,,,,,,,,,,,,,,,0,0,0,0,0
2.6268,1783189666.1829,1,1,2.0000,0.0000,1.44681,0.21556,-2.78194,0.99555,1.57080,0.00001,-0.14512,-0.38002,0.04195,,,,,,,,,,,,,,,,,,,,,,,,,,0,0,0,0,0
2.6631,1783189666.2192,1,1,2.0000,0.0000,1.44681,0.21512,-2.78205,0.99609,1.57080,0.00001,-0.14512,-0.38002,0.04184,,,,,,,,,,,,,,,,,,,,,,,,,,0,0,0,0,0
2.6639,1783189666.2200,1,1,2.0000,0.0000,1.44681,0.21512,-2.78205,0.99609,1.57080,0.00001,-0.14512,-0.38002,0.04184,,,,,,,,,,,,,,,,,,,,,,,,,,0,0,0,0,0
2.6643,1783189666.2204,1,1,2.0000,0.0000,1.44681,0.21512,-2.78205,0.99609,1.57080,0.00001,-0.14512,-0.38002,0.04184,,,,,,,,,,,,,,,,,,,,,,,,,,0,0,0,0,0
2.6671,1783189666.2232,1,1,2.0000,0.0000,1.44681,0.21512,-2.78205,0.99609,1.57080,0.00001,-0.14512,-0.38002,0.04184,,,,,,,,,,,,,,,,,,,,,,,,,,0,0,0,0,0
2.6782,1783189666.2343,1,1,2.0000,0.0000,1.44681,0.21508,-2.78206,0.99615,1.57080,0.00001,-0.14512,-0.38002,0.04183,,,,,,,,,,,,,,,,,,,,,,,,,,0,0,0,0,0
2.6791,1783189666.2351,1,1,2.0000,0.0000,1.44681,0.21503,-2.78207,0.99621,1.57080,0.00001,-0.14512,-0.38002,0.04181,,,,,,,,,,,,,,,,,,,,,,,,,,0,0,0,0,0
2.6880,1783189666.2441,1,1,2.0000,0.0000,1.44681,0.21489,-2.78210,0.99637,1.57080,0.00001,-0.14512,-0.38002,0.04178,,,,,,,,,,,,,,,,,,,,,,,,,,0,0,0,0,0
2.6885,1783189666.2446,1,1,2.0000,0.0000,1.44681,0.21489,-2.78210,0.99637,1.57080,0.00001,-0.14512,-0.38002,0.04178,,,,,,,,,,,,,,,,,,,,,,,,,,0,0,0,0,0
2.7042,1783189666.2602,1,1,2.0000,0.0000,1.44681,0.21478,-2.78213,0.99652,1.57080,0.00001,-0.14512,-0.38002,0.04175,,,,,,,,,,,,,,,,,,,,,,,,,,0,0,0,0,0
2.7068,1783189666.2629,1,1,2.0000,0.0000,1.44681,0.21473,-2.78214,0.99658,1.57080,0.00001,-0.14512,-0.38002,0.04174,,,,,,,,,,,,,,,,,,,,,,,,,,0,0,0,0,0
2.7179,1783189666.2740,1,1,2.0000,0.0000,1.44681,0.21460,-2.78217,0.99674,1.57080,0.00001,-0.14512,-0.38002,0.04170,,,,,,,,,,,,,,,,,,,,,,,,,,0,0,0,0,0
2.7182,1783189666.2743,1,1,2.0000,0.0000,1.44681,0.21460,-2.78217,0.99674,1.57080,0.00001,-0.14512,-0.38002,0.04170,,,,,,,,,,,,,,,,,,,,,,,,,,0,0,0,0,0
2.7287,1783189666.2848,1,1,2.0000,0.0000,1.44681,0.21446,-2.78221,0.99692,1.57080,0.00002,-0.14512,-0.38002,0.04167,,,,,,,,,,,,,,,,,,,,,,,,,,0,0,0,0,0
2.7379,1783189666.2940,1,1,2.0000,0.0000,1.44681,0.21441,-2.78222,0.99697,1.57080,0.00002,-0.14512,-0.38002,0.04166,,,,,,,,,,,,,,,,,,,,,,,,,,0,0,0,0,0
2.7472,1783189666.3033,1,1,2.0000,0.0000,1.44681,0.21423,-2.78226,0.99720,1.57080,0.00002,-0.14512,-0.38002,0.04161,,,,,,,,,,,,,,,,,,,,,,,,,,0,0,0,0,0
2.7475,1783189666.3036,1,1,2.0000,0.0000,1.44681,0.21423,-2.78226,0.99720,1.57080,0.00002,-0.14512,-0.38002,0.04161,,,,,,,,,,,,,,,,,,,,,,,,,,0,0,0,0,0
2.7568,1783189666.3128,1,1,2.0000,0.0000,1.44681,0.21409,-2.78230,0.99738,1.57080,0.00002,-0.14512,-0.38002,0.04158,,,,,,,,,,,,,,,,,,,,,,,,,,0,0,0,0,0
2.7674,1783189666.3235,1,1,2.0000,0.0000,1.44681,0.21406,-2.78231,0.99742,1.57080,0.00002,-0.14512,-0.38002,0.04157,,,,,,,,,,,,,,,,,,,,,,,,,,0,0,0,0,0
2.7764,1783189666.3325,1,1,2.0000,0.0000,1.44681,0.21397,-2.78233,0.99752,1.57080,0.00002,-0.14512,-0.38002,0.04155,,,,,,,,,,,,,,,,,,,,,,,,,,0,0,0,0,0
2.7869,1783189666.3430,1,1,2.0000,0.0000,1.44681,0.21386,-2.78236,0.99767,1.57080,0.00002,-0.14512,-0.38002,0.04152,,,,,,,,,,,,,,,,,,,,,,,,,,0,0,0,0,0
2.7873,1783189666.3434,1,1,2.0000,0.0000,1.44681,0.21386,-2.78236,0.99767,1.57080,0.00002,-0.14512,-0.38002,0.04152,,,,,,,,,,,,,,,,,,,,,,,,,,0,0,0,0,0
2.8062,1783189666.3623,1,1,2.0000,0.0000,1.44681,0.21369,-2.78240,0.99787,1.57080,0.00002,-0.14512,-0.38002,0.04147,,,,,,,,,,,,,,,,,,,,,,,,,,0,0,0,0,0
2.8071,1783189666.3632,1,1,2.0000,0.0000,1.44681,0.21362,-2.78241,0.99796,1.57080,0.00002,-0.14512,-0.38002,0.04146,,,,,,,,,,,,,,,,,,,,,,,,,,0,0,0,0,0
2.8074,1783189666.3635,1,1,2.0000,0.0000,1.44681,0.21362,-2.78241,0.99796,1.57080,0.00002,-0.14512,-0.38002,0.04146,,,,,,,,,,,,,,,,,,,,,,,,,,0,0,0,0,0
2.8168,1783189666.3729,1,1,2.0000,0.0000,1.44681,0.21348,-2.78245,0.99814,1.57080,0.00002,-0.14512,-0.38002,0.04142,,,,,,,,,,,,,,,,,,,,,,,,,,0,0,0,0,0
2.8277,1783189666.3838,1,1,2.0000,0.0000,1.44681,0.21345,-2.78246,0.99818,1.57080,0.00002,-0.14512,-0.38002,0.04141,,,,,,,,,,,,,,,,,,,,,,,,,,0,0,0,0,0
2.8391,1783189666.3951,1,1,2.0000,0.0000,1.44681,0.21331,-2.78249,0.99835,1.57080,0.00002,-0.14512,-0.38002,0.04138,,,,,,,,,,,,,,,,,,,,,,,,,,0,0,0,0,0
2.8490,1783189666.4051,1,1,2.0000,0.0000,1.44681,0.21325,-2.78250,0.99842,1.57080,0.00002,-0.14512,-0.38002,0.04136,,,,,,,,,,,,,,,,,,,,,,,,,,0,0,0,0,0
2.8569,1783189666.4129,1,1,2.0000,0.0000,1.44681,0.21320,-2.78252,0.99848,1.57080,0.00002,-0.14512,-0.38002,0.04135,,,,,,,,,,,,,,,,,,,,,,,,,,0,0,0,0,0
2.8692,1783189666.4253,1,1,2.0000,0.0000,1.44681,0.21301,-2.78256,0.99872,1.57080,0.00002,-0.14512,-0.38002,0.04130,,,,,,,,,,,,,,,,,,,,,,,,,,0,0,0,0,0
2.8778,1783189666.4338,1,1,2.0000,0.0000,1.44681,0.21287,-2.78260,0.99889,1.57080,0.00002,-0.14512,-0.38002,0.04127,,,,,,,,,,,,,,,,,,,,,,,,,,0,0,0,0,0
2.8862,1783189666.4423,1,1,2.0000,0.0000,1.44681,0.21286,-2.78260,0.99890,1.57080,0.00002,-0.14512,-0.38002,0.04126,,,,,,,,,,,,,,,,,,,,,,,,,,0,0,0,0,0
2.8868,1783189666.4428,1,1,2.0000,0.0000,1.44681,0.21284,-2.78260,0.99893,1.57080,0.00002,-0.14512,-0.38002,0.04126,,,,,,,,,,,,,,,,,,,,,,,,,,0,0,0,0,0
2.9111,1783189666.4672,1,1,2.0000,0.0000,1.44681,0.21262,-2.78266,0.99920,1.57080,0.00002,-0.14512,-0.38002,0.04120,,,,,,,,,,,,,,,,,,,,,,,,,,0,0,0,0,0
2.9114,1783189666.4675,1,1,2.0000,0.0000,1.44681,0.21262,-2.78266,0.99920,1.57080,0.00002,-0.14512,-0.38002,0.04120,,,,,,,,,,,,,,,,,,,,,,,,,,0,0,0,0,0
2.9117,1783189666.4678,1,1,2.0000,0.0000,1.44681,0.21262,-2.78266,0.99920,1.57080,0.00002,-0.14512,-0.38002,0.04120,,,,,,,,,,,,,,,,,,,,,,,,,,0,0,0,0,0
2.9206,1783189666.4767,1,1,2.0000,0.0000,1.44681,0.21254,-2.78268,0.99931,1.57080,0.00002,-0.14512,-0.38002,0.04118,,,,,,,,,,,,,,,,,,,,,,,,,,0,0,0,0,0
2.9279,1783189666.4840,1,1,2.0000,0.0000,1.44681,0.21240,-2.78271,0.99947,1.57080,0.00002,-0.14512,-0.38002,0.04115,,,,,,,,,,,,,,,,,,,,,,,,,,0,0,0,0,0
2.9366,1783189666.4927,1,1,2.0000,0.0000,1.44681,0.21226,-2.78274,0.99965,1.57080,0.00002,-0.14512,-0.38002,0.04111,,,,,,,,,,,,,,,,,,,,,,,,,,0,0,0,0,0
2.9511,1783189666.5072,1,1,2.0000,0.0000,1.44681,0.21219,-2.78276,0.99974,1.57080,0.00002,-0.14512,-0.38002,0.04109,,,,,,,,,,,,,,,,,,,,,,,,,,0,0,0,0,0
2.9571,1783189666.5132,1,1,2.0000,0.0000,1.44681,0.21214,-2.78277,0.99980,1.57080,0.00002,-0.14512,-0.38002,0.04108,,,,,,,,,,,,,,,,,,,,,,,,,,0,0,0,0,0
2.9577,1783189666.5138,1,1,2.0000,0.0000,1.44681,0.21214,-2.78277,0.99980,1.57080,0.00002,-0.14512,-0.38002,0.04108,,,,,,,,,,,,,,,,,,,,,,,,,,0,0,0,0,0
2.9698,1783189666.5259,1,1,2.0000,0.0000,1.44681,0.21202,-2.78280,0.99994,1.57080,0.00002,-0.14512,-0.38002,0.04105,,,,,,,,,,,,,,,,,,,,,,,,,,0,0,0,0,0
2.9803,1783189666.5364,1,1,2.0000,0.0000,1.44681,0.21192,-2.78283,1.00007,1.57080,0.00002,-0.14512,-0.38002,0.04103,,,,,,,,,,,,,,,,,,,,,,,,,,0,0,0,0,0
2.9878,1783189666.5439,1,1,2.0000,0.0000,1.44681,0.21179,-2.78286,1.00023,1.57080,0.00002,-0.14512,-0.38002,0.04099,,,,,,,,,,,,,,,,,,,,,,,,,,0,0,0,0,0
3.0109,1783189666.5670,1,1,2.0000,0.0000,1.44681,0.21158,-2.78291,1.00050,1.57080,0.00002,-0.14512,-0.38002,0.04094,,,,,,,,,,,,,,,,,,,,,,,,,,0,0,0,0,0
3.0120,1783189666.5681,1,1,2.0000,0.0000,1.44681,0.21158,-2.78291,1.00050,1.57080,0.00002,-0.14512,-0.38002,0.04094,,,,,,,,,,,,,,,,,,,,,,,,,,0,0,0,0,0
3.0123,1783189666.5684,1,1,2.0000,0.0000,1.44681,0.21158,-2.78291,1.00050,1.57080,0.00002,-0.14512,-0.38002,0.04094,,,,,,,,,,,,,,,,,,,,,,,,,,0,0,0,0,0
3.0189,1783189666.5750,1,1,2.0000,0.0000,1.44681,0.21147,-2.78294,1.00063,1.57080,0.00002,-0.14512,-0.38002,0.04091,,,,,,,,,,,,,,,,,,,,,,,,,,0,0,0,0,0
3.0192,1783189666.5752,1,1,2.0000,0.0000,1.44681,0.21147,-2.78294,1.00063,1.57080,0.00002,-0.14512,-0.38002,0.04091,,,,,,,,,,,,,,,,,,,,,,,,,,0,0,0,0,0
3.0283,1783189666.5844,1,1,2.0000,0.0000,1.44681,0.21141,-2.78295,1.00070,1.57080,0.00002,-0.14512,-0.38002,0.04090,,,,,,,,,,,,,,,,,,,,,,,,,,0,0,0,0,0
3.0366,1783189666.5927,1,1,2.0000,0.0000,1.44681,0.21137,-2.78296,1.00076,1.57080,0.00002,-0.14512,-0.38002,0.04088,,,,,,,,,,,,,,,,,,,,,,,,,,0,0,0,0,0
3.0370,1783189666.5931,1,1,2.0000,0.0000,1.44681,0.21137,-2.78296,1.00076,1.57080,0.00002,-0.14512,-0.38002,0.04088,,,,,,,,,,,,,,,,,,,,,,,,,,0,0,0,0,0
3.0583,1783189666.6143,1,1,2.0000,0.0000,1.44681,0.21103,-2.78304,1.00117,1.57080,0.00002,-0.14512,-0.38002,0.04080,,,,,,,,,,,,,,,,,,,,,,,,,,0,0,0,0,0
3.0593,1783189666.6154,1,1,2.0000,0.0000,1.44681,0.21103,-2.78304,1.00117,1.57080,0.00002,-0.14512,-0.38002,0.04080,,,,,,,,,,,,,,,,,,,,,,,,,,0,0,0,0,0
3.0598,1783189666.6159,1,1,2.0000,0.0000,1.44681,0.21103,-2.78304,1.00117,1.57080,0.00002,-0.14512,-0.38002,0.04080,,,,,,,,,,,,,,,,,,,,,,,,,,0,0,0,0,0
3.0693,1783189666.6253,1,1,2.0000,0.0000,1.44681,0.21100,-2.78305,1.00121,1.57080,0.00002,-0.14512,-0.38002,0.04079,,,,,,,,,,,,,,,,,,,,,,,,,,0,0,0,0,0
3.0767,1783189666.6328,1,1,2.0000,0.0000,1.44681,0.21092,-2.78307,1.00132,1.57080,0.00002,-0.14512,-0.38002,0.04077,,,,,,,,,,,,,,,,,,,,,,,,,,0,0,0,0,0
3.0882,1783189666.6443,1,1,2.0000,0.0000,1.44681,0.21080,-2.78310,1.00146,1.57080,0.00002,-0.14512,-0.38002,0.04074,,,,,,,,,,,,,,,,,,,,,,,,,,0,0,0,0,0
3.0967,1783189666.6528,1,1,2.0000,0.0000,1.44681,0.21075,-2.78311,1.00152,1.57080,0.00002,-0.14512,-0.38002,0.04073,,,,,,,,,,,,,,,,,,,,,,,,,,0,0,0,0,0
3.1143,1783189666.6704,1,1,2.0000,0.0000,1.44681,0.21049,-2.78317,1.00185,1.57080,0.00002,-0.14512,-0.38002,0.04066,,,,,,,,,,,,,,,,,,,,,,,,,,0,0,0,0,0
3.1167,1783189666.6728,1,1,2.0000,0.0000,1.44681,0.21042,-2.78319,1.00193,1.57080,0.00002,-0.14512,-0.38002,0.04064,,,,,,,,,,,,,,,,,,,,,,,,,,0,0,0,0,0
3.1312,1783189666.6873,1,1,2.0000,0.0000,1.44681,0.21035,-2.78321,1.00202,1.57080,0.00002,-0.14512,-0.38002,0.04063,,,,,,,,,,,,,,,,,,,,,,,,,,0,0,0,0,0
3.1375,1783189666.6936,1,1,2.0000,0.0000,1.44681,0.21030,-2.78322,1.00208,1.57080,0.00002,-0.14512,-0.38002,0.04061,,,,,,,,,,,,,,,,,,,,,,,,,,0,0,0,0,0
3.1380,1783189666.6941,1,1,2.0000,0.0000,1.44681,0.21030,-2.78322,1.00208,1.57080,0.00002,-0.14512,-0.38002,0.04061,,,,,,,,,,,,,,,,,,,,,,,,,,0,0,0,0,0
3.1617,1783189666.7178,1,1,2.0000,0.0000,1.44681,0.21009,-2.78327,1.00235,1.57080,0.00002,-0.14512,-0.38002,0.04056,,,,,,,,,,,,,,,,,,,,,,,,,,0,0,0,0,0
3.1739,1783189666.7300,1,1,2.0000,0.0000,1.44681,0.20988,-2.78332,1.00261,1.57080,0.00002,-0.14512,-0.38002,0.04051,,,,,,,,,,,,,,,,,,,,,,,,,,0,0,0,0,0
3.1743,1783189666.7304,1,1,2.0000,0.0000,1.44681,0.20988,-2.78332,1.00261,1.57080,0.00002,-0.14512,-0.38002,0.04051,,,,,,,,,,,,,,,,,,,,,,,,,,0,0,0,0,0
3.1750,1783189666.7311,1,1,2.0000,0.0000,1.44681,0.20981,-2.78334,1.00269,1.57080,0.00002,-0.14512,-0.38002,0.04049,,,,,,,,,,,,,,,,,,,,,,,,,,0,0,0,0,0
3.1832,1783189666.7393,1,1,2.0000,0.0000,1.44680,0.20980,-2.78334,1.00270,1.57080,0.00002,-0.14512,-0.38002,0.04049,,,,,,,,,,,,,,,,,,,,,,,,,,0,0,0,0,0
3.1965,1783189666.7526,1,1,2.0000,0.0000,1.44680,0.20969,-2.78337,1.00284,1.57080,0.00002,-0.14512,-0.38002,0.04046,,,,,,,,,,,,,,,,,,,,,,,,,,0,0,0,0,0
3.1968,1783189666.7529,1,1,2.0000,0.0000,1.44680,0.20969,-2.78337,1.00284,1.57080,0.00002,-0.14512,-0.38002,0.04046,,,,,,,,,,,,,,,,,,,,,,,,,,0,0,0,0,0
3.1971,1783189666.7532,1,1,2.0000,0.0000,1.44680,0.20969,-2.78337,1.00284,1.57080,0.00002,-0.14512,-0.38002,0.04046,,,,,,,,,,,,,,,,,,,,,,,,,,0,0,0,0,0
3.2162,1783189666.7723,1,1,2.0000,0.0000,1.44680,0.20953,-2.78341,1.00304,1.57079,0.00002,-0.14512,-0.38002,0.04042,,,,,,,,,,,,,,,,,,,,,,,,,,0,0,0,0,0
3.2165,1783189666.7726,1,1,2.0000,0.0000,1.44680,0.20953,-2.78341,1.00304,1.57079,0.00002,-0.14512,-0.38002,0.04042,,,,,,,,,,,,,,,,,,,,,,,,,,0,0,0,0,0
3.2167,1783189666.7728,1,1,2.0000,0.0000,1.44680,0.20953,-2.78341,1.00304,1.57079,0.00002,-0.14512,-0.38002,0.04042,,,,,,,,,,,,,,,,,,,,,,,,,,0,0,0,0,0
3.2170,1783189666.7731,1,1,2.0000,0.0000,1.44680,0.20953,-2.78341,1.00304,1.57079,0.00002,-0.14512,-0.38002,0.04042,,,,,,,,,,,,,,,,,,,,,,,,,,0,0,0,0,0
3.2271,1783189666.7832,1,1,2.0000,0.0000,1.44680,0.20934,-2.78345,1.00328,1.57079,0.00002,-0.14512,-0.38002,0.04037,,,,,,,,,,,,,,,,,,,,,,,,,,0,0,0,0,0
3.2367,1783189666.7928,1,1,2.0000,0.0000,1.44680,0.20920,-2.78349,1.00345,1.57079,0.00002,-0.14512,-0.38002,0.04033,,,,,,,,,,,,,,,,,,,,,,,,,,0,0,0,0,0
3.2370,1783189666.7931,1,1,2.0000,0.0000,1.44680,0.20920,-2.78349,1.00345,1.57079,0.00002,-0.14512,-0.38002,0.04033,,,,,,,,,,,,,,,,,,,,,,,,,,0,0,0,0,0
3.2472,1783189666.8033,1,1,2.0000,0.0000,1.44680,0.20915,-2.78350,1.00351,1.57079,0.00002,-0.14512,-0.38002,0.04032,,,,,,,,,,,,,,,,,,,,,,,,,,0,0,0,0,0
3.2643,1783189666.8204,1,1,2.0000,0.0000,1.44680,0.20890,-2.78356,1.00383,1.57079,0.00002,-0.14512,-0.38002,0.04026,,,,,,,,,,,,,,,,,,,,,,,,,,0,0,0,0,0
3.2741,1783189666.8302,1,1,2.0000,0.0000,1.44680,0.20888,-2.78356,1.00384,1.57079,0.00002,-0.14512,-0.38002,0.04026,,,,,,,,,,,,,,,,,,,,,,,,,,0,0,0,0,0
3.2859,1783189666.8420,1,1,2.0000,0.0000,1.44680,0.20874,-2.78360,1.00402,1.57079,0.00002,-0.14512,-0.38002,0.04022,,,,,,,,,,,,,,,,,,,,,,,,,,0,0,0,0,0
3.2940,1783189666.8501,1,1,2.0000,0.0000,1.44680,0.20860,-2.78363,1.00420,1.57079,0.00002,-0.14512,-0.38002,0.04018,,,,,,,,,,,,,,,,,,,,,,,,,,0,0,0,0,0
3.3008,1783189666.8569,1,1,2.0000,0.0000,1.44680,0.20853,-2.78365,1.00428,1.57079,0.00002,-0.14512,-0.38002,0.04017,,,,,,,,,,,,,,,,,,,,,,,,,,0,0,0,0,0
3.3210,1783189666.8771,1,1,2.0000,0.0000,1.44680,0.20830,-2.78370,1.00457,1.57079,0.00002,-0.14512,-0.38002,0.04011,,,,,,,,,,,,,,,,,,,,,,,,,,0,0,0,0,0
3.3214,1783189666.8775,1,1,2.0000,0.0000,1.44680,0.20830,-2.78370,1.00457,1.57079,0.00002,-0.14512,-0.38002,0.04011,,,,,,,,,,,,,,,,,,,,,,,,,,0,0,0,0,0
3.3323,1783189666.8884,1,1,2.0000,0.0000,1.44680,0.20821,-2.78372,1.00467,1.57079,0.00002,-0.14512,-0.38002,0.04009,,,,,,,,,,,,,,,,,,,,,,,,,,0,0,0,0,0
3.3431,1783189666.8992,1,1,2.0000,0.0000,1.44680,0.20807,-2.78376,1.00485,1.57079,0.00002,-0.14512,-0.38002,0.04005,,,,,,,,,,,,,,,,,,,,,,,,,,0,0,0,0,0
3.3533,1783189666.9094,1,1,2.0000,0.0000,1.44680,0.20793,-2.78379,1.00503,1.57079,0.00002,-0.14512,-0.38002,0.04001,,,,,,,,,,,,,,,,,,,,,,,,,,0,0,0,0,0
3.3631,1783189666.9192,1,1,2.0000,0.0000,1.44680,0.20784,-2.78381,1.00513,1.57079,0.00002,-0.14512,-0.38002,0.03999,,,,,,,,,,,,,,,,,,,,,,,,,,0,0,0,0,0
3.3823,1783189666.9383,1,1,2.0000,0.0000,1.44680,0.20763,-2.78386,1.00540,1.57079,0.00002,-0.14512,-0.38002,0.03994,,,,,,,,,,,,,,,,,,,,,,,,,,0,0,0,0,0
3.3831,1783189666.9392,1,1,2.0000,0.0000,1.44680,0.20756,-2.78388,1.00549,1.57079,0.00002,-0.14512,-0.38002,0.03992,,,,,,,,,,,,,,,,,,,,,,,,,,0,0,0,0,0
3.3912,1783189666.9473,1,1,2.0000,0.0000,1.44680,0.20754,-2.78388,1.00550,1.57079,0.00002,-0.14512,-0.38002,0.03992,,,,,,,,,,,,,,,,,,,,,,,,,,0,0,0,0,0
3.4004,1783189666.9565,1,1,2.0000,0.0000,1.44680,0.20746,-2.78390,1.00561,1.57079,0.00002,-0.14512,-0.38002,0.03990,,,,,,,,,,,,,,,,,,,,,,,,,,0,0,0,0,0
3.4264,1783189666.9825,1,1,2.0000,0.0000,1.44680,0.20717,-2.78397,1.00596,1.57079,0.00002,-0.14512,-0.38002,0.03982,,,,,,,,,,,,,,,,,,,,,,,,,,0,0,0,0,0
3.4269,1783189666.9830,1,1,2.0000,0.0000,1.44680,0.20714,-2.78398,1.00600,1.57079,0.00002,-0.14512,-0.38002,0.03982,,,,,,,,,,,,,,,,,,,,,,,,,,0,0,0,0,0
3.4305,1783189666.9866,1,1,2.0000,0.0000,1.44680,0.20714,-2.78398,1.00600,1.57079,0.00002,-0.14512,-0.38002,0.03982,,,,,,,,,,,,,,,,,,,,,,,,,,0,0,0,0,0
3.4410,1783189666.9971,1,1,2.0000,0.0000,1.44680,0.20696,-2.78402,1.00623,1.57079,0.00002,-0.14512,-0.38002,0.03977,,,,,,,,,,,,,,,,,,,,,,,,,,0,0,0,0,0
3.4513,1783189667.0074,1,1,2.0000,0.0000,1.44680,0.20687,-2.78404,1.00633,1.57079,0.00002,-0.14512,-0.38002,0.03975,,,,,,,,,,,,,,,,,,,,,,,,,,0,0,0,0,0
3.4634,1783189667.0195,1,1,2.0000,0.0000,1.44680,0.20673,-2.78408,1.00652,1.57079,0.00002,-0.14512,-0.38002,0.03971,,,,,,,,,,,,,,,,,,,,,,,,,,0,0,0,0,0
3.4717,1783189667.0278,1,1,2.0000,0.0000,1.44680,0.20658,-2.78411,1.00669,1.57079,0.00002,-0.14512,-0.38002,0.03968,,,,,,,,,,,,,,,,,,,,,,,,,,0,0,0,0,0
3.4803,1783189667.0364,1,1,2.0000,0.0000,1.44680,0.20651,-2.78413,1.00678,1.57079,0.00002,-0.14512,-0.38002,0.03966,,,,,,,,,,,,,,,,,,,,,,,,,,0,0,0,0,0
3.4806,1783189667.0367,1,1,2.0000,0.0000,1.44680,0.20651,-2.78413,1.00678,1.57079,0.00002,-0.14512,-0.38002,0.03966,,,,,,,,,,,,,,,,,,,,,,,,,,0,0,0,0,0
3.4922,1783189667.0483,1,1,2.0000,0.0000,1.44680,0.20642,-2.78415,1.00690,1.57079,0.00002,-0.14512,-0.38002,0.03963,,,,,,,,,,,,,,,,,,,,,,,,,,0,0,0,0,0
3.5005,1783189667.0566,1,1,2.0000,0.0000,1.44680,0.20628,-2.78418,1.00706,1.57079,0.00002,-0.14512,-0.38002,0.03960,,,,,,,,,,,,,,,,,,,,,,,,,,0,0,0,0,0
3.5248,1783189667.0809,1,1,2.0000,0.0000,1.44680,0.20607,-2.78423,1.00733,1.57079,0.00002,-0.14512,-0.38002,0.03955,,,,,,,,,,,,,,,,,,,,,,,,,,0,0,0,0,0
3.5251,1783189667.0811,1,1,2.0000,0.0000,1.44680,0.20607,-2.78423,1.00733,1.57079,0.00002,-0.14512,-0.38002,0.03955,,,,,,,,,,,,,,,,,,,,,,,,,,0,0,0,0,0
3.5305,1783189667.0865,1,1,2.0000,0.0000,1.44680,0.20602,-2.78424,1.00739,1.57079,0.00002,-0.14512,-0.38002,0.03953,,,,,,,,,,,,,,,,,,,,,,,,,,0,0,0,0,0
3.5310,1783189667.0871,1,1,2.0000,0.0000,1.44680,0.20597,-2.78426,1.00746,1.57079,0.00002,-0.14512,-0.38002,0.03952,,,,,,,,,,,,,,,,,,,,,,,,,,0,0,0,0,0
3.5411,1783189667.0971,1,1,2.0000,0.0000,1.44680,0.20591,-2.78427,1.00753,1.57079,0.00002,-0.14512,-0.38002,0.03951,,,,,,,,,,,,,,,,,,,,,,,,,,0,0,0,0,0
3.5518,1783189667.1079,1,1,2.0000,0.0000,1.44680,0.20580,-2.78430,1.00766,1.57079,0.00002,-0.14512,-0.38002,0.03948,,,,,,,,,,,,,,,,,,,,,,,,,,0,0,0,0,0
3.5659,1783189667.1220,1,1,2.0000,0.0000,1.44680,0.20559,-2.78435,1.00792,1.57079,0.00002,-0.14512,-0.38002,0.03943,,,,,,,,,,,,,,,,,,,,,,,,,,0,0,0,0,0
3.5717,1783189667.1278,1,1,2.0000,0.0000,1.44680,0.20552,-2.78436,1.00800,1.57079,0.00002,-0.14512,-0.38002,0.03941,,,,,,,,,,,,,,,,,,,,,,,,,,0,0,0,0,0
3.5813,1783189667.1374,1,1,2.0000,0.0000,1.44680,0.20549,-2.78437,1.00804,1.57079,0.00002,-0.14512,-0.38002,0.03940,,,,,,,,,,,,,,,,,,,,,,,,,,0,0,0,0,0
3.5940,1783189667.1501,1,1,2.0000,0.0000,1.44680,0.20535,-2.78441,1.00822,1.57079,0.00002,-0.14512,-0.38002,0.03937,,,,,,,,,,,,,,,,,,,,,,,,,,0,0,0,0,0
3.6049,1783189667.1610,1,1,2.0000,0.0000,1.44680,0.20528,-2.78442,1.00831,1.57079,0.00002,-0.14512,-0.38002,0.03935,,,,,,,,,,,,,,,,,,,,,,,,,,0,0,0,0,0
3.6123,1783189667.1684,1,1,2.0000,0.0000,1.44680,0.20519,-2.78444,1.00842,1.57079,0.00002,-0.14512,-0.38002,0.03933,,,,,,,,,,,,,,,,,,,,,,,,,,0,0,0,0,0
3.6257,1783189667.1818,1,1,2.0000,0.0000,1.44680,0.20498,-2.78449,1.00868,1.57079,0.00002,-0.14512,-0.38002,0.03927,,,,,,,,,,,,,,,,,,,,,,,,,,0,0,0,0,0
3.6306,1783189667.1866,1,1,2.0000,0.0000,1.44680,0.20491,-2.78451,1.00877,1.57079,0.00002,-0.14512,-0.38002,0.03925,,,,,,,,,,,,,,,,,,,,,,,,,,0,0,0,0,0
3.6454,1783189667.2015,1,1,2.0000,0.0000,1.44680,0.20484,-2.78453,1.00886,1.57079,0.00002,-0.14512,-0.38002,0.03924,,,,,,,,,,,,,,,,,,,,,,,,,,0,0,0,0,0
3.6524,1783189667.2085,1,1,2.0000,0.0000,1.44680,0.20473,-2.78455,1.00898,1.57079,0.00002,-0.14512,-0.38002,0.03921,,,,,,,,,,,,,,,,,,,,,,,,,,0,0,0,0,0
3.6623,1783189667.2184,1,1,2.0000,0.0000,1.44680,0.20467,-2.78457,1.00906,1.57079,0.00002,-0.14512,-0.38002,0.03920,,,,,,,,,,,,,,,,,,,,,,,,,,0,0,0,0,0
3.6742,1783189667.2303,1,1,2.0000,0.0000,1.44680,0.20457,-2.78459,1.00918,1.57079,0.00002,-0.14512,-0.38002,0.03917,,,,,,,,,,,,,,,,,,,,,,,,,,0,0,0,0,0
3.6820,1783189667.2381,1,1,2.0000,0.0000,1.44680,0.20443,-2.78462,1.00935,1.57079,0.00002,-0.14512,-0.38002,0.03914,,,,,,,,,,,,,,,,,,,,,,,,,,0,0,0,0,0
3.6909,1783189667.2470,1,1,2.0000,0.0000,1.44680,0.20429,-2.78466,1.00953,1.57079,0.00002,-0.14512,-0.38002,0.03910,,,,,,,,,,,,,,,,,,,,,,,,,,0,0,0,0,0
3.7030,1783189667.2591,1,1,2.0000,0.0000,1.44680,0.20422,-2.78467,1.00962,1.57079,0.00002,-0.14512,-0.38002,0.03908,,,,,,,,,,,,,,,,,,,,,,,,,,0,0,0,0,0
3.7128,1783189667.2689,1,1,2.0000,0.0000,1.44680,0.20411,-2.78470,1.00975,1.57079,0.00002,-0.14512,-0.38002,0.03906,,,,,,,,,,,,,,,,,,,,,,,,,,0,0,0,0,0
3.7131,1783189667.2692,1,1,2.0000,0.0000,1.44680,0.20411,-2.78470,1.00975,1.57079,0.00002,-0.14512,-0.38002,0.03906,,,,,,,,,,,,,,,,,,,,,,,,,,0,0,0,0,0
3.7277,1783189667.2837,1,1,2.0000,0.0000,1.44680,0.20401,-2.78472,1.00988,1.57079,0.00002,-0.14512,-0.38002,0.03903,,,,,,,,,,,,,,,,,,,,,,,,,,0,0,0,0,0
3.7321,1783189667.2882,1,1,2.0000,0.0000,1.44680,0.20395,-2.78474,1.00995,1.57079,0.00002,-0.14512,-0.38002,0.03902,,,,,,,,,,,,,,,,,,,,,,,,,,0,0,0,0,0
3.7405,1783189667.2966,1,1,2.0000,0.0000,1.44680,0.20382,-2.78477,1.01012,1.57079,0.00002,-0.14512,-0.38002,0.03898,,,,,,,,,,,,,,,,,,,,,,,,,,0,0,0,0,0
3.7538,1783189667.3098,1,1,2.0000,0.0000,1.44680,0.20367,-2.78480,1.01030,1.57079,0.00002,-0.14512,-0.38002,0.03894,,,,,,,,,,,,,,,,,,,,,,,,,,0,0,0,0,0
3.7734,1783189667.3295,1,1,2.0000,0.0000,1.44680,0.20350,-2.78484,1.01051,1.57079,0.00002,-0.14512,-0.38002,0.03890,,,,,,,,,,,,,,,,,,,,,,,,,,0,0,0,0,0
3.7739,1783189667.3300,1,1,2.0000,0.0000,1.44680,0.20350,-2.78484,1.01051,1.57079,0.00002,-0.14512,-0.38002,0.03890,,,,,,,,,,,,,,,,,,,,,,,,,,0,0,0,0,0
3.7771,1783189667.3332,1,1,2.0000,0.0000,1.44680,0.20343,-2.78486,1.01059,1.57079,0.00002,-0.14512,-0.38002,0.03889,,,,,,,,,,,,,,,,,,,,,,,,,,0,0,0,0,0
3.7807,1783189667.3367,1,1,2.0000,0.0000,1.44680,0.20343,-2.78486,1.01059,1.57079,0.00002,-0.14512,-0.38002,0.03889,,,,,,,,,,,,,,,,,,,,,,,,,,0,0,0,0,0
3.7906,1783189667.3466,1,1,2.0000,0.0000,1.44680,0.20339,-2.78487,1.01065,1.57079,0.00002,-0.14512,-0.38002,0.03887,,,,,,,,,,,,,,,,,,,,,,,,,,0,0,0,0,0
3.8052,1783189667.3613,1,1,2.0000,0.0000,1.44680,0.20312,-2.78493,1.01097,1.57079,0.00002,-0.14512,-0.38002,0.03881,,,,,,,,,,,,,,,,,,,,,,,,,,0,0,0,0,0
3.8123,1783189667.3684,1,1,2.0000,0.0000,1.44680,0.20305,-2.78495,1.01106,1.57079,0.00002,-0.14512,-0.38002,0.03879,,,,,,,,,,,,,,,,,,,,,,,,,,0,0,0,0,0
3.8301,1783189667.3862,1,1,2.0000,0.0000,1.44680,0.20293,-2.78498,1.01121,1.57079,0.00002,-0.14512,-0.38001,0.03876,,,,,,,,,,,,,,,,,,,,,,,,,,0,0,0,0,0
3.8304,1783189667.3865,1,1,2.0000,0.0000,1.44680,0.20293,-2.78498,1.01121,1.57079,0.00002,-0.14512,-0.38001,0.03876,,,,,,,,,,,,,,,,,,,,,,,,,,0,0,0,0,0
3.8309,1783189667.3870,1,1,2.0000,0.0000,1.44680,0.20288,-2.78499,1.01128,1.57079,0.00002,-0.14512,-0.38001,0.03875,,,,,,,,,,,,,,,,,,,,,,,,,,0,0,0,0,0
3.8452,1783189667.4013,1,1,2.0000,0.0000,1.44680,0.20280,-2.78501,1.01137,1.57079,0.00002,-0.14512,-0.38001,0.03873,,,,,,,,,,,,,,,,,,,,,,,,,,0,0,0,0,0
3.8501,1783189667.4062,1,1,2.0000,0.0000,1.44680,0.20277,-2.78502,1.01141,1.57079,0.00002,-0.14512,-0.38001,0.03872,,,,,,,,,,,,,,,,,,,,,,,,,,0,0,0,0,0
3.8505,1783189667.4066,1,1,2.0000,0.0000,1.44680,0.20277,-2.78502,1.01141,1.57079,0.00002,-0.14512,-0.38001,0.03872,,,,,,,,,,,,,,,,,,,,,,,,,,0,0,0,0,0
3.8611,1783189667.4171,1,1,2.0000,0.0000,1.44680,0.20258,-2.78506,1.01165,1.57079,0.00002,-0.14512,-0.38001,0.03867,,,,,,,,,,,,,,,,,,,,,,,,,,0,0,0,0,0
3.8729,1783189667.4290,1,1,2.0000,0.0000,1.44680,0.20243,-2.78510,1.01183,1.57079,0.00002,-0.14512,-0.38001,0.03863,,,,,,,,,,,,,,,,,,,,,,,,,,0,0,0,0,0
3.8804,1783189667.4364,1,1,2.0000,0.0000,1.44680,0.20239,-2.78511,1.01188,1.57079,0.00002,-0.14512,-0.38001,0.03862,,,,,,,,,,,,,,,,,,,,,,,,,,0,0,0,0,0
3.8807,1783189667.4367,1,1,2.0000,0.0000,1.44680,0.20239,-2.78511,1.01188,1.57079,0.00002,-0.14512,-0.38001,0.03862,,,,,,,,,,,,,,,,,,,,,,,,,,0,0,0,0,0
3.8916,1783189667.4477,1,1,2.0000,0.0000,1.44680,0.20220,-2.78515,1.01211,1.57079,0.00002,-0.14512,-0.38001,0.03858,,,,,,,,,,,,,,,,,,,,,,,,,,0,0,0,0,0
3.8919,1783189667.4480,1,1,2.0000,0.0000,1.44680,0.20220,-2.78515,1.01211,1.57079,0.00002,-0.14512,-0.38001,0.03858,,,,,,,,,,,,,,,,,,,,,,,,,,0,0,0,0,0
3.9016,1783189667.4577,1,1,2.0000,0.0000,1.44680,0.20213,-2.78517,1.01220,1.57079,0.00002,-0.14512,-0.38001,0.03856,,,,,,,,,,,,,,,,,,,,,,,,,,0,0,0,0,0
3.9115,1783189667.4676,1,1,2.0000,0.0000,1.44680,0.20203,-2.78519,1.01232,1.57079,0.00002,-0.14512,-0.38001,0.03853,,,,,,,,,,,,,,,,,,,,,,,,,,0,0,0,0,0
3.9326,1783189667.4887,1,1,2.0000,0.0000,1.44680,0.20176,-2.78525,1.01266,1.57079,0.00002,-0.14512,-0.38001,0.03847,,,,,,,,,,,,,,,,,,,,,,,,,,0,0,0,0,0
3.9332,1783189667.4893,1,1,2.0000,0.0000,1.44680,0.20176,-2.78525,1.01266,1.57079,0.00002,-0.14512,-0.38001,0.03847,,,,,,,,,,,,,,,,,,,,,,,,,,0,0,0,0,0
3.9337,1783189667.4898,1,1,2.0000,0.0000,1.44680,0.20176,-2.78525,1.01266,1.57079,0.00002,-0.14512,-0.38001,0.03847,,,,,,,,,,,,,,,,,,,,,,,,,,0,0,0,0,0
3.9404,1783189667.4965,1,1,2.0000,0.0000,1.44680,0.20171,-2.78527,1.01272,1.57079,0.00002,-0.14512,-0.38001,0.03845,,,,,,,,,,,,,,,,,,,,,,,,,,0,0,0,0,0
3.9515,1783189667.5076,1,1,2.0000,0.0000,1.44680,0.20153,-2.78531,1.01295,1.57079,0.00003,-0.14512,-0.38001,0.03841,,,,,,,,,,,,,,,,,,,,,,,,,,0,0,0,0,0
3.9605,1783189667.5166,1,1,2.0000,0.0000,1.44680,0.20145,-2.78533,1.01304,1.57079,0.00003,-0.14512,-0.38001,0.03839,,,,,,,,,,,,,,,,,,,,,,,,,,0,0,0,0,0
3.9750,1783189667.5311,1,1,2.0000,0.0000,1.44680,0.20129,-2.78536,1.01323,1.57079,0.00003,-0.14512,-0.38001,0.03835,,,,,,,,,,,,,,,,,,,,,,,,,,0,0,0,0,0
3.9754,1783189667.5315,1,1,2.0000,0.0000,1.44680,0.20129,-2.78536,1.01323,1.57079,0.00003,-0.14512,-0.38001,0.03835,,,,,,,,,,,,,,,,,,,,,,,,,,0,0,0,0,0
3.9811,1783189667.5372,1,1,2.0000,0.0000,1.44680,0.20122,-2.78538,1.01332,1.57079,0.00003,-0.14512,-0.38001,0.03833,,,,,,,,,,,,,,,,,,,,,,,,,,0,0,0,0,0
3.9814,1783189667.5375,1,1,2.0000,0.0000,1.44680,0.20122,-2.78538,1.01332,1.57079,0.00003,-0.14512,-0.38001,0.03833,,,,,,,,,,,,,,,,,,,,,,,,,,0,0,0,0,0
3.9909,1783189667.5470,1,1,2.0000,0.0000,1.44680,0.20108,-2.78541,1.01350,1.57079,0.00003,-0.14512,-0.38001,0.03830,,,,,,,,,,,,,,,,,,,,,,,,,,0,0,0,0,0
4.0044,1783189667.5605,1,1,2.0000,0.0000,1.44680,0.20098,-2.78544,1.01362,1.57079,0.00003,-0.14512,-0.38001,0.03827,,,,,,,,,,,,,,,,,,,,,,,,,,0,0,0,0,0
4.0105,1783189667.5666,1,1,2.0000,0.0000,1.44680,0.20092,-2.78545,1.01369,1.57079,0.00003,-0.14512,-0.38001,0.03826,,,,,,,,,,,,,,,,,,,,,,,,,,0,0,0,0,0
4.0110,1783189667.5671,1,1,2.0000,0.0000,1.44680,0.20085,-2.78547,1.01378,1.57079,0.00003,-0.14512,-0.38001,0.03824,,,,,,,,,,,,,,,,,,,,,,,,,,0,0,0,0,0
4.0206,1783189667.5767,1,1,2.0000,0.0000,1.44680,0.20078,-2.78549,1.01387,1.57079,0.00003,-0.14512,-0.38001,0.03822,,,,,,,,,,,,,,,,,,,,,,,,,,0,0,0,0,0
4.0370,1783189667.5931,1,1,2.0000,0.0000,1.44680,0.20062,-2.78552,1.01407,1.57079,0.00003,-0.14512,-0.38001,0.03818,,,,,,,,,,,,,,,,,,,,,,,,,,0,0,0,0,0
4.0451,1783189667.6012,1,1,2.0000,0.0000,1.44680,0.20047,-2.78556,1.01425,1.57079,0.00003,-0.14512,-0.38001,0.03815,,,,,,,,,,,,,,,,,,,,,,,,,,0,0,0,0,0
4.0503,1783189667.6064,1,1,2.0000,0.0000,1.44680,0.20040,-2.78557,1.01433,1.57079,0.00003,-0.14512,-0.38001,0.03813,,,,,,,,,,,,,,,,,,,,,,,,,,0,0,0,0,0
4.0509,1783189667.6070,1,1,2.0000,0.0000,1.44680,0.20040,-2.78557,1.01433,1.57079,0.00003,-0.14512,-0.38001,0.03813,,,,,,,,,,,,,,,,,,,,,,,,,,0,0,0,0,0
4.0651,1783189667.6212,1,1,2.0000,0.0000,1.44680,0.20031,-2.78560,1.01445,1.57079,0.00003,-0.14512,-0.38001,0.03810,,,,,,,,,,,,,,,,,,,,,,,,,,0,0,0,0,0
4.0653,1783189667.6214,1,1,2.0000,0.0000,1.44680,0.20031,-2.78560,1.01445,1.57079,0.00003,-0.14512,-0.38001,0.03810,,,,,,,,,,,,,,,,,,,,,,,,,,0,0,0,0,0
4.0709,1783189667.6269,1,1,2.0000,0.0000,1.44680,0.20017,-2.78563,1.01462,1.57079,0.00003,-0.14512,-0.38001,0.03807,,,,,,,,,,,,,,,,,,,,,,,,,,0,0,0,0,0
4.0712,1783189667.6273,1,1,2.0000,0.0000,1.44680,0.20017,-2.78563,1.01462,1.57079,0.00003,-0.14512,-0.38001,0.03807,,,,,,,,,,,,,,,,,,,,,,,,,,0,0,0,0,0
4.0814,1783189667.6375,1,1,2.0000,0.0000,1.44680,0.20003,-2.78566,1.01480,1.57079,0.00003,-0.14512,-0.38001,0.03803,,,,,,,,,,,,,,,,,,,,,,,,,,0,0,0,0,0
4.0934,1783189667.6495,1,1,2.0000,0.0000,1.44680,0.19999,-2.78567,1.01484,1.57079,0.00003,-0.14512,-0.38001,0.03803,,,,,,,,,,,,,,,,,,,,,,,,,,0,0,0,0,0
4.0938,1783189667.6498,1,1,2.0000,0.0000,1.44680,0.19999,-2.78567,1.01484,1.57079,0.00003,-0.14512,-0.38001,0.03803,,,,,,,,,,,,,,,,,,,,,,,,,,0,0,0,0,0
4.1009,1783189667.6570,1,1,2.0000,0.0000,1.44680,0.19991,-2.78569,1.01494,1.57079,0.00003,-0.14512,-0.38001,0.03800,,,,,,,,,,,,,,,,,,,,,,,,,,0,0,0,0,0
4.1125,1783189667.6686,1,1,2.0000,0.0000,1.44680,0.19979,-2.78572,1.01509,1.57079,0.00003,-0.14512,-0.38001,0.03797,,,,,,,,,,,,,,,,,,,,,,,,,,0,0,0,0,0
4.1206,1783189667.6766,1,1,2.0000,0.0000,1.44680,0.19974,-2.78573,1.01515,1.57079,0.00003,-0.14512,-0.38001,0.03796,,,,,,,,,,,,,,,,,,,,,,,,,,0,0,0,0,0
4.1374,1783189667.6935,1,1,2.0000,0.0000,1.44680,0.19948,-2.78579,1.01548,1.57079,0.00003,-0.14512,-0.38001,0.03790,,,,,,,,,,,,,,,,,,,,,,,,,,0,0,0,0,0
4.1423,1783189667.6983,1,1,2.0000,0.0000,1.44680,0.19940,-2.78581,1.01556,1.57079,0.00003,-0.14512,-0.38001,0.03788,,,,,,,,,,,,,,,,,,,,,,,,,,0,0,0,0,0
4.1504,1783189667.7065,1,1,2.0000,0.0000,1.44680,0.19940,-2.78581,1.01558,1.57079,0.00003,-0.14512,-0.38001,0.03788,,,,,,,,,,,,,,,,,,,,,,,,,,0,0,0,0,0
4.1509,1783189667.7070,1,1,2.0000,0.0000,1.44680,0.19937,-2.78581,1.01561,1.57079,0.00003,-0.14512,-0.38001,0.03787,,,,,,,,,,,,,,,,,,,,,,,,,,0,0,0,0,0
4.1621,1783189667.7182,1,1,2.0000,0.0000,1.44680,0.19928,-2.78583,1.01571,1.57079,0.00003,-0.14512,-0.38001,0.03785,,,,,,,,,,,,,,,,,,,,,,,,,,0,0,0,0,0
4.1624,1783189667.7184,1,1,2.0000,0.0000,1.44680,0.19928,-2.78583,1.01571,1.57079,0.00003,-0.14512,-0.38001,0.03785,,,,,,,,,,,,,,,,,,,,,,,,,,0,0,0,0,0
4.1972,1783189667.7533,1,1,2.0000,0.0000,1.44680,0.19885,-2.78594,1.01624,1.57079,0.00003,-0.14512,-0.38001,0.03774,,,,,,,,,,,,,,,,,,,,,,,,,,0,0,0,0,0
4.1976,1783189667.7537,1,1,2.0000,0.0000,1.44680,0.19885,-2.78594,1.01624,1.57079,0.00003,-0.14512,-0.38001,0.03774,,,,,,,,,,,,,,,,,,,,,,,,,,0,0,0,0,0
4.1980,1783189667.7541,1,1,2.0000,0.0000,1.44680,0.19885,-2.78594,1.01624,1.57079,0.00003,-0.14512,-0.38001,0.03774,,,,,,,,,,,,,,,,,,,,,,,,,,0,0,0,0,0
4.2038,1783189667.7599,1,1,2.0000,0.0000,1.44680,0.19878,-2.78595,1.01633,1.57079,0.00003,-0.14512,-0.38001,0.03772,,,,,,,,,,,,,,,,,,,,,,,,,,0,0,0,0,0
4.2041,1783189667.7602,1,1,2.0000,0.0000,1.44680,0.19878,-2.78595,1.01633,1.57079,0.00003,-0.14512,-0.38001,0.03772,,,,,,,,,,,,,,,,,,,,,,,,,,0,0,0,0,0
4.2124,1783189667.7685,1,1,2.0000,0.0000,1.44680,0.19875,-2.78596,1.01637,1.57079,0.00003,-0.14512,-0.38001,0.03771,,,,,,,,,,,,,,,,,,,,,,,,,,0,0,0,0,0
4.2205,1783189667.7766,1,1,2.0000,0.0000,1.44680,0.19866,-2.78598,1.01648,1.57079,0.00003,-0.14512,-0.38001,0.03769,,,,,,,,,,,,,,,,,,,,,,,,,,0,0,0,0,0
4.2452,1783189667.8012,1,1,2.0000,0.0000,1.44680,0.19844,-2.78603,1.01675,1.57079,0.00003,-0.14512,-0.38001,0.03764,,,,,,,,,,,,,,,,,,,,,,,,,,0,0,0,0,0
4.2454,1783189667.8015,1,1,2.0000,0.0000,1.44680,0.19844,-2.78603,1.01675,1.57079,0.00003,-0.14512,-0.38001,0.03764,,,,,,,,,,,,,,,,,,,,,,,,,,0,0,0,0,0
4.2457,1783189667.8018,1,1,2.0000,0.0000,1.44680,0.19844,-2.78603,1.01675,1.57079,0.00003,-0.14512,-0.38001,0.03764,,,,,,,,,,,,,,,,,,,,,,,,,,0,0,0,0,0
4.2506,1783189667.8066,1,1,2.0000,0.0000,1.44680,0.19838,-2.78605,1.01683,1.57079,0.00003,-0.14512,-0.38001,0.03762,,,,,,,,,,,,,,,,,,,,,,,,,,0,0,0,0,0
4.2622,1783189667.8183,1,1,2.0000,0.0000,1.44680,0.19816,-2.78610,1.01710,1.57079,0.00003,-0.14512,-0.38001,0.03757,,,,,,,,,,,,,,,,,,,,,,,,,,0,0,0,0,0
4.2759,1783189667.8320,1,1,2.0000,0.0000,1.44680,0.19809,-2.78611,1.01719,1.57079,0.00003,-0.14512,-0.38001,0.03755,,,,,,,,,,,,,,,,,,,,,,,,,,0,0,0,0,0
4.2825,1783189667.8386,1,1,2.0000,0.0000,1.44680,0.19804,-2.78612,1.01725,1.57079,0.00003,-0.14512,-0.38001,0.03754,,,,,,,,,,,,,,,,,,,,,,,,,,0,0,0,0,0
4.2832,1783189667.8393,1,1,2.0000,0.0000,1.44680,0.19798,-2.78614,1.01732,1.57079,0.00003,-0.14512,-0.38001,0.03752,,,,,,,,,,,,,,,,,,,,,,,,,,0,0,0,0,0
4.2911,1783189667.8472,1,1,2.0000,0.0000,1.44680,0.19792,-2.78615,1.01739,1.57079,0.00003,-0.14512,-0.38001,0.03751,,,,,,,,,,,,,,,,,,,,,,,,,,0,0,0,0,0
4.3002,1783189667.8563,1,1,2.0000,0.0000,1.44680,0.19787,-2.78616,1.01745,1.57079,0.00003,-0.14512,-0.38001,0.03750,,,,,,,,,,,,,,,,,,,,,,,,,,0,0,0,0,0
4.3150,1783189667.8711,1,1,2.0000,0.0000,1.44680,0.19761,-2.78623,1.01778,1.57079,0.00003,-0.14512,-0.38001,0.03743,,,,,,,,,,,,,,,,,,,,,,,,,,0,0,0,0,0
4.3251,1783189667.8812,1,1,2.0000,0.0000,1.44680,0.19754,-2.78624,1.01787,1.57079,0.00003,-0.14512,-0.38001,0.03741,,,,,,,,,,,,,,,,,,,,,,,,,,0,0,0,0,0
4.3422,1783189667.8983,1,1,2.0000,0.0000,1.44680,0.19742,-2.78627,1.01802,1.57079,0.00003,-0.14512,-0.38001,0.03738,,,,,,,,,,,,,,,,,,,,,,,,,,0,0,0,0,0
4.3510,1783189667.9071,1,1,2.0000,0.0000,1.44680,0.19730,-2.78630,1.01816,1.57079,0.00003,-0.14512,-0.38001,0.03735,,,,,,,,,,,,,,,,,,,,,,,,,,0,0,0,0,0
4.3609,1783189667.9169,1,1,2.0000,0.0000,1.44680,0.19725,-2.78631,1.01822,1.57079,0.00003,-0.14512,-0.38001,0.03734,,,,,,,,,,,,,,,,,,,,,,,,,,0,0,0,0,0
4.3706,1783189667.9267,1,1,2.0000,0.0000,1.44680,0.19713,-2.78634,1.01837,1.57079,0.00003,-0.14512,-0.38001,0.03731,,,,,,,,,,,,,,,,,,,,,,,,,,0,0,0,0,0
4.3712,1783189667.9273,1,1,2.0000,0.0000,1.44680,0.19706,-2.78635,1.01846,1.57079,0.00003,-0.14512,-0.38001,0.03729,,,,,,,,,,,,,,,,,,,,,,,,,,0,0,0,0,0
4.3846,1783189667.9406,1,1,2.0000,0.0000,1.44680,0.19691,-2.78639,1.01864,1.57079,0.00003,-0.14512,-0.38001,0.03726,,,,,,,,,,,,,,,,,,,,,,,,,,0,0,0,0,0
4.3912,1783189667.9473,1,1,2.0000,0.0000,1.44680,0.19688,-2.78639,1.01868,1.57079,0.00003,-0.14512,-0.38001,0.03725,,,,,,,,,,,,,,,,,,,,,,,,,,0,0,0,0,0
4.3916,1783189667.9477,1,1,2.0000,0.0000,1.44680,0.19688,-2.78639,1.01868,1.57079,0.00003,-0.14512,-0.38001,0.03725,,,,,,,,,,,,,,,,,,,,,,,,,,0,0,0,0,0
4.4008,1783189667.9569,1,1,2.0000,0.0000,1.44680,0.19679,-2.78641,1.01879,1.57079,0.00003,-0.14512,-0.38001,0.03723,,,,,,,,,,,,,,,,,,,,,,,,,,0,0,0,0,0
4.4140,1783189667.9700,1,1,2.0000,0.0000,1.44680,0.19667,-2.78644,1.01893,1.57079,0.00003,-0.14512,-0.38001,0.03720,,,,,,,,,,,,,,,,,,,,,,,,,,0,0,0,0,0
4.4143,1783189667.9704,1,1,2.0000,0.0000,1.44680,0.19667,-2.78644,1.01893,1.57079,0.00003,-0.14512,-0.38001,0.03720,,,,,,,,,,,,,,,,,,,,,,,,,,0,0,0,0,0
4.4209,1783189667.9770,1,1,2.0000,0.0000,1.44680,0.19662,-2.78645,1.01899,1.57079,0.00003,-0.14512,-0.38001,0.03719,,,,,,,,,,,,,,,,,,,,,,,,,,0,0,0,0,0
4.4316,1783189667.9877,1,1,2.0000,0.0000,1.44679,0.19643,-2.78650,1.01923,1.57079,0.00003,-0.14511,-0.38001,0.03714,,,,,,,,,,,,,,,,,,,,,,,,,,0,0,0,0,0
4.4320,1783189667.9881,1,1,2.0000,0.0000,1.44679,0.19643,-2.78650,1.01923,1.57079,0.00003,-0.14511,-0.38001,0.03714,,,,,,,,,,,,,,,,,,,,,,,,,,0,0,0,0,0
4.4485,1783189668.0046,1,1,2.0000,0.0000,1.44679,0.19628,-2.78653,1.01942,1.57079,0.00003,-0.14511,-0.38001,0.03710,,,,,,,,,,,,,,,,,,,,,,,,,,0,0,0,0,0
4.4541,1783189668.0102,1,1,2.0000,0.0000,1.44679,0.19625,-2.78654,1.01945,1.57079,0.00003,-0.14511,-0.38001,0.03709,,,,,,,,,,,,,,,,,,,,,,,,,,0,0,0,0,0
4.4708,1783189668.0269,1,1,2.0000,0.0000,1.44679,0.19605,-2.78659,1.01970,1.57079,0.00003,-0.14511,-0.38001,0.03704,,,,,,,,,,,,,,,,,,,,,,,,,,0,0,0,0,0
4.4776,1783189668.0337,1,1,2.0000,0.0000,1.44679,0.19603,-2.78659,1.01972,1.57079,0.00003,-0.14511,-0.38001,0.03704,,,,,,,,,,,,,,,,,,,,,,,,,,0,0,0,0,0
4.4872,1783189668.0433,1,1,2.0000,0.0000,1.44679,0.19588,-2.78663,1.01991,1.57079,0.00003,-0.14511,-0.38001,0.03700,,,,,,,,,,,,,,,,,,,,,,,,,,0,0,0,0,0
4.4955,1783189668.0516,1,1,2.0000,0.0000,1.44679,0.19573,-2.78666,1.02009,1.57079,0.00003,-0.14511,-0.38001,0.03697,,,,,,,,,,,,,,,,,,,,,,,,,,0,0,0,0,0
4.5045,1783189668.0606,1,1,2.0000,0.0000,1.44679,0.19566,-2.78668,1.02018,1.57079,0.00003,-0.14511,-0.38001,0.03695,,,,,,,,,,,,,,,,,,,,,,,,,,0,0,0,0,0
4.5160,1783189668.0720,1,1,2.0000,0.0000,1.44679,0.19559,-2.78669,1.02027,1.57079,0.00003,-0.14511,-0.38001,0.03693,,,,,,,,,,,,,,,,,,,,,,,,,,0,0,0,0,0
4.5225,1783189668.0786,1,1,2.0000,0.0000,1.44679,0.19554,-2.78670,1.02033,1.57079,0.00003,-0.14511,-0.38001,0.03692,,,,,,,,,,,,,,,,,,,,,,,,,,0,0,0,0,0
4.5231,1783189668.0792,1,1,2.0000,0.0000,1.44679,0.19548,-2.78672,1.02039,1.57079,0.00003,-0.14511,-0.38001,0.03690,,,,,,,,,,,,,,,,,,,,,,,,,,0,0,0,0,0
4.5338,1783189668.0898,1,1,2.0000,0.0000,1.44679,0.19542,-2.78673,1.02047,1.57079,0.00003,-0.14511,-0.38001,0.03689,,,,,,,,,,,,,,,,,,,,,,,,,,0,0,0,0,0
4.5483,1783189668.1044,1,1,2.0000,0.0000,1.44679,0.19526,-2.78677,1.02068,1.57079,0.00003,-0.14511,-0.38001,0.03685,,,,,,,,,,,,,,,,,,,,,,,,,,0,0,0,0,0
4.5538,1783189668.1099,1,1,2.0000,0.0000,1.44679,0.19518,-2.78679,1.02077,1.57079,0.00003,-0.14511,-0.38001,0.03683,,,,,,,,,,,,,,,,,,,,,,,,,,0,0,0,0,0
4.5669,1783189668.1230,1,1,2.0000,0.0000,1.44679,0.19502,-2.78682,1.02096,1.57079,0.00003,-0.14511,-0.38001,0.03679,,,,,,,,,,,,,,,,,,,,,,,,,,0,0,0,0,0
4.5752,1783189668.1313,1,1,2.0000,0.0000,1.44679,0.19494,-2.78684,1.02107,1.57079,0.00003,-0.14511,-0.38001,0.03677,,,,,,,,,,,,,,,,,,,,,,,,,,0,0,0,0,0
4.5818,1783189668.1379,1,1,2.0000,0.0000,1.44679,0.19487,-2.78686,1.02115,1.57079,0.00003,-0.14511,-0.38001,0.03675,,,,,,,,,,,,,,,,,,,,,,,,,,0,0,0,0,0
4.5953,1783189668.1514,1,1,2.0000,0.0000,1.44679,0.19472,-2.78689,1.02134,1.57079,0.00003,-0.14511,-0.38001,0.03671,,,,,,,,,,,,,,,,,,,,,,,,,,0,0,0,0,0
4.6056,1783189668.1617,1,1,2.0000,0.0000,1.44679,0.19463,-2.78691,1.02144,1.57079,0.00003,-0.14511,-0.38001,0.03669,,,,,,,,,,,,,,,,,,,,,,,,,,0,0,0,0,0
4.6110,1783189668.1671,1,1,2.0000,0.0000,1.44679,0.19450,-2.78694,1.02161,1.57079,0.00003,-0.14511,-0.38001,0.03666,,,,,,,,,,,,,,,,,,,,,,,,,,0,0,0,0,0
4.6243,1783189668.1804,1,1,2.0000,0.0000,1.44679,0.19435,-2.78698,1.02179,1.57079,0.00003,-0.14511,-0.38001,0.03662,,,,,,,,,,,,,,,,,,,,,,,,,,0,0,0,0,0
4.6341,1783189668.1902,1,1,2.0000,0.0000,1.44679,0.19431,-2.78699,1.02184,1.57079,0.00003,-0.14511,-0.38001,0.03661,,,,,,,,,,,,,,,,,,,,,,,,,,0,0,0,0,0
4.6349,1783189668.1909,1,1,2.0000,0.0000,1.44679,0.19425,-2.78700,1.02191,1.57079,0.00003,-0.14511,-0.38001,0.03660,,,,,,,,,,,,,,,,,,,,,,,,,,0,0,0,0,0
4.6502,1783189668.2063,1,1,2.0000,0.0000,1.44679,0.19405,-2.78705,1.02216,1.57079,0.00003,-0.14511,-0.38001,0.03655,,,,,,,,,,,,,,,,,,,,,,,,,,0,0,0,0,0
4.6509,1783189668.2070,1,1,2.0000,0.0000,1.44679,0.19405,-2.78705,1.02216,1.57079,0.00003,-0.14511,-0.38001,0.03655,,,,,,,,,,,,,,,,,,,,,,,,,,0,0,0,0,0
4.6511,1783189668.2072,1,1,2.0000,0.0000,1.44679,0.19405,-2.78705,1.02216,1.57079,0.00003,-0.14511,-0.38001,0.03655,,,,,,,,,,,,,,,,,,,,,,,,,,0,0,0,0,0
4.6601,1783189668.2162,1,1,2.0000,0.0000,1.44679,0.19400,-2.78706,1.02222,1.57079,0.00003,-0.14511,-0.38001,0.03654,,,,,,,,,,,,,,,,,,,,,,,,,,0,0,0,0,0
4.6604,1783189668.2165,1,1,2.0000,0.0000,1.44679,0.19400,-2.78706,1.02222,1.57079,0.00003,-0.14511,-0.38001,0.03654,,,,,,,,,,,,,,,,,,,,,,,,,,0,0,0,0,0
4.6740,1783189668.2301,1,1,2.0000,0.0000,1.44679,0.19381,-2.78710,1.02245,1.57079,0.00003,-0.14511,-0.38001,0.03649,,,,,,,,,,,,,,,,,,,,,,,,,,0,0,0,0,0
4.6805,1783189668.2366,1,1,2.0000,0.0000,1.44679,0.19367,-2.78713,1.02263,1.57079,0.00003,-0.14511,-0.38001,0.03646,,,,,,,,,,,,,,,,,,,,,,,,,,0,0,0,0,0
4.6923,1783189668.2483,1,1,2.0000,0.0000,1.44679,0.19362,-2.78715,1.02268,1.57079,0.00003,-0.14511,-0.38001,0.03644,,,,,,,,,,,,,,,,,,,,,,,,,,0,0,0,0,0
4.7014,1783189668.2575,1,1,2.0000,0.0000,1.44679,0.19351,-2.78717,1.02283,1.57079,0.00003,-0.14511,-0.38001,0.03642,,,,,,,,,,,,,,,,,,,,,,,,,,0,0,0,0,0
4.7017,1783189668.2578,1,1,2.0000,0.0000,1.44679,0.19351,-2.78717,1.02283,1.57079,0.00003,-0.14511,-0.38001,0.03642,,,,,,,,,,,,,,,,,,,,,,,,,,0,0,0,0,0
4.7105,1783189668.2666,1,1,2.0000,0.0000,1.44679,0.19336,-2.78721,1.02300,1.57079,0.00003,-0.14511,-0.38001,0.03638,,,,,,,,,,,,,,,,,,,,,,,,,,0,0,0,0,0
4.7205,1783189668.2766,1,1,2.0000,0.0000,1.44679,0.19332,-2.78722,1.02306,1.57079,0.00003,-0.14511,-0.38001,0.03637,,,,,,,,,,,,,,,,,,,,,,,,,,0,0,0,0,0
4.7209,1783189668.2770,1,1,2.0000,0.0000,1.44679,0.19332,-2.78722,1.02306,1.57079,0.00003,-0.14511,-0.38001,0.03637,,,,,,,,,,,,,,,,,,,,,,,,,,0,0,0,0,0
4.7323,1783189668.2884,1,1,2.0000,0.0000,1.44679,0.19313,-2.78726,1.02329,1.57079,0.00003,-0.14511,-0.38001,0.03632,,,,,,,,,,,,,,,,,,,,,,,,,,0,0,0,0,0
4.7511,1783189668.3071,1,1,2.0000,0.0000,1.44679,0.19294,-2.78730,1.02353,1.57079,0.00003,-0.14511,-0.38001,0.03627,,,,,,,,,,,,,,,,,,,,,,,,,,0,0,0,0,0
4.7604,1783189668.3165,1,1,2.0000,0.0000,1.44679,0.19282,-2.78733,1.02367,1.57079,0.00003,-0.14511,-0.38001,0.03625,,,,,,,,,,,,,,,,,,,,,,,,,,0,0,0,0,0
4.7704,1783189668.3265,1,1,2.0000,0.0000,1.44679,0.19268,-2.78736,1.02385,1.57079,0.00003,-0.14511,-0.38001,0.03621,,,,,,,,,,,,,,,,,,,,,,,,,,0,0,0,0,0
4.7805,1783189668.3366,1,1,2.0000,0.0000,1.44679,0.19263,-2.78737,1.02390,1.57079,0.00003,-0.14511,-0.38001,0.03620,,,,,,,,,,,,,,,,,,,,,,,,,,0,0,0,0,0
4.7943,1783189668.3504,1,1,2.0000,0.0000,1.44679,0.19245,-2.78742,1.02413,1.57079,0.00003,-0.14511,-0.38001,0.03615,,,,,,,,,,,,,,,,,,,,,,,,,,0,0,0,0,0
4.8023,1783189668.3584,1,1,2.0000,0.0000,1.44679,0.19230,-2.78745,1.02431,1.57079,0.00003,-0.14511,-0.38001,0.03612,,,,,,,,,,,,,,,,,,,,,,,,,,0,0,0,0,0
4.8151,1783189668.3712,1,1,2.0000,0.0000,1.44679,0.19220,-2.78747,1.02443,1.57079,0.00003,-0.14511,-0.38001,0.03609,,,,,,,,,,,,,,,,,,,,,,,,,,0,0,0,0,0
4.8274,1783189668.3835,1,1,2.0000,0.0000,1.44679,0.19199,-2.78752,1.02469,1.57079,0.00003,-0.14511,-0.38001,0.03604,,,,,,,,,,,,,,,,,,,,,,,,,,0,0,0,0,0
4.8970,1783189668.4531,1,1,2.0000,0.0000,1.44679,0.19129,-2.78768,1.02555,1.57079,0.00003,-0.14511,-0.38001,0.03587,,,,,,,,,,,,,,,,,,,,,,,,,,0,0,0,0,0
4.8974,1783189668.4535,1,1,2.0000,0.0000,1.44679,0.19129,-2.78768,1.02555,1.57079,0.00003,-0.14511,-0.38001,0.03587,,,,,,,,,,,,,,,,,,,,,,,,,,0,0,0,0,0
4.8978,1783189668.4539,1,1,2.0000,0.0000,1.44679,0.19129,-2.78768,1.02555,1.57079,0.00003,-0.14511,-0.38001,0.03587,,,,,,,,,,,,,,,,,,,,,,,,,,0,0,0,0,0
4.8983,1783189668.4543,1,1,2.0000,0.0000,1.44679,0.19129,-2.78768,1.02555,1.57079,0.00003,-0.14511,-0.38001,0.03587,,,,,,,,,,,,,,,,,,,,,,,,,,0,0,0,0,0
4.8990,1783189668.4551,1,1,2.0000,0.0000,1.44679,0.19128,-2.78768,1.02556,1.57079,0.00003,-0.14511,-0.38001,0.03587,,,,,,,,,,,,,,,,,,,,,,,,,,0,0,0,0,0
4.8992,1783189668.4553,1,1,2.0000,0.0000,1.44679,0.19128,-2.78768,1.02556,1.57079,0.00003,-0.14511,-0.38001,0.03587,,,,,,,,,,,,,,,,,,,,,,,,,,0,0,0,0,0
4.9065,1783189668.4626,1,1,2.0000,0.0000,1.44679,0.19126,-2.78769,1.02559,1.57079,0.00003,-0.14511,-0.38001,0.03586,,,,,,,,,,,,,,,,,,,,,,,,,,0,0,0,0,0
4.9145,1783189668.4706,1,1,2.0000,0.0000,1.44679,0.19117,-2.78771,1.02570,1.57079,0.00003,-0.14511,-0.38001,0.03584,,,,,,,,,,,,,,,,,,,,,,,,,,0,0,0,0,0
4.9204,1783189668.4765,1,1,2.0000,0.0000,1.44679,0.19105,-2.78773,1.02584,1.57079,0.00003,-0.14511,-0.38001,0.03581,,,,,,,,,,,,,,,,,,,,,,,,,,0,0,0,0,0
4.9322,1783189668.4882,1,1,2.0000,0.0000,1.44679,0.19100,-2.78775,1.02590,1.57079,0.00003,-0.14511,-0.38001,0.03580,,,,,,,,,,,,,,,,,,,,,,,,,,0,0,0,0,0
4.9407,1783189668.4968,1,1,2.0000,0.0000,1.44679,0.19088,-2.78777,1.02605,1.57079,0.00003,-0.14511,-0.38001,0.03577,,,,,,,,,,,,,,,,,,,,,,,,,,0,0,0,0,0
4.9572,1783189668.5133,1,1,2.0000,0.0000,1.44679,0.19066,-2.78782,1.02632,1.57079,0.00003,-0.14511,-0.38001,0.03571,,,,,,,,,,,,,,,,,,,,,,,,,,0,0,0,0,0
4.9616,1783189668.5177,1,1,2.0000,0.0000,1.44679,0.19065,-2.78782,1.02633,1.57079,0.00003,-0.14511,-0.38001,0.03571,,,,,,,,,,,,,,,,,,,,,,,,,,0,0,0,0,0
4.9703,1783189668.5263,1,1,2.0000,0.0000,1.44679,0.19059,-2.78784,1.02641,1.57079,0.00003,-0.14511,-0.38001,0.03570,,,,,,,,,,,,,,,,,,,,,,,,,,0,0,0,0,0
4.9833,1783189668.5394,1,1,2.0000,0.0000,1.44679,0.19042,-2.78788,1.02662,1.57079,0.00003,-0.14511,-0.38001,0.03565,,,,,,,,,,,,,,,,,,,,,,,,,,0,0,0,0,0
4.9925,1783189668.5486,1,1,2.0000,0.0000,1.44679,0.19037,-2.78789,1.02668,1.57079,0.00003,-0.14511,-0.38001,0.03564,,,,,,,,,,,,,,,,,,,,,,,,,,0,0,0,0,0
5.0029,1783189668.5590,1,1,2.0000,0.0000,1.44679,0.19018,-2.78793,1.02691,1.57079,0.00003,-0.14511,-0.38001,0.03559,,,,,,,,,,,,,,,,,,,,,,,,,,0,0,0,0,0
5.0151,1783189668.5712,1,1,2.0000,0.0000,1.44679,0.19003,-2.78797,1.02710,1.57079,0.00003,-0.14511,-0.38001,0.03556,,,,,,,,,,,,,,,,,,,,,,,,,,0,0,0,0,0
5.0153,1783189668.5714,1,1,2.0000,0.0000,1.44679,0.19003,-2.78797,1.02710,1.57079,0.00003,-0.14511,-0.38001,0.03556,,,,,,,,,,,,,,,,,,,,,,,,,,0,0,0,0,0
5.0204,1783189668.5764,1,1,2.0000,0.0000,1.44679,0.19002,-2.78797,1.02711,1.57079,0.00003,-0.14511,-0.38001,0.03556,,,,,,,,,,,,,,,,,,,,,,,,,,0,0,0,0,0
5.0351,1783189668.5912,1,1,2.0000,0.0000,1.44679,0.18985,-2.78801,1.02731,1.57079,0.00003,-0.14511,-0.38001,0.03551,,,,,,,,,,,,,,,,,,,,,,,,,,0,0,0,0,0
5.0353,1783189668.5914,1,1,2.0000,0.0000,1.44679,0.18985,-2.78801,1.02731,1.57079,0.00003,-0.14511,-0.38001,0.03551,,,,,,,,,,,,,,,,,,,,,,,,,,0,0,0,0,0
5.0406,1783189668.5967,1,1,2.0000,0.0000,1.44679,0.18979,-2.78802,1.02739,1.57079,0.00003,-0.14511,-0.38001,0.03550,,,,,,,,,,,,,,,,,,,,,,,,,,0,0,0,0,0
5.0618,1783189668.6178,1,1,2.0000,0.0000,1.44679,0.18962,-2.78806,1.02760,1.57079,0.00003,-0.14511,-0.38001,0.03546,,,,,,,,,,,,,,,,,,,,,,,,,,0,0,0,0,0
5.0621,1783189668.6182,1,1,2.0000,0.0000,1.44679,0.18962,-2.78806,1.02760,1.57079,0.00003,-0.14511,-0.38001,0.03546,,,,,,,,,,,,,,,,,,,,,,,,,,0,0,0,0,0
5.0741,1783189668.6302,1,1,2.0000,0.0000,1.44679,0.18940,-2.78811,1.02787,1.57079,0.00003,-0.14511,-0.38001,0.03540,,,,,,,,,,,,,,,,,,,,,,,,,,0,0,0,0,0
5.0841,1783189668.6402,1,1,2.0000,0.0000,1.44679,0.18937,-2.78812,1.02791,1.57079,0.00003,-0.14511,-0.38001,0.03539,,,,,,,,,,,,,,,,,,,,,,,,,,0,0,0,0,0
5.0910,1783189668.6470,1,1,2.0000,0.0000,1.44679,0.18928,-2.78814,1.02802,1.57079,0.00003,-0.14511,-0.38001,0.03537,,,,,,,,,,,,,,,,,,,,,,,,,,0,0,0,0,0
5.1022,1783189668.6583,1,1,2.0000,0.0000,1.44679,0.18916,-2.78816,1.02816,1.57079,0.00003,-0.14511,-0.38001,0.03534,,,,,,,,,,,,,,,,,,,,,,,,,,0,0,0,0,0
5.1202,1783189668.6763,1,1,2.0000,0.0000,1.44679,0.18899,-2.78820,1.02837,1.57079,0.00003,-0.14511,-0.38001,0.03530,,,,,,,,,,,,,,,,,,,,,,,,,,0,0,0,0,0
5.1206,1783189668.6767,1,1,2.0000,0.0000,1.44679,0.18899,-2.78820,1.02837,1.57079,0.00003,-0.14511,-0.38001,0.03530,,,,,,,,,,,,,,,,,,,,,,,,,,0,0,0,0,0
5.1209,1783189668.6770,1,1,2.0000,0.0000,1.44679,0.18899,-2.78820,1.02837,1.57079,0.00003,-0.14511,-0.38001,0.03530,,,,,,,,,,,,,,,,,,,,,,,,,,0,0,0,0,0
5.1367,1783189668.6928,1,1,2.0000,0.0000,1.44679,0.18877,-2.78825,1.02864,1.57079,0.00003,-0.14511,-0.38001,0.03525,,,,,,,,,,,,,,,,,,,,,,,,,,0,0,0,0,0
5.1401,1783189668.6962,1,1,2.0000,0.0000,1.44679,0.18876,-2.78825,1.02865,1.57079,0.00003,-0.14511,-0.38001,0.03525,,,,,,,,,,,,,,,,,,,,,,,,,,0,0,0,0,0
5.1403,1783189668.6964,1,1,2.0000,0.0000,1.44679,0.18876,-2.78825,1.02865,1.57079,0.00003,-0.14511,-0.38001,0.03525,,,,,,,,,,,,,,,,,,,,,,,,,,0,0,0,0,0
5.1606,1783189668.7167,1,1,2.0000,0.0000,1.44679,0.18853,-2.78831,1.02894,1.57079,0.00003,-0.14511,-0.38001,0.03519,,,,,,,,,,,,,,,,,,,,,,,,,,0,0,0,0,0
5.1609,1783189668.7170,1,1,2.0000,0.0000,1.44679,0.18853,-2.78831,1.02894,1.57079,0.00003,-0.14511,-0.38001,0.03519,,,,,,,,,,,,,,,,,,,,,,,,,,0,0,0,0,0
5.1709,1783189668.7270,1,1,2.0000,0.0000,1.44679,0.18848,-2.78832,1.02900,1.57079,0.00003,-0.14511,-0.38001,0.03518,,,,,,,,,,,,,,,,,,,,,,,,,,0,0,0,0,0
5.1710,1783189668.7271,1,1,2.0000,0.0000,1.44679,0.18848,-2.78832,1.02900,1.57079,0.00003,-0.14511,-0.38001,0.03518,,,,,,,,,,,,,,,,,,,,,,,,,,0,0,0,0,0
5.1841,1783189668.7402,1,1,2.0000,0.0000,1.44679,0.18829,-2.78836,1.02924,1.57079,0.00003,-0.14511,-0.38001,0.03513,,,,,,,,,,,,,,,,,,,,,,,,,,0,0,0,0,0
5.1910,1783189668.7471,1,1,2.0000,0.0000,1.44679,0.18814,-2.78840,1.02942,1.57079,0.00003,-0.14511,-0.38001,0.03509,,,,,,,,,,,,,,,,,,,,,,,,,,0,0,0,0,0
5.2070,1783189668.7631,1,1,2.0000,0.0000,1.44679,0.18806,-2.78841,1.02951,1.57079,0.00004,-0.14511,-0.38001,0.03508,,,,,,,,,,,,,,,,,,,,,,,,,,0,0,0,0,0
5.2212,1783189668.7773,1,1,2.0000,0.0000,1.44679,0.18790,-2.78845,1.02971,1.57079,0.00004,-0.14511,-0.38001,0.03503,,,,,,,,,,,,,,,,,,,,,,,,,,0,0,0,0,0
5.2265,1783189668.7826,1,1,2.0000,0.0000,1.44679,0.18790,-2.78845,1.02971,1.57079,0.00004,-0.14511,-0.38001,0.03503,,,,,,,,,,,,,,,,,,,,,,,,,,0,0,0,0,0
5.2269,1783189668.7830,1,1,2.0000,0.0000,1.44679,0.18788,-2.78845,1.02973,1.57079,0.00004,-0.14511,-0.38001,0.03503,,,,,,,,,,,,,,,,,,,,,,,,,,0,0,0,0,0
5.2323,1783189668.7883,1,1,2.0000,0.0000,1.44679,0.18785,-2.78846,1.02977,1.57079,0.00004,-0.14511,-0.38001,0.03502,,,,,,,,,,,,,,,,,,,,,,,,,,0,0,0,0,0
5.2325,1783189668.7886,1,1,2.0000,0.0000,1.44679,0.18785,-2.78846,1.02977,1.57079,0.00004,-0.14511,-0.38001,0.03502,,,,,,,,,,,,,,,,,,,,,,,,,,0,0,0,0,0
5.2447,1783189668.8008,1,1,2.0000,0.0000,1.44679,0.18765,-2.78850,1.03001,1.57079,0.00004,-0.14511,-0.38001,0.03497,,,,,,,,,,,,,,,,,,,,,,,,,,0,0,0,0,0
5.2601,1783189668.8162,1,1,2.0000,0.0000,1.44679,0.18749,-2.78854,1.03021,1.57079,0.00004,-0.14511,-0.38001,0.03493,,,,,,,,,,,,,,,,,,,,,,,,,,0,0,0,0,0
5.2604,1783189668.8165,1,1,2.0000,0.0000,1.44679,0.18749,-2.78854,1.03021,1.57079,0.00004,-0.14511,-0.38001,0.03493,,,,,,,,,,,,,,,,,,,,,,,,,,0,0,0,0,0
5.2624,1783189668.8185,1,1,2.0000,0.0000,1.44679,0.18749,-2.78854,1.03021,1.57079,0.00004,-0.14511,-0.38001,0.03493,,,,,,,,,,,,,,,,,,,,,,,,,,0,0,0,0,0
5.2630,1783189668.8191,1,1,2.0000,0.0000,1.44679,0.18746,-2.78855,1.03025,1.57079,0.00004,-0.14511,-0.38001,0.03493,,,,,,,,,,,,,,,,,,,,,,,,,,0,0,0,0,0
5.2742,1783189668.8303,1,1,2.0000,0.0000,1.44679,0.18734,-2.78857,1.03039,1.57079,0.00004,-0.14511,-0.38001,0.03490,,,,,,,,,,,,,,,,,,,,,,,,,,0,0,0,0,0
5.2840,1783189668.8401,1,1,2.0000,0.0000,1.44679,0.18720,-2.78861,1.03057,1.57079,0.00004,-0.14511,-0.38001,0.03486,,,,,,,,,,,,,,,,,,,,,,,,,,0,0,0,0,0
5.2910,1783189668.8471,1,1,2.0000,0.0000,1.44679,0.18715,-2.78862,1.03063,1.57079,0.00004,-0.14511,-0.38001,0.03485,,,,,,,,,,,,,,,,,,,,,,,,,,0,0,0,0,0
5.3082,1783189668.8643,1,1,2.0000,0.0000,1.44679,0.18689,-2.78868,1.03095,1.57079,0.00004,-0.14511,-0.38001,0.03479,,,,,,,,,,,,,,,,,,,,,,,,,,0,0,0,0,0
5.3112,1783189668.8673,1,1,2.0000,0.0000,1.44679,0.18682,-2.78869,1.03104,1.57079,0.00004,-0.14511,-0.38001,0.03477,,,,,,,,,,,,,,,,,,,,,,,,,,0,0,0,0,0
5.3114,1783189668.8674,1,1,2.0000,0.0000,1.44679,0.18682,-2.78869,1.03104,1.57079,0.00004,-0.14511,-0.38001,0.03477,,,,,,,,,,,,,,,,,,,,,,,,,,0,0,0,0,0
5.3232,1783189668.8793,1,1,2.0000,0.0000,1.44679,0.18677,-2.78870,1.03110,1.57079,0.00004,-0.14511,-0.38001,0.03476,,,,,,,,,,,,,,,,,,,,,,,,,,0,0,0,0,0
5.3339,1783189668.8899,1,1,2.0000,0.0000,1.44679,0.18665,-2.78873,1.03124,1.57079,0.00004,-0.14511,-0.38001,0.03473,,,,,,,,,,,,,,,,,,,,,,,,,,0,0,0,0,0
5.3406,1783189668.8967,1,1,2.0000,0.0000,1.44679,0.18651,-2.78876,1.03142,1.57079,0.00004,-0.14511,-0.38001,0.03469,,,,,,,,,,,,,,,,,,,,,,,,,,0,0,0,0,0
5.3517,1783189668.9078,1,1,2.0000,0.0000,1.44679,0.18646,-2.78877,1.03147,1.57079,0.00004,-0.14511,-0.38001,0.03468,,,,,,,,,,,,,,,,,,,,,,,,,,0,0,0,0,0
5.3641,1783189668.9202,1,1,2.0000,0.0000,1.44679,0.18627,-2.78882,1.03170,1.57079,0.00004,-0.14511,-0.38001,0.03464,,,,,,,,,,,,,,,,,,,,,,,,,,0,0,0,0,0
5.3709,1783189668.9270,1,1,2.0000,0.0000,1.44679,0.18613,-2.78885,1.03188,1.57079,0.00004,-0.14511,-0.38001,0.03460,,,,,,,,,,,,,,,,,,,,,,,,,,0,0,0,0,0
5.3838,1783189668.9399,1,1,2.0000,0.0000,1.44679,0.18608,-2.78886,1.03194,1.57079,0.00004,-0.14511,-0.38001,0.03459,,,,,,,,,,,,,,,,,,,,,,,,,,0,0,0,0,0
5.3914,1783189668.9475,1,1,2.0000,0.0000,1.44679,0.18596,-2.78889,1.03208,1.57079,0.00004,-0.14511,-0.38001,0.03456,,,,,,,,,,,,,,,,,,,,,,,,,,0,0,0,0,0
5.3917,1783189668.9478,1,1,2.0000,0.0000,1.44679,0.18596,-2.78889,1.03208,1.57079,0.00004,-0.14511,-0.38001,0.03456,,,,,,,,,,,,,,,,,,,,,,,,,,0,0,0,0,0
5.4089,1783189668.9650,1,1,2.0000,0.0000,1.44679,0.18580,-2.78892,1.03228,1.57079,0.00004,-0.14511,-0.38001,0.03452,,,,,,,,,,,,,,,,,,,,,,,,,,0,0,0,0,0
5.4131,1783189668.9692,1,1,2.0000,0.0000,1.44679,0.18577,-2.78893,1.03232,1.57079,0.00004,-0.14511,-0.38001,0.03451,,,,,,,,,,,,,,,,,,,,,,,,,,0,0,0,0,0
5.4246,1783189668.9807,1,1,2.0000,0.0000,1.44679,0.18558,-2.78897,1.03255,1.57079,0.00004,-0.14511,-0.38001,0.03447,,,,,,,,,,,,,,,,,,,,,,,,,,0,0,0,0,0
5.4370,1783189668.9931,1,1,2.0000,0.0000,1.44679,0.18543,-2.78900,1.03273,1.57079,0.00004,-0.14511,-0.38001,0.03443,,,,,,,,,,,,,,,,,,,,,,,,,,0,0,0,0,0
5.4405,1783189668.9966,1,1,2.0000,0.0000,1.44679,0.18542,-2.78901,1.03274,1.57079,0.00004,-0.14511,-0.38001,0.03443,,,,,,,,,,,,,,,,,,,,,,,,,,0,0,0,0,0
5.4550,1783189669.0111,1,1,2.0000,0.0000,1.44679,0.18520,-2.78906,1.03302,1.57079,0.00004,-0.14511,-0.38001,0.03437,,,,,,,,,,,,,,,,,,,,,,,,,,0,0,0,0,0
5.4682,1783189669.0243,1,1,2.0000,0.0000,1.44679,0.18511,-2.78908,1.03312,1.57079,0.00004,-0.14511,-0.38001,0.03435,,,,,,,,,,,,,,,,,,,,,,,,,,0,0,0,0,0
5.4686,1783189669.0247,1,1,2.0000,0.0000,1.44679,0.18511,-2.78908,1.03312,1.57079,0.00004,-0.14511,-0.38001,0.03435,,,,,,,,,,,,,,,,,,,,,,,,,,0,0,0,0,0
5.4710,1783189669.0271,1,1,2.0000,0.0000,1.44679,0.18508,-2.78908,1.03317,1.57079,0.00004,-0.14511,-0.38001,0.03434,,,,,,,,,,,,,,,,,,,,,,,,,,0,0,0,0,0
5.4714,1783189669.0274,1,1,2.0000,0.0000,1.44679,0.18508,-2.78908,1.03317,1.57079,0.00004,-0.14511,-0.38001,0.03434,,,,,,,,,,,,,,,,,,,,,,,,,,0,0,0,0,0
5.4804,1783189669.0365,1,1,2.0000,0.0000,1.44679,0.18496,-2.78911,1.03331,1.57079,0.00004,-0.14511,-0.38001,0.03432,,,,,,,,,,,,,,,,,,,,,,,,,,0,0,0,0,0
5.4807,1783189669.0368,1,1,2.0000,0.0000,1.44679,0.18496,-2.78911,1.03331,1.57079,0.00004,-0.14511,-0.38001,0.03432,,,,,,,,,,,,,,,,,,,,,,,,,,0,0,0,0,0
5.4934,1783189669.0495,1,1,2.0000,0.0000,1.44679,0.18474,-2.78916,1.03358,1.57079,0.00004,-0.14511,-0.38001,0.03426,,,,,,,,,,,,,,,,,,,,,,,,,,0,0,0,0,0
5.5002,1783189669.0563,1,1,2.0000,0.0000,1.44679,0.18473,-2.78916,1.03359,1.57079,0.00004,-0.14511,-0.38001,0.03426,,,,,,,,,,,,,,,,,,,,,,,,,,0,0,0,0,0
5.5006,1783189669.0567,1,1,2.0000,0.0000,1.44679,0.18473,-2.78916,1.03359,1.57079,0.00004,-0.14511,-0.38001,0.03426,,,,,,,,,,,,,,,,,,,,,,,,,,0,0,0,0,0
5.5115,1783189669.0676,1,1,2.0000,0.0000,1.44679,0.18458,-2.78920,1.03378,1.57079,0.00004,-0.14511,-0.38001,0.03422,,,,,,,,,,,,,,,,,,,,,,,,,,0,0,0,0,0
5.5271,1783189669.0832,1,1,2.0000,0.0000,1.44679,0.18436,-2.78924,1.03404,1.57079,0.00004,-0.14511,-0.38001,0.03417,,,,,,,,,,,,,,,,,,,,,,,,,,0,0,0,0,0
5.5318,1783189669.0878,1,1,2.0000,0.0000,1.44679,0.18436,-2.78924,1.03404,1.57079,0.00004,-0.14511,-0.38001,0.03417,,,,,,,,,,,,,,,,,,,,,,,,,,0,0,0,0,0
5.5410,1783189669.0971,1,1,2.0000,0.0000,1.44679,0.18431,-2.78925,1.03410,1.57079,0.00004,-0.14511,-0.38001,0.03416,,,,,,,,,,,,,,,,,,,,,,,,,,0,0,0,0,0
5.5412,1783189669.0973,1,1,2.0000,0.0000,1.44679,0.18431,-2.78925,1.03410,1.57079,0.00004,-0.14511,-0.38001,0.03416,,,,,,,,,,,,,,,,,,,,,,,,,,0,0,0,0,0
5.5523,1783189669.1084,1,1,2.0000,0.0000,1.44679,0.18423,-2.78927,1.03420,1.57079,0.00004,-0.14511,-0.38001,0.03414,,,,,,,,,,,,,,,,,,,,,,,,,,0,0,0,0,0
5.5736,1783189669.1297,1,1,2.0000,0.0000,1.44679,0.18403,-2.78932,1.03445,1.57079,0.00004,-0.14511,-0.38001,0.03409,,,,,,,,,,,,,,,,,,,,,,,,,,0,0,0,0,0
5.5739,1783189669.1300,1,1,2.0000,0.0000,1.44679,0.18403,-2.78932,1.03445,1.57079,0.00004,-0.14511,-0.38001,0.03409,,,,,,,,,,,,,,,,,,,,,,,,,,0,0,0,0,0
5.5805,1783189669.1366,1,1,2.0000,0.0000,1.44679,0.18389,-2.78935,1.03462,1.57079,0.00004,-0.14511,-0.38001,0.03405,,,,,,,,,,,,,,,,,,,,,,,,,,0,0,0,0,0
5.5809,1783189669.1369,1,1,2.0000,0.0000,1.44679,0.18389,-2.78935,1.03462,1.57079,0.00004,-0.14511,-0.38001,0.03405,,,,,,,,,,,,,,,,,,,,,,,,,,0,0,0,0,0
