Martins-Lucaas/twinforge/sensors/Data/20260713_153914__samples.csv
t_rel_s,t_unix,cycle,phase,setpoint_n,force_net_n,q1,q2,q3,q4,q5,q6,tcp_x,tcp_y,tcp_z,taxel_0,taxel_1,taxel_2,taxel_3,taxel_4,taxel_5,taxel_6,taxel_7,taxel_8,taxel_9,taxel_10,taxel_11,taxel_12,taxel_13,taxel_14,taxel_15,taxel_16,taxel_17,taxel_18,taxel_19,taxel_20,taxel_21,taxel_22,taxel_23,taxel_24,n_RA,n_SA,cn_mm,cn_ra,cn_sa
0.0016,1783967954.7016,0,-1,3.0000,-0.0000,1.42244,0.00071,-2.63046,1.05904,1.57084,0.11671,-0.12761,-0.48157,0.03741,,,,,,,,,,,,,,,,,,,,,,,,,,0,0,0,0,0
0.0024,1783967954.7024,0,-1,3.0000,-0.0000,1.42244,0.00071,-2.63046,1.05904,1.57084,0.11671,-0.12761,-0.48157,0.03741,,,,,,,,,,,,,,,,,,,,,,,,,,0,0,0,0,0
0.0027,1783967954.7027,0,-1,3.0000,-0.0000,1.42244,0.00071,-2.63046,1.05904,1.57084,0.11671,-0.12761,-0.48157,0.03741,,,,,,,,,,,,,,,,,,,,,,,,,,0,0,0,0,0
0.0082,1783967954.7081,1,0,3.0000,-0.0000,1.42244,0.00071,-2.63046,1.05904,1.57084,0.11671,-0.12761,-0.48157,0.03741,,,,,,,,,,,,,,,,,,,,,,,,,,0,0,0,0,0
0.0148,1783967954.7148,1,0,3.0000,-0.0000,1.42244,0.00071,-2.63046,1.05904,1.57084,0.11671,-0.12761,-0.48157,0.03741,,,,,,,,,,,,,,,,,,,,,,,,,,0,0,0,0,0
0.0194,1783967954.7193,1,0,3.0000,-0.0000,1.42244,0.00071,-2.63046,1.05904,1.57084,0.11671,-0.12761,-0.48157,0.03741,,,,,,,,,,,,,,,,,,,,,,,,,,0,0,0,0,0
0.0295,1783967954.7295,1,0,3.0000,-0.0000,1.42244,0.00071,-2.63046,1.05904,1.57084,0.11671,-0.12761,-0.48157,0.03741,,,,,,,,,,,,,,,,,,,,,,,,,,0,0,0,0,0
0.1066,1783967954.8066,1,0,3.0000,-0.0000,1.42244,0.00071,-2.63053,1.05907,1.57080,0.11675,-0.12764,-0.48152,0.03738,,,,,,,,,,,,,,,,,,,,,,,,,,0,0,0,0,0
0.1424,1783967954.8424,1,0,3.0000,-0.0000,1.42244,0.00071,-2.63053,1.05907,1.57080,0.11675,-0.12764,-0.48152,0.03738,,,,,,,,,,,,,,,,,,,,,,,,,,0,0,0,0,0
0.1465,1783967954.8465,1,0,3.0000,-0.0000,1.42244,0.00071,-2.63053,1.05907,1.57080,0.11675,-0.12764,-0.48152,0.03738,,,,,,,,,,,,,,,,,,,,,,,,,,0,0,0,0,0
0.1482,1783967954.8482,1,0,3.0000,-0.0000,1.42244,0.00071,-2.63053,1.05907,1.57080,0.11675,-0.12764,-0.48152,0.03738,,,,,,,,,,,,,,,,,,,,,,,,,,0,0,0,0,0
0.1487,1783967954.8487,1,0,3.0000,-0.0000,1.42244,0.00071,-2.63053,1.05907,1.57080,0.11675,-0.12764,-0.48152,0.03738,,,,,,,,,,,,,,,,,,,,,,,,,,0,0,0,0,0
0.1619,1783967954.8619,1,0,3.0000,-0.0000,1.42244,0.00071,-2.63053,1.05907,1.57080,0.11675,-0.12764,-0.48152,0.03738,,,,,,,,,,,,,,,,,,,,,,,,,,0,0,0,0,0
0.1807,1783967954.8807,1,0,3.0000,-0.0000,1.42244,0.00071,-2.63053,1.05907,1.57080,0.11675,-0.12764,-0.48152,0.03738,,,,,,,,,,,,,,,,,,,,,,,,,,0,0,0,0,0
0.1869,1783967954.8869,1,0,3.0000,-0.0000,1.42244,0.00071,-2.63053,1.05907,1.57080,0.11675,-0.12764,-0.48152,0.03738,,,,,,,,,,,,,,,,,,,,,,,,,,0,0,0,0,0
0.1891,1783967954.8891,1,0,3.0000,-0.0000,1.42244,0.00071,-2.63053,1.05907,1.57080,0.11675,-0.12764,-0.48152,0.03738,,,,,,,,,,,,,,,,,,,,,,,,,,0,0,0,0,0
0.2046,1783967954.9046,1,0,3.0000,-0.0000,1.42244,0.00071,-2.63053,1.05907,1.57080,0.11675,-0.12764,-0.48152,0.03738,,,,,,,,,,,,,,,,,,,,,,,,,,0,0,0,0,0
0.2060,1783967954.9060,1,0,3.0000,-0.0000,1.42244,0.00071,-2.63053,1.05907,1.57080,0.11675,-0.12764,-0.48152,0.03738,,,,,,,,,,,,,,,,,,,,,,,,,,0,0,0,0,0
0.2087,1783967954.9087,1,0,3.0000,-0.0000,1.42244,0.00071,-2.63053,1.05907,1.57080,0.11675,-0.12764,-0.48152,0.03738,,,,,,,,,,,,,,,,,,,,,,,,,,0,0,0,0,0
0.2122,1783967954.9122,1,0,3.0000,-0.0000,1.42244,0.00071,-2.63053,1.05907,1.57080,0.11675,-0.12764,-0.48152,0.03738,,,,,,,,,,,,,,,,,,,,,,,,,,0,0,0,0,0
0.2126,1783967954.9126,1,0,3.0000,-0.0000,1.42244,0.00071,-2.63053,1.05907,1.57080,0.11675,-0.12764,-0.48152,0.03738,,,,,,,,,,,,,,,,,,,,,,,,,,0,0,0,0,0
0.2220,1783967954.9220,1,0,3.0000,-0.0000,1.42244,0.00071,-2.63053,1.05907,1.57080,0.11675,-0.12764,-0.48152,0.03738,,,,,,,,,,,,,,,,,,,,,,,,,,0,0,0,0,0
0.2345,1783967954.9345,1,0,3.0000,-0.0000,1.42244,0.00071,-2.63053,1.05907,1.57080,0.11675,-0.12764,-0.48152,0.03738,,,,,,,,,,,,,,,,,,,,,,,,,,0,0,0,0,0
0.2489,1783967954.9489,1,0,3.0000,-0.0000,1.42244,0.00071,-2.63053,1.05907,1.57080,0.11675,-0.12764,-0.48152,0.03738,,,,,,,,,,,,,,,,,,,,,,,,,,0,0,0,0,0
0.2521,1783967954.9521,1,0,3.0000,-0.0000,1.42244,0.00071,-2.63053,1.05907,1.57080,0.11675,-0.12764,-0.48152,0.03738,,,,,,,,,,,,,,,,,,,,,,,,,,0,0,0,0,0
0.2525,1783967954.9524,1,0,3.0000,-0.0000,1.42244,0.00071,-2.63053,1.05907,1.57080,0.11675,-0.12764,-0.48152,0.03738,,,,,,,,,,,,,,,,,,,,,,,,,,0,0,0,0,0
0.2648,1783967954.9648,1,0,3.0000,-0.0000,1.42244,0.00071,-2.63053,1.05907,1.57080,0.11675,-0.12764,-0.48152,0.03738,,,,,,,,,,,,,,,,,,,,,,,,,,0,0,0,0,0
0.2661,1783967954.9660,1,0,3.0000,-0.0000,1.42244,0.00071,-2.63053,1.05907,1.57080,0.11675,-0.12764,-0.48152,0.03738,,,,,,,,,,,,,,,,,,,,,,,,,,0,0,0,0,0
0.2664,1783967954.9664,1,0,3.0000,-0.0000,1.42244,0.00071,-2.63053,1.05907,1.57080,0.11675,-0.12764,-0.48152,0.03738,,,,,,,,,,,,,,,,,,,,,,,,,,0,0,0,0,0
0.2676,1783967954.9676,1,0,3.0000,-0.0000,1.42244,0.00071,-2.63053,1.05907,1.57080,0.11675,-0.12764,-0.48152,0.03738,,,,,,,,,,,,,,,,,,,,,,,,,,0,0,0,0,0
0.2679,1783967954.9678,1,0,3.0000,-0.0000,1.42244,0.00071,-2.63053,1.05907,1.57080,0.11675,-0.12764,-0.48152,0.03738,,,,,,,,,,,,,,,,,,,,,,,,,,0,0,0,0,0
0.2712,1783967954.9712,1,0,3.0000,-0.0000,1.42244,0.00071,-2.63053,1.05907,1.57080,0.11675,-0.12764,-0.48152,0.03738,,,,,,,,,,,,,,,,,,,,,,,,,,0,0,0,0,0
0.2769,1783967954.9769,1,0,3.0000,-0.0000,1.42244,0.00071,-2.63053,1.05907,1.57080,0.11675,-0.12764,-0.48152,0.03738,,,,,,,,,,,,,,,,,,,,,,,,,,0,0,0,0,0
0.2775,1783967954.9775,1,0,3.0000,-0.0000,1.42244,0.00071,-2.63053,1.05907,1.57080,0.11675,-0.12764,-0.48152,0.03738,,,,,,,,,,,,,,,,,,,,,,,,,,0,0,0,0,0
0.2794,1783967954.9794,1,0,3.0000,-0.0000,1.42244,0.00071,-2.63053,1.05907,1.57080,0.11675,-0.12764,-0.48152,0.03738,,,,,,,,,,,,,,,,,,,,,,,,,,0,0,0,0,0
0.2798,1783967954.9797,1,0,3.0000,-0.0000,1.42244,0.00071,-2.63053,1.05907,1.57080,0.11675,-0.12764,-0.48152,0.03738,,,,,,,,,,,,,,,,,,,,,,,,,,0,0,0,0,0
0.2808,1783967954.9808,1,0,3.0000,-0.0000,1.42244,0.00071,-2.63053,1.05907,1.57080,0.11675,-0.12764,-0.48152,0.03738,,,,,,,,,,,,,,,,,,,,,,,,,,0,0,0,0,0
0.2815,1783967954.9815,1,0,3.0000,-0.0000,1.42244,0.00071,-2.63053,1.05907,1.57080,0.11675,-0.12764,-0.48152,0.03738,,,,,,,,,,,,,,,,,,,,,,,,,,0,0,0,0,0
0.2819,1783967954.9819,1,0,3.0000,-0.0000,1.42244,0.00071,-2.63053,1.05907,1.57080,0.11675,-0.12764,-0.48152,0.03738,,,,,,,,,,,,,,,,,,,,,,,,,,0,0,0,0,0
0.2822,1783967954.9821,1,0,3.0000,-0.0000,1.42244,0.00071,-2.63053,1.05907,1.57080,0.11675,-0.12764,-0.48152,0.03738,,,,,,,,,,,,,,,,,,,,,,,,,,0,0,0,0,0
0.2863,1783967954.9863,1,0,3.0000,-0.0000,1.42244,0.00071,-2.63053,1.05907,1.57080,0.11675,-0.12764,-0.48152,0.03738,,,,,,,,,,,,,,,,,,,,,,,,,,0,0,0,0,0
0.2866,1783967954.9866,1,0,3.0000,-0.0000,1.42244,0.00071,-2.63053,1.05907,1.57080,0.11675,-0.12764,-0.48152,0.03738,,,,,,,,,,,,,,,,,,,,,,,,,,0,0,0,0,0
0.2969,1783967954.9969,1,0,3.0000,-0.0000,1.42244,0.00071,-2.63053,1.05907,1.57080,0.11675,-0.12764,-0.48152,0.03738,,,,,,,,,,,,,,,,,,,,,,,,,,0,0,0,0,0
0.3112,1783967955.0112,1,0,3.0000,-0.0000,1.42244,0.00071,-2.63053,1.05907,1.57080,0.11675,-0.12764,-0.48152,0.03738,,,,,,,,,,,,,,,,,,,,,,,,,,0,0,0,0,0
0.3305,1783967955.0305,1,0,3.0000,-0.0000,1.42244,0.00071,-2.63053,1.05907,1.57080,0.11675,-0.12764,-0.48152,0.03738,,,,,,,,,,,,,,,,,,,,,,,,,,0,0,0,0,0
0.3357,1783967955.0357,1,0,3.0000,-0.0000,1.42244,0.00071,-2.63053,1.05907,1.57080,0.11675,-0.12764,-0.48152,0.03738,,,,,,,,,,,,,,,,,,,,,,,,,,0,0,0,0,0
0.3386,1783967955.0386,1,0,3.0000,-0.0000,1.42244,0.00071,-2.63053,1.05907,1.57080,0.11675,-0.12764,-0.48152,0.03738,,,,,,,,,,,,,,,,,,,,,,,,,,0,0,0,0,0
0.3459,1783967955.0458,1,0,3.0000,-0.0000,1.42244,0.00071,-2.63053,1.05907,1.57080,0.11675,-0.12764,-0.48152,0.03738,,,,,,,,,,,,,,,,,,,,,,,,,,0,0,0,0,0
0.3462,1783967955.0462,1,0,3.0000,-0.0000,1.42244,0.00071,-2.63053,1.05907,1.57080,0.11675,-0.12764,-0.48152,0.03738,,,,,,,,,,,,,,,,,,,,,,,,,,0,0,0,0,0
0.3559,1783967955.0559,1,0,3.0000,-0.0000,1.42244,0.00071,-2.63053,1.05907,1.57080,0.11675,-0.12764,-0.48152,0.03738,,,,,,,,,,,,,,,,,,,,,,,,,,0,0,0,0,0
0.3685,1783967955.0685,1,0,3.0000,-0.0000,1.42244,0.00071,-2.63053,1.05907,1.57080,0.11675,-0.12764,-0.48152,0.03738,,,,,,,,,,,,,,,,,,,,,,,,,,0,0,0,0,0
0.3742,1783967955.0742,1,0,3.0000,-0.0000,1.42244,0.00071,-2.63053,1.05907,1.57080,0.11675,-0.12764,-0.48152,0.03738,,,,,,,,,,,,,,,,,,,,,,,,,,0,0,0,0,0
0.3916,1783967955.0916,1,0,3.0000,-0.0000,1.42244,0.00071,-2.63053,1.05907,1.57080,0.11675,-0.12764,-0.48152,0.03738,,,,,,,,,,,,,,,,,,,,,,,,,,0,0,0,0,0
0.3921,1783967955.0920,1,0,3.0000,-0.0000,1.42244,0.00071,-2.63053,1.05907,1.57080,0.11675,-0.12764,-0.48152,0.03738,,,,,,,,,,,,,,,,,,,,,,,,,,0,0,0,0,0
0.4072,1783967955.1071,1,0,3.0000,-0.0000,1.42244,0.00071,-2.63053,1.05907,1.57080,0.11675,-0.12764,-0.48152,0.03738,,,,,,,,,,,,,,,,,,,,,,,,,,0,0,0,0,0
0.4109,1783967955.1109,1,0,3.0000,-0.0000,1.42244,0.00071,-2.63053,1.05907,1.57080,0.11675,-0.12764,-0.48152,0.03738,,,,,,,,,,,,,,,,,,,,,,,,,,0,0,0,0,0
0.4230,1783967955.1230,1,0,3.0000,-0.0000,1.42244,0.00071,-2.63053,1.05907,1.57080,0.11675,-0.12764,-0.48152,0.03738,,,,,,,,,,,,,,,,,,,,,,,,,,0,0,0,0,0
0.4252,1783967955.1252,1,0,3.0000,-0.0000,1.42244,0.00071,-2.63053,1.05907,1.57080,0.11675,-0.12764,-0.48152,0.03738,,,,,,,,,,,,,,,,,,,,,,,,,,0,0,0,0,0
0.4258,1783967955.1257,1,0,3.0000,-0.0000,1.42244,0.00071,-2.63053,1.05907,1.57080,0.11675,-0.12764,-0.48152,0.03738,,,,,,,,,,,,,,,,,,,,,,,,,,0,0,0,0,0
0.4356,1783967955.1356,1,0,3.0000,-0.0000,1.42244,0.00071,-2.63053,1.05907,1.57080,0.11675,-0.12764,-0.48152,0.03738,,,,,,,,,,,,,,,,,,,,,,,,,,0,0,0,0,0
0.4495,1783967955.1495,1,0,3.0000,-0.0000,1.42244,0.00071,-2.63053,1.05907,1.57080,0.11675,-0.12764,-0.48152,0.03738,,,,,,,,,,,,,,,,,,,,,,,,,,0,0,0,0,0
0.4607,1783967955.1606,1,0,3.0000,-0.0000,1.42244,0.00071,-2.63053,1.05907,1.57080,0.11675,-0.12764,-0.48152,0.03738,,,,,,,,,,,,,,,,,,,,,,,,,,0,0,0,0,0
0.4659,1783967955.1659,1,0,3.0000,-0.0000,1.42244,0.00071,-2.63053,1.05907,1.57080,0.11675,-0.12764,-0.48152,0.03738,,,,,,,,,,,,,,,,,,,,,,,,,,0,0,0,0,0
0.4662,1783967955.1662,1,0,3.0000,-0.0000,1.42244,0.00071,-2.63053,1.05907,1.57080,0.11675,-0.12764,-0.48152,0.03738,,,,,,,,,,,,,,,,,,,,,,,,,,0,0,0,0,0
0.4779,1783967955.1778,1,0,3.0000,-0.0000,1.42244,0.00071,-2.63053,1.05907,1.57080,0.11675,-0.12764,-0.48152,0.03738,,,,,,,,,,,,,,,,,,,,,,,,,,0,0,0,0,0
0.4880,1783967955.1879,1,0,3.0000,-0.0000,1.42244,0.00071,-2.63053,1.05907,1.57080,0.11675,-0.12764,-0.48152,0.03738,,,,,,,,,,,,,,,,,,,,,,,,,,0,0,0,0,0
0.5023,1783967955.2022,1,0,3.0000,-0.0000,1.42244,0.00071,-2.63053,1.05907,1.57080,0.11675,-0.12764,-0.48152,0.03738,,,,,,,,,,,,,,,,,,,,,,,,,,0,0,0,0,0
0.5114,1783967955.2114,1,0,3.0000,-0.0000,1.42244,0.00071,-2.63053,1.05907,1.57080,0.11675,-0.12764,-0.48152,0.03738,,,,,,,,,,,,,,,,,,,,,,,,,,0,0,0,0,0
0.5139,1783967955.2139,1,0,3.0000,-0.0000,1.42244,0.00071,-2.63053,1.05907,1.57080,0.11675,-0.12764,-0.48152,0.03738,,,,,,,,,,,,,,,,,,,,,,,,,,0,0,0,0,0
0.5143,1783967955.2143,1,0,3.0000,-0.0000,1.42244,0.00071,-2.63053,1.05907,1.57080,0.11675,-0.12764,-0.48152,0.03738,,,,,,,,,,,,,,,,,,,,,,,,,,0,0,0,0,0
0.5258,1783967955.2258,1,0,3.0000,-0.0000,1.42244,0.00071,-2.63053,1.05907,1.57080,0.11675,-0.12764,-0.48152,0.03738,,,,,,,,,,,,,,,,,,,,,,,,,,0,0,0,0,0
0.5421,1783967955.2421,1,0,3.0000,-0.0000,1.42244,0.00071,-2.63053,1.05907,1.57080,0.11675,-0.12764,-0.48152,0.03738,,,,,,,,,,,,,,,,,,,,,,,,,,0,0,0,0,0
0.5437,1783967955.2437,1,0,3.0000,-0.0000,1.42244,0.00071,-2.63053,1.05907,1.57080,0.11675,-0.12764,-0.48152,0.03738,,,,,,,,,,,,,,,,,,,,,,,,,,0,0,0,0,0
0.5440,1783967955.2440,1,0,3.0000,-0.0000,1.42244,0.00071,-2.63053,1.05907,1.57080,0.11675,-0.12764,-0.48152,0.03738,,,,,,,,,,,,,,,,,,,,,,,,,,0,0,0,0,0
0.5674,1783967955.2674,1,0,3.0000,-0.0000,1.42244,0.00071,-2.63053,1.05907,1.57080,0.11675,-0.12764,-0.48152,0.03738,,,,,,,,,,,,,,,,,,,,,,,,,,0,0,0,0,0
0.5760,1783967955.2760,1,0,3.0000,-0.0000,1.42244,0.00071,-2.63053,1.05907,1.57080,0.11675,-0.12764,-0.48152,0.03738,,,,,,,,,,,,,,,,,,,,,,,,,,0,0,0,0,0
0.5763,1783967955.2763,1,0,3.0000,-0.0000,1.42244,0.00071,-2.63053,1.05907,1.57080,0.11675,-0.12764,-0.48152,0.03738,,,,,,,,,,,,,,,,,,,,,,,,,,0,0,0,0,0
0.5767,1783967955.2766,1,0,3.0000,-0.0000,1.42244,0.00071,-2.63053,1.05907,1.57080,0.11675,-0.12764,-0.48152,0.03738,,,,,,,,,,,,,,,,,,,,,,,,,,0,0,0,0,0
0.5844,1783967955.2844,1,0,3.0000,-0.0000,1.42244,0.00071,-2.63053,1.05907,1.57080,0.11675,-0.12764,-0.48152,0.03738,,,,,,,,,,,,,,,,,,,,,,,,,,0,0,0,0,0
0.5972,1783967955.2971,1,0,3.0000,-0.0000,1.42244,0.00071,-2.63053,1.05907,1.57080,0.11675,-0.12764,-0.48152,0.03738,,,,,,,,,,,,,,,,,,,,,,,,,,0,0,0,0,0
0.6095,1783967955.3095,1,0,3.0000,-0.0000,1.42244,0.00071,-2.63053,1.05907,1.57080,0.11675,-0.12764,-0.48152,0.03738,,,,,,,,,,,,,,,,,,,,,,,,,,0,0,0,0,0
0.6196,1783967955.3195,1,0,3.0000,-0.0000,1.42244,0.00071,-2.63053,1.05907,1.57080,0.11675,-0.12764,-0.48152,0.03738,,,,,,,,,,,,,,,,,,,,,,,,,,0,0,0,0,0
0.6238,1783967955.3238,1,0,3.0000,-0.0000,1.42244,0.00071,-2.63053,1.05907,1.57080,0.11675,-0.12764,-0.48152,0.03738,,,,,,,,,,,,,,,,,,,,,,,,,,0,0,0,0,0
0.6242,1783967955.3241,1,0,3.0000,-0.0000,1.42244,0.00071,-2.63053,1.05907,1.57080,0.11675,-0.12764,-0.48152,0.03738,,,,,,,,,,,,,,,,,,,,,,,,,,0,0,0,0,0
0.6463,1783967955.3463,1,0,3.0000,-0.0000,1.42244,0.00071,-2.63053,1.05907,1.57080,0.11675,-0.12764,-0.48152,0.03738,,,,,,,,,,,,,,,,,,,,,,,,,,0,0,0,0,0
0.6468,1783967955.3468,1,0,3.0000,-0.0000,1.42244,0.00071,-2.63053,1.05907,1.57080,0.11675,-0.12764,-0.48152,0.03738,,,,,,,,,,,,,,,,,,,,,,,,,,0,0,0,0,0
0.6471,1783967955.3471,1,0,3.0000,-0.0000,1.42244,0.00071,-2.63053,1.05907,1.57080,0.11675,-0.12764,-0.48152,0.03738,,,,,,,,,,,,,,,,,,,,,,,,,,0,0,0,0,0
0.6584,1783967955.3583,1,0,3.0000,-0.0000,1.42244,0.00071,-2.63053,1.05907,1.57080,0.11675,-0.12764,-0.48152,0.03738,,,,,,,,,,,,,,,,,,,,,,,,,,0,0,0,0,0
0.6713,1783967955.3713,1,0,3.0000,-0.0000,1.42244,0.00071,-2.63053,1.05907,1.57080,0.11675,-0.12764,-0.48152,0.03738,,,,,,,,,,,,,,,,,,,,,,,,,,0,0,0,0,0
0.6744,1783967955.3743,1,0,3.0000,-0.0000,1.42244,0.00071,-2.63053,1.05907,1.57080,0.11675,-0.12764,-0.48152,0.03738,,,,,,,,,,,,,,,,,,,,,,,,,,0,0,0,0,0
0.6861,1783967955.3860,1,0,3.0000,-0.0000,1.42244,0.00071,-2.63053,1.05907,1.57080,0.11675,-0.12764,-0.48152,0.03738,,,,,,,,,,,,,,,,,,,,,,,,,,0,0,0,0,0
0.6962,1783967955.3962,1,0,3.0000,-0.0000,1.42244,0.00071,-2.63053,1.05907,1.57080,0.11675,-0.12764,-0.48152,0.03738,,,,,,,,,,,,,,,,,,,,,,,,,,0,0,0,0,0
0.7057,1783967955.4057,1,0,3.0000,-0.0000,1.42244,0.00071,-2.63053,1.05907,1.57080,0.11675,-0.12764,-0.48152,0.03738,,,,,,,,,,,,,,,,,,,,,,,,,,0,0,0,0,0
0.7223,1783967955.4222,1,0,3.0000,-0.0000,1.42244,0.00071,-2.63053,1.05907,1.57080,0.11675,-0.12764,-0.48152,0.03738,,,,,,,,,,,,,,,,,,,,,,,,,,0,0,0,0,0
0.7401,1783967955.4401,1,1,3.0000,-0.0000,1.42244,0.00071,-2.63053,1.05907,1.57080,0.11675,-0.12764,-0.48152,0.03738,,,,,,,,,,,,,,,,,,,,,,,,,,0,0,0,0,0
0.7425,1783967955.4425,1,1,3.0000,-0.0000,1.42244,0.00071,-2.63053,1.05907,1.57080,0.11675,-0.12764,-0.48152,0.03738,,,,,,,,,,,,,,,,,,,,,,,,,,0,0,0,0,0
0.7659,1783967955.4659,1,1,3.0000,-0.0000,1.42244,0.00071,-2.63053,1.05907,1.57080,0.11675,-0.12764,-0.48152,0.03738,,,,,,,,,,,,,,,,,,,,,,,,,,0,0,0,0,0
0.7765,1783967955.4765,1,1,3.0000,-0.0000,1.42244,0.00071,-2.63053,1.05907,1.57080,0.11675,-0.12764,-0.48152,0.03738,,,,,,,,,,,,,,,,,,,,,,,,,,0,0,0,0,0
0.7768,1783967955.4768,1,1,3.0000,-0.0000,1.42244,0.00071,-2.63053,1.05907,1.57080,0.11675,-0.12764,-0.48152,0.03738,,,,,,,,,,,,,,,,,,,,,,,,,,0,0,0,0,0
0.7843,1783967955.4842,1,1,3.0000,-0.0000,1.42244,0.00071,-2.63053,1.05907,1.57080,0.11675,-0.12764,-0.48152,0.03738,,,,,,,,,,,,,,,,,,,,,,,,,,0,0,0,0,0
0.7861,1783967955.4861,1,1,3.0000,-0.0000,1.42244,0.00071,-2.63053,1.05907,1.57080,0.11675,-0.12764,-0.48152,0.03738,,,,,,,,,,,,,,,,,,,,,,,,,,0,0,0,0,0
0.7865,1783967955.4865,1,1,3.0000,-0.0000,1.42244,0.00071,-2.63053,1.05907,1.57080,0.11675,-0.12764,-0.48152,0.03738,,,,,,,,,,,,,,,,,,,,,,,,,,0,0,0,0,0
0.7967,1783967955.4966,1,1,3.0000,-0.0000,1.42244,0.00071,-2.63053,1.05907,1.57080,0.11675,-0.12764,-0.48152,0.03738,,,,,,,,,,,,,,,,,,,,,,,,,,0,0,0,0,0
0.8080,1783967955.5079,1,1,3.0000,-0.0000,1.42244,0.00071,-2.63053,1.05907,1.57080,0.11675,-0.12764,-0.48152,0.03738,,,,,,,,,,,,,,,,,,,,,,,,,,0,0,0,0,0
0.8166,1783967955.5166,1,1,3.0000,-0.0000,1.42244,0.00071,-2.63053,1.05907,1.57080,0.11675,-0.12764,-0.48152,0.03738,,,,,,,,,,,,,,,,,,,,,,,,,,0,0,0,0,0
0.8259,1783967955.5259,1,1,3.0000,-0.0000,1.42244,0.00071,-2.63053,1.05907,1.57080,0.11675,-0.12764,-0.48152,0.03738,,,,,,,,,,,,,,,,,,,,,,,,,,0,0,0,0,0
0.8262,1783967955.5262,1,1,3.0000,-0.0000,1.42244,0.00071,-2.63053,1.05907,1.57080,0.11675,-0.12764,-0.48152,0.03738,,,,,,,,,,,,,,,,,,,,,,,,,,0,0,0,0,0
0.8495,1783967955.5495,1,1,3.0000,-0.0000,1.42244,0.00071,-2.63053,1.05907,1.57080,0.11675,-0.12764,-0.48152,0.03738,,,,,,,,,,,,,,,,,,,,,,,,,,0,0,0,0,0
0.8497,1783967955.5497,1,1,3.0000,-0.0000,1.42244,0.00071,-2.63053,1.05907,1.57080,0.11675,-0.12764,-0.48152,0.03738,,,,,,,,,,,,,,,,,,,,,,,,,,0,0,0,0,0
0.8500,1783967955.5500,1,1,3.0000,-0.0000,1.42244,0.00071,-2.63053,1.05907,1.57080,0.11675,-0.12764,-0.48152,0.03738,,,,,,,,,,,,,,,,,,,,,,,,,,0,0,0,0,0
0.8583,1783967955.5582,1,1,3.0000,-0.0000,1.42244,0.00071,-2.63053,1.05907,1.57080,0.11675,-0.12764,-0.48152,0.03738,,,,,,,,,,,,,,,,,,,,,,,,,,0,0,0,0,0
0.8585,1783967955.5585,1,1,3.0000,-0.0000,1.42244,0.00071,-2.63053,1.05907,1.57080,0.11675,-0.12764,-0.48152,0.03738,,,,,,,,,,,,,,,,,,,,,,,,,,0,0,0,0,0
0.8671,1783967955.5670,1,1,3.0000,-0.0000,1.42244,0.00071,-2.63053,1.05907,1.57080,0.11675,-0.12764,-0.48152,0.03738,,,,,,,,,,,,,,,,,,,,,,,,,,0,0,0,0,0
0.8762,1783967955.5762,1,1,3.0000,-0.0000,1.42244,0.00071,-2.63053,1.05907,1.57080,0.11675,-0.12764,-0.48152,0.03738,,,,,,,,,,,,,,,,,,,,,,,,,,0,0,0,0,0
0.8876,1783967955.5876,1,1,3.0000,-0.0000,1.42244,0.00071,-2.63053,1.05907,1.57080,0.11675,-0.12764,-0.48152,0.03738,,,,,,,,,,,,,,,,,,,,,,,,,,0,0,0,0,0
0.9019,1783967955.6019,1,1,3.0000,-0.0000,1.42244,0.00071,-2.63053,1.05907,1.57080,0.11675,-0.12764,-0.48152,0.03738,,,,,,,,,,,,,,,,,,,,,,,,,,0,0,0,0,0
0.9042,1783967955.6042,1,1,3.0000,-0.0000,1.42244,0.00071,-2.63053,1.05907,1.57080,0.11675,-0.12764,-0.48152,0.03738,,,,,,,,,,,,,,,,,,,,,,,,,,0,0,0,0,0
0.9045,1783967955.6045,1,1,3.0000,-0.0000,1.42244,0.00071,-2.63053,1.05907,1.57080,0.11675,-0.12764,-0.48152,0.03738,,,,,,,,,,,,,,,,,,,,,,,,,,0,0,0,0,0
0.9181,1783967955.6181,1,1,3.0000,-0.0000,1.42244,0.00071,-2.63053,1.05907,1.57080,0.11675,-0.12764,-0.48152,0.03738,,,,,,,,,,,,,,,,,,,,,,,,,,0,0,0,0,0
0.9274,1783967955.6274,1,1,3.0000,-0.0000,1.42244,0.00071,-2.63053,1.05907,1.57080,0.11675,-0.12764,-0.48152,0.03738,,,,,,,,,,,,,,,,,,,,,,,,,,0,0,0,0,0
0.9395,1783967955.6395,1,1,3.0000,-0.0000,1.42244,0.00071,-2.63053,1.05907,1.57080,0.11675,-0.12764,-0.48152,0.03738,,,,,,,,,,,,,,,,,,,,,,,,,,0,0,0,0,0
0.9465,1783967955.6465,1,1,3.0000,-0.0000,1.42244,0.00071,-2.63053,1.05907,1.57080,0.11675,-0.12764,-0.48152,0.03738,,,,,,,,,,,,,,,,,,,,,,,,,,0,0,0,0,0
0.9618,1783967955.6618,1,1,3.0000,-0.0000,1.42244,0.00071,-2.63053,1.05907,1.57080,0.11675,-0.12764,-0.48152,0.03738,,,,,,,,,,,,,,,,,,,,,,,,,,0,0,0,0,0
0.9694,1783967955.6694,1,1,3.0000,-0.0000,1.42244,0.00071,-2.63053,1.05907,1.57080,0.11675,-0.12764,-0.48152,0.03738,,,,,,,,,,,,,,,,,,,,,,,,,,0,0,0,0,0
0.9797,1783967955.6797,1,1,3.0000,-0.0000,1.42244,0.00071,-2.63053,1.05907,1.57080,0.11675,-0.12764,-0.48152,0.03738,,,,,,,,,,,,,,,,,,,,,,,,,,0,0,0,0,0
0.9864,1783967955.6863,1,1,3.0000,-0.0000,1.42244,0.00071,-2.63053,1.05907,1.57080,0.11675,-0.12764,-0.48152,0.03738,,,,,,,,,,,,,,,,,,,,,,,,,,0,0,0,0,0
0.9965,1783967955.6964,1,1,3.0000,-0.0000,1.42244,0.00071,-2.63053,1.05907,1.57080,0.11675,-0.12764,-0.48152,0.03738,,,,,,,,,,,,,,,,,,,,,,,,,,0,0,0,0,0
1.0069,1783967955.7069,1,1,3.0000,-0.0000,1.42244,0.00071,-2.63053,1.05907,1.57080,0.11675,-0.12764,-0.48152,0.03738,,,,,,,,,,,,,,,,,,,,,,,,,,0,0,0,0,0
1.0177,1783967955.7177,1,1,3.0000,-0.0000,1.42244,0.00071,-2.63053,1.05907,1.57080,0.11675,-0.12764,-0.48152,0.03738,,,,,,,,,,,,,,,,,,,,,,,,,,0,0,0,0,0
1.0180,1783967955.7180,1,1,3.0000,-0.0000,1.42244,0.00071,-2.63053,1.05907,1.57080,0.11675,-0.12764,-0.48152,0.03738,,,,,,,,,,,,,,,,,,,,,,,,,,0,0,0,0,0
1.0268,1783967955.7268,1,1,3.0000,-0.0000,1.42244,0.00071,-2.63054,1.05907,1.57080,0.11675,-0.12764,-0.48152,0.03738,,,,,,,,,,,,,,,,,,,,,,,,,,0,0,0,0,0
1.0406,1783967955.7406,1,1,3.0000,-0.0000,1.42244,0.00069,-2.63055,1.05907,1.57080,0.11675,-0.12764,-0.48150,0.03736,,,,,,,,,,,,,,,,,,,,,,,,,,0,0,0,0,0
1.0468,1783967955.7467,1,1,3.0000,-0.0000,1.42244,0.00068,-2.63058,1.05907,1.57080,0.11675,-0.12764,-0.48149,0.03735,,,,,,,,,,,,,,,,,,,,,,,,,,0,0,0,0,0
1.0577,1783967955.7576,1,1,3.0000,-0.0000,1.42244,0.00067,-2.63058,1.05907,1.57080,0.11675,-0.12764,-0.48148,0.03734,,,,,,,,,,,,,,,,,,,,,,,,,,0,0,0,0,0
1.0727,1783967955.7727,1,1,3.0000,-0.0000,1.42244,0.00063,-2.63062,1.05909,1.57080,0.11675,-0.12765,-0.48145,0.03731,,,,,,,,,,,,,,,,,,,,,,,,,,0,0,0,0,0
1.0802,1783967955.7802,1,1,3.0000,-0.0000,1.42244,0.00062,-2.63062,1.05909,1.57080,0.11675,-0.12765,-0.48145,0.03730,,,,,,,,,,,,,,,,,,,,,,,,,,0,0,0,0,0
1.0805,1783967955.7805,1,1,3.0000,-0.0000,1.42244,0.00062,-2.63062,1.05909,1.57080,0.11675,-0.12765,-0.48145,0.03730,,,,,,,,,,,,,,,,,,,,,,,,,,0,0,0,0,0
1.0870,1783967955.7870,1,1,3.0000,-0.0000,1.42244,0.00060,-2.63064,1.05911,1.57080,0.11675,-0.12765,-0.48144,0.03729,,,,,,,,,,,,,,,,,,,,,,,,,,0,0,0,0,0
1.0954,1783967955.7954,1,1,3.0000,-0.0000,1.42244,0.00055,-2.63066,1.05914,1.57080,0.11675,-0.12765,-0.48142,0.03726,,,,,,,,,,,,,,,,,,,,,,,,,,0,0,0,0,0
1.1065,1783967955.8064,1,1,3.0000,-0.0000,1.42244,0.00047,-2.63070,1.05920,1.57080,0.11675,-0.12765,-0.48140,0.03721,,,,,,,,,,,,,,,,,,,,,,,,,,0,0,0,0,0
1.1314,1783967955.8313,1,1,3.0000,-0.0000,1.42244,0.00038,-2.63072,1.05930,1.57080,0.11675,-0.12765,-0.48139,0.03718,,,,,,,,,,,,,,,,,,,,,,,,,,0,0,0,0,0
1.1317,1783967955.8317,1,1,3.0000,-0.0000,1.42244,0.00038,-2.63072,1.05930,1.57080,0.11675,-0.12765,-0.48139,0.03718,,,,,,,,,,,,,,,,,,,,,,,,,,0,0,0,0,0
1.1399,1783967955.8399,1,1,3.0000,-0.0000,1.42244,0.00030,-2.63074,1.05939,1.57080,0.11675,-0.12765,-0.48139,0.03716,,,,,,,,,,,,,,,,,,,,,,,,,,0,0,0,0,0
1.1404,1783967955.8403,1,1,3.0000,-0.0000,1.42244,0.00030,-2.63074,1.05939,1.57080,0.11675,-0.12765,-0.48139,0.03716,,,,,,,,,,,,,,,,,,,,,,,,,,0,0,0,0,0
1.1615,1783967955.8615,1,1,3.0000,-0.0000,1.42244,0.00018,-2.63076,1.05954,1.57080,0.11675,-0.12765,-0.48140,0.03712,,,,,,,,,,,,,,,,,,,,,,,,,,0,0,0,0,0
1.1666,1783967955.8665,1,1,3.0000,-0.0000,1.42244,0.00018,-2.63076,1.05954,1.57080,0.11675,-0.12765,-0.48140,0.03712,,,,,,,,,,,,,,,,,,,,,,,,,,0,0,0,0,0
1.1691,1783967955.8690,1,1,3.0000,-0.0000,1.42244,0.00018,-2.63076,1.05954,1.57080,0.11675,-0.12765,-0.48140,0.03712,,,,,,,,,,,,,,,,,,,,,,,,,,0,0,0,0,0
1.1697,1783967955.8697,1,1,3.0000,-0.0000,1.42244,0.00017,-2.63076,1.05954,1.57080,0.11675,-0.12765,-0.48140,0.03711,,,,,,,,,,,,,,,,,,,,,,,,,,0,0,0,0,0
1.1742,1783967955.8742,1,1,3.0000,-0.0000,1.42244,0.00015,-2.63076,1.05957,1.57080,0.11675,-0.12765,-0.48140,0.03711,,,,,,,,,,,,,,,,,,,,,,,,,,0,0,0,0,0
1.1841,1783967955.8841,1,1,3.0000,-0.0000,1.42244,0.00009,-2.63077,1.05965,1.57080,0.11675,-0.12765,-0.48140,0.03709,,,,,,,,,,,,,,,,,,,,,,,,,,0,0,0,0,0
1.1963,1783967955.8963,1,1,3.0000,-0.0000,1.42244,-0.00006,-2.63079,1.05983,1.57080,0.11675,-0.12765,-0.48141,0.03705,,,,,,,,,,,,,,,,,,,,,,,,,,0,0,0,0,0
1.2194,1783967955.9193,1,1,3.0000,-0.0000,1.42244,-0.00016,-2.63079,1.05996,1.57080,0.11675,-0.12765,-0.48143,0.03702,,,,,,,,,,,,,,,,,,,,,,,,,,0,0,0,0,0
1.2367,1783967955.9366,1,1,3.0000,-0.0000,1.42244,-0.00031,-2.63079,1.06017,1.57080,0.11675,-0.12764,-0.48147,0.03699,,,,,,,,,,,,,,,,,,,,,,,,,,0,0,0,0,0
1.2377,1783967955.9377,1,1,3.0000,-0.0000,1.42244,-0.00035,-2.63078,1.06022,1.57080,0.11675,-0.12764,-0.48148,0.03699,,,,,,,,,,,,,,,,,,,,,,,,,,0,0,0,0,0
1.2380,1783967955.9380,1,1,3.0000,-0.0000,1.42244,-0.00035,-2.63078,1.06022,1.57080,0.11675,-0.12764,-0.48148,0.03699,,,,,,,,,,,,,,,,,,,,,,,,,,0,0,0,0,0
1.2466,1783967955.9466,1,1,3.0000,-0.0000,1.42244,-0.00041,-2.63077,1.06031,1.57080,0.11675,-0.12764,-0.48150,0.03698,,,,,,,,,,,,,,,,,,,,,,,,,,0,0,0,0,0
1.2575,1783967955.9575,1,1,3.0000,-0.0000,1.42244,-0.00047,-2.63074,1.06039,1.57080,0.11675,-0.12763,-0.48154,0.03698,,,,,,,,,,,,,,,,,,,,,,,,,,0,0,0,0,0
1.2735,1783967955.9734,1,1,3.0000,-0.0000,1.42244,-0.00047,-2.63074,1.06039,1.57080,0.11675,-0.12763,-0.48154,0.03698,,,,,,,,,,,,,,,,,,,,,,,,,,0,0,0,0,0
1.2768,1783967955.9767,1,1,3.0000,-0.0000,1.42244,-0.00047,-2.63074,1.06039,1.57080,0.11675,-0.12763,-0.48154,0.03698,,,,,,,,,,,,,,,,,,,,,,,,,,0,0,0,0,0
1.2775,1783967955.9775,1,1,3.0000,-0.0000,1.42244,-0.00047,-2.63074,1.06039,1.57080,0.11675,-0.12763,-0.48154,0.03698,,,,,,,,,,,,,,,,,,,,,,,,,,0,0,0,0,0
1.2879,1783967955.9879,1,1,3.0000,-0.0000,1.42244,-0.00047,-2.63074,1.06039,1.57080,0.11675,-0.12763,-0.48154,0.03698,,,,,,,,,,,,,,,,,,,,,,,,,,0,0,0,0,0
1.2951,1783967955.9951,1,1,3.0000,-0.0000,1.42244,-0.00047,-2.63074,1.06039,1.57080,0.11675,-0.12763,-0.48154,0.03698,,,,,,,,,,,,,,,,,,,,,,,,,,0,0,0,0,0
1.3115,1783967956.0115,1,1,3.0000,-0.0000,1.42244,-0.00047,-2.63074,1.06039,1.57080,0.11675,-0.12763,-0.48154,0.03698,,,,,,,,,,,,,,,,,,,,,,,,,,0,0,0,0,0
1.3212,1783967956.0211,1,1,3.0000,-0.0000,1.42244,-0.00047,-2.63074,1.06039,1.57080,0.11675,-0.12763,-0.48154,0.03698,,,,,,,,,,,,,,,,,,,,,,,,,,0,0,0,0,0
1.3264,1783967956.0264,1,1,3.0000,-0.0000,1.42244,-0.00047,-2.63074,1.06039,1.57080,0.11675,-0.12763,-0.48154,0.03698,,,,,,,,,,,,,,,,,,,,,,,,,,0,0,0,0,0
1.3269,1783967956.0268,1,1,3.0000,-0.0000,1.42244,-0.00047,-2.63074,1.06039,1.57080,0.11675,-0.12763,-0.48154,0.03698,,,,,,,,,,,,,,,,,,,,,,,,,,0,0,0,0,0
1.3349,1783967956.0349,1,1,3.0000,-0.0000,1.42244,-0.00047,-2.63074,1.06039,1.57080,0.11675,-0.12763,-0.48154,0.03698,,,,,,,,,,,,,,,,,,,,,,,,,,0,0,0,0,0
1.3352,1783967956.0351,1,1,3.0000,-0.0000,1.42244,-0.00047,-2.63074,1.06039,1.57080,0.11675,-0.12763,-0.48154,0.03698,,,,,,,,,,,,,,,,,,,,,,,,,,0,0,0,0,0
1.3485,1783967956.0484,1,1,3.0000,-0.0000,1.42244,-0.00047,-2.63074,1.06039,1.57080,0.11675,-0.12763,-0.48154,0.03698,,,,,,,,,,,,,,,,,,,,,,,,,,0,0,0,0,0
1.3596,1783967956.0596,1,1,3.0000,-0.0000,1.42244,-0.00047,-2.63074,1.06039,1.57080,0.11675,-0.12763,-0.48154,0.03698,,,,,,,,,,,,,,,,,,,,,,,,,,0,0,0,0,0
1.3662,1783967956.0662,1,1,3.0000,-0.0000,1.42244,-0.00047,-2.63074,1.06039,1.57080,0.11675,-0.12763,-0.48154,0.03698,,,,,,,,,,,,,,,,,,,,,,,,,,0,0,0,0,0
1.3786,1783967956.0786,1,1,3.0000,-0.0000,1.42244,-0.00047,-2.63074,1.06039,1.57080,0.11675,-0.12763,-0.48154,0.03698,,,,,,,,,,,,,,,,,,,,,,,,,,0,0,0,0,0
1.3897,1783967956.0897,1,1,3.0000,-0.0000,1.42244,-0.00047,-2.63074,1.06039,1.57080,0.11675,-0.12763,-0.48154,0.03698,,,,,,,,,,,,,,,,,,,,,,,,,,0,0,0,0,0
1.3952,1783967956.0951,1,1,3.0000,-0.0000,1.42244,-0.00047,-2.63074,1.06039,1.57080,0.11675,-0.12763,-0.48154,0.03698,,,,,,,,,,,,,,,,,,,,,,,,,,0,0,0,0,0
1.4096,1783967956.1096,1,1,3.0000,-0.0000,1.42244,-0.00047,-2.63074,1.06039,1.57080,0.11675,-0.12763,-0.48154,0.03698,,,,,,,,,,,,,,,,,,,,,,,,,,0,0,0,0,0
1.4099,1783967956.1098,1,1,3.0000,-0.0000,1.42244,-0.00047,-2.63074,1.06039,1.57080,0.11675,-0.12763,-0.48154,0.03698,,,,,,,,,,,,,,,,,,,,,,,,,,0,0,0,0,0
1.4171,1783967956.1170,1,1,3.0000,-0.0000,1.42244,-0.00047,-2.63074,1.06039,1.57080,0.11675,-0.12763,-0.48154,0.03698,,,,,,,,,,,,,,,,,,,,,,,,,,0,0,0,0,0
1.4288,1783967956.1287,1,1,3.0000,-0.0000,1.42244,-0.00047,-2.63074,1.06039,1.57080,0.11675,-0.12763,-0.48154,0.03698,,,,,,,,,,,,,,,,,,,,,,,,,,0,0,0,0,0
1.4393,1783967956.1393,1,1,3.0000,-0.0000,1.42244,-0.00047,-2.63074,1.06039,1.57080,0.11675,-0.12763,-0.48154,0.03698,,,,,,,,,,,,,,,,,,,,,,,,,,0,0,0,0,0
1.4466,1783967956.1465,1,1,3.0000,-0.0000,1.42244,-0.00048,-2.63075,1.06041,1.57080,0.11675,-0.12763,-0.48153,0.03698,,,,,,,,,,,,,,,,,,,,,,,,,,0,0,0,0,0
1.4575,1783967956.1575,1,1,3.0000,-0.0000,1.42244,-0.00049,-2.63078,1.06046,1.57080,0.11675,-0.12763,-0.48152,0.03696,,,,,,,,,,,,,,,,,,,,,,,,,,0,0,0,0,0
1.4797,1783967956.1797,1,1,3.0000,-0.0000,1.42244,-0.00052,-2.63082,1.06051,1.57080,0.11675,-0.12764,-0.48150,0.03694,,,,,,,,,,,,,,,,,,,,,,,,,,0,0,0,0,0
1.4903,1783967956.1903,1,1,3.0000,-0.0000,1.42244,-0.00057,-2.63087,1.06058,1.57080,0.11675,-0.12764,-0.48147,0.03691,,,,,,,,,,,,,,,,,,,,,,,,,,0,0,0,0,0
1.4907,1783967956.1907,1,1,3.0000,-0.0000,1.42244,-0.00057,-2.63087,1.06058,1.57080,0.11675,-0.12764,-0.48147,0.03691,,,,,,,,,,,,,,,,,,,,,,,,,,0,0,0,0,0
1.4912,1783967956.1912,1,1,3.0000,-0.0000,1.42244,-0.00057,-2.63087,1.06058,1.57080,0.11675,-0.12764,-0.48147,0.03691,,,,,,,,,,,,,,,,,,,,,,,,,,0,0,0,0,0
1.4944,1783967956.1944,1,1,3.0000,-0.0000,1.42244,-0.00060,-2.63089,1.06061,1.57080,0.11675,-0.12764,-0.48146,0.03690,,,,,,,,,,,,,,,,,,,,,,,,,,0,0,0,0,0
1.5116,1783967956.2116,1,1,3.0000,-0.0000,1.42244,-0.00063,-2.63091,1.06066,1.57080,0.11675,-0.12764,-0.48145,0.03688,,,,,,,,,,,,,,,,,,,,,,,,,,0,0,0,0,0
1.5149,1783967956.2149,1,1,3.0000,-0.0000,1.42244,-0.00065,-2.63092,1.06068,1.57080,0.11675,-0.12764,-0.48145,0.03687,,,,,,,,,,,,,,,,,,,,,,,,,,0,0,0,0,0
1.5153,1783967956.2153,1,1,3.0000,-0.0000,1.42244,-0.00065,-2.63092,1.06068,1.57080,0.11675,-0.12764,-0.48145,0.03687,,,,,,,,,,,,,,,,,,,,,,,,,,0,0,0,0,0
1.5321,1783967956.2321,1,1,3.0000,-0.0000,1.42244,-0.00070,-2.63094,1.06075,1.57080,0.11675,-0.12764,-0.48145,0.03685,,,,,,,,,,,,,,,,,,,,,,,,,,0,0,0,0,0
1.5358,1783967956.2358,1,1,3.0000,-0.0000,1.42244,-0.00072,-2.63094,1.06078,1.57080,0.11675,-0.12764,-0.48145,0.03684,,,,,,,,,,,,,,,,,,,,,,,,,,0,0,0,0,0
1.5362,1783967956.2362,1,1,3.0000,-0.0000,1.42244,-0.00072,-2.63094,1.06078,1.57080,0.11675,-0.12764,-0.48145,0.03684,,,,,,,,,,,,,,,,,,,,,,,,,,0,0,0,0,0
1.5520,1783967956.2519,1,1,3.0000,-0.0000,1.42244,-0.00088,-2.63098,1.06097,1.57080,0.11675,-0.12764,-0.48145,0.03679,,,,,,,,,,,,,,,,,,,,,,,,,,0,0,0,0,0
1.5550,1783967956.2550,1,1,3.0000,-0.0000,1.42244,-0.00093,-2.63099,1.06104,1.57080,0.11675,-0.12764,-0.48145,0.03678,,,,,,,,,,,,,,,,,,,,,,,,,,0,0,0,0,0
1.5645,1783967956.2645,1,1,3.0000,-0.0000,1.42244,-0.00093,-2.63099,1.06105,1.57080,0.11675,-0.12764,-0.48145,0.03678,,,,,,,,,,,,,,,,,,,,,,,,,,0,0,0,0,0
1.6016,1783967956.3016,1,1,3.0000,-0.0000,1.42244,-0.00119,-2.63104,1.06136,1.57080,0.11675,-0.12764,-0.48146,0.03669,,,,,,,,,,,,,,,,,,,,,,,,,,0,0,0,0,0
1.6044,1783967956.3043,1,1,3.0000,-0.0000,1.42244,-0.00119,-2.63104,1.06136,1.57080,0.11675,-0.12764,-0.48146,0.03669,,,,,,,,,,,,,,,,,,,,,,,,,,0,0,0,0,0
1.6172,1783967956.3172,1,1,3.0000,-0.0000,1.42244,-0.00129,-2.63105,1.06149,1.57080,0.11675,-0.12764,-0.48146,0.03666,,,,,,,,,,,,,,,,,,,,,,,,,,0,0,0,0,0
1.6202,1783967956.3202,1,1,3.0000,-0.0000,1.42244,-0.00134,-2.63106,1.06154,1.57080,0.11675,-0.12764,-0.48147,0.03665,,,,,,,,,,,,,,,,,,,,,,,,,,0,0,0,0,0
1.6207,1783967956.3207,1,1,3.0000,-0.0000,1.42244,-0.00134,-2.63106,1.06154,1.57080,0.11675,-0.12764,-0.48147,0.03665,,,,,,,,,,,,,,,,,,,,,,,,,,0,0,0,0,0
1.6222,1783967956.3222,1,1,3.0000,-0.0000,1.42244,-0.00138,-2.63106,1.06160,1.57080,0.11675,-0.12764,-0.48147,0.03664,,,,,,,,,,,,,,,,,,,,,,,,,,0,0,0,0,0
1.6286,1783967956.3286,1,1,3.0000,-0.0000,1.42244,-0.00142,-2.63107,1.06166,1.57080,0.11675,-0.12764,-0.48147,0.03662,,,,,,,,,,,,,,,,,,,,,,,,,,0,0,0,0,0
1.6405,1783967956.3405,1,1,3.0000,-0.0000,1.42244,-0.00155,-2.63108,1.06182,1.57080,0.11675,-0.12764,-0.48149,0.03659,,,,,,,,,,,,,,,,,,,,,,,,,,0,0,0,0,0
1.6410,1783967956.3410,1,1,3.0000,-0.0000,1.42244,-0.00155,-2.63108,1.06182,1.57080,0.11675,-0.12764,-0.48149,0.03659,,,,,,,,,,,,,,,,,,,,,,,,,,0,0,0,0,0
1.6519,1783967956.3518,1,1,3.0000,-0.0000,1.42244,-0.00163,-2.63108,1.06193,1.57080,0.11675,-0.12763,-0.48150,0.03657,,,,,,,,,,,,,,,,,,,,,,,,,,0,0,0,0,0
1.6588,1783967956.3588,1,1,3.0000,-0.0000,1.42244,-0.00163,-2.63108,1.06193,1.57080,0.11675,-0.12763,-0.48150,0.03657,,,,,,,,,,,,,,,,,,,,,,,,,,0,0,0,0,0
1.6710,1783967956.3710,1,1,3.0000,-0.0000,1.42244,-0.00163,-2.63108,1.06193,1.57080,0.11675,-0.12763,-0.48150,0.03657,,,,,,,,,,,,,,,,,,,,,,,,,,0,0,0,0,0
1.6964,1783967956.3963,1,1,3.0000,-0.0000,1.42244,-0.00163,-2.63108,1.06193,1.57080,0.11675,-0.12763,-0.48150,0.03657,,,,,,,,,,,,,,,,,,,,,,,,,,0,0,0,0,0
1.7001,1783967956.4000,1,1,3.0000,-0.0000,1.42244,-0.00163,-2.63108,1.06193,1.57080,0.11675,-0.12763,-0.48150,0.03657,,,,,,,,,,,,,,,,,,,,,,,,,,0,0,0,0,0
1.7004,1783967956.4003,1,1,3.0000,-0.0000,1.42244,-0.00163,-2.63108,1.06193,1.57080,0.11675,-0.12763,-0.48150,0.03657,,,,,,,,,,,,,,,,,,,,,,,,,,0,0,0,0,0
1.7045,1783967956.4044,1,1,3.0000,-0.0000,1.42244,-0.00163,-2.63108,1.06193,1.57080,0.11675,-0.12763,-0.48150,0.03657,,,,,,,,,,,,,,,,,,,,,,,,,,0,0,0,0,0
1.7157,1783967956.4157,1,1,3.0000,-0.0000,1.42244,-0.00163,-2.63108,1.06193,1.57080,0.11675,-0.12763,-0.48150,0.03657,,,,,,,,,,,,,,,,,,,,,,,,,,0,0,0,0,0
1.7300,1783967956.4299,1,1,3.0000,-0.0000,1.42244,-0.00163,-2.63108,1.06193,1.57080,0.11675,-0.12763,-0.48150,0.03657,,,,,,,,,,,,,,,,,,,,,,,,,,0,0,0,0,0
1.7304,1783967956.4304,1,1,3.0000,-0.0000,1.42244,-0.00163,-2.63108,1.06193,1.57080,0.11675,-0.12763,-0.48150,0.03657,,,,,,,,,,,,,,,,,,,,,,,,,,0,0,0,0,0
1.7386,1783967956.4386,1,1,3.0000,-0.0000,1.42244,-0.00163,-2.63108,1.06193,1.57080,0.11675,-0.12763,-0.48150,0.03657,,,,,,,,,,,,,,,,,,,,,,,,,,0,0,0,0,0
1.7485,1783967956.4485,1,1,3.0000,-0.0000,1.42244,-0.00163,-2.63108,1.06193,1.57080,0.11675,-0.12763,-0.48150,0.03657,,,,,,,,,,,,,,,,,,,,,,,,,,0,0,0,0,0
1.7596,1783967956.4596,1,1,3.0000,-0.0000,1.42244,-0.00163,-2.63108,1.06193,1.57080,0.11675,-0.12763,-0.48150,0.03657,,,,,,,,,,,,,,,,,,,,,,,,,,0,0,0,0,0
1.7656,1783967956.4656,1,1,3.0000,-0.0000,1.42244,-0.00163,-2.63108,1.06193,1.57080,0.11675,-0.12763,-0.48150,0.03657,,,,,,,,,,,,,,,,,,,,,,,,,,0,0,0,0,0
1.7798,1783967956.4798,1,1,3.0000,-0.0000,1.42244,-0.00163,-2.63108,1.06193,1.57080,0.11675,-0.12763,-0.48150,0.03657,,,,,,,,,,,,,,,,,,,,,,,,,,0,0,0,0,0
1.7876,1783967956.4875,1,1,3.0000,-0.0000,1.42244,-0.00163,-2.63108,1.06193,1.57080,0.11675,-0.12763,-0.48150,0.03657,,,,,,,,,,,,,,,,,,,,,,,,,,0,0,0,0,0
1.7880,1783967956.4880,1,1,3.0000,-0.0000,1.42244,-0.00163,-2.63108,1.06193,1.57080,0.11675,-0.12763,-0.48150,0.03657,,,,,,,,,,,,,,,,,,,,,,,,,,0,0,0,0,0
1.7987,1783967956.4987,1,1,3.0000,-0.0000,1.42244,-0.00163,-2.63108,1.06193,1.57080,0.11675,-0.12763,-0.48150,0.03657,,,,,,,,,,,,,,,,,,,,,,,,,,0,0,0,0,0
1.8061,1783967956.5061,1,1,3.0000,-0.0000,1.42244,-0.00163,-2.63108,1.06193,1.57080,0.11675,-0.12763,-0.48150,0.03657,,,,,,,,,,,,,,,,,,,,,,,,,,0,0,0,0,0
1.8167,1783967956.5167,1,1,3.0000,-0.0000,1.42244,-0.00163,-2.63108,1.06193,1.57080,0.11675,-0.12763,-0.48150,0.03657,,,,,,,,,,,,,,,,,,,,,,,,,,0,0,0,0,0
1.8258,1783967956.5258,1,1,3.0000,-0.0000,1.42244,-0.00163,-2.63108,1.06193,1.57080,0.11675,-0.12763,-0.48150,0.03657,,,,,,,,,,,,,,,,,,,,,,,,,,0,0,0,0,0
1.8378,1783967956.5378,1,1,3.0000,-0.0000,1.42244,-0.00163,-2.63108,1.06193,1.57080,0.11675,-0.12763,-0.48150,0.03657,,,,,,,,,,,,,,,,,,,,,,,,,,0,0,0,0,0
1.8439,1783967956.5439,1,1,3.0000,-0.0000,1.42244,-0.00163,-2.63108,1.06193,1.57080,0.11675,-0.12763,-0.48150,0.03657,,,,,,,,,,,,,,,,,,,,,,,,,,0,0,0,0,0
1.8443,1783967956.5442,1,1,3.0000,-0.0000,1.42244,-0.00163,-2.63108,1.06193,1.57080,0.11675,-0.12763,-0.48150,0.03657,,,,,,,,,,,,,,,,,,,,,,,,,,0,0,0,0,0
1.8607,1783967956.5606,1,1,3.0000,-0.0000,1.42244,-0.00163,-2.63108,1.06193,1.57080,0.11675,-0.12763,-0.48150,0.03657,,,,,,,,,,,,,,,,,,,,,,,,,,0,0,0,0,0
1.8752,1783967956.5752,1,1,3.0000,-0.0000,1.42244,-0.00164,-2.63109,1.06194,1.57080,0.11675,-0.12763,-0.48150,0.03657,,,,,,,,,,,,,,,,,,,,,,,,,,0,0,0,0,0
1.8757,1783967956.5757,1,1,3.0000,-0.0000,1.42244,-0.00164,-2.63109,1.06194,1.57080,0.11675,-0.12763,-0.48150,0.03657,,,,,,,,,,,,,,,,,,,,,,,,,,0,0,0,0,0
1.8905,1783967956.5905,1,1,3.0000,-0.0000,1.42244,-0.00166,-2.63109,1.06196,1.57080,0.11675,-0.12763,-0.48150,0.03656,,,,,,,,,,,,,,,,,,,,,,,,,,0,0,0,0,0
1.9019,1783967956.6019,1,1,3.0000,-0.0000,1.42244,-0.00169,-2.63112,1.06201,1.57080,0.11675,-0.12764,-0.48148,0.03654,,,,,,,,,,,,,,,,,,,,,,,,,,0,0,0,0,0
1.9022,1783967956.6022,1,1,3.0000,-0.0000,1.42244,-0.00169,-2.63112,1.06201,1.57080,0.11675,-0.12764,-0.48148,0.03654,,,,,,,,,,,,,,,,,,,,,,,,,,0,0,0,0,0
1.9043,1783967956.6042,1,1,3.0000,-0.0000,1.42244,-0.00169,-2.63112,1.06201,1.57080,0.11675,-0.12764,-0.48148,0.03654,,,,,,,,,,,,,,,,,,,,,,,,,,0,0,0,0,0
1.9045,1783967956.6045,1,1,3.0000,-0.0000,1.42244,-0.00169,-2.63112,1.06201,1.57080,0.11675,-0.12764,-0.48148,0.03654,,,,,,,,,,,,,,,,,,,,,,,,,,0,0,0,0,0
1.9191,1783967956.6191,1,1,3.0000,-0.0000,1.42243,-0.00176,-2.63117,1.06208,1.57080,0.11675,-0.12764,-0.48146,0.03650,,,,,,,,,,,,,,,,,,,,,,,,,,0,0,0,0,0
1.9404,1783967956.6403,1,1,3.0000,-0.0000,1.42243,-0.00183,-2.63120,1.06217,1.57080,0.11675,-0.12764,-0.48145,0.03647,,,,,,,,,,,,,,,,,,,,,,,,,,0,0,0,0,0
1.9466,1783967956.6466,1,1,3.0000,-0.0000,1.42243,-0.00189,-2.63122,1.06225,1.57080,0.11675,-0.12764,-0.48144,0.03644,,,,,,,,,,,,,,,,,,,,,,,,,,0,0,0,0,0
1.9470,1783967956.6470,1,1,3.0000,-0.0000,1.42243,-0.00189,-2.63122,1.06225,1.57080,0.11675,-0.12764,-0.48144,0.03644,,,,,,,,,,,,,,,,,,,,,,,,,,0,0,0,0,0
1.9488,1783967956.6488,1,1,3.0000,-0.0000,1.42243,-0.00189,-2.63122,1.06225,1.57080,0.11675,-0.12764,-0.48144,0.03644,,,,,,,,,,,,,,,,,,,,,,,,,,0,0,0,0,0
1.9492,1783967956.6492,1,1,3.0000,-0.0000,1.42243,-0.00189,-2.63122,1.06225,1.57080,0.11675,-0.12764,-0.48144,0.03644,,,,,,,,,,,,,,,,,,,,,,,,,,0,0,0,0,0
1.9583,1783967956.6582,1,1,3.0000,-0.0000,1.42243,-0.00191,-2.63123,1.06227,1.57080,0.11675,-0.12764,-0.48144,0.03644,,,,,,,,,,,,,,,,,,,,,,,,,,0,0,0,0,0
1.9586,1783967956.6586,1,1,3.0000,-0.0000,1.42243,-0.00191,-2.63123,1.06227,1.57080,0.11675,-0.12764,-0.48144,0.03644,,,,,,,,,,,,,,,,,,,,,,,,,,0,0,0,0,0
1.9670,1783967956.6670,1,1,3.0000,-0.0000,1.42243,-0.00197,-2.63124,1.06234,1.57080,0.11675,-0.12764,-0.48144,0.03642,,,,,,,,,,,,,,,,,,,,,,,,,,0,0,0,0,0
1.9782,1783967956.6782,1,1,3.0000,-0.0000,1.42243,-0.00201,-2.63125,1.06239,1.57080,0.11675,-0.12764,-0.48144,0.03641,,,,,,,,,,,,,,,,,,,,,,,,,,0,0,0,0,0
1.9909,1783967956.6909,1,1,3.0000,-0.0000,1.42243,-0.00210,-2.63126,1.06250,1.57080,0.11675,-0.12764,-0.48145,0.03638,,,,,,,,,,,,,,,,,,,,,,,,,,0,0,0,0,0
1.9939,1783967956.6938,1,1,3.0000,-0.0000,1.42243,-0.00215,-2.63127,1.06256,1.57080,0.11675,-0.12764,-0.48145,0.03636,,,,,,,,,,,,,,,,,,,,,,,,,,0,0,0,0,0
1.9941,1783967956.6941,1,1,3.0000,-0.0000,1.42243,-0.00215,-2.63127,1.06256,1.57080,0.11675,-0.12764,-0.48145,0.03636,,,,,,,,,,,,,,,,,,,,,,,,,,0,0,0,0,0
2.0084,1783967956.7083,1,1,3.0000,-0.0000,1.42243,-0.00226,-2.63129,1.06269,1.57080,0.11675,-0.12764,-0.48145,0.03633,,,,,,,,,,,,,,,,,,,,,,,,,,0,0,0,0,0
2.0167,1783967956.7167,1,1,3.0000,-0.0000,1.42243,-0.00228,-2.63129,1.06272,1.57080,0.11675,-0.12764,-0.48145,0.03632,,,,,,,,,,,,,,,,,,,,,,,,,,0,0,0,0,0
2.0266,1783967956.7265,1,1,3.0000,-0.0000,1.42243,-0.00238,-2.63130,1.06283,1.57080,0.11675,-0.12764,-0.48146,0.03629,,,,,,,,,,,,,,,,,,,,,,,,,,0,0,0,0,0
2.0676,1783967956.7676,1,1,3.0000,-0.0000,1.42243,-0.00262,-2.63132,1.06313,1.57080,0.11675,-0.12763,-0.48149,0.03623,,,,,,,,,,,,,,,,,,,,,,,,,,0,0,0,0,0
2.0858,1783967956.7858,1,1,3.0000,-0.0000,1.42243,-0.00276,-2.63129,1.06332,1.57080,0.11675,-0.12763,-0.48154,0.03621,,,,,,,,,,,,,,,,,,,,,,,,,,0,0,0,0,0
2.0862,1783967956.7862,1,1,3.0000,-0.0000,1.42243,-0.00276,-2.63129,1.06332,1.57080,0.11675,-0.12763,-0.48154,0.03621,,,,,,,,,,,,,,,,,,,,,,,,,,0,0,0,0,0
2.1305,1783967956.8305,1,1,3.0000,-0.0000,1.42243,-0.00283,-2.63125,1.06340,1.57080,0.11675,-0.12762,-0.48158,0.03621,,,,,,,,,,,,,,,,,,,,,,,,,,0,0,0,0,0
2.1393,1783967956.8393,1,1,3.0000,-0.0000,1.42243,-0.00283,-2.63125,1.06340,1.57080,0.11675,-0.12762,-0.48158,0.03621,,,,,,,,,,,,,,,,,,,,,,,,,,0,0,0,0,0
2.1457,1783967956.8457,1,1,3.0000,-0.0000,1.42243,-0.00283,-2.63125,1.06340,1.57080,0.11675,-0.12762,-0.48158,0.03621,,,,,,,,,,,,,,,,,,,,,,,,,,0,0,0,0,0
2.1469,1783967956.8469,1,1,3.0000,-0.0000,1.42243,-0.00283,-2.63125,1.06340,1.57080,0.11675,-0.12762,-0.48158,0.03621,,,,,,,,,,,,,,,,,,,,,,,,,,0,0,0,0,0
2.1472,1783967956.8472,1,1,3.0000,-0.0000,1.42243,-0.00283,-2.63125,1.06340,1.57080,0.11675,-0.12762,-0.48158,0.03621,,,,,,,,,,,,,,,,,,,,,,,,,,0,0,0,0,0
2.1479,1783967956.8478,1,1,3.0000,-0.0000,1.42243,-0.00283,-2.63125,1.06340,1.57080,0.11675,-0.12762,-0.48158,0.03621,,,,,,,,,,,,,,,,,,,,,,,,,,0,0,0,0,0
2.1482,1783967956.8482,1,1,3.0000,-0.0000,1.42243,-0.00283,-2.63125,1.06340,1.57080,0.11675,-0.12762,-0.48158,0.03621,,,,,,,,,,,,,,,,,,,,,,,,,,0,0,0,0,0
2.1516,1783967956.8515,1,1,3.0000,-0.0000,1.42243,-0.00283,-2.63125,1.06340,1.57080,0.11675,-0.12762,-0.48158,0.03621,,,,,,,,,,,,,,,,,,,,,,,,,,0,0,0,0,0
2.1577,1783967956.8576,1,1,3.0000,-0.0000,1.42243,-0.00283,-2.63125,1.06340,1.57080,0.11675,-0.12762,-0.48158,0.03621,,,,,,,,,,,,,,,,,,,,,,,,,,0,0,0,0,0
2.1713,1783967956.8713,1,1,3.0000,-0.0000,1.42243,-0.00283,-2.63125,1.06340,1.57080,0.11675,-0.12762,-0.48158,0.03621,,,,,,,,,,,,,,,,,,,,,,,,,,0,0,0,0,0
2.1758,1783967956.8758,1,1,3.0000,-0.0000,1.42243,-0.00283,-2.63125,1.06340,1.57080,0.11675,-0.12762,-0.48158,0.03621,,,,,,,,,,,,,,,,,,,,,,,,,,0,0,0,0,0
2.1761,1783967956.8761,1,1,3.0000,-0.0000,1.42243,-0.00283,-2.63125,1.06340,1.57080,0.11675,-0.12762,-0.48158,0.03621,,,,,,,,,,,,,,,,,,,,,,,,,,0,0,0,0,0
2.3483,1783967957.0483,1,1,3.0000,-0.0000,1.42243,-0.00294,-2.63138,1.06354,1.57080,0.11675,-0.12763,-0.48150,0.03613,,,,,,,,,,,,,,,,,,,,,,,,,,0,0,0,0,0
2.5742,1783967957.2742,1,1,3.0000,-0.0000,1.42243,-0.00397,-2.63162,1.06479,1.57080,0.11675,-0.12763,-0.48150,0.03577,,,,,,,,,,,,,,,,,,,,,,,,,,0,0,0,0,0
2.5791,1783967957.2791,1,1,3.0000,-0.0000,1.42243,-0.00397,-2.63162,1.06479,1.57080,0.11675,-0.12763,-0.48150,0.03577,,,,,,,,,,,,,,,,,,,,,,,,,,0,0,0,0,0
2.5794,1783967957.2793,1,1,3.0000,-0.0000,1.42243,-0.00397,-2.63162,1.06479,1.57080,0.11675,-0.12763,-0.48150,0.03577,,,,,,,,,,,,,,,,,,,,,,,,,,0,0,0,0,0
2.5827,1783967957.2827,1,1,3.0000,-0.0000,1.42243,-0.00397,-2.63162,1.06479,1.57080,0.11675,-0.12763,-0.48150,0.03577,,,,,,,,,,,,,,,,,,,,,,,,,,0,0,0,0,0
2.5831,1783967957.2830,1,1,3.0000,-0.0000,1.42243,-0.00397,-2.63162,1.06479,1.57080,0.11675,-0.12763,-0.48150,0.03577,,,,,,,,,,,,,,,,,,,,,,,,,,0,0,0,0,0
2.5926,1783967957.2926,1,1,3.0000,-0.0000,1.42243,-0.00397,-2.63162,1.06479,1.57080,0.11675,-0.12763,-0.48150,0.03577,,,,,,,,,,,,,,,,,,,,,,,,,,0,0,0,0,0
2.5928,1783967957.2928,1,1,3.0000,-0.0000,1.42243,-0.00397,-2.63162,1.06479,1.57080,0.11675,-0.12763,-0.48150,0.03577,,,,,,,,,,,,,,,,,,,,,,,,,,0,0,0,0,0
2.5933,1783967957.2932,1,1,3.0000,-0.0000,1.42243,-0.00397,-2.63162,1.06479,1.57080,0.11675,-0.12763,-0.48150,0.03577,,,,,,,,,,,,,,,,,,,,,,,,,,0,0,0,0,0
2.5938,1783967957.2938,1,1,3.0000,-0.0000,1.42243,-0.00397,-2.63162,1.06479,1.57080,0.11675,-0.12763,-0.48150,0.03577,,,,,,,,,,,,,,,,,,,,,,,,,,0,0,0,0,0
2.5998,1783967957.2998,1,1,3.0000,-0.0000,1.42243,-0.00397,-2.63162,1.06479,1.57080,0.11675,-0.12763,-0.48150,0.03577,,,,,,,,,,,,,,,,,,,,,,,,,,0,0,0,0,0
2.6031,1783967957.3031,1,1,3.0000,-0.0000,1.42243,-0.00397,-2.63162,1.06479,1.57080,0.11675,-0.12763,-0.48150,0.03577,,,,,,,,,,,,,,,,,,,,,,,,,,0,0,0,0,0
2.6035,1783967957.3034,1,1,3.0000,-0.0000,1.42243,-0.00397,-2.63162,1.06479,1.57080,0.11675,-0.12763,-0.48150,0.03577,,,,,,,,,,,,,,,,,,,,,,,,,,0,0,0,0,0
2.6080,1783967957.3080,1,1,3.0000,-0.0000,1.42243,-0.00397,-2.63162,1.06479,1.57080,0.11675,-0.12763,-0.48150,0.03577,,,,,,,,,,,,,,,,,,,,,,,,,,0,0,0,0,0
2.6186,1783967957.3186,1,1,3.0000,-0.0000,1.42243,-0.00397,-2.63162,1.06479,1.57080,0.11675,-0.12763,-0.48150,0.03577,,,,,,,,,,,,,,,,,,,,,,,,,,0,0,0,0,0
2.6212,1783967957.3212,1,1,3.0000,-0.0000,1.42243,-0.00397,-2.63162,1.06479,1.57080,0.11675,-0.12763,-0.48150,0.03577,,,,,,,,,,,,,,,,,,,,,,,,,,0,0,0,0,0
2.6216,1783967957.3216,1,1,3.0000,-0.0000,1.42243,-0.00397,-2.63162,1.06479,1.57080,0.11675,-0.12763,-0.48150,0.03577,,,,,,,,,,,,,,,,,,,,,,,,,,0,0,0,0,0
2.6234,1783967957.3234,1,1,3.0000,-0.0000,1.42243,-0.00397,-2.63162,1.06479,1.57080,0.11675,-0.12763,-0.48150,0.03577,,,,,,,,,,,,,,,,,,,,,,,,,,0,0,0,0,0
2.6237,1783967957.3237,1,1,3.0000,-0.0000,1.42243,-0.00397,-2.63162,1.06479,1.57080,0.11675,-0.12763,-0.48150,0.03577,,,,,,,,,,,,,,,,,,,,,,,,,,0,0,0,0,0
2.6291,1783967957.3291,1,1,3.0000,-0.0000,1.42243,-0.00397,-2.63162,1.06479,1.57080,0.11675,-0.12763,-0.48150,0.03577,,,,,,,,,,,,,,,,,,,,,,,,,,0,0,0,0,0
2.6399,1783967957.3399,1,1,3.0000,-0.0000,1.42243,-0.00397,-2.63162,1.06479,1.57080,0.11675,-0.12763,-0.48150,0.03577,,,,,,,,,,,,,,,,,,,,,,,,,,0,0,0,0,0
2.6701,1783967957.3700,1,1,3.0000,-0.0000,1.42243,-0.00397,-2.63162,1.06479,1.57080,0.11675,-0.12763,-0.48150,0.03577,,,,,,,,,,,,,,,,,,,,,,,,,,0,0,0,0,0
2.6795,1783967957.3794,1,1,3.0000,-0.0000,1.42243,-0.00397,-2.63162,1.06479,1.57080,0.11675,-0.12763,-0.48150,0.03577,,,,,,,,,,,,,,,,,,,,,,,,,,0,0,0,0,0
2.6821,1783967957.3821,1,1,3.0000,-0.0000,1.42243,-0.00397,-2.63162,1.06479,1.57080,0.11675,-0.12763,-0.48150,0.03577,,,,,,,,,,,,,,,,,,,,,,,,,,0,0,0,0,0
2.6855,1783967957.3855,1,1,3.0000,-0.0000,1.42243,-0.00397,-2.63162,1.06479,1.57080,0.11675,-0.12763,-0.48150,0.03577,,,,,,,,,,,,,,,,,,,,,,,,,,0,0,0,0,0
2.6863,1783967957.3863,1,1,3.0000,-0.0000,1.42243,-0.00397,-2.63162,1.06479,1.57080,0.11675,-0.12763,-0.48150,0.03577,,,,,,,,,,,,,,,,,,,,,,,,,,0,0,0,0,0
2.6966,1783967957.3965,1,1,3.0000,-0.0000,1.42243,-0.00397,-2.63162,1.06479,1.57080,0.11675,-0.12763,-0.48150,0.03577,,,,,,,,,,,,,,,,,,,,,,,,,,0,0,0,0,0
2.7047,1783967957.4047,1,1,3.0000,-0.0000,1.42243,-0.00397,-2.63161,1.06479,1.57080,0.11675,-0.12763,-0.48150,0.03577,,,,,,,,,,,,,,,,,,,,,,,,,,0,0,0,0,0
2.7143,1783967957.4142,1,1,3.0000,-0.0000,1.42243,-0.00398,-2.63161,1.06481,1.57080,0.11675,-0.12763,-0.48150,0.03577,,,,,,,,,,,,,,,,,,,,,,,,,,0,0,0,0,0
2.7221,1783967957.4221,1,1,3.0000,-0.0000,1.42243,-0.00400,-2.63162,1.06483,1.57080,0.11675,-0.12763,-0.48150,0.03577,,,,,,,,,,,,,,,,,,,,,,,,,,0,0,0,0,0
2.7238,1783967957.4237,1,1,3.0000,-0.0000,1.42243,-0.00400,-2.63162,1.06483,1.57080,0.11675,-0.12763,-0.48150,0.03577,,,,,,,,,,,,,,,,,,,,,,,,,,0,0,0,0,0
2.7242,1783967957.4242,1,1,3.0000,-0.0000,1.42243,-0.00400,-2.63162,1.06483,1.57080,0.11675,-0.12763,-0.48150,0.03577,,,,,,,,,,,,,,,,,,,,,,,,,,0,0,0,0,0
2.7292,1783967957.4291,1,1,3.0000,-0.0000,1.42243,-0.00401,-2.63162,1.06484,1.57080,0.11675,-0.12763,-0.48150,0.03576,,,,,,,,,,,,,,,,,,,,,,,,,,0,0,0,0,0
2.7295,1783967957.4295,1,1,3.0000,-0.0000,1.42243,-0.00401,-2.63162,1.06484,1.57080,0.11675,-0.12763,-0.48150,0.03576,,,,,,,,,,,,,,,,,,,,,,,,,,0,0,0,0,0
2.7310,1783967957.4309,1,1,3.0000,-0.0000,1.42243,-0.00401,-2.63162,1.06484,1.57080,0.11675,-0.12763,-0.48150,0.03576,,,,,,,,,,,,,,,,,,,,,,,,,,0,0,0,0,0
2.7344,1783967957.4344,1,1,3.0000,-0.0000,1.42243,-0.00401,-2.63162,1.06485,1.57080,0.11675,-0.12763,-0.48150,0.03576,,,,,,,,,,,,,,,,,,,,,,,,,,0,0,0,0,0
2.7347,1783967957.4347,1,1,3.0000,-0.0000,1.42243,-0.00401,-2.63162,1.06485,1.57080,0.11675,-0.12763,-0.48150,0.03576,,,,,,,,,,,,,,,,,,,,,,,,,,0,0,0,0,0
2.7401,1783967957.4401,1,1,3.0000,-0.0000,1.42243,-0.00402,-2.63163,1.06485,1.57080,0.11675,-0.12763,-0.48150,0.03576,,,,,,,,,,,,,,,,,,,,,,,,,,0,0,0,0,0
2.7488,1783967957.4488,1,1,3.0000,-0.0000,1.42243,-0.00404,-2.63164,1.06488,1.57080,0.11675,-0.12763,-0.48149,0.03574,,,,,,,,,,,,,,,,,,,,,,,,,,0,0,0,0,0
2.7663,1783967957.4663,1,1,3.0000,-0.0000,1.42243,-0.00409,-2.63167,1.06494,1.57080,0.11675,-0.12763,-0.48147,0.03572,,,,,,,,,,,,,,,,,,,,,,,,,,0,0,0,0,0
2.7712,1783967957.4712,1,1,3.0000,-0.0000,1.42243,-0.00411,-2.63168,1.06497,1.57080,0.11675,-0.12763,-0.48147,0.03571,,,,,,,,,,,,,,,,,,,,,,,,,,0,0,0,0,0
2.7716,1783967957.4716,1,1,3.0000,-0.0000,1.42243,-0.00411,-2.63168,1.06497,1.57080,0.11675,-0.12763,-0.48147,0.03571,,,,,,,,,,,,,,,,,,,,,,,,,,0,0,0,0,0
2.7801,1783967957.4801,1,1,3.0000,-0.0000,1.42243,-0.00417,-2.63171,1.06503,1.57080,0.11675,-0.12764,-0.48146,0.03568,,,,,,,,,,,,,,,,,,,,,,,,,,0,0,0,0,0
2.7804,1783967957.4803,1,1,3.0000,-0.0000,1.42243,-0.00417,-2.63171,1.06503,1.57080,0.11675,-0.12764,-0.48146,0.03568,,,,,,,,,,,,,,,,,,,,,,,,,,0,0,0,0,0
2.7879,1783967957.4879,1,1,3.0000,-0.0000,1.42243,-0.00420,-2.63173,1.06507,1.57080,0.11675,-0.12764,-0.48145,0.03567,,,,,,,,,,,,,,,,,,,,,,,,,,0,0,0,0,0
2.7882,1783967957.4881,1,1,3.0000,-0.0000,1.42243,-0.00420,-2.63173,1.06507,1.57080,0.11675,-0.12764,-0.48145,0.03567,,,,,,,,,,,,,,,,,,,,,,,,,,0,0,0,0,0
2.7982,1783967957.4982,1,1,3.0000,-0.0000,1.42243,-0.00424,-2.63174,1.06512,1.57080,0.11675,-0.12764,-0.48145,0.03565,,,,,,,,,,,,,,,,,,,,,,,,,,0,0,0,0,0
2.7987,1783967957.4987,1,1,3.0000,-0.0000,1.42243,-0.00424,-2.63174,1.06512,1.57080,0.11675,-0.12764,-0.48145,0.03565,,,,,,,,,,,,,,,,,,,,,,,,,,0,0,0,0,0
2.7996,1783967957.4995,1,1,3.0000,-0.0000,1.42243,-0.00424,-2.63174,1.06512,1.57080,0.11675,-0.12764,-0.48145,0.03565,,,,,,,,,,,,,,,,,,,,,,,,,,0,0,0,0,0
2.8000,1783967957.4999,1,1,3.0000,-0.0000,1.42243,-0.00424,-2.63174,1.06512,1.57080,0.11675,-0.12764,-0.48145,0.03565,,,,,,,,,,,,,,,,,,,,,,,,,,0,0,0,0,0
2.8042,1783967957.5042,1,1,3.0000,-0.0000,1.42243,-0.00427,-2.63174,1.06515,1.57080,0.11675,-0.12764,-0.48145,0.03564,,,,,,,,,,,,,,,,,,,,,,,,,,0,0,0,0,0
2.8047,1783967957.5047,1,1,3.0000,-0.0000,1.42243,-0.00427,-2.63174,1.06515,1.57080,0.11675,-0.12764,-0.48145,0.03564,,,,,,,,,,,,,,,,,,,,,,,,,,0,0,0,0,0
2.8063,1783967957.5062,1,1,3.0000,-0.0000,1.42243,-0.00431,-2.63175,1.06520,1.57080,0.11675,-0.12764,-0.48145,0.03563,,,,,,,,,,,,,,,,,,,,,,,,,,0,0,0,0,0
2.8165,1783967957.5164,1,1,3.0000,-0.0000,1.42243,-0.00439,-2.63177,1.06530,1.57080,0.11675,-0.12764,-0.48145,0.03560,,,,,,,,,,,,,,,,,,,,,,,,,,0,0,0,0,0
2.8224,1783967957.5224,1,1,3.0000,-0.0000,1.42243,-0.00444,-2.63178,1.06536,1.57080,0.11675,-0.12764,-0.48145,0.03558,,,,,,,,,,,,,,,,,,,,,,,,,,0,0,0,0,0
2.8254,1783967957.5254,1,1,3.0000,-0.0000,1.42243,-0.00444,-2.63178,1.06536,1.57080,0.11675,-0.12764,-0.48145,0.03558,,,,,,,,,,,,,,,,,,,,,,,,,,0,0,0,0,0
2.8289,1783967957.5288,1,1,3.0000,-0.0000,1.42243,-0.00444,-2.63178,1.06536,1.57080,0.11675,-0.12764,-0.48145,0.03558,,,,,,,,,,,,,,,,,,,,,,,,,,0,0,0,0,0
2.8292,1783967957.5292,1,1,3.0000,-0.0000,1.42243,-0.00444,-2.63178,1.06536,1.57080,0.11675,-0.12764,-0.48145,0.03558,,,,,,,,,,,,,,,,,,,,,,,,,,0,0,0,0,0
2.8313,1783967957.5313,1,1,3.0000,-0.0000,1.42243,-0.00446,-2.63179,1.06538,1.57080,0.11675,-0.12764,-0.48145,0.03558,,,,,,,,,,,,,,,,,,,,,,,,,,0,0,0,0,0
2.8317,1783967957.5317,1,1,3.0000,-0.0000,1.42243,-0.00446,-2.63179,1.06538,1.57080,0.11675,-0.12764,-0.48145,0.03558,,,,,,,,,,,,,,,,,,,,,,,,,,0,0,0,0,0
2.8328,1783967957.5327,1,1,3.0000,-0.0000,1.42243,-0.00446,-2.63179,1.06538,1.57080,0.11675,-0.12764,-0.48145,0.03558,,,,,,,,,,,,,,,,,,,,,,,,,,0,0,0,0,0
2.8330,1783967957.5330,1,1,3.0000,-0.0000,1.42243,-0.00446,-2.63179,1.06538,1.57080,0.11675,-0.12764,-0.48145,0.03558,,,,,,,,,,,,,,,,,,,,,,,,,,0,0,0,0,0
2.8349,1783967957.5348,1,1,3.0000,-0.0000,1.42243,-0.00449,-2.63179,1.06541,1.57080,0.11675,-0.12764,-0.48145,0.03557,,,,,,,,,,,,,,,,,,,,,,,,,,0,0,0,0,0
2.8352,1783967957.5352,1,1,3.0000,-0.0000,1.42243,-0.00449,-2.63179,1.06541,1.57080,0.11675,-0.12764,-0.48145,0.03557,,,,,,,,,,,,,,,,,,,,,,,,,,0,0,0,0,0
2.8354,1783967957.5354,1,1,3.0000,-0.0000,1.42243,-0.00449,-2.63179,1.06541,1.57080,0.11675,-0.12764,-0.48145,0.03557,,,,,,,,,,,,,,,,,,,,,,,,,,0,0,0,0,0
2.8411,1783967957.5410,1,1,3.0000,-0.0000,1.42243,-0.00452,-2.63180,1.06545,1.57080,0.11675,-0.12764,-0.48145,0.03556,,,,,,,,,,,,,,,,,,,,,,,,,,0,0,0,0,0
2.8416,1783967957.5415,1,1,3.0000,-0.0000,1.42243,-0.00452,-2.63180,1.06545,1.57080,0.11675,-0.12764,-0.48145,0.03556,,,,,,,,,,,,,,,,,,,,,,,,,,0,0,0,0,0
2.8485,1783967957.5485,1,1,3.0000,-0.0000,1.42243,-0.00456,-2.63180,1.06550,1.57080,0.11675,-0.12764,-0.48145,0.03555,,,,,,,,,,,,,,,,,,,,,,,,,,0,0,0,0,0
2.8511,1783967957.5511,1,1,3.0000,-0.0000,1.42242,-0.00456,-2.63180,1.06551,1.57080,0.11675,-0.12764,-0.48145,0.03554,,,,,,,,,,,,,,,,,,,,,,,,,,0,0,0,0,0
2.8514,1783967957.5514,1,1,3.0000,-0.0000,1.42242,-0.00456,-2.63180,1.06551,1.57080,0.11675,-0.12764,-0.48145,0.03554,,,,,,,,,,,,,,,,,,,,,,,,,,0,0,0,0,0
2.8627,1783967957.5627,1,1,3.0000,-0.0000,1.42242,-0.00464,-2.63182,1.06560,1.57080,0.11675,-0.12764,-0.48146,0.03552,,,,,,,,,,,,,,,,,,,,,,,,,,0,0,0,0,0
2.8632,1783967957.5632,1,1,3.0000,-0.0000,1.42242,-0.00464,-2.63182,1.06560,1.57080,0.11675,-0.12764,-0.48146,0.03552,,,,,,,,,,,,,,,,,,,,,,,,,,0,0,0,0,0
2.8693,1783967957.5693,1,1,3.0000,-0.0000,1.42242,-0.00469,-2.63182,1.06565,1.57080,0.11675,-0.12764,-0.48146,0.03551,,,,,,,,,,,,,,,,,,,,,,,,,,0,0,0,0,0
2.8703,1783967957.5703,1,1,3.0000,-0.0000,1.42242,-0.00473,-2.63183,1.06571,1.57080,0.11675,-0.12764,-0.48146,0.03549,,,,,,,,,,,,,,,,,,,,,,,,,,0,0,0,0,0
2.8707,1783967957.5706,1,1,3.0000,-0.0000,1.42242,-0.00473,-2.63183,1.06571,1.57080,0.11675,-0.12764,-0.48146,0.03549,,,,,,,,,,,,,,,,,,,,,,,,,,0,0,0,0,0
2.8717,1783967957.5717,1,1,3.0000,-0.0000,1.42242,-0.00473,-2.63183,1.06571,1.57080,0.11675,-0.12764,-0.48146,0.03549,,,,,,,,,,,,,,,,,,,,,,,,,,0,0,0,0,0
2.8721,1783967957.5721,1,1,3.0000,-0.0000,1.42242,-0.00473,-2.63183,1.06571,1.57080,0.11675,-0.12764,-0.48146,0.03549,,,,,,,,,,,,,,,,,,,,,,,,,,0,0,0,0,0
2.8734,1783967957.5734,1,1,3.0000,-0.0000,1.42242,-0.00473,-2.63183,1.06571,1.57080,0.11675,-0.12764,-0.48146,0.03549,,,,,,,,,,,,,,,,,,,,,,,,,,0,0,0,0,0
2.8738,1783967957.5738,1,1,3.0000,-0.0000,1.42242,-0.00473,-2.63183,1.06571,1.57080,0.11675,-0.12764,-0.48146,0.03549,,,,,,,,,,,,,,,,,,,,,,,,,,0,0,0,0,0
2.8803,1783967957.5802,1,1,3.0000,-0.0000,1.42242,-0.00483,-2.63184,1.06583,1.57080,0.11675,-0.12763,-0.48147,0.03546,,,,,,,,,,,,,,,,,,,,,,,,,,0,0,0,0,0
2.8822,1783967957.5821,1,1,3.0000,-0.0000,1.42242,-0.00489,-2.63185,1.06590,1.57080,0.11675,-0.12763,-0.48147,0.03545,,,,,,,,,,,,,,,,,,,,,,,,,,0,0,0,0,0
2.8837,1783967957.5837,1,1,3.0000,-0.0000,1.42242,-0.00489,-2.63185,1.06590,1.57080,0.11675,-0.12763,-0.48147,0.03545,,,,,,,,,,,,,,,,,,,,,,,,,,0,0,0,0,0
2.8841,1783967957.5841,1,1,3.0000,-0.0000,1.42242,-0.00489,-2.63185,1.06590,1.57080,0.11675,-0.12763,-0.48147,0.03545,,,,,,,,,,,,,,,,,,,,,,,,,,0,0,0,0,0
2.8843,1783967957.5843,1,1,3.0000,-0.0000,1.42242,-0.00489,-2.63185,1.06590,1.57080,0.11675,-0.12763,-0.48147,0.03545,,,,,,,,,,,,,,,,,,,,,,,,,,0,0,0,0,0
2.8879,1783967957.5878,1,1,3.0000,-0.0000,1.42242,-0.00494,-2.63186,1.06596,1.57080,0.11675,-0.12763,-0.48147,0.03543,,,,,,,,,,,,,,,,,,,,,,,,,,0,0,0,0,0
2.8882,1783967957.5882,1,1,3.0000,-0.0000,1.42242,-0.00494,-2.63186,1.06596,1.57080,0.11675,-0.12763,-0.48147,0.03543,,,,,,,,,,,,,,,,,,,,,,,,,,0,0,0,0,0
2.8931,1783967957.5931,1,1,3.0000,-0.0000,1.42242,-0.00499,-2.63187,1.06602,1.57080,0.11675,-0.12763,-0.48147,0.03541,,,,,,,,,,,,,,,,,,,,,,,,,,0,0,0,0,0
2.8934,1783967957.5934,1,1,3.0000,-0.0000,1.42242,-0.00499,-2.63187,1.06602,1.57080,0.11675,-0.12763,-0.48147,0.03541,,,,,,,,,,,,,,,,,,,,,,,,,,0,0,0,0,0
2.9016,1783967957.6016,1,1,3.0000,-0.0000,1.42242,-0.00507,-2.63188,1.06612,1.57080,0.11675,-0.12763,-0.48148,0.03539,,,,,,,,,,,,,,,,,,,,,,,,,,0,0,0,0,0
2.9066,1783967957.6066,1,1,3.0000,-0.0000,1.42242,-0.00512,-2.63188,1.06619,1.57080,0.11675,-0.12763,-0.48148,0.03538,,,,,,,,,,,,,,,,,,,,,,,,,,0,0,0,0,0
2.9113,1783967957.6112,1,1,3.0000,-0.0000,1.42242,-0.00512,-2.63188,1.06619,1.57080,0.11675,-0.12763,-0.48148,0.03538,,,,,,,,,,,,,,,,,,,,,,,,,,0,0,0,0,0
2.9155,1783967957.6155,1,1,3.0000,-0.0000,1.42242,-0.00512,-2.63188,1.06619,1.57080,0.11675,-0.12763,-0.48148,0.03538,,,,,,,,,,,,,,,,,,,,,,,,,,0,0,0,0,0
2.9230,1783967957.6230,1,1,3.0000,-0.0000,1.42242,-0.00512,-2.63188,1.06619,1.57080,0.11675,-0.12763,-0.48148,0.03538,,,,,,,,,,,,,,,,,,,,,,,,,,0,0,0,0,0
2.9324,1783967957.6324,1,1,3.0000,-0.0000,1.42242,-0.00512,-2.63188,1.06619,1.57080,0.11675,-0.12763,-0.48148,0.03538,,,,,,,,,,,,,,,,,,,,,,,,,,0,0,0,0,0
2.9331,1783967957.6331,1,1,3.0000,-0.0000,1.42242,-0.00512,-2.63188,1.06619,1.57080,0.11675,-0.12763,-0.48148,0.03538,,,,,,,,,,,,,,,,,,,,,,,,,,0,0,0,0,0
2.9334,1783967957.6334,1,1,3.0000,-0.0000,1.42242,-0.00512,-2.63188,1.06619,1.57080,0.11675,-0.12763,-0.48148,0.03538,,,,,,,,,,,,,,,,,,,,,,,,,,0,0,0,0,0
2.9338,1783967957.6338,1,1,3.0000,-0.0000,1.42242,-0.00512,-2.63188,1.06619,1.57080,0.11675,-0.12763,-0.48148,0.03538,,,,,,,,,,,,,,,,,,,,,,,,,,0,0,0,0,0
2.9351,1783967957.6351,1,1,3.0000,-0.0000,1.42242,-0.00512,-2.63188,1.06619,1.57080,0.11675,-0.12763,-0.48148,0.03538,,,,,,,,,,,,,,,,,,,,,,,,,,0,0,0,0,0
2.9356,1783967957.6355,1,1,3.0000,-0.0000,1.42242,-0.00512,-2.63188,1.06619,1.57080,0.11675,-0.12763,-0.48148,0.03538,,,,,,,,,,,,,,,,,,,,,,,,,,0,0,0,0,0
2.9378,1783967957.6378,1,1,3.0000,-0.0000,1.42242,-0.00512,-2.63188,1.06619,1.57080,0.11675,-0.12763,-0.48148,0.03538,,,,,,,,,,,,,,,,,,,,,,,,,,0,0,0,0,0
2.9386,1783967957.6386,1,1,3.0000,-0.0000,1.42242,-0.00512,-2.63188,1.06619,1.57080,0.11675,-0.12763,-0.48148,0.03538,,,,,,,,,,,,,,,,,,,,,,,,,,0,0,0,0,0
3.0326,1783967957.7326,1,1,3.0000,-0.0000,1.42242,-0.00512,-2.63188,1.06619,1.57080,0.11675,-0.12763,-0.48148,0.03538,,,,,,,,,,,,,,,,,,,,,,,,,,0,0,0,0,0
3.0746,1783967957.7746,1,1,3.0000,-0.0000,1.42242,-0.00512,-2.63188,1.06619,1.57080,0.11675,-0.12763,-0.48148,0.03538,,,,,,,,,,,,,,,,,,,,,,,,,,0,0,0,0,0
3.0802,1783967957.7802,1,1,3.0000,-0.0000,1.42242,-0.00512,-2.63188,1.06619,1.57080,0.11675,-0.12763,-0.48148,0.03538,,,,,,,,,,,,,,,,,,,,,,,,,,0,0,0,0,0
3.0812,1783967957.7812,1,1,3.0000,-0.0000,1.42242,-0.00512,-2.63188,1.06619,1.57080,0.11675,-0.12763,-0.48148,0.03538,,,,,,,,,,,,,,,,,,,,,,,,,,0,0,0,0,0
3.0815,1783967957.7815,1,1,3.0000,-0.0000,1.42242,-0.00512,-2.63188,1.06619,1.57080,0.11675,-0.12763,-0.48148,0.03538,,,,,,,,,,,,,,,,,,,,,,,,,,0,0,0,0,0
3.0865,1783967957.7865,1,1,3.0000,-0.0000,1.42242,-0.00512,-2.63188,1.06619,1.57080,0.11675,-0.12763,-0.48148,0.03538,,,,,,,,,,,,,,,,,,,,,,,,,,0,0,0,0,0
3.0868,1783967957.7868,1,1,3.0000,-0.0000,1.42242,-0.00512,-2.63188,1.06619,1.57080,0.11675,-0.12763,-0.48148,0.03538,,,,,,,,,,,,,,,,,,,,,,,,,,0,0,0,0,0
3.0870,1783967957.7870,1,1,3.0000,-0.0000,1.42242,-0.00512,-2.63188,1.06619,1.57080,0.11675,-0.12763,-0.48148,0.03538,,,,,,,,,,,,,,,,,,,,,,,,,,0,0,0,0,0
3.0887,1783967957.7886,1,1,3.0000,-0.0000,1.42242,-0.00512,-2.63188,1.06619,1.57080,0.11675,-0.12763,-0.48148,0.03538,,,,,,,,,,,,,,,,,,,,,,,,,,0,0,0,0,0
3.0889,1783967957.7889,1,1,3.0000,-0.0000,1.42242,-0.00512,-2.63188,1.06619,1.57080,0.11675,-0.12763,-0.48148,0.03538,,,,,,,,,,,,,,,,,,,,,,,,,,0,0,0,0,0
3.0944,1783967957.7944,1,1,3.0000,-0.0000,1.42242,-0.00512,-2.63188,1.06619,1.57080,0.11675,-0.12763,-0.48148,0.03538,,,,,,,,,,,,,,,,,,,,,,,,,,0,0,0,0,0
3.0947,1783967957.7947,1,1,3.0000,-0.0000,1.42242,-0.00512,-2.63188,1.06619,1.57080,0.11675,-0.12763,-0.48148,0.03538,,,,,,,,,,,,,,,,,,,,,,,,,,0,0,0,0,0
3.0960,1783967957.7960,1,1,3.0000,-0.0000,1.42242,-0.00512,-2.63188,1.06619,1.57080,0.11675,-0.12763,-0.48148,0.03538,,,,,,,,,,,,,,,,,,,,,,,,,,0,0,0,0,0
3.0963,1783967957.7963,1,1,3.0000,-0.0000,1.42242,-0.00512,-2.63188,1.06619,1.57080,0.11675,-0.12763,-0.48148,0.03538,,,,,,,,,,,,,,,,,,,,,,,,,,0,0,0,0,0
3.1003,1783967957.8003,1,1,3.0000,-0.0000,1.42242,-0.00512,-2.63188,1.06619,1.57080,0.11675,-0.12763,-0.48148,0.03538,,,,,,,,,,,,,,,,,,,,,,,,,,0,0,0,0,0
3.1006,1783967957.8006,1,1,3.0000,-0.0000,1.42242,-0.00512,-2.63188,1.06619,1.57080,0.11675,-0.12763,-0.48148,0.03538,,,,,,,,,,,,,,,,,,,,,,,,,,0,0,0,0,0
3.1036,1783967957.8035,1,1,3.0000,-0.0000,1.42242,-0.00512,-2.63188,1.06619,1.57080,0.11675,-0.12763,-0.48148,0.03538,,,,,,,,,,,,,,,,,,,,,,,,,,0,0,0,0,0
3.1039,1783967957.8039,1,1,3.0000,-0.0000,1.42242,-0.00512,-2.63188,1.06619,1.57080,0.11675,-0.12763,-0.48148,0.03538,,,,,,,,,,,,,,,,,,,,,,,,,,0,0,0,0,0
3.1124,1783967957.8124,1,1,3.0000,-0.0000,1.42242,-0.00512,-2.63188,1.06619,1.57080,0.11675,-0.12763,-0.48148,0.03538,,,,,,,,,,,,,,,,,,,,,,,,,,0,0,0,0,0
3.1310,1783967957.8310,1,1,3.0000,-0.0000,1.42242,-0.00514,-2.63188,1.06621,1.57080,0.11675,-0.12763,-0.48149,0.03537,,,,,,,,,,,,,,,,,,,,,,,,,,0,0,0,0,0
3.1332,1783967957.8331,1,1,3.0000,-0.0000,1.42242,-0.00514,-2.63188,1.06621,1.57080,0.11675,-0.12763,-0.48149,0.03537,,,,,,,,,,,,,,,,,,,,,,,,,,0,0,0,0,0
3.1392,1783967957.8391,1,1,3.0000,-0.0000,1.42242,-0.00516,-2.63188,1.06624,1.57080,0.11675,-0.12763,-0.48150,0.03537,,,,,,,,,,,,,,,,,,,,,,,,,,0,0,0,0,0
3.1479,1783967957.8479,1,1,3.0000,-0.0000,1.42242,-0.00517,-2.63188,1.06626,1.57080,0.11675,-0.12763,-0.48150,0.03537,,,,,,,,,,,,,,,,,,,,,,,,,,0,0,0,0,0
3.1593,1783967957.8593,1,1,3.0000,-0.0000,1.42242,-0.00518,-2.63189,1.06628,1.57080,0.11675,-0.12763,-0.48149,0.03536,,,,,,,,,,,,,,,,,,,,,,,,,,0,0,0,0,0
3.1694,1783967957.8693,1,1,3.0000,-0.0000,1.42242,-0.00521,-2.63191,1.06632,1.57080,0.11675,-0.12763,-0.48148,0.03534,,,,,,,,,,,,,,,,,,,,,,,,,,0,0,0,0,0
3.1825,1783967957.8824,1,1,3.0000,-0.0000,1.42242,-0.00526,-2.63194,1.06637,1.57080,0.11675,-0.12763,-0.48147,0.03532,,,,,,,,,,,,,,,,,,,,,,,,,,0,0,0,0,0
3.1828,1783967957.8828,1,1,3.0000,-0.0000,1.42242,-0.00526,-2.63194,1.06637,1.57080,0.11675,-0.12763,-0.48147,0.03532,,,,,,,,,,,,,,,,,,,,,,,,,,0,0,0,0,0
3.1884,1783967957.8883,1,1,3.0000,-0.0000,1.42242,-0.00527,-2.63195,1.06638,1.57080,0.11675,-0.12763,-0.48146,0.03531,,,,,,,,,,,,,,,,,,,,,,,,,,0,0,0,0,0
3.2038,1783967957.9038,1,1,3.0000,-0.0000,1.42242,-0.00536,-2.63199,1.06649,1.57080,0.11675,-0.12764,-0.48145,0.03527,,,,,,,,,,,,,,,,,,,,,,,,,,0,0,0,0,0
3.2147,1783967957.9147,1,1,3.0000,-0.0000,1.42242,-0.00538,-2.63200,1.06652,1.57080,0.11675,-0.12764,-0.48145,0.03527,,,,,,,,,,,,,,,,,,,,,,,,,,0,0,0,0,0
3.2200,1783967957.9200,1,1,3.0000,-0.0000,1.42242,-0.00540,-2.63200,1.06655,1.57080,0.11675,-0.12764,-0.48145,0.03526,,,,,,,,,,,,,,,,,,,,,,,,,,0,0,0,0,0
3.2321,1783967957.9321,1,1,3.0000,-0.0000,1.42242,-0.00551,-2.63203,1.06668,1.57080,0.11675,-0.12764,-0.48145,0.03522,,,,,,,,,,,,,,,,,,,,,,,,,,0,0,0,0,0
3.2383,1783967957.9383,1,1,3.0000,-0.0000,1.42242,-0.00556,-2.63204,1.06674,1.57080,0.11675,-0.12764,-0.48145,0.03520,,,,,,,,,,,,,,,,,,,,,,,,,,0,0,0,0,0
3.2523,1783967957.9523,1,1,3.0000,-0.0000,1.42242,-0.00561,-2.63205,1.06680,1.57080,0.11675,-0.12764,-0.48145,0.03519,,,,,,,,,,,,,,,,,,,,,,,,,,0,0,0,0,0
3.2597,1783967957.9597,1,1,3.0000,-0.0000,1.42242,-0.00568,-2.63206,1.06689,1.57080,0.11675,-0.12763,-0.48145,0.03516,,,,,,,,,,,,,,,,,,,,,,,,,,0,0,0,0,0
3.2728,1783967957.9728,1,1,3.0000,-0.0000,1.42242,-0.00578,-2.63208,1.06700,1.57080,0.11675,-0.12763,-0.48145,0.03513,,,,,,,,,,,,,,,,,,,,,,,,,,0,0,0,0,0
3.2732,1783967957.9731,1,1,3.0000,-0.0000,1.42242,-0.00578,-2.63208,1.06700,1.57080,0.11675,-0.12763,-0.48145,0.03513,,,,,,,,,,,,,,,,,,,,,,,,,,0,0,0,0,0
3.2831,1783967957.9831,1,1,3.0000,-0.0000,1.42242,-0.00583,-2.63208,1.06706,1.57080,0.11675,-0.12763,-0.48145,0.03512,,,,,,,,,,,,,,,,,,,,,,,,,,0,0,0,0,0
3.2886,1783967957.9886,1,1,3.0000,-0.0000,1.42242,-0.00586,-2.63209,1.06710,1.57080,0.11675,-0.12763,-0.48146,0.03511,,,,,,,,,,,,,,,,,,,,,,,,,,0,0,0,0,0
3.2889,1783967957.9889,1,1,3.0000,-0.0000,1.42242,-0.00586,-2.63209,1.06710,1.57080,0.11675,-0.12763,-0.48146,0.03511,,,,,,,,,,,,,,,,,,,,,,,,,,0,0,0,0,0
3.3006,1783967958.0006,1,1,3.0000,-0.0000,1.42242,-0.00599,-2.63210,1.06725,1.57080,0.11675,-0.12763,-0.48146,0.03507,,,,,,,,,,,,,,,,,,,,,,,,,,0,0,0,0,0
3.3232,1783967958.0231,1,1,3.0000,-0.0000,1.42242,-0.00626,-2.63214,1.06759,1.57080,0.11675,-0.12763,-0.48148,0.03499,,,,,,,,,,,,,,,,,,,,,,,,,,0,0,0,0,0
3.3357,1783967958.0357,1,1,3.0000,-0.0000,1.42242,-0.00632,-2.63215,1.06767,1.57080,0.11675,-0.12763,-0.48149,0.03497,,,,,,,,,,,,,,,,,,,,,,,,,,0,0,0,0,0
3.3414,1783967958.0414,1,1,3.0000,-0.0000,1.42242,-0.00632,-2.63215,1.06767,1.57080,0.11675,-0.12763,-0.48149,0.03497,,,,,,,,,,,,,,,,,,,,,,,,,,0,0,0,0,0
3.3419,1783967958.0418,1,1,3.0000,-0.0000,1.42242,-0.00632,-2.63215,1.06767,1.57080,0.11675,-0.12763,-0.48149,0.03497,,,,,,,,,,,,,,,,,,,,,,,,,,0,0,0,0,0
3.3508,1783967958.0507,1,1,3.0000,-0.0000,1.42242,-0.00632,-2.63215,1.06767,1.57080,0.11675,-0.12763,-0.48149,0.03497,,,,,,,,,,,,,,,,,,,,,,,,,,0,0,0,0,0
3.3512,1783967958.0511,1,1,3.0000,-0.0000,1.42242,-0.00632,-2.63215,1.06767,1.57080,0.11675,-0.12763,-0.48149,0.03497,,,,,,,,,,,,,,,,,,,,,,,,,,0,0,0,0,0
3.3595,1783967958.0595,1,1,3.0000,-0.0000,1.42242,-0.00632,-2.63215,1.06767,1.57080,0.11675,-0.12763,-0.48149,0.03497,,,,,,,,,,,,,,,,,,,,,,,,,,0,0,0,0,0
3.3801,1783967958.0801,1,1,3.0000,-0.0000,1.42242,-0.00632,-2.63215,1.06767,1.57080,0.11675,-0.12763,-0.48149,0.03497,,,,,,,,,,,,,,,,,,,,,,,,,,0,0,0,0,0
3.3999,1783967958.0999,1,1,3.0000,-0.0000,1.42242,-0.00632,-2.63215,1.06767,1.57080,0.11675,-0.12763,-0.48149,0.03497,,,,,,,,,,,,,,,,,,,,,,,,,,0,0,0,0,0
3.4028,1783967958.1027,1,1,3.0000,-0.0000,1.42242,-0.00632,-2.63215,1.06767,1.57080,0.11675,-0.12763,-0.48149,0.03497,,,,,,,,,,,,,,,,,,,,,,,,,,0,0,0,0,0
3.4031,1783967958.1031,1,1,3.0000,-0.0000,1.42242,-0.00632,-2.63215,1.06767,1.57080,0.11675,-0.12763,-0.48149,0.03497,,,,,,,,,,,,,,,,,,,,,,,,,,0,0,0,0,0
3.4086,1783967958.1086,1,1,3.0000,-0.0000,1.42242,-0.00632,-2.63215,1.06767,1.57080,0.11675,-0.12763,-0.48149,0.03497,,,,,,,,,,,,,,,,,,,,,,,,,,0,0,0,0,0
3.4133,1783967958.1132,1,1,3.0000,-0.0000,1.42242,-0.00632,-2.63215,1.06767,1.57080,0.11675,-0.12763,-0.48149,0.03497,,,,,,,,,,,,,,,,,,,,,,,,,,0,0,0,0,0
3.4206,1783967958.1206,1,1,3.0000,-0.0000,1.42242,-0.00632,-2.63215,1.06767,1.57080,0.11675,-0.12763,-0.48149,0.03497,,,,,,,,,,,,,,,,,,,,,,,,,,0,0,0,0,0
3.4279,1783967958.1279,1,1,3.0000,-0.0000,1.42242,-0.00632,-2.63215,1.06767,1.57080,0.11675,-0.12763,-0.48149,0.03497,,,,,,,,,,,,,,,,,,,,,,,,,,0,0,0,0,0
3.4424,1783967958.1424,1,1,3.0000,-0.0000,1.42242,-0.00632,-2.63215,1.06767,1.57080,0.11675,-0.12763,-0.48149,0.03497,,,,,,,,,,,,,,,,,,,,,,,,,,0,0,0,0,0
3.4426,1783967958.1426,1,1,3.0000,-0.0000,1.42242,-0.00632,-2.63215,1.06767,1.57080,0.11675,-0.12763,-0.48149,0.03497,,,,,,,,,,,,,,,,,,,,,,,,,,0,0,0,0,0
3.4429,1783967958.1429,1,1,3.0000,-0.0000,1.42242,-0.00632,-2.63215,1.06767,1.57080,0.11675,-0.12763,-0.48149,0.03497,,,,,,,,,,,,,,,,,,,,,,,,,,0,0,0,0,0
3.4478,1783967958.1478,1,1,3.0000,-0.0000,1.42242,-0.00632,-2.63215,1.06767,1.57080,0.11675,-0.12763,-0.48149,0.03497,,,,,,,,,,,,,,,,,,,,,,,,,,0,0,0,0,0
3.4615,1783967958.1615,1,1,3.0000,-0.0000,1.42242,-0.00632,-2.63215,1.06767,1.57080,0.11675,-0.12763,-0.48149,0.03497,,,,,,,,,,,,,,,,,,,,,,,,,,0,0,0,0,0
3.4718,1783967958.1717,1,1,3.0000,-0.0000,1.42242,-0.00632,-2.63215,1.06767,1.57080,0.11675,-0.12763,-0.48149,0.03497,,,,,,,,,,,,,,,,,,,,,,,,,,0,0,0,0,0
3.4816,1783967958.1815,1,1,3.0000,-0.0000,1.42242,-0.00632,-2.63215,1.06767,1.57080,0.11675,-0.12763,-0.48149,0.03497,,,,,,,,,,,,,,,,,,,,,,,,,,0,0,0,0,0
3.5264,1783967958.2263,1,1,3.0000,-0.0000,1.42242,-0.00632,-2.63215,1.06767,1.57080,0.11675,-0.12763,-0.48149,0.03497,,,,,,,,,,,,,,,,,,,,,,,,,,0,0,0,0,0
3.5290,1783967958.2290,1,1,3.0000,-0.0000,1.42242,-0.00632,-2.63215,1.06767,1.57080,0.11675,-0.12763,-0.48149,0.03497,,,,,,,,,,,,,,,,,,,,,,,,,,0,0,0,0,0
3.5304,1783967958.2304,1,1,3.0000,-0.0000,1.42242,-0.00632,-2.63215,1.06767,1.57080,0.11675,-0.12763,-0.48149,0.03497,,,,,,,,,,,,,,,,,,,,,,,,,,0,0,0,0,0
3.5309,1783967958.2308,1,1,3.0000,-0.0000,1.42242,-0.00632,-2.63215,1.06767,1.57080,0.11675,-0.12763,-0.48149,0.03497,,,,,,,,,,,,,,,,,,,,,,,,,,0,0,0,0,0
3.5604,1783967958.2604,1,1,3.0000,-0.0000,1.42242,-0.00634,-2.63215,1.06770,1.57080,0.11675,-0.12763,-0.48149,0.03497,,,,,,,,,,,,,,,,,,,,,,,,,,0,0,0,0,0
3.5728,1783967958.2727,1,1,3.0000,-0.0000,1.42242,-0.00635,-2.63215,1.06771,1.57080,0.11675,-0.12763,-0.48149,0.03496,,,,,,,,,,,,,,,,,,,,,,,,,,0,0,0,0,0
3.5866,1783967958.2866,1,1,3.0000,-0.0000,1.42242,-0.00641,-2.63220,1.06778,1.57080,0.11675,-0.12763,-0.48147,0.03493,,,,,,,,,,,,,,,,,,,,,,,,,,0,0,0,0,0
3.5918,1783967958.2918,1,1,3.0000,-0.0000,1.42242,-0.00643,-2.63221,1.06780,1.57080,0.11675,-0.12763,-0.48146,0.03492,,,,,,,,,,,,,,,,,,,,,,,,,,0,0,0,0,0
3.5922,1783967958.2922,1,1,3.0000,-0.0000,1.42242,-0.00643,-2.63221,1.06780,1.57080,0.11675,-0.12763,-0.48146,0.03492,,,,,,,,,,,,,,,,,,,,,,,,,,0,0,0,0,0
3.5931,1783967958.2931,1,1,3.0000,-0.0000,1.42242,-0.00643,-2.63221,1.06780,1.57080,0.11675,-0.12763,-0.48146,0.03492,,,,,,,,,,,,,,,,,,,,,,,,,,0,0,0,0,0
3.5935,1783967958.2935,1,1,3.0000,-0.0000,1.42242,-0.00643,-2.63221,1.06780,1.57080,0.11675,-0.12763,-0.48146,0.03492,,,,,,,,,,,,,,,,,,,,,,,,,,0,0,0,0,0
3.6013,1783967958.3012,1,1,3.0000,-0.0000,1.42242,-0.00645,-2.63223,1.06783,1.57080,0.11675,-0.12763,-0.48145,0.03491,,,,,,,,,,,,,,,,,,,,,,,,,,0,0,0,0,0
3.6127,1783967958.3127,1,1,3.0000,-0.0000,1.42242,-0.00648,-2.63224,1.06786,1.57080,0.11675,-0.12763,-0.48145,0.03490,,,,,,,,,,,,,,,,,,,,,,,,,,0,0,0,0,0
3.6164,1783967958.3163,1,1,3.0000,-0.0000,1.42242,-0.00649,-2.63225,1.06788,1.57080,0.11675,-0.12763,-0.48144,0.03489,,,,,,,,,,,,,,,,,,,,,,,,,,0,0,0,0,0
3.6186,1783967958.3186,1,1,3.0000,-0.0000,1.42242,-0.00651,-2.63225,1.06790,1.57080,0.11675,-0.12763,-0.48144,0.03488,,,,,,,,,,,,,,,,,,,,,,,,,,0,0,0,0,0
3.6189,1783967958.3189,1,1,3.0000,-0.0000,1.42242,-0.00651,-2.63225,1.06790,1.57080,0.11675,-0.12763,-0.48144,0.03488,,,,,,,,,,,,,,,,,,,,,,,,,,0,0,0,0,0
3.6233,1783967958.3233,1,1,3.0000,-0.0000,1.42242,-0.00653,-2.63226,1.06792,1.57080,0.11675,-0.12763,-0.48144,0.03487,,,,,,,,,,,,,,,,,,,,,,,,,,0,0,0,0,0
3.6416,1783967958.3416,1,1,3.0000,-0.0000,1.42242,-0.00658,-2.63228,1.06797,1.57080,0.11675,-0.12764,-0.48143,0.03485,,,,,,,,,,,,,,,,,,,,,,,,,,0,0,0,0,0
3.6459,1783967958.3458,1,1,3.0000,-0.0000,1.42242,-0.00660,-2.63228,1.06800,1.57080,0.11675,-0.12764,-0.48143,0.03485,,,,,,,,,,,,,,,,,,,,,,,,,,0,0,0,0,0
3.6479,1783967958.3479,1,1,3.0000,-0.0000,1.42242,-0.00662,-2.63229,1.06803,1.57080,0.11675,-0.12764,-0.48143,0.03484,,,,,,,,,,,,,,,,,,,,,,,,,,0,0,0,0,0
3.6590,1783967958.3590,1,1,3.0000,-0.0000,1.42242,-0.00666,-2.63229,1.06808,1.57080,0.11675,-0.12763,-0.48144,0.03483,,,,,,,,,,,,,,,,,,,,,,,,,,0,0,0,0,0
3.6705,1783967958.3705,1,1,3.0000,-0.0000,1.42242,-0.00675,-2.63231,1.06819,1.57080,0.11675,-0.12763,-0.48144,0.03480,,,,,,,,,,,,,,,,,,,,,,,,,,0,0,0,0,0
3.6804,1783967958.3804,1,1,3.0000,-0.0000,1.42242,-0.00685,-2.63232,1.06831,1.57080,0.11675,-0.12763,-0.48144,0.03477,,,,,,,,,,,,,,,,,,,,,,,,,,0,0,0,0,0
3.6808,1783967958.3808,1,1,3.0000,-0.0000,1.42242,-0.00685,-2.63232,1.06831,1.57080,0.11675,-0.12763,-0.48144,0.03477,,,,,,,,,,,,,,,,,,,,,,,,,,0,0,0,0,0
3.6916,1783967958.3916,1,1,3.0000,-0.0000,1.42242,-0.00692,-2.63233,1.06838,1.57080,0.11675,-0.12763,-0.48145,0.03475,,,,,,,,,,,,,,,,,,,,,,,,,,0,0,0,0,0
3.7033,1783967958.4033,1,1,3.0000,-0.0000,1.42242,-0.00699,-2.63234,1.06848,1.57080,0.11675,-0.12763,-0.48145,0.03472,,,,,,,,,,,,,,,,,,,,,,,,,,0,0,0,0,0
3.7036,1783967958.4036,1,1,3.0000,-0.0000,1.42242,-0.00699,-2.63234,1.06848,1.57080,0.11675,-0.12763,-0.48145,0.03472,,,,,,,,,,,,,,,,,,,,,,,,,,0,0,0,0,0
3.7113,1783967958.4113,1,1,3.0000,-0.0000,1.42242,-0.00708,-2.63235,1.06858,1.57080,0.11675,-0.12763,-0.48146,0.03470,,,,,,,,,,,,,,,,,,,,,,,,,,0,0,0,0,0
3.7176,1783967958.4176,1,1,3.0000,-0.0000,1.42242,-0.00713,-2.63236,1.06864,1.57080,0.11675,-0.12763,-0.48146,0.03468,,,,,,,,,,,,,,,,,,,,,,,,,,0,0,0,0,0
3.7180,1783967958.4179,1,1,3.0000,-0.0000,1.42242,-0.00713,-2.63236,1.06864,1.57080,0.11675,-0.12763,-0.48146,0.03468,,,,,,,,,,,,,,,,,,,,,,,,,,0,0,0,0,0
3.7307,1783967958.4306,1,1,3.0000,-0.0000,1.42242,-0.00717,-2.63236,1.06869,1.57080,0.11675,-0.12763,-0.48146,0.03467,,,,,,,,,,,,,,,,,,,,,,,,,,0,0,0,0,0
3.7428,1783967958.4428,1,1,3.0000,-0.0000,1.42242,-0.00726,-2.63237,1.06880,1.57080,0.11675,-0.12763,-0.48148,0.03465,,,,,,,,,,,,,,,,,,,,,,,,,,0,0,0,0,0
3.7432,1783967958.4432,1,1,3.0000,-0.0000,1.42242,-0.00726,-2.63237,1.06880,1.57080,0.11675,-0.12763,-0.48148,0.03465,,,,,,,,,,,,,,,,,,,,,,,,,,0,0,0,0,0
3.7604,1783967958.4603,1,1,3.0000,-0.0000,1.42241,-0.00742,-2.63236,1.06900,1.57080,0.11675,-0.12762,-0.48151,0.03461,,,,,,,,,,,,,,,,,,,,,,,,,,0,0,0,0,0
3.7606,1783967958.4606,1,1,3.0000,-0.0000,1.42241,-0.00742,-2.63236,1.06900,1.57080,0.11675,-0.12762,-0.48151,0.03461,,,,,,,,,,,,,,,,,,,,,,,,,,0,0,0,0,0
3.7620,1783967958.4620,1,1,3.0000,-0.0000,1.42241,-0.00742,-2.63236,1.06900,1.57080,0.11675,-0.12762,-0.48151,0.03461,,,,,,,,,,,,,,,,,,,,,,,,,,0,0,0,0,0
3.7624,1783967958.4624,1,1,3.0000,-0.0000,1.42241,-0.00746,-2.63236,1.06905,1.57080,0.11675,-0.12762,-0.48152,0.03461,,,,,,,,,,,,,,,,,,,,,,,,,,0,0,0,0,0
3.7725,1783967958.4725,1,1,3.0000,-0.0000,1.42241,-0.00752,-2.63235,1.06913,1.57080,0.11675,-0.12762,-0.48153,0.03460,,,,,,,,,,,,,,,,,,,,,,,,,,0,0,0,0,0
3.7728,1783967958.4728,1,1,3.0000,-0.0000,1.42241,-0.00752,-2.63235,1.06913,1.57080,0.11675,-0.12762,-0.48153,0.03460,,,,,,,,,,,,,,,,,,,,,,,,,,0,0,0,0,0
3.7933,1783967958.4933,1,1,3.0000,-0.0000,1.42241,-0.00756,-2.63234,1.06918,1.57080,0.11675,-0.12762,-0.48155,0.03459,,,,,,,,,,,,,,,,,,,,,,,,,,0,0,0,0,0
3.7937,1783967958.4937,1,1,3.0000,-0.0000,1.42241,-0.00756,-2.63234,1.06918,1.57080,0.11675,-0.12762,-0.48155,0.03459,,,,,,,,,,,,,,,,,,,,,,,,,,0,0,0,0,0
3.8024,1783967958.5024,1,1,3.0000,-0.0000,1.42241,-0.00756,-2.63234,1.06918,1.57080,0.11675,-0.12762,-0.48155,0.03459,,,,,,,,,,,,,,,,,,,,,,,,,,0,0,0,0,0
3.8060,1783967958.5059,1,1,3.0000,-0.0000,1.42241,-0.00756,-2.63234,1.06918,1.57080,0.11675,-0.12762,-0.48155,0.03459,,,,,,,,,,,,,,,,,,,,,,,,,,0,0,0,0,0
3.8063,1783967958.5063,1,1,3.0000,-0.0000,1.42241,-0.00756,-2.63234,1.06918,1.57080,0.11675,-0.12762,-0.48155,0.03459,,,,,,,,,,,,,,,,,,,,,,,,,,0,0,0,0,0
3.8078,1783967958.5078,1,1,3.0000,-0.0000,1.42241,-0.00756,-2.63234,1.06918,1.57080,0.11675,-0.12762,-0.48155,0.03459,,,,,,,,,,,,,,,,,,,,,,,,,,0,0,0,0,0
3.8185,1783967958.5185,1,1,3.0000,-0.0000,1.42241,-0.00756,-2.63234,1.06918,1.57080,0.11675,-0.12762,-0.48155,0.03459,,,,,,,,,,,,,,,,,,,,,,,,,,0,0,0,0,0
3.8283,1783967958.5283,1,1,3.0000,-0.0000,1.42241,-0.00756,-2.63234,1.06918,1.57080,0.11675,-0.12762,-0.48155,0.03459,,,,,,,,,,,,,,,,,,,,,,,,,,0,0,0,0,0
3.8453,1783967958.5453,1,1,3.0000,-0.0000,1.42241,-0.00756,-2.63234,1.06918,1.57080,0.11675,-0.12762,-0.48155,0.03459,,,,,,,,,,,,,,,,,,,,,,,,,,0,0,0,0,0
3.8484,1783967958.5484,1,1,3.0000,-0.0000,1.42241,-0.00756,-2.63234,1.06918,1.57080,0.11675,-0.12762,-0.48155,0.03459,,,,,,,,,,,,,,,,,,,,,,,,,,0,0,0,0,0
3.8488,1783967958.5488,1,1,3.0000,-0.0000,1.42241,-0.00756,-2.63234,1.06918,1.57080,0.11675,-0.12762,-0.48155,0.03459,,,,,,,,,,,,,,,,,,,,,,,,,,0,0,0,0,0
3.8692,1783967958.5692,1,1,3.0000,-0.0000,1.42241,-0.00756,-2.63234,1.06918,1.57080,0.11675,-0.12762,-0.48155,0.03459,,,,,,,,,,,,,,,,,,,,,,,,,,0,0,0,0,0
3.8762,1783967958.5762,1,1,3.0000,-0.0000,1.42241,-0.00756,-2.63234,1.06918,1.57080,0.11675,-0.12762,-0.48155,0.03459,,,,,,,,,,,,,,,,,,,,,,,,,,0,0,0,0,0
3.8861,1783967958.5861,1,1,3.0000,-0.0000,1.42241,-0.00756,-2.63234,1.06918,1.57080,0.11675,-0.12762,-0.48155,0.03459,,,,,,,,,,,,,,,,,,,,,,,,,,0,0,0,0,0
3.8960,1783967958.5960,1,1,3.0000,-0.0000,1.42241,-0.00756,-2.63234,1.06918,1.57080,0.11675,-0.12762,-0.48155,0.03459,,,,,,,,,,,,,,,,,,,,,,,,,,0,0,0,0,0
3.8963,1783967958.5963,1,1,3.0000,-0.0000,1.42241,-0.00756,-2.63234,1.06918,1.57080,0.11675,-0.12762,-0.48155,0.03459,,,,,,,,,,,,,,,,,,,,,,,,,,0,0,0,0,0
3.9057,1783967958.6057,1,1,3.0000,-0.0000,1.42241,-0.00756,-2.63234,1.06918,1.57080,0.11675,-0.12762,-0.48155,0.03459,,,,,,,,,,,,,,,,,,,,,,,,,,0,0,0,0,0
3.9235,1783967958.6235,1,1,3.0000,-0.0000,1.42241,-0.00756,-2.63234,1.06918,1.57080,0.11675,-0.12762,-0.48155,0.03459,,,,,,,,,,,,,,,,,,,,,,,,,,0,0,0,0,0
3.9508,1783967958.6508,1,1,3.0000,-0.0000,1.42241,-0.00756,-2.63234,1.06918,1.57080,0.11675,-0.12762,-0.48155,0.03459,,,,,,,,,,,,,,,,,,,,,,,,,,0,0,0,0,0
3.9553,1783967958.6553,1,1,3.0000,-0.0000,1.42241,-0.00756,-2.63234,1.06918,1.57080,0.11675,-0.12762,-0.48155,0.03459,,,,,,,,,,,,,,,,,,,,,,,,,,0,0,0,0,0
3.9557,1783967958.6557,1,1,3.0000,-0.0000,1.42241,-0.00756,-2.63234,1.06918,1.57080,0.11675,-0.12762,-0.48155,0.03459,,,,,,,,,,,,,,,,,,,,,,,,,,0,0,0,0,0
3.9559,1783967958.6559,1,1,3.0000,-0.0000,1.42241,-0.00756,-2.63234,1.06918,1.57080,0.11675,-0.12762,-0.48155,0.03459,,,,,,,,,,,,,,,,,,,,,,,,,,0,0,0,0,0
3.9595,1783967958.6595,1,1,3.0000,-0.0000,1.42241,-0.00756,-2.63234,1.06918,1.57080,0.11675,-0.12762,-0.48155,0.03459,,,,,,,,,,,,,,,,,,,,,,,,,,0,0,0,0,0
3.9707,1783967958.6707,1,1,3.0000,-0.0000,1.42241,-0.00756,-2.63234,1.06918,1.57080,0.11675,-0.12762,-0.48155,0.03459,,,,,,,,,,,,,,,,,,,,,,,,,,0,0,0,0,0
3.9841,1783967958.6841,1,1,3.0000,-0.0000,1.42241,-0.00756,-2.63234,1.06918,1.57080,0.11675,-0.12762,-0.48155,0.03459,,,,,,,,,,,,,,,,,,,,,,,,,,0,0,0,0,0
3.9844,1783967958.6843,1,1,3.0000,-0.0000,1.42241,-0.00756,-2.63234,1.06918,1.57080,0.11675,-0.12762,-0.48155,0.03459,,,,,,,,,,,,,,,,,,,,,,,,,,0,0,0,0,0
3.9898,1783967958.6898,1,1,3.0000,-0.0000,1.42241,-0.00756,-2.63234,1.06918,1.57080,0.11675,-0.12762,-0.48155,0.03459,,,,,,,,,,,,,,,,,,,,,,,,,,0,0,0,0,0
3.9906,1783967958.6906,1,1,3.0000,-0.0000,1.42241,-0.00756,-2.63234,1.06918,1.57080,0.11675,-0.12762,-0.48155,0.03459,,,,,,,,,,,,,,,,,,,,,,,,,,0,0,0,0,0
4.0187,1783967958.7187,1,1,3.0000,-0.0000,1.42241,-0.00761,-2.63241,1.06925,1.57080,0.11675,-0.12762,-0.48151,0.03455,,,,,,,,,,,,,,,,,,,,,,,,,,0,0,0,0,0
4.0244,1783967958.7244,1,1,3.0000,-0.0000,1.42241,-0.00761,-2.63241,1.06925,1.57080,0.11675,-0.12762,-0.48151,0.03455,,,,,,,,,,,,,,,,,,,,,,,,,,0,0,0,0,0
4.0247,1783967958.7247,1,1,3.0000,-0.0000,1.42241,-0.00761,-2.63241,1.06925,1.57080,0.11675,-0.12762,-0.48151,0.03455,,,,,,,,,,,,,,,,,,,,,,,,,,0,0,0,0,0
4.0334,1783967958.7334,1,1,3.0000,-0.0000,1.42241,-0.00763,-2.63241,1.06926,1.57080,0.11675,-0.12762,-0.48150,0.03454,,,,,,,,,,,,,,,,,,,,,,,,,,0,0,0,0,0
4.0426,1783967958.7426,1,1,3.0000,-0.0000,1.42241,-0.00768,-2.63245,1.06932,1.57080,0.11675,-0.12763,-0.48149,0.03451,,,,,,,,,,,,,,,,,,,,,,,,,,0,0,0,0,0
4.0498,1783967958.7498,1,1,3.0000,-0.0000,1.42241,-0.00768,-2.63245,1.06932,1.57080,0.11675,-0.12763,-0.48149,0.03451,,,,,,,,,,,,,,,,,,,,,,,,,,0,0,0,0,0
4.0514,1783967958.7514,1,1,3.0000,-0.0000,1.42241,-0.00768,-2.63245,1.06933,1.57080,0.11675,-0.12763,-0.48149,0.03451,,,,,,,,,,,,,,,,,,,,,,,,,,0,0,0,0,0
4.0641,1783967958.7641,1,1,3.0000,-0.0000,1.42241,-0.00774,-2.63247,1.06940,1.57080,0.11675,-0.12763,-0.48148,0.03449,,,,,,,,,,,,,,,,,,,,,,,,,,0,0,0,0,0
4.0707,1783967958.7707,1,1,3.0000,-0.0000,1.42241,-0.00780,-2.63250,1.06947,1.57080,0.11675,-0.12763,-0.48147,0.03446,,,,,,,,,,,,,,,,,,,,,,,,,,0,0,0,0,0
4.0799,1783967958.7799,1,1,3.0000,-0.0000,1.42241,-0.00784,-2.63251,1.06952,1.57080,0.11675,-0.12763,-0.48147,0.03445,,,,,,,,,,,,,,,,,,,,,,,,,,0,0,0,0,0
4.0906,1783967958.7905,1,1,3.0000,-0.0000,1.42241,-0.00789,-2.63252,1.06958,1.57080,0.11675,-0.12763,-0.48147,0.03443,,,,,,,,,,,,,,,,,,,,,,,,,,0,0,0,0,0
4.1227,1783967958.8227,1,1,3.0000,-0.0000,1.42241,-0.00812,-2.63257,1.06985,1.57080,0.11675,-0.12763,-0.48147,0.03435,,,,,,,,,,,,,,,,,,,,,,,,,,0,0,0,0,0
4.1260,1783967958.8259,1,1,3.0000,-0.0000,1.42241,-0.00812,-2.63257,1.06985,1.57080,0.11675,-0.12763,-0.48147,0.03435,,,,,,,,,,,,,,,,,,,,,,,,,,0,0,0,0,0
4.1314,1783967958.8314,1,1,3.0000,-0.0000,1.42241,-0.00819,-2.63258,1.06994,1.57080,0.11675,-0.12763,-0.48147,0.03433,,,,,,,,,,,,,,,,,,,,,,,,,,0,0,0,0,0
4.1427,1783967958.8427,1,1,3.0000,-0.0000,1.42241,-0.00822,-2.63259,1.06997,1.57080,0.11675,-0.12763,-0.48147,0.03432,,,,,,,,,,,,,,,,,,,,,,,,,,0,0,0,0,0
4.1432,1783967958.8432,1,1,3.0000,-0.0000,1.42241,-0.00822,-2.63259,1.06997,1.57080,0.11675,-0.12763,-0.48147,0.03432,,,,,,,,,,,,,,,,,,,,,,,,,,0,0,0,0,0
4.1535,1783967958.8535,1,1,3.0000,-0.0000,1.42241,-0.00828,-2.63260,1.07005,1.57080,0.11675,-0.12763,-0.48147,0.03430,,,,,,,,,,,,,,,,,,,,,,,,,,0,0,0,0,0
4.1612,1783967958.8612,1,1,3.0000,-0.0000,1.42241,-0.00837,-2.63261,1.07015,1.57080,0.11675,-0.12762,-0.48148,0.03427,,,,,,,,,,,,,,,,,,,,,,,,,,0,0,0,0,0
4.1707,1783967958.8706,1,1,3.0000,-0.0000,1.42241,-0.00852,-2.63262,1.07034,1.57080,0.11675,-0.12762,-0.48149,0.03423,,,,,,,,,,,,,,,,,,,,,,,,,,0,0,0,0,0
4.1709,1783967958.8709,1,1,3.0000,-0.0000,1.42241,-0.00852,-2.63262,1.07034,1.57080,0.11675,-0.12762,-0.48149,0.03423,,,,,,,,,,,,,,,,,,,,,,,,,,0,0,0,0,0
4.1826,1783967958.8826,1,1,3.0000,-0.0000,1.42241,-0.00866,-2.63263,1.07051,1.57080,0.11675,-0.12762,-0.48151,0.03419,,,,,,,,,,,,,,,,,,,,,,,,,,0,0,0,0,0
4.1925,1783967958.8925,1,1,3.0000,-0.0000,1.42241,-0.00872,-2.63263,1.07059,1.57080,0.11675,-0.12762,-0.48152,0.03418,,,,,,,,,,,,,,,,,,,,,,,,,,0,0,0,0,0
4.1995,1783967958.8995,1,1,3.0000,-0.0000,1.42241,-0.00874,-2.63263,1.07061,1.57080,0.11675,-0.12762,-0.48152,0.03418,,,,,,,,,,,,,,,,,,,,,,,,,,0,0,0,0,0
4.2114,1783967958.9114,1,1,3.0000,-0.0000,1.42241,-0.00874,-2.63263,1.07061,1.57080,0.11675,-0.12762,-0.48152,0.03418,,,,,,,,,,,,,,,,,,,,,,,,,,0,0,0,0,0
4.2220,1783967958.9219,1,1,3.0000,-0.0000,1.42241,-0.00874,-2.63263,1.07061,1.57080,0.11675,-0.12762,-0.48152,0.03418,,,,,,,,,,,,,,,,,,,,,,,,,,0,0,0,0,0
4.2336,1783967958.9336,1,1,3.0000,-0.0000,1.42241,-0.00874,-2.63263,1.07061,1.57080,0.11675,-0.12762,-0.48152,0.03418,,,,,,,,,,,,,,,,,,,,,,,,,,0,0,0,0,0
4.2408,1783967958.9407,1,1,3.0000,-0.0000,1.42241,-0.00874,-2.63263,1.07061,1.57080,0.11675,-0.12762,-0.48152,0.03418,,,,,,,,,,,,,,,,,,,,,,,,,,0,0,0,0,0
4.2561,1783967958.9561,1,1,3.0000,-0.0000,1.42241,-0.00874,-2.63263,1.07061,1.57080,0.11675,-0.12762,-0.48152,0.03418,,,,,,,,,,,,,,,,,,,,,,,,,,0,0,0,0,0
4.2578,1783967958.9578,1,1,3.0000,-0.0000,1.42241,-0.00874,-2.63263,1.07061,1.57080,0.11675,-0.12762,-0.48152,0.03418,,,,,,,,,,,,,,,,,,,,,,,,,,0,0,0,0,0
4.2582,1783967958.9582,1,1,3.0000,-0.0000,1.42241,-0.00874,-2.63263,1.07061,1.57080,0.11675,-0.12762,-0.48152,0.03418,,,,,,,,,,,,,,,,,,,,,,,,,,0,0,0,0,0
4.2719,1783967958.9719,1,1,3.0000,-0.0000,1.42241,-0.00874,-2.63263,1.07061,1.57080,0.11675,-0.12762,-0.48152,0.03418,,,,,,,,,,,,,,,,,,,,,,,,,,0,0,0,0,0
4.2833,1783967958.9833,1,1,3.0000,-0.0000,1.42241,-0.00874,-2.63263,1.07061,1.57080,0.11675,-0.12762,-0.48152,0.03418,,,,,,,,,,,,,,,,,,,,,,,,,,0,0,0,0,0
4.2836,1783967958.9836,1,1,3.0000,-0.0000,1.42241,-0.00874,-2.63263,1.07061,1.57080,0.11675,-0.12762,-0.48152,0.03418,,,,,,,,,,,,,,,,,,,,,,,,,,0,0,0,0,0
4.3000,1783967959.0000,1,1,3.0000,-0.0000,1.42241,-0.00874,-2.63263,1.07061,1.57080,0.11675,-0.12762,-0.48152,0.03418,,,,,,,,,,,,,,,,,,,,,,,,,,0,0,0,0,0
4.3007,1783967959.0006,1,1,3.0000,-0.0000,1.42241,-0.00874,-2.63263,1.07061,1.57080,0.11675,-0.12762,-0.48152,0.03418,,,,,,,,,,,,,,,,,,,,,,,,,,0,0,0,0,0
4.3010,1783967959.0009,1,1,3.0000,-0.0000,1.42241,-0.00874,-2.63263,1.07061,1.57080,0.11675,-0.12762,-0.48152,0.03418,,,,,,,,,,,,,,,,,,,,,,,,,,0,0,0,0,0
4.3139,1783967959.0138,1,1,3.0000,-0.0000,1.42241,-0.00874,-2.63263,1.07061,1.57080,0.11675,-0.12762,-0.48152,0.03418,,,,,,,,,,,,,,,,,,,,,,,,,,0,0,0,0,0
4.3147,1783967959.0146,1,1,3.0000,-0.0000,1.42241,-0.00874,-2.63263,1.07061,1.57080,0.11675,-0.12762,-0.48152,0.03418,,,,,,,,,,,,,,,,,,,,,,,,,,0,0,0,0,0
4.3189,1783967959.0189,1,1,3.0000,-0.0000,1.42241,-0.00874,-2.63263,1.07061,1.57080,0.11675,-0.12762,-0.48152,0.03418,,,,,,,,,,,,,,,,,,,,,,,,,,0,0,0,0,0
4.3292,1783967959.0292,1,1,3.0000,-0.0000,1.42241,-0.00874,-2.63263,1.07061,1.57080,0.11675,-0.12762,-0.48152,0.03418,,,,,,,,,,,,,,,,,,,,,,,,,,0,0,0,0,0
4.3496,1783967959.0496,1,1,3.0000,-0.0000,1.42241,-0.00874,-2.63263,1.07061,1.57080,0.11675,-0.12762,-0.48152,0.03418,,,,,,,,,,,,,,,,,,,,,,,,,,0,0,0,0,0
4.3606,1783967959.0606,1,1,3.0000,-0.0000,1.42241,-0.00874,-2.63263,1.07061,1.57080,0.11675,-0.12762,-0.48152,0.03418,,,,,,,,,,,,,,,,,,,,,,,,,,0,0,0,0,0
4.3614,1783967959.0614,1,1,3.0000,-0.0000,1.42241,-0.00874,-2.63263,1.07061,1.57080,0.11675,-0.12762,-0.48152,0.03418,,,,,,,,,,,,,,,,,,,,,,,,,,0,0,0,0,0
4.3616,1783967959.0616,1,1,3.0000,-0.0000,1.42241,-0.00874,-2.63263,1.07061,1.57080,0.11675,-0.12762,-0.48152,0.03418,,,,,,,,,,,,,,,,,,,,,,,,,,0,0,0,0,0
4.3682,1783967959.0682,1,1,3.0000,-0.0000,1.42241,-0.00874,-2.63263,1.07061,1.57080,0.11675,-0.12762,-0.48152,0.03418,,,,,,,,,,,,,,,,,,,,,,,,,,0,0,0,0,0
4.3788,1783967959.0788,1,1,3.0000,-0.0000,1.42241,-0.00874,-2.63263,1.07061,1.57080,0.11675,-0.12762,-0.48152,0.03418,,,,,,,,,,,,,,,,,,,,,,,,,,0,0,0,0,0
4.3793,1783967959.0792,1,1,3.0000,-0.0000,1.42241,-0.00874,-2.63263,1.07061,1.57080,0.11675,-0.12762,-0.48152,0.03418,,,,,,,,,,,,,,,,,,,,,,,,,,0,0,0,0,0
4.4002,1783967959.1001,1,1,3.0000,-0.0000,1.42241,-0.00874,-2.63263,1.07062,1.57080,0.11675,-0.12762,-0.48153,0.03418,,,,,,,,,,,,,,,,,,,,,,,,,,0,0,0,0,0
4.4040,1783967959.1040,1,1,3.0000,-0.0000,1.42241,-0.00874,-2.63263,1.07062,1.57080,0.11675,-0.12762,-0.48153,0.03418,,,,,,,,,,,,,,,,,,,,,,,,,,0,0,0,0,0
4.4044,1783967959.1044,1,1,3.0000,-0.0000,1.42241,-0.00874,-2.63263,1.07062,1.57080,0.11675,-0.12762,-0.48153,0.03418,,,,,,,,,,,,,,,,,,,,,,,,,,0,0,0,0,0
4.4107,1783967959.1106,1,1,3.0000,-0.0000,1.42241,-0.00874,-2.63263,1.07063,1.57080,0.11675,-0.12762,-0.48153,0.03418,,,,,,,,,,,,,,,,,,,,,,,,,,0,0,0,0,0
4.4229,1783967959.1229,1,1,3.0000,-0.0000,1.42241,-0.00876,-2.63265,1.07065,1.57081,0.11675,-0.12762,-0.48151,0.03416,,,,,,,,,,,,,,,,,,,,,,,,,,0,0,0,0,0
4.4232,1783967959.1232,1,1,3.0000,-0.0000,1.42241,-0.00876,-2.63265,1.07065,1.57081,0.11675,-0.12762,-0.48151,0.03416,,,,,,,,,,,,,,,,,,,,,,,,,,0,0,0,0,0
4.4327,1783967959.1327,1,1,3.0000,-0.0000,1.42241,-0.00878,-2.63268,1.07068,1.57081,0.11675,-0.12762,-0.48150,0.03415,,,,,,,,,,,,,,,,,,,,,,,,,,0,0,0,0,0
4.5136,1783967959.2136,1,1,3.0000,-0.0000,1.42241,-0.00908,-2.63280,1.07102,1.57081,0.11675,-0.12763,-0.48145,0.03402,,,,,,,,,,,,,,,,,,,,,,,,,,0,0,0,0,0
4.5149,1783967959.2149,1,1,3.0000,-0.0000,1.42241,-0.00912,-2.63281,1.07108,1.57081,0.11675,-0.12763,-0.48145,0.03400,,,,,,,,,,,,,,,,,,,,,,,,,,0,0,0,0,0
4.5153,1783967959.2153,1,1,3.0000,-0.0000,1.42241,-0.00912,-2.63281,1.07108,1.57081,0.11675,-0.12763,-0.48145,0.03400,,,,,,,,,,,,,,,,,,,,,,,,,,0,0,0,0,0
4.5188,1783967959.2188,1,1,3.0000,-0.0000,1.42241,-0.00918,-2.63282,1.07114,1.57081,0.11675,-0.12763,-0.48145,0.03399,,,,,,,,,,,,,,,,,,,,,,,,,,0,0,0,0,0
4.5190,1783967959.2190,1,1,3.0000,-0.0000,1.42241,-0.00918,-2.63282,1.07114,1.57081,0.11675,-0.12763,-0.48145,0.03399,,,,,,,,,,,,,,,,,,,,,,,,,,0,0,0,0,0
4.5296,1783967959.2295,1,1,3.0000,-0.0000,1.42241,-0.00923,-2.63283,1.07121,1.57081,0.11675,-0.12763,-0.48145,0.03397,,,,,,,,,,,,,,,,,,,,,,,,,,0,0,0,0,0
4.5301,1783967959.2300,1,1,3.0000,-0.0000,1.42241,-0.00923,-2.63283,1.07121,1.57081,0.11675,-0.12763,-0.48145,0.03397,,,,,,,,,,,,,,,,,,,,,,,,,,0,0,0,0,0
4.5342,1783967959.2342,1,1,3.0000,-0.0000,1.42241,-0.00924,-2.63283,1.07121,1.57081,0.11675,-0.12763,-0.48145,0.03397,,,,,,,,,,,,,,,,,,,,,,,,,,0,0,0,0,0
4.5348,1783967959.2347,1,1,3.0000,-0.0000,1.42241,-0.00926,-2.63284,1.07123,1.57081,0.11675,-0.12763,-0.48145,0.03396,,,,,,,,,,,,,,,,,,,,,,,,,,0,0,0,0,0
4.5354,1783967959.2354,1,1,3.0000,-0.0000,1.42241,-0.00926,-2.63284,1.07123,1.57081,0.11675,-0.12763,-0.48145,0.03396,,,,,,,,,,,,,,,,,,,,,,,,,,0,0,0,0,0
4.5358,1783967959.2358,1,1,3.0000,-0.0000,1.42241,-0.00926,-2.63284,1.07123,1.57081,0.11675,-0.12763,-0.48145,0.03396,,,,,,,,,,,,,,,,,,,,,,,,,,0,0,0,0,0
4.5361,1783967959.2361,1,1,3.0000,-0.0000,1.42241,-0.00926,-2.63284,1.07123,1.57081,0.11675,-0.12763,-0.48145,0.03396,,,,,,,,,,,,,,,,,,,,,,,,,,0,0,0,0,0
4.5445,1783967959.2445,1,1,3.0000,-0.0000,1.42241,-0.00932,-2.63285,1.07131,1.57081,0.11675,-0.12763,-0.48145,0.03394,,,,,,,,,,,,,,,,,,,,,,,,,,0,0,0,0,0
4.5513,1783967959.2512,1,1,3.0000,-0.0000,1.42241,-0.00941,-2.63286,1.07141,1.57081,0.11675,-0.12763,-0.48146,0.03391,,,,,,,,,,,,,,,,,,,,,,,,,,0,0,0,0,0
4.5517,1783967959.2517,1,1,3.0000,-0.0000,1.42241,-0.00941,-2.63286,1.07141,1.57081,0.11675,-0.12763,-0.48146,0.03391,,,,,,,,,,,,,,,,,,,,,,,,,,0,0,0,0,0
4.5616,1783967959.2616,1,1,3.0000,-0.0000,1.42241,-0.00951,-2.63288,1.07154,1.57081,0.11675,-0.12763,-0.48146,0.03388,,,,,,,,,,,,,,,,,,,,,,,,,,0,0,0,0,0
4.5685,1783967959.2685,1,1,3.0000,-0.0000,1.42241,-0.00952,-2.63288,1.07154,1.57081,0.11675,-0.12763,-0.48146,0.03388,,,,,,,,,,,,,,,,,,,,,,,,,,0,0,0,0,0
4.5689,1783967959.2688,1,1,3.0000,-0.0000,1.42241,-0.00952,-2.63288,1.07154,1.57081,0.11675,-0.12763,-0.48146,0.03388,,,,,,,,,,,,,,,,,,,,,,,,,,0,0,0,0,0
4.5797,1783967959.2797,1,1,3.0000,-0.0000,1.42241,-0.00957,-2.63288,1.07161,1.57081,0.11675,-0.12762,-0.48147,0.03386,,,,,,,,,,,,,,,,,,,,,,,,,,0,0,0,0,0
4.5800,1783967959.2800,1,1,3.0000,-0.0000,1.42241,-0.00957,-2.63288,1.07161,1.57081,0.11675,-0.12762,-0.48147,0.03386,,,,,,,,,,,,,,,,,,,,,,,,,,0,0,0,0,0
4.5912,1783967959.2912,1,1,3.0000,-0.0000,1.42241,-0.00967,-2.63289,1.07174,1.57081,0.11675,-0.12762,-0.48148,0.03383,,,,,,,,,,,,,,,,,,,,,,,,,,0,0,0,0,0
4.5989,1783967959.2988,1,1,3.0000,-0.0000,1.42241,-0.00975,-2.63289,1.07183,1.57081,0.11675,-0.12762,-0.48149,0.03382,,,,,,,,,,,,,,,,,,,,,,,,,,0,0,0,0,0
4.6082,1783967959.3082,1,1,3.0000,-0.0000,1.42241,-0.00982,-2.63289,1.07192,1.57081,0.11675,-0.12762,-0.48150,0.03380,,,,,,,,,,,,,,,,,,,,,,,,,,0,0,0,0,0
4.6213,1783967959.3212,1,1,3.0000,-0.0000,1.42241,-0.00991,-2.63288,1.07203,1.57081,0.11675,-0.12761,-0.48152,0.03378,,,,,,,,,,,,,,,,,,,,,,,,,,0,0,0,0,0
4.6309,1783967959.3309,1,1,3.0000,-0.0000,1.42241,-0.00993,-2.63288,1.07205,1.57081,0.11675,-0.12761,-0.48153,0.03378,,,,,,,,,,,,,,,,,,,,,,,,,,0,0,0,0,0
4.6395,1783967959.3394,1,1,3.0000,-0.0000,1.42241,-0.00993,-2.63288,1.07205,1.57081,0.11675,-0.12761,-0.48153,0.03378,,,,,,,,,,,,,,,,,,,,,,,,,,0,0,0,0,0
4.6399,1783967959.3399,1,1,3.0000,-0.0000,1.42241,-0.00993,-2.63288,1.07205,1.57081,0.11675,-0.12761,-0.48153,0.03378,,,,,,,,,,,,,,,,,,,,,,,,,,0,0,0,0,0
4.6551,1783967959.3551,1,1,3.0000,-0.0000,1.42241,-0.00993,-2.63288,1.07205,1.57081,0.11675,-0.12761,-0.48153,0.03378,,,,,,,,,,,,,,,,,,,,,,,,,,0,0,0,0,0
4.6554,1783967959.3553,1,1,3.0000,-0.0000,1.42241,-0.00993,-2.63288,1.07205,1.57081,0.11675,-0.12761,-0.48153,0.03378,,,,,,,,,,,,,,,,,,,,,,,,,,0,0,0,0,0
4.6632,1783967959.3632,1,1,3.0000,-0.0000,1.42241,-0.00993,-2.63288,1.07205,1.57081,0.11675,-0.12761,-0.48153,0.03378,,,,,,,,,,,,,,,,,,,,,,,,,,0,0,0,0,0
4.6637,1783967959.3637,1,1,3.0000,-0.0000,1.42241,-0.00993,-2.63288,1.07205,1.57081,0.11675,-0.12761,-0.48153,0.03378,,,,,,,,,,,,,,,,,,,,,,,,,,0,0,0,0,0
4.6687,1783967959.3687,1,1,3.0000,-0.0000,1.42241,-0.00993,-2.63288,1.07205,1.57081,0.11675,-0.12761,-0.48153,0.03378,,,,,,,,,,,,,,,,,,,,,,,,,,0,0,0,0,0
4.6691,1783967959.3691,1,1,3.0000,-0.0000,1.42241,-0.00993,-2.63288,1.07205,1.57081,0.11675,-0.12761,-0.48153,0.03378,,,,,,,,,,,,,,,,,,,,,,,,,,0,0,0,0,0
4.6821,1783967959.3820,1,1,3.0000,-0.0000,1.42241,-0.00993,-2.63288,1.07205,1.57081,0.11675,-0.12761,-0.48153,0.03378,,,,,,,,,,,,,,,,,,,,,,,,,,0,0,0,0,0
4.7008,1783967959.4008,1,1,3.0000,-0.0000,1.42241,-0.00993,-2.63288,1.07205,1.57081,0.11675,-0.12761,-0.48153,0.03378,,,,,,,,,,,,,,,,,,,,,,,,,,0,0,0,0,0
4.7044,1783967959.4044,1,1,3.0000,-0.0000,1.42241,-0.00993,-2.63288,1.07205,1.57081,0.11675,-0.12761,-0.48153,0.03378,,,,,,,,,,,,,,,,,,,,,,,,,,0,0,0,0,0
4.7047,1783967959.4047,1,1,3.0000,-0.0000,1.42241,-0.00993,-2.63288,1.07205,1.57081,0.11675,-0.12761,-0.48153,0.03378,,,,,,,,,,,,,,,,,,,,,,,,,,0,0,0,0,0
4.7113,1783967959.4113,1,1,3.0000,-0.0000,1.42241,-0.00993,-2.63288,1.07205,1.57081,0.11675,-0.12761,-0.48153,0.03378,,,,,,,,,,,,,,,,,,,,,,,,,,0,0,0,0,0
4.7195,1783967959.4195,1,1,3.0000,-0.0000,1.42241,-0.00993,-2.63288,1.07205,1.57081,0.11675,-0.12761,-0.48153,0.03378,,,,,,,,,,,,,,,,,,,,,,,,,,0,0,0,0,0
4.7293,1783967959.4293,1,1,3.0000,-0.0000,1.42241,-0.00993,-2.63288,1.07205,1.57081,0.11675,-0.12761,-0.48153,0.03378,,,,,,,,,,,,,,,,,,,,,,,,,,0,0,0,0,0
4.7390,1783967959.4390,1,1,3.0000,-0.0000,1.42241,-0.00993,-2.63288,1.07205,1.57081,0.11675,-0.12761,-0.48153,0.03378,,,,,,,,,,,,,,,,,,,,,,,,,,0,0,0,0,0
4.7393,1783967959.4393,1,1,3.0000,-0.0000,1.42241,-0.00993,-2.63288,1.07205,1.57081,0.11675,-0.12761,-0.48153,0.03378,,,,,,,,,,,,,,,,,,,,,,,,,,0,0,0,0,0
4.7495,1783967959.4495,1,1,3.0000,-0.0000,1.42241,-0.00993,-2.63288,1.07205,1.57081,0.11675,-0.12761,-0.48153,0.03378,,,,,,,,,,,,,,,,,,,,,,,,,,0,0,0,0,0
4.7622,1783967959.4621,1,1,3.0000,-0.0000,1.42241,-0.00993,-2.63288,1.07205,1.57081,0.11675,-0.12761,-0.48153,0.03378,,,,,,,,,,,,,,,,,,,,,,,,,,0,0,0,0,0
4.7736,1783967959.4736,1,1,3.0000,-0.0000,1.42241,-0.00993,-2.63288,1.07205,1.57081,0.11675,-0.12761,-0.48153,0.03378,,,,,,,,,,,,,,,,,,,,,,,,,,0,0,0,0,0
4.7821,1783967959.4821,1,1,3.0000,-0.0000,1.42241,-0.00993,-2.63288,1.07205,1.57081,0.11675,-0.12761,-0.48153,0.03378,,,,,,,,,,,,,,,,,,,,,,,,,,0,0,0,0,0
4.7908,1783967959.4907,1,1,3.0000,-0.0000,1.42241,-0.00993,-2.63288,1.07205,1.57081,0.11675,-0.12761,-0.48153,0.03378,,,,,,,,,,,,,,,,,,,,,,,,,,0,0,0,0,0
4.8019,1783967959.5018,1,1,3.0000,-0.0000,1.42241,-0.00993,-2.63288,1.07205,1.57081,0.11675,-0.12761,-0.48153,0.03378,,,,,,,,,,,,,,,,,,,,,,,,,,0,0,0,0,0
4.8127,1783967959.5127,1,1,3.0000,-0.0000,1.42241,-0.00993,-2.63288,1.07205,1.57081,0.11675,-0.12761,-0.48153,0.03378,,,,,,,,,,,,,,,,,,,,,,,,,,0,0,0,0,0
4.8309,1783967959.5308,1,1,3.0000,-0.0000,1.42241,-0.00993,-2.63288,1.07206,1.57081,0.11675,-0.12761,-0.48153,0.03378,,,,,,,,,,,,,,,,,,,,,,,,,,0,0,0,0,0
4.8312,1783967959.5312,1,1,3.0000,-0.0000,1.42241,-0.00993,-2.63288,1.07206,1.57081,0.11675,-0.12761,-0.48153,0.03378,,,,,,,,,,,,,,,,,,,,,,,,,,0,0,0,0,0
4.8411,1783967959.5411,1,1,3.0000,-0.0000,1.42241,-0.00994,-2.63290,1.07208,1.57081,0.11675,-0.12762,-0.48152,0.03377,,,,,,,,,,,,,,,,,,,,,,,,,,0,0,0,0,0
4.8524,1783967959.5524,1,1,3.0000,-0.0000,1.42241,-0.00997,-2.63293,1.07212,1.57081,0.11675,-0.12762,-0.48150,0.03375,,,,,,,,,,,,,,,,,,,,,,,,,,0,0,0,0,0
4.8584,1783967959.5583,1,1,3.0000,-0.0000,1.42241,-0.00997,-2.63293,1.07212,1.57081,0.11675,-0.12762,-0.48150,0.03375,,,,,,,,,,,,,,,,,,,,,,,,,,0,0,0,0,0
4.8589,1783967959.5589,1,1,3.0000,-0.0000,1.42241,-0.00998,-2.63294,1.07212,1.57081,0.11675,-0.12762,-0.48150,0.03375,,,,,,,,,,,,,,,,,,,,,,,,,,0,0,0,0,0
4.8680,1783967959.5679,1,1,3.0000,-0.0000,1.42241,-0.00999,-2.63295,1.07214,1.57081,0.11675,-0.12762,-0.48149,0.03373,,,,,,,,,,,,,,,,,,,,,,,,,,0,0,0,0,0
4.8683,1783967959.5682,1,1,3.0000,-0.0000,1.42241,-0.00999,-2.63295,1.07214,1.57081,0.11675,-0.12762,-0.48149,0.03373,,,,,,,,,,,,,,,,,,,,,,,,,,0,0,0,0,0
4.8792,1783967959.5792,1,1,3.0000,-0.0000,1.42241,-0.01005,-2.63299,1.07220,1.57081,0.11675,-0.12762,-0.48147,0.03370,,,,,,,,,,,,,,,,,,,,,,,,,,0,0,0,0,0
4.8891,1783967959.5891,1,1,3.0000,-0.0000,1.42240,-0.01010,-2.63302,1.07226,1.57081,0.11675,-0.12763,-0.48145,0.03367,,,,,,,,,,,,,,,,,,,,,,,,,,0,0,0,0,0
4.8895,1783967959.5895,1,1,3.0000,-0.0000,1.42240,-0.01010,-2.63302,1.07226,1.57081,0.11675,-0.12763,-0.48145,0.03367,,,,,,,,,,,,,,,,,,,,,,,,,,0,0,0,0,0
4.8983,1783967959.5983,1,1,3.0000,-0.0000,1.42240,-0.01010,-2.63302,1.07226,1.57081,0.11675,-0.12763,-0.48145,0.03367,,,,,,,,,,,,,,,,,,,,,,,,,,0,0,0,0,0
4.9114,1783967959.6114,1,1,3.0000,-0.0000,1.42240,-0.01017,-2.63305,1.07235,1.57081,0.11675,-0.12763,-0.48144,0.03365,,,,,,,,,,,,,,,,,,,,,,,,,,0,0,0,0,0
4.9205,1783967959.6205,1,1,3.0000,-0.0000,1.42240,-0.01024,-2.63306,1.07242,1.57081,0.11675,-0.12763,-0.48144,0.03362,,,,,,,,,,,,,,,,,,,,,,,,,,0,0,0,0,0
4.9282,1783967959.6282,1,1,3.0000,-0.0000,1.42240,-0.01024,-2.63307,1.07243,1.57081,0.11675,-0.12763,-0.48144,0.03362,,,,,,,,,,,,,,,,,,,,,,,,,,0,0,0,0,0
4.9391,1783967959.6391,1,1,3.0000,-0.0000,1.42240,-0.01031,-2.63308,1.07252,1.57081,0.11675,-0.12763,-0.48144,0.03360,,,,,,,,,,,,,,,,,,,,,,,,,,0,0,0,0,0
4.9395,1783967959.6395,1,1,3.0000,-0.0000,1.42240,-0.01031,-2.63308,1.07252,1.57081,0.11675,-0.12763,-0.48144,0.03360,,,,,,,,,,,,,,,,,,,,,,,,,,0,0,0,0,0
4.9481,1783967959.6480,1,1,3.0000,-0.0000,1.42240,-0.01035,-2.63309,1.07256,1.57081,0.11675,-0.12763,-0.48144,0.03358,,,,,,,,,,,,,,,,,,,,,,,,,,0,0,0,0,0
4.9485,1783967959.6484,1,1,3.0000,-0.0000,1.42240,-0.01035,-2.63309,1.07256,1.57081,0.11675,-0.12763,-0.48144,0.03358,,,,,,,,,,,,,,,,,,,,,,,,,,0,0,0,0,0
4.9791,1783967959.6791,1,1,3.0000,-0.0000,1.42240,-0.01061,-2.63313,1.07286,1.57081,0.11675,-0.12762,-0.48145,0.03350,,,,,,,,,,,,,,,,,,,,,,,,,,0,0,0,0,0
4.9864,1783967959.6864,1,1,3.0000,-0.0000,1.42240,-0.01061,-2.63313,1.07287,1.57081,0.11675,-0.12762,-0.48145,0.03350,,,,,,,,,,,,,,,,,,,,,,,,,,0,0,0,0,0
4.9870,1783967959.6869,1,1,3.0000,-0.0000,1.42240,-0.01063,-2.63313,1.07289,1.57081,0.11675,-0.12762,-0.48145,0.03350,,,,,,,,,,,,,,,,,,,,,,,,,,0,0,0,0,0
4.9933,1783967959.6933,1,1,3.0000,-0.0000,1.42240,-0.01065,-2.63313,1.07292,1.57081,0.11675,-0.12762,-0.48145,0.03349,,,,,,,,,,,,,,,,,,,,,,,,,,0,0,0,0,0
4.9937,1783967959.6937,1,1,3.0000,-0.0000,1.42240,-0.01065,-2.63313,1.07292,1.57081,0.11675,-0.12762,-0.48145,0.03349,,,,,,,,,,,,,,,,,,,,,,,,,,0,0,0,0,0
5.0015,1783967959.7014,1,1,3.0000,-0.0000,1.42240,-0.01072,-2.63314,1.07300,1.57081,0.11675,-0.12762,-0.48146,0.03347,,,,,,,,,,,,,,,,,,,,,,,,,,0,0,0,0,0
5.0160,1783967959.7160,1,1,3.0000,-0.0000,1.42240,-0.01090,-2.63315,1.07322,1.57081,0.11675,-0.12762,-0.48148,0.03342,,,,,,,,,,,,,,,,,,,,,,,,,,0,0,0,0,0
5.0245,1783967959.7245,1,1,3.0000,-0.0000,1.42240,-0.01099,-2.63316,1.07333,1.57081,0.11675,-0.12762,-0.48149,0.03340,,,,,,,,,,,,,,,,,,,,,,,,,,0,0,0,0,0
5.0350,1783967959.7350,1,1,3.0000,-0.0000,1.42240,-0.01109,-2.63316,1.07346,1.57081,0.11675,-0.12761,-0.48151,0.03338,,,,,,,,,,,,,,,,,,,,,,,,,,0,0,0,0,0
5.0797,1783967959.7797,1,1,3.0000,-0.0000,1.42240,-0.01111,-2.63315,1.07349,1.57081,0.11675,-0.12761,-0.48152,0.03337,,,,,,,,,,,,,,,,,,,,,,,,,,0,0,0,0,0
5.2243,1783967959.9243,1,1,3.0000,-0.0000,1.42240,-0.01111,-2.63315,1.07349,1.57081,0.11675,-0.12761,-0.48152,0.03337,,,,,,,,,,,,,,,,,,,,,,,,,,0,0,0,0,0
5.2312,1783967959.9311,1,1,3.0000,-0.0000,1.42240,-0.01111,-2.63315,1.07349,1.57081,0.11675,-0.12761,-0.48152,0.03337,,,,,,,,,,,,,,,,,,,,,,,,,,0,0,0,0,0
5.2315,1783967959.9315,1,1,3.0000,-0.0000,1.42240,-0.01111,-2.63315,1.07349,1.57081,0.11675,-0.12761,-0.48152,0.03337,,,,,,,,,,,,,,,,,,,,,,,,,,0,0,0,0,0
5.2429,1783967959.9429,1,1,3.0000,-0.0000,1.42240,-0.01111,-2.63315,1.07349,1.57081,0.11675,-0.12761,-0.48152,0.03337,,,,,,,,,,,,,,,,,,,,,,,,,,0,0,0,0,0
5.2433,1783967959.9432,1,1,3.0000,-0.0000,1.42240,-0.01111,-2.63315,1.07349,1.57081,0.11675,-0.12761,-0.48152,0.03337,,,,,,,,,,,,,,,,,,,,,,,,,,0,0,0,0,0
5.2511,1783967959.9510,1,1,3.0000,-0.0000,1.42240,-0.01111,-2.63315,1.07349,1.57081,0.11675,-0.12761,-0.48152,0.03337,,,,,,,,,,,,,,,,,,,,,,,,,,0,0,0,0,0
5.2514,1783967959.9514,1,1,3.0000,-0.0000,1.42240,-0.01111,-2.63315,1.07349,1.57081,0.11675,-0.12761,-0.48152,0.03337,,,,,,,,,,,,,,,,,,,,,,,,,,0,0,0,0,0
5.2527,1783967959.9527,1,1,3.0000,-0.0000,1.42240,-0.01111,-2.63315,1.07349,1.57081,0.11675,-0.12761,-0.48152,0.03337,,,,,,,,,,,,,,,,,,,,,,,,,,0,0,0,0,0
5.2530,1783967959.9530,1,1,3.0000,-0.0000,1.42240,-0.01111,-2.63315,1.07349,1.57081,0.11675,-0.12761,-0.48152,0.03337,,,,,,,,,,,,,,,,,,,,,,,,,,0,0,0,0,0
5.2535,1783967959.9534,1,1,3.0000,-0.0000,1.42240,-0.01111,-2.63315,1.07349,1.57081,0.11675,-0.12761,-0.48152,0.03337,,,,,,,,,,,,,,,,,,,,,,,,,,0,0,0,0,0
5.3054,1783967960.0054,1,1,3.0000,-0.0000,1.42240,-0.01124,-2.63326,1.07365,1.57081,0.11675,-0.12762,-0.48146,0.03330,,,,,,,,,,,,,,,,,,,,,,,,,,0,0,0,0,0
5.3114,1783967960.0114,1,1,3.0000,-0.0000,1.42240,-0.01125,-2.63326,1.07365,1.57081,0.11675,-0.12762,-0.48146,0.03329,,,,,,,,,,,,,,,,,,,,,,,,,,0,0,0,0,0
5.3151,1783967960.0150,1,1,3.0000,-0.0000,1.42240,-0.01125,-2.63326,1.07367,1.57081,0.11675,-0.12762,-0.48146,0.03329,,,,,,,,,,,,,,,,,,,,,,,,,,0,0,0,0,0
5.3154,1783967960.0154,1,1,3.0000,-0.0000,1.42240,-0.01125,-2.63326,1.07367,1.57081,0.11675,-0.12762,-0.48146,0.03329,,,,,,,,,,,,,,,,,,,,,,,,,,0,0,0,0,0
5.3254,1783967960.0254,1,1,3.0000,-0.0000,1.42240,-0.01129,-2.63328,1.07371,1.57081,0.11675,-0.12762,-0.48145,0.03327,,,,,,,,,,,,,,,,,,,,,,,,,,0,0,0,0,0
5.3327,1783967960.0327,1,1,3.0000,-0.0000,1.42240,-0.01134,-2.63330,1.07377,1.57081,0.11675,-0.12762,-0.48144,0.03325,,,,,,,,,,,,,,,,,,,,,,,,,,0,0,0,0,0
5.3462,1783967960.0462,1,1,3.0000,-0.0000,1.42240,-0.01138,-2.63331,1.07382,1.57081,0.11675,-0.12762,-0.48144,0.03324,,,,,,,,,,,,,,,,,,,,,,,,,,0,0,0,0,0
5.3469,1783967960.0468,1,1,3.0000,-0.0000,1.42240,-0.01139,-2.63332,1.07383,1.57081,0.11675,-0.12762,-0.48144,0.03323,,,,,,,,,,,,,,,,,,,,,,,,,,0,0,0,0,0
