Martins-Lucaas/twinforge/sensors/Data/20260710_182903__samples.csv
t_rel_s,t_unix,cycle,phase,setpoint_n,force_net_n,q1,q2,q3,q4,q5,q6,tcp_x,tcp_y,tcp_z,taxel_0,taxel_1,taxel_2,taxel_3,taxel_4,taxel_5,taxel_6,taxel_7,taxel_8,taxel_9,taxel_10,taxel_11,taxel_12,taxel_13,taxel_14,taxel_15,taxel_16,taxel_17,taxel_18,taxel_19,taxel_20,taxel_21,taxel_22,taxel_23,taxel_24,n_RA,n_SA,cn_mm,cn_ra,cn_sa
0.0009,1783718943.1815,0,-1,1.0000,0.0000,1.42052,0.14185,-2.66700,0.95410,1.57079,0.11681,-0.13199,-0.44693,0.06301,,,,,,,,,,,,,,,,,,,,,,,,,,0,0,0,0,0
0.0408,1783718943.2213,1,0,1.0000,0.0000,1.42052,0.14185,-2.66700,0.95410,1.57079,0.11681,-0.13199,-0.44693,0.06301,,,,,,,,,,,,,,,,,,,,,,,,,,0,0,0,0,0
0.0412,1783718943.2217,1,0,1.0000,0.0000,1.42052,0.14185,-2.66700,0.95410,1.57079,0.11681,-0.13199,-0.44693,0.06301,,,,,,,,,,,,,,,,,,,,,,,,,,0,0,0,0,0
0.0414,1783718943.2220,1,0,1.0000,0.0000,1.42052,0.14185,-2.66700,0.95410,1.57079,0.11681,-0.13199,-0.44693,0.06301,,,,,,,,,,,,,,,,,,,,,,,,,,0,0,0,0,0
0.0421,1783718943.2227,1,0,1.0000,0.0000,1.42052,0.14185,-2.66700,0.95410,1.57079,0.11681,-0.13199,-0.44693,0.06301,,,,,,,,,,,,,,,,,,,,,,,,,,0,0,0,0,0
0.0532,1783718943.2338,1,0,1.0000,0.0000,1.42052,0.14185,-2.66700,0.95410,1.57079,0.11681,-0.13199,-0.44693,0.06301,,,,,,,,,,,,,,,,,,,,,,,,,,0,0,0,0,0
0.0623,1783718943.2428,1,0,1.0000,0.0000,1.42052,0.14185,-2.66700,0.95410,1.57079,0.11681,-0.13199,-0.44693,0.06301,,,,,,,,,,,,,,,,,,,,,,,,,,0,0,0,0,0
0.0698,1783718943.2503,1,0,1.0000,0.0000,1.42052,0.14185,-2.66700,0.95410,1.57079,0.11681,-0.13199,-0.44693,0.06301,,,,,,,,,,,,,,,,,,,,,,,,,,0,0,0,0,0
0.0905,1783718943.2710,1,0,1.0000,0.0000,1.42052,0.14185,-2.66700,0.95410,1.57079,0.11681,-0.13199,-0.44693,0.06301,,,,,,,,,,,,,,,,,,,,,,,,,,0,0,0,0,0
0.0913,1783718943.2719,1,0,1.0000,0.0000,1.42052,0.14185,-2.66700,0.95410,1.57079,0.11681,-0.13199,-0.44693,0.06301,,,,,,,,,,,,,,,,,,,,,,,,,,0,0,0,0,0
0.0916,1783718943.2722,1,0,1.0000,0.0000,1.42052,0.14185,-2.66700,0.95410,1.57079,0.11681,-0.13199,-0.44693,0.06301,,,,,,,,,,,,,,,,,,,,,,,,,,0,0,0,0,0
0.1131,1783718943.2937,1,0,1.0000,0.0000,1.42052,0.14185,-2.66700,0.95410,1.57079,0.11681,-0.13199,-0.44693,0.06301,,,,,,,,,,,,,,,,,,,,,,,,,,0,0,0,0,0
0.1159,1783718943.2964,1,0,1.0000,0.0000,1.42052,0.14185,-2.66700,0.95410,1.57079,0.11681,-0.13199,-0.44693,0.06301,,,,,,,,,,,,,,,,,,,,,,,,,,0,0,0,0,0
0.1162,1783718943.2968,1,0,1.0000,0.0000,1.42052,0.14185,-2.66700,0.95410,1.57079,0.11681,-0.13199,-0.44693,0.06301,,,,,,,,,,,,,,,,,,,,,,,,,,0,0,0,0,0
0.1317,1783718943.3122,1,0,1.0000,0.0000,1.42052,0.14185,-2.66700,0.95410,1.57079,0.11681,-0.13199,-0.44693,0.06301,,,,,,,,,,,,,,,,,,,,,,,,,,0,0,0,0,0
0.1325,1783718943.3130,1,0,1.0000,0.0000,1.42052,0.14185,-2.66700,0.95410,1.57079,0.11681,-0.13199,-0.44693,0.06301,,,,,,,,,,,,,,,,,,,,,,,,,,0,0,0,0,0
0.1329,1783718943.3134,1,0,1.0000,0.0000,1.42052,0.14185,-2.66700,0.95410,1.57079,0.11681,-0.13199,-0.44693,0.06301,,,,,,,,,,,,,,,,,,,,,,,,,,0,0,0,0,0
0.1427,1783718943.3233,1,0,1.0000,0.0000,1.42052,0.14185,-2.66700,0.95410,1.57079,0.11681,-0.13199,-0.44693,0.06301,,,,,,,,,,,,,,,,,,,,,,,,,,0,0,0,0,0
0.1928,1783718943.3733,1,0,1.0000,0.0000,1.42052,0.14185,-2.66700,0.95410,1.57079,0.11681,-0.13199,-0.44693,0.06301,,,,,,,,,,,,,,,,,,,,,,,,,,0,0,0,0,0
0.2019,1783718943.3824,1,0,1.0000,0.0000,1.42052,0.14185,-2.66700,0.95410,1.57079,0.11681,-0.13199,-0.44693,0.06301,,,,,,,,,,,,,,,,,,,,,,,,,,0,0,0,0,0
0.2024,1783718943.3829,1,0,1.0000,0.0000,1.42052,0.14185,-2.66700,0.95410,1.57079,0.11681,-0.13199,-0.44693,0.06301,,,,,,,,,,,,,,,,,,,,,,,,,,0,0,0,0,0
0.2027,1783718943.3833,1,0,1.0000,0.0000,1.42052,0.14185,-2.66700,0.95410,1.57079,0.11681,-0.13199,-0.44693,0.06301,,,,,,,,,,,,,,,,,,,,,,,,,,0,0,0,0,0
0.2109,1783718943.3914,1,0,1.0000,0.0000,1.42052,0.14185,-2.66700,0.95410,1.57079,0.11681,-0.13199,-0.44693,0.06301,,,,,,,,,,,,,,,,,,,,,,,,,,0,0,0,0,0
0.2190,1783718943.3995,1,0,1.0000,0.0000,1.42052,0.14185,-2.66700,0.95410,1.57079,0.11681,-0.13199,-0.44693,0.06301,,,,,,,,,,,,,,,,,,,,,,,,,,0,0,0,0,0
0.2471,1783718943.4276,1,0,1.0000,0.0000,1.42052,0.14185,-2.66700,0.95410,1.57079,0.11681,-0.13199,-0.44693,0.06301,,,,,,,,,,,,,,,,,,,,,,,,,,0,0,0,0,0
0.2475,1783718943.4280,1,0,1.0000,0.0000,1.42052,0.14185,-2.66700,0.95410,1.57079,0.11681,-0.13199,-0.44693,0.06301,,,,,,,,,,,,,,,,,,,,,,,,,,0,0,0,0,0
0.2493,1783718943.4299,1,0,1.0000,0.0000,1.42052,0.14185,-2.66700,0.95410,1.57079,0.11681,-0.13199,-0.44693,0.06301,,,,,,,,,,,,,,,,,,,,,,,,,,0,0,0,0,0
0.2647,1783718943.4452,1,0,1.0000,0.0000,1.42052,0.14185,-2.66700,0.95410,1.57079,0.11681,-0.13199,-0.44693,0.06301,,,,,,,,,,,,,,,,,,,,,,,,,,0,0,0,0,0
0.2651,1783718943.4456,1,0,1.0000,0.0000,1.42052,0.14185,-2.66700,0.95410,1.57079,0.11681,-0.13199,-0.44693,0.06301,,,,,,,,,,,,,,,,,,,,,,,,,,0,0,0,0,0
0.3144,1783718943.4949,1,0,1.0000,0.0000,1.42052,0.14185,-2.66700,0.95410,1.57079,0.11681,-0.13199,-0.44693,0.06301,,,,,,,,,,,,,,,,,,,,,,,,,,0,0,0,0,0
0.3148,1783718943.4953,1,0,1.0000,0.0000,1.42052,0.14185,-2.66700,0.95410,1.57079,0.11681,-0.13199,-0.44693,0.06301,,,,,,,,,,,,,,,,,,,,,,,,,,0,0,0,0,0
0.3153,1783718943.4958,1,0,1.0000,0.0000,1.42052,0.14185,-2.66700,0.95410,1.57079,0.11681,-0.13199,-0.44693,0.06301,,,,,,,,,,,,,,,,,,,,,,,,,,0,0,0,0,0
0.3191,1783718943.4996,1,0,1.0000,0.0000,1.42052,0.14185,-2.66700,0.95410,1.57079,0.11681,-0.13199,-0.44693,0.06301,,,,,,,,,,,,,,,,,,,,,,,,,,0,0,0,0,0
0.3312,1783718943.5117,1,0,1.0000,0.0000,1.42052,0.14185,-2.66700,0.95410,1.57079,0.11681,-0.13199,-0.44693,0.06301,,,,,,,,,,,,,,,,,,,,,,,,,,0,0,0,0,0
0.3462,1783718943.5268,1,0,1.0000,0.0000,1.42052,0.14185,-2.66700,0.95410,1.57079,0.11681,-0.13199,-0.44693,0.06301,,,,,,,,,,,,,,,,,,,,,,,,,,0,0,0,0,0
0.3556,1783718943.5362,1,0,1.0000,0.0000,1.42052,0.14185,-2.66700,0.95410,1.57079,0.11681,-0.13199,-0.44693,0.06301,,,,,,,,,,,,,,,,,,,,,,,,,,0,0,0,0,0
0.3560,1783718943.5365,1,0,1.0000,0.0000,1.42052,0.14185,-2.66700,0.95410,1.57079,0.11681,-0.13199,-0.44693,0.06301,,,,,,,,,,,,,,,,,,,,,,,,,,0,0,0,0,0
0.3625,1783718943.5430,1,0,1.0000,0.0000,1.42052,0.14185,-2.66700,0.95410,1.57079,0.11681,-0.13199,-0.44693,0.06301,,,,,,,,,,,,,,,,,,,,,,,,,,0,0,0,0,0
0.3628,1783718943.5433,1,0,1.0000,0.0000,1.42052,0.14185,-2.66700,0.95410,1.57079,0.11681,-0.13199,-0.44693,0.06301,,,,,,,,,,,,,,,,,,,,,,,,,,0,0,0,0,0
0.3698,1783718943.5503,1,0,1.0000,0.0000,1.42052,0.14185,-2.66700,0.95410,1.57079,0.11681,-0.13199,-0.44693,0.06301,,,,,,,,,,,,,,,,,,,,,,,,,,0,0,0,0,0
0.3797,1783718943.5602,1,0,1.0000,0.0000,1.42052,0.14185,-2.66700,0.95410,1.57079,0.11681,-0.13199,-0.44693,0.06301,,,,,,,,,,,,,,,,,,,,,,,,,,0,0,0,0,0
0.3800,1783718943.5606,1,0,1.0000,0.0000,1.42052,0.14185,-2.66700,0.95410,1.57079,0.11681,-0.13199,-0.44693,0.06301,,,,,,,,,,,,,,,,,,,,,,,,,,0,0,0,0,0
0.4303,1783718943.6108,1,0,1.0000,0.0000,1.42052,0.14185,-2.66700,0.95410,1.57079,0.11681,-0.13199,-0.44693,0.06301,,,,,,,,,,,,,,,,,,,,,,,,,,0,0,0,0,0
0.4305,1783718943.6110,1,0,1.0000,0.0000,1.42052,0.14185,-2.66700,0.95410,1.57079,0.11681,-0.13199,-0.44693,0.06301,,,,,,,,,,,,,,,,,,,,,,,,,,0,0,0,0,0
0.4311,1783718943.6117,1,0,1.0000,0.0000,1.42052,0.14185,-2.66700,0.95410,1.57079,0.11681,-0.13199,-0.44693,0.06301,,,,,,,,,,,,,,,,,,,,,,,,,,0,0,0,0,0
0.4314,1783718943.6119,1,0,1.0000,0.0000,1.42052,0.14185,-2.66700,0.95410,1.57079,0.11681,-0.13199,-0.44693,0.06301,,,,,,,,,,,,,,,,,,,,,,,,,,0,0,0,0,0
0.4391,1783718943.6197,1,0,1.0000,0.0000,1.42052,0.14185,-2.66700,0.95410,1.57079,0.11681,-0.13199,-0.44693,0.06301,,,,,,,,,,,,,,,,,,,,,,,,,,0,0,0,0,0
0.4509,1783718943.6314,1,0,1.0000,0.0000,1.42052,0.14185,-2.66700,0.95410,1.57079,0.11681,-0.13199,-0.44693,0.06301,,,,,,,,,,,,,,,,,,,,,,,,,,0,0,0,0,0
0.4694,1783718943.6499,1,0,1.0000,0.0000,1.42052,0.14185,-2.66700,0.95410,1.57079,0.11681,-0.13199,-0.44693,0.06301,,,,,,,,,,,,,,,,,,,,,,,,,,0,0,0,0,0
0.4869,1783718943.6674,1,0,1.0000,0.0000,1.42052,0.14185,-2.66700,0.95410,1.57079,0.11681,-0.13199,-0.44693,0.06301,,,,,,,,,,,,,,,,,,,,,,,,,,0,0,0,0,0
0.4906,1783718943.6711,1,0,1.0000,0.0000,1.42052,0.14185,-2.66700,0.95410,1.57079,0.11681,-0.13199,-0.44693,0.06301,,,,,,,,,,,,,,,,,,,,,,,,,,0,0,0,0,0
0.5031,1783718943.6836,1,0,1.0000,0.0000,1.42052,0.14185,-2.66700,0.95410,1.57079,0.11681,-0.13199,-0.44693,0.06301,,,,,,,,,,,,,,,,,,,,,,,,,,0,0,0,0,0
0.5034,1783718943.6839,1,0,1.0000,0.0000,1.42052,0.14185,-2.66700,0.95410,1.57079,0.11681,-0.13199,-0.44693,0.06301,,,,,,,,,,,,,,,,,,,,,,,,,,0,0,0,0,0
0.5160,1783718943.6965,1,0,1.0000,0.0000,1.42052,0.14185,-2.66700,0.95410,1.57079,0.11681,-0.13199,-0.44693,0.06301,,,,,,,,,,,,,,,,,,,,,,,,,,0,0,0,0,0
0.5543,1783718943.7348,1,0,1.0000,0.0000,1.42052,0.14185,-2.66700,0.95410,1.57079,0.11681,-0.13199,-0.44693,0.06301,,,,,,,,,,,,,,,,,,,,,,,,,,0,0,0,0,0
0.5548,1783718943.7353,1,0,1.0000,0.0000,1.42052,0.14185,-2.66700,0.95410,1.57079,0.11681,-0.13199,-0.44693,0.06301,,,,,,,,,,,,,,,,,,,,,,,,,,0,0,0,0,0
0.5551,1783718943.7357,1,0,1.0000,0.0000,1.42052,0.14185,-2.66700,0.95410,1.57079,0.11681,-0.13199,-0.44693,0.06301,,,,,,,,,,,,,,,,,,,,,,,,,,0,0,0,0,0
0.5605,1783718943.7410,1,0,1.0000,0.0000,1.42052,0.14185,-2.66700,0.95410,1.57079,0.11681,-0.13199,-0.44693,0.06301,,,,,,,,,,,,,,,,,,,,,,,,,,0,0,0,0,0
0.5609,1783718943.7415,1,0,1.0000,0.0000,1.42052,0.14185,-2.66700,0.95410,1.57079,0.11681,-0.13199,-0.44693,0.06301,,,,,,,,,,,,,,,,,,,,,,,,,,0,0,0,0,0
0.5742,1783718943.7547,1,0,1.0000,0.0000,1.42052,0.14185,-2.66700,0.95410,1.57079,0.11681,-0.13199,-0.44693,0.06301,,,,,,,,,,,,,,,,,,,,,,,,,,0,0,0,0,0
0.5796,1783718943.7602,1,0,1.0000,0.0000,1.42052,0.14185,-2.66700,0.95410,1.57079,0.11681,-0.13199,-0.44693,0.06301,,,,,,,,,,,,,,,,,,,,,,,,,,0,0,0,0,0
0.5799,1783718943.7604,1,0,1.0000,0.0000,1.42052,0.14185,-2.66700,0.95410,1.57079,0.11681,-0.13199,-0.44693,0.06301,,,,,,,,,,,,,,,,,,,,,,,,,,0,0,0,0,0
0.6000,1783718943.7806,1,0,1.0000,0.0000,1.42052,0.14185,-2.66700,0.95410,1.57079,0.11681,-0.13199,-0.44693,0.06301,,,,,,,,,,,,,,,,,,,,,,,,,,0,0,0,0,0
0.6095,1783718943.7900,1,0,1.0000,0.0000,1.42052,0.14185,-2.66700,0.95410,1.57079,0.11681,-0.13199,-0.44693,0.06301,,,,,,,,,,,,,,,,,,,,,,,,,,0,0,0,0,0
0.6151,1783718943.7957,1,0,1.0000,0.0000,1.42052,0.14185,-2.66700,0.95410,1.57079,0.11681,-0.13199,-0.44693,0.06301,,,,,,,,,,,,,,,,,,,,,,,,,,0,0,0,0,0
0.6259,1783718943.8065,1,0,1.0000,0.0000,1.42052,0.14185,-2.66700,0.95410,1.57079,0.11681,-0.13199,-0.44693,0.06301,,,,,,,,,,,,,,,,,,,,,,,,,,0,0,0,0,0
0.6264,1783718943.8069,1,0,1.0000,0.0000,1.42052,0.14185,-2.66700,0.95410,1.57079,0.11681,-0.13199,-0.44693,0.06301,,,,,,,,,,,,,,,,,,,,,,,,,,0,0,0,0,0
0.6718,1783718943.8523,1,0,1.0000,0.0000,1.42052,0.14185,-2.66700,0.95410,1.57079,0.11681,-0.13199,-0.44693,0.06301,,,,,,,,,,,,,,,,,,,,,,,,,,0,0,0,0,0
0.6722,1783718943.8528,1,0,1.0000,0.0000,1.42052,0.14185,-2.66700,0.95410,1.57079,0.11681,-0.13199,-0.44693,0.06301,,,,,,,,,,,,,,,,,,,,,,,,,,0,0,0,0,0
0.6727,1783718943.8532,1,0,1.0000,0.0000,1.42052,0.14185,-2.66700,0.95410,1.57079,0.11681,-0.13199,-0.44693,0.06301,,,,,,,,,,,,,,,,,,,,,,,,,,0,0,0,0,0
0.6731,1783718943.8536,1,0,1.0000,0.0000,1.42052,0.14185,-2.66700,0.95410,1.57079,0.11681,-0.13199,-0.44693,0.06301,,,,,,,,,,,,,,,,,,,,,,,,,,0,0,0,0,0
0.6736,1783718943.8541,1,0,1.0000,0.0000,1.42052,0.14185,-2.66700,0.95410,1.57079,0.11681,-0.13199,-0.44693,0.06301,,,,,,,,,,,,,,,,,,,,,,,,,,0,0,0,0,0
0.6871,1783718943.8676,1,0,1.0000,0.0000,1.42051,0.14185,-2.66701,0.95410,1.57079,0.11682,-0.13198,-0.44693,0.06300,,,,,,,,,,,,,,,,,,,,,,,,,,0,0,0,0,0
0.6919,1783718943.8724,1,0,1.0000,0.0000,1.42050,0.14186,-2.66701,0.95410,1.57079,0.11683,-0.13198,-0.44692,0.06300,,,,,,,,,,,,,,,,,,,,,,,,,,0,0,0,0,0
0.7024,1783718943.8829,1,0,1.0000,0.0000,1.42048,0.14186,-2.66702,0.95410,1.57079,0.11684,-0.13197,-0.44692,0.06300,,,,,,,,,,,,,,,,,,,,,,,,,,0,0,0,0,0
0.7116,1783718943.8922,1,0,1.0000,0.0000,1.42043,0.14187,-2.66704,0.95410,1.57079,0.11689,-0.13196,-0.44691,0.06299,,,,,,,,,,,,,,,,,,,,,,,,,,0,0,0,0,0
0.7185,1783718943.8990,1,0,1.0000,0.0000,1.42034,0.14190,-2.66708,0.95410,1.57079,0.11696,-0.13193,-0.44690,0.06298,,,,,,,,,,,,,,,,,,,,,,,,,,0,0,0,0,0
0.7188,1783718943.8993,1,0,1.0000,0.0000,1.42034,0.14190,-2.66708,0.95410,1.57079,0.11696,-0.13193,-0.44690,0.06298,,,,,,,,,,,,,,,,,,,,,,,,,,0,0,0,0,0
0.7304,1783718943.9109,1,0,1.0000,0.0000,1.42022,0.14193,-2.66712,0.95410,1.57079,0.11707,-0.13188,-0.44689,0.06297,,,,,,,,,,,,,,,,,,,,,,,,,,0,0,0,0,0
0.7425,1783718943.9230,1,0,1.0000,0.0000,1.42010,0.14196,-2.66715,0.95409,1.57079,0.11719,-0.13184,-0.44689,0.06297,,,,,,,,,,,,,,,,,,,,,,,,,,0,0,0,0,0
0.7900,1783718943.9706,1,0,1.0000,0.0000,1.41875,0.14233,-2.66743,0.95404,1.57079,0.11851,-0.13133,-0.44690,0.06298,,,,,,,,,,,,,,,,,,,,,,,,,,0,0,0,0,0
0.7961,1783718943.9766,1,0,1.0000,0.0000,1.41871,0.14234,-2.66744,0.95403,1.57079,0.11856,-0.13132,-0.44690,0.06298,,,,,,,,,,,,,,,,,,,,,,,,,,0,0,0,0,0
0.7966,1783718943.9772,1,0,1.0000,0.0000,1.41871,0.14234,-2.66744,0.95403,1.57079,0.11856,-0.13132,-0.44690,0.06298,,,,,,,,,,,,,,,,,,,,,,,,,,0,0,0,0,0
0.7992,1783718943.9797,1,0,1.0000,0.0000,1.41857,0.14238,-2.66746,0.95403,1.57079,0.11869,-0.13127,-0.44690,0.06298,,,,,,,,,,,,,,,,,,,,,,,,,,0,0,0,0,0
0.7995,1783718943.9800,1,0,1.0000,0.0000,1.41857,0.14238,-2.66746,0.95403,1.57079,0.11869,-0.13127,-0.44690,0.06298,,,,,,,,,,,,,,,,,,,,,,,,,,0,0,0,0,0
0.8144,1783718943.9949,1,0,1.0000,0.0000,1.41737,0.14270,-2.66769,0.95396,1.57079,0.11989,-0.13082,-0.44691,0.06299,,,,,,,,,,,,,,,,,,,,,,,,,,0,0,0,0,0
0.8212,1783718944.0018,1,0,1.0000,0.0000,1.41696,0.14282,-2.66778,0.95393,1.57079,0.12030,-0.13066,-0.44692,0.06299,,,,,,,,,,,,,,,,,,,,,,,,,,0,0,0,0,0
0.8399,1783718944.0204,1,0,1.0000,0.0000,1.41617,0.14303,-2.66793,0.95389,1.57079,0.12109,-0.13037,-0.44693,0.06299,,,,,,,,,,,,,,,,,,,,,,,,,,0,0,0,0,0
0.8425,1783718944.0230,1,0,1.0000,0.0000,1.41578,0.14313,-2.66800,0.95386,1.57079,0.12148,-0.13022,-0.44693,0.06299,,,,,,,,,,,,,,,,,,,,,,,,,,0,0,0,0,0
0.8427,1783718944.0233,1,0,1.0000,0.0000,1.41578,0.14313,-2.66800,0.95386,1.57079,0.12148,-0.13022,-0.44693,0.06299,,,,,,,,,,,,,,,,,,,,,,,,,,0,0,0,0,0
0.8599,1783718944.0404,1,0,1.0000,0.0000,1.41478,0.14340,-2.66819,0.95380,1.57079,0.12248,-0.12985,-0.44694,0.06300,,,,,,,,,,,,,,,,,,,,,,,,,,0,0,0,0,0
0.8656,1783718944.0462,1,0,1.0000,0.0000,1.41461,0.14345,-2.66823,0.95379,1.57079,0.12265,-0.12979,-0.44695,0.06300,,,,,,,,,,,,,,,,,,,,,,,,,,0,0,0,0,0
0.9064,1783718944.0870,1,0,1.0000,0.0000,1.41120,0.14436,-2.66889,0.95356,1.57080,0.12607,-0.12852,-0.44697,0.06301,,,,,,,,,,,,,,,,,,,,,,,,,,0,0,0,0,0
0.9069,1783718944.0874,1,0,1.0000,0.0000,1.41120,0.14436,-2.66889,0.95356,1.57080,0.12607,-0.12852,-0.44697,0.06301,,,,,,,,,,,,,,,,,,,,,,,,,,0,0,0,0,0
0.9115,1783718944.0921,1,0,1.0000,0.0000,1.41120,0.14436,-2.66889,0.95356,1.57080,0.12607,-0.12852,-0.44697,0.06301,,,,,,,,,,,,,,,,,,,,,,,,,,0,0,0,0,0
0.9118,1783718944.0923,1,0,1.0000,0.0000,1.41120,0.14436,-2.66889,0.95356,1.57080,0.12607,-0.12852,-0.44697,0.06301,,,,,,,,,,,,,,,,,,,,,,,,,,0,0,0,0,0
0.9121,1783718944.0927,1,0,1.0000,0.0000,1.41120,0.14436,-2.66889,0.95356,1.57080,0.12607,-0.12852,-0.44697,0.06301,,,,,,,,,,,,,,,,,,,,,,,,,,0,0,0,0,0
0.9208,1783718944.1014,1,0,1.0000,0.0000,1.41103,0.14441,-2.66893,0.95355,1.57080,0.12624,-0.12845,-0.44697,0.06301,,,,,,,,,,,,,,,,,,,,,,,,,,0,0,0,0,0
0.9235,1783718944.1040,1,0,1.0000,0.0000,1.41082,0.14446,-2.66897,0.95354,1.57080,0.12645,-0.12838,-0.44697,0.06301,,,,,,,,,,,,,,,,,,,,,,,,,,0,0,0,0,0
0.9396,1783718944.1201,1,0,1.0000,0.0000,1.40953,0.14481,-2.66922,0.95345,1.57080,0.12773,-0.12790,-0.44698,0.06301,,,,,,,,,,,,,,,,,,,,,,,,,,0,0,0,0,0
0.9507,1783718944.1313,1,0,1.0000,0.0000,1.40941,0.14484,-2.66924,0.95344,1.57080,0.12785,-0.12785,-0.44698,0.06301,,,,,,,,,,,,,,,,,,,,,,,,,,0,0,0,0,0
0.9512,1783718944.1317,1,0,1.0000,0.0000,1.40941,0.14484,-2.66924,0.95344,1.57080,0.12785,-0.12785,-0.44698,0.06301,,,,,,,,,,,,,,,,,,,,,,,,,,0,0,0,0,0
0.9615,1783718944.1420,1,0,1.0000,0.0000,1.40911,0.14492,-2.66930,0.95342,1.57080,0.12816,-0.12774,-0.44698,0.06301,,,,,,,,,,,,,,,,,,,,,,,,,,0,0,0,0,0
0.9707,1783718944.1512,1,0,1.0000,0.0000,1.40843,0.14510,-2.66942,0.95337,1.57080,0.12884,-0.12748,-0.44699,0.06301,,,,,,,,,,,,,,,,,,,,,,,,,,0,0,0,0,0
0.9711,1783718944.1517,1,0,1.0000,0.0000,1.40843,0.14510,-2.66942,0.95337,1.57080,0.12884,-0.12748,-0.44699,0.06301,,,,,,,,,,,,,,,,,,,,,,,,,,0,0,0,0,0
0.9815,1783718944.1620,1,0,1.0000,0.0000,1.40794,0.14523,-2.66951,0.95333,1.57080,0.12933,-0.12730,-0.44700,0.06301,,,,,,,,,,,,,,,,,,,,,,,,,,0,0,0,0,0
0.9819,1783718944.1624,1,0,1.0000,0.0000,1.40794,0.14523,-2.66951,0.95333,1.57080,0.12933,-0.12730,-0.44700,0.06301,,,,,,,,,,,,,,,,,,,,,,,,,,0,0,0,0,0
1.0157,1783718944.1963,1,0,1.0000,0.0000,1.40700,0.14548,-2.66966,0.95325,1.57081,0.13029,-0.12695,-0.44702,0.06303,,,,,,,,,,,,,,,,,,,,,,,,,,0,0,0,0,0
1.0271,1783718944.2076,1,0,1.0000,0.0000,1.40700,0.14548,-2.66966,0.95325,1.57081,0.13029,-0.12695,-0.44702,0.06303,,,,,,,,,,,,,,,,,,,,,,,,,,0,0,0,0,0
1.0276,1783718944.2081,1,0,1.0000,0.0000,1.40700,0.14548,-2.66966,0.95325,1.57081,0.13029,-0.12695,-0.44702,0.06303,,,,,,,,,,,,,,,,,,,,,,,,,,0,0,0,0,0
1.0319,1783718944.2125,1,1,1.0000,0.0000,1.40700,0.14548,-2.66966,0.95325,1.57081,0.13029,-0.12695,-0.44702,0.06303,,,,,,,,,,,,,,,,,,,,,,,,,,0,0,0,0,0
1.0432,1783718944.2237,1,1,1.0000,0.0000,1.40700,0.14548,-2.66966,0.95325,1.57081,0.13029,-0.12695,-0.44702,0.06303,,,,,,,,,,,,,,,,,,,,,,,,,,0,0,0,0,0
1.0435,1783718944.2240,1,1,1.0000,0.0000,1.40700,0.14548,-2.66966,0.95325,1.57081,0.13029,-0.12695,-0.44702,0.06303,,,,,,,,,,,,,,,,,,,,,,,,,,0,0,0,0,0
1.0508,1783718944.2313,1,1,1.0000,0.0000,1.40700,0.14548,-2.66966,0.95325,1.57081,0.13029,-0.12695,-0.44702,0.06303,,,,,,,,,,,,,,,,,,,,,,,,,,0,0,0,0,0
1.0620,1783718944.2425,1,1,1.0000,0.0000,1.40700,0.14548,-2.66966,0.95325,1.57081,0.13029,-0.12695,-0.44702,0.06303,,,,,,,,,,,,,,,,,,,,,,,,,,0,0,0,0,0
1.0845,1783718944.2651,1,1,1.0000,0.0000,1.40700,0.14548,-2.66966,0.95325,1.57081,0.13029,-0.12695,-0.44702,0.06303,,,,,,,,,,,,,,,,,,,,,,,,,,0,0,0,0,0
1.0917,1783718944.2722,1,1,1.0000,0.0000,1.40700,0.14548,-2.66966,0.95325,1.57081,0.13029,-0.12695,-0.44702,0.06303,,,,,,,,,,,,,,,,,,,,,,,,,,0,0,0,0,0
1.1011,1783718944.2816,1,1,1.0000,0.0000,1.40700,0.14548,-2.66966,0.95325,1.57081,0.13029,-0.12695,-0.44702,0.06303,,,,,,,,,,,,,,,,,,,,,,,,,,0,0,0,0,0
1.1015,1783718944.2820,1,1,1.0000,0.0000,1.40700,0.14548,-2.66966,0.95325,1.57081,0.13029,-0.12695,-0.44702,0.06303,,,,,,,,,,,,,,,,,,,,,,,,,,0,0,0,0,0
1.1927,1783718944.3732,1,1,1.0000,0.0000,1.40700,0.14548,-2.66966,0.95325,1.57081,0.13029,-0.12695,-0.44702,0.06303,,,,,,,,,,,,,,,,,,,,,,,,,,0,0,0,0,0
1.1930,1783718944.3736,1,1,1.0000,0.0000,1.40700,0.14548,-2.66966,0.95325,1.57081,0.13029,-0.12695,-0.44702,0.06303,,,,,,,,,,,,,,,,,,,,,,,,,,0,0,0,0,0
1.1934,1783718944.3740,1,1,1.0000,0.0000,1.40700,0.14548,-2.66966,0.95325,1.57081,0.13029,-0.12695,-0.44702,0.06303,,,,,,,,,,,,,,,,,,,,,,,,,,0,0,0,0,0
1.1937,1783718944.3742,1,1,1.0000,0.0000,1.40700,0.14548,-2.66966,0.95325,1.57081,0.13029,-0.12695,-0.44702,0.06303,,,,,,,,,,,,,,,,,,,,,,,,,,0,0,0,0,0
1.1945,1783718944.3750,1,1,1.0000,0.0000,1.40700,0.14548,-2.66966,0.95325,1.57081,0.13029,-0.12695,-0.44702,0.06303,,,,,,,,,,,,,,,,,,,,,,,,,,0,0,0,0,0
1.1947,1783718944.3753,1,1,1.0000,0.0000,1.40700,0.14548,-2.66966,0.95325,1.57081,0.13029,-0.12695,-0.44702,0.06303,,,,,,,,,,,,,,,,,,,,,,,,,,0,0,0,0,0
1.1953,1783718944.3758,1,1,1.0000,0.0000,1.40700,0.14548,-2.66966,0.95325,1.57081,0.13029,-0.12695,-0.44702,0.06303,,,,,,,,,,,,,,,,,,,,,,,,,,0,0,0,0,0
1.2005,1783718944.3810,1,1,1.0000,0.0000,1.40700,0.14548,-2.66966,0.95325,1.57081,0.13029,-0.12695,-0.44702,0.06303,,,,,,,,,,,,,,,,,,,,,,,,,,0,0,0,0,0
1.2732,1783718944.4538,1,1,1.0000,0.0000,1.40700,0.14548,-2.66966,0.95325,1.57081,0.13029,-0.12695,-0.44702,0.06303,,,,,,,,,,,,,,,,,,,,,,,,,,0,0,0,0,0
1.2736,1783718944.4541,1,1,1.0000,0.0000,1.40700,0.14548,-2.66966,0.95325,1.57081,0.13029,-0.12695,-0.44702,0.06303,,,,,,,,,,,,,,,,,,,,,,,,,,0,0,0,0,0
1.2741,1783718944.4546,1,1,1.0000,0.0000,1.40700,0.14548,-2.66966,0.95325,1.57081,0.13029,-0.12695,-0.44702,0.06303,,,,,,,,,,,,,,,,,,,,,,,,,,0,0,0,0,0
1.2748,1783718944.4554,1,1,1.0000,0.0000,1.40700,0.14548,-2.66966,0.95325,1.57081,0.13029,-0.12695,-0.44702,0.06303,,,,,,,,,,,,,,,,,,,,,,,,,,0,0,0,0,0
1.2755,1783718944.4560,1,1,1.0000,0.0000,1.40700,0.14548,-2.66966,0.95325,1.57081,0.13029,-0.12695,-0.44702,0.06303,,,,,,,,,,,,,,,,,,,,,,,,,,0,0,0,0,0
1.2841,1783718944.4646,1,1,1.0000,0.0000,1.40700,0.14548,-2.66966,0.95325,1.57081,0.13029,-0.12695,-0.44702,0.06303,,,,,,,,,,,,,,,,,,,,,,,,,,0,0,0,0,0
1.2845,1783718944.4650,1,1,1.0000,0.0000,1.40700,0.14548,-2.66966,0.95325,1.57081,0.13029,-0.12695,-0.44702,0.06303,,,,,,,,,,,,,,,,,,,,,,,,,,0,0,0,0,0
1.2907,1783718944.4712,1,1,1.0000,0.0000,1.40700,0.14548,-2.66966,0.95325,1.57081,0.13029,-0.12695,-0.44702,0.06303,,,,,,,,,,,,,,,,,,,,,,,,,,0,0,0,0,0
1.2910,1783718944.4715,1,1,1.0000,0.0000,1.40700,0.14548,-2.66966,0.95325,1.57081,0.13029,-0.12695,-0.44702,0.06303,,,,,,,,,,,,,,,,,,,,,,,,,,0,0,0,0,0
1.3010,1783718944.4816,1,1,1.0000,0.0000,1.40700,0.14548,-2.66966,0.95325,1.57081,0.13029,-0.12695,-0.44702,0.06303,,,,,,,,,,,,,,,,,,,,,,,,,,0,0,0,0,0
1.3015,1783718944.4820,1,1,1.0000,0.0000,1.40700,0.14548,-2.66966,0.95325,1.57081,0.13029,-0.12695,-0.44702,0.06303,,,,,,,,,,,,,,,,,,,,,,,,,,0,0,0,0,0
1.3147,1783718944.4952,1,1,1.0000,0.0000,1.40700,0.14548,-2.66966,0.95325,1.57081,0.13029,-0.12695,-0.44702,0.06303,,,,,,,,,,,,,,,,,,,,,,,,,,0,0,0,0,0
1.3197,1783718944.5002,1,1,1.0000,0.0000,1.40700,0.14548,-2.66966,0.95325,1.57081,0.13029,-0.12695,-0.44702,0.06303,,,,,,,,,,,,,,,,,,,,,,,,,,0,0,0,0,0
1.3201,1783718944.5006,1,1,1.0000,0.0000,1.40700,0.14548,-2.66966,0.95325,1.57081,0.13029,-0.12695,-0.44702,0.06303,,,,,,,,,,,,,,,,,,,,,,,,,,0,0,0,0,0
1.3286,1783718944.5091,1,1,1.0000,0.0000,1.40700,0.14548,-2.66966,0.95325,1.57081,0.13029,-0.12695,-0.44702,0.06303,,,,,,,,,,,,,,,,,,,,,,,,,,0,0,0,0,0
1.3290,1783718944.5095,1,1,1.0000,0.0000,1.40700,0.14548,-2.66966,0.95325,1.57081,0.13029,-0.12695,-0.44702,0.06303,,,,,,,,,,,,,,,,,,,,,,,,,,0,0,0,0,0
1.3437,1783718944.5242,1,1,1.0000,0.0000,1.40700,0.14548,-2.66966,0.95325,1.57081,0.13029,-0.12695,-0.44702,0.06303,,,,,,,,,,,,,,,,,,,,,,,,,,0,0,0,0,0
1.3440,1783718944.5245,1,1,1.0000,0.0000,1.40700,0.14548,-2.66966,0.95325,1.57081,0.13029,-0.12695,-0.44702,0.06303,,,,,,,,,,,,,,,,,,,,,,,,,,0,0,0,0,0
1.3948,1783718944.5753,1,1,1.0000,0.0000,1.40700,0.14548,-2.66966,0.95325,1.57081,0.13029,-0.12695,-0.44702,0.06303,,,,,,,,,,,,,,,,,,,,,,,,,,0,0,0,0,0
1.3952,1783718944.5757,1,1,1.0000,0.0000,1.40700,0.14548,-2.66966,0.95325,1.57081,0.13029,-0.12695,-0.44702,0.06303,,,,,,,,,,,,,,,,,,,,,,,,,,0,0,0,0,0
1.3955,1783718944.5760,1,1,1.0000,0.0000,1.40700,0.14548,-2.66966,0.95325,1.57081,0.13029,-0.12695,-0.44702,0.06303,,,,,,,,,,,,,,,,,,,,,,,,,,0,0,0,0,0
1.3957,1783718944.5763,1,1,1.0000,0.0000,1.40700,0.14548,-2.66966,0.95325,1.57081,0.13029,-0.12695,-0.44702,0.06303,,,,,,,,,,,,,,,,,,,,,,,,,,0,0,0,0,0
1.4239,1783718944.6044,1,1,1.0000,0.0000,1.40700,0.14548,-2.66966,0.95325,1.57081,0.13028,-0.12695,-0.44702,0.06303,,,,,,,,,,,,,,,,,,,,,,,,,,0,0,0,0,0
1.4241,1783718944.6047,1,1,1.0000,0.0000,1.40700,0.14548,-2.66966,0.95325,1.57081,0.13028,-0.12695,-0.44702,0.06303,,,,,,,,,,,,,,,,,,,,,,,,,,0,0,0,0,0
1.4245,1783718944.6050,1,1,1.0000,0.0000,1.40700,0.14548,-2.66966,0.95325,1.57081,0.13028,-0.12695,-0.44702,0.06303,,,,,,,,,,,,,,,,,,,,,,,,,,0,0,0,0,0
1.4288,1783718944.6093,1,1,1.0000,0.0000,1.40703,0.14548,-2.66965,0.95325,1.57081,0.13027,-0.12696,-0.44702,0.06303,,,,,,,,,,,,,,,,,,,,,,,,,,0,0,0,0,0
1.4639,1783718944.6444,1,1,1.0000,0.0000,1.40735,0.14539,-2.66955,0.95325,1.57081,0.13004,-0.12708,-0.44704,0.06305,,,,,,,,,,,,,,,,,,,,,,,,,,0,0,0,0,0
1.4642,1783718944.6447,1,1,1.0000,0.0000,1.40735,0.14539,-2.66955,0.95325,1.57081,0.13004,-0.12708,-0.44704,0.06305,,,,,,,,,,,,,,,,,,,,,,,,,,0,0,0,0,0
1.4645,1783718944.6450,1,1,1.0000,0.0000,1.40735,0.14539,-2.66955,0.95325,1.57081,0.13004,-0.12708,-0.44704,0.06305,,,,,,,,,,,,,,,,,,,,,,,,,,0,0,0,0,0
1.4770,1783718944.6575,1,1,1.0000,0.0000,1.40757,0.14534,-2.66950,0.95325,1.57082,0.12985,-0.12716,-0.44704,0.06305,,,,,,,,,,,,,,,,,,,,,,,,,,0,0,0,0,0
1.5250,1783718944.7055,1,1,1.0000,0.0000,1.40867,0.14505,-2.66929,0.95329,1.57082,0.12880,-0.12757,-0.44703,0.06304,,,,,,,,,,,,,,,,,,,,,,,,,,0,0,0,0,0
1.5257,1783718944.7062,1,1,1.0000,0.0000,1.40867,0.14505,-2.66929,0.95329,1.57082,0.12880,-0.12757,-0.44703,0.06304,,,,,,,,,,,,,,,,,,,,,,,,,,0,0,0,0,0
1.5288,1783718944.7093,1,1,1.0000,0.0000,1.40893,0.14498,-2.66924,0.95330,1.57082,0.12854,-0.12767,-0.44702,0.06304,,,,,,,,,,,,,,,,,,,,,,,,,,0,0,0,0,0
1.5292,1783718944.7097,1,1,1.0000,0.0000,1.40893,0.14498,-2.66924,0.95330,1.57082,0.12854,-0.12767,-0.44702,0.06304,,,,,,,,,,,,,,,,,,,,,,,,,,0,0,0,0,0
1.5333,1783718944.7139,1,1,1.0000,0.0000,1.40924,0.14489,-2.66918,0.95331,1.57082,0.12825,-0.12779,-0.44702,0.06304,,,,,,,,,,,,,,,,,,,,,,,,,,0,0,0,0,0
1.5429,1783718944.7235,1,1,1.0000,0.0000,1.40992,0.14471,-2.66905,0.95335,1.57082,0.12757,-0.12804,-0.44701,0.06303,,,,,,,,,,,,,,,,,,,,,,,,,,0,0,0,0,0
1.5517,1783718944.7322,1,1,1.0000,0.0000,1.41009,0.14467,-2.66902,0.95336,1.57082,0.12740,-0.12811,-0.44700,0.06303,,,,,,,,,,,,,,,,,,,,,,,,,,0,0,0,0,0
1.5641,1783718944.7447,1,1,1.0000,0.0000,1.41088,0.14446,-2.66887,0.95340,1.57082,0.12662,-0.12840,-0.44699,0.06302,,,,,,,,,,,,,,,,,,,,,,,,,,0,0,0,0,0
1.5751,1783718944.7556,1,1,1.0000,0.0000,1.41165,0.14425,-2.66873,0.95344,1.57082,0.12584,-0.12869,-0.44699,0.06302,,,,,,,,,,,,,,,,,,,,,,,,,,0,0,0,0,0
1.5756,1783718944.7561,1,1,1.0000,0.0000,1.41165,0.14425,-2.66873,0.95344,1.57082,0.12584,-0.12869,-0.44699,0.06302,,,,,,,,,,,,,,,,,,,,,,,,,,0,0,0,0,0
1.5828,1783718944.7633,1,1,1.0000,0.0000,1.41188,0.14419,-2.66868,0.95346,1.57082,0.12562,-0.12877,-0.44698,0.06302,,,,,,,,,,,,,,,,,,,,,,,,,,0,0,0,0,0
1.5893,1783718944.7698,1,1,1.0000,0.0000,1.41214,0.14412,-2.66863,0.95347,1.57082,0.12536,-0.12887,-0.44698,0.06302,,,,,,,,,,,,,,,,,,,,,,,,,,0,0,0,0,0
1.6341,1783718944.8146,1,1,1.0000,0.0000,1.41540,0.14323,-2.66800,0.95368,1.57082,0.12209,-0.13009,-0.44695,0.06300,,,,,,,,,,,,,,,,,,,,,,,,,,0,0,0,0,0
1.6347,1783718944.8152,1,1,1.0000,0.0000,1.41546,0.14322,-2.66799,0.95369,1.57082,0.12204,-0.13011,-0.44695,0.06300,,,,,,,,,,,,,,,,,,,,,,,,,,0,0,0,0,0
1.6433,1783718944.8239,1,1,1.0000,0.0000,1.41583,0.14312,-2.66792,0.95371,1.57082,0.12166,-0.13025,-0.44695,0.06300,,,,,,,,,,,,,,,,,,,,,,,,,,0,0,0,0,0
1.6502,1783718944.8307,1,1,1.0000,0.0000,1.41613,0.14304,-2.66786,0.95373,1.57082,0.12136,-0.13036,-0.44694,0.06300,,,,,,,,,,,,,,,,,,,,,,,,,,0,0,0,0,0
1.6616,1783718944.8421,1,1,1.0000,0.0000,1.41730,0.14272,-2.66763,0.95381,1.57082,0.12018,-0.13079,-0.44693,0.06300,,,,,,,,,,,,,,,,,,,,,,,,,,0,0,0,0,0
1.6914,1783718944.8719,1,1,1.0000,0.0000,1.41866,0.14235,-2.66736,0.95391,1.57082,0.11882,-0.13130,-0.44693,0.06300,,,,,,,,,,,,,,,,,,,,,,,,,,0,0,0,0,0
1.6918,1783718944.8723,1,1,1.0000,0.0000,1.41866,0.14235,-2.66736,0.95391,1.57082,0.11882,-0.13130,-0.44693,0.06300,,,,,,,,,,,,,,,,,,,,,,,,,,0,0,0,0,0
1.6923,1783718944.8728,1,1,1.0000,0.0000,1.41866,0.14235,-2.66736,0.95391,1.57082,0.11882,-0.13130,-0.44693,0.06300,,,,,,,,,,,,,,,,,,,,,,,,,,0,0,0,0,0
1.6926,1783718944.8732,1,1,1.0000,0.0000,1.41866,0.14235,-2.66736,0.95391,1.57082,0.11882,-0.13130,-0.44693,0.06300,,,,,,,,,,,,,,,,,,,,,,,,,,0,0,0,0,0
1.7035,1783718944.8841,1,1,1.0000,0.0000,1.41956,0.14211,-2.66718,0.95397,1.57082,0.11790,-0.13164,-0.44692,0.06300,,,,,,,,,,,,,,,,,,,,,,,,,,0,0,0,0,0
1.7038,1783718944.8843,1,1,1.0000,0.0000,1.41956,0.14211,-2.66718,0.95397,1.57082,0.11790,-0.13164,-0.44692,0.06300,,,,,,,,,,,,,,,,,,,,,,,,,,0,0,0,0,0
1.7117,1783718944.8922,1,1,1.0000,0.0000,1.42008,0.14197,-2.66708,0.95401,1.57082,0.11739,-0.13183,-0.44692,0.06300,,,,,,,,,,,,,,,,,,,,,,,,,,0,0,0,0,0
1.7493,1783718944.9298,1,1,1.0000,0.0000,1.42051,0.14185,-2.66699,0.95405,1.57082,0.11694,-0.13199,-0.44692,0.06300,,,,,,,,,,,,,,,,,,,,,,,,,,0,0,0,0,0
1.7519,1783718944.9324,1,1,1.0000,0.0000,1.42051,0.14185,-2.66699,0.95405,1.57082,0.11694,-0.13199,-0.44692,0.06300,,,,,,,,,,,,,,,,,,,,,,,,,,0,0,0,0,0
1.7522,1783718944.9327,1,1,1.0000,0.0000,1.42051,0.14185,-2.66699,0.95405,1.57082,0.11694,-0.13199,-0.44692,0.06300,,,,,,,,,,,,,,,,,,,,,,,,,,0,0,0,0,0
1.7525,1783718944.9331,1,1,1.0000,0.0000,1.42051,0.14185,-2.66699,0.95405,1.57082,0.11694,-0.13199,-0.44692,0.06300,,,,,,,,,,,,,,,,,,,,,,,,,,0,0,0,0,0
1.7598,1783718944.9403,1,1,1.0000,0.0000,1.42051,0.14185,-2.66699,0.95405,1.57082,0.11694,-0.13199,-0.44692,0.06300,,,,,,,,,,,,,,,,,,,,,,,,,,0,0,0,0,0
1.7742,1783718944.9547,1,1,1.0000,0.0000,1.42051,0.14185,-2.66699,0.95405,1.57082,0.11694,-0.13199,-0.44692,0.06300,,,,,,,,,,,,,,,,,,,,,,,,,,0,0,0,0,0
1.7749,1783718944.9554,1,1,1.0000,0.0000,1.42051,0.14185,-2.66699,0.95405,1.57082,0.11694,-0.13199,-0.44692,0.06300,,,,,,,,,,,,,,,,,,,,,,,,,,0,0,0,0,0
1.7809,1783718944.9614,1,1,1.0000,0.0000,1.42051,0.14185,-2.66699,0.95405,1.57082,0.11694,-0.13199,-0.44692,0.06300,,,,,,,,,,,,,,,,,,,,,,,,,,0,0,0,0,0
1.7891,1783718944.9696,1,1,1.0000,0.0000,1.42051,0.14185,-2.66699,0.95405,1.57082,0.11694,-0.13199,-0.44692,0.06300,,,,,,,,,,,,,,,,,,,,,,,,,,0,0,0,0,0
1.8051,1783718944.9856,1,1,1.0000,0.0000,1.42051,0.14185,-2.66699,0.95405,1.57082,0.11694,-0.13199,-0.44692,0.06300,,,,,,,,,,,,,,,,,,,,,,,,,,0,0,0,0,0
1.8128,1783718944.9933,1,1,1.0000,0.0000,1.42051,0.14185,-2.66699,0.95405,1.57082,0.11694,-0.13199,-0.44692,0.06300,,,,,,,,,,,,,,,,,,,,,,,,,,0,0,0,0,0
1.8537,1783718945.0342,1,1,1.0000,0.0000,1.42051,0.14185,-2.66699,0.95405,1.57082,0.11694,-0.13199,-0.44692,0.06300,,,,,,,,,,,,,,,,,,,,,,,,,,0,0,0,0,0
1.8733,1783718945.0538,1,1,1.0000,0.0000,1.42051,0.14185,-2.66699,0.95405,1.57082,0.11694,-0.13199,-0.44692,0.06300,,,,,,,,,,,,,,,,,,,,,,,,,,0,0,0,0,0
1.8736,1783718945.0541,1,1,1.0000,0.0000,1.42051,0.14185,-2.66699,0.95405,1.57082,0.11694,-0.13199,-0.44692,0.06300,,,,,,,,,,,,,,,,,,,,,,,,,,0,0,0,0,0
1.8739,1783718945.0544,1,1,1.0000,0.0000,1.42051,0.14185,-2.66699,0.95405,1.57082,0.11694,-0.13199,-0.44692,0.06300,,,,,,,,,,,,,,,,,,,,,,,,,,0,0,0,0,0
1.8742,1783718945.0547,1,1,1.0000,0.0000,1.42051,0.14185,-2.66699,0.95405,1.57082,0.11694,-0.13199,-0.44692,0.06300,,,,,,,,,,,,,,,,,,,,,,,,,,0,0,0,0,0
1.8748,1783718945.0553,1,1,1.0000,0.0000,1.42051,0.14185,-2.66699,0.95405,1.57082,0.11694,-0.13199,-0.44692,0.06300,,,,,,,,,,,,,,,,,,,,,,,,,,0,0,0,0,0
1.8751,1783718945.0556,1,1,1.0000,0.0000,1.42051,0.14185,-2.66699,0.95405,1.57082,0.11694,-0.13199,-0.44692,0.06300,,,,,,,,,,,,,,,,,,,,,,,,,,0,0,0,0,0
1.8854,1783718945.0659,1,1,1.0000,0.0000,1.42051,0.14185,-2.66699,0.95405,1.57082,0.11694,-0.13199,-0.44692,0.06300,,,,,,,,,,,,,,,,,,,,,,,,,,0,0,0,0,0
1.8887,1783718945.0692,1,1,1.0000,0.0000,1.42051,0.14185,-2.66699,0.95405,1.57082,0.11694,-0.13199,-0.44692,0.06300,,,,,,,,,,,,,,,,,,,,,,,,,,0,0,0,0,0
1.8892,1783718945.0697,1,1,1.0000,0.0000,1.42051,0.14185,-2.66699,0.95405,1.57082,0.11694,-0.13199,-0.44692,0.06300,,,,,,,,,,,,,,,,,,,,,,,,,,0,0,0,0,0
1.9331,1783718945.1136,1,1,1.0000,0.0000,1.42051,0.14185,-2.66699,0.95405,1.57082,0.11694,-0.13199,-0.44692,0.06300,,,,,,,,,,,,,,,,,,,,,,,,,,0,0,0,0,0
1.9333,1783718945.1139,1,1,1.0000,0.0000,1.42051,0.14185,-2.66699,0.95405,1.57082,0.11694,-0.13199,-0.44692,0.06300,,,,,,,,,,,,,,,,,,,,,,,,,,0,0,0,0,0
1.9411,1783718945.1217,1,1,1.0000,0.0000,1.42051,0.14185,-2.66699,0.95405,1.57082,0.11694,-0.13199,-0.44692,0.06300,,,,,,,,,,,,,,,,,,,,,,,,,,0,0,0,0,0
1.9416,1783718945.1221,1,1,1.0000,0.0000,1.42051,0.14185,-2.66699,0.95405,1.57082,0.11694,-0.13199,-0.44692,0.06300,,,,,,,,,,,,,,,,,,,,,,,,,,0,0,0,0,0
1.9926,1783718945.1731,1,1,1.0000,0.0000,1.42051,0.14185,-2.66699,0.95405,1.57082,0.11694,-0.13199,-0.44692,0.06300,,,,,,,,,,,,,,,,,,,,,,,,,,0,0,0,0,0
1.9930,1783718945.1735,1,1,1.0000,0.0000,1.42051,0.14185,-2.66699,0.95405,1.57082,0.11694,-0.13199,-0.44692,0.06300,,,,,,,,,,,,,,,,,,,,,,,,,,0,0,0,0,0
1.9935,1783718945.1740,1,1,1.0000,0.0000,1.42051,0.14185,-2.66699,0.95405,1.57082,0.11694,-0.13199,-0.44692,0.06300,,,,,,,,,,,,,,,,,,,,,,,,,,0,0,0,0,0
2.0275,1783718945.2080,1,1,1.0000,0.0000,1.42051,0.14185,-2.66699,0.95405,1.57082,0.11694,-0.13199,-0.44692,0.06300,,,,,,,,,,,,,,,,,,,,,,,,,,0,0,0,0,0
2.0279,1783718945.2084,1,1,1.0000,0.0000,1.42051,0.14185,-2.66699,0.95405,1.57082,0.11694,-0.13199,-0.44692,0.06300,,,,,,,,,,,,,,,,,,,,,,,,,,0,0,0,0,0
2.0283,1783718945.2089,1,1,1.0000,0.0000,1.42051,0.14185,-2.66699,0.95405,1.57082,0.11694,-0.13199,-0.44692,0.06300,,,,,,,,,,,,,,,,,,,,,,,,,,0,0,0,0,0
2.0473,1783718945.2278,1,1,1.0000,0.0000,1.42051,0.14185,-2.66699,0.95405,1.57082,0.11694,-0.13199,-0.44692,0.06300,,,,,,,,,,,,,,,,,,,,,,,,,,0,0,0,0,0
2.0478,1783718945.2284,1,1,1.0000,0.0000,1.42051,0.14185,-2.66699,0.95405,1.57082,0.11694,-0.13199,-0.44692,0.06300,,,,,,,,,,,,,,,,,,,,,,,,,,0,0,0,0,0
2.0511,1783718945.2317,1,1,1.0000,0.0000,1.42051,0.14185,-2.66699,0.95405,1.57082,0.11694,-0.13199,-0.44692,0.06300,,,,,,,,,,,,,,,,,,,,,,,,,,0,0,0,0,0
2.0514,1783718945.2319,1,1,1.0000,0.0000,1.42051,0.14185,-2.66699,0.95405,1.57082,0.11694,-0.13199,-0.44692,0.06300,,,,,,,,,,,,,,,,,,,,,,,,,,0,0,0,0,0
2.0589,1783718945.2395,1,1,1.0000,0.0000,1.42051,0.14185,-2.66699,0.95405,1.57082,0.11694,-0.13199,-0.44692,0.06300,,,,,,,,,,,,,,,,,,,,,,,,,,0,0,0,0,0
2.0593,1783718945.2398,1,1,1.0000,0.0000,1.42051,0.14185,-2.66699,0.95405,1.57082,0.11694,-0.13199,-0.44692,0.06300,,,,,,,,,,,,,,,,,,,,,,,,,,0,0,0,0,0
2.1073,1783718945.2879,1,1,1.0000,0.0000,1.42051,0.14185,-2.66699,0.95405,1.57082,0.11694,-0.13199,-0.44692,0.06300,,,,,,,,,,,,,,,,,,,,,,,,,,0,0,0,0,0
2.1078,1783718945.2883,1,1,1.0000,0.0000,1.42051,0.14185,-2.66699,0.95405,1.57082,0.11694,-0.13199,-0.44692,0.06300,,,,,,,,,,,,,,,,,,,,,,,,,,0,0,0,0,0
2.1118,1783718945.2924,1,1,1.0000,0.0000,1.42051,0.14185,-2.66699,0.95405,1.57082,0.11694,-0.13199,-0.44692,0.06300,,,,,,,,,,,,,,,,,,,,,,,,,,0,0,0,0,0
2.1124,1783718945.2929,1,1,1.0000,0.0000,1.42051,0.14185,-2.66699,0.95405,1.57082,0.11694,-0.13199,-0.44692,0.06300,,,,,,,,,,,,,,,,,,,,,,,,,,0,0,0,0,0
2.1128,1783718945.2933,1,1,1.0000,0.0000,1.42051,0.14185,-2.66699,0.95405,1.57082,0.11694,-0.13199,-0.44692,0.06300,,,,,,,,,,,,,,,,,,,,,,,,,,0,0,0,0,0
2.1164,1783718945.2969,1,1,1.0000,0.0000,1.42051,0.14185,-2.66699,0.95405,1.57082,0.11694,-0.13199,-0.44692,0.06300,,,,,,,,,,,,,,,,,,,,,,,,,,0,0,0,0,0
2.1166,1783718945.2972,1,1,1.0000,0.0000,1.42051,0.14185,-2.66699,0.95405,1.57082,0.11694,-0.13199,-0.44692,0.06300,,,,,,,,,,,,,,,,,,,,,,,,,,0,0,0,0,0
2.1197,1783718945.3002,1,1,1.0000,0.0000,1.42051,0.14185,-2.66699,0.95405,1.57082,0.11694,-0.13199,-0.44692,0.06300,,,,,,,,,,,,,,,,,,,,,,,,,,0,0,0,0,0
2.1200,1783718945.3005,1,1,1.0000,0.0000,1.42051,0.14185,-2.66699,0.95405,1.57082,0.11694,-0.13199,-0.44692,0.06300,,,,,,,,,,,,,,,,,,,,,,,,,,0,0,0,0,0
2.1348,1783718945.3154,1,1,1.0000,0.0000,1.42051,0.14185,-2.66699,0.95405,1.57082,0.11694,-0.13199,-0.44692,0.06300,,,,,,,,,,,,,,,,,,,,,,,,,,0,0,0,0,0
2.1352,1783718945.3157,1,1,1.0000,0.0000,1.42051,0.14185,-2.66699,0.95405,1.57082,0.11694,-0.13199,-0.44692,0.06300,,,,,,,,,,,,,,,,,,,,,,,,,,0,0,0,0,0
2.1395,1783718945.3200,1,1,1.0000,0.0000,1.42051,0.14185,-2.66699,0.95405,1.57082,0.11694,-0.13199,-0.44692,0.06300,,,,,,,,,,,,,,,,,,,,,,,,,,0,0,0,0,0
2.1400,1783718945.3205,1,1,1.0000,0.0000,1.42051,0.14185,-2.66699,0.95405,1.57082,0.11694,-0.13199,-0.44692,0.06300,,,,,,,,,,,,,,,,,,,,,,,,,,0,0,0,0,0
2.1498,1783718945.3303,1,1,1.0000,0.0000,1.42051,0.14185,-2.66699,0.95405,1.57082,0.11694,-0.13199,-0.44692,0.06300,,,,,,,,,,,,,,,,,,,,,,,,,,0,0,0,0,0
2.1647,1783718945.3452,1,1,1.0000,0.0000,1.42052,0.14185,-2.66699,0.95407,1.57081,0.11691,-0.13199,-0.44692,0.06300,,,,,,,,,,,,,,,,,,,,,,,,,,0,0,0,0,0
2.1700,1783718945.3505,1,1,1.0000,0.0000,1.42052,0.14185,-2.66700,0.95407,1.57081,0.11690,-0.13199,-0.44692,0.06300,,,,,,,,,,,,,,,,,,,,,,,,,,0,0,0,0,0
2.1707,1783718945.3512,1,1,1.0000,0.0000,1.42052,0.14185,-2.66700,0.95408,1.57081,0.11689,-0.13199,-0.44692,0.06300,,,,,,,,,,,,,,,,,,,,,,,,,,0,0,0,0,0
2.1837,1783718945.3642,1,1,1.0000,0.0000,1.42052,0.14185,-2.66700,0.95409,1.57081,0.11686,-0.13199,-0.44692,0.06300,,,,,,,,,,,,,,,,,,,,,,,,,,0,0,0,0,0
2.1840,1783718945.3645,1,1,1.0000,0.0000,1.42052,0.14185,-2.66700,0.95409,1.57081,0.11686,-0.13199,-0.44692,0.06300,,,,,,,,,,,,,,,,,,,,,,,,,,0,0,0,0,0
2.2235,1783718945.4040,1,1,1.0000,0.0000,1.42051,0.14188,-2.66705,0.95410,1.57081,0.11684,-0.13199,-0.44690,0.06299,,,,,,,,,,,,,,,,,,,,,,,,,,0,0,0,0,0
2.2239,1783718945.4045,1,1,1.0000,0.0000,1.42051,0.14188,-2.66705,0.95410,1.57081,0.11684,-0.13199,-0.44690,0.06299,,,,,,,,,,,,,,,,,,,,,,,,,,0,0,0,0,0
2.2318,1783718945.4123,1,1,1.0000,0.0000,1.42051,0.14189,-2.66707,0.95410,1.57081,0.11684,-0.13199,-0.44688,0.06299,,,,,,,,,,,,,,,,,,,,,,,,,,0,0,0,0,0
2.2322,1783718945.4128,1,1,1.0000,0.0000,1.42051,0.14189,-2.66707,0.95410,1.57081,0.11684,-0.13199,-0.44688,0.06299,,,,,,,,,,,,,,,,,,,,,,,,,,0,0,0,0,0
2.2369,1783718945.4174,1,1,1.0000,0.0000,1.42051,0.14190,-2.66707,0.95410,1.57081,0.11684,-0.13199,-0.44688,0.06299,,,,,,,,,,,,,,,,,,,,,,,,,,0,0,0,0,0
2.2415,1783718945.4220,1,1,1.0000,0.0000,1.42051,0.14191,-2.66708,0.95410,1.57081,0.11684,-0.13199,-0.44687,0.06299,,,,,,,,,,,,,,,,,,,,,,,,,,0,0,0,0,0
2.2420,1783718945.4226,1,1,1.0000,0.0000,1.42051,0.14191,-2.66708,0.95410,1.57081,0.11684,-0.13199,-0.44687,0.06299,,,,,,,,,,,,,,,,,,,,,,,,,,0,0,0,0,0
2.2486,1783718945.4291,1,1,1.0000,0.0000,1.42050,0.14196,-2.66713,0.95409,1.57081,0.11685,-0.13199,-0.44684,0.06298,,,,,,,,,,,,,,,,,,,,,,,,,,0,0,0,0,0
2.2606,1783718945.4411,1,1,1.0000,0.0000,1.42047,0.14210,-2.66725,0.95407,1.57081,0.11685,-0.13199,-0.44677,0.06297,,,,,,,,,,,,,,,,,,,,,,,,,,0,0,0,0,0
2.2609,1783718945.4414,1,1,1.0000,0.0000,1.42047,0.14210,-2.66725,0.95407,1.57081,0.11685,-0.13199,-0.44677,0.06297,,,,,,,,,,,,,,,,,,,,,,,,,,0,0,0,0,0
2.2698,1783718945.4503,1,1,1.0000,0.0000,1.42047,0.14211,-2.66726,0.95407,1.57081,0.11685,-0.13199,-0.44677,0.06297,,,,,,,,,,,,,,,,,,,,,,,,,,0,0,0,0,0
2.2919,1783718945.4725,1,1,1.0000,0.0000,1.42042,0.14238,-2.66747,0.95401,1.57081,0.11688,-0.13199,-0.44665,0.06298,,,,,,,,,,,,,,,,,,,,,,,,,,0,0,0,0,0
2.3008,1783718945.4814,1,1,1.0000,0.0000,1.42038,0.14256,-2.66759,0.95397,1.57081,0.11690,-0.13198,-0.44657,0.06298,,,,,,,,,,,,,,,,,,,,,,,,,,0,0,0,0,0
2.3015,1783718945.4820,1,1,1.0000,0.0000,1.42038,0.14256,-2.66759,0.95397,1.57081,0.11690,-0.13198,-0.44657,0.06298,,,,,,,,,,,,,,,,,,,,,,,,,,0,0,0,0,0
2.3019,1783718945.4824,1,1,1.0000,0.0000,1.42038,0.14256,-2.66759,0.95397,1.57081,0.11690,-0.13198,-0.44657,0.06298,,,,,,,,,,,,,,,,,,,,,,,,,,0,0,0,0,0
2.3116,1783718945.4921,1,1,1.0000,0.0000,1.42029,0.14307,-2.66796,0.95386,1.57081,0.11698,-0.13198,-0.44635,0.06299,,,,,,,,,,,,,,,,,,,,,,,,,,0,0,0,0,0
2.3565,1783718945.5371,1,1,1.0000,0.0000,1.41985,0.14537,-2.66964,0.95329,1.57081,0.11737,-0.13197,-0.44535,0.06300,,,,,,,,,,,,,,,,,,,,,,,,,,0,0,0,0,0
2.3569,1783718945.5374,1,1,1.0000,0.0000,1.41985,0.14537,-2.66964,0.95329,1.57081,0.11737,-0.13197,-0.44535,0.06300,,,,,,,,,,,,,,,,,,,,,,,,,,0,0,0,0,0
2.3637,1783718945.5442,1,1,1.0000,0.0000,1.41984,0.14542,-2.66966,0.95328,1.57081,0.11738,-0.13197,-0.44533,0.06300,,,,,,,,,,,,,,,,,,,,,,,,,,0,0,0,0,0
2.3639,1783718945.5444,1,1,1.0000,0.0000,1.41984,0.14542,-2.66966,0.95328,1.57081,0.11738,-0.13197,-0.44533,0.06300,,,,,,,,,,,,,,,,,,,,,,,,,,0,0,0,0,0
2.3688,1783718945.5494,1,1,1.0000,0.0000,1.41982,0.14553,-2.66975,0.95325,1.57081,0.11740,-0.13197,-0.44528,0.06300,,,,,,,,,,,,,,,,,,,,,,,,,,0,0,0,0,0
2.3811,1783718945.5617,1,1,1.0000,0.0000,1.41977,0.14578,-2.66993,0.95318,1.57081,0.11745,-0.13197,-0.44517,0.06301,,,,,,,,,,,,,,,,,,,,,,,,,,0,0,0,0,0
2.3954,1783718945.5760,1,1,1.0000,0.0000,1.41953,0.14701,-2.67082,0.95285,1.57081,0.11768,-0.13196,-0.44463,0.06301,,,,,,,,,,,,,,,,,,,,,,,,,,0,0,0,0,0
2.3990,1783718945.5795,1,1,1.0000,0.0000,1.41944,0.14748,-2.67117,0.95273,1.57081,0.11777,-0.13196,-0.44442,0.06301,,,,,,,,,,,,,,,,,,,,,,,,,,0,0,0,0,0
2.4090,1783718945.5895,1,1,1.0000,0.0000,1.41925,0.14851,-2.67191,0.95245,1.57081,0.11797,-0.13196,-0.44397,0.06301,,,,,,,,,,,,,,,,,,,,,,,,,,0,0,0,0,0
2.4094,1783718945.5899,1,1,1.0000,0.0000,1.41925,0.14851,-2.67191,0.95245,1.57081,0.11797,-0.13196,-0.44397,0.06301,,,,,,,,,,,,,,,,,,,,,,,,,,0,0,0,0,0
2.4208,1783718945.6013,1,1,1.0000,0.0000,1.41905,0.14953,-2.67266,0.95218,1.57082,0.11816,-0.13195,-0.44351,0.06301,,,,,,,,,,,,,,,,,,,,,,,,,,0,0,0,0,0
2.4712,1783718945.6517,1,1,1.0000,0.0000,1.41871,0.15131,-2.67394,0.95167,1.57082,0.11851,-0.13195,-0.44273,0.06301,,,,,,,,,,,,,,,,,,,,,,,,,,0,0,0,0,0
2.4716,1783718945.6521,1,1,1.0000,0.0000,1.41871,0.15131,-2.67394,0.95167,1.57082,0.11851,-0.13195,-0.44273,0.06301,,,,,,,,,,,,,,,,,,,,,,,,,,0,0,0,0,0
2.4721,1783718945.6526,1,1,1.0000,0.0000,1.41871,0.15131,-2.67394,0.95167,1.57082,0.11851,-0.13195,-0.44273,0.06301,,,,,,,,,,,,,,,,,,,,,,,,,,0,0,0,0,0
2.4726,1783718945.6531,1,1,1.0000,0.0000,1.41871,0.15131,-2.67394,0.95167,1.57082,0.11851,-0.13195,-0.44273,0.06301,,,,,,,,,,,,,,,,,,,,,,,,,,0,0,0,0,0
2.4798,1783718945.6603,1,1,1.0000,0.0000,1.41870,0.15133,-2.67396,0.95167,1.57082,0.11851,-0.13195,-0.44272,0.06301,,,,,,,,,,,,,,,,,,,,,,,,,,0,0,0,0,0
2.4996,1783718945.6801,1,1,1.0000,0.0000,1.41862,0.15174,-2.67426,0.95154,1.57082,0.11859,-0.13194,-0.44253,0.06301,,,,,,,,,,,,,,,,,,,,,,,,,,0,0,0,0,0
2.5019,1783718945.6824,1,1,1.0000,0.0000,1.41862,0.15174,-2.67426,0.95154,1.57082,0.11859,-0.13194,-0.44253,0.06301,,,,,,,,,,,,,,,,,,,,,,,,,,0,0,0,0,0
2.5023,1783718945.6828,1,1,1.0000,0.0000,1.41862,0.15174,-2.67426,0.95154,1.57082,0.11859,-0.13194,-0.44253,0.06301,,,,,,,,,,,,,,,,,,,,,,,,,,0,0,0,0,0
2.5117,1783718945.6923,1,1,1.0000,0.0000,1.41860,0.15188,-2.67435,0.95150,1.57082,0.11862,-0.13194,-0.44247,0.06301,,,,,,,,,,,,,,,,,,,,,,,,,,0,0,0,0,0
2.5223,1783718945.7028,1,1,1.0000,0.0000,1.41856,0.15209,-2.67449,0.95143,1.57082,0.11867,-0.13194,-0.44239,0.06301,,,,,,,,,,,,,,,,,,,,,,,,,,0,0,0,0,0
2.5349,1783718945.7155,1,1,1.0000,0.0000,1.41845,0.15260,-2.67484,0.95127,1.57082,0.11877,-0.13194,-0.44218,0.06302,,,,,,,,,,,,,,,,,,,,,,,,,,0,0,0,0,0
2.5452,1783718945.7257,1,1,1.0000,0.0000,1.41841,0.15284,-2.67498,0.95119,1.57082,0.11882,-0.13194,-0.44208,0.06303,,,,,,,,,,,,,,,,,,,,,,,,,,0,0,0,0,0
2.5457,1783718945.7263,1,1,1.0000,0.0000,1.41841,0.15284,-2.67498,0.95119,1.57082,0.11882,-0.13194,-0.44208,0.06303,,,,,,,,,,,,,,,,,,,,,,,,,,0,0,0,0,0
2.5820,1783718945.7625,1,1,1.0000,0.0000,1.41836,0.15307,-2.67510,0.95111,1.57082,0.11888,-0.13193,-0.44202,0.06306,,,,,,,,,,,,,,,,,,,,,,,,,,0,0,0,0,0
2.5871,1783718945.7676,1,1,1.0000,0.0000,1.41836,0.15307,-2.67510,0.95111,1.57082,0.11888,-0.13193,-0.44202,0.06306,,,,,,,,,,,,,,,,,,,,,,,,,,0,0,0,0,0
2.5875,1783718945.7680,1,1,1.0000,0.0000,1.41836,0.15307,-2.67510,0.95111,1.57082,0.11888,-0.13193,-0.44202,0.06306,,,,,,,,,,,,,,,,,,,,,,,,,,0,0,0,0,0
2.5879,1783718945.7684,1,1,1.0000,0.0000,1.41836,0.15307,-2.67510,0.95111,1.57082,0.11888,-0.13193,-0.44202,0.06306,,,,,,,,,,,,,,,,,,,,,,,,,,0,0,0,0,0
2.5882,1783718945.7687,1,1,1.0000,0.0000,1.41836,0.15307,-2.67510,0.95111,1.57082,0.11888,-0.13193,-0.44202,0.06306,,,,,,,,,,,,,,,,,,,,,,,,,,0,0,0,0,0
2.5934,1783718945.7739,1,1,1.0000,0.0000,1.41836,0.15307,-2.67510,0.95111,1.57082,0.11888,-0.13193,-0.44202,0.06306,,,,,,,,,,,,,,,,,,,,,,,,,,0,0,0,0,0
2.5937,1783718945.7742,1,1,1.0000,0.0000,1.41836,0.15307,-2.67510,0.95111,1.57082,0.11888,-0.13193,-0.44202,0.06306,,,,,,,,,,,,,,,,,,,,,,,,,,0,0,0,0,0
2.6013,1783718945.7818,1,1,1.0000,0.0000,1.41836,0.15307,-2.67510,0.95111,1.57082,0.11888,-0.13193,-0.44202,0.06306,,,,,,,,,,,,,,,,,,,,,,,,,,0,0,0,0,0
2.6130,1783718945.7935,1,1,1.0000,0.0000,1.41836,0.15307,-2.67510,0.95111,1.57082,0.11888,-0.13193,-0.44202,0.06306,,,,,,,,,,,,,,,,,,,,,,,,,,0,0,0,0,0
2.6190,1783718945.7995,1,1,1.0000,0.0000,1.41836,0.15307,-2.67510,0.95111,1.57082,0.11888,-0.13193,-0.44202,0.06306,,,,,,,,,,,,,,,,,,,,,,,,,,0,0,0,0,0
2.6293,1783718945.8099,1,1,1.0000,0.0000,1.41836,0.15307,-2.67510,0.95111,1.57082,0.11888,-0.13193,-0.44202,0.06306,,,,,,,,,,,,,,,,,,,,,,,,,,0,0,0,0,0
2.6469,1783718945.8274,1,1,1.0000,0.0000,1.41836,0.15307,-2.67510,0.95111,1.57082,0.11888,-0.13193,-0.44202,0.06306,,,,,,,,,,,,,,,,,,,,,,,,,,0,0,0,0,0
2.6522,1783718945.8328,1,1,1.0000,0.0000,1.41836,0.15307,-2.67510,0.95111,1.57082,0.11888,-0.13193,-0.44202,0.06306,,,,,,,,,,,,,,,,,,,,,,,,,,0,0,0,0,0
2.6526,1783718945.8331,1,1,1.0000,0.0000,1.41836,0.15307,-2.67510,0.95111,1.57082,0.11888,-0.13193,-0.44202,0.06306,,,,,,,,,,,,,,,,,,,,,,,,,,0,0,0,0,0
2.6588,1783718945.8393,1,1,1.0000,0.0000,1.41836,0.15307,-2.67510,0.95111,1.57082,0.11888,-0.13193,-0.44202,0.06306,,,,,,,,,,,,,,,,,,,,,,,,,,0,0,0,0,0
2.7208,1783718945.9013,1,1,1.0000,0.0000,1.41836,0.15307,-2.67510,0.95111,1.57082,0.11888,-0.13193,-0.44202,0.06306,,,,,,,,,,,,,,,,,,,,,,,,,,0,0,0,0,0
2.7212,1783718945.9018,1,1,1.0000,0.0000,1.41836,0.15307,-2.67510,0.95111,1.57082,0.11888,-0.13193,-0.44202,0.06306,,,,,,,,,,,,,,,,,,,,,,,,,,0,0,0,0,0
2.7215,1783718945.9020,1,1,1.0000,0.0000,1.41836,0.15307,-2.67510,0.95111,1.57082,0.11888,-0.13193,-0.44202,0.06306,,,,,,,,,,,,,,,,,,,,,,,,,,0,0,0,0,0
2.7217,1783718945.9022,1,1,1.0000,0.0000,1.41836,0.15307,-2.67510,0.95111,1.57082,0.11888,-0.13193,-0.44202,0.06306,,,,,,,,,,,,,,,,,,,,,,,,,,0,0,0,0,0
2.7221,1783718945.9026,1,1,1.0000,0.0000,1.41836,0.15307,-2.67510,0.95111,1.57082,0.11888,-0.13193,-0.44202,0.06306,,,,,,,,,,,,,,,,,,,,,,,,,,0,0,0,0,0
2.7223,1783718945.9028,1,1,1.0000,0.0000,1.41836,0.15307,-2.67510,0.95111,1.57082,0.11888,-0.13193,-0.44202,0.06306,,,,,,,,,,,,,,,,,,,,,,,,,,0,0,0,0,0
2.7227,1783718945.9033,1,1,1.0000,0.0000,1.41836,0.15307,-2.67510,0.95111,1.57082,0.11888,-0.13193,-0.44202,0.06306,,,,,,,,,,,,,,,,,,,,,,,,,,0,0,0,0,0
2.7303,1783718945.9108,1,1,1.0000,0.0000,1.41836,0.15307,-2.67510,0.95111,1.57082,0.11888,-0.13193,-0.44202,0.06306,,,,,,,,,,,,,,,,,,,,,,,,,,0,0,0,0,0
2.7429,1783718945.9234,1,1,1.0000,0.0000,1.41836,0.15307,-2.67510,0.95111,1.57082,0.11888,-0.13193,-0.44202,0.06306,,,,,,,,,,,,,,,,,,,,,,,,,,0,0,0,0,0
2.7533,1783718945.9338,1,1,1.0000,0.0000,1.41836,0.15307,-2.67510,0.95111,1.57082,0.11888,-0.13193,-0.44202,0.06306,,,,,,,,,,,,,,,,,,,,,,,,,,0,0,0,0,0
2.7617,1783718945.9423,1,1,1.0000,0.0000,1.41836,0.15307,-2.67510,0.95111,1.57082,0.11888,-0.13193,-0.44202,0.06306,,,,,,,,,,,,,,,,,,,,,,,,,,0,0,0,0,0
2.7742,1783718945.9547,1,1,1.0000,0.0000,1.41836,0.15307,-2.67510,0.95111,1.57082,0.11888,-0.13193,-0.44202,0.06306,,,,,,,,,,,,,,,,,,,,,,,,,,0,0,0,0,0
2.7808,1783718945.9613,1,1,1.0000,0.0000,1.41836,0.15307,-2.67510,0.95111,1.57082,0.11888,-0.13193,-0.44202,0.06306,,,,,,,,,,,,,,,,,,,,,,,,,,0,0,0,0,0
2.8555,1783718946.0360,1,1,1.0000,0.0000,1.41836,0.15307,-2.67510,0.95111,1.57082,0.11888,-0.13193,-0.44202,0.06306,,,,,,,,,,,,,,,,,,,,,,,,,,0,0,0,0,0
2.8559,1783718946.0365,1,1,1.0000,0.0000,1.41836,0.15307,-2.67510,0.95111,1.57082,0.11888,-0.13193,-0.44202,0.06306,,,,,,,,,,,,,,,,,,,,,,,,,,0,0,0,0,0
2.8564,1783718946.0369,1,1,1.0000,0.0000,1.41836,0.15307,-2.67510,0.95111,1.57082,0.11888,-0.13193,-0.44202,0.06306,,,,,,,,,,,,,,,,,,,,,,,,,,0,0,0,0,0
2.8567,1783718946.0373,1,1,1.0000,0.0000,1.41836,0.15307,-2.67510,0.95111,1.57082,0.11888,-0.13193,-0.44202,0.06306,,,,,,,,,,,,,,,,,,,,,,,,,,0,0,0,0,0
2.8571,1783718946.0377,1,1,1.0000,0.0000,1.41836,0.15307,-2.67510,0.95111,1.57082,0.11888,-0.13193,-0.44202,0.06306,,,,,,,,,,,,,,,,,,,,,,,,,,0,0,0,0,0
2.8573,1783718946.0379,1,1,1.0000,0.0000,1.41836,0.15307,-2.67510,0.95111,1.57082,0.11888,-0.13193,-0.44202,0.06306,,,,,,,,,,,,,,,,,,,,,,,,,,0,0,0,0,0
2.8577,1783718946.0382,1,1,1.0000,0.0000,1.41836,0.15307,-2.67510,0.95111,1.57082,0.11888,-0.13193,-0.44202,0.06306,,,,,,,,,,,,,,,,,,,,,,,,,,0,0,0,0,0
2.8678,1783718946.0483,1,1,1.0000,0.0000,1.41836,0.15307,-2.67510,0.95111,1.57082,0.11888,-0.13193,-0.44202,0.06306,,,,,,,,,,,,,,,,,,,,,,,,,,0,0,0,0,0
2.8681,1783718946.0486,1,1,1.0000,0.0000,1.41836,0.15307,-2.67510,0.95111,1.57082,0.11888,-0.13193,-0.44202,0.06306,,,,,,,,,,,,,,,,,,,,,,,,,,0,0,0,0,0
2.8684,1783718946.0489,1,1,1.0000,0.0000,1.41836,0.15307,-2.67510,0.95111,1.57082,0.11888,-0.13193,-0.44202,0.06306,,,,,,,,,,,,,,,,,,,,,,,,,,0,0,0,0,0
2.8697,1783718946.0502,1,1,1.0000,0.0000,1.41836,0.15307,-2.67510,0.95111,1.57082,0.11888,-0.13193,-0.44202,0.06306,,,,,,,,,,,,,,,,,,,,,,,,,,0,0,0,0,0
2.8701,1783718946.0506,1,1,1.0000,0.0000,1.41836,0.15307,-2.67510,0.95111,1.57082,0.11888,-0.13193,-0.44202,0.06306,,,,,,,,,,,,,,,,,,,,,,,,,,0,0,0,0,0
2.8805,1783718946.0610,1,1,1.0000,0.0000,1.41836,0.15307,-2.67510,0.95111,1.57082,0.11888,-0.13193,-0.44202,0.06306,,,,,,,,,,,,,,,,,,,,,,,,,,0,0,0,0,0
2.8809,1783718946.0614,1,1,1.0000,0.0000,1.41836,0.15307,-2.67510,0.95111,1.57082,0.11888,-0.13193,-0.44202,0.06306,,,,,,,,,,,,,,,,,,,,,,,,,,0,0,0,0,0
2.8896,1783718946.0702,1,1,1.0000,0.0000,1.41836,0.15307,-2.67510,0.95111,1.57082,0.11888,-0.13193,-0.44202,0.06306,,,,,,,,,,,,,,,,,,,,,,,,,,0,0,0,0,0
2.8900,1783718946.0705,1,1,1.0000,0.0000,1.41836,0.15307,-2.67510,0.95111,1.57082,0.11888,-0.13193,-0.44202,0.06306,,,,,,,,,,,,,,,,,,,,,,,,,,0,0,0,0,0
2.9006,1783718946.0811,1,1,1.0000,0.0000,1.41836,0.15307,-2.67510,0.95111,1.57082,0.11888,-0.13193,-0.44202,0.06306,,,,,,,,,,,,,,,,,,,,,,,,,,0,0,0,0,0
2.9117,1783718946.0922,1,1,1.0000,0.0000,1.41836,0.15307,-2.67510,0.95111,1.57082,0.11888,-0.13193,-0.44202,0.06306,,,,,,,,,,,,,,,,,,,,,,,,,,0,0,0,0,0
2.9121,1783718946.0926,1,1,1.0000,0.0000,1.41836,0.15307,-2.67510,0.95111,1.57082,0.11888,-0.13193,-0.44202,0.06306,,,,,,,,,,,,,,,,,,,,,,,,,,0,0,0,0,0
2.9655,1783718946.1461,1,1,1.0000,0.0000,1.41836,0.15307,-2.67510,0.95111,1.57082,0.11888,-0.13193,-0.44202,0.06306,,,,,,,,,,,,,,,,,,,,,,,,,,0,0,0,0,0
2.9660,1783718946.1466,1,1,1.0000,0.0000,1.41836,0.15307,-2.67510,0.95111,1.57082,0.11888,-0.13193,-0.44202,0.06306,,,,,,,,,,,,,,,,,,,,,,,,,,0,0,0,0,0
2.9669,1783718946.1474,1,1,1.0000,0.0000,1.41836,0.15307,-2.67510,0.95111,1.57082,0.11888,-0.13193,-0.44201,0.06305,,,,,,,,,,,,,,,,,,,,,,,,,,0,0,0,0,0
2.9690,1783718946.1495,1,1,1.0000,0.0000,1.41836,0.15307,-2.67510,0.95111,1.57082,0.11888,-0.13193,-0.44201,0.06305,,,,,,,,,,,,,,,,,,,,,,,,,,0,0,0,0,0
2.9694,1783718946.1500,1,1,1.0000,0.0000,1.41836,0.15307,-2.67510,0.95111,1.57082,0.11888,-0.13193,-0.44201,0.06305,,,,,,,,,,,,,,,,,,,,,,,,,,0,0,0,0,0
2.9820,1783718946.1626,1,1,1.0000,0.0000,1.41837,0.15306,-2.67511,0.95111,1.57083,0.11889,-0.13193,-0.44201,0.06305,,,,,,,,,,,,,,,,,,,,,,,,,,0,0,0,0,0
2.9894,1783718946.1699,1,1,1.0000,0.0000,1.41837,0.15306,-2.67510,0.95111,1.57083,0.11889,-0.13193,-0.44201,0.06305,,,,,,,,,,,,,,,,,,,,,,,,,,0,0,0,0,0
3.0000,1783718946.1805,1,1,1.0000,0.0000,1.41837,0.15303,-2.67508,0.95111,1.57083,0.11890,-0.13193,-0.44202,0.06305,,,,,,,,,,,,,,,,,,,,,,,,,,0,0,0,0,0
3.0096,1783718946.1902,1,1,1.0000,0.0000,1.41838,0.15300,-2.67505,0.95112,1.57083,0.11890,-0.13193,-0.44204,0.06305,,,,,,,,,,,,,,,,,,,,,,,,,,0,0,0,0,0
3.0230,1783718946.2035,1,1,1.0000,0.0000,1.41839,0.15295,-2.67502,0.95112,1.57083,0.11890,-0.13193,-0.44206,0.06305,,,,,,,,,,,,,,,,,,,,,,,,,,0,0,0,0,0
3.0343,1783718946.2149,1,1,1.0000,0.0000,1.41840,0.15288,-2.67496,0.95114,1.57083,0.11890,-0.13193,-0.44209,0.06305,,,,,,,,,,,,,,,,,,,,,,,,,,0,0,0,0,0
3.0414,1783718946.2219,1,1,1.0000,0.0000,1.41841,0.15282,-2.67493,0.95115,1.57083,0.11890,-0.13193,-0.44211,0.06304,,,,,,,,,,,,,,,,,,,,,,,,,,0,0,0,0,0
3.0871,1783718946.2677,1,1,1.0000,0.0000,1.41860,0.15183,-2.67424,0.95137,1.57084,0.11879,-0.13195,-0.44251,0.06302,,,,,,,,,,,,,,,,,,,,,,,,,,0,0,0,0,0
3.0935,1783718946.2741,1,1,1.0000,0.0000,1.41863,0.15169,-2.67414,0.95141,1.57084,0.11877,-0.13195,-0.44257,0.06302,,,,,,,,,,,,,,,,,,,,,,,,,,0,0,0,0,0
3.0940,1783718946.2745,1,1,1.0000,0.0000,1.41863,0.15169,-2.67414,0.95141,1.57084,0.11877,-0.13195,-0.44257,0.06302,,,,,,,,,,,,,,,,,,,,,,,,,,0,0,0,0,0
3.0948,1783718946.2754,1,1,1.0000,0.0000,1.41866,0.15152,-2.67402,0.95145,1.57084,0.11874,-0.13195,-0.44265,0.06302,,,,,,,,,,,,,,,,,,,,,,,,,,0,0,0,0,0
3.0967,1783718946.2773,1,1,1.0000,0.0000,1.41866,0.15152,-2.67402,0.95145,1.57084,0.11874,-0.13195,-0.44265,0.06302,,,,,,,,,,,,,,,,,,,,,,,,,,0,0,0,0,0
3.0971,1783718946.2776,1,1,1.0000,0.0000,1.41866,0.15152,-2.67402,0.95145,1.57084,0.11874,-0.13195,-0.44265,0.06302,,,,,,,,,,,,,,,,,,,,,,,,,,0,0,0,0,0
3.0988,1783718946.2794,1,1,1.0000,0.0000,1.41866,0.15152,-2.67402,0.95145,1.57084,0.11874,-0.13195,-0.44265,0.06302,,,,,,,,,,,,,,,,,,,,,,,,,,0,0,0,0,0
3.1136,1783718946.2942,1,1,1.0000,0.0000,1.41873,0.15118,-2.67378,0.95154,1.57084,0.11868,-0.13195,-0.44279,0.06302,,,,,,,,,,,,,,,,,,,,,,,,,,0,0,0,0,0
3.1215,1783718946.3020,1,1,1.0000,0.0000,1.41883,0.15066,-2.67340,0.95168,1.57084,0.11859,-0.13195,-0.44302,0.06301,,,,,,,,,,,,,,,,,,,,,,,,,,0,0,0,0,0
3.1218,1783718946.3024,1,1,1.0000,0.0000,1.41883,0.15066,-2.67340,0.95168,1.57084,0.11859,-0.13195,-0.44302,0.06301,,,,,,,,,,,,,,,,,,,,,,,,,,0,0,0,0,0
3.1343,1783718946.3148,1,1,1.0000,0.0000,1.41896,0.14998,-2.67291,0.95185,1.57084,0.11847,-0.13195,-0.44331,0.06301,,,,,,,,,,,,,,,,,,,,,,,,,,0,0,0,0,0
3.1751,1783718946.3557,1,1,1.0000,0.0000,1.41936,0.14786,-2.67138,0.95242,1.57084,0.11808,-0.13196,-0.44424,0.06300,,,,,,,,,,,,,,,,,,,,,,,,,,0,0,0,0,0
3.1756,1783718946.3561,1,1,1.0000,0.0000,1.41936,0.14786,-2.67138,0.95242,1.57084,0.11808,-0.13196,-0.44424,0.06300,,,,,,,,,,,,,,,,,,,,,,,,,,0,0,0,0,0
3.1759,1783718946.3564,1,1,1.0000,0.0000,1.41936,0.14786,-2.67138,0.95242,1.57084,0.11808,-0.13196,-0.44424,0.06300,,,,,,,,,,,,,,,,,,,,,,,,,,0,0,0,0,0
3.1762,1783718946.3567,1,1,1.0000,0.0000,1.41936,0.14786,-2.67138,0.95242,1.57084,0.11808,-0.13196,-0.44424,0.06300,,,,,,,,,,,,,,,,,,,,,,,,,,0,0,0,0,0
3.1950,1783718946.3755,1,1,1.0000,0.0000,1.41952,0.14703,-2.67077,0.95264,1.57084,0.11792,-0.13197,-0.44461,0.06300,,,,,,,,,,,,,,,,,,,,,,,,,,0,0,0,0,0
3.1953,1783718946.3759,1,1,1.0000,0.0000,1.41952,0.14703,-2.67077,0.95264,1.57084,0.11792,-0.13197,-0.44461,0.06300,,,,,,,,,,,,,,,,,,,,,,,,,,0,0,0,0,0
3.1957,1783718946.3763,1,1,1.0000,0.0000,1.41952,0.14703,-2.67077,0.95264,1.57084,0.11792,-0.13197,-0.44461,0.06300,,,,,,,,,,,,,,,,,,,,,,,,,,0,0,0,0,0
3.2014,1783718946.3819,1,1,1.0000,0.0000,1.41957,0.14679,-2.67060,0.95270,1.57084,0.11788,-0.13197,-0.44472,0.06300,,,,,,,,,,,,,,,,,,,,,,,,,,0,0,0,0,0
3.2019,1783718946.3824,1,1,1.0000,0.0000,1.41957,0.14679,-2.67060,0.95270,1.57084,0.11788,-0.13197,-0.44472,0.06300,,,,,,,,,,,,,,,,,,,,,,,,,,0,0,0,0,0
3.2158,1783718946.3963,1,1,1.0000,0.0000,1.41986,0.14528,-2.66950,0.95310,1.57084,0.11759,-0.13197,-0.44539,0.06300,,,,,,,,,,,,,,,,,,,,,,,,,,0,0,0,0,0
3.2235,1783718946.4040,1,1,1.0000,0.0000,1.41987,0.14524,-2.66947,0.95311,1.57084,0.11758,-0.13197,-0.44540,0.06300,,,,,,,,,,,,,,,,,,,,,,,,,,0,0,0,0,0
3.2239,1783718946.4045,1,1,1.0000,0.0000,1.41987,0.14524,-2.66947,0.95311,1.57084,0.11758,-0.13197,-0.44540,0.06300,,,,,,,,,,,,,,,,,,,,,,,,,,0,0,0,0,0
3.2664,1783718946.4469,1,1,1.0000,0.0000,1.42016,0.14370,-2.66835,0.95353,1.57083,0.11728,-0.13198,-0.44609,0.06300,,,,,,,,,,,,,,,,,,,,,,,,,,0,0,0,0,0
3.2669,1783718946.4475,1,1,1.0000,0.0000,1.42019,0.14356,-2.66824,0.95357,1.57083,0.11726,-0.13198,-0.44615,0.06300,,,,,,,,,,,,,,,,,,,,,,,,,,0,0,0,0,0
3.2771,1783718946.4576,1,1,1.0000,0.0000,1.42026,0.14321,-2.66798,0.95367,1.57083,0.11719,-0.13198,-0.44631,0.06300,,,,,,,,,,,,,,,,,,,,,,,,,,0,0,0,0,0
3.2774,1783718946.4580,1,1,1.0000,0.0000,1.42026,0.14321,-2.66798,0.95367,1.57083,0.11719,-0.13198,-0.44631,0.06300,,,,,,,,,,,,,,,,,,,,,,,,,,0,0,0,0,0
3.3173,1783718946.4978,1,1,1.0000,0.0000,1.42043,0.14232,-2.66738,0.95393,1.57083,0.11700,-0.13199,-0.44668,0.06298,,,,,,,,,,,,,,,,,,,,,,,,,,0,0,0,0,0
3.3177,1783718946.4982,1,1,1.0000,0.0000,1.42043,0.14232,-2.66738,0.95393,1.57083,0.11700,-0.13199,-0.44668,0.06298,,,,,,,,,,,,,,,,,,,,,,,,,,0,0,0,0,0
3.3181,1783718946.4986,1,1,1.0000,0.0000,1.42043,0.14232,-2.66738,0.95393,1.57083,0.11700,-0.13199,-0.44668,0.06298,,,,,,,,,,,,,,,,,,,,,,,,,,0,0,0,0,0
3.3186,1783718946.4991,1,1,1.0000,0.0000,1.42045,0.14219,-2.66730,0.95397,1.57083,0.11697,-0.13199,-0.44673,0.06297,,,,,,,,,,,,,,,,,,,,,,,,,,0,0,0,0,0
3.3210,1783718946.5015,1,1,1.0000,0.0000,1.42045,0.14219,-2.66730,0.95397,1.57083,0.11697,-0.13199,-0.44673,0.06297,,,,,,,,,,,,,,,,,,,,,,,,,,0,0,0,0,0
3.3213,1783718946.5018,1,1,1.0000,0.0000,1.42045,0.14219,-2.66730,0.95397,1.57083,0.11697,-0.13199,-0.44673,0.06297,,,,,,,,,,,,,,,,,,,,,,,,,,0,0,0,0,0
3.3318,1783718946.5123,1,1,1.0000,0.0000,1.42051,0.14190,-2.66712,0.95406,1.57083,0.11691,-0.13199,-0.44683,0.06296,,,,,,,,,,,,,,,,,,,,,,,,,,0,0,0,0,0
3.3399,1783718946.5205,1,1,1.0000,0.0000,1.42052,0.14183,-2.66710,0.95408,1.57083,0.11690,-0.13200,-0.44684,0.06294,,,,,,,,,,,,,,,,,,,,,,,,,,0,0,0,0,0
3.3540,1783718946.5345,1,1,1.0000,0.0000,1.42052,0.14183,-2.66710,0.95408,1.57083,0.11690,-0.13200,-0.44684,0.06294,,,,,,,,,,,,,,,,,,,,,,,,,,0,0,0,0,0
3.3766,1783718946.5571,1,1,1.0000,0.0000,1.42052,0.14183,-2.66710,0.95408,1.57083,0.11690,-0.13200,-0.44684,0.06294,,,,,,,,,,,,,,,,,,,,,,,,,,0,0,0,0,0
3.3769,1783718946.5574,1,1,1.0000,0.0000,1.42052,0.14183,-2.66710,0.95408,1.57083,0.11690,-0.13200,-0.44684,0.06294,,,,,,,,,,,,,,,,,,,,,,,,,,0,0,0,0,0
3.3772,1783718946.5577,1,1,1.0000,0.0000,1.42052,0.14183,-2.66710,0.95408,1.57083,0.11690,-0.13200,-0.44684,0.06294,,,,,,,,,,,,,,,,,,,,,,,,,,0,0,0,0,0
3.4440,1783718946.6245,1,1,1.0000,0.0000,1.42052,0.14183,-2.66710,0.95408,1.57083,0.11690,-0.13200,-0.44684,0.06294,,,,,,,,,,,,,,,,,,,,,,,,,,0,0,0,0,0
3.4443,1783718946.6249,1,1,1.0000,0.0000,1.42052,0.14183,-2.66710,0.95408,1.57083,0.11690,-0.13200,-0.44684,0.06294,,,,,,,,,,,,,,,,,,,,,,,,,,0,0,0,0,0
3.4446,1783718946.6252,1,1,1.0000,0.0000,1.42052,0.14183,-2.66710,0.95408,1.57083,0.11690,-0.13200,-0.44684,0.06294,,,,,,,,,,,,,,,,,,,,,,,,,,0,0,0,0,0
3.4449,1783718946.6255,1,1,1.0000,0.0000,1.42052,0.14183,-2.66710,0.95408,1.57083,0.11690,-0.13200,-0.44684,0.06294,,,,,,,,,,,,,,,,,,,,,,,,,,0,0,0,0,0
3.4452,1783718946.6258,1,1,1.0000,0.0000,1.42052,0.14183,-2.66710,0.95408,1.57083,0.11690,-0.13200,-0.44684,0.06294,,,,,,,,,,,,,,,,,,,,,,,,,,0,0,0,0,0
3.4455,1783718946.6261,1,1,1.0000,0.0000,1.42052,0.14183,-2.66710,0.95408,1.57083,0.11690,-0.13200,-0.44684,0.06294,,,,,,,,,,,,,,,,,,,,,,,,,,0,0,0,0,0
3.4459,1783718946.6264,1,1,1.0000,0.0000,1.42052,0.14183,-2.66710,0.95408,1.57083,0.11690,-0.13200,-0.44684,0.06294,,,,,,,,,,,,,,,,,,,,,,,,,,0,0,0,0,0
3.4486,1783718946.6291,1,1,1.0000,0.0000,1.42052,0.14183,-2.66710,0.95408,1.57083,0.11690,-0.13200,-0.44684,0.06294,,,,,,,,,,,,,,,,,,,,,,,,,,0,0,0,0,0
3.4489,1783718946.6294,1,1,1.0000,0.0000,1.42052,0.14183,-2.66710,0.95408,1.57083,0.11690,-0.13200,-0.44684,0.06294,,,,,,,,,,,,,,,,,,,,,,,,,,0,0,0,0,0
3.4495,1783718946.6301,1,1,1.0000,0.0000,1.42052,0.14183,-2.66710,0.95408,1.57083,0.11690,-0.13200,-0.44684,0.06294,,,,,,,,,,,,,,,,,,,,,,,,,,0,0,0,0,0
3.4499,1783718946.6304,1,1,1.0000,0.0000,1.42052,0.14183,-2.66710,0.95408,1.57083,0.11690,-0.13200,-0.44684,0.06294,,,,,,,,,,,,,,,,,,,,,,,,,,0,0,0,0,0
3.4647,1783718946.6452,1,1,1.0000,0.0000,1.42052,0.14183,-2.66710,0.95408,1.57083,0.11690,-0.13200,-0.44684,0.06294,,,,,,,,,,,,,,,,,,,,,,,,,,0,0,0,0,0
3.4651,1783718946.6456,1,1,1.0000,0.0000,1.42052,0.14183,-2.66710,0.95408,1.57083,0.11690,-0.13200,-0.44684,0.06294,,,,,,,,,,,,,,,,,,,,,,,,,,0,0,0,0,0
3.4804,1783718946.6609,1,1,1.0000,0.0000,1.42052,0.14183,-2.66710,0.95408,1.57083,0.11690,-0.13200,-0.44684,0.06294,,,,,,,,,,,,,,,,,,,,,,,,,,0,0,0,0,0
3.4807,1783718946.6612,1,1,1.0000,0.0000,1.42052,0.14183,-2.66710,0.95408,1.57083,0.11690,-0.13200,-0.44684,0.06294,,,,,,,,,,,,,,,,,,,,,,,,,,0,0,0,0,0
3.4809,1783718946.6615,1,1,1.0000,0.0000,1.42052,0.14183,-2.66710,0.95408,1.57083,0.11690,-0.13200,-0.44684,0.06294,,,,,,,,,,,,,,,,,,,,,,,,,,0,0,0,0,0
3.4812,1783718946.6617,1,1,1.0000,0.0000,1.42052,0.14183,-2.66710,0.95408,1.57083,0.11690,-0.13200,-0.44684,0.06294,,,,,,,,,,,,,,,,,,,,,,,,,,0,0,0,0,0
3.4893,1783718946.6698,1,1,1.0000,0.0000,1.42052,0.14183,-2.66710,0.95408,1.57083,0.11690,-0.13200,-0.44684,0.06294,,,,,,,,,,,,,,,,,,,,,,,,,,0,0,0,0,0
3.5001,1783718946.6807,1,1,1.0000,0.0000,1.42052,0.14183,-2.66710,0.95408,1.57083,0.11690,-0.13200,-0.44684,0.06294,,,,,,,,,,,,,,,,,,,,,,,,,,0,0,0,0,0
3.5117,1783718946.6923,1,1,1.0000,0.0000,1.42052,0.14183,-2.66710,0.95408,1.57083,0.11690,-0.13200,-0.44684,0.06294,,,,,,,,,,,,,,,,,,,,,,,,,,0,0,0,0,0
3.5529,1783718946.7335,1,1,1.0000,0.0000,1.42052,0.14183,-2.66710,0.95408,1.57083,0.11690,-0.13200,-0.44684,0.06294,,,,,,,,,,,,,,,,,,,,,,,,,,0,0,0,0,0
3.5629,1783718946.7434,1,1,1.0000,0.0000,1.42052,0.14183,-2.66710,0.95408,1.57083,0.11690,-0.13200,-0.44684,0.06294,,,,,,,,,,,,,,,,,,,,,,,,,,0,0,0,0,0
3.5631,1783718946.7436,1,1,1.0000,0.0000,1.42052,0.14183,-2.66710,0.95408,1.57083,0.11690,-0.13200,-0.44684,0.06294,,,,,,,,,,,,,,,,,,,,,,,,,,0,0,0,0,0
3.5633,1783718946.7439,1,1,1.0000,0.0000,1.42052,0.14183,-2.66710,0.95408,1.57083,0.11690,-0.13200,-0.44684,0.06294,,,,,,,,,,,,,,,,,,,,,,,,,,0,0,0,0,0
3.5637,1783718946.7442,1,1,1.0000,0.0000,1.42052,0.14183,-2.66710,0.95408,1.57083,0.11690,-0.13200,-0.44684,0.06294,,,,,,,,,,,,,,,,,,,,,,,,,,0,0,0,0,0
3.5748,1783718946.7554,1,1,1.0000,0.0000,1.42052,0.14183,-2.66710,0.95408,1.57083,0.11690,-0.13200,-0.44684,0.06294,,,,,,,,,,,,,,,,,,,,,,,,,,0,0,0,0,0
3.5837,1783718946.7643,1,1,1.0000,0.0000,1.42052,0.14183,-2.66710,0.95408,1.57083,0.11690,-0.13200,-0.44684,0.06294,,,,,,,,,,,,,,,,,,,,,,,,,,0,0,0,0,0
3.5916,1783718946.7721,1,1,1.0000,0.0000,1.42052,0.14183,-2.66710,0.95408,1.57083,0.11690,-0.13200,-0.44684,0.06294,,,,,,,,,,,,,,,,,,,,,,,,,,0,0,0,0,0
3.5990,1783718946.7795,1,1,1.0000,0.0000,1.42052,0.14183,-2.66710,0.95408,1.57083,0.11690,-0.13200,-0.44684,0.06294,,,,,,,,,,,,,,,,,,,,,,,,,,0,0,0,0,0
3.5993,1783718946.7798,1,1,1.0000,0.0000,1.42052,0.14183,-2.66710,0.95408,1.57083,0.11690,-0.13200,-0.44684,0.06294,,,,,,,,,,,,,,,,,,,,,,,,,,0,0,0,0,0
3.6091,1783718946.7896,1,1,1.0000,0.0000,1.42052,0.14183,-2.66710,0.95408,1.57083,0.11690,-0.13200,-0.44684,0.06294,,,,,,,,,,,,,,,,,,,,,,,,,,0,0,0,0,0
3.6760,1783718946.8566,1,1,1.0000,0.0000,1.42052,0.14183,-2.66710,0.95408,1.57083,0.11690,-0.13200,-0.44684,0.06294,,,,,,,,,,,,,,,,,,,,,,,,,,0,0,0,0,0
3.6843,1783718946.8648,1,1,1.0000,0.0000,1.42052,0.14183,-2.66710,0.95408,1.57083,0.11690,-0.13200,-0.44684,0.06294,,,,,,,,,,,,,,,,,,,,,,,,,,0,0,0,0,0
3.6848,1783718946.8653,1,1,1.0000,0.0000,1.42052,0.14183,-2.66710,0.95408,1.57083,0.11690,-0.13200,-0.44684,0.06294,,,,,,,,,,,,,,,,,,,,,,,,,,0,0,0,0,0
3.6854,1783718946.8659,1,1,1.0000,0.0000,1.42052,0.14183,-2.66710,0.95408,1.57083,0.11690,-0.13200,-0.44684,0.06294,,,,,,,,,,,,,,,,,,,,,,,,,,0,0,0,0,0
3.6859,1783718946.8664,1,1,1.0000,0.0000,1.42052,0.14183,-2.66710,0.95408,1.57083,0.11690,-0.13200,-0.44684,0.06294,,,,,,,,,,,,,,,,,,,,,,,,,,0,0,0,0,0
3.6863,1783718946.8668,1,1,1.0000,0.0000,1.42052,0.14183,-2.66710,0.95408,1.57083,0.11690,-0.13200,-0.44684,0.06294,,,,,,,,,,,,,,,,,,,,,,,,,,0,0,0,0,0
3.6927,1783718946.8732,1,1,1.0000,0.0000,1.42052,0.14183,-2.66710,0.95408,1.57083,0.11690,-0.13200,-0.44684,0.06294,,,,,,,,,,,,,,,,,,,,,,,,,,0,0,0,0,0
3.6993,1783718946.8798,1,1,1.0000,0.0000,1.42052,0.14183,-2.66710,0.95408,1.57083,0.11690,-0.13200,-0.44684,0.06294,,,,,,,,,,,,,,,,,,,,,,,,,,0,0,0,0,0
3.6996,1783718946.8802,1,1,1.0000,0.0000,1.42052,0.14183,-2.66710,0.95408,1.57083,0.11690,-0.13200,-0.44684,0.06294,,,,,,,,,,,,,,,,,,,,,,,,,,0,0,0,0,0
3.7176,1783718946.8981,1,1,1.0000,0.0000,1.42052,0.14183,-2.66710,0.95408,1.57083,0.11690,-0.13200,-0.44684,0.06294,,,,,,,,,,,,,,,,,,,,,,,,,,0,0,0,0,0
3.7212,1783718946.9017,1,1,1.0000,0.0000,1.42052,0.14183,-2.66710,0.95408,1.57083,0.11690,-0.13200,-0.44684,0.06294,,,,,,,,,,,,,,,,,,,,,,,,,,0,0,0,0,0
3.7350,1783718946.9155,1,1,1.0000,0.0000,1.42052,0.14183,-2.66710,0.95408,1.57083,0.11690,-0.13200,-0.44684,0.06294,,,,,,,,,,,,,,,,,,,,,,,,,,0,0,0,0,0
3.7510,1783718946.9315,1,1,1.0000,0.0000,1.42052,0.14183,-2.66710,0.95408,1.57083,0.11690,-0.13200,-0.44684,0.06294,,,,,,,,,,,,,,,,,,,,,,,,,,0,0,0,0,0
3.7514,1783718946.9320,1,1,1.0000,0.0000,1.42052,0.14183,-2.66710,0.95408,1.57083,0.11690,-0.13200,-0.44684,0.06294,,,,,,,,,,,,,,,,,,,,,,,,,,0,0,0,0,0
3.7840,1783718946.9646,1,1,1.0000,0.0000,1.42052,0.14167,-2.66716,0.95431,1.57082,0.11688,-0.13200,-0.44684,0.06288,,,,,,,,,,,,,,,,,,,,,,,,,,0,0,0,0,0
3.7863,1783718946.9669,1,1,1.0000,0.0000,1.42052,0.14167,-2.66716,0.95431,1.57082,0.11688,-0.13200,-0.44684,0.06288,,,,,,,,,,,,,,,,,,,,,,,,,,0,0,0,0,0
3.8069,1783718946.9874,1,1,1.0000,0.0000,1.42052,0.14153,-2.66721,0.95450,1.57082,0.11687,-0.13200,-0.44684,0.06283,,,,,,,,,,,,,,,,,,,,,,,,,,0,0,0,0,0
3.8073,1783718946.9878,1,1,1.0000,0.0000,1.42052,0.14153,-2.66721,0.95450,1.57082,0.11687,-0.13200,-0.44684,0.06283,,,,,,,,,,,,,,,,,,,,,,,,,,0,0,0,0,0
3.8076,1783718946.9881,1,1,1.0000,0.0000,1.42052,0.14153,-2.66721,0.95450,1.57082,0.11687,-0.13200,-0.44684,0.06283,,,,,,,,,,,,,,,,,,,,,,,,,,0,0,0,0,0
3.8078,1783718946.9883,1,1,1.0000,0.0000,1.42052,0.14153,-2.66721,0.95450,1.57082,0.11687,-0.13200,-0.44684,0.06283,,,,,,,,,,,,,,,,,,,,,,,,,,0,0,0,0,0
3.8137,1783718946.9942,1,1,1.0000,0.0000,1.42052,0.14148,-2.66722,0.95457,1.57082,0.11686,-0.13200,-0.44684,0.06282,,,,,,,,,,,,,,,,,,,,,,,,,,0,0,0,0,0
3.8191,1783718946.9996,1,1,1.0000,0.0000,1.42052,0.14146,-2.66723,0.95458,1.57082,0.11686,-0.13200,-0.44684,0.06281,,,,,,,,,,,,,,,,,,,,,,,,,,0,0,0,0,0
3.8195,1783718947.0001,1,1,1.0000,0.0000,1.42052,0.14146,-2.66723,0.95458,1.57082,0.11686,-0.13200,-0.44684,0.06281,,,,,,,,,,,,,,,,,,,,,,,,,,0,0,0,0,0
3.8309,1783718947.0114,1,1,1.0000,0.0000,1.42052,0.14127,-2.66728,0.95483,1.57082,0.11686,-0.13200,-0.44684,0.06275,,,,,,,,,,,,,,,,,,,,,,,,,,0,0,0,0,0
3.8436,1783718947.0241,1,1,1.0000,0.0000,1.42052,0.14091,-2.66738,0.95528,1.57082,0.11685,-0.13199,-0.44685,0.06263,,,,,,,,,,,,,,,,,,,,,,,,,,0,0,0,0,0
3.8511,1783718947.0316,1,1,1.0000,0.0000,1.42052,0.14077,-2.66741,0.95546,1.57082,0.11685,-0.13199,-0.44685,0.06258,,,,,,,,,,,,,,,,,,,,,,,,,,0,0,0,0,0
3.8514,1783718947.0319,1,1,1.0000,0.0000,1.42052,0.14077,-2.66741,0.95546,1.57082,0.11685,-0.13199,-0.44685,0.06258,,,,,,,,,,,,,,,,,,,,,,,,,,0,0,0,0,0
3.8606,1783718947.0411,1,1,1.0000,0.0000,1.42052,0.14070,-2.66743,0.95556,1.57082,0.11685,-0.13199,-0.44685,0.06256,,,,,,,,,,,,,,,,,,,,,,,,,,0,0,0,0,0
3.8744,1783718947.0549,1,1,1.0000,0.0000,1.42051,0.14036,-2.66752,0.95599,1.57082,0.11685,-0.13199,-0.44686,0.06245,,,,,,,,,,,,,,,,,,,,,,,,,,0,0,0,0,0
3.8943,1783718947.0748,1,1,1.0000,0.0000,1.42051,0.13993,-2.66764,0.95655,1.57082,0.11684,-0.13199,-0.44686,0.06231,,,,,,,,,,,,,,,,,,,,,,,,,,0,0,0,0,0
3.8950,1783718947.0755,1,1,1.0000,0.0000,1.42051,0.13981,-2.66767,0.95670,1.57082,0.11684,-0.13199,-0.44687,0.06227,,,,,,,,,,,,,,,,,,,,,,,,,,0,0,0,0,0
3.9036,1783718947.0841,1,1,1.0000,0.0000,1.42051,0.13947,-2.66776,0.95713,1.57082,0.11684,-0.13199,-0.44687,0.06216,,,,,,,,,,,,,,,,,,,,,,,,,,0,0,0,0,0
3.9136,1783718947.0942,1,1,1.0000,0.0000,1.42051,0.13944,-2.66777,0.95717,1.57082,0.11684,-0.13199,-0.44687,0.06215,,,,,,,,,,,,,,,,,,,,,,,,,,0,0,0,0,0
3.9140,1783718947.0945,1,1,1.0000,0.0000,1.42051,0.13944,-2.66777,0.95717,1.57082,0.11684,-0.13199,-0.44687,0.06215,,,,,,,,,,,,,,,,,,,,,,,,,,0,0,0,0,0
3.9250,1783718947.1055,1,1,1.0000,0.0000,1.42051,0.13903,-2.66789,0.95769,1.57082,0.11684,-0.13199,-0.44687,0.06201,,,,,,,,,,,,,,,,,,,,,,,,,,0,0,0,0,0
3.9392,1783718947.1198,1,1,1.0000,0.0000,1.42050,0.13832,-2.66808,0.95860,1.57082,0.11684,-0.13198,-0.44688,0.06177,,,,,,,,,,,,,,,,,,,,,,,,,,0,0,0,0,0
3.9396,1783718947.1201,1,1,1.0000,0.0000,1.42050,0.13832,-2.66808,0.95860,1.57082,0.11684,-0.13198,-0.44688,0.06177,,,,,,,,,,,,,,,,,,,,,,,,,,0,0,0,0,0
3.9445,1783718947.1250,1,1,1.0000,0.0000,1.42050,0.13830,-2.66809,0.95863,1.57082,0.11684,-0.13198,-0.44688,0.06177,,,,,,,,,,,,,,,,,,,,,,,,,,0,0,0,0,0
3.9448,1783718947.1253,1,1,1.0000,0.0000,1.42050,0.13830,-2.66809,0.95863,1.57082,0.11684,-0.13198,-0.44688,0.06177,,,,,,,,,,,,,,,,,,,,,,,,,,0,0,0,0,0
3.9509,1783718947.1314,1,1,1.0000,0.0000,1.42050,0.13812,-2.66814,0.95886,1.57082,0.11684,-0.13198,-0.44688,0.06171,,,,,,,,,,,,,,,,,,,,,,,,,,0,0,0,0,0
3.9513,1783718947.1318,1,1,1.0000,0.0000,1.42050,0.13812,-2.66814,0.95886,1.57082,0.11684,-0.13198,-0.44688,0.06171,,,,,,,,,,,,,,,,,,,,,,,,,,0,0,0,0,0
3.9607,1783718947.1412,1,1,1.0000,0.0000,1.42050,0.13782,-2.66822,0.95926,1.57082,0.11683,-0.13198,-0.44689,0.06161,,,,,,,,,,,,,,,,,,,,,,,,,,0,0,0,0,0
3.9710,1783718947.1516,1,1,1.0000,0.0000,1.42050,0.13743,-2.66833,0.95976,1.57082,0.11683,-0.13198,-0.44689,0.06148,,,,,,,,,,,,,,,,,,,,,,,,,,0,0,0,0,0
3.9802,1783718947.1607,1,1,1.0000,0.0000,1.42050,0.13737,-2.66835,0.95985,1.57082,0.11683,-0.13198,-0.44689,0.06146,,,,,,,,,,,,,,,,,,,,,,,,,,0,0,0,0,0
3.9925,1783718947.1730,1,1,1.0000,0.0000,1.42050,0.13707,-2.66843,0.96024,1.57082,0.11683,-0.13198,-0.44690,0.06136,,,,,,,,,,,,,,,,,,,,,,,,,,0,0,0,0,0
3.9999,1783718947.1804,1,1,1.0000,0.0000,1.42050,0.13705,-2.66843,0.96026,1.57082,0.11683,-0.13198,-0.44690,0.06136,,,,,,,,,,,,,,,,,,,,,,,,,,0,0,0,0,0
4.0097,1783718947.1903,1,1,1.0000,0.0000,1.42050,0.13695,-2.66846,0.96040,1.57082,0.11683,-0.13198,-0.44691,0.06133,,,,,,,,,,,,,,,,,,,,,,,,,,0,0,0,0,0
4.0209,1783718947.2014,1,1,1.0000,0.0000,1.42049,0.13667,-2.66852,0.96078,1.57082,0.11683,-0.13197,-0.44693,0.06125,,,,,,,,,,,,,,,,,,,,,,,,,,0,0,0,0,0
4.0301,1783718947.2106,1,1,1.0000,0.0000,1.42049,0.13644,-2.66856,0.96108,1.57082,0.11683,-0.13197,-0.44694,0.06118,,,,,,,,,,,,,,,,,,,,,,,,,,0,0,0,0,0
4.0389,1783718947.2194,1,1,1.0000,0.0000,1.42049,0.13641,-2.66857,0.96112,1.57082,0.11683,-0.13197,-0.44695,0.06118,,,,,,,,,,,,,,,,,,,,,,,,,,0,0,0,0,0
4.0503,1783718947.2308,1,1,1.0000,0.0000,1.42049,0.13634,-2.66858,0.96122,1.57082,0.11683,-0.13197,-0.44695,0.06116,,,,,,,,,,,,,,,,,,,,,,,,,,0,0,0,0,0
4.0589,1783718947.2394,1,1,1.0000,0.0000,1.42049,0.13619,-2.66862,0.96144,1.57082,0.11683,-0.13197,-0.44696,0.06111,,,,,,,,,,,,,,,,,,,,,,,,,,0,0,0,0,0
4.0593,1783718947.2398,1,1,1.0000,0.0000,1.42049,0.13619,-2.66862,0.96144,1.57082,0.11683,-0.13197,-0.44696,0.06111,,,,,,,,,,,,,,,,,,,,,,,,,,0,0,0,0,0
4.1175,1783718947.2981,1,1,1.0000,0.0000,1.42049,0.13557,-2.66885,0.96225,1.57082,0.11682,-0.13197,-0.44693,0.06088,,,,,,,,,,,,,,,,,,,,,,,,,,0,0,0,0,0
4.1303,1783718947.3108,1,1,1.0000,0.0000,1.42049,0.13550,-2.66887,0.96233,1.57082,0.11682,-0.13197,-0.44693,0.06086,,,,,,,,,,,,,,,,,,,,,,,,,,0,0,0,0,0
4.1351,1783718947.3156,1,1,1.0000,0.0000,1.42049,0.13533,-2.66892,0.96255,1.57082,0.11682,-0.13197,-0.44693,0.06080,,,,,,,,,,,,,,,,,,,,,,,,,,0,0,0,0,0
4.1369,1783718947.3175,1,1,1.0000,0.0000,1.42049,0.13533,-2.66892,0.96255,1.57082,0.11682,-0.13197,-0.44693,0.06080,,,,,,,,,,,,,,,,,,,,,,,,,,0,0,0,0,0
4.1372,1783718947.3177,1,1,1.0000,0.0000,1.42049,0.13533,-2.66892,0.96255,1.57082,0.11682,-0.13197,-0.44693,0.06080,,,,,,,,,,,,,,,,,,,,,,,,,,0,0,0,0,0
4.1375,1783718947.3180,1,1,1.0000,0.0000,1.42049,0.13533,-2.66892,0.96255,1.57082,0.11682,-0.13197,-0.44693,0.06080,,,,,,,,,,,,,,,,,,,,,,,,,,0,0,0,0,0
4.1379,1783718947.3184,1,1,1.0000,0.0000,1.42049,0.13533,-2.66892,0.96255,1.57082,0.11682,-0.13197,-0.44693,0.06080,,,,,,,,,,,,,,,,,,,,,,,,,,0,0,0,0,0
4.1416,1783718947.3221,1,1,1.0000,0.0000,1.42049,0.13521,-2.66896,0.96270,1.57082,0.11682,-0.13197,-0.44693,0.06076,,,,,,,,,,,,,,,,,,,,,,,,,,0,0,0,0,0
4.1521,1783718947.3327,1,1,1.0000,0.0000,1.42049,0.13493,-2.66905,0.96307,1.57081,0.11682,-0.13197,-0.44692,0.06066,,,,,,,,,,,,,,,,,,,,,,,,,,0,0,0,0,0
4.1645,1783718947.3450,1,1,1.0000,0.0000,1.42048,0.13473,-2.66911,0.96332,1.57081,0.11682,-0.13197,-0.44692,0.06059,,,,,,,,,,,,,,,,,,,,,,,,,,0,0,0,0,0
4.1654,1783718947.3460,1,1,1.0000,0.0000,1.42048,0.13473,-2.66911,0.96332,1.57081,0.11682,-0.13197,-0.44692,0.06059,,,,,,,,,,,,,,,,,,,,,,,,,,0,0,0,0,0
4.1658,1783718947.3463,1,1,1.0000,0.0000,1.42048,0.13473,-2.66911,0.96332,1.57081,0.11682,-0.13197,-0.44692,0.06059,,,,,,,,,,,,,,,,,,,,,,,,,,0,0,0,0,0
4.1739,1783718947.3545,1,1,1.0000,0.0000,1.42048,0.13441,-2.66920,0.96372,1.57081,0.11682,-0.13197,-0.44692,0.06048,,,,,,,,,,,,,,,,,,,,,,,,,,0,0,0,0,0
4.1850,1783718947.3656,1,1,1.0000,0.0000,1.42048,0.13428,-2.66924,0.96389,1.57081,0.11682,-0.13197,-0.44692,0.06044,,,,,,,,,,,,,,,,,,,,,,,,,,0,0,0,0,0
4.1950,1783718947.3755,1,1,1.0000,0.0000,1.42048,0.13370,-2.66940,0.96462,1.57081,0.11682,-0.13197,-0.44691,0.06024,,,,,,,,,,,,,,,,,,,,,,,,,,0,0,0,0,0
4.1994,1783718947.3799,1,1,1.0000,0.0000,1.42048,0.13344,-2.66948,0.96495,1.57082,0.11682,-0.13197,-0.44691,0.06015,,,,,,,,,,,,,,,,,,,,,,,,,,0,0,0,0,0
4.1999,1783718947.3805,1,1,1.0000,0.0000,1.42048,0.13344,-2.66948,0.96495,1.57082,0.11682,-0.13197,-0.44691,0.06015,,,,,,,,,,,,,,,,,,,,,,,,,,0,0,0,0,0
4.2118,1783718947.3923,1,1,1.0000,0.0000,1.42048,0.13287,-2.66964,0.96567,1.57082,0.11682,-0.13197,-0.44691,0.05995,,,,,,,,,,,,,,,,,,,,,,,,,,0,0,0,0,0
4.2244,1783718947.4049,1,1,1.0000,0.0000,1.42047,0.13266,-2.66970,0.96594,1.57081,0.11682,-0.13197,-0.44691,0.05988,,,,,,,,,,,,,,,,,,,,,,,,,,0,0,0,0,0
4.2353,1783718947.4159,1,1,1.0000,0.0000,1.42047,0.13214,-2.66985,0.96660,1.57081,0.11682,-0.13197,-0.44691,0.05971,,,,,,,,,,,,,,,,,,,,,,,,,,0,0,0,0,0
4.2356,1783718947.4161,1,1,1.0000,0.0000,1.42047,0.13214,-2.66985,0.96660,1.57081,0.11682,-0.13197,-0.44691,0.05971,,,,,,,,,,,,,,,,,,,,,,,,,,0,0,0,0,0
4.2436,1783718947.4242,1,1,1.0000,0.0000,1.42047,0.13193,-2.66991,0.96687,1.57081,0.11682,-0.13197,-0.44691,0.05964,,,,,,,,,,,,,,,,,,,,,,,,,,0,0,0,0,0
4.2521,1783718947.4326,1,1,1.0000,0.0000,1.42047,0.13185,-2.66993,0.96697,1.57081,0.11682,-0.13196,-0.44691,0.05961,,,,,,,,,,,,,,,,,,,,,,,,,,0,0,0,0,0
4.2631,1783718947.4437,1,1,1.0000,0.0000,1.42047,0.13150,-2.67003,0.96743,1.57081,0.11682,-0.13196,-0.44691,0.05949,,,,,,,,,,,,,,,,,,,,,,,,,,0,0,0,0,0
4.2715,1783718947.4521,1,1,1.0000,0.0000,1.42047,0.13148,-2.67004,0.96746,1.57081,0.11682,-0.13196,-0.44691,0.05949,,,,,,,,,,,,,,,,,,,,,,,,,,0,0,0,0,0
4.2805,1783718947.4610,1,1,1.0000,0.0000,1.42047,0.13134,-2.67008,0.96763,1.57081,0.11682,-0.13196,-0.44691,0.05944,,,,,,,,,,,,,,,,,,,,,,,,,,0,0,0,0,0
4.2966,1783718947.4771,1,1,1.0000,0.0000,1.42047,0.13082,-2.67022,0.96832,1.57081,0.11682,-0.13196,-0.44692,0.05928,,,,,,,,,,,,,,,,,,,,,,,,,,0,0,0,0,0
4.2969,1783718947.4774,1,1,1.0000,0.0000,1.42047,0.13082,-2.67022,0.96832,1.57081,0.11682,-0.13196,-0.44692,0.05928,,,,,,,,,,,,,,,,,,,,,,,,,,0,0,0,0,0
4.3006,1783718947.4811,1,1,1.0000,0.0000,1.42047,0.13082,-2.67022,0.96832,1.57081,0.11682,-0.13196,-0.44692,0.05928,,,,,,,,,,,,,,,,,,,,,,,,,,0,0,0,0,0
4.3117,1783718947.4922,1,1,1.0000,0.0000,1.42047,0.13073,-2.67024,0.96844,1.57081,0.11682,-0.13196,-0.44692,0.05925,,,,,,,,,,,,,,,,,,,,,,,,,,0,0,0,0,0
4.3220,1783718947.5025,1,1,1.0000,0.0000,1.42046,0.13059,-2.67028,0.96863,1.57081,0.11682,-0.13196,-0.44693,0.05921,,,,,,,,,,,,,,,,,,,,,,,,,,0,0,0,0,0
4.3314,1783718947.5120,1,1,1.0000,0.0000,1.42046,0.13042,-2.67032,0.96886,1.57081,0.11682,-0.13196,-0.44694,0.05915,,,,,,,,,,,,,,,,,,,,,,,,,,0,0,0,0,0
4.3400,1783718947.5206,1,1,1.0000,0.0000,1.42046,0.13039,-2.67033,0.96891,1.57081,0.11682,-0.13196,-0.44694,0.05914,,,,,,,,,,,,,,,,,,,,,,,,,,0,0,0,0,0
4.3405,1783718947.5210,1,1,1.0000,0.0000,1.42046,0.13039,-2.67033,0.96891,1.57081,0.11682,-0.13196,-0.44694,0.05914,,,,,,,,,,,,,,,,,,,,,,,,,,0,0,0,0,0
4.3543,1783718947.5348,1,1,1.0000,0.0000,1.42046,0.13023,-2.67038,0.96912,1.57081,0.11681,-0.13196,-0.44694,0.05909,,,,,,,,,,,,,,,,,,,,,,,,,,0,0,0,0,0
4.3617,1783718947.5422,1,1,1.0000,0.0000,1.42046,0.13022,-2.67038,0.96914,1.57081,0.11681,-0.13196,-0.44694,0.05909,,,,,,,,,,,,,,,,,,,,,,,,,,0,0,0,0,0
4.3622,1783718947.5427,1,1,1.0000,0.0000,1.42046,0.13022,-2.67038,0.96914,1.57081,0.11681,-0.13196,-0.44694,0.05909,,,,,,,,,,,,,,,,,,,,,,,,,,0,0,0,0,0
4.3695,1783718947.5500,1,1,1.0000,0.0000,1.42046,0.13012,-2.67041,0.96926,1.57081,0.11681,-0.13196,-0.44694,0.05905,,,,,,,,,,,,,,,,,,,,,,,,,,0,0,0,0,0
4.3798,1783718947.5604,1,1,1.0000,0.0000,1.42046,0.12985,-2.67050,0.96962,1.57081,0.11681,-0.13196,-0.44693,0.05896,,,,,,,,,,,,,,,,,,,,,,,,,,0,0,0,0,0
4.3922,1783718947.5727,1,1,1.0000,0.0000,1.42046,0.12949,-2.67061,0.97009,1.57081,0.11681,-0.13196,-0.44693,0.05883,,,,,,,,,,,,,,,,,,,,,,,,,,0,0,0,0,0
4.3926,1783718947.5731,1,1,1.0000,0.0000,1.42046,0.12949,-2.67061,0.97009,1.57081,0.11681,-0.13196,-0.44693,0.05883,,,,,,,,,,,,,,,,,,,,,,,,,,0,0,0,0,0
4.3994,1783718947.5800,1,1,1.0000,0.0000,1.42046,0.12936,-2.67065,0.97025,1.57081,0.11681,-0.13196,-0.44692,0.05879,,,,,,,,,,,,,,,,,,,,,,,,,,0,0,0,0,0
4.4172,1783718947.5978,1,1,1.0000,0.0000,1.42046,0.12917,-2.67071,0.97050,1.57081,0.11681,-0.13196,-0.44692,0.05873,,,,,,,,,,,,,,,,,,,,,,,,,,0,0,0,0,0
4.4223,1783718947.6029,1,1,1.0000,0.0000,1.42046,0.12907,-2.67074,0.97063,1.57081,0.11681,-0.13196,-0.44692,0.05869,,,,,,,,,,,,,,,,,,,,,,,,,,0,0,0,0,0
4.4228,1783718947.6033,1,1,1.0000,0.0000,1.42046,0.12907,-2.67074,0.97063,1.57081,0.11681,-0.13196,-0.44692,0.05869,,,,,,,,,,,,,,,,,,,,,,,,,,0,0,0,0,0
4.4302,1783718947.6107,1,1,1.0000,0.0000,1.42046,0.12904,-2.67074,0.97066,1.57081,0.11681,-0.13196,-0.44692,0.05868,,,,,,,,,,,,,,,,,,,,,,,,,,0,0,0,0,0
4.4435,1783718947.6241,1,1,1.0000,0.0000,1.42046,0.12853,-2.67088,0.97131,1.57081,0.11681,-0.13196,-0.44692,0.05851,,,,,,,,,,,,,,,,,,,,,,,,,,0,0,0,0,0
4.4567,1783718947.6372,1,1,1.0000,0.0000,1.42045,0.12841,-2.67092,0.97146,1.57081,0.11681,-0.13196,-0.44692,0.05847,,,,,,,,,,,,,,,,,,,,,,,,,,0,0,0,0,0
4.4621,1783718947.6426,1,1,1.0000,0.0000,1.42045,0.12827,-2.67096,0.97164,1.57081,0.11681,-0.13196,-0.44692,0.05843,,,,,,,,,,,,,,,,,,,,,,,,,,0,0,0,0,0
4.4718,1783718947.6523,1,1,1.0000,0.0000,1.42045,0.12761,-2.67114,0.97247,1.57082,0.11681,-0.13195,-0.44692,0.05820,,,,,,,,,,,,,,,,,,,,,,,,,,0,0,0,0,0
4.4807,1783718947.6613,1,1,1.0000,0.0000,1.42045,0.12734,-2.67122,0.97282,1.57082,0.11681,-0.13195,-0.44692,0.05811,,,,,,,,,,,,,,,,,,,,,,,,,,0,0,0,0,0
4.4926,1783718947.6731,1,1,1.0000,0.0000,1.42045,0.12709,-2.67129,0.97313,1.57082,0.11681,-0.13195,-0.44692,0.05803,,,,,,,,,,,,,,,,,,,,,,,,,,0,0,0,0,0
4.5017,1783718947.6822,1,1,1.0000,0.0000,1.42045,0.12672,-2.67140,0.97360,1.57082,0.11681,-0.13195,-0.44692,0.05790,,,,,,,,,,,,,,,,,,,,,,,,,,0,0,0,0,0
4.5116,1783718947.6921,1,1,1.0000,0.0000,1.42044,0.12624,-2.67153,0.97421,1.57082,0.11681,-0.13195,-0.44692,0.05774,,,,,,,,,,,,,,,,,,,,,,,,,,0,0,0,0,0
4.5119,1783718947.6924,1,1,1.0000,0.0000,1.42044,0.12624,-2.67153,0.97421,1.57082,0.11681,-0.13195,-0.44692,0.05774,,,,,,,,,,,,,,,,,,,,,,,,,,0,0,0,0,0
4.5210,1783718947.7015,1,1,1.0000,0.0000,1.42044,0.12614,-2.67156,0.97433,1.57082,0.11681,-0.13195,-0.44692,0.05771,,,,,,,,,,,,,,,,,,,,,,,,,,0,0,0,0,0
4.5213,1783718947.7018,1,1,1.0000,0.0000,1.42044,0.12614,-2.67156,0.97433,1.57082,0.11681,-0.13195,-0.44692,0.05771,,,,,,,,,,,,,,,,,,,,,,,,,,0,0,0,0,0
4.5319,1783718947.7124,1,1,1.0000,0.0000,1.42044,0.12573,-2.67167,0.97486,1.57082,0.11681,-0.13195,-0.44692,0.05758,,,,,,,,,,,,,,,,,,,,,,,,,,0,0,0,0,0
4.5322,1783718947.7127,1,1,1.0000,0.0000,1.42044,0.12573,-2.67167,0.97486,1.57082,0.11681,-0.13195,-0.44692,0.05758,,,,,,,,,,,,,,,,,,,,,,,,,,0,0,0,0,0
4.5453,1783718947.7259,1,1,1.0000,0.0000,1.42044,0.12565,-2.67169,0.97496,1.57082,0.11681,-0.13195,-0.44692,0.05755,,,,,,,,,,,,,,,,,,,,,,,,,,0,0,0,0,0
4.5530,1783718947.7335,1,1,1.0000,0.0000,1.42044,0.12543,-2.67175,0.97525,1.57082,0.11681,-0.13195,-0.44692,0.05748,,,,,,,,,,,,,,,,,,,,,,,,,,0,0,0,0,0
4.5532,1783718947.7338,1,1,1.0000,0.0000,1.42044,0.12543,-2.67175,0.97525,1.57082,0.11681,-0.13195,-0.44692,0.05748,,,,,,,,,,,,,,,,,,,,,,,,,,0,0,0,0,0
4.5677,1783718947.7482,1,1,1.0000,0.0000,1.42044,0.12478,-2.67193,0.97609,1.57082,0.11681,-0.13195,-0.44693,0.05727,,,,,,,,,,,,,,,,,,,,,,,,,,0,0,0,0,0
4.5699,1783718947.7504,1,1,1.0000,0.0000,1.42044,0.12478,-2.67193,0.97609,1.57082,0.11681,-0.13195,-0.44693,0.05727,,,,,,,,,,,,,,,,,,,,,,,,,,0,0,0,0,0
4.5702,1783718947.7507,1,1,1.0000,0.0000,1.42044,0.12478,-2.67193,0.97609,1.57082,0.11681,-0.13195,-0.44693,0.05727,,,,,,,,,,,,,,,,,,,,,,,,,,0,0,0,0,0
4.5794,1783718947.7600,1,1,1.0000,0.0000,1.42044,0.12477,-2.67193,0.97611,1.57082,0.11681,-0.13195,-0.44693,0.05727,,,,,,,,,,,,,,,,,,,,,,,,,,0,0,0,0,0
4.5801,1783718947.7606,1,1,1.0000,0.0000,1.42044,0.12474,-2.67193,0.97615,1.57082,0.11681,-0.13195,-0.44693,0.05726,,,,,,,,,,,,,,,,,,,,,,,,,,0,0,0,0,0
4.5935,1783718947.7740,1,1,1.0000,0.0000,1.42044,0.12456,-2.67197,0.97638,1.57082,0.11681,-0.13194,-0.44695,0.05721,,,,,,,,,,,,,,,,,,,,,,,,,,0,0,0,0,0
4.6038,1783718947.7843,1,1,1.0000,0.0000,1.42044,0.12441,-2.67200,0.97659,1.57082,0.11681,-0.13194,-0.44696,0.05716,,,,,,,,,,,,,,,,,,,,,,,,,,0,0,0,0,0
4.6176,1783718947.7981,1,1,1.0000,0.0000,1.42044,0.12435,-2.67201,0.97666,1.57082,0.11681,-0.13194,-0.44696,0.05715,,,,,,,,,,,,,,,,,,,,,,,,,,0,0,0,0,0
4.6215,1783718947.8020,1,1,1.0000,0.0000,1.42044,0.12432,-2.67202,0.97671,1.57082,0.11681,-0.13194,-0.44696,0.05714,,,,,,,,,,,,,,,,,,,,,,,,,,0,0,0,0,0
4.6352,1783718947.8157,1,1,1.0000,0.0000,1.42044,0.12426,-2.67203,0.97678,1.57082,0.11681,-0.13194,-0.44697,0.05712,,,,,,,,,,,,,,,,,,,,,,,,,,0,0,0,0,0
4.6394,1783718947.8200,1,1,1.0000,0.0000,1.42043,0.12421,-2.67205,0.97686,1.57082,0.11681,-0.13194,-0.44696,0.05710,,,,,,,,,,,,,,,,,,,,,,,,,,0,0,0,0,0
4.6397,1783718947.8202,1,1,1.0000,0.0000,1.42043,0.12421,-2.67205,0.97686,1.57082,0.11681,-0.13194,-0.44696,0.05710,,,,,,,,,,,,,,,,,,,,,,,,,,0,0,0,0,0
4.6511,1783718947.8316,1,1,1.0000,0.0000,1.42043,0.12410,-2.67209,0.97700,1.57082,0.11681,-0.13194,-0.44696,0.05706,,,,,,,,,,,,,,,,,,,,,,,,,,0,0,0,0,0
4.6619,1783718947.8424,1,1,1.0000,0.0000,1.42043,0.12397,-2.67215,0.97718,1.57082,0.11681,-0.13194,-0.44695,0.05701,,,,,,,,,,,,,,,,,,,,,,,,,,0,0,0,0,0
4.6622,1783718947.8428,1,1,1.0000,0.0000,1.42043,0.12397,-2.67215,0.97718,1.57082,0.11681,-0.13194,-0.44695,0.05701,,,,,,,,,,,,,,,,,,,,,,,,,,0,0,0,0,0
4.6702,1783718947.8507,1,1,1.0000,0.0000,1.42043,0.12393,-2.67216,0.97723,1.57082,0.11681,-0.13194,-0.44695,0.05700,,,,,,,,,,,,,,,,,,,,,,,,,,0,0,0,0,0
4.6705,1783718947.8510,1,1,1.0000,0.0000,1.42043,0.12393,-2.67216,0.97723,1.57082,0.11681,-0.13194,-0.44695,0.05700,,,,,,,,,,,,,,,,,,,,,,,,,,0,0,0,0,0
4.6798,1783718947.8603,1,1,1.0000,0.0000,1.42043,0.12373,-2.67223,0.97749,1.57082,0.11681,-0.13194,-0.44694,0.05693,,,,,,,,,,,,,,,,,,,,,,,,,,0,0,0,0,0
4.6943,1783718947.8749,1,1,1.0000,0.0000,1.42043,0.12353,-2.67230,0.97774,1.57082,0.11681,-0.13194,-0.44693,0.05685,,,,,,,,,,,,,,,,,,,,,,,,,,0,0,0,0,0
4.7017,1783718947.8822,1,1,1.0000,0.0000,1.42043,0.12346,-2.67232,0.97783,1.57082,0.11681,-0.13194,-0.44693,0.05683,,,,,,,,,,,,,,,,,,,,,,,,,,0,0,0,0,0
4.7119,1783718947.8925,1,1,1.0000,0.0000,1.42043,0.12315,-2.67241,0.97822,1.57082,0.11681,-0.13194,-0.44692,0.05672,,,,,,,,,,,,,,,,,,,,,,,,,,0,0,0,0,0
4.7197,1783718947.9002,1,1,1.0000,0.0000,1.42043,0.12312,-2.67242,0.97826,1.57082,0.11681,-0.13194,-0.44692,0.05672,,,,,,,,,,,,,,,,,,,,,,,,,,0,0,0,0,0
4.7321,1783718947.9127,1,1,1.0000,0.0000,1.42043,0.12277,-2.67251,0.97870,1.57082,0.11680,-0.13194,-0.44692,0.05660,,,,,,,,,,,,,,,,,,,,,,,,,,0,0,0,0,0
4.7408,1783718947.9213,1,1,1.0000,0.0000,1.42043,0.12237,-2.67262,0.97920,1.57082,0.11680,-0.13194,-0.44692,0.05646,,,,,,,,,,,,,,,,,,,,,,,,,,0,0,0,0,0
4.7495,1783718947.9300,1,1,1.0000,0.0000,1.42042,0.12190,-2.67276,0.97979,1.57082,0.11680,-0.13194,-0.44692,0.05631,,,,,,,,,,,,,,,,,,,,,,,,,,0,0,0,0,0
4.7705,1783718947.9510,1,1,1.0000,0.0000,1.42042,0.12153,-2.67286,0.98025,1.57082,0.11680,-0.13194,-0.44692,0.05618,,,,,,,,,,,,,,,,,,,,,,,,,,0,0,0,0,0
4.7759,1783718947.9564,1,1,1.0000,0.0000,1.42042,0.12114,-2.67297,0.98074,1.57082,0.11680,-0.13194,-0.44691,0.05605,,,,,,,,,,,,,,,,,,,,,,,,,,0,0,0,0,0
4.7763,1783718947.9568,1,1,1.0000,0.0000,1.42042,0.12114,-2.67297,0.98074,1.57082,0.11680,-0.13194,-0.44691,0.05605,,,,,,,,,,,,,,,,,,,,,,,,,,0,0,0,0,0
4.7800,1783718947.9605,1,1,1.0000,0.0000,1.42042,0.12091,-2.67303,0.98103,1.57082,0.11680,-0.13194,-0.44691,0.05597,,,,,,,,,,,,,,,,,,,,,,,,,,0,0,0,0,0
4.7913,1783718947.9718,1,1,1.0000,0.0000,1.42042,0.12088,-2.67304,0.98107,1.57082,0.11680,-0.13194,-0.44691,0.05596,,,,,,,,,,,,,,,,,,,,,,,,,,0,0,0,0,0
4.8018,1783718947.9823,1,1,1.0000,0.0000,1.42042,0.12052,-2.67314,0.98152,1.57082,0.11680,-0.13194,-0.44691,0.05584,,,,,,,,,,,,,,,,,,,,,,,,,,0,0,0,0,0
4.8087,1783718947.9892,1,1,1.0000,0.0000,1.42042,0.12033,-2.67319,0.98176,1.57082,0.11680,-0.13194,-0.44691,0.05578,,,,,,,,,,,,,,,,,,,,,,,,,,0,0,0,0,0
4.8090,1783718947.9896,1,1,1.0000,0.0000,1.42042,0.12033,-2.67319,0.98176,1.57082,0.11680,-0.13194,-0.44691,0.05578,,,,,,,,,,,,,,,,,,,,,,,,,,0,0,0,0,0
4.8206,1783718948.0011,1,1,1.0000,0.0000,1.42042,0.12010,-2.67325,0.98205,1.57082,0.11680,-0.13194,-0.44691,0.05571,,,,,,,,,,,,,,,,,,,,,,,,,,0,0,0,0,0
4.8299,1783718948.0104,1,1,1.0000,0.0000,1.42041,0.11977,-2.67334,0.98248,1.57082,0.11680,-0.13194,-0.44691,0.05560,,,,,,,,,,,,,,,,,,,,,,,,,,0,0,0,0,0
4.8392,1783718948.0197,1,1,1.0000,0.0000,1.42041,0.11935,-2.67346,0.98302,1.57082,0.11680,-0.13194,-0.44691,0.05546,,,,,,,,,,,,,,,,,,,,,,,,,,0,0,0,0,0
4.8397,1783718948.0203,1,1,1.0000,0.0000,1.42041,0.11935,-2.67346,0.98302,1.57082,0.11680,-0.13194,-0.44691,0.05546,,,,,,,,,,,,,,,,,,,,,,,,,,0,0,0,0,0
4.8518,1783718948.0323,1,1,1.0000,0.0000,1.42041,0.11920,-2.67350,0.98321,1.57082,0.11680,-0.13194,-0.44692,0.05541,,,,,,,,,,,,,,,,,,,,,,,,,,0,0,0,0,0
4.8520,1783718948.0326,1,1,1.0000,0.0000,1.42041,0.11920,-2.67350,0.98321,1.57082,0.11680,-0.13194,-0.44692,0.05541,,,,,,,,,,,,,,,,,,,,,,,,,,0,0,0,0,0
4.8611,1783718948.0416,1,1,1.0000,0.0000,1.42041,0.11899,-2.67355,0.98349,1.57082,0.11680,-0.13194,-0.44692,0.05535,,,,,,,,,,,,,,,,,,,,,,,,,,0,0,0,0,0
4.8745,1783718948.0550,1,1,1.0000,0.0000,1.42041,0.11872,-2.67362,0.98383,1.57082,0.11680,-0.13193,-0.44693,0.05526,,,,,,,,,,,,,,,,,,,,,,,,,,0,0,0,0,0
4.8819,1783718948.0624,1,1,1.0000,0.0000,1.42041,0.11868,-2.67363,0.98389,1.57082,0.11680,-0.13193,-0.44693,0.05525,,,,,,,,,,,,,,,,,,,,,,,,,,0,0,0,0,0
4.8822,1783718948.0627,1,1,1.0000,0.0000,1.42041,0.11868,-2.67363,0.98389,1.57082,0.11680,-0.13193,-0.44693,0.05525,,,,,,,,,,,,,,,,,,,,,,,,,,0,0,0,0,0
4.9038,1783718948.0843,1,1,1.0000,0.0000,1.42041,0.11846,-2.67368,0.98419,1.57082,0.11680,-0.13193,-0.44694,0.05518,,,,,,,,,,,,,,,,,,,,,,,,,,0,0,0,0,0
4.9054,1783718948.0860,1,1,1.0000,0.0000,1.42041,0.11846,-2.67368,0.98419,1.57082,0.11680,-0.13193,-0.44694,0.05518,,,,,,,,,,,,,,,,,,,,,,,,,,0,0,0,0,0
4.9059,1783718948.0864,1,1,1.0000,0.0000,1.42041,0.11846,-2.67368,0.98419,1.57082,0.11680,-0.13193,-0.44694,0.05518,,,,,,,,,,,,,,,,,,,,,,,,,,0,0,0,0,0
4.9167,1783718948.0972,1,1,1.0000,0.0000,1.42041,0.11828,-2.67373,0.98442,1.57082,0.11680,-0.13193,-0.44694,0.05513,,,,,,,,,,,,,,,,,,,,,,,,,,0,0,0,0,0
4.9170,1783718948.0976,1,1,1.0000,0.0000,1.42041,0.11828,-2.67373,0.98442,1.57082,0.11680,-0.13193,-0.44694,0.05513,,,,,,,,,,,,,,,,,,,,,,,,,,0,0,0,0,0
4.9186,1783718948.0991,1,1,1.0000,0.0000,1.42041,0.11828,-2.67373,0.98442,1.57082,0.11680,-0.13193,-0.44694,0.05513,,,,,,,,,,,,,,,,,,,,,,,,,,0,0,0,0,0
4.9190,1783718948.0995,1,1,1.0000,0.0000,1.42041,0.11828,-2.67373,0.98442,1.57082,0.11680,-0.13193,-0.44694,0.05513,,,,,,,,,,,,,,,,,,,,,,,,,,0,0,0,0,0
4.9313,1783718948.1118,1,1,1.0000,0.0000,1.42041,0.11803,-2.67381,0.98477,1.57082,0.11680,-0.13193,-0.44694,0.05504,,,,,,,,,,,,,,,,,,,,,,,,,,0,0,0,0,0
4.9424,1783718948.1230,1,1,1.0000,0.0000,1.42041,0.11799,-2.67382,0.98482,1.57082,0.11680,-0.13193,-0.44694,0.05503,,,,,,,,,,,,,,,,,,,,,,,,,,0,0,0,0,0
4.9540,1783718948.1346,1,1,1.0000,0.0000,1.42041,0.11780,-2.67388,0.98506,1.57082,0.11680,-0.13193,-0.44694,0.05497,,,,,,,,,,,,,,,,,,,,,,,,,,0,0,0,0,0
4.9544,1783718948.1349,1,1,1.0000,0.0000,1.42041,0.11780,-2.67388,0.98506,1.57082,0.11680,-0.13193,-0.44694,0.05497,,,,,,,,,,,,,,,,,,,,,,,,,,0,0,0,0,0
4.9615,1783718948.1420,1,1,1.0000,0.0000,1.42041,0.11761,-2.67393,0.98530,1.57082,0.11680,-0.13193,-0.44693,0.05491,,,,,,,,,,,,,,,,,,,,,,,,,,0,0,0,0,0
4.9619,1783718948.1424,1,1,1.0000,0.0000,1.42041,0.11761,-2.67393,0.98530,1.57082,0.11680,-0.13193,-0.44693,0.05491,,,,,,,,,,,,,,,,,,,,,,,,,,0,0,0,0,0
4.9692,1783718948.1497,1,1,1.0000,0.0000,1.42041,0.11760,-2.67394,0.98532,1.57082,0.11680,-0.13193,-0.44693,0.05490,,,,,,,,,,,,,,,,,,,,,,,,,,0,0,0,0,0
4.9695,1783718948.1501,1,1,1.0000,0.0000,1.42041,0.11760,-2.67394,0.98532,1.57082,0.11680,-0.13193,-0.44693,0.05490,,,,,,,,,,,,,,,,,,,,,,,,,,0,0,0,0,0
4.9804,1783718948.1609,1,1,1.0000,0.0000,1.42040,0.11738,-2.67400,0.98560,1.57082,0.11680,-0.13193,-0.44693,0.05483,,,,,,,,,,,,,,,,,,,,,,,,,,0,0,0,0,0
4.9810,1783718948.1616,1,1,1.0000,0.0000,1.42040,0.11738,-2.67400,0.98560,1.57082,0.11680,-0.13193,-0.44693,0.05483,,,,,,,,,,,,,,,,,,,,,,,,,,0,0,0,0,0
4.9971,1783718948.1776,1,1,1.0000,0.0000,1.42040,0.11716,-2.67406,0.98587,1.57082,0.11680,-0.13193,-0.44693,0.05475,,,,,,,,,,,,,,,,,,,,,,,,,,0,0,0,0,0
5.0064,1783718948.1869,1,1,1.0000,0.0000,1.42040,0.11690,-2.67413,0.98619,1.57082,0.11680,-0.13193,-0.44693,0.05467,,,,,,,,,,,,,,,,,,,,,,,,,,0,0,0,0,0
5.0139,1783718948.1945,1,1,1.0000,0.0000,1.42040,0.11653,-2.67423,0.98667,1.57082,0.11680,-0.13193,-0.44693,0.05454,,,,,,,,,,,,,,,,,,,,,,,,,,0,0,0,0,0
5.0246,1783718948.2051,1,1,1.0000,0.0000,1.42040,0.11628,-2.67430,0.98698,1.57082,0.11680,-0.13193,-0.44693,0.05446,,,,,,,,,,,,,,,,,,,,,,,,,,0,0,0,0,0
5.0302,1783718948.2108,1,1,1.0000,0.0000,1.42040,0.11620,-2.67432,0.98708,1.57082,0.11680,-0.13193,-0.44693,0.05444,,,,,,,,,,,,,,,,,,,,,,,,,,0,0,0,0,0
5.0306,1783718948.2111,1,1,1.0000,0.0000,1.42040,0.11620,-2.67432,0.98708,1.57082,0.11680,-0.13193,-0.44693,0.05444,,,,,,,,,,,,,,,,,,,,,,,,,,0,0,0,0,0
5.0397,1783718948.2203,1,1,1.0000,0.0000,1.42040,0.11571,-2.67445,0.98769,1.57082,0.11680,-0.13193,-0.44692,0.05427,,,,,,,,,,,,,,,,,,,,,,,,,,0,0,0,0,0
5.0519,1783718948.2325,1,1,1.0000,0.0000,1.42039,0.11523,-2.67458,0.98829,1.57082,0.11680,-0.13193,-0.44692,0.05411,,,,,,,,,,,,,,,,,,,,,,,,,,0,0,0,0,0
5.0620,1783718948.2426,1,1,1.0000,0.0000,1.42039,0.11511,-2.67462,0.98844,1.57082,0.11680,-0.13193,-0.44692,0.05408,,,,,,,,,,,,,,,,,,,,,,,,,,0,0,0,0,0
5.0625,1783718948.2431,1,1,1.0000,0.0000,1.42039,0.11511,-2.67462,0.98844,1.57082,0.11680,-0.13193,-0.44692,0.05408,,,,,,,,,,,,,,,,,,,,,,,,,,0,0,0,0,0
5.0711,1783718948.2516,1,1,1.0000,0.0000,1.42039,0.11480,-2.67470,0.98883,1.57082,0.11680,-0.13193,-0.44692,0.05397,,,,,,,,,,,,,,,,,,,,,,,,,,0,0,0,0,0
5.0842,1783718948.2647,1,1,1.0000,0.0000,1.42039,0.11448,-2.67479,0.98924,1.57082,0.11680,-0.13193,-0.44692,0.05387,,,,,,,,,,,,,,,,,,,,,,,,,,0,0,0,0,0
5.0936,1783718948.2742,1,1,1.0000,0.0000,1.42039,0.11416,-2.67487,0.98964,1.57082,0.11680,-0.13193,-0.44692,0.05376,,,,,,,,,,,,,,,,,,,,,,,,,,0,0,0,0,0
5.0941,1783718948.2746,1,1,1.0000,0.0000,1.42039,0.11416,-2.67487,0.98964,1.57082,0.11680,-0.13193,-0.44692,0.05376,,,,,,,,,,,,,,,,,,,,,,,,,,0,0,0,0,0
5.0999,1783718948.2804,1,1,1.0000,0.0000,1.42039,0.11373,-2.67499,0.99019,1.57082,0.11680,-0.13192,-0.44692,0.05362,,,,,,,,,,,,,,,,,,,,,,,,,,0,0,0,0,0
5.1003,1783718948.2808,1,1,1.0000,0.0000,1.42039,0.11373,-2.67499,0.99019,1.57082,0.11680,-0.13192,-0.44692,0.05362,,,,,,,,,,,,,,,,,,,,,,,,,,0,0,0,0,0
5.1120,1783718948.2925,1,1,1.0000,0.0000,1.42039,0.11346,-2.67506,0.99053,1.57082,0.11680,-0.13192,-0.44692,0.05354,,,,,,,,,,,,,,,,,,,,,,,,,,0,0,0,0,0
5.1205,1783718948.3010,1,1,1.0000,0.0000,1.42039,0.11331,-2.67510,0.99072,1.57082,0.11680,-0.13192,-0.44693,0.05349,,,,,,,,,,,,,,,,,,,,,,,,,,0,0,0,0,0
5.1460,1783718948.3266,1,1,1.0000,0.0000,1.42038,0.11258,-2.67529,0.99166,1.57082,0.11680,-0.13192,-0.44693,0.05326,,,,,,,,,,,,,,,,,,,,,,,,,,0,0,0,0,0
5.1945,1783718948.3750,1,1,1.0000,0.0000,1.42038,0.11215,-2.67537,0.99224,1.57082,0.11680,-0.13191,-0.44697,0.05314,,,,,,,,,,,,,,,,,,,,,,,,,,0,0,0,0,0
5.1948,1783718948.3753,1,1,1.0000,0.0000,1.42038,0.11215,-2.67537,0.99224,1.57082,0.11680,-0.13191,-0.44697,0.05314,,,,,,,,,,,,,,,,,,,,,,,,,,0,0,0,0,0
5.1952,1783718948.3757,1,1,1.0000,0.0000,1.42038,0.11215,-2.67537,0.99224,1.57082,0.11680,-0.13191,-0.44697,0.05314,,,,,,,,,,,,,,,,,,,,,,,,,,0,0,0,0,0
5.1954,1783718948.3760,1,1,1.0000,0.0000,1.42038,0.11215,-2.67537,0.99224,1.57082,0.11680,-0.13191,-0.44697,0.05314,,,,,,,,,,,,,,,,,,,,,,,,,,0,0,0,0,0
5.1960,1783718948.3765,1,1,1.0000,0.0000,1.42038,0.11209,-2.67538,0.99233,1.57082,0.11680,-0.13191,-0.44697,0.05312,,,,,,,,,,,,,,,,,,,,,,,,,,0,0,0,0,0
5.1963,1783718948.3768,1,1,1.0000,0.0000,1.42038,0.11209,-2.67538,0.99233,1.57082,0.11680,-0.13191,-0.44697,0.05312,,,,,,,,,,,,,,,,,,,,,,,,,,0,0,0,0,0
5.2013,1783718948.3818,1,1,1.0000,0.0000,1.42038,0.11209,-2.67538,0.99233,1.57082,0.11680,-0.13191,-0.44697,0.05312,,,,,,,,,,,,,,,,,,,,,,,,,,0,0,0,0,0
5.2114,1783718948.3919,1,1,1.0000,0.0000,1.42038,0.11206,-2.67539,0.99237,1.57082,0.11680,-0.13191,-0.44697,0.05311,,,,,,,,,,,,,,,,,,,,,,,,,,0,0,0,0,0
5.2119,1783718948.3925,1,1,1.0000,0.0000,1.42038,0.11203,-2.67541,0.99241,1.57082,0.11680,-0.13191,-0.44697,0.05310,,,,,,,,,,,,,,,,,,,,,,,,,,0,0,0,0,0
5.2193,1783718948.3999,1,1,1.0000,0.0000,1.42038,0.11198,-2.67542,0.99247,1.57082,0.11680,-0.13191,-0.44696,0.05308,,,,,,,,,,,,,,,,,,,,,,,,,,0,0,0,0,0
5.2532,1783718948.4338,1,1,1.0000,0.0000,1.42038,0.11155,-2.67557,0.99302,1.57082,0.11679,-0.13192,-0.44694,0.05293,,,,,,,,,,,,,,,,,,,,,,,,,,0,0,0,0,0
5.2573,1783718948.4378,1,1,1.0000,0.0000,1.42038,0.11155,-2.67557,0.99302,1.57082,0.11679,-0.13192,-0.44694,0.05293,,,,,,,,,,,,,,,,,,,,,,,,,,0,0,0,0,0
5.2577,1783718948.4382,1,1,1.0000,0.0000,1.42038,0.11155,-2.67557,0.99302,1.57082,0.11679,-0.13192,-0.44694,0.05293,,,,,,,,,,,,,,,,,,,,,,,,,,0,0,0,0,0
5.2582,1783718948.4387,1,1,1.0000,0.0000,1.42038,0.11155,-2.67557,0.99302,1.57082,0.11679,-0.13192,-0.44694,0.05293,,,,,,,,,,,,,,,,,,,,,,,,,,0,0,0,0,0
5.2640,1783718948.4445,1,1,1.0000,0.0000,1.42038,0.11148,-2.67559,0.99311,1.57082,0.11679,-0.13192,-0.44694,0.05290,,,,,,,,,,,,,,,,,,,,,,,,,,0,0,0,0,0
5.2644,1783718948.4449,1,1,1.0000,0.0000,1.42038,0.11148,-2.67559,0.99311,1.57082,0.11679,-0.13192,-0.44694,0.05290,,,,,,,,,,,,,,,,,,,,,,,,,,0,0,0,0,0
5.2697,1783718948.4503,1,1,1.0000,0.0000,1.42038,0.11139,-2.67562,0.99322,1.57082,0.11679,-0.13192,-0.44694,0.05287,,,,,,,,,,,,,,,,,,,,,,,,,,0,0,0,0,0
5.2702,1783718948.4507,1,1,1.0000,0.0000,1.42038,0.11139,-2.67562,0.99322,1.57082,0.11679,-0.13192,-0.44694,0.05287,,,,,,,,,,,,,,,,,,,,,,,,,,0,0,0,0,0
5.2800,1783718948.4605,1,1,1.0000,0.0000,1.42038,0.11100,-2.67573,0.99371,1.57082,0.11679,-0.13192,-0.44693,0.05274,,,,,,,,,,,,,,,,,,,,,,,,,,0,0,0,0,0
5.2805,1783718948.4611,1,1,1.0000,0.0000,1.42038,0.11100,-2.67573,0.99371,1.57082,0.11679,-0.13192,-0.44693,0.05274,,,,,,,,,,,,,,,,,,,,,,,,,,0,0,0,0,0
5.2908,1783718948.4713,1,1,1.0000,0.0000,1.42037,0.11083,-2.67578,0.99392,1.57082,0.11679,-0.13192,-0.44693,0.05268,,,,,,,,,,,,,,,,,,,,,,,,,,0,0,0,0,0
5.2911,1783718948.4716,1,1,1.0000,0.0000,1.42037,0.11083,-2.67578,0.99392,1.57082,0.11679,-0.13192,-0.44693,0.05268,,,,,,,,,,,,,,,,,,,,,,,,,,0,0,0,0,0
5.3011,1783718948.4816,1,1,1.0000,0.0000,1.42037,0.11063,-2.67583,0.99416,1.57082,0.11679,-0.13192,-0.44693,0.05262,,,,,,,,,,,,,,,,,,,,,,,,,,0,0,0,0,0
5.3132,1783718948.4937,1,1,1.0000,0.0000,1.42037,0.11014,-2.67596,0.99478,1.57083,0.11679,-0.13192,-0.44692,0.05245,,,,,,,,,,,,,,,,,,,,,,,,,,0,0,0,0,0
5.3218,1783718948.5024,1,1,1.0000,0.0000,1.42037,0.10970,-2.67608,0.99532,1.57083,0.11679,-0.13192,-0.44692,0.05231,,,,,,,,,,,,,,,,,,,,,,,,,,0,0,0,0,0
5.3360,1783718948.5165,1,1,1.0000,0.0000,1.42037,0.10949,-2.67614,0.99558,1.57083,0.11679,-0.13192,-0.44692,0.05224,,,,,,,,,,,,,,,,,,,,,,,,,,0,0,0,0,0
5.3465,1783718948.5270,1,1,1.0000,0.0000,1.42037,0.10916,-2.67623,0.99599,1.57083,0.11679,-0.13192,-0.44692,0.05213,,,,,,,,,,,,,,,,,,,,,,,,,,0,0,0,0,0
5.3540,1783718948.5346,1,1,1.0000,0.0000,1.42037,0.10873,-2.67634,0.99653,1.57083,0.11679,-0.13191,-0.44691,0.05199,,,,,,,,,,,,,,,,,,,,,,,,,,0,0,0,0,0
5.3667,1783718948.5472,1,1,1.0000,0.0000,1.42036,0.10862,-2.67637,0.99667,1.57083,0.11679,-0.13191,-0.44691,0.05195,,,,,,,,,,,,,,,,,,,,,,,,,,0,0,0,0,0
5.3745,1783718948.5551,1,1,1.0000,0.0000,1.42036,0.10833,-2.67645,0.99703,1.57083,0.11679,-0.13191,-0.44691,0.05186,,,,,,,,,,,,,,,,,,,,,,,,,,0,0,0,0,0
5.3861,1783718948.5666,1,1,1.0000,0.0000,1.42036,0.10811,-2.67651,0.99730,1.57083,0.11679,-0.13191,-0.44691,0.05179,,,,,,,,,,,,,,,,,,,,,,,,,,0,0,0,0,0
5.3925,1783718948.5730,1,1,1.0000,0.0000,1.42036,0.10791,-2.67656,0.99757,1.57083,0.11679,-0.13191,-0.44691,0.05172,,,,,,,,,,,,,,,,,,,,,,,,,,0,0,0,0,0
5.4033,1783718948.5839,1,1,1.0000,0.0000,1.42036,0.10755,-2.67665,0.99802,1.57083,0.11679,-0.13191,-0.44691,0.05161,,,,,,,,,,,,,,,,,,,,,,,,,,0,0,0,0,0
5.4124,1783718948.5929,1,1,1.0000,0.0000,1.42036,0.10711,-2.67676,0.99858,1.57083,0.11679,-0.13191,-0.44692,0.05147,,,,,,,,,,,,,,,,,,,,,,,,,,0,0,0,0,0
5.4233,1783718948.6038,1,1,1.0000,0.0000,1.42036,0.10704,-2.67678,0.99867,1.57083,0.11679,-0.13191,-0.44692,0.05144,,,,,,,,,,,,,,,,,,,,,,,,,,0,0,0,0,0
5.4366,1783718948.6171,1,1,1.0000,0.0000,1.42036,0.10660,-2.67689,0.99924,1.57083,0.11679,-0.13191,-0.44693,0.05131,,,,,,,,,,,,,,,,,,,,,,,,,,0,0,0,0,0
5.4392,1783718948.6198,1,1,1.0000,0.0000,1.42036,0.10660,-2.67689,0.99924,1.57083,0.11679,-0.13191,-0.44693,0.05131,,,,,,,,,,,,,,,,,,,,,,,,,,0,0,0,0,0
5.4398,1783718948.6203,1,1,1.0000,0.0000,1.42035,0.10645,-2.67692,0.99942,1.57083,0.11679,-0.13191,-0.44693,0.05126,,,,,,,,,,,,,,,,,,,,,,,,,,0,0,0,0,0
5.4493,1783718948.6298,1,1,1.0000,0.0000,1.42035,0.10616,-2.67699,0.99980,1.57083,0.11679,-0.13190,-0.44695,0.05118,,,,,,,,,,,,,,,,,,,,,,,,,,0,0,0,0,0
5.4638,1783718948.6444,1,1,1.0000,0.0000,1.42035,0.10569,-2.67708,1.00041,1.57083,0.11679,-0.13190,-0.44697,0.05104,,,,,,,,,,,,,,,,,,,,,,,,,,0,0,0,0,0
5.4718,1783718948.6523,1,1,1.0000,0.0000,1.42035,0.10569,-2.67708,1.00041,1.57083,0.11679,-0.13190,-0.44697,0.05104,,,,,,,,,,,,,,,,,,,,,,,,,,0,0,0,0,0
5.4812,1783718948.6618,1,1,1.0000,0.0000,1.42035,0.10566,-2.67709,1.00045,1.57083,0.11679,-0.13190,-0.44697,0.05103,,,,,,,,,,,,,,,,,,,,,,,,,,0,0,0,0,0
5.4920,1783718948.6725,1,1,1.0000,0.0000,1.42035,0.10559,-2.67712,1.00056,1.57083,0.11679,-0.13190,-0.44697,0.05101,,,,,,,,,,,,,,,,,,,,,,,,,,0,0,0,0,0
5.4923,1783718948.6728,1,1,1.0000,0.0000,1.42035,0.10559,-2.67712,1.00056,1.57083,0.11679,-0.13190,-0.44697,0.05101,,,,,,,,,,,,,,,,,,,,,,,,,,0,0,0,0,0
5.4999,1783718948.6804,1,1,1.0000,0.0000,1.42035,0.10552,-2.67714,1.00066,1.57083,0.11679,-0.13190,-0.44696,0.05098,,,,,,,,,,,,,,,,,,,,,,,,,,0,0,0,0,0
5.5160,1783718948.6965,1,1,1.0000,0.0000,1.42035,0.10545,-2.67717,1.00074,1.57083,0.11679,-0.13190,-0.44696,0.05096,,,,,,,,,,,,,,,,,,,,,,,,,,0,0,0,0,0
5.5163,1783718948.6968,1,1,1.0000,0.0000,1.42035,0.10545,-2.67717,1.00074,1.57083,0.11679,-0.13190,-0.44696,0.05096,,,,,,,,,,,,,,,,,,,,,,,,,,0,0,0,0,0
5.5214,1783718948.7019,1,1,1.0000,0.0000,1.42035,0.10540,-2.67718,1.00081,1.57083,0.11679,-0.13190,-0.44696,0.05094,,,,,,,,,,,,,,,,,,,,,,,,,,0,0,0,0,0
5.5217,1783718948.7022,1,1,1.0000,0.0000,1.42035,0.10540,-2.67718,1.00081,1.57083,0.11679,-0.13190,-0.44696,0.05094,,,,,,,,,,,,,,,,,,,,,,,,,,0,0,0,0,0
5.5311,1783718948.7116,1,1,1.0000,0.0000,1.42035,0.10533,-2.67720,1.00089,1.57083,0.11679,-0.13190,-0.44695,0.05092,,,,,,,,,,,,,,,,,,,,,,,,,,0,0,0,0,0
5.5398,1783718948.7204,1,1,1.0000,0.0000,1.42035,0.10519,-2.67725,1.00106,1.57083,0.11679,-0.13190,-0.44695,0.05087,,,,,,,,,,,,,,,,,,,,,,,,,,0,0,0,0,0
5.5402,1783718948.7207,1,1,1.0000,0.0000,1.42035,0.10519,-2.67725,1.00106,1.57083,0.11679,-0.13190,-0.44695,0.05087,,,,,,,,,,,,,,,,,,,,,,,,,,0,0,0,0,0
5.5559,1783718948.7364,1,1,1.0000,0.0000,1.42035,0.10469,-2.67739,1.00169,1.57083,0.11679,-0.13190,-0.44694,0.05070,,,,,,,,,,,,,,,,,,,,,,,,,,0,0,0,0,0
5.5599,1783718948.7405,1,1,1.0000,0.0000,1.42035,0.10469,-2.67739,1.00169,1.57083,0.11679,-0.13190,-0.44694,0.05070,,,,,,,,,,,,,,,,,,,,,,,,,,0,0,0,0,0
5.5711,1783718948.7517,1,1,1.0000,0.0000,1.42035,0.10460,-2.67742,1.00179,1.57083,0.11679,-0.13190,-0.44694,0.05067,,,,,,,,,,,,,,,,,,,,,,,,,,0,0,0,0,0
