Martins-Lucaas/twinforge/sensors/Data/20260710_190810__samples.csv
t_rel_s,t_unix,cycle,phase,setpoint_n,force_net_n,q1,q2,q3,q4,q5,q6,tcp_x,tcp_y,tcp_z,taxel_0,taxel_1,taxel_2,taxel_3,taxel_4,taxel_5,taxel_6,taxel_7,taxel_8,taxel_9,taxel_10,taxel_11,taxel_12,taxel_13,taxel_14,taxel_15,taxel_16,taxel_17,taxel_18,taxel_19,taxel_20,taxel_21,taxel_22,taxel_23,taxel_24,n_RA,n_SA,cn_mm,cn_ra,cn_sa
0.0085,1783721291.0078,1,0,1.0000,0.0000,1.42052,0.14185,-2.66687,0.95417,1.57080,0.11681,-0.13197,-0.44703,0.06308,,,,,,,,,,,,,,,,,,,,,,,,,,0,0,0,0,0
0.0212,1783721291.0205,1,0,1.0000,0.0000,1.42052,0.14185,-2.66687,0.95417,1.57080,0.11681,-0.13197,-0.44703,0.06308,,,,,,,,,,,,,,,,,,,,,,,,,,0,0,0,0,0
0.0277,1783721291.0270,1,0,1.0000,0.0000,1.42052,0.14185,-2.66687,0.95417,1.57080,0.11681,-0.13197,-0.44703,0.06308,,,,,,,,,,,,,,,,,,,,,,,,,,0,0,0,0,0
0.0366,1783721291.0359,1,0,1.0000,0.0000,1.42052,0.14185,-2.66687,0.95417,1.57080,0.11681,-0.13197,-0.44703,0.06308,,,,,,,,,,,,,,,,,,,,,,,,,,0,0,0,0,0
0.0458,1783721291.0451,1,0,1.0000,0.0000,1.42052,0.14185,-2.66687,0.95417,1.57080,0.11681,-0.13197,-0.44703,0.06308,,,,,,,,,,,,,,,,,,,,,,,,,,0,0,0,0,0
0.0591,1783721291.0584,1,0,1.0000,0.0000,1.42052,0.14185,-2.66687,0.95417,1.57080,0.11681,-0.13197,-0.44703,0.06308,,,,,,,,,,,,,,,,,,,,,,,,,,0,0,0,0,0
0.0683,1783721291.0676,1,0,1.0000,0.0000,1.42052,0.14185,-2.66687,0.95417,1.57080,0.11681,-0.13197,-0.44703,0.06308,,,,,,,,,,,,,,,,,,,,,,,,,,0,0,0,0,0
0.0687,1783721291.0681,1,0,1.0000,0.0000,1.42052,0.14185,-2.66687,0.95417,1.57080,0.11681,-0.13197,-0.44703,0.06308,,,,,,,,,,,,,,,,,,,,,,,,,,0,0,0,0,0
0.0790,1783721291.0784,1,0,1.0000,0.0000,1.42052,0.14185,-2.66687,0.95417,1.57080,0.11681,-0.13197,-0.44703,0.06308,,,,,,,,,,,,,,,,,,,,,,,,,,0,0,0,0,0
0.0869,1783721291.0862,1,0,1.0000,0.0000,1.42052,0.14185,-2.66687,0.95417,1.57080,0.11681,-0.13197,-0.44703,0.06308,,,,,,,,,,,,,,,,,,,,,,,,,,0,0,0,0,0
0.0999,1783721291.0992,1,0,1.0000,0.0000,1.42052,0.14185,-2.66687,0.95417,1.57080,0.11681,-0.13197,-0.44703,0.06308,,,,,,,,,,,,,,,,,,,,,,,,,,0,0,0,0,0
0.1058,1783721291.1052,1,0,1.0000,0.0000,1.42052,0.14185,-2.66687,0.95417,1.57080,0.11681,-0.13197,-0.44703,0.06308,,,,,,,,,,,,,,,,,,,,,,,,,,0,0,0,0,0
0.1063,1783721291.1056,1,0,1.0000,0.0000,1.42052,0.14185,-2.66687,0.95417,1.57080,0.11681,-0.13197,-0.44703,0.06308,,,,,,,,,,,,,,,,,,,,,,,,,,0,0,0,0,0
0.1202,1783721291.1196,1,0,1.0000,0.0000,1.42052,0.14185,-2.66687,0.95417,1.57080,0.11681,-0.13197,-0.44703,0.06308,,,,,,,,,,,,,,,,,,,,,,,,,,0,0,0,0,0
0.1271,1783721291.1264,1,0,1.0000,0.0000,1.42052,0.14185,-2.66687,0.95417,1.57080,0.11681,-0.13197,-0.44703,0.06308,,,,,,,,,,,,,,,,,,,,,,,,,,0,0,0,0,0
0.1377,1783721291.1370,1,0,1.0000,0.0000,1.42052,0.14185,-2.66687,0.95417,1.57080,0.11681,-0.13197,-0.44703,0.06308,,,,,,,,,,,,,,,,,,,,,,,,,,0,0,0,0,0
0.1448,1783721291.1441,1,0,1.0000,0.0000,1.42052,0.14185,-2.66687,0.95417,1.57080,0.11681,-0.13197,-0.44703,0.06308,,,,,,,,,,,,,,,,,,,,,,,,,,0,0,0,0,0
0.1619,1783721291.1613,1,0,1.0000,0.0000,1.42052,0.14185,-2.66687,0.95417,1.57080,0.11681,-0.13197,-0.44703,0.06308,,,,,,,,,,,,,,,,,,,,,,,,,,0,0,0,0,0
0.1651,1783721291.1644,1,0,1.0000,0.0000,1.42052,0.14185,-2.66687,0.95417,1.57080,0.11681,-0.13197,-0.44703,0.06308,,,,,,,,,,,,,,,,,,,,,,,,,,0,0,0,0,0
0.1655,1783721291.1648,1,0,1.0000,0.0000,1.42052,0.14185,-2.66687,0.95417,1.57080,0.11681,-0.13197,-0.44703,0.06308,,,,,,,,,,,,,,,,,,,,,,,,,,0,0,0,0,0
0.1803,1783721291.1796,1,0,1.0000,0.0000,1.42052,0.14185,-2.66687,0.95417,1.57080,0.11681,-0.13197,-0.44703,0.06308,,,,,,,,,,,,,,,,,,,,,,,,,,0,0,0,0,0
0.1890,1783721291.1884,1,0,1.0000,0.0000,1.42052,0.14185,-2.66687,0.95417,1.57080,0.11681,-0.13197,-0.44703,0.06308,,,,,,,,,,,,,,,,,,,,,,,,,,0,0,0,0,0
0.2000,1783721291.1993,1,0,1.0000,0.0000,1.42052,0.14185,-2.66687,0.95417,1.57080,0.11681,-0.13197,-0.44703,0.06308,,,,,,,,,,,,,,,,,,,,,,,,,,0,0,0,0,0
0.2097,1783721291.2090,1,0,1.0000,0.0000,1.42052,0.14185,-2.66687,0.95417,1.57080,0.11681,-0.13197,-0.44703,0.06308,,,,,,,,,,,,,,,,,,,,,,,,,,0,0,0,0,0
0.2271,1783721291.2265,1,0,1.0000,0.0000,1.42052,0.14185,-2.66687,0.95417,1.57080,0.11681,-0.13197,-0.44703,0.06308,,,,,,,,,,,,,,,,,,,,,,,,,,0,0,0,0,0
0.2318,1783721291.2312,1,0,1.0000,0.0000,1.42052,0.14185,-2.66687,0.95417,1.57080,0.11681,-0.13197,-0.44703,0.06308,,,,,,,,,,,,,,,,,,,,,,,,,,0,0,0,0,0
0.2321,1783721291.2314,1,0,1.0000,0.0000,1.42052,0.14185,-2.66687,0.95417,1.57080,0.11681,-0.13197,-0.44703,0.06308,,,,,,,,,,,,,,,,,,,,,,,,,,0,0,0,0,0
0.2389,1783721291.2383,1,0,1.0000,0.0000,1.42052,0.14185,-2.66687,0.95417,1.57080,0.11681,-0.13197,-0.44703,0.06308,,,,,,,,,,,,,,,,,,,,,,,,,,0,0,0,0,0
0.2454,1783721291.2447,1,0,1.0000,0.0000,1.42052,0.14185,-2.66687,0.95417,1.57080,0.11681,-0.13197,-0.44703,0.06308,,,,,,,,,,,,,,,,,,,,,,,,,,0,0,0,0,0
0.2570,1783721291.2564,1,0,1.0000,0.0000,1.42052,0.14185,-2.66687,0.95417,1.57080,0.11681,-0.13197,-0.44703,0.06308,,,,,,,,,,,,,,,,,,,,,,,,,,0,0,0,0,0
0.2574,1783721291.2567,1,0,1.0000,0.0000,1.42052,0.14185,-2.66687,0.95417,1.57080,0.11681,-0.13197,-0.44703,0.06308,,,,,,,,,,,,,,,,,,,,,,,,,,0,0,0,0,0
0.2672,1783721291.2666,1,0,1.0000,0.0000,1.42052,0.14185,-2.66687,0.95417,1.57080,0.11681,-0.13197,-0.44703,0.06308,,,,,,,,,,,,,,,,,,,,,,,,,,0,0,0,0,0
0.2783,1783721291.2776,1,0,1.0000,0.0000,1.42052,0.14185,-2.66687,0.95417,1.57080,0.11681,-0.13197,-0.44703,0.06308,,,,,,,,,,,,,,,,,,,,,,,,,,0,0,0,0,0
0.2911,1783721291.2904,1,0,1.0000,0.0000,1.42052,0.14185,-2.66687,0.95417,1.57080,0.11681,-0.13197,-0.44703,0.06308,,,,,,,,,,,,,,,,,,,,,,,,,,0,0,0,0,0
0.3011,1783721291.3004,1,0,1.0000,0.0000,1.42052,0.14185,-2.66687,0.95417,1.57080,0.11681,-0.13197,-0.44703,0.06308,,,,,,,,,,,,,,,,,,,,,,,,,,0,0,0,0,0
0.3073,1783721291.3066,1,0,1.0000,0.0000,1.42052,0.14185,-2.66687,0.95417,1.57080,0.11681,-0.13197,-0.44703,0.06308,,,,,,,,,,,,,,,,,,,,,,,,,,0,0,0,0,0
0.3076,1783721291.3070,1,0,1.0000,0.0000,1.42052,0.14185,-2.66687,0.95417,1.57080,0.11681,-0.13197,-0.44703,0.06308,,,,,,,,,,,,,,,,,,,,,,,,,,0,0,0,0,0
0.3193,1783721291.3187,1,0,1.0000,0.0000,1.42052,0.14185,-2.66687,0.95417,1.57080,0.11681,-0.13197,-0.44703,0.06308,,,,,,,,,,,,,,,,,,,,,,,,,,0,0,0,0,0
0.3265,1783721291.3258,1,0,1.0000,0.0000,1.42052,0.14185,-2.66687,0.95417,1.57080,0.11681,-0.13197,-0.44703,0.06308,,,,,,,,,,,,,,,,,,,,,,,,,,0,0,0,0,0
0.3401,1783721291.3394,1,0,1.0000,0.0000,1.42052,0.14185,-2.66687,0.95417,1.57080,0.11681,-0.13197,-0.44703,0.06308,,,,,,,,,,,,,,,,,,,,,,,,,,0,0,0,0,0
0.3471,1783721291.3465,1,0,1.0000,0.0000,1.42052,0.14185,-2.66687,0.95417,1.57080,0.11681,-0.13197,-0.44703,0.06308,,,,,,,,,,,,,,,,,,,,,,,,,,0,0,0,0,0
0.3558,1783721291.3552,1,0,1.0000,0.0000,1.42052,0.14185,-2.66687,0.95417,1.57080,0.11681,-0.13197,-0.44703,0.06308,,,,,,,,,,,,,,,,,,,,,,,,,,0,0,0,0,0
0.3561,1783721291.3555,1,0,1.0000,0.0000,1.42052,0.14185,-2.66687,0.95417,1.57080,0.11681,-0.13197,-0.44703,0.06308,,,,,,,,,,,,,,,,,,,,,,,,,,0,0,0,0,0
0.3659,1783721291.3653,1,0,1.0000,0.0000,1.42052,0.14185,-2.66687,0.95417,1.57080,0.11681,-0.13197,-0.44703,0.06308,,,,,,,,,,,,,,,,,,,,,,,,,,0,0,0,0,0
0.3831,1783721291.3824,1,0,1.0000,0.0000,1.42052,0.14185,-2.66687,0.95417,1.57080,0.11681,-0.13197,-0.44703,0.06308,,,,,,,,,,,,,,,,,,,,,,,,,,0,0,0,0,0
0.3960,1783721291.3953,1,0,1.0000,0.0000,1.42052,0.14185,-2.66687,0.95417,1.57080,0.11681,-0.13197,-0.44703,0.06308,,,,,,,,,,,,,,,,,,,,,,,,,,0,0,0,0,0
0.3963,1783721291.3956,1,0,1.0000,0.0000,1.42052,0.14185,-2.66687,0.95417,1.57080,0.11681,-0.13197,-0.44703,0.06308,,,,,,,,,,,,,,,,,,,,,,,,,,0,0,0,0,0
0.4050,1783721291.4043,1,0,1.0000,0.0000,1.42052,0.14185,-2.66687,0.95417,1.57080,0.11681,-0.13197,-0.44703,0.06308,,,,,,,,,,,,,,,,,,,,,,,,,,0,0,0,0,0
0.4161,1783721291.4155,1,0,1.0000,0.0000,1.42052,0.14185,-2.66687,0.95417,1.57080,0.11681,-0.13197,-0.44703,0.06308,,,,,,,,,,,,,,,,,,,,,,,,,,0,0,0,0,0
0.4272,1783721291.4265,1,0,1.0000,0.0000,1.42052,0.14185,-2.66687,0.95417,1.57080,0.11681,-0.13197,-0.44703,0.06308,,,,,,,,,,,,,,,,,,,,,,,,,,0,0,0,0,0
0.4360,1783721291.4354,1,0,1.0000,0.0000,1.42052,0.14185,-2.66687,0.95417,1.57080,0.11681,-0.13197,-0.44703,0.06308,,,,,,,,,,,,,,,,,,,,,,,,,,0,0,0,0,0
0.4491,1783721291.4485,1,0,1.0000,0.0000,1.42052,0.14185,-2.66687,0.95417,1.57080,0.11681,-0.13197,-0.44703,0.06308,,,,,,,,,,,,,,,,,,,,,,,,,,0,0,0,0,0
0.4591,1783721291.4585,1,0,1.0000,0.0000,1.42052,0.14185,-2.66687,0.95417,1.57080,0.11681,-0.13197,-0.44703,0.06308,,,,,,,,,,,,,,,,,,,,,,,,,,0,0,0,0,0
0.4679,1783721291.4672,1,0,1.0000,0.0000,1.42052,0.14185,-2.66687,0.95417,1.57080,0.11681,-0.13197,-0.44703,0.06308,,,,,,,,,,,,,,,,,,,,,,,,,,0,0,0,0,0
0.4681,1783721291.4675,1,0,1.0000,0.0000,1.42052,0.14185,-2.66687,0.95417,1.57080,0.11681,-0.13197,-0.44703,0.06308,,,,,,,,,,,,,,,,,,,,,,,,,,0,0,0,0,0
0.4754,1783721291.4747,1,0,1.0000,0.0000,1.42052,0.14185,-2.66687,0.95417,1.57080,0.11681,-0.13197,-0.44703,0.06308,,,,,,,,,,,,,,,,,,,,,,,,,,0,0,0,0,0
0.4757,1783721291.4751,1,0,1.0000,0.0000,1.42052,0.14185,-2.66687,0.95417,1.57080,0.11681,-0.13197,-0.44703,0.06308,,,,,,,,,,,,,,,,,,,,,,,,,,0,0,0,0,0
0.4852,1783721291.4846,1,0,1.0000,0.0000,1.42052,0.14185,-2.66687,0.95417,1.57080,0.11681,-0.13197,-0.44703,0.06308,,,,,,,,,,,,,,,,,,,,,,,,,,0,0,0,0,0
0.4953,1783721291.4946,1,0,1.0000,0.0000,1.42052,0.14185,-2.66687,0.95417,1.57080,0.11681,-0.13197,-0.44703,0.06308,,,,,,,,,,,,,,,,,,,,,,,,,,0,0,0,0,0
0.4956,1783721291.4950,1,0,1.0000,0.0000,1.42052,0.14185,-2.66687,0.95417,1.57080,0.11681,-0.13197,-0.44703,0.06308,,,,,,,,,,,,,,,,,,,,,,,,,,0,0,0,0,0
0.5070,1783721291.5063,1,0,1.0000,0.0000,1.42052,0.14185,-2.66687,0.95417,1.57080,0.11681,-0.13197,-0.44703,0.06308,,,,,,,,,,,,,,,,,,,,,,,,,,0,0,0,0,0
0.5221,1783721291.5215,1,0,1.0000,0.0000,1.42052,0.14185,-2.66687,0.95417,1.57080,0.11681,-0.13197,-0.44703,0.06308,,,,,,,,,,,,,,,,,,,,,,,,,,0,0,0,0,0
0.5285,1783721291.5278,1,0,1.0000,0.0000,1.42052,0.14185,-2.66687,0.95417,1.57080,0.11681,-0.13197,-0.44703,0.06308,,,,,,,,,,,,,,,,,,,,,,,,,,0,0,0,0,0
0.5288,1783721291.5282,1,0,1.0000,0.0000,1.42052,0.14185,-2.66687,0.95417,1.57080,0.11681,-0.13197,-0.44703,0.06308,,,,,,,,,,,,,,,,,,,,,,,,,,0,0,0,0,0
0.5369,1783721291.5363,1,0,1.0000,0.0000,1.42052,0.14185,-2.66687,0.95417,1.57080,0.11681,-0.13197,-0.44703,0.06308,,,,,,,,,,,,,,,,,,,,,,,,,,0,0,0,0,0
0.5470,1783721291.5464,1,0,1.0000,0.0000,1.42052,0.14185,-2.66687,0.95417,1.57080,0.11681,-0.13197,-0.44703,0.06308,,,,,,,,,,,,,,,,,,,,,,,,,,0,0,0,0,0
0.5474,1783721291.5468,1,0,1.0000,0.0000,1.42052,0.14185,-2.66687,0.95417,1.57080,0.11681,-0.13197,-0.44703,0.06308,,,,,,,,,,,,,,,,,,,,,,,,,,0,0,0,0,0
0.5607,1783721291.5601,1,0,1.0000,0.0000,1.42052,0.14185,-2.66687,0.95417,1.57080,0.11681,-0.13197,-0.44703,0.06308,,,,,,,,,,,,,,,,,,,,,,,,,,0,0,0,0,0
0.5705,1783721291.5698,1,0,1.0000,0.0000,1.42052,0.14185,-2.66687,0.95417,1.57080,0.11681,-0.13197,-0.44703,0.06308,,,,,,,,,,,,,,,,,,,,,,,,,,0,0,0,0,0
0.5756,1783721291.5750,1,0,1.0000,0.0000,1.42052,0.14185,-2.66687,0.95417,1.57080,0.11681,-0.13197,-0.44703,0.06308,,,,,,,,,,,,,,,,,,,,,,,,,,0,0,0,0,0
0.5895,1783721291.5888,1,0,1.0000,0.0000,1.42052,0.14185,-2.66687,0.95417,1.57080,0.11681,-0.13197,-0.44703,0.06308,,,,,,,,,,,,,,,,,,,,,,,,,,0,0,0,0,0
0.5996,1783721291.5989,1,0,1.0000,0.0000,1.42052,0.14185,-2.66687,0.95417,1.57080,0.11681,-0.13197,-0.44703,0.06308,,,,,,,,,,,,,,,,,,,,,,,,,,0,0,0,0,0
0.6001,1783721291.5995,1,0,1.0000,0.0000,1.42052,0.14185,-2.66687,0.95417,1.57080,0.11681,-0.13197,-0.44703,0.06308,,,,,,,,,,,,,,,,,,,,,,,,,,0,0,0,0,0
0.6094,1783721291.6088,1,0,1.0000,0.0000,1.42052,0.14185,-2.66687,0.95417,1.57080,0.11681,-0.13197,-0.44703,0.06308,,,,,,,,,,,,,,,,,,,,,,,,,,0,0,0,0,0
0.6099,1783721291.6092,1,0,1.0000,0.0000,1.42052,0.14185,-2.66687,0.95417,1.57080,0.11681,-0.13197,-0.44703,0.06308,,,,,,,,,,,,,,,,,,,,,,,,,,0,0,0,0,0
0.6203,1783721291.6197,1,0,1.0000,0.0000,1.42052,0.14185,-2.66687,0.95417,1.57080,0.11681,-0.13197,-0.44703,0.06308,,,,,,,,,,,,,,,,,,,,,,,,,,0,0,0,0,0
0.6209,1783721291.6202,1,0,1.0000,0.0000,1.42052,0.14185,-2.66687,0.95417,1.57080,0.11681,-0.13197,-0.44703,0.06308,,,,,,,,,,,,,,,,,,,,,,,,,,0,0,0,0,0
0.6316,1783721291.6310,1,0,1.0000,0.0000,1.42052,0.14185,-2.66687,0.95417,1.57080,0.11681,-0.13197,-0.44703,0.06308,,,,,,,,,,,,,,,,,,,,,,,,,,0,0,0,0,0
0.6321,1783721291.6314,1,0,1.0000,0.0000,1.42052,0.14185,-2.66687,0.95417,1.57080,0.11681,-0.13197,-0.44703,0.06308,,,,,,,,,,,,,,,,,,,,,,,,,,0,0,0,0,0
0.6358,1783721291.6352,1,0,1.0000,0.0000,1.42052,0.14185,-2.66687,0.95417,1.57080,0.11681,-0.13197,-0.44703,0.06308,,,,,,,,,,,,,,,,,,,,,,,,,,0,0,0,0,0
0.6364,1783721291.6357,1,0,1.0000,0.0000,1.42052,0.14185,-2.66687,0.95417,1.57080,0.11681,-0.13197,-0.44703,0.06308,,,,,,,,,,,,,,,,,,,,,,,,,,0,0,0,0,0
0.6460,1783721291.6453,1,0,1.0000,0.0000,1.42052,0.14185,-2.66687,0.95417,1.57080,0.11681,-0.13197,-0.44703,0.06308,,,,,,,,,,,,,,,,,,,,,,,,,,0,0,0,0,0
0.6566,1783721291.6560,1,0,1.0000,0.0000,1.42052,0.14185,-2.66687,0.95417,1.57080,0.11681,-0.13197,-0.44703,0.06308,,,,,,,,,,,,,,,,,,,,,,,,,,0,0,0,0,0
0.6665,1783721291.6658,1,0,1.0000,0.0000,1.42052,0.14185,-2.66687,0.95417,1.57080,0.11681,-0.13197,-0.44703,0.06308,,,,,,,,,,,,,,,,,,,,,,,,,,0,0,0,0,0
0.6791,1783721291.6785,1,0,1.0000,0.0000,1.42052,0.14185,-2.66687,0.95417,1.57080,0.11681,-0.13197,-0.44703,0.06308,,,,,,,,,,,,,,,,,,,,,,,,,,0,0,0,0,0
0.6924,1783721291.6918,1,0,1.0000,0.0000,1.42052,0.14185,-2.66687,0.95417,1.57080,0.11681,-0.13197,-0.44703,0.06308,,,,,,,,,,,,,,,,,,,,,,,,,,0,0,0,0,0
0.7004,1783721291.6998,1,0,1.0000,0.0000,1.42052,0.14185,-2.66687,0.95417,1.57080,0.11681,-0.13197,-0.44703,0.06308,,,,,,,,,,,,,,,,,,,,,,,,,,0,0,0,0,0
0.7181,1783721291.7174,1,0,1.0000,0.0000,1.42052,0.14185,-2.66687,0.95417,1.57080,0.11681,-0.13197,-0.44703,0.06308,,,,,,,,,,,,,,,,,,,,,,,,,,0,0,0,0,0
0.7220,1783721291.7213,1,0,1.0000,0.0000,1.42052,0.14185,-2.66687,0.95417,1.57080,0.11681,-0.13197,-0.44703,0.06308,,,,,,,,,,,,,,,,,,,,,,,,,,0,0,0,0,0
0.7225,1783721291.7219,1,0,1.0000,0.0000,1.42052,0.14185,-2.66687,0.95417,1.57080,0.11681,-0.13197,-0.44703,0.06308,,,,,,,,,,,,,,,,,,,,,,,,,,0,0,0,0,0
0.7277,1783721291.7270,1,1,1.0000,0.0000,1.42052,0.14185,-2.66687,0.95417,1.57080,0.11681,-0.13197,-0.44703,0.06308,,,,,,,,,,,,,,,,,,,,,,,,,,0,0,0,0,0
0.7364,1783721291.7357,1,1,1.0000,0.0000,1.42052,0.14185,-2.66687,0.95417,1.57080,0.11681,-0.13197,-0.44703,0.06308,,,,,,,,,,,,,,,,,,,,,,,,,,0,0,0,0,0
0.7473,1783721291.7467,1,1,1.0000,0.0000,1.42052,0.14185,-2.66687,0.95417,1.57080,0.11681,-0.13197,-0.44703,0.06308,,,,,,,,,,,,,,,,,,,,,,,,,,0,0,0,0,0
0.7553,1783721291.7546,1,1,1.0000,0.0000,1.42052,0.14185,-2.66687,0.95417,1.57080,0.11681,-0.13197,-0.44703,0.06308,,,,,,,,,,,,,,,,,,,,,,,,,,0,0,0,0,0
0.7655,1783721291.7649,1,1,1.0000,0.0000,1.42052,0.14185,-2.66687,0.95417,1.57080,0.11681,-0.13197,-0.44703,0.06308,,,,,,,,,,,,,,,,,,,,,,,,,,0,0,0,0,0
0.7792,1783721291.7785,1,1,1.0000,0.0000,1.42052,0.14185,-2.66687,0.95417,1.57080,0.11681,-0.13197,-0.44703,0.06308,,,,,,,,,,,,,,,,,,,,,,,,,,0,0,0,0,0
0.7855,1783721291.7849,1,1,1.0000,0.0000,1.42052,0.14185,-2.66687,0.95417,1.57080,0.11681,-0.13197,-0.44703,0.06308,,,,,,,,,,,,,,,,,,,,,,,,,,0,0,0,0,0
0.7964,1783721291.7957,1,1,1.0000,0.0000,1.42052,0.14185,-2.66687,0.95417,1.57080,0.11681,-0.13197,-0.44703,0.06308,,,,,,,,,,,,,,,,,,,,,,,,,,0,0,0,0,0
0.8088,1783721291.8082,1,1,1.0000,0.0000,1.42052,0.14185,-2.66687,0.95417,1.57080,0.11681,-0.13197,-0.44703,0.06308,,,,,,,,,,,,,,,,,,,,,,,,,,0,0,0,0,0
0.8181,1783721291.8175,1,1,1.0000,0.0000,1.42052,0.14185,-2.66687,0.95417,1.57080,0.11681,-0.13197,-0.44703,0.06308,,,,,,,,,,,,,,,,,,,,,,,,,,0,0,0,0,0
0.8276,1783721291.8269,1,1,1.0000,0.0000,1.42052,0.14185,-2.66687,0.95417,1.57080,0.11681,-0.13197,-0.44703,0.06308,,,,,,,,,,,,,,,,,,,,,,,,,,0,0,0,0,0
0.8362,1783721291.8355,1,1,1.0000,0.0000,1.42052,0.14185,-2.66687,0.95417,1.57080,0.11681,-0.13197,-0.44703,0.06308,,,,,,,,,,,,,,,,,,,,,,,,,,0,0,0,0,0
0.8495,1783721291.8488,1,1,1.0000,0.0000,1.42052,0.14185,-2.66687,0.95417,1.57080,0.11681,-0.13197,-0.44703,0.06308,,,,,,,,,,,,,,,,,,,,,,,,,,0,0,0,0,0
0.8593,1783721291.8586,1,1,1.0000,0.0000,1.42052,0.14185,-2.66687,0.95417,1.57080,0.11681,-0.13197,-0.44703,0.06308,,,,,,,,,,,,,,,,,,,,,,,,,,0,0,0,0,0
0.8678,1783721291.8672,1,1,1.0000,0.0000,1.42052,0.14185,-2.66687,0.95417,1.57080,0.11681,-0.13197,-0.44703,0.06308,,,,,,,,,,,,,,,,,,,,,,,,,,0,0,0,0,0
0.8780,1783721291.8773,1,1,1.0000,0.0000,1.42052,0.14185,-2.66687,0.95417,1.57080,0.11681,-0.13197,-0.44703,0.06308,,,,,,,,,,,,,,,,,,,,,,,,,,0,0,0,0,0
0.8857,1783721291.8851,1,1,1.0000,0.0000,1.42052,0.14185,-2.66687,0.95417,1.57080,0.11681,-0.13197,-0.44703,0.06308,,,,,,,,,,,,,,,,,,,,,,,,,,0,0,0,0,0
0.8969,1783721291.8963,1,1,1.0000,0.0000,1.42052,0.14185,-2.66687,0.95417,1.57080,0.11681,-0.13197,-0.44703,0.06308,,,,,,,,,,,,,,,,,,,,,,,,,,0,0,0,0,0
0.9084,1783721291.9077,1,1,1.0000,0.0000,1.42052,0.14185,-2.66687,0.95417,1.57080,0.11681,-0.13197,-0.44703,0.06308,,,,,,,,,,,,,,,,,,,,,,,,,,0,0,0,0,0
0.9190,1783721291.9184,1,1,1.0000,0.0000,1.42052,0.14185,-2.66687,0.95417,1.57080,0.11681,-0.13197,-0.44703,0.06308,,,,,,,,,,,,,,,,,,,,,,,,,,0,0,0,0,0
0.9194,1783721291.9187,1,1,1.0000,0.0000,1.42052,0.14185,-2.66687,0.95417,1.57080,0.11681,-0.13197,-0.44703,0.06308,,,,,,,,,,,,,,,,,,,,,,,,,,0,0,0,0,0
0.9260,1783721291.9253,1,1,1.0000,0.0000,1.42052,0.14185,-2.66687,0.95417,1.57080,0.11681,-0.13197,-0.44703,0.06308,,,,,,,,,,,,,,,,,,,,,,,,,,0,0,0,0,0
0.9380,1783721291.9373,1,1,1.0000,0.0000,1.42052,0.14185,-2.66687,0.95417,1.57080,0.11681,-0.13197,-0.44703,0.06308,,,,,,,,,,,,,,,,,,,,,,,,,,0,0,0,0,0
0.9459,1783721291.9453,1,1,1.0000,0.0000,1.42052,0.14185,-2.66687,0.95417,1.57080,0.11681,-0.13197,-0.44703,0.06308,,,,,,,,,,,,,,,,,,,,,,,,,,0,0,0,0,0
0.9565,1783721291.9558,1,1,1.0000,0.0000,1.42052,0.14185,-2.66687,0.95417,1.57080,0.11681,-0.13197,-0.44703,0.06308,,,,,,,,,,,,,,,,,,,,,,,,,,0,0,0,0,0
0.9703,1783721291.9696,1,1,1.0000,0.0000,1.42052,0.14185,-2.66687,0.95417,1.57080,0.11681,-0.13197,-0.44703,0.06308,,,,,,,,,,,,,,,,,,,,,,,,,,0,0,0,0,0
0.9751,1783721291.9744,1,1,1.0000,0.0000,1.42052,0.14185,-2.66687,0.95417,1.57080,0.11681,-0.13197,-0.44703,0.06308,,,,,,,,,,,,,,,,,,,,,,,,,,0,0,0,0,0
0.9755,1783721291.9748,1,1,1.0000,0.0000,1.42052,0.14185,-2.66687,0.95417,1.57080,0.11681,-0.13197,-0.44703,0.06308,,,,,,,,,,,,,,,,,,,,,,,,,,0,0,0,0,0
0.9906,1783721291.9899,1,1,1.0000,0.0000,1.42052,0.14185,-2.66687,0.95417,1.57080,0.11681,-0.13197,-0.44703,0.06308,,,,,,,,,,,,,,,,,,,,,,,,,,0,0,0,0,0
0.9981,1783721291.9974,1,1,1.0000,0.0000,1.42052,0.14185,-2.66687,0.95417,1.57080,0.11681,-0.13197,-0.44703,0.06308,,,,,,,,,,,,,,,,,,,,,,,,,,0,0,0,0,0
1.0075,1783721292.0069,1,1,1.0000,0.0000,1.42052,0.14185,-2.66687,0.95417,1.57080,0.11681,-0.13197,-0.44703,0.06308,,,,,,,,,,,,,,,,,,,,,,,,,,0,0,0,0,0
1.0080,1783721292.0074,1,1,1.0000,0.0000,1.42052,0.14185,-2.66687,0.95417,1.57080,0.11681,-0.13197,-0.44703,0.06308,,,,,,,,,,,,,,,,,,,,,,,,,,0,0,0,0,0
1.0193,1783721292.0186,1,1,1.0000,0.0000,1.42052,0.14185,-2.66687,0.95417,1.57080,0.11681,-0.13197,-0.44703,0.06308,,,,,,,,,,,,,,,,,,,,,,,,,,0,0,0,0,0
1.0196,1783721292.0190,1,1,1.0000,0.0000,1.42052,0.14185,-2.66687,0.95417,1.57080,0.11681,-0.13197,-0.44703,0.06308,,,,,,,,,,,,,,,,,,,,,,,,,,0,0,0,0,0
1.0302,1783721292.0295,1,1,1.0000,0.0000,1.42052,0.14185,-2.66687,0.95417,1.57080,0.11681,-0.13197,-0.44703,0.06308,,,,,,,,,,,,,,,,,,,,,,,,,,0,0,0,0,0
1.0409,1783721292.0403,1,1,1.0000,0.0000,1.42052,0.14185,-2.66687,0.95417,1.57080,0.11681,-0.13197,-0.44703,0.06308,,,,,,,,,,,,,,,,,,,,,,,,,,0,0,0,0,0
1.0453,1783721292.0447,1,1,1.0000,0.0000,1.42052,0.14185,-2.66688,0.95418,1.57080,0.11681,-0.13197,-0.44703,0.06308,,,,,,,,,,,,,,,,,,,,,,,,,,0,0,0,0,0
1.0551,1783721292.0545,1,1,1.0000,0.0000,1.42052,0.14180,-2.66691,0.95424,1.57080,0.11681,-0.13197,-0.44702,0.06305,,,,,,,,,,,,,,,,,,,,,,,,,,0,0,0,0,0
1.0680,1783721292.0673,1,1,1.0000,0.0000,1.42052,0.14170,-2.66696,0.95436,1.57080,0.11681,-0.13198,-0.44700,0.06301,,,,,,,,,,,,,,,,,,,,,,,,,,0,0,0,0,0
1.0752,1783721292.0745,1,1,1.0000,0.0000,1.42052,0.14169,-2.66697,0.95438,1.57080,0.11681,-0.13198,-0.44700,0.06300,,,,,,,,,,,,,,,,,,,,,,,,,,0,0,0,0,0
1.0756,1783721292.0750,1,1,1.0000,0.0000,1.42052,0.14169,-2.66697,0.95438,1.57080,0.11681,-0.13198,-0.44700,0.06300,,,,,,,,,,,,,,,,,,,,,,,,,,0,0,0,0,0
1.0854,1783721292.0848,1,1,1.0000,0.0000,1.42052,0.14160,-2.66700,0.95450,1.57080,0.11681,-0.13198,-0.44699,0.06297,,,,,,,,,,,,,,,,,,,,,,,,,,0,0,0,0,0
1.0994,1783721292.0988,1,1,1.0000,0.0000,1.42052,0.14139,-2.66707,0.95476,1.57080,0.11681,-0.13198,-0.44699,0.06289,,,,,,,,,,,,,,,,,,,,,,,,,,0,0,0,0,0
1.0997,1783721292.0991,1,1,1.0000,0.0000,1.42052,0.14139,-2.66707,0.95476,1.57080,0.11681,-0.13198,-0.44699,0.06289,,,,,,,,,,,,,,,,,,,,,,,,,,0,0,0,0,0
1.1113,1783721292.1107,1,1,1.0000,0.0000,1.42052,0.14098,-2.66720,0.95529,1.57080,0.11682,-0.13198,-0.44698,0.06275,,,,,,,,,,,,,,,,,,,,,,,,,,0,0,0,0,0
1.1170,1783721292.1164,1,1,1.0000,0.0000,1.42051,0.14075,-2.66727,0.95559,1.57080,0.11682,-0.13198,-0.44698,0.06267,,,,,,,,,,,,,,,,,,,,,,,,,,0,0,0,0,0
1.1257,1783721292.1251,1,1,1.0000,0.0000,1.42051,0.14019,-2.66743,0.95630,1.57080,0.11682,-0.13198,-0.44698,0.06248,,,,,,,,,,,,,,,,,,,,,,,,,,0,0,0,0,0
1.1262,1783721292.1255,1,1,1.0000,0.0000,1.42051,0.14019,-2.66743,0.95630,1.57080,0.11682,-0.13198,-0.44698,0.06248,,,,,,,,,,,,,,,,,,,,,,,,,,0,0,0,0,0
1.1372,1783721292.1365,1,1,1.0000,0.0000,1.42051,0.13995,-2.66750,0.95661,1.57080,0.11682,-0.13198,-0.44698,0.06240,,,,,,,,,,,,,,,,,,,,,,,,,,0,0,0,0,0
1.1497,1783721292.1491,1,1,1.0000,0.0000,1.42051,0.13882,-2.66782,0.95807,1.57080,0.11682,-0.13197,-0.44699,0.06202,,,,,,,,,,,,,,,,,,,,,,,,,,0,0,0,0,0
1.1501,1783721292.1495,1,1,1.0000,0.0000,1.42051,0.13882,-2.66782,0.95807,1.57080,0.11682,-0.13197,-0.44699,0.06202,,,,,,,,,,,,,,,,,,,,,,,,,,0,0,0,0,0
1.1581,1783721292.1575,1,1,1.0000,0.0000,1.42050,0.13766,-2.66816,0.95957,1.57080,0.11682,-0.13197,-0.44699,0.06163,,,,,,,,,,,,,,,,,,,,,,,,,,0,0,0,0,0
1.1672,1783721292.1666,1,1,1.0000,0.0000,1.42050,0.13716,-2.66830,0.96021,1.57080,0.11682,-0.13197,-0.44699,0.06146,,,,,,,,,,,,,,,,,,,,,,,,,,0,0,0,0,0
1.1751,1783721292.1744,1,1,1.0000,0.0000,1.42049,0.13577,-2.66870,0.96200,1.57080,0.11682,-0.13197,-0.44700,0.06099,,,,,,,,,,,,,,,,,,,,,,,,,,0,0,0,0,0
1.1754,1783721292.1747,1,1,1.0000,0.0000,1.42049,0.13577,-2.66870,0.96200,1.57080,0.11682,-0.13197,-0.44700,0.06099,,,,,,,,,,,,,,,,,,,,,,,,,,0,0,0,0,0
1.1871,1783721292.1865,1,1,1.0000,0.0000,1.42048,0.13366,-2.66930,0.96469,1.57080,0.11682,-0.13196,-0.44700,0.06029,,,,,,,,,,,,,,,,,,,,,,,,,,0,0,0,0,0
1.1956,1783721292.1949,1,1,1.0000,0.0000,1.42048,0.13280,-2.66954,0.96579,1.57080,0.11682,-0.13196,-0.44700,0.06000,,,,,,,,,,,,,,,,,,,,,,,,,,0,0,0,0,0
1.2158,1783721292.2152,1,1,1.0000,0.0000,1.42044,0.12513,-2.67168,0.97555,1.57080,0.11681,-0.13194,-0.44701,0.05744,,,,,,,,,,,,,,,,,,,,,,,,,,0,0,0,0,0
1.2184,1783721292.2177,1,1,1.0000,0.0000,1.42044,0.12513,-2.67168,0.97555,1.57080,0.11681,-0.13194,-0.44701,0.05744,,,,,,,,,,,,,,,,,,,,,,,,,,0,0,0,0,0
1.2276,1783721292.2269,1,1,1.0000,0.0000,1.42044,0.12402,-2.67198,0.97695,1.57080,0.11681,-0.13194,-0.44702,0.05708,,,,,,,,,,,,,,,,,,,,,,,,,,0,0,0,0,0
1.2398,1783721292.2391,1,1,1.0000,0.0000,1.42042,0.11889,-2.67337,0.98342,1.57080,0.11681,-0.13193,-0.44702,0.05539,,,,,,,,,,,,,,,,,,,,,,,,,,0,0,0,0,0
1.2491,1783721292.2485,1,1,1.0000,0.0000,1.42039,0.11384,-2.67473,0.98980,1.57081,0.11681,-0.13192,-0.44702,0.05373,,,,,,,,,,,,,,,,,,,,,,,,,,0,0,0,0,0
1.2553,1783721292.2546,1,1,1.0000,0.0000,1.42039,0.11344,-2.67483,0.99029,1.57081,0.11681,-0.13191,-0.44702,0.05360,,,,,,,,,,,,,,,,,,,,,,,,,,0,0,0,0,0
1.2658,1783721292.2651,1,1,1.0000,0.0000,1.42038,0.11051,-2.67559,0.99395,1.57081,0.11681,-0.13191,-0.44703,0.05265,,,,,,,,,,,,,,,,,,,,,,,,,,0,0,0,0,0
1.2771,1783721292.2765,1,1,1.0000,0.0000,1.42035,0.10529,-2.67693,1.00047,1.57082,0.11681,-0.13189,-0.44704,0.05096,,,,,,,,,,,,,,,,,,,,,,,,,,0,0,0,0,0
1.2880,1783721292.2874,1,1,1.0000,0.0000,1.42033,0.10069,-2.67808,1.00618,1.57082,0.11681,-0.13188,-0.44706,0.04948,,,,,,,,,,,,,,,,,,,,,,,,,,0,0,0,0,0
1.2951,1783721292.2945,1,1,1.0000,0.0000,1.42030,0.09360,-2.67983,1.01495,1.57083,0.11681,-0.13186,-0.44708,0.04723,,,,,,,,,,,,,,,,,,,,,,,,,,0,0,0,0,0
1.2955,1783721292.2948,1,1,1.0000,0.0000,1.42030,0.09360,-2.67983,1.01495,1.57083,0.11681,-0.13186,-0.44708,0.04723,,,,,,,,,,,,,,,,,,,,,,,,,,0,0,0,0,0
1.3061,1783721292.3054,1,1,1.0000,0.0000,1.42027,0.08455,-2.68206,1.02616,1.57084,0.11681,-0.13185,-0.44707,0.04435,,,,,,,,,,,,,,,,,,,,,,,,,,0,0,0,0,0
1.3166,1783721292.3160,1,1,1.0000,0.0000,1.42026,0.08236,-2.68257,1.02885,1.57084,0.11681,-0.13184,-0.44708,0.04367,,,,,,,,,,,,,,,,,,,,,,,,,,0,0,0,0,0
1.3271,1783721292.3264,1,1,1.0000,0.0000,1.42022,0.07241,-2.68488,1.04104,1.57085,0.11681,-0.13182,-0.44710,0.04057,,,,,,,,,,,,,,,,,,,,,,,,,,0,0,0,0,0
1.3369,1783721292.3363,1,1,1.0000,0.0000,1.42018,0.06277,-2.68710,1.05283,1.57087,0.11681,-0.13180,-0.44709,0.03759,,,,,,,,,,,,,,,,,,,,,,,,,,0,0,0,0,0
1.3474,1783721292.3468,1,1,1.0000,0.0000,1.42017,0.06036,-2.68763,1.05576,1.57087,0.11681,-0.13179,-0.44710,0.03685,,,,,,,,,,,,,,,,,,,,,,,,,,0,0,0,0,0
1.3479,1783721292.3472,1,1,1.0000,0.0000,1.42017,0.06036,-2.68763,1.05576,1.57087,0.11681,-0.13179,-0.44710,0.03685,,,,,,,,,,,,,,,,,,,,,,,,,,0,0,0,0,0
1.3554,1783721292.3547,1,1,1.0000,0.0000,1.42014,0.05389,-2.68903,1.06360,1.57088,0.11681,-0.13178,-0.44711,0.03489,,,,,,,,,,,,,,,,,,,,,,,,,,0,0,0,0,0
