Martins-Lucaas/twinforge/sensors/Data/20260704_153413__samples.csv
t_rel_s,t_unix,cycle,phase,setpoint_n,force_net_n,q1,q2,q3,q4,q5,q6,tcp_x,tcp_y,tcp_z,taxel_0,taxel_1,taxel_2,taxel_3,taxel_4,taxel_5,taxel_6,taxel_7,taxel_8,taxel_9,taxel_10,taxel_11,taxel_12,taxel_13,taxel_14,taxel_15,taxel_16,taxel_17,taxel_18,taxel_19,taxel_20,taxel_21,taxel_22,taxel_23,taxel_24,n_RA,n_SA,cn_mm,cn_ra,cn_sa
0.0045,1783190053.9184,1,0,2.0000,0.0000,1.44682,0.23328,-2.77748,0.97337,1.57080,0.00000,-0.14512,-0.38003,0.04653,,,,,,,,,,,,,,,,,,,,,,,,,,0,0,0,0,0
0.0152,1783190053.9292,1,0,2.0000,0.0000,1.44682,0.23328,-2.77748,0.97337,1.57080,0.00000,-0.14512,-0.38003,0.04653,,,,,,,,,,,,,,,,,,,,,,,,,,0,0,0,0,0
0.0318,1783190053.9458,1,0,2.0000,0.0000,1.44682,0.23328,-2.77748,0.97337,1.57080,0.00000,-0.14512,-0.38003,0.04653,,,,,,,,,,,,,,,,,,,,,,,,,,0,0,0,0,0
0.0434,1783190053.9573,1,0,2.0000,0.0000,1.44682,0.23328,-2.77748,0.97337,1.57080,0.00000,-0.14512,-0.38003,0.04653,,,,,,,,,,,,,,,,,,,,,,,,,,0,0,0,0,0
0.0436,1783190053.9576,1,0,2.0000,0.0000,1.44682,0.23328,-2.77748,0.97337,1.57080,0.00000,-0.14512,-0.38003,0.04653,,,,,,,,,,,,,,,,,,,,,,,,,,0,0,0,0,0
0.0479,1783190053.9619,1,0,2.0000,0.0000,1.44682,0.23328,-2.77748,0.97337,1.57080,0.00000,-0.14512,-0.38003,0.04653,,,,,,,,,,,,,,,,,,,,,,,,,,0,0,0,0,0
0.0559,1783190053.9699,1,0,2.0000,0.0000,1.44682,0.23328,-2.77748,0.97337,1.57080,0.00000,-0.14512,-0.38003,0.04653,,,,,,,,,,,,,,,,,,,,,,,,,,0,0,0,0,0
0.0563,1783190053.9702,1,0,2.0000,0.0000,1.44682,0.23328,-2.77748,0.97337,1.57080,0.00000,-0.14512,-0.38003,0.04653,,,,,,,,,,,,,,,,,,,,,,,,,,0,0,0,0,0
0.0691,1783190053.9830,1,0,2.0000,0.0000,1.44682,0.23328,-2.77748,0.97337,1.57080,0.00000,-0.14512,-0.38003,0.04653,,,,,,,,,,,,,,,,,,,,,,,,,,0,0,0,0,0
0.0695,1783190053.9834,1,0,2.0000,0.0000,1.44682,0.23328,-2.77748,0.97337,1.57080,0.00000,-0.14512,-0.38003,0.04653,,,,,,,,,,,,,,,,,,,,,,,,,,0,0,0,0,0
0.0767,1783190053.9907,1,0,2.0000,0.0000,1.44682,0.23328,-2.77748,0.97337,1.57080,0.00000,-0.14512,-0.38003,0.04653,,,,,,,,,,,,,,,,,,,,,,,,,,0,0,0,0,0
0.0910,1783190054.0050,1,0,2.0000,0.0000,1.44682,0.23328,-2.77748,0.97337,1.57080,0.00000,-0.14512,-0.38003,0.04653,,,,,,,,,,,,,,,,,,,,,,,,,,0,0,0,0,0
0.0942,1783190054.0082,1,0,2.0000,0.0000,1.44682,0.23328,-2.77748,0.97337,1.57080,0.00000,-0.14512,-0.38003,0.04653,,,,,,,,,,,,,,,,,,,,,,,,,,0,0,0,0,0
0.0946,1783190054.0085,1,0,2.0000,0.0000,1.44682,0.23328,-2.77748,0.97337,1.57080,0.00000,-0.14512,-0.38003,0.04653,,,,,,,,,,,,,,,,,,,,,,,,,,0,0,0,0,0
0.1071,1783190054.0210,1,0,2.0000,0.0000,1.44682,0.23328,-2.77748,0.97337,1.57080,0.00000,-0.14512,-0.38003,0.04653,,,,,,,,,,,,,,,,,,,,,,,,,,0,0,0,0,0
0.1151,1783190054.0291,1,0,2.0000,0.0000,1.44682,0.23328,-2.77748,0.97337,1.57080,0.00000,-0.14512,-0.38003,0.04653,,,,,,,,,,,,,,,,,,,,,,,,,,0,0,0,0,0
0.1371,1783190054.0511,1,0,2.0000,0.0000,1.44682,0.23328,-2.77748,0.97337,1.57080,0.00000,-0.14512,-0.38003,0.04653,,,,,,,,,,,,,,,,,,,,,,,,,,0,0,0,0,0
0.1374,1783190054.0514,1,0,2.0000,0.0000,1.44682,0.23328,-2.77748,0.97337,1.57080,0.00000,-0.14512,-0.38003,0.04653,,,,,,,,,,,,,,,,,,,,,,,,,,0,0,0,0,0
0.1463,1783190054.0603,1,0,2.0000,0.0000,1.44682,0.23328,-2.77748,0.97337,1.57080,0.00000,-0.14512,-0.38003,0.04653,,,,,,,,,,,,,,,,,,,,,,,,,,0,0,0,0,0
0.1550,1783190054.0690,1,0,2.0000,0.0000,1.44682,0.23328,-2.77748,0.97337,1.57080,0.00000,-0.14512,-0.38003,0.04653,,,,,,,,,,,,,,,,,,,,,,,,,,0,0,0,0,0
0.1553,1783190054.0693,1,0,2.0000,0.0000,1.44682,0.23328,-2.77748,0.97337,1.57080,0.00000,-0.14512,-0.38003,0.04653,,,,,,,,,,,,,,,,,,,,,,,,,,0,0,0,0,0
0.1684,1783190054.0824,1,0,2.0000,0.0000,1.44682,0.23328,-2.77748,0.97337,1.57080,0.00000,-0.14512,-0.38003,0.04653,,,,,,,,,,,,,,,,,,,,,,,,,,0,0,0,0,0
0.1792,1783190054.0931,1,0,2.0000,0.0000,1.44682,0.23328,-2.77748,0.97337,1.57080,0.00000,-0.14512,-0.38003,0.04653,,,,,,,,,,,,,,,,,,,,,,,,,,0,0,0,0,0
0.1851,1783190054.0990,1,0,2.0000,0.0000,1.44682,0.23328,-2.77748,0.97337,1.57080,0.00000,-0.14512,-0.38003,0.04653,,,,,,,,,,,,,,,,,,,,,,,,,,0,0,0,0,0
0.1999,1783190054.1139,1,0,2.0000,0.0000,1.44682,0.23328,-2.77748,0.97337,1.57080,0.00000,-0.14512,-0.38003,0.04653,,,,,,,,,,,,,,,,,,,,,,,,,,0,0,0,0,0
0.2048,1783190054.1187,1,0,2.0000,0.0000,1.44682,0.23328,-2.77748,0.97337,1.57080,0.00000,-0.14512,-0.38003,0.04653,,,,,,,,,,,,,,,,,,,,,,,,,,0,0,0,0,0
0.2151,1783190054.1291,1,0,2.0000,0.0000,1.44682,0.23328,-2.77748,0.97337,1.57080,0.00000,-0.14512,-0.38003,0.04653,,,,,,,,,,,,,,,,,,,,,,,,,,0,0,0,0,0
0.2247,1783190054.1387,1,0,2.0000,0.0000,1.44682,0.23328,-2.77748,0.97337,1.57080,0.00000,-0.14512,-0.38003,0.04653,,,,,,,,,,,,,,,,,,,,,,,,,,0,0,0,0,0
0.2394,1783190054.1534,1,0,2.0000,0.0000,1.44682,0.23328,-2.77748,0.97337,1.57080,0.00000,-0.14512,-0.38003,0.04653,,,,,,,,,,,,,,,,,,,,,,,,,,0,0,0,0,0
0.2444,1783190054.1583,1,0,2.0000,0.0000,1.44682,0.23328,-2.77748,0.97337,1.57080,0.00000,-0.14512,-0.38003,0.04653,,,,,,,,,,,,,,,,,,,,,,,,,,0,0,0,0,0
0.2447,1783190054.1587,1,0,2.0000,0.0000,1.44682,0.23328,-2.77748,0.97337,1.57080,0.00000,-0.14512,-0.38003,0.04653,,,,,,,,,,,,,,,,,,,,,,,,,,0,0,0,0,0
0.2547,1783190054.1687,1,0,2.0000,0.0000,1.44682,0.23328,-2.77748,0.97337,1.57080,0.00000,-0.14512,-0.38003,0.04653,,,,,,,,,,,,,,,,,,,,,,,,,,0,0,0,0,0
0.2671,1783190054.1811,1,0,2.0000,0.0000,1.44682,0.23328,-2.77748,0.97337,1.57080,0.00000,-0.14512,-0.38003,0.04653,,,,,,,,,,,,,,,,,,,,,,,,,,0,0,0,0,0
0.3717,1783190054.2857,1,0,2.0000,0.0000,1.44682,0.23328,-2.77748,0.97337,1.57080,0.00000,-0.14512,-0.38003,0.04653,,,,,,,,,,,,,,,,,,,,,,,,,,0,0,0,0,0
0.3721,1783190054.2860,1,0,2.0000,0.0000,1.44682,0.23328,-2.77748,0.97337,1.57080,0.00000,-0.14512,-0.38003,0.04653,,,,,,,,,,,,,,,,,,,,,,,,,,0,0,0,0,0
0.4193,1783190054.3332,1,0,2.0000,0.0000,1.44682,0.23328,-2.77748,0.97337,1.57080,0.00000,-0.14512,-0.38003,0.04653,,,,,,,,,,,,,,,,,,,,,,,,,,0,0,0,0,0
0.4196,1783190054.3336,1,0,2.0000,0.0000,1.44682,0.23328,-2.77748,0.97337,1.57080,0.00000,-0.14512,-0.38003,0.04653,,,,,,,,,,,,,,,,,,,,,,,,,,0,0,0,0,0
0.4201,1783190054.3341,1,0,2.0000,0.0000,1.44682,0.23328,-2.77748,0.97337,1.57080,0.00000,-0.14512,-0.38003,0.04653,,,,,,,,,,,,,,,,,,,,,,,,,,0,0,0,0,0
0.4205,1783190054.3345,1,0,2.0000,0.0000,1.44682,0.23328,-2.77748,0.97337,1.57080,0.00000,-0.14512,-0.38003,0.04653,,,,,,,,,,,,,,,,,,,,,,,,,,0,0,0,0,0
0.4210,1783190054.3350,1,0,2.0000,0.0000,1.44682,0.23328,-2.77748,0.97337,1.57080,0.00000,-0.14512,-0.38003,0.04653,,,,,,,,,,,,,,,,,,,,,,,,,,0,0,0,0,0
0.4214,1783190054.3354,1,0,2.0000,0.0000,1.44682,0.23328,-2.77748,0.97337,1.57080,0.00000,-0.14512,-0.38003,0.04653,,,,,,,,,,,,,,,,,,,,,,,,,,0,0,0,0,0
0.4219,1783190054.3359,1,0,2.0000,0.0000,1.44682,0.23328,-2.77748,0.97337,1.57080,0.00000,-0.14512,-0.38003,0.04653,,,,,,,,,,,,,,,,,,,,,,,,,,0,0,0,0,0
0.4224,1783190054.3363,1,0,2.0000,0.0000,1.44682,0.23328,-2.77748,0.97337,1.57080,0.00000,-0.14512,-0.38003,0.04653,,,,,,,,,,,,,,,,,,,,,,,,,,0,0,0,0,0
0.4231,1783190054.3371,1,0,2.0000,0.0000,1.44682,0.23328,-2.77748,0.97337,1.57080,0.00000,-0.14512,-0.38003,0.04653,,,,,,,,,,,,,,,,,,,,,,,,,,0,0,0,0,0
0.4234,1783190054.3374,1,0,2.0000,0.0000,1.44682,0.23328,-2.77748,0.97337,1.57080,0.00000,-0.14512,-0.38003,0.04653,,,,,,,,,,,,,,,,,,,,,,,,,,0,0,0,0,0
0.4246,1783190054.3386,1,0,2.0000,0.0000,1.44682,0.23328,-2.77748,0.97337,1.57080,0.00000,-0.14512,-0.38003,0.04653,,,,,,,,,,,,,,,,,,,,,,,,,,0,0,0,0,0
0.4250,1783190054.3390,1,0,2.0000,0.0000,1.44682,0.23328,-2.77748,0.97337,1.57080,0.00000,-0.14512,-0.38003,0.04653,,,,,,,,,,,,,,,,,,,,,,,,,,0,0,0,0,0
0.4403,1783190054.3543,1,0,2.0000,0.0000,1.44682,0.23328,-2.77748,0.97337,1.57080,0.00000,-0.14512,-0.38003,0.04653,,,,,,,,,,,,,,,,,,,,,,,,,,0,0,0,0,0
0.4462,1783190054.3601,1,0,2.0000,0.0000,1.44682,0.23328,-2.77748,0.97337,1.57080,0.00000,-0.14512,-0.38003,0.04653,,,,,,,,,,,,,,,,,,,,,,,,,,0,0,0,0,0
0.4552,1783190054.3692,1,0,2.0000,0.0000,1.44682,0.23328,-2.77748,0.97337,1.57080,0.00000,-0.14512,-0.38003,0.04653,,,,,,,,,,,,,,,,,,,,,,,,,,0,0,0,0,0
0.4643,1783190054.3783,1,0,2.0000,0.0000,1.44682,0.23328,-2.77748,0.97337,1.57080,0.00000,-0.14512,-0.38003,0.04653,,,,,,,,,,,,,,,,,,,,,,,,,,0,0,0,0,0
0.4790,1783190054.3930,1,0,2.0000,0.0000,1.44682,0.23328,-2.77748,0.97337,1.57080,0.00000,-0.14512,-0.38003,0.04653,,,,,,,,,,,,,,,,,,,,,,,,,,0,0,0,0,0
0.4896,1783190054.4036,1,0,2.0000,0.0000,1.44682,0.23328,-2.77748,0.97337,1.57080,0.00000,-0.14512,-0.38003,0.04653,,,,,,,,,,,,,,,,,,,,,,,,,,0,0,0,0,0
0.5020,1783190054.4159,1,0,2.0000,0.0000,1.44682,0.23328,-2.77748,0.97337,1.57080,0.00000,-0.14512,-0.38003,0.04653,,,,,,,,,,,,,,,,,,,,,,,,,,0,0,0,0,0
0.5112,1783190054.4251,1,0,2.0000,0.0000,1.44682,0.23328,-2.77748,0.97337,1.57080,0.00000,-0.14512,-0.38003,0.04653,,,,,,,,,,,,,,,,,,,,,,,,,,0,0,0,0,0
0.5170,1783190054.4310,1,0,2.0000,0.0000,1.44682,0.23328,-2.77748,0.97337,1.57080,0.00000,-0.14512,-0.38003,0.04653,,,,,,,,,,,,,,,,,,,,,,,,,,0,0,0,0,0
0.5173,1783190054.4313,1,0,2.0000,0.0000,1.44682,0.23328,-2.77748,0.97337,1.57080,0.00000,-0.14512,-0.38003,0.04653,,,,,,,,,,,,,,,,,,,,,,,,,,0,0,0,0,0
0.5291,1783190054.4431,1,0,2.0000,0.0000,1.44682,0.23328,-2.77748,0.97337,1.57080,0.00000,-0.14512,-0.38003,0.04653,,,,,,,,,,,,,,,,,,,,,,,,,,0,0,0,0,0
0.5426,1783190054.4566,1,0,2.0000,0.0000,1.44682,0.23328,-2.77748,0.97337,1.57080,0.00000,-0.14512,-0.38003,0.04653,,,,,,,,,,,,,,,,,,,,,,,,,,0,0,0,0,0
0.5513,1783190054.4652,1,0,2.0000,0.0000,1.44682,0.23328,-2.77748,0.97337,1.57080,0.00000,-0.14512,-0.38003,0.04653,,,,,,,,,,,,,,,,,,,,,,,,,,0,0,0,0,0
0.5515,1783190054.4655,1,0,2.0000,0.0000,1.44682,0.23328,-2.77748,0.97337,1.57080,0.00000,-0.14512,-0.38003,0.04653,,,,,,,,,,,,,,,,,,,,,,,,,,0,0,0,0,0
0.5541,1783190054.4681,1,0,2.0000,0.0000,1.44682,0.23328,-2.77748,0.97337,1.57080,0.00000,-0.14512,-0.38003,0.04653,,,,,,,,,,,,,,,,,,,,,,,,,,0,0,0,0,0
0.5547,1783190054.4686,1,0,2.0000,0.0000,1.44682,0.23328,-2.77748,0.97337,1.57080,0.00000,-0.14512,-0.38003,0.04653,,,,,,,,,,,,,,,,,,,,,,,,,,0,0,0,0,0
0.5647,1783190054.4786,1,0,2.0000,0.0000,1.44682,0.23328,-2.77748,0.97337,1.57080,0.00000,-0.14512,-0.38003,0.04653,,,,,,,,,,,,,,,,,,,,,,,,,,0,0,0,0,0
0.5781,1783190054.4921,1,0,2.0000,0.0000,1.44682,0.23328,-2.77748,0.97337,1.57080,0.00000,-0.14512,-0.38003,0.04653,,,,,,,,,,,,,,,,,,,,,,,,,,0,0,0,0,0
0.5883,1783190054.5023,1,0,2.0000,0.0000,1.44682,0.23328,-2.77748,0.97337,1.57080,0.00000,-0.14512,-0.38003,0.04653,,,,,,,,,,,,,,,,,,,,,,,,,,0,0,0,0,0
0.5886,1783190054.5025,1,0,2.0000,0.0000,1.44682,0.23328,-2.77748,0.97337,1.57080,0.00000,-0.14512,-0.38003,0.04653,,,,,,,,,,,,,,,,,,,,,,,,,,0,0,0,0,0
0.5982,1783190054.5122,1,0,2.0000,0.0000,1.44682,0.23328,-2.77748,0.97337,1.57080,0.00000,-0.14512,-0.38003,0.04653,,,,,,,,,,,,,,,,,,,,,,,,,,0,0,0,0,0
0.5986,1783190054.5125,1,0,2.0000,0.0000,1.44682,0.23328,-2.77748,0.97337,1.57080,0.00000,-0.14512,-0.38003,0.04653,,,,,,,,,,,,,,,,,,,,,,,,,,0,0,0,0,0
0.6058,1783190054.5197,1,0,2.0000,0.0000,1.44682,0.23328,-2.77748,0.97337,1.57080,0.00000,-0.14512,-0.38003,0.04653,,,,,,,,,,,,,,,,,,,,,,,,,,0,0,0,0,0
0.6227,1783190054.5366,1,0,2.0000,0.0000,1.44682,0.23328,-2.77748,0.97337,1.57080,0.00000,-0.14512,-0.38003,0.04653,,,,,,,,,,,,,,,,,,,,,,,,,,0,0,0,0,0
0.6253,1783190054.5393,1,0,2.0000,0.0000,1.44682,0.23328,-2.77748,0.97337,1.57080,0.00000,-0.14512,-0.38003,0.04653,,,,,,,,,,,,,,,,,,,,,,,,,,0,0,0,0,0
0.6256,1783190054.5396,1,0,2.0000,0.0000,1.44682,0.23328,-2.77748,0.97337,1.57080,0.00000,-0.14512,-0.38003,0.04653,,,,,,,,,,,,,,,,,,,,,,,,,,0,0,0,0,0
0.6344,1783190054.5484,1,0,2.0000,0.0000,1.44682,0.23328,-2.77748,0.97337,1.57080,0.00000,-0.14512,-0.38003,0.04653,,,,,,,,,,,,,,,,,,,,,,,,,,0,0,0,0,0
0.6455,1783190054.5595,1,0,2.0000,0.0000,1.44682,0.23328,-2.77748,0.97337,1.57080,0.00000,-0.14512,-0.38003,0.04653,,,,,,,,,,,,,,,,,,,,,,,,,,0,0,0,0,0
0.6553,1783190054.5692,1,0,2.0000,0.0000,1.44682,0.23328,-2.77748,0.97337,1.57080,0.00000,-0.14512,-0.38003,0.04653,,,,,,,,,,,,,,,,,,,,,,,,,,0,0,0,0,0
0.6658,1783190054.5797,1,0,2.0000,0.0000,1.44682,0.23328,-2.77748,0.97337,1.57080,0.00000,-0.14512,-0.38003,0.04653,,,,,,,,,,,,,,,,,,,,,,,,,,0,0,0,0,0
0.6762,1783190054.5901,1,0,2.0000,0.0000,1.44682,0.23328,-2.77748,0.97337,1.57080,0.00000,-0.14512,-0.38003,0.04653,,,,,,,,,,,,,,,,,,,,,,,,,,0,0,0,0,0
0.6911,1783190054.6051,1,0,2.0000,0.0000,1.44682,0.23328,-2.77748,0.97337,1.57080,0.00000,-0.14512,-0.38003,0.04653,,,,,,,,,,,,,,,,,,,,,,,,,,0,0,0,0,0
0.6952,1783190054.6092,1,0,2.0000,0.0000,1.44682,0.23328,-2.77748,0.97337,1.57080,0.00000,-0.14512,-0.38003,0.04653,,,,,,,,,,,,,,,,,,,,,,,,,,0,0,0,0,0
0.7073,1783190054.6212,1,0,2.0000,0.0000,1.44682,0.23328,-2.77748,0.97337,1.57080,0.00000,-0.14512,-0.38003,0.04653,,,,,,,,,,,,,,,,,,,,,,,,,,0,0,0,0,0
0.7209,1783190054.6348,1,0,2.0000,0.0000,1.44682,0.23328,-2.77748,0.97337,1.57080,0.00000,-0.14512,-0.38003,0.04653,,,,,,,,,,,,,,,,,,,,,,,,,,0,0,0,0,0
0.7260,1783190054.6399,1,0,2.0000,0.0000,1.44682,0.23328,-2.77748,0.97337,1.57080,0.00000,-0.14512,-0.38003,0.04653,,,,,,,,,,,,,,,,,,,,,,,,,,0,0,0,0,0
0.7265,1783190054.6404,1,0,2.0000,0.0000,1.44682,0.23328,-2.77748,0.97337,1.57080,0.00000,-0.14512,-0.38003,0.04653,,,,,,,,,,,,,,,,,,,,,,,,,,0,0,0,0,0
0.7500,1783190054.6640,1,1,2.0000,0.0000,1.44682,0.23328,-2.77748,0.97337,1.57080,0.00000,-0.14512,-0.38003,0.04653,,,,,,,,,,,,,,,,,,,,,,,,,,0,0,0,0,0
0.7503,1783190054.6642,1,1,2.0000,0.0000,1.44682,0.23328,-2.77748,0.97337,1.57080,0.00000,-0.14512,-0.38003,0.04653,,,,,,,,,,,,,,,,,,,,,,,,,,0,0,0,0,0
0.7553,1783190054.6692,1,1,2.0000,0.0000,1.44682,0.23328,-2.77748,0.97337,1.57080,0.00000,-0.14512,-0.38003,0.04653,,,,,,,,,,,,,,,,,,,,,,,,,,0,0,0,0,0
0.7555,1783190054.6695,1,1,2.0000,0.0000,1.44682,0.23328,-2.77748,0.97337,1.57080,0.00000,-0.14512,-0.38003,0.04653,,,,,,,,,,,,,,,,,,,,,,,,,,0,0,0,0,0
0.7656,1783190054.6796,1,1,2.0000,0.0000,1.44682,0.23328,-2.77748,0.97337,1.57080,0.00000,-0.14512,-0.38003,0.04653,,,,,,,,,,,,,,,,,,,,,,,,,,0,0,0,0,0
0.7816,1783190054.6955,1,1,2.0000,0.0000,1.44682,0.23328,-2.77748,0.97337,1.57080,0.00000,-0.14512,-0.38003,0.04653,,,,,,,,,,,,,,,,,,,,,,,,,,0,0,0,0,0
0.7842,1783190054.6981,1,1,2.0000,0.0000,1.44682,0.23328,-2.77748,0.97337,1.57080,0.00000,-0.14512,-0.38003,0.04653,,,,,,,,,,,,,,,,,,,,,,,,,,0,0,0,0,0
0.7845,1783190054.6984,1,1,2.0000,0.0000,1.44682,0.23328,-2.77748,0.97337,1.57080,0.00000,-0.14512,-0.38003,0.04653,,,,,,,,,,,,,,,,,,,,,,,,,,0,0,0,0,0
0.7963,1783190054.7103,1,1,2.0000,0.0000,1.44682,0.23328,-2.77748,0.97337,1.57080,0.00000,-0.14512,-0.38003,0.04653,,,,,,,,,,,,,,,,,,,,,,,,,,0,0,0,0,0
0.8095,1783190054.7234,1,1,2.0000,0.0000,1.44682,0.23328,-2.77748,0.97337,1.57080,0.00000,-0.14512,-0.38003,0.04653,,,,,,,,,,,,,,,,,,,,,,,,,,0,0,0,0,0
0.8198,1783190054.7338,1,1,2.0000,0.0000,1.44682,0.23328,-2.77748,0.97337,1.57080,0.00000,-0.14512,-0.38003,0.04653,,,,,,,,,,,,,,,,,,,,,,,,,,0,0,0,0,0
0.8201,1783190054.7341,1,1,2.0000,0.0000,1.44682,0.23328,-2.77748,0.97337,1.57080,0.00000,-0.14512,-0.38003,0.04653,,,,,,,,,,,,,,,,,,,,,,,,,,0,0,0,0,0
0.8249,1783190054.7388,1,1,2.0000,0.0000,1.44682,0.23328,-2.77748,0.97337,1.57080,0.00000,-0.14512,-0.38003,0.04653,,,,,,,,,,,,,,,,,,,,,,,,,,0,0,0,0,0
0.8351,1783190054.7490,1,1,2.0000,0.0000,1.44682,0.23328,-2.77748,0.97337,1.57080,0.00000,-0.14512,-0.38003,0.04653,,,,,,,,,,,,,,,,,,,,,,,,,,0,0,0,0,0
0.8528,1783190054.7667,1,1,2.0000,0.0000,1.44682,0.23328,-2.77748,0.97337,1.57080,0.00000,-0.14512,-0.38003,0.04653,,,,,,,,,,,,,,,,,,,,,,,,,,0,0,0,0,0
0.8531,1783190054.7670,1,1,2.0000,0.0000,1.44682,0.23328,-2.77748,0.97337,1.57080,0.00000,-0.14512,-0.38003,0.04653,,,,,,,,,,,,,,,,,,,,,,,,,,0,0,0,0,0
0.8572,1783190054.7711,1,1,2.0000,0.0000,1.44682,0.23328,-2.77748,0.97337,1.57080,0.00000,-0.14512,-0.38003,0.04653,,,,,,,,,,,,,,,,,,,,,,,,,,0,0,0,0,0
0.8643,1783190054.7783,1,1,2.0000,0.0000,1.44682,0.23328,-2.77748,0.97337,1.57080,0.00000,-0.14512,-0.38003,0.04653,,,,,,,,,,,,,,,,,,,,,,,,,,0,0,0,0,0
0.8753,1783190054.7893,1,1,2.0000,0.0000,1.44682,0.23328,-2.77748,0.97337,1.57080,0.00000,-0.14512,-0.38003,0.04653,,,,,,,,,,,,,,,,,,,,,,,,,,0,0,0,0,0
0.8756,1783190054.7896,1,1,2.0000,0.0000,1.44682,0.23328,-2.77748,0.97337,1.57080,0.00000,-0.14512,-0.38003,0.04653,,,,,,,,,,,,,,,,,,,,,,,,,,0,0,0,0,0
0.8899,1783190054.8038,1,1,2.0000,0.0000,1.44682,0.23328,-2.77748,0.97337,1.57080,0.00000,-0.14512,-0.38003,0.04653,,,,,,,,,,,,,,,,,,,,,,,,,,0,0,0,0,0
0.8971,1783190054.8111,1,1,2.0000,0.0000,1.44682,0.23328,-2.77748,0.97337,1.57080,0.00000,-0.14512,-0.38003,0.04653,,,,,,,,,,,,,,,,,,,,,,,,,,0,0,0,0,0
0.9115,1783190054.8255,1,1,2.0000,0.0000,1.44682,0.23328,-2.77748,0.97337,1.57080,0.00000,-0.14512,-0.38003,0.04653,,,,,,,,,,,,,,,,,,,,,,,,,,0,0,0,0,0
0.9187,1783190054.8327,1,1,2.0000,0.0000,1.44682,0.23328,-2.77748,0.97337,1.57080,0.00000,-0.14512,-0.38003,0.04653,,,,,,,,,,,,,,,,,,,,,,,,,,0,0,0,0,0
0.9194,1783190054.8334,1,1,2.0000,0.0000,1.44682,0.23328,-2.77748,0.97337,1.57080,0.00000,-0.14512,-0.38003,0.04653,,,,,,,,,,,,,,,,,,,,,,,,,,0,0,0,0,0
0.9290,1783190054.8430,1,1,2.0000,0.0000,1.44682,0.23322,-2.77749,0.97344,1.57080,0.00000,-0.14512,-0.38003,0.04651,,,,,,,,,,,,,,,,,,,,,,,,,,0,0,0,0,0
0.9392,1783190054.8532,1,1,2.0000,0.0000,1.44682,0.23301,-2.77755,0.97371,1.57080,0.00000,-0.14512,-0.38003,0.04646,,,,,,,,,,,,,,,,,,,,,,,,,,0,0,0,0,0
0.9528,1783190054.8668,1,1,2.0000,0.0000,1.44682,0.23285,-2.77759,0.97390,1.57080,0.00000,-0.14512,-0.38003,0.04642,,,,,,,,,,,,,,,,,,,,,,,,,,0,0,0,0,0
0.9592,1783190054.8732,1,1,2.0000,0.0000,1.44682,0.23281,-2.77760,0.97396,1.57080,0.00000,-0.14512,-0.38003,0.04641,,,,,,,,,,,,,,,,,,,,,,,,,,0,0,0,0,0
0.9595,1783190054.8735,1,1,2.0000,0.0000,1.44682,0.23281,-2.77760,0.97396,1.57080,0.00000,-0.14512,-0.38003,0.04641,,,,,,,,,,,,,,,,,,,,,,,,,,0,0,0,0,0
0.9701,1783190054.8840,1,1,2.0000,0.0000,1.44682,0.23270,-2.77763,0.97409,1.57080,0.00000,-0.14512,-0.38003,0.04638,,,,,,,,,,,,,,,,,,,,,,,,,,0,0,0,0,0
0.9706,1783190054.8845,1,1,2.0000,0.0000,1.44682,0.23270,-2.77763,0.97409,1.57080,0.00000,-0.14512,-0.38003,0.04638,,,,,,,,,,,,,,,,,,,,,,,,,,0,0,0,0,0
0.9807,1783190054.8946,1,1,2.0000,0.0000,1.44682,0.23257,-2.77766,0.97426,1.57080,0.00000,-0.14512,-0.38003,0.04634,,,,,,,,,,,,,,,,,,,,,,,,,,0,0,0,0,0
0.9993,1783190054.9133,1,1,2.0000,0.0000,1.44682,0.23240,-2.77770,0.97448,1.57080,0.00000,-0.14512,-0.38003,0.04630,,,,,,,,,,,,,,,,,,,,,,,,,,0,0,0,0,0
1.0016,1783190054.9155,1,1,2.0000,0.0000,1.44682,0.23240,-2.77770,0.97448,1.57080,0.00000,-0.14512,-0.38003,0.04630,,,,,,,,,,,,,,,,,,,,,,,,,,0,0,0,0,0
1.0018,1783190054.9158,1,1,2.0000,0.0000,1.44682,0.23240,-2.77770,0.97448,1.57080,0.00000,-0.14512,-0.38003,0.04630,,,,,,,,,,,,,,,,,,,,,,,,,,0,0,0,0,0
1.0143,1783190054.9282,1,1,2.0000,0.0000,1.44682,0.23228,-2.77774,0.97463,1.57080,0.00000,-0.14512,-0.38003,0.04627,,,,,,,,,,,,,,,,,,,,,,,,,,0,0,0,0,0
1.0192,1783190054.9332,1,1,2.0000,0.0000,1.44682,0.23223,-2.77775,0.97469,1.57080,0.00000,-0.14512,-0.38003,0.04625,,,,,,,,,,,,,,,,,,,,,,,,,,0,0,0,0,0
1.0314,1783190054.9454,1,1,2.0000,0.0000,1.44682,0.23205,-2.77779,0.97491,1.57080,0.00000,-0.14512,-0.38003,0.04621,,,,,,,,,,,,,,,,,,,,,,,,,,0,0,0,0,0
1.0392,1783190054.9532,1,1,2.0000,0.0000,1.44682,0.23198,-2.77781,0.97500,1.57080,0.00000,-0.14512,-0.38003,0.04619,,,,,,,,,,,,,,,,,,,,,,,,,,0,0,0,0,0
1.0553,1783190054.9692,1,1,2.0000,0.0000,1.44682,0.23183,-2.77785,0.97519,1.57080,0.00000,-0.14512,-0.38003,0.04615,,,,,,,,,,,,,,,,,,,,,,,,,,0,0,0,0,0
1.0614,1783190054.9754,1,1,2.0000,0.0000,1.44682,0.23176,-2.77787,0.97528,1.57080,0.00000,-0.14512,-0.38003,0.04613,,,,,,,,,,,,,,,,,,,,,,,,,,0,0,0,0,0
1.0735,1783190054.9875,1,1,2.0000,0.0000,1.44682,0.23162,-2.77790,0.97545,1.57080,0.00000,-0.14512,-0.38003,0.04610,,,,,,,,,,,,,,,,,,,,,,,,,,0,0,0,0,0
1.0806,1783190054.9945,1,1,2.0000,0.0000,1.44682,0.23158,-2.77791,0.97550,1.57080,0.00000,-0.14512,-0.38003,0.04608,,,,,,,,,,,,,,,,,,,,,,,,,,0,0,0,0,0
1.0890,1783190055.0030,1,1,2.0000,0.0000,1.44682,0.23147,-2.77794,0.97564,1.57080,0.00000,-0.14512,-0.38003,0.04606,,,,,,,,,,,,,,,,,,,,,,,,,,0,0,0,0,0
1.1010,1783190055.0150,1,1,2.0000,0.0000,1.44682,0.23133,-2.77798,0.97581,1.57080,0.00000,-0.14512,-0.38003,0.04602,,,,,,,,,,,,,,,,,,,,,,,,,,0,0,0,0,0
1.1107,1783190055.0247,1,1,2.0000,0.0000,1.44682,0.23129,-2.77799,0.97587,1.57080,0.00000,-0.14512,-0.38003,0.04601,,,,,,,,,,,,,,,,,,,,,,,,,,0,0,0,0,0
1.1194,1783190055.0334,1,1,2.0000,0.0000,1.44682,0.23111,-2.77803,0.97609,1.57080,0.00000,-0.14512,-0.38003,0.04596,,,,,,,,,,,,,,,,,,,,,,,,,,0,0,0,0,0
1.1196,1783190055.0336,1,1,2.0000,0.0000,1.44682,0.23111,-2.77803,0.97609,1.57080,0.00000,-0.14512,-0.38003,0.04596,,,,,,,,,,,,,,,,,,,,,,,,,,0,0,0,0,0
1.1362,1783190055.0502,1,1,2.0000,0.0000,1.44682,0.23096,-2.77807,0.97628,1.57080,0.00000,-0.14512,-0.38003,0.04592,,,,,,,,,,,,,,,,,,,,,,,,,,0,0,0,0,0
1.1402,1783190055.0542,1,1,2.0000,0.0000,1.44682,0.23093,-2.77808,0.97632,1.57080,0.00000,-0.14512,-0.38003,0.04591,,,,,,,,,,,,,,,,,,,,,,,,,,0,0,0,0,0
1.1406,1783190055.0545,1,1,2.0000,0.0000,1.44682,0.23093,-2.77808,0.97632,1.57080,0.00000,-0.14512,-0.38003,0.04591,,,,,,,,,,,,,,,,,,,,,,,,,,0,0,0,0,0
1.1614,1783190055.0754,1,1,2.0000,0.0000,1.44682,0.23069,-2.77814,0.97663,1.57080,0.00000,-0.14512,-0.38003,0.04585,,,,,,,,,,,,,,,,,,,,,,,,,,0,0,0,0,0
1.1618,1783190055.0758,1,1,2.0000,0.0000,1.44682,0.23069,-2.77814,0.97663,1.57080,0.00000,-0.14512,-0.38003,0.04585,,,,,,,,,,,,,,,,,,,,,,,,,,0,0,0,0,0
1.1691,1783190055.0830,1,1,2.0000,0.0000,1.44682,0.23064,-2.77816,0.97668,1.57080,0.00000,-0.14512,-0.38003,0.04584,,,,,,,,,,,,,,,,,,,,,,,,,,0,0,0,0,0
1.1794,1783190055.0933,1,1,2.0000,0.0000,1.44682,0.23047,-2.77820,0.97690,1.57080,0.00000,-0.14512,-0.38003,0.04579,,,,,,,,,,,,,,,,,,,,,,,,,,0,0,0,0,0
1.1890,1783190055.1030,1,1,2.0000,0.0000,1.44682,0.23033,-2.77824,0.97708,1.57080,0.00000,-0.14512,-0.38003,0.04576,,,,,,,,,,,,,,,,,,,,,,,,,,0,0,0,0,0
1.2033,1783190055.1173,1,1,2.0000,0.0000,1.44682,0.23023,-2.77826,0.97719,1.57080,0.00000,-0.14512,-0.38003,0.04573,,,,,,,,,,,,,,,,,,,,,,,,,,0,0,0,0,0
1.2117,1783190055.1256,1,1,2.0000,0.0000,1.44682,0.23011,-2.77829,0.97736,1.57080,0.00000,-0.14512,-0.38003,0.04570,,,,,,,,,,,,,,,,,,,,,,,,,,0,0,0,0,0
1.2209,1783190055.1349,1,1,2.0000,0.0000,1.44682,0.23004,-2.77831,0.97744,1.57080,0.00000,-0.14512,-0.38003,0.04568,,,,,,,,,,,,,,,,,,,,,,,,,,0,0,0,0,0
1.2290,1783190055.1429,1,1,2.0000,0.0000,1.44682,0.22999,-2.77832,0.97750,1.57080,0.00000,-0.14512,-0.38003,0.04567,,,,,,,,,,,,,,,,,,,,,,,,,,0,0,0,0,0
1.2389,1783190055.1528,1,1,2.0000,0.0000,1.44682,0.22988,-2.77835,0.97764,1.57080,0.00000,-0.14512,-0.38003,0.04564,,,,,,,,,,,,,,,,,,,,,,,,,,0,0,0,0,0
1.2488,1783190055.1628,1,1,2.0000,0.0000,1.44682,0.22968,-2.77840,0.97789,1.57080,0.00000,-0.14512,-0.38003,0.04559,,,,,,,,,,,,,,,,,,,,,,,,,,0,0,0,0,0
1.2601,1783190055.1741,1,1,2.0000,0.0000,1.44682,0.22963,-2.77841,0.97795,1.57080,0.00000,-0.14512,-0.38003,0.04558,,,,,,,,,,,,,,,,,,,,,,,,,,0,0,0,0,0
1.2687,1783190055.1827,1,1,2.0000,0.0000,1.44682,0.22953,-2.77844,0.97809,1.57080,0.00000,-0.14512,-0.38003,0.04555,,,,,,,,,,,,,,,,,,,,,,,,,,0,0,0,0,0
1.2692,1783190055.1831,1,1,2.0000,0.0000,1.44682,0.22953,-2.77844,0.97809,1.57080,0.00000,-0.14512,-0.38003,0.04555,,,,,,,,,,,,,,,,,,,,,,,,,,0,0,0,0,0
1.2801,1783190055.1940,1,1,2.0000,0.0000,1.44682,0.22939,-2.77848,0.97826,1.57080,0.00000,-0.14512,-0.38003,0.04551,,,,,,,,,,,,,,,,,,,,,,,,,,0,0,0,0,0
1.2895,1783190055.2035,1,1,2.0000,0.0000,1.44682,0.22934,-2.77849,0.97831,1.57080,0.00000,-0.14512,-0.38003,0.04550,,,,,,,,,,,,,,,,,,,,,,,,,,0,0,0,0,0
1.3153,1783190055.2292,1,1,2.0000,0.0000,1.44682,0.22902,-2.77857,0.97872,1.57080,0.00000,-0.14512,-0.38003,0.04542,,,,,,,,,,,,,,,,,,,,,,,,,,0,0,0,0,0
1.3156,1783190055.2296,1,1,2.0000,0.0000,1.44682,0.22902,-2.77857,0.97872,1.57080,0.00000,-0.14512,-0.38003,0.04542,,,,,,,,,,,,,,,,,,,,,,,,,,0,0,0,0,0
1.3212,1783190055.2351,1,1,2.0000,0.0000,1.44682,0.22899,-2.77858,0.97876,1.57080,0.00000,-0.14512,-0.38003,0.04541,,,,,,,,,,,,,,,,,,,,,,,,,,0,0,0,0,0
1.3314,1783190055.2453,1,1,2.0000,0.0000,1.44682,0.22881,-2.77862,0.97899,1.57080,0.00000,-0.14512,-0.38003,0.04536,,,,,,,,,,,,,,,,,,,,,,,,,,0,0,0,0,0
1.3467,1783190055.2607,1,1,2.0000,0.0000,1.44682,0.22873,-2.77865,0.97909,1.57080,0.00000,-0.14512,-0.38003,0.04534,,,,,,,,,,,,,,,,,,,,,,,,,,0,0,0,0,0
1.3510,1783190055.2650,1,1,2.0000,0.0000,1.44682,0.22869,-2.77865,0.97913,1.57080,0.00000,-0.14512,-0.38003,0.04533,,,,,,,,,,,,,,,,,,,,,,,,,,0,0,0,0,0
1.3704,1783190055.2844,1,1,2.0000,0.0000,1.44682,0.22838,-2.77873,0.97952,1.57080,0.00000,-0.14512,-0.38003,0.04525,,,,,,,,,,,,,,,,,,,,,,,,,,0,0,0,0,0
1.3708,1783190055.2848,1,1,2.0000,0.0000,1.44682,0.22838,-2.77873,0.97952,1.57080,0.00000,-0.14512,-0.38003,0.04525,,,,,,,,,,,,,,,,,,,,,,,,,,0,0,0,0,0
1.3809,1783190055.2949,1,1,2.0000,0.0000,1.44682,0.22833,-2.77875,0.97958,1.57080,0.00000,-0.14512,-0.38003,0.04524,,,,,,,,,,,,,,,,,,,,,,,,,,0,0,0,0,0
1.3892,1783190055.3032,1,1,2.0000,0.0000,1.44682,0.22823,-2.77877,0.97972,1.57080,0.00000,-0.14512,-0.38003,0.04521,,,,,,,,,,,,,,,,,,,,,,,,,,0,0,0,0,0
1.4016,1783190055.3156,1,1,2.0000,0.0000,1.44682,0.22809,-2.77881,0.97989,1.57080,0.00000,-0.14512,-0.38003,0.04517,,,,,,,,,,,,,,,,,,,,,,,,,,0,0,0,0,0
1.4157,1783190055.3296,1,1,2.0000,0.0000,1.44682,0.22793,-2.77885,0.98008,1.57080,0.00000,-0.14512,-0.38003,0.04513,,,,,,,,,,,,,,,,,,,,,,,,,,0,0,0,0,0
1.4266,1783190055.3406,1,1,2.0000,0.0000,1.44682,0.22780,-2.77888,0.98025,1.57080,0.00000,-0.14512,-0.38003,0.04510,,,,,,,,,,,,,,,,,,,,,,,,,,0,0,0,0,0
1.4296,1783190055.3436,1,1,2.0000,0.0000,1.44682,0.22773,-2.77890,0.98034,1.57080,0.00000,-0.14512,-0.38003,0.04508,,,,,,,,,,,,,,,,,,,,,,,,,,0,0,0,0,0
1.4300,1783190055.3440,1,1,2.0000,0.0000,1.44682,0.22773,-2.77890,0.98034,1.57080,0.00000,-0.14512,-0.38003,0.04508,,,,,,,,,,,,,,,,,,,,,,,,,,0,0,0,0,0
1.4389,1783190055.3528,1,1,2.0000,0.0000,1.44682,0.22772,-2.77890,0.98035,1.57080,0.00000,-0.14512,-0.38003,0.04508,,,,,,,,,,,,,,,,,,,,,,,,,,0,0,0,0,0
1.4531,1783190055.3670,1,1,2.0000,0.0000,1.44682,0.22751,-2.77896,0.98062,1.57080,0.00000,-0.14512,-0.38003,0.04502,,,,,,,,,,,,,,,,,,,,,,,,,,0,0,0,0,0
1.4642,1783190055.3782,1,1,2.0000,0.0000,1.44682,0.22737,-2.77899,0.98079,1.57080,0.00000,-0.14512,-0.38003,0.04499,,,,,,,,,,,,,,,,,,,,,,,,,,0,0,0,0,0
1.4703,1783190055.3842,1,1,2.0000,0.0000,1.44682,0.22736,-2.77899,0.98080,1.57080,0.00000,-0.14512,-0.38003,0.04499,,,,,,,,,,,,,,,,,,,,,,,,,,0,0,0,0,0
1.4708,1783190055.3848,1,1,2.0000,0.0000,1.44682,0.22736,-2.77899,0.98080,1.57080,0.00000,-0.14512,-0.38003,0.04499,,,,,,,,,,,,,,,,,,,,,,,,,,0,0,0,0,0
1.4800,1783190055.3939,1,1,2.0000,0.0000,1.44682,0.22725,-2.77902,0.98094,1.57080,0.00000,-0.14512,-0.38003,0.04496,,,,,,,,,,,,,,,,,,,,,,,,,,0,0,0,0,0
1.4803,1783190055.3943,1,1,2.0000,0.0000,1.44682,0.22725,-2.77902,0.98094,1.57080,0.00000,-0.14512,-0.38003,0.04496,,,,,,,,,,,,,,,,,,,,,,,,,,0,0,0,0,0
1.4891,1783190055.4031,1,1,2.0000,0.0000,1.44682,0.22714,-2.77905,0.98108,1.57080,0.00000,-0.14512,-0.38003,0.04493,,,,,,,,,,,,,,,,,,,,,,,,,,0,0,0,0,0
1.4895,1783190055.4034,1,1,2.0000,0.0000,1.44682,0.22714,-2.77905,0.98108,1.57080,0.00000,-0.14512,-0.38003,0.04493,,,,,,,,,,,,,,,,,,,,,,,,,,0,0,0,0,0
1.5001,1783190055.4141,1,1,2.0000,0.0000,1.44682,0.22709,-2.77906,0.98114,1.57080,0.00001,-0.14512,-0.38003,0.04492,,,,,,,,,,,,,,,,,,,,,,,,,,0,0,0,0,0
1.5116,1783190055.4256,1,1,2.0000,0.0000,1.44682,0.22691,-2.77911,0.98137,1.57080,0.00001,-0.14512,-0.38003,0.04487,,,,,,,,,,,,,,,,,,,,,,,,,,0,0,0,0,0
1.5187,1783190055.4327,1,1,2.0000,0.0000,1.44682,0.22684,-2.77913,0.98146,1.57080,0.00001,-0.14512,-0.38003,0.04485,,,,,,,,,,,,,,,,,,,,,,,,,,0,0,0,0,0
1.5194,1783190055.4333,1,1,2.0000,0.0000,1.44682,0.22677,-2.77914,0.98154,1.57080,0.00001,-0.14512,-0.38003,0.04483,,,,,,,,,,,,,,,,,,,,,,,,,,0,0,0,0,0
1.5291,1783190055.4430,1,1,2.0000,0.0000,1.44682,0.22676,-2.77915,0.98155,1.57080,0.00001,-0.14512,-0.38003,0.04483,,,,,,,,,,,,,,,,,,,,,,,,,,0,0,0,0,0
1.5409,1783190055.4548,1,1,2.0000,0.0000,1.44682,0.22665,-2.77917,0.98169,1.57080,0.00001,-0.14512,-0.38003,0.04480,,,,,,,,,,,,,,,,,,,,,,,,,,0,0,0,0,0
1.5517,1783190055.4656,1,1,2.0000,0.0000,1.44682,0.22654,-2.77920,0.98183,1.57080,0.00001,-0.14512,-0.38003,0.04477,,,,,,,,,,,,,,,,,,,,,,,,,,0,0,0,0,0
1.5520,1783190055.4659,1,1,2.0000,0.0000,1.44682,0.22654,-2.77920,0.98183,1.57080,0.00001,-0.14512,-0.38003,0.04477,,,,,,,,,,,,,,,,,,,,,,,,,,0,0,0,0,0
1.5665,1783190055.4805,1,1,2.0000,0.0000,1.44682,0.22644,-2.77923,0.98195,1.57080,0.00001,-0.14512,-0.38003,0.04475,,,,,,,,,,,,,,,,,,,,,,,,,,0,0,0,0,0
1.5669,1783190055.4808,1,1,2.0000,0.0000,1.44682,0.22644,-2.77923,0.98195,1.57080,0.00001,-0.14512,-0.38003,0.04475,,,,,,,,,,,,,,,,,,,,,,,,,,0,0,0,0,0
1.5767,1783190055.4907,1,1,2.0000,0.0000,1.44682,0.22624,-2.77928,0.98221,1.57080,0.00001,-0.14512,-0.38003,0.04469,,,,,,,,,,,,,,,,,,,,,,,,,,0,0,0,0,0
1.5770,1783190055.4910,1,1,2.0000,0.0000,1.44682,0.22624,-2.77928,0.98221,1.57080,0.00001,-0.14512,-0.38003,0.04469,,,,,,,,,,,,,,,,,,,,,,,,,,0,0,0,0,0
1.5787,1783190055.4927,1,1,2.0000,0.0000,1.44682,0.22624,-2.77928,0.98221,1.57080,0.00001,-0.14512,-0.38003,0.04469,,,,,,,,,,,,,,,,,,,,,,,,,,0,0,0,0,0
1.5790,1783190055.4929,1,1,2.0000,0.0000,1.44682,0.22624,-2.77928,0.98221,1.57080,0.00001,-0.14512,-0.38003,0.04469,,,,,,,,,,,,,,,,,,,,,,,,,,0,0,0,0,0
1.5902,1783190055.5041,1,1,2.0000,0.0000,1.44682,0.22616,-2.77930,0.98230,1.57080,0.00001,-0.14512,-0.38003,0.04467,,,,,,,,,,,,,,,,,,,,,,,,,,0,0,0,0,0
1.6065,1783190055.5205,1,1,2.0000,0.0000,1.44682,0.22600,-2.77934,0.98251,1.57080,0.00001,-0.14512,-0.38003,0.04463,,,,,,,,,,,,,,,,,,,,,,,,,,0,0,0,0,0
1.6144,1783190055.5284,1,1,2.0000,0.0000,1.44682,0.22594,-2.77935,0.98258,1.57080,0.00001,-0.14512,-0.38003,0.04462,,,,,,,,,,,,,,,,,,,,,,,,,,0,0,0,0,0
1.6209,1783190055.5349,1,1,2.0000,0.0000,1.44682,0.22590,-2.77936,0.98264,1.57080,0.00001,-0.14512,-0.38003,0.04461,,,,,,,,,,,,,,,,,,,,,,,,,,0,0,0,0,0
1.6213,1783190055.5352,1,1,2.0000,0.0000,1.44682,0.22590,-2.77936,0.98264,1.57080,0.00001,-0.14512,-0.38003,0.04461,,,,,,,,,,,,,,,,,,,,,,,,,,0,0,0,0,0
1.6287,1783190055.5427,1,1,2.0000,0.0000,1.44682,0.22578,-2.77939,0.98278,1.57080,0.00001,-0.14512,-0.38003,0.04458,,,,,,,,,,,,,,,,,,,,,,,,,,0,0,0,0,0
1.6290,1783190055.5429,1,1,2.0000,0.0000,1.44682,0.22578,-2.77939,0.98278,1.57080,0.00001,-0.14512,-0.38003,0.04458,,,,,,,,,,,,,,,,,,,,,,,,,,0,0,0,0,0
1.6438,1783190055.5577,1,1,2.0000,0.0000,1.44682,0.22557,-2.77945,0.98304,1.57080,0.00001,-0.14512,-0.38003,0.04452,,,,,,,,,,,,,,,,,,,,,,,,,,0,0,0,0,0
1.6441,1783190055.5580,1,1,2.0000,0.0000,1.44682,0.22557,-2.77945,0.98304,1.57080,0.00001,-0.14512,-0.38003,0.04452,,,,,,,,,,,,,,,,,,,,,,,,,,0,0,0,0,0
1.6510,1783190055.5650,1,1,2.0000,0.0000,1.44682,0.22556,-2.77945,0.98305,1.57080,0.00001,-0.14512,-0.38003,0.04452,,,,,,,,,,,,,,,,,,,,,,,,,,0,0,0,0,0
1.6600,1783190055.5740,1,1,2.0000,0.0000,1.44682,0.22546,-2.77948,0.98319,1.57080,0.00001,-0.14512,-0.38002,0.04449,,,,,,,,,,,,,,,,,,,,,,,,,,0,0,0,0,0
1.6603,1783190055.5742,1,1,2.0000,0.0000,1.44682,0.22546,-2.77948,0.98319,1.57080,0.00001,-0.14512,-0.38002,0.04449,,,,,,,,,,,,,,,,,,,,,,,,,,0,0,0,0,0
1.6742,1783190055.5882,1,1,2.0000,0.0000,1.44682,0.22534,-2.77950,0.98333,1.57080,0.00001,-0.14512,-0.38002,0.04446,,,,,,,,,,,,,,,,,,,,,,,,,,0,0,0,0,0
1.6792,1783190055.5931,1,1,2.0000,0.0000,1.44682,0.22533,-2.77951,0.98335,1.57080,0.00001,-0.14512,-0.38002,0.04446,,,,,,,,,,,,,,,,,,,,,,,,,,0,0,0,0,0
1.7150,1783190055.6290,1,1,2.0000,0.0000,1.44682,0.22494,-2.77961,0.98384,1.57080,0.00001,-0.14512,-0.38002,0.04436,,,,,,,,,,,,,,,,,,,,,,,,,,0,0,0,0,0
1.7158,1783190055.6298,1,1,2.0000,0.0000,1.44682,0.22490,-2.77962,0.98388,1.57080,0.00001,-0.14512,-0.38002,0.04435,,,,,,,,,,,,,,,,,,,,,,,,,,0,0,0,0,0
1.7206,1783190055.6345,1,1,2.0000,0.0000,1.44682,0.22486,-2.77963,0.98394,1.57080,0.00001,-0.14512,-0.38002,0.04434,,,,,,,,,,,,,,,,,,,,,,,,,,0,0,0,0,0
1.7208,1783190055.6348,1,1,2.0000,0.0000,1.44682,0.22486,-2.77963,0.98394,1.57080,0.00001,-0.14512,-0.38002,0.04434,,,,,,,,,,,,,,,,,,,,,,,,,,0,0,0,0,0
1.7212,1783190055.6352,1,1,2.0000,0.0000,1.44682,0.22486,-2.77963,0.98394,1.57080,0.00001,-0.14512,-0.38002,0.04434,,,,,,,,,,,,,,,,,,,,,,,,,,0,0,0,0,0
1.7215,1783190055.6354,1,1,2.0000,0.0000,1.44682,0.22486,-2.77963,0.98394,1.57080,0.00001,-0.14512,-0.38002,0.04434,,,,,,,,,,,,,,,,,,,,,,,,,,0,0,0,0,0
1.7305,1783190055.6445,1,1,2.0000,0.0000,1.44682,0.22474,-2.77966,0.98408,1.57080,0.00001,-0.14512,-0.38002,0.04431,,,,,,,,,,,,,,,,,,,,,,,,,,0,0,0,0,0
1.7309,1783190055.6449,1,1,2.0000,0.0000,1.44682,0.22474,-2.77966,0.98408,1.57080,0.00001,-0.14512,-0.38002,0.04431,,,,,,,,,,,,,,,,,,,,,,,,,,0,0,0,0,0
1.7388,1783190055.6527,1,1,2.0000,0.0000,1.44682,0.22473,-2.77966,0.98410,1.57080,0.00001,-0.14512,-0.38002,0.04430,,,,,,,,,,,,,,,,,,,,,,,,,,0,0,0,0,0
1.7391,1783190055.6530,1,1,2.0000,0.0000,1.44682,0.22473,-2.77966,0.98410,1.57080,0.00001,-0.14512,-0.38002,0.04430,,,,,,,,,,,,,,,,,,,,,,,,,,0,0,0,0,0
1.7495,1783190055.6635,1,1,2.0000,0.0000,1.44682,0.22458,-2.77970,0.98428,1.57080,0.00001,-0.14512,-0.38002,0.04427,,,,,,,,,,,,,,,,,,,,,,,,,,0,0,0,0,0
1.7500,1783190055.6639,1,1,2.0000,0.0000,1.44682,0.22458,-2.77970,0.98428,1.57080,0.00001,-0.14512,-0.38002,0.04427,,,,,,,,,,,,,,,,,,,,,,,,,,0,0,0,0,0
1.7592,1783190055.6731,1,1,2.0000,0.0000,1.44682,0.22444,-2.77973,0.98446,1.57080,0.00001,-0.14512,-0.38002,0.04423,,,,,,,,,,,,,,,,,,,,,,,,,,0,0,0,0,0
1.7600,1783190055.6740,1,1,2.0000,0.0000,1.44682,0.22437,-2.77975,0.98455,1.57080,0.00001,-0.14512,-0.38002,0.04421,,,,,,,,,,,,,,,,,,,,,,,,,,0,0,0,0,0
1.7729,1783190055.6869,1,1,2.0000,0.0000,1.44682,0.22434,-2.77976,0.98459,1.57080,0.00001,-0.14512,-0.38002,0.04420,,,,,,,,,,,,,,,,,,,,,,,,,,0,0,0,0,0
1.7852,1783190055.6992,1,1,2.0000,0.0000,1.44682,0.22420,-2.77979,0.98476,1.57080,0.00001,-0.14512,-0.38002,0.04417,,,,,,,,,,,,,,,,,,,,,,,,,,0,0,0,0,0
1.7904,1783190055.7044,1,1,2.0000,0.0000,1.44682,0.22414,-2.77981,0.98483,1.57080,0.00001,-0.14512,-0.38002,0.04415,,,,,,,,,,,,,,,,,,,,,,,,,,0,0,0,0,0
1.8029,1783190055.7169,1,1,2.0000,0.0000,1.44682,0.22410,-2.77982,0.98489,1.57080,0.00001,-0.14512,-0.38002,0.04414,,,,,,,,,,,,,,,,,,,,,,,,,,0,0,0,0,0
1.8036,1783190055.7176,1,1,2.0000,0.0000,1.44682,0.22410,-2.77982,0.98489,1.57080,0.00001,-0.14512,-0.38002,0.04414,,,,,,,,,,,,,,,,,,,,,,,,,,0,0,0,0,0
1.8196,1783190055.7335,1,1,2.0000,0.0000,1.44682,0.22384,-2.77988,0.98521,1.57080,0.00001,-0.14512,-0.38002,0.04407,,,,,,,,,,,,,,,,,,,,,,,,,,0,0,0,0,0
1.8219,1783190055.7358,1,1,2.0000,0.0000,1.44682,0.22377,-2.77990,0.98530,1.57080,0.00001,-0.14512,-0.38002,0.04406,,,,,,,,,,,,,,,,,,,,,,,,,,0,0,0,0,0
1.8334,1783190055.7474,1,1,2.0000,0.0000,1.44682,0.22374,-2.77991,0.98534,1.57080,0.00001,-0.14512,-0.38002,0.04405,,,,,,,,,,,,,,,,,,,,,,,,,,0,0,0,0,0
1.8400,1783190055.7539,1,1,2.0000,0.0000,1.44682,0.22370,-2.77992,0.98538,1.57080,0.00001,-0.14512,-0.38002,0.04404,,,,,,,,,,,,,,,,,,,,,,,,,,0,0,0,0,0
1.8406,1783190055.7545,1,1,2.0000,0.0000,1.44682,0.22366,-2.77993,0.98544,1.57080,0.00001,-0.14512,-0.38002,0.04403,,,,,,,,,,,,,,,,,,,,,,,,,,0,0,0,0,0
1.8492,1783190055.7632,1,1,2.0000,0.0000,1.44682,0.22354,-2.77996,0.98558,1.57080,0.00001,-0.14512,-0.38002,0.04400,,,,,,,,,,,,,,,,,,,,,,,,,,0,0,0,0,0
1.8605,1783190055.7745,1,1,2.0000,0.0000,1.44682,0.22350,-2.77997,0.98564,1.57080,0.00001,-0.14512,-0.38002,0.04399,,,,,,,,,,,,,,,,,,,,,,,,,,0,0,0,0,0
1.8771,1783190055.7910,1,1,2.0000,0.0000,1.44682,0.22324,-2.78003,0.98596,1.57080,0.00001,-0.14512,-0.38002,0.04392,,,,,,,,,,,,,,,,,,,,,,,,,,0,0,0,0,0
1.8789,1783190055.7929,1,1,2.0000,0.0000,1.44682,0.22324,-2.78003,0.98596,1.57080,0.00001,-0.14512,-0.38002,0.04392,,,,,,,,,,,,,,,,,,,,,,,,,,0,0,0,0,0
1.8915,1783190055.8055,1,1,2.0000,0.0000,1.44682,0.22316,-2.78005,0.98606,1.57080,0.00001,-0.14512,-0.38002,0.04390,,,,,,,,,,,,,,,,,,,,,,,,,,0,0,0,0,0
1.8999,1783190055.8138,1,1,2.0000,0.0000,1.44682,0.22310,-2.78007,0.98614,1.57080,0.00001,-0.14512,-0.38002,0.04388,,,,,,,,,,,,,,,,,,,,,,,,,,0,0,0,0,0
1.9007,1783190055.8147,1,1,2.0000,0.0000,1.44682,0.22305,-2.78008,0.98619,1.57080,0.00001,-0.14512,-0.38002,0.04387,,,,,,,,,,,,,,,,,,,,,,,,,,0,0,0,0,0
1.9100,1783190055.8239,1,1,2.0000,0.0000,1.44682,0.22294,-2.78011,0.98634,1.57080,0.00001,-0.14512,-0.38002,0.04384,,,,,,,,,,,,,,,,,,,,,,,,,,0,0,0,0,0
1.9207,1783190055.8347,1,1,2.0000,0.0000,1.44682,0.22289,-2.78012,0.98639,1.57080,0.00001,-0.14512,-0.38002,0.04383,,,,,,,,,,,,,,,,,,,,,,,,,,0,0,0,0,0
1.9209,1783190055.8349,1,1,2.0000,0.0000,1.44682,0.22289,-2.78012,0.98639,1.57080,0.00001,-0.14512,-0.38002,0.04383,,,,,,,,,,,,,,,,,,,,,,,,,,0,0,0,0,0
1.9355,1783190055.8495,1,1,2.0000,0.0000,1.44681,0.22271,-2.78017,0.98662,1.57080,0.00001,-0.14512,-0.38002,0.04378,,,,,,,,,,,,,,,,,,,,,,,,,,0,0,0,0,0
1.9428,1783190055.8567,1,1,2.0000,0.0000,1.44681,0.22257,-2.78020,0.98680,1.57080,0.00001,-0.14512,-0.38002,0.04375,,,,,,,,,,,,,,,,,,,,,,,,,,0,0,0,0,0
1.9544,1783190055.8684,1,1,2.0000,0.0000,1.44681,0.22254,-2.78021,0.98684,1.57080,0.00001,-0.14512,-0.38002,0.04374,,,,,,,,,,,,,,,,,,,,,,,,,,0,0,0,0,0
1.9630,1783190055.8769,1,1,2.0000,0.0000,1.44681,0.22245,-2.78023,0.98695,1.57080,0.00001,-0.14512,-0.38002,0.04372,,,,,,,,,,,,,,,,,,,,,,,,,,0,0,0,0,0
1.9782,1783190055.8922,1,1,2.0000,0.0000,1.44681,0.22233,-2.78026,0.98710,1.57080,0.00001,-0.14512,-0.38002,0.04368,,,,,,,,,,,,,,,,,,,,,,,,,,0,0,0,0,0
1.9831,1783190055.8970,1,1,2.0000,0.0000,1.44681,0.22229,-2.78027,0.98715,1.57080,0.00001,-0.14512,-0.38002,0.04368,,,,,,,,,,,,,,,,,,,,,,,,,,0,0,0,0,0
1.9935,1783190055.9075,1,1,2.0000,0.0000,1.44681,0.22211,-2.78032,0.98738,1.57080,0.00001,-0.14512,-0.38002,0.04363,,,,,,,,,,,,,,,,,,,,,,,,,,0,0,0,0,0
2.0061,1783190055.9201,1,1,2.0000,0.0000,1.44681,0.22197,-2.78035,0.98755,1.57080,0.00001,-0.14512,-0.38002,0.04359,,,,,,,,,,,,,,,,,,,,,,,,,,0,0,0,0,0
2.0149,1783190055.9289,1,1,2.0000,0.0000,1.44681,0.22192,-2.78036,0.98761,1.57080,0.00001,-0.14512,-0.38002,0.04358,,,,,,,,,,,,,,,,,,,,,,,,,,0,0,0,0,0
2.0302,1783190055.9441,1,1,2.0000,0.0000,1.44681,0.22167,-2.78043,0.98792,1.57080,0.00001,-0.14512,-0.38002,0.04352,,,,,,,,,,,,,,,,,,,,,,,,,,0,0,0,0,0
2.0461,1783190055.9600,1,1,2.0000,0.0000,1.44681,0.22158,-2.78045,0.98804,1.57080,0.00001,-0.14512,-0.38002,0.04349,,,,,,,,,,,,,,,,,,,,,,,,,,0,0,0,0,0
2.1140,1783190056.0280,1,1,2.0000,0.0000,1.44681,0.22079,-2.78065,0.98902,1.57080,0.00001,-0.14512,-0.38002,0.04329,,,,,,,,,,,,,,,,,,,,,,,,,,0,0,0,0,0
2.1144,1783190056.0284,1,1,2.0000,0.0000,1.44681,0.22079,-2.78065,0.98902,1.57080,0.00001,-0.14512,-0.38002,0.04329,,,,,,,,,,,,,,,,,,,,,,,,,,0,0,0,0,0
2.1148,1783190056.0288,1,1,2.0000,0.0000,1.44681,0.22079,-2.78065,0.98902,1.57080,0.00001,-0.14512,-0.38002,0.04329,,,,,,,,,,,,,,,,,,,,,,,,,,0,0,0,0,0
2.1152,1783190056.0292,1,1,2.0000,0.0000,1.44681,0.22079,-2.78065,0.98902,1.57080,0.00001,-0.14512,-0.38002,0.04329,,,,,,,,,,,,,,,,,,,,,,,,,,0,0,0,0,0
2.1157,1783190056.0296,1,1,2.0000,0.0000,1.44681,0.22079,-2.78065,0.98902,1.57080,0.00001,-0.14512,-0.38002,0.04329,,,,,,,,,,,,,,,,,,,,,,,,,,0,0,0,0,0
2.1162,1783190056.0302,1,1,2.0000,0.0000,1.44681,0.22072,-2.78066,0.98911,1.57080,0.00001,-0.14512,-0.38002,0.04327,,,,,,,,,,,,,,,,,,,,,,,,,,0,0,0,0,0
2.1296,1783190056.0436,1,1,2.0000,0.0000,1.44681,0.22064,-2.78068,0.98921,1.57080,0.00001,-0.14512,-0.38002,0.04325,,,,,,,,,,,,,,,,,,,,,,,,,,0,0,0,0,0
2.1339,1783190056.0479,1,1,2.0000,0.0000,1.44681,0.22061,-2.78069,0.98925,1.57080,0.00001,-0.14512,-0.38002,0.04324,,,,,,,,,,,,,,,,,,,,,,,,,,0,0,0,0,0
2.1342,1783190056.0482,1,1,2.0000,0.0000,1.44681,0.22061,-2.78069,0.98925,1.57080,0.00001,-0.14512,-0.38002,0.04324,,,,,,,,,,,,,,,,,,,,,,,,,,0,0,0,0,0
2.1500,1783190056.0639,1,1,2.0000,0.0000,1.44681,0.22036,-2.78075,0.98957,1.57080,0.00001,-0.14512,-0.38002,0.04318,,,,,,,,,,,,,,,,,,,,,,,,,,0,0,0,0,0
2.1676,1783190056.0815,1,1,2.0000,0.0000,1.44681,0.22026,-2.78078,0.98968,1.57080,0.00001,-0.14512,-0.38002,0.04315,,,,,,,,,,,,,,,,,,,,,,,,,,0,0,0,0,0
2.1684,1783190056.0824,1,1,2.0000,0.0000,1.44681,0.22020,-2.78079,0.98976,1.57080,0.00001,-0.14512,-0.38002,0.04314,,,,,,,,,,,,,,,,,,,,,,,,,,0,0,0,0,0
2.1863,1783190056.1003,1,1,2.0000,0.0000,1.44681,0.21999,-2.78084,0.99002,1.57080,0.00001,-0.14512,-0.38002,0.04308,,,,,,,,,,,,,,,,,,,,,,,,,,0,0,0,0,0
2.1867,1783190056.1006,1,1,2.0000,0.0000,1.44681,0.21999,-2.78084,0.99002,1.57080,0.00001,-0.14512,-0.38002,0.04308,,,,,,,,,,,,,,,,,,,,,,,,,,0,0,0,0,0
2.1941,1783190056.1080,1,1,2.0000,0.0000,1.44681,0.21995,-2.78086,0.99007,1.57080,0.00001,-0.14512,-0.38002,0.04307,,,,,,,,,,,,,,,,,,,,,,,,,,0,0,0,0,0
2.2271,1783190056.1411,1,1,2.0000,0.0000,1.44681,0.21960,-2.78094,0.99051,1.57080,0.00001,-0.14512,-0.38002,0.04298,,,,,,,,,,,,,,,,,,,,,,,,,,0,0,0,0,0
2.2430,1783190056.1570,1,1,2.0000,0.0000,1.44681,0.21933,-2.78101,0.99084,1.57080,0.00001,-0.14512,-0.38002,0.04292,,,,,,,,,,,,,,,,,,,,,,,,,,0,0,0,0,0
2.2433,1783190056.1573,1,1,2.0000,0.0000,1.44681,0.21933,-2.78101,0.99084,1.57080,0.00001,-0.14512,-0.38002,0.04292,,,,,,,,,,,,,,,,,,,,,,,,,,0,0,0,0,0
2.2440,1783190056.1579,1,1,2.0000,0.0000,1.44681,0.21933,-2.78101,0.99084,1.57080,0.00001,-0.14512,-0.38002,0.04292,,,,,,,,,,,,,,,,,,,,,,,,,,0,0,0,0,0
2.2501,1783190056.1640,1,1,2.0000,0.0000,1.44681,0.21932,-2.78101,0.99086,1.57080,0.00001,-0.14512,-0.38002,0.04291,,,,,,,,,,,,,,,,,,,,,,,,,,0,0,0,0,0
2.2900,1783190056.2040,1,1,2.0000,0.0000,1.44681,0.21890,-2.78112,0.99138,1.57080,0.00001,-0.14512,-0.38002,0.04280,,,,,,,,,,,,,,,,,,,,,,,,,,0,0,0,0,0
2.2928,1783190056.2068,1,1,2.0000,0.0000,1.44681,0.21885,-2.78113,0.99144,1.57080,0.00001,-0.14512,-0.38002,0.04279,,,,,,,,,,,,,,,,,,,,,,,,,,0,0,0,0,0
2.2932,1783190056.2072,1,1,2.0000,0.0000,1.44681,0.21885,-2.78113,0.99144,1.57080,0.00001,-0.14512,-0.38002,0.04279,,,,,,,,,,,,,,,,,,,,,,,,,,0,0,0,0,0
2.2937,1783190056.2076,1,1,2.0000,0.0000,1.44681,0.21885,-2.78113,0.99144,1.57080,0.00001,-0.14512,-0.38002,0.04279,,,,,,,,,,,,,,,,,,,,,,,,,,0,0,0,0,0
2.2941,1783190056.2081,1,1,2.0000,0.0000,1.44681,0.21885,-2.78113,0.99144,1.57080,0.00001,-0.14512,-0.38002,0.04279,,,,,,,,,,,,,,,,,,,,,,,,,,0,0,0,0,0
2.3029,1783190056.2168,1,1,2.0000,0.0000,1.44681,0.21874,-2.78116,0.99159,1.57080,0.00001,-0.14512,-0.38002,0.04276,,,,,,,,,,,,,,,,,,,,,,,,,,0,0,0,0,0
2.3150,1783190056.2290,1,1,2.0000,0.0000,1.44681,0.21869,-2.78117,0.99165,1.57080,0.00001,-0.14512,-0.38002,0.04275,,,,,,,,,,,,,,,,,,,,,,,,,,0,0,0,0,0
2.3153,1783190056.2293,1,1,2.0000,0.0000,1.44681,0.21869,-2.78117,0.99165,1.57080,0.00001,-0.14512,-0.38002,0.04275,,,,,,,,,,,,,,,,,,,,,,,,,,0,0,0,0,0
2.3349,1783190056.2489,1,1,2.0000,0.0000,1.44681,0.21836,-2.78125,0.99205,1.57080,0.00001,-0.14512,-0.38002,0.04267,,,,,,,,,,,,,,,,,,,,,,,,,,0,0,0,0,0
2.3452,1783190056.2592,1,1,2.0000,0.0000,1.44681,0.21833,-2.78126,0.99209,1.57080,0.00001,-0.14512,-0.38002,0.04266,,,,,,,,,,,,,,,,,,,,,,,,,,0,0,0,0,0
2.3458,1783190056.2598,1,1,2.0000,0.0000,1.44681,0.21833,-2.78126,0.99209,1.57080,0.00001,-0.14512,-0.38002,0.04266,,,,,,,,,,,,,,,,,,,,,,,,,,0,0,0,0,0
2.3528,1783190056.2668,1,1,2.0000,0.0000,1.44681,0.21825,-2.78128,0.99220,1.57080,0.00001,-0.14512,-0.38002,0.04264,,,,,,,,,,,,,,,,,,,,,,,,,,0,0,0,0,0
2.3690,1783190056.2829,1,1,2.0000,0.0000,1.44681,0.21812,-2.78131,0.99236,1.57080,0.00001,-0.14512,-0.38002,0.04260,,,,,,,,,,,,,,,,,,,,,,,,,,0,0,0,0,0
2.3748,1783190056.2888,1,1,2.0000,0.0000,1.44681,0.21808,-2.78132,0.99240,1.57080,0.00001,-0.14512,-0.38002,0.04259,,,,,,,,,,,,,,,,,,,,,,,,,,0,0,0,0,0
2.3865,1783190056.3005,1,1,2.0000,0.0000,1.44681,0.21790,-2.78136,0.99263,1.57080,0.00001,-0.14512,-0.38002,0.04255,,,,,,,,,,,,,,,,,,,,,,,,,,0,0,0,0,0
2.3955,1783190056.3095,1,1,2.0000,0.0000,1.44681,0.21776,-2.78140,0.99281,1.57080,0.00001,-0.14512,-0.38002,0.04251,,,,,,,,,,,,,,,,,,,,,,,,,,0,0,0,0,0
2.4027,1783190056.3166,1,1,2.0000,0.0000,1.44681,0.21775,-2.78140,0.99282,1.57080,0.00001,-0.14512,-0.38002,0.04251,,,,,,,,,,,,,,,,,,,,,,,,,,0,0,0,0,0
2.4030,1783190056.3169,1,1,2.0000,0.0000,1.44681,0.21775,-2.78140,0.99282,1.57080,0.00001,-0.14512,-0.38002,0.04251,,,,,,,,,,,,,,,,,,,,,,,,,,0,0,0,0,0
2.4265,1783190056.3405,1,1,2.0000,0.0000,1.44681,0.21753,-2.78146,0.99310,1.57080,0.00001,-0.14512,-0.38002,0.04245,,,,,,,,,,,,,,,,,,,,,,,,,,0,0,0,0,0
2.4382,1783190056.3522,1,1,2.0000,0.0000,1.44681,0.21743,-2.78148,0.99322,1.57080,0.00001,-0.14512,-0.38002,0.04243,,,,,,,,,,,,,,,,,,,,,,,,,,0,0,0,0,0
2.4385,1783190056.3524,1,1,2.0000,0.0000,1.44681,0.21743,-2.78148,0.99322,1.57080,0.00001,-0.14512,-0.38002,0.04243,,,,,,,,,,,,,,,,,,,,,,,,,,0,0,0,0,0
2.4482,1783190056.3621,1,1,2.0000,0.0000,1.44681,0.21722,-2.78153,0.99348,1.57080,0.00001,-0.14512,-0.38002,0.04237,,,,,,,,,,,,,,,,,,,,,,,,,,0,0,0,0,0
2.4586,1783190056.3726,1,1,2.0000,0.0000,1.44681,0.21715,-2.78155,0.99357,1.57080,0.00001,-0.14512,-0.38002,0.04236,,,,,,,,,,,,,,,,,,,,,,,,,,0,0,0,0,0
2.4687,1783190056.3827,1,1,2.0000,0.0000,1.44681,0.21708,-2.78157,0.99365,1.57080,0.00001,-0.14512,-0.38002,0.04234,,,,,,,,,,,,,,,,,,,,,,,,,,0,0,0,0,0
2.4692,1783190056.3831,1,1,2.0000,0.0000,1.44681,0.21708,-2.78157,0.99365,1.57080,0.00001,-0.14512,-0.38002,0.04234,,,,,,,,,,,,,,,,,,,,,,,,,,0,0,0,0,0
2.4897,1783190056.4036,1,1,2.0000,0.0000,1.44681,0.21691,-2.78161,0.99387,1.57080,0.00001,-0.14512,-0.38002,0.04229,,,,,,,,,,,,,,,,,,,,,,,,,,0,0,0,0,0
2.4961,1783190056.4101,1,1,2.0000,0.0000,1.44681,0.21682,-2.78163,0.99398,1.57080,0.00001,-0.14512,-0.38002,0.04227,,,,,,,,,,,,,,,,,,,,,,,,,,0,0,0,0,0
2.4964,1783190056.4104,1,1,2.0000,0.0000,1.44681,0.21682,-2.78163,0.99398,1.57080,0.00001,-0.14512,-0.38002,0.04227,,,,,,,,,,,,,,,,,,,,,,,,,,0,0,0,0,0
2.5130,1783190056.4269,1,1,2.0000,0.0000,1.44681,0.21654,-2.78170,0.99432,1.57080,0.00001,-0.14512,-0.38002,0.04220,,,,,,,,,,,,,,,,,,,,,,,,,,0,0,0,0,0
2.5132,1783190056.4272,1,1,2.0000,0.0000,1.44681,0.21654,-2.78170,0.99432,1.57080,0.00001,-0.14512,-0.38002,0.04220,,,,,,,,,,,,,,,,,,,,,,,,,,0,0,0,0,0
2.5136,1783190056.4275,1,1,2.0000,0.0000,1.44681,0.21654,-2.78170,0.99432,1.57080,0.00001,-0.14512,-0.38002,0.04220,,,,,,,,,,,,,,,,,,,,,,,,,,0,0,0,0,0
2.5281,1783190056.4421,1,1,2.0000,0.0000,1.44681,0.21647,-2.78171,0.99441,1.57080,0.00001,-0.14512,-0.38002,0.04218,,,,,,,,,,,,,,,,,,,,,,,,,,0,0,0,0,0
2.5389,1783190056.4529,1,1,2.0000,0.0000,1.44681,0.21637,-2.78174,0.99454,1.57080,0.00001,-0.14512,-0.38002,0.04216,,,,,,,,,,,,,,,,,,,,,,,,,,0,0,0,0,0
2.5481,1783190056.4621,1,1,2.0000,0.0000,1.44681,0.21630,-2.78176,0.99463,1.57080,0.00001,-0.14512,-0.38002,0.04214,,,,,,,,,,,,,,,,,,,,,,,,,,0,0,0,0,0
2.5549,1783190056.4689,1,1,2.0000,0.0000,1.44681,0.21626,-2.78177,0.99467,1.57080,0.00001,-0.14512,-0.38002,0.04213,,,,,,,,,,,,,,,,,,,,,,,,,,0,0,0,0,0
2.5769,1783190056.4908,1,1,2.0000,0.0000,1.44681,0.21594,-2.78185,0.99508,1.57080,0.00001,-0.14512,-0.38002,0.04205,,,,,,,,,,,,,,,,,,,,,,,,,,0,0,0,0,0
2.5771,1783190056.4911,1,1,2.0000,0.0000,1.44681,0.21594,-2.78185,0.99508,1.57080,0.00001,-0.14512,-0.38002,0.04205,,,,,,,,,,,,,,,,,,,,,,,,,,0,0,0,0,0
2.5877,1783190056.5016,1,1,2.0000,0.0000,1.44681,0.21590,-2.78186,0.99512,1.57080,0.00001,-0.14512,-0.38002,0.04204,,,,,,,,,,,,,,,,,,,,,,,,,,0,0,0,0,0
2.5960,1783190056.5100,1,1,2.0000,0.0000,1.44681,0.21576,-2.78189,0.99529,1.57080,0.00001,-0.14512,-0.38002,0.04200,,,,,,,,,,,,,,,,,,,,,,,,,,0,0,0,0,0
2.6041,1783190056.5181,1,1,2.0000,0.0000,1.44681,0.21570,-2.78190,0.99537,1.57080,0.00001,-0.14512,-0.38002,0.04199,,,,,,,,,,,,,,,,,,,,,,,,,,0,0,0,0,0
2.6125,1783190056.5265,1,1,2.0000,0.0000,1.44681,0.21566,-2.78192,0.99543,1.57080,0.00001,-0.14512,-0.38002,0.04197,,,,,,,,,,,,,,,,,,,,,,,,,,0,0,0,0,0
2.6129,1783190056.5269,1,1,2.0000,0.0000,1.44681,0.21566,-2.78192,0.99543,1.57080,0.00001,-0.14512,-0.38002,0.04197,,,,,,,,,,,,,,,,,,,,,,,,,,0,0,0,0,0
2.6227,1783190056.5366,1,1,2.0000,0.0000,1.44681,0.21554,-2.78194,0.99557,1.57080,0.00001,-0.14512,-0.38002,0.04195,,,,,,,,,,,,,,,,,,,,,,,,,,0,0,0,0,0
2.6364,1783190056.5504,1,1,2.0000,0.0000,1.44681,0.21533,-2.78200,0.99584,1.57080,0.00001,-0.14512,-0.38002,0.04189,,,,,,,,,,,,,,,,,,,,,,,,,,0,0,0,0,0
2.6453,1783190056.5593,1,1,2.0000,0.0000,1.44681,0.21528,-2.78201,0.99589,1.57080,0.00001,-0.14512,-0.38002,0.04188,,,,,,,,,,,,,,,,,,,,,,,,,,0,0,0,0,0
2.6457,1783190056.5597,1,1,2.0000,0.0000,1.44681,0.21528,-2.78201,0.99589,1.57080,0.00001,-0.14512,-0.38002,0.04188,,,,,,,,,,,,,,,,,,,,,,,,,,0,0,0,0,0
2.6532,1783190056.5672,1,1,2.0000,0.0000,1.44681,0.21517,-2.78203,0.99603,1.57080,0.00001,-0.14512,-0.38002,0.04185,,,,,,,,,,,,,,,,,,,,,,,,,,0,0,0,0,0
2.6535,1783190056.5675,1,1,2.0000,0.0000,1.44681,0.21517,-2.78203,0.99603,1.57080,0.00001,-0.14512,-0.38002,0.04185,,,,,,,,,,,,,,,,,,,,,,,,,,0,0,0,0,0
2.6664,1783190056.5804,1,1,2.0000,0.0000,1.44681,0.21503,-2.78207,0.99621,1.57080,0.00001,-0.14512,-0.38002,0.04181,,,,,,,,,,,,,,,,,,,,,,,,,,0,0,0,0,0
2.6729,1783190056.5869,1,1,2.0000,0.0000,1.44681,0.21498,-2.78208,0.99626,1.57080,0.00001,-0.14512,-0.38002,0.04180,,,,,,,,,,,,,,,,,,,,,,,,,,0,0,0,0,0
2.6733,1783190056.5873,1,1,2.0000,0.0000,1.44681,0.21498,-2.78208,0.99626,1.57080,0.00001,-0.14512,-0.38002,0.04180,,,,,,,,,,,,,,,,,,,,,,,,,,0,0,0,0,0
2.6828,1783190056.5967,1,1,2.0000,0.0000,1.44681,0.21487,-2.78211,0.99640,1.57080,0.00001,-0.14512,-0.38002,0.04178,,,,,,,,,,,,,,,,,,,,,,,,,,0,0,0,0,0
2.6940,1783190056.6079,1,1,2.0000,0.0000,1.44681,0.21466,-2.78216,0.99666,1.57080,0.00001,-0.14512,-0.38002,0.04172,,,,,,,,,,,,,,,,,,,,,,,,,,0,0,0,0,0
2.7046,1783190056.6185,1,1,2.0000,0.0000,1.44681,0.21462,-2.78217,0.99672,1.57080,0.00001,-0.14512,-0.38002,0.04171,,,,,,,,,,,,,,,,,,,,,,,,,,0,0,0,0,0
2.7172,1783190056.6311,1,1,2.0000,0.0000,1.44681,0.21444,-2.78221,0.99694,1.57080,0.00002,-0.14512,-0.38002,0.04166,,,,,,,,,,,,,,,,,,,,,,,,,,0,0,0,0,0
2.7243,1783190056.6382,1,1,2.0000,0.0000,1.44681,0.21437,-2.78223,0.99703,1.57080,0.00002,-0.14512,-0.38002,0.04165,,,,,,,,,,,,,,,,,,,,,,,,,,0,0,0,0,0
2.7247,1783190056.6387,1,1,2.0000,0.0000,1.44681,0.21437,-2.78223,0.99703,1.57080,0.00002,-0.14512,-0.38002,0.04165,,,,,,,,,,,,,,,,,,,,,,,,,,0,0,0,0,0
2.7329,1783190056.6469,1,1,2.0000,0.0000,1.44681,0.21432,-2.78224,0.99709,1.57080,0.00002,-0.14512,-0.38002,0.04163,,,,,,,,,,,,,,,,,,,,,,,,,,0,0,0,0,0
2.7333,1783190056.6473,1,1,2.0000,0.0000,1.44681,0.21432,-2.78224,0.99709,1.57080,0.00002,-0.14512,-0.38002,0.04163,,,,,,,,,,,,,,,,,,,,,,,,,,0,0,0,0,0
2.7437,1783190056.6576,1,1,2.0000,0.0000,1.44681,0.21421,-2.78227,0.99723,1.57080,0.00002,-0.14512,-0.38002,0.04161,,,,,,,,,,,,,,,,,,,,,,,,,,0,0,0,0,0
2.7547,1783190056.6687,1,1,2.0000,0.0000,1.44681,0.21400,-2.78232,0.99749,1.57080,0.00002,-0.14512,-0.38002,0.04155,,,,,,,,,,,,,,,,,,,,,,,,,,0,0,0,0,0
2.7647,1783190056.6786,1,1,2.0000,0.0000,1.44681,0.21395,-2.78233,0.99754,1.57080,0.00002,-0.14512,-0.38002,0.04154,,,,,,,,,,,,,,,,,,,,,,,,,,0,0,0,0,0
2.7651,1783190056.6791,1,1,2.0000,0.0000,1.44681,0.21395,-2.78233,0.99754,1.57080,0.00002,-0.14512,-0.38002,0.04154,,,,,,,,,,,,,,,,,,,,,,,,,,0,0,0,0,0
2.7764,1783190056.6904,1,1,2.0000,0.0000,1.44681,0.21377,-2.78238,0.99777,1.57080,0.00002,-0.14512,-0.38002,0.04150,,,,,,,,,,,,,,,,,,,,,,,,,,0,0,0,0,0
2.7848,1783190056.6988,1,1,2.0000,0.0000,1.44681,0.21370,-2.78239,0.99786,1.57080,0.00002,-0.14512,-0.38002,0.04148,,,,,,,,,,,,,,,,,,,,,,,,,,0,0,0,0,0
2.7955,1783190056.7094,1,1,2.0000,0.0000,1.44681,0.21366,-2.78240,0.99791,1.57080,0.00002,-0.14512,-0.38002,0.04147,,,,,,,,,,,,,,,,,,,,,,,,,,0,0,0,0,0
2.8041,1783190056.7181,1,1,2.0000,0.0000,1.44681,0.21348,-2.78245,0.99814,1.57080,0.00002,-0.14512,-0.38002,0.04142,,,,,,,,,,,,,,,,,,,,,,,,,,0,0,0,0,0
2.8143,1783190056.7282,1,1,2.0000,0.0000,1.44681,0.21334,-2.78248,0.99831,1.57080,0.00002,-0.14512,-0.38002,0.04138,,,,,,,,,,,,,,,,,,,,,,,,,,0,0,0,0,0
2.8263,1783190056.7402,1,1,2.0000,0.0000,1.44681,0.21329,-2.78249,0.99837,1.57080,0.00002,-0.14512,-0.38002,0.04137,,,,,,,,,,,,,,,,,,,,,,,,,,0,0,0,0,0
2.8354,1783190056.7494,1,1,2.0000,0.0000,1.44681,0.21318,-2.78252,0.99851,1.57080,0.00002,-0.14512,-0.38002,0.04134,,,,,,,,,,,,,,,,,,,,,,,,,,0,0,0,0,0
2.8360,1783190056.7500,1,1,2.0000,0.0000,1.44681,0.21311,-2.78254,0.99860,1.57080,0.00002,-0.14512,-0.38002,0.04133,,,,,,,,,,,,,,,,,,,,,,,,,,0,0,0,0,0
2.8453,1783190056.7593,1,1,2.0000,0.0000,1.44681,0.21304,-2.78256,0.99869,1.57080,0.00002,-0.14512,-0.38002,0.04131,,,,,,,,,,,,,,,,,,,,,,,,,,0,0,0,0,0
2.8572,1783190056.7711,1,1,2.0000,0.0000,1.44681,0.21294,-2.78258,0.99880,1.57080,0.00002,-0.14512,-0.38002,0.04128,,,,,,,,,,,,,,,,,,,,,,,,,,0,0,0,0,0
2.8644,1783190056.7783,1,1,2.0000,0.0000,1.44681,0.21281,-2.78261,0.99897,1.57080,0.00002,-0.14512,-0.38002,0.04125,,,,,,,,,,,,,,,,,,,,,,,,,,0,0,0,0,0
2.8753,1783190056.7893,1,1,2.0000,0.0000,1.44681,0.21267,-2.78264,0.99914,1.57080,0.00002,-0.14512,-0.38002,0.04121,,,,,,,,,,,,,,,,,,,,,,,,,,0,0,0,0,0
2.8757,1783190056.7897,1,1,2.0000,0.0000,1.44681,0.21267,-2.78264,0.99914,1.57080,0.00002,-0.14512,-0.38002,0.04121,,,,,,,,,,,,,,,,,,,,,,,,,,0,0,0,0,0
2.8851,1783190056.7991,1,1,2.0000,0.0000,1.44681,0.21262,-2.78266,0.99920,1.57080,0.00002,-0.14512,-0.38002,0.04120,,,,,,,,,,,,,,,,,,,,,,,,,,0,0,0,0,0
2.8855,1783190056.7995,1,1,2.0000,0.0000,1.44681,0.21262,-2.78266,0.99920,1.57080,0.00002,-0.14512,-0.38002,0.04120,,,,,,,,,,,,,,,,,,,,,,,,,,0,0,0,0,0
2.8980,1783190056.8120,1,1,2.0000,0.0000,1.44681,0.21244,-2.78270,0.99942,1.57080,0.00002,-0.14512,-0.38002,0.04116,,,,,,,,,,,,,,,,,,,,,,,,,,0,0,0,0,0
2.9044,1783190056.8183,1,1,2.0000,0.0000,1.44681,0.21230,-2.78273,0.99960,1.57080,0.00002,-0.14512,-0.38002,0.04112,,,,,,,,,,,,,,,,,,,,,,,,,,0,0,0,0,0
2.9048,1783190056.8187,1,1,2.0000,0.0000,1.44681,0.21230,-2.78273,0.99960,1.57080,0.00002,-0.14512,-0.38002,0.04112,,,,,,,,,,,,,,,,,,,,,,,,,,0,0,0,0,0
2.9129,1783190056.8268,1,1,2.0000,0.0000,1.44681,0.21229,-2.78274,0.99961,1.57080,0.00002,-0.14512,-0.38002,0.04112,,,,,,,,,,,,,,,,,,,,,,,,,,0,0,0,0,0
2.9242,1783190056.8382,1,1,2.0000,0.0000,1.44681,0.21218,-2.78276,0.99975,1.57080,0.00002,-0.14512,-0.38002,0.04109,,,,,,,,,,,,,,,,,,,,,,,,,,0,0,0,0,0
2.9329,1783190056.8469,1,1,2.0000,0.0000,1.44681,0.21207,-2.78279,0.99989,1.57080,0.00002,-0.14512,-0.38002,0.04106,,,,,,,,,,,,,,,,,,,,,,,,,,0,0,0,0,0
2.9449,1783190056.8589,1,1,2.0000,0.0000,1.44681,0.21202,-2.78280,0.99995,1.57080,0.00002,-0.14512,-0.38002,0.04105,,,,,,,,,,,,,,,,,,,,,,,,,,0,0,0,0,0
2.9530,1783190056.8670,1,1,2.0000,0.0000,1.44681,0.21190,-2.78283,1.00009,1.57080,0.00002,-0.14512,-0.38002,0.04102,,,,,,,,,,,,,,,,,,,,,,,,,,0,0,0,0,0
2.9630,1783190056.8769,1,1,2.0000,0.0000,1.44681,0.21176,-2.78287,1.00027,1.57080,0.00002,-0.14512,-0.38002,0.04098,,,,,,,,,,,,,,,,,,,,,,,,,,0,0,0,0,0
2.9737,1783190056.8877,1,1,2.0000,0.0000,1.44681,0.21168,-2.78289,1.00037,1.57080,0.00002,-0.14512,-0.38002,0.04096,,,,,,,,,,,,,,,,,,,,,,,,,,0,0,0,0,0
2.9831,1783190056.8971,1,1,2.0000,0.0000,1.44681,0.21162,-2.78290,1.00045,1.57080,0.00002,-0.14512,-0.38002,0.04095,,,,,,,,,,,,,,,,,,,,,,,,,,0,0,0,0,0
2.9983,1783190056.9123,1,1,2.0000,0.0000,1.44681,0.21145,-2.78294,1.00065,1.57080,0.00002,-0.14512,-0.38002,0.04091,,,,,,,,,,,,,,,,,,,,,,,,,,0,0,0,0,0
3.0050,1783190056.9190,1,1,2.0000,0.0000,1.44681,0.21141,-2.78295,1.00071,1.57080,0.00002,-0.14512,-0.38002,0.04089,,,,,,,,,,,,,,,,,,,,,,,,,,0,0,0,0,0
3.0130,1783190056.9270,1,1,2.0000,0.0000,1.44681,0.21129,-2.78298,1.00085,1.57080,0.00002,-0.14512,-0.38002,0.04086,,,,,,,,,,,,,,,,,,,,,,,,,,0,0,0,0,0
3.0228,1783190056.9368,1,1,2.0000,0.0000,1.44681,0.21115,-2.78301,1.00103,1.57080,0.00002,-0.14512,-0.38002,0.04083,,,,,,,,,,,,,,,,,,,,,,,,,,0,0,0,0,0
3.0343,1783190056.9483,1,1,2.0000,0.0000,1.44681,0.21107,-2.78303,1.00113,1.57080,0.00002,-0.14512,-0.38002,0.04081,,,,,,,,,,,,,,,,,,,,,,,,,,0,0,0,0,0
3.0459,1783190056.9598,1,1,2.0000,0.0000,1.44681,0.21096,-2.78306,1.00127,1.57080,0.00002,-0.14512,-0.38002,0.04078,,,,,,,,,,,,,,,,,,,,,,,,,,0,0,0,0,0
3.0535,1783190056.9674,1,1,2.0000,0.0000,1.44681,0.21084,-2.78309,1.00141,1.57080,0.00002,-0.14512,-0.38002,0.04075,,,,,,,,,,,,,,,,,,,,,,,,,,0,0,0,0,0
3.0631,1783190056.9770,1,1,2.0000,0.0000,1.44681,0.21083,-2.78309,1.00143,1.57080,0.00002,-0.14512,-0.38002,0.04075,,,,,,,,,,,,,,,,,,,,,,,,,,0,0,0,0,0
3.0775,1783190056.9915,1,1,2.0000,0.0000,1.44681,0.21061,-2.78314,1.00170,1.57080,0.00002,-0.14512,-0.38002,0.04069,,,,,,,,,,,,,,,,,,,,,,,,,,0,0,0,0,0
3.0849,1783190056.9989,1,1,2.0000,0.0000,1.44681,0.21046,-2.78318,1.00188,1.57080,0.00002,-0.14512,-0.38002,0.04066,,,,,,,,,,,,,,,,,,,,,,,,,,0,0,0,0,0
3.1069,1783190057.0208,1,1,2.0000,0.0000,1.44681,0.21035,-2.78321,1.00203,1.57080,0.00002,-0.14512,-0.38002,0.04063,,,,,,,,,,,,,,,,,,,,,,,,,,0,0,0,0,0
3.1073,1783190057.0213,1,1,2.0000,0.0000,1.44681,0.21035,-2.78321,1.00203,1.57080,0.00002,-0.14512,-0.38002,0.04063,,,,,,,,,,,,,,,,,,,,,,,,,,0,0,0,0,0
3.1132,1783190057.0272,1,1,2.0000,0.0000,1.44681,0.21023,-2.78324,1.00217,1.57080,0.00002,-0.14512,-0.38002,0.04060,,,,,,,,,,,,,,,,,,,,,,,,,,0,0,0,0,0
3.1229,1783190057.0369,1,1,2.0000,0.0000,1.44681,0.21022,-2.78324,1.00219,1.57080,0.00002,-0.14512,-0.38002,0.04059,,,,,,,,,,,,,,,,,,,,,,,,,,0,0,0,0,0
3.1328,1783190057.0468,1,1,2.0000,0.0000,1.44681,0.21007,-2.78328,1.00237,1.57080,0.00002,-0.14512,-0.38002,0.04055,,,,,,,,,,,,,,,,,,,,,,,,,,0,0,0,0,0
3.1541,1783190057.0680,1,1,2.0000,0.0000,1.44681,0.20984,-2.78333,1.00265,1.57080,0.00002,-0.14512,-0.38002,0.04050,,,,,,,,,,,,,,,,,,,,,,,,,,0,0,0,0,0
3.1563,1783190057.0702,1,1,2.0000,0.0000,1.44681,0.20982,-2.78334,1.00268,1.57080,0.00002,-0.14512,-0.38002,0.04049,,,,,,,,,,,,,,,,,,,,,,,,,,0,0,0,0,0
3.1628,1783190057.0767,1,1,2.0000,0.0000,1.44680,0.20978,-2.78334,1.00273,1.57080,0.00002,-0.14512,-0.38002,0.04048,,,,,,,,,,,,,,,,,,,,,,,,,,0,0,0,0,0
3.1748,1783190057.0888,1,1,2.0000,0.0000,1.44680,0.20962,-2.78338,1.00293,1.57080,0.00002,-0.14512,-0.38002,0.04044,,,,,,,,,,,,,,,,,,,,,,,,,,0,0,0,0,0
3.1752,1783190057.0891,1,1,2.0000,0.0000,1.44680,0.20962,-2.78338,1.00293,1.57080,0.00002,-0.14512,-0.38002,0.04044,,,,,,,,,,,,,,,,,,,,,,,,,,0,0,0,0,0
3.1889,1783190057.1029,1,1,2.0000,0.0000,1.44680,0.20952,-2.78341,1.00306,1.57079,0.00002,-0.14512,-0.38002,0.04042,,,,,,,,,,,,,,,,,,,,,,,,,,0,0,0,0,0
3.1948,1783190057.1087,1,1,2.0000,0.0000,1.44680,0.20945,-2.78342,1.00313,1.57079,0.00002,-0.14512,-0.38002,0.04040,,,,,,,,,,,,,,,,,,,,,,,,,,0,0,0,0,0
3.2050,1783190057.1190,1,1,2.0000,0.0000,1.44680,0.20924,-2.78347,1.00340,1.57079,0.00002,-0.14512,-0.38002,0.04035,,,,,,,,,,,,,,,,,,,,,,,,,,0,0,0,0,0
3.2132,1783190057.1272,1,1,2.0000,0.0000,1.44680,0.20923,-2.78348,1.00341,1.57079,0.00002,-0.14512,-0.38002,0.04034,,,,,,,,,,,,,,,,,,,,,,,,,,0,0,0,0,0
3.2228,1783190057.1368,1,1,2.0000,0.0000,1.44680,0.20917,-2.78349,1.00349,1.57079,0.00002,-0.14512,-0.38002,0.04033,,,,,,,,,,,,,,,,,,,,,,,,,,0,0,0,0,0
3.2347,1783190057.1487,1,1,2.0000,0.0000,1.44680,0.20900,-2.78353,1.00369,1.57079,0.00002,-0.14512,-0.38002,0.04029,,,,,,,,,,,,,,,,,,,,,,,,,,0,0,0,0,0
3.2429,1783190057.1568,1,1,2.0000,0.0000,1.44680,0.20899,-2.78353,1.00371,1.57079,0.00002,-0.14512,-0.38002,0.04028,,,,,,,,,,,,,,,,,,,,,,,,,,0,0,0,0,0
3.2547,1783190057.1686,1,1,2.0000,0.0000,1.44680,0.20884,-2.78357,1.00390,1.57079,0.00002,-0.14512,-0.38002,0.04024,,,,,,,,,,,,,,,,,,,,,,,,,,0,0,0,0,0
3.2551,1783190057.1690,1,1,2.0000,0.0000,1.44680,0.20884,-2.78357,1.00390,1.57079,0.00002,-0.14512,-0.38002,0.04024,,,,,,,,,,,,,,,,,,,,,,,,,,0,0,0,0,0
3.2669,1783190057.1809,1,1,2.0000,0.0000,1.44680,0.20862,-2.78362,1.00416,1.57079,0.00002,-0.14512,-0.38002,0.04019,,,,,,,,,,,,,,,,,,,,,,,,,,0,0,0,0,0
3.2730,1783190057.1869,1,1,2.0000,0.0000,1.44680,0.20861,-2.78362,1.00417,1.57079,0.00002,-0.14512,-0.38002,0.04019,,,,,,,,,,,,,,,,,,,,,,,,,,0,0,0,0,0
3.2896,1783190057.2036,1,1,2.0000,0.0000,1.44680,0.20845,-2.78366,1.00438,1.57079,0.00002,-0.14512,-0.38002,0.04015,,,,,,,,,,,,,,,,,,,,,,,,,,0,0,0,0,0
3.2929,1783190057.2068,1,1,2.0000,0.0000,1.44680,0.20839,-2.78368,1.00445,1.57079,0.00002,-0.14512,-0.38002,0.04013,,,,,,,,,,,,,,,,,,,,,,,,,,0,0,0,0,0
3.3074,1783190057.2214,1,1,2.0000,0.0000,1.44680,0.20834,-2.78369,1.00451,1.57079,0.00002,-0.14512,-0.38002,0.04012,,,,,,,,,,,,,,,,,,,,,,,,,,0,0,0,0,0
3.3169,1783190057.2309,1,1,2.0000,0.0000,1.44680,0.20815,-2.78374,1.00475,1.57079,0.00002,-0.14512,-0.38002,0.04007,,,,,,,,,,,,,,,,,,,,,,,,,,0,0,0,0,0
3.3227,1783190057.2367,1,1,2.0000,0.0000,1.44680,0.20808,-2.78375,1.00484,1.57079,0.00002,-0.14512,-0.38002,0.04005,,,,,,,,,,,,,,,,,,,,,,,,,,0,0,0,0,0
3.3329,1783190057.2468,1,1,2.0000,0.0000,1.44680,0.20800,-2.78377,1.00494,1.57079,0.00002,-0.14512,-0.38002,0.04003,,,,,,,,,,,,,,,,,,,,,,,,,,0,0,0,0,0
3.3453,1783190057.2592,1,1,2.0000,0.0000,1.44680,0.20785,-2.78381,1.00512,1.57079,0.00002,-0.14512,-0.38002,0.04000,,,,,,,,,,,,,,,,,,,,,,,,,,0,0,0,0,0
3.3583,1783190057.2723,1,1,2.0000,0.0000,1.44680,0.20771,-2.78384,1.00530,1.57079,0.00002,-0.14512,-0.38002,0.03996,,,,,,,,,,,,,,,,,,,,,,,,,,0,0,0,0,0
3.3726,1783190057.2866,1,1,2.0000,0.0000,1.44680,0.20755,-2.78388,1.00549,1.57079,0.00002,-0.14512,-0.38002,0.03992,,,,,,,,,,,,,,,,,,,,,,,,,,0,0,0,0,0
3.3762,1783190057.2902,1,1,2.0000,0.0000,1.44680,0.20748,-2.78390,1.00558,1.57079,0.00002,-0.14512,-0.38002,0.03990,,,,,,,,,,,,,,,,,,,,,,,,,,0,0,0,0,0
3.3883,1783190057.3023,1,1,2.0000,0.0000,1.44680,0.20734,-2.78393,1.00576,1.57079,0.00002,-0.14512,-0.38002,0.03987,,,,,,,,,,,,,,,,,,,,,,,,,,0,0,0,0,0
3.3978,1783190057.3118,1,1,2.0000,0.0000,1.44680,0.20729,-2.78394,1.00581,1.57079,0.00002,-0.14512,-0.38002,0.03985,,,,,,,,,,,,,,,,,,,,,,,,,,0,0,0,0,0
3.4103,1783190057.3243,1,1,2.0000,0.0000,1.44680,0.20711,-2.78399,1.00604,1.57079,0.00002,-0.14512,-0.38002,0.03981,,,,,,,,,,,,,,,,,,,,,,,,,,0,0,0,0,0
3.4163,1783190057.3302,1,1,2.0000,0.0000,1.44680,0.20704,-2.78400,1.00613,1.57079,0.00002,-0.14512,-0.38002,0.03979,,,,,,,,,,,,,,,,,,,,,,,,,,0,0,0,0,0
3.4167,1783190057.3307,1,1,2.0000,0.0000,1.44680,0.20704,-2.78400,1.00613,1.57079,0.00002,-0.14512,-0.38002,0.03979,,,,,,,,,,,,,,,,,,,,,,,,,,0,0,0,0,0
3.4261,1783190057.3400,1,1,2.0000,0.0000,1.44680,0.20699,-2.78401,1.00619,1.57079,0.00002,-0.14512,-0.38002,0.03978,,,,,,,,,,,,,,,,,,,,,,,,,,0,0,0,0,0
3.4264,1783190057.3404,1,1,2.0000,0.0000,1.44680,0.20699,-2.78401,1.00619,1.57079,0.00002,-0.14512,-0.38002,0.03978,,,,,,,,,,,,,,,,,,,,,,,,,,0,0,0,0,0
3.4372,1783190057.3511,1,1,2.0000,0.0000,1.44680,0.20681,-2.78406,1.00641,1.57079,0.00002,-0.14512,-0.38002,0.03973,,,,,,,,,,,,,,,,,,,,,,,,,,0,0,0,0,0
3.4463,1783190057.3603,1,1,2.0000,0.0000,1.44680,0.20667,-2.78409,1.00659,1.57079,0.00002,-0.14512,-0.38002,0.03970,,,,,,,,,,,,,,,,,,,,,,,,,,0,0,0,0,0
3.4467,1783190057.3606,1,1,2.0000,0.0000,1.44680,0.20667,-2.78409,1.00659,1.57079,0.00002,-0.14512,-0.38002,0.03970,,,,,,,,,,,,,,,,,,,,,,,,,,0,0,0,0,0
3.4610,1783190057.3750,1,1,2.0000,0.0000,1.44680,0.20657,-2.78411,1.00671,1.57079,0.00002,-0.14512,-0.38002,0.03967,,,,,,,,,,,,,,,,,,,,,,,,,,0,0,0,0,0
3.4614,1783190057.3754,1,1,2.0000,0.0000,1.44680,0.20657,-2.78411,1.00671,1.57079,0.00002,-0.14512,-0.38002,0.03967,,,,,,,,,,,,,,,,,,,,,,,,,,0,0,0,0,0
3.4721,1783190057.3860,1,1,2.0000,0.0000,1.44680,0.20637,-2.78416,1.00696,1.57079,0.00002,-0.14512,-0.38002,0.03962,,,,,,,,,,,,,,,,,,,,,,,,,,0,0,0,0,0
3.4779,1783190057.3918,1,1,2.0000,0.0000,1.44680,0.20637,-2.78416,1.00696,1.57079,0.00002,-0.14512,-0.38002,0.03962,,,,,,,,,,,,,,,,,,,,,,,,,,0,0,0,0,0
3.4783,1783190057.3923,1,1,2.0000,0.0000,1.44680,0.20637,-2.78416,1.00696,1.57079,0.00002,-0.14512,-0.38002,0.03962,,,,,,,,,,,,,,,,,,,,,,,,,,0,0,0,0,0
3.4894,1783190057.4034,1,1,2.0000,0.0000,1.44680,0.20627,-2.78419,1.00708,1.57079,0.00002,-0.14512,-0.38002,0.03960,,,,,,,,,,,,,,,,,,,,,,,,,,0,0,0,0,0
3.4897,1783190057.4036,1,1,2.0000,0.0000,1.44680,0.20627,-2.78419,1.00708,1.57079,0.00002,-0.14512,-0.38002,0.03960,,,,,,,,,,,,,,,,,,,,,,,,,,0,0,0,0,0
3.4971,1783190057.4111,1,1,2.0000,0.0000,1.44680,0.20614,-2.78422,1.00724,1.57079,0.00002,-0.14512,-0.38002,0.03956,,,,,,,,,,,,,,,,,,,,,,,,,,0,0,0,0,0
3.4974,1783190057.4114,1,1,2.0000,0.0000,1.44680,0.20614,-2.78422,1.00724,1.57079,0.00002,-0.14512,-0.38002,0.03956,,,,,,,,,,,,,,,,,,,,,,,,,,0,0,0,0,0
3.5135,1783190057.4275,1,1,2.0000,0.0000,1.44680,0.20598,-2.78425,1.00743,1.57079,0.00002,-0.14512,-0.38002,0.03953,,,,,,,,,,,,,,,,,,,,,,,,,,0,0,0,0,0
3.5138,1783190057.4278,1,1,2.0000,0.0000,1.44680,0.20598,-2.78425,1.00743,1.57079,0.00002,-0.14512,-0.38002,0.03953,,,,,,,,,,,,,,,,,,,,,,,,,,0,0,0,0,0
3.5181,1783190057.4321,1,1,2.0000,0.0000,1.44680,0.20595,-2.78426,1.00748,1.57079,0.00002,-0.14512,-0.38002,0.03952,,,,,,,,,,,,,,,,,,,,,,,,,,0,0,0,0,0
3.5288,1783190057.4428,1,1,2.0000,0.0000,1.44680,0.20577,-2.78431,1.00770,1.57079,0.00002,-0.14512,-0.38002,0.03947,,,,,,,,,,,,,,,,,,,,,,,,,,0,0,0,0,0
3.5416,1783190057.4556,1,1,2.0000,0.0000,1.44680,0.20568,-2.78433,1.00781,1.57079,0.00002,-0.14512,-0.38002,0.03945,,,,,,,,,,,,,,,,,,,,,,,,,,0,0,0,0,0
3.5419,1783190057.4559,1,1,2.0000,0.0000,1.44680,0.20568,-2.78433,1.00781,1.57079,0.00002,-0.14512,-0.38002,0.03945,,,,,,,,,,,,,,,,,,,,,,,,,,0,0,0,0,0
3.5481,1783190057.4621,1,1,2.0000,0.0000,1.44680,0.20560,-2.78435,1.00791,1.57079,0.00002,-0.14512,-0.38002,0.03943,,,,,,,,,,,,,,,,,,,,,,,,,,0,0,0,0,0
3.5484,1783190057.4623,1,1,2.0000,0.0000,1.44680,0.20560,-2.78435,1.00791,1.57079,0.00002,-0.14512,-0.38002,0.03943,,,,,,,,,,,,,,,,,,,,,,,,,,0,0,0,0,0
3.5579,1783190057.4718,1,1,2.0000,0.0000,1.44680,0.20547,-2.78438,1.00808,1.57079,0.00002,-0.14512,-0.38002,0.03939,,,,,,,,,,,,,,,,,,,,,,,,,,0,0,0,0,0
3.5582,1783190057.4721,1,1,2.0000,0.0000,1.44680,0.20547,-2.78438,1.00808,1.57079,0.00002,-0.14512,-0.38002,0.03939,,,,,,,,,,,,,,,,,,,,,,,,,,0,0,0,0,0
3.5742,1783190057.4881,1,1,2.0000,0.0000,1.44680,0.20531,-2.78441,1.00827,1.57079,0.00002,-0.14512,-0.38002,0.03936,,,,,,,,,,,,,,,,,,,,,,,,,,0,0,0,0,0
3.5770,1783190057.4910,1,1,2.0000,0.0000,1.44680,0.20528,-2.78442,1.00831,1.57079,0.00002,-0.14512,-0.38002,0.03935,,,,,,,,,,,,,,,,,,,,,,,,,,0,0,0,0,0
3.5883,1783190057.5023,1,1,2.0000,0.0000,1.44680,0.20509,-2.78447,1.00854,1.57079,0.00002,-0.14512,-0.38002,0.03930,,,,,,,,,,,,,,,,,,,,,,,,,,0,0,0,0,0
3.5962,1783190057.5102,1,1,2.0000,0.0000,1.44680,0.20495,-2.78450,1.00871,1.57079,0.00002,-0.14512,-0.38002,0.03927,,,,,,,,,,,,,,,,,,,,,,,,,,0,0,0,0,0
3.6119,1783190057.5258,1,1,2.0000,0.0000,1.44680,0.20492,-2.78451,1.00875,1.57079,0.00002,-0.14512,-0.38002,0.03926,,,,,,,,,,,,,,,,,,,,,,,,,,0,0,0,0,0
3.6192,1783190057.5332,1,1,2.0000,0.0000,1.44680,0.20483,-2.78453,1.00886,1.57079,0.00002,-0.14512,-0.38002,0.03924,,,,,,,,,,,,,,,,,,,,,,,,,,0,0,0,0,0
3.6281,1783190057.5421,1,1,2.0000,0.0000,1.44680,0.20471,-2.78456,1.00901,1.57079,0.00002,-0.14512,-0.38002,0.03921,,,,,,,,,,,,,,,,,,,,,,,,,,0,0,0,0,0
3.6403,1783190057.5542,1,1,2.0000,0.0000,1.44680,0.20461,-2.78458,1.00913,1.57079,0.00002,-0.14512,-0.38002,0.03918,,,,,,,,,,,,,,,,,,,,,,,,,,0,0,0,0,0
3.6407,1783190057.5547,1,1,2.0000,0.0000,1.44680,0.20461,-2.78458,1.00913,1.57079,0.00002,-0.14512,-0.38002,0.03918,,,,,,,,,,,,,,,,,,,,,,,,,,0,0,0,0,0
3.6459,1783190057.5599,1,1,2.0000,0.0000,1.44680,0.20455,-2.78460,1.00921,1.57079,0.00002,-0.14512,-0.38002,0.03916,,,,,,,,,,,,,,,,,,,,,,,,,,0,0,0,0,0
3.6464,1783190057.5604,1,1,2.0000,0.0000,1.44680,0.20455,-2.78460,1.00921,1.57079,0.00002,-0.14512,-0.38002,0.03916,,,,,,,,,,,,,,,,,,,,,,,,,,0,0,0,0,0
3.6604,1783190057.5743,1,1,2.0000,0.0000,1.44680,0.20433,-2.78465,1.00948,1.57079,0.00002,-0.14512,-0.38002,0.03911,,,,,,,,,,,,,,,,,,,,,,,,,,0,0,0,0,0
3.6606,1783190057.5746,1,1,2.0000,0.0000,1.44680,0.20433,-2.78465,1.00948,1.57079,0.00002,-0.14512,-0.38002,0.03911,,,,,,,,,,,,,,,,,,,,,,,,,,0,0,0,0,0
3.6771,1783190057.5911,1,1,2.0000,0.0000,1.44680,0.20421,-2.78467,1.00963,1.57079,0.00002,-0.14512,-0.38002,0.03908,,,,,,,,,,,,,,,,,,,,,,,,,,0,0,0,0,0
3.6775,1783190057.5915,1,1,2.0000,0.0000,1.44680,0.20421,-2.78467,1.00963,1.57079,0.00002,-0.14512,-0.38002,0.03908,,,,,,,,,,,,,,,,,,,,,,,,,,0,0,0,0,0
3.6787,1783190057.5927,1,1,2.0000,0.0000,1.44680,0.20421,-2.78467,1.00963,1.57079,0.00002,-0.14512,-0.38002,0.03908,,,,,,,,,,,,,,,,,,,,,,,,,,0,0,0,0,0
3.6790,1783190057.5929,1,1,2.0000,0.0000,1.44680,0.20421,-2.78467,1.00963,1.57079,0.00002,-0.14512,-0.38002,0.03908,,,,,,,,,,,,,,,,,,,,,,,,,,0,0,0,0,0
3.6897,1783190057.6037,1,1,2.0000,0.0000,1.44680,0.20410,-2.78470,1.00977,1.57079,0.00002,-0.14512,-0.38002,0.03905,,,,,,,,,,,,,,,,,,,,,,,,,,0,0,0,0,0
3.6994,1783190057.6133,1,1,2.0000,0.0000,1.44680,0.20405,-2.78471,1.00983,1.57079,0.00002,-0.14512,-0.38002,0.03904,,,,,,,,,,,,,,,,,,,,,,,,,,0,0,0,0,0
3.7063,1783190057.6203,1,1,2.0000,0.0000,1.44680,0.20393,-2.78474,1.00998,1.57079,0.00002,-0.14512,-0.38002,0.03901,,,,,,,,,,,,,,,,,,,,,,,,,,0,0,0,0,0
3.7186,1783190057.6326,1,1,2.0000,0.0000,1.44680,0.20371,-2.78479,1.01024,1.57079,0.00002,-0.14512,-0.38002,0.03896,,,,,,,,,,,,,,,,,,,,,,,,,,0,0,0,0,0
3.7299,1783190057.6438,1,1,2.0000,0.0000,1.44680,0.20368,-2.78480,1.01029,1.57079,0.00002,-0.14512,-0.38002,0.03895,,,,,,,,,,,,,,,,,,,,,,,,,,0,0,0,0,0
3.7380,1783190057.6519,1,1,2.0000,0.0000,1.44680,0.20359,-2.78482,1.01039,1.57079,0.00002,-0.14512,-0.38002,0.03893,,,,,,,,,,,,,,,,,,,,,,,,,,0,0,0,0,0
3.7463,1783190057.6602,1,1,2.0000,0.0000,1.44680,0.20348,-2.78485,1.01054,1.57079,0.00002,-0.14512,-0.38002,0.03890,,,,,,,,,,,,,,,,,,,,,,,,,,0,0,0,0,0
3.7468,1783190057.6607,1,1,2.0000,0.0000,1.44680,0.20348,-2.78485,1.01054,1.57079,0.00002,-0.14512,-0.38002,0.03890,,,,,,,,,,,,,,,,,,,,,,,,,,0,0,0,0,0
3.7572,1783190057.6711,1,1,2.0000,0.0000,1.44680,0.20343,-2.78486,1.01059,1.57079,0.00002,-0.14512,-0.38002,0.03888,,,,,,,,,,,,,,,,,,,,,,,,,,0,0,0,0,0
3.7726,1783190057.6866,1,1,2.0000,0.0000,1.44680,0.20317,-2.78492,1.01092,1.57079,0.00002,-0.14512,-0.38002,0.03882,,,,,,,,,,,,,,,,,,,,,,,,,,0,0,0,0,0
3.7788,1783190057.6928,1,1,2.0000,0.0000,1.44680,0.20309,-2.78494,1.01101,1.57079,0.00002,-0.14512,-0.38002,0.03880,,,,,,,,,,,,,,,,,,,,,,,,,,0,0,0,0,0
3.7862,1783190057.7001,1,1,2.0000,0.0000,1.44680,0.20309,-2.78494,1.01102,1.57079,0.00002,-0.14512,-0.38002,0.03880,,,,,,,,,,,,,,,,,,,,,,,,,,0,0,0,0,0
3.7865,1783190057.7005,1,1,2.0000,0.0000,1.44680,0.20309,-2.78494,1.01102,1.57079,0.00002,-0.14512,-0.38002,0.03880,,,,,,,,,,,,,,,,,,,,,,,,,,0,0,0,0,0
3.7996,1783190057.7135,1,1,2.0000,0.0000,1.44680,0.20298,-2.78497,1.01116,1.57079,0.00002,-0.14512,-0.38001,0.03877,,,,,,,,,,,,,,,,,,,,,,,,,,0,0,0,0,0
3.8006,1783190057.7146,1,1,2.0000,0.0000,1.44680,0.20292,-2.78498,1.01123,1.57079,0.00002,-0.14512,-0.38001,0.03876,,,,,,,,,,,,,,,,,,,,,,,,,,0,0,0,0,0
3.8077,1783190057.7217,1,1,2.0000,0.0000,1.44680,0.20286,-2.78500,1.01130,1.57079,0.00002,-0.14512,-0.38001,0.03874,,,,,,,,,,,,,,,,,,,,,,,,,,0,0,0,0,0
3.8194,1783190057.7334,1,1,2.0000,0.0000,1.44680,0.20281,-2.78501,1.01136,1.57079,0.00002,-0.14512,-0.38001,0.03873,,,,,,,,,,,,,,,,,,,,,,,,,,0,0,0,0,0
3.8200,1783190057.7340,1,1,2.0000,0.0000,1.44680,0.20276,-2.78502,1.01143,1.57079,0.00002,-0.14512,-0.38001,0.03872,,,,,,,,,,,,,,,,,,,,,,,,,,0,0,0,0,0
3.8261,1783190057.7400,1,1,2.0000,0.0000,1.44680,0.20269,-2.78503,1.01151,1.57079,0.00002,-0.14512,-0.38001,0.03870,,,,,,,,,,,,,,,,,,,,,,,,,,0,0,0,0,0
3.8265,1783190057.7405,1,1,2.0000,0.0000,1.44680,0.20269,-2.78503,1.01151,1.57079,0.00002,-0.14512,-0.38001,0.03870,,,,,,,,,,,,,,,,,,,,,,,,,,0,0,0,0,0
3.8363,1783190057.7503,1,1,2.0000,0.0000,1.44680,0.20247,-2.78509,1.01177,1.57079,0.00002,-0.14512,-0.38001,0.03864,,,,,,,,,,,,,,,,,,,,,,,,,,0,0,0,0,0
3.8463,1783190057.7603,1,1,2.0000,0.0000,1.44680,0.20247,-2.78509,1.01179,1.57079,0.00002,-0.14512,-0.38001,0.03864,,,,,,,,,,,,,,,,,,,,,,,,,,0,0,0,0,0
3.8467,1783190057.7606,1,1,2.0000,0.0000,1.44680,0.20247,-2.78509,1.01179,1.57079,0.00002,-0.14512,-0.38001,0.03864,,,,,,,,,,,,,,,,,,,,,,,,,,0,0,0,0,0
3.8563,1783190057.7703,1,1,2.0000,0.0000,1.44680,0.20236,-2.78511,1.01192,1.57079,0.00002,-0.14512,-0.38001,0.03862,,,,,,,,,,,,,,,,,,,,,,,,,,0,0,0,0,0
3.8701,1783190057.7840,1,1,2.0000,0.0000,1.44680,0.20224,-2.78514,1.01207,1.57079,0.00002,-0.14512,-0.38001,0.03859,,,,,,,,,,,,,,,,,,,,,,,,,,0,0,0,0,0
3.8813,1783190057.7953,1,1,2.0000,0.0000,1.44680,0.20214,-2.78517,1.01219,1.57079,0.00002,-0.14512,-0.38001,0.03856,,,,,,,,,,,,,,,,,,,,,,,,,,0,0,0,0,0
3.8895,1783190057.8034,1,1,2.0000,0.0000,1.44680,0.20200,-2.78520,1.01236,1.57079,0.00002,-0.14512,-0.38001,0.03853,,,,,,,,,,,,,,,,,,,,,,,,,,0,0,0,0,0
3.9062,1783190057.8202,1,1,2.0000,0.0000,1.44680,0.20184,-2.78523,1.01256,1.57079,0.00002,-0.14512,-0.38001,0.03849,,,,,,,,,,,,,,,,,,,,,,,,,,0,0,0,0,0
3.9068,1783190057.8207,1,1,2.0000,0.0000,1.44680,0.20184,-2.78523,1.01256,1.57079,0.00002,-0.14512,-0.38001,0.03849,,,,,,,,,,,,,,,,,,,,,,,,,,0,0,0,0,0
3.9220,1783190057.8359,1,1,2.0000,0.0000,1.44680,0.20162,-2.78529,1.01282,1.57079,0.00002,-0.14512,-0.38001,0.03843,,,,,,,,,,,,,,,,,,,,,,,,,,0,0,0,0,0
3.9302,1783190057.8441,1,1,2.0000,0.0000,1.44680,0.20155,-2.78530,1.01291,1.57079,0.00002,-0.14512,-0.38001,0.03841,,,,,,,,,,,,,,,,,,,,,,,,,,0,0,0,0,0
3.9364,1783190057.8503,1,1,2.0000,0.0000,1.44680,0.20151,-2.78531,1.01297,1.57079,0.00003,-0.14512,-0.38001,0.03840,,,,,,,,,,,,,,,,,,,,,,,,,,0,0,0,0,0
3.9470,1783190057.8609,1,1,2.0000,0.0000,1.44680,0.20139,-2.78534,1.01311,1.57079,0.00003,-0.14512,-0.38001,0.03837,,,,,,,,,,,,,,,,,,,,,,,,,,0,0,0,0,0
3.9581,1783190057.8720,1,1,2.0000,0.0000,1.44680,0.20118,-2.78539,1.01337,1.57079,0.00003,-0.14512,-0.38001,0.03832,,,,,,,,,,,,,,,,,,,,,,,,,,0,0,0,0,0
3.9689,1783190057.8829,1,1,2.0000,0.0000,1.44680,0.20113,-2.78540,1.01343,1.57079,0.00003,-0.14512,-0.38001,0.03831,,,,,,,,,,,,,,,,,,,,,,,,,,0,0,0,0,0
3.9781,1783190057.8920,1,1,2.0000,0.0000,1.44680,0.20102,-2.78543,1.01357,1.57079,0.00003,-0.14512,-0.38001,0.03828,,,,,,,,,,,,,,,,,,,,,,,,,,0,0,0,0,0
3.9879,1783190057.9018,1,1,2.0000,0.0000,1.44680,0.20087,-2.78546,1.01375,1.57079,0.00003,-0.14512,-0.38001,0.03825,,,,,,,,,,,,,,,,,,,,,,,,,,0,0,0,0,0
3.9886,1783190057.9026,1,1,2.0000,0.0000,1.44680,0.20087,-2.78546,1.01375,1.57079,0.00003,-0.14512,-0.38001,0.03825,,,,,,,,,,,,,,,,,,,,,,,,,,0,0,0,0,0
3.9981,1783190057.9120,1,1,2.0000,0.0000,1.44680,0.20083,-2.78547,1.01381,1.57079,0.00003,-0.14512,-0.38001,0.03823,,,,,,,,,,,,,,,,,,,,,,,,,,0,0,0,0,0
3.9985,1783190057.9125,1,1,2.0000,0.0000,1.44680,0.20083,-2.78547,1.01381,1.57079,0.00003,-0.14512,-0.38001,0.03823,,,,,,,,,,,,,,,,,,,,,,,,,,0,0,0,0,0
4.0085,1783190057.9225,1,1,2.0000,0.0000,1.44680,0.20065,-2.78552,1.01403,1.57079,0.00003,-0.14512,-0.38001,0.03819,,,,,,,,,,,,,,,,,,,,,,,,,,0,0,0,0,0
4.0339,1783190057.9478,1,1,2.0000,0.0000,1.44680,0.20040,-2.78557,1.01433,1.57079,0.00003,-0.14512,-0.38001,0.03813,,,,,,,,,,,,,,,,,,,,,,,,,,0,0,0,0,0
4.0341,1783190057.9481,1,1,2.0000,0.0000,1.44680,0.20040,-2.78557,1.01433,1.57079,0.00003,-0.14512,-0.38001,0.03813,,,,,,,,,,,,,,,,,,,,,,,,,,0,0,0,0,0
4.0379,1783190057.9519,1,1,2.0000,0.0000,1.44680,0.20034,-2.78559,1.01441,1.57079,0.00003,-0.14512,-0.38001,0.03811,,,,,,,,,,,,,,,,,,,,,,,,,,0,0,0,0,0
4.0481,1783190057.9621,1,1,2.0000,0.0000,1.44680,0.20013,-2.78564,1.01467,1.57079,0.00003,-0.14512,-0.38001,0.03806,,,,,,,,,,,,,,,,,,,,,,,,,,0,0,0,0,0
4.0580,1783190057.9720,1,1,2.0000,0.0000,1.44680,0.20012,-2.78564,1.01468,1.57079,0.00003,-0.14512,-0.38001,0.03806,,,,,,,,,,,,,,,,,,,,,,,,,,0,0,0,0,0
4.0723,1783190057.9863,1,1,2.0000,0.0000,1.44680,0.19995,-2.78568,1.01489,1.57079,0.00003,-0.14512,-0.38001,0.03801,,,,,,,,,,,,,,,,,,,,,,,,,,0,0,0,0,0
4.0770,1783190057.9910,1,1,2.0000,0.0000,1.44680,0.19989,-2.78569,1.01497,1.57079,0.00003,-0.14512,-0.38001,0.03800,,,,,,,,,,,,,,,,,,,,,,,,,,0,0,0,0,0
4.0894,1783190058.0034,1,1,2.0000,0.0000,1.44680,0.19985,-2.78570,1.01502,1.57079,0.00003,-0.14512,-0.38001,0.03799,,,,,,,,,,,,,,,,,,,,,,,,,,0,0,0,0,0
4.1002,1783190058.0142,1,1,2.0000,0.0000,1.44680,0.19969,-2.78574,1.01521,1.57079,0.00003,-0.14512,-0.38001,0.03795,,,,,,,,,,,,,,,,,,,,,,,,,,0,0,0,0,0
4.1093,1783190058.0232,1,1,2.0000,0.0000,1.44680,0.19956,-2.78577,1.01537,1.57079,0.00003,-0.14512,-0.38001,0.03792,,,,,,,,,,,,,,,,,,,,,,,,,,0,0,0,0,0
4.1365,1783190058.0504,1,1,2.0000,0.0000,1.44680,0.19931,-2.78583,1.01568,1.57079,0.00003,-0.14512,-0.38001,0.03785,,,,,,,,,,,,,,,,,,,,,,,,,,0,0,0,0,0
4.1400,1783190058.0539,1,1,2.0000,0.0000,1.44680,0.19931,-2.78583,1.01568,1.57079,0.00003,-0.14512,-0.38001,0.03785,,,,,,,,,,,,,,,,,,,,,,,,,,0,0,0,0,0
4.1404,1783190058.0544,1,1,2.0000,0.0000,1.44680,0.19931,-2.78583,1.01568,1.57079,0.00003,-0.14512,-0.38001,0.03785,,,,,,,,,,,,,,,,,,,,,,,,,,0,0,0,0,0
4.1496,1783190058.0635,1,1,2.0000,0.0000,1.44680,0.19926,-2.78584,1.01574,1.57079,0.00003,-0.14512,-0.38001,0.03784,,,,,,,,,,,,,,,,,,,,,,,,,,0,0,0,0,0
4.2507,1783190058.1647,1,1,2.0000,0.0000,1.44680,0.19818,-2.78609,1.01707,1.57079,0.00003,-0.14512,-0.38001,0.03757,,,,,,,,,,,,,,,,,,,,,,,,,,0,0,0,0,0
4.2510,1783190058.1650,1,1,2.0000,0.0000,1.44680,0.19818,-2.78609,1.01707,1.57079,0.00003,-0.14512,-0.38001,0.03757,,,,,,,,,,,,,,,,,,,,,,,,,,0,0,0,0,0
4.2565,1783190058.1704,1,1,2.0000,0.0000,1.44680,0.19807,-2.78612,1.01722,1.57079,0.00003,-0.14512,-0.38001,0.03755,,,,,,,,,,,,,,,,,,,,,,,,,,0,0,0,0,0
4.2569,1783190058.1708,1,1,2.0000,0.0000,1.44680,0.19807,-2.78612,1.01722,1.57079,0.00003,-0.14512,-0.38001,0.03755,,,,,,,,,,,,,,,,,,,,,,,,,,0,0,0,0,0
4.2572,1783190058.1712,1,1,2.0000,0.0000,1.44680,0.19807,-2.78612,1.01722,1.57079,0.00003,-0.14512,-0.38001,0.03755,,,,,,,,,,,,,,,,,,,,,,,,,,0,0,0,0,0
4.2575,1783190058.1715,1,1,2.0000,0.0000,1.44680,0.19807,-2.78612,1.01722,1.57079,0.00003,-0.14512,-0.38001,0.03755,,,,,,,,,,,,,,,,,,,,,,,,,,0,0,0,0,0
4.2578,1783190058.1718,1,1,2.0000,0.0000,1.44680,0.19807,-2.78612,1.01722,1.57079,0.00003,-0.14512,-0.38001,0.03755,,,,,,,,,,,,,,,,,,,,,,,,,,0,0,0,0,0
4.2684,1783190058.1824,1,1,2.0000,0.0000,1.44680,0.19802,-2.78613,1.01728,1.57079,0.00003,-0.14512,-0.38001,0.03753,,,,,,,,,,,,,,,,,,,,,,,,,,0,0,0,0,0
4.3290,1783190058.2430,1,1,2.0000,0.0000,1.44680,0.19739,-2.78627,1.01804,1.57079,0.00003,-0.14512,-0.38001,0.03738,,,,,,,,,,,,,,,,,,,,,,,,,,0,0,0,0,0
4.3463,1783190058.2602,1,1,2.0000,0.0000,1.44680,0.19713,-2.78634,1.01837,1.57079,0.00003,-0.14512,-0.38001,0.03731,,,,,,,,,,,,,,,,,,,,,,,,,,0,0,0,0,0
4.3467,1783190058.2606,1,1,2.0000,0.0000,1.44680,0.19713,-2.78634,1.01837,1.57079,0.00003,-0.14512,-0.38001,0.03731,,,,,,,,,,,,,,,,,,,,,,,,,,0,0,0,0,0
4.3471,1783190058.2611,1,1,2.0000,0.0000,1.44680,0.19713,-2.78634,1.01837,1.57079,0.00003,-0.14512,-0.38001,0.03731,,,,,,,,,,,,,,,,,,,,,,,,,,0,0,0,0,0
4.3476,1783190058.2615,1,1,2.0000,0.0000,1.44680,0.19713,-2.78634,1.01837,1.57079,0.00003,-0.14512,-0.38001,0.03731,,,,,,,,,,,,,,,,,,,,,,,,,,0,0,0,0,0
4.3483,1783190058.2622,1,1,2.0000,0.0000,1.44680,0.19706,-2.78635,1.01846,1.57079,0.00003,-0.14512,-0.38001,0.03729,,,,,,,,,,,,,,,,,,,,,,,,,,0,0,0,0,0
4.3564,1783190058.2703,1,1,2.0000,0.0000,1.44680,0.19704,-2.78636,1.01848,1.57079,0.00003,-0.14512,-0.38001,0.03729,,,,,,,,,,,,,,,,,,,,,,,,,,0,0,0,0,0
4.3567,1783190058.2706,1,1,2.0000,0.0000,1.44680,0.19704,-2.78636,1.01848,1.57079,0.00003,-0.14512,-0.38001,0.03729,,,,,,,,,,,,,,,,,,,,,,,,,,0,0,0,0,0
4.4037,1783190058.3176,1,1,2.0000,0.0000,1.44680,0.19656,-2.78647,1.01907,1.57079,0.00003,-0.14512,-0.38001,0.03717,,,,,,,,,,,,,,,,,,,,,,,,,,0,0,0,0,0
4.4092,1783190058.3232,1,1,2.0000,0.0000,1.44679,0.19644,-2.78650,1.01922,1.57079,0.00003,-0.14511,-0.38001,0.03714,,,,,,,,,,,,,,,,,,,,,,,,,,0,0,0,0,0
4.4096,1783190058.3236,1,1,2.0000,0.0000,1.44679,0.19644,-2.78650,1.01922,1.57079,0.00003,-0.14511,-0.38001,0.03714,,,,,,,,,,,,,,,,,,,,,,,,,,0,0,0,0,0
4.5377,1783190058.4516,1,1,2.0000,0.0000,1.44679,0.19506,-2.78682,1.02092,1.57079,0.00003,-0.14511,-0.38001,0.03680,,,,,,,,,,,,,,,,,,,,,,,,,,0,0,0,0,0
4.5379,1783190058.4519,1,1,2.0000,0.0000,1.44679,0.19506,-2.78682,1.02092,1.57079,0.00003,-0.14511,-0.38001,0.03680,,,,,,,,,,,,,,,,,,,,,,,,,,0,0,0,0,0
4.5382,1783190058.4521,1,1,2.0000,0.0000,1.44679,0.19506,-2.78682,1.02092,1.57079,0.00003,-0.14511,-0.38001,0.03680,,,,,,,,,,,,,,,,,,,,,,,,,,0,0,0,0,0
4.5384,1783190058.4524,1,1,2.0000,0.0000,1.44679,0.19506,-2.78682,1.02092,1.57079,0.00003,-0.14511,-0.38001,0.03680,,,,,,,,,,,,,,,,,,,,,,,,,,0,0,0,0,0
4.5387,1783190058.4527,1,1,2.0000,0.0000,1.44679,0.19506,-2.78682,1.02092,1.57079,0.00003,-0.14511,-0.38001,0.03680,,,,,,,,,,,,,,,,,,,,,,,,,,0,0,0,0,0
4.5390,1783190058.4530,1,1,2.0000,0.0000,1.44679,0.19506,-2.78682,1.02092,1.57079,0.00003,-0.14511,-0.38001,0.03680,,,,,,,,,,,,,,,,,,,,,,,,,,0,0,0,0,0
4.5393,1783190058.4533,1,1,2.0000,0.0000,1.44679,0.19506,-2.78682,1.02092,1.57079,0.00003,-0.14511,-0.38001,0.03680,,,,,,,,,,,,,,,,,,,,,,,,,,0,0,0,0,0
4.5396,1783190058.4536,1,1,2.0000,0.0000,1.44679,0.19506,-2.78682,1.02092,1.57079,0.00003,-0.14511,-0.38001,0.03680,,,,,,,,,,,,,,,,,,,,,,,,,,0,0,0,0,0
4.5400,1783190058.4540,1,1,2.0000,0.0000,1.44679,0.19502,-2.78682,1.02096,1.57079,0.00003,-0.14511,-0.38001,0.03679,,,,,,,,,,,,,,,,,,,,,,,,,,0,0,0,0,0
4.5402,1783190058.4542,1,1,2.0000,0.0000,1.44679,0.19502,-2.78682,1.02096,1.57079,0.00003,-0.14511,-0.38001,0.03679,,,,,,,,,,,,,,,,,,,,,,,,,,0,0,0,0,0
4.5471,1783190058.4611,1,1,2.0000,0.0000,1.44679,0.19497,-2.78684,1.02103,1.57079,0.00003,-0.14511,-0.38001,0.03678,,,,,,,,,,,,,,,,,,,,,,,,,,0,0,0,0,0
4.5475,1783190058.4614,1,1,2.0000,0.0000,1.44679,0.19497,-2.78684,1.02103,1.57079,0.00003,-0.14511,-0.38001,0.03678,,,,,,,,,,,,,,,,,,,,,,,,,,0,0,0,0,0
4.5563,1783190058.4703,1,1,2.0000,0.0000,1.44679,0.19476,-2.78688,1.02128,1.57079,0.00003,-0.14511,-0.38001,0.03673,,,,,,,,,,,,,,,,,,,,,,,,,,0,0,0,0,0
4.5566,1783190058.4706,1,1,2.0000,0.0000,1.44679,0.19476,-2.78688,1.02128,1.57079,0.00003,-0.14511,-0.38001,0.03673,,,,,,,,,,,,,,,,,,,,,,,,,,0,0,0,0,0
4.5682,1783190058.4822,1,1,2.0000,0.0000,1.44679,0.19471,-2.78689,1.02134,1.57079,0.00003,-0.14511,-0.38001,0.03671,,,,,,,,,,,,,,,,,,,,,,,,,,0,0,0,0,0
4.5827,1783190058.4966,1,1,2.0000,0.0000,1.44679,0.19453,-2.78694,1.02157,1.57079,0.00003,-0.14511,-0.38001,0.03667,,,,,,,,,,,,,,,,,,,,,,,,,,0,0,0,0,0
4.5880,1783190058.5020,1,1,2.0000,0.0000,1.44679,0.19439,-2.78697,1.02175,1.57079,0.00003,-0.14511,-0.38001,0.03663,,,,,,,,,,,,,,,,,,,,,,,,,,0,0,0,0,0
4.5985,1783190058.5124,1,1,2.0000,0.0000,1.44679,0.19437,-2.78697,1.02176,1.57079,0.00003,-0.14511,-0.38001,0.03663,,,,,,,,,,,,,,,,,,,,,,,,,,0,0,0,0,0
4.6075,1783190058.5215,1,1,2.0000,0.0000,1.44679,0.19429,-2.78699,1.02187,1.57079,0.00003,-0.14511,-0.38001,0.03661,,,,,,,,,,,,,,,,,,,,,,,,,,0,0,0,0,0
4.6172,1783190058.5311,1,1,2.0000,0.0000,1.44679,0.19408,-2.78704,1.02212,1.57079,0.00003,-0.14511,-0.38001,0.03656,,,,,,,,,,,,,,,,,,,,,,,,,,0,0,0,0,0
4.6262,1783190058.5402,1,1,2.0000,0.0000,1.44679,0.19401,-2.78706,1.02221,1.57079,0.00003,-0.14511,-0.38001,0.03654,,,,,,,,,,,,,,,,,,,,,,,,,,0,0,0,0,0
4.6390,1783190058.5529,1,1,2.0000,0.0000,1.44679,0.19393,-2.78707,1.02230,1.57079,0.00003,-0.14511,-0.38001,0.03652,,,,,,,,,,,,,,,,,,,,,,,,,,0,0,0,0,0
4.6492,1783190058.5631,1,1,2.0000,0.0000,1.44679,0.19377,-2.78711,1.02251,1.57079,0.00003,-0.14511,-0.38001,0.03648,,,,,,,,,,,,,,,,,,,,,,,,,,0,0,0,0,0
4.6581,1783190058.5721,1,1,2.0000,0.0000,1.44679,0.19375,-2.78712,1.02252,1.57079,0.00003,-0.14511,-0.38001,0.03648,,,,,,,,,,,,,,,,,,,,,,,,,,0,0,0,0,0
4.6672,1783190058.5811,1,1,2.0000,0.0000,1.44679,0.19366,-2.78714,1.02263,1.57079,0.00003,-0.14511,-0.38001,0.03645,,,,,,,,,,,,,,,,,,,,,,,,,,0,0,0,0,0
4.6766,1783190058.5906,1,1,2.0000,0.0000,1.44679,0.19345,-2.78719,1.02290,1.57079,0.00003,-0.14511,-0.38001,0.03640,,,,,,,,,,,,,,,,,,,,,,,,,,0,0,0,0,0
4.6891,1783190058.6031,1,1,2.0000,0.0000,1.44679,0.19337,-2.78720,1.02300,1.57079,0.00003,-0.14511,-0.38001,0.03638,,,,,,,,,,,,,,,,,,,,,,,,,,0,0,0,0,0
4.6972,1783190058.6112,1,1,2.0000,0.0000,1.44679,0.19331,-2.78722,1.02307,1.57079,0.00003,-0.14511,-0.38001,0.03637,,,,,,,,,,,,,,,,,,,,,,,,,,0,0,0,0,0
4.7072,1783190058.6211,1,1,2.0000,0.0000,1.44679,0.19320,-2.78724,1.02320,1.57079,0.00003,-0.14511,-0.38001,0.03634,,,,,,,,,,,,,,,,,,,,,,,,,,0,0,0,0,0
4.7170,1783190058.6310,1,1,2.0000,0.0000,1.44679,0.19313,-2.78726,1.02330,1.57079,0.00003,-0.14511,-0.38001,0.03632,,,,,,,,,,,,,,,,,,,,,,,,,,0,0,0,0,0
4.7264,1783190058.6404,1,1,2.0000,0.0000,1.44679,0.19304,-2.78728,1.02340,1.57079,0.00003,-0.14511,-0.38001,0.03630,,,,,,,,,,,,,,,,,,,,,,,,,,0,0,0,0,0
4.7422,1783190058.6561,1,1,2.0000,0.0000,1.44679,0.19275,-2.78735,1.02376,1.57079,0.00003,-0.14511,-0.38001,0.03623,,,,,,,,,,,,,,,,,,,,,,,,,,0,0,0,0,0
4.7425,1783190058.6565,1,1,2.0000,0.0000,1.44679,0.19275,-2.78735,1.02376,1.57079,0.00003,-0.14511,-0.38001,0.03623,,,,,,,,,,,,,,,,,,,,,,,,,,0,0,0,0,0
4.7481,1783190058.6621,1,1,2.0000,0.0000,1.44679,0.19274,-2.78735,1.02377,1.57079,0.00003,-0.14511,-0.38001,0.03623,,,,,,,,,,,,,,,,,,,,,,,,,,0,0,0,0,0
4.7588,1783190058.6727,1,1,2.0000,0.0000,1.44679,0.19268,-2.78736,1.02385,1.57079,0.00003,-0.14511,-0.38001,0.03621,,,,,,,,,,,,,,,,,,,,,,,,,,0,0,0,0,0
4.7881,1783190058.7021,1,1,2.0000,0.0000,1.44679,0.19234,-2.78744,1.02426,1.57079,0.00003,-0.14511,-0.38001,0.03613,,,,,,,,,,,,,,,,,,,,,,,,,,0,0,0,0,0
4.7901,1783190058.7041,1,1,2.0000,0.0000,1.44679,0.19234,-2.78744,1.02426,1.57079,0.00003,-0.14511,-0.38001,0.03613,,,,,,,,,,,,,,,,,,,,,,,,,,0,0,0,0,0
4.7905,1783190058.7045,1,1,2.0000,0.0000,1.44679,0.19234,-2.78744,1.02426,1.57079,0.00003,-0.14511,-0.38001,0.03613,,,,,,,,,,,,,,,,,,,,,,,,,,0,0,0,0,0
4.7968,1783190058.7108,1,1,2.0000,0.0000,1.44679,0.19219,-2.78747,1.02444,1.57079,0.00003,-0.14511,-0.38001,0.03609,,,,,,,,,,,,,,,,,,,,,,,,,,0,0,0,0,0
4.8105,1783190058.7245,1,1,2.0000,0.0000,1.44679,0.19211,-2.78749,1.02454,1.57079,0.00003,-0.14511,-0.38001,0.03607,,,,,,,,,,,,,,,,,,,,,,,,,,0,0,0,0,0
4.8233,1783190058.7372,1,1,2.0000,0.0000,1.44679,0.19200,-2.78752,1.02468,1.57079,0.00003,-0.14511,-0.38001,0.03604,,,,,,,,,,,,,,,,,,,,,,,,,,0,0,0,0,0
4.8281,1783190058.7420,1,1,2.0000,0.0000,1.44679,0.19188,-2.78754,1.02482,1.57079,0.00003,-0.14511,-0.38001,0.03601,,,,,,,,,,,,,,,,,,,,,,,,,,0,0,0,0,0
4.8284,1783190058.7423,1,1,2.0000,0.0000,1.44679,0.19188,-2.78754,1.02482,1.57079,0.00003,-0.14511,-0.38001,0.03601,,,,,,,,,,,,,,,,,,,,,,,,,,0,0,0,0,0
4.8433,1783190058.7572,1,1,2.0000,0.0000,1.44679,0.19183,-2.78756,1.02488,1.57079,0.00003,-0.14511,-0.38001,0.03600,,,,,,,,,,,,,,,,,,,,,,,,,,0,0,0,0,0
4.8526,1783190058.7666,1,1,2.0000,0.0000,1.44679,0.19164,-2.78760,1.02512,1.57079,0.00003,-0.14511,-0.38001,0.03595,,,,,,,,,,,,,,,,,,,,,,,,,,0,0,0,0,0
4.8531,1783190058.7670,1,1,2.0000,0.0000,1.44679,0.19164,-2.78760,1.02512,1.57079,0.00003,-0.14511,-0.38001,0.03595,,,,,,,,,,,,,,,,,,,,,,,,,,0,0,0,0,0
4.8590,1783190058.7729,1,1,2.0000,0.0000,1.44679,0.19157,-2.78762,1.02521,1.57079,0.00003,-0.14511,-0.38001,0.03594,,,,,,,,,,,,,,,,,,,,,,,,,,0,0,0,0,0
4.8593,1783190058.7733,1,1,2.0000,0.0000,1.44679,0.19157,-2.78762,1.02521,1.57079,0.00003,-0.14511,-0.38001,0.03594,,,,,,,,,,,,,,,,,,,,,,,,,,0,0,0,0,0
4.8673,1783190058.7813,1,1,2.0000,0.0000,1.44679,0.19149,-2.78763,1.02530,1.57079,0.00003,-0.14511,-0.38001,0.03592,,,,,,,,,,,,,,,,,,,,,,,,,,0,0,0,0,0
4.8679,1783190058.7819,1,1,2.0000,0.0000,1.44679,0.19148,-2.78764,1.02531,1.57079,0.00003,-0.14511,-0.38001,0.03592,,,,,,,,,,,,,,,,,,,,,,,,,,0,0,0,0,0
4.8912,1783190058.8052,1,1,2.0000,0.0000,1.44679,0.19125,-2.78769,1.02560,1.57079,0.00003,-0.14511,-0.38001,0.03586,,,,,,,,,,,,,,,,,,,,,,,,,,0,0,0,0,0
4.8916,1783190058.8055,1,1,2.0000,0.0000,1.44679,0.19125,-2.78769,1.02560,1.57079,0.00003,-0.14511,-0.38001,0.03586,,,,,,,,,,,,,,,,,,,,,,,,,,0,0,0,0,0
4.8946,1783190058.8085,1,1,2.0000,0.0000,1.44679,0.19125,-2.78769,1.02560,1.57079,0.00003,-0.14511,-0.38001,0.03586,,,,,,,,,,,,,,,,,,,,,,,,,,0,0,0,0,0
4.9130,1783190058.8270,1,1,2.0000,0.0000,1.44679,0.19101,-2.78774,1.02589,1.57079,0.00003,-0.14511,-0.38001,0.03580,,,,,,,,,,,,,,,,,,,,,,,,,,0,0,0,0,0
4.9133,1783190058.8273,1,1,2.0000,0.0000,1.44679,0.19101,-2.78774,1.02589,1.57079,0.00003,-0.14511,-0.38001,0.03580,,,,,,,,,,,,,,,,,,,,,,,,,,0,0,0,0,0
4.9162,1783190058.8302,1,1,2.0000,0.0000,1.44679,0.19094,-2.78776,1.02598,1.57079,0.00003,-0.14511,-0.38001,0.03578,,,,,,,,,,,,,,,,,,,,,,,,,,0,0,0,0,0
4.9167,1783190058.8307,1,1,2.0000,0.0000,1.44679,0.19094,-2.78776,1.02598,1.57079,0.00003,-0.14511,-0.38001,0.03578,,,,,,,,,,,,,,,,,,,,,,,,,,0,0,0,0,0
4.9306,1783190058.8445,1,1,2.0000,0.0000,1.44679,0.19085,-2.78778,1.02608,1.57079,0.00003,-0.14511,-0.38001,0.03576,,,,,,,,,,,,,,,,,,,,,,,,,,0,0,0,0,0
4.9364,1783190058.8504,1,1,2.0000,0.0000,1.44679,0.19079,-2.78779,1.02616,1.57079,0.00003,-0.14511,-0.38001,0.03575,,,,,,,,,,,,,,,,,,,,,,,,,,0,0,0,0,0
4.9461,1783190058.8601,1,1,2.0000,0.0000,1.44679,0.19069,-2.78782,1.02629,1.57079,0.00003,-0.14511,-0.38001,0.03572,,,,,,,,,,,,,,,,,,,,,,,,,,0,0,0,0,0
4.9581,1783190058.8721,1,1,2.0000,0.0000,1.44679,0.19061,-2.78783,1.02638,1.57079,0.00003,-0.14511,-0.38001,0.03570,,,,,,,,,,,,,,,,,,,,,,,,,,0,0,0,0,0
4.9586,1783190058.8725,1,1,2.0000,0.0000,1.44679,0.19061,-2.78783,1.02638,1.57079,0.00003,-0.14511,-0.38001,0.03570,,,,,,,,,,,,,,,,,,,,,,,,,,0,0,0,0,0
4.9662,1783190058.8801,1,1,2.0000,0.0000,1.44679,0.19052,-2.78785,1.02649,1.57079,0.00003,-0.14511,-0.38001,0.03568,,,,,,,,,,,,,,,,,,,,,,,,,,0,0,0,0,0
4.9807,1783190058.8947,1,1,2.0000,0.0000,1.44679,0.19023,-2.78792,1.02685,1.57079,0.00003,-0.14511,-0.38001,0.03561,,,,,,,,,,,,,,,,,,,,,,,,,,0,0,0,0,0
4.9864,1783190058.9003,1,1,2.0000,0.0000,1.44679,0.19023,-2.78792,1.02685,1.57079,0.00003,-0.14511,-0.38001,0.03561,,,,,,,,,,,,,,,,,,,,,,,,,,0,0,0,0,0
4.9971,1783190058.9110,1,1,2.0000,0.0000,1.44679,0.19016,-2.78794,1.02694,1.57079,0.00003,-0.14511,-0.38001,0.03559,,,,,,,,,,,,,,,,,,,,,,,,,,0,0,0,0,0
5.0086,1783190058.9226,1,1,2.0000,0.0000,1.44679,0.18999,-2.78797,1.02714,1.57079,0.00003,-0.14511,-0.38001,0.03555,,,,,,,,,,,,,,,,,,,,,,,,,,0,0,0,0,0
5.0091,1783190058.9230,1,1,2.0000,0.0000,1.44679,0.18999,-2.78797,1.02714,1.57079,0.00003,-0.14511,-0.38001,0.03555,,,,,,,,,,,,,,,,,,,,,,,,,,0,0,0,0,0
5.0182,1783190058.9322,1,1,2.0000,0.0000,1.44679,0.18998,-2.78798,1.02716,1.57079,0.00003,-0.14511,-0.38001,0.03555,,,,,,,,,,,,,,,,,,,,,,,,,,0,0,0,0,0
5.0292,1783190058.9432,1,1,2.0000,0.0000,1.44679,0.18983,-2.78801,1.02735,1.57079,0.00003,-0.14511,-0.38001,0.03551,,,,,,,,,,,,,,,,,,,,,,,,,,0,0,0,0,0
5.0374,1783190058.9513,1,1,2.0000,0.0000,1.44679,0.18968,-2.78805,1.02753,1.57079,0.00003,-0.14511,-0.38001,0.03547,,,,,,,,,,,,,,,,,,,,,,,,,,0,0,0,0,0
5.0948,1783190059.0087,1,1,2.0000,0.0000,1.44679,0.18906,-2.78819,1.02828,1.57079,0.00003,-0.14511,-0.38001,0.03532,,,,,,,,,,,,,,,,,,,,,,,,,,0,0,0,0,0
5.0953,1783190059.0093,1,1,2.0000,0.0000,1.44679,0.18906,-2.78819,1.02828,1.57079,0.00003,-0.14511,-0.38001,0.03532,,,,,,,,,,,,,,,,,,,,,,,,,,0,0,0,0,0
5.0961,1783190059.0101,1,1,2.0000,0.0000,1.44679,0.18899,-2.78820,1.02837,1.57079,0.00003,-0.14511,-0.38001,0.03530,,,,,,,,,,,,,,,,,,,,,,,,,,0,0,0,0,0
5.0968,1783190059.0108,1,1,2.0000,0.0000,1.44679,0.18899,-2.78820,1.02837,1.57079,0.00003,-0.14511,-0.38001,0.03530,,,,,,,,,,,,,,,,,,,,,,,,,,0,0,0,0,0
5.0994,1783190059.0134,1,1,2.0000,0.0000,1.44679,0.18899,-2.78820,1.02837,1.57079,0.00003,-0.14511,-0.38001,0.03530,,,,,,,,,,,,,,,,,,,,,,,,,,0,0,0,0,0
5.1081,1783190059.0220,1,1,2.0000,0.0000,1.44679,0.18890,-2.78822,1.02848,1.57079,0.00003,-0.14511,-0.38001,0.03528,,,,,,,,,,,,,,,,,,,,,,,,,,0,0,0,0,0
5.1180,1783190059.0320,1,1,2.0000,0.0000,1.44679,0.18882,-2.78824,1.02858,1.57079,0.00003,-0.14511,-0.38001,0.03526,,,,,,,,,,,,,,,,,,,,,,,,,,0,0,0,0,0
5.1299,1783190059.0439,1,1,2.0000,0.0000,1.44679,0.18861,-2.78829,1.02884,1.57079,0.00003,-0.14511,-0.38001,0.03521,,,,,,,,,,,,,,,,,,,,,,,,,,0,0,0,0,0
5.1387,1783190059.0527,1,1,2.0000,0.0000,1.44679,0.18859,-2.78829,1.02886,1.57079,0.00003,-0.14511,-0.38001,0.03521,,,,,,,,,,,,,,,,,,,,,,,,,,0,0,0,0,0
5.1390,1783190059.0530,1,1,2.0000,0.0000,1.44679,0.18859,-2.78829,1.02886,1.57079,0.00003,-0.14511,-0.38001,0.03521,,,,,,,,,,,,,,,,,,,,,,,,,,0,0,0,0,0
5.1510,1783190059.0650,1,1,2.0000,0.0000,1.44679,0.18844,-2.78833,1.02904,1.57079,0.00003,-0.14511,-0.38001,0.03517,,,,,,,,,,,,,,,,,,,,,,,,,,0,0,0,0,0
5.1562,1783190059.0701,1,1,2.0000,0.0000,1.44679,0.18830,-2.78836,1.02922,1.57079,0.00003,-0.14511,-0.38001,0.03513,,,,,,,,,,,,,,,,,,,,,,,,,,0,0,0,0,0
5.1564,1783190059.0703,1,1,2.0000,0.0000,1.44679,0.18830,-2.78836,1.02922,1.57079,0.00003,-0.14511,-0.38001,0.03513,,,,,,,,,,,,,,,,,,,,,,,,,,0,0,0,0,0
5.1700,1783190059.0840,1,1,2.0000,0.0000,1.44679,0.18822,-2.78838,1.02932,1.57079,0.00003,-0.14511,-0.38001,0.03511,,,,,,,,,,,,,,,,,,,,,,,,,,0,0,0,0,0
5.1763,1783190059.0902,1,1,2.0000,0.0000,1.44679,0.18813,-2.78840,1.02943,1.57079,0.00003,-0.14511,-0.38001,0.03509,,,,,,,,,,,,,,,,,,,,,,,,,,0,0,0,0,0
5.1905,1783190059.1045,1,1,2.0000,0.0000,1.44679,0.18792,-2.78844,1.02969,1.57079,0.00004,-0.14511,-0.38001,0.03504,,,,,,,,,,,,,,,,,,,,,,,,,,0,0,0,0,0
5.2010,1783190059.1149,1,1,2.0000,0.0000,1.44679,0.18784,-2.78846,1.02979,1.57079,0.00004,-0.14511,-0.38001,0.03502,,,,,,,,,,,,,,,,,,,,,,,,,,0,0,0,0,0
5.2125,1783190059.1265,1,1,2.0000,0.0000,1.44679,0.18772,-2.78849,1.02993,1.57079,0.00004,-0.14511,-0.38001,0.03499,,,,,,,,,,,,,,,,,,,,,,,,,,0,0,0,0,0
5.2129,1783190059.1269,1,1,2.0000,0.0000,1.44679,0.18772,-2.78849,1.02993,1.57079,0.00004,-0.14511,-0.38001,0.03499,,,,,,,,,,,,,,,,,,,,,,,,,,0,0,0,0,0
5.2162,1783190059.1301,1,1,2.0000,0.0000,1.44679,0.18767,-2.78850,1.03000,1.57079,0.00004,-0.14511,-0.38001,0.03498,,,,,,,,,,,,,,,,,,,,,,,,,,0,0,0,0,0
5.2164,1783190059.1304,1,1,2.0000,0.0000,1.44679,0.18767,-2.78850,1.03000,1.57079,0.00004,-0.14511,-0.38001,0.03498,,,,,,,,,,,,,,,,,,,,,,,,,,0,0,0,0,0
5.2282,1783190059.1422,1,1,2.0000,0.0000,1.44679,0.18759,-2.78852,1.03009,1.57079,0.00004,-0.14511,-0.38001,0.03496,,,,,,,,,,,,,,,,,,,,,,,,,,0,0,0,0,0
5.2471,1783190059.1611,1,1,2.0000,0.0000,1.44679,0.18736,-2.78857,1.03037,1.57079,0.00004,-0.14511,-0.38001,0.03490,,,,,,,,,,,,,,,,,,,,,,,,,,0,0,0,0,0
5.2541,1783190059.1681,1,1,2.0000,0.0000,1.44679,0.18721,-2.78860,1.03055,1.57079,0.00004,-0.14511,-0.38001,0.03487,,,,,,,,,,,,,,,,,,,,,,,,,,0,0,0,0,0
5.2544,1783190059.1684,1,1,2.0000,0.0000,1.44679,0.18721,-2.78860,1.03055,1.57079,0.00004,-0.14511,-0.38001,0.03487,,,,,,,,,,,,,,,,,,,,,,,,,,0,0,0,0,0
5.2593,1783190059.1733,1,1,2.0000,0.0000,1.44679,0.18721,-2.78860,1.03055,1.57079,0.00004,-0.14511,-0.38001,0.03487,,,,,,,,,,,,,,,,,,,,,,,,,,0,0,0,0,0
5.2665,1783190059.1805,1,1,2.0000,0.0000,1.44679,0.18718,-2.78861,1.03059,1.57079,0.00004,-0.14511,-0.38001,0.03486,,,,,,,,,,,,,,,,,,,,,,,,,,0,0,0,0,0
5.2812,1783190059.1951,1,1,2.0000,0.0000,1.44679,0.18697,-2.78866,1.03085,1.57079,0.00004,-0.14511,-0.38001,0.03481,,,,,,,,,,,,,,,,,,,,,,,,,,0,0,0,0,0
5.2895,1783190059.2034,1,1,2.0000,0.0000,1.44679,0.18696,-2.78866,1.03086,1.57079,0.00004,-0.14511,-0.38001,0.03480,,,,,,,,,,,,,,,,,,,,,,,,,,0,0,0,0,0
5.3014,1783190059.2153,1,1,2.0000,0.0000,1.44679,0.18680,-2.78870,1.03105,1.57079,0.00004,-0.14511,-0.38001,0.03477,,,,,,,,,,,,,,,,,,,,,,,,,,0,0,0,0,0
5.3072,1783190059.2211,1,1,2.0000,0.0000,1.44679,0.18673,-2.78871,1.03115,1.57079,0.00004,-0.14511,-0.38001,0.03475,,,,,,,,,,,,,,,,,,,,,,,,,,0,0,0,0,0
5.3074,1783190059.2214,1,1,2.0000,0.0000,1.44679,0.18673,-2.78871,1.03115,1.57079,0.00004,-0.14511,-0.38001,0.03475,,,,,,,,,,,,,,,,,,,,,,,,,,0,0,0,0,0
5.3162,1783190059.2301,1,1,2.0000,0.0000,1.44679,0.18658,-2.78875,1.03133,1.57079,0.00004,-0.14511,-0.38001,0.03471,,,,,,,,,,,,,,,,,,,,,,,,,,0,0,0,0,0
5.3165,1783190059.2304,1,1,2.0000,0.0000,1.44679,0.18658,-2.78875,1.03133,1.57079,0.00004,-0.14511,-0.38001,0.03471,,,,,,,,,,,,,,,,,,,,,,,,,,0,0,0,0,0
5.3300,1783190059.2440,1,1,2.0000,0.0000,1.44679,0.18648,-2.78877,1.03145,1.57079,0.00004,-0.14511,-0.38001,0.03469,,,,,,,,,,,,,,,,,,,,,,,,,,0,0,0,0,0
5.3304,1783190059.2444,1,1,2.0000,0.0000,1.44679,0.18648,-2.78877,1.03145,1.57079,0.00004,-0.14511,-0.38001,0.03469,,,,,,,,,,,,,,,,,,,,,,,,,,0,0,0,0,0
5.3369,1783190059.2509,1,1,2.0000,0.0000,1.44679,0.18634,-2.78880,1.03162,1.57079,0.00004,-0.14511,-0.38001,0.03465,,,,,,,,,,,,,,,,,,,,,,,,,,0,0,0,0,0
5.3373,1783190059.2512,1,1,2.0000,0.0000,1.44679,0.18634,-2.78880,1.03162,1.57079,0.00004,-0.14511,-0.38001,0.03465,,,,,,,,,,,,,,,,,,,,,,,,,,0,0,0,0,0
5.3574,1783190059.2714,1,1,2.0000,0.0000,1.44679,0.18617,-2.78884,1.03183,1.57079,0.00004,-0.14511,-0.38001,0.03461,,,,,,,,,,,,,,,,,,,,,,,,,,0,0,0,0,0
5.3578,1783190059.2718,1,1,2.0000,0.0000,1.44679,0.18617,-2.78884,1.03183,1.57079,0.00004,-0.14511,-0.38001,0.03461,,,,,,,,,,,,,,,,,,,,,,,,,,0,0,0,0,0
5.3665,1783190059.2805,1,1,2.0000,0.0000,1.44679,0.18603,-2.78887,1.03199,1.57079,0.00004,-0.14511,-0.38001,0.03458,,,,,,,,,,,,,,,,,,,,,,,,,,0,0,0,0,0
5.3668,1783190059.2808,1,1,2.0000,0.0000,1.44679,0.18603,-2.78887,1.03199,1.57079,0.00004,-0.14511,-0.38001,0.03458,,,,,,,,,,,,,,,,,,,,,,,,,,0,0,0,0,0
5.3800,1783190059.2939,1,1,2.0000,0.0000,1.44679,0.18588,-2.78890,1.03219,1.57079,0.00004,-0.14511,-0.38001,0.03454,,,,,,,,,,,,,,,,,,,,,,,,,,0,0,0,0,0
5.3874,1783190059.3014,1,1,2.0000,0.0000,1.44679,0.18584,-2.78891,1.03223,1.57079,0.00004,-0.14511,-0.38001,0.03453,,,,,,,,,,,,,,,,,,,,,,,,,,0,0,0,0,0
5.4013,1783190059.3153,1,1,2.0000,0.0000,1.44679,0.18558,-2.78897,1.03255,1.57079,0.00004,-0.14511,-0.38001,0.03447,,,,,,,,,,,,,,,,,,,,,,,,,,0,0,0,0,0
5.4094,1783190059.3234,1,1,2.0000,0.0000,1.44679,0.18557,-2.78897,1.03257,1.57079,0.00004,-0.14511,-0.38001,0.03446,,,,,,,,,,,,,,,,,,,,,,,,,,0,0,0,0,0
5.4227,1783190059.3367,1,1,2.0000,0.0000,1.44679,0.18542,-2.78901,1.03275,1.57079,0.00004,-0.14511,-0.38001,0.03443,,,,,,,,,,,,,,,,,,,,,,,,,,0,0,0,0,0
5.4382,1783190059.3522,1,1,2.0000,0.0000,1.44679,0.18520,-2.78906,1.03302,1.57079,0.00004,-0.14511,-0.38001,0.03437,,,,,,,,,,,,,,,,,,,,,,,,,,0,0,0,0,0
5.4387,1783190059.3526,1,1,2.0000,0.0000,1.44679,0.18520,-2.78906,1.03302,1.57079,0.00004,-0.14511,-0.38001,0.03437,,,,,,,,,,,,,,,,,,,,,,,,,,0,0,0,0,0
5.4485,1783190059.3625,1,1,2.0000,0.0000,1.44679,0.18510,-2.78908,1.03314,1.57079,0.00004,-0.14511,-0.38001,0.03435,,,,,,,,,,,,,,,,,,,,,,,,,,0,0,0,0,0
5.4580,1783190059.3720,1,1,2.0000,0.0000,1.44679,0.18496,-2.78911,1.03331,1.57079,0.00004,-0.14511,-0.38001,0.03432,,,,,,,,,,,,,,,,,,,,,,,,,,0,0,0,0,0
5.4683,1783190059.3822,1,1,2.0000,0.0000,1.44679,0.18487,-2.78913,1.03341,1.57079,0.00004,-0.14511,-0.38001,0.03429,,,,,,,,,,,,,,,,,,,,,,,,,,0,0,0,0,0
5.4915,1783190059.4055,1,1,2.0000,0.0000,1.44679,0.18458,-2.78920,1.03378,1.57079,0.00004,-0.14511,-0.38001,0.03422,,,,,,,,,,,,,,,,,,,,,,,,,,0,0,0,0,0
5.4922,1783190059.4061,1,1,2.0000,0.0000,1.44679,0.18451,-2.78921,1.03387,1.57079,0.00004,-0.14511,-0.38001,0.03420,,,,,,,,,,,,,,,,,,,,,,,,,,0,0,0,0,0
5.4975,1783190059.4115,1,1,2.0000,0.0000,1.44679,0.18451,-2.78921,1.03387,1.57079,0.00004,-0.14511,-0.38001,0.03420,,,,,,,,,,,,,,,,,,,,,,,,,,0,0,0,0,0
5.5130,1783190059.4269,1,1,2.0000,0.0000,1.44679,0.18434,-2.78925,1.03407,1.57079,0.00004,-0.14511,-0.38001,0.03416,,,,,,,,,,,,,,,,,,,,,,,,,,0,0,0,0,0
5.5634,1783190059.4773,1,1,2.0000,0.0000,1.44679,0.18380,-2.78937,1.03473,1.57079,0.00004,-0.14511,-0.38001,0.03403,,,,,,,,,,,,,,,,,,,,,,,,,,0,0,0,0,0
5.5641,1783190059.4781,1,1,2.0000,0.0000,1.44679,0.18377,-2.78938,1.03477,1.57079,0.00004,-0.14511,-0.38001,0.03402,,,,,,,,,,,,,,,,,,,,,,,,,,0,0,0,0,0
5.5649,1783190059.4789,1,1,2.0000,0.0000,1.44679,0.18377,-2.78938,1.03477,1.57079,0.00004,-0.14511,-0.38001,0.03402,,,,,,,,,,,,,,,,,,,,,,,,,,0,0,0,0,0
5.5699,1783190059.4839,1,1,2.0000,0.0000,1.44679,0.18371,-2.78939,1.03483,1.57079,0.00004,-0.14511,-0.38001,0.03401,,,,,,,,,,,,,,,,,,,,,,,,,,0,0,0,0,0
5.5776,1783190059.4915,1,1,2.0000,0.0000,1.44679,0.18358,-2.78942,1.03500,1.57079,0.00004,-0.14511,-0.38001,0.03398,,,,,,,,,,,,,,,,,,,,,,,,,,0,0,0,0,0
5.5900,1783190059.5039,1,1,2.0000,0.0000,1.44679,0.18349,-2.78944,1.03511,1.57079,0.00004,-0.14511,-0.38001,0.03396,,,,,,,,,,,,,,,,,,,,,,,,,,0,0,0,0,0
5.6086,1783190059.5225,1,1,2.0000,0.0000,1.44679,0.18319,-2.78950,1.03547,1.57079,0.00004,-0.14511,-0.38001,0.03388,,,,,,,,,,,,,,,,,,,,,,,,,,0,0,0,0,0
5.6098,1783190059.5238,1,1,2.0000,0.0000,1.44679,0.18319,-2.78950,1.03547,1.57079,0.00004,-0.14511,-0.38001,0.03388,,,,,,,,,,,,,,,,,,,,,,,,,,0,0,0,0,0
5.6100,1783190059.5240,1,1,2.0000,0.0000,1.44679,0.18319,-2.78950,1.03547,1.57079,0.00004,-0.14511,-0.38001,0.03388,,,,,,,,,,,,,,,,,,,,,,,,,,0,0,0,0,0
5.6179,1783190059.5319,1,1,2.0000,0.0000,1.44679,0.18312,-2.78952,1.03556,1.57079,0.00004,-0.14511,-0.38001,0.03387,,,,,,,,,,,,,,,,,,,,,,,,,,0,0,0,0,0
5.6275,1783190059.5415,1,1,2.0000,0.0000,1.44679,0.18307,-2.78953,1.03562,1.57079,0.00004,-0.14511,-0.38001,0.03385,,,,,,,,,,,,,,,,,,,,,,,,,,0,0,0,0,0
5.6403,1783190059.5543,1,1,2.0000,0.0000,1.44679,0.18281,-2.78959,1.03594,1.57079,0.00004,-0.14511,-0.38001,0.03379,,,,,,,,,,,,,,,,,,,,,,,,,,0,0,0,0,0
5.6462,1783190059.5602,1,1,2.0000,0.0000,1.44679,0.18274,-2.78961,1.03603,1.57079,0.00004,-0.14511,-0.38001,0.03377,,,,,,,,,,,,,,,,,,,,,,,,,,0,0,0,0,0
5.6674,1783190059.5814,1,1,2.0000,0.0000,1.44678,0.18261,-2.78963,1.03618,1.57079,0.00004,-0.14511,-0.38001,0.03374,,,,,,,,,,,,,,,,,,,,,,,,,,0,0,0,0,0
