Martins-Lucaas/twinforge/sensors/Data/20260704_154826__samples.csv
t_rel_s,t_unix,cycle,phase,setpoint_n,force_net_n,q1,q2,q3,q4,q5,q6,tcp_x,tcp_y,tcp_z,taxel_0,taxel_1,taxel_2,taxel_3,taxel_4,taxel_5,taxel_6,taxel_7,taxel_8,taxel_9,taxel_10,taxel_11,taxel_12,taxel_13,taxel_14,taxel_15,taxel_16,taxel_17,taxel_18,taxel_19,taxel_20,taxel_21,taxel_22,taxel_23,taxel_24,n_RA,n_SA,cn_mm,cn_ra,cn_sa
0.0089,1783190906.4107,1,0,5.0000,-0.0000,1.44682,0.23328,-2.77748,0.97337,1.57080,0.00000,-0.14512,-0.38003,0.04653,,,,,,,,,,,,,,,,,,,,,,,,,,0,0,0,0,0
0.0163,1783190906.4180,1,0,5.0000,-0.0000,1.44682,0.23328,-2.77748,0.97337,1.57080,0.00000,-0.14512,-0.38003,0.04653,,,,,,,,,,,,,,,,,,,,,,,,,,0,0,0,0,0
0.0292,1783190906.4310,1,0,5.0000,-0.0000,1.44682,0.23328,-2.77748,0.97337,1.57080,0.00000,-0.14512,-0.38003,0.04653,,,,,,,,,,,,,,,,,,,,,,,,,,0,0,0,0,0
0.0298,1783190906.4316,1,0,5.0000,-0.0000,1.44682,0.23328,-2.77748,0.97337,1.57080,0.00000,-0.14512,-0.38003,0.04653,,,,,,,,,,,,,,,,,,,,,,,,,,0,0,0,0,0
0.0385,1783190906.4403,1,0,5.0000,-0.0000,1.44682,0.23328,-2.77748,0.97337,1.57080,0.00000,-0.14512,-0.38003,0.04653,,,,,,,,,,,,,,,,,,,,,,,,,,0,0,0,0,0
0.0475,1783190906.4492,1,0,5.0000,-0.0000,1.44682,0.23328,-2.77748,0.97337,1.57080,0.00000,-0.14512,-0.38003,0.04653,,,,,,,,,,,,,,,,,,,,,,,,,,0,0,0,0,0
0.0478,1783190906.4495,1,0,5.0000,-0.0000,1.44682,0.23328,-2.77748,0.97337,1.57080,0.00000,-0.14512,-0.38003,0.04653,,,,,,,,,,,,,,,,,,,,,,,,,,0,0,0,0,0
0.0570,1783190906.4588,1,0,5.0000,-0.0000,1.44682,0.23328,-2.77748,0.97337,1.57080,0.00000,-0.14512,-0.38003,0.04653,,,,,,,,,,,,,,,,,,,,,,,,,,0,0,0,0,0
0.0574,1783190906.4592,1,0,5.0000,-0.0000,1.44682,0.23328,-2.77748,0.97337,1.57080,0.00000,-0.14512,-0.38003,0.04653,,,,,,,,,,,,,,,,,,,,,,,,,,0,0,0,0,0
0.0660,1783190906.4678,1,0,5.0000,-0.0000,1.44682,0.23328,-2.77748,0.97337,1.57080,0.00000,-0.14512,-0.38003,0.04653,,,,,,,,,,,,,,,,,,,,,,,,,,0,0,0,0,0
0.0787,1783190906.4805,1,0,5.0000,-0.0000,1.44682,0.23328,-2.77748,0.97337,1.57080,0.00000,-0.14512,-0.38003,0.04653,,,,,,,,,,,,,,,,,,,,,,,,,,0,0,0,0,0
0.0790,1783190906.4808,1,0,5.0000,-0.0000,1.44682,0.23328,-2.77748,0.97337,1.57080,0.00000,-0.14512,-0.38003,0.04653,,,,,,,,,,,,,,,,,,,,,,,,,,0,0,0,0,0
0.0875,1783190906.4893,1,0,5.0000,-0.0000,1.44682,0.23328,-2.77748,0.97337,1.57080,0.00000,-0.14512,-0.38003,0.04653,,,,,,,,,,,,,,,,,,,,,,,,,,0,0,0,0,0
0.0972,1783190906.4990,1,0,5.0000,-0.0000,1.44682,0.23328,-2.77748,0.97337,1.57080,0.00000,-0.14512,-0.38003,0.04653,,,,,,,,,,,,,,,,,,,,,,,,,,0,0,0,0,0
0.1099,1783190906.5117,1,0,5.0000,-0.0000,1.44682,0.23328,-2.77748,0.97337,1.57080,0.00000,-0.14512,-0.38003,0.04653,,,,,,,,,,,,,,,,,,,,,,,,,,0,0,0,0,0
0.1161,1783190906.5179,1,0,5.0000,-0.0000,1.44682,0.23328,-2.77748,0.97337,1.57080,0.00000,-0.14512,-0.38003,0.04653,,,,,,,,,,,,,,,,,,,,,,,,,,0,0,0,0,0
0.1261,1783190906.5279,1,0,5.0000,-0.0000,1.44682,0.23328,-2.77748,0.97337,1.57080,0.00000,-0.14512,-0.38003,0.04653,,,,,,,,,,,,,,,,,,,,,,,,,,0,0,0,0,0
0.1371,1783190906.5389,1,0,5.0000,-0.0000,1.44682,0.23328,-2.77748,0.97337,1.57080,0.00000,-0.14512,-0.38003,0.04653,,,,,,,,,,,,,,,,,,,,,,,,,,0,0,0,0,0
0.1475,1783190906.5493,1,0,5.0000,-0.0000,1.44682,0.23328,-2.77748,0.97337,1.57080,0.00000,-0.14512,-0.38003,0.04653,,,,,,,,,,,,,,,,,,,,,,,,,,0,0,0,0,0
0.1588,1783190906.5606,1,0,5.0000,-0.0000,1.44682,0.23328,-2.77748,0.97337,1.57080,0.00000,-0.14512,-0.38003,0.04653,,,,,,,,,,,,,,,,,,,,,,,,,,0,0,0,0,0
0.1592,1783190906.5609,1,0,5.0000,-0.0000,1.44682,0.23328,-2.77748,0.97337,1.57080,0.00000,-0.14512,-0.38003,0.04653,,,,,,,,,,,,,,,,,,,,,,,,,,0,0,0,0,0
0.1677,1783190906.5695,1,0,5.0000,-0.0000,1.44682,0.23328,-2.77748,0.97337,1.57080,0.00000,-0.14512,-0.38003,0.04653,,,,,,,,,,,,,,,,,,,,,,,,,,0,0,0,0,0
0.1783,1783190906.5801,1,0,5.0000,-0.0000,1.44682,0.23328,-2.77748,0.97337,1.57080,0.00000,-0.14512,-0.38003,0.04653,,,,,,,,,,,,,,,,,,,,,,,,,,0,0,0,0,0
0.1786,1783190906.5804,1,0,5.0000,-0.0000,1.44682,0.23328,-2.77748,0.97337,1.57080,0.00000,-0.14512,-0.38003,0.04653,,,,,,,,,,,,,,,,,,,,,,,,,,0,0,0,0,0
0.1867,1783190906.5885,1,0,5.0000,-0.0000,1.44682,0.23328,-2.77748,0.97337,1.57080,0.00000,-0.14512,-0.38003,0.04653,,,,,,,,,,,,,,,,,,,,,,,,,,0,0,0,0,0
0.1961,1783190906.5978,1,0,5.0000,-0.0000,1.44682,0.23328,-2.77748,0.97337,1.57080,0.00000,-0.14512,-0.38003,0.04653,,,,,,,,,,,,,,,,,,,,,,,,,,0,0,0,0,0
0.2111,1783190906.6129,1,0,5.0000,-0.0000,1.44682,0.23328,-2.77748,0.97337,1.57080,0.00000,-0.14512,-0.38003,0.04653,,,,,,,,,,,,,,,,,,,,,,,,,,0,0,0,0,0
0.2161,1783190906.6179,1,0,5.0000,-0.0000,1.44682,0.23328,-2.77748,0.97337,1.57080,0.00000,-0.14512,-0.38003,0.04653,,,,,,,,,,,,,,,,,,,,,,,,,,0,0,0,0,0
0.2277,1783190906.6295,1,0,5.0000,-0.0000,1.44682,0.23328,-2.77748,0.97337,1.57080,0.00000,-0.14512,-0.38003,0.04653,,,,,,,,,,,,,,,,,,,,,,,,,,0,0,0,0,0
0.2396,1783190906.6413,1,0,5.0000,-0.0000,1.44682,0.23328,-2.77748,0.97337,1.57080,0.00000,-0.14512,-0.38003,0.04653,,,,,,,,,,,,,,,,,,,,,,,,,,0,0,0,0,0
0.2507,1783190906.6524,1,0,5.0000,-0.0000,1.44682,0.23328,-2.77748,0.97337,1.57080,0.00000,-0.14512,-0.38003,0.04653,,,,,,,,,,,,,,,,,,,,,,,,,,0,0,0,0,0
0.2621,1783190906.6639,1,0,5.0000,-0.0000,1.44682,0.23328,-2.77748,0.97337,1.57080,0.00000,-0.14512,-0.38003,0.04653,,,,,,,,,,,,,,,,,,,,,,,,,,0,0,0,0,0
0.2661,1783190906.6679,1,0,5.0000,-0.0000,1.44682,0.23328,-2.77748,0.97337,1.57080,0.00000,-0.14512,-0.38003,0.04653,,,,,,,,,,,,,,,,,,,,,,,,,,0,0,0,0,0
0.2665,1783190906.6683,1,0,5.0000,-0.0000,1.44682,0.23328,-2.77748,0.97337,1.57080,0.00000,-0.14512,-0.38003,0.04653,,,,,,,,,,,,,,,,,,,,,,,,,,0,0,0,0,0
0.2787,1783190906.6805,1,0,5.0000,-0.0000,1.44682,0.23328,-2.77748,0.97337,1.57080,0.00000,-0.14512,-0.38003,0.04653,,,,,,,,,,,,,,,,,,,,,,,,,,0,0,0,0,0
0.2887,1783190906.6905,1,0,5.0000,-0.0000,1.44682,0.23328,-2.77748,0.97337,1.57080,0.00000,-0.14512,-0.38003,0.04653,,,,,,,,,,,,,,,,,,,,,,,,,,0,0,0,0,0
0.2965,1783190906.6983,1,0,5.0000,-0.0000,1.44682,0.23328,-2.77748,0.97337,1.57080,0.00000,-0.14512,-0.38003,0.04653,,,,,,,,,,,,,,,,,,,,,,,,,,0,0,0,0,0
0.3068,1783190906.7086,1,0,5.0000,-0.0000,1.44682,0.23328,-2.77748,0.97337,1.57080,0.00000,-0.14512,-0.38003,0.04653,,,,,,,,,,,,,,,,,,,,,,,,,,0,0,0,0,0
0.3167,1783190906.7185,1,0,5.0000,-0.0000,1.44682,0.23328,-2.77748,0.97337,1.57080,0.00000,-0.14512,-0.38003,0.04653,,,,,,,,,,,,,,,,,,,,,,,,,,0,0,0,0,0
0.3171,1783190906.7189,1,0,5.0000,-0.0000,1.44682,0.23328,-2.77748,0.97337,1.57080,0.00000,-0.14512,-0.38003,0.04653,,,,,,,,,,,,,,,,,,,,,,,,,,0,0,0,0,0
0.3300,1783190906.7318,1,0,5.0000,-0.0000,1.44682,0.23328,-2.77748,0.97337,1.57080,0.00000,-0.14512,-0.38003,0.04653,,,,,,,,,,,,,,,,,,,,,,,,,,0,0,0,0,0
0.3304,1783190906.7322,1,0,5.0000,-0.0000,1.44682,0.23328,-2.77748,0.97337,1.57080,0.00000,-0.14512,-0.38003,0.04653,,,,,,,,,,,,,,,,,,,,,,,,,,0,0,0,0,0
0.3371,1783190906.7389,1,0,5.0000,-0.0000,1.44682,0.23328,-2.77748,0.97337,1.57080,0.00000,-0.14512,-0.38003,0.04653,,,,,,,,,,,,,,,,,,,,,,,,,,0,0,0,0,0
0.3461,1783190906.7478,1,0,5.0000,-0.0000,1.44682,0.23328,-2.77748,0.97337,1.57080,0.00000,-0.14512,-0.38003,0.04653,,,,,,,,,,,,,,,,,,,,,,,,,,0,0,0,0,0
0.3566,1783190906.7584,1,0,5.0000,-0.0000,1.44682,0.23328,-2.77748,0.97337,1.57080,0.00000,-0.14512,-0.38003,0.04653,,,,,,,,,,,,,,,,,,,,,,,,,,0,0,0,0,0
0.3675,1783190906.7693,1,0,5.0000,-0.0000,1.44682,0.23328,-2.77748,0.97337,1.57080,0.00000,-0.14512,-0.38003,0.04653,,,,,,,,,,,,,,,,,,,,,,,,,,0,0,0,0,0
0.3767,1783190906.7785,1,0,5.0000,-0.0000,1.44682,0.23328,-2.77748,0.97337,1.57080,0.00000,-0.14512,-0.38003,0.04653,,,,,,,,,,,,,,,,,,,,,,,,,,0,0,0,0,0
0.3771,1783190906.7789,1,0,5.0000,-0.0000,1.44682,0.23328,-2.77748,0.97337,1.57080,0.00000,-0.14512,-0.38003,0.04653,,,,,,,,,,,,,,,,,,,,,,,,,,0,0,0,0,0
0.3869,1783190906.7887,1,0,5.0000,-0.0000,1.44682,0.23328,-2.77748,0.97337,1.57080,0.00000,-0.14512,-0.38003,0.04653,,,,,,,,,,,,,,,,,,,,,,,,,,0,0,0,0,0
0.4002,1783190906.8020,1,0,5.0000,-0.0000,1.44682,0.23328,-2.77748,0.97337,1.57080,0.00000,-0.14512,-0.38003,0.04653,,,,,,,,,,,,,,,,,,,,,,,,,,0,0,0,0,0
0.4085,1783190906.8103,1,0,5.0000,-0.0000,1.44682,0.23328,-2.77748,0.97337,1.57080,0.00000,-0.14512,-0.38003,0.04653,,,,,,,,,,,,,,,,,,,,,,,,,,0,0,0,0,0
0.4088,1783190906.8106,1,0,5.0000,-0.0000,1.44682,0.23328,-2.77748,0.97337,1.57080,0.00000,-0.14512,-0.38003,0.04653,,,,,,,,,,,,,,,,,,,,,,,,,,0,0,0,0,0
0.4204,1783190906.8222,1,0,5.0000,-0.0000,1.44682,0.23328,-2.77748,0.97337,1.57080,0.00000,-0.14512,-0.38003,0.04653,,,,,,,,,,,,,,,,,,,,,,,,,,0,0,0,0,0
0.4262,1783190906.8280,1,0,5.0000,-0.0000,1.44682,0.23328,-2.77748,0.97337,1.57080,0.00000,-0.14512,-0.38003,0.04653,,,,,,,,,,,,,,,,,,,,,,,,,,0,0,0,0,0
0.4381,1783190906.8399,1,0,5.0000,-0.0000,1.44682,0.23328,-2.77748,0.97337,1.57080,0.00000,-0.14512,-0.38003,0.04653,,,,,,,,,,,,,,,,,,,,,,,,,,0,0,0,0,0
0.4464,1783190906.8482,1,0,5.0000,-0.0000,1.44682,0.23328,-2.77748,0.97337,1.57080,0.00000,-0.14512,-0.38003,0.04653,,,,,,,,,,,,,,,,,,,,,,,,,,0,0,0,0,0
0.4562,1783190906.8579,1,0,5.0000,-0.0000,1.44682,0.23328,-2.77748,0.97337,1.57080,0.00000,-0.14512,-0.38003,0.04653,,,,,,,,,,,,,,,,,,,,,,,,,,0,0,0,0,0
0.4671,1783190906.8689,1,0,5.0000,-0.0000,1.44682,0.23328,-2.77748,0.97337,1.57080,0.00000,-0.14512,-0.38003,0.04653,,,,,,,,,,,,,,,,,,,,,,,,,,0,0,0,0,0
0.4674,1783190906.8691,1,0,5.0000,-0.0000,1.44682,0.23328,-2.77748,0.97337,1.57080,0.00000,-0.14512,-0.38003,0.04653,,,,,,,,,,,,,,,,,,,,,,,,,,0,0,0,0,0
0.4792,1783190906.8810,1,0,5.0000,-0.0000,1.44682,0.23328,-2.77748,0.97337,1.57080,0.00000,-0.14512,-0.38003,0.04653,,,,,,,,,,,,,,,,,,,,,,,,,,0,0,0,0,0
0.4796,1783190906.8814,1,0,5.0000,-0.0000,1.44682,0.23328,-2.77748,0.97337,1.57080,0.00000,-0.14512,-0.38003,0.04653,,,,,,,,,,,,,,,,,,,,,,,,,,0,0,0,0,0
0.4910,1783190906.8928,1,0,5.0000,-0.0000,1.44682,0.23328,-2.77748,0.97337,1.57080,0.00000,-0.14512,-0.38003,0.04653,,,,,,,,,,,,,,,,,,,,,,,,,,0,0,0,0,0
0.4970,1783190906.8988,1,0,5.0000,-0.0000,1.44682,0.23328,-2.77748,0.97337,1.57080,0.00000,-0.14512,-0.38003,0.04653,,,,,,,,,,,,,,,,,,,,,,,,,,0,0,0,0,0
0.5109,1783190906.9126,1,0,5.0000,-0.0000,1.44682,0.23328,-2.77748,0.97337,1.57080,0.00000,-0.14512,-0.38003,0.04653,,,,,,,,,,,,,,,,,,,,,,,,,,0,0,0,0,0
0.5192,1783190906.9210,1,0,5.0000,-0.0000,1.44682,0.23328,-2.77748,0.97337,1.57080,0.00000,-0.14512,-0.38003,0.04653,,,,,,,,,,,,,,,,,,,,,,,,,,0,0,0,0,0
0.5275,1783190906.9293,1,0,5.0000,-0.0000,1.44682,0.23328,-2.77748,0.97337,1.57080,0.00000,-0.14512,-0.38003,0.04653,,,,,,,,,,,,,,,,,,,,,,,,,,0,0,0,0,0
0.5400,1783190906.9418,1,0,5.0000,-0.0000,1.44682,0.23328,-2.77748,0.97337,1.57080,0.00000,-0.14512,-0.38003,0.04653,,,,,,,,,,,,,,,,,,,,,,,,,,0,0,0,0,0
0.5404,1783190906.9421,1,0,5.0000,-0.0000,1.44682,0.23328,-2.77748,0.97337,1.57080,0.00000,-0.14512,-0.38003,0.04653,,,,,,,,,,,,,,,,,,,,,,,,,,0,0,0,0,0
0.5508,1783190906.9525,1,0,5.0000,-0.0000,1.44682,0.23328,-2.77748,0.97337,1.57080,0.00000,-0.14512,-0.38003,0.04653,,,,,,,,,,,,,,,,,,,,,,,,,,0,0,0,0,0
0.5572,1783190906.9590,1,0,5.0000,-0.0000,1.44682,0.23328,-2.77748,0.97337,1.57080,0.00000,-0.14512,-0.38003,0.04653,,,,,,,,,,,,,,,,,,,,,,,,,,0,0,0,0,0
0.5683,1783190906.9701,1,0,5.0000,-0.0000,1.44682,0.23328,-2.77748,0.97337,1.57080,0.00000,-0.14512,-0.38003,0.04653,,,,,,,,,,,,,,,,,,,,,,,,,,0,0,0,0,0
0.5770,1783190906.9788,1,0,5.0000,-0.0000,1.44682,0.23328,-2.77748,0.97337,1.57080,0.00000,-0.14512,-0.38003,0.04653,,,,,,,,,,,,,,,,,,,,,,,,,,0,0,0,0,0
0.5914,1783190906.9931,1,0,5.0000,-0.0000,1.44682,0.23328,-2.77748,0.97337,1.57080,0.00000,-0.14512,-0.38003,0.04653,,,,,,,,,,,,,,,,,,,,,,,,,,0,0,0,0,0
0.5918,1783190906.9936,1,0,5.0000,-0.0000,1.44682,0.23328,-2.77748,0.97337,1.57080,0.00000,-0.14512,-0.38003,0.04653,,,,,,,,,,,,,,,,,,,,,,,,,,0,0,0,0,0
0.5995,1783190907.0012,1,0,5.0000,-0.0000,1.44682,0.23328,-2.77748,0.97337,1.57080,0.00000,-0.14512,-0.38003,0.04653,,,,,,,,,,,,,,,,,,,,,,,,,,0,0,0,0,0
0.6073,1783190907.0091,1,0,5.0000,-0.0000,1.44682,0.23328,-2.77748,0.97337,1.57080,0.00000,-0.14512,-0.38003,0.04653,,,,,,,,,,,,,,,,,,,,,,,,,,0,0,0,0,0
0.6167,1783190907.0185,1,0,5.0000,-0.0000,1.44682,0.23328,-2.77748,0.97337,1.57080,0.00000,-0.14512,-0.38003,0.04653,,,,,,,,,,,,,,,,,,,,,,,,,,0,0,0,0,0
0.6263,1783190907.0280,1,0,5.0000,-0.0000,1.44682,0.23328,-2.77748,0.97337,1.57080,0.00000,-0.14512,-0.38003,0.04653,,,,,,,,,,,,,,,,,,,,,,,,,,0,0,0,0,0
0.6268,1783190907.0286,1,0,5.0000,-0.0000,1.44682,0.23328,-2.77748,0.97337,1.57080,0.00000,-0.14512,-0.38003,0.04653,,,,,,,,,,,,,,,,,,,,,,,,,,0,0,0,0,0
0.6374,1783190907.0392,1,0,5.0000,-0.0000,1.44682,0.23328,-2.77748,0.97337,1.57080,0.00000,-0.14512,-0.38003,0.04653,,,,,,,,,,,,,,,,,,,,,,,,,,0,0,0,0,0
0.6464,1783190907.0482,1,0,5.0000,-0.0000,1.44682,0.23328,-2.77748,0.97337,1.57080,0.00000,-0.14512,-0.38003,0.04653,,,,,,,,,,,,,,,,,,,,,,,,,,0,0,0,0,0
0.6996,1783190907.1013,1,0,5.0000,-0.0000,1.44682,0.23328,-2.77748,0.97337,1.57080,0.00000,-0.14512,-0.38003,0.04653,,,,,,,,,,,,,,,,,,,,,,,,,,0,0,0,0,0
0.6999,1783190907.1017,1,0,5.0000,-0.0000,1.44682,0.23328,-2.77748,0.97337,1.57080,0.00000,-0.14512,-0.38003,0.04653,,,,,,,,,,,,,,,,,,,,,,,,,,0,0,0,0,0
0.7002,1783190907.1020,1,0,5.0000,-0.0000,1.44682,0.23328,-2.77748,0.97337,1.57080,0.00000,-0.14512,-0.38003,0.04653,,,,,,,,,,,,,,,,,,,,,,,,,,0,0,0,0,0
0.7088,1783190907.1105,1,0,5.0000,-0.0000,1.44682,0.23328,-2.77748,0.97337,1.57080,0.00000,-0.14512,-0.38003,0.04653,,,,,,,,,,,,,,,,,,,,,,,,,,0,0,0,0,0
0.7160,1783190907.1178,1,0,5.0000,-0.0000,1.44682,0.23328,-2.77748,0.97337,1.57080,0.00000,-0.14512,-0.38003,0.04653,,,,,,,,,,,,,,,,,,,,,,,,,,0,0,0,0,0
0.7261,1783190907.1279,1,0,5.0000,-0.0000,1.44682,0.23328,-2.77748,0.97337,1.57080,0.00000,-0.14512,-0.38003,0.04653,,,,,,,,,,,,,,,,,,,,,,,,,,0,0,0,0,0
0.7398,1783190907.1416,1,1,5.0000,-0.0000,1.44682,0.23328,-2.77748,0.97337,1.57080,0.00000,-0.14512,-0.38003,0.04653,,,,,,,,,,,,,,,,,,,,,,,,,,0,0,0,0,0
0.7489,1783190907.1507,1,1,5.0000,-0.0000,1.44682,0.23328,-2.77748,0.97337,1.57080,0.00000,-0.14512,-0.38003,0.04653,,,,,,,,,,,,,,,,,,,,,,,,,,0,0,0,0,0
0.7782,1783190907.1799,1,1,5.0000,-0.0000,1.44682,0.23328,-2.77748,0.97337,1.57080,0.00000,-0.14512,-0.38003,0.04653,,,,,,,,,,,,,,,,,,,,,,,,,,0,0,0,0,0
0.7785,1783190907.1802,1,1,5.0000,-0.0000,1.44682,0.23328,-2.77748,0.97337,1.57080,0.00000,-0.14512,-0.38003,0.04653,,,,,,,,,,,,,,,,,,,,,,,,,,0,0,0,0,0
0.7787,1783190907.1805,1,1,5.0000,-0.0000,1.44682,0.23328,-2.77748,0.97337,1.57080,0.00000,-0.14512,-0.38003,0.04653,,,,,,,,,,,,,,,,,,,,,,,,,,0,0,0,0,0
0.7790,1783190907.1807,1,1,5.0000,-0.0000,1.44682,0.23328,-2.77748,0.97337,1.57080,0.00000,-0.14512,-0.38003,0.04653,,,,,,,,,,,,,,,,,,,,,,,,,,0,0,0,0,0
0.8442,1783190907.2460,1,1,5.0000,-0.0000,1.44682,0.23328,-2.77748,0.97337,1.57080,0.00000,-0.14512,-0.38003,0.04653,,,,,,,,,,,,,,,,,,,,,,,,,,0,0,0,0,0
0.8446,1783190907.2463,1,1,5.0000,-0.0000,1.44682,0.23328,-2.77748,0.97337,1.57080,0.00000,-0.14512,-0.38003,0.04653,,,,,,,,,,,,,,,,,,,,,,,,,,0,0,0,0,0
0.8450,1783190907.2468,1,1,5.0000,-0.0000,1.44682,0.23328,-2.77748,0.97337,1.57080,0.00000,-0.14512,-0.38003,0.04653,,,,,,,,,,,,,,,,,,,,,,,,,,0,0,0,0,0
0.8453,1783190907.2471,1,1,5.0000,-0.0000,1.44682,0.23328,-2.77748,0.97337,1.57080,0.00000,-0.14512,-0.38003,0.04653,,,,,,,,,,,,,,,,,,,,,,,,,,0,0,0,0,0
0.8455,1783190907.2473,1,1,5.0000,-0.0000,1.44682,0.23328,-2.77748,0.97337,1.57080,0.00000,-0.14512,-0.38003,0.04653,,,,,,,,,,,,,,,,,,,,,,,,,,0,0,0,0,0
0.8461,1783190907.2479,1,1,5.0000,-0.0000,1.44682,0.23328,-2.77748,0.97337,1.57080,0.00000,-0.14512,-0.38003,0.04653,,,,,,,,,,,,,,,,,,,,,,,,,,0,0,0,0,0
0.8463,1783190907.2481,1,1,5.0000,-0.0000,1.44682,0.23328,-2.77748,0.97337,1.57080,0.00000,-0.14512,-0.38003,0.04653,,,,,,,,,,,,,,,,,,,,,,,,,,0,0,0,0,0
0.8540,1783190907.2558,1,1,5.0000,-0.0000,1.44682,0.23328,-2.77748,0.97337,1.57080,0.00000,-0.14512,-0.38003,0.04653,,,,,,,,,,,,,,,,,,,,,,,,,,0,0,0,0,0
0.8700,1783190907.2718,1,1,5.0000,-0.0000,1.44682,0.23328,-2.77748,0.97337,1.57080,0.00000,-0.14512,-0.38003,0.04653,,,,,,,,,,,,,,,,,,,,,,,,,,0,0,0,0,0
0.8828,1783190907.2846,1,1,5.0000,-0.0000,1.44682,0.23328,-2.77748,0.97337,1.57080,0.00000,-0.14512,-0.38003,0.04653,,,,,,,,,,,,,,,,,,,,,,,,,,0,0,0,0,0
0.8885,1783190907.2903,1,1,5.0000,-0.0000,1.44682,0.23328,-2.77748,0.97337,1.57080,0.00000,-0.14512,-0.38003,0.04653,,,,,,,,,,,,,,,,,,,,,,,,,,0,0,0,0,0
0.8889,1783190907.2907,1,1,5.0000,-0.0000,1.44682,0.23328,-2.77748,0.97337,1.57080,0.00000,-0.14512,-0.38003,0.04653,,,,,,,,,,,,,,,,,,,,,,,,,,0,0,0,0,0
0.9008,1783190907.3026,1,1,5.0000,-0.0000,1.44682,0.23328,-2.77748,0.97337,1.57080,0.00000,-0.14512,-0.38003,0.04653,,,,,,,,,,,,,,,,,,,,,,,,,,0,0,0,0,0
0.9092,1783190907.3110,1,1,5.0000,-0.0000,1.44682,0.23328,-2.77748,0.97337,1.57080,0.00000,-0.14512,-0.38003,0.04653,,,,,,,,,,,,,,,,,,,,,,,,,,0,0,0,0,0
0.9187,1783190907.3205,1,1,5.0000,-0.0000,1.44682,0.23328,-2.77748,0.97337,1.57080,0.00000,-0.14512,-0.38003,0.04653,,,,,,,,,,,,,,,,,,,,,,,,,,0,0,0,0,0
0.9406,1783190907.3424,1,1,5.0000,-0.0000,1.44682,0.23301,-2.77755,0.97371,1.57080,0.00000,-0.14512,-0.38003,0.04646,,,,,,,,,,,,,,,,,,,,,,,,,,0,0,0,0,0
0.9409,1783190907.3427,1,1,5.0000,-0.0000,1.44682,0.23301,-2.77755,0.97371,1.57080,0.00000,-0.14512,-0.38003,0.04646,,,,,,,,,,,,,,,,,,,,,,,,,,0,0,0,0,0
0.9588,1783190907.3606,1,1,5.0000,-0.0000,1.44682,0.23281,-2.77760,0.97396,1.57080,0.00000,-0.14512,-0.38003,0.04641,,,,,,,,,,,,,,,,,,,,,,,,,,0,0,0,0,0
0.9809,1783190907.3827,1,1,5.0000,-0.0000,1.44682,0.23257,-2.77766,0.97426,1.57080,0.00000,-0.14512,-0.38003,0.04634,,,,,,,,,,,,,,,,,,,,,,,,,,0,0,0,0,0
0.9813,1783190907.3831,1,1,5.0000,-0.0000,1.44682,0.23257,-2.77766,0.97426,1.57080,0.00000,-0.14512,-0.38003,0.04634,,,,,,,,,,,,,,,,,,,,,,,,,,0,0,0,0,0
0.9815,1783190907.3833,1,1,5.0000,-0.0000,1.44682,0.23257,-2.77766,0.97426,1.57080,0.00000,-0.14512,-0.38003,0.04634,,,,,,,,,,,,,,,,,,,,,,,,,,0,0,0,0,0
0.9907,1783190907.3925,1,1,5.0000,-0.0000,1.44682,0.23247,-2.77768,0.97438,1.57080,0.00000,-0.14512,-0.38003,0.04632,,,,,,,,,,,,,,,,,,,,,,,,,,0,0,0,0,0
1.0157,1783190907.4175,1,1,5.0000,-0.0000,1.44682,0.23220,-2.77776,0.97473,1.57080,0.00000,-0.14512,-0.38003,0.04625,,,,,,,,,,,,,,,,,,,,,,,,,,0,0,0,0,0
1.0160,1783190907.4178,1,1,5.0000,-0.0000,1.44682,0.23220,-2.77776,0.97473,1.57080,0.00000,-0.14512,-0.38003,0.04625,,,,,,,,,,,,,,,,,,,,,,,,,,0,0,0,0,0
1.0194,1783190907.4212,1,1,5.0000,-0.0000,1.44682,0.23217,-2.77776,0.97477,1.57080,0.00000,-0.14512,-0.38003,0.04624,,,,,,,,,,,,,,,,,,,,,,,,,,0,0,0,0,0
1.0197,1783190907.4215,1,1,5.0000,-0.0000,1.44682,0.23217,-2.77776,0.97477,1.57080,0.00000,-0.14512,-0.38003,0.04624,,,,,,,,,,,,,,,,,,,,,,,,,,0,0,0,0,0
1.0544,1783190907.4561,1,1,5.0000,-0.0000,1.44682,0.23177,-2.77787,0.97527,1.57080,0.00000,-0.14512,-0.38003,0.04613,,,,,,,,,,,,,,,,,,,,,,,,,,0,0,0,0,0
1.0555,1783190907.4573,1,1,5.0000,-0.0000,1.44682,0.23177,-2.77787,0.97527,1.57080,0.00000,-0.14512,-0.38003,0.04613,,,,,,,,,,,,,,,,,,,,,,,,,,0,0,0,0,0
1.0557,1783190907.4575,1,1,5.0000,-0.0000,1.44682,0.23177,-2.77787,0.97527,1.57080,0.00000,-0.14512,-0.38003,0.04613,,,,,,,,,,,,,,,,,,,,,,,,,,0,0,0,0,0
1.0608,1783190907.4626,1,1,5.0000,-0.0000,1.44682,0.23170,-2.77788,0.97535,1.57080,0.00000,-0.14512,-0.38003,0.04612,,,,,,,,,,,,,,,,,,,,,,,,,,0,0,0,0,0
1.0611,1783190907.4629,1,1,5.0000,-0.0000,1.44682,0.23170,-2.77788,0.97535,1.57080,0.00000,-0.14512,-0.38003,0.04612,,,,,,,,,,,,,,,,,,,,,,,,,,0,0,0,0,0
1.0710,1783190907.4728,1,1,5.0000,-0.0000,1.44682,0.23156,-2.77792,0.97552,1.57080,0.00000,-0.14512,-0.38003,0.04608,,,,,,,,,,,,,,,,,,,,,,,,,,0,0,0,0,0
1.0822,1783190907.4839,1,1,5.0000,-0.0000,1.44682,0.23147,-2.77794,0.97564,1.57080,0.00000,-0.14512,-0.38003,0.04606,,,,,,,,,,,,,,,,,,,,,,,,,,0,0,0,0,0
1.0824,1783190907.4842,1,1,5.0000,-0.0000,1.44682,0.23147,-2.77794,0.97564,1.57080,0.00000,-0.14512,-0.38003,0.04606,,,,,,,,,,,,,,,,,,,,,,,,,,0,0,0,0,0
1.0895,1783190907.4913,1,1,5.0000,-0.0000,1.44682,0.23141,-2.77796,0.97572,1.57080,0.00000,-0.14512,-0.38003,0.04604,,,,,,,,,,,,,,,,,,,,,,,,,,0,0,0,0,0
1.1003,1783190907.5020,1,1,5.0000,-0.0000,1.44682,0.23127,-2.77799,0.97589,1.57080,0.00000,-0.14512,-0.38003,0.04600,,,,,,,,,,,,,,,,,,,,,,,,,,0,0,0,0,0
1.1156,1783190907.5173,1,1,5.0000,-0.0000,1.44682,0.23112,-2.77803,0.97608,1.57080,0.00000,-0.14512,-0.38003,0.04596,,,,,,,,,,,,,,,,,,,,,,,,,,0,0,0,0,0
1.1216,1783190907.5234,1,1,5.0000,-0.0000,1.44682,0.23105,-2.77805,0.97617,1.57080,0.00000,-0.14512,-0.38003,0.04595,,,,,,,,,,,,,,,,,,,,,,,,,,0,0,0,0,0
1.1223,1783190907.5241,1,1,5.0000,-0.0000,1.44682,0.23098,-2.77807,0.97625,1.57080,0.00000,-0.14512,-0.38003,0.04593,,,,,,,,,,,,,,,,,,,,,,,,,,0,0,0,0,0
1.1342,1783190907.5359,1,1,5.0000,-0.0000,1.44682,0.23090,-2.77809,0.97635,1.57080,0.00000,-0.14512,-0.38003,0.04591,,,,,,,,,,,,,,,,,,,,,,,,,,0,0,0,0,0
1.1405,1783190907.5423,1,1,5.0000,-0.0000,1.44682,0.23087,-2.77810,0.97639,1.57080,0.00000,-0.14512,-0.38003,0.04590,,,,,,,,,,,,,,,,,,,,,,,,,,0,0,0,0,0
1.1514,1783190907.5532,1,1,5.0000,-0.0000,1.44682,0.23069,-2.77814,0.97662,1.57080,0.00000,-0.14512,-0.38003,0.04585,,,,,,,,,,,,,,,,,,,,,,,,,,0,0,0,0,0
1.1611,1783190907.5629,1,1,5.0000,-0.0000,1.44682,0.23062,-2.77816,0.97671,1.57080,0.00000,-0.14512,-0.38003,0.04583,,,,,,,,,,,,,,,,,,,,,,,,,,0,0,0,0,0
1.1706,1783190907.5724,1,1,5.0000,-0.0000,1.44682,0.23053,-2.77818,0.97682,1.57080,0.00000,-0.14512,-0.38003,0.04581,,,,,,,,,,,,,,,,,,,,,,,,,,0,0,0,0,0
1.1831,1783190907.5849,1,1,5.0000,-0.0000,1.44682,0.23034,-2.77823,0.97707,1.57080,0.00000,-0.14512,-0.38003,0.04576,,,,,,,,,,,,,,,,,,,,,,,,,,0,0,0,0,0
1.1926,1783190907.5943,1,1,5.0000,-0.0000,1.44682,0.23027,-2.77825,0.97715,1.57080,0.00000,-0.14512,-0.38003,0.04574,,,,,,,,,,,,,,,,,,,,,,,,,,0,0,0,0,0
1.1930,1783190907.5947,1,1,5.0000,-0.0000,1.44682,0.23027,-2.77825,0.97715,1.57080,0.00000,-0.14512,-0.38003,0.04574,,,,,,,,,,,,,,,,,,,,,,,,,,0,0,0,0,0
1.2025,1783190907.6043,1,1,5.0000,-0.0000,1.44682,0.23017,-2.77828,0.97727,1.57080,0.00000,-0.14512,-0.38003,0.04572,,,,,,,,,,,,,,,,,,,,,,,,,,0,0,0,0,0
1.2029,1783190907.6047,1,1,5.0000,-0.0000,1.44682,0.23017,-2.77828,0.97727,1.57080,0.00000,-0.14512,-0.38003,0.04572,,,,,,,,,,,,,,,,,,,,,,,,,,0,0,0,0,0
1.2146,1783190907.6164,1,1,5.0000,-0.0000,1.44682,0.22998,-2.77833,0.97752,1.57080,0.00000,-0.14512,-0.38003,0.04567,,,,,,,,,,,,,,,,,,,,,,,,,,0,0,0,0,0
1.2264,1783190907.6281,1,1,5.0000,-0.0000,1.44682,0.22993,-2.77834,0.97758,1.57080,0.00000,-0.14512,-0.38003,0.04565,,,,,,,,,,,,,,,,,,,,,,,,,,0,0,0,0,0
1.2267,1783190907.6284,1,1,5.0000,-0.0000,1.44682,0.22993,-2.77834,0.97758,1.57080,0.00000,-0.14512,-0.38003,0.04565,,,,,,,,,,,,,,,,,,,,,,,,,,0,0,0,0,0
1.2293,1783190907.6310,1,1,5.0000,-0.0000,1.44682,0.22993,-2.77834,0.97758,1.57080,0.00000,-0.14512,-0.38003,0.04565,,,,,,,,,,,,,,,,,,,,,,,,,,0,0,0,0,0
1.2298,1783190907.6315,1,1,5.0000,-0.0000,1.44682,0.22993,-2.77834,0.97758,1.57080,0.00000,-0.14512,-0.38003,0.04565,,,,,,,,,,,,,,,,,,,,,,,,,,0,0,0,0,0
1.2423,1783190907.6441,1,1,5.0000,-0.0000,1.44682,0.22969,-2.77840,0.97788,1.57080,0.00000,-0.14512,-0.38003,0.04559,,,,,,,,,,,,,,,,,,,,,,,,,,0,0,0,0,0
1.2638,1783190907.6656,1,1,5.0000,-0.0000,1.44682,0.22952,-2.77844,0.97809,1.57080,0.00000,-0.14512,-0.38003,0.04555,,,,,,,,,,,,,,,,,,,,,,,,,,0,0,0,0,0
1.2640,1783190907.6658,1,1,5.0000,-0.0000,1.44682,0.22952,-2.77844,0.97809,1.57080,0.00000,-0.14512,-0.38003,0.04555,,,,,,,,,,,,,,,,,,,,,,,,,,0,0,0,0,0
1.2755,1783190907.6773,1,1,5.0000,-0.0000,1.44682,0.22933,-2.77849,0.97834,1.57080,0.00000,-0.14512,-0.38003,0.04550,,,,,,,,,,,,,,,,,,,,,,,,,,0,0,0,0,0
1.2794,1783190907.6812,1,1,5.0000,-0.0000,1.44682,0.22933,-2.77849,0.97834,1.57080,0.00000,-0.14512,-0.38003,0.04550,,,,,,,,,,,,,,,,,,,,,,,,,,0,0,0,0,0
1.2797,1783190907.6815,1,1,5.0000,-0.0000,1.44682,0.22933,-2.77849,0.97834,1.57080,0.00000,-0.14512,-0.38003,0.04550,,,,,,,,,,,,,,,,,,,,,,,,,,0,0,0,0,0
1.2889,1783190907.6907,1,1,5.0000,-0.0000,1.44682,0.22928,-2.77850,0.97839,1.57080,0.00000,-0.14512,-0.38003,0.04548,,,,,,,,,,,,,,,,,,,,,,,,,,0,0,0,0,0
1.2893,1783190907.6911,1,1,5.0000,-0.0000,1.44682,0.22928,-2.77850,0.97839,1.57080,0.00000,-0.14512,-0.38003,0.04548,,,,,,,,,,,,,,,,,,,,,,,,,,0,0,0,0,0
1.3071,1783190907.7088,1,1,5.0000,-0.0000,1.44682,0.22897,-2.77858,0.97878,1.57080,0.00000,-0.14512,-0.38003,0.04540,,,,,,,,,,,,,,,,,,,,,,,,,,0,0,0,0,0
1.3103,1783190907.7120,1,1,5.0000,-0.0000,1.44682,0.22897,-2.77858,0.97878,1.57080,0.00000,-0.14512,-0.38003,0.04540,,,,,,,,,,,,,,,,,,,,,,,,,,0,0,0,0,0
1.3105,1783190907.7122,1,1,5.0000,-0.0000,1.44682,0.22897,-2.77858,0.97878,1.57080,0.00000,-0.14512,-0.38003,0.04540,,,,,,,,,,,,,,,,,,,,,,,,,,0,0,0,0,0
1.3192,1783190907.7209,1,1,5.0000,-0.0000,1.44682,0.22892,-2.77860,0.97884,1.57080,0.00000,-0.14512,-0.38003,0.04539,,,,,,,,,,,,,,,,,,,,,,,,,,0,0,0,0,0
1.3294,1783190907.7312,1,1,5.0000,-0.0000,1.44682,0.22881,-2.77862,0.97898,1.57080,0.00000,-0.14512,-0.38003,0.04536,,,,,,,,,,,,,,,,,,,,,,,,,,0,0,0,0,0
1.3412,1783190907.7430,1,1,5.0000,-0.0000,1.44682,0.22861,-2.77868,0.97924,1.57080,0.00000,-0.14512,-0.38003,0.04531,,,,,,,,,,,,,,,,,,,,,,,,,,0,0,0,0,0
1.3491,1783190907.7509,1,1,5.0000,-0.0000,1.44682,0.22860,-2.77868,0.97925,1.57080,0.00000,-0.14512,-0.38003,0.04531,,,,,,,,,,,,,,,,,,,,,,,,,,0,0,0,0,0
1.3626,1783190907.7644,1,1,5.0000,-0.0000,1.44682,0.22844,-2.77872,0.97945,1.57080,0.00000,-0.14512,-0.38003,0.04527,,,,,,,,,,,,,,,,,,,,,,,,,,0,0,0,0,0
1.3631,1783190907.7649,1,1,5.0000,-0.0000,1.44682,0.22844,-2.77872,0.97945,1.57080,0.00000,-0.14512,-0.38003,0.04527,,,,,,,,,,,,,,,,,,,,,,,,,,0,0,0,0,0
1.3692,1783190907.7710,1,1,5.0000,-0.0000,1.44682,0.22838,-2.77873,0.97952,1.57080,0.00000,-0.14512,-0.38003,0.04525,,,,,,,,,,,,,,,,,,,,,,,,,,0,0,0,0,0
1.3799,1783190907.7817,1,1,5.0000,-0.0000,1.44682,0.22833,-2.77875,0.97958,1.57080,0.00000,-0.14512,-0.38003,0.04524,,,,,,,,,,,,,,,,,,,,,,,,,,0,0,0,0,0
1.3915,1783190907.7933,1,1,5.0000,-0.0000,1.44682,0.22815,-2.77879,0.97981,1.57080,0.00000,-0.14512,-0.38003,0.04519,,,,,,,,,,,,,,,,,,,,,,,,,,0,0,0,0,0
1.4005,1783190907.8023,1,1,5.0000,-0.0000,1.44682,0.22801,-2.77883,0.97999,1.57080,0.00000,-0.14512,-0.38003,0.04515,,,,,,,,,,,,,,,,,,,,,,,,,,0,0,0,0,0
1.4009,1783190907.8027,1,1,5.0000,-0.0000,1.44682,0.22801,-2.77883,0.97999,1.57080,0.00000,-0.14512,-0.38003,0.04515,,,,,,,,,,,,,,,,,,,,,,,,,,0,0,0,0,0
1.4110,1783190907.8127,1,1,5.0000,-0.0000,1.44682,0.22798,-2.77884,0.98003,1.57080,0.00000,-0.14512,-0.38003,0.04515,,,,,,,,,,,,,,,,,,,,,,,,,,0,0,0,0,0
1.4211,1783190907.8228,1,1,5.0000,-0.0000,1.44682,0.22790,-2.77886,0.98013,1.57080,0.00000,-0.14512,-0.38003,0.04512,,,,,,,,,,,,,,,,,,,,,,,,,,0,0,0,0,0
1.4291,1783190907.8308,1,1,5.0000,-0.0000,1.44682,0.22778,-2.77889,0.98027,1.57080,0.00000,-0.14512,-0.38003,0.04509,,,,,,,,,,,,,,,,,,,,,,,,,,0,0,0,0,0
1.4413,1783190907.8431,1,1,5.0000,-0.0000,1.44682,0.22774,-2.77890,0.98033,1.57080,0.00000,-0.14512,-0.38003,0.04508,,,,,,,,,,,,,,,,,,,,,,,,,,0,0,0,0,0
1.4504,1783190907.8522,1,1,5.0000,-0.0000,1.44682,0.22755,-2.77894,0.98056,1.57080,0.00000,-0.14512,-0.38003,0.04504,,,,,,,,,,,,,,,,,,,,,,,,,,0,0,0,0,0
1.4616,1783190907.8634,1,1,5.0000,-0.0000,1.44682,0.22741,-2.77898,0.98074,1.57080,0.00000,-0.14512,-0.38003,0.04500,,,,,,,,,,,,,,,,,,,,,,,,,,0,0,0,0,0
1.4691,1783190907.8709,1,1,5.0000,-0.0000,1.44682,0.22740,-2.77898,0.98075,1.57080,0.00000,-0.14512,-0.38003,0.04500,,,,,,,,,,,,,,,,,,,,,,,,,,0,0,0,0,0
1.4837,1783190907.8855,1,1,5.0000,-0.0000,1.44682,0.22724,-2.77902,0.98095,1.57080,0.00000,-0.14512,-0.38003,0.04496,,,,,,,,,,,,,,,,,,,,,,,,,,0,0,0,0,0
1.4903,1783190907.8921,1,1,5.0000,-0.0000,1.44682,0.22719,-2.77904,0.98102,1.57080,0.00000,-0.14512,-0.38003,0.04494,,,,,,,,,,,,,,,,,,,,,,,,,,0,0,0,0,0
1.5095,1783190907.9113,1,1,5.0000,-0.0000,1.44682,0.22703,-2.77908,0.98122,1.57080,0.00001,-0.14512,-0.38003,0.04490,,,,,,,,,,,,,,,,,,,,,,,,,,0,0,0,0,0
1.5116,1783190907.9134,1,1,5.0000,-0.0000,1.44682,0.22696,-2.77910,0.98131,1.57080,0.00001,-0.14512,-0.38003,0.04488,,,,,,,,,,,,,,,,,,,,,,,,,,0,0,0,0,0
1.5121,1783190907.9139,1,1,5.0000,-0.0000,1.44682,0.22696,-2.77910,0.98131,1.57080,0.00001,-0.14512,-0.38003,0.04488,,,,,,,,,,,,,,,,,,,,,,,,,,0,0,0,0,0
1.5212,1783190907.9229,1,1,5.0000,-0.0000,1.44682,0.22682,-2.77913,0.98149,1.57080,0.00001,-0.14512,-0.38003,0.04484,,,,,,,,,,,,,,,,,,,,,,,,,,0,0,0,0,0
1.5293,1783190907.9310,1,1,5.0000,-0.0000,1.44682,0.22680,-2.77913,0.98150,1.57080,0.00001,-0.14512,-0.38003,0.04484,,,,,,,,,,,,,,,,,,,,,,,,,,0,0,0,0,0
1.5418,1783190907.9436,1,1,5.0000,-0.0000,1.44682,0.22666,-2.77917,0.98168,1.57080,0.00001,-0.14512,-0.38003,0.04480,,,,,,,,,,,,,,,,,,,,,,,,,,0,0,0,0,0
1.5496,1783190907.9514,1,1,5.0000,-0.0000,1.44682,0.22652,-2.77921,0.98185,1.57080,0.00001,-0.14512,-0.38003,0.04477,,,,,,,,,,,,,,,,,,,,,,,,,,0,0,0,0,0
1.5590,1783190907.9608,1,1,5.0000,-0.0000,1.44682,0.22648,-2.77922,0.98191,1.57080,0.00001,-0.14512,-0.38003,0.04476,,,,,,,,,,,,,,,,,,,,,,,,,,0,0,0,0,0
1.5692,1783190907.9710,1,1,5.0000,-0.0000,1.44682,0.22637,-2.77924,0.98204,1.57080,0.00001,-0.14512,-0.38003,0.04473,,,,,,,,,,,,,,,,,,,,,,,,,,0,0,0,0,0
1.5838,1783190907.9856,1,1,5.0000,-0.0000,1.44682,0.22616,-2.77930,0.98230,1.57080,0.00001,-0.14512,-0.38003,0.04468,,,,,,,,,,,,,,,,,,,,,,,,,,0,0,0,0,0
1.5922,1783190907.9940,1,1,5.0000,-0.0000,1.44682,0.22612,-2.77931,0.98236,1.57080,0.00001,-0.14512,-0.38003,0.04466,,,,,,,,,,,,,,,,,,,,,,,,,,0,0,0,0,0
1.6006,1783190908.0024,1,1,5.0000,-0.0000,1.44682,0.22601,-2.77934,0.98250,1.57080,0.00001,-0.14512,-0.38003,0.04463,,,,,,,,,,,,,,,,,,,,,,,,,,0,0,0,0,0
1.6117,1783190908.0134,1,1,5.0000,-0.0000,1.44682,0.22587,-2.77937,0.98267,1.57080,0.00001,-0.14512,-0.38003,0.04460,,,,,,,,,,,,,,,,,,,,,,,,,,0,0,0,0,0
1.6197,1783190908.0214,1,1,5.0000,-0.0000,1.44682,0.22583,-2.77938,0.98273,1.57080,0.00001,-0.14512,-0.38003,0.04459,,,,,,,,,,,,,,,,,,,,,,,,,,0,0,0,0,0
1.6292,1783190908.0310,1,1,5.0000,-0.0000,1.44682,0.22572,-2.77941,0.98286,1.57080,0.00001,-0.14512,-0.38003,0.04456,,,,,,,,,,,,,,,,,,,,,,,,,,0,0,0,0,0
1.6296,1783190908.0313,1,1,5.0000,-0.0000,1.44682,0.22572,-2.77941,0.98286,1.57080,0.00001,-0.14512,-0.38003,0.04456,,,,,,,,,,,,,,,,,,,,,,,,,,0,0,0,0,0
1.6405,1783190908.0422,1,1,5.0000,-0.0000,1.44682,0.22551,-2.77946,0.98312,1.57080,0.00001,-0.14512,-0.38003,0.04451,,,,,,,,,,,,,,,,,,,,,,,,,,0,0,0,0,0
1.6408,1783190908.0425,1,1,5.0000,-0.0000,1.44682,0.22551,-2.77946,0.98312,1.57080,0.00001,-0.14512,-0.38003,0.04451,,,,,,,,,,,,,,,,,,,,,,,,,,0,0,0,0,0
1.6507,1783190908.0525,1,1,5.0000,-0.0000,1.44682,0.22547,-2.77947,0.98318,1.57080,0.00001,-0.14512,-0.38002,0.04449,,,,,,,,,,,,,,,,,,,,,,,,,,0,0,0,0,0
1.6510,1783190908.0527,1,1,5.0000,-0.0000,1.44682,0.22547,-2.77947,0.98318,1.57080,0.00001,-0.14512,-0.38002,0.04449,,,,,,,,,,,,,,,,,,,,,,,,,,0,0,0,0,0
1.6615,1783190908.0632,1,1,5.0000,-0.0000,1.44682,0.22536,-2.77950,0.98331,1.57080,0.00001,-0.14512,-0.38002,0.04447,,,,,,,,,,,,,,,,,,,,,,,,,,0,0,0,0,0
1.6705,1783190908.0723,1,1,5.0000,-0.0000,1.44682,0.22522,-2.77954,0.98349,1.57080,0.00001,-0.14512,-0.38002,0.04443,,,,,,,,,,,,,,,,,,,,,,,,,,0,0,0,0,0
1.6834,1783190908.0852,1,1,5.0000,-0.0000,1.44682,0.22512,-2.77956,0.98361,1.57080,0.00001,-0.14512,-0.38002,0.04441,,,,,,,,,,,,,,,,,,,,,,,,,,0,0,0,0,0
1.6949,1783190908.0967,1,1,5.0000,-0.0000,1.44682,0.22492,-2.77961,0.98385,1.57080,0.00001,-0.14512,-0.38002,0.04435,,,,,,,,,,,,,,,,,,,,,,,,,,0,0,0,0,0
1.7005,1783190908.1022,1,1,5.0000,-0.0000,1.44682,0.22486,-2.77963,0.98394,1.57080,0.00001,-0.14512,-0.38002,0.04434,,,,,,,,,,,,,,,,,,,,,,,,,,0,0,0,0,0
1.7121,1783190908.1139,1,1,5.0000,-0.0000,1.44682,0.22481,-2.77964,0.98399,1.57080,0.00001,-0.14512,-0.38002,0.04433,,,,,,,,,,,,,,,,,,,,,,,,,,0,0,0,0,0
1.7208,1783190908.1226,1,1,5.0000,-0.0000,1.44682,0.22470,-2.77967,0.98413,1.57080,0.00001,-0.14512,-0.38002,0.04430,,,,,,,,,,,,,,,,,,,,,,,,,,0,0,0,0,0
1.7294,1783190908.1312,1,1,5.0000,-0.0000,1.44682,0.22456,-2.77970,0.98431,1.57080,0.00001,-0.14512,-0.38002,0.04426,,,,,,,,,,,,,,,,,,,,,,,,,,0,0,0,0,0
1.7433,1783190908.1450,1,1,5.0000,-0.0000,1.44682,0.22447,-2.77972,0.98442,1.57080,0.00001,-0.14512,-0.38002,0.04424,,,,,,,,,,,,,,,,,,,,,,,,,,0,0,0,0,0
1.7511,1783190908.1529,1,1,5.0000,-0.0000,1.44682,0.22434,-2.77976,0.98458,1.57080,0.00001,-0.14512,-0.38002,0.04420,,,,,,,,,,,,,,,,,,,,,,,,,,0,0,0,0,0
1.7623,1783190908.1641,1,1,5.0000,-0.0000,1.44682,0.22420,-2.77979,0.98476,1.57080,0.00001,-0.14512,-0.38002,0.04417,,,,,,,,,,,,,,,,,,,,,,,,,,0,0,0,0,0
1.7692,1783190908.1710,1,1,5.0000,-0.0000,1.44682,0.22419,-2.77980,0.98477,1.57080,0.00001,-0.14512,-0.38002,0.04416,,,,,,,,,,,,,,,,,,,,,,,,,,0,0,0,0,0
1.7794,1783190908.1811,1,1,5.0000,-0.0000,1.44682,0.22405,-2.77983,0.98495,1.57080,0.00001,-0.14512,-0.38002,0.04413,,,,,,,,,,,,,,,,,,,,,,,,,,0,0,0,0,0
1.7917,1783190908.1935,1,1,5.0000,-0.0000,1.44682,0.22391,-2.77987,0.98513,1.57080,0.00001,-0.14512,-0.38002,0.04409,,,,,,,,,,,,,,,,,,,,,,,,,,0,0,0,0,0
1.8007,1783190908.2024,1,1,5.0000,-0.0000,1.44682,0.22386,-2.77988,0.98518,1.57080,0.00001,-0.14512,-0.38002,0.04408,,,,,,,,,,,,,,,,,,,,,,,,,,0,0,0,0,0
1.8104,1783190908.2122,1,1,5.0000,-0.0000,1.44682,0.22369,-2.77992,0.98540,1.57080,0.00001,-0.14512,-0.38002,0.04403,,,,,,,,,,,,,,,,,,,,,,,,,,0,0,0,0,0
1.8203,1783190908.2221,1,1,5.0000,-0.0000,1.44682,0.22355,-2.77996,0.98558,1.57080,0.00001,-0.14512,-0.38002,0.04400,,,,,,,,,,,,,,,,,,,,,,,,,,0,0,0,0,0
1.8319,1783190908.2337,1,1,5.0000,-0.0000,1.44682,0.22350,-2.77997,0.98563,1.57080,0.00001,-0.14512,-0.38002,0.04399,,,,,,,,,,,,,,,,,,,,,,,,,,0,0,0,0,0
1.8411,1783190908.2428,1,1,5.0000,-0.0000,1.44682,0.22339,-2.78000,0.98577,1.57080,0.00001,-0.14512,-0.38002,0.04396,,,,,,,,,,,,,,,,,,,,,,,,,,0,0,0,0,0
1.8512,1783190908.2530,1,1,5.0000,-0.0000,1.44682,0.22325,-2.78003,0.98595,1.57080,0.00001,-0.14512,-0.38002,0.04392,,,,,,,,,,,,,,,,,,,,,,,,,,0,0,0,0,0
1.8624,1783190908.2642,1,1,5.0000,-0.0000,1.44682,0.22316,-2.78005,0.98606,1.57080,0.00001,-0.14512,-0.38002,0.04390,,,,,,,,,,,,,,,,,,,,,,,,,,0,0,0,0,0
1.8708,1783190908.2726,1,1,5.0000,-0.0000,1.44682,0.22303,-2.78009,0.98622,1.57080,0.00001,-0.14512,-0.38002,0.04387,,,,,,,,,,,,,,,,,,,,,,,,,,0,0,0,0,0
1.8810,1783190908.2827,1,1,5.0000,-0.0000,1.44682,0.22289,-2.78012,0.98640,1.57080,0.00001,-0.14512,-0.38002,0.04383,,,,,,,,,,,,,,,,,,,,,,,,,,0,0,0,0,0
1.8907,1783190908.2924,1,1,5.0000,-0.0000,1.44682,0.22285,-2.78013,0.98645,1.57080,0.00001,-0.14512,-0.38002,0.04382,,,,,,,,,,,,,,,,,,,,,,,,,,0,0,0,0,0
1.8910,1783190908.2927,1,1,5.0000,-0.0000,1.44682,0.22285,-2.78013,0.98645,1.57080,0.00001,-0.14512,-0.38002,0.04382,,,,,,,,,,,,,,,,,,,,,,,,,,0,0,0,0,0
1.8994,1783190908.3012,1,1,5.0000,-0.0000,1.44682,0.22274,-2.78016,0.98659,1.57080,0.00001,-0.14512,-0.38002,0.04379,,,,,,,,,,,,,,,,,,,,,,,,,,0,0,0,0,0
1.9091,1783190908.3109,1,1,5.0000,-0.0000,1.44681,0.22260,-2.78020,0.98677,1.57080,0.00001,-0.14512,-0.38002,0.04375,,,,,,,,,,,,,,,,,,,,,,,,,,0,0,0,0,0
1.9222,1783190908.3240,1,1,5.0000,-0.0000,1.44681,0.22250,-2.78022,0.98689,1.57080,0.00001,-0.14512,-0.38002,0.04373,,,,,,,,,,,,,,,,,,,,,,,,,,0,0,0,0,0
1.9337,1783190908.3355,1,1,5.0000,-0.0000,1.44681,0.22241,-2.78024,0.98700,1.57080,0.00001,-0.14512,-0.38002,0.04371,,,,,,,,,,,,,,,,,,,,,,,,,,0,0,0,0,0
1.9423,1783190908.3441,1,1,5.0000,-0.0000,1.44681,0.22230,-2.78027,0.98714,1.57080,0.00001,-0.14512,-0.38002,0.04368,,,,,,,,,,,,,,,,,,,,,,,,,,0,0,0,0,0
1.9426,1783190908.3444,1,1,5.0000,-0.0000,1.44681,0.22230,-2.78027,0.98714,1.57080,0.00001,-0.14512,-0.38002,0.04368,,,,,,,,,,,,,,,,,,,,,,,,,,0,0,0,0,0
1.9557,1783190908.3575,1,1,5.0000,-0.0000,1.44681,0.22220,-2.78029,0.98726,1.57080,0.00001,-0.14512,-0.38002,0.04365,,,,,,,,,,,,,,,,,,,,,,,,,,0,0,0,0,0
1.9624,1783190908.3642,1,1,5.0000,-0.0000,1.44681,0.22207,-2.78033,0.98743,1.57080,0.00001,-0.14512,-0.38002,0.04362,,,,,,,,,,,,,,,,,,,,,,,,,,0,0,0,0,0
1.9629,1783190908.3646,1,1,5.0000,-0.0000,1.44681,0.22207,-2.78033,0.98743,1.57080,0.00001,-0.14512,-0.38002,0.04362,,,,,,,,,,,,,,,,,,,,,,,,,,0,0,0,0,0
1.9743,1783190908.3761,1,1,5.0000,-0.0000,1.44681,0.22192,-2.78036,0.98761,1.57080,0.00001,-0.14512,-0.38002,0.04358,,,,,,,,,,,,,,,,,,,,,,,,,,0,0,0,0,0
1.9825,1783190908.3843,1,1,5.0000,-0.0000,1.44681,0.22189,-2.78037,0.98765,1.57080,0.00001,-0.14512,-0.38002,0.04357,,,,,,,,,,,,,,,,,,,,,,,,,,0,0,0,0,0
1.9829,1783190908.3847,1,1,5.0000,-0.0000,1.44681,0.22189,-2.78037,0.98765,1.57080,0.00001,-0.14512,-0.38002,0.04357,,,,,,,,,,,,,,,,,,,,,,,,,,0,0,0,0,0
1.9944,1783190908.3962,1,1,5.0000,-0.0000,1.44681,0.22175,-2.78041,0.98782,1.57080,0.00001,-0.14512,-0.38002,0.04354,,,,,,,,,,,,,,,,,,,,,,,,,,0,0,0,0,0
1.9947,1783190908.3965,1,1,5.0000,-0.0000,1.44681,0.22175,-2.78041,0.98782,1.57080,0.00001,-0.14512,-0.38002,0.04354,,,,,,,,,,,,,,,,,,,,,,,,,,0,0,0,0,0
1.9951,1783190908.3969,1,1,5.0000,-0.0000,1.44681,0.22175,-2.78041,0.98782,1.57080,0.00001,-0.14512,-0.38002,0.04354,,,,,,,,,,,,,,,,,,,,,,,,,,0,0,0,0,0
2.0072,1783190908.4090,1,1,5.0000,-0.0000,1.44681,0.22168,-2.78042,0.98791,1.57080,0.00001,-0.14512,-0.38002,0.04352,,,,,,,,,,,,,,,,,,,,,,,,,,0,0,0,0,0
2.0151,1783190908.4169,1,1,5.0000,-0.0000,1.44681,0.22160,-2.78045,0.98802,1.57080,0.00001,-0.14512,-0.38002,0.04350,,,,,,,,,,,,,,,,,,,,,,,,,,0,0,0,0,0
2.0238,1783190908.4256,1,1,5.0000,-0.0000,1.44681,0.22146,-2.78048,0.98818,1.57080,0.00001,-0.14512,-0.38002,0.04346,,,,,,,,,,,,,,,,,,,,,,,,,,0,0,0,0,0
2.0241,1783190908.4259,1,1,5.0000,-0.0000,1.44681,0.22146,-2.78048,0.98818,1.57080,0.00001,-0.14512,-0.38002,0.04346,,,,,,,,,,,,,,,,,,,,,,,,,,0,0,0,0,0
2.0330,1783190908.4348,1,1,5.0000,-0.0000,1.44681,0.22132,-2.78051,0.98836,1.57080,0.00001,-0.14512,-0.38002,0.04343,,,,,,,,,,,,,,,,,,,,,,,,,,0,0,0,0,0
2.0423,1783190908.4441,1,1,5.0000,-0.0000,1.44681,0.22129,-2.78052,0.98840,1.57080,0.00001,-0.14512,-0.38002,0.04342,,,,,,,,,,,,,,,,,,,,,,,,,,0,0,0,0,0
2.0426,1783190908.4444,1,1,5.0000,-0.0000,1.44681,0.22129,-2.78052,0.98840,1.57080,0.00001,-0.14512,-0.38002,0.04342,,,,,,,,,,,,,,,,,,,,,,,,,,0,0,0,0,0
2.0635,1783190908.4653,1,1,5.0000,-0.0000,1.44681,0.22109,-2.78057,0.98865,1.57080,0.00001,-0.14512,-0.38002,0.04337,,,,,,,,,,,,,,,,,,,,,,,,,,0,0,0,0,0
2.0641,1783190908.4659,1,1,5.0000,-0.0000,1.44681,0.22109,-2.78057,0.98865,1.57080,0.00001,-0.14512,-0.38002,0.04337,,,,,,,,,,,,,,,,,,,,,,,,,,0,0,0,0,0
2.0767,1783190908.4785,1,1,5.0000,-0.0000,1.44681,0.22099,-2.78060,0.98877,1.57080,0.00001,-0.14512,-0.38002,0.04334,,,,,,,,,,,,,,,,,,,,,,,,,,0,0,0,0,0
2.0770,1783190908.4788,1,1,5.0000,-0.0000,1.44681,0.22099,-2.78060,0.98877,1.57080,0.00001,-0.14512,-0.38002,0.04334,,,,,,,,,,,,,,,,,,,,,,,,,,0,0,0,0,0
2.0866,1783190908.4884,1,1,5.0000,-0.0000,1.44681,0.22079,-2.78065,0.98903,1.57080,0.00001,-0.14512,-0.38002,0.04329,,,,,,,,,,,,,,,,,,,,,,,,,,0,0,0,0,0
2.0870,1783190908.4888,1,1,5.0000,-0.0000,1.44681,0.22079,-2.78065,0.98903,1.57080,0.00001,-0.14512,-0.38002,0.04329,,,,,,,,,,,,,,,,,,,,,,,,,,0,0,0,0,0
2.0938,1783190908.4955,1,1,5.0000,-0.0000,1.44681,0.22072,-2.78066,0.98911,1.57080,0.00001,-0.14512,-0.38002,0.04327,,,,,,,,,,,,,,,,,,,,,,,,,,0,0,0,0,0
2.0945,1783190908.4962,1,1,5.0000,-0.0000,1.44681,0.22072,-2.78066,0.98911,1.57080,0.00001,-0.14512,-0.38002,0.04327,,,,,,,,,,,,,,,,,,,,,,,,,,0,0,0,0,0
2.1047,1783190908.5065,1,1,5.0000,-0.0000,1.44681,0.22069,-2.78067,0.98915,1.57080,0.00001,-0.14512,-0.38002,0.04326,,,,,,,,,,,,,,,,,,,,,,,,,,0,0,0,0,0
2.1124,1783190908.5141,1,1,5.0000,-0.0000,1.44681,0.22060,-2.78069,0.98926,1.57080,0.00001,-0.14512,-0.38002,0.04324,,,,,,,,,,,,,,,,,,,,,,,,,,0,0,0,0,0
2.1253,1783190908.5271,1,1,5.0000,-0.0000,1.44681,0.22049,-2.78072,0.98940,1.57080,0.00001,-0.14512,-0.38002,0.04321,,,,,,,,,,,,,,,,,,,,,,,,,,0,0,0,0,0
2.1258,1783190908.5276,1,1,5.0000,-0.0000,1.44681,0.22049,-2.78072,0.98940,1.57080,0.00001,-0.14512,-0.38002,0.04321,,,,,,,,,,,,,,,,,,,,,,,,,,0,0,0,0,0
2.1354,1783190908.5372,1,1,5.0000,-0.0000,1.44681,0.22039,-2.78075,0.98952,1.57080,0.00001,-0.14512,-0.38002,0.04319,,,,,,,,,,,,,,,,,,,,,,,,,,0,0,0,0,0
2.1435,1783190908.5453,1,1,5.0000,-0.0000,1.44681,0.22026,-2.78078,0.98969,1.57080,0.00001,-0.14512,-0.38002,0.04315,,,,,,,,,,,,,,,,,,,,,,,,,,0,0,0,0,0
2.1524,1783190908.5541,1,1,5.0000,-0.0000,1.44681,0.22011,-2.78081,0.98987,1.57080,0.00001,-0.14512,-0.38002,0.04312,,,,,,,,,,,,,,,,,,,,,,,,,,0,0,0,0,0
2.1630,1783190908.5648,1,1,5.0000,-0.0000,1.44681,0.22008,-2.78082,0.98991,1.57080,0.00001,-0.14512,-0.38002,0.04311,,,,,,,,,,,,,,,,,,,,,,,,,,0,0,0,0,0
2.1729,1783190908.5747,1,1,5.0000,-0.0000,1.44681,0.22000,-2.78084,0.99001,1.57080,0.00001,-0.14512,-0.38002,0.04309,,,,,,,,,,,,,,,,,,,,,,,,,,0,0,0,0,0
2.1732,1783190908.5750,1,1,5.0000,-0.0000,1.44681,0.22000,-2.78084,0.99001,1.57080,0.00001,-0.14512,-0.38002,0.04309,,,,,,,,,,,,,,,,,,,,,,,,,,0,0,0,0,0
2.1827,1783190908.5845,1,1,5.0000,-0.0000,1.44681,0.21988,-2.78087,0.99015,1.57080,0.00001,-0.14512,-0.38002,0.04306,,,,,,,,,,,,,,,,,,,,,,,,,,0,0,0,0,0
2.1956,1783190908.5973,1,1,5.0000,-0.0000,1.44681,0.21979,-2.78090,0.99028,1.57080,0.00001,-0.14512,-0.38002,0.04303,,,,,,,,,,,,,,,,,,,,,,,,,,0,0,0,0,0
2.1959,1783190908.5976,1,1,5.0000,-0.0000,1.44681,0.21979,-2.78090,0.99028,1.57080,0.00001,-0.14512,-0.38002,0.04303,,,,,,,,,,,,,,,,,,,,,,,,,,0,0,0,0,0
2.2071,1783190908.6088,1,1,5.0000,-0.0000,1.44681,0.21958,-2.78095,0.99053,1.57080,0.00001,-0.14512,-0.38002,0.04298,,,,,,,,,,,,,,,,,,,,,,,,,,0,0,0,0,0
2.2124,1783190908.6142,1,1,5.0000,-0.0000,1.44681,0.21951,-2.78096,0.99062,1.57080,0.00001,-0.14512,-0.38002,0.04296,,,,,,,,,,,,,,,,,,,,,,,,,,0,0,0,0,0
2.2257,1783190908.6274,1,1,5.0000,-0.0000,1.44681,0.21947,-2.78098,0.99068,1.57080,0.00001,-0.14512,-0.38002,0.04295,,,,,,,,,,,,,,,,,,,,,,,,,,0,0,0,0,0
2.2376,1783190908.6394,1,1,5.0000,-0.0000,1.44681,0.21929,-2.78102,0.99090,1.57080,0.00001,-0.14512,-0.38002,0.04290,,,,,,,,,,,,,,,,,,,,,,,,,,0,0,0,0,0
2.2382,1783190908.6400,1,1,5.0000,-0.0000,1.44681,0.21921,-2.78104,0.99099,1.57080,0.00001,-0.14512,-0.38002,0.04288,,,,,,,,,,,,,,,,,,,,,,,,,,0,0,0,0,0
2.2445,1783190908.6463,1,1,5.0000,-0.0000,1.44681,0.21921,-2.78104,0.99099,1.57080,0.00001,-0.14512,-0.38002,0.04288,,,,,,,,,,,,,,,,,,,,,,,,,,0,0,0,0,0
2.2526,1783190908.6544,1,1,5.0000,-0.0000,1.44681,0.21917,-2.78105,0.99105,1.57080,0.00001,-0.14512,-0.38002,0.04287,,,,,,,,,,,,,,,,,,,,,,,,,,0,0,0,0,0
2.2635,1783190908.6653,1,1,5.0000,-0.0000,1.44681,0.21899,-2.78109,0.99127,1.57080,0.00001,-0.14512,-0.38002,0.04283,,,,,,,,,,,,,,,,,,,,,,,,,,0,0,0,0,0
2.2756,1783190908.6774,1,1,5.0000,-0.0000,1.44681,0.21885,-2.78113,0.99144,1.57080,0.00001,-0.14512,-0.38002,0.04279,,,,,,,,,,,,,,,,,,,,,,,,,,0,0,0,0,0
2.2839,1783190908.6857,1,1,5.0000,-0.0000,1.44681,0.21881,-2.78114,0.99150,1.57080,0.00001,-0.14512,-0.38002,0.04278,,,,,,,,,,,,,,,,,,,,,,,,,,0,0,0,0,0
2.2965,1783190908.6983,1,1,5.0000,-0.0000,1.44681,0.21863,-2.78118,0.99172,1.57080,0.00001,-0.14512,-0.38002,0.04273,,,,,,,,,,,,,,,,,,,,,,,,,,0,0,0,0,0
2.2970,1783190908.6987,1,1,5.0000,-0.0000,1.44681,0.21863,-2.78118,0.99172,1.57080,0.00001,-0.14512,-0.38002,0.04273,,,,,,,,,,,,,,,,,,,,,,,,,,0,0,0,0,0
2.3024,1783190908.7041,1,1,5.0000,-0.0000,1.44681,0.21855,-2.78120,0.99181,1.57080,0.00001,-0.14512,-0.38002,0.04272,,,,,,,,,,,,,,,,,,,,,,,,,,0,0,0,0,0
2.3027,1783190908.7044,1,1,5.0000,-0.0000,1.44681,0.21855,-2.78120,0.99181,1.57080,0.00001,-0.14512,-0.38002,0.04272,,,,,,,,,,,,,,,,,,,,,,,,,,0,0,0,0,0
2.3124,1783190908.7142,1,1,5.0000,-0.0000,1.44681,0.21851,-2.78121,0.99187,1.57080,0.00001,-0.14512,-0.38002,0.04270,,,,,,,,,,,,,,,,,,,,,,,,,,0,0,0,0,0
2.3280,1783190908.7298,1,1,5.0000,-0.0000,1.44681,0.21826,-2.78127,0.99218,1.57080,0.00001,-0.14512,-0.38002,0.04264,,,,,,,,,,,,,,,,,,,,,,,,,,0,0,0,0,0
2.3353,1783190908.7370,1,1,5.0000,-0.0000,1.44681,0.21819,-2.78129,0.99227,1.57080,0.00001,-0.14512,-0.38002,0.04262,,,,,,,,,,,,,,,,,,,,,,,,,,0,0,0,0,0
2.3471,1783190908.7488,1,1,5.0000,-0.0000,1.44681,0.21810,-2.78131,0.99239,1.57080,0.00001,-0.14512,-0.38002,0.04260,,,,,,,,,,,,,,,,,,,,,,,,,,0,0,0,0,0
2.3545,1783190908.7563,1,1,5.0000,-0.0000,1.44681,0.21797,-2.78135,0.99255,1.57080,0.00001,-0.14512,-0.38002,0.04256,,,,,,,,,,,,,,,,,,,,,,,,,,0,0,0,0,0
2.3648,1783190908.7665,1,1,5.0000,-0.0000,1.44681,0.21789,-2.78136,0.99264,1.57080,0.00001,-0.14512,-0.38002,0.04255,,,,,,,,,,,,,,,,,,,,,,,,,,0,0,0,0,0
2.3783,1783190908.7801,1,1,5.0000,-0.0000,1.44681,0.21774,-2.78140,0.99283,1.57080,0.00001,-0.14512,-0.38002,0.04251,,,,,,,,,,,,,,,,,,,,,,,,,,0,0,0,0,0
2.3882,1783190908.7900,1,1,5.0000,-0.0000,1.44681,0.21760,-2.78144,0.99300,1.57080,0.00001,-0.14512,-0.38002,0.04247,,,,,,,,,,,,,,,,,,,,,,,,,,0,0,0,0,0
2.3991,1783190908.8009,1,1,5.0000,-0.0000,1.44681,0.21752,-2.78146,0.99311,1.57080,0.00001,-0.14512,-0.38002,0.04245,,,,,,,,,,,,,,,,,,,,,,,,,,0,0,0,0,0
2.3999,1783190908.8017,1,1,5.0000,-0.0000,1.44681,0.21752,-2.78146,0.99311,1.57080,0.00001,-0.14512,-0.38002,0.04245,,,,,,,,,,,,,,,,,,,,,,,,,,0,0,0,0,0
2.4071,1783190908.8089,1,1,5.0000,-0.0000,1.44681,0.21744,-2.78148,0.99321,1.57080,0.00001,-0.14512,-0.38002,0.04243,,,,,,,,,,,,,,,,,,,,,,,,,,0,0,0,0,0
2.4190,1783190908.8208,1,1,5.0000,-0.0000,1.44681,0.21723,-2.78153,0.99346,1.57080,0.00001,-0.14512,-0.38002,0.04238,,,,,,,,,,,,,,,,,,,,,,,,,,0,0,0,0,0
2.4452,1783190908.8469,1,1,5.0000,-0.0000,1.44681,0.21705,-2.78157,0.99369,1.57080,0.00001,-0.14512,-0.38002,0.04233,,,,,,,,,,,,,,,,,,,,,,,,,,0,0,0,0,0
2.4455,1783190908.8473,1,1,5.0000,-0.0000,1.44681,0.21705,-2.78157,0.99369,1.57080,0.00001,-0.14512,-0.38002,0.04233,,,,,,,,,,,,,,,,,,,,,,,,,,0,0,0,0,0
2.4543,1783190908.8561,1,1,5.0000,-0.0000,1.44681,0.21693,-2.78160,0.99384,1.57080,0.00001,-0.14512,-0.38002,0.04230,,,,,,,,,,,,,,,,,,,,,,,,,,0,0,0,0,0
2.4546,1783190908.8564,1,1,5.0000,-0.0000,1.44681,0.21693,-2.78160,0.99384,1.57080,0.00001,-0.14512,-0.38002,0.04230,,,,,,,,,,,,,,,,,,,,,,,,,,0,0,0,0,0
2.4958,1783190908.8976,1,1,5.0000,-0.0000,1.44681,0.21652,-2.78170,0.99435,1.57080,0.00001,-0.14512,-0.38002,0.04220,,,,,,,,,,,,,,,,,,,,,,,,,,0,0,0,0,0
2.4961,1783190908.8979,1,1,5.0000,-0.0000,1.44681,0.21652,-2.78170,0.99435,1.57080,0.00001,-0.14512,-0.38002,0.04220,,,,,,,,,,,,,,,,,,,,,,,,,,0,0,0,0,0
2.4965,1783190908.8983,1,1,5.0000,-0.0000,1.44681,0.21652,-2.78170,0.99435,1.57080,0.00001,-0.14512,-0.38002,0.04220,,,,,,,,,,,,,,,,,,,,,,,,,,0,0,0,0,0
2.5023,1783190908.9040,1,1,5.0000,-0.0000,1.44681,0.21644,-2.78172,0.99445,1.57080,0.00001,-0.14512,-0.38002,0.04217,,,,,,,,,,,,,,,,,,,,,,,,,,0,0,0,0,0
2.5125,1783190908.9142,1,1,5.0000,-0.0000,1.44681,0.21632,-2.78175,0.99459,1.57080,0.00001,-0.14512,-0.38002,0.04214,,,,,,,,,,,,,,,,,,,,,,,,,,0,0,0,0,0
2.5252,1783190908.9270,1,1,5.0000,-0.0000,1.44681,0.21628,-2.78176,0.99465,1.57080,0.00001,-0.14512,-0.38002,0.04213,,,,,,,,,,,,,,,,,,,,,,,,,,0,0,0,0,0
2.5347,1783190908.9364,1,1,5.0000,-0.0000,1.44681,0.21609,-2.78181,0.99488,1.57080,0.00001,-0.14512,-0.38002,0.04209,,,,,,,,,,,,,,,,,,,,,,,,,,0,0,0,0,0
2.5351,1783190908.9369,1,1,5.0000,-0.0000,1.44681,0.21609,-2.78181,0.99488,1.57080,0.00001,-0.14512,-0.38002,0.04209,,,,,,,,,,,,,,,,,,,,,,,,,,0,0,0,0,0
2.5450,1783190908.9467,1,1,5.0000,-0.0000,1.44681,0.21595,-2.78184,0.99506,1.57080,0.00001,-0.14512,-0.38002,0.04205,,,,,,,,,,,,,,,,,,,,,,,,,,0,0,0,0,0
2.5525,1783190908.9542,1,1,5.0000,-0.0000,1.44681,0.21594,-2.78185,0.99507,1.57080,0.00001,-0.14512,-0.38002,0.04205,,,,,,,,,,,,,,,,,,,,,,,,,,0,0,0,0,0
2.5529,1783190908.9546,1,1,5.0000,-0.0000,1.44681,0.21594,-2.78185,0.99507,1.57080,0.00001,-0.14512,-0.38002,0.04205,,,,,,,,,,,,,,,,,,,,,,,,,,0,0,0,0,0
2.5623,1783190908.9641,1,1,5.0000,-0.0000,1.44681,0.21583,-2.78187,0.99521,1.57080,0.00001,-0.14512,-0.38002,0.04202,,,,,,,,,,,,,,,,,,,,,,,,,,0,0,0,0,0
2.5626,1783190908.9644,1,1,5.0000,-0.0000,1.44681,0.21583,-2.78187,0.99521,1.57080,0.00001,-0.14512,-0.38002,0.04202,,,,,,,,,,,,,,,,,,,,,,,,,,0,0,0,0,0
2.5723,1783190908.9741,1,1,5.0000,-0.0000,1.44681,0.21572,-2.78190,0.99535,1.57080,0.00001,-0.14512,-0.38002,0.04199,,,,,,,,,,,,,,,,,,,,,,,,,,0,0,0,0,0
2.5891,1783190908.9909,1,1,5.0000,-0.0000,1.44681,0.21562,-2.78192,0.99547,1.57080,0.00001,-0.14512,-0.38002,0.04196,,,,,,,,,,,,,,,,,,,,,,,,,,0,0,0,0,0
2.5982,1783190909.0000,1,1,5.0000,-0.0000,1.44681,0.21541,-2.78198,0.99573,1.57080,0.00001,-0.14512,-0.38002,0.04191,,,,,,,,,,,,,,,,,,,,,,,,,,0,0,0,0,0
2.6071,1783190909.0089,1,1,5.0000,-0.0000,1.44681,0.21534,-2.78199,0.99582,1.57080,0.00001,-0.14512,-0.38002,0.04189,,,,,,,,,,,,,,,,,,,,,,,,,,0,0,0,0,0
2.6074,1783190909.0092,1,1,5.0000,-0.0000,1.44681,0.21534,-2.78199,0.99582,1.57080,0.00001,-0.14512,-0.38002,0.04189,,,,,,,,,,,,,,,,,,,,,,,,,,0,0,0,0,0
2.6163,1783190909.0181,1,1,5.0000,-0.0000,1.44681,0.21531,-2.78200,0.99586,1.57080,0.00001,-0.14512,-0.38002,0.04189,,,,,,,,,,,,,,,,,,,,,,,,,,0,0,0,0,0
2.6167,1783190909.0185,1,1,5.0000,-0.0000,1.44681,0.21531,-2.78200,0.99586,1.57080,0.00001,-0.14512,-0.38002,0.04189,,,,,,,,,,,,,,,,,,,,,,,,,,0,0,0,0,0
2.6259,1783190909.0277,1,1,5.0000,-0.0000,1.44681,0.21522,-2.78202,0.99596,1.57080,0.00001,-0.14512,-0.38002,0.04186,,,,,,,,,,,,,,,,,,,,,,,,,,0,0,0,0,0
2.6382,1783190909.0400,1,1,5.0000,-0.0000,1.44681,0.21510,-2.78205,0.99612,1.57080,0.00001,-0.14512,-0.38002,0.04183,,,,,,,,,,,,,,,,,,,,,,,,,,0,0,0,0,0
2.6450,1783190909.0468,1,1,5.0000,-0.0000,1.44681,0.21506,-2.78206,0.99617,1.57080,0.00001,-0.14512,-0.38002,0.04182,,,,,,,,,,,,,,,,,,,,,,,,,,0,0,0,0,0
2.6534,1783190909.0552,1,1,5.0000,-0.0000,1.44681,0.21495,-2.78209,0.99631,1.57080,0.00001,-0.14512,-0.38002,0.04179,,,,,,,,,,,,,,,,,,,,,,,,,,0,0,0,0,0
2.6625,1783190909.0643,1,1,5.0000,-0.0000,1.44681,0.21473,-2.78214,0.99658,1.57080,0.00001,-0.14512,-0.38002,0.04174,,,,,,,,,,,,,,,,,,,,,,,,,,0,0,0,0,0
2.6628,1783190909.0646,1,1,5.0000,-0.0000,1.44681,0.21473,-2.78214,0.99658,1.57080,0.00001,-0.14512,-0.38002,0.04174,,,,,,,,,,,,,,,,,,,,,,,,,,0,0,0,0,0
2.6744,1783190909.0762,1,1,5.0000,-0.0000,1.44681,0.21470,-2.78215,0.99662,1.57080,0.00001,-0.14512,-0.38002,0.04173,,,,,,,,,,,,,,,,,,,,,,,,,,0,0,0,0,0
2.6747,1783190909.0764,1,1,5.0000,-0.0000,1.44681,0.21470,-2.78215,0.99662,1.57080,0.00001,-0.14512,-0.38002,0.04173,,,,,,,,,,,,,,,,,,,,,,,,,,0,0,0,0,0
2.6872,1783190909.0889,1,1,5.0000,-0.0000,1.44681,0.21456,-2.78218,0.99679,1.57080,0.00001,-0.14512,-0.38002,0.04170,,,,,,,,,,,,,,,,,,,,,,,,,,0,0,0,0,0
2.6958,1783190909.0976,1,1,5.0000,-0.0000,1.44681,0.21450,-2.78220,0.99687,1.57080,0.00002,-0.14512,-0.38002,0.04168,,,,,,,,,,,,,,,,,,,,,,,,,,0,0,0,0,0
2.7085,1783190909.1103,1,1,5.0000,-0.0000,1.44681,0.21440,-2.78222,0.99699,1.57080,0.00002,-0.14512,-0.38002,0.04165,,,,,,,,,,,,,,,,,,,,,,,,,,0,0,0,0,0
2.7145,1783190909.1163,1,1,5.0000,-0.0000,1.44681,0.21427,-2.78226,0.99716,1.57080,0.00002,-0.14512,-0.38002,0.04162,,,,,,,,,,,,,,,,,,,,,,,,,,0,0,0,0,0
2.7148,1783190909.1166,1,1,5.0000,-0.0000,1.44681,0.21427,-2.78226,0.99716,1.57080,0.00002,-0.14512,-0.38002,0.04162,,,,,,,,,,,,,,,,,,,,,,,,,,0,0,0,0,0
2.7266,1783190909.1284,1,1,5.0000,-0.0000,1.44681,0.21412,-2.78229,0.99733,1.57080,0.00002,-0.14512,-0.38002,0.04158,,,,,,,,,,,,,,,,,,,,,,,,,,0,0,0,0,0
2.7384,1783190909.1402,1,1,5.0000,-0.0000,1.44681,0.21405,-2.78231,0.99742,1.57080,0.00002,-0.14512,-0.38002,0.04157,,,,,,,,,,,,,,,,,,,,,,,,,,0,0,0,0,0
2.7444,1783190909.1462,1,1,5.0000,-0.0000,1.44681,0.21401,-2.78232,0.99748,1.57080,0.00002,-0.14512,-0.38002,0.04155,,,,,,,,,,,,,,,,,,,,,,,,,,0,0,0,0,0
2.7447,1783190909.1465,1,1,5.0000,-0.0000,1.44681,0.21401,-2.78232,0.99748,1.57080,0.00002,-0.14512,-0.38002,0.04155,,,,,,,,,,,,,,,,,,,,,,,,,,0,0,0,0,0
2.7543,1783190909.1561,1,1,5.0000,-0.0000,1.44681,0.21389,-2.78235,0.99762,1.57080,0.00002,-0.14512,-0.38002,0.04152,,,,,,,,,,,,,,,,,,,,,,,,,,0,0,0,0,0
2.7546,1783190909.1564,1,1,5.0000,-0.0000,1.44681,0.21389,-2.78235,0.99762,1.57080,0.00002,-0.14512,-0.38002,0.04152,,,,,,,,,,,,,,,,,,,,,,,,,,0,0,0,0,0
2.7623,1783190909.1641,1,1,5.0000,-0.0000,1.44681,0.21384,-2.78236,0.99768,1.57080,0.00002,-0.14512,-0.38002,0.04151,,,,,,,,,,,,,,,,,,,,,,,,,,0,0,0,0,0
2.7626,1783190909.1644,1,1,5.0000,-0.0000,1.44681,0.21384,-2.78236,0.99768,1.57080,0.00002,-0.14512,-0.38002,0.04151,,,,,,,,,,,,,,,,,,,,,,,,,,0,0,0,0,0
2.7748,1783190909.1766,1,1,5.0000,-0.0000,1.44681,0.21366,-2.78240,0.99791,1.57080,0.00002,-0.14512,-0.38002,0.04147,,,,,,,,,,,,,,,,,,,,,,,,,,0,0,0,0,0
2.7827,1783190909.1845,1,1,5.0000,-0.0000,1.44681,0.21351,-2.78244,0.99809,1.57080,0.00002,-0.14512,-0.38002,0.04143,,,,,,,,,,,,,,,,,,,,,,,,,,0,0,0,0,0
2.7956,1783190909.1973,1,1,5.0000,-0.0000,1.44681,0.21347,-2.78245,0.99815,1.57080,0.00002,-0.14512,-0.38002,0.04142,,,,,,,,,,,,,,,,,,,,,,,,,,0,0,0,0,0
2.8026,1783190909.2044,1,1,5.0000,-0.0000,1.44681,0.21336,-2.78248,0.99829,1.57080,0.00002,-0.14512,-0.38002,0.04139,,,,,,,,,,,,,,,,,,,,,,,,,,0,0,0,0,0
2.8029,1783190909.2047,1,1,5.0000,-0.0000,1.44681,0.21336,-2.78248,0.99829,1.57080,0.00002,-0.14512,-0.38002,0.04139,,,,,,,,,,,,,,,,,,,,,,,,,,0,0,0,0,0
2.8138,1783190909.2156,1,1,5.0000,-0.0000,1.44681,0.21321,-2.78251,0.99846,1.57080,0.00002,-0.14512,-0.38002,0.04135,,,,,,,,,,,,,,,,,,,,,,,,,,0,0,0,0,0
2.8235,1783190909.2253,1,1,5.0000,-0.0000,1.44681,0.21317,-2.78252,0.99852,1.57080,0.00002,-0.14512,-0.38002,0.04134,,,,,,,,,,,,,,,,,,,,,,,,,,0,0,0,0,0
2.8344,1783190909.2362,1,1,5.0000,-0.0000,1.44681,0.21299,-2.78257,0.99874,1.57080,0.00002,-0.14512,-0.38002,0.04130,,,,,,,,,,,,,,,,,,,,,,,,,,0,0,0,0,0
2.8441,1783190909.2458,1,1,5.0000,-0.0000,1.44681,0.21285,-2.78260,0.99892,1.57080,0.00002,-0.14512,-0.38002,0.04126,,,,,,,,,,,,,,,,,,,,,,,,,,0,0,0,0,0
2.8583,1783190909.2600,1,1,5.0000,-0.0000,1.44681,0.21275,-2.78262,0.99904,1.57080,0.00002,-0.14512,-0.38002,0.04124,,,,,,,,,,,,,,,,,,,,,,,,,,0,0,0,0,0
2.8586,1783190909.2604,1,1,5.0000,-0.0000,1.44681,0.21275,-2.78262,0.99904,1.57080,0.00002,-0.14512,-0.38002,0.04124,,,,,,,,,,,,,,,,,,,,,,,,,,0,0,0,0,0
2.8633,1783190909.2651,1,1,5.0000,-0.0000,1.44681,0.21269,-2.78264,0.99912,1.57080,0.00002,-0.14512,-0.38002,0.04122,,,,,,,,,,,,,,,,,,,,,,,,,,0,0,0,0,0
2.8753,1783190909.2771,1,1,5.0000,-0.0000,1.44681,0.21255,-2.78267,0.99929,1.57080,0.00002,-0.14512,-0.38002,0.04118,,,,,,,,,,,,,,,,,,,,,,,,,,0,0,0,0,0
2.8757,1783190909.2774,1,1,5.0000,-0.0000,1.44681,0.21255,-2.78267,0.99929,1.57080,0.00002,-0.14512,-0.38002,0.04118,,,,,,,,,,,,,,,,,,,,,,,,,,0,0,0,0,0
2.8835,1783190909.2853,1,1,5.0000,-0.0000,1.44681,0.21250,-2.78269,0.99935,1.57080,0.00002,-0.14512,-0.38002,0.04117,,,,,,,,,,,,,,,,,,,,,,,,,,0,0,0,0,0
2.8926,1783190909.2943,1,1,5.0000,-0.0000,1.44681,0.21239,-2.78271,0.99949,1.57080,0.00002,-0.14512,-0.38002,0.04114,,,,,,,,,,,,,,,,,,,,,,,,,,0,0,0,0,0
2.9026,1783190909.3044,1,1,5.0000,-0.0000,1.44681,0.21218,-2.78276,0.99975,1.57080,0.00002,-0.14512,-0.38002,0.04109,,,,,,,,,,,,,,,,,,,,,,,,,,0,0,0,0,0
2.9122,1783190909.3140,1,1,5.0000,-0.0000,1.44681,0.21217,-2.78277,0.99976,1.57080,0.00002,-0.14512,-0.38002,0.04109,,,,,,,,,,,,,,,,,,,,,,,,,,0,0,0,0,0
2.9247,1783190909.3265,1,1,5.0000,-0.0000,1.44681,0.21202,-2.78280,0.99994,1.57080,0.00002,-0.14512,-0.38002,0.04105,,,,,,,,,,,,,,,,,,,,,,,,,,0,0,0,0,0
2.9324,1783190909.3341,1,1,5.0000,-0.0000,1.44681,0.21188,-2.78284,1.00012,1.57080,0.00002,-0.14512,-0.38002,0.04101,,,,,,,,,,,,,,,,,,,,,,,,,,0,0,0,0,0
3.0180,1783190909.4197,1,1,5.0000,-0.0000,1.44681,0.21099,-2.78305,1.00123,1.57080,0.00002,-0.14512,-0.38002,0.04079,,,,,,,,,,,,,,,,,,,,,,,,,,0,0,0,0,0
3.0187,1783190909.4205,1,1,5.0000,-0.0000,1.44681,0.21092,-2.78307,1.00132,1.57080,0.00002,-0.14512,-0.38002,0.04077,,,,,,,,,,,,,,,,,,,,,,,,,,0,0,0,0,0
3.0189,1783190909.4206,1,1,5.0000,-0.0000,1.44681,0.21092,-2.78307,1.00132,1.57080,0.00002,-0.14512,-0.38002,0.04077,,,,,,,,,,,,,,,,,,,,,,,,,,0,0,0,0,0
3.0193,1783190909.4210,1,1,5.0000,-0.0000,1.44681,0.21092,-2.78307,1.00132,1.57080,0.00002,-0.14512,-0.38002,0.04077,,,,,,,,,,,,,,,,,,,,,,,,,,0,0,0,0,0
3.0196,1783190909.4214,1,1,5.0000,-0.0000,1.44681,0.21092,-2.78307,1.00132,1.57080,0.00002,-0.14512,-0.38002,0.04077,,,,,,,,,,,,,,,,,,,,,,,,,,0,0,0,0,0
3.0228,1783190909.4246,1,1,5.0000,-0.0000,1.44681,0.21085,-2.78309,1.00140,1.57080,0.00002,-0.14512,-0.38002,0.04075,,,,,,,,,,,,,,,,,,,,,,,,,,0,0,0,0,0
3.0231,1783190909.4249,1,1,5.0000,-0.0000,1.44681,0.21085,-2.78309,1.00140,1.57080,0.00002,-0.14512,-0.38002,0.04075,,,,,,,,,,,,,,,,,,,,,,,,,,0,0,0,0,0
3.0326,1783190909.4344,1,1,5.0000,-0.0000,1.44681,0.21084,-2.78309,1.00142,1.57080,0.00002,-0.14512,-0.38002,0.04075,,,,,,,,,,,,,,,,,,,,,,,,,,0,0,0,0,0
3.0329,1783190909.4347,1,1,5.0000,-0.0000,1.44681,0.21084,-2.78309,1.00142,1.57080,0.00002,-0.14512,-0.38002,0.04075,,,,,,,,,,,,,,,,,,,,,,,,,,0,0,0,0,0
3.0356,1783190909.4374,1,1,5.0000,-0.0000,1.44681,0.21080,-2.78310,1.00146,1.57080,0.00002,-0.14512,-0.38002,0.04074,,,,,,,,,,,,,,,,,,,,,,,,,,0,0,0,0,0
3.0359,1783190909.4377,1,1,5.0000,-0.0000,1.44681,0.21080,-2.78310,1.00146,1.57080,0.00002,-0.14512,-0.38002,0.04074,,,,,,,,,,,,,,,,,,,,,,,,,,0,0,0,0,0
3.0476,1783190909.4493,1,1,5.0000,-0.0000,1.44681,0.21062,-2.78314,1.00169,1.57080,0.00002,-0.14512,-0.38002,0.04070,,,,,,,,,,,,,,,,,,,,,,,,,,0,0,0,0,0
3.0574,1783190909.4592,1,1,5.0000,-0.0000,1.44681,0.21055,-2.78316,1.00178,1.57080,0.00002,-0.14512,-0.38002,0.04068,,,,,,,,,,,,,,,,,,,,,,,,,,0,0,0,0,0
3.0676,1783190909.4693,1,1,5.0000,-0.0000,1.44681,0.21045,-2.78318,1.00189,1.57080,0.00002,-0.14512,-0.38002,0.04065,,,,,,,,,,,,,,,,,,,,,,,,,,0,0,0,0,0
3.0778,1783190909.4795,1,1,5.0000,-0.0000,1.44681,0.21032,-2.78321,1.00206,1.57080,0.00002,-0.14512,-0.38002,0.04062,,,,,,,,,,,,,,,,,,,,,,,,,,0,0,0,0,0
3.0908,1783190909.4925,1,1,5.0000,-0.0000,1.44681,0.21017,-2.78325,1.00225,1.57080,0.00002,-0.14512,-0.38002,0.04058,,,,,,,,,,,,,,,,,,,,,,,,,,0,0,0,0,0
3.0959,1783190909.4977,1,1,5.0000,-0.0000,1.44681,0.21013,-2.78326,1.00229,1.57080,0.00002,-0.14512,-0.38002,0.04057,,,,,,,,,,,,,,,,,,,,,,,,,,0,0,0,0,0
3.1067,1783190909.5085,1,1,5.0000,-0.0000,1.44681,0.20995,-2.78330,1.00252,1.57080,0.00002,-0.14512,-0.38002,0.04053,,,,,,,,,,,,,,,,,,,,,,,,,,0,0,0,0,0
3.1158,1783190909.5175,1,1,5.0000,-0.0000,1.44681,0.20988,-2.78332,1.00261,1.57080,0.00002,-0.14512,-0.38002,0.04051,,,,,,,,,,,,,,,,,,,,,,,,,,0,0,0,0,0
3.1259,1783190909.5277,1,1,5.0000,-0.0000,1.44681,0.20983,-2.78333,1.00266,1.57080,0.00002,-0.14512,-0.38002,0.04050,,,,,,,,,,,,,,,,,,,,,,,,,,0,0,0,0,0
3.1370,1783190909.5388,1,1,5.0000,-0.0000,1.44680,0.20965,-2.78337,1.00289,1.57080,0.00002,-0.14512,-0.38002,0.04045,,,,,,,,,,,,,,,,,,,,,,,,,,0,0,0,0,0
3.1475,1783190909.5493,1,1,5.0000,-0.0000,1.44680,0.20951,-2.78341,1.00306,1.57079,0.00002,-0.14512,-0.38002,0.04041,,,,,,,,,,,,,,,,,,,,,,,,,,0,0,0,0,0
3.1478,1783190909.5496,1,1,5.0000,-0.0000,1.44680,0.20951,-2.78341,1.00306,1.57079,0.00002,-0.14512,-0.38002,0.04041,,,,,,,,,,,,,,,,,,,,,,,,,,0,0,0,0,0
3.1669,1783190909.5687,1,1,5.0000,-0.0000,1.44680,0.20928,-2.78346,1.00335,1.57079,0.00002,-0.14512,-0.38002,0.04036,,,,,,,,,,,,,,,,,,,,,,,,,,0,0,0,0,0
3.1707,1783190909.5725,1,1,5.0000,-0.0000,1.44680,0.20921,-2.78348,1.00343,1.57079,0.00002,-0.14512,-0.38002,0.04034,,,,,,,,,,,,,,,,,,,,,,,,,,0,0,0,0,0
3.1710,1783190909.5727,1,1,5.0000,-0.0000,1.44680,0.20921,-2.78348,1.00343,1.57079,0.00002,-0.14512,-0.38002,0.04034,,,,,,,,,,,,,,,,,,,,,,,,,,0,0,0,0,0
3.1763,1783190909.5781,1,1,5.0000,-0.0000,1.44680,0.20921,-2.78348,1.00343,1.57079,0.00002,-0.14512,-0.38002,0.04034,,,,,,,,,,,,,,,,,,,,,,,,,,0,0,0,0,0
3.1767,1783190909.5785,1,1,5.0000,-0.0000,1.44680,0.20921,-2.78348,1.00343,1.57079,0.00002,-0.14512,-0.38002,0.04034,,,,,,,,,,,,,,,,,,,,,,,,,,0,0,0,0,0
3.1901,1783190909.5919,1,1,5.0000,-0.0000,1.44680,0.20912,-2.78350,1.00355,1.57079,0.00002,-0.14512,-0.38002,0.04031,,,,,,,,,,,,,,,,,,,,,,,,,,0,0,0,0,0
3.1979,1783190909.5997,1,1,5.0000,-0.0000,1.44680,0.20898,-2.78354,1.00372,1.57079,0.00002,-0.14512,-0.38002,0.04028,,,,,,,,,,,,,,,,,,,,,,,,,,0,0,0,0,0
3.2077,1783190909.6095,1,1,5.0000,-0.0000,1.44680,0.20884,-2.78357,1.00389,1.57079,0.00002,-0.14512,-0.38002,0.04025,,,,,,,,,,,,,,,,,,,,,,,,,,0,0,0,0,0
3.2178,1783190909.6196,1,1,5.0000,-0.0000,1.44680,0.20880,-2.78358,1.00395,1.57079,0.00002,-0.14512,-0.38002,0.04023,,,,,,,,,,,,,,,,,,,,,,,,,,0,0,0,0,0
3.2263,1783190909.6281,1,1,5.0000,-0.0000,1.44680,0.20868,-2.78361,1.00409,1.57079,0.00002,-0.14512,-0.38002,0.04021,,,,,,,,,,,,,,,,,,,,,,,,,,0,0,0,0,0
3.2268,1783190909.6285,1,1,5.0000,-0.0000,1.44680,0.20861,-2.78362,1.00418,1.57079,0.00002,-0.14512,-0.38002,0.04019,,,,,,,,,,,,,,,,,,,,,,,,,,0,0,0,0,0
3.2359,1783190909.6377,1,1,5.0000,-0.0000,1.44680,0.20854,-2.78364,1.00427,1.57079,0.00002,-0.14512,-0.38002,0.04017,,,,,,,,,,,,,,,,,,,,,,,,,,0,0,0,0,0
3.2481,1783190909.6499,1,1,5.0000,-0.0000,1.44680,0.20845,-2.78367,1.00438,1.57079,0.00002,-0.14512,-0.38002,0.04015,,,,,,,,,,,,,,,,,,,,,,,,,,0,0,0,0,0
3.2576,1783190909.6593,1,1,5.0000,-0.0000,1.44680,0.20831,-2.78370,1.00455,1.57079,0.00002,-0.14512,-0.38002,0.04011,,,,,,,,,,,,,,,,,,,,,,,,,,0,0,0,0,0
3.2690,1783190909.6708,1,1,5.0000,-0.0000,1.44680,0.20817,-2.78373,1.00472,1.57079,0.00002,-0.14512,-0.38002,0.04008,,,,,,,,,,,,,,,,,,,,,,,,,,0,0,0,0,0
3.2779,1783190909.6797,1,1,5.0000,-0.0000,1.44680,0.20813,-2.78374,1.00478,1.57079,0.00002,-0.14512,-0.38002,0.04006,,,,,,,,,,,,,,,,,,,,,,,,,,0,0,0,0,0
3.2878,1783190909.6895,1,1,5.0000,-0.0000,1.44680,0.20794,-2.78379,1.00501,1.57079,0.00002,-0.14512,-0.38002,0.04002,,,,,,,,,,,,,,,,,,,,,,,,,,0,0,0,0,0
3.3048,1783190909.7066,1,1,5.0000,-0.0000,1.44680,0.20783,-2.78381,1.00515,1.57079,0.00002,-0.14512,-0.38002,0.03999,,,,,,,,,,,,,,,,,,,,,,,,,,0,0,0,0,0
3.3093,1783190909.7111,1,1,5.0000,-0.0000,1.44680,0.20778,-2.78383,1.00521,1.57079,0.00002,-0.14512,-0.38002,0.03998,,,,,,,,,,,,,,,,,,,,,,,,,,0,0,0,0,0
3.3258,1783190909.7275,1,1,5.0000,-0.0000,1.44680,0.20750,-2.78389,1.00555,1.57079,0.00002,-0.14512,-0.38002,0.03991,,,,,,,,,,,,,,,,,,,,,,,,,,0,0,0,0,0
3.3290,1783190909.7308,1,1,5.0000,-0.0000,1.44680,0.20750,-2.78389,1.00555,1.57079,0.00002,-0.14512,-0.38002,0.03991,,,,,,,,,,,,,,,,,,,,,,,,,,0,0,0,0,0
3.3361,1783190909.7378,1,1,5.0000,-0.0000,1.44680,0.20746,-2.78390,1.00561,1.57079,0.00002,-0.14512,-0.38002,0.03990,,,,,,,,,,,,,,,,,,,,,,,,,,0,0,0,0,0
3.3461,1783190909.7479,1,1,5.0000,-0.0000,1.44680,0.20734,-2.78393,1.00575,1.57079,0.00002,-0.14512,-0.38002,0.03987,,,,,,,,,,,,,,,,,,,,,,,,,,0,0,0,0,0
3.3468,1783190909.7486,1,1,5.0000,-0.0000,1.44680,0.20727,-2.78395,1.00584,1.57079,0.00002,-0.14512,-0.38002,0.03985,,,,,,,,,,,,,,,,,,,,,,,,,,0,0,0,0,0
3.3613,1783190909.7631,1,1,5.0000,-0.0000,1.44680,0.20713,-2.78398,1.00601,1.57079,0.00002,-0.14512,-0.38002,0.03981,,,,,,,,,,,,,,,,,,,,,,,,,,0,0,0,0,0
3.3683,1783190909.7701,1,1,5.0000,-0.0000,1.44680,0.20710,-2.78399,1.00606,1.57079,0.00002,-0.14512,-0.38002,0.03981,,,,,,,,,,,,,,,,,,,,,,,,,,0,0,0,0,0
3.3687,1783190909.7704,1,1,5.0000,-0.0000,1.44680,0.20710,-2.78399,1.00606,1.57079,0.00002,-0.14512,-0.38002,0.03981,,,,,,,,,,,,,,,,,,,,,,,,,,0,0,0,0,0
3.3774,1783190909.7792,1,1,5.0000,-0.0000,1.44680,0.20701,-2.78401,1.00616,1.57079,0.00002,-0.14512,-0.38002,0.03978,,,,,,,,,,,,,,,,,,,,,,,,,,0,0,0,0,0
3.3777,1783190909.7795,1,1,5.0000,-0.0000,1.44680,0.20701,-2.78401,1.00616,1.57079,0.00002,-0.14512,-0.38002,0.03978,,,,,,,,,,,,,,,,,,,,,,,,,,0,0,0,0,0
3.3915,1783190909.7932,1,1,5.0000,-0.0000,1.44680,0.20688,-2.78404,1.00632,1.57079,0.00002,-0.14512,-0.38002,0.03975,,,,,,,,,,,,,,,,,,,,,,,,,,0,0,0,0,0
3.3918,1783190909.7935,1,1,5.0000,-0.0000,1.44680,0.20688,-2.78404,1.00632,1.57079,0.00002,-0.14512,-0.38002,0.03975,,,,,,,,,,,,,,,,,,,,,,,,,,0,0,0,0,0
3.4080,1783190909.8098,1,1,5.0000,-0.0000,1.44680,0.20666,-2.78409,1.00660,1.57079,0.00002,-0.14512,-0.38002,0.03969,,,,,,,,,,,,,,,,,,,,,,,,,,0,0,0,0,0
3.4190,1783190909.8208,1,1,5.0000,-0.0000,1.44680,0.20651,-2.78413,1.00678,1.57079,0.00002,-0.14512,-0.38002,0.03966,,,,,,,,,,,,,,,,,,,,,,,,,,0,0,0,0,0
3.4193,1783190909.8211,1,1,5.0000,-0.0000,1.44680,0.20651,-2.78413,1.00678,1.57079,0.00002,-0.14512,-0.38002,0.03966,,,,,,,,,,,,,,,,,,,,,,,,,,0,0,0,0,0
3.4290,1783190909.8308,1,1,5.0000,-0.0000,1.44680,0.20648,-2.78414,1.00682,1.57079,0.00002,-0.14512,-0.38002,0.03965,,,,,,,,,,,,,,,,,,,,,,,,,,0,0,0,0,0
3.4361,1783190909.8379,1,1,5.0000,-0.0000,1.44680,0.20639,-2.78416,1.00693,1.57079,0.00002,-0.14512,-0.38002,0.03963,,,,,,,,,,,,,,,,,,,,,,,,,,0,0,0,0,0
3.4587,1783190909.8604,1,1,5.0000,-0.0000,1.44680,0.20618,-2.78421,1.00719,1.57079,0.00002,-0.14512,-0.38002,0.03957,,,,,,,,,,,,,,,,,,,,,,,,,,0,0,0,0,0
3.4634,1783190909.8651,1,1,5.0000,-0.0000,1.44680,0.20611,-2.78422,1.00727,1.57079,0.00002,-0.14512,-0.38002,0.03956,,,,,,,,,,,,,,,,,,,,,,,,,,0,0,0,0,0
3.4638,1783190909.8655,1,1,5.0000,-0.0000,1.44680,0.20611,-2.78422,1.00727,1.57079,0.00002,-0.14512,-0.38002,0.03956,,,,,,,,,,,,,,,,,,,,,,,,,,0,0,0,0,0
3.4699,1783190909.8717,1,1,5.0000,-0.0000,1.44680,0.20604,-2.78424,1.00736,1.57079,0.00002,-0.14512,-0.38002,0.03954,,,,,,,,,,,,,,,,,,,,,,,,,,0,0,0,0,0
3.4708,1783190909.8725,1,1,5.0000,-0.0000,1.44680,0.20597,-2.78426,1.00745,1.57079,0.00002,-0.14512,-0.38002,0.03952,,,,,,,,,,,,,,,,,,,,,,,,,,0,0,0,0,0
3.4757,1783190909.8774,1,1,5.0000,-0.0000,1.44680,0.20590,-2.78427,1.00754,1.57079,0.00002,-0.14512,-0.38002,0.03950,,,,,,,,,,,,,,,,,,,,,,,,,,0,0,0,0,0
3.4891,1783190909.8908,1,1,5.0000,-0.0000,1.44680,0.20586,-2.78428,1.00758,1.57079,0.00002,-0.14512,-0.38002,0.03950,,,,,,,,,,,,,,,,,,,,,,,,,,0,0,0,0,0
3.4977,1783190909.8994,1,1,5.0000,-0.0000,1.44680,0.20578,-2.78430,1.00769,1.57079,0.00002,-0.14512,-0.38002,0.03947,,,,,,,,,,,,,,,,,,,,,,,,,,0,0,0,0,0
3.4982,1783190909.9000,1,1,5.0000,-0.0000,1.44680,0.20578,-2.78430,1.00769,1.57079,0.00002,-0.14512,-0.38002,0.03947,,,,,,,,,,,,,,,,,,,,,,,,,,0,0,0,0,0
3.5059,1783190909.9077,1,1,5.0000,-0.0000,1.44680,0.20566,-2.78433,1.00783,1.57079,0.00002,-0.14512,-0.38002,0.03944,,,,,,,,,,,,,,,,,,,,,,,,,,0,0,0,0,0
3.5159,1783190909.9177,1,1,5.0000,-0.0000,1.44680,0.20561,-2.78434,1.00789,1.57079,0.00002,-0.14512,-0.38002,0.03943,,,,,,,,,,,,,,,,,,,,,,,,,,0,0,0,0,0
3.5287,1783190909.9305,1,1,5.0000,-0.0000,1.44680,0.20543,-2.78439,1.00813,1.57079,0.00002,-0.14512,-0.38002,0.03938,,,,,,,,,,,,,,,,,,,,,,,,,,0,0,0,0,0
3.5380,1783190909.9398,1,1,5.0000,-0.0000,1.44680,0.20528,-2.78442,1.00831,1.57079,0.00002,-0.14512,-0.38002,0.03935,,,,,,,,,,,,,,,,,,,,,,,,,,0,0,0,0,0
3.5476,1783190909.9494,1,1,5.0000,-0.0000,1.44680,0.20525,-2.78443,1.00835,1.57079,0.00002,-0.14512,-0.38002,0.03934,,,,,,,,,,,,,,,,,,,,,,,,,,0,0,0,0,0
3.5586,1783190909.9604,1,1,5.0000,-0.0000,1.44680,0.20511,-2.78446,1.00852,1.57079,0.00002,-0.14512,-0.38002,0.03930,,,,,,,,,,,,,,,,,,,,,,,,,,0,0,0,0,0
3.5694,1783190909.9712,1,1,5.0000,-0.0000,1.44680,0.20504,-2.78448,1.00860,1.57079,0.00002,-0.14512,-0.38002,0.03929,,,,,,,,,,,,,,,,,,,,,,,,,,0,0,0,0,0
3.5774,1783190909.9791,1,1,5.0000,-0.0000,1.44680,0.20500,-2.78449,1.00866,1.57079,0.00002,-0.14512,-0.38002,0.03928,,,,,,,,,,,,,,,,,,,,,,,,,,0,0,0,0,0
3.5777,1783190909.9795,1,1,5.0000,-0.0000,1.44680,0.20500,-2.78449,1.00866,1.57079,0.00002,-0.14512,-0.38002,0.03928,,,,,,,,,,,,,,,,,,,,,,,,,,0,0,0,0,0
3.5863,1783190909.9881,1,1,5.0000,-0.0000,1.44680,0.20488,-2.78452,1.00880,1.57079,0.00002,-0.14512,-0.38002,0.03925,,,,,,,,,,,,,,,,,,,,,,,,,,0,0,0,0,0
3.5869,1783190909.9887,1,1,5.0000,-0.0000,1.44680,0.20481,-2.78453,1.00889,1.57079,0.00002,-0.14512,-0.38002,0.03923,,,,,,,,,,,,,,,,,,,,,,,,,,0,0,0,0,0
3.5960,1783190909.9978,1,1,5.0000,-0.0000,1.44680,0.20466,-2.78457,1.00907,1.57079,0.00002,-0.14512,-0.38002,0.03919,,,,,,,,,,,,,,,,,,,,,,,,,,0,0,0,0,0
3.6081,1783190910.0098,1,1,5.0000,-0.0000,1.44680,0.20463,-2.78458,1.00911,1.57079,0.00002,-0.14512,-0.38002,0.03918,,,,,,,,,,,,,,,,,,,,,,,,,,0,0,0,0,0
3.6160,1783190910.0178,1,1,5.0000,-0.0000,1.44680,0.20454,-2.78460,1.00922,1.57079,0.00002,-0.14512,-0.38002,0.03916,,,,,,,,,,,,,,,,,,,,,,,,,,0,0,0,0,0
3.6310,1783190910.0328,1,1,5.0000,-0.0000,1.44680,0.20441,-2.78463,1.00938,1.57079,0.00002,-0.14512,-0.38002,0.03913,,,,,,,,,,,,,,,,,,,,,,,,,,0,0,0,0,0
3.6359,1783190910.0376,1,1,5.0000,-0.0000,1.44680,0.20438,-2.78464,1.00942,1.57079,0.00002,-0.14512,-0.38002,0.03912,,,,,,,,,,,,,,,,,,,,,,,,,,0,0,0,0,0
3.6476,1783190910.0494,1,1,5.0000,-0.0000,1.44680,0.20419,-2.78468,1.00965,1.57079,0.00002,-0.14512,-0.38002,0.03907,,,,,,,,,,,,,,,,,,,,,,,,,,0,0,0,0,0
3.6621,1783190910.0639,1,1,5.0000,-0.0000,1.44680,0.20404,-2.78471,1.00983,1.57079,0.00002,-0.14512,-0.38002,0.03904,,,,,,,,,,,,,,,,,,,,,,,,,,0,0,0,0,0
3.6700,1783190910.0718,1,1,5.0000,-0.0000,1.44680,0.20401,-2.78472,1.00987,1.57079,0.00002,-0.14512,-0.38002,0.03903,,,,,,,,,,,,,,,,,,,,,,,,,,0,0,0,0,0
3.6759,1783190910.0777,1,1,5.0000,-0.0000,1.44680,0.20393,-2.78474,1.00998,1.57079,0.00002,-0.14512,-0.38002,0.03901,,,,,,,,,,,,,,,,,,,,,,,,,,0,0,0,0,0
3.6870,1783190910.0888,1,1,5.0000,-0.0000,1.44680,0.20381,-2.78477,1.01013,1.57079,0.00002,-0.14512,-0.38002,0.03898,,,,,,,,,,,,,,,,,,,,,,,,,,0,0,0,0,0
3.6967,1783190910.0985,1,1,5.0000,-0.0000,1.44680,0.20376,-2.78478,1.01018,1.57079,0.00002,-0.14512,-0.38002,0.03897,,,,,,,,,,,,,,,,,,,,,,,,,,0,0,0,0,0
3.7109,1783190910.1127,1,1,5.0000,-0.0000,1.44680,0.20350,-2.78484,1.01051,1.57079,0.00002,-0.14512,-0.38002,0.03890,,,,,,,,,,,,,,,,,,,,,,,,,,0,0,0,0,0
3.7189,1783190910.1206,1,1,5.0000,-0.0000,1.44680,0.20343,-2.78486,1.01060,1.57079,0.00002,-0.14512,-0.38002,0.03888,,,,,,,,,,,,,,,,,,,,,,,,,,0,0,0,0,0
3.7192,1783190910.1210,1,1,5.0000,-0.0000,1.44680,0.20343,-2.78486,1.01060,1.57079,0.00002,-0.14512,-0.38002,0.03888,,,,,,,,,,,,,,,,,,,,,,,,,,0,0,0,0,0
3.7300,1783190910.1318,1,1,5.0000,-0.0000,1.44680,0.20339,-2.78487,1.01064,1.57079,0.00002,-0.14512,-0.38002,0.03887,,,,,,,,,,,,,,,,,,,,,,,,,,0,0,0,0,0
3.7399,1783190910.1417,1,1,5.0000,-0.0000,1.44680,0.20325,-2.78490,1.01081,1.57079,0.00002,-0.14512,-0.38002,0.03884,,,,,,,,,,,,,,,,,,,,,,,,,,0,0,0,0,0
3.7487,1783190910.1505,1,1,5.0000,-0.0000,1.44680,0.20319,-2.78492,1.01089,1.57079,0.00002,-0.14512,-0.38002,0.03882,,,,,,,,,,,,,,,,,,,,,,,,,,0,0,0,0,0
3.7603,1783190910.1621,1,1,5.0000,-0.0000,1.44680,0.20309,-2.78494,1.01101,1.57079,0.00002,-0.14512,-0.38002,0.03880,,,,,,,,,,,,,,,,,,,,,,,,,,0,0,0,0,0
3.7691,1783190910.1709,1,1,5.0000,-0.0000,1.44680,0.20295,-2.78497,1.01118,1.57079,0.00002,-0.14512,-0.38001,0.03876,,,,,,,,,,,,,,,,,,,,,,,,,,0,0,0,0,0
3.7781,1783190910.1799,1,1,5.0000,-0.0000,1.44680,0.20281,-2.78501,1.01136,1.57079,0.00002,-0.14512,-0.38001,0.03873,,,,,,,,,,,,,,,,,,,,,,,,,,0,0,0,0,0
3.7857,1783190910.1875,1,1,5.0000,-0.0000,1.44680,0.20279,-2.78501,1.01138,1.57079,0.00002,-0.14512,-0.38001,0.03873,,,,,,,,,,,,,,,,,,,,,,,,,,0,0,0,0,0
3.7861,1783190910.1879,1,1,5.0000,-0.0000,1.44680,0.20279,-2.78501,1.01138,1.57079,0.00002,-0.14512,-0.38001,0.03873,,,,,,,,,,,,,,,,,,,,,,,,,,0,0,0,0,0
3.8002,1783190910.2020,1,1,5.0000,-0.0000,1.44680,0.20258,-2.78506,1.01165,1.57079,0.00002,-0.14512,-0.38001,0.03867,,,,,,,,,,,,,,,,,,,,,,,,,,0,0,0,0,0
3.8073,1783190910.2091,1,1,5.0000,-0.0000,1.44680,0.20250,-2.78508,1.01174,1.57079,0.00002,-0.14512,-0.38001,0.03865,,,,,,,,,,,,,,,,,,,,,,,,,,0,0,0,0,0
3.8212,1783190910.2230,1,1,5.0000,-0.0000,1.44680,0.20241,-2.78510,1.01186,1.57079,0.00002,-0.14512,-0.38001,0.03863,,,,,,,,,,,,,,,,,,,,,,,,,,0,0,0,0,0
3.8290,1783190910.2308,1,1,5.0000,-0.0000,1.44680,0.20228,-2.78513,1.01202,1.57079,0.00002,-0.14512,-0.38001,0.03860,,,,,,,,,,,,,,,,,,,,,,,,,,0,0,0,0,0
3.8370,1783190910.2388,1,1,5.0000,-0.0000,1.44680,0.20213,-2.78517,1.01220,1.57079,0.00002,-0.14512,-0.38001,0.03856,,,,,,,,,,,,,,,,,,,,,,,,,,0,0,0,0,0
3.8473,1783190910.2490,1,1,5.0000,-0.0000,1.44680,0.20209,-2.78518,1.01225,1.57079,0.00002,-0.14512,-0.38001,0.03855,,,,,,,,,,,,,,,,,,,,,,,,,,0,0,0,0,0
3.8476,1783190910.2494,1,1,5.0000,-0.0000,1.44680,0.20209,-2.78518,1.01225,1.57079,0.00002,-0.14512,-0.38001,0.03855,,,,,,,,,,,,,,,,,,,,,,,,,,0,0,0,0,0
3.8587,1783190910.2605,1,1,5.0000,-0.0000,1.44680,0.20190,-2.78522,1.01248,1.57079,0.00002,-0.14512,-0.38001,0.03850,,,,,,,,,,,,,,,,,,,,,,,,,,0,0,0,0,0
3.8680,1783190910.2697,1,1,5.0000,-0.0000,1.44680,0.20183,-2.78524,1.01257,1.57079,0.00002,-0.14512,-0.38001,0.03848,,,,,,,,,,,,,,,,,,,,,,,,,,0,0,0,0,0
3.8795,1783190910.2813,1,1,5.0000,-0.0000,1.44680,0.20173,-2.78526,1.01269,1.57079,0.00002,-0.14512,-0.38001,0.03846,,,,,,,,,,,,,,,,,,,,,,,,,,0,0,0,0,0
3.8869,1783190910.2887,1,1,5.0000,-0.0000,1.44680,0.20160,-2.78529,1.01286,1.57079,0.00002,-0.14512,-0.38001,0.03843,,,,,,,,,,,,,,,,,,,,,,,,,,0,0,0,0,0
3.8955,1783190910.2973,1,1,5.0000,-0.0000,1.44680,0.20146,-2.78533,1.01303,1.57079,0.00003,-0.14512,-0.38001,0.03839,,,,,,,,,,,,,,,,,,,,,,,,,,0,0,0,0,0
3.8958,1783190910.2976,1,1,5.0000,-0.0000,1.44680,0.20146,-2.78533,1.01303,1.57079,0.00003,-0.14512,-0.38001,0.03839,,,,,,,,,,,,,,,,,,,,,,,,,,0,0,0,0,0
3.9072,1783190910.3090,1,1,5.0000,-0.0000,1.44680,0.20141,-2.78534,1.01309,1.57079,0.00003,-0.14512,-0.38001,0.03838,,,,,,,,,,,,,,,,,,,,,,,,,,0,0,0,0,0
3.9158,1783190910.3176,1,1,5.0000,-0.0000,1.44680,0.20130,-2.78536,1.01323,1.57079,0.00003,-0.14512,-0.38001,0.03835,,,,,,,,,,,,,,,,,,,,,,,,,,0,0,0,0,0
3.9258,1783190910.3276,1,1,5.0000,-0.0000,1.44680,0.20115,-2.78540,1.01341,1.57079,0.00003,-0.14512,-0.38001,0.03831,,,,,,,,,,,,,,,,,,,,,,,,,,0,0,0,0,0
3.9441,1783190910.3458,1,1,5.0000,-0.0000,1.44680,0.20099,-2.78543,1.01361,1.57079,0.00003,-0.14512,-0.38001,0.03827,,,,,,,,,,,,,,,,,,,,,,,,,,0,0,0,0,0
3.9486,1783190910.3503,1,1,5.0000,-0.0000,1.44680,0.20092,-2.78545,1.01369,1.57079,0.00003,-0.14512,-0.38001,0.03826,,,,,,,,,,,,,,,,,,,,,,,,,,0,0,0,0,0
3.9600,1783190910.3618,1,1,5.0000,-0.0000,1.44680,0.20078,-2.78548,1.01387,1.57079,0.00003,-0.14512,-0.38001,0.03822,,,,,,,,,,,,,,,,,,,,,,,,,,0,0,0,0,0
3.9839,1783190910.3857,1,1,5.0000,-0.0000,1.44680,0.20047,-2.78556,1.01424,1.57079,0.00003,-0.14512,-0.38001,0.03815,,,,,,,,,,,,,,,,,,,,,,,,,,0,0,0,0,0
3.9918,1783190910.3936,1,1,5.0000,-0.0000,1.44680,0.20046,-2.78556,1.01426,1.57079,0.00003,-0.14512,-0.38001,0.03814,,,,,,,,,,,,,,,,,,,,,,,,,,0,0,0,0,0
3.9922,1783190910.3939,1,1,5.0000,-0.0000,1.44680,0.20046,-2.78556,1.01426,1.57079,0.00003,-0.14512,-0.38001,0.03814,,,,,,,,,,,,,,,,,,,,,,,,,,0,0,0,0,0
4.0070,1783190910.4088,1,1,5.0000,-0.0000,1.44680,0.20025,-2.78561,1.01453,1.57079,0.00003,-0.14512,-0.38001,0.03809,,,,,,,,,,,,,,,,,,,,,,,,,,0,0,0,0,0
4.0073,1783190910.4091,1,1,5.0000,-0.0000,1.44680,0.20025,-2.78561,1.01453,1.57079,0.00003,-0.14512,-0.38001,0.03809,,,,,,,,,,,,,,,,,,,,,,,,,,0,0,0,0,0
4.0093,1783190910.4111,1,1,5.0000,-0.0000,1.44680,0.20025,-2.78561,1.01453,1.57079,0.00003,-0.14512,-0.38001,0.03809,,,,,,,,,,,,,,,,,,,,,,,,,,0,0,0,0,0
4.0296,1783190910.4313,1,1,5.0000,-0.0000,1.44680,0.20006,-2.78565,1.01476,1.57079,0.00003,-0.14512,-0.38001,0.03804,,,,,,,,,,,,,,,,,,,,,,,,,,0,0,0,0,0
4.0304,1783190910.4322,1,1,5.0000,-0.0000,1.44680,0.20006,-2.78565,1.01476,1.57079,0.00003,-0.14512,-0.38001,0.03804,,,,,,,,,,,,,,,,,,,,,,,,,,0,0,0,0,0
4.0406,1783190910.4424,1,1,5.0000,-0.0000,1.44680,0.19987,-2.78570,1.01499,1.57079,0.00003,-0.14512,-0.38001,0.03799,,,,,,,,,,,,,,,,,,,,,,,,,,0,0,0,0,0
4.0501,1783190910.4519,1,1,5.0000,-0.0000,1.44680,0.19980,-2.78571,1.01508,1.57079,0.00003,-0.14512,-0.38001,0.03798,,,,,,,,,,,,,,,,,,,,,,,,,,0,0,0,0,0
4.0589,1783190910.4607,1,1,5.0000,-0.0000,1.44680,0.19970,-2.78574,1.01520,1.57079,0.00003,-0.14512,-0.38001,0.03795,,,,,,,,,,,,,,,,,,,,,,,,,,0,0,0,0,0
4.0700,1783190910.4717,1,1,5.0000,-0.0000,1.44680,0.19957,-2.78577,1.01536,1.57079,0.00003,-0.14512,-0.38001,0.03792,,,,,,,,,,,,,,,,,,,,,,,,,,0,0,0,0,0
4.0790,1783190910.4808,1,1,5.0000,-0.0000,1.44680,0.19942,-2.78580,1.01554,1.57079,0.00003,-0.14512,-0.38001,0.03788,,,,,,,,,,,,,,,,,,,,,,,,,,0,0,0,0,0
4.0793,1783190910.4811,1,1,5.0000,-0.0000,1.44680,0.19942,-2.78580,1.01554,1.57079,0.00003,-0.14512,-0.38001,0.03788,,,,,,,,,,,,,,,,,,,,,,,,,,0,0,0,0,0
4.0900,1783190910.4918,1,1,5.0000,-0.0000,1.44680,0.19938,-2.78581,1.01560,1.57079,0.00003,-0.14512,-0.38001,0.03787,,,,,,,,,,,,,,,,,,,,,,,,,,0,0,0,0,0
4.0904,1783190910.4922,1,1,5.0000,-0.0000,1.44680,0.19938,-2.78581,1.01560,1.57079,0.00003,-0.14512,-0.38001,0.03787,,,,,,,,,,,,,,,,,,,,,,,,,,0,0,0,0,0
4.1002,1783190910.5020,1,1,5.0000,-0.0000,1.44680,0.19919,-2.78586,1.01583,1.57079,0.00003,-0.14512,-0.38001,0.03783,,,,,,,,,,,,,,,,,,,,,,,,,,0,0,0,0,0
4.1109,1783190910.5127,1,1,5.0000,-0.0000,1.44680,0.19905,-2.78589,1.01600,1.57079,0.00003,-0.14512,-0.38001,0.03779,,,,,,,,,,,,,,,,,,,,,,,,,,0,0,0,0,0
4.1189,1783190910.5207,1,1,5.0000,-0.0000,1.44680,0.19901,-2.78590,1.01605,1.57079,0.00003,-0.14512,-0.38001,0.03778,,,,,,,,,,,,,,,,,,,,,,,,,,0,0,0,0,0
4.1193,1783190910.5211,1,1,5.0000,-0.0000,1.44680,0.19901,-2.78590,1.01605,1.57079,0.00003,-0.14512,-0.38001,0.03778,,,,,,,,,,,,,,,,,,,,,,,,,,0,0,0,0,0
4.1335,1783190910.5353,1,1,5.0000,-0.0000,1.44680,0.19887,-2.78593,1.01622,1.57079,0.00003,-0.14512,-0.38001,0.03775,,,,,,,,,,,,,,,,,,,,,,,,,,0,0,0,0,0
4.1407,1783190910.5425,1,1,5.0000,-0.0000,1.44680,0.19881,-2.78595,1.01630,1.57079,0.00003,-0.14512,-0.38001,0.03773,,,,,,,,,,,,,,,,,,,,,,,,,,0,0,0,0,0
4.1495,1783190910.5513,1,1,5.0000,-0.0000,1.44680,0.19876,-2.78596,1.01636,1.57079,0.00003,-0.14512,-0.38001,0.03772,,,,,,,,,,,,,,,,,,,,,,,,,,0,0,0,0,0
4.1590,1783190910.5608,1,1,5.0000,-0.0000,1.44680,0.19857,-2.78600,1.01659,1.57079,0.00003,-0.14512,-0.38001,0.03767,,,,,,,,,,,,,,,,,,,,,,,,,,0,0,0,0,0
4.1593,1783190910.5611,1,1,5.0000,-0.0000,1.44680,0.19857,-2.78600,1.01659,1.57079,0.00003,-0.14512,-0.38001,0.03767,,,,,,,,,,,,,,,,,,,,,,,,,,0,0,0,0,0
4.1756,1783190910.5774,1,1,5.0000,-0.0000,1.44680,0.19841,-2.78604,1.01679,1.57079,0.00003,-0.14512,-0.38001,0.03763,,,,,,,,,,,,,,,,,,,,,,,,,,0,0,0,0,0
4.1889,1783190910.5907,1,1,5.0000,-0.0000,1.44680,0.19830,-2.78606,1.01692,1.57079,0.00003,-0.14512,-0.38001,0.03760,,,,,,,,,,,,,,,,,,,,,,,,,,0,0,0,0,0
4.1909,1783190910.5927,1,1,5.0000,-0.0000,1.44680,0.19825,-2.78608,1.01699,1.57079,0.00003,-0.14512,-0.38001,0.03759,,,,,,,,,,,,,,,,,,,,,,,,,,0,0,0,0,0
4.1996,1783190910.6014,1,1,5.0000,-0.0000,1.44680,0.19819,-2.78609,1.01707,1.57079,0.00003,-0.14512,-0.38001,0.03757,,,,,,,,,,,,,,,,,,,,,,,,,,0,0,0,0,0
4.2116,1783190910.6134,1,1,5.0000,-0.0000,1.44680,0.19808,-2.78611,1.01719,1.57079,0.00003,-0.14512,-0.38001,0.03755,,,,,,,,,,,,,,,,,,,,,,,,,,0,0,0,0,0
4.2339,1783190910.6357,1,1,5.0000,-0.0000,1.44680,0.19780,-2.78618,1.01754,1.57079,0.00003,-0.14512,-0.38001,0.03748,,,,,,,,,,,,,,,,,,,,,,,,,,0,0,0,0,0
4.2450,1783190910.6468,1,1,5.0000,-0.0000,1.44680,0.19773,-2.78620,1.01763,1.57079,0.00003,-0.14512,-0.38001,0.03746,,,,,,,,,,,,,,,,,,,,,,,,,,0,0,0,0,0
4.2455,1783190910.6472,1,1,5.0000,-0.0000,1.44680,0.19773,-2.78620,1.01763,1.57079,0.00003,-0.14512,-0.38001,0.03746,,,,,,,,,,,,,,,,,,,,,,,,,,0,0,0,0,0
4.2511,1783190910.6529,1,1,5.0000,-0.0000,1.44680,0.19762,-2.78622,1.01776,1.57079,0.00003,-0.14512,-0.38001,0.03744,,,,,,,,,,,,,,,,,,,,,,,,,,0,0,0,0,0
4.2514,1783190910.6531,1,1,5.0000,-0.0000,1.44680,0.19762,-2.78622,1.01776,1.57079,0.00003,-0.14512,-0.38001,0.03744,,,,,,,,,,,,,,,,,,,,,,,,,,0,0,0,0,0
4.2590,1783190910.6607,1,1,5.0000,-0.0000,1.44680,0.19756,-2.78624,1.01784,1.57079,0.00003,-0.14512,-0.38001,0.03742,,,,,,,,,,,,,,,,,,,,,,,,,,0,0,0,0,0
4.2593,1783190910.6611,1,1,5.0000,-0.0000,1.44680,0.19756,-2.78624,1.01784,1.57079,0.00003,-0.14512,-0.38001,0.03742,,,,,,,,,,,,,,,,,,,,,,,,,,0,0,0,0,0
4.2720,1783190910.6738,1,1,5.0000,-0.0000,1.44680,0.19746,-2.78626,1.01796,1.57079,0.00003,-0.14512,-0.38001,0.03739,,,,,,,,,,,,,,,,,,,,,,,,,,0,0,0,0,0
4.2723,1783190910.6741,1,1,5.0000,-0.0000,1.44680,0.19746,-2.78626,1.01796,1.57079,0.00003,-0.14512,-0.38001,0.03739,,,,,,,,,,,,,,,,,,,,,,,,,,0,0,0,0,0
4.2814,1783190910.6832,1,1,5.0000,-0.0000,1.44680,0.19732,-2.78629,1.01813,1.57079,0.00003,-0.14512,-0.38001,0.03736,,,,,,,,,,,,,,,,,,,,,,,,,,0,0,0,0,0
4.2818,1783190910.6836,1,1,5.0000,-0.0000,1.44680,0.19732,-2.78629,1.01813,1.57079,0.00003,-0.14512,-0.38001,0.03736,,,,,,,,,,,,,,,,,,,,,,,,,,0,0,0,0,0
4.2898,1783190910.6916,1,1,5.0000,-0.0000,1.44680,0.19718,-2.78633,1.01831,1.57079,0.00003,-0.14512,-0.38001,0.03732,,,,,,,,,,,,,,,,,,,,,,,,,,0,0,0,0,0
4.2902,1783190910.6919,1,1,5.0000,-0.0000,1.44680,0.19718,-2.78633,1.01831,1.57079,0.00003,-0.14512,-0.38001,0.03732,,,,,,,,,,,,,,,,,,,,,,,,,,0,0,0,0,0
4.2990,1783190910.7008,1,1,5.0000,-0.0000,1.44680,0.19714,-2.78633,1.01835,1.57079,0.00003,-0.14512,-0.38001,0.03732,,,,,,,,,,,,,,,,,,,,,,,,,,0,0,0,0,0
4.3191,1783190910.7209,1,1,5.0000,-0.0000,1.44680,0.19694,-2.78638,1.01860,1.57079,0.00003,-0.14512,-0.38001,0.03726,,,,,,,,,,,,,,,,,,,,,,,,,,0,0,0,0,0
4.3197,1783190910.7215,1,1,5.0000,-0.0000,1.44680,0.19694,-2.78638,1.01860,1.57079,0.00003,-0.14512,-0.38001,0.03726,,,,,,,,,,,,,,,,,,,,,,,,,,0,0,0,0,0
4.3372,1783190910.7390,1,1,5.0000,-0.0000,1.44680,0.19677,-2.78642,1.01881,1.57079,0.00003,-0.14512,-0.38001,0.03722,,,,,,,,,,,,,,,,,,,,,,,,,,0,0,0,0,0
4.3392,1783190910.7409,1,1,5.0000,-0.0000,1.44680,0.19670,-2.78644,1.01890,1.57079,0.00003,-0.14512,-0.38001,0.03721,,,,,,,,,,,,,,,,,,,,,,,,,,0,0,0,0,0
4.3509,1783190910.7527,1,1,5.0000,-0.0000,1.44680,0.19655,-2.78647,1.01908,1.57079,0.00003,-0.14512,-0.38001,0.03717,,,,,,,,,,,,,,,,,,,,,,,,,,0,0,0,0,0
4.3601,1783190910.7619,1,1,5.0000,-0.0000,1.44680,0.19652,-2.78648,1.01912,1.57079,0.00003,-0.14511,-0.38001,0.03716,,,,,,,,,,,,,,,,,,,,,,,,,,0,0,0,0,0
4.3604,1783190910.7622,1,1,5.0000,-0.0000,1.44680,0.19652,-2.78648,1.01912,1.57079,0.00003,-0.14511,-0.38001,0.03716,,,,,,,,,,,,,,,,,,,,,,,,,,0,0,0,0,0
4.3704,1783190910.7721,1,1,5.0000,-0.0000,1.44679,0.19643,-2.78650,1.01923,1.57079,0.00003,-0.14511,-0.38001,0.03714,,,,,,,,,,,,,,,,,,,,,,,,,,0,0,0,0,0
4.3710,1783190910.7727,1,1,5.0000,-0.0000,1.44679,0.19637,-2.78651,1.01930,1.57079,0.00003,-0.14511,-0.38001,0.03713,,,,,,,,,,,,,,,,,,,,,,,,,,0,0,0,0,0
4.3805,1783190910.7822,1,1,5.0000,-0.0000,1.44679,0.19631,-2.78653,1.01937,1.57079,0.00003,-0.14511,-0.38001,0.03711,,,,,,,,,,,,,,,,,,,,,,,,,,0,0,0,0,0
4.3807,1783190910.7825,1,1,5.0000,-0.0000,1.44679,0.19631,-2.78653,1.01937,1.57079,0.00003,-0.14511,-0.38001,0.03711,,,,,,,,,,,,,,,,,,,,,,,,,,0,0,0,0,0
4.3892,1783190910.7910,1,1,5.0000,-0.0000,1.44679,0.19626,-2.78654,1.01943,1.57079,0.00003,-0.14511,-0.38001,0.03710,,,,,,,,,,,,,,,,,,,,,,,,,,0,0,0,0,0
4.4017,1783190910.8035,1,1,5.0000,-0.0000,1.44679,0.19607,-2.78658,1.01967,1.57079,0.00003,-0.14511,-0.38001,0.03705,,,,,,,,,,,,,,,,,,,,,,,,,,0,0,0,0,0
4.4175,1783190910.8193,1,1,5.0000,-0.0000,1.44679,0.19592,-2.78662,1.01986,1.57079,0.00003,-0.14511,-0.38001,0.03701,,,,,,,,,,,,,,,,,,,,,,,,,,0,0,0,0,0
4.4195,1783190910.8213,1,1,5.0000,-0.0000,1.44679,0.19589,-2.78662,1.01989,1.57079,0.00003,-0.14511,-0.38001,0.03701,,,,,,,,,,,,,,,,,,,,,,,,,,0,0,0,0,0
4.4200,1783190910.8218,1,1,5.0000,-0.0000,1.44679,0.19589,-2.78662,1.01989,1.57079,0.00003,-0.14511,-0.38001,0.03701,,,,,,,,,,,,,,,,,,,,,,,,,,0,0,0,0,0
4.4350,1783190910.8368,1,1,5.0000,-0.0000,1.44679,0.19569,-2.78667,1.02014,1.57079,0.00003,-0.14511,-0.38001,0.03695,,,,,,,,,,,,,,,,,,,,,,,,,,0,0,0,0,0
4.4354,1783190910.8372,1,1,5.0000,-0.0000,1.44679,0.19569,-2.78667,1.02014,1.57079,0.00003,-0.14511,-0.38001,0.03695,,,,,,,,,,,,,,,,,,,,,,,,,,0,0,0,0,0
4.4391,1783190910.8408,1,1,5.0000,-0.0000,1.44679,0.19569,-2.78667,1.02014,1.57079,0.00003,-0.14511,-0.38001,0.03695,,,,,,,,,,,,,,,,,,,,,,,,,,0,0,0,0,0
4.4395,1783190910.8412,1,1,5.0000,-0.0000,1.44679,0.19569,-2.78667,1.02014,1.57079,0.00003,-0.14511,-0.38001,0.03695,,,,,,,,,,,,,,,,,,,,,,,,,,0,0,0,0,0
4.4503,1783190910.8520,1,1,5.0000,-0.0000,1.44679,0.19564,-2.78668,1.02020,1.57079,0.00003,-0.14511,-0.38001,0.03694,,,,,,,,,,,,,,,,,,,,,,,,,,0,0,0,0,0
4.4596,1783190910.8614,1,1,5.0000,-0.0000,1.44679,0.19545,-2.78673,1.02044,1.57079,0.00003,-0.14511,-0.38001,0.03690,,,,,,,,,,,,,,,,,,,,,,,,,,0,0,0,0,0
4.4728,1783190910.8746,1,1,5.0000,-0.0000,1.44679,0.19530,-2.78676,1.02062,1.57079,0.00003,-0.14511,-0.38001,0.03686,,,,,,,,,,,,,,,,,,,,,,,,,,0,0,0,0,0
4.4802,1783190910.8820,1,1,5.0000,-0.0000,1.44679,0.19525,-2.78677,1.02068,1.57079,0.00003,-0.14511,-0.38001,0.03685,,,,,,,,,,,,,,,,,,,,,,,,,,0,0,0,0,0
4.4941,1783190910.8959,1,1,5.0000,-0.0000,1.44679,0.19507,-2.78681,1.02091,1.57079,0.00003,-0.14511,-0.38001,0.03680,,,,,,,,,,,,,,,,,,,,,,,,,,0,0,0,0,0
4.4991,1783190910.9009,1,1,5.0000,-0.0000,1.44679,0.19500,-2.78683,1.02100,1.57079,0.00003,-0.14511,-0.38001,0.03678,,,,,,,,,,,,,,,,,,,,,,,,,,0,0,0,0,0
4.5104,1783190910.9121,1,1,5.0000,-0.0000,1.44679,0.19495,-2.78684,1.02105,1.57079,0.00003,-0.14511,-0.38001,0.03677,,,,,,,,,,,,,,,,,,,,,,,,,,0,0,0,0,0
4.5191,1783190910.9209,1,1,5.0000,-0.0000,1.44679,0.19476,-2.78688,1.02128,1.57079,0.00003,-0.14511,-0.38001,0.03673,,,,,,,,,,,,,,,,,,,,,,,,,,0,0,0,0,0
4.5370,1783190910.9388,1,1,5.0000,-0.0000,1.44679,0.19461,-2.78692,1.02147,1.57079,0.00003,-0.14511,-0.38001,0.03669,,,,,,,,,,,,,,,,,,,,,,,,,,0,0,0,0,0
4.5405,1783190910.9423,1,1,5.0000,-0.0000,1.44679,0.19457,-2.78693,1.02152,1.57079,0.00003,-0.14511,-0.38001,0.03668,,,,,,,,,,,,,,,,,,,,,,,,,,0,0,0,0,0
4.5490,1783190910.9508,1,1,5.0000,-0.0000,1.44679,0.19446,-2.78695,1.02166,1.57079,0.00003,-0.14511,-0.38001,0.03665,,,,,,,,,,,,,,,,,,,,,,,,,,0,0,0,0,0
4.5593,1783190910.9611,1,1,5.0000,-0.0000,1.44679,0.19431,-2.78699,1.02184,1.57079,0.00003,-0.14511,-0.38001,0.03661,,,,,,,,,,,,,,,,,,,,,,,,,,0,0,0,0,0
4.5696,1783190910.9714,1,1,5.0000,-0.0000,1.44679,0.19427,-2.78700,1.02189,1.57079,0.00003,-0.14511,-0.38001,0.03660,,,,,,,,,,,,,,,,,,,,,,,,,,0,0,0,0,0
4.5701,1783190910.9718,1,1,5.0000,-0.0000,1.44679,0.19427,-2.78700,1.02189,1.57079,0.00003,-0.14511,-0.38001,0.03660,,,,,,,,,,,,,,,,,,,,,,,,,,0,0,0,0,0
4.5855,1783190910.9872,1,1,5.0000,-0.0000,1.44679,0.19401,-2.78706,1.02221,1.57079,0.00003,-0.14511,-0.38001,0.03654,,,,,,,,,,,,,,,,,,,,,,,,,,0,0,0,0,0
4.5929,1783190910.9947,1,1,5.0000,-0.0000,1.44679,0.19394,-2.78707,1.02230,1.57079,0.00003,-0.14511,-0.38001,0.03652,,,,,,,,,,,,,,,,,,,,,,,,,,0,0,0,0,0
4.6009,1783190911.0027,1,1,5.0000,-0.0000,1.44679,0.19389,-2.78708,1.02236,1.57079,0.00003,-0.14511,-0.38001,0.03651,,,,,,,,,,,,,,,,,,,,,,,,,,0,0,0,0,0
4.6126,1783190911.0144,1,1,5.0000,-0.0000,1.44679,0.19370,-2.78713,1.02259,1.57079,0.00003,-0.14511,-0.38001,0.03646,,,,,,,,,,,,,,,,,,,,,,,,,,0,0,0,0,0
4.6199,1783190911.0217,1,1,5.0000,-0.0000,1.44679,0.19363,-2.78714,1.02268,1.57079,0.00003,-0.14511,-0.38001,0.03645,,,,,,,,,,,,,,,,,,,,,,,,,,0,0,0,0,0
4.6310,1783190911.0328,1,1,5.0000,-0.0000,1.44679,0.19353,-2.78717,1.02280,1.57079,0.00003,-0.14511,-0.38001,0.03642,,,,,,,,,,,,,,,,,,,,,,,,,,0,0,0,0,0
4.6314,1783190911.0332,1,1,5.0000,-0.0000,1.44679,0.19353,-2.78717,1.02280,1.57079,0.00003,-0.14511,-0.38001,0.03642,,,,,,,,,,,,,,,,,,,,,,,,,,0,0,0,0,0
4.6410,1783190911.0428,1,1,5.0000,-0.0000,1.44679,0.19340,-2.78720,1.02296,1.57079,0.00003,-0.14511,-0.38001,0.03639,,,,,,,,,,,,,,,,,,,,,,,,,,0,0,0,0,0
4.6515,1783190911.0533,1,1,5.0000,-0.0000,1.44679,0.19325,-2.78723,1.02314,1.57079,0.00003,-0.14511,-0.38001,0.03635,,,,,,,,,,,,,,,,,,,,,,,,,,0,0,0,0,0
4.6591,1783190911.0608,1,1,5.0000,-0.0000,1.44679,0.19320,-2.78724,1.02320,1.57079,0.00003,-0.14511,-0.38001,0.03634,,,,,,,,,,,,,,,,,,,,,,,,,,0,0,0,0,0
4.6688,1783190911.0706,1,1,5.0000,-0.0000,1.44679,0.19309,-2.78727,1.02334,1.57079,0.00003,-0.14511,-0.38001,0.03631,,,,,,,,,,,,,,,,,,,,,,,,,,0,0,0,0,0
4.6691,1783190911.0709,1,1,5.0000,-0.0000,1.44679,0.19309,-2.78727,1.02334,1.57079,0.00003,-0.14511,-0.38001,0.03631,,,,,,,,,,,,,,,,,,,,,,,,,,0,0,0,0,0
4.6826,1783190911.0843,1,1,5.0000,-0.0000,1.44679,0.19294,-2.78730,1.02352,1.57079,0.00003,-0.14511,-0.38001,0.03628,,,,,,,,,,,,,,,,,,,,,,,,,,0,0,0,0,0
4.6957,1783190911.0975,1,1,5.0000,-0.0000,1.44679,0.19278,-2.78734,1.02372,1.57079,0.00003,-0.14511,-0.38001,0.03624,,,,,,,,,,,,,,,,,,,,,,,,,,0,0,0,0,0
4.7009,1783190911.1027,1,1,5.0000,-0.0000,1.44679,0.19271,-2.78735,1.02380,1.57079,0.00003,-0.14511,-0.38001,0.03622,,,,,,,,,,,,,,,,,,,,,,,,,,0,0,0,0,0
4.7088,1783190911.1105,1,1,5.0000,-0.0000,1.44679,0.19257,-2.78739,1.02398,1.57079,0.00003,-0.14511,-0.38001,0.03618,,,,,,,,,,,,,,,,,,,,,,,,,,0,0,0,0,0
4.7091,1783190911.1109,1,1,5.0000,-0.0000,1.44679,0.19257,-2.78739,1.02398,1.57079,0.00003,-0.14511,-0.38001,0.03618,,,,,,,,,,,,,,,,,,,,,,,,,,0,0,0,0,0
4.7224,1783190911.1242,1,1,5.0000,-0.0000,1.44679,0.19252,-2.78740,1.02404,1.57079,0.00003,-0.14511,-0.38001,0.03617,,,,,,,,,,,,,,,,,,,,,,,,,,0,0,0,0,0
4.7292,1783190911.1310,1,1,5.0000,-0.0000,1.44679,0.19240,-2.78742,1.02418,1.57079,0.00003,-0.14511,-0.38001,0.03614,,,,,,,,,,,,,,,,,,,,,,,,,,0,0,0,0,0
4.7410,1783190911.1428,1,1,5.0000,-0.0000,1.44679,0.19226,-2.78746,1.02436,1.57079,0.00003,-0.14511,-0.38001,0.03611,,,,,,,,,,,,,,,,,,,,,,,,,,0,0,0,0,0
4.7537,1783190911.1554,1,1,5.0000,-0.0000,1.44679,0.19216,-2.78748,1.02448,1.57079,0.00003,-0.14511,-0.38001,0.03608,,,,,,,,,,,,,,,,,,,,,,,,,,0,0,0,0,0
4.7592,1783190911.1610,1,1,5.0000,-0.0000,1.44679,0.19203,-2.78751,1.02465,1.57079,0.00003,-0.14511,-0.38001,0.03605,,,,,,,,,,,,,,,,,,,,,,,,,,0,0,0,0,0
4.7693,1783190911.1711,1,1,5.0000,-0.0000,1.44679,0.19188,-2.78754,1.02482,1.57079,0.00003,-0.14511,-0.38001,0.03601,,,,,,,,,,,,,,,,,,,,,,,,,,0,0,0,0,0
4.7800,1783190911.1817,1,1,5.0000,-0.0000,1.44679,0.19183,-2.78756,1.02488,1.57079,0.00003,-0.14511,-0.38001,0.03600,,,,,,,,,,,,,,,,,,,,,,,,,,0,0,0,0,0
4.7922,1783190911.1939,1,1,5.0000,-0.0000,1.44679,0.19165,-2.78760,1.02511,1.57079,0.00003,-0.14511,-0.38001,0.03596,,,,,,,,,,,,,,,,,,,,,,,,,,0,0,0,0,0
4.8013,1783190911.2031,1,1,5.0000,-0.0000,1.44679,0.19157,-2.78761,1.02520,1.57079,0.00003,-0.14511,-0.38001,0.03594,,,,,,,,,,,,,,,,,,,,,,,,,,0,0,0,0,0
4.8087,1783190911.2104,1,1,5.0000,-0.0000,1.44679,0.19153,-2.78763,1.02526,1.57079,0.00003,-0.14511,-0.38001,0.03593,,,,,,,,,,,,,,,,,,,,,,,,,,0,0,0,0,0
4.8090,1783190911.2108,1,1,5.0000,-0.0000,1.44679,0.19153,-2.78763,1.02526,1.57079,0.00003,-0.14511,-0.38001,0.03593,,,,,,,,,,,,,,,,,,,,,,,,,,0,0,0,0,0
4.8216,1783190911.2234,1,1,5.0000,-0.0000,1.44679,0.19134,-2.78767,1.02549,1.57079,0.00003,-0.14511,-0.38001,0.03588,,,,,,,,,,,,,,,,,,,,,,,,,,0,0,0,0,0
4.8290,1783190911.2308,1,1,5.0000,-0.0000,1.44679,0.19120,-2.78770,1.02567,1.57079,0.00003,-0.14511,-0.38001,0.03584,,,,,,,,,,,,,,,,,,,,,,,,,,0,0,0,0,0
4.8294,1783190911.2311,1,1,5.0000,-0.0000,1.44679,0.19120,-2.78770,1.02567,1.57079,0.00003,-0.14511,-0.38001,0.03584,,,,,,,,,,,,,,,,,,,,,,,,,,0,0,0,0,0
4.8439,1783190911.2456,1,1,5.0000,-0.0000,1.44679,0.19110,-2.78772,1.02579,1.57079,0.00003,-0.14511,-0.38001,0.03582,,,,,,,,,,,,,,,,,,,,,,,,,,0,0,0,0,0
4.8499,1783190911.2517,1,1,5.0000,-0.0000,1.44679,0.19103,-2.78774,1.02587,1.57079,0.00003,-0.14511,-0.38001,0.03580,,,,,,,,,,,,,,,,,,,,,,,,,,0,0,0,0,0
4.8606,1783190911.2624,1,1,5.0000,-0.0000,1.44679,0.19089,-2.78777,1.02604,1.57079,0.00003,-0.14511,-0.38001,0.03577,,,,,,,,,,,,,,,,,,,,,,,,,,0,0,0,0,0
4.8710,1783190911.2728,1,1,5.0000,-0.0000,1.44679,0.19079,-2.78779,1.02616,1.57079,0.00003,-0.14511,-0.38001,0.03574,,,,,,,,,,,,,,,,,,,,,,,,,,0,0,0,0,0
4.8713,1783190911.2731,1,1,5.0000,-0.0000,1.44679,0.19079,-2.78779,1.02616,1.57079,0.00003,-0.14511,-0.38001,0.03574,,,,,,,,,,,,,,,,,,,,,,,,,,0,0,0,0,0
4.8790,1783190911.2808,1,1,5.0000,-0.0000,1.44679,0.19066,-2.78782,1.02633,1.57079,0.00003,-0.14511,-0.38001,0.03571,,,,,,,,,,,,,,,,,,,,,,,,,,0,0,0,0,0
4.8794,1783190911.2812,1,1,5.0000,-0.0000,1.44679,0.19066,-2.78782,1.02633,1.57079,0.00003,-0.14511,-0.38001,0.03571,,,,,,,,,,,,,,,,,,,,,,,,,,0,0,0,0,0
4.8962,1783190911.2980,1,1,5.0000,-0.0000,1.44679,0.19050,-2.78786,1.02652,1.57079,0.00003,-0.14511,-0.38001,0.03567,,,,,,,,,,,,,,,,,,,,,,,,,,0,0,0,0,0
4.9003,1783190911.3021,1,1,5.0000,-0.0000,1.44679,0.19046,-2.78787,1.02657,1.57079,0.00003,-0.14511,-0.38001,0.03566,,,,,,,,,,,,,,,,,,,,,,,,,,0,0,0,0,0
4.9096,1783190911.3114,1,1,5.0000,-0.0000,1.44679,0.19035,-2.78789,1.02671,1.57079,0.00003,-0.14511,-0.38001,0.03564,,,,,,,,,,,,,,,,,,,,,,,,,,0,0,0,0,0
4.9100,1783190911.3117,1,1,5.0000,-0.0000,1.44679,0.19035,-2.78789,1.02671,1.57079,0.00003,-0.14511,-0.38001,0.03564,,,,,,,,,,,,,,,,,,,,,,,,,,0,0,0,0,0
4.9193,1783190911.3211,1,1,5.0000,-0.0000,1.44679,0.19013,-2.78794,1.02698,1.57079,0.00003,-0.14511,-0.38001,0.03558,,,,,,,,,,,,,,,,,,,,,,,,,,0,0,0,0,0
4.9196,1783190911.3214,1,1,5.0000,-0.0000,1.44679,0.19013,-2.78794,1.02698,1.57079,0.00003,-0.14511,-0.38001,0.03558,,,,,,,,,,,,,,,,,,,,,,,,,,0,0,0,0,0
4.9321,1783190911.3338,1,1,5.0000,-0.0000,1.44679,0.19009,-2.78795,1.02702,1.57079,0.00003,-0.14511,-0.38001,0.03557,,,,,,,,,,,,,,,,,,,,,,,,,,0,0,0,0,0
4.9324,1783190911.3341,1,1,5.0000,-0.0000,1.44679,0.19009,-2.78795,1.02702,1.57079,0.00003,-0.14511,-0.38001,0.03557,,,,,,,,,,,,,,,,,,,,,,,,,,0,0,0,0,0
4.9399,1783190911.3417,1,1,5.0000,-0.0000,1.44679,0.19001,-2.78797,1.02713,1.57079,0.00003,-0.14511,-0.38001,0.03555,,,,,,,,,,,,,,,,,,,,,,,,,,0,0,0,0,0
4.9507,1783190911.3525,1,1,5.0000,-0.0000,1.44679,0.18989,-2.78800,1.02727,1.57079,0.00003,-0.14511,-0.38001,0.03552,,,,,,,,,,,,,,,,,,,,,,,,,,0,0,0,0,0
4.9601,1783190911.3619,1,1,5.0000,-0.0000,1.44679,0.18984,-2.78801,1.02733,1.57079,0.00003,-0.14511,-0.38001,0.03551,,,,,,,,,,,,,,,,,,,,,,,,,,0,0,0,0,0
4.9713,1783190911.3731,1,1,5.0000,-0.0000,1.44679,0.18965,-2.78805,1.02757,1.57079,0.00003,-0.14511,-0.38001,0.03546,,,,,,,,,,,,,,,,,,,,,,,,,,0,0,0,0,0
4.9716,1783190911.3734,1,1,5.0000,-0.0000,1.44679,0.18965,-2.78805,1.02757,1.57079,0.00003,-0.14511,-0.38001,0.03546,,,,,,,,,,,,,,,,,,,,,,,,,,0,0,0,0,0
4.9807,1783190911.3825,1,1,5.0000,-0.0000,1.44679,0.18950,-2.78809,1.02775,1.57079,0.00003,-0.14511,-0.38001,0.03543,,,,,,,,,,,,,,,,,,,,,,,,,,0,0,0,0,0
4.9957,1783190911.3975,1,1,5.0000,-0.0000,1.44679,0.18942,-2.78810,1.02784,1.57079,0.00003,-0.14511,-0.38001,0.03541,,,,,,,,,,,,,,,,,,,,,,,,,,0,0,0,0,0
5.0074,1783190911.4092,1,1,5.0000,-0.0000,1.44679,0.18926,-2.78814,1.02805,1.57079,0.00003,-0.14511,-0.38001,0.03537,,,,,,,,,,,,,,,,,,,,,,,,,,0,0,0,0,0
5.0137,1783190911.4155,1,1,5.0000,-0.0000,1.44679,0.18926,-2.78814,1.02805,1.57079,0.00003,-0.14511,-0.38001,0.03537,,,,,,,,,,,,,,,,,,,,,,,,,,0,0,0,0,0
5.0141,1783190911.4158,1,1,5.0000,-0.0000,1.44679,0.18926,-2.78814,1.02805,1.57079,0.00003,-0.14511,-0.38001,0.03537,,,,,,,,,,,,,,,,,,,,,,,,,,0,0,0,0,0
5.0266,1783190911.4284,1,1,5.0000,-0.0000,1.44679,0.18915,-2.78817,1.02817,1.57079,0.00003,-0.14511,-0.38001,0.03534,,,,,,,,,,,,,,,,,,,,,,,,,,0,0,0,0,0
5.0341,1783190911.4359,1,1,5.0000,-0.0000,1.44679,0.18901,-2.78820,1.02834,1.57079,0.00003,-0.14511,-0.38001,0.03531,,,,,,,,,,,,,,,,,,,,,,,,,,0,0,0,0,0
5.0347,1783190911.4364,1,1,5.0000,-0.0000,1.44679,0.18901,-2.78820,1.02834,1.57079,0.00003,-0.14511,-0.38001,0.03531,,,,,,,,,,,,,,,,,,,,,,,,,,0,0,0,0,0
5.0464,1783190911.4482,1,1,5.0000,-0.0000,1.44679,0.18887,-2.78823,1.02852,1.57079,0.00003,-0.14511,-0.38001,0.03527,,,,,,,,,,,,,,,,,,,,,,,,,,0,0,0,0,0
5.0540,1783190911.4558,1,1,5.0000,-0.0000,1.44679,0.18883,-2.78824,1.02857,1.57079,0.00003,-0.14511,-0.38001,0.03526,,,,,,,,,,,,,,,,,,,,,,,,,,0,0,0,0,0
5.0640,1783190911.4658,1,1,5.0000,-0.0000,1.44679,0.18869,-2.78827,1.02874,1.57079,0.00003,-0.14511,-0.38001,0.03523,,,,,,,,,,,,,,,,,,,,,,,,,,0,0,0,0,0
5.0751,1783190911.4769,1,1,5.0000,-0.0000,1.44679,0.18861,-2.78829,1.02884,1.57079,0.00003,-0.14511,-0.38001,0.03521,,,,,,,,,,,,,,,,,,,,,,,,,,0,0,0,0,0
5.0841,1783190911.4858,1,1,5.0000,-0.0000,1.44679,0.18852,-2.78831,1.02895,1.57079,0.00003,-0.14511,-0.38001,0.03519,,,,,,,,,,,,,,,,,,,,,,,,,,0,0,0,0,0
5.0951,1783190911.4968,1,1,5.0000,-0.0000,1.44679,0.18831,-2.78836,1.02921,1.57079,0.00003,-0.14511,-0.38001,0.03513,,,,,,,,,,,,,,,,,,,,,,,,,,0,0,0,0,0
5.1075,1783190911.5092,1,1,5.0000,-0.0000,1.44679,0.18823,-2.78838,1.02931,1.57079,0.00003,-0.14511,-0.38001,0.03511,,,,,,,,,,,,,,,,,,,,,,,,,,0,0,0,0,0
5.1079,1783190911.5096,1,1,5.0000,-0.0000,1.44679,0.18823,-2.78838,1.02931,1.57079,0.00003,-0.14511,-0.38001,0.03511,,,,,,,,,,,,,,,,,,,,,,,,,,0,0,0,0,0
5.1160,1783190911.5178,1,1,5.0000,-0.0000,1.44679,0.18816,-2.78839,1.02939,1.57079,0.00003,-0.14511,-0.38001,0.03510,,,,,,,,,,,,,,,,,,,,,,,,,,0,0,0,0,0
5.1163,1783190911.5181,1,1,5.0000,-0.0000,1.44679,0.18816,-2.78839,1.02939,1.57079,0.00003,-0.14511,-0.38001,0.03510,,,,,,,,,,,,,,,,,,,,,,,,,,0,0,0,0,0
5.1302,1783190911.5320,1,1,5.0000,-0.0000,1.44679,0.18799,-2.78843,1.02959,1.57079,0.00004,-0.14511,-0.38001,0.03506,,,,,,,,,,,,,,,,,,,,,,,,,,0,0,0,0,0
5.1374,1783190911.5392,1,1,5.0000,-0.0000,1.44679,0.18798,-2.78843,1.02961,1.57079,0.00004,-0.14511,-0.38001,0.03505,,,,,,,,,,,,,,,,,,,,,,,,,,0,0,0,0,0
5.1495,1783190911.5512,1,1,5.0000,-0.0000,1.44679,0.18782,-2.78847,1.02980,1.57079,0.00004,-0.14511,-0.38001,0.03502,,,,,,,,,,,,,,,,,,,,,,,,,,0,0,0,0,0
5.1498,1783190911.5516,1,1,5.0000,-0.0000,1.44679,0.18782,-2.78847,1.02980,1.57079,0.00004,-0.14511,-0.38001,0.03502,,,,,,,,,,,,,,,,,,,,,,,,,,0,0,0,0,0
5.1540,1783190911.5558,1,1,5.0000,-0.0000,1.44679,0.18775,-2.78848,1.02989,1.57079,0.00004,-0.14511,-0.38001,0.03500,,,,,,,,,,,,,,,,,,,,,,,,,,0,0,0,0,0
5.1638,1783190911.5656,1,1,5.0000,-0.0000,1.44679,0.18760,-2.78852,1.03007,1.57079,0.00004,-0.14511,-0.38001,0.03496,,,,,,,,,,,,,,,,,,,,,,,,,,0,0,0,0,0
5.1764,1783190911.5781,1,1,5.0000,-0.0000,1.44679,0.18753,-2.78853,1.03016,1.57079,0.00004,-0.14511,-0.38001,0.03494,,,,,,,,,,,,,,,,,,,,,,,,,,0,0,0,0,0
5.1844,1783190911.5861,1,1,5.0000,-0.0000,1.44679,0.18742,-2.78856,1.03029,1.57079,0.00004,-0.14511,-0.38001,0.03492,,,,,,,,,,,,,,,,,,,,,,,,,,0,0,0,0,0
5.1959,1783190911.5976,1,1,5.0000,-0.0000,1.44679,0.18735,-2.78857,1.03039,1.57079,0.00004,-0.14511,-0.38001,0.03490,,,,,,,,,,,,,,,,,,,,,,,,,,0,0,0,0,0
5.2074,1783190911.6092,1,1,5.0000,-0.0000,1.44679,0.18719,-2.78861,1.03058,1.57079,0.00004,-0.14511,-0.38001,0.03486,,,,,,,,,,,,,,,,,,,,,,,,,,0,0,0,0,0
5.2138,1783190911.6156,1,1,5.0000,-0.0000,1.44679,0.18712,-2.78863,1.03067,1.57079,0.00004,-0.14511,-0.38001,0.03484,,,,,,,,,,,,,,,,,,,,,,,,,,0,0,0,0,0
5.2142,1783190911.6160,1,1,5.0000,-0.0000,1.44679,0.18712,-2.78863,1.03067,1.57079,0.00004,-0.14511,-0.38001,0.03484,,,,,,,,,,,,,,,,,,,,,,,,,,0,0,0,0,0
5.2245,1783190911.6262,1,1,5.0000,-0.0000,1.44679,0.18697,-2.78866,1.03085,1.57079,0.00004,-0.14511,-0.38001,0.03481,,,,,,,,,,,,,,,,,,,,,,,,,,0,0,0,0,0
5.2368,1783190911.6386,1,1,5.0000,-0.0000,1.44679,0.18687,-2.78868,1.03097,1.57079,0.00004,-0.14511,-0.38001,0.03478,,,,,,,,,,,,,,,,,,,,,,,,,,0,0,0,0,0
5.2462,1783190911.6479,1,1,5.0000,-0.0000,1.44679,0.18673,-2.78871,1.03114,1.57079,0.00004,-0.14511,-0.38001,0.03475,,,,,,,,,,,,,,,,,,,,,,,,,,0,0,0,0,0
5.2572,1783190911.6590,1,1,5.0000,-0.0000,1.44679,0.18665,-2.78873,1.03124,1.57079,0.00004,-0.14511,-0.38001,0.03473,,,,,,,,,,,,,,,,,,,,,,,,,,0,0,0,0,0
5.2660,1783190911.6678,1,1,5.0000,-0.0000,1.44679,0.18656,-2.78875,1.03135,1.57079,0.00004,-0.14511,-0.38001,0.03471,,,,,,,,,,,,,,,,,,,,,,,,,,0,0,0,0,0
5.2745,1783190911.6763,1,1,5.0000,-0.0000,1.44679,0.18643,-2.78878,1.03151,1.57079,0.00004,-0.14511,-0.38001,0.03467,,,,,,,,,,,,,,,,,,,,,,,,,,0,0,0,0,0
5.2922,1783190911.6940,1,1,5.0000,-0.0000,1.44679,0.18625,-2.78882,1.03174,1.57079,0.00004,-0.14511,-0.38001,0.03463,,,,,,,,,,,,,,,,,,,,,,,,,,0,0,0,0,0
5.2991,1783190911.7008,1,1,5.0000,-0.0000,1.44679,0.18616,-2.78884,1.03184,1.57079,0.00004,-0.14511,-0.38001,0.03461,,,,,,,,,,,,,,,,,,,,,,,,,,0,0,0,0,0
5.3099,1783190911.7117,1,1,5.0000,-0.0000,1.44679,0.18604,-2.78887,1.03199,1.57079,0.00004,-0.14511,-0.38001,0.03458,,,,,,,,,,,,,,,,,,,,,,,,,,0,0,0,0,0
5.3102,1783190911.7120,1,1,5.0000,-0.0000,1.44679,0.18604,-2.78887,1.03199,1.57079,0.00004,-0.14511,-0.38001,0.03458,,,,,,,,,,,,,,,,,,,,,,,,,,0,0,0,0,0
5.3147,1783190911.7165,1,1,5.0000,-0.0000,1.44679,0.18604,-2.78887,1.03199,1.57079,0.00004,-0.14511,-0.38001,0.03458,,,,,,,,,,,,,,,,,,,,,,,,,,0,0,0,0,0
5.3240,1783190911.7257,1,1,5.0000,-0.0000,1.44679,0.18593,-2.78889,1.03212,1.57079,0.00004,-0.14511,-0.38001,0.03455,,,,,,,,,,,,,,,,,,,,,,,,,,0,0,0,0,0
5.3343,1783190911.7361,1,1,5.0000,-0.0000,1.44679,0.18579,-2.78892,1.03229,1.57079,0.00004,-0.14511,-0.38001,0.03452,,,,,,,,,,,,,,,,,,,,,,,,,,0,0,0,0,0
5.3478,1783190911.7495,1,1,5.0000,-0.0000,1.44679,0.18563,-2.78896,1.03249,1.57079,0.00004,-0.14511,-0.38001,0.03448,,,,,,,,,,,,,,,,,,,,,,,,,,0,0,0,0,0
5.3603,1783190911.7620,1,1,5.0000,-0.0000,1.44679,0.18548,-2.78899,1.03267,1.57079,0.00004,-0.14511,-0.38001,0.03444,,,,,,,,,,,,,,,,,,,,,,,,,,0,0,0,0,0
5.3684,1783190911.7701,1,1,5.0000,-0.0000,1.44679,0.18533,-2.78903,1.03285,1.57079,0.00004,-0.14511,-0.38001,0.03441,,,,,,,,,,,,,,,,,,,,,,,,,,0,0,0,0,0
5.3755,1783190911.7772,1,1,5.0000,-0.0000,1.44679,0.18532,-2.78903,1.03287,1.57079,0.00004,-0.14511,-0.38001,0.03440,,,,,,,,,,,,,,,,,,,,,,,,,,0,0,0,0,0
5.3758,1783190911.7775,1,1,5.0000,-0.0000,1.44679,0.18532,-2.78903,1.03287,1.57079,0.00004,-0.14511,-0.38001,0.03440,,,,,,,,,,,,,,,,,,,,,,,,,,0,0,0,0,0
5.3835,1783190911.7853,1,1,5.0000,-0.0000,1.44679,0.18524,-2.78905,1.03297,1.57079,0.00004,-0.14511,-0.38001,0.03438,,,,,,,,,,,,,,,,,,,,,,,,,,0,0,0,0,0
